%
(Header)
(Generated by gcodetools from Inkscape.)
(Using default header. To add your own header create file "header" in the output dir.)
M3
(Header end.)
G21 (All units in mm)

(Start cutting path id: path18447)
(Change tool to Default tool)

G00 Z5.000000
G00 X90.555183 Y20.566151

G01 Z-1.000000 F100.0(Penetrate)
G02 X90.609818 Y20.576754 Z-1.000000 I0.054635 J-0.135461 F400.000000
G02 X90.664453 Y20.566151 Z-1.000000 I-0.000000 J-0.146063
G01 X90.664453 Y20.554713 Z-1.000000
G02 X90.609823 Y20.544101 Z-1.000000 I-0.054630 J0.135307
G02 X90.555189 Y20.554704 Z-1.000000 I0.000000 J0.146063
G01 X90.555183 Y20.566151 Z-1.000000
G01 X90.555183 Y20.566151 Z-1.000000
G00 Z5.000000

(End cutting path id: path18447)


(Start cutting path id: path18447)
(Change tool to Default tool)

G00 Z5.000000
G00 X93.153199 Y23.105045

G01 Z-1.000000 F100.0(Penetrate)
G02 X93.184041 Y23.162021 Z-1.000000 I0.105611 J-0.020334 F400.000000
G02 X93.232289 Y23.181535 Z-1.000000 I0.048248 J-0.049888
G02 X93.280537 Y23.162021 Z-1.000000 I0.000000 J-0.069404
G02 X93.311389 Y23.105045 Z-1.000000 I-0.074797 J-0.077343
G02 X93.295276 Y23.054028 Z-1.000000 I-0.055168 J-0.010629
G02 X93.232289 Y23.028555 Z-1.000000 I-0.062987 J0.065137
G02 X93.169312 Y23.054026 Z-1.000000 I-0.000000 J0.090592
G02 X93.153199 Y23.105045 Z-1.000000 I0.039060 J0.040390
G01 X93.153199 Y23.105045 Z-1.000000
G00 Z5.000000

(End cutting path id: path18447)


(Start cutting path id: path18447)
(Change tool to Default tool)

G00 Z5.000000
G00 X95.071478 Y26.638104

G01 Z-1.000000 F100.0(Penetrate)
G01 X95.084284 Y26.667304 Z-1.000000 F400.000000
G01 X95.097888 Y26.664514 Z-1.000000
G02 X95.107234 Y26.609955 Z-1.000000 I-0.122608 J-0.049082
G01 X95.094388 Y26.580744 Z-1.000000
G01 X95.080789 Y26.583534 Z-1.000000
G02 X95.071428 Y26.638114 Z-1.000000 I0.122828 J0.049158
G01 X95.071478 Y26.638104 Z-1.000000
G00 Z5.000000

(End cutting path id: path18447)


(Start cutting path id: path18447)
(Change tool to Default tool)

G00 Z5.000000
G00 X95.158898 Y26.638104

G01 Z-1.000000 F100.0(Penetrate)
G01 X95.171704 Y26.667304 Z-1.000000 F400.000000
G01 X95.185308 Y26.664514 Z-1.000000
G02 X95.194654 Y26.609955 Z-1.000000 I-0.122608 J-0.049082
G01 X95.181808 Y26.580744 Z-1.000000
G01 X95.168209 Y26.583534 Z-1.000000
G02 X95.158848 Y26.638114 Z-1.000000 I0.122828 J0.049158
G01 X95.158898 Y26.638104 Z-1.000000
G00 Z5.000000

(End cutting path id: path18447)


(Start cutting path id: path18447)
(Change tool to Default tool)

G00 Z5.000000
G00 X93.022075 Y32.808207

G01 Z-1.000000 F100.0(Penetrate)
G02 X93.052917 Y32.865183 Z-1.000000 I0.105611 J-0.020334 F400.000000
G02 X93.101165 Y32.884697 Z-1.000000 I0.048248 J-0.049888
G02 X93.149413 Y32.865183 Z-1.000000 I0.000000 J-0.069404
G02 X93.180265 Y32.808207 Z-1.000000 I-0.074797 J-0.077343
G02 X93.164146 Y32.757188 Z-1.000000 I-0.055184 J-0.010621
G02 X93.101165 Y32.731717 Z-1.000000 I-0.062981 J0.065131
G02 X93.038188 Y32.757188 Z-1.000000 I-0.000000 J0.090592
G02 X93.022075 Y32.808207 Z-1.000000 I0.039060 J0.040390
G01 X93.022075 Y32.808207 Z-1.000000
G00 Z5.000000

(End cutting path id: path18447)


(Start cutting path id: path18447)
(Change tool to Default tool)

G00 Z5.000000
G00 X92.612188 Y34.641049

G01 Z-1.000000 F100.0(Penetrate)
G02 X92.666747 Y34.650395 Z-1.000000 I0.049082 J-0.122608 F400.000000
G01 X92.695958 Y34.637549 Z-1.000000
G01 X92.693168 Y34.623950 Z-1.000000
G02 X92.638588 Y34.614589 Z-1.000000 I-0.049158 J0.122828
G01 X92.609388 Y34.627395 Z-1.000000
G01 X92.612178 Y34.640999 Z-1.000000
G01 X92.612188 Y34.641049 Z-1.000000
G00 Z5.000000

(End cutting path id: path18447)


(Start cutting path id: path18447)
(Change tool to Default tool)

G00 Z5.000000
G00 X95.207375 Y36.479221

G01 Z-1.000000 F100.0(Penetrate)
G02 X95.299354 Y36.562213 Z-1.000000 I0.100975 J-0.019444 F400.000000
G02 X95.373983 Y36.493851 Z-1.000000 I0.006004 J-0.068362
G02 X95.347441 Y36.429773 Z-1.000000 I-0.090620 J-0.000000
G02 X95.283363 Y36.403231 Z-1.000000 I-0.064078 J0.064078
G02 X95.223012 Y36.428229 Z-1.000000 I0.000000 J0.085350
G02 X95.207373 Y36.479221 Z-1.000000 I0.040233 J0.040233
G01 X95.207375 Y36.479221 Z-1.000000
G00 Z5.000000

(End cutting path id: path18447)


(Start cutting path id: path18447)
(Change tool to Default tool)

G00 Z5.000000
G00 X96.801776 Y36.694621

G01 Z-1.000000 F100.0(Penetrate)
G02 X96.786961 Y36.760499 Z-1.000000 I0.044644 J0.044644 F400.000000
G02 X96.838196 Y36.796606 Z-1.000000 I0.051235 J-0.018296
G02 X96.884554 Y36.777404 Z-1.000000 I0.000000 J-0.065560
G02 X96.903756 Y36.731046 Z-1.000000 I-0.046358 J-0.046358
G02 X96.867650 Y36.679813 Z-1.000000 I-0.054402 J0.000000
G02 X96.801771 Y36.694626 Z-1.000000 I-0.021235 J0.059462
G01 X96.801776 Y36.694621 Z-1.000000
G00 Z5.000000

(End cutting path id: path18447)


(Start cutting path id: path18447)
(Change tool to Default tool)

G00 Z5.000000
G00 X101.603788 Y36.357138

G01 Z-1.000000 F100.0(Penetrate)
G02 X101.605914 Y36.443411 Z-1.000000 I0.067210 J0.041506 F400.000000
G02 X101.695588 Y36.490569 Z-1.000000 I0.089674 J-0.061681
G02 X101.736347 Y36.469591 Z-1.000000 I0.000000 J-0.050085
G02 X101.747688 Y36.417699 Z-1.000000 I-0.054856 J-0.039173
G02 X101.679032 Y36.333111 Z-1.000000 I-0.113520 J0.021983
G02 X101.603858 Y36.357139 Z-1.000000 I-0.023548 J0.055936
G01 X101.603788 Y36.357138 Z-1.000000
G00 Z5.000000

(End cutting path id: path18447)


(Start cutting path id: path18447)
(Change tool to Default tool)

G00 Z5.000000
G00 X110.026800 Y36.082566

G01 Z-1.000000 F100.0(Penetrate)
G02 X109.994955 Y36.112269 Z-1.000000 I0.022650 J0.056205 F400.000000
G01 X109.996600 Y36.144676 Z-1.000000
G02 X110.106410 Y36.197433 Z-1.000000 I0.096150 J-0.059471
G02 X110.206780 Y36.119086 Z-1.000000 I-0.014919 J-0.122579
G01 X110.179068 Y36.068604 Z-1.000000
G02 X110.026800 Y36.082566 Z-1.000000 I-0.052885 J0.260538
G01 X110.026800 Y36.082566 Z-1.000000
G00 Z5.000000

(End cutting path id: path18447)


(Start cutting path id: path18447)
(Change tool to Default tool)

G00 Z5.000000
G00 X115.818370 Y33.503701

G01 Z-1.000000 F100.0(Penetrate)
G02 X115.873030 Y33.514293 Z-1.000000 I0.054660 J-0.135749 F400.000000
G02 X115.927640 Y33.503701 Z-1.000000 I-0.000000 J-0.146080
G01 X115.927632 Y33.492196 Z-1.000000
G02 X115.873040 Y33.481651 Z-1.000000 I-0.054592 J0.136033
G02 X115.818441 Y33.492250 Z-1.000000 I0.000000 J0.145931
G01 X115.818440 Y33.503701 Z-1.000000
G01 X115.818370 Y33.503701 Z-1.000000
G00 Z5.000000

(End cutting path id: path18447)


(Start cutting path id: path18447)
(Change tool to Default tool)

G00 Z5.000000
G00 X115.821100 Y33.417231

G01 Z-1.000000 F100.0(Penetrate)
G02 X115.875576 Y33.426578 Z-1.000000 I0.049015 J-0.122247 F400.000000
G01 X115.904900 Y33.413731 Z-1.000000
G01 X115.902105 Y33.400135 Z-1.000000
G02 X115.847500 Y33.390771 Z-1.000000 I-0.049183 J0.122907
G01 X115.818306 Y33.403572 Z-1.000000
G01 X115.821100 Y33.417181 Z-1.000000
G01 X115.821100 Y33.417231 Z-1.000000
G00 Z5.000000

(End cutting path id: path18447)


(Start cutting path id: path18447)
(Change tool to Default tool)

G00 Z5.000000
G00 X116.364700 Y34.010176

G01 Z-1.000000 F100.0(Penetrate)
G02 X116.394889 Y34.049659 Z-1.000000 I0.072443 J-0.024108 F400.000000
G02 X116.456600 Y34.071286 Z-1.000000 I0.073310 J-0.110328
G01 X116.462279 Y34.064718 Z-1.000000
G01 X116.452600 Y34.054466 Z-1.000000
G01 X116.436603 Y34.028541 Z-1.000000
G01 X116.462700 Y33.996426 Z-1.000000
G01 X116.471873 Y33.975442 Z-1.000000
G01 X116.448100 Y33.958606 Z-1.000000
G02 X116.376074 Y33.977841 Z-1.000000 I-0.003909 J0.129831
G01 X116.364300 Y34.010166 Z-1.000000
G01 X116.364700 Y34.010176 Z-1.000000
G00 Z5.000000

(End cutting path id: path18447)


(Start cutting path id: path18447)
(Change tool to Default tool)

G00 Z5.000000
G00 X116.517700 Y30.444149

G01 Z-1.000000 F100.0(Penetrate)
G02 X116.572276 Y30.454757 Z-1.000000 I0.054576 J-0.135089 F400.000000
G02 X116.626970 Y30.444149 Z-1.000000 I-0.000000 J-0.146305
G01 X116.626962 Y30.432644 Z-1.000000
G02 X116.572370 Y30.422099 Z-1.000000 I-0.054592 J0.136033
G02 X116.517771 Y30.432698 Z-1.000000 I0.000000 J0.145931
G01 X116.517770 Y30.444149 Z-1.000000
G01 X116.517700 Y30.444149 Z-1.000000
G00 Z5.000000

(End cutting path id: path18447)


(Start cutting path id: path18447)
(Change tool to Default tool)

G00 Z5.000000
G00 X116.517700 Y30.356729

G01 Z-1.000000 F100.0(Penetrate)
G02 X116.572276 Y30.367337 Z-1.000000 I0.054576 J-0.135089 F400.000000
G02 X116.626970 Y30.356729 Z-1.000000 I-0.000000 J-0.146305
G01 X116.626964 Y30.345228 Z-1.000000
G02 X116.572370 Y30.334679 Z-1.000000 I-0.054594 J0.135999
G02 X116.517771 Y30.345278 Z-1.000000 I0.000000 J0.145931
G01 X116.517770 Y30.356729 Z-1.000000
G01 X116.517700 Y30.356729 Z-1.000000
G00 Z5.000000

(End cutting path id: path18447)


(Start cutting path id: path18447)
(Change tool to Default tool)

G00 Z5.000000
G00 X111.625160 Y26.292801

G01 Z-1.000000 F100.0(Penetrate)
G02 X111.679636 Y26.302148 Z-1.000000 I0.049015 J-0.122247 F400.000000
G01 X111.708960 Y26.289301 Z-1.000000
G01 X111.706165 Y26.275705 Z-1.000000
G02 X111.651560 Y26.266341 Z-1.000000 I-0.049183 J0.122907
G01 X111.622368 Y26.279140 Z-1.000000
G01 X111.625160 Y26.292751 Z-1.000000
G01 X111.625160 Y26.292801 Z-1.000000
G00 Z5.000000

(End cutting path id: path18447)


(Start cutting path id: path18447)
(Change tool to Default tool)

G00 Z5.000000
G00 X111.491790 Y26.206441

G01 Z-1.000000 F100.0(Penetrate)
G02 X111.590344 Y26.215578 Z-1.000000 I0.095973 J-0.499133 F400.000000
G02 X111.666630 Y26.205559 Z-1.000000 I-0.001560 J-0.307333
G01 X111.666301 Y26.195666 Z-1.000000
G02 X111.567730 Y26.186549 Z-1.000000 I-0.096019 J0.500709
G02 X111.491409 Y26.196555 Z-1.000000 I0.001557 J0.307946
G01 X111.491730 Y26.206439 Z-1.000000
G01 X111.491790 Y26.206441 Z-1.000000
G00 Z5.000000

(End cutting path id: path18447)


(Start cutting path id: path18447)
(Change tool to Default tool)

G00 Z5.000000
G00 X111.403890 Y26.291891

G01 Z-1.000000 F100.0(Penetrate)
G02 X111.458550 Y26.302483 Z-1.000000 I0.054660 J-0.135749 F400.000000
G02 X111.513160 Y26.291891 Z-1.000000 I-0.000000 J-0.146080
G01 X111.513147 Y26.280397 Z-1.000000
G02 X111.458560 Y26.269841 Z-1.000000 I-0.054587 J0.135863
G02 X111.403961 Y26.280440 Z-1.000000 I0.000000 J0.145931
G01 X111.403960 Y26.291891 Z-1.000000
G01 X111.403890 Y26.291891 Z-1.000000
G00 Z5.000000

(End cutting path id: path18447)


(Start cutting path id: path18447)
(Change tool to Default tool)

G00 Z5.000000
G00 X109.468000 Y29.587655

G01 Z-1.000000 F100.0(Penetrate)
G01 X109.479529 Y29.616031 Z-1.000000 F400.000000
G01 X109.526100 Y29.602195 Z-1.000000
G02 X109.550764 Y29.554948 Z-1.000000 I-0.075249 J-0.069344
G01 X109.539600 Y29.541045 Z-1.000000
G02 X109.502820 Y29.551965 Z-1.000000 I-0.000000 J0.067403
G02 X109.467900 Y29.587665 Z-1.000000 I0.062644 J0.096202
G01 X109.468000 Y29.587655 Z-1.000000
G00 Z5.000000

(End cutting path id: path18447)


(Start cutting path id: path18447)
(Change tool to Default tool)

G00 Z5.000000
G00 X104.902980 Y23.607691

G01 Z-1.000000 F100.0(Penetrate)
G02 X104.963204 Y23.673151 Z-1.000000 I0.065074 J0.000564 F400.000000
G02 X105.049240 Y23.618621 Z-1.000000 I0.006360 J-0.085102
G02 X105.051954 Y23.568409 Z-1.000000 I-0.076614 J-0.029320
G01 X105.032040 Y23.553061 Z-1.000000
G01 X105.003434 Y23.566964 Z-1.000000
G02 X104.989040 Y23.607701 Z-1.000000 I0.052987 J0.041634
G01 X104.975598 Y23.618022 Z-1.000000
G01 X104.946040 Y23.596771 Z-1.000000
G01 X104.919711 Y23.586432 Z-1.000000
G01 X104.903040 Y23.607701 Z-1.000000
G01 X104.902980 Y23.607691 Z-1.000000
G00 Z5.000000

(End cutting path id: path18447)


(Start cutting path id: path18447)
(Change tool to Default tool)

G00 Z5.000000
G00 X104.675580 Y23.626621

G01 Z-1.000000 F100.0(Penetrate)
G02 X104.730112 Y23.635945 Z-1.000000 I0.049043 J-0.122705 F400.000000
G01 X104.759380 Y23.623121 Z-1.000000
G01 X104.756585 Y23.609525 Z-1.000000
G02 X104.701980 Y23.600161 Z-1.000000 I-0.049183 J0.122907
G01 X104.672788 Y23.612960 Z-1.000000
G01 X104.675580 Y23.626571 Z-1.000000
G01 X104.675580 Y23.626621 Z-1.000000
G00 Z5.000000

(End cutting path id: path18447)


(Start cutting path id: path18447)
(Change tool to Default tool)

G00 Z5.000000
G00 X104.675580 Y23.539201

G01 Z-1.000000 F100.0(Penetrate)
G02 X104.730112 Y23.548525 Z-1.000000 I0.049043 J-0.122705 F400.000000
G01 X104.759380 Y23.535701 Z-1.000000
G01 X104.756586 Y23.522103 Z-1.000000
G02 X104.701980 Y23.512741 Z-1.000000 I-0.049159 J0.122798
G01 X104.672788 Y23.525540 Z-1.000000
G01 X104.675580 Y23.539151 Z-1.000000
G01 X104.675580 Y23.539201 Z-1.000000
G00 Z5.000000

(End cutting path id: path18447)


(Start cutting path id: path18447)
(Change tool to Default tool)

G00 Z5.000000
G00 X101.689780 Y21.192823

G01 Z-1.000000 F100.0(Penetrate)
G02 X101.720316 Y21.230262 Z-1.000000 I0.159186 J-0.098663 F400.000000
G01 X101.736080 Y21.236533 Z-1.000000
G01 X101.747756 Y21.228928 Z-1.000000
G02 X101.755380 Y21.192823 Z-1.000000 I-0.081683 J-0.036105
G01 X101.742227 Y21.162297 Z-1.000000
G01 X101.709080 Y21.149113 Z-1.000000
G01 X101.687730 Y21.163047 Z-1.000000
G01 X101.689780 Y21.192823 Z-1.000000
G01 X101.689780 Y21.192823 Z-1.000000
G00 Z5.000000

(End cutting path id: path18447)


(Start cutting path id: path18447)
(Change tool to Default tool)

G00 Z5.000000
G00 X99.132866 Y20.881248

G01 Z-1.000000 F100.0(Penetrate)
G02 X99.180828 Y20.979018 Z-1.000000 I0.123631 J0.000000 F400.000000
G02 X99.277588 Y20.993257 Z-1.000000 I0.061033 J-0.078859
G02 X99.326990 Y20.895998 Z-1.000000 I-0.029161 J-0.075988
G02 X99.227248 Y20.807339 Z-1.000000 I-0.117571 J0.031833
G02 X99.160218 Y20.825078 Z-1.000000 I-0.012858 J0.086927
G02 X99.132858 Y20.881249 Z-1.000000 I0.043980 J0.056171
G01 X99.132866 Y20.881248 Z-1.000000
G00 Z5.000000

(End cutting path id: path18447)


(Start cutting path id: path18447)
(Change tool to Default tool)

G00 Z5.000000
G00 X87.220099 Y23.950231

G01 Z-1.000000 F100.0(Penetrate)
G02 X87.236774 Y24.051167 Z-1.000000 I0.066197 J0.040910 F400.000000
G02 X87.336656 Y24.046391 Z-1.000000 I0.047313 J-0.057349
G02 X87.358421 Y23.953210 Z-1.000000 I-0.064106 J-0.064106
G02 X87.288016 Y23.902717 Z-1.000000 I-0.070405 J0.023838
G02 X87.255233 Y23.913046 Z-1.000000 I-0.000000 J0.057187
G02 X87.220096 Y23.950237 Z-1.000000 I0.072630 J0.103813
G01 X87.220099 Y23.950231 Z-1.000000
G00 Z5.000000

(End cutting path id: path18447)


(Start cutting path id: path18447)
(Change tool to Default tool)

G00 Z5.000000
G00 X84.780222 Y27.685106

G01 Z-1.000000 F100.0(Penetrate)
G02 X84.781779 Y27.740139 Z-1.000000 I0.066822 J0.025648 F400.000000
G02 X84.822192 Y27.778326 Z-1.000000 I0.066569 J-0.029972
G02 X84.937962 Y27.757882 Z-1.000000 I0.040878 J-0.106528
G02 X84.951995 Y27.665406 Z-1.000000 I-0.047412 J-0.054498
G02 X84.861973 Y27.621751 Z-1.000000 I-0.079388 J0.049063
G02 X84.780223 Y27.685106 Z-1.000000 I0.011364 J0.099084
G01 X84.780222 Y27.685106 Z-1.000000
G00 Z5.000000

(End cutting path id: path18447)


(Start cutting path id: path18447)
(Change tool to Default tool)

G00 Z5.000000
G00 X86.711616 Y29.352359

G01 Z-1.000000 F100.0(Penetrate)
G02 X86.766175 Y29.361705 Z-1.000000 I0.049082 J-0.122608 F400.000000
G01 X86.795386 Y29.348859 Z-1.000000
G01 X86.792596 Y29.335260 Z-1.000000
G02 X86.738016 Y29.325899 Z-1.000000 I-0.049158 J0.122828
G01 X86.708816 Y29.338705 Z-1.000000
G01 X86.711606 Y29.352309 Z-1.000000
G01 X86.711616 Y29.352359 Z-1.000000
G00 Z5.000000

(End cutting path id: path18447)


(Start cutting path id: path18447)
(Change tool to Default tool)

G00 Z5.000000
G00 X86.711616 Y29.439779

G01 Z-1.000000 F100.0(Penetrate)
G02 X86.766175 Y29.449125 Z-1.000000 I0.049082 J-0.122608 F400.000000
G01 X86.795386 Y29.436279 Z-1.000000
G01 X86.792596 Y29.422680 Z-1.000000
G02 X86.738016 Y29.413319 Z-1.000000 I-0.049158 J0.122828
G01 X86.708816 Y29.426125 Z-1.000000
G01 X86.711606 Y29.439729 Z-1.000000
G01 X86.711616 Y29.439779 Z-1.000000
G00 Z5.000000

(End cutting path id: path18447)


(Start cutting path id: path18447)
(Change tool to Default tool)

G00 Z5.000000
G00 X87.891731 Y32.586726

G01 Z-1.000000 F100.0(Penetrate)
G02 X87.946289 Y32.596069 Z-1.000000 I0.049100 J-0.122749 F400.000000
G01 X87.975501 Y32.583226 Z-1.000000
G01 X87.972711 Y32.569627 Z-1.000000
G02 X87.918131 Y32.560266 Z-1.000000 I-0.049158 J0.122828
G01 X87.888931 Y32.573072 Z-1.000000
G01 X87.891721 Y32.586676 Z-1.000000
G01 X87.891731 Y32.586726 Z-1.000000
G00 Z5.000000

(End cutting path id: path18447)


(Start cutting path id: path18447)
(Change tool to Default tool)

G00 Z5.000000
G00 X88.190076 Y33.584019

G01 Z-1.000000 F100.0(Penetrate)
G02 X88.229955 Y33.628162 Z-1.000000 I0.077146 J-0.029609 F400.000000
G02 X88.319828 Y33.649579 Z-1.000000 I0.089873 J-0.177861
G02 X88.401065 Y33.626224 Z-1.000000 I0.000000 J-0.152961
G01 X88.424421 Y33.584019 Z-1.000000
G01 X88.399455 Y33.543431 Z-1.000000
G02 X88.294669 Y33.518459 Z-1.000000 I-0.104786 J0.207366
G02 X88.203182 Y33.544763 Z-1.000000 I-0.000000 J0.172254
G01 X88.190076 Y33.584019 Z-1.000000
G01 X88.190076 Y33.584019 Z-1.000000
G00 Z5.000000

(End cutting path id: path18447)


(Start cutting path id: path18447)
(Change tool to Default tool)

G00 Z5.000000
G00 X88.368876 Y33.588619

G01 Z-1.000000 F100.0(Penetrate)
G01 X88.339678 Y33.601429 Z-1.000000 F400.000000
G03 X88.285106 Y33.592119 Z-1.000000 I-0.005495 J-0.132394
G01 X88.282314 Y33.578516 Z-1.000000
G01 X88.311516 Y33.565709 Z-1.000000
G03 X88.366079 Y33.575049 Z-1.000000 I0.005451 J0.132201
G01 X88.368886 Y33.588669 Z-1.000000
G01 X88.368876 Y33.588619 Z-1.000000
G00 Z5.000000

(End cutting path id: path18447)


(Start cutting path id: path18447)
(Change tool to Default tool)

G00 Z5.000000
G00 X89.246677 Y34.203896

G01 Z-1.000000 F100.0(Penetrate)
G02 X89.301274 Y34.213259 Z-1.000000 I0.049160 J-0.122803 F400.000000
G01 X89.330447 Y34.200496 Z-1.000000
G01 X89.327657 Y34.186897 Z-1.000000
G02 X89.273077 Y34.177536 Z-1.000000 I-0.049158 J0.122828
G01 X89.243876 Y34.190344 Z-1.000000
G01 X89.246667 Y34.203946 Z-1.000000
G01 X89.246677 Y34.203896 Z-1.000000
G00 Z5.000000

(End cutting path id: path18447)


(Start cutting path id: path18447)
(Change tool to Default tool)

G00 Z5.000000
G00 X89.505562 Y37.259835

G01 Z-1.000000 F100.0(Penetrate)
G02 X89.497553 Y37.350260 Z-1.000000 I0.049996 J0.049996 F400.000000
G02 X89.609212 Y37.408539 Z-1.000000 I0.111659 J-0.077827
G02 X89.667052 Y37.383645 Z-1.000000 I0.000000 J-0.079643
G02 X89.691952 Y37.321119 Z-1.000000 I-0.066056 J-0.062526
G02 X89.626699 Y37.230973 Z-1.000000 I-0.094895 J0.000000
G02 X89.505563 Y37.259829 Z-1.000000 I-0.037116 J0.112878
G01 X89.505562 Y37.259835 Z-1.000000
G00 Z5.000000

(End cutting path id: path18447)


(Start cutting path id: path18447)
(Change tool to Default tool)

G00 Z5.000000
G00 X84.493779 Y36.457821

G01 Z-1.000000 F100.0(Penetrate)
G01 X84.510353 Y36.479163 Z-1.000000 F400.000000
G01 X84.531599 Y36.468751 Z-1.000000
G01 X84.566349 Y36.381331 Z-1.000000
G01 X84.589029 Y36.468751 Z-1.000000
G01 X84.603581 Y36.476159 Z-1.000000
G01 X84.616769 Y36.457821 Z-1.000000
G02 X84.597543 Y36.382549 Z-1.000000 I-0.130748 J-0.006696
G01 X84.556279 Y36.359481 Z-1.000000
G01 X84.514436 Y36.382469 Z-1.000000
G02 X84.493789 Y36.457821 Z-1.000000 I0.112072 J0.071213
G01 X84.493779 Y36.457821 Z-1.000000
G00 Z5.000000

(End cutting path id: path18447)


(Start cutting path id: path18447)
(Change tool to Default tool)

G00 Z5.000000
G00 X84.209124 Y33.645487

G01 Z-1.000000 F100.0(Penetrate)
G01 X84.215743 Y33.662126 Z-1.000000 F400.000000
G02 X84.272104 Y33.662247 Z-1.000000 I0.028411 J-0.106769
G02 X84.311462 Y33.628525 Z-1.000000 I-0.014992 J-0.057327
G01 X84.296594 Y33.605857 Z-1.000000
G02 X84.240386 Y33.617995 Z-1.000000 I0.000000 J0.136216
G02 X84.209114 Y33.645487 Z-1.000000 I0.029468 J0.065051
G01 X84.209124 Y33.645487 Z-1.000000
G00 Z5.000000

(End cutting path id: path18447)


(Start cutting path id: path18447)
(Change tool to Default tool)

G00 Z5.000000
G00 X85.050715 Y33.504611

G01 Z-1.000000 F100.0(Penetrate)
G02 X85.105274 Y33.513957 Z-1.000000 I0.049082 J-0.122608 F400.000000
G01 X85.134485 Y33.501111 Z-1.000000
G01 X85.131696 Y33.487510 Z-1.000000
G02 X85.077115 Y33.478151 Z-1.000000 I-0.049135 J0.122720
G01 X85.047915 Y33.490957 Z-1.000000
G01 X85.050705 Y33.504561 Z-1.000000
G01 X85.050715 Y33.504611 Z-1.000000
G00 Z5.000000

(End cutting path id: path18447)


(Start cutting path id: path18447)
(Change tool to Default tool)

G00 Z5.000000
G00 X86.114802 Y33.431051

G01 Z-1.000000 F100.0(Penetrate)
G02 X86.125405 Y33.485685 Z-1.000000 I0.146063 J0.000000 F400.000000
G01 X86.136852 Y33.485691 Z-1.000000
G02 X86.147463 Y33.431056 Z-1.000000 I-0.135349 J-0.054635
G02 X86.136852 Y33.376421 Z-1.000000 I-0.145960 J0.000000
G01 X86.125418 Y33.376418 Z-1.000000
G02 X86.114802 Y33.431051 Z-1.000000 I0.135273 J0.054633
G01 X86.114802 Y33.431051 Z-1.000000
G00 Z5.000000

(End cutting path id: path18447)


(Start cutting path id: path18447)
(Change tool to Default tool)

G00 Z5.000000
G00 X75.020654 Y31.660877

G01 Z-1.000000 F100.0(Penetrate)
G02 X75.041734 Y31.705360 Z-1.000000 I0.057473 J0.000000 F400.000000
G02 X75.100784 Y31.726437 Z-1.000000 I0.059050 J-0.072177
G02 X75.159834 Y31.705360 Z-1.000000 I0.000000 J-0.093254
G02 X75.180914 Y31.660877 Z-1.000000 I-0.036392 J-0.044483
G02 X75.159834 Y31.616394 Z-1.000000 I-0.057473 J-0.000000
G02 X75.100784 Y31.595317 Z-1.000000 I-0.059050 J0.072177
G02 X75.041734 Y31.616394 Z-1.000000 I-0.000000 J0.093254
G02 X75.020654 Y31.660877 Z-1.000000 I0.036392 J0.044483
G01 X75.020654 Y31.660877 Z-1.000000
G00 Z5.000000

(End cutting path id: path18447)


(Start cutting path id: path18447)
(Change tool to Default tool)

G00 Z5.000000
G00 X73.334256 Y32.979210

G01 Z-1.000000 F100.0(Penetrate)
G02 X73.388891 Y32.989821 Z-1.000000 I0.054635 J-0.135349 F400.000000
G02 X73.443526 Y32.979210 Z-1.000000 I-0.000000 J-0.145960
G01 X73.443527 Y32.967780 Z-1.000000
G02 X73.388886 Y32.957170 Z-1.000000 I-0.054641 J0.135395
G02 X73.334251 Y32.967770 Z-1.000000 I0.000000 J0.146106
G01 X73.334246 Y32.979210 Z-1.000000
G01 X73.334256 Y32.979210 Z-1.000000
G00 Z5.000000

(End cutting path id: path18447)


(Start cutting path id: path18447)
(Change tool to Default tool)

G00 Z5.000000
G00 X73.850343 Y33.864053

G01 Z-1.000000 F100.0(Penetrate)
G01 X73.856962 Y33.880692 Z-1.000000 F400.000000
G02 X73.913323 Y33.880813 Z-1.000000 I0.028411 J-0.106769
G02 X73.952681 Y33.847091 Z-1.000000 I-0.014992 J-0.057327
G01 X73.937813 Y33.824423 Z-1.000000
G02 X73.881600 Y33.836566 Z-1.000000 I-0.000000 J0.136182
G02 X73.850333 Y33.864053 Z-1.000000 I0.029491 J0.065074
G01 X73.850343 Y33.864053 Z-1.000000
G00 Z5.000000

(End cutting path id: path18447)


(Start cutting path id: path18447)
(Change tool to Default tool)

G00 Z5.000000
G00 X72.069457 Y31.887424

G01 Z-1.000000 F100.0(Penetrate)
G02 X72.124016 Y31.896770 Z-1.000000 I0.049082 J-0.122608 F400.000000
G01 X72.153227 Y31.883924 Z-1.000000
G01 X72.150437 Y31.870325 Z-1.000000
G02 X72.095857 Y31.860964 Z-1.000000 I-0.049158 J0.122828
G01 X72.066657 Y31.873770 Z-1.000000
G01 X72.069447 Y31.887374 Z-1.000000
G01 X72.069457 Y31.887424 Z-1.000000
G00 Z5.000000

(End cutting path id: path18447)


(Start cutting path id: path18447)
(Change tool to Default tool)

G00 Z5.000000
G00 X72.023018 Y31.799094

G01 Z-1.000000 F100.0(Penetrate)
G02 X72.077653 Y31.809697 Z-1.000000 I0.054635 J-0.135461 F400.000000
G02 X72.132288 Y31.799094 Z-1.000000 I-0.000000 J-0.146063
G01 X72.132290 Y31.787660 Z-1.000000
G02 X72.077648 Y31.777044 Z-1.000000 I-0.054642 J0.135315
G02 X72.023014 Y31.787647 Z-1.000000 I0.000000 J0.146063
G01 X72.023008 Y31.799094 Z-1.000000
G01 X72.023018 Y31.799094 Z-1.000000
G00 Z5.000000

(End cutting path id: path18447)


(Start cutting path id: path18447)
(Change tool to Default tool)

G00 Z5.000000
G00 X69.455176 Y33.190610

G01 Z-1.000000 F100.0(Penetrate)
G02 X69.470974 Y33.240373 Z-1.000000 I0.086275 J-0.000000 F400.000000
G01 X69.501466 Y33.256170 Z-1.000000
G01 X69.523704 Y33.242760 Z-1.000000
G01 X69.522786 Y33.215770 Z-1.000000
G01 X69.525106 Y33.186299 Z-1.000000
G03 X69.574836 Y33.155280 Z-1.000000 I0.074568 J0.064175
G01 X69.578830 Y33.142651 Z-1.000000
G01 X69.553516 Y33.130120 Z-1.000000
G02 X69.478244 Y33.149346 Z-1.000000 I-0.006696 J0.130748
G01 X69.455176 Y33.190610 Z-1.000000
G01 X69.455176 Y33.190610 Z-1.000000
G00 Z5.000000

(End cutting path id: path18447)


(Start cutting path id: path18447)
(Change tool to Default tool)

G00 Z5.000000
G00 X68.264135 Y33.372581

G01 Z-1.000000 F100.0(Penetrate)
G02 X68.318770 Y33.383184 Z-1.000000 I0.054635 J-0.135461 F400.000000
G02 X68.373405 Y33.372581 Z-1.000000 I-0.000000 J-0.146063
G01 X68.373405 Y33.361144 Z-1.000000
G02 X68.318765 Y33.350531 Z-1.000000 I-0.054640 J0.135348
G02 X68.264131 Y33.361134 Z-1.000000 I0.000000 J0.146063
G01 X68.264125 Y33.372581 Z-1.000000
G01 X68.264135 Y33.372581 Z-1.000000
G00 Z5.000000

(End cutting path id: path18447)


(Start cutting path id: path18447)
(Change tool to Default tool)

G00 Z5.000000
G00 X68.266867 Y33.460941

G01 Z-1.000000 F100.0(Penetrate)
G02 X68.321426 Y33.470287 Z-1.000000 I0.049082 J-0.122608 F400.000000
G01 X68.350637 Y33.457441 Z-1.000000
G01 X68.347847 Y33.443842 Z-1.000000
G02 X68.293267 Y33.434481 Z-1.000000 I-0.049158 J0.122828
G01 X68.264066 Y33.447289 Z-1.000000
G01 X68.266857 Y33.460891 Z-1.000000
G01 X68.266867 Y33.460941 Z-1.000000
G00 Z5.000000

(End cutting path id: path18447)


(Start cutting path id: path18447)
(Change tool to Default tool)

G00 Z5.000000
G00 X68.133011 Y32.454717

G01 Z-1.000000 F100.0(Penetrate)
G02 X68.187646 Y32.465320 Z-1.000000 I0.054635 J-0.135461 F400.000000
G02 X68.242281 Y32.454717 Z-1.000000 I-0.000000 J-0.146063
G01 X68.242281 Y32.443280 Z-1.000000
G02 X68.187641 Y32.432667 Z-1.000000 I-0.054640 J0.135348
G02 X68.133007 Y32.443270 Z-1.000000 I0.000000 J0.146063
G01 X68.133001 Y32.454717 Z-1.000000
G01 X68.133011 Y32.454717 Z-1.000000
G00 Z5.000000

(End cutting path id: path18447)


(Start cutting path id: path18447)
(Change tool to Default tool)

G00 Z5.000000
G00 X68.179451 Y32.368208

G01 Z-1.000000 F100.0(Penetrate)
G02 X68.234010 Y32.377554 Z-1.000000 I0.049082 J-0.122608 F400.000000
G01 X68.263221 Y32.364708 Z-1.000000
G01 X68.260431 Y32.351109 Z-1.000000
G02 X68.205851 Y32.341748 Z-1.000000 I-0.049158 J0.122828
G01 X68.176651 Y32.354554 Z-1.000000
G01 X68.179441 Y32.368158 Z-1.000000
G01 X68.179451 Y32.368208 Z-1.000000
G00 Z5.000000

(End cutting path id: path18447)


(Start cutting path id: path18447)
(Change tool to Default tool)

G00 Z5.000000
G00 X65.900264 Y32.542327

G01 Z-1.000000 F100.0(Penetrate)
G01 X65.896602 Y32.603587 Z-1.000000 F400.000000
G02 X65.980394 Y32.644312 Z-1.000000 I0.083792 J-0.065838
G02 X66.065965 Y32.620610 Z-1.000000 I-0.000000 J-0.166317
G01 X66.089664 Y32.578752 Z-1.000000
G02 X66.027365 Y32.503331 Z-1.000000 I-0.076803 J0.000000
G02 X65.900263 Y32.542332 Z-1.000000 I-0.026789 J0.139303
G01 X65.900264 Y32.542327 Z-1.000000
G00 Z5.000000

(End cutting path id: path18447)


(Start cutting path id: path18447)
(Change tool to Default tool)

G00 Z5.000000
G00 X65.543125 Y32.557207

G01 Z-1.000000 F100.0(Penetrate)
G02 X65.568354 Y32.646422 Z-1.000000 I0.053476 J0.033052 F400.000000
G02 X65.683610 Y32.627857 Z-1.000000 I0.044781 J-0.089037
G01 X65.681552 Y32.612742 Z-1.000000
G02 X65.635440 Y32.600607 Z-1.000000 I-0.046112 J0.081538
G03 X65.590808 Y32.583440 Z-1.000000 I-0.000000 J-0.066603
G01 X65.587030 Y32.556897 Z-1.000000
G02 X65.599449 Y32.521312 Z-1.000000 I-0.074161 J-0.045842
G01 X65.592230 Y32.513187 Z-1.000000
G01 X65.574219 Y32.520083 Z-1.000000
G02 X65.543170 Y32.557207 Z-1.000000 I0.113383 J0.126372
G01 X65.543125 Y32.557207 Z-1.000000
G00 Z5.000000

(End cutting path id: path18447)


(Start cutting path id: path18447)
(Change tool to Default tool)

G00 Z5.000000
G00 X64.996967 Y32.687996

G01 Z-1.000000 F100.0(Penetrate)
G02 X64.974070 Y32.718077 Z-1.000000 I0.030224 J0.046760 F400.000000
G01 X64.983457 Y32.731036 Z-1.000000
G02 X65.028955 Y32.719766 Z-1.000000 I0.001194 J-0.092655
G02 X65.062527 Y32.687996 Z-1.000000 I-0.043091 J-0.079159
G01 X65.053266 Y32.671386 Z-1.000000
G02 X64.996967 Y32.687996 Z-1.000000 I0.000000 J0.103720
G01 X64.996967 Y32.687996 Z-1.000000
G00 Z5.000000

(End cutting path id: path18447)


(Start cutting path id: path18447)
(Change tool to Default tool)

G00 Z5.000000
G00 X64.676593 Y33.711530

G01 Z-1.000000 F100.0(Penetrate)
G02 X64.700522 Y33.781051 Z-1.000000 I0.053413 J0.020494 F400.000000
G02 X64.811208 Y33.792480 Z-1.000000 I0.067527 J-0.112287
G02 X64.850289 Y33.762376 Z-1.000000 I-0.025757 J-0.073856
G02 X64.865848 Y33.711500 Z-1.000000 I-0.075395 J-0.050876
G02 X64.788758 Y33.634420 Z-1.000000 I-0.077080 J0.000000
G02 X64.676598 Y33.711525 Z-1.000000 I0.000015 J0.120151
G01 X64.676593 Y33.711530 Z-1.000000
G00 Z5.000000

(End cutting path id: path18447)


(Start cutting path id: path18447)
(Change tool to Default tool)

G00 Z5.000000
G00 X62.497419 Y33.592047

G01 Z-1.000000 F100.0(Penetrate)
G02 X62.551978 Y33.601393 Z-1.000000 I0.049082 J-0.122608 F400.000000
G01 X62.581189 Y33.588547 Z-1.000000
G01 X62.578399 Y33.574948 Z-1.000000
G02 X62.523819 Y33.565587 Z-1.000000 I-0.049158 J0.122828
G01 X62.494619 Y33.578393 Z-1.000000
G01 X62.497409 Y33.591997 Z-1.000000
G01 X62.497419 Y33.592047 Z-1.000000
G00 Z5.000000

(End cutting path id: path18447)


(Start cutting path id: path18447)
(Change tool to Default tool)

G00 Z5.000000
G00 X62.497419 Y33.504611

G01 Z-1.000000 F100.0(Penetrate)
G02 X62.551978 Y33.513957 Z-1.000000 I0.049082 J-0.122608 F400.000000
G01 X62.581189 Y33.501111 Z-1.000000
G01 X62.578400 Y33.487510 Z-1.000000
G02 X62.523819 Y33.478151 Z-1.000000 I-0.049135 J0.122720
G01 X62.494619 Y33.490957 Z-1.000000
G01 X62.497409 Y33.504561 Z-1.000000
G01 X62.497419 Y33.504611 Z-1.000000
G00 Z5.000000

(End cutting path id: path18447)


(Start cutting path id: path18447)
(Change tool to Default tool)

G00 Z5.000000
G00 X60.167240 Y33.298261

G01 Z-1.000000 F100.0(Penetrate)
G01 X60.342072 Y33.327901 Z-1.000000 F400.000000
G01 X60.167240 Y33.350271 Z-1.000000
G01 X59.992408 Y33.372641 Z-1.000000
G01 X60.200021 Y33.379941 Z-1.000000
G02 X60.379792 Y33.358449 Z-1.000000 I0.020780 J-0.588778
G01 X60.407634 Y33.321731 Z-1.000000
G01 X60.379808 Y33.284834 Z-1.000000
G02 X60.200021 Y33.262371 Z-1.000000 I-0.162155 J0.567127
G01 X59.992408 Y33.268571 Z-1.000000
G01 X60.167240 Y33.298261 Z-1.000000
G00 Z5.000000

(End cutting path id: path18447)


(Start cutting path id: path18447)
(Change tool to Default tool)

G00 Z5.000000
G00 X58.607413 Y32.455628

G01 Z-1.000000 F100.0(Penetrate)
G02 X58.661972 Y32.464974 Z-1.000000 I0.049082 J-0.122608 F400.000000
G01 X58.691183 Y32.452128 Z-1.000000
G01 X58.688393 Y32.438529 Z-1.000000
G02 X58.633813 Y32.429168 Z-1.000000 I-0.049158 J0.122828
G01 X58.604613 Y32.441974 Z-1.000000
G01 X58.607403 Y32.455578 Z-1.000000
G01 X58.607413 Y32.455628 Z-1.000000
G00 Z5.000000

(End cutting path id: path18447)


(Start cutting path id: path18447)
(Change tool to Default tool)

G00 Z5.000000
G00 X57.752376 Y32.586997

G01 Z-1.000000 F100.0(Penetrate)
G02 X57.828866 Y32.596823 Z-1.000000 I0.076490 J-0.292805 F400.000000
G02 X57.905354 Y32.586997 Z-1.000000 I-0.000000 J-0.302617
G01 X57.905354 Y32.576834 Z-1.000000
G02 X57.828864 Y32.567007 Z-1.000000 I-0.076490 J0.292760
G02 X57.752373 Y32.576839 Z-1.000000 I0.000000 J0.302470
G01 X57.752374 Y32.586997 Z-1.000000
G01 X57.752376 Y32.586997 Z-1.000000
G00 Z5.000000

(End cutting path id: path18447)


(Start cutting path id: path18447)
(Change tool to Default tool)

G00 Z5.000000
G00 X57.752376 Y32.674416

G01 Z-1.000000 F100.0(Penetrate)
G02 X57.828866 Y32.684242 Z-1.000000 I0.076490 J-0.292805 F400.000000
G02 X57.905354 Y32.674416 Z-1.000000 I0.000000 J-0.302617
G01 X57.905354 Y32.664253 Z-1.000000
G02 X57.828864 Y32.654426 Z-1.000000 I-0.076490 J0.292760
G02 X57.752373 Y32.664258 Z-1.000000 I0.000000 J0.302470
G01 X57.752374 Y32.674416 Z-1.000000
G01 X57.752376 Y32.674416 Z-1.000000
G00 Z5.000000

(End cutting path id: path18447)


(Start cutting path id: path18447)
(Change tool to Default tool)

G00 Z5.000000
G00 X57.096757 Y32.588297

G01 Z-1.000000 F100.0(Penetrate)
G02 X57.052054 Y32.669961 Z-1.000000 I0.023689 J0.066035 F400.000000
G02 X57.129537 Y32.731735 Z-1.000000 I0.077483 J-0.017707
G02 X57.195628 Y32.710408 Z-1.000000 I0.000000 J-0.113069
G02 X57.216957 Y32.668755 Z-1.000000 I-0.030007 J-0.041653
G02 X57.179442 Y32.598498 Z-1.000000 I-0.084545 J0.000000
G02 X57.096760 Y32.588295 Z-1.000000 I-0.051456 J0.076871
G01 X57.096757 Y32.588297 Z-1.000000
G00 Z5.000000

(End cutting path id: path18447)


(Start cutting path id: path18447)
(Change tool to Default tool)

G00 Z5.000000
G00 X56.771680 Y32.717856

G01 Z-1.000000 F100.0(Penetrate)
G02 X56.826239 Y32.727202 Z-1.000000 I0.049082 J-0.122608 F400.000000
G01 X56.855450 Y32.714356 Z-1.000000
G01 X56.852660 Y32.700757 Z-1.000000
G02 X56.798080 Y32.691396 Z-1.000000 I-0.049158 J0.122828
G01 X56.768879 Y32.704204 Z-1.000000
G01 X56.771670 Y32.717806 Z-1.000000
G01 X56.771680 Y32.717856 Z-1.000000
G00 Z5.000000

(End cutting path id: path18447)


(Start cutting path id: path18447)
(Change tool to Default tool)

G00 Z5.000000
G00 X57.326224 Y33.422131

G01 Z-1.000000 F100.0(Penetrate)
G01 X57.457348 Y33.443841 Z-1.000000 F400.000000
G01 X57.348078 Y33.476791 Z-1.000000
G01 X57.342568 Y33.496059 Z-1.000000
G02 X57.380858 Y33.514101 Z-1.000000 I0.039922 J-0.035075
G02 X57.497201 Y33.491949 Z-1.000000 I0.008272 J-0.273151
G01 X57.522909 Y33.452891 Z-1.000000
G01 X57.496295 Y33.415023 Z-1.000000
G02 X57.359004 Y33.393881 Z-1.000000 I-0.122798 J0.341079
G02 X57.322349 Y33.408339 Z-1.000000 I0.002390 J0.059753
G01 X57.326224 Y33.422131 Z-1.000000
G01 X57.326224 Y33.422131 Z-1.000000
G00 Z5.000000

(End cutting path id: path18447)


(Start cutting path id: path18447)
(Change tool to Default tool)

G00 Z5.000000
G00 X58.388873 Y33.723151

G01 Z-1.000000 F100.0(Penetrate)
G02 X58.443432 Y33.732497 Z-1.000000 I0.049082 J-0.122608 F400.000000
G01 X58.472643 Y33.719651 Z-1.000000
G01 X58.469853 Y33.706052 Z-1.000000
G02 X58.415273 Y33.696691 Z-1.000000 I-0.049158 J0.122828
G01 X58.386073 Y33.709497 Z-1.000000
G01 X58.388863 Y33.723101 Z-1.000000
G01 X58.388873 Y33.723151 Z-1.000000
G00 Z5.000000

(End cutting path id: path18447)


(Start cutting path id: path18447)
(Change tool to Default tool)

G00 Z5.000000
G00 X58.388873 Y33.810573

G01 Z-1.000000 F100.0(Penetrate)
G02 X58.443432 Y33.819919 Z-1.000000 I0.049082 J-0.122608 F400.000000
G01 X58.472643 Y33.807073 Z-1.000000
G01 X58.469853 Y33.793474 Z-1.000000
G02 X58.415273 Y33.784113 Z-1.000000 I-0.049158 J0.122828
G01 X58.386073 Y33.796919 Z-1.000000
G01 X58.388863 Y33.810523 Z-1.000000
G01 X58.388873 Y33.810573 Z-1.000000
G00 Z5.000000

(End cutting path id: path18447)


(Start cutting path id: path18447)
(Change tool to Default tool)

G00 Z5.000000
G00 X57.988428 Y34.325659

G01 Z-1.000000 F100.0(Penetrate)
G02 X58.014240 Y34.399647 Z-1.000000 I0.056642 J0.021736 F400.000000
G02 X58.137513 Y34.413619 Z-1.000000 I0.077272 J-0.130962
G02 X58.182733 Y34.372330 Z-1.000000 I-0.022096 J-0.069607
G01 X58.175473 Y34.323379 Z-1.000000
G02 X58.065023 Y34.272329 Z-1.000000 I-0.108726 J0.090230
G02 X57.988423 Y34.325679 Z-1.000000 I0.001014 J0.083122
G01 X57.988428 Y34.325659 Z-1.000000
G00 Z5.000000

(End cutting path id: path18447)


(Start cutting path id: path18447)
(Change tool to Default tool)

G00 Z5.000000
G00 X57.828865 Y31.090092

G01 Z-1.000000 F100.0(Penetrate)
G02 X57.840847 Y31.146392 Z-1.000000 I0.138264 J-0.000000 F400.000000
G02 X57.867625 Y31.177022 Z-1.000000 I0.063068 J-0.028118
G02 X57.977540 Y31.160645 Z-1.000000 I0.045266 J-0.073232
G02 X57.974183 Y31.055865 Z-1.000000 I-0.057536 J-0.050601
G02 X57.877697 Y31.028425 Z-1.000000 I-0.072868 J0.072868
G02 X57.828869 Y31.090085 Z-1.000000 I0.014518 J0.061660
G01 X57.828865 Y31.090092 Z-1.000000
G00 Z5.000000

(End cutting path id: path18447)


(Start cutting path id: path18447)
(Change tool to Default tool)

G00 Z5.000000
G00 X53.370656 Y32.005874

G01 Z-1.000000 F100.0(Penetrate)
G01 X53.377466 Y32.018299 Z-1.000000 F400.000000
G02 X53.438486 Y32.049084 Z-1.000000 I0.182735 J-0.286337
G01 X53.474265 Y32.048561 Z-1.000000
G01 X53.479616 Y32.031904 Z-1.000000
G02 X53.405526 Y31.978354 Z-1.000000 I-0.101939 J0.063009
G01 X53.370656 Y32.005874 Z-1.000000
G01 X53.370656 Y32.005874 Z-1.000000
G00 Z5.000000

(End cutting path id: path18447)


(Start cutting path id: path18447)
(Change tool to Default tool)

G00 Z5.000000
G00 X51.917367 Y31.973934

G01 Z-1.000000 F100.0(Penetrate)
G02 X51.972002 Y31.984537 Z-1.000000 I0.054635 J-0.135461 F400.000000
G02 X52.026637 Y31.973934 Z-1.000000 I-0.000000 J-0.146063
G01 X52.026640 Y31.962500 Z-1.000000
G02 X51.972007 Y31.951884 Z-1.000000 I-0.054633 J0.135273
G02 X51.917373 Y31.962487 Z-1.000000 I0.000000 J0.146063
G01 X51.917367 Y31.973934 Z-1.000000
G01 X51.917367 Y31.973934 Z-1.000000
G00 Z5.000000

(End cutting path id: path18447)


(Start cutting path id: path18447)
(Change tool to Default tool)

G00 Z5.000000
G00 X47.765113 Y32.411008

G01 Z-1.000000 F100.0(Penetrate)
G02 X47.819748 Y32.421611 Z-1.000000 I0.054635 J-0.135461 F400.000000
G02 X47.874383 Y32.411008 Z-1.000000 I-0.000000 J-0.146063
G01 X47.874384 Y32.399578 Z-1.000000
G02 X47.819743 Y32.388968 Z-1.000000 I-0.054641 J0.135395
G02 X47.765117 Y32.399567 Z-1.000000 I0.000000 J0.146065
G01 X47.765113 Y32.411008 Z-1.000000
G01 X47.765113 Y32.411008 Z-1.000000
G00 Z5.000000

(End cutting path id: path18447)


(Start cutting path id: path18447)
(Change tool to Default tool)

G00 Z5.000000
G00 X43.864179 Y32.860817

G01 Z-1.000000 F100.0(Penetrate)
G01 X43.995303 Y32.892157 Z-1.000000 F400.000000
G01 X43.864179 Y32.914657 Z-1.000000
G01 X43.733056 Y32.937157 Z-1.000000
G01 X43.875106 Y32.943657 Z-1.000000
G02 X43.991401 Y32.923233 Z-1.000000 I0.012437 J-0.270487
G01 X44.017157 Y32.884647 Z-1.000000
G01 X43.991435 Y32.845762 Z-1.000000
G02 X43.875106 Y32.824257 Z-1.000000 I-0.106432 J0.250347
G01 X43.733056 Y32.829457 Z-1.000000
G01 X43.864179 Y32.860817 Z-1.000000
G00 Z5.000000

(End cutting path id: path18447)


(Start cutting path id: path18447)
(Change tool to Default tool)

G00 Z5.000000
G00 X42.946313 Y33.209640

G01 Z-1.000000 F100.0(Penetrate)
G01 X43.033733 Y33.244380 Z-1.000000 F400.000000
G01 X42.946313 Y33.267050 Z-1.000000
G01 X42.943181 Y33.280774 Z-1.000000
G02 X42.979093 Y33.294800 Z-1.000000 I0.038419 J-0.045382
G02 X43.074699 Y33.274223 Z-1.000000 I0.008252 J-0.194058
G01 X43.099289 Y33.234310 Z-1.000000
G01 X43.074759 Y33.193911 Z-1.000000
G02 X42.979093 Y33.171820 Z-1.000000 I-0.090647 J0.174365
G02 X42.941426 Y33.189610 Z-1.000000 I0.001331 J0.051591
G01 X42.946313 Y33.209640 Z-1.000000
G01 X42.946313 Y33.209640 Z-1.000000
G00 Z5.000000

(End cutting path id: path18447)


(Start cutting path id: path18447)
(Change tool to Default tool)

G00 Z5.000000
G00 X42.457768 Y33.232960

G01 Z-1.000000 F100.0(Penetrate)
G02 X42.483768 Y33.265107 Z-1.000000 I0.056095 J-0.018781 F400.000000
G02 X42.556558 Y33.291300 Z-1.000000 I0.105121 J-0.177892
G01 X42.582115 Y33.281445 Z-1.000000
G01 X42.579378 Y33.262940 Z-1.000000
G01 X42.568521 Y33.230076 Z-1.000000
G01 X42.601228 Y33.199910 Z-1.000000
G01 X42.601992 Y33.190562 Z-1.000000
G02 X42.563408 Y33.183200 Z-1.000000 I-0.035196 J0.079668
G02 X42.469222 Y33.206206 Z-1.000000 I0.009534 J0.243331
G01 X42.457760 Y33.232960 Z-1.000000
G01 X42.457768 Y33.232960 Z-1.000000
G00 Z5.000000

(End cutting path id: path18447)


(Start cutting path id: path18447)
(Change tool to Default tool)

G00 Z5.000000
G00 X42.278856 Y34.182276

G01 Z-1.000000 F100.0(Penetrate)
G02 X42.305788 Y34.224545 Z-1.000000 I0.097616 J-0.032482 F400.000000
G02 X42.354146 Y34.253506 Z-1.000000 I0.089595 J-0.094749
G01 X42.380839 Y34.248066 Z-1.000000
G01 X42.383926 Y34.227186 Z-1.000000
G01 X42.380571 Y34.189696 Z-1.000000
G03 X42.410626 Y34.159406 Z-1.000000 I0.050237 J0.019791
G01 X42.411348 Y34.146833 Z-1.000000
G02 X42.363546 Y34.133816 Z-1.000000 I-0.051451 J0.094665
G02 X42.290446 Y34.151942 Z-1.000000 I-0.004572 J0.138023
G01 X42.278866 Y34.182266 Z-1.000000
G01 X42.278856 Y34.182276 Z-1.000000
G00 Z5.000000

(End cutting path id: path18447)


(Start cutting path id: path18447)
(Change tool to Default tool)

G00 Z5.000000
G00 X41.624148 Y32.629557

G01 Z-1.000000 F100.0(Penetrate)
G03 X41.569513 Y32.640160 Z-1.000000 I-0.054635 J-0.135461 F400.000000
G03 X41.514878 Y32.629557 Z-1.000000 I0.000000 J-0.146063
G01 X41.514875 Y32.618123 Z-1.000000
G03 X41.569508 Y32.607507 Z-1.000000 I0.054633 J0.135273
G03 X41.624133 Y32.618109 Z-1.000000 I-0.000000 J0.146022
G01 X41.624138 Y32.629557 Z-1.000000
G01 X41.624148 Y32.629557 Z-1.000000
G00 Z5.000000

(End cutting path id: path18447)


(Start cutting path id: path18447)
(Change tool to Default tool)

G00 Z5.000000
G00 X41.422583 Y32.622457

G01 Z-1.000000 F100.0(Penetrate)
G02 X41.463489 Y32.665107 Z-1.000000 I0.071156 J-0.027305 F400.000000
G02 X41.574189 Y32.688017 Z-1.000000 I0.110700 J-0.255995
G02 X41.675848 Y32.663230 Z-1.000000 I0.000000 J-0.220863
G01 X41.700636 Y32.622457 Z-1.000000
G01 X41.674638 Y32.582891 Z-1.000000
G02 X41.549030 Y32.556897 Z-1.000000 I-0.125608 J0.290483
G02 X41.437122 Y32.584183 Z-1.000000 I0.000000 J0.243126
G01 X41.422583 Y32.622457 Z-1.000000
G01 X41.422583 Y32.622457 Z-1.000000
G00 Z5.000000

(End cutting path id: path18447)


(Start cutting path id: path18447)
(Change tool to Default tool)

G00 Z5.000000
G00 X40.332032 Y32.934777

G01 Z-1.000000 F100.0(Penetrate)
G02 X40.309067 Y33.032556 Z-1.000000 I0.067422 J0.067422 F400.000000
G02 X40.378472 Y33.073060 Z-1.000000 I0.057863 J-0.019434
G02 X40.435977 Y33.042656 Z-1.000000 I-0.021070 J-0.109436
G02 X40.454962 Y32.997010 Z-1.000000 I-0.045382 J-0.045646
G02 X40.409146 Y32.922464 Z-1.000000 I-0.083554 J0.000000
G02 X40.332034 Y32.934780 Z-1.000000 I-0.030057 J0.059373
G01 X40.332032 Y32.934777 Z-1.000000
G00 Z5.000000

(End cutting path id: path18447)


(Start cutting path id: path18447)
(Change tool to Default tool)

G00 Z5.000000
G00 X39.351335 Y31.627247

G01 Z-1.000000 F100.0(Penetrate)
G02 X39.314266 Y31.707026 Z-1.000000 I0.020193 J0.057884 F400.000000
G02 X39.405975 Y31.770144 Z-1.000000 I0.091709 J-0.035066
G02 X39.492709 Y31.747610 Z-1.000000 I-0.000000 J-0.178188
G01 X39.515245 Y31.709254 Z-1.000000
G02 X39.469258 Y31.634820 Z-1.000000 I-0.083232 J-0.000000
G02 X39.351340 Y31.627244 Z-1.000000 I-0.067924 J0.135746
G01 X39.351335 Y31.627247 Z-1.000000
G00 Z5.000000

(End cutting path id: path18447)


(Start cutting path id: path18447)
(Change tool to Default tool)

G00 Z5.000000
G00 X38.477176 Y33.504883

G01 Z-1.000000 F100.0(Penetrate)
G02 X38.553666 Y33.514709 Z-1.000000 I0.076490 J-0.292805 F400.000000
G02 X38.630154 Y33.504883 Z-1.000000 I-0.000000 J-0.302617
G01 X38.630154 Y33.494720 Z-1.000000
G02 X38.553664 Y33.484893 Z-1.000000 I-0.076490 J0.292760
G02 X38.477173 Y33.494725 Z-1.000000 I-0.000000 J0.302470
G01 X38.477174 Y33.504883 Z-1.000000
G01 X38.477176 Y33.504883 Z-1.000000
G00 Z5.000000

(End cutting path id: path18447)


(Start cutting path id: path18447)
(Change tool to Default tool)

G00 Z5.000000
G00 X38.477176 Y33.592319

G01 Z-1.000000 F100.0(Penetrate)
G02 X38.553666 Y33.602145 Z-1.000000 I0.076490 J-0.292805 F400.000000
G02 X38.630154 Y33.592319 Z-1.000000 I-0.000000 J-0.302617
G01 X38.630154 Y33.582156 Z-1.000000
G02 X38.553664 Y33.572329 Z-1.000000 I-0.076490 J0.292760
G02 X38.477173 Y33.582161 Z-1.000000 I-0.000000 J0.302470
G01 X38.477174 Y33.592319 Z-1.000000
G01 X38.477176 Y33.592319 Z-1.000000
G00 Z5.000000

(End cutting path id: path18447)


(Start cutting path id: path18447)
(Change tool to Default tool)

G00 Z5.000000
G00 X35.778211 Y36.536191

G01 Z-1.000000 F100.0(Penetrate)
G01 X35.777610 Y36.547916 Z-1.000000 F400.000000
G02 X35.859301 Y36.556431 Z-1.000000 I0.070897 J-0.284042
G03 X36.094750 Y36.566940 Z-1.000000 I0.053229 J1.450195
G01 X36.099694 Y36.586901 Z-1.000000
G01 X36.092244 Y36.604192 Z-1.000000
G01 X36.103294 Y36.611441 Z-1.000000
G02 X36.155875 Y36.583616 Z-1.000000 I-0.034820 J-0.129396
G02 X36.183424 Y36.542551 Z-1.000000 I-0.060603 J-0.070429
G01 X36.161693 Y36.511894 Z-1.000000
G02 X35.778215 Y36.536151 Z-1.000000 I-0.038438 J2.435652
G01 X35.778211 Y36.536191 Z-1.000000
G00 Z5.000000

(End cutting path id: path18447)


(Start cutting path id: path18447)
(Change tool to Default tool)

G00 Z5.000000
G00 X35.603379 Y36.666281

G01 Z-1.000000 F100.0(Penetrate)
G02 X35.950130 Y36.737843 Z-1.000000 I0.354986 J-0.844205 F400.000000
G02 X36.018605 Y36.669981 Z-1.000000 I0.000610 J-0.067862
G01 X36.000535 Y36.648821 Z-1.000000
G02 X35.767284 Y36.630151 Z-1.000000 I-0.237086 J1.495589
G02 X35.605074 Y36.647603 Z-1.000000 I-0.001909 J0.744815
G01 X35.603379 Y36.666271 Z-1.000000
G01 X35.603379 Y36.666281 Z-1.000000
G00 Z5.000000

(End cutting path id: path18447)


(Start cutting path id: path18447)
(Change tool to Default tool)

G00 Z5.000000
G00 X35.581525 Y37.058809

G01 Z-1.000000 F100.0(Penetrate)
G01 X35.578142 Y37.084624 Z-1.000000 F400.000000
G02 X35.625235 Y37.107019 Z-1.000000 I0.050752 J-0.046012
G01 X35.633134 Y37.121852 Z-1.000000
G01 X35.603385 Y37.143599 Z-1.000000
G03 X35.473593 Y37.163559 Z-1.000000 I-0.193038 J-0.823294
G03 X35.436865 Y37.156089 Z-1.000000 I-0.005152 J-0.068696
G01 X35.428718 Y37.082090 Z-1.000000
G03 X35.603385 Y37.017164 Z-1.000000 I0.179281 J0.214898
G01 X35.609906 Y37.027750 Z-1.000000
G03 X35.581535 Y37.058814 Z-1.000000 I-0.073279 J-0.038437
G01 X35.581525 Y37.058809 Z-1.000000
G00 Z5.000000

(End cutting path id: path18447)


(Start cutting path id: path18447)
(Change tool to Default tool)

G00 Z5.000000
G00 X35.625233 Y37.286876

G01 Z-1.000000 F100.0(Penetrate)
G01 X35.610753 Y37.306574 Z-1.000000 F400.000000
G03 X35.515963 Y37.321046 Z-1.000000 I-0.094790 J-0.303200
G03 X35.424184 Y37.303553 Z-1.000000 I-0.000000 J-0.249514
G01 X35.406694 Y37.277826 Z-1.000000
G01 X35.424358 Y37.253793 Z-1.000000
G03 X35.515963 Y37.243646 Z-1.000000 I0.071787 J0.229501
G03 X35.610940 Y37.265850 Z-1.000000 I-0.027669 J0.332586
G01 X35.625233 Y37.286866 Z-1.000000
G01 X35.625233 Y37.286876 Z-1.000000
G00 Z5.000000

(End cutting path id: path18447)


(Start cutting path id: path18447)
(Change tool to Default tool)

G00 Z5.000000
G00 X35.481712 Y37.408467

G01 Z-1.000000 F100.0(Penetrate)
G03 X35.523543 Y37.420416 Z-1.000000 I-0.000000 J0.079196 F400.000000
G01 X35.525282 Y37.435567 Z-1.000000
G01 X35.493735 Y37.448261 Z-1.000000
G03 X35.332791 Y37.431667 Z-1.000000 I0.019943 J-0.982224
G03 X35.247284 Y37.382525 Z-1.000000 I0.027559 J-0.146917
G01 X35.252281 Y37.338567 Z-1.000000
G03 X35.328790 Y37.314926 Z-1.000000 I0.072575 J0.099250
G03 X35.374097 Y37.342467 Z-1.000000 I-0.001725 J0.053875
G02 X35.421065 Y37.391353 Z-1.000000 I0.117146 J-0.065544
G02 X35.481705 Y37.408467 Z-1.000000 I0.060640 J-0.098878
G01 X35.481712 Y37.408467 Z-1.000000
G00 Z5.000000

(End cutting path id: path18447)


(Start cutting path id: path18447)
(Change tool to Default tool)

G00 Z5.000000
G00 X35.319278 Y37.627006

G01 Z-1.000000 F100.0(Penetrate)
G01 X35.303202 Y37.654498 Z-1.000000 F400.000000
G03 X35.242788 Y37.670046 Z-1.000000 I-0.059350 J-0.105468
G01 X35.221518 Y37.653354 Z-1.000000
G01 X35.231858 Y37.627006 Z-1.000000
G03 X35.299363 Y37.607091 Z-1.000000 I0.067505 J0.104455
G01 X35.319278 Y37.627006 Z-1.000000
G01 X35.319278 Y37.627006 Z-1.000000
G00 Z5.000000

(End cutting path id: path18447)


(Start cutting path id: path18447)
(Change tool to Default tool)

G00 Z5.000000
G00 X35.046103 Y37.394887

G01 Z-1.000000 F100.0(Penetrate)
G03 X34.969613 Y37.404713 Z-1.000000 I-0.076490 J-0.292805 F400.000000
G03 X34.893125 Y37.394887 Z-1.000000 I-0.000000 J-0.302617
G01 X34.893125 Y37.384724 Z-1.000000
G03 X34.969615 Y37.374897 Z-1.000000 I0.076490 J0.292760
G03 X35.046106 Y37.384729 Z-1.000000 I0.000000 J0.302470
G01 X35.046105 Y37.394887 Z-1.000000
G01 X35.046103 Y37.394887 Z-1.000000
G00 Z5.000000

(End cutting path id: path18447)


(Start cutting path id: path18447)
(Change tool to Default tool)

G00 Z5.000000
G00 X34.675417 Y37.743091

G01 Z-1.000000 F100.0(Penetrate)
G03 X34.620915 Y37.754047 Z-1.000000 I-0.056356 J-0.139312 F400.000000
G03 X34.544294 Y37.744691 Z-1.000000 I-0.003567 J-0.289216
G01 X34.543592 Y37.733880 Z-1.000000
G03 X34.598094 Y37.722921 Z-1.000000 I0.056356 J0.139260
G03 X34.674718 Y37.732269 Z-1.000000 I0.003575 J0.289397
G01 X34.675414 Y37.743071 Z-1.000000
G01 X34.675417 Y37.743091 Z-1.000000
G00 Z5.000000

(End cutting path id: path18447)


(Start cutting path id: path18447)
(Change tool to Default tool)

G00 Z5.000000
G00 X34.695527 Y37.828241

G01 Z-1.000000 F100.0(Penetrate)
G01 X34.666329 Y37.841051 Z-1.000000 F400.000000
G03 X34.611757 Y37.831741 Z-1.000000 I-0.005495 J-0.132394
G01 X34.608965 Y37.818138 Z-1.000000
G01 X34.638167 Y37.805331 Z-1.000000
G03 X34.692730 Y37.814671 Z-1.000000 I0.005451 J0.132201
G01 X34.695537 Y37.828291 Z-1.000000
G01 X34.695527 Y37.828241 Z-1.000000
G00 Z5.000000

(End cutting path id: path18447)


(Start cutting path id: path18447)
(Change tool to Default tool)

G00 Z5.000000
G00 X34.947758 Y38.020373

G01 Z-1.000000 F100.0(Penetrate)
G03 X34.913080 Y38.050189 Z-1.000000 I-0.064366 J-0.039787 F400.000000
G03 X34.846836 Y38.063413 Z-1.000000 I-0.064742 J-0.151787
G01 X34.827166 Y38.047025 Z-1.000000
G01 X34.838536 Y38.020373 Z-1.000000
G03 X34.932372 Y37.992691 Z-1.000000 I0.093836 J0.145198
G01 X34.947806 Y38.020373 Z-1.000000
G01 X34.947758 Y38.020373 Z-1.000000
G00 Z5.000000

(End cutting path id: path18447)


(Start cutting path id: path18447)
(Change tool to Default tool)

G00 Z5.000000
G00 X34.937665 Y38.660965

G01 Z-1.000000 F100.0(Penetrate)
G03 X34.883163 Y38.671921 Z-1.000000 I-0.056355 J-0.139312 F400.000000
G03 X34.806541 Y38.662565 Z-1.000000 I-0.003567 J-0.289227
G01 X34.805839 Y38.651754 Z-1.000000
G03 X34.860341 Y38.640795 Z-1.000000 I0.056356 J0.139260
G03 X34.936965 Y38.650143 Z-1.000000 I0.003572 J0.289424
G01 X34.937661 Y38.660945 Z-1.000000
G01 X34.937665 Y38.660965 Z-1.000000
G00 Z5.000000

(End cutting path id: path18447)


(Start cutting path id: path18447)
(Change tool to Default tool)

G00 Z5.000000
G00 X35.319278 Y38.807131

G01 Z-1.000000 F100.0(Penetrate)
G01 X35.306476 Y38.838039 Z-1.000000 F400.000000
G01 X35.275568 Y38.850841 Z-1.000000
G01 X35.244660 Y38.838039 Z-1.000000
G01 X35.231858 Y38.807131 Z-1.000000
G01 X35.244660 Y38.776223 Z-1.000000
G01 X35.275568 Y38.763421 Z-1.000000
G01 X35.306476 Y38.776223 Z-1.000000
G01 X35.319278 Y38.807131 Z-1.000000
G01 X35.319278 Y38.807131 Z-1.000000
G00 Z5.000000

(End cutting path id: path18447)


(Start cutting path id: path18447)
(Change tool to Default tool)

G00 Z5.000000
G00 X35.660746 Y38.880657

G01 Z-1.000000 F100.0(Penetrate)
G02 X35.715305 Y38.890003 Z-1.000000 I0.049082 J-0.122608 F400.000000
G01 X35.744516 Y38.877157 Z-1.000000
G01 X35.741726 Y38.863558 Z-1.000000
G02 X35.687146 Y38.854197 Z-1.000000 I-0.049158 J0.122828
G01 X35.657946 Y38.867003 Z-1.000000
G01 X35.660736 Y38.880607 Z-1.000000
G01 X35.660746 Y38.880657 Z-1.000000
G00 Z5.000000

(End cutting path id: path18447)


(Start cutting path id: path18447)
(Change tool to Default tool)

G00 Z5.000000
G00 X35.734503 Y37.714424

G01 Z-1.000000 F100.0(Penetrate)
G02 X35.769181 Y37.744240 Z-1.000000 I0.064366 J-0.039787 F400.000000
G02 X35.835425 Y37.757464 Z-1.000000 I0.064742 J-0.151787
G01 X35.855096 Y37.741075 Z-1.000000
G01 X35.843725 Y37.714424 Z-1.000000
G02 X35.749889 Y37.686742 Z-1.000000 I-0.093836 J0.145198
G01 X35.734455 Y37.714424 Z-1.000000
G01 X35.734503 Y37.714424 Z-1.000000
G00 Z5.000000

(End cutting path id: path18447)


(Start cutting path id: path18447)
(Change tool to Default tool)

G00 Z5.000000
G00 X36.001024 Y37.484386

G01 Z-1.000000 F100.0(Penetrate)
G02 X35.983084 Y37.546636 Z-1.000000 I0.047358 J0.047358 F400.000000
G01 X36.018604 Y37.561506 Z-1.000000
G01 X36.048398 Y37.559438 Z-1.000000
G01 X36.062314 Y37.580776 Z-1.000000
G01 X36.044512 Y37.610157 Z-1.000000
G03 X35.963974 Y37.632136 Z-1.000000 I-0.090622 J-0.173518
G01 X35.938123 Y37.644636 Z-1.000000
G01 X35.941954 Y37.657166 Z-1.000000
G01 X35.978060 Y37.694693 Z-1.000000
G03 X35.967354 Y37.772293 Z-1.000000 I-0.110267 J0.024326
G02 X35.946919 Y37.874130 Z-1.000000 I0.158351 J0.084744
G02 X35.986104 Y37.968381 Z-1.000000 I0.172641 J-0.016506
G02 X36.043344 Y38.000457 Z-1.000000 I0.070303 J-0.058344
G02 X36.211853 Y38.000991 Z-1.000000 I0.086144 J-0.596276
G03 X36.285660 Y38.005426 Z-1.000000 I0.025803 J0.186968
G01 X36.286793 Y38.020701 Z-1.000000
G02 X36.269726 Y38.108698 Z-1.000000 I0.021357 J0.049796
G02 X36.480207 Y38.215239 Z-1.000000 I0.266134 J-0.264591
G03 X36.649590 Y38.263914 Z-1.000000 I-0.100031 J0.667153
G01 X36.666728 Y38.296479 Z-1.000000
G02 X36.685771 Y38.582065 Z-1.000000 I0.551337 J0.106665
G02 X36.797909 Y38.686775 Z-1.000000 I0.152968 J-0.051417
G02 X37.073897 Y38.679898 Z-1.000000 I0.126069 J-0.482041
G02 X37.201516 Y38.559437 Z-1.000000 I-0.060582 J-0.192013
G02 X37.247028 Y38.290666 Z-1.000000 I-0.655575 J-0.249250
G02 X37.192516 Y38.236207 Z-1.000000 I-0.056017 J0.001560
G01 X37.089435 Y38.233407 Z-1.000000
G01 X37.191023 Y38.192677 Z-1.000000
G02 X37.263829 Y38.136318 Z-1.000000 I-0.062563 J-0.156027
G02 X37.277483 Y38.075250 Z-1.000000 I-0.062534 J-0.046042
G02 X37.237462 Y38.030343 Z-1.000000 I-0.058049 J0.011447
G02 X37.066625 Y38.007800 Z-1.000000 I-0.147926 J0.462420
G03 X36.679656 Y38.009763 Z-1.000000 I-0.216751 J-4.586210
G03 X36.618572 Y37.991180 Z-1.000000 I0.004634 J-0.124920
G01 X36.612151 Y37.965362 Z-1.000000
G03 X36.655252 Y37.928520 Z-1.000000 I0.074654 J0.043705
G01 X36.669315 Y37.906183 Z-1.000000
G01 X36.652352 Y37.889280 Z-1.000000
G01 X36.564932 Y37.883180 Z-1.000000
G01 X36.652352 Y37.841760 Z-1.000000
G01 X36.650008 Y37.824631 Z-1.000000
G02 X36.521228 Y37.819200 Z-1.000000 I-0.085449 J0.496607
G03 X36.107962 Y37.779587 Z-1.000000 I-0.098783 J-1.144948
G01 X36.096673 Y37.698408 Z-1.000000
G03 X36.135809 Y37.690591 Z-1.000000 I0.030064 J0.048639
G01 X36.149713 Y37.706908 Z-1.000000
G01 X36.166792 Y37.733478 Z-1.000000
G02 X36.283168 Y37.767818 Z-1.000000 I0.178931 J-0.392015
G02 X36.430455 Y37.698951 Z-1.000000 I0.021440 J-0.146081
G02 X36.410555 Y37.560194 Z-1.000000 I-0.093538 J-0.057391
G02 X36.324548 Y37.527424 Z-1.000000 I-0.085058 J0.093989
G02 X36.237129 Y37.561494 Z-1.000000 I0.000986 J0.131716
G03 X36.171077 Y37.576255 Z-1.000000 I-0.046047 J-0.050884
G01 X36.143159 Y37.532854 Z-1.000000
G02 X36.099000 Y37.461591 Z-1.000000 I-0.065470 J-0.008744
G02 X36.001012 Y37.484374 Z-1.000000 I-0.030701 J0.090068
G01 X36.001024 Y37.484386 Z-1.000000
G00 Z5.000000

(End cutting path id: path18447)


(Start cutting path id: path18447)
(Change tool to Default tool)

G00 Z5.000000
G00 X35.865627 Y37.102509

G01 Z-1.000000 F100.0(Penetrate)
G01 X35.867693 Y37.132300 Z-1.000000 F400.000000
G01 X35.846347 Y37.146219 Z-1.000000
G01 X35.813224 Y37.133051 Z-1.000000
G01 X35.800057 Y37.102509 Z-1.000000
G03 X35.807680 Y37.066387 Z-1.000000 I0.089394 J-0.000000
G01 X35.819327 Y37.058799 Z-1.000000
G01 X35.835103 Y37.065071 Z-1.000000
G03 X35.865617 Y37.102509 Z-1.000000 I-0.127708 J0.135241
G01 X35.865627 Y37.102509 Z-1.000000
G00 Z5.000000

(End cutting path id: path18447)


(Start cutting path id: path18447)
(Change tool to Default tool)

G00 Z5.000000
G00 X34.826002 Y35.993166

G01 Z-1.000000 F100.0(Penetrate)
G01 X34.820215 Y36.020222 Z-1.000000 F400.000000
G02 X34.859302 Y36.080586 Z-1.000000 I0.160662 J-0.061196
G02 X35.037296 Y36.152707 Z-1.000000 I0.174188 J-0.174188
G02 X35.319276 Y36.073486 Z-1.000000 I-0.008853 J-0.572964
G01 X35.428546 Y36.009116 Z-1.000000
G01 X35.308349 Y36.036066 Z-1.000000
G03 X35.207951 Y36.038230 Z-1.000000 I-0.055567 J-0.247902
G01 X35.188152 Y36.014566 Z-1.000000
G02 X35.077775 Y35.897482 Z-1.000000 I-0.117288 J0.000000
G02 X34.826000 Y35.993176 Z-1.000000 I-0.019367 J0.328107
G01 X34.826002 Y35.993166 Z-1.000000
G00 Z5.000000

(End cutting path id: path18447)


(Start cutting path id: path18447)
(Change tool to Default tool)

G00 Z5.000000
G00 X34.576243 Y35.928626

G01 Z-1.000000 F100.0(Penetrate)
G03 X34.464314 Y35.954421 Z-1.000000 I-0.136245 J-0.335450 F400.000000
G03 X34.248433 Y35.950686 Z-1.000000 I-0.085894 J-1.276055
G02 X34.172229 Y35.955811 Z-1.000000 I-0.023079 J0.225956
G01 X34.171943 Y35.969086 Z-1.000000
G03 X34.426667 Y36.056034 Z-1.000000 I-0.746371 J2.603166
G01 X34.423264 Y36.069076 Z-1.000000
G03 X34.248759 Y36.043928 Z-1.000000 I1.025335 J-7.733035
G03 X34.161016 Y36.028256 Z-1.000000 I0.307038 J-1.972444
G02 X34.129220 Y36.028700 Z-1.000000 I-0.014871 J0.073711
G01 X34.128506 Y36.035756 Z-1.000000
G03 X34.159201 Y36.068261 Z-1.000000 I-0.024872 J0.054233
G01 X34.155816 Y36.105596 Z-1.000000
G01 X34.162253 Y36.123981 Z-1.000000
G02 X34.210176 Y36.125066 Z-1.000000 I0.025593 J-0.071491
G03 X34.292674 Y36.114824 Z-1.000000 I0.070289 J0.228782
G03 X34.456043 Y36.137636 Z-1.000000 I-0.048032 J0.940356
G02 X34.594636 Y36.143584 Z-1.000000 I0.085319 J-0.370369
G01 X34.619948 Y36.114436 Z-1.000000
G03 X34.634486 Y36.068016 Z-1.000000 I0.081376 J-0.000000
G01 X34.662288 Y36.053476 Z-1.000000
G01 X34.682637 Y36.038362 Z-1.000000
G02 X34.680928 Y35.991736 Z-1.000000 I-0.068976 J-0.020816
G03 X34.686335 Y35.945010 Z-1.000000 I0.047402 J-0.018190
G03 X34.736938 Y35.909386 Z-1.000000 I0.072543 J0.049292
G01 X34.755868 Y35.895426 Z-1.000000
G01 X34.751078 Y35.886476 Z-1.000000
G02 X34.687068 Y35.892915 Z-1.000000 I-0.008530 J0.236602
G02 X34.576247 Y35.928566 Z-1.000000 I0.182744 J0.758119
G01 X34.576243 Y35.928626 Z-1.000000
G00 Z5.000000

(End cutting path id: path18447)


(Start cutting path id: path18447)
(Change tool to Default tool)

G00 Z5.000000
G00 X34.652732 Y35.734706

G01 Z-1.000000 F100.0(Penetrate)
G02 X34.751076 Y35.744092 Z-1.000000 I0.098344 J-0.510503 F400.000000
G02 X34.849417 Y35.734706 Z-1.000000 I0.000000 J-0.519852
G01 X34.849417 Y35.725147 Z-1.000000
G02 X34.751077 Y35.715766 Z-1.000000 I-0.098340 J0.510765
G02 X34.652740 Y35.725143 Z-1.000000 I0.000000 J0.520347
G01 X34.652737 Y35.734706 Z-1.000000
G01 X34.652732 Y35.734706 Z-1.000000
G00 Z5.000000

(End cutting path id: path18447)


(Start cutting path id: path18447)
(Change tool to Default tool)

G00 Z5.000000
G00 X33.999844 Y35.821136

G01 Z-1.000000 F100.0(Penetrate)
G02 X34.054403 Y35.830482 Z-1.000000 I0.049082 J-0.122608 F400.000000
G01 X34.083614 Y35.817636 Z-1.000000
G01 X34.080824 Y35.804037 Z-1.000000
G02 X34.026244 Y35.794676 Z-1.000000 I-0.049158 J0.122828
G01 X33.997044 Y35.807482 Z-1.000000
G01 X33.999834 Y35.821086 Z-1.000000
G01 X33.999844 Y35.821136 Z-1.000000
G00 Z5.000000

(End cutting path id: path18447)


(Start cutting path id: path18447)
(Change tool to Default tool)

G00 Z5.000000
G00 X33.702084 Y35.944256

G01 Z-1.000000 F100.0(Penetrate)
G02 X33.722776 Y35.988944 Z-1.000000 I0.058603 J0.000000 F400.000000
G02 X33.778574 Y36.009146 Z-1.000000 I0.055050 J-0.064891
G01 X33.801712 Y35.993256 Z-1.000000
G01 X33.794084 Y35.969866 Z-1.000000
G01 X33.783664 Y35.939253 Z-1.000000
G01 X33.815934 Y35.910046 Z-1.000000
G01 X33.821536 Y35.896553 Z-1.000000
G01 X33.800424 Y35.883766 Z-1.000000
G02 X33.725152 Y35.902992 Z-1.000000 I-0.006696 J0.130748
G01 X33.702084 Y35.944256 Z-1.000000
G01 X33.702084 Y35.944256 Z-1.000000
G00 Z5.000000

(End cutting path id: path18447)


(Start cutting path id: path18447)
(Change tool to Default tool)

G00 Z5.000000
G00 X33.756719 Y36.054886

G01 Z-1.000000 F100.0(Penetrate)
G02 X33.668048 Y36.100946 Z-1.000000 I0.192525 J0.479010 F400.000000
G01 X33.658379 Y36.118756 Z-1.000000
G02 X33.719499 Y36.198167 Z-1.000000 I0.082147 J0.000000
G02 X33.959644 Y36.198536 Z-1.000000 I0.120775 J-0.456114
G02 X34.030958 Y36.118505 Z-1.000000 I-0.024474 J-0.093597
G02 X33.982614 Y36.036343 Z-1.000000 I-0.075756 J-0.010729
G02 X33.890821 Y36.023195 Z-1.000000 I-0.074734 J0.194753
G02 X33.756722 Y36.054883 Z-1.000000 I0.037658 J0.458952
G01 X33.756719 Y36.054886 Z-1.000000
G00 Z5.000000

(End cutting path id: path18447)


(Start cutting path id: path18447)
(Change tool to Default tool)

G00 Z5.000000
G00 X33.475349 Y36.170806

G01 Z-1.000000 F100.0(Penetrate)
G02 X33.529908 Y36.180152 Z-1.000000 I0.049082 J-0.122608 F400.000000
G01 X33.559119 Y36.167306 Z-1.000000
G01 X33.556329 Y36.153707 Z-1.000000
G02 X33.501749 Y36.144346 Z-1.000000 I-0.049158 J0.122828
G01 X33.472549 Y36.157152 Z-1.000000
G01 X33.475339 Y36.170756 Z-1.000000
G01 X33.475349 Y36.170806 Z-1.000000
G00 Z5.000000

(End cutting path id: path18447)


(Start cutting path id: path18447)
(Change tool to Default tool)

G00 Z5.000000
G00 X33.300517 Y35.908556

G01 Z-1.000000 F100.0(Penetrate)
G02 X33.355076 Y35.917902 Z-1.000000 I0.049082 J-0.122608 F400.000000
G01 X33.384287 Y35.905056 Z-1.000000
G01 X33.381497 Y35.891457 Z-1.000000
G02 X33.326917 Y35.882096 Z-1.000000 I-0.049158 J0.122828
G01 X33.297717 Y35.894902 Z-1.000000
G01 X33.300507 Y35.908506 Z-1.000000
G01 X33.300517 Y35.908556 Z-1.000000
G00 Z5.000000

(End cutting path id: path18447)


(Start cutting path id: path18447)
(Change tool to Default tool)

G00 Z5.000000
G00 X33.385201 Y35.732806

G01 Z-1.000000 F100.0(Penetrate)
G02 X33.439836 Y35.743409 Z-1.000000 I0.054635 J-0.135461 F400.000000
G02 X33.494471 Y35.732806 Z-1.000000 I-0.000000 J-0.146063
G01 X33.494471 Y35.721368 Z-1.000000
G02 X33.439841 Y35.710756 Z-1.000000 I-0.054630 J0.135307
G02 X33.385216 Y35.721358 Z-1.000000 I-0.000000 J0.146022
G01 X33.385211 Y35.732806 Z-1.000000
G01 X33.385201 Y35.732806 Z-1.000000
G00 Z5.000000

(End cutting path id: path18447)


(Start cutting path id: path18447)
(Change tool to Default tool)

G00 Z5.000000
G00 X33.090173 Y36.009816

G01 Z-1.000000 F100.0(Penetrate)
G02 X33.058968 Y36.036560 Z-1.000000 I0.016145 J0.050415 F400.000000
G01 X33.068323 Y36.053526 Z-1.000000
G01 X33.077675 Y36.070495 Z-1.000000
G03 X33.046473 Y36.097236 Z-1.000000 I-0.047346 J-0.023671
G01 X33.044438 Y36.116816 Z-1.000000
G02 X33.115673 Y36.136586 Z-1.000000 I0.074936 J-0.131783
G02 X33.297885 Y36.093861 Z-1.000000 I0.009002 J-0.371516
G02 X33.322883 Y36.027400 Z-1.000000 I-0.024921 J-0.047305
G02 X33.270698 Y35.988555 Z-1.000000 I-0.056766 J0.021785
G02 X33.090177 Y36.009820 Z-1.000000 I-0.035760 J0.473288
G01 X33.090173 Y36.009816 Z-1.000000
G00 Z5.000000

(End cutting path id: path18447)


(Start cutting path id: path18447)
(Change tool to Default tool)

G00 Z5.000000
G00 X33.068317 Y36.228328

G01 Z-1.000000 F100.0(Penetrate)
G01 X33.243149 Y36.259628 Z-1.000000 F400.000000
G01 X33.090171 Y36.269628 Z-1.000000
G01 X32.937193 Y36.279628 Z-1.000000
G01 X33.067269 Y36.318438 Z-1.000000
G02 X33.191761 Y36.335228 Z-1.000000 I0.115658 J-0.387646
G02 X33.239916 Y36.314638 Z-1.000000 I-0.001533 J-0.070193
G03 X33.287958 Y36.285433 Z-1.000000 I0.083905 J0.083905
G03 X33.372087 Y36.272738 Z-1.000000 I0.082090 J0.258906
G01 X33.402944 Y36.290176 Z-1.000000
G01 X33.397387 Y36.314068 Z-1.000000
G02 X33.356185 Y36.357292 Z-1.000000 I0.065667 J0.103845
G01 X33.359407 Y36.381038 Z-1.000000
G01 X33.385723 Y36.385331 Z-1.000000
G02 X33.464088 Y36.328978 Z-1.000000 I-0.133785 J-0.268705
G01 X33.466198 Y36.274603 Z-1.000000
G02 X33.370948 Y36.220146 Z-1.000000 I-0.123730 J0.105887
G02 X33.198822 Y36.197802 Z-1.000000 I-0.324859 J1.828399
G02 X33.046462 Y36.193366 Z-1.000000 I-0.117810 J1.427562
G01 X32.893484 Y36.197066 Z-1.000000
G01 X33.068317 Y36.228328 Z-1.000000
G00 Z5.000000

(End cutting path id: path18447)


(Start cutting path id: path18447)
(Change tool to Default tool)

G00 Z5.000000
G00 X32.936754 Y36.491361

G01 Z-1.000000 F100.0(Penetrate)
G03 X32.904809 Y36.516755 Z-1.000000 I-0.051244 J-0.031674 F400.000000
G01 X32.872554 Y36.513071 Z-1.000000
G02 X32.754946 Y36.508751 Z-1.000000 I-0.062605 J0.101303
G02 X32.696798 Y36.604591 Z-1.000000 I0.049909 J0.095840
G01 X32.722878 Y36.639312 Z-1.000000
G02 X32.904411 Y36.664811 Z-1.000000 I0.179453 J-0.618618
G02 X33.173645 Y36.602110 Z-1.000000 I-0.001993 J-0.617946
G02 X33.207180 Y36.516914 Z-1.000000 I-0.029753 J-0.060910
G02 X33.079804 Y36.420217 Z-1.000000 I-0.141649 J0.054348
G02 X32.936751 Y36.491364 Z-1.000000 I-0.014245 J0.150747
G01 X32.936754 Y36.491361 Z-1.000000
G00 Z5.000000

(End cutting path id: path18447)


(Start cutting path id: path18447)
(Change tool to Default tool)

G00 Z5.000000
G00 X32.941097 Y36.759169

G01 Z-1.000000 F100.0(Penetrate)
G01 X32.939555 Y36.782819 Z-1.000000 F400.000000
G01 X32.910637 Y36.796559 Z-1.000000
G02 X32.878808 Y36.805573 Z-1.000000 I0.000000 J0.060703
G01 X32.877477 Y36.816969 Z-1.000000
G01 X32.901067 Y36.825450 Z-1.000000
G02 X33.026812 Y36.802589 Z-1.000000 I-0.072399 J-0.755470
G01 X33.155739 Y36.767809 Z-1.000000
G01 X33.036865 Y36.744789 Z-1.000000
G02 X32.948640 Y36.742921 Z-1.000000 I-0.049551 J0.255894
G01 X32.941105 Y36.759169 Z-1.000000
G01 X32.941097 Y36.759169 Z-1.000000
G00 Z5.000000

(End cutting path id: path18447)


(Start cutting path id: path18447)
(Change tool to Default tool)

G00 Z5.000000
G00 X32.762363 Y37.058809

G01 Z-1.000000 F100.0(Penetrate)
G03 X32.791740 Y37.085536 Z-1.000000 I-0.024033 J0.055925 F400.000000
G01 X32.784213 Y37.098779 Z-1.000000
G03 X32.721564 Y37.090603 Z-1.000000 I-0.006896 J-0.191274
G03 X32.653090 Y37.058809 Z-1.000000 I0.079293 J-0.260406
G01 X32.659342 Y37.037614 Z-1.000000
G03 X32.762359 Y37.058809 Z-1.000000 I0.000000 J0.260947
G01 X32.762363 Y37.058809 Z-1.000000
G00 Z5.000000

(End cutting path id: path18447)


(Start cutting path id: path18447)
(Change tool to Default tool)

G00 Z5.000000
G00 X32.641256 Y37.128919

G01 Z-1.000000 F100.0(Penetrate)
G01 X32.612058 Y37.141729 Z-1.000000 F400.000000
G03 X32.557486 Y37.132419 Z-1.000000 I-0.005495 J-0.132394
G01 X32.554694 Y37.118816 Z-1.000000
G01 X32.583896 Y37.106009 Z-1.000000
G03 X32.638459 Y37.115349 Z-1.000000 I0.005451 J0.132201
G01 X32.641266 Y37.128969 Z-1.000000
G01 X32.641256 Y37.128919 Z-1.000000
G00 Z5.000000

(End cutting path id: path18447)


(Start cutting path id: path18447)
(Change tool to Default tool)

G00 Z5.000000
G00 X32.511043 Y37.045229

G01 Z-1.000000 F100.0(Penetrate)
G02 X32.448826 Y37.076234 Z-1.000000 I0.042784 J0.163780 F400.000000
G01 X32.434553 Y37.105719 Z-1.000000
G01 X32.418762 Y37.130435 Z-1.000000
G03 X32.347133 Y37.146219 Z-1.000000 I-0.071629 J-0.154642
G03 X32.277109 Y37.128824 Z-1.000000 I-0.000000 J-0.149641
G01 X32.259713 Y37.099929 Z-1.000000
G01 X32.272126 Y37.075903 Z-1.000000
G01 X32.294583 Y37.075189 Z-1.000000
G01 X32.329371 Y37.081642 Z-1.000000
G02 X32.392923 Y37.056589 Z-1.000000 I-0.033756 J-0.178764
G03 X32.459143 Y37.027242 Z-1.000000 I0.132211 J0.208939
G03 X32.521960 Y37.020839 Z-1.000000 I0.050217 J0.181330
G01 X32.527992 Y37.030867 Z-1.000000
G01 X32.511030 Y37.045229 Z-1.000000
G01 X32.511043 Y37.045229 Z-1.000000
G00 Z5.000000

(End cutting path id: path18447)


(Start cutting path id: path18447)
(Change tool to Default tool)

G00 Z5.000000
G00 X32.426359 Y37.350980

G01 Z-1.000000 F100.0(Penetrate)
G02 X32.480918 Y37.360326 Z-1.000000 I0.049082 J-0.122608 F400.000000
G01 X32.510129 Y37.347480 Z-1.000000
G01 X32.507339 Y37.333881 Z-1.000000
G02 X32.452759 Y37.324520 Z-1.000000 I-0.049158 J0.122828
G01 X32.423559 Y37.337326 Z-1.000000
G01 X32.426349 Y37.350930 Z-1.000000
G01 X32.426359 Y37.350980 Z-1.000000
G00 Z5.000000

(End cutting path id: path18447)


(Start cutting path id: path18447)
(Change tool to Default tool)

G00 Z5.000000
G00 X32.160469 Y36.997799

G01 Z-1.000000 F100.0(Penetrate)
G01 X32.131271 Y37.010609 Z-1.000000 F400.000000
G03 X32.076699 Y37.001299 Z-1.000000 I-0.005495 J-0.132394
G01 X32.073907 Y36.987696 Z-1.000000
G01 X32.103109 Y36.974889 Z-1.000000
G03 X32.157672 Y36.984229 Z-1.000000 I0.005451 J0.132201
G01 X32.160479 Y36.997849 Z-1.000000
G01 X32.160469 Y36.997799 Z-1.000000
G00 Z5.000000

(End cutting path id: path18447)


(Start cutting path id: path18447)
(Change tool to Default tool)

G00 Z5.000000
G00 X31.953767 Y36.841099

G01 Z-1.000000 F100.0(Penetrate)
G01 X31.935398 Y36.862087 Z-1.000000 F400.000000
G03 X31.837978 Y36.856579 Z-1.000000 I-0.034343 J-0.256898
G02 X31.761755 Y36.856466 Z-1.000000 I-0.038339 J0.152774
G01 X31.753138 Y36.877599 Z-1.000000
G01 X31.745724 Y36.906288 Z-1.000000
G03 X31.663888 Y36.927679 Z-1.000000 I-0.081836 J-0.145845
G01 X31.620348 Y36.901961 Z-1.000000
G01 X31.628528 Y36.863509 Z-1.000000
G03 X31.877805 Y36.770195 Z-1.000000 I0.281358 J0.372001
G03 X31.953765 Y36.841099 Z-1.000000 I0.004888 J0.070904
G01 X31.953767 Y36.841099 Z-1.000000
G00 Z5.000000

(End cutting path id: path18447)


(Start cutting path id: path18447)
(Change tool to Default tool)

G00 Z5.000000
G00 X32.067472 Y36.745679

G01 Z-1.000000 F100.0(Penetrate)
G01 X32.075116 Y36.766315 Z-1.000000 F400.000000
G02 X32.202103 Y36.788449 Z-1.000000 I0.144946 J-0.456237
G01 X32.228175 Y36.765978 Z-1.000000
G01 X32.207803 Y36.736989 Z-1.000000
G02 X32.097964 Y36.727446 Z-1.000000 I-0.086804 J0.362235
G01 X32.067509 Y36.745689 Z-1.000000
G01 X32.067472 Y36.745679 Z-1.000000
G00 Z5.000000

(End cutting path id: path18447)


(Start cutting path id: path18447)
(Change tool to Default tool)

G00 Z5.000000
G00 X32.073053 Y36.604449

G01 Z-1.000000 F100.0(Penetrate)
G01 X32.043855 Y36.617259 Z-1.000000 F400.000000
G03 X31.989283 Y36.607949 Z-1.000000 I-0.005495 J-0.132394
G01 X31.986491 Y36.594346 Z-1.000000
G01 X32.015693 Y36.581539 Z-1.000000
G03 X32.070256 Y36.590879 Z-1.000000 I0.005451 J0.132201
G01 X32.073063 Y36.604499 Z-1.000000
G01 X32.073053 Y36.604449 Z-1.000000
G00 Z5.000000

(End cutting path id: path18447)


(Start cutting path id: path18447)
(Change tool to Default tool)

G00 Z5.000000
G00 X32.325284 Y36.446941

G01 Z-1.000000 F100.0(Penetrate)
G01 X32.340718 Y36.474623 Z-1.000000 F400.000000
G02 X32.434554 Y36.446941 Z-1.000000 I-0.000000 J-0.172881
G01 X32.445925 Y36.420292 Z-1.000000
G01 X32.426254 Y36.403901 Z-1.000000
G02 X32.360013 Y36.417125 Z-1.000000 I-0.001494 J0.165035
G02 X32.325332 Y36.446941 Z-1.000000 I0.029689 J0.069610
G01 X32.325284 Y36.446941 Z-1.000000
G00 Z5.000000

(End cutting path id: path18447)


(Start cutting path id: path18447)
(Change tool to Default tool)

G00 Z5.000000
G00 X32.379919 Y36.608149

G01 Z-1.000000 F100.0(Penetrate)
G03 X32.303429 Y36.617975 Z-1.000000 I-0.076490 J-0.292805 F400.000000
G03 X32.226941 Y36.608149 Z-1.000000 I-0.000000 J-0.302617
G01 X32.226941 Y36.597986 Z-1.000000
G03 X32.303431 Y36.588159 Z-1.000000 I0.076490 J0.292760
G03 X32.379922 Y36.597991 Z-1.000000 I0.000000 J0.302470
G01 X32.379921 Y36.608149 Z-1.000000
G01 X32.379919 Y36.608149 Z-1.000000
G00 Z5.000000

(End cutting path id: path18447)


(Start cutting path id: path18447)
(Change tool to Default tool)

G00 Z5.000000
G00 X32.718653 Y36.225528

G01 Z-1.000000 F100.0(Penetrate)
G01 X32.806073 Y36.260278 Z-1.000000 F400.000000
G01 X32.718653 Y36.282958 Z-1.000000
G01 X32.714539 Y36.296900 Z-1.000000
G01 X32.744153 Y36.310708 Z-1.000000
G02 X32.832930 Y36.290530 Z-1.000000 I0.007702 J-0.171499
G01 X32.857065 Y36.250218 Z-1.000000
G01 X32.832996 Y36.209390 Z-1.000000
G02 X32.744153 Y36.187728 Z-1.000000 I-0.084130 J0.152025
G01 X32.712360 Y36.205190 Z-1.000000
G01 X32.718653 Y36.225548 Z-1.000000
G01 X32.718653 Y36.225528 Z-1.000000
G00 Z5.000000

(End cutting path id: path18447)


(Start cutting path id: path18447)
(Change tool to Default tool)

G00 Z5.000000
G00 X32.587532 Y36.097236

G01 Z-1.000000 F100.0(Penetrate)
G01 X32.456408 Y36.130606 Z-1.000000 F400.000000
G01 X32.587532 Y36.135106 Z-1.000000
G02 X32.714665 Y36.125187 Z-1.000000 I0.019674 J-0.567547
G02 X32.784217 Y36.097236 Z-1.000000 I-0.037214 J-0.193110
G01 X32.797886 Y36.072129 Z-1.000000
G01 X32.784217 Y36.059366 Z-1.000000
G02 X32.719285 Y36.067830 Z-1.000000 I0.037511 J0.541063
G02 X32.587532 Y36.097236 Z-1.000000 I0.431271 J2.242169
G01 X32.587532 Y36.097236 Z-1.000000
G00 Z5.000000

(End cutting path id: path18447)


(Start cutting path id: path18447)
(Change tool to Default tool)

G00 Z5.000000
G00 X32.587532 Y36.009816

G01 Z-1.000000 F100.0(Penetrate)
G01 X32.592295 Y36.032965 Z-1.000000 F400.000000
G02 X32.740509 Y36.009816 Z-1.000000 I-0.000000 J-0.486053
G02 X32.769688 Y35.986731 Z-1.000000 I-0.016132 J-0.050375
G01 X32.762359 Y35.973536 Z-1.000000
G02 X32.676810 Y35.981684 Z-1.000000 I-0.005772 J0.392562
G02 X32.587528 Y36.009816 Z-1.000000 I0.094681 J0.456233
G01 X32.587532 Y36.009816 Z-1.000000
G00 Z5.000000

(End cutting path id: path18447)


(Start cutting path id: path18447)
(Change tool to Default tool)

G00 Z5.000000
G00 X33.789500 Y36.403203

G01 Z-1.000000 F100.0(Penetrate)
G03 X33.781877 Y36.439325 Z-1.000000 I-0.089394 J-0.000000 F400.000000
G01 X33.770230 Y36.446913 Z-1.000000
G01 X33.754454 Y36.440641 Z-1.000000
G03 X33.723940 Y36.403203 Z-1.000000 I0.127708 J-0.135241
G01 X33.721872 Y36.373409 Z-1.000000
G01 X33.743210 Y36.359493 Z-1.000000
G01 X33.776333 Y36.372661 Z-1.000000
G01 X33.789500 Y36.403203 Z-1.000000
G01 X33.789500 Y36.403203 Z-1.000000
G00 Z5.000000

(End cutting path id: path18447)


(Start cutting path id: path18447)
(Change tool to Default tool)

G00 Z5.000000
G00 X33.949667 Y36.388733

G01 Z-1.000000 F100.0(Penetrate)
G02 X33.945820 Y36.501214 Z-1.000000 I0.058300 J0.058300 F400.000000
G02 X34.114718 Y36.578038 Z-1.000000 I0.168898 J-0.147249
G01 X34.145929 Y36.596247 Z-1.000000
G03 X34.164138 Y36.665458 Z-1.000000 I-0.122428 J0.069211
G03 X34.131753 Y36.719412 Z-1.000000 I-0.061136 J0.000000
G03 X34.009600 Y36.747808 Z-1.000000 I-0.114190 J-0.214284
G03 X33.931236 Y36.734215 Z-1.000000 I0.009462 J-0.287241
G01 X33.931550 Y36.722748 Z-1.000000
G02 X33.984023 Y36.650657 Z-1.000000 I-0.017798 J-0.068097
G02 X33.917450 Y36.474670 Z-1.000000 I-0.312922 J0.017788
G03 X33.880092 Y36.385358 Z-1.000000 I0.142455 J-0.112057
G01 X33.902880 Y36.359506 Z-1.000000
G03 X33.947796 Y36.372384 Z-1.000000 I0.000000 J0.084769
G01 X33.949660 Y36.388736 Z-1.000000
G01 X33.949667 Y36.388733 Z-1.000000
G00 Z5.000000

(End cutting path id: path18447)


(Start cutting path id: path18447)
(Change tool to Default tool)

G00 Z5.000000
G00 X34.357703 Y36.648259

G01 Z-1.000000 F100.0(Penetrate)
G01 X34.350256 Y36.657920 Z-1.000000 F400.000000
G03 X34.292143 Y36.665439 Z-1.000000 I-0.058113 J-0.220812
G03 X34.241512 Y36.650512 Z-1.000000 I0.000000 J-0.093329
G01 X34.226583 Y36.623099 Z-1.000000
G01 X34.241977 Y36.603155 Z-1.000000
G03 X34.292143 Y36.605919 Z-1.000000 I0.020785 J0.079371
G03 X34.350895 Y36.635758 Z-1.000000 I-0.114305 J0.297821
G01 X34.357703 Y36.648259 Z-1.000000
G01 X34.357703 Y36.648259 Z-1.000000
G00 Z5.000000

(End cutting path id: path18447)


(Start cutting path id: path18447)
(Change tool to Default tool)

G00 Z5.000000
G00 X34.379557 Y36.752849

G01 Z-1.000000 F100.0(Penetrate)
G03 X34.345253 Y36.783495 Z-1.000000 I-0.068876 J-0.042575 F400.000000
G03 X34.286987 Y36.796559 Z-1.000000 I-0.058266 J-0.123403
G01 X34.250756 Y36.780205 Z-1.000000
G01 X34.248437 Y36.752849 Z-1.000000
G03 X34.282738 Y36.722205 Z-1.000000 I0.068870 J0.042571
G03 X34.341017 Y36.709139 Z-1.000000 I0.058279 J0.123432
G01 X34.377248 Y36.725493 Z-1.000000
G01 X34.379567 Y36.752849 Z-1.000000
G01 X34.379557 Y36.752849 Z-1.000000
G00 Z5.000000

(End cutting path id: path18447)


(Start cutting path id: path18447)
(Change tool to Default tool)

G00 Z5.000000
G00 X34.357703 Y36.903249

G01 Z-1.000000 F100.0(Penetrate)
G01 X34.351431 Y36.919025 Z-1.000000 F400.000000
G03 X34.313993 Y36.949539 Z-1.000000 I-0.135241 J-0.127708
G01 X34.284199 Y36.951607 Z-1.000000
G01 X34.270283 Y36.930269 Z-1.000000
G01 X34.283451 Y36.897146 Z-1.000000
G01 X34.313993 Y36.883979 Z-1.000000
G03 X34.350115 Y36.891602 Z-1.000000 I0.000000 J0.089394
G01 X34.357703 Y36.903249 Z-1.000000
G01 X34.357703 Y36.903249 Z-1.000000
G00 Z5.000000

(End cutting path id: path18447)


(Start cutting path id: path18447)
(Change tool to Default tool)

G00 Z5.000000
G00 X33.920624 Y37.321125

G01 Z-1.000000 F100.0(Penetrate)
G02 X33.884272 Y37.363194 Z-1.000000 I0.048745 J0.078861 F400.000000
G01 X33.889834 Y37.392325 Z-1.000000
G01 X33.922072 Y37.401664 Z-1.000000
G02 X33.973074 Y37.373575 Z-1.000000 I-0.022979 J-0.102070
G01 X33.973074 Y37.327232 Z-1.000000
G01 X33.920624 Y37.321125 Z-1.000000
G01 X33.920624 Y37.321125 Z-1.000000
G00 Z5.000000

(End cutting path id: path18447)


(Start cutting path id: path18447)
(Change tool to Default tool)

G00 Z5.000000
G00 X33.547309 Y37.455146

G01 Z-1.000000 F100.0(Penetrate)
G02 X33.534155 Y37.499936 Z-1.000000 I0.074969 J0.046344 F400.000000
G01 X33.546009 Y37.529256 Z-1.000000
G02 X33.657740 Y37.578297 Z-1.000000 I0.118751 J-0.118751
G01 X33.702098 Y37.535756 Z-1.000000
G01 X33.687576 Y37.510442 Z-1.000000
G02 X33.633958 Y37.495916 Z-1.000000 I-0.053618 J0.091694
G03 X33.595568 Y37.479326 Z-1.000000 I-0.000000 J-0.052715
G01 X33.592828 Y37.452206 Z-1.000000
G02 X33.605247 Y37.416621 Z-1.000000 I-0.074161 J-0.045842
G01 X33.598028 Y37.408496 Z-1.000000
G01 X33.580077 Y37.415499 Z-1.000000
G02 X33.547368 Y37.455116 Z-1.000000 I0.127573 J0.138637
G01 X33.547309 Y37.455146 Z-1.000000
G00 Z5.000000

(End cutting path id: path18447)


(Start cutting path id: path18447)
(Change tool to Default tool)

G00 Z5.000000
G00 X33.472184 Y37.157579

G01 Z-1.000000 F100.0(Penetrate)
G03 X33.329780 Y37.208331 Z-1.000000 I-0.124681 J-0.124681 F400.000000
G03 X33.265133 Y37.136659 Z-1.000000 I0.007224 J-0.071507
G01 X33.287908 Y37.102898 Z-1.000000
G03 X33.410131 Y37.077709 Z-1.000000 I0.129196 J0.317769
G03 X33.475238 Y37.108757 Z-1.000000 I0.001639 J0.080350
G01 X33.472181 Y37.157579 Z-1.000000
G01 X33.472184 Y37.157579 Z-1.000000
G00 Z5.000000

(End cutting path id: path18447)


(Start cutting path id: path18447)
(Change tool to Default tool)

G00 Z5.000000
G00 X31.767097 Y36.997799

G01 Z-1.000000 F100.0(Penetrate)
G01 X31.737899 Y37.010609 Z-1.000000 F400.000000
G03 X31.683327 Y37.001299 Z-1.000000 I-0.005495 J-0.132394
G01 X31.680535 Y36.987696 Z-1.000000
G01 X31.709737 Y36.974889 Z-1.000000
G03 X31.764299 Y36.984227 Z-1.000000 I0.005453 J0.132213
G01 X31.767107 Y36.997849 Z-1.000000
G01 X31.767097 Y36.997799 Z-1.000000
G00 Z5.000000

(End cutting path id: path18447)


(Start cutting path id: path18447)
(Change tool to Default tool)

G00 Z5.000000
G00 X31.516687 Y36.857019

G01 Z-1.000000 F100.0(Penetrate)
G01 X31.509486 Y36.868190 Z-1.000000 F400.000000
G03 X31.429207 Y36.896649 Z-1.000000 I-0.207193 J-0.457001
G03 X31.372828 Y36.896513 Z-1.000000 I-0.027932 J-0.106822
G01 X31.366227 Y36.879889 Z-1.000000
G03 X31.466318 Y36.813720 Z-1.000000 I0.121569 J0.075106
G01 X31.516685 Y36.857009 Z-1.000000
G01 X31.516687 Y36.857019 Z-1.000000
G00 Z5.000000

(End cutting path id: path18447)


(Start cutting path id: path18447)
(Change tool to Default tool)

G00 Z5.000000
G00 X31.509016 Y36.703309

G01 Z-1.000000 F100.0(Penetrate)
G03 X31.483931 Y36.756911 Z-1.000000 I-0.053134 J0.007804 F400.000000
G03 X31.399746 Y36.770229 Z-1.000000 I-0.058173 J-0.094982
G03 X31.344268 Y36.732702 Z-1.000000 I0.022259 J-0.092678
G01 X31.356426 Y36.709169 Z-1.000000
G02 X31.454261 Y36.690453 Z-1.000000 I-0.000000 J-0.265074
G01 X31.472980 Y36.662879 Z-1.000000
G01 X31.459068 Y36.641543 Z-1.000000
G01 X31.429270 Y36.643609 Z-1.000000
G01 X31.400029 Y36.644632 Z-1.000000
G01 X31.385560 Y36.620689 Z-1.000000
G01 X31.438843 Y36.592236 Z-1.000000
G03 X31.509013 Y36.703319 Z-1.000000 I-0.090104 J0.134622
G01 X31.509016 Y36.703309 Z-1.000000
G00 Z5.000000

(End cutting path id: path18447)


(Start cutting path id: path18447)
(Change tool to Default tool)

G00 Z5.000000
G00 X31.298147 Y36.967919

G01 Z-1.000000 F100.0(Penetrate)
G03 X31.198591 Y37.095253 Z-1.000000 I-0.131210 J0.000000 F400.000000
G03 X31.003636 Y37.041109 Z-1.000000 I-0.049592 J-0.199492
G01 X31.006644 Y37.027116 Z-1.000000
G03 X31.072326 Y37.015099 Z-1.000000 I0.065682 J0.173489
G02 X31.149970 Y36.998046 Z-1.000000 I0.000000 J-0.185283
G01 X31.167026 Y36.971389 Z-1.000000
G01 X31.182262 Y36.942917 Z-1.000000
G03 X31.232586 Y36.927679 Z-1.000000 I0.050324 J0.075475
G03 X31.283715 Y36.942119 Z-1.000000 I-0.000000 J0.097740
G01 X31.298146 Y36.967909 Z-1.000000
G01 X31.298147 Y36.967919 Z-1.000000
G00 Z5.000000

(End cutting path id: path18447)


(Start cutting path id: path18447)
(Change tool to Default tool)

G00 Z5.000000
G00 X31.164871 Y36.702199

G01 Z-1.000000 F100.0(Penetrate)
G02 X31.109041 Y36.733254 Z-1.000000 I0.052299 J0.159735 F400.000000
G02 X31.044348 Y36.803466 Z-1.000000 I0.241594 J0.287512
G03 X30.979935 Y36.869854 Z-1.000000 I-0.247005 J-0.175213
G03 X30.937828 Y36.883976 Z-1.000000 I-0.042107 J-0.055715
G01 X30.928059 Y36.867059 Z-1.000000
G03 X31.012558 Y36.754406 Z-1.000000 I0.508880 J0.293683
G03 X31.140252 Y36.652798 Z-1.000000 I0.438730 J0.420322
G01 X31.182487 Y36.653139 Z-1.000000
G01 X31.190818 Y36.676980 Z-1.000000
G01 X31.164877 Y36.702199 Z-1.000000
G01 X31.164871 Y36.702199 Z-1.000000
G00 Z5.000000

(End cutting path id: path18447)


(Start cutting path id: path18447)
(Change tool to Default tool)

G00 Z5.000000
G00 X31.078674 Y36.491199

G01 Z-1.000000 F100.0(Penetrate)
G02 X31.047781 Y36.530007 Z-1.000000 I0.038568 J0.062402 F400.000000
G01 X31.052214 Y36.569079 Z-1.000000
G01 X31.046150 Y36.588792 Z-1.000000
G03 X30.999534 Y36.592629 Z-1.000000 I-0.028765 J-0.064370
G03 X30.952754 Y36.518107 Z-1.000000 I0.016254 J-0.062147
G03 X31.025994 Y36.457848 Z-1.000000 I0.073240 J0.014379
G03 X31.078773 Y36.473155 Z-1.000000 I-0.000000 J0.098647
G01 X31.078674 Y36.491208 Z-1.000000
G01 X31.078674 Y36.491199 Z-1.000000
G00 Z5.000000

(End cutting path id: path18447)


(Start cutting path id: path18447)
(Change tool to Default tool)

G00 Z5.000000
G00 X31.111478 Y36.385903

G01 Z-1.000000 F100.0(Penetrate)
G01 X31.082280 Y36.398713 Z-1.000000 F400.000000
G03 X31.027708 Y36.389403 Z-1.000000 I-0.005495 J-0.132394
G01 X31.024916 Y36.375800 Z-1.000000
G01 X31.054118 Y36.362993 Z-1.000000
G03 X31.108681 Y36.372333 Z-1.000000 I0.005451 J0.132201
G01 X31.111488 Y36.385953 Z-1.000000
G01 X31.111478 Y36.385903 Z-1.000000
G00 Z5.000000

(End cutting path id: path18447)


(Start cutting path id: path18447)
(Change tool to Default tool)

G00 Z5.000000
G00 X30.904776 Y35.979226

G01 Z-1.000000 F100.0(Penetrate)
G02 X30.948115 Y36.097604 Z-1.000000 I0.183341 J0.000000 F400.000000
G02 X31.041519 Y36.140945 Z-1.000000 I0.093404 J-0.078977
G02 X31.179376 Y36.075405 Z-1.000000 I0.000000 J-0.177755
G02 X31.186700 Y35.962589 Z-1.000000 I-0.075621 J-0.061555
G02 X31.007991 Y35.869742 Z-1.000000 I-0.167133 J0.103283
G02 X30.904776 Y35.979229 Z-1.000000 I0.006462 J0.109487
G01 X30.904776 Y35.979226 Z-1.000000
G00 Z5.000000

(End cutting path id: path18447)


(Start cutting path id: path18447)
(Change tool to Default tool)

G00 Z5.000000
G00 X31.289952 Y35.908556

G01 Z-1.000000 F100.0(Penetrate)
G02 X31.344511 Y35.917902 Z-1.000000 I0.049082 J-0.122608 F400.000000
G01 X31.373722 Y35.905056 Z-1.000000
G01 X31.370932 Y35.891457 Z-1.000000
G02 X31.316352 Y35.882096 Z-1.000000 I-0.049158 J0.122828
G01 X31.287152 Y35.894902 Z-1.000000
G01 X31.289942 Y35.908506 Z-1.000000
G01 X31.289952 Y35.908556 Z-1.000000
G00 Z5.000000

(End cutting path id: path18447)


(Start cutting path id: path18447)
(Change tool to Default tool)

G00 Z5.000000
G00 X30.492124 Y36.251616

G01 Z-1.000000 F100.0(Penetrate)
G01 X30.478680 Y36.293735 Z-1.000000 F400.000000
G01 X30.513974 Y36.320956 Z-1.000000
G01 X30.521822 Y36.336088 Z-1.000000
G03 X30.489544 Y36.359496 Z-1.000000 I-0.045587 J-0.028902
G01 X30.458302 Y36.384156 Z-1.000000
G01 X30.467694 Y36.401106 Z-1.000000
G01 X30.498775 Y36.422389 Z-1.000000
G01 X30.489544 Y36.446916 Z-1.000000
G02 X30.454029 Y36.475229 Z-1.000000 I0.033957 J0.079026
G01 X30.459884 Y36.487546 Z-1.000000
G01 X30.475476 Y36.506783 Z-1.000000
G03 X30.448554 Y36.559706 Z-1.000000 I-0.094722 J-0.014876
G02 X30.461003 Y36.640461 Z-1.000000 I0.035816 J0.035816
G02 X30.710739 Y36.696034 Z-1.000000 I0.229097 J-0.440601
G03 X30.963837 Y36.706537 Z-1.000000 I0.063532 J1.523759
G01 X30.978389 Y36.729504 Z-1.000000
G01 X30.951089 Y36.759394 Z-1.000000
G03 X30.839142 Y36.789284 Z-1.000000 I-0.158734 J-0.369918
G02 X30.774972 Y36.818513 Z-1.000000 I0.013405 J0.114484
G01 X30.776952 Y36.845874 Z-1.000000
G01 X30.780816 Y36.867456 Z-1.000000
G01 X30.751792 Y36.880914 Z-1.000000
G02 X30.664326 Y36.877839 Z-1.000000 I-0.078860 J0.997788
G02 X30.489545 Y36.883314 Z-1.000000 I0.033099 J3.849543
G02 X30.420925 Y36.906386 Z-1.000000 I0.007250 J0.135141
G01 X30.423985 Y36.927694 Z-1.000000
G03 X30.454197 Y36.952653 Z-1.000000 I-0.016088 J0.050238
G01 X30.445835 Y36.967714 Z-1.000000
G02 X30.403942 Y36.985420 Z-1.000000 I0.003942 J0.067741
G01 X30.405315 Y37.004854 Z-1.000000
G03 X30.443822 Y37.043502 Z-1.000000 I-0.082990 J0.121195
G03 X30.482175 Y37.117989 Z-1.000000 I-0.286381 J0.194573
G02 X30.526037 Y37.168317 Z-1.000000 I0.088252 J-0.032636
G02 X30.582870 Y37.171869 Z-1.000000 I0.032300 J-0.060370
G03 X30.650681 Y37.162987 Z-1.000000 I0.052353 J0.136407
G03 X30.702698 Y37.184659 Z-1.000000 I-0.010467 J0.098387
G02 X31.023025 Y37.310704 Z-1.000000 I0.358255 J-0.440401
G02 X31.472974 Y37.236259 Z-1.000000 I0.066589 J-0.994507
G03 X31.657702 Y37.200018 Z-1.000000 I0.181276 J0.435090
G03 X31.762802 Y37.238359 Z-1.000000 I-0.001220 J0.166564
G02 X31.822630 Y37.258672 Z-1.000000 I0.056458 J-0.068025
G02 X31.888200 Y37.233559 Z-1.000000 I-0.004159 J-0.109020
G03 X31.937698 Y37.213365 Z-1.000000 I0.056790 J0.068439
G01 X31.953760 Y37.228159 Z-1.000000
G01 X31.971876 Y37.259100 Z-1.000000
G02 X32.041180 Y37.277219 Z-1.000000 I0.069304 J-0.123485
G02 X32.114755 Y37.263373 Z-1.000000 I-0.000000 J-0.202408
G01 X32.128600 Y37.243109 Z-1.000000
G01 X32.144941 Y37.225037 Z-1.000000
G03 X32.543826 Y37.201229 Z-1.000000 I0.490186 J4.859250
G03 X32.938793 Y37.214134 Z-1.000000 I0.071854 J3.851455
G01 X32.959051 Y37.236169 Z-1.000000
G01 X32.976597 Y37.256397 Z-1.000000
G02 X33.067549 Y37.251659 Z-1.000000 I0.033408 J-0.234030
G03 X33.175250 Y37.242367 Z-1.000000 I0.082663 J0.329329
G03 X33.304358 Y37.269159 Z-1.000000 I-0.037272 J0.504094
G02 X33.423485 Y37.277908 Z-1.000000 I0.075869 J-0.217635
G02 X33.508428 Y37.230169 Z-1.000000 I-0.028789 J-0.150665
G03 X33.597733 Y37.178000 Z-1.000000 I0.127064 J0.114990
G03 X33.850750 Y37.152849 Z-1.000000 I0.228165 J1.010097
G02 X34.116723 Y37.149115 Z-1.000000 I0.083759 J-3.508521
G02 X34.342064 Y37.127359 Z-1.000000 I-0.132689 J-2.552203
G03 X34.555933 Y37.118717 Z-1.000000 I0.149771 J1.055731
G03 X34.595965 Y37.142639 Z-1.000000 I-0.003044 J0.050550
G01 X34.589238 Y37.169796 Z-1.000000
G03 X34.515745 Y37.189799 Z-1.000000 I-0.073493 J-0.125009
G02 X34.313856 Y37.277206 Z-1.000000 I0.000000 J0.276860
G02 X34.299501 Y37.420238 Z-1.000000 I0.086197 J0.080887
G01 X34.290295 Y37.438205 Z-1.000000
G03 X34.144701 Y37.431128 Z-1.000000 I-0.043155 J-0.613398
G02 X33.983046 Y37.422787 Z-1.000000 I-0.116683 J0.690773
G01 X33.964338 Y37.442738 Z-1.000000
G01 X33.981043 Y37.468280 Z-1.000000
G02 X34.062678 Y37.485758 Z-1.000000 I0.083602 J-0.191092
G03 X34.730549 Y37.536646 Z-1.000000 I-0.049822 J5.061967
G03 X34.935603 Y37.611012 Z-1.000000 I-0.075717 J0.528669
G01 X34.929213 Y37.653997 Z-1.000000
G03 X34.681279 Y37.678222 Z-1.000000 I-0.198555 J-0.751285
G02 X34.437946 Y37.698574 Z-1.000000 I-0.052955 J0.831704
G01 X34.410700 Y37.741712 Z-1.000000
G02 X34.442060 Y37.802852 Z-1.000000 I0.130780 J-0.028468
G01 X34.476020 Y37.814132 Z-1.000000
G01 X34.499187 Y37.827662 Z-1.000000
G03 X34.501110 Y37.890622 Z-1.000000 I-0.105991 J0.034746
G02 X34.509120 Y37.953011 Z-1.000000 I0.081315 J0.021269
G01 X34.549300 Y37.976542 Z-1.000000
G03 X34.604318 Y37.992183 Z-1.000000 I0.000000 J0.104584
G01 X34.619960 Y38.020252 Z-1.000000
G01 X34.604724 Y38.048724 Z-1.000000
G03 X34.554400 Y38.063962 Z-1.000000 I-0.050324 J-0.075475
G02 X34.507527 Y38.082654 Z-1.000000 I-0.000000 J0.068115
G02 X34.488840 Y38.126132 Z-1.000000 I0.041234 J0.043478
G02 X34.541771 Y38.198441 Z-1.000000 I0.075856 J0.000000
G02 X35.046116 Y38.302823 Z-1.000000 I0.757383 J-2.388848
G02 X35.289368 Y38.297438 Z-1.000000 I0.099893 J-0.984348
G01 X35.319291 Y38.262813 Z-1.000000
G03 X35.341274 Y38.215735 Z-1.000000 I0.061403 J0.000000
G03 X35.406711 Y38.189613 Z-1.000000 I0.072492 J0.086576
G02 X35.576047 Y38.151628 Z-1.000000 I-0.034358 J-0.549610
G01 X35.603396 Y38.111303 Z-1.000000
G02 X35.586912 Y38.061262 Z-1.000000 I-0.084198 J-0.000000
G02 X35.542676 Y38.029143 Z-1.000000 I-0.072889 J0.053865
G01 X35.515357 Y38.035333 Z-1.000000
G01 X35.512476 Y38.058283 Z-1.000000
G01 X35.518045 Y38.093753 Z-1.000000
G01 X35.500286 Y38.107663 Z-1.000000
G02 X35.458363 Y38.112339 Z-1.000000 I0.000000 J0.190275
G02 X35.377509 Y38.135393 Z-1.000000 I0.166634 J0.737720
G01 X35.365406 Y38.125151 Z-1.000000
G03 X35.384909 Y38.091573 Z-1.000000 I0.054497 J0.009199
G02 X35.406873 Y38.056681 Z-1.000000 I-0.041121 J-0.050244
G01 X35.395839 Y38.046663 Z-1.000000
G03 X35.334089 Y38.052603 Z-1.000000 I-0.043053 J-0.123633
G01 X35.319349 Y38.035583 Z-1.000000
G03 X35.407847 Y37.908322 Z-1.000000 I0.135751 J-0.000000
G03 X35.659311 Y37.909351 Z-1.000000 I0.124364 J0.334933
G01 X35.688502 Y37.908799 Z-1.000000
G01 X35.690871 Y37.895951 Z-1.000000
G02 X35.642691 Y37.861730 Z-1.000000 I-0.138442 J0.143889
G02 X35.559747 Y37.829501 Z-1.000000 I-0.204638 J0.403801
G01 X35.560534 Y37.823329 Z-1.000000
G03 X35.640537 Y37.828001 Z-1.000000 I0.009613 J0.522707
G02 X35.772307 Y37.827258 Z-1.000000 I0.063271 J-0.463969
G01 X35.781664 Y37.807131 Z-1.000000
G02 X35.743630 Y37.782919 Z-1.000000 I-0.044048 J0.027215
G02 X35.400462 Y37.762541 Z-1.000000 I-0.349817 J2.991291
G03 X35.050881 Y37.750819 Z-1.000000 I0.012272 J-5.584583
G01 X35.022583 Y37.738011 Z-1.000000
G01 X35.026942 Y37.725896 Z-1.000000
G03 X35.273035 Y37.714251 Z-1.000000 I0.246093 J2.594466
G02 X35.502454 Y37.683464 Z-1.000000 I0.000000 J-0.870188
G01 X35.521214 Y37.646421 Z-1.000000
G03 X35.519353 Y37.607752 Z-1.000000 I0.057732 J-0.022158
G01 X35.533444 Y37.602231 Z-1.000000
G02 X35.641542 Y37.582672 Z-1.000000 I0.043178 J-0.069862
G02 X35.648348 Y37.453919 Z-1.000000 I-0.089417 J-0.069283
G01 X35.652268 Y37.426017 Z-1.000000
G03 X35.699218 Y37.407629 Z-1.000000 I0.047549 J0.052274
G01 X35.724537 Y37.391621 Z-1.000000
G01 X35.718048 Y37.368809 Z-1.000000
G03 X35.683155 Y37.324824 Z-1.000000 I0.045598 J-0.072004
G03 X35.687848 Y37.282059 Z-1.000000 I0.047266 J-0.016454
G03 X35.758291 Y37.247673 Z-1.000000 I0.062457 J0.038602
G01 X35.800138 Y37.294349 Z-1.000000
G02 X35.839928 Y37.368505 Z-1.000000 I0.088997 J0.000000
G02 X35.971857 Y37.408295 Z-1.000000 I0.131929 J-0.198820
G02 X36.001964 Y37.399372 Z-1.000000 I-0.000000 J-0.055250
G02 X36.105317 Y37.321555 Z-1.000000 I-0.510630 J-0.785745
G02 X36.163297 Y37.231369 Z-1.000000 I-0.124911 J-0.144034
G02 X36.150357 Y37.168577 Z-1.000000 I-0.065393 J-0.019253
G03 X36.139818 Y37.123210 Z-1.000000 I0.040008 J-0.033202
G01 X36.166297 Y37.102347 Z-1.000000
G02 X36.219877 Y37.034768 Z-1.000000 I0.000000 J-0.055030
G02 X36.125097 Y36.926433 Z-1.000000 I-0.149260 J0.034957
G02 X36.010776 Y36.895842 Z-1.000000 I-0.206866 J0.544170
G02 X35.860270 Y36.883803 Z-1.000000 I-0.150506 J0.934738
G03 X35.743068 Y36.864009 Z-1.000000 I-0.000000 J-0.356881
G01 X35.734571 Y36.840093 Z-1.000000
G01 X35.725406 Y36.816554 Z-1.000000
G02 X35.579435 Y36.796383 Z-1.000000 I-0.145971 J0.518089
G02 X35.449982 Y36.837484 Z-1.000000 I0.000000 J0.224413
G02 X35.424710 Y36.905653 Z-1.000000 I0.037088 J0.052519
G03 X35.389374 Y36.972507 Z-1.000000 I-0.054863 J0.013767
G03 X35.275045 Y36.960703 Z-1.000000 I-0.045112 J-0.122643
G02 X35.188222 Y36.935574 Z-1.000000 I-0.087685 J0.140406
G02 X35.102832 Y36.959808 Z-1.000000 I-0.000830 J0.159631
G03 X35.023649 Y36.986576 Z-1.000000 I-0.096159 J-0.153945
G01 X34.990983 Y36.970318 Z-1.000000
G01 X34.991128 Y36.942361 Z-1.000000
G01 X35.018093 Y36.927508 Z-1.000000
G02 X35.050189 Y36.918583 Z-1.000000 I0.000000 J-0.062176
G01 X35.051543 Y36.907388 Z-1.000000
G01 X35.028377 Y36.898478 Z-1.000000
G02 X34.931294 Y36.913488 Z-1.000000 I0.024518 J0.480042
G02 X34.883329 Y36.947801 Z-1.000000 I0.020890 J0.079883
G01 X34.889494 Y36.976648 Z-1.000000
G01 X34.894738 Y36.998452 Z-1.000000
G01 X34.867244 Y37.014288 Z-1.000000
G03 X34.804439 Y36.991734 Z-1.000000 I-0.000803 J-0.096484
G03 X34.763804 Y36.927538 Z-1.000000 I0.080369 J-0.095831
G02 X34.721823 Y36.864791 Z-1.000000 I-0.111414 J0.029125
G02 X34.647699 Y36.839778 Z-1.000000 I-0.074585 J0.098689
G03 X34.570920 Y36.813756 Z-1.000000 I0.000468 J-0.127659
G03 X34.503931 Y36.730508 Z-1.000000 I0.134188 J-0.176558
G03 X34.490581 Y36.645313 Z-1.000000 I0.142110 J-0.065911
G01 X34.517441 Y36.621579 Z-1.000000
G01 X34.551893 Y36.638073 Z-1.000000
G01 X34.553661 Y36.666569 Z-1.000000
G01 X34.564184 Y36.689191 Z-1.000000
G02 X34.788440 Y36.701189 Z-1.000000 I0.176479 J-1.196749
G02 X35.029686 Y36.679466 Z-1.000000 I-0.094890 J-2.404252
G01 X35.035865 Y36.666289 Z-1.000000
G01 X35.041711 Y36.653109 Z-1.000000
G03 X35.191566 Y36.637279 Z-1.000000 I0.174817 J0.937706
G02 X35.432594 Y36.534391 Z-1.000000 I-0.009269 J-0.355477
G02 X35.406126 Y36.424690 Z-1.000000 I-0.046419 J-0.046844
G03 X35.350594 Y36.384445 Z-1.000000 I0.033009 J-0.103982
G01 X35.348956 Y36.345260 Z-1.000000
G01 X35.342939 Y36.336266 Z-1.000000
G02 X35.308876 Y36.351260 Z-1.000000 I0.010490 J0.070017
G03 X34.965607 Y36.477740 Z-1.000000 I-0.357468 J-0.441115
G03 X34.203486 Y36.378920 Z-1.000000 I-0.062663 J-2.504965
G02 X33.953215 Y36.308663 Z-1.000000 I-3.929501 J13.516875
G02 X33.904440 Y36.297940 Z-1.000000 I-0.135905 J0.501888
G03 X33.857059 Y36.284030 Z-1.000000 I0.035206 J-0.207563
G03 X33.752091 Y36.232980 Z-1.000000 I0.462334 J-1.084098
G02 X33.653066 Y36.204476 Z-1.000000 I-0.112668 J0.205153
G02 X33.601299 Y36.224180 Z-1.000000 I-0.003941 J0.067499
G01 X33.598272 Y36.253413 Z-1.000000
G01 X33.632519 Y36.271940 Z-1.000000
G03 X33.677881 Y36.295043 Z-1.000000 I0.000000 J0.056085
G03 X33.684209 Y36.343040 Z-1.000000 I-0.041018 J0.029824
G02 X33.678583 Y36.410593 Z-1.000000 I0.113175 J0.043435
G02 X33.712319 Y36.481209 Z-1.000000 I0.157855 J-0.032046
G01 X33.709183 Y36.512782 Z-1.000000
G03 X33.658439 Y36.524999 Z-1.000000 I-0.038142 J-0.046930
G03 X33.550474 Y36.497582 Z-1.000000 I0.298734 J-1.402649
G03 X33.478316 Y36.471729 Z-1.000000 I0.192482 J-0.650868
G02 X33.311105 Y36.495368 Z-1.000000 I-0.063923 J0.151047
G02 X33.289099 Y36.625123 Z-1.000000 I0.062734 J0.077383
G02 X33.322988 Y36.649145 Z-1.000000 I0.045310 J-0.028006
G02 X33.475260 Y36.665973 Z-1.000000 I0.155209 J-0.707083
G03 X33.631649 Y36.682183 Z-1.000000 I-0.003294 J0.794302
G03 X33.702147 Y36.712543 Z-1.000000 I-0.038041 J0.185363
G01 X33.701400 Y36.727024 Z-1.000000
G01 X33.669367 Y36.730783 Z-1.000000
G02 X33.593563 Y36.754900 Z-1.000000 I-0.019587 J0.069625
G02 X33.567643 Y36.856445 Z-1.000000 I0.097575 J0.078988
G01 X33.553001 Y36.875151 Z-1.000000
G03 X33.299644 Y36.873475 Z-1.000000 I-0.114736 J-1.805812
G02 X33.029631 Y36.877313 Z-1.000000 I-0.113965 J1.482381
G02 X32.898815 Y36.915845 Z-1.000000 I0.039692 J0.376077
G03 X32.768991 Y36.955427 Z-1.000000 I-0.179222 J-0.355129
G03 X32.592860 Y36.954135 Z-1.000000 I-0.083193 J-0.664750
G02 X32.412304 Y36.935850 Z-1.000000 I-0.329490 J2.352992
G02 X32.210747 Y36.930135 Z-1.000000 I-0.183870 J2.927502
G03 X32.034711 Y36.897502 Z-1.000000 I-0.002845 J-0.475782
G03 X31.985372 Y36.842035 Z-1.000000 I0.029761 J-0.076150
G02 X31.940256 Y36.780893 Z-1.000000 I-0.099122 J0.025926
G02 X31.841368 Y36.752715 Z-1.000000 I-0.098888 J0.159425
G03 X31.752464 Y36.739564 Z-1.000000 I-0.000000 J-0.307084
G01 X31.748738 Y36.724705 Z-1.000000
G03 X31.782030 Y36.708844 Z-1.000000 I0.039009 J0.039009
G03 X32.130717 Y36.684905 Z-1.000000 I0.513534 J4.928583
G03 X32.442580 Y36.703098 Z-1.000000 I0.057024 J1.704551
G01 X32.461021 Y36.734775 Z-1.000000
G02 X32.459875 Y36.780980 Z-1.000000 I0.064418 J0.024715
G01 X32.481191 Y36.796425 Z-1.000000
G01 X32.504151 Y36.778160 Z-1.000000
G02 X32.508931 Y36.676243 Z-1.000000 I-0.277721 J-0.064095
G02 X32.456399 Y36.592172 Z-1.000000 I-0.119062 J0.015949
G02 X32.283158 Y36.526068 Z-1.000000 I-0.232746 J0.349901
G02 X31.900472 Y36.524222 Z-1.000000 I-0.198025 J1.384424
G02 X31.754093 Y36.596548 Z-1.000000 I0.033610 J0.252312
G03 X31.622368 Y36.652294 Z-1.000000 I-0.134637 J-0.134637
G03 X31.544654 Y36.599748 Z-1.000000 I-0.001252 J-0.081889
G03 X31.548555 Y36.554158 Z-1.000000 I0.048945 J-0.018774
G01 X31.583684 Y36.534188 Z-1.000000
G03 X31.632202 Y36.549856 Z-1.000000 I0.000000 J0.082955
G01 X31.647874 Y36.580478 Z-1.000000
G01 X31.661786 Y36.601814 Z-1.000000
G01 X31.691584 Y36.599748 Z-1.000000
G01 X31.708522 Y36.535892 Z-1.000000
G02 X31.632084 Y36.490478 Z-1.000000 I-0.076438 J0.041621
G03 X31.567612 Y36.458450 Z-1.000000 I-0.000000 J-0.080904
G03 X31.549664 Y36.381752 Z-1.000000 I0.077179 J-0.058510
G02 X31.502759 Y36.263777 Z-1.000000 I-0.116021 J-0.022184
G02 X31.360532 Y36.245283 Z-1.000000 I-0.088214 J0.122260
G01 X31.337251 Y36.281359 Z-1.000000
G02 X31.366432 Y36.346351 Z-1.000000 I0.099947 J-0.005829
G03 X31.401012 Y36.411551 Z-1.000000 I-0.088944 J0.088944
G01 X31.384412 Y36.439911 Z-1.000000
G03 X31.334740 Y36.436844 Z-1.000000 I-0.021034 J-0.063102
G03 X31.276162 Y36.388271 Z-1.000000 I0.066949 J-0.140347
G02 X31.211200 Y36.342996 Z-1.000000 I-0.098403 J0.071949
G02 X31.001220 Y36.309831 Z-1.000000 I-0.241085 J0.845091
G03 X30.794500 Y36.278590 Z-1.000000 I0.032543 J-0.914897
G03 X30.755325 Y36.243221 Z-1.000000 I0.015230 J-0.056248
G02 X30.672147 Y36.187950 Z-1.000000 I-0.080468 J0.030874
G02 X30.492235 Y36.251521 Z-1.000000 I0.009889 J0.314358
G01 X30.492124 Y36.251616 Z-1.000000
G00 Z5.000000

(End cutting path id: path18447)


(Start cutting path id: path18447)
(Change tool to Default tool)

G00 Z5.000000
G00 X30.399543 Y36.014016

G01 Z-1.000000 F100.0(Penetrate)
G01 X30.395557 Y36.058538 Z-1.000000 F400.000000
G02 X30.446823 Y36.134213 Z-1.000000 I0.194373 J-0.076475
G02 X30.484814 Y36.156844 Z-1.000000 I0.070237 J-0.074706
G01 X30.491313 Y36.148953 Z-1.000000
G01 X30.496152 Y36.117741 Z-1.000000
G01 X30.538203 Y36.105243 Z-1.000000
G02 X30.599404 Y36.092503 Z-1.000000 I0.014528 J-0.083579
G02 X30.633213 Y36.042603 Z-1.000000 I-0.043326 J-0.065759
G02 X30.615603 Y35.993290 Z-1.000000 I-0.049412 J-0.010156
G02 X30.539033 Y35.966113 Z-1.000000 I-0.076570 J0.094279
G02 X30.438491 Y35.982896 Z-1.000000 I0.000000 J0.309553
G02 X30.399533 Y36.014013 Z-1.000000 I0.024065 J0.070075
G01 X30.399543 Y36.014016 Z-1.000000
G00 Z5.000000

(End cutting path id: path18447)


(Start cutting path id: path18447)
(Change tool to Default tool)

G00 Z5.000000
G00 X30.197254 Y36.083386

G01 Z-1.000000 F100.0(Penetrate)
G02 X30.251813 Y36.092732 Z-1.000000 I0.049082 J-0.122608 F400.000000
G01 X30.281024 Y36.079886 Z-1.000000
G01 X30.278234 Y36.066287 Z-1.000000
G02 X30.223654 Y36.056926 Z-1.000000 I-0.049158 J0.122828
G01 X30.194454 Y36.069732 Z-1.000000
G01 X30.197244 Y36.083336 Z-1.000000
G01 X30.197254 Y36.083386 Z-1.000000
G00 Z5.000000

(End cutting path id: path18447)


(Start cutting path id: path18447)
(Change tool to Default tool)

G00 Z5.000000
G00 X30.197254 Y36.170806

G01 Z-1.000000 F100.0(Penetrate)
G02 X30.251813 Y36.180152 Z-1.000000 I0.049082 J-0.122608 F400.000000
G01 X30.281024 Y36.167306 Z-1.000000
G01 X30.278234 Y36.153707 Z-1.000000
G02 X30.223654 Y36.144346 Z-1.000000 I-0.049158 J0.122828
G01 X30.194454 Y36.157152 Z-1.000000
G01 X30.197244 Y36.170756 Z-1.000000
G01 X30.197254 Y36.170806 Z-1.000000
G00 Z5.000000

(End cutting path id: path18447)


