%
(Header)
(Generated by gcodetools from Inkscape.)
(Using default header. To add your own header create file "header" in the output dir.)
M3
(Header end.)
G21 (All units in mm)

(Start cutting path id: text1)
(Change tool to Default tool)

G00 Z5.000000
G00 X13.053494 Y95.511819

G01 Z-1.000000 F100.0(Penetrate)
G01 X7.517496 Y95.511819 Z-1.000000 F400.000000
G01 X7.517496 Y107.727479 Z-1.000000
G01 X13.451290 Y107.727479 Z-1.000000
G02 X15.499294 Y107.309262 Z-1.000000 I-0.083110 J-5.630619
G02 X16.633660 Y106.426353 Z-1.000000 I-1.007856 J-2.465073
G02 X17.044063 Y105.597752 Z-1.000000 I-2.261811 J-1.636203
G02 X17.197204 Y104.561684 Z-1.000000 I-3.428168 J-1.036068
G02 X17.034966 Y103.501400 Z-1.000000 I-3.545797 J0.000000
G02 X16.633660 Y102.763313 Z-1.000000 I-2.075732 J0.650459
G02 X16.281991 Y102.427778 Z-1.000000 I-1.585871 J1.310068
G02 X15.705469 Y102.067170 Z-1.000000 I-2.415679 J3.220906
G02 X16.546039 Y101.607469 Z-1.000000 I-1.076291 J-2.966363
G02 X17.114330 Y100.989805 Z-1.000000 I-1.471168 J-1.923834
G02 X17.461388 Y100.212531 Z-1.000000 I-2.271762 J-1.480477
G02 X17.595001 Y99.199722 Z-1.000000 I-3.771835 J-1.012809
G02 X17.451196 Y98.155849 Z-1.000000 I-3.860624 J0.000000
G02 X17.048031 Y97.252178 Z-1.000000 I-3.277679 J0.920540
G02 X16.653050 Y96.723034 Z-1.000000 I-2.990701 J1.820429
G02 X16.177852 Y96.290837 Z-1.000000 I-2.456426 J2.223488
G02 X15.553321 Y95.922757 Z-1.000000 I-1.869200 J2.457651
G02 X14.785565 Y95.677567 Z-1.000000 I-1.538461 J3.492718
G02 X13.985387 Y95.556305 Z-1.000000 I-1.501438 J7.206926
G02 X13.053494 Y95.511819 Z-1.000000 I-0.931893 J9.738309
G01 X13.053494 Y95.511819 Z-1.000000
G00 Z5.000000

(End cutting path id: text1)


(Start cutting path id: text1)
(Change tool to Default tool)

G00 Z5.000000
G00 X12.995484 Y100.890356

G01 Z-1.000000 F100.0(Penetrate)
G01 X9.953997 Y100.890356 Z-1.000000 F400.000000
G01 X9.953997 Y97.633399 Z-1.000000
G01 X12.954044 Y97.633399 Z-1.000000
G03 X13.742546 Y97.700787 Z-1.000000 I0.000000 J4.646760
G03 X14.205444 Y97.848872 Z-1.000000 I-0.297388 J1.727138
G03 X14.774102 Y98.398548 Z-1.000000 I-0.564953 J1.153448
G03 X15.017612 Y99.373757 Z-1.000000 I-1.831002 J0.975209
G03 X14.793303 Y100.182123 Z-1.000000 I-1.568751 J0.000000
G03 X14.230307 Y100.683170 Z-1.000000 I-1.085096 J-0.652431
G03 X13.777579 Y100.821095 Z-1.000000 I-0.755980 J-1.669456
G03 X12.995481 Y100.890356 Z-1.000000 I-0.834641 J-4.974448
G01 X12.995484 Y100.890356 Z-1.000000
G00 Z5.000000

(End cutting path id: text1)


(Start cutting path id: text1)
(Change tool to Default tool)

G00 Z5.000000
G00 X14.263459 Y103.219121

G01 Z-1.000000 F100.0(Penetrate)
G03 X14.609206 Y103.603245 Z-1.000000 I-0.453527 J0.755880 F400.000000
G03 X14.760705 Y104.288199 Z-1.000000 I-1.472649 J0.684954
G03 X14.564092 Y105.010222 Z-1.000000 I-1.424052 J0.000000
G03 X14.097711 Y105.415288 Z-1.000000 I-0.836427 J-0.492016
G03 X13.516614 Y105.548806 Z-1.000000 I-0.984523 J-2.953564
G03 X12.639125 Y105.605899 Z-1.000000 I-0.877489 J-6.714687
G01 X9.953997 Y105.605899 Z-1.000000
G01 X9.953997 Y102.912487 Z-1.000000
G01 X12.954044 Y102.912487 Z-1.000000
G03 X13.732773 Y103.002450 Z-1.000000 I-0.000000 J3.415350
G03 X14.263456 Y103.219121 Z-1.000000 I-0.416376 J1.778039
G01 X14.263459 Y103.219121 Z-1.000000
G00 Z5.000000

(End cutting path id: text1)


(Start cutting path id: text1)
(Change tool to Default tool)

G00 Z5.000000
G00 X28.236052 Y100.848919

G01 Z-1.000000 F100.0(Penetrate)
G01 X22.302258 Y100.848919 Z-1.000000 F400.000000
G01 X22.302258 Y97.707986 Z-1.000000
G01 X29.064795 Y97.707986 Z-1.000000
G01 X29.064795 Y95.511819 Z-1.000000
G01 X19.807745 Y95.511819 Z-1.000000
G01 X19.807745 Y107.727479 Z-1.000000
G01 X28.766448 Y107.727479 Z-1.000000
G01 X28.766448 Y105.564462 Z-1.000000
G01 X22.302259 Y105.564462 Z-1.000000
G01 X22.302259 Y102.970499 Z-1.000000
G01 X28.236053 Y102.970499 Z-1.000000
G01 X28.236052 Y100.848919 Z-1.000000
G00 Z5.000000

(End cutting path id: text1)


(Start cutting path id: text1)
(Change tool to Default tool)

G00 Z5.000000
G00 X37.493101 Y100.127913

G01 Z-1.000000 F100.0(Penetrate)
G01 X35.968215 Y104.934618 Z-1.000000 F400.000000
G01 X34.393605 Y100.127913 Z-1.000000
G01 X37.493101 Y100.127913 Z-1.000000
G00 Z5.000000

(End cutting path id: text1)


(Start cutting path id: text1)
(Change tool to Default tool)

G00 Z5.000000
G00 X38.205819 Y98.022908

G01 Z-1.000000 F100.0(Penetrate)
G01 X33.705749 Y98.022908 Z-1.000000 F400.000000
G01 X32.860432 Y95.511819 Z-1.000000
G01 X30.191882 Y95.511819 Z-1.000000
G01 X34.551066 Y107.727479 Z-1.000000
G01 X37.435089 Y107.727479 Z-1.000000
G01 X41.761123 Y95.511819 Z-1.000000
G01 X38.993124 Y95.511819 Z-1.000000
G01 X38.205819 Y98.022908 Z-1.000000
G00 Z5.000000

(End cutting path id: text1)


(Start cutting path id: text1)
(Change tool to Default tool)

G00 Z5.000000
G00 X48.498798 Y100.301949

G01 Z-1.000000 F100.0(Penetrate)
G01 X45.863398 Y100.301949 Z-1.000000 F400.000000
G01 X45.863398 Y95.511819 Z-1.000000
G01 X43.368884 Y95.511819 Z-1.000000
G01 X43.368884 Y107.727479 Z-1.000000
G01 X49.360691 Y107.727479 Z-1.000000
G02 X50.626579 Y107.614722 Z-1.000000 I-0.177087 J-9.150339
G02 X51.333097 Y107.412557 Z-1.000000 I-0.482459 J-3.021717
G02 X51.977308 Y107.051225 Z-1.000000 I-1.223338 J-2.936008
G02 X52.509910 Y106.558952 Z-1.000000 I-1.800557 J-2.482317
G02 X52.866240 Y106.069455 Z-1.000000 I-2.898335 J-2.484295
G02 X53.139755 Y105.531312 Z-1.000000 I-3.235402 J-1.982992
G02 X53.308328 Y104.955210 Z-1.000000 I-2.624417 J-1.080643
G02 X53.371803 Y104.246762 Z-1.000000 I-3.921761 J-0.708448
G02 X53.265445 Y103.402566 Z-1.000000 I-3.403497 J0.000000
G02 X52.932569 Y102.531265 Z-1.000000 I-3.962020 J1.014431
G02 X52.368304 Y101.839834 Z-1.000000 I-1.976991 J1.037429
G02 X51.482270 Y101.346164 Z-1.000000 I-1.824751 J2.233088
G02 X52.235678 Y100.902444 Z-1.000000 I-1.090653 J-2.713335
G02 X52.675659 Y100.376536 Z-1.000000 I-1.134070 J-1.395779
G02 X52.915839 Y99.724037 Z-1.000000 I-1.804982 J-1.034855
G02 X53.032018 Y98.470429 Z-1.000000 I-6.705347 J-1.253608
G01 X53.032018 Y97.649974 Z-1.000000
G03 X53.056358 Y96.815617 Z-1.000000 I14.312573 J0.000000
G03 X53.098318 Y96.514597 Z-1.000000 I1.894319 J0.110618
G03 X53.274164 Y96.096060 Z-1.000000 I1.174572 J0.247281
G03 X53.562414 Y95.818454 Z-1.000000 I0.776091 J0.517395
G01 X53.562414 Y95.511819 Z-1.000000
G01 X50.752978 Y95.511819 Z-1.000000
G02 X50.643183 Y95.919413 Z-1.000000 I13.376568 J3.821876
G02 X50.587229 Y96.166525 Z-1.000000 I4.858683 J1.230051
G02 X50.511005 Y96.682753 Z-1.000000 I5.746696 J1.112272
G02 X50.479493 Y97.219028 Z-1.000000 I6.171086 J0.631683
G01 X50.462913 Y98.354405 Z-1.000000
G03 X50.304760 Y99.460514 Z-1.000000 I-4.381944 J-0.062175
G03 X50.031967 Y99.912440 Z-1.000000 I-0.942720 J-0.260752
G03 X49.571932 Y100.167763 Z-1.000000 I-0.714020 J-0.744404
G03 X48.498794 Y100.301949 Z-1.000000 I-1.073138 J-4.224050
G01 X48.498798 Y100.301949 Z-1.000000
G00 Z5.000000

(End cutting path id: text1)


(Start cutting path id: text1)
(Change tool to Default tool)

G00 Z5.000000
G00 X50.048546 Y102.522978

G01 Z-1.000000 F100.0(Penetrate)
G03 X50.583132 Y103.017506 Z-1.000000 I-0.483301 J1.058659 F400.000000
G03 X50.810989 Y103.898690 Z-1.000000 I-1.589962 J0.881184
G03 X50.583773 Y104.870871 Z-1.000000 I-2.193423 J0.000000
G03 X50.073408 Y105.390426 Z-1.000000 I-1.046283 J-0.517329
G03 X49.641968 Y105.536075 Z-1.000000 I-0.685029 J-1.317364
G03 X48.830295 Y105.605899 Z-1.000000 I-0.811673 J-4.682725
G01 X45.863398 Y105.605899 Z-1.000000
G01 X45.863398 Y102.324080 Z-1.000000
G01 X48.755708 Y102.324080 Z-1.000000
G03 X49.603362 Y102.388903 Z-1.000000 I-0.000000 J5.574575
G03 X50.048546 Y102.522978 Z-1.000000 I-0.253533 J1.647969
G01 X50.048546 Y102.522978 Z-1.000000
G00 Z5.000000

(End cutting path id: text1)


(Footer)
M5
G00 X0.0000 Y0.0000
M2
(Using default footer. To add your own footer create file "footer" in the output dir.)
(end)
%