%
(Header)
(Generated by gcodetools from Inkscape.)
(Using default header. To add your own header create file "header" in the output dir.)
M3
(Header end.)
G21 (All units in mm)

(Start cutting path id: path1)
(Change tool to Default tool)

G00 Z2.000000
G00 X15.696909 Y10.248396

G01 Z-1.000000 F100.0(Penetrate)
G01 X15.677998 Y10.263944 Z-1.000000 F400.000000
G01 X15.670639 Y10.288776 Z-1.000000
G01 X15.661373 Y10.309287 Z-1.000000
G01 X15.636829 Y10.318556 Z-1.000000
G01 X15.618540 Y10.331196 Z-1.000000
G02 X15.614979 Y10.376356 Z-1.000000 I0.075975 J0.028711
G01 X15.615506 Y10.407886 Z-1.000000
G01 X15.573368 Y10.382051 Z-1.000000
G01 X15.531156 Y10.412986 Z-1.000000
G01 X15.515152 Y10.432646 Z-1.000000
G01 X15.500286 Y10.432766 Z-1.000000
G01 X15.488253 Y10.433310 Z-1.000000
G01 X15.481466 Y10.446896 Z-1.000000
G01 X15.476544 Y10.460795 Z-1.000000
G01 X15.469946 Y10.461136 Z-1.000000
G01 X15.451662 Y10.459783 Z-1.000000
G02 X15.290176 Y10.594459 Z-1.000000 I1.099713 J1.482791
G03 X15.231288 Y10.640291 Z-1.000000 I-0.281575 J-0.301039
G01 X15.220556 Y10.639139 Z-1.000000
G01 X15.209034 Y10.638483 Z-1.000000
G02 X15.042234 Y10.780939 Z-1.000000 I1.939698 J2.440047
G03 X15.006422 Y10.810640 Z-1.000000 I-0.317859 J-0.346822
G03 X14.950384 Y10.849739 Z-1.000000 I-0.607651 J-0.811191
G02 X14.902379 Y10.892144 Z-1.000000 I0.118163 J0.182145
G01 X14.892934 Y10.918049 Z-1.000000
G01 X14.883677 Y10.939834 Z-1.000000
G01 X14.860744 Y10.949089 Z-1.000000
G01 X14.834357 Y10.957523 Z-1.000000
G02 X14.816454 Y10.980619 Z-1.000000 I0.029371 J0.041253
G03 X14.799252 Y11.004758 Z-1.000000 I-0.055787 J-0.021555
G01 X14.779044 Y11.012149 Z-1.000000
G01 X14.756295 Y11.018651 Z-1.000000
G02 X14.703084 Y11.059439 Z-1.000000 I0.182450 J0.293121
G03 X14.430066 Y11.284715 Z-1.000000 I-1.969499 J-2.108810
G03 X14.363314 Y11.306411 Z-1.000000 I-0.066752 J-0.091841
G01 X14.356553 Y11.312501 Z-1.000000
G02 X14.359914 Y11.338181 Z-1.000000 I0.055413 J0.005807
G01 X14.355997 Y11.353823 Z-1.000000
G01 X14.338234 Y11.356951 Z-1.000000
G01 X14.314972 Y11.359423 Z-1.000000
G01 X14.304364 Y11.378971 Z-1.000000
G01 X14.296183 Y11.399368 Z-1.000000
G01 X14.283344 Y11.401001 Z-1.000000
G01 X14.270469 Y11.402584 Z-1.000000
G01 X14.262324 Y11.422531 Z-1.000000
G01 X14.253290 Y11.444513 Z-1.000000
G01 X14.236644 Y11.448491 Z-1.000000
G02 X14.156415 Y11.465228 Z-1.000000 I-0.025708 J0.077425
G02 X14.115188 Y11.557686 Z-1.000000 I0.083061 J0.092458
G01 X14.106896 Y11.571373 Z-1.000000
G03 X14.073148 Y11.579656 Z-1.000000 I-0.033748 J-0.064607
G02 X14.040057 Y11.588599 Z-1.000000 I0.000000 J0.065694
G01 X14.031108 Y11.604176 Z-1.000000
G01 X14.025800 Y11.615940 Z-1.000000
G01 X14.018098 Y11.615686 Z-1.000000
G01 X13.976867 Y11.616657 Z-1.000000
G02 X13.947038 Y11.693756 Z-1.000000 I0.084724 J0.077099
G01 X13.926740 Y11.717243 Z-1.000000
G01 X13.899808 Y11.700656 Z-1.000000
G01 X13.886664 Y11.693317 Z-1.000000
G02 X13.854518 Y11.711166 Z-1.000000 I0.015135 J0.065130
G01 X13.817918 Y11.747766 Z-1.000000
G01 X13.862698 Y11.747766 Z-1.000000
G01 X13.869395 Y11.765790 Z-1.000000
G03 X13.819228 Y11.785246 Z-1.000000 I-0.052450 J-0.060835
G02 X13.694151 Y11.830859 Z-1.000000 I0.005908 J0.210497
G01 X13.683259 Y11.893209 Z-1.000000
G01 X13.679925 Y11.900942 Z-1.000000
G03 X13.649519 Y11.900109 Z-1.000000 I-0.013418 J-0.065515
G01 X13.622657 Y11.901923 Z-1.000000
G01 X13.619199 Y11.912579 Z-1.000000
G01 X13.618592 Y11.928200 Z-1.000000
G01 X13.601469 Y11.936909 Z-1.000000
G01 X13.576406 Y11.944617 Z-1.000000
G01 X13.568699 Y11.959169 Z-1.000000
G01 X13.561993 Y11.969455 Z-1.000000
G01 X13.547679 Y11.968469 Z-1.000000
G01 X13.534753 Y11.969984 Z-1.000000
G01 X13.526659 Y11.989489 Z-1.000000
G01 X13.518336 Y12.008615 Z-1.000000
G01 X13.504729 Y12.009949 Z-1.000000
G02 X13.402850 Y12.019324 Z-1.000000 I-0.044713 J0.072351
G02 X13.335048 Y12.163967 Z-1.000000 I0.139384 J0.153549
G01 X13.328782 Y12.184753 Z-1.000000
G01 X13.322998 Y12.183917 Z-1.000000
G01 X13.300608 Y12.171349 Z-1.000000
G02 X13.235628 Y12.210187 Z-1.000000 I0.044630 J0.148449
G03 X13.168926 Y12.264440 Z-1.000000 I-0.296914 J-0.296914
G03 X13.139428 Y12.273247 Z-1.000000 I-0.029498 J-0.044997
G01 X13.113568 Y12.280516 Z-1.000000
G01 X13.106278 Y12.293507 Z-1.000000
G01 X13.099216 Y12.310023 Z-1.000000
G03 X13.032828 Y12.363677 Z-1.000000 I-0.356001 J-0.372589
G02 X12.973056 Y12.414884 Z-1.000000 I0.198640 J0.292352
G01 X12.973278 Y12.427487 Z-1.000000
G01 X12.972488 Y12.435281 Z-1.000000
G01 X12.952148 Y12.441387 Z-1.000000
G02 X12.920136 Y12.448936 Z-1.000000 I0.000000 J0.071653
G02 X12.878488 Y12.478167 Z-1.000000 I0.076653 J0.153496
G03 X12.838074 Y12.512567 Z-1.000000 I-0.329126 J-0.345720
G03 X12.799668 Y12.538037 Z-1.000000 I-0.217927 J-0.286924
G02 X12.764808 Y12.566219 Z-1.000000 I0.070741 J0.123156
G02 X12.733508 Y12.611607 Z-1.000000 I0.159637 J0.143572
G03 X12.713964 Y12.634978 Z-1.000000 I-0.061670 J-0.031712
G01 X12.707238 Y12.631697 Z-1.000000
G01 X12.696667 Y12.625110 Z-1.000000
G02 X12.638618 Y12.664517 Z-1.000000 I0.101015 J0.211260
G03 X12.567541 Y12.724202 Z-1.000000 I-0.654036 J-0.706705
G03 X12.460499 Y12.800008 Z-1.000000 I-1.165075 J-1.531672
G02 X12.355850 Y12.875184 Z-1.000000 I0.868231 J1.319056
G01 X12.350150 Y12.886328 Z-1.000000
G02 X12.397160 Y12.971433 Z-1.000000 I0.093974 J0.003627
G02 X12.533523 Y12.992008 Z-1.000000 I0.094460 J-0.163877
G01 X12.551748 Y12.996209 Z-1.000000
G01 X12.559973 Y13.013238 Z-1.000000
G01 X12.573071 Y13.037260 Z-1.000000
G02 X12.822536 Y13.184818 Z-1.000000 I1.774705 J-2.715712
G03 X12.903085 Y13.232890 Z-1.000000 I-0.453510 J0.851412
G01 X12.913616 Y13.245368 Z-1.000000
G01 X12.924183 Y13.255755 Z-1.000000
G02 X12.950396 Y13.261128 Z-1.000000 I0.026213 J-0.061262
G01 X12.973024 Y13.268325 Z-1.000000
G01 X12.980176 Y13.282148 Z-1.000000
G01 X12.987504 Y13.295840 Z-1.000000
G01 X13.011706 Y13.303168 Z-1.000000
G01 X13.036506 Y13.309946 Z-1.000000
G01 X13.043236 Y13.321738 Z-1.000000
G01 X13.049696 Y13.335690 Z-1.000000
G02 X13.080016 Y13.352938 Z-1.000000 I0.060914 J-0.071805
G03 X13.115218 Y13.368832 Z-1.000000 I-0.065447 J0.191883
G03 X13.284950 Y13.470060 Z-1.000000 I-2.686358 J4.697200
G02 X13.454657 Y13.569491 Z-1.000000 I1.993502 J-3.207918
G01 X13.476117 Y13.575482 Z-1.000000
G01 X13.496461 Y13.582123 Z-1.000000
G03 X13.532477 Y13.613262 Z-1.000000 I-0.108516 J0.161910
G02 X13.569834 Y13.644891 Z-1.000000 I0.137080 J-0.124028
G02 X13.688122 Y13.712992 Z-1.000000 I0.776902 J-1.212665
G03 X13.808763 Y13.777994 Z-1.000000 I-1.621553 J3.154009
G01 X13.820931 Y13.787892 Z-1.000000
G01 X13.833152 Y13.797700 Z-1.000000
G02 X13.940825 Y13.853782 Z-1.000000 I1.295908 J-2.356641
G03 X14.037580 Y13.909739 Z-1.000000 I-0.370503 J0.752260
G01 X14.038515 Y13.919342 Z-1.000000
G01 X14.040042 Y13.926913 Z-1.000000
G02 X14.101785 Y13.945092 Z-1.000000 I0.120557 J-0.295522
G03 X14.172257 Y13.966778 Z-1.000000 I-0.059553 J0.318880
G03 X14.201095 Y13.988482 Z-1.000000 I-0.031358 J0.071675
G02 X14.229171 Y14.009861 Z-1.000000 I0.060284 J-0.050043
G02 X14.266145 Y14.017812 Z-1.000000 I0.036974 J-0.081991
G01 X14.291552 Y14.026371 Z-1.000000
G01 X14.293855 Y14.038832 Z-1.000000
G01 X14.294830 Y14.052064 Z-1.000000
G01 X14.311525 Y14.059852 Z-1.000000
G03 X14.340027 Y14.066904 Z-1.000000 I0.000000 J0.061124
G03 X14.452975 Y14.134412 Z-1.000000 I-0.572368 J1.085874
G02 X14.606996 Y14.193858 Z-1.000000 I0.207481 J-0.308320
G02 X14.663098 Y14.164952 Z-1.000000 I0.007811 J-0.053735
G02 X14.757286 Y13.961002 Z-1.000000 I-2.364078 J-1.215497
G02 X14.766785 Y13.912954 Z-1.000000 I-0.116766 J-0.048048
G01 X14.772713 Y13.897637 Z-1.000000
G01 X14.786135 Y13.891704 Z-1.000000
G01 X14.799156 Y13.883838 Z-1.000000
G02 X14.819375 Y13.828464 Z-1.000000 I-0.195492 J-0.102758
G03 X14.839481 Y13.779927 Z-1.000000 I0.145275 J0.031745
G01 X14.852335 Y13.777004 Z-1.000000
G01 X14.859372 Y13.774275 Z-1.000000
G01 X14.858535 Y13.755154 Z-1.000000
G01 X14.858847 Y13.725100 Z-1.000000
G03 X14.885045 Y13.689914 Z-1.000000 I0.080748 J0.032776
G01 X14.924465 Y13.658304 Z-1.000000
G01 X14.871915 Y13.671274 Z-1.000000
G01 X14.851643 Y13.669460 Z-1.000000
G01 X14.850895 Y13.661874 Z-1.000000
G01 X14.863468 Y13.639899 Z-1.000000
G01 X14.854395 Y13.621384 Z-1.000000
G01 X14.847408 Y13.605479 Z-1.000000
G01 X14.859695 Y13.590514 Z-1.000000
G01 X14.882435 Y13.593066 Z-1.000000
G01 X14.892985 Y13.612814 Z-1.000000
G01 X14.912448 Y13.618094 Z-1.000000
G02 X14.943385 Y13.526764 Z-1.000000 I-0.206141 J-0.120733
G03 X14.962744 Y13.450305 Z-1.000000 I0.314502 J0.038950
G03 X14.991315 Y13.404126 Z-1.000000 I0.140234 J0.054835
G01 X15.029235 Y13.362226 Z-1.000000
G01 X15.044165 Y13.411526 Z-1.000000
G01 X15.050568 Y13.411963 Z-1.000000
G02 X15.055305 Y13.387256 Z-1.000000 I-0.047919 J-0.021995
G02 X15.037736 Y13.321100 Z-1.000000 I-0.166101 J0.008700
G02 X14.998515 Y13.274690 Z-1.000000 I-0.116605 J0.058765
G03 X14.979502 Y13.253232 Z-1.000000 I0.040508 J-0.055045
G01 X14.983595 Y13.248250 Z-1.000000
G01 X15.007577 Y13.244317 Z-1.000000
G01 X15.015645 Y13.224190 Z-1.000000
G03 X15.015816 Y13.188813 Z-1.000000 I0.104871 J-0.017183
G03 X15.026735 Y13.160270 Z-1.000000 I0.078355 J0.013616
G01 X15.069489 Y13.151819 Z-1.000000
G03 X15.105255 Y13.216410 Z-1.000000 I-0.049901 J0.069829
G01 X15.110859 Y13.218407 Z-1.000000
G02 X15.122335 Y13.198070 Z-1.000000 I-0.036787 J-0.034165
G02 X15.122609 Y13.152709 Z-1.000000 I-0.081287 J-0.023173
G01 X15.104475 Y13.132320 Z-1.000000
G01 X15.099903 Y13.118353 Z-1.000000
G03 X15.129435 Y13.092160 Z-1.000000 I0.058788 J0.036537
G02 X15.174428 Y13.048572 Z-1.000000 I-0.040487 J-0.086808
G01 X15.166215 Y13.019410 Z-1.000000
G01 X15.153165 Y13.020747 Z-1.000000
G01 X15.145195 Y13.039190 Z-1.000000
G03 X15.138506 Y13.065216 Z-1.000000 I-0.053973 J0.000000
G01 X15.127095 Y13.071960 Z-1.000000
G01 X15.118147 Y13.064344 Z-1.000000
G03 X15.118795 Y13.020900 Z-1.000000 I0.122885 J-0.019893
G03 X15.138029 Y12.986856 Z-1.000000 I0.060170 J0.011539
G01 X15.161565 Y12.982510 Z-1.000000
G01 X15.177836 Y12.978450 Z-1.000000
G01 X15.181075 Y12.960000 Z-1.000000
G01 X15.182232 Y12.934917 Z-1.000000
G01 X15.198445 Y12.924820 Z-1.000000
G01 X15.221879 Y12.917335 Z-1.000000
G01 X15.229315 Y12.902920 Z-1.000000
G01 X15.234973 Y12.883255 Z-1.000000
G03 X15.271355 Y12.835900 Z-1.000000 I0.267083 J0.167544
G02 X15.305100 Y12.787508 Z-1.000000 I-0.153560 J-0.143042
G02 X15.313395 Y12.752700 Z-1.000000 I-0.068882 J-0.034808
G03 X15.321221 Y12.722407 Z-1.000000 I0.062545 J-0.000000
G01 X15.334415 Y12.714630 Z-1.000000
G01 X15.347488 Y12.706687 Z-1.000000
G02 X15.355435 Y12.674130 Z-1.000000 I-0.062715 J-0.032557
G03 X15.366005 Y12.641752 Z-1.000000 I0.054876 J-0.000000
G01 X15.392215 Y12.623810 Z-1.000000
G01 X15.397421 Y12.613205 Z-1.000000
G01 X15.381705 Y12.598800 Z-1.000000
G03 X15.341720 Y12.578275 Z-1.000000 I0.042856 J-0.132700
G01 X15.334415 Y12.563800 Z-1.000000
G01 X15.340670 Y12.555250 Z-1.000000
G01 X15.355575 Y12.557100 Z-1.000000
G02 X15.449819 Y12.553356 Z-1.000000 I0.044345 J-0.071759
G02 X15.502563 Y12.449245 Z-1.000000 I-0.076379 J-0.104111
G01 X15.510429 Y12.431961 Z-1.000000
G01 X15.523583 Y12.430895 Z-1.000000
G01 X15.534057 Y12.424983 Z-1.000000
G02 X15.522914 Y12.366075 Z-1.000000 I-0.170636 J0.001769
G01 X15.522509 Y12.338802 Z-1.000000
G01 X15.533424 Y12.335755 Z-1.000000
G02 X15.558276 Y12.346812 Z-1.000000 I0.032083 J-0.038653
G01 X15.565624 Y12.340455 Z-1.000000
G02 X15.521259 Y12.259916 Z-1.000000 I-0.095288 J0.000000
G02 X15.402673 Y12.237421 Z-1.000000 I-0.087754 J0.138790
G01 X15.372759 Y12.230333 Z-1.000000
G01 X15.366203 Y12.209441 Z-1.000000
G01 X15.360880 Y12.180658 Z-1.000000
G02 X15.319433 Y12.150861 Z-1.000000 I-0.073789 J0.058915
G03 X15.294854 Y12.134709 Z-1.000000 I0.021969 J-0.060208
G01 X15.297633 Y12.127831 Z-1.000000
G02 X15.326763 Y12.118857 Z-1.000000 I-0.002737 J-0.060648
G01 X15.334413 Y12.105151 Z-1.000000
G01 X15.340746 Y12.090462 Z-1.000000
G01 X15.356673 Y12.084131 Z-1.000000
G01 X15.366776 Y12.090893 Z-1.000000
G01 X15.365573 Y12.105741 Z-1.000000
G01 X15.373886 Y12.167400 Z-1.000000
G02 X15.477164 Y12.209549 Z-1.000000 I0.107337 J-0.115405
G03 X15.544074 Y12.239972 Z-1.000000 I-0.002458 J0.094193
G03 X15.593722 Y12.336362 Z-1.000000 I-0.150861 J0.138687
G01 X15.599922 Y12.310092 Z-1.000000
G03 X15.602424 Y12.238253 Z-1.000000 I0.370313 J-0.023064
G01 X15.610392 Y12.231272 Z-1.000000
G01 X15.620425 Y12.225047 Z-1.000000
G02 X15.633782 Y12.183982 Z-1.000000 I-0.133189 J-0.066025
G01 X15.644761 Y12.179973 Z-1.000000
G03 X15.664872 Y12.210252 Z-1.000000 I-0.042024 J0.049731
G01 X15.680905 Y12.232204 Z-1.000000
G01 X15.689802 Y12.227772 Z-1.000000
G03 X15.700742 Y12.178057 Z-1.000000 I0.138909 J0.004506
G01 X15.717972 Y12.161122 Z-1.000000
G01 X15.722088 Y12.154138 Z-1.000000
G01 X15.716472 Y12.148862 Z-1.000000
G03 X15.649578 Y12.113554 Z-1.000000 I0.005409 J-0.091270
G01 X15.663922 Y12.080992 Z-1.000000
G01 X15.607622 Y12.063132 Z-1.000000
G01 X15.513042 Y12.048432 Z-1.000000
G01 X15.603612 Y12.045232 Z-1.000000
G02 X15.676808 Y12.032783 Z-1.000000 I-0.009743 J-0.278701
G01 X15.681192 Y12.021052 Z-1.000000
G01 X15.682422 Y12.007944 Z-1.000000
G01 X15.700312 Y12.000032 Z-1.000000
G01 X15.718152 Y12.009840 Z-1.000000
G01 X15.720322 Y12.031562 Z-1.000000
G01 X15.720017 Y12.055002 Z-1.000000
G01 X15.731492 Y12.063092 Z-1.000000
G01 X15.747190 Y12.055515 Z-1.000000
G01 X15.754762 Y12.033812 Z-1.000000
G01 X15.762784 Y12.010051 Z-1.000000
G03 X15.786292 Y11.992432 Z-1.000000 I0.042804 J0.032618
G01 X15.808085 Y11.973385 Z-1.000000
G02 X15.819302 Y11.932382 Z-1.000000 I-0.079662 J-0.043829
G01 X15.826949 Y11.919966 Z-1.000000
G01 X15.836052 Y11.923282 Z-1.000000
G01 X15.851332 Y11.962102 Z-1.000000
G01 X15.881872 Y11.924502 Z-1.000000
G01 X15.890632 Y11.905811 Z-1.000000
G01 X15.886172 Y11.902682 Z-1.000000
G01 X15.868984 Y11.902387 Z-1.000000
G01 X15.859902 Y11.885702 Z-1.000000
G01 X15.876832 Y11.858666 Z-1.000000
G03 X15.930792 Y11.851302 Z-1.000000 I0.038232 J0.078769
G01 X15.938556 Y11.845851 Z-1.000000
G01 X15.936092 Y11.820542 Z-1.000000
G03 X15.924394 Y11.786174 Z-1.000000 I0.441650 J-0.169503
G01 X15.923002 Y11.776632 Z-1.000000
G01 X15.918893 Y11.769509 Z-1.000000
G02 X15.854692 Y11.737132 Z-1.000000 I-0.315428 J0.545616
G01 X15.853738 Y11.718972 Z-1.000000
G03 X15.923002 Y11.698472 Z-1.000000 I0.078953 J0.139498
G03 X15.971037 Y11.706459 Z-1.000000 I0.006726 J0.107983
G03 X16.012332 Y11.735292 Z-1.000000 I-0.044503 J0.107729
G01 X16.028129 Y11.732813 Z-1.000000
G01 X16.029312 Y11.698482 Z-1.000000
G03 X16.025499 Y11.649224 Z-1.000000 I0.081794 J-0.031109
G03 X16.050332 Y11.599312 Z-1.000000 I0.109035 J0.023116
G02 X16.083343 Y11.549321 Z-1.000000 I-0.173581 J-0.150517
G02 X16.091162 Y11.515382 Z-1.000000 I-0.069749 J-0.033939
G01 X16.103660 Y11.494058 Z-1.000000
G01 X16.138452 Y11.488892 Z-1.000000
G02 X16.163293 Y11.488252 Z-1.000000 I0.011123 J-0.050714
G01 X16.164722 Y11.481692 Z-1.000000
G03 X16.125445 Y11.403961 Z-1.000000 I0.070742 J-0.084534
G01 X16.157822 Y11.369520 Z-1.000000
G01 X16.169263 Y11.375599 Z-1.000000
G01 X16.175582 Y11.395790 Z-1.000000
G01 X16.181867 Y11.400989 Z-1.000000
G01 X16.194692 Y11.392390 Z-1.000000
G01 X16.208287 Y11.389858 Z-1.000000
G01 X16.223032 Y11.413410 Z-1.000000
G01 X16.228812 Y11.414030 Z-1.000000
G02 X16.235452 Y11.384050 Z-1.000000 I-0.078067 J-0.033016
G03 X16.246092 Y11.318544 Z-1.000000 I0.266628 J0.009689
G01 X16.255832 Y11.314810 Z-1.000000
G01 X16.267748 Y11.314387 Z-1.000000
G01 X16.275792 Y11.300290 Z-1.000000
G03 X16.301270 Y11.204035 Z-1.000000 I0.305751 J0.029430
G03 X16.332392 Y11.174022 Z-1.000000 I0.052916 J0.023730
G01 X16.349525 Y11.154994 Z-1.000000
G01 X16.342902 Y11.137562 Z-1.000000
G01 X16.333591 Y11.124091 Z-1.000000
G01 X16.338802 Y11.117622 Z-1.000000
G01 X16.360058 Y11.126159 Z-1.000000
G03 X16.386682 Y11.164592 Z-1.000000 I-0.087032 J0.088729
G01 X16.407622 Y11.211882 Z-1.000000
G01 X16.398722 Y11.165592 Z-1.000000
G03 X16.399020 Y11.124676 Z-1.000000 I0.102424 J-0.019712
G01 X16.409672 Y11.112702 Z-1.000000
G01 X16.419352 Y11.099970 Z-1.000000
G02 X16.414572 Y11.012619 Z-1.000000 I-0.423155 J-0.020650
G02 X16.395295 Y10.959446 Z-1.000000 I-0.148423 J0.023728
G01 X16.383492 Y10.960419 Z-1.000000
G01 X16.373688 Y10.964974 Z-1.000000
G01 X16.365882 Y10.954419 Z-1.000000
G02 X16.357795 Y10.913978 Z-1.000000 I-0.124620 J0.003890
G01 X16.347862 Y10.907129 Z-1.000000
G01 X16.337505 Y10.900455 Z-1.000000
G03 X16.328022 Y10.863399 Z-1.000000 I0.099795 J-0.045280
G02 X16.270012 Y10.726375 Z-1.000000 I-0.232299 J0.017554
G01 X16.212241 Y10.732882 Z-1.000000
G01 X16.210641 Y10.720292 Z-1.000000
G02 X16.121906 Y10.383023 Z-1.000000 I-0.345972 J-0.089283
G02 X15.744320 Y10.236506 Z-1.000000 I-0.347042 J0.334561
G02 X15.723733 Y10.239728 Z-1.000000 I0.007200 J0.113389
G02 X15.697030 Y10.248446 Z-1.000000 I0.050180 J0.198951
G01 X15.696909 Y10.248396 Z-1.000000
G00 Z2.000000

(End cutting path id: path1)


(Start cutting path id: path1)
(Change tool to Default tool)

G00 Z2.000000
G00 X13.726386 Y14.100663

G01 Z-1.000000 F100.0(Penetrate)
G02 X13.513265 Y14.147272 Z-1.000000 I0.069687 J0.829192 F400.000000
G01 X13.484669 Y14.188013 Z-1.000000
G01 X13.478091 Y14.197764 Z-1.000000
G01 X13.463649 Y14.196513 Z-1.000000
G01 X13.450388 Y14.197435 Z-1.000000
G01 X13.442629 Y14.213893 Z-1.000000
G03 X13.437618 Y14.243004 Z-1.000000 I-0.087065 J-0.000000
G03 X13.410489 Y14.304463 Z-1.000000 I-0.423808 J-0.150359
G02 X13.379367 Y14.451580 Z-1.000000 I0.238445 J0.127293
G02 X13.444739 Y14.770162 Z-1.000000 I1.260832 J-0.092721
G03 X13.479737 Y14.887038 Z-1.000000 I-1.428036 J0.491300
G03 X13.484669 Y14.926200 Z-1.000000 I-0.153022 J0.039162
G01 X13.493186 Y14.950966 Z-1.000000
G01 X13.505689 Y14.953200 Z-1.000000
G01 X13.517658 Y14.956453 Z-1.000000
G03 X13.526709 Y14.992760 Z-1.000000 I-0.068294 J0.036307
G02 X13.534296 Y15.041109 Z-1.000000 I0.157853 J-0.000000
G01 X13.547729 Y15.058300 Z-1.000000
G01 X13.561792 Y15.075130 Z-1.000000
G03 X13.568749 Y15.112090 Z-1.000000 I-0.094698 J0.036960
G02 X13.576735 Y15.144953 Z-1.000000 I0.071606 J0.000000
G01 X13.589769 Y15.152890 Z-1.000000
G01 X13.602258 Y15.161417 Z-1.000000
G03 X13.610789 Y15.206680 Z-1.000000 I-0.115802 J0.045263
G02 X13.619879 Y15.244170 Z-1.000000 I0.081853 J0.000000
G01 X13.631809 Y15.247480 Z-1.000000
G01 X13.643704 Y15.250859 Z-1.000000
G03 X13.652829 Y15.289520 Z-1.000000 I-0.077341 J0.038661
G02 X13.661012 Y15.329862 Z-1.000000 I0.103527 J-0.000000
G01 X13.671289 Y15.333140 Z-1.000000
G01 X13.683552 Y15.335989 Z-1.000000
G03 X13.701789 Y15.381910 Z-1.000000 I-0.116594 J0.072887
G02 X13.720114 Y15.438759 Z-1.000000 I0.255216 J-0.050889
G02 X13.742219 Y15.470900 Z-1.000000 I0.101615 J-0.046214
G03 X13.766621 Y15.502514 Z-1.000000 I-0.117739 J0.116104
G03 X13.818689 Y15.599547 Z-1.000000 I-1.080998 J0.642552
G02 X13.871562 Y15.691750 Z-1.000000 I0.666477 J-0.320919
G01 X13.885909 Y15.699387 Z-1.000000
G01 X13.898204 Y15.706236 Z-1.000000
G01 X13.905049 Y15.730297 Z-1.000000
G02 X13.957592 Y15.899066 Z-1.000000 I0.297316 J0.000000
G02 X14.057644 Y15.951610 Z-1.000000 I0.100052 J-0.068985
G01 X14.082160 Y15.920208 Z-1.000000
G02 X14.031474 Y15.846515 Z-1.000000 I-0.124006 J0.031013
G03 X13.980802 Y15.788554 Z-1.000000 I0.091785 J-0.131373
G03 X13.955644 Y15.699383 Z-1.000000 I0.206410 J-0.106368
G02 X13.953247 Y15.667861 Z-1.000000 I-14.793193 J1.109063
G02 X13.950144 Y15.629833 Z-1.000000 I-4.269885 J0.329270
G01 X13.940186 Y15.605372 Z-1.000000
G01 X13.928254 Y15.603413 Z-1.000000
G01 X13.915135 Y15.601076 Z-1.000000
G03 X13.896324 Y15.562613 Z-1.000000 I0.081388 J-0.063635
G02 X13.877031 Y15.518099 Z-1.000000 I-0.143996 J0.035974
G01 X13.862554 Y15.510213 Z-1.000000
G01 X13.850250 Y15.501898 Z-1.000000
G03 X13.841934 Y15.458903 Z-1.000000 I0.106980 J-0.042995
G02 X13.834401 Y15.411763 Z-1.000000 I-0.151263 J0.000000
G01 X13.820914 Y15.394603 Z-1.000000
G01 X13.807764 Y15.377270 Z-1.000000
G03 X13.799894 Y15.321033 Z-1.000000 I0.197004 J-0.056237
G03 X13.807792 Y15.264823 Z-1.000000 I0.203978 J0.000000
G01 X13.820914 Y15.247463 Z-1.000000
G01 X13.830198 Y15.220279 Z-1.000000
G01 X13.806754 Y15.209733 Z-1.000000
G01 X13.788883 Y15.205938 Z-1.000000
G01 X13.785074 Y15.188053 Z-1.000000
G01 X13.783917 Y15.162970 Z-1.000000
G01 X13.767704 Y15.152873 Z-1.000000
G01 X13.744083 Y15.145579 Z-1.000000
G01 X13.736834 Y15.131853 Z-1.000000
G01 X13.744162 Y15.118161 Z-1.000000
G01 X13.768364 Y15.110833 Z-1.000000
G01 X13.791209 Y15.102149 Z-1.000000
G01 X13.799894 Y15.082813 Z-1.000000
G01 X13.808579 Y15.063477 Z-1.000000
G01 X13.831424 Y15.054793 Z-1.000000
G03 X13.856473 Y15.061292 Z-1.000000 I-0.000000 J0.051526
G01 X13.862954 Y15.072313 Z-1.000000
G01 X13.857366 Y15.084239 Z-1.000000
G01 X13.841934 Y15.089823 Z-1.000000
G01 X13.829498 Y15.098141 Z-1.000000
G02 X13.822394 Y15.137113 Z-1.000000 I0.087227 J0.036035
G01 X13.830174 Y15.147938 Z-1.000000
G01 X13.839854 Y15.143613 Z-1.000000
G03 X13.990739 Y15.010888 Z-1.000000 I0.204105 J0.079904
G03 X14.064052 Y15.087503 Z-1.000000 I0.014819 J0.059204
G02 X14.075802 Y15.195605 Z-1.000000 I0.134613 J0.040058
G01 X14.124572 Y15.196773 Z-1.000000
G01 X14.142300 Y15.186253 Z-1.000000
G01 X14.167152 Y15.194473 Z-1.000000
G01 X14.189828 Y15.199744 Z-1.000000
G01 X14.206662 Y15.184973 Z-1.000000
G01 X14.201603 Y15.164829 Z-1.000000
G01 X14.169532 Y15.152913 Z-1.000000
G03 X14.101016 Y15.113461 Z-1.000000 I0.000000 J-0.079221
G01 X14.114772 Y15.058583 Z-1.000000
G01 X14.126558 Y15.060521 Z-1.000000
G03 X14.143072 Y15.092823 Z-1.000000 I-0.064828 J0.053516
G02 X14.162916 Y15.121386 Z-1.000000 I0.048942 J-0.012828
G01 X14.188172 Y15.124513 Z-1.000000
G01 X14.214301 Y15.128045 Z-1.000000
G03 X14.241452 Y15.163823 Z-1.000000 I-0.047255 J0.064053
G02 X14.266531 Y15.208345 Z-1.000000 I0.160033 J-0.060822
G01 X14.282162 Y15.215973 Z-1.000000
G01 X14.292003 Y15.223561 Z-1.000000
G01 X14.290662 Y15.248283 Z-1.000000
G02 X14.305316 Y15.335314 Z-1.000000 I0.081054 J0.031101
G02 X14.380242 Y15.354621 Z-1.000000 I0.051026 J-0.042979
G01 X14.396978 Y15.360897 Z-1.000000
G03 X14.421392 Y15.432701 Z-1.000000 I-0.214664 J0.113040
G01 X14.436572 Y15.520741 Z-1.000000
G01 X14.462862 Y15.436661 Z-1.000000
G01 X14.491352 Y15.370921 Z-1.000000
G01 X14.498789 Y15.376097 Z-1.000000
G02 X14.525592 Y15.362621 Z-1.000000 I-0.015447 J-0.064119
G03 X14.557245 Y15.344291 Z-1.000000 I0.069962 J0.084318
G01 X14.568282 Y15.346691 Z-1.000000
G01 X14.568439 Y15.356317 Z-1.000000
G03 X14.525732 Y15.392211 Z-1.000000 I-0.171336 J-0.160505
G02 X14.481918 Y15.458312 Z-1.000000 I0.055095 J0.084090
G01 X14.509312 Y15.482471 Z-1.000000
G03 X14.615903 Y15.462447 Z-1.000000 I0.136722 J0.434073
G01 X14.622342 Y15.474971 Z-1.000000
G03 X14.589681 Y15.502082 Z-1.000000 I-0.086407 J-0.070867
G03 X14.558232 Y15.510141 Z-1.000000 I-0.031449 J-0.057331
G02 X14.525673 Y15.516657 Z-1.000000 I0.000000 J0.084600
G02 X14.497752 Y15.535361 Z-1.000000 I0.033346 J0.079970
G02 X14.472204 Y15.592731 Z-1.000000 I0.061971 J0.061971
G01 X14.493552 Y15.615231 Z-1.000000
G01 X14.506543 Y15.607202 Z-1.000000
G02 X14.514572 Y15.573191 Z-1.000000 I-0.068022 J-0.034011
G03 X14.522687 Y15.539314 Z-1.000000 I0.074772 J0.000000
G01 X14.535992 Y15.531151 Z-1.000000
G01 X14.546204 Y15.539890 Z-1.000000
G03 X14.544192 Y15.583701 Z-1.000000 I-0.108463 J0.016970
G02 X14.543010 Y15.626929 Z-1.000000 I0.097074 J0.024283
G01 X14.554302 Y15.636251 Z-1.000000
G01 X14.568962 Y15.627616 Z-1.000000
G02 X14.577602 Y15.594211 Z-1.000000 I-0.060259 J-0.033405
G03 X14.585655 Y15.560176 Z-1.000000 I0.075948 J-0.000000
G01 X14.598622 Y15.552171 Z-1.000000
G01 X14.612314 Y15.559499 Z-1.000000
G01 X14.619642 Y15.583701 Z-1.000000
G01 X14.627451 Y15.607415 Z-1.000000
G01 X14.642942 Y15.615231 Z-1.000000
G01 X14.654321 Y15.605933 Z-1.000000
G02 X14.653372 Y15.563971 Z-1.000000 I-0.092880 J-0.018891
G03 X14.649516 Y15.516383 Z-1.000000 I0.140201 J-0.035311
G01 X14.658672 Y15.501511 Z-1.000000
G01 X14.668062 Y15.505555 Z-1.000000
G03 X14.674512 Y15.578381 Z-1.000000 I-0.314423 J0.064546
G01 X14.672212 Y15.666441 Z-1.000000
G01 X14.602802 Y15.669941 Z-1.000000
G02 X14.535755 Y15.678778 Z-1.000000 I0.020689 J0.415741
G01 X14.518882 Y15.687971 Z-1.000000
G01 X14.520763 Y15.694800 Z-1.000000
G02 X14.556762 Y15.697571 Z-1.000000 I0.026020 J-0.102814
G03 X14.609153 Y15.694663 Z-1.000000 I0.064432 J0.687511
G03 X14.646422 Y15.695971 Z-1.000000 I0.006195 J0.355209
G01 X14.683692 Y15.699271 Z-1.000000
G01 X14.647392 Y15.754671 Z-1.000000
G01 X14.611092 Y15.810071 Z-1.000000
G01 X14.656062 Y15.781991 Z-1.000000
G02 X14.689648 Y15.751253 Z-1.000000 I-0.066237 J-0.106091
G01 X14.690332 Y15.736601 Z-1.000000
G01 X14.694321 Y15.728626 Z-1.000000
G03 X14.770512 Y15.729601 Z-1.000000 I0.033247 J0.379518
G01 X14.824602 Y15.728601 Z-1.000000
G03 X14.795109 Y15.711881 Z-1.000000 I0.022930 J-0.074819
G01 X14.787822 Y15.695491 Z-1.000000
G01 X14.779159 Y15.684834 Z-1.000000
G02 X14.740452 Y15.685591 Z-1.000000 I-0.017702 J0.084842
G01 X14.693082 Y15.697481 Z-1.000000
G01 X14.701382 Y15.598541 Z-1.000000
G01 X14.716262 Y15.583198 Z-1.000000
G01 X14.732682 Y15.594941 Z-1.000000
G02 X14.788531 Y15.657232 Z-1.000000 I0.082791 J-0.018047
G01 X14.829832 Y15.627521 Z-1.000000
G01 X14.853193 Y15.623686 Z-1.000000
G03 X14.879792 Y15.775585 Z-1.000000 I-0.482291 J0.162733
G02 X14.901888 Y15.881213 Z-1.000000 I0.293821 J-0.006339
G01 X14.934922 Y15.909350 Z-1.000000
G03 X15.003815 Y15.970637 Z-1.000000 I-0.022165 J0.094281
G01 X14.973162 Y16.014891 Z-1.000000
G01 X14.967221 Y16.021997 Z-1.000000
G01 X14.976962 Y16.037511 Z-1.000000
G01 X14.989064 Y16.057546 Z-1.000000
G01 X14.981362 Y16.070761 Z-1.000000
G01 X14.971085 Y16.086020 Z-1.000000
G01 X14.981362 Y16.114621 Z-1.000000
G01 X14.991806 Y16.142757 Z-1.000000
G01 X14.982239 Y16.156371 Z-1.000000
G01 X14.963549 Y16.183755 Z-1.000000
G01 X14.984539 Y16.203751 Z-1.000000
G01 X15.000553 Y16.191529 Z-1.000000
G02 X15.010519 Y16.108821 Z-1.000000 I-0.274094 J-0.074981
G03 X15.020983 Y16.032340 Z-1.000000 I0.236677 J-0.006574
G01 X15.036439 Y16.024831 Z-1.000000
G01 X15.057687 Y16.021605 Z-1.000000
G02 X15.075969 Y15.993651 Z-1.000000 I-0.032573 J-0.041257
G03 X15.092316 Y15.958416 Z-1.000000 I0.106693 J0.028089
G01 X15.105549 Y15.951531 Z-1.000000
G01 X15.120665 Y15.968068 Z-1.000000
G03 X15.097849 Y16.037171 Z-1.000000 I-0.159549 J-0.014360
G02 X15.102476 Y16.116388 Z-1.000000 I0.059412 J0.036274
G02 X15.169259 Y16.128281 Z-1.000000 I0.040040 J-0.031385
G01 X15.181281 Y16.127887 Z-1.000000
G01 X15.187179 Y16.137681 Z-1.000000
G01 X15.181164 Y16.154130 Z-1.000000
G03 X15.160909 Y16.168791 Z-1.000000 I-0.039690 J-0.033512
G01 X15.156342 Y16.175865 Z-1.000000
G01 X15.161429 Y16.181051 Z-1.000000
G02 X15.213363 Y16.150627 Z-1.000000 I0.003274 J-0.053949
G02 X15.231719 Y16.035578 Z-1.000000 I-0.182114 J-0.088046
G01 X15.237255 Y16.029240 Z-1.000000
G01 X15.249369 Y16.035578 Z-1.000000
G01 X15.288350 Y16.038222 Z-1.000000
G02 X15.299199 Y15.981248 Z-1.000000 I-0.040593 J-0.037249
G03 X15.325395 Y15.912796 Z-1.000000 I0.051196 J-0.019646
G03 X15.441832 Y15.908188 Z-1.000000 I0.063192 J0.123366
G03 X15.541915 Y15.982373 Z-1.000000 I-0.099229 J0.238474
G01 X15.538552 Y16.025525 Z-1.000000
G01 X15.510472 Y16.045595 Z-1.000000
G01 X15.510338 Y16.034798 Z-1.000000
G02 X15.459652 Y15.971675 Z-1.000000 I-0.446372 J0.306514
G02 X15.379061 Y15.947745 Z-1.000000 I-0.060681 J0.056686
G02 X15.325034 Y16.004925 Z-1.000000 I0.017433 J0.070586
G03 X15.302596 Y16.069996 Z-1.000000 I-0.232220 J-0.043670
G03 X15.278234 Y16.095145 Z-1.000000 I-0.054123 J-0.028055
G01 X15.263060 Y16.114233 Z-1.000000
G01 X15.268534 Y16.128485 Z-1.000000
G01 X15.284795 Y16.147327 Z-1.000000
G03 X15.292254 Y16.183285 Z-1.000000 I-0.082944 J0.035958
G01 X15.303155 Y16.207566 Z-1.000000
G01 X15.323784 Y16.211325 Z-1.000000
G01 X15.346719 Y16.211729 Z-1.000000
G01 X15.355314 Y16.224745 Z-1.000000
G01 X15.363725 Y16.238026 Z-1.000000
G01 X15.385104 Y16.238835 Z-1.000000
G01 X15.409493 Y16.239568 Z-1.000000
G01 X15.426484 Y16.257605 Z-1.000000
G01 X15.459795 Y16.283994 Z-1.000000
G01 X15.481434 Y16.265105 Z-1.000000
G01 X15.472510 Y16.248481 Z-1.000000
G02 X15.397354 Y16.209365 Z-1.000000 I-0.222193 J0.335153
G03 X15.320281 Y16.137423 Z-1.000000 I0.052386 J-0.133378
G01 X15.344804 Y16.098640 Z-1.000000
G01 X15.368738 Y16.106238 Z-1.000000
G01 X15.376334 Y16.120900 Z-1.000000
G01 X15.369628 Y16.131186 Z-1.000000
G01 X15.355314 Y16.130200 Z-1.000000
G01 X15.340587 Y16.128489 Z-1.000000
G01 X15.334294 Y16.137200 Z-1.000000
G01 X15.351461 Y16.165557 Z-1.000000
G02 X15.421324 Y16.182730 Z-1.000000 I0.069863 J-0.133523
G01 X15.430419 Y16.176358 Z-1.000000
G01 X15.428924 Y16.161800 Z-1.000000
G01 X15.456009 Y16.096127 Z-1.000000
G03 X15.553866 Y16.131900 Z-1.000000 I0.021946 J0.091698
G03 X15.568010 Y16.167453 Z-1.000000 I-0.060717 J0.044746
G01 X15.559866 Y16.180630 Z-1.000000
G01 X15.540770 Y16.179468 Z-1.000000
G01 X15.528056 Y16.164870 Z-1.000000
G01 X15.488465 Y16.134927 Z-1.000000
G01 X15.460446 Y16.161670 Z-1.000000
G01 X15.466521 Y16.176649 Z-1.000000
G01 X15.480806 Y16.182690 Z-1.000000
G01 X15.490408 Y16.190095 Z-1.000000
G01 X15.489106 Y16.214220 Z-1.000000
G01 X15.488801 Y16.237660 Z-1.000000
G01 X15.500276 Y16.245750 Z-1.000000
G01 X15.517100 Y16.239264 Z-1.000000
G01 X15.523546 Y16.224730 Z-1.000000
G01 X15.529214 Y16.209427 Z-1.000000
G01 X15.541656 Y16.203710 Z-1.000000
G01 X15.550572 Y16.211358 Z-1.000000
G03 X15.549756 Y16.256010 Z-1.000000 I-0.129676 J0.019964
G03 X15.533927 Y16.295044 Z-1.000000 I-0.106031 J-0.020270
G01 X15.522416 Y16.297590 Z-1.000000
G01 X15.507987 Y16.305299 Z-1.000000
G02 X15.517216 Y16.441623 Z-1.000000 I0.660949 J0.023727
G01 X15.537628 Y16.472543 Z-1.000000
G01 X15.562276 Y16.470863 Z-1.000000
G03 X15.599668 Y16.445897 Z-1.000000 I0.119623 J0.138679
G03 X15.645566 Y16.429023 Z-1.000000 I0.097073 J0.193183
G01 X15.662205 Y16.448819 Z-1.000000
G03 X15.615056 Y16.498863 Z-1.000000 I-0.093476 J-0.040836
G02 X15.575650 Y16.534688 Z-1.000000 I0.045969 J0.090148
G01 X15.578416 Y16.556453 Z-1.000000
G01 X15.603550 Y16.567999 Z-1.000000
G01 X15.618226 Y16.560853 Z-1.000000
G01 X15.621076 Y16.545359 Z-1.000000
G01 X15.614126 Y16.539403 Z-1.000000
G01 X15.612304 Y16.534959 Z-1.000000
G03 X15.635926 Y16.516203 Z-1.000000 I0.076330 J0.071881
G03 X15.673072 Y16.506393 Z-1.000000 I0.036401 J0.062605
G01 X15.697936 Y16.516842 Z-1.000000
G01 X15.698908 Y16.530936 Z-1.000000
G01 X15.680146 Y16.540362 Z-1.000000
G01 X15.667029 Y16.548901 Z-1.000000
G01 X15.670646 Y16.561382 Z-1.000000
G01 X15.682817 Y16.581998 Z-1.000000
G01 X15.673646 Y16.600472 Z-1.000000
G01 X15.662342 Y16.618688 Z-1.000000
G01 X15.669846 Y16.634112 Z-1.000000
G01 X15.687985 Y16.633007 Z-1.000000
G02 X15.706066 Y16.605212 Z-1.000000 I-0.032807 J-0.041120
G03 X15.722229 Y16.567031 Z-1.000000 I0.140928 J0.037147
G01 X15.732806 Y16.561062 Z-1.000000
G01 X15.744335 Y16.555267 Z-1.000000
G02 X15.771946 Y16.508512 Z-1.000000 I-0.206238 J-0.153322
G01 X15.821581 Y16.493859 Z-1.000000
G03 X15.862286 Y16.566312 Z-1.000000 I-0.047600 J0.074403
G02 X15.868976 Y16.640921 Z-1.000000 I0.551024 J-0.011803
G01 X15.874086 Y16.641172 Z-1.000000
G03 X15.891353 Y16.614420 Z-1.000000 I0.049990 J0.013317
G03 X15.925646 Y16.599132 Z-1.000000 I0.045260 J0.055420
G01 X15.967836 Y16.592632 Z-1.000000
G01 X15.923536 Y16.545342 Z-1.000000
G03 X15.898436 Y16.506378 Z-1.000000 I0.094155 J-0.088219
G01 X15.904006 Y16.498052 Z-1.000000
G01 X15.925329 Y16.504865 Z-1.000000
G03 X15.955656 Y16.534802 Z-1.000000 I-0.077340 J0.108676
G02 X15.983446 Y16.556544 Z-1.000000 I0.052340 J-0.038269
G01 X16.000006 Y16.552942 Z-1.000000
G01 X16.003491 Y16.537728 Z-1.000000
G01 X15.991206 Y16.524952 Z-1.000000
G01 X15.959964 Y16.477737 Z-1.000000
G03 X15.996906 Y16.427212 Z-1.000000 I0.057651 J0.003384
G01 X16.008860 Y16.432643 Z-1.000000
G01 X16.007276 Y16.455372 Z-1.000000
G02 X16.001862 Y16.491066 Z-1.000000 I0.047606 J0.025479
G01 X16.018626 Y16.514282 Z-1.000000
G01 X16.030993 Y16.534636 Z-1.000000
G01 X16.020026 Y16.558982 Z-1.000000
G02 X15.999614 Y16.588145 Z-1.000000 I0.043061 J0.051864
G01 X15.999926 Y16.615202 Z-1.000000
G01 X15.994312 Y16.633432 Z-1.000000
G03 X15.956636 Y16.645192 Z-1.000000 I-0.037676 J-0.054475
G02 X15.910372 Y16.653782 Z-1.000000 I0.000000 J0.128871
G01 X15.901836 Y16.666212 Z-1.000000
G01 X15.910158 Y16.678907 Z-1.000000
G02 X15.950176 Y16.687232 Z-1.000000 I0.040018 J-0.092015
G03 X15.995395 Y16.694769 Z-1.000000 I-0.000000 J0.139418
G03 X16.023746 Y16.712452 Z-1.000000 I-0.024040 J0.070112
G01 X16.041971 Y16.720768 Z-1.000000
G01 X16.048966 Y16.714252 Z-1.000000
G01 X16.043744 Y16.694292 Z-1.000000
G01 X16.031846 Y16.683772 Z-1.000000
G01 X16.023883 Y16.672295 Z-1.000000
G03 X16.029746 Y16.624222 Z-1.000000 I0.154744 J-0.005521
G01 X16.040767 Y16.607305 Z-1.000000
G01 X16.046866 Y16.609962 Z-1.000000
G02 X16.055112 Y16.645713 Z-1.000000 I0.108402 J-0.006177
G02 X16.075236 Y16.677542 Z-1.000000 I0.104278 J-0.043654
G03 X16.139095 Y16.769066 Z-1.000000 I-0.341717 J0.306468
G01 X16.141076 Y16.801754 Z-1.000000
G03 X16.124601 Y16.828678 Z-1.000000 I-0.081255 J-0.031217
G01 X16.111746 Y16.834414 Z-1.000000
G01 X16.103872 Y16.841266 Z-1.000000
G02 X16.105946 Y16.876454 Z-1.000000 I0.088975 J0.012410
G02 X16.122736 Y16.910963 Z-1.000000 I0.093987 J-0.024391
G01 X16.137956 Y16.918494 Z-1.000000
G01 X16.148349 Y16.910288 Z-1.000000
G02 X16.147986 Y16.876454 Z-1.000000 I-0.067897 J-0.016191
G03 X16.146869 Y16.842035 Z-1.000000 I0.075870 J-0.019690
G01 X16.156086 Y16.834414 Z-1.000000
G01 X16.170223 Y16.839440 Z-1.000000
G01 X16.175456 Y16.850174 Z-1.000000
G02 X16.196246 Y16.894736 Z-1.000000 I0.060813 J-0.001242
G02 X16.276451 Y16.938424 Z-1.000000 I0.138076 J-0.158019
G01 X16.304011 Y16.926806 Z-1.000000
G01 X16.295991 Y16.902104 Z-1.000000
G01 X16.248701 Y16.879294 Z-1.000000
G01 X16.294751 Y16.877894 Z-1.000000
G03 X16.336853 Y16.883779 Z-1.000000 I0.003883 J0.125763
G01 X16.353231 Y16.896574 Z-1.000000
G01 X16.368674 Y16.907650 Z-1.000000
G01 X16.393801 Y16.905874 Z-1.000000
G01 X16.419613 Y16.905994 Z-1.000000
G03 X16.458001 Y16.931134 Z-1.000000 I-0.040855 J0.104263
G01 X16.494061 Y16.967194 Z-1.000000
G01 X16.543081 Y16.906074 Z-1.000000
G02 X16.576668 Y16.849295 Z-1.000000 I-0.182175 J-0.146086
G01 X16.571461 Y16.837504 Z-1.000000
G01 X16.553672 Y16.839326 Z-1.000000
G02 X16.524011 Y16.866714 Z-1.000000 I0.054593 J0.088879
G03 X16.493631 Y16.886994 Z-1.000000 I-0.042885 J-0.031348
G01 X16.459591 Y16.882324 Z-1.000000
G01 X16.440923 Y16.860863 Z-1.000000
G01 X16.445691 Y16.846614 Z-1.000000
G01 X16.462397 Y16.844574 Z-1.000000
G01 X16.469411 Y16.854214 Z-1.000000
G01 X16.475761 Y16.870160 Z-1.000000
G01 X16.490431 Y16.876474 Z-1.000000
G01 X16.525048 Y16.839783 Z-1.000000
G02 X16.485131 Y16.786514 Z-1.000000 I-0.060177 J0.003503
G01 X16.472814 Y16.773756 Z-1.000000
G01 X16.476231 Y16.758664 Z-1.000000
G01 X16.491673 Y16.755783 Z-1.000000
G03 X16.514061 Y16.776804 Z-1.000000 I-0.022086 J0.045956
G02 X16.539831 Y16.804588 Z-1.000000 I0.070294 J-0.039355
G02 X16.570291 Y16.814084 Z-1.000000 I0.031534 J-0.047550
G03 X16.668780 Y16.848388 Z-1.000000 I-0.003134 J0.167531
G01 X16.671664 Y16.891414 Z-1.000000
G01 X16.657562 Y16.894079 Z-1.000000
G01 X16.636014 Y16.875864 Z-1.000000
G01 X16.589329 Y16.870019 Z-1.000000
G02 X16.553484 Y16.951434 Z-1.000000 I0.074537 J0.081415
G02 X16.595829 Y17.007076 Z-1.000000 I0.057729 J0.000000
G02 X16.700573 Y16.992114 Z-1.000000 I0.035236 J-0.127445
G01 X16.713580 Y16.992790 Z-1.000000
G03 X16.729813 Y17.014604 Z-1.000000 I-0.030908 J0.039947
G01 X16.723891 Y17.029566 Z-1.000000
G01 X16.695233 Y17.031324 Z-1.000000
G02 X16.647441 Y17.019654 Z-1.000000 I-0.090355 J0.266341
G02 X16.602143 Y17.017134 Z-1.000000 I-0.035690 J0.233117
G03 X16.563247 Y17.008297 Z-1.000000 I-0.003035 J-0.076663
G01 X16.543603 Y16.986154 Z-1.000000
G01 X16.527922 Y16.978342 Z-1.000000
G02 X16.499013 Y16.998974 Z-1.000000 I0.014722 J0.051197
G03 X16.463455 Y17.037787 Z-1.000000 I-0.165337 J-0.115775
G01 X16.444623 Y17.044644 Z-1.000000
G01 X16.437976 Y17.037251 Z-1.000000
G01 X16.447923 Y17.013704 Z-1.000000
G02 X16.450025 Y16.941434 Z-1.000000 I-0.045147 J-0.037479
G01 X16.385513 Y16.928944 Z-1.000000
G01 X16.368420 Y16.971444 Z-1.000000
G01 X16.401113 Y16.989454 Z-1.000000
G01 X16.409648 Y16.991785 Z-1.000000
G01 X16.408913 Y16.998254 Z-1.000000
G01 X16.407427 Y17.037166 Z-1.000000
G02 X16.475473 Y17.053804 Z-1.000000 I0.050991 J-0.061078
G01 X16.504436 Y17.059292 Z-1.000000
G01 X16.505893 Y17.074204 Z-1.000000
G02 X16.482611 Y17.111331 Z-1.000000 I0.069357 J0.069357
G01 X16.483063 Y17.139824 Z-1.000000
G01 X16.480426 Y17.160778 Z-1.000000
G01 X16.461153 Y17.170744 Z-1.000000
G01 X16.436807 Y17.161315 Z-1.000000
G01 X16.427373 Y17.139954 Z-1.000000
G02 X16.400604 Y17.089813 Z-1.000000 I-0.060345 J-0.000000
G02 X16.318405 Y17.066984 Z-1.000000 I-0.075642 J0.112963
G01 X16.316293 Y17.072605 Z-1.000000
G02 X16.340445 Y17.088214 Z-1.000000 I0.051985 J-0.053949
G03 X16.367478 Y17.113863 Z-1.000000 I-0.018759 J0.046841
G01 X16.364145 Y17.139434 Z-1.000000
G01 X16.359374 Y17.160789 Z-1.000000
G01 X16.372245 Y17.170754 Z-1.000000
G01 X16.396754 Y17.180350 Z-1.000000
G01 X16.406345 Y17.202284 Z-1.000000
G01 X16.398995 Y17.226508 Z-1.000000
G01 X16.385325 Y17.233814 Z-1.000000
G01 X16.371352 Y17.240672 Z-1.000000
G01 X16.365005 Y17.260084 Z-1.000000
G01 X16.373150 Y17.264941 Z-1.000000
G02 X16.404175 Y17.240284 Z-1.000000 I-0.044462 J-0.087791
G03 X16.447463 Y17.209262 Z-1.000000 I0.081560 J0.068095
G03 X16.490835 Y17.206814 Z-1.000000 I0.025479 J0.065987
G02 X16.520316 Y17.205553 Z-1.000000 I0.012683 J-0.048733
G01 X16.523995 Y17.195084 Z-1.000000
G01 X16.525333 Y17.179417 Z-1.000000
G01 X16.546985 Y17.169094 Z-1.000000
G01 X16.560092 Y17.163161 Z-1.000000
G01 X16.558735 Y17.156834 Z-1.000000
G01 X16.541932 Y17.127059 Z-1.000000
G03 X16.574145 Y17.061204 Z-1.000000 I0.124416 J0.020053
G03 X16.616984 Y17.038425 Z-1.000000 I0.054445 J0.050720
G01 X16.652965 Y17.048754 Z-1.000000
G02 X16.692926 Y17.075638 Z-1.000000 I0.128357 J-0.147654
G02 X16.742655 Y17.094184 Z-1.000000 I0.107441 J-0.212141
G03 X16.838771 Y17.138260 Z-1.000000 I-0.069865 J0.279190
G01 X16.840935 Y17.163564 Z-1.000000
G01 X16.823563 Y17.169129 Z-1.000000
G03 X16.783745 Y17.154064 Z-1.000000 I0.017967 J-0.107644
G02 X16.750369 Y17.142321 Z-1.000000 I-0.042937 J0.068734
G01 X16.742665 Y17.149164 Z-1.000000
G01 X16.750606 Y17.163768 Z-1.000000
G02 X16.795065 Y17.183114 Z-1.000000 I0.080570 J-0.124397
G03 X16.834736 Y17.201422 Z-1.000000 I-0.028397 J0.113666
G01 X16.837085 Y17.213074 Z-1.000000
G01 X16.823396 Y17.221525 Z-1.000000
G03 X16.781395 Y17.218074 Z-1.000000 I-0.011070 J-0.122585
G01 X16.754582 Y17.219890 Z-1.000000
G01 X16.751125 Y17.230554 Z-1.000000
G01 X16.770757 Y17.246692 Z-1.000000
G02 X16.815715 Y17.254884 Z-1.000000 I0.044958 J-0.119266
G03 X16.858849 Y17.264042 Z-1.000000 I-0.000000 J0.106163
G01 X16.874805 Y17.281154 Z-1.000000
G01 X16.877905 Y17.233864 Z-1.000000
G03 X16.871843 Y17.160277 Z-1.000000 I8.975353 J-0.776415
G03 X16.870105 Y17.134424 Z-1.000000 I1.177746 J-0.092163
G01 X16.859975 Y17.115779 Z-1.000000
G02 X16.816215 Y17.095364 Z-1.000000 I-0.074752 J0.103125
G03 X16.778826 Y17.065022 Z-1.000000 I0.013888 J-0.055321
G01 X16.791535 Y17.044694 Z-1.000000
G03 X16.881942 Y17.084474 Z-1.000000 I-0.000000 J0.122623
G03 X16.909772 Y17.173717 Z-1.000000 I-0.080996 J0.074218
G02 X16.914105 Y17.241344 Z-1.000000 I0.167665 J0.023211
G01 X16.931822 Y17.254887 Z-1.000000
G01 X16.944639 Y17.246687 Z-1.000000
G02 X16.952842 Y17.209347 Z-1.000000 I-0.080885 J-0.037340
G01 X16.968368 Y17.205036 Z-1.000000
G03 X16.987932 Y17.267667 Z-1.000000 I-0.118812 J0.071484
G03 X16.980778 Y17.333534 Z-1.000000 I-0.192740 J0.012387
G01 X16.963562 Y17.352297 Z-1.000000
G02 X16.935026 Y17.435575 Z-1.000000 I0.020558 J0.053573
G02 X17.057932 Y17.508255 Z-1.000000 I0.129154 J-0.078147
G03 X17.086459 Y17.514643 Z-1.000000 I-0.003410 J0.082119
G01 X17.086432 Y17.520285 Z-1.000000
G01 X17.056828 Y17.573863 Z-1.000000
G01 X17.102412 Y17.612205 Z-1.000000
G01 X17.114055 Y17.605283 Z-1.000000
G02 X17.120982 Y17.578045 Z-1.000000 I-0.050089 J-0.027238
G01 X17.133979 Y17.559745 Z-1.000000
G03 X17.183222 Y17.556335 Z-1.000000 I0.030866 J0.088473
G02 X17.241283 Y17.559097 Z-1.000000 I0.038259 J-0.192589
G01 X17.257882 Y17.548735 Z-1.000000
G01 X17.255522 Y17.540883 Z-1.000000
G01 X17.239802 Y17.540335 Z-1.000000
G03 X17.212350 Y17.543044 Z-1.000000 I-0.018692 J-0.048980
G01 X17.197652 Y17.533135 Z-1.000000
G01 X17.211420 Y17.513149 Z-1.000000
G03 X17.309181 Y17.554495 Z-1.000000 I-0.047690 J0.249013
G01 X17.314972 Y17.610187 Z-1.000000
G03 X17.245901 Y17.622075 Z-1.000000 I-0.042391 J-0.039696
G01 X17.185871 Y17.591035 Z-1.000000
G01 X17.132411 Y17.648695 Z-1.000000
G02 X17.094876 Y17.718420 Z-1.000000 I0.115634 J0.107215
G01 X17.110481 Y17.738305 Z-1.000000
G01 X17.133360 Y17.732001 Z-1.000000
G01 X17.136921 Y17.722545 Z-1.000000
G01 X17.137850 Y17.707655 Z-1.000000
G03 X17.168451 Y17.654815 Z-1.000000 I0.311583 J0.145165
G03 X17.199363 Y17.620857 Z-1.000000 I0.151011 J0.106416
G01 X17.205071 Y17.623485 Z-1.000000
G02 X17.242862 Y17.679662 Z-1.000000 I0.060650 J0.000000
G02 X17.331669 Y17.674995 Z-1.000000 I0.039433 J-0.096911
G03 X17.364276 Y17.667688 Z-1.000000 I0.029456 J0.055038
G01 X17.373219 Y17.677095 Z-1.000000
G01 X17.380754 Y17.685380 Z-1.000000
G01 X17.399549 Y17.679595 Z-1.000000
G03 X17.477411 Y17.671137 Z-1.000000 I0.045325 J0.054631
G01 X17.485649 Y17.723995 Z-1.000000
G01 X17.485896 Y17.735179 Z-1.000000
G02 X17.540689 Y17.774465 Z-1.000000 I0.191362 J-0.209045
G03 X17.750849 Y17.951932 Z-1.000000 I-0.336408 J0.611552
G01 X17.717609 Y17.997235 Z-1.000000
G01 X17.701550 Y18.003189 Z-1.000000
G01 X17.698839 Y18.032055 Z-1.000000
G01 X17.698544 Y18.060069 Z-1.000000
G01 X17.688029 Y18.063835 Z-1.000000
G01 X17.675334 Y18.064563 Z-1.000000
G01 X17.671689 Y18.076745 Z-1.000000
G01 X17.689587 Y18.093739 Z-1.000000
G02 X17.763749 Y18.102145 Z-1.000000 I0.063758 J-0.231153
G01 X17.846149 Y18.098545 Z-1.000000
G01 X17.783089 Y18.115625 Z-1.000000
G01 X17.765120 Y18.127879 Z-1.000000
G01 X17.768569 Y18.135195 Z-1.000000
G03 X17.801303 Y18.145968 Z-1.000000 I-0.003439 J0.065564
G01 X17.804109 Y18.158705 Z-1.000000
G01 X17.806792 Y18.170970 Z-1.000000
G02 X17.835639 Y18.179725 Z-1.000000 I0.028847 J-0.043148
G01 X17.862723 Y18.170030 Z-1.000000
G01 X17.865159 Y18.155455 Z-1.000000
G01 X17.866124 Y18.147142 Z-1.000000
G01 X17.874459 Y18.146155 Z-1.000000
G01 X17.882962 Y18.178048 Z-1.000000
G01 X17.844939 Y18.200705 Z-1.000000
G02 X17.808513 Y18.210382 Z-1.000000 I-0.000000 J0.073395
G01 X17.805199 Y18.223425 Z-1.000000
G01 X17.823410 Y18.235839 Z-1.000000
G02 X17.866099 Y18.234385 Z-1.000000 I0.017967 J-0.099922
G03 X17.910701 Y18.233593 Z-1.000000 I0.024007 J0.095657
G03 X17.953139 Y18.253035 Z-1.000000 I-0.022412 J0.104960
G01 X17.967652 Y18.275116 Z-1.000000
G01 X17.960739 Y18.284115 Z-1.000000
G01 X17.942755 Y18.297490 Z-1.000000
G02 X17.936769 Y18.358345 Z-1.000000 I0.136809 J0.044180
G02 X17.964480 Y18.411582 Z-1.000000 I0.083666 J-0.009719
G01 X17.989949 Y18.405635 Z-1.000000
G01 X18.022001 Y18.402551 Z-1.000000
G03 X18.041299 Y18.484455 Z-1.000000 I-0.103947 J0.067717
G02 X18.044819 Y18.520740 Z-1.000000 I0.085661 J0.010004
G01 X18.056319 Y18.531575 Z-1.000000
G01 X18.068117 Y18.526141 Z-1.000000
G02 X18.076779 Y18.489915 Z-1.000000 I-0.075967 J-0.037312
G03 X18.108839 Y18.442896 Z-1.000000 I0.051472 J0.000656
G03 X18.188952 Y18.444235 Z-1.000000 I0.038487 J0.094528
G01 X18.190710 Y18.456000 Z-1.000000
G03 X18.156762 Y18.472285 Z-1.000000 I-0.046455 J-0.053315
G02 X18.112167 Y18.494476 Z-1.000000 I0.015665 J0.087387
G01 X18.109472 Y18.515985 Z-1.000000
G01 X18.130398 Y18.527352 Z-1.000000
G01 X18.152542 Y18.515985 Z-1.000000
G01 X18.172913 Y18.503407 Z-1.000000
G01 X18.185822 Y18.510685 Z-1.000000
G01 X18.212826 Y18.518210 Z-1.000000
G02 X18.235022 Y18.473905 Z-1.000000 I-0.033120 J-0.044305
G02 X18.219424 Y18.425660 Z-1.000000 I-0.082410 J0.000000
G01 X18.187732 Y18.408415 Z-1.000000
G01 X18.175361 Y18.402406 Z-1.000000
G01 X18.177222 Y18.396365 Z-1.000000
G01 X18.203415 Y18.378566 Z-1.000000
G02 X18.214002 Y18.346255 Z-1.000000 I-0.044010 J-0.032311
G01 X18.224353 Y18.316108 Z-1.000000
G01 X18.245532 Y18.305755 Z-1.000000
G01 X18.267827 Y18.314990 Z-1.000000
G01 X18.277062 Y18.337285 Z-1.000000
G01 X18.269293 Y18.361044 Z-1.000000
G01 X18.253972 Y18.368815 Z-1.000000
G01 X18.246946 Y18.377988 Z-1.000000
G02 X18.273412 Y18.440905 Z-1.000000 I0.245365 J-0.066190
G03 X18.305012 Y18.514976 Z-1.000000 I-0.268089 J0.158149
G03 X18.307312 Y18.561764 Z-1.000000 I-0.101342 J0.028432
G01 X18.323232 Y18.539484 Z-1.000000
G02 X18.330539 Y18.473831 Z-1.000000 I-0.141880 J-0.049024
G01 X18.312432 Y18.442584 Z-1.000000
G03 X18.286804 Y18.394752 Z-1.000000 I0.037009 J-0.050611
G01 X18.308832 Y18.361144 Z-1.000000
G01 X18.336008 Y18.362577 Z-1.000000
G03 X18.366432 Y18.390424 Z-1.000000 I-0.034872 J0.068643
G02 X18.396756 Y18.423865 Z-1.000000 I0.107961 J-0.067428
G01 X18.420292 Y18.431874 Z-1.000000
G01 X18.427521 Y18.423297 Z-1.000000
G01 X18.414492 Y18.398144 Z-1.000000
G01 X18.405195 Y18.364879 Z-1.000000
G03 X18.435092 Y18.314064 Z-1.000000 I0.099640 J0.024421
G03 X18.509786 Y18.271436 Z-1.000000 I0.128872 J0.139058
G01 X18.529292 Y18.285974 Z-1.000000
G01 X18.536605 Y18.295315 Z-1.000000
G01 X18.555562 Y18.292474 Z-1.000000
G01 X18.560432 Y18.295298 Z-1.000000
G01 X18.555200 Y18.309594 Z-1.000000
G02 X18.537849 Y18.344025 Z-1.000000 I0.070572 J0.057152
G01 X18.539210 Y18.371434 Z-1.000000
G01 X18.528899 Y18.420659 Z-1.000000
G03 X18.455650 Y18.458384 Z-1.000000 I-0.091764 J-0.088197
G01 X18.455097 Y18.464089 Z-1.000000
G02 X18.490750 Y18.470794 Z-1.000000 I0.039464 J-0.111704
G03 X18.581198 Y18.484430 Z-1.000000 I-0.012274 J0.388202
G01 X18.598222 Y18.500214 Z-1.000000
G01 X18.610980 Y18.512531 Z-1.000000
G01 X18.626072 Y18.509114 Z-1.000000
G01 X18.628953 Y18.493672 Z-1.000000
G02 X18.607932 Y18.471284 Z-1.000000 I-0.045956 J0.022086
G03 X18.561024 Y18.393111 Z-1.000000 I0.044787 J-0.080035
G01 X18.605432 Y18.347792 Z-1.000000
G01 X18.618079 Y18.357861 Z-1.000000
G01 X18.612832 Y18.379982 Z-1.000000
G01 X18.605432 Y18.409933 Z-1.000000
G02 X18.626022 Y18.442372 Z-1.000000 I0.053762 J-0.011371
G01 X18.670273 Y18.446362 Z-1.000000
G01 X18.674862 Y18.417682 Z-1.000000
G01 X18.676384 Y18.405184 Z-1.000000
G03 X18.711642 Y18.395502 Z-1.000000 I0.034782 J0.057622
G03 X18.744623 Y18.400324 Z-1.000000 I-0.000845 J0.120985
G01 X18.744742 Y18.405102 Z-1.000000
G02 X18.704774 Y18.458138 Z-1.000000 I0.019844 J0.056533
G01 X18.739442 Y18.494892 Z-1.000000
G01 X18.754141 Y18.500300 Z-1.000000
G01 X18.757972 Y18.510652 Z-1.000000
G02 X18.804551 Y18.630148 Z-1.000000 I0.125665 J0.019843
G02 X18.890307 Y18.615683 Z-1.000000 I0.036368 J-0.045826
G01 X18.901417 Y18.608966 Z-1.000000
G01 X18.907267 Y18.614283 Z-1.000000
G03 X18.888793 Y18.663142 Z-1.000000 I-0.071394 J0.000928
G03 X18.818637 Y18.712143 Z-1.000000 I-0.142059 J-0.128666
G01 X18.811187 Y18.725139 Z-1.000000
G01 X18.823537 Y18.745223 Z-1.000000
G01 X18.837503 Y18.761763 Z-1.000000
G01 X18.834047 Y18.767143 Z-1.000000
G03 X18.749717 Y18.734344 Z-1.000000 I0.002349 J-0.130849
G03 X18.718443 Y18.664955 Z-1.000000 I0.061342 J-0.069389
G01 X18.737943 Y18.646784 Z-1.000000
G01 X18.766363 Y18.668355 Z-1.000000
G01 X18.778860 Y18.681930 Z-1.000000
G01 X18.791633 Y18.679865 Z-1.000000
G01 X18.783945 Y18.626052 Z-1.000000
G02 X18.664366 Y18.616035 Z-1.000000 I-0.072283 J0.144140
G03 X18.596330 Y18.627568 Z-1.000000 I-0.078134 J-0.254483
G01 X18.580666 Y18.619235 Z-1.000000
G02 X18.515672 Y18.568175 Z-1.000000 I-0.102159 J0.063143
G01 X18.487236 Y18.588825 Z-1.000000
G01 X18.497142 Y18.611193 Z-1.000000
G01 X18.522786 Y18.621095 Z-1.000000
G01 X18.530612 Y18.630380 Z-1.000000
G01 X18.517486 Y18.651955 Z-1.000000
G01 X18.476686 Y18.682815 Z-1.000000
G01 X18.518726 Y18.686015 Z-1.000000
G01 X18.521016 Y18.692654 Z-1.000000
G03 X18.497706 Y18.705215 Z-1.000000 I-0.036671 J-0.040140
G02 X18.469837 Y18.718052 Z-1.000000 I0.020719 J0.081651
G01 X18.471436 Y18.723745 Z-1.000000
G01 X18.498554 Y18.735272 Z-1.000000
G01 X18.508216 Y18.757025 Z-1.000000
G02 X18.543269 Y18.812940 Z-1.000000 I0.062122 J0.000000
G02 X18.637756 Y18.819735 Z-1.000000 I0.055773 J-0.115207
G01 X18.663920 Y18.819620 Z-1.000000
G01 X18.667366 Y18.828835 Z-1.000000
G01 X18.648008 Y18.842241 Z-1.000000
G03 X18.566096 Y18.848505 Z-1.000000 I-0.067982 J-0.350262
G02 X18.485842 Y18.854919 Z-1.000000 I-0.013404 J0.337568
G01 X18.471626 Y18.867485 Z-1.000000
G01 X18.458537 Y18.879500 Z-1.000000
G03 X18.423136 Y18.879145 Z-1.000000 I-0.016992 J-0.070743
G02 X18.390955 Y18.879876 Z-1.000000 I-0.014811 J0.056733
G01 X18.382106 Y18.891885 Z-1.000000
G01 X18.373077 Y18.906042 Z-1.000000
G03 X18.334816 Y18.913875 Z-1.000000 I-0.035601 J-0.076539
G01 X18.287526 Y18.912375 Z-1.000000
G01 X18.329566 Y18.894305 Z-1.000000
G01 X18.343327 Y18.881388 Z-1.000000
G01 X18.339466 Y18.874765 Z-1.000000
G02 X18.240937 Y18.908868 Z-1.000000 I-0.006485 J0.140648
G02 X18.223079 Y18.975308 Z-1.000000 I0.040078 J0.046393
G01 X18.218941 Y18.980224 Z-1.000000
G01 X18.205959 Y18.972508 Z-1.000000
G01 X18.180230 Y18.957832 Z-1.000000
G01 X18.164529 Y18.967208 Z-1.000000
G01 X18.166296 Y18.989667 Z-1.000000
G01 X18.183059 Y18.999358 Z-1.000000
G01 X18.207071 Y19.006249 Z-1.000000
G01 X18.213929 Y19.018628 Z-1.000000
G01 X18.205483 Y19.028757 Z-1.000000
G03 X18.140359 Y19.032068 Z-1.000000 I-0.045230 J-0.247503
G02 X18.074295 Y19.034406 Z-1.000000 I-0.022851 J0.288919
G01 X18.066789 Y19.043128 Z-1.000000
G01 X18.103483 Y19.074720 Z-1.000000
G02 X18.264042 Y19.013388 Z-1.000000 I-0.059648 J-0.396976
G03 X18.322682 Y18.984300 Z-1.000000 I0.150338 J0.229421
G01 X18.346572 Y18.984108 Z-1.000000
G01 X18.368589 Y18.982647 Z-1.000000
G02 X18.397442 Y18.959158 Z-1.000000 I-0.036208 J-0.073943
G01 X18.422544 Y18.945450 Z-1.000000
G01 X18.442602 Y18.955158 Z-1.000000
G01 X18.457557 Y18.960089 Z-1.000000
G01 X18.471222 Y18.944648 Z-1.000000
G01 X18.483309 Y18.939210 Z-1.000000
G01 X18.504362 Y18.962618 Z-1.000000
G02 X18.535258 Y19.009828 Z-1.000000 I0.138929 J-0.057206
G01 X18.560222 Y19.020418 Z-1.000000
G01 X18.584924 Y19.027812 Z-1.000000
G01 X18.592272 Y19.041438 Z-1.000000
G01 X18.600758 Y19.053972 Z-1.000000
G02 X18.644822 Y19.062458 Z-1.000000 I0.044064 J-0.110160
G03 X18.688503 Y19.071329 Z-1.000000 I0.000000 J0.111979
G01 X18.697372 Y19.084718 Z-1.000000
G01 X18.704078 Y19.095004 Z-1.000000
G01 X18.718392 Y19.094018 Z-1.000000
G01 X18.725805 Y19.063517 Z-1.000000
G01 X18.686862 Y19.041468 Z-1.000000
G03 X18.645649 Y19.030130 Z-1.000000 I0.000000 J-0.080572
G01 X18.634312 Y19.010188 Z-1.000000
G01 X18.623372 Y18.991129 Z-1.000000
G02 X18.589332 Y18.983918 Z-1.000000 I-0.027905 J0.047775
G03 X18.550251 Y18.979479 Z-1.000000 I-0.009878 J-0.087282
G01 X18.535872 Y18.965168 Z-1.000000
G01 X18.564199 Y18.916529 Z-1.000000
G03 X18.681110 Y18.939768 Z-1.000000 I0.028433 J0.162657
G01 X18.690681 Y18.952166 Z-1.000000
G01 X18.686810 Y18.957718 Z-1.000000
G01 X18.684235 Y18.963197 Z-1.000000
G02 X18.704600 Y18.981238 Z-1.000000 I0.054856 J-0.041408
G02 X18.768202 Y18.981737 Z-1.000000 I0.032238 J-0.055468
G01 X18.773600 Y18.942598 Z-1.000000
G01 X18.759621 Y18.939885 Z-1.000000
G01 X18.739500 Y18.957178 Z-1.000000
G01 X18.730196 Y18.956314 Z-1.000000
G03 X18.723050 Y18.914528 Z-1.000000 I0.100122 J-0.038626
G03 X18.729126 Y18.868299 Z-1.000000 I0.231800 J0.006952
G01 X18.734030 Y18.868068 Z-1.000000
G01 X18.748177 Y18.886981 Z-1.000000
G01 X18.771410 Y18.894338 Z-1.000000
G03 X18.848297 Y19.008844 Z-1.000000 I0.000000 J0.083066
G03 X18.676310 Y19.126890 Z-1.000000 I-0.175862 J-0.071911
G01 X18.648241 Y19.138300 Z-1.000000
G01 X18.650220 Y19.151280 Z-1.000000
G02 X18.757428 Y19.153054 Z-1.000000 I0.055524 J-0.115142
G02 X18.802428 Y19.083960 Z-1.000000 I-0.030544 J-0.069094
G01 X18.820480 Y19.060853 Z-1.000000
G03 X18.875008 Y19.065860 Z-1.000000 I0.020094 J0.080574
G03 X18.910270 Y19.105286 Z-1.000000 I-0.027296 J0.059895
G01 X18.897018 Y19.133140 Z-1.000000
G01 X18.875092 Y19.131275 Z-1.000000
G01 X18.865488 Y19.114370 Z-1.000000
G01 X18.858194 Y19.090749 Z-1.000000
G01 X18.844468 Y19.083500 Z-1.000000
G01 X18.831979 Y19.092027 Z-1.000000
G02 X18.823448 Y19.137290 Z-1.000000 I0.115802 J0.045263
G03 X18.814287 Y19.174704 Z-1.000000 I-0.080982 J0.000000
G01 X18.802278 Y19.178000 Z-1.000000
G01 X18.785460 Y19.177796 Z-1.000000
G01 X18.768498 Y19.197780 Z-1.000000
G03 X18.751456 Y19.224160 Z-1.000000 I-0.070766 J-0.027022
G01 X18.735878 Y19.230640 Z-1.000000
G01 X18.726040 Y19.224974 Z-1.000000
G01 X18.726178 Y19.213920 Z-1.000000
G01 X18.718455 Y19.198983 Z-1.000000
G02 X18.610891 Y19.206920 Z-1.000000 I-0.024437 J0.401638
G01 X18.573990 Y19.265298 Z-1.000000
G02 X18.636701 Y19.314725 Z-1.000000 I0.062711 J-0.015069
G01 X18.647488 Y19.306947 Z-1.000000
G02 X18.655271 Y19.258925 Z-1.000000 I-0.144259 J-0.048022
G01 X18.655271 Y19.203125 Z-1.000000
G01 X18.693711 Y19.237915 Z-1.000000
G02 X18.757758 Y19.263980 Z-1.000000 I0.067831 J-0.074956
G01 X18.781391 Y19.241215 Z-1.000000
G01 X18.809128 Y19.209308 Z-1.000000
G01 X18.855061 Y19.230865 Z-1.000000
G01 X18.857084 Y19.250756 Z-1.000000
G03 X18.835281 Y19.284915 Z-1.000000 I-0.088262 J-0.032300
G02 X18.809101 Y19.320559 Z-1.000000 I0.103328 J0.103328
G02 X18.802411 Y19.347805 Z-1.000000 I0.052133 J0.027246
G01 X18.795689 Y19.371110 Z-1.000000
G01 X18.783511 Y19.377835 Z-1.000000
G01 X18.772395 Y19.386272 Z-1.000000
G02 X18.757081 Y19.472475 Z-1.000000 I0.437842 J0.122246
G02 X18.760131 Y19.553560 Z-1.000000 I0.344745 J0.027632
G01 X18.770731 Y19.559995 Z-1.000000
G01 X18.782512 Y19.546566 Z-1.000000
G02 X18.787131 Y19.475865 Z-1.000000 I-0.274005 J-0.053402
G03 X18.791926 Y19.407802 Z-1.000000 I0.259399 J-0.015925
G01 X18.802891 Y19.398855 Z-1.000000
G01 X18.814571 Y19.407721 Z-1.000000
G03 X18.823431 Y19.472425 Z-1.000000 I-0.231822 J0.064704
G02 X18.840167 Y19.529000 Z-1.000000 I0.103995 J-0.000000
G01 X18.870721 Y19.545325 Z-1.000000
G01 X18.918011 Y19.544657 Z-1.000000
G01 X18.878111 Y19.514457 Z-1.000000
G03 X18.856805 Y19.482105 Z-1.000000 I0.035005 J-0.046245
G01 X18.863221 Y19.454117 Z-1.000000
G01 X18.871705 Y19.428505 Z-1.000000
G01 X18.861121 Y19.414297 Z-1.000000
G01 X18.846602 Y19.401535 Z-1.000000
G01 X18.848341 Y19.389127 Z-1.000000
G01 X18.884336 Y19.390516 Z-1.000000
G03 X18.894851 Y19.447757 Z-1.000000 I-0.048534 J0.038502
G01 X18.899916 Y19.464221 Z-1.000000
G01 X18.915521 Y19.464017 Z-1.000000
G01 X18.950427 Y19.461601 Z-1.000000
G01 X18.953431 Y19.487497 Z-1.000000
G02 X18.934286 Y19.529707 Z-1.000000 I0.046569 J0.046569
G01 X18.949531 Y19.545997 Z-1.000000
G01 X18.963223 Y19.538669 Z-1.000000
G01 X18.970551 Y19.514467 Z-1.000000
G01 X18.977901 Y19.490243 Z-1.000000
G01 X18.991571 Y19.482937 Z-1.000000
G01 X19.005163 Y19.490367 Z-1.000000
G01 X19.012591 Y19.515707 Z-1.000000
G01 X19.020077 Y19.535086 Z-1.000000
G01 X19.031631 Y19.536707 Z-1.000000
G01 X19.041911 Y19.521402 Z-1.000000
G02 X19.040331 Y19.485287 Z-1.000000 I-0.085078 J-0.014370
G03 X19.038788 Y19.449151 Z-1.000000 I0.082737 J-0.021633
G01 X19.049131 Y19.433807 Z-1.000000
G01 X19.059746 Y19.436683 Z-1.000000
G03 X19.066731 Y19.466907 Z-1.000000 I-0.052970 J0.028161
G02 X19.078891 Y19.501851 Z-1.000000 I0.051025 J0.001832
G02 X19.117721 Y19.526827 Z-1.000000 I0.060723 J-0.051734
G01 X19.134842 Y19.537850 Z-1.000000
G01 X19.132241 Y19.543907 Z-1.000000
G01 X19.107365 Y19.552875 Z-1.000000
G01 X19.105241 Y19.563837 Z-1.000000
G01 X19.100952 Y19.572897 Z-1.000000
G03 X18.989838 Y19.578887 Z-1.000000 I-0.094963 J-0.728003
G02 X18.877167 Y19.600605 Z-1.000000 I-0.006052 J0.271726
G01 X18.866283 Y19.631557 Z-1.000000
G02 X18.894640 Y19.658162 Z-1.000000 I0.053533 J-0.028643
G02 X18.980586 Y19.683647 Z-1.000000 I0.133852 J-0.293743
G03 X19.070152 Y19.707313 Z-1.000000 I-0.063822 J0.422865
G03 X19.120314 Y19.737427 Z-1.000000 I-0.060668 J0.157892
G02 X19.166231 Y19.762318 Z-1.000000 I0.079235 J-0.091369
G01 X19.189874 Y19.757357 Z-1.000000
G03 X19.215529 Y19.740894 Z-1.000000 I0.079944 J0.096359
G03 X19.276044 Y19.715887 Z-1.000000 I0.250851 J0.521313
G01 X19.296659 Y19.714311 Z-1.000000
G01 X19.297734 Y19.719887 Z-1.000000
G02 X19.259189 Y19.748272 Z-1.000000 I0.181351 J0.286627
G02 X19.208664 Y19.795717 Z-1.000000 I0.462470 J0.543117
G03 X19.159197 Y19.826111 Z-1.000000 I-0.083861 J-0.081034
G01 X19.129414 Y19.820177 Z-1.000000
G02 X19.097842 Y19.804584 Z-1.000000 I-0.048508 J0.058457
G01 X19.076634 Y19.808097 Z-1.000000
G01 X19.065327 Y19.804853 Z-1.000000
G03 X19.059954 Y19.774477 Z-1.000000 I0.049057 J-0.024341
G02 X19.001441 Y19.683228 Z-1.000000 I-0.085604 J-0.009492
G02 X18.879551 Y19.714697 Z-1.000000 I-0.036539 J0.110269
G01 X18.878341 Y19.725986 Z-1.000000
G01 X18.888351 Y19.729657 Z-1.000000
G03 X18.922090 Y19.724820 Z-1.000000 I0.029243 J0.083890
G03 X18.993445 Y19.734957 Z-1.000000 I-0.020183 J0.398276
G03 X19.022094 Y19.747901 Z-1.000000 I-0.018828 J0.079849
G01 X19.020305 Y19.754017 Z-1.000000
G02 X18.984587 Y19.767386 Z-1.000000 I0.002861 J0.062043
G02 X18.964475 Y19.798207 Z-1.000000 I0.036074 J0.045512
G01 X18.977425 Y19.817653 Z-1.000000
G01 X19.001955 Y19.803507 Z-1.000000
G01 X19.016581 Y19.796628 Z-1.000000
G01 X19.035055 Y19.814017 Z-1.000000
G02 X19.059994 Y19.851538 Z-1.000000 I0.096930 J-0.037378
G01 X19.084255 Y19.861307 Z-1.000000
G03 X19.111701 Y19.867631 Z-1.000000 I-0.000000 J0.062725
G01 X19.128535 Y19.882847 Z-1.000000
G01 X19.127528 Y19.894326 Z-1.000000
G01 X19.114505 Y19.898607 Z-1.000000
G01 X19.096072 Y19.905585 Z-1.000000
G02 X19.079635 Y19.945377 Z-1.000000 I0.069912 J0.052169
G03 X19.041536 Y20.003359 Z-1.000000 I-0.080799 J-0.011583
G01 X18.992575 Y19.998817 Z-1.000000
G03 X18.961351 Y19.959239 Z-1.000000 I0.101522 J-0.112199
G01 X18.961795 Y19.942567 Z-1.000000
G01 X18.959289 Y19.932037 Z-1.000000
G02 X18.932015 Y19.924357 Z-1.000000 I-0.027274 J0.044588
G02 X18.897689 Y19.934110 Z-1.000000 I0.000000 J0.065281
G01 X18.878225 Y19.957607 Z-1.000000
G02 X18.874075 Y19.994576 Z-1.000000 I0.068923 J0.026454
G01 X18.884225 Y19.999317 Z-1.000000
G01 X18.900858 Y19.999988 Z-1.000000
G03 X18.952075 Y20.049367 Z-1.000000 I-0.161195 J0.218444
G02 X19.000050 Y20.090258 Z-1.000000 I0.128864 J-0.102599
G01 X19.017055 Y20.085997 Z-1.000000
G01 X19.025847 Y20.085716 Z-1.000000
G01 X19.033275 Y20.108277 Z-1.000000
G02 X19.042171 Y20.146937 Z-1.000000 I0.091151 J-0.000620
G01 X19.055855 Y20.155567 Z-1.000000
G01 X19.066710 Y20.161925 Z-1.000000
G01 X19.066445 Y20.174457 Z-1.000000
G01 X19.066289 Y20.191849 Z-1.000000
G02 X19.106875 Y20.242767 Z-1.000000 I0.202578 J-0.119835
G03 X19.140336 Y20.294209 Z-1.000000 I-0.090629 J0.095555
G01 X19.128185 Y20.302697 Z-1.000000
G01 X19.089657 Y20.318900 Z-1.000000
G02 X19.120085 Y20.401757 Z-1.000000 I0.104639 J0.008588
G01 X19.133253 Y20.426344 Z-1.000000
G01 X19.129385 Y20.447997 Z-1.000000
G01 X19.097288 Y20.458874 Z-1.000000
G01 X19.075705 Y20.427567 Z-1.000000
G01 X19.066666 Y20.400457 Z-1.000000
G01 X19.053545 Y20.397987 Z-1.000000
G01 X19.045828 Y20.414884 Z-1.000000
G02 X19.063825 Y20.461187 Z-1.000000 I0.117893 J-0.019172
G01 X19.061510 Y20.502880 Z-1.000000
G03 X19.012655 Y20.523057 Z-1.000000 I-0.043428 J-0.035919
G02 X18.963046 Y20.527138 Z-1.000000 I-0.013506 J0.139399
G02 X18.928545 Y20.545487 Z-1.000000 I0.022277 J0.083496
G03 X18.894809 Y20.569412 Z-1.000000 I-0.135695 J-0.155593
G03 X18.844465 Y20.593257 Z-1.000000 I-0.185577 J-0.326742
G02 X18.748377 Y20.692309 Z-1.000000 I0.059244 J0.153603
G02 X18.702534 Y20.997372 Z-1.000000 I0.776313 J0.272637
G01 X18.707834 Y21.132929 Z-1.000000
G01 X18.623754 Y21.131129 Z-1.000000
G03 X18.543758 Y21.116636 Z-1.000000 I0.005708 J-0.259525
G03 X18.457139 Y21.072799 Z-1.000000 I0.121726 J-0.348017
G02 X18.154127 Y21.034507 Z-1.000000 I-0.188743 J0.275517
G02 X18.088132 Y21.207165 Z-1.000000 I0.041853 J0.114939
G03 X18.093572 Y21.241232 Z-1.000000 I-0.046498 J0.024893
G03 X18.073542 Y21.289495 Z-1.000000 I-0.118662 J-0.020960
G02 X18.056036 Y21.340549 Z-1.000000 I0.079794 J0.055889
G02 X18.064042 Y21.480709 Z-1.000000 I0.658209 J0.032712
G03 X18.078472 Y21.670963 Z-1.000000 I-1.071637 J0.176952
G01 X18.061542 Y21.684667 Z-1.000000
G01 X18.028203 Y21.653684 Z-1.000000
G01 X18.042002 Y21.614027 Z-1.000000
G02 X18.063947 Y21.587237 Z-1.000000 I-0.040806 J-0.055810
G01 X18.061292 Y21.572317 Z-1.000000
G01 X18.017914 Y21.575192 Z-1.000000
G02 X17.983392 Y21.674159 Z-1.000000 I0.133373 J0.102027
G03 X17.975168 Y21.703248 Z-1.000000 I-0.059375 J-0.001080
G01 X17.961702 Y21.710939 Z-1.000000
G01 X17.947955 Y21.718209 Z-1.000000
G01 X17.940682 Y21.741809 Z-1.000000
G01 X17.930691 Y21.758142 Z-1.000000
G01 X17.906202 Y21.759449 Z-1.000000
G01 X17.895943 Y21.742991 Z-1.000000
G01 X17.909902 Y21.718289 Z-1.000000
G02 X17.936355 Y21.689454 Z-1.000000 I-0.058946 J-0.080628
G01 X17.934872 Y21.677129 Z-1.000000
G01 X17.921617 Y21.674710 Z-1.000000
G02 X17.886612 Y21.698929 Z-1.000000 I0.048699 J0.107794
G02 X17.862136 Y21.733956 Z-1.000000 I0.086526 J0.086526
G01 X17.864412 Y21.746789 Z-1.000000
G01 X17.860288 Y21.789144 Z-1.000000
G03 X17.780612 Y21.803039 Z-1.000000 I-0.055452 J-0.082588
G01 X17.744983 Y21.809086 Z-1.000000
G01 X17.730472 Y21.836009 Z-1.000000
G03 X17.721646 Y21.865688 Z-1.000000 I-0.054314 J0.000000
G01 X17.709262 Y21.868459 Z-1.000000
G01 X17.687185 Y21.862432 Z-1.000000
G02 X17.642272 Y21.869859 Z-1.000000 I0.003201 J0.158867
G01 X17.596492 Y21.884389 Z-1.000000
G01 X17.635672 Y21.913039 Z-1.000000
G03 X17.662698 Y21.942626 Z-1.000000 I-0.059777 J0.081738
G01 X17.661132 Y21.955409 Z-1.000000
G01 X17.647008 Y21.958993 Z-1.000000
G03 X17.613772 Y21.941209 Z-1.000000 I0.026604 J-0.089670
G01 X17.582915 Y21.930824 Z-1.000000
G01 X17.561042 Y21.943509 Z-1.000000
G03 X17.545744 Y21.960067 Z-1.000000 I-0.052668 J-0.033314
G01 X17.541622 Y21.958059 Z-1.000000
G01 X17.535831 Y21.954761 Z-1.000000
G02 X17.489472 Y21.987499 Z-1.000000 I0.139927 J0.247336
G02 X17.450612 Y22.034541 Z-1.000000 I0.122136 J0.140464
G01 X17.450882 Y22.053989 Z-1.000000
G01 X17.447897 Y22.061963 Z-1.000000
G01 X17.427432 Y22.061289 Z-1.000000
G02 X17.390164 Y22.050360 Z-1.000000 I-0.087439 J0.229158
G02 X17.359682 Y22.047209 Z-1.000000 I-0.030482 J0.145869
G01 X17.341984 Y22.039789 Z-1.000000
G01 X17.340632 Y22.027799 Z-1.000000
G01 X17.339417 Y22.011114 Z-1.000000
G02 X17.284072 Y21.960499 Z-1.000000 I-0.219639 J0.184599
G03 X17.218027 Y21.910091 Z-1.000000 I0.563767 J-0.807125
G03 X17.200072 Y21.890579 Z-1.000000 I0.064051 J-0.076958
G01 X17.188330 Y21.880766 Z-1.000000
G01 X17.184302 Y21.883279 Z-1.000000
G01 X17.178933 Y21.886099 Z-1.000000
G03 X17.128142 Y21.846289 Z-1.000000 I0.213510 J-0.324705
G01 X17.109999 Y21.851395 Z-1.000000
G01 X17.117932 Y21.882509 Z-1.000000
G03 X17.176332 Y21.953184 Z-1.000000 I-0.392905 J0.384129
G01 X17.183982 Y21.977609 Z-1.000000
G01 X17.191179 Y21.997957 Z-1.000000
G01 X17.206242 Y22.005149 Z-1.000000
G01 X17.216528 Y22.011855 Z-1.000000
G01 X17.215542 Y22.026169 Z-1.000000
G01 X17.214559 Y22.040472 Z-1.000000
G01 X17.224842 Y22.047189 Z-1.000000
G01 X17.239381 Y22.054912 Z-1.000000
G01 X17.247102 Y22.080129 Z-1.000000
G01 X17.258526 Y22.097466 Z-1.000000
G01 X17.291212 Y22.099069 Z-1.000000
G01 X17.316118 Y22.104256 Z-1.000000
G01 X17.322262 Y22.126209 Z-1.000000
G02 X17.321874 Y22.163637 Z-1.000000 I0.060995 J0.019348
G02 X17.342532 Y22.195009 Z-1.000000 I0.061790 J-0.018200
G01 X17.356825 Y22.192444 Z-1.000000
G01 X17.360912 Y22.163119 Z-1.000000
G01 X17.345962 Y22.103569 Z-1.000000
G01 X17.400962 Y22.143679 Z-1.000000
G03 X17.440386 Y22.194357 Z-1.000000 I-0.068571 J0.094016
G01 X17.426822 Y22.208129 Z-1.000000
G01 X17.411010 Y22.211086 Z-1.000000
G01 X17.407542 Y22.225569 Z-1.000000
G01 X17.423772 Y22.243307 Z-1.000000
G01 X17.445912 Y22.244259 Z-1.000000
G01 X17.498341 Y22.268407 Z-1.000000
G03 X17.488202 Y22.363411 Z-1.000000 I-0.104050 J0.036938
G01 X17.489794 Y22.375684 Z-1.000000
G01 X17.509252 Y22.383461 Z-1.000000
G01 X17.535611 Y22.393644 Z-1.000000
G03 X17.559622 Y22.429201 Z-1.000000 I-0.060789 J0.066936
G01 X17.576542 Y22.474941 Z-1.000000
G01 X17.589112 Y22.426871 Z-1.000000
G02 X17.585401 Y22.388314 Z-1.000000 I-0.054557 J-0.014206
G01 X17.561002 Y22.368171 Z-1.000000
G01 X17.529360 Y22.339820 Z-1.000000
G01 X17.542722 Y22.320401 Z-1.000000
G03 X17.618609 Y22.351431 Z-1.000000 I-0.000000 J0.108310
G01 X17.626422 Y22.402591 Z-1.000000
G02 X17.615083 Y22.439636 Z-1.000000 I0.088475 J0.047338
G01 X17.620922 Y22.456151 Z-1.000000
G01 X17.632102 Y22.454911 Z-1.000000
G02 X17.662442 Y22.390601 Z-1.000000 I-0.243522 J-0.154199
G01 X17.688942 Y22.309891 Z-1.000000
G01 X17.678522 Y22.379251 Z-1.000000
G02 X17.679023 Y22.432024 Z-1.000000 I0.165141 J0.024821
G01 X17.688222 Y22.436191 Z-1.000000
G01 X17.702307 Y22.438555 Z-1.000000
G03 X17.721672 Y22.477041 Z-1.000000 I-0.076213 J0.062462
G02 X17.740332 Y22.517292 Z-1.000000 I0.115912 J-0.029285
G01 X17.752222 Y22.519681 Z-1.000000
G01 X17.764606 Y22.521101 Z-1.000000
G03 X17.779072 Y22.546101 Z-1.000000 I-0.037982 J0.038664
G01 X17.785078 Y22.546238 Z-1.000000
G02 X17.793612 Y22.499061 Z-1.000000 I-0.189595 J-0.058658
G01 X17.804260 Y22.496744 Z-1.000000
G03 X17.824982 Y22.558411 Z-1.000000 I-0.178040 J0.094142
G02 X17.848333 Y22.611506 Z-1.000000 I0.114740 J-0.018781
G01 X17.868422 Y22.613641 Z-1.000000
G01 X17.888871 Y22.609452 Z-1.000000
G01 X17.898712 Y22.622641 Z-1.000000
G02 X17.906268 Y22.649235 Z-1.000000 I0.050579 J-0.000000
G01 X17.919732 Y22.656741 Z-1.000000
G01 X17.934711 Y22.662816 Z-1.000000
G01 X17.940752 Y22.677101 Z-1.000000
G01 X17.933030 Y22.686329 Z-1.000000
G03 X17.903972 Y22.683701 Z-1.000000 I-0.009734 J-0.054338
G01 X17.893984 Y22.689175 Z-1.000000
G01 X17.898672 Y22.708611 Z-1.000000
G03 X17.925322 Y22.747449 Z-1.000000 I-0.222016 J0.180910
G01 X17.924942 Y22.754581 Z-1.000000
G01 X17.928523 Y22.784921 Z-1.000000
G01 X17.972232 Y22.795271 Z-1.000000
G03 X18.012965 Y22.797254 Z-1.000000 I0.017089 J0.068319
G01 X18.024782 Y22.814011 Z-1.000000
G01 X18.013732 Y22.835047 Z-1.000000
G03 X17.977492 Y22.846611 Z-1.000000 I-0.037176 J-0.053938
G01 X17.930202 Y22.847280 Z-1.000000
G01 X17.972242 Y22.877420 Z-1.000000
G03 X18.013750 Y22.908235 Z-1.000000 I-0.913992 J1.274517
G03 X18.039262 Y22.928920 Z-1.000000 I-0.381948 J0.497153
G01 X18.058767 Y22.930372 Z-1.000000
G02 X18.080142 Y22.903360 Z-1.000000 I-0.027178 J-0.043470
G01 X18.096042 Y22.856450 Z-1.000000
G01 X18.109152 Y22.919510 Z-1.000000
G03 X18.113195 Y22.980528 Z-1.000000 I-0.216779 J0.045006
G03 X18.102652 Y23.008570 Z-1.000000 I-0.052736 J-0.003824
G02 X18.091600 Y23.035770 Z-1.000000 I0.045777 J0.034444
G02 X18.095252 Y23.066370 Z-1.000000 I0.062873 J0.008015
G01 X18.096633 Y23.090749 Z-1.000000
G01 X18.087052 Y23.098170 Z-1.000000
G01 X18.074875 Y23.089982 Z-1.000000
G03 X18.066692 Y23.048200 Z-1.000000 I0.102571 J-0.041782
G02 X18.034335 Y22.959104 Z-1.000000 I-0.138845 J0.000000
G01 X17.990512 Y22.957160 Z-1.000000
G01 X17.988144 Y22.995908 Z-1.000000
G01 X18.026102 Y23.002690 Z-1.000000
G01 X18.039196 Y23.002186 Z-1.000000
G01 X18.045672 Y23.012860 Z-1.000000
G01 X18.023492 Y23.025231 Z-1.000000
G03 X17.877521 Y22.909006 Z-1.000000 I0.412396 J-0.667722
G02 X17.749886 Y22.790258 Z-1.000000 I-1.469193 J1.451188
G01 X17.729926 Y22.782892 Z-1.000000
G01 X17.717644 Y22.776903 Z-1.000000
G01 X17.717066 Y22.766422 Z-1.000000
G01 X17.716234 Y22.751820 Z-1.000000
G02 X17.665756 Y22.701002 Z-1.000000 I-0.242398 J0.190295
G03 X17.612917 Y22.647872 Z-1.000000 I0.201834 J-0.253567
G01 X17.604266 Y22.622892 Z-1.000000
G01 X17.595892 Y22.603945 Z-1.000000
G01 X17.577996 Y22.598982 Z-1.000000
G01 X17.561694 Y22.594225 Z-1.000000
G01 X17.556766 Y22.578592 Z-1.000000
G02 X17.529595 Y22.520046 Z-1.000000 I-0.053734 J-0.010640
G02 X17.454449 Y22.521822 Z-1.000000 I-0.036058 J0.065028
G01 X17.445524 Y22.518089 Z-1.000000
G03 X17.446749 Y22.488192 Z-1.000000 I0.055505 J-0.012699
G01 X17.441397 Y22.459904 Z-1.000000
G01 X17.417469 Y22.452062 Z-1.000000
G03 X17.383967 Y22.449503 Z-1.000000 I-0.013031 J-0.049979
G01 X17.373039 Y22.432882 Z-1.000000
G01 X17.365329 Y22.415867 Z-1.000000
G01 X17.352449 Y22.414802 Z-1.000000
G03 X17.189286 Y22.385734 Z-1.000000 I-0.065338 J-0.105712
G03 X17.078769 Y22.065476 Z-1.000000 I0.408764 J-0.320258
G01 X17.073121 Y22.052853 Z-1.000000
G01 X17.058409 Y22.047236 Z-1.000000
G01 X17.046257 Y22.064313 Z-1.000000
G02 X17.103209 Y22.176595 Z-1.000000 I0.439997 J-0.152593
G03 X17.138487 Y22.233437 Z-1.000000 I-0.551042 J0.381366
G01 X17.141829 Y22.246375 Z-1.000000
G01 X17.145383 Y22.259268 Z-1.000000
G02 X17.204589 Y22.351577 Z-1.000000 I1.455787 J-0.868585
G01 X17.267349 Y22.442787 Z-1.000000
G01 X17.206669 Y22.507747 Z-1.000000
G03 X17.143576 Y22.567194 Z-1.000000 I-0.496183 J-0.463410
G01 X17.128149 Y22.572807 Z-1.000000
G01 X17.112382 Y22.578063 Z-1.000000
G02 X17.043139 Y22.635867 Z-1.000000 I0.467160 J0.629988
G03 X16.973043 Y22.691699 Z-1.000000 I-0.380954 J-0.406365
G01 X16.948559 Y22.699487 Z-1.000000
G02 X16.843897 Y22.740396 Z-1.000000 I0.003987 J0.164538
G02 X16.805541 Y22.825168 Z-1.000000 I0.074500 J0.084772
G01 X16.812000 Y22.836868 Z-1.000000
G01 X16.824181 Y22.836918 Z-1.000000
G01 X16.841125 Y22.835760 Z-1.000000
G03 X16.868601 Y22.856468 Z-1.000000 I-0.030247 J0.068714
G02 X16.896093 Y22.877101 Z-1.000000 I0.056957 J-0.047258
G01 X16.913271 Y22.875868 Z-1.000000
G01 X16.925788 Y22.878851 Z-1.000000
G03 X16.944731 Y22.927098 Z-1.000000 I-0.125606 J0.077157
G02 X16.966445 Y22.973405 Z-1.000000 I0.104628 J-0.020817
G01 X16.986521 Y22.978788 Z-1.000000
G01 X17.004923 Y22.983295 Z-1.000000
G01 X17.015731 Y23.011868 Z-1.000000
G02 X17.023899 Y23.048041 Z-1.000000 I0.084182 J-0.000000
G01 X17.036751 Y23.056158 Z-1.000000
G01 X17.051045 Y23.049353 Z-1.000000
G01 X17.058091 Y23.029888 Z-1.000000
G01 X17.077612 Y23.025880 Z-1.000000
G03 X17.102351 Y23.129728 Z-1.000000 I-0.267563 J0.118611
G01 X17.108779 Y23.145865 Z-1.000000
G01 X17.114801 Y23.144268 Z-1.000000
G01 X17.155719 Y23.128824 Z-1.000000
G03 X17.191091 Y23.203508 Z-1.000000 I-0.056148 J0.072312
G01 X17.197991 Y23.230718 Z-1.000000
G03 X17.236048 Y23.188612 Z-1.000000 I0.050038 J0.006975
G01 X17.267931 Y23.213648 Z-1.000000
G01 X17.276295 Y23.235998 Z-1.000000
G02 X17.322301 Y23.276138 Z-1.000000 I0.168400 J-0.146574
G03 X17.364482 Y23.313017 Z-1.000000 I-0.111267 J0.169826
G01 X17.364081 Y23.324358 Z-1.000000
G01 X17.350714 Y23.326797 Z-1.000000
G03 X17.283441 Y23.287838 Z-1.000000 I0.159600 J-0.353155
G01 X17.230971 Y23.255868 Z-1.000000
G01 X17.235694 Y23.273304 Z-1.000000
G03 X17.220461 Y23.305148 Z-1.000000 I-0.074337 J-0.015994
G01 X17.219774 Y23.319007 Z-1.000000
G01 X17.232281 Y23.323078 Z-1.000000
G03 X17.337167 Y23.343663 Z-1.000000 I0.035754 J0.095327
G01 X17.330711 Y23.414118 Z-1.000000
G01 X17.321231 Y23.427712 Z-1.000000
G01 X17.326411 Y23.434198 Z-1.000000
G01 X17.347365 Y23.425533 Z-1.000000
G02 X17.372371 Y23.387228 Z-1.000000 I-0.083802 J-0.082021
G01 X17.383107 Y23.385072 Z-1.000000
G01 X17.392711 Y23.407848 Z-1.000000
G03 X17.377569 Y23.463160 Z-1.000000 I-0.101206 J0.002023
G03 X17.342691 Y23.488648 Z-1.000000 I-0.048860 J-0.030253
G03 X17.271311 Y23.481380 Z-1.000000 I-0.025651 J-0.102229
G01 X17.246911 Y23.442548 Z-1.000000
G01 X17.239029 Y23.425108 Z-1.000000
G01 X17.225891 Y23.424008 Z-1.000000
G01 X17.212841 Y23.422671 Z-1.000000
G01 X17.204871 Y23.404228 Z-1.000000
G01 X17.197421 Y23.378865 Z-1.000000
G01 X17.183851 Y23.371458 Z-1.000000
G01 X17.168969 Y23.365283 Z-1.000000
G01 X17.162831 Y23.350438 Z-1.000000
G01 X17.157176 Y23.331760 Z-1.000000
G02 X17.120791 Y23.287378 Z-1.000000 I-0.242302 J0.161535
G03 X17.086492 Y23.242141 Z-1.000000 I0.147314 J-0.147314
G03 X17.078751 Y23.212568 Z-1.000000 I0.052615 J-0.029573
G01 X17.071257 Y23.193268 Z-1.000000
G01 X17.059591 Y23.191638 Z-1.000000
G01 X17.043067 Y23.189913 Z-1.000000
G03 X16.967041 Y23.103548 Z-1.000000 I0.449801 J-0.472603
G02 X16.774961 Y22.932430 Z-1.000000 I-0.498166 J0.365827
G01 X16.721426 Y22.963535 Z-1.000000
G03 X16.710862 Y23.009674 Z-1.000000 I-0.106040 J0.000000
G03 X16.679386 Y23.050535 Z-1.000000 I-0.113402 J-0.054802
G02 X16.638758 Y23.115188 Z-1.000000 I0.083566 J0.097605
G01 X16.658366 Y23.129735 Z-1.000000
G01 X16.670300 Y23.133036 Z-1.000000
G03 X16.679386 Y23.170535 Z-1.000000 I-0.072835 J0.037499
G02 X16.687941 Y23.215821 Z-1.000000 I0.124139 J-0.000000
G01 X16.700406 Y23.224325 Z-1.000000
G01 X16.713893 Y23.216796 Z-1.000000
G02 X16.721426 Y23.190225 Z-1.000000 I-0.043095 J-0.026571
G01 X16.731634 Y23.177873 Z-1.000000
G01 X16.754806 Y23.183825 Z-1.000000
G01 X16.762675 Y23.207169 Z-1.000000
G01 X16.744646 Y23.227635 Z-1.000000
G02 X16.716088 Y23.250522 Z-1.000000 I0.020111 J0.054355
G01 X16.713446 Y23.275895 Z-1.000000
G01 X16.712916 Y23.302305 Z-1.000000
G01 X16.694396 Y23.320095 Z-1.000000
G01 X16.675681 Y23.338626 Z-1.000000
G02 X16.673646 Y23.372815 Z-1.000000 I0.051393 J0.020214
G01 X16.642043 Y23.415731 Z-1.000000
G03 X16.588076 Y23.376715 Z-1.000000 I-0.002434 J-0.053465
G01 X16.585576 Y23.430605 Z-1.000000
G03 X16.576915 Y23.502738 Z-1.000000 I-0.177355 J0.015291
G01 X16.557566 Y23.513815 Z-1.000000
G01 X16.534436 Y23.497136 Z-1.000000
G03 X16.526656 Y23.460735 Z-1.000000 I0.051587 J-0.030058
G01 X16.518416 Y23.432178 Z-1.000000
G01 X16.500146 Y23.427155 Z-1.000000
G01 X16.485442 Y23.422520 Z-1.000000
G01 X16.483086 Y23.401875 Z-1.000000
G01 X16.482541 Y23.382477 Z-1.000000
G01 X16.473086 Y23.379575 Z-1.000000
G01 X16.451082 Y23.379228 Z-1.000000
G03 X16.383256 Y23.319965 Z-1.000000 I0.189118 J-0.284891
G02 X16.238892 Y23.254202 Z-1.000000 I-0.145264 J0.127550
G02 X16.151090 Y23.318865 Z-1.000000 I-0.000425 J0.091365
G01 X16.126796 Y23.331823 Z-1.000000
G03 X16.010943 Y23.276575 Z-1.000000 I0.122648 J-0.406284
G02 X15.895882 Y23.250767 Z-1.000000 I-0.090197 J0.132734
G02 X15.801964 Y23.309345 Z-1.000000 I0.021910 J0.139708
G03 X15.768135 Y23.340633 Z-1.000000 I-0.089052 J-0.062352
G03 X15.732364 Y23.350395 Z-1.000000 I-0.035771 J-0.060656
G02 X15.699453 Y23.358385 Z-1.000000 I-0.000000 J0.071775
G01 X15.691514 Y23.371415 Z-1.000000
G01 X15.698734 Y23.385214 Z-1.000000
G01 X15.721804 Y23.392435 Z-1.000000
G03 X15.749194 Y23.397640 Z-1.000000 I-0.000000 J0.074667
G01 X15.761804 Y23.408195 Z-1.000000
G01 X15.757914 Y23.416455 Z-1.000000
G03 X15.647760 Y23.424695 Z-1.000000 I-0.115004 J-0.796961
G02 X15.528211 Y23.435486 Z-1.000000 I0.004216 J0.714352
G02 X15.498463 Y23.450965 Z-1.000000 I0.009653 J0.054875
G03 X15.470111 Y23.469731 Z-1.000000 I-0.060296 J-0.060296
G03 X15.435263 Y23.476505 Z-1.000000 I-0.034848 J-0.086249
G02 X15.402969 Y23.486175 Z-1.000000 I-0.000000 J0.058761
G02 X15.371353 Y23.518545 Z-1.000000 I0.058194 J0.088463
G03 X15.339306 Y23.550131 Z-1.000000 I-0.082178 J-0.051326
G03 X15.301813 Y23.560585 Z-1.000000 I-0.037493 J-0.062010
G02 X15.261315 Y23.567313 Z-1.000000 I-0.000000 J0.125242
G02 X15.236053 Y23.583065 Z-1.000000 I0.021271 J0.062247
G03 X15.211081 Y23.600801 Z-1.000000 I-0.064828 J-0.064828
G03 X15.174043 Y23.612985 Z-1.000000 I-0.064427 J-0.133462
G02 X15.134548 Y23.620595 Z-1.000000 I0.943416 J5.002407
G02 X15.127753 Y23.622085 Z-1.000000 I0.031190 J0.158494
G01 X15.154023 Y23.656725 Z-1.000000
G03 X15.184541 Y23.748517 Z-1.000000 I-0.076355 J0.076355
G03 X15.134503 Y23.791847 Z-1.000000 I-0.050038 J-0.007228
G03 X15.092691 Y23.781107 Z-1.000000 I-0.000000 J-0.086762
G01 X15.081953 Y23.762947 Z-1.000000
G02 X15.064292 Y23.717773 Z-1.000000 I-0.066605 J0.000000
G02 X14.824931 Y23.484475 Z-1.000000 I-2.324235 J2.145202
G02 X14.749093 Y23.436086 Z-1.000000 I-0.196138 J0.223774
G01 X14.721568 Y23.438785 Z-1.000000
G01 X14.711438 Y23.456666 Z-1.000000
G01 X14.719368 Y23.469405 Z-1.000000
G03 X14.739582 Y23.484166 Z-1.000000 I-0.019654 J0.048135
G01 X14.745638 Y23.500835 Z-1.000000
G02 X14.771343 Y23.555951 Z-1.000000 I0.071941 J0.000000
G02 X14.841978 Y23.581655 Z-1.000000 I0.070635 J-0.084201
G01 X14.852889 Y23.592912 Z-1.000000
G01 X14.840678 Y23.623155 Z-1.000000
G02 X14.820731 Y23.667707 Z-1.000000 I0.058476 J0.052923
G02 X14.829458 Y23.728250 Z-1.000000 I0.123163 J0.013147
G02 X14.884527 Y23.784579 Z-1.000000 I0.097777 J-0.040507
G01 X14.914078 Y23.765570 Z-1.000000
G01 X14.920536 Y23.760619 Z-1.000000
G01 X14.934778 Y23.770870 Z-1.000000
G01 X14.948751 Y23.780209 Z-1.000000
G01 X14.955478 Y23.774670 Z-1.000000
G01 X14.964138 Y23.767362 Z-1.000000
G01 X14.988828 Y23.779970 Z-1.000000
G02 X15.024113 Y23.807574 Z-1.000000 I0.130658 J-0.130658
G01 X15.043628 Y23.813000 Z-1.000000
G01 X15.053924 Y23.820887 Z-1.000000
G01 X15.052628 Y23.846340 Z-1.000000
G01 X15.057197 Y23.871883 Z-1.000000
G02 X15.102928 Y23.903500 Z-1.000000 I0.086356 J-0.076027
G03 X15.153226 Y23.936493 Z-1.000000 I-0.048766 J0.129183
G03 X15.167498 Y23.970000 Z-1.000000 I-0.036314 J0.035260
G01 X15.168998 Y24.012680 Z-1.000000
G01 X15.187058 Y23.970640 Z-1.000000
G01 X15.200919 Y23.952355 Z-1.000000
G01 X15.206598 Y23.954880 Z-1.000000
G01 X15.217105 Y23.972017 Z-1.000000
G02 X15.255368 Y23.983250 Z-1.000000 I0.041947 J-0.072098
G01 X15.302658 Y23.985350 Z-1.000000
G01 X15.250108 Y24.002180 Z-1.000000
G01 X15.231552 Y24.014684 Z-1.000000
G01 X15.234338 Y24.021100 Z-1.000000
G01 X15.260000 Y24.031813 Z-1.000000
G01 X15.265868 Y24.049470 Z-1.000000
G01 X15.272806 Y24.063955 Z-1.000000
G01 X15.302648 Y24.068730 Z-1.000000
G01 X15.322709 Y24.073019 Z-1.000000
G01 X15.323668 Y24.082710 Z-1.000000
G03 X15.299948 Y24.098541 Z-1.000000 I-0.051632 J-0.051677
G03 X15.250098 Y24.113130 Z-1.000000 I-0.092612 J-0.223986
G01 X15.249508 Y24.118924 Z-1.000000
G02 X15.281628 Y24.125740 Z-1.000000 I0.035758 J-0.089417
G03 X15.336167 Y24.136868 Z-1.000000 I-0.006411 J0.170631
G01 X15.337188 Y24.146990 Z-1.000000
G01 X15.324453 Y24.164961 Z-1.000000
G01 X15.329988 Y24.178220 Z-1.000000
G01 X15.342035 Y24.195049 Z-1.000000
G03 X15.341488 Y24.228830 Z-1.000000 I-0.069515 J0.015769
G01 X15.347274 Y24.255156 Z-1.000000
G01 X15.374988 Y24.269540 Z-1.000000
G02 X15.410484 Y24.264402 Z-1.000000 I0.006217 J-0.082234
G01 X15.418288 Y24.253090 Z-1.000000
G01 X15.411418 Y24.240252 Z-1.000000
G01 X15.388728 Y24.233380 Z-1.000000
G01 X15.373127 Y24.222607 Z-1.000000
G03 X15.371238 Y24.187210 Z-1.000000 I0.054531 J-0.020659
G01 X15.383308 Y24.141040 Z-1.000000
G01 X15.398538 Y24.181950 Z-1.000000
G01 X15.414204 Y24.194523 Z-1.000000
G01 X15.428738 Y24.186150 Z-1.000000
G03 X15.447828 Y24.162206 Z-1.000000 I0.050142 J0.020395
G01 X15.463548 Y24.161750 Z-1.000000
G01 X15.471173 Y24.176029 Z-1.000000
G01 X15.462248 Y24.199510 Z-1.000000
G02 X15.449638 Y24.279967 Z-1.000000 I0.061210 J0.050810
G01 X15.504988 Y24.306067 Z-1.000000
G03 X15.535935 Y24.305103 Z-1.000000 I0.017175 J0.054139
G01 X15.544418 Y24.315967 Z-1.000000
G01 X15.538043 Y24.332069 Z-1.000000
G01 X15.523398 Y24.338407 Z-1.000000
G01 X15.509533 Y24.345560 Z-1.000000
G01 X15.502378 Y24.367967 Z-1.000000
G01 X15.512824 Y24.384000 Z-1.000000
G01 X15.544418 Y24.386537 Z-1.000000
G03 X15.577545 Y24.387090 Z-1.000000 I0.015568 J0.059975
G01 X15.586458 Y24.399017 Z-1.000000
G01 X15.579946 Y24.416016 Z-1.000000
G01 X15.565438 Y24.422487 Z-1.000000
G01 X15.550749 Y24.428820 Z-1.000000
G01 X15.544418 Y24.444747 Z-1.000000
G01 X15.551124 Y24.455033 Z-1.000000
G01 X15.565438 Y24.454047 Z-1.000000
G01 X15.576933 Y24.458136 Z-1.000000
G03 X15.586458 Y24.514557 Z-1.000000 I-0.162348 J0.056421
G03 X15.571217 Y24.571592 Z-1.000000 I-0.114339 J-0.000000
G01 X15.545878 Y24.584997 Z-1.000000
G03 X15.517883 Y24.575527 Z-1.000000 I0.004533 J-0.059512
G01 X15.515588 Y24.565287 Z-1.000000
G01 X15.514095 Y24.555174 Z-1.000000
G01 X15.496778 Y24.548627 Z-1.000000
G03 X15.411990 Y24.512905 Z-1.000000 I0.000000 J-0.118485
G03 X15.376270 Y24.425173 Z-1.000000 I0.089879 J-0.087732
G01 X15.368987 Y24.412030 Z-1.000000
G01 X15.355250 Y24.412003 Z-1.000000
G01 X15.340272 Y24.414180 Z-1.000000
G01 X15.334230 Y24.406303 Z-1.000000
G01 X15.327638 Y24.391544 Z-1.000000
G02 X15.282400 Y24.359853 Z-1.000000 I-0.154434 J0.172318
G03 X15.242405 Y24.328924 Z-1.000000 I0.071843 J-0.134222
G01 X15.241070 Y24.315113 Z-1.000000
G01 X15.237726 Y24.262790 Z-1.000000
G02 X15.129292 Y24.177205 Z-1.000000 I-0.244261 J0.197987
G03 X15.074063 Y24.136250 Z-1.000000 I0.078123 J-0.163067
G01 X15.060982 Y24.102595 Z-1.000000
G01 X15.050432 Y24.076052 Z-1.000000
G01 X15.031952 Y24.071845 Z-1.000000
G01 X15.010175 Y24.066147 Z-1.000000
G03 X14.965052 Y23.991155 Z-1.000000 I0.224719 J-0.186286
G02 X14.923202 Y23.911611 Z-1.000000 I-0.446516 J0.184140
G01 X14.911522 Y23.909005 Z-1.000000
G01 X14.900075 Y23.907331 Z-1.000000
G03 X14.882422 Y23.876345 Z-1.000000 I0.063780 J-0.056859
G02 X14.863820 Y23.841053 Z-1.000000 I-0.107704 J0.034221
G01 X14.849382 Y23.834005 Z-1.000000
G01 X14.836784 Y23.827002 Z-1.000000
G01 X14.829782 Y23.802475 Z-1.000000
G01 X14.775988 Y23.771648 Z-1.000000
G02 X14.695280 Y23.881295 Z-1.000000 I0.087097 J0.148637
G02 X14.697131 Y23.926939 Z-1.000000 I0.083733 J0.019463
G01 X14.713780 Y23.939095 Z-1.000000
G03 X14.739015 Y23.945732 Z-1.000000 I-0.000000 J0.051294
G01 X14.745710 Y23.957205 Z-1.000000
G01 X14.737936 Y23.966307 Z-1.000000
G03 X14.687910 Y23.966405 Z-1.000000 I-0.025325 J-0.159831
G01 X14.666710 Y23.971266 Z-1.000000
G01 X14.666890 Y23.980875 Z-1.000000
G03 X14.688982 Y24.044403 Z-1.000000 I-0.028998 J0.045689
G03 X14.630110 Y24.086204 Z-1.000000 I-0.058872 J-0.020556
G03 X14.570102 Y24.072650 Z-1.000000 I-0.000000 J-0.139614
G01 X14.556540 Y24.051174 Z-1.000000
G01 X14.543997 Y24.047748 Z-1.000000
G02 X14.521520 Y24.110494 Z-1.000000 I0.152455 J0.090013
G03 X14.504632 Y24.146468 Z-1.000000 I-0.070017 J-0.010918
G01 X14.493490 Y24.142254 Z-1.000000
G02 X14.454017 Y24.045109 Z-1.000000 I-0.139274 J0.000000
G02 X14.381848 Y24.027560 Z-1.000000 I-0.050069 J0.048737
G02 X14.308633 Y24.066174 Z-1.000000 I0.080395 J0.241151
G01 X14.314828 Y24.078390 Z-1.000000
G03 X14.442210 Y24.078961 Z-1.000000 I0.062749 J0.210367
G01 X14.444075 Y24.118210 Z-1.000000
G03 X14.409358 Y24.121145 Z-1.000000 I-0.021948 J-0.052823
G01 X14.386595 Y24.105040 Z-1.000000
G01 X14.375333 Y24.101352 Z-1.000000
G01 X14.367695 Y24.112440 Z-1.000000
G01 X14.348381 Y24.136843 Z-1.000000
G01 X14.310895 Y24.126370 Z-1.000000
G01 X14.289681 Y24.117587 Z-1.000000
G01 X14.273925 Y24.126370 Z-1.000000
G01 X14.272223 Y24.142309 Z-1.000000
G01 X14.282025 Y24.149220 Z-1.000000
G01 X14.298075 Y24.155463 Z-1.000000
G01 X14.304285 Y24.169580 Z-1.000000
G01 X14.296880 Y24.179182 Z-1.000000
G01 X14.272755 Y24.177880 Z-1.000000
G01 X14.252915 Y24.189800 Z-1.000000
G01 X14.266455 Y24.229130 Z-1.000000
G01 X14.273842 Y24.246963 Z-1.000000
G01 X14.266455 Y24.254350 Z-1.000000
G01 X14.248155 Y24.247428 Z-1.000000
G01 X14.241235 Y24.232090 Z-1.000000
G01 X14.234500 Y24.221904 Z-1.000000
G01 X14.219875 Y24.222990 Z-1.000000
G01 X14.208964 Y24.238691 Z-1.000000
G01 X14.212575 Y24.259010 Z-1.000000
G01 X14.211770 Y24.266913 Z-1.000000
G01 X14.204175 Y24.267910 Z-1.000000
G01 X14.185933 Y24.266254 Z-1.000000
G01 X14.172025 Y24.280430 Z-1.000000
G01 X14.158448 Y24.290243 Z-1.000000
G01 X14.135505 Y24.281530 Z-1.000000
G01 X14.132306 Y24.260172 Z-1.000000
G03 X14.164405 Y24.230860 Z-1.000000 I0.061418 J0.035027
G02 X14.212182 Y24.200272 Z-1.000000 I-0.083140 J-0.182467
G01 X14.220435 Y24.182560 Z-1.000000
G03 X14.222684 Y24.159934 Z-1.000000 I0.131543 J0.001651
G03 X14.234035 Y24.109930 Z-1.000000 I0.670095 J0.125822
G01 X14.247345 Y24.060200 Z-1.000000
G01 X14.202215 Y24.098840 Z-1.000000
G02 X14.165812 Y24.149687 Z-1.000000 I0.085064 J0.099355
G01 X14.177865 Y24.159810 Z-1.000000
G01 X14.185707 Y24.162570 Z-1.000000
G01 X14.185465 Y24.181280 Z-1.000000
G01 X14.165588 Y24.202506 Z-1.000000
G01 X14.133155 Y24.205360 Z-1.000000
G01 X14.104196 Y24.208308 Z-1.000000
G01 X14.094015 Y24.224690 Z-1.000000
G01 X14.072740 Y24.242742 Z-1.000000
G01 X14.050315 Y24.217490 Z-1.000000
G01 X14.044415 Y24.205514 Z-1.000000
G01 X14.038005 Y24.207110 Z-1.000000
G01 X14.024068 Y24.223536 Z-1.000000
G01 X14.011175 Y24.223510 Z-1.000000
G01 X14.004000 Y24.226622 Z-1.000000
G02 X14.003775 Y24.260160 Z-1.000000 I0.086147 J0.017347
G03 X14.005279 Y24.306104 Z-1.000000 I-0.145352 J0.027756
G03 X13.991565 Y24.359360 Z-1.000000 I-0.212417 J-0.026308
G01 X13.979855 Y24.360790 Z-1.000000
G03 X13.968865 Y24.327830 Z-1.000000 I0.047377 J-0.034109
G02 X13.957828 Y24.276286 Z-1.000000 I-0.138199 J0.002638
G01 X13.946515 Y24.275280 Z-1.000000
G01 X13.925817 Y24.286450 Z-1.000000
G01 X13.905125 Y24.275280 Z-1.000000
G01 X13.893918 Y24.275767 Z-1.000000
G02 X13.884105 Y24.314310 Z-1.000000 I0.072286 J0.038926
G02 X13.896358 Y24.366624 Z-1.000000 I0.115562 J0.000526
G01 X13.913745 Y24.373370 Z-1.000000
G01 X13.930173 Y24.378645 Z-1.000000
G01 X13.936545 Y24.407900 Z-1.000000
G03 X13.894755 Y24.527034 Z-1.000000 I-0.342641 J-0.053296
G01 X13.859875 Y24.541669 Z-1.000000
G01 X13.838509 Y24.556444 Z-1.000000
G02 X13.853775 Y24.599559 Z-1.000000 I0.052798 J0.005566
G03 X13.871236 Y24.626143 Z-1.000000 I-0.055445 J0.055445
G01 X13.866855 Y24.632589 Z-1.000000
G01 X13.849444 Y24.627193 Z-1.000000
G03 X13.820545 Y24.600829 Z-1.000000 I0.080135 J-0.116861
G01 X13.794430 Y24.590042 Z-1.000000
G01 X13.764855 Y24.606129 Z-1.000000
G01 X13.745673 Y24.617980 Z-1.000000
G01 X13.738585 Y24.611629 Z-1.000000
G02 X13.727041 Y24.534059 Z-1.000000 I-0.161467 J-0.015614
G01 X13.704145 Y24.528379 Z-1.000000
G01 X13.687718 Y24.554253 Z-1.000000
G01 X13.693635 Y24.568979 Z-1.000000
G01 X13.700583 Y24.585137 Z-1.000000
G03 X13.682405 Y24.623379 Z-1.000000 I-0.087244 J-0.018028
G01 X13.649165 Y24.664179 Z-1.000000
G01 X13.662085 Y24.623879 Z-1.000000
G02 X13.660113 Y24.586336 Z-1.000000 I-0.050566 J-0.016168
G02 X13.607205 Y24.499219 Z-1.000000 I-0.356067 J0.156624
G03 X13.570161 Y24.437287 Z-1.000000 I0.204727 J-0.164499
G01 X13.577645 Y24.429539 Z-1.000000
G02 X13.645426 Y24.425350 Z-1.000000 I0.029301 J-0.076371
G02 X13.673615 Y24.378379 Z-1.000000 I-0.025040 J-0.046971
G01 X13.659916 Y24.368663 Z-1.000000
G02 X13.463304 Y24.452089 Z-1.000000 I0.549654 J1.568780
G03 X13.365645 Y24.494064 Z-1.000000 I-0.401391 J-0.799286
G03 X13.289741 Y24.514739 Z-1.000000 I-0.166020 J-0.459835
G02 X13.222191 Y24.535848 Z-1.000000 I0.054959 J0.294511
G01 X13.216751 Y24.547379 Z-1.000000
G01 X13.214392 Y24.559885 Z-1.000000
G01 X13.203041 Y24.565709 Z-1.000000
G01 X13.167150 Y24.583842 Z-1.000000
G02 X13.148461 Y24.637259 Z-1.000000 I0.072616 J0.055383
G01 X13.154206 Y24.643731 Z-1.000000
G02 X13.179671 Y24.640259 Z-1.000000 I0.005423 J-0.055344
G01 X13.199872 Y24.644668 Z-1.000000
G01 X13.211201 Y24.672449 Z-1.000000
G01 X13.189956 Y24.702845 Z-1.000000
G01 X13.161971 Y24.690459 Z-1.000000
G01 X13.156990 Y24.690865 Z-1.000000
G02 X13.153571 Y24.727239 Z-1.000000 I0.136117 J0.031143
G02 X13.162145 Y24.788048 Z-1.000000 I0.291464 J-0.010085
G02 X13.176021 Y24.817079 Z-1.000000 I0.078424 J-0.019654
G03 X13.187248 Y24.843238 Z-1.000000 I-0.047651 J0.035940
G01 X13.182721 Y24.857369 Z-1.000000
G01 X13.174661 Y24.857788 Z-1.000000
G01 X13.169211 Y24.846349 Z-1.000000
G01 X13.161154 Y24.829880 Z-1.000000
G01 X13.137681 Y24.821829 Z-1.000000
G01 X13.123943 Y24.837895 Z-1.000000
G02 X13.147481 Y24.884139 Z-1.000000 I0.082755 J-0.013009
G02 X13.188779 Y24.903776 Z-1.000000 I0.048269 J-0.048269
G01 X13.222401 Y24.891839 Z-1.000000
G03 X13.256042 Y24.874451 Z-1.000000 I0.044117 J0.044117
G01 X13.279901 Y24.882039 Z-1.000000
G01 X13.282354 Y24.897039 Z-1.000000
G01 X13.268041 Y24.905909 Z-1.000000
G01 X13.243062 Y24.926592 Z-1.000000
G01 X13.258541 Y24.955869 Z-1.000000
G01 X13.225721 Y24.955019 Z-1.000000
G02 X13.177767 Y24.960712 Z-1.000000 I-0.015477 J0.074449
G01 X13.154651 Y24.988569 Z-1.000000
G03 X13.134842 Y25.019155 Z-1.000000 I-0.056154 J-0.014661
G01 X13.112181 Y25.022699 Z-1.000000
G02 X13.081155 Y25.013947 Z-1.000000 I-0.064216 J0.168267
G02 X13.049441 Y25.010999 Z-1.000000 I-0.031714 J0.169145
G01 X13.031481 Y24.999960 Z-1.000000
G01 X13.028171 Y24.968959 Z-1.000000
G02 X13.029942 Y24.934015 Z-1.000000 I-0.083877 J-0.021767
G01 X13.021671 Y24.926919 Z-1.000000
G01 X13.008154 Y24.921369 Z-1.000000
G03 X12.995131 Y24.900649 Z-1.000000 I0.037641 J-0.038111
G01 X12.991231 Y24.909549 Z-1.000000
G01 X12.984766 Y24.930255 Z-1.000000
G01 X12.968391 Y24.934039 Z-1.000000
G01 X12.955073 Y24.916752 Z-1.000000
G03 X12.961191 Y24.868669 Z-1.000000 I0.102915 J-0.011337
G02 X12.966057 Y24.819812 Z-1.000000 I-0.087919 J-0.033428
G01 X12.949041 Y24.795599 Z-1.000000
G01 X12.945414 Y24.763746 Z-1.000000
G03 X13.012821 Y24.737719 Z-1.000000 I0.067407 J0.074276
G02 X13.072667 Y24.725247 Z-1.000000 I-0.000000 J-0.149816
G01 X13.085151 Y24.706189 Z-1.000000
G01 X13.077553 Y24.682255 Z-1.000000
G01 X13.062891 Y24.674659 Z-1.000000
G01 X13.052605 Y24.681365 Z-1.000000
G01 X13.053591 Y24.695679 Z-1.000000
G01 X13.049216 Y24.707016 Z-1.000000
G03 X12.981261 Y24.716699 Z-1.000000 I-0.067955 J-0.233602
G02 X12.912067 Y24.732818 Z-1.000000 I0.000000 J0.156573
G01 X12.895941 Y24.758739 Z-1.000000
G02 X12.904056 Y24.792616 Z-1.000000 I0.074772 J0.000000
G01 X12.917361 Y24.800779 Z-1.000000
G01 X12.927539 Y24.809544 Z-1.000000
G03 X12.925361 Y24.854169 Z-1.000000 I-0.112503 J0.016874
G02 X12.924427 Y24.904448 Z-1.000000 I0.107824 J0.027151
G02 X12.944371 Y24.943499 Z-1.000000 I0.082595 J-0.017564
G03 X12.959278 Y24.980321 Z-1.000000 I-0.043088 J0.038871
G03 X12.947071 Y25.019939 Z-1.000000 I-0.063152 J0.002232
G03 X12.916501 Y25.045980 Z-1.000000 I-0.070286 J-0.051547
G01 X12.901381 Y25.043339 Z-1.000000
G01 X12.898693 Y25.029478 Z-1.000000
G01 X12.911671 Y25.016849 Z-1.000000
G01 X12.921812 Y24.991382 Z-1.000000
G01 X12.889601 Y24.973399 Z-1.000000
G01 X12.857528 Y24.992379 Z-1.000000
G02 X12.841261 Y25.046419 Z-1.000000 I0.081630 J0.054040
G02 X12.848827 Y25.088807 Z-1.000000 I0.122524 J0.000000
G01 X12.857201 Y25.089649 Z-1.000000
G01 X12.874927 Y25.079144 Z-1.000000
G01 X12.896871 Y25.087549 Z-1.000000
G01 X12.906242 Y25.109600 Z-1.000000
G01 X12.897558 Y25.125509 Z-1.000000
G03 X12.822054 Y25.135505 Z-1.000000 I-0.048888 J-0.079117
G01 X12.790820 Y25.093579 Z-1.000000
G01 X12.783076 Y25.081720 Z-1.000000
G02 X12.746210 Y25.073979 Z-1.000000 I-0.036866 J0.083923
G01 X12.725816 Y25.085357 Z-1.000000
G01 X12.727180 Y25.104799 Z-1.000000
G03 X12.743612 Y25.137051 Z-1.000000 I-0.063359 J0.052593
G01 X12.741920 Y25.162599 Z-1.000000
G01 X12.735314 Y25.164596 Z-1.000000
G01 X12.729420 Y25.153999 Z-1.000000
G01 X12.701033 Y25.124432 Z-1.000000
G01 X12.660640 Y25.147999 Z-1.000000
G01 X12.635380 Y25.203449 Z-1.000000
G01 X12.618480 Y25.157749 Z-1.000000
G03 X12.623231 Y25.098810 Z-1.000000 I0.065839 J-0.024354
G01 X12.665960 Y25.073899 Z-1.000000
G02 X12.698823 Y25.065913 Z-1.000000 I0.000000 J-0.071606
G01 X12.706760 Y25.052879 Z-1.000000
G01 X12.743451 Y25.018262 Z-1.000000
G03 X12.796720 Y25.058179 Z-1.000000 I-0.003503 J0.060177
G01 X12.809217 Y25.071754 Z-1.000000
G01 X12.821990 Y25.069689 Z-1.000000
G01 X12.825346 Y25.054726 Z-1.000000
G02 X12.801520 Y25.018569 Z-1.000000 I-0.099792 J0.039832
G03 X12.786652 Y24.983873 Z-1.000000 I0.035930 J-0.035930
G01 X12.800020 Y24.956749 Z-1.000000
G02 X12.821073 Y24.926314 Z-1.000000 I-0.033290 J-0.045527
G02 X12.821670 Y24.878799 Z-1.000000 I-0.089614 J-0.024887
G03 X12.819147 Y24.830633 Z-1.000000 I0.121000 J-0.030487
G01 X12.831170 Y24.812269 Z-1.000000
G02 X12.848712 Y24.795355 Z-1.000000 I-0.029941 J-0.048606
G01 X12.853890 Y24.778269 Z-1.000000
G01 X12.846347 Y24.771768 Z-1.000000
G02 X12.810660 Y24.784769 Z-1.000000 I0.014019 J0.093961
G02 X12.781440 Y24.817467 Z-1.000000 I0.039706 J0.064887
G02 X12.776220 Y24.858509 Z-1.000000 I0.061364 J0.028658
G01 X12.768390 Y24.892071 Z-1.000000
G01 X12.740630 Y24.906119 Z-1.000000
G01 X12.717431 Y24.913314 Z-1.000000
G01 X12.717270 Y24.921879 Z-1.000000
G01 X12.736964 Y24.965121 Z-1.000000
G01 X12.711970 Y24.986279 Z-1.000000
G02 X12.518698 Y24.990734 Z-1.000000 I-0.075743 J0.908640
G01 X12.508255 Y25.012719 Z-1.000000
G01 X12.526355 Y25.025693 Z-1.000000
G02 X12.562025 Y25.025199 Z-1.000000 I0.016836 J-0.072432
G03 X12.598145 Y25.023599 Z-1.000000 I0.021788 J0.083328
G01 X12.613445 Y25.033899 Z-1.000000
G01 X12.609956 Y25.044432 Z-1.000000
G03 X12.565125 Y25.052949 Z-1.000000 I-0.044831 J-0.113732
G02 X12.508065 Y25.060245 Z-1.000000 I0.000000 J0.226787
G02 X12.483895 Y25.074079 Z-1.000000 I0.013350 J0.051354
G01 X12.462474 Y25.078972 Z-1.000000
G03 X12.413695 Y25.049509 Z-1.000000 I0.045718 J-0.130800
G01 X12.364635 Y25.003799 Z-1.000000
G01 X12.336045 Y25.042899 Z-1.000000
G03 X12.314094 Y25.061668 Z-1.000000 I-0.050741 J-0.037124
G01 X12.307455 Y25.057619 Z-1.000000
G01 X12.295247 Y25.046507 Z-1.000000
G02 X12.207615 Y25.067019 Z-1.000000 I0.031137 J0.330478
G01 X12.205749 Y25.078502 Z-1.000000
G02 X12.244395 Y25.097279 Z-1.000000 I0.058348 J-0.070932
G01 X12.244179 Y25.102637 Z-1.000000
G03 X12.193835 Y25.104179 Z-1.000000 I-0.032486 J-0.238092
G01 X12.069710 Y25.094979 Z-1.000000
G01 X12.107760 Y25.137029 Z-1.000000
G03 X12.128609 Y25.171444 Z-1.000000 I-0.078648 J0.071168
G01 X12.123290 Y25.179079 Z-1.000000
G01 X12.105308 Y25.172630 Z-1.000000
G01 X12.091380 Y25.152809 Z-1.000000
G01 X12.071274 Y25.154423 Z-1.000000
G02 X12.076610 Y25.232739 Z-1.000000 I0.155510 J0.028745
G02 X12.105584 Y25.282686 Z-1.000000 I0.133447 J-0.044034
G01 X12.120420 Y25.281439 Z-1.000000
G01 X12.134184 Y25.285640 Z-1.000000
G03 X12.118320 Y25.357749 Z-1.000000 I-0.196631 J-0.005459
G01 X12.106393 Y25.366836 Z-1.000000
G01 X12.098780 Y25.360449 Z-1.000000
G01 X12.087121 Y25.343900 Z-1.000000
G01 X12.065770 Y25.347259 Z-1.000000
G01 X12.042811 Y25.355178 Z-1.000000
G01 X12.034240 Y25.346360 Z-1.000000
G01 X12.025730 Y25.322986 Z-1.000000
G02 X11.929145 Y25.221145 Z-1.000000 I-0.887025 J0.744531
G03 X11.830496 Y25.120196 Z-1.000000 I1.054792 J-1.129436
G01 X11.824051 Y25.103284 Z-1.000000
G01 X11.816719 Y25.087953 Z-1.000000
G02 X11.750481 Y25.043954 Z-1.000000 I-0.270756 J0.335754
G03 X11.683609 Y25.000334 Z-1.000000 I0.225700 J-0.419084
G01 X11.676911 Y24.986624 Z-1.000000
G01 X11.670396 Y24.975475 Z-1.000000
G02 X11.645381 Y24.968914 Z-1.000000 I-0.025015 J0.044402
G01 X11.621908 Y24.960863 Z-1.000000
G01 X11.613851 Y24.944394 Z-1.000000
G01 X11.608924 Y24.931733 Z-1.000000
G01 X11.602131 Y24.931594 Z-1.000000
G01 X11.590248 Y24.932947 Z-1.000000
G03 X11.523881 Y24.882554 Z-1.000000 I0.243781 J-0.389960
G01 X11.507047 Y24.892910 Z-1.000000
G02 X11.545541 Y24.960094 Z-1.000000 I0.151961 J-0.042448
G03 X11.585996 Y25.011850 Z-1.000000 I-0.225899 J0.218263
G01 X11.593161 Y25.036274 Z-1.000000
G01 X11.599863 Y25.041677 Z-1.000000
G01 X11.614181 Y25.031974 Z-1.000000
G01 X11.653050 Y25.030176 Z-1.000000
G03 X11.668651 Y25.100264 Z-1.000000 I-0.063957 J0.051016
G01 X11.681585 Y25.130926 Z-1.000000
G01 X11.704411 Y25.121564 Z-1.000000
G01 X11.710854 Y25.118313 Z-1.000000
G01 X11.716831 Y25.126564 Z-1.000000
G02 X11.724785 Y25.166773 Z-1.000000 I0.157138 J-0.010195
G02 X11.741661 Y25.200134 Z-1.000000 I0.124709 J-0.042135
G01 X11.748950 Y25.199350 Z-1.000000
G01 X11.750461 Y25.179114 Z-1.000000
G01 X11.750718 Y25.156306 Z-1.000000
G01 X11.757061 Y25.155224 Z-1.000000
G01 X11.775141 Y25.164693 Z-1.000000
G01 X11.789771 Y25.155224 Z-1.000000
G01 X11.789894 Y25.179114 Z-1.000000
G02 X11.785737 Y25.257633 Z-1.000000 I0.207891 J0.050376
G01 X11.803014 Y25.277924 Z-1.000000
G01 X11.807733 Y25.274412 Z-1.000000
G01 X11.803014 Y25.265364 Z-1.000000
G01 X11.803926 Y25.254766 Z-1.000000
G03 X11.840054 Y25.248004 Z-1.000000 I0.031126 J0.066407
G03 X11.881333 Y25.261154 Z-1.000000 I-0.006193 J0.090800
G01 X11.882094 Y25.273704 Z-1.000000
G02 X11.862132 Y25.298241 Z-1.000000 I0.045452 J0.057365
G02 X11.852414 Y25.332854 Z-1.000000 I0.084451 J0.042382
G01 X11.861947 Y25.345355 Z-1.000000
G01 X11.884714 Y25.338954 Z-1.000000
G03 X11.967757 Y25.328691 Z-1.000000 I0.048823 J0.053947
G03 X12.006196 Y25.403694 Z-1.000000 I-0.034718 J0.065145
G02 X12.008745 Y25.460456 Z-1.000000 I0.158369 J0.021326
G01 X12.020626 Y25.467024 Z-1.000000
G01 X12.035102 Y25.452928 Z-1.000000
G02 X12.038036 Y25.421734 Z-1.000000 I-0.054126 J-0.020825
G01 X12.043527 Y25.399185 Z-1.000000
G01 X12.059056 Y25.394564 Z-1.000000
G01 X12.086213 Y25.437448 Z-1.000000
G03 X12.047876 Y25.499386 Z-1.000000 I-0.083588 J-0.008904
G01 X12.046530 Y25.508275 Z-1.000000
G01 X12.061146 Y25.515146 Z-1.000000
G02 X12.092850 Y25.507048 Z-1.000000 I0.000550 J-0.063956
G01 X12.108946 Y25.488486 Z-1.000000
G03 X12.178768 Y25.431083 Z-1.000000 I0.085471 J0.032798
G01 X12.223385 Y25.468626 Z-1.000000
G01 X12.227956 Y25.482638 Z-1.000000
G02 X12.277205 Y25.542416 Z-1.000000 I0.535602 J-0.391084
G03 X12.317235 Y25.603545 Z-1.000000 I-0.160267 J0.148621
G01 X12.319045 Y25.638196 Z-1.000000
G02 X12.340361 Y25.722045 Z-1.000000 I0.078099 J0.024780
G02 X12.461442 Y25.775078 Z-1.000000 I0.132548 J-0.137886
G03 X12.501146 Y25.784676 Z-1.000000 I-0.006823 J0.115146
G01 X12.503982 Y25.793808 Z-1.000000
G01 X12.501369 Y25.809522 Z-1.000000
G02 X12.515872 Y25.846358 Z-1.000000 I0.127178 J-0.028801
G02 X12.533191 Y25.866628 Z-1.000000 I0.064407 J-0.037497
G01 X12.538032 Y25.864428 Z-1.000000
G01 X12.544643 Y25.861211 Z-1.000000
G03 X12.599972 Y25.909688 Z-1.000000 I-0.246336 J0.336967
G03 X12.641249 Y25.979380 Z-1.000000 I-0.129517 J0.123778
G03 X12.644222 Y26.049428 Z-1.000000 I-0.127949 J0.040518
G02 X12.654078 Y26.098460 Z-1.000000 I0.059793 J0.013487
G01 X12.680712 Y26.100688 Z-1.000000
G01 X12.735337 Y26.094917 Z-1.000000
G03 X12.769882 Y26.158458 Z-1.000000 I-0.041166 J0.063541
G01 X12.779034 Y26.173447 Z-1.000000
G01 X12.801412 Y26.174658 Z-1.000000
G01 X12.822882 Y26.177194 Z-1.000000
G01 X12.832942 Y26.196338 Z-1.000000
G01 X12.840957 Y26.222102 Z-1.000000
G01 X12.856212 Y26.230118 Z-1.000000
G01 X12.867549 Y26.238321 Z-1.000000
G01 X12.866962 Y26.262738 Z-1.000000
G01 X12.867934 Y26.279096 Z-1.000000
G01 X12.876862 Y26.281518 Z-1.000000
G01 X12.897536 Y26.280412 Z-1.000000
G03 X12.940502 Y26.311958 Z-1.000000 I-0.061812 J0.129222
G03 X12.961234 Y26.347452 Z-1.000000 I-0.068477 J0.063798
G01 X12.954652 Y26.356558 Z-1.000000
G01 X12.946936 Y26.362635 Z-1.000000
G01 X12.950652 Y26.372318 Z-1.000000
G03 X13.041021 Y26.522102 Z-1.000000 I-0.114228 J0.171069
G03 X12.974812 Y26.604601 Z-1.000000 I-0.074806 J0.007782
G03 X12.926772 Y26.600239 Z-1.000000 I-0.013469 J-0.118383
G01 X12.917012 Y26.587081 Z-1.000000
G01 X12.909477 Y26.573371 Z-1.000000
G01 X12.892052 Y26.571231 Z-1.000000
G01 X12.869173 Y26.570386 Z-1.000000
G03 X12.833342 Y26.546711 Z-1.000000 I0.044731 J-0.106651
G02 X12.798134 Y26.515622 Z-1.000000 I-0.340387 J0.349999
G02 X12.739812 Y26.471831 Z-1.000000 I-0.730841 J0.912629
G03 X12.682970 Y26.426497 Z-1.000000 I0.347346 J-0.493826
G03 X12.625121 Y26.368462 Z-1.000000 I0.512734 J-0.568935
G02 X12.568686 Y26.308688 Z-1.000000 I-1.165435 J1.043812
G02 X12.530971 Y26.273872 Z-1.000000 I-0.429284 J0.427188
G03 X12.386540 Y26.130780 Z-1.000000 I0.847241 J-0.999609
G03 X12.370619 Y26.088232 Z-1.000000 I0.049544 J-0.042791
G01 X12.362180 Y26.070338 Z-1.000000
G01 X12.338989 Y26.061962 Z-1.000000
G01 X12.314927 Y26.054467 Z-1.000000
G01 X12.307459 Y26.040242 Z-1.000000
G01 X12.300965 Y26.021207 Z-1.000000
G02 X12.233889 Y25.944952 Z-1.000000 I-0.630017 J0.486547
G03 X12.167022 Y25.868610 Z-1.000000 I0.543468 J-0.543468
G01 X12.160319 Y25.848822 Z-1.000000
G01 X12.152374 Y25.837813 Z-1.000000
G01 X12.128789 Y25.838352 Z-1.000000
G01 X12.103872 Y25.840873 Z-1.000000
G01 X12.097259 Y25.833052 Z-1.000000
G01 X12.092020 Y25.817683 Z-1.000000
G02 X12.023689 Y25.737632 Z-1.000000 I-0.841181 J0.648842
G03 X11.957569 Y25.656670 Z-1.000000 I0.533645 J-0.503294
G01 X11.950119 Y25.633149 Z-1.000000
G01 X11.941559 Y25.611804 Z-1.000000
