%
(Header)
(Generated by gcodetools from Inkscape.)
(Using default header. To add your own header create file "header" in the output dir.)
M3
(Header end.)
G21 (All units in mm)

(Start cutting path id: path7851)
(Change tool to Default tool)

G00 Z 5.0000
G00 X 29.3329 Y 1.6411

G01 Z -1.0000 F 100.0000(Penetrate)
G01 X 29.3437 Y 1.6508 Z -1.0000 F 3500.0000
G01 X 29.3622 Y 1.6549 Z -1.0000
G01 X 29.3736 Y 1.6497 Z -1.0000
G01 X 29.3743 Y 1.6411 Z -1.0000
G01 X 29.3635 Y 1.6314 Z -1.0000
G01 X 29.3451 Y 1.6273 Z -1.0000
G01 X 29.3336 Y 1.6324 Z -1.0000
G01 X 29.3329 Y 1.6411 Z -1.0000
G01 X 29.3329 Y 1.6411 Z -1.0000
G00 Z 5.0000

(End cutting path id: path7851)


(Start cutting path id: path7851)
(Change tool to Default tool)

G00 Z 5.0000
G00 X 29.3951 Y 1.9313

G01 Z -1.0000 F 100.0000(Penetrate)
G01 X 29.4000 Y 1.9402 Z -1.0000 F 3500.0000
G01 X 29.4166 Y 1.9451 Z -1.0000
G01 X 29.4288 Y 1.9399 Z -1.0000
G01 X 29.4296 Y 1.9313 Z -1.0000
G01 X 29.4193 Y 1.9207 Z -1.0000
G01 X 29.4081 Y 1.9175 Z -1.0000
G01 X 29.3990 Y 1.9214 Z -1.0000
G01 X 29.3951 Y 1.9313 Z -1.0000
G01 X 29.3951 Y 1.9313 Z -1.0000
G00 Z 5.0000

(End cutting path id: path7851)


(Start cutting path id: path7851)
(Change tool to Default tool)

G00 Z 5.0000
G00 X 29.4780 Y 1.9728

G01 Z -1.0000 F 100.0000(Penetrate)
G01 X 29.4820 Y 1.9826 Z -1.0000 F 3500.0000
G01 X 29.4918 Y 1.9866 Z -1.0000
G01 X 29.5016 Y 1.9826 Z -1.0000
G01 X 29.5056 Y 1.9728 Z -1.0000
G01 X 29.5016 Y 1.9630 Z -1.0000
G01 X 29.4918 Y 1.9590 Z -1.0000
G01 X 29.4821 Y 1.9630 Z -1.0000
G01 X 29.4780 Y 1.9728 Z -1.0000
G01 X 29.4780 Y 1.9728 Z -1.0000
G00 Z 5.0000

(End cutting path id: path7851)


(Start cutting path id: path7851)
(Change tool to Default tool)

G00 Z 5.0000
G00 X 29.4780 Y 2.1312

G01 Z -1.0000 F 100.0000(Penetrate)
G01 X 29.4760 Y 2.1362 Z -1.0000 F 3500.0000
G03 X 29.4651 Y 2.1452 Z -1.0000 I -0.0378 J -0.0348
G01 X 29.4537 Y 2.1468 Z -1.0000
G01 X 29.4436 Y 2.1391 Z -1.0000
G01 X 29.4444 Y 2.1304 Z -1.0000
G01 X 29.4565 Y 2.1251 Z -1.0000
G03 X 29.4753 Y 2.1277 Z -1.0000 I -0.0000 J 0.0701
G01 X 29.4780 Y 2.1312 Z -1.0000
G01 X 29.4780 Y 2.1312 Z -1.0000
G00 Z 5.0000

(End cutting path id: path7851)


(Start cutting path id: path7851)
(Change tool to Default tool)

G00 Z 5.0000
G00 X 29.3502 Y 2.0896

G01 Z -1.0000 F 100.0000(Penetrate)
G03 X 29.3769 Y 2.1025 Z -1.0000 I -0.0297 J 0.0958 F 3500.0000
G01 X 29.3813 Y 2.1107 Z -1.0000
G01 X 29.3774 Y 2.1195 Z -1.0000
G03 X 29.3607 Y 2.1300 Z -1.0000 I -0.0354 J -0.0379
G01 X 29.3474 Y 2.1293 Z -1.0000
G01 X 29.3434 Y 2.1211 Z -1.0000
G01 X 29.3396 Y 2.1102 Z -1.0000
G01 X 29.3235 Y 2.1042 Z -1.0000
G03 X 29.3015 Y 2.1010 Z -1.0000 I 0.0006 J -0.0816
G01 X 29.2910 Y 2.0948 Z -1.0000
G01 X 29.2871 Y 2.0849 Z -1.0000
G01 X 29.2918 Y 2.0693 Z -1.0000
G01 X 29.3019 Y 2.0626 Z -1.0000
G01 X 29.3104 Y 2.0665 Z -1.0000
G01 X 29.3214 Y 2.0769 Z -1.0000
G02 X 29.3502 Y 2.0896 Z -1.0000 I 0.0704 J -0.1208
G01 X 29.3502 Y 2.0896 Z -1.0000
G00 Z 5.0000

(End cutting path id: path7851)


(Start cutting path id: path7851)
(Change tool to Default tool)

G00 Z 5.0000
G00 X 29.3460 Y 2.1815

G01 Z -1.0000 F 100.0000(Penetrate)
G01 X 29.3364 Y 2.1884 Z -1.0000 F 3500.0000
G01 X 29.3248 Y 2.1865 Z -1.0000
G01 X 29.3179 Y 2.1770 Z -1.0000
G01 X 29.3198 Y 2.1654 Z -1.0000
G01 X 29.3294 Y 2.1585 Z -1.0000
G01 X 29.3410 Y 2.1604 Z -1.0000
G01 X 29.3479 Y 2.1699 Z -1.0000
G01 X 29.3460 Y 2.1815 Z -1.0000
G01 X 29.3460 Y 2.1815 Z -1.0000
G00 Z 5.0000

(End cutting path id: path7851)


(Start cutting path id: path7851)
(Change tool to Default tool)

G00 Z 5.0000
G00 X 29.2548 Y 2.0512

G01 Z -1.0000 F 100.0000(Penetrate)
G01 X 29.2564 Y 2.0549 Z -1.0000 F 3500.0000
G01 X 29.2509 Y 2.0683 Z -1.0000
G01 X 29.2400 Y 2.0760 Z -1.0000
G01 X 29.2219 Y 2.0747 Z -1.0000
G01 X 29.2078 Y 2.0626 Z -1.0000
G01 X 29.2016 Y 2.0390 Z -1.0000
G01 X 29.2096 Y 2.0274 Z -1.0000
G01 X 29.2258 Y 2.0297 Z -1.0000
G02 X 29.2501 Y 2.0481 Z -1.0000 I 1.1730 J -1.5325
G02 X 29.2548 Y 2.0513 Z -1.0000 I 0.0411 J -0.0555
G01 X 29.2548 Y 2.0512 Z -1.0000
G00 Z 5.0000

(End cutting path id: path7851)


(Start cutting path id: path7851)
(Change tool to Default tool)

G00 Z 5.0000
G00 X 29.1641 Y 2.0698

G01 Z -1.0000 F 100.0000(Penetrate)
G03 X 29.1536 Y 2.0932 Z -1.0000 I -0.0763 J -0.0201 F 3500.0000
G01 X 29.1458 Y 2.0974 Z -1.0000
G01 X 29.1350 Y 2.0988 Z -1.0000
G02 X 29.1129 Y 2.1058 Z -1.0000 I 0.0502 J 0.1959
G01 X 29.0973 Y 2.1050 Z -1.0000
G01 X 29.0910 Y 2.0948 Z -1.0000
G01 X 29.0949 Y 2.0769 Z -1.0000
G03 X 29.1076 Y 2.0587 Z -1.0000 I 0.0576 J 0.0266
G03 X 29.1259 Y 2.0465 Z -1.0000 I 0.0399 J 0.0399
G03 X 29.1478 Y 2.0422 Z -1.0000 I 0.0218 J 0.0527
G01 X 29.1613 Y 2.0499 Z -1.0000
G01 X 29.1641 Y 2.0698 Z -1.0000
G01 X 29.1641 Y 2.0698 Z -1.0000
G00 Z 5.0000

(End cutting path id: path7851)


(Start cutting path id: path7851)
(Change tool to Default tool)

G00 Z 5.0000
G00 X 29.2511 Y 1.9570

G01 Z -1.0000 F 100.0000(Penetrate)
G01 X 29.2473 Y 1.9707 Z -1.0000 F 3500.0000
G02 X 29.2514 Y 1.9922 Z -1.0000 I 0.0612 J -0.0004
G01 X 29.2650 Y 2.0066 Z -1.0000
G02 X 29.3008 Y 2.0142 Z -1.0000 I 0.0357 J -0.0803
G01 X 29.3229 Y 2.0067 Z -1.0000
G01 X 29.3234 Y 1.9969 Z -1.0000
G02 X 29.3047 Y 1.9801 Z -1.0000 I -0.3560 J 0.3777
G02 X 29.2822 Y 1.9617 Z -1.0000 I -0.4465 J 0.5223
G01 X 29.2609 Y 1.9525 Z -1.0000
G01 X 29.2511 Y 1.9570 Z -1.0000
G01 X 29.2511 Y 1.9570 Z -1.0000
G00 Z 5.0000

(End cutting path id: path7851)


(Start cutting path id: path7851)
(Change tool to Default tool)

G00 Z 5.0000
G00 X 29.0150 Y 2.0422

G01 Z -1.0000 F 100.0000(Penetrate)
G01 X 29.0046 Y 2.0527 Z -1.0000 F 3500.0000
G01 X 28.9934 Y 2.0560 Z -1.0000
G01 X 28.9843 Y 2.0520 Z -1.0000
G01 X 28.9804 Y 2.0422 Z -1.0000
G01 X 28.9853 Y 2.0332 Z -1.0000
G01 X 29.0020 Y 2.0283 Z -1.0000
G01 X 29.0141 Y 2.0336 Z -1.0000
G01 X 29.0150 Y 2.0422 Z -1.0000
G01 X 29.0150 Y 2.0422 Z -1.0000
G00 Z 5.0000

(End cutting path id: path7851)


(Start cutting path id: path7851)
(Change tool to Default tool)

G00 Z 5.0000
G00 X 29.0150 Y 2.0974

G01 Z -1.0000 F 100.0000(Penetrate)
G01 X 29.0046 Y 2.1080 Z -1.0000 F 3500.0000
G01 X 28.9934 Y 2.1113 Z -1.0000
G01 X 28.9843 Y 2.1073 Z -1.0000
G01 X 28.9804 Y 2.0974 Z -1.0000
G01 X 28.9853 Y 2.0885 Z -1.0000
G01 X 29.0020 Y 2.0836 Z -1.0000
G01 X 29.0141 Y 2.0889 Z -1.0000
G01 X 29.0150 Y 2.0974 Z -1.0000
G01 X 29.0150 Y 2.0974 Z -1.0000
G00 Z 5.0000

(End cutting path id: path7851)


(Start cutting path id: path7851)
(Change tool to Default tool)

G00 Z 5.0000
G00 X 28.9421 Y 1.9200

G01 Z -1.0000 F 100.0000(Penetrate)
G01 X 28.9505 Y 1.9335 Z -1.0000 F 3500.0000
G01 X 28.9640 Y 1.9419 Z -1.0000
G01 X 28.9759 Y 1.9411 Z -1.0000
G01 X 28.9804 Y 1.9339 Z -1.0000
G01 X 28.9761 Y 1.9234 Z -1.0000
G02 X 28.9585 Y 1.9120 Z -1.0000 I -0.0357 J 0.0358
G01 X 28.9452 Y 1.9126 Z -1.0000
G01 X 28.9421 Y 1.9200 Z -1.0000
G01 X 28.9421 Y 1.9200 Z -1.0000
G00 Z 5.0000

(End cutting path id: path7851)


(Start cutting path id: path7851)
(Change tool to Default tool)

G00 Z 5.0000
G00 X 28.8746 Y 1.8559

G01 Z -1.0000 F 100.0000(Penetrate)
G02 X 28.8699 Y 1.8765 Z -1.0000 I 0.0697 J 0.0267 F 3500.0000
G01 X 28.8723 Y 1.8831 Z -1.0000
G01 X 28.8779 Y 1.8835 Z -1.0000
G02 X 28.9015 Y 1.8618 Z -1.0000 I -0.0819 J -0.1124
G01 X 28.9101 Y 1.8413 Z -1.0000
G01 X 28.9038 Y 1.8345 Z -1.0000
G01 X 28.8867 Y 1.8401 Z -1.0000
G01 X 28.8746 Y 1.8559 Z -1.0000
G01 X 28.8746 Y 1.8559 Z -1.0000
G00 Z 5.0000

(End cutting path id: path7851)


(Start cutting path id: path7851)
(Change tool to Default tool)

G00 Z 5.0000
G00 X 28.8491 Y 1.8207

G01 Z -1.0000 F 100.0000(Penetrate)
G01 X 28.8485 Y 1.8301 Z -1.0000 F 3500.0000
G01 X 28.8552 Y 1.8345 Z -1.0000
G01 X 28.8657 Y 1.8304 Z -1.0000
G01 X 28.8699 Y 1.8207 Z -1.0000
G01 X 28.8675 Y 1.8093 Z -1.0000
G01 X 28.8638 Y 1.8069 Z -1.0000
G01 X 28.8587 Y 1.8089 Z -1.0000
G02 X 28.8491 Y 1.8207 Z -1.0000 I 0.0415 J 0.0436
G01 X 28.8491 Y 1.8207 Z -1.0000
G00 Z 5.0000

(End cutting path id: path7851)


(Start cutting path id: path7851)
(Change tool to Default tool)

G00 Z 5.0000
G00 X 28.8120 Y 1.8854

G01 Z -1.0000 F 100.0000(Penetrate)
G01 X 28.8292 Y 1.8884 Z -1.0000 F 3500.0000
G01 X 28.8385 Y 1.8843 Z -1.0000
G01 X 28.8376 Y 1.8800 Z -1.0000
G01 X 28.8203 Y 1.8770 Z -1.0000
G01 X 28.8110 Y 1.8811 Z -1.0000
G01 X 28.8119 Y 1.8854 Z -1.0000
G01 X 28.8120 Y 1.8854 Z -1.0000
G00 Z 5.0000

(End cutting path id: path7851)


(Start cutting path id: path7851)
(Change tool to Default tool)

G00 Z 5.0000
G00 X 28.7593 Y 1.9313

G01 Z -1.0000 F 100.0000(Penetrate)
G01 X 28.7553 Y 1.9413 Z -1.0000 F 3500.0000
G01 X 28.7463 Y 1.9452 Z -1.0000
G01 X 28.7351 Y 1.9419 Z -1.0000
G01 X 28.7247 Y 1.9313 Z -1.0000
G01 X 28.7256 Y 1.9228 Z -1.0000
G01 X 28.7377 Y 1.9175 Z -1.0000
G01 X 28.7544 Y 1.9224 Z -1.0000
G01 X 28.7593 Y 1.9313 Z -1.0000
G01 X 28.7593 Y 1.9313 Z -1.0000
G00 Z 5.0000

(End cutting path id: path7851)


(Start cutting path id: path7851)
(Change tool to Default tool)

G00 Z 5.0000
G00 X 28.7455 Y 1.9852

G01 Z -1.0000 F 100.0000(Penetrate)
G01 X 28.7414 Y 1.9948 Z -1.0000 F 3500.0000
G03 X 28.7236 Y 2.0060 Z -1.0000 I -0.0369 J -0.0388
G03 X 28.7012 Y 2.0117 Z -1.0000 I -0.0356 J -0.0929
G03 X 28.6606 Y 2.0144 Z -1.0000 I -0.0407 J -0.3037
G03 X 28.6295 Y 2.0088 Z -1.0000 I -0.0000 J -0.0887
G01 X 28.6272 Y 2.0018 Z -1.0000
G01 X 28.6373 Y 1.9952 Z -1.0000
G03 X 28.6625 Y 1.9965 Z -1.0000 I 0.0093 J 0.0618
G01 X 28.6843 Y 1.9962 Z -1.0000
G01 X 28.6902 Y 1.9883 Z -1.0000
G01 X 28.6959 Y 1.9786 Z -1.0000
G01 X 28.7178 Y 1.9729 Z -1.0000
G03 X 28.7406 Y 1.9778 Z -1.0000 I 0.0000 J 0.0557
G01 X 28.7455 Y 1.9853 Z -1.0000
G01 X 28.7455 Y 1.9852 Z -1.0000
G00 Z 5.0000

(End cutting path id: path7851)


(Start cutting path id: path7851)
(Change tool to Default tool)

G00 Z 5.0000
G00 X 28.8422 Y 2.0075

G01 Z -1.0000 F 100.0000(Penetrate)
G01 X 28.8492 Y 2.0234 Z -1.0000 F 3500.0000
G01 X 28.8450 Y 2.0282 Z -1.0000
G03 X 28.8309 Y 2.0266 Z -1.0000 I -0.0000 J -0.0621
G03 X 28.8088 Y 2.0198 Z -1.0000 I 0.0385 J -0.1654
G03 X 28.7910 Y 2.0086 Z -1.0000 I 0.0191 J -0.0501
G01 X 28.7869 Y 1.9991 Z -1.0000
G01 X 28.7913 Y 1.9911 Z -1.0000
G01 X 28.8059 Y 1.9867 Z -1.0000
G01 X 28.8228 Y 1.9912 Z -1.0000
G03 X 28.8422 Y 2.0075 Z -1.0000 I -0.0349 J 0.0612
G01 X 28.8422 Y 2.0075 Z -1.0000
G00 Z 5.0000

(End cutting path id: path7851)


(Start cutting path id: path7851)
(Change tool to Default tool)

G00 Z 5.0000
G00 X 28.6280 Y 1.8898

G01 Z -1.0000 F 100.0000(Penetrate)
G01 X 28.6273 Y 1.8992 Z -1.0000 F 3500.0000
G01 X 28.6341 Y 1.9036 Z -1.0000
G01 X 28.6445 Y 1.8995 Z -1.0000
G01 X 28.6487 Y 1.8898 Z -1.0000
G01 X 28.6463 Y 1.8784 Z -1.0000
G01 X 28.6426 Y 1.8760 Z -1.0000
G01 X 28.6376 Y 1.8780 Z -1.0000
G02 X 28.6280 Y 1.8898 Z -1.0000 I 0.0415 J 0.0436
G01 X 28.6280 Y 1.8898 Z -1.0000
G00 Z 5.0000

(End cutting path id: path7851)


(Start cutting path id: path7851)
(Change tool to Default tool)

G00 Z 5.0000
G00 X 28.5208 Y 2.0102

G01 Z -1.0000 F 100.0000(Penetrate)
G03 X 28.4967 Y 2.0133 Z -1.0000 I -0.0242 J -0.0919 F 3500.0000
G03 X 28.4725 Y 2.0102 Z -1.0000 I 0.0000 J -0.0952
G01 X 28.4967 Y 2.0039 Z -1.0000
G01 X 28.5208 Y 2.0102 Z -1.0000
G01 X 28.5208 Y 2.0102 Z -1.0000
G00 Z 5.0000

(End cutting path id: path7851)


(Start cutting path id: path7851)
(Change tool to Default tool)

G00 Z 5.0000
G00 X 28.3597 Y 1.9182

G01 Z -1.0000 F 100.0000(Penetrate)
G03 X 28.3785 Y 1.9350 Z -1.0000 I -0.0252 J 0.0470 F 3500.0000
G01 X 28.3787 Y 1.9459 Z -1.0000
G01 X 28.3691 Y 1.9563 Z -1.0000
G01 X 28.3610 Y 1.9590 Z -1.0000
G01 X 28.3531 Y 1.9557 Z -1.0000
G03 X 28.3340 Y 1.9313 Z -1.0000 I 0.1033 J -0.1009
G01 X 28.3247 Y 1.9037 Z -1.0000
G01 X 28.3323 Y 1.9052 Z -1.0000
G03 X 28.3598 Y 1.9182 Z -1.0000 I -0.1145 J 0.2771
G01 X 28.3597 Y 1.9182 Z -1.0000
G00 Z 5.0000

(End cutting path id: path7851)


(Start cutting path id: path7851)
(Change tool to Default tool)

G00 Z 5.0000
G00 X 28.2893 Y 2.0020

G01 Z -1.0000 F 100.0000(Penetrate)
G01 X 28.2857 Y 2.0108 Z -1.0000 F 3500.0000
G01 X 28.2770 Y 2.0144 Z -1.0000
G01 X 28.2674 Y 2.0104 Z -1.0000
G01 X 28.2570 Y 1.9943 Z -1.0000
G01 X 28.2591 Y 1.9841 Z -1.0000
G01 X 28.2693 Y 1.9820 Z -1.0000
G01 X 28.2854 Y 1.9924 Z -1.0000
G01 X 28.2893 Y 2.0020 Z -1.0000
G01 X 28.2893 Y 2.0020 Z -1.0000
G00 Z 5.0000

(End cutting path id: path7851)


(Start cutting path id: path7851)
(Change tool to Default tool)

G00 Z 5.0000
G00 X 28.1432 Y 1.9990

G01 Z -1.0000 F 100.0000(Penetrate)
G01 X 28.1421 Y 2.0077 Z -1.0000 F 3500.0000
G01 X 28.1225 Y 2.0186 Z -1.0000
G01 X 28.1109 Y 2.0154 Z -1.0000
G01 X 28.1105 Y 2.0064 Z -1.0000
G03 X 28.1276 Y 1.9882 Z -1.0000 I 0.1651 J 0.1376
G01 X 28.1313 Y 1.9867 Z -1.0000
G01 X 28.1348 Y 1.9882 Z -1.0000
G03 X 28.1432 Y 1.9990 Z -1.0000 I -0.0440 J 0.0432
G01 X 28.1432 Y 1.9990 Z -1.0000
G00 Z 5.0000

(End cutting path id: path7851)


(Start cutting path id: path7851)
(Change tool to Default tool)

G00 Z 5.0000
G00 X 28.0060 Y 1.9799

G01 Z -1.0000 F 100.0000(Penetrate)
G03 X 28.0344 Y 2.0023 Z -1.0000 I -0.0346 J 0.0729 F 3500.0000
G01 X 28.0310 Y 2.0111 Z -1.0000
G03 X 28.0021 Y 2.0095 Z -1.0000 I -0.0108 J -0.0668
G03 X 27.9653 Y 1.9929 Z -1.0000 I 0.0352 J -0.1267
G03 X 27.9344 Y 1.9673 Z -1.0000 I 0.0995 J -0.1518
G01 X 27.9300 Y 1.9563 Z -1.0000
G01 X 27.9336 Y 1.9489 Z -1.0000
G01 X 27.9403 Y 1.9483 Z -1.0000
G02 X 27.9508 Y 1.9535 Z -1.0000 I 0.2458 J -0.4832
G02 X 28.0060 Y 1.9799 Z -1.0000 I 4.6380 J -9.6216
G01 X 28.0060 Y 1.9799 Z -1.0000
G00 Z 5.0000

(End cutting path id: path7851)


(Start cutting path id: path7851)
(Change tool to Default tool)

G00 Z 5.0000
G00 X 27.9083 Y 2.0159

G01 Z -1.0000 F 100.0000(Penetrate)
G01 X 27.8992 Y 2.0255 Z -1.0000 F 3500.0000
G01 X 27.8906 Y 2.0282 Z -1.0000
G01 X 27.8844 Y 2.0241 Z -1.0000
G03 X 27.8784 Y 1.9995 Z -1.0000 I 0.0710 J -0.0304
G01 X 27.8845 Y 1.9867 Z -1.0000
G01 X 27.8960 Y 1.9872 Z -1.0000
G01 X 27.9091 Y 2.0048 Z -1.0000
G01 X 27.9083 Y 2.0159 Z -1.0000
G01 X 27.9083 Y 2.0159 Z -1.0000
G00 Z 5.0000

(End cutting path id: path7851)


(Start cutting path id: path7851)
(Change tool to Default tool)

G00 Z 5.0000
G00 X 27.8018 Y 2.0090

G01 Z -1.0000 F 100.0000(Penetrate)
G01 X 27.7926 Y 2.0131 Z -1.0000 F 3500.0000
G01 X 27.7753 Y 2.0101 Z -1.0000
G01 X 27.7744 Y 2.0058 Z -1.0000
G01 X 27.7837 Y 2.0017 Z -1.0000
G01 X 27.8010 Y 2.0047 Z -1.0000
G01 X 27.8019 Y 2.0090 Z -1.0000
G01 X 27.8018 Y 2.0090 Z -1.0000
G00 Z 5.0000

(End cutting path id: path7851)


(Start cutting path id: path7851)
(Change tool to Default tool)

G00 Z 5.0000
G00 X 27.7641 Y 1.9452

G01 Z -1.0000 F 100.0000(Penetrate)
G01 X 27.7599 Y 1.9549 Z -1.0000 F 3500.0000
G01 X 27.7495 Y 1.9590 Z -1.0000
G01 X 27.7427 Y 1.9546 Z -1.0000
G01 X 27.7434 Y 1.9452 Z -1.0000
G03 X 27.7530 Y 1.9334 Z -1.0000 I 0.0500 J 0.0309
G01 X 27.7580 Y 1.9314 Z -1.0000
G01 X 27.7617 Y 1.9338 Z -1.0000
G01 X 27.7641 Y 1.9452 Z -1.0000
G01 X 27.7641 Y 1.9452 Z -1.0000
G00 Z 5.0000

(End cutting path id: path7851)


(Start cutting path id: path7851)
(Change tool to Default tool)

G00 Z 5.0000
G00 X 27.8609 Y 1.8899

G01 Z -1.0000 F 100.0000(Penetrate)
G01 X 27.8619 Y 1.8975 Z -1.0000 F 3500.0000
G01 X 27.8488 Y 1.9035 Z -1.0000
G01 X 27.8330 Y 1.9116 Z -1.0000
G01 X 27.8335 Y 1.9248 Z -1.0000
G03 X 27.8448 Y 1.9455 Z -1.0000 I -0.0474 J 0.0392
G01 X 27.8427 Y 1.9541 Z -1.0000
G01 X 27.8334 Y 1.9580 Z -1.0000
G03 X 27.8131 Y 1.9542 Z -1.0000 I -0.0001 J -0.0566
G01 X 27.7981 Y 1.9417 Z -1.0000
G01 X 27.7917 Y 1.9191 Z -1.0000
G03 X 27.7973 Y 1.8959 Z -1.0000 I 0.0509 J -0.0000
G01 X 27.8090 Y 1.8852 Z -1.0000
G03 X 27.8265 Y 1.8788 Z -1.0000 I 0.1114 J 0.2784
G01 X 27.8332 Y 1.8773 Z -1.0000
G01 X 27.8397 Y 1.8783 Z -1.0000
G03 X 27.8609 Y 1.8898 Z -1.0000 I -0.0641 J 0.1426
G01 X 27.8609 Y 1.8899 Z -1.0000
G00 Z 5.0000

(End cutting path id: path7851)


(Start cutting path id: path7851)
(Change tool to Default tool)

G00 Z 5.0000
G00 X 27.9300 Y 1.8702

G01 Z -1.0000 F 100.0000(Penetrate)
G01 X 27.9357 Y 1.8841 Z -1.0000 F 3500.0000
G01 X 27.9464 Y 1.8867 Z -1.0000
G01 X 27.9599 Y 1.8783 Z -1.0000
G01 X 27.9683 Y 1.8648 Z -1.0000
G01 X 27.9657 Y 1.8541 Z -1.0000
G01 X 27.9519 Y 1.8484 Z -1.0000
G01 X 27.9364 Y 1.8548 Z -1.0000
G01 X 27.9300 Y 1.8702 Z -1.0000
G01 X 27.9300 Y 1.8702 Z -1.0000
G00 Z 5.0000

(End cutting path id: path7851)


(Start cutting path id: path7851)
(Change tool to Default tool)

G00 Z 5.0000
G00 X 28.0129 Y 1.8484

G01 Z -1.0000 F 100.0000(Penetrate)
G01 X 28.0169 Y 1.8581 Z -1.0000 F 3500.0000
G01 X 28.0267 Y 1.8622 Z -1.0000
G01 X 28.0365 Y 1.8581 Z -1.0000
G01 X 28.0405 Y 1.8484 Z -1.0000
G01 X 28.0365 Y 1.8386 Z -1.0000
G01 X 28.0267 Y 1.8345 Z -1.0000
G01 X 28.0169 Y 1.8386 Z -1.0000
G01 X 28.0129 Y 1.8484 Z -1.0000
G01 X 28.0129 Y 1.8484 Z -1.0000
G00 Z 5.0000

(End cutting path id: path7851)


(Start cutting path id: path7851)
(Change tool to Default tool)

G00 Z 5.0000
G00 X 28.1008 Y 1.8484

G01 Z -1.0000 F 100.0000(Penetrate)
G03 X 28.1084 Y 1.8830 Z -1.0000 I -0.7298 J 0.1767 F 3500.0000
G03 X 28.1094 Y 1.8933 Z -1.0000 I -0.0587 J 0.0113
G01 X 28.1130 Y 1.9002 Z -1.0000
G01 X 28.1234 Y 1.9037 Z -1.0000
G01 X 28.1326 Y 1.8991 Z -1.0000
G01 X 28.1368 Y 1.8864 Z -1.0000
G01 X 28.1328 Y 1.8704 Z -1.0000
G02 X 28.1144 Y 1.8415 Z -1.0000 I -0.1471 J 0.0735
G01 X 28.1049 Y 1.8394 Z -1.0000
G01 X 28.1008 Y 1.8484 Z -1.0000
G01 X 28.1008 Y 1.8484 Z -1.0000
G00 Z 5.0000

(End cutting path id: path7851)


(Start cutting path id: path7851)
(Change tool to Default tool)

G00 Z 5.0000
G00 X 27.7062 Y 1.8025

G01 Z -1.0000 F 100.0000(Penetrate)
G01 X 27.7235 Y 1.8055 Z -1.0000 F 3500.0000
G01 X 27.7327 Y 1.8014 Z -1.0000
G01 X 27.7318 Y 1.7971 Z -1.0000
G01 X 27.7146 Y 1.7941 Z -1.0000
G01 X 27.7053 Y 1.7982 Z -1.0000
G01 X 27.7062 Y 1.8025 Z -1.0000
G01 X 27.7062 Y 1.8025 Z -1.0000
G00 Z 5.0000

(End cutting path id: path7851)


(Start cutting path id: path7851)
(Change tool to Default tool)

G00 Z 5.0000
G00 X 27.6329 Y 1.8071

G01 Z -1.0000 F 100.0000(Penetrate)
G01 X 27.6431 Y 1.8148 Z -1.0000 F 3500.0000
G01 X 27.6545 Y 1.8132 Z -1.0000
G02 X 27.6654 Y 1.8042 Z -1.0000 I -0.0273 J -0.0441
G01 X 27.6674 Y 1.7992 Z -1.0000
G01 X 27.6647 Y 1.7957 Z -1.0000
G02 X 27.6458 Y 1.7931 Z -1.0000 I -0.0189 J 0.0675
G01 X 27.6338 Y 1.7984 Z -1.0000
G01 X 27.6329 Y 1.8071 Z -1.0000
G01 X 27.6329 Y 1.8071 Z -1.0000
G00 Z 5.0000

(End cutting path id: path7851)


(Start cutting path id: path7851)
(Change tool to Default tool)

G00 Z 5.0000
G00 X 27.5430 Y 1.7920

G01 Z -1.0000 F 100.0000(Penetrate)
G01 X 27.5469 Y 1.8012 Z -1.0000 F 3500.0000
G02 X 27.5637 Y 1.8119 Z -1.0000 I 0.0348 J -0.0364
G01 X 27.5799 Y 1.8133 Z -1.0000
G01 X 27.5844 Y 1.8079 Z -1.0000
G01 X 27.5805 Y 1.7987 Z -1.0000
G02 X 27.5637 Y 1.7880 Z -1.0000 I -0.0348 J 0.0360
G01 X 27.5474 Y 1.7865 Z -1.0000
G01 X 27.5430 Y 1.7920 Z -1.0000
G01 X 27.5430 Y 1.7920 Z -1.0000
G00 Z 5.0000

(End cutting path id: path7851)


(Start cutting path id: path7851)
(Change tool to Default tool)

G00 Z 5.0000
G00 X 27.5015 Y 1.9313

G01 Z -1.0000 F 100.0000(Penetrate)
G01 X 27.4974 Y 1.9411 Z -1.0000 F 3500.0000
G01 X 27.4877 Y 1.9452 Z -1.0000
G01 X 27.4779 Y 1.9411 Z -1.0000
G01 X 27.4738 Y 1.9313 Z -1.0000
G01 X 27.4779 Y 1.9216 Z -1.0000
G01 X 27.4877 Y 1.9175 Z -1.0000
G01 X 27.4974 Y 1.9216 Z -1.0000
G01 X 27.5015 Y 1.9313 Z -1.0000
G01 X 27.5015 Y 1.9313 Z -1.0000
G00 Z 5.0000

(End cutting path id: path7851)


(Start cutting path id: path7851)
(Change tool to Default tool)

G00 Z 5.0000
G00 X 27.6121 Y 2.0059

G01 Z -1.0000 F 100.0000(Penetrate)
G01 X 27.6097 Y 2.0092 Z -1.0000 F 3500.0000
G03 X 27.5784 Y 2.0176 Z -1.0000 I -0.0724 J -0.2072
G03 X 27.5457 Y 2.0191 Z -1.0000 I -0.0214 J -0.1133
G01 X 27.5266 Y 2.0125 Z -1.0000
G01 X 27.5273 Y 2.0065 Z -1.0000
G03 X 27.5602 Y 2.0008 Z -1.0000 I 0.0334 J 0.0955
G03 X 27.6096 Y 2.0031 Z -1.0000 I 0.0020 J 0.4805
G01 X 27.6121 Y 2.0059 Z -1.0000
G01 X 27.6121 Y 2.0059 Z -1.0000
G00 Z 5.0000

(End cutting path id: path7851)


(Start cutting path id: path7851)
(Change tool to Default tool)

G00 Z 5.0000
G00 X 27.3575 Y 1.7912

G01 Z -1.0000 F 100.0000(Penetrate)
G02 X 27.3226 Y 1.8056 Z -1.0000 I 0.0225 J 0.1041 F 3500.0000
G01 X 27.3115 Y 1.8207 Z -1.0000
G01 X 27.3136 Y 1.8250 Z -1.0000
G01 X 27.3184 Y 1.8237 Z -1.0000
G01 X 27.3332 Y 1.8132 Z -1.0000
G01 X 27.3518 Y 1.8140 Z -1.0000
G01 X 27.3707 Y 1.8143 Z -1.0000
G01 X 27.3904 Y 1.8006 Z -1.0000
G01 X 27.4030 Y 1.7809 Z -1.0000
G03 X 27.3978 Y 1.7823 Z -1.0000 I -0.0191 J -0.0594
G03 X 27.3575 Y 1.7913 Z -1.0000 I -0.6872 J -2.9989
G01 X 27.3575 Y 1.7912 Z -1.0000
G00 Z 5.0000

(End cutting path id: path7851)


(Start cutting path id: path7851)
(Change tool to Default tool)

G00 Z 5.0000
G00 X 27.1905 Y 1.9037

G01 Z -1.0000 F 100.0000(Penetrate)
G01 X 27.1796 Y 1.9134 Z -1.0000 F 3500.0000
G01 X 27.1612 Y 1.9175 Z -1.0000
G01 X 27.1498 Y 1.9124 Z -1.0000
G01 X 27.1490 Y 1.9037 Z -1.0000
G01 X 27.1599 Y 1.8940 Z -1.0000
G01 X 27.1783 Y 1.8899 Z -1.0000
G01 X 27.1898 Y 1.8950 Z -1.0000
G01 X 27.1905 Y 1.9037 Z -1.0000
G01 X 27.1905 Y 1.9037 Z -1.0000
G00 Z 5.0000

(End cutting path id: path7851)


(Start cutting path id: path7851)
(Change tool to Default tool)

G00 Z 5.0000
G00 X 27.1283 Y 1.8815

G01 Z -1.0000 F 100.0000(Penetrate)
G01 X 27.1232 Y 1.8972 Z -1.0000 F 3500.0000
G01 X 27.1089 Y 1.9082 Z -1.0000
G03 X 27.0904 Y 1.9116 Z -1.0000 I -0.0185 J -0.0482
G01 X 27.0821 Y 1.9082 Z -1.0000
G01 X 27.0803 Y 1.9005 Z -1.0000
G03 X 27.0911 Y 1.8820 Z -1.0000 I 0.0527 J 0.0182
G03 X 27.1088 Y 1.8659 Z -1.0000 I 0.0782 J 0.0683
G01 X 27.1179 Y 1.8627 Z -1.0000
G01 X 27.1244 Y 1.8663 Z -1.0000
G01 X 27.1283 Y 1.8815 Z -1.0000
G01 X 27.1283 Y 1.8815 Z -1.0000
G00 Z 5.0000

(End cutting path id: path7851)


(Start cutting path id: path7851)
(Change tool to Default tool)

G00 Z 5.0000
G00 X 26.5371 Y 1.8371

G01 Z -1.0000 F 100.0000(Penetrate)
G01 X 26.5455 Y 1.8506 Z -1.0000 F 3500.0000
G01 X 26.5590 Y 1.8590 Z -1.0000
G01 X 26.5709 Y 1.8582 Z -1.0000
G01 X 26.5754 Y 1.8510 Z -1.0000
G01 X 26.5711 Y 1.8405 Z -1.0000
G01 X 26.5535 Y 1.8291 Z -1.0000
G01 X 26.5402 Y 1.8297 Z -1.0000
G01 X 26.5371 Y 1.8371 Z -1.0000
G01 X 26.5371 Y 1.8371 Z -1.0000
G00 Z 5.0000

(End cutting path id: path7851)


(Start cutting path id: path7851)
(Change tool to Default tool)

G00 Z 5.0000
G00 X 26.4245 Y 1.8149

G01 Z -1.0000 F 100.0000(Penetrate)
G01 X 26.4285 Y 1.8242 Z -1.0000 F 3500.0000
G01 X 26.4329 Y 1.8233 Z -1.0000
G01 X 26.4358 Y 1.8061 Z -1.0000
G01 X 26.4318 Y 1.7968 Z -1.0000
G01 X 26.4274 Y 1.7977 Z -1.0000
G01 X 26.4245 Y 1.8150 Z -1.0000
G01 X 26.4245 Y 1.8149 Z -1.0000
G00 Z 5.0000

(End cutting path id: path7851)


(Start cutting path id: path7851)
(Change tool to Default tool)

G00 Z 5.0000
G00 X 26.3474 Y 1.7516

G01 Z -1.0000 F 100.0000(Penetrate)
G01 X 26.3458 Y 1.7585 Z -1.0000 F 3500.0000
G01 X 26.3585 Y 1.7645 Z -1.0000
G02 X 26.3864 Y 1.7592 Z -1.0000 I 0.0017 J -0.0671
G01 X 26.3888 Y 1.7516 Z -1.0000
G01 X 26.3776 Y 1.7388 Z -1.0000
G01 X 26.3750 Y 1.7398 Z -1.0000
G02 X 26.3474 Y 1.7516 Z -1.0000 I 2.1787 J 5.1318
G01 X 26.3474 Y 1.7516 Z -1.0000
G00 Z 5.0000

(End cutting path id: path7851)


(Start cutting path id: path7851)
(Change tool to Default tool)

G00 Z 5.0000
G00 X 26.2106 Y 1.7769

G01 Z -1.0000 F 100.0000(Penetrate)
G01 X 26.2087 Y 1.7896 Z -1.0000 F 3500.0000
G01 X 26.2167 Y 1.8004 Z -1.0000
G01 X 26.2313 Y 1.8062 Z -1.0000
G01 X 26.2370 Y 1.8044 Z -1.0000
G01 X 26.2385 Y 1.7987 Z -1.0000
G02 X 26.2309 Y 1.7809 Z -1.0000 I -0.0632 J 0.0164
G01 X 26.2195 Y 1.7730 Z -1.0000
G01 X 26.2106 Y 1.7769 Z -1.0000
G01 X 26.2106 Y 1.7769 Z -1.0000
G00 Z 5.0000

(End cutting path id: path7851)


(Start cutting path id: path7851)
(Change tool to Default tool)

G00 Z 5.0000
G00 X 26.0959 Y 1.7906

G01 Z -1.0000 F 100.0000(Penetrate)
G01 X 26.0873 Y 1.8035 Z -1.0000 F 3500.0000
G02 X 26.0830 Y 1.8668 Z -1.0000 I 0.3096 J 0.0526
G03 X 26.0799 Y 1.9307 Z -1.0000 I -0.3793 J 0.0134
G01 X 26.0731 Y 1.9412 Z -1.0000
G01 X 26.0626 Y 1.9417 Z -1.0000
G01 X 26.0492 Y 1.9298 Z -1.0000
G01 X 26.0429 Y 1.9100 Z -1.0000
G03 X 26.0456 Y 1.8784 Z -1.0000 I 0.1023 J -0.0071
G01 X 26.0402 Y 1.8646 Z -1.0000
G01 X 26.0242 Y 1.8644 Z -1.0000
G02 X 26.0024 Y 1.8855 Z -1.0000 I 0.0378 J 0.0606
G01 X 26.0009 Y 1.8995 Z -1.0000
G01 X 25.9986 Y 1.9075 Z -1.0000
G01 X 25.9885 Y 1.9089 Z -1.0000
G01 X 25.9701 Y 1.9077 Z -1.0000
G02 X 25.9270 Y 1.9238 Z -1.0000 I 0.0450 J 0.1861
G03 X 25.8908 Y 1.9351 Z -1.0000 I -0.0505 J -0.0975
G01 X 25.8843 Y 1.9294 Z -1.0000
G01 X 25.8806 Y 1.9217 Z -1.0000
G01 X 25.8752 Y 1.9220 Z -1.0000
G01 X 25.8658 Y 1.9247 Z -1.0000
G01 X 25.8476 Y 1.9157 Z -1.0000
G03 X 25.8322 Y 1.8988 Z -1.0000 I 0.0520 J -0.0624
G01 X 25.8290 Y 1.8882 Z -1.0000
G01 X 25.8330 Y 1.8800 Z -1.0000
G01 X 25.8448 Y 1.8760 Z -1.0000
G01 X 25.8583 Y 1.8804 Z -1.0000
G03 X 25.8776 Y 1.8995 Z -1.0000 I -0.0495 J 0.0694
G01 X 25.8956 Y 1.9053 Z -1.0000
G02 X 25.9306 Y 1.8822 Z -1.0000 I -0.0246 J -0.0755
G02 X 25.9639 Y 1.8405 Z -1.0000 I -0.4360 J -0.3832
G01 X 25.9668 Y 1.8324 Z -1.0000
G01 X 25.9632 Y 1.8293 Z -1.0000
G02 X 25.9327 Y 1.8393 Z -1.0000 I 0.0272 J 0.1346
G02 X 25.9069 Y 1.8589 Z -1.0000 I 0.0314 J 0.0679
G01 X 25.9046 Y 1.8726 Z -1.0000
G01 X 25.9068 Y 1.8869 Z -1.0000
G01 X 25.9036 Y 1.8898 Z -1.0000
G01 X 25.8970 Y 1.8877 Z -1.0000
G03 X 25.8754 Y 1.8691 Z -1.0000 I 0.1100 J -0.1500
G02 X 25.8535 Y 1.8511 Z -1.0000 I -0.1029 J 0.1029
G01 X 25.8445 Y 1.8484 Z -1.0000
G01 X 25.8351 Y 1.8508 Z -1.0000
G02 X 25.8075 Y 1.8689 Z -1.0000 I 0.1080 J 0.1956
G01 X 25.7951 Y 1.8892 Z -1.0000
G01 X 25.8014 Y 1.9046 Z -1.0000
G01 X 25.8017 Y 1.9107 Z -1.0000
G01 X 25.7921 Y 1.9133 Z -1.0000
G01 X 25.7729 Y 1.9161 Z -1.0000
G01 X 25.7693 Y 1.9259 Z -1.0000
G01 X 25.7678 Y 1.9390 Z -1.0000
G01 X 25.7561 Y 1.9451 Z -1.0000
G01 X 25.7405 Y 1.9386 Z -1.0000
G01 X 25.7281 Y 1.9166 Z -1.0000
G01 X 25.7309 Y 1.8935 Z -1.0000
G01 X 25.7494 Y 1.8775 Z -1.0000
G01 X 25.7589 Y 1.8667 Z -1.0000
G01 X 25.7541 Y 1.8576 Z -1.0000
G01 X 25.7309 Y 1.8557 Z -1.0000
G02 X 25.7010 Y 1.8686 Z -1.0000 I 0.0165 J 0.0791
G01 X 25.6745 Y 1.8750 Z -1.0000
G01 X 25.6530 Y 1.8617 Z -1.0000
G02 X 25.6316 Y 1.8390 Z -1.0000 I -0.0889 J 0.0622
G01 X 25.6188 Y 1.8345 Z -1.0000
G01 X 25.6150 Y 1.8396 Z -1.0000
G02 X 25.6265 Y 1.8598 Z -1.0000 I 0.0509 J -0.0156
G03 X 25.6455 Y 1.8865 Z -1.0000 I -0.1054 J 0.0954
G01 X 25.6493 Y 1.9013 Z -1.0000
G01 X 25.6456 Y 1.9137 Z -1.0000
G01 X 25.6386 Y 1.9175 Z -1.0000
G01 X 25.6286 Y 1.9150 Z -1.0000
G03 X 25.5970 Y 1.8959 Z -1.0000 I 0.1275 J -0.2460
G02 X 25.5672 Y 1.8865 Z -1.0000 I -0.0298 J 0.0425
G01 X 25.5446 Y 1.8959 Z -1.0000
G03 X 25.5215 Y 1.9140 Z -1.0000 I -0.0878 J -0.0878
G01 X 25.5092 Y 1.9175 Z -1.0000
G01 X 25.4960 Y 1.9152 Z -1.0000
G03 X 25.4687 Y 1.9032 Z -1.0000 I 0.0642 J -0.1822
G02 X 25.4470 Y 1.8972 Z -1.0000 I -0.0241 J 0.0451
G01 X 25.4420 Y 1.9020 Z -1.0000
G01 X 25.4459 Y 1.9124 Z -1.0000
G01 X 25.4593 Y 1.9216 Z -1.0000
G01 X 25.4639 Y 1.9301 Z -1.0000
G01 X 25.4534 Y 1.9469 Z -1.0000
G02 X 25.4353 Y 1.9688 Z -1.0000 I 0.0457 J 0.0563
G02 X 25.4245 Y 2.0003 Z -1.0000 I 0.0887 J 0.0479
G01 X 25.4158 Y 2.0051 Z -1.0000
G01 X 25.4015 Y 1.9900 Z -1.0000
G02 X 25.3808 Y 1.9498 Z -1.0000 I -0.2029 J 0.0788
G01 X 25.3721 Y 1.9451 Z -1.0000
G01 X 25.3625 Y 1.9491 Z -1.0000
G02 X 25.3453 Y 1.9727 Z -1.0000 I 0.0758 J 0.0734
G03 X 25.3271 Y 1.9946 Z -1.0000 I -0.0620 J -0.0330
G01 X 25.3107 Y 2.0003 Z -1.0000
G03 X 25.2918 Y 1.9967 Z -1.0000 I 0.0000 J -0.0508
G03 X 25.2416 Y 1.9727 Z -1.0000 I 0.1582 J -0.3950
G02 X 25.1920 Y 1.9465 Z -1.0000 I -0.5382 J 0.9585
G01 X 25.1859 Y 1.9451 Z -1.0000
G01 X 25.1823 Y 1.9480 Z -1.0000
G02 X 25.1794 Y 1.9736 Z -1.0000 I 0.1135 J 0.0257
G01 X 25.1708 Y 1.9904 Z -1.0000
G01 X 25.1518 Y 1.9934 Z -1.0000
G01 X 25.1298 Y 1.9924 Z -1.0000
G01 X 25.1241 Y 1.9994 Z -1.0000
G01 X 25.1288 Y 2.0096 Z -1.0000
G01 X 25.1414 Y 2.0144 Z -1.0000
G01 X 25.1446 Y 2.0186 Z -1.0000
G01 X 25.1379 Y 2.0278 Z -1.0000
G01 X 25.1234 Y 2.0267 Z -1.0000
G01 X 25.1102 Y 2.0036 Z -1.0000
G02 X 25.0963 Y 1.9729 Z -1.0000 I -0.0707 J 0.0134
G01 X 25.0772 Y 1.9611 Z -1.0000
G01 X 25.0625 Y 1.9674 Z -1.0000
G01 X 25.0579 Y 1.9910 Z -1.0000
G01 X 25.0541 Y 2.0193 Z -1.0000
G01 X 25.0372 Y 2.0330 Z -1.0000
G01 X 25.0119 Y 2.0329 Z -1.0000
G01 X 24.9900 Y 2.0203 Z -1.0000
G02 X 24.9682 Y 2.0049 Z -1.0000 I -0.0556 J 0.0556
G01 X 24.9482 Y 2.0004 Z -1.0000
G01 X 24.9420 Y 2.0073 Z -1.0000
G01 X 24.9513 Y 2.0280 Z -1.0000
G01 X 24.9607 Y 2.0487 Z -1.0000
G01 X 24.9546 Y 2.0556 Z -1.0000
G02 X 24.9332 Y 2.0576 Z -1.0000 I -0.0000 J 0.1155
G02 X 24.9122 Y 2.0635 Z -1.0000 I 0.0229 J 0.1217
G01 X 24.8962 Y 2.0619 Z -1.0000
G01 X 24.8832 Y 2.0448 Z -1.0000
G01 X 24.8670 Y 2.0295 Z -1.0000
G02 X 24.8000 Y 2.0234 Z -1.0000 I -0.0522 J 0.2029
G03 X 24.7286 Y 2.0224 Z -1.0000 I -0.0297 J -0.4204
G01 X 24.7169 Y 2.0151 Z -1.0000
G01 X 24.7064 Y 2.0078 Z -1.0000
G01 X 24.6883 Y 2.0093 Z -1.0000
G01 X 24.6740 Y 2.0213 Z -1.0000
G01 X 24.6680 Y 2.0433 Z -1.0000
G01 X 24.6628 Y 2.0642 Z -1.0000
G01 X 24.6541 Y 2.0694 Z -1.0000
G01 X 24.6442 Y 2.0733 Z -1.0000
G01 X 24.6403 Y 2.0821 Z -1.0000
G01 X 24.6452 Y 2.0913 Z -1.0000
G02 X 24.6783 Y 2.1079 Z -1.0000 I 0.0794 J -0.1171
G01 X 24.6887 Y 2.1225 Z -1.0000
G01 X 24.6783 Y 2.1389 Z -1.0000
G02 X 24.6469 Y 2.1612 Z -1.0000 I 0.0461 J 0.0983
G01 X 24.6392 Y 2.1788 Z -1.0000
G01 X 24.6355 Y 2.1828 Z -1.0000
G01 X 24.6307 Y 2.1800 Z -1.0000
G02 X 24.6205 Y 2.1612 Z -1.0000 I -0.0653 J 0.0235
G02 X 24.6015 Y 2.1419 Z -1.0000 I -0.0874 J 0.0670
G01 X 24.5998 Y 2.1314 Z -1.0000
G01 X 24.6135 Y 2.1238 Z -1.0000
G01 X 24.6203 Y 2.1181 Z -1.0000
G01 X 24.6161 Y 2.1104 Z -1.0000
G03 X 24.5900 Y 2.0945 Z -1.0000 I 0.0351 J -0.0871
G01 X 24.5850 Y 2.0836 Z -1.0000
G01 X 24.5808 Y 2.0735 Z -1.0000
G01 X 24.5709 Y 2.0694 Z -1.0000
G01 X 24.5635 Y 2.0755 Z -1.0000
G02 X 24.5622 Y 2.1184 Z -1.0000 I 0.1474 J 0.0263
G01 X 24.5550 Y 2.1400 Z -1.0000
G01 X 24.5421 Y 2.1401 Z -1.0000
G02 X 24.5127 Y 2.1233 Z -1.0000 I -0.0416 J 0.0388
G02 X 24.4506 Y 2.1199 Z -1.0000 I -0.0412 J 0.1874
G02 X 24.3858 Y 2.1296 Z -1.0000 I 0.0915 J 0.8306
G01 X 24.3778 Y 2.1338 Z -1.0000
G01 X 24.3776 Y 2.1397 Z -1.0000
G02 X 24.3945 Y 2.1537 Z -1.0000 I 0.0470 J -0.0395
G01 X 24.4096 Y 2.1699 Z -1.0000
G01 X 24.4102 Y 2.1872 Z -1.0000
G03 X 24.3999 Y 2.2040 Z -1.0000 I -0.0496 J -0.0191
G01 X 24.3917 Y 2.2076 Z -1.0000
G01 X 24.3841 Y 2.2034 Z -1.0000
G03 X 24.3732 Y 2.1782 Z -1.0000 I 0.0771 J -0.0483
G01 X 24.3585 Y 2.1599 Z -1.0000
G01 X 24.3291 Y 2.1557 Z -1.0000
G01 X 24.3089 Y 2.1541 Z -1.0000
G01 X 24.3076 Y 2.1478 Z -1.0000
G02 X 24.3197 Y 2.1318 Z -1.0000 I -0.0522 J -0.0522
G01 X 24.3224 Y 2.1214 Z -1.0000
G01 X 24.3179 Y 2.1176 Z -1.0000
G02 X 24.2913 Y 2.1271 Z -1.0000 I 0.0153 J 0.0849
G03 X 24.2595 Y 2.1397 Z -1.0000 I -0.0642 J -0.1155
G01 X 24.2395 Y 2.1403 Z -1.0000
G01 X 24.2334 Y 2.1441 Z -1.0000
G01 X 24.2360 Y 2.1540 Z -1.0000
G03 X 24.2512 Y 2.1726 Z -1.0000 I -0.1016 J 0.0985
G01 X 24.2533 Y 2.1793 Z -1.0000
G01 X 24.2497 Y 2.1834 Z -1.0000
G03 X 24.1913 Y 2.1882 Z -1.0000 I -0.0682 J -0.4754
G03 X 24.1367 Y 2.1793 Z -1.0000 I -0.0034 J -0.1516
G01 X 24.1210 Y 2.1630 Z -1.0000
G01 X 24.1083 Y 2.1522 Z -1.0000
G01 X 24.0885 Y 2.1582 Z -1.0000
G03 X 24.0631 Y 2.1764 Z -1.0000 I -0.0911 J -0.1007
G01 X 24.0492 Y 2.1799 Z -1.0000
G01 X 24.0378 Y 2.1852 Z -1.0000
G02 X 24.0249 Y 2.2086 Z -1.0000 I 0.0516 J 0.0439
G01 X 24.0113 Y 2.2205 Z -1.0000
G01 X 23.9907 Y 2.2145 Z -1.0000
G01 X 23.9676 Y 2.2048 Z -1.0000
G01 X 23.9539 Y 2.2122 Z -1.0000
G01 X 23.9390 Y 2.2280 Z -1.0000
G03 X 23.9157 Y 2.2374 Z -1.0000 I -0.0344 J -0.0522
G02 X 23.8912 Y 2.2465 Z -1.0000 I 0.0128 J 0.0719
G02 X 23.8545 Y 2.2736 Z -1.0000 I 0.1146 J 0.1932
G03 X 23.8216 Y 2.2931 Z -1.0000 I -0.0634 J -0.0696
G01 X 23.8100 Y 2.2889 Z -1.0000
G01 X 23.7973 Y 2.2837 Z -1.0000
G02 X 23.7511 Y 2.3029 Z -1.0000 I 0.0364 J 0.1528
G02 X 23.7057 Y 2.3359 Z -1.0000 I 0.2013 J 0.3257
G01 X 23.6955 Y 2.3498 Z -1.0000
G01 X 23.6873 Y 2.3547 Z -1.0000
G01 X 23.6753 Y 2.3475 Z -1.0000
G01 X 23.6584 Y 2.3370 Z -1.0000
G02 X 23.6121 Y 2.3378 Z -1.0000 I -0.0209 J 0.1358
G03 X 23.5688 Y 2.3392 Z -1.0000 I -0.0262 J -0.1396
G01 X 23.5622 Y 2.3317 Z -1.0000
G01 X 23.5561 Y 2.3233 Z -1.0000
G02 X 23.5311 Y 2.3210 Z -1.0000 I -0.0171 J 0.0500
G02 X 23.5077 Y 2.3312 Z -1.0000 I 0.0075 J 0.0495
G01 X 23.5034 Y 2.3427 Z -1.0000
G01 X 23.5012 Y 2.3551 Z -1.0000
G01 X 23.4931 Y 2.3597 Z -1.0000
G01 X 23.4841 Y 2.3645 Z -1.0000
G01 X 23.4792 Y 2.3804 Z -1.0000
G01 X 23.4858 Y 2.3945 Z -1.0000
G01 X 23.5041 Y 2.4011 Z -1.0000
G02 X 23.5272 Y 2.3967 Z -1.0000 I 0.0000 J -0.0619
G02 X 23.5456 Y 2.3846 Z -1.0000 I -0.0206 J -0.0513
G01 X 23.5579 Y 2.3778 Z -1.0000
G01 X 23.5617 Y 2.3811 Z -1.0000
G01 X 23.5586 Y 2.3932 Z -1.0000
G03 X 23.5429 Y 2.4184 Z -1.0000 I -0.1447 J -0.0728
G03 X 23.5219 Y 2.4371 Z -1.0000 I -0.0582 J -0.0442
G01 X 23.5019 Y 2.4426 Z -1.0000
G01 X 23.4856 Y 2.4362 Z -1.0000
G01 X 23.4792 Y 2.4218 Z -1.0000
G01 X 23.4744 Y 2.4059 Z -1.0000
G01 X 23.4654 Y 2.4011 Z -1.0000
G01 X 23.4564 Y 2.3964 Z -1.0000
G01 X 23.4516 Y 2.3811 Z -1.0000
G01 X 23.4453 Y 2.3642 Z -1.0000
G02 X 23.4009 Y 2.3224 Z -1.0000 I -0.2235 J 0.1930
G02 X 23.3541 Y 2.2964 Z -1.0000 I -0.1129 J 0.1481
G01 X 23.3445 Y 2.3009 Z -1.0000
G01 X 23.3340 Y 2.3117 Z -1.0000
G03 X 23.2976 Y 2.3182 Z -1.0000 I -0.0364 J -0.0991
G02 X 23.2683 Y 2.3248 Z -1.0000 I 0.0000 J 0.0679
G01 X 23.2658 Y 2.3333 Z -1.0000
G01 X 23.2783 Y 2.3418 Z -1.0000
G02 X 23.3156 Y 2.3425 Z -1.0000 I 0.0208 J -0.1115
G03 X 23.3442 Y 2.3461 Z -1.0000 I 0.0079 J 0.0536
G01 X 23.3485 Y 2.3561 Z -1.0000
G02 X 23.3429 Y 2.3760 Z -1.0000 I 0.1114 J 0.0425
G02 X 23.3410 Y 2.3953 Z -1.0000 I 0.1000 J 0.0193
G01 X 23.3329 Y 2.4068 Z -1.0000
G03 X 23.2857 Y 2.4149 Z -1.0000 I -0.0472 J -0.1331
G02 X 23.2385 Y 2.4230 Z -1.0000 I 0.0000 J 0.1411
G01 X 23.2305 Y 2.4345 Z -1.0000
G01 X 23.2352 Y 2.4506 Z -1.0000
G01 X 23.2465 Y 2.4594 Z -1.0000
G01 X 23.2530 Y 2.4683 Z -1.0000
G01 X 23.2469 Y 2.4916 Z -1.0000
G01 X 23.2353 Y 2.5029 Z -1.0000
G01 X 23.2309 Y 2.5002 Z -1.0000
G01 X 23.2251 Y 2.4954 Z -1.0000
G01 X 23.2087 Y 2.5037 Z -1.0000
G03 X 23.1857 Y 2.5223 Z -1.0000 I -0.0982 J -0.0982
G01 X 23.1750 Y 2.5255 Z -1.0000
G01 X 23.1647 Y 2.5223 Z -1.0000
G01 X 23.1544 Y 2.5116 Z -1.0000
G01 X 23.1550 Y 2.5029 Z -1.0000
G01 X 23.1658 Y 2.4978 Z -1.0000
G01 X 23.1807 Y 2.4913 Z -1.0000
G02 X 23.1938 Y 2.4672 Z -1.0000 I -0.0421 J -0.0385
G02 X 23.1944 Y 2.4395 Z -1.0000 I -0.0582 J -0.0152
G01 X 23.1850 Y 2.4260 Z -1.0000
G02 X 23.1676 Y 2.4172 Z -1.0000 I -0.0517 J 0.0807
G01 X 23.1570 Y 2.4151 Z -1.0000
G01 X 23.1506 Y 2.4194 Z -1.0000
G01 X 23.1482 Y 2.4391 Z -1.0000
G03 X 23.1497 Y 2.4633 Z -1.0000 I -0.2837 J 0.0299
G03 X 23.1490 Y 2.4744 Z -1.0000 I -0.0724 J 0.0014
G01 X 23.1440 Y 2.4777 Z -1.0000
G03 X 23.1189 Y 2.4656 Z -1.0000 I 0.0236 J -0.0816
G02 X 23.0891 Y 2.4525 Z -1.0000 I -0.0479 J 0.0685
G02 X 23.0622 Y 2.4530 Z -1.0000 I -0.0124 J 0.0559
G01 X 23.0369 Y 2.4527 Z -1.0000
G01 X 23.0206 Y 2.4411 Z -1.0000
G01 X 23.0085 Y 2.4340 Z -1.0000
G01 X 23.0001 Y 2.4391 Z -1.0000
G01 X 22.9899 Y 2.4517 Z -1.0000
G01 X 22.9750 Y 2.4564 Z -1.0000
G01 X 22.9605 Y 2.4617 Z -1.0000
G01 X 22.9484 Y 2.4787 Z -1.0000
G01 X 22.9352 Y 2.4920 Z -1.0000
G01 X 22.9109 Y 2.4934 Z -1.0000
G01 X 22.8945 Y 2.5002 Z -1.0000
G02 X 22.8876 Y 2.5333 Z -1.0000 I 0.0460 J 0.0269
G03 X 22.8836 Y 2.5725 Z -1.0000 I -0.0902 J 0.0106
G01 X 22.8717 Y 2.5812 Z -1.0000
G02 X 22.8516 Y 2.5856 Z -1.0000 I 0.0011 J 0.0535
G02 X 22.8235 Y 2.6020 Z -1.0000 I 0.0539 J 0.1252
G03 X 22.7957 Y 2.6196 Z -1.0000 I -0.1241 J -0.1641
G01 X 22.7852 Y 2.6223 Z -1.0000
G01 X 22.7799 Y 2.6174 Z -1.0000
G03 X 22.7824 Y 2.5877 Z -1.0000 I 0.0927 J -0.0073
G01 X 22.7750 Y 2.5684 Z -1.0000
G01 X 22.7446 Y 2.5620 Z -1.0000
G02 X 22.6997 Y 2.5741 Z -1.0000 I 0.0562 J 0.2990
G02 X 22.6810 Y 2.5844 Z -1.0000 I 0.0218 J 0.0620
G01 X 22.6691 Y 2.6007 Z -1.0000
G02 X 22.6637 Y 2.6306 Z -1.0000 I 0.0798 J 0.0299
G01 X 22.6540 Y 2.6554 Z -1.0000
G03 X 22.6257 Y 2.6715 Z -1.0000 I -0.0399 J -0.0371
G02 X 22.5878 Y 2.6804 Z -1.0000 I 0.2992 J 1.3598
G02 X 22.5691 Y 2.6857 Z -1.0000 I 0.0787 J 0.3155
G01 X 22.5548 Y 2.6956 Z -1.0000
G02 X 22.5433 Y 2.7191 Z -1.0000 I 0.0519 J 0.0401
G03 X 22.5315 Y 2.7408 Z -1.0000 I -0.0508 J -0.0134
G01 X 22.5184 Y 2.7467 Z -1.0000
G01 X 22.5043 Y 2.7415 Z -1.0000
G01 X 22.4923 Y 2.7247 Z -1.0000
G03 X 22.4884 Y 2.7031 Z -1.0000 I 0.0565 J -0.0215
G01 X 22.4925 Y 2.6888 Z -1.0000
G01 X 22.4907 Y 2.6821 Z -1.0000
G01 X 22.4753 Y 2.6799 Z -1.0000
G01 X 22.4574 Y 2.6917 Z -1.0000
G02 X 22.4484 Y 2.7192 Z -1.0000 I 0.0427 J 0.0292
G03 X 22.4449 Y 2.7531 Z -1.0000 I -0.2416 J -0.0075
G03 X 22.4371 Y 2.7846 Z -1.0000 I -0.2219 J -0.0385
G03 X 22.4236 Y 2.8113 Z -1.0000 I -0.0951 J -0.0311
G01 X 22.4151 Y 2.8157 Z -1.0000
G01 X 22.4058 Y 2.8122 Z -1.0000
G01 X 22.3986 Y 2.8013 Z -1.0000
G01 X 22.3901 Y 2.7916 Z -1.0000
G02 X 22.3649 Y 2.7847 Z -1.0000 I -0.0304 J 0.0616
G01 X 22.3464 Y 2.7751 Z -1.0000
G01 X 22.3425 Y 2.7577 Z -1.0000
G01 X 22.3424 Y 2.7379 Z -1.0000
G01 X 22.3357 Y 2.7328 Z -1.0000
G01 X 22.3241 Y 2.7364 Z -1.0000
G02 X 22.3008 Y 2.7570 Z -1.0000 I 0.0752 J 0.1086
G02 X 22.2837 Y 2.7833 Z -1.0000 I 0.0761 J 0.0681
G02 X 22.2745 Y 2.8157 Z -1.0000 I 0.1081 J 0.0484
G01 X 22.2623 Y 2.8418 Z -1.0000
G01 X 22.2432 Y 2.8503 Z -1.0000
G02 X 22.2205 Y 2.8556 Z -1.0000 I 0.0001 J 0.0526
G01 X 22.2117 Y 2.8656 Z -1.0000
G01 X 22.2025 Y 2.8739 Z -1.0000
G03 X 22.1725 Y 2.8743 Z -1.0000 I -0.0160 J -0.0725
G02 X 22.1439 Y 2.8743 Z -1.0000 I -0.0142 J 0.0741
G01 X 22.1384 Y 2.8809 Z -1.0000
G01 X 22.1336 Y 2.8891 Z -1.0000
G01 X 22.1144 Y 2.8940 Z -1.0000
G03 X 22.0922 Y 2.8897 Z -1.0000 I 0.0000 J -0.0599
G03 X 22.0744 Y 2.8781 Z -1.0000 I 0.0197 J -0.0492
G03 X 22.0614 Y 2.8605 Z -1.0000 I 0.0527 J -0.0527
G03 X 22.0517 Y 2.8355 Z -1.0000 I 0.0986 J -0.0526
G01 X 22.0474 Y 2.8335 Z -1.0000
G01 X 22.0433 Y 2.8399 Z -1.0000
G03 X 22.0366 Y 2.8656 Z -1.0000 I -0.0654 J -0.0034
G01 X 22.0279 Y 2.8710 Z -1.0000
G01 X 22.0189 Y 2.8758 Z -1.0000
G01 X 22.0140 Y 2.8917 Z -1.0000
G01 X 22.0185 Y 2.9080 Z -1.0000
G01 X 22.0264 Y 2.9124 Z -1.0000
G01 X 22.0333 Y 2.9177 Z -1.0000
G03 X 22.0369 Y 2.9504 Z -1.0000 I -0.1003 J 0.0276
G03 X 22.0290 Y 2.9854 Z -1.0000 I -0.1061 J -0.0056
G03 X 22.0141 Y 3.0053 Z -1.0000 I -0.0464 J -0.0192
G03 X 21.9923 Y 3.0193 Z -1.0000 I -0.0726 J -0.0894
G01 X 21.9795 Y 3.0223 Z -1.0000
G01 X 21.9864 Y 3.0081 Z -1.0000
G01 X 21.9726 Y 3.0033 Z -1.0000
G02 X 21.9382 Y 3.0135 Z -1.0000 I 0.2748 J 0.9850
G02 X 21.9185 Y 3.0203 Z -1.0000 I 0.1187 J 0.3742
G01 X 21.9107 Y 3.0181 Z -1.0000
G01 X 21.9103 Y 3.0094 Z -1.0000
G01 X 21.9108 Y 3.0020 Z -1.0000
G01 X 21.9063 Y 3.0006 Z -1.0000
G01 X 21.8975 Y 3.0122 Z -1.0000
G01 X 21.8982 Y 3.0290 Z -1.0000
G01 X 21.8988 Y 3.0456 Z -1.0000
G01 X 21.8896 Y 3.0577 Z -1.0000
G01 X 21.8756 Y 3.0581 Z -1.0000
G03 X 21.8533 Y 3.0383 Z -1.0000 I 0.0301 J -0.0565
G02 X 21.8292 Y 3.0164 Z -1.0000 I -0.0610 J 0.0428
G02 X 21.8026 Y 3.0094 Z -1.0000 I -0.0262 J 0.0460
G01 X 21.7915 Y 3.0152 Z -1.0000
G01 X 21.7930 Y 3.0228 Z -1.0000
G01 X 21.8029 Y 3.0385 Z -1.0000
G01 X 21.7979 Y 3.0615 Z -1.0000
G02 X 21.7902 Y 3.0873 Z -1.0000 I 0.0438 J 0.0271
G02 X 21.7965 Y 3.1138 Z -1.0000 I 0.0528 J 0.0014
G01 X 21.7998 Y 3.1303 Z -1.0000
G01 X 21.7885 Y 3.1269 Z -1.0000
G01 X 21.7701 Y 3.1354 Z -1.0000
G01 X 21.7579 Y 3.1371 Z -1.0000
G01 X 21.7515 Y 3.1274 Z -1.0000
G01 X 21.7445 Y 3.1124 Z -1.0000
G01 X 21.7287 Y 3.1084 Z -1.0000
G01 X 21.7114 Y 3.1182 Z -1.0000
G01 X 21.7020 Y 3.1383 Z -1.0000
G03 X 21.6961 Y 3.1626 Z -1.0000 I -0.1264 J -0.0181
G01 X 21.6904 Y 3.1717 Z -1.0000
G01 X 21.6860 Y 3.1710 Z -1.0000
G01 X 21.6825 Y 3.1567 Z -1.0000
G01 X 21.6733 Y 3.1434 Z -1.0000
G02 X 21.6278 Y 3.1359 Z -1.0000 I -0.0409 J 0.1076
G02 X 21.5744 Y 3.1419 Z -1.0000 I 0.0149 J 0.3720
G02 X 21.5553 Y 3.1494 Z -1.0000 I 0.0100 J 0.0538
G01 X 21.5558 Y 3.1555 Z -1.0000
G02 X 21.5834 Y 3.1610 Z -1.0000 I 0.0279 J -0.0680
G03 X 21.6193 Y 3.1685 Z -1.0000 I -0.0004 J 0.0909
G01 X 21.6237 Y 3.1785 Z -1.0000
G01 X 21.6138 Y 3.1905 Z -1.0000
G03 X 21.5914 Y 3.1972 Z -1.0000 I -0.0251 J -0.0434
G02 X 21.5650 Y 3.1988 Z -1.0000 I 0.0829 J 1.5556
G02 X 21.5429 Y 3.2007 Z -1.0000 I 0.0549 J 0.7810
G02 X 21.5226 Y 3.2068 Z -1.0000 I 0.0048 J 0.0527
G02 X 21.4911 Y 3.2285 Z -1.0000 I 0.0824 J 0.1531
G02 X 21.4646 Y 3.2558 Z -1.0000 I 0.1452 J 0.1676
G01 X 21.4613 Y 3.2650 Z -1.0000
G01 X 21.4646 Y 3.2741 Z -1.0000
G02 X 21.4988 Y 3.3104 Z -1.0000 I 0.2889 J -0.2385
G01 X 21.5028 Y 3.3282 Z -1.0000
G01 X 21.4883 Y 3.3361 Z -1.0000
G02 X 21.4434 Y 3.3380 Z -1.0000 I -0.0184 J 0.0975
G02 X 21.4059 Y 3.3589 Z -1.0000 I 0.0244 J 0.0880
G03 X 21.3697 Y 3.3879 Z -1.0000 I -0.2242 J -0.2425
G03 X 21.3459 Y 3.4005 Z -1.0000 I -0.0639 J -0.0923
G01 X 21.3298 Y 3.4145 Z -1.0000
G01 X 21.3286 Y 3.4320 Z -1.0000
G01 X 21.3239 Y 3.4425 Z -1.0000
G01 X 21.2954 Y 3.4446 Z -1.0000
G02 X 21.2624 Y 3.4460 Z -1.0000 I -0.0139 J 0.0636
G01 X 21.2540 Y 3.4573 Z -1.0000
G01 X 21.2475 Y 3.4727 Z -1.0000
G01 X 21.2316 Y 3.4792 Z -1.0000
G01 X 21.2231 Y 3.4858 Z -1.0000
G01 X 21.2264 Y 3.4999 Z -1.0000
G01 X 21.2248 Y 3.5119 Z -1.0000
G01 X 21.1970 Y 3.5211 Z -1.0000
G01 X 21.1762 Y 3.5283 Z -1.0000
G01 X 21.1768 Y 3.5368 Z -1.0000
G01 X 21.1863 Y 3.5531 Z -1.0000
G01 X 21.1772 Y 3.5713 Z -1.0000
G01 X 21.1638 Y 3.5929 Z -1.0000
G01 X 21.1689 Y 3.6189 Z -1.0000
G01 X 21.1683 Y 3.6334 Z -1.0000
G01 X 21.1547 Y 3.6379 Z -1.0000
G03 X 21.1252 Y 3.6248 Z -1.0000 I 0.0352 J -0.1191
G03 X 21.1074 Y 3.6091 Z -1.0000 I 0.0354 J -0.0580
G02 X 21.0902 Y 3.5936 Z -1.0000 I -0.0541 J 0.0427
G01 X 21.0770 Y 3.5897 Z -1.0000
G01 X 21.0645 Y 3.5943 Z -1.0000
G02 X 21.0484 Y 3.6138 Z -1.0000 I 0.0457 J 0.0541
G01 X 21.0338 Y 3.6296 Z -1.0000
G01 X 21.0259 Y 3.6288 Z -1.0000
G01 X 21.0228 Y 3.6189 Z -1.0000
G03 X 21.0334 Y 3.5888 Z -1.0000 I 0.1030 J 0.0194
G01 X 21.0339 Y 3.5724 Z -1.0000
G01 X 21.0242 Y 3.5686 Z -1.0000
G03 X 20.9980 Y 3.5774 Z -1.0000 I -0.0766 J -0.1841
G03 X 20.9811 Y 3.5799 Z -1.0000 I -0.0198 J -0.0760
G01 X 20.9675 Y 3.5840 Z -1.0000
G01 X 20.9638 Y 3.5906 Z -1.0000
G01 X 20.9674 Y 3.5981 Z -1.0000
G02 X 20.9876 Y 3.6097 Z -1.0000 I 0.0470 J -0.0582
G01 X 20.9966 Y 3.6203 Z -1.0000
G01 X 20.9921 Y 3.6308 Z -1.0000
G01 X 20.9837 Y 3.6466 Z -1.0000
G02 X 20.9951 Y 3.7095 Z -1.0000 I 0.2260 J -0.0086
G01 X 21.0183 Y 3.7513 Z -1.0000
G01 X 21.0245 Y 3.7364 Z -1.0000
G01 X 21.0336 Y 3.7353 Z -1.0000
G01 X 21.0390 Y 3.7457 Z -1.0000
G01 X 21.0319 Y 3.7637 Z -1.0000
G03 X 21.0137 Y 3.7791 Z -1.0000 I -0.0517 J -0.0429
G01 X 20.9981 Y 3.7832 Z -1.0000
G01 X 20.9884 Y 3.7907 Z -1.0000
G02 X 20.9833 Y 3.8385 Z -1.0000 I 0.1494 J 0.0399
G03 X 20.9811 Y 3.8890 Z -1.0000 I -0.2591 J 0.0136
G01 X 20.9755 Y 3.8938 Z -1.0000
G01 X 20.9663 Y 3.8907 Z -1.0000
G03 X 20.9367 Y 3.8636 Z -1.0000 I 0.1541 J -0.1982
G02 X 20.9148 Y 3.8494 Z -1.0000 I -0.0394 J 0.0367
G01 X 20.9085 Y 3.8539 Z -1.0000
G01 X 20.9125 Y 3.8729 Z -1.0000
G02 X 20.9258 Y 3.8931 Z -1.0000 I 0.0672 J -0.0297
G01 X 20.9264 Y 3.9007 Z -1.0000
G01 X 20.9189 Y 3.9032 Z -1.0000
G01 X 20.9047 Y 3.9088 Z -1.0000
G02 X 20.8947 Y 3.9495 Z -1.0000 I 0.0781 J 0.0407
G03 X 20.8887 Y 3.9983 Z -1.0000 I -0.2000 J -0.0000
G01 X 20.8809 Y 4.0044 Z -1.0000
G01 X 20.8720 Y 3.9995 Z -1.0000
G01 X 20.8671 Y 3.9828 Z -1.0000
G01 X 20.8615 Y 3.9712 Z -1.0000
G01 X 20.8519 Y 3.9706 Z -1.0000
G01 X 20.8434 Y 3.9831 Z -1.0000
G02 X 20.8427 Y 4.0206 Z -1.0000 I 0.1125 J 0.0209
G03 X 20.8385 Y 4.0561 Z -1.0000 I -0.0675 J 0.0099
G01 X 20.8199 Y 4.0770 Z -1.0000
G03 X 20.7902 Y 4.0884 Z -1.0000 I -0.0549 J -0.0988
G03 X 20.7669 Y 4.0893 Z -1.0000 I -0.0139 J -0.0609
G01 X 20.7479 Y 4.0917 Z -1.0000
G01 X 20.7427 Y 4.0995 Z -1.0000
G01 X 20.7469 Y 4.1111 Z -1.0000
G02 X 20.7715 Y 4.1336 Z -1.0000 I 0.0984 J -0.0830
G01 X 20.7882 Y 4.1567 Z -1.0000
G01 X 20.7858 Y 4.1809 Z -1.0000
G02 X 20.7769 Y 4.2072 Z -1.0000 I 0.0741 J 0.0397
G01 X 20.7800 Y 4.2168 Z -1.0000
G01 X 20.7799 Y 4.2219 Z -1.0000
G01 X 20.7707 Y 4.2255 Z -1.0000
G01 X 20.7551 Y 4.2208 Z -1.0000
G03 X 20.7362 Y 4.2030 Z -1.0000 I 0.0392 J -0.0603
G01 X 20.7186 Y 4.1967 Z -1.0000
G02 X 20.6835 Y 4.2168 Z -1.0000 I 0.0196 J 0.0747
G03 X 20.6455 Y 4.2490 Z -1.0000 I -0.2141 J -0.2141
G01 X 20.6328 Y 4.2531 Z -1.0000
G01 X 20.6238 Y 4.2585 Z -1.0000
G01 X 20.6183 Y 4.2808 Z -1.0000
G01 X 20.6254 Y 4.3013 Z -1.0000
G01 X 20.6400 Y 4.3084 Z -1.0000
G01 X 20.6512 Y 4.3161 Z -1.0000
G01 X 20.6521 Y 4.3395 Z -1.0000
G03 X 20.6413 Y 4.3699 Z -1.0000 I -0.3926 J -0.1217
G01 X 20.6373 Y 4.3764 Z -1.0000
G01 X 20.6311 Y 4.3801 Z -1.0000
G03 X 20.6079 Y 4.3839 Z -1.0000 I -0.0317 J -0.1233
G02 X 20.5863 Y 4.3890 Z -1.0000 I 0.0051 J 0.0690
G01 X 20.5803 Y 4.3954 Z -1.0000
G02 X 20.5779 Y 4.4053 Z -1.0000 I 0.0500 J 0.0176
G02 X 20.5768 Y 4.4198 Z -1.0000 I 0.0993 J 0.0145
G01 X 20.5822 Y 4.4285 Z -1.0000
G01 X 20.6010 Y 4.4320 Z -1.0000
G03 X 20.6252 Y 4.4306 Z -1.0000 I 0.0288 J 0.2733
G03 X 20.6433 Y 4.4312 Z -1.0000 I 0.0030 J 0.1809
G01 X 20.6524 Y 4.4373 Z -1.0000
G01 X 20.6520 Y 4.4479 Z -1.0000
G01 X 20.6490 Y 4.4632 Z -1.0000
G02 X 20.6606 Y 4.4965 Z -1.0000 I 0.1091 J -0.0190
G03 X 20.6692 Y 4.5287 Z -1.0000 I -0.0645 J 0.0345
G01 X 20.6622 Y 4.5464 Z -1.0000
G01 X 20.6509 Y 4.5506 Z -1.0000
G01 X 20.6459 Y 4.5453 Z -1.0000
G01 X 20.6410 Y 4.5366 Z -1.0000
G01 X 20.6318 Y 4.5366 Z -1.0000
G01 X 20.6241 Y 4.5468 Z -1.0000
G01 X 20.6257 Y 4.5581 Z -1.0000
G01 X 20.6262 Y 4.5669 Z -1.0000
G01 X 20.6198 Y 4.5710 Z -1.0000
G01 X 20.6079 Y 4.5675 Z -1.0000
G01 X 20.5969 Y 4.5563 Z -1.0000
G01 X 20.5938 Y 4.5411 Z -1.0000
G03 X 20.6049 Y 4.5006 Z -1.0000 I 0.1659 J 0.0238
G02 X 20.6163 Y 4.4607 Z -1.0000 I -0.1657 J -0.0690
G01 X 20.6131 Y 4.4507 Z -1.0000
G01 X 20.6044 Y 4.4469 Z -1.0000
G01 X 20.5963 Y 4.4500 Z -1.0000
G01 X 20.5910 Y 4.4594 Z -1.0000
G02 X 20.5806 Y 4.5153 Z -1.0000 I 0.5315 J 0.1286
G03 X 20.5656 Y 4.5602 Z -1.0000 I -0.1260 J -0.0170
G01 X 20.5529 Y 4.5648 Z -1.0000
G02 X 20.5329 Y 4.5579 Z -1.0000 I -0.1048 J 0.2738
G01 X 20.5272 Y 4.5571 Z -1.0000
G01 X 20.5240 Y 4.5546 Z -1.0000
G03 X 20.5214 Y 4.5336 Z -1.0000 I 0.0851 J -0.0209
G01 X 20.5157 Y 4.5239 Z -1.0000
G01 X 20.5063 Y 4.5252 Z -1.0000
G01 X 20.5011 Y 4.5413 Z -1.0000
G02 X 20.5148 Y 4.5763 Z -1.0000 I 0.0897 J -0.0149
G02 X 20.5414 Y 4.6068 Z -1.0000 I 0.1226 J -0.0804
G01 X 20.5564 Y 4.6124 Z -1.0000
G01 X 20.5711 Y 4.6078 Z -1.0000
G01 X 20.5798 Y 4.5961 Z -1.0000
G01 X 20.5891 Y 4.5879 Z -1.0000
G01 X 20.6117 Y 4.5899 Z -1.0000
G01 X 20.6231 Y 4.6014 Z -1.0000
G01 X 20.6196 Y 4.6115 Z -1.0000
G01 X 20.6152 Y 4.6227 Z -1.0000
G01 X 20.6269 Y 4.6379 Z -1.0000
G01 X 20.6286 Y 4.6466 Z -1.0000
G01 X 20.6152 Y 4.6534 Z -1.0000
G01 X 20.5894 Y 4.6618 Z -1.0000
G01 X 20.5856 Y 4.6745 Z -1.0000
G01 X 20.5982 Y 4.6885 Z -1.0000
G02 X 20.6266 Y 4.6953 Z -1.0000 I 0.0284 J -0.0562
G01 X 20.6523 Y 4.7027 Z -1.0000
G01 X 20.6597 Y 4.7160 Z -1.0000
G01 X 20.6645 Y 4.7319 Z -1.0000
G01 X 20.6735 Y 4.7367 Z -1.0000
G01 X 20.6825 Y 4.7415 Z -1.0000
G01 X 20.6873 Y 4.7575 Z -1.0000
G01 X 20.6825 Y 4.7734 Z -1.0000
G01 X 20.6735 Y 4.7782 Z -1.0000
G01 X 20.6638 Y 4.7740 Z -1.0000
G01 X 20.6597 Y 4.7635 Z -1.0000
G01 X 20.6550 Y 4.7571 Z -1.0000
G01 X 20.6444 Y 4.7583 Z -1.0000
G01 X 20.6401 Y 4.7678 Z -1.0000
G01 X 20.6479 Y 4.7796 Z -1.0000
G01 X 20.6673 Y 4.7862 Z -1.0000
G02 X 20.6908 Y 4.7839 Z -1.0000 I 0.0059 J -0.0595
G01 X 20.7094 Y 4.7839 Z -1.0000
G01 X 20.7150 Y 4.7915 Z -1.0000
G01 X 20.7095 Y 4.8028 Z -1.0000
G03 X 20.6770 Y 4.8211 Z -1.0000 I -0.0774 J -0.0993
G01 X 20.6591 Y 4.8383 Z -1.0000
G01 X 20.6632 Y 4.8534 Z -1.0000
G03 X 20.6830 Y 4.8734 Z -1.0000 I -0.0541 J 0.0734
G01 X 20.6874 Y 4.8869 Z -1.0000
G01 X 20.6821 Y 4.8974 Z -1.0000
G01 X 20.6666 Y 4.9026 Z -1.0000
G01 X 20.6520 Y 4.9087 Z -1.0000
G01 X 20.6459 Y 4.9234 Z -1.0000
G01 X 20.6411 Y 4.9393 Z -1.0000
G01 X 20.6321 Y 4.9441 Z -1.0000
G01 X 20.6199 Y 4.9481 Z -1.0000
G02 X 20.5670 Y 4.9925 Z -1.0000 I 0.3528 J 0.4744
G03 X 20.5134 Y 5.0349 Z -1.0000 I -0.2678 J -0.2839
G01 X 20.4933 Y 5.0409 Z -1.0000
G01 X 20.4749 Y 5.0476 Z -1.0000
G02 X 20.4524 Y 5.0754 Z -1.0000 I 0.0615 J 0.0728
G03 X 20.4297 Y 5.1030 Z -1.0000 I -0.0802 J -0.0429
G01 X 20.4101 Y 5.1100 Z -1.0000
G01 X 20.3903 Y 5.1158 Z -1.0000
G01 X 20.3783 Y 5.1307 Z -1.0000
G01 X 20.3665 Y 5.1459 Z -1.0000
G01 X 20.3492 Y 5.1514 Z -1.0000
G01 X 20.3329 Y 5.1563 Z -1.0000
G01 X 20.3280 Y 5.1652 Z -1.0000
G01 X 20.3237 Y 5.1748 Z -1.0000
G01 X 20.3123 Y 5.1791 Z -1.0000
G01 X 20.2985 Y 5.1834 Z -1.0000
G02 X 20.2674 Y 5.2104 Z -1.0000 I 0.1114 J 0.1600
G03 X 20.2364 Y 5.2397 Z -1.0000 I -0.2545 J -0.2377
G03 X 20.1898 Y 5.2754 Z -1.0000 I -0.4246 J -0.5071
G02 X 20.1422 Y 5.3099 Z -1.0000 I 0.8325 J 1.1962
G01 X 20.1345 Y 5.3172 Z -1.0000
G01 X 20.1267 Y 5.3245 Z -1.0000
G03 X 19.9763 Y 5.4354 Z -1.0000 I -8.5310 J -11.4174
G02 X 19.8273 Y 5.5480 Z -1.0000 I 2.9841 J 4.1049
G02 X 19.7702 Y 5.5972 Z -1.0000 I 0.5090 J 0.6486
G03 X 19.7140 Y 5.6457 Z -1.0000 I -0.5753 J -0.6090
G01 X 19.7046 Y 5.6490 Z -1.0000
G01 X 19.6955 Y 5.6521 Z -1.0000
G01 X 19.6839 Y 5.6650 Z -1.0000
G01 X 19.6869 Y 5.6720 Z -1.0000
G02 X 19.7177 Y 5.6723 Z -1.0000 I 0.0160 J -0.0741
G03 X 19.7561 Y 5.6699 Z -1.0000 I 0.0282 J 0.1411
G01 X 19.7613 Y 5.6754 Z -1.0000
G01 X 19.7571 Y 5.6840 Z -1.0000
G03 X 19.7371 Y 5.6942 Z -1.0000 I -0.0363 J -0.0465
G02 X 19.7132 Y 5.7018 Z -1.0000 I 0.1146 J 0.4010
G02 X 19.6865 Y 5.7120 Z -1.0000 I 0.1912 J 0.5430
G01 X 19.6722 Y 5.7125 Z -1.0000
G01 X 19.6700 Y 5.7067 Z -1.0000
G01 X 19.6719 Y 5.6950 Z -1.0000
G01 X 19.6662 Y 5.6905 Z -1.0000
G01 X 19.6542 Y 5.6938 Z -1.0000
G01 X 19.6446 Y 5.7032 Z -1.0000
G01 X 19.6440 Y 5.7132 Z -1.0000
G01 X 19.6531 Y 5.7212 Z -1.0000
G01 X 19.6610 Y 5.7298 Z -1.0000
G01 X 19.6589 Y 5.7438 Z -1.0000
G01 X 19.6468 Y 5.7515 Z -1.0000
G01 X 19.6313 Y 5.7468 Z -1.0000
G01 X 19.6138 Y 5.7422 Z -1.0000
G02 X 19.5807 Y 5.7556 Z -1.0000 I 0.0147 J 0.0837
G02 X 19.5486 Y 5.7803 Z -1.0000 I 0.2037 J 0.2986
G02 X 19.5194 Y 5.8083 Z -1.0000 I 0.2361 J 0.2744
G02 X 19.4921 Y 5.8384 Z -1.0000 I 1.6822 J 1.5610
G02 X 19.4516 Y 5.8841 Z -1.0000 I 3.8635 J 3.4599
G02 X 19.4331 Y 5.9146 Z -1.0000 I 0.0785 J 0.0686
G01 X 19.4378 Y 5.9192 Z -1.0000
G03 X 19.4644 Y 5.9093 Z -1.0000 I 0.1820 J 0.4471
G03 X 19.4918 Y 5.9009 Z -1.0000 I 0.1471 J 0.4326
G01 X 19.4995 Y 5.9058 Z -1.0000
G01 X 19.4953 Y 5.9209 Z -1.0000
G02 X 19.4748 Y 5.9497 Z -1.0000 I 0.1289 J 0.1135
G01 X 19.4711 Y 5.9636 Z -1.0000
G01 X 19.4659 Y 5.9750 Z -1.0000
G03 X 19.4435 Y 5.9876 Z -1.0000 I -0.0416 J -0.0478
G02 X 19.4218 Y 6.0007 Z -1.0000 I 0.0161 J 0.0511
G01 X 19.4158 Y 6.0151 Z -1.0000
G01 X 19.4089 Y 6.0282 Z -1.0000
G03 X 19.3758 Y 6.0426 Z -1.0000 I -0.0534 J -0.0778
G02 X 19.3423 Y 6.0583 Z -1.0000 I 0.0182 J 0.0823
G01 X 19.3284 Y 6.0793 Z -1.0000
G01 X 19.3305 Y 6.0967 Z -1.0000
G01 X 19.3398 Y 6.1001 Z -1.0000
G01 X 19.3472 Y 6.1045 Z -1.0000
G03 X 19.3441 Y 6.1343 Z -1.0000 I -0.0651 J 0.0082
G03 X 19.3239 Y 6.1710 Z -1.0000 I -0.1181 J -0.0410
G03 X 19.2933 Y 6.1984 Z -1.0000 I -0.0944 J -0.0750
G02 X 19.2591 Y 6.2238 Z -1.0000 I 0.1350 J 0.2163
G02 X 19.2050 Y 6.2765 Z -1.0000 I 0.5304 J 0.5987
G02 X 19.1568 Y 6.3341 Z -1.0000 I 0.5178 J 0.4837
G02 X 19.1459 Y 6.3551 Z -1.0000 I 0.0562 J 0.0423
G01 X 19.1330 Y 6.3720 Z -1.0000
G03 X 19.0975 Y 6.3864 Z -1.0000 I -0.0556 J -0.0859
G02 X 19.0623 Y 6.3994 Z -1.0000 I 0.0234 J 0.1175
G01 X 19.0564 Y 6.4094 Z -1.0000
G01 X 19.0523 Y 6.4225 Z -1.0000
G03 X 19.0206 Y 6.4600 Z -1.0000 I -0.2361 J -0.1669
G02 X 18.9988 Y 6.4943 Z -1.0000 I 0.0663 J 0.0663
G01 X 19.0034 Y 6.5076 Z -1.0000
G01 X 19.0077 Y 6.5153 Z -1.0000
G01 X 19.0036 Y 6.5195 Z -1.0000
G01 X 18.9932 Y 6.5264 Z -1.0000
G01 X 18.9898 Y 6.5508 Z -1.0000
G01 X 19.0010 Y 6.5735 Z -1.0000
G01 X 19.0184 Y 6.5800 Z -1.0000
G01 X 19.0363 Y 6.5849 Z -1.0000
G01 X 19.0426 Y 6.5973 Z -1.0000
G01 X 19.0372 Y 6.6111 Z -1.0000
G01 X 19.0249 Y 6.6165 Z -1.0000
G01 X 19.0095 Y 6.6212 Z -1.0000
G02 X 18.9835 Y 6.6443 Z -1.0000 I 0.0714 J 0.1065
G02 X 18.9628 Y 6.6733 Z -1.0000 I 0.1517 J 0.1299
G01 X 18.9597 Y 6.6849 Z -1.0000
G01 X 18.9564 Y 6.6960 Z -1.0000
G01 X 18.9459 Y 6.7063 Z -1.0000
G01 X 18.9320 Y 6.7100 Z -1.0000
G01 X 18.9167 Y 6.7054 Z -1.0000
G01 X 18.9120 Y 6.6960 Z -1.0000
G01 X 18.9184 Y 6.6855 Z -1.0000
G01 X 18.9290 Y 6.6726 Z -1.0000
G01 X 18.9293 Y 6.6565 Z -1.0000
G01 X 18.9204 Y 6.6522 Z -1.0000
G02 X 18.8979 Y 6.6675 Z -1.0000 I 0.0174 J 0.0495
G03 X 18.8707 Y 6.6890 Z -1.0000 I -0.0674 J -0.0577
G01 X 18.8540 Y 6.6898 Z -1.0000
G01 X 18.8392 Y 6.6800 Z -1.0000
G01 X 18.8353 Y 6.6705 Z -1.0000
G01 X 18.8398 Y 6.6608 Z -1.0000
G03 X 18.8906 Y 6.6234 Z -1.0000 I 0.2875 J 0.3377
G02 X 18.9375 Y 6.5839 Z -1.0000 I -0.1201 J -0.1903
G01 X 18.9459 Y 6.5622 Z -1.0000
G01 X 18.9513 Y 6.5398 Z -1.0000
G01 X 18.9622 Y 6.5304 Z -1.0000
G01 X 18.9706 Y 6.5213 Z -1.0000
G01 X 18.9693 Y 6.5009 Z -1.0000
G01 X 18.9556 Y 6.4917 Z -1.0000
G02 X 18.9257 Y 6.5017 Z -1.0000 I 0.0010 J 0.0525
G02 X 18.8989 Y 6.5290 Z -1.0000 I 0.0686 J 0.0944
G01 X 18.8970 Y 6.5426 Z -1.0000
G01 X 18.8987 Y 6.5576 Z -1.0000
G01 X 18.8944 Y 6.5666 Z -1.0000
G01 X 18.8859 Y 6.5689 Z -1.0000
G01 X 18.8677 Y 6.5593 Z -1.0000
G01 X 18.8561 Y 6.5587 Z -1.0000
G01 X 18.8491 Y 6.5717 Z -1.0000
G01 X 18.8418 Y 6.5955 Z -1.0000
G03 X 18.8151 Y 6.6218 Z -1.0000 I -0.0793 J -0.0540
G03 X 18.7800 Y 6.6407 Z -1.0000 I -0.1297 J -0.1980
G01 X 18.7639 Y 6.6441 Z -1.0000
G01 X 18.7612 Y 6.6383 Z -1.0000
G03 X 18.8256 Y 6.5678 Z -1.0000 I 0.6127 J 0.4956
G02 X 18.9000 Y 6.4896 Z -1.0000 I -0.9218 J -0.9517
G01 X 18.9044 Y 6.4779 Z -1.0000
G01 X 18.9019 Y 6.4670 Z -1.0000
G01 X 18.8977 Y 6.4644 Z -1.0000
G01 X 18.8920 Y 6.4667 Z -1.0000
G02 X 18.8079 Y 6.5505 Z -1.0000 I 2.1468 J 2.2397
G02 X 18.7332 Y 6.6398 Z -1.0000 I 0.5796 J 0.5602
G01 X 18.7258 Y 6.6645 Z -1.0000
G01 X 18.7339 Y 6.6752 Z -1.0000
G01 X 18.7446 Y 6.6635 Z -1.0000
G03 X 18.7682 Y 6.6579 Z -1.0000 I 0.0236 J 0.0468
G01 X 18.7836 Y 6.6645 Z -1.0000
G01 X 18.7847 Y 6.6752 Z -1.0000
G02 X 18.7755 Y 6.6931 Z -1.0000 I 0.1021 J 0.0634
G02 X 18.7720 Y 6.7063 Z -1.0000 I 0.0495 J 0.0203
G03 X 18.7693 Y 6.7199 Z -1.0000 I -0.0991 J -0.0130
G03 X 18.7597 Y 6.7512 Z -1.0000 I -0.5839 J -0.1615
G03 X 18.7446 Y 6.7760 Z -1.0000 I -0.0628 J -0.0213
G01 X 18.7296 Y 6.7823 Z -1.0000
G01 X 18.7137 Y 6.7876 Z -1.0000
G01 X 18.7021 Y 6.8030 Z -1.0000
G01 X 18.6907 Y 6.8187 Z -1.0000
G01 X 18.6764 Y 6.8238 Z -1.0000
G01 X 18.6621 Y 6.8288 Z -1.0000
G01 X 18.6506 Y 6.8445 Z -1.0000
G01 X 18.6382 Y 6.8588 Z -1.0000
G03 X 18.6131 Y 6.8652 Z -1.0000 I -0.0251 J -0.0453
G01 X 18.5951 Y 6.8731 Z -1.0000
G01 X 18.5922 Y 6.8877 Z -1.0000
G01 X 18.5947 Y 6.9092 Z -1.0000
G01 X 18.5871 Y 6.9268 Z -1.0000
G01 X 18.5871 Y 6.9366 Z -1.0000
G01 X 18.6001 Y 6.9423 Z -1.0000
G01 X 18.6202 Y 6.9469 Z -1.0000
G01 X 18.6240 Y 6.9551 Z -1.0000
G01 X 18.6176 Y 6.9640 Z -1.0000
G01 X 18.6039 Y 6.9670 Z -1.0000
G01 X 18.5920 Y 6.9711 Z -1.0000
G01 X 18.5866 Y 6.9843 Z -1.0000
G01 X 18.5795 Y 6.9963 Z -1.0000
G03 X 18.5520 Y 7.0035 Z -1.0000 I -0.0274 J -0.0494
G03 X 18.5209 Y 6.9999 Z -1.0000 I -0.0000 J -0.1383
G01 X 18.5175 Y 6.9956 Z -1.0000
G01 X 18.5197 Y 6.9887 Z -1.0000
G03 X 18.5401 Y 6.9651 Z -1.0000 I 0.1681 J 0.1242
G01 X 18.5513 Y 6.9452 Z -1.0000
G01 X 18.5470 Y 6.9373 Z -1.0000
G01 X 18.5350 Y 6.9293 Z -1.0000
G01 X 18.5313 Y 6.9194 Z -1.0000
G01 X 18.5355 Y 6.9120 Z -1.0000
G01 X 18.5467 Y 6.9102 Z -1.0000
G01 X 18.5576 Y 6.9068 Z -1.0000
G01 X 18.5662 Y 6.8895 Z -1.0000
G02 X 18.5654 Y 6.8676 Z -1.0000 I -0.0535 J -0.0089
G01 X 18.5583 Y 6.8580 Z -1.0000
G01 X 18.5481 Y 6.8587 Z -1.0000
G02 X 18.5216 Y 6.8883 Z -1.0000 I 0.0852 J 0.1029
G03 X 18.4954 Y 6.9250 Z -1.0000 I -0.4841 J -0.3173
G03 X 18.4691 Y 6.9562 Z -1.0000 I -0.3717 J -0.2874
G02 X 18.4421 Y 6.9867 Z -1.0000 I 0.7737 J 0.7133
G02 X 18.4000 Y 7.0373 Z -1.0000 I 2.0891 J 1.7812
G03 X 18.3582 Y 7.0880 Z -1.0000 I -3.6785 J -2.9871
G03 X 18.3309 Y 7.1200 Z -1.0000 I -1.4982 J -1.2515
G02 X 18.3044 Y 7.1526 Z -1.0000 I 0.4395 J 0.3835
G02 X 18.2410 Y 7.2393 Z -1.0000 I 3.0568 J 2.3019
G03 X 18.1783 Y 7.3265 Z -1.0000 I -7.4145 J -5.2635
G03 X 18.1339 Y 7.3865 Z -1.0000 I -3.5145 J -2.5579
G02 X 18.0907 Y 7.4466 Z -1.0000 I 1.2583 J 0.9494
G01 X 18.0890 Y 7.4522 Z -1.0000
G01 X 18.0874 Y 7.4579 Z -1.0000
G03 X 18.0535 Y 7.5108 Z -1.0000 I -1.0663 J -0.6455
G03 X 18.0166 Y 7.5621 Z -1.0000 I -0.8961 J -0.6060
G03 X 17.9844 Y 7.6012 Z -1.0000 I -0.5510 J -0.4215
G02 X 17.9533 Y 7.6400 Z -1.0000 I 0.3748 J 0.3327
G01 X 17.9508 Y 7.6476 Z -1.0000
G01 X 17.9484 Y 7.6554 Z -1.0000
G03 X 17.8833 Y 7.7490 Z -1.0000 I -2.2996 J -1.5314
G02 X 17.8180 Y 7.8431 Z -1.0000 I 2.0413 J 1.4850
G02 X 17.7933 Y 7.8853 Z -1.0000 I 0.3833 J 0.2531
G03 X 17.7696 Y 7.9281 Z -1.0000 I -0.7681 J -0.3971
G03 X 17.7367 Y 7.9810 Z -1.0000 I -1.2131 J -0.7168
G03 X 17.7012 Y 8.0320 Z -1.0000 I -0.8426 J -0.5495
G03 X 17.6816 Y 8.0551 Z -1.0000 I -0.1925 J -0.1433
G02 X 17.6641 Y 8.0785 Z -1.0000 I 0.0848 J 0.0817
G01 X 17.6605 Y 8.0921 Z -1.0000
G01 X 17.6567 Y 8.1057 Z -1.0000
G03 X 17.6277 Y 8.1462 Z -1.0000 I -0.2779 J -0.1688
G02 X 17.5970 Y 8.1867 Z -1.0000 I 0.3818 J 0.3210
G02 X 17.5635 Y 8.2406 Z -1.0000 I 0.6380 J 0.4338
G02 X 17.5323 Y 8.2959 Z -1.0000 I 20.1496 J 11.4033
G02 X 17.4975 Y 8.3580 Z -1.0000 I 24.3764 J 13.7072
G03 X 17.4611 Y 8.4192 Z -1.0000 I -1.1726 J -0.6554
G03 X 17.4321 Y 8.4617 Z -1.0000 I -0.5970 J -0.3765
G02 X 17.4039 Y 8.5047 Z -1.0000 I 0.3854 J 0.2842
G02 X 17.2822 Y 8.7187 Z -1.0000 I 9.4693 J 5.5220
G02 X 17.1657 Y 8.9350 Z -1.0000 I 9.5353 J 5.2774
G01 X 17.1626 Y 8.9468 Z -1.0000
G01 X 17.1594 Y 8.9582 Z -1.0000
G03 X 17.1353 Y 8.9938 Z -1.0000 I -0.2705 J -0.1572
G02 X 17.1126 Y 9.0299 Z -1.0000 I 0.1640 J 0.1284
G01 X 17.1080 Y 9.0491 Z -1.0000
G03 X 17.1038 Y 9.0689 Z -1.0000 I -0.0523 J -0.0008
G03 X 17.0667 Y 9.1459 Z -1.0000 I -0.8649 J -0.3685
G02 X 17.0307 Y 9.2232 Z -1.0000 I 0.6596 J 0.3550
G02 X 17.0254 Y 9.2495 Z -1.0000 I 0.0693 J 0.0277
G01 X 17.0310 Y 9.2535 Z -1.0000
G01 X 17.0431 Y 9.2426 Z -1.0000
G03 X 17.0615 Y 9.2082 Z -1.0000 I 3.9632 J 2.0880
G03 X 17.0766 Y 9.1804 Z -1.0000 I 2.6558 J 1.4289
G02 X 17.0905 Y 9.1522 Z -1.0000 I -0.3008 J -0.1662
G02 X 17.0994 Y 9.1284 Z -1.0000 I -0.2068 J -0.0907
G01 X 17.1121 Y 9.1088 Z -1.0000
G03 X 17.1428 Y 9.0904 Z -1.0000 I 0.0665 J 0.0757
G02 X 17.1671 Y 9.0712 Z -1.0000 I -0.0183 J -0.0482
G01 X 17.1702 Y 9.0501 Z -1.0000
G03 X 17.1682 Y 9.0238 Z -1.0000 I 0.0550 J -0.0173
G03 X 17.1823 Y 8.9743 Z -1.0000 I 0.2135 J 0.0339
G03 X 17.2064 Y 8.9272 Z -1.0000 I 0.3156 J 0.1319
G03 X 17.2520 Y 8.8608 Z -1.0000 I 0.6773 J 0.4158
G02 X 17.2978 Y 8.7952 Z -1.0000 I -0.7659 J -0.5847
G01 X 17.3012 Y 8.7839 Z -1.0000
G01 X 17.3041 Y 8.7722 Z -1.0000
G03 X 17.3469 Y 8.6995 Z -1.0000 I 1.0636 J 0.5764
G02 X 17.3894 Y 8.6260 Z -1.0000 I -0.8565 J -0.5446
G02 X 17.4172 Y 8.5654 Z -1.0000 I -0.5527 J -0.2896
G03 X 17.4442 Y 8.5046 Z -1.0000 I 0.7135 J 0.2816
G03 X 17.4585 Y 8.4824 Z -1.0000 I 0.1083 J 0.0540
G02 X 17.4736 Y 8.4607 Z -1.0000 I -0.1429 J -0.1153
G02 X 17.5023 Y 8.4084 Z -1.0000 I -0.7736 J -0.4579
G03 X 17.5326 Y 8.3576 Z -1.0000 I 0.3760 J 0.1902
G03 X 17.5601 Y 8.3255 Z -1.0000 I 0.1763 J 0.1229
G02 X 17.5871 Y 8.2942 Z -1.0000 I -0.1544 J -0.1609
G01 X 17.5912 Y 8.2819 Z -1.0000
G01 X 17.5957 Y 8.2703 Z -1.0000
G03 X 17.6191 Y 8.2507 Z -1.0000 I 0.0808 J 0.0723
G02 X 17.6410 Y 8.2303 Z -1.0000 I -0.0419 J -0.0670
G01 X 17.6467 Y 8.2128 Z -1.0000
G01 X 17.6507 Y 8.1961 Z -1.0000
G01 X 17.6571 Y 8.1922 Z -1.0000
G01 X 17.6650 Y 8.1881 Z -1.0000
G02 X 17.7005 Y 8.1300 Z -1.0000 I -0.4594 J -0.3206
G03 X 17.7363 Y 8.0724 Z -1.0000 I 0.4361 J 0.2314
G01 X 17.7454 Y 8.0678 Z -1.0000
G01 X 17.7525 Y 8.0631 Z -1.0000
G02 X 17.7573 Y 8.0401 Z -1.0000 I -0.0530 J -0.0229
G03 X 17.7616 Y 8.0168 Z -1.0000 I 0.0661 J -0.0000
G01 X 17.7677 Y 8.0125 Z -1.0000
G01 X 17.7755 Y 8.0084 Z -1.0000
G02 X 17.7973 Y 7.9693 Z -1.0000 I -0.2008 J -0.1377
G03 X 17.8205 Y 7.9290 Z -1.0000 I 0.2035 J 0.0901
G03 X 17.8491 Y 7.8977 Z -1.0000 I 0.1502 J 0.1086
G02 X 17.8757 Y 7.8666 Z -1.0000 I -0.0911 J -0.1047
G01 X 17.8817 Y 7.8455 Z -1.0000
G01 X 17.8870 Y 7.8234 Z -1.0000
G03 X 17.9301 Y 7.7499 Z -1.0000 I 0.6131 J 0.3101
G02 X 17.9772 Y 7.6776 Z -1.0000 I -2.5552 J -1.7196
G01 X 17.9784 Y 7.6735 Z -1.0000
G01 X 17.9797 Y 7.6693 Z -1.0000
G03 X 18.0372 Y 7.5834 Z -1.0000 I 3.5948 J 2.3437
G02 X 18.0948 Y 7.4971 Z -1.0000 I -3.2624 J -2.2404
G02 X 18.1096 Y 7.4718 Z -1.0000 I -0.2674 J -0.1735
G03 X 18.1265 Y 7.4512 Z -1.0000 I 0.0588 J 0.0308
G01 X 18.1415 Y 7.4458 Z -1.0000
G01 X 18.1515 Y 7.4412 Z -1.0000
G01 X 18.1521 Y 7.4335 Z -1.0000
G01 X 18.1522 Y 7.4237 Z -1.0000
G01 X 18.1651 Y 7.4132 Z -1.0000
G01 X 18.1805 Y 7.4016 Z -1.0000
G01 X 18.1858 Y 7.3857 Z -1.0000
G01 X 18.1916 Y 7.3692 Z -1.0000
G03 X 18.2203 Y 7.3434 Z -1.0000 I 0.0983 J 0.0805
G02 X 18.2492 Y 7.3177 Z -1.0000 I -0.0718 J -0.1096
G01 X 18.2549 Y 7.3020 Z -1.0000
G01 X 18.2594 Y 7.2845 Z -1.0000
G03 X 18.3135 Y 7.1952 Z -1.0000 I 1.0676 J 0.5864
G03 X 18.3754 Y 7.1100 Z -1.0000 I 1.0762 J 0.7176
G03 X 18.4068 Y 7.0774 Z -1.0000 I 0.1881 J 0.1488
G03 X 18.4418 Y 7.0539 Z -1.0000 I 0.1120 J 0.1297
G01 X 18.4524 Y 7.0544 Z -1.0000
G01 X 18.4560 Y 7.0625 Z -1.0000
G01 X 18.4473 Y 7.0808 Z -1.0000
G01 X 18.4414 Y 7.0955 Z -1.0000
G01 X 18.4459 Y 7.1003 Z -1.0000
G01 X 18.4583 Y 7.0960 Z -1.0000
G02 X 18.4727 Y 7.0790 Z -1.0000 I -0.0363 J -0.0454
G01 X 18.4881 Y 7.0695 Z -1.0000
G03 X 18.5211 Y 7.0767 Z -1.0000 I 0.0031 J 0.0648
G01 X 18.5285 Y 7.0941 Z -1.0000
G01 X 18.5099 Y 7.1144 Z -1.0000
G02 X 18.4706 Y 7.1389 Z -1.0000 I 0.0461 J 0.1175
G01 X 18.4621 Y 7.1582 Z -1.0000
G01 X 18.4559 Y 7.1771 Z -1.0000
G01 X 18.4437 Y 7.1832 Z -1.0000
G01 X 18.4289 Y 7.1891 Z -1.0000
G02 X 18.4068 Y 7.2178 Z -1.0000 I 0.0760 J 0.0811
G03 X 18.3846 Y 7.2461 Z -1.0000 I -0.0921 J -0.0493
G01 X 18.3685 Y 7.2523 Z -1.0000
G01 X 18.3582 Y 7.2598 Z -1.0000
G01 X 18.3572 Y 7.2869 Z -1.0000
G03 X 18.3601 Y 7.3168 Z -1.0000 I -0.0956 J 0.0241
G01 X 18.3552 Y 7.3212 Z -1.0000
G01 X 18.3452 Y 7.3192 Z -1.0000
G03 X 18.3259 Y 7.3092 Z -1.0000 I 0.0454 J -0.1114
G01 X 18.3172 Y 7.2947 Z -1.0000
G01 X 18.3229 Y 7.2679 Z -1.0000
G02 X 18.3300 Y 7.2437 Z -1.0000 I -0.0539 J -0.0288
G01 X 18.3251 Y 7.2385 Z -1.0000
G01 X 18.3133 Y 7.2414 Z -1.0000
G01 X 18.3052 Y 7.2490 Z -1.0000
G01 X 18.3004 Y 7.2602 Z -1.0000
G02 X 18.2886 Y 7.3132 Z -1.0000 I 0.7936 J 0.2040
G02 X 18.2879 Y 7.3533 Z -1.0000 I 0.1171 J 0.0220
G01 X 18.2952 Y 7.3566 Z -1.0000
G01 X 18.3051 Y 7.3440 Z -1.0000
G01 X 18.3047 Y 7.3277 Z -1.0000
G01 X 18.3067 Y 7.3182 Z -1.0000
G01 X 18.3161 Y 7.3161 Z -1.0000
G01 X 18.3267 Y 7.3272 Z -1.0000
G01 X 18.3276 Y 7.3500 Z -1.0000
G03 X 18.3171 Y 7.3723 Z -1.0000 I -0.0644 J -0.0166
G01 X 18.3084 Y 7.3767 Z -1.0000
G01 X 18.3005 Y 7.3811 Z -1.0000
G01 X 18.2961 Y 7.3960 Z -1.0000
G01 X 18.2909 Y 7.4116 Z -1.0000
G01 X 18.2754 Y 7.4232 Z -1.0000
G01 X 18.2600 Y 7.4348 Z -1.0000
G01 X 18.2547 Y 7.4506 Z -1.0000
G01 X 18.2501 Y 7.4680 Z -1.0000
G03 X 18.2340 Y 7.4873 Z -1.0000 I -0.0604 J -0.0340
G02 X 18.2177 Y 7.5066 Z -1.0000 I 0.0457 J 0.0548
G01 X 18.2132 Y 7.5236 Z -1.0000
G01 X 18.2179 Y 7.5407 Z -1.0000
G02 X 18.2409 Y 7.5702 Z -1.0000 I 0.1288 J -0.0763
G03 X 18.2662 Y 7.5988 Z -1.0000 I -0.2214 J 0.2214
G01 X 18.2685 Y 7.6056 Z -1.0000
G01 X 18.2656 Y 7.6081 Z -1.0000
G01 X 18.2525 Y 7.6035 Z -1.0000
G01 X 18.2474 Y 7.6044 Z -1.0000
G01 X 18.2470 Y 7.6105 Z -1.0000
G01 X 18.2599 Y 7.6201 Z -1.0000
G01 X 18.2792 Y 7.6191 Z -1.0000
G01 X 18.2984 Y 7.6181 Z -1.0000
G01 X 18.3112 Y 7.6276 Z -1.0000
G01 X 18.3245 Y 7.6396 Z -1.0000
G02 X 18.3503 Y 7.6465 Z -1.0000 I 0.0311 J -0.0641
G01 X 18.3721 Y 7.6411 Z -1.0000
G01 X 18.3791 Y 7.6285 Z -1.0000
G01 X 18.3849 Y 7.6209 Z -1.0000
G01 X 18.3975 Y 7.6237 Z -1.0000
G01 X 18.4160 Y 7.6299 Z -1.0000
G01 X 18.4372 Y 7.6219 Z -1.0000
G02 X 18.4544 Y 7.6023 Z -1.0000 I -0.0471 J -0.0587
G02 X 18.4655 Y 7.5753 Z -1.0000 I -0.0798 J -0.0484
G02 X 18.4679 Y 7.5465 Z -1.0000 I -0.0978 J -0.0229
G01 X 18.4627 Y 7.5299 Z -1.0000
G01 X 18.4504 Y 7.5213 Z -1.0000
G01 X 18.4298 Y 7.5229 Z -1.0000
G02 X 18.4108 Y 7.5346 Z -1.0000 I 0.0221 J 0.0572
G01 X 18.4067 Y 7.5438 Z -1.0000
G01 X 18.4023 Y 7.5530 Z -1.0000
G03 X 18.3652 Y 7.5772 Z -1.0000 I -0.1380 J -0.1712
G03 X 18.3288 Y 7.5903 Z -1.0000 I -0.0675 J -0.1306
G01 X 18.3238 Y 7.5862 Z -1.0000
G01 X 18.3272 Y 7.5753 Z -1.0000
G03 X 18.3445 Y 7.5565 Z -1.0000 I 0.0778 J 0.0543
G02 X 18.3607 Y 7.5371 Z -1.0000 I -0.0457 J -0.0548
G01 X 18.3652 Y 7.5202 Z -1.0000
G01 X 18.3613 Y 7.5051 Z -1.0000
G01 X 18.3546 Y 7.5012 Z -1.0000
G01 X 18.3488 Y 7.4964 Z -1.0000
G03 X 18.3433 Y 7.4425 Z -1.0000 I 0.2982 J -0.0579
G01 X 18.3481 Y 7.4084 Z -1.0000
G01 X 18.3579 Y 7.4125 Z -1.0000
G02 X 18.3914 Y 7.3808 Z -1.0000 I -0.0661 J -0.1035
G02 X 18.4267 Y 7.3270 Z -1.0000 I -0.5746 J -0.4146
G02 X 18.4490 Y 7.2835 Z -1.0000 I -0.3513 J -0.2078
G03 X 18.4716 Y 7.2430 Z -1.0000 I 0.2216 J 0.0975
G01 X 18.4801 Y 7.2386 Z -1.0000
G01 X 18.4852 Y 7.2433 Z -1.0000
G03 X 18.4824 Y 7.2671 Z -1.0000 I -0.0623 J 0.0049
G01 X 18.4871 Y 7.2750 Z -1.0000
G01 X 18.5022 Y 7.2709 Z -1.0000
G02 X 18.5263 Y 7.2440 Z -1.0000 I -0.0888 J -0.1038
G01 X 18.5311 Y 7.2286 Z -1.0000
G01 X 18.5266 Y 7.2155 Z -1.0000
G01 X 18.5173 Y 7.2109 Z -1.0000
G01 X 18.5087 Y 7.2056 Z -1.0000
G03 X 18.5034 Y 7.1833 Z -1.0000 I 0.0447 J -0.0224
G03 X 18.5087 Y 7.1609 Z -1.0000 I 0.0501 J 0.0000
G01 X 18.5173 Y 7.1556 Z -1.0000
G01 X 18.5269 Y 7.1598 Z -1.0000
G01 X 18.5311 Y 7.1704 Z -1.0000
G01 X 18.5358 Y 7.1738 Z -1.0000
G01 X 18.5538 Y 7.1625 Z -1.0000
G01 X 18.5752 Y 7.1511 Z -1.0000
G01 X 18.5866 Y 7.1560 Z -1.0000
G01 X 18.5970 Y 7.1591 Z -1.0000
G02 X 18.6189 Y 7.1405 Z -1.0000 I -0.0246 J -0.0511
G02 X 18.6307 Y 7.1108 Z -1.0000 I -0.0566 J -0.0396
G01 X 18.6250 Y 7.0987 Z -1.0000
G01 X 18.6192 Y 7.0870 Z -1.0000
G01 X 18.6281 Y 7.0654 Z -1.0000
G01 X 18.6340 Y 7.0438 Z -1.0000
G01 X 18.6213 Y 7.0230 Z -1.0000
G03 X 18.6036 Y 7.0033 Z -1.0000 I 0.0379 J -0.0518
G01 X 18.6048 Y 6.9943 Z -1.0000
G01 X 18.6144 Y 6.9917 Z -1.0000
G01 X 18.6307 Y 7.0011 Z -1.0000
G02 X 18.6483 Y 7.0146 Z -1.0000 I 0.0603 J -0.0603
G01 X 18.6590 Y 7.0175 Z -1.0000
G01 X 18.6637 Y 7.0135 Z -1.0000
G01 X 18.6617 Y 7.0026 Z -1.0000
G01 X 18.6607 Y 6.9889 Z -1.0000
G03 X 18.6781 Y 6.9646 Z -1.0000 I 0.0643 J 0.0278
G03 X 18.7041 Y 6.9419 Z -1.0000 I 0.7425 J 0.8236
G03 X 18.7769 Y 6.8810 Z -1.0000 I 5.3847 J 6.3607
G03 X 18.8497 Y 6.8270 Z -1.0000 I 0.5396 J 0.6522
G01 X 18.8574 Y 6.8278 Z -1.0000
G01 X 18.8594 Y 6.8357 Z -1.0000
G03 X 18.8466 Y 6.8641 Z -1.0000 I -0.1107 J -0.0328
G02 X 18.8383 Y 6.8931 Z -1.0000 I 0.0463 J 0.0289
G02 X 18.8466 Y 6.9222 Z -1.0000 I 0.0551 J -0.0001
G01 X 18.8515 Y 6.9500 Z -1.0000
G03 X 18.8330 Y 6.9851 Z -1.0000 I -0.0725 J -0.0157
G02 X 18.8157 Y 7.0174 Z -1.0000 I 0.0519 J 0.0488
G01 X 18.8216 Y 7.0331 Z -1.0000
G01 X 18.8295 Y 7.0458 Z -1.0000
G01 X 18.8247 Y 7.0542 Z -1.0000
G01 X 18.8129 Y 7.0649 Z -1.0000
G01 X 18.8075 Y 7.0867 Z -1.0000
G01 X 18.8010 Y 7.1094 Z -1.0000
G03 X 18.7660 Y 7.1536 Z -1.0000 I -0.2080 J -0.1290
G02 X 18.7287 Y 7.1968 Z -1.0000 I 0.2753 J 0.2753
G01 X 18.7245 Y 7.2094 Z -1.0000
G01 X 18.7200 Y 7.2211 Z -1.0000
G03 X 18.6978 Y 7.2381 Z -1.0000 I -0.0622 J -0.0579
G02 X 18.6730 Y 7.2551 Z -1.0000 I 0.0668 J 0.1242
G02 X 18.5997 Y 7.3219 Z -1.0000 I 0.9864 J 1.1551
G02 X 18.5381 Y 7.3936 Z -1.0000 I 0.3726 J 0.3826
G01 X 18.5359 Y 7.4111 Z -1.0000
G01 X 18.5330 Y 7.4205 Z -1.0000
G01 X 18.5199 Y 7.4222 Z -1.0000
G01 X 18.5146 Y 7.4260 Z -1.0000
G01 X 18.5206 Y 7.4412 Z -1.0000
G03 X 18.5423 Y 7.4698 Z -1.0000 I -0.1945 J 0.1703
G01 X 18.5448 Y 7.4781 Z -1.0000
G01 X 18.5408 Y 7.4834 Z -1.0000
G03 X 18.5103 Y 7.4874 Z -1.0000 I -0.0305 J -0.1132
G01 X 18.4847 Y 7.4964 Z -1.0000
G01 X 18.4757 Y 7.5151 Z -1.0000
G02 X 18.4792 Y 7.5392 Z -1.0000 I 0.0848 J -0.0000
G01 X 18.4839 Y 7.5427 Z -1.0000
G01 X 18.4914 Y 7.5405 Z -1.0000
G02 X 18.5272 Y 7.5151 Z -1.0000 I -0.2404 J -0.3769
G03 X 18.5634 Y 7.4904 Z -1.0000 I 0.1998 J 0.2541
G01 X 18.5743 Y 7.4874 Z -1.0000
G01 X 18.5819 Y 7.4918 Z -1.0000
G01 X 18.5863 Y 7.5082 Z -1.0000
G01 X 18.5813 Y 7.5239 Z -1.0000
G01 X 18.5717 Y 7.5289 Z -1.0000
G01 X 18.5643 Y 7.5330 Z -1.0000
G01 X 18.5643 Y 7.5406 Z -1.0000
G01 X 18.5650 Y 7.5522 Z -1.0000
G03 X 18.5375 Y 7.5985 Z -1.0000 I -0.2396 J -0.1106
G03 X 18.5017 Y 7.6427 Z -1.0000 I -0.5098 J -0.3762
G03 X 18.4882 Y 7.6541 Z -1.0000 I -0.0453 J -0.0402
G01 X 18.4792 Y 7.6662 Z -1.0000
G01 X 18.4785 Y 7.6895 Z -1.0000
G01 X 18.4903 Y 7.6949 Z -1.0000
G02 X 18.5508 Y 7.6498 Z -1.0000 I -0.1323 J -0.2410
G03 X 18.6184 Y 7.5862 Z -1.0000 I 1.4949 J 1.5193
G01 X 18.6236 Y 7.5842 Z -1.0000
G01 X 18.6289 Y 7.5824 Z -1.0000
G02 X 18.6512 Y 7.5626 Z -1.0000 I -0.1474 J -0.1895
G01 X 18.6558 Y 7.5457 Z -1.0000
G01 X 18.6435 Y 7.5334 Z -1.0000
G01 X 18.6230 Y 7.5222 Z -1.0000
G01 X 18.6218 Y 7.5135 Z -1.0000
G01 X 18.6318 Y 7.5055 Z -1.0000
G03 X 18.6562 Y 7.5012 Z -1.0000 I 0.0245 J 0.0682
G01 X 18.6772 Y 7.4953 Z -1.0000
G01 X 18.6831 Y 7.4848 Z -1.0000
G01 X 18.6875 Y 7.4820 Z -1.0000
G01 X 18.7017 Y 7.4938 Z -1.0000
G01 X 18.7221 Y 7.5100 Z -1.0000
G01 X 18.7372 Y 7.5088 Z -1.0000
G01 X 18.7476 Y 7.4962 Z -1.0000
G01 X 18.7475 Y 7.4814 Z -1.0000
G01 X 18.7513 Y 7.4715 Z -1.0000
G03 X 18.7811 Y 7.4644 Z -1.0000 I 0.0298 J 0.0589
G03 X 18.8141 Y 7.4716 Z -1.0000 I 0.0000 J 0.0790
G01 X 18.8213 Y 7.4828 Z -1.0000
G01 X 18.8156 Y 7.4955 Z -1.0000
G01 X 18.8006 Y 7.5012 Z -1.0000
G01 X 18.7840 Y 7.5059 Z -1.0000
G01 X 18.7781 Y 7.5150 Z -1.0000
G03 X 18.7763 Y 7.5289 Z -1.0000 I -2.5928 J -0.3241
G03 X 18.7746 Y 7.5415 Z -1.0000 I -0.9902 J -0.1291
G01 X 18.7709 Y 7.5532 Z -1.0000
G01 X 18.7625 Y 7.5646 Z -1.0000
G01 X 18.7555 Y 7.5763 Z -1.0000
G02 X 18.7521 Y 7.6003 Z -1.0000 I 0.0824 J 0.0239
G02 X 18.7558 Y 7.6220 Z -1.0000 I 0.0658 J -0.0000
G01 X 18.7609 Y 7.6256 Z -1.0000
G01 X 18.7685 Y 7.6229 Z -1.0000
G02 X 18.7851 Y 7.6052 Z -1.0000 I -0.0701 J -0.0827
G01 X 18.8020 Y 7.5932 Z -1.0000
G01 X 18.8173 Y 7.5953 Z -1.0000
G01 X 18.8216 Y 7.6077 Z -1.0000
G03 X 18.7997 Y 7.6459 Z -1.0000 I -0.1114 J -0.0387
G02 X 18.7761 Y 7.6854 Z -1.0000 I 0.1019 J 0.0875
G01 X 18.7792 Y 7.6996 Z -1.0000
G01 X 18.7926 Y 7.7021 Z -1.0000
G02 X 18.8209 Y 7.6812 Z -1.0000 I -0.0327 J -0.0740
G02 X 18.8458 Y 7.6478 Z -1.0000 I -0.2124 J -0.1842
G01 X 18.8488 Y 7.6373 Z -1.0000
G01 X 18.8521 Y 7.6288 Z -1.0000
G01 X 18.8594 Y 7.6256 Z -1.0000
G01 X 18.8654 Y 7.6303 Z -1.0000
G03 X 18.8715 Y 7.6814 Z -1.0000 I -0.2684 J 0.0582
G02 X 18.8760 Y 7.7359 Z -1.0000 I 0.4832 J -0.0127
G01 X 18.8804 Y 7.7447 Z -1.0000
G01 X 18.8885 Y 7.7465 Z -1.0000
G02 X 18.9241 Y 7.7285 Z -1.0000 I -0.0621 J -0.1671
G03 X 18.9621 Y 7.7104 Z -1.0000 I 0.0851 J 0.1299
G03 X 19.0076 Y 7.7019 Z -1.0000 I 0.0569 J 0.1788
G02 X 19.0530 Y 7.6938 Z -1.0000 I -0.0124 J -0.2020
G02 X 19.0761 Y 7.6815 Z -1.0000 I -0.0187 J -0.0629
G01 X 19.0896 Y 7.6626 Z -1.0000
G01 X 19.0884 Y 7.6495 Z -1.0000
G01 X 19.0895 Y 7.6451 Z -1.0000
G01 X 19.0957 Y 7.6451 Z -1.0000
G01 X 19.1054 Y 7.6566 Z -1.0000
G01 X 19.1045 Y 7.6670 Z -1.0000
G01 X 19.1055 Y 7.6757 Z -1.0000
G01 X 19.1250 Y 7.6877 Z -1.0000
G03 X 19.1483 Y 7.6999 Z -1.0000 I -0.0235 J 0.0736
G01 X 19.1528 Y 7.7090 Z -1.0000
G01 X 19.1482 Y 7.7147 Z -1.0000
G01 X 19.1321 Y 7.7135 Z -1.0000
G01 X 19.1167 Y 7.7133 Z -1.0000
G01 X 19.1114 Y 7.7208 Z -1.0000
G01 X 19.1155 Y 7.7319 Z -1.0000
G01 X 19.1246 Y 7.7361 Z -1.0000
G01 X 19.1271 Y 7.7405 Z -1.0000
G03 X 19.1026 Y 7.7713 Z -1.0000 I -0.1464 J -0.0915
G03 X 19.0667 Y 7.7928 Z -1.0000 I -0.0608 J -0.0608
G01 X 19.0455 Y 7.7886 Z -1.0000
G01 X 19.0353 Y 7.7889 Z -1.0000
G01 X 19.0317 Y 7.8018 Z -1.0000
G01 X 19.0323 Y 7.8229 Z -1.0000
G01 X 19.0272 Y 7.8251 Z -1.0000
G01 X 19.0187 Y 7.8247 Z -1.0000
G01 X 19.0146 Y 7.8311 Z -1.0000
G01 X 19.0098 Y 7.8412 Z -1.0000
G03 X 18.9860 Y 7.8539 Z -1.0000 I -0.0463 J -0.0581
G02 X 18.9654 Y 7.8650 Z -1.0000 I 0.0189 J 0.0596
G01 X 18.9651 Y 7.8709 Z -1.0000
G01 X 18.9671 Y 7.8790 Z -1.0000
G03 X 18.9567 Y 7.8983 Z -1.0000 I -0.0538 J -0.0165
G01 X 18.9505 Y 7.9163 Z -1.0000
G01 X 18.9576 Y 7.9285 Z -1.0000
G01 X 18.9688 Y 7.9415 Z -1.0000
G01 X 18.9705 Y 7.9585 Z -1.0000
G01 X 18.9750 Y 7.9701 Z -1.0000
G01 X 18.9940 Y 7.9750 Z -1.0000
G01 X 19.0043 Y 7.9796 Z -1.0000
G01 X 18.9924 Y 7.9907 Z -1.0000
G01 X 18.9870 Y 8.0120 Z -1.0000
G03 X 18.9818 Y 8.0344 Z -1.0000 I -0.0506 J -0.0000
G03 X 18.9663 Y 8.0540 Z -1.0000 I -0.0538 J -0.0265
G02 X 18.9489 Y 8.0728 Z -1.0000 I 0.0643 J 0.0772
G01 X 18.9456 Y 8.0831 Z -1.0000
G01 X 18.9502 Y 8.0913 Z -1.0000
G02 X 18.9797 Y 8.1035 Z -1.0000 I 0.0561 J -0.0936
G02 X 19.0116 Y 8.1039 Z -1.0000 I 0.0167 J -0.0664
G01 X 19.0350 Y 8.0910 Z -1.0000
G02 X 19.0541 Y 8.0690 Z -1.0000 I -0.1428 J -0.1428
G01 X 19.0562 Y 8.0626 Z -1.0000
G01 X 19.0584 Y 8.0562 Z -1.0000
G03 X 19.0890 Y 8.0200 Z -1.0000 I 0.4169 J 0.3219
G03 X 19.1241 Y 7.9940 Z -1.0000 I 0.0868 J 0.0805
G01 X 19.1443 Y 7.9931 Z -1.0000
G01 X 19.1601 Y 8.0062 Z -1.0000
G01 X 19.1667 Y 8.0300 Z -1.0000
G01 X 19.1751 Y 8.0394 Z -1.0000
G01 X 19.1944 Y 8.0333 Z -1.0000
G02 X 19.2162 Y 8.0057 Z -1.0000 I -0.0709 J -0.0783
G01 X 19.2220 Y 7.9828 Z -1.0000
G01 X 19.2162 Y 7.9645 Z -1.0000
G01 X 19.2065 Y 7.9607 Z -1.0000
G01 X 19.1940 Y 7.9585 Z -1.0000
G01 X 19.1846 Y 7.9469 Z -1.0000
G01 X 19.1868 Y 7.9356 Z -1.0000
G01 X 19.2001 Y 7.9296 Z -1.0000
G01 X 19.2173 Y 7.9249 Z -1.0000
G01 X 19.2220 Y 7.9166 Z -1.0000
G01 X 19.2189 Y 7.9054 Z -1.0000
G01 X 19.2093 Y 7.8958 Z -1.0000
G01 X 19.1981 Y 7.8962 Z -1.0000
G02 X 19.1644 Y 7.9290 Z -1.0000 I 0.1040 J 0.1406
G03 X 19.1301 Y 7.9577 Z -1.0000 I -0.0845 J -0.0662
G01 X 19.1115 Y 7.9570 Z -1.0000
G01 X 19.1049 Y 7.9479 Z -1.0000
G01 X 19.1083 Y 7.9437 Z -1.0000
G01 X 19.1218 Y 7.9372 Z -1.0000
G02 X 19.1488 Y 7.8951 Z -1.0000 I -0.1535 J -0.1283
G03 X 19.1747 Y 7.8511 Z -1.0000 I 0.2678 J 0.1277
G01 X 19.1832 Y 7.8467 Z -1.0000
G01 X 19.1896 Y 7.8418 Z -1.0000
G02 X 19.1944 Y 7.8060 Z -1.0000 I -0.1293 J -0.0358
G03 X 19.1996 Y 7.7683 Z -1.0000 I 0.1398 J -0.0000
G01 X 19.2082 Y 7.7568 Z -1.0000
G01 X 19.2169 Y 7.7454 Z -1.0000
G02 X 19.2221 Y 7.7077 Z -1.0000 I -0.1343 J -0.0377
G03 X 19.2277 Y 7.6726 Z -1.0000 I 0.1125 J -0.0000
G01 X 19.2354 Y 7.6670 Z -1.0000
G01 X 19.2461 Y 7.6628 Z -1.0000
G02 X 19.2611 Y 7.6428 Z -1.0000 I -0.0499 J -0.0532
G02 X 19.2717 Y 7.6180 Z -1.0000 I -0.1753 J -0.0896
G02 X 19.2822 Y 7.5822 Z -1.0000 I -0.3482 J -0.1213
G01 X 19.2792 Y 7.5528 Z -1.0000
G01 X 19.2614 Y 7.5380 Z -1.0000
G01 X 19.2485 Y 7.5398 Z -1.0000
G01 X 19.2477 Y 7.5461 Z -1.0000
G03 X 19.2605 Y 7.5632 Z -1.0000 I -0.0524 J 0.0524
G01 X 19.2635 Y 7.5753 Z -1.0000
G01 X 19.2602 Y 7.5807 Z -1.0000
G01 X 19.2547 Y 7.5798 Z -1.0000
G01 X 19.2472 Y 7.5800 Z -1.0000
G02 X 19.2220 Y 7.6155 Z -1.0000 I 0.1298 J 0.1185
G03 X 19.1941 Y 7.6546 Z -1.0000 I -0.1654 J -0.0886
G01 X 19.1766 Y 7.6643 Z -1.0000
G01 X 19.1650 Y 7.6594 Z -1.0000
G01 X 19.1622 Y 7.6417 Z -1.0000
G02 X 19.1627 Y 7.6174 Z -1.0000 I -0.0497 J -0.0131
G01 X 19.1542 Y 7.6055 Z -1.0000
G01 X 19.1453 Y 7.6074 Z -1.0000
G01 X 19.1387 Y 7.6282 Z -1.0000
G01 X 19.1325 Y 7.6379 Z -1.0000
G01 X 19.1238 Y 7.6352 Z -1.0000
G01 X 19.1179 Y 7.6109 Z -1.0000
G01 X 19.1259 Y 7.5902 Z -1.0000
G03 X 19.1442 Y 7.5737 Z -1.0000 I 0.0661 J 0.0547
G01 X 19.1556 Y 7.5702 Z -1.0000
G01 X 19.1674 Y 7.5670 Z -1.0000
G02 X 19.1885 Y 7.5505 Z -1.0000 I -0.0568 J -0.0945
G02 X 19.2047 Y 7.5293 Z -1.0000 I -0.0712 J -0.0712
G01 X 19.2083 Y 7.5159 Z -1.0000
G01 X 19.2024 Y 7.5070 Z -1.0000
G02 X 19.1737 Y 7.5011 Z -1.0000 I -0.0287 J 0.0667
G01 X 19.1481 Y 7.4921 Z -1.0000
G01 X 19.1391 Y 7.4735 Z -1.0000
G01 X 19.1335 Y 7.4516 Z -1.0000
G01 X 19.1237 Y 7.4458 Z -1.0000
G01 X 19.1160 Y 7.4398 Z -1.0000
G03 X 19.1161 Y 7.4147 Z -1.0000 I 0.0505 J -0.0124
G01 X 19.1125 Y 7.4076 Z -1.0000
G01 X 19.1043 Y 7.4099 Z -1.0000
G01 X 19.0869 Y 7.4200 Z -1.0000
G01 X 19.0758 Y 7.4134 Z -1.0000
G01 X 19.0633 Y 7.3961 Z -1.0000
G01 X 19.0478 Y 7.3906 Z -1.0000
G01 X 19.0344 Y 7.3964 Z -1.0000
G01 X 19.0286 Y 7.4113 Z -1.0000
G01 X 19.0346 Y 7.4260 Z -1.0000
G01 X 19.0493 Y 7.4320 Z -1.0000
G01 X 19.0632 Y 7.4389 Z -1.0000
G01 X 19.0700 Y 7.4589 Z -1.0000
G02 X 19.0746 Y 7.4831 Z -1.0000 I 0.0668 J -0.0000
G01 X 19.0839 Y 7.4942 Z -1.0000
G01 X 19.0931 Y 7.5054 Z -1.0000
G03 X 19.0977 Y 7.5302 Z -1.0000 I -0.0648 J 0.0249
G03 X 19.0913 Y 7.5550 Z -1.0000 I -0.0513 J -0.0000
G03 X 19.0658 Y 7.5882 Z -1.0000 I -0.1209 J -0.0666
G03 X 19.0328 Y 7.6173 Z -1.0000 I -0.3962 J -0.4149
G03 X 19.0043 Y 7.6384 Z -1.0000 I -0.2352 J -0.2875
G02 X 18.9821 Y 7.6598 Z -1.0000 I 0.0489 J 0.0730
G01 X 18.9817 Y 7.6695 Z -1.0000
G01 X 18.9818 Y 7.6770 Z -1.0000
G01 X 18.9750 Y 7.6809 Z -1.0000
G01 X 18.9628 Y 7.6774 Z -1.0000
G03 X 18.9397 Y 7.6591 Z -1.0000 I 0.0666 J -0.1082
G03 X 18.9224 Y 7.6356 Z -1.0000 I 0.0685 J -0.0685
G01 X 18.9180 Y 7.6177 Z -1.0000
G01 X 18.9233 Y 7.6032 Z -1.0000
G01 X 18.9352 Y 7.5977 Z -1.0000
G01 X 18.9385 Y 7.5935 Z -1.0000
G01 X 18.9319 Y 7.5845 Z -1.0000
G01 X 18.9121 Y 7.5788 Z -1.0000
G01 X 18.8981 Y 7.5847 Z -1.0000
G03 X 18.8837 Y 7.5952 Z -1.0000 I -0.0407 J -0.0407
G01 X 18.8723 Y 7.5979 Z -1.0000
G01 X 18.8669 Y 7.5931 Z -1.0000
G01 X 18.8695 Y 7.5737 Z -1.0000
G02 X 18.8781 Y 7.5492 Z -1.0000 I -0.2846 J -0.1134
G02 X 18.8823 Y 7.5312 Z -1.0000 I -0.1390 J -0.0422
G01 X 18.8886 Y 7.5149 Z -1.0000
G01 X 18.9003 Y 7.5035 Z -1.0000
G01 X 18.9112 Y 7.4915 Z -1.0000
G02 X 18.9216 Y 7.4597 Z -1.0000 I -0.1119 J -0.0545
G01 X 18.9299 Y 7.4908 Z -1.0000
G02 X 18.9391 Y 7.5491 Z -1.0000 I 0.2313 J -0.0066
G01 X 18.9491 Y 7.5566 Z -1.0000
G03 X 18.9662 Y 7.5582 Z -1.0000 I -0.0012 J 0.1087
G03 X 18.9947 Y 7.5644 Z -1.0000 I -0.0519 J 0.3044
G01 X 19.0135 Y 7.5600 Z -1.0000
G01 X 19.0222 Y 7.5401 Z -1.0000
G02 X 19.0182 Y 7.5090 Z -1.0000 I -0.1497 J 0.0035
G02 X 19.0108 Y 7.4914 Z -1.0000 I -0.0557 J 0.0132
G01 X 19.0053 Y 7.4739 Z -1.0000
G03 X 19.0089 Y 7.4396 Z -1.0000 I 0.1242 J -0.0043
G02 X 19.0098 Y 7.4106 Z -1.0000 I -0.0660 J -0.0166
G01 X 19.0024 Y 7.4044 Z -1.0000
G01 X 18.9920 Y 7.3995 Z -1.0000
G01 X 18.9871 Y 7.3854 Z -1.0000
G01 X 18.9915 Y 7.3684 Z -1.0000
G03 X 19.0066 Y 7.3502 Z -1.0000 I 0.0562 J 0.0312
G01 X 19.0246 Y 7.3429 Z -1.0000
G01 X 19.0348 Y 7.3482 Z -1.0000
G01 X 19.0468 Y 7.3555 Z -1.0000
G02 X 19.1052 Y 7.3539 Z -1.0000 I 0.0217 J -0.2691
G03 X 19.1588 Y 7.3545 Z -1.0000 I 0.0246 J 0.1785
G01 X 19.1668 Y 7.3639 Z -1.0000
G01 X 19.1718 Y 7.3703 Z -1.0000
G01 X 19.1815 Y 7.3676 Z -1.0000
G02 X 19.1931 Y 7.3512 Z -1.0000 I -0.0414 J -0.0414
G02 X 19.1998 Y 7.3288 Z -1.0000 I -0.0719 J -0.0340
G01 X 19.2094 Y 7.3089 Z -1.0000
G03 X 19.2438 Y 7.2820 Z -1.0000 I 0.1049 J 0.0989
G02 X 19.2821 Y 7.2574 Z -1.0000 I -0.1830 J -0.3261
G01 X 19.2888 Y 7.2490 Z -1.0000
G01 X 19.2962 Y 7.2429 Z -1.0000
G03 X 19.3347 Y 7.2386 Z -1.0000 I 0.0385 J 0.1703
G01 X 19.3621 Y 7.2487 Z -1.0000
G01 X 19.3672 Y 7.2662 Z -1.0000
G01 X 19.3686 Y 7.2864 Z -1.0000
G01 X 19.3806 Y 7.2939 Z -1.0000
G01 X 19.3885 Y 7.3001 Z -1.0000
G01 X 19.3851 Y 7.3129 Z -1.0000
G01 X 19.3656 Y 7.3253 Z -1.0000
G01 X 19.3465 Y 7.3254 Z -1.0000
G01 X 19.3413 Y 7.3268 Z -1.0000
G01 X 19.3416 Y 7.3306 Z -1.0000
G01 X 19.3532 Y 7.3448 Z -1.0000
G03 X 19.3624 Y 7.3768 Z -1.0000 I -0.1077 J 0.0485
G01 X 19.3757 Y 7.4005 Z -1.0000
G01 X 19.4002 Y 7.4078 Z -1.0000
G03 X 19.4297 Y 7.4119 Z -1.0000 I 0.0067 J 0.0597
G01 X 19.4508 Y 7.4285 Z -1.0000
G01 X 19.4592 Y 7.4525 Z -1.0000
G01 X 19.4524 Y 7.4723 Z -1.0000
G01 X 19.4469 Y 7.4889 Z -1.0000
G01 X 19.4536 Y 7.4977 Z -1.0000
G01 X 19.4639 Y 7.5061 Z -1.0000
G01 X 19.4638 Y 7.5153 Z -1.0000
G01 X 19.4622 Y 7.5256 Z -1.0000
G01 X 19.4687 Y 7.5345 Z -1.0000
G01 X 19.4801 Y 7.5343 Z -1.0000
G02 X 19.5403 Y 7.4870 Z -1.0000 I -0.2626 J -0.3968
G03 X 19.6025 Y 7.4390 Z -1.0000 I 0.3045 J 0.3298
G01 X 19.6259 Y 7.4321 Z -1.0000
G01 X 19.6416 Y 7.4263 Z -1.0000
G01 X 19.6430 Y 7.4174 Z -1.0000
G01 X 19.6439 Y 7.4066 Z -1.0000
G01 X 19.6624 Y 7.3951 Z -1.0000
G02 X 19.6857 Y 7.3821 Z -1.0000 I -0.0133 J -0.0509
G02 X 19.7002 Y 7.3587 Z -1.0000 I -0.0390 J -0.0404
G02 X 19.7020 Y 7.3335 Z -1.0000 I -0.0517 J -0.0163
G01 X 19.6945 Y 7.3247 Z -1.0000
G01 X 19.6863 Y 7.3166 Z -1.0000
G01 X 19.6864 Y 7.3020 Z -1.0000
G01 X 19.6975 Y 7.2918 Z -1.0000
G03 X 19.7262 Y 7.2905 Z -1.0000 I 0.0171 J 0.0592
G03 X 19.7550 Y 7.3017 Z -1.0000 I -0.0164 J 0.0849
G01 X 19.7661 Y 7.3150 Z -1.0000
G01 X 19.7663 Y 7.3315 Z -1.0000
G01 X 19.7532 Y 7.3499 Z -1.0000
G01 X 19.7403 Y 7.3696 Z -1.0000
G02 X 19.7333 Y 7.4193 Z -1.0000 I 0.1733 J 0.0496
G03 X 19.7252 Y 7.4674 Z -1.0000 I -0.1465 J -0.0000
G01 X 19.7105 Y 7.4850 Z -1.0000
G01 X 19.6964 Y 7.5010 Z -1.0000
G01 X 19.6962 Y 7.5202 Z -1.0000
G01 X 19.6946 Y 7.5359 Z -1.0000
G01 X 19.6811 Y 7.5437 Z -1.0000
G01 X 19.6779 Y 7.5481 Z -1.0000
G01 X 19.6845 Y 7.5553 Z -1.0000
G01 X 19.6851 Y 7.5627 Z -1.0000
G03 X 19.6529 Y 7.5738 Z -1.0000 I -0.0436 J -0.0744
G02 X 19.5991 Y 7.5904 Z -1.0000 I 0.0228 J 0.1689
G02 X 19.5659 Y 7.6175 Z -1.0000 I 0.0443 J 0.0881
G03 X 19.5371 Y 7.6529 Z -1.0000 I -1.1051 J -0.8693
G03 X 19.5213 Y 7.6706 Z -1.0000 I -0.2903 J -0.2440
G02 X 19.5060 Y 7.6887 Z -1.0000 I 0.1458 J 0.1382
G02 X 19.4777 Y 7.7293 Z -1.0000 I 0.6662 J 0.4964
G02 X 19.4512 Y 7.7712 Z -1.0000 I 1.1665 J 0.7656
G02 X 19.4342 Y 7.8009 Z -1.0000 I 0.5581 J 0.3385
G02 X 19.4240 Y 7.8302 Z -1.0000 I 0.0874 J 0.0469
G01 X 19.4270 Y 7.8408 Z -1.0000
G01 X 19.3984 Y 7.8438 Z -1.0000
G02 X 19.3654 Y 7.8481 Z -1.0000 I -0.0097 J 0.0539
G02 X 19.3364 Y 7.8730 Z -1.0000 I 0.0305 J 0.0649
G02 X 19.3130 Y 7.9095 Z -1.0000 I 0.8409 J 0.5660
G02 X 19.2932 Y 7.9436 Z -1.0000 I 0.7126 J 0.4365
G02 X 19.2796 Y 7.9795 Z -1.0000 I 0.1188 J 0.0653
G02 X 19.2738 Y 8.0311 Z -1.0000 I 0.2411 J 0.0534
G03 X 19.2661 Y 8.0791 Z -1.0000 I -0.1613 J -0.0012
G01 X 19.2545 Y 8.0913 Z -1.0000
G01 X 19.2416 Y 8.1026 Z -1.0000
G01 X 19.2357 Y 8.1254 Z -1.0000
G01 X 19.2443 Y 8.1465 Z -1.0000
G02 X 19.2806 Y 8.1711 Z -1.0000 I 0.0791 J -0.0778
G03 X 19.3243 Y 8.1917 Z -1.0000 I -0.2200 J 0.5252
G01 X 19.3352 Y 8.1996 Z -1.0000
G01 X 19.3380 Y 8.2100 Z -1.0000
G03 X 19.3254 Y 8.2390 Z -1.0000 I -0.0913 J -0.0226
G02 X 19.3140 Y 8.2688 Z -1.0000 I 0.0623 J 0.0408
G01 X 19.3180 Y 8.2882 Z -1.0000
G01 X 19.3189 Y 8.3057 Z -1.0000
G03 X 19.2959 Y 8.3345 Z -1.0000 I -0.0730 J -0.0347
G03 X 19.2624 Y 8.3534 Z -1.0000 I -0.0778 J -0.0989
G01 X 19.2522 Y 8.3510 Z -1.0000
G01 X 19.2504 Y 8.3425 Z -1.0000
G01 X 19.2579 Y 8.3351 Z -1.0000
G01 X 19.2654 Y 8.3251 Z -1.0000
G02 X 19.2626 Y 8.2714 Z -1.0000 I -0.2111 J -0.0156
G03 X 19.2556 Y 8.2140 Z -1.0000 I 0.4810 J -0.0873
G01 X 19.2585 Y 8.2028 Z -1.0000
G01 X 19.2572 Y 8.1966 Z -1.0000
G01 X 19.2433 Y 8.1923 Z -1.0000
G01 X 19.2243 Y 8.1982 Z -1.0000
G02 X 19.1908 Y 8.2278 Z -1.0000 I 0.0962 J 0.1424
G02 X 19.1651 Y 8.2652 Z -1.0000 I 0.1511 J 0.1314
G01 X 19.1598 Y 8.2861 Z -1.0000
G01 X 19.1529 Y 8.3047 Z -1.0000
G03 X 19.1256 Y 8.3259 Z -1.0000 I -0.0663 J -0.0569
G03 X 19.0925 Y 8.3352 Z -1.0000 I -0.0409 J -0.0819
G01 X 19.0762 Y 8.3301 Z -1.0000
G01 X 19.0613 Y 8.3256 Z -1.0000
G01 X 19.0446 Y 8.3336 Z -1.0000
G01 X 19.0341 Y 8.3361 Z -1.0000
G01 X 19.0283 Y 8.3280 Z -1.0000
G01 X 19.0350 Y 8.3113 Z -1.0000
G01 X 19.0560 Y 8.2989 Z -1.0000
G01 X 19.0760 Y 8.2858 Z -1.0000
G01 X 19.0836 Y 8.2636 Z -1.0000
G03 X 19.0888 Y 8.2383 Z -1.0000 I 0.0640 J 0.0000
G01 X 19.1000 Y 8.2253 Z -1.0000
G01 X 19.1025 Y 8.2165 Z -1.0000
G01 X 19.0896 Y 8.2048 Z -1.0000
G02 X 19.0625 Y 8.1960 Z -1.0000 I -0.0819 J 0.2076
G02 X 19.0448 Y 8.1933 Z -1.0000 I -0.0227 J 0.0897
G01 X 19.0365 Y 8.1982 Z -1.0000
G01 X 19.0371 Y 8.2096 Z -1.0000
G01 X 19.0214 Y 8.2061 Z -1.0000
G01 X 19.0048 Y 8.2011 Z -1.0000
G01 X 19.0065 Y 8.2155 Z -1.0000
G01 X 18.9944 Y 8.2332 Z -1.0000
G01 X 18.9819 Y 8.2515 Z -1.0000
G01 X 18.9823 Y 8.2694 Z -1.0000
G01 X 18.9823 Y 8.2839 Z -1.0000
G01 X 18.9747 Y 8.2891 Z -1.0000
G01 X 18.9661 Y 8.2948 Z -1.0000
G01 X 18.9636 Y 8.3164 Z -1.0000
G02 X 18.9708 Y 8.3421 Z -1.0000 I 0.1095 J -0.0168
G01 X 18.9794 Y 8.3544 Z -1.0000
G01 X 18.9838 Y 8.3530 Z -1.0000
G01 X 18.9836 Y 8.3350 Z -1.0000
G01 X 18.9853 Y 8.3153 Z -1.0000
G01 X 18.9938 Y 8.3117 Z -1.0000
G01 X 19.0071 Y 8.3228 Z -1.0000
G03 X 19.0337 Y 8.3768 Z -1.0000 I -0.2783 J 0.1705
G03 X 19.0545 Y 8.4354 Z -1.0000 I -1.1760 J 0.4492
G01 X 19.0560 Y 8.4450 Z -1.0000
G01 X 19.0522 Y 8.4511 Z -1.0000
G01 X 19.0350 Y 8.4549 Z -1.0000
G01 X 19.0241 Y 8.4629 Z -1.0000
G02 X 19.0229 Y 8.4929 Z -1.0000 I 0.0538 J 0.0171
G02 X 19.0347 Y 8.5295 Z -1.0000 I 0.2335 J -0.0548
G01 X 19.0439 Y 8.5441 Z -1.0000
G01 X 19.0525 Y 8.5585 Z -1.0000
G03 X 19.0560 Y 8.5799 Z -1.0000 I -0.0633 J 0.0213
G01 X 19.0488 Y 8.5980 Z -1.0000
G03 X 19.0180 Y 8.6206 Z -1.0000 I -0.0748 J -0.0698
G03 X 18.9791 Y 8.6358 Z -1.0000 I -0.1302 J -0.2749
G03 X 18.9473 Y 8.6428 Z -1.0000 I -0.0545 J -0.1730
G02 X 18.9156 Y 8.6486 Z -1.0000 I 0.0374 J 0.2914
G01 X 18.9096 Y 8.6520 Z -1.0000
G01 X 18.9063 Y 8.6579 Z -1.0000
G02 X 18.9008 Y 8.6908 Z -1.0000 I 0.2766 J 0.0633
G01 X 18.9092 Y 8.7129 Z -1.0000
G01 X 18.9351 Y 8.7219 Z -1.0000
G03 X 18.9660 Y 8.7269 Z -1.0000 I 0.0047 J 0.0691
G01 X 18.9731 Y 8.7375 Z -1.0000
G01 X 18.9687 Y 8.7535 Z -1.0000
G03 X 18.9513 Y 8.7737 Z -1.0000 I -0.0679 J -0.0408
G01 X 18.9314 Y 8.7804 Z -1.0000
G01 X 18.9173 Y 8.7721 Z -1.0000
G01 X 18.9022 Y 8.7645 Z -1.0000
G02 X 18.8644 Y 8.7764 Z -1.0000 I 0.0072 J 0.0882
G03 X 18.8227 Y 8.7966 Z -1.0000 I -0.1411 J -0.2389
G03 X 18.8017 Y 8.8005 Z -1.0000 I -0.0210 J -0.0548
G01 X 18.7845 Y 8.8054 Z -1.0000
G01 X 18.7796 Y 8.8143 Z -1.0000
G01 X 18.7844 Y 8.8233 Z -1.0000
G01 X 18.8003 Y 8.8281 Z -1.0000
G01 X 18.8135 Y 8.8357 Z -1.0000
G03 X 18.8211 Y 8.8637 Z -1.0000 I -0.0480 J 0.0280
G01 X 18.8313 Y 8.8876 Z -1.0000
G01 X 18.8537 Y 8.8949 Z -1.0000
G03 X 18.8845 Y 8.8969 Z -1.0000 I 0.0105 J 0.0787
G03 X 18.9090 Y 8.9095 Z -1.0000 I -0.0164 J 0.0618
G03 X 18.9282 Y 8.9299 Z -1.0000 I -0.0729 J 0.0879
G01 X 18.9316 Y 8.9404 Z -1.0000
G01 X 18.9268 Y 8.9478 Z -1.0000
G03 X 18.9040 Y 8.9525 Z -1.0000 I -0.0228 J -0.0522
G01 X 18.8840 Y 8.9602 Z -1.0000
G01 X 18.8763 Y 8.9774 Z -1.0000
G03 X 18.8719 Y 9.0005 Z -1.0000 I -0.0621 J -0.0000
G03 X 18.8591 Y 9.0206 Z -1.0000 I -0.0595 J -0.0238
G01 X 18.8531 Y 9.0362 Z -1.0000
G01 X 18.8598 Y 9.0455 Z -1.0000
G01 X 18.8643 Y 9.0540 Z -1.0000
G01 X 18.8540 Y 9.0694 Z -1.0000
G02 X 18.8353 Y 9.0899 Z -1.0000 I 0.0418 J 0.0570
G02 X 18.8257 Y 9.1164 Z -1.0000 I 0.0622 J 0.0375
G01 X 18.8295 Y 9.1389 Z -1.0000
G01 X 18.8414 Y 9.1460 Z -1.0000
G01 X 18.8520 Y 9.1527 Z -1.0000
G01 X 18.8527 Y 9.1702 Z -1.0000
G03 X 18.8414 Y 9.1926 Z -1.0000 I -0.1036 J -0.0382
G01 X 18.8314 Y 9.2028 Z -1.0000
G01 X 18.8252 Y 9.2137 Z -1.0000
G02 X 18.8285 Y 9.2615 Z -1.0000 I 0.2044 J 0.0101
G02 X 18.8440 Y 9.3046 Z -1.0000 I 0.1415 J -0.0267
G01 X 18.8564 Y 9.3119 Z -1.0000
G01 X 18.8645 Y 9.3193 Z -1.0000
G03 X 18.8604 Y 9.3533 Z -1.0000 I -0.0796 J 0.0077
G03 X 18.8389 Y 9.3849 Z -1.0000 I -0.0691 J -0.0241
G01 X 18.8120 Y 9.3948 Z -1.0000
G02 X 18.7874 Y 9.4001 Z -1.0000 I 0.0000 J 0.0599
G01 X 18.7853 Y 9.4068 Z -1.0000
G01 X 18.7858 Y 9.4178 Z -1.0000
G03 X 18.7678 Y 9.4414 Z -1.0000 I -0.0726 J -0.0369
G03 X 18.7430 Y 9.4567 Z -1.0000 I -0.0540 J -0.0596
G01 X 18.7335 Y 9.4547 Z -1.0000
G01 X 18.7315 Y 9.4453 Z -1.0000
G03 X 18.7469 Y 9.4204 Z -1.0000 I 0.0753 J 0.0293
G01 X 18.7537 Y 9.3997 Z -1.0000
G01 X 18.7435 Y 9.3872 Z -1.0000
G03 X 18.7179 Y 9.3778 Z -1.0000 I 0.0870 J -0.2773
G03 X 18.6934 Y 9.3662 Z -1.0000 I 0.1134 J -0.2698
G02 X 18.6691 Y 9.3547 Z -1.0000 I -0.1331 J 0.2510
G01 X 18.6623 Y 9.3533 Z -1.0000
G01 X 18.6582 Y 9.3563 Z -1.0000
G02 X 18.6552 Y 9.3741 Z -1.0000 I 0.0518 J 0.0178
G01 X 18.6489 Y 9.3886 Z -1.0000
G01 X 18.6332 Y 9.3948 Z -1.0000
G01 X 18.6140 Y 9.4005 Z -1.0000
G02 X 18.5869 Y 9.4249 Z -1.0000 I 0.0634 J 0.0976
G01 X 18.5615 Y 9.4408 Z -1.0000
G01 X 18.5416 Y 9.4354 Z -1.0000
G01 X 18.5338 Y 9.4165 Z -1.0000
G01 X 18.5430 Y 9.3989 Z -1.0000
G01 X 18.5517 Y 9.3863 Z -1.0000
G01 X 18.5481 Y 9.3814 Z -1.0000
G01 X 18.5353 Y 9.3766 Z -1.0000
G01 X 18.5308 Y 9.3672 Z -1.0000
G01 X 18.5361 Y 9.3586 Z -1.0000
G03 X 18.5585 Y 9.3533 Z -1.0000 I 0.0224 J 0.0447
G01 X 18.5792 Y 9.3464 Z -1.0000
G01 X 18.5861 Y 9.3326 Z -1.0000
G01 X 18.5935 Y 9.3193 Z -1.0000
G01 X 18.6195 Y 9.3119 Z -1.0000
G03 X 18.6485 Y 9.3180 Z -1.0000 I 0.0000 J 0.0718
G01 X 18.6587 Y 9.3292 Z -1.0000
G01 X 18.6684 Y 9.3331 Z -1.0000
G02 X 18.7272 Y 9.2951 Z -1.0000 I -0.1394 J -0.2803
G02 X 18.7847 Y 9.2404 Z -1.0000 I -0.3361 J -0.4108
G02 X 18.7966 Y 9.2185 Z -1.0000 I -0.0389 J -0.0352
G01 X 18.7924 Y 9.2017 Z -1.0000
G01 X 18.7741 Y 9.1939 Z -1.0000
G02 X 18.7460 Y 9.1977 Z -1.0000 I 0.0031 J 0.1263
G02 X 18.7277 Y 9.2058 Z -1.0000 I 0.0153 J 0.0603
G01 X 18.7095 Y 9.2116 Z -1.0000
G03 X 18.6827 Y 9.2082 Z -1.0000 I -0.0041 J -0.0750
G01 X 18.6609 Y 9.2072 Z -1.0000
G01 X 18.6552 Y 9.2142 Z -1.0000
G01 X 18.6594 Y 9.2247 Z -1.0000
G01 X 18.6690 Y 9.2289 Z -1.0000
G01 X 18.6788 Y 9.2329 Z -1.0000
G01 X 18.6829 Y 9.2427 Z -1.0000
G01 X 18.6772 Y 9.2509 Z -1.0000
G03 X 18.6466 Y 9.2565 Z -1.0000 I -0.0306 J -0.0803
G01 X 18.6286 Y 9.2651 Z -1.0000
G01 X 18.6287 Y 9.2786 Z -1.0000
G01 X 18.6282 Y 9.2903 Z -1.0000
G01 X 18.6116 Y 9.2961 Z -1.0000
G02 X 18.5780 Y 9.2978 Z -1.0000 I -0.0122 J 0.0914
G02 X 18.5541 Y 9.3097 Z -1.0000 I 0.0137 J 0.0572
G03 X 18.5307 Y 9.3206 Z -1.0000 I -0.0327 J -0.0394
G03 X 18.5038 Y 9.3190 Z -1.0000 I -0.0101 J -0.0549
G03 X 18.4818 Y 9.3055 Z -1.0000 I 0.0160 J -0.0509
G01 X 18.4755 Y 9.2902 Z -1.0000
G01 X 18.4705 Y 9.2755 Z -1.0000
G01 X 18.4601 Y 9.2704 Z -1.0000
G01 X 18.4521 Y 9.2761 Z -1.0000
G01 X 18.4513 Y 9.2956 Z -1.0000
G01 X 18.4469 Y 9.3113 Z -1.0000
G01 X 18.4287 Y 9.3175 Z -1.0000
G03 X 18.3996 Y 9.3142 Z -1.0000 I 7.1940 J -64.1067
G03 X 18.3892 Y 9.3130 Z -1.0000 I 0.1170 J -1.0387
G01 X 18.3827 Y 9.3084 Z -1.0000
G01 X 18.3788 Y 9.2920 Z -1.0000
G01 X 18.3726 Y 9.2768 Z -1.0000
G02 X 18.3501 Y 9.2631 Z -1.0000 I -0.0391 J 0.0388
G02 X 18.3223 Y 9.2573 Z -1.0000 I -0.0423 J 0.1334
G01 X 18.3159 Y 9.2596 Z -1.0000
G01 X 18.3120 Y 9.2661 Z -1.0000
G02 X 18.3062 Y 9.2920 Z -1.0000 I 0.1900 J 0.0564
G03 X 18.2997 Y 9.3179 Z -1.0000 I -0.1479 J -0.0231
G03 X 18.2903 Y 9.3375 Z -1.0000 I -0.0908 J -0.0315
G01 X 18.2925 Y 9.3455 Z -1.0000
G01 X 18.3080 Y 9.3469 Z -1.0000
G01 X 18.3298 Y 9.3479 Z -1.0000
G01 X 18.3374 Y 9.3593 Z -1.0000
G01 X 18.3329 Y 9.3764 Z -1.0000
G01 X 18.3252 Y 9.3809 Z -1.0000
G01 X 18.3165 Y 9.3854 Z -1.0000
G02 X 18.3060 Y 9.4078 Z -1.0000 I 0.0551 J 0.0395
G02 X 18.3030 Y 9.4335 Z -1.0000 I 0.0870 J 0.0230
G01 X 18.3069 Y 9.4426 Z -1.0000
G01 X 18.3131 Y 9.4517 Z -1.0000
G03 X 18.3314 Y 9.4987 Z -1.0000 I -0.5737 J 0.2505
G03 X 18.3368 Y 9.5388 Z -1.0000 I -0.0970 J 0.0333
G01 X 18.3282 Y 9.5468 Z -1.0000
G01 X 18.3148 Y 9.5523 Z -1.0000
G01 X 18.3107 Y 9.5641 Z -1.0000
G03 X 18.3119 Y 9.5814 Z -1.0000 I -0.1538 J 0.0194
G03 X 18.3113 Y 9.6120 Z -1.0000 I -0.4597 J 0.0063
G01 X 18.3022 Y 9.6311 Z -1.0000
G01 X 18.2867 Y 9.6339 Z -1.0000
G01 X 18.2754 Y 9.6347 Z -1.0000
G01 X 18.2737 Y 9.6412 Z -1.0000
G01 X 18.2756 Y 9.6528 Z -1.0000
G01 X 18.2699 Y 9.6573 Z -1.0000
G01 X 18.2581 Y 9.6537 Z -1.0000
G01 X 18.2463 Y 9.6414 Z -1.0000
G03 X 18.2394 Y 9.6246 Z -1.0000 I 0.0464 J -0.0288
G03 X 18.2323 Y 9.5792 Z -1.0000 I 0.3420 J -0.0768
G03 X 18.2350 Y 9.5391 Z -1.0000 I 0.1292 J -0.0114
G01 X 18.2428 Y 9.5329 Z -1.0000
G01 X 18.2500 Y 9.5278 Z -1.0000
G01 X 18.2498 Y 9.5131 Z -1.0000
G01 X 18.2493 Y 9.4961 Z -1.0000
G01 X 18.2587 Y 9.4853 Z -1.0000
G01 X 18.2406 Y 9.4851 Z -1.0000
G03 X 18.2061 Y 9.4929 Z -1.0000 I -7.0955 J -31.3523
G03 X 18.1922 Y 9.4960 Z -1.0000 I -7.2142 J -32.0408
G02 X 18.1790 Y 9.5005 Z -1.0000 I 0.0147 J 0.0656
G02 X 18.1597 Y 9.5109 Z -1.0000 I 0.0695 J 0.1522
G01 X 18.1523 Y 9.5226 Z -1.0000
G01 X 18.1573 Y 9.5327 Z -1.0000
G01 X 18.1564 Y 9.5375 Z -1.0000
G03 X 18.1207 Y 9.5407 Z -1.0000 I -0.0303 J -0.1398
G02 X 18.0687 Y 9.5430 Z -1.0000 I -0.0124 J 0.3019
G02 X 18.0416 Y 9.5511 Z -1.0000 I 0.0117 J 0.0886
G02 X 18.0176 Y 9.5666 Z -1.0000 I 0.0493 J 0.1031
G02 X 17.9830 Y 9.6002 Z -1.0000 I 0.2126 J 0.2538
G02 X 17.9543 Y 9.6387 Z -1.0000 I 0.2022 J 0.1801
G02 X 17.9423 Y 9.6664 Z -1.0000 I 0.0914 J 0.0560
G02 X 17.9404 Y 9.6956 Z -1.0000 I 0.0707 J 0.0194
G02 X 17.9503 Y 9.7265 Z -1.0000 I 0.0904 J -0.0121
G03 X 17.9601 Y 9.7575 Z -1.0000 I -0.0774 J 0.0415
G03 X 17.9580 Y 9.7905 Z -1.0000 I -0.0908 J 0.0109
G03 X 17.9456 Y 9.8146 Z -1.0000 I -0.0575 J -0.0145
G01 X 17.9361 Y 9.8161 Z -1.0000
G01 X 17.9282 Y 9.8177 Z -1.0000
G01 X 17.9227 Y 9.8356 Z -1.0000
G01 X 17.9315 Y 9.8431 Z -1.0000
G02 X 17.9588 Y 9.8299 Z -1.0000 I -0.0081 J -0.0515
G03 X 17.9937 Y 9.8153 Z -1.0000 I 0.0374 J 0.0404
G01 X 18.0206 Y 9.8271 Z -1.0000
G01 X 18.0396 Y 9.8390 Z -1.0000
G01 X 18.0466 Y 9.8336 Z -1.0000
G01 X 18.0554 Y 9.8174 Z -1.0000
G03 X 18.0851 Y 9.8074 Z -1.0000 I 0.0327 J 0.0481
G03 X 18.1231 Y 9.8061 Z -1.0000 I 0.0588 J 1.1170
G03 X 18.1577 Y 9.8060 Z -1.0000 I 0.0187 J 1.0064
G03 X 18.1922 Y 9.8071 Z -1.0000 I -0.0199 J 1.1929
G03 X 18.2008 Y 9.8080 Z -1.0000 I -0.0032 J 0.0703
G01 X 18.2061 Y 9.8126 Z -1.0000
G03 X 18.2175 Y 9.8597 Z -1.0000 I -0.3032 J 0.0982
G03 X 18.2138 Y 9.9053 Z -1.0000 I -0.0939 J 0.0153
G03 X 18.1916 Y 9.9368 Z -1.0000 I -0.0638 J -0.0215
G02 X 18.1604 Y 9.9661 Z -1.0000 I 0.1512 J 0.1922
G02 X 18.1424 Y 9.9918 Z -1.0000 I 0.0991 J 0.0885
G01 X 18.1412 Y 10.0115 Z -1.0000
G01 X 18.1472 Y 10.0137 Z -1.0000
G01 X 18.1477 Y 10.0311 Z -1.0000
G03 X 18.1382 Y 10.0515 Z -1.0000 I -0.0613 J -0.0162
G01 X 18.1329 Y 10.0519 Z -1.0000
G01 X 18.1265 Y 10.0518 Z -1.0000
G02 X 18.1076 Y 10.0756 Z -1.0000 I 0.0713 J 0.0758
G02 X 18.0905 Y 10.1070 Z -1.0000 I 0.6042 J 0.3506
G02 X 18.0756 Y 10.1377 Z -1.0000 I 0.6098 J 0.3133
G03 X 18.0584 Y 10.1639 Z -1.0000 I -0.0911 J -0.0410
G01 X 18.0474 Y 10.1688 Z -1.0000
G01 X 18.0385 Y 10.1740 Z -1.0000
G01 X 18.0332 Y 10.1939 Z -1.0000
G01 X 18.0250 Y 10.2142 Z -1.0000
G03 X 17.9800 Y 10.2489 Z -1.0000 I -0.1416 J -0.1371
G03 X 17.9276 Y 10.2714 Z -1.0000 I -0.1311 J -0.2332
G01 X 17.9156 Y 10.2687 Z -1.0000
G01 X 17.9144 Y 10.2759 Z -1.0000
G01 X 17.9272 Y 10.2884 Z -1.0000
G01 X 17.9477 Y 10.2941 Z -1.0000
G01 X 17.9499 Y 10.2986 Z -1.0000
G01 X 17.9366 Y 10.3087 Z -1.0000
G03 X 17.9052 Y 10.3107 Z -1.0000 I -0.0188 J -0.0472
G01 X 17.8791 Y 10.2940 Z -1.0000
G02 X 17.8548 Y 10.2681 Z -1.0000 I -0.1922 J 0.1557
G01 X 17.8483 Y 10.2656 Z -1.0000
G01 X 17.8451 Y 10.2686 Z -1.0000
G01 X 17.8472 Y 10.2829 Z -1.0000
G01 X 17.8459 Y 10.2975 Z -1.0000
G03 X 17.8255 Y 10.3179 Z -1.0000 I -0.0540 J -0.0335
G03 X 17.7984 Y 10.3257 Z -1.0000 I -0.0271 J -0.0435
G01 X 17.7797 Y 10.3178 Z -1.0000
G01 X 17.7697 Y 10.2981 Z -1.0000
G03 X 17.7712 Y 10.2656 Z -1.0000 I 0.0777 J -0.0127
G02 X 17.7748 Y 10.2316 Z -1.0000 I -0.1125 J -0.0290
G02 X 17.7687 Y 10.2082 Z -1.0000 I -0.0575 J 0.0025
G01 X 17.7670 Y 10.1892 Z -1.0000
G01 X 17.7778 Y 10.1775 Z -1.0000
G01 X 17.7939 Y 10.1667 Z -1.0000
G01 X 17.7983 Y 10.1554 Z -1.0000
G01 X 17.7929 Y 10.1466 Z -1.0000
G01 X 17.7707 Y 10.1412 Z -1.0000
G02 X 17.7483 Y 10.1464 Z -1.0000 I -0.0000 J 0.0501
G01 X 17.7430 Y 10.1550 Z -1.0000
G01 X 17.7382 Y 10.1640 Z -1.0000
G01 X 17.7223 Y 10.1688 Z -1.0000
G01 X 17.7088 Y 10.1761 Z -1.0000
G01 X 17.7016 Y 10.2003 Z -1.0000
G03 X 17.6955 Y 10.2292 Z -1.0000 I -0.0716 J -0.0000
G03 X 17.6774 Y 10.2551 Z -1.0000 I -0.0750 J -0.0331
G02 X 17.6535 Y 10.2787 Z -1.0000 I 0.9394 J 0.9738
G02 X 17.6255 Y 10.3077 Z -1.0000 I 1.3457 J 1.3274
G01 X 17.6157 Y 10.3357 Z -1.0000
G01 X 17.6300 Y 10.3631 Z -1.0000
G02 X 17.6629 Y 10.3758 Z -1.0000 I 0.0361 J -0.0444
G02 X 17.6964 Y 10.3669 Z -1.0000 I 0.0032 J -0.0553
G02 X 17.7217 Y 10.3416 Z -1.0000 I -0.0483 J -0.0736
G01 X 17.7234 Y 10.3258 Z -1.0000
G01 X 17.7246 Y 10.3128 Z -1.0000
G01 X 17.7348 Y 10.3071 Z -1.0000
G01 X 17.7513 Y 10.3115 Z -1.0000
G03 X 17.7706 Y 10.3278 Z -1.0000 I -0.0357 J 0.0618
G01 X 17.7785 Y 10.3500 Z -1.0000
G03 X 17.7700 Y 10.3934 Z -1.0000 I -0.1210 J -0.0011
G03 X 17.7495 Y 10.4367 Z -1.0000 I -0.3385 J -0.1342
G03 X 17.7310 Y 10.4633 Z -1.0000 I -0.1438 J -0.0803
G01 X 17.7206 Y 10.4891 Z -1.0000
G01 X 17.7280 Y 10.5176 Z -1.0000
G01 X 17.7337 Y 10.5445 Z -1.0000
G01 X 17.7213 Y 10.5652 Z -1.0000
G01 X 17.7149 Y 10.5774 Z -1.0000
G01 X 17.7209 Y 10.5835 Z -1.0000
G02 X 17.7438 Y 10.5785 Z -1.0000 I -0.0000 J -0.0546
G02 X 17.7807 Y 10.5559 Z -1.0000 I -0.0780 J -0.1687
G01 X 17.8071 Y 10.5282 Z -1.0000
G01 X 17.8267 Y 10.4998 Z -1.0000
G02 X 17.8472 Y 10.4684 Z -1.0000 I -0.0644 J -0.0644
G02 X 17.8523 Y 10.4342 Z -1.0000 I -0.0728 J -0.0283
G03 X 17.8506 Y 10.3969 Z -1.0000 I 0.5566 J -0.0435
G03 X 17.8515 Y 10.3727 Z -1.0000 I 0.2543 J -0.0028
G01 X 17.8603 Y 10.3559 Z -1.0000
G01 X 17.8804 Y 10.3485 Z -1.0000
G02 X 17.9046 Y 10.3438 Z -1.0000 I 0.0000 J -0.0639
G01 X 17.9163 Y 10.3338 Z -1.0000
G01 X 17.9269 Y 10.3292 Z -1.0000
G01 X 17.9486 Y 10.3400 Z -1.0000
G02 X 17.9722 Y 10.3534 Z -1.0000 I 0.0417 J -0.0461
G01 X 17.9856 Y 10.3513 Z -1.0000
G01 X 17.9970 Y 10.3397 Z -1.0000
G02 X 18.0154 Y 10.3071 Z -1.0000 I -0.1921 J -0.1298
G01 X 18.0323 Y 10.2898 Z -1.0000
G01 X 18.0375 Y 10.3027 Z -1.0000
G01 X 18.0471 Y 10.3071 Z -1.0000
G01 X 18.0556 Y 10.3017 Z -1.0000
G02 X 18.0609 Y 10.2779 Z -1.0000 I -0.0504 J -0.0239
G01 X 18.0712 Y 10.2605 Z -1.0000
G03 X 18.1030 Y 10.2548 Z -1.0000 I 0.0244 J 0.0446
G02 X 18.1337 Y 10.2519 Z -1.0000 I 0.0094 J -0.0634
G01 X 18.1380 Y 10.2426 Z -1.0000
G01 X 18.1390 Y 10.2298 Z -1.0000
G01 X 18.1488 Y 10.2241 Z -1.0000
G01 X 18.1634 Y 10.2184 Z -1.0000
G02 X 18.1853 Y 10.1896 Z -1.0000 I -0.0780 J -0.0822
G03 X 18.2082 Y 10.1623 Z -1.0000 I 0.0768 J 0.0411
G01 X 18.2291 Y 10.1550 Z -1.0000
G01 X 18.2491 Y 10.1609 Z -1.0000
G01 X 18.2560 Y 10.1723 Z -1.0000
G02 X 18.2577 Y 10.1896 Z -1.0000 I 1.0170 J -0.0939
G02 X 18.2595 Y 10.2034 Z -1.0000 I 0.3998 J -0.0438
G01 X 18.2633 Y 10.2165 Z -1.0000
G02 X 18.2784 Y 10.2449 Z -1.0000 I 0.2328 J -0.1061
G01 X 18.2958 Y 10.2604 Z -1.0000
G01 X 18.3060 Y 10.2577 Z -1.0000
G01 X 18.3186 Y 10.2454 Z -1.0000
G03 X 18.3408 Y 10.2339 Z -1.0000 I 0.0578 J 0.0851
G01 X 18.3602 Y 10.2319 Z -1.0000
G01 X 18.3650 Y 10.2375 Z -1.0000
G01 X 18.3618 Y 10.2483 Z -1.0000
G01 X 18.3510 Y 10.2588 Z -1.0000
G01 X 18.3437 Y 10.2691 Z -1.0000
G01 X 18.3458 Y 10.2818 Z -1.0000
G01 X 18.3549 Y 10.2858 Z -1.0000
G01 X 18.3678 Y 10.2774 Z -1.0000
G01 X 18.3731 Y 10.2755 Z -1.0000
G01 X 18.3754 Y 10.2794 Z -1.0000
G01 X 18.3643 Y 10.2938 Z -1.0000
G03 X 18.3320 Y 10.3046 Z -1.0000 I -0.0421 J -0.0724
G01 X 18.3110 Y 10.3158 Z -1.0000
G01 X 18.3108 Y 10.3291 Z -1.0000
G01 X 18.3106 Y 10.3372 Z -1.0000
G01 X 18.3013 Y 10.3395 Z -1.0000
G03 X 18.2773 Y 10.3271 Z -1.0000 I 0.0388 J -0.1053
G01 X 18.2650 Y 10.3150 Z -1.0000
G01 X 18.2586 Y 10.3134 Z -1.0000
G01 X 18.2538 Y 10.3209 Z -1.0000
G01 X 18.2496 Y 10.3228 Z -1.0000
G01 X 18.2399 Y 10.3096 Z -1.0000
G02 X 18.2241 Y 10.2865 Z -1.0000 I -0.0613 J 0.0248
G01 X 18.2144 Y 10.2855 Z -1.0000
G01 X 18.2077 Y 10.2957 Z -1.0000
G02 X 18.2090 Y 10.3209 Z -1.0000 I 0.0618 J 0.0093
G03 X 18.2120 Y 10.3452 Z -1.0000 I -0.0872 J 0.0229
G01 X 18.2086 Y 10.3485 Z -1.0000
G01 X 18.2012 Y 10.3474 Z -1.0000
G03 X 18.1653 Y 10.3350 Z -1.0000 I 0.1889 J -0.6029
