%
(Header)
(Generated by gcodetools from Inkscape.)
(Using default header. To add your own header create file "header" in the output dir.)
M3
(Header end.)
G21 (All units in mm)

(Start cutting path id: path517)
(Change tool to Default tool)

G00 Z 5.0000
G00 X 27.9729 Y 2.4759

G01 Z -1.0000 F 100.0000(Penetrate)
G01 X 27.9729 Y 2.4832 Z -1.0000 F 3500.0000
G01 X 27.9802 Y 2.4832 Z -1.0000
G01 X 27.9875 Y 2.4832 Z -1.0000
G01 X 27.9875 Y 2.4759 Z -1.0000
G01 X 27.9875 Y 2.4686 Z -1.0000
G01 X 27.9802 Y 2.4686 Z -1.0000
G01 X 27.9729 Y 2.4686 Z -1.0000
G01 X 27.9729 Y 2.4759 Z -1.0000
G00 Z 5.0000

(End cutting path id: path517)


(Start cutting path id: path517)
(Change tool to Default tool)

G00 Z 5.0000
G00 X 28.0166 Y 2.9478

G01 Z -1.0000 F 100.0000(Penetrate)
G01 X 28.0166 Y 2.9600 Z -1.0000 F 3500.0000
G01 X 28.0385 Y 2.9600 Z -1.0000
G01 X 28.0604 Y 2.9600 Z -1.0000
G01 X 28.0604 Y 2.9478 Z -1.0000
G01 X 28.0604 Y 2.9357 Z -1.0000
G01 X 28.0385 Y 2.9357 Z -1.0000
G01 X 28.0166 Y 2.9357 Z -1.0000
G01 X 28.0166 Y 2.9478 Z -1.0000
G00 Z 5.0000

(End cutting path id: path517)


(Start cutting path id: path517)
(Change tool to Default tool)

G00 Z 5.0000
G00 X 28.0896 Y 3.0014

G01 Z -1.0000 F 100.0000(Penetrate)
G01 X 28.0896 Y 3.0087 Z -1.0000 F 3500.0000
G01 X 28.0969 Y 3.0087 Z -1.0000
G01 X 28.1042 Y 3.0087 Z -1.0000
G01 X 28.1042 Y 3.0014 Z -1.0000
G01 X 28.1042 Y 2.9941 Z -1.0000
G01 X 28.0969 Y 2.9941 Z -1.0000
G01 X 28.0896 Y 2.9941 Z -1.0000
G01 X 28.0896 Y 3.0014 Z -1.0000
G00 Z 5.0000

(End cutting path id: path517)


(Start cutting path id: path517)
(Change tool to Default tool)

G00 Z 5.0000
G00 X 28.1626 Y 2.9576

G01 Z -1.0000 F 100.0000(Penetrate)
G01 X 28.1626 Y 2.9649 Z -1.0000 F 3500.0000
G01 X 28.1699 Y 2.9649 Z -1.0000
G01 X 28.1772 Y 2.9649 Z -1.0000
G01 X 28.1772 Y 2.9576 Z -1.0000
G01 X 28.1772 Y 2.9503 Z -1.0000
G01 X 28.1699 Y 2.9503 Z -1.0000
G01 X 28.1626 Y 2.9503 Z -1.0000
G01 X 28.1626 Y 2.9576 Z -1.0000
G00 Z 5.0000

(End cutting path id: path517)


(Start cutting path id: path517)
(Change tool to Default tool)

G00 Z 5.0000
G00 X 28.2027 Y 3.0184

G01 Z -1.0000 F 100.0000(Penetrate)
G01 X 28.2210 Y 3.0258 Z -1.0000 F 3500.0000
G01 X 28.2392 Y 3.0184 Z -1.0000
G01 X 28.2575 Y 3.0110 Z -1.0000
G01 X 28.2210 Y 3.0110 Z -1.0000
G01 X 28.1845 Y 3.0110 Z -1.0000
G01 X 28.2027 Y 3.0184 Z -1.0000
G00 Z 5.0000

(End cutting path id: path517)


(Start cutting path id: path517)
(Change tool to Default tool)

G00 Z 5.0000
G00 X 28.2648 Y 3.0524

G01 Z -1.0000 F 100.0000(Penetrate)
G01 X 28.2648 Y 3.0670 Z -1.0000 F 3500.0000
G01 X 28.2802 Y 3.0670 Z -1.0000
G01 X 28.2957 Y 3.0670 Z -1.0000
G01 X 28.2867 Y 3.0524 Z -1.0000
G01 X 28.2777 Y 3.0378 Z -1.0000
G01 X 28.2713 Y 3.0378 Z -1.0000
G01 X 28.2649 Y 3.0378 Z -1.0000
G01 X 28.2648 Y 3.0524 Z -1.0000
G00 Z 5.0000

(End cutting path id: path517)


(Start cutting path id: path517)
(Change tool to Default tool)

G00 Z 5.0000
G00 X 28.2794 Y 2.9723

G01 Z -1.0000 F 100.0000(Penetrate)
G01 X 28.2794 Y 2.9796 Z -1.0000 F 3500.0000
G01 X 28.2867 Y 2.9796 Z -1.0000
G01 X 28.2940 Y 2.9796 Z -1.0000
G01 X 28.2940 Y 2.9723 Z -1.0000
G01 X 28.2940 Y 2.9650 Z -1.0000
G01 X 28.2867 Y 2.9650 Z -1.0000
G01 X 28.2794 Y 2.9650 Z -1.0000
G01 X 28.2794 Y 2.9723 Z -1.0000
G00 Z 5.0000

(End cutting path id: path517)


(Start cutting path id: path517)
(Change tool to Default tool)

G00 Z 5.0000
G00 X 28.3523 Y 3.0014

G01 Z -1.0000 F 100.0000(Penetrate)
G01 X 28.3523 Y 3.0087 Z -1.0000 F 3500.0000
G01 X 28.3596 Y 3.0087 Z -1.0000
G01 X 28.3669 Y 3.0087 Z -1.0000
G01 X 28.3669 Y 3.0014 Z -1.0000
G01 X 28.3669 Y 2.9941 Z -1.0000
G01 X 28.3596 Y 2.9941 Z -1.0000
G01 X 28.3523 Y 2.9941 Z -1.0000
G01 X 28.3523 Y 3.0014 Z -1.0000
G00 Z 5.0000

(End cutting path id: path517)


(Start cutting path id: path517)
(Change tool to Default tool)

G00 Z 5.0000
G00 X 28.3961 Y 2.9941

G01 Z -1.0000 F 100.0000(Penetrate)
G01 X 28.3961 Y 3.0087 Z -1.0000 F 3500.0000
G01 X 28.4128 Y 3.0087 Z -1.0000
G01 X 28.4294 Y 3.0087 Z -1.0000
G01 X 28.4504 Y 3.0343 Z -1.0000
G01 X 28.4715 Y 3.0598 Z -1.0000
G01 X 28.4630 Y 3.0331 Z -1.0000
G01 X 28.4545 Y 3.0063 Z -1.0000
G01 X 28.4545 Y 2.9929 Z -1.0000
G01 X 28.4545 Y 2.9795 Z -1.0000
G01 X 28.4253 Y 2.9795 Z -1.0000
G01 X 28.3961 Y 2.9795 Z -1.0000
G01 X 28.3961 Y 2.9941 Z -1.0000
G00 Z 5.0000

(End cutting path id: path517)


(Start cutting path id: path517)
(Change tool to Default tool)

G00 Z 5.0000
G00 X 28.5178 Y 3.0768

G01 Z -1.0000 F 100.0000(Penetrate)
G01 X 28.5275 Y 3.0865 Z -1.0000 F 3500.0000
G01 X 28.5372 Y 3.0768 Z -1.0000
G01 X 28.5469 Y 3.0671 Z -1.0000
G01 X 28.5274 Y 3.0671 Z -1.0000
G01 X 28.5079 Y 3.0671 Z -1.0000
G01 X 28.5178 Y 3.0768 Z -1.0000
G00 Z 5.0000

(End cutting path id: path517)


(Start cutting path id: path517)
(Change tool to Default tool)

G00 Z 5.0000
G00 X 28.4691 Y 3.1253

G01 Z -1.0000 F 100.0000(Penetrate)
G01 X 28.4691 Y 3.1448 Z -1.0000 F 3500.0000
G01 X 28.4788 Y 3.1351 Z -1.0000
G01 X 28.4885 Y 3.1254 Z -1.0000
G01 X 28.4788 Y 3.1157 Z -1.0000
G01 X 28.4691 Y 3.1060 Z -1.0000
G01 X 28.4691 Y 3.1253 Z -1.0000
G00 Z 5.0000

(End cutting path id: path517)


(Start cutting path id: path517)
(Change tool to Default tool)

G00 Z 5.0000
G00 X 28.4253 Y 3.1692

G01 Z -1.0000 F 100.0000(Penetrate)
G01 X 28.4253 Y 3.1838 Z -1.0000 F 3500.0000
G01 X 28.4099 Y 3.1838 Z -1.0000
G01 X 28.3944 Y 3.1838 Z -1.0000
G01 X 28.4034 Y 3.1692 Z -1.0000
G01 X 28.4124 Y 3.1546 Z -1.0000
G01 X 28.4188 Y 3.1546 Z -1.0000
G01 X 28.4252 Y 3.1546 Z -1.0000
G01 X 28.4253 Y 3.1692 Z -1.0000
G00 Z 5.0000

(End cutting path id: path517)


(Start cutting path id: path517)
(Change tool to Default tool)

G00 Z 5.0000
G00 X 28.3232 Y 3.2549

G01 Z -1.0000 F 100.0000(Penetrate)
G01 X 28.3232 Y 3.2695 Z -1.0000 F 3500.0000
G01 X 28.3377 Y 3.2785 Z -1.0000
G01 X 28.3523 Y 3.2875 Z -1.0000
G01 X 28.3523 Y 3.2729 Z -1.0000
G01 X 28.3523 Y 3.2583 Z -1.0000
G01 X 28.3377 Y 3.2493 Z -1.0000
G01 X 28.3232 Y 3.2403 Z -1.0000
G01 X 28.3232 Y 3.2549 Z -1.0000
G00 Z 5.0000

(End cutting path id: path517)


(Start cutting path id: path517)
(Change tool to Default tool)

G00 Z 5.0000
G00 X 28.2137 Y 3.3442

G01 Z -1.0000 F 100.0000(Penetrate)
G01 X 28.2227 Y 3.3588 Z -1.0000 F 3500.0000
G01 X 28.2291 Y 3.3588 Z -1.0000
G01 X 28.2355 Y 3.3588 Z -1.0000
G01 X 28.2355 Y 3.3442 Z -1.0000
G01 X 28.2355 Y 3.3296 Z -1.0000
G01 X 28.2200 Y 3.3296 Z -1.0000
G01 X 28.2046 Y 3.3296 Z -1.0000
G01 X 28.2137 Y 3.3442 Z -1.0000
G00 Z 5.0000

(End cutting path id: path517)


(Start cutting path id: path517)
(Change tool to Default tool)

G00 Z 5.0000
G00 X 28.1334 Y 3.3004

G01 Z -1.0000 F 100.0000(Penetrate)
G01 X 28.1334 Y 3.3150 Z -1.0000 F 3500.0000
G01 X 28.1489 Y 3.3150 Z -1.0000
G01 X 28.1643 Y 3.3150 Z -1.0000
G01 X 28.1553 Y 3.3004 Z -1.0000
G01 X 28.1463 Y 3.2858 Z -1.0000
G01 X 28.1399 Y 3.2858 Z -1.0000
G01 X 28.1335 Y 3.2858 Z -1.0000
G01 X 28.1334 Y 3.3004 Z -1.0000
G00 Z 5.0000

(End cutting path id: path517)


(Start cutting path id: path517)
(Change tool to Default tool)

G00 Z 5.0000
G00 X 28.1334 Y 3.1911

G01 Z -1.0000 F 100.0000(Penetrate)
G01 X 28.1334 Y 3.1984 Z -1.0000 F 3500.0000
G01 X 28.1261 Y 3.1984 Z -1.0000
G01 X 28.1188 Y 3.1984 Z -1.0000
G01 X 28.1188 Y 3.1911 Z -1.0000
G01 X 28.1188 Y 3.1838 Z -1.0000
G01 X 28.1261 Y 3.1838 Z -1.0000
G01 X 28.1334 Y 3.1838 Z -1.0000
G01 X 28.1334 Y 3.1911 Z -1.0000
G00 Z 5.0000

(End cutting path id: path517)


(Start cutting path id: path517)
(Change tool to Default tool)

G00 Z 5.0000
G00 X 28.1440 Y 3.1261

G01 Z -1.0000 F 100.0000(Penetrate)
G01 X 28.1764 Y 3.1602 Z -1.0000 F 3500.0000
G01 X 28.1827 Y 3.1537 Z -1.0000
G01 X 28.1890 Y 3.1472 Z -1.0000
G01 X 28.1503 Y 3.1196 Z -1.0000
G01 X 28.1116 Y 3.0919 Z -1.0000
G01 X 28.1440 Y 3.1261 Z -1.0000
G00 Z 5.0000

(End cutting path id: path517)


(Start cutting path id: path517)
(Change tool to Default tool)

G00 Z 5.0000
G00 X 28.0021 Y 3.1180

G01 Z -1.0000 F 100.0000(Penetrate)
G01 X 28.0021 Y 3.1253 Z -1.0000 F 3500.0000
G01 X 28.0094 Y 3.1253 Z -1.0000
G01 X 28.0167 Y 3.1253 Z -1.0000
G01 X 28.0167 Y 3.1180 Z -1.0000
G01 X 28.0167 Y 3.1107 Z -1.0000
G01 X 28.0094 Y 3.1107 Z -1.0000
G01 X 28.0021 Y 3.1107 Z -1.0000
G01 X 28.0021 Y 3.1180 Z -1.0000
G00 Z 5.0000

(End cutting path id: path517)


(Start cutting path id: path517)
(Change tool to Default tool)

G00 Z 5.0000
G00 X 28.0167 Y 3.0582

G01 Z -1.0000 F 100.0000(Penetrate)
G01 X 28.0167 Y 3.0639 Z -1.0000 F 3500.0000
G01 X 28.0385 Y 3.0723 Z -1.0000
G01 X 28.0604 Y 3.0807 Z -1.0000
G01 X 28.0604 Y 3.0666 Z -1.0000
G01 X 28.0604 Y 3.0524 Z -1.0000
G01 X 28.0385 Y 3.0524 Z -1.0000
G01 X 28.0167 Y 3.0524 Z -1.0000
G01 X 28.0167 Y 3.0582 Z -1.0000
G00 Z 5.0000

(End cutting path id: path517)


(Start cutting path id: path517)
(Change tool to Default tool)

G00 Z 5.0000
G00 X 27.9437 Y 3.1619

G01 Z -1.0000 F 100.0000(Penetrate)
G01 X 27.9437 Y 3.1692 Z -1.0000 F 3500.0000
G01 X 27.9364 Y 3.1692 Z -1.0000
G01 X 27.9291 Y 3.1692 Z -1.0000
G01 X 27.9291 Y 3.1619 Z -1.0000
G01 X 27.9291 Y 3.1546 Z -1.0000
G01 X 27.9364 Y 3.1546 Z -1.0000
G01 X 27.9437 Y 3.1546 Z -1.0000
G01 X 27.9437 Y 3.1619 Z -1.0000
G00 Z 5.0000

(End cutting path id: path517)


(Start cutting path id: path517)
(Change tool to Default tool)

G00 Z 5.0000
G00 X 27.8415 Y 3.1837

G01 Z -1.0000 F 100.0000(Penetrate)
G01 X 27.8415 Y 3.2031 Z -1.0000 F 3500.0000
G01 X 27.8512 Y 3.1934 Z -1.0000
G01 X 27.8609 Y 3.1837 Z -1.0000
G01 X 27.8512 Y 3.1740 Z -1.0000
G01 X 27.8415 Y 3.1643 Z -1.0000
G01 X 27.8415 Y 3.1837 Z -1.0000
G00 Z 5.0000

(End cutting path id: path517)


(Start cutting path id: path517)
(Change tool to Default tool)

G00 Z 5.0000
G00 X 27.8366 Y 3.1059

G01 Z -1.0000 F 100.0000(Penetrate)
G01 X 27.8269 Y 3.1156 Z -1.0000 F 3500.0000
G01 X 27.8172 Y 3.1059 Z -1.0000
G01 X 27.8075 Y 3.0962 Z -1.0000
G01 X 27.8270 Y 3.0962 Z -1.0000
G01 X 27.8465 Y 3.0962 Z -1.0000
G01 X 27.8366 Y 3.1059 Z -1.0000
G00 Z 5.0000

(End cutting path id: path517)


(Start cutting path id: path517)
(Change tool to Default tool)

G00 Z 5.0000
G00 X 27.8561 Y 3.0451

G01 Z -1.0000 F 100.0000(Penetrate)
G01 X 27.8561 Y 3.0524 Z -1.0000 F 3500.0000
G01 X 27.8634 Y 3.0524 Z -1.0000
G01 X 27.8707 Y 3.0524 Z -1.0000
G01 X 27.8707 Y 3.0451 Z -1.0000
G01 X 27.8707 Y 3.0378 Z -1.0000
G01 X 27.8634 Y 3.0378 Z -1.0000
G01 X 27.8561 Y 3.0378 Z -1.0000
G01 X 27.8561 Y 3.0451 Z -1.0000
G00 Z 5.0000

(End cutting path id: path517)


(Start cutting path id: path517)
(Change tool to Default tool)

G00 Z 5.0000
G00 X 27.8123 Y 3.0451

G01 Z -1.0000 F 100.0000(Penetrate)
G01 X 27.8123 Y 3.0524 Z -1.0000 F 3500.0000
G01 X 27.8196 Y 3.0524 Z -1.0000
G01 X 27.8269 Y 3.0524 Z -1.0000
G01 X 27.8269 Y 3.0451 Z -1.0000
G01 X 27.8269 Y 3.0378 Z -1.0000
G01 X 27.8196 Y 3.0378 Z -1.0000
G01 X 27.8123 Y 3.0378 Z -1.0000
G01 X 27.8123 Y 3.0451 Z -1.0000
G00 Z 5.0000

(End cutting path id: path517)


(Start cutting path id: path517)
(Change tool to Default tool)

G00 Z 5.0000
G00 X 27.7687 Y 2.9319

G01 Z -1.0000 F 100.0000(Penetrate)
G01 X 27.7685 Y 2.9501 Z -1.0000 F 3500.0000
G01 X 27.7966 Y 2.9782 Z -1.0000
G01 X 27.8247 Y 3.0063 Z -1.0000
G01 X 27.8556 Y 2.9982 Z -1.0000
G01 X 27.8865 Y 2.9901 Z -1.0000
G01 X 27.8810 Y 2.9738 Z -1.0000
G01 X 27.8755 Y 2.9574 Z -1.0000
G01 X 27.8356 Y 2.9567 Z -1.0000
G01 X 27.7957 Y 2.9560 Z -1.0000
G01 X 27.7823 Y 2.9348 Z -1.0000
G01 X 27.7689 Y 2.9136 Z -1.0000
G01 X 27.7687 Y 2.9319 Z -1.0000
G00 Z 5.0000

(End cutting path id: path517)


(Start cutting path id: path517)
(Change tool to Default tool)

G00 Z 5.0000
G00 X 27.6445 Y 2.9502

G01 Z -1.0000 F 100.0000(Penetrate)
G01 X 27.6535 Y 2.9648 Z -1.0000 F 3500.0000
G01 X 27.6599 Y 2.9648 Z -1.0000
G01 X 27.6663 Y 2.9648 Z -1.0000
G01 X 27.6663 Y 2.9502 Z -1.0000
G01 X 27.6663 Y 2.9356 Z -1.0000
G01 X 27.6508 Y 2.9356 Z -1.0000
G01 X 27.6353 Y 2.9356 Z -1.0000
G01 X 27.6445 Y 2.9502 Z -1.0000
G00 Z 5.0000

(End cutting path id: path517)


(Start cutting path id: path517)
(Change tool to Default tool)

G00 Z 5.0000
G00 X 27.6080 Y 2.9429

G01 Z -1.0000 F 100.0000(Penetrate)
G01 X 27.6080 Y 2.9502 Z -1.0000 F 3500.0000
G01 X 27.6153 Y 2.9502 Z -1.0000
G01 X 27.6226 Y 2.9502 Z -1.0000
G01 X 27.6226 Y 2.9429 Z -1.0000
G01 X 27.6226 Y 2.9356 Z -1.0000
G01 X 27.6153 Y 2.9356 Z -1.0000
G01 X 27.6080 Y 2.9356 Z -1.0000
G01 X 27.6080 Y 2.9429 Z -1.0000
G00 Z 5.0000

(End cutting path id: path517)


(Start cutting path id: path517)
(Change tool to Default tool)

G00 Z 5.0000
G00 X 27.5934 Y 2.8773

G01 Z -1.0000 F 100.0000(Penetrate)
G01 X 27.5934 Y 2.8967 Z -1.0000 F 3500.0000
G01 X 27.6031 Y 2.8870 Z -1.0000
G01 X 27.6128 Y 2.8773 Z -1.0000
G01 X 27.6031 Y 2.8676 Z -1.0000
G01 X 27.5934 Y 2.8579 Z -1.0000
G01 X 27.5934 Y 2.8773 Z -1.0000
G00 Z 5.0000

(End cutting path id: path517)


(Start cutting path id: path517)
(Change tool to Default tool)

G00 Z 5.0000
G00 X 27.6226 Y 2.8700

G01 Z -1.0000 F 100.0000(Penetrate)
G01 X 27.6226 Y 2.8773 Z -1.0000 F 3500.0000
G01 X 27.6299 Y 2.8773 Z -1.0000
G01 X 27.6372 Y 2.8773 Z -1.0000
G01 X 27.6372 Y 2.8700 Z -1.0000
G01 X 27.6372 Y 2.8627 Z -1.0000
G01 X 27.6299 Y 2.8627 Z -1.0000
G01 X 27.6226 Y 2.8627 Z -1.0000
G01 X 27.6226 Y 2.8700 Z -1.0000
G00 Z 5.0000

(End cutting path id: path517)


(Start cutting path id: path517)
(Change tool to Default tool)

G00 Z 5.0000
G00 X 27.5496 Y 2.9063

G01 Z -1.0000 F 100.0000(Penetrate)
G01 X 27.5496 Y 2.9258 Z -1.0000 F 3500.0000
G01 X 27.5593 Y 2.9161 Z -1.0000
G01 X 27.5690 Y 2.9064 Z -1.0000
G01 X 27.5593 Y 2.8967 Z -1.0000
G01 X 27.5496 Y 2.8870 Z -1.0000
G01 X 27.5496 Y 2.9063 Z -1.0000
G00 Z 5.0000

(End cutting path id: path517)


(Start cutting path id: path517)
(Change tool to Default tool)

G00 Z 5.0000
G00 X 27.5204 Y 2.9209

G01 Z -1.0000 F 100.0000(Penetrate)
G01 X 27.5204 Y 2.9404 Z -1.0000 F 3500.0000
G01 X 27.5301 Y 2.9307 Z -1.0000
G01 X 27.5398 Y 2.9210 Z -1.0000
G01 X 27.5301 Y 2.9113 Z -1.0000
G01 X 27.5204 Y 2.9016 Z -1.0000
G01 X 27.5204 Y 2.9209 Z -1.0000
G00 Z 5.0000

(End cutting path id: path517)


(Start cutting path id: path517)
(Change tool to Default tool)

G00 Z 5.0000
G00 X 27.4669 Y 2.9747

G01 Z -1.0000 F 100.0000(Penetrate)
G01 X 27.4766 Y 2.9844 Z -1.0000 F 3500.0000
G01 X 27.4863 Y 2.9747 Z -1.0000
G01 X 27.4960 Y 2.9650 Z -1.0000
G01 X 27.4765 Y 2.9650 Z -1.0000
G01 X 27.4571 Y 2.9650 Z -1.0000
G01 X 27.4669 Y 2.9747 Z -1.0000
G00 Z 5.0000

(End cutting path id: path517)


(Start cutting path id: path517)
(Change tool to Default tool)

G00 Z 5.0000
G00 X 27.4328 Y 2.9576

G01 Z -1.0000 F 100.0000(Penetrate)
G01 X 27.4328 Y 2.9649 Z -1.0000 F 3500.0000
G01 X 27.4401 Y 2.9649 Z -1.0000
G01 X 27.4474 Y 2.9649 Z -1.0000
G01 X 27.4474 Y 2.9576 Z -1.0000
G01 X 27.4474 Y 2.9503 Z -1.0000
G01 X 27.4401 Y 2.9503 Z -1.0000
G01 X 27.4328 Y 2.9503 Z -1.0000
G01 X 27.4328 Y 2.9576 Z -1.0000
G00 Z 5.0000

(End cutting path id: path517)


(Start cutting path id: path517)
(Change tool to Default tool)

G00 Z 5.0000
G00 X 27.4036 Y 2.9136

G01 Z -1.0000 F 100.0000(Penetrate)
G01 X 27.4036 Y 2.9209 Z -1.0000 F 3500.0000
G01 X 27.4109 Y 2.9209 Z -1.0000
G01 X 27.4182 Y 2.9209 Z -1.0000
G01 X 27.4182 Y 2.9136 Z -1.0000
G01 X 27.4182 Y 2.9063 Z -1.0000
G01 X 27.4109 Y 2.9063 Z -1.0000
G01 X 27.4036 Y 2.9063 Z -1.0000
G01 X 27.4036 Y 2.9136 Z -1.0000
G00 Z 5.0000

(End cutting path id: path517)


(Start cutting path id: path517)
(Change tool to Default tool)

G00 Z 5.0000
G00 X 27.4401 Y 2.8481

G01 Z -1.0000 F 100.0000(Penetrate)
G01 X 27.4491 Y 2.8627 Z -1.0000 F 3500.0000
G01 X 27.4564 Y 2.8627 Z -1.0000
G01 X 27.4637 Y 2.8627 Z -1.0000
G01 X 27.4547 Y 2.8481 Z -1.0000
G01 X 27.4457 Y 2.8335 Z -1.0000
G01 X 27.4384 Y 2.8335 Z -1.0000
G01 X 27.4311 Y 2.8335 Z -1.0000
G01 X 27.4401 Y 2.8481 Z -1.0000
G00 Z 5.0000

(End cutting path id: path517)


(Start cutting path id: path517)
(Change tool to Default tool)

G00 Z 5.0000
G00 X 27.3161 Y 2.8554

G01 Z -1.0000 F 100.0000(Penetrate)
G01 X 27.3161 Y 2.8627 Z -1.0000 F 3500.0000
G01 X 27.3234 Y 2.8627 Z -1.0000
G01 X 27.3307 Y 2.8627 Z -1.0000
G01 X 27.3307 Y 2.8554 Z -1.0000
G01 X 27.3307 Y 2.8481 Z -1.0000
G01 X 27.3234 Y 2.8481 Z -1.0000
G01 X 27.3161 Y 2.8481 Z -1.0000
G01 X 27.3161 Y 2.8554 Z -1.0000
G00 Z 5.0000

(End cutting path id: path517)


(Start cutting path id: path517)
(Change tool to Default tool)

G00 Z 5.0000
G00 X 27.3015 Y 2.8116

G01 Z -1.0000 F 100.0000(Penetrate)
G01 X 27.3015 Y 2.8189 Z -1.0000 F 3500.0000
G01 X 27.3088 Y 2.8189 Z -1.0000
G01 X 27.3161 Y 2.8189 Z -1.0000
G01 X 27.3161 Y 2.8116 Z -1.0000
G01 X 27.3161 Y 2.8043 Z -1.0000
G01 X 27.3088 Y 2.8043 Z -1.0000
G01 X 27.3015 Y 2.8043 Z -1.0000
G01 X 27.3015 Y 2.8116 Z -1.0000
G00 Z 5.0000

(End cutting path id: path517)


(Start cutting path id: path517)
(Change tool to Default tool)

G00 Z 5.0000
G00 X 27.2869 Y 2.7533

G01 Z -1.0000 F 100.0000(Penetrate)
G01 X 27.2869 Y 2.7606 Z -1.0000 F 3500.0000
G01 X 27.2942 Y 2.7606 Z -1.0000
G01 X 27.3015 Y 2.7606 Z -1.0000
G01 X 27.3015 Y 2.7533 Z -1.0000
G01 X 27.3015 Y 2.7460 Z -1.0000
G01 X 27.2942 Y 2.7460 Z -1.0000
G01 X 27.2869 Y 2.7460 Z -1.0000
G01 X 27.2869 Y 2.7533 Z -1.0000
G00 Z 5.0000

(End cutting path id: path517)


(Start cutting path id: path517)
(Change tool to Default tool)

G00 Z 5.0000
G00 X 27.3161 Y 2.7533

G01 Z -1.0000 F 100.0000(Penetrate)
G01 X 27.3161 Y 2.7606 Z -1.0000 F 3500.0000
G01 X 27.3234 Y 2.7606 Z -1.0000
G01 X 27.3307 Y 2.7606 Z -1.0000
G01 X 27.3307 Y 2.7533 Z -1.0000
G01 X 27.3307 Y 2.7460 Z -1.0000
G01 X 27.3234 Y 2.7460 Z -1.0000
G01 X 27.3161 Y 2.7460 Z -1.0000
G01 X 27.3161 Y 2.7533 Z -1.0000
G00 Z 5.0000

(End cutting path id: path517)


(Start cutting path id: path517)
(Change tool to Default tool)

G00 Z 5.0000
G00 X 27.2869 Y 2.9429

G01 Z -1.0000 F 100.0000(Penetrate)
G01 X 27.2869 Y 2.9502 Z -1.0000 F 3500.0000
G01 X 27.2942 Y 2.9502 Z -1.0000
G01 X 27.3015 Y 2.9502 Z -1.0000
G01 X 27.3015 Y 2.9429 Z -1.0000
G01 X 27.3015 Y 2.9356 Z -1.0000
G01 X 27.2942 Y 2.9356 Z -1.0000
G01 X 27.2869 Y 2.9356 Z -1.0000
G01 X 27.2869 Y 2.9429 Z -1.0000
G00 Z 5.0000

(End cutting path id: path517)


(Start cutting path id: path517)
(Change tool to Default tool)

G00 Z 5.0000
G00 X 27.4085 Y 3.0184

G01 Z -1.0000 F 100.0000(Penetrate)
G01 X 27.4182 Y 3.0281 Z -1.0000 F 3500.0000
G01 X 27.4279 Y 3.0184 Z -1.0000
G01 X 27.4376 Y 3.0087 Z -1.0000
G01 X 27.4181 Y 3.0087 Z -1.0000
G01 X 27.3987 Y 3.0087 Z -1.0000
G01 X 27.4085 Y 3.0184 Z -1.0000
G00 Z 5.0000

(End cutting path id: path517)


(Start cutting path id: path517)
(Change tool to Default tool)

G00 Z 5.0000
G00 X 27.5545 Y 3.0330

G01 Z -1.0000 F 100.0000(Penetrate)
G01 X 27.5642 Y 3.0427 Z -1.0000 F 3500.0000
G01 X 27.5739 Y 3.0330 Z -1.0000
G01 X 27.5836 Y 3.0233 Z -1.0000
G01 X 27.5641 Y 3.0233 Z -1.0000
G01 X 27.5446 Y 3.0233 Z -1.0000
G01 X 27.5545 Y 3.0330 Z -1.0000
G00 Z 5.0000

(End cutting path id: path517)


(Start cutting path id: path517)
(Change tool to Default tool)

G00 Z 5.0000
G00 X 27.6518 Y 3.0524

G01 Z -1.0000 F 100.0000(Penetrate)
G01 X 27.6518 Y 3.0670 Z -1.0000 F 3500.0000
G01 X 27.6672 Y 3.0670 Z -1.0000
G01 X 27.6827 Y 3.0670 Z -1.0000
G01 X 27.6737 Y 3.0524 Z -1.0000
G01 X 27.6647 Y 3.0378 Z -1.0000
G01 X 27.6583 Y 3.0378 Z -1.0000
G01 X 27.6519 Y 3.0378 Z -1.0000
G01 X 27.6518 Y 3.0524 Z -1.0000
G00 Z 5.0000

(End cutting path id: path517)


(Start cutting path id: path517)
(Change tool to Default tool)

G00 Z 5.0000
G00 X 27.6566 Y 3.1641

G01 Z -1.0000 F 100.0000(Penetrate)
G01 X 27.6663 Y 3.1738 Z -1.0000 F 3500.0000
G01 X 27.6760 Y 3.1641 Z -1.0000
G01 X 27.6857 Y 3.1544 Z -1.0000
G01 X 27.6663 Y 3.1544 Z -1.0000
G01 X 27.6468 Y 3.1544 Z -1.0000
G01 X 27.6566 Y 3.1641 Z -1.0000
G00 Z 5.0000

(End cutting path id: path517)


(Start cutting path id: path517)
(Change tool to Default tool)

G00 Z 5.0000
G00 X 27.6080 Y 3.1910

G01 Z -1.0000 F 100.0000(Penetrate)
G01 X 27.6080 Y 3.1983 Z -1.0000 F 3500.0000
G01 X 27.6153 Y 3.1983 Z -1.0000
G01 X 27.6226 Y 3.1983 Z -1.0000
G01 X 27.6226 Y 3.1910 Z -1.0000
G01 X 27.6226 Y 3.1837 Z -1.0000
G01 X 27.6153 Y 3.1837 Z -1.0000
G01 X 27.6080 Y 3.1837 Z -1.0000
G01 X 27.6080 Y 3.1910 Z -1.0000
G00 Z 5.0000

(End cutting path id: path517)


(Start cutting path id: path517)
(Change tool to Default tool)

G00 Z 5.0000
G00 X 27.5496 Y 3.1837

G01 Z -1.0000 F 100.0000(Penetrate)
G01 X 27.5496 Y 3.2031 Z -1.0000 F 3500.0000
G01 X 27.5593 Y 3.1934 Z -1.0000
G01 X 27.5690 Y 3.1837 Z -1.0000
G01 X 27.5593 Y 3.1740 Z -1.0000
G01 X 27.5496 Y 3.1643 Z -1.0000
G01 X 27.5496 Y 3.1837 Z -1.0000
G00 Z 5.0000

(End cutting path id: path517)


(Start cutting path id: path517)
(Change tool to Default tool)

G00 Z 5.0000
G00 X 27.5388 Y 3.2667

G01 Z -1.0000 F 100.0000(Penetrate)
G01 X 27.5635 Y 3.2914 Z -1.0000 F 3500.0000
G01 X 27.5744 Y 3.2805 Z -1.0000
G01 X 27.5852 Y 3.2696 Z -1.0000
G01 X 27.5638 Y 3.2561 Z -1.0000
G01 X 27.5423 Y 3.2425 Z -1.0000
G01 X 27.5282 Y 3.2423 Z -1.0000
G01 X 27.5142 Y 3.2420 Z -1.0000
G01 X 27.5388 Y 3.2667 Z -1.0000
G00 Z 5.0000

(End cutting path id: path517)


(Start cutting path id: path517)
(Change tool to Default tool)

G00 Z 5.0000
G00 X 27.4620 Y 3.2274

G01 Z -1.0000 F 100.0000(Penetrate)
G01 X 27.4620 Y 3.2420 Z -1.0000 F 3500.0000
G01 X 27.4775 Y 3.2420 Z -1.0000
G01 X 27.4930 Y 3.2420 Z -1.0000
G01 X 27.4840 Y 3.2274 Z -1.0000
G01 X 27.4749 Y 3.2129 Z -1.0000
G01 X 27.4686 Y 3.2129 Z -1.0000
G01 X 27.4622 Y 3.2129 Z -1.0000
G01 X 27.4620 Y 3.2274 Z -1.0000
G00 Z 5.0000

(End cutting path id: path517)


(Start cutting path id: path517)
(Change tool to Default tool)

G00 Z 5.0000
G00 X 27.3891 Y 3.3207

G01 Z -1.0000 F 100.0000(Penetrate)
G01 X 27.3891 Y 3.3264 Z -1.0000 F 3500.0000
G01 X 27.4109 Y 3.3348 Z -1.0000
G01 X 27.4328 Y 3.3432 Z -1.0000
G01 X 27.4328 Y 3.3291 Z -1.0000
G01 X 27.4328 Y 3.3149 Z -1.0000
G01 X 27.4109 Y 3.3149 Z -1.0000
G01 X 27.3891 Y 3.3149 Z -1.0000
G01 X 27.3891 Y 3.3207 Z -1.0000
G00 Z 5.0000

(End cutting path id: path517)


(Start cutting path id: path517)
(Change tool to Default tool)

G00 Z 5.0000
G00 X 27.3453 Y 3.3223

G01 Z -1.0000 F 100.0000(Penetrate)
G01 X 27.3453 Y 3.3296 Z -1.0000 F 3500.0000
G01 X 27.3526 Y 3.3296 Z -1.0000
G01 X 27.3599 Y 3.3296 Z -1.0000
G01 X 27.3599 Y 3.3223 Z -1.0000
G01 X 27.3599 Y 3.3150 Z -1.0000
G01 X 27.3526 Y 3.3150 Z -1.0000
G01 X 27.3453 Y 3.3150 Z -1.0000
G01 X 27.3453 Y 3.3223 Z -1.0000
G00 Z 5.0000

(End cutting path id: path517)


(Start cutting path id: path517)
(Change tool to Default tool)

G00 Z 5.0000
G00 X 27.3161 Y 3.3951

G01 Z -1.0000 F 100.0000(Penetrate)
G01 X 27.3161 Y 3.4024 Z -1.0000 F 3500.0000
G01 X 27.3234 Y 3.4024 Z -1.0000
G01 X 27.3307 Y 3.4024 Z -1.0000
G01 X 27.3307 Y 3.3951 Z -1.0000
G01 X 27.3307 Y 3.3878 Z -1.0000
G01 X 27.3234 Y 3.3878 Z -1.0000
G01 X 27.3161 Y 3.3878 Z -1.0000
G01 X 27.3161 Y 3.3951 Z -1.0000
G00 Z 5.0000

(End cutting path id: path517)


(Start cutting path id: path517)
(Change tool to Default tool)

G00 Z 5.0000
G00 X 27.3161 Y 3.4292

G01 Z -1.0000 F 100.0000(Penetrate)
G01 X 27.3161 Y 3.4426 Z -1.0000 F 3500.0000
G01 X 27.3453 Y 3.4502 Z -1.0000
G01 X 27.3745 Y 3.4578 Z -1.0000
G01 X 27.3745 Y 3.4524 Z -1.0000
G01 X 27.3745 Y 3.4470 Z -1.0000
G01 X 27.3453 Y 3.4314 Z -1.0000
G01 X 27.3161 Y 3.4158 Z -1.0000
G01 X 27.3161 Y 3.4292 Z -1.0000
G00 Z 5.0000

(End cutting path id: path517)


(Start cutting path id: path517)
(Change tool to Default tool)

G00 Z 5.0000
G00 X 27.3015 Y 3.5192

G01 Z -1.0000 F 100.0000(Penetrate)
G01 X 27.3015 Y 3.5341 Z -1.0000 F 3500.0000
G01 X 27.3270 Y 3.5358 Z -1.0000
G01 X 27.3526 Y 3.5375 Z -1.0000
G01 X 27.3719 Y 3.5349 Z -1.0000
G01 X 27.3912 Y 3.5323 Z -1.0000
G01 X 27.4120 Y 3.5496 Z -1.0000
G01 X 27.4328 Y 3.5668 Z -1.0000
G01 X 27.4326 Y 3.5541 Z -1.0000
G01 X 27.4324 Y 3.5414 Z -1.0000
G01 X 27.4217 Y 3.5268 Z -1.0000
G01 X 27.4110 Y 3.5122 Z -1.0000
G01 X 27.3562 Y 3.5086 Z -1.0000
G01 X 27.3015 Y 3.5050 Z -1.0000
G01 X 27.3015 Y 3.5192 Z -1.0000
G00 Z 5.0000

(End cutting path id: path517)


(Start cutting path id: path517)
(Change tool to Default tool)

G00 Z 5.0000
G00 X 27.2188 Y 3.4266

G01 Z -1.0000 F 100.0000(Penetrate)
G01 X 27.2285 Y 3.4363 Z -1.0000 F 3500.0000
G01 X 27.2382 Y 3.4266 Z -1.0000
G01 X 27.2479 Y 3.4169 Z -1.0000
G01 X 27.2284 Y 3.4169 Z -1.0000
G01 X 27.2090 Y 3.4169 Z -1.0000
G01 X 27.2188 Y 3.4266 Z -1.0000
G00 Z 5.0000

(End cutting path id: path517)


(Start cutting path id: path517)
(Change tool to Default tool)

G00 Z 5.0000
G00 X 27.1614 Y 3.3319

G01 Z -1.0000 F 100.0000(Penetrate)
G01 X 27.1510 Y 3.3488 Z -1.0000 F 3500.0000
G01 X 27.1679 Y 3.3384 Z -1.0000
G01 X 27.1847 Y 3.3280 Z -1.0000
G01 X 27.1847 Y 3.3216 Z -1.0000
G01 X 27.1847 Y 3.3152 Z -1.0000
G01 X 27.1783 Y 3.3152 Z -1.0000
G01 X 27.1719 Y 3.3152 Z -1.0000
G01 X 27.1614 Y 3.3319 Z -1.0000
G00 Z 5.0000

(End cutting path id: path517)


(Start cutting path id: path517)
(Change tool to Default tool)

G00 Z 5.0000
G00 X 27.1555 Y 3.1471

G01 Z -1.0000 F 100.0000(Penetrate)
G01 X 27.1555 Y 3.1544 Z -1.0000 F 3500.0000
G01 X 27.1628 Y 3.1544 Z -1.0000
G01 X 27.1701 Y 3.1544 Z -1.0000
G01 X 27.1701 Y 3.1471 Z -1.0000
G01 X 27.1701 Y 3.1398 Z -1.0000
G01 X 27.1628 Y 3.1398 Z -1.0000
G01 X 27.1555 Y 3.1398 Z -1.0000
G01 X 27.1555 Y 3.1471 Z -1.0000
G00 Z 5.0000

(End cutting path id: path517)


(Start cutting path id: path517)
(Change tool to Default tool)

G00 Z 5.0000
G00 X 26.9658 Y 3.1471

G01 Z -1.0000 F 100.0000(Penetrate)
G01 X 26.9658 Y 3.1544 Z -1.0000 F 3500.0000
G01 X 26.9731 Y 3.1544 Z -1.0000
G01 X 26.9804 Y 3.1544 Z -1.0000
G01 X 26.9804 Y 3.1471 Z -1.0000
G01 X 26.9804 Y 3.1398 Z -1.0000
G01 X 26.9731 Y 3.1398 Z -1.0000
G01 X 26.9658 Y 3.1398 Z -1.0000
G01 X 26.9658 Y 3.1471 Z -1.0000
G00 Z 5.0000

(End cutting path id: path517)


(Start cutting path id: path517)
(Change tool to Default tool)

G00 Z 5.0000
G00 X 26.9658 Y 3.2493

G01 Z -1.0000 F 100.0000(Penetrate)
G01 X 26.9658 Y 3.2566 Z -1.0000 F 3500.0000
G01 X 26.9731 Y 3.2566 Z -1.0000
G01 X 26.9804 Y 3.2566 Z -1.0000
G01 X 26.9804 Y 3.2493 Z -1.0000
G01 X 26.9804 Y 3.2420 Z -1.0000
G01 X 26.9731 Y 3.2420 Z -1.0000
G01 X 26.9658 Y 3.2420 Z -1.0000
G01 X 26.9658 Y 3.2493 Z -1.0000
G00 Z 5.0000

(End cutting path id: path517)


(Start cutting path id: path517)
(Change tool to Default tool)

G00 Z 5.0000
G00 X 26.8263 Y 3.4822

G01 Z -1.0000 F 100.0000(Penetrate)
G01 X 26.7979 Y 3.5037 Z -1.0000 F 3500.0000
G01 X 26.8417 Y 3.5069 Z -1.0000
G01 X 26.8855 Y 3.5101 Z -1.0000
G01 X 26.9147 Y 3.5120 Z -1.0000
G01 X 26.9439 Y 3.5139 Z -1.0000
G01 X 26.9758 Y 3.5312 Z -1.0000
G01 X 27.0077 Y 3.5485 Z -1.0000
G01 X 27.0160 Y 3.5485 Z -1.0000
G01 X 27.0243 Y 3.5485 Z -1.0000
G01 X 27.0243 Y 3.5370 Z -1.0000
G01 X 27.0243 Y 3.5256 Z -1.0000
G01 X 26.9818 Y 3.5005 Z -1.0000
G01 X 26.9393 Y 3.4754 Z -1.0000
G01 X 26.9176 Y 3.4837 Z -1.0000
G01 X 26.8959 Y 3.4920 Z -1.0000
G01 X 26.8863 Y 3.4764 Z -1.0000
G01 X 26.8767 Y 3.4608 Z -1.0000
G01 X 26.8657 Y 3.4608 Z -1.0000
G01 X 26.8548 Y 3.4608 Z -1.0000
G01 X 26.8263 Y 3.4822 Z -1.0000
G00 Z 5.0000

(End cutting path id: path517)


(Start cutting path id: path517)
(Change tool to Default tool)

G00 Z 5.0000
G00 X 26.8782 Y 3.5485

G01 Z -1.0000 F 100.0000(Penetrate)
G01 X 26.8782 Y 3.5631 Z -1.0000 F 3500.0000
G01 X 26.8572 Y 3.5631 Z -1.0000
G01 X 26.8362 Y 3.5631 Z -1.0000
G01 X 26.8275 Y 3.5771 Z -1.0000
G01 X 26.8188 Y 3.5911 Z -1.0000
G01 X 26.8638 Y 3.5754 Z -1.0000
G01 X 26.9088 Y 3.5597 Z -1.0000
G01 X 26.9190 Y 3.5707 Z -1.0000
G01 X 26.9292 Y 3.5817 Z -1.0000
G01 X 26.9089 Y 3.5889 Z -1.0000
G01 X 26.8886 Y 3.5961 Z -1.0000
G01 X 26.9366 Y 3.6163 Z -1.0000
G01 X 26.9847 Y 3.6365 Z -1.0000
G01 X 26.9912 Y 3.6300 Z -1.0000
G01 X 26.9977 Y 3.6235 Z -1.0000
G01 X 26.9671 Y 3.6044 Z -1.0000
G01 X 26.9365 Y 3.5853 Z -1.0000
G01 X 26.9365 Y 3.5596 Z -1.0000
G01 X 26.9365 Y 3.5339 Z -1.0000
G01 X 26.9073 Y 3.5339 Z -1.0000
G01 X 26.8781 Y 3.5339 Z -1.0000
G01 X 26.8782 Y 3.5485 Z -1.0000
G00 Z 5.0000

(End cutting path id: path517)


(Start cutting path id: path517)
(Change tool to Default tool)

G00 Z 5.0000
G00 X 26.9512 Y 3.5603

G01 Z -1.0000 F 100.0000(Penetrate)
G01 X 26.9512 Y 3.5745 Z -1.0000 F 3500.0000
G01 X 26.9743 Y 3.5834 Z -1.0000
G01 X 26.9974 Y 3.5923 Z -1.0000
G01 X 26.9916 Y 3.5750 Z -1.0000
G01 X 26.9858 Y 3.5576 Z -1.0000
G01 X 26.9685 Y 3.5518 Z -1.0000
G01 X 26.9512 Y 3.5460 Z -1.0000
G01 X 26.9512 Y 3.5603 Z -1.0000
G00 Z 5.0000

(End cutting path id: path517)


(Start cutting path id: path517)
(Change tool to Default tool)

G00 Z 5.0000
G00 X 26.9256 Y 3.6542

G01 Z -1.0000 F 100.0000(Penetrate)
G01 X 26.9309 Y 3.6700 Z -1.0000 F 3500.0000
G01 X 26.9557 Y 3.6736 Z -1.0000
G01 X 26.9804 Y 3.6772 Z -1.0000
G01 X 26.9804 Y 3.6656 Z -1.0000
G01 X 26.9804 Y 3.6540 Z -1.0000
G01 X 26.9504 Y 3.6461 Z -1.0000
G01 X 26.9204 Y 3.6382 Z -1.0000
G01 X 26.9256 Y 3.6542 Z -1.0000
G00 Z 5.0000

(End cutting path id: path517)


(Start cutting path id: path517)
(Change tool to Default tool)

G00 Z 5.0000
G00 X 26.8490 Y 3.7312

G01 Z -1.0000 F 100.0000(Penetrate)
G01 X 26.8490 Y 3.7385 Z -1.0000 F 3500.0000
G01 X 26.8563 Y 3.7385 Z -1.0000
G01 X 26.8636 Y 3.7385 Z -1.0000
G01 X 26.8636 Y 3.7312 Z -1.0000
G01 X 26.8636 Y 3.7239 Z -1.0000
G01 X 26.8563 Y 3.7239 Z -1.0000
G01 X 26.8490 Y 3.7239 Z -1.0000
G01 X 26.8490 Y 3.7312 Z -1.0000
G00 Z 5.0000

(End cutting path id: path517)


(Start cutting path id: path517)
(Change tool to Default tool)

G00 Z 5.0000
G00 X 26.7760 Y 3.6141

G01 Z -1.0000 F 100.0000(Penetrate)
G01 X 26.7760 Y 3.6214 Z -1.0000 F 3500.0000
G01 X 26.7833 Y 3.6214 Z -1.0000
G01 X 26.7906 Y 3.6214 Z -1.0000
G01 X 26.7906 Y 3.6141 Z -1.0000
G01 X 26.7906 Y 3.6068 Z -1.0000
G01 X 26.7833 Y 3.6068 Z -1.0000
G01 X 26.7760 Y 3.6068 Z -1.0000
G01 X 26.7760 Y 3.6141 Z -1.0000
G00 Z 5.0000

(End cutting path id: path517)


(Start cutting path id: path517)
(Change tool to Default tool)

G00 Z 5.0000
G00 X 26.6593 Y 3.5629

G01 Z -1.0000 F 100.0000(Penetrate)
G01 X 26.6593 Y 3.5745 Z -1.0000 F 3500.0000
G01 X 26.6807 Y 3.5827 Z -1.0000
G01 X 26.7021 Y 3.5909 Z -1.0000
G01 X 26.7097 Y 3.5786 Z -1.0000
G01 X 26.7173 Y 3.5663 Z -1.0000
G01 X 26.6883 Y 3.5587 Z -1.0000
G01 X 26.6593 Y 3.5511 Z -1.0000
G01 X 26.6593 Y 3.5629 Z -1.0000
G00 Z 5.0000

(End cutting path id: path517)


(Start cutting path id: path517)
(Change tool to Default tool)

G00 Z 5.0000
G00 X 26.6155 Y 3.5412

G01 Z -1.0000 F 100.0000(Penetrate)
G01 X 26.6155 Y 3.5485 Z -1.0000 F 3500.0000
G01 X 26.6228 Y 3.5485 Z -1.0000
G01 X 26.6301 Y 3.5485 Z -1.0000
G01 X 26.6301 Y 3.5412 Z -1.0000
G01 X 26.6301 Y 3.5339 Z -1.0000
G01 X 26.6228 Y 3.5339 Z -1.0000
G01 X 26.6155 Y 3.5339 Z -1.0000
G01 X 26.6155 Y 3.5412 Z -1.0000
G00 Z 5.0000

(End cutting path id: path517)


(Start cutting path id: path517)
(Change tool to Default tool)

G00 Z 5.0000
G00 X 26.5717 Y 3.5266

G01 Z -1.0000 F 100.0000(Penetrate)
G01 X 26.5717 Y 3.5339 Z -1.0000 F 3500.0000
G01 X 26.5790 Y 3.5339 Z -1.0000
G01 X 26.5863 Y 3.5339 Z -1.0000
G01 X 26.5863 Y 3.5266 Z -1.0000
G01 X 26.5863 Y 3.5193 Z -1.0000
G01 X 26.5790 Y 3.5193 Z -1.0000
G01 X 26.5717 Y 3.5193 Z -1.0000
G01 X 26.5717 Y 3.5266 Z -1.0000
G00 Z 5.0000

(End cutting path id: path517)


(Start cutting path id: path517)
(Change tool to Default tool)

G00 Z 5.0000
G00 X 26.5608 Y 3.5001

G01 Z -1.0000 F 100.0000(Penetrate)
G01 X 26.5863 Y 3.5068 Z -1.0000 F 3500.0000
G01 X 26.6118 Y 3.5001 Z -1.0000
G01 X 26.6374 Y 3.4934 Z -1.0000
G01 X 26.5863 Y 3.4934 Z -1.0000
G01 X 26.5352 Y 3.4934 Z -1.0000
G01 X 26.5608 Y 3.5001 Z -1.0000
G00 Z 5.0000

(End cutting path id: path517)


(Start cutting path id: path517)
(Change tool to Default tool)

G00 Z 5.0000
G00 X 26.5571 Y 3.5833

G01 Z -1.0000 F 100.0000(Penetrate)
G01 X 26.5571 Y 3.5890 Z -1.0000 F 3500.0000
G01 X 26.5790 Y 3.5974 Z -1.0000
G01 X 26.6009 Y 3.6058 Z -1.0000
G01 X 26.6009 Y 3.5917 Z -1.0000
G01 X 26.6009 Y 3.5776 Z -1.0000
G01 X 26.5790 Y 3.5776 Z -1.0000
G01 X 26.5571 Y 3.5776 Z -1.0000
G01 X 26.5571 Y 3.5833 Z -1.0000
G00 Z 5.0000

(End cutting path id: path517)


(Start cutting path id: path517)
(Change tool to Default tool)

G00 Z 5.0000
G00 X 26.6565 Y 3.6608

G01 Z -1.0000 F 100.0000(Penetrate)
G01 X 26.6757 Y 3.6685 Z -1.0000 F 3500.0000
G01 X 26.6845 Y 3.6597 Z -1.0000
G01 X 26.6933 Y 3.6509 Z -1.0000
G01 X 26.6653 Y 3.6521 Z -1.0000
G01 X 26.6374 Y 3.6533 Z -1.0000
G01 X 26.6565 Y 3.6608 Z -1.0000
G00 Z 5.0000

(End cutting path id: path517)


(Start cutting path id: path517)
(Change tool to Default tool)

G00 Z 5.0000
G00 X 26.6447 Y 3.6873

G01 Z -1.0000 F 100.0000(Penetrate)
G01 X 26.6447 Y 3.6946 Z -1.0000 F 3500.0000
G01 X 26.6520 Y 3.6946 Z -1.0000
G01 X 26.6593 Y 3.6946 Z -1.0000
G01 X 26.6593 Y 3.6873 Z -1.0000
G01 X 26.6593 Y 3.6800 Z -1.0000
G01 X 26.6520 Y 3.6800 Z -1.0000
G01 X 26.6447 Y 3.6800 Z -1.0000
G01 X 26.6447 Y 3.6873 Z -1.0000
G00 Z 5.0000

(End cutting path id: path517)


(Start cutting path id: path517)
(Change tool to Default tool)

G00 Z 5.0000
G00 X 26.4768 Y 3.7238

G01 Z -1.0000 F 100.0000(Penetrate)
G01 X 26.4858 Y 3.7384 Z -1.0000 F 3500.0000
G01 X 26.4922 Y 3.7384 Z -1.0000
G01 X 26.4986 Y 3.7384 Z -1.0000
G01 X 26.4986 Y 3.7238 Z -1.0000
G01 X 26.4986 Y 3.7092 Z -1.0000
G01 X 26.4832 Y 3.7092 Z -1.0000
G01 X 26.4677 Y 3.7092 Z -1.0000
G01 X 26.4768 Y 3.7238 Z -1.0000
G00 Z 5.0000

(End cutting path id: path517)


(Start cutting path id: path517)
(Change tool to Default tool)

G00 Z 5.0000
G00 X 26.3617 Y 3.7556

G01 Z -1.0000 F 100.0000(Penetrate)
G01 X 26.3694 Y 3.7680 Z -1.0000 F 3500.0000
G01 X 26.3830 Y 3.7596 Z -1.0000
G01 X 26.3966 Y 3.7512 Z -1.0000
G01 X 26.3966 Y 3.7472 Z -1.0000
G01 X 26.3966 Y 3.7432 Z -1.0000
G01 X 26.3753 Y 3.7432 Z -1.0000
G01 X 26.3541 Y 3.7432 Z -1.0000
G01 X 26.3617 Y 3.7556 Z -1.0000
G00 Z 5.0000

(End cutting path id: path517)


(Start cutting path id: path517)
(Change tool to Default tool)

G00 Z 5.0000
G00 X 26.2463 Y 3.6703

G01 Z -1.0000 F 100.0000(Penetrate)
G01 X 26.2388 Y 3.6897 Z -1.0000 F 3500.0000
G01 X 26.2798 Y 3.6897 Z -1.0000
G01 X 26.3208 Y 3.6897 Z -1.0000
G01 X 26.3133 Y 3.6703 Z -1.0000
G01 X 26.3058 Y 3.6508 Z -1.0000
G01 X 26.2797 Y 3.6508 Z -1.0000
G01 X 26.2536 Y 3.6508 Z -1.0000
G01 X 26.2463 Y 3.6703 Z -1.0000
G00 Z 5.0000

(End cutting path id: path517)


(Start cutting path id: path517)
(Change tool to Default tool)

G00 Z 5.0000
G00 X 26.2798 Y 3.5849

G01 Z -1.0000 F 100.0000(Penetrate)
G01 X 26.2798 Y 3.5922 Z -1.0000 F 3500.0000
G01 X 26.2871 Y 3.5922 Z -1.0000
G01 X 26.2944 Y 3.5922 Z -1.0000
G01 X 26.2944 Y 3.5849 Z -1.0000
G01 X 26.2944 Y 3.5776 Z -1.0000
G01 X 26.2871 Y 3.5776 Z -1.0000
G01 X 26.2798 Y 3.5776 Z -1.0000
G01 X 26.2798 Y 3.5849 Z -1.0000
G00 Z 5.0000

(End cutting path id: path517)


(Start cutting path id: path517)
(Change tool to Default tool)

G00 Z 5.0000
G00 X 26.2506 Y 3.5776

G01 Z -1.0000 F 100.0000(Penetrate)
G01 X 26.2506 Y 3.5971 Z -1.0000 F 3500.0000
G01 X 26.2603 Y 3.5874 Z -1.0000
G01 X 26.2700 Y 3.5777 Z -1.0000
G01 X 26.2603 Y 3.5680 Z -1.0000
G01 X 26.2506 Y 3.5583 Z -1.0000
G01 X 26.2506 Y 3.5776 Z -1.0000
G00 Z 5.0000

(End cutting path id: path517)


(Start cutting path id: path517)
(Change tool to Default tool)

G00 Z 5.0000
G00 X 26.2071 Y 3.5562

G01 Z -1.0000 F 100.0000(Penetrate)
G01 X 26.2256 Y 3.5784 Z -1.0000 F 3500.0000
G01 X 26.2323 Y 3.5717 Z -1.0000
G01 X 26.2390 Y 3.5650 Z -1.0000
G01 X 26.2294 Y 3.5494 Z -1.0000
G01 X 26.2198 Y 3.5339 Z -1.0000
G01 X 26.2043 Y 3.5339 Z -1.0000
G01 X 26.1887 Y 3.5339 Z -1.0000
G01 X 26.2071 Y 3.5562 Z -1.0000
G00 Z 5.0000

(End cutting path id: path517)


(Start cutting path id: path517)
(Change tool to Default tool)

G00 Z 5.0000
G00 X 26.2214 Y 3.5046

G01 Z -1.0000 F 100.0000(Penetrate)
G01 X 26.2214 Y 3.5192 Z -1.0000 F 3500.0000
G01 X 26.2369 Y 3.5192 Z -1.0000
G01 X 26.2523 Y 3.5192 Z -1.0000
G01 X 26.2433 Y 3.5046 Z -1.0000
G01 X 26.2343 Y 3.4900 Z -1.0000
G01 X 26.2279 Y 3.4900 Z -1.0000
G01 X 26.2215 Y 3.4900 Z -1.0000
G01 X 26.2214 Y 3.5046 Z -1.0000
G00 Z 5.0000

(End cutting path id: path517)


(Start cutting path id: path517)
(Change tool to Default tool)

G00 Z 5.0000
G00 X 26.2360 Y 3.4681

G01 Z -1.0000 F 100.0000(Penetrate)
G01 X 26.2360 Y 3.4754 Z -1.0000 F 3500.0000
G01 X 26.2433 Y 3.4754 Z -1.0000
G01 X 26.2506 Y 3.4754 Z -1.0000
G01 X 26.2506 Y 3.4681 Z -1.0000
G01 X 26.2506 Y 3.4608 Z -1.0000
G01 X 26.2433 Y 3.4608 Z -1.0000
G01 X 26.2360 Y 3.4608 Z -1.0000
G01 X 26.2360 Y 3.4681 Z -1.0000
G00 Z 5.0000

(End cutting path id: path517)


(Start cutting path id: path517)
(Change tool to Default tool)

G00 Z 5.0000
G00 X 26.2214 Y 3.3732

G01 Z -1.0000 F 100.0000(Penetrate)
G01 X 26.1995 Y 3.3874 Z -1.0000 F 3500.0000
G01 X 26.2251 Y 3.3876 Z -1.0000
G01 X 26.2506 Y 3.3878 Z -1.0000
G01 X 26.2506 Y 3.3732 Z -1.0000
G01 X 26.2506 Y 3.3586 Z -1.0000
G01 X 26.2470 Y 3.3589 Z -1.0000
G01 X 26.2434 Y 3.3591 Z -1.0000
G01 X 26.2214 Y 3.3732 Z -1.0000
G00 Z 5.0000

(End cutting path id: path517)


(Start cutting path id: path517)
(Change tool to Default tool)

G00 Z 5.0000
G00 X 26.2287 Y 3.3296

G01 Z -1.0000 F 100.0000(Penetrate)
G01 X 26.2377 Y 3.3442 Z -1.0000 F 3500.0000
G01 X 26.2450 Y 3.3442 Z -1.0000
G01 X 26.2523 Y 3.3442 Z -1.0000
G01 X 26.2433 Y 3.3296 Z -1.0000
G01 X 26.2343 Y 3.3150 Z -1.0000
G01 X 26.2270 Y 3.3150 Z -1.0000
G01 X 26.2197 Y 3.3150 Z -1.0000
G01 X 26.2287 Y 3.3296 Z -1.0000
G00 Z 5.0000

(End cutting path id: path517)


(Start cutting path id: path517)
(Change tool to Default tool)

G00 Z 5.0000
G00 X 26.1749 Y 3.3104

G01 Z -1.0000 F 100.0000(Penetrate)
G01 X 26.1941 Y 3.3181 Z -1.0000 F 3500.0000
G01 X 26.2029 Y 3.3093 Z -1.0000
G01 X 26.2117 Y 3.3005 Z -1.0000
G01 X 26.1837 Y 3.3017 Z -1.0000
G01 X 26.1557 Y 3.3029 Z -1.0000
G01 X 26.1749 Y 3.3104 Z -1.0000
G00 Z 5.0000

(End cutting path id: path517)


(Start cutting path id: path517)
(Change tool to Default tool)

G00 Z 5.0000
G00 X 26.2944 Y 3.2640

G01 Z -1.0000 F 100.0000(Penetrate)
G01 X 26.2944 Y 3.2713 Z -1.0000 F 3500.0000
G01 X 26.3017 Y 3.2713 Z -1.0000
G01 X 26.3090 Y 3.2713 Z -1.0000
G01 X 26.3090 Y 3.2640 Z -1.0000
G01 X 26.3090 Y 3.2567 Z -1.0000
G01 X 26.3017 Y 3.2567 Z -1.0000
G01 X 26.2944 Y 3.2567 Z -1.0000
G01 X 26.2944 Y 3.2640 Z -1.0000
G00 Z 5.0000

(End cutting path id: path517)


(Start cutting path id: path517)
(Change tool to Default tool)

G00 Z 5.0000
G00 X 26.3382 Y 3.2640

G01 Z -1.0000 F 100.0000(Penetrate)
G01 X 26.3382 Y 3.2713 Z -1.0000 F 3500.0000
G01 X 26.3455 Y 3.2713 Z -1.0000
G01 X 26.3528 Y 3.2713 Z -1.0000
G01 X 26.3528 Y 3.2640 Z -1.0000
G01 X 26.3528 Y 3.2567 Z -1.0000
G01 X 26.3455 Y 3.2567 Z -1.0000
G01 X 26.3382 Y 3.2567 Z -1.0000
G01 X 26.3382 Y 3.2640 Z -1.0000
G00 Z 5.0000

(End cutting path id: path517)


(Start cutting path id: path517)
(Change tool to Default tool)

G00 Z 5.0000
G00 X 26.3674 Y 3.1910

G01 Z -1.0000 F 100.0000(Penetrate)
G01 X 26.3674 Y 3.1983 Z -1.0000 F 3500.0000
G01 X 26.3747 Y 3.1983 Z -1.0000
G01 X 26.3820 Y 3.1983 Z -1.0000
G01 X 26.3820 Y 3.1910 Z -1.0000
G01 X 26.3820 Y 3.1837 Z -1.0000
G01 X 26.3747 Y 3.1837 Z -1.0000
G01 X 26.3674 Y 3.1837 Z -1.0000
G01 X 26.3674 Y 3.1910 Z -1.0000
G00 Z 5.0000

(End cutting path id: path517)


(Start cutting path id: path517)
(Change tool to Default tool)

G00 Z 5.0000
G00 X 26.3966 Y 3.1326

G01 Z -1.0000 F 100.0000(Penetrate)
G01 X 26.3966 Y 3.1399 Z -1.0000 F 3500.0000
G01 X 26.4039 Y 3.1399 Z -1.0000
G01 X 26.4112 Y 3.1399 Z -1.0000
G01 X 26.4112 Y 3.1326 Z -1.0000
G01 X 26.4112 Y 3.1253 Z -1.0000
G01 X 26.4039 Y 3.1253 Z -1.0000
G01 X 26.3966 Y 3.1253 Z -1.0000
G01 X 26.3966 Y 3.1326 Z -1.0000
G00 Z 5.0000

(End cutting path id: path517)


(Start cutting path id: path517)
(Change tool to Default tool)

G00 Z 5.0000
G00 X 26.4695 Y 3.1690

G01 Z -1.0000 F 100.0000(Penetrate)
G01 X 26.4695 Y 3.1836 Z -1.0000 F 3500.0000
G01 X 26.4850 Y 3.1836 Z -1.0000
G01 X 26.5005 Y 3.1836 Z -1.0000
G01 X 26.4915 Y 3.1690 Z -1.0000
G01 X 26.4825 Y 3.1544 Z -1.0000
G01 X 26.4761 Y 3.1544 Z -1.0000
G01 X 26.4697 Y 3.1544 Z -1.0000
G01 X 26.4695 Y 3.1690 Z -1.0000
G00 Z 5.0000

(End cutting path id: path517)


(Start cutting path id: path517)
(Change tool to Default tool)

G00 Z 5.0000
G00 X 26.4841 Y 3.2493

G01 Z -1.0000 F 100.0000(Penetrate)
G01 X 26.4841 Y 3.2566 Z -1.0000 F 3500.0000
G01 X 26.4914 Y 3.2566 Z -1.0000
G01 X 26.4987 Y 3.2566 Z -1.0000
G01 X 26.4987 Y 3.2493 Z -1.0000
G01 X 26.4987 Y 3.2420 Z -1.0000
G01 X 26.4914 Y 3.2420 Z -1.0000
G01 X 26.4841 Y 3.2420 Z -1.0000
G01 X 26.4841 Y 3.2493 Z -1.0000
G00 Z 5.0000

(End cutting path id: path517)


(Start cutting path id: path517)
(Change tool to Default tool)

G00 Z 5.0000
G00 X 26.5133 Y 3.2420

G01 Z -1.0000 F 100.0000(Penetrate)
G01 X 26.5133 Y 3.2566 Z -1.0000 F 3500.0000
G01 X 26.5279 Y 3.2566 Z -1.0000
G01 X 26.5425 Y 3.2566 Z -1.0000
G01 X 26.5425 Y 3.2420 Z -1.0000
G01 X 26.5425 Y 3.2274 Z -1.0000
G01 X 26.5279 Y 3.2274 Z -1.0000
G01 X 26.5133 Y 3.2274 Z -1.0000
G01 X 26.5133 Y 3.2420 Z -1.0000
G00 Z 5.0000

(End cutting path id: path517)


(Start cutting path id: path517)
(Change tool to Default tool)

G00 Z 5.0000
G00 X 26.5717 Y 3.1823

G01 Z -1.0000 F 100.0000(Penetrate)
G01 X 26.5717 Y 3.1955 Z -1.0000 F 3500.0000
G01 X 26.5389 Y 3.1876 Z -1.0000
G01 X 26.5060 Y 3.1797 Z -1.0000
G01 X 26.5206 Y 3.1952 Z -1.0000
G01 X 26.5352 Y 3.2108 Z -1.0000
G01 X 26.5769 Y 3.2211 Z -1.0000
G01 X 26.6186 Y 3.2314 Z -1.0000
G01 X 26.6020 Y 3.2002 Z -1.0000
G01 X 26.5853 Y 3.1691 Z -1.0000
G01 X 26.5785 Y 3.1691 Z -1.0000
G01 X 26.5717 Y 3.1691 Z -1.0000
G01 X 26.5717 Y 3.1823 Z -1.0000
G00 Z 5.0000

(End cutting path id: path517)


(Start cutting path id: path517)
(Change tool to Default tool)

G00 Z 5.0000
G00 X 26.5717 Y 3.1399

G01 Z -1.0000 F 100.0000(Penetrate)
G01 X 26.5717 Y 3.1593 Z -1.0000 F 3500.0000
G01 X 26.5814 Y 3.1496 Z -1.0000
G01 X 26.5911 Y 3.1399 Z -1.0000
G01 X 26.5814 Y 3.1302 Z -1.0000
G01 X 26.5717 Y 3.1205 Z -1.0000
G01 X 26.5717 Y 3.1399 Z -1.0000
G00 Z 5.0000

(End cutting path id: path517)


(Start cutting path id: path517)
(Change tool to Default tool)

G00 Z 5.0000
G00 X 26.6350 Y 3.2225

G01 Z -1.0000 F 100.0000(Penetrate)
G01 X 26.6447 Y 3.2322 Z -1.0000 F 3500.0000
G01 X 26.6544 Y 3.2225 Z -1.0000
G01 X 26.6641 Y 3.2128 Z -1.0000
G01 X 26.6446 Y 3.2128 Z -1.0000
G01 X 26.6251 Y 3.2128 Z -1.0000
G01 X 26.6350 Y 3.2225 Z -1.0000
G00 Z 5.0000

(End cutting path id: path517)


(Start cutting path id: path517)
(Change tool to Default tool)

G00 Z 5.0000
G00 X 26.5279 Y 3.3659

G01 Z -1.0000 F 100.0000(Penetrate)
G01 X 26.5279 Y 3.3732 Z -1.0000 F 3500.0000
G01 X 26.5352 Y 3.3732 Z -1.0000
G01 X 26.5425 Y 3.3732 Z -1.0000
G01 X 26.5425 Y 3.3659 Z -1.0000
G01 X 26.5425 Y 3.3586 Z -1.0000
G01 X 26.5352 Y 3.3586 Z -1.0000
G01 X 26.5279 Y 3.3586 Z -1.0000
G01 X 26.5279 Y 3.3659 Z -1.0000
G00 Z 5.0000

(End cutting path id: path517)


(Start cutting path id: path517)
(Change tool to Default tool)

G00 Z 5.0000
G00 X 26.4987 Y 3.3659

G01 Z -1.0000 F 100.0000(Penetrate)
G01 X 26.4987 Y 3.3732 Z -1.0000 F 3500.0000
G01 X 26.5060 Y 3.3732 Z -1.0000
G01 X 26.5133 Y 3.3732 Z -1.0000
G01 X 26.5133 Y 3.3659 Z -1.0000
G01 X 26.5133 Y 3.3586 Z -1.0000
G01 X 26.5060 Y 3.3586 Z -1.0000
G01 X 26.4987 Y 3.3586 Z -1.0000
G01 X 26.4987 Y 3.3659 Z -1.0000
G00 Z 5.0000

(End cutting path id: path517)


(Start cutting path id: path517)
(Change tool to Default tool)

G00 Z 5.0000
G00 X 26.4327 Y 3.4614

G01 Z -1.0000 F 100.0000(Penetrate)
G01 X 26.4241 Y 3.4754 Z -1.0000 F 3500.0000
G01 X 26.4541 Y 3.4754 Z -1.0000
G01 X 26.4842 Y 3.4754 Z -1.0000
G01 X 26.4842 Y 3.4697 Z -1.0000
G01 X 26.4842 Y 3.4640 Z -1.0000
G01 X 26.4627 Y 3.4558 Z -1.0000
G01 X 26.4413 Y 3.4476 Z -1.0000
G01 X 26.4327 Y 3.4614 Z -1.0000
G00 Z 5.0000

(End cutting path id: path517)


(Start cutting path id: path517)
(Change tool to Default tool)

G00 Z 5.0000
G00 X 26.3236 Y 3.5995

G01 Z -1.0000 F 100.0000(Penetrate)
G01 X 26.3236 Y 3.6068 Z -1.0000 F 3500.0000
G01 X 26.3309 Y 3.6068 Z -1.0000
G01 X 26.3382 Y 3.6068 Z -1.0000
G01 X 26.3382 Y 3.5995 Z -1.0000
G01 X 26.3382 Y 3.5922 Z -1.0000
G01 X 26.3309 Y 3.5922 Z -1.0000
G01 X 26.3236 Y 3.5922 Z -1.0000
G01 X 26.3236 Y 3.5995 Z -1.0000
G00 Z 5.0000

(End cutting path id: path517)


(Start cutting path id: path517)
(Change tool to Default tool)

G00 Z 5.0000
G00 X 26.2263 Y 3.8355

G01 Z -1.0000 F 100.0000(Penetrate)
G01 X 26.2360 Y 3.8452 Z -1.0000 F 3500.0000
G01 X 26.2457 Y 3.8355 Z -1.0000
G01 X 26.2554 Y 3.8258 Z -1.0000
G01 X 26.2359 Y 3.8258 Z -1.0000
G01 X 26.2165 Y 3.8258 Z -1.0000
G01 X 26.2263 Y 3.8355 Z -1.0000
G00 Z 5.0000

(End cutting path id: path517)


(Start cutting path id: path517)
(Change tool to Default tool)

G00 Z 5.0000
G00 X 26.1825 Y 3.9232

G01 Z -1.0000 F 100.0000(Penetrate)
G01 X 26.1922 Y 3.9329 Z -1.0000 F 3500.0000
G01 X 26.2019 Y 3.9232 Z -1.0000
G01 X 26.2116 Y 3.9135 Z -1.0000
G01 X 26.1921 Y 3.9135 Z -1.0000
G01 X 26.1727 Y 3.9135 Z -1.0000
G01 X 26.1825 Y 3.9232 Z -1.0000
G00 Z 5.0000

(End cutting path id: path517)


(Start cutting path id: path517)
(Change tool to Default tool)

G00 Z 5.0000
G00 X 26.1338 Y 3.9647

G01 Z -1.0000 F 100.0000(Penetrate)
G01 X 26.1338 Y 3.9720 Z -1.0000 F 3500.0000
G01 X 26.1411 Y 3.9720 Z -1.0000
G01 X 26.1484 Y 3.9720 Z -1.0000
G01 X 26.1484 Y 3.9647 Z -1.0000
G01 X 26.1484 Y 3.9574 Z -1.0000
G01 X 26.1411 Y 3.9574 Z -1.0000
G01 X 26.1338 Y 3.9574 Z -1.0000
G01 X 26.1338 Y 3.9647 Z -1.0000
G00 Z 5.0000

(End cutting path id: path517)


(Start cutting path id: path517)
(Change tool to Default tool)

G00 Z 5.0000
G00 X 26.0994 Y 4.0084

G01 Z -1.0000 F 100.0000(Penetrate)
G01 X 26.0910 Y 4.0303 Z -1.0000 F 3500.0000
G01 X 26.1051 Y 4.0303 Z -1.0000
G01 X 26.1192 Y 4.0303 Z -1.0000
G01 X 26.1192 Y 4.0084 Z -1.0000
G01 X 26.1192 Y 3.9865 Z -1.0000
G01 X 26.1135 Y 3.9865 Z -1.0000
G01 X 26.1078 Y 3.9865 Z -1.0000
G01 X 26.0994 Y 4.0084 Z -1.0000
G00 Z 5.0000

(End cutting path id: path517)


(Start cutting path id: path517)
(Change tool to Default tool)

G00 Z 5.0000
G00 X 26.0463 Y 4.0615

G01 Z -1.0000 F 100.0000(Penetrate)
G01 X 26.0463 Y 4.0742 Z -1.0000 F 3500.0000
G01 X 26.0645 Y 4.0740 Z -1.0000
G01 X 26.0828 Y 4.0738 Z -1.0000
G01 X 26.1026 Y 4.0612 Z -1.0000
G01 X 26.1224 Y 4.0487 Z -1.0000
G01 X 26.0843 Y 4.0487 Z -1.0000
G01 X 26.0463 Y 4.0487 Z -1.0000
G01 X 26.0463 Y 4.0615 Z -1.0000
G00 Z 5.0000

(End cutting path id: path517)


(Start cutting path id: path517)
(Change tool to Default tool)

G00 Z 5.0000
G00 X 26.0317 Y 4.1182

G01 Z -1.0000 F 100.0000(Penetrate)
G01 X 26.0536 Y 4.1323 Z -1.0000 F 3500.0000
G01 X 26.0654 Y 4.1326 Z -1.0000
G01 X 26.0772 Y 4.1328 Z -1.0000
G01 X 26.0682 Y 4.1182 Z -1.0000
G01 X 26.0592 Y 4.1036 Z -1.0000
G01 X 26.0345 Y 4.1038 Z -1.0000
G01 X 26.0098 Y 4.1040 Z -1.0000
G01 X 26.0317 Y 4.1182 Z -1.0000
G00 Z 5.0000

(End cutting path id: path517)


(Start cutting path id: path517)
(Change tool to Default tool)

G00 Z 5.0000
G00 X 25.9879 Y 4.1109

G01 Z -1.0000 F 100.0000(Penetrate)
G01 X 25.9879 Y 4.1182 Z -1.0000 F 3500.0000
G01 X 25.9952 Y 4.1182 Z -1.0000
G01 X 26.0025 Y 4.1182 Z -1.0000
G01 X 26.0025 Y 4.1109 Z -1.0000
G01 X 26.0025 Y 4.1036 Z -1.0000
G01 X 25.9952 Y 4.1036 Z -1.0000
G01 X 25.9879 Y 4.1036 Z -1.0000
G01 X 25.9879 Y 4.1109 Z -1.0000
G00 Z 5.0000

(End cutting path id: path517)


(Start cutting path id: path517)
(Change tool to Default tool)

G00 Z 5.0000
G00 X 26.0171 Y 4.1692

G01 Z -1.0000 F 100.0000(Penetrate)
G01 X 26.0171 Y 4.1765 Z -1.0000 F 3500.0000
G01 X 26.0244 Y 4.1765 Z -1.0000
G01 X 26.0317 Y 4.1765 Z -1.0000
G01 X 26.0317 Y 4.1692 Z -1.0000
G01 X 26.0317 Y 4.1619 Z -1.0000
G01 X 26.0244 Y 4.1619 Z -1.0000
G01 X 26.0171 Y 4.1619 Z -1.0000
G01 X 26.0171 Y 4.1692 Z -1.0000
G00 Z 5.0000

(End cutting path id: path517)


(Start cutting path id: path517)
(Change tool to Default tool)

G00 Z 5.0000
G00 X 26.0077 Y 4.2594

G01 Z -1.0000 F 100.0000(Penetrate)
G01 X 26.0172 Y 4.2764 Z -1.0000 F 3500.0000
G01 X 25.9989 Y 4.2829 Z -1.0000
G01 X 25.9805 Y 4.2894 Z -1.0000
G01 X 25.9917 Y 4.3014 Z -1.0000
G01 X 26.0029 Y 4.3134 Z -1.0000
G01 X 26.0202 Y 4.2961 Z -1.0000
G01 X 26.0375 Y 4.2788 Z -1.0000
G01 X 26.0178 Y 4.2606 Z -1.0000
G01 X 25.9981 Y 4.2423 Z -1.0000
G01 X 26.0077 Y 4.2594 Z -1.0000
G00 Z 5.0000

(End cutting path id: path517)


(Start cutting path id: path517)
(Change tool to Default tool)

G00 Z 5.0000
G00 X 25.9368 Y 4.2498

G01 Z -1.0000 F 100.0000(Penetrate)
G01 X 25.9278 Y 4.2644 Z -1.0000 F 3500.0000
G01 X 25.9424 Y 4.2644 Z -1.0000
G01 X 25.9570 Y 4.2644 Z -1.0000
G01 X 25.9660 Y 4.2498 Z -1.0000
G01 X 25.9750 Y 4.2352 Z -1.0000
G01 X 25.9604 Y 4.2352 Z -1.0000
G01 X 25.9458 Y 4.2352 Z -1.0000
G01 X 25.9368 Y 4.2498 Z -1.0000
G00 Z 5.0000

(End cutting path id: path517)


(Start cutting path id: path517)
(Change tool to Default tool)

G00 Z 5.0000
G00 X 25.8565 Y 4.2861

G01 Z -1.0000 F 100.0000(Penetrate)
G01 X 25.8565 Y 4.2934 Z -1.0000 F 3500.0000
G01 X 25.8638 Y 4.2934 Z -1.0000
G01 X 25.8711 Y 4.2934 Z -1.0000
G01 X 25.8711 Y 4.2861 Z -1.0000
G01 X 25.8711 Y 4.2788 Z -1.0000
G01 X 25.8638 Y 4.2788 Z -1.0000
G01 X 25.8565 Y 4.2788 Z -1.0000
G01 X 25.8565 Y 4.2861 Z -1.0000
G00 Z 5.0000

(End cutting path id: path517)


(Start cutting path id: path517)
(Change tool to Default tool)

G00 Z 5.0000
G00 X 25.8273 Y 4.2934

G01 Z -1.0000 F 100.0000(Penetrate)
G01 X 25.8273 Y 4.3129 Z -1.0000 F 3500.0000
G01 X 25.8370 Y 4.3032 Z -1.0000
G01 X 25.8467 Y 4.2935 Z -1.0000
G01 X 25.8370 Y 4.2838 Z -1.0000
G01 X 25.8273 Y 4.2741 Z -1.0000
G01 X 25.8273 Y 4.2934 Z -1.0000
G00 Z 5.0000

(End cutting path id: path517)


(Start cutting path id: path517)
(Change tool to Default tool)

G00 Z 5.0000
G00 X 25.8127 Y 4.3519

G01 Z -1.0000 F 100.0000(Penetrate)
G01 X 25.8127 Y 4.3665 Z -1.0000 F 3500.0000
G01 X 25.8282 Y 4.3665 Z -1.0000
G01 X 25.8436 Y 4.3665 Z -1.0000
G01 X 25.8346 Y 4.3519 Z -1.0000
G01 X 25.8256 Y 4.3373 Z -1.0000
G01 X 25.8192 Y 4.3373 Z -1.0000
G01 X 25.8128 Y 4.3373 Z -1.0000
G01 X 25.8127 Y 4.3519 Z -1.0000
G00 Z 5.0000

(End cutting path id: path517)


(Start cutting path id: path517)
(Change tool to Default tool)

G00 Z 5.0000
G00 X 25.8857 Y 4.4176

G01 Z -1.0000 F 100.0000(Penetrate)
G01 X 25.8857 Y 4.4249 Z -1.0000 F 3500.0000
G01 X 25.8930 Y 4.4249 Z -1.0000
G01 X 25.9003 Y 4.4249 Z -1.0000
G01 X 25.9003 Y 4.4176 Z -1.0000
G01 X 25.9003 Y 4.4103 Z -1.0000
G01 X 25.8930 Y 4.4103 Z -1.0000
G01 X 25.8857 Y 4.4103 Z -1.0000
G01 X 25.8857 Y 4.4176 Z -1.0000
G00 Z 5.0000

(End cutting path id: path517)


(Start cutting path id: path517)
(Change tool to Default tool)

G00 Z 5.0000
G00 X 25.7601 Y 4.4626

G01 Z -1.0000 F 100.0000(Penetrate)
G01 X 25.7690 Y 4.4857 Z -1.0000 F 3500.0000
G01 X 25.7690 Y 4.4918 Z -1.0000
G01 X 25.7690 Y 4.4979 Z -1.0000
G01 X 25.7945 Y 4.4976 Z -1.0000
G01 X 25.8201 Y 4.4974 Z -1.0000
G01 X 25.8000 Y 4.4847 Z -1.0000
G01 X 25.7798 Y 4.4719 Z -1.0000
G01 X 25.7899 Y 4.4557 Z -1.0000
G01 X 25.7999 Y 4.4395 Z -1.0000
G01 X 25.7756 Y 4.4395 Z -1.0000
G01 X 25.7513 Y 4.4395 Z -1.0000
G01 X 25.7601 Y 4.4626 Z -1.0000
G00 Z 5.0000

(End cutting path id: path517)


(Start cutting path id: path517)
(Change tool to Default tool)

G00 Z 5.0000
G00 X 25.7689 Y 4.5557

G01 Z -1.0000 F 100.0000(Penetrate)
G01 X 25.7689 Y 4.5698 Z -1.0000 F 3500.0000
G01 X 25.7908 Y 4.5614 Z -1.0000
G01 X 25.8127 Y 4.5530 Z -1.0000
G01 X 25.8127 Y 4.5473 Z -1.0000
G01 X 25.8127 Y 4.5416 Z -1.0000
G01 X 25.7908 Y 4.5416 Z -1.0000
G01 X 25.7689 Y 4.5416 Z -1.0000
G01 X 25.7689 Y 4.5557 Z -1.0000
G00 Z 5.0000

(End cutting path id: path517)


(Start cutting path id: path517)
(Change tool to Default tool)

G00 Z 5.0000
G00 X 25.6570 Y 4.5367

G01 Z -1.0000 F 100.0000(Penetrate)
G01 X 25.6667 Y 4.5464 Z -1.0000 F 3500.0000
G01 X 25.6764 Y 4.5367 Z -1.0000
G01 X 25.6861 Y 4.5270 Z -1.0000
G01 X 25.6667 Y 4.5270 Z -1.0000
G01 X 25.6472 Y 4.5270 Z -1.0000
G01 X 25.6570 Y 4.5367 Z -1.0000
G00 Z 5.0000

(End cutting path id: path517)


(Start cutting path id: path517)
(Change tool to Default tool)

G00 Z 5.0000
G00 X 25.6157 Y 4.4761

G01 Z -1.0000 F 100.0000(Penetrate)
G01 X 25.5719 Y 4.4954 Z -1.0000 F 3500.0000
G01 X 25.6112 Y 4.4966 Z -1.0000
G01 X 25.6505 Y 4.4978 Z -1.0000
G01 X 25.6601 Y 4.4823 Z -1.0000
G01 X 25.6697 Y 4.4667 Z -1.0000
G01 X 25.6646 Y 4.4617 Z -1.0000
G01 X 25.6595 Y 4.4567 Z -1.0000
G01 X 25.6157 Y 4.4761 Z -1.0000
G00 Z 5.0000

(End cutting path id: path517)


(Start cutting path id: path517)
(Change tool to Default tool)

G00 Z 5.0000
G00 X 25.5074 Y 4.5176

G01 Z -1.0000 F 100.0000(Penetrate)
G01 X 25.5135 Y 4.5228 Z -1.0000 F 3500.0000
G01 X 25.5549 Y 4.5327 Z -1.0000
G01 X 25.5963 Y 4.5426 Z -1.0000
G01 X 25.5869 Y 4.5274 Z -1.0000
G01 X 25.5775 Y 4.5122 Z -1.0000
G01 X 25.5394 Y 4.5122 Z -1.0000
G01 X 25.5013 Y 4.5122 Z -1.0000
G01 X 25.5074 Y 4.5176 Z -1.0000
G00 Z 5.0000

(End cutting path id: path517)


(Start cutting path id: path517)
(Change tool to Default tool)

G00 Z 5.0000
G00 X 25.4284 Y 4.4783

G01 Z -1.0000 F 100.0000(Penetrate)
G01 X 25.4187 Y 4.4880 Z -1.0000 F 3500.0000
G01 X 25.4200 Y 4.5257 Z -1.0000
G01 X 25.4213 Y 4.5634 Z -1.0000
G01 X 25.4341 Y 4.5204 Z -1.0000
G01 X 25.4470 Y 4.4773 Z -1.0000
G01 X 25.4426 Y 4.4729 Z -1.0000
G01 X 25.4382 Y 4.4685 Z -1.0000
G01 X 25.4284 Y 4.4783 Z -1.0000
G00 Z 5.0000

(End cutting path id: path517)


(Start cutting path id: path517)
(Change tool to Default tool)

G00 Z 5.0000
G00 X 25.3603 Y 4.4832

G01 Z -1.0000 F 100.0000(Penetrate)
G01 X 25.3603 Y 4.5027 Z -1.0000 F 3500.0000
G01 X 25.3700 Y 4.4930 Z -1.0000
G01 X 25.3797 Y 4.4833 Z -1.0000
G01 X 25.3700 Y 4.4736 Z -1.0000
G01 X 25.3603 Y 4.4639 Z -1.0000
G01 X 25.3603 Y 4.4832 Z -1.0000
G00 Z 5.0000

(End cutting path id: path517)


(Start cutting path id: path517)
(Change tool to Default tool)

G00 Z 5.0000
G00 X 25.3603 Y 4.5270

G01 Z -1.0000 F 100.0000(Penetrate)
G01 X 25.3603 Y 4.5465 Z -1.0000 F 3500.0000
G01 X 25.3700 Y 4.5368 Z -1.0000
G01 X 25.3797 Y 4.5271 Z -1.0000
G01 X 25.3700 Y 4.5174 Z -1.0000
G01 X 25.3603 Y 4.5077 Z -1.0000
G01 X 25.3603 Y 4.5270 Z -1.0000
G00 Z 5.0000

(End cutting path id: path517)


(Start cutting path id: path517)
(Change tool to Default tool)

G00 Z 5.0000
G00 X 25.3603 Y 4.5780

G01 Z -1.0000 F 100.0000(Penetrate)
G01 X 25.3603 Y 4.5853 Z -1.0000 F 3500.0000
G01 X 25.3676 Y 4.5853 Z -1.0000
G01 X 25.3749 Y 4.5853 Z -1.0000
G01 X 25.3749 Y 4.5780 Z -1.0000
G01 X 25.3749 Y 4.5707 Z -1.0000
G01 X 25.3676 Y 4.5707 Z -1.0000
G01 X 25.3603 Y 4.5707 Z -1.0000
G01 X 25.3603 Y 4.5780 Z -1.0000
G00 Z 5.0000

(End cutting path id: path517)


(Start cutting path id: path517)
(Change tool to Default tool)

G00 Z 5.0000
G00 X 25.2630 Y 4.5635

G01 Z -1.0000 F 100.0000(Penetrate)
G01 X 25.2679 Y 4.5781 Z -1.0000 F 3500.0000
G01 X 25.2946 Y 4.5781 Z -1.0000
G01 X 25.3214 Y 4.5781 Z -1.0000
G01 X 25.3270 Y 4.5613 Z -1.0000
G01 X 25.3326 Y 4.5446 Z -1.0000
G01 X 25.2954 Y 4.5468 Z -1.0000
G01 X 25.2582 Y 4.5489 Z -1.0000
G01 X 25.2630 Y 4.5635 Z -1.0000
G00 Z 5.0000

(End cutting path id: path517)


(Start cutting path id: path517)
(Change tool to Default tool)

G00 Z 5.0000
G00 X 25.2614 Y 4.5151

G01 Z -1.0000 F 100.0000(Penetrate)
G01 X 25.2672 Y 4.5325 Z -1.0000 F 3500.0000
G01 X 25.2846 Y 4.5383 Z -1.0000
G01 X 25.3019 Y 4.5441 Z -1.0000
G01 X 25.3019 Y 4.5298 Z -1.0000
G01 X 25.3019 Y 4.5156 Z -1.0000
G01 X 25.2788 Y 4.5067 Z -1.0000
G01 X 25.2557 Y 4.4978 Z -1.0000
G01 X 25.2614 Y 4.5151 Z -1.0000
G00 Z 5.0000

(End cutting path id: path517)


(Start cutting path id: path517)
(Change tool to Default tool)

G00 Z 5.0000
G00 X 25.2435 Y 4.4759

G01 Z -1.0000 F 100.0000(Penetrate)
G01 X 25.2435 Y 4.4832 Z -1.0000 F 3500.0000
G01 X 25.2508 Y 4.4832 Z -1.0000
G01 X 25.2581 Y 4.4832 Z -1.0000
G01 X 25.2581 Y 4.4759 Z -1.0000
G01 X 25.2581 Y 4.4686 Z -1.0000
G01 X 25.2508 Y 4.4686 Z -1.0000
G01 X 25.2435 Y 4.4686 Z -1.0000
G01 X 25.2435 Y 4.4759 Z -1.0000
G00 Z 5.0000

(End cutting path id: path517)


(Start cutting path id: path517)
(Change tool to Default tool)

G00 Z 5.0000
G00 X 25.1705 Y 4.5035

G01 Z -1.0000 F 100.0000(Penetrate)
G01 X 25.1705 Y 4.5092 Z -1.0000 F 3500.0000
G01 X 25.1924 Y 4.5176 Z -1.0000
G01 X 25.2143 Y 4.5260 Z -1.0000
G01 X 25.2143 Y 4.5119 Z -1.0000
G01 X 25.2143 Y 4.4978 Z -1.0000
G01 X 25.1924 Y 4.4978 Z -1.0000
G01 X 25.1705 Y 4.4978 Z -1.0000
G01 X 25.1705 Y 4.5035 Z -1.0000
G00 Z 5.0000

(End cutting path id: path517)


(Start cutting path id: path517)
(Change tool to Default tool)

G00 Z 5.0000
G00 X 25.1413 Y 4.5343

G01 Z -1.0000 F 100.0000(Penetrate)
G01 X 25.1413 Y 4.5416 Z -1.0000 F 3500.0000
G01 X 25.1486 Y 4.5416 Z -1.0000
G01 X 25.1559 Y 4.5416 Z -1.0000
G01 X 25.1559 Y 4.5343 Z -1.0000
G01 X 25.1559 Y 4.5270 Z -1.0000
G01 X 25.1486 Y 4.5270 Z -1.0000
G01 X 25.1413 Y 4.5270 Z -1.0000
G01 X 25.1413 Y 4.5343 Z -1.0000
G00 Z 5.0000

(End cutting path id: path517)


(Start cutting path id: path517)
(Change tool to Default tool)

G00 Z 5.0000
G00 X 25.1559 Y 4.5711

G01 Z -1.0000 F 100.0000(Penetrate)
G01 X 25.1559 Y 4.5853 Z -1.0000 F 3500.0000
G01 X 25.1778 Y 4.5853 Z -1.0000
G01 X 25.1997 Y 4.5853 Z -1.0000
G01 X 25.1997 Y 4.5796 Z -1.0000
G01 X 25.1997 Y 4.5739 Z -1.0000
G01 X 25.1778 Y 4.5655 Z -1.0000
G01 X 25.1559 Y 4.5571 Z -1.0000
G01 X 25.1559 Y 4.5711 Z -1.0000
G00 Z 5.0000

(End cutting path id: path517)


(Start cutting path id: path517)
(Change tool to Default tool)

G00 Z 5.0000
G00 X 25.0538 Y 4.6798

G01 Z -1.0000 F 100.0000(Penetrate)
G01 X 25.0538 Y 4.6871 Z -1.0000 F 3500.0000
G01 X 25.0611 Y 4.6871 Z -1.0000
G01 X 25.0684 Y 4.6871 Z -1.0000
G01 X 25.0684 Y 4.6798 Z -1.0000
G01 X 25.0684 Y 4.6725 Z -1.0000
G01 X 25.0611 Y 4.6725 Z -1.0000
G01 X 25.0538 Y 4.6725 Z -1.0000
G01 X 25.0538 Y 4.6798 Z -1.0000
G00 Z 5.0000

(End cutting path id: path517)


(Start cutting path id: path517)
(Change tool to Default tool)

G00 Z 5.0000
G00 X 25.0148 Y 4.6968

G01 Z -1.0000 F 100.0000(Penetrate)
G01 X 25.0245 Y 4.7065 Z -1.0000 F 3500.0000
G01 X 25.0342 Y 4.6968 Z -1.0000
G01 X 25.0439 Y 4.6871 Z -1.0000
G01 X 25.0245 Y 4.6871 Z -1.0000
G01 X 25.0050 Y 4.6871 Z -1.0000
G01 X 25.0148 Y 4.6968 Z -1.0000
G00 Z 5.0000

(End cutting path id: path517)


(Start cutting path id: path517)
(Change tool to Default tool)

G00 Z 5.0000
G00 X 24.9370 Y 4.5707

G01 Z -1.0000 F 100.0000(Penetrate)
G01 X 24.9370 Y 4.5901 Z -1.0000 F 3500.0000
G01 X 24.9467 Y 4.5804 Z -1.0000
G01 X 24.9564 Y 4.5707 Z -1.0000
G01 X 24.9467 Y 4.5610 Z -1.0000
G01 X 24.9370 Y 4.5513 Z -1.0000
G01 X 24.9370 Y 4.5707 Z -1.0000
G00 Z 5.0000

(End cutting path id: path517)


(Start cutting path id: path517)
(Change tool to Default tool)

G00 Z 5.0000
G00 X 24.8786 Y 4.5416

G01 Z -1.0000 F 100.0000(Penetrate)
G01 X 24.8786 Y 4.5611 Z -1.0000 F 3500.0000
G01 X 24.8883 Y 4.5514 Z -1.0000
G01 X 24.8980 Y 4.5417 Z -1.0000
G01 X 24.8883 Y 4.5320 Z -1.0000
G01 X 24.8786 Y 4.5223 Z -1.0000
G01 X 24.8786 Y 4.5416 Z -1.0000
G00 Z 5.0000

(End cutting path id: path517)


(Start cutting path id: path517)
(Change tool to Default tool)

G00 Z 5.0000
G00 X 24.8640 Y 4.5994

G01 Z -1.0000 F 100.0000(Penetrate)
G01 X 24.8640 Y 4.6135 Z -1.0000 F 3500.0000
G01 X 24.8859 Y 4.6051 Z -1.0000
G01 X 24.9078 Y 4.5967 Z -1.0000
G01 X 24.9078 Y 4.5910 Z -1.0000
G01 X 24.9078 Y 4.5853 Z -1.0000
G01 X 24.8859 Y 4.5853 Z -1.0000
G01 X 24.8640 Y 4.5853 Z -1.0000
G01 X 24.8640 Y 4.5994 Z -1.0000
G00 Z 5.0000

(End cutting path id: path517)


(Start cutting path id: path517)
(Change tool to Default tool)

G00 Z 5.0000
G00 X 24.8348 Y 4.6871

G01 Z -1.0000 F 100.0000(Penetrate)
G01 X 24.8129 Y 4.7013 Z -1.0000 F 3500.0000
G01 X 24.8303 Y 4.7015 Z -1.0000
G01 X 24.8477 Y 4.7017 Z -1.0000
G01 X 24.8567 Y 4.6871 Z -1.0000
G01 X 24.8657 Y 4.6725 Z -1.0000
G01 X 24.8612 Y 4.6728 Z -1.0000
G01 X 24.8567 Y 4.6730 Z -1.0000
G01 X 24.8348 Y 4.6871 Z -1.0000
G00 Z 5.0000

(End cutting path id: path517)


(Start cutting path id: path517)
(Change tool to Default tool)

G00 Z 5.0000
G00 X 24.7655 Y 4.5858

G01 Z -1.0000 F 100.0000(Penetrate)
G01 X 24.7327 Y 4.5990 Z -1.0000 F 3500.0000
G01 X 24.7327 Y 4.6064 Z -1.0000
G01 X 24.7327 Y 4.6138 Z -1.0000
G01 X 24.7690 Y 4.6000 Z -1.0000
G01 X 24.8054 Y 4.5862 Z -1.0000
G01 X 24.8298 Y 4.5956 Z -1.0000
G01 X 24.8542 Y 4.6050 Z -1.0000
G01 X 24.8436 Y 4.5879 Z -1.0000
G01 X 24.8331 Y 4.5708 Z -1.0000
G01 X 24.8157 Y 4.5717 Z -1.0000
G01 X 24.7983 Y 4.5727 Z -1.0000
G01 X 24.7655 Y 4.5858 Z -1.0000
G00 Z 5.0000

(End cutting path id: path517)


(Start cutting path id: path517)
(Change tool to Default tool)

G00 Z 5.0000
G00 X 24.7035 Y 4.6070

G01 Z -1.0000 F 100.0000(Penetrate)
G01 X 24.7035 Y 4.6143 Z -1.0000 F 3500.0000
G01 X 24.7108 Y 4.6143 Z -1.0000
G01 X 24.7181 Y 4.6143 Z -1.0000
G01 X 24.7181 Y 4.6070 Z -1.0000
G01 X 24.7181 Y 4.5997 Z -1.0000
G01 X 24.7108 Y 4.5997 Z -1.0000
G01 X 24.7035 Y 4.5997 Z -1.0000
G01 X 24.7035 Y 4.6070 Z -1.0000
G00 Z 5.0000

(End cutting path id: path517)


(Start cutting path id: path517)
(Change tool to Default tool)

G00 Z 5.0000
G00 X 24.6159 Y 4.6289

G01 Z -1.0000 F 100.0000(Penetrate)
G01 X 24.6159 Y 4.6483 Z -1.0000 F 3500.0000
G01 X 24.6256 Y 4.6386 Z -1.0000
G01 X 24.6353 Y 4.6289 Z -1.0000
G01 X 24.6256 Y 4.6192 Z -1.0000
G01 X 24.6159 Y 4.6095 Z -1.0000
G01 X 24.6159 Y 4.6289 Z -1.0000
G00 Z 5.0000

(End cutting path id: path517)


(Start cutting path id: path517)
(Change tool to Default tool)

G00 Z 5.0000
G00 X 24.5848 Y 4.5963

G01 Z -1.0000 F 100.0000(Penetrate)
G01 X 24.5648 Y 4.6218 Z -1.0000 F 3500.0000
G01 X 24.5904 Y 4.6018 Z -1.0000
G01 X 24.6159 Y 4.5818 Z -1.0000
G01 X 24.6159 Y 4.5763 Z -1.0000
G01 X 24.6159 Y 4.5708 Z -1.0000
G01 X 24.6104 Y 4.5708 Z -1.0000
G01 X 24.6049 Y 4.5708 Z -1.0000
G01 X 24.5848 Y 4.5963 Z -1.0000
G00 Z 5.0000

(End cutting path id: path517)


(Start cutting path id: path517)
(Change tool to Default tool)

G00 Z 5.0000
G00 X 24.5916 Y 4.5513

G01 Z -1.0000 F 100.0000(Penetrate)
G01 X 24.6013 Y 4.5610 Z -1.0000 F 3500.0000
G01 X 24.6110 Y 4.5513 Z -1.0000
G01 X 24.6207 Y 4.5416 Z -1.0000
G01 X 24.6012 Y 4.5416 Z -1.0000
G01 X 24.5818 Y 4.5416 Z -1.0000
G01 X 24.5916 Y 4.5513 Z -1.0000
G00 Z 5.0000

(End cutting path id: path517)


(Start cutting path id: path517)
(Change tool to Default tool)

G00 Z 5.0000
G00 X 24.6597 Y 4.4300

G01 Z -1.0000 F 100.0000(Penetrate)
G01 X 24.6962 Y 4.4494 Z -1.0000 F 3500.0000
G01 X 24.7087 Y 4.4426 Z -1.0000
G01 X 24.7212 Y 4.4358 Z -1.0000
G01 X 24.7014 Y 4.4232 Z -1.0000
G01 X 24.6816 Y 4.4107 Z -1.0000
G01 X 24.6524 Y 4.4107 Z -1.0000
G01 X 24.6232 Y 4.4106 Z -1.0000
G01 X 24.6597 Y 4.4300 Z -1.0000
G00 Z 5.0000

(End cutting path id: path517)


(Start cutting path id: path517)
(Change tool to Default tool)

G00 Z 5.0000
G00 X 24.7035 Y 4.3738

G01 Z -1.0000 F 100.0000(Penetrate)
G01 X 24.7035 Y 4.3811 Z -1.0000 F 3500.0000
G01 X 24.7108 Y 4.3811 Z -1.0000
G01 X 24.7181 Y 4.3811 Z -1.0000
G01 X 24.7181 Y 4.3738 Z -1.0000
G01 X 24.7181 Y 4.3665 Z -1.0000
G01 X 24.7108 Y 4.3665 Z -1.0000
G01 X 24.7035 Y 4.3665 Z -1.0000
G01 X 24.7035 Y 4.3738 Z -1.0000
G00 Z 5.0000

(End cutting path id: path517)


(Start cutting path id: path517)
(Change tool to Default tool)

G00 Z 5.0000
G00 X 24.6802 Y 4.3103

G01 Z -1.0000 F 100.0000(Penetrate)
G01 X 24.6698 Y 4.3271 Z -1.0000 F 3500.0000
G01 X 24.6866 Y 4.3167 Z -1.0000
G01 X 24.7035 Y 4.3063 Z -1.0000
G01 X 24.7035 Y 4.2999 Z -1.0000
G01 X 24.7035 Y 4.2935 Z -1.0000
G01 X 24.6971 Y 4.2935 Z -1.0000
G01 X 24.6907 Y 4.2935 Z -1.0000
G01 X 24.6802 Y 4.3103 Z -1.0000
G00 Z 5.0000

(End cutting path id: path517)


(Start cutting path id: path517)
(Change tool to Default tool)

G00 Z 5.0000
G00 X 24.5940 Y 4.3811

G01 Z -1.0000 F 100.0000(Penetrate)
G01 X 24.6030 Y 4.3957 Z -1.0000 F 3500.0000
G01 X 24.6094 Y 4.3957 Z -1.0000
G01 X 24.6158 Y 4.3957 Z -1.0000
G01 X 24.6158 Y 4.3811 Z -1.0000
G01 X 24.6158 Y 4.3665 Z -1.0000
G01 X 24.6004 Y 4.3665 Z -1.0000
G01 X 24.5849 Y 4.3665 Z -1.0000
G01 X 24.5940 Y 4.3811 Z -1.0000
G00 Z 5.0000

(End cutting path id: path517)


(Start cutting path id: path517)
(Change tool to Default tool)

G00 Z 5.0000
G00 X 24.4464 Y 4.3400

G01 Z -1.0000 F 100.0000(Penetrate)
G01 X 24.4043 Y 4.3719 Z -1.0000 F 3500.0000
G01 X 24.3982 Y 4.3765 Z -1.0000
G01 X 24.3921 Y 4.3811 Z -1.0000
G01 X 24.4008 Y 4.3898 Z -1.0000
G01 X 24.4095 Y 4.3985 Z -1.0000
G01 X 24.4543 Y 4.3720 Z -1.0000
G01 X 24.4991 Y 4.3456 Z -1.0000
G01 X 24.4991 Y 4.3268 Z -1.0000
G01 X 24.4991 Y 4.3081 Z -1.0000
G01 X 24.4938 Y 4.3081 Z -1.0000
G01 X 24.4885 Y 4.3081 Z -1.0000
G01 X 24.4464 Y 4.3400 Z -1.0000
G00 Z 5.0000

(End cutting path id: path517)


(Start cutting path id: path517)
(Change tool to Default tool)

G00 Z 5.0000
G00 X 24.4408 Y 4.4176

G01 Z -1.0000 F 100.0000(Penetrate)
G01 X 24.4408 Y 4.4249 Z -1.0000 F 3500.0000
G01 X 24.4481 Y 4.4249 Z -1.0000
G01 X 24.4554 Y 4.4249 Z -1.0000
G01 X 24.4554 Y 4.4176 Z -1.0000
G01 X 24.4554 Y 4.4103 Z -1.0000
G01 X 24.4481 Y 4.4103 Z -1.0000
G01 X 24.4408 Y 4.4103 Z -1.0000
G01 X 24.4408 Y 4.4176 Z -1.0000
G00 Z 5.0000

(End cutting path id: path517)


(Start cutting path id: path517)
(Change tool to Default tool)

G00 Z 5.0000
G00 X 24.3386 Y 4.3738

G01 Z -1.0000 F 100.0000(Penetrate)
G01 X 24.3386 Y 4.3811 Z -1.0000 F 3500.0000
G01 X 24.3459 Y 4.3811 Z -1.0000
G01 X 24.3532 Y 4.3811 Z -1.0000
G01 X 24.3532 Y 4.3738 Z -1.0000
G01 X 24.3532 Y 4.3665 Z -1.0000
G01 X 24.3459 Y 4.3665 Z -1.0000
G01 X 24.3386 Y 4.3665 Z -1.0000
G01 X 24.3386 Y 4.3738 Z -1.0000
G00 Z 5.0000

(End cutting path id: path517)


(Start cutting path id: path517)
(Change tool to Default tool)

G00 Z 5.0000
G00 X 24.3094 Y 4.3738

G01 Z -1.0000 F 100.0000(Penetrate)
G01 X 24.3094 Y 4.3811 Z -1.0000 F 3500.0000
G01 X 24.3167 Y 4.3811 Z -1.0000
G01 X 24.3240 Y 4.3811 Z -1.0000
G01 X 24.3240 Y 4.3738 Z -1.0000
G01 X 24.3240 Y 4.3665 Z -1.0000
G01 X 24.3167 Y 4.3665 Z -1.0000
G01 X 24.3094 Y 4.3665 Z -1.0000
G01 X 24.3094 Y 4.3738 Z -1.0000
G00 Z 5.0000

(End cutting path id: path517)


(Start cutting path id: path517)
(Change tool to Default tool)

G00 Z 5.0000
G00 X 24.2875 Y 4.2498

G01 Z -1.0000 F 100.0000(Penetrate)
G01 X 24.2785 Y 4.2644 Z -1.0000 F 3500.0000
G01 X 24.2940 Y 4.2644 Z -1.0000
G01 X 24.3094 Y 4.2644 Z -1.0000
G01 X 24.3094 Y 4.2498 Z -1.0000
G01 X 24.3094 Y 4.2352 Z -1.0000
G01 X 24.3030 Y 4.2352 Z -1.0000
G01 X 24.2966 Y 4.2352 Z -1.0000
G01 X 24.2875 Y 4.2498 Z -1.0000
G00 Z 5.0000

(End cutting path id: path517)


(Start cutting path id: path517)
(Change tool to Default tool)

G00 Z 5.0000
G00 X 24.3748 Y 4.2061

G01 Z -1.0000 F 100.0000(Penetrate)
G01 X 24.3487 Y 4.2350 Z -1.0000 F 3500.0000
G01 X 24.3711 Y 4.2350 Z -1.0000
G01 X 24.3934 Y 4.2350 Z -1.0000
G01 X 24.4105 Y 4.2144 Z -1.0000
G01 X 24.4276 Y 4.1938 Z -1.0000
G01 X 24.4143 Y 4.1855 Z -1.0000
G01 X 24.4009 Y 4.1772 Z -1.0000
G01 X 24.3748 Y 4.2061 Z -1.0000
G00 Z 5.0000

(End cutting path id: path517)


(Start cutting path id: path517)
(Change tool to Default tool)

G00 Z 5.0000
G00 X 24.3678 Y 4.1692

G01 Z -1.0000 F 100.0000(Penetrate)
G01 X 24.3678 Y 4.1765 Z -1.0000 F 3500.0000
G01 X 24.3751 Y 4.1765 Z -1.0000
G01 X 24.3824 Y 4.1765 Z -1.0000
G01 X 24.3824 Y 4.1692 Z -1.0000
G01 X 24.3824 Y 4.1619 Z -1.0000
G01 X 24.3751 Y 4.1619 Z -1.0000
G01 X 24.3678 Y 4.1619 Z -1.0000
G01 X 24.3678 Y 4.1692 Z -1.0000
G00 Z 5.0000

(End cutting path id: path517)


(Start cutting path id: path517)
(Change tool to Default tool)

G00 Z 5.0000
G00 X 24.2802 Y 4.1109

G01 Z -1.0000 F 100.0000(Penetrate)
G01 X 24.2802 Y 4.1182 Z -1.0000 F 3500.0000
G01 X 24.2875 Y 4.1182 Z -1.0000
G01 X 24.2948 Y 4.1182 Z -1.0000
G01 X 24.2948 Y 4.1109 Z -1.0000
G01 X 24.2948 Y 4.1036 Z -1.0000
G01 X 24.2875 Y 4.1036 Z -1.0000
G01 X 24.2802 Y 4.1036 Z -1.0000
G01 X 24.2802 Y 4.1109 Z -1.0000
G00 Z 5.0000

(End cutting path id: path517)


(Start cutting path id: path517)
(Change tool to Default tool)

G00 Z 5.0000
G00 X 24.1635 Y 4.2571

G01 Z -1.0000 F 100.0000(Penetrate)
G01 X 24.1635 Y 4.2644 Z -1.0000 F 3500.0000
G01 X 24.1708 Y 4.2644 Z -1.0000
G01 X 24.1781 Y 4.2644 Z -1.0000
G01 X 24.1781 Y 4.2571 Z -1.0000
G01 X 24.1781 Y 4.2498 Z -1.0000
G01 X 24.1708 Y 4.2498 Z -1.0000
G01 X 24.1635 Y 4.2498 Z -1.0000
G01 X 24.1635 Y 4.2571 Z -1.0000
G00 Z 5.0000

(End cutting path id: path517)


(Start cutting path id: path517)
(Change tool to Default tool)

G00 Z 5.0000
G00 X 24.1343 Y 4.3814

G01 Z -1.0000 F 100.0000(Penetrate)
G01 X 24.1343 Y 4.3966 Z -1.0000 F 3500.0000
G01 X 24.1568 Y 4.4052 Z -1.0000
G01 X 24.1793 Y 4.4138 Z -1.0000
G01 X 24.1853 Y 4.4078 Z -1.0000
G01 X 24.1913 Y 4.4018 Z -1.0000
G01 X 24.1628 Y 4.3840 Z -1.0000
G01 X 24.1342 Y 4.3662 Z -1.0000
G01 X 24.1343 Y 4.3814 Z -1.0000
G00 Z 5.0000

(End cutting path id: path517)


(Start cutting path id: path517)
(Change tool to Default tool)

G00 Z 5.0000
G00 X 24.0905 Y 4.4322

G01 Z -1.0000 F 100.0000(Penetrate)
G01 X 24.0905 Y 4.4395 Z -1.0000 F 3500.0000
G01 X 24.0978 Y 4.4395 Z -1.0000
G01 X 24.1051 Y 4.4395 Z -1.0000
G01 X 24.1051 Y 4.4322 Z -1.0000
G01 X 24.1051 Y 4.4249 Z -1.0000
G01 X 24.0978 Y 4.4249 Z -1.0000
G01 X 24.0905 Y 4.4249 Z -1.0000
G01 X 24.0905 Y 4.4322 Z -1.0000
G00 Z 5.0000

(End cutting path id: path517)


(Start cutting path id: path517)
(Change tool to Default tool)

G00 Z 5.0000
G00 X 24.1197 Y 4.4905

G01 Z -1.0000 F 100.0000(Penetrate)
G01 X 24.1197 Y 4.4978 Z -1.0000 F 3500.0000
G01 X 24.1270 Y 4.4978 Z -1.0000
G01 X 24.1343 Y 4.4978 Z -1.0000
G01 X 24.1343 Y 4.4905 Z -1.0000
G01 X 24.1343 Y 4.4832 Z -1.0000
G01 X 24.1270 Y 4.4832 Z -1.0000
G01 X 24.1197 Y 4.4832 Z -1.0000
G01 X 24.1197 Y 4.4905 Z -1.0000
G00 Z 5.0000

(End cutting path id: path517)


(Start cutting path id: path517)
(Change tool to Default tool)

G00 Z 5.0000
G00 X 24.1489 Y 4.4613

G01 Z -1.0000 F 100.0000(Penetrate)
G01 X 24.1489 Y 4.4686 Z -1.0000 F 3500.0000
G01 X 24.1562 Y 4.4686 Z -1.0000
G01 X 24.1635 Y 4.4686 Z -1.0000
G01 X 24.1635 Y 4.4613 Z -1.0000
G01 X 24.1635 Y 4.4540 Z -1.0000
G01 X 24.1562 Y 4.4540 Z -1.0000
G01 X 24.1489 Y 4.4540 Z -1.0000
G01 X 24.1489 Y 4.4613 Z -1.0000
G00 Z 5.0000

(End cutting path id: path517)


(Start cutting path id: path517)
(Change tool to Default tool)

G00 Z 5.0000
G00 X 24.0370 Y 4.7114

G01 Z -1.0000 F 100.0000(Penetrate)
G01 X 24.0467 Y 4.7210 Z -1.0000 F 3500.0000
G01 X 24.0564 Y 4.7114 Z -1.0000
G01 X 24.0661 Y 4.7016 Z -1.0000
G01 X 24.0466 Y 4.7016 Z -1.0000
G01 X 24.0271 Y 4.7016 Z -1.0000
G01 X 24.0370 Y 4.7114 Z -1.0000
G00 Z 5.0000

(End cutting path id: path517)


(Start cutting path id: path517)
(Change tool to Default tool)

G00 Z 5.0000
G00 X 24.0905 Y 4.8403

G01 Z -1.0000 F 100.0000(Penetrate)
G01 X 24.0905 Y 4.8476 Z -1.0000 F 3500.0000
G01 X 24.0978 Y 4.8476 Z -1.0000
G01 X 24.1051 Y 4.8476 Z -1.0000
G01 X 24.1051 Y 4.8403 Z -1.0000
G01 X 24.1051 Y 4.8330 Z -1.0000
G01 X 24.0978 Y 4.8330 Z -1.0000
G01 X 24.0905 Y 4.8330 Z -1.0000
G01 X 24.0905 Y 4.8403 Z -1.0000
G00 Z 5.0000

(End cutting path id: path517)


(Start cutting path id: path517)
(Change tool to Default tool)

G00 Z 5.0000
G00 X 24.0175 Y 4.9427

G01 Z -1.0000 F 100.0000(Penetrate)
G01 X 24.0175 Y 4.9500 Z -1.0000 F 3500.0000
G01 X 24.0248 Y 4.9500 Z -1.0000
G01 X 24.0321 Y 4.9500 Z -1.0000
G01 X 24.0321 Y 4.9427 Z -1.0000
G01 X 24.0321 Y 4.9354 Z -1.0000
G01 X 24.0248 Y 4.9354 Z -1.0000
G01 X 24.0175 Y 4.9354 Z -1.0000
G01 X 24.0175 Y 4.9427 Z -1.0000
G00 Z 5.0000

(End cutting path id: path517)


(Start cutting path id: path517)
(Change tool to Default tool)

G00 Z 5.0000
G00 X 23.8132 Y 4.8111

G01 Z -1.0000 F 100.0000(Penetrate)
G01 X 23.8132 Y 4.8184 Z -1.0000 F 3500.0000
G01 X 23.8205 Y 4.8184 Z -1.0000
G01 X 23.8278 Y 4.8184 Z -1.0000
G01 X 23.8278 Y 4.8111 Z -1.0000
G01 X 23.8278 Y 4.8038 Z -1.0000
G01 X 23.8205 Y 4.8038 Z -1.0000
G01 X 23.8132 Y 4.8038 Z -1.0000
G01 X 23.8132 Y 4.8111 Z -1.0000
G00 Z 5.0000

(End cutting path id: path517)


(Start cutting path id: path517)
(Change tool to Default tool)

G00 Z 5.0000
G00 X 23.6818 Y 4.6652

G01 Z -1.0000 F 100.0000(Penetrate)
G01 X 23.6818 Y 4.6725 Z -1.0000 F 3500.0000
G01 X 23.6891 Y 4.6725 Z -1.0000
G01 X 23.6964 Y 4.6725 Z -1.0000
G01 X 23.6964 Y 4.6652 Z -1.0000
G01 X 23.6964 Y 4.6579 Z -1.0000
G01 X 23.6891 Y 4.6579 Z -1.0000
G01 X 23.6818 Y 4.6579 Z -1.0000
G01 X 23.6818 Y 4.6652 Z -1.0000
G00 Z 5.0000

(End cutting path id: path517)


(Start cutting path id: path517)
(Change tool to Default tool)

G00 Z 5.0000
G00 X 23.5578 Y 4.7893

G01 Z -1.0000 F 100.0000(Penetrate)
G01 X 23.5488 Y 4.8039 Z -1.0000 F 3500.0000
G01 X 23.5715 Y 4.8039 Z -1.0000
G01 X 23.5943 Y 4.8039 Z -1.0000
G01 X 23.5943 Y 4.7893 Z -1.0000
G01 X 23.5943 Y 4.7747 Z -1.0000
G01 X 23.5805 Y 4.7747 Z -1.0000
G01 X 23.5668 Y 4.7747 Z -1.0000
G01 X 23.5578 Y 4.7893 Z -1.0000
G00 Z 5.0000

(End cutting path id: path517)


(Start cutting path id: path517)
(Change tool to Default tool)

G00 Z 5.0000
G00 X 23.5359 Y 4.8694

G01 Z -1.0000 F 100.0000(Penetrate)
G01 X 23.5359 Y 4.8767 Z -1.0000 F 3500.0000
G01 X 23.5432 Y 4.8767 Z -1.0000
G01 X 23.5505 Y 4.8767 Z -1.0000
G01 X 23.5505 Y 4.8694 Z -1.0000
G01 X 23.5505 Y 4.8621 Z -1.0000
G01 X 23.5432 Y 4.8621 Z -1.0000
G01 X 23.5359 Y 4.8621 Z -1.0000
G01 X 23.5359 Y 4.8694 Z -1.0000
G00 Z 5.0000

(End cutting path id: path517)


(Start cutting path id: path517)
(Change tool to Default tool)

G00 Z 5.0000
G00 X 23.4629 Y 4.6070

G01 Z -1.0000 F 100.0000(Penetrate)
G01 X 23.4629 Y 4.6143 Z -1.0000 F 3500.0000
G01 X 23.4702 Y 4.6143 Z -1.0000
G01 X 23.4775 Y 4.6143 Z -1.0000
G01 X 23.4775 Y 4.6070 Z -1.0000
G01 X 23.4775 Y 4.5997 Z -1.0000
G01 X 23.4702 Y 4.5997 Z -1.0000
G01 X 23.4629 Y 4.5997 Z -1.0000
G01 X 23.4629 Y 4.6070 Z -1.0000
G00 Z 5.0000

(End cutting path id: path517)


(Start cutting path id: path517)
(Change tool to Default tool)

G00 Z 5.0000
G00 X 23.4337 Y 4.5634

G01 Z -1.0000 F 100.0000(Penetrate)
G01 X 23.4337 Y 4.5707 Z -1.0000 F 3500.0000
G01 X 23.4410 Y 4.5707 Z -1.0000
G01 X 23.4483 Y 4.5707 Z -1.0000
G01 X 23.4483 Y 4.5634 Z -1.0000
G01 X 23.4483 Y 4.5561 Z -1.0000
G01 X 23.4410 Y 4.5561 Z -1.0000
G01 X 23.4337 Y 4.5561 Z -1.0000
G01 X 23.4337 Y 4.5634 Z -1.0000
G00 Z 5.0000

(End cutting path id: path517)


(Start cutting path id: path517)
(Change tool to Default tool)

G00 Z 5.0000
G00 X 23.3948 Y 4.5658

G01 Z -1.0000 F 100.0000(Penetrate)
G01 X 23.4045 Y 4.5755 Z -1.0000 F 3500.0000
G01 X 23.4142 Y 4.5658 Z -1.0000
G01 X 23.4239 Y 4.5561 Z -1.0000
G01 X 23.4044 Y 4.5561 Z -1.0000
G01 X 23.3849 Y 4.5561 Z -1.0000
G01 X 23.3948 Y 4.5658 Z -1.0000
G00 Z 5.0000

(End cutting path id: path517)


(Start cutting path id: path517)
(Change tool to Default tool)

G00 Z 5.0000
G00 X 23.3315 Y 4.4600

G01 Z -1.0000 F 100.0000(Penetrate)
G01 X 23.3315 Y 4.4651 Z -1.0000 F 3500.0000
G01 X 23.3534 Y 4.4833 Z -1.0000
G01 X 23.3753 Y 4.5015 Z -1.0000
G01 X 23.3753 Y 4.4866 Z -1.0000
G01 X 23.3753 Y 4.4718 Z -1.0000
G01 X 23.3534 Y 4.4634 Z -1.0000
G01 X 23.3315 Y 4.4550 Z -1.0000
G01 X 23.3315 Y 4.4600 Z -1.0000
G00 Z 5.0000

(End cutting path id: path517)


(Start cutting path id: path517)
(Change tool to Default tool)

G00 Z 5.0000
G00 X 23.5125 Y 4.4272

G01 Z -1.0000 F 100.0000(Penetrate)
G01 X 23.4702 Y 4.4722 Z -1.0000 F 3500.0000
G01 X 23.5167 Y 4.4487 Z -1.0000
G01 X 23.5632 Y 4.4251 Z -1.0000
G01 X 23.5717 Y 4.4114 Z -1.0000
G01 X 23.5802 Y 4.3977 Z -1.0000
G01 X 23.5676 Y 4.3899 Z -1.0000
G01 X 23.5550 Y 4.3821 Z -1.0000
G01 X 23.5125 Y 4.4272 Z -1.0000
G00 Z 5.0000

(End cutting path id: path517)


(Start cutting path id: path517)
(Change tool to Default tool)

G00 Z 5.0000
G00 X 23.5723 Y 4.5124

G01 Z -1.0000 F 100.0000(Penetrate)
G01 X 23.5633 Y 4.5270 Z -1.0000 F 3500.0000
G01 X 23.5861 Y 4.5270 Z -1.0000
G01 X 23.6088 Y 4.5270 Z -1.0000
G01 X 23.6088 Y 4.5124 Z -1.0000
G01 X 23.6088 Y 4.4978 Z -1.0000
G01 X 23.5951 Y 4.4978 Z -1.0000
G01 X 23.5814 Y 4.4978 Z -1.0000
G01 X 23.5723 Y 4.5124 Z -1.0000
G00 Z 5.0000

(End cutting path id: path517)


(Start cutting path id: path517)
(Change tool to Default tool)

G00 Z 5.0000
G00 X 23.7548 Y 4.4550

G01 Z -1.0000 F 100.0000(Penetrate)
G01 X 23.7548 Y 4.4704 Z -1.0000 F 3500.0000
G01 X 23.7694 Y 4.4614 Z -1.0000
G01 X 23.7840 Y 4.4524 Z -1.0000
G01 X 23.7840 Y 4.4460 Z -1.0000
G01 X 23.7840 Y 4.4396 Z -1.0000
G01 X 23.7694 Y 4.4396 Z -1.0000
G01 X 23.7548 Y 4.4396 Z -1.0000
G01 X 23.7548 Y 4.4550 Z -1.0000
G00 Z 5.0000

(End cutting path id: path517)


(Start cutting path id: path517)
(Change tool to Default tool)

G00 Z 5.0000
G00 X 23.8059 Y 4.5270

G01 Z -1.0000 F 100.0000(Penetrate)
G01 X 23.8149 Y 4.5416 Z -1.0000 F 3500.0000
G01 X 23.8213 Y 4.5416 Z -1.0000
G01 X 23.8277 Y 4.5416 Z -1.0000
G01 X 23.8277 Y 4.5270 Z -1.0000
G01 X 23.8277 Y 4.5124 Z -1.0000
G01 X 23.8122 Y 4.5124 Z -1.0000
G01 X 23.7967 Y 4.5124 Z -1.0000
G01 X 23.8059 Y 4.5270 Z -1.0000
G00 Z 5.0000

(End cutting path id: path517)


(Start cutting path id: path517)
(Change tool to Default tool)

G00 Z 5.0000
G00 X 23.4410 Y 4.2934

G01 Z -1.0000 F 100.0000(Penetrate)
G01 X 23.4320 Y 4.3080 Z -1.0000 F 3500.0000
G01 X 23.4466 Y 4.3080 Z -1.0000
G01 X 23.4612 Y 4.3080 Z -1.0000
G01 X 23.4702 Y 4.2934 Z -1.0000
G01 X 23.4792 Y 4.2788 Z -1.0000
G01 X 23.4646 Y 4.2788 Z -1.0000
G01 X 23.4500 Y 4.2788 Z -1.0000
G01 X 23.4410 Y 4.2934 Z -1.0000
G00 Z 5.0000

(End cutting path id: path517)


(Start cutting path id: path517)
(Change tool to Default tool)

G00 Z 5.0000
G00 X 23.3899 Y 4.2571

G01 Z -1.0000 F 100.0000(Penetrate)
G01 X 23.3717 Y 4.2790 Z -1.0000 F 3500.0000
G01 X 23.3791 Y 4.2790 Z -1.0000
G01 X 23.3865 Y 4.2790 Z -1.0000
G01 X 23.4357 Y 4.2576 Z -1.0000
G01 X 23.4848 Y 4.2363 Z -1.0000
G01 X 23.4464 Y 4.2357 Z -1.0000
G01 X 23.4081 Y 4.2352 Z -1.0000
G01 X 23.3899 Y 4.2571 Z -1.0000
G00 Z 5.0000

(End cutting path id: path517)


(Start cutting path id: path517)
(Change tool to Default tool)

G00 Z 5.0000
G00 X 23.2342 Y 4.2595

G01 Z -1.0000 F 100.0000(Penetrate)
G01 X 23.2439 Y 4.2692 Z -1.0000 F 3500.0000
G01 X 23.2536 Y 4.2595 Z -1.0000
G01 X 23.2633 Y 4.2498 Z -1.0000
G01 X 23.2439 Y 4.2498 Z -1.0000
G01 X 23.2244 Y 4.2498 Z -1.0000
G01 X 23.2342 Y 4.2595 Z -1.0000
G00 Z 5.0000

(End cutting path id: path517)


(Start cutting path id: path517)
(Change tool to Default tool)

G00 Z 5.0000
G00 X 23.1682 Y 4.2597

G01 Z -1.0000 F 100.0000(Penetrate)
G01 X 23.1874 Y 4.2674 Z -1.0000 F 3500.0000
G01 X 23.1962 Y 4.2586 Z -1.0000
G01 X 23.2050 Y 4.2498 Z -1.0000
G01 X 23.1770 Y 4.2510 Z -1.0000
G01 X 23.1491 Y 4.2522 Z -1.0000
G01 X 23.1682 Y 4.2597 Z -1.0000
G00 Z 5.0000

(End cutting path id: path517)


(Start cutting path id: path517)
(Change tool to Default tool)

G00 Z 5.0000
G00 X 23.1613 Y 4.2302

G01 Z -1.0000 F 100.0000(Penetrate)
G01 X 23.1710 Y 4.2399 Z -1.0000 F 3500.0000
G01 X 23.1807 Y 4.2302 Z -1.0000
G01 X 23.1904 Y 4.2205 Z -1.0000
G01 X 23.1709 Y 4.2205 Z -1.0000
G01 X 23.1514 Y 4.2205 Z -1.0000
G01 X 23.1613 Y 4.2302 Z -1.0000
G00 Z 5.0000

(End cutting path id: path517)


(Start cutting path id: path517)
(Change tool to Default tool)

G00 Z 5.0000
G00 X 23.1637 Y 4.1824

G01 Z -1.0000 F 100.0000(Penetrate)
G01 X 23.1929 Y 4.2048 Z -1.0000 F 3500.0000
G01 X 23.2269 Y 4.2052 Z -1.0000
G01 X 23.2610 Y 4.2057 Z -1.0000
G01 X 23.2550 Y 4.1875 Z -1.0000
G01 X 23.2490 Y 4.1692 Z -1.0000
G01 X 23.1918 Y 4.1646 Z -1.0000
G01 X 23.1345 Y 4.1600 Z -1.0000
G01 X 23.1637 Y 4.1824 Z -1.0000
G00 Z 5.0000

(End cutting path id: path517)


(Start cutting path id: path517)
(Change tool to Default tool)

G00 Z 5.0000
G00 X 23.1637 Y 4.1034

G01 Z -1.0000 F 100.0000(Penetrate)
G01 X 23.1345 Y 4.1160 Z -1.0000 F 3500.0000
G01 X 23.1673 Y 4.1170 Z -1.0000
G01 X 23.2002 Y 4.1180 Z -1.0000
G01 X 23.2002 Y 4.1034 Z -1.0000
G01 X 23.2002 Y 4.0888 Z -1.0000
G01 X 23.1966 Y 4.0898 Z -1.0000
G01 X 23.1930 Y 4.0908 Z -1.0000
G01 X 23.1637 Y 4.1034 Z -1.0000
G00 Z 5.0000

(End cutting path id: path517)


(Start cutting path id: path517)
(Change tool to Default tool)

G00 Z 5.0000
G00 X 23.1564 Y 4.0816

G01 Z -1.0000 F 100.0000(Penetrate)
G01 X 23.1564 Y 4.0889 Z -1.0000 F 3500.0000
G01 X 23.1637 Y 4.0889 Z -1.0000
G01 X 23.1710 Y 4.0889 Z -1.0000
G01 X 23.1710 Y 4.0816 Z -1.0000
G01 X 23.1710 Y 4.0743 Z -1.0000
G01 X 23.1637 Y 4.0743 Z -1.0000
G01 X 23.1564 Y 4.0743 Z -1.0000
G01 X 23.1564 Y 4.0816 Z -1.0000
G00 Z 5.0000

(End cutting path id: path517)


(Start cutting path id: path517)
(Change tool to Default tool)

G00 Z 5.0000
G00 X 23.1491 Y 4.0159

G01 Z -1.0000 F 100.0000(Penetrate)
G01 X 23.1401 Y 4.0305 Z -1.0000 F 3500.0000
G01 X 23.1556 Y 4.0305 Z -1.0000
G01 X 23.1710 Y 4.0305 Z -1.0000
G01 X 23.1710 Y 4.0159 Z -1.0000
G01 X 23.1710 Y 4.0013 Z -1.0000
G01 X 23.1646 Y 4.0013 Z -1.0000
G01 X 23.1582 Y 4.0013 Z -1.0000
G01 X 23.1491 Y 4.0159 Z -1.0000
G00 Z 5.0000

(End cutting path id: path517)


(Start cutting path id: path517)
(Change tool to Default tool)

G00 Z 5.0000
G00 X 23.1269 Y 3.9650

G01 Z -1.0000 F 100.0000(Penetrate)
G01 X 23.1085 Y 3.9872 Z -1.0000 F 3500.0000
G01 X 23.1155 Y 3.9942 Z -1.0000
G01 X 23.1225 Y 4.0012 Z -1.0000
G01 X 23.1490 Y 3.9720 Z -1.0000
G01 X 23.1755 Y 3.9427 Z -1.0000
G01 X 23.1604 Y 3.9427 Z -1.0000
G01 X 23.1453 Y 3.9427 Z -1.0000
G01 X 23.1269 Y 3.9650 Z -1.0000
G00 Z 5.0000

(End cutting path id: path517)


(Start cutting path id: path517)
(Change tool to Default tool)

G00 Z 5.0000
G00 X 23.0542 Y 3.9793

G01 Z -1.0000 F 100.0000(Penetrate)
G01 X 23.0542 Y 3.9866 Z -1.0000 F 3500.0000
G01 X 23.0615 Y 3.9866 Z -1.0000
G01 X 23.0688 Y 3.9866 Z -1.0000
G01 X 23.0688 Y 3.9793 Z -1.0000
G01 X 23.0688 Y 3.9720 Z -1.0000
G01 X 23.0615 Y 3.9720 Z -1.0000
G01 X 23.0542 Y 3.9720 Z -1.0000
G01 X 23.0542 Y 3.9793 Z -1.0000
G00 Z 5.0000

(End cutting path id: path517)


(Start cutting path id: path517)
(Change tool to Default tool)

G00 Z 5.0000
G00 X 22.9958 Y 3.9500

G01 Z -1.0000 F 100.0000(Penetrate)
G01 X 22.9958 Y 3.9573 Z -1.0000 F 3500.0000
G01 X 23.0031 Y 3.9573 Z -1.0000
G01 X 23.0104 Y 3.9573 Z -1.0000
G01 X 23.0104 Y 3.9500 Z -1.0000
G01 X 23.0104 Y 3.9427 Z -1.0000
G01 X 23.0031 Y 3.9427 Z -1.0000
G01 X 22.9958 Y 3.9427 Z -1.0000
G01 X 22.9958 Y 3.9500 Z -1.0000
G00 Z 5.0000

(End cutting path id: path517)


(Start cutting path id: path517)
(Change tool to Default tool)

G00 Z 5.0000
G00 X 22.9580 Y 4.0328

G01 Z -1.0000 F 100.0000(Penetrate)
G01 X 22.9476 Y 4.0496 Z -1.0000 F 3500.0000
G01 X 22.9644 Y 4.0392 Z -1.0000
G01 X 22.9813 Y 4.0288 Z -1.0000
G01 X 22.9813 Y 4.0224 Z -1.0000
G01 X 22.9813 Y 4.0160 Z -1.0000
G01 X 22.9749 Y 4.0160 Z -1.0000
G01 X 22.9685 Y 4.0160 Z -1.0000
G01 X 22.9580 Y 4.0328 Z -1.0000
G00 Z 5.0000

(End cutting path id: path517)


(Start cutting path id: path517)
(Change tool to Default tool)

G00 Z 5.0000
G00 X 22.9521 Y 4.0670

G01 Z -1.0000 F 100.0000(Penetrate)
G01 X 22.9521 Y 4.0743 Z -1.0000 F 3500.0000
G01 X 22.9594 Y 4.0743 Z -1.0000
G01 X 22.9667 Y 4.0743 Z -1.0000
G01 X 22.9667 Y 4.0670 Z -1.0000
G01 X 22.9667 Y 4.0597 Z -1.0000
G01 X 22.9594 Y 4.0597 Z -1.0000
G01 X 22.9521 Y 4.0597 Z -1.0000
G01 X 22.9521 Y 4.0670 Z -1.0000
G00 Z 5.0000

(End cutting path id: path517)


(Start cutting path id: path517)
(Change tool to Default tool)

G00 Z 5.0000
G00 X 22.8872 Y 4.1697

G01 Z -1.0000 F 100.0000(Penetrate)
G01 X 22.8589 Y 4.1911 Z -1.0000 F 3500.0000
G01 X 22.8818 Y 4.1911 Z -1.0000
G01 X 22.9047 Y 4.1911 Z -1.0000
G01 X 22.9229 Y 4.1692 Z -1.0000
G01 X 22.9411 Y 4.1473 Z -1.0000
G01 X 22.9283 Y 4.1478 Z -1.0000
G01 X 22.9156 Y 4.1483 Z -1.0000
G01 X 22.8872 Y 4.1697 Z -1.0000
G00 Z 5.0000

(End cutting path id: path517)


(Start cutting path id: path517)
(Change tool to Default tool)

G00 Z 5.0000
G00 X 23.0177 Y 4.2162

G01 Z -1.0000 F 100.0000(Penetrate)
G01 X 22.9885 Y 4.2232 Z -1.0000 F 3500.0000
G01 X 22.9740 Y 4.2384 Z -1.0000
G01 X 22.9594 Y 4.2535 Z -1.0000
G01 X 22.9958 Y 4.2444 Z -1.0000
G01 X 23.0323 Y 4.2353 Z -1.0000
G01 X 23.0506 Y 4.2351 Z -1.0000
G01 X 23.0688 Y 4.2349 Z -1.0000
G01 X 23.0688 Y 4.2203 Z -1.0000
G01 X 23.0688 Y 4.2057 Z -1.0000
G01 X 23.0579 Y 4.2074 Z -1.0000
G01 X 23.0469 Y 4.2091 Z -1.0000
G01 X 23.0177 Y 4.2162 Z -1.0000
G00 Z 5.0000

(End cutting path id: path517)


(Start cutting path id: path517)
(Change tool to Default tool)

G00 Z 5.0000
G00 X 23.0688 Y 4.1191

G01 Z -1.0000 F 100.0000(Penetrate)
G01 X 23.0688 Y 4.1346 Z -1.0000 F 3500.0000
G01 X 23.0834 Y 4.1256 Z -1.0000
G01 X 23.0980 Y 4.1166 Z -1.0000
G01 X 23.0980 Y 4.1102 Z -1.0000
G01 X 23.0980 Y 4.1038 Z -1.0000
G01 X 23.0834 Y 4.1038 Z -1.0000
G01 X 23.0688 Y 4.1038 Z -1.0000
G01 X 23.0688 Y 4.1191 Z -1.0000
G00 Z 5.0000

(End cutting path id: path517)


(Start cutting path id: path517)
(Change tool to Default tool)

G00 Z 5.0000
G00 X 23.0798 Y 4.0552

G01 Z -1.0000 F 100.0000(Penetrate)
G01 X 23.0542 Y 4.0619 Z -1.0000 F 3500.0000
G01 X 23.0542 Y 4.0759 Z -1.0000
G01 X 23.0542 Y 4.0900 Z -1.0000
G01 X 23.0871 Y 4.0729 Z -1.0000
G01 X 23.1199 Y 4.0558 Z -1.0000
G01 X 23.1260 Y 4.0505 Z -1.0000
G01 X 23.1321 Y 4.0452 Z -1.0000
G01 X 23.1187 Y 4.0469 Z -1.0000
G01 X 23.1053 Y 4.0486 Z -1.0000
G01 X 23.0798 Y 4.0552 Z -1.0000
G00 Z 5.0000

(End cutting path id: path517)


(Start cutting path id: path517)
(Change tool to Default tool)

G00 Z 5.0000
G00 X 23.2301 Y 4.0657

G01 Z -1.0000 F 100.0000(Penetrate)
G01 X 23.2113 Y 4.1008 Z -1.0000 F 3500.0000
G01 X 23.2204 Y 4.1154 Z -1.0000
G01 X 23.2295 Y 4.1301 Z -1.0000
G01 X 23.2550 Y 4.1252 Z -1.0000
G01 X 23.2805 Y 4.1203 Z -1.0000
G01 X 23.2914 Y 4.1192 Z -1.0000
G01 X 23.3024 Y 4.1181 Z -1.0000
G01 X 23.3024 Y 4.1035 Z -1.0000
G01 X 23.3024 Y 4.0890 Z -1.0000
G01 X 23.2732 Y 4.0890 Z -1.0000
G01 X 23.2440 Y 4.0890 Z -1.0000
G01 X 23.2440 Y 4.0735 Z -1.0000
G01 X 23.2440 Y 4.0580 Z -1.0000
G01 X 23.2584 Y 4.0669 Z -1.0000
G01 X 23.2729 Y 4.0758 Z -1.0000
G01 X 23.2642 Y 4.0532 Z -1.0000
G01 X 23.2555 Y 4.0305 Z -1.0000
G01 X 23.2522 Y 4.0305 Z -1.0000
G01 X 23.2489 Y 4.0305 Z -1.0000
G01 X 23.2301 Y 4.0657 Z -1.0000
G00 Z 5.0000

(End cutting path id: path517)


(Start cutting path id: path517)
(Change tool to Default tool)

G00 Z 5.0000
G00 X 23.3315 Y 4.1049

G01 Z -1.0000 F 100.0000(Penetrate)
G01 X 23.3096 Y 4.1205 Z -1.0000 F 3500.0000
G01 X 23.3561 Y 4.1125 Z -1.0000
G01 X 23.4025 Y 4.1045 Z -1.0000
G01 X 23.4075 Y 4.1194 Z -1.0000
G01 X 23.4125 Y 4.1342 Z -1.0000
G01 X 23.4403 Y 4.1235 Z -1.0000
G01 X 23.4681 Y 4.1129 Z -1.0000
G01 X 23.4400 Y 4.1018 Z -1.0000
G01 X 23.4119 Y 4.0908 Z -1.0000
G01 X 23.3827 Y 4.0900 Z -1.0000
G01 X 23.3535 Y 4.0892 Z -1.0000
G01 X 23.3315 Y 4.1049 Z -1.0000
G00 Z 5.0000

(End cutting path id: path517)


(Start cutting path id: path517)
(Change tool to Default tool)

G00 Z 5.0000
G00 X 23.3899 Y 4.0597

G01 Z -1.0000 F 100.0000(Penetrate)
G01 X 23.3899 Y 4.0743 Z -1.0000 F 3500.0000
G01 X 23.4054 Y 4.0743 Z -1.0000
G01 X 23.4208 Y 4.0743 Z -1.0000
G01 X 23.4118 Y 4.0597 Z -1.0000
G01 X 23.4028 Y 4.0451 Z -1.0000
G01 X 23.3964 Y 4.0451 Z -1.0000
G01 X 23.3900 Y 4.0451 Z -1.0000
G01 X 23.3899 Y 4.0597 Z -1.0000
G00 Z 5.0000

(End cutting path id: path517)


(Start cutting path id: path517)
(Change tool to Default tool)

G00 Z 5.0000
G00 X 23.3899 Y 3.9354

G01 Z -1.0000 F 100.0000(Penetrate)
G01 X 23.3899 Y 3.9427 Z -1.0000 F 3500.0000
G01 X 23.3972 Y 3.9427 Z -1.0000
G01 X 23.4045 Y 3.9427 Z -1.0000
G01 X 23.4045 Y 3.9354 Z -1.0000
G01 X 23.4045 Y 3.9281 Z -1.0000
G01 X 23.3972 Y 3.9281 Z -1.0000
G01 X 23.3899 Y 3.9281 Z -1.0000
G01 X 23.3899 Y 3.9354 Z -1.0000
G00 Z 5.0000

(End cutting path id: path517)


(Start cutting path id: path517)
(Change tool to Default tool)

G00 Z 5.0000
G00 X 23.3753 Y 3.8842

G01 Z -1.0000 F 100.0000(Penetrate)
G01 X 23.3753 Y 3.9036 Z -1.0000 F 3500.0000
G01 X 23.3850 Y 3.8939 Z -1.0000
G01 X 23.3947 Y 3.8842 Z -1.0000
G01 X 23.3850 Y 3.8745 Z -1.0000
G01 X 23.3753 Y 3.8648 Z -1.0000
G01 X 23.3753 Y 3.8842 Z -1.0000
G00 Z 5.0000

(End cutting path id: path517)


(Start cutting path id: path517)
(Change tool to Default tool)

G00 Z 5.0000
G00 X 23.3096 Y 3.8988

G01 Z -1.0000 F 100.0000(Penetrate)
G01 X 23.2832 Y 3.9280 Z -1.0000 F 3500.0000
G01 X 23.3074 Y 3.9280 Z -1.0000
G01 X 23.3315 Y 3.9280 Z -1.0000
G01 X 23.3315 Y 3.9052 Z -1.0000
G01 X 23.3315 Y 3.8825 Z -1.0000
G01 X 23.3484 Y 3.8929 Z -1.0000
G01 X 23.3652 Y 3.9033 Z -1.0000
G01 X 23.3548 Y 3.8864 Z -1.0000
G01 X 23.3444 Y 3.8696 Z -1.0000
G01 X 23.3402 Y 3.8696 Z -1.0000
G01 X 23.3360 Y 3.8696 Z -1.0000
G01 X 23.3096 Y 3.8988 Z -1.0000
G00 Z 5.0000

(End cutting path id: path517)


(Start cutting path id: path517)
(Change tool to Default tool)

G00 Z 5.0000
G00 X 23.3090 Y 3.9583

G01 Z -1.0000 F 100.0000(Penetrate)
G01 X 23.2994 Y 3.9739 Z -1.0000 F 3500.0000
G01 X 23.3056 Y 3.9801 Z -1.0000
G01 X 23.3118 Y 3.9863 Z -1.0000
G01 X 23.3400 Y 3.9650 Z -1.0000
G01 X 23.3681 Y 3.9437 Z -1.0000
G01 X 23.3434 Y 3.9432 Z -1.0000
G01 X 23.3187 Y 3.9428 Z -1.0000
G01 X 23.3090 Y 3.9583 Z -1.0000
G00 Z 5.0000

(End cutting path id: path517)


(Start cutting path id: path517)
(Change tool to Default tool)

G00 Z 5.0000
G00 X 23.2516 Y 3.8495

G01 Z -1.0000 F 100.0000(Penetrate)
G01 X 23.2280 Y 3.8731 Z -1.0000 F 3500.0000
G01 X 23.2364 Y 3.8815 Z -1.0000
G01 X 23.2448 Y 3.8899 Z -1.0000
G01 X 23.2768 Y 3.8579 Z -1.0000
G01 X 23.3088 Y 3.8258 Z -1.0000
G01 X 23.2920 Y 3.8258 Z -1.0000
G01 X 23.2752 Y 3.8258 Z -1.0000
G01 X 23.2516 Y 3.8495 Z -1.0000
G00 Z 5.0000

(End cutting path id: path517)


(Start cutting path id: path517)
(Change tool to Default tool)

G00 Z 5.0000
G00 X 23.2181 Y 3.8150

G01 Z -1.0000 F 100.0000(Penetrate)
G01 X 23.1856 Y 3.8496 Z -1.0000 F 3500.0000
G01 X 23.1856 Y 3.8754 Z -1.0000
G01 X 23.1856 Y 3.9011 Z -1.0000
G01 X 23.2233 Y 3.8562 Z -1.0000
G01 X 23.2610 Y 3.8114 Z -1.0000
G01 X 23.2558 Y 3.7959 Z -1.0000
G01 X 23.2506 Y 3.7803 Z -1.0000
G01 X 23.2181 Y 3.8150 Z -1.0000
G00 Z 5.0000

(End cutting path id: path517)


(Start cutting path id: path517)
(Change tool to Default tool)

G00 Z 5.0000
G00 X 23.1272 Y 3.8623

G01 Z -1.0000 F 100.0000(Penetrate)
G01 X 23.1272 Y 3.8696 Z -1.0000 F 3500.0000
G01 X 23.1345 Y 3.8696 Z -1.0000
G01 X 23.1418 Y 3.8696 Z -1.0000
G01 X 23.1418 Y 3.8623 Z -1.0000
G01 X 23.1418 Y 3.8550 Z -1.0000
G01 X 23.1345 Y 3.8550 Z -1.0000
G01 X 23.1272 Y 3.8550 Z -1.0000
G01 X 23.1272 Y 3.8623 Z -1.0000
G00 Z 5.0000

(End cutting path id: path517)


(Start cutting path id: path517)
(Change tool to Default tool)

G00 Z 5.0000
G00 X 23.1017 Y 3.7626

G01 Z -1.0000 F 100.0000(Penetrate)
G01 X 23.0834 Y 3.7700 Z -1.0000 F 3500.0000
G01 X 23.0834 Y 3.7834 Z -1.0000
G01 X 23.0834 Y 3.7967 Z -1.0000
G01 X 23.1126 Y 3.7967 Z -1.0000
G01 X 23.1418 Y 3.7967 Z -1.0000
G01 X 23.1418 Y 3.7749 Z -1.0000
G01 X 23.1418 Y 3.7530 Z -1.0000
G01 X 23.1308 Y 3.7542 Z -1.0000
G01 X 23.1199 Y 3.7554 Z -1.0000
G01 X 23.1017 Y 3.7626 Z -1.0000
G00 Z 5.0000

(End cutting path id: path517)


(Start cutting path id: path517)
(Change tool to Default tool)

G00 Z 5.0000
G00 X 23.0542 Y 3.6435

G01 Z -1.0000 F 100.0000(Penetrate)
G01 X 23.0542 Y 3.6508 Z -1.0000 F 3500.0000
G01 X 23.0615 Y 3.6508 Z -1.0000
G01 X 23.0688 Y 3.6508 Z -1.0000
G01 X 23.0688 Y 3.6435 Z -1.0000
G01 X 23.0688 Y 3.6362 Z -1.0000
G01 X 23.0615 Y 3.6362 Z -1.0000
G01 X 23.0542 Y 3.6362 Z -1.0000
G01 X 23.0542 Y 3.6435 Z -1.0000
G00 Z 5.0000

(End cutting path id: path517)


(Start cutting path id: path517)
(Change tool to Default tool)

G00 Z 5.0000
G00 X 23.0250 Y 3.6435

G01 Z -1.0000 F 100.0000(Penetrate)
G01 X 23.0250 Y 3.6508 Z -1.0000 F 3500.0000
G01 X 23.0323 Y 3.6508 Z -1.0000
G01 X 23.0396 Y 3.6508 Z -1.0000
G01 X 23.0396 Y 3.6435 Z -1.0000
G01 X 23.0396 Y 3.6362 Z -1.0000
G01 X 23.0323 Y 3.6362 Z -1.0000
G01 X 23.0250 Y 3.6362 Z -1.0000
G01 X 23.0250 Y 3.6435 Z -1.0000
G00 Z 5.0000

(End cutting path id: path517)


(Start cutting path id: path517)
(Change tool to Default tool)

G00 Z 5.0000
G00 X 22.9813 Y 3.6141

G01 Z -1.0000 F 100.0000(Penetrate)
G01 X 22.9813 Y 3.6214 Z -1.0000 F 3500.0000
G01 X 22.9886 Y 3.6214 Z -1.0000
G01 X 22.9959 Y 3.6214 Z -1.0000
G01 X 22.9959 Y 3.6141 Z -1.0000
G01 X 22.9959 Y 3.6068 Z -1.0000
G01 X 22.9886 Y 3.6068 Z -1.0000
G01 X 22.9813 Y 3.6068 Z -1.0000
G01 X 22.9813 Y 3.6141 Z -1.0000
G00 Z 5.0000

(End cutting path id: path517)


(Start cutting path id: path517)
(Change tool to Default tool)

G00 Z 5.0000
G00 X 22.9423 Y 3.5873

G01 Z -1.0000 F 100.0000(Penetrate)
G01 X 22.9520 Y 3.5970 Z -1.0000 F 3500.0000
G01 X 22.9617 Y 3.5873 Z -1.0000
G01 X 22.9714 Y 3.5776 Z -1.0000
G01 X 22.9520 Y 3.5776 Z -1.0000
G01 X 22.9325 Y 3.5776 Z -1.0000
G01 X 22.9423 Y 3.5873 Z -1.0000
G00 Z 5.0000

(End cutting path id: path517)


(Start cutting path id: path517)
(Change tool to Default tool)

G00 Z 5.0000
G00 X 22.9083 Y 3.5055

G01 Z -1.0000 F 100.0000(Penetrate)
G01 X 22.9083 Y 3.5210 Z -1.0000 F 3500.0000
G01 X 22.9229 Y 3.5120 Z -1.0000
G01 X 22.9375 Y 3.5030 Z -1.0000
G01 X 22.9375 Y 3.4966 Z -1.0000
G01 X 22.9375 Y 3.4902 Z -1.0000
G01 X 22.9229 Y 3.4902 Z -1.0000
G01 X 22.9083 Y 3.4902 Z -1.0000
G01 X 22.9083 Y 3.5055 Z -1.0000
G00 Z 5.0000

(End cutting path id: path517)


(Start cutting path id: path517)
(Change tool to Default tool)

G00 Z 5.0000
G00 X 22.9083 Y 3.4324

G01 Z -1.0000 F 100.0000(Penetrate)
G01 X 22.9083 Y 3.4479 Z -1.0000 F 3500.0000
G01 X 22.9229 Y 3.4389 Z -1.0000
G01 X 22.9375 Y 3.4299 Z -1.0000
G01 X 22.9375 Y 3.4235 Z -1.0000
G01 X 22.9375 Y 3.4171 Z -1.0000
G01 X 22.9229 Y 3.4171 Z -1.0000
G01 X 22.9083 Y 3.4171 Z -1.0000
G01 X 22.9083 Y 3.4324 Z -1.0000
G00 Z 5.0000

(End cutting path id: path517)


(Start cutting path id: path517)
(Change tool to Default tool)

G00 Z 5.0000
G00 X 22.8694 Y 3.4267

G01 Z -1.0000 F 100.0000(Penetrate)
G01 X 22.8791 Y 3.4364 Z -1.0000 F 3500.0000
G01 X 22.8888 Y 3.4267 Z -1.0000
G01 X 22.8985 Y 3.4170 Z -1.0000
G01 X 22.8790 Y 3.4170 Z -1.0000
G01 X 22.8595 Y 3.4170 Z -1.0000
G01 X 22.8694 Y 3.4267 Z -1.0000
G00 Z 5.0000

(End cutting path id: path517)


(Start cutting path id: path517)
(Change tool to Default tool)

G00 Z 5.0000
G00 X 22.7769 Y 3.4097

G01 Z -1.0000 F 100.0000(Penetrate)
G01 X 22.7769 Y 3.4170 Z -1.0000 F 3500.0000
G01 X 22.7842 Y 3.4170 Z -1.0000
G01 X 22.7915 Y 3.4170 Z -1.0000
G01 X 22.7915 Y 3.4097 Z -1.0000
G01 X 22.7915 Y 3.4024 Z -1.0000
G01 X 22.7842 Y 3.4024 Z -1.0000
G01 X 22.7769 Y 3.4024 Z -1.0000
G01 X 22.7769 Y 3.4097 Z -1.0000
G00 Z 5.0000

(End cutting path id: path517)


(Start cutting path id: path517)
(Change tool to Default tool)

G00 Z 5.0000
G00 X 22.7040 Y 3.3951

G01 Z -1.0000 F 100.0000(Penetrate)
G01 X 22.7040 Y 3.4024 Z -1.0000 F 3500.0000
G01 X 22.7113 Y 3.4024 Z -1.0000
G01 X 22.7186 Y 3.4024 Z -1.0000
G01 X 22.7186 Y 3.3951 Z -1.0000
G01 X 22.7186 Y 3.3878 Z -1.0000
G01 X 22.7113 Y 3.3878 Z -1.0000
G01 X 22.7040 Y 3.3878 Z -1.0000
G01 X 22.7040 Y 3.3951 Z -1.0000
G00 Z 5.0000

(End cutting path id: path517)


(Start cutting path id: path517)
(Change tool to Default tool)

G00 Z 5.0000
G00 X 22.6456 Y 3.2641

G01 Z -1.0000 F 100.0000(Penetrate)
G01 X 22.6456 Y 3.2714 Z -1.0000 F 3500.0000
G01 X 22.6383 Y 3.2714 Z -1.0000
G01 X 22.6310 Y 3.2714 Z -1.0000
G01 X 22.6310 Y 3.2641 Z -1.0000
G01 X 22.6310 Y 3.2568 Z -1.0000
G01 X 22.6383 Y 3.2568 Z -1.0000
G01 X 22.6456 Y 3.2568 Z -1.0000
G01 X 22.6456 Y 3.2641 Z -1.0000
G00 Z 5.0000

(End cutting path id: path517)


(Start cutting path id: path517)
(Change tool to Default tool)

G00 Z 5.0000
G00 X 22.5629 Y 3.1788

G01 Z -1.0000 F 100.0000(Penetrate)
G01 X 22.5726 Y 3.1885 Z -1.0000 F 3500.0000
G01 X 22.5823 Y 3.1788 Z -1.0000
G01 X 22.5920 Y 3.1691 Z -1.0000
G01 X 22.5725 Y 3.1691 Z -1.0000
G01 X 22.5530 Y 3.1691 Z -1.0000
G01 X 22.5629 Y 3.1788 Z -1.0000
G00 Z 5.0000

(End cutting path id: path517)


(Start cutting path id: path517)
(Change tool to Default tool)

G00 Z 5.0000
G00 X 22.5580 Y 3.1035

G01 Z -1.0000 F 100.0000(Penetrate)
G01 X 22.5580 Y 3.1108 Z -1.0000 F 3500.0000
G01 X 22.5653 Y 3.1108 Z -1.0000
G01 X 22.5726 Y 3.1108 Z -1.0000
G01 X 22.5726 Y 3.1035 Z -1.0000
G01 X 22.5726 Y 3.0962 Z -1.0000
G01 X 22.5653 Y 3.0962 Z -1.0000
G01 X 22.5580 Y 3.0962 Z -1.0000
G01 X 22.5580 Y 3.1035 Z -1.0000
G00 Z 5.0000

(End cutting path id: path517)


(Start cutting path id: path517)
(Change tool to Default tool)

G00 Z 5.0000
G00 X 22.5945 Y 3.0817

G01 Z -1.0000 F 100.0000(Penetrate)
G01 X 22.5855 Y 3.0962 Z -1.0000 F 3500.0000
G01 X 22.6009 Y 3.0962 Z -1.0000
G01 X 22.6164 Y 3.0962 Z -1.0000
G01 X 22.6164 Y 3.0817 Z -1.0000
G01 X 22.6164 Y 3.0671 Z -1.0000
G01 X 22.6100 Y 3.0671 Z -1.0000
G01 X 22.6036 Y 3.0671 Z -1.0000
G01 X 22.5945 Y 3.0817 Z -1.0000
G00 Z 5.0000

(End cutting path id: path517)


(Start cutting path id: path517)
(Change tool to Default tool)

G00 Z 5.0000
G00 X 22.6775 Y 3.0940

G01 Z -1.0000 F 100.0000(Penetrate)
G01 X 22.6438 Y 3.1035 Z -1.0000 F 3500.0000
G01 X 22.6447 Y 3.1145 Z -1.0000
G01 X 22.6456 Y 3.1254 Z -1.0000
G01 X 22.6456 Y 3.1409 Z -1.0000
G01 X 22.6456 Y 3.1563 Z -1.0000
G01 X 22.6310 Y 3.1473 Z -1.0000
G01 X 22.6164 Y 3.1383 Z -1.0000
G01 X 22.6164 Y 3.1611 Z -1.0000
G01 X 22.6164 Y 3.1838 Z -1.0000
G01 X 22.6426 Y 3.1838 Z -1.0000
G01 X 22.6689 Y 3.1838 Z -1.0000
G01 X 22.6861 Y 3.2010 Z -1.0000
G01 X 22.7033 Y 3.2182 Z -1.0000
G01 X 22.7325 Y 3.1917 Z -1.0000
G01 X 22.7618 Y 3.1652 Z -1.0000
G01 X 22.7831 Y 3.1829 Z -1.0000
G01 X 22.8044 Y 3.2006 Z -1.0000
G01 X 22.7958 Y 3.2250 Z -1.0000
G01 X 22.7872 Y 3.2495 Z -1.0000
G01 X 22.8057 Y 3.2324 Z -1.0000
G01 X 22.8242 Y 3.2153 Z -1.0000
G01 X 22.8443 Y 3.2230 Z -1.0000
G01 X 22.8644 Y 3.2307 Z -1.0000
G01 X 22.8644 Y 3.2160 Z -1.0000
G01 X 22.8644 Y 3.2014 Z -1.0000
G01 X 22.8032 Y 3.1694 Z -1.0000
G01 X 22.7419 Y 3.1375 Z -1.0000
G01 X 22.7233 Y 3.1628 Z -1.0000
G01 X 22.7048 Y 3.1881 Z -1.0000
G01 X 22.6833 Y 3.1703 Z -1.0000
G01 X 22.6618 Y 3.1525 Z -1.0000
G01 X 22.6691 Y 3.1335 Z -1.0000
G01 X 22.6764 Y 3.1145 Z -1.0000
G01 X 22.7084 Y 3.0991 Z -1.0000
G01 X 22.7404 Y 3.0836 Z -1.0000
G01 X 22.7258 Y 3.0841 Z -1.0000
G01 X 22.7112 Y 3.0845 Z -1.0000
G01 X 22.6775 Y 3.0940 Z -1.0000
G00 Z 5.0000

(End cutting path id: path517)


(Start cutting path id: path517)
(Change tool to Default tool)

G00 Z 5.0000
G00 X 22.6953 Y 3.1422

G01 Z -1.0000 F 100.0000(Penetrate)
G01 X 22.6848 Y 3.1590 Z -1.0000 F 3500.0000
G01 X 22.7017 Y 3.1486 Z -1.0000
G01 X 22.7185 Y 3.1382 Z -1.0000
G01 X 22.7185 Y 3.1318 Z -1.0000
G01 X 22.7185 Y 3.1254 Z -1.0000
G01 X 22.7121 Y 3.1254 Z -1.0000
G01 X 22.7057 Y 3.1254 Z -1.0000
G01 X 22.6953 Y 3.1422 Z -1.0000
G00 Z 5.0000

(End cutting path id: path517)


(Start cutting path id: path517)
(Change tool to Default tool)

G00 Z 5.0000
G00 X 22.7964 Y 3.1059

G01 Z -1.0000 F 100.0000(Penetrate)
G01 X 22.8061 Y 3.1156 Z -1.0000 F 3500.0000
G01 X 22.8158 Y 3.1059 Z -1.0000
G01 X 22.8255 Y 3.0962 Z -1.0000
G01 X 22.8060 Y 3.0962 Z -1.0000
G01 X 22.7866 Y 3.0962 Z -1.0000
G01 X 22.7964 Y 3.1059 Z -1.0000
G00 Z 5.0000

(End cutting path id: path517)


(Start cutting path id: path517)
(Change tool to Default tool)

G00 Z 5.0000
G00 X 22.8061 Y 3.0598

G01 Z -1.0000 F 100.0000(Penetrate)
G01 X 22.8061 Y 3.0671 Z -1.0000 F 3500.0000
G01 X 22.8134 Y 3.0671 Z -1.0000
G01 X 22.8207 Y 3.0671 Z -1.0000
G01 X 22.8207 Y 3.0598 Z -1.0000
G01 X 22.8207 Y 3.0525 Z -1.0000
G01 X 22.8134 Y 3.0525 Z -1.0000
G01 X 22.8061 Y 3.0525 Z -1.0000
G01 X 22.8061 Y 3.0598 Z -1.0000
G00 Z 5.0000

(End cutting path id: path517)


(Start cutting path id: path517)
(Change tool to Default tool)

G00 Z 5.0000
G00 X 22.7672 Y 3.0622

G01 Z -1.0000 F 100.0000(Penetrate)
G01 X 22.7769 Y 3.0719 Z -1.0000 F 3500.0000
G01 X 22.7866 Y 3.0622 Z -1.0000
G01 X 22.7963 Y 3.0525 Z -1.0000
G01 X 22.7768 Y 3.0525 Z -1.0000
G01 X 22.7574 Y 3.0525 Z -1.0000
