%
(Header)
(Generated by gcodetools from Inkscape.)
(Using default header. To add your own header create file "header" in the output dir.)
M3
(Header end.)
G21 (All units in mm)

(Start cutting path id: path1189)
(Change tool to Default tool)

G00 Z 5.0000
G00 X 11.1877 Y 0.5863

G01 Z -1.0000 F 100.0000(Penetrate)
G03 X 11.1849 Y 1.0428 Z -1.0000 I -44.9867 J -0.0407 F 3500.0000
G03 X 11.1705 Y 2.1307 Z -1.0000 I -246.8882 J -2.7287
G02 X 11.1644 Y 3.1302 Z -1.0000 I 54.0746 J 0.8315
G01 X 11.1736 Y 3.1312 Z -1.0000
G03 X 11.2083 Y 3.0624 Z -1.0000 I 0.1554 J 0.0353
G03 X 11.2490 Y 3.0438 Z -1.0000 I 0.0407 J 0.0351
G02 X 11.2913 Y 3.0305 Z -1.0000 I -0.0000 J -0.0738
G01 X 11.3046 Y 3.0049 Z -1.0000
G01 X 11.3147 Y 2.9761 Z -1.0000
G01 X 11.3356 Y 2.9661 Z -1.0000
G01 X 11.3495 Y 2.9808 Z -1.0000
G03 X 11.3182 Y 3.2866 Z -1.0000 I -3.2295 J -0.1751
G02 X 11.2710 Y 3.6073 Z -1.0000 I 51.0001 J 7.6778
G02 X 11.2679 Y 3.6363 Z -1.0000 I 0.4077 J 0.0588
G01 X 11.2555 Y 3.6544 Z -1.0000
G03 X 11.2075 Y 3.6654 Z -1.0000 I -0.0480 J -0.0995
G01 X 11.1750 Y 3.6906 Z -1.0000
G02 X 11.1543 Y 3.8694 Z -1.0000 I 0.6241 J 0.1627
G02 X 11.1717 Y 3.9395 Z -1.0000 I 0.1671 J -0.0042
G01 X 11.1880 Y 3.9374 Z -1.0000
G01 X 11.2076 Y 3.9117 Z -1.0000
G01 X 11.2218 Y 3.9199 Z -1.0000
G03 X 11.2110 Y 4.0322 Z -1.0000 I -0.4069 J 0.0175
G03 X 11.1828 Y 4.0825 Z -1.0000 I -0.1030 J -0.0247
G02 X 11.1604 Y 4.1355 Z -1.0000 I 0.0542 J 0.0542
G02 X 11.1189 Y 8.4806 Z -1.0000 I 435.6876 J 6.3324
G02 X 11.1813 Y 12.7643 Z -1.0000 I 112.0260 J 0.5107
G02 X 11.2657 Y 12.8377 Z -1.0000 I 0.0763 J -0.0026
G01 X 11.2788 Y 12.8480 Z -1.0000
G01 X 11.2698 Y 12.8680 Z -1.0000
G02 X 11.2365 Y 12.9111 Z -1.0000 I 0.0486 J 0.0721
G02 X 11.2371 Y 12.9606 Z -1.0000 I 0.0674 J 0.0238
G03 X 11.2439 Y 13.0151 Z -1.0000 I -0.1070 J 0.0410
G03 X 11.2239 Y 13.0713 Z -1.0000 I -0.1339 J -0.0159
G01 X 11.2053 Y 13.0703 Z -1.0000
G03 X 11.1887 Y 12.9998 Z -1.0000 I 0.1446 J -0.0713
G02 X 11.1717 Y 12.8900 Z -1.0000 I -0.3740 J 0.0018
G01 X 11.1492 Y 12.8735 Z -1.0000
G01 X 11.1293 Y 12.8925 Z -1.0000
G02 X 11.1099 Y 13.6797 Z -1.0000 I 16.3350 J 0.7975
G03 X 11.1078 Y 14.4859 Z -1.0000 I -204.7470 J -0.1279
G03 X 11.0923 Y 17.5359 Z -1.0000 I -3050.9908 J -13.9196
G02 X 11.0939 Y 20.3321 Z -1.0000 I 227.2366 J 1.2685
G01 X 11.1112 Y 20.3333 Z -1.0000
G02 X 11.1932 Y 19.7347 Z -1.0000 I -61.0692 J -8.6723
G02 X 11.2491 Y 19.2885 Z -1.0000 I -34.0073 J -4.4899
G03 X 11.2738 Y 19.2022 Z -1.0000 I 0.2808 J 0.0335
G03 X 11.3213 Y 19.1344 Z -1.0000 I 0.2164 J 0.1012
G03 X 11.3634 Y 19.1192 Z -1.0000 I 0.0374 J 0.0374
G01 X 11.3824 Y 19.1399 Z -1.0000
G02 X 11.3965 Y 19.1924 Z -1.0000 I 0.1041 J -0.0000
G01 X 11.4212 Y 19.2065 Z -1.0000
G01 X 11.4467 Y 19.1932 Z -1.0000
G02 X 11.4601 Y 19.1506 Z -1.0000 I -0.0615 J -0.0426
G03 X 11.4715 Y 19.1009 Z -1.0000 I 0.1134 J -0.0000
G03 X 11.4990 Y 19.0705 Z -1.0000 I 0.0663 J 0.0323
G01 X 11.5171 Y 19.0770 Z -1.0000
G03 X 11.5213 Y 19.1362 Z -1.0000 I -0.1113 J 0.0378
G03 X 11.5024 Y 19.2233 Z -1.0000 I -1.4941 J -0.2784
G01 X 11.4990 Y 19.2260 Z -1.0000
G01 X 11.4958 Y 19.2287 Z -1.0000
G02 X 11.4751 Y 19.3764 Z -1.0000 I 3.9871 J 0.6335
G02 X 11.4862 Y 19.4893 Z -1.0000 I 0.2604 J 0.0316
G01 X 11.5168 Y 19.5039 Z -1.0000
G01 X 11.5700 Y 19.5406 Z -1.0000
G03 X 11.5163 Y 20.1002 Z -1.0000 I -2.9653 J -0.0022
G02 X 11.4658 Y 20.3925 Z -1.0000 I 7.4356 J 1.4345
G02 X 11.2496 Y 21.8485 Z -1.0000 I 184.1327 J 28.0934
G02 X 11.0902 Y 23.3095 Z -1.0000 I 20.8780 J 3.0167
G02 X 11.0211 Y 24.9373 Z -1.0000 I 25.8586 J 1.9123
G02 X 11.0153 Y 26.5670 Z -1.0000 I 110.6389 J 1.2081
G02 X 11.0276 Y 26.6316 Z -1.0000 I 0.1797 J -0.0007
G02 X 11.0647 Y 26.6699 Z -1.0000 I 0.0643 J -0.0252
G02 X 11.1298 Y 26.6755 Z -1.0000 I 0.0410 J -0.0954
G03 X 11.2082 Y 26.6616 Z -1.0000 I 0.1573 J 0.6583
G03 X 11.3823 Y 26.6458 Z -1.0000 I 0.3806 J 3.2449
G02 X 11.5545 Y 26.6322 Z -1.0000 I -0.3518 J -5.5461
G01 X 11.5571 Y 26.6293 Z -1.0000
G01 X 11.5598 Y 26.6264 Z -1.0000
G03 X 11.7630 Y 26.6151 Z -1.0000 I 0.5242 J 7.5931
G02 X 11.9607 Y 26.5913 Z -1.0000 I -0.0543 J -1.2819
G02 X 11.9962 Y 26.5684 Z -1.0000 I -0.0113 J -0.0563
G03 X 12.3954 Y 26.3392 Z -1.0000 I 0.4504 J 0.3223
G03 X 12.5868 Y 26.5136 Z -1.0000 I 0.0162 J 0.1744
G02 X 12.6605 Y 26.5986 Z -1.0000 I 0.0859 J 0.0000
G02 X 13.3831 Y 26.6270 Z -1.0000 I 0.5001 J -3.5103
G02 X 13.6030 Y 26.5871 Z -1.0000 I -0.0601 J -0.9562
G02 X 13.6770 Y 26.5372 Z -1.0000 I -0.0446 J -0.1459
G03 X 13.7505 Y 26.4856 Z -1.0000 I 0.1272 J 0.1030
G03 X 13.9491 Y 26.4427 Z -1.0000 I 0.2750 J 0.7916
G02 X 14.1556 Y 26.4115 Z -1.0000 I -0.1628 J -1.7796
G02 X 14.2038 Y 26.3889 Z -1.0000 I -0.0240 J -0.1138
G03 X 14.2773 Y 26.3670 Z -1.0000 I 0.0640 J 0.0807
G03 X 14.4711 Y 26.4136 Z -1.0000 I -0.0643 J 0.6938
G03 X 14.5488 Y 26.4447 Z -1.0000 I -86.4967 J 216.8265
G03 X 14.6693 Y 26.4928 Z -1.0000 I -179.5875 J 449.7076
G02 X 15.2817 Y 26.6335 Z -1.0000 I 0.7583 J -1.8977
G02 X 15.4165 Y 26.5463 Z -1.0000 I 0.0095 J -0.1330
G01 X 15.4398 Y 26.5256 Z -1.0000
G03 X 15.5661 Y 26.5109 Z -1.0000 I 0.1264 J 0.5341
G02 X 15.6906 Y 26.4816 Z -1.0000 I -0.0000 J -0.2789
G02 X 15.8388 Y 26.3749 Z -1.0000 I -0.2537 J -0.5085
G02 X 15.9246 Y 26.1865 Z -1.0000 I -0.2089 J -0.2089
G02 X 15.8859 Y 25.6969 Z -1.0000 I -1.6583 J -0.1154
G03 X 15.8455 Y 24.5132 Z -1.0000 I 3.0100 J -0.6954
G03 X 17.5458 Y 15.3289 Z -1.0000 I 189.7081 J 30.3720
G02 X 17.7443 Y 14.3082 Z -1.0000 I -33.1419 J -6.9730
G02 X 17.7386 Y 14.2489 Z -1.0000 I -0.1092 J -0.0195
G02 X 17.4871 Y 14.0346 Z -1.0000 I -0.3226 J 0.1238
G02 X 16.8987 Y 14.0724 Z -1.0000 I -0.2263 J 1.0767
G03 X 16.8165 Y 14.0697 Z -1.0000 I -0.0375 J -0.1077
G01 X 16.7960 Y 14.0288 Z -1.0000
G02 X 16.8572 Y 13.6985 Z -1.0000 I -2.8318 J -0.6954
G02 X 17.2091 Y 10.7561 Z -1.0000 I -225.3071 J -28.4359
G03 X 17.3356 Y 9.7081 Z -1.0000 I 68.5904 J 7.7487
G03 X 17.4654 Y 8.7611 Z -1.0000 I 56.1663 J 7.2166
G02 X 17.5645 Y 7.8311 Z -1.0000 I -12.0076 J -1.7493
G02 X 17.5330 Y 7.7625 Z -1.0000 I -0.0788 J -0.0053
G01 X 17.5258 Y 7.7400 Z -1.0000
G01 X 17.5434 Y 7.7302 Z -1.0000
G01 X 17.5923 Y 7.7020 Z -1.0000
G02 X 17.7465 Y 7.0192 Z -1.0000 I -5.9999 J -1.7145
G03 X 17.8705 Y 6.2882 Z -1.0000 I 196.0655 J 32.8678
G03 X 17.9685 Y 5.7246 Z -1.0000 I 117.0488 J 20.0708
G02 X 18.0671 Y 5.1611 Z -1.0000 I -203.4386 J -35.8945
G02 X 18.2046 Y 4.3648 Z -1.0000 I -407.3733 J -70.7139
G03 X 18.4799 Y 2.9534 Z -1.0000 I 31.1273 J 5.3406
G03 X 18.5499 Y 2.7870 Z -1.0000 I 0.4865 J 0.1065
G02 X 18.5870 Y 2.6282 Z -1.0000 I -0.1987 J -0.1302
G01 X 18.5272 Y 2.5995 Z -1.0000
G01 X 18.5061 Y 2.5964 Z -1.0000
G03 X 18.4924 Y 2.5604 Z -1.0000 I 0.0405 J -0.0360
G02 X 18.4787 Y 2.5135 Z -1.0000 I -0.0868 J -0.0000
G01 X 18.4535 Y 2.4998 Z -1.0000
G01 X 18.4281 Y 2.4857 Z -1.0000
G03 X 18.4112 Y 2.4318 Z -1.0000 I 0.0958 J -0.0597
G01 X 18.4040 Y 2.4314 Z -1.0000
G02 X 18.2981 Y 3.0438 Z -1.0000 I 26.5102 J 4.9009
G03 X 18.0116 Y 4.7015 Z -1.0000 I -73.0565 J -11.7709
G03 X 17.8834 Y 5.2910 Z -1.0000 I -9.3548 J -1.7263
G02 X 17.8831 Y 5.3741 Z -1.0000 I 0.1685 J 0.0423
G02 X 17.9140 Y 5.4174 Z -1.0000 I 0.0689 J -0.0167
G01 X 17.9298 Y 5.4407 Z -1.0000
G01 X 17.9205 Y 5.4520 Z -1.0000
G01 X 17.8963 Y 5.4683 Z -1.0000
G02 X 17.8956 Y 5.5109 Z -1.0000 I 0.0524 J 0.0222
G03 X 17.8971 Y 5.5549 Z -1.0000 I -0.0629 J 0.0241
G01 X 17.8777 Y 5.5692 Z -1.0000
G01 X 17.8441 Y 5.5951 Z -1.0000
G02 X 17.7167 Y 6.1908 Z -1.0000 I 6.9227 J 1.7921
G03 X 17.3707 Y 7.9853 Z -1.0000 I -40.2634 J -6.8331
G03 X 16.9170 Y 9.8911 Z -1.0000 I -45.8716 J -9.9145
G02 X 16.8445 Y 10.2664 Z -1.0000 I 2.9025 J 0.7554
G02 X 16.8590 Y 10.3451 Z -1.0000 I 0.1304 J 0.0167
G03 X 16.9281 Y 10.6261 Z -1.0000 I -0.5150 J 0.2756
G03 X 16.8558 Y 10.6978 Z -1.0000 I -0.0723 J -0.0007
G01 X 16.8342 Y 10.7159 Z -1.0000
G02 X 16.8354 Y 10.8143 Z -1.0000 I 0.2630 J 0.0461
G03 X 16.8385 Y 10.9143 Z -1.0000 I -0.2961 J 0.0592
G01 X 16.8194 Y 10.9309 Z -1.0000
G01 X 16.8048 Y 10.9457 Z -1.0000
G02 X 16.8203 Y 11.0059 Z -1.0000 I 0.1310 J -0.0016
G03 X 16.8321 Y 11.0767 Z -1.0000 I -0.0984 J 0.0527
G03 X 16.7976 Y 11.1437 Z -1.0000 I -0.1214 J -0.0200
G02 X 16.7513 Y 11.2066 Z -1.0000 I 0.1848 J 0.1848
G01 X 16.7542 Y 11.2260 Z -1.0000
G01 X 16.7737 Y 11.2288 Z -1.0000
G02 X 16.8384 Y 11.1806 Z -1.0000 I -0.1315 J -0.2443
G01 X 16.8845 Y 11.1844 Z -1.0000
G01 X 16.8813 Y 11.2403 Z -1.0000
G02 X 16.7507 Y 11.5299 Z -1.0000 I 0.3837 J 0.3472
G02 X 16.8305 Y 11.6939 Z -1.0000 I 0.1694 J 0.0190
G03 X 16.9008 Y 11.8245 Z -1.0000 I -0.0780 J 0.1261
G03 X 16.8225 Y 11.9600 Z -1.0000 I -0.1650 J -0.0049
G01 X 16.8079 Y 11.9893 Z -1.0000
G02 X 16.8322 Y 12.0645 Z -1.0000 I 0.1802 J -0.0167
G03 X 16.8512 Y 12.1351 Z -1.0000 I -0.1178 J 0.0695
G01 X 16.8314 Y 12.1631 Z -1.0000
G01 X 16.8028 Y 12.1947 Z -1.0000
G02 X 16.7812 Y 12.3620 Z -1.0000 I 0.6882 J 0.1739
G03 X 16.7653 Y 12.5408 Z -1.0000 I -1.1350 J -0.0107
G03 X 16.7242 Y 12.6985 Z -1.0000 I -0.9232 J -0.1563
G02 X 16.6948 Y 12.8544 Z -1.0000 I 0.4820 J 0.1717
G02 X 16.7147 Y 13.0066 Z -1.0000 I 0.4788 J 0.0148
G03 X 16.7346 Y 13.1460 Z -1.0000 I -0.4530 J 0.1357
G01 X 16.7134 Y 13.1751 Z -1.0000
G02 X 16.6826 Y 13.2025 Z -1.0000 I 0.0164 J 0.0494
G02 X 16.6663 Y 13.2761 Z -1.0000 I 0.1577 J 0.0735
G03 X 16.6520 Y 13.3568 Z -1.0000 I -0.2355 J -0.0000
G03 X 16.6013 Y 13.4541 Z -1.0000 I -0.3960 J -0.1446
G02 X 16.5732 Y 13.5121 Z -1.0000 I 0.1661 J 0.1164
G01 X 16.5819 Y 13.5187 Z -1.0000
G01 X 16.6187 Y 13.5378 Z -1.0000
G03 X 16.5902 Y 13.6493 Z -1.0000 I -0.1859 J 0.0119
G02 X 16.5762 Y 13.7048 Z -1.0000 I 0.0776 J 0.0491
G02 X 16.5980 Y 13.7591 Z -1.0000 I 0.0953 J -0.0068
G03 X 16.6182 Y 13.8087 Z -1.0000 I -0.0685 J 0.0568
G01 X 16.6044 Y 13.8381 Z -1.0000
G02 X 16.5811 Y 13.8711 Z -1.0000 I 0.0340 J 0.0486
G02 X 16.5726 Y 13.9549 Z -1.0000 I 0.2482 J 0.0676
G03 X 16.5601 Y 14.0338 Z -1.0000 I -0.1838 J 0.0114
G03 X 16.5294 Y 14.0642 Z -1.0000 I -0.0499 J -0.0197
G01 X 16.5013 Y 14.0936 Z -1.0000
G02 X 16.4993 Y 14.1544 Z -1.0000 I 0.1011 J 0.0338
G03 X 16.5054 Y 14.2261 Z -1.0000 I -0.2046 J 0.0535
G03 X 16.4751 Y 14.4336 Z -1.0000 I -1.7860 J -0.1546
G02 X 16.4007 Y 15.0120 Z -1.0000 I 3.7944 J 0.7824
G02 X 16.4362 Y 15.1715 Z -1.0000 I 0.3037 J 0.0160
G03 X 16.4498 Y 15.2286 Z -1.0000 I -0.1016 J 0.0544
G01 X 16.4345 Y 15.2435 Z -1.0000
G01 X 16.4062 Y 15.2555 Z -1.0000
G01 X 16.3943 Y 15.2847 Z -1.0000
G01 X 16.4063 Y 15.3044 Z -1.0000
G01 X 16.4305 Y 15.3035 Z -1.0000
G01 X 16.4624 Y 15.2990 Z -1.0000
G01 X 16.4910 Y 15.3206 Z -1.0000
G01 X 16.5488 Y 15.3359 Z -1.0000
G02 X 16.5753 Y 15.2747 Z -1.0000 I -0.0259 J -0.0475
G03 X 16.5684 Y 15.1927 Z -1.0000 I 0.2330 J -0.0609
G03 X 16.5864 Y 15.1484 Z -1.0000 I 0.0806 J 0.0071
G02 X 16.6125 Y 15.1040 Z -1.0000 I -0.1279 J -0.1049
G02 X 16.6406 Y 15.0104 Z -1.0000 I -0.5541 J -0.2175
G01 X 16.6466 Y 15.0111 Z -1.0000
G03 X 16.6407 Y 15.1464 Z -1.0000 I -1.5292 J 0.0009
G03 X 16.6058 Y 15.3685 Z -1.0000 I -1.6507 J -0.1457
G01 X 16.5847 Y 15.3926 Z -1.0000
G01 X 16.5666 Y 15.4116 Z -1.0000
G01 X 16.5702 Y 15.4395 Z -1.0000
G03 X 16.6021 Y 15.5957 Z -1.0000 I -0.1967 J 0.1216
G03 X 15.7545 Y 20.8189 Z -1.0000 I -251.7993 J -38.1811
G03 X 14.8796 Y 24.9104 Z -1.0000 I -52.3314 J -9.0512
G03 X 14.5370 Y 25.5855 Z -1.0000 I -1.6846 J -0.4303
G03 X 14.4255 Y 25.6328 Z -1.0000 I -0.1012 J -0.0833
G01 X 14.3959 Y 25.5743 Z -1.0000
G01 X 14.3963 Y 25.5513 Z -1.0000
G01 X 14.3762 Y 25.5395 Z -1.0000
G01 X 14.3491 Y 25.5536 Z -1.0000
G02 X 14.3351 Y 25.5978 Z -1.0000 I 0.0627 J 0.0442
G02 X 14.3521 Y 25.6390 Z -1.0000 I 0.0583 J 0.0000
G02 X 14.3934 Y 25.6561 Z -1.0000 I 0.0412 J -0.0412
G03 X 14.4381 Y 25.6696 Z -1.0000 I -0.0000 J 0.0807
G01 X 14.4516 Y 25.6950 Z -1.0000
G01 X 14.4053 Y 25.7345 Z -1.0000
G03 X 14.2913 Y 25.6694 Z -1.0000 I 0.0293 J -0.1837
G03 X 14.1960 Y 25.3935 Z -1.0000 I 0.3200 J -0.2649
G03 X 14.3494 Y 23.4631 Z -1.0000 I 18.2861 J 0.4818
G03 X 14.5700 Y 21.8824 Z -1.0000 I 123.0385 J 16.3695
G03 X 14.6847 Y 21.1686 Z -1.0000 I 25.2023 J 3.6834
G02 X 14.7580 Y 20.7409 Z -1.0000 I -57.3461 J -10.0513
G02 X 14.8996 Y 19.8865 Z -1.0000 I -228.6914 J -38.3293
G03 X 15.0401 Y 19.0318 Z -1.0000 I 701.5429 J 114.8894
G03 X 15.0622 Y 18.9010 Z -1.0000 I 16.4460 J 2.7139
G02 X 15.0470 Y 18.8136 Z -1.0000 I -0.1296 J -0.0225
G01 X 15.0028 Y 18.7963 Z -1.0000
G03 X 14.9225 Y 18.8042 Z -1.0000 I -0.0591 J -0.1862
G03 X 14.8383 Y 18.7782 Z -1.0000 I 0.0253 J -0.2304
G02 X 14.7598 Y 18.7880 Z -1.0000 I -0.0323 J 0.0603
G02 X 14.7020 Y 18.9032 Z -1.0000 I 0.1225 J 0.1336
G03 X 14.6176 Y 19.5785 Z -1.0000 I -15.1831 J -1.5555
G03 X 14.5826 Y 19.7116 Z -1.0000 I -0.6175 J -0.0912
G02 X 14.5422 Y 19.8641 Z -1.0000 I 0.6761 J 0.2604
G02 X 14.4713 Y 20.4498 Z -1.0000 I 10.0280 J 1.5110
G03 X 14.3812 Y 20.9946 Z -1.0000 I -3.7878 J -0.3471
G01 X 14.3354 Y 21.0134 Z -1.0000
G03 X 14.3099 Y 20.9629 Z -1.0000 I 0.0285 J -0.0461
G03 X 14.3891 Y 20.3527 Z -1.0000 I 6.3980 J 0.5200
G02 X 14.4318 Y 20.1038 Z -1.0000 I -17.8472 J -3.1932
G02 X 14.5713 Y 19.2454 Z -1.0000 I -212.8290 J -35.0274
G03 X 14.6133 Y 18.9931 Z -1.0000 I 22.6417 J 3.6335
G03 X 14.6439 Y 18.8232 Z -1.0000 I 10.1651 J 1.7478
G02 X 14.6583 Y 18.6544 Z -1.0000 I -0.8177 J -0.1546
G02 X 14.6387 Y 18.5186 Z -1.0000 I -0.5458 J 0.0093
G03 X 14.6223 Y 18.2340 Z -1.0000 I 0.6536 J -0.1805
G03 X 14.7308 Y 17.9260 Z -1.0000 I 0.8797 J 0.1367
G02 X 14.7937 Y 17.7868 Z -1.0000 I -0.6716 J -0.3873
G02 X 14.8227 Y 17.6540 Z -1.0000 I -0.5826 J -0.1968
G03 X 14.8396 Y 17.5168 Z -1.0000 I 3.7719 J 0.3938
G03 X 14.8778 Y 17.2639 Z -1.0000 I 13.0505 J 1.8456
G02 X 14.9157 Y 17.0109 Z -1.0000 I -11.1161 J -1.7927
G02 X 14.9529 Y 16.7199 Z -1.0000 I -14.6387 J -2.0208
G03 X 14.9913 Y 16.4291 Z -1.0000 I 10.4822 J 1.2355
G03 X 15.0466 Y 16.0789 Z -1.0000 I 15.2571 J 2.2297
G02 X 15.1040 Y 15.7289 Z -1.0000 I -31.6155 J -5.3656
G02 X 15.2097 Y 15.0493 Z -1.0000 I -119.2754 J -18.8882
G03 X 15.3168 Y 14.3699 Z -1.0000 I 67.4094 J 10.2820
G03 X 15.4090 Y 13.8254 Z -1.0000 I 43.3616 J 7.0622
G02 X 15.5008 Y 13.2809 Z -1.0000 I -38.8543 J -6.8301
G02 X 15.5438 Y 12.9901 Z -1.0000 I -11.0210 J -1.7787
G03 X 15.5875 Y 12.6995 Z -1.0000 I 9.3191 J 1.2531
G03 X 15.6228 Y 12.5155 Z -1.0000 I 3.7666 J 0.6269
G02 X 15.6733 Y 12.2582 Z -1.0000 I -6.3692 J -1.3837
G02 X 15.7151 Y 11.9891 Z -1.0000 I -6.9153 J -1.2134
G03 X 15.7555 Y 11.7928 Z -1.0000 I 1.4662 J 0.1991
G03 X 15.7778 Y 11.7630 Z -1.0000 I 0.0492 J 0.0136
G01 X 15.7941 Y 11.7370 Z -1.0000
G02 X 15.7847 Y 11.6961 Z -1.0000 I -0.0647 J -0.0067
G03 X 15.7584 Y 11.5838 Z -1.0000 I 0.1543 J -0.0954
G03 X 15.8328 Y 11.1834 Z -1.0000 I 2.2518 J 0.2112
G02 X 15.8733 Y 10.9875 Z -1.0000 I -1.3779 J -0.3870
G02 X 15.8803 Y 10.8310 Z -1.0000 I -0.8703 J -0.1173
G03 X 15.8967 Y 10.6778 Z -1.0000 I 0.5098 J -0.0228
G03 X 15.9795 Y 10.4557 Z -1.0000 I 1.1672 J 0.3085
G02 X 16.0767 Y 10.2372 Z -1.0000 I -2.9618 J -1.4491
G02 X 16.0800 Y 10.2059 Z -1.0000 I -0.0531 J -0.0214
G03 X 16.0776 Y 10.1735 Z -1.0000 I 0.1583 J -0.0282
G03 X 16.0813 Y 10.1538 Z -1.0000 I 0.0621 J 0.0016
G02 X 16.0853 Y 10.1338 Z -1.0000 I -0.0625 J -0.0228
G02 X 16.0994 Y 9.7253 Z -1.0000 I -26.5372 J -1.1212
G03 X 16.1717 Y 9.1897 Z -1.0000 I 2.5193 J 0.0676
G01 X 16.2381 Y 9.1626 Z -1.0000
G01 X 16.2682 Y 9.1664 Z -1.0000
G02 X 16.2967 Y 9.1443 Z -1.0000 I -0.0154 J -0.0492
G01 X 16.2988 Y 9.1172 Z -1.0000
G01 X 16.2800 Y 9.1048 Z -1.0000
G01 X 16.2541 Y 9.0895 Z -1.0000
G03 X 16.2388 Y 9.0303 Z -1.0000 I 0.1073 J -0.0593
G02 X 16.1956 Y 8.8825 Z -1.0000 I -0.2741 J -0.0000
G02 X 16.1287 Y 8.8584 Z -1.0000 I -0.0491 J 0.0314
G01 X 16.1172 Y 8.8523 Z -1.0000
G01 X 16.1222 Y 8.8372 Z -1.0000
G03 X 16.1758 Y 8.8261 Z -1.0000 I 0.0392 J 0.0547
G03 X 16.2291 Y 8.8604 Z -1.0000 I -0.0192 J 0.0885
G02 X 16.2661 Y 8.8906 Z -1.0000 I 0.0792 J -0.0592
G01 X 16.2777 Y 8.8833 Z -1.0000
G01 X 16.2936 Y 8.8534 Z -1.0000
G03 X 16.3845 Y 8.8120 Z -1.0000 I 0.1731 J 0.2594
G01 X 16.4118 Y 8.7817 Z -1.0000
G01 X 16.3942 Y 8.7534 Z -1.0000
G03 X 16.3470 Y 8.7295 Z -1.0000 I 0.0441 J -0.1457
G01 X 16.3498 Y 8.7201 Z -1.0000
G01 X 16.3772 Y 8.7002 Z -1.0000
G02 X 16.3776 Y 8.6514 Z -1.0000 I -0.0617 J -0.0250
G03 X 16.3744 Y 8.5936 Z -1.0000 I 0.0885 J -0.0340
G03 X 16.4026 Y 8.5548 Z -1.0000 I 0.0633 J 0.0164
G01 X 16.4147 Y 8.5339 Z -1.0000
G01 X 16.4039 Y 8.5226 Z -1.0000
G03 X 16.3361 Y 8.4580 Z -1.0000 I 0.0008 J -0.0687
G03 X 16.3934 Y 8.3476 Z -1.0000 I 0.1210 J -0.0073
G01 X 16.4078 Y 8.3186 Z -1.0000
G02 X 16.3837 Y 8.2470 Z -1.0000 I -0.1653 J 0.0159
G03 X 16.3672 Y 8.1770 Z -1.0000 I 0.0964 J -0.0597
G03 X 16.3942 Y 8.1323 Z -1.0000 I 0.0594 J 0.0054
G01 X 16.4027 Y 8.1023 Z -1.0000
G02 X 16.3651 Y 8.0706 Z -1.0000 I -0.0533 J 0.0252
G03 X 16.2917 Y 8.0359 Z -1.0000 I 0.0617 J -0.2252
G01 X 16.2776 Y 8.0086 Z -1.0000
G03 X 16.3362 Y 7.8035 Z -1.0000 I 0.3889 J 0.0000
G03 X 16.4414 Y 7.7449 Z -1.0000 I 0.1053 J 0.0654
G01 X 16.4619 Y 7.7350 Z -1.0000
G01 X 16.4719 Y 7.7061 Z -1.0000
G01 X 16.4589 Y 7.6831 Z -1.0000
G02 X 16.4233 Y 7.6769 Z -1.0000 I -0.0258 J 0.0429
G01 X 16.3962 Y 7.6605 Z -1.0000
G03 X 16.3748 Y 7.5118 Z -1.0000 I 0.5055 J -0.1487
G02 X 16.3623 Y 7.3406 Z -1.0000 I -1.1850 J 0.0000
G02 X 16.3418 Y 7.2859 Z -1.0000 I -0.1362 J 0.0199
G03 X 16.2975 Y 7.0778 Z -1.0000 I 0.2512 J -0.1622
G03 X 16.3976 Y 6.9269 Z -1.0000 I 0.2138 J 0.0332
G02 X 16.4208 Y 6.8980 Z -1.0000 I -0.0291 J -0.0471
G02 X 16.4413 Y 6.8006 Z -1.0000 I -0.3757 J -0.1301
G03 X 16.4663 Y 6.7136 Z -1.0000 I 0.2314 J 0.0193
G01 X 16.4953 Y 6.6959 Z -1.0000
G02 X 16.5873 Y 6.6195 Z -1.0000 I 0.0000 J -0.0936
G02 X 16.5289 Y 6.5152 Z -1.0000 I -0.0918 J -0.0171
G01 X 16.5131 Y 6.4859 Z -1.0000
G03 X 16.5513 Y 6.4131 Z -1.0000 I 0.1523 J 0.0335
G02 X 16.6072 Y 6.3049 Z -1.0000 I -0.1648 J -0.1535
G02 X 16.6029 Y 6.1621 Z -1.0000 I -0.3040 J -0.0625
G02 X 16.5697 Y 6.1001 Z -1.0000 I -0.1493 J 0.0400
G01 X 16.5452 Y 6.0964 Z -1.0000
G01 X 16.5224 Y 6.0968 Z -1.0000
G01 X 16.5107 Y 6.0766 Z -1.0000
G01 X 16.5246 Y 6.0493 Z -1.0000
G03 X 16.5675 Y 6.0354 Z -1.0000 I 0.0429 J 0.0592
G01 X 16.6073 Y 6.0133 Z -1.0000
G02 X 16.6679 Y 5.8736 Z -1.0000 I -0.4443 J -0.2756
G02 X 16.7496 Y 5.3844 Z -1.0000 I -2.4580 J -0.6619
G01 X 16.7044 Y 5.3360 Z -1.0000
G01 X 16.6775 Y 5.3248 Z -1.0000
G01 X 16.6662 Y 5.2972 Z -1.0000
G01 X 16.6794 Y 5.2715 Z -1.0000
G03 X 16.7205 Y 5.2583 Z -1.0000 I 0.0411 J 0.0575
G02 X 16.7903 Y 5.1982 Z -1.0000 I 0.0000 J -0.0705
G02 X 16.8271 Y 4.5435 Z -1.0000 I -3.5364 J -0.5273
G03 X 16.8361 Y 4.3969 Z -1.0000 I 0.7561 J -0.0272
G03 X 16.8583 Y 4.3479 Z -1.0000 I 0.1006 J 0.0161
G02 X 16.8759 Y 4.2993 Z -1.0000 I -0.0590 J -0.0489
G02 X 16.8592 Y 4.1497 Z -1.0000 I -0.6499 J -0.0030
G03 X 16.8383 Y 3.9953 Z -1.0000 I 0.8169 J -0.1891
G03 X 16.8474 Y 3.8637 Z -1.0000 I 0.5998 J -0.0248
G02 X 16.8467 Y 3.7678 Z -1.0000 I -0.2556 J -0.0462
G01 X 16.8270 Y 3.7592 Z -1.0000
G01 X 16.7989 Y 3.7554 Z -1.0000
G03 X 16.7779 Y 3.7065 Z -1.0000 I 0.0575 J -0.0537
G02 X 16.7396 Y 3.5606 Z -1.0000 I -0.3880 J 0.0237
G01 X 16.6945 Y 3.5348 Z -1.0000
G01 X 16.6574 Y 3.5117 Z -1.0000
G03 X 16.6440 Y 3.4080 Z -1.0000 I 0.1953 J -0.0778
G02 X 16.6413 Y 3.3056 Z -1.0000 I -0.3411 J -0.0422
G01 X 16.6244 Y 3.2981 Z -1.0000
G02 X 16.5992 Y 3.3263 Z -1.0000 I 0.0351 J 0.0568
G02 X 16.5885 Y 3.3740 Z -1.0000 I 0.1007 J 0.0477
G03 X 16.5790 Y 3.4224 Z -1.0000 I -0.1281 J -0.0000
G01 X 16.5593 Y 3.4455 Z -1.0000
G01 X 16.5430 Y 3.4388 Z -1.0000
G03 X 16.5199 Y 3.2894 Z -1.0000 I 0.7801 J -0.1970
G03 X 16.5402 Y 3.1513 Z -1.0000 I 0.3415 J -0.0202
G01 X 16.5782 Y 3.1305 Z -1.0000
G03 X 16.6274 Y 3.1580 Z -1.0000 I -0.0205 J 0.0945
G01 X 16.6370 Y 3.1918 Z -1.0000
G01 X 16.6717 Y 3.2343 Z -1.0000
G02 X 16.7749 Y 3.1914 Z -1.0000 I -0.0004 J -0.1466
G01 X 16.8004 Y 3.1941 Z -1.0000
G03 X 16.8188 Y 3.2594 Z -1.0000 I -0.0968 J 0.0625
G03 X 16.8033 Y 3.3015 Z -1.0000 I -0.0692 J -0.0016
G01 X 16.7867 Y 3.2989 Z -1.0000
G02 X 16.7536 Y 3.2647 Z -1.0000 I -0.0575 J 0.0225
G01 X 16.7268 Y 3.2731 Z -1.0000
G02 X 16.7345 Y 3.3483 Z -1.0000 I 0.0527 J 0.0326
G02 X 16.8504 Y 3.4033 Z -1.0000 I 0.1292 J -0.1226
G03 X 16.9023 Y 3.4266 Z -1.0000 I -0.0062 J 0.0836
G01 X 16.9099 Y 3.4606 Z -1.0000
G01 X 16.8825 Y 3.4824 Z -1.0000
G03 X 16.8399 Y 3.4702 Z -1.0000 I -0.0075 J -0.0544
G02 X 16.7937 Y 3.4533 Z -1.0000 I -0.0469 J 0.0565
G01 X 16.7643 Y 3.4695 Z -1.0000
G01 X 16.7636 Y 3.5022 Z -1.0000
G02 X 16.8008 Y 3.5343 Z -1.0000 I 0.0632 J -0.0357
G03 X 16.8371 Y 3.5710 Z -1.0000 I -0.0224 J 0.0584
G03 X 16.8401 Y 3.6409 Z -1.0000 I -0.1075 J 0.0397
G01 X 16.8496 Y 3.6610 Z -1.0000
G01 X 16.8724 Y 3.6557 Z -1.0000
G03 X 16.9344 Y 3.6027 Z -1.0000 I 0.1719 J 0.1387
G03 X 16.9910 Y 3.5877 Z -1.0000 I 0.0565 J 0.0986
G02 X 17.0856 Y 3.5013 Z -1.0000 I 0.0000 J -0.0950
G02 X 17.0094 Y 3.3848 Z -1.0000 I -0.1116 J -0.0101
G01 X 16.9894 Y 3.3573 Z -1.0000
G03 X 17.0082 Y 3.2432 Z -1.0000 I 0.3381 J -0.0029
G02 X 17.0282 Y 3.1193 Z -1.0000 I -0.3405 J -0.1187
G02 X 17.0053 Y 3.0413 Z -1.0000 I -0.1513 J 0.0022
G02 X 16.9385 Y 3.0084 Z -1.0000 I -0.0600 J 0.0375
G01 X 16.8992 Y 3.0515 Z -1.0000
G03 X 16.8814 Y 3.0939 Z -1.0000 I -0.0593 J -0.0000
G01 X 16.8560 Y 3.0938 Z -1.0000
G03 X 16.8340 Y 3.0481 Z -1.0000 I 0.0544 J -0.0544
G03 X 16.8451 Y 2.9986 Z -1.0000 I 0.0766 J -0.0088
G02 X 16.8655 Y 2.9440 Z -1.0000 I -0.1253 J -0.0780
G02 X 16.8667 Y 2.8640 Z -1.0000 I -0.2757 J -0.0443
G03 X 16.8849 Y 2.8009 Z -1.0000 I 0.0819 J -0.0105
G03 X 16.9554 Y 2.7564 Z -1.0000 I 0.1029 J 0.0848
G02 X 17.0392 Y 2.7194 Z -1.0000 I -0.0663 J -0.2641
G01 X 17.0547 Y 2.6907 Z -1.0000
G01 X 17.0390 Y 2.6715 Z -1.0000
G02 X 16.9769 Y 2.6747 Z -1.0000 I -0.0249 J 0.1203
G01 X 16.9301 Y 2.6574 Z -1.0000
G03 X 16.8998 Y 2.5510 Z -1.0000 I 0.1693 J -0.1056
G03 X 16.9342 Y 2.3439 Z -1.0000 I 0.6568 J 0.0026
G03 X 16.9869 Y 2.2925 Z -1.0000 I 0.0765 J 0.0258
G01 X 17.0056 Y 2.2952 Z -1.0000
G03 X 17.0894 Y 2.3601 Z -1.0000 I -0.3826 J 0.5803
G02 X 17.1557 Y 2.3992 Z -1.0000 I 0.1278 J -0.1412
G01 X 17.1712 Y 2.3881 Z -1.0000
G02 X 17.1574 Y 2.3515 Z -1.0000 I -0.0554 J -0.0000
G02 X 17.1101 Y 2.3185 Z -1.0000 I -0.0906 J 0.0796
G03 X 17.0748 Y 2.2816 Z -1.0000 I 0.0214 J -0.0556
G03 X 17.0719 Y 2.2032 Z -1.0000 I 0.1336 J -0.0441
G02 X 17.0756 Y 2.1264 Z -1.0000 I -0.1891 J -0.0474
G01 X 17.0580 Y 2.1113 Z -1.0000
G01 X 17.0339 Y 2.1260 Z -1.0000
G02 X 17.0087 Y 2.2074 Z -1.0000 I 0.2199 J 0.1128
G03 X 16.9778 Y 2.2634 Z -1.0000 I -0.0862 J -0.0110
G01 X 16.9381 Y 2.2657 Z -1.0000
G03 X 16.9120 Y 2.2277 Z -1.0000 I 0.0328 J -0.0505
G01 X 16.9239 Y 2.1987 Z -1.0000
G02 X 16.9574 Y 2.1625 Z -1.0000 I -0.0573 J -0.0867
G02 X 16.9824 Y 2.0936 Z -1.0000 I -0.2009 J -0.1118
G03 X 17.0134 Y 2.0329 Z -1.0000 I 0.1188 J 0.0225
G03 X 17.0743 Y 1.9964 Z -1.0000 I 0.0955 J 0.0904
G02 X 17.1330 Y 1.9588 Z -1.0000 I -0.0307 J -0.1127
G02 X 17.1636 Y 1.8900 Z -1.0000 I -0.1043 J -0.0875
G01 X 17.1404 Y 1.8451 Z -1.0000
G02 X 17.0622 Y 1.8372 Z -1.0000 I -0.0490 J 0.0941
G02 X 16.7666 Y 2.0090 Z -1.0000 I 0.1924 J 0.6708
G02 X 16.5304 Y 2.3571 Z -1.0000 I 0.7387 J 0.7554
G03 X 16.4538 Y 2.4558 Z -1.0000 I -0.2205 J -0.0921
G03 X 16.3933 Y 2.4605 Z -1.0000 I -0.0339 J -0.0450
G03 X 16.3271 Y 2.3852 Z -1.0000 I 0.0673 J -0.1258
G01 X 16.3456 Y 2.3346 Z -1.0000
G01 X 16.3454 Y 2.3296 Z -1.0000
G01 X 16.3312 Y 2.3282 Z -1.0000
G03 X 16.2899 Y 2.3251 Z -1.0000 I -0.0156 J -0.0693
G03 X 16.1652 Y 2.2635 Z -1.0000 I 0.2874 J -0.7392
G02 X 15.9993 Y 2.2007 Z -1.0000 I -0.2517 J 0.4139
G01 X 15.9668 Y 2.2278 Z -1.0000
G01 X 15.9789 Y 2.2546 Z -1.0000
G01 X 16.0109 Y 2.2667 Z -1.0000
G03 X 16.1687 Y 2.3368 Z -1.0000 I -0.0000 J 0.2126
G03 X 16.2387 Y 2.5189 Z -1.0000 I -0.2017 J 0.1822
G03 X 16.2278 Y 2.5668 Z -1.0000 I -0.1099 J -0.0000
G03 X 16.2015 Y 2.5960 Z -1.0000 I -0.0632 J -0.0306
G01 X 16.1795 Y 2.6274 Z -1.0000
G02 X 16.1671 Y 2.7634 Z -1.0000 I 0.6022 J 0.1236
G03 X 16.1659 Y 2.9072 Z -1.0000 I -2.5129 J 0.0506
G03 X 16.1607 Y 2.9369 Z -1.0000 I -0.1116 J -0.0041
G02 X 16.1552 Y 2.9667 Z -1.0000 I 0.1162 J 0.0370
G02 X 16.1391 Y 3.3060 Z -1.0000 I 14.9173 J 0.8784
G03 X 16.1211 Y 3.6455 Z -1.0000 I -10.1942 J -0.3707
G03 X 16.1017 Y 3.8402 Z -1.0000 I -3.3225 J -0.2319
G02 X 16.0801 Y 4.0348 Z -1.0000 I 5.4265 J 0.7009
G02 X 16.0638 Y 4.2482 Z -1.0000 I 6.5061 J 0.6046
G03 X 16.0391 Y 4.4593 Z -1.0000 I -1.8853 J -0.1139
G03 X 16.0060 Y 4.5784 Z -1.0000 I -0.6252 J -0.1092
G02 X 15.9759 Y 4.6967 Z -1.0000 I 0.4809 J 0.1854
G02 X 15.9767 Y 4.8018 Z -1.0000 I 0.3799 J 0.0500
G03 X 15.9800 Y 4.8980 Z -1.0000 I -0.4298 J 0.0629
G01 X 15.9685 Y 4.9087 Z -1.0000
G01 X 15.9493 Y 4.9248 Z -1.0000
G02 X 15.9233 Y 5.1709 Z -1.0000 I 1.8723 J 0.3225
G03 X 15.9012 Y 5.2390 Z -1.0000 I -0.1316 J -0.0052
G01 X 15.8648 Y 5.2584 Z -1.0000
G01 X 15.8359 Y 5.2820 Z -1.0000
G02 X 15.8271 Y 5.4426 Z -1.0000 I 0.5362 J 0.1097
G03 X 15.8241 Y 5.6246 Z -1.0000 I -0.8274 J 0.0773
G03 X 15.7791 Y 5.8215 Z -1.0000 I -1.0183 J -0.1293
G02 X 15.7353 Y 6.0183 Z -1.0000 I 0.9133 J 0.3064
G02 X 15.7346 Y 6.2103 Z -1.0000 I 0.8663 J 0.0991
G03 X 15.7353 Y 6.4011 Z -1.0000 I -0.9259 J 0.0990
G03 X 15.7047 Y 6.5114 Z -1.0000 I -0.3322 J -0.0329
G02 X 15.6738 Y 6.6060 Z -1.0000 I 0.3551 J 0.1684
G01 X 15.6842 Y 6.6188 Z -1.0000
G01 X 15.6896 Y 6.6269 Z -1.0000
G01 X 15.6731 Y 6.6480 Z -1.0000
G02 X 15.6070 Y 6.7481 Z -1.0000 I 0.0919 J 0.1326
G02 X 15.4362 Y 7.8032 Z -1.0000 I 12.5333 J 2.5701
G03 X 15.4163 Y 7.9184 Z -1.0000 I -1.0798 J -0.1280
G03 X 15.3802 Y 8.0477 Z -1.0000 I -1.4135 J -0.3244
G02 X 15.3529 Y 8.1752 Z -1.0000 I 0.5802 J 0.1911
G02 X 15.3607 Y 8.2344 Z -1.0000 I 0.1274 J 0.0133
G03 X 15.3667 Y 8.2930 Z -1.0000 I -0.1054 J 0.0404
G03 X 15.3304 Y 8.4199 Z -1.0000 I -0.5571 J -0.0909
G02 X 15.2865 Y 8.5495 Z -1.0000 I 0.9084 J 0.3795
G02 X 15.1907 Y 8.9520 Z -1.0000 I 8.7110 J 2.2867
G03 X 15.0986 Y 9.3560 Z -1.0000 I -15.2608 J -3.2650
G03 X 15.0269 Y 9.6293 Z -1.0000 I -7.0528 J -1.7059
G02 X 14.9541 Y 9.9020 Z -1.0000 I 8.6613 J 2.4556
G02 X 14.9467 Y 9.9498 Z -1.0000 I 0.2571 J 0.0643
G03 X 14.9347 Y 9.9888 Z -1.0000 I -0.0866 J -0.0055
G01 X 14.9177 Y 9.9984 Z -1.0000
G01 X 14.9030 Y 10.0102 Z -1.0000
G02 X 14.8854 Y 10.1441 Z -1.0000 I 0.7540 J 0.1674
G03 X 14.8688 Y 10.2883 Z -1.0000 I -1.0196 J -0.0445
G03 X 14.7995 Y 10.6006 Z -1.0000 I -4.8586 J -0.9141
G02 X 14.7265 Y 10.9127 Z -1.0000 I 7.3470 J 1.8815
G02 X 14.7049 Y 11.0474 Z -1.0000 I 1.3460 J 0.2847
G03 X 14.6664 Y 11.2669 Z -1.0000 I -1.7151 J -0.1881
G03 X 14.3508 Y 12.5044 Z -1.0000 I -55.0901 J -13.3903
G03 X 14.2451 Y 12.8425 Z -1.0000 I -4.0693 J -1.0868
G01 X 14.2207 Y 12.8663 Z -1.0000
G01 X 14.2011 Y 12.8866 Z -1.0000
G02 X 14.2028 Y 12.9276 Z -1.0000 I 0.0616 J 0.0180
G03 X 14.2078 Y 12.9766 Z -1.0000 I -0.0878 J 0.0337
G03 X 14.1761 Y 13.0902 Z -1.0000 I -0.5358 J -0.0882
G02 X 14.1312 Y 13.2618 Z -1.0000 I 0.6586 J 0.2641
G02 X 14.0897 Y 13.7477 Z -1.0000 I 5.3153 J 0.6988
G03 X 14.0557 Y 14.1165 Z -1.0000 I -3.5518 J -0.1412
G03 X 13.9038 Y 15.0299 Z -1.0000 I -21.9864 J -3.1874
G02 X 13.8346 Y 15.4191 Z -1.0000 I 19.8683 J 3.7312
G02 X 13.7117 Y 16.1760 Z -1.0000 I 74.9798 J 12.5684
G03 X 13.5894 Y 16.9331 Z -1.0000 I -91.8265 J -14.4407
G03 X 13.4587 Y 17.7026 Z -1.0000 I -95.1713 J -15.7724
G02 X 13.3278 Y 18.4718 Z -1.0000 I 101.3152 J 17.6346
G02 X 13.3249 Y 18.5076 Z -1.0000 I 0.2153 J 0.0358
G01 X 13.3119 Y 18.5247 Z -1.0000
G03 X 13.2706 Y 18.5228 Z -1.0000 I -0.0177 J -0.0633
G01 X 13.2369 Y 18.5368 Z -1.0000
G02 X 13.1883 Y 18.7086 Z -1.0000 I 0.5805 J 0.2572
G03 X 13.1489 Y 18.9123 Z -1.0000 I -1.8442 J -0.2503
G03 X 13.0863 Y 19.1138 Z -1.0000 I -1.8668 J -0.4696
G02 X 13.0304 Y 19.3124 Z -1.0000 I 1.1875 J 0.4417
G02 X 13.0356 Y 19.3731 Z -1.0000 I 0.1081 J 0.0211
G03 X 13.0410 Y 19.4322 Z -1.0000 I -0.1018 J 0.0391
G03 X 13.0073 Y 19.5240 Z -1.0000 I -0.2904 J -0.0545
G02 X 12.9694 Y 19.6181 Z -1.0000 I 0.3275 J 0.1867
G02 X 12.9558 Y 19.7275 Z -1.0000 I 0.4316 J 0.1094
G03 X 12.9097 Y 19.8316 Z -1.0000 I -0.1407 J -0.0000
G03 X 12.8350 Y 19.8373 Z -1.0000 I -0.0410 J -0.0451
G01 X 12.8163 Y 19.7983 Z -1.0000
G03 X 12.8837 Y 19.2843 Z -1.0000 I 6.0595 J 0.5333
G02 X 12.9715 Y 18.7592 Z -1.0000 I -35.6169 J -6.2250
G02 X 12.9947 Y 18.5893 Z -1.0000 I -3.6997 J -0.5906
G03 X 13.0192 Y 18.4198 Z -1.0000 I 2.7092 J 0.3063
G03 X 13.0497 Y 18.2785 Z -1.0000 I 1.9131 J 0.3391
G02 X 13.0786 Y 18.1369 Z -1.0000 I -1.4400 J -0.3676
G02 X 13.1102 Y 17.8855 Z -1.0000 I -4.5207 J -0.6957
G03 X 13.1407 Y 17.6339 Z -1.0000 I 5.4124 J 0.5284
G03 X 13.1778 Y 17.4193 Z -1.0000 I 3.9744 J 0.5760
G02 X 13.2179 Y 17.2052 Z -1.0000 I -8.2557 J -1.6584
G02 X 13.2319 Y 17.1085 Z -1.0000 I -1.6774 J -0.2920
G03 X 13.2473 Y 17.0121 Z -1.0000 I 1.1475 J 0.1332
G03 X 13.2871 Y 16.8365 Z -1.0000 I 3.7964 J 0.7698
G02 X 13.3199 Y 16.6604 Z -1.0000 I -1.3873 J -0.3491
G02 X 13.3274 Y 16.5063 Z -1.0000 I -1.0541 J -0.1284
G03 X 13.3363 Y 16.3523 Z -1.0000 I 0.9386 J -0.0231
G03 X 13.3792 Y 16.1378 Z -1.0000 I 1.8813 J 0.2648
G02 X 13.4253 Y 15.9261 Z -1.0000 I -2.5812 J -0.6731
G01 X 13.4206 Y 15.9018 Z -1.0000
G03 X 13.4122 Y 15.8634 Z -1.0000 I 0.0505 J -0.0312
G03 X 13.5022 Y 15.2436 Z -1.0000 I 14.8820 J 1.8435
G02 X 13.5163 Y 15.1461 Z -1.0000 I -2.3344 J -0.3889
G02 X 13.5597 Y 14.7799 Z -1.0000 I -32.9096 J -4.0849
G03 X 13.6065 Y 14.4152 Z -1.0000 I 12.0111 J 1.3560
G03 X 13.6159 Y 14.3894 Z -1.0000 I 0.0666 J 0.0096
G02 X 13.6247 Y 14.3636 Z -1.0000 I -0.0525 J -0.0323
G02 X 13.6551 Y 14.0177 Z -1.0000 I -9.8139 J -1.0371
G03 X 13.6886 Y 13.6715 Z -1.0000 I 6.6181 J 0.4651
G03 X 13.7147 Y 13.5340 Z -1.0000 I 1.0644 J 0.1311
G02 X 13.7896 Y 13.1613 Z -1.0000 I -3.3553 J -0.8681
G02 X 13.8522 Y 12.5821 Z -1.0000 I -8.0560 J -1.1634
G03 X 13.8716 Y 12.3493 Z -1.0000 I 10.1285 J 0.7268
G03 X 13.8945 Y 12.1353 Z -1.0000 I 8.6831 J 0.8243
G02 X 13.9125 Y 11.9212 Z -1.0000 I -2.9868 J -0.3578
G02 X 13.9173 Y 11.6596 Z -1.0000 I -4.4548 J -0.2131
G03 X 13.9306 Y 11.4064 Z -1.0000 I 1.9985 J -0.0222
G01 X 13.9503 Y 11.3753 Z -1.0000
G01 X 13.9619 Y 11.3482 Z -1.0000
G02 X 13.9275 Y 11.2694 Z -1.0000 I -0.2119 J 0.0456
G03 X 13.8885 Y 11.1142 Z -1.0000 I 0.1837 J -0.1287
G03 X 13.9659 Y 10.9466 Z -1.0000 I 0.2963 J 0.0353
G02 X 14.0461 Y 10.7635 Z -1.0000 I -0.2232 J -0.2069
G02 X 13.9854 Y 10.6978 Z -1.0000 I -0.0608 J -0.0047
G03 X 13.9379 Y 10.6675 Z -1.0000 I 0.0000 J -0.0524
G03 X 13.9077 Y 10.5311 Z -1.0000 I 0.2927 J -0.1364
G03 X 13.9199 Y 10.3660 Z -1.0000 I 1.1239 J -0.0000
G03 X 13.9652 Y 10.1433 Z -1.0000 I 2.0960 J 0.3113
G02 X 14.0006 Y 9.9234 Z -1.0000 I -1.1334 J -0.2952
G02 X 13.9858 Y 9.8247 Z -1.0000 I -0.2348 J -0.0151
G03 X 13.9768 Y 9.6592 Z -1.0000 I 0.2546 J -0.0968
G01 X 14.0349 Y 9.6359 Z -1.0000
G01 X 14.0494 Y 9.6298 Z -1.0000
G02 X 14.0459 Y 9.5871 Z -1.0000 I -0.0696 J -0.0157
G03 X 14.0286 Y 9.5106 Z -1.0000 I 0.2197 J -0.0899
G03 X 14.0286 Y 9.2796 Z -1.0000 I 2.0531 J -0.1153
G02 X 14.0384 Y 9.0464 Z -1.0000 I -8.1987 J -0.4604
G02 X 14.0427 Y 8.7686 Z -1.0000 I -11.4780 J -0.3177
G03 X 14.0575 Y 8.5154 Z -1.0000 I 2.3124 J 0.0080
G01 X 14.0723 Y 8.5083 Z -1.0000
G01 X 14.0855 Y 8.5019 Z -1.0000
G02 X 14.0858 Y 8.3977 Z -1.0000 I -0.4340 J -0.0533
G03 X 14.0807 Y 8.2716 Z -1.0000 I 0.8223 J -0.0968
G03 X 14.0914 Y 8.2358 Z -1.0000 I 0.0739 J 0.0026
G02 X 14.1037 Y 8.1995 Z -1.0000 I -0.0737 J -0.0452
G02 X 14.1238 Y 7.9249 Z -1.0000 I -4.4389 J -0.4624
G03 X 14.1423 Y 7.6484 Z -1.0000 I 5.5807 J 0.2343
G03 X 14.1760 Y 7.3564 Z -1.0000 I 6.2974 J 0.5784
G02 X 14.2164 Y 7.0650 Z -1.0000 I -2469.5518 J -342.5438
G02 X 14.2784 Y 6.6182 Z -1.0000 I -3663.7096 J -509.0781
G03 X 14.3428 Y 6.1718 Z -1.0000 I 40.5609 J 5.6250
G03 X 14.3745 Y 5.9771 Z -1.0000 I 7.7202 J 1.1575
G02 X 14.4073 Y 5.7827 Z -1.0000 I -13.4206 J -2.3602
G02 X 14.4652 Y 5.4138 Z -1.0000 I -48.2500 J -7.7671
G03 X 14.6036 Y 4.5268 Z -1.0000 I 158.2440 J 24.2336
G03 X 14.6257 Y 4.4036 Z -1.0000 I 3.0747 J 0.4885
G02 X 14.6452 Y 4.3065 Z -1.0000 I -299.7765 J -60.1078
G02 X 14.6635 Y 4.2146 Z -1.0000 I -484.3081 J -96.9158
G03 X 14.6957 Y 4.1316 Z -1.0000 I 0.2544 J 0.0509
G03 X 14.7480 Y 4.0745 Z -1.0000 I 0.1682 J 0.1013
G02 X 14.7702 Y 4.0288 Z -1.0000 I -0.0320 J -0.0438
G01 X 14.7450 Y 3.9874 Z -1.0000
G03 X 14.7034 Y 3.9379 Z -1.0000 I 0.0446 J -0.0797
G03 X 14.7023 Y 3.8654 Z -1.0000 I 0.1083 J -0.0378
G03 X 14.7371 Y 3.7933 Z -1.0000 I 0.2697 J 0.0856
G01 X 14.7583 Y 3.7820 Z -1.0000
G01 X 14.7728 Y 3.7690 Z -1.0000
G02 X 14.7707 Y 3.6654 Z -1.0000 I -0.4100 J -0.0436
G03 X 14.7930 Y 2.7212 Z -1.0000 I 2.7715 J -0.4068
G03 X 15.0503 Y 2.2346 Z -1.0000 I 0.9339 J 0.1825
G03 X 15.2199 Y 2.1438 Z -1.0000 I 0.2321 J 0.2295
G03 X 15.5630 Y 2.1346 Z -1.0000 I 0.1992 J 1.0204
G02 X 15.8781 Y 2.1557 Z -1.0000 I 0.3043 J -2.1768
G01 X 15.8874 Y 2.1330 Z -1.0000
G02 X 15.8387 Y 2.1101 Z -1.0000 I -0.0560 J 0.0560
G02 X 15.4404 Y 2.0919 Z -1.0000 I -0.3984 J 4.3335
G03 X 15.0820 Y 2.0140 Z -1.0000 I 0.0000 J -0.8641
G03 X 14.9106 Y 1.8504 Z -1.0000 I 0.1496 J -0.3283
G02 X 14.7756 Y 1.6214 Z -1.0000 I -2.0192 J 1.0356
G02 X 14.7353 Y 1.5892 Z -1.0000 I -0.0710 J 0.0476
G01 X 14.7192 Y 1.6012 Z -1.0000
G02 X 14.7425 Y 1.6830 Z -1.0000 I 0.2135 J -0.0164
G03 X 14.7905 Y 1.8815 Z -1.0000 I -0.3821 J 0.1976
G03 X 14.7409 Y 2.4998 Z -1.0000 I -3.9704 J -0.0078
G02 X 14.6837 Y 2.8692 Z -1.0000 I 38.5998 J 6.1625
G02 X 14.5109 Y 4.0345 Z -1.0000 I 382.5042 J 57.3218
G03 X 13.9542 Y 7.4290 Z -1.0000 I -100.9562 J -14.8150
G03 X 13.4765 Y 9.7378 Z -1.0000 I -47.1694 J -8.5551
G02 X 13.0714 Y 11.5022 Z -1.0000 I 301.0820 J 70.0541
G02 X 12.9906 Y 11.8828 Z -1.0000 I 13.9281 J 3.1548
G03 X 12.9314 Y 12.1530 Z -1.0000 I -6.6568 J -1.3182
G03 X 12.9111 Y 12.2130 Z -1.0000 I -0.3455 J -0.0832
G02 X 12.8948 Y 12.2727 Z -1.0000 I 0.1913 J 0.0842
G02 X 12.8952 Y 12.3472 Z -1.0000 I 0.3021 J 0.0358
G01 X 12.8810 Y 12.3795 Z -1.0000
G01 X 12.8510 Y 12.3783 Z -1.0000
G01 X 12.8174 Y 12.3880 Z -1.0000
G02 X 12.7284 Y 12.7492 Z -1.0000 I 2.2739 J 0.7518
G03 X 12.6534 Y 13.1636 Z -1.0000 I -13.5674 J -2.2420
G03 X 12.6007 Y 13.3980 Z -1.0000 I -4.3922 J -0.8647
G02 X 12.5485 Y 13.6323 Z -1.0000 I 4.0124 J 1.0161
G02 X 12.5297 Y 13.7671 Z -1.0000 I 1.3075 J 0.2515
G03 X 12.5130 Y 13.9025 Z -1.0000 I -1.9752 J -0.1743
G03 X 12.4528 Y 14.2528 Z -1.0000 I -13.2089 J -2.0884
G02 X 12.3918 Y 14.6031 Z -1.0000 I 15.8501 J 2.9406
G02 X 12.3105 Y 15.1270 Z -1.0000 I 35.4530 J 5.7716
G03 X 12.2264 Y 15.6500 Z -1.0000 I -20.2771 J -2.9943
G03 X 12.1988 Y 15.7681 Z -1.0000 I -1.0567 J -0.1841
G02 X 12.1693 Y 15.8857 Z -1.0000 I 1.4755 J 0.4332
G02 X 12.1377 Y 16.0595 Z -1.0000 I 3.2045 J 0.6719
G03 X 12.1023 Y 16.2294 Z -1.0000 I -1.6295 J -0.2508
G01 X 12.0865 Y 16.2537 Z -1.0000
G02 X 11.9953 Y 16.3664 Z -1.0000 I 0.2092 J 0.2625
G02 X 11.9655 Y 16.4960 Z -1.0000 I 0.2529 J 0.1262
G01 X 11.9774 Y 16.5054 Z -1.0000
G01 X 12.0023 Y 16.4879 Z -1.0000
G01 X 12.0422 Y 16.4941 Z -1.0000
G03 X 12.0312 Y 16.5990 Z -1.0000 I -0.1453 J 0.0378
G02 X 11.9991 Y 16.7052 Z -1.0000 I 0.2954 J 0.1474
G01 X 12.0147 Y 16.7300 Z -1.0000
G01 X 12.0353 Y 16.7541 Z -1.0000
G03 X 12.0289 Y 16.8162 Z -1.0000 I -0.1175 J 0.0194
G03 X 11.9934 Y 16.8512 Z -1.0000 I -0.0564 J -0.0216
G01 X 11.9559 Y 16.8430 Z -1.0000
G02 X 11.8926 Y 16.8223 Z -1.0000 I -0.0519 J 0.0519
G01 X 11.8732 Y 16.8559 Z -1.0000
G02 X 11.9058 Y 16.8994 Z -1.0000 I 0.0928 J -0.0356
G02 X 11.9497 Y 16.9142 Z -1.0000 I 0.0439 J -0.0577
G03 X 12.0507 Y 17.0059 Z -1.0000 I 0.0000 J 0.1014
G03 X 11.9734 Y 17.1615 Z -1.0000 I -0.1636 J 0.0157
G01 X 11.9543 Y 17.1870 Z -1.0000
G02 X 11.9336 Y 17.3051 Z -1.0000 I 0.5938 J 0.1649
G03 X 11.8827 Y 17.4588 Z -1.0000 I -0.3345 J -0.0255
G03 X 11.7871 Y 17.5370 Z -1.0000 I -0.1649 J -0.1042
G02 X 11.7236 Y 17.5852 Z -1.0000 I 0.0502 J 0.1320
G01 X 11.7173 Y 17.6317 Z -1.0000
G03 X 11.7167 Y 17.6751 Z -1.0000 I -0.0544 J 0.0209
G01 X 11.6924 Y 17.6912 Z -1.0000
G01 X 11.6772 Y 17.7066 Z -1.0000
G02 X 11.6930 Y 17.7495 Z -1.0000 I 0.0684 J -0.0007
G01 X 11.6960 Y 17.7865 Z -1.0000
G01 X 11.6589 Y 17.8078 Z -1.0000
G02 X 11.5915 Y 17.8629 Z -1.0000 I 0.0000 J 0.0687
G02 X 11.6326 Y 17.9376 Z -1.0000 I 0.0647 J 0.0131
G01 X 11.6614 Y 17.9728 Z -1.0000
G03 X 11.6556 Y 18.0748 Z -1.0000 I -0.2282 J 0.0382
G02 X 11.6352 Y 18.1872 Z -1.0000 I 0.5516 J 0.1582
G01 X 11.6445 Y 18.2126 Z -1.0000
G01 X 11.6489 Y 18.2353 Z -1.0000
G03 X 11.6063 Y 18.3029 Z -1.0000 I -0.2278 J -0.0962
G02 X 11.5665 Y 18.3780 Z -1.0000 I 0.1356 J 0.1199
G02 X 11.5566 Y 18.4969 Z -1.0000 I 0.3465 J 0.0887
G03 X 11.5474 Y 18.5902 Z -1.0000 I -0.2559 J 0.0218
G01 X 11.5274 Y 18.5980 Z -1.0000
G01 X 11.5109 Y 18.6053 Z -1.0000
G02 X 11.5132 Y 18.6762 Z -1.0000 I 0.1656 J 0.0299
G03 X 11.5049 Y 18.7525 Z -1.0000 I -0.1072 J 0.0269
G01 X 11.4618 Y 18.7791 Z -1.0000
G02 X 11.4160 Y 18.8007 Z -1.0000 I 0.0000 J 0.0597
G01 X 11.4090 Y 18.8427 Z -1.0000
G01 X 11.4063 Y 18.8804 Z -1.0000
G01 X 11.3829 Y 18.8895 Z -1.0000
G03 X 11.2437 Y 18.7134 Z -1.0000 I 0.0648 J -0.1943
G03 X 11.3485 Y 18.5040 Z -1.0000 I 0.2220 J -0.0198
G02 X 11.3743 Y 18.4683 Z -1.0000 I -0.0304 J -0.0492
G02 X 11.4200 Y 18.2056 Z -1.0000 I -2.0589 J -0.4937
G03 X 11.4587 Y 17.9360 Z -1.0000 I 4.1045 J 0.4506
G03 X 11.4757 Y 17.8914 Z -1.0000 I 0.1251 J 0.0222
G02 X 11.4918 Y 17.8466 Z -1.0000 I -0.0983 J -0.0607
G02 X 11.5193 Y 17.5791 Z -1.0000 I -3.6550 J -0.5105
G03 X 11.5477 Y 17.3100 Z -1.0000 I 3.4315 J 0.2259
G03 X 11.5942 Y 17.0641 Z -1.0000 I 2.9226 J 0.4251
G02 X 11.6312 Y 16.8281 Z -1.0000 I -1.5789 J -0.3684
G01 X 11.6160 Y 16.7980 Z -1.0000
G03 X 11.5864 Y 16.7434 Z -1.0000 I 0.0328 J -0.0530
G03 X 11.6207 Y 16.6228 Z -1.0000 I 0.2533 J 0.0068
G02 X 11.6348 Y 16.5815 Z -1.0000 I -0.0964 J -0.0560
G02 X 11.6487 Y 16.4132 Z -1.0000 I -1.6591 J -0.2214
G03 X 11.6686 Y 16.2479 Z -1.0000 I 0.9417 J 0.0301
G03 X 11.6955 Y 16.1925 Z -1.0000 I 0.1256 J 0.0266
G02 X 11.7352 Y 16.1042 Z -1.0000 I -0.1398 J -0.1160
G02 X 11.7879 Y 15.5932 Z -1.0000 I -5.0526 J -0.7796
G03 X 11.8145 Y 15.3033 Z -1.0000 I 3.7196 J 0.1950
G03 X 11.8618 Y 15.0298 Z -1.0000 I 3.3751 J 0.4431
G02 X 11.9164 Y 14.7573 Z -1.0000 I -9.4133 J -2.0270
G02 X 11.9230 Y 14.6996 Z -1.0000 I -0.4136 J -0.0766
G03 X 11.9751 Y 14.2413 Z -1.0000 I 3.3839 J 0.1523
G01 X 12.0142 Y 14.2018 Z -1.0000
G01 X 12.0493 Y 14.1627 Z -1.0000
G02 X 12.0231 Y 14.0917 Z -1.0000 I -0.0899 J -0.0073
G03 X 11.9968 Y 14.0304 Z -1.0000 I 0.0637 J -0.0637
G03 X 12.0194 Y 13.9551 Z -1.0000 I 0.1254 J -0.0034
G02 X 12.0501 Y 13.8729 Z -1.0000 I -0.1428 J -0.1000
G02 X 12.0398 Y 13.7570 Z -1.0000 I -0.3048 J -0.0314
G03 X 12.0280 Y 13.6419 Z -1.0000 I 0.3154 J -0.0904
G03 X 12.0532 Y 13.5795 Z -1.0000 I 0.1106 J 0.0083
G02 X 12.0832 Y 13.5151 Z -1.0000 I -0.1080 J -0.0895
G02 X 12.1068 Y 13.2851 Z -1.0000 I -1.4653 J -0.2667
G03 X 12.1214 Y 13.0492 Z -1.0000 I 3.1692 J 0.0779
G03 X 12.1555 Y 12.7958 Z -1.0000 I 3.6942 J 0.3674
G02 X 12.1914 Y 12.5427 Z -1.0000 I -4.6616 J -0.7907
G02 X 12.1972 Y 12.4311 Z -1.0000 I -0.8968 J -0.1026
G03 X 12.2119 Y 12.3237 Z -1.0000 I 0.3730 J -0.0037
G03 X 12.2563 Y 12.2272 Z -1.0000 I 0.3434 J 0.0995
G01 X 12.2456 Y 12.1736 Z -1.0000
G02 X 12.1213 Y 12.1353 Z -1.0000 I -0.1243 J 0.1826
G03 X 11.9873 Y 12.0801 Z -1.0000 I 0.0000 J -0.1901
G03 X 11.9872 Y 12.0021 Z -1.0000 I 0.0388 J -0.0391
G02 X 12.0176 Y 11.9537 Z -1.0000 I -0.0906 J -0.0906
G01 X 12.0085 Y 11.9410 Z -1.0000
G03 X 11.9577 Y 11.8870 Z -1.0000 I 0.0000 J -0.0509
G03 X 12.0669 Y 10.9891 Z -1.0000 I 7.5507 J 0.4631
G02 X 12.1810 Y 10.0547 Z -1.0000 I -7.7982 J -1.4261
G02 X 12.1652 Y 9.4071 Z -1.0000 I -3.7458 J -0.2328
G03 X 12.1277 Y 8.9864 Z -1.0000 I 9.6633 J -1.0747
G01 X 12.1349 Y 8.9571 Z -1.0000
G02 X 12.1445 Y 8.9277 Z -1.0000 I -0.0569 J -0.0350
G02 X 12.1763 Y 8.4637 Z -1.0000 I -15.1752 J -1.2723
G03 X 12.2527 Y 7.4855 Z -1.0000 I 19.7275 J 1.0486
G03 X 12.3747 Y 6.5405 Z -1.0000 I 18.5326 J 1.9115
G02 X 12.5323 Y 5.4341 Z -1.0000 I -44.5041 J -6.9050
G02 X 12.5471 Y 5.2127 Z -1.0000 I -1.7599 J -0.2285
G03 X 12.5567 Y 5.0320 Z -1.0000 I 1.8368 J 0.0074
G03 X 12.5851 Y 4.8436 Z -1.0000 I 2.0268 J 0.2086
G02 X 12.6181 Y 4.6554 Z -1.0000 I -4.1683 J -0.8281
G02 X 12.6639 Y 4.3259 Z -1.0000 I -12.6995 J -1.9343
G03 X 12.7056 Y 3.9956 Z -1.0000 I 418.5769 J 52.7267
G03 X 12.7994 Y 3.2574 Z -1.0000 I 2071.3751 J 262.5773
G02 X 12.8927 Y 2.5191 Z -1.0000 I -489.0577 J -62.1783
G02 X 12.9116 Y 2.3638 Z -1.0000 I -21.7827 J -2.7360
G03 X 13.0160 Y 1.6926 Z -1.0000 I 9.2389 J 1.0938
G03 X 13.0733 Y 1.5271 Z -1.0000 I 0.6069 J 0.1173
G03 X 13.1362 Y 1.4407 Z -1.0000 I 0.3091 J 0.1590
G03 X 13.2259 Y 1.3740 Z -1.0000 I 0.2686 J 0.2679
G02 X 13.2760 Y 1.3190 Z -1.0000 I -0.0525 J -0.0981
G01 X 13.2638 Y 1.2837 Z -1.0000
G02 X 13.1996 Y 1.2691 Z -1.0000 I -0.0568 J 0.1014
G02 X 13.1151 Y 1.2932 Z -1.0000 I 0.0132 J 0.2067
G03 X 12.8933 Y 1.3135 Z -1.0000 I -0.1349 J -0.2522
G03 X 12.8416 Y 1.2059 Z -1.0000 I 0.0249 J -0.0782
G01 X 12.8390 Y 1.1681 Z -1.0000
G01 X 12.8117 Y 1.1513 Z -1.0000
G03 X 12.7619 Y 1.1469 Z -1.0000 I 0.0131 J -0.4273
G03 X 12.7032 Y 1.1351 Z -1.0000 I 0.0885 J -0.5948
G01 X 12.6655 Y 1.1421 Z -1.0000
G01 X 12.6546 Y 1.1690 Z -1.0000
G01 X 12.6350 Y 1.1962 Z -1.0000
G03 X 12.5753 Y 1.1787 Z -1.0000 I -0.0095 J -0.0781
G02 X 12.5280 Y 1.1403 Z -1.0000 I -2.2872 J 2.7611
G02 X 12.4312 Y 1.0635 Z -1.0000 I -9.2740 J 11.5910
G03 X 12.4061 Y 1.0117 Z -1.0000 I 0.0407 J -0.0518
G01 X 12.4312 Y 0.9864 Z -1.0000
G03 X 12.4770 Y 1.0008 Z -1.0000 I 0.0006 J 0.0781
G01 X 12.4765 Y 1.0185 Z -1.0000
G01 X 12.4637 Y 1.0475 Z -1.0000
G01 X 12.4862 Y 1.0750 Z -1.0000
G02 X 12.5478 Y 1.0867 Z -1.0000 I 0.0629 J -0.1638
G02 X 12.6069 Y 1.0759 Z -1.0000 I 0.0013 J -0.1615
G01 X 12.6232 Y 1.0458 Z -1.0000
G02 X 12.5874 Y 0.9852 Z -1.0000 I -0.1085 J 0.0232
G03 X 12.5479 Y 0.8950 Z -1.0000 I 0.0752 J -0.0868
G01 X 12.5908 Y 0.8702 Z -1.0000
G02 X 12.6692 Y 0.8903 Z -1.0000 I 0.0803 J -0.1500
G02 X 12.7152 Y 0.8716 Z -1.0000 I 0.0007 J -0.0640
G02 X 12.7335 Y 0.8391 Z -1.0000 I -0.0491 J -0.0491
G01 X 12.7257 Y 0.8291 Z -1.0000
G01 X 12.7169 Y 0.8176 Z -1.0000
G03 X 12.7451 Y 0.7611 Z -1.0000 I 0.1655 J 0.0475
G01 X 12.7494 Y 0.7443 Z -1.0000
G01 X 12.7421 Y 0.7417 Z -1.0000
G03 X 12.6771 Y 0.7484 Z -1.0000 I -0.0372 J -0.0417
G03 X 12.6492 Y 0.6882 Z -1.0000 I 0.0288 J -0.0500
G02 X 12.6338 Y 0.6227 Z -1.0000 I -0.0829 J -0.0150
G01 X 12.5884 Y 0.6068 Z -1.0000
G03 X 12.5160 Y 0.6104 Z -1.0000 I -0.0447 J -0.1708
G01 X 12.4861 Y 0.5905 Z -1.0000
G01 X 12.4593 Y 0.5773 Z -1.0000
G02 X 12.4084 Y 0.5989 Z -1.0000 I 0.0103 J 0.0953
G01 X 12.3788 Y 0.5886 Z -1.0000
G03 X 12.3914 Y 0.5186 Z -1.0000 I 0.0923 J -0.0196
G03 X 12.4317 Y 0.4933 Z -1.0000 I 0.0465 J 0.0294
G03 X 12.4763 Y 0.5089 Z -1.0000 I 0.0062 J 0.0540
G02 X 12.5284 Y 0.5474 Z -1.0000 I 0.1535 J -0.1535
G02 X 12.5653 Y 0.5559 Z -1.0000 I 0.0347 J -0.0657
G01 X 12.5729 Y 0.5440 Z -1.0000
G02 X 12.5444 Y 0.5074 Z -1.0000 I -0.0845 J 0.0363
G03 X 12.4911 Y 0.4541 Z -1.0000 I 0.1757 J -0.2290
G03 X 12.4634 Y 0.4017 Z -1.0000 I 0.1414 J -0.1085
G02 X 12.4285 Y 0.3650 Z -1.0000 I -0.0567 J 0.0188
G02 X 12.3150 Y 0.3435 Z -1.0000 I -0.1135 J 0.2891
G03 X 12.1984 Y 0.3260 Z -1.0000 I 0.0000 J -0.3982
G01 X 12.1709 Y 0.2994 Z -1.0000
G01 X 12.1828 Y 0.2763 Z -1.0000
G03 X 12.2838 Y 0.2660 Z -1.0000 I 0.0781 J 0.2641
G03 X 12.4083 Y 0.2799 Z -1.0000 I -0.1887 J 2.2523
G01 X 12.4118 Y 0.2839 Z -1.0000
G01 X 12.4152 Y 0.2884 Z -1.0000
G02 X 12.4798 Y 0.3041 Z -1.0000 I 0.1902 J -0.6397
G02 X 12.5341 Y 0.3007 Z -1.0000 I 0.0204 J -0.1062
G01 X 12.5478 Y 0.2817 Z -1.0000
G01 X 12.5350 Y 0.2592 Z -1.0000
G02 X 12.4883 Y 0.2463 Z -1.0000 I -0.0467 J 0.0784
G03 X 12.4392 Y 0.2312 Z -1.0000 I 0.0000 J -0.0875
G03 X 12.4079 Y 0.1918 Z -1.0000 I 0.0472 J -0.0696
G02 X 12.1672 Y 0.0205 Z -1.0000 I -0.2493 J 0.0957
G02 X 12.0039 Y 0.1786 Z -1.0000 I -0.0051 J 0.1581
G01 X 11.9907 Y 0.1912 Z -1.0000
G03 X 11.9573 Y 0.1764 Z -1.0000 I 0.0024 J -0.0506
G02 X 11.9023 Y 0.1499 Z -1.0000 I -0.0655 J 0.0655
G02 X 11.5493 Y 0.1298 Z -1.0000 I -0.3530 J 3.0893
G02 X 11.3057 Y 0.2476 Z -1.0000 I -0.0000 J 0.3109
G02 X 11.1876 Y 0.5863 Z -1.0000 I 0.4281 J 0.3392
G01 X 11.1877 Y 0.5863 Z -1.0000
G00 Z 5.0000

(End cutting path id: path1189)


(Start cutting path id: path1189)
(Change tool to Default tool)

G00 Z 5.0000
G00 X 11.9188 Y 0.3658

G01 Z -1.0000 F 100.0000(Penetrate)
G03 X 11.8973 Y 0.3971 Z -1.0000 I -0.0652 J -0.0219 F 3500.0000
G01 X 11.8680 Y 0.4076 Z -1.0000
G01 X 11.8387 Y 0.3971 Z -1.0000
G03 X 11.8172 Y 0.3658 Z -1.0000 I 0.0435 J -0.0529
G01 X 11.8247 Y 0.3396 Z -1.0000
G03 X 11.8680 Y 0.3241 Z -1.0000 I 0.0433 J 0.0527
G03 X 11.9113 Y 0.3396 Z -1.0000 I -0.0000 J 0.0681
G01 X 11.9188 Y 0.3658 Z -1.0000
G01 X 11.9188 Y 0.3658 Z -1.0000
G00 Z 5.0000

(End cutting path id: path1189)


(Start cutting path id: path1189)
(Change tool to Default tool)

G00 Z 5.0000
G00 X 12.2759 Y 0.5183

G01 Z -1.0000 F 100.0000(Penetrate)
G01 X 12.2646 Y 0.5458 Z -1.0000 F 3500.0000
G01 X 12.2371 Y 0.5572 Z -1.0000
G01 X 12.2096 Y 0.5458 Z -1.0000
G01 X 12.1982 Y 0.5183 Z -1.0000
G01 X 12.2096 Y 0.4909 Z -1.0000
G01 X 12.2371 Y 0.4795 Z -1.0000
G01 X 12.2646 Y 0.4909 Z -1.0000
G01 X 12.2759 Y 0.5183 Z -1.0000
G01 X 12.2759 Y 0.5183 Z -1.0000
G00 Z 5.0000

(End cutting path id: path1189)


(Start cutting path id: path1189)
(Change tool to Default tool)

G00 Z 5.0000
G00 X 12.4702 Y 0.8292

G01 Z -1.0000 F 100.0000(Penetrate)
G01 X 12.4588 Y 0.8566 Z -1.0000 F 3500.0000
G01 X 12.4314 Y 0.8680 Z -1.0000
G01 X 12.4039 Y 0.8566 Z -1.0000
G01 X 12.3925 Y 0.8292 Z -1.0000
G01 X 12.4039 Y 0.8017 Z -1.0000
G01 X 12.4314 Y 0.7903 Z -1.0000
G01 X 12.4588 Y 0.8017 Z -1.0000
G01 X 12.4702 Y 0.8292 Z -1.0000
G01 X 12.4702 Y 0.8292 Z -1.0000
G00 Z 5.0000

(End cutting path id: path1189)


(Start cutting path id: path1189)
(Change tool to Default tool)

G00 Z 5.0000
G00 X 12.7349 Y 1.0499

G01 Z -1.0000 F 100.0000(Penetrate)
G02 X 12.7834 Y 1.0582 Z -1.0000 I 0.0436 J -0.1089 F 3500.0000
G01 X 12.8094 Y 1.0468 Z -1.0000
G01 X 12.8069 Y 1.0348 Z -1.0000
G02 X 12.7584 Y 1.0264 Z -1.0000 I -0.0437 J 0.1092
G01 X 12.7324 Y 1.0378 Z -1.0000
G01 X 12.7349 Y 1.0499 Z -1.0000
G01 X 12.7349 Y 1.0499 Z -1.0000
G00 Z 5.0000

(End cutting path id: path1189)


(Start cutting path id: path1189)
(Change tool to Default tool)

G00 Z 5.0000
G00 X 12.8588 Y 0.8217

G01 Z -1.0000 F 100.0000(Penetrate)
G02 X 12.8659 Y 0.8508 Z -1.0000 I 0.0629 J 0.0000 F 3500.0000
G02 X 12.9144 Y 0.9286 Z -1.0000 I 0.5239 J -0.2730
G02 X 12.9727 Y 0.9705 Z -1.0000 I 0.0943 J -0.0696
G01 X 13.0140 Y 0.9607 Z -1.0000
G01 X 13.0278 Y 0.9173 Z -1.0000
G02 X 12.9945 Y 0.8538 Z -1.0000 I -0.1184 J 0.0217
G02 X 12.8911 Y 0.7962 Z -1.0000 I -0.1533 J 0.1533
G01 X 12.8588 Y 0.8217 Z -1.0000
G01 X 12.8588 Y 0.8217 Z -1.0000
G00 Z 5.0000

(End cutting path id: path1189)


(Start cutting path id: path1189)
(Change tool to Default tool)

G00 Z 5.0000
G00 X 12.8379 Y 1.3101

G01 Z -1.0000 F 100.0000(Penetrate)
G03 X 12.8766 Y 1.3873 Z -1.0000 I -0.0837 J 0.0903 F 3500.0000
G01 X 12.8503 Y 1.4254 Z -1.0000
G03 X 12.7676 Y 1.4311 Z -1.0000 I -0.0565 J -0.2161
G03 X 12.7254 Y 1.4107 Z -1.0000 I 0.0084 J -0.0712
G01 X 12.7183 Y 1.3857 Z -1.0000
G01 X 12.7344 Y 1.3731 Z -1.0000
G02 X 12.7686 Y 1.3607 Z -1.0000 I -0.0000 J -0.0535
G01 X 12.7810 Y 1.3343 Z -1.0000
G01 X 12.7673 Y 1.3091 Z -1.0000
G02 X 12.7204 Y 1.2954 Z -1.0000 I -0.0468 J 0.0730
G01 X 12.6863 Y 1.2807 Z -1.0000
G01 X 12.6839 Y 1.2566 Z -1.0000
G01 X 12.7246 Y 1.2421 Z -1.0000
G03 X 12.8379 Y 1.3101 Z -1.0000 I -0.1060 J 0.3047
G01 X 12.8379 Y 1.3101 Z -1.0000
G00 Z 5.0000

(End cutting path id: path1189)


(Start cutting path id: path1189)
(Change tool to Default tool)

G00 Z 5.0000
G00 X 12.6451 Y 1.3731

G01 Z -1.0000 F 100.0000(Penetrate)
G01 X 12.6426 Y 1.3972 Z -1.0000 F 3500.0000
G01 X 12.6085 Y 1.4120 Z -1.0000
G03 X 12.5617 Y 1.3982 Z -1.0000 I -0.0000 J -0.0868
G01 X 12.5479 Y 1.3731 Z -1.0000
G01 X 12.5590 Y 1.3453 Z -1.0000
G01 X 12.5845 Y 1.3343 Z -1.0000
G03 X 12.6159 Y 1.3435 Z -1.0000 I -0.0000 J 0.0582
G03 X 12.6451 Y 1.3731 Z -1.0000 I -0.0507 J 0.0790
G01 X 12.6451 Y 1.3731 Z -1.0000
G00 Z 5.0000

(End cutting path id: path1189)


(Start cutting path id: path1189)
(Change tool to Default tool)

G00 Z 5.0000
G00 X 12.4508 Y 1.4120

G01 Z -1.0000 F 100.0000(Penetrate)
G01 X 12.4526 Y 1.4384 Z -1.0000 F 3500.0000
G01 X 12.4337 Y 1.4508 Z -1.0000
G01 X 12.4042 Y 1.4391 Z -1.0000
G01 X 12.3925 Y 1.4120 Z -1.0000
G03 X 12.3993 Y 1.3799 Z -1.0000 I 0.0796 J 0.0000
G01 X 12.4096 Y 1.3731 Z -1.0000
G01 X 12.4236 Y 1.3787 Z -1.0000
G03 X 12.4508 Y 1.4120 Z -1.0000 I -0.1133 J 0.1201
G01 X 12.4508 Y 1.4120 Z -1.0000
G00 Z 5.0000

(End cutting path id: path1189)


(Start cutting path id: path1189)
(Change tool to Default tool)

G00 Z 5.0000
G00 X 12.4119 Y 1.2565

G01 Z -1.0000 F 100.0000(Penetrate)
G01 X 12.4095 Y 1.2806 Z -1.0000 F 3500.0000
G01 X 12.3754 Y 1.2954 Z -1.0000
G03 X 12.3285 Y 1.2817 Z -1.0000 I -0.0000 J -0.0868
G01 X 12.3148 Y 1.2565 Z -1.0000
G01 X 12.3258 Y 1.2287 Z -1.0000
G01 X 12.3514 Y 1.2177 Z -1.0000
G03 X 12.3828 Y 1.2269 Z -1.0000 I -0.0000 J 0.0582
G03 X 12.4119 Y 1.2565 Z -1.0000 I -0.0507 J 0.0790
G01 X 12.4119 Y 1.2565 Z -1.0000
G00 Z 5.0000

(End cutting path id: path1189)


(Start cutting path id: path1189)
(Change tool to Default tool)

G00 Z 5.0000
G00 X 11.9651 Y 1.1400

G01 Z -1.0000 F 100.0000(Penetrate)
G03 X 11.9584 Y 1.1721 Z -1.0000 I -0.0796 J -0.0000 F 3500.0000
G01 X 11.9480 Y 1.1788 Z -1.0000
G01 X 11.9340 Y 1.1733 Z -1.0000
G03 X 11.9068 Y 1.1400 Z -1.0000 I 0.1133 J -0.1201
G01 X 11.9050 Y 1.1135 Z -1.0000
G01 X 11.9240 Y 1.1011 Z -1.0000
G01 X 11.9534 Y 1.1128 Z -1.0000
G01 X 11.9651 Y 1.1400 Z -1.0000
G01 X 11.9651 Y 1.1400 Z -1.0000
G00 Z 5.0000

(End cutting path id: path1189)


(Start cutting path id: path1189)
(Change tool to Default tool)

G00 Z 5.0000
G00 X 11.5550 Y 1.3227

G01 Z -1.0000 F 100.0000(Penetrate)
G02 X 11.5283 Y 1.5609 Z -1.0000 I 0.6979 J 0.1987 F 3500.0000
G01 X 11.5694 Y 1.5875 Z -1.0000
G01 X 11.5956 Y 1.5950 Z -1.0000
G01 X 11.6004 Y 1.6284 Z -1.0000
G02 X 11.5822 Y 1.6913 Z -1.0000 I 0.3606 J 0.1383
G02 X 11.5766 Y 1.7477 Z -1.0000 I 0.2831 J 0.0564
G01 X 11.5628 Y 1.7803 Z -1.0000
G01 X 11.5404 Y 1.7827 Z -1.0000
G01 X 11.5085 Y 1.7782 Z -1.0000
G01 X 11.4799 Y 1.7998 Z -1.0000
G01 X 11.4790 Y 1.8262 Z -1.0000
G01 X 11.5009 Y 1.8393 Z -1.0000
G03 X 11.5696 Y 1.9215 Z -1.0000 I 0.0000 J 0.0698
G03 X 11.4373 Y 2.1921 Z -1.0000 I -0.5433 J -0.0979
G02 X 11.3970 Y 2.2729 Z -1.0000 I 0.1268 J 0.1137
G01 X 11.4185 Y 2.2878 Z -1.0000
G01 X 11.4502 Y 2.2845 Z -1.0000
G03 X 11.4828 Y 2.3109 Z -1.0000 I -0.0215 J 0.0599
G01 X 11.4822 Y 2.3277 Z -1.0000
G01 X 11.4687 Y 2.3304 Z -1.0000
G01 X 11.4085 Y 2.3503 Z -1.0000
G02 X 11.4234 Y 2.4442 Z -1.0000 I 0.0865 J 0.0345
G03 X 11.4530 Y 2.5009 Z -1.0000 I -0.1171 J 0.0972
G01 X 11.4462 Y 2.5267 Z -1.0000
G01 X 11.4314 Y 2.5270 Z -1.0000
G01 X 11.4212 Y 2.5040 Z -1.0000
G01 X 11.4074 Y 2.4811 Z -1.0000
G01 X 11.3798 Y 2.4820 Z -1.0000
G02 X 11.3542 Y 2.5095 Z -1.0000 I 0.0372 J 0.0602
G01 X 11.3568 Y 2.5261 Z -1.0000
G01 X 11.3643 Y 2.5474 Z -1.0000
G03 X 11.3433 Y 2.6560 Z -1.0000 I -0.6245 J -0.0647
G02 X 11.3343 Y 2.7564 Z -1.0000 I 0.2558 J 0.0734
G01 X 11.3565 Y 2.7861 Z -1.0000
G01 X 11.3683 Y 2.8085 Z -1.0000
G03 X 11.3435 Y 2.8460 Z -1.0000 I -0.0606 J -0.0132
G01 X 11.3286 Y 2.8747 Z -1.0000
G01 X 11.3435 Y 2.8904 Z -1.0000
G01 X 11.3503 Y 2.9039 Z -1.0000
G03 X 11.3140 Y 2.9359 Z -1.0000 I -0.0754 J -0.0488
G03 X 11.2285 Y 2.9674 Z -1.0000 I -0.2059 J -0.4270
G01 X 11.2131 Y 2.9625 Z -1.0000
G01 X 11.2073 Y 2.9445 Z -1.0000
G03 X 11.2315 Y 2.6941 Z -1.0000 I 4.5528 J 0.3127
G02 X 11.2626 Y 2.4415 Z -1.0000 I -109.2720 J -13.6099
G02 X 11.2813 Y 2.2866 Z -1.0000 I -41.1014 J -5.0228
G03 X 11.3209 Y 2.1433 Z -1.0000 I 0.4883 J 0.0578
G03 X 11.3798 Y 2.0667 Z -1.0000 I 0.1900 J 0.0852
G02 X 11.4120 Y 1.9966 Z -1.0000 I -0.0547 J -0.0676
G01 X 11.3769 Y 1.9661 Z -1.0000
G03 X 11.3055 Y 1.9566 Z -1.0000 I -0.0166 J -0.1493
G03 X 11.2766 Y 1.9268 Z -1.0000 I 0.0183 J -0.0466
G01 X 11.2856 Y 1.8967 Z -1.0000
G03 X 11.3410 Y 1.8782 Z -1.0000 I 0.0554 J 0.0735
G02 X 11.3881 Y 1.8512 Z -1.0000 I -0.0000 J -0.0546
G02 X 11.3982 Y 1.7805 Z -1.0000 I -0.0814 J -0.0477
G03 X 11.3940 Y 1.6875 Z -1.0000 I 0.2258 J -0.0567
G03 X 11.4230 Y 1.6235 Z -1.0000 I 0.1311 J 0.0207
G02 X 11.4464 Y 1.5653 Z -1.0000 I -0.0789 J -0.0655
G02 X 11.4302 Y 1.5219 Z -1.0000 I -0.0556 J -0.0039
G03 X 11.4100 Y 1.4751 Z -1.0000 I 0.0487 J -0.0487
G03 X 11.4263 Y 1.3791 Z -1.0000 I 0.2508 J -0.0068
G03 X 11.5140 Y 1.2869 Z -1.0000 I 0.1538 J 0.0585
G01 X 11.5550 Y 1.3227 Z -1.0000
G01 X 11.5550 Y 1.3227 Z -1.0000
G00 Z 5.0000

(End cutting path id: path1189)


(Start cutting path id: path1189)
(Change tool to Default tool)

G00 Z 5.0000
G00 X 11.8486 Y 1.8393

G01 Z -1.0000 F 100.0000(Penetrate)
G01 X 11.8343 Y 1.8638 Z -1.0000 F 3500.0000
G03 X 11.7806 Y 1.8776 Z -1.0000 I -0.0528 J -0.0938
G01 X 11.7617 Y 1.8628 Z -1.0000
G01 X 11.7709 Y 1.8393 Z -1.0000
G03 X 11.8309 Y 1.8216 Z -1.0000 I 0.0600 J 0.0928
G01 X 11.8486 Y 1.8393 Z -1.0000
G01 X 11.8486 Y 1.8393 Z -1.0000
G00 Z 5.0000

(End cutting path id: path1189)


(Start cutting path id: path1189)
(Change tool to Default tool)

G00 Z 5.0000
G00 X 12.9364 Y 1.5046

G01 Z -1.0000 F 100.0000(Penetrate)
G01 X 12.9300 Y 1.5145 Z -1.0000 F 3500.0000
G03 X 12.8587 Y 1.5398 Z -1.0000 I -0.1843 J -0.4068
G03 X 12.8086 Y 1.5397 Z -1.0000 I -0.0249 J -0.0951
G01 X 12.8027 Y 1.5249 Z -1.0000
G03 X 12.8917 Y 1.4661 Z -1.0000 I 0.1081 J 0.0668
G01 X 12.9364 Y 1.5046 Z -1.0000
G01 X 12.9364 Y 1.5046 Z -1.0000
G00 Z 5.0000

(End cutting path id: path1189)


(Start cutting path id: path1189)
(Change tool to Default tool)

G00 Z 5.0000
G00 X 13.0813 Y 1.3966

G01 Z -1.0000 F 100.0000(Penetrate)
G01 X 13.0554 Y 1.4080 Z -1.0000 F 3500.0000
G03 X 13.0069 Y 1.3997 Z -1.0000 I -0.0049 J -0.1177
G01 X 13.0044 Y 1.3876 Z -1.0000
G01 X 13.0303 Y 1.3762 Z -1.0000
G03 X 13.0788 Y 1.3845 Z -1.0000 I 0.0049 J 0.1173
G01 X 13.0813 Y 1.3966 Z -1.0000
G01 X 13.0813 Y 1.3966 Z -1.0000
G00 Z 5.0000

(End cutting path id: path1189)


(Start cutting path id: path1189)
(Change tool to Default tool)

G00 Z 5.0000
G00 X 11.2269 Y 3.1626

G01 Z -1.0000 F 100.0000(Penetrate)
G01 X 11.2393 Y 3.1816 Z -1.0000 F 3500.0000
G01 X 11.2658 Y 3.1797 Z -1.0000
G02 X 11.2990 Y 3.1526 Z -1.0000 I -0.0869 J -0.1406
G01 X 11.3046 Y 3.1386 Z -1.0000
G01 X 11.2979 Y 3.1282 Z -1.0000
G02 X 11.2658 Y 3.1214 Z -1.0000 I -0.0321 J 0.0727
G01 X 11.2386 Y 3.1332 Z -1.0000
G01 X 11.2269 Y 3.1626 Z -1.0000
G01 X 11.2269 Y 3.1626 Z -1.0000
G00 Z 5.0000

(End cutting path id: path1189)


(Start cutting path id: path1189)
(Change tool to Default tool)

G00 Z 5.0000
G00 X 11.1492 Y 3.2769

G01 Z -1.0000 F 100.0000(Penetrate)
G01 X 11.1609 Y 3.3040 Z -1.0000 F 3500.0000
G01 X 11.1904 Y 3.3157 Z -1.0000
G01 X 11.2093 Y 3.3034 Z -1.0000
G01 X 11.2075 Y 3.2769 Z -1.0000
G02 X 11.1804 Y 3.2436 Z -1.0000 I -0.1406 J 0.0869
G01 X 11.1663 Y 3.2380 Z -1.0000
G01 X 11.1560 Y 3.2448 Z -1.0000
G02 X 11.1492 Y 3.2769 Z -1.0000 I 0.0727 J 0.0321
G01 X 11.1492 Y 3.2769 Z -1.0000
G00 Z 5.0000

(End cutting path id: path1189)


(Start cutting path id: path1189)
(Change tool to Default tool)

G00 Z 5.0000
G00 X 11.6331 Y 7.3741

G01 Z -1.0000 F 100.0000(Penetrate)
G03 X 11.5993 Y 7.5338 Z -1.0000 I -1.3515 J -0.2026 F 3500.0000
G01 X 11.5884 Y 7.5366 Z -1.0000
G01 X 11.5804 Y 7.5158 Z -1.0000
G03 X 11.5978 Y 7.3388 Z -1.0000 I 1.7426 J 0.0823
G03 X 11.6316 Y 7.1791 Z -1.0000 I 1.3515 J 0.2026
G01 X 11.6425 Y 7.1762 Z -1.0000
G01 X 11.6506 Y 7.1970 Z -1.0000
G03 X 11.6331 Y 7.3741 Z -1.0000 I -1.7426 J -0.0823
G01 X 11.6331 Y 7.3741 Z -1.0000
G00 Z 5.0000

(End cutting path id: path1189)


(Start cutting path id: path1189)
(Change tool to Default tool)

G00 Z 5.0000
G00 X 11.4866 Y 8.0631

G01 Z -1.0000 F 100.0000(Penetrate)
G01 X 11.4745 Y 8.0655 Z -1.0000 F 3500.0000
G01 X 11.4631 Y 8.0396 Z -1.0000
G03 X 11.4714 Y 7.9911 Z -1.0000 I 0.1173 J -0.0049
G01 X 11.4835 Y 7.9886 Z -1.0000
G01 X 11.4949 Y 8.0146 Z -1.0000
G03 X 11.4866 Y 8.0631 Z -1.0000 I -0.1177 J 0.0049
G01 X 11.4866 Y 8.0631 Z -1.0000
G00 Z 5.0000

(End cutting path id: path1189)


(Start cutting path id: path1189)
(Change tool to Default tool)

G00 Z 5.0000
G00 X 11.4089 Y 8.1796

G01 Z -1.0000 F 100.0000(Penetrate)
G01 X 11.3968 Y 8.1821 Z -1.0000 F 3500.0000
G01 X 11.3854 Y 8.1561 Z -1.0000
G03 X 11.3937 Y 8.1076 Z -1.0000 I 0.1173 J -0.0049
G01 X 11.4058 Y 8.1051 Z -1.0000
G01 X 11.4172 Y 8.1311 Z -1.0000
G03 X 11.4089 Y 8.1796 Z -1.0000 I -0.1177 J 0.0049
G01 X 11.4089 Y 8.1796 Z -1.0000
G00 Z 5.0000

(End cutting path id: path1189)


(Start cutting path id: path1189)
(Change tool to Default tool)

G00 Z 5.0000
G00 X 11.4000 Y 8.6905

G01 Z -1.0000 F 100.0000(Penetrate)
G03 X 11.3138 Y 9.0055 Z -1.0000 I -1.9889 J -0.3746 F 3500.0000
G01 X 11.2831 Y 9.0130 Z -1.0000
G03 X 11.2567 Y 8.9649 Z -1.0000 I 0.0586 J -0.0634
G03 X 11.2646 Y 8.9105 Z -1.0000 I 0.0853 J -0.0154
G02 X 11.2882 Y 8.8501 Z -1.0000 I -0.3071 J -0.1548
G02 X 11.3622 Y 8.5687 Z -1.0000 I -6.6688 J -1.9047
G01 X 11.3929 Y 8.5677 Z -1.0000
G03 X 11.4000 Y 8.6905 Z -1.0000 I -0.2437 J 0.0755
G01 X 11.4000 Y 8.6905 Z -1.0000
G00 Z 5.0000

(End cutting path id: path1189)


(Start cutting path id: path1189)
(Change tool to Default tool)

G00 Z 5.0000
G00 X 11.2744 Y 9.2053

G01 Z -1.0000 F 100.0000(Penetrate)
G03 X 11.1904 Y 9.8177 Z -1.0000 I -7.5122 J -0.7181 F 3500.0000
G01 X 11.1602 Y 9.8430 Z -1.0000
G01 X 11.1396 Y 9.8195 Z -1.0000
G03 X 11.2150 Y 9.4195 Z -1.0000 I 3.4989 J 0.4533
G02 X 11.2101 Y 9.3649 Z -1.0000 I -0.0810 J -0.0202
G01 X 11.1872 Y 9.3579 Z -1.0000
G01 X 11.1659 Y 9.3535 Z -1.0000
G01 X 11.1621 Y 9.3217 Z -1.0000
G02 X 11.1806 Y 9.2525 Z -1.0000 I -0.3191 J -0.1225
G02 X 11.1881 Y 9.1567 Z -1.0000 I -0.6075 J -0.0958
G03 X 11.2075 Y 9.0865 Z -1.0000 I 0.1362 J -0.0000
G01 X 11.2367 Y 9.0758 Z -1.0000
G01 X 11.2650 Y 9.1053 Z -1.0000
G03 X 11.2744 Y 9.2053 Z -1.0000 I -0.2562 J 0.0746
G01 X 11.2744 Y 9.2053 Z -1.0000
G00 Z 5.0000

(End cutting path id: path1189)


(Start cutting path id: path1189)
(Change tool to Default tool)

G00 Z 5.0000
G00 X 12.0437 Y 10.4271

G01 Z -1.0000 F 100.0000(Penetrate)
G01 X 12.0295 Y 10.4281 Z -1.0000 F 3500.0000
G03 X 12.0224 Y 10.3918 Z -1.0000 I 0.0464 J -0.0279
G02 X 12.0402 Y 10.2604 Z -1.0000 I -3.3223 J -0.5182
G02 X 12.0494 Y 10.1587 Z -1.0000 I -1.9742 J -0.2286
G01 X 12.0581 Y 10.1566 Z -1.0000
G03 X 12.0707 Y 10.1940 Z -1.0000 I -0.0784 J 0.0472
G03 X 12.0701 Y 10.3290 Z -1.0000 I -0.6064 J 0.0650
G03 X 12.0437 Y 10.4271 Z -1.0000 I -0.3416 J -0.0394
G01 X 12.0437 Y 10.4271 Z -1.0000
G00 Z 5.0000

(End cutting path id: path1189)


(Start cutting path id: path1189)
(Change tool to Default tool)

G00 Z 5.0000
G00 X 11.2938 Y 12.2885

G01 Z -1.0000 F 100.0000(Penetrate)
G03 X 11.2777 Y 12.3347 Z -1.0000 I -0.0612 J 0.0046 F 3500.0000
G01 X 11.2438 Y 12.3426 Z -1.0000
G03 X 11.1881 Y 12.2653 Z -1.0000 I 0.0311 J -0.0812
G03 X 11.2381 Y 12.2130 Z -1.0000 I 0.0500 J -0.0022
G01 X 11.2722 Y 12.2302 Z -1.0000
G03 X 11.2938 Y 12.2885 Z -1.0000 I -0.0905 J 0.0668
G01 X 11.2938 Y 12.2885 Z -1.0000
G00 Z 5.0000

(End cutting path id: path1189)


(Start cutting path id: path1189)
(Change tool to Default tool)

G00 Z 5.0000
G00 X 11.2658 Y 13.3009

G01 Z -1.0000 F 100.0000(Penetrate)
G03 X 11.2590 Y 13.3330 Z -1.0000 I -0.0796 J 0.0000 F 3500.0000
G01 X 11.2486 Y 13.3398 Z -1.0000
G01 X 11.2346 Y 13.3342 Z -1.0000
G03 X 11.2075 Y 13.3009 Z -1.0000 I 0.1133 J -0.1201
G01 X 11.2057 Y 13.2744 Z -1.0000
G01 X 11.2246 Y 13.2621 Z -1.0000
G01 X 11.2541 Y 13.2738 Z -1.0000
G01 X 11.2658 Y 13.3009 Z -1.0000
G01 X 11.2658 Y 13.3009 Z -1.0000
G00 Z 5.0000

(End cutting path id: path1189)


(Start cutting path id: path1189)
(Change tool to Default tool)

G00 Z 5.0000
G00 X 11.3046 Y 13.4333

G01 Z -1.0000 F 100.0000(Penetrate)
G01 X 11.2853 Y 13.4629 Z -1.0000 F 3500.0000
G03 X 11.2269 Y 13.4676 Z -1.0000 I -0.0359 J -0.0813
G03 X 11.1619 Y 13.4374 Z -1.0000 I 0.0511 J -0.1952
G01 X 11.1492 Y 13.4129 Z -1.0000
G01 X 11.1627 Y 13.3921 Z -1.0000
G03 X 11.2269 Y 13.3786 Z -1.0000 I 0.0642 J 0.1453
G03 X 11.2859 Y 13.3973 Z -1.0000 I -0.0000 J 0.1026
G01 X 11.3046 Y 13.4333 Z -1.0000
G01 X 11.3046 Y 13.4333 Z -1.0000
G00 Z 5.0000

(End cutting path id: path1189)


(Start cutting path id: path1189)
(Change tool to Default tool)

G00 Z 5.0000
G00 X 12.7033 Y 13.8077

G01 Z -1.0000 F 100.0000(Penetrate)
G01 X 12.7114 Y 13.8315 Z -1.0000 F 3500.0000
G02 X 12.7616 Y 13.8837 Z -1.0000 I 0.2572 J -0.1973
G01 X 12.7994 Y 13.8885 Z -1.0000
G01 X 12.8199 Y 13.8561 Z -1.0000
G02 X 12.8006 Y 13.7993 Z -1.0000 I -0.0932 J 0.0000
G01 X 12.7616 Y 13.7801 Z -1.0000
G02 X 12.7140 Y 13.7908 Z -1.0000 I -0.0000 J 0.1111
G01 X 12.7033 Y 13.8077 Z -1.0000
G01 X 12.7033 Y 13.8077 Z -1.0000
G00 Z 5.0000

(End cutting path id: path1189)


(Start cutting path id: path1189)
(Change tool to Default tool)

G00 Z 5.0000
G00 X 12.8722 Y 14.0598

G01 Z -1.0000 F 100.0000(Penetrate)
G03 X 12.8310 Y 14.9000 Z -1.0000 I -20.5311 J -0.5845 F 3500.0000
G03 X 12.8061 Y 15.0104 Z -1.0000 I -0.3708 J -0.0258
G02 X 12.6915 Y 15.5617 Z -1.0000 I 1.5454 J 0.6086
G02 X 12.7812 Y 15.7293 Z -1.0000 I 0.1892 J 0.0065
G01 X 12.7934 Y 15.7558 Z -1.0000
G03 X 12.7619 Y 15.8516 Z -1.0000 I -0.3120 J -0.0495
G02 X 12.7326 Y 15.9545 Z -1.0000 I 0.2378 J 0.1234
G02 X 12.7466 Y 16.0517 Z -1.0000 I 0.2244 J 0.0171
G03 X 12.7659 Y 16.1446 Z -1.0000 I -0.2804 J 0.1066
G01 X 12.7521 Y 16.1728 Z -1.0000
G02 X 12.7315 Y 16.2016 Z -1.0000 I 0.0315 J 0.0444
G02 X 12.7163 Y 16.2926 Z -1.0000 I 0.3536 J 0.1057
G03 X 12.6255 Y 17.2435 Z -1.0000 I -8.6109 J -0.3424
G03 X 12.5489 Y 17.3950 Z -1.0000 I -0.2688 J -0.0408
G02 X 12.5224 Y 17.4403 Z -1.0000 I 0.0736 J 0.0737
G02 X 12.5097 Y 17.5339 Z -1.0000 I 0.3243 J 0.0916
G02 X 12.5267 Y 17.5766 Z -1.0000 I 0.0630 J -0.0004
G01 X 12.5479 Y 17.5747 Z -1.0000
G01 X 12.5719 Y 17.5637 Z -1.0000
G01 X 12.5862 Y 17.5800 Z -1.0000
G03 X 12.5248 Y 17.8176 Z -1.0000 I -0.4728 J 0.0046
G03 X 12.4314 Y 17.8535 Z -1.0000 I -0.0686 J -0.0388
G01 X 12.4165 Y 17.8638 Z -1.0000
G02 X 12.4297 Y 17.9026 Z -1.0000 I 0.0577 J 0.0020
G03 X 12.5516 Y 18.2469 Z -1.0000 I -0.4109 J 0.3393
G03 X 12.4244 Y 18.4727 Z -1.0000 I -0.2684 J -0.0025
G01 X 12.4014 Y 18.5081 Z -1.0000
G02 X 12.4050 Y 18.6183 Z -1.0000 I 0.3334 J 0.0443
G03 X 12.4127 Y 18.7303 Z -1.0000 I -0.4279 J 0.0856
G01 X 12.3966 Y 18.7573 Z -1.0000
G01 X 12.3789 Y 18.7850 Z -1.0000
G02 X 12.3706 Y 18.9725 Z -1.0000 I 1.2254 J 0.1483
G03 X 12.3621 Y 19.1535 Z -1.0000 I -1.1609 J 0.0367
G01 X 12.3461 Y 19.1677 Z -1.0000
G01 X 12.3298 Y 19.1816 Z -1.0000
G02 X 12.3214 Y 19.3213 Z -1.0000 I 0.6974 J 0.1120
G03 X 12.3113 Y 19.4694 Z -1.0000 I -0.6948 J 0.0271
G03 X 12.2853 Y 19.5256 Z -1.0000 I -0.1191 J -0.0210
G02 X 12.2603 Y 19.5829 Z -1.0000 I 0.0863 J 0.0717
G02 X 12.2304 Y 19.9507 Z -1.0000 I 3.8819 J 0.5008
G03 X 12.2041 Y 20.2999 Z -1.0000 I -4.2261 J -0.1437
G01 X 12.1886 Y 20.3075 Z -1.0000
G01 X 12.1706 Y 20.3153 Z -1.0000
G02 X 12.1374 Y 20.5470 Z -1.0000 I 1.6772 J 0.3585
G03 X 12.1239 Y 20.7022 Z -1.0000 I -5.9126 J -0.4358
G03 X 12.1024 Y 20.8967 Z -1.0000 I -9.5874 J -0.9605
G02 X 12.0813 Y 21.0911 Z -1.0000 I 8.1931 J 0.9892
G02 X 12.0733 Y 21.1978 Z -1.0000 I 2.4524 J 0.2373
G03 X 12.0536 Y 21.2898 Z -1.0000 I -0.2981 J -0.0157
G01 X 12.0320 Y 21.3046 Z -1.0000
G01 X 12.0141 Y 21.3207 Z -1.0000
G02 X 12.0139 Y 21.4807 Z -1.0000 I 0.7896 J 0.0811
G03 X 12.0156 Y 21.6489 Z -1.0000 I -0.9374 J 0.0939
G01 X 11.9983 Y 21.6773 Z -1.0000
G01 X 11.9781 Y 21.7050 Z -1.0000
G02 X 11.9652 Y 21.8120 Z -1.0000 I 0.4353 J 0.1070
G03 X 11.9474 Y 21.9085 Z -1.0000 I -0.2706 J -0.0000
G01 X 11.9216 Y 21.9263 Z -1.0000
G01 X 11.9055 Y 21.9401 Z -1.0000
G01 X 11.9141 Y 21.9748 Z -1.0000
G03 X 11.9375 Y 22.0268 Z -1.0000 I -0.1069 J 0.0796
G03 X 11.9408 Y 22.1011 Z -1.0000 I -0.2221 J 0.0471
G03 X 11.8596 Y 22.5756 Z -1.0000 I -4.8651 J -0.5887
G03 X 11.8189 Y 22.6498 Z -1.0000 I -0.1477 J -0.0328
G02 X 11.7846 Y 22.7137 Z -1.0000 I 0.0887 J 0.0887
G02 X 11.7845 Y 22.8201 Z -1.0000 I 0.2649 J 0.0534
G03 X 11.7884 Y 22.9252 Z -1.0000 I -0.3220 J 0.0644
G01 X 11.7672 Y 22.9582 Z -1.0000
G02 X 11.7354 Y 22.9896 Z -1.0000 I 0.0525 J 0.0849
G02 X 11.6909 Y 23.0786 Z -1.0000 I 0.4169 J 0.2644
G03 X 11.6216 Y 23.1267 Z -1.0000 I -0.0699 J -0.0266
G01 X 11.5872 Y 23.0794 Z -1.0000
G02 X 11.5680 Y 22.9912 Z -1.0000 I -0.0838 J -0.0279
G02 X 11.4029 Y 22.8823 Z -1.0000 I -0.3092 J 0.2892
G03 X 11.3718 Y 22.8496 Z -1.0000 I 0.0171 J -0.0473
G01 X 11.3834 Y 22.8184 Z -1.0000
G03 X 11.4426 Y 22.7890 Z -1.0000 I 0.1738 J 0.2749
G03 X 11.4795 Y 22.7822 Z -1.0000 I 0.0369 J 0.0980
G01 X 11.4854 Y 22.7920 Z -1.0000
G03 X 11.4601 Y 22.8199 Z -1.0000 I -0.0651 J -0.0336
G01 X 11.4562 Y 22.8417 Z -1.0000
G01 X 11.4892 Y 22.8582 Z -1.0000
G03 X 11.5613 Y 22.8739 Z -1.0000 I -0.0012 J 0.1783
G01 X 11.5766 Y 22.8976 Z -1.0000
G01 X 11.5915 Y 22.9216 Z -1.0000
G02 X 11.6543 Y 22.9365 Z -1.0000 I 0.0629 J -0.1257
G01 X 11.6956 Y 22.8821 Z -1.0000
G02 X 11.6125 Y 22.7860 Z -1.0000 I -0.1433 J 0.0398
G03 X 11.4945 Y 22.6662 Z -1.0000 I 0.0926 J -0.2091
G03 X 11.5136 Y 22.5531 Z -1.0000 I 0.0980 J -0.0416
G02 X 11.5377 Y 22.4697 Z -1.0000 I -0.0734 J -0.0665
G02 X 11.4912 Y 22.4244 Z -1.0000 I -0.0546 J 0.0095
G03 X 11.4196 Y 22.3914 Z -1.0000 I 0.0202 J -0.1381
G03 X 11.3320 Y 22.2855 Z -1.0000 I 0.2783 J -0.3190
G03 X 11.3026 Y 22.1966 Z -1.0000 I 0.1969 J -0.1146
G01 X 11.3204 Y 22.1828 Z -1.0000
G03 X 11.3671 Y 22.2170 Z -1.0000 I -0.0395 J 0.1028
G03 X 11.3823 Y 22.2607 Z -1.0000 I -0.0549 J 0.0436
G01 X 11.4141 Y 22.3028 Z -1.0000
G02 X 11.4747 Y 22.2872 Z -1.0000 I 0.0170 J -0.0593
G01 X 11.4775 Y 22.2612 Z -1.0000
G02 X 11.4132 Y 22.1921 Z -1.0000 I -0.2280 J 0.1476
G03 X 11.3622 Y 22.1221 Z -1.0000 I 0.0903 J -0.1195
G01 X 11.3726 Y 22.0760 Z -1.0000
G03 X 11.4074 Y 22.0607 Z -1.0000 I 0.0370 J 0.0369
G01 X 11.4212 Y 22.0739 Z -1.0000
G02 X 11.4336 Y 22.1082 Z -1.0000 I 0.0535 J -0.0000
G01 X 11.4600 Y 22.1205 Z -1.0000
G01 X 11.4854 Y 22.1070 Z -1.0000
G02 X 11.4989 Y 22.0623 Z -1.0000 I -0.0671 J -0.0447
G03 X 11.5122 Y 22.0173 Z -1.0000 I 0.0830 J -0.0000
G01 X 11.5365 Y 22.0040 Z -1.0000
G01 X 11.5543 Y 21.9903 Z -1.0000
G02 X 11.5518 Y 21.9457 Z -1.0000 I -0.0705 J -0.0185
G03 X 11.5540 Y 21.9039 Z -1.0000 I 0.0481 J -0.0184
G01 X 11.5822 Y 21.8861 Z -1.0000
G01 X 11.5926 Y 21.8701 Z -1.0000
G02 X 11.5536 Y 21.8169 Z -1.0000 I -0.1274 J 0.0525
G03 X 11.4883 Y 21.7396 Z -1.0000 I 0.1886 J -0.2255
G03 X 11.4521 Y 21.6430 Z -1.0000 I 0.2636 J -0.1539
G03 X 11.4606 Y 21.5858 Z -1.0000 I 0.0858 J -0.0164
G01 X 11.4848 Y 21.5810 Z -1.0000
G01 X 11.5232 Y 21.5914 Z -1.0000
G01 X 11.5410 Y 21.5716 Z -1.0000
G03 X 11.5452 Y 21.5184 Z -1.0000 I 1.5418 J 0.0946
G03 X 11.5555 Y 21.4212 Z -1.0000 I 4.6435 J 0.4465
G02 X 11.5521 Y 21.3283 Z -1.0000 I -0.3032 J -0.0352
G02 X 11.5272 Y 21.2743 Z -1.0000 I -0.1216 J 0.0234
G03 X 11.5098 Y 21.2218 Z -1.0000 I 0.0622 J -0.0496
G03 X 11.5325 Y 21.1257 Z -1.0000 I 0.2540 J 0.0091
G02 X 11.5631 Y 21.0277 Z -1.0000 I -0.3759 J -0.1712
G01 X 11.5564 Y 20.9927 Z -1.0000
G03 X 11.5711 Y 20.8588 Z -1.0000 I 0.0931 J -0.0575
G03 X 11.7182 Y 20.8265 Z -1.0000 I 0.0981 J 0.0955
G02 X 11.7580 Y 20.8288 Z -1.0000 I 0.0235 J -0.0614
G01 X 11.7696 Y 20.8134 Z -1.0000
G02 X 11.7209 Y 20.6881 Z -1.0000 I -0.2054 J 0.0077
G02 X 11.6258 Y 20.6441 Z -1.0000 I -0.0951 J 0.0807
G01 X 11.6009 Y 20.6272 Z -1.0000
G03 X 11.5602 Y 20.4798 Z -1.0000 I 0.6426 J -0.2566
G03 X 11.5604 Y 20.3265 Z -1.0000 I 0.4755 J -0.0760
G03 X 11.5941 Y 20.2716 Z -1.0000 I 0.0838 J 0.0136
G02 X 11.6503 Y 20.1824 Z -1.0000 I -0.0846 J -0.1157
G01 X 11.6154 Y 20.1585 Z -1.0000
G01 X 11.5764 Y 20.1366 Z -1.0000
G03 X 11.6165 Y 19.8088 Z -1.0000 I 1.3955 J 0.0044
G02 X 11.6820 Y 19.4923 Z -1.0000 I -4.3007 J -1.0547
G02 X 11.8694 Y 18.3130 Z -1.0000 I -59.6712 J -10.0894
G03 X 11.9654 Y 17.7048 Z -1.0000 I 35.0489 J 5.2169
G03 X 12.1187 Y 16.8171 Z -1.0000 I 74.8682 J 12.4771
G02 X 12.2353 Y 16.1564 Z -1.0000 I -140.6344 J -25.1557
G02 X 12.3029 Y 15.7588 Z -1.0000 I -50.7571 J -8.8333
G03 X 12.3766 Y 15.3996 Z -1.0000 I 4.7872 J 0.7946
G01 X 12.3914 Y 15.3973 Z -1.0000
G01 X 12.4024 Y 15.3949 Z -1.0000
G02 X 12.4101 Y 15.2512 Z -1.0000 I -0.9656 J -0.1236
G03 X 12.4154 Y 15.0696 Z -1.0000 I 1.8127 J -0.0379
G03 X 12.4353 Y 14.9328 Z -1.0000 I 1.0618 J 0.0844
G02 X 12.4623 Y 14.7964 Z -1.0000 I -4.9533 J -1.0544
G02 X 12.5126 Y 14.5134 Z -1.0000 I -21.4880 J -3.9609
G03 X 12.5820 Y 14.2671 Z -1.0000 I 1.1962 J 0.2042
G01 X 12.6172 Y 14.2517 Z -1.0000
G01 X 12.6443 Y 14.2360 Z -1.0000
G02 X 12.6466 Y 14.0582 Z -1.0000 I -0.6408 J -0.0974
G03 X 12.6519 Y 13.6761 Z -1.0000 I 1.3775 J -0.1721
G01 X 12.7060 Y 13.6700 Z -1.0000
G01 X 12.7270 Y 13.6905 Z -1.0000
G01 X 12.7394 Y 13.6823 Z -1.0000
G03 X 12.7492 Y 13.6184 Z -1.0000 I 0.2921 J 0.0122
G03 X 12.7865 Y 13.5074 Z -1.0000 I 0.9234 J 0.2489
G01 X 12.8238 Y 13.4854 Z -1.0000
G01 X 12.8576 Y 13.5158 Z -1.0000
G03 X 12.8725 Y 13.6348 Z -1.0000 I -0.5984 J 0.1354
G03 X 12.8721 Y 14.0598 Z -1.0000 I -7.6972 J 0.2059
G01 X 12.8722 Y 14.0598 Z -1.0000
G00 Z 5.0000

(End cutting path id: path1189)


(Start cutting path id: path1189)
(Change tool to Default tool)

G00 Z 5.0000
G00 X 12.1594 Y 14.8379

G01 Z -1.0000 F 100.0000(Penetrate)
G01 X 12.1743 Y 14.8717 Z -1.0000 F 3500.0000
G01 X 12.1989 Y 14.8741 Z -1.0000
G01 X 12.2205 Y 14.8454 Z -1.0000
G01 X 12.2160 Y 14.8135 Z -1.0000
G01 X 12.1824 Y 14.8029 Z -1.0000
G01 X 12.1594 Y 14.8379 Z -1.0000
G01 X 12.1594 Y 14.8379 Z -1.0000
G00 Z 5.0000

(End cutting path id: path1189)


(Start cutting path id: path1189)
(Change tool to Default tool)

G00 Z 5.0000
G00 X 12.0071 Y 16.1598

G01 Z -1.0000 F 100.0000(Penetrate)
G01 X 12.0184 Y 16.1858 Z -1.0000 F 3500.0000
G01 X 12.0305 Y 16.1833 Z -1.0000
G02 X 12.0388 Y 16.1348 Z -1.0000 I -0.1089 J -0.0436
G01 X 12.0274 Y 16.1088 Z -1.0000
G01 X 12.0153 Y 16.1113 Z -1.0000
G02 X 12.0070 Y 16.1598 Z -1.0000 I 0.1092 J 0.0437
G01 X 12.0071 Y 16.1598 Z -1.0000
G00 Z 5.0000

(End cutting path id: path1189)


(Start cutting path id: path1189)
(Change tool to Default tool)

G00 Z 5.0000
G00 X 11.8494 Y 17.0493

G01 Z -1.0000 F 100.0000(Penetrate)
G02 X 11.8295 Y 17.0947 Z -1.0000 I 0.0689 J 0.0572 F 3500.0000
G01 X 11.8416 Y 17.1085 Z -1.0000
G02 X 11.9208 Y 17.0686 Z -1.0000 I 0.0000 J -0.0987
G01 X 11.9163 Y 17.0078 Z -1.0000
G01 X 11.8992 Y 17.0058 Z -1.0000
G02 X 11.8494 Y 17.0493 Z -1.0000 I 0.1086 J 0.1750
G01 X 11.8494 Y 17.0493 Z -1.0000
G00 Z 5.0000

(End cutting path id: path1189)


(Start cutting path id: path1189)
(Change tool to Default tool)

G00 Z 5.0000
G00 X 11.8097 Y 17.2607

G01 Z -1.0000 F 100.0000(Penetrate)
G03 X 11.8022 Y 17.3727 Z -1.0000 I -0.8379 J -0.0000 F 3500.0000
G03 X 11.7861 Y 17.4356 Z -1.0000 I -0.2773 J -0.0374
G02 X 11.7823 Y 17.4834 Z -1.0000 I 0.0791 J 0.0304
G01 X 11.7991 Y 17.4970 Z -1.0000
G01 X 11.8242 Y 17.4850 Z -1.0000
G02 X 11.8383 Y 17.4484 Z -1.0000 I -0.0496 J -0.0401
G03 X 11.8439 Y 17.4003 Z -1.0000 I 0.4108 J 0.0231
G03 X 11.8691 Y 17.2736 Z -1.0000 I 2.8523 J 0.5015
G02 X 11.8742 Y 17.1657 Z -1.0000 I -0.3099 J -0.0689
G01 X 11.8534 Y 17.1473 Z -1.0000
G01 X 11.8275 Y 17.1651 Z -1.0000
G02 X 11.8097 Y 17.2607 Z -1.0000 I 0.2480 J 0.0956
G01 X 11.8097 Y 17.2607 Z -1.0000
G00 Z 5.0000

(End cutting path id: path1189)


(Start cutting path id: path1189)
(Change tool to Default tool)

G00 Z 5.0000
G00 X 11.3046 Y 19.4008

G01 Z -1.0000 F 100.0000(Penetrate)
G01 X 11.3163 Y 19.4280 Z -1.0000 F 3500.0000
G01 X 11.3458 Y 19.4397 Z -1.0000
G01 X 11.3648 Y 19.4273 Z -1.0000
G01 X 11.3629 Y 19.4008 Z -1.0000
G02 X 11.3358 Y 19.3675 Z -1.0000 I -0.1406 J 0.0869
G01 X 11.3218 Y 19.3620 Z -1.0000
G01 X 11.3114 Y 19.3687 Z -1.0000
G02 X 11.3046 Y 19.4008 Z -1.0000 I 0.0727 J 0.0321
G01 X 11.3046 Y 19.4008 Z -1.0000
G00 Z 5.0000

(End cutting path id: path1189)


(Start cutting path id: path1189)
(Change tool to Default tool)

G00 Z 5.0000
G00 X 11.6154 Y 20.0224

G01 Z -1.0000 F 100.0000(Penetrate)
G01 X 11.6272 Y 20.0496 Z -1.0000 F 3500.0000
G01 X 11.6566 Y 20.0613 Z -1.0000
G01 X 11.6756 Y 20.0489 Z -1.0000
G01 X 11.6737 Y 20.0224 Z -1.0000
G02 X 11.6466 Y 19.9892 Z -1.0000 I -0.1406 J 0.0869
G01 X 11.6326 Y 19.9836 Z -1.0000
G01 X 11.6222 Y 19.9903 Z -1.0000
G02 X 11.6154 Y 20.0224 Z -1.0000 I 0.0727 J 0.0321
G01 X 11.6154 Y 20.0224 Z -1.0000
G00 Z 5.0000

(End cutting path id: path1189)


(Start cutting path id: path1189)
(Change tool to Default tool)

G00 Z 5.0000
G00 X 11.7201 Y 20.4358

G01 Z -1.0000 F 100.0000(Penetrate)
G01 X 11.7126 Y 20.4926 Z -1.0000 F 3500.0000
G02 X 11.7732 Y 20.5275 Z -1.0000 I 0.0605 J -0.0350
G01 X 11.7967 Y 20.5145 Z -1.0000
G02 X 11.8097 Y 20.4693 Z -1.0000 I -0.0722 J -0.0453
G01 X 11.7778 Y 20.4233 Z -1.0000
G02 X 11.7201 Y 20.4358 Z -1.0000 I -0.0191 J 0.0511
G01 X 11.7201 Y 20.4358 Z -1.0000
G00 Z 5.0000

(End cutting path id: path1189)


(Start cutting path id: path1189)
(Change tool to Default tool)

G00 Z 5.0000
G00 X 11.5254 Y 20.6125

G01 Z -1.0000 F 100.0000(Penetrate)
G01 X 11.5133 Y 20.6150 Z -1.0000 F 3500.0000
G01 X 11.5020 Y 20.5891 Z -1.0000
G03 X 11.5103 Y 20.5405 Z -1.0000 I 0.1173 J -0.0049
G01 X 11.5224 Y 20.5381 Z -1.0000
G01 X 11.5338 Y 20.5640 Z -1.0000
G03 X 11.5255 Y 20.6125 Z -1.0000 I -0.1177 J 0.0049
G01 X 11.5254 Y 20.6125 Z -1.0000
G00 Z 5.0000

(End cutting path id: path1189)


(Start cutting path id: path1189)
(Change tool to Default tool)

G00 Z 5.0000
G00 X 11.3046 Y 20.5081

G01 Z -1.0000 F 100.0000(Penetrate)
G02 X 11.3113 Y 20.5598 Z -1.0000 I 0.2033 J 0.0000 F 3500.0000
G01 X 11.3199 Y 20.5664 Z -1.0000
G01 X 11.3310 Y 20.5603 Z -1.0000
G02 X 11.3575 Y 20.5081 Z -1.0000 I -0.2384 J -0.1539
G02 X 11.3600 Y 20.4635 Z -1.0000 I -0.0680 J -0.0261
G01 X 11.3422 Y 20.4498 Z -1.0000
G01 X 11.3179 Y 20.4631 Z -1.0000
G02 X 11.3046 Y 20.5081 Z -1.0000 I 0.0697 J 0.0450
G01 X 11.3046 Y 20.5081 Z -1.0000
G00 Z 5.0000

(End cutting path id: path1189)


(Start cutting path id: path1189)
(Change tool to Default tool)

G00 Z 5.0000
G00 X 11.4477 Y 21.0788

G01 Z -1.0000 F 100.0000(Penetrate)
G01 X 11.4356 Y 21.0813 Z -1.0000 F 3500.0000
G01 X 11.4243 Y 21.0553 Z -1.0000
G03 X 11.4326 Y 21.0068 Z -1.0000 I 0.1173 J -0.0049
G01 X 11.4447 Y 21.0043 Z -1.0000
G01 X 11.4561 Y 21.0303 Z -1.0000
G03 X 11.4478 Y 21.0788 Z -1.0000 I -0.1177 J 0.0049
G01 X 11.4477 Y 21.0788 Z -1.0000
G00 Z 5.0000

(End cutting path id: path1189)


(Start cutting path id: path1189)
(Change tool to Default tool)

G00 Z 5.0000
G00 X 11.5662 Y 21.2317

G01 Z -1.0000 F 100.0000(Penetrate)
G02 X 11.6142 Y 21.2629 Z -1.0000 I 0.0962 J -0.0955 F 3500.0000
G01 X 11.6359 Y 21.2582 Z -1.0000
G01 X 11.6359 Y 21.2411 Z -1.0000
G02 X 11.5880 Y 21.2100 Z -1.0000 I -0.0962 J 0.0954
G01 X 11.5663 Y 21.2146 Z -1.0000
G01 X 11.5662 Y 21.2317 Z -1.0000
G01 X 11.5662 Y 21.2317 Z -1.0000
G00 Z 5.0000

(End cutting path id: path1189)


(Start cutting path id: path1189)
(Change tool to Default tool)

G00 Z 5.0000
G00 X 11.6721 Y 21.5014

G01 Z -1.0000 F 100.0000(Penetrate)
G01 X 11.6842 Y 21.5334 Z -1.0000 F 3500.0000
G01 X 11.7312 Y 21.5192 Z -1.0000
G02 X 11.7511 Y 21.4738 Z -1.0000 I -0.0689 J -0.0572
G01 X 11.7390 Y 21.4600 Z -1.0000
G02 X 11.7034 Y 21.4701 Z -1.0000 I 0.0000 J 0.0677
G02 X 11.6721 Y 21.5014 Z -1.0000 I 0.0508 J 0.0820
G01 X 11.6721 Y 21.5014 Z -1.0000
G00 Z 5.0000

(End cutting path id: path1189)


(Start cutting path id: path1189)
(Change tool to Default tool)

G00 Z 5.0000
G00 X 11.4983 Y 21.9748

G01 Z -1.0000 F 100.0000(Penetrate)
G01 X 11.4889 Y 21.9942 Z -1.0000 F 3500.0000
G01 X 11.4600 Y 22.0039 Z -1.0000
G01 X 11.4366 Y 21.9886 Z -1.0000
G03 X 11.4218 Y 21.9165 Z -1.0000 I 0.1621 J -0.0709
G01 X 11.4382 Y 21.8836 Z -1.0000
G01 X 11.4600 Y 21.8874 Z -1.0000
G03 X 11.4923 Y 21.9473 Z -1.0000 I -0.3552 J 0.2295
G03 X 11.4983 Y 21.9748 Z -1.0000 I -0.0662 J 0.0290
G01 X 11.4983 Y 21.9748 Z -1.0000
G00 Z 5.0000

(End cutting path id: path1189)


(Start cutting path id: path1189)
(Change tool to Default tool)

G00 Z 5.0000
G00 X 11.1134 Y 21.7935

G01 Z -1.0000 F 100.0000(Penetrate)
G01 X 11.1248 Y 21.8194 Z -1.0000 F 3500.0000
G01 X 11.1369 Y 21.8170 Z -1.0000
G02 X 11.1452 Y 21.7684 Z -1.0000 I -0.1089 J -0.0436
G01 X 11.1338 Y 21.7425 Z -1.0000
G01 X 11.1217 Y 21.7450 Z -1.0000
G02 X 11.1134 Y 21.7935 Z -1.0000 I 0.1092 J 0.0437
G01 X 11.1134 Y 21.7935 Z -1.0000
G00 Z 5.0000

(End cutting path id: path1189)


(Start cutting path id: path1189)
(Change tool to Default tool)

G00 Z 5.0000
G00 X 11.0791 Y 22.2176

G01 Z -1.0000 F 100.0000(Penetrate)
G02 X 11.0888 Y 22.2661 Z -1.0000 I 0.1336 J -0.0016 F 3500.0000
G01 X 11.0984 Y 22.2655 Z -1.0000
G02 X 11.1068 Y 22.1973 Z -1.0000 I -0.2473 J -0.0648
G02 X 11.0970 Y 22.1489 Z -1.0000 I -0.1343 J 0.0018
G01 X 11.0874 Y 22.1495 Z -1.0000
G02 X 11.0791 Y 22.2176 Z -1.0000 I 0.2491 J 0.0649
G01 X 11.0791 Y 22.2176 Z -1.0000
G00 Z 5.0000

(End cutting path id: path1189)


(Start cutting path id: path1189)
(Change tool to Default tool)

G00 Z 5.0000
G00 X 11.0432 Y 22.5090

G01 Z -1.0000 F 100.0000(Penetrate)
G02 X 11.0516 Y 22.5965 Z -1.0000 I 0.4618 J -0.0000 F 3500.0000
G01 X 11.0601 Y 22.5965 Z -1.0000
G02 X 11.0685 Y 22.5090 Z -1.0000 I -0.4519 J -0.0874
G02 X 11.0601 Y 22.4216 Z -1.0000 I -0.4603 J 0.0000
G01 X 11.0516 Y 22.4216 Z -1.0000
G02 X 11.0432 Y 22.5090 Z -1.0000 I 0.4546 J 0.0874
G01 X 11.0432 Y 22.5090 Z -1.0000
G00 Z 5.0000

(End cutting path id: path1189)


(Start cutting path id: path1189)
(Change tool to Default tool)

G00 Z 5.0000
G00 X 11.2535 Y 22.4775

G01 Z -1.0000 F 100.0000(Penetrate)
G01 X 11.2414 Y 22.4799 Z -1.0000 F 3500.0000
G01 X 11.2300 Y 22.4540 Z -1.0000
G03 X 11.2383 Y 22.4055 Z -1.0000 I 0.1173 J -0.0049
G01 X 11.2504 Y 22.4030 Z -1.0000
G01 X 11.2618 Y 22.4289 Z -1.0000
G03 X 11.2535 Y 22.4775 Z -1.0000 I -0.1177 J 0.0049
G01 X 11.2535 Y 22.4775 Z -1.0000
G00 Z 5.0000

(End cutting path id: path1189)


(Start cutting path id: path1189)
(Change tool to Default tool)

G00 Z 5.0000
G00 X 11.4495 Y 22.5325

G01 Z -1.0000 F 100.0000(Penetrate)
G01 X 11.4236 Y 22.5439 Z -1.0000 F 3500.0000
G03 X 11.3751 Y 22.5356 Z -1.0000 I -0.0049 J -0.1177
G01 X 11.3726 Y 22.5235 Z -1.0000
G01 X 11.3985 Y 22.5121 Z -1.0000
G03 X 11.4470 Y 22.5204 Z -1.0000 I 0.0049 J 0.1173
G01 X 11.4495 Y 22.5325 Z -1.0000
G01 X 11.4495 Y 22.5325 Z -1.0000
G00 Z 5.0000

(End cutting path id: path1189)


(Start cutting path id: path1189)
(Change tool to Default tool)

G00 Z 5.0000
G00 X 11.5433 Y 22.6213

G01 Z -1.0000 F 100.0000(Penetrate)
G02 X 11.5195 Y 22.6546 Z -1.0000 I 0.0291 J 0.0459 F 3500.0000
G01 X 11.5295 Y 22.6788 Z -1.0000
G01 X 11.5606 Y 22.6795 Z -1.0000
G02 X 11.5907 Y 22.6448 Z -1.0000 I -0.0327 J -0.0589
G01 X 11.5808 Y 22.6193 Z -1.0000
G01 X 11.5433 Y 22.6213 Z -1.0000
G01 X 11.5433 Y 22.6213 Z -1.0000
G00 Z 5.0000

(End cutting path id: path1189)


(Start cutting path id: path1189)
(Change tool to Default tool)

G00 Z 5.0000
G00 X 11.3970 Y 22.6567

G01 Z -1.0000 F 100.0000(Penetrate)
G01 X 11.3963 Y 22.6831 Z -1.0000 F 3500.0000
G03 X 11.3452 Y 22.7321 Z -1.0000 I -0.1430 J -0.0982
G01 X 11.3067 Y 22.7323 Z -1.0000
G01 X 11.2940 Y 22.7010 Z -1.0000
G03 X 11.3459 Y 22.6406 Z -1.0000 I 0.0878 J 0.0230
G01 X 11.3970 Y 22.6567 Z -1.0000
G01 X 11.3970 Y 22.6567 Z -1.0000
G00 Z 5.0000

(End cutting path id: path1189)


(Start cutting path id: path1189)
(Change tool to Default tool)

G00 Z 5.0000
G00 X 11.3424 Y 23.1680

G01 Z -1.0000 F 100.0000(Penetrate)
G03 X 11.3825 Y 23.2060 Z -1.0000 I -0.0766 J 0.1211 F 3500.0000
G01 X 11.3812 Y 23.2225 Z -1.0000
G01 X 11.3617 Y 23.2266 Z -1.0000
G03 X 11.2874 Y 23.1858 Z -1.0000 I 0.1197 J -0.3058
G01 X 11.2913 Y 23.1616 Z -1.0000
G03 X 11.3424 Y 23.1680 Z -1.0000 I 0.0187 J 0.0577
G01 X 11.3424 Y 23.1680 Z -1.0000
G00 Z 5.0000

(End cutting path id: path1189)


(Start cutting path id: path1189)
(Change tool to Default tool)

G00 Z 5.0000
G00 X 11.6543 Y 23.2667

G01 Z -1.0000 F 100.0000(Penetrate)
G02 X 11.6669 Y 23.3124 Z -1.0000 I 0.0893 J 0.0000 F 3500.0000
G01 X 11.6890 Y 23.3249 Z -1.0000
G01 X 11.7039 Y 23.3404 Z -1.0000
G03 X 11.6826 Y 23.4870 Z -1.0000 I -0.7092 J -0.0280
G03 X 11.6373 Y 23.5701 Z -1.0000 I -0.1851 J -0.0470
G01 X 11.6103 Y 23.5647 Z -1.0000
G02 X 11.5689 Y 23.4950 Z -1.0000 I -0.2105 J 0.0779
G01 X 11.5367 Y 23.4804 Z -1.0000
G01 X 11.5170 Y 23.4677 Z -1.0000
G01 X 11.5187 Y 23.4409 Z -1.0000
G03 X 11.5469 Y 23.4173 Z -1.0000 I 0.0495 J 0.0306
G01 X 11.5727 Y 23.4196 Z -1.0000
G01 X 11.6079 Y 23.3986 Z -1.0000
G02 X 11.5628 Y 23.2563 Z -1.0000 I -0.3053 J 0.0185
G01 X 11.5631 Y 23.2251 Z -1.0000
G01 X 11.5938 Y 23.2084 Z -1.0000
G03 X 11.6369 Y 23.2258 Z -1.0000 I 0.0000 J 0.0623
G03 X 11.6543 Y 23.2667 Z -1.0000 I -0.0393 J 0.0409
G01 X 11.6543 Y 23.2667 Z -1.0000
G00 Z 5.0000

(End cutting path id: path1189)


(Start cutting path id: path1189)
(Change tool to Default tool)

G00 Z 5.0000
G00 X 12.4204 Y 23.3488

G01 Z -1.0000 F 100.0000(Penetrate)
G03 X 12.3352 Y 23.3504 Z -1.0000 I -0.0434 J -0.0434 F 3500.0000
G03 X 12.2760 Y 23.2144 Z -1.0000 I 0.1265 J -0.1359
G01 X 12.2955 Y 23.1995 Z -1.0000
G03 X 12.3612 Y 23.2375 Z -1.0000 I -0.0386 J 0.1423
G03 X 12.4243 Y 23.3228 Z -1.0000 I -0.2540 J 0.2540
G01 X 12.4204 Y 23.3488 Z -1.0000
G01 X 12.4204 Y 23.3488 Z -1.0000
G00 Z 5.0000

(End cutting path id: path1189)


(Start cutting path id: path1189)
(Change tool to Default tool)

G00 Z 5.0000
G00 X 12.2915 Y 23.7968

G01 Z -1.0000 F 100.0000(Penetrate)
G01 X 12.2939 Y 23.8159 Z -1.0000 F 3500.0000
G02 X 12.3431 Y 23.8475 Z -1.0000 I 0.1005 J -0.1023
G01 X 12.3671 Y 23.8773 Z -1.0000
G01 X 12.3526 Y 23.9092 Z -1.0000
G03 X 12.2940 Y 23.9406 Z -1.0000 I -0.2458 J -0.3886
G03 X 12.2701 Y 23.9460 Z -1.0000 I -0.0253 J -0.0568
G03 X 12.1486 Y 23.8612 Z -1.0000 I -0.0029 J -0.1252
G03 X 12.1861 Y 23.6997 Z -1.0000 I 0.1485 J -0.0506
G03 X 12.2774 Y 23.6978 Z -1.0000 I 0.0466 J 0.0466
G03 X 12.2915 Y 23.7968 Z -1.0000 I -0.0536 J 0.0581
G01 X 12.2915 Y 23.7968 Z -1.0000
G00 Z 5.0000

(End cutting path id: path1189)


(Start cutting path id: path1189)
(Change tool to Default tool)

G00 Z 5.0000
G00 X 12.2216 Y 24.1253

G01 Z -1.0000 F 100.0000(Penetrate)
G03 X 12.1887 Y 24.1598 Z -1.0000 I -0.0578 J -0.0222 F 3500.0000
G01 X 12.1569 Y 24.1538 Z -1.0000
G03 X 12.1360 Y 24.1112 Z -1.0000 I 0.0515 J -0.0515
G03 X 12.1439 Y 24.0476 Z -1.0000 I 0.1315 J -0.0161
G03 X 12.1767 Y 24.0131 Z -1.0000 I 0.0578 J 0.0222
G01 X 12.2086 Y 24.0191 Z -1.0000
G03 X 12.2294 Y 24.0618 Z -1.0000 I -0.0515 J 0.0515
G03 X 12.2216 Y 24.1253 Z -1.0000 I -0.1315 J 0.0161
G01 X 12.2216 Y 24.1253 Z -1.0000
G00 Z 5.0000

(End cutting path id: path1189)


(Start cutting path id: path1189)
(Change tool to Default tool)

G00 Z 5.0000
G00 X 12.7810 Y 24.4494

G01 Z -1.0000 F 100.0000(Penetrate)
G02 X 12.7902 Y 24.4808 Z -1.0000 I 0.0585 J 0.0000 F 3500.0000
G02 X 12.8194 Y 24.5097 Z -1.0000 I 0.0776 J -0.0495
G01 X 12.8343 Y 24.5049 Z -1.0000
G01 X 12.8347 Y 24.4731 Z -1.0000
G02 X 12.8002 Y 24.4369 Z -1.0000 I -0.0608 J 0.0233
G01 X 12.7810 Y 24.4494 Z -1.0000
G01 X 12.7810 Y 24.4494 Z -1.0000
G00 Z 5.0000

(End cutting path id: path1189)


(Start cutting path id: path1189)
(Change tool to Default tool)

G00 Z 5.0000
G00 X 12.9241 Y 24.8475

G01 Z -1.0000 F 100.0000(Penetrate)
G01 X 12.9121 Y 24.8500 Z -1.0000 F 3500.0000
G01 X 12.9007 Y 24.8240 Z -1.0000
G03 X 12.9090 Y 24.7755 Z -1.0000 I 0.1173 J -0.0049
G01 X 12.9211 Y 24.7730 Z -1.0000
G01 X 12.9325 Y 24.7990 Z -1.0000
G03 X 12.9242 Y 24.8475 Z -1.0000 I -0.1177 J 0.0049
G01 X 12.9241 Y 24.8475 Z -1.0000
G00 Z 5.0000

(End cutting path id: path1189)


(Start cutting path id: path1189)
(Change tool to Default tool)

G00 Z 5.0000
G00 X 12.3050 Y 25.4439

G01 Z -1.0000 F 100.0000(Penetrate)
G03 X 12.4691 Y 25.5540 Z -1.0000 I -0.1968 J 0.4710 F 3500.0000
G03 X 12.5085 Y 25.6474 Z -1.0000 I -0.0950 J 0.0951
G01 X 12.4896 Y 25.6657 Z -1.0000
G03 X 12.4022 Y 25.6430 Z -1.0000 I 0.0088 J -0.2132
G02 X 12.1376 Y 25.5751 Z -1.0000 I -0.2869 J 0.5682
G02 X 11.9421 Y 25.6269 Z -1.0000 I -0.0122 J 0.3484
G03 X 11.8424 Y 25.6235 Z -1.0000 I -0.0473 J -0.0765
G03 X 11.8265 Y 25.5439 Z -1.0000 I 0.0347 J -0.0483
G03 X 11.8609 Y 25.5145 Z -1.0000 I 0.0629 J 0.0389
G03 X 11.9298 Y 25.5007 Z -1.0000 I 0.0689 J 0.1649
G02 X 11.9944 Y 25.4831 Z -1.0000 I -0.0000 J -0.1272
G02 X 12.0288 Y 25.4424 Z -1.0000 I -0.0410 J -0.0696
G03 X 12.0904 Y 25.4003 Z -1.0000 I 0.0613 J 0.0235
G03 X 12.3050 Y 25.4439 Z -1.0000 I -0.0031 J 0.5645
G01 X 12.3050 Y 25.4439 Z -1.0000
G00 Z 5.0000

(End cutting path id: path1189)


(Start cutting path id: path1189)
(Change tool to Default tool)

G00 Z 5.0000
G00 X 13.1307 Y 23.5969

G01 Z -1.0000 F 100.0000(Penetrate)
G01 X 13.1421 Y 23.6244 Z -1.0000 F 3500.0000
G01 X 13.1696 Y 23.6358 Z -1.0000
G01 X 13.1970 Y 23.6244 Z -1.0000
G01 X 13.2084 Y 23.5969 Z -1.0000
G01 X 13.1970 Y 23.5694 Z -1.0000
G01 X 13.1696 Y 23.5581 Z -1.0000
G01 X 13.1421 Y 23.5694 Z -1.0000
G01 X 13.1307 Y 23.5969 Z -1.0000
G01 X 13.1307 Y 23.5969 Z -1.0000
G00 Z 5.0000

(End cutting path id: path1189)


(Start cutting path id: path1189)
(Change tool to Default tool)

G00 Z 5.0000
G00 X 12.7899 Y 22.9048

G01 Z -1.0000 F 100.0000(Penetrate)
G02 X 12.8562 Y 22.9728 Z -1.0000 I 0.1034 J -0.0345 F 3500.0000
G01 X 12.8976 Y 22.9438 Z -1.0000
G01 X 12.8854 Y 22.9143 Z -1.0000
G02 X 12.8361 Y 22.8823 Z -1.0000 I -0.0999 J 0.0998
G01 X 12.7987 Y 22.8839 Z -1.0000
G01 X 12.7899 Y 22.9048 Z -1.0000
G01 X 12.7899 Y 22.9048 Z -1.0000
G00 Z 5.0000

(End cutting path id: path1189)


(Start cutting path id: path1189)
(Change tool to Default tool)

G00 Z 5.0000
G00 X 12.6256 Y 22.7657

G01 Z -1.0000 F 100.0000(Penetrate)
G01 X 12.6190 Y 22.7744 Z -1.0000 F 3500.0000
G03 X 12.5674 Y 22.7810 Z -1.0000 I -0.0516 J -0.1971
G03 X 12.5223 Y 22.7677 Z -1.0000 I 0.0000 J -0.0830
G01 X 12.5091 Y 22.7434 Z -1.0000
G01 X 12.5228 Y 22.7256 Z -1.0000
G03 X 12.5674 Y 22.7281 Z -1.0000 I 0.0185 J 0.0705
G03 X 12.6196 Y 22.7546 Z -1.0000 I -0.1017 J 0.2649
G01 X 12.6256 Y 22.7657 Z -1.0000
G01 X 12.6256 Y 22.7657 Z -1.0000
G00 Z 5.0000

(End cutting path id: path1189)


(Start cutting path id: path1189)
(Change tool to Default tool)

G00 Z 5.0000
G00 X 12.4314 Y 22.7374

G01 Z -1.0000 F 100.0000(Penetrate)
G03 X 12.4224 Y 22.7673 Z -1.0000 I -0.0541 J 0.0000 F 3500.0000
G03 X 12.3812 Y 22.8131 Z -1.0000 I -0.1758 J -0.1164
G01 X 12.3477 Y 22.8155 Z -1.0000
G01 X 12.3254 Y 22.7790 Z -1.0000
G03 X 12.3401 Y 22.7223 Z -1.0000 I 0.0902 J -0.0068
G01 X 12.3755 Y 22.7033 Z -1.0000
G03 X 12.4191 Y 22.7155 Z -1.0000 I 0.0000 J 0.0837
G01 X 12.4314 Y 22.7374 Z -1.0000
G01 X 12.4314 Y 22.7374 Z -1.0000
G00 Z 5.0000

(End cutting path id: path1189)


(Start cutting path id: path1189)
(Change tool to Default tool)

G00 Z 5.0000
G00 X 12.4855 Y 22.5316

G01 Z -1.0000 F 100.0000(Penetrate)
G03 X 12.4773 Y 22.5830 Z -1.0000 I -0.0484 J 0.0186 F 3500.0000
G01 X 12.4314 Y 22.5980 Z -1.0000
G03 X 12.3711 Y 22.5494 Z -1.0000 I 0.0239 J -0.0913
G01 X 12.3796 Y 22.4961 Z -1.0000
G03 X 12.4349 Y 22.4831 Z -1.0000 I 0.0381 J 0.0381
G03 X 12.4855 Y 22.5316 Z -1.0000 I -0.0262 J 0.0780
G01 X 12.4855 Y 22.5316 Z -1.0000
G00 Z 5.0000

(End cutting path id: path1189)


(Start cutting path id: path1189)
(Change tool to Default tool)

G00 Z 5.0000
G00 X 12.5091 Y 22.2759

G01 Z -1.0000 F 100.0000(Penetrate)
G01 X 12.4977 Y 22.3034 Z -1.0000 F 3500.0000
G01 X 12.4702 Y 22.3148 Z -1.0000
G01 X 12.4428 Y 22.3034 Z -1.0000
G01 X 12.4314 Y 22.2759 Z -1.0000
G01 X 12.4428 Y 22.2484 Z -1.0000
G01 X 12.4702 Y 22.2371 Z -1.0000
G01 X 12.4977 Y 22.2484 Z -1.0000
G01 X 12.5091 Y 22.2759 Z -1.0000
G01 X 12.5091 Y 22.2759 Z -1.0000
G00 Z 5.0000

(End cutting path id: path1189)


(Start cutting path id: path1189)
(Change tool to Default tool)

G00 Z 5.0000
G00 X 12.4579 Y 22.1666

G01 Z -1.0000 F 100.0000(Penetrate)
G01 X 12.4458 Y 22.1691 Z -1.0000 F 3500.0000
G01 X 12.4344 Y 22.1432 Z -1.0000
G03 X 12.4427 Y 22.0947 Z -1.0000 I 0.1173 J -0.0049
G01 X 12.4548 Y 22.0922 Z -1.0000
G01 X 12.4662 Y 22.1181 Z -1.0000
G03 X 12.4579 Y 22.1666 Z -1.0000 I -0.1177 J 0.0049
G01 X 12.4579 Y 22.1666 Z -1.0000
G00 Z 5.0000

(End cutting path id: path1189)


(Start cutting path id: path1189)
(Change tool to Default tool)

G00 Z 5.0000
G00 X 12.6576 Y 21.7055

G01 Z -1.0000 F 100.0000(Penetrate)
G03 X 12.6615 Y 21.7745 Z -1.0000 I -0.2527 J 0.0487 F 3500.0000
G03 X 12.6473 Y 21.8373 Z -1.0000 I -0.2249 J -0.0178
G01 X 12.6172 Y 21.8549 Z -1.0000
G03 X 12.5675 Y 21.8254 Z -1.0000 I 0.0114 J -0.0757
G03 X 12.5187 Y 21.6684 Z -1.0000 I 0.1930 J -0.1461
G01 X 12.5766 Y 21.6227 Z -1.0000
G03 X 12.6290 Y 21.6509 Z -1.0000 I -0.0190 J 0.0981
G03 X 12.6576 Y 21.7055 Z -1.0000 I -0.0765 J 0.0748
G01 X 12.6576 Y 21.7055 Z -1.0000
G00 Z 5.0000

(End cutting path id: path1189)


(Start cutting path id: path1189)
(Change tool to Default tool)

G00 Z 5.0000
G00 X 12.7473 Y 21.0715

G01 Z -1.0000 F 100.0000(Penetrate)
G01 X 12.7643 Y 21.0833 Z -1.0000 F 3500.0000
G01 X 12.7616 Y 21.1103 Z -1.0000
G03 X 12.6465 Y 21.1829 Z -1.0000 I -0.1317 J -0.0814
G03 X 12.5868 Y 21.1292 Z -1.0000 I -0.0058 J -0.0536
G01 X 12.5911 Y 21.1105 Z -1.0000
G03 X 12.6353 Y 21.0308 Z -1.0000 I 0.8526 J 0.4206
G03 X 12.6756 Y 20.9996 Z -1.0000 I 0.0617 J 0.0382
G01 X 12.6965 Y 21.0119 Z -1.0000
G02 X 12.7195 Y 21.0586 Z -1.0000 I 0.1032 J -0.0217
G01 X 12.7473 Y 21.0715 Z -1.0000
G01 X 12.7473 Y 21.0715 Z -1.0000
G00 Z 5.0000

(End cutting path id: path1189)


(Start cutting path id: path1189)
(Change tool to Default tool)

G00 Z 5.0000
G00 X 12.8587 Y 20.5810

G01 Z -1.0000 F 100.0000(Penetrate)
G03 X 12.8236 Y 20.8420 Z -1.0000 I -0.9860 J -0.0000 F 3500.0000
G01 X 12.7774 Y 20.8772 Z -1.0000
G01 X 12.7626 Y 20.8648 Z -1.0000
G03 X 12.7670 Y 20.8189 Z -1.0000 I 0.0846 J -0.0151
G01 X 12.7623 Y 20.7793 Z -1.0000
G01 X 12.7269 Y 20.7606 Z -1.0000
G03 X 12.6852 Y 20.7399 Z -1.0000 I 0.0000 J -0.0524
G03 X 12.6645 Y 20.6784 Z -1.0000 I 0.0810 J -0.0615
G03 X 12.6884 Y 20.6272 Z -1.0000 I 0.0669 J 0.0000
G03 X 12.7393 Y 20.6157 Z -1.0000 I 0.0365 J 0.0436
G02 X 12.7844 Y 20.6087 Z -1.0000 I 0.0145 J -0.0553
G01 X 12.7934 Y 20.5814 Z -1.0000
G03 X 12.7939 Y 20.5421 Z -1.0000 I 0.0495 J -0.0190
G01 X 12.8157 Y 20.5275 Z -1.0000
G01 X 12.8448 Y 20.5415 Z -1.0000
G03 X 12.8587 Y 20.5809 Z -1.0000 I -0.0491 J 0.0395
G01 X 12.8587 Y 20.5810 Z -1.0000
G00 Z 5.0000

(End cutting path id: path1189)


(Start cutting path id: path1189)
(Change tool to Default tool)

G00 Z 5.0000
G00 X 12.8976 Y 20.3893

G01 Z -1.0000 F 100.0000(Penetrate)
G03 X 12.8576 Y 20.4579 Z -1.0000 I -0.0789 J -0.0000 F 3500.0000
G03 X 12.7641 Y 20.4648 Z -1.0000 I -0.0541 J -0.0956
G01 X 12.7353 Y 20.4319 Z -1.0000
G03 X 12.7459 Y 20.3870 Z -1.0000 I 0.0504 J -0.0118
G03 X 12.8487 Y 20.3397 Z -1.0000 I 0.1009 J 0.0837
G01 X 12.8976 Y 20.3892 Z -1.0000
G01 X 12.8976 Y 20.3893 Z -1.0000
G00 Z 5.0000

(End cutting path id: path1189)


(Start cutting path id: path1189)
(Change tool to Default tool)

G00 Z 5.0000
G00 X 12.9071 Y 20.0117

G01 Z -1.0000 F 100.0000(Penetrate)
G02 X 12.8791 Y 20.0364 Z -1.0000 I 0.0169 J 0.0472 F 3500.0000
G01 X 12.8804 Y 20.0649 Z -1.0000
G01 X 12.8833 Y 20.0985 Z -1.0000
G03 X 12.8418 Y 20.1615 Z -1.0000 I -0.1742 J -0.0697
G01 X 12.8030 Y 20.1692 Z -1.0000
G01 X 12.7810 Y 20.1364 Z -1.0000
G03 X 12.8468 Y 19.9716 Z -1.0000 I 0.2394 J 0.0000
G03 X 12.9364 Y 19.9727 Z -1.0000 I 0.0443 J 0.0420
G01 X 12.9371 Y 19.9895 Z -1.0000
G03 X 12.9071 Y 20.0117 Z -1.0000 I -0.0519 J -0.0391
G01 X 12.9071 Y 20.0117 Z -1.0000
G00 Z 5.0000

(End cutting path id: path1189)


(Start cutting path id: path1189)
(Change tool to Default tool)

G00 Z 5.0000
G00 X 14.3420 Y 21.2888

G01 Z -1.0000 F 100.0000(Penetrate)
G03 X 14.3221 Y 21.4394 Z -1.0000 I -1.5326 J -0.1267 F 3500.0000
G03 X 14.2740 Y 21.6599 Z -1.0000 I -3.3468 J -0.6133
G02 X 14.2290 Y 21.8805 Z -1.0000 I 2.3597 J 0.5967
G02 X 14.2186 Y 22.0144 Z -1.0000 I 0.8562 J 0.1339
G03 X 14.2064 Y 22.1475 Z -1.0000 I -0.7322 J 0.0000
G03 X 14.1657 Y 22.3002 Z -1.0000 I -1.0057 J -0.1860
G02 X 14.1227 Y 22.4531 Z -1.0000 I 1.1931 J 0.4188
G02 X 14.0852 Y 22.6747 Z -1.0000 I 2.4790 J 0.5332
G03 X 14.0457 Y 22.8742 Z -1.0000 I -1.4032 J -0.1737
G01 X 14.0287 Y 22.8809 Z -1.0000
G01 X 14.0164 Y 22.8556 Z -1.0000
G03 X 14.0853 Y 22.3461 Z -1.0000 I 8.8496 J 0.9372
G02 X 14.1676 Y 21.8287 Z -1.0000 I -45.0811 J -7.4339
G02 X 14.2197 Y 21.4684 Z -1.0000 I -21.7346 J -3.3285
G03 X 14.2863 Y 21.1359 Z -1.0000 I 2.6996 J 0.3678
G01 X 14.3117 Y 21.1224 Z -1.0000
G01 X 14.3352 Y 21.1497 Z -1.0000
G03 X 14.3420 Y 21.2888 Z -1.0000 I -0.5231 J 0.0953
G01 X 14.3420 Y 21.2888 Z -1.0000
G00 Z 5.0000

(End cutting path id: path1189)


(Start cutting path id: path1189)
(Change tool to Default tool)

G00 Z 5.0000
G00 X 14.7908 Y 21.2504

G01 Z -1.0000 F 100.0000(Penetrate)
G01 X 14.7909 Y 21.3049 Z -1.0000 F 3500.0000
G02 X 14.8846 Y 21.3435 Z -1.0000 I 0.0937 J -0.0944
G02 X 14.9379 Y 21.3252 Z -1.0000 I 0.0000 J -0.0868
G01 X 14.9471 Y 21.2949 Z -1.0000
G02 X 14.8772 Y 21.2280 Z -1.0000 I -0.0983 J 0.0327
G02 X 14.7908 Y 21.2504 Z -1.0000 I -0.0241 J 0.0847
G01 X 14.7908 Y 21.2504 Z -1.0000
G00 Z 5.0000

(End cutting path id: path1189)


(Start cutting path id: path1189)
(Change tool to Default tool)

G00 Z 5.0000
G00 X 16.0089 Y 21.5114

G01 Z -1.0000 F 100.0000(Penetrate)
G01 X 15.9798 Y 21.5006 Z -1.0000 F 3500.0000
G03 X 15.9964 Y 21.3434 Z -1.0000 I 0.4423 J -0.0329
G01 X 16.0175 Y 21.3326 Z -1.0000
G01 X 16.0377 Y 21.3579 Z -1.0000
G03 X 16.0341 Y 21.4636 Z -1.0000 I -0.3484 J 0.0409
G03 X 16.0089 Y 21.5114 Z -1.0000 I -0.0897 J -0.0169
G01 X 16.0089 Y 21.5114 Z -1.0000
G00 Z 5.0000

(End cutting path id: path1189)


(Start cutting path id: path1189)
(Change tool to Default tool)

G00 Z 5.0000
G00 X 15.9782 Y 21.6543

G01 Z -1.0000 F 100.0000(Penetrate)
G03 X 15.9530 Y 21.7256 Z -1.0000 I -0.4322 J -0.1130 F 3500.0000
G01 X 15.9430 Y 21.7320 Z -1.0000
G01 X 15.9349 Y 21.7252 Z -1.0000
G03 X 15.9281 Y 21.6543 Z -1.0000 I 0.3708 J -0.0710
G03 X 15.9419 Y 21.5904 Z -1.0000 I 0.1548 J 0.0000
G01 X 15.9633 Y 21.5766 Z -1.0000
G01 X 15.9803 Y 21.5906 Z -1.0000
G03 X 15.9782 Y 21.6543 Z -1.0000 I -0.1417 J 0.0272
G01 X 15.9782 Y 21.6543 Z -1.0000
G00 Z 5.0000

(End cutting path id: path1189)


(Start cutting path id: path1189)
(Change tool to Default tool)

G00 Z 5.0000
G00 X 16.1375 Y 20.8481

G01 Z -1.0000 F 100.0000(Penetrate)
G03 X 16.0885 Y 21.0243 Z -1.0000 I -0.6377 J -0.0825 F 3500.0000
G01 X 16.0631 Y 21.0175 Z -1.0000
G02 X 16.0802 Y 20.8273 Z -1.0000 I -5.4828 J -0.5893
G02 X 16.0835 Y 20.7358 Z -1.0000 I -1.2613 J -0.0915
G03 X 16.0994 Y 20.6600 Z -1.0000 I 0.1889 J -0.0000
G01 X 16.1237 Y 20.6441 Z -1.0000
G01 X 16.1432 Y 20.6623 Z -1.0000
G03 X 16.1375 Y 20.8481 Z -1.0000 I -0.9468 J 0.0641
G01 X 16.1375 Y 20.8481 Z -1.0000
G00 Z 5.0000

(End cutting path id: path1189)


(Start cutting path id: path1189)
(Change tool to Default tool)

G00 Z 5.0000
G00 X 16.1727 Y 20.4984

G01 Z -1.0000 F 100.0000(Penetrate)
G03 X 16.1407 Y 20.5913 Z -1.0000 I -0.3404 J -0.0654 F 3500.0000
G01 X 16.1179 Y 20.6052 Z -1.0000
G01 X 16.0991 Y 20.5857 Z -1.0000
G03 X 16.1234 Y 20.4664 Z -1.0000 I 0.3784 J 0.0153
G01 X 16.1547 Y 20.4562 Z -1.0000
G01 X 16.1727 Y 20.4984 Z -1.0000
G01 X 16.1727 Y 20.4984 Z -1.0000
G00 Z 5.0000

(End cutting path id: path1189)


(Start cutting path id: path1189)
(Change tool to Default tool)

G00 Z 5.0000
G00 X 16.4153 Y 19.3134

G01 Z -1.0000 F 100.0000(Penetrate)
G02 X 16.3879 Y 19.4981 Z -1.0000 I 16.9328 J 2.6091 F 3500.0000
G02 X 16.3751 Y 19.5951 Z -1.0000 I 4.6324 J 0.6622
G03 X 16.3606 Y 19.6918 Z -1.0000 I -1.7613 J -0.2143
G03 X 16.3205 Y 19.9015 Z -1.0000 I -8.3412 J -1.4851
G02 X 16.2791 Y 20.1109 Z -1.0000 I 16.8692 J 3.4441
G02 X 16.2778 Y 20.1249 Z -1.0000 I 0.0731 J 0.0140
G01 X 16.2721 Y 20.1333 Z -1.0000
G03 X 16.2424 Y 20.1390 Z -1.0000 I -0.0296 J -0.0744
G01 X 16.2177 Y 20.1135 Z -1.0000
G03 X 16.2595 Y 19.5951 Z -1.0000 I 5.2974 J 0.1660
G03 X 16.3608 Y 19.1751 Z -1.0000 I 2.0007 J 0.2606
G03 X 16.4265 Y 19.1288 Z -1.0000 I 0.0657 J 0.0235
G01 X 16.4342 Y 19.1370 Z -1.0000
G03 X 16.4153 Y 19.3134 Z -1.0000 I -1.9368 J -0.1186
G01 X 16.4153 Y 19.3134 Z -1.0000
G00 Z 5.0000

(End cutting path id: path1189)


(Start cutting path id: path1189)
(Change tool to Default tool)

G00 Z 5.0000
G00 X 16.6150 Y 18.1284

G01 Z -1.0000 F 100.0000(Penetrate)
G03 X 16.4824 Y 18.9524 Z -1.0000 I -11.0144 J -1.3488 F 3500.0000
G01 X 16.4484 Y 18.9627 Z -1.0000
G03 X 16.4252 Y 18.9009 Z -1.0000 I 0.0563 J -0.0563
G03 X 16.4838 Y 18.4489 Z -1.0000 I 3.7907 J 0.2616
G02 X 16.5421 Y 18.1379 Z -1.0000 I -42.7950 J -8.1834
G02 X 16.5677 Y 17.9924 Z -1.0000 I -9.2967 J -1.7078
G01 X 16.6002 Y 17.9897 Z -1.0000
G03 X 16.6150 Y 18.1284 Z -1.0000 I -0.2913 J 0.1012
G01 X 16.6150 Y 18.1284 Z -1.0000
G00 Z 5.0000

(End cutting path id: path1189)


(Start cutting path id: path1189)
(Change tool to Default tool)

G00 Z 5.0000
G00 X 16.9066 Y 16.3398

G01 Z -1.0000 F 100.0000(Penetrate)
G03 X 16.8728 Y 16.3564 Z -1.0000 I -0.0411 J -0.0411 F 3500.0000
G01 X 16.8606 Y 16.3456 Z -1.0000
G03 X 16.8904 Y 16.2738 Z -1.0000 I 0.1017 J -0.0000
G01 X 16.9325 Y 16.2738 Z -1.0000
G01 X 16.9367 Y 16.2938 Z -1.0000
G03 X 16.9066 Y 16.3398 Z -1.0000 I -0.1252 J -0.0491
G01 X 16.9066 Y 16.3398 Z -1.0000
G00 Z 5.0000

(End cutting path id: path1189)


(Start cutting path id: path1189)
(Change tool to Default tool)

G00 Z 5.0000
G00 X 17.0680 Y 15.6827

G01 Z -1.0000 F 100.0000(Penetrate)
G03 X 17.0156 Y 15.7661 Z -1.0000 I -0.1248 J -0.0202 F 3500.0000
G01 X 16.9771 Y 15.7461 Z -1.0000
G03 X 17.0223 Y 15.5339 Z -1.0000 I 0.5209 J 0.0000
G01 X 17.0762 Y 15.5239 Z -1.0000
G01 X 17.0830 Y 15.5417 Z -1.0000
G03 X 17.0680 Y 15.6827 Z -1.0000 I -1.3009 J -0.0673
G01 X 17.0680 Y 15.6827 Z -1.0000
G00 Z 5.0000

(End cutting path id: path1189)


(Start cutting path id: path1189)
(Change tool to Default tool)

G00 Z 5.0000
G00 X 18.3012 Y 14.9554

G01 Z -1.0000 F 100.0000(Penetrate)
G01 X 18.3126 Y 14.9813 Z -1.0000 F 3500.0000
G01 X 18.3247 Y 14.9789 Z -1.0000
G02 X 18.3330 Y 14.9303 Z -1.0000 I -0.1089 J -0.0436
G01 X 18.3216 Y 14.9044 Z -1.0000
G01 X 18.3095 Y 14.9069 Z -1.0000
G02 X 18.3012 Y 14.9554 Z -1.0000 I 0.1092 J 0.0437
G01 X 18.3012 Y 14.9554 Z -1.0000
G00 Z 5.0000

(End cutting path id: path1189)


(Start cutting path id: path1189)
(Change tool to Default tool)

G00 Z 5.0000
G00 X 19.1590 Y 14.7773

G01 Z -1.0000 F 100.0000(Penetrate)
G02 X 19.1685 Y 14.8259 Z -1.0000 I 0.1299 J -0.0000 F 3500.0000
G01 X 19.1786 Y 14.8259 Z -1.0000
G02 X 19.1881 Y 14.7773 Z -1.0000 I -0.1203 J -0.0486
G02 X 19.1786 Y 14.7288 Z -1.0000 I -0.1298 J -0.0000
G01 X 19.1685 Y 14.7288 Z -1.0000
G02 X 19.1590 Y 14.7773 Z -1.0000 I 0.1203 J 0.0486
G01 X 19.1590 Y 14.7773 Z -1.0000
G00 Z 5.0000

(End cutting path id: path1189)


(Start cutting path id: path1189)
(Change tool to Default tool)

G00 Z 5.0000
G00 X 19.1918 Y 14.3476

G01 Z -1.0000 F 100.0000(Penetrate)
G01 X 19.2148 Y 14.3829 Z -1.0000 F 3500.0000
G01 X 19.2442 Y 14.3706 Z -1.0000
G02 X 19.2488 Y 14.3194 Z -1.0000 I -0.0876 J -0.0336
G01 X 19.2289 Y 14.2906 Z -1.0000
G01 X 19.2073 Y 14.2954 Z -1.0000
G02 X 19.1918 Y 14.3476 Z -1.0000 I 0.0801 J 0.0522
G01 X 19.1918 Y 14.3476 Z -1.0000
G00 Z 5.0000

(End cutting path id: path1189)


(Start cutting path id: path1189)
(Change tool to Default tool)

G00 Z 5.0000
G00 X 20.0496 Y 14.4536

G01 Z -1.0000 F 100.0000(Penetrate)
