%
(Header)
(Generated by gcodetools from Inkscape.)
(Using default header. To add your own header create file "header" in the output dir.)
M3
(Header end.)
G21 (All units in mm)

(Start cutting path id: path2)
(Change tool to Default tool)

G00 Z 5.0000
G00 X 19.1739 Y 12.1028

G01 Z -1.0000 F 100.0000(Penetrate)
G03 X 19.1763 Y 12.1344 Z -1.0000 I -0.0576 J 0.0203 F 3500.0000
G01 X 19.1671 Y 12.1385 Z -1.0000
G01 X 19.1448 Y 12.1376 Z -1.0000
G02 X 19.1037 Y 12.1708 Z -1.0000 I 0.0576 J 0.1132
G01 X 19.0942 Y 12.1931 Z -1.0000
G01 X 19.1005 Y 12.1971 Z -1.0000
G01 X 19.1224 Y 12.1998 Z -1.0000
G01 X 19.1359 Y 12.2325 Z -1.0000
G03 X 19.1260 Y 12.2836 Z -1.0000 I -0.1374 J 0.0000
G03 X 19.1057 Y 12.3078 Z -1.0000 I -0.0469 J -0.0188
G03 X 19.0767 Y 12.3161 Z -1.0000 I -0.0291 J -0.0471
G01 X 19.0569 Y 12.3079 Z -1.0000
G01 X 19.0543 Y 12.2912 Z -1.0000
G03 X 19.0801 Y 12.2630 Z -1.0000 I 0.0645 J 0.0332
G02 X 19.0987 Y 12.2432 Z -1.0000 I -0.0289 J -0.0457
G01 X 19.0946 Y 12.2363 Z -1.0000
G01 X 19.0716 Y 12.2448 Z -1.0000
G02 X 18.9790 Y 12.3383 Z -1.0000 I 0.6450 J 0.7310
G02 X 18.9212 Y 12.4485 Z -1.0000 I 0.2065 J 0.1785
G02 X 18.9196 Y 12.5682 Z -1.0000 I 0.2450 J 0.0633
G02 X 18.9516 Y 12.6446 Z -1.0000 I 0.2347 J -0.0537
G01 X 18.9674 Y 12.6428 Z -1.0000
G02 X 18.9759 Y 12.5895 Z -1.0000 I -0.1408 J -0.0497
G02 X 18.9644 Y 12.5140 Z -1.0000 I -0.3010 J 0.0071
G03 X 18.9606 Y 12.4471 Z -1.0000 I 0.1472 J -0.0420
G01 X 18.9792 Y 12.4242 Z -1.0000
G03 X 19.0133 Y 12.4224 Z -1.0000 I 0.0198 J 0.0516
G03 X 19.0510 Y 12.4434 Z -1.0000 I -0.0228 J 0.0854
G01 X 19.0671 Y 12.4462 Z -1.0000
G01 X 19.0726 Y 12.4341 Z -1.0000
G02 X 19.0501 Y 12.4050 Z -1.0000 I -0.0511 J 0.0164
G02 X 19.0115 Y 12.3957 Z -1.0000 I -0.0332 J 0.0530
G01 X 18.9913 Y 12.3855 Z -1.0000
G01 X 18.9927 Y 12.3651 Z -1.0000
G03 X 19.0270 Y 12.3448 Z -1.0000 I 0.0455 J 0.0378
G03 X 19.1070 Y 12.3430 Z -1.0000 I 0.0454 J 0.2343
G03 X 19.1814 Y 12.3652 Z -1.0000 I -0.0392 J 0.2672
G01 X 19.1925 Y 12.3826 Z -1.0000
G03 X 19.1859 Y 12.4076 Z -1.0000 I -0.0505 J -0.0000
G03 X 19.1024 Y 12.5408 Z -1.0000 I -1.6198 J -0.9237
G02 X 19.0333 Y 12.6778 Z -1.0000 I 0.4661 J 0.3206
G02 X 19.0180 Y 12.7866 Z -1.0000 I 0.2742 J 0.0941
G02 X 19.0296 Y 12.9007 Z -1.0000 I 1.1419 J -0.0579
G02 X 19.0785 Y 13.1846 Z -1.0000 I 7.1617 J -1.0896
G03 X 19.1277 Y 13.4687 Z -1.0000 I -7.3471 J 1.4187
G03 X 19.1611 Y 13.7227 Z -1.0000 I -5.8391 J 0.8958
G03 X 19.1839 Y 13.9780 Z -1.0000 I -6.4421 J 0.7040
G03 X 19.2240 Y 14.6299 Z -1.0000 I -41.8564 J 2.9048
G02 X 19.2977 Y 15.2363 Z -1.0000 I 4.5463 J -0.2445
G01 X 19.3462 Y 15.2719 Z -1.0000
G02 X 19.3934 Y 15.2265 Z -1.0000 I -0.0063 J -0.0538
G02 X 19.4302 Y 14.7330 Z -1.0000 I -3.0513 J -0.4757
G02 X 19.4043 Y 14.2068 Z -1.0000 I -6.0712 J 0.0350
G02 X 19.3483 Y 13.8502 Z -1.0000 I -2.8375 J 0.2634
G03 X 19.2922 Y 13.4933 Z -1.0000 I 2.7749 J -0.6185
G03 X 19.2522 Y 12.8107 Z -1.0000 I 10.1450 J -0.9378
G02 X 19.2171 Y 12.1333 Z -1.0000 I -12.7076 J 0.3183
G02 X 19.1954 Y 12.0885 Z -1.0000 I -0.0683 J 0.0054
G01 X 19.1791 Y 12.0871 Z -1.0000
G01 X 19.1739 Y 12.1027 Z -1.0000
G01 X 19.1739 Y 12.1028 Z -1.0000
G00 Z 5.0000

(End cutting path id: path2)


(Start cutting path id: path2)
(Change tool to Default tool)

G00 Z 5.0000
G00 X 19.3625 Y 14.3175

G01 Z -1.0000 F 100.0000(Penetrate)
G03 X 19.3526 Y 14.3501 Z -1.0000 I -0.0588 J 0.0000 F 3500.0000
G01 X 19.3342 Y 14.3600 Z -1.0000
G01 X 19.3157 Y 14.3501 Z -1.0000
G03 X 19.3058 Y 14.3175 Z -1.0000 I 0.0489 J -0.0326
G03 X 19.3157 Y 14.2849 Z -1.0000 I 0.0588 J 0.0000
G01 X 19.3342 Y 14.2750 Z -1.0000
G01 X 19.3526 Y 14.2849 Z -1.0000
G03 X 19.3625 Y 14.3175 Z -1.0000 I -0.0489 J 0.0326
G01 X 19.3625 Y 14.3175 Z -1.0000
G00 Z 5.0000

(End cutting path id: path2)


(Start cutting path id: path2)
(Change tool to Default tool)

G00 Z 5.0000
G00 X 19.5838 Y 15.2857

G01 Z -1.0000 F 100.0000(Penetrate)
G02 X 19.6191 Y 15.2918 Z -1.0000 I 0.0319 J -0.0795 F 3500.0000
G01 X 19.6380 Y 15.2835 Z -1.0000
G01 X 19.6362 Y 15.2747 Z -1.0000
G02 X 19.6009 Y 15.2686 Z -1.0000 I -0.0318 J 0.0795
G01 X 19.5819 Y 15.2769 Z -1.0000
G01 X 19.5838 Y 15.2857 Z -1.0000
G01 X 19.5838 Y 15.2857 Z -1.0000
G00 Z 5.0000

(End cutting path id: path2)


(Start cutting path id: path2)
(Change tool to Default tool)

G00 Z 5.0000
G00 X 20.2918 Y 15.1157

G01 Z -1.0000 F 100.0000(Penetrate)
G02 X 20.3272 Y 15.1218 Z -1.0000 I 0.0319 J -0.0795 F 3500.0000
G01 X 20.3461 Y 15.1135 Z -1.0000
G01 X 20.3443 Y 15.1047 Z -1.0000
G02 X 20.3089 Y 15.0987 Z -1.0000 I -0.0318 J 0.0795
G01 X 20.2900 Y 15.1070 Z -1.0000
G01 X 20.2918 Y 15.1158 Z -1.0000
G01 X 20.2918 Y 15.1157 Z -1.0000
G00 Z 5.0000

(End cutting path id: path2)


(Start cutting path id: path2)
(Change tool to Default tool)

G00 Z 5.0000
G00 X 20.5803 Y 15.0280

G01 Z -1.0000 F 100.0000(Penetrate)
G01 X 20.5617 Y 15.0435 Z -1.0000 F 3500.0000
G01 X 20.5662 Y 15.0499 Z -1.0000
G03 X 20.6513 Y 15.0321 Z -1.0000 I 0.8832 J 4.0188
G03 X 20.7644 Y 15.0107 Z -1.0000 I 1.3868 J 7.0143
G01 X 20.7835 Y 14.9980 Z -1.0000
G01 X 20.7786 Y 14.9888 Z -1.0000
G02 X 20.6814 Y 14.9976 Z -1.0000 I -0.0066 J 0.4673
G02 X 20.5803 Y 15.0280 Z -1.0000 I 0.1060 J 0.5361
G01 X 20.5803 Y 15.0280 Z -1.0000
G00 Z 5.0000

(End cutting path id: path2)


(Start cutting path id: path2)
(Change tool to Default tool)

G00 Z 5.0000
G00 X 20.5750 Y 15.3423

G01 Z -1.0000 F 100.0000(Penetrate)
G02 X 20.6104 Y 15.3484 Z -1.0000 I 0.0319 J -0.0795 F 3500.0000
G01 X 20.6293 Y 15.3401 Z -1.0000
G01 X 20.6275 Y 15.3313 Z -1.0000
G02 X 20.5921 Y 15.3252 Z -1.0000 I -0.0318 J 0.0795
G01 X 20.5732 Y 15.3336 Z -1.0000
G01 X 20.5750 Y 15.3424 Z -1.0000
G01 X 20.5750 Y 15.3423 Z -1.0000
G00 Z 5.0000

(End cutting path id: path2)


(Start cutting path id: path2)
(Change tool to Default tool)

G00 Z 5.0000
G00 X 20.3888 Y 15.4929

G01 Z -1.0000 F 100.0000(Penetrate)
G03 X 20.2441 Y 15.5994 Z -1.0000 I -1.4756 J -1.8534 F 3500.0000
G01 X 20.2220 Y 15.6062 Z -1.0000
G01 X 20.2019 Y 15.6142 Z -1.0000
G02 X 20.1621 Y 15.6628 Z -1.0000 I 0.1698 J 0.1796
G03 X 20.1202 Y 15.7078 Z -1.0000 I -0.1372 J -0.0857
G03 X 20.0845 Y 15.7195 Z -1.0000 I -0.0358 J -0.0490
G02 X 20.0520 Y 15.7292 Z -1.0000 I -0.0000 J 0.0588
G01 X 20.0422 Y 15.7475 Z -1.0000
G01 X 20.0303 Y 15.7652 Z -1.0000
G03 X 19.9297 Y 15.7934 Z -1.0000 I -0.1726 J -0.4224
G02 X 19.8304 Y 15.8267 Z -1.0000 I 0.0504 J 0.3152
G02 X 19.8013 Y 15.8616 Z -1.0000 I 0.0282 J 0.0531
G02 X 19.7911 Y 15.9121 Z -1.0000 I 0.2246 J 0.0716
G02 X 19.7934 Y 15.9488 Z -1.0000 I 0.1209 J 0.0109
G01 X 19.7810 Y 15.9701 Z -1.0000
G03 X 19.6484 Y 15.9938 Z -1.0000 I -0.1617 J -0.5203
G02 X 19.4980 Y 16.0080 Z -1.0000 I 0.0994 J 1.8593
G01 X 19.4808 Y 16.0165 Z -1.0000
G01 X 19.4835 Y 16.0240 Z -1.0000
G02 X 19.6339 Y 16.0315 Z -1.0000 I 0.1546 J -1.5897
G03 X 19.7987 Y 16.0415 Z -1.0000 I -0.0037 J 1.4195
G03 X 19.8396 Y 16.0560 Z -1.0000 I -0.0116 J 0.0975
G01 X 19.8519 Y 16.0858 Z -1.0000
G03 X 19.8113 Y 16.1827 Z -1.0000 I -0.2904 J -0.0649
G03 X 19.7387 Y 16.2740 Z -1.0000 I -0.5065 J -0.3282
G01 X 19.7118 Y 16.2856 Z -1.0000
G01 X 19.6848 Y 16.2768 Z -1.0000
G03 X 19.6644 Y 16.2505 Z -1.0000 I 0.0365 J -0.0493
G01 X 19.6559 Y 16.2484 Z -1.0000
G01 X 19.6479 Y 16.2647 Z -1.0000
G03 X 19.6358 Y 16.3039 Z -1.0000 I -0.0815 J -0.0036
G01 X 19.6174 Y 16.3142 Z -1.0000
G01 X 19.5999 Y 16.3251 Z -1.0000
G02 X 19.5890 Y 16.3709 Z -1.0000 I 0.0917 J 0.0458
G03 X 19.5725 Y 16.4109 Z -1.0000 I -0.0566 J -0.0000
G03 X 19.5324 Y 16.4275 Z -1.0000 I -0.0401 J -0.0401
G02 X 19.4895 Y 16.4413 Z -1.0000 I -0.0000 J 0.0736
G01 X 19.4758 Y 16.4681 Z -1.0000
G01 X 19.4631 Y 16.4994 Z -1.0000
G03 X 19.4191 Y 16.5267 Z -1.0000 I -0.0760 J -0.0735
G02 X 19.3768 Y 16.5551 Z -1.0000 I 0.0275 J 0.0865
G02 X 19.3625 Y 16.5948 Z -1.0000 I 0.0478 J 0.0397
G03 X 19.3474 Y 16.6353 Z -1.0000 I -0.0617 J 0.0000
G03 X 19.2903 Y 16.6779 Z -1.0000 I -0.1265 J -0.1099
G03 X 19.2165 Y 16.7030 Z -1.0000 I -0.1624 J -0.3563
G03 X 19.1487 Y 16.7108 Z -1.0000 I -0.0678 J -0.2920
G03 X 19.0906 Y 16.6994 Z -1.0000 I 0.0000 J -0.1539
G01 X 19.0793 Y 16.6824 Z -1.0000
G01 X 19.0692 Y 16.6641 Z -1.0000
G02 X 19.0347 Y 16.6541 Z -1.0000 I -0.0345 J 0.0542
G02 X 18.9943 Y 16.6638 Z -1.0000 I 0.0000 J 0.0894
G02 X 18.9443 Y 16.7001 Z -1.0000 I 0.0889 J 0.1750
G01 X 18.9468 Y 16.7195 Z -1.0000
G02 X 18.9888 Y 16.7261 Z -1.0000 I 0.0295 J -0.0504
G03 X 19.0572 Y 16.7337 Z -1.0000 I 0.0230 J 0.1046
G01 X 19.0793 Y 16.7685 Z -1.0000
G03 X 19.0624 Y 16.8079 Z -1.0000 I -0.0544 J -0.0000
G01 X 19.0297 Y 16.8156 Z -1.0000
G03 X 18.9806 Y 16.7992 Z -1.0000 I 0.2692 J -0.8842
G03 X 18.8875 Y 16.7634 Z -1.0000 I 1.1416 J -3.1123
G02 X 18.7964 Y 16.7438 Z -1.0000 I -0.1025 J 0.2552
G02 X 18.7448 Y 16.7575 Z -1.0000 I -0.0037 J 0.0902
G03 X 18.6920 Y 16.7815 Z -1.0000 I -0.1170 J -0.1874
G03 X 18.5754 Y 16.8089 Z -1.0000 I -0.2730 J -0.8989
G02 X 18.4674 Y 16.8385 Z -1.0000 I 0.0931 J 0.5514
G01 X 18.4562 Y 16.8549 Z -1.0000
G01 X 18.4658 Y 16.8716 Z -1.0000
G02 X 18.5057 Y 16.8837 Z -1.0000 I 0.0453 J -0.0780
G01 X 18.5078 Y 16.8922 Z -1.0000
G03 X 18.4420 Y 16.9210 Z -1.0000 I -0.1543 J -0.2635
G02 X 18.3424 Y 16.9716 Z -1.0000 I 0.0923 J 0.3049
G02 X 18.2860 Y 17.0387 Z -1.0000 I 0.1179 J 0.1562
G03 X 18.2339 Y 17.1028 Z -1.0000 I -0.1767 J -0.0904
G01 X 18.1943 Y 17.1127 Z -1.0000
G01 X 18.1550 Y 17.1222 Z -1.0000
G02 X 18.1114 Y 17.1775 Z -1.0000 I 0.0910 J 0.1166
G03 X 18.0655 Y 17.2301 Z -1.0000 I -0.1109 J -0.0505
G03 X 18.0071 Y 17.2432 Z -1.0000 I -0.0477 J -0.0757
G03 X 17.9455 Y 17.2238 Z -1.0000 I 0.0212 J -0.1746
G01 X 17.9249 Y 17.1993 Z -1.0000
G01 X 17.9300 Y 17.1760 Z -1.0000
G01 X 17.9573 Y 17.1639 Z -1.0000
G01 X 17.9827 Y 17.1512 Z -1.0000
G01 X 17.9864 Y 17.1252 Z -1.0000
G01 X 17.9892 Y 17.0902 Z -1.0000
G03 X 18.0602 Y 16.9978 Z -1.0000 I 0.3894 J 0.2259
G03 X 18.1522 Y 16.9169 Z -1.0000 I 0.6787 J 0.6787
G01 X 18.1751 Y 16.9090 Z -1.0000
G01 X 18.1911 Y 16.8988 Z -1.0000
G02 X 18.2013 Y 16.8524 Z -1.0000 I -0.1006 J -0.0464
G02 X 18.1905 Y 16.8066 Z -1.0000 I -0.1025 J 0.0000
G01 X 18.1729 Y 16.7958 Z -1.0000
G01 X 18.1545 Y 16.8056 Z -1.0000
G02 X 18.1446 Y 16.8382 Z -1.0000 I 0.0489 J 0.0326
G01 X 18.1329 Y 16.8690 Z -1.0000
G01 X 18.1065 Y 16.8807 Z -1.0000
G02 X 18.0727 Y 16.8902 Z -1.0000 I 0.0000 J 0.0650
G02 X 18.0215 Y 16.9326 Z -1.0000 I 0.1208 J 0.1980
G02 X 17.9886 Y 16.9841 Z -1.0000 I 0.1357 J 0.1228
G01 X 17.9921 Y 17.0020 Z -1.0000
G01 X 17.9908 Y 17.0144 Z -1.0000
G03 X 17.9356 Y 17.0382 Z -1.0000 I -0.1009 J -0.1582
G02 X 17.8716 Y 17.0647 Z -1.0000 I 0.0574 J 0.2290
G01 X 17.8614 Y 17.0827 Z -1.0000
G01 X 17.8521 Y 17.1025 Z -1.0000
G03 X 17.7920 Y 17.1401 Z -1.0000 I -0.1716 J -0.2071
G02 X 17.7350 Y 17.1830 Z -1.0000 I 0.0686 J 0.1506
G02 X 17.6936 Y 17.2550 Z -1.0000 I 0.1698 J 0.1455
G03 X 17.6513 Y 17.3116 Z -1.0000 I -0.1108 J -0.0386
G03 X 17.6044 Y 17.3191 Z -1.0000 I -0.0309 J -0.0429
G01 X 17.5712 Y 17.3270 Z -1.0000
G01 X 17.5631 Y 17.3594 Z -1.0000
G01 X 17.5548 Y 17.3990 Z -1.0000
G03 X 17.5110 Y 17.4189 Z -1.0000 I -0.0439 J -0.0385
G02 X 17.4451 Y 17.4282 Z -1.0000 I -0.0000 J 0.2358
G01 X 17.4243 Y 17.4440 Z -1.0000
G01 X 17.4038 Y 17.4625 Z -1.0000
G03 X 17.3334 Y 17.4881 Z -1.0000 I -0.1591 J -0.3278
G02 X 17.2656 Y 17.5187 Z -1.0000 I 0.0513 J 0.2044
G02 X 17.2023 Y 17.5780 Z -1.0000 I 0.1620 J 0.2365
G03 X 17.1415 Y 17.6306 Z -1.0000 I -0.1662 J -0.1307
G01 X 17.1060 Y 17.6333 Z -1.0000
G01 X 17.0857 Y 17.6346 Z -1.0000
G01 X 17.0827 Y 17.6458 Z -1.0000
G01 X 17.0804 Y 17.6639 Z -1.0000
G03 X 17.0488 Y 17.6782 Z -1.0000 I -0.0362 J -0.0378
G03 X 16.9975 Y 17.6813 Z -1.0000 I -0.0776 J -0.8748
G03 X 16.9597 Y 17.6809 Z -1.0000 I -0.0145 J -0.4845
G01 X 16.9315 Y 17.6934 Z -1.0000
G02 X 16.8933 Y 17.7614 Z -1.0000 I 0.1702 J 0.1406
G03 X 16.8579 Y 17.8246 Z -1.0000 I -0.1968 J -0.0686
G01 X 16.8390 Y 17.8278 Z -1.0000
G01 X 16.8243 Y 17.8314 Z -1.0000
G02 X 16.8135 Y 17.8703 Z -1.0000 I 0.0648 J 0.0389
G03 X 16.8026 Y 17.9177 Z -1.0000 I -0.1086 J 0.0000
G01 X 16.7852 Y 17.9286 Z -1.0000
G01 X 16.7666 Y 17.9384 Z -1.0000
G02 X 16.7568 Y 17.9695 Z -1.0000 I 0.0450 J 0.0311
G03 X 16.7457 Y 18.0046 Z -1.0000 I -0.0611 J -0.0000
G03 X 16.7004 Y 18.0499 Z -1.0000 I -0.1517 J -0.1065
G02 X 16.6572 Y 18.0906 Z -1.0000 I 0.1180 J 0.1685
G01 X 16.6579 Y 18.1035 Z -1.0000
G01 X 16.6567 Y 18.1151 Z -1.0000
G03 X 16.5109 Y 18.2001 Z -1.0000 I -0.8648 J -1.3166
G02 X 16.3653 Y 18.2936 Z -1.0000 I 0.4070 J 0.7936
G02 X 16.3434 Y 18.3322 Z -1.0000 I 0.0365 J 0.0462
G01 X 16.3547 Y 18.3663 Z -1.0000
G02 X 16.3912 Y 18.3818 Z -1.0000 I 0.0365 J -0.0352
G03 X 16.4346 Y 18.3925 Z -1.0000 I -0.0000 J 0.0938
G01 X 16.4453 Y 18.4101 Z -1.0000
G01 X 16.4361 Y 18.4292 Z -1.0000
G01 X 16.4097 Y 18.4384 Z -1.0000
G01 X 16.3823 Y 18.4509 Z -1.0000
G02 X 16.3379 Y 18.5202 Z -1.0000 I 0.2047 J 0.1796
G02 X 16.3126 Y 18.6044 Z -1.0000 I 0.3261 J 0.1443
G02 X 16.3004 Y 18.7397 Z -1.0000 I 0.8393 J 0.1437
G03 X 16.2890 Y 18.8760 Z -1.0000 I -0.9326 J -0.0092
G03 X 16.2541 Y 19.0332 Z -1.0000 I -1.2797 J -0.2021
G03 X 16.2032 Y 19.1868 Z -1.0000 I -2.0299 J -0.5862
G03 X 16.1323 Y 19.3589 Z -1.0000 I -2.6122 J -0.9765
G02 X 16.0666 Y 19.5323 Z -1.0000 I 1.3572 J 0.6134
G02 X 16.0206 Y 19.7200 Z -1.0000 I 1.5472 J 0.4784
G03 X 15.9784 Y 19.9024 Z -1.0000 I -1.9693 J -0.3592
G01 X 15.9669 Y 19.9112 Z -1.0000
G01 X 15.9569 Y 19.9198 Z -1.0000
G02 X 15.9518 Y 20.0174 Z -1.0000 I 0.5487 J 0.0780
G03 X 15.9453 Y 20.1212 Z -1.0000 I -0.5289 J 0.0190
G03 X 15.9254 Y 20.1802 Z -1.0000 I -0.1876 J -0.0305
G02 X 15.9081 Y 20.2397 Z -1.0000 I 0.1327 J 0.0707
G02 X 15.9063 Y 20.4351 Z -1.0000 I 1.4928 J 0.1118
G03 X 15.9135 Y 20.6335 Z -1.0000 I -5.1594 J 0.2886
G03 X 15.9127 Y 20.8033 Z -1.0000 I -3.7507 J 0.0656
G03 X 15.9052 Y 20.9731 Z -1.0000 I -5.2702 J -0.1466
G03 X 15.8939 Y 21.1149 Z -1.0000 I -3.7125 J -0.2232
G02 X 15.8818 Y 21.2566 Z -1.0000 I 5.5465 J 0.5483
G02 X 15.8790 Y 21.3188 Z -1.0000 I 1.0793 J 0.0789
G03 X 15.8682 Y 21.3756 Z -1.0000 I -0.1687 J -0.0026
G01 X 15.8488 Y 21.3992 Z -1.0000
G01 X 15.8379 Y 21.4203 Z -1.0000
G02 X 15.8527 Y 21.4573 Z -1.0000 I 0.0645 J -0.0043
G01 X 15.8575 Y 21.4839 Z -1.0000
G01 X 15.8389 Y 21.4972 Z -1.0000
G01 X 15.8168 Y 21.5121 Z -1.0000
G01 X 15.8186 Y 21.5470 Z -1.0000
G03 X 15.8380 Y 21.5990 Z -1.0000 I -0.1824 J 0.0976
G03 X 15.8649 Y 21.7523 Z -1.0000 I -1.5817 J 0.3571
G03 X 15.8781 Y 21.9083 Z -1.0000 I -1.8610 J 0.2357
G03 X 15.8842 Y 22.2053 Z -1.0000 I -6.7487 J 0.2871
G02 X 15.8965 Y 22.5011 Z -1.0000 I 3.4316 J 0.0052
G02 X 15.9220 Y 22.6504 Z -1.0000 I 0.8954 J -0.0761
G03 X 15.9475 Y 22.7992 Z -1.0000 I -0.8711 J 0.2257
G03 X 15.9482 Y 22.9563 Z -1.0000 I -0.9713 J 0.0833
G02 X 15.9522 Y 23.0883 Z -1.0000 I 0.6218 J 0.0475
G01 X 15.9672 Y 23.0954 Z -1.0000
G01 X 15.9794 Y 23.1003 Z -1.0000
G03 X 15.9783 Y 23.1392 Z -1.0000 I -0.0690 J 0.0174
G02 X 15.9615 Y 23.2029 Z -1.0000 I 0.6353 J 0.2016
G02 X 15.9511 Y 23.2677 Z -1.0000 I 0.6491 J 0.1373
G02 X 15.9596 Y 23.3128 Z -1.0000 I 0.0779 J 0.0085
G01 X 15.9786 Y 23.3199 Z -1.0000
G01 X 16.0026 Y 23.3257 Z -1.0000
G03 X 16.0260 Y 23.3730 Z -1.0000 I -0.0737 J 0.0658
G03 X 16.0325 Y 23.4390 Z -1.0000 I -0.3613 J 0.0692
G03 X 16.0268 Y 23.4750 Z -1.0000 I -0.1102 J 0.0010
G01 X 16.0088 Y 23.4886 Z -1.0000
G01 X 15.9751 Y 23.4774 Z -1.0000
G01 X 15.9565 Y 23.4832 Z -1.0000
G02 X 15.9505 Y 23.5660 Z -1.0000 I 0.2033 J 0.0565
G03 X 15.9495 Y 23.6805 Z -1.0000 I -0.4263 J 0.0535
G01 X 15.9294 Y 23.7131 Z -1.0000
G01 X 15.9305 Y 23.7207 Z -1.0000
G01 X 15.9544 Y 23.7213 Z -1.0000
G03 X 16.0101 Y 23.7186 Z -1.0000 I 0.0336 J 0.1206
G01 X 16.0354 Y 23.7358 Z -1.0000
G01 X 16.0361 Y 23.7637 Z -1.0000
G03 X 15.9951 Y 23.8095 Z -1.0000 I -0.1183 J -0.0646
G02 X 15.9733 Y 23.8573 Z -1.0000 I 0.0297 J 0.0425
G02 X 16.0096 Y 23.9488 Z -1.0000 I 0.1809 J -0.0188
G03 X 16.0714 Y 24.0401 Z -1.0000 I -0.7781 J 0.5935
G01 X 16.0678 Y 24.0463 Z -1.0000
G01 X 16.0618 Y 24.0533 Z -1.0000
G02 X 16.0814 Y 24.1312 Z -1.0000 I 0.4492 J -0.0717
G02 X 16.1185 Y 24.2057 Z -1.0000 I 0.3098 J -0.1080
G01 X 16.1382 Y 24.2162 Z -1.0000
G01 X 16.1502 Y 24.2247 Z -1.0000
G01 X 16.1479 Y 24.2445 Z -1.0000
G01 X 16.1466 Y 24.2638 Z -1.0000
G01 X 16.1604 Y 24.2728 Z -1.0000
G01 X 16.1791 Y 24.2841 Z -1.0000
G03 X 16.1904 Y 24.3299 Z -1.0000 I -0.0870 J 0.0457
G02 X 16.1976 Y 24.3850 Z -1.0000 I 0.2139 J 0.0000
G02 X 16.2187 Y 24.4361 Z -1.0000 I 0.2046 J -0.0546
G03 X 16.2443 Y 24.4865 Z -1.0000 I -0.4562 J 0.2626
G03 X 16.2747 Y 24.5631 Z -1.0000 I -1.0194 J 0.4489
G02 X 16.3136 Y 24.6253 Z -1.0000 I 0.1591 J -0.0565
G02 X 16.3526 Y 24.6420 Z -1.0000 I 0.0400 J -0.0395
G01 X 16.3603 Y 24.6536 Z -1.0000
G03 X 16.3379 Y 24.6791 Z -1.0000 I -0.0467 J -0.0185
G02 X 16.3004 Y 24.7318 Z -1.0000 I 0.0365 J 0.0657
G02 X 16.2578 Y 25.1383 Z -1.0000 I 2.9466 J 0.5145
G03 X 16.2408 Y 25.5614 Z -1.0000 I -54.7302 J -1.9751
G03 X 16.2345 Y 25.6685 Z -1.0000 I -3.5539 J -0.1558
G03 X 16.2199 Y 25.7724 Z -1.0000 I -0.8070 J -0.0603
G01 X 16.2085 Y 25.7936 Z -1.0000
G01 X 16.1972 Y 25.8146 Z -1.0000
G02 X 16.1904 Y 25.8825 Z -1.0000 I 0.3347 J 0.0679
G02 X 16.2002 Y 25.9299 Z -1.0000 I 0.1201 J 0.0000
G01 X 16.2117 Y 25.9321 Z -1.0000
G02 X 16.2256 Y 25.9078 Z -1.0000 I -0.0380 J -0.0380
G02 X 16.2329 Y 25.8518 Z -1.0000 I -0.2115 J -0.0560
G03 X 16.2454 Y 25.8018 Z -1.0000 I 0.1065 J -0.0000
G01 X 16.2710 Y 25.7801 Z -1.0000
G01 X 16.2845 Y 25.7882 Z -1.0000
G03 X 16.2783 Y 25.8250 Z -1.0000 I -0.0574 J 0.0093
G02 X 16.2673 Y 25.8755 Z -1.0000 I 0.0837 J 0.0448
G01 X 16.2826 Y 25.8969 Z -1.0000
G01 X 16.2875 Y 25.9061 Z -1.0000
G01 X 16.2789 Y 25.9133 Z -1.0000
G01 X 16.2649 Y 25.9263 Z -1.0000
G01 X 16.2734 Y 25.9558 Z -1.0000
G01 X 16.2726 Y 25.9743 Z -1.0000
G01 X 16.2486 Y 25.9808 Z -1.0000
G02 X 16.1993 Y 25.9783 Z -1.0000 I -0.0308 J 0.1175
G01 X 16.1882 Y 25.9901 Z -1.0000
G03 X 16.1852 Y 26.0145 Z -1.0000 I -0.3714 J -0.0330
G03 X 16.1765 Y 26.0644 Z -1.0000 I -1.3952 J -0.2175
G02 X 16.1792 Y 26.0963 Z -1.0000 I 0.0583 J 0.0111
G01 X 16.1899 Y 26.0999 Z -1.0000
G01 X 16.2077 Y 26.1005 Z -1.0000
G03 X 16.2290 Y 26.1281 Z -1.0000 I -0.0356 J 0.0493
G01 X 16.2284 Y 26.1590 Z -1.0000
G01 X 16.2107 Y 26.1709 Z -1.0000
G01 X 16.2043 Y 26.1795 Z -1.0000
G01 X 16.2187 Y 26.1992 Z -1.0000
G01 X 16.2351 Y 26.2270 Z -1.0000
G01 X 16.2228 Y 26.2519 Z -1.0000
G01 X 16.2059 Y 26.2764 Z -1.0000
G01 X 16.2139 Y 26.2949 Z -1.0000
G01 X 16.2307 Y 26.3200 Z -1.0000
G03 X 16.2381 Y 26.4428 Z -1.0000 I -0.5974 J 0.0978
G02 X 16.2524 Y 26.5613 Z -1.0000 I 0.3705 J 0.0153
G02 X 16.2834 Y 26.5996 Z -1.0000 I 0.0610 J -0.0177
G02 X 16.3352 Y 26.6151 Z -1.0000 I 0.0638 J -0.1191
G02 X 16.3897 Y 26.6091 Z -1.0000 I 0.0124 J -0.1389
G03 X 16.4330 Y 26.6082 Z -1.0000 I 0.0232 J 0.0730
G01 X 16.4453 Y 26.6242 Z -1.0000
G02 X 16.4537 Y 26.6534 Z -1.0000 I 0.0547 J 0.0000
G02 X 16.4954 Y 26.7040 Z -1.0000 I 0.2174 J -0.1366
G01 X 16.5181 Y 26.7298 Z -1.0000
G02 X 16.4883 Y 26.7155 Z -1.0000 I -0.0487 J 0.0630
G02 X 16.4325 Y 26.7090 Z -1.0000 I -0.0540 J 0.2220
G02 X 16.4029 Y 26.7186 Z -1.0000 I 0.0004 J 0.0517
G01 X 16.4028 Y 26.7302 Z -1.0000
G03 X 16.4242 Y 26.7553 Z -1.0000 I -0.0430 J 0.0586
G03 X 16.4394 Y 26.8006 Z -1.0000 I -0.1358 J 0.0707
G01 X 16.4312 Y 26.8362 Z -1.0000
G01 X 16.4040 Y 26.8502 Z -1.0000
G01 X 16.3747 Y 26.8358 Z -1.0000
G03 X 16.3603 Y 26.7935 Z -1.0000 I 0.0547 J -0.0422
G02 X 16.3504 Y 26.7467 Z -1.0000 I -0.1158 J -0.0000
G01 X 16.3353 Y 26.7369 Z -1.0000
G01 X 16.3214 Y 26.7476 Z -1.0000
G02 X 16.3137 Y 26.8207 Z -1.0000 I 0.2440 J 0.0628
G02 X 16.3393 Y 26.8759 Z -1.0000 I 0.0792 J -0.0032
G02 X 16.3883 Y 26.8892 Z -1.0000 I 0.0374 J -0.0407
G03 X 16.4191 Y 26.8916 Z -1.0000 I 0.0114 J 0.0531
G01 X 16.4203 Y 26.9014 Z -1.0000
G01 X 16.4142 Y 26.9239 Z -1.0000
G01 X 16.4415 Y 26.9481 Z -1.0000
G03 X 16.4925 Y 26.9741 Z -1.0000 I -0.0528 J 0.1663
G01 X 16.5019 Y 26.9928 Z -1.0000
G01 X 16.4922 Y 27.0042 Z -1.0000
G03 X 16.4548 Y 27.0002 Z -1.0000 I -0.0113 J -0.0717
G01 X 16.4335 Y 27.0035 Z -1.0000
G01 X 16.4307 Y 27.0194 Z -1.0000
G01 X 16.4247 Y 27.0364 Z -1.0000
G03 X 16.3716 Y 27.0400 Z -1.0000 I -0.0331 J -0.0948
G01 X 16.3672 Y 27.0473 Z -1.0000
G02 X 16.3937 Y 27.0673 Z -1.0000 I 0.0531 J -0.0430
G03 X 16.4782 Y 27.1233 Z -1.0000 I -0.1061 J 0.2519
G03 X 16.4939 Y 27.1648 Z -1.0000 I -0.0366 J 0.0376
G03 X 16.4838 Y 27.2108 Z -1.0000 I -0.1666 J -0.0124
G01 X 16.4746 Y 27.2163 Z -1.0000
G03 X 16.4598 Y 27.2127 Z -1.0000 I 0.0090 J -0.0685
G03 X 16.4028 Y 27.1900 Z -1.0000 I 0.3875 J -1.0573
G01 X 16.3971 Y 27.1754 Z -1.0000
G01 X 16.4146 Y 27.1637 Z -1.0000
G02 X 16.4634 Y 27.1539 Z -1.0000 I -0.0043 J -0.1481
G01 X 16.4655 Y 27.1441 Z -1.0000
G01 X 16.4453 Y 27.1358 Z -1.0000
G02 X 16.3753 Y 27.1448 Z -1.0000 I 0.0022 J 0.2953
G02 X 16.3359 Y 27.1728 Z -1.0000 I 0.0161 J 0.0642
G01 X 16.3384 Y 27.2013 Z -1.0000
G02 X 16.3770 Y 27.2273 Z -1.0000 I 0.0758 J -0.0708
G01 X 16.4061 Y 27.2273 Z -1.0000
G01 X 16.4352 Y 27.2280 Z -1.0000
G03 X 16.4844 Y 27.2615 Z -1.0000 I -0.0635 J 0.1460
G03 X 16.5161 Y 27.3096 Z -1.0000 I -0.1018 J 0.1018
G01 X 16.5139 Y 27.3351 Z -1.0000
G01 X 16.4924 Y 27.3494 Z -1.0000
G03 X 16.4453 Y 27.3458 Z -1.0000 I -0.0159 J -0.1020
G02 X 16.3989 Y 27.3441 Z -1.0000 I -0.0262 J 0.0823
G01 X 16.3725 Y 27.3632 Z -1.0000
G01 X 16.3724 Y 27.3762 Z -1.0000
G01 X 16.3817 Y 27.3784 Z -1.0000
G03 X 16.4127 Y 27.3693 Z -1.0000 I 0.0321 J 0.0519
G03 X 16.4568 Y 27.3771 Z -1.0000 I 0.0021 J 0.1170
G03 X 16.4889 Y 27.4033 Z -1.0000 I -0.0236 J 0.0616
G03 X 16.5019 Y 27.4480 Z -1.0000 I -0.0704 J 0.0447
G03 X 16.4932 Y 27.4928 Z -1.0000 I -0.1206 J -0.0000
G01 X 16.4806 Y 27.5012 Z -1.0000
G03 X 16.4606 Y 27.4968 Z -1.0000 I 0.0011 J -0.0526
G03 X 16.4169 Y 27.4733 Z -1.0000 I 0.1236 J -0.2824
G01 X 16.4059 Y 27.4549 Z -1.0000
G01 X 16.4145 Y 27.4454 Z -1.0000
G01 X 16.4389 Y 27.4385 Z -1.0000
G01 X 16.4399 Y 27.4302 Z -1.0000
G01 X 16.4232 Y 27.4247 Z -1.0000
G02 X 16.3573 Y 27.4426 Z -1.0000 I 0.0429 J 0.2893
G01 X 16.3352 Y 27.4617 Z -1.0000
G01 X 16.3407 Y 27.4715 Z -1.0000
G01 X 16.3698 Y 27.4851 Z -1.0000
G01 X 16.3717 Y 27.5060 Z -1.0000
G01 X 16.3721 Y 27.5181 Z -1.0000
G01 X 16.3816 Y 27.5201 Z -1.0000
G03 X 16.4126 Y 27.5109 Z -1.0000 I 0.0321 J 0.0519
G03 X 16.4568 Y 27.5188 Z -1.0000 I 0.0021 J 0.1170
G03 X 16.4888 Y 27.5450 Z -1.0000 I -0.0236 J 0.0616
G03 X 16.5018 Y 27.5897 Z -1.0000 I -0.0704 J 0.0447
G03 X 16.4932 Y 27.6345 Z -1.0000 I -0.1206 J -0.0000
G01 X 16.4806 Y 27.6428 Z -1.0000
G03 X 16.4605 Y 27.6384 Z -1.0000 I 0.0011 J -0.0526
G03 X 16.4168 Y 27.6149 Z -1.0000 I 0.1236 J -0.2824
G01 X 16.4058 Y 27.5966 Z -1.0000
G01 X 16.4144 Y 27.5871 Z -1.0000
G01 X 16.4371 Y 27.5795 Z -1.0000
G01 X 16.4378 Y 27.5699 Z -1.0000
G01 X 16.4196 Y 27.5643 Z -1.0000
G02 X 16.3694 Y 27.5832 Z -1.0000 I 0.0309 J 0.1586
G02 X 16.3492 Y 27.6051 Z -1.0000 I 0.0252 J 0.0434
G01 X 16.3547 Y 27.6141 Z -1.0000
G01 X 16.3733 Y 27.6250 Z -1.0000
G01 X 16.3731 Y 27.6452 Z -1.0000
G01 X 16.3741 Y 27.6626 Z -1.0000
G01 X 16.3927 Y 27.6701 Z -1.0000
G03 X 16.4310 Y 27.6670 Z -1.0000 I 0.0466 J 0.3377
G03 X 16.4668 Y 27.6682 Z -1.0000 I 0.0076 J 0.3108
G01 X 16.4876 Y 27.6843 Z -1.0000
G03 X 16.4967 Y 27.7503 Z -1.0000 I -0.1484 J 0.0540
G02 X 16.4986 Y 27.8270 Z -1.0000 I 0.3777 J 0.0288
G02 X 16.5108 Y 27.8616 Z -1.0000 I 0.0861 J -0.0110
G01 X 16.5164 Y 27.8908 Z -1.0000
G01 X 16.5017 Y 27.9123 Z -1.0000
G01 X 16.4865 Y 27.9337 Z -1.0000
G01 X 16.4911 Y 27.9604 Z -1.0000
G01 X 16.4887 Y 27.9734 Z -1.0000
G01 X 16.4703 Y 27.9762 Z -1.0000
G03 X 16.4428 Y 27.9554 Z -1.0000 I 0.0202 J -0.0553
G01 X 16.4377 Y 27.9310 Z -1.0000
G01 X 16.4301 Y 27.9168 Z -1.0000
G01 X 16.4014 Y 27.9167 Z -1.0000
G01 X 16.3891 Y 27.9375 Z -1.0000
G02 X 16.4088 Y 27.9714 Z -1.0000 I 0.0507 J -0.0069
G02 X 16.4615 Y 28.0033 Z -1.0000 I 0.1781 J -0.2348
G02 X 16.4920 Y 28.0105 Z -1.0000 I 0.0326 J -0.0693
G01 X 16.5088 Y 28.0234 Z -1.0000
G03 X 16.5096 Y 28.0692 Z -1.0000 I -0.0812 J 0.0244
G03 X 16.4858 Y 28.1103 Z -1.0000 I -0.0862 J -0.0225
G01 X 16.4627 Y 28.1153 Z -1.0000
G01 X 16.4412 Y 28.0978 Z -1.0000
G01 X 16.4370 Y 28.0745 Z -1.0000
G01 X 16.4288 Y 28.0607 Z -1.0000
G02 X 16.3875 Y 28.0601 Z -1.0000 I -0.0216 J 0.0745
G02 X 16.3415 Y 28.0821 Z -1.0000 I 0.0339 J 0.1299
G01 X 16.3318 Y 28.1014 Z -1.0000
G01 X 16.3398 Y 28.1136 Z -1.0000
G01 X 16.3572 Y 28.1124 Z -1.0000
G01 X 16.3829 Y 28.1079 Z -1.0000
G03 X 16.4498 Y 28.1319 Z -1.0000 I -0.0535 J 0.2535
G03 X 16.4985 Y 28.1761 Z -1.0000 I -0.0609 J 0.1162
G03 X 16.5069 Y 28.2188 Z -1.0000 I -0.0482 J 0.0317
G03 X 16.4866 Y 28.2521 Z -1.0000 I -0.0552 J -0.0109
G01 X 16.4596 Y 28.2562 Z -1.0000
G01 X 16.4377 Y 28.2611 Z -1.0000
G01 X 16.4291 Y 28.2880 Z -1.0000
G02 X 16.4445 Y 28.3269 Z -1.0000 I 0.0901 J -0.0131
G01 X 16.4688 Y 28.3450 Z -1.0000
G01 X 16.4907 Y 28.3639 Z -1.0000
G03 X 16.5017 Y 28.4103 Z -1.0000 I -0.0919 J 0.0464
G03 X 16.4906 Y 28.4535 Z -1.0000 I -0.0893 J 0.0000
G01 X 16.4717 Y 28.4646 Z -1.0000
G01 X 16.4574 Y 28.4559 Z -1.0000
G01 X 16.4580 Y 28.4382 Z -1.0000
G01 X 16.4630 Y 28.4145 Z -1.0000
G01 X 16.4522 Y 28.3982 Z -1.0000
G01 X 16.4399 Y 28.4027 Z -1.0000
G02 X 16.4273 Y 28.4741 Z -1.0000 I 0.2419 J 0.0795
G02 X 16.4313 Y 28.5278 Z -1.0000 I 0.2537 J 0.0082
G01 X 16.4371 Y 28.5283 Z -1.0000
G03 X 16.4554 Y 28.5008 Z -1.0000 I 0.0648 J 0.0233
G01 X 16.4757 Y 28.4929 Z -1.0000
G01 X 16.4914 Y 28.5032 Z -1.0000
G03 X 16.5017 Y 28.5526 Z -1.0000 I -0.1136 J 0.0494
G03 X 16.4878 Y 28.5920 Z -1.0000 I -0.0629 J -0.0000
G01 X 16.4650 Y 28.5982 Z -1.0000
G01 X 16.4404 Y 28.6032 Z -1.0000
G02 X 16.4243 Y 28.6376 Z -1.0000 I 0.0372 J 0.0384
G02 X 16.4350 Y 28.6775 Z -1.0000 I 0.0622 J 0.0046
G01 X 16.4610 Y 28.6912 Z -1.0000
G01 X 16.4879 Y 28.7050 Z -1.0000
G03 X 16.5017 Y 28.7478 Z -1.0000 I -0.0596 J 0.0428
G03 X 16.4864 Y 28.7897 Z -1.0000 I -0.0649 J 0.0000
G01 X 16.4521 Y 28.8064 Z -1.0000
G01 X 16.4414 Y 28.8155 Z -1.0000
G01 X 16.4477 Y 28.8277 Z -1.0000
G03 X 16.4775 Y 28.8562 Z -1.0000 I -0.0228 J 0.0536
G03 X 16.4878 Y 28.9119 Z -1.0000 I -0.0987 J 0.0470
G02 X 16.4905 Y 28.9727 Z -1.0000 I 0.2472 J 0.0194
G01 X 16.5008 Y 28.9880 Z -1.0000
G01 X 16.5101 Y 29.0036 Z -1.0000
G03 X 16.5072 Y 29.1001 Z -1.0000 I -0.5558 J 0.0318
G03 X 16.4820 Y 29.1858 Z -1.0000 I -0.2621 J -0.0305
G01 X 16.4577 Y 29.2010 Z -1.0000
G02 X 16.4247 Y 29.2094 Z -1.0000 I -0.0000 J 0.0685
G02 X 16.4006 Y 29.2323 Z -1.0000 I 0.0314 J 0.0572
G01 X 16.4054 Y 29.2449 Z -1.0000
G02 X 16.4415 Y 29.2446 Z -1.0000 I 0.0176 J -0.0585
G01 X 16.4814 Y 29.2531 Z -1.0000
G03 X 16.5016 Y 29.2982 Z -1.0000 I -0.0402 J 0.0451
G02 X 16.5028 Y 29.3708 Z -1.0000 I 2.3770 J -0.0000
G02 X 16.5044 Y 29.3921 Z -1.0000 I 0.2204 J -0.0067
G02 X 16.5099 Y 29.4125 Z -1.0000 I 0.0797 J -0.0102
G02 X 16.5328 Y 29.4612 Z -1.0000 I 0.4966 J -0.2046
G03 X 16.5421 Y 29.5047 Z -1.0000 I -0.0706 J 0.0378
G01 X 16.5281 Y 29.5278 Z -1.0000
G01 X 16.5008 Y 29.5294 Z -1.0000
G03 X 16.4557 Y 29.4941 Z -1.0000 I 0.0534 J -0.1146
G01 X 16.4464 Y 29.4936 Z -1.0000
G01 X 16.4444 Y 29.5054 Z -1.0000
G02 X 16.4838 Y 29.5556 Z -1.0000 I 0.1348 J -0.0653
G02 X 16.5215 Y 29.5692 Z -1.0000 I 0.0377 J -0.0456
G03 X 16.5488 Y 29.5770 Z -1.0000 I 0.0000 J 0.0516
G01 X 16.5500 Y 29.5869 Z -1.0000
G01 X 16.5445 Y 29.6066 Z -1.0000
G02 X 16.5743 Y 29.6860 Z -1.0000 I 0.3508 J -0.0864
G02 X 16.6195 Y 29.7624 Z -1.0000 I 0.6904 J -0.3569
G01 X 16.6289 Y 29.7674 Z -1.0000
G01 X 16.6338 Y 29.7621 Z -1.0000
G02 X 16.6251 Y 29.7249 Z -1.0000 I -0.1368 J 0.0122
G01 X 16.6247 Y 29.6934 Z -1.0000
G01 X 16.6402 Y 29.6825 Z -1.0000
G01 X 16.6610 Y 29.6930 Z -1.0000
G03 X 16.6715 Y 29.7249 Z -1.0000 I -0.0433 J 0.0320
G03 X 16.6706 Y 29.7674 Z -1.0000 I -0.9420 J 0.0000
G03 X 16.6687 Y 29.7887 Z -1.0000 I -0.2583 J -0.0116
G01 X 16.6608 Y 29.8025 Z -1.0000
G01 X 16.6475 Y 29.8055 Z -1.0000
G01 X 16.6313 Y 29.8083 Z -1.0000
G02 X 16.5926 Y 29.8409 Z -1.0000 I 0.1077 J 0.1671
G01 X 16.5846 Y 29.8681 Z -1.0000
G01 X 16.5997 Y 29.8807 Z -1.0000
G03 X 16.6325 Y 29.8914 Z -1.0000 I -0.0000 J 0.0558
G01 X 16.6433 Y 29.9125 Z -1.0000
G01 X 16.6537 Y 29.9221 Z -1.0000
G02 X 16.6857 Y 29.9090 Z -1.0000 I -0.0047 J -0.0574
G03 X 16.7182 Y 29.8950 Z -1.0000 I 0.0400 J 0.0482
G01 X 16.7282 Y 29.9039 Z -1.0000
G03 X 16.7210 Y 29.9300 Z -1.0000 I -0.0511 J 0.0000
G03 X 16.6999 Y 29.9515 Z -1.0000 I -0.0544 J -0.0323
G02 X 16.6793 Y 29.9732 Z -1.0000 I 0.0305 J 0.0495
G02 X 16.6720 Y 30.0027 Z -1.0000 I 0.0528 J 0.0287
G01 X 16.6800 Y 30.0100 Z -1.0000
G01 X 16.6950 Y 30.0009 Z -1.0000
G01 X 16.7197 Y 29.9931 Z -1.0000
G03 X 16.7794 Y 30.0363 Z -1.0000 I -0.0628 J 0.1496
G03 X 16.8245 Y 30.1001 Z -1.0000 I -0.2944 J 0.2560
G01 X 16.8201 Y 30.1082 Z -1.0000
G01 X 16.8168 Y 30.1147 Z -1.0000
G02 X 16.8443 Y 30.1436 Z -1.0000 I 0.1035 J -0.0708
G03 X 16.8842 Y 30.1817 Z -1.0000 I -0.1490 J 0.1956
G03 X 16.8967 Y 30.2064 Z -1.0000 I -0.0478 J 0.0399
G01 X 16.9101 Y 30.2239 Z -1.0000
G01 X 16.9328 Y 30.2265 Z -1.0000
G01 X 16.9449 Y 30.2336 Z -1.0000
G03 X 16.9426 Y 30.2681 Z -1.0000 I -0.0570 J 0.0134
G02 X 16.9380 Y 30.2956 Z -1.0000 I 0.0656 J 0.0251
G01 X 16.9436 Y 30.2978 Z -1.0000
G01 X 16.9644 Y 30.2915 Z -1.0000
G03 X 17.0017 Y 30.3092 Z -1.0000 I -0.0161 J 0.0822
G02 X 17.0316 Y 30.3231 Z -1.0000 I 0.0412 J -0.0496
G01 X 17.0402 Y 30.3161 Z -1.0000
G01 X 17.0466 Y 30.3126 Z -1.0000
G03 X 17.0665 Y 30.3323 Z -1.0000 I -0.0328 J 0.0531
G03 X 17.0782 Y 30.3738 Z -1.0000 I -0.0638 J 0.0403
G03 X 17.0651 Y 30.4244 Z -1.0000 I -0.1109 J -0.0017
G01 X 17.0639 Y 30.4600 Z -1.0000
G01 X 17.0883 Y 30.4759 Z -1.0000
G01 X 17.1028 Y 30.4868 Z -1.0000
G01 X 17.0964 Y 30.5038 Z -1.0000
G02 X 17.0779 Y 30.5244 Z -1.0000 I 0.0288 J 0.0446
G01 X 17.0823 Y 30.5317 Z -1.0000
G01 X 17.1052 Y 30.5422 Z -1.0000
G03 X 17.1956 Y 30.6590 Z -1.0000 I -0.8062 J 0.7177
G02 X 17.2840 Y 30.7796 Z -1.0000 I 1.4767 J -0.9897
G01 X 17.2975 Y 30.7864 Z -1.0000
G01 X 17.3126 Y 30.7915 Z -1.0000
G03 X 17.3797 Y 30.8437 Z -1.0000 I -0.4581 J 0.6577
G03 X 17.4181 Y 30.8903 Z -1.0000 I -0.1194 J 0.1376
G01 X 17.4123 Y 30.9003 Z -1.0000
G01 X 17.3885 Y 30.9092 Z -1.0000
G01 X 17.3797 Y 30.9286 Z -1.0000
G01 X 17.3892 Y 30.9475 Z -1.0000
G01 X 17.4179 Y 30.9569 Z -1.0000
G01 X 17.4409 Y 30.9717 Z -1.0000
G03 X 17.4533 Y 31.0348 Z -1.0000 I -0.1276 J 0.0580
G02 X 17.4659 Y 31.1063 Z -1.0000 I 0.1737 J 0.0064
G02 X 17.5051 Y 31.1629 Z -1.0000 I 0.1451 J -0.0586
G02 X 17.5564 Y 31.1885 Z -1.0000 I 0.0700 J -0.0761
G01 X 17.5825 Y 31.1770 Z -1.0000
G01 X 17.6004 Y 31.1636 Z -1.0000
G01 X 17.6092 Y 31.1694 Z -1.0000
G03 X 17.6112 Y 31.1977 Z -1.0000 I -0.2249 J 0.0303
G03 X 17.6096 Y 31.2189 Z -1.0000 I -0.1275 J 0.0011
G01 X 17.6143 Y 31.2307 Z -1.0000
G01 X 17.6280 Y 31.2331 Z -1.0000
G01 X 17.6482 Y 31.2349 Z -1.0000
G03 X 17.7262 Y 31.2860 Z -1.0000 I -0.2580 J 0.4790
G03 X 17.7891 Y 31.3479 Z -1.0000 I -0.2444 J 0.3113
G01 X 17.7896 Y 31.3641 Z -1.0000
G01 X 17.8118 Y 31.3517 Z -1.0000
G01 X 17.8198 Y 31.3215 Z -1.0000
G02 X 17.7829 Y 31.2687 Z -1.0000 I -0.1121 J 0.0391
G02 X 17.7175 Y 31.2183 Z -1.0000 I -0.9163 J 1.1210
G02 X 17.6979 Y 31.2070 Z -1.0000 I -0.0640 J 0.0881
G01 X 17.6816 Y 31.1928 Z -1.0000
G03 X 17.6062 Y 31.0615 Z -1.0000 I 1.5489 J -0.9757
G02 X 17.5289 Y 30.9296 Z -1.0000 I -1.3278 J 0.6902
G02 X 17.4363 Y 30.8030 Z -1.0000 I -1.3158 J 0.8651
G03 X 17.3386 Y 30.6796 Z -1.0000 I 5.2978 J -4.2949
G03 X 17.3007 Y 30.6277 Z -1.0000 I 0.9014 J -0.6969
G03 X 17.2662 Y 30.5735 Z -1.0000 I 0.7737 J -0.5312
G03 X 17.2276 Y 30.5038 Z -1.0000 I 1.2449 J -0.7348
G02 X 17.1839 Y 30.4480 Z -1.0000 I -0.1698 J 0.0880
G01 X 17.1557 Y 30.4408 Z -1.0000
G01 X 17.1391 Y 30.4354 Z -1.0000
G01 X 17.1378 Y 30.4207 Z -1.0000
G01 X 17.1428 Y 30.3925 Z -1.0000
G02 X 17.1186 Y 30.3279 Z -1.0000 I -0.2208 J 0.0457
G02 X 17.0805 Y 30.2643 Z -1.0000 I -1.1158 J 0.6254
G02 X 17.0681 Y 30.2489 Z -1.0000 I -0.0775 J 0.0496
G03 X 17.0562 Y 30.2331 Z -1.0000 I 0.0502 J -0.0503
G03 X 16.9690 Y 30.0702 Z -1.0000 I 5.4320 J -3.0124
G03 X 16.8919 Y 29.9031 Z -1.0000 I 1.8466 J -0.9534
G03 X 16.8764 Y 29.8436 Z -1.0000 I 0.2155 J -0.0881
G03 X 16.8712 Y 29.7814 Z -1.0000 I 0.7778 J -0.0958
G03 X 16.8678 Y 29.6418 Z -1.0000 I 3.8351 J -0.1645
G03 X 16.8837 Y 29.5076 Z -1.0000 I 0.5430 J -0.0035
G03 X 16.9204 Y 29.4294 Z -1.0000 I 0.2152 J 0.0534
G02 X 16.9663 Y 29.3531 Z -1.0000 I -0.3824 J -0.2819
G02 X 16.9927 Y 29.2788 Z -1.0000 I -0.3362 J -0.1614
G03 X 17.0116 Y 29.2010 Z -1.0000 I 21.3173 J 5.1203
G03 X 17.0285 Y 29.1323 Z -1.0000 I 17.2336 J 4.2061
G02 X 17.0254 Y 29.0702 Z -1.0000 I -0.1048 J -0.0260
G02 X 16.9860 Y 29.0128 Z -1.0000 I -0.1273 J 0.0452
G03 X 16.9364 Y 28.9572 Z -1.0000 I 0.1811 J -0.2115
G03 X 16.9265 Y 28.9247 Z -1.0000 I 0.0481 J -0.0325
G01 X 16.9160 Y 28.8948 Z -1.0000
G02 X 16.8840 Y 28.8713 Z -1.0000 I -0.0591 J 0.0471
G03 X 16.8523 Y 28.8476 Z -1.0000 I 0.0261 J -0.0678
G03 X 16.8415 Y 28.8156 Z -1.0000 I 0.0420 J -0.0320
G01 X 16.8524 Y 28.7869 Z -1.0000
G01 X 16.8769 Y 28.7757 Z -1.0000
G01 X 16.8837 Y 28.7669 Z -1.0000
G01 X 16.8698 Y 28.7474 Z -1.0000
G01 X 16.8547 Y 28.7195 Z -1.0000
G01 X 16.8698 Y 28.6916 Z -1.0000
G02 X 16.8910 Y 28.6698 Z -1.0000 I -0.0389 J -0.0593
G01 X 16.8875 Y 28.6633 Z -1.0000
G01 X 16.8837 Y 28.6549 Z -1.0000
G03 X 16.9722 Y 28.5625 Z -1.0000 I 0.7536 J 0.6337
G02 X 17.0493 Y 28.4653 Z -1.0000 I -0.2648 J -0.2890
G01 X 17.0422 Y 28.4378 Z -1.0000
G02 X 17.0003 Y 28.4230 Z -1.0000 I -0.0549 J 0.0889
G02 X 16.9079 Y 28.4208 Z -1.0000 I -0.0566 J 0.4495
G03 X 16.8304 Y 28.4097 Z -1.0000 I -0.0140 J -0.1774
G01 X 16.8132 Y 28.3846 Z -1.0000
G03 X 16.8205 Y 28.3425 Z -1.0000 I 0.1249 J 0.0000
G03 X 16.8733 Y 28.2167 Z -1.0000 I 1.2016 J 0.4302
G03 X 16.9424 Y 28.1007 Z -1.0000 I 0.7035 J 0.3406
G03 X 16.9865 Y 28.0593 Z -1.0000 I 0.1271 J 0.0915
G02 X 17.0302 Y 28.0208 Z -1.0000 I -0.0938 J -0.1502
G01 X 17.0397 Y 27.9939 Z -1.0000
G01 X 17.0515 Y 27.9695 Z -1.0000
G03 X 17.1247 Y 27.9264 Z -1.0000 I 0.1905 J 0.2401
G02 X 17.2001 Y 27.8849 Z -1.0000 I -0.1484 J -0.3581
G01 X 17.2097 Y 27.8664 Z -1.0000
G01 X 17.2019 Y 27.8492 Z -1.0000
G01 X 17.1814 Y 27.8415 Z -1.0000
G01 X 17.1608 Y 27.8493 Z -1.0000
G01 X 17.1530 Y 27.8665 Z -1.0000
G01 X 17.1443 Y 27.8852 Z -1.0000
G03 X 17.1035 Y 27.9080 Z -1.0000 I -0.0802 J -0.0958
G02 X 17.0542 Y 27.9251 Z -1.0000 I 0.5523 J 1.6728
G02 X 16.9425 Y 27.9664 Z -1.0000 I 3.5226 J 9.6950
G03 X 16.8321 Y 27.9980 Z -1.0000 I -0.2496 J -0.6631
G01 X 16.8071 Y 27.9935 Z -1.0000
G01 X 16.7952 Y 27.9732 Z -1.0000
G03 X 16.8019 Y 27.8747 Z -1.0000 I 0.4452 J -0.0194
G03 X 16.8269 Y 27.7728 Z -1.0000 I 0.8339 J 0.1509
G03 X 16.8566 Y 27.6995 Z -1.0000 I 0.4576 J 0.1430
G02 X 16.8683 Y 27.6310 Z -1.0000 I -0.1052 J -0.0531
G02 X 16.8384 Y 27.5615 Z -1.0000 I -0.1382 J 0.0183
G03 X 16.8012 Y 27.4897 Z -1.0000 I 0.1565 J -0.1267
G03 X 16.7944 Y 27.4061 Z -1.0000 I 0.2084 J -0.0591
G03 X 16.8146 Y 27.3210 Z -1.0000 I 0.3659 J 0.0421
G03 X 16.8608 Y 27.2256 Z -1.0000 I 0.5048 J 0.1857
G03 X 16.9205 Y 27.1548 Z -1.0000 I 0.2631 J 0.1613
G01 X 16.9416 Y 27.1548 Z -1.0000
G01 X 16.9149 Y 27.0945 Z -1.0000
G03 X 16.8883 Y 27.0374 Z -1.0000 I 0.2161 J -0.1354
G01 X 16.8949 Y 27.0323 Z -1.0000
G01 X 16.9076 Y 27.0295 Z -1.0000
G01 X 16.9098 Y 27.0096 Z -1.0000
G02 X 16.8871 Y 26.9745 Z -1.0000 I -0.0955 J 0.0366
G02 X 16.8534 Y 26.9524 Z -1.0000 I -0.0678 J 0.0668
G03 X 16.8257 Y 26.9284 Z -1.0000 I 0.0193 J -0.0504
G03 X 16.8132 Y 26.8804 Z -1.0000 I 0.0857 J -0.0479
G03 X 16.8271 Y 26.8322 Z -1.0000 I 0.0901 J -0.0000
G03 X 16.8672 Y 26.7949 Z -1.0000 I 0.0909 J 0.0575
G02 X 16.9062 Y 26.7550 Z -1.0000 I -0.0436 J -0.0815
G02 X 16.9427 Y 26.6452 Z -1.0000 I -0.3551 J -0.1789
G02 X 16.9566 Y 26.5241 Z -1.0000 I -1.0021 J -0.1770
G02 X 16.9555 Y 26.4112 Z -1.0000 I -0.8739 J -0.0481
G02 X 16.9470 Y 26.2979 Z -1.0000 I -29.2187 J 2.1571
G02 X 16.9402 Y 26.2129 Z -1.0000 I -22.4810 J 1.7473
G03 X 16.9440 Y 26.1296 Z -1.0000 I 0.3285 J -0.0267
G03 X 16.9712 Y 26.0352 Z -1.0000 I 0.4501 J 0.0785
G02 X 16.9978 Y 25.9424 Z -1.0000 I -0.4109 J -0.1680
G02 X 16.9939 Y 25.9029 Z -1.0000 I -0.0738 J -0.0127
G01 X 16.9948 Y 25.8667 Z -1.0000
G03 X 17.0375 Y 25.8045 Z -1.0000 I 0.1888 J 0.0839
G03 X 17.0996 Y 25.7533 Z -1.0000 I 0.2970 J 0.2970
G01 X 17.1247 Y 25.7456 Z -1.0000
G01 X 17.1469 Y 25.7526 Z -1.0000
G01 X 17.1554 Y 25.7669 Z -1.0000
G02 X 17.1581 Y 25.7881 Z -1.0000 I 0.5248 J -0.0584
G02 X 17.1705 Y 25.8660 Z -1.0000 I 6.8761 J -1.0484
G03 X 17.1667 Y 25.9298 Z -1.0000 I -0.1424 J 0.0235
G01 X 17.1479 Y 25.9439 Z -1.0000
G01 X 17.1390 Y 25.9549 Z -1.0000
G02 X 17.1575 Y 25.9889 Z -1.0000 I 0.0668 J -0.0143
G03 X 17.1828 Y 26.0395 Z -1.0000 I -0.0632 J 0.0632
G03 X 17.1786 Y 26.1376 Z -1.0000 I -0.2659 J 0.0377
G02 X 17.1743 Y 26.2342 Z -1.0000 I 0.2615 J 0.0603
G02 X 17.1972 Y 26.2733 Z -1.0000 I 0.0585 J -0.0080
G01 X 17.2117 Y 26.3014 Z -1.0000
G01 X 17.1986 Y 26.3211 Z -1.0000
G02 X 17.1713 Y 26.3450 Z -1.0000 I 0.0190 J 0.0493
G02 X 17.1643 Y 26.3834 Z -1.0000 I 0.0536 J 0.0295
G02 X 17.1799 Y 26.4242 Z -1.0000 I 0.1008 J -0.0150
G02 X 17.2117 Y 26.4555 Z -1.0000 I 0.0880 J -0.0577
G01 X 17.2280 Y 26.4744 Z -1.0000
G01 X 17.2234 Y 26.4816 Z -1.0000
G01 X 17.2085 Y 26.4955 Z -1.0000
G02 X 17.1972 Y 26.7943 Z -1.0000 I 3.2533 J 0.2726
G02 X 17.2143 Y 27.1004 Z -1.0000 I 3.2258 J -0.0260
G02 X 17.2330 Y 27.1398 Z -1.0000 I 0.0648 J -0.0067
G03 X 17.2572 Y 27.1769 Z -1.0000 I -0.0758 J 0.0758
G03 X 17.2663 Y 27.2257 Z -1.0000 I -0.1262 J 0.0489
G01 X 17.2795 Y 27.2551 Z -1.0000
G01 X 17.3017 Y 27.2571 Z -1.0000
G01 X 17.3083 Y 27.2609 Z -1.0000
G01 X 17.3016 Y 27.2798 Z -1.0000
G02 X 17.2903 Y 27.3238 Z -1.0000 I 0.0424 J 0.0343
G02 X 17.3228 Y 27.3959 Z -1.0000 I 0.1617 J -0.0296
G03 X 17.3723 Y 27.4706 Z -1.0000 I -0.4326 J 0.3402
G03 X 17.3796 Y 27.4990 Z -1.0000 I -0.0516 J 0.0284
G01 X 17.3884 Y 27.5211 Z -1.0000
G01 X 17.4089 Y 27.5299 Z -1.0000
G02 X 17.4364 Y 27.5239 Z -1.0000 I -0.0000 J -0.0657
G02 X 17.5078 Y 27.4844 Z -1.0000 I -0.2310 J -0.5012
G02 X 17.5625 Y 27.4355 Z -1.0000 I -0.1348 J -0.2057
G01 X 17.5638 Y 27.4168 Z -1.0000
G01 X 17.5627 Y 27.3968 Z -1.0000
G03 X 17.5906 Y 27.3611 Z -1.0000 I 0.0960 J 0.0464
G02 X 17.6164 Y 27.3237 Z -1.0000 I -0.0532 J -0.0641
G02 X 17.6156 Y 27.2871 Z -1.0000 I -0.0511 J -0.0172
G01 X 17.6176 Y 27.2587 Z -1.0000
G01 X 17.6378 Y 27.2467 Z -1.0000
G01 X 17.6437 Y 27.2367 Z -1.0000
G02 X 17.6143 Y 27.2039 Z -1.0000 I -0.0851 J 0.0467
G03 X 17.5681 Y 27.1539 Z -1.0000 I 0.0917 J -0.1309
G03 X 17.5572 Y 27.1067 Z -1.0000 I 0.0700 J -0.0411
G03 X 17.5676 Y 27.0645 Z -1.0000 I 0.1321 J 0.0102
G01 X 17.5767 Y 27.0616 Z -1.0000
G01 X 17.5906 Y 27.0620 Z -1.0000
G02 X 17.6203 Y 27.0384 Z -1.0000 I -0.0494 J -0.0928
G02 X 17.6394 Y 27.0022 Z -1.0000 I -0.0664 J -0.0580
G02 X 17.6539 Y 26.9068 Z -1.0000 I -0.4757 J -0.1214
G02 X 17.6510 Y 26.8439 Z -1.0000 I -0.3144 J -0.0167
G01 X 17.6445 Y 26.8431 Z -1.0000
G03 X 17.6245 Y 26.8706 Z -1.0000 I -0.0671 J -0.0279
G01 X 17.6029 Y 26.8785 Z -1.0000
G01 X 17.5932 Y 26.8682 Z -1.0000
G03 X 17.6066 Y 26.8213 Z -1.0000 I 0.1146 J 0.0074
G02 X 17.6262 Y 26.7644 Z -1.0000 I -0.1674 J -0.0896
G01 X 17.6211 Y 26.7381 Z -1.0000
G01 X 17.6211 Y 26.7162 Z -1.0000
G03 X 17.6538 Y 26.6848 Z -1.0000 I 0.0767 J 0.0470
G02 X 17.6814 Y 26.6446 Z -1.0000 I -0.0268 J -0.0479
G02 X 17.7128 Y 26.2702 Z -1.0000 I -3.2367 J -0.4602
G02 X 17.7074 Y 25.8883 Z -1.0000 I -4.7210 J -0.1242
G02 X 17.6895 Y 25.8426 Z -1.0000 I -0.0782 J 0.0043
G03 X 17.6716 Y 25.8096 Z -1.0000 I 0.0735 J -0.0610
G01 X 17.6771 Y 25.8023 Z -1.0000
G01 X 17.6824 Y 25.7949 Z -1.0000
G02 X 17.6629 Y 25.7598 Z -1.0000 I -0.1035 J 0.0346
G03 X 17.6508 Y 25.7282 Z -1.0000 I 0.0405 J -0.0336
G01 X 17.6613 Y 25.7173 Z -1.0000
G01 X 17.6773 Y 25.7043 Z -1.0000
G02 X 17.6748 Y 25.6537 Z -1.0000 I -0.0972 J -0.0206
G02 X 17.6474 Y 25.5953 Z -1.0000 I -0.2342 J 0.0744
G02 X 17.6157 Y 25.5616 Z -1.0000 I -0.1063 J 0.0682
G03 X 17.5889 Y 25.5264 Z -1.0000 I 0.0457 J -0.0626
G03 X 17.5702 Y 25.4412 Z -1.0000 I 0.2821 J -0.1065
G02 X 17.5538 Y 25.3598 Z -1.0000 I -0.3249 J 0.0231
G01 X 17.5390 Y 25.3492 Z -1.0000
G01 X 17.5320 Y 25.3408 Z -1.0000
G03 X 17.5456 Y 25.3113 Z -1.0000 I 0.0623 J 0.0109
G01 X 17.5483 Y 25.2765 Z -1.0000
G02 X 17.4735 Y 25.1910 Z -1.0000 I -0.2746 J 0.1645
G02 X 17.3650 Y 25.1173 Z -1.0000 I -0.5253 J 0.6575
G02 X 17.2403 Y 25.0581 Z -1.0000 I -0.4610 J 0.8089
G02 X 17.1098 Y 25.0192 Z -1.0000 I -0.3065 J 0.7909
G02 X 17.0610 Y 25.0200 Z -1.0000 I -0.0227 J 0.1069
G03 X 17.0292 Y 25.0193 Z -1.0000 I -0.0145 J -0.0591
G01 X 17.0254 Y 25.0095 Z -1.0000
G01 X 17.0227 Y 24.9905 Z -1.0000
G02 X 16.9028 Y 24.8989 Z -1.0000 I -0.6195 J 0.6869
G03 X 16.7780 Y 24.8042 Z -1.0000 I 0.5371 J -0.8369
G01 X 16.7645 Y 24.7757 Z -1.0000
G02 X 16.7580 Y 24.7413 Z -1.0000 I -0.1191 J 0.0048
G02 X 16.6633 Y 24.4853 Z -1.0000 I -6.8179 J 2.3766
G03 X 16.5714 Y 24.2282 Z -1.0000 I 4.2581 J -1.6672
G03 X 16.5475 Y 24.1280 Z -1.0000 I 0.6195 J -0.2008
G02 X 16.5273 Y 24.0268 Z -1.0000 I -1.2074 J 0.1888
G02 X 16.5060 Y 23.9581 Z -1.0000 I -0.5774 J 0.1410
G03 X 16.4860 Y 23.8891 Z -1.0000 I 0.4262 J -0.1607
G03 X 16.4630 Y 23.7489 Z -1.0000 I 1.7500 J -0.3599
G02 X 16.4440 Y 23.6075 Z -1.0000 I -6.5753 J 0.8104
G02 X 16.4343 Y 23.5506 Z -1.0000 I -1.1394 J 0.1654
G03 X 16.4250 Y 23.4937 Z -1.0000 I 0.8788 J -0.1720
G03 X 16.4050 Y 23.3241 Z -1.0000 I 7.5937 J -0.9843
G02 X 16.3866 Y 23.1542 Z -1.0000 I -67.5781 J 7.2307
G02 X 16.3739 Y 23.0408 Z -1.0000 I -28.0875 J 3.0768
G03 X 16.3645 Y 22.9273 Z -1.0000 I 1.8289 J -0.2084
G03 X 16.3454 Y 22.4886 Z -1.0000 I 27.5052 J -1.4191
G02 X 16.3272 Y 22.0497 Z -1.0000 I -36.9238 J 1.3152
G02 X 16.3178 Y 21.9080 Z -1.0000 I -3.8980 J 0.1853
G03 X 16.3079 Y 21.7662 Z -1.0000 I 4.9204 J -0.4169
G03 X 16.3027 Y 21.6389 Z -1.0000 I 4.1314 J -0.2306
G03 X 16.3023 Y 21.5114 Z -1.0000 I 2.9995 J -0.0727
G03 X 16.3157 Y 20.9308 Z -1.0000 I 59.9184 J 1.0927
G03 X 16.3339 Y 20.3503 Z -1.0000 I 85.0319 J 2.3699
G03 X 16.3447 Y 20.0953 Z -1.0000 I 16.5499 J 0.5744
G03 X 16.3597 Y 19.8406 Z -1.0000 I 14.7600 J 0.7370
G03 X 16.3761 Y 19.6280 Z -1.0000 I 10.5837 J 0.7118
G03 X 16.3995 Y 19.4172 Z -1.0000 I 4.5116 J 0.3947
G03 X 16.4077 Y 19.3938 Z -1.0000 I 0.0611 J 0.0082
G02 X 16.4154 Y 19.3704 Z -1.0000 I -0.0493 J -0.0292
G02 X 16.4351 Y 19.1258 Z -1.0000 I -5.5765 J -0.5715
G03 X 16.4574 Y 18.8817 Z -1.0000 I 3.7120 J 0.2165
G03 X 16.4712 Y 18.8360 Z -1.0000 I 0.1400 J 0.0175
G02 X 16.4852 Y 18.7905 Z -1.0000 I -0.1291 J -0.0646
G02 X 16.4997 Y 18.6226 Z -1.0000 I -1.7925 J -0.2391
G03 X 16.5174 Y 18.4569 Z -1.0000 I 1.2411 J 0.0491
G03 X 16.5358 Y 18.4173 Z -1.0000 I 0.0839 J 0.0147
G03 X 16.5704 Y 18.3929 Z -1.0000 I 0.0626 J 0.0519
G03 X 16.6325 Y 18.3818 Z -1.0000 I 0.0622 J 0.1697
G02 X 16.6872 Y 18.3691 Z -1.0000 I 0.0000 J -0.1241
G01 X 16.6999 Y 18.3488 Z -1.0000
G01 X 16.7067 Y 18.3323 Z -1.0000
G01 X 16.7164 Y 18.3323 Z -1.0000
G01 X 16.7329 Y 18.3350 Z -1.0000
G02 X 16.7819 Y 18.2999 Z -1.0000 I -0.0826 J -0.1667
G03 X 16.8329 Y 18.2535 Z -1.0000 I 0.5152 J 0.5152
G03 X 16.8982 Y 18.2037 Z -1.0000 I 0.6564 J 0.7942
G02 X 16.9533 Y 18.1555 Z -1.0000 I -0.1963 J -0.2802
G01 X 16.9531 Y 18.1442 Z -1.0000
G01 X 16.9392 Y 18.1410 Z -1.0000
G02 X 16.8294 Y 18.1860 Z -1.0000 I 0.2990 J 0.8846
G03 X 16.7178 Y 18.2388 Z -1.0000 I -2.3981 J -4.9250
G01 X 16.7114 Y 18.2402 Z -1.0000
G01 X 16.7944 Y 18.1354 Z -1.0000
G03 X 16.8865 Y 18.0329 Z -1.0000 I 2.1383 J 1.8286
G03 X 17.0110 Y 17.9058 Z -1.0000 I 3.4018 J 3.2104
G03 X 17.1468 Y 17.7933 Z -1.0000 I 0.7333 J 0.7468
G03 X 17.3226 Y 17.6892 Z -1.0000 I 0.8020 J 1.1533
G03 X 17.5092 Y 17.6022 Z -1.0000 I 1.7731 J 3.5604
G03 X 17.7094 Y 17.5209 Z -1.0000 I 1.7467 J 4.0159
G03 X 17.9132 Y 17.4496 Z -1.0000 I 1.5555 J 4.1208
G03 X 17.9907 Y 17.4302 Z -1.0000 I 0.1848 J 0.5731
G02 X 18.0680 Y 17.4120 Z -1.0000 I -0.1386 J -0.7610
G02 X 18.0961 Y 17.3995 Z -1.0000 I -0.0317 J -0.1091
G03 X 18.1241 Y 17.3866 Z -1.0000 I 0.0676 J 0.1097
G03 X 18.2256 Y 17.3578 Z -1.0000 I 0.4559 J 1.4131
G03 X 18.3286 Y 17.3334 Z -1.0000 I 1.5086 J 6.1364
G03 X 18.5125 Y 17.2923 Z -1.0000 I 4.4556 J 19.5301
G02 X 18.6963 Y 17.2506 Z -1.0000 I -2.4378 J -11.1689
G02 X 18.9303 Y 17.1939 Z -1.0000 I -4.2864 J -18.1935
G03 X 19.1640 Y 17.1359 Z -1.0000 I 34.8821 J 139.9553
G03 X 19.3976 Y 17.0783 Z -1.0000 I 34.8319 J 140.7550
G02 X 19.6312 Y 17.0205 Z -1.0000 I -20.0326 J -81.5468
G02 X 19.6879 Y 17.0061 Z -1.0000 I -1.2269 J -4.9334
G03 X 19.7449 Y 16.9930 Z -1.0000 I 0.2600 J 1.0001
G03 X 19.9145 Y 16.9607 Z -1.0000 I 1.6991 J 8.4822
G02 X 20.0842 Y 16.9291 Z -1.0000 I -2.2294 J -12.4097
G02 X 20.3535 Y 16.8757 Z -1.0000 I -6.0956 J -31.4500
G03 X 20.6232 Y 16.8246 Z -1.0000 I 2.1069 J 10.3928
G03 X 21.0615 Y 16.7511 Z -1.0000 I 4.8127 J 27.3590
G03 X 21.5011 Y 16.6857 Z -1.0000 I 3.3778 J 21.1832
G03 X 21.6563 Y 16.6689 Z -1.0000 I 0.3624 J 2.6211
G02 X 21.8119 Y 16.6550 Z -1.0000 I -0.5487 J -7.0169
G02 X 22.3360 Y 16.6006 Z -1.0000 I -8.3189 J -82.7129
G03 X 22.8603 Y 16.5482 Z -1.0000 I 3.9791 J 37.1821
G03 X 23.1149 Y 16.5283 Z -1.0000 I 0.8121 J 8.7524
G03 X 23.3698 Y 16.5124 Z -1.0000 I 8.6713 J 136.5917
G03 X 23.5964 Y 16.4987 Z -1.0000 I 6.2873 J 102.0502
G03 X 23.8230 Y 16.4858 Z -1.0000 I 2.3906 J 40.2580
G03 X 24.1911 Y 16.4667 Z -1.0000 I 5.8927 J 109.6619
G02 X 24.5592 Y 16.4465 Z -1.0000 I -2.0660 J -41.0581
G02 X 24.6160 Y 16.4415 Z -1.0000 I -0.0585 J -0.9863
G03 X 24.6727 Y 16.4362 Z -1.0000 I 0.1311 J 1.1037
G03 X 24.7717 Y 16.4310 Z -1.0000 I 0.2245 J 3.3491
G01 X 24.7999 Y 16.4113 Z -1.0000
G01 X 24.7904 Y 16.3853 Z -1.0000
G02 X 24.7066 Y 16.3554 Z -1.0000 I -0.1492 J 0.2860
G02 X 24.5567 Y 16.3369 Z -1.0000 I -0.1888 J 0.9114
G03 X 24.4135 Y 16.3209 Z -1.0000 I 0.0430 J -1.0351
G01 X 24.4035 Y 16.3089 Z -1.0000
G01 X 24.3940 Y 16.2988 Z -1.0000
G02 X 24.3115 Y 16.3032 Z -1.0000 I -0.0221 J 0.3557
G03 X 24.2640 Y 16.2999 Z -1.0000 I -0.0168 J -0.0979
G01 X 24.2619 Y 16.2872 Z -1.0000
G01 X 24.2595 Y 16.2719 Z -1.0000
G02 X 24.1911 Y 16.2628 Z -1.0000 I -0.0569 J 0.1652
G03 X 24.0993 Y 16.2491 Z -1.0000 I -0.0144 J -0.2186
G01 X 24.0818 Y 16.2215 Z -1.0000
G01 X 24.0655 Y 16.1914 Z -1.0000
G02 X 23.9921 Y 16.1727 Z -1.0000 I -0.0734 J 0.1350
G02 X 23.9083 Y 16.1863 Z -1.0000 I 0.0000 J 0.2653
G01 X 23.8868 Y 16.2078 Z -1.0000
G01 X 23.8662 Y 16.2226 Z -1.0000
G03 X 23.7981 Y 16.2078 Z -1.0000 I -0.0000 J -0.1643
G02 X 23.7188 Y 16.1834 Z -1.0000 I -0.1338 J 0.2937
G02 X 23.5936 Y 16.1727 Z -1.0000 I -0.1252 J 0.7302
G02 X 23.4690 Y 16.1849 Z -1.0000 I 0.0000 J 0.6441
G02 X 23.3875 Y 16.2133 Z -1.0000 I 0.0593 J 0.3007
G02 X 23.3135 Y 16.2595 Z -1.0000 I 0.2501 J 0.4836
G02 X 23.2711 Y 16.2996 Z -1.0000 I 0.1449 J 0.1956
G03 X 23.2346 Y 16.3240 Z -1.0000 I -0.0591 J -0.0490
G01 X 23.2155 Y 16.3168 Z -1.0000
G01 X 23.1915 Y 16.2992 Z -1.0000
G02 X 23.0856 Y 16.2842 Z -1.0000 I -0.1247 J 0.4965
G02 X 22.9742 Y 16.2882 Z -1.0000 I -0.0281 J 0.7554
G02 X 22.8671 Y 16.3084 Z -1.0000 I 0.0797 J 0.7194
G03 X 22.7712 Y 16.3232 Z -1.0000 I -0.1174 J -0.4406
G01 X 22.7608 Y 16.3134 Z -1.0000
G01 X 22.7524 Y 16.2967 Z -1.0000
G02 X 22.7113 Y 16.2772 Z -1.0000 I -0.0718 J 0.0983
G01 X 22.7112 Y 16.2698 Z -1.0000
G03 X 22.7698 Y 16.2609 Z -1.0000 I 0.0661 J 0.2379
G02 X 22.8755 Y 16.2486 Z -1.0000 I -0.0189 J -0.6226
G02 X 22.9345 Y 16.2274 Z -1.0000 I -0.0434 J -0.2127
G03 X 22.9892 Y 16.2149 Z -1.0000 I 0.0500 J 0.0933
G03 X 23.0329 Y 16.2319 Z -1.0000 I -0.0034 J 0.0735
G02 X 23.0740 Y 16.2485 Z -1.0000 I 0.0467 J -0.0563
G01 X 23.1040 Y 16.2374 Z -1.0000
G01 X 23.1022 Y 16.2177 Z -1.0000
G02 X 23.0348 Y 16.1896 Z -1.0000 I -0.1000 J 0.1450
G02 X 22.9360 Y 16.1800 Z -1.0000 I -0.1035 J 0.5513
G02 X 22.8131 Y 16.1877 Z -1.0000 I -0.0073 J 0.8665
G02 X 22.6911 Y 16.2094 Z -1.0000 I 0.1969 J 1.4649
G02 X 22.5418 Y 16.2477 Z -1.0000 I 0.4979 J 2.2530
G03 X 22.3937 Y 16.2818 Z -1.0000 I -0.3717 J -1.2719
G03 X 22.3579 Y 16.2791 Z -1.0000 I -0.0124 J -0.0727
G02 X 22.3252 Y 16.2794 Z -1.0000 I -0.0159 J 0.0478
G02 X 22.2844 Y 16.3052 Z -1.0000 I 0.0365 J 0.1030
G03 X 22.2449 Y 16.3297 Z -1.0000 I -0.0722 J -0.0722
G01 X 22.2202 Y 16.3269 Z -1.0000
G01 X 22.2133 Y 16.3084 Z -1.0000
G03 X 22.2396 Y 16.2651 Z -1.0000 I 0.1016 J 0.0318
G03 X 22.2908 Y 16.2300 Z -1.0000 I 0.1195 J 0.1195
G03 X 22.3885 Y 16.1993 Z -1.0000 I 0.1855 J 0.4201
G01 X 22.3910 Y 16.1877 Z -1.0000
G02 X 22.3562 Y 16.1759 Z -1.0000 I -0.0363 J 0.0500
G02 X 22.2250 Y 16.1877 Z -1.0000 I -0.0142 J 0.5799
G02 X 22.1515 Y 16.2181 Z -1.0000 I 0.0429 J 0.2080
G02 X 22.1092 Y 16.2703 Z -1.0000 I 0.0601 J 0.0918
G02 X 22.1123 Y 16.3196 Z -1.0000 I 0.0553 J 0.0213
G03 X 22.1325 Y 16.3743 Z -1.0000 I -0.1869 J 0.1001
G01 X 22.1278 Y 16.3904 Z -1.0000
G01 X 22.1122 Y 16.3961 Z -1.0000
G03 X 22.0842 Y 16.3871 Z -1.0000 I 0.0047 J -0.0622
G01 X 22.0684 Y 16.3648 Z -1.0000
G03 X 22.0712 Y 16.3276 Z -1.0000 I 0.0635 J -0.0139
G01 X 22.0714 Y 16.2968 Z -1.0000
G01 X 22.0558 Y 16.2860 Z -1.0000
G01 X 22.0350 Y 16.2755 Z -1.0000
G03 X 22.0245 Y 16.2435 Z -1.0000 I 0.0433 J -0.0320
G02 X 22.0139 Y 16.2116 Z -1.0000 I -0.0538 J 0.0000
G01 X 21.9931 Y 16.2010 Z -1.0000
G01 X 21.9777 Y 16.2120 Z -1.0000
G01 X 21.9781 Y 16.2435 Z -1.0000
G01 X 21.9719 Y 16.2706 Z -1.0000
G03 X 21.9329 Y 16.2860 Z -1.0000 I -0.0389 J -0.0414
G01 X 21.9044 Y 16.2724 Z -1.0000
G01 X 21.9055 Y 16.2520 Z -1.0000
G02 X 21.9321 Y 16.2150 Z -1.0000 I -0.0997 J -0.0997
G02 X 21.9395 Y 16.1835 Z -1.0000 I -0.0635 J -0.0315
G01 X 21.9261 Y 16.1597 Z -1.0000
G02 X 21.8498 Y 16.1292 Z -1.0000 I -0.1303 J 0.2153
G03 X 21.7656 Y 16.0991 Z -1.0000 I 0.0758 J -0.3454
G03 X 21.7011 Y 16.0537 Z -1.0000 I 0.1246 J -0.2455
G02 X 21.6387 Y 16.0028 Z -1.0000 I -0.3781 J 0.4002
G02 X 21.5599 Y 15.9549 Z -1.0000 I -0.4125 J 0.5895
G02 X 21.4853 Y 15.9375 Z -1.0000 I -0.0712 J 0.1359
G01 X 21.4523 Y 15.9573 Z -1.0000
G03 X 21.4206 Y 15.9920 Z -1.0000 I -0.0898 J -0.0502
G03 X 21.3858 Y 16.0028 Z -1.0000 I -0.0348 J -0.0509
G02 X 21.3540 Y 16.0121 Z -1.0000 I 0.0000 J 0.0590
G01 X 21.3447 Y 16.0290 Z -1.0000
G01 X 21.3536 Y 16.0481 Z -1.0000
G02 X 21.3865 Y 16.0644 Z -1.0000 I 0.0492 J -0.0581
G01 X 21.4045 Y 16.0850 Z -1.0000
G03 X 21.3929 Y 16.1444 Z -1.0000 I -0.1123 J 0.0090
G03 X 21.3461 Y 16.1989 Z -1.0000 I -0.1320 J -0.0659
G03 X 21.2801 Y 16.2242 Z -1.0000 I -0.0825 J -0.1167
G03 X 21.2160 Y 16.2115 Z -1.0000 I -0.0123 J -0.1063
G03 X 21.1786 Y 16.1680 Z -1.0000 I 0.0399 J -0.0721
G01 X 21.1556 Y 16.1513 Z -1.0000
G01 X 21.1344 Y 16.1661 Z -1.0000
G03 X 21.1072 Y 16.2196 Z -1.0000 I -0.1760 J -0.0559
G01 X 21.0879 Y 16.2293 Z -1.0000
G01 X 21.0709 Y 16.2199 Z -1.0000
G03 X 21.0615 Y 16.1869 Z -1.0000 I 0.0532 J -0.0330
G01 X 21.0490 Y 16.1568 Z -1.0000
G01 X 21.0190 Y 16.1444 Z -1.0000
G02 X 20.9864 Y 16.1543 Z -1.0000 I -0.0000 J 0.0588
G01 X 20.9765 Y 16.1727 Z -1.0000
G01 X 20.9662 Y 16.1912 Z -1.0000
G03 X 20.9270 Y 16.2033 Z -1.0000 I -0.0429 J -0.0696
G01 X 20.9107 Y 16.2112 Z -1.0000
G01 X 20.9128 Y 16.2198 Z -1.0000
G01 X 20.9369 Y 16.2417 Z -1.0000
G03 X 20.9482 Y 16.2884 Z -1.0000 I -0.0902 J 0.0466
G02 X 20.9589 Y 16.3320 Z -1.0000 I 0.0942 J 0.0000
G01 X 20.9765 Y 16.3426 Z -1.0000
G01 X 20.9950 Y 16.3525 Z -1.0000
G03 X 21.0049 Y 16.3851 Z -1.0000 I -0.0489 J 0.0326
G01 X 20.9927 Y 16.4154 Z -1.0000
G01 X 20.9640 Y 16.4276 Z -1.0000
G03 X 20.9282 Y 16.4187 Z -1.0000 I 0.0000 J -0.0765
G03 X 20.9034 Y 16.3954 Z -1.0000 I 0.0304 J -0.0574
G01 X 20.8841 Y 16.3909 Z -1.0000
G02 X 20.8461 Y 16.4308 Z -1.0000 I 0.0574 J 0.0929
G01 X 20.8232 Y 16.4405 Z -1.0000
G01 X 20.8076 Y 16.4205 Z -1.0000
G02 X 20.7945 Y 16.3548 Z -1.0000 I -0.1834 J 0.0024
G01 X 20.7765 Y 16.3426 Z -1.0000
G01 X 20.7586 Y 16.3536 Z -1.0000
G02 X 20.7514 Y 16.3922 Z -1.0000 I 0.0623 J 0.0315
G03 X 20.7539 Y 16.4418 Z -1.0000 I -0.4678 J 0.0481
G03 X 20.7510 Y 16.5267 Z -1.0000 I -1.3715 J -0.0046
G03 X 20.7398 Y 16.5763 Z -1.0000 I -0.1611 J -0.0103
G01 X 20.7312 Y 16.5763 Z -1.0000
G02 X 20.7115 Y 16.5488 Z -1.0000 I -0.0670 J 0.0272
G01 X 20.6902 Y 16.5409 Z -1.0000
G01 X 20.6704 Y 16.5507 Z -1.0000
G02 X 20.6367 Y 16.6117 Z -1.0000 I 0.1957 J 0.1481
G03 X 20.5982 Y 16.6658 Z -1.0000 I -0.1233 J -0.0469
G03 X 20.5524 Y 16.6825 Z -1.0000 I -0.0458 J -0.0545
G01 X 20.5138 Y 16.6638 Z -1.0000
G03 X 20.4950 Y 16.6100 Z -1.0000 I 0.0680 J -0.0538
G02 X 20.4824 Y 16.5602 Z -1.0000 I -0.1043 J 0.0000
G01 X 20.4656 Y 16.5558 Z -1.0000
G01 X 20.4497 Y 16.5790 Z -1.0000
G02 X 20.4526 Y 16.6258 Z -1.0000 I 0.0949 J 0.0176
G03 X 20.4561 Y 16.6729 Z -1.0000 I -0.0969 J 0.0309
G01 X 20.4415 Y 16.6947 Z -1.0000
G01 X 20.4171 Y 16.6987 Z -1.0000
G01 X 20.3970 Y 16.6842 Z -1.0000
G01 X 20.3758 Y 16.6689 Z -1.0000
G02 X 20.3420 Y 16.6712 Z -1.0000 I -0.0132 J 0.0558
G01 X 20.3115 Y 16.6692 Z -1.0000
G03 X 20.2872 Y 16.6416 Z -1.0000 I 0.0251 J -0.0465
G03 X 20.2788 Y 16.5975 Z -1.0000 I 0.1175 J -0.0451
G03 X 20.2866 Y 16.5550 Z -1.0000 I 0.1161 J -0.0009
G03 X 20.3087 Y 16.5210 Z -1.0000 I 0.0912 J 0.0351
G01 X 20.3291 Y 16.5125 Z -1.0000
G01 X 20.3392 Y 16.5026 Z -1.0000
G02 X 20.3299 Y 16.4630 Z -1.0000 I -0.0838 J -0.0013
G03 X 20.3142 Y 16.4128 Z -1.0000 I 0.1371 J -0.0705
G03 X 20.3182 Y 16.3747 Z -1.0000 I 0.0807 J -0.0107
G02 X 20.3198 Y 16.3403 Z -1.0000 I -0.0554 J -0.0198
G01 X 20.3037 Y 16.3181 Z -1.0000
G01 X 20.2846 Y 16.2940 Z -1.0000
G03 X 20.2553 Y 16.1798 Z -1.0000 I 0.6508 J -0.2279
G03 X 20.2512 Y 16.0729 Z -1.0000 I 0.4155 J -0.0694
G01 X 20.2660 Y 16.0594 Z -1.0000
G01 X 20.2853 Y 16.0479 Z -1.0000
G02 X 20.2968 Y 16.0028 Z -1.0000 I -0.0830 J -0.0452
G03 X 20.3110 Y 15.9603 Z -1.0000 I 0.0708 J 0.0000
G01 X 20.3393 Y 15.9461 Z -1.0000
G01 X 20.3692 Y 15.9335 Z -1.0000
G01 X 20.3818 Y 15.9027 Z -1.0000
G03 X 20.3935 Y 15.8674 Z -1.0000 I 0.0591 J 0.0000
G03 X 20.4271 Y 15.8420 Z -1.0000 I 0.0608 J 0.0454
G03 X 20.4671 Y 15.8407 Z -1.0000 I 0.0218 J 0.0566
G03 X 20.4975 Y 15.8641 Z -1.0000 I -0.0168 J 0.0532
G01 X 20.5148 Y 15.8763 Z -1.0000
G01 X 20.5229 Y 15.8699 Z -1.0000
G02 X 20.5154 Y 15.8405 Z -1.0000 I -0.0585 J -0.0008
G02 X 20.4937 Y 15.8178 Z -1.0000 I -0.0548 J 0.0308
G02 X 20.4623 Y 15.8105 Z -1.0000 I -0.0266 J 0.0430
G02 X 20.3167 Y 15.8348 Z -1.0000 I 0.1020 J 1.0592
G02 X 20.1725 Y 15.8782 Z -1.0000 I 0.3086 J 1.2871
G02 X 20.0764 Y 15.9223 Z -1.0000 I 0.2230 J 0.6126
G03 X 19.9808 Y 15.9641 Z -1.0000 I -0.2577 J -0.4592
G03 X 19.9152 Y 15.9744 Z -1.0000 I -0.0656 J -0.2026
G03 X 19.8516 Y 15.9662 Z -1.0000 I -0.0000 J -0.2493
G01 X 19.8336 Y 15.9529 Z -1.0000
G01 X 19.8310 Y 15.9317 Z -1.0000
G03 X 19.8550 Y 15.8840 Z -1.0000 I 0.1553 J 0.0481
G03 X 19.8963 Y 15.8466 Z -1.0000 I 0.1107 J 0.0809
G03 X 19.9704 Y 15.8163 Z -1.0000 I 0.1428 J 0.2437
G03 X 20.0252 Y 15.8191 Z -1.0000 I 0.0229 J 0.0913
G01 X 20.0345 Y 15.8394 Z -1.0000
G01 X 20.0446 Y 15.8579 Z -1.0000
G02 X 20.1095 Y 15.8547 Z -1.0000 I 0.0263 J -0.1287
G02 X 20.1897 Y 15.8139 Z -1.0000 I -0.0767 J -0.2500
G02 X 20.2277 Y 15.7660 Z -1.0000 I -0.0723 J -0.0963
G03 X 20.2661 Y 15.7215 Z -1.0000 I 0.0915 J 0.0402
G03 X 20.3393 Y 15.6961 Z -1.0000 I 0.0919 J 0.1467
G02 X 20.4205 Y 15.6790 Z -1.0000 I -0.0457 J -0.4186
G02 X 20.4511 Y 15.6607 Z -1.0000 I -0.0233 J -0.0738
G01 X 20.4489 Y 15.6457 Z -1.0000
G02 X 20.3945 Y 15.6313 Z -1.0000 I -0.0595 J 0.1145
G03 X 20.3605 Y 15.6227 Z -1.0000 I 0.0032 J -0.0840
G01 X 20.3613 Y 15.6149 Z -1.0000
G02 X 20.4065 Y 15.5928 Z -1.0000 I -0.0317 J -0.1220
G02 X 20.5100 Y 15.5006 Z -1.0000 I -0.5867 J -0.7627
G02 X 20.6051 Y 15.3980 Z -1.0000 I -2.1696 J -2.1072
G01 X 20.6083 Y 15.3895 Z -1.0000
G01 X 20.6040 Y 15.3840 Z -1.0000
G02 X 20.5696 Y 15.3797 Z -1.0000 I -0.0345 J 0.1367
G02 X 20.5343 Y 15.3898 Z -1.0000 I -0.0000 J 0.0665
G02 X 20.3885 Y 15.4930 Z -1.0000 I 0.8363 J 1.3367
G01 X 20.3888 Y 15.4929 Z -1.0000
G00 Z 5.0000

(End cutting path id: path2)


(Start cutting path id: path2)
(Change tool to Default tool)

G00 Z 5.0000
G00 X 20.6423 Y 15.7779

G01 Z -1.0000 F 100.0000(Penetrate)
G02 X 20.6619 Y 15.8044 Z -1.0000 I 0.0503 J -0.0167 F 3500.0000
G02 X 20.7022 Y 15.8207 Z -1.0000 I 0.0539 J -0.0756
G02 X 20.7455 Y 15.8222 Z -1.0000 I 0.0287 J -0.1943
G01 X 20.7503 Y 15.8171 Z -1.0000
G01 X 20.7461 Y 15.8089 Z -1.0000
G02 X 20.6904 Y 15.7743 Z -1.0000 I -0.2986 J 0.4193
G02 X 20.6503 Y 15.7659 Z -1.0000 I -0.0345 J 0.0645
G01 X 20.6423 Y 15.7779 Z -1.0000
G01 X 20.6423 Y 15.7779 Z -1.0000
G00 Z 5.0000

(End cutting path id: path2)


(Start cutting path id: path2)
(Change tool to Default tool)

G00 Z 5.0000
G00 X 20.8138 Y 16.0380

G01 Z -1.0000 F 100.0000(Penetrate)
G02 X 20.8639 Y 16.0891 Z -1.0000 I 0.1563 J -0.1033 F 3500.0000
G02 X 20.9204 Y 16.1113 Z -1.0000 I 0.0762 J -0.1108
G02 X 20.9595 Y 16.1006 Z -1.0000 I 0.0074 J -0.0497
G01 X 20.9667 Y 16.0736 Z -1.0000
G03 X 20.9499 Y 16.0261 Z -1.0000 I 0.8308 J -0.3194
G01 X 20.9485 Y 16.0171 Z -1.0000
G01 X 20.9443 Y 16.0133 Z -1.0000
G02 X 20.8919 Y 16.0227 Z -1.0000 I 0.0349 J 0.3451
G03 X 20.8472 Y 16.0220 Z -1.0000 I -0.0210 J -0.0802
G01 X 20.8352 Y 16.0059 Z -1.0000
G01 X 20.8260 Y 15.9836 Z -1.0000
G01 X 20.8035 Y 15.9743 Z -1.0000
G01 X 20.7935 Y 15.9860 Z -1.0000
G02 X 20.8138 Y 16.0380 Z -1.0000 I 0.1312 J -0.0213
G01 X 20.8138 Y 16.0380 Z -1.0000
G00 Z 5.0000

(End cutting path id: path2)


(Start cutting path id: path2)
(Change tool to Default tool)

G00 Z 5.0000
G00 X 20.6157 Y 16.2363

G01 Z -1.0000 F 100.0000(Penetrate)
G02 X 20.6354 Y 16.2627 Z -1.0000 I 0.0499 J -0.0167 F 3500.0000
G02 X 20.6809 Y 16.2820 Z -1.0000 I 0.0680 J -0.0969
G01 X 20.6999 Y 16.2720 Z -1.0000
G01 X 20.6963 Y 16.2466 Z -1.0000
G02 X 20.6549 Y 16.2084 Z -1.0000 I -0.1637 J 0.1358
G01 X 20.6312 Y 16.2009 Z -1.0000
G01 X 20.6169 Y 16.2102 Z -1.0000
G01 X 20.6157 Y 16.2363 Z -1.0000
G01 X 20.6157 Y 16.2363 Z -1.0000
G00 Z 5.0000

(End cutting path id: path2)


(Start cutting path id: path2)
(Change tool to Default tool)

G00 Z 5.0000
G00 X 20.7002 Y 16.4275

G01 Z -1.0000 F 100.0000(Penetrate)
G02 X 20.7066 Y 16.4771 Z -1.0000 I 0.1963 J 0.0000 F 3500.0000
G01 X 20.7132 Y 16.4771 Z -1.0000
G02 X 20.7195 Y 16.4275 Z -1.0000 I -0.1903 J -0.0496
G02 X 20.7132 Y 16.3780 Z -1.0000 I -0.1966 J 0.0000
G01 X 20.7066 Y 16.3780 Z -1.0000
G02 X 20.7002 Y 16.4275 Z -1.0000 I 0.1894 J 0.0496
G01 X 20.7002 Y 16.4275 Z -1.0000
G00 Z 5.0000

(End cutting path id: path2)


(Start cutting path id: path2)
(Change tool to Default tool)

G00 Z 5.0000
G00 X 21.1773 Y 16.0474

G01 Z -1.0000 F 100.0000(Penetrate)
G01 X 21.1857 Y 16.0664 Z -1.0000 F 3500.0000
G01 X 21.1945 Y 16.0646 Z -1.0000
G02 X 21.2005 Y 16.0292 Z -1.0000 I -0.0795 J -0.0319
G01 X 21.1923 Y 16.0103 Z -1.0000
G01 X 21.1835 Y 16.0121 Z -1.0000
G02 X 21.1774 Y 16.0474 Z -1.0000 I 0.0795 J 0.0318
G01 X 21.1773 Y 16.0474 Z -1.0000
G00 Z 5.0000

(End cutting path id: path2)


(Start cutting path id: path2)
(Change tool to Default tool)

G00 Z 5.0000
G00 X 21.2884 Y 15.8893

G01 Z -1.0000 F 100.0000(Penetrate)
G01 X 21.2993 Y 15.9068 Z -1.0000 F 3500.0000
G02 X 21.3467 Y 15.9177 Z -1.0000 I 0.0474 J -0.0977
G02 X 21.3841 Y 15.9060 Z -1.0000 I 0.0000 J -0.0655
G01 X 21.3875 Y 15.8893 Z -1.0000
G02 X 21.3654 Y 15.8693 Z -1.0000 I -0.0454 J 0.0280
G02 X 21.3292 Y 15.8610 Z -1.0000 I -0.0362 J 0.0746
G02 X 21.2981 Y 15.8708 Z -1.0000 I 0.0000 J 0.0545
G01 X 21.2884 Y 15.8893 Z -1.0000
G01 X 21.2884 Y 15.8893 Z -1.0000
G00 Z 5.0000

(End cutting path id: path2)


(Start cutting path id: path2)
(Change tool to Default tool)

G00 Z 5.0000
G00 X 21.4017 Y 15.8336

G01 Z -1.0000 F 100.0000(Penetrate)
G01 X 21.4114 Y 15.8514 Z -1.0000 F 3500.0000
G02 X 21.4442 Y 15.8611 Z -1.0000 I 0.0328 J -0.0508
G02 X 21.4818 Y 15.8562 Z -1.0000 I -0.0000 J -0.1486
G01 X 21.4866 Y 15.8499 Z -1.0000
G01 X 21.4823 Y 15.8418 Z -1.0000
G02 X 21.4442 Y 15.8225 Z -1.0000 I -0.1119 J 0.1730
G02 X 21.4117 Y 15.8207 Z -1.0000 I -0.0191 J 0.0495
G01 X 21.4017 Y 15.8336 Z -1.0000
G01 X 21.4017 Y 15.8336 Z -1.0000
G00 Z 5.0000

(End cutting path id: path2)


(Start cutting path id: path2)
(Change tool to Default tool)

G00 Z 5.0000
G00 X 21.5291 Y 15.6628

G01 Z -1.0000 F 100.0000(Penetrate)
G01 X 21.5278 Y 15.6821 Z -1.0000 F 3500.0000
G01 X 21.5416 Y 15.6912 Z -1.0000
G01 X 21.5631 Y 15.6826 Z -1.0000
G01 X 21.5716 Y 15.6628 Z -1.0000
G02 X 21.5667 Y 15.6395 Z -1.0000 I -0.0580 J -0.0000
G01 X 21.5591 Y 15.6345 Z -1.0000
G01 X 21.5489 Y 15.6386 Z -1.0000
G02 X 21.5291 Y 15.6628 Z -1.0000 I 0.0827 J 0.0875
G01 X 21.5291 Y 15.6628 Z -1.0000
G00 Z 5.0000

(End cutting path id: path2)


(Start cutting path id: path2)
(Change tool to Default tool)

G00 Z 5.0000
G00 X 21.5008 Y 15.5779

G01 Z -1.0000 F 100.0000(Penetrate)
G01 X 21.5044 Y 15.5944 Z -1.0000 F 3500.0000
G02 X 21.5433 Y 15.6062 Z -1.0000 I 0.0389 J -0.0583
G02 X 21.5822 Y 15.5944 Z -1.0000 I 0.0000 J -0.0701
G01 X 21.5858 Y 15.5779 Z -1.0000
G02 X 21.5647 Y 15.5560 Z -1.0000 I -0.0604 J 0.0372
G01 X 21.5433 Y 15.5495 Z -1.0000
G01 X 21.5219 Y 15.5560 Z -1.0000
G02 X 21.5008 Y 15.5779 Z -1.0000 I 0.0396 J 0.0593
G01 X 21.5008 Y 15.5779 Z -1.0000
G00 Z 5.0000

(End cutting path id: path2)


(Start cutting path id: path2)
(Change tool to Default tool)

G00 Z 5.0000
G00 X 21.6495 Y 15.6532

G01 Z -1.0000 F 100.0000(Penetrate)
G02 X 21.6849 Y 15.6601 Z -1.0000 I 0.0354 J -0.0872 F 3500.0000
G02 X 21.7203 Y 15.6532 Z -1.0000 I -0.0000 J -0.0942
G01 X 21.7203 Y 15.6458 Z -1.0000
G02 X 21.6849 Y 15.6389 Z -1.0000 I -0.0354 J 0.0879
G02 X 21.6495 Y 15.6458 Z -1.0000 I -0.0000 J 0.0947
G01 X 21.6495 Y 15.6532 Z -1.0000
G01 X 21.6495 Y 15.6532 Z -1.0000
G00 Z 5.0000

(End cutting path id: path2)


(Start cutting path id: path2)
(Change tool to Default tool)

G00 Z 5.0000
G00 X 21.7079 Y 15.8237

G01 Z -1.0000 F 100.0000(Penetrate)
G02 X 21.7433 Y 15.8298 Z -1.0000 I 0.0319 J -0.0795 F 3500.0000
G01 X 21.7622 Y 15.8215 Z -1.0000
G01 X 21.7604 Y 15.8127 Z -1.0000
G02 X 21.7250 Y 15.8066 Z -1.0000 I -0.0319 J 0.0795
G01 X 21.7061 Y 15.8150 Z -1.0000
G01 X 21.7079 Y 15.8238 Z -1.0000
G01 X 21.7079 Y 15.8237 Z -1.0000
G00 Z 5.0000

(End cutting path id: path2)


(Start cutting path id: path2)
(Change tool to Default tool)

G00 Z 5.0000
G00 X 21.8779 Y 15.8237

G01 Z -1.0000 F 100.0000(Penetrate)
G02 X 21.9132 Y 15.8298 Z -1.0000 I 0.0319 J -0.0795 F 3500.0000
G01 X 21.9321 Y 15.8215 Z -1.0000
G01 X 21.9303 Y 15.8127 Z -1.0000
G02 X 21.8950 Y 15.8066 Z -1.0000 I -0.0319 J 0.0795
G01 X 21.8760 Y 15.8150 Z -1.0000
G01 X 21.8779 Y 15.8238 Z -1.0000
G01 X 21.8779 Y 15.8237 Z -1.0000
G00 Z 5.0000

(End cutting path id: path2)


(Start cutting path id: path2)
(Change tool to Default tool)

G00 Z 5.0000
G00 X 21.8973 Y 16.0876

G01 Z -1.0000 F 100.0000(Penetrate)
G02 X 21.9171 Y 16.1119 Z -1.0000 I 0.1017 J -0.0627 F 3500.0000
G01 X 21.9273 Y 16.1159 Z -1.0000
G01 X 21.9349 Y 16.1110 Z -1.0000
G02 X 21.9398 Y 16.0876 Z -1.0000 I -0.0532 J -0.0234
G01 X 21.9313 Y 16.0678 Z -1.0000
G01 X 21.9098 Y 16.0593 Z -1.0000
G01 X 21.8960 Y 16.0683 Z -1.0000
G01 X 21.8973 Y 16.0876 Z -1.0000
G01 X 21.8973 Y 16.0876 Z -1.0000
G00 Z 5.0000

(End cutting path id: path2)


(Start cutting path id: path2)
(Change tool to Default tool)

G00 Z 5.0000
G00 X 21.6223 Y 16.1182

G01 Z -1.0000 F 100.0000(Penetrate)
G03 X 21.6101 Y 16.2049 Z -1.0000 I -0.1964 J 0.0167 F 3500.0000
G03 X 21.5717 Y 16.2514 Z -1.0000 I -0.0878 J -0.0334
G03 X 21.5135 Y 16.2672 Z -1.0000 I -0.0559 J -0.0905
G03 X 21.4575 Y 16.2489 Z -1.0000 I 0.0022 J -0.1016
G03 X 21.4189 Y 16.2086 Z -1.0000 I 0.0822 J -0.1175
G01 X 21.4208 Y 16.1914 Z -1.0000
G01 X 21.4423 Y 16.1796 Z -1.0000
G03 X 21.5055 Y 16.1727 Z -1.0000 I 0.0632 J 0.2867
G02 X 21.5625 Y 16.1637 Z -1.0000 I 0.0000 J -0.1845
G01 X 21.5712 Y 16.1514 Z -1.0000
G02 X 21.5669 Y 16.1314 Z -1.0000 I -0.0543 J 0.0011
G02 X 21.5447 Y 16.0891 Z -1.0000 I -0.2699 J 0.1144
G03 X 21.5289 Y 16.0479 Z -1.0000 I 0.0950 J -0.0601
G01 X 21.5336 Y 16.0238 Z -1.0000
G01 X 21.5522 Y 16.0099 Z -1.0000
G03 X 21.5813 Y 16.0105 Z -1.0000 I 0.0135 J 0.0482
G01 X 21.6023 Y 16.0306 Z -1.0000
G03 X 21.6223 Y 16.1182 Z -1.0000 I -0.3017 J 0.1148
G01 X 21.6223 Y 16.1182 Z -1.0000
G00 Z 5.0000

(End cutting path id: path2)


(Start cutting path id: path2)
(Change tool to Default tool)

G00 Z 5.0000
G00 X 21.3458 Y 15.4918

G01 Z -1.0000 F 100.0000(Penetrate)
G01 X 21.3349 Y 15.5151 Z -1.0000 F 3500.0000
G01 X 21.3515 Y 15.5364 Z -1.0000
G02 X 21.3980 Y 15.5448 Z -1.0000 I 0.0458 J -0.1192
G02 X 21.4291 Y 15.5359 Z -1.0000 I -0.0004 J -0.0597
G01 X 21.4459 Y 15.5142 Z -1.0000
G01 X 21.4429 Y 15.4909 Z -1.0000
G02 X 21.4236 Y 15.4702 Z -1.0000 I -0.0625 J 0.0388
G01 X 21.4071 Y 15.4650 Z -1.0000
G01 X 21.3886 Y 15.4691 Z -1.0000
G02 X 21.3458 Y 15.4918 Z -1.0000 I 0.1283 J 0.2933
G01 X 21.3458 Y 15.4918 Z -1.0000
G00 Z 5.0000

(End cutting path id: path2)


(Start cutting path id: path2)
(Change tool to Default tool)

G00 Z 5.0000
G00 X 21.0282 Y 15.0591

G01 Z -1.0000 F 100.0000(Penetrate)
G02 X 21.0636 Y 15.0652 Z -1.0000 I 0.0319 J -0.0795 F 3500.0000
G01 X 21.0825 Y 15.0569 Z -1.0000
G01 X 21.0807 Y 15.0481 Z -1.0000
G02 X 21.0453 Y 15.0420 Z -1.0000 I -0.0319 J 0.0795
G01 X 21.0264 Y 15.0503 Z -1.0000
G01 X 21.0282 Y 15.0591 Z -1.0000
G01 X 21.0282 Y 15.0591 Z -1.0000
G00 Z 5.0000

(End cutting path id: path2)


(Start cutting path id: path2)
(Change tool to Default tool)

G00 Z 5.0000
G00 X 22.0034 Y 14.8619

G01 Z -1.0000 F 100.0000(Penetrate)
G01 X 21.9843 Y 14.8804 Z -1.0000 F 3500.0000
G01 X 21.9865 Y 14.9049 Z -1.0000
G01 X 21.9842 Y 14.9142 Z -1.0000
G01 X 21.9711 Y 14.9141 Z -1.0000
G01 X 21.9574 Y 14.8897 Z -1.0000
G03 X 21.9708 Y 14.8524 Z -1.0000 I 0.0579 J -0.0003
G03 X 22.0049 Y 14.8269 Z -1.0000 I 0.0701 J 0.0582
G01 X 22.0217 Y 14.8305 Z -1.0000
G01 X 22.0233 Y 14.8454 Z -1.0000
G01 X 22.0034 Y 14.8619 Z -1.0000
G01 X 22.0034 Y 14.8619 Z -1.0000
G00 Z 5.0000

(End cutting path id: path2)


(Start cutting path id: path2)
(Change tool to Default tool)

G00 Z 5.0000
G00 X 22.0303 Y 14.7619

G01 Z -1.0000 F 100.0000(Penetrate)
G02 X 21.8943 Y 14.8885 Z -1.0000 I 1.5042 J 1.7508 F 3500.0000
G02 X 21.8712 Y 14.9225 Z -1.0000 I 0.0804 J 0.0796
G01 X 21.8754 Y 14.9409 Z -1.0000
G01 X 21.8970 Y 14.9447 Z -1.0000
G03 X 21.9347 Y 14.9358 Z -1.0000 I 0.0519 J 0.1357
G01 X 21.9398 Y 14.9405 Z -1.0000
G01 X 21.9350 Y 14.9499 Z -1.0000
G03 X 21.8798 Y 14.9849 Z -1.0000 I -0.2691 J -0.3646
G03 X 21.8438 Y 14.9944 Z -1.0000 I -0.0379 J -0.0708
G01 X 21.8390 Y 14.9859 Z -1.0000
G01 X 21.8432 Y 14.9631 Z -1.0000
G01 X 21.8331 Y 14.9547 Z -1.0000
G01 X 21.8113 Y 14.9622 Z -1.0000
G02 X 21.7416 Y 15.0255 Z -1.0000 I 0.3637 J 0.4705
G01 X 21.7501 Y 15.0639 Z -1.0000
G02 X 21.9183 Y 15.0963 Z -1.0000 I 0.1683 J -0.4200
G02 X 22.1022 Y 15.0311 Z -1.0000 I -0.0000 J -0.2918
G02 X 22.1816 Y 14.8827 Z -1.0000 I -0.1370 J -0.1687
G02 X 22.1940 Y 14.6717 Z -1.0000 I -3.0196 J -0.2829
G01 X 22.1870 Y 14.6544 Z -1.0000
G01 X 22.1720 Y 14.6530 Z -1.0000
G02 X 22.0303 Y 14.7618 Z -1.0000 I 0.9264 J 1.3520
G01 X 22.0303 Y 14.7619 Z -1.0000
G00 Z 5.0000

(End cutting path id: path2)


(Start cutting path id: path2)
(Change tool to Default tool)

G00 Z 5.0000
G00 X 22.2726 Y 15.1735

G01 Z -1.0000 F 100.0000(Penetrate)
G02 X 22.3646 Y 15.1792 Z -1.0000 I 0.0921 J -0.7398 F 3500.0000
G02 X 22.4567 Y 15.1735 Z -1.0000 I 0.0000 J -0.7454
G01 X 22.4567 Y 15.1678 Z -1.0000
G02 X 22.3646 Y 15.1621 Z -1.0000 I -0.0920 J 0.7427
G02 X 22.2726 Y 15.1678 Z -1.0000 I -0.0000 J 0.7492
G01 X 22.2726 Y 15.1735 Z -1.0000
G01 X 22.2726 Y 15.1735 Z -1.0000
G00 Z 5.0000

(End cutting path id: path2)


(Start cutting path id: path2)
(Change tool to Default tool)

G00 Z 5.0000
G00 X 22.2655 Y 15.5779

G01 Z -1.0000 F 100.0000(Penetrate)
G01 X 22.2501 Y 15.5946 Z -1.0000 F 3500.0000
G01 X 22.2567 Y 15.6042 Z -1.0000
G02 X 22.2996 Y 15.5968 Z -1.0000 I 0.0043 J -0.1033
G01 X 22.3221 Y 15.5779 Z -1.0000
G01 X 22.3309 Y 15.5515 Z -1.0000
G02 X 22.3224 Y 15.5542 Z -1.0000 I 0.0127 J 0.0554
G02 X 22.2655 Y 15.5779 Z -1.0000 I 0.9821 J 2.4415
G01 X 22.2655 Y 15.5779 Z -1.0000
G00 Z 5.0000

(End cutting path id: path2)


(Start cutting path id: path2)
(Change tool to Default tool)

G00 Z 5.0000
G00 X 22.5576 Y 15.8237

G01 Z -1.0000 F 100.0000(Penetrate)
G02 X 22.5930 Y 15.8298 Z -1.0000 I 0.0319 J -0.0795 F 3500.0000
G01 X 22.6119 Y 15.8215 Z -1.0000
G01 X 22.6101 Y 15.8127 Z -1.0000
G02 X 22.5747 Y 15.8066 Z -1.0000 I -0.0319 J 0.0795
G01 X 22.5558 Y 15.8150 Z -1.0000
G01 X 22.5576 Y 15.8238 Z -1.0000
G01 X 22.5576 Y 15.8237 Z -1.0000
G00 Z 5.0000

(End cutting path id: path2)


(Start cutting path id: path2)
(Change tool to Default tool)

G00 Z 5.0000
G00 X 22.5629 Y 16.1442

G01 Z -1.0000 F 100.0000(Penetrate)
G01 X 22.5726 Y 16.1628 Z -1.0000 F 3500.0000
G02 X 22.6037 Y 16.1726 Z -1.0000 I 0.0311 J -0.0448
G02 X 22.6399 Y 16.1642 Z -1.0000 I -0.0000 J -0.0828
G02 X 22.6620 Y 16.1442 Z -1.0000 I -0.0234 J -0.0481
G01 X 22.6586 Y 16.1276 Z -1.0000
G02 X 22.6212 Y 16.1159 Z -1.0000 I -0.0373 J 0.0537
G02 X 22.5738 Y 16.1268 Z -1.0000 I 0.0000 J 0.1086
G01 X 22.5629 Y 16.1442 Z -1.0000
G01 X 22.5629 Y 16.1442 Z -1.0000
G00 Z 5.0000

(End cutting path id: path2)


(Start cutting path id: path2)
(Change tool to Default tool)

G00 Z 5.0000
G00 X 22.7351 Y 16.1041

G01 Z -1.0000 F 100.0000(Penetrate)
G01 X 22.7434 Y 16.1230 Z -1.0000 F 3500.0000
G01 X 22.7522 Y 16.1212 Z -1.0000
G02 X 22.7583 Y 16.0859 Z -1.0000 I -0.0795 J -0.0319
G01 X 22.7500 Y 16.0669 Z -1.0000
G01 X 22.7412 Y 16.0687 Z -1.0000
G02 X 22.7351 Y 16.1041 Z -1.0000 I 0.0794 J 0.0318
G01 X 22.7351 Y 16.1041 Z -1.0000
G00 Z 5.0000

(End cutting path id: path2)


(Start cutting path id: path2)
(Change tool to Default tool)

G00 Z 5.0000
G00 X 22.6195 Y 16.3699

G01 Z -1.0000 F 100.0000(Penetrate)
G01 X 22.6104 Y 16.3918 Z -1.0000 F 3500.0000
G03 X 22.5599 Y 16.4292 Z -1.0000 I -0.1531 J -0.1542
G03 X 22.5027 Y 16.4438 Z -1.0000 I -0.0585 J -0.1093
G01 X 22.4692 Y 16.4302 Z -1.0000
G01 X 22.4665 Y 16.4109 Z -1.0000
G01 X 22.4864 Y 16.3992 Z -1.0000
G02 X 22.5243 Y 16.3889 Z -1.0000 I 0.0000 J -0.0747
G01 X 22.5346 Y 16.3709 Z -1.0000
G01 X 22.5445 Y 16.3524 Z -1.0000
G03 X 22.5771 Y 16.3426 Z -1.0000 I 0.0326 J 0.0489
G03 X 22.6099 Y 16.3522 Z -1.0000 I 0.0000 J 0.0607
G01 X 22.6195 Y 16.3699 Z -1.0000
G01 X 22.6195 Y 16.3699 Z -1.0000
G00 Z 5.0000

(End cutting path id: path2)


(Start cutting path id: path2)
(Change tool to Default tool)

G00 Z 5.0000
G00 X 22.3080 Y 16.0876

G01 Z -1.0000 F 100.0000(Penetrate)
G01 X 22.3163 Y 16.1076 Z -1.0000 F 3500.0000
G01 X 22.3363 Y 16.1159 Z -1.0000
G01 X 22.3563 Y 16.1076 Z -1.0000
G01 X 22.3646 Y 16.0876 Z -1.0000
G01 X 22.3563 Y 16.0676 Z -1.0000
G01 X 22.3363 Y 16.0593 Z -1.0000
G01 X 22.3163 Y 16.0676 Z -1.0000
G01 X 22.3080 Y 16.0876 Z -1.0000
G01 X 22.3080 Y 16.0876 Z -1.0000
G00 Z 5.0000

(End cutting path id: path2)


(Start cutting path id: path2)
(Change tool to Default tool)

G00 Z 5.0000
G00 X 23.1577 Y 16.0618

G01 Z -1.0000 F 100.0000(Penetrate)
G01 X 23.1551 Y 16.0738 Z -1.0000 F 3500.0000
G03 X 23.0869 Y 16.0753 Z -1.0000 I -0.0384 J -0.2024
G01 X 23.0516 Y 16.0853 Z -1.0000
G01 X 23.0533 Y 16.1034 Z -1.0000
G02 X 23.1313 Y 16.1276 Z -1.0000 I 0.0963 J -0.1720
G02 X 23.1734 Y 16.1146 Z -1.0000 I 0.0054 J -0.0573
G02 X 23.1999 Y 16.0789 Z -1.0000 I -0.0600 J -0.0723
G01 X 23.1982 Y 16.0561 Z -1.0000
G01 X 23.1787 Y 16.0382 Z -1.0000
G02 X 23.1489 Y 16.0314 Z -1.0000 I -0.0289 J 0.0578
G01 X 23.1423 Y 16.0403 Z -1.0000
G01 X 23.1577 Y 16.0618 Z -1.0000
G01 X 23.1577 Y 16.0618 Z -1.0000
G00 Z 5.0000

(End cutting path id: path2)


(Start cutting path id: path2)
(Change tool to Default tool)

G00 Z 5.0000
G00 X 23.4905 Y 16.0793

G01 Z -1.0000 F 100.0000(Penetrate)
G02 X 23.5542 Y 16.0854 Z -1.0000 I 0.0637 J -0.3285 F 3500.0000
G02 X 23.6179 Y 16.0793 Z -1.0000 I 0.0000 J -0.3346
G01 X 23.6179 Y 16.0731 Z -1.0000
G02 X 23.5542 Y 16.0670 Z -1.0000 I -0.0637 J 0.3317
G02 X 23.4905 Y 16.0731 Z -1.0000 I 0.0000 J 0.3374
G01 X 23.4905 Y 16.0793 Z -1.0000
G01 X 23.4905 Y 16.0793 Z -1.0000
G00 Z 5.0000

(End cutting path id: path2)


(Start cutting path id: path2)
(Change tool to Default tool)

G00 Z 5.0000
G00 X 23.9932 Y 16.2293

G01 Z -1.0000 F 100.0000(Penetrate)
G01 X 23.9914 Y 16.2469 Z -1.0000 F 3500.0000
G01 X 23.9665 Y 16.2576 Z -1.0000
G03 X 23.9324 Y 16.2476 Z -1.0000 I -0.0000 J -0.0632
G01 X 23.9224 Y 16.2293 Z -1.0000
G01 X 23.9304 Y 16.2090 Z -1.0000
G01 X 23.9490 Y 16.2010 Z -1.0000
G01 X 23.9719 Y 16.2077 Z -1.0000
G03 X 23.9932 Y 16.2293 Z -1.0000 I -0.0369 J 0.0575
G01 X 23.9932 Y 16.2293 Z -1.0000
G00 Z 5.0000

(End cutting path id: path2)


(Start cutting path id: path2)
(Change tool to Default tool)

G00 Z 5.0000
G00 X 23.8091 Y 16.7945

G01 Z -1.0000 F 100.0000(Penetrate)
G01 X 23.8094 Y 16.8059 Z -1.0000 F 3500.0000
G02 X 23.9082 Y 16.8182 Z -1.0000 I 0.1046 J -0.4379
G02 X 24.0773 Y 16.8126 Z -1.0000 I 0.0236 J -1.8389
G02 X 24.1773 Y 16.7968 Z -1.0000 I -0.0517 J -0.6515
G01 X 24.1773 Y 16.7848 Z -1.0000
G02 X 24.0781 Y 16.7731 Z -1.0000 I -0.0993 J 0.4156
G02 X 23.8811 Y 16.7809 Z -1.0000 I -0.0010 J 2.4711
G02 X 23.8091 Y 16.7945 Z -1.0000 I 0.0271 J 0.3403
G01 X 23.8091 Y 16.7945 Z -1.0000
G00 Z 5.0000

(End cutting path id: path2)


(Start cutting path id: path2)
(Change tool to Default tool)

G00 Z 5.0000
G00 X 23.5825 Y 16.8179

G01 Z -1.0000 F 100.0000(Penetrate)
G01 X 23.5915 Y 16.8312 Z -1.0000 F 3500.0000
G02 X 23.6391 Y 16.8402 Z -1.0000 I 0.0476 J -0.1212
G02 X 23.6868 Y 16.8312 Z -1.0000 I -0.0000 J -0.1302
G01 X 23.6958 Y 16.8179 Z -1.0000
G01 X 23.6868 Y 16.8047 Z -1.0000
G02 X 23.6391 Y 16.7957 Z -1.0000 I -0.0476 J 0.1212
G02 X 23.5915 Y 16.8047 Z -1.0000 I 0.0000 J 0.1303
G01 X 23.5825 Y 16.8179 Z -1.0000
G01 X 23.5825 Y 16.8179 Z -1.0000
G00 Z 5.0000

(End cutting path id: path2)


(Start cutting path id: path2)
(Change tool to Default tool)

G00 Z 5.0000
G00 X 23.4409 Y 16.8240

G01 Z -1.0000 F 100.0000(Penetrate)
G01 X 23.4508 Y 16.8425 Z -1.0000 F 3500.0000
G02 X 23.4834 Y 16.8524 Z -1.0000 I 0.0326 J -0.0489
G02 X 23.5160 Y 16.8425 Z -1.0000 I -0.0000 J -0.0588
G01 X 23.5259 Y 16.8240 Z -1.0000
G01 X 23.5160 Y 16.8056 Z -1.0000
G02 X 23.4834 Y 16.7957 Z -1.0000 I -0.0326 J 0.0489
G02 X 23.4508 Y 16.8056 Z -1.0000 I 0.0000 J 0.0588
G01 X 23.4409 Y 16.8240 Z -1.0000
G01 X 23.4409 Y 16.8240 Z -1.0000
G00 Z 5.0000

(End cutting path id: path2)


(Start cutting path id: path2)
(Change tool to Default tool)

G00 Z 5.0000
G00 X 23.1577 Y 16.8529

G01 Z -1.0000 F 100.0000(Penetrate)
G01 X 23.1697 Y 16.8665 Z -1.0000 F 3500.0000
G02 X 23.2356 Y 16.8630 Z -1.0000 I 0.0235 J -0.1801
G02 X 23.3120 Y 16.8416 Z -1.0000 I -0.2449 J -1.0208
G01 X 23.3253 Y 16.8342 Z -1.0000
G01 X 23.3237 Y 16.8290 Z -1.0000
G02 X 23.2474 Y 16.8240 Z -1.0000 I -0.0763 J 0.5842
G02 X 23.1698 Y 16.8362 Z -1.0000 I -0.0000 J 0.2531
G01 X 23.1577 Y 16.8529 Z -1.0000
G01 X 23.1577 Y 16.8529 Z -1.0000
G00 Z 5.0000

(End cutting path id: path2)


(Start cutting path id: path2)
(Change tool to Default tool)

G00 Z 5.0000
G00 X 22.2372 Y 16.9656

G01 Z -1.0000 F 100.0000(Penetrate)
G01 X 22.2340 Y 16.9797 Z -1.0000 F 3500.0000
G01 X 22.2601 Y 16.9919 Z -1.0000
G02 X 22.3173 Y 16.9811 Z -1.0000 I 0.0036 J -0.1368
G01 X 22.3222 Y 16.9656 Z -1.0000
G02 X 22.3036 Y 16.9404 Z -1.0000 I -0.1620 J 0.0998
G01 X 22.2992 Y 16.9393 Z -1.0000
G02 X 22.2938 Y 16.9414 Z -1.0000 I 0.0401 J 0.1092
G02 X 22.2372 Y 16.9656 Z -1.0000 I 5.1834 J 12.2146
G01 X 22.2372 Y 16.9656 Z -1.0000
G00 Z 5.0000

(End cutting path id: path2)


(Start cutting path id: path2)
(Change tool to Default tool)

G00 Z 5.0000
G00 X 21.6424 Y 17.0789

G01 Z -1.0000 F 100.0000(Penetrate)
G01 X 21.6457 Y 17.0956 Z -1.0000 F 3500.0000
G02 X 21.6816 Y 17.1072 Z -1.0000 I 0.0358 J -0.0495
G02 X 21.7329 Y 17.0978 Z -1.0000 I -0.0000 J -0.1440
G01 X 21.7557 Y 17.0789 Z -1.0000
G01 X 21.7524 Y 17.0622 Z -1.0000
G02 X 21.7166 Y 17.0506 Z -1.0000 I -0.0358 J 0.0495
G02 X 21.6652 Y 17.0601 Z -1.0000 I -0.0000 J 0.1440
G01 X 21.6424 Y 17.0789 Z -1.0000
G01 X 21.6424 Y 17.0789 Z -1.0000
G00 Z 5.0000

(End cutting path id: path2)


(Start cutting path id: path2)
(Change tool to Default tool)

G00 Z 5.0000
G00 X 21.4376 Y 17.1269

G01 Z -1.0000 F 100.0000(Penetrate)
G02 X 21.4873 Y 17.1329 Z -1.0000 I 0.0473 J -0.1809 F 3500.0000
G02 X 21.5226 Y 17.1259 Z -1.0000 I -0.0013 J -0.0981
G01 X 21.5221 Y 17.1188 Z -1.0000
G02 X 21.4725 Y 17.1128 Z -1.0000 I -0.0473 J 0.1822
G02 X 21.4372 Y 17.1199 Z -1.0000 I 0.0012 J 0.0974
G01 X 21.4376 Y 17.1269 Z -1.0000
G01 X 21.4376 Y 17.1269 Z -1.0000
G00 Z 5.0000

(End cutting path id: path2)


(Start cutting path id: path2)
(Change tool to Default tool)

G00 Z 5.0000
G00 X 20.2688 Y 17.3621

G01 Z -1.0000 F 100.0000(Penetrate)
G01 X 20.2501 Y 17.3767 Z -1.0000 F 3500.0000
G01 X 20.2546 Y 17.3848 Z -1.0000
G02 X 20.3105 Y 17.3799 Z -1.0000 I -0.0000 J -0.3191
G02 X 20.3821 Y 17.3621 Z -1.0000 I -0.0963 J -0.5417
G01 X 20.4008 Y 17.3476 Z -1.0000
G01 X 20.3962 Y 17.3394 Z -1.0000
G02 X 20.3404 Y 17.3444 Z -1.0000 I -0.0000 J 0.3191
G02 X 20.2688 Y 17.3621 Z -1.0000 I 0.0963 J 0.5417
G01 X 20.2688 Y 17.3621 Z -1.0000
G00 Z 5.0000

(End cutting path id: path2)


(Start cutting path id: path2)
(Change tool to Default tool)

G00 Z 5.0000
G00 X 19.9006 Y 17.4343

G01 Z -1.0000 F 100.0000(Penetrate)
G03 X 19.7716 Y 17.4606 Z -1.0000 I -0.2317 J -0.8090 F 3500.0000
G03 X 19.5855 Y 17.4731 Z -1.0000 I -0.2069 J -1.6812
G02 X 19.4057 Y 17.4921 Z -1.0000 I 0.0120 J 0.9747
G02 X 19.3625 Y 17.5179 Z -1.0000 I 0.0148 J 0.0740
G03 X 19.3221 Y 17.5494 Z -1.0000 I -0.0923 J -0.0766
G03 X 19.2741 Y 17.5604 Z -1.0000 I -0.0480 J -0.1000
G02 X 19.2323 Y 17.5718 Z -1.0000 I -0.0000 J 0.0823
G01 X 19.2209 Y 17.5917 Z -1.0000
G01 X 19.2098 Y 17.6070 Z -1.0000
G01 X 19.1769 Y 17.6062 Z -1.0000
G01 X 19.1535 Y 17.6064 Z -1.0000
G01 X 19.1500 Y 17.6170 Z -1.0000
G01 X 19.1446 Y 17.6303 Z -1.0000
G03 X 19.0801 Y 17.6344 Z -1.0000 I -0.0437 J -0.1746
G02 X 18.9989 Y 17.6361 Z -1.0000 I -0.0345 J 0.2951
G01 X 18.9767 Y 17.6509 Z -1.0000
G01 X 18.9561 Y 17.6653 Z -1.0000
G03 X 18.9206 Y 17.6623 Z -1.0000 I -0.0127 J -0.0625
G01 X 18.8908 Y 17.6613 Z -1.0000
G01 X 18.8810 Y 17.6745 Z -1.0000
G01 X 18.8698 Y 17.6908 Z -1.0000
G03 X 18.8088 Y 17.7020 Z -1.0000 I -0.0610 J -0.1607
G02 X 18.7389 Y 17.7116 Z -1.0000 I 0.0000 J 0.2579
G02 X 18.6504 Y 17.7465 Z -1.0000 I 0.1273 J 0.4524
G02 X 18.5755 Y 17.7929 Z -1.0000 I 0.2622 J 0.5072
G01 X 18.5749 Y 17.8018 Z -1.0000
G01 X 18.5876 Y 17.8068 Z -1.0000
G02 X 18.7474 Y 17.7957 Z -1.0000 I -0.0858 J -2.3884
G02 X 18.8975 Y 17.7683 Z -1.0000 I -0.1012 J -0.9798
G01 X 18.9093 Y 17.7529 Z -1.0000
G01 X 18.9175 Y 17.7416 Z -1.0000
G01 X 18.9368 Y 17.7439 Z -1.0000
G01 X 18.9648 Y 17.7484 Z -1.0000
G02 X 19.0494 Y 17.7169 Z -1.0000 I -0.0868 J -0.3627
G03 X 19.1362 Y 17.6771 Z -1.0000 I 0.4683 J 0.9055
G03 X 19.3263 Y 17.6052 Z -1.0000 I 1.7277 J 4.2812
G03 X 19.5208 Y 17.5473 Z -1.0000 I 0.6693 J 1.8947
G03 X 19.7908 Y 17.4922 Z -1.0000 I 0.8756 J 3.6006
G03 X 20.0635 Y 17.4484 Z -1.0000 I 4.5337 J 27.3620
G03 X 20.0811 Y 17.4471 Z -1.0000 I 0.0176 J 0.1133
G01 X 20.0926 Y 17.4407 Z -1.0000
G01 X 20.0989 Y 17.4187 Z -1.0000
G01 X 20.0895 Y 17.4008 Z -1.0000
G01 X 20.0635 Y 17.3941 Z -1.0000
G02 X 20.0285 Y 17.4002 Z -1.0000 I 0.0259 J 0.2521
G02 X 19.9006 Y 17.4343 Z -1.0000 I 0.8717 J 3.5253
G01 X 19.9006 Y 17.4343 Z -1.0000
G00 Z 5.0000

(End cutting path id: path2)


(Start cutting path id: path2)
(Change tool to Default tool)

G00 Z 5.0000
G00 X 19.0368 Y 16.5692

G01 Z -1.0000 F 100.0000(Penetrate)
G01 X 19.0355 Y 16.5885 Z -1.0000 F 3500.0000
G01 X 19.0493 Y 16.5975 Z -1.0000
G01 X 19.0707 Y 16.5889 Z -1.0000
G01 X 19.0793 Y 16.5692 Z -1.0000
G02 X 19.0743 Y 16.5458 Z -1.0000 I -0.0580 J -0.0000
G01 X 19.0668 Y 16.5408 Z -1.0000
G01 X 19.0565 Y 16.5449 Z -1.0000
G02 X 19.0368 Y 16.5692 Z -1.0000 I 0.0827 J 0.0875
G01 X 19.0368 Y 16.5692 Z -1.0000
G00 Z 5.0000

(End cutting path id: path2)


(Start cutting path id: path2)
(Change tool to Default tool)

G00 Z 5.0000
G00 X 18.9801 Y 16.0592

G01 Z -1.0000 F 100.0000(Penetrate)
G01 X 18.9611 Y 16.0766 Z -1.0000 F 3500.0000
G01 X 18.9660 Y 16.0851 Z -1.0000
G02 X 19.0066 Y 16.0798 Z -1.0000 I 0.0045 J -0.1236
G02 X 19.0509 Y 16.0592 Z -1.0000 I -0.0515 J -0.1690
G02 X 19.0691 Y 16.0397 Z -1.0000 I -0.0295 J -0.0456
G01 X 19.0651 Y 16.0333 Z -1.0000
G02 X 19.0376 Y 16.0382 Z -1.0000 I 0.0064 J 0.1162
G02 X 18.9801 Y 16.0592 Z -1.0000 I 0.1622 J 0.5322
G01 X 18.9801 Y 16.0592 Z -1.0000
G00 Z 5.0000

(End cutting path id: path2)


(Start cutting path id: path2)
(Change tool to Default tool)

G00 Z 5.0000
G00 X 18.3287 Y 16.0899

G01 Z -1.0000 F 100.0000(Penetrate)
G02 X 18.0741 Y 16.1154 Z -1.0000 I 1.1444 J 12.7027 F 3500.0000
G02 X 17.8192 Y 16.1461 Z -1.0000 I 1.4044 J 12.7258
G02 X 17.5663 Y 16.1855 Z -1.0000 I 0.6763 J 5.1743
G02 X 17.5077 Y 16.2025 Z -1.0000 I 0.0527 J 0.2914
G02 X 17.4770 Y 16.2212 Z -1.0000 I 0.0417 J 0.1028
G01 X 17.4791 Y 16.2272 Z -1.0000
G02 X 17.5073 Y 16.2265 Z -1.0000 I 0.0098 J -0.1808
G02 X 17.8614 Y 16.1880 Z -1.0000 I -2.9357 J -28.6741
G03 X 18.2155 Y 16.1481 Z -1.0000 I 9.4863 J 82.5350
G03 X 18.3995 Y 16.1285 Z -1.0000 I 2.4860 J 22.4786
G03 X 18.5838 Y 16.1114 Z -1.0000 I 1.0152 J 9.9218
G03 X 18.7352 Y 16.1004 Z -1.0000 I 0.5607 J 6.7064
G02 X 18.8840 Y 16.0848 Z -1.0000 I -0.1039 J -1.6993
G01 X 18.9028 Y 16.0752 Z -1.0000
G01 X 18.8999 Y 16.0673 Z -1.0000
G02 X 18.7512 Y 16.0631 Z -1.0000 I -0.1155 J 1.4469
G02 X 18.5838 Y 16.0703 Z -1.0000 I 0.0941 J 4.1292
G02 X 18.3287 Y 16.0899 Z -1.0000 I 0.6112 J 9.6357
G01 X 18.3287 Y 16.0899 Z -1.0000
G00 Z 5.0000

(End cutting path id: path2)


(Start cutting path id: path2)
(Change tool to Default tool)

G00 Z 5.0000
G00 X 18.5128 Y 16.9765

G01 Z -1.0000 F 100.0000(Penetrate)
G01 X 18.5079 Y 16.9834 Z -1.0000 F 3500.0000
G03 X 18.4413 Y 17.0010 Z -1.0000 I -0.1582 J -0.4621
G03 X 18.3749 Y 17.0031 Z -1.0000 I -0.0399 J -0.2091
G01 X 18.3547 Y 16.9902 Z -1.0000
G01 X 18.3595 Y 16.9768 Z -1.0000
G03 X 18.4262 Y 16.9657 Z -1.0000 I 0.0667 J 0.1943
G03 X 18.5077 Y 16.9708 Z -1.0000 I 0.0000 J 0.6545
G01 X 18.5128 Y 16.9765 Z -1.0000
G01 X 18.5128 Y 16.9765 Z -1.0000
G00 Z 5.0000

(End cutting path id: path2)


(Start cutting path id: path2)
(Change tool to Default tool)

G00 Z 5.0000
G00 X 18.4703 Y 17.8153

G01 Z -1.0000 F 100.0000(Penetrate)
G01 X 18.4549 Y 17.8320 Z -1.0000 F 3500.0000
G01 X 18.4615 Y 17.8416 Z -1.0000
G02 X 18.5044 Y 17.8342 Z -1.0000 I 0.0043 J -0.1033
G01 X 18.5269 Y 17.8153 Z -1.0000
G01 X 18.5357 Y 17.7889 Z -1.0000
G02 X 18.5272 Y 17.7916 Z -1.0000 I 0.0127 J 0.0554
G02 X 18.4703 Y 17.8153 Z -1.0000 I 0.9821 J 2.4415
G01 X 18.4703 Y 17.8153 Z -1.0000
G00 Z 5.0000

(End cutting path id: path2)


(Start cutting path id: path2)
(Change tool to Default tool)

G00 Z 5.0000
G00 X 18.2449 Y 17.8643

G01 Z -1.0000 F 100.0000(Penetrate)
G02 X 18.1917 Y 17.8834 Z -1.0000 I 0.0714 J 0.2829 F 3500.0000
G02 X 18.1237 Y 17.9215 Z -1.0000 I 0.2404 J 0.5087
G02 X 18.0709 Y 17.9659 Z -1.0000 I 0.1582 J 0.2415
G01 X 18.0711 Y 17.9778 Z -1.0000
G01 X 18.0864 Y 17.9823 Z -1.0000
G02 X 18.2274 Y 17.9435 Z -1.0000 I -0.3037 J -1.3787
G02 X 18.3650 Y 17.8890 Z -1.0000 I -0.4143 J -1.2474
G02 X 18.3867 Y 17.8698 Z -1.0000 I -0.0211 J -0.0456
G01 X 18.3835 Y 17.8553 Z -1.0000
G02 X 18.3516 Y 17.8469 Z -1.0000 I -0.0285 J 0.0437
G02 X 18.3008 Y 17.8526 Z -1.0000 I 0.0335 J 0.5248
G02 X 18.2449 Y 17.8643 Z -1.0000 I 0.1037 J 0.6383
G01 X 18.2449 Y 17.8643 Z -1.0000
G00 Z 5.0000

(End cutting path id: path2)


(Start cutting path id: path2)
(Change tool to Default tool)

G00 Z 5.0000
G00 X 17.8270 Y 18.0288

G01 Z -1.0000 F 100.0000(Penetrate)
G03 X 17.6928 Y 18.0620 Z -1.0000 I -0.7458 J -2.7261 F 3500.0000
G03 X 17.6004 Y 18.0790 Z -1.0000 I -0.2828 J -1.2758
G02 X 17.5078 Y 18.0950 Z -1.0000 I 0.2709 J 1.8489
G02 X 17.3723 Y 18.1242 Z -1.0000 I 0.8148 J 4.1083
G03 X 17.2368 Y 18.1435 Z -1.0000 I -0.1780 J -0.7641
G03 X 17.1245 Y 18.1376 Z -1.0000 I -0.0287 J -0.5289
G02 X 17.0256 Y 18.1358 Z -1.0000 I -0.0557 J 0.3486
G01 X 17.0117 Y 18.1515 Z -1.0000
G01 X 17.0234 Y 18.1718 Z -1.0000
G02 X 17.0670 Y 18.1835 Z -1.0000 I 0.0436 J -0.0755
G03 X 17.1209 Y 18.1903 Z -1.0000 I 0.0000 J 0.2155
G03 X 17.1945 Y 18.2163 Z -1.0000 I -0.1115 J 0.4323
G03 X 17.2589 Y 18.2542 Z -1.0000 I -0.1492 J 0.3274
G01 X 17.2666 Y 18.2696 Z -1.0000
G01 X 17.2747 Y 18.2845 Z -1.0000
G02 X 17.3527 Y 18.3255 Z -1.0000 I 0.2612 J -0.4016
G03 X 17.4302 Y 18.3706 Z -1.0000 I -0.1288 J 0.3111
G03 X 17.4672 Y 18.4144 Z -1.0000 I -0.0843 J 0.1087
G03 X 17.4735 Y 18.4593 Z -1.0000 I -0.0580 J 0.0311
G01 X 17.4521 Y 18.4842 Z -1.0000
G02 X 17.4248 Y 18.5064 Z -1.0000 I 0.0204 J 0.0531
G01 X 17.4246 Y 18.5268 Z -1.0000
G01 X 17.4443 Y 18.5341 Z -1.0000
G02 X 17.5207 Y 18.4956 Z -1.0000 I -0.0869 J -0.2678
G02 X 17.5851 Y 18.4280 Z -1.0000 I -0.1427 J -0.2003
G02 X 17.6254 Y 18.3323 Z -1.0000 I -0.2565 J -0.1644
G03 X 17.6729 Y 18.2419 Z -1.0000 I 0.1959 J 0.0453
G03 X 17.8327 Y 18.1056 Z -1.0000 I 0.6278 J 0.5741
G02 X 17.9903 Y 17.9945 Z -1.0000 I -1.6959 J -2.5738
G01 X 17.9879 Y 17.9887 Z -1.0000
G02 X 17.9609 Y 17.9938 Z -1.0000 I 0.0290 J 0.2302
G02 X 17.8270 Y 18.0288 Z -1.0000 I 1.4717 J 5.9061
G01 X 17.8270 Y 18.0288 Z -1.0000
G00 Z 5.0000

(End cutting path id: path2)


(Start cutting path id: path2)
(Change tool to Default tool)

G00 Z 5.0000
G00 X 16.8845 Y 18.2681

G01 Z -1.0000 F 100.0000(Penetrate)
G01 X 16.8880 Y 18.2789 Z -1.0000 F 3500.0000
G01 X 16.9111 Y 18.2792 Z -1.0000
G02 X 16.9507 Y 18.2593 Z -1.0000 I -0.0798 J -0.2075
G01 X 16.9551 Y 18.2512 Z -1.0000
G01 X 16.9507 Y 18.2446 Z -1.0000
G02 X 16.9284 Y 18.2401 Z -1.0000 I -0.0222 J 0.0530
G01 X 16.9055 Y 18.2468 Z -1.0000
G02 X 16.8845 Y 18.2681 Z -1.0000 I 0.0361 J 0.0566
G01 X 16.8845 Y 18.2681 Z -1.0000
G00 Z 5.0000

(End cutting path id: path2)


(Start cutting path id: path2)
(Change tool to Default tool)

G00 Z 5.0000
G00 X 16.7462 Y 18.5670

G01 Z -1.0000 F 100.0000(Penetrate)
G02 X 16.7348 Y 18.6140 Z -1.0000 I 0.1750 J 0.0671 F 3500.0000
G02 X 16.7316 Y 18.7027 Z -1.0000 I 0.6246 J 0.0671
G01 X 16.7416 Y 18.7059 Z -1.0000
G02 X 16.7594 Y 18.6668 Z -1.0000 I -0.0739 J -0.0571
G02 X 16.7781 Y 18.5429 Z -1.0000 I -1.4132 J -0.2772
G01 X 16.7739 Y 18.5310 Z -1.0000
G01 X 16.7661 Y 18.5315 Z -1.0000
G02 X 16.7462 Y 18.5670 Z -1.0000 I 0.1100 J 0.0853
G01 X 16.7462 Y 18.5670 Z -1.0000
G00 Z 5.0000

(End cutting path id: path2)


(Start cutting path id: path2)
(Change tool to Default tool)

G00 Z 5.0000
G00 X 16.7308 Y 18.9081

G01 Z -1.0000 F 100.0000(Penetrate)
G01 X 16.7391 Y 18.9270 Z -1.0000 F 3500.0000
G01 X 16.7479 Y 18.9252 Z -1.0000
G02 X 16.7539 Y 18.8898 Z -1.0000 I -0.0795 J -0.0319
G01 X 16.7457 Y 18.8709 Z -1.0000
G01 X 16.7369 Y 18.8727 Z -1.0000
G02 X 16.7308 Y 18.9081 Z -1.0000 I 0.0794 J 0.0318
G01 X 16.7308 Y 18.9081 Z -1.0000
G00 Z 5.0000

(End cutting path id: path2)


(Start cutting path id: path2)
(Change tool to Default tool)

G00 Z 5.0000
G00 X 16.7308 Y 19.0214

G01 Z -1.0000 F 100.0000(Penetrate)
G01 X 16.7391 Y 19.0403 Z -1.0000 F 3500.0000
G01 X 16.7479 Y 19.0385 Z -1.0000
G02 X 16.7539 Y 19.0031 Z -1.0000 I -0.0795 J -0.0319
G01 X 16.7457 Y 18.9842 Z -1.0000
G01 X 16.7369 Y 18.9860 Z -1.0000
G02 X 16.7308 Y 19.0214 Z -1.0000 I 0.0794 J 0.0318
G01 X 16.7308 Y 19.0214 Z -1.0000
G00 Z 5.0000

(End cutting path id: path2)


(Start cutting path id: path2)
(Change tool to Default tool)

G00 Z 5.0000
G00 X 16.6997 Y 19.0969

G01 Z -1.0000 F 100.0000(Penetrate)
G03 X 16.6991 Y 19.1040 Z -1.0000 I -0.3578 J -0.0250 F 3500.0000
G03 X 16.6819 Y 19.2952 Z -1.0000 I -472.9860 J -42.5418
G02 X 16.6796 Y 19.4726 Z -1.0000 I 1.1443 J 0.1036
G01 X 16.6942 Y 19.4863 Z -1.0000
G01 X 16.7108 Y 19.4727 Z -1.0000
G02 X 16.7333 Y 19.2880 Z -1.0000 I -1.2417 J -0.2445
G02 X 16.7321 Y 19.0998 Z -1.0000 I -1.7497 J -0.0834
G01 X 16.7214 Y 19.0898 Z -1.0000
G02 X 16.7029 Y 19.0928 Z -1.0000 I 0.0002 J 0.0596
G01 X 16.6997 Y 19.0969 Z -1.0000
G01 X 16.6997 Y 19.0969 Z -1.0000
G00 Z 5.0000

(End cutting path id: path2)


(Start cutting path id: path2)
(Change tool to Default tool)

G00 Z 5.0000
G00 X 16.5869 Y 19.0049

G01 Z -1.0000 F 100.0000(Penetrate)
G01 X 16.5802 Y 19.0219 Z -1.0000 F 3500.0000
G01 X 16.5940 Y 19.0328 Z -1.0000
G02 X 16.6331 Y 19.0227 Z -1.0000 I 0.0007 J -0.0784
G01 X 16.6436 Y 19.0049 Z -1.0000
G02 X 16.6404 Y 18.9799 Z -1.0000 I -0.1012 J -0.0000
G01 X 16.6365 Y 18.9770 Z -1.0000
G01 X 16.6299 Y 18.9789 Z -1.0000
G02 X 16.5869 Y 19.0049 Z -1.0000 I 0.4022 J 0.7146
G01 X 16.5869 Y 19.0049 Z -1.0000
G00 Z 5.0000

(End cutting path id: path2)


(Start cutting path id: path2)
(Change tool to Default tool)

G00 Z 5.0000
G00 X 17.2100 Y 18.9208

G01 Z -1.0000 F 100.0000(Penetrate)
G01 X 17.2197 Y 18.9385 Z -1.0000 F 3500.0000
G02 X 17.2525 Y 18.9482 Z -1.0000 I 0.0328 J -0.0508
G02 X 17.2901 Y 18.9434 Z -1.0000 I -0.0000 J -0.1486
G01 X 17.2950 Y 18.9371 Z -1.0000
G01 X 17.2906 Y 18.9290 Z -1.0000
G02 X 17.2525 Y 18.9097 Z -1.0000 I -0.1119 J 0.1730
G02 X 17.2200 Y 18.9078 Z -1.0000 I -0.0191 J 0.0495
G01 X 17.2100 Y 18.9208 Z -1.0000
G01 X 17.2100 Y 18.9208 Z -1.0000
G00 Z 5.0000

(End cutting path id: path2)


(Start cutting path id: path2)
(Change tool to Default tool)

G00 Z 5.0000
G00 X 17.3658 Y 19.0049

G01 Z -1.0000 F 100.0000(Penetrate)
G01 X 17.3644 Y 19.0242 Z -1.0000 F 3500.0000
G01 X 17.3783 Y 19.0332 Z -1.0000
G01 X 17.3997 Y 19.0246 Z -1.0000
G01 X 17.4082 Y 19.0049 Z -1.0000
G02 X 17.4033 Y 18.9815 Z -1.0000 I -0.0580 J -0.0000
G01 X 17.3958 Y 18.9765 Z -1.0000
G01 X 17.3855 Y 18.9806 Z -1.0000
G02 X 17.3658 Y 19.0049 Z -1.0000 I 0.0829 J 0.0877
G01 X 17.3658 Y 19.0049 Z -1.0000
G00 Z 5.0000

(End cutting path id: path2)


(Start cutting path id: path2)
(Change tool to Default tool)

G00 Z 5.0000
G00 X 17.6207 Y 19.3164

G01 Z -1.0000 F 100.0000(Penetrate)
G01 X 17.6193 Y 19.3357 Z -1.0000 F 3500.0000
G01 X 17.6332 Y 19.3447 Z -1.0000
G01 X 17.6546 Y 19.3362 Z -1.0000
G01 X 17.6631 Y 19.3164 Z -1.0000
G02 X 17.6582 Y 19.2930 Z -1.0000 I -0.0580 J -0.0000
G01 X 17.6507 Y 19.2881 Z -1.0000
G01 X 17.6404 Y 19.2922 Z -1.0000
G02 X 17.6207 Y 19.3164 Z -1.0000 I 0.0829 J 0.0877
G01 X 17.6207 Y 19.3164 Z -1.0000
G00 Z 5.0000

(End cutting path id: path2)


(Start cutting path id: path2)
(Change tool to Default tool)

G00 Z 5.0000
G00 X 16.6913 Y 19.6704

G01 Z -1.0000 F 100.0000(Penetrate)
G02 X 16.6777 Y 19.8408 Z -1.0000 I 2.0122 J 0.2465 F 3500.0000
G02 X 16.6700 Y 20.2369 Z -1.0000 I 10.8968 J 0.4096
G02 X 16.6744 Y 20.6333 Z -1.0000 I 16.2712 J 0.0200
G02 X 16.6877 Y 21.0016 Z -1.0000 I 14.2200 J -0.3290
G02 X 16.7070 Y 21.3697 Z -1.0000 I 60.4058 J -2.9829
G02 X 16.7129 Y 21.4547 Z -1.0000 I 3.0589 J -0.1698
G02 X 16.7200 Y 21.5397 Z -1.0000 I 104.4946 J -8.7209
G02 X 16.7242 Y 21.5893 Z -1.0000 I 21.7419 J -1.8323
G02 X 16.7380 Y 21.6285 Z -1.0000 I 0.0843 J -0.0074
G01 X 16.7571 Y 21.6388 Z -1.0000
G01 X 16.7714 Y 21.6263 Z -1.0000
G02 X 16.7716 Y 21.5326 Z -1.0000 I -0.3481 J -0.0474
G03 X 16.7634 Y 21.4260 Z -1.0000 I 0.9433 J -0.1259
G03 X 16.7541 Y 20.6759 Z -1.0000 I 47.2815 J -0.9598
G02 X 16.7436 Y 19.9257 Z -1.0000 I -39.0177 J 0.1701
G02 X 16.7315 Y 19.7129 Z -1.0000 I -3.1734 J 0.0749
G02 X 16.7096 Y 19.6644 Z -1.0000 I -0.0810 J 0.0074
G01 X 16.6913 Y 19.6704 Z -1.0000
G01 X 16.6913 Y 19.6704 Z -1.0000
G00 Z 5.0000

(End cutting path id: path2)


(Start cutting path id: path2)
(Change tool to Default tool)

G00 Z 5.0000
G00 X 15.7852 Y 18.4295

G01 Z -1.0000 F 100.0000(Penetrate)
G02 X 15.7473 Y 18.5670 Z -1.0000 I 1.9279 J 0.6054 F 3500.0000
G02 X 15.7274 Y 18.6721 Z -1.0000 I 1.1089 J 0.2639
G02 X 15.7290 Y 18.7641 Z -1.0000 I 0.2922 J 0.0411
G01 X 15.7461 Y 18.7787 Z -1.0000
G01 X 15.7548 Y 18.7865 Z -1.0000
G01 X 15.7487 Y 18.8000 Z -1.0000
G01 X 15.7332 Y 18.8281 Z -1.0000
G02 X 15.7419 Y 19.0615 Z -1.0000 I 1.8503 J 0.0480
G02 X 15.7683 Y 19.3020 Z -1.0000 I 13.8602 J -1.3975
G02 X 15.8000 Y 19.5519 Z -1.0000 I 15.0379 J -1.7805
G02 X 15.8399 Y 19.7455 Z -1.0000 I 1.4165 J -0.1917
G01 X 15.8543 Y 19.7460 Z -1.0000
G02 X 15.8688 Y 19.6892 Z -1.0000 I -0.2650 J -0.0980
G02 X 15.8931 Y 19.4822 Z -1.0000 I -3.5182 J -0.5177
G03 X 15.9178 Y 19.2753 Z -1.0000 I 3.3228 J 0.2915
G03 X 15.9353 Y 19.2031 Z -1.0000 I 0.4179 J 0.0632
G02 X 15.9572 Y 19.1317 Z -1.0000 I -1.2426 J -0.4196
G02 X 15.9759 Y 19.0556 Z -1.0000 I -1.3908 J -0.3831
G02 X 15.9702 Y 18.9892 Z -1.0000 I -0.1101 J -0.0240
G02 X 15.9315 Y 18.9461 Z -1.0000 I -0.0790 J 0.0321
G01 X 15.8960 Y 18.9425 Z -1.0000
G01 X 15.8878 Y 18.9591 Z -1.0000
G03 X 15.8921 Y 18.9957 Z -1.0000 I -0.0692 J 0.0267
G01 X 15.8816 Y 19.0049 Z -1.0000
G01 X 15.8675 Y 18.9939 Z -1.0000
G03 X 15.8352 Y 18.8279 Z -1.0000 I 1.2680 J -0.3322
G03 X 15.8145 Y 18.6507 Z -1.0000 I 8.2542 J -1.0547
G03 X 15.8074 Y 18.5659 Z -1.0000 I 1.8915 J -0.2006
G03 X 15.8095 Y 18.4817 Z -1.0000 I 0.4974 J -0.0298
G03 X 15.8259 Y 18.3978 Z -1.0000 I 0.5087 J 0.0558
G02 X 15.8430 Y 18.3164 Z -1.0000 I -0.5663 J -0.1612
G01 X 15.8388 Y 18.3039 Z -1.0000
G01 X 15.8310 Y 18.3054 Z -1.0000
G02 X 15.7852 Y 18.4295 Z -1.0000 I 1.2208 J 0.5218
G01 X 15.7852 Y 18.4295 Z -1.0000
G00 Z 5.0000

(End cutting path id: path2)


(Start cutting path id: path2)
(Change tool to Default tool)

G00 Z 5.0000
G00 X 16.8120 Y 16.5054

G01 Z -1.0000 F 100.0000(Penetrate)
G01 X 16.8121 Y 16.5138 Z -1.0000 F 3500.0000
G01 X 16.8206 Y 16.5140 Z -1.0000
G02 X 16.9237 Y 16.4151 Z -1.0000 I -2.2947 J -2.4969
G01 X 16.9268 Y 16.4078 Z -1.0000
G01 X 16.9242 Y 16.4017 Z -1.0000
G01 X 16.9182 Y 16.3992 Z -1.0000
G01 X 16.9109 Y 16.4022 Z -1.0000
G02 X 16.8120 Y 16.5054 Z -1.0000 I 2.3737 J 2.3753
G01 X 16.8120 Y 16.5054 Z -1.0000
G00 Z 5.0000

(End cutting path id: path2)


(Start cutting path id: path2)
(Change tool to Default tool)

G00 Z 5.0000
G00 X 16.9798 Y 16.3638

G01 Z -1.0000 F 100.0000(Penetrate)
G01 X 16.9804 Y 16.3739 Z -1.0000 F 3500.0000
G01 X 16.9905 Y 16.3745 Z -1.0000
G02 X 17.0364 Y 16.3338 Z -1.0000 I -0.3147 J -0.4012
G01 X 17.0401 Y 16.3249 Z -1.0000
G01 X 17.0369 Y 16.3174 Z -1.0000
G01 X 17.0294 Y 16.3143 Z -1.0000
G01 X 17.0204 Y 16.3179 Z -1.0000
G02 X 16.9798 Y 16.3638 Z -1.0000 I 0.3603 J 0.3602
G01 X 16.9798 Y 16.3638 Z -1.0000
G00 Z 5.0000

(End cutting path id: path2)


(Start cutting path id: path2)
(Change tool to Default tool)

G00 Z 5.0000
G00 X 17.2454 Y 16.2017

G01 Z -1.0000 F 100.0000(Penetrate)
G02 X 17.0749 Y 16.2874 Z -1.0000 I 1.1734 J 2.5466 F 3500.0000
G01 X 17.0684 Y 16.2983 Z -1.0000
G01 X 17.0751 Y 16.3031 Z -1.0000
G02 X 17.2312 Y 16.2415 Z -1.0000 I -0.6888 J -1.9738
G02 X 17.3908 Y 16.1648 Z -1.0000 I -1.1211 J -2.5371
G02 X 17.4210 Y 16.1427 Z -1.0000 I -0.0571 J -0.1096
G01 X 17.4352 Y 16.1180 Z -1.0000
G02 X 17.4229 Y 16.1217 Z -1.0000 I 0.0088 J 0.0516
G02 X 17.2454 Y 16.2017 Z -1.0000 I 4.6321 J 10.5182
G01 X 17.2454 Y 16.2017 Z -1.0000
G00 Z 5.0000

(End cutting path id: path2)


(Start cutting path id: path2)
(Change tool to Default tool)

G00 Z 5.0000
G00 X 20.1343 Y 15.7949

G01 Z -1.0000 F 100.0000(Penetrate)
G03 X 20.0989 Y 15.8018 Z -1.0000 I -0.0354 J -0.0872 F 3500.0000
G03 X 20.0635 Y 15.7949 Z -1.0000 I 0.0000 J -0.0942
G01 X 20.0635 Y 15.7874 Z -1.0000
G03 X 20.0989 Y 15.7806 Z -1.0000 I 0.0354 J 0.0879
G03 X 20.1342 Y 15.7875 Z -1.0000 I -0.0000 J 0.0947
G01 X 20.1343 Y 15.7949 Z -1.0000
G01 X 20.1343 Y 15.7949 Z -1.0000
G00 Z 5.0000

(End cutting path id: path2)


(Start cutting path id: path2)
(Change tool to Default tool)

G00 Z 5.0000
G00 X 22.8691 Y 15.2007

G01 Z -1.0000 F 100.0000(Penetrate)
G02 X 22.9045 Y 15.2068 Z -1.0000 I 0.0319 J -0.0795 F 3500.0000
G01 X 22.9234 Y 15.1985 Z -1.0000
G01 X 22.9216 Y 15.1897 Z -1.0000
G02 X 22.8862 Y 15.1836 Z -1.0000 I -0.0318 J 0.0795
G01 X 22.8673 Y 15.1919 Z -1.0000
G01 X 22.8691 Y 15.2007 Z -1.0000
G01 X 22.8691 Y 15.2007 Z -1.0000
G00 Z 5.0000

(End cutting path id: path2)


(Start cutting path id: path2)
(Change tool to Default tool)

G00 Z 5.0000
G00 X 23.6905 Y 15.3140

G01 Z -1.0000 F 100.0000(Penetrate)
G02 X 23.7258 Y 15.3201 Z -1.0000 I 0.0319 J -0.0795 F 3500.0000
G01 X 23.7448 Y 15.3118 Z -1.0000
G01 X 23.7430 Y 15.3030 Z -1.0000
G02 X 23.7076 Y 15.2969 Z -1.0000 I -0.0318 J 0.0795
G01 X 23.6887 Y 15.3052 Z -1.0000
G01 X 23.6905 Y 15.3140 Z -1.0000
G01 X 23.6905 Y 15.3140 Z -1.0000
G00 Z 5.0000

(End cutting path id: path2)


(Start cutting path id: path2)
(Change tool to Default tool)

G00 Z 5.0000
G00 X 23.8870 Y 15.3417

G01 Z -1.0000 F 100.0000(Penetrate)
G02 X 23.9224 Y 15.3486 Z -1.0000 I 0.0354 J -0.0872 F 3500.0000
G02 X 23.9578 Y 15.3417 Z -1.0000 I -0.0000 J -0.0942
G01 X 23.9578 Y 15.3343 Z -1.0000
G02 X 23.9224 Y 15.3274 Z -1.0000 I -0.0354 J 0.0879
G02 X 23.8870 Y 15.3343 Z -1.0000 I 0.0000 J 0.0947
G01 X 23.8870 Y 15.3417 Z -1.0000
G01 X 23.8870 Y 15.3417 Z -1.0000
G00 Z 5.0000

(End cutting path id: path2)


(Start cutting path id: path2)
(Change tool to Default tool)

G00 Z 5.0000
G00 X 24.1436 Y 15.3706

G01 Z -1.0000 F 100.0000(Penetrate)
G02 X 24.1790 Y 15.3767 Z -1.0000 I 0.0319 J -0.0795 F 3500.0000
G01 X 24.1979 Y 15.3684 Z -1.0000
G01 X 24.1961 Y 15.3596 Z -1.0000
G02 X 24.1607 Y 15.3536 Z -1.0000 I -0.0319 J 0.0795
G01 X 24.1418 Y 15.3619 Z -1.0000
G01 X 24.1436 Y 15.3707 Z -1.0000
G01 X 24.1436 Y 15.3706 Z -1.0000
G00 Z 5.0000

(End cutting path id: path2)


(Start cutting path id: path2)
(Change tool to Default tool)

G00 Z 5.0000
G00 X 24.4888 Y 15.4646

G01 Z -1.0000 F 100.0000(Penetrate)
G02 X 24.5332 Y 15.4852 Z -1.0000 I 0.0959 J -0.1485 F 3500.0000
G02 X 24.5738 Y 15.4905 Z -1.0000 I 0.0361 J -0.1182
G01 X 24.5787 Y 15.4819 Z -1.0000
G01 X 24.5596 Y 15.4646 Z -1.0000
G02 X 24.5022 Y 15.4436 Z -1.0000 I -0.2195 J 0.5108
G02 X 24.4747 Y 15.4387 Z -1.0000 I -0.0340 J 0.1115
G01 X 24.4706 Y 15.4450 Z -1.0000
G02 X 24.4888 Y 15.4646 Z -1.0000 I 0.0476 J -0.0261
G01 X 24.4888 Y 15.4646 Z -1.0000
G00 Z 5.0000

(End cutting path id: path2)


(Start cutting path id: path2)
(Change tool to Default tool)

G00 Z 5.0000
G00 X 24.6165 Y 15.5209

G01 Z -1.0000 F 100.0000(Penetrate)
G01 X 24.6199 Y 15.5317 Z -1.0000 F 3500.0000
G01 X 24.6431 Y 15.5320 Z -1.0000
G02 X 24.6826 Y 15.5121 Z -1.0000 I -0.0798 J -0.2075
G01 X 24.6871 Y 15.5040 Z -1.0000
G01 X 24.6826 Y 15.4974 Z -1.0000
G02 X 24.6604 Y 15.4929 Z -1.0000 I -0.0222 J 0.0530
G01 X 24.6375 Y 15.4996 Z -1.0000
G02 X 24.6165 Y 15.5209 Z -1.0000 I 0.0360 J 0.0565
G01 X 24.6165 Y 15.5209 Z -1.0000
G00 Z 5.0000

(End cutting path id: path2)


(Start cutting path id: path2)
(Change tool to Default tool)

G00 Z 5.0000
G00 X 24.3419 Y 16.7867

G01 Z -1.0000 F 100.0000(Penetrate)
G02 X 24.3773 Y 16.7928 Z -1.0000 I 0.0319 J -0.0795 F 3500.0000
G01 X 24.3962 Y 16.7845 Z -1.0000
G01 X 24.3944 Y 16.7757 Z -1.0000
G02 X 24.3590 Y 16.7697 Z -1.0000 I -0.0318 J 0.0794
G01 X 24.3401 Y 16.7780 Z -1.0000
G01 X 24.3419 Y 16.7868 Z -1.0000
G01 X 24.3419 Y 16.7867 Z -1.0000
G00 Z 5.0000

(End cutting path id: path2)


(Start cutting path id: path2)
(Change tool to Default tool)

G00 Z 5.0000
G00 X 25.5424 Y 16.6131

G01 Z -1.0000 F 100.0000(Penetrate)
G02 X 25.5186 Y 16.6559 Z -1.0000 I 0.0857 J 0.0757 F 3500.0000
G01 X 25.5219 Y 16.6814 Z -1.0000
G01 X 25.5216 Y 16.7033 Z -1.0000
G03 X 25.4880 Y 16.7335 Z -1.0000 I -0.0734 J -0.0479
G03 X 25.4349 Y 16.7480 Z -1.0000 I -0.0617 J -0.1215
G03 X 25.0424 Y 16.7619 Z -1.0000 I -0.4424 J -6.9406
G03 X 24.6521 Y 16.7508 Z -1.0000 I -0.0402 J -5.4626
G03 X 24.6105 Y 16.7343 Z -1.0000 I 0.0046 J -0.0724
G01 X 24.5845 Y 16.7266 Z -1.0000
G01 X 24.5738 Y 16.7387 Z -1.0000
G01 X 24.5622 Y 16.7567 Z -1.0000
G01 X 24.5322 Y 16.7575 Z -1.0000
G02 X 24.4949 Y 16.7542 Z -1.0000 I -0.0245 J 0.0637
G01 X 24.4739 Y 16.7687 Z -1.0000
G01 X 24.4807 Y 16.7827 Z -1.0000
G02 X 24.7350 Y 16.7978 Z -1.0000 I 0.2725 J -2.4398
