%
(Header)
(Generated by gcodetools from Inkscape.)
(Using default header. To add your own header create file "header" in the output dir.)
M3
(Header end.)
G21 (All units in mm)

(Start cutting path id: path129)
(Change tool to Default tool)

G00 Z5.000000
G00 X5.317916 Y0.372496

G01 Z-1.000000 F100.0(Penetrate)
G03 X5.300623 Y0.447375 Z-1.000000 I-1.330243 J-0.267780 F3500.000000
G03 X5.276253 Y0.532147 Z-1.000000 I-1.732243 J-0.452088
G02 X5.255151 Y0.617195 Z-1.000000 I0.681452 J0.214219
G02 X5.249778 Y0.676137 Z-1.000000 I0.320583 J0.058942
G03 X5.231498 Y0.717616 Z-1.000000 I-0.056201 J-0.000000
G03 X5.184410 Y0.735897 Z-1.000000 I-0.047088 J-0.051506
G02 X5.132108 Y0.752817 Z-1.000000 I-0.000000 J0.089293
G02 X5.103810 Y0.794147 Z-1.000000 I0.043419 J0.060082
G03 X5.074824 Y0.829161 Z-1.000000 I-0.052101 J-0.013626
G03 X5.018331 Y0.834767 Z-1.000000 I-0.036052 J-0.075865
G02 X4.968870 Y0.843771 Z-1.000000 I-0.014810 J0.058999
G01 X4.948085 Y0.883467 Z-1.000000
G02 X4.972848 Y0.926923 Z-1.000000 I0.050512 J-0.000000
G02 X5.077372 Y0.960077 Z-1.000000 I0.123785 J-0.208917
G02 X5.355973 Y0.951264 Z-1.000000 I0.099767 J-1.254225
G01 X5.386911 Y0.915567 Z-1.000000
G01 X5.400161 Y0.891402 Z-1.000000
G03 X5.496617 Y0.845607 Z-1.000000 I0.231349 J0.362803
G02 X5.592124 Y0.799143 Z-1.000000 I-0.124489 J-0.377274
G01 X5.606324 Y0.772647 Z-1.000000
G01 X5.614970 Y0.744545 Z-1.000000
G01 X5.631304 Y0.735897 Z-1.000000
G01 X5.649803 Y0.725830 Z-1.000000
G02 X5.715549 Y0.605621 Z-1.000000 I-0.782666 J-0.506148
G03 X5.775939 Y0.475901 Z-1.000000 I7.436352 J3.383047
G03 X5.800276 Y0.427720 Z-1.000000 I1.047791 J0.499005
G02 X5.779001 Y0.351683 Z-1.000000 I-0.050336 J-0.026911
G02 X5.579420 Y0.297071 Z-1.000000 I-0.199581 J0.337381
G01 X5.333103 Y0.297071 Z-1.000000
G01 X5.317916 Y0.372496 Z-1.000000
G00 Z5.000000

(End cutting path id: path129)


(Start cutting path id: path129)
(Change tool to Default tool)

G00 Z5.000000
G00 X8.042151 Y7.529012

G01 Z-1.000000 F100.0(Penetrate)
G02 X8.076400 Y7.534848 Z-1.000000 I0.030755 J-0.077078 F3500.000000
G01 X8.094719 Y7.526812 Z-1.000000
G01 X8.092973 Y7.518282 Z-1.000000
G02 X8.058722 Y7.512412 Z-1.000000 I-0.030813 J0.076931
G01 X8.040402 Y7.520441 Z-1.000000
G01 X8.042152 Y7.528982 Z-1.000000
G01 X8.042151 Y7.529012 Z-1.000000
G00 Z5.000000

(End cutting path id: path129)


(Start cutting path id: path129)
(Change tool to Default tool)

G00 Z5.000000
G00 X8.568400 Y8.826755

G01 Z-1.000000 F100.0(Penetrate)
G01 X8.576664 Y8.845924 Z-1.000000 F3500.000000
G01 X8.597445 Y8.854185 Z-1.000000
G01 X8.610833 Y8.845457 Z-1.000000
G01 X8.609540 Y8.826755 Z-1.000000
G02 X8.590397 Y8.803263 Z-1.000000 I-0.099315 J0.061380
G01 X8.580495 Y8.799325 Z-1.000000
G01 X8.573176 Y8.804096 Z-1.000000
G02 X8.568400 Y8.826755 Z-1.000000 I0.051366 J0.022659
G01 X8.568400 Y8.826755 Z-1.000000
G00 Z5.000000

(End cutting path id: path129)


(Start cutting path id: path129)
(Change tool to Default tool)

G00 Z5.000000
G00 X8.595826 Y9.704407

G01 Z-1.000000 F100.0(Penetrate)
G01 X8.603857 Y9.723800 Z-1.000000 F3500.000000
G01 X8.623253 Y9.731837 Z-1.000000
G01 X8.642645 Y9.723805 Z-1.000000
G01 X8.650680 Y9.704407 Z-1.000000
G01 X8.642650 Y9.685014 Z-1.000000
G01 X8.623253 Y9.676977 Z-1.000000
G01 X8.603862 Y9.685009 Z-1.000000
G01 X8.595826 Y9.704407 Z-1.000000
G01 X8.595826 Y9.704407 Z-1.000000
G00 Z5.000000

(End cutting path id: path129)


(Start cutting path id: path129)
(Change tool to Default tool)

G00 Z5.000000
G00 X8.294134 Y10.007719

G01 Z-1.000000 F100.0(Penetrate)
G02 X8.305454 Y10.043885 Z-1.000000 I0.063428 J0.000000 F3500.000000
G01 X8.321561 Y10.047239 Z-1.000000
G02 X8.340930 Y10.025817 Z-1.000000 I-0.027120 J-0.043990
G02 X8.348987 Y9.990769 Z-1.000000 I-0.072199 J-0.035048
G02 X8.339565 Y9.960669 Z-1.000000 I-0.052789 J-0.000000
G01 X8.321561 Y9.951249 Z-1.000000
G01 X8.304693 Y9.961808 Z-1.000000
G02 X8.294134 Y10.007719 Z-1.000000 I0.094524 J0.045911
G01 X8.294134 Y10.007719 Z-1.000000
G00 Z5.000000

(End cutting path id: path129)


(Start cutting path id: path129)
(Change tool to Default tool)

G00 Z5.000000
G00 X9.236557 Y11.967104

G01 Z-1.000000 F100.0(Penetrate)
G03 X9.217835 Y12.003973 Z-1.000000 I-0.186626 J-0.071583 F3500.000000
G01 X9.209991 Y12.008244 Z-1.000000
G01 X9.203907 Y12.003548 Z-1.000000
G03 X9.199212 Y11.967104 Z-1.000000 I0.139111 J-0.036444
G03 X9.208580 Y11.935330 Z-1.000000 I0.058568 J-0.000000
G01 X9.225778 Y11.925964 Z-1.000000
G01 X9.238292 Y11.935621 Z-1.000000
G03 X9.236557 Y11.967104 Z-1.000000 I-0.049786 J0.013046
G01 X9.236557 Y11.967104 Z-1.000000
G00 Z5.000000

(End cutting path id: path129)


(Start cutting path id: path129)
(Change tool to Default tool)

G00 Z5.000000
G00 X8.239280 Y15.985105

G01 Z-1.000000 F100.0(Penetrate)
G03 X8.222441 Y16.077972 Z-1.000000 I-0.264490 J0.000000 F3500.000000
G01 X8.198140 Y16.094812 Z-1.000000
G01 X8.173135 Y16.071794 Z-1.000000
G03 X8.187110 Y15.961771 Z-1.000000 I0.266268 J-0.022076
G01 X8.216058 Y15.949278 Z-1.000000
G01 X8.239280 Y15.985101 Z-1.000000
G01 X8.239280 Y15.985105 Z-1.000000
G00 Z5.000000

(End cutting path id: path129)


(Start cutting path id: path129)
(Change tool to Default tool)

G00 Z5.000000
G00 X9.226639 Y16.286798

G01 Z-1.000000 F100.0(Penetrate)
G01 X9.236329 Y16.304530 Z-1.000000 F3500.000000
G02 X9.269398 Y16.314228 Z-1.000000 I0.033069 J-0.051532
G01 X9.293484 Y16.303819 Z-1.000000
G01 X9.295206 Y16.286798 Z-1.000000
G02 X9.274633 Y16.265874 Z-1.000000 I-0.056344 J0.034823
G01 X9.252447 Y16.259368 Z-1.000000
G01 X9.234428 Y16.267154 Z-1.000000
G01 X9.226639 Y16.286798 Z-1.000000
G01 X9.226639 Y16.286798 Z-1.000000
G00 Z5.000000

(End cutting path id: path129)


(Start cutting path id: path129)
(Change tool to Default tool)

G00 Z5.000000
G00 X7.570185 Y16.965036

G01 Z-1.000000 F100.0(Penetrate)
G01 X7.540953 Y16.960856 Z-1.000000 F3500.000000
G01 X7.542176 Y16.913926 Z-1.000000
G01 X7.560826 Y16.903487 Z-1.000000
G01 X7.575206 Y16.913815 Z-1.000000
G03 X7.578891 Y16.946606 Z-1.000000 I-0.075203 J0.025055
G01 X7.570186 Y16.965035 Z-1.000000
G01 X7.570185 Y16.965036 Z-1.000000
G00 Z5.000000

(End cutting path id: path129)


(Start cutting path id: path129)
(Change tool to Default tool)

G00 Z5.000000
G00 X6.319416 Y17.493570

G01 Z-1.000000 F100.0(Penetrate)
G01 X6.327451 Y17.512968 Z-1.000000 F3500.000000
G01 X6.346843 Y17.521000 Z-1.000000
G01 X6.366235 Y17.512968 Z-1.000000
G01 X6.374270 Y17.493570 Z-1.000000
G01 X6.366240 Y17.474177 Z-1.000000
G01 X6.346843 Y17.466140 Z-1.000000
G01 X6.327451 Y17.474172 Z-1.000000
G01 X6.319416 Y17.493570 Z-1.000000
G01 X6.319416 Y17.493570 Z-1.000000
G00 Z5.000000

(End cutting path id: path129)


(Start cutting path id: path129)
(Change tool to Default tool)

G00 Z5.000000
G00 X6.703809 Y18.350652

G01 Z-1.000000 F100.0(Penetrate)
G01 X6.715430 Y18.373912 Z-1.000000 F3500.000000
G01 X6.730816 Y18.371222 Z-1.000000
G02 X6.749560 Y18.307686 Z-1.000000 I-0.098309 J-0.063536
G01 X6.730816 Y18.288942 Z-1.000000
G01 X6.714278 Y18.299757 Z-1.000000
G02 X6.703809 Y18.350652 Z-1.000000 I0.114354 J0.050045
G01 X6.703809 Y18.350652 Z-1.000000
G00 Z5.000000

(End cutting path id: path129)


(Start cutting path id: path129)
(Change tool to Default tool)

G00 Z5.000000
G00 X5.833207 Y21.031605

G01 Z-1.000000 F100.0(Penetrate)
G02 X5.839096 Y21.093315 Z-1.000000 I0.326257 J0.000000 F3500.000000
G01 X5.845093 Y21.093315 Z-1.000000
G02 X5.850984 Y21.031605 Z-1.000000 I-0.320250 J-0.061710
G02 X5.845093 Y20.969895 Z-1.000000 I-0.326142 J0.000000
G01 X5.839097 Y20.969895 Z-1.000000
G02 X5.833207 Y21.031605 Z-1.000000 I0.320337 J0.061710
G01 X5.833207 Y21.031605 Z-1.000000
G00 Z5.000000

(End cutting path id: path129)


(Start cutting path id: path129)
(Change tool to Default tool)

G00 Z5.000000
G00 X3.679603 Y22.696559

G01 Z-1.000000 F100.0(Penetrate)
G02 X3.741313 Y22.702415 Z-1.000000 I0.061709 J-0.322217 F3500.000000
G02 X3.803023 Y22.696559 Z-1.000000 I-0.000000 J-0.328088
G01 X3.803028 Y22.690572 Z-1.000000
G02 X3.741313 Y22.684669 Z-1.000000 I-0.061714 J0.319653
G02 X3.679609 Y22.690544 Z-1.000000 I-0.000000 J0.326960
G01 X3.679603 Y22.696559 Z-1.000000
G01 X3.679603 Y22.696559 Z-1.000000
G00 Z5.000000

(End cutting path id: path129)


(Start cutting path id: path129)
(Change tool to Default tool)

G00 Z5.000000
G00 X8.009697 Y28.156797

G01 Z-1.000000 F100.0(Penetrate)
G01 X8.014567 Y28.167086 Z-1.000000 F3500.000000
G02 X8.097214 Y28.168527 Z-1.000000 I0.047515 J-0.354433
G02 X8.142449 Y28.150678 Z-1.000000 I-0.008726 J-0.088357
G01 X8.138049 Y28.137277 Z-1.000000
G02 X8.028246 Y28.144544 Z-1.000000 I-0.012290 J0.647493
G01 X8.009697 Y28.156807 Z-1.000000
G01 X8.009697 Y28.156797 Z-1.000000
G00 Z5.000000

(End cutting path id: path129)


(Start cutting path id: path129)
(Change tool to Default tool)

G00 Z5.000000
G00 X7.581041 Y28.915184

G01 Z-1.000000 F100.0(Penetrate)
G03 X7.551156 Y28.982289 Z-1.000000 I-0.090282 J0.000000 F3500.000000
G03 X7.464478 Y29.020099 Z-1.000000 I-0.100101 J-0.111220
G01 X7.463848 Y29.027011 Z-1.000000
G02 X7.519331 Y29.035389 Z-1.000000 I0.061923 J-0.222184
G01 X7.690747 Y29.040189 Z-1.000000
G01 X7.690747 Y28.930483 Z-1.000000
G02 X7.669797 Y28.841729 Z-1.000000 I-0.198469 J-0.000000
G01 X7.635895 Y28.820776 Z-1.000000
G01 X7.601080 Y28.840813 Z-1.000000
G02 X7.581042 Y28.915196 Z-1.000000 I0.128033 J0.074383
G01 X7.581041 Y28.915184 Z-1.000000
G00 Z5.000000

(End cutting path id: path129)


(Start cutting path id: path129)
(Change tool to Default tool)

G00 Z5.000000
G00 X6.531973 Y29.251523

G01 Z-1.000000 F100.0(Penetrate)
G02 X6.593682 Y29.257379 Z-1.000000 I0.061709 J-0.322217 F3500.000000
G02 X6.655392 Y29.251523 Z-1.000000 I0.000000 J-0.328088
G01 X6.655397 Y29.245536 Z-1.000000
G02 X6.593682 Y29.239633 Z-1.000000 I-0.061714 J0.319656
G02 X6.531978 Y29.245508 Z-1.000000 I0.000000 J0.326960
G01 X6.531973 Y29.251523 Z-1.000000
G01 X6.531973 Y29.251523 Z-1.000000
G00 Z5.000000

(End cutting path id: path129)


(Start cutting path id: path129)
(Change tool to Default tool)

G00 Z5.000000
G00 X6.047436 Y29.461645

G01 Z-1.000000 F100.0(Penetrate)
G01 X6.060533 Y29.467857 Z-1.000000 F3500.000000
G02 X6.192838 Y29.486115 Z-1.000000 I0.369730 J-2.190690
G02 X6.286474 Y29.486472 Z-1.000000 I0.048542 J-0.451820
G01 X6.288831 Y29.476515 Z-1.000000
G02 X6.070486 Y29.405870 Z-1.000000 I-0.246610 J0.389462
G01 X6.047435 Y29.461685 Z-1.000000
G01 X6.047436 Y29.461645 Z-1.000000
G00 Z5.000000

(End cutting path id: path129)


(Start cutting path id: path129)
(Change tool to Default tool)

G00 Z5.000000
G00 X6.278276 Y30.713206

G01 Z-1.000000 F100.0(Penetrate)
G03 X6.257213 Y30.733141 Z-1.000000 I-0.048082 J-0.029706 F3500.000000
G03 X6.228661 Y30.740213 Z-1.000000 I-0.027804 J-0.051085
G01 X6.222772 Y30.732082 Z-1.000000
G01 X6.237141 Y30.713206 Z-1.000000
G03 X6.272471 Y30.702784 Z-1.000000 I0.035329 J0.054668
G01 X6.278281 Y30.713206 Z-1.000000
G01 X6.278276 Y30.713206 Z-1.000000
G00 Z5.000000

(End cutting path id: path129)


(Start cutting path id: path129)
(Change tool to Default tool)

G00 Z5.000000
G00 X6.100003 Y30.850339

G01 Z-1.000000 F100.0(Penetrate)
G01 X6.091970 Y30.869733 Z-1.000000 F3500.000000
G01 X6.072576 Y30.877766 Z-1.000000
G01 X6.053182 Y30.869733 Z-1.000000
G01 X6.045149 Y30.850339 Z-1.000000
G01 X6.053182 Y30.830945 Z-1.000000
G01 X6.072576 Y30.822912 Z-1.000000
G01 X6.091970 Y30.830945 Z-1.000000
G01 X6.100003 Y30.850339 Z-1.000000
G01 X6.100003 Y30.850339 Z-1.000000
G00 Z5.000000

(End cutting path id: path129)


(Start cutting path id: path129)
(Change tool to Default tool)

G00 Z5.000000
G00 X5.910588 Y30.851715

G01 Z-1.000000 F100.0(Penetrate)
G01 X5.928067 Y30.899093 Z-1.000000 F3500.000000
G03 X5.878971 Y30.932619 Z-1.000000 I-0.049096 J-0.019186
G02 X5.835371 Y30.942253 Z-1.000000 I-0.000000 J0.103477
G01 X5.825736 Y30.957353 Z-1.000000
G01 X5.814452 Y30.972035 Z-1.000000
G03 X5.661127 Y31.001192 Z-1.000000 I-0.277755 J-1.042912
G02 X5.502533 Y31.029757 Z-1.000000 I0.148364 J1.278276
G01 X5.480979 Y31.045440 Z-1.000000
G03 X5.360711 Y31.137528 Z-1.000000 I-0.181082 J-0.111913
G03 X5.219869 Y31.123278 Z-1.000000 I-0.053114 J-0.178172
G02 X5.177462 Y31.111882 Z-1.000000 I-0.045659 J0.085315
G01 X5.167497 Y31.121518 Z-1.000000
G01 X5.156914 Y31.140256 Z-1.000000
G03 X5.064648 Y31.183524 Z-1.000000 I-0.253332 J-0.420204
G01 X4.961798 Y31.219261 Z-1.000000
G01 X5.071505 Y31.237442 Z-1.000000
G01 X5.073235 Y31.246236 Z-1.000000
G03 X5.044078 Y31.254361 Z-1.000000 I-0.028655 J-0.046452
G02 X4.908067 Y31.260469 Z-1.000000 I-0.011588 J1.259326
G02 X4.840077 Y31.274617 Z-1.000000 I0.032363 J0.325968
G01 X4.827688 Y31.300676 Z-1.000000
G02 X4.867504 Y31.344945 Z-1.000000 I0.078598 J-0.030652
G01 X4.961798 Y31.393755 Z-1.000000
G01 X4.852091 Y31.391335 Z-1.000000
G03 X4.748250 Y31.377762 Z-1.000000 I0.010712 J-0.485970
G01 X4.721258 Y31.359610 Z-1.000000
G01 X4.699266 Y31.353513 Z-1.000000
G02 X4.649658 Y31.390331 Z-1.000000 I0.052702 J0.122839
G03 X4.591223 Y31.432880 Z-1.000000 I-0.115306 J-0.096955
G03 X4.506225 Y31.448803 Z-1.000000 I-0.081392 J-0.199650
G02 X4.291173 Y31.461641 Z-1.000000 I-0.023683 J1.410902
G02 X3.864733 Y31.536598 Z-1.000000 I0.773622 J5.651747
G03 X3.790966 Y31.532304 Z-1.000000 I-0.029129 J-0.135366
G01 X3.782453 Y31.508577 Z-1.000000
G01 X3.805858 Y31.492383 Z-1.000000
G03 X3.941774 Y31.477415 Z-1.000000 I0.157435 J0.804985
G02 X4.015704 Y31.468970 Z-1.000000 I-0.011135 J-0.425306
G01 X4.015579 Y31.462357 Z-1.000000
G01 X3.998717 Y31.419198 Z-1.000000
G03 X4.110597 Y31.340484 Z-1.000000 I0.185238 J0.144421
G02 X4.352540 Y31.254180 Z-1.000000 I-1.603756 J-4.878176
G01 X4.371150 Y31.240125 Z-1.000000
G01 X4.389204 Y31.226952 Z-1.000000
G03 X4.433835 Y31.218311 Z-1.000000 I0.052183 J0.149953
G02 X4.572290 Y31.192448 Z-1.000000 I-0.024535 J-0.514873
G01 X4.591538 Y31.165743 Z-1.000000
G01 X4.627446 Y31.123110 Z-1.000000
G03 X4.685940 Y31.149455 Z-1.000000 I0.009744 J0.056475
G01 X4.705956 Y31.162678 Z-1.000000
G02 X4.755817 Y31.160050 Z-1.000000 I0.018553 J-0.122353
G02 X4.794758 Y31.139559 Z-1.000000 I-0.024553 J-0.093905
G01 X4.797087 Y31.124359 Z-1.000000
G01 X4.798036 Y31.107715 Z-1.000000
G03 X4.827065 Y31.086337 Z-1.000000 I0.053379 J0.042086
G03 X4.890582 Y31.084614 Z-1.000000 I0.034200 J0.089124
G01 X4.903149 Y31.110890 Z-1.000000
G01 X4.902755 Y31.141454 Z-1.000000
G01 X4.917723 Y31.152030 Z-1.000000
G01 X4.940921 Y31.144865 Z-1.000000
G01 X4.948084 Y31.131299 Z-1.000000
G03 X5.004847 Y31.044231 Z-1.000000 I0.095158 J0.000000
G03 X5.274236 Y30.987470 Z-1.000000 I0.269389 J0.610880
G02 X5.317949 Y30.973362 Z-1.000000 I-0.000000 J-0.074775
G01 X5.332057 Y30.945808 Z-1.000000
G01 X5.347677 Y30.924171 Z-1.000000
G03 X5.403567 Y30.922093 Z-1.000000 I0.031516 J0.095036
G02 X5.468460 Y30.923750 Z-1.000000 I0.036144 J-0.144009
G01 X5.497650 Y30.903518 Z-1.000000
G03 X5.537995 Y30.874378 Z-1.000000 I0.055448 J0.034270
G03 X5.820683 Y30.826574 Z-1.000000 I0.501233 J2.104310
G03 X5.855455 Y30.829561 Z-1.000000 I0.009499 J0.093328
G03 X5.910588 Y30.851712 Z-1.000000 I-0.073398 J0.262367
G01 X5.910588 Y30.851715 Z-1.000000
G00 Z5.000000

(End cutting path id: path129)


(Start cutting path id: path129)
(Change tool to Default tool)

G00 Z5.000000
G00 X5.626894 Y30.923356

G01 Z-1.000000 F100.0(Penetrate)
G02 X5.661178 Y30.930013 Z-1.000000 I0.034284 J-0.084947 F3500.000000
G02 X5.695461 Y30.923356 Z-1.000000 I-0.000000 J-0.091605
G01 X5.695461 Y30.916178 Z-1.000000
G02 X5.661178 Y30.909522 Z-1.000000 I-0.034283 J0.084961
G02 X5.626894 Y30.916180 Z-1.000000 I-0.000000 J0.091601
G01 X5.626895 Y30.923356 Z-1.000000
G01 X5.626894 Y30.923356 Z-1.000000
G00 Z5.000000

(End cutting path id: path129)


(Start cutting path id: path129)
(Change tool to Default tool)

G00 Z5.000000
G00 X5.537757 Y31.591593

G01 Z-1.000000 F100.0(Penetrate)
G01 X5.520800 Y31.612861 Z-1.000000 F3500.000000
G01 X5.532087 Y31.632442 Z-1.000000
G02 X5.589460 Y31.629896 Z-1.000000 I0.025921 J-0.063593
G01 X5.602328 Y31.596251 Z-1.000000
G01 X5.586477 Y31.584467 Z-1.000000
G02 X5.537761 Y31.591591 Z-1.000000 I-0.008219 J0.113919
G01 X5.537757 Y31.591593 Z-1.000000
G00 Z5.000000

(End cutting path id: path129)


(Start cutting path id: path129)
(Change tool to Default tool)

G00 Z5.000000
G00 X5.200690 Y31.758958

G01 Z-1.000000 F100.0(Penetrate)
G02 X5.113103 Y31.790989 Z-1.000000 I0.185172 J0.642108 F3500.000000
G02 X5.022416 Y31.838662 Z-1.000000 I0.329192 J0.736302
G03 X4.931939 Y31.883717 Z-1.000000 I-0.308017 J-0.505168
G03 X4.886375 Y31.892448 Z-1.000000 I-0.045830 J-0.115918
G01 X4.855765 Y31.909901 Z-1.000000
G02 X4.838378 Y31.973150 Z-1.000000 I0.106347 J0.063249
G03 X4.810367 Y32.029182 Z-1.000000 I-0.070047 J-0.000000
G03 X4.708102 Y32.070886 Z-1.000000 I-0.130661 J-0.174164
G02 X4.660948 Y32.092946 Z-1.000000 I0.011240 J0.085452
G01 X4.666962 Y32.108782 Z-1.000000
G02 X4.825742 Y32.099086 Z-1.000000 I0.018567 J-1.000899
G01 X4.838378 Y32.084537 Z-1.000000
G01 X4.848854 Y32.067586 Z-1.000000
G03 X4.893231 Y32.057110 Z-1.000000 I0.044377 J0.088753
G03 X4.937608 Y32.067586 Z-1.000000 I-0.000000 J0.099229
G01 X4.948084 Y32.084537 Z-1.000000
G01 X4.960125 Y32.099923 Z-1.000000
G02 X5.058877 Y32.111964 Z-1.000000 I0.098751 J-0.398915
G02 X5.159692 Y32.088215 Z-1.000000 I-0.000000 J-0.225855
G02 X5.275670 Y32.003822 Z-1.000000 I-0.193338 J-0.387585
G02 X5.336630 Y31.909572 Z-1.000000 I-0.200475 J-0.196505
G01 X5.322581 Y31.883884 Z-1.000000
G01 X5.263491 Y31.872088 Z-1.000000
G01 X5.325201 Y31.851694 Z-1.000000
G02 X5.384394 Y31.778814 Z-1.000000 I-0.027320 J-0.082666
G01 X5.338914 Y31.730464 Z-1.000000
G02 X5.291521 Y31.736535 Z-1.000000 I0.016215 J0.314636
G02 X5.200690 Y31.758958 Z-1.000000 I0.243880 J1.183075
G01 X5.200690 Y31.758958 Z-1.000000
G00 Z5.000000

(End cutting path id: path129)


(Start cutting path id: path129)
(Change tool to Default tool)

G00 Z5.000000
G00 X5.167498 Y32.358803

G01 Z-1.000000 F100.0(Penetrate)
G01 X5.179523 Y32.374204 Z-1.000000 F3500.000000
G02 X5.277204 Y32.386229 Z-1.000000 I0.097681 J-0.390723
G02 X5.374886 Y32.374204 Z-1.000000 I-0.000000 J-0.402746
G01 X5.386911 Y32.358803 Z-1.000000
G01 X5.374886 Y32.343401 Z-1.000000
G02 X5.277204 Y32.331376 Z-1.000000 I-0.097681 J0.390723
G02 X5.179523 Y32.343401 Z-1.000000 I-0.000000 J0.402746
G01 X5.167498 Y32.358803 Z-1.000000
G01 X5.167498 Y32.358803 Z-1.000000
G00 Z5.000000

(End cutting path id: path129)


(Start cutting path id: path129)
(Change tool to Default tool)

G00 Z5.000000
G00 X5.167498 Y32.523363

G01 Z-1.000000 F100.0(Penetrate)
G01 X5.179523 Y32.538765 Z-1.000000 F3500.000000
G02 X5.277204 Y32.550790 Z-1.000000 I0.097681 J-0.390723
G02 X5.374886 Y32.538765 Z-1.000000 I0.000000 J-0.402746
G01 X5.386911 Y32.523363 Z-1.000000
G01 X5.374886 Y32.507961 Z-1.000000
G02 X5.277204 Y32.495936 Z-1.000000 I-0.097681 J0.390723
G02 X5.179523 Y32.507961 Z-1.000000 I0.000000 J0.402746
G01 X5.167498 Y32.523363 Z-1.000000
G01 X5.167498 Y32.523363 Z-1.000000
G00 Z5.000000

(End cutting path id: path129)


(Start cutting path id: path129)
(Change tool to Default tool)

G00 Z5.000000
G00 X4.776669 Y32.350732

G01 Z-1.000000 F100.0(Penetrate)
G02 X4.838378 Y32.356624 Z-1.000000 I0.061709 J-0.320246 F3500.000000
G02 X4.900088 Y32.350732 Z-1.000000 I0.000000 J-0.326154
G01 X4.900088 Y32.344735 Z-1.000000
G02 X4.838378 Y32.338847 Z-1.000000 I-0.061710 J0.320432
G02 X4.776668 Y32.344736 Z-1.000000 I-0.000000 J0.326254
G01 X4.776668 Y32.350732 Z-1.000000
G01 X4.776669 Y32.350732 Z-1.000000
G00 Z5.000000

(End cutting path id: path129)


(Start cutting path id: path129)
(Change tool to Default tool)

G00 Z5.000000
G00 X4.557256 Y32.570146

G01 Z-1.000000 F100.0(Penetrate)
G02 X4.618965 Y32.576037 Z-1.000000 I0.061709 J-0.320246 F3500.000000
G02 X4.680675 Y32.570146 Z-1.000000 I0.000000 J-0.326152
G01 X4.680675 Y32.564148 Z-1.000000
G02 X4.618965 Y32.558259 Z-1.000000 I-0.061710 J0.320432
G02 X4.557255 Y32.564149 Z-1.000000 I0.000000 J0.326254
G01 X4.557255 Y32.570146 Z-1.000000
G01 X4.557256 Y32.570146 Z-1.000000
G00 Z5.000000

(End cutting path id: path129)


(Start cutting path id: path129)
(Change tool to Default tool)

G00 Z5.000000
G00 X3.805751 Y32.008937

G01 Z-1.000000 F100.0(Penetrate)
G01 X3.819840 Y32.068608 Z-1.000000 F3500.000000
G02 X3.972481 Y32.111964 Z-1.000000 I0.152641 J-0.247020
G02 X4.050882 Y32.092413 Z-1.000000 I-0.000000 J-0.166974
G01 X4.070433 Y32.059872 Z-1.000000
G01 X4.049863 Y32.026778 Z-1.000000
G02 X3.944633 Y31.997775 Z-1.000000 I-0.128192 J0.259701
G02 X3.823927 Y31.997825 Z-1.000000 I-0.060036 J0.755252
G01 X3.805751 Y32.008937 Z-1.000000
G01 X3.805751 Y32.008937 Z-1.000000
G00 Z5.000000

(End cutting path id: path129)


(Start cutting path id: path129)
(Change tool to Default tool)

G00 Z5.000000
G00 X3.631607 Y32.084537

G01 Z-1.000000 F100.0(Penetrate)
G01 X3.642166 Y32.101405 Z-1.000000 F3500.000000
G02 X3.688079 Y32.111964 Z-1.000000 I0.045913 J-0.094533
G02 X3.724246 Y32.100644 Z-1.000000 I0.000000 J-0.063436
G01 X3.727600 Y32.084537 Z-1.000000
G02 X3.706160 Y32.065167 Z-1.000000 I-0.044070 J0.027228
G02 X3.671128 Y32.057110 Z-1.000000 I-0.035032 J0.072136
G02 X3.641028 Y32.066531 Z-1.000000 I-0.000000 J0.052793
G01 X3.631607 Y32.084537 Z-1.000000
G01 X3.631607 Y32.084537 Z-1.000000
G00 Z5.000000

(End cutting path id: path129)


(Start cutting path id: path129)
(Change tool to Default tool)

G00 Z5.000000
G00 X5.833207 Y33.099322

G01 Z-1.000000 F100.0(Penetrate)
G02 X5.839096 Y33.161032 Z-1.000000 I0.326254 J0.000000 F3500.000000
G01 X5.845093 Y33.161032 Z-1.000000
G02 X5.850984 Y33.099323 Z-1.000000 I-0.320246 J-0.061709
G02 X5.845093 Y33.037612 Z-1.000000 I-0.326154 J0.000000
G01 X5.839095 Y33.037613 Z-1.000000
G02 X5.833207 Y33.099322 Z-1.000000 I0.320432 J0.061710
G01 X5.833207 Y33.099322 Z-1.000000
G00 Z5.000000

(End cutting path id: path129)


(Start cutting path id: path129)
(Change tool to Default tool)

G00 Z5.000000
G00 X5.805780 Y33.757561

G01 Z-1.000000 F100.0(Penetrate)
G02 X5.811670 Y33.819272 Z-1.000000 I0.326254 J-0.000000 F3500.000000
G01 X5.817666 Y33.819271 Z-1.000000
G02 X5.823558 Y33.757562 Z-1.000000 I-0.320246 J-0.061709
G02 X5.817666 Y33.695852 Z-1.000000 I-0.326152 J-0.000000
G01 X5.811668 Y33.695852 Z-1.000000
G02 X5.805780 Y33.757562 Z-1.000000 I0.320432 J0.061710
G01 X5.805780 Y33.757561 Z-1.000000
G00 Z5.000000

(End cutting path id: path129)


(Start cutting path id: path129)
(Change tool to Default tool)

G00 Z5.000000
G00 X5.928587 Y34.079336

G01 Z-1.000000 F100.0(Penetrate)
G02 X6.045150 Y34.084571 Z-1.000000 I0.116563 J-1.295127 F3500.000000
G02 X6.161713 Y34.079336 Z-1.000000 I-0.000000 J-1.300349
G01 X6.161713 Y34.074077 Z-1.000000
G02 X6.045150 Y34.068837 Z-1.000000 I-0.116563 J1.293793
G02 X5.928587 Y34.074075 Z-1.000000 I0.000000 J1.299697
G01 X5.928587 Y34.079336 Z-1.000000
G01 X5.928587 Y34.079336 Z-1.000000
G00 Z5.000000

(End cutting path id: path129)


(Start cutting path id: path129)
(Change tool to Default tool)

G00 Z5.000000
G00 X5.791454 Y34.735658

G01 Z-1.000000 F100.0(Penetrate)
G02 X5.825737 Y34.742315 Z-1.000000 I0.034284 J-0.084947 F3500.000000
G02 X5.860021 Y34.735658 Z-1.000000 I-0.000000 J-0.091605
G01 X5.860021 Y34.728479 Z-1.000000
G02 X5.825738 Y34.721823 Z-1.000000 I-0.034283 J0.084961
G02 X5.791454 Y34.728481 Z-1.000000 I0.000000 J0.091601
G01 X5.791455 Y34.735658 Z-1.000000
G01 X5.791454 Y34.735658 Z-1.000000
G00 Z5.000000

(End cutting path id: path129)


(Start cutting path id: path129)
(Change tool to Default tool)

G00 Z5.000000
G00 X5.489761 Y35.395814

G01 Z-1.000000 F100.0(Penetrate)
G02 X5.606324 Y35.401049 Z-1.000000 I0.116563 J-1.295126 F3500.000000
G02 X5.722887 Y35.395814 Z-1.000000 I-0.000000 J-1.300352
G01 X5.722887 Y35.390556 Z-1.000000
G02 X5.606324 Y35.385315 Z-1.000000 I-0.116563 J1.293795
G02 X5.489761 Y35.390553 Z-1.000000 I0.000000 J1.299695
G01 X5.489761 Y35.395814 Z-1.000000
G01 X5.489761 Y35.395814 Z-1.000000
G00 Z5.000000

(End cutting path id: path129)


(Start cutting path id: path129)
(Change tool to Default tool)

G00 Z5.000000
G00 X5.551471 Y36.088825

G01 Z-1.000000 F100.0(Penetrate)
G01 X5.559504 Y36.108218 Z-1.000000 F3500.000000
G01 X5.578898 Y36.116251 Z-1.000000
G01 X5.598292 Y36.108218 Z-1.000000
G01 X5.606325 Y36.088825 Z-1.000000
G01 X5.598292 Y36.069431 Z-1.000000
G01 X5.578898 Y36.061397 Z-1.000000
G01 X5.559504 Y36.069431 Z-1.000000
G01 X5.551471 Y36.088825 Z-1.000000
G01 X5.551471 Y36.088825 Z-1.000000
G00 Z5.000000

(End cutting path id: path129)


(Start cutting path id: path129)
(Change tool to Default tool)

G00 Z5.000000
G00 X5.386911 Y36.253385

G01 Z-1.000000 F100.0(Penetrate)
G01 X5.394944 Y36.272779 Z-1.000000 F3500.000000
G01 X5.414338 Y36.280812 Z-1.000000
G01 X5.433732 Y36.272779 Z-1.000000
G01 X5.441765 Y36.253385 Z-1.000000
G01 X5.433732 Y36.233991 Z-1.000000
G01 X5.414338 Y36.225958 Z-1.000000
G01 X5.394944 Y36.233991 Z-1.000000
G01 X5.386911 Y36.253385 Z-1.000000
G01 X5.386911 Y36.253385 Z-1.000000
G00 Z5.000000

(End cutting path id: path129)


(Start cutting path id: path129)
(Change tool to Default tool)

G00 Z5.000000
G00 X4.776669 Y36.492154

G01 Z-1.000000 F100.0(Penetrate)
G02 X4.838378 Y36.498045 Z-1.000000 I0.061709 J-0.320246 F3500.000000
G02 X4.900088 Y36.492154 Z-1.000000 I0.000000 J-0.326154
G01 X4.900088 Y36.486156 Z-1.000000
G02 X4.838378 Y36.480268 Z-1.000000 I-0.061710 J0.320432
G02 X4.776668 Y36.486157 Z-1.000000 I0.000000 J0.326254
G01 X4.776668 Y36.492154 Z-1.000000
G01 X4.776669 Y36.492154 Z-1.000000
G00 Z5.000000

(End cutting path id: path129)


(Start cutting path id: path129)
(Change tool to Default tool)

G00 Z5.000000
G00 X4.399552 Y36.390518

G01 Z-1.000000 F100.0(Penetrate)
G02 X4.420504 Y36.479271 Z-1.000000 I0.198466 J0.000000 F3500.000000
G01 X4.454405 Y36.500224 Z-1.000000
G01 X4.488306 Y36.479272 Z-1.000000
G02 X4.509258 Y36.390518 Z-1.000000 I-0.177510 J-0.088755
G02 X4.488307 Y36.301764 Z-1.000000 I-0.198466 J-0.000000
G01 X4.454405 Y36.280811 Z-1.000000
G01 X4.420504 Y36.301763 Z-1.000000
G02 X4.399552 Y36.390518 Z-1.000000 I0.177510 J0.088755
G01 X4.399552 Y36.390518 Z-1.000000
G00 Z5.000000

(End cutting path id: path129)


(Start cutting path id: path129)
(Change tool to Default tool)

G00 Z5.000000
G00 X4.337842 Y36.053328

G01 Z-1.000000 F100.0(Penetrate)
G02 X4.399552 Y36.059219 Z-1.000000 I0.061709 J-0.320246 F3500.000000
G02 X4.461262 Y36.053328 Z-1.000000 I-0.000000 J-0.326152
G01 X4.461262 Y36.047329 Z-1.000000
G02 X4.399552 Y36.041441 Z-1.000000 I-0.061710 J0.320435
G02 X4.337842 Y36.047331 Z-1.000000 I-0.000000 J0.326254
G01 X4.337842 Y36.053328 Z-1.000000
G01 X4.337842 Y36.053328 Z-1.000000
G00 Z5.000000

(End cutting path id: path129)


(Start cutting path id: path129)
(Change tool to Default tool)

G00 Z5.000000
G00 X3.679603 Y35.833914

G01 Z-1.000000 F100.0(Penetrate)
G02 X3.741313 Y35.839806 Z-1.000000 I0.061709 J-0.320246 F3500.000000
G02 X3.803023 Y35.833914 Z-1.000000 I-0.000000 J-0.326152
G01 X3.803023 Y35.827917 Z-1.000000
G02 X3.741313 Y35.822029 Z-1.000000 I-0.061710 J0.320432
G02 X3.679603 Y35.827918 Z-1.000000 I-0.000000 J0.326254
G01 X3.679603 Y35.833914 Z-1.000000
G01 X3.679603 Y35.833914 Z-1.000000
G00 Z5.000000

(End cutting path id: path129)


(Start cutting path id: path129)
(Change tool to Default tool)

G00 Z5.000000
G00 X4.776669 Y34.764276

G01 Z-1.000000 F100.0(Penetrate)
G02 X4.838378 Y34.770167 Z-1.000000 I0.061709 J-0.320246 F3500.000000
G02 X4.900088 Y34.764276 Z-1.000000 I0.000000 J-0.326154
G01 X4.900088 Y34.758278 Z-1.000000
G02 X4.838378 Y34.752390 Z-1.000000 I-0.061710 J0.320432
G02 X4.776668 Y34.758279 Z-1.000000 I0.000000 J0.326254
G01 X4.776668 Y34.764276 Z-1.000000
G01 X4.776669 Y34.764276 Z-1.000000
G00 Z5.000000

(End cutting path id: path129)


(Start cutting path id: path129)
(Change tool to Default tool)

G00 Z5.000000
G00 X6.272033 Y35.293453

G01 Z-1.000000 F100.0(Penetrate)
G02 X6.277922 Y35.355163 Z-1.000000 I0.326254 J-0.000000 F3500.000000
G01 X6.283919 Y35.355163 Z-1.000000
G02 X6.289810 Y35.293453 Z-1.000000 I-0.320246 J-0.061709
G02 X6.283919 Y35.231743 Z-1.000000 I-0.326152 J0.000000
G01 X6.277921 Y35.231743 Z-1.000000
G02 X6.272033 Y35.293453 Z-1.000000 I0.320432 J0.061710
G01 X6.272033 Y35.293453 Z-1.000000
G00 Z5.000000

(End cutting path id: path129)


(Start cutting path id: path129)
(Change tool to Default tool)

G00 Z5.000000
G00 X7.149685 Y35.074040

G01 Z-1.000000 F100.0(Penetrate)
G02 X7.155575 Y35.135750 Z-1.000000 I0.326254 J-0.000000 F3500.000000
G01 X7.161571 Y35.135750 Z-1.000000
G02 X7.167462 Y35.074040 Z-1.000000 I-0.320246 J-0.061709
G02 X7.161571 Y35.012330 Z-1.000000 I-0.326152 J0.000000
G01 X7.155573 Y35.012330 Z-1.000000
G02 X7.149685 Y35.074040 Z-1.000000 I0.320435 J0.061710
G01 X7.149685 Y35.074040 Z-1.000000
G00 Z5.000000

(End cutting path id: path129)


(Start cutting path id: path129)
(Change tool to Default tool)

G00 Z5.000000
G00 X8.027337 Y34.415801

G01 Z-1.000000 F100.0(Penetrate)
G02 X8.033227 Y34.477511 Z-1.000000 I0.326254 J-0.000000 F3500.000000
G01 X8.039223 Y34.477511 Z-1.000000
G02 X8.045115 Y34.415801 Z-1.000000 I-0.320246 J-0.061709
G02 X8.039223 Y34.354091 Z-1.000000 I-0.326152 J0.000000
G01 X8.033225 Y34.354091 Z-1.000000
G02 X8.027337 Y34.415801 Z-1.000000 I0.320432 J0.061710
G01 X8.027337 Y34.415801 Z-1.000000
G00 Z5.000000

(End cutting path id: path129)


(Start cutting path id: path129)
(Change tool to Default tool)

G00 Z5.000000
G00 X8.653861 Y34.847770

G01 Z-1.000000 F100.0(Penetrate)
G02 X8.668146 Y34.947336 Z-1.000000 I0.297466 J0.008131 F3500.000000
G01 X8.691495 Y34.964333 Z-1.000000
G01 X8.718484 Y34.980546 Z-1.000000
G03 X8.749854 Y35.074040 Z-1.000000 I-0.264787 J0.140854
G02 X8.783850 Y35.164454 Z-1.000000 I0.238782 J-0.038183
G01 X8.818745 Y35.183746 Z-1.000000
G01 X8.850210 Y35.203961 Z-1.000000
G03 X8.872021 Y35.300309 Z-1.000000 I-0.219534 J0.100340
G02 X8.884780 Y35.361930 Z-1.000000 I0.168622 J-0.002783
G01 X8.897520 Y35.362019 Z-1.000000
G01 X8.913509 Y35.348168 Z-1.000000
G01 X8.923019 Y35.355159 Z-1.000000
G02 X8.937291 Y35.390306 Z-1.000000 I0.055945 J-0.002246
G01 X8.966087 Y35.403156 Z-1.000000
G01 X8.990387 Y35.419996 Z-1.000000
G03 X9.007227 Y35.512863 Z-1.000000 I-0.247643 J0.092867
G02 X9.024067 Y35.605729 Z-1.000000 I0.264484 J-0.000000
G01 X9.048367 Y35.622569 Z-1.000000
G01 X9.072819 Y35.639570 Z-1.000000
G03 X9.091672 Y35.739133 Z-1.000000 I-0.283086 J0.105171
G02 X9.100294 Y35.820704 Z-1.000000 I0.473296 J-0.008785
G01 X9.107671 Y35.821413 Z-1.000000
G03 X9.179391 Y35.769948 Z-1.000000 I0.076464 J0.030853
G01 X9.226640 Y35.814553 Z-1.000000
G01 X9.237116 Y35.831504 Z-1.000000
G02 X9.281493 Y35.841980 Z-1.000000 I0.044377 J-0.088753
G02 X9.325870 Y35.831504 Z-1.000000 I0.000000 J-0.099229
G01 X9.336346 Y35.814553 Z-1.000000
G01 X9.325870 Y35.797602 Z-1.000000
G02 X9.281493 Y35.787126 Z-1.000000 I-0.044377 J0.088753
G01 X9.245762 Y35.768003 Z-1.000000
G03 X9.226640 Y35.704846 Z-1.000000 I0.094738 J-0.063157
G02 X9.207518 Y35.641688 Z-1.000000 I-0.113859 J0.000000
G01 X9.171787 Y35.622566 Z-1.000000
G01 X9.137204 Y35.602296 Z-1.000000
G03 X9.116934 Y35.524614 Z-1.000000 I0.138718 J-0.077682
G02 X9.105178 Y35.431381 Z-1.000000 I-0.375557 J-0.000000
G02 X9.082651 Y35.390841 Z-1.000000 I-0.088609 J0.022708
G03 X9.050390 Y35.353399 Z-1.000000 I0.341655 J-0.327001
G03 X9.007228 Y35.293446 Z-1.000000 I0.835593 J-0.647077
G02 X8.964067 Y35.233494 Z-1.000000 I-0.878754 J0.587125
G02 X8.931805 Y35.196051 Z-1.000000 I-0.373917 J0.289559
G03 X8.904175 Y35.157560 Z-1.000000 I0.121876 J-0.116649
G03 X8.897522 Y35.130473 Z-1.000000 I0.051814 J-0.027087
G02 X8.876046 Y35.055796 Z-1.000000 I-0.140570 J-0.000000
G02 X8.755941 Y34.904680 Z-1.000000 I-0.734975 J0.460859
G03 X8.690896 Y34.826777 Z-1.000000 I0.412263 J-0.410322
G03 X8.669986 Y34.781260 Z-1.000000 I0.116273 J-0.080978
G01 X8.662723 Y34.781315 Z-1.000000
G02 X8.653864 Y34.847764 Z-1.000000 I0.310038 J0.075153
G01 X8.653861 Y34.847770 Z-1.000000
G00 Z5.000000

(End cutting path id: path129)


(Start cutting path id: path129)
(Change tool to Default tool)

G00 Z5.000000
G00 X9.091671 Y35.227172

G01 Z-1.000000 F100.0(Penetrate)
G01 X9.099707 Y35.245494 Z-1.000000 F3500.000000
G01 X9.108241 Y35.243742 Z-1.000000
G02 X9.114110 Y35.209498 Z-1.000000 I-0.077083 J-0.030835
G01 X9.106071 Y35.191174 Z-1.000000
G01 X9.097537 Y35.192924 Z-1.000000
G02 X9.091666 Y35.227171 Z-1.000000 I0.077028 J0.030831
G01 X9.091671 Y35.227172 Z-1.000000
G00 Z5.000000

(End cutting path id: path129)


(Start cutting path id: path129)
(Change tool to Default tool)

G00 Z5.000000
G00 X9.336345 Y36.006545

G01 Z-1.000000 F100.0(Penetrate)
G02 X9.352411 Y36.045332 Z-1.000000 I0.054853 J0.000000 F3500.000000
G02 X9.391198 Y36.061398 Z-1.000000 I0.038787 J-0.038787
G01 X9.426198 Y36.034998 Z-1.000000
G02 X9.413139 Y35.984603 Z-1.000000 I-0.049353 J-0.014100
G02 X9.362745 Y35.971544 Z-1.000000 I-0.036294 J0.036294
G01 X9.336344 Y36.006544 Z-1.000000
G01 X9.336345 Y36.006545 Z-1.000000
G00 Z5.000000

(End cutting path id: path129)


(Start cutting path id: path129)
(Change tool to Default tool)

G00 Z5.000000
G00 X9.560148 Y36.092484

G01 Z-1.000000 F100.0(Penetrate)
G03 X9.543600 Y36.126907 Z-1.000000 I-0.055336 J-0.005413 F3500.000000
G03 X9.498870 Y36.152159 Z-1.000000 I-0.070186 J-0.072079
G02 X9.453108 Y36.178163 Z-1.000000 I0.025792 J0.098656
G02 X9.427489 Y36.222456 Z-1.000000 I0.067643 J0.068682
G03 X9.403152 Y36.268067 Z-1.000000 I-0.107677 J-0.028155
G03 X9.367814 Y36.289876 Z-1.000000 I-0.053770 J-0.047593
G01 X9.367990 Y36.296579 Z-1.000000
G02 X9.440056 Y36.305057 Z-1.000000 I0.082998 J-0.394939
G02 X9.541162 Y36.258861 Z-1.000000 I0.003418 J-0.126259
G02 X9.575793 Y36.139433 Z-1.000000 I-0.122237 J-0.100181
G02 X9.565077 Y36.091929 Z-1.000000 I-0.242526 J0.029750
G01 X9.560147 Y36.092484 Z-1.000000
G01 X9.560148 Y36.092484 Z-1.000000
G00 Z5.000000

(End cutting path id: path129)


(Start cutting path id: path129)
(Change tool to Default tool)

G00 Z5.000000
G00 X10.261994 Y36.519580

G01 Z-1.000000 F100.0(Penetrate)
G02 X10.323704 Y36.525471 Z-1.000000 I0.061710 J-0.320250 F3500.000000
G02 X10.385414 Y36.519580 Z-1.000000 I-0.000000 J-0.326142
G01 X10.385414 Y36.513584 Z-1.000000
G02 X10.323704 Y36.507694 Z-1.000000 I-0.061710 J0.320337
G02 X10.261994 Y36.513583 Z-1.000000 I-0.000000 J0.326257
G01 X10.261994 Y36.519580 Z-1.000000
G01 X10.261994 Y36.519580 Z-1.000000
G00 Z5.000000

(End cutting path id: path129)


(Start cutting path id: path129)
(Change tool to Default tool)

G00 Z5.000000
G00 X10.700820 Y36.492154

G01 Z-1.000000 F100.0(Penetrate)
G02 X10.762530 Y36.498045 Z-1.000000 I0.061710 J-0.320250 F3500.000000
G02 X10.824240 Y36.492154 Z-1.000000 I0.000000 J-0.326142
G01 X10.824240 Y36.486157 Z-1.000000
G02 X10.762530 Y36.480268 Z-1.000000 I-0.061710 J0.320337
G02 X10.700820 Y36.486157 Z-1.000000 I0.000000 J0.326257
G01 X10.700820 Y36.492154 Z-1.000000
G01 X10.700820 Y36.492154 Z-1.000000
G00 Z5.000000

(End cutting path id: path129)


(Start cutting path id: path129)
(Change tool to Default tool)

G00 Z5.000000
G00 X10.097434 Y37.589945

G01 Z-1.000000 F100.0(Penetrate)
G02 X10.213997 Y37.595180 Z-1.000000 I0.116563 J-1.295128 F3500.000000
G02 X10.330561 Y37.589945 Z-1.000000 I0.000000 J-1.300362
G01 X10.330561 Y37.584686 Z-1.000000
G02 X10.213997 Y37.579446 Z-1.000000 I-0.116564 J1.293783
G02 X10.097434 Y37.584683 Z-1.000000 I-0.000000 J1.299690
G01 X10.097434 Y37.589945 Z-1.000000
G01 X10.097434 Y37.589945 Z-1.000000
G00 Z5.000000

(End cutting path id: path129)


(Start cutting path id: path129)
(Change tool to Default tool)

G00 Z5.000000
G00 X10.213997 Y37.844129

G01 Z-1.000000 F100.0(Penetrate)
G01 X10.224472 Y37.861079 Z-1.000000 F3500.000000
G02 X10.268847 Y37.871556 Z-1.000000 I0.044375 J-0.088738
G03 X10.307632 Y37.887623 Z-1.000000 I0.000000 J0.054848
G03 X10.323697 Y37.926409 Z-1.000000 I-0.038791 J0.038786
G03 X10.307632 Y37.965195 Z-1.000000 I-0.054855 J-0.000000
G03 X10.268847 Y37.981262 Z-1.000000 I-0.038785 J-0.038781
G02 X10.224472 Y37.991739 Z-1.000000 I-0.000000 J0.099215
G01 X10.213997 Y38.008689 Z-1.000000
G01 X10.224472 Y38.025639 Z-1.000000
G02 X10.268847 Y38.036116 Z-1.000000 I0.044375 J-0.088738
G02 X10.313222 Y38.025639 Z-1.000000 I-0.000000 J-0.099215
G01 X10.323697 Y38.008689 Z-1.000000
G01 X10.334172 Y37.991739 Z-1.000000
G03 X10.378547 Y37.981262 Z-1.000000 I0.044375 J0.088738
G02 X10.417332 Y37.965195 Z-1.000000 I0.000000 J-0.054848
G02 X10.433397 Y37.926409 Z-1.000000 I-0.038791 J-0.038786
G02 X10.417332 Y37.887623 Z-1.000000 I-0.054855 J0.000000
G02 X10.378547 Y37.871556 Z-1.000000 I-0.038785 J0.038781
G03 X10.334172 Y37.861079 Z-1.000000 I-0.000000 J-0.099215
G01 X10.323697 Y37.844129 Z-1.000000
G01 X10.313222 Y37.827179 Z-1.000000
G02 X10.268847 Y37.816702 Z-1.000000 I-0.044375 J0.088738
G02 X10.224472 Y37.827179 Z-1.000000 I0.000000 J0.099215
G01 X10.213997 Y37.844129 Z-1.000000
G01 X10.213997 Y37.844129 Z-1.000000
G00 Z5.000000

(End cutting path id: path129)


(Start cutting path id: path129)
(Change tool to Default tool)

G00 Z5.000000
G00 X10.261994 Y38.274885

G01 Z-1.000000 F100.0(Penetrate)
G02 X10.323704 Y38.280777 Z-1.000000 I0.061710 J-0.320250 F3500.000000
G02 X10.385414 Y38.274885 Z-1.000000 I-0.000000 J-0.326142
G01 X10.385414 Y38.268889 Z-1.000000
G02 X10.323704 Y38.262999 Z-1.000000 I-0.061710 J0.320337
G02 X10.261994 Y38.268889 Z-1.000000 I-0.000000 J0.326257
G01 X10.261994 Y38.274885 Z-1.000000
G01 X10.261994 Y38.274885 Z-1.000000
G00 Z5.000000

(End cutting path id: path129)


(Start cutting path id: path129)
(Change tool to Default tool)

G00 Z5.000000
G00 X10.652824 Y38.200675

G01 Z-1.000000 F100.0(Penetrate)
G01 X10.673775 Y38.234576 Z-1.000000 F3500.000000
G02 X10.762530 Y38.255528 Z-1.000000 I0.088755 J-0.177504
G01 X10.872237 Y38.255528 Z-1.000000
G01 X10.872237 Y38.365235 Z-1.000000
G03 X10.851303 Y38.453974 Z-1.000000 I-0.198543 J-0.000000
G01 X10.817387 Y38.474942 Z-1.000000
G01 X10.783488 Y38.495893 Z-1.000000
G02 X10.762537 Y38.584648 Z-1.000000 I0.177524 J0.088755
G02 X10.782824 Y38.674108 Z-1.000000 I0.207386 J-0.000000
G01 X10.814947 Y38.694355 Z-1.000000
G03 X10.917966 Y38.758343 Z-1.000000 I0.000000 J0.114923
G03 X10.981953 Y39.032134 Z-1.000000 I-0.553762 J0.273790
G02 X11.002405 Y39.112709 Z-1.000000 I0.168953 J0.000000
G01 X11.036803 Y39.133181 Z-1.000000
G03 X11.076038 Y39.148797 Z-1.000000 I0.000000 J0.057096
G01 X11.091653 Y39.185061 Z-1.000000
G02 X11.107829 Y39.224322 Z-1.000000 I0.055735 J-0.000000
G02 X11.160223 Y39.254150 Z-1.000000 I0.079742 J-0.079141
G03 X11.203915 Y39.309525 Z-1.000000 I-0.014060 J0.056018
G01 X11.161323 Y39.352594 Z-1.000000
G01 X11.145998 Y39.374503 Z-1.000000
G02 X11.201373 Y39.462300 Z-1.000000 I0.230971 J-0.084315
G03 X11.266302 Y39.554110 Z-1.000000 I-0.252247 J0.247258
G01 X11.255143 Y39.572007 Z-1.000000
G01 X11.220252 Y39.590886 Z-1.000000
G02 X11.201373 Y39.654287 Z-1.000000 I0.097018 J0.063400
G03 X11.182251 Y39.717445 Z-1.000000 I-0.113864 J0.000000
G01 X11.146523 Y39.736567 Z-1.000000
G02 X11.102148 Y39.747043 Z-1.000000 I0.000000 J0.099216
G01 X11.091673 Y39.763993 Z-1.000000
G01 X11.102148 Y39.780943 Z-1.000000
G02 X11.146523 Y39.791420 Z-1.000000 I0.044375 J-0.088739
G02 X11.190898 Y39.780943 Z-1.000000 I0.000000 J-0.099216
G01 X11.201373 Y39.763993 Z-1.000000
G01 X11.211848 Y39.747043 Z-1.000000
G03 X11.256223 Y39.736567 Z-1.000000 I0.044375 J0.088739
G03 X11.300598 Y39.747043 Z-1.000000 I-0.000000 J0.099216
G01 X11.311073 Y39.763993 Z-1.000000
G01 X11.323720 Y39.778772 Z-1.000000
G02 X11.486411 Y39.791420 Z-1.000000 I0.162691 J-1.040075
G02 X11.649800 Y39.774034 Z-1.000000 I-0.000000 J-0.776449
G01 X11.677537 Y39.750280 Z-1.000000
G01 X11.720422 Y39.720804 Z-1.000000
G01 X11.749897 Y39.750280 Z-1.000000
G01 X11.768555 Y39.772761 Z-1.000000
G02 X11.969310 Y39.791420 Z-1.000000 I0.200755 J-1.070677
G02 X12.164673 Y39.767370 Z-1.000000 I0.000000 J-0.805503
G01 X12.188723 Y39.736567 Z-1.000000
G01 X12.164672 Y39.705763 Z-1.000000
G02 X11.969310 Y39.681713 Z-1.000000 I-0.195362 J0.781466
G03 X11.773947 Y39.657663 Z-1.000000 I-0.000000 J-0.805501
G01 X11.749897 Y39.626860 Z-1.000000
G01 X11.770848 Y39.592960 Z-1.000000
G03 X11.859603 Y39.572007 Z-1.000000 I0.088755 J0.177502
G02 X11.948357 Y39.551055 Z-1.000000 I-0.000000 J-0.198465
G01 X11.969310 Y39.517153 Z-1.000000
G01 X11.945259 Y39.486350 Z-1.000000
G02 X11.749897 Y39.462300 Z-1.000000 I-0.195362 J0.781466
G02 X11.555762 Y39.488755 Z-1.000000 I0.000000 J0.725544
G01 X11.527676 Y39.524010 Z-1.000000
G01 X11.519316 Y39.527255 Z-1.000000
G03 X11.504626 Y39.501046 Z-1.000000 I0.038920 J-0.039037
G02 X11.480523 Y39.417978 Z-1.000000 I-0.880028 J0.210319
G02 X11.464676 Y39.384483 Z-1.000000 I-0.157260 J0.053904
G01 X11.465409 Y39.364008 Z-1.000000
G01 X11.487726 Y39.352593 Z-1.000000
G02 X11.520793 Y39.342899 Z-1.000000 I0.000000 J-0.061245
G01 X11.530486 Y39.325167 Z-1.000000
G01 X11.540961 Y39.308217 Z-1.000000
G03 X11.585336 Y39.297740 Z-1.000000 I0.044375 J0.088739
G03 X11.629711 Y39.308217 Z-1.000000 I-0.000000 J0.099216
G01 X11.640186 Y39.325167 Z-1.000000
G01 X11.650661 Y39.342117 Z-1.000000
G02 X11.695036 Y39.352593 Z-1.000000 I0.044375 J-0.088739
G02 X11.739411 Y39.342117 Z-1.000000 I-0.000000 J-0.099216
G01 X11.749886 Y39.325167 Z-1.000000
G01 X11.739411 Y39.308217 Z-1.000000
G02 X11.695036 Y39.297740 Z-1.000000 I-0.044375 J0.088739
G03 X11.656250 Y39.281673 Z-1.000000 I-0.000000 J-0.054848
G03 X11.640186 Y39.242887 Z-1.000000 I0.038791 J-0.038786
G03 X11.656254 Y39.204097 Z-1.000000 I0.054856 J0.000000
G03 X11.695036 Y39.188034 Z-1.000000 I0.038782 J0.038784
G02 X11.739411 Y39.177557 Z-1.000000 I-0.000000 J-0.099216
G01 X11.749886 Y39.160607 Z-1.000000
G01 X11.739411 Y39.143657 Z-1.000000
G02 X11.695036 Y39.133180 Z-1.000000 I-0.044375 J0.088739
G02 X11.650661 Y39.143657 Z-1.000000 I0.000000 J0.099216
G01 X11.640186 Y39.160607 Z-1.000000
G01 X11.629711 Y39.177557 Z-1.000000
G03 X11.585336 Y39.188034 Z-1.000000 I-0.044375 J-0.088739
G03 X11.541700 Y39.176818 Z-1.000000 I-0.000000 J-0.090494
G01 X11.530486 Y39.157845 Z-1.000000
G01 X11.517193 Y39.142065 Z-1.000000
G02 X11.411177 Y39.137275 Z-1.000000 I-0.071977 J0.417467
G03 X11.301900 Y39.124563 Z-1.000000 I-0.022669 J-0.281168
G03 X11.243930 Y39.083319 Z-1.000000 I0.036220 J-0.112269
G03 X11.230039 Y39.031575 Z-1.000000 I0.057121 J-0.043071
G01 X11.253530 Y39.004697 Z-1.000000
G02 X11.297964 Y38.979529 Z-1.000000 I-0.025164 J-0.096236
G01 X11.311070 Y38.948350 Z-1.000000
G01 X11.299026 Y38.932676 Z-1.000000
G01 X11.273410 Y38.938309 Z-1.000000
G03 X11.188309 Y38.954628 Z-1.000000 I-0.057369 J-0.069121
G03 X11.146514 Y38.897120 Z-1.000000 I0.018666 J-0.057507
G01 X11.134732 Y38.870700 Z-1.000000
G01 X11.103974 Y38.858914 Z-1.000000
G03 X11.030539 Y38.810333 Z-1.000000 I-0.000000 J-0.079793
G03 X10.981954 Y38.571816 Z-1.000000 I0.561184 J-0.238518
G02 X10.970146 Y38.486755 Z-1.000000 I-0.312271 J-0.000000
G01 X10.954524 Y38.474942 Z-1.000000
G01 X10.939125 Y38.462920 Z-1.000000
G03 X10.927094 Y38.365235 Z-1.000000 I0.390553 J-0.097685
G02 X10.915070 Y38.267557 Z-1.000000 I-0.402759 J-0.000000
G01 X10.899664 Y38.255528 Z-1.000000
G01 X10.882715 Y38.245055 Z-1.000000
G03 X10.872234 Y38.200675 Z-1.000000 I0.088720 J-0.044380
G01 X10.851281 Y38.166773 Z-1.000000
G02 X10.762527 Y38.145822 Z-1.000000 I-0.088754 J0.177518
G02 X10.673774 Y38.166773 Z-1.000000 I-0.000000 J0.198465
G01 X10.652821 Y38.200675 Z-1.000000
G01 X10.652824 Y38.200675 Z-1.000000
G00 Z5.000000

(End cutting path id: path129)


(Start cutting path id: path129)
(Change tool to Default tool)

G00 Z5.000000
G00 X11.036796 Y38.365236

G01 Z-1.000000 F100.0(Penetrate)
G02 X11.048820 Y38.462914 Z-1.000000 I0.402760 J0.000000 F3500.000000
G01 X11.064226 Y38.474943 Z-1.000000
G01 X11.079625 Y38.462921 Z-1.000000
G02 X11.091656 Y38.365236 Z-1.000000 I-0.390553 J-0.097685
G02 X11.079632 Y38.267559 Z-1.000000 I-0.402759 J-0.000000
G01 X11.064226 Y38.255530 Z-1.000000
G01 X11.048820 Y38.267559 Z-1.000000
G02 X11.036796 Y38.365236 Z-1.000000 I0.390737 J0.097678
G01 X11.036796 Y38.365236 Z-1.000000
G00 Z5.000000

(End cutting path id: path129)


(Start cutting path id: path129)
(Change tool to Default tool)

G00 Z5.000000
G00 X11.256209 Y38.721781

G01 Z-1.000000 F100.0(Penetrate)
G01 X11.264241 Y38.741173 Z-1.000000 F3500.000000
G01 X11.283639 Y38.749208 Z-1.000000
G01 X11.303037 Y38.741173 Z-1.000000
G01 X11.311069 Y38.721781 Z-1.000000
G01 X11.303037 Y38.702389 Z-1.000000
G01 X11.283639 Y38.694354 Z-1.000000
G01 X11.264246 Y38.702385 Z-1.000000
G01 X11.256209 Y38.721781 Z-1.000000
G01 X11.256209 Y38.721781 Z-1.000000
G00 Z5.000000

(End cutting path id: path129)


(Start cutting path id: path129)
(Change tool to Default tool)

G00 Z5.000000
G00 X11.482479 Y38.028045

G01 Z-1.000000 F100.0(Penetrate)
G02 X11.442559 Y38.057922 Z-1.000000 I0.010789 J0.056023 F3500.000000
G02 X11.420769 Y38.147730 Z-1.000000 I0.174175 J0.089808
G02 X11.441617 Y38.234678 Z-1.000000 I0.191741 J0.000000
G01 X11.475619 Y38.255529 Z-1.000000
G01 X11.509604 Y38.234660 Z-1.000000
G02 X11.530469 Y38.147399 Z-1.000000 I-0.172036 J-0.087261
G03 X11.562665 Y38.068696 Z-1.000000 I0.112294 J0.000000
G03 X11.647032 Y38.028771 Z-1.000000 I0.096504 J0.094823
G01 X11.763595 Y38.018272 Z-1.000000
G01 X11.653888 Y38.017212 Z-1.000000
G02 X11.544541 Y38.020134 Z-1.000000 I-0.014493 J1.504876
G02 X11.482472 Y38.028041 Z-1.000000 I0.031010 J0.491024
G01 X11.482479 Y38.028045 Z-1.000000
G00 Z5.000000

(End cutting path id: path129)


(Start cutting path id: path129)
(Change tool to Default tool)

G00 Z5.000000
G00 X12.331333 Y38.398148

G01 Z-1.000000 F100.0(Penetrate)
G02 X12.318274 Y38.448542 Z-1.000000 I0.036297 J0.036295 F3500.000000
G01 X12.353273 Y38.474943 Z-1.000000
G02 X12.392059 Y38.458876 Z-1.000000 I-0.000000 J-0.054848
G02 X12.408123 Y38.420090 Z-1.000000 I-0.038791 J-0.038786
G01 X12.381724 Y38.385091 Z-1.000000
G02 X12.331333 Y38.398149 Z-1.000000 I-0.014100 J0.049347
G01 X12.331333 Y38.398148 Z-1.000000
G00 Z5.000000

(End cutting path id: path129)


(Start cutting path id: path129)
(Change tool to Default tool)

G00 Z5.000000
G00 X13.176073 Y37.926409

G01 Z-1.000000 F100.0(Penetrate)
G03 X13.155138 Y38.015148 Z-1.000000 I-0.198543 J-0.000000 F3500.000000
G01 X13.121223 Y38.036116 Z-1.000000
G01 X13.089346 Y38.059092 Z-1.000000
G02 X13.066373 Y38.200675 Z-1.000000 I0.424805 J0.141583
G01 X13.066373 Y38.365235 Z-1.000000
G01 X12.961524 Y38.365235 Z-1.000000
G01 X12.856675 Y38.365235 Z-1.000000
G01 X12.856777 Y38.742351 Z-1.000000
G03 X12.855325 Y39.119450 Z-1.000000 I-45.704613 J0.012560
G03 X12.851877 Y39.345737 Z-1.000000 I-15.586573 J-0.124322
G01 X12.846877 Y39.572007 Z-1.000000
G01 X12.737170 Y39.572007 Z-1.000000
G03 X12.657426 Y39.542044 Z-1.000000 I0.000000 J-0.121097
G03 X12.627464 Y39.476014 Z-1.000000 I0.057777 J-0.066031
G02 X12.619033 Y39.388420 Z-1.000000 I-0.459222 J-0.000000
G01 X12.608844 Y39.380020 Z-1.000000
G01 X12.592917 Y39.386137 Z-1.000000
G02 X12.502295 Y39.476014 Z-1.000000 I0.890870 J0.988881
G01 X12.414365 Y39.572007 Z-1.000000
G01 X12.520914 Y39.572007 Z-1.000000
G03 X12.606681 Y39.592787 Z-1.000000 I0.000000 J0.187383
G01 X12.627463 Y39.626860 Z-1.000000
G01 X12.606510 Y39.660762 Z-1.000000
G03 X12.517756 Y39.681713 Z-1.000000 I-0.088754 J-0.177516
G02 X12.428372 Y39.702036 Z-1.000000 I-0.000000 J0.206729
G01 X12.408050 Y39.734318 Z-1.000000
G01 X12.433625 Y39.761349 Z-1.000000
G02 X13.358427 Y39.786972 Z-1.000000 I0.925675 J-16.707833
G02 X14.309046 Y39.718675 Z-1.000000 I0.000347 J-6.645114
G02 X14.390145 Y39.637901 Z-1.000000 I-0.013706 J-0.094861
G01 X14.397560 Y39.636936 Z-1.000000
G03 X14.406085 Y39.674857 Z-1.000000 I-0.096560 J0.041626
G02 X14.430196 Y39.770708 Z-1.000000 I0.235888 J-0.008379
G01 X14.463475 Y39.791420 Z-1.000000
G01 X14.498032 Y39.770936 Z-1.000000
G02 X14.527255 Y39.674857 Z-1.000000 I-0.216007 J-0.118183
G01 X14.537755 Y39.558294 Z-1.000000
G01 X14.542555 Y39.674857 Z-1.000000
G01 X14.547355 Y39.791420 Z-1.000000
G01 X16.494645 Y39.791420 Z-1.000000
G01 X18.441936 Y39.791420 Z-1.000000
G01 X18.441936 Y39.681713 Z-1.000000
G03 X18.466402 Y39.596444 Z-1.000000 I0.160822 J0.000000
G03 X18.510506 Y39.572007 Z-1.000000 I0.044104 J0.027580
G03 X18.554623 Y39.596458 Z-1.000000 I0.000000 J0.052026
G03 X18.579076 Y39.681713 Z-1.000000 I-0.136398 J0.085256
G01 X18.579076 Y39.791420 Z-1.000000
G01 X19.168748 Y39.791420 Z-1.000000
G01 X19.758421 Y39.791420 Z-1.000000
G01 X19.758421 Y39.599433 Z-1.000000
G03 X19.781995 Y39.431042 Z-1.000000 I0.613210 J0.000000
G01 X19.813271 Y39.407447 Z-1.000000
G02 X19.858090 Y39.397415 Z-1.000000 I-0.000000 J-0.105127
G01 X19.868121 Y39.381597 Z-1.000000
G01 X19.879251 Y39.365685 Z-1.000000
G03 X19.970971 Y39.344053 Z-1.000000 I0.136783 J0.374689
G01 X19.923411 Y39.341157 Z-1.000000
G02 X19.782022 Y39.361725 Z-1.000000 I0.048553 J0.829984
G01 X19.763422 Y39.378701 Z-1.000000
G01 X19.746620 Y39.397462 Z-1.000000
G03 X19.701272 Y39.407447 Z-1.000000 I-0.045348 J-0.097979
G01 X19.665940 Y39.390210 Z-1.000000
G03 X19.648702 Y39.340128 Z-1.000000 I0.064134 J-0.050082
G02 X19.592449 Y39.189434 Z-1.000000 I-0.229970 J0.000000
G02 X19.469183 Y39.133181 Z-1.000000 I-0.123266 J0.106929
G01 X19.445722 Y39.116747 Z-1.000000
G03 X19.429293 Y39.023475 Z-1.000000 I0.256553 J-0.093273
G01 X19.429293 Y38.913768 Z-1.000000
G01 X19.319587 Y38.913768 Z-1.000000
G03 X19.228936 Y38.894712 Z-1.000000 I0.000000 J-0.225148
G01 X19.209880 Y38.865512 Z-1.000000
G02 X19.197396 Y38.824179 Z-1.000000 I-0.074666 J0.000000
G02 X19.155030 Y38.783000 Z-1.000000 I-0.116401 J0.077373
G03 X19.108740 Y38.743996 Z-1.000000 I0.113318 J-0.181456
G01 X19.100180 Y38.721549 Z-1.000000
G01 X19.110591 Y38.704767 Z-1.000000
G03 X19.155030 Y38.694355 Z-1.000000 I0.044439 J0.089629
G02 X19.193815 Y38.678288 Z-1.000000 I0.000000 J-0.054848
G02 X19.209880 Y38.639502 Z-1.000000 I-0.038791 J-0.038786
G01 X19.189031 Y38.605499 Z-1.000000
G02 X19.102081 Y38.584649 Z-1.000000 I-0.086950 J0.170871
G02 X19.011501 Y38.606264 Z-1.000000 I0.000000 J0.200601
G02 X18.980137 Y38.646359 Z-1.000000 I0.027070 J0.053490
G01 X18.975080 Y38.645885 Z-1.000000
G03 X18.976337 Y38.549700 Z-1.000000 I0.919699 J-0.036080
G02 X18.962565 Y38.400407 Z-1.000000 I-0.477888 J-0.031196
G02 X18.918767 Y38.323430 Z-1.000000 I-0.161991 J0.041220
G02 X18.846610 Y38.265818 Z-1.000000 I-0.292934 J0.292895
G02 X18.810974 Y38.255530 Z-1.000000 I-0.035636 J0.056576
G01 X18.788184 Y38.238424 Z-1.000000
G03 X18.771084 Y38.118397 Z-1.000000 I0.412683 J-0.120027
G02 X18.758730 Y37.993623 Z-1.000000 I-0.636271 J0.000000
G01 X18.743654 Y37.981264 Z-1.000000
G01 X18.728586 Y37.993616 Z-1.000000
G02 X18.716224 Y38.118397 Z-1.000000 I0.623602 J0.124781
G03 X18.694086 Y38.233381 Z-1.000000 I-0.309677 J0.000000
G01 X18.661374 Y38.255530 Z-1.000000
G01 X18.627475 Y38.234578 Z-1.000000
G03 X18.606524 Y38.145823 Z-1.000000 I0.177524 J-0.088755
G01 X18.606524 Y38.036116 Z-1.000000
G01 X18.469412 Y38.036116 Z-1.000000
G01 X18.332279 Y38.036116 Z-1.000000
G01 X18.332279 Y38.145822 Z-1.000000
G01 X18.332279 Y38.255529 Z-1.000000
G01 X18.222573 Y38.255529 Z-1.000000
G03 X18.133819 Y38.234578 Z-1.000000 I-0.000000 J-0.198469
G01 X18.112866 Y38.200676 Z-1.000000
G01 X18.091915 Y38.166775 Z-1.000000
G02 X18.003160 Y38.145823 Z-1.000000 I-0.088755 J0.177504
G02 X17.914406 Y38.166773 Z-1.000000 I-0.000000 J0.198469
G01 X17.893453 Y38.200676 Z-1.000000
G03 X17.877388 Y38.239462 Z-1.000000 I-0.054855 J0.000000
G03 X17.838603 Y38.255529 Z-1.000000 I-0.038785 J-0.038781
G01 X17.804704 Y38.276480 Z-1.000000
G02 X17.783753 Y38.365235 Z-1.000000 I0.177524 J0.088755
G02 X17.804687 Y38.453974 Z-1.000000 I0.198543 J-0.000000
G01 X17.838603 Y38.474942 Z-1.000000
G03 X17.882978 Y38.485418 Z-1.000000 I-0.000000 J0.099215
G01 X17.893453 Y38.502369 Z-1.000000
G01 X17.903928 Y38.519319 Z-1.000000
G02 X17.948303 Y38.529796 Z-1.000000 I0.044375 J-0.088738
G02 X17.992678 Y38.519319 Z-1.000000 I0.000000 J-0.099215
G01 X18.003153 Y38.502369 Z-1.000000
G01 X18.015212 Y38.487000 Z-1.000000
G03 X18.115145 Y38.474942 Z-1.000000 I0.099933 J0.408075
G03 X18.205813 Y38.490058 Z-1.000000 I0.000000 J0.279467
G01 X18.215105 Y38.509225 Z-1.000000
G01 X18.193445 Y38.528685 Z-1.000000
G03 X18.103113 Y38.535465 Z-1.000000 I-0.066832 J-0.285287
G02 X18.030158 Y38.556684 Z-1.000000 I-0.008571 J0.106556
G02 X18.003153 Y38.610888 Z-1.000000 I0.040895 J0.054203
G02 X18.022375 Y38.675136 Z-1.000000 I0.116983 J0.000000
G01 X18.058003 Y38.694355 Z-1.000000
G01 X18.091902 Y38.715306 Z-1.000000
G03 X18.112853 Y38.804061 Z-1.000000 I-0.177524 J0.088755
G02 X18.133788 Y38.892800 Z-1.000000 I0.198543 J-0.000000
G01 X18.167703 Y38.913768 Z-1.000000
G01 X18.201603 Y38.934720 Z-1.000000
G03 X18.222553 Y39.023474 Z-1.000000 I-0.177525 J0.088755
G01 X18.222553 Y39.133181 Z-1.000000
G01 X18.112846 Y39.133181 Z-1.000000
G02 X18.024092 Y39.154132 Z-1.000000 I-0.000000 J0.198461
G01 X18.003140 Y39.188034 Z-1.000000
G03 X17.987072 Y39.226824 Z-1.000000 I-0.054856 J0.000000
G03 X17.948290 Y39.242887 Z-1.000000 I-0.038782 J-0.038784
G03 X17.909504 Y39.226820 Z-1.000000 I0.000000 J-0.054848
G03 X17.893440 Y39.188034 Z-1.000000 I0.038791 J-0.038786
G01 X17.872489 Y39.154134 Z-1.000000
G02 X17.783734 Y39.133181 Z-1.000000 I-0.088755 J0.177502
G03 X17.694980 Y39.112229 Z-1.000000 I0.000000 J-0.198465
G01 X17.674027 Y39.078327 Z-1.000000
G01 X17.653076 Y39.044427 Z-1.000000
G02 X17.564321 Y39.023474 Z-1.000000 I-0.088755 J0.177502
G03 X17.475567 Y39.002523 Z-1.000000 I-0.000000 J-0.198465
G01 X17.454614 Y38.968621 Z-1.000000
G02 X17.438549 Y38.929835 Z-1.000000 I-0.054855 J-0.000000
G02 X17.399764 Y38.913768 Z-1.000000 I-0.038785 J0.038781
G01 X17.365865 Y38.892816 Z-1.000000
G03 X17.344914 Y38.804061 Z-1.000000 I0.177524 J-0.088755
G02 X17.323979 Y38.715323 Z-1.000000 I-0.198543 J-0.000000
G01 X17.290064 Y38.694355 Z-1.000000
G03 X17.251279 Y38.678288 Z-1.000000 I-0.000000 J-0.054848
G03 X17.235214 Y38.639502 Z-1.000000 I0.038791 J-0.038786
G01 X17.214263 Y38.605602 Z-1.000000
G02 X17.125508 Y38.584649 Z-1.000000 I-0.088755 J0.177504
G01 X17.015801 Y38.584649 Z-1.000000
G01 X17.015801 Y38.474942 Z-1.000000
G01 X17.015801 Y38.365236 Z-1.000000
G01 X16.851241 Y38.365236 Z-1.000000
G03 X16.709660 Y38.342262 Z-1.000000 I-0.000000 J-0.447750
G01 X16.686682 Y38.310383 Z-1.000000
G01 X16.663705 Y38.278504 Z-1.000000
G02 X16.522122 Y38.255530 Z-1.000000 I-0.141583 J0.424770
G01 X16.357562 Y38.255530 Z-1.000000
G01 X16.357562 Y38.159537 Z-1.000000
G02 X16.349131 Y38.071943 Z-1.000000 I-0.459221 J-0.000000
G01 X16.338942 Y38.063544 Z-1.000000
G01 X16.323015 Y38.069660 Z-1.000000
G02 X16.232393 Y38.159537 Z-1.000000 I0.890885 J0.988897
G01 X16.144463 Y38.255530 Z-1.000000
G01 X16.251012 Y38.255530 Z-1.000000
G03 X16.325899 Y38.287192 Z-1.000000 I-0.000000 J0.104394
G03 X16.357561 Y38.365236 Z-1.000000 I-0.080358 J0.078045
G01 X16.357561 Y38.474942 Z-1.000000
G01 X16.138148 Y38.474942 Z-1.000000
G03 X15.942786 Y38.450892 Z-1.000000 I-0.000000 J-0.805518
G01 X15.918735 Y38.420089 Z-1.000000
G01 X15.897784 Y38.386188 Z-1.000000
G02 X15.809029 Y38.365236 Z-1.000000 I-0.088755 J0.177504
G02 X15.720275 Y38.386186 Z-1.000000 I0.000000 J0.198469
G01 X15.699322 Y38.420089 Z-1.000000
G01 X15.676347 Y38.451965 Z-1.000000
G03 X15.534762 Y38.474942 Z-1.000000 I-0.141585 J-0.424746
G02 X15.393181 Y38.497916 Z-1.000000 I-0.000000 J0.447750
G01 X15.370203 Y38.529795 Z-1.000000
G03 X15.354138 Y38.568581 Z-1.000000 I-0.054855 J-0.000000
G03 X15.315353 Y38.584648 Z-1.000000 I-0.038785 J-0.038781
G02 X15.276568 Y38.600714 Z-1.000000 I0.000000 J0.054848
G02 X15.260503 Y38.639501 Z-1.000000 I0.038791 J0.038786
G02 X15.276568 Y38.678287 Z-1.000000 I0.054855 J-0.000000
G02 X15.315353 Y38.694354 Z-1.000000 I0.038785 J-0.038781
G02 X15.354138 Y38.678287 Z-1.000000 I0.000000 J-0.054848
G02 X15.370203 Y38.639501 Z-1.000000 I-0.038791 J-0.038786
G03 X15.386268 Y38.600714 Z-1.000000 I0.054855 J0.000000
G03 X15.425053 Y38.584648 Z-1.000000 I0.038785 J0.038781
G01 X15.456930 Y38.607624 Z-1.000000
G03 X15.479903 Y38.749207 Z-1.000000 I-0.424805 J0.141583
G01 X15.479903 Y38.913768 Z-1.000000
G01 X15.370197 Y38.913768 Z-1.000000
G03 X15.281443 Y38.892817 Z-1.000000 I0.000000 J-0.198469
G01 X15.260490 Y38.858915 Z-1.000000
G01 X15.239539 Y38.825014 Z-1.000000
G02 X15.150784 Y38.804062 Z-1.000000 I-0.088755 J0.177504
G03 X15.062030 Y38.783111 Z-1.000000 I-0.000000 J-0.198469
G01 X15.041077 Y38.749209 Z-1.000000
G02 X15.025012 Y38.710422 Z-1.000000 I-0.054855 J0.000000
G02 X14.986227 Y38.694356 Z-1.000000 I-0.038785 J0.038781
G01 X14.952328 Y38.673404 Z-1.000000
G03 X14.931377 Y38.584649 Z-1.000000 I0.177524 J-0.088755
G02 X14.910442 Y38.495911 Z-1.000000 I-0.198543 J0.000000
G01 X14.876527 Y38.474943 Z-1.000000
G01 X14.842628 Y38.495894 Z-1.000000
G02 X14.821677 Y38.584649 Z-1.000000 I0.177524 J0.088755
G01 X14.821677 Y38.694355 Z-1.000000
G01 X14.711970 Y38.694355 Z-1.000000
G01 X14.602264 Y38.694355 Z-1.000000
G01 X14.602264 Y38.584648 Z-1.000000
G03 X14.623199 Y38.495910 Z-1.000000 I0.198543 J0.000000
G01 X14.657114 Y38.474942 Z-1.000000
G01 X14.691014 Y38.453990 Z-1.000000
G02 X14.711964 Y38.365235 Z-1.000000 I-0.177526 J-0.088755
G01 X14.711964 Y38.255529 Z-1.000000
G01 X14.602258 Y38.255529 Z-1.000000
G01 X14.492551 Y38.255529 Z-1.000000
G01 X14.492551 Y38.365235 Z-1.000000
G01 X14.492551 Y38.474942 Z-1.000000
G01 X14.327992 Y38.474942 Z-1.000000
G01 X14.163432 Y38.474942 Z-1.000000
G01 X14.163432 Y38.584648 Z-1.000000
G03 X14.142497 Y38.673387 Z-1.000000 I-0.198543 J-0.000000
G01 X14.108582 Y38.694355 Z-1.000000
G01 X14.074683 Y38.715306 Z-1.000000
G02 X14.053732 Y38.804061 Z-1.000000 I0.177524 J0.088755
G01 X14.053732 Y38.913768 Z-1.000000
G01 X13.779466 Y38.913768 Z-1.000000
G01 X13.505200 Y38.913768 Z-1.000000
G01 X13.505200 Y38.804061 Z-1.000000
G02 X13.493176 Y38.706384 Z-1.000000 I-0.402759 J-0.000000
G01 X13.477770 Y38.694355 Z-1.000000
G01 X13.462371 Y38.682333 Z-1.000000
G03 X13.450340 Y38.584648 Z-1.000000 I0.390553 J-0.097685
G03 X13.462364 Y38.486971 Z-1.000000 I0.402759 J-0.000000
G01 X13.477770 Y38.474942 Z-1.000000
G01 X13.492338 Y38.462081 Z-1.000000
G02 X13.505200 Y38.255529 Z-1.000000 I-1.652141 J-0.206553
G03 X13.518062 Y38.048976 Z-1.000000 I1.665002 J-0.000000
G01 X13.532630 Y38.036116 Z-1.000000
G01 X13.548029 Y38.024094 Z-1.000000
G02 X13.560060 Y37.926409 Z-1.000000 I-0.390553 J-0.097685
G02 X13.548036 Y37.828731 Z-1.000000 I-0.402760 J-0.000000
G01 X13.532630 Y37.816702 Z-1.000000
G01 X13.517231 Y37.828724 Z-1.000000
G02 X13.505200 Y37.926409 Z-1.000000 I0.390553 J0.097685
G01 X13.505200 Y38.036116 Z-1.000000
G01 X13.395486 Y38.036116 Z-1.000000
G01 X13.285780 Y38.036116 Z-1.000000
G01 X13.285780 Y37.926409 Z-1.000000
G02 X13.264846 Y37.837670 Z-1.000000 I-0.198543 J-0.000000
G01 X13.230930 Y37.816702 Z-1.000000
G01 X13.197030 Y37.837654 Z-1.000000
G02 X13.176080 Y37.926409 Z-1.000000 I0.177526 J0.088755
G01 X13.176073 Y37.926409 Z-1.000000
G00 Z5.000000

(End cutting path id: path129)


(Start cutting path id: path129)
(Change tool to Default tool)

G00 Z5.000000
G00 X13.669753 Y37.926409

G01 Z-1.000000 F100.0(Penetrate)
G02 X13.681777 Y38.024087 Z-1.000000 I0.402759 J0.000000 F3500.000000
G01 X13.697183 Y38.036116 Z-1.000000
G01 X13.712582 Y38.024094 Z-1.000000
G02 X13.724613 Y37.926409 Z-1.000000 I-0.390553 J-0.097685
G02 X13.712589 Y37.828731 Z-1.000000 I-0.402760 J-0.000000
G01 X13.697183 Y37.816702 Z-1.000000
G01 X13.681784 Y37.828724 Z-1.000000
G02 X13.669753 Y37.926409 Z-1.000000 I0.390553 J0.097685
G01 X13.669753 Y37.926409 Z-1.000000
G00 Z5.000000

(End cutting path id: path129)


(Start cutting path id: path129)
(Change tool to Default tool)

G00 Z5.000000
G00 X13.834312 Y38.145822

G01 Z-1.000000 F100.0(Penetrate)
G02 X13.855247 Y38.234561 Z-1.000000 I0.198543 J-0.000000 F3500.000000
G01 X13.889162 Y38.255529 Z-1.000000
G01 X13.923061 Y38.234577 Z-1.000000
G02 X13.944012 Y38.145822 Z-1.000000 I-0.177524 J-0.088755
G02 X13.923077 Y38.057083 Z-1.000000 I-0.198543 J-0.000000
G01 X13.889162 Y38.036116 Z-1.000000
G01 X13.855263 Y38.057067 Z-1.000000
G02 X13.834312 Y38.145822 Z-1.000000 I0.177524 J0.088755
G01 X13.834312 Y38.145822 Z-1.000000
G00 Z5.000000

(End cutting path id: path129)


(Start cutting path id: path129)
(Change tool to Default tool)

G00 Z5.000000
G00 X13.724606 Y38.529796

G01 Z-1.000000 F100.0(Penetrate)
G02 X13.747583 Y38.671383 Z-1.000000 I0.447726 J0.000000 F3500.000000
G01 X13.779456 Y38.694356 Z-1.000000
G01 X13.813355 Y38.673404 Z-1.000000
G02 X13.834306 Y38.584649 Z-1.000000 I-0.177524 J-0.088755
G03 X13.855241 Y38.495911 Z-1.000000 I0.198543 J0.000000
G01 X13.889156 Y38.474943 Z-1.000000
G02 X13.927942 Y38.458876 Z-1.000000 I0.000000 J-0.054848
G02 X13.944006 Y38.420090 Z-1.000000 I-0.038791 J-0.038786
G01 X13.923053 Y38.386188 Z-1.000000
G02 X13.834299 Y38.365237 Z-1.000000 I-0.088754 J0.177518
G01 X13.724593 Y38.365237 Z-1.000000
G01 X13.724606 Y38.529796 Z-1.000000
G00 Z5.000000

(End cutting path id: path129)


(Start cutting path id: path129)
(Change tool to Default tool)

G00 Z5.000000
G00 X13.340633 Y38.584648

G01 Z-1.000000 F100.0(Penetrate)
G03 X13.328609 Y38.682326 Z-1.000000 I-0.402759 J0.000000 F3500.000000
G01 X13.313203 Y38.694355 Z-1.000000
G01 X13.297804 Y38.682333 Z-1.000000
G03 X13.285773 Y38.584648 Z-1.000000 I0.390553 J-0.097685
G03 X13.297797 Y38.486971 Z-1.000000 I0.402759 J-0.000000
G01 X13.313203 Y38.474942 Z-1.000000
G01 X13.328609 Y38.486971 Z-1.000000
G03 X13.340633 Y38.584648 Z-1.000000 I-0.390737 J0.097678
G01 X13.340633 Y38.584648 Z-1.000000
G00 Z5.000000

(End cutting path id: path129)


(Start cutting path id: path129)
(Change tool to Default tool)

G00 Z5.000000
G00 X13.085723 Y39.304597

G01 Z-1.000000 F100.0(Penetrate)
G01 X13.079736 Y39.304602 Z-1.000000 F3500.000000
G03 X13.073833 Y39.242887 Z-1.000000 I0.319650 J-0.061714
G03 X13.079708 Y39.181183 Z-1.000000 I0.326960 J-0.000000
G01 X13.085723 Y39.181177 Z-1.000000
G03 X13.091579 Y39.242887 Z-1.000000 I-0.322226 J0.061710
G03 X13.085723 Y39.304597 Z-1.000000 I-0.328080 J0.000000
G01 X13.085723 Y39.304597 Z-1.000000
G00 Z5.000000

(End cutting path id: path129)


(Start cutting path id: path129)
(Change tool to Default tool)

G00 Z5.000000
G00 X13.779459 Y39.681713

G01 Z-1.000000 F100.0(Penetrate)
G01 X13.771427 Y39.701105 Z-1.000000 F3500.000000
G01 X13.752029 Y39.709140 Z-1.000000
G01 X13.732636 Y39.701109 Z-1.000000
G01 X13.724599 Y39.681713 Z-1.000000
G01 X13.732631 Y39.662322 Z-1.000000
G01 X13.752029 Y39.654287 Z-1.000000
G01 X13.771427 Y39.662322 Z-1.000000
G01 X13.779459 Y39.681713 Z-1.000000
G01 X13.779459 Y39.681713 Z-1.000000
G00 Z5.000000

(End cutting path id: path129)


(Start cutting path id: path129)
(Change tool to Default tool)

G00 Z5.000000
G00 X14.198964 Y39.577016

G01 Z-1.000000 F100.0(Penetrate)
G01 X14.214523 Y39.598302 Z-1.000000 F3500.000000
G01 X14.209144 Y39.617718 Z-1.000000
G01 X14.169049 Y39.609535 Z-1.000000
G03 X14.141034 Y39.448587 Z-1.000000 I0.362721 J-0.146049
G01 X14.145234 Y39.338880 Z-1.000000
G01 X14.156384 Y39.448231 Z-1.000000
G02 X14.178300 Y39.550838 Z-1.000000 I0.478233 J-0.048505
G01 X14.198974 Y39.577016 Z-1.000000
G01 X14.198964 Y39.577016 Z-1.000000
G00 Z5.000000

(End cutting path id: path129)


(Start cutting path id: path129)
(Change tool to Default tool)

G00 Z5.000000
G00 X14.382845 Y39.037188

G01 Z-1.000000 F100.0(Penetrate)
G03 X14.354933 Y39.132707 Z-1.000000 I-0.177398 J-0.000000 F3500.000000
G03 X14.303995 Y39.160607 Z-1.000000 I-0.050938 J-0.032549
G03 X14.225545 Y39.156532 Z-1.000000 I-0.000000 J-0.757155
G03 X14.139436 Y39.143466 Z-1.000000 I0.096450 J-0.925871
G03 X14.080210 Y39.104612 Z-1.000000 I0.018576 J-0.092884
G03 X14.053726 Y39.020046 Z-1.000000 I0.121773 J-0.084566
G01 X14.053726 Y38.913768 Z-1.000000
G01 X14.218286 Y38.913768 Z-1.000000
G01 X14.382846 Y38.913768 Z-1.000000
G01 X14.382845 Y39.037188 Z-1.000000
G00 Z5.000000

(End cutting path id: path129)


(Start cutting path id: path129)
(Change tool to Default tool)

G00 Z5.000000
G00 X14.773674 Y39.591363

G01 Z-1.000000 F100.0(Penetrate)
G03 X14.711964 Y39.597251 Z-1.000000 I-0.061710 J-0.320399 F3500.000000
G03 X14.650255 Y39.591363 Z-1.000000 I0.000000 J-0.326269
G01 X14.650255 Y39.585367 Z-1.000000
G03 X14.711965 Y39.579477 Z-1.000000 I0.061710 J0.320293
G03 X14.773675 Y39.585366 Z-1.000000 I0.000000 J0.326275
G01 X14.773675 Y39.591363 Z-1.000000
G01 X14.773674 Y39.591363 Z-1.000000
G00 Z5.000000

(End cutting path id: path129)


(Start cutting path id: path129)
(Change tool to Default tool)

G00 Z5.000000
G00 X15.651326 Y39.591363

G01 Z-1.000000 F100.0(Penetrate)
G03 X15.589616 Y39.597251 Z-1.000000 I-0.061710 J-0.320399 F3500.000000
G03 X15.527907 Y39.591363 Z-1.000000 I0.000000 J-0.326269
G01 X15.527907 Y39.585367 Z-1.000000
G03 X15.589617 Y39.579477 Z-1.000000 I0.061710 J0.320293
G03 X15.651327 Y39.585366 Z-1.000000 I-0.000000 J0.326275
G01 X15.651327 Y39.591363 Z-1.000000
G01 X15.651326 Y39.591363 Z-1.000000
G00 Z5.000000

(End cutting path id: path129)


(Start cutting path id: path129)
(Change tool to Default tool)

G00 Z5.000000
G00 X16.467269 Y38.935709

G01 Z-1.000000 F100.0(Penetrate)
G03 X16.441564 Y38.997766 Z-1.000000 I-0.087762 J0.000000 F3500.000000
G03 X16.379499 Y39.023474 Z-1.000000 I-0.062065 J-0.062065
G01 X16.366415 Y39.014615 Z-1.000000
G03 X16.357559 Y38.968621 Z-1.000000 I0.115014 J-0.045994
G03 X16.373624 Y38.929835 Z-1.000000 I0.054855 J0.000000
G03 X16.412409 Y38.913768 Z-1.000000 I0.038785 J0.038781
G03 X16.458400 Y38.922624 Z-1.000000 I0.000000 J0.123846
G01 X16.467259 Y38.935709 Z-1.000000
G01 X16.467269 Y38.935709 Z-1.000000
G00 Z5.000000

(End cutting path id: path129)


(Start cutting path id: path129)
(Change tool to Default tool)

G00 Z5.000000
G00 X16.686682 Y38.420088

G01 Z-1.000000 F100.0(Penetrate)
G03 X16.670614 Y38.458878 Z-1.000000 I-0.054855 J0.000000 F3500.000000
G03 X16.631832 Y38.474941 Z-1.000000 I-0.038782 J-0.038785
G03 X16.593046 Y38.458874 Z-1.000000 I0.000000 J-0.054848
G03 X16.576982 Y38.420088 Z-1.000000 I0.038791 J-0.038786
G03 X16.593047 Y38.381302 Z-1.000000 I0.054855 J0.000000
G03 X16.631832 Y38.365235 Z-1.000000 I0.038785 J0.038781
G03 X16.670618 Y38.381303 Z-1.000000 I0.000000 J0.054848
G03 X16.686682 Y38.420088 Z-1.000000 I-0.038791 J0.038786
G01 X16.686682 Y38.420088 Z-1.000000
G00 Z5.000000

(End cutting path id: path129)


(Start cutting path id: path129)
(Change tool to Default tool)

G00 Z5.000000
G00 X17.502624 Y38.494297

G01 Z-1.000000 F100.0(Penetrate)
G02 X17.564334 Y38.500189 Z-1.000000 I0.061710 J-0.320250 F3500.000000
G02 X17.626044 Y38.494297 Z-1.000000 I-0.000000 J-0.326142
G01 X17.626044 Y38.488301 Z-1.000000
G02 X17.564334 Y38.482411 Z-1.000000 I-0.061710 J0.320337
G02 X17.502624 Y38.488300 Z-1.000000 I-0.000000 J0.326257
G01 X17.502624 Y38.494297 Z-1.000000
G01 X17.502624 Y38.494297 Z-1.000000
G00 Z5.000000

(End cutting path id: path129)


(Start cutting path id: path129)
(Change tool to Default tool)

G00 Z5.000000
G00 X17.873497 Y37.926409

G01 Z-1.000000 F100.0(Penetrate)
G02 X17.879372 Y37.988113 Z-1.000000 I0.326960 J-0.000000 F3500.000000
G01 X17.885387 Y37.988119 Z-1.000000
G02 X17.891243 Y37.926409 Z-1.000000 I-0.322231 J-0.061710
G02 X17.885387 Y37.864699 Z-1.000000 I-0.328085 J-0.000000
G01 X17.879400 Y37.864695 Z-1.000000
G02 X17.873497 Y37.926409 Z-1.000000 I0.319653 J0.061714
G01 X17.873497 Y37.926409 Z-1.000000
G00 Z5.000000

(End cutting path id: path129)


(Start cutting path id: path129)
(Change tool to Default tool)

G00 Z5.000000
G00 X18.551692 Y37.844129

G01 Z-1.000000 F100.0(Penetrate)
G01 X18.559724 Y37.863521 Z-1.000000 F3500.000000
G01 X18.579122 Y37.871556 Z-1.000000
G01 X18.598520 Y37.863521 Z-1.000000
G01 X18.606552 Y37.844129 Z-1.000000
G01 X18.598520 Y37.824737 Z-1.000000
G01 X18.579122 Y37.816702 Z-1.000000
G01 X18.559729 Y37.824733 Z-1.000000
G01 X18.551692 Y37.844129 Z-1.000000
G01 X18.551692 Y37.844129 Z-1.000000
G00 Z5.000000

(End cutting path id: path129)


(Start cutting path id: path129)
(Change tool to Default tool)

G00 Z5.000000
G00 X18.620259 Y38.666928

G01 Z-1.000000 F100.0(Penetrate)
G01 X18.618532 Y38.683945 Z-1.000000 F3500.000000
G01 X18.594449 Y38.694355 Z-1.000000
G03 X18.561382 Y38.684661 Z-1.000000 I-0.000000 J-0.061245
G01 X18.551689 Y38.666928 Z-1.000000
G01 X18.559475 Y38.647291 Z-1.000000
G01 X18.577499 Y38.639501 Z-1.000000
G01 X18.599688 Y38.646006 Z-1.000000
G03 X18.620259 Y38.666928 Z-1.000000 I-0.035736 J0.055710
G01 X18.620259 Y38.666928 Z-1.000000
G00 Z5.000000

(End cutting path id: path129)


(Start cutting path id: path129)
(Change tool to Default tool)

G00 Z5.000000
G00 X18.241195 Y39.260048

G01 Z-1.000000 F100.0(Penetrate)
G03 X18.319359 Y39.364511 Z-1.000000 I-0.485585 J0.444812 F3500.000000
G03 X18.332275 Y39.410894 Z-1.000000 I-0.076829 J0.046383
G02 X18.342558 Y39.452013 Z-1.000000 I0.087356 J-0.000000
G01 X18.359705 Y39.462300 Z-1.000000
G01 X18.376654 Y39.472773 Z-1.000000
G03 X18.387135 Y39.517154 Z-1.000000 I-0.088721 J0.044380
G03 X18.376660 Y39.561528 Z-1.000000 I-0.099228 J0.000000
G01 X18.359705 Y39.572007 Z-1.000000
G01 X18.342756 Y39.561534 Z-1.000000
G03 X18.332275 Y39.517154 Z-1.000000 I0.088721 J-0.044380
G01 X18.311324 Y39.483253 Z-1.000000
G02 X18.222569 Y39.462300 Z-1.000000 I-0.088755 J0.177502
G02 X18.133815 Y39.483252 Z-1.000000 I0.000000 J0.198465
G01 X18.112862 Y39.517154 Z-1.000000
G03 X18.103024 Y39.562168 Z-1.000000 I-0.107904 J0.000000
G01 X18.087682 Y39.572007 Z-1.000000
G02 X18.063017 Y39.574785 Z-1.000000 I-0.000000 J0.110867
G02 X18.025972 Y39.586089 Z-1.000000 I0.060059 J0.263189
G01 X18.007361 Y39.575455 Z-1.000000
G03 X17.998642 Y39.421529 Z-1.000000 I0.705242 J-0.117156
G03 X18.029039 Y39.265204 Z-1.000000 I0.568563 J0.029440
G01 X18.060352 Y39.242887 Z-1.000000
G02 X18.099390 Y39.229416 Z-1.000000 I0.000000 J-0.063299
G01 X18.112862 Y39.201747 Z-1.000000
G01 X18.138296 Y39.185366 Z-1.000000
G03 X18.241191 Y39.260048 Z-1.000000 I-0.131433 J0.289309
G01 X18.241195 Y39.260048 Z-1.000000
G00 Z5.000000

(End cutting path id: path129)


(Start cutting path id: path129)
(Change tool to Default tool)

G00 Z5.000000
G00 X18.463127 Y39.385163

G01 Z-1.000000 F100.0(Penetrate)
G03 X18.418023 Y39.422807 Z-1.000000 I-0.053006 J-0.017667 F3500.000000
G01 X18.387137 Y39.396019 Z-1.000000
G01 X18.399855 Y39.365315 Z-1.000000
G01 X18.430567 Y39.352594 Z-1.000000
G01 X18.458143 Y39.364015 Z-1.000000
G01 X18.463137 Y39.385163 Z-1.000000
G01 X18.463127 Y39.385163 Z-1.000000
G00 Z5.000000

(End cutting path id: path129)


(Start cutting path id: path129)
(Change tool to Default tool)

G00 Z5.000000
G00 X19.201861 Y39.304597

G01 Z-1.000000 F100.0(Penetrate)
G01 X19.195874 Y39.304602 Z-1.000000 F3500.000000
G03 X19.189971 Y39.242887 Z-1.000000 I0.319650 J-0.061714
G03 X19.195846 Y39.181183 Z-1.000000 I0.326960 J-0.000000
G01 X19.201861 Y39.181177 Z-1.000000
G03 X19.207717 Y39.242887 Z-1.000000 I-0.322226 J0.061710
G03 X19.201861 Y39.304597 Z-1.000000 I-0.328080 J0.000000
G01 X19.201861 Y39.304597 Z-1.000000
G00 Z5.000000

(End cutting path id: path129)


(Start cutting path id: path129)
(Change tool to Default tool)

G00 Z5.000000
G00 X19.437189 Y38.570935

G01 Z-1.000000 F100.0(Penetrate)
G02 X19.443142 Y38.632384 Z-1.000000 I0.329424 J-0.000900 F3500.000000
G01 X19.449029 Y38.632268 Z-1.000000
G02 X19.454596 Y38.556584 Z-1.000000 I-0.490523 J-0.074126
G02 X19.448655 Y38.495135 Z-1.000000 I-0.331552 J0.001042
G01 X19.442782 Y38.495253 Z-1.000000
G02 X19.437195 Y38.570935 Z-1.000000 I0.491049 J0.074299
G01 X19.437189 Y38.570935 Z-1.000000
G00 Z5.000000

(End cutting path id: path129)


(Start cutting path id: path129)
(Change tool to Default tool)

G00 Z5.000000
G00 X19.968735 Y38.822345

G01 Z-1.000000 F100.0(Penetrate)
G01 X19.960890 Y38.879147 Z-1.000000 F3500.000000
G02 X20.019985 Y38.913767 Z-1.000000 I0.059095 J-0.033126
G01 X20.057640 Y38.894674 Z-1.000000
G01 X20.060165 Y38.858914 Z-1.000000
G02 X20.009865 Y38.813903 Z-1.000000 I-0.086903 J0.046503
G01 X19.968745 Y38.822345 Z-1.000000
G01 X19.968735 Y38.822345 Z-1.000000
G00 Z5.000000

(End cutting path id: path129)


(Start cutting path id: path129)
(Change tool to Default tool)

G00 Z5.000000
G00 X20.279570 Y38.584648

G01 Z-1.000000 F100.0(Penetrate)
G03 X20.262729 Y38.677516 Z-1.000000 I-0.264473 J0.000000 F3500.000000
G01 X20.238430 Y38.694355 Z-1.000000
G01 X20.214131 Y38.711194 Z-1.000000
G02 X20.197290 Y38.804061 Z-1.000000 I0.247632 J0.092868
G02 X20.218225 Y38.892800 Z-1.000000 I0.198543 J-0.000000
G01 X20.252140 Y38.913768 Z-1.000000
G01 X20.282941 Y38.889718 Z-1.000000
G02 X20.306990 Y38.694355 Z-1.000000 I-0.781510 J-0.195364
G02 X20.300323 Y38.481557 Z-1.000000 I-3.399313 J-0.000000
G01 X20.293280 Y38.474942 Z-1.000000
G01 X20.286031 Y38.481337 Z-1.000000
G02 X20.279570 Y38.584648 Z-1.000000 I0.822727 J0.103311
G01 X20.279570 Y38.584648 Z-1.000000
G00 Z5.000000

(End cutting path id: path129)


(Start cutting path id: path129)
(Change tool to Default tool)

G00 Z5.000000
G00 X20.354993 Y38.247461

G01 Z-1.000000 F100.0(Penetrate)
G02 X20.416703 Y38.253352 Z-1.000000 I0.061710 J-0.320250 F3500.000000
G02 X20.478413 Y38.247461 Z-1.000000 I-0.000000 J-0.326142
G01 X20.478413 Y38.241465 Z-1.000000
G02 X20.416703 Y38.235575 Z-1.000000 I-0.061710 J0.320337
G02 X20.354993 Y38.241464 Z-1.000000 I-0.000000 J0.326257
G01 X20.354993 Y38.247461 Z-1.000000
G01 X20.354993 Y38.247461 Z-1.000000
G00 Z5.000000

(End cutting path id: path129)


(Start cutting path id: path129)
(Change tool to Default tool)

G00 Z5.000000
G00 X20.526410 Y38.856628

G01 Z-1.000000 F100.0(Penetrate)
G02 X20.536975 Y38.901579 Z-1.000000 I0.100908 J0.000000 F3500.000000
G01 X20.557770 Y38.919649 Z-1.000000
G01 X20.570617 Y38.937471 Z-1.000000
G03 X20.557770 Y38.988698 Z-1.000000 I-0.108559 J0.000000
G02 X20.535882 Y39.049670 Z-1.000000 I0.195249 J0.104508
G02 X20.526410 Y39.145091 Z-1.000000 I0.475914 J0.095420
G03 X20.496149 Y39.212613 Z-1.000000 I-0.090463 J-0.000000
G03 X20.416703 Y39.242887 Z-1.000000 I-0.079446 J-0.089106
G02 X20.327949 Y39.263839 Z-1.000000 I-0.000000 J0.198461
G01 X20.306997 Y39.297740 Z-1.000000
G01 X20.331707 Y39.327882 Z-1.000000
G02 X20.581263 Y39.352594 Z-1.000000 I0.249556 J-1.247757
G03 X20.842500 Y39.365623 Z-1.000000 I0.000000 J2.625396
G01 X20.855529 Y39.380020 Z-1.000000
G01 X20.845054 Y39.396970 Z-1.000000
G03 X20.800679 Y39.407447 Z-1.000000 I-0.044375 J-0.088739
G02 X20.761893 Y39.423514 Z-1.000000 I0.000000 J0.054848
G02 X20.745829 Y39.462300 Z-1.000000 I0.038791 J0.038786
G02 X20.761893 Y39.501086 Z-1.000000 I0.054856 J0.000000
G02 X20.800679 Y39.517153 Z-1.000000 I0.038786 J-0.038781
G02 X20.839465 Y39.501086 Z-1.000000 I-0.000000 J-0.054848
G02 X20.855529 Y39.462300 Z-1.000000 I-0.038791 J-0.038786
G03 X20.871516 Y39.423437 Z-1.000000 I0.055228 J-0.000000
G03 X20.909859 Y39.407447 Z-1.000000 I0.038343 J0.037974
G02 X20.968554 Y39.366197 Z-1.000000 I0.000000 J-0.062384
G02 X20.985199 Y39.198204 Z-1.000000 I-0.325014 J-0.117024
G01 X20.977857 Y39.197282 Z-1.000000
G02 X20.969349 Y39.236030 Z-1.000000 I0.101626 J0.042623
G03 X20.944812 Y39.331432 Z-1.000000 I-0.228967 J-0.008033
G01 X20.910389 Y39.352593 Z-1.000000
G01 X20.876490 Y39.331642 Z-1.000000
G03 X20.855539 Y39.242887 Z-1.000000 I0.177525 J-0.088755
G02 X20.835476 Y39.153223 Z-1.000000 I-0.210393 J-0.000000
G01 X20.803879 Y39.133180 Z-1.000000
G03 X20.764797 Y39.117589 Z-1.000000 I0.000000 J-0.056778
G03 X20.738839 Y39.071471 Z-1.000000 I0.061844 J-0.065174
G02 X20.722929 Y39.010551 Z-1.000000 I-0.754430 J0.164487
G02 X20.705279 Y38.961764 Z-1.000000 I-0.487632 J0.148833
G01 X20.716660 Y38.934004 Z-1.000000
G03 X20.832029 Y38.908976 Z-1.000000 I0.126053 J0.302638
G02 X20.863762 Y38.900888 Z-1.000000 I-0.002482 J-0.076031
G01 X20.862389 Y38.893686 Z-1.000000
G03 X20.762095 Y38.868318 Z-1.000000 I0.029492 J-0.327543
G01 X20.745826 Y38.843624 Z-1.000000
G01 X20.729502 Y38.820384 Z-1.000000
G02 X20.636119 Y38.804061 Z-1.000000 I-0.093383 J0.258952
G02 X20.546726 Y38.824371 Z-1.000000 I-0.000000 J0.206880
G01 X20.526413 Y38.856629 Z-1.000000
G01 X20.526410 Y38.856628 Z-1.000000
G00 Z5.000000

(End cutting path id: path129)


(Start cutting path id: path129)
(Change tool to Default tool)

G00 Z5.000000
G00 X20.965236 Y39.489727

G01 Z-1.000000 F100.0(Penetrate)
G01 X20.954761 Y39.506677 Z-1.000000 F3500.000000
G03 X20.910386 Y39.517154 Z-1.000000 I-0.044375 J-0.088739
G02 X20.866011 Y39.527630 Z-1.000000 I0.000000 J0.099216
G01 X20.855536 Y39.544580 Z-1.000000
G01 X20.843510 Y39.559982 Z-1.000000
G03 X20.745830 Y39.572007 Z-1.000000 I-0.097680 J-0.390732
G02 X20.648148 Y39.584032 Z-1.000000 I0.000000 J0.402749
G01 X20.636123 Y39.599433 Z-1.000000
G01 X20.625648 Y39.616383 Z-1.000000
G03 X20.581273 Y39.626860 Z-1.000000 I-0.044375 J-0.088739
G02 X20.542487 Y39.642927 Z-1.000000 I0.000000 J0.054848
G02 X20.526423 Y39.681713 Z-1.000000 I0.038791 J0.038786
G02 X20.542487 Y39.720500 Z-1.000000 I0.054856 J0.000000
G02 X20.581273 Y39.736567 Z-1.000000 I0.038786 J-0.038781
G03 X20.625648 Y39.747043 Z-1.000000 I-0.000000 J0.099216
G01 X20.636123 Y39.763993 Z-1.000000
G01 X20.646598 Y39.780943 Z-1.000000
G02 X20.690973 Y39.791420 Z-1.000000 I0.044375 J-0.088739
G02 X20.735348 Y39.780943 Z-1.000000 I-0.000000 J-0.099216
G01 X20.745823 Y39.763993 Z-1.000000
G01 X20.735348 Y39.747043 Z-1.000000
G02 X20.690973 Y39.736567 Z-1.000000 I-0.044375 J0.088739
G03 X20.652187 Y39.720500 Z-1.000000 I0.000000 J-0.054848
G03 X20.636123 Y39.681713 Z-1.000000 I0.038791 J-0.038786
G03 X20.652187 Y39.642927 Z-1.000000 I0.054856 J0.000000
G03 X20.690973 Y39.626860 Z-1.000000 I0.038786 J0.038781
G03 X20.735348 Y39.637337 Z-1.000000 I-0.000000 J0.099216
G01 X20.745823 Y39.654287 Z-1.000000
G01 X20.757849 Y39.669689 Z-1.000000
G02 X20.855529 Y39.681713 Z-1.000000 I0.097680 J-0.390734
G02 X20.944283 Y39.660762 Z-1.000000 I0.000000 J-0.198465
G01 X20.965236 Y39.626860 Z-1.000000
G01 X20.986187 Y39.592960 Z-1.000000
G03 X21.074942 Y39.572007 Z-1.000000 I0.088755 J0.177502
G02 X21.163696 Y39.551055 Z-1.000000 I-0.000000 J-0.198465
G01 X21.184649 Y39.517153 Z-1.000000
G01 X21.163698 Y39.483253 Z-1.000000
G02 X21.074942 Y39.462300 Z-1.000000 I-0.088756 J0.177506
G02 X20.977261 Y39.474325 Z-1.000000 I-0.000000 J0.402739
G01 X20.965236 Y39.489727 Z-1.000000
G01 X20.965236 Y39.489727 Z-1.000000
G00 Z5.000000

(End cutting path id: path129)


(Start cutting path id: path129)
(Change tool to Default tool)

G00 Z5.000000
G00 X21.184649 Y39.736567

G01 Z-1.000000 F100.0(Penetrate)
G01 X21.205600 Y39.770467 Z-1.000000 F3500.000000
G02 X21.294355 Y39.791420 Z-1.000000 I0.088755 J-0.177502
G02 X21.383109 Y39.770468 Z-1.000000 I0.000000 J-0.198465
G01 X21.404062 Y39.736567 Z-1.000000
G01 X21.383111 Y39.702666 Z-1.000000
G02 X21.294355 Y39.681713 Z-1.000000 I-0.088756 J0.177506
G02 X21.205601 Y39.702665 Z-1.000000 I-0.000000 J0.198461
G01 X21.184649 Y39.736567 Z-1.000000
G01 X21.184649 Y39.736567 Z-1.000000
G00 Z5.000000

(End cutting path id: path129)


(Start cutting path id: path129)
(Change tool to Default tool)

G00 Z5.000000
G00 X21.671471 Y39.152537

G01 Z-1.000000 F100.0(Penetrate)
G02 X21.733181 Y39.158425 Z-1.000000 I0.061710 J-0.320397 F3500.000000
G02 X21.794891 Y39.152537 Z-1.000000 I-0.000000 J-0.326286
G01 X21.794891 Y39.146541 Z-1.000000
G02 X21.733181 Y39.140651 Z-1.000000 I-0.061710 J0.320293
G02 X21.671471 Y39.146540 Z-1.000000 I-0.000000 J0.326275
G01 X21.671471 Y39.152537 Z-1.000000
G01 X21.671471 Y39.152537 Z-1.000000
G00 Z5.000000

(End cutting path id: path129)


(Start cutting path id: path129)
(Change tool to Default tool)

G00 Z5.000000
G00 X22.062301 Y38.378949

G01 Z-1.000000 F100.0(Penetrate)
G03 X22.042158 Y38.454801 Z-1.000000 I-0.152886 J-0.000000 F3500.000000
G01 X22.007451 Y38.474942 Z-1.000000
G01 X21.973552 Y38.495894 Z-1.000000
G02 X21.952601 Y38.584649 Z-1.000000 I0.177524 J0.088755
G02 X21.972904 Y38.674033 Z-1.000000 I0.206912 J0.000000
G01 X22.005171 Y38.694355 Z-1.000000
G02 X22.049718 Y38.683232 Z-1.000000 I0.000000 J-0.094766
G01 X22.069081 Y38.660317 Z-1.000000
G01 X22.123057 Y38.653176 Z-1.000000
G03 X22.172012 Y38.815816 Z-1.000000 I-0.245688 J0.162640
G02 X22.192282 Y38.893500 Z-1.000000 I0.158995 J0.000000
G01 X22.226862 Y38.913769 Z-1.000000
G01 X22.260762 Y38.934720 Z-1.000000
G03 X22.281712 Y39.023475 Z-1.000000 I-0.177525 J0.088755
G01 X22.281712 Y39.133181 Z-1.000000
G01 X22.391418 Y39.133181 Z-1.000000
G02 X22.489100 Y39.121155 Z-1.000000 I0.000000 J-0.402749
G01 X22.501125 Y39.105754 Z-1.000000
G01 X22.511600 Y39.088804 Z-1.000000
G03 X22.555975 Y39.078328 Z-1.000000 I0.044375 J0.088739
G01 X22.588683 Y39.100473 Z-1.000000
G03 X22.610825 Y39.215461 Z-1.000000 I-0.287503 J0.114988
G01 X22.610825 Y39.352594 Z-1.000000
G01 X22.720532 Y39.352594 Z-1.000000
G02 X22.787375 Y39.315350 Z-1.000000 I0.000000 J-0.078605
G01 X22.775382 Y39.263949 Z-1.000000
G03 X22.736300 Y39.220945 Z-1.000000 I0.056679 J-0.090771
G03 X22.720532 Y39.154010 Z-1.000000 I0.134187 J-0.066935
G02 X22.702001 Y39.096860 Z-1.000000 I-0.097389 J0.000000
G01 X22.665682 Y39.078327 Z-1.000000
G01 X22.629954 Y39.059206 Z-1.000000
G03 X22.610832 Y38.996048 Z-1.000000 I0.094742 J-0.063159
G02 X22.591710 Y38.932889 Z-1.000000 I-0.113864 J0.000000
G01 X22.555982 Y38.913768 Z-1.000000
G01 X22.522083 Y38.892816 Z-1.000000
G03 X22.501132 Y38.804061 Z-1.000000 I0.177524 J-0.088755
G02 X22.485066 Y38.710423 Z-1.000000 I-0.280910 J-0.000000
G01 X22.462342 Y38.694355 Z-1.000000
G03 X22.291040 Y38.630191 Z-1.000000 I-0.000000 J-0.260749
G03 X22.226861 Y38.489139 Z-1.000000 I0.122910 J-0.141051
G01 X22.233244 Y38.481322 Z-1.000000
G03 X22.296391 Y38.474941 Z-1.000000 I0.063147 J0.309290
G01 X22.331508 Y38.454625 Z-1.000000
G01 X22.331871 Y38.413231 Z-1.000000
G01 X22.303615 Y38.390196 Z-1.000000
G01 X22.287751 Y38.399518 Z-1.000000
G01 X22.250860 Y38.421533 Z-1.000000
G03 X22.171999 Y38.365235 Z-1.000000 I0.042208 J-0.142508
G02 X22.101666 Y38.334347 Z-1.000000 I-0.061038 J0.043465
G01 X22.062293 Y38.378948 Z-1.000000
G01 X22.062301 Y38.378949 Z-1.000000
G00 Z5.000000

(End cutting path id: path129)


(Start cutting path id: path129)
(Change tool to Default tool)

G00 Z5.000000
G00 X21.842888 Y38.200675

G01 Z-1.000000 F100.0(Penetrate)
G01 X21.864381 Y38.234034 Z-1.000000 F3500.000000
G02 X21.963740 Y38.255528 Z-1.000000 I0.099359 J-0.218901
G02 X22.055719 Y38.233234 Z-1.000000 I-0.000000 J-0.200887
G01 X22.070248 Y38.200675 Z-1.000000
G02 X22.040659 Y38.165565 Z-1.000000 I-0.051658 J0.013511
G02 X21.949395 Y38.145822 Z-1.000000 I-0.091264 J0.201071
G02 X21.863666 Y38.166602 Z-1.000000 I0.000000 J0.187233
G01 X21.842888 Y38.200675 Z-1.000000
G01 X21.842888 Y38.200675 Z-1.000000
G00 Z5.000000

(End cutting path id: path129)


(Start cutting path id: path129)
(Change tool to Default tool)

G00 Z5.000000
G00 X21.842888 Y37.801539

G01 Z-1.000000 F100.0(Penetrate)
G02 X21.851760 Y37.838904 Z-1.000000 I0.083119 J-0.000000 F3500.000000
G02 X21.915478 Y37.945761 Z-1.000000 I0.778457 J-0.391761
G02 X21.964262 Y38.003453 Z-1.000000 I0.333939 J-0.232906
G01 X21.970328 Y37.999589 Z-1.000000
G03 X21.957294 Y37.948533 Z-1.000000 I0.273646 J-0.097051
G03 X21.952598 Y37.889623 Z-1.000000 I0.367171 J-0.058910
G02 X21.938552 Y37.837687 Z-1.000000 I-0.103042 J0.000000
G02 X21.897748 Y37.795640 Z-1.000000 I-0.105522 J0.061580
G02 X21.856665 Y37.786213 Z-1.000000 I-0.034182 J0.054730
G01 X21.842898 Y37.801540 Z-1.000000
G01 X21.842888 Y37.801539 Z-1.000000
G00 Z5.000000

(End cutting path id: path129)


(Start cutting path id: path129)
(Change tool to Default tool)

G00 Z5.000000
G00 X21.404062 Y37.611003

G01 Z-1.000000 F100.0(Penetrate)
G01 X21.404062 Y37.816702 Z-1.000000 F3500.000000
G01 X21.513768 Y37.816702 Z-1.000000
G03 X21.602522 Y37.837653 Z-1.000000 I-0.000000 J0.198469
G01 X21.623475 Y37.871555 Z-1.000000
G01 X21.602524 Y37.905456 Z-1.000000
G03 X21.513768 Y37.926409 Z-1.000000 I-0.088756 J-0.177507
G03 X21.420902 Y37.909569 Z-1.000000 I0.000000 J-0.264484
G01 X21.404062 Y37.885269 Z-1.000000
G01 X21.387223 Y37.860969 Z-1.000000
G02 X21.294355 Y37.844128 Z-1.000000 I-0.092868 J0.247637
G02 X21.201489 Y37.860968 Z-1.000000 I0.000000 J0.264484
G01 X21.184649 Y37.885269 Z-1.000000
G01 X21.167810 Y37.909568 Z-1.000000
G03 X21.074942 Y37.926409 Z-1.000000 I-0.092868 J-0.247637
G02 X20.986189 Y37.947359 Z-1.000000 I0.000000 J0.198465
G01 X20.965236 Y37.981262 Z-1.000000
G02 X20.981301 Y38.020048 Z-1.000000 I0.054855 J-0.000000
G02 X21.020086 Y38.036114 Z-1.000000 I0.038785 J-0.038781
G01 X21.054088 Y38.056965 Z-1.000000
G03 X21.074936 Y38.143913 Z-1.000000 I-0.170893 J0.086949
G03 X21.053146 Y38.233720 Z-1.000000 I-0.195962 J-0.000000
G03 X21.013226 Y38.263598 Z-1.000000 I-0.050711 J-0.026148
G01 X21.012920 Y38.270614 Z-1.000000
G02 X21.068076 Y38.279219 Z-1.000000 I0.062450 J-0.219203
G02 X21.159551 Y38.257051 Z-1.000000 I0.005655 J-0.176477
G01 X21.184640 Y38.214388 Z-1.000000
G01 X21.213697 Y38.174868 Z-1.000000
G03 X21.404053 Y38.145821 Z-1.000000 I0.190356 J0.609232
G02 X21.599415 Y38.121772 Z-1.000000 I-0.000000 J-0.805518
G01 X21.623466 Y38.090968 Z-1.000000
G01 X21.642588 Y38.055239 Z-1.000000
G03 X21.705746 Y38.036115 Z-1.000000 I0.063158 J0.094734
G02 X21.760599 Y38.008689 Z-1.000000 I-0.000000 J-0.068566
G02 X21.788026 Y37.926409 Z-1.000000 I-0.109705 J-0.082281
G02 X21.776002 Y37.828731 Z-1.000000 I-0.402760 J-0.000000
G01 X21.760596 Y37.816702 Z-1.000000
G01 X21.745190 Y37.804673 Z-1.000000
G03 X21.733166 Y37.706996 Z-1.000000 I0.390737 J-0.097678
G02 X21.712231 Y37.618257 Z-1.000000 I-0.198543 J0.000000
G01 X21.678316 Y37.597289 Z-1.000000
G01 X21.650922 Y37.572380 Z-1.000000
G03 X21.671416 Y37.524889 Z-1.000000 I0.053470 J-0.005093
G01 X21.688146 Y37.487621 Z-1.000000
G02 X21.666216 Y37.446442 Z-1.000000 I-0.056677 J0.003754
G02 X21.608596 Y37.418142 Z-1.000000 I-0.098127 J0.126980
G02 X21.508513 Y37.405302 Z-1.000000 I-0.100083 J0.383654
G01 X21.404062 Y37.405302 Z-1.000000
G01 X21.404062 Y37.611003 Z-1.000000
G00 Z5.000000

(End cutting path id: path129)


(Start cutting path id: path129)
(Change tool to Default tool)

G00 Z5.000000
G00 X21.013232 Y37.616646

G01 Z-1.000000 F100.0(Penetrate)
G02 X21.074942 Y37.622537 Z-1.000000 I0.061710 J-0.320250 F3500.000000
G02 X21.136652 Y37.616646 Z-1.000000 I-0.000000 J-0.326142
G01 X21.136652 Y37.610650 Z-1.000000
G02 X21.074942 Y37.604760 Z-1.000000 I-0.061710 J0.320337
G02 X21.013232 Y37.610649 Z-1.000000 I-0.000000 J0.326257
G01 X21.013232 Y37.616646 Z-1.000000
G01 X21.013232 Y37.616646 Z-1.000000
G00 Z5.000000

(End cutting path id: path129)


(Start cutting path id: path129)
(Change tool to Default tool)

G00 Z5.000000
G00 X20.965236 Y37.350450

G01 Z-1.000000 F100.0(Penetrate)
G01 X20.977262 Y37.365852 Z-1.000000 F3500.000000
G02 X21.074942 Y37.377877 Z-1.000000 I0.097680 J-0.390729
G02 X21.172624 Y37.365852 Z-1.000000 I-0.000000 J-0.402746
G01 X21.184649 Y37.350450 Z-1.000000
G01 X21.172623 Y37.335048 Z-1.000000
G02 X21.074942 Y37.323023 Z-1.000000 I-0.097681 J0.390735
G02 X20.977261 Y37.335048 Z-1.000000 I-0.000000 J0.402736
G01 X20.965236 Y37.350450 Z-1.000000
G01 X20.965236 Y37.350450 Z-1.000000
G00 Z5.000000

(End cutting path id: path129)


(Start cutting path id: path129)
(Change tool to Default tool)

G00 Z5.000000
G00 X21.184649 Y37.103610

G01 Z-1.000000 F100.0(Penetrate)
G01 X21.163698 Y37.137510 Z-1.000000 F3500.000000
G03 X21.074942 Y37.158463 Z-1.000000 I-0.088756 J-0.177507
G02 X20.977261 Y37.170488 Z-1.000000 I-0.000000 J0.402736
G01 X20.965236 Y37.185890 Z-1.000000
G01 X20.977262 Y37.201292 Z-1.000000
G02 X21.074942 Y37.213317 Z-1.000000 I0.097680 J-0.390729
G03 X21.172624 Y37.225342 Z-1.000000 I0.000000 J0.402746
G01 X21.184649 Y37.240744 Z-1.000000
G01 X21.196675 Y37.256146 Z-1.000000
G02 X21.294355 Y37.268171 Z-1.000000 I0.097680 J-0.390729
G03 X21.383109 Y37.289122 Z-1.000000 I0.000000 J0.198469
G01 X21.404062 Y37.323024 Z-1.000000
G02 X21.420127 Y37.361810 Z-1.000000 I0.054855 J0.000000
G02 X21.458912 Y37.377877 Z-1.000000 I0.038785 J-0.038781
G01 X21.492811 Y37.356925 Z-1.000000
G02 X21.513762 Y37.268170 Z-1.000000 I-0.177524 J-0.088755
G02 X21.496101 Y37.176125 Z-1.000000 I-0.248685 J0.000000
G01 X21.470052 Y37.158464 Z-1.000000
G01 X21.436614 Y37.145164 Z-1.000000
G03 X21.412002 Y37.103611 Z-1.000000 I0.060237 J-0.063743
G02 X21.382413 Y37.068500 Z-1.000000 I-0.051658 J0.013511
G02 X21.291150 Y37.048758 Z-1.000000 I-0.091263 J0.201067
G02 X21.205421 Y37.069537 Z-1.000000 I-0.000000 J0.187233
G01 X21.184643 Y37.103611 Z-1.000000
G01 X21.184649 Y37.103610 Z-1.000000
G00 Z5.000000

(End cutting path id: path129)


(Start cutting path id: path129)
(Change tool to Default tool)

G00 Z5.000000
G00 X20.965236 Y36.774490

G01 Z-1.000000 F100.0(Penetrate)
G02 X20.981301 Y36.813277 Z-1.000000 I0.054855 J-0.000000 F3500.000000
G02 X21.020086 Y36.829344 Z-1.000000 I0.038785 J-0.038781
G03 X21.058871 Y36.845410 Z-1.000000 I0.000000 J0.054848
G03 X21.074936 Y36.884197 Z-1.000000 I-0.038791 J0.038786
G02 X21.091001 Y36.922983 Z-1.000000 I0.054855 J0.000000
G02 X21.129786 Y36.939050 Z-1.000000 I0.038785 J-0.038781
G02 X21.168571 Y36.922983 Z-1.000000 I0.000000 J-0.054848
G02 X21.184636 Y36.884197 Z-1.000000 I-0.038791 J-0.038786
G02 X21.168571 Y36.845410 Z-1.000000 I-0.054855 J0.000000
G02 X21.129786 Y36.829344 Z-1.000000 I-0.038785 J0.038781
G03 X21.091001 Y36.813277 Z-1.000000 I-0.000000 J-0.054848
G03 X21.074936 Y36.774490 Z-1.000000 I0.038791 J-0.038786
G02 X21.058871 Y36.735704 Z-1.000000 I-0.054855 J0.000000
G02 X21.020086 Y36.719637 Z-1.000000 I-0.038785 J0.038781
G02 X20.981301 Y36.735704 Z-1.000000 I-0.000000 J0.054848
G02 X20.965236 Y36.774490 Z-1.000000 I0.038791 J0.038786
G01 X20.965236 Y36.774490 Z-1.000000
G00 Z5.000000

(End cutting path id: path129)


(Start cutting path id: path129)
(Change tool to Default tool)

G00 Z5.000000
G00 X20.636116 Y36.829344

G01 Z-1.000000 F100.0(Penetrate)
G02 X20.657051 Y36.918082 Z-1.000000 I0.198543 J-0.000000 F3500.000000
G01 X20.690966 Y36.939050 Z-1.000000
G03 X20.729751 Y36.955117 Z-1.000000 I0.000000 J0.054848
G03 X20.745816 Y36.993903 Z-1.000000 I-0.038791 J0.038786
G01 X20.766767 Y37.027803 Z-1.000000
G02 X20.855522 Y37.048756 Z-1.000000 I0.088755 J-0.177504
G02 X20.944276 Y37.027805 Z-1.000000 I0.000000 J-0.198469
G01 X20.965229 Y36.993903 Z-1.000000
G01 X20.944276 Y36.960001 Z-1.000000
G02 X20.855522 Y36.939050 Z-1.000000 I-0.088754 J0.177518
G01 X20.745816 Y36.939050 Z-1.000000
G01 X20.745816 Y36.829344 Z-1.000000
G02 X20.724881 Y36.740605 Z-1.000000 I-0.198543 J0.000000
G01 X20.690966 Y36.719637 Z-1.000000
G01 X20.657067 Y36.740589 Z-1.000000
G02 X20.636116 Y36.829344 Z-1.000000 I0.177524 J0.088755
G01 X20.636116 Y36.829344 Z-1.000000
G00 Z5.000000

(End cutting path id: path129)


(Start cutting path id: path129)
(Change tool to Default tool)

G00 Z5.000000
G00 X20.506453 Y37.048757

G01 Z-1.000000 F100.0(Penetrate)
G02 X20.512328 Y37.110461 Z-1.000000 I0.326960 J-0.000000 F3500.000000
G01 X20.518343 Y37.110467 Z-1.000000
G02 X20.524199 Y37.048758 Z-1.000000 I-0.322217 J-0.061709
G02 X20.518343 Y36.987047 Z-1.000000 I-0.328088 J-0.000000
G01 X20.512356 Y36.987043 Z-1.000000
G02 X20.506453 Y37.048757 Z-1.000000 I0.319653 J0.061714
G01 X20.506453 Y37.048757 Z-1.000000
G00 Z5.000000

(End cutting path id: path129)


(Start cutting path id: path129)
(Change tool to Default tool)

G00 Z5.000000
G00 X20.574406 Y37.397232

G01 Z-1.000000 F100.0(Penetrate)
G02 X20.636116 Y37.403123 Z-1.000000 I0.061710 J-0.320250 F3500.000000
G02 X20.697826 Y37.397232 Z-1.000000 I0.000000 J-0.326142
G01 X20.697826 Y37.391236 Z-1.000000
G02 X20.636116 Y37.385346 Z-1.000000 I-0.061710 J0.320337
G02 X20.574406 Y37.391235 Z-1.000000 I-0.000000 J0.326257
G01 X20.574406 Y37.397232 Z-1.000000
G01 X20.574406 Y37.397232 Z-1.000000
G00 Z5.000000

(End cutting path id: path129)


(Start cutting path id: path129)
(Change tool to Default tool)

G00 Z5.000000
G00 X20.965236 Y35.951692

G01 Z-1.000000 F100.0(Penetrate)
G01 X20.973268 Y35.971084 Z-1.000000 F3500.000000
G01 X20.992666 Y35.979119 Z-1.000000
G01 X21.012059 Y35.971088 Z-1.000000
G01 X21.020096 Y35.951692 Z-1.000000
G01 X21.012064 Y35.932300 Z-1.000000
G01 X20.992666 Y35.924265 Z-1.000000
G01 X20.973273 Y35.932295 Z-1.000000
G01 X20.965236 Y35.951692 Z-1.000000
G01 X20.965236 Y35.951692 Z-1.000000
G00 Z5.000000

(End cutting path id: path129)


(Start cutting path id: path129)
(Change tool to Default tool)

G00 Z5.000000
G00 X20.972706 Y35.732279

G01 Z-1.000000 F100.0(Penetrate)
G02 X20.978581 Y35.793983 Z-1.000000 I0.326960 J0.000000 F3500.000000
G01 X20.984596 Y35.793989 Z-1.000000
G02 X20.990452 Y35.732280 Z-1.000000 I-0.322217 J-0.061709
G02 X20.984596 Y35.670569 Z-1.000000 I-0.328088 J0.000000
G01 X20.978609 Y35.670564 Z-1.000000
G02 X20.972706 Y35.732279 Z-1.000000 I0.319653 J0.061714
G01 X20.972706 Y35.732279 Z-1.000000
G00 Z5.000000

(End cutting path id: path129)


(Start cutting path id: path129)
(Change tool to Default tool)

G00 Z5.000000
G00 X20.737131 Y35.737424

G01 Z-1.000000 F100.0(Penetrate)
G01 X20.728586 Y35.739167 Z-1.000000 F3500.000000
G01 X20.720561 Y35.720854 Z-1.000000
G03 X20.726434 Y35.686606 Z-1.000000 I0.082769 J-0.003435
G01 X20.734971 Y35.684857 Z-1.000000
G01 X20.743005 Y35.703174 Z-1.000000
G03 X20.737171 Y35.737425 Z-1.000000 I-0.083062 J0.003476
G01 X20.737131 Y35.737424 Z-1.000000
G00 Z5.000000

(End cutting path id: path129)


(Start cutting path id: path129)
(Change tool to Default tool)

G00 Z5.000000
G00 X21.458915 Y35.375732

G01 Z-1.000000 F100.0(Penetrate)
G01 X21.467177 Y35.394899 Z-1.000000 F3500.000000
G01 X21.487955 Y35.403160 Z-1.000000
G01 X21.501342 Y35.394433 Z-1.000000
G01 X21.500045 Y35.375732 Z-1.000000
G02 X21.480910 Y35.352240 Z-1.000000 I-0.098681 J0.060838
G01 X21.471005 Y35.348306 Z-1.000000
G01 X21.463655 Y35.353109 Z-1.000000
G02 X21.458915 Y35.375732 Z-1.000000 I0.051619 J0.022623
G01 X21.458915 Y35.375732 Z-1.000000
G00 Z5.000000

(End cutting path id: path129)


(Start cutting path id: path129)
(Change tool to Default tool)

G00 Z5.000000
G00 X21.184649 Y35.044995

G01 Z-1.000000 F100.0(Penetrate)
G01 X21.200912 Y35.069872 Z-1.000000 F3500.000000
G01 X21.221659 Y35.061205 Z-1.000000
G02 X21.224862 Y35.025049 Z-1.000000 I-0.061705 J-0.023686
G01 X21.210879 Y35.004733 Z-1.000000
G01 X21.195595 Y35.008145 Z-1.000000
G02 X21.184649 Y35.044995 Z-1.000000 I0.056552 J0.036850
G01 X21.184649 Y35.044995 Z-1.000000
G00 Z5.000000

(End cutting path id: path129)


(Start cutting path id: path129)
(Change tool to Default tool)

G00 Z5.000000
G00 X19.827031 Y33.894695

G01 Z-1.000000 F100.0(Penetrate)
G02 X19.846166 Y33.918187 Z-1.000000 I0.098681 J-0.060838 F3500.000000
G01 X19.856071 Y33.922122 Z-1.000000
G01 X19.863421 Y33.917318 Z-1.000000
G02 X19.868161 Y33.894695 Z-1.000000 I-0.051619 J-0.022623
G01 X19.859899 Y33.875528 Z-1.000000
G01 X19.839121 Y33.867268 Z-1.000000
G01 X19.825732 Y33.875998 Z-1.000000
G01 X19.827031 Y33.894695 Z-1.000000
G01 X19.827031 Y33.894695 Z-1.000000
G00 Z5.000000

(End cutting path id: path129)


(Start cutting path id: path129)
(Change tool to Default tool)

G00 Z5.000000
G00 X19.432736 Y33.613575

G01 Z-1.000000 F100.0(Penetrate)
G03 X19.433007 Y33.688938 Z-1.000000 I-0.726853 J0.040300 F3500.000000
G03 X19.419176 Y33.894698 Z-1.000000 I-5.439466 J-0.262303
G02 X19.416687 Y34.043488 Z-1.000000 I1.064456 J0.092225
G01 X19.427176 Y34.045544 Z-1.000000
G01 X19.441222 Y34.045464 Z-1.000000
G03 X19.454886 Y34.102789 Z-1.000000 I-0.123289 J0.059679
G02 X19.467791 Y34.213176 Z-1.000000 I0.564758 J-0.010076
G02 X19.538776 Y34.486762 Z-1.000000 I3.546084 J-0.774071
G03 X19.610381 Y34.760312 Z-1.000000 I-3.680175 J1.109482
G03 X19.623786 Y34.868344 Z-1.000000 I-0.555532 J0.123778
G02 X19.636373 Y34.910960 Z-1.000000 I0.086734 J-0.002450
G01 X19.648796 Y34.909484 Z-1.000000
G03 X19.666333 Y34.879381 Z-1.000000 I0.076871 J0.024624
G01 X19.674096 Y34.882056 Z-1.000000
G02 X19.682957 Y34.921705 Z-1.000000 I0.144612 J-0.011504
G02 X19.736046 Y35.046616 Z-1.000000 I1.529761 J-0.576434
G03 X19.787220 Y35.171124 Z-1.000000 I-1.138191 J0.540582
G03 X19.789936 Y35.200661 Z-1.000000 I-0.057751 J0.020203
G01 X19.794861 Y35.227625 Z-1.000000
G02 X19.826716 Y35.265729 Z-1.000000 I0.119541 J-0.067569
G03 X19.859138 Y35.304438 Z-1.000000 I-0.089604 J0.107984
G03 X19.868216 Y35.338815 Z-1.000000 I-0.060554 J0.034377
G02 X19.878747 Y35.370216 Z-1.000000 I0.052082 J0.000000
G02 X19.909356 Y35.393244 Z-1.000000 I0.055549 J-0.041981
G01 X19.934814 Y35.419805 Z-1.000000
G03 X19.950496 Y35.515739 Z-1.000000 I-0.285602 J0.095934
G02 X19.972349 Y35.613677 Z-1.000000 I0.230392 J-0.000000
G02 X20.048946 Y35.725361 Z-1.000000 I0.379780 J-0.178360
G03 X20.139757 Y35.833158 Z-1.000000 I-0.806544 J0.771604
G03 X20.172696 Y35.892638 Z-1.000000 I-0.208970 J0.154583
G02 X20.207871 Y35.945883 Z-1.000000 I0.143003 J-0.056232
G02 X20.252526 Y35.971260 Z-1.000000 I0.069829 J-0.070897
G03 X20.295088 Y35.994754 Z-1.000000 I-0.024980 J0.095556
G01 X20.307046 Y36.022351 Z-1.000000
G02 X20.317725 Y36.054824 Z-1.000000 I0.054708 J0.000000
G02 X20.416752 Y36.171107 Z-1.000000 I0.879283 J-0.648488
G03 X20.503173 Y36.292540 Z-1.000000 I-0.340578 J0.333852
G03 X20.526459 Y36.391628 Z-1.000000 I-0.199185 J0.099088
G02 X20.558428 Y36.468258 Z-1.000000 I0.107825 J-0.000000
G02 X20.636165 Y36.500227 Z-1.000000 I0.077737 J-0.078530
G03 X20.724919 Y36.521177 Z-1.000000 I0.000000 J0.198469
G01 X20.745872 Y36.555080 Z-1.000000
G01 X20.766823 Y36.588980 Z-1.000000
G02 X20.855578 Y36.609933 Z-1.000000 I0.088755 J-0.177504
G02 X20.944332 Y36.588982 Z-1.000000 I-0.000000 J-0.198469
G01 X20.965285 Y36.555080 Z-1.000000
G03 X20.981350 Y36.516293 Z-1.000000 I0.054855 J-0.000000
G03 X21.020135 Y36.500227 Z-1.000000 I0.038785 J0.038781
G01 X21.048070 Y36.472292 Z-1.000000
G02 X21.020135 Y36.363094 Z-1.000000 I-0.227396 J-0.000000
G01 X20.967585 Y36.267101 Z-1.000000
G01 X20.966385 Y36.383664 Z-1.000000
G01 X20.965285 Y36.500227 Z-1.000000
G01 X20.855578 Y36.500227 Z-1.000000
G01 X20.745872 Y36.500227 Z-1.000000
G01 X20.745872 Y36.390520 Z-1.000000
G03 X20.766807 Y36.301782 Z-1.000000 I0.198543 J-0.000000
G01 X20.800722 Y36.280814 Z-1.000000
G01 X20.830395 Y36.255632 Z-1.000000
G02 X20.855572 Y35.948127 Z-1.000000 I-1.865278 J-0.307505
G01 X20.855572 Y35.615438 Z-1.000000
G01 X20.734360 Y35.629096 Z-1.000000
G03 X20.635954 Y35.625150 Z-1.000000 I-0.036351 J-0.322502
G01 X20.626496 Y35.608082 Z-1.000000
G01 X20.624303 Y35.578149 Z-1.000000
G02 X20.585706 Y35.535522 Z-1.000000 I-0.112880 J0.063421
G03 X20.541374 Y35.491380 Z-1.000000 I0.104731 J-0.149516
G03 X20.522156 Y35.445616 Z-1.000000 I0.093796 J-0.066305
G02 X20.502457 Y35.398866 Z-1.000000 I-0.114870 J0.020878
G02 X20.409847 Y35.287564 Z-1.000000 I-0.775375 J0.550978
G03 X20.314920 Y35.178319 Z-1.000000 I0.948392 J-0.919949
G01 X20.306998 Y35.155211 Z-1.000000
G01 X20.299983 Y35.131797 Z-1.000000
G02 X20.256318 Y35.078212 Z-1.000000 I-0.284686 J0.187401
G03 X20.217975 Y35.021229 Z-1.000000 I0.126455 J-0.126483
G03 X20.187738 Y34.915599 Z-1.000000 I0.421798 J-0.177882
G02 X20.159062 Y34.809175 Z-1.000000 I-0.517596 J0.082394
G02 X20.128708 Y34.762539 Z-1.000000 I-0.125430 J0.048440
G03 X20.092055 Y34.719556 Z-1.000000 I0.252055 J-0.252055
G01 X20.087578 Y34.705740 Z-1.000000
G01 X20.082870 Y34.692017 Z-1.000000
G02 X20.032728 Y34.635214 Z-1.000000 I-0.481044 J0.374098
G03 X19.989433 Y34.575574 Z-1.000000 I0.166123 J-0.166129
G03 X19.977878 Y34.527355 Z-1.000000 I0.094825 J-0.048219
G02 X19.963328 Y34.484999 Z-1.000000 I-0.068928 J-0.000000
G02 X19.923028 Y34.456940 Z-1.000000 I-0.065367 J0.050915
G03 X19.883615 Y34.428209 Z-1.000000 I0.023267 J-0.073315
G03 X19.868068 Y34.379669 Z-1.000000 I0.068440 J-0.048680
