%
(Header)
(Generated by gcodetools from Inkscape.)
(Using default header. To add your own header create file "header" in the output dir.)
M3
(Header end.)
G21 (All units in mm)

(Start cutting path id: path50)
(Change tool to Default tool)

G00 Z5.000000
G00 X15.776060 Y20.329683

G01 Z-1.000000 F100.0(Penetrate)
G02 X15.808275 Y20.429117 Z-1.000000 I0.169562 J0.000000 F400.000000
G02 X15.969043 Y20.596183 Z-1.000000 I0.675041 J-0.488707
G01 X16.006543 Y20.586963 Z-1.000000
G02 X16.000243 Y20.526983 Z-1.000000 I-0.054543 J-0.024592
G03 X15.839147 Y20.305945 Z-1.000000 I36.164900 J-26.526690
G03 X15.807259 Y20.260483 Z-1.000000 I1.492533 J-1.080825
G01 X15.790602 Y20.261928 Z-1.000000
G02 X15.776059 Y20.329683 Z-1.000000 I0.150558 J0.067755
G01 X15.776060 Y20.329683 Z-1.000000
G00 Z5.000000

(End cutting path id: path50)


(Start cutting path id: path50)
(Change tool to Default tool)

G00 Z5.000000
G00 X6.733400 Y31.385737

G01 Z-1.000000 F100.0(Penetrate)
G02 X6.772235 Y31.436057 Z-1.000000 I0.052019 J0.000000 F400.000000
G02 X6.898815 Y31.429077 Z-1.000000 I0.052443 J-0.200179
G02 X7.047056 Y31.353795 Z-1.000000 I-0.288220 J-0.751138
G01 X7.064229 Y31.322262 Z-1.000000
G01 X7.045348 Y31.297797 Z-1.000000
G02 X6.898815 Y31.278922 Z-1.000000 I-0.146533 J0.559342
G02 X6.771060 Y31.316587 Z-1.000000 I0.000000 J0.235497
G02 X6.733400 Y31.385737 Z-1.000000 I0.044655 J0.069150
G01 X6.733400 Y31.385737 Z-1.000000
G00 Z5.000000

(End cutting path id: path50)


(Start cutting path id: path50)
(Change tool to Default tool)

G00 Z5.000000
G00 X5.576279 Y31.498167

G01 Z-1.000000 F100.0(Penetrate)
G01 X5.589772 Y31.540179 Z-1.000000 F400.000000
G02 X5.680048 Y31.541507 Z-1.000000 I0.046795 J-0.112014
G02 X5.782911 Y31.443657 Z-1.000000 I-0.066243 J-0.172629
G01 X5.747418 Y31.389154 Z-1.000000
G02 X5.658155 Y31.415169 Z-1.000000 I-0.000000 J0.166145
G02 X5.576276 Y31.498168 Z-1.000000 I0.140375 J0.220368
G01 X5.576279 Y31.498167 Z-1.000000
G00 Z5.000000

(End cutting path id: path50)


(Start cutting path id: path50)
(Change tool to Default tool)

G00 Z5.000000
G00 X2.987382 Y33.319037

G01 Z-1.000000 F100.0(Penetrate)
G02 X3.006934 Y33.423543 Z-1.000000 I0.289074 J-0.000000 F400.000000
G02 X3.094281 Y33.594728 Z-1.000000 I0.880596 J-0.341449
G02 X3.173606 Y33.666671 Z-1.000000 I0.174648 J-0.112865
G01 X3.201180 Y33.649868 Z-1.000000
G02 X3.181628 Y33.545362 Z-1.000000 I-0.289074 J0.000000
G02 X3.094281 Y33.374177 Z-1.000000 I-0.880596 J0.341449
G02 X3.014956 Y33.302234 Z-1.000000 I-0.174648 J0.112865
G01 X2.987382 Y33.319037 Z-1.000000
G01 X2.987382 Y33.319037 Z-1.000000
G00 Z5.000000

(End cutting path id: path50)


(Start cutting path id: path50)
(Change tool to Default tool)

G00 Z5.000000
G00 X2.717885 Y33.333857

G01 Z-1.000000 F100.0(Penetrate)
G02 X2.710179 Y33.509441 Z-1.000000 I0.258823 J0.099321 F400.000000
G02 X2.821795 Y33.697011 Z-1.000000 I0.411081 J-0.117624
G01 X2.895906 Y33.688288 Z-1.000000
G02 X2.920610 Y33.539587 Z-1.000000 I-0.165528 J-0.103902
G02 X2.797760 Y33.317181 Z-1.000000 I-0.458010 J0.107859
G01 X2.717885 Y33.333857 Z-1.000000
G01 X2.717885 Y33.333857 Z-1.000000
G00 Z5.000000

(End cutting path id: path50)


(Start cutting path id: path50)
(Change tool to Default tool)

G00 Z5.000000
G00 X0.971665 Y35.496992

G01 Z-1.000000 F100.0(Penetrate)
G02 X0.966351 Y35.899743 Z-1.000000 I0.529247 J0.208393 F400.000000
G02 X1.150463 Y35.988758 Z-1.000000 I0.137797 J-0.050101
G02 X1.242581 Y35.919178 Z-1.000000 I-0.057001 J-0.171232
G02 X1.312892 Y35.750485 Z-1.000000 I-0.373739 J-0.254772
G02 X1.293559 Y35.636847 Z-1.000000 I-0.160625 J-0.031137
G01 X1.238531 Y35.623127 Z-1.000000
G03 X1.158500 Y35.617726 Z-1.000000 I-0.036240 J-0.058640
G03 X1.086826 Y35.498342 Z-1.000000 I0.131959 J-0.160431
G02 X1.034324 Y35.454832 Z-1.000000 I-0.053161 J0.010716
G02 X0.971665 Y35.496942 Z-1.000000 I-0.000808 J0.066471
G01 X0.971665 Y35.496992 Z-1.000000
G00 Z5.000000

(End cutting path id: path50)


(Start cutting path id: path50)
(Change tool to Default tool)

G00 Z5.000000
G00 X1.164445 Y36.513065

G01 Z-1.000000 F100.0(Penetrate)
G02 X0.985431 Y36.633864 Z-1.000000 I0.275028 J0.600611 F400.000000
G01 X0.999031 Y36.669598 Z-1.000000
G02 X1.157176 Y36.645513 Z-1.000000 I0.013601 J-0.441934
G02 X1.440136 Y36.517048 Z-1.000000 I-0.546171 J-1.578869
G01 X1.424963 Y36.458219 Z-1.000000
G02 X1.164445 Y36.513048 Z-1.000000 I-0.008765 J0.604687
G01 X1.164445 Y36.513065 Z-1.000000
G00 Z5.000000

(End cutting path id: path50)


(Start cutting path id: path50)
(Change tool to Default tool)

G00 Z5.000000
G00 X1.164445 Y36.792739

G01 Z-1.000000 F100.0(Penetrate)
G02 X1.157223 Y36.869042 Z-1.000000 I0.073543 J0.045454 F400.000000
G02 X1.206567 Y36.903015 Z-1.000000 I0.049344 J-0.018848
G02 X1.301764 Y36.875973 Z-1.000000 I0.000000 J-0.181084
G02 X1.384998 Y36.792739 Z-1.000000 I-0.134653 J-0.217886
G02 X1.392220 Y36.716436 Z-1.000000 I-0.073543 J-0.045454
G02 X1.342876 Y36.682463 Z-1.000000 I-0.049344 J0.018848
G02 X1.247679 Y36.709505 Z-1.000000 I-0.000000 J0.181084
G02 X1.164445 Y36.792739 Z-1.000000 I0.134653 J0.217886
G01 X1.164445 Y36.792739 Z-1.000000
G00 Z5.000000

(End cutting path id: path50)


(Start cutting path id: path50)
(Change tool to Default tool)

G00 Z5.000000
G00 X7.124077 Y38.549540

G01 Z-1.000000 F100.0(Penetrate)
G02 X7.173536 Y38.664353 Z-1.000000 I0.064892 J0.040105 F400.000000
G02 X7.371837 Y38.600720 Z-1.000000 I0.042830 J-0.207331
G02 X7.405296 Y38.494444 Z-1.000000 I-0.095832 J-0.088576
G02 X7.350777 Y38.446880 Z-1.000000 I-0.054519 J0.007463
G02 X7.205062 Y38.478332 Z-1.000000 I0.000000 J0.353263
G02 X7.124078 Y38.549536 Z-1.000000 I0.076233 J0.168362
G01 X7.124077 Y38.549540 Z-1.000000
G00 Z5.000000

(End cutting path id: path50)


(Start cutting path id: path50)
(Change tool to Default tool)

G00 Z5.000000
G00 X5.851023 Y42.687406

G01 Z-1.000000 F100.0(Penetrate)
G02 X6.091747 Y42.730512 Z-1.000000 I0.183642 J-0.331825 F400.000000
G02 X6.131415 Y42.644716 Z-1.000000 I-0.008528 J-0.056011
G02 X6.036542 Y42.567655 Z-1.000000 I-0.158097 J0.097708
G02 X5.817112 Y42.531011 Z-1.000000 I-0.209473 J0.579048
G01 X5.774597 Y42.584622 Z-1.000000
G02 X5.851022 Y42.687402 Z-1.000000 I0.151511 J-0.032856
G01 X5.851023 Y42.687406 Z-1.000000
G00 Z5.000000

(End cutting path id: path50)


(Start cutting path id: path50)
(Change tool to Default tool)

G00 Z5.000000
G00 X5.711506 Y42.871621

G01 Z-1.000000 F100.0(Penetrate)
G02 X5.847601 Y42.960105 Z-1.000000 I0.272896 J-0.270832 F400.000000
G02 X5.909246 Y42.946911 Z-1.000000 I0.020634 J-0.054198
G01 X5.909337 Y42.898372 Z-1.000000
G02 X5.773238 Y42.809884 Z-1.000000 I-0.272977 J0.270943
G02 X5.711598 Y42.823072 Z-1.000000 I-0.020636 J0.054191
G01 X5.711508 Y42.871614 Z-1.000000
G01 X5.711506 Y42.871621 Z-1.000000
G00 Z5.000000

(End cutting path id: path50)


(Start cutting path id: path50)
(Change tool to Default tool)

G00 Z5.000000
G00 X5.257272 Y44.401806

G01 Z-1.000000 F100.0(Penetrate)
G02 X5.354369 Y44.557342 Z-1.000000 I0.843090 J-0.418246 F400.000000
G02 X5.835125 Y45.153095 Z-1.000000 I13.005784 J-10.003437
G02 X6.316551 Y45.589873 Z-1.000000 I1.889639 J-1.599092
G02 X6.428929 Y45.563830 Z-1.000000 I0.044348 J-0.064114
G02 X6.416899 Y45.214142 Z-1.000000 I-0.294690 J-0.164913
G02 X5.662373 Y44.391198 Z-1.000000 I-2.877977 J1.881337
G01 X5.640158 Y44.410440 Z-1.000000
G02 X5.858986 Y44.732635 Z-1.000000 I2.278134 J-1.311845
G03 X5.884233 Y44.880241 Z-1.000000 I-0.122038 J0.096836
G01 X5.801966 Y44.898050 Z-1.000000
G02 X5.279153 Y44.385300 Z-1.000000 I-7.225494 J6.844376
G01 X5.257269 Y44.401806 Z-1.000000
G01 X5.257272 Y44.401806 Z-1.000000
G00 Z5.000000

(End cutting path id: path50)


(Start cutting path id: path50)
(Change tool to Default tool)

G00 Z5.000000
G00 X8.224413 Y47.052191

G01 Z-1.000000 F100.0(Penetrate)
G01 X8.205960 Y47.105264 Z-1.000000 F400.000000
G03 X8.070526 Y47.108021 Z-1.000000 I-0.071772 J-0.197831
G01 X8.028853 Y47.173651 Z-1.000000
G02 X8.466802 Y47.536244 Z-1.000000 I1.578379 J-1.460626
G02 X8.854790 Y47.700963 Z-1.000000 I0.712666 J-1.139347
G01 X8.881819 Y47.639572 Z-1.000000
G03 X8.694321 Y47.456710 Z-1.000000 I0.388331 J-0.585732
G01 X8.728063 Y47.419806 Z-1.000000
G02 X9.183270 Y47.598675 Z-1.000000 I0.833287 J-1.451986
G01 X9.214618 Y47.532604 Z-1.000000
G02 X8.301676 Y46.966627 Z-1.000000 I-3.187504 J4.122265
G02 X8.224413 Y47.052191 Z-1.000000 I-0.026202 J0.054006
G01 X8.224413 Y47.052191 Z-1.000000
G00 Z5.000000

(End cutting path id: path50)


(Start cutting path id: path50)
(Change tool to Default tool)

G00 Z5.000000
G00 X11.034177 Y43.342326

G01 Z-1.000000 F100.0(Penetrate)
G01 X11.051445 Y43.373799 Z-1.000000 F400.000000
G02 X11.205319 Y43.451340 Z-1.000000 I0.461965 J-0.725284
G02 X11.295592 Y43.450020 Z-1.000000 I0.043489 J-0.113330
G01 X11.309088 Y43.408000 Z-1.000000
G02 X11.122160 Y43.272890 Z-1.000000 I-0.257174 J0.158940
G02 X11.034177 Y43.342330 Z-1.000000 I-0.016589 J0.069440
G01 X11.034177 Y43.342326 Z-1.000000
G00 Z5.000000

(End cutting path id: path50)


(Start cutting path id: path50)
(Change tool to Default tool)

G00 Z5.000000
G00 X12.578046 Y44.185928

G01 Z-1.000000 F100.0(Penetrate)
G02 X12.862258 Y44.269211 Z-1.000000 I0.480675 J-1.113766 F400.000000
G02 X13.570533 Y44.348825 Z-1.000000 I1.138038 J-6.934030
G02 X13.737764 Y44.329776 Z-1.000000 I0.029625 J-0.483494
G01 X13.735948 Y44.299815 Z-1.000000
G02 X12.588145 Y44.146824 Z-1.000000 I-2.792157 J16.565796
G01 X12.578046 Y44.185931 Z-1.000000
G01 X12.578046 Y44.185928 Z-1.000000
G00 Z5.000000

(End cutting path id: path50)


(Start cutting path id: path50)
(Change tool to Default tool)

G00 Z5.000000
G00 X13.184566 Y44.066727

G01 Z-1.000000 F100.0(Penetrate)
G02 X14.288717 Y44.248049 Z-1.000000 I1.470236 J-5.500424 F400.000000
G02 X14.333278 Y44.140727 Z-1.000000 I0.003948 J-0.061273
G02 X14.280325 Y44.116599 Z-1.000000 I-0.066137 J0.074980
G02 X13.570533 Y44.039248 Z-1.000000 I-1.986096 J14.929588
G02 X13.187437 Y44.036613 Z-1.000000 I-0.208413 J2.450610
G01 X13.184566 Y44.066728 Z-1.000000
G01 X13.184566 Y44.066727 Z-1.000000
G00 Z5.000000

(End cutting path id: path50)


(Start cutting path id: path50)
(Change tool to Default tool)

G00 Z5.000000
G00 X14.738963 Y43.960701

G01 Z-1.000000 F100.0(Penetrate)
G02 X14.938432 Y45.567309 Z-1.000000 I14.637400 J-1.001628 F400.000000
G02 X15.077510 Y45.834728 Z-1.000000 I0.500482 J-0.090413
G01 X15.101616 Y45.824658 Z-1.000000
G02 X15.070210 Y45.173070 Z-1.000000 I-8.783463 J0.096806
G01 X15.008980 Y44.456944 Z-1.000000
G01 X15.183341 Y45.318595 Z-1.000000
G02 X15.373004 Y46.129499 Z-1.000000 I13.562266 J-2.744459
G01 X15.400936 Y46.137013 Z-1.000000
G02 X15.752405 Y44.974954 Z-1.000000 I-0.909297 J-0.909201
G02 X15.052893 Y44.401806 Z-1.000000 I-0.699512 J0.140294
G03 X14.972353 Y44.350004 Z-1.000000 I-0.000000 J-0.088511
G03 X14.814145 Y43.877993 Z-1.000000 I2.176649 J-0.992087
G01 X14.697468 Y43.354181 Z-1.000000
G01 X14.738963 Y43.960701 Z-1.000000
G00 Z5.000000

(End cutting path id: path50)


(Start cutting path id: path50)
(Change tool to Default tool)

G00 Z5.000000
G00 X15.004125 Y44.015839

G01 Z-1.000000 F100.0(Penetrate)
G02 X15.043663 Y44.251991 Z-1.000000 I0.725007 J0.000000 F400.000000
G02 X15.099105 Y44.291530 Z-1.000000 I0.055442 J-0.019100
G01 X15.145712 Y44.251526 Z-1.000000
G02 X15.141385 Y44.015839 Z-1.000000 I-0.686408 J-0.105281
G02 X15.072996 Y43.759112 Z-1.000000 I-1.828112 J0.349515
G01 X15.046405 Y43.740148 Z-1.000000
G01 X15.023657 Y43.759673 Z-1.000000
G02 X15.004125 Y44.015839 Z-1.000000 I1.670103 J0.256166
G01 X15.004125 Y44.015839 Z-1.000000
G00 Z5.000000

(End cutting path id: path50)


(Start cutting path id: path50)
(Change tool to Default tool)

G00 Z5.000000
G00 X15.390093 Y42.968211

G01 Z-1.000000 F100.0(Penetrate)
G03 X15.545216 Y43.169029 Z-1.000000 I-1.209742 J1.094796 F400.000000
G01 X15.534552 Y43.188763 Z-1.000000
G03 X15.487234 Y43.171124 Z-1.000000 I0.000000 J-0.072288
G03 X15.279816 Y42.968211 Z-1.000000 I1.562889 J-1.805051
G03 X15.124692 Y42.767392 Z-1.000000 I1.209718 J-1.094773
G01 X15.135357 Y42.747658 Z-1.000000
G03 X15.182675 Y42.765296 Z-1.000000 I0.000000 J0.072288
G03 X15.390093 Y42.968211 Z-1.000000 I-1.562848 J1.805002
G01 X15.390093 Y42.968211 Z-1.000000
G00 Z5.000000

(End cutting path id: path50)


(Start cutting path id: path50)
(Change tool to Default tool)

G00 Z5.000000
G00 X15.064321 Y42.719106

G01 Z-1.000000 F100.0(Penetrate)
G02 X15.207170 Y43.253250 Z-1.000000 I0.439473 J0.168643 F400.000000
G02 X16.024512 Y43.498352 Z-1.000000 I0.706468 J-0.870514
G02 X16.264234 Y43.331293 Z-1.000000 I-0.029622 J-0.298032
G02 X16.175054 Y43.188763 Z-1.000000 I-0.089180 J-0.043365
G03 X15.917091 Y43.127494 Z-1.000000 I-0.000000 J-0.573689
G03 X15.516310 Y42.857138 Z-1.000000 I0.857642 J-1.703627
G02 X15.173262 Y42.665943 Z-1.000000 I-0.615527 J0.701047
G02 X15.064321 Y42.719106 Z-1.000000 I-0.025960 J0.085006
G01 X15.064321 Y42.719106 Z-1.000000
G00 Z5.000000

(End cutting path id: path50)


(Start cutting path id: path50)
(Change tool to Default tool)

G00 Z5.000000
G00 X15.996612 Y42.617371

G01 Z-1.000000 F100.0(Penetrate)
G02 X16.109700 Y42.842227 Z-1.000000 I0.280088 J0.000000 F400.000000
G02 X16.282305 Y42.829553 Z-1.000000 I0.078961 J-0.106317
G01 X16.287919 Y42.781162 Z-1.000000
G02 X16.164692 Y42.639593 Z-1.000000 I-0.495201 J0.306626
G02 X16.035628 Y42.583176 Z-1.000000 I-0.162397 J0.195677
G01 X15.996612 Y42.617373 Z-1.000000
G01 X15.996612 Y42.617371 Z-1.000000
G00 Z5.000000

(End cutting path id: path50)


(Start cutting path id: path50)
(Change tool to Default tool)

G00 Z5.000000
G00 X16.781339 Y40.642925

G01 Z-1.000000 F100.0(Penetrate)
G02 X16.807078 Y40.901971 Z-1.000000 I0.888770 J0.042492 F400.000000
G02 X16.953243 Y41.327752 Z-1.000000 I2.576529 J-0.646509
G02 X17.262678 Y41.693934 Z-1.000000 I0.777137 J-0.342872
G02 X17.386252 Y41.613370 Z-1.000000 I0.044282 J-0.067133
G02 X17.308662 Y41.422560 Z-1.000000 I-0.468666 J0.079397
G02 X17.233890 Y41.392857 Z-1.000000 I-0.059661 J0.041222
G03 X17.098167 Y41.326974 Z-1.000000 I-0.025580 J-0.120045
G03 X16.842663 Y40.597272 Z-1.000000 I2.892587 J-1.422417
G01 X16.811794 Y40.585754 Z-1.000000
G02 X16.781343 Y40.642922 Z-1.000000 I0.045267 J0.060805
G01 X16.781339 Y40.642925 Z-1.000000
G00 Z5.000000

(End cutting path id: path50)


(Start cutting path id: path50)
(Change tool to Default tool)

G00 Z5.000000
G00 X17.101828 Y40.490028

G01 Z-1.000000 F100.0(Penetrate)
G02 X17.124417 Y40.595745 Z-1.000000 I0.235664 J0.004916 F400.000000
G02 X17.272336 Y40.850271 Z-1.000000 I1.575250 J-0.745218
G02 X17.510705 Y40.948500 Z-1.000000 I0.195995 J-0.137280
G02 X17.642051 Y40.783751 Z-1.000000 I-0.028301 J-0.157295
G02 X17.610146 Y40.736396 Z-1.000000 I-0.054910 J0.002570
G01 X17.572231 Y40.751581 Z-1.000000
G03 X17.494123 Y40.784548 Z-1.000000 I-0.055245 J-0.021877
G03 X17.307698 Y40.641305 Z-1.000000 I0.175824 J-0.421761
G02 X17.135926 Y40.473229 Z-1.000000 I-0.678697 J0.521808
G01 X17.101823 Y40.490029 Z-1.000000
G01 X17.101828 Y40.490028 Z-1.000000
G00 Z5.000000

(End cutting path id: path50)


(Start cutting path id: path50)
(Change tool to Default tool)

G00 Z5.000000
G00 X17.574090 Y40.180894

G01 Z-1.000000 F100.0(Penetrate)
G02 X17.630184 Y40.415286 Z-1.000000 I1.241429 J-0.173188 F400.000000
G02 X17.684674 Y40.502534 Z-1.000000 I0.216038 J-0.074285
G02 X17.774241 Y40.460661 Z-1.000000 I0.037187 J-0.037187
G02 X17.648764 Y40.101029 Z-1.000000 I-0.777452 J0.069551
G01 X17.600669 Y40.096941 Z-1.000000
G02 X17.574094 Y40.180889 Z-1.000000 I0.074674 J0.069820
G01 X17.574090 Y40.180894 Z-1.000000
G00 Z5.000000

(End cutting path id: path50)


(Start cutting path id: path50)
(Change tool to Default tool)

G00 Z5.000000
G00 X17.761034 Y40.018203

G01 Z-1.000000 F100.0(Penetrate)
G02 X17.802428 Y40.154949 Z-1.000000 I0.246569 J-0.000000 F400.000000
G02 X18.036725 Y40.431854 Z-1.000000 I1.322480 J-0.881413
G02 X18.282390 Y40.621448 Z-1.000000 I1.097987 J-1.168753
G01 X18.312415 Y40.604841 Z-1.000000
G02 X18.288966 Y40.527377 Z-1.000000 I-0.139676 J0.000000
G02 X18.036725 Y40.191190 Z-1.000000 I-3.134699 J2.089242
G02 X17.807974 Y39.992241 Z-1.000000 I-0.749084 J0.630312
G01 X17.761034 Y40.018203 Z-1.000000
G01 X17.761034 Y40.018203 Z-1.000000
G00 Z5.000000

(End cutting path id: path50)


(Start cutting path id: path50)
(Change tool to Default tool)

G00 Z5.000000
G00 X18.761272 Y40.066953

G01 Z-1.000000 F100.0(Penetrate)
G02 X18.793157 Y40.287285 Z-1.000000 I0.635179 J0.020553 F400.000000
G02 X18.863797 Y40.376721 Z-1.000000 I0.158309 J-0.052424
G01 X18.924862 Y40.342674 Z-1.000000
G02 X18.863797 Y40.045892 Z-1.000000 I-0.751727 J0.000000
G02 X18.804917 Y40.015150 Z-1.000000 I-0.048302 J0.020755
G02 X18.761272 Y40.066952 Z-1.000000 I0.011001 J0.053556
G01 X18.761272 Y40.066953 Z-1.000000
G00 Z5.000000

(End cutting path id: path50)


(Start cutting path id: path50)
(Change tool to Default tool)

G00 Z5.000000
G00 X18.863797 Y40.989753

G01 Z-1.000000 F100.0(Penetrate)
G02 X18.898891 Y41.043587 Z-1.000000 I0.058838 J0.000000 F400.000000
G02 X18.974073 Y41.038383 Z-1.000000 I0.032647 J-0.074022
G02 X19.068526 Y40.961402 Z-1.000000 I-0.246767 J-0.399212
G02 X19.084350 Y40.921598 Z-1.000000 I-0.042150 J-0.039804
G01 X19.065157 Y40.892159 Z-1.000000
G02 X18.974073 Y40.872968 Z-1.000000 I-0.091084 J0.206558
G02 X18.897019 Y40.906185 Z-1.000000 I0.000000 J0.105981
G02 X18.863797 Y40.989753 Z-1.000000 I0.088495 J0.083568
G01 X18.863797 Y40.989753 Z-1.000000
G00 Z5.000000

(End cutting path id: path50)


(Start cutting path id: path50)
(Change tool to Default tool)

G00 Z5.000000
G00 X18.974073 Y41.528113

G01 Z-1.000000 F100.0(Penetrate)
G02 X19.007009 Y41.723797 Z-1.000000 I0.597779 J0.000000 F400.000000
G02 X19.068423 Y41.800467 Z-1.000000 I0.138441 J-0.047961
G01 X19.110103 Y41.782297 Z-1.000000
G02 X19.110703 Y41.586422 Z-1.000000 I-0.503574 J-0.099480
G02 X19.032591 Y41.489462 Z-1.000000 I-0.130107 J0.024873
G01 X18.974074 Y41.528112 Z-1.000000
G01 X18.974073 Y41.528113 Z-1.000000
G00 Z5.000000

(End cutting path id: path50)


(Start cutting path id: path50)
(Change tool to Default tool)

G00 Z5.000000
G00 X19.212038 Y41.424322

G01 Z-1.000000 F100.0(Penetrate)
G02 X19.238800 Y41.562167 Z-1.000000 I0.368385 J-0.000000 F400.000000
G01 X19.267658 Y41.562167 Z-1.000000
G02 X19.294420 Y41.424326 Z-1.000000 I-0.341605 J-0.137841
G02 X19.267658 Y41.286477 Z-1.000000 I-0.368411 J-0.000000
G01 X19.238800 Y41.286477 Z-1.000000
G02 X19.212038 Y41.424322 Z-1.000000 I0.341622 J0.137845
G01 X19.212038 Y41.424322 Z-1.000000
G00 Z5.000000

(End cutting path id: path50)


(Start cutting path id: path50)
(Change tool to Default tool)

G00 Z5.000000
G00 X18.196567 Y42.129583

G01 Z-1.000000 F100.0(Penetrate)
G03 X18.354993 Y42.449019 Z-1.000000 I-0.467683 J0.430955 F400.000000
G03 X18.331731 Y42.888444 Z-1.000000 I-0.953584 J0.169847
G02 X18.184756 Y43.730039 Z-1.000000 I3.766437 J1.091397
G02 X18.265091 Y43.932438 Z-1.000000 I0.254245 J0.016229
G02 X18.411223 Y43.895885 Z-1.000000 I0.061240 J-0.065557
G02 X18.469911 Y43.332958 Z-1.000000 I-1.198460 J-0.409468
G03 X18.485956 Y43.137364 Z-1.000000 I0.482399 J-0.058882
G01 X18.528351 Y43.133615 Z-1.000000
G01 X18.568089 Y43.128636 Z-1.000000
G02 X18.575881 Y42.913062 Z-1.000000 I-0.601753 J-0.129679
G02 X18.382755 Y42.226487 Z-1.000000 I-2.639420 J0.371990
G02 X18.175807 Y41.988515 Z-1.000000 I-0.478292 J0.206967
G01 X18.140414 Y42.011939 Z-1.000000
G02 X18.196567 Y42.129583 Z-1.000000 I0.218763 J-0.032194
G01 X18.196567 Y42.129583 Z-1.000000
G00 Z5.000000

(End cutting path id: path50)


(Start cutting path id: path50)
(Change tool to Default tool)

G00 Z5.000000
G00 X18.940473 Y42.851630

G01 Z-1.000000 F100.0(Penetrate)
G02 X19.027878 Y43.042116 Z-1.000000 I0.584270 J-0.152799 F400.000000
G02 X19.097211 Y43.078485 Z-1.000000 I0.069333 J-0.047902
G02 X19.173660 Y42.986749 Z-1.000000 I0.000000 J-0.077723
G02 X19.037891 Y42.754856 Z-1.000000 I-0.387121 J0.070960
G02 X18.966011 Y42.758069 Z-1.000000 I-0.034172 J0.041175
G02 X18.940471 Y42.851626 Z-1.000000 I0.068506 J0.068966
G01 X18.940473 Y42.851630 Z-1.000000
G00 Z5.000000

(End cutting path id: path50)


(Start cutting path id: path50)
(Change tool to Default tool)

G00 Z5.000000
G00 X19.093789 Y43.299043

G01 Z-1.000000 F100.0(Penetrate)
G02 X19.114409 Y43.457120 Z-1.000000 I0.482152 J0.017488 F400.000000
G02 X19.194626 Y43.629872 Z-1.000000 I0.657353 J-0.200238
G01 X19.248106 Y43.614095 Z-1.000000
G02 X19.194626 Y43.354181 Z-1.000000 I-0.658336 J-0.000000
G02 X19.127194 Y43.280052 Z-1.000000 I-0.141127 J0.060643
G01 X19.093789 Y43.299041 Z-1.000000
G01 X19.093789 Y43.299043 Z-1.000000
G00 Z5.000000

(End cutting path id: path50)


(Start cutting path id: path50)
(Change tool to Default tool)

G00 Z5.000000
G00 X19.528607 Y42.857930

G01 Z-1.000000 F100.0(Penetrate)
G03 X19.473383 Y42.976195 Z-1.000000 I-0.162544 J-0.003874 F400.000000
G01 X19.403088 Y42.968207 Z-1.000000
G01 X19.367952 Y42.966999 Z-1.000000
G02 X19.357358 Y43.023347 Z-1.000000 I0.045484 J0.037721
G03 X19.422799 Y43.245981 Z-1.000000 I-3.159088 J1.049522
G03 X19.492280 Y43.549454 Z-1.000000 I-5.810033 J1.489906
G02 X19.580305 Y43.836652 Z-1.000000 I1.500106 J-0.302690
G02 X19.642884 Y43.909980 Z-1.000000 I0.145449 J-0.060761
G01 X19.675604 Y43.890721 Z-1.000000
G02 X19.628644 Y43.605153 Z-1.000000 I-1.245703 J0.058203
G03 X19.617053 Y43.310905 Z-1.000000 I0.595594 J-0.170815
G01 X19.690874 Y43.299038 Z-1.000000
G01 X19.738486 Y43.286685 Z-1.000000
G02 X19.694074 Y43.023347 Z-1.000000 I-0.751250 J-0.008716
G02 X19.576815 Y42.838636 Z-1.000000 I-0.471929 J0.170019
G01 X19.528631 Y42.857932 Z-1.000000
G01 X19.528607 Y42.857930 Z-1.000000
G00 Z5.000000

(End cutting path id: path50)


(Start cutting path id: path50)
(Change tool to Default tool)

G00 Z5.000000
G00 X18.387749 Y43.760812

G01 Z-1.000000 F100.0(Penetrate)
G01 X18.353430 Y43.767854 Z-1.000000 F400.000000
G03 X18.321119 Y43.694182 Z-1.000000 I0.078233 J-0.078233
G03 X18.344719 Y43.556483 Z-1.000000 I0.333236 J-0.013759
G01 X18.379039 Y43.549444 Z-1.000000
G03 X18.411343 Y43.623105 Z-1.000000 I-0.078214 J0.078214
G03 X18.387739 Y43.760807 Z-1.000000 I-0.333354 J0.013733
G01 X18.387749 Y43.760812 Z-1.000000
G00 Z5.000000

(End cutting path id: path50)


(Start cutting path id: path50)
(Change tool to Default tool)

G00 Z5.000000
G00 X18.321121 Y44.355858

G01 Z-1.000000 F100.0(Penetrate)
G02 X18.353430 Y44.429528 Z-1.000000 I0.110545 J-0.004561 F400.000000
G01 X18.387751 Y44.422488 Z-1.000000
G02 X18.411353 Y44.284788 Z-1.000000 I-0.309759 J-0.123966
G02 X18.379051 Y44.211125 Z-1.000000 I-0.110527 J0.004554
G01 X18.344733 Y44.218166 Z-1.000000
G02 X18.321131 Y44.355863 Z-1.000000 I0.309738 J0.123962
G01 X18.321121 Y44.355858 Z-1.000000
G00 Z5.000000

(End cutting path id: path50)


(Start cutting path id: path50)
(Change tool to Default tool)

G00 Z5.000000
G00 X17.999235 Y44.746420

G01 Z-1.000000 F100.0(Penetrate)
G03 X17.974117 Y45.035093 Z-1.000000 I-5.575132 J-0.339667 F400.000000
G03 X17.924335 Y45.408078 Z-1.000000 I-9.370850 J-1.060914
G02 X17.935561 Y45.557171 Z-1.000000 I0.327231 J0.050330
G01 X17.971725 Y45.559708 Z-1.000000
G01 X18.076358 Y45.339155 Z-1.000000
G01 X18.091858 Y45.559708 Z-1.000000
G01 X18.107358 Y45.780260 Z-1.000000
G01 X18.202138 Y45.559708 Z-1.000000
G02 X18.266365 Y45.333087 Z-1.000000 I-0.836524 J-0.359493
G02 X18.291618 Y44.953188 Z-1.000000 I-2.354242 J-0.347280
G01 X18.286318 Y44.567220 Z-1.000000
G01 X18.206748 Y44.898050 Z-1.000000
G01 X18.127178 Y45.228879 Z-1.000000
G01 X18.072028 Y44.842911 Z-1.000000
G02 X18.028258 Y44.737672 Z-1.000000 I-0.226076 J0.032306
G01 X17.999228 Y44.746421 Z-1.000000
G01 X17.999235 Y44.746420 Z-1.000000
G00 Z5.000000

(End cutting path id: path50)


(Start cutting path id: path50)
(Change tool to Default tool)

G00 Z5.000000
G00 X19.989007 Y45.837445

G01 Z-1.000000 F100.0(Penetrate)
G02 X19.884313 Y46.613276 Z-1.000000 I10.809090 J1.853611 F400.000000
G02 X19.871933 Y47.022916 Z-1.000000 I2.991349 J0.295408
G01 X19.887583 Y47.434405 Z-1.000000
G01 X19.966563 Y46.993300 Z-1.000000
G01 X20.045543 Y46.552195 Z-1.000000
G01 X20.072483 Y47.048438 Z-1.000000
G01 X20.099423 Y47.544682 Z-1.000000
G01 X20.188803 Y47.165162 Z-1.000000
G02 X20.259211 Y46.782584 Z-1.000000 I-3.841854 J-0.904806
G02 X20.354407 Y45.924553 Z-1.000000 I-19.269667 J-2.572210
G02 X20.353498 Y45.134071 Z-1.000000 I-4.407892 J-0.390172
G02 X20.276187 Y45.063464 Z-1.000000 I-0.077311 J0.007023
G02 X20.178834 Y45.131181 Z-1.000000 I0.000000 J0.103838
G02 X19.989018 Y45.837445 Z-1.000000 I3.702449 J1.373714
G01 X19.989007 Y45.837445 Z-1.000000
G00 Z5.000000

(End cutting path id: path50)


(Start cutting path id: path50)
(Change tool to Default tool)

G00 Z5.000000
G00 X20.201524 Y45.956384

G01 Z-1.000000 F100.0(Penetrate)
G03 X20.119731 Y46.267337 Z-1.000000 I-1.713157 J-0.284397 F400.000000
G01 X20.089728 Y46.262719 Z-1.000000
G03 X20.149972 Y45.352501 Z-1.000000 I4.128824 J-0.183829
G03 X20.258321 Y45.318466 Z-1.000000 I0.063056 J0.011258
G03 X20.276409 Y45.368281 Z-1.000000 I-0.044264 J0.044264
G03 X20.201521 Y45.956384 Z-1.000000 I-7.802434 J-0.694728
G01 X20.201524 Y45.956384 Z-1.000000
G00 Z5.000000

(End cutting path id: path50)


(Start cutting path id: path50)
(Change tool to Default tool)

G00 Z5.000000
G00 X19.912203 Y47.819109

G01 Z-1.000000 F100.0(Penetrate)
G01 X19.925696 Y47.861121 Z-1.000000 F400.000000
G02 X20.015971 Y47.862449 Z-1.000000 I0.046795 J-0.112012
G02 X20.118834 Y47.764599 Z-1.000000 I-0.066243 J-0.172628
G01 X20.083341 Y47.710096 Z-1.000000
G02 X19.994078 Y47.736111 Z-1.000000 I-0.000000 J0.166146
G02 X19.912199 Y47.819109 Z-1.000000 I0.140375 J0.220369
G01 X19.912203 Y47.819109 Z-1.000000
G00 Z5.000000

(End cutting path id: path50)


(Start cutting path id: path50)
(Change tool to Default tool)

G00 Z5.000000
G00 X22.502916 Y46.027045

G01 Z-1.000000 F100.0(Penetrate)
G01 X22.495636 Y46.037830 Z-1.000000 F400.000000
G03 X22.227225 Y45.915039 Z-1.000000 I1.288242 J-3.170748
G03 X21.917570 Y45.718294 Z-1.000000 I0.890540 J-1.743667
G03 X21.620706 Y45.444462 Z-1.000000 I1.454371 J-1.874530
G01 X21.642646 Y45.412943 Z-1.000000
G03 X21.896396 Y45.556469 Z-1.000000 I-0.427000 J1.051003
G03 X22.444065 Y45.974301 Z-1.000000 I-25.441683 J33.915236
G03 X22.502916 Y46.027045 Z-1.000000 I-0.342033 J0.440842
G01 X22.502916 Y46.027045 Z-1.000000
G00 Z5.000000

(End cutting path id: path50)


(Start cutting path id: path50)
(Change tool to Default tool)

G00 Z5.000000
G00 X22.891801 Y46.255206

G01 Z-1.000000 F100.0(Penetrate)
G03 X22.830162 Y46.268395 Z-1.000000 I-0.041005 J-0.041005 F400.000000
G03 X22.694062 Y46.179916 Z-1.000000 I0.136843 J-0.359409
G01 X22.694153 Y46.131374 Z-1.000000
G03 X22.755792 Y46.118186 Z-1.000000 I0.041003 J0.041004
G03 X22.891890 Y46.206670 Z-1.000000 I-0.136836 J0.359380
G01 X22.891799 Y46.255213 Z-1.000000
G01 X22.891801 Y46.255206 Z-1.000000
G00 Z5.000000

(End cutting path id: path50)


(Start cutting path id: path50)
(Change tool to Default tool)

G00 Z5.000000
G00 X23.253553 Y46.665389

G01 Z-1.000000 F100.0(Penetrate)
G01 X23.205014 Y46.665480 Z-1.000000 F400.000000
G03 X23.116526 Y46.529381 Z-1.000000 I0.270943 J-0.272977
G03 X23.129715 Y46.467742 Z-1.000000 I0.054195 J-0.020635
G01 X23.178256 Y46.467651 Z-1.000000
G03 X23.266744 Y46.603750 Z-1.000000 I-0.270851 J0.272915
G03 X23.253556 Y46.665391 Z-1.000000 I-0.054199 J0.020636
G01 X23.253553 Y46.665389 Z-1.000000
G00 Z5.000000

(End cutting path id: path50)


(Start cutting path id: path50)
(Change tool to Default tool)

G00 Z5.000000
G00 X23.251445 Y45.519643

G01 Z-1.000000 F100.0(Penetrate)
G01 X23.207660 Y45.529979 Z-1.000000 F400.000000
G03 X23.134932 Y45.403131 Z-1.000000 I0.197516 J-0.197518
G03 X23.139366 Y45.268815 Z-1.000000 I0.228264 J-0.059695
G01 X23.183152 Y45.258480 Z-1.000000
G03 X23.255882 Y45.385326 Z-1.000000 I-0.197534 J0.197534
G03 X23.251452 Y45.519643 Z-1.000000 I-0.228266 J0.059703
G01 X23.251445 Y45.519643 Z-1.000000
G00 Z5.000000

(End cutting path id: path50)


(Start cutting path id: path50)
(Change tool to Default tool)

G00 Z5.000000
G00 X23.174475 Y44.530580

G01 Z-1.000000 F100.0(Penetrate)
G01 X23.138997 Y44.562547 Z-1.000000 F400.000000
G03 X22.943681 Y44.374235 Z-1.000000 I0.445212 J-0.657217
G03 X22.847516 Y44.190598 Z-1.000000 I0.561419 J-0.410995
G01 X22.873821 Y44.172182 Z-1.000000
G03 X23.048027 Y44.343639 Z-1.000000 I-0.809215 J0.996420
G03 X23.174471 Y44.530580 Z-1.000000 I-0.838420 J0.703325
G01 X23.174475 Y44.530580 Z-1.000000
G00 Z5.000000

(End cutting path id: path50)


(Start cutting path id: path50)
(Change tool to Default tool)

G00 Z5.000000
G00 X22.680855 Y44.022963

G01 Z-1.000000 F100.0(Penetrate)
G02 X22.686043 Y44.188288 Z-1.000000 I0.199344 J0.076489 F400.000000
G02 X22.946850 Y44.604299 Z-1.000000 I1.710791 J-0.782777
G03 X23.163580 Y44.967490 Z-1.000000 I-1.070567 J0.885110
G03 X23.124196 Y45.041717 Z-1.000000 I-0.050813 J0.020601
G02 X22.886853 Y45.264666 Z-1.000000 I0.065563 J0.307604
G02 X22.912040 Y45.800838 Z-1.000000 I0.823018 J0.230015
G02 X22.996073 Y45.904279 Z-1.000000 I0.200304 J-0.076868
G02 X23.136646 Y45.945673 Z-1.000000 I0.140573 J-0.217996
G03 X23.286433 Y45.986465 Z-1.000000 I-0.000000 J0.295402
G03 X23.464679 Y46.138656 Z-1.000000 I-0.341420 J0.580347
G02 X23.532178 Y46.163842 Z-1.000000 I0.055517 J-0.045742
G01 X23.557019 Y46.123056 Z-1.000000
G03 X23.582025 Y46.050294 Z-1.000000 I0.061330 J-0.019601
G03 X23.658293 Y46.053856 Z-1.000000 I0.035773 J0.052353
G01 X23.725647 Y46.020291 Z-1.000000
G02 X23.645153 Y45.771831 Z-1.000000 I-0.494875 J0.023057
G03 X23.494690 Y45.483867 Z-1.000000 I1.381297 J-0.905028
G03 X23.424600 Y45.224329 Z-1.000000 I1.048519 J-0.422392
G02 X23.384939 Y44.953215 Z-1.000000 I-194.756401 J28.352580
G02 X23.347900 Y44.702503 Z-1.000000 I-175.004897 J25.725995
G02 X23.267918 Y44.472334 Z-1.000000 I-0.648299 J0.096298
G02 X23.029785 Y44.148737 Z-1.000000 I-1.544877 J0.887447
G02 X22.774799 Y43.979970 Z-1.000000 I-0.474242 J0.439513
G02 X22.680857 Y44.022965 Z-1.000000 I-0.025029 J0.069439
G01 X22.680855 Y44.022963 Z-1.000000
G00 Z5.000000

(End cutting path id: path50)


(Start cutting path id: path50)
(Change tool to Default tool)

G00 Z5.000000
G00 X21.730982 Y44.002337

G01 Z-1.000000 F100.0(Penetrate)
G01 X21.745335 Y44.036989 Z-1.000000 F400.000000
G02 X21.923965 Y44.195321 Z-1.000000 I1.403344 J-1.403318
G01 X21.963239 Y44.192955 Z-1.000000
G01 X21.965605 Y44.153681 Z-1.000000
G02 X21.773949 Y43.978921 Z-1.000000 I-0.616064 J0.483153
G01 X21.730986 Y44.002333 Z-1.000000
G01 X21.730982 Y44.002337 Z-1.000000
G00 Z5.000000

(End cutting path id: path50)


(Start cutting path id: path50)
(Change tool to Default tool)

G00 Z5.000000
G00 X21.144178 Y44.304799

G01 Z-1.000000 F100.0(Penetrate)
G03 X21.043391 Y44.397363 Z-1.000000 I-0.122265 J-0.031974 F400.000000
G03 X20.910961 Y44.345019 Z-1.000000 I-0.023257 J-0.134855
G02 X20.813338 Y44.390401 Z-1.000000 I-0.043927 J0.033200
G02 X21.050786 Y44.961330 Z-1.000000 I1.771414 J-0.401887
G02 X21.682022 Y45.708483 Z-1.000000 I3.038963 J-1.927255
G02 X22.523014 Y46.286753 Z-1.000000 I2.621556 J-2.911921
G03 X22.914222 Y46.542549 Z-1.000000 I-0.991318 J1.943144
G03 X23.021295 Y46.695018 Z-1.000000 I-0.219658 J0.268089
G02 X23.390288 Y47.149460 Z-1.000000 I0.823016 J-0.291237
G02 X23.556460 Y47.020865 Z-1.000000 I0.058496 J-0.096073
G03 X23.492773 Y46.770517 Z-1.000000 I2.796407 J-0.844658
G03 X23.460890 Y46.560907 Z-1.000000 I1.925649 J-0.400138
G02 X23.373300 Y46.391087 Z-1.000000 I-0.256943 J0.025028
G02 X22.694622 Y45.894909 Z-1.000000 I-3.278189 J3.771700
G03 X21.733567 Y45.126523 Z-1.000000 I2.519368 J-4.136296
G03 X21.370926 Y44.526992 Z-1.000000 I1.128567 J-1.092083
G02 X21.219480 Y44.283964 Z-1.000000 I-0.576045 J0.190269
G01 X21.144177 Y44.304795 Z-1.000000
G01 X21.144178 Y44.304799 Z-1.000000
G00 Z5.000000

(End cutting path id: path50)


(Start cutting path id: path50)
(Change tool to Default tool)

G00 Z5.000000
G00 X21.965699 Y42.141134

G01 Z-1.000000 F100.0(Penetrate)
G01 X22.073978 Y42.361687 Z-1.000000 F400.000000
G01 X21.894399 Y42.141134 Z-1.000000
G03 X21.727429 Y41.912501 Z-1.000000 I2.088295 J-1.700364
G03 X21.606542 Y41.700029 Z-1.000000 I1.681689 J-1.097429
G01 X21.498262 Y41.479476 Z-1.000000
G01 X21.677841 Y41.700029 Z-1.000000
G03 X21.844811 Y41.928662 Z-1.000000 I-2.088300 J1.700367
G03 X21.965699 Y42.141134 Z-1.000000 I-1.681781 J1.097490
G01 X21.965699 Y42.141134 Z-1.000000
G00 Z5.000000

(End cutting path id: path50)


(Start cutting path id: path50)
(Change tool to Default tool)

G00 Z5.000000
G00 X21.476075 Y41.433522

G01 Z-1.000000 F100.0(Penetrate)
G02 X21.543262 Y41.964847 Z-1.000000 I0.695719 J0.181935 F400.000000
G02 X22.513082 Y43.299036 Z-1.000000 I5.961885 J-3.314109
G01 X22.585292 Y43.264514 Z-1.000000
G02 X22.465732 Y42.968207 Z-1.000000 I-0.661643 J0.094698
G03 X22.336117 Y42.710735 Z-1.000000 I0.740560 J-0.534170
G01 X22.375862 Y42.685578 Z-1.000000
G02 X22.492654 Y42.678728 Z-1.000000 I0.055127 J-0.059164
G02 X22.495509 Y42.544543 Z-1.000000 I-0.081157 J-0.068849
G03 X22.273215 Y42.247265 Z-1.000000 I7.744790 J-6.023021
G03 X21.903596 Y41.720926 Z-1.000000 I23.918180 J-17.189394
G02 X21.575506 Y41.395920 Z-1.000000 I-1.014477 J0.695997
G02 X21.476082 Y41.433522 Z-1.000000 I-0.036365 J0.054093
G01 X21.476075 Y41.433522 Z-1.000000
G00 Z5.000000

(End cutting path id: path50)


(Start cutting path id: path50)
(Change tool to Default tool)

G00 Z5.000000
G00 X22.582365 Y39.255407

G01 Z-1.000000 F100.0(Penetrate)
G02 X22.531578 Y39.462313 Z-1.000000 I0.741739 J0.291752 F400.000000
G02 X22.517435 Y39.861926 Z-1.000000 I2.791519 J0.298854
G01 X22.531955 Y40.266443 Z-1.000000
G01 X22.613195 Y39.880476 Z-1.000000
G03 X22.680106 Y39.707926 Z-1.000000 I0.559763 J0.117816
G01 X22.710645 Y39.715062 Z-1.000000
G02 X22.763829 Y39.790912 Z-1.000000 I0.090125 J-0.006622
G02 X22.833749 Y39.770202 Z-1.000000 I0.022890 J-0.051104
G02 X22.907493 Y39.595402 Z-1.000000 I-0.458993 J-0.296595
G02 X22.934586 Y39.329097 Z-1.000000 I-1.060259 J-0.242396
G02 X22.891962 Y39.256436 Z-1.000000 I-0.086498 J0.001908
G01 X22.840866 Y39.273957 Z-1.000000
G01 X22.753206 Y39.494510 Z-1.000000
G01 X22.707516 Y39.273957 Z-1.000000
G02 X22.647801 Y39.217559 Z-1.000000 I-0.070232 J0.014550
G02 X22.582375 Y39.255407 Z-1.000000 I-0.008906 J0.060078
G01 X22.582365 Y39.255407 Z-1.000000
G00 Z5.000000

(End cutting path id: path50)


(Start cutting path id: path50)
(Change tool to Default tool)

G00 Z5.000000
G00 X23.830036 Y38.391746

G01 Z-1.000000 F100.0(Penetrate)
G02 X24.050895 Y38.965255 Z-1.000000 I0.932596 J-0.029863 F400.000000
G02 X24.325800 Y38.976562 Z-1.000000 I0.142659 J-0.120939
G01 X24.332599 Y38.921882 Z-1.000000
G02 X24.102625 Y38.602542 Z-1.000000 I-1.963990 J1.171899
G02 X23.862889 Y38.374963 Z-1.000000 I-1.241154 J1.067396
G01 X23.830036 Y38.391746 Z-1.000000
G01 X23.830036 Y38.391746 Z-1.000000
G00 Z5.000000

(End cutting path id: path50)


(Start cutting path id: path50)
(Change tool to Default tool)

G00 Z5.000000
G00 X24.619665 Y38.391741

G01 Z-1.000000 F100.0(Penetrate)
G02 X24.647304 Y38.529258 Z-1.000000 I0.378712 J-0.004579 F400.000000
G01 X24.674585 Y38.527487 Z-1.000000
G02 X24.698145 Y38.334177 Z-1.000000 I-0.707140 J-0.184274
G02 X24.670485 Y38.196658 Z-1.000000 I-0.378991 J0.004687
G01 X24.643209 Y38.198428 Z-1.000000
G02 X24.619645 Y38.391741 Z-1.000000 I0.707346 J0.184315
G01 X24.619665 Y38.391741 Z-1.000000
G00 Z5.000000

(End cutting path id: path50)


(Start cutting path id: path50)
(Change tool to Default tool)

G00 Z5.000000
G00 X25.906130 Y39.771372

G01 Z-1.000000 F100.0(Penetrate)
G02 X26.175618 Y39.965706 Z-1.000000 I1.419774 J-1.684815 F400.000000
G02 X26.264528 Y39.990758 Z-1.000000 I0.088910 J-0.145247
G01 X26.290254 Y39.929654 Z-1.000000
G02 X26.004190 Y39.724311 Z-1.000000 I-0.725742 J0.709103
G01 X25.645792 Y39.551987 Z-1.000000
G01 X25.906130 Y39.771372 Z-1.000000
G00 Z5.000000

(End cutting path id: path50)


(Start cutting path id: path50)
(Change tool to Default tool)

G00 Z5.000000
G00 X24.766353 Y40.427363

G01 Z-1.000000 F100.0(Penetrate)
G02 X24.754427 Y40.798341 Z-1.000000 I0.316944 J0.195870 F400.000000
G02 X25.062338 Y40.983231 Z-1.000000 I0.307911 J-0.163949
G01 X25.097028 Y40.951886 Z-1.000000
G02 X25.079148 Y40.817816 Z-1.000000 I-0.290389 J-0.029500
G02 X24.991896 Y40.686992 Z-1.000000 I-0.333683 J0.128038
G02 X24.905396 Y40.652402 Z-1.000000 I-0.086500 J0.090864
G03 X24.852892 Y40.612692 Z-1.000000 I0.000000 J-0.054565
G03 X24.858596 Y40.486987 Z-1.000000 I0.191845 J-0.054276
G02 X24.834166 Y40.412082 Z-1.000000 I-0.058368 J-0.022400
G01 X24.766356 Y40.427367 Z-1.000000
G01 X24.766353 Y40.427363 Z-1.000000
G00 Z5.000000

(End cutting path id: path50)


(Start cutting path id: path50)
(Change tool to Default tool)

G00 Z5.000000
G00 X25.309922 Y41.526466

G01 Z-1.000000 F100.0(Penetrate)
G03 X25.313560 Y41.605051 Z-1.000000 I-0.068886 J0.042566 F400.000000
G03 X25.238372 Y41.670427 Z-1.000000 I-0.116191 J-0.057706
G02 X25.188103 Y41.724138 Z-1.000000 I0.024412 J0.073228
G01 X25.210112 Y41.778548 Z-1.000000
G02 X25.307532 Y41.789363 Z-1.000000 I0.060326 J-0.099230
G02 X25.447890 Y41.698378 Z-1.000000 I-0.107970 J-0.320315
G02 X25.484582 Y41.576920 Z-1.000000 I-0.106628 J-0.098483
G02 X25.414590 Y41.490663 Z-1.000000 I-0.109848 J0.017609
G02 X25.323335 Y41.488986 Z-1.000000 I-0.047940 J0.124946
G01 X25.309913 Y41.526473 Z-1.000000
G01 X25.309922 Y41.526466 Z-1.000000
G00 Z5.000000

(End cutting path id: path50)


(Start cutting path id: path50)
(Change tool to Default tool)

G00 Z5.000000
G00 X25.061327 Y42.438891

G01 Z-1.000000 F100.0(Penetrate)
G02 X24.915900 Y42.809202 Z-1.000000 I0.351914 J0.351914 F400.000000
G02 X25.080907 Y42.968218 Z-1.000000 I0.165007 J-0.006104
G02 X25.214835 Y42.930407 Z-1.000000 I-0.000000 J-0.256096
G02 X25.384167 Y42.782156 Z-1.000000 I-0.350296 J-0.570938
G02 X25.395706 Y42.696621 Z-1.000000 I-0.064177 J-0.052204
G01 X25.335317 Y42.671186 Z-1.000000
G03 X25.230690 Y42.645656 Z-1.000000 I-0.033581 J-0.089533
G03 X25.204903 Y42.526418 Z-1.000000 I0.091158 J-0.082122
G02 X25.167411 Y42.426208 Z-1.000000 I-0.082601 J-0.026215
G02 X25.061323 Y42.438888 Z-1.000000 I-0.044983 J0.073787
G01 X25.061327 Y42.438891 Z-1.000000
G00 Z5.000000

(End cutting path id: path50)


(Start cutting path id: path50)
(Change tool to Default tool)

G00 Z5.000000
G00 X25.726514 Y42.527112

G01 Z-1.000000 F100.0(Penetrate)
G02 X25.751312 Y42.720095 Z-1.000000 I0.763333 J-0.000000 F400.000000
G01 X25.776944 Y42.720096 Z-1.000000
G02 X25.801746 Y42.527113 Z-1.000000 I-0.738409 J-0.192983
G02 X25.776944 Y42.334129 Z-1.000000 I-0.763211 J-0.000000
G01 X25.751312 Y42.334130 Z-1.000000
G02 X25.726514 Y42.527112 Z-1.000000 I0.738524 J0.192982
G01 X25.726514 Y42.527112 Z-1.000000
G00 Z5.000000

(End cutting path id: path50)


(Start cutting path id: path50)
(Change tool to Default tool)

G00 Z5.000000
G00 X25.938895 Y42.747658

G01 Z-1.000000 F100.0(Penetrate)
G02 X25.965657 Y42.885503 Z-1.000000 I0.368385 J-0.000000 F400.000000
G01 X25.994515 Y42.885503 Z-1.000000
G02 X26.021275 Y42.747654 Z-1.000000 I-0.341671 J-0.137849
G02 X25.994515 Y42.609813 Z-1.000000 I-0.368388 J-0.000000
G01 X25.965656 Y42.609813 Z-1.000000
G02 X25.938895 Y42.747658 Z-1.000000 I0.341638 J0.137845
G01 X25.938895 Y42.747658 Z-1.000000
G00 Z5.000000

(End cutting path id: path50)


(Start cutting path id: path50)
(Change tool to Default tool)

G00 Z5.000000
G00 X26.748557 Y42.527099

G01 Z-1.000000 F100.0(Penetrate)
G03 X26.903681 Y42.727918 Z-1.000000 I-1.209644 J1.094717 F400.000000
G01 X26.893016 Y42.747652 Z-1.000000
G03 X26.845698 Y42.730013 Z-1.000000 I-0.000000 J-0.072288
G03 X26.638281 Y42.527099 Z-1.000000 I1.562792 J-1.804936
G03 X26.483157 Y42.326281 Z-1.000000 I1.209669 J-1.094739
G01 X26.493822 Y42.306547 Z-1.000000
G03 X26.541140 Y42.324186 Z-1.000000 I0.000000 J0.072288
G03 X26.748557 Y42.527099 Z-1.000000 I-1.562833 J1.804985
G01 X26.748557 Y42.527099 Z-1.000000
G00 Z5.000000

(End cutting path id: path50)


(Start cutting path id: path50)
(Change tool to Default tool)

G00 Z5.000000
G00 X27.465353 Y42.083826

G01 Z-1.000000 F100.0(Penetrate)
G02 X27.523570 Y42.310973 Z-1.000000 I0.472244 J0.000000 F400.000000
G02 X27.747251 Y42.597648 Z-1.000000 I0.995555 J-0.546191
G03 X27.827334 Y42.904379 Z-1.000000 I-0.200285 J0.216111
G03 X27.596691 Y43.063463 Z-1.000000 I-0.219010 J-0.070788
G01 X27.552621 Y43.031419 Z-1.000000
G01 X27.571591 Y42.997573 Z-1.000000
G02 X27.603466 Y42.917215 Z-1.000000 I-0.009408 J-0.050233
G02 X27.379239 Y42.733985 Z-1.000000 I-0.463186 J0.338010
G03 X26.951833 Y42.478723 Z-1.000000 I0.957605 J-2.088849
G03 X26.736510 Y42.248495 Z-1.000000 I0.555310 J-0.735164
G02 X26.428244 Y42.084534 Z-1.000000 I-0.303512 J0.198869
G02 X26.224597 Y42.255195 Z-1.000000 I0.002754 J0.210120
G02 X26.208558 Y42.464119 Z-1.000000 I0.918412 J0.175583
G01 X26.232397 Y42.473505 Z-1.000000
G01 X26.293931 Y42.468512 Z-1.000000
G03 X26.702452 Y42.811545 Z-1.000000 I-2.077879 J2.889333
G02 X27.444239 Y43.171297 Z-1.000000 I0.910188 J-0.932119
G02 X28.229211 Y43.010564 Z-1.000000 I0.159071 J-1.220297
G02 X28.442963 Y42.628220 Z-1.000000 I-0.221309 J-0.374645
G02 X28.216921 Y42.315927 Z-1.000000 I-0.336987 J0.005963
G03 X27.881703 Y42.166489 Z-1.000000 I0.720508 J-2.066940
G03 X27.665540 Y42.012356 Z-1.000000 I0.552486 J-1.003472
G02 X27.534169 Y41.986224 Z-1.000000 I-0.087523 J0.096712
G02 X27.465395 Y42.083796 Z-1.000000 I0.034828 J0.097572
G01 X27.465353 Y42.083826 Z-1.000000
G00 Z5.000000

(End cutting path id: path50)


(Start cutting path id: path50)
(Change tool to Default tool)

G00 Z5.000000
G00 X28.398168 Y41.872771

G01 Z-1.000000 F100.0(Penetrate)
G02 X28.358477 Y41.986542 Z-1.000000 I0.237069 J0.146514 F400.000000
G02 X28.378038 Y42.042942 Z-1.000000 I0.067920 J0.008036
G01 X28.419428 Y42.042962 Z-1.000000
G02 X28.495896 Y41.925328 Z-1.000000 I-0.237750 J-0.238220
G02 X28.469305 Y41.853700 Z-1.000000 I-0.053974 J-0.020713
G02 X28.398166 Y41.872768 Z-1.000000 I-0.025444 J0.047310
G01 X28.398168 Y41.872771 Z-1.000000
G00 Z5.000000

(End cutting path id: path50)


(Start cutting path id: path50)
(Change tool to Default tool)

G00 Z5.000000
G00 X28.277166 Y42.692514

G01 Z-1.000000 F100.0(Penetrate)
G03 X28.115071 Y42.840453 Z-1.000000 I-0.228622 J-0.087726 F400.000000
G03 X28.016735 Y42.766034 Z-1.000000 I-0.021008 J-0.074419
G03 X28.086205 Y42.596572 Z-1.000000 I0.241423 J0.000000
G03 X28.252206 Y42.527102 Z-1.000000 I0.166001 J0.163596
G01 X28.291480 Y42.560895 Z-1.000000
G03 X28.277166 Y42.692517 Z-1.000000 I-0.256477 J0.038696
G01 X28.277166 Y42.692514 Z-1.000000
G00 Z5.000000

(End cutting path id: path50)


(Start cutting path id: path50)
(Change tool to Default tool)

G00 Z5.000000
G00 X29.450325 Y42.321478

G01 Z-1.000000 F100.0(Penetrate)
G01 X29.416532 Y42.360753 Z-1.000000 F400.000000
G03 X29.284911 Y42.346438 Z-1.000000 I-0.038696 J-0.256473
G02 X29.216965 Y42.388300 Z-1.000000 I-0.017988 J0.046876
G02 X29.268171 Y42.513220 Z-1.000000 I0.142970 J0.014350
G02 X29.410420 Y42.546555 Z-1.000000 I0.104551 J-0.125971
G02 X29.599458 Y42.434830 Z-1.000000 I-0.085163 J-0.359883
G02 X29.664299 Y42.285303 Z-1.000000 I-0.188444 J-0.170540
G01 X29.616198 Y42.233046 Z-1.000000
G02 X29.483492 Y42.266215 Z-1.000000 I-0.000000 J0.282058
G02 X29.450325 Y42.321486 Z-1.000000 I0.029470 J0.055271
G01 X29.450325 Y42.321478 Z-1.000000
G00 Z5.000000

(End cutting path id: path50)


(Start cutting path id: path50)
(Change tool to Default tool)

G00 Z5.000000
G00 X30.409553 Y42.554677

G01 Z-1.000000 F100.0(Penetrate)
G02 X30.275503 Y42.724715 Z-1.000000 I0.246692 J0.332340 F400.000000
G02 X30.126649 Y43.218332 Z-1.000000 I2.158863 J0.920273
G02 X30.131354 Y43.576168 Z-1.000000 I0.903679 J0.167066
G01 X30.208559 Y43.604299 Z-1.000000
G02 X30.376695 Y43.454399 Z-1.000000 I-1.063132 J-1.361710
G02 X30.467971 Y43.340717 Z-1.000000 I-0.515663 J-0.507514
G03 X30.992070 Y43.078522 Z-1.000000 I0.485115 J0.314785
G03 X31.548296 Y43.413717 Z-1.000000 I-0.047873 J0.708543
G01 X31.608371 Y43.421119 Z-1.000000
G02 X31.676031 Y43.289354 Z-1.000000 I-0.162079 J-0.166480
G03 X31.764318 Y43.093295 Z-1.000000 I0.394095 J0.059556
G03 X31.870124 Y43.057147 Z-1.000000 I0.082692 J0.069120
G01 X31.913529 Y43.023621 Z-1.000000
G02 X31.875824 Y42.912334 Z-1.000000 I-0.164038 J-0.006454
G02 X31.737816 Y42.845378 Z-1.000000 I-0.142706 J0.118435
G02 X31.631125 Y42.906134 Z-1.000000 I-0.003010 J0.118770
G03 X31.440394 Y43.009558 Z-1.000000 I-0.177171 J-0.099150
G03 X31.323372 Y42.885534 Z-1.000000 I0.008375 J-0.125122
G02 X31.294792 Y42.700709 Z-1.000000 I-0.648588 J0.005671
G02 X31.213250 Y42.527136 Z-1.000000 I-0.651787 J0.200260
G01 X31.170356 Y42.534656 Z-1.000000
G02 X31.160880 Y42.747689 Z-1.000000 I0.553060 J0.131328
G03 X31.170233 Y42.975848 Z-1.000000 I-1.095736 J0.159187
G01 X31.146370 Y42.980300 Z-1.000000
G02 X30.835559 Y42.497245 Z-1.000000 I-1.864413 J0.858095
G02 X30.659973 Y42.416860 Z-1.000000 I-0.175586 J0.151575
G02 X30.600349 Y42.432188 Z-1.000000 I0.000000 J0.123629
G02 X30.409592 Y42.554705 Z-1.000000 I0.808569 J1.468692
G01 X30.409553 Y42.554677 Z-1.000000
G00 Z5.000000

(End cutting path id: path50)


(Start cutting path id: path50)
(Change tool to Default tool)

G00 Z5.000000
G00 X30.663365 Y42.846139

G01 Z-1.000000 F100.0(Penetrate)
G03 X30.630310 Y42.921895 Z-1.000000 I-0.103338 J0.000000 F400.000000
G03 X30.482353 Y43.014078 Z-1.000000 I-0.312663 J-0.337008
G01 X30.429511 Y42.991601 Z-1.000000
G03 X30.440713 Y42.915598 Z-1.000000 I0.068092 J-0.028790
G03 X30.606659 Y42.804430 Z-1.000000 I0.270721 J0.224678
G01 X30.663361 Y42.846138 Z-1.000000
G01 X30.663365 Y42.846139 Z-1.000000
G00 Z5.000000

(End cutting path id: path50)


(Start cutting path id: path50)
(Change tool to Default tool)

G00 Z5.000000
G00 X31.452711 Y42.306556

G01 Z-1.000000 F100.0(Penetrate)
G02 X31.479473 Y42.444401 Z-1.000000 I0.368385 J-0.000000 F400.000000
G01 X31.508331 Y42.444401 Z-1.000000
G02 X31.535091 Y42.306551 Z-1.000000 I-0.341673 J-0.137850
G02 X31.508331 Y42.168710 Z-1.000000 I-0.368389 J-0.000000
G01 X31.479473 Y42.168710 Z-1.000000
G02 X31.452711 Y42.306556 Z-1.000000 I0.341626 J0.137846
G01 X31.452711 Y42.306556 Z-1.000000
G00 Z5.000000

(End cutting path id: path50)


(Start cutting path id: path50)
(Change tool to Default tool)

G00 Z5.000000
G00 X31.668644 Y42.259766

G01 Z-1.000000 F100.0(Penetrate)
G02 X31.714441 Y42.465243 Z-1.000000 I0.387246 J0.021532 F400.000000
G02 X31.931543 Y42.747663 Z-1.000000 I0.976761 J-0.526200
G02 X32.165225 Y42.909555 Z-1.000000 I0.658594 J-0.701042
G01 X32.207234 Y42.883415 Z-1.000000
G02 X32.171520 Y42.778752 Z-1.000000 I-0.171221 J0.000000
G02 X31.999854 Y42.614915 Z-1.000000 I-0.624001 J0.481968
G03 X31.827860 Y42.445252 Z-1.000000 I0.415517 J-0.593234
G03 X31.736955 Y42.250263 Z-1.000000 I0.465886 J-0.335885
G01 X31.700183 Y42.225515 Z-1.000000
G01 X31.668645 Y42.259763 Z-1.000000
G01 X31.668644 Y42.259766 Z-1.000000
G00 Z5.000000

(End cutting path id: path50)


(Start cutting path id: path50)
(Change tool to Default tool)

G00 Z5.000000
G00 X31.677350 Y41.589763

G01 Z-1.000000 F100.0(Penetrate)
G02 X31.704989 Y41.727281 Z-1.000000 I0.378717 J-0.004579 F400.000000
G01 X31.732270 Y41.725510 Z-1.000000
G02 X31.755830 Y41.532200 Z-1.000000 I-0.707140 J-0.184274
G02 X31.728170 Y41.394681 Z-1.000000 I-0.378991 J0.004687
G01 X31.700894 Y41.396451 Z-1.000000
G02 X31.677330 Y41.589763 Z-1.000000 I0.707340 J0.184314
G01 X31.677350 Y41.589763 Z-1.000000
G00 Z5.000000

(End cutting path id: path50)


(Start cutting path id: path50)
(Change tool to Default tool)

G00 Z5.000000
G00 X31.325023 Y41.093516

G01 Z-1.000000 F100.0(Penetrate)
G02 X31.357319 Y41.171490 Z-1.000000 I0.110276 J0.000000 F400.000000
G02 X31.435299 Y41.203792 Z-1.000000 I0.077980 J-0.077974
G02 X31.513274 Y41.171496 Z-1.000000 I0.000000 J-0.110278
G02 X31.545576 Y41.093516 Z-1.000000 I-0.077973 J-0.077980
G02 X31.513275 Y41.015538 Z-1.000000 I-0.110275 J-0.000000
G02 X31.435299 Y40.983240 Z-1.000000 I-0.077976 J0.077980
G02 X31.357325 Y41.015536 Z-1.000000 I-0.000000 J0.110276
G02 X31.325023 Y41.093516 Z-1.000000 I0.077974 J0.077980
G01 X31.325023 Y41.093516 Z-1.000000
G00 Z5.000000

(End cutting path id: path50)


(Start cutting path id: path50)
(Change tool to Default tool)

G00 Z5.000000
G00 X30.842403 Y41.373463

G01 Z-1.000000 F100.0(Penetrate)
G02 X30.789720 Y41.555181 Z-1.000000 I1.049537 J0.402775 F400.000000
G02 X30.780633 Y41.681479 Z-1.000000 I0.493557 J0.098986
G01 X30.807351 Y41.690347 Z-1.000000
G02 X30.893279 Y41.546173 Z-1.000000 I-0.412225 J-0.343379
G02 X30.970115 Y41.287958 Z-1.000000 I-1.371933 J-0.548781
G02 X30.955049 Y41.238157 Z-1.000000 I-0.054025 J-0.010835
G01 X30.920823 Y41.239718 Z-1.000000
G02 X30.842403 Y41.373463 Z-1.000000 I0.365048 J0.303904
G01 X30.842403 Y41.373463 Z-1.000000
G00 Z5.000000

(End cutting path id: path50)


(Start cutting path id: path50)
(Change tool to Default tool)

G00 Z5.000000
G00 X30.497951 Y41.334884

G01 Z-1.000000 F100.0(Penetrate)
G01 X30.277398 Y41.563168 Z-1.000000 F400.000000
G01 X30.525520 Y41.434727 Z-1.000000
G02 X30.737350 Y41.284207 Z-1.000000 I-0.427641 J-0.826145
G02 X30.773641 Y41.199889 Z-1.000000 I-0.079806 J-0.084318
G01 X30.725107 Y41.169614 Z-1.000000
G02 X30.497951 Y41.334884 Z-1.000000 I0.357522 J0.730142
G01 X30.497951 Y41.334884 Z-1.000000
G00 Z5.000000

(End cutting path id: path50)


(Start cutting path id: path50)
(Change tool to Default tool)

G00 Z5.000000
G00 X30.277398 Y41.755166

G01 Z-1.000000 F100.0(Penetrate)
G01 X30.316337 Y41.825009 Z-1.000000 F400.000000
G02 X30.553089 Y41.755166 Z-1.000000 I0.000000 J-0.436190
G02 X30.581727 Y41.687943 Z-1.000000 I-0.035416 J-0.054800
G02 X30.532029 Y41.646578 Z-1.000000 I-0.050161 J0.009729
G02 X30.364887 Y41.679944 Z-1.000000 I-0.003768 J0.416445
G02 X30.277399 Y41.755166 Z-1.000000 I0.074879 J0.175577
G01 X30.277398 Y41.755166 Z-1.000000
G00 Z5.000000

(End cutting path id: path50)


(Start cutting path id: path50)
(Change tool to Default tool)

G00 Z5.000000
G00 X29.678629 Y40.783752

G01 Z-1.000000 F100.0(Penetrate)
G02 X29.701905 Y40.924476 Z-1.000000 I0.649818 J-0.035196 F400.000000
G02 X29.781154 Y41.148658 Z-1.000000 I1.733981 J-0.486865
G01 X29.836399 Y41.163525 Z-1.000000
G02 X29.883680 Y41.072458 Z-1.000000 I-0.069962 J-0.094131
G02 X29.849557 Y40.798350 Z-1.000000 I-0.922728 J-0.024310
G02 X29.781154 Y40.707552 Z-1.000000 I-0.150695 J0.042362
G02 X29.713042 Y40.710466 Z-1.000000 I-0.031910 J0.051623
G02 X29.678629 Y40.783752 Z-1.000000 I0.051058 J0.068697
G01 X29.678629 Y40.783752 Z-1.000000
G00 Z5.000000

(End cutting path id: path50)


(Start cutting path id: path50)
(Change tool to Default tool)

G00 Z5.000000
G00 X29.178408 Y41.087416

G01 Z-1.000000 F100.0(Penetrate)
G02 X29.183151 Y41.161065 Z-1.000000 I0.054185 J0.033488 F400.000000
G02 X29.272918 Y41.203798 Z-1.000000 I0.089767 J-0.072918
G03 X29.415012 Y41.247357 Z-1.000000 I-0.000000 J0.253540
G03 X29.558089 Y41.396782 Z-1.000000 I-0.275281 J0.406800
G01 X29.613060 Y41.404326 Z-1.000000
G02 X29.646279 Y41.315202 Z-1.000000 I-0.071655 J-0.077460
G02 X29.433496 Y41.013491 Z-1.000000 I-0.380260 J0.042292
G02 X29.178406 Y41.087417 Z-1.000000 I-0.086667 J0.178017
G01 X29.178408 Y41.087416 Z-1.000000
G00 Z5.000000

(End cutting path id: path50)


(Start cutting path id: path50)
(Change tool to Default tool)

G00 Z5.000000
G00 X28.427748 Y40.755561

G01 Z-1.000000 F100.0(Penetrate)
G02 X28.431178 Y40.938581 Z-1.000000 I0.326623 J0.085421 F400.000000
G02 X28.507948 Y41.021184 Z-1.000000 I0.122689 J-0.037050
G02 X28.575562 Y40.991619 Z-1.000000 I0.018823 J-0.049049
G02 X28.593178 Y40.807753 Z-1.000000 I-0.305653 J-0.122062
G02 X28.507537 Y40.711484 Z-1.000000 I-0.123457 J0.023600
G02 X28.427746 Y40.755563 Z-1.000000 I-0.018927 J0.059995
G01 X28.427748 Y40.755561 Z-1.000000
G00 Z5.000000

(End cutting path id: path50)


(Start cutting path id: path50)
(Change tool to Default tool)

G00 Z5.000000
G00 X28.788667 Y39.659924

G01 Z-1.000000 F100.0(Penetrate)
G02 X28.590715 Y39.870580 Z-1.000000 I0.513766 J0.681116 F400.000000
G02 X28.598496 Y39.947616 Z-1.000000 I0.051063 J0.033754
G02 X28.679477 Y39.959833 Z-1.000000 I0.048770 J-0.048770
G02 X28.911197 Y39.782453 Z-1.000000 I-0.408918 J-0.774230
G02 X28.909178 Y39.668322 Z-1.000000 I-0.060130 J-0.056020
G02 X28.788667 Y39.659924 Z-1.000000 I-0.065083 J0.065084
G01 X28.788667 Y39.659924 Z-1.000000
G00 Z5.000000

(End cutting path id: path50)


(Start cutting path id: path50)
(Change tool to Default tool)

G00 Z5.000000
G00 X27.649145 Y39.623170

G01 Z-1.000000 F100.0(Penetrate)
G02 X27.595609 Y39.704958 Z-1.000000 I0.169113 J0.169113 F400.000000
G02 X27.575625 Y39.810640 Z-1.000000 I0.269454 J0.105682
G01 X27.610203 Y39.841112 Z-1.000000
G02 X27.706118 Y39.794100 Z-1.000000 I-0.020746 J-0.163678
G02 X27.791533 Y39.663606 Z-1.000000 I-0.269798 J-0.269798
G02 X27.779638 Y39.606630 Z-1.000000 I-0.049472 J-0.019402
G02 X27.722657 Y39.587136 Z-1.000000 I-0.048374 J0.048374
G02 X27.649145 Y39.623170 Z-1.000000 I0.015912 J0.125464
G01 X27.649145 Y39.623170 Z-1.000000
G00 Z5.000000

(End cutting path id: path50)


(Start cutting path id: path50)
(Change tool to Default tool)

G00 Z5.000000
G00 X30.493416 Y40.328913

G01 Z-1.000000 F100.0(Penetrate)
G02 X30.453725 Y40.442684 Z-1.000000 I0.237069 J0.146514 F400.000000
G02 X30.473286 Y40.499084 Z-1.000000 I0.067920 J0.008036
G01 X30.514676 Y40.499104 Z-1.000000
G02 X30.591143 Y40.381471 Z-1.000000 I-0.237744 J-0.238214
G02 X30.564551 Y40.309843 Z-1.000000 I-0.053974 J-0.020713
G02 X30.493413 Y40.328911 Z-1.000000 I-0.025443 J0.047310
G01 X30.493416 Y40.328913 Z-1.000000
G00 Z5.000000

(End cutting path id: path50)


(Start cutting path id: path50)
(Change tool to Default tool)

G00 Z5.000000
G00 X30.994194 Y39.335603

G01 Z-1.000000 F100.0(Penetrate)
G03 X30.959100 Y39.389437 Z-1.000000 I-0.058838 J0.000000 F400.000000
G03 X30.883918 Y39.384233 Z-1.000000 I-0.032647 J-0.074022
G02 X30.804026 Y39.370581 Z-1.000000 I-0.056821 J0.091923
G01 X30.773641 Y39.408323 Z-1.000000
G02 X30.923931 Y39.840459 Z-1.000000 I0.696415 J0.000000
G02 X31.234503 Y39.990750 Z-1.000000 I0.310572 J-0.245748
G01 X31.267509 Y39.951060 Z-1.000000
G02 X31.200683 Y39.808394 Z-1.000000 I-0.307389 J0.057000
G03 X31.095905 Y39.613528 Z-1.000000 I0.429779 J-0.356692
G03 X31.083836 Y39.422427 Z-1.000000 I0.400421 J-0.121219
G02 X31.086795 Y39.245503 Z-1.000000 I-0.579586 J-0.098179
G01 X31.056256 Y39.218815 Z-1.000000
G01 X31.017486 Y39.242115 Z-1.000000
G02 X30.994186 Y39.335600 Z-1.000000 I0.175892 J0.093485
G01 X30.994194 Y39.335603 Z-1.000000
G00 Z5.000000

(End cutting path id: path50)


(Start cutting path id: path50)
(Change tool to Default tool)

G00 Z5.000000
G00 X31.766128 Y40.411843

G01 Z-1.000000 F100.0(Penetrate)
G02 X31.879216 Y40.636699 Z-1.000000 I0.280088 J0.000000 F400.000000
G02 X32.051821 Y40.624025 Z-1.000000 I0.078961 J-0.106317
G01 X32.057435 Y40.575634 Z-1.000000
G02 X31.934208 Y40.434066 Z-1.000000 I-0.495190 J0.306620
G02 X31.805144 Y40.377649 Z-1.000000 I-0.162397 J0.195677
G01 X31.766128 Y40.411846 Z-1.000000
G01 X31.766128 Y40.411843 Z-1.000000
G00 Z5.000000

(End cutting path id: path50)


(Start cutting path id: path50)
(Change tool to Default tool)

G00 Z5.000000
G00 X32.277631 Y41.148656

G01 Z-1.000000 F100.0(Penetrate)
G02 X32.352913 Y41.296897 Z-1.000000 I0.751153 J-0.288226 F400.000000
G01 X32.384447 Y41.314071 Z-1.000000
G01 X32.408912 Y41.295190 Z-1.000000
G02 X32.427787 Y41.148656 Z-1.000000 I-0.559348 J-0.146534
G02 X32.390122 Y41.020902 Z-1.000000 I-0.235494 J0.000000
G02 X32.320972 Y40.983242 Z-1.000000 I-0.069150 J0.044656
G02 X32.270652 Y41.022078 Z-1.000000 I0.000000 J0.052019
G02 X32.277632 Y41.148656 Z-1.000000 I0.200175 J0.052443
G01 X32.277631 Y41.148656 Z-1.000000
G00 Z5.000000

(End cutting path id: path50)


(Start cutting path id: path50)
(Change tool to Default tool)

G00 Z5.000000
G00 X33.491437 Y41.479216

G01 Z-1.000000 F100.0(Penetrate)
G02 X33.334662 Y41.770407 Z-1.000000 I0.406835 J0.406835 F400.000000
G02 X33.412187 Y41.865454 Z-1.000000 I0.077525 J0.015907
G02 X33.484246 Y41.828774 Z-1.000000 I0.000000 J-0.089121
G02 X33.552620 Y41.672471 Z-1.000000 I-0.320723 J-0.233405
G03 X33.611778 Y41.592522 Z-1.000000 I0.114172 J0.022620
G01 X33.671996 Y41.608441 Z-1.000000
G03 X33.687550 Y41.730030 Z-1.000000 I-0.123296 J0.077562
G03 X33.574446 Y41.916080 Z-1.000000 I-0.438053 J-0.138899
G02 X33.574235 Y42.001306 Z-1.000000 I0.042719 J0.042719
G02 X33.697240 Y42.040096 Z-1.000000 I0.098318 J-0.097349
G02 X33.961150 Y41.861239 Z-1.000000 I-0.070342 J-0.387925
G02 X33.991849 Y41.569086 Z-1.000000 I-0.283799 J-0.177511
G02 X33.901102 Y41.413447 Z-1.000000 I-0.477122 J0.173917
G01 X33.868397 Y41.424348 Z-1.000000
G03 X33.827454 Y41.470697 Z-1.000000 I-0.050281 J-0.003159
G03 X33.765440 Y41.443768 Z-1.000000 I-0.011160 J-0.059169
G02 X33.662088 Y41.395298 Z-1.000000 I-0.089721 J0.056888
G02 X33.491438 Y41.479218 Z-1.000000 I0.037829 J0.292392
G01 X33.491437 Y41.479216 Z-1.000000
G00 Z5.000000

(End cutting path id: path50)


(Start cutting path id: path50)
(Change tool to Default tool)

G00 Z5.000000
G00 X32.538063 Y42.625586

G01 Z-1.000000 F100.0(Penetrate)
G02 X32.683943 Y42.876011 Z-1.000000 I0.287886 J0.000000 F400.000000
G02 X33.024661 Y42.901517 Z-1.000000 I0.197369 J-0.348056
G03 X33.142597 Y42.915192 Z-1.000000 I0.045895 J0.119587
G03 X33.232421 Y43.042824 Z-1.000000 I-0.124510 J0.183051
G01 X33.265276 Y43.054625 Z-1.000000
G02 X33.297201 Y42.995784 Z-1.000000 I-0.045632 J-0.062840
G02 X33.221362 Y42.831842 Z-1.000000 I-0.193550 J-0.009977
G02 X32.972656 Y42.747662 Z-1.000000 I-0.248706 J0.325306
G03 X32.724585 Y42.697892 Z-1.000000 I0.000000 J-0.643122
G01 X32.704585 Y42.635587 Z-1.000000
G03 X32.786800 Y42.578359 Z-1.000000 I0.107107 J0.066204
G03 X32.893546 Y42.597487 Z-1.000000 I0.029169 J0.144639
G01 X32.932196 Y42.590418 Z-1.000000
G01 X32.934556 Y42.544147 Z-1.000000
G02 X32.690381 Y42.438798 Z-1.000000 I-0.197469 J0.122043
G02 X32.538059 Y42.625587 Z-1.000000 I0.038366 J0.186789
G01 X32.538063 Y42.625586 Z-1.000000
G00 Z5.000000

(End cutting path id: path50)


(Start cutting path id: path50)
(Change tool to Default tool)

G00 Z5.000000
G00 X33.423627 Y43.128114

G01 Z-1.000000 F100.0(Penetrate)
G02 X33.475090 Y43.323017 Z-1.000000 I0.380236 J0.003847 F400.000000
G01 X33.541977 Y43.331726 Z-1.000000
G02 X33.596793 Y43.201311 Z-1.000000 I-0.132363 J-0.132363
G02 X33.545377 Y43.006411 Z-1.000000 I-0.380110 J-0.003955
G01 X33.478481 Y42.997703 Z-1.000000
G02 X33.423674 Y43.128114 Z-1.000000 I0.132339 J0.132339
G01 X33.423627 Y43.128114 Z-1.000000
G00 Z5.000000

(End cutting path id: path50)


(Start cutting path id: path50)
(Change tool to Default tool)

G00 Z5.000000
G00 X33.751102 Y43.195280

G01 Z-1.000000 F100.0(Penetrate)
G02 X33.786197 Y43.249112 Z-1.000000 I0.058833 J0.000000 F400.000000
G02 X33.861379 Y43.243910 Z-1.000000 I0.032648 J-0.074037
G02 X33.955831 Y43.166929 Z-1.000000 I-0.246760 J-0.399200
G02 X33.971655 Y43.127126 Z-1.000000 I-0.042149 J-0.039803
G01 X33.952462 Y43.097687 Z-1.000000
G02 X33.861379 Y43.078496 Z-1.000000 I-0.091083 J0.206555
G02 X33.784324 Y43.111713 Z-1.000000 I0.000000 J0.105983
G02 X33.751102 Y43.195280 Z-1.000000 I0.088493 J0.083567
G01 X33.751102 Y43.195280 Z-1.000000
G00 Z5.000000

(End cutting path id: path50)


(Start cutting path id: path50)
(Change tool to Default tool)

G00 Z5.000000
G00 X34.192208 Y43.513087

G01 Z-1.000000 F100.0(Penetrate)
G02 X34.218223 Y43.602351 Z-1.000000 I0.166148 J-0.000000 F400.000000
G02 X34.301221 Y43.684229 Z-1.000000 I0.220361 J-0.140369
G01 X34.343233 Y43.670736 Z-1.000000
G02 X34.344561 Y43.580461 Z-1.000000 I-0.112012 J-0.046795
G02 X34.246711 Y43.477598 Z-1.000000 I-0.172628 J0.066243
G01 X34.192208 Y43.513091 Z-1.000000
G01 X34.192208 Y43.513087 Z-1.000000
G00 Z5.000000

(End cutting path id: path50)


(Start cutting path id: path50)
(Change tool to Default tool)

G00 Z5.000000
G00 X34.412760 Y43.078490

G01 Z-1.000000 F100.0(Penetrate)
G02 X34.445977 Y43.155544 Z-1.000000 I0.105981 J0.000000 F400.000000
G02 X34.529545 Y43.188766 Z-1.000000 I0.083568 J-0.088495
G02 X34.583377 Y43.153671 Z-1.000000 I-0.000000 J-0.058834
G02 X34.578175 Y43.078490 Z-1.000000 I-0.074036 J-0.032648
G02 X34.501194 Y42.984038 Z-1.000000 I-0.399197 J0.246758
G02 X34.461390 Y42.968214 Z-1.000000 I-0.039804 J0.042151
G01 X34.431951 Y42.987407 Z-1.000000
G02 X34.412760 Y43.078490 Z-1.000000 I0.206555 J0.091083
G01 X34.412760 Y43.078490 Z-1.000000
G00 Z5.000000

(End cutting path id: path50)


(Start cutting path id: path50)
(Change tool to Default tool)

G00 Z5.000000
G00 X34.636820 Y42.816861

G01 Z-1.000000 F100.0(Penetrate)
G02 X34.660758 Y42.905798 Z-1.000000 I0.204459 J-0.007341 F400.000000
G02 X34.802235 Y43.127132 Z-1.000000 I1.472370 J-0.785260
G02 X34.918107 Y43.204017 Z-1.000000 I0.167516 J-0.126702
G01 X34.964142 Y43.168202 Z-1.000000
G02 X34.925450 Y43.013385 Z-1.000000 I-0.329082 J-0.000000
G02 X34.798728 Y42.857931 Z-1.000000 I-0.458718 J0.244559
G02 X34.668189 Y42.791527 Z-1.000000 I-0.212293 J0.255820
G01 X34.636820 Y42.816861 Z-1.000000
G01 X34.636820 Y42.816861 Z-1.000000
G00 Z5.000000

(End cutting path id: path50)


(Start cutting path id: path50)
(Change tool to Default tool)

G00 Z5.000000
G00 X34.964142 Y43.506587

G01 Z-1.000000 F100.0(Penetrate)
G02 X34.991183 Y43.601783 Z-1.000000 I0.181083 J0.000000 F400.000000
G02 X35.074418 Y43.685018 Z-1.000000 I0.217887 J-0.134650
G02 X35.150723 Y43.692241 Z-1.000000 I0.045456 J-0.073536
G02 X35.184695 Y43.642898 Z-1.000000 I-0.018849 J-0.049343
G02 X35.157654 Y43.547703 Z-1.000000 I-0.181083 J-0.000000
G02 X35.074418 Y43.464467 Z-1.000000 I-0.217886 J0.134650
G02 X34.998114 Y43.457244 Z-1.000000 I-0.045455 J0.073535
G02 X34.964142 Y43.506587 Z-1.000000 I0.018849 J0.049343
G01 X34.964142 Y43.506587 Z-1.000000
G00 Z5.000000

(End cutting path id: path50)


(Start cutting path id: path50)
(Change tool to Default tool)

G00 Z5.000000
G00 X33.772601 Y44.236392

G01 Z-1.000000 F100.0(Penetrate)
G02 X33.800240 Y44.373910 Z-1.000000 I0.378717 J-0.004579 F400.000000
G01 X33.827521 Y44.372139 Z-1.000000
G02 X33.851081 Y44.178829 Z-1.000000 I-0.707140 J-0.184274
G02 X33.823421 Y44.041310 Z-1.000000 I-0.378991 J0.004687
G01 X33.796145 Y44.043080 Z-1.000000
G02 X33.772581 Y44.236392 Z-1.000000 I0.707340 J0.184314
G01 X33.772601 Y44.236392 Z-1.000000
G00 Z5.000000

(End cutting path id: path50)


(Start cutting path id: path50)
(Change tool to Default tool)

G00 Z5.000000
G00 X33.756699 Y45.339155

G01 Z-1.000000 F100.0(Penetrate)
G02 X33.801331 Y45.620196 Z-1.000000 I0.879219 J0.004437 F400.000000
G01 X33.851899 Y45.626408 Z-1.000000
G03 X33.929136 Y45.600121 Z-1.000000 I0.054929 J0.034779
G03 X34.002833 Y45.681548 Z-1.000000 I-0.040422 J0.110648
G01 X34.036554 Y45.703089 Z-1.000000
G01 X34.065233 Y45.669988 Z-1.000000
G02 X34.038520 Y45.458129 Z-1.000000 I-0.646400 J-0.026111
G02 X33.916518 Y45.173744 Z-1.000000 I-1.302518 J0.390424
G02 X33.828521 Y45.162737 Z-1.000000 I-0.048128 J0.027513
G02 X33.756700 Y45.339159 Z-1.000000 I0.183932 J0.177708
G01 X33.756699 Y45.339155 Z-1.000000
G00 Z5.000000

(End cutting path id: path50)


(Start cutting path id: path50)
(Change tool to Default tool)

G00 Z5.000000
G00 X33.265887 Y45.460459

G01 Z-1.000000 F100.0(Penetrate)
G02 X33.226421 Y45.639630 Z-1.000000 I0.574519 J0.220483 F400.000000
G02 X33.249667 Y45.701551 Z-1.000000 I0.079791 J0.005369
G01 X33.293009 Y45.701187 Z-1.000000
G02 X33.376163 Y45.570735 Z-1.000000 I-0.278397 J-0.269188
G02 X33.415629 Y45.391564 Z-1.000000 I-0.574519 J-0.220483
G02 X33.392383 Y45.329643 Z-1.000000 I-0.079791 J-0.005369
G01 X33.349041 Y45.330007 Z-1.000000
G02 X33.265888 Y45.460459 Z-1.000000 I0.278392 J0.269183
G01 X33.265887 Y45.460459 Z-1.000000
G00 Z5.000000

(End cutting path id: path50)


(Start cutting path id: path50)
(Change tool to Default tool)

G00 Z5.000000
G00 X32.979168 Y45.284017

G01 Z-1.000000 F100.0(Penetrate)
G02 X32.953068 Y45.350480 Z-1.000000 I0.033220 J0.051402 F400.000000
G02 X33.006738 Y45.392604 Z-1.000000 I0.054159 J-0.013751
G02 X33.159160 Y45.353380 Z-1.000000 I0.002673 J-0.305379
G02 X33.199722 Y45.284017 Z-1.000000 I-0.039026 J-0.069363
G02 X33.149479 Y45.233774 Z-1.000000 I-0.050243 J0.000000
G02 X32.979168 Y45.284017 Z-1.000000 I-0.000000 J0.313778
G01 X32.979168 Y45.284017 Z-1.000000
G00 Z5.000000

(End cutting path id: path50)


(Start cutting path id: path50)
(Change tool to Default tool)

G00 Z5.000000
G00 X32.600495 Y45.747404

G01 Z-1.000000 F100.0(Penetrate)
G02 X32.610949 Y46.039680 Z-1.000000 I0.309680 J0.135248 F400.000000
G02 X32.820262 Y46.166221 Z-1.000000 I0.209313 J-0.109843
G03 X32.918497 Y46.226892 Z-1.000000 I-0.000000 J0.109864
G03 X32.979168 Y46.483548 Z-1.000000 I-0.512529 J0.256656
G02 X33.145965 Y46.978170 Z-1.000000 I0.816777 J0.000000
G02 X33.314412 Y46.924089 Z-1.000000 I0.074663 J-0.056817
G01 X33.351237 Y46.909102 Z-1.000000
G03 X33.495666 Y47.099509 Z-1.000000 I-0.545673 J0.563888
G03 X33.593881 Y47.444587 Z-1.000000 I-0.726994 J0.393430
G03 X33.610042 Y49.051506 Z-1.000000 I-16.555095 J0.970039
G02 X33.578683 Y50.676407 Z-1.000000 I42.487488 J1.632714
G02 X33.609550 Y51.715431 Z-1.000000 I17.395429 J0.003196
G02 X33.759668 Y52.632650 Z-1.000000 I4.527484 J-0.270103
G02 X33.876726 Y52.700464 Z-1.000000 I0.092745 J-0.025156
G02 X33.995281 Y52.578118 Z-1.000000 I-0.041545 J-0.158871
G02 X34.106174 Y51.694746 Z-1.000000 I-4.372400 J-0.997532
G02 X34.117379 Y50.742845 Z-1.000000 I-34.781211 J-0.885420
G02 X34.103274 Y50.191308 Z-1.000000 I-11.661807 J0.022283
G03 X34.096583 Y49.640216 Z-1.000000 I7.436924 J-0.365887
G03 X34.136194 Y48.867992 Z-1.000000 I14.656011 J0.364656
G01 X34.196234 Y48.096057 Z-1.000000
G01 X35.653486 Y49.503800 Z-1.000000
G01 X37.110738 Y50.911542 Z-1.000000
G01 X37.074548 Y51.709326 Z-1.000000
G03 X36.998389 Y52.491775 Z-1.000000 I-7.597518 J-0.344569
G03 X36.936397 Y52.631327 Z-1.000000 I-0.283803 J-0.042526
G02 X36.483473 Y54.027882 Z-1.000000 I1.554187 J1.275769
G02 X37.111372 Y55.538898 Z-1.000000 I2.493099 J-0.150033
G03 X37.364461 Y56.036739 Z-1.000000 I-0.819669 J0.729950
G03 X37.511035 Y57.386063 Z-1.000000 I-6.335893 J1.370876
G02 X37.638589 Y58.225442 Z-1.000000 I2.888260 J-0.009523
G02 X38.285492 Y59.904750 Z-1.000000 I12.405883 J-3.814745
G02 X38.916564 Y60.881401 Z-1.000000 I3.868487 J-1.807444
G02 X39.600411 Y61.433771 Z-1.000000 I1.850272 J-1.591188
G03 X41.642051 Y62.851525 Z-1.000000 I-5.479292 J10.069378
G03 X41.911527 Y63.442846 Z-1.000000 I-0.514040 J0.591321
G02 X42.010905 Y63.600222 Z-1.000000 I0.174300 J0.000000
G02 X43.363867 Y64.134264 Z-1.000000 I4.575631 J-9.611231
G03 X43.746281 Y64.295929 Z-1.000000 I-0.681302 J2.144728
G03 X43.901019 Y64.422398 Z-1.000000 I-0.246424 J0.459403
G02 X44.055581 Y64.552871 Z-1.000000 I0.441983 J-0.366800
G02 X44.675944 Y64.870305 Z-1.000000 I3.411993 J-5.903168
G03 X45.294004 Y65.192245 Z-1.000000 I-2.445006 J5.448169
G03 X45.506769 Y65.366747 Z-1.000000 I-0.477576 J0.799253
G02 X45.711766 Y65.537309 Z-1.000000 I0.702161 J-0.635448
G02 X45.844158 Y65.574856 Z-1.000000 I0.132392 J-0.214636
G03 X45.974317 Y65.616323 Z-1.000000 I-0.000000 J0.225009
G03 X46.232920 Y65.850547 Z-1.000000 I-0.849123 J1.197375
G02 X46.495522 Y66.076000 Z-1.000000 I0.899687 J-0.782270
G02 X46.669001 Y66.126238 Z-1.000000 I0.173479 J-0.274405
G03 X46.846223 Y66.170524 Z-1.000000 I-0.000000 J0.376742
G03 X47.062650 Y66.336073 Z-1.000000 I-0.394382 J0.739833
G02 X47.286112 Y66.502102 Z-1.000000 I0.575213 J-0.540798
G02 X47.744670 Y66.675479 Z-1.000000 I1.090796 J-2.191898
G03 X48.689658 Y67.103295 Z-1.000000 I-0.820727 J3.070458
G03 X48.858936 Y67.419988 Z-1.000000 I-0.211602 J0.316693
G02 X48.901952 Y67.520534 Z-1.000000 I0.139016 J0.000000
G02 X48.996782 Y67.551599 Z-1.000000 I0.079926 J-0.083711
G03 X49.306959 Y67.617307 Z-1.000000 I0.061588 J0.474227
G03 X49.418069 Y67.807952 Z-1.000000 I-0.120411 J0.197877
G02 X49.462267 Y67.863777 Z-1.000000 I0.059712 J-0.001866
G01 X49.520594 Y67.835522 Z-1.000000
G03 X49.590529 Y67.760189 Z-1.000000 I0.140636 J0.060431
G01 X49.626473 Y67.780382 Z-1.000000
G01 X49.668914 Y67.812107 Z-1.000000
G02 X49.749980 Y67.752812 Z-1.000000 I-0.027334 J-0.122433
G03 X49.957382 Y67.624409 Z-1.000000 I0.224347 J0.130670
G03 X50.071976 Y67.731752 Z-1.000000 I0.007021 J0.107343
G02 X50.117978 Y67.821163 Z-1.000000 I0.109892 J0.000000
G02 X50.200993 Y67.823942 Z-1.000000 I0.043597 J-0.061011
G01 X50.252539 Y67.840495 Z-1.000000
G03 X50.255863 Y67.955279 Z-1.000000 I-0.147737 J0.061719
G01 X50.279221 Y67.987123 Z-1.000000
G02 X50.347403 Y67.952279 Z-1.000000 I-0.002946 J-0.089894
G03 X50.489553 Y67.807077 Z-1.000000 I0.693743 J0.536980
G01 X50.513088 Y67.818313 Z-1.000000
G01 X50.544971 Y67.845180 Z-1.000000
G02 X50.733641 Y67.780373 Z-1.000000 I-0.105781 J-0.614988
G03 X50.911156 Y67.734188 Z-1.000000 I0.184415 J0.344575
G01 X50.954194 Y67.776473 Z-1.000000
G03 X50.921339 Y67.857773 Z-1.000000 I-0.117016 J-0.000000
G03 X50.843917 Y67.890629 Z-1.000000 I-0.077422 J-0.074790
G02 X50.767677 Y67.924662 Z-1.000000 I0.000000 J0.102411
G02 X50.733641 Y68.013589 Z-1.000000 I0.099151 J0.088927
G01 X50.779680 Y68.051344 Z-1.000000
G02 X51.003554 Y67.959699 Z-1.000000 I-0.124428 J-0.623223
G03 X51.279450 Y67.838651 Z-1.000000 I0.497893 J0.759877
G03 X51.444659 Y67.848538 Z-1.000000 I0.066992 J0.265836
G02 X51.576858 Y67.857493 Z-1.000000 I0.080638 J-0.210155
G02 X51.615852 Y67.808258 Z-1.000000 I-0.011586 J-0.049235
G03 X51.758508 Y67.654057 Z-1.000000 I0.154669 J0.000000
G03 X53.573257 Y67.655793 Z-1.000000 I0.896366 J11.506720
G02 X53.821463 Y67.674429 Z-1.000000 I2.111946 J-26.465644
G02 X54.207346 Y67.700413 Z-1.000000 I4.492831 J-63.844431
G03 X54.556626 Y67.759629 Z-1.000000 I-0.109775 J1.707196
G03 X54.593313 Y67.807932 Z-1.000000 I-0.013455 J0.048303
G01 X54.631583 Y67.852371 Z-1.000000
G02 X55.144694 Y67.890642 Z-1.000000 I0.513111 J-3.420593
G03 X55.644847 Y67.941876 Z-1.000000 I0.000000 J2.466879
G03 X55.696076 Y68.004799 Z-1.000000 I-0.013028 J0.062923
G01 X55.738047 Y68.050044 Z-1.000000
G02 X55.889060 Y68.019309 Z-1.000000 I0.021212 J-0.282133
G03 X56.121625 Y67.952894 Z-1.000000 I0.281397 J0.544976
G03 X58.177294 Y67.836551 Z-1.000000 I3.538607 J44.304663
G03 X58.825291 Y67.856917 Z-1.000000 I0.167056 J5.003608
G03 X58.966590 Y67.912721 Z-1.000000 I-0.026412 J0.273670
G02 X59.106512 Y67.983253 Z-1.000000 I0.254179 J-0.330189
G02 X59.683387 Y68.117095 Z-1.000000 I1.631658 J-5.722518
G03 X60.580478 Y68.301932 Z-1.000000 I-3.247780 J18.032229
G01 X60.603373 Y68.330753 Z-1.000000
G01 X60.611041 Y68.339812 Z-1.000000
G02 X60.989340 Y68.395343 Z-1.000000 I1.562598 J-9.328770
G03 X61.345083 Y68.496069 Z-1.000000 I-0.154495 J1.224210
G03 X61.519296 Y68.636022 Z-1.000000 I-0.186407 J0.410446
G02 X61.682902 Y68.776421 Z-1.000000 I0.398606 J-0.298968
G02 X61.819099 Y68.796379 Z-1.000000 I0.095810 J-0.179130
G03 X61.950521 Y68.821488 Z-1.000000 I0.035070 J0.172931
G03 X62.115173 Y68.989363 Z-1.000000 I-0.297586 J0.456555
G02 X62.277430 Y69.174282 Z-1.000000 I0.646916 J-0.403989
G02 X62.388068 Y69.213955 Z-1.000000 I0.110638 J-0.134436
G03 X62.501400 Y69.251222 Z-1.000000 I0.000000 J0.190956
G03 X62.664801 Y69.418013 Z-1.000000 I-0.434186 J0.588799
G02 X62.834124 Y69.563026 Z-1.000000 I0.371301 J-0.262186
G02 X63.014283 Y69.591366 Z-1.000000 I0.135179 J-0.272527
G03 X63.174613 Y69.628931 Z-1.000000 I0.032945 J0.220322
G03 X63.275267 Y69.773275 Z-1.000000 I-0.145473 J0.208708
G02 X63.367417 Y69.938553 Z-1.000000 I0.365920 J-0.095690
G02 X63.477940 Y69.985890 Z-1.000000 I0.110523 J-0.105355
G03 X63.601353 Y70.026241 Z-1.000000 I0.000000 J0.208903
G03 X63.727118 Y70.168341 Z-1.000000 I-0.263576 J0.359982
G02 X63.852843 Y70.285501 Z-1.000000 I0.245471 J-0.137378
G02 X63.986587 Y70.290406 Z-1.000000 I0.072624 J-0.154373
G03 X64.337442 Y70.421291 Z-1.000000 I0.101330 J0.264071
G03 X64.374384 Y71.016952 Z-1.000000 I-0.633775 J0.338282
G02 X64.383415 Y71.138269 Z-1.000000 I0.133131 J0.051084
G02 X64.529186 Y71.290485 Z-1.000000 I0.372477 J-0.210800
G03 X64.694186 Y71.446055 Z-1.000000 I-0.305774 J0.489595
G03 X64.738736 Y71.585831 Z-1.000000 I-0.197000 J0.139776
G02 X64.783674 Y71.695281 Z-1.000000 I0.155757 J-0.000000
G02 X64.873963 Y71.722742 Z-1.000000 I0.070496 J-0.069626
G03 X64.966780 Y71.756024 Z-1.000000 I0.018981 J0.093129
G03 X65.045950 Y71.934918 Z-1.000000 I-0.290671 J0.235603
G02 X65.367139 Y72.456737 Z-1.000000 I0.778353 J-0.119333
G02 X65.655848 Y72.369801 Z-1.000000 I0.110696 J-0.155246
G02 X65.648520 Y72.244342 Z-1.000000 I-0.142370 J-0.054628
G02 X65.500641 Y72.073912 Z-1.000000 I-0.435276 J0.228310
G03 X65.338499 Y71.897405 Z-1.000000 I0.347161 J-0.481633
G03 X65.290117 Y71.722506 Z-1.000000 I0.291933 J-0.174899
G02 X65.242086 Y71.555848 Z-1.000000 I-0.313147 J0.000000
G02 X65.124703 Y71.459361 Z-1.000000 I-0.203500 J0.127925
G03 X65.004056 Y71.364471 Z-1.000000 I0.093013 J-0.242404
G03 X64.955781 Y71.214700 Z-1.000000 I0.224579 J-0.155053
G02 X64.919950 Y71.044721 Z-1.000000 I-0.462973 J0.008827
G02 X64.790367 Y70.819454 Z-1.000000 I-0.957057 J0.400634
G03 X64.659415 Y70.595005 Z-1.000000 I0.869823 J-0.657911
G03 X64.628459 Y70.445644 Z-1.000000 I0.344844 J-0.149361
G02 X64.588398 Y70.305477 Z-1.000000 I-0.265242 J-0.000000
G02 X64.435476 Y70.135622 Z-1.000000 I-0.553420 J0.344483
G03 X64.406111 Y70.074414 Z-1.000000 I0.046799 J-0.060101
G01 X64.436676 Y70.053032 Z-1.000000
G02 X64.540387 Y70.032966 Z-1.000000 I0.034591 J-0.099265
G02 X64.562723 Y69.943026 Z-1.000000 I-0.053197 J-0.060955
G02 X64.402949 Y69.806821 Z-1.000000 I-0.205003 J0.078663
G02 X64.242442 Y69.875606 Z-1.000000 I-0.031290 J0.148648
G03 X64.061530 Y69.989261 Z-1.000000 I-0.206221 J-0.127443
G03 X63.979810 Y69.903176 Z-1.000000 I-0.007811 J-0.074415
G02 X63.931213 Y69.631598 Z-1.000000 I-0.416038 J-0.065690
G02 X63.801337 Y69.584657 Z-1.000000 I-0.092066 J0.051587
G03 X63.693613 Y69.564214 Z-1.000000 I-0.037338 J-0.097293
G03 X63.635922 Y69.433142 Z-1.000000 I0.120048 J-0.131072
G02 X63.569102 Y69.270273 Z-1.000000 I-0.231899 J0.000000
G02 X63.353996 Y69.147392 Z-1.000000 I-0.326893 J0.322518
G03 X63.097856 Y69.029983 Z-1.000000 I0.187583 J-0.747337
G03 X62.568256 Y68.593910 Z-1.000000 I2.630153 J-3.733880
G02 X62.035087 Y68.184252 Z-1.000000 I-2.140334 J2.233849
G02 X61.774259 Y68.111186 Z-1.000000 I-0.260828 J0.429017
G03 X61.487810 Y68.086301 Z-1.000000 I0.000000 J-1.661100
G03 X61.098839 Y67.992942 Z-1.000000 I0.554439 J-3.166992
G02 X59.543409 Y67.658718 Z-1.000000 I-2.712700 J8.838030
G02 X57.129618 Y67.492143 Z-1.000000 I-2.676650 J21.214502
G03 X50.801068 Y67.343608 Z-1.000000 I3.482334 J-283.263050
G03 X49.874815 Y67.240744 Z-1.000000 I0.212653 J-6.136567
G03 X49.319159 Y67.070129 Z-1.000000 I0.485112 J-2.570035
G03 X48.882328 Y66.810245 Z-1.000000 I0.795870 J-1.834826
G02 X48.454216 Y66.528411 Z-1.000000 I-1.930763 J2.466803
G02 X48.154594 Y66.412402 Z-1.000000 I-0.590444 J1.080035
G03 X47.853095 Y66.299711 Z-1.000000 I0.319797 J-1.315260
G03 X47.482527 Y66.065190 Z-1.000000 I1.153478 J-2.232653
G02 X47.119459 Y65.823008 Z-1.000000 I-2.090719 J2.741066
G02 X47.016635 Y65.795383 Z-1.000000 I-0.102824 J0.177553
G03 X46.912876 Y65.767371 Z-1.000000 I0.000000 J-0.206171
G03 X46.055396 Y65.235562 Z-1.000000 I9.146280 J-15.704513
G02 X45.192946 Y64.700842 Z-1.000000 I-10.009394 J15.181281
G02 X44.806514 Y64.508695 Z-1.000000 I-1.654373 J2.842494
G03 X44.419748 Y64.318813 Z-1.000000 I1.371798 J-3.283013
G03 X44.068880 Y64.089314 Z-1.000000 I1.664686 J-2.928009
G02 X43.715685 Y63.865763 Z-1.000000 I-1.620939 J2.170183
G02 X43.316821 Y63.691016 Z-1.000000 I-1.375926 J2.598003
G03 X42.931418 Y63.494027 Z-1.000000 I0.539504 J-1.531034
G03 X41.826376 Y62.657675 Z-1.000000 I9.482044 J-13.676484
G02 X40.735146 Y61.790555 Z-1.000000 I-24.544422 J29.767789
G02 X40.129979 Y61.358964 Z-1.000000 I-6.669878 J8.712294
G03 X38.915770 Y60.329054 Z-1.000000 I3.743359 J-5.643923
G03 X38.416738 Y59.518156 Z-1.000000 I1.772951 J-1.650087
G03 X38.393128 Y59.314803 Z-1.000000 I0.406880 J-0.150288
G01 X38.444308 Y59.294496 Z-1.000000
G01 X38.521150 Y59.251934 Z-1.000000
G02 X38.354468 Y58.625930 Z-1.000000 I-2.541540 J0.341527
G02 X38.063185 Y58.098252 Z-1.000000 I-2.380589 J0.969874
G02 X37.941442 Y58.049698 Z-1.000000 I-0.098796 J0.070814
G03 X37.850848 Y57.992361 Z-1.000000 I-0.014782 J-0.076883
G03 X37.785451 Y57.444669 Z-1.000000 I2.006610 J-0.517349
G03 X37.898864 Y56.802224 Z-1.000000 I2.046086 J0.029971
G03 X38.021301 Y56.766790 Z-1.000000 I0.073774 J0.025668
G01 X38.045667 Y56.749805 Z-1.000000
G02 X37.966161 Y56.600006 Z-1.000000 I-0.479638 J0.158572
G03 X37.764050 Y56.267206 Z-1.000000 I1.394232 J-1.074495
G03 X37.720985 Y56.072314 Z-1.000000 I0.419463 J-0.194892
G02 X37.685366 Y55.873383 Z-1.000000 I-0.573320 J0.000000
G02 X37.542888 Y55.590942 Z-1.000000 I-1.317288 J0.487351
G03 X37.417176 Y55.347436 Z-1.000000 I1.109830 J-0.727162
G01 X37.436492 Y55.319131 Z-1.000000
G01 X37.459845 Y55.290175 Z-1.000000
G02 X37.387682 Y55.093963 Z-1.000000 I-0.737430 J0.159836
G03 X37.300274 Y54.859173 Z-1.000000 I0.820447 J-0.439102
G03 X37.232569 Y54.404736 Z-1.000000 I3.053593 J-0.687208
G02 X37.176023 Y53.945981 Z-1.000000 I-4.781481 J0.356505
G02 X37.121125 Y53.758848 Z-1.000000 I-0.841098 J0.145127
G03 X37.106958 Y53.597009 Z-1.000000 I0.243344 J-0.102841
G03 X37.182335 Y53.491703 Z-1.000000 I0.163618 J0.037487
G02 X37.205437 Y53.416778 Z-1.000000 I-0.031326 J-0.050683
G02 X37.107145 Y53.322885 Z-1.000000 I-0.163596 J0.072866
G03 X37.063332 Y53.267978 Z-1.000000 I0.025596 J-0.065358
G01 X37.093405 Y53.231635 Z-1.000000
G02 X37.216617 Y53.183270 Z-1.000000 I-0.007886 J-0.201218
G02 X37.226900 Y53.117099 Z-1.000000 I-0.033531 J-0.039095
G03 X37.202174 Y53.004081 Z-1.000000 I0.148292 J-0.091657
G03 X37.311940 Y52.427872 Z-1.000000 I4.453989 J0.549910
G02 X37.430268 Y51.189167 Z-1.000000 I-3.816018 J-0.989533
G02 X37.203427 Y50.714474 Z-1.000000 I-0.703306 J0.044542
G03 X37.127688 Y50.627598 Z-1.000000 I0.350756 J-0.382245
G01 X37.136837 Y50.618324 Z-1.000000
G02 X37.245501 Y50.651466 Z-1.000000 I0.108664 J-0.161568
G01 X37.278003 Y50.618324 Z-1.000000
G02 X37.243181 Y50.537816 Z-1.000000 I-0.115525 J0.002183
G02 X36.561207 Y49.918693 Z-1.000000 I-8.910809 J9.130236
G03 X35.880587 Y49.299338 Z-1.000000 I7.962121 J-9.433362
G03 X35.846288 Y49.217668 Z-1.000000 I0.080083 J-0.081670
G01 X35.810740 Y49.171784 Z-1.000000
G02 X35.694196 Y49.178428 Z-1.000000 I-0.047882 J0.185576
G03 X35.559300 Y49.163660 Z-1.000000 I-0.053108 J-0.138373
G03 X35.170384 Y48.831828 Z-1.000000 I1.160869 J-1.754394
G01 X34.798663 Y48.426865 Z-1.000000
G01 X35.212199 Y48.806896 Z-1.000000
G01 X35.287466 Y48.756156 Z-1.000000
G02 X35.019215 Y48.292192 Z-1.000000 I-1.523050 J0.571055
G03 X34.435000 Y47.548868 Z-1.000000 I15.457462 J-12.750030
G03 X34.412695 Y47.481844 Z-1.000000 I0.089548 J-0.067024
G03 X34.445056 Y47.433338 Z-1.000000 I0.052533 J0.000000
G03 X34.760293 Y47.337290 Z-1.000000 I0.644300 J1.549304
G03 X35.074887 Y47.350118 Z-1.000000 I0.130875 J0.654415
G03 X35.256009 Y47.479239 Z-1.000000 I-0.091694 J0.320213
G02 X35.523520 Y47.602084 Z-1.000000 I0.238757 J-0.167232
G02 X35.922642 Y47.413159 Z-1.000000 I-0.064703 J-0.652746
G02 X36.005188 Y47.187430 Z-1.000000 I-0.201727 J-0.201726
G02 X35.897902 Y47.120156 Z-1.000000 I-0.078914 J0.006663
G03 X35.780987 Y47.095656 Z-1.000000 I-0.039470 J-0.102859
G03 X35.527590 Y46.754160 Z-1.000000 I0.981381 J-0.992967
G02 X35.352710 Y46.535015 Z-1.000000 I-0.663255 J0.349934
G01 X35.299779 Y46.558656 Z-1.000000
G02 X35.334404 Y46.772910 Z-1.000000 I0.599935 J0.012972
G02 X35.456812 Y46.999761 Z-1.000000 I0.797920 J-0.284105
G03 X35.494600 Y47.171460 Z-1.000000 I-0.167837 J0.126945
G01 X35.415202 Y47.190942 Z-1.000000
G02 X35.209931 Y46.993680 Z-1.000000 I-0.997759 J0.832835
G01 X35.162776 Y46.996741 Z-1.000000
G03 X35.065963 Y47.047000 Z-1.000000 I-0.127795 J-0.127795
G03 X34.274848 Y47.151241 Z-1.000000 I-1.657909 J-9.528223
G02 X34.146124 Y47.335271 Z-1.000000 I0.013162 J0.146241
G02 X34.495401 Y47.979321 Z-1.000000 I1.510038 J-0.402180
G01 X34.798661 Y48.315783 Z-1.000000
G01 X34.498775 Y48.052009 Z-1.000000
G01 X34.198889 Y47.788235 Z-1.000000
G01 X34.085238 Y48.087158 Z-1.000000
G02 X34.014832 Y48.394245 Z-1.000000 I1.070715 J0.407099
G02 X33.960596 Y49.509234 Z-1.000000 I14.327829 J1.255752
G03 X33.912333 Y50.625869 Z-1.000000 I-16.692696 J-0.162135
G03 X33.853200 Y50.908079 Z-1.000000 I-1.109981 J-0.085278
G01 X33.807413 Y50.901141 Z-1.000000
G03 X33.792500 Y49.206454 Z-1.000000 I31.534904 J-1.124910
G02 X33.750027 Y47.249057 Z-1.000000 I-24.632043 J-0.444678
G02 X33.651774 Y46.918917 Z-1.000000 I-0.761106 J0.046822
G02 X33.448796 Y46.654078 Z-1.000000 I-1.063073 J0.604556
G02 X33.337501 Y46.607999 Z-1.000000 I-0.112101 J0.113313
G03 X33.252794 Y46.554437 Z-1.000000 I0.000479 J-0.094519
G03 X33.199656 Y46.321287 Z-1.000000 I0.484919 J-0.233150
G02 X33.132324 Y46.087260 Z-1.000000 I-0.440370 J0.000000
G02 X32.985010 Y45.979141 Z-1.000000 I-0.210047 J0.131774
G03 X32.810309 Y45.883788 Z-1.000000 I0.104268 J-0.398750
G03 X32.726385 Y45.741343 Z-1.000000 I0.192506 J-0.209364
G02 X32.670208 Y45.699268 Z-1.000000 I-0.053555 J0.012964
G02 X32.600430 Y45.747343 Z-1.000000 I0.003822 J0.080225
G01 X32.600495 Y45.747404 Z-1.000000
G00 Z5.000000

(End cutting path id: path50)


(Start cutting path id: path50)
(Change tool to Default tool)

G00 Z5.000000
G00 X32.207234 Y45.165403

G01 Z-1.000000 F100.0(Penetrate)
G02 X32.238590 Y45.238870 Z-1.000000 I0.101746 J0.000000 F400.000000
G02 X32.372648 Y45.323896 Z-1.000000 I0.278060 J-0.290215
G02 X32.502390 Y45.335473 Z-1.000000 I0.085201 J-0.222044
G01 X32.538063 Y45.292356 Z-1.000000
G02 X32.506707 Y45.218889 Z-1.000000 I-0.101745 J-0.000000
G02 X32.372648 Y45.133864 Z-1.000000 I-0.278052 J0.290208
G02 X32.242907 Y45.122287 Z-1.000000 I-0.085200 J0.222042
G01 X32.207234 Y45.165404 Z-1.000000
G01 X32.207234 Y45.165403 Z-1.000000
G00 Z5.000000

(End cutting path id: path50)


(Start cutting path id: path50)
(Change tool to Default tool)

G00 Z5.000000
G00 X31.813021 Y44.965801

G01 Z-1.000000 F100.0(Penetrate)
G03 X31.690449 Y45.117213 Z-1.000000 I-0.576074 J-0.341026 F400.000000
G03 X31.490438 Y45.262875 Z-1.000000 I-0.731551 J-0.794359
G02 X31.414782 Y45.350966 Z-1.000000 I0.084133 J0.148791
G01 X31.441788 Y45.390942 Z-1.000000
G02 X31.885855 Y45.232897 Z-1.000000 I0.012940 J-0.666523
G02 X31.966037 Y44.946405 Z-1.000000 I-0.171717 J-0.202526
G02 X31.902955 Y44.906725 Z-1.000000 I-0.055698 J0.018565
G02 X31.813018 Y44.965805 Z-1.000000 I0.015395 J0.121430
G01 X31.813021 Y44.965801 Z-1.000000
G00 Z5.000000

(End cutting path id: path50)


(Start cutting path id: path50)
(Change tool to Default tool)

G00 Z5.000000
G00 X29.960718 Y44.708004

G01 Z-1.000000 F100.0(Penetrate)
G02 X30.060910 Y44.835187 Z-1.000000 I0.188066 J-0.045099 F400.000000
G02 X30.137031 Y44.797934 Z-1.000000 I0.024076 J-0.047202
G02 X30.125377 Y44.558850 Z-1.000000 I-0.499454 J-0.095481
G02 X30.039131 Y44.465406 Z-1.000000 I-0.137649 J0.040522
G02 X29.968796 Y44.499024 Z-1.000000 I-0.019239 J0.050133
G02 X29.960721 Y44.708003 Z-1.000000 I0.367731 J0.118855
G01 X29.960718 Y44.708004 Z-1.000000
G00 Z5.000000

(End cutting path id: path50)


(Start cutting path id: path50)
(Change tool to Default tool)

G00 Z5.000000
G00 X29.294019 Y44.717850

G01 Z-1.000000 F100.0(Penetrate)
G02 X29.291833 Y44.805331 Z-1.000000 I0.073820 J0.045612 F400.000000
G02 X29.457671 Y45.014927 Z-1.000000 I0.708965 J-0.390545
G02 X29.579034 Y45.068606 Z-1.000000 I0.141908 J-0.156807
G01 X29.608687 Y45.029667 Z-1.000000
G03 X29.610452 Y44.892743 Z-1.000000 I0.172642 J-0.066248
G03 X29.686647 Y44.841178 Z-1.000000 I0.077137 J0.031904
G01 X29.717458 Y44.805162 Z-1.000000
G02 X29.670877 Y44.732590 Z-1.000000 I-0.103165 J0.014983
G02 X29.417156 Y44.652318 Z-1.000000 I-0.273408 J0.423068
G02 X29.294018 Y44.717850 Z-1.000000 I-0.005409 J0.138293
G01 X29.294019 Y44.717850 Z-1.000000
G00 Z5.000000

(End cutting path id: path50)


(Start cutting path id: path50)
(Change tool to Default tool)

G00 Z5.000000
G00 X28.700446 Y44.203309

G01 Z-1.000000 F100.0(Penetrate)
G02 X28.606160 Y44.351229 Z-1.000000 I0.286856 J0.286856 F400.000000
G02 X28.569803 Y44.561707 Z-1.000000 I0.565090 J0.205989
G02 X28.615033 Y44.638119 Z-1.000000 I0.088281 J-0.000663
G01 X28.678391 Y44.622357 Z-1.000000
G03 X28.750674 Y44.576740 Z-1.000000 I0.085339 J0.055148
G01 X28.786979 Y44.608287 Z-1.000000
G02 X28.834884 Y44.659799 Z-1.000000 I0.052293 J-0.000600
G02 X28.954082 Y44.622357 Z-1.000000 I0.013843 J-0.164388
G02 X29.070648 Y44.463741 Z-1.000000 I-0.259794 J-0.313061
G02 X29.106704 Y44.250456 Z-1.000000 I-0.454557 J-0.186534
G02 X29.075686 Y44.196459 Z-1.000000 I-0.069062 J0.003765
G01 X29.043484 Y44.208816 Z-1.000000
G03 X28.965909 Y44.366653 Z-1.000000 I-0.425756 J-0.111272
G03 X28.894323 Y44.401800 Z-1.000000 I-0.071586 J-0.055329
G01 X28.848980 Y44.365103 Z-1.000000
G03 X28.859073 Y44.236385 Z-1.000000 I0.222102 J-0.047340
G02 X28.821354 Y44.167240 Z-1.000000 I-0.048276 J-0.018526
G02 X28.700454 Y44.203305 Z-1.000000 I-0.027086 J0.129877
G01 X28.700446 Y44.203309 Z-1.000000
G00 Z5.000000

(End cutting path id: path50)


(Start cutting path id: path50)
(Change tool to Default tool)

G00 Z5.000000
G00 X24.267338 Y43.286023

G01 Z-1.000000 F100.0(Penetrate)
G02 X24.294379 Y43.381219 Z-1.000000 I0.181083 J0.000000 F400.000000
G02 X24.377614 Y43.464454 Z-1.000000 I0.217887 J-0.134650
G02 X24.453918 Y43.471677 Z-1.000000 I0.045455 J-0.073535
G02 X24.487890 Y43.422334 Z-1.000000 I-0.018849 J-0.049343
G02 X24.460849 Y43.327138 Z-1.000000 I-0.181083 J-0.000000
G02 X24.377614 Y43.243903 Z-1.000000 I-0.217887 J0.134650
G02 X24.301310 Y43.236680 Z-1.000000 I-0.045455 J0.073535
G02 X24.267338 Y43.286023 Z-1.000000 I0.018849 J0.049343
G01 X24.267338 Y43.286023 Z-1.000000
G00 Z5.000000

(End cutting path id: path50)


(Start cutting path id: path50)
(Change tool to Default tool)

G00 Z5.000000
G00 X23.761340 Y42.439552

G01 Z-1.000000 F100.0(Penetrate)
G03 X23.892703 Y42.739646 Z-1.000000 I-0.839524 J0.546291 F400.000000
G03 X23.873196 Y42.880657 Z-1.000000 I-0.183343 J0.046492
G02 X23.862397 Y42.934712 Z-1.000000 I0.074516 J0.042993
G01 X23.881096 Y42.941597 Z-1.000000
G03 X23.972871 Y42.916881 Z-1.000000 I0.070037 J0.077312
G03 X24.139871 Y42.996737 Z-1.000000 I-0.082448 J0.386966
G01 X24.173808 Y42.976353 Z-1.000000
G02 X24.094881 Y42.766750 Z-1.000000 I-0.661352 J0.129373
G02 X23.862728 Y42.415705 Z-1.000000 I-3.181022 J1.851391
G02 X23.724250 Y42.270506 Z-1.000000 I-0.670266 J0.500605
G01 X23.697435 Y42.286905 Z-1.000000
G02 X23.761320 Y42.439550 Z-1.000000 I0.450168 J-0.098714
G01 X23.761340 Y42.439552 Z-1.000000
G00 Z5.000000

(End cutting path id: path50)


(Start cutting path id: path50)
(Change tool to Default tool)

G00 Z5.000000
G00 X24.310232 Y42.150656

G01 Z-1.000000 F100.0(Penetrate)
G02 X24.439140 Y42.601522 Z-1.000000 I0.454196 J0.114001 F400.000000
G02 X24.790840 Y42.614751 Z-1.000000 I0.183237 J-0.189758
G02 X24.880585 Y42.409394 Z-1.000000 I-0.159250 J-0.191884
G02 X24.776060 Y42.341632 Z-1.000000 I-0.076926 J0.004162
G03 X24.696566 Y42.318243 Z-1.000000 I-0.024444 J-0.063707
G03 X24.674668 Y42.203223 Z-1.000000 I0.109952 J-0.080528
G02 X24.660216 Y42.040008 Z-1.000000 I-0.234957 J-0.061443
G02 X24.553034 Y41.939676 Z-1.000000 I-0.177040 J0.081712
G02 X24.426026 Y41.962066 Z-1.000000 I-0.044865 J0.116926
G02 X24.310227 Y42.150656 Z-1.000000 I0.241867 J0.278359
G01 X24.310232 Y42.150656 Z-1.000000
G00 Z5.000000

(End cutting path id: path50)


(Start cutting path id: path50)
(Change tool to Default tool)

G00 Z5.000000
G00 X24.046785 Y35.689986

G01 Z-1.000000 F100.0(Penetrate)
G02 X24.080002 Y35.767041 Z-1.000000 I0.105982 J0.000000 F400.000000
G02 X24.163569 Y35.800262 Z-1.000000 I0.083567 J-0.088494
G02 X24.217401 Y35.765167 Z-1.000000 I0.000000 J-0.058834
G02 X24.212199 Y35.689986 Z-1.000000 I-0.074036 J-0.032648
G02 X24.135218 Y35.595533 Z-1.000000 I-0.399215 J0.246770
G02 X24.095415 Y35.579709 Z-1.000000 I-0.039803 J0.042149
G01 X24.065973 Y35.598904 Z-1.000000
G02 X24.046785 Y35.689986 Z-1.000000 I0.206578 J0.091082
G01 X24.046785 Y35.689986 Z-1.000000
G00 Z5.000000

(End cutting path id: path50)


(Start cutting path id: path50)
(Change tool to Default tool)

G00 Z5.000000
G00 X23.637905 Y35.078012

G01 Z-1.000000 F100.0(Penetrate)
G02 X23.587355 Y35.223086 Z-1.000000 I0.153414 J0.134800 F400.000000
G02 X23.651685 Y35.351570 Z-1.000000 I0.178424 J-0.008988
G02 X23.738883 Y35.346255 Z-1.000000 I0.040767 J-0.049122
G02 X23.798659 Y35.195795 Z-1.000000 I-0.159472 J-0.150460
G02 X23.791898 Y34.927168 Z-1.000000 I-5.340150 J0.000000
G01 X23.784879 Y34.922236 Z-1.000000
G01 X23.773074 Y34.929543 Z-1.000000
G02 X23.637905 Y35.078012 Z-1.000000 I4.145671 J3.910058
G01 X23.637905 Y35.078012 Z-1.000000
G00 Z5.000000

(End cutting path id: path50)


(Start cutting path id: path50)
(Change tool to Default tool)

G00 Z5.000000
G00 X22.282364 Y34.059298

G01 Z-1.000000 F100.0(Penetrate)
G02 X22.416612 Y34.187771 Z-1.000000 I0.128597 J0.000000 F400.000000
G02 X22.664206 Y34.042508 Z-1.000000 I-0.013485 J-0.306623
G01 X22.649468 Y33.986788 Z-1.000000
G02 X22.505300 Y33.955698 Z-1.000000 I-0.124634 J0.228132
G02 X22.317156 Y34.004755 Z-1.000000 I0.040592 J0.540993
G02 X22.282364 Y34.059301 Z-1.000000 I0.025362 J0.054546
G01 X22.282364 Y34.059298 Z-1.000000
G00 Z5.000000

(End cutting path id: path50)


(Start cutting path id: path50)
(Change tool to Default tool)

G00 Z5.000000
G00 X22.473509 Y32.946751

G01 Z-1.000000 F100.0(Penetrate)
G02 X22.609604 Y33.035235 Z-1.000000 I0.272896 J-0.270832 F400.000000
G02 X22.671249 Y33.022041 Z-1.000000 I0.020634 J-0.054198
G01 X22.671340 Y32.973502 Z-1.000000
G02 X22.535241 Y32.885014 Z-1.000000 I-0.272977 J0.270943
G02 X22.473601 Y32.898202 Z-1.000000 I-0.020636 J0.054191
G01 X22.473511 Y32.946744 Z-1.000000
G01 X22.473509 Y32.946751 Z-1.000000
G00 Z5.000000

(End cutting path id: path50)


(Start cutting path id: path50)
(Change tool to Default tool)

G00 Z5.000000
G00 X24.531466 Y33.453271

G01 Z-1.000000 F100.0(Penetrate)
G03 X24.612892 Y33.526967 Z-1.000000 I-0.029223 J0.114119 F400.000000
G03 X24.586606 Y33.604205 Z-1.000000 I-0.061067 J0.022309
G01 X24.567364 Y33.663230 Z-1.000000
G02 X24.625736 Y33.703315 Z-1.000000 I0.058926 J-0.023265
G02 X24.766516 Y33.652339 Z-1.000000 I0.001879 J-0.214694
G02 X24.818719 Y33.539589 Z-1.000000 I-0.095659 J-0.112750
G02 X24.760516 Y33.435456 Z-1.000000 I-0.122256 J-0.000000
G02 X24.570597 Y33.386967 Z-1.000000 I-0.172925 J0.281128
G02 X24.517332 Y33.419229 Z-1.000000 I0.003387 J0.065693
G01 X24.531467 Y33.453277 Z-1.000000
G01 X24.531466 Y33.453271 Z-1.000000
G00 Z5.000000

(End cutting path id: path50)


(Start cutting path id: path50)
(Change tool to Default tool)

G00 Z5.000000
G00 X27.711733 Y32.936300

G01 Z-1.000000 F100.0(Penetrate)
G02 X27.440314 Y33.229582 Z-1.000000 I1.565653 J1.721178 F400.000000
G01 X27.457103 Y33.263896 Z-1.000000
G02 X27.547896 Y33.237506 Z-1.000000 I-0.000000 J-0.169379
G02 X27.630766 Y33.153620 Z-1.000000 I-0.141184 J-0.222350
G03 X27.789344 Y33.078352 Z-1.000000 I0.137480 J0.084964
G03 X27.840147 Y33.181190 Z-1.000000 I-0.009009 J0.068418
G01 X27.838238 Y33.222487 Z-1.000000
G01 X27.861207 Y33.227140 Z-1.000000
G02 X27.935181 Y33.113808 Z-1.000000 I-0.183789 J-0.200770
G02 X28.002948 Y32.809291 Z-1.000000 I-1.369547 J-0.464579
G01 X28.052427 Y32.770581 Z-1.000000
G03 X28.209717 Y32.836861 Z-1.000000 I-0.042866 J0.321501
G01 X28.248989 Y32.834498 Z-1.000000
G01 X28.251357 Y32.795231 Z-1.000000
G02 X28.097535 Y32.609244 Z-1.000000 I-3.657289 J2.868192
G01 X28.085942 Y32.605480 Z-1.000000
G01 X28.073577 Y32.611866 Z-1.000000
G02 X27.711738 Y32.936309 Z-1.000000 I22.492338 J25.448841
G01 X27.711733 Y32.936300 Z-1.000000
G00 Z5.000000

(End cutting path id: path50)


(Start cutting path id: path50)
(Change tool to Default tool)

G00 Z5.000000
G00 X28.595684 Y35.574492

G01 Z-1.000000 F100.0(Penetrate)
G02 X28.485957 Y35.805254 Z-1.000000 I0.987582 J0.611062 F400.000000
G02 X28.457838 Y35.972256 Z-1.000000 I0.481863 J0.167002
G02 X28.629020 Y36.096039 Z-1.000000 I0.130345 J0.000000
G02 X28.912582 Y35.822231 Z-1.000000 I-0.142188 J-0.430989
G02 X28.940368 Y35.649089 Z-1.000000 I-0.425424 J-0.157072
G01 X28.905782 Y35.630598 Z-1.000000
G03 X28.833760 Y35.626342 Z-1.000000 I-0.032983 J-0.053368
G03 X28.769422 Y35.522201 Z-1.000000 I0.112378 J-0.141372
G01 X28.709858 Y35.486867 Z-1.000000
G02 X28.595662 Y35.574491 Z-1.000000 I0.058535 J0.194510
G01 X28.595684 Y35.574492 Z-1.000000
G00 Z5.000000

(End cutting path id: path50)


(Start cutting path id: path50)
(Change tool to Default tool)

G00 Z5.000000
G00 X31.884156 Y35.834339

G01 Z-1.000000 F100.0(Penetrate)
G03 X31.837672 Y35.961094 Z-1.000000 I-0.219524 J-0.008603 F400.000000
G01 X31.776413 Y35.972032 Z-1.000000
G01 X31.734509 Y35.988830 Z-1.000000
G02 X31.734583 Y36.132657 Z-1.000000 I0.275622 J0.071773
G02 X31.846714 Y36.266291 Z-1.000000 I0.197126 J-0.051546
G01 X31.911690 Y36.213947 Z-1.000000
G03 X31.930390 Y36.130290 Z-1.000000 I0.099195 J-0.021745
G01 X31.975420 Y36.131087 Z-1.000000
G01 X32.034323 Y36.113528 Z-1.000000
G02 X31.986680 Y35.855396 Z-1.000000 I-0.592094 J-0.024180
G02 X31.923245 Y35.803703 Z-1.000000 I-0.081223 J0.034903
G01 X31.884155 Y35.834336 Z-1.000000
G01 X31.884156 Y35.834339 Z-1.000000
G00 Z5.000000

(End cutting path id: path50)


(Start cutting path id: path50)
(Change tool to Default tool)

G00 Z5.000000
G00 X34.319896 Y35.359147

G01 Z-1.000000 F100.0(Penetrate)
G02 X34.346658 Y35.496992 Z-1.000000 I0.368386 J0.000000 F400.000000
G01 X34.375516 Y35.496992 Z-1.000000
G02 X34.402278 Y35.359151 Z-1.000000 I-0.341607 J-0.137841
G02 X34.375516 Y35.221301 Z-1.000000 I-0.368412 J-0.000000
G01 X34.346657 Y35.221301 Z-1.000000
G02 X34.319896 Y35.359147 Z-1.000000 I0.341643 J0.137846
G01 X34.319896 Y35.359147 Z-1.000000
G00 Z5.000000

(End cutting path id: path50)


(Start cutting path id: path50)
(Change tool to Default tool)

G00 Z5.000000
G00 X34.421466 Y35.864589

G01 Z-1.000000 F100.0(Penetrate)
G02 X34.453775 Y35.938259 Z-1.000000 I0.110545 J-0.004561 F400.000000
G01 X34.488096 Y35.931219 Z-1.000000
G02 X34.511698 Y35.793519 Z-1.000000 I-0.309759 J-0.123966
G02 X34.479396 Y35.719856 Z-1.000000 I-0.110527 J0.004554
G01 X34.445078 Y35.726897 Z-1.000000
G02 X34.421476 Y35.864594 Z-1.000000 I0.309738 J0.123962
G01 X34.421466 Y35.864589 Z-1.000000
G00 Z5.000000

(End cutting path id: path50)


(Start cutting path id: path50)
(Change tool to Default tool)

G00 Z5.000000
G00 X34.650725 Y35.800262

G01 Z-1.000000 F100.0(Penetrate)
G02 X34.677487 Y35.938107 Z-1.000000 I0.368385 J-0.000000 F400.000000
G01 X34.706345 Y35.938107 Z-1.000000
G02 X34.733105 Y35.800257 Z-1.000000 I-0.341673 J-0.137850
G02 X34.706345 Y35.662416 Z-1.000000 I-0.368389 J0.000000
G01 X34.677487 Y35.662416 Z-1.000000
G02 X34.650725 Y35.800262 Z-1.000000 I0.341626 J0.137846
G01 X34.650725 Y35.800262 Z-1.000000
G00 Z5.000000

(End cutting path id: path50)


(Start cutting path id: path50)
(Change tool to Default tool)

G00 Z5.000000
G00 X34.526414 Y36.406772

G01 Z-1.000000 F100.0(Penetrate)
G02 X34.545964 Y36.511277 Z-1.000000 I0.289092 J0.000000 F400.000000
G02 X34.633313 Y36.682463 Z-1.000000 I0.880330 J-0.341318
G02 X34.712637 Y36.754407 Z-1.000000 I0.174636 J-0.112847
G01 X34.740212 Y36.737603 Z-1.000000
G02 X34.720662 Y36.633098 Z-1.000000 I-0.289092 J-0.000000
G02 X34.633313 Y36.461912 Z-1.000000 I-0.880330 J0.341318
G02 X34.553989 Y36.389968 Z-1.000000 I-0.174636 J0.112847
G01 X34.526414 Y36.406772 Z-1.000000
G01 X34.526414 Y36.406772 Z-1.000000
G00 Z5.000000

(End cutting path id: path50)


(Start cutting path id: path50)
(Change tool to Default tool)

G00 Z5.000000
G00 X34.812762 Y36.572186

G01 Z-1.000000 F100.0(Penetrate)
G02 X34.900170 Y36.950629 Z-1.000000 I3.384804 J-0.582465 F400.000000
G02 X34.973445 Y37.123568 Z-1.000000 I0.770988 J-0.224677
G02 X35.070672 Y37.091903 Z-1.000000 I0.045352 J-0.025846
G02 X34.905405 Y36.517048 Z-1.000000 I-1.774992 J0.199114
G01 X34.746343 Y36.186219 Z-1.000000
G01 X34.812762 Y36.572186 Z-1.000000
G00 Z5.000000

(End cutting path id: path50)


(Start cutting path id: path50)
(Change tool to Default tool)

G00 Z5.000000
G00 X35.239833 Y36.682461

G01 Z-1.000000 F100.0(Penetrate)
G02 X35.241539 Y36.914326 Z-1.000000 I0.185387 J0.114575 F400.000000
G02 X35.412867 Y36.953442 Z-1.000000 I0.105512 J-0.067375
G02 X35.548792 Y36.708810 Z-1.000000 I-0.150670 J-0.243795
G02 X35.411767 Y36.572184 Z-1.000000 I-0.137025 J0.000400
G02 X35.322576 Y36.598332 Z-1.000000 I0.000000 J0.165189
G02 X35.239844 Y36.682461 Z-1.000000 I0.143770 J0.224127
G01 X35.239833 Y36.682461 Z-1.000000
G00 Z5.000000

(End cutting path id: path50)


(Start cutting path id: path50)
(Change tool to Default tool)

G00 Z5.000000
G00 X35.680938 Y36.792739

G01 Z-1.000000 F100.0(Penetrate)
G02 X35.764173 Y36.875970 Z-1.000000 I0.217945 J-0.134720 F400.000000
G02 X35.859369 Y36.903015 Z-1.000000 I0.095196 J-0.154020
G02 X35.908710 Y36.869045 Z-1.000000 I0.000000 J-0.052819
G02 X35.901489 Y36.792739 Z-1.000000 I-0.080762 J-0.030852
G02 X35.818260 Y36.709507 Z-1.000000 I-0.217880 J0.134644
G02 X35.723058 Y36.682463 Z-1.000000 I-0.095202 J0.154044
G02 X35.673717 Y36.716433 Z-1.000000 I0.000000 J0.052819
G02 X35.680938 Y36.792739 Z-1.000000 I0.080762 J0.030852
G01 X35.680938 Y36.792739 Z-1.000000
G00 Z5.000000

(End cutting path id: path50)


(Start cutting path id: path50)
(Change tool to Default tool)

G00 Z5.000000
G00 X35.184695 Y37.883626

G01 Z-1.000000 F100.0(Penetrate)
G03 X35.147075 Y37.951319 Z-1.000000 I-0.079714 J0.000000 F400.000000
G03 X35.075682 Y37.951416 Z-1.000000 I-0.035775 J-0.057531
G01 X35.034750 Y37.966237 Z-1.000000
G02 X35.036972 Y38.067255 Z-1.000000 I0.141902 J0.047412
G02 X35.116599 Y38.121149 Z-1.000000 I0.078421 J-0.030094
G02 X35.211231 Y38.064755 Z-1.000000 I-0.001583 J-0.110252
G02 X35.273188 Y37.884811 Z-1.000000 I-0.467298 J-0.261536
G02 X35.249941 Y37.813753 Z-1.000000 I-0.081716 J-0.012598
G01 X35.211982 Y37.814411 Z-1.000000
G02 X35.184691 Y37.883673 Z-1.000000 I0.074242 J0.069262
G01 X35.184695 Y37.883626 Z-1.000000
G00 Z5.000000

(End cutting path id: path50)


(Start cutting path id: path50)
(Change tool to Default tool)

G00 Z5.000000
G00 X35.129557 Y40.542138

G01 Z-1.000000 F100.0(Penetrate)
G02 X35.212792 Y40.625370 Z-1.000000 I0.217951 J-0.134723 F400.000000
G02 X35.307987 Y40.652415 Z-1.000000 I0.095195 J-0.154015
G02 X35.357328 Y40.618445 Z-1.000000 I0.000000 J-0.052818
G02 X35.350107 Y40.542138 Z-1.000000 I-0.080764 J-0.030853
G02 X35.266872 Y40.458907 Z-1.000000 I-0.217945 J0.134720
G02 X35.171676 Y40.431862 Z-1.000000 I-0.095196 J0.154020
G02 X35.122335 Y40.465832 Z-1.000000 I0.000000 J0.052819
G02 X35.129556 Y40.542138 Z-1.000000 I0.080762 J0.030852
G01 X35.129557 Y40.542138 Z-1.000000
G00 Z5.000000

(End cutting path id: path50)


(Start cutting path id: path50)
(Change tool to Default tool)

G00 Z5.000000
G00 X35.184695 Y41.142156

G01 Z-1.000000 F100.0(Penetrate)
G02 X35.223668 Y41.275103 Z-1.000000 I0.246248 J-0.000000 F400.000000
G02 X35.294971 Y41.314079 Z-1.000000 I0.071303 J-0.045734
G02 X35.373937 Y41.282767 Z-1.000000 I-0.000000 J-0.115227
G02 X35.405247 Y41.210310 Z-1.000000 I-0.068183 J-0.072457
G02 X35.379103 Y41.121123 Z-1.000000 I-0.165199 J0.000000
G02 X35.294971 Y41.038388 Z-1.000000 I-0.224080 J0.143720
G02 X35.226552 Y41.045298 Z-1.000000 I-0.029705 J0.048055
G02 X35.184695 Y41.142156 Z-1.000000 I0.091136 J0.096858
G01 X35.184695 Y41.142156 Z-1.000000
G00 Z5.000000

(End cutting path id: path50)


(Start cutting path id: path50)
