%
(Header)
(Generated by gcodetools from Inkscape.)
(Using default header. To add your own header create file "header" in the output dir.)
M3
(Header end.)
G21 (All units in mm)

(Start cutting path id: path143)
(Change tool to Default tool)

G00 Z5.000000
G00 X8.685255 Y11.437084

G01 Z-1.000000 F100.0(Penetrate)
G02 X8.774694 Y11.910156 Z-1.000000 I0.629698 J0.125940 F3500.000000
G02 X9.075349 Y12.044207 Z-1.000000 I0.252567 J-0.162282
G03 X9.497372 Y12.069632 Z-1.000000 I0.154444 J0.951665
G03 X9.682819 Y12.219692 Z-1.000000 I-0.085194 J0.294903
G02 X9.858340 Y12.413842 Z-1.000000 I0.478266 J-0.255961
G02 X10.121952 Y12.515053 Z-1.000000 I0.352391 J-0.523923
G03 X10.357728 Y12.617626 Z-1.000000 I-0.067953 J0.478466
G03 X10.426131 Y12.760838 Z-1.000000 I-0.115718 J0.143212
G02 X10.543571 Y13.042131 Z-1.000000 I0.395598 J0.000000
G02 X10.833783 Y13.163947 Z-1.000000 I0.296553 J-0.299895
G02 X10.957558 Y13.126832 Z-1.000000 I0.003120 J-0.214544
G02 X11.625079 Y12.625779 Z-1.000000 I-5.026203 J-7.391258
G03 X12.301487 Y12.148502 Z-1.000000 I3.466925 J4.195454
G03 X12.529705 Y12.085543 Z-1.000000 I0.228218 J0.382152
G03 X13.398842 Y12.421778 Z-1.000000 I0.000000 J1.291438
G03 X13.735077 Y13.182308 Z-1.000000 I-0.692004 J0.760530
G02 X13.937528 Y13.507776 Z-1.000000 I0.362843 J0.000000
G02 X15.254491 Y13.931081 Z-1.000000 I2.089105 J-4.239223
G02 X15.486309 Y13.788097 Z-1.000000 I0.033867 J-0.204505
G02 X15.389763 Y13.495830 Z-1.000000 I-0.252805 J-0.078570
G03 X15.234980 Y13.316881 Z-1.000000 I0.311203 J-0.425592
G03 X15.248272 Y13.228509 Z-1.000000 I0.066478 J-0.035186
G03 X15.342926 Y13.210290 Z-1.000000 I0.060779 J0.060779
G03 X15.579678 Y13.370614 Z-1.000000 I-0.298096 J0.695172
G02 X15.791504 Y13.501765 Z-1.000000 I0.384700 J-0.384700
G02 X15.863632 Y13.465774 Z-1.000000 I0.018097 J-0.054002
G03 X16.023040 Y13.377753 Z-1.000000 I0.127465 J0.042486
G03 X17.133964 Y13.776706 Z-1.000000 I-1.342151 J5.483573
G03 X17.535368 Y14.087313 Z-1.000000 I-0.531322 J1.101315
G03 X17.712241 Y14.458848 Z-1.000000 I-0.613079 J0.519731
G02 X17.834265 Y14.869275 Z-1.000000 I2.036042 J-0.381983
G02 X17.913812 Y14.945719 Z-1.000000 I0.127054 J-0.052601
G03 X17.997267 Y15.018474 Z-1.000000 I-0.053693 J0.145830
G03 X18.078360 Y15.254536 Z-1.000000 I-0.697128 J0.371442
G03 X18.032430 Y15.454874 Z-1.000000 I-0.261492 J0.045483
G03 X17.854378 Y15.566326 Z-1.000000 I-0.225152 J-0.161744
G02 X17.501980 Y15.822970 Z-1.000000 I0.083631 J0.485095
G02 X17.453447 Y16.331557 Z-1.000000 I0.598844 J0.313755
G03 X17.565715 Y16.893291 Z-1.000000 I-2.889227 J0.869525
G01 X17.516627 Y16.947670 Z-1.000000
G03 X17.307728 Y16.909883 Z-1.000000 I0.000000 J-0.596323
G03 X16.352718 Y16.512355 Z-1.000000 I4.960130 J-13.261989
G02 X15.772951 Y16.431291 Z-1.000000 I-0.424695 J0.923641
G02 X15.525816 Y16.639985 Z-1.000000 I0.047344 J0.306740
G02 X15.549226 Y16.784838 Z-1.000000 I0.150266 J0.050033
G02 X16.046327 Y17.336362 Z-1.000000 I3.248180 J-2.427871
G03 X16.497769 Y17.923107 Z-1.000000 I-1.489339 J1.612942
G03 X16.630315 Y18.440823 Z-1.000000 I-1.011334 J0.534747
G02 X16.727271 Y18.950236 Z-1.000000 I1.504647 J-0.022445
G02 X16.878631 Y19.098006 Z-1.000000 I0.234201 J-0.088486
G03 X17.314007 Y19.500402 Z-1.000000 I-0.246750 J0.703701
G03 X17.432686 Y20.352334 Z-1.000000 I-1.435909 J0.634263
G02 X17.434350 Y20.636017 Z-1.000000 I0.972400 J0.136144
G01 X17.477356 Y20.646233 Z-1.000000
G03 X17.905474 Y20.378810 Z-1.000000 I0.534608 J0.379457
G03 X18.490811 Y20.479396 Z-1.000000 I0.147422 J0.895522
G02 X18.808030 Y20.603266 Z-1.000000 I0.627777 J-1.139555
G02 X19.036149 Y20.613448 Z-1.000000 I0.139643 J-0.568101
G03 X19.224699 Y20.632960 Z-1.000000 I0.056841 J0.371491
G03 X19.272502 Y20.701888 Z-1.000000 I-0.025793 J0.068928
G02 X19.327983 Y20.766914 Z-1.000000 I0.065847 J0.000000
G02 X19.812738 Y20.788008 Z-1.000000 I0.334014 J-2.095322
G03 X20.275873 Y20.832317 Z-1.000000 I0.099720 J1.400282
G03 X20.352974 Y20.932803 Z-1.000000 I-0.026931 J0.100486
G02 X20.531003 Y21.113433 Z-1.000000 I0.180649 J0.000000
G02 X21.143341 Y20.944273 Z-1.000000 I0.016443 J-1.133352
G02 X21.153464 Y20.846450 Z-1.000000 I-0.032639 J-0.052813
G02 X20.732451 Y20.553910 Z-1.000000 I-1.161977 J1.223054
G03 X20.176341 Y20.244876 Z-1.000000 I2.663160 J-5.447265
G03 X20.105086 Y20.160846 Z-1.000000 I0.096544 J-0.154093
G02 X20.041530 Y20.109174 Z-1.000000 I-0.079918 J0.033376
G02 X19.936670 Y20.128446 Z-1.000000 I-0.027720 J0.144085
G01 X19.895857 Y20.104869 Z-1.000000
G03 X19.944870 Y19.859169 Z-1.000000 I0.755640 J0.022999
G02 X19.889326 Y19.658721 Z-1.000000 I-0.164186 J-0.062423
G02 X19.677686 Y19.648862 Z-1.000000 I-0.112721 J0.143206
G02 X19.630422 Y19.735682 Z-1.000000 I0.056107 J0.086820
G01 X19.677686 Y19.783921 Z-1.000000
G03 X19.728040 Y19.830516 Z-1.000000 I-0.001057 J0.051648
G03 X19.689936 Y19.908553 Z-1.000000 I-0.082379 J0.008097
G03 X19.331496 Y19.927015 Z-1.000000 I-0.195610 J-0.308997
G03 X19.236461 Y19.683059 Z-1.000000 I0.086641 J-0.174241
G02 X19.225547 Y19.581598 Z-1.000000 I-0.104458 J-0.040081
G01 X19.160401 Y19.567148 Z-1.000000
G03 X19.049774 Y19.579809 Z-1.000000 I-0.068775 J-0.111287
G03 X19.002390 Y19.513798 Z-1.000000 I0.022289 J-0.066011
G02 X18.960050 Y19.438734 Z-1.000000 I-0.087709 J0.000000
G02 X18.878866 Y19.439138 Z-1.000000 I-0.040262 J0.066614
G03 X18.705375 Y19.368182 Z-1.000000 I-0.060933 J-0.098591
G03 X18.755957 Y18.938520 Z-1.000000 I0.599627 J-0.147217
G02 X18.748567 Y18.750600 Z-1.000000 I-0.169935 J-0.087422
G02 X18.526326 Y18.567107 Z-1.000000 I-0.381743 J0.236023
G02 X18.171346 Y18.450230 Z-1.000000 I-1.468059 J3.861305
G02 X18.048184 Y18.433325 Z-1.000000 I-0.123162 J0.440185
G03 X17.937497 Y18.320955 Z-1.000000 I0.000000 J-0.110700
G03 X18.059494 Y17.683876 Z-1.000000 I1.871955 J0.028250
G02 X18.081650 Y17.437798 Z-1.000000 I-0.427473 J-0.162525
G02 X18.005884 Y17.395384 Z-1.000000 I-0.055531 J0.010319
G03 X17.878519 Y17.359659 Z-1.000000 I-0.039686 J-0.103412
G03 X17.756526 Y17.072384 Z-1.000000 I0.488117 J-0.376823
G03 X17.895416 Y16.924955 Z-1.000000 I0.127783 J-0.018755
G03 X18.240079 Y17.114124 Z-1.000000 I-0.041849 J0.484819
G02 X18.711147 Y17.603812 Z-1.000000 I2.392303 J-1.829914
G02 X19.069915 Y17.801444 Z-1.000000 I0.698139 J-0.842898
G03 X19.450476 Y17.965673 Z-1.000000 I-0.698412 J2.141440
G03 X19.564906 Y18.071560 Z-1.000000 I-0.152665 J0.279758
G02 X19.684177 Y18.163006 Z-1.000000 I0.189060 J-0.123083
G02 X20.229208 Y18.287662 Z-1.000000 I0.965745 J-2.968655
G03 X20.750545 Y18.429839 Z-1.000000 I-0.278564 J2.048352
G03 X20.866536 Y18.555102 Z-1.000000 I-0.079844 J0.190268
G03 X20.824166 Y18.642659 Z-1.000000 I-0.066223 J0.021984
G03 X20.607412 Y18.649362 Z-1.000000 I-0.118560 J-0.325932
G02 X19.398265 Y18.423530 Z-1.000000 I-1.703201 J5.769328
G02 X19.272504 Y18.539353 Z-1.000000 I-0.009545 J0.115823
G02 X19.312821 Y18.653729 Z-1.000000 I0.182397 J-0.000000
G02 X19.441328 Y18.749062 Z-1.000000 I0.247306 J-0.199085
G01 X19.472258 Y18.794897 Z-1.000000
G01 X19.441328 Y18.827842 Z-1.000000
G02 X19.332565 Y18.894907 Z-1.000000 I0.008624 J0.135711
G02 X19.272504 Y19.116594 Z-1.000000 I0.379094 J0.221687
G02 X19.324564 Y19.301314 Z-1.000000 I0.353746 J0.000000
G02 X19.396028 Y19.318341 Z-1.000000 I0.044210 J-0.027069
G03 X19.494996 Y19.313841 Z-1.000000 I0.053524 J0.086602
G03 X19.583118 Y19.411661 Z-1.000000 I-0.080266 J0.160911
G02 X19.666593 Y19.449920 Z-1.000000 I0.060977 J-0.022848
G02 X19.855964 Y19.311209 Z-1.000000 I-0.147034 J-0.399354
G03 X20.034610 Y19.274753 Z-1.000000 I0.110516 J0.085624
G03 X20.278139 Y19.546815 Z-1.000000 I-0.273238 J0.489607
G02 X20.560042 Y19.994053 Z-1.000000 I1.492583 J-0.628342
G02 X21.029305 Y20.392334 Z-1.000000 I1.641029 J-1.457905
G03 X21.493326 Y20.764020 Z-1.000000 I-1.416483 J2.243861
G03 X21.534277 Y20.899552 Z-1.000000 I-0.106649 J0.106177
G02 X21.575923 Y20.994148 Z-1.000000 I0.088345 J0.017571
G02 X21.742864 Y21.026021 Z-1.000000 I0.126280 J-0.208285
G03 X22.304265 Y21.097668 Z-1.000000 I0.162674 J0.960637
G03 X23.950386 Y22.016119 Z-1.000000 I-4.423526 J9.862574
G02 X24.477382 Y22.230691 Z-1.000000 I0.767919 J-1.131592
G02 X25.627690 Y22.316307 Z-1.000000 I0.990095 J-5.532166
G03 X26.814628 Y22.463216 Z-1.000000 I0.112850 J3.956588
G03 X26.924264 Y22.681860 Z-1.000000 I-0.044923 J0.159336
G03 X26.787497 Y22.809764 Z-1.000000 I-0.199951 J-0.076732
G03 X26.198519 Y22.905941 Z-1.000000 I-0.641739 J-2.078431
G02 X25.776626 Y22.948072 Z-1.000000 I0.068193 J2.816298
G01 X25.775243 Y22.980701 Z-1.000000
G03 X25.950058 Y23.087291 Z-1.000000 I-0.092532 J0.348407
G03 X26.066481 Y23.302681 Z-1.000000 I-0.382324 J0.345815
G02 X26.298468 Y23.493255 Z-1.000000 I0.247426 J-0.064707
G02 X28.306487 Y23.438153 Z-1.000000 I0.691162 J-11.428252
G03 X29.297246 Y23.387858 Z-1.000000 I0.884427 J7.638756
G03 X29.690843 Y23.457293 Z-1.000000 I-0.017260 J1.248133
G03 X29.979900 Y23.700849 Z-1.000000 I-0.174402 J0.500292
G03 X29.900453 Y23.835681 Z-1.000000 I-0.079447 J0.044010
G02 X29.734521 Y23.868764 Z-1.000000 I0.000000 J0.432675
G02 X29.493893 Y24.004505 Z-1.000000 I0.442425 J1.065433
G01 X29.513854 Y24.089802 Z-1.000000
G02 X30.379727 Y24.160092 Z-1.000000 I0.810299 J-4.613428
G02 X31.492792 Y24.117210 Z-1.000000 I-0.249018 J-20.930870
G02 X32.113062 Y24.047034 Z-1.000000 I-0.427344 J-6.553465
G03 X32.720664 Y24.031145 Z-1.000000 I0.362706 J2.244636
G03 X33.261064 Y24.171415 Z-1.000000 I-0.206601 J1.907047
G02 X33.804150 Y24.309768 Z-1.000000 I0.727549 J-1.720813
G02 X34.634049 Y24.307640 Z-1.000000 I0.404499 J-4.076871
G02 X35.446747 Y24.171877 Z-1.000000 I-0.696094 J-6.667256
G02 X35.553669 Y24.095201 Z-1.000000 I-0.038470 J-0.166533
G03 X35.938179 Y23.885242 Z-1.000000 I0.376706 J0.232816
G03 X36.154885 Y24.105801 Z-1.000000 I-0.003888 J0.220559
G02 X36.209183 Y24.186559 Z-1.000000 I0.087204 J0.000000
G02 X36.486352 Y24.240860 Z-1.000000 I0.277169 J-0.680221
G02 X36.686229 Y24.125042 Z-1.000000 I0.000000 J-0.230382
G02 X36.757297 Y23.768153 Z-1.000000 I-0.495987 J-0.284287
G03 X36.885782 Y23.505515 Z-1.000000 I0.263670 J-0.033757
G03 X37.100298 Y23.565565 Z-1.000000 I0.078471 J0.132859
G02 X37.457331 Y23.844428 Z-1.000000 I0.493857 J-0.264304
G02 X37.640534 Y23.701651 Z-1.000000 I0.035966 J-0.142777
G02 X37.398775 Y23.132030 Z-1.000000 I-0.791936 J0.000000
G02 X36.800476 Y22.890270 Z-1.000000 I-0.598299 J0.619444
G03 X36.576739 Y22.823174 Z-1.000000 I-0.000000 J-0.406582
G03 X36.031983 Y22.383798 Z-1.000000 I2.008608 J-3.047747
G02 X34.762950 Y21.332174 Z-1.000000 I-6.973751 J7.123976
G02 X33.316534 Y20.489028 Z-1.000000 I-5.886753 J8.436480
G03 X31.153817 Y19.159016 Z-1.000000 I5.225522 J-10.920550
G03 X30.887582 Y18.617842 Z-1.000000 I0.416903 J-0.541174
G03 X30.969556 Y18.380232 Z-1.000000 I0.385357 J-0.000000
G03 X31.137873 Y18.298262 Z-1.000000 I0.168317 J0.131826
G02 X31.978666 Y18.147150 Z-1.000000 I0.000000 J-2.414665
G02 X33.731680 Y17.334796 Z-1.000000 I-4.300896 J-11.578713
G02 X34.219306 Y16.945269 Z-1.000000 I-0.949488 J-1.688587
G02 X34.508914 Y16.474964 Z-1.000000 I-1.125534 J-1.017412
G03 X34.734931 Y15.946719 Z-1.000000 I7.574510 J2.928380
G03 X34.794799 Y15.867199 Z-1.000000 I0.220528 J0.103733
G02 X34.962632 Y15.495701 Z-1.000000 I-0.324693 J-0.370349
G02 X34.793499 Y15.326962 Z-1.000000 I-0.169133 J0.000395
G03 X34.708569 Y15.205304 Z-1.000000 I0.000000 J-0.090474
G03 X35.061149 Y14.598170 Z-1.000000 I1.900842 J0.697930
G01 X35.019503 Y14.532686 Z-1.000000
G02 X34.264030 Y14.812268 Z-1.000000 I1.136616 J4.231795
G03 X33.508212 Y15.128086 Z-1.000000 I-3.489955 J-7.289862
G03 X33.008436 Y15.263638 Z-1.000000 I-1.092668 J-3.039528
G02 X32.811312 Y15.405952 Z-1.000000 I0.052312 J0.280139
G02 X32.867299 Y15.519070 Z-1.000000 I0.067222 J0.037143
G03 X33.020851 Y15.633331 Z-1.000000 I-0.029580 J0.200059
G03 X33.090718 Y15.995948 Z-1.000000 I-0.681729 J0.319391
G03 X32.387743 Y17.474747 Z-1.000000 I-2.169370 J-0.124766
G03 X30.681762 Y18.198839 Z-1.000000 I-1.878608 J-2.054337
G03 X30.230655 Y18.093593 Z-1.000000 I-0.050014 J-0.805022
G03 X29.717644 Y17.646232 Z-1.000000 I0.866037 J-1.510956
G03 X29.233043 Y16.660169 Z-1.000000 I2.187638 J-1.687225
G03 X29.347747 Y16.236494 Z-1.000000 I0.426476 J-0.111902
G03 X29.437764 Y16.214875 Z-1.000000 I0.062652 J0.062652
G03 X29.974052 Y16.439872 Z-1.000000 I-1.079998 J3.325834
G02 X30.484810 Y16.574072 Z-1.000000 I0.550521 J-1.056195
G02 X30.711394 Y16.464502 Z-1.000000 I0.009032 J-0.270388
G02 X30.838901 Y16.190030 Z-1.000000 I-0.607504 J-0.449070
G02 X30.846026 Y15.897742 Z-1.000000 I-0.685990 J-0.162954
G03 X30.841966 Y15.614198 Z-1.000000 I0.823025 J-0.153585
G03 X30.905666 Y15.518359 Z-1.000000 I0.136129 J0.021390
G02 X31.010668 Y15.312132 Z-1.000000 I-0.117096 J-0.189465
G02 X30.881026 Y15.191905 Z-1.000000 I-0.129642 J0.009784
G03 X30.745229 Y15.166635 Z-1.000000 I-0.000000 J-0.377517
G03 X30.180363 Y14.921787 Z-1.000000 I2.697622 J-6.997416
G02 X29.608775 Y14.705693 Z-1.000000 I-1.501750 J3.108263
G02 X29.207709 Y14.649636 Z-1.000000 I-0.408518 J1.460025
G03 X28.327636 Y14.490481 Z-1.000000 I0.012872 J-2.584010
G03 X27.361667 Y13.969780 Z-1.000000 I1.343909 J-3.649478
G02 X25.995186 Y13.102478 Z-1.000000 I-6.832225 J9.254407
G02 X24.792250 Y12.582290 Z-1.000000 I-3.583989 J6.636991
G02 X23.787746 Y12.360383 Z-1.000000 I-1.567917 J4.712977
G02 X22.986596 Y12.376139 Z-1.000000 I-0.341843 J2.994176
G03 X22.172461 Y12.455588 Z-1.000000 I-1.119211 J-7.257770
G03 X19.009671 Y12.541493 Z-1.000000 I-4.563823 J-109.762328
G02 X15.897382 Y12.656196 Z-1.000000 I0.824514 J64.652676
G02 X15.791124 Y12.737812 Z-1.000000 I0.007287 J0.119466
G03 X15.703034 Y12.803033 Z-1.000000 I-0.090533 J-0.030178
G03 X15.463424 Y12.746212 Z-1.000000 I-0.012334 J-0.481609
G02 X15.178798 Y12.658773 Z-1.000000 I-0.365612 J0.683149
G02 X14.799024 Y12.676382 Z-1.000000 I-0.132040 J1.256376
G03 X14.464447 Y12.688131 Z-1.000000 I-0.203171 J-1.015966
G03 X14.410346 Y12.626672 Z-1.000000 I0.007858 J-0.061459
G02 X14.362344 Y12.569068 Z-1.000000 I-0.058565 J0.000000
G02 X14.185602 Y12.585472 Z-1.000000 I-0.059178 J0.322727
G03 X14.072238 Y12.579448 Z-1.000000 I-0.049929 J-0.130107
G01 X14.055323 Y12.518872 Z-1.000000
G02 X14.028284 Y12.412750 Z-1.000000 I-0.064743 J-0.040010
G02 X13.410450 Y12.151092 Z-1.000000 I-1.415359 J2.481734
G03 X12.696232 Y11.884069 Z-1.000000 I1.422894 J-4.894566
G03 X12.156373 Y11.571928 Z-1.000000 I1.429408 J-3.095134
G02 X11.602207 Y11.327159 Z-1.000000 I-0.881165 J1.245276
G02 X10.370543 Y11.180017 Z-1.000000 I-1.370902 J6.246823
G03 X9.104621 Y11.126022 Z-1.000000 I0.661101 J-30.366409
G03 X8.933550 Y11.088677 Z-1.000000 I0.036818 J-0.579157
G02 X8.821338 Y11.122480 Z-1.000000 I-0.034286 J0.089336
G02 X8.685229 Y11.437122 Z-1.000000 I0.666871 J0.475239
G01 X8.685255 Y11.437084 Z-1.000000
G00 Z5.000000

(End cutting path id: path143)


(Start cutting path id: path143)
(Change tool to Default tool)

G00 Z5.000000
G00 X10.234797 Y13.896587

G01 Z-1.000000 F100.0(Penetrate)
G02 X10.299591 Y13.937974 Z-1.000000 I0.130444 J-0.132804 F3500.000000
G02 X11.128680 Y14.233476 Z-1.000000 I8.602544 J-22.825316
G02 X11.971269 Y14.426509 Z-1.000000 I1.391728 J-4.139429
G02 X12.479271 Y14.404664 Z-1.000000 I0.190008 J-1.499080
G02 X12.735831 Y14.282814 Z-1.000000 I-0.130320 J-0.605419
G01 X12.722134 Y14.210363 Z-1.000000
G02 X10.333372 Y13.693023 Z-1.000000 I-4.133199 J13.311002
G02 X10.234797 Y13.896587 Z-1.000000 I-0.014938 J0.118416
G01 X10.234797 Y13.896587 Z-1.000000
G00 Z5.000000

(End cutting path id: path143)


(Start cutting path id: path143)
(Change tool to Default tool)

G00 Z5.000000
G00 X5.739354 Y13.191451

G01 Z-1.000000 F100.0(Penetrate)
G02 X6.974736 Y13.766693 Z-1.000000 I1.430758 J-1.458511 F3500.000000
G02 X7.184713 Y13.330303 Z-1.000000 I0.024674 J-0.256840
G02 X7.026158 Y13.241695 Z-1.000000 I-0.226913 J0.219874
G02 X6.347120 Y13.144701 Z-1.000000 I-0.974816 J4.399115
G02 X5.755208 Y13.147968 Z-1.000000 I-0.273056 J4.150558
G01 X5.739354 Y13.191451 Z-1.000000
G01 X5.739354 Y13.191451 Z-1.000000
G00 Z5.000000

(End cutting path id: path143)


(Start cutting path id: path143)
(Change tool to Default tool)

G00 Z5.000000
G00 X12.878701 Y17.683148

G01 Z-1.000000 F100.0(Penetrate)
G03 X12.753618 Y17.791135 Z-1.000000 I-0.163229 J-0.062635 F3500.000000
G03 X12.341185 Y17.803322 Z-1.000000 I-0.237829 J-1.063775
G02 X11.925513 Y17.995829 Z-1.000000 I-0.065498 J0.403596
G02 X11.856898 Y18.606699 Z-1.000000 I0.630572 J0.380116
G03 X11.929530 Y19.101793 Z-1.000000 I-1.379380 J0.455235
G03 X11.839998 Y19.222359 Z-1.000000 I-0.130779 J-0.003590
G02 X11.660638 Y19.318309 Z-1.000000 I0.189006 J0.568927
G02 X11.304012 Y19.639797 Z-1.000000 I2.052462 J2.635334
G03 X10.949146 Y19.970336 Z-1.000000 I-3.144659 J-3.020337
G03 X10.604782 Y20.221947 Z-1.000000 I-2.157741 J-2.591706
G02 X10.309393 Y20.495168 Z-1.000000 I0.608585 J0.954254
G02 X10.199605 Y20.759760 Z-1.000000 I0.458193 J0.345192
G03 X10.072265 Y20.980793 Z-1.000000 I-0.338995 J-0.048102
G03 X9.750835 Y21.112686 Z-1.000000 I-0.392644 J-0.499275
G02 X9.239626 Y21.382672 Z-1.000000 I0.088810 J0.787131
G02 X9.216624 Y21.732506 Z-1.000000 I0.220659 J0.190182
G03 X9.253111 Y21.988720 Z-1.000000 I-0.254875 J0.167001
G03 X9.076563 Y22.189932 Z-1.000000 I-0.311714 J-0.095445
G02 X8.996590 Y22.447930 Z-1.000000 I0.075018 J0.164648
G02 X9.417672 Y22.756284 Z-1.000000 I0.578665 J-0.348524
G03 X9.954751 Y22.999935 Z-1.000000 I-0.363393 J1.514793
G03 X10.014926 Y23.179376 Z-1.000000 I-0.092735 J0.130909
G02 X10.089175 Y23.316182 Z-1.000000 I0.102953 J0.032676
G02 X10.753266 Y23.382903 Z-1.000000 I0.527751 J-1.914532
G03 X11.534035 Y23.370000 Z-1.000000 I0.513897 J7.467415
G01 X11.575370 Y23.412223 Z-1.000000
G01 X11.617505 Y23.457232 Z-1.000000
G02 X12.925961 Y23.520984 Z-1.000000 I1.660076 J-20.612321
G02 X14.216008 Y23.483614 Z-1.000000 I0.238816 J-14.041336
G02 X14.275313 Y23.419690 Z-1.000000 I-0.004799 J-0.063924
G02 X14.225696 Y23.343275 Z-1.000000 I-0.083652 J0.000000
G02 X13.971431 Y23.284337 Z-1.000000 I-0.279339 J0.627171
G03 X12.993455 Y23.186795 Z-1.000000 I0.285510 J-7.814053
G03 X12.814180 Y23.094861 Z-1.000000 I0.053103 J-0.324315
G01 X12.823787 Y23.072096 Z-1.000000
G03 X14.635038 Y23.119081 Z-1.000000 I-0.953870 J71.706777
G03 X16.462035 Y23.273865 Z-1.000000 I-0.769700 J19.945085
G03 X16.658253 Y23.384554 Z-1.000000 I-0.039199 J0.298750
G02 X16.840130 Y23.496674 Z-1.000000 I0.247263 J-0.197523
G02 X17.160536 Y23.490619 Z-1.000000 I0.147095 J-0.696588
G01 X17.508354 Y23.403319 Z-1.000000
G01 X17.239679 Y22.876673 Z-1.000000
G02 X16.919045 Y22.434866 Z-1.000000 I-1.564441 J0.798117
G02 X16.714677 Y22.350027 Z-1.000000 I-0.204368 J0.203730
G03 X16.144933 Y22.236176 Z-1.000000 I-0.000000 J-1.482508
G03 X16.031081 Y22.065459 Z-1.000000 I0.071066 J-0.170717
G03 X16.074798 Y21.988558 Z-1.000000 I0.089495 J0.000000
G03 X16.233670 Y21.944850 Z-1.000000 I0.158872 J0.266883
G03 X16.385681 Y21.995429 Z-1.000000 I-0.000000 J0.253718
G03 X16.436258 Y22.096446 Z-1.000000 I-0.075592 J0.101017
G01 X16.486304 Y22.141475 Z-1.000000
G02 X16.645625 Y22.074286 Z-1.000000 I-0.031438 J-0.297036
G02 X16.733809 Y21.894906 Z-1.000000 I-0.156124 J-0.188117
G02 X16.658855 Y21.704384 Z-1.000000 I-0.256316 J-0.009167
G02 X15.794819 Y21.247352 Z-1.000000 I-1.173744 J1.173744
G02 X15.139938 Y21.415919 Z-1.000000 I-0.148231 J0.780512
G03 X14.998670 Y21.440728 Z-1.000000 I-0.092416 J-0.111626
G03 X14.756094 Y21.278473 Z-1.000000 I0.202228 J-0.564793
G03 X14.716357 Y21.137054 Z-1.000000 I0.122263 J-0.110646
G03 X14.792044 Y21.089217 Z-1.000000 I0.060187 J0.011433
G02 X14.989335 Y21.048736 Z-1.000000 I0.057601 J-0.220282
G02 X15.108358 Y20.843470 Z-1.000000 I-0.193894 J-0.249569
G03 X15.230022 Y20.618413 Z-1.000000 I0.364428 J0.051592
G03 X15.457084 Y20.537456 Z-1.000000 I0.215537 J0.245623
G02 X15.695328 Y20.480173 Z-1.000000 I0.016049 J-0.457330
G02 X15.760967 Y20.368632 Z-1.000000 I-0.061952 J-0.111541
G03 X15.858007 Y20.231191 Z-1.000000 I0.145852 J-0.000000
G03 X16.301203 Y20.176772 Z-1.000000 I0.343806 J0.968083
G02 X16.393323 Y19.940914 Z-1.000000 I0.012727 J-0.130948
G02 X15.479600 Y19.554990 Z-1.000000 I-1.218306 J1.609852
G02 X15.348938 Y19.610916 Z-1.000000 I-0.020317 J0.133129
G02 X15.317413 Y19.786800 Z-1.000000 I0.174414 J0.122029
G03 X15.313370 Y19.996986 Z-1.000000 I-0.374461 J0.097929
G03 X15.236483 Y20.054025 Z-1.000000 I-0.076887 J-0.023301
G03 X15.131615 Y20.007512 Z-1.000000 I0.000000 J-0.141474
G03 X15.083604 Y19.885202 Z-1.000000 I0.137579 J-0.124583
G01 X15.043193 Y19.851699 Z-1.000000
G02 X14.961040 Y19.906722 Z-1.000000 I0.021144 J0.120412
G02 X14.889684 Y20.101941 Z-1.000000 I0.413628 J0.261839
G02 X14.910030 Y20.278134 Z-1.000000 I0.353073 J0.048500
G03 X14.917654 Y20.416683 Z-1.000000 I-0.211362 J0.081115
G03 X14.862540 Y20.459206 Z-1.000000 I-0.055114 J-0.014455
G03 X14.241186 Y19.817804 Z-1.000000 I0.000000 J-0.621668
G03 X14.932030 Y18.271360 Z-1.000000 I2.235180 J0.070991
G01 X15.003983 Y18.278037 Z-1.000000
G03 X15.024220 Y18.399555 Z-1.000000 I-0.113000 J0.081263
G02 X14.992882 Y18.664733 Z-1.000000 I0.730765 J0.220800
G02 X15.042800 Y18.718837 Z-1.000000 I0.057936 J-0.003374
G02 X15.803143 Y18.731129 Z-1.000000 I0.430116 J-3.083412
G02 X15.896020 Y18.627817 Z-1.000000 I-0.011020 J-0.103312
G02 X15.837895 Y18.491440 Z-1.000000 I-0.189050 J0.000000
G02 X15.693431 Y18.433320 Z-1.000000 I-0.144464 J0.150479
G03 X15.535452 Y18.388709 Z-1.000000 I-0.000000 J-0.302027
G03 X15.490843 Y18.308992 Z-1.000000 I0.048923 J-0.079717
G02 X15.439523 Y18.226172 Z-1.000000 I-0.092488 J0.000000
G02 X15.051901 Y18.090808 Z-1.000000 I-0.731035 J1.470694
G03 X14.622855 Y17.974420 Z-1.000000 I0.857134 J-4.008673
G03 X14.477900 Y17.901134 Z-1.000000 I0.171709 J-0.519632
G02 X13.859742 Y17.599905 Z-1.000000 I-1.221494 J1.721771
G02 X13.092325 Y17.487906 Z-1.000000 I-0.767417 J2.573168
G02 X12.982830 Y17.530405 Z-1.000000 I-0.000000 J0.162301
G02 X12.878699 Y17.683149 Z-1.000000 I0.271264 J0.296797
G01 X12.878701 Y17.683148 Z-1.000000
G00 Z5.000000

(End cutting path id: path143)


(Start cutting path id: path143)
(Change tool to Default tool)

G00 Z5.000000
G00 X14.140254 Y18.163201

G01 Z-1.000000 F100.0(Penetrate)
G03 X14.092523 Y18.250525 Z-1.000000 I-0.103745 J0.000000 F3500.000000
G03 X13.929695 Y18.298260 Z-1.000000 I-0.162828 J-0.253843
G03 X13.811074 Y18.246999 Z-1.000000 I-0.000000 J-0.162879
G03 X13.802607 Y18.163201 Z-1.000000 I0.050394 J-0.047418
G03 X13.903932 Y18.060165 Z-1.000000 I0.277392 J0.171447
G03 X14.013166 Y18.028142 Z-1.000000 I0.109234 J0.170292
G03 X14.101909 Y18.066492 Z-1.000000 I0.000000 J0.121851
G03 X14.140254 Y18.163201 Z-1.000000 I-0.102780 J0.096709
G01 X14.140254 Y18.163201 Z-1.000000
G00 Z5.000000

(End cutting path id: path143)


(Start cutting path id: path143)
(Change tool to Default tool)

G00 Z5.000000
G00 X14.545431 Y18.357818

G01 Z-1.000000 F100.0(Penetrate)
G03 X14.526048 Y18.406574 Z-1.000000 I-0.071013 J0.000000 F3500.000000
G03 X14.410372 Y18.500848 Z-1.000000 I-0.417811 J-0.394559
G03 X14.318299 Y18.507224 Z-1.000000 I-0.052094 J-0.084285
G03 X14.275313 Y18.441288 Z-1.000000 I0.029076 J-0.065936
G03 X14.316001 Y18.338940 Z-1.000000 I0.149070 J0.000000
G03 X14.410372 Y18.298258 Z-1.000000 I0.094371 J0.089118
G03 X14.521924 Y18.321761 Z-1.000000 I0.000000 J0.276478
G01 X14.545431 Y18.357818 Z-1.000000
G01 X14.545431 Y18.357818 Z-1.000000
G00 Z5.000000

(End cutting path id: path143)


(Start cutting path id: path143)
(Change tool to Default tool)

G00 Z5.000000
G00 X15.220727 Y19.106080

G01 Z-1.000000 F100.0(Penetrate)
G02 X15.354563 Y19.299773 Z-1.000000 I0.207079 J0.000000 F3500.000000
G02 X15.762171 Y19.310819 Z-1.000000 I0.219698 J-0.581003
G02 X15.831166 Y19.155048 Z-1.000000 I-0.034406 J-0.108405
G02 X15.625635 Y19.012757 Z-1.000000 I-0.222620 J0.101978
G02 X15.272952 Y19.040445 Z-1.000000 I-0.083607 J1.195077
G02 X15.220727 Y19.106077 Z-1.000000 I0.015128 J0.065632
G01 X15.220727 Y19.106080 Z-1.000000
G00 Z5.000000

(End cutting path id: path143)


(Start cutting path id: path143)
(Change tool to Default tool)

G00 Z5.000000
G00 X18.259555 Y18.973555

G01 Z-1.000000 F100.0(Penetrate)
G03 X18.252388 Y19.058081 Z-1.000000 I-0.060562 J0.037432 F3500.000000
G03 X18.140438 Y19.108614 Z-1.000000 I-0.111950 J-0.098739
G03 X17.960357 Y19.068238 Z-1.000000 I0.000000 J-0.421778
G03 X17.854378 Y18.973555 Z-1.000000 I0.106798 J-0.226193
G03 X17.861545 Y18.889029 Z-1.000000 I0.060562 J-0.037431
G03 X17.973496 Y18.838496 Z-1.000000 I0.111951 J0.098741
G03 X18.153575 Y18.878872 Z-1.000000 I0.000000 J0.421775
G03 X18.259555 Y18.973555 Z-1.000000 I-0.106798 J0.226193
G01 X18.259555 Y18.973555 Z-1.000000
G00 Z5.000000

(End cutting path id: path143)


(Start cutting path id: path143)
(Change tool to Default tool)

G00 Z5.000000
G00 X19.069909 Y20.189086

G01 Z-1.000000 F100.0(Penetrate)
G03 X19.076285 Y20.281159 Z-1.000000 I-0.084285 J0.052094 F3500.000000
G03 X19.010349 Y20.324145 Z-1.000000 I-0.065936 J-0.029076
G03 X18.908001 Y20.283457 Z-1.000000 I0.000000 J-0.149070
G03 X18.867319 Y20.189086 Z-1.000000 I0.089118 J-0.094371
G03 X18.890822 Y20.077534 Z-1.000000 I0.276478 J0.000000
G01 X18.926879 Y20.054027 Z-1.000000
G03 X18.975636 Y20.073410 Z-1.000000 I0.000000 J0.071013
G03 X19.069908 Y20.189086 Z-1.000000 I-0.394544 J0.417795
G01 X19.069909 Y20.189086 Z-1.000000
G00 Z5.000000

(End cutting path id: path143)


(Start cutting path id: path143)
(Change tool to Default tool)

G00 Z5.000000
G00 X17.989437 Y21.638497

G01 Z-1.000000 F100.0(Penetrate)
G02 X17.743642 Y21.740024 Z-1.000000 I0.220256 J0.881528 F3500.000000
G02 X17.620093 Y21.859184 Z-1.000000 I0.194142 J0.324924
G03 X17.557916 Y21.884275 Z-1.000000 I-0.048945 J-0.031703
G03 X17.518799 Y21.835584 Z-1.000000 I0.011482 J-0.049283
G02 X17.470038 Y21.743720 Z-1.000000 I-0.113330 J0.001282
G02 X17.383016 Y21.741434 Z-1.000000 I-0.045256 J0.065285
G02 X17.337822 Y21.836188 Z-1.000000 I0.050965 J0.082463
G02 X17.416776 Y22.005584 Z-1.000000 I0.304773 J-0.038954
G02 X17.571111 Y22.070817 Z-1.000000 I0.149104 J-0.137578
G02 X17.692260 Y21.998484 Z-1.000000 I-0.003710 J-0.143835
G03 X17.832368 Y21.865209 Z-1.000000 I0.293000 J0.167740
G03 X18.063673 Y21.809834 Z-1.000000 I0.231305 J0.455396
G02 X18.275856 Y21.758606 Z-1.000000 I0.000000 J-0.465036
G02 X18.327080 Y21.674775 Z-1.000000 I-0.042985 J-0.083831
G02 X18.311696 Y21.563819 Z-1.000000 I-0.407819 J-0.000000
G01 X18.293320 Y21.555383 Z-1.000000
G03 X18.258525 Y21.568102 Z-1.000000 I-0.093616 J-0.202144
G03 X17.989437 Y21.638533 Z-1.000000 I-3.274324 J-11.960634
G01 X17.989437 Y21.638497 Z-1.000000
G00 Z5.000000

(End cutting path id: path143)


(Start cutting path id: path143)
(Change tool to Default tool)

G00 Z5.000000
G00 X17.658356 Y23.261680

G01 Z-1.000000 F100.0(Penetrate)
G03 X17.723383 Y23.896597 Z-1.000000 I-6.218241 J0.957650 F3500.000000
G03 X17.696506 Y24.004505 Z-1.000000 I-0.190726 J0.009796
G02 X17.683678 Y24.078689 Z-1.000000 I0.089697 J0.053712
G01 X17.716736 Y24.105799 Z-1.000000
G02 X18.649403 Y23.885092 Z-1.000000 I-0.000000 J-2.080994
G02 X18.867060 Y23.529053 Z-1.000000 I-0.176792 J-0.352627
G01 X18.852047 Y23.511896 Z-1.000000
G02 X18.438305 Y23.467853 Z-1.000000 I-0.822948 J5.765392
G03 X17.928695 Y23.238059 Z-1.000000 I0.056765 J-0.805862
G03 X17.927539 Y22.965676 Z-1.000000 I0.134463 J-0.136765
G02 X17.979110 Y22.741908 Z-1.000000 I-0.153114 J-0.153114
G02 X17.808267 Y22.620146 Z-1.000000 I-0.170843 J0.058972
G02 X17.679055 Y22.722646 Z-1.000000 I0.000000 J0.132692
G02 X17.658363 Y23.261677 Z-1.000000 I1.382194 J0.322972
G01 X17.658356 Y23.261680 Z-1.000000
G00 Z5.000000

(End cutting path id: path143)


(Start cutting path id: path143)
(Change tool to Default tool)

G00 Z5.000000
G00 X16.057992 Y24.509145

G01 Z-1.000000 F100.0(Penetrate)
G02 X15.627305 Y24.641071 Z-1.000000 I0.802954 J3.390299 F3500.000000
G02 X15.517756 Y24.713686 Z-1.000000 I0.105014 J0.277370
G02 X15.600800 Y24.864040 Z-1.000000 I0.065119 J0.062144
G02 X16.571317 Y24.499583 Z-1.000000 I-0.652961 J-3.213205
G01 X16.556638 Y24.446198 Z-1.000000
G02 X16.057992 Y24.509183 Z-1.000000 I0.043985 J2.353588
G01 X16.057992 Y24.509145 Z-1.000000
G00 Z5.000000

(End cutting path id: path143)


(Start cutting path id: path143)
(Change tool to Default tool)

G00 Z5.000000
G00 X12.384487 Y22.890268

G01 Z-1.000000 F100.0(Penetrate)
G03 X12.334814 Y22.975215 Z-1.000000 I-0.097471 J-0.000000 F3500.000000
G03 X12.148133 Y23.023258 Z-1.000000 I-0.183407 J-0.325949
G03 X12.082408 Y22.971662 Z-1.000000 I0.000610 J-0.068437
G03 X12.114373 Y22.890268 Z-1.000000 I0.072647 J-0.018444
G03 X12.322958 Y22.828735 Z-1.000000 I0.208585 J0.322760
G03 X12.384491 Y22.890268 Z-1.000000 I0.000000 J0.061533
G01 X12.384487 Y22.890268 Z-1.000000
G00 Z5.000000

(End cutting path id: path143)


(Start cutting path id: path143)
(Change tool to Default tool)

G00 Z5.000000
G00 X11.709191 Y23.848322

G01 Z-1.000000 F100.0(Penetrate)
G02 X11.757178 Y23.922753 Z-1.000000 I0.081717 J0.000000 F3500.000000
G02 X11.979310 Y23.970737 Z-1.000000 I0.222132 J-0.490164
G02 X12.225996 Y23.947307 Z-1.000000 I-0.000000 J-1.310344
G01 X12.249428 Y23.918957 Z-1.000000
G01 X12.227139 Y23.884385 Z-1.000000
G02 X11.979310 Y23.796542 Z-1.000000 I-0.640067 J1.412295
G02 X11.758060 Y23.789196 Z-1.000000 I-0.126854 J0.485099
G02 X11.709191 Y23.848322 Z-1.000000 I0.011334 J0.059126
G01 X11.709191 Y23.848322 Z-1.000000
G00 Z5.000000

(End cutting path id: path143)


(Start cutting path id: path143)
(Change tool to Default tool)

G00 Z5.000000
G00 X10.947957 Y25.461290

G01 Z-1.000000 F100.0(Penetrate)
G03 X10.006232 Y25.955060 Z-1.000000 I-1.261985 J-1.261953 F3500.000000
G03 X9.845276 Y25.662438 Z-1.000000 I-0.031593 J-0.173200
G03 X9.955703 Y25.587482 Z-1.000000 I0.215983 J0.199371
G03 X10.385512 Y25.454558 Z-1.000000 I1.199703 J3.117890
G03 X10.921074 Y25.395237 Z-1.000000 I0.509230 J2.150195
G01 X10.947957 Y25.461258 Z-1.000000
G01 X10.947957 Y25.461290 Z-1.000000
G00 Z5.000000

(End cutting path id: path143)


(Start cutting path id: path143)
(Change tool to Default tool)

G00 Z5.000000
G00 X11.979310 Y25.996624

G01 Z-1.000000 F100.0(Penetrate)
G01 X11.506603 Y26.096124 Z-1.000000 F3500.000000
G01 X11.979310 Y26.111834 Z-1.000000
G02 X12.439004 Y26.080572 Z-1.000000 I0.075562 J-2.284336
G02 X12.654605 Y25.996623 Z-1.000000 I-0.096699 J-0.567178
G02 X12.696313 Y25.920010 Z-1.000000 I-0.049511 J-0.076613
G01 X12.654605 Y25.881411 Z-1.000000
G02 X12.453338 Y25.906306 Z-1.000000 I0.169566 J2.196939
G02 X11.979310 Y25.996623 Z-1.000000 I2.117678 J12.403691
G01 X11.979310 Y25.996624 Z-1.000000
G00 Z5.000000

(End cutting path id: path143)


(Start cutting path id: path143)
(Change tool to Default tool)

G00 Z5.000000
G00 X11.050937 Y27.816389

G01 Z-1.000000 F100.0(Penetrate)
G02 X10.210927 Y29.294110 Z-1.000000 I6.530679 J4.689974 F3500.000000
G02 X9.867411 Y30.532056 Z-1.000000 I4.210528 J1.835009
G02 X9.821717 Y31.115381 Z-1.000000 I5.560577 J0.729024
G01 X9.851900 Y31.128870 Z-1.000000
G02 X9.907531 Y31.050374 Z-1.000000 I-0.167778 J-0.177865
G02 X10.422588 Y29.845809 Z-1.000000 I-41.422432 J-18.424136
G03 X10.955782 Y28.647569 Z-1.000000 I20.876634 J8.571954
G03 X11.315439 Y27.986718 Z-1.000000 I6.695171 J3.215440
G02 X11.651247 Y27.289558 Z-1.000000 I-3.299570 J-2.018791
G02 X11.597028 Y27.212157 Z-1.000000 I-0.054219 J-0.019711
G02 X11.505677 Y27.252727 Z-1.000000 I-0.000000 J0.123131
G02 X11.050937 Y27.816389 Z-1.000000 I4.795799 J4.334326
G01 X11.050937 Y27.816389 Z-1.000000
G00 Z5.000000

(End cutting path id: path143)


(Start cutting path id: path143)
(Change tool to Default tool)

G00 Z5.000000
G00 X8.974246 Y25.951014

G01 Z-1.000000 F100.0(Penetrate)
G02 X9.143070 Y25.983793 Z-1.000000 I0.168824 J-0.418356 F3500.000000
G02 X9.311893 Y25.951014 Z-1.000000 I0.000000 J-0.451136
G01 X9.311893 Y25.915669 Z-1.000000
G02 X9.143070 Y25.882894 Z-1.000000 I-0.168823 J0.418415
G02 X8.974247 Y25.915669 Z-1.000000 I0.000000 J0.451189
G01 X8.974246 Y25.951014 Z-1.000000
G01 X8.974246 Y25.951014 Z-1.000000
G00 Z5.000000

(End cutting path id: path143)


(Start cutting path id: path143)
(Change tool to Default tool)

G00 Z5.000000
G00 X8.467774 Y25.531890

G01 Z-1.000000 F100.0(Penetrate)
G03 X8.409633 Y25.668367 Z-1.000000 I-0.189249 J-0.000000 F3500.000000
G03 X8.265186 Y25.726508 Z-1.000000 I-0.144447 J-0.150363
G03 X8.068852 Y25.574735 Z-1.000000 I0.000000 J-0.202875
G03 X8.148965 Y25.279983 Z-1.000000 I0.297445 J-0.077418
G03 X8.340349 Y25.268803 Z-1.000000 I0.101976 J0.101975
G03 X8.467774 Y25.531890 Z-1.000000 I-0.207876 J0.263087
G01 X8.467774 Y25.531890 Z-1.000000
G00 Z5.000000

(End cutting path id: path143)


(Start cutting path id: path143)
(Change tool to Default tool)

G00 Z5.000000
G00 X9.749474 Y25.188474

G01 Z-1.000000 F100.0(Penetrate)
G03 X9.650716 Y25.266759 Z-1.000000 I-0.157623 J-0.097409 F3500.000000
G03 X9.550450 Y25.255164 Z-1.000000 I-0.037768 J-0.112724
G02 X9.459840 Y25.253203 Z-1.000000 I-0.046970 J0.075991
G02 X9.373387 Y25.354254 Z-1.000000 I0.094021 J0.167946
G03 X9.282815 Y25.403994 Z-1.000000 I-0.074004 J-0.027423
G03 X9.062792 Y25.287564 Z-1.000000 I0.096153 J-0.447812
G03 X9.064684 Y25.151187 Z-1.000000 I0.064222 J-0.067311
G03 X9.324688 Y25.051210 Z-1.000000 I0.260004 J0.288102
G03 X9.722023 Y25.113813 Z-1.000000 I0.000000 J1.292227
G03 X9.749474 Y25.188472 Z-1.000000 I-0.015539 J0.048089
G01 X9.749474 Y25.188474 Z-1.000000
G00 Z5.000000

(End cutting path id: path143)


(Start cutting path id: path143)
(Change tool to Default tool)

G00 Z5.000000
G00 X7.972990 Y23.782000

G01 Z-1.000000 F100.0(Penetrate)
G03 X7.899173 Y23.941679 Z-1.000000 I-0.176688 J0.015222 F3500.000000
G03 X7.657420 Y24.006723 Z-1.000000 I-0.208341 J-0.292566
G02 X7.577903 Y24.039722 Z-1.000000 I-0.008566 J0.091666
G01 X7.589890 Y24.088393 Z-1.000000
G02 X7.863407 Y24.144411 Z-1.000000 I0.278652 J-0.664814
G02 X8.240390 Y24.092993 Z-1.000000 I0.009531 J-1.337810
G03 X8.525102 Y24.076417 Z-1.000000 I0.179438 J0.628642
G03 X8.567610 Y24.146383 Z-1.000000 I-0.008675 J0.053166
G03 X8.462892 Y24.246842 Z-1.000000 I-0.146727 J-0.048140
G03 X7.474815 Y24.455344 Z-1.000000 I-2.035158 J-7.199004
G02 X6.480823 Y24.689840 Z-1.000000 I0.784284 J5.548385
G02 X6.163156 Y24.894286 Z-1.000000 I0.243315 J0.727080
G03 X5.856773 Y25.110540 Z-1.000000 I-0.670261 J-0.624445
G03 X5.457449 Y25.199734 Z-1.000000 I-0.433156 J-1.000761
G02 X5.028604 Y25.240726 Z-1.000000 I0.104082 J3.352618
G02 X4.686121 Y25.323862 Z-1.000000 I0.356651 J2.216242
G01 X4.690910 Y25.363776 Z-1.000000
G02 X5.158828 Y25.360762 Z-1.000000 I0.216136 J-2.768826
G03 X5.969306 Y25.290364 Z-1.000000 I8.920557 J97.999649
G03 X6.036712 Y25.288172 Z-1.000000 I0.055601 J0.672348
G03 X6.482925 Y25.387139 Z-1.000000 I-0.020029 J1.145711
G03 X6.533624 Y25.509545 Z-1.000000 I-0.039163 J0.087923
G02 X6.542901 Y25.679094 Z-1.000000 I0.193927 J0.074417
G02 X6.789292 Y26.005794 Z-1.000000 I1.072323 J-0.552463
G01 X7.117184 Y26.313832 Z-1.000000
G01 X7.117184 Y25.893083 Z-1.000000
G03 X7.298382 Y25.559495 Z-1.000000 I0.397669 J0.000000
G03 X7.535804 Y25.621434 Z-1.000000 I0.090433 J0.139361
G02 X7.865438 Y26.020225 Z-1.000000 I1.119281 J-0.589550
G02 X8.171862 Y26.129620 Z-1.000000 I0.312276 J-0.390852
G02 X8.255903 Y26.079270 Z-1.000000 I0.001124 J-0.093435
G02 X8.252037 Y25.975354 Z-1.000000 I-0.093441 J-0.048554
G01 X8.274229 Y25.906838 Z-1.000000
G03 X8.446655 Y25.895184 Z-1.000000 I0.103605 J0.251501
G02 X8.693407 Y25.913724 Z-1.000000 I0.174090 J-0.665692
G01 X8.737893 Y25.864264 Z-1.000000
G03 X9.098896 Y25.452529 Z-1.000000 I0.415299 J0.000000
G03 X9.579669 Y25.753257 Z-1.000000 I0.058231 J0.441576
G02 X10.182103 Y26.156622 Z-1.000000 I0.561596 J-0.187199
G02 X12.694315 Y25.537866 Z-1.000000 I-0.520069 J-7.520832
G03 X13.202944 Y25.366902 Z-1.000000 I1.204985 J2.742821
G03 X13.326513 Y25.386779 Z-1.000000 I0.037884 J0.158519
G02 X13.431998 Y25.400241 Z-1.000000 I0.067549 J-0.109286
G02 X13.531127 Y25.323549 Z-1.000000 I-0.052706 J-0.170537
G03 X13.642213 Y25.232979 Z-1.000000 I0.186375 J0.115182
G03 X13.911872 Y25.184218 Z-1.000000 I0.275260 J0.752238
G02 X14.020062 Y25.127483 Z-1.000000 I-0.000942 J-0.133318
G02 X14.005192 Y25.051227 Z-1.000000 I-0.044135 J-0.030971
G03 X13.994744 Y24.952118 Z-1.000000 I0.034747 J-0.053768
G03 X14.161062 Y24.895857 Z-1.000000 I0.140281 J0.140732
G02 X14.237153 Y24.876239 Z-1.000000 I0.013719 J-0.104161
G02 X14.413953 Y24.709262 Z-1.000000 I-0.596960 J-0.809167
G02 X14.383595 Y24.602520 Z-1.000000 I-0.051769 J-0.042965
G02 X13.823380 Y24.510991 Z-1.000000 I-0.560215 J1.668676
G02 X13.190721 Y24.595170 Z-1.000000 I0.000000 J2.419514
G02 X13.139364 Y24.696294 Z-1.000000 I0.019979 J0.073750
G03 X13.092450 Y24.802699 Z-1.000000 I-0.077057 J0.029570
G03 X12.628654 Y24.896644 Z-1.000000 I-0.499130 J-1.272321
G02 X12.049447 Y24.932738 Z-1.000000 I0.207285 J7.991694
G02 X11.709188 Y24.987584 Z-1.000000 I0.276855 J2.800472
G03 X10.057440 Y25.223226 Z-1.000000 I-2.306531 J-10.260930
G03 X9.998646 Y25.094290 Z-1.000000 I-0.004723 J-0.075719
G03 X10.127432 Y25.023487 Z-1.000000 I0.182718 J0.179826
G03 X11.212225 Y24.833138 Z-1.000000 I3.029098 J14.076434
G01 X12.316954 Y24.682583 Z-1.000000
G01 X11.416561 Y24.664313 Z-1.000000
G03 X10.569340 Y24.573610 Z-1.000000 I0.100185 J-4.937922
G03 X10.459346 Y24.477220 Z-1.000000 I0.027912 J-0.142804
G02 X10.370016 Y24.420171 Z-1.000000 I-0.080101 J0.026962
G02 X10.152047 Y24.510980 Z-1.000000 I0.045808 J0.416952
G03 X10.023613 Y24.573250 Z-1.000000 I-0.198006 J-0.244810
G01 X10.002995 Y24.544750 Z-1.000000
G02 X9.985106 Y24.442910 Z-1.000000 I-0.067609 J-0.040616
G02 X9.792568 Y24.373858 Z-1.000000 I-0.194585 J0.239611
G03 X9.667042 Y24.318469 Z-1.000000 I0.001143 J-0.172522
G01 X9.676259 Y24.248079 Z-1.000000
G02 X9.669380 Y24.157350 Z-1.000000 I-0.027544 J-0.043537
G02 X8.940478 Y23.925885 Z-1.000000 I-1.459876 J3.333850
G01 X8.942689 Y23.900244 Z-1.000000
G03 X10.064511 Y23.891875 Z-1.000000 I0.744553 J24.611524
G02 X11.438123 Y23.875748 Z-1.000000 I0.389061 J-25.367779
G02 X11.506480 Y23.835875 Z-1.000000 I-0.003267 J-0.084133
G01 X11.493607 Y23.790066 Z-1.000000
G02 X11.327860 Y23.745315 Z-1.000000 I-0.190187 J0.375089
G03 X11.101466 Y23.731373 Z-1.000000 I2.243557 J-38.275707
G03 X9.526166 Y23.628928 Z-1.000000 I106.865118 J-1655.434910
G02 X8.080463 Y23.652652 Z-1.000000 I-0.578207 J8.826088
G02 X7.972987 Y23.781998 Z-1.000000 I0.011735 J0.119075
G01 X7.972990 Y23.782000 Z-1.000000
G00 Z5.000000

(End cutting path id: path143)


(Start cutting path id: path143)
(Change tool to Default tool)

G00 Z5.000000
G00 X4.213414 Y26.223538

G01 Z-1.000000 F100.0(Penetrate)
G02 X2.763598 Y26.654291 Z-1.000000 I2.419223 J10.797813 F3500.000000
G02 X2.660235 Y26.803193 Z-1.000000 I0.055571 J0.148902
G03 X2.616188 Y26.878398 Z-1.000000 I-0.086226 J0.000000
G03 X2.306651 Y27.001500 Z-1.000000 I-0.616177 J-1.098655
G02 X2.021787 Y27.109244 Z-1.000000 I0.321139 J1.279500
G01 X2.015104 Y27.152282 Z-1.000000
G02 X2.088007 Y27.175099 Z-1.000000 I0.058255 J-0.058257
G02 X3.135346 Y26.949879 Z-1.000000 I-2.880603 J-15.943478
G03 X4.251626 Y26.843453 Z-1.000000 I0.910638 J3.644072
G03 X4.364213 Y27.017259 Z-1.000000 I-0.007013 J0.127911
G01 X4.407707 Y27.068656 Z-1.000000
G02 X4.764291 Y26.936069 Z-1.000000 I-0.243854 J-1.201623
G03 X5.245109 Y26.711478 Z-1.000000 I1.739473 J3.096987
G03 X5.466819 Y26.669859 Z-1.000000 I0.227423 J0.600166
G02 X5.540921 Y26.622635 Z-1.000000 I-0.000753 J-0.082933
G02 X5.521510 Y26.555198 Z-1.000000 I-0.047736 J-0.022772
G02 X5.334756 Y26.490916 Z-1.000000 I-0.228418 J0.360183
G02 X5.015038 Y26.505478 Z-1.000000 I-0.109418 J1.114737
G03 X4.743229 Y26.499294 Z-1.000000 I-0.121513 J-0.635693
G03 X4.686122 Y26.426948 Z-1.000000 I0.017273 J-0.072346
G03 X4.738874 Y26.329094 Z-1.000000 I0.117134 J-0.000000
G03 X4.990004 Y26.227007 Z-1.000000 I0.382882 J0.581947
G01 X4.995557 Y26.195931 Z-1.000000
G02 X4.888710 Y26.165747 Z-1.000000 I-0.108255 J0.179002
G02 X4.485526 Y26.181610 Z-1.000000 I-0.029495 J4.381931
G02 X4.213415 Y26.223537 Z-1.000000 I0.174062 J2.033681
G01 X4.213414 Y26.223538 Z-1.000000
G00 Z5.000000

(End cutting path id: path143)


(Start cutting path id: path143)
(Change tool to Default tool)

G00 Z5.000000
G00 X2.694000 Y27.962237

G01 Z-1.000000 F100.0(Penetrate)
G02 X2.012363 Y28.295164 Z-1.000000 I4.261210 J9.588706 F3500.000000
G02 X1.984940 Y28.340896 Z-1.000000 I0.024422 J0.045732
G01 X2.013593 Y28.361866 Z-1.000000
G02 X2.694000 Y28.115936 Z-1.000000 I-2.763556 J-8.710052
G02 X3.452031 Y27.756987 Z-1.000000 I-2.833528 J-6.963750
G01 X3.459335 Y27.699763 Z-1.000000
G02 X3.396459 Y27.686309 Z-1.000000 I-0.042630 J0.045577
G02 X2.694000 Y27.962237 Z-1.000000 I2.790130 J8.135241
G01 X2.694000 Y27.962237 Z-1.000000
G00 Z5.000000

(End cutting path id: path143)


(Start cutting path id: path143)
(Change tool to Default tool)

G00 Z5.000000
G00 X5.997578 Y29.238043

G01 Z-1.000000 F100.0(Penetrate)
G03 X5.994090 Y29.450930 Z-1.000000 I-0.383145 J0.100195 F3500.000000
G03 X5.917404 Y29.508161 Z-1.000000 I-0.076686 J-0.022763
G03 X5.812396 Y29.462359 Z-1.000000 I0.000000 J-0.143276
G03 X5.766593 Y29.345692 Z-1.000000 I0.125685 J-0.116667
G02 X5.539985 Y29.255818 Z-1.000000 I-0.131126 J0.000000
G02 X4.215284 Y30.993811 Z-1.000000 I7.672579 J7.221895
G02 X3.803010 Y31.753377 Z-1.000000 I7.367911 J4.490785
G02 X3.664725 Y32.141813 Z-1.000000 I1.770854 J0.849266
G01 X3.735050 Y32.184592 Z-1.000000
G02 X4.209563 Y31.669106 Z-1.000000 I-2.051664 J-2.364732
G03 X4.881084 Y30.815654 Z-1.000000 I12.608777 J9.230045
G03 X5.595778 Y30.028048 Z-1.000000 I11.449317 J9.671330
G02 X6.242961 Y29.254285 Z-1.000000 I-4.767902 J-4.645453
G02 X6.247591 Y29.116399 Z-1.000000 I-0.101292 J-0.072422
G02 X6.076362 Y29.066754 Z-1.000000 I-0.113073 J0.069883
G02 X5.997578 Y29.238043 Z-1.000000 I0.065041 J0.133678
G01 X5.997578 Y29.238043 Z-1.000000
G00 Z5.000000

(End cutting path id: path143)


(Start cutting path id: path143)
(Change tool to Default tool)

G00 Z5.000000
G00 X7.653937 Y29.572051

G01 Z-1.000000 F100.0(Penetrate)
G02 X7.177694 Y30.269943 Z-1.000000 I7.950572 J5.936930 F3500.000000
G02 X6.797178 Y30.950118 Z-1.000000 I7.170506 J4.457977
G02 X6.047450 Y32.667112 Z-1.000000 I16.058948 J8.034345
G02 X6.085583 Y32.843470 Z-1.000000 I0.155898 J0.058593
G01 X6.117172 Y32.839842 Z-1.000000
G02 X6.910580 Y31.517954 Z-1.000000 I-40.517732 J-25.218115
G03 X7.731200 Y30.177628 Z-1.000000 I27.252607 J15.764141
G03 X8.214565 Y29.502871 Z-1.000000 I7.372910 J4.771102
G02 X8.515767 Y28.964328 Z-1.000000 I-1.529211 J-1.208773
G02 X8.445690 Y28.871664 Z-1.000000 I-0.064887 J-0.023759
G02 X8.204989 Y28.973350 Z-1.000000 I0.030777 J0.408578
G02 X7.653937 Y29.572051 Z-1.000000 I2.632614 J2.976038
G01 X7.653937 Y29.572051 Z-1.000000
G00 Z5.000000

(End cutting path id: path143)


(Start cutting path id: path143)
(Change tool to Default tool)

G00 Z5.000000
G00 X19.947793 Y23.147741

G01 Z-1.000000 F100.0(Penetrate)
G02 X19.996662 Y23.206867 Z-1.000000 I0.060203 J0.000000 F3500.000000
G02 X20.217911 Y23.199521 Z-1.000000 I0.094396 J-0.492442
G02 X20.465744 Y23.111673 Z-1.000000 I-0.392366 J-1.500434
G01 X20.488029 Y23.077106 Z-1.000000
G01 X20.464597 Y23.048756 Z-1.000000
G02 X20.217911 Y23.025326 Z-1.000000 I-0.246686 J1.286914
G02 X19.995776 Y23.073313 Z-1.000000 I-0.000000 J0.538129
G02 X19.947793 Y23.147740 Z-1.000000 I0.033731 J0.074427
G01 X19.947793 Y23.147741 Z-1.000000
G00 Z5.000000

(End cutting path id: path143)


(Start cutting path id: path143)
(Change tool to Default tool)

G00 Z5.000000
G00 X20.451837 Y21.539677

G01 Z-1.000000 F100.0(Penetrate)
G03 X20.198016 Y21.760825 Z-1.000000 I-0.878964 J-0.752590 F3500.000000
G03 X20.031095 Y21.809795 Z-1.000000 I-0.166921 J-0.260001
G02 X19.752587 Y21.976524 Z-1.000000 I0.000000 J0.315978
G02 X19.669214 Y22.485090 Z-1.000000 I0.702026 J0.376205
G02 X19.806976 Y22.643595 Z-1.000000 I0.198572 J-0.033466
G02 X20.087584 Y22.617617 Z-1.000000 I0.109503 J-0.345688
G03 X20.276911 Y22.560243 Z-1.000000 I0.238297 J0.445284
G01 X20.299778 Y22.596947 Z-1.000000
G02 X20.440426 Y22.889145 Z-1.000000 I0.163683 J0.101161
G02 X21.009561 Y22.682527 Z-1.000000 I0.080301 J-0.665967
G02 X21.079037 Y22.565919 Z-1.000000 I-0.229736 J-0.215879
G01 X21.054861 Y22.545987 Z-1.000000
G03 X20.894571 Y22.554584 Z-1.000000 I-0.088851 J-0.158029
G03 X20.638063 Y22.367291 Z-1.000000 I0.279684 J-0.652340
G02 X20.393040 Y22.208468 Z-1.000000 I-0.397387 J0.344652
G02 X20.240054 Y22.246843 Z-1.000000 I-0.044457 J0.146904
G03 X20.129895 Y22.290476 Z-1.000000 I-0.105514 J-0.105513
G01 X20.082850 Y22.241943 Z-1.000000
G03 X20.154380 Y22.127000 Z-1.000000 I0.128117 J-0.000000
G03 X20.521792 Y22.025849 Z-1.000000 I0.448364 J0.910743
G02 X20.760050 Y21.851755 Z-1.000000 I-0.022467 J-0.280829
G02 X20.718983 Y21.544166 Z-1.000000 I-0.288338 J-0.118039
G01 X20.735584 Y21.522021 Z-1.000000
G03 X20.871759 Y21.603376 Z-1.000000 I-0.170614 J0.440224
G02 X21.091858 Y21.717170 Z-1.000000 I0.352897 J-0.412814
G01 X21.139550 Y21.670906 Z-1.000000
G02 X20.978667 Y21.370728 Z-1.000000 I-0.611690 J0.134637
G02 X20.754396 Y21.271587 Z-1.000000 I-0.233687 J0.225397
G02 X20.693776 Y21.293605 Z-1.000000 I-0.002460 J0.087682
G02 X20.451835 Y21.539637 Z-1.000000 I1.661219 J1.875577
G01 X20.451837 Y21.539677 Z-1.000000
G00 Z5.000000

(End cutting path id: path143)


(Start cutting path id: path143)
(Change tool to Default tool)

G00 Z5.000000
G00 X23.729447 Y20.069969

G01 Z-1.000000 F100.0(Penetrate)
G03 X23.687840 Y20.130403 Z-1.000000 I-0.064693 J0.000000 F3500.000000
G03 X23.594388 Y20.121559 Z-1.000000 I-0.037784 J-0.098910
G03 X23.492451 Y20.019622 Z-1.000000 I0.164960 J-0.266897
G03 X23.459328 Y19.903029 Z-1.000000 I0.188642 J-0.116593
G03 X23.500935 Y19.842595 Z-1.000000 I0.064693 J0.000000
G03 X23.594388 Y19.851439 Z-1.000000 I0.037784 J0.098912
G03 X23.696324 Y19.953376 Z-1.000000 I-0.164958 J0.266893
G03 X23.729447 Y20.069969 Z-1.000000 I-0.188644 J0.116593
G01 X23.729447 Y20.069969 Z-1.000000
G00 Z5.000000

(End cutting path id: path143)


(Start cutting path id: path143)
(Change tool to Default tool)

G00 Z5.000000
G00 X24.134624 Y20.459205

G01 Z-1.000000 F100.0(Penetrate)
G03 X24.096277 Y20.555915 Z-1.000000 I-0.141124 J0.000000 F3500.000000
G03 X24.007535 Y20.594264 Z-1.000000 I-0.088742 J-0.083503
G03 X23.898298 Y20.562239 Z-1.000000 I-0.000000 J-0.202317
G03 X23.796976 Y20.459205 Z-1.000000 I0.176068 J-0.274479
G03 X23.805443 Y20.375406 Z-1.000000 I0.058861 J-0.036380
G03 X23.924064 Y20.324145 Z-1.000000 I0.118621 J0.111618
G03 X24.086892 Y20.371880 Z-1.000000 I0.000000 J0.301579
G03 X24.134624 Y20.459205 Z-1.000000 I-0.056015 J0.087325
G01 X24.134624 Y20.459205 Z-1.000000
G00 Z5.000000

(End cutting path id: path143)


(Start cutting path id: path143)
(Change tool to Default tool)

G00 Z5.000000
G00 X24.539801 Y20.113586

G01 Z-1.000000 F100.0(Penetrate)
G03 X24.409646 Y20.277244 Z-1.000000 I-0.167970 J0.000000 F3500.000000
G03 X24.203515 Y20.191286 Z-1.000000 I-0.043137 J-0.186690
G03 X24.211567 Y20.105822 Z-1.000000 I0.060524 J-0.037409
G03 X24.329242 Y20.054024 Z-1.000000 I0.117675 J0.107770
G03 X24.514150 Y20.079672 Z-1.000000 I0.000000 J0.679378
G01 X24.539801 Y20.113584 Z-1.000000
G01 X24.539801 Y20.113586 Z-1.000000
G00 Z5.000000

(End cutting path id: path143)


(Start cutting path id: path143)
(Change tool to Default tool)

G00 Z5.000000
G00 X24.877448 Y20.594264

G01 Z-1.000000 F100.0(Penetrate)
G03 X24.886291 Y20.687716 Z-1.000000 I-0.090067 J0.055668 F3500.000000
G03 X24.825858 Y20.729323 Z-1.000000 I-0.060433 J-0.023086
G03 X24.709266 Y20.696201 Z-1.000000 I0.000000 J-0.221770
G03 X24.607327 Y20.594264 Z-1.000000 I0.164950 J-0.266891
G03 X24.598484 Y20.500812 Z-1.000000 I0.090067 J-0.055668
G03 X24.658917 Y20.459205 Z-1.000000 I0.060433 J0.023086
G03 X24.775509 Y20.492327 Z-1.000000 I-0.000000 J0.221767
G03 X24.877447 Y20.594264 Z-1.000000 I-0.164952 J0.266891
G01 X24.877448 Y20.594264 Z-1.000000
G00 Z5.000000

(End cutting path id: path143)


(Start cutting path id: path143)
(Change tool to Default tool)

G00 Z5.000000
G00 X25.620273 Y20.729323

G01 Z-1.000000 F100.0(Penetrate)
G03 X25.580715 Y20.824825 Z-1.000000 I-0.135059 J-0.000000 F3500.000000
G03 X25.485214 Y20.864382 Z-1.000000 I-0.095501 J-0.095502
G03 X25.389712 Y20.824824 Z-1.000000 I0.000000 J-0.135059
G03 X25.350155 Y20.729323 Z-1.000000 I0.095502 J-0.095501
G03 X25.389713 Y20.633821 Z-1.000000 I0.135059 J0.000000
G03 X25.485214 Y20.594264 Z-1.000000 I0.095501 J0.095502
G03 X25.580716 Y20.633822 Z-1.000000 I0.000000 J0.135059
G03 X25.620273 Y20.729323 Z-1.000000 I-0.095502 J0.095501
G01 X25.620273 Y20.729323 Z-1.000000
G00 Z5.000000

(End cutting path id: path143)


(Start cutting path id: path143)
(Change tool to Default tool)

G00 Z5.000000
G00 X27.679924 Y22.709596

G01 Z-1.000000 F100.0(Penetrate)
G03 X27.511103 Y22.742376 Z-1.000000 I-0.168821 J-0.418337 F3500.000000
G03 X27.342276 Y22.709596 Z-1.000000 I0.000000 J-0.451143
G01 X27.342277 Y22.674251 Z-1.000000
G03 X27.511100 Y22.641476 Z-1.000000 I0.168823 J0.418414
G03 X27.679923 Y22.674251 Z-1.000000 I0.000000 J0.451191
G01 X27.679924 Y22.709596 Z-1.000000
G01 X27.679924 Y22.709596 Z-1.000000
G00 Z5.000000

(End cutting path id: path143)


(Start cutting path id: path143)
(Change tool to Default tool)

G00 Z5.000000
G00 X26.760324 Y24.317894

G01 Z-1.000000 F100.0(Penetrate)
G02 X26.770852 Y24.411606 Z-1.000000 I0.035188 J0.043494 F3500.000000
G02 X27.038393 Y24.454440 Z-1.000000 I0.203573 J-0.414566
G03 X27.579630 Y24.392248 Z-1.000000 I1.537920 J10.997887
G03 X27.916277 Y24.375330 Z-1.000000 I0.381508 J4.233551
G02 X28.059179 Y24.315439 Z-1.000000 I-0.002149 J-0.205560
G01 X28.051336 Y24.240853 Z-1.000000
G02 X27.400344 Y24.069719 Z-1.000000 I-0.586613 J0.907718
G02 X26.760324 Y24.317893 Z-1.000000 I0.066956 J1.122039
G01 X26.760324 Y24.317894 Z-1.000000
G00 Z5.000000

(End cutting path id: path143)


(Start cutting path id: path143)
(Change tool to Default tool)

G00 Z5.000000
G00 X29.165573 Y25.587327

G01 Z-1.000000 F100.0(Penetrate)
G02 X29.320650 Y26.113245 Z-1.000000 I0.311075 J0.194096 F3500.000000
G02 X30.077044 Y26.015832 Z-1.000000 I0.301795 J-0.641948
G01 X30.539370 Y25.629865 Z-1.000000
G01 X30.098784 Y25.694535 Z-1.000000
G03 X29.694466 Y25.672567 Z-1.000000 I-0.147972 J-1.008294
G03 X29.496297 Y25.537981 Z-1.000000 I0.089755 J-0.345347
G02 X29.340168 Y25.472808 Z-1.000000 I-0.131990 J0.096597
G02 X29.165573 Y25.587331 Z-1.000000 I0.036768 J0.246405
G01 X29.165573 Y25.587327 Z-1.000000
G00 Z5.000000

(End cutting path id: path143)


(Start cutting path id: path143)
(Change tool to Default tool)

G00 Z5.000000
G00 X32.913462 Y25.525617

G01 Z-1.000000 F100.0(Penetrate)
G03 X32.564511 Y25.651044 Z-1.000000 I-0.522990 J-0.906891 F3500.000000
G03 X32.204402 Y25.645159 Z-1.000000 I-0.164187 J-0.973879
G02 X31.935597 Y25.792165 Z-1.000000 I-0.047165 J0.233019
G02 X32.020462 Y26.119137 Z-1.000000 I0.269445 J0.104565
G02 X32.473263 Y26.182820 Z-1.000000 I0.277987 J-0.334953
G02 X33.117270 Y25.638160 Z-1.000000 I-0.594807 J-1.356370
G02 X33.088953 Y25.523988 Z-1.000000 I-0.067089 J-0.043958
G02 X32.913462 Y25.525617 Z-1.000000 I-0.086302 J0.156287
G01 X32.913462 Y25.525617 Z-1.000000
G00 Z5.000000

(End cutting path id: path143)


(Start cutting path id: path143)
(Change tool to Default tool)

G00 Z5.000000
G00 X36.907870 Y25.076413

G01 Z-1.000000 F100.0(Penetrate)
G02 X36.865449 Y25.256557 Z-1.000000 I1.232360 J0.385270 F3500.000000
G02 X36.784836 Y25.841073 Z-1.000000 I12.949911 J2.083783
G03 X36.433498 Y26.842545 Z-1.000000 I-2.385408 J-0.274489
G03 X36.009489 Y27.077094 Z-1.000000 I-0.424009 J-0.265978
G03 X35.779812 Y26.911926 Z-1.000000 I0.000000 J-0.242275
G03 X35.614643 Y25.900967 Z-1.000000 I3.011335 J-1.010959
G02 X35.485024 Y25.840806 Z-1.000000 I-0.078771 J0.000000
G02 X35.290453 Y26.174974 Z-1.000000 I0.372329 J0.440519
G03 X34.830545 Y27.012124 Z-1.000000 I-1.506212 J-0.282567
G03 X34.255631 Y27.141951 Z-1.000000 I-0.398393 J-0.426345
G02 X34.104605 Y27.210129 Z-1.000000 I-0.037526 J0.118236
G02 X33.993934 Y27.735317 Z-1.000000 I1.190798 J0.525188
G02 X34.053264 Y28.378660 Z-1.000000 I3.517676 J0.000000
G02 X34.136122 Y28.499620 Z-1.000000 I0.178083 J-0.033128
G03 X34.222658 Y28.606993 Z-1.000000 I-0.109047 J0.176443
G03 X34.222402 Y28.743945 Z-1.000000 I-0.192882 J0.068116
G02 X34.218878 Y28.897181 Z-1.000000 I0.229244 J0.081930
G02 X34.432838 Y29.430840 Z-1.000000 I3.274321 J-1.003051
G02 X34.709967 Y29.452904 Z-1.000000 I0.145250 J-0.072932
G02 X35.114713 Y28.484221 Z-1.000000 I-1.880686 J-1.354708
G03 X35.416354 Y27.950535 Z-1.000000 I0.888447 J0.150065
G03 X35.626477 Y28.045017 Z-1.000000 I0.082880 J0.096572
G02 X35.658960 Y28.763769 Z-1.000000 I12.509608 J-0.205244
G02 X35.729814 Y29.440628 Z-1.000000 I11.171716 J-0.827324
G01 X35.821324 Y30.115923 Z-1.000000
G01 X36.075680 Y29.737623 Z-1.000000
G02 X36.544062 Y28.694084 Z-1.000000 I-2.804524 J-1.885665
G02 X36.915087 Y26.475284 Z-1.000000 I-12.659597 J-3.257346
G03 X37.047637 Y25.406849 Z-1.000000 I12.226562 J0.974385
G03 X37.125075 Y25.232056 Z-1.000000 I0.381407 J0.064424
G02 X37.168303 Y25.089450 Z-1.000000 I-0.160896 J-0.126627
G02 X37.105905 Y24.987143 Z-1.000000 I-0.132014 J0.010334
G02 X36.993484 Y24.979819 Z-1.000000 I-0.063101 J0.102100
G02 X36.907879 Y25.076413 Z-1.000000 I0.064717 J0.143584
G01 X36.907870 Y25.076413 Z-1.000000
G00 Z5.000000

(End cutting path id: path143)


(Start cutting path id: path143)
(Change tool to Default tool)

G00 Z5.000000
G00 X38.194331 Y25.020343

G01 Z-1.000000 F100.0(Penetrate)
G03 X38.087286 Y25.399999 Z-1.000000 I-0.815592 J-0.025039 F3500.000000
G03 X37.857969 Y25.609256 Z-1.000000 I-0.438874 J-0.250668
G02 X37.656170 Y25.825544 Z-1.000000 I0.160320 J0.351864
G02 X37.593582 Y26.315421 Z-1.000000 I1.009332 J0.377892
G02 X38.033438 Y28.608416 Z-1.000000 I13.607640 J-1.421612
G02 X38.256877 Y28.666714 Z-1.000000 I0.128805 J-0.036336
G02 X38.632316 Y27.789780 Z-1.000000 I-0.907254 J-0.907254
G02 X38.340727 Y25.118742 Z-1.000000 I-10.176120 J-0.240541
G02 X38.251451 Y24.991024 Z-1.000000 I-0.209789 J0.051583
G01 X38.194326 Y25.020342 Z-1.000000
G01 X38.194331 Y25.020343 Z-1.000000
G00 Z5.000000

(End cutting path id: path143)


(Start cutting path id: path143)
(Change tool to Default tool)

G00 Z5.000000
G00 X14.854683 Y13.030957

G01 Z-1.000000 F100.0(Penetrate)
G03 X14.752668 Y13.260437 Z-1.000000 I-0.750705 J-0.196311 F3500.000000
G03 X14.677383 Y13.301075 Z-1.000000 I-0.075285 J-0.049416
G03 X14.627393 Y13.257310 Z-1.000000 I0.000000 J-0.050432
G03 X14.641353 Y13.030957 Z-1.000000 I0.582477 J-0.077685
G03 X14.743368 Y12.801476 Z-1.000000 I0.750714 J0.196313
G03 X14.818653 Y12.760838 Z-1.000000 I0.075285 J0.049415
G03 X14.868638 Y12.804597 Z-1.000000 I0.000000 J0.050428
G03 X14.854683 Y13.030957 Z-1.000000 I-0.582423 J0.077705
G01 X14.854683 Y13.030957 Z-1.000000
G00 Z5.000000

(End cutting path id: path143)


(Footer)
M5
G00 X0.0000 Y0.0000
M2
(Using default footer. To add your own footer create file "footer" in the output dir.)
(end)
%