%
(Header)
(Generated by gcodetools from Inkscape.)
(Using default header. To add your own header create file "header" in the output dir.)
M3
(Header end.)
G21 (All units in mm)

(Start cutting path id: path74449)
(Change tool to Default tool)

G00 Z 5.0000
G00 X 10.4901 Y 18.6654

G01 Z -1.0000 F 100.0000(Penetrate)
G01 X 10.3639 Y 18.7475 Z -1.0000 F 3500.0000
G01 X 10.2979 Y 19.2528 Z -1.0000
G01 X 10.2320 Y 19.7580 Z -1.0000
G01 X 10.3936 Y 19.8921 Z -1.0000
G01 X 10.5552 Y 20.0262 Z -1.0000
G01 X 10.8915 Y 19.9868 Z -1.0000
G01 X 11.2278 Y 19.9474 Z -1.0000
G01 X 11.4376 Y 20.3673 Z -1.0000
G01 X 11.6474 Y 20.7873 Z -1.0000
G01 X 11.6476 Y 20.5173 Z -1.0000
G01 X 11.6477 Y 20.2474 Z -1.0000
G01 X 11.7677 Y 20.2474 Z -1.0000
G01 X 11.8877 Y 20.2474 Z -1.0000
G01 X 11.8877 Y 20.5337 Z -1.0000
G01 X 11.8877 Y 20.8201 Z -1.0000
G01 X 12.2398 Y 20.8717 Z -1.0000
G01 X 12.5919 Y 20.9234 Z -1.0000
G01 X 13.2110 Y 20.4513 Z -1.0000
G01 X 13.8302 Y 19.9792 Z -1.0000
G01 X 14.1188 Y 20.1107 Z -1.0000
G01 X 14.4075 Y 20.2422 Z -1.0000
G01 X 14.4075 Y 20.3648 Z -1.0000
G01 X 14.4075 Y 20.4873 Z -1.0000
G01 X 14.5744 Y 20.4873 Z -1.0000
G01 X 14.7414 Y 20.4873 Z -1.0000
G01 X 14.8242 Y 20.8173 Z -1.0000
G01 X 14.9070 Y 21.1473 Z -1.0000
G01 X 14.8852 Y 21.2073 Z -1.0000
G01 X 14.8634 Y 21.2672 Z -1.0000
G01 X 14.7254 Y 21.2272 Z -1.0000
G01 X 14.5875 Y 21.1872 Z -1.0000
G01 X 14.6750 Y 21.2748 Z -1.0000
G01 X 14.7625 Y 21.3623 Z -1.0000
G01 X 15.0949 Y 21.3978 Z -1.0000
G01 X 15.4274 Y 21.4332 Z -1.0000
G01 X 16.0873 Y 21.5481 Z -1.0000
G01 X 16.7472 Y 21.6631 Z -1.0000
G01 X 16.8972 Y 21.5405 Z -1.0000
G01 X 17.0472 Y 21.4178 Z -1.0000
G01 X 17.0472 Y 21.2483 Z -1.0000
G01 X 17.0472 Y 21.0788 Z -1.0000
G01 X 16.8151 Y 21.2030 Z -1.0000
G01 X 16.5830 Y 21.3272 Z -1.0000
G01 X 16.3652 Y 21.3266 Z -1.0000
G01 X 16.1473 Y 21.3259 Z -1.0000
G01 X 15.6877 Y 21.1983 Z -1.0000
G01 X 15.2282 Y 21.0707 Z -1.0000
G01 X 15.0608 Y 20.6701 Z -1.0000
G01 X 14.8935 Y 20.2695 Z -1.0000
G01 X 14.5605 Y 19.9997 Z -1.0000
G01 X 14.2275 Y 19.7299 Z -1.0000
G01 X 14.4675 Y 19.8250 Z -1.0000
G01 X 14.7074 Y 19.9201 Z -1.0000
G01 X 15.4874 Y 20.1450 Z -1.0000
G01 X 16.2673 Y 20.3700 Z -1.0000
G01 X 18.2471 Y 20.3056 Z -1.0000
G01 X 20.2269 Y 20.2413 Z -1.0000
G01 X 20.5268 Y 20.2646 Z -1.0000
G01 X 20.8268 Y 20.2879 Z -1.0000
G01 X 21.6067 Y 20.2804 Z -1.0000
G01 X 22.3866 Y 20.2729 Z -1.0000
G01 X 23.1666 Y 20.1643 Z -1.0000
G01 X 23.9465 Y 20.0557 Z -1.0000
G01 X 24.4864 Y 20.2236 Z -1.0000
G01 X 25.0264 Y 20.3915 Z -1.0000
G01 X 25.7569 Y 20.7425 Z -1.0000
G01 X 26.4875 Y 21.0934 Z -1.0000
G01 X 26.7168 Y 21.3046 Z -1.0000
G01 X 26.9462 Y 21.5158 Z -1.0000
G01 X 27.4861 Y 21.7650 Z -1.0000
G01 X 28.0260 Y 22.0143 Z -1.0000
G01 X 28.5060 Y 22.0991 Z -1.0000
G01 X 28.9859 Y 22.1839 Z -1.0000
G01 X 29.4659 Y 22.3403 Z -1.0000
G01 X 29.9458 Y 22.4968 Z -1.0000
G01 X 31.2405 Y 22.5803 Z -1.0000
G01 X 32.5353 Y 22.6638 Z -1.0000
G01 X 33.2803 Y 22.2549 Z -1.0000
G01 X 34.0254 Y 21.8461 Z -1.0000
G01 X 34.1754 Y 21.8966 Z -1.0000
G01 X 34.3254 Y 21.9472 Z -1.0000
G01 X 34.3254 Y 22.1625 Z -1.0000
G01 X 34.3254 Y 22.3778 Z -1.0000
G01 X 34.1425 Y 22.5295 Z -1.0000
G01 X 33.9596 Y 22.6813 Z -1.0000
G01 X 33.8771 Y 22.5988 Z -1.0000
G01 X 33.7945 Y 22.5162 Z -1.0000
G01 X 33.9483 Y 22.2700 Z -1.0000
G01 X 34.1020 Y 22.0238 Z -1.0000
G01 X 34.0508 Y 21.9726 Z -1.0000
G01 X 33.9996 Y 21.9214 Z -1.0000
G01 X 33.8618 Y 22.0875 Z -1.0000
G01 X 33.7239 Y 22.2536 Z -1.0000
G01 X 33.6779 Y 22.7318 Z -1.0000
G01 X 33.6318 Y 23.2101 Z -1.0000
G01 X 33.3187 Y 23.7060 Z -1.0000
G01 X 33.0056 Y 24.2020 Z -1.0000
G01 X 32.4990 Y 24.4605 Z -1.0000
G01 X 31.9925 Y 24.7189 Z -1.0000
G01 X 31.6507 Y 24.8169 Z -1.0000
G01 X 31.3089 Y 24.9149 Z -1.0000
G01 X 31.6625 Y 24.5533 Z -1.0000
G01 X 32.0161 Y 24.1916 Z -1.0000
G01 X 32.2356 Y 23.7840 Z -1.0000
G01 X 32.4550 Y 23.3765 Z -1.0000
G01 X 32.3539 Y 23.2818 Z -1.0000
G01 X 32.2527 Y 23.1871 Z -1.0000
G01 X 32.2014 Y 23.3303 Z -1.0000
G01 X 32.1501 Y 23.4735 Z -1.0000
G01 X 31.7939 Y 23.9217 Z -1.0000
G01 X 31.4378 Y 24.3699 Z -1.0000
G01 X 31.2183 Y 24.5236 Z -1.0000
G01 X 30.9987 Y 24.6774 Z -1.0000
G01 X 30.3873 Y 24.9184 Z -1.0000
G01 X 29.7758 Y 25.1594 Z -1.0000
G01 X 29.3509 Y 24.6408 Z -1.0000
G01 X 28.9259 Y 24.1222 Z -1.0000
G01 X 28.9259 Y 23.7376 Z -1.0000
G01 X 28.9259 Y 23.3529 Z -1.0000
G01 X 28.8059 Y 23.4270 Z -1.0000
G01 X 28.6860 Y 23.5012 Z -1.0000
G01 X 28.6860 Y 23.8968 Z -1.0000
G01 X 28.6860 Y 24.2924 Z -1.0000
G01 X 29.1114 Y 24.8496 Z -1.0000
G01 X 29.5369 Y 25.4068 Z -1.0000
G01 X 29.8313 Y 25.4068 Z -1.0000
G01 X 30.1258 Y 25.4068 Z -1.0000
G01 X 30.1258 Y 25.6421 Z -1.0000
G01 X 30.1258 Y 25.8774 Z -1.0000
G01 X 30.3958 Y 26.1339 Z -1.0000
G01 X 30.6658 Y 26.3903 Z -1.0000
G01 X 31.2657 Y 26.7696 Z -1.0000
G01 X 31.8656 Y 27.1489 Z -1.0000
G01 X 32.1656 Y 27.2817 Z -1.0000
G01 X 32.4656 Y 27.4145 Z -1.0000
G01 X 32.8255 Y 27.5790 Z -1.0000
G01 X 33.1855 Y 27.7435 Z -1.0000
G01 X 33.6654 Y 28.1328 Z -1.0000
G01 X 34.1454 Y 28.5221 Z -1.0000
G01 X 34.7226 Y 29.0042 Z -1.0000
G01 X 35.2999 Y 29.4864 Z -1.0000
G01 X 35.5257 Y 29.4864 Z -1.0000
G01 X 35.7516 Y 29.4864 Z -1.0000
G01 X 35.9394 Y 29.7545 Z -1.0000
G01 X 36.1271 Y 30.0225 Z -1.0000
G01 X 35.9162 Y 30.1060 Z -1.0000
G01 X 35.7052 Y 30.1895 Z -1.0000
G01 X 35.6152 Y 30.1979 Z -1.0000
G01 X 35.5252 Y 30.2063 Z -1.0000
G01 X 35.5252 Y 30.0263 Z -1.0000
G01 X 35.5252 Y 29.8464 Z -1.0000
G01 X 35.6692 Y 29.8464 Z -1.0000
G01 X 35.8132 Y 29.8464 Z -1.0000
G01 X 35.6797 Y 29.7128 Z -1.0000
G01 X 35.5462 Y 29.5793 Z -1.0000
G01 X 35.4236 Y 29.6550 Z -1.0000
G01 X 35.3011 Y 29.7308 Z -1.0000
G01 X 35.3689 Y 30.1485 Z -1.0000
G01 X 35.4367 Y 30.5663 Z -1.0000
G01 X 35.1810 Y 30.5663 Z -1.0000
G01 X 34.9253 Y 30.5663 Z -1.0000
G01 X 34.9253 Y 30.3723 Z -1.0000
G01 X 34.9253 Y 30.1783 Z -1.0000
G01 X 34.5953 Y 30.2574 Z -1.0000
G01 X 34.2654 Y 30.3365 Z -1.0000
G01 X 33.7254 Y 30.4558 Z -1.0000
G01 X 33.1855 Y 30.5751 Z -1.0000
G01 X 32.5452 Y 30.3763 Z -1.0000
G01 X 31.9050 Y 30.1775 Z -1.0000
G01 X 31.4653 Y 30.2483 Z -1.0000
G01 X 31.0257 Y 30.3191 Z -1.0000
G01 X 30.8457 Y 30.3416 Z -1.0000
G01 X 30.6658 Y 30.3641 Z -1.0000
G01 X 30.1070 Y 30.3452 Z -1.0000
G01 X 29.5483 Y 30.3263 Z -1.0000
G01 X 29.6088 Y 30.0952 Z -1.0000
G01 X 29.6692 Y 29.8641 Z -1.0000
G01 X 29.2543 Y 29.7495 Z -1.0000
G01 X 28.8395 Y 29.6350 Z -1.0000
G01 X 27.8928 Y 29.7342 Z -1.0000
G01 X 26.9461 Y 29.8334 Z -1.0000
G01 X 26.4962 Y 29.8399 Z -1.0000
G01 X 26.0462 Y 29.8464 Z -1.0000
G01 X 26.0462 Y 29.6664 Z -1.0000
G01 X 26.0462 Y 29.4864 Z -1.0000
G01 X 26.3162 Y 29.4846 Z -1.0000
G01 X 26.5862 Y 29.4828 Z -1.0000
G01 X 26.7480 Y 29.3803 Z -1.0000
G01 X 26.9098 Y 29.2778 Z -1.0000
G01 X 26.8673 Y 29.0574 Z -1.0000
G01 X 26.8249 Y 28.8371 Z -1.0000
G01 X 26.5256 Y 28.7549 Z -1.0000
G01 X 26.2262 Y 28.6726 Z -1.0000
G01 X 25.4463 Y 28.7314 Z -1.0000
G01 X 24.6664 Y 28.7902 Z -1.0000
G01 X 24.1264 Y 28.4206 Z -1.0000
G01 X 23.5865 Y 28.0510 Z -1.0000
G01 X 23.4365 Y 28.0488 Z -1.0000
G01 X 23.2865 Y 28.0466 Z -1.0000
G01 X 23.2865 Y 27.9493 Z -1.0000
G01 X 23.2865 Y 27.8520 Z -1.0000
G01 X 22.6866 Y 27.6983 Z -1.0000
G01 X 22.0867 Y 27.5445 Z -1.0000
G01 X 22.0867 Y 27.4407 Z -1.0000
G01 X 22.0867 Y 27.3368 Z -1.0000
G01 X 21.5467 Y 27.0204 Z -1.0000
G01 X 21.0068 Y 26.7040 Z -1.0000
G01 X 21.0068 Y 26.4983 Z -1.0000
G01 X 21.0068 Y 26.2927 Z -1.0000
G01 X 20.8179 Y 26.0598 Z -1.0000
G01 X 20.6290 Y 25.8269 Z -1.0000
G01 X 20.6866 Y 26.0967 Z -1.0000
G01 X 20.7443 Y 26.3666 Z -1.0000
G01 X 20.6356 Y 26.4338 Z -1.0000
G01 X 20.5268 Y 26.5010 Z -1.0000
G01 X 20.5268 Y 26.6231 Z -1.0000
G01 X 20.5268 Y 26.7452 Z -1.0000
G01 X 20.8776 Y 27.0960 Z -1.0000
G01 X 21.2283 Y 27.4467 Z -1.0000
G01 X 21.3646 Y 27.4467 Z -1.0000
G01 X 21.5009 Y 27.4467 Z -1.0000
G01 X 21.4337 Y 27.3379 Z -1.0000
G01 X 21.3664 Y 27.2291 Z -1.0000
G01 X 21.6026 Y 27.2909 Z -1.0000
G01 X 21.8387 Y 27.3526 Z -1.0000
G01 X 21.9108 Y 27.5796 Z -1.0000
G01 X 21.9828 Y 27.8067 Z -1.0000
G01 X 22.1547 Y 27.8067 Z -1.0000
G01 X 22.3266 Y 27.8067 Z -1.0000
G01 X 22.3266 Y 27.8664 Z -1.0000
G01 X 22.3266 Y 27.9261 Z -1.0000
G01 X 21.8908 Y 28.5328 Z -1.0000
G01 X 21.4549 Y 29.1395 Z -1.0000
G01 X 21.0308 Y 29.4277 Z -1.0000
G01 X 20.6067 Y 29.7159 Z -1.0000
G01 X 20.5068 Y 29.6541 Z -1.0000
G01 X 20.4068 Y 29.5923 Z -1.0000
G01 X 20.4068 Y 29.7193 Z -1.0000
G01 X 20.4068 Y 29.8464 Z -1.0000
G01 X 20.1639 Y 29.8464 Z -1.0000
G01 X 19.9209 Y 29.8464 Z -1.0000
G01 X 19.2639 Y 30.0773 Z -1.0000
G01 X 18.6070 Y 30.3081 Z -1.0000
G01 X 18.6070 Y 30.0773 Z -1.0000
G01 X 18.6070 Y 29.8464 Z -1.0000
G01 X 18.2655 Y 29.8464 Z -1.0000
G01 X 17.9240 Y 29.8464 Z -1.0000
G01 X 17.5389 Y 29.6543 Z -1.0000
G01 X 17.1539 Y 29.4622 Z -1.0000
G01 X 16.7106 Y 29.5617 Z -1.0000
G01 X 16.2673 Y 29.6613 Z -1.0000
G01 X 16.8436 Y 29.7007 Z -1.0000
G01 X 17.4199 Y 29.7400 Z -1.0000
G01 X 17.4864 Y 29.9132 Z -1.0000
G01 X 17.5528 Y 30.0863 Z -1.0000
G01 X 17.9599 Y 30.0863 Z -1.0000
G01 X 18.3670 Y 30.0863 Z -1.0000
G01 X 18.3670 Y 30.1631 Z -1.0000
G01 X 18.3670 Y 30.2399 Z -1.0000
G01 X 18.1571 Y 30.4093 Z -1.0000
G01 X 17.9471 Y 30.5787 Z -1.0000
G01 X 18.2321 Y 30.4997 Z -1.0000
G01 X 18.5171 Y 30.4206 Z -1.0000
G01 X 18.4350 Y 30.5534 Z -1.0000
G01 X 18.3529 Y 30.6863 Z -1.0000
G01 X 18.1271 Y 30.6863 Z -1.0000
G01 X 17.9013 Y 30.6863 Z -1.0000
G01 X 17.8348 Y 30.5788 Z -1.0000
G01 X 17.7684 Y 30.4713 Z -1.0000
G01 X 17.3532 Y 30.5649 Z -1.0000
G01 X 16.9379 Y 30.6586 Z -1.0000
G01 X 16.9026 Y 30.5621 Z -1.0000
G01 X 16.8672 Y 30.4657 Z -1.0000
G01 X 16.1473 Y 30.6313 Z -1.0000
G01 X 15.4273 Y 30.7970 Z -1.0000
G01 X 16.1473 Y 30.7387 Z -1.0000
G01 X 16.8672 Y 30.6804 Z -1.0000
G01 X 17.0472 Y 30.8146 Z -1.0000
G01 X 17.2271 Y 30.9489 Z -1.0000
G01 X 17.0172 Y 30.8813 Z -1.0000
G01 X 16.8072 Y 30.8138 Z -1.0000
G01 X 16.8072 Y 30.9300 Z -1.0000
G01 X 16.8072 Y 31.0462 Z -1.0000
G01 X 16.5593 Y 31.0462 Z -1.0000
G01 X 16.3115 Y 31.0462 Z -1.0000
G01 X 16.0959 Y 31.1616 Z -1.0000
G01 X 15.8804 Y 31.2770 Z -1.0000
G01 X 15.4739 Y 31.3452 Z -1.0000
G01 X 15.0674 Y 31.4134 Z -1.0000
G01 X 14.6474 Y 31.4803 Z -1.0000
G01 X 14.2275 Y 31.5471 Z -1.0000
G01 X 14.0175 Y 31.6047 Z -1.0000
G01 X 13.8075 Y 31.6623 Z -1.0000
G01 X 13.8075 Y 31.7634 Z -1.0000
G01 X 13.8075 Y 31.8644 Z -1.0000
G01 X 14.4374 Y 31.6967 Z -1.0000
G01 X 15.0674 Y 31.5290 Z -1.0000
G01 X 15.3074 Y 31.5352 Z -1.0000
G01 X 15.5473 Y 31.5414 Z -1.0000
G01 X 14.7074 Y 31.8281 Z -1.0000
G01 X 13.8675 Y 32.1149 Z -1.0000
G01 X 13.5847 Y 32.1205 Z -1.0000
G01 X 13.3019 Y 32.1261 Z -1.0000
G01 X 13.3710 Y 31.9462 Z -1.0000
G01 X 13.4400 Y 31.7662 Z -1.0000
G01 X 13.1536 Y 31.7662 Z -1.0000
G01 X 12.8673 Y 31.7662 Z -1.0000
G01 X 12.6475 Y 31.6949 Z -1.0000
G01 X 12.4277 Y 31.6235 Z -1.0000
G01 X 12.6076 Y 31.7585 Z -1.0000
G01 X 12.7876 Y 31.8934 Z -1.0000
G01 X 12.4277 Y 31.8187 Z -1.0000
G01 X 12.0677 Y 31.7439 Z -1.0000
G01 X 11.8277 Y 31.6962 Z -1.0000
G01 X 11.5878 Y 31.6486 Z -1.0000
G01 X 11.9477 Y 31.8282 Z -1.0000
G01 X 12.3077 Y 32.0079 Z -1.0000
G01 X 11.8877 Y 31.9949 Z -1.0000
G01 X 11.4678 Y 31.9818 Z -1.0000
G01 X 11.3478 Y 32.0024 Z -1.0000
G01 X 11.2278 Y 32.0230 Z -1.0000
G01 X 11.4678 Y 32.1370 Z -1.0000
G01 X 11.7077 Y 32.2510 Z -1.0000
G01 X 11.4078 Y 32.1695 Z -1.0000
G01 X 11.1078 Y 32.0880 Z -1.0000
G01 X 10.4819 Y 32.1090 Z -1.0000
G01 X 9.8560 Y 32.1300 Z -1.0000
G01 X 9.6582 Y 31.8281 Z -1.0000
G01 X 9.4604 Y 31.5262 Z -1.0000
G01 X 9.2206 Y 31.5262 Z -1.0000
G01 X 8.9808 Y 31.5262 Z -1.0000
G01 X 9.0337 Y 31.8865 Z -1.0000
G01 X 9.0866 Y 32.2469 Z -1.0000
G01 X 8.8661 Y 32.0102 Z -1.0000
G01 X 8.6456 Y 31.7736 Z -1.0000
G01 X 8.6768 Y 31.6227 Z -1.0000
G01 X 8.7081 Y 31.4719 Z -1.0000
G01 X 8.4305 Y 31.4297 Z -1.0000
G01 X 8.1529 Y 31.3875 Z -1.0000
G01 X 8.4189 Y 31.1569 Z -1.0000
G01 X 8.6848 Y 30.9263 Z -1.0000
G01 X 9.1164 Y 30.9244 Z -1.0000
G01 X 9.5480 Y 30.9226 Z -1.0000
G01 X 9.7279 Y 30.8063 Z -1.0000
G01 X 9.9079 Y 30.6900 Z -1.0000
G01 X 9.7487 Y 30.6881 Z -1.0000
G01 X 9.5895 Y 30.6863 Z -1.0000
G01 X 9.9617 Y 30.3141 Z -1.0000
G01 X 10.3338 Y 29.9419 Z -1.0000
G01 X 10.4809 Y 30.0515 Z -1.0000
G01 X 10.6278 Y 30.1611 Z -1.0000
G01 X 10.7778 Y 30.1387 Z -1.0000
G01 X 10.9278 Y 30.1163 Z -1.0000
G01 X 11.2949 Y 30.1013 Z -1.0000
G01 X 11.6619 Y 30.0863 Z -1.0000
G01 X 11.5877 Y 29.9663 Z -1.0000
G01 X 11.5136 Y 29.8464 Z -1.0000
G01 X 12.3906 Y 29.8540 Z -1.0000
G01 X 13.2676 Y 29.8616 Z -1.0000
G01 X 14.2875 Y 29.9619 Z -1.0000
G01 X 15.3074 Y 30.0623 Z -1.0000
G01 X 15.4032 Y 29.9725 Z -1.0000
G01 X 15.4991 Y 29.8827 Z -1.0000
G01 X 14.3233 Y 29.7851 Z -1.0000
G01 X 13.1476 Y 29.6875 Z -1.0000
G01 X 12.5321 Y 29.7088 Z -1.0000
G01 X 11.9167 Y 29.7302 Z -1.0000
G01 X 11.8582 Y 29.5066 Z -1.0000
G01 X 11.7997 Y 29.2831 Z -1.0000
G01 X 11.2386 Y 29.1418 Z -1.0000
G01 X 10.6774 Y 29.0005 Z -1.0000
G01 X 10.7497 Y 28.8835 Z -1.0000
G01 X 10.8220 Y 28.7666 Z -1.0000
G01 X 10.9858 Y 28.7666 Z -1.0000
G01 X 11.1497 Y 28.7666 Z -1.0000
G01 X 11.0976 Y 28.3466 Z -1.0000
G01 X 11.0455 Y 27.9267 Z -1.0000
G01 X 11.4035 Y 27.9267 Z -1.0000
G01 X 11.7616 Y 27.9267 Z -1.0000
G01 X 11.9338 Y 27.5967 Z -1.0000
G01 X 12.1061 Y 27.2667 Z -1.0000
G01 X 12.6697 Y 26.7868 Z -1.0000
G01 X 13.2334 Y 26.3068 Z -1.0000
G01 X 13.4005 Y 26.2109 Z -1.0000
G01 X 13.5675 Y 26.1149 Z -1.0000
G01 X 13.5675 Y 25.8449 Z -1.0000
G01 X 13.5675 Y 25.5749 Z -1.0000
G01 X 13.4316 Y 25.4390 Z -1.0000
G01 X 13.2957 Y 25.3031 Z -1.0000
G01 X 13.3701 Y 25.1093 Z -1.0000
G01 X 13.4444 Y 24.9155 Z -1.0000
G01 X 13.8733 Y 24.9960 Z -1.0000
G01 X 14.3022 Y 25.0764 Z -1.0000
G01 X 14.3688 Y 24.8217 Z -1.0000
G01 X 14.4354 Y 24.5670 Z -1.0000
G01 X 14.4677 Y 24.5670 Z -1.0000
G01 X 14.5000 Y 24.5670 Z -1.0000
G01 X 14.8437 Y 24.7463 Z -1.0000
G01 X 15.1874 Y 24.9255 Z -1.0000
G01 X 15.4320 Y 24.9262 Z -1.0000
G01 X 15.6766 Y 24.9270 Z -1.0000
G01 X 16.1473 Y 25.1669 Z -1.0000
G01 X 16.6180 Y 25.4069 Z -1.0000
G01 X 16.7726 Y 25.4069 Z -1.0000
G01 X 16.9272 Y 25.4069 Z -1.0000
G01 X 16.9290 Y 25.5569 Z -1.0000
G01 X 16.9308 Y 25.7069 Z -1.0000
G01 X 17.0323 Y 25.5467 Z -1.0000
G01 X 17.1339 Y 25.3864 Z -1.0000
G01 X 17.2405 Y 25.3859 Z -1.0000
G01 X 17.3471 Y 25.3853 Z -1.0000
G01 X 17.5095 Y 25.2943 Z -1.0000
G01 X 17.6720 Y 25.2034 Z -1.0000
G01 X 17.4802 Y 24.8325 Z -1.0000
G01 X 17.2884 Y 24.4616 Z -1.0000
G01 X 17.0699 Y 24.3043 Z -1.0000
G01 X 16.8513 Y 24.1471 Z -1.0000
G01 X 16.7730 Y 23.9371 Z -1.0000
G01 X 16.6947 Y 23.7271 Z -1.0000
G01 X 16.9609 Y 23.7324 Z -1.0000
G01 X 17.2271 Y 23.7377 Z -1.0000
G01 X 17.7054 Y 23.9080 Z -1.0000
G01 X 18.1837 Y 24.0784 Z -1.0000
G01 X 18.2993 Y 23.9628 Z -1.0000
G01 X 18.4149 Y 23.8472 Z -1.0000
G01 X 18.5790 Y 23.8472 Z -1.0000
G01 X 18.7431 Y 23.8472 Z -1.0000
G01 X 18.6761 Y 24.1171 Z -1.0000
G01 X 18.6091 Y 24.3871 Z -1.0000
G01 X 18.6777 Y 24.2382 Z -1.0000
G01 X 18.7462 Y 24.0893 Z -1.0000
G01 X 18.9455 Y 24.2885 Z -1.0000
G01 X 19.1447 Y 24.4878 Z -1.0000
G01 X 18.9958 Y 24.5374 Z -1.0000
G01 X 18.8469 Y 24.5871 Z -1.0000
G01 X 18.8608 Y 24.8471 Z -1.0000
G01 X 18.8747 Y 25.1070 Z -1.0000
G01 X 18.9287 Y 24.9017 Z -1.0000
G01 X 18.9827 Y 24.6964 Z -1.0000
G01 X 19.6047 Y 24.9215 Z -1.0000
G01 X 20.2268 Y 25.1466 Z -1.0000
G01 X 20.5118 Y 25.2296 Z -1.0000
G01 X 20.7968 Y 25.3127 Z -1.0000
G01 X 20.7240 Y 25.1950 Z -1.0000
G01 X 20.6512 Y 25.0773 Z -1.0000
G01 X 20.0030 Y 24.7704 Z -1.0000
G01 X 19.3548 Y 24.4635 Z -1.0000
G01 X 19.0927 Y 24.0953 Z -1.0000
G01 X 18.8306 Y 23.7272 Z -1.0000
G01 X 18.6718 Y 23.7272 Z -1.0000
G01 X 18.5130 Y 23.7272 Z -1.0000
G01 X 18.4309 Y 23.4002 Z -1.0000
G01 X 18.3488 Y 23.0733 Z -1.0000
G01 X 18.4779 Y 23.0303 Z -1.0000
G01 X 18.6069 Y 22.9872 Z -1.0000
G01 X 18.6069 Y 22.8912 Z -1.0000
G01 X 18.6069 Y 22.7953 Z -1.0000
G01 X 18.3857 Y 22.7374 Z -1.0000
G01 X 18.1645 Y 22.6796 Z -1.0000
G01 X 18.0236 Y 22.9052 Z -1.0000
G01 X 17.8827 Y 23.1309 Z -1.0000
G01 X 18.0663 Y 23.4858 Z -1.0000
G01 X 18.2498 Y 23.8407 Z -1.0000
G01 X 18.0384 Y 23.7653 Z -1.0000
G01 X 17.8270 Y 23.6899 Z -1.0000
G01 X 17.7070 Y 23.6042 Z -1.0000
G01 X 17.5870 Y 23.5185 Z -1.0000
G01 X 17.1280 Y 23.4357 Z -1.0000
G01 X 16.6689 Y 23.3529 Z -1.0000
G01 X 16.4981 Y 23.4947 Z -1.0000
G01 X 16.3272 Y 23.6366 Z -1.0000
G01 X 16.3272 Y 23.8971 Z -1.0000
G01 X 16.3272 Y 24.1577 Z -1.0000
G01 X 16.8076 Y 24.6130 Z -1.0000
G01 X 17.2881 Y 25.0683 Z -1.0000
G01 X 17.2213 Y 25.1763 Z -1.0000
G01 X 17.1546 Y 25.2843 Z -1.0000
G01 X 16.8909 Y 25.1128 Z -1.0000
G01 X 16.6271 Y 24.9413 Z -1.0000
G01 X 15.6672 Y 24.6357 Z -1.0000
G01 X 14.7073 Y 24.3302 Z -1.0000
G01 X 14.4474 Y 24.3287 Z -1.0000
G01 X 14.1874 Y 24.3272 Z -1.0000
G01 X 14.1401 Y 24.4692 Z -1.0000
G01 X 14.0927 Y 24.6112 Z -1.0000
G01 X 13.6236 Y 24.6191 Z -1.0000
G01 X 13.1545 Y 24.6271 Z -1.0000
G01 X 13.0358 Y 24.9629 Z -1.0000
G01 X 12.9171 Y 25.2987 Z -1.0000
G01 X 13.0647 Y 25.5351 Z -1.0000
G01 X 13.2123 Y 25.7714 Z -1.0000
G01 X 12.6590 Y 26.3089 Z -1.0000
G01 X 12.1057 Y 26.8467 Z -1.0000
G01 X 11.9906 Y 26.8467 Z -1.0000
G01 X 11.8755 Y 26.8467 Z -1.0000
G01 X 11.6956 Y 27.2772 Z -1.0000
G01 X 11.5157 Y 27.7076 Z -1.0000
G01 X 11.3331 Y 27.6375 Z -1.0000
G01 X 11.1504 Y 27.5675 Z -1.0000
G01 X 10.9071 Y 27.6977 Z -1.0000
G01 X 10.6637 Y 27.8279 Z -1.0000
G01 X 10.7143 Y 28.1726 Z -1.0000
G01 X 10.7649 Y 28.5173 Z -1.0000
G01 X 10.5984 Y 28.5812 Z -1.0000
G01 X 10.4318 Y 28.6451 Z -1.0000
G01 X 10.4698 Y 28.9726 Z -1.0000
G01 X 10.5079 Y 29.3001 Z -1.0000
G01 X 11.0202 Y 29.4008 Z -1.0000
G01 X 11.5326 Y 29.5015 Z -1.0000
G01 X 11.4631 Y 29.6139 Z -1.0000
G01 X 11.3936 Y 29.7264 Z -1.0000
G01 X 10.7506 Y 29.7264 Z -1.0000
G01 X 10.1075 Y 29.7264 Z -1.0000
G01 X 9.9177 Y 29.7992 Z -1.0000
G01 X 9.7279 Y 29.8720 Z -1.0000
G01 X 9.7279 Y 30.0392 Z -1.0000
G01 X 9.7279 Y 30.2063 Z -1.0000
G01 X 9.4951 Y 30.2063 Z -1.0000
G01 X 9.2622 Y 30.2063 Z -1.0000
G01 X 9.1926 Y 30.3189 Z -1.0000
G01 X 9.1230 Y 30.4315 Z -1.0000
G01 X 9.3239 Y 30.5440 Z -1.0000
G01 X 9.5249 Y 30.6565 Z -1.0000
G01 X 9.0427 Y 30.6438 Z -1.0000
G01 X 8.5605 Y 30.6312 Z -1.0000
G01 X 8.0879 Y 30.9587 Z -1.0000
G01 X 7.6153 Y 31.2862 Z -1.0000
G01 X 7.3097 Y 31.2862 Z -1.0000
G01 X 7.0040 Y 31.2862 Z -1.0000
G01 X 6.6262 Y 31.4179 Z -1.0000
G01 X 6.2483 Y 31.5497 Z -1.0000
G01 X 6.2483 Y 31.7332 Z -1.0000
G01 X 6.2483 Y 31.9168 Z -1.0000
G01 X 6.6983 Y 31.8472 Z -1.0000
G01 X 7.1482 Y 31.7777 Z -1.0000
G01 X 7.8081 Y 31.7060 Z -1.0000
G01 X 8.4681 Y 31.6343 Z -1.0000
G01 X 8.1381 Y 31.8240 Z -1.0000
G01 X 7.8081 Y 32.0138 Z -1.0000
G01 X 7.8081 Y 32.2129 Z -1.0000
G01 X 7.8081 Y 32.4120 Z -1.0000
G01 X 7.6491 Y 32.1944 Z -1.0000
G01 X 7.4900 Y 31.9769 Z -1.0000
G01 X 6.6556 Y 32.1260 Z -1.0000
G01 X 5.8212 Y 32.2751 Z -1.0000
G01 X 5.4048 Y 32.4920 Z -1.0000
G01 X 4.9884 Y 32.7089 Z -1.0000
G01 X 4.5985 Y 32.8913 Z -1.0000
G01 X 4.2085 Y 33.0738 Z -1.0000
G01 X 4.2085 Y 33.1928 Z -1.0000
G01 X 4.2085 Y 33.3118 Z -1.0000
G01 X 4.3130 Y 33.3764 Z -1.0000
G01 X 4.4174 Y 33.4409 Z -1.0000
G01 X 5.0629 Y 33.2787 Z -1.0000
G01 X 5.7084 Y 33.1165 Z -1.0000
G01 X 6.1283 Y 33.0434 Z -1.0000
G01 X 6.5483 Y 32.9703 Z -1.0000
G01 X 6.3187 Y 33.1457 Z -1.0000
G01 X 6.0891 Y 33.3211 Z -1.0000
G01 X 5.5388 Y 33.5276 Z -1.0000
G01 X 4.9884 Y 33.7340 Z -1.0000
G01 X 4.4185 Y 34.0802 Z -1.0000
G01 X 3.8486 Y 34.4265 Z -1.0000
G01 X 3.8486 Y 34.4732 Z -1.0000
G01 X 3.8486 Y 34.5199 Z -1.0000
G01 X 4.1785 Y 34.4022 Z -1.0000
G01 X 4.5085 Y 34.2845 Z -1.0000
G01 X 4.2756 Y 34.4652 Z -1.0000
G01 X 4.0427 Y 34.6459 Z -1.0000
G01 X 4.1477 Y 34.6459 Z -1.0000
G01 X 4.2527 Y 34.6459 Z -1.0000
G01 X 4.7406 Y 34.4150 Z -1.0000
G01 X 5.2284 Y 34.1841 Z -1.0000
G01 X 5.6845 Y 33.9986 Z -1.0000
G01 X 6.1405 Y 33.8131 Z -1.0000
G01 X 6.1044 Y 33.6039 Z -1.0000
G01 X 6.0683 Y 33.3947 Z -1.0000
G01 X 6.2925 Y 33.3488 Z -1.0000
G01 X 6.5167 Y 33.3029 Z -1.0000
G01 X 6.4171 Y 33.4644 Z -1.0000
G01 X 6.3176 Y 33.6260 Z -1.0000
G01 X 6.6387 Y 33.4160 Z -1.0000
G01 X 6.9598 Y 33.2060 Z -1.0000
G01 X 7.1312 Y 33.2060 Z -1.0000
G01 X 7.3025 Y 33.2060 Z -1.0000
G01 X 7.3609 Y 33.0540 Z -1.0000
G01 X 7.4192 Y 32.9020 Z -1.0000
G01 X 8.1836 Y 32.7459 Z -1.0000
G01 X 8.9480 Y 32.5897 Z -1.0000
G01 X 9.2480 Y 32.5182 Z -1.0000
G01 X 9.5480 Y 32.4467 Z -1.0000
G01 X 9.6310 Y 32.4641 Z -1.0000
G01 X 9.7140 Y 32.4814 Z -1.0000
G01 X 10.2818 Y 32.3754 Z -1.0000
G01 X 10.8496 Y 32.2693 Z -1.0000
G01 X 11.0947 Y 32.3600 Z -1.0000
G01 X 11.3398 Y 32.4506 Z -1.0000
G01 X 11.9392 Y 32.2925 Z -1.0000
G01 X 12.5386 Y 32.1344 Z -1.0000
G01 X 12.6224 Y 32.2699 Z -1.0000
G01 X 12.7061 Y 32.4055 Z -1.0000
G01 X 13.3468 Y 32.3949 Z -1.0000
G01 X 13.9875 Y 32.3844 Z -1.0000
G01 X 14.5274 Y 32.1379 Z -1.0000
G01 X 15.0674 Y 31.8914 Z -1.0000
G01 X 15.2379 Y 31.8888 Z -1.0000
G01 X 15.4085 Y 31.8861 Z -1.0000
G01 X 15.5979 Y 31.7252 Z -1.0000
G01 X 15.7873 Y 31.5643 Z -1.0000
G01 X 17.3471 Y 31.0637 Z -1.0000
G01 X 18.9070 Y 30.5632 Z -1.0000
G01 X 19.2669 Y 30.3758 Z -1.0000
G01 X 19.6269 Y 30.1884 Z -1.0000
G01 X 20.2778 Y 30.0185 Z -1.0000
G01 X 20.9287 Y 29.8486 Z -1.0000
G01 X 21.3359 Y 29.5775 Z -1.0000
G01 X 21.7431 Y 29.3064 Z -1.0000
G01 X 21.9722 Y 28.8864 Z -1.0000
G01 X 22.2012 Y 28.4665 Z -1.0000
G01 X 22.3830 Y 28.2348 Z -1.0000
G01 X 22.5648 Y 28.0031 Z -1.0000
G01 X 23.0757 Y 28.2742 Z -1.0000
G01 X 23.5865 Y 28.5453 Z -1.0000
G01 X 24.0664 Y 28.8360 Z -1.0000
G01 X 24.5464 Y 29.1268 Z -1.0000
G01 X 25.5663 Y 29.0575 Z -1.0000
G01 X 26.5862 Y 28.9882 Z -1.0000
G01 X 26.4264 Y 29.1004 Z -1.0000
G01 X 26.2666 Y 29.2127 Z -1.0000
G01 X 25.7965 Y 29.1584 Z -1.0000
G01 X 25.3263 Y 29.1041 Z -1.0000
G01 X 25.3263 Y 29.2993 Z -1.0000
G01 X 25.3263 Y 29.4945 Z -1.0000
G01 X 25.7033 Y 29.8630 Z -1.0000
G01 X 26.0803 Y 30.2315 Z -1.0000
G01 X 26.5420 Y 30.1577 Z -1.0000
G01 X 27.0037 Y 30.0839 Z -1.0000
G01 X 28.1148 Y 30.0313 Z -1.0000
G01 X 29.2259 Y 29.9787 Z -1.0000
G01 X 28.1989 Y 30.0881 Z -1.0000
G01 X 27.1718 Y 30.1975 Z -1.0000
G01 X 26.6990 Y 30.3520 Z -1.0000
G01 X 26.2262 Y 30.5065 Z -1.0000
G01 X 26.1879 Y 30.7764 Z -1.0000
G01 X 26.1495 Y 31.0462 Z -1.0000
G01 X 26.3079 Y 31.0455 Z -1.0000
G01 X 26.4662 Y 31.0448 Z -1.0000
G01 X 27.6556 Y 30.8655 Z -1.0000
G01 X 28.8450 Y 30.6863 Z -1.0000
G01 X 29.6954 Y 30.6879 Z -1.0000
G01 X 30.5458 Y 30.6896 Z -1.0000
G01 X 30.8157 Y 30.7619 Z -1.0000
G01 X 31.0857 Y 30.8343 Z -1.0000
G01 X 31.0857 Y 31.0136 Z -1.0000
G01 X 31.0857 Y 31.1929 Z -1.0000
G01 X 31.5357 Y 31.1102 Z -1.0000
G01 X 31.9856 Y 31.0276 Z -1.0000
G01 X 32.0996 Y 30.9169 Z -1.0000
G01 X 32.2136 Y 30.8063 Z -1.0000
G01 X 32.3096 Y 30.8063 Z -1.0000
G01 X 32.4056 Y 30.8063 Z -1.0000
G01 X 32.4056 Y 30.9653 Z -1.0000
G01 X 32.4056 Y 31.1244 Z -1.0000
G01 X 32.1193 Y 31.3933 Z -1.0000
G01 X 31.8331 Y 31.6622 Z -1.0000
G01 X 31.3913 Y 31.5793 Z -1.0000
G01 X 30.9495 Y 31.4964 Z -1.0000
G01 X 30.9876 Y 31.9603 Z -1.0000
G01 X 31.0257 Y 32.4241 Z -1.0000
G01 X 31.2452 Y 32.4657 Z -1.0000
G01 X 31.4647 Y 32.5073 Z -1.0000
G01 X 31.8239 Y 32.3585 Z -1.0000
G01 X 32.1831 Y 32.2098 Z -1.0000
G01 X 32.6274 Y 31.5380 Z -1.0000
G01 X 33.0718 Y 30.8663 Z -1.0000
G01 X 33.5742 Y 30.7988 Z -1.0000
G01 X 34.0765 Y 30.7313 Z -1.0000
G01 X 34.1270 Y 30.9188 Z -1.0000
G01 X 34.1775 Y 31.1062 Z -1.0000
G01 X 34.1915 Y 30.8892 Z -1.0000
G01 X 34.2054 Y 30.6721 Z -1.0000
G01 X 34.3254 Y 30.7463 Z -1.0000
G01 X 34.4454 Y 30.8204 Z -1.0000
G01 X 34.4454 Y 30.6863 Z -1.0000
G01 X 34.4454 Y 30.5521 Z -1.0000
G01 X 34.5563 Y 30.6207 Z -1.0000
G01 X 34.6672 Y 30.6892 Z -1.0000
G01 X 34.7223 Y 30.4778 Z -1.0000
G01 X 34.7775 Y 30.2663 Z -1.0000
G01 X 34.7914 Y 30.5363 Z -1.0000
G01 X 34.8053 Y 30.8063 Z -1.0000
G01 X 35.1643 Y 30.8063 Z -1.0000
G01 X 35.5232 Y 30.8063 Z -1.0000
G01 X 35.6731 Y 30.5663 Z -1.0000
G01 X 35.8230 Y 30.3263 Z -1.0000
G01 X 36.0941 Y 30.3263 Z -1.0000
G01 X 36.3652 Y 30.3263 Z -1.0000
G01 X 36.3652 Y 30.1992 Z -1.0000
G01 X 36.3652 Y 30.0722 Z -1.0000
G01 X 36.4552 Y 30.1278 Z -1.0000
G01 X 36.5451 Y 30.1834 Z -1.0000
G01 X 36.5438 Y 30.8848 Z -1.0000
G01 X 36.5425 Y 31.5862 Z -1.0000
G01 X 36.3655 Y 31.5862 Z -1.0000
G01 X 36.1884 Y 31.5862 Z -1.0000
G01 X 36.0303 Y 31.2562 Z -1.0000
G01 X 35.8721 Y 30.9262 Z -1.0000
G01 X 35.6949 Y 30.9262 Z -1.0000
G01 X 35.5177 Y 30.9262 Z -1.0000
G01 X 35.4704 Y 31.0762 Z -1.0000
G01 X 35.4232 Y 31.2262 Z -1.0000
G01 X 35.3471 Y 31.7947 Z -1.0000
G01 X 35.2710 Y 32.3632 Z -1.0000
G01 X 35.0896 Y 32.5446 Z -1.0000
G01 X 34.9082 Y 32.7261 Z -1.0000
G01 X 34.8202 Y 32.7261 Z -1.0000
G01 X 34.7322 Y 32.7261 Z -1.0000
G01 X 34.7023 Y 32.2192 Z -1.0000
G01 X 34.6724 Y 31.7124 Z -1.0000
G01 X 34.5398 Y 31.6304 Z -1.0000
G01 X 34.4071 Y 31.5484 Z -1.0000
G01 X 34.2495 Y 31.6089 Z -1.0000
G01 X 34.0919 Y 31.6693 Z -1.0000
G01 X 34.0130 Y 32.1077 Z -1.0000
G01 X 33.9341 Y 32.5461 Z -1.0000
G01 X 33.8316 Y 32.6761 Z -1.0000
G01 X 33.7291 Y 32.8062 Z -1.0000
G01 X 33.4573 Y 32.7761 Z -1.0000
G01 X 33.1855 Y 32.7461 Z -1.0000
G01 X 33.0393 Y 32.7361 Z -1.0000
G01 X 32.8930 Y 32.7261 Z -1.0000
G01 X 32.9697 Y 32.5264 Z -1.0000
G01 X 33.0463 Y 32.3267 Z -1.0000
G01 X 32.9059 Y 32.4135 Z -1.0000
G01 X 32.7655 Y 32.5002 Z -1.0000
G01 X 32.7655 Y 33.5060 Z -1.0000
G01 X 32.7655 Y 34.5117 Z -1.0000
G01 X 32.8855 Y 34.5859 Z -1.0000
G01 X 33.0055 Y 34.6600 Z -1.0000
G01 X 33.0082 Y 34.9229 Z -1.0000
G01 X 33.0109 Y 35.1858 Z -1.0000
G01 X 33.2283 Y 35.4684 Z -1.0000
G01 X 33.4456 Y 35.7510 Z -1.0000
G01 X 33.6680 Y 35.7082 Z -1.0000
G01 X 33.8903 Y 35.6654 Z -1.0000
G01 X 33.9930 Y 35.2690 Z -1.0000
G01 X 34.0957 Y 34.8727 Z -1.0000
G01 X 34.1971 Y 34.1893 Z -1.0000
G01 X 34.2985 Y 33.5060 Z -1.0000
G01 X 34.2992 Y 34.6271 Z -1.0000
G01 X 34.2999 Y 35.7482 Z -1.0000
G01 X 34.4126 Y 35.8609 Z -1.0000
G01 X 34.5253 Y 35.9736 Z -1.0000
G01 X 34.7166 Y 35.9002 Z -1.0000
G01 X 34.9078 Y 35.8268 Z -1.0000
G01 X 35.1674 Y 35.2746 Z -1.0000
G01 X 35.4269 Y 34.7225 Z -1.0000
G01 X 35.5940 Y 33.9343 Z -1.0000
G01 X 35.7611 Y 33.1460 Z -1.0000
G01 X 35.7650 Y 32.4261 Z -1.0000
G01 X 35.7689 Y 31.7062 Z -1.0000
G01 X 35.8742 Y 31.5400 Z -1.0000
G01 X 35.9794 Y 31.3738 Z -1.0000
G01 X 36.1229 Y 31.6419 Z -1.0000
G01 X 36.2664 Y 31.9101 Z -1.0000
G01 X 36.5558 Y 31.8547 Z -1.0000
G01 X 36.8451 Y 31.7994 Z -1.0000
G01 X 36.8451 Y 32.8556 Z -1.0000
G01 X 36.8451 Y 33.9118 Z -1.0000
G01 X 36.7316 Y 33.9819 Z -1.0000
G01 X 36.6181 Y 34.0521 Z -1.0000
G01 X 36.4923 Y 33.5990 Z -1.0000
G01 X 36.3665 Y 33.1460 Z -1.0000
G01 X 36.3658 Y 32.6544 Z -1.0000
G01 X 36.3652 Y 32.1628 Z -1.0000
G01 X 36.1252 Y 31.8861 Z -1.0000
G01 X 35.8852 Y 31.6094 Z -1.0000
G01 X 35.8852 Y 31.8562 Z -1.0000
G01 X 35.8852 Y 32.1029 Z -1.0000
G01 X 36.1144 Y 33.2421 Z -1.0000
G01 X 36.3435 Y 34.3812 Z -1.0000
G01 X 36.4825 Y 34.6408 Z -1.0000
G01 X 36.6214 Y 34.9004 Z -1.0000
G01 X 36.7632 Y 34.8538 Z -1.0000
G01 X 36.9051 Y 34.8071 Z -1.0000
G01 X 37.0624 Y 33.9166 Z -1.0000
G01 X 37.2196 Y 33.0260 Z -1.0000
G01 X 37.1575 Y 32.1261 Z -1.0000
G01 X 37.0955 Y 31.2262 Z -1.0000
G01 X 36.9532 Y 30.8063 Z -1.0000
G01 X 36.8109 Y 30.3863 Z -1.0000
G01 X 36.3898 Y 29.8248 Z -1.0000
G01 X 35.9688 Y 29.2633 Z -1.0000
G01 X 35.6570 Y 29.1882 Z -1.0000
G01 X 35.3453 Y 29.1131 Z -1.0000
G01 X 34.9853 Y 28.7537 Z -1.0000
G01 X 34.6254 Y 28.3943 Z -1.0000
G01 X 33.9726 Y 27.8605 Z -1.0000
G01 X 33.3198 Y 27.3266 Z -1.0000
G01 X 33.2214 Y 27.3266 Z -1.0000
G01 X 33.1229 Y 27.3266 Z -1.0000
G01 X 32.5543 Y 27.0629 Z -1.0000
G01 X 31.9856 Y 26.7991 Z -1.0000
G01 X 31.3094 Y 26.3418 Z -1.0000
G01 X 30.6332 Y 25.8844 Z -1.0000
G01 X 30.4957 Y 25.7187 Z -1.0000
G01 X 30.3581 Y 25.5530 Z -1.0000
G01 X 30.7398 Y 25.4199 Z -1.0000
G01 X 31.1215 Y 25.2868 Z -1.0000
G01 X 31.3170 Y 25.2868 Z -1.0000
G01 X 31.5124 Y 25.2868 Z -1.0000
G01 X 32.3490 Y 24.8857 Z -1.0000
G01 X 33.1855 Y 24.4846 Z -1.0000
G01 X 33.3325 Y 24.3071 Z -1.0000
G01 X 33.4796 Y 24.1295 Z -1.0000
G01 X 33.9625 Y 23.2072 Z -1.0000
G01 X 34.4454 Y 22.2850 Z -1.0000
G01 X 34.4454 Y 21.9224 Z -1.0000
G01 X 34.4454 Y 21.5597 Z -1.0000
G01 X 34.2567 Y 21.4873 Z -1.0000
G01 X 34.0681 Y 21.4149 Z -1.0000
G01 X 33.7468 Y 21.6518 Z -1.0000
G01 X 33.4255 Y 21.8886 Z -1.0000
G01 X 32.9524 Y 22.1125 Z -1.0000
G01 X 32.4793 Y 22.3364 Z -1.0000
G01 X 31.4526 Y 22.3288 Z -1.0000
G01 X 30.4258 Y 22.3212 Z -1.0000
G01 X 29.7659 Y 22.0643 Z -1.0000
G01 X 29.1059 Y 21.8074 Z -1.0000
G01 X 28.7906 Y 21.8073 Z -1.0000
G01 X 28.4753 Y 21.8073 Z -1.0000
G01 X 28.0437 Y 21.6269 Z -1.0000
G01 X 27.6121 Y 21.4466 Z -1.0000
G01 X 27.0991 Y 21.1032 Z -1.0000
G01 X 26.5862 Y 20.7597 Z -1.0000
G01 X 26.2262 Y 20.5347 Z -1.0000
G01 X 25.8663 Y 20.3098 Z -1.0000
G01 X 24.9064 Y 19.9913 Z -1.0000
G01 X 23.9465 Y 19.6728 Z -1.0000
G01 X 23.2865 Y 19.7885 Z -1.0000
G01 X 22.6266 Y 19.9042 Z -1.0000
G01 X 19.8606 Y 19.9476 Z -1.0000
G01 X 17.0946 Y 19.9910 Z -1.0000
G01 X 16.8009 Y 20.0644 Z -1.0000
G01 X 16.5073 Y 20.1377 Z -1.0000
G01 X 15.4624 Y 19.8346 Z -1.0000
G01 X 14.4175 Y 19.5315 Z -1.0000
G01 X 13.7826 Y 19.1403 Z -1.0000
G01 X 13.1476 Y 18.7492 Z -1.0000
G01 X 11.9833 Y 18.7289 Z -1.0000
G01 X 10.8189 Y 18.7086 Z -1.0000
G01 X 10.7177 Y 18.6460 Z -1.0000
G01 X 10.6164 Y 18.5835 Z -1.0000
G01 X 10.4901 Y 18.6654 Z -1.0000
G00 Z 5.0000

(End cutting path id: path74449)


(Start cutting path id: path74449)
(Change tool to Default tool)

G00 Z 5.0000
G00 X 9.9263 Y 20.5813

G01 Z -1.0000 F 100.0000(Penetrate)
G01 X 9.9897 Y 20.8235 Z -1.0000 F 3500.0000
G01 X 10.2751 Y 20.8781 Z -1.0000
G01 X 10.5606 Y 20.9326 Z -1.0000
G01 X 10.4972 Y 20.8300 Z -1.0000
G01 X 10.4337 Y 20.7273 Z -1.0000
G01 X 10.2608 Y 20.7273 Z -1.0000
G01 X 10.0879 Y 20.7273 Z -1.0000
G01 X 10.0879 Y 20.6157 Z -1.0000
G01 X 10.0879 Y 20.5041 Z -1.0000
G01 X 10.4699 Y 20.6137 Z -1.0000
G01 X 10.8519 Y 20.7232 Z -1.0000
G01 X 10.9099 Y 20.6653 Z -1.0000
G01 X 10.9678 Y 20.6073 Z -1.0000
G01 X 10.9133 Y 20.5528 Z -1.0000
G01 X 10.8588 Y 20.4983 Z -1.0000
G01 X 10.3609 Y 20.4187 Z -1.0000
G01 X 9.8630 Y 20.3391 Z -1.0000
G01 X 9.9263 Y 20.5813 Z -1.0000
G00 Z 5.0000

(End cutting path id: path74449)


(Start cutting path id: path74449)
(Change tool to Default tool)

G00 Z 5.0000
G00 X 9.7279 Y 20.6673

G01 Z -1.0000 F 100.0000(Penetrate)
G01 X 9.7279 Y 20.7273 Z -1.0000 F 3500.0000
G01 X 9.7879 Y 20.7273 Z -1.0000
G01 X 9.8479 Y 20.7273 Z -1.0000
G01 X 9.8479 Y 20.6673 Z -1.0000
G01 X 9.8479 Y 20.6073 Z -1.0000
G01 X 9.7879 Y 20.6073 Z -1.0000
G01 X 9.7279 Y 20.6073 Z -1.0000
G01 X 9.7279 Y 20.6673 Z -1.0000
G00 Z 5.0000

(End cutting path id: path74449)


(Start cutting path id: path74449)
(Change tool to Default tool)

G00 Z 5.0000
G00 X 9.0080 Y 20.9073

G01 Z -1.0000 F 100.0000(Penetrate)
G01 X 9.0080 Y 20.9673 Z -1.0000 F 3500.0000
G01 X 8.9480 Y 20.9673 Z -1.0000
G01 X 8.8880 Y 20.9673 Z -1.0000
G01 X 8.8880 Y 20.9073 Z -1.0000
G01 X 8.8880 Y 20.8473 Z -1.0000
G01 X 8.9480 Y 20.8473 Z -1.0000
G01 X 9.0080 Y 20.8473 Z -1.0000
G01 X 9.0080 Y 20.9073 Z -1.0000
G00 Z 5.0000

(End cutting path id: path74449)


(Start cutting path id: path74449)
(Change tool to Default tool)

G00 Z 5.0000
G00 X 8.4956 Y 20.7998

G01 Z -1.0000 F 100.0000(Penetrate)
G01 X 8.4231 Y 20.8723 Z -1.0000 F 3500.0000
G01 X 8.2656 Y 20.8093 Z -1.0000
G01 X 8.1081 Y 20.7463 Z -1.0000
G01 X 8.3381 Y 20.7368 Z -1.0000
G01 X 8.5681 Y 20.7273 Z -1.0000
G01 X 8.4956 Y 20.7998 Z -1.0000
G00 Z 5.0000

(End cutting path id: path74449)


(Start cutting path id: path74449)
(Change tool to Default tool)

G00 Z 5.0000
G00 X 7.6169 Y 20.6748

G01 Z -1.0000 F 100.0000(Penetrate)
G01 X 7.6479 Y 20.8858 Z -1.0000 F 3500.0000
G01 X 8.2380 Y 21.0412 Z -1.0000
G01 X 8.8280 Y 21.1967 Z -1.0000
G01 X 9.0418 Y 21.2020 Z -1.0000
G01 X 9.2555 Y 21.2073 Z -1.0000
G01 X 9.3277 Y 21.0192 Z -1.0000
G01 X 9.3998 Y 20.8312 Z -1.0000
G01 X 9.2880 Y 20.7193 Z -1.0000
G01 X 9.1761 Y 20.6074 Z -1.0000
G01 X 8.3810 Y 20.5356 Z -1.0000
G01 X 7.5859 Y 20.4638 Z -1.0000
G01 X 7.6169 Y 20.6748 Z -1.0000
G00 Z 5.0000

(End cutting path id: path74449)


(Start cutting path id: path74449)
(Change tool to Default tool)

G00 Z 5.0000
G00 X 11.6787 Y 21.2601

G01 Z -1.0000 F 100.0000(Penetrate)
G01 X 11.5297 Y 21.4350 Z -1.0000 F 3500.0000
G01 X 11.7954 Y 21.6211 Z -1.0000
G01 X 12.0611 Y 21.8072 Z -1.0000
G01 X 12.3704 Y 21.8072 Z -1.0000
G01 X 12.6796 Y 21.8072 Z -1.0000
G01 X 12.8052 Y 21.9328 Z -1.0000
G01 X 12.9309 Y 22.0584 Z -1.0000
G01 X 13.3992 Y 22.0620 Z -1.0000
G01 X 13.8675 Y 22.0656 Z -1.0000
G01 X 14.1075 Y 22.0150 Z -1.0000
G01 X 14.3475 Y 21.9643 Z -1.0000
G01 X 14.3475 Y 21.7436 Z -1.0000
G01 X 14.3475 Y 21.5229 Z -1.0000
G01 X 13.7728 Y 21.3763 Z -1.0000
G01 X 13.1982 Y 21.2298 Z -1.0000
G01 X 12.5130 Y 21.1575 Z -1.0000
G01 X 11.8277 Y 21.0852 Z -1.0000
G01 X 11.6787 Y 21.2601 Z -1.0000
G00 Z 5.0000

(End cutting path id: path74449)


(Start cutting path id: path74449)
(Change tool to Default tool)

G00 Z 5.0000
G00 X 12.2152 Y 21.3997

G01 Z -1.0000 F 100.0000(Penetrate)
G01 X 12.1427 Y 21.4722 Z -1.0000 F 3500.0000
G01 X 11.9852 Y 21.4092 Z -1.0000
G01 X 11.8277 Y 21.3462 Z -1.0000
G01 X 12.0577 Y 21.3366 Z -1.0000
G01 X 12.2877 Y 21.3271 Z -1.0000
G01 X 12.2152 Y 21.3997 Z -1.0000
G00 Z 5.0000

(End cutting path id: path74449)


(Start cutting path id: path74449)
(Change tool to Default tool)

G00 Z 5.0000
G00 X 12.8151 Y 21.5197

G01 Z -1.0000 F 100.0000(Penetrate)
G01 X 12.7426 Y 21.5922 Z -1.0000 F 3500.0000
G01 X 12.5851 Y 21.5292 Z -1.0000
G01 X 12.4277 Y 21.4661 Z -1.0000
G01 X 12.6576 Y 21.4566 Z -1.0000
G01 X 12.8876 Y 21.4471 Z -1.0000
G01 X 12.8151 Y 21.5197 Z -1.0000
G00 Z 5.0000

(End cutting path id: path74449)


(Start cutting path id: path74449)
(Change tool to Default tool)

G00 Z 5.0000
G00 X 13.5075 Y 21.6872

G01 Z -1.0000 F 100.0000(Penetrate)
G01 X 13.5817 Y 21.8072 Z -1.0000 F 3500.0000
G01 X 13.4846 Y 21.7988 Z -1.0000
G01 X 13.3876 Y 21.7904 Z -1.0000
G01 X 13.1476 Y 21.6872 Z -1.0000
G01 X 12.9076 Y 21.5841 Z -1.0000
G01 X 13.1705 Y 21.5757 Z -1.0000
G01 X 13.4334 Y 21.5673 Z -1.0000
G01 X 13.5075 Y 21.6872 Z -1.0000
G00 Z 5.0000

(End cutting path id: path74449)


(Start cutting path id: path74449)
(Change tool to Default tool)

G00 Z 5.0000
G00 X 14.1675 Y 21.7472

G01 Z -1.0000 F 100.0000(Penetrate)
G01 X 14.1675 Y 21.8072 Z -1.0000 F 3500.0000
G01 X 14.1075 Y 21.8072 Z -1.0000
G01 X 14.0475 Y 21.8072 Z -1.0000
G01 X 14.0475 Y 21.7472 Z -1.0000
G01 X 14.0475 Y 21.6872 Z -1.0000
G01 X 14.1075 Y 21.6872 Z -1.0000
G01 X 14.1675 Y 21.6872 Z -1.0000
G01 X 14.1675 Y 21.7472 Z -1.0000
G00 Z 5.0000

(End cutting path id: path74449)


(Start cutting path id: path74449)
(Change tool to Default tool)

G00 Z 5.0000
G00 X 14.4075 Y 20.9073

G01 Z -1.0000 F 100.0000(Penetrate)
G01 X 14.4075 Y 20.9672 Z -1.0000 F 3500.0000
G01 X 14.4674 Y 20.9672 Z -1.0000
G01 X 14.5274 Y 20.9672 Z -1.0000
G01 X 14.5274 Y 20.9073 Z -1.0000
G01 X 14.5274 Y 20.8473 Z -1.0000
G01 X 14.4674 Y 20.8473 Z -1.0000
G01 X 14.4075 Y 20.8473 Z -1.0000
G01 X 14.4075 Y 20.9073 Z -1.0000
G00 Z 5.0000

(End cutting path id: path74449)


(Start cutting path id: path74449)
(Change tool to Default tool)

G00 Z 5.0000
G00 X 13.5675 Y 19.4051

G01 Z -1.0000 F 100.0000(Penetrate)
G01 X 14.2275 Y 19.7561 Z -1.0000 F 3500.0000
G01 X 13.8903 Y 19.7618 Z -1.0000
G01 X 13.5531 Y 19.7675 Z -1.0000
G01 X 13.0031 Y 20.1875 Z -1.0000
G01 X 12.4531 Y 20.6074 Z -1.0000
G01 X 12.3644 Y 20.6074 Z -1.0000
G01 X 12.2757 Y 20.6074 Z -1.0000
G01 X 12.2131 Y 20.3680 Z -1.0000
G01 X 12.1505 Y 20.1287 Z -1.0000
G01 X 11.9291 Y 20.0489 Z -1.0000
G01 X 11.7077 Y 19.9690 Z -1.0000
G01 X 11.4962 Y 19.7516 Z -1.0000
G01 X 11.2846 Y 19.5342 Z -1.0000
G01 X 10.9262 Y 19.6058 Z -1.0000
G01 X 10.5678 Y 19.6775 Z -1.0000
G01 X 10.5678 Y 19.5523 Z -1.0000
G01 X 10.5678 Y 19.4272 Z -1.0000
G01 X 10.6352 Y 19.2517 Z -1.0000
G01 X 10.7025 Y 19.0762 Z -1.0000
G01 X 11.8051 Y 19.0651 Z -1.0000
G01 X 12.9076 Y 19.0541 Z -1.0000
G01 X 13.5675 Y 19.4051 Z -1.0000
G00 Z 5.0000

(End cutting path id: path74449)


(Start cutting path id: path74449)
(Change tool to Default tool)

G00 Z 5.0000
G00 X 17.3668 Y 20.9154

G01 Z -1.0000 F 100.0000(Penetrate)
G01 X 17.4360 Y 21.0956 Z -1.0000 F 3500.0000
G01 X 17.9852 Y 21.4735 Z -1.0000
G01 X 18.5345 Y 21.8514 Z -1.0000
G01 X 18.3858 Y 21.9009 Z -1.0000
G01 X 18.2372 Y 21.9505 Z -1.0000
G01 X 18.5483 Y 22.2388 Z -1.0000
G01 X 18.8594 Y 22.5271 Z -1.0000
G01 X 18.9918 Y 22.5271 Z -1.0000
G01 X 19.1242 Y 22.5271 Z -1.0000
G01 X 18.9270 Y 22.3093 Z -1.0000
G01 X 18.7299 Y 22.0914 Z -1.0000
G01 X 18.6573 Y 21.7289 Z -1.0000
G01 X 18.5848 Y 21.3664 Z -1.0000
G01 X 17.9412 Y 21.0507 Z -1.0000
G01 X 17.2977 Y 20.7351 Z -1.0000
G01 X 17.3668 Y 20.9154 Z -1.0000
G00 Z 5.0000

(End cutting path id: path74449)


(Start cutting path id: path74449)
(Change tool to Default tool)

G00 Z 5.0000
G00 X 18.9070 Y 22.7671

G01 Z -1.0000 F 100.0000(Penetrate)
G01 X 18.8328 Y 22.8870 Z -1.0000 F 3500.0000
G01 X 18.9599 Y 22.8870 Z -1.0000
G01 X 19.0870 Y 22.8870 Z -1.0000
G01 X 19.0870 Y 22.7671 Z -1.0000
G01 X 19.0870 Y 22.6471 Z -1.0000
G01 X 19.0340 Y 22.6471 Z -1.0000
G01 X 18.9811 Y 22.6471 Z -1.0000
G01 X 18.9070 Y 22.7671 Z -1.0000
G00 Z 5.0000

(End cutting path id: path74449)


(Start cutting path id: path74449)
(Change tool to Default tool)

G00 Z 5.0000
G00 X 19.0270 Y 25.4068

G01 Z -1.0000 F 100.0000(Penetrate)
G01 X 19.1011 Y 25.5268 Z -1.0000 F 3500.0000
G01 X 19.1611 Y 25.5268 Z -1.0000
G01 X 19.2211 Y 25.5268 Z -1.0000
G01 X 19.1469 Y 25.4068 Z -1.0000
G01 X 19.0728 Y 25.2868 Z -1.0000
G01 X 19.0128 Y 25.2868 Z -1.0000
G01 X 18.9528 Y 25.2868 Z -1.0000
G01 X 19.0270 Y 25.4068 Z -1.0000
G00 Z 5.0000

(End cutting path id: path74449)


(Start cutting path id: path74449)
(Change tool to Default tool)

G00 Z 5.0000
G00 X 19.4037 Y 25.4901

G01 Z -1.0000 F 100.0000(Penetrate)
G01 X 19.3269 Y 25.5668 Z -1.0000 F 3500.0000
G01 X 19.3269 Y 25.9068 Z -1.0000
G01 X 19.3269 Y 26.2467 Z -1.0000
G01 X 19.4669 Y 26.2467 Z -1.0000
G01 X 19.6069 Y 26.2467 Z -1.0000
G01 X 19.5346 Y 26.1744 Z -1.0000
G01 X 19.4622 Y 26.1021 Z -1.0000
G01 X 19.5700 Y 25.8187 Z -1.0000
G01 X 19.6777 Y 25.5353 Z -1.0000
G01 X 19.5791 Y 25.4743 Z -1.0000
G01 X 19.4804 Y 25.4134 Z -1.0000
G01 X 19.4037 Y 25.4901 Z -1.0000
G00 Z 5.0000

(End cutting path id: path74449)


(Start cutting path id: path74449)
(Change tool to Default tool)

G00 Z 5.0000
G00 X 20.1069 Y 25.7668

G01 Z -1.0000 F 100.0000(Penetrate)
G01 X 20.1810 Y 25.8868 Z -1.0000 F 3500.0000
G01 X 20.2339 Y 25.8868 Z -1.0000
G01 X 20.2868 Y 25.8868 Z -1.0000
G01 X 20.2868 Y 25.7668 Z -1.0000
G01 X 20.2868 Y 25.6468 Z -1.0000
G01 X 20.1598 Y 25.6468 Z -1.0000
G01 X 20.0327 Y 25.6468 Z -1.0000
G01 X 20.1069 Y 25.7668 Z -1.0000
G00 Z 5.0000

(End cutting path id: path74449)


(Start cutting path id: path74449)
(Change tool to Default tool)

G00 Z 5.0000
G00 X 21.0553 Y 25.3602

G01 Z -1.0000 F 100.0000(Penetrate)
G01 X 21.1295 Y 25.5535 Z -1.0000 F 3500.0000
G01 X 20.8141 Y 25.4744 Z -1.0000
G01 X 20.4988 Y 25.3952 Z -1.0000
G01 X 20.1529 Y 25.3260 Z -1.0000
G01 X 19.8069 Y 25.2568 Z -1.0000
G01 X 19.8069 Y 25.4599 Z -1.0000
G01 X 19.8069 Y 25.6630 Z -1.0000
G01 X 20.0416 Y 25.5885 Z -1.0000
G01 X 20.2762 Y 25.5140 Z -1.0000
G01 X 20.7653 Y 25.6605 Z -1.0000
G01 X 21.2544 Y 25.8071 Z -1.0000
G01 X 21.3895 Y 25.6720 Z -1.0000
G01 X 21.5245 Y 25.5370 Z -1.0000
G01 X 21.3709 Y 25.3519 Z -1.0000
G01 X 21.2174 Y 25.1669 Z -1.0000
G01 X 21.0992 Y 25.1669 Z -1.0000
G01 X 20.9811 Y 25.1669 Z -1.0000
G01 X 21.0553 Y 25.3602 Z -1.0000
G00 Z 5.0000

(End cutting path id: path74449)


(Start cutting path id: path74449)
(Change tool to Default tool)

G00 Z 5.0000
G00 X 22.4719 Y 25.9589

G01 Z -1.0000 F 100.0000(Penetrate)
G01 X 22.3172 Y 26.1267 Z -1.0000 F 3500.0000
G01 X 22.4348 Y 26.1267 Z -1.0000
G01 X 22.5524 Y 26.1267 Z -1.0000
G01 X 22.6315 Y 25.9988 Z -1.0000
G01 X 22.7106 Y 25.8708 Z -1.0000
G01 X 22.6686 Y 25.8309 Z -1.0000
G01 X 22.6266 Y 25.7910 Z -1.0000
G01 X 22.4719 Y 25.9589 Z -1.0000
G00 Z 5.0000

(End cutting path id: path74449)


(Start cutting path id: path74449)
(Change tool to Default tool)

G00 Z 5.0000
G00 X 23.1233 Y 25.9700

G01 Z -1.0000 F 100.0000(Penetrate)
G01 X 23.0465 Y 26.0468 Z -1.0000 F 3500.0000
G01 X 23.0465 Y 26.1267 Z -1.0000
G01 X 23.0465 Y 26.2067 Z -1.0000
G01 X 23.2265 Y 26.2067 Z -1.0000
G01 X 23.4065 Y 26.2067 Z -1.0000
G01 X 23.4065 Y 26.1138 Z -1.0000
G01 X 23.4065 Y 26.0209 Z -1.0000
G01 X 23.3033 Y 25.9571 Z -1.0000
G01 X 23.2000 Y 25.8933 Z -1.0000
G01 X 23.1233 Y 25.9700 Z -1.0000
G00 Z 5.0000

(End cutting path id: path74449)


(Start cutting path id: path74449)
(Change tool to Default tool)

G00 Z 5.0000
G00 X 22.9360 Y 26.5167

G01 Z -1.0000 F 100.0000(Penetrate)
G01 X 22.9265 Y 26.7267 Z -1.0000 F 3500.0000
G01 X 23.1065 Y 26.7267 Z -1.0000
G01 X 23.2865 Y 26.7267 Z -1.0000
G01 X 23.2865 Y 26.5996 Z -1.0000
G01 X 23.2865 Y 26.4726 Z -1.0000
G01 X 23.1768 Y 26.5404 Z -1.0000
G01 X 23.0670 Y 26.6082 Z -1.0000
G01 X 23.0062 Y 26.4575 Z -1.0000
G01 X 22.9455 Y 26.3067 Z -1.0000
G01 X 22.9360 Y 26.5167 Z -1.0000
G00 Z 5.0000

(End cutting path id: path74449)


(Start cutting path id: path74449)
(Change tool to Default tool)

G00 Z 5.0000
G00 X 23.2465 Y 26.9267

G01 Z -1.0000 F 100.0000(Penetrate)
G01 X 23.1665 Y 27.0067 Z -1.0000 F 3500.0000
G01 X 23.1665 Y 27.1067 Z -1.0000
G01 X 23.1665 Y 27.2066 Z -1.0000
G01 X 23.3465 Y 27.2066 Z -1.0000
G01 X 23.5265 Y 27.2066 Z -1.0000
G01 X 23.5265 Y 27.0267 Z -1.0000
G01 X 23.5265 Y 26.8467 Z -1.0000
G01 X 23.4265 Y 26.8467 Z -1.0000
G01 X 23.3265 Y 26.8467 Z -1.0000
G01 X 23.2465 Y 26.9267 Z -1.0000
G00 Z 5.0000

(End cutting path id: path74449)


(Start cutting path id: path74449)
(Change tool to Default tool)

G00 Z 5.0000
G00 X 23.4065 Y 27.0267

G01 Z -1.0000 F 100.0000(Penetrate)
G01 X 23.4065 Y 27.0867 Z -1.0000 F 3500.0000
G01 X 23.3465 Y 27.0867 Z -1.0000
G01 X 23.2865 Y 27.0867 Z -1.0000
G01 X 23.2865 Y 27.0267 Z -1.0000
G01 X 23.2865 Y 26.9667 Z -1.0000
G01 X 23.3465 Y 26.9667 Z -1.0000
G01 X 23.4065 Y 26.9667 Z -1.0000
G01 X 23.4065 Y 27.0267 Z -1.0000
G00 Z 5.0000

(End cutting path id: path74449)


(Start cutting path id: path74449)
(Change tool to Default tool)

G00 Z 5.0000
G00 X 24.0064 Y 27.0267

G01 Z -1.0000 F 100.0000(Penetrate)
G01 X 24.0064 Y 27.0867 Z -1.0000 F 3500.0000
G01 X 24.0664 Y 27.0867 Z -1.0000
G01 X 24.1264 Y 27.0867 Z -1.0000
G01 X 24.1264 Y 27.0267 Z -1.0000
G01 X 24.1264 Y 26.9667 Z -1.0000
G01 X 24.0664 Y 26.9667 Z -1.0000
G01 X 24.0064 Y 26.9667 Z -1.0000
G01 X 24.0064 Y 27.0267 Z -1.0000
G00 Z 5.0000

(End cutting path id: path74449)


(Start cutting path id: path74449)
(Change tool to Default tool)

G00 Z 5.0000
G00 X 24.5859 Y 27.2913

G01 Z -1.0000 F 100.0000(Penetrate)
G01 X 24.4594 Y 27.4438 Z -1.0000 F 3500.0000
G01 X 24.6609 Y 27.5211 Z -1.0000
G01 X 24.8625 Y 27.5985 Z -1.0000
G01 X 24.9984 Y 27.4626 Z -1.0000
G01 X 25.1343 Y 27.3266 Z -1.0000
G01 X 25.0203 Y 27.3248 Z -1.0000
G01 X 24.9063 Y 27.3230 Z -1.0000
G01 X 25.0848 Y 27.2102 Z -1.0000
G01 X 25.2633 Y 27.0974 Z -1.0000
G01 X 24.9879 Y 27.1181 Z -1.0000
G01 X 24.7125 Y 27.1388 Z -1.0000
G01 X 24.5859 Y 27.2913 Z -1.0000
G00 Z 5.0000

(End cutting path id: path74449)


(Start cutting path id: path74449)
(Change tool to Default tool)

G00 Z 5.0000
G00 X 24.8464 Y 27.3866

G01 Z -1.0000 F 100.0000(Penetrate)
G01 X 24.8464 Y 27.4466 Z -1.0000 F 3500.0000
G01 X 24.7864 Y 27.4466 Z -1.0000
G01 X 24.7264 Y 27.4466 Z -1.0000
G01 X 24.7264 Y 27.3866 Z -1.0000
G01 X 24.7264 Y 27.3266 Z -1.0000
G01 X 24.7864 Y 27.3266 Z -1.0000
G01 X 24.8464 Y 27.3266 Z -1.0000
G01 X 24.8464 Y 27.3866 Z -1.0000
G00 Z 5.0000

(End cutting path id: path74449)


(Start cutting path id: path74449)
(Change tool to Default tool)

G00 Z 5.0000
G00 X 25.2702 Y 27.3203

G01 Z -1.0000 F 100.0000(Penetrate)
G01 X 25.1922 Y 27.4467 Z -1.0000 F 3500.0000
G01 X 25.2663 Y 27.5666 Z -1.0000
G01 X 25.3405 Y 27.6866 Z -1.0000
G01 X 25.5222 Y 27.6866 Z -1.0000
G01 X 25.7039 Y 27.6866 Z -1.0000
G01 X 25.6651 Y 27.4866 Z -1.0000
G01 X 25.6263 Y 27.2866 Z -1.0000
G01 X 25.4873 Y 27.2403 Z -1.0000
G01 X 25.3483 Y 27.1940 Z -1.0000
G01 X 25.2702 Y 27.3203 Z -1.0000
G00 Z 5.0000

(End cutting path id: path74449)


(Start cutting path id: path74449)
(Change tool to Default tool)

G00 Z 5.0000
G00 X 24.9663 Y 27.8666

G01 Z -1.0000 F 100.0000(Penetrate)
G01 X 24.9663 Y 27.9266 Z -1.0000 F 3500.0000
G01 X 25.0263 Y 27.9266 Z -1.0000
G01 X 25.0863 Y 27.9266 Z -1.0000
G01 X 25.0863 Y 27.8666 Z -1.0000
G01 X 25.0863 Y 27.8066 Z -1.0000
G01 X 25.0263 Y 27.8066 Z -1.0000
G01 X 24.9663 Y 27.8066 Z -1.0000
G01 X 24.9663 Y 27.8666 Z -1.0000
G00 Z 5.0000

(End cutting path id: path74449)


(Start cutting path id: path74449)
(Change tool to Default tool)

G00 Z 5.0000
G00 X 25.4463 Y 27.9866

G01 Z -1.0000 F 100.0000(Penetrate)
G01 X 25.4463 Y 28.0466 Z -1.0000 F 3500.0000
G01 X 25.5063 Y 28.0466 Z -1.0000
G01 X 25.5663 Y 28.0466 Z -1.0000
G01 X 25.5663 Y 27.9866 Z -1.0000
G01 X 25.5663 Y 27.9266 Z -1.0000
G01 X 25.5063 Y 27.9266 Z -1.0000
G01 X 25.4463 Y 27.9266 Z -1.0000
G01 X 25.4463 Y 27.9866 Z -1.0000
G00 Z 5.0000

(End cutting path id: path74449)


(Start cutting path id: path74449)
(Change tool to Default tool)

G00 Z 5.0000
G00 X 25.6863 Y 27.9266

G01 Z -1.0000 F 100.0000(Penetrate)
G01 X 25.6863 Y 28.0866 Z -1.0000 F 3500.0000
G01 X 25.7663 Y 28.0066 Z -1.0000
G01 X 25.8462 Y 27.9266 Z -1.0000
G01 X 25.7663 Y 27.8466 Z -1.0000
G01 X 25.6863 Y 27.7666 Z -1.0000
G01 X 25.6863 Y 27.9266 Z -1.0000
G00 Z 5.0000

(End cutting path id: path74449)


(Start cutting path id: path74449)
(Change tool to Default tool)

G00 Z 5.0000
G00 X 24.2864 Y 27.7413

G01 Z -1.0000 F 100.0000(Penetrate)
G01 X 24.2864 Y 27.9160 Z -1.0000 F 3500.0000
G01 X 24.3884 Y 27.8530 Z -1.0000
G01 X 24.4903 Y 27.7900 Z -1.0000
G01 X 24.4213 Y 27.6783 Z -1.0000
G01 X 24.3522 Y 27.5666 Z -1.0000
G01 X 24.3193 Y 27.5666 Z -1.0000
G01 X 24.2864 Y 27.5666 Z -1.0000
G01 X 24.2864 Y 27.7413 Z -1.0000
G00 Z 5.0000

(End cutting path id: path74449)


(Start cutting path id: path74449)
(Change tool to Default tool)

G00 Z 5.0000
G00 X 23.8621 Y 26.3492

G01 Z -1.0000 F 100.0000(Penetrate)
G01 X 24.0178 Y 26.4479 Z -1.0000 F 3500.0000
G01 X 23.8321 Y 26.6020 Z -1.0000
G01 X 23.6465 Y 26.7561 Z -1.0000
G01 X 23.6465 Y 26.6014 Z -1.0000
G01 X 23.6465 Y 26.4467 Z -1.0000
G01 X 23.5618 Y 26.5315 Z -1.0000
G01 X 23.4770 Y 26.6162 Z -1.0000
G01 X 23.7006 Y 27.0314 Z -1.0000
G01 X 23.9242 Y 27.4466 Z -1.0000
G01 X 24.1506 Y 27.4466 Z -1.0000
G01 X 24.3769 Y 27.4466 Z -1.0000
G01 X 24.3574 Y 27.2966 Z -1.0000
G01 X 24.3380 Y 27.1467 Z -1.0000
G01 X 24.3540 Y 26.9667 Z -1.0000
G01 X 24.3701 Y 26.7867 Z -1.0000
G01 X 24.4732 Y 26.9495 Z -1.0000
G01 X 24.5764 Y 27.1123 Z -1.0000
G01 X 24.6500 Y 26.9931 Z -1.0000
G01 X 24.7237 Y 26.8739 Z -1.0000
G01 X 24.5503 Y 26.7300 Z -1.0000
G01 X 24.3769 Y 26.5860 Z -1.0000
G01 X 24.2569 Y 26.6602 Z -1.0000
G01 X 24.1369 Y 26.7344 Z -1.0000
G01 X 24.1998 Y 26.8984 Z -1.0000
G01 X 24.2628 Y 27.0624 Z -1.0000
G01 X 24.1482 Y 27.1332 Z -1.0000
G01 X 24.0336 Y 27.2040 Z -1.0000
G01 X 23.8700 Y 27.0023 Z -1.0000
G01 X 23.7065 Y 26.8006 Z -1.0000
G01 X 23.8768 Y 26.9033 Z -1.0000
G01 X 24.0472 Y 27.0060 Z -1.0000
G01 X 23.9736 Y 26.8141 Z -1.0000
G01 X 23.8999 Y 26.6222 Z -1.0000
G01 X 24.0344 Y 26.5774 Z -1.0000
G01 X 24.1689 Y 26.5326 Z -1.0000
G01 X 24.0806 Y 26.3897 Z -1.0000
G01 X 23.9923 Y 26.2468 Z -1.0000
G01 X 23.8494 Y 26.2486 Z -1.0000
G01 X 23.7065 Y 26.2504 Z -1.0000
G01 X 23.8621 Y 26.3492 Z -1.0000
G00 Z 5.0000

(End cutting path id: path74449)


(Start cutting path id: path74449)
(Change tool to Default tool)

G00 Z 5.0000
G00 X 21.0782 Y 26.9837

G01 Z -1.0000 F 100.0000(Penetrate)
G01 X 21.3067 Y 27.2406 Z -1.0000 F 3500.0000
G01 X 21.0368 Y 27.0748 Z -1.0000
G01 X 20.7668 Y 26.9089 Z -1.0000
G01 X 20.7668 Y 26.8178 Z -1.0000
G01 X 20.7668 Y 26.7267 Z -1.0000
G01 X 20.8082 Y 26.7267 Z -1.0000
G01 X 20.8496 Y 26.7267 Z -1.0000
G01 X 21.0782 Y 26.9837 Z -1.0000
G00 Z 5.0000

(End cutting path id: path74449)


(Start cutting path id: path74449)
(Change tool to Default tool)

G00 Z 5.0000
G00 X 20.4668 Y 27.4467

G01 Z -1.0000 F 100.0000(Penetrate)
G01 X 20.5410 Y 27.5666 Z -1.0000 F 3500.0000
G01 X 20.6010 Y 27.5666 Z -1.0000
G01 X 20.6610 Y 27.5666 Z -1.0000
G01 X 20.5868 Y 27.4467 Z -1.0000
G01 X 20.5126 Y 27.3267 Z -1.0000
G01 X 20.4526 Y 27.3267 Z -1.0000
G01 X 20.3927 Y 27.3267 Z -1.0000
G01 X 20.4668 Y 27.4467 Z -1.0000
G00 Z 5.0000

(End cutting path id: path74449)


(Start cutting path id: path74449)
(Change tool to Default tool)

G00 Z 5.0000
G00 X 19.7769 Y 27.6461

G01 Z -1.0000 F 100.0000(Penetrate)
G01 X 19.9269 Y 27.7066 Z -1.0000 F 3500.0000
G01 X 20.0769 Y 27.6461 Z -1.0000
G01 X 20.2268 Y 27.5856 Z -1.0000
G01 X 19.9269 Y 27.5856 Z -1.0000
G01 X 19.6269 Y 27.5856 Z -1.0000
G01 X 19.7769 Y 27.6461 Z -1.0000
G00 Z 5.0000

(End cutting path id: path74449)


(Start cutting path id: path74449)
(Change tool to Default tool)

G00 Z 5.0000
G00 X 19.4469 Y 27.0267

G01 Z -1.0000 F 100.0000(Penetrate)
G01 X 19.4469 Y 27.0867 Z -1.0000 F 3500.0000
G01 X 19.5069 Y 27.0867 Z -1.0000
G01 X 19.5669 Y 27.0867 Z -1.0000
G01 X 19.5669 Y 27.0267 Z -1.0000
G01 X 19.5669 Y 26.9667 Z -1.0000
G01 X 19.5069 Y 26.9667 Z -1.0000
G01 X 19.4469 Y 26.9667 Z -1.0000
G01 X 19.4469 Y 27.0267 Z -1.0000
G00 Z 5.0000

(End cutting path id: path74449)


(Start cutting path id: path74449)
(Change tool to Default tool)

G00 Z 5.0000
G00 X 18.8470 Y 27.2266

G01 Z -1.0000 F 100.0000(Penetrate)
G01 X 18.8470 Y 27.3666 Z -1.0000 F 3500.0000
G01 X 18.9272 Y 27.2864 Z -1.0000
G01 X 19.0075 Y 27.2061 Z -1.0000
G01 X 19.2279 Y 27.4056 Z -1.0000
G01 X 19.4484 Y 27.6051 Z -1.0000
G01 X 19.5247 Y 27.5288 Z -1.0000
G01 X 19.6011 Y 27.4524 Z -1.0000
G01 X 19.4493 Y 27.2695 Z -1.0000
G01 X 19.2976 Y 27.0867 Z -1.0000
G01 X 19.0723 Y 27.0867 Z -1.0000
G01 X 18.8470 Y 27.0867 Z -1.0000
G01 X 18.8470 Y 27.2266 Z -1.0000
G00 Z 5.0000

(End cutting path id: path74449)


(Start cutting path id: path74449)
(Change tool to Default tool)

G00 Z 5.0000
G00 X 18.1271 Y 27.5066

G01 Z -1.0000 F 100.0000(Penetrate)
G01 X 18.1271 Y 27.5666 Z -1.0000 F 3500.0000
G01 X 18.1871 Y 27.5666 Z -1.0000
G01 X 18.2470 Y 27.5666 Z -1.0000
G01 X 18.2470 Y 27.5066 Z -1.0000
G01 X 18.2470 Y 27.4467 Z -1.0000
G01 X 18.1871 Y 27.4467 Z -1.0000
G01 X 18.1271 Y 27.4467 Z -1.0000
G01 X 18.1271 Y 27.5066 Z -1.0000
G00 Z 5.0000

(End cutting path id: path74449)


(Start cutting path id: path74449)
(Change tool to Default tool)

G00 Z 5.0000
G00 X 18.1271 Y 28.3465

G01 Z -1.0000 F 100.0000(Penetrate)
G01 X 18.1271 Y 28.4065 Z -1.0000 F 3500.0000
G01 X 18.1871 Y 28.4065 Z -1.0000
G01 X 18.2470 Y 28.4065 Z -1.0000
G01 X 18.2470 Y 28.3465 Z -1.0000
G01 X 18.2470 Y 28.2865 Z -1.0000
G01 X 18.1871 Y 28.2865 Z -1.0000
G01 X 18.1271 Y 28.2865 Z -1.0000
G01 X 18.1271 Y 28.3465 Z -1.0000
G00 Z 5.0000

(End cutting path id: path74449)


(Start cutting path id: path74449)
(Change tool to Default tool)

G00 Z 5.0000
G00 X 17.5271 Y 28.8725

G01 Z -1.0000 F 100.0000(Penetrate)
G01 X 17.5271 Y 28.9785 Z -1.0000 F 3500.0000
G01 X 17.8548 Y 29.0411 Z -1.0000
G01 X 18.1825 Y 29.1038 Z -1.0000
G01 X 17.9519 Y 28.9351 Z -1.0000
G01 X 17.7212 Y 28.7665 Z -1.0000
G01 X 17.6242 Y 28.7665 Z -1.0000
G01 X 17.5271 Y 28.7665 Z -1.0000
G01 X 17.5271 Y 28.8725 Z -1.0000
G00 Z 5.0000

(End cutting path id: path74449)


(Start cutting path id: path74449)
(Change tool to Default tool)

G00 Z 5.0000
G00 X 17.0072 Y 28.4865

G01 Z -1.0000 F 100.0000(Penetrate)
G01 X 16.9272 Y 28.5665 Z -1.0000 F 3500.0000
G01 X 16.9272 Y 28.7265 Z -1.0000
G01 X 16.9272 Y 28.8865 Z -1.0000
G01 X 17.1034 Y 28.8865 Z -1.0000
G01 X 17.2796 Y 28.8865 Z -1.0000
G01 X 17.2030 Y 28.6868 Z -1.0000
G01 X 17.1264 Y 28.4871 Z -1.0000
G01 X 17.2853 Y 28.5853 Z -1.0000
G01 X 17.4442 Y 28.6836 Z -1.0000
G01 X 17.3586 Y 28.5450 Z -1.0000
G01 X 17.2730 Y 28.4065 Z -1.0000
G01 X 17.1801 Y 28.4065 Z -1.0000
G01 X 17.0872 Y 28.4065 Z -1.0000
G01 X 17.0072 Y 28.4865 Z -1.0000
G00 Z 5.0000

(End cutting path id: path74449)


(Start cutting path id: path74449)
(Change tool to Default tool)

G00 Z 5.0000
G00 X 16.4518 Y 28.0519

G01 Z -1.0000 F 100.0000(Penetrate)
G01 X 16.6272 Y 28.1629 Z -1.0000 F 3500.0000
G01 X 17.0810 Y 28.1647 Z -1.0000
G01 X 17.5349 Y 28.1665 Z -1.0000
G01 X 17.6434 Y 28.4365 Z -1.0000
G01 X 17.7519 Y 28.7065 Z -1.0000
G01 X 17.7595 Y 28.4407 Z -1.0000
G01 X 17.7671 Y 28.1750 Z -1.0000
G01 X 17.5571 Y 28.0641 Z -1.0000
G01 X 17.3471 Y 27.9533 Z -1.0000
G01 X 16.8117 Y 27.9471 Z -1.0000
G01 X 16.2763 Y 27.9409 Z -1.0000
G01 X 16.4518 Y 28.0519 Z -1.0000
G00 Z 5.0000

(End cutting path id: path74449)


(Start cutting path id: path74449)
(Change tool to Default tool)

G00 Z 5.0000
G00 X 16.6872 Y 27.6266

G01 Z -1.0000 F 100.0000(Penetrate)
G01 X 16.6872 Y 27.6866 Z -1.0000 F 3500.0000
G01 X 16.7472 Y 27.6866 Z -1.0000
G01 X 16.8072 Y 27.6866 Z -1.0000
G01 X 16.8072 Y 27.6266 Z -1.0000
G01 X 16.8072 Y 27.5666 Z -1.0000
G01 X 16.7472 Y 27.5666 Z -1.0000
G01 X 16.6872 Y 27.5666 Z -1.0000
G01 X 16.6872 Y 27.6266 Z -1.0000
G00 Z 5.0000

(End cutting path id: path74449)


(Start cutting path id: path74449)
(Change tool to Default tool)

G00 Z 5.0000
G00 X 16.9272 Y 27.7466

G01 Z -1.0000 F 100.0000(Penetrate)
G01 X 16.9272 Y 27.8066 Z -1.0000 F 3500.0000
G01 X 16.9872 Y 27.8066 Z -1.0000
G01 X 17.0472 Y 27.8066 Z -1.0000
G01 X 17.0472 Y 27.7466 Z -1.0000
G01 X 17.0472 Y 27.6867 Z -1.0000
G01 X 16.9872 Y 27.6867 Z -1.0000
G01 X 16.9272 Y 27.6867 Z -1.0000
G01 X 16.9272 Y 27.7466 Z -1.0000
G00 Z 5.0000

(End cutting path id: path74449)


(Start cutting path id: path74449)
(Change tool to Default tool)

G00 Z 5.0000
G00 X 17.1672 Y 27.6266

G01 Z -1.0000 F 100.0000(Penetrate)
G01 X 17.1672 Y 27.6866 Z -1.0000 F 3500.0000
G01 X 17.2272 Y 27.6866 Z -1.0000
G01 X 17.2871 Y 27.6866 Z -1.0000
G01 X 17.2871 Y 27.6266 Z -1.0000
G01 X 17.2871 Y 27.5666 Z -1.0000
G01 X 17.2272 Y 27.5666 Z -1.0000
G01 X 17.1672 Y 27.5666 Z -1.0000
G01 X 17.1672 Y 27.6266 Z -1.0000
G00 Z 5.0000

(End cutting path id: path74449)


(Start cutting path id: path74449)
(Change tool to Default tool)

G00 Z 5.0000
G00 X 16.6272 Y 27.3266

G01 Z -1.0000 F 100.0000(Penetrate)
G01 X 16.7014 Y 27.4466 Z -1.0000 F 3500.0000
G01 X 16.9043 Y 27.4448 Z -1.0000
G01 X 17.1072 Y 27.4430 Z -1.0000
G01 X 16.9272 Y 27.3267 Z -1.0000
G01 X 16.7472 Y 27.2104 Z -1.0000
G01 X 16.6501 Y 27.2086 Z -1.0000
G01 X 16.5531 Y 27.2068 Z -1.0000
G01 X 16.6272 Y 27.3266 Z -1.0000
G00 Z 5.0000

(End cutting path id: path74449)


(Start cutting path id: path74449)
(Change tool to Default tool)

G00 Z 5.0000
G00 X 17.1001 Y 26.6705

G01 Z -1.0000 F 100.0000(Penetrate)
G01 X 17.3330 Y 26.8467 Z -1.0000 F 3500.0000
G01 X 17.1901 Y 26.8467 Z -1.0000
G01 X 17.0472 Y 26.8467 Z -1.0000
G01 X 17.0472 Y 27.0196 Z -1.0000
G01 X 17.0472 Y 27.1925 Z -1.0000
G01 X 17.1857 Y 27.2781 Z -1.0000
G01 X 17.3242 Y 27.3637 Z -1.0000
G01 X 17.2269 Y 27.2063 Z -1.0000
G01 X 17.1296 Y 27.0488 Z -1.0000
G01 X 17.3952 Y 27.1183 Z -1.0000
G01 X 17.6608 Y 27.1878 Z -1.0000
G01 X 17.5193 Y 27.0172 Z -1.0000
G01 X 17.3777 Y 26.8467 Z -1.0000
G01 X 17.4824 Y 26.8429 Z -1.0000
G01 X 17.5871 Y 26.8391 Z -1.0000
G01 X 17.3542 Y 26.6629 Z -1.0000
G01 X 17.1213 Y 26.4867 Z -1.0000
G01 X 16.9942 Y 26.4905 Z -1.0000
G01 X 16.8672 Y 26.4943 Z -1.0000
G01 X 17.1001 Y 26.6705 Z -1.0000
G00 Z 5.0000

(End cutting path id: path74449)


(Start cutting path id: path74449)
(Change tool to Default tool)

G00 Z 5.0000
G00 X 17.6471 Y 26.6067

G01 Z -1.0000 F 100.0000(Penetrate)
G01 X 17.6471 Y 26.7267 Z -1.0000 F 3500.0000
G01 X 17.7742 Y 26.7267 Z -1.0000
G01 X 17.9013 Y 26.7267 Z -1.0000
G01 X 17.8271 Y 26.6067 Z -1.0000
G01 X 17.7529 Y 26.4867 Z -1.0000
G01 X 17.7000 Y 26.4867 Z -1.0000
G01 X 17.6471 Y 26.4867 Z -1.0000
G01 X 17.6471 Y 26.6067 Z -1.0000
G00 Z 5.0000

(End cutting path id: path74449)


(Start cutting path id: path74449)
(Change tool to Default tool)

G00 Z 5.0000
G00 X 15.7873 Y 26.4867

G01 Z -1.0000 F 100.0000(Penetrate)
G01 X 15.8615 Y 26.6067 Z -1.0000 F 3500.0000
G01 X 15.9815 Y 26.6067 Z -1.0000
G01 X 16.1014 Y 26.6067 Z -1.0000
G01 X 16.0273 Y 26.4867 Z -1.0000
G01 X 15.9531 Y 26.3667 Z -1.0000
G01 X 15.8331 Y 26.3667 Z -1.0000
G01 X 15.7131 Y 26.3667 Z -1.0000
G01 X 15.7873 Y 26.4867 Z -1.0000
G00 Z 5.0000

(End cutting path id: path74449)


(Start cutting path id: path74449)
(Change tool to Default tool)

G00 Z 5.0000
G00 X 15.7873 Y 26.0068

G01 Z -1.0000 F 100.0000(Penetrate)
G01 X 15.8615 Y 26.1267 Z -1.0000 F 3500.0000
G01 X 15.9144 Y 26.1267 Z -1.0000
G01 X 15.9673 Y 26.1267 Z -1.0000
G01 X 15.9673 Y 26.0068 Z -1.0000
G01 X 15.9673 Y 25.8868 Z -1.0000
G01 X 15.8402 Y 25.8868 Z -1.0000
G01 X 15.7132 Y 25.8868 Z -1.0000
G01 X 15.7873 Y 26.0068 Z -1.0000
G00 Z 5.0000

(End cutting path id: path74449)


(Start cutting path id: path74449)
(Change tool to Default tool)

G00 Z 5.0000
G00 X 15.6925 Y 26.9667

G01 Z -1.0000 F 100.0000(Penetrate)
G01 X 15.6298 Y 27.2066 Z -1.0000 F 3500.0000
G01 X 15.6743 Y 27.2066 Z -1.0000
G01 X 15.7189 Y 27.2066 Z -1.0000
G01 X 15.8473 Y 26.9667 Z -1.0000
G01 X 15.9757 Y 26.7267 Z -1.0000
G01 X 15.8655 Y 26.7267 Z -1.0000
G01 X 15.7553 Y 26.7267 Z -1.0000
G01 X 15.6925 Y 26.9667 Z -1.0000
G00 Z 5.0000

(End cutting path id: path74449)


(Start cutting path id: path74449)
(Change tool to Default tool)

G00 Z 5.0000
G00 X 15.3674 Y 27.7466

G01 Z -1.0000 F 100.0000(Penetrate)
G01 X 15.3674 Y 27.8066 Z -1.0000 F 3500.0000
G01 X 15.4273 Y 27.8066 Z -1.0000
G01 X 15.4873 Y 27.8066 Z -1.0000
G01 X 15.4873 Y 27.7466 Z -1.0000
G01 X 15.4873 Y 27.6867 Z -1.0000
G01 X 15.4273 Y 27.6867 Z -1.0000
G01 X 15.3674 Y 27.6867 Z -1.0000
G01 X 15.3674 Y 27.7466 Z -1.0000
G00 Z 5.0000

(End cutting path id: path74449)


(Start cutting path id: path74449)
(Change tool to Default tool)

G00 Z 5.0000
G00 X 15.6073 Y 27.8538

G01 Z -1.0000 F 100.0000(Penetrate)
G01 X 15.6073 Y 27.9010 Z -1.0000 F 3500.0000
G01 X 15.7935 Y 27.9724 Z -1.0000
G01 X 15.9798 Y 28.0439 Z -1.0000
G01 X 15.9064 Y 27.9253 Z -1.0000
G01 X 15.8331 Y 27.8066 Z -1.0000
G01 X 15.7202 Y 27.8066 Z -1.0000
G01 X 15.6073 Y 27.8066 Z -1.0000
G01 X 15.6073 Y 27.8538 Z -1.0000
G00 Z 5.0000

(End cutting path id: path74449)


(Start cutting path id: path74449)
(Change tool to Default tool)

G00 Z 5.0000
G00 X 15.1674 Y 28.4865

G01 Z -1.0000 F 100.0000(Penetrate)
G01 X 15.2474 Y 28.5665 Z -1.0000 F 3500.0000
G01 X 15.3274 Y 28.4865 Z -1.0000
G01 X 15.4073 Y 28.4065 Z -1.0000
G01 X 15.2474 Y 28.4065 Z -1.0000
G01 X 15.0874 Y 28.4065 Z -1.0000
G01 X 15.1674 Y 28.4865 Z -1.0000
G00 Z 5.0000

(End cutting path id: path74449)


(Start cutting path id: path74449)
(Change tool to Default tool)

G00 Z 5.0000
G00 X 15.1274 Y 28.9465

G01 Z -1.0000 F 100.0000(Penetrate)
G01 X 15.1274 Y 29.0064 Z -1.0000 F 3500.0000
G01 X 15.1874 Y 29.0064 Z -1.0000
G01 X 15.2474 Y 29.0064 Z -1.0000
G01 X 15.2474 Y 28.9465 Z -1.0000
G01 X 15.2474 Y 28.8865 Z -1.0000
G01 X 15.1874 Y 28.8865 Z -1.0000
G01 X 15.1274 Y 28.8865 Z -1.0000
G01 X 15.1274 Y 28.9465 Z -1.0000
G00 Z 5.0000

(End cutting path id: path74449)


(Start cutting path id: path74449)
(Change tool to Default tool)

G00 Z 5.0000
G00 X 14.8874 Y 28.9465

G01 Z -1.0000 F 100.0000(Penetrate)
G01 X 14.8874 Y 29.0064 Z -1.0000 F 3500.0000
G01 X 14.9474 Y 29.0064 Z -1.0000
G01 X 15.0074 Y 29.0064 Z -1.0000
G01 X 15.0074 Y 28.9465 Z -1.0000
G01 X 15.0074 Y 28.8865 Z -1.0000
G01 X 14.9474 Y 28.8865 Z -1.0000
G01 X 14.8874 Y 28.8865 Z -1.0000
G01 X 14.8874 Y 28.9465 Z -1.0000
G00 Z 5.0000

(End cutting path id: path74449)


(Start cutting path id: path74449)
(Change tool to Default tool)

G00 Z 5.0000
G00 X 14.6474 Y 28.2865

G01 Z -1.0000 F 100.0000(Penetrate)
G01 X 14.8274 Y 28.4028 Z -1.0000 F 3500.0000
G01 X 14.9474 Y 28.4028 Z -1.0000
G01 X 15.0674 Y 28.4028 Z -1.0000
G01 X 14.8874 Y 28.2865 Z -1.0000
G01 X 14.7074 Y 28.1702 Z -1.0000
G01 X 14.5874 Y 28.1702 Z -1.0000
G01 X 14.4674 Y 28.1702 Z -1.0000
G01 X 14.6474 Y 28.2865 Z -1.0000
G00 Z 5.0000

(End cutting path id: path74449)


(Start cutting path id: path74449)
(Change tool to Default tool)

G00 Z 5.0000
G00 X 14.2875 Y 28.1065

G01 Z -1.0000 F 100.0000(Penetrate)
G01 X 14.2875 Y 28.1665 Z -1.0000 F 3500.0000
G01 X 14.3475 Y 28.1665 Z -1.0000
G01 X 14.4074 Y 28.1665 Z -1.0000
G01 X 14.4074 Y 28.1065 Z -1.0000
G01 X 14.4074 Y 28.0466 Z -1.0000
G01 X 14.3475 Y 28.0466 Z -1.0000
G01 X 14.2875 Y 28.0466 Z -1.0000
G01 X 14.2875 Y 28.1065 Z -1.0000
G00 Z 5.0000

(End cutting path id: path74449)


(Start cutting path id: path74449)
(Change tool to Default tool)

G00 Z 5.0000
G00 X 14.2875 Y 27.1467

G01 Z -1.0000 F 100.0000(Penetrate)
G01 X 14.2875 Y 27.2066 Z -1.0000 F 3500.0000
G01 X 14.3475 Y 27.2066 Z -1.0000
G01 X 14.4074 Y 27.2066 Z -1.0000
G01 X 14.4074 Y 27.1467 Z -1.0000
G01 X 14.4074 Y 27.0867 Z -1.0000
G01 X 14.3475 Y 27.0867 Z -1.0000
G01 X 14.2875 Y 27.0867 Z -1.0000
G01 X 14.2875 Y 27.1467 Z -1.0000
G00 Z 5.0000

(End cutting path id: path74449)


(Start cutting path id: path74449)
(Change tool to Default tool)

G00 Z 5.0000
G00 X 13.7475 Y 29.2464

G01 Z -1.0000 F 100.0000(Penetrate)
G01 X 13.8217 Y 29.3664 Z -1.0000 F 3500.0000
G01 X 13.8817 Y 29.3664 Z -1.0000
G01 X 13.9417 Y 29.3664 Z -1.0000
G01 X 13.8675 Y 29.2464 Z -1.0000
G01 X 13.7933 Y 29.1264 Z -1.0000
G01 X 13.7334 Y 29.1264 Z -1.0000
G01 X 13.6734 Y 29.1264 Z -1.0000
G01 X 13.7475 Y 29.2464 Z -1.0000
G00 Z 5.0000

(End cutting path id: path74449)


(Start cutting path id: path74449)
(Change tool to Default tool)

G00 Z 5.0000
G00 X 13.5450 Y 29.5684

G01 Z -1.0000 F 100.0000(Penetrate)
G01 X 13.7025 Y 29.6314 Z -1.0000 F 3500.0000
G01 X 13.7750 Y 29.5589 Z -1.0000
G01 X 13.8475 Y 29.4864 Z -1.0000
G01 X 13.6175 Y 29.4959 Z -1.0000
G01 X 13.3876 Y 29.5054 Z -1.0000
G01 X 13.5450 Y 29.5684 Z -1.0000
G00 Z 5.0000

(End cutting path id: path74449)


(Start cutting path id: path74449)
(Change tool to Default tool)

G00 Z 5.0000
G00 X 13.0876 Y 29.4264

G01 Z -1.0000 F 100.0000(Penetrate)
G01 X 13.0876 Y 29.4864 Z -1.0000 F 3500.0000
G01 X 13.1476 Y 29.4864 Z -1.0000
G01 X 13.2076 Y 29.4864 Z -1.0000
G01 X 13.2076 Y 29.4264 Z -1.0000
G01 X 13.2076 Y 29.3664 Z -1.0000
G01 X 13.1476 Y 29.3664 Z -1.0000
G01 X 13.0876 Y 29.3664 Z -1.0000
G01 X 13.0876 Y 29.4264 Z -1.0000
G00 Z 5.0000

(End cutting path id: path74449)


(Start cutting path id: path74449)
(Change tool to Default tool)

G00 Z 5.0000
G00 X 12.4877 Y 30.2663

G01 Z -1.0000 F 100.0000(Penetrate)
G01 X 12.4877 Y 30.3263 Z -1.0000 F 3500.0000
G01 X 12.5476 Y 30.3263 Z -1.0000
G01 X 12.6076 Y 30.3263 Z -1.0000
G01 X 12.6076 Y 30.2663 Z -1.0000
G01 X 12.6076 Y 30.2063 Z -1.0000
G01 X 12.5476 Y 30.2063 Z -1.0000
G01 X 12.4877 Y 30.2063 Z -1.0000
G01 X 12.4877 Y 30.2663 Z -1.0000
G00 Z 5.0000

(End cutting path id: path74449)


(Start cutting path id: path74449)
(Change tool to Default tool)

G00 Z 5.0000
G00 X 11.9852 Y 30.0483

G01 Z -1.0000 F 100.0000(Penetrate)
G01 X 12.1427 Y 30.1113 Z -1.0000 F 3500.0000
G01 X 12.2152 Y 30.0388 Z -1.0000
G01 X 12.2877 Y 29.9663 Z -1.0000
G01 X 12.0577 Y 29.9758 Z -1.0000
G01 X 11.8277 Y 29.9853 Z -1.0000
G01 X 11.9852 Y 30.0483 Z -1.0000
G00 Z 5.0000

(End cutting path id: path74449)


(Start cutting path id: path74449)
(Change tool to Default tool)

G00 Z 5.0000
G00 X 11.9200 Y 30.2895

G01 Z -1.0000 F 100.0000(Penetrate)
G01 X 12.1323 Y 30.3448 Z -1.0000 F 3500.0000
G01 X 12.2800 Y 30.2850 Z -1.0000
G01 X 12.4277 Y 30.2253 Z -1.0000
G01 X 12.0677 Y 30.2297 Z -1.0000
G01 X 11.7077 Y 30.2342 Z -1.0000
G01 X 11.9200 Y 30.2895 Z -1.0000
G00 Z 5.0000

(End cutting path id: path74449)


(Start cutting path id: path74449)
(Change tool to Default tool)

G00 Z 5.0000
G00 X 12.1277 Y 31.1544

G01 Z -1.0000 F 100.0000(Penetrate)
G01 X 12.1277 Y 31.2720 Z -1.0000 F 3500.0000
G01 X 12.2557 Y 31.3511 Z -1.0000
G01 X 12.3836 Y 31.4302 Z -1.0000
G01 X 12.4235 Y 31.3882 Z -1.0000
G01 X 12.4635 Y 31.3462 Z -1.0000
G01 X 12.2956 Y 31.1915 Z -1.0000
G01 X 12.1277 Y 31.0368 Z -1.0000
G01 X 12.1277 Y 31.1544 Z -1.0000
G00 Z 5.0000

(End cutting path id: path74449)


(Start cutting path id: path74449)
(Change tool to Default tool)

G00 Z 5.0000
G00 X 12.1052 Y 31.6081

G01 Z -1.0000 F 100.0000(Penetrate)
G01 X 12.2627 Y 31.6712 Z -1.0000 F 3500.0000
G01 X 12.3352 Y 31.5987 Z -1.0000
G01 X 12.4077 Y 31.5262 Z -1.0000
G01 X 12.1777 Y 31.5357 Z -1.0000
G01 X 11.9477 Y 31.5451 Z -1.0000
G01 X 12.1052 Y 31.6081 Z -1.0000
G00 Z 5.0000

(End cutting path id: path74449)


(Start cutting path id: path74449)
(Change tool to Default tool)

G00 Z 5.0000
G00 X 11.6477 Y 31.4662

G01 Z -1.0000 F 100.0000(Penetrate)
G01 X 11.6477 Y 31.5262 Z -1.0000 F 3500.0000
G01 X 11.7077 Y 31.5262 Z -1.0000
G01 X 11.7677 Y 31.5262 Z -1.0000
G01 X 11.7677 Y 31.4662 Z -1.0000
G01 X 11.7677 Y 31.4062 Z -1.0000
G01 X 11.7077 Y 31.4062 Z -1.0000
G01 X 11.6477 Y 31.4062 Z -1.0000
G01 X 11.6477 Y 31.4662 Z -1.0000
G00 Z 5.0000

(End cutting path id: path74449)


(Start cutting path id: path74449)
(Change tool to Default tool)

G00 Z 5.0000
G00 X 11.6477 Y 31.2262

G01 Z -1.0000 F 100.0000(Penetrate)
G01 X 11.6477 Y 31.2862 Z -1.0000 F 3500.0000
G01 X 11.7077 Y 31.2862 Z -1.0000
G01 X 11.7677 Y 31.2862 Z -1.0000
G01 X 11.7677 Y 31.2262 Z -1.0000
G01 X 11.7677 Y 31.1662 Z -1.0000
G01 X 11.7077 Y 31.1662 Z -1.0000
G01 X 11.6477 Y 31.1662 Z -1.0000
G01 X 11.6477 Y 31.2262 Z -1.0000
G00 Z 5.0000

(End cutting path id: path74449)


(Start cutting path id: path74449)
(Change tool to Default tool)

G00 Z 5.0000
G00 X 11.3278 Y 31.2462

G01 Z -1.0000 F 100.0000(Penetrate)
G01 X 11.4078 Y 31.3262 Z -1.0000 F 3500.0000
G01 X 11.4878 Y 31.2462 Z -1.0000
G01 X 11.5677 Y 31.1662 Z -1.0000
G01 X 11.4078 Y 31.1662 Z -1.0000
G01 X 11.2478 Y 31.1662 Z -1.0000
G01 X 11.3278 Y 31.2462 Z -1.0000
G00 Z 5.0000

(End cutting path id: path74449)


(Start cutting path id: path74449)
(Change tool to Default tool)

G00 Z 5.0000
G00 X 11.4078 Y 31.7062

G01 Z -1.0000 F 100.0000(Penetrate)
G01 X 11.4078 Y 31.7662 Z -1.0000 F 3500.0000
G01 X 11.4678 Y 31.7662 Z -1.0000
G01 X 11.5277 Y 31.7662 Z -1.0000
G01 X 11.5277 Y 31.7062 Z -1.0000
G01 X 11.5277 Y 31.6462 Z -1.0000
G01 X 11.4678 Y 31.6462 Z -1.0000
G01 X 11.4078 Y 31.6462 Z -1.0000
G01 X 11.4078 Y 31.7062 Z -1.0000
G00 Z 5.0000

(End cutting path id: path74449)


(Start cutting path id: path74449)
(Change tool to Default tool)

G00 Z 5.0000
G00 X 10.8564 Y 31.2677

G01 Z -1.0000 F 100.0000(Penetrate)
G01 X 10.9420 Y 31.4062 Z -1.0000 F 3500.0000
G01 X 10.8078 Y 31.4062 Z -1.0000
G01 X 10.6737 Y 31.4062 Z -1.0000
G01 X 10.7478 Y 31.5262 Z -1.0000
G01 X 10.8220 Y 31.6462 Z -1.0000
G01 X 11.0849 Y 31.6322 Z -1.0000
G01 X 11.3478 Y 31.6183 Z -1.0000
G01 X 11.1363 Y 31.5632 Z -1.0000
G01 X 10.9249 Y 31.5080 Z -1.0000
G01 X 10.9883 Y 31.4054 Z -1.0000
G01 X 11.0517 Y 31.3028 Z -1.0000
G01 X 10.9112 Y 31.2160 Z -1.0000
G01 X 10.7708 Y 31.1291 Z -1.0000
G01 X 10.8564 Y 31.2677 Z -1.0000
G00 Z 5.0000

(End cutting path id: path74449)


(Start cutting path id: path74449)
(Change tool to Default tool)

G00 Z 5.0000
G00 X 10.2079 Y 31.7062

G01 Z -1.0000 F 100.0000(Penetrate)
G01 X 10.2079 Y 31.7662 Z -1.0000 F 3500.0000
G01 X 10.1479 Y 31.7662 Z -1.0000
G01 X 10.0879 Y 31.7662 Z -1.0000
G01 X 10.0879 Y 31.7062 Z -1.0000
G01 X 10.0879 Y 31.6462 Z -1.0000
G01 X 10.1479 Y 31.6462 Z -1.0000
G01 X 10.2079 Y 31.6462 Z -1.0000
G01 X 10.2079 Y 31.7062 Z -1.0000
G00 Z 5.0000

(End cutting path id: path74449)


(Start cutting path id: path74449)
(Change tool to Default tool)

G00 Z 5.0000
G00 X 9.9120 Y 31.5195

G01 Z -1.0000 F 100.0000(Penetrate)
G01 X 9.8338 Y 31.6462 Z -1.0000 F 3500.0000
G01 X 9.9079 Y 31.7662 Z -1.0000
G01 X 9.9821 Y 31.8861 Z -1.0000
G01 X 10.2238 Y 31.8861 Z -1.0000
G01 X 10.4655 Y 31.8861 Z -1.0000
G01 X 10.4253 Y 31.6775 Z -1.0000
G01 X 10.3851 Y 31.4689 Z -1.0000
G01 X 10.1877 Y 31.4309 Z -1.0000
G01 X 9.9903 Y 31.3929 Z -1.0000
G01 X 9.9120 Y 31.5195 Z -1.0000
G00 Z 5.0000

(End cutting path id: path74449)


(Start cutting path id: path74449)
(Change tool to Default tool)

G00 Z 5.0000
G00 X 9.3280 Y 31.9661

G01 Z -1.0000 F 100.0000(Penetrate)
G01 X 9.2480 Y 32.0461 Z -1.0000 F 3500.0000
G01 X 9.2480 Y 31.8861 Z -1.0000
G01 X 9.2480 Y 31.7262 Z -1.0000
G01 X 9.3280 Y 31.8062 Z -1.0000
G01 X 9.4080 Y 31.8861 Z -1.0000
G01 X 9.3280 Y 31.9661 Z -1.0000
G00 Z 5.0000

(End cutting path id: path74449)


(Start cutting path id: path74449)
(Change tool to Default tool)

G00 Z 5.0000
G00 X 9.5680 Y 32.2061

G01 Z -1.0000 F 100.0000(Penetrate)
G01 X 9.4880 Y 32.2861 Z -1.0000 F 3500.0000
G01 X 9.4080 Y 32.2061 Z -1.0000
G01 X 9.3280 Y 32.1261 Z -1.0000
G01 X 9.4880 Y 32.1261 Z -1.0000
G01 X 9.6480 Y 32.1261 Z -1.0000
G01 X 9.5680 Y 32.2061 Z -1.0000
G00 Z 5.0000

(End cutting path id: path74449)


(Start cutting path id: path74449)
(Change tool to Default tool)

G00 Z 5.0000
G00 X 9.1213 Y 32.9141

G01 Z -1.0000 F 100.0000(Penetrate)
G01 X 8.9585 Y 33.1102 Z -1.0000 F 3500.0000
G01 X 8.9354 Y 33.2676 Z -1.0000
G01 X 8.9123 Y 33.4250 Z -1.0000
G01 X 9.2663 Y 33.3016 Z -1.0000
G01 X 9.6202 Y 33.1783 Z -1.0000
G01 X 9.5841 Y 32.9921 Z -1.0000
G01 X 9.5480 Y 32.8059 Z -1.0000
G01 X 9.4160 Y 32.7620 Z -1.0000
G01 X 9.2840 Y 32.7181 Z -1.0000
G01 X 9.1213 Y 32.9141 Z -1.0000
G00 Z 5.0000

(End cutting path id: path74449)


(Start cutting path id: path74449)
(Change tool to Default tool)

G00 Z 5.0000
G00 X 9.1280 Y 33.1460

G01 Z -1.0000 F 100.0000(Penetrate)
G01 X 9.1280 Y 33.2060 Z -1.0000 F 3500.0000
G01 X 9.0680 Y 33.2060 Z -1.0000
G01 X 9.0080 Y 33.2060 Z -1.0000
G01 X 9.0080 Y 33.1460 Z -1.0000
G01 X 9.0080 Y 33.0860 Z -1.0000
G01 X 9.0680 Y 33.0860 Z -1.0000
G01 X 9.1280 Y 33.0860 Z -1.0000
G01 X 9.1280 Y 33.1460 Z -1.0000
G00 Z 5.0000

(End cutting path id: path74449)


(Start cutting path id: path74449)
(Change tool to Default tool)

G00 Z 5.0000
G00 X 9.3680 Y 33.0260

G01 Z -1.0000 F 100.0000(Penetrate)
G01 X 9.3680 Y 33.0860 Z -1.0000 F 3500.0000
G01 X 9.3080 Y 33.0860 Z -1.0000
G01 X 9.2480 Y 33.0860 Z -1.0000
G01 X 9.2480 Y 33.0260 Z -1.0000
G01 X 9.2480 Y 32.9660 Z -1.0000
G01 X 9.3080 Y 32.9660 Z -1.0000
G01 X 9.3680 Y 32.9660 Z -1.0000
G01 X 9.3680 Y 33.0260 Z -1.0000
G00 Z 5.0000

(End cutting path id: path74449)


(Start cutting path id: path74449)
(Change tool to Default tool)

G00 Z 5.0000
G00 X 9.5480 Y 33.5660

G01 Z -1.0000 F 100.0000(Penetrate)
G01 X 9.4738 Y 33.6860 Z -1.0000 F 3500.0000
G01 X 9.5709 Y 33.6841 Z -1.0000
G01 X 9.6680 Y 33.6823 Z -1.0000
G01 X 9.8479 Y 33.5660 Z -1.0000
G01 X 10.0279 Y 33.4496 Z -1.0000
G01 X 9.8250 Y 33.4478 Z -1.0000
G01 X 9.6221 Y 33.4460 Z -1.0000
G01 X 9.5480 Y 33.5660 Z -1.0000
G00 Z 5.0000

(End cutting path id: path74449)


(Start cutting path id: path74449)
(Change tool to Default tool)

G00 Z 5.0000
G00 X 8.9558 Y 33.9134

G01 Z -1.0000 F 100.0000(Penetrate)
G01 X 8.8894 Y 34.0208 Z -1.0000 F 3500.0000
G01 X 9.0859 Y 34.0962 Z -1.0000
G01 X 9.2823 Y 34.1716 Z -1.0000
G01 X 9.3452 Y 34.1087 Z -1.0000
G01 X 9.4080 Y 34.0459 Z -1.0000
G01 X 9.2380 Y 34.0441 Z -1.0000
G01 X 9.0680 Y 34.0422 Z -1.0000
G01 X 9.2480 Y 33.9259 Z -1.0000
G01 X 9.4280 Y 33.8096 Z -1.0000
G01 X 9.2251 Y 33.8078 Z -1.0000
G01 X 9.0222 Y 33.8059 Z -1.0000
G01 X 8.9558 Y 33.9134 Z -1.0000
G00 Z 5.0000

(End cutting path id: path74449)


(Start cutting path id: path74449)
(Change tool to Default tool)

G00 Z 5.0000
G00 X 8.3481 Y 34.2951

G01 Z -1.0000 F 100.0000(Penetrate)
G01 X 8.2281 Y 34.4123 Z -1.0000 F 3500.0000
G01 X 7.5396 Y 35.0753 Z -1.0000
G01 X 6.8511 Y 35.7384 Z -1.0000
G01 X 6.4848 Y 36.2707 Z -1.0000
G01 X 6.1186 Y 36.8030 Z -1.0000
G01 X 5.9435 Y 37.2993 Z -1.0000
G01 X 5.7684 Y 37.7957 Z -1.0000
G01 X 5.7684 Y 37.9606 Z -1.0000
G01 X 5.7684 Y 38.1255 Z -1.0000
G01 X 5.9183 Y 38.1255 Z -1.0000
G01 X 6.0683 Y 38.1255 Z -1.0000
G01 X 6.3699 Y 37.7355 Z -1.0000
G01 X 6.6714 Y 37.3456 Z -1.0000
G01 X 6.9956 Y 36.8656 Z -1.0000
G01 X 7.3198 Y 36.3857 Z -1.0000
G01 X 8.0353 Y 35.6780 Z -1.0000
G01 X 8.7508 Y 34.9704 Z -1.0000
G01 X 8.4895 Y 34.7381 Z -1.0000
G01 X 8.2281 Y 34.5058 Z -1.0000
G01 X 8.4190 Y 34.5647 Z -1.0000
G01 X 8.6098 Y 34.6237 Z -1.0000
G01 X 8.7643 Y 34.5282 Z -1.0000
G01 X 8.9188 Y 34.4327 Z -1.0000
G01 X 8.8363 Y 34.2993 Z -1.0000
G01 X 8.7539 Y 34.1659 Z -1.0000
G01 X 8.6110 Y 34.1719 Z -1.0000
G01 X 8.4681 Y 34.1779 Z -1.0000
G01 X 8.3481 Y 34.2951 Z -1.0000
G00 Z 5.0000

(End cutting path id: path74449)


(Start cutting path id: path74449)
(Change tool to Default tool)

G00 Z 5.0000
G00 X 8.0481 Y 34.9458

G01 Z -1.0000 F 100.0000(Penetrate)
G01 X 8.0481 Y 35.0058 Z -1.0000 F 3500.0000
G01 X 7.9881 Y 35.0058 Z -1.0000
G01 X 7.9281 Y 35.0058 Z -1.0000
G01 X 7.9281 Y 34.9458 Z -1.0000
G01 X 7.9281 Y 34.8858 Z -1.0000
G01 X 7.9881 Y 34.8858 Z -1.0000
G01 X 8.0481 Y 34.8858 Z -1.0000
G01 X 8.0481 Y 34.9458 Z -1.0000
G00 Z 5.0000

(End cutting path id: path74449)


(Start cutting path id: path74449)
(Change tool to Default tool)

G00 Z 5.0000
G00 X 8.2481 Y 35.0858

G01 Z -1.0000 F 100.0000(Penetrate)
G01 X 8.1681 Y 35.1658 Z -1.0000 F 3500.0000
G01 X 8.1681 Y 35.0058 Z -1.0000
G01 X 8.1681 Y 34.8458 Z -1.0000
G01 X 8.2481 Y 34.9258 Z -1.0000
G01 X 8.3281 Y 35.0058 Z -1.0000
G01 X 8.2481 Y 35.0858 Z -1.0000
G00 Z 5.0000

(End cutting path id: path74449)


(Start cutting path id: path74449)
(Change tool to Default tool)

G00 Z 5.0000
G00 X 7.4597 Y 35.8157

G01 Z -1.0000 F 100.0000(Penetrate)
G01 X 6.9779 Y 36.3857 Z -1.0000 F 3500.0000
G01 X 6.7289 Y 36.6856 Z -1.0000
G01 X 6.4798 Y 36.9856 Z -1.0000
G01 X 6.6940 Y 36.6134 Z -1.0000
G01 X 6.9082 Y 36.2411 Z -1.0000
G01 X 7.3282 Y 35.7536 Z -1.0000
G01 X 7.7482 Y 35.2661 Z -1.0000
G01 X 7.8448 Y 35.2559 Z -1.0000
G01 X 7.9414 Y 35.2458 Z -1.0000
G01 X 7.4597 Y 35.8157 Z -1.0000
G00 Z 5.0000

(End cutting path id: path74449)


(Start cutting path id: path74449)
(Change tool to Default tool)

G00 Z 5.0000
G00 X 6.4883 Y 37.1056

G01 Z -1.0000 F 100.0000(Penetrate)
G01 X 6.4883 Y 37.1656 Z -1.0000 F 3500.0000
G01 X 6.4283 Y 37.1656 Z -1.0000
G01 X 6.3683 Y 37.1656 Z -1.0000
G01 X 6.3683 Y 37.1056 Z -1.0000
G01 X 6.3683 Y 37.0456 Z -1.0000
G01 X 6.4283 Y 37.0456 Z -1.0000
G01 X 6.4883 Y 37.0456 Z -1.0000
G01 X 6.4883 Y 37.1056 Z -1.0000
G00 Z 5.0000

(End cutting path id: path74449)


(Start cutting path id: path74449)
(Change tool to Default tool)

G00 Z 5.0000
G00 X 6.2483 Y 37.4656

G01 Z -1.0000 F 100.0000(Penetrate)
G01 X 6.2483 Y 37.5256 Z -1.0000 F 3500.0000
G01 X 6.1883 Y 37.5256 Z -1.0000
G01 X 6.1283 Y 37.5256 Z -1.0000
G01 X 6.1283 Y 37.4656 Z -1.0000
G01 X 6.1283 Y 37.4056 Z -1.0000
G01 X 6.1883 Y 37.4056 Z -1.0000
G01 X 6.2483 Y 37.4056 Z -1.0000
G01 X 6.2483 Y 37.4656 Z -1.0000
G00 Z 5.0000

(End cutting path id: path74449)


(Start cutting path id: path74449)
(Change tool to Default tool)

G00 Z 5.0000
G00 X 8.4081 Y 37.9455

G01 Z -1.0000 F 100.0000(Penetrate)
G01 X 8.4081 Y 38.0055 Z -1.0000 F 3500.0000
G01 X 8.3481 Y 38.0055 Z -1.0000
G01 X 8.2881 Y 38.0055 Z -1.0000
G01 X 8.2881 Y 37.9455 Z -1.0000
G01 X 8.2881 Y 37.8855 Z -1.0000
G01 X 8.3481 Y 37.8855 Z -1.0000
G01 X 8.4081 Y 37.8855 Z -1.0000
G01 X 8.4081 Y 37.9455 Z -1.0000
G00 Z 5.0000

(End cutting path id: path74449)


(Start cutting path id: path74449)
(Change tool to Default tool)

G00 Z 5.0000
G00 X 8.7680 Y 37.1056

G01 Z -1.0000 F 100.0000(Penetrate)
G01 X 8.7680 Y 37.1656 Z -1.0000 F 3500.0000
G01 X 8.7081 Y 37.1656 Z -1.0000
G01 X 8.6481 Y 37.1656 Z -1.0000
G01 X 8.6481 Y 37.1056 Z -1.0000
G01 X 8.6481 Y 37.0456 Z -1.0000
G01 X 8.7081 Y 37.0456 Z -1.0000
G01 X 8.7680 Y 37.0456 Z -1.0000
G01 X 8.7680 Y 37.1056 Z -1.0000
G00 Z 5.0000

(End cutting path id: path74449)


(Start cutting path id: path74449)
(Change tool to Default tool)

G00 Z 5.0000
G00 X 9.2235 Y 36.3176

G01 Z -1.0000 F 100.0000(Penetrate)
G01 X 8.9519 Y 36.7895 Z -1.0000 F 3500.0000
G01 X 8.9063 Y 36.7439 Z -1.0000
G01 X 8.8607 Y 36.6983 Z -1.0000
G01 X 9.1241 Y 36.2720 Z -1.0000
G01 X 9.3876 Y 35.8457 Z -1.0000
G01 X 9.4413 Y 35.8457 Z -1.0000
G01 X 9.4951 Y 35.8457 Z -1.0000
G01 X 9.2235 Y 36.3176 Z -1.0000
G00 Z 5.0000

(End cutting path id: path74449)


(Start cutting path id: path74449)
(Change tool to Default tool)

G00 Z 5.0000
G00 X 9.7279 Y 35.5387

G01 Z -1.0000 F 100.0000(Penetrate)
G01 X 9.7279 Y 35.5916 Z -1.0000 F 3500.0000
G01 X 9.5894 Y 35.6772 Z -1.0000
G01 X 9.4509 Y 35.7628 Z -1.0000
G01 X 9.5365 Y 35.6243 Z -1.0000
G01 X 9.6221 Y 35.4858 Z -1.0000
G01 X 9.6750 Y 35.4858 Z -1.0000
G01 X 9.7279 Y 35.4858 Z -1.0000
G01 X 9.7279 Y 35.5387 Z -1.0000
G00 Z 5.0000

(End cutting path id: path74449)


(Start cutting path id: path74449)
(Change tool to Default tool)

G00 Z 5.0000
G00 X 10.2079 Y 34.9272

G01 Z -1.0000 F 100.0000(Penetrate)
G01 X 10.2079 Y 34.9686 Z -1.0000 F 3500.0000
G01 X 9.9379 Y 35.1972 Z -1.0000
G01 X 9.6679 Y 35.4258 Z -1.0000
G01 X 9.8965 Y 35.1558 Z -1.0000
G01 X 10.1251 Y 34.8858 Z -1.0000
G01 X 10.1665 Y 34.8858 Z -1.0000
G01 X 10.2079 Y 34.8858 Z -1.0000
G01 X 10.2079 Y 34.9272 Z -1.0000
G00 Z 5.0000

(End cutting path id: path74449)


(Start cutting path id: path74449)
(Change tool to Default tool)

G00 Z 5.0000
G00 X 10.4079 Y 34.7258

G01 Z -1.0000 F 100.0000(Penetrate)
G01 X 10.3279 Y 34.8058 Z -1.0000 F 3500.0000
G01 X 10.3279 Y 34.6459 Z -1.0000
G01 X 10.3279 Y 34.4859 Z -1.0000
G01 X 10.4079 Y 34.5659 Z -1.0000
G01 X 10.4879 Y 34.6459 Z -1.0000
G01 X 10.4079 Y 34.7258 Z -1.0000
G00 Z 5.0000

(End cutting path id: path74449)


(Start cutting path id: path74449)
(Change tool to Default tool)

G00 Z 5.0000
G00 X 10.2515 Y 34.3299

G01 Z -1.0000 F 100.0000(Penetrate)
G01 X 9.1552 Y 35.4438 Z -1.0000 F 3500.0000
G01 X 8.6555 Y 36.4762 Z -1.0000
G01 X 8.1558 Y 37.5086 Z -1.0000
G01 X 8.0862 Y 37.9370 Z -1.0000
G01 X 8.0167 Y 38.3655 Z -1.0000
G01 X 8.2014 Y 38.3655 Z -1.0000
G01 X 8.3860 Y 38.3655 Z -1.0000
G01 X 9.1266 Y 37.0985 Z -1.0000
G01 X 9.8671 Y 35.8315 Z -1.0000
G01 X 10.4150 Y 35.1487 Z -1.0000
G01 X 10.9630 Y 34.4659 Z -1.0000
G01 X 11.1554 Y 34.2306 Z -1.0000
G01 X 11.3478 Y 33.9953 Z -1.0000
G01 X 11.0220 Y 34.2006 Z -1.0000
G01 X 10.6963 Y 34.4059 Z -1.0000
G01 X 10.5466 Y 34.4059 Z -1.0000
G01 X 10.3969 Y 34.4059 Z -1.0000
G01 X 10.9878 Y 33.8059 Z -1.0000
G01 X 11.5787 Y 33.2060 Z -1.0000
G01 X 11.4633 Y 33.2110 Z -1.0000
G01 X 11.3478 Y 33.2160 Z -1.0000
G01 X 10.2515 Y 34.3299 Z -1.0000
G00 Z 5.0000

(End cutting path id: path74449)


(Start cutting path id: path74449)
(Change tool to Default tool)

G00 Z 5.0000
G00 X 11.4078 Y 33.6260

G01 Z -1.0000 F 100.0000(Penetrate)
G01 X 11.4078 Y 33.6860 Z -1.0000 F 3500.0000
G01 X 11.4678 Y 33.6860 Z -1.0000
G01 X 11.5277 Y 33.6860 Z -1.0000
G01 X 11.5277 Y 33.6260 Z -1.0000
G01 X 11.5277 Y 33.5660 Z -1.0000
G01 X 11.4678 Y 33.5660 Z -1.0000
G01 X 11.4078 Y 33.5660 Z -1.0000
G01 X 11.4078 Y 33.6260 Z -1.0000
G00 Z 5.0000

(End cutting path id: path74449)


(Start cutting path id: path74449)
(Change tool to Default tool)

G00 Z 5.0000
G00 X 12.6076 Y 34.1059

G01 Z -1.0000 F 100.0000(Penetrate)
G01 X 12.6076 Y 34.1659 Z -1.0000 F 3500.0000
G01 X 12.5477 Y 34.1659 Z -1.0000
G01 X 12.4877 Y 34.1659 Z -1.0000
G01 X 12.4877 Y 34.1059 Z -1.0000
G01 X 12.4877 Y 34.0459 Z -1.0000
G01 X 12.5477 Y 34.0459 Z -1.0000
G01 X 12.6076 Y 34.0459 Z -1.0000
G01 X 12.6076 Y 34.1059 Z -1.0000
G00 Z 5.0000

(End cutting path id: path74449)


(Start cutting path id: path74449)
(Change tool to Default tool)

G00 Z 5.0000
G00 X 12.4877 Y 34.3459

G01 Z -1.0000 F 100.0000(Penetrate)
G01 X 12.4877 Y 34.4059 Z -1.0000 F 3500.0000
G01 X 12.4277 Y 34.4059 Z -1.0000
G01 X 12.3677 Y 34.4059 Z -1.0000
G01 X 12.3677 Y 34.3459 Z -1.0000
G01 X 12.3677 Y 34.2859 Z -1.0000
G01 X 12.4277 Y 34.2859 Z -1.0000
G01 X 12.4877 Y 34.2859 Z -1.0000
G01 X 12.4877 Y 34.3459 Z -1.0000
G00 Z 5.0000

(End cutting path id: path74449)


(Start cutting path id: path74449)
(Change tool to Default tool)

G00 Z 5.0000
G00 X 12.2891 Y 34.7110

G01 Z -1.0000 F 100.0000(Penetrate)
G01 X 12.2180 Y 34.8962 Z -1.0000 F 3500.0000
G01 X 12.1608 Y 34.8390 Z -1.0000
G01 X 12.1037 Y 34.7818 Z -1.0000
G01 X 12.1827 Y 34.6538 Z -1.0000
G01 X 12.2618 Y 34.5259 Z -1.0000
G01 X 12.3110 Y 34.5259 Z -1.0000
G01 X 12.3601 Y 34.5259 Z -1.0000
G01 X 12.2891 Y 34.7110 Z -1.0000
G00 Z 5.0000

(End cutting path id: path74449)


(Start cutting path id: path74449)
(Change tool to Default tool)

G00 Z 5.0000
G00 X 12.1277 Y 35.0658

G01 Z -1.0000 F 100.0000(Penetrate)
G01 X 12.1277 Y 35.1258 Z -1.0000 F 3500.0000
G01 X 12.0677 Y 35.1258 Z -1.0000
G01 X 12.0077 Y 35.1258 Z -1.0000
G01 X 12.0077 Y 35.0658 Z -1.0000
G01 X 12.0077 Y 35.0058 Z -1.0000
G01 X 12.0677 Y 35.0058 Z -1.0000
G01 X 12.1277 Y 35.0058 Z -1.0000
G01 X 12.1277 Y 35.0658 Z -1.0000
G00 Z 5.0000

(End cutting path id: path74449)


(Start cutting path id: path74449)
(Change tool to Default tool)

G00 Z 5.0000
G00 X 11.9677 Y 35.4458

G01 Z -1.0000 F 100.0000(Penetrate)
G01 X 11.8877 Y 35.5258 Z -1.0000 F 3500.0000
G01 X 11.8877 Y 35.3658 Z -1.0000
G01 X 11.8877 Y 35.2058 Z -1.0000
G01 X 11.9677 Y 35.2858 Z -1.0000
G01 X 12.0477 Y 35.3658 Z -1.0000
G01 X 11.9677 Y 35.4458 Z -1.0000
G00 Z 5.0000

(End cutting path id: path74449)


(Start cutting path id: path74449)
(Change tool to Default tool)

G00 Z 5.0000
G00 X 11.8477 Y 35.8057

G01 Z -1.0000 F 100.0000(Penetrate)
G01 X 11.7677 Y 35.8857 Z -1.0000 F 3500.0000
G01 X 11.7677 Y 35.7257 Z -1.0000
G01 X 11.7677 Y 35.5658 Z -1.0000
G01 X 11.8477 Y 35.6457 Z -1.0000
G01 X 11.9277 Y 35.7257 Z -1.0000
G01 X 11.8477 Y 35.8057 Z -1.0000
G00 Z 5.0000

(End cutting path id: path74449)


(Start cutting path id: path74449)
(Change tool to Default tool)

G00 Z 5.0000
G00 X 11.7677 Y 36.0257

G01 Z -1.0000 F 100.0000(Penetrate)
G01 X 11.7677 Y 36.0857 Z -1.0000 F 3500.0000
G01 X 11.7077 Y 36.0857 Z -1.0000
G01 X 11.6478 Y 36.0857 Z -1.0000
G01 X 11.6478 Y 36.0257 Z -1.0000
G01 X 11.6478 Y 35.9657 Z -1.0000
G01 X 11.7077 Y 35.9657 Z -1.0000
G01 X 11.7677 Y 35.9657 Z -1.0000
G01 X 11.7677 Y 36.0257 Z -1.0000
G00 Z 5.0000

(End cutting path id: path74449)


(Start cutting path id: path74449)
(Change tool to Default tool)

G00 Z 5.0000
G00 X 11.6477 Y 36.5057

G01 Z -1.0000 F 100.0000(Penetrate)
G01 X 11.6477 Y 36.5657 Z -1.0000 F 3500.0000
G01 X 11.5878 Y 36.5657 Z -1.0000
G01 X 11.5278 Y 36.5657 Z -1.0000
G01 X 11.5278 Y 36.5057 Z -1.0000
G01 X 11.5278 Y 36.4457 Z -1.0000
G01 X 11.5878 Y 36.4457 Z -1.0000
G01 X 11.6477 Y 36.4457 Z -1.0000
G01 X 11.6477 Y 36.5057 Z -1.0000
G00 Z 5.0000

(End cutting path id: path74449)


(Start cutting path id: path74449)
(Change tool to Default tool)

G00 Z 5.0000
G00 X 12.8476 Y 33.7459

G01 Z -1.0000 F 100.0000(Penetrate)
G01 X 12.8476 Y 33.8059 Z -1.0000 F 3500.0000
G01 X 12.7876 Y 33.8059 Z -1.0000
G01 X 12.7276 Y 33.8059 Z -1.0000
G01 X 12.7276 Y 33.7459 Z -1.0000
G01 X 12.7276 Y 33.6860 Z -1.0000
G01 X 12.7876 Y 33.6860 Z -1.0000
G01 X 12.8476 Y 33.6860 Z -1.0000
G01 X 12.8476 Y 33.7459 Z -1.0000
G00 Z 5.0000

(End cutting path id: path74449)


(Start cutting path id: path74449)
(Change tool to Default tool)

G00 Z 5.0000
G00 X 12.8563 Y 33.1858

G01 Z -1.0000 F 100.0000(Penetrate)
G01 X 12.2826 Y 33.7655 Z -1.0000 F 3500.0000
G01 X 11.9058 Y 34.5356 Z -1.0000
G01 X 11.5290 Y 35.3058 Z -1.0000
G01 X 11.4069 Y 35.9599 Z -1.0000
G01 X 11.2848 Y 36.6141 Z -1.0000
G01 X 11.4466 Y 36.7759 Z -1.0000
G01 X 11.6084 Y 36.9377 Z -1.0000
G01 X 11.7274 Y 36.7817 Z -1.0000
G01 X 11.8464 Y 36.6256 Z -1.0000
G01 X 12.0647 Y 36.0257 Z -1.0000
G01 X 12.2830 Y 35.4258 Z -1.0000
G01 X 12.6835 Y 34.6459 Z -1.0000
G01 X 13.0841 Y 33.8659 Z -1.0000
G01 X 13.4116 Y 33.3260 Z -1.0000
G01 X 13.7392 Y 32.7861 Z -1.0000
G01 X 13.5334 Y 32.9507 Z -1.0000
G01 X 13.3276 Y 33.1154 Z -1.0000
G01 X 13.3276 Y 33.0047 Z -1.0000
G01 X 13.3276 Y 32.8940 Z -1.0000
G01 X 13.4716 Y 32.7501 Z -1.0000
G01 X 13.6155 Y 32.6061 Z -1.0000
G01 X 13.5227 Y 32.6061 Z -1.0000
G01 X 13.4299 Y 32.6061 Z -1.0000
G01 X 12.8563 Y 33.1858 Z -1.0000
G00 Z 5.0000

(End cutting path id: path74449)


(Start cutting path id: path74449)
(Change tool to Default tool)

G00 Z 5.0000
G00 X 13.2076 Y 33.2589

G01 Z -1.0000 F 100.0000(Penetrate)
G01 X 13.2076 Y 33.3118 Z -1.0000 F 3500.0000
G01 X 13.0691 Y 33.3974 Z -1.0000
G01 X 12.9305 Y 33.4831 Z -1.0000
G01 X 13.0161 Y 33.3445 Z -1.0000
G01 X 13.1018 Y 33.2060 Z -1.0000
G01 X 13.1547 Y 33.2060 Z -1.0000
G01 X 13.2076 Y 33.2060 Z -1.0000
G01 X 13.2076 Y 33.2589 Z -1.0000
G00 Z 5.0000

(End cutting path id: path74449)


(Start cutting path id: path74449)
(Change tool to Default tool)

G00 Z 5.0000
G00 X 13.0276 Y 32.1261

G01 Z -1.0000 F 100.0000(Penetrate)
G01 X 13.1018 Y 32.2461 Z -1.0000 F 3500.0000
G01 X 12.9818 Y 32.2461 Z -1.0000
G01 X 12.8618 Y 32.2461 Z -1.0000
G01 X 12.7876 Y 32.1261 Z -1.0000
G01 X 12.7135 Y 32.0061 Z -1.0000
G01 X 12.8334 Y 32.0061 Z -1.0000
G01 X 12.9534 Y 32.0061 Z -1.0000
G01 X 13.0276 Y 32.1261 Z -1.0000
G00 Z 5.0000

(End cutting path id: path74449)


(Start cutting path id: path74449)
(Change tool to Default tool)

G00 Z 5.0000
G00 X 12.6551 Y 31.1395

G01 Z -1.0000 F 100.0000(Penetrate)
G01 X 12.8824 Y 31.1905 Z -1.0000 F 3500.0000
G01 X 12.7150 Y 31.3085 Z -1.0000
G01 X 12.5476 Y 31.4264 Z -1.0000
G01 X 12.9526 Y 31.3563 Z -1.0000
G01 X 13.3576 Y 31.2862 Z -1.0000
G01 X 13.7025 Y 31.2862 Z -1.0000
G01 X 14.0475 Y 31.2862 Z -1.0000
G01 X 14.0465 Y 31.1962 Z -1.0000
G01 X 14.0456 Y 31.1062 Z -1.0000
G01 X 13.2366 Y 31.0974 Z -1.0000
G01 X 12.4277 Y 31.0885 Z -1.0000
G01 X 12.6551 Y 31.1395 Z -1.0000
G00 Z 5.0000

(End cutting path id: path74449)


(Start cutting path id: path74449)
(Change tool to Default tool)

G00 Z 5.0000
G00 X 14.2650 Y 31.1282

G01 Z -1.0000 F 100.0000(Penetrate)
G01 X 14.4225 Y 31.1912 Z -1.0000 F 3500.0000
G01 X 14.4949 Y 31.1187 Z -1.0000
G01 X 14.5674 Y 31.0462 Z -1.0000
G01 X 14.3375 Y 31.0557 Z -1.0000
G01 X 14.1075 Y 31.0652 Z -1.0000
G01 X 14.2650 Y 31.1282 Z -1.0000
G00 Z 5.0000

(End cutting path id: path74449)


(Start cutting path id: path74449)
(Change tool to Default tool)

G00 Z 5.0000
G00 X 14.5674 Y 30.8862

G01 Z -1.0000 F 100.0000(Penetrate)
G01 X 14.6474 Y 30.9662 Z -1.0000 F 3500.0000
G01 X 14.7274 Y 30.8862 Z -1.0000
G01 X 14.8074 Y 30.8063 Z -1.0000
G01 X 14.6474 Y 30.8063 Z -1.0000
G01 X 14.4874 Y 30.8063 Z -1.0000
G01 X 14.5674 Y 30.8862 Z -1.0000
G00 Z 5.0000

(End cutting path id: path74449)


(Start cutting path id: path74449)
(Change tool to Default tool)

G00 Z 5.0000
G00 X 14.7674 Y 29.6664

G01 Z -1.0000 F 100.0000(Penetrate)
G01 X 14.7674 Y 29.7264 Z -1.0000 F 3500.0000
G01 X 14.8274 Y 29.7264 Z -1.0000
G01 X 14.8874 Y 29.7264 Z -1.0000
G01 X 14.8874 Y 29.6664 Z -1.0000
G01 X 14.8874 Y 29.6064 Z -1.0000
G01 X 14.8274 Y 29.6064 Z -1.0000
G01 X 14.7674 Y 29.6064 Z -1.0000
G01 X 14.7674 Y 29.6664 Z -1.0000
G00 Z 5.0000

(End cutting path id: path74449)


(Start cutting path id: path74449)
(Change tool to Default tool)

G00 Z 5.0000
G00 X 14.2075 Y 29.6864

G01 Z -1.0000 F 100.0000(Penetrate)
G01 X 14.2875 Y 29.7664 Z -1.0000 F 3500.0000
G01 X 14.3675 Y 29.6864 Z -1.0000
G01 X 14.4474 Y 29.6064 Z -1.0000
G01 X 14.2875 Y 29.6064 Z -1.0000
G01 X 14.1275 Y 29.6064 Z -1.0000
G01 X 14.2075 Y 29.6864 Z -1.0000
G00 Z 5.0000

(End cutting path id: path74449)


(Start cutting path id: path74449)
(Change tool to Default tool)

G00 Z 5.0000
G00 X 14.1675 Y 29.4264

G01 Z -1.0000 F 100.0000(Penetrate)
G01 X 14.1675 Y 29.4864 Z -1.0000 F 3500.0000
G01 X 14.2275 Y 29.4864 Z -1.0000
G01 X 14.2875 Y 29.4864 Z -1.0000
G01 X 14.2875 Y 29.4264 Z -1.0000
G01 X 14.2875 Y 29.3664 Z -1.0000
G01 X 14.2275 Y 29.3664 Z -1.0000
G01 X 14.1675 Y 29.3664 Z -1.0000
G01 X 14.1675 Y 29.4264 Z -1.0000
G00 Z 5.0000

(End cutting path id: path74449)


(Start cutting path id: path74449)
(Change tool to Default tool)

G00 Z 5.0000
G00 X 15.6073 Y 30.0263

G01 Z -1.0000 F 100.0000(Penetrate)
G01 X 15.6073 Y 30.0863 Z -1.0000 F 3500.0000
G01 X 15.6673 Y 30.0863 Z -1.0000
G01 X 15.7273 Y 30.0863 Z -1.0000
G01 X 15.7273 Y 30.0263 Z -1.0000
G01 X 15.7273 Y 29.9663 Z -1.0000
G01 X 15.6673 Y 29.9663 Z -1.0000
G01 X 15.6073 Y 29.9663 Z -1.0000
G01 X 15.6073 Y 30.0263 Z -1.0000
G00 Z 5.0000

(End cutting path id: path74449)


(Start cutting path id: path74449)
(Change tool to Default tool)

G00 Z 5.0000
G00 X 16.1273 Y 30.4063

G01 Z -1.0000 F 100.0000(Penetrate)
G01 X 16.2073 Y 30.4863 Z -1.0000 F 3500.0000
G01 X 16.2873 Y 30.4063 Z -1.0000
G01 X 16.3672 Y 30.3263 Z -1.0000
G01 X 16.2073 Y 30.3263 Z -1.0000
G01 X 16.0473 Y 30.3263 Z -1.0000
G01 X 16.1273 Y 30.4063 Z -1.0000
G00 Z 5.0000

(End cutting path id: path74449)


(Start cutting path id: path74449)
(Change tool to Default tool)

G00 Z 5.0000
G00 X 16.3273 Y 29.3064

G01 Z -1.0000 F 100.0000(Penetrate)
G01 X 16.3273 Y 29.3664 Z -1.0000 F 3500.0000
G01 X 16.3872 Y 29.3664 Z -1.0000
G01 X 16.4472 Y 29.3664 Z -1.0000
G01 X 16.4472 Y 29.3064 Z -1.0000
G01 X 16.4472 Y 29.2464 Z -1.0000
G01 X 16.3872 Y 29.2464 Z -1.0000
G01 X 16.3273 Y 29.2464 Z -1.0000
G01 X 16.3273 Y 29.3064 Z -1.0000
G00 Z 5.0000

(End cutting path id: path74449)


(Start cutting path id: path74449)
(Change tool to Default tool)

G00 Z 5.0000
G00 X 17.6771 Y 30.7657

G01 Z -1.0000 F 100.0000(Penetrate)
G01 X 17.5271 Y 30.8263 Z -1.0000 F 3500.0000
G01 X 17.3771 Y 30.7657 Z -1.0000
G01 X 17.2272 Y 30.7052 Z -1.0000
G01 X 17.5271 Y 30.7052 Z -1.0000
G01 X 17.8271 Y 30.7052 Z -1.0000
G01 X 17.6771 Y 30.7657 Z -1.0000
G00 Z 5.0000

(End cutting path id: path74449)


(Start cutting path id: path74449)
(Change tool to Default tool)

G00 Z 5.0000
G00 X 18.6901 Y 28.9296

G01 Z -1.0000 F 100.0000(Penetrate)
G01 X 18.6145 Y 29.1264 Z -1.0000 F 3500.0000
G01 X 18.7455 Y 29.1264 Z -1.0000
G01 X 18.8764 Y 29.1264 Z -1.0000
G01 X 18.7571 Y 29.2764 Z -1.0000
G01 X 18.6378 Y 29.4264 Z -1.0000
G01 X 18.6734 Y 29.6474 Z -1.0000
G01 X 18.7090 Y 29.8683 Z -1.0000
G01 X 18.7690 Y 29.9283 Z -1.0000
G01 X 18.8290 Y 29.9884 Z -1.0000
G01 X 19.0480 Y 29.8610 Z -1.0000
G01 X 19.2669 Y 29.7337 Z -1.0000
G01 X 19.0570 Y 29.7301 Z -1.0000
G01 X 18.8470 Y 29.7265 Z -1.0000
G01 X 18.8470 Y 29.6586 Z -1.0000
G01 X 18.8470 Y 29.5907 Z -1.0000
G01 X 18.9623 Y 29.3752 Z -1.0000
G01 X 19.0777 Y 29.1597 Z -1.0000
G01 X 18.9216 Y 28.9463 Z -1.0000
G01 X 18.7656 Y 28.7329 Z -1.0000
G01 X 18.6901 Y 28.9296 Z -1.0000
G00 Z 5.0000

(End cutting path id: path74449)


(Start cutting path id: path74449)
(Change tool to Default tool)

G00 Z 5.0000
G00 X 19.0870 Y 28.2865

G01 Z -1.0000 F 100.0000(Penetrate)
G01 X 19.0870 Y 28.4065 Z -1.0000 F 3500.0000
G01 X 18.8541 Y 28.4065 Z -1.0000
G01 X 18.6212 Y 28.4065 Z -1.0000
G01 X 18.5421 Y 28.5345 Z -1.0000
G01 X 18.4630 Y 28.6624 Z -1.0000
G01 X 18.5239 Y 28.7233 Z -1.0000
G01 X 18.5847 Y 28.7842 Z -1.0000
G01 X 18.9558 Y 28.5923 Z -1.0000
G01 X 19.3269 Y 28.4004 Z -1.0000
G01 X 19.3269 Y 28.2834 Z -1.0000
G01 X 19.3269 Y 28.1665 Z -1.0000
G01 X 19.2070 Y 28.1665 Z -1.0000
G01 X 19.0870 Y 28.1665 Z -1.0000
G01 X 19.0870 Y 28.2865 Z -1.0000
G00 Z 5.0000

(End cutting path id: path74449)


(Start cutting path id: path74449)
(Change tool to Default tool)

G00 Z 5.0000
G00 X 19.4469 Y 28.4136

G01 Z -1.0000 F 100.0000(Penetrate)
G01 X 19.4469 Y 28.5407 Z -1.0000 F 3500.0000
G01 X 19.5669 Y 28.4665 Z -1.0000
G01 X 19.6869 Y 28.3923 Z -1.0000
G01 X 19.6869 Y 28.3394 Z -1.0000
G01 X 19.6869 Y 28.2865 Z -1.0000
G01 X 19.5669 Y 28.2865 Z -1.0000
G01 X 19.4469 Y 28.2865 Z -1.0000
G01 X 19.4469 Y 28.4136 Z -1.0000
G00 Z 5.0000

(End cutting path id: path74449)


(Start cutting path id: path74449)
(Change tool to Default tool)

G00 Z 5.0000
G00 X 19.4469 Y 29.0664

G01 Z -1.0000 F 100.0000(Penetrate)
G01 X 19.4469 Y 29.1264 Z -1.0000 F 3500.0000
G01 X 19.5069 Y 29.1264 Z -1.0000
G01 X 19.5669 Y 29.1264 Z -1.0000
G01 X 19.5669 Y 29.0664 Z -1.0000
G01 X 19.5669 Y 29.0064 Z -1.0000
G01 X 19.5069 Y 29.0064 Z -1.0000
G01 X 19.4469 Y 29.0064 Z -1.0000
G01 X 19.4469 Y 29.0664 Z -1.0000
G00 Z 5.0000

(End cutting path id: path74449)


(Start cutting path id: path74449)
(Change tool to Default tool)

G00 Z 5.0000
G00 X 20.2868 Y 29.1864

G01 Z -1.0000 F 100.0000(Penetrate)
G01 X 20.2868 Y 29.2464 Z -1.0000 F 3500.0000
G01 X 20.3468 Y 29.2464 Z -1.0000
G01 X 20.4068 Y 29.2464 Z -1.0000
G01 X 20.4068 Y 29.1864 Z -1.0000
G01 X 20.4068 Y 29.1264 Z -1.0000
G01 X 20.3468 Y 29.1264 Z -1.0000
G01 X 20.2868 Y 29.1264 Z -1.0000
G01 X 20.2868 Y 29.1864 Z -1.0000
G00 Z 5.0000

(End cutting path id: path74449)


(Start cutting path id: path74449)
(Change tool to Default tool)

G00 Z 5.0000
G00 X 20.4068 Y 28.4136

G01 Z -1.0000 F 100.0000(Penetrate)
G01 X 20.4068 Y 28.5407 Z -1.0000 F 3500.0000
G01 X 20.5268 Y 28.4665 Z -1.0000
G01 X 20.6468 Y 28.3923 Z -1.0000
G01 X 20.6468 Y 28.3394 Z -1.0000
G01 X 20.6468 Y 28.2865 Z -1.0000
G01 X 20.5268 Y 28.2865 Z -1.0000
G01 X 20.4068 Y 28.2865 Z -1.0000
G01 X 20.4068 Y 28.4136 Z -1.0000
G00 Z 5.0000

(End cutting path id: path74449)


(Start cutting path id: path74449)
(Change tool to Default tool)

G00 Z 5.0000
G00 X 20.8068 Y 28.2465

G01 Z -1.0000 F 100.0000(Penetrate)
G01 X 20.8868 Y 28.3265 Z -1.0000 F 3500.0000
G01 X 20.9668 Y 28.2465 Z -1.0000
G01 X 21.0468 Y 28.1665 Z -1.0000
G01 X 20.8868 Y 28.1665 Z -1.0000
G01 X 20.7268 Y 28.1665 Z -1.0000
G01 X 20.8068 Y 28.2465 Z -1.0000
G00 Z 5.0000

(End cutting path id: path74449)


(Start cutting path id: path74449)
(Change tool to Default tool)

G00 Z 5.0000
G00 X 25.8862 Y 29.4464

G01 Z -1.0000 F 100.0000(Penetrate)
G01 X 25.8063 Y 29.5264 Z -1.0000 F 3500.0000
G01 X 25.7263 Y 29.4464 Z -1.0000
G01 X 25.6463 Y 29.3664 Z -1.0000
G01 X 25.8063 Y 29.3664 Z -1.0000
G01 X 25.9662 Y 29.3664 Z -1.0000
G01 X 25.8862 Y 29.4464 Z -1.0000
G00 Z 5.0000

(End cutting path id: path74449)


(Start cutting path id: path74449)
(Change tool to Default tool)

G00 Z 5.0000
G00 X 27.0061 Y 29.1864

G01 Z -1.0000 F 100.0000(Penetrate)
G01 X 27.0061 Y 29.3664 Z -1.0000 F 3500.0000
G01 X 27.3361 Y 29.3501 Z -1.0000
G01 X 27.6661 Y 29.3337 Z -1.0000
G01 X 27.3661 Y 29.2718 Z -1.0000
G01 X 27.0661 Y 29.2098 Z -1.0000
G01 X 27.3661 Y 29.1201 Z -1.0000
G01 X 27.6661 Y 29.0304 Z -1.0000
G01 X 27.3361 Y 29.0184 Z -1.0000
G01 X 27.0061 Y 29.0064 Z -1.0000
G01 X 27.0061 Y 29.1864 Z -1.0000
G00 Z 5.0000

(End cutting path id: path74449)


(Start cutting path id: path74449)
(Change tool to Default tool)

G00 Z 5.0000
G00 X 27.0936 Y 30.6388

G01 Z -1.0000 F 100.0000(Penetrate)
G01 X 27.0211 Y 30.7113 Z -1.0000 F 3500.0000
G01 X 26.8636 Y 30.6482 Z -1.0000
G01 X 26.7062 Y 30.5852 Z -1.0000
G01 X 26.9361 Y 30.5758 Z -1.0000
G01 X 27.1661 Y 30.5663 Z -1.0000
G01 X 27.0936 Y 30.6388 Z -1.0000
G00 Z 5.0000

(End cutting path id: path74449)


(Start cutting path id: path74449)
(Change tool to Default tool)

G00 Z 5.0000
G00 X 28.6978 Y 30.2867

G01 Z -1.0000 F 100.0000(Penetrate)
G01 X 29.0996 Y 30.3670 Z -1.0000 F 3500.0000
G01 X 28.6828 Y 30.5175 Z -1.0000
G01 X 28.2660 Y 30.6680 Z -1.0000
G01 X 27.9660 Y 30.6753 Z -1.0000
G01 X 27.6661 Y 30.6826 Z -1.0000
G01 X 27.8460 Y 30.5663 Z -1.0000
G01 X 28.0260 Y 30.4500 Z -1.0000
G01 X 27.8690 Y 30.4481 Z -1.0000
G01 X 27.7119 Y 30.4463 Z -1.0000
G01 X 27.7861 Y 30.3263 Z -1.0000
G01 X 27.8602 Y 30.2063 Z -1.0000
G01 X 28.0781 Y 30.2063 Z -1.0000
G01 X 28.2960 Y 30.2063 Z -1.0000
G01 X 28.6978 Y 30.2867 Z -1.0000
G00 Z 5.0000

(End cutting path id: path74449)


(Start cutting path id: path74449)
(Change tool to Default tool)

G00 Z 5.0000
G00 X 28.8931 Y 31.2161

G01 Z -1.0000 F 100.0000(Penetrate)
G01 X 28.6804 Y 31.4289 Z -1.0000 F 3500.0000
G01 X 28.4934 Y 31.7904 Z -1.0000
G01 X 28.3065 Y 32.1520 Z -1.0000
G01 X 28.3785 Y 32.4390 Z -1.0000
G01 X 28.4506 Y 32.7261 Z -1.0000
G01 X 28.7277 Y 32.7261 Z -1.0000
G01 X 29.0048 Y 32.7261 Z -1.0000
G01 X 29.5353 Y 32.3685 Z -1.0000
G01 X 30.0658 Y 32.0110 Z -1.0000
G01 X 30.5458 Y 31.5823 Z -1.0000
G01 X 31.0257 Y 31.1536 Z -1.0000
G01 X 30.7455 Y 31.2896 Z -1.0000
G01 X 30.4652 Y 31.4256 Z -1.0000
G01 X 30.3990 Y 31.3595 Z -1.0000
G01 X 30.3329 Y 31.2933 Z -1.0000
G01 X 29.9887 Y 31.5384 Z -1.0000
G01 X 29.6445 Y 31.7835 Z -1.0000
G01 X 29.4361 Y 31.7434 Z -1.0000
G01 X 29.2277 Y 31.7032 Z -1.0000
G01 X 29.1668 Y 31.3532 Z -1.0000
G01 X 29.1059 Y 31.0032 Z -1.0000
G01 X 28.8931 Y 31.2161 Z -1.0000
G00 Z 5.0000

(End cutting path id: path74449)


(Start cutting path id: path74449)
(Change tool to Default tool)

G00 Z 5.0000
G00 X 29.0459 Y 31.3462

G01 Z -1.0000 F 100.0000(Penetrate)
G01 X 29.0459 Y 31.4062 Z -1.0000 F 3500.0000
G01 X 28.9859 Y 31.4062 Z -1.0000
G01 X 28.9259 Y 31.4062 Z -1.0000
G01 X 28.9259 Y 31.3462 Z -1.0000
G01 X 28.9259 Y 31.2862 Z -1.0000
G01 X 28.9859 Y 31.2862 Z -1.0000
G01 X 29.0459 Y 31.2862 Z -1.0000
G01 X 29.0459 Y 31.3462 Z -1.0000
G00 Z 5.0000

(End cutting path id: path74449)


(Start cutting path id: path74449)
(Change tool to Default tool)

G00 Z 5.0000
G00 X 29.2859 Y 32.1469

G01 Z -1.0000 F 100.0000(Penetrate)
G01 X 29.2859 Y 32.2299 Z -1.0000 F 3500.0000
G01 X 29.0369 Y 32.3090 Z -1.0000
G01 X 28.7879 Y 32.3880 Z -1.0000
G01 X 28.7259 Y 32.3261 Z -1.0000
G01 X 28.6640 Y 32.2642 Z -1.0000
G01 X 28.7420 Y 32.0185 Z -1.0000
G01 X 28.8200 Y 31.7729 Z -1.0000
G01 X 29.0529 Y 31.9184 Z -1.0000
G01 X 29.2859 Y 32.0639 Z -1.0000
G01 X 29.2859 Y 32.1469 Z -1.0000
G00 Z 5.0000

(End cutting path id: path74449)


(Start cutting path id: path74449)
(Change tool to Default tool)

G00 Z 5.0000
G00 X 29.5259 Y 32.0661

G01 Z -1.0000 F 100.0000(Penetrate)
G01 X 29.5259 Y 32.1261 Z -1.0000 F 3500.0000
G01 X 29.4659 Y 32.1261 Z -1.0000
G01 X 29.4059 Y 32.1261 Z -1.0000
G01 X 29.4059 Y 32.0661 Z -1.0000
G01 X 29.4059 Y 32.0061 Z -1.0000
G01 X 29.4659 Y 32.0061 Z -1.0000
G01 X 29.5259 Y 32.0061 Z -1.0000
G01 X 29.5259 Y 32.0661 Z -1.0000
G00 Z 5.0000

(End cutting path id: path74449)


(Start cutting path id: path74449)
(Change tool to Default tool)

G00 Z 5.0000
G00 X 30.3658 Y 31.4515

G01 Z -1.0000 F 100.0000(Penetrate)
G01 X 30.3658 Y 31.4968 Z -1.0000 F 3500.0000
G01 X 30.1558 Y 31.6615 Z -1.0000
G01 X 29.9458 Y 31.8261 Z -1.0000
G01 X 30.1105 Y 31.6162 Z -1.0000
G01 X 30.2752 Y 31.4062 Z -1.0000
G01 X 30.3205 Y 31.4062 Z -1.0000
G01 X 30.3658 Y 31.4062 Z -1.0000
G01 X 30.3658 Y 31.4515 Z -1.0000
G00 Z 5.0000

(End cutting path id: path74449)


(Start cutting path id: path74449)
(Change tool to Default tool)

G00 Z 5.0000
G00 X 31.5657 Y 32.0061

G01 Z -1.0000 F 100.0000(Penetrate)
G01 X 31.7456 Y 32.1224 Z -1.0000 F 3500.0000
G01 X 31.5427 Y 32.1243 Z -1.0000
G01 X 31.3398 Y 32.1261 Z -1.0000
G01 X 31.2657 Y 32.0061 Z -1.0000
G01 X 31.1915 Y 31.8862 Z -1.0000
G01 X 31.2886 Y 31.8880 Z -1.0000
G01 X 31.3857 Y 31.8898 Z -1.0000
G01 X 31.5657 Y 32.0061 Z -1.0000
G00 Z 5.0000

(End cutting path id: path74449)


(Start cutting path id: path74449)
(Change tool to Default tool)

G00 Z 5.0000
G00 X 31.9256 Y 31.9461

G01 Z -1.0000 F 100.0000(Penetrate)
G01 X 31.9256 Y 32.0061 Z -1.0000 F 3500.0000
G01 X 31.8656 Y 32.0061 Z -1.0000
G01 X 31.8056 Y 32.0061 Z -1.0000
G01 X 31.8056 Y 31.9461 Z -1.0000
G01 X 31.8056 Y 31.8861 Z -1.0000
G01 X 31.8656 Y 31.8861 Z -1.0000
G01 X 31.9256 Y 31.8861 Z -1.0000
G01 X 31.9256 Y 31.9461 Z -1.0000
G00 Z 5.0000

(End cutting path id: path74449)


(Start cutting path id: path74449)
(Change tool to Default tool)

G00 Z 5.0000
G00 X 32.1656 Y 31.8261

G01 Z -1.0000 F 100.0000(Penetrate)
G01 X 32.1656 Y 31.8861 Z -1.0000 F 3500.0000
G01 X 32.1056 Y 31.8861 Z -1.0000
G01 X 32.0456 Y 31.8861 Z -1.0000
G01 X 32.0456 Y 31.8261 Z -1.0000
G01 X 32.0456 Y 31.7662 Z -1.0000
G01 X 32.1056 Y 31.7662 Z -1.0000
G01 X 32.1656 Y 31.7662 Z -1.0000
G01 X 32.1656 Y 31.8261 Z -1.0000
G00 Z 5.0000

(End cutting path id: path74449)


(Start cutting path id: path74449)
