%
(Header)
(Generated by gcodetools from Inkscape.)
(Using default header. To add your own header create file "header" in the output dir.)
M3
(Header end.)
G21 (All units in mm)

(Start cutting path id: path24282)
(Change tool to Default tool)

G00 Z 5.0000
G00 X 34.1262 Y 1.0743

G01 Z -1.0000 F 100.0000(Penetrate)
G02 X 34.1201 Y 1.1432 Z -1.0000 I 0.4660 J 0.0754 F 3500.0000
G02 X 34.1115 Y 2.1243 Z -1.0000 I 94.8462 J 1.3267
G03 X 34.1057 Y 2.7215 Z -1.0000 I -49.6817 J -0.1815
G03 X 34.0975 Y 3.0171 Z -1.0000 I -12.2605 J -0.1922
G02 X 34.0861 Y 3.3126 Z -1.0000 I 115.3517 J 4.6134
G02 X 34.0815 Y 3.4446 Z -1.0000 I 23.5246 J 0.8805
G03 X 34.0766 Y 3.5766 Z -1.0000 I -11.6951 J -0.3704
G03 X 34.0692 Y 3.7338 Z -1.0000 I -18.2929 J -0.7862
G01 X 34.0833 Y 3.7358 Z -1.0000
G02 X 34.1192 Y 3.5263 Z -1.0000 I -1.5467 J -0.3728
G02 X 34.1333 Y 3.2807 Z -1.0000 I -2.6938 J -0.2778
G02 X 34.1367 Y 2.0551 Z -1.0000 I -67.1863 J -0.7986
G01 X 34.1262 Y 1.0743 Z -1.0000
G01 X 34.1262 Y 1.0743 Z -1.0000
G00 Z 5.0000

(End cutting path id: path24282)


(Start cutting path id: path24282)
(Change tool to Default tool)

G00 Z 5.0000
G00 X 33.5278 Y 1.7542

G01 Z -1.0000 F 100.0000(Penetrate)
G02 X 33.5098 Y 1.7747 Z -1.0000 I 0.1511 J 0.1511 F 3500.0000
G01 X 33.5080 Y 1.7798 Z -1.0000
G01 X 33.5224 Y 1.7881 Z -1.0000
G02 X 33.5647 Y 1.7470 Z -1.0000 I -0.0606 J -0.1047
G01 X 33.5584 Y 1.7379 Z -1.0000
G02 X 33.5278 Y 1.7543 Z -1.0000 I 0.0115 J 0.0584
G01 X 33.5278 Y 1.7542 Z -1.0000
G00 Z 5.0000

(End cutting path id: path24282)


(Start cutting path id: path24282)
(Change tool to Default tool)

G00 Z 5.0000
G00 X 33.4703 Y 1.7729

G01 Z -1.0000 F 100.0000(Penetrate)
G01 X 33.4743 Y 1.7791 Z -1.0000 F 3500.0000
G01 X 33.4829 Y 1.7784 Z -1.0000
G02 X 33.4937 Y 1.7697 Z -1.0000 I -0.0289 J -0.0464
G01 X 33.4955 Y 1.7651 Z -1.0000
G01 X 33.4933 Y 1.7618 Z -1.0000
G01 X 33.4829 Y 1.7596 Z -1.0000
G01 X 33.4741 Y 1.7634 Z -1.0000
G01 X 33.4703 Y 1.7729 Z -1.0000
G01 X 33.4703 Y 1.7729 Z -1.0000
G00 Z 5.0000

(End cutting path id: path24282)


(Start cutting path id: path24282)
(Change tool to Default tool)

G00 Z 5.0000
G00 X 33.3697 Y 1.7992

G01 Z -1.0000 F 100.0000(Penetrate)
G01 X 33.3783 Y 1.8234 Z -1.0000 F 3500.0000
G02 X 33.4074 Y 1.8456 Z -1.0000 I 0.0609 J -0.0495
G03 X 33.4480 Y 1.8881 Z -1.0000 I -0.0311 J 0.0702
G01 X 33.4326 Y 1.9105 Z -1.0000
G01 X 33.4244 Y 1.9061 Z -1.0000
G01 X 33.4200 Y 1.8917 Z -1.0000
G01 X 33.4156 Y 1.8772 Z -1.0000
G01 X 33.4075 Y 1.8728 Z -1.0000
G01 X 33.3997 Y 1.8776 Z -1.0000
G01 X 33.3949 Y 1.8980 Z -1.0000
G01 X 33.4021 Y 1.9159 Z -1.0000
G01 X 33.4193 Y 1.9231 Z -1.0000
G03 X 33.4416 Y 1.9269 Z -1.0000 I -0.0000 J 0.0666
G01 X 33.4505 Y 1.9342 Z -1.0000
G01 X 33.4840 Y 1.9559 Z -1.0000
G02 X 33.5523 Y 1.9482 Z -1.0000 I 0.0189 J -0.1375
G03 X 33.5794 Y 1.9434 Z -1.0000 I 0.0257 J 0.0672
G03 X 33.6409 Y 1.9498 Z -1.0000 I -0.0073 J 0.3737
G02 X 33.7032 Y 1.9582 Z -1.0000 I 0.1082 J -0.5678
G02 X 33.7721 Y 1.9603 Z -1.0000 I 0.0562 J -0.7065
G03 X 33.8413 Y 1.9597 Z -1.0000 I 0.0650 J 3.6563
G03 X 33.8947 Y 1.9604 Z -1.0000 I -0.0025 J 2.1779
G02 X 33.9381 Y 1.9515 Z -1.0000 I 0.0025 J -0.0973
G01 X 33.9482 Y 1.9357 Z -1.0000
G01 X 33.9423 Y 1.9137 Z -1.0000
G01 X 33.9294 Y 1.9025 Z -1.0000
G01 X 33.9168 Y 1.8932 Z -1.0000
G01 X 33.9164 Y 1.8859 Z -1.0000
G01 X 33.9106 Y 1.8720 Z -1.0000
G02 X 33.7155 Y 1.8405 Z -1.0000 I -0.3517 J 1.5535
G03 X 33.6407 Y 1.8302 Z -1.0000 I 0.0970 J -0.9812
G03 X 33.6087 Y 1.8216 Z -1.0000 I 0.0333 J -0.1885
G02 X 33.5766 Y 1.8125 Z -1.0000 I -0.0766 J 0.2103
G02 X 33.4955 Y 1.7985 Z -1.0000 I -0.2735 J 1.3459
G03 X 33.4143 Y 1.7849 Z -1.0000 I 0.2266 J -1.5915
G03 X 33.3917 Y 1.7782 Z -1.0000 I 0.0243 J -0.1244
G01 X 33.3775 Y 1.7810 Z -1.0000
G01 X 33.3697 Y 1.7992 Z -1.0000
G01 X 33.3697 Y 1.7992 Z -1.0000
G00 Z 5.0000

(End cutting path id: path24282)


(Start cutting path id: path24282)
(Change tool to Default tool)

G00 Z 5.0000
G00 X 33.3194 Y 1.8225

G01 Z -1.0000 F 100.0000(Penetrate)
G01 X 33.3231 Y 1.8314 Z -1.0000 F 3500.0000
G01 X 33.3320 Y 1.8351 Z -1.0000
G01 X 33.3409 Y 1.8314 Z -1.0000
G01 X 33.3446 Y 1.8225 Z -1.0000
G01 X 33.3409 Y 1.8136 Z -1.0000
G01 X 33.3320 Y 1.8099 Z -1.0000
G01 X 33.3231 Y 1.8136 Z -1.0000
G01 X 33.3194 Y 1.8225 Z -1.0000
G01 X 33.3194 Y 1.8225 Z -1.0000
G00 Z 5.0000

(End cutting path id: path24282)


(Start cutting path id: path24282)
(Change tool to Default tool)

G00 Z 5.0000
G00 X 33.3509 Y 1.8602

G01 Z -1.0000 F 100.0000(Penetrate)
G01 X 33.3503 Y 1.8688 Z -1.0000 F 3500.0000
G01 X 33.3564 Y 1.8728 Z -1.0000
G01 X 33.3659 Y 1.8690 Z -1.0000
G01 X 33.3697 Y 1.8602 Z -1.0000
G01 X 33.3675 Y 1.8498 Z -1.0000
G01 X 33.3642 Y 1.8477 Z -1.0000
G01 X 33.3597 Y 1.8494 Z -1.0000
G02 X 33.3509 Y 1.8602 Z -1.0000 I 0.0384 J 0.0405
G01 X 33.3509 Y 1.8602 Z -1.0000
G00 Z 5.0000

(End cutting path id: path24282)


(Start cutting path id: path24282)
(Change tool to Default tool)

G00 Z 5.0000
G00 X 33.4955 Y 1.8791

G01 Z -1.0000 F 100.0000(Penetrate)
G01 X 33.4984 Y 1.8920 Z -1.0000 F 3500.0000
G01 X 33.4908 Y 1.8979 Z -1.0000
G01 X 33.4761 Y 1.8922 Z -1.0000
G01 X 33.4704 Y 1.8791 Z -1.0000
G03 X 33.4724 Y 1.8623 Z -1.0000 I 0.0698 J 0.0000
G01 X 33.4751 Y 1.8602 Z -1.0000
G01 X 33.4791 Y 1.8618 Z -1.0000
G03 X 33.4955 Y 1.8791 Z -1.0000 I -0.1236 J 0.1337
G01 X 33.4955 Y 1.8791 Z -1.0000
G00 Z 5.0000

(End cutting path id: path24282)


(Start cutting path id: path24282)
(Change tool to Default tool)

G00 Z 5.0000
G00 X 33.5332 Y 1.8602

G01 Z -1.0000 F 100.0000(Penetrate)
G01 X 33.5288 Y 1.8683 Z -1.0000 F 3500.0000
G01 X 33.5136 Y 1.8728 Z -1.0000
G01 X 33.5025 Y 1.8680 Z -1.0000
G01 X 33.5018 Y 1.8602 Z -1.0000
G01 X 33.5112 Y 1.8506 Z -1.0000
G01 X 33.5214 Y 1.8477 Z -1.0000
G01 X 33.5296 Y 1.8512 Z -1.0000
G01 X 33.5332 Y 1.8602 Z -1.0000
G01 X 33.5332 Y 1.8602 Z -1.0000
G00 Z 5.0000

(End cutting path id: path24282)


(Start cutting path id: path24282)
(Change tool to Default tool)

G00 Z 5.0000
G00 X 33.5017 Y 2.3806

G01 Z -1.0000 F 100.0000(Penetrate)
G01 X 33.4872 Y 2.3998 Z -1.0000 F 3500.0000
G01 X 33.4874 Y 2.4197 Z -1.0000
G01 X 33.4993 Y 2.4284 Z -1.0000
G01 X 33.5187 Y 2.4215 Z -1.0000
G03 X 33.5427 Y 2.4041 Z -1.0000 I 0.0911 J 0.1006
G01 X 33.5548 Y 2.4009 Z -1.0000
G01 X 33.5656 Y 2.3970 Z -1.0000
G01 X 33.5744 Y 2.3847 Z -1.0000
G01 X 33.5606 Y 2.3632 Z -1.0000
G02 X 33.5017 Y 2.3806 Z -1.0000 I -0.0052 J 0.0907
G01 X 33.5017 Y 2.3806 Z -1.0000
G00 Z 5.0000

(End cutting path id: path24282)


(Start cutting path id: path24282)
(Change tool to Default tool)

G00 Z 5.0000
G00 X 32.9045 Y 2.4002

G01 Z -1.0000 F 100.0000(Penetrate)
G01 X 32.9075 Y 2.4104 Z -1.0000 F 3500.0000
G01 X 32.9170 Y 2.4198 Z -1.0000
G01 X 32.9248 Y 2.4190 Z -1.0000
G01 X 32.9296 Y 2.4080 Z -1.0000
G01 X 32.9251 Y 2.3928 Z -1.0000
G01 X 32.9170 Y 2.3884 Z -1.0000
G01 X 32.9080 Y 2.3919 Z -1.0000
G01 X 32.9045 Y 2.4002 Z -1.0000
G01 X 32.9045 Y 2.4002 Z -1.0000
G00 Z 5.0000

(End cutting path id: path24282)


(Start cutting path id: path24282)
(Change tool to Default tool)

G00 Z 5.0000
G00 X 32.8793 Y 2.4387

G01 Z -1.0000 F 100.0000(Penetrate)
G01 X 32.8831 Y 2.4474 Z -1.0000 F 3500.0000
G01 X 32.8926 Y 2.4512 Z -1.0000
G01 X 32.8988 Y 2.4472 Z -1.0000
G01 X 32.8981 Y 2.4387 Z -1.0000
G02 X 32.8893 Y 2.4279 Z -1.0000 I -0.0466 J 0.0290
G01 X 32.8848 Y 2.4261 Z -1.0000
G01 X 32.8814 Y 2.4283 Z -1.0000
G01 X 32.8793 Y 2.4387 Z -1.0000
G01 X 32.8793 Y 2.4387 Z -1.0000
G00 Z 5.0000

(End cutting path id: path24282)


(Start cutting path id: path24282)
(Change tool to Default tool)

G00 Z 5.0000
G00 X 32.9011 Y 2.5846

G01 Z -1.0000 F 100.0000(Penetrate)
G01 X 32.8926 Y 2.5882 Z -1.0000 F 3500.0000
G01 X 32.8770 Y 2.5856 Z -1.0000
G01 X 32.8846 Y 2.5780 Z -1.0000
G01 X 32.9011 Y 2.5846 Z -1.0000
G01 X 32.9011 Y 2.5846 Z -1.0000
G00 Z 5.0000

(End cutting path id: path24282)


(Start cutting path id: path24282)
(Change tool to Default tool)

G00 Z 5.0000
G00 X 32.1318 Y 2.9513

G01 Z -1.0000 F 100.0000(Penetrate)
G01 X 32.1320 Y 2.9642 Z -1.0000 F 3500.0000
G01 X 32.1563 Y 2.9748 Z -1.0000
G02 X 32.1835 Y 2.9722 Z -1.0000 I 0.0052 J -0.0894
G01 X 32.1877 Y 2.9668 Z -1.0000
G01 X 32.1686 Y 2.9417 Z -1.0000
G01 X 32.1318 Y 2.9513 Z -1.0000
G01 X 32.1318 Y 2.9513 Z -1.0000
G00 Z 5.0000

(End cutting path id: path24282)


(Start cutting path id: path24282)
(Change tool to Default tool)

G00 Z 5.0000
G00 X 31.9832 Y 2.9472

G01 Z -1.0000 F 100.0000(Penetrate)
G02 X 31.9670 Y 2.9661 Z -1.0000 I 0.0322 J 0.0440 F 3500.0000
G02 X 31.9614 Y 2.9894 Z -1.0000 I 0.0448 J 0.0233
G03 X 31.9570 Y 3.0132 Z -1.0000 I -0.0674 J 0.0000
G01 X 31.9486 Y 3.0235 Z -1.0000
G01 X 31.9492 Y 3.0385 Z -1.0000
G02 X 32.0070 Y 3.0527 Z -1.0000 I 0.0605 J -0.1206
G02 X 32.0542 Y 3.0361 Z -1.0000 I 0.0015 J -0.0710
G01 X 32.0538 Y 3.0134 Z -1.0000
G02 X 32.0230 Y 2.9974 Z -1.0000 I -0.0569 J 0.0723
G01 X 32.0146 Y 3.0018 Z -1.0000
G01 X 31.9907 Y 3.0210 Z -1.0000
G01 X 31.9739 Y 3.0059 Z -1.0000
G01 X 31.9780 Y 2.9980 Z -1.0000
G03 X 31.9991 Y 2.9882 Z -1.0000 I 0.0376 J 0.0534
G01 X 32.0183 Y 2.9770 Z -1.0000
G01 X 32.0242 Y 2.9623 Z -1.0000
G01 X 32.0110 Y 2.9433 Z -1.0000
G01 X 31.9832 Y 2.9472 Z -1.0000
G01 X 31.9832 Y 2.9472 Z -1.0000
G00 Z 5.0000

(End cutting path id: path24282)


(Start cutting path id: path24282)
(Change tool to Default tool)

G00 Z 5.0000
G00 X 32.0435 Y 2.7021

G01 Z -1.0000 F 100.0000(Penetrate)
G01 X 32.0441 Y 2.7104 Z -1.0000 F 3500.0000
G01 X 32.0545 Y 2.7153 Z -1.0000
G01 X 32.0704 Y 2.7208 Z -1.0000
G03 X 32.0877 Y 2.7414 Z -1.0000 I -0.0408 J 0.0517
G01 X 32.1047 Y 2.7593 Z -1.0000
G01 X 32.1195 Y 2.7606 Z -1.0000
G01 X 32.1317 Y 2.7621 Z -1.0000
G01 X 32.1374 Y 2.7730 Z -1.0000
G01 X 32.1330 Y 2.7843 Z -1.0000
G01 X 32.1262 Y 2.7852 Z -1.0000
G01 X 32.1108 Y 2.7917 Z -1.0000
G02 X 32.1138 Y 2.8387 Z -1.0000 I 0.0799 J 0.0185
G02 X 32.1293 Y 2.8603 Z -1.0000 I 0.0474 J -0.0176
G01 X 32.1468 Y 2.8655 Z -1.0000
G03 X 32.1899 Y 2.8716 Z -1.0000 I 0.0092 J 0.0910
G01 X 32.2003 Y 2.8869 Z -1.0000
G01 X 32.2064 Y 2.8914 Z -1.0000
G01 X 32.2254 Y 2.8787 Z -1.0000
G02 X 32.2404 Y 2.8497 Z -1.0000 I -0.0521 J -0.0452
G01 X 32.2365 Y 2.8328 Z -1.0000
G01 X 32.2298 Y 2.8193 Z -1.0000
G01 X 32.2326 Y 2.8158 Z -1.0000
G01 X 32.2151 Y 2.7900 Z -1.0000
G02 X 32.1867 Y 2.7712 Z -1.0000 I -0.0716 J 0.0769
G01 X 32.1750 Y 2.7719 Z -1.0000
G01 X 32.1641 Y 2.7640 Z -1.0000
G03 X 32.1846 Y 2.7327 Z -1.0000 I 0.0543 J 0.0133
G01 X 32.1919 Y 2.7209 Z -1.0000
G01 X 32.1877 Y 2.7158 Z -1.0000
G02 X 32.1696 Y 2.7184 Z -1.0000 I -0.0007 J 0.0613
G02 X 32.1515 Y 2.7266 Z -1.0000 I 0.0203 J 0.0687
G01 X 32.1340 Y 2.7296 Z -1.0000
G03 X 32.0929 Y 2.7133 Z -1.0000 I 0.0323 J -0.1412
G02 X 32.0538 Y 2.6977 Z -1.0000 I -0.0691 J 0.1172
G01 X 32.0435 Y 2.7021 Z -1.0000
G01 X 32.0435 Y 2.7021 Z -1.0000
G00 Z 5.0000

(End cutting path id: path24282)


(Start cutting path id: path24282)
(Change tool to Default tool)

G00 Z 5.0000
G00 X 31.8357 Y 2.6764

G01 Z -1.0000 F 100.0000(Penetrate)
G01 X 31.8252 Y 2.6877 Z -1.0000 F 3500.0000
G01 X 31.8309 Y 2.6999 Z -1.0000
G02 X 31.8567 Y 2.7091 Z -1.0000 I 0.0423 J -0.0774
G01 X 31.8654 Y 2.7065 Z -1.0000
G01 X 31.8698 Y 2.7071 Z -1.0000
G01 X 31.8733 Y 2.7204 Z -1.0000
G01 X 31.8778 Y 2.7404 Z -1.0000
G02 X 31.8922 Y 2.7611 Z -1.0000 I 0.0657 J -0.0305
G03 X 31.9065 Y 2.7819 Z -1.0000 I -0.0491 J 0.0491
G03 X 31.9111 Y 2.8033 Z -1.0000 I -0.0480 J 0.0215
G02 X 31.9514 Y 2.8988 Z -1.0000 I 0.1331 J 0.0000
G01 X 32.0088 Y 2.8984 Z -1.0000
G01 X 32.0125 Y 2.8731 Z -1.0000
G02 X 31.9689 Y 2.8255 Z -1.0000 I -0.1186 J 0.0648
G01 X 31.9679 Y 2.8201 Z -1.0000
G01 X 31.9756 Y 2.8161 Z -1.0000
G01 X 31.9915 Y 2.8099 Z -1.0000
G01 X 32.0025 Y 2.7917 Z -1.0000
G01 X 31.9996 Y 2.7778 Z -1.0000
G01 X 31.9893 Y 2.7750 Z -1.0000
G01 X 31.9795 Y 2.7717 Z -1.0000
G01 X 31.9770 Y 2.7552 Z -1.0000
G02 X 31.9781 Y 2.7326 Z -1.0000 I -0.0540 J -0.0140
G01 X 31.9727 Y 2.7279 Z -1.0000
G01 X 31.9654 Y 2.7238 Z -1.0000
G01 X 31.9613 Y 2.7095 Z -1.0000
G01 X 31.9351 Y 2.6755 Z -1.0000
G02 X 31.8356 Y 2.6765 Z -1.0000 I -0.0479 J 0.1824
G01 X 31.8357 Y 2.6764 Z -1.0000
G00 Z 5.0000

(End cutting path id: path24282)


(Start cutting path id: path24282)
(Change tool to Default tool)

G00 Z 5.0000
G00 X 31.6973 Y 2.7907

G01 Z -1.0000 F 100.0000(Penetrate)
G01 X 31.7010 Y 2.7996 Z -1.0000 F 3500.0000
G01 X 31.7099 Y 2.8033 Z -1.0000
G01 X 31.7188 Y 2.7996 Z -1.0000
G01 X 31.7225 Y 2.7907 Z -1.0000
G01 X 31.7188 Y 2.7818 Z -1.0000
G01 X 31.7099 Y 2.7781 Z -1.0000
G01 X 31.7010 Y 2.7818 Z -1.0000
G01 X 31.6973 Y 2.7907 Z -1.0000
G01 X 31.6973 Y 2.7907 Z -1.0000
G00 Z 5.0000

(End cutting path id: path24282)


(Start cutting path id: path24282)
(Change tool to Default tool)

G00 Z 5.0000
G00 X 31.6973 Y 2.8661

G01 Z -1.0000 F 100.0000(Penetrate)
G01 X 31.6936 Y 2.8750 Z -1.0000 F 3500.0000
G01 X 31.6848 Y 2.8787 Z -1.0000
G01 X 31.6759 Y 2.8750 Z -1.0000
G01 X 31.6722 Y 2.8661 Z -1.0000
G01 X 31.6759 Y 2.8572 Z -1.0000
G01 X 31.6848 Y 2.8536 Z -1.0000
G01 X 31.6937 Y 2.8573 Z -1.0000
G01 X 31.6973 Y 2.8661 Z -1.0000
G01 X 31.6973 Y 2.8661 Z -1.0000
G00 Z 5.0000

(End cutting path id: path24282)


(Start cutting path id: path24282)
(Change tool to Default tool)

G00 Z 5.0000
G00 X 31.3704 Y 2.7419

G01 Z -1.0000 F 100.0000(Penetrate)
G01 X 31.3665 Y 2.7476 Z -1.0000 F 3500.0000
G01 X 31.3578 Y 2.7467 Z -1.0000
G01 X 31.3484 Y 2.7372 Z -1.0000
G01 X 31.3453 Y 2.7264 Z -1.0000
G01 X 31.3491 Y 2.7207 Z -1.0000
G01 X 31.3578 Y 2.7216 Z -1.0000
G01 X 31.3673 Y 2.7311 Z -1.0000
G01 X 31.3704 Y 2.7419 Z -1.0000
G01 X 31.3704 Y 2.7419 Z -1.0000
G00 Z 5.0000

(End cutting path id: path24282)


(Start cutting path id: path24282)
(Change tool to Default tool)

G00 Z 5.0000
G00 X 31.3138 Y 2.6272

G01 Z -1.0000 F 100.0000(Penetrate)
G01 X 31.3159 Y 2.6344 Z -1.0000 F 3500.0000
G02 X 31.3390 Y 2.6398 Z -1.0000 I 0.0231 J -0.0463
G02 X 31.3621 Y 2.6344 Z -1.0000 I -0.0000 J -0.0517
G01 X 31.3641 Y 2.6272 Z -1.0000
G01 X 31.3543 Y 2.6183 Z -1.0000
G01 X 31.3390 Y 2.6147 Z -1.0000
G01 X 31.3236 Y 2.6183 Z -1.0000
G01 X 31.3138 Y 2.6272 Z -1.0000
G01 X 31.3138 Y 2.6272 Z -1.0000
G00 Z 5.0000

(End cutting path id: path24282)


(Start cutting path id: path24282)
(Change tool to Default tool)

G00 Z 5.0000
G00 X 31.2572 Y 2.6217

G01 Z -1.0000 F 100.0000(Penetrate)
G01 X 31.2524 Y 2.6327 Z -1.0000 F 3500.0000
G01 X 31.2445 Y 2.6334 Z -1.0000
G01 X 31.2375 Y 2.6242 Z -1.0000
G01 X 31.2390 Y 2.6138 Z -1.0000
G01 X 31.2498 Y 2.6104 Z -1.0000
G01 X 31.2573 Y 2.6217 Z -1.0000
G01 X 31.2572 Y 2.6217 Z -1.0000
G00 Z 5.0000

(End cutting path id: path24282)


(Start cutting path id: path24282)
(Change tool to Default tool)

G00 Z 5.0000
G00 X 31.0063 Y 2.7237

G01 Z -1.0000 F 100.0000(Penetrate)
G03 X 30.9940 Y 2.7780 Z -1.0000 I -0.2610 J -0.0307 F 3500.0000
G01 X 30.9845 Y 2.7874 Z -1.0000
G01 X 30.9782 Y 2.7831 Z -1.0000
G03 X 30.9820 Y 2.7444 Z -1.0000 I 0.1255 J -0.0073
G01 X 30.9978 Y 2.7192 Z -1.0000
G01 X 31.0063 Y 2.7237 Z -1.0000
G01 X 31.0063 Y 2.7237 Z -1.0000
G00 Z 5.0000

(End cutting path id: path24282)


(Start cutting path id: path24282)
(Change tool to Default tool)

G00 Z 5.0000
G00 X 31.2007 Y 3.0170

G01 Z -1.0000 F 100.0000(Penetrate)
G01 X 31.1912 Y 3.0265 Z -1.0000 F 3500.0000
G01 X 31.1803 Y 3.0296 Z -1.0000
G01 X 31.1747 Y 3.0257 Z -1.0000
G01 X 31.1755 Y 3.0170 Z -1.0000
G01 X 31.1850 Y 3.0076 Z -1.0000
G01 X 31.1959 Y 3.0045 Z -1.0000
G01 X 31.2015 Y 3.0083 Z -1.0000
G01 X 31.2007 Y 3.0170 Z -1.0000
G01 X 31.2007 Y 3.0170 Z -1.0000
G00 Z 5.0000

(End cutting path id: path24282)


(Start cutting path id: path24282)
(Change tool to Default tool)

G00 Z 5.0000
G00 X 31.0874 Y 3.2182

G01 Z -1.0000 F 100.0000(Penetrate)
G01 X 31.0868 Y 3.2268 Z -1.0000 F 3500.0000
G01 X 31.0929 Y 3.2308 Z -1.0000
G01 X 31.1025 Y 3.2270 Z -1.0000
G01 X 31.1063 Y 3.2182 Z -1.0000
G01 X 31.1041 Y 3.2078 Z -1.0000
G01 X 31.1008 Y 3.2056 Z -1.0000
G01 X 31.0963 Y 3.2074 Z -1.0000
G02 X 31.0874 Y 3.2182 Z -1.0000 I 0.0384 J 0.0405
G01 X 31.0874 Y 3.2182 Z -1.0000
G00 Z 5.0000

(End cutting path id: path24282)


(Start cutting path id: path24282)
(Change tool to Default tool)

G00 Z 5.0000
G00 X 30.8998 Y 3.1663

G01 Z -1.0000 F 100.0000(Penetrate)
G01 X 30.9010 Y 3.1744 Z -1.0000 F 3500.0000
G01 X 30.9210 Y 3.1852 Z -1.0000
G02 X 31.0049 Y 3.1938 Z -1.0000 I 0.0685 J -0.2554
G01 X 31.0183 Y 3.1796 Z -1.0000
G01 X 31.0126 Y 3.1723 Z -1.0000
G02 X 30.9772 Y 3.1696 Z -1.0000 I -0.0260 J 0.1062
G03 X 30.9371 Y 3.1693 Z -1.0000 I -0.0186 J -0.2209
G01 X 30.9215 Y 3.1641 Z -1.0000
G01 X 30.9083 Y 3.1611 Z -1.0000
G01 X 30.8998 Y 3.1664 Z -1.0000
G01 X 30.8998 Y 3.1663 Z -1.0000
G00 Z 5.0000

(End cutting path id: path24282)


(Start cutting path id: path24282)
(Change tool to Default tool)

G00 Z 5.0000
G00 X 31.0812 Y 3.5039

G01 Z -1.0000 F 100.0000(Penetrate)
G01 X 31.0790 Y 3.5179 Z -1.0000 F 3500.0000
G01 X 31.0759 Y 3.5201 Z -1.0000
G01 X 31.0707 Y 3.5207 Z -1.0000
G02 X 31.0476 Y 3.5276 Z -1.0000 I 0.1192 J 0.4467
G01 X 31.0426 Y 3.5259 Z -1.0000
G01 X 31.0434 Y 3.5215 Z -1.0000
G01 X 31.0467 Y 3.5128 Z -1.0000
G01 X 31.0403 Y 3.5077 Z -1.0000
G01 X 31.0229 Y 3.5030 Z -1.0000
G01 X 31.0183 Y 3.4951 Z -1.0000
G01 X 31.0234 Y 3.4882 Z -1.0000
G03 X 31.0497 Y 3.4853 Z -1.0000 I 0.0206 J 0.0656
G03 X 31.0752 Y 3.4934 Z -1.0000 I -0.0047 J 0.0586
G01 X 31.0812 Y 3.5040 Z -1.0000
G01 X 31.0812 Y 3.5039 Z -1.0000
G00 Z 5.0000

(End cutting path id: path24282)


(Start cutting path id: path24282)
(Change tool to Default tool)

G00 Z 5.0000
G00 X 31.3861 Y 3.9183

G01 Z -1.0000 F 100.0000(Penetrate)
G01 X 31.3704 Y 3.9213 Z -1.0000 F 3500.0000
G01 X 31.3547 Y 3.9183 Z -1.0000
G01 X 31.3704 Y 3.9120 Z -1.0000
G01 X 31.3861 Y 3.9183 Z -1.0000
G01 X 31.3861 Y 3.9183 Z -1.0000
G00 Z 5.0000

(End cutting path id: path24282)


(Start cutting path id: path24282)
(Change tool to Default tool)

G00 Z 5.0000
G00 X 31.5155 Y 4.3312

G01 Z -1.0000 F 100.0000(Penetrate)
G02 X 31.6160 Y 4.3475 Z -1.0000 I 0.3180 J -1.6457 F 3500.0000
G02 X 31.7288 Y 4.3591 Z -1.0000 I 0.2702 J -2.0650
G03 X 31.7838 Y 4.3705 Z -1.0000 I -0.0167 J 0.2191
G01 X 31.7832 Y 4.3779 Z -1.0000
G03 X 31.7243 Y 4.3817 Z -1.0000 I -0.0473 J -0.2719
G03 X 31.4689 Y 4.3645 Z -1.0000 I 0.2176 J -5.1263
G02 X 31.2132 Y 4.3456 Z -1.0000 I -0.6468 J 7.0011
G02 X 31.1346 Y 4.3459 Z -1.0000 I -0.0367 J 0.6581
G03 X 31.0617 Y 4.3449 Z -1.0000 I -0.0303 J -0.4732
G01 X 31.0560 Y 4.3388 Z -1.0000
G01 X 31.0660 Y 4.3277 Z -1.0000
G03 X 31.2640 Y 4.3144 Z -1.0000 I 0.2319 J 1.9761
G03 X 31.4148 Y 4.3181 Z -1.0000 I 0.0306 J 1.8154
G03 X 31.5155 Y 4.3311 Z -1.0000 I -0.0538 J 0.8113
G01 X 31.5155 Y 4.3312 Z -1.0000
G00 Z 5.0000

(End cutting path id: path24282)


(Start cutting path id: path24282)
(Change tool to Default tool)

G00 Z 5.0000
G00 X 31.2568 Y 4.5267

G01 Z -1.0000 F 100.0000(Penetrate)
G01 X 31.2447 Y 4.5396 Z -1.0000 F 3500.0000
G02 X 31.2510 Y 4.5408 Z -1.0000 I 0.1454 J -0.7461
G03 X 31.2761 Y 4.5455 Z -1.0000 I -2.6613 J 14.3048
G03 X 31.3012 Y 4.5505 Z -1.0000 I -0.1232 J 0.6818
G03 X 31.3358 Y 4.5585 Z -1.0000 I -0.3613 J 1.6488
G02 X 31.3644 Y 4.5592 Z -1.0000 I 0.0160 J -0.0657
G01 X 31.3704 Y 4.5520 Z -1.0000
G01 X 31.3648 Y 4.5447 Z -1.0000
G01 X 31.3453 Y 4.5451 Z -1.0000
G01 X 31.3258 Y 4.5453 Z -1.0000
G01 X 31.3201 Y 4.5376 Z -1.0000
G01 X 31.3168 Y 4.5302 Z -1.0000
G01 X 31.3118 Y 4.5304 Z -1.0000
G01 X 31.3032 Y 4.5332 Z -1.0000
G01 X 31.2894 Y 4.5269 Z -1.0000
G01 X 31.2748 Y 4.5216 Z -1.0000
G01 X 31.2568 Y 4.5268 Z -1.0000
G01 X 31.2568 Y 4.5267 Z -1.0000
G00 Z 5.0000

(End cutting path id: path24282)


(Start cutting path id: path24282)
(Change tool to Default tool)

G00 Z 5.0000
G00 X 30.8800 Y 4.5311

G01 Z -1.0000 F 100.0000(Penetrate)
G01 X 30.8820 Y 4.5347 Z -1.0000 F 3500.0000
G02 X 30.8989 Y 4.5433 Z -1.0000 I 0.0498 J -0.0770
G01 X 30.9133 Y 4.5441 Z -1.0000
G01 X 30.9177 Y 4.5384 Z -1.0000
G01 X 30.9134 Y 4.5305 Z -1.0000
G01 X 30.8989 Y 4.5262 Z -1.0000
G02 X 30.8821 Y 4.5283 Z -1.0000 I -0.0000 J 0.0666
G01 X 30.8800 Y 4.5311 Z -1.0000
G01 X 30.8800 Y 4.5311 Z -1.0000
G00 Z 5.0000

(End cutting path id: path24282)


(Start cutting path id: path24282)
(Change tool to Default tool)

G00 Z 5.0000
G00 X 30.3613 Y 4.3458

G01 Z -1.0000 F 100.0000(Penetrate)
G01 X 30.3770 Y 4.3489 Z -1.0000 F 3500.0000
G01 X 30.3928 Y 4.3458 Z -1.0000
G01 X 30.3770 Y 4.3395 Z -1.0000
G01 X 30.3613 Y 4.3458 Z -1.0000
G01 X 30.3613 Y 4.3458 Z -1.0000
G00 Z 5.0000

(End cutting path id: path24282)


(Start cutting path id: path24282)
(Change tool to Default tool)

G00 Z 5.0000
G00 X 29.8961 Y 3.7366

G01 Z -1.0000 F 100.0000(Penetrate)
G02 X 29.9244 Y 3.7431 Z -1.0000 I 0.0283 J -0.0587 F 3500.0000
G02 X 29.9527 Y 3.7366 Z -1.0000 I -0.0000 J -0.0652
G01 X 29.9527 Y 3.7295 Z -1.0000
G02 X 29.9244 Y 3.7230 Z -1.0000 I -0.0283 J 0.0587
G02 X 29.8961 Y 3.7295 Z -1.0000 I 0.0000 J 0.0651
G01 X 29.8961 Y 3.7366 Z -1.0000
G01 X 29.8961 Y 3.7366 Z -1.0000
G00 Z 5.0000

(End cutting path id: path24282)


(Start cutting path id: path24282)
(Change tool to Default tool)

G00 Z 5.0000
G00 X 29.9621 Y 3.5768

G01 Z -1.0000 F 100.0000(Penetrate)
G03 X 30.7835 Y 3.6039 Z -1.0000 I -1.6938 J 63.7379 F 3500.0000
G03 X 31.0861 Y 3.6211 Z -1.0000 I -0.3425 J 8.6756
G02 X 31.2483 Y 3.6314 Z -1.0000 I 0.5601 J -7.5669
G02 X 31.3177 Y 3.6332 Z -1.0000 I 0.0694 J -1.3214
G03 X 31.3766 Y 3.6376 Z -1.0000 I -0.0000 J 0.4029
G01 X 31.3782 Y 3.6422 Z -1.0000
G01 X 31.3675 Y 3.6468 Z -1.0000
G03 X 31.2032 Y 3.6472 Z -1.0000 I -0.0899 J -3.0911
G02 X 30.9451 Y 3.6441 Z -1.0000 I -0.2579 J 10.6638
G02 X 30.8737 Y 3.6472 Z -1.0000 I 0.0000 J 0.8135
G03 X 30.6610 Y 3.6541 Z -1.0000 I -0.1707 J -2.0005
G03 X 30.1004 Y 3.6305 Z -1.0000 I 0.2777 J -13.2840
G02 X 30.0815 Y 3.6299 Z -1.0000 I -0.0176 J 0.2781
G02 X 29.7483 Y 3.6321 Z -1.0000 I 0.3821 J 84.8527
G01 X 29.7470 Y 3.6576 Z -1.0000
G02 X 30.3079 Y 3.6969 Z -1.0000 I 0.7146 J -6.1696
G03 X 30.9461 Y 3.7246 Z -1.0000 I -0.4255 J 17.1916
G01 X 30.9767 Y 3.7384 Z -1.0000
G01 X 30.5637 Y 3.7402 Z -1.0000
G01 X 30.2450 Y 3.7461 Z -1.0000
G02 X 30.3448 Y 3.7532 Z -1.0000 I 0.1571 J -1.4990
G01 X 30.3558 Y 3.7503 Z -1.0000
G01 X 30.3730 Y 3.7463 Z -1.0000
G03 X 30.8486 Y 3.7966 Z -1.0000 I -1.9126 J 20.3744
G02 X 31.1411 Y 3.8242 Z -1.0000 I 0.7541 J -6.4179
G01 X 31.1526 Y 3.8183 Z -1.0000
G01 X 31.1620 Y 3.8129 Z -1.0000
G03 X 31.2240 Y 3.8170 Z -1.0000 I 0.0068 J 0.3679
G02 X 31.2888 Y 3.8257 Z -1.0000 I 0.3146 J -2.1108
G02 X 31.3201 Y 3.8283 Z -1.0000 I 0.0564 J -0.4781
G03 X 31.8906 Y 3.8910 Z -1.0000 I -0.2581 J 4.9726
G01 X 31.9237 Y 3.9302 Z -1.0000
G01 X 31.9296 Y 3.9394 Z -1.0000
G02 X 31.9771 Y 3.9544 Z -1.0000 I 0.0851 J -0.1872
G03 X 32.0009 Y 3.9642 Z -1.0000 I -0.0115 J 0.0615
G01 X 31.9997 Y 3.9698 Z -1.0000
G03 X 31.9690 Y 3.9708 Z -1.0000 I -0.0186 J -0.1056
G03 X 31.9212 Y 3.9610 Z -1.0000 I 0.0307 J -0.2732
G02 X 31.8591 Y 3.9486 Z -1.0000 I -0.0975 J 0.3254
G02 X 31.6282 Y 3.9302 Z -1.0000 I -0.4748 J 4.5243
G03 X 31.5655 Y 3.9249 Z -1.0000 I 0.0572 J -1.0408
G03 X 31.4610 Y 3.9108 Z -1.0000 I 0.3247 J -2.8053
G02 X 31.3565 Y 3.8999 Z -1.0000 I -0.1674 J 1.0914
G02 X 31.2578 Y 3.8993 Z -1.0000 I -0.0549 J 0.9626
G03 X 31.1748 Y 3.8985 Z -1.0000 I -0.0346 J -0.7537
G01 X 31.1735 Y 3.8939 Z -1.0000
G01 X 31.1722 Y 3.8892 Z -1.0000
G02 X 31.0792 Y 3.8876 Z -1.0000 I -0.0623 J 0.9187
G03 X 30.9773 Y 3.8871 Z -1.0000 I -0.0447 J -1.4094
G01 X 30.9752 Y 3.8833 Z -1.0000
G01 X 30.9654 Y 3.8644 Z -1.0000
G02 X 30.0061 Y 3.8287 Z -1.0000 I -1.4156 J 25.1578
G03 X 29.3948 Y 3.8072 Z -1.0000 I 0.3250 J -17.8745
G03 X 29.3630 Y 3.7950 Z -1.0000 I 0.0029 J -0.0552
G01 X 29.3479 Y 3.7866 Z -1.0000
G01 X 29.3378 Y 3.7863 Z -1.0000
G03 X 29.2449 Y 3.7901 Z -1.0000 I -0.0548 J -0.1989
G03 X 29.2026 Y 3.7610 Z -1.0000 I 0.0118 J -0.0626
G01 X 29.1863 Y 3.7524 Z -1.0000
G02 X 29.1037 Y 3.7650 Z -1.0000 I 0.0150 J 0.3738
G03 X 29.0702 Y 3.7685 Z -1.0000 I -0.0275 J -0.1017
G01 X 29.0534 Y 3.7622 Z -1.0000
G01 X 29.0363 Y 3.7554 Z -1.0000
G02 X 28.9893 Y 3.7560 Z -1.0000 I -0.0207 J 0.2134
G02 X 28.9582 Y 3.7664 Z -1.0000 I 0.0104 J 0.0832
G01 X 28.9579 Y 3.7740 Z -1.0000
G01 X 28.9465 Y 3.7779 Z -1.0000
G02 X 28.9176 Y 3.7730 Z -1.0000 I -0.0367 J 0.1304
G02 X 28.7454 Y 3.7662 Z -1.0000 I -0.2759 J 4.7969
G01 X 28.6040 Y 3.7711 Z -1.0000
G01 X 28.6023 Y 3.7860 Z -1.0000
G03 X 28.0068 Y 3.7908 Z -1.0000 I -0.3952 J -11.9753
G02 X 27.5039 Y 3.7883 Z -1.0000 I -0.3601 J 21.4752
G02 X 27.2586 Y 3.7958 Z -1.0000 I 0.0338 J 5.0913
G03 X 26.7943 Y 3.8150 Z -1.0000 I -0.9511 J -17.3879
G01 X 26.7933 Y 3.8088 Z -1.0000
G03 X 27.0609 Y 3.7618 Z -1.0000 I 0.3602 J 1.2648
G03 X 27.8653 Y 3.7331 Z -1.0000 I 0.8133 J 11.5152
G02 X 28.1706 Y 3.7270 Z -1.0000 I -0.0062 J -7.9098
G01 X 28.1765 Y 3.7208 Z -1.0000
G01 X 28.1822 Y 3.7144 Z -1.0000
G03 X 28.2740 Y 3.7087 Z -1.0000 I 0.0918 J 0.7447
G02 X 28.3710 Y 3.7046 Z -1.0000 I -0.0000 J -1.1443
G02 X 28.4124 Y 3.6970 Z -1.0000 I -0.0185 J -0.2173
G03 X 28.4478 Y 3.6924 Z -1.0000 I 0.0332 J 0.1152
G01 X 28.4531 Y 3.6978 Z -1.0000
G01 X 28.4573 Y 3.7028 Z -1.0000
G01 X 28.4684 Y 3.7008 Z -1.0000
G01 X 28.4697 Y 3.6923 Z -1.0000
G02 X 28.4464 Y 3.6748 Z -1.0000 I -0.0499 J 0.0421
G01 X 28.4479 Y 3.6668 Z -1.0000
G03 X 28.6606 Y 3.6626 Z -1.0000 I 0.1619 J 2.8580
G02 X 28.9240 Y 3.6542 Z -1.0000 I 0.0468 J -2.6484
G01 X 28.9247 Y 3.6410 Z -1.0000
G02 X 28.7720 Y 3.6226 Z -1.0000 I -0.2294 J 1.2589
G02 X 28.4091 Y 3.6100 Z -1.0000 I -0.4285 J 7.1294
G03 X 28.0493 Y 3.5957 Z -1.0000 I 0.0537 J -5.9023
G01 X 28.0450 Y 3.5845 Z -1.0000
G01 X 28.0739 Y 3.5721 Z -1.0000
G03 X 29.0253 Y 3.5663 Z -1.0000 I 0.7121 J 38.3666
G03 X 29.7294 Y 3.5725 Z -1.0000 I -0.8440 J 136.1897
G03 X 29.9621 Y 3.5768 Z -1.0000 I -0.1767 J 15.5467
G01 X 29.9621 Y 3.5768 Z -1.0000
G00 Z 5.0000

(End cutting path id: path24282)


(Start cutting path id: path24282)
(Change tool to Default tool)

G00 Z 5.0000
G00 X 29.9670 Y 3.3783

G01 Z -1.0000 F 100.0000(Penetrate)
G02 X 30.1444 Y 3.3845 Z -1.0000 I 0.7297 J -18.2592 F 3500.0000
G02 X 30.2099 Y 3.3857 Z -1.0000 I 0.0802 J -2.6535
G03 X 30.2691 Y 3.3937 Z -1.0000 I -0.0012 J 0.2301
G01 X 30.2791 Y 3.4045 Z -1.0000
G01 X 30.3152 Y 3.4383 Z -1.0000
G02 X 30.3849 Y 3.4181 Z -1.0000 I 0.0116 J -0.0902
G01 X 30.3955 Y 3.4030 Z -1.0000
G01 X 30.3942 Y 3.3916 Z -1.0000
G01 X 30.4183 Y 3.3999 Z -1.0000
G02 X 30.4470 Y 3.4102 Z -1.0000 I 0.0361 J -0.0550
G01 X 30.4575 Y 3.4043 Z -1.0000
G01 X 30.4651 Y 3.3992 Z -1.0000
G01 X 30.4724 Y 3.4037 Z -1.0000
G01 X 30.4827 Y 3.4146 Z -1.0000
G01 X 30.5018 Y 3.4194 Z -1.0000
G03 X 30.5226 Y 3.4221 Z -1.0000 I -0.0000 J 0.0811
G01 X 30.5318 Y 3.4274 Z -1.0000
G01 X 30.5413 Y 3.4318 Z -1.0000
G02 X 30.6879 Y 3.4404 Z -1.0000 I 0.2467 J -2.9590
G03 X 30.9973 Y 3.4639 Z -1.0000 I -0.1263 J 3.7106
G01 X 31.0020 Y 3.4776 Z -1.0000
G01 X 30.9956 Y 3.4811 Z -1.0000
G03 X 30.9559 Y 3.4882 Z -1.0000 I -0.0929 J -0.4092
G01 X 30.9312 Y 3.5001 Z -1.0000
G01 X 30.9345 Y 3.5090 Z -1.0000
G03 X 30.9895 Y 3.5176 Z -1.0000 I -0.0118 J 0.2531
G01 X 31.0031 Y 3.5276 Z -1.0000
G01 X 31.0153 Y 3.5362 Z -1.0000
G02 X 31.1064 Y 3.5506 Z -1.0000 I 0.1625 J -0.7333
G03 X 31.2003 Y 3.5621 Z -1.0000 I -0.1749 J 1.8145
G03 X 31.2864 Y 3.5775 Z -1.0000 I -0.2224 J 1.4914
G02 X 31.3724 Y 3.5924 Z -1.0000 I 0.2673 J -1.2860
G02 X 31.4184 Y 3.5958 Z -1.0000 I 0.0491 J -0.3521
G03 X 31.4628 Y 3.6020 Z -1.0000 I -0.0015 J 0.1744
G03 X 31.4899 Y 3.6153 Z -1.0000 I -0.0209 J 0.0768
G01 X 31.4883 Y 3.6239 Z -1.0000
G03 X 31.4459 Y 3.6275 Z -1.0000 I -0.0310 J -0.1115
G02 X 31.2427 Y 3.6123 Z -1.0000 I -0.4309 J 4.3822
G02 X 30.6977 Y 3.5889 Z -1.0000 I -1.6009 J 30.9157
G03 X 30.4717 Y 3.5776 Z -1.0000 I 0.2511 J -7.2687
G03 X 30.4016 Y 3.5693 Z -1.0000 I 0.0453 J -0.6899
G02 X 30.3315 Y 3.5606 Z -1.0000 I -0.1343 J 0.7930
G02 X 30.1878 Y 3.5522 Z -1.0000 I -0.2675 J 3.3374
G03 X 29.9903 Y 3.5293 Z -1.0000 I 0.0470 J -1.2709
G01 X 29.9747 Y 3.5104 Z -1.0000
G01 X 29.9662 Y 3.5015 Z -1.0000
G02 X 29.5315 Y 3.4903 Z -1.0000 I -0.5015 J 11.0672
G03 X 29.2367 Y 3.4847 Z -1.0000 I 0.0680 J -11.3085
G01 X 29.2328 Y 3.4807 Z -1.0000
G01 X 29.2289 Y 3.4768 Z -1.0000
G02 X 28.6242 Y 3.4744 Z -1.0000 I -0.4904 J 47.8555
G01 X 28.0280 Y 3.4836 Z -1.0000
G01 X 28.0272 Y 3.4882 Z -1.0000
G03 X 27.9513 Y 3.5001 Z -1.0000 I -0.1418 J -0.6572
G02 X 27.8675 Y 3.5137 Z -1.0000 I 0.0653 J 0.6667
G01 X 27.8622 Y 3.5204 Z -1.0000
G01 X 27.8672 Y 3.5259 Z -1.0000
G02 X 27.9031 Y 3.5243 Z -1.0000 I 0.0124 J -0.1275
G03 X 27.9293 Y 3.5248 Z -1.0000 I 0.0119 J 0.0641
G01 X 27.9311 Y 3.5306 Z -1.0000
G01 X 27.9155 Y 3.5388 Z -1.0000
G03 X 27.7613 Y 3.5556 Z -1.0000 I -0.2986 J -2.0197
G01 X 27.7082 Y 3.5685 Z -1.0000
G03 X 27.8069 Y 3.5753 Z -1.0000 I -0.0167 J 0.9662
G01 X 27.8119 Y 3.5810 Z -1.0000
G01 X 27.8067 Y 3.5866 Z -1.0000
G03 X 27.5259 Y 3.6017 Z -1.0000 I -0.5467 J -7.5629
G02 X 27.2398 Y 3.6118 Z -1.0000 I 12.9528 J 370.5345
G02 X 27.1329 Y 3.6157 Z -1.0000 I 2.2569 J 63.1649
G03 X 26.7672 Y 3.6241 Z -1.0000 I -0.4773 J -12.8015
G01 X 26.7650 Y 3.6189 Z -1.0000
G01 X 26.7763 Y 3.6135 Z -1.0000
G03 X 26.9351 Y 3.6007 Z -1.0000 I 0.3283 J 3.0602
G01 X 27.0901 Y 3.5862 Z -1.0000
G01 X 27.0835 Y 3.5832 Z -1.0000
G02 X 26.9236 Y 3.5765 Z -1.0000 I -0.2920 J 5.0765
G03 X 26.7672 Y 3.5661 Z -1.0000 I 0.0502 J -1.9351
G01 X 26.7581 Y 3.5588 Z -1.0000
G01 X 26.7233 Y 3.5355 Z -1.0000
G01 X 26.6849 Y 3.5639 Z -1.0000
G01 X 26.6545 Y 3.5882 Z -1.0000
G03 X 26.3784 Y 3.6084 Z -1.0000 I -0.2796 J -1.9258
G02 X 26.1716 Y 3.6137 Z -1.0000 I 0.0077 J 4.2972
G02 X 26.1207 Y 3.6213 Z -1.0000 I 0.0132 J 0.2643
G03 X 26.0698 Y 3.6293 Z -1.0000 I -0.0707 J -0.2836
G03 X 25.8692 Y 3.6384 Z -1.0000 I -0.3012 J -4.4272
G01 X 25.7372 Y 3.6378 Z -1.0000
G02 X 25.8061 Y 3.6306 Z -1.0000 I -0.0951 J -1.2469
G02 X 26.0138 Y 3.6011 Z -1.0000 I -1.4463 J -10.9330
G03 X 26.6172 Y 3.5135 Z -1.0000 I 7.2276 J 47.6497
G03 X 26.7242 Y 3.5025 Z -1.0000 I 0.2066 J 1.4887
G02 X 26.8248 Y 3.4952 Z -1.0000 I -0.5836 J -8.7273
G02 X 27.2838 Y 3.4585 Z -1.0000 I -12.9863 J -165.5165
G03 X 27.7430 Y 3.4253 Z -1.0000 I 2.1371 J 26.3154
G03 X 27.9880 Y 3.4137 Z -1.0000 I 0.4747 J 7.4550
G02 X 28.2331 Y 3.4057 Z -1.0000 I -2.2516 J -72.2985
G02 X 28.5978 Y 3.3926 Z -1.0000 I -4.5749 J -132.4564
G03 X 28.9624 Y 3.3879 Z -1.0000 I 0.2766 J 7.4178
G03 X 29.3407 Y 3.4014 Z -1.0000 I -0.0948 J 8.0060
G02 X 29.7179 Y 3.4178 Z -1.0000 I 0.7148 J -12.0527
G02 X 29.7431 Y 3.4126 Z -1.0000 I 0.0016 J -0.0563
G01 X 29.7433 Y 3.4058 Z -1.0000
G02 X 29.7138 Y 3.3972 Z -1.0000 I -0.0356 J 0.0677
G03 X 29.6647 Y 3.3888 Z -1.0000 I 0.0232 J -0.2840
G01 X 29.6603 Y 3.3831 Z -1.0000
G01 X 29.6730 Y 3.3666 Z -1.0000
G03 X 29.7343 Y 3.3630 Z -1.0000 I 0.0392 J 0.1438
G02 X 29.7898 Y 3.3690 Z -1.0000 I 0.0986 J -0.6513
G02 X 29.9670 Y 3.3783 Z -1.0000 I 0.4510 J -6.8766
G01 X 29.9670 Y 3.3783 Z -1.0000
G00 Z 5.0000

(End cutting path id: path24282)


(Start cutting path id: path24282)
(Change tool to Default tool)

G00 Z 5.0000
G00 X 30.4021 Y 3.1428

G01 Z -1.0000 F 100.0000(Penetrate)
G01 X 30.3952 Y 3.1496 Z -1.0000 F 3500.0000
G01 X 30.3982 Y 3.1541 Z -1.0000
G02 X 30.4234 Y 3.1508 Z -1.0000 I 0.0033 J -0.0716
G01 X 30.4336 Y 3.1428 Z -1.0000
G01 X 30.4375 Y 3.1315 Z -1.0000
G03 X 30.4336 Y 3.1327 Z -1.0000 I -0.1896 J -0.5780
G03 X 30.4021 Y 3.1428 Z -1.0000 I -7.3230 J -22.8287
G01 X 30.4021 Y 3.1428 Z -1.0000
G00 Z 5.0000

(End cutting path id: path24282)


(Start cutting path id: path24282)
(Change tool to Default tool)

G00 Z 5.0000
G00 X 30.2890 Y 2.7397

G01 Z -1.0000 F 100.0000(Penetrate)
G01 X 30.2920 Y 2.7499 Z -1.0000 F 3500.0000
G01 X 30.3016 Y 2.7593 Z -1.0000
G01 X 30.3094 Y 2.7585 Z -1.0000
G01 X 30.3142 Y 2.7475 Z -1.0000
G01 X 30.3097 Y 2.7323 Z -1.0000
G01 X 30.3016 Y 2.7279 Z -1.0000
G01 X 30.2926 Y 2.7314 Z -1.0000
G01 X 30.2890 Y 2.7397 Z -1.0000
G01 X 30.2890 Y 2.7397 Z -1.0000
G00 Z 5.0000

(End cutting path id: path24282)


(Start cutting path id: path24282)
(Change tool to Default tool)

G00 Z 5.0000
G00 X 30.2694 Y 2.6889

G01 Z -1.0000 F 100.0000(Penetrate)
G01 X 30.2786 Y 2.6949 Z -1.0000 F 3500.0000
G02 X 30.3016 Y 2.6937 Z -1.0000 I 0.0084 J -0.0572
G01 X 30.3059 Y 2.6849 Z -1.0000
G01 X 30.2946 Y 2.6775 Z -1.0000
G02 X 30.2714 Y 2.6825 Z -1.0000 I 0.0000 J 0.0563
G01 X 30.2695 Y 2.6889 Z -1.0000
G01 X 30.2694 Y 2.6889 Z -1.0000
G00 Z 5.0000

(End cutting path id: path24282)


(Start cutting path id: path24282)
(Change tool to Default tool)

G00 Z 5.0000
G00 X 30.1633 Y 2.7837

G01 Z -1.0000 F 100.0000(Penetrate)
G01 X 30.1614 Y 2.7882 Z -1.0000 F 3500.0000
G03 X 30.1507 Y 2.7970 Z -1.0000 I -0.0409 J -0.0392
G01 X 30.1421 Y 2.7976 Z -1.0000
G01 X 30.1381 Y 2.7915 Z -1.0000
G01 X 30.1419 Y 2.7819 Z -1.0000
G01 X 30.1507 Y 2.7782 Z -1.0000
G01 X 30.1611 Y 2.7803 Z -1.0000
G01 X 30.1633 Y 2.7837 Z -1.0000
G01 X 30.1633 Y 2.7837 Z -1.0000
G00 Z 5.0000

(End cutting path id: path24282)


(Start cutting path id: path24282)
(Change tool to Default tool)

G00 Z 5.0000
G00 X 29.9906 Y 2.7989

G01 Z -1.0000 F 100.0000(Penetrate)
G01 X 29.9750 Y 2.8021 Z -1.0000 F 3500.0000
G03 X 29.9529 Y 2.7994 Z -1.0000 I -0.0013 J -0.0811
G01 X 29.9684 Y 2.7931 Z -1.0000
G01 X 29.9906 Y 2.7989 Z -1.0000
G01 X 29.9906 Y 2.7989 Z -1.0000
G00 Z 5.0000

(End cutting path id: path24282)


(Start cutting path id: path24282)
(Change tool to Default tool)

G00 Z 5.0000
G00 X 29.7106 Y 2.7278

G01 Z -1.0000 F 100.0000(Penetrate)
G01 X 29.7215 Y 2.7475 Z -1.0000 F 3500.0000
G01 X 29.7391 Y 2.7454 Z -1.0000
G01 X 29.7447 Y 2.7181 Z -1.0000
G01 X 29.7218 Y 2.7026 Z -1.0000
G01 X 29.7150 Y 2.7071 Z -1.0000
G02 X 29.7106 Y 2.7278 Z -1.0000 I 0.0465 J 0.0207
G01 X 29.7106 Y 2.7278 Z -1.0000
G00 Z 5.0000

(End cutting path id: path24282)


(Start cutting path id: path24282)
(Change tool to Default tool)

G00 Z 5.0000
G00 X 29.6786 Y 2.7144

G01 Z -1.0000 F 100.0000(Penetrate)
G01 X 29.6801 Y 2.7247 Z -1.0000 F 3500.0000
G01 X 29.6731 Y 2.7340 Z -1.0000
G01 X 29.6652 Y 2.7333 Z -1.0000
G01 X 29.6603 Y 2.7223 Z -1.0000
G01 X 29.6678 Y 2.7110 Z -1.0000
G01 X 29.6787 Y 2.7144 Z -1.0000
G01 X 29.6786 Y 2.7144 Z -1.0000
G00 Z 5.0000

(End cutting path id: path24282)


(Start cutting path id: path24282)
(Change tool to Default tool)

G00 Z 5.0000
G00 X 29.5772 Y 2.7100

G01 Z -1.0000 F 100.0000(Penetrate)
G03 X 29.5841 Y 2.7300 Z -1.0000 I -0.2655 J 0.1019 F 3500.0000
G01 X 29.5848 Y 2.7351 Z -1.0000
G01 X 29.5869 Y 2.7383 Z -1.0000
G01 X 29.5974 Y 2.7404 Z -1.0000
G01 X 29.6052 Y 2.7356 Z -1.0000
G01 X 29.6100 Y 2.7153 Z -1.0000
G01 X 29.6034 Y 2.6967 Z -1.0000
G01 X 29.5897 Y 2.6901 Z -1.0000
G01 X 29.5785 Y 2.6963 Z -1.0000
G01 X 29.5772 Y 2.7100 Z -1.0000
G01 X 29.5772 Y 2.7100 Z -1.0000
G00 Z 5.0000

(End cutting path id: path24282)


(Start cutting path id: path24282)
(Change tool to Default tool)

G00 Z 5.0000
G00 X 29.4756 Y 2.6704

G01 Z -1.0000 F 100.0000(Penetrate)
G01 X 29.4771 Y 2.6844 Z -1.0000 F 3500.0000
G01 X 29.4930 Y 2.6832 Z -1.0000
G01 X 29.5134 Y 2.6721 Z -1.0000
G03 X 29.5449 Y 2.6722 Z -1.0000 I 0.0155 J 0.0737
G01 X 29.5591 Y 2.6710 Z -1.0000
G01 X 29.5597 Y 2.6661 Z -1.0000
G02 X 29.5127 Y 2.6524 Z -1.0000 I -0.0433 J 0.0609
G02 X 29.4756 Y 2.6703 Z -1.0000 I 0.0026 J 0.0528
G01 X 29.4756 Y 2.6704 Z -1.0000
G00 Z 5.0000

(End cutting path id: path24282)


(Start cutting path id: path24282)
(Change tool to Default tool)

G00 Z 5.0000
G00 X 29.5031 Y 2.6272

G01 Z -1.0000 F 100.0000(Penetrate)
G01 X 29.5039 Y 2.6350 Z -1.0000 F 3500.0000
G01 X 29.5150 Y 2.6398 Z -1.0000
G01 X 29.5301 Y 2.6353 Z -1.0000
G01 X 29.5346 Y 2.6272 Z -1.0000
G01 X 29.5310 Y 2.6182 Z -1.0000
G01 X 29.5227 Y 2.6146 Z -1.0000
G01 X 29.5125 Y 2.6176 Z -1.0000
G01 X 29.5031 Y 2.6272 Z -1.0000
G01 X 29.5031 Y 2.6272 Z -1.0000
G00 Z 5.0000

(End cutting path id: path24282)


(Start cutting path id: path24282)
(Change tool to Default tool)

G00 Z 5.0000
G00 X 29.4564 Y 2.6146

G01 Z -1.0000 F 100.0000(Penetrate)
G02 X 29.4586 Y 2.6457 Z -1.0000 I 0.0714 J 0.0105 F 3500.0000
G01 X 29.4676 Y 2.6524 Z -1.0000
G01 X 29.4785 Y 2.6465 Z -1.0000
G01 X 29.4843 Y 2.6272 Z -1.0000
G01 X 29.4961 Y 2.6139 Z -1.0000
G03 X 29.6921 Y 2.6021 Z -1.0000 I 0.1961 J 1.6202
G03 X 29.8939 Y 2.6109 Z -1.0000 I -0.0000 J 2.3169
G01 X 29.9072 Y 2.6209 Z -1.0000
G01 X 29.9177 Y 2.6350 Z -1.0000
G01 X 29.9316 Y 2.6398 Z -1.0000
G01 X 29.9409 Y 2.6344 Z -1.0000
G01 X 29.9418 Y 2.6218 Z -1.0000
G01 X 29.9472 Y 2.6120 Z -1.0000
G03 X 30.0521 Y 2.5998 Z -1.0000 I 0.1275 J 0.6390
G03 X 30.3247 Y 2.6050 Z -1.0000 I 0.0880 J 2.5267
G01 X 30.3413 Y 2.6209 Z -1.0000
G01 X 30.3378 Y 2.6308 Z -1.0000
G03 X 30.3128 Y 2.6490 Z -1.0000 I -0.0726 J -0.0736
G01 X 30.3110 Y 2.6577 Z -1.0000
G01 X 30.3261 Y 2.6647 Z -1.0000
G03 X 30.3532 Y 2.6716 Z -1.0000 I -0.0002 J 0.0575
G01 X 30.3544 Y 2.6800 Z -1.0000
G02 X 30.3421 Y 2.6962 Z -1.0000 I 0.0539 J 0.0539
G01 X 30.3393 Y 2.7066 Z -1.0000
G01 X 30.3633 Y 2.6884 Z -1.0000
G02 X 30.3784 Y 2.6580 Z -1.0000 I -0.0607 J -0.0492
G01 X 30.3758 Y 2.6376 Z -1.0000
G03 X 30.3658 Y 2.6159 Z -1.0000 I 0.1762 J -0.0949
G01 X 30.3645 Y 2.6088 Z -1.0000
G01 X 30.3681 Y 2.6050 Z -1.0000
G03 X 30.6411 Y 2.6035 Z -1.0000 I 0.1936 J 10.0562
G03 X 30.9125 Y 2.6109 Z -1.0000 I -0.0544 J 6.8958
G01 X 30.9177 Y 2.6164 Z -1.0000
G01 X 30.9212 Y 2.6237 Z -1.0000
G01 X 30.9310 Y 2.6272 Z -1.0000
G01 X 30.9373 Y 2.6233 Z -1.0000
G01 X 30.9369 Y 2.6151 Z -1.0000
G01 X 30.9397 Y 2.6092 Z -1.0000
G03 X 30.9897 Y 2.6068 Z -1.0000 I 0.0357 J 0.2268
G03 X 31.0429 Y 2.6184 Z -1.0000 I -0.0109 J 0.1788
G01 X 31.0539 Y 2.6315 Z -1.0000
G01 X 31.0482 Y 2.6443 Z -1.0000
G03 X 31.0193 Y 2.6523 Z -1.0000 I -0.0289 J -0.0478
G03 X 30.9857 Y 2.6473 Z -1.0000 I -0.0000 J -0.1132
G01 X 30.9806 Y 2.6403 Z -1.0000
G01 X 30.9766 Y 2.6381 Z -1.0000
G02 X 30.9498 Y 2.6592 Z -1.0000 I 0.0756 J 0.1236
G03 X 30.9040 Y 2.6839 Z -1.0000 I -0.0643 J -0.0643
G01 X 30.8675 Y 2.6763 Z -1.0000
G01 X 30.8681 Y 2.6715 Z -1.0000
G01 X 30.8832 Y 2.6704 Z -1.0000
G02 X 30.9128 Y 2.6717 Z -1.0000 I 0.0187 J -0.0869
G01 X 30.9178 Y 2.6661 Z -1.0000
G01 X 30.9219 Y 2.6574 Z -1.0000
G01 X 30.9398 Y 2.6484 Z -1.0000
G01 X 30.9178 Y 2.6414 Z -1.0000
G02 X 30.8603 Y 2.6592 Z -1.0000 I -0.0027 J 0.0929
G01 X 30.8538 Y 2.6880 Z -1.0000
G03 X 30.8641 Y 2.7148 Z -1.0000 I -0.1050 J 0.0560
G01 X 30.8645 Y 2.7305 Z -1.0000
G01 X 30.8688 Y 2.7397 Z -1.0000
G01 X 30.8895 Y 2.7437 Z -1.0000
G03 X 30.9128 Y 2.7462 Z -1.0000 I 0.0057 J 0.0557
G01 X 30.9178 Y 2.7531 Z -1.0000
G01 X 30.9221 Y 2.7611 Z -1.0000
G01 X 30.9373 Y 2.7655 Z -1.0000
G01 X 30.9480 Y 2.7705 Z -1.0000
G01 X 30.9487 Y 2.7789 Z -1.0000
G01 X 30.9383 Y 2.7864 Z -1.0000
G01 X 30.9221 Y 2.7853 Z -1.0000
G01 X 30.9129 Y 2.7858 Z -1.0000
G01 X 30.9115 Y 2.7907 Z -1.0000
G01 X 30.8752 Y 2.8556 Z -1.0000
G03 X 30.6136 Y 2.7893 Z -1.0000 I 0.0026 J -0.5598
G01 X 30.5963 Y 2.7893 Z -1.0000
G01 X 30.5929 Y 2.7965 Z -1.0000
G03 X 30.4843 Y 2.8032 Z -1.0000 I -0.1086 J -0.8810
G03 X 30.3714 Y 2.7913 Z -1.0000 I 0.0000 J -0.5429
G01 X 30.3511 Y 2.7749 Z -1.0000
G01 X 30.3465 Y 2.7719 Z -1.0000
G01 X 30.3440 Y 2.7749 Z -1.0000
G01 X 30.3350 Y 2.7910 Z -1.0000
G03 X 30.2721 Y 2.8017 Z -1.0000 I -0.0597 J -0.1601
G01 X 30.2168 Y 2.7945 Z -1.0000
G01 X 30.2302 Y 2.7852 Z -1.0000
G01 X 30.2305 Y 2.7750 Z -1.0000
G01 X 30.2321 Y 2.7696 Z -1.0000
G01 X 30.2429 Y 2.7693 Z -1.0000
G01 X 30.2593 Y 2.7706 Z -1.0000
G01 X 30.2638 Y 2.7651 Z -1.0000
G01 X 30.2597 Y 2.7570 Z -1.0000
G01 X 30.2465 Y 2.7529 Z -1.0000
G01 X 30.2357 Y 2.7465 Z -1.0000
G03 X 30.2293 Y 2.7217 Z -1.0000 I 0.0447 J -0.0248
G01 X 30.2348 Y 2.7004 Z -1.0000
G01 X 30.2422 Y 2.6985 Z -1.0000
G01 X 30.2461 Y 2.6975 Z -1.0000
G01 X 30.2460 Y 2.6918 Z -1.0000
G01 X 30.2354 Y 2.6832 Z -1.0000
G01 X 30.2252 Y 2.6843 Z -1.0000
G01 X 30.2174 Y 2.6846 Z -1.0000
G01 X 30.2135 Y 2.6782 Z -1.0000
G01 X 30.2180 Y 2.6694 Z -1.0000
G01 X 30.2324 Y 2.6649 Z -1.0000
G01 X 30.2473 Y 2.6609 Z -1.0000
G01 X 30.2512 Y 2.6540 Z -1.0000
G01 X 30.2466 Y 2.6487 Z -1.0000
G02 X 30.2202 Y 2.6491 Z -1.0000 I -0.0119 J 0.0753
G02 X 30.1959 Y 2.6596 Z -1.0000 I 0.0118 J 0.0611
G01 X 30.1919 Y 2.6694 Z -1.0000
G01 X 30.1888 Y 2.6778 Z -1.0000
G01 X 30.1780 Y 2.6803 Z -1.0000
G01 X 30.1697 Y 2.6827 Z -1.0000
G01 X 30.1690 Y 2.6892 Z -1.0000
G01 X 30.1785 Y 2.6958 Z -1.0000
G01 X 30.1951 Y 2.6945 Z -1.0000
G01 X 30.2087 Y 2.6944 Z -1.0000
G01 X 30.2135 Y 2.7013 Z -1.0000
G01 X 30.1964 Y 2.7179 Z -1.0000
G03 X 30.1513 Y 2.6995 Z -1.0000 I 0.0020 J -0.0691
G01 X 30.1432 Y 2.6995 Z -1.0000
G01 X 30.1454 Y 2.7113 Z -1.0000
G01 X 30.1409 Y 2.7152 Z -1.0000
G01 X 30.1221 Y 2.7045 Z -1.0000
G01 X 30.1225 Y 2.6843 Z -1.0000
G01 X 30.1101 Y 2.6935 Z -1.0000
G01 X 30.0786 Y 2.7040 Z -1.0000
G01 X 30.0696 Y 2.6860 Z -1.0000
G01 X 30.0604 Y 2.6906 Z -1.0000
G03 X 29.9985 Y 2.7210 Z -1.0000 I -0.0664 J -0.0569
G03 X 29.9465 Y 2.6963 Z -1.0000 I -0.0031 J -0.0605
G01 X 29.9408 Y 2.6945 Z -1.0000
G01 X 29.9371 Y 2.6994 Z -1.0000
G01 X 29.9311 Y 2.7091 Z -1.0000
G03 X 29.9055 Y 2.7151 Z -1.0000 I -0.0255 J -0.0512
G01 X 29.8822 Y 2.7020 Z -1.0000
G01 X 29.8866 Y 2.6837 Z -1.0000
G01 X 29.8948 Y 2.6839 Z -1.0000
G01 X 29.8994 Y 2.6924 Z -1.0000
G01 X 29.9034 Y 2.6957 Z -1.0000
G01 X 29.9118 Y 2.6900 Z -1.0000
G01 X 29.9180 Y 2.6622 Z -1.0000
G01 X 29.9066 Y 2.6523 Z -1.0000
G01 X 29.8918 Y 2.6481 Z -1.0000
G01 X 29.8842 Y 2.6385 Z -1.0000
G01 X 29.8754 Y 2.6298 Z -1.0000
G02 X 29.8184 Y 2.6178 Z -1.0000 I -0.0911 J 0.2900
G02 X 29.7684 Y 2.6180 Z -1.0000 I -0.0240 J 0.2116
G01 X 29.7654 Y 2.6243 Z -1.0000
G01 X 29.7665 Y 2.6352 Z -1.0000
G01 X 29.7579 Y 2.6440 Z -1.0000
G01 X 29.7697 Y 2.6514 Z -1.0000
G03 X 29.7947 Y 2.6566 Z -1.0000 I -0.0027 J 0.0754
G01 X 29.8054 Y 2.6656 Z -1.0000
G01 X 29.8148 Y 2.6710 Z -1.0000
G01 X 29.8285 Y 2.6663 Z -1.0000
G01 X 29.8441 Y 2.6601 Z -1.0000
G01 X 29.8602 Y 2.6641 Z -1.0000
G01 X 29.8669 Y 2.6744 Z -1.0000
G01 X 29.8627 Y 2.6831 Z -1.0000
G01 X 29.8546 Y 2.6933 Z -1.0000
G01 X 29.8558 Y 2.7035 Z -1.0000
G01 X 29.8558 Y 2.7112 Z -1.0000
G01 X 29.8484 Y 2.7152 Z -1.0000
G01 X 29.8410 Y 2.7102 Z -1.0000
G01 X 29.8410 Y 2.6962 Z -1.0000
G01 X 29.8373 Y 2.6870 Z -1.0000
G01 X 29.8172 Y 2.6850 Z -1.0000
G03 X 29.7922 Y 2.6850 Z -1.0000 I -0.0126 J -0.0505
G01 X 29.7861 Y 2.6773 Z -1.0000
G01 X 29.7813 Y 2.6721 Z -1.0000
G01 X 29.7692 Y 2.6758 Z -1.0000
G01 X 29.7526 Y 2.6844 Z -1.0000
G01 X 29.7449 Y 2.6824 Z -1.0000
G01 X 29.7444 Y 2.7014 Z -1.0000
G01 X 29.7561 Y 2.7220 Z -1.0000
G01 X 29.7719 Y 2.7292 Z -1.0000
G01 X 29.7742 Y 2.7324 Z -1.0000
G01 X 29.7704 Y 2.7364 Z -1.0000
G01 X 29.7537 Y 2.7597 Z -1.0000
G01 X 29.7735 Y 2.7781 Z -1.0000
G01 X 29.7938 Y 2.7732 Z -1.0000
G01 X 29.7986 Y 2.7655 Z -1.0000
G01 X 29.8034 Y 2.7577 Z -1.0000
G01 X 29.8238 Y 2.7529 Z -1.0000
G03 X 29.8448 Y 2.7571 Z -1.0000 I -0.0000 J 0.0548
G01 X 29.8489 Y 2.7633 Z -1.0000
G01 X 29.8534 Y 2.7685 Z -1.0000
G02 X 29.8866 Y 2.7682 Z -1.0000 I 0.0157 J -0.1212
G03 X 29.9170 Y 2.7712 Z -1.0000 I 0.0092 J 0.0624
G01 X 29.9243 Y 2.7816 Z -1.0000
G01 X 29.9157 Y 2.7919 Z -1.0000
G03 X 29.8171 Y 2.8014 Z -1.0000 I -0.1034 J -0.5603
G02 X 29.7107 Y 2.8056 Z -1.0000 I 0.0141 J 1.7030
G01 X 29.6975 Y 2.8099 Z -1.0000
G01 X 29.6755 Y 2.8007 Z -1.0000
G03 X 29.6837 Y 2.7510 Z -1.0000 I 0.0639 J -0.0150
G01 X 29.6907 Y 2.7270 Z -1.0000
G02 X 29.6842 Y 2.7003 Z -1.0000 I -0.0556 J -0.0005
G01 X 29.6696 Y 2.6926 Z -1.0000
G01 X 29.6529 Y 2.7037 Z -1.0000
G02 X 29.6354 Y 2.7613 Z -1.0000 I 0.1257 J 0.0696
G01 X 29.6477 Y 2.7655 Z -1.0000
G01 X 29.6548 Y 2.7640 Z -1.0000
G01 X 29.6601 Y 2.7736 Z -1.0000
G01 X 29.6518 Y 2.7917 Z -1.0000
G01 X 29.6304 Y 2.7988 Z -1.0000
G01 X 29.6095 Y 2.7912 Z -1.0000
G01 X 29.6066 Y 2.7813 Z -1.0000
G01 X 29.6061 Y 2.7701 Z -1.0000
G01 X 29.5987 Y 2.7655 Z -1.0000
G01 X 29.5886 Y 2.7694 Z -1.0000
G01 X 29.5848 Y 2.7781 Z -1.0000
G01 X 29.5811 Y 2.7870 Z -1.0000
G01 X 29.5722 Y 2.7907 Z -1.0000
G01 X 29.5640 Y 2.7863 Z -1.0000
G01 X 29.5597 Y 2.7718 Z -1.0000
G01 X 29.5475 Y 2.7583 Z -1.0000
G01 X 29.5303 Y 2.7687 Z -1.0000
G01 X 29.5232 Y 2.7404 Z -1.0000
G03 X 29.5282 Y 2.7157 Z -1.0000 I 0.0573 J -0.0010
G01 X 29.5345 Y 2.7153 Z -1.0000
G01 X 29.5422 Y 2.7185 Z -1.0000
G01 X 29.5469 Y 2.7129 Z -1.0000
G01 X 29.5335 Y 2.6812 Z -1.0000
G01 X 29.5139 Y 2.6814 Z -1.0000
G01 X 29.5094 Y 2.6887 Z -1.0000
G02 X 29.5041 Y 2.7110 Z -1.0000 I 0.1270 J 0.0420
G03 X 29.4978 Y 2.7291 Z -1.0000 I -0.0507 J -0.0076
G01 X 29.4925 Y 2.7310 Z -1.0000
G01 X 29.4841 Y 2.7287 Z -1.0000
G02 X 29.4737 Y 2.7279 Z -1.0000 I -0.0104 J 0.0632
G01 X 29.4378 Y 2.7005 Z -1.0000
G03 X 29.4397 Y 2.6039 Z -1.0000 I 0.1641 J -0.0451
G01 X 29.4498 Y 2.6003 Z -1.0000
G01 X 29.4564 Y 2.6147 Z -1.0000
G01 X 29.4564 Y 2.6146 Z -1.0000
G00 Z 5.0000

(End cutting path id: path24282)


(Start cutting path id: path24282)
(Change tool to Default tool)

G00 Z 5.0000
G00 X 29.5094 Y 2.5392

G01 Z -1.0000 F 100.0000(Penetrate)
G01 X 29.5056 Y 2.5480 Z -1.0000 F 3500.0000
G01 X 29.4961 Y 2.5518 Z -1.0000
G01 X 29.4900 Y 2.5477 Z -1.0000
G01 X 29.4906 Y 2.5392 Z -1.0000
G03 X 29.4994 Y 2.5284 Z -1.0000 I 0.0464 J 0.0289
G01 X 29.5039 Y 2.5266 Z -1.0000
G01 X 29.5073 Y 2.5288 Z -1.0000
G01 X 29.5094 Y 2.5392 Z -1.0000
G01 X 29.5094 Y 2.5392 Z -1.0000
G00 Z 5.0000

(End cutting path id: path24282)


(Start cutting path id: path24282)
(Change tool to Default tool)

G00 Z 5.0000
G00 X 29.3410 Y 2.6241

G01 Z -1.0000 F 100.0000(Penetrate)
G01 X 29.3524 Y 2.6298 Z -1.0000 F 3500.0000
G01 X 29.3581 Y 2.6241 Z -1.0000
G01 X 29.3660 Y 2.6097 Z -1.0000
G01 X 29.3908 Y 2.6021 Z -1.0000
G01 X 29.4112 Y 2.6108 Z -1.0000
G01 X 29.4151 Y 2.6274 Z -1.0000
G02 X 29.4135 Y 2.6521 Z -1.0000 I 0.0491 J 0.0156
G02 X 29.4268 Y 2.6922 Z -1.0000 I 0.1468 J -0.0265
G03 X 29.4384 Y 2.7295 Z -1.0000 I -0.1090 J 0.0544
G01 X 29.4326 Y 2.7333 Z -1.0000
G01 X 29.4271 Y 2.7356 Z -1.0000
G01 X 29.4277 Y 2.7533 Z -1.0000
G01 X 29.4254 Y 2.7639 Z -1.0000
G01 X 29.4177 Y 2.7643 Z -1.0000
G01 X 29.4078 Y 2.7461 Z -1.0000
G01 X 29.4118 Y 2.7307 Z -1.0000
G01 X 29.4097 Y 2.7144 Z -1.0000
G01 X 29.3902 Y 2.7150 Z -1.0000
G01 X 29.3756 Y 2.7211 Z -1.0000
G01 X 29.3710 Y 2.7168 Z -1.0000
G01 X 29.3749 Y 2.7066 Z -1.0000
G01 X 29.3836 Y 2.7027 Z -1.0000
G01 X 29.3913 Y 2.6979 Z -1.0000
G01 X 29.3962 Y 2.6776 Z -1.0000
G01 X 29.3913 Y 2.6572 Z -1.0000
G01 X 29.3836 Y 2.6524 Z -1.0000
G01 X 29.3753 Y 2.6557 Z -1.0000
G01 X 29.3735 Y 2.6618 Z -1.0000
G03 X 29.3685 Y 2.7141 Z -1.0000 I -0.0737 J 0.0193
G01 X 29.3450 Y 2.7210 Z -1.0000
G01 X 29.3378 Y 2.7218 Z -1.0000
G01 X 29.3333 Y 2.7324 Z -1.0000
G01 X 29.3270 Y 2.7372 Z -1.0000
G03 X 29.3024 Y 2.7237 Z -1.0000 I 0.0170 J -0.0606
G03 X 29.2858 Y 2.7001 Z -1.0000 I 0.0410 J -0.0464
G01 X 29.2900 Y 2.6923 Z -1.0000
G01 X 29.3018 Y 2.6854 Z -1.0000
G01 X 29.3024 Y 2.6784 Z -1.0000
G01 X 29.3044 Y 2.6741 Z -1.0000
G03 X 29.3274 Y 2.6745 Z -1.0000 I 0.0104 J 0.0677
G02 X 29.3533 Y 2.6742 Z -1.0000 I 0.0123 J -0.0639
G01 X 29.3585 Y 2.6679 Z -1.0000
G01 X 29.3352 Y 2.6351 Z -1.0000
G02 X 29.2548 Y 2.6314 Z -1.0000 I -0.0464 J 0.1314
G01 X 29.2485 Y 2.6280 Z -1.0000
G01 X 29.2508 Y 2.6203 Z -1.0000
G03 X 29.3029 Y 2.6042 Z -1.0000 I 0.0487 J 0.0651
G03 X 29.3409 Y 2.6241 Z -1.0000 I -0.0021 J 0.0504
G01 X 29.3410 Y 2.6241 Z -1.0000
G00 Z 5.0000

(End cutting path id: path24282)


(Start cutting path id: path24282)
(Change tool to Default tool)

G00 Z 5.0000
G00 X 29.2328 Y 2.6776

G01 Z -1.0000 F 100.0000(Penetrate)
G01 X 29.2290 Y 2.6863 Z -1.0000 F 3500.0000
G01 X 29.2195 Y 2.6901 Z -1.0000
G01 X 29.2133 Y 2.6861 Z -1.0000
G01 X 29.2140 Y 2.6776 Z -1.0000
G03 X 29.2227 Y 2.6668 Z -1.0000 I 0.0464 J 0.0289
G01 X 29.2273 Y 2.6650 Z -1.0000
G01 X 29.2306 Y 2.6672 Z -1.0000
G01 X 29.2328 Y 2.6776 Z -1.0000
G01 X 29.2328 Y 2.6776 Z -1.0000
G00 Z 5.0000

(End cutting path id: path24282)


(Start cutting path id: path24282)
(Change tool to Default tool)

G00 Z 5.0000
G00 X 29.4025 Y 2.7782

G01 Z -1.0000 F 100.0000(Penetrate)
G01 X 29.4009 Y 2.7855 Z -1.0000 F 3500.0000
G01 X 29.3837 Y 2.7907 Z -1.0000
G01 X 29.3664 Y 2.7855 Z -1.0000
G01 X 29.3648 Y 2.7782 Z -1.0000
G01 X 29.3742 Y 2.7685 Z -1.0000
G01 X 29.3837 Y 2.7656 Z -1.0000
G01 X 29.3932 Y 2.7685 Z -1.0000
G01 X 29.4025 Y 2.7782 Z -1.0000
G01 X 29.4025 Y 2.7782 Z -1.0000
G00 Z 5.0000

(End cutting path id: path24282)


(Start cutting path id: path24282)
(Change tool to Default tool)

G00 Z 5.0000
G00 X 28.6103 Y 2.3506

G01 Z -1.0000 F 100.0000(Penetrate)
G01 X 28.6097 Y 2.3592 Z -1.0000 F 3500.0000
G01 X 28.6158 Y 2.3632 Z -1.0000
G01 X 28.6254 Y 2.3594 Z -1.0000
G01 X 28.6292 Y 2.3506 Z -1.0000
G01 X 28.6270 Y 2.3402 Z -1.0000
G01 X 28.6237 Y 2.3381 Z -1.0000
G01 X 28.6192 Y 2.3399 Z -1.0000
G02 X 28.6103 Y 2.3506 Z -1.0000 I 0.0384 J 0.0405
G01 X 28.6103 Y 2.3506 Z -1.0000
G00 Z 5.0000

(End cutting path id: path24282)


(Start cutting path id: path24282)
(Change tool to Default tool)

G00 Z 5.0000
G00 X 28.5035 Y 2.2627

G01 Z -1.0000 F 100.0000(Penetrate)
G01 X 28.5072 Y 2.2714 Z -1.0000 F 3500.0000
G01 X 28.5168 Y 2.2752 Z -1.0000
G01 X 28.5229 Y 2.2712 Z -1.0000
G01 X 28.5223 Y 2.2627 Z -1.0000
G02 X 28.5135 Y 2.2519 Z -1.0000 I -0.0464 J 0.0289
G01 X 28.5090 Y 2.2501 Z -1.0000
G01 X 28.5056 Y 2.2523 Z -1.0000
G01 X 28.5035 Y 2.2627 Z -1.0000
G01 X 28.5035 Y 2.2627 Z -1.0000
G00 Z 5.0000

(End cutting path id: path24282)


(Start cutting path id: path24282)
(Change tool to Default tool)

G00 Z 5.0000
G00 X 28.3526 Y 2.2752

G01 Z -1.0000 F 100.0000(Penetrate)
G01 X 28.3563 Y 2.2841 Z -1.0000 F 3500.0000
G01 X 28.3651 Y 2.2878 Z -1.0000
G01 X 28.3740 Y 2.2841 Z -1.0000
G01 X 28.3777 Y 2.2752 Z -1.0000
G01 X 28.3740 Y 2.2663 Z -1.0000
G01 X 28.3651 Y 2.2627 Z -1.0000
G01 X 28.3562 Y 2.2664 Z -1.0000
G01 X 28.3526 Y 2.2752 Z -1.0000
G01 X 28.3526 Y 2.2752 Z -1.0000
G00 Z 5.0000

(End cutting path id: path24282)


(Start cutting path id: path24282)
(Change tool to Default tool)

G00 Z 5.0000
G00 X 28.2347 Y 2.2527

G01 Z -1.0000 F 100.0000(Penetrate)
G01 X 28.2429 Y 2.2591 Z -1.0000 F 3500.0000
G02 X 28.2660 Y 2.2627 Z -1.0000 I 0.0231 J -0.0724
G01 X 28.2824 Y 2.2578 Z -1.0000
G01 X 28.2839 Y 2.2509 Z -1.0000
G01 X 28.2744 Y 2.2435 Z -1.0000
G02 X 28.2526 Y 2.2409 Z -1.0000 I -0.0176 J 0.0554
G01 X 28.2361 Y 2.2465 Z -1.0000
G01 X 28.2347 Y 2.2527 Z -1.0000
G01 X 28.2347 Y 2.2527 Z -1.0000
G00 Z 5.0000

(End cutting path id: path24282)


(Start cutting path id: path24282)
(Change tool to Default tool)

G00 Z 5.0000
G00 X 28.1696 Y 2.2386

G01 Z -1.0000 F 100.0000(Penetrate)
G01 X 28.1672 Y 2.2515 Z -1.0000 F 3500.0000
G01 X 28.1751 Y 2.2662 Z -1.0000
G01 X 28.1833 Y 2.2663 Z -1.0000
G01 X 28.1890 Y 2.2526 Z -1.0000
G01 X 28.1807 Y 2.2363 Z -1.0000
G01 X 28.1695 Y 2.2386 Z -1.0000
G01 X 28.1696 Y 2.2386 Z -1.0000
G00 Z 5.0000

(End cutting path id: path24282)


(Start cutting path id: path24282)
(Change tool to Default tool)

G00 Z 5.0000
G00 X 28.1262 Y 2.2375

G01 Z -1.0000 F 100.0000(Penetrate)
G01 X 28.1299 Y 2.2464 Z -1.0000 F 3500.0000
G01 X 28.1388 Y 2.2500 Z -1.0000
G01 X 28.1477 Y 2.2464 Z -1.0000
G01 X 28.1514 Y 2.2375 Z -1.0000
G01 X 28.1477 Y 2.2286 Z -1.0000
G01 X 28.1388 Y 2.2249 Z -1.0000
G01 X 28.1299 Y 2.2286 Z -1.0000
G01 X 28.1262 Y 2.2375 Z -1.0000
G01 X 28.1262 Y 2.2375 Z -1.0000
G00 Z 5.0000

(End cutting path id: path24282)


(Start cutting path id: path24282)
(Change tool to Default tool)

G00 Z 5.0000
G00 X 28.0005 Y 2.2627

G01 Z -1.0000 F 100.0000(Penetrate)
G01 X 28.0053 Y 2.2704 Z -1.0000 F 3500.0000
G01 X 28.0256 Y 2.2752 Z -1.0000
G01 X 28.0460 Y 2.2704 Z -1.0000
G01 X 28.0508 Y 2.2627 Z -1.0000
G01 X 28.0460 Y 2.2549 Z -1.0000
G01 X 28.0256 Y 2.2501 Z -1.0000
G01 X 28.0053 Y 2.2549 Z -1.0000
G01 X 28.0005 Y 2.2627 Z -1.0000
G01 X 28.0005 Y 2.2627 Z -1.0000
G00 Z 5.0000

(End cutting path id: path24282)


(Start cutting path id: path24282)
(Change tool to Default tool)

G00 Z 5.0000
G00 X 27.9008 Y 2.3475

G01 Z -1.0000 F 100.0000(Penetrate)
G01 X 27.9027 Y 2.3567 Z -1.0000 F 3500.0000
G02 X 27.9120 Y 2.3821 Z -1.0000 I 0.3222 J -0.1040
G01 X 27.9223 Y 2.3904 Z -1.0000
G01 X 27.9312 Y 2.3855 Z -1.0000
G01 X 27.9437 Y 2.3735 Z -1.0000
G01 X 27.9609 Y 2.3746 Z -1.0000
G01 X 27.9819 Y 2.3798 Z -1.0000
G02 X 28.0099 Y 2.3748 Z -1.0000 I 0.0003 J -0.0780
G01 X 28.0140 Y 2.3645 Z -1.0000
G01 X 28.0020 Y 2.3586 Z -1.0000
G03 X 27.9686 Y 2.3594 Z -1.0000 I -0.0192 J -0.0964
G01 X 27.9572 Y 2.3520 Z -1.0000
G01 X 27.9193 Y 2.3288 Z -1.0000
G01 X 27.9008 Y 2.3476 Z -1.0000
G01 X 27.9008 Y 2.3475 Z -1.0000
G00 Z 5.0000

(End cutting path id: path24282)


(Start cutting path id: path24282)
(Change tool to Default tool)

G00 Z 5.0000
G00 X 27.8330 Y 2.4158

G01 Z -1.0000 F 100.0000(Penetrate)
G01 X 27.8254 Y 2.4082 Z -1.0000 F 3500.0000
G01 X 27.8320 Y 2.3917 Z -1.0000
G01 X 27.8357 Y 2.4001 Z -1.0000
G01 X 27.8330 Y 2.4158 Z -1.0000
G01 X 27.8330 Y 2.4158 Z -1.0000
G00 Z 5.0000

(End cutting path id: path24282)


(Start cutting path id: path24282)
(Change tool to Default tool)

G00 Z 5.0000
G00 X 27.6861 Y 2.3192

G01 Z -1.0000 F 100.0000(Penetrate)
G01 X 27.6818 Y 2.3338 Z -1.0000 F 3500.0000
G01 X 27.6740 Y 2.3381 Z -1.0000
G01 X 27.6682 Y 2.3336 Z -1.0000
G01 X 27.6691 Y 2.3192 Z -1.0000
G03 X 27.6777 Y 2.3023 Z -1.0000 I 0.0861 J 0.0332
G01 X 27.6812 Y 2.3003 Z -1.0000
G01 X 27.6840 Y 2.3025 Z -1.0000
G03 X 27.6861 Y 2.3192 Z -1.0000 I -0.0645 J 0.0167
G01 X 27.6861 Y 2.3192 Z -1.0000
G00 Z 5.0000

(End cutting path id: path24282)


(Start cutting path id: path24282)
(Change tool to Default tool)

G00 Z 5.0000
G00 X 27.6560 Y 2.3975

G01 Z -1.0000 F 100.0000(Penetrate)
G01 X 27.6426 Y 2.3955 Z -1.0000 F 3500.0000
G01 X 27.6432 Y 2.3740 Z -1.0000
G01 X 27.6517 Y 2.3692 Z -1.0000
G01 X 27.6583 Y 2.3740 Z -1.0000
G01 X 27.6600 Y 2.3890 Z -1.0000
G01 X 27.6560 Y 2.3975 Z -1.0000
G01 X 27.6560 Y 2.3975 Z -1.0000
G00 Z 5.0000

(End cutting path id: path24282)


(Start cutting path id: path24282)
(Change tool to Default tool)

G00 Z 5.0000
G00 X 27.6018 Y 2.2278

G01 Z -1.0000 F 100.0000(Penetrate)
G02 X 27.5763 Y 2.2775 Z -1.0000 I 0.1206 J 0.0935 F 3500.0000
G01 X 27.5839 Y 2.2878 Z -1.0000
G01 X 27.6265 Y 2.2614 Z -1.0000
G01 X 27.6192 Y 2.2167 Z -1.0000
G01 X 27.6146 Y 2.2162 Z -1.0000
G01 X 27.6018 Y 2.2278 Z -1.0000
G01 X 27.6018 Y 2.2278 Z -1.0000
G00 Z 5.0000

(End cutting path id: path24282)


(Start cutting path id: path24282)
(Change tool to Default tool)

G00 Z 5.0000
G00 X 27.5478 Y 2.2320

G01 Z -1.0000 F 100.0000(Penetrate)
G01 X 27.5526 Y 2.2430 Z -1.0000 F 3500.0000
G01 X 27.5604 Y 2.2438 Z -1.0000
G01 X 27.5700 Y 2.2344 Z -1.0000
G01 X 27.5730 Y 2.2242 Z -1.0000
G01 X 27.5694 Y 2.2159 Z -1.0000
G01 X 27.5604 Y 2.2124 Z -1.0000
G01 X 27.5523 Y 2.2168 Z -1.0000
G01 X 27.5478 Y 2.2320 Z -1.0000
G01 X 27.5478 Y 2.2320 Z -1.0000
G00 Z 5.0000

(End cutting path id: path24282)


(Start cutting path id: path24282)
(Change tool to Default tool)

G00 Z 5.0000
G00 X 27.4551 Y 2.2098

G01 Z -1.0000 F 100.0000(Penetrate)
G01 X 27.4454 Y 2.2162 Z -1.0000 F 3500.0000
G03 X 27.4161 Y 2.2155 Z -1.0000 I -0.0127 J -0.0885
G01 X 27.3995 Y 2.2263 Z -1.0000
G01 X 27.4095 Y 2.2438 Z -1.0000
G03 X 27.4298 Y 2.2554 Z -1.0000 I -0.0170 J 0.0533
G01 X 27.4350 Y 2.2667 Z -1.0000
G01 X 27.4485 Y 2.2590 Z -1.0000
G01 X 27.4648 Y 2.2445 Z -1.0000
G01 X 27.4841 Y 2.2435 Z -1.0000
G01 X 27.5045 Y 2.2436 Z -1.0000
G01 X 27.5224 Y 2.2315 Z -1.0000
G01 X 27.5259 Y 2.2182 Z -1.0000
G01 X 27.5189 Y 2.2124 Z -1.0000
G03 X 27.4999 Y 2.2106 Z -1.0000 I 0.0000 J -0.1036
G03 X 27.4809 Y 2.2053 Z -1.0000 I 0.0203 J -0.1083
G01 X 27.4642 Y 2.2037 Z -1.0000
G01 X 27.4550 Y 2.2099 Z -1.0000
G01 X 27.4551 Y 2.2098 Z -1.0000
G00 Z 5.0000

(End cutting path id: path24282)


(Start cutting path id: path24282)
(Change tool to Default tool)

G00 Z 5.0000
G00 X 27.1454 Y 2.2123

G01 Z -1.0000 F 100.0000(Penetrate)
G01 X 27.1491 Y 2.2212 Z -1.0000 F 3500.0000
G01 X 27.1580 Y 2.2249 Z -1.0000
G01 X 27.1669 Y 2.2212 Z -1.0000
G01 X 27.1706 Y 2.2123 Z -1.0000
G01 X 27.1669 Y 2.2034 Z -1.0000
G01 X 27.1580 Y 2.1998 Z -1.0000
G01 X 27.1491 Y 2.2035 Z -1.0000
G01 X 27.1454 Y 2.2123 Z -1.0000
G01 X 27.1454 Y 2.2123 Z -1.0000
G00 Z 5.0000

(End cutting path id: path24282)


(Start cutting path id: path24282)
(Change tool to Default tool)

G00 Z 5.0000
G00 X 27.1076 Y 2.2756

G01 Z -1.0000 F 100.0000(Penetrate)
G03 X 27.0778 Y 2.2852 Z -1.0000 I -0.0336 J -0.0532 F 3500.0000
G01 X 27.0700 Y 2.2779 Z -1.0000
G01 X 27.0740 Y 2.2718 Z -1.0000
G03 X 27.0981 Y 2.2658 Z -1.0000 I 0.0298 J 0.0694
G01 X 27.1082 Y 2.2697 Z -1.0000
G01 X 27.1075 Y 2.2755 Z -1.0000
G01 X 27.1076 Y 2.2756 Z -1.0000
G00 Z 5.0000

(End cutting path id: path24282)


(Start cutting path id: path24282)
(Change tool to Default tool)

G00 Z 5.0000
G00 X 27.0288 Y 2.1487

G01 Z -1.0000 F 100.0000(Penetrate)
G01 X 27.0311 Y 2.1631 Z -1.0000 F 3500.0000
G01 X 27.0400 Y 2.1660 Z -1.0000
G01 X 27.0541 Y 2.1490 Z -1.0000
G01 X 27.0463 Y 2.1315 Z -1.0000
G01 X 27.0383 Y 2.1324 Z -1.0000
G01 X 27.0288 Y 2.1487 Z -1.0000
G01 X 27.0288 Y 2.1487 Z -1.0000
G00 Z 5.0000

(End cutting path id: path24282)


(Start cutting path id: path24282)
(Change tool to Default tool)

G00 Z 5.0000
G00 X 26.9057 Y 2.1211

G01 Z -1.0000 F 100.0000(Penetrate)
G01 X 26.9037 Y 2.1303 Z -1.0000 F 3500.0000
G03 X 26.8940 Y 2.1557 Z -1.0000 I -0.3044 J -0.1022
G01 X 26.8877 Y 2.1573 Z -1.0000
G01 X 26.8823 Y 2.1463 Z -1.0000
G03 X 26.8867 Y 2.1169 Z -1.0000 I 0.0848 J -0.0022
G01 X 26.8940 Y 2.1117 Z -1.0000
G01 X 26.9030 Y 2.1149 Z -1.0000
G01 X 26.9057 Y 2.1211 Z -1.0000
G01 X 26.9057 Y 2.1211 Z -1.0000
G00 Z 5.0000

(End cutting path id: path24282)


(Start cutting path id: path24282)
(Change tool to Default tool)

G00 Z 5.0000
G00 X 26.7755 Y 2.0849

G01 Z -1.0000 F 100.0000(Penetrate)
G01 X 26.7703 Y 2.1003 Z -1.0000 F 3500.0000
G01 X 26.7732 Y 2.1084 Z -1.0000
G01 X 26.7871 Y 2.1074 Z -1.0000
G01 X 26.7907 Y 2.0848 Z -1.0000
G01 X 26.7841 Y 2.0801 Z -1.0000
G01 X 26.7755 Y 2.0849 Z -1.0000
G01 X 26.7755 Y 2.0849 Z -1.0000
G00 Z 5.0000

(End cutting path id: path24282)


(Start cutting path id: path24282)
(Change tool to Default tool)

G00 Z 5.0000
G00 X 26.7179 Y 2.0732

G01 Z -1.0000 F 100.0000(Penetrate)
G01 X 26.7209 Y 2.0834 Z -1.0000 F 3500.0000
G01 X 26.7305 Y 2.0928 Z -1.0000
G01 X 26.7383 Y 2.0921 Z -1.0000
G01 X 26.7431 Y 2.0810 Z -1.0000
G01 X 26.7386 Y 2.0658 Z -1.0000
G01 X 26.7305 Y 2.0614 Z -1.0000
G01 X 26.7215 Y 2.0650 Z -1.0000
G01 X 26.7179 Y 2.0732 Z -1.0000
G01 X 26.7179 Y 2.0732 Z -1.0000
G00 Z 5.0000

(End cutting path id: path24282)


(Start cutting path id: path24282)
(Change tool to Default tool)

G00 Z 5.0000
G00 X 26.6299 Y 2.0740

G01 Z -1.0000 F 100.0000(Penetrate)
G01 X 26.6337 Y 2.0828 Z -1.0000 F 3500.0000
G01 X 26.6432 Y 2.0866 Z -1.0000
G01 X 26.6493 Y 2.0826 Z -1.0000
G01 X 26.6487 Y 2.0740 Z -1.0000
G02 X 26.6399 Y 2.0632 Z -1.0000 I -0.0464 J 0.0289
G01 X 26.6354 Y 2.0614 Z -1.0000
G01 X 26.6321 Y 2.0636 Z -1.0000
G01 X 26.6299 Y 2.0740 Z -1.0000
G01 X 26.6299 Y 2.0740 Z -1.0000
G00 Z 5.0000

(End cutting path id: path24282)


(Start cutting path id: path24282)
(Change tool to Default tool)

G00 Z 5.0000
G00 X 26.5419 Y 2.0858

G01 Z -1.0000 F 100.0000(Penetrate)
G01 X 26.5467 Y 2.1069 Z -1.0000 F 3500.0000
G01 X 26.5544 Y 2.1117 Z -1.0000
G01 X 26.5627 Y 2.1074 Z -1.0000
G01 X 26.5670 Y 2.0936 Z -1.0000
G01 X 26.5633 Y 2.0775 Z -1.0000
G01 X 26.5544 Y 2.0677 Z -1.0000
G01 X 26.5471 Y 2.0692 Z -1.0000
G01 X 26.5419 Y 2.0858 Z -1.0000
G01 X 26.5419 Y 2.0858 Z -1.0000
G00 Z 5.0000

(End cutting path id: path24282)


(Start cutting path id: path24282)
(Change tool to Default tool)

G00 Z 5.0000
G00 X 26.2848 Y 2.1129

G01 Z -1.0000 F 100.0000(Penetrate)
G01 X 26.2722 Y 2.1173 Z -1.0000 F 3500.0000
G01 X 26.2644 Y 2.1021 Z -1.0000
G01 X 26.2498 Y 2.0925 Z -1.0000
G01 X 26.2275 Y 2.1239 Z -1.0000
G01 X 26.2163 Y 2.1378 Z -1.0000
G01 X 26.2025 Y 2.1350 Z -1.0000
G01 X 26.1846 Y 2.1272 Z -1.0000
G01 X 26.1693 Y 2.1349 Z -1.0000
G01 X 26.1534 Y 2.1438 Z -1.0000
G01 X 26.1343 Y 2.1377 Z -1.0000
G02 X 26.1140 Y 2.1267 Z -1.0000 I -0.0379 J 0.0456
G01 X 26.1057 Y 2.1287 Z -1.0000
G01 X 26.1058 Y 2.1334 Z -1.0000
G01 X 26.1148 Y 2.1368 Z -1.0000
G01 X 26.1209 Y 2.1414 Z -1.0000
G01 X 26.1188 Y 2.1500 Z -1.0000
G01 X 26.1042 Y 2.1556 Z -1.0000
G03 X 26.0713 Y 2.1476 Z -1.0000 I 0.0045 J -0.0898
G02 X 26.0398 Y 2.1411 Z -1.0000 I -0.0301 J 0.0662
G01 X 26.0269 Y 2.1484 Z -1.0000
G01 X 26.0180 Y 2.1545 Z -1.0000
G01 X 26.0121 Y 2.1510 Z -1.0000
G01 X 26.0039 Y 2.1459 Z -1.0000
G02 X 25.9710 Y 2.1561 Z -1.0000 I 0.0119 J 0.0964
G03 X 25.9359 Y 2.1640 Z -1.0000 I -0.0325 J -0.0625
G01 X 25.9112 Y 2.1539 Z -1.0000
G02 X 25.8880 Y 2.1398 Z -1.0000 I -0.0486 J 0.0537
G01 X 25.8788 Y 2.1418 Z -1.0000
G01 X 25.8774 Y 2.1499 Z -1.0000
G01 X 25.8883 Y 2.1625 Z -1.0000
G01 X 25.8928 Y 2.1708 Z -1.0000
G01 X 25.8880 Y 2.1759 Z -1.0000
G03 X 25.8691 Y 2.1766 Z -1.0000 I -0.0169 J -0.1890
G03 X 25.8534 Y 2.1755 Z -1.0000 I 0.0014 J -0.1329
G01 X 25.8421 Y 2.1785 Z -1.0000
G01 X 25.8377 Y 2.1873 Z -1.0000
G01 X 25.8332 Y 2.1930 Z -1.0000
G01 X 25.8220 Y 2.1912 Z -1.0000
G01 X 25.8052 Y 2.1850 Z -1.0000
G02 X 25.7461 Y 2.1800 Z -1.0000 I -0.0692 J 0.4726
G02 X 25.7019 Y 2.1835 Z -1.0000 I -0.0048 J 0.2235
G01 X 25.7010 Y 2.1881 Z -1.0000
G01 X 25.7005 Y 2.1943 Z -1.0000
G03 X 25.6574 Y 2.2063 Z -1.0000 I -0.0703 J -0.1686
G03 X 25.6005 Y 2.2080 Z -1.0000 I -0.0355 J -0.2352
G01 X 25.5794 Y 2.1993 Z -1.0000
G01 X 25.5592 Y 2.1916 Z -1.0000
G02 X 25.5292 Y 2.1976 Z -1.0000 I -0.0023 J 0.0667
G01 X 25.5053 Y 2.2006 Z -1.0000
G01 X 25.4982 Y 2.1921 Z -1.0000
G01 X 25.4928 Y 2.1801 Z -1.0000
G01 X 25.4825 Y 2.1780 Z -1.0000
G01 X 25.4721 Y 2.1870 Z -1.0000
G01 X 25.4685 Y 2.2042 Z -1.0000
G01 X 25.4656 Y 2.2207 Z -1.0000
G01 X 25.4591 Y 2.2249 Z -1.0000
G01 X 25.4513 Y 2.2215 Z -1.0000
G01 X 25.4479 Y 2.2131 Z -1.0000
G01 X 25.4257 Y 2.1904 Z -1.0000
G02 X 25.3709 Y 2.2111 Z -1.0000 I -0.0020 J 0.0774
G03 X 25.3429 Y 2.2305 Z -1.0000 I -0.0804 J -0.0863
G01 X 25.3328 Y 2.2300 Z -1.0000
G01 X 25.3259 Y 2.2301 Z -1.0000
G01 X 25.3222 Y 2.2367 Z -1.0000
G01 X 25.3053 Y 2.2527 Z -1.0000
G01 X 25.2813 Y 2.2344 Z -1.0000
G01 X 25.2734 Y 2.2294 Z -1.0000
G01 X 25.2556 Y 2.2375 Z -1.0000
G03 X 25.1988 Y 2.2831 Z -1.0000 I -0.3921 J -0.4300
G01 X 25.1844 Y 2.2877 Z -1.0000
G01 X 25.1745 Y 2.2909 Z -1.0000
G01 X 25.1713 Y 2.2971 Z -1.0000
G01 X 25.1673 Y 2.3026 Z -1.0000
G03 X 25.1410 Y 2.3065 Z -1.0000 I -0.0262 J -0.0848
G03 X 25.1184 Y 2.3023 Z -1.0000 I 0.0000 J -0.0632
G01 X 25.1166 Y 2.2971 Z -1.0000
G01 X 25.1242 Y 2.2908 Z -1.0000
G01 X 25.1406 Y 2.2877 Z -1.0000
G01 X 25.1570 Y 2.2834 Z -1.0000
G02 X 25.1825 Y 2.2639 Z -1.0000 I -0.0595 J -0.1046
G01 X 25.1861 Y 2.2462 Z -1.0000
G01 X 25.1698 Y 2.2327 Z -1.0000
G02 X 24.9634 Y 2.2196 Z -1.0000 I -0.1520 J 0.7592
G01 X 24.9222 Y 2.2503 Z -1.0000
G01 X 24.9156 Y 2.2549 Z -1.0000
G03 X 24.8828 Y 2.2502 Z -1.0000 I 0.0001 J -0.1184
G02 X 24.6674 Y 2.2386 Z -1.0000 I -0.1329 J 0.4631
G02 X 24.5475 Y 2.3085 Z -1.0000 I 0.0342 J 0.1967
G01 X 24.5314 Y 2.3211 Z -1.0000
G01 X 24.5123 Y 2.3254 Z -1.0000
G01 X 24.4933 Y 2.3308 Z -1.0000
G02 X 24.4585 Y 2.3581 Z -1.0000 I 0.0958 J 0.1580
G03 X 24.4229 Y 2.3810 Z -1.0000 I -0.0708 J -0.0708
G03 X 24.3904 Y 2.3837 Z -1.0000 I -0.0208 J -0.0554
G01 X 24.3668 Y 2.3865 Z -1.0000
G01 X 24.3627 Y 2.3965 Z -1.0000
G01 X 24.3595 Y 2.4062 Z -1.0000
G01 X 24.3443 Y 2.4081 Z -1.0000
G01 X 24.3235 Y 2.4100 Z -1.0000
G01 X 24.3098 Y 2.4264 Z -1.0000
G01 X 24.2971 Y 2.4440 Z -1.0000
G01 X 24.2827 Y 2.4458 Z -1.0000
G01 X 24.2654 Y 2.4448 Z -1.0000
G01 X 24.2487 Y 2.4543 Z -1.0000
G02 X 24.2185 Y 2.5021 Z -1.0000 I 0.0976 J 0.0953
G02 X 24.2055 Y 2.5706 Z -1.0000 I 0.1944 J 0.0722
G03 X 24.1526 Y 2.7663 Z -1.0000 I -0.4162 J -0.0077
G03 X 24.0805 Y 2.7939 Z -1.0000 I -0.0526 J -0.0295
G01 X 24.0711 Y 2.7974 Z -1.0000
G01 X 24.0647 Y 2.8203 Z -1.0000
G01 X 24.0492 Y 2.8556 Z -1.0000
G03 X 24.0082 Y 2.8719 Z -1.0000 I -0.0422 J -0.0462
G01 X 23.9930 Y 2.8822 Z -1.0000
G02 X 23.9830 Y 2.9322 Z -1.0000 I 0.1195 J 0.0499
G03 X 23.9799 Y 2.9887 Z -1.0000 I -0.5093 J -0.0000
G01 X 23.9763 Y 2.9919 Z -1.0000
G01 X 23.9725 Y 2.9948 Z -1.0000
G02 X 23.9696 Y 3.0170 Z -1.0000 I 0.0835 J 0.0222
G01 X 23.9774 Y 3.0320 Z -1.0000
G01 X 23.9952 Y 3.0351 Z -1.0000
G01 X 24.0068 Y 3.0383 Z -1.0000
G02 X 23.9601 Y 3.1323 Z -1.0000 I 0.0673 J 0.0920
G01 X 24.0092 Y 3.1805 Z -1.0000
G01 X 24.0217 Y 3.1858 Z -1.0000
G01 X 24.0270 Y 3.1990 Z -1.0000
G01 X 24.0328 Y 3.2091 Z -1.0000
G01 X 24.0459 Y 3.2102 Z -1.0000
G01 X 24.0579 Y 3.2130 Z -1.0000
G01 X 24.0648 Y 3.2305 Z -1.0000
G01 X 24.0707 Y 3.2498 Z -1.0000
G01 X 24.0800 Y 3.2530 Z -1.0000
G01 X 24.1171 Y 3.2696 Z -1.0000
G03 X 24.1829 Y 3.4902 Z -1.0000 I -0.8857 J 0.3842
G02 X 24.2532 Y 3.7173 Z -1.0000 I 0.9053 J -0.1556
G02 X 24.3085 Y 3.7640 Z -1.0000 I 0.0773 J -0.0355
G02 X 24.3876 Y 3.7725 Z -1.0000 I 0.0665 J -0.2478
G01 X 24.4106 Y 3.7589 Z -1.0000
G01 X 24.4461 Y 3.7413 Z -1.0000
G01 X 24.4671 Y 3.7644 Z -1.0000
G01 X 24.4746 Y 3.7739 Z -1.0000
G02 X 24.5143 Y 3.7760 Z -1.0000 I 0.0251 J -0.1029
G03 X 24.5415 Y 3.7774 Z -1.0000 I 0.0099 J 0.0723
G01 X 24.5426 Y 3.7829 Z -1.0000
G03 X 24.5227 Y 3.7933 Z -1.0000 I -0.0474 J -0.0664
G03 X 24.5047 Y 3.7965 Z -1.0000 I -0.0186 J -0.0519
G02 X 24.4861 Y 3.7990 Z -1.0000 I 0.0008 J 0.0749
G02 X 24.3861 Y 3.8283 Z -1.0000 I 0.5967 J 2.2250
G03 X 24.2897 Y 3.8513 Z -1.0000 I -0.2051 J -0.6462
G01 X 24.2778 Y 3.8459 Z -1.0000
G01 X 24.2688 Y 3.8430 Z -1.0000
G01 X 24.2517 Y 3.8567 Z -1.0000
G03 X 24.2313 Y 3.8782 Z -1.0000 I -0.0813 J -0.0570
G03 X 24.1893 Y 3.9052 Z -1.0000 I -0.1720 J -0.2217
G02 X 24.0615 Y 3.9816 Z -1.0000 I 0.6041 J 1.1551
G02 X 23.9804 Y 4.0469 Z -1.0000 I 0.3576 J 0.5270
G03 X 23.9515 Y 4.0709 Z -1.0000 I -0.1934 J -0.2036
G01 X 23.9427 Y 4.0742 Z -1.0000
G02 X 23.7361 Y 4.2007 Z -1.0000 I 0.0247 J 0.2724
G02 X 23.7552 Y 4.3715 Z -1.0000 I 0.1164 J 0.0734
G01 X 23.7876 Y 4.3676 Z -1.0000
G02 X 23.8133 Y 4.2766 Z -1.0000 I -0.1485 J -0.0911
G03 X 23.8513 Y 4.1867 Z -1.0000 I 0.1252 J 0.0000
G03 X 23.9449 Y 4.1488 Z -1.0000 I 0.0936 J 0.0964
G01 X 23.9437 Y 4.1708 Z -1.0000
G01 X 23.9452 Y 4.1756 Z -1.0000
G01 X 23.9492 Y 4.1751 Z -1.0000
G02 X 23.9574 Y 4.1568 Z -1.0000 I -0.0416 J -0.0296
G01 X 23.9564 Y 4.1433 Z -1.0000
G01 X 23.9585 Y 4.1319 Z -1.0000
G03 X 23.9890 Y 4.1069 Z -1.0000 I 0.0965 J 0.0865
G02 X 24.0211 Y 4.0811 Z -1.0000 I -0.0738 J -0.1249
G01 X 24.0270 Y 4.0663 Z -1.0000
G01 X 24.0331 Y 4.0543 Z -1.0000
G01 X 24.0521 Y 4.0482 Z -1.0000
G01 X 24.0723 Y 4.0432 Z -1.0000
G01 X 24.0773 Y 4.0349 Z -1.0000
G01 X 24.0730 Y 4.0292 Z -1.0000
G01 X 24.0627 Y 4.0306 Z -1.0000
G01 X 24.0576 Y 4.0302 Z -1.0000
G01 X 24.0568 Y 4.0256 Z -1.0000
G01 X 24.0675 Y 4.0175 Z -1.0000
G01 X 24.0828 Y 4.0183 Z -1.0000
G01 X 24.0960 Y 4.0163 Z -1.0000
G01 X 24.1088 Y 3.9977 Z -1.0000
G01 X 24.1224 Y 3.9796 Z -1.0000
G01 X 24.1409 Y 3.9766 Z -1.0000
G01 X 24.1623 Y 3.9763 Z -1.0000
G01 X 24.1788 Y 3.9653 Z -1.0000
G01 X 24.1944 Y 3.9547 Z -1.0000
G01 X 24.2064 Y 3.9560 Z -1.0000
G01 X 24.2107 Y 3.9555 Z -1.0000
G01 X 24.2112 Y 3.9508 Z -1.0000
G01 X 24.2006 Y 3.9434 Z -1.0000
G01 X 24.1779 Y 3.9440 Z -1.0000
G01 X 24.1618 Y 3.9541 Z -1.0000
G01 X 24.1610 Y 3.9637 Z -1.0000
G01 X 24.1597 Y 3.9673 Z -1.0000
G01 X 24.1527 Y 3.9666 Z -1.0000
G01 X 24.1544 Y 3.9405 Z -1.0000
G03 X 24.2407 Y 3.9269 Z -1.0000 I 0.0678 J 0.1505
G02 X 24.2967 Y 3.9270 Z -1.0000 I 0.0285 J -0.2506
G02 X 24.3602 Y 3.9140 Z -1.0000 I -0.0377 J -0.3438
G03 X 24.5046 Y 3.8744 Z -1.0000 I 0.7239 J 2.3585
G03 X 24.5532 Y 3.8674 Z -1.0000 I 0.0621 J 0.2570
G02 X 24.5983 Y 3.8623 Z -1.0000 I -0.0193 J -0.3745
G01 X 24.6118 Y 3.8572 Z -1.0000
G01 X 24.6252 Y 3.8515 Z -1.0000
G03 X 24.6746 Y 3.8410 Z -1.0000 I 0.1451 J 0.5629
G03 X 24.7047 Y 3.8409 Z -1.0000 I 0.0154 J 0.0922
G01 X 24.7059 Y 3.8460 Z -1.0000
G01 X 24.6986 Y 3.8595 Z -1.0000
G01 X 24.7093 Y 3.8569 Z -1.0000
G02 X 24.7301 Y 3.8425 Z -1.0000 I -0.0570 J -0.1046
G03 X 24.7525 Y 3.8309 Z -1.0000 I 0.0352 J 0.0404
G03 X 24.8843 Y 3.8048 Z -1.0000 I 0.3620 J 1.4825
G03 X 25.0346 Y 3.7896 Z -1.0000 I 0.2241 J 1.4686
G01 X 25.0390 Y 3.7971 Z -1.0000
G01 X 25.0297 Y 3.8036 Z -1.0000
G01 X 25.0175 Y 3.8014 Z -1.0000
G01 X 25.0127 Y 3.8019 Z -1.0000
G01 X 25.0122 Y 3.8064 Z -1.0000
G01 X 25.0133 Y 3.8175 Z -1.0000
G01 X 25.0047 Y 3.8263 Z -1.0000
G01 X 25.0329 Y 3.8257 Z -1.0000
G02 X 25.0754 Y 3.8145 Z -1.0000 I -0.0356 J -0.2210
G02 X 25.1178 Y 3.7941 Z -1.0000 I -0.0893 J -0.2398
G03 X 25.1533 Y 3.7791 Z -1.0000 I 0.0713 J 0.1187
G01 X 25.1586 Y 3.7832 Z -1.0000
G01 X 25.1538 Y 3.7922 Z -1.0000
G01 X 25.1366 Y 3.7978 Z -1.0000
G01 X 25.1297 Y 3.8014 Z -1.0000
G01 X 25.1308 Y 3.8053 Z -1.0000
G01 X 25.1341 Y 3.8141 Z -1.0000
G03 X 25.1120 Y 3.8429 Z -1.0000 I -0.0861 J -0.0432
G03 X 25.0731 Y 3.8629 Z -1.0000 I -0.0585 J -0.0660
G03 X 25.0030 Y 3.8679 Z -1.0000 I -0.0512 J -0.2235
G02 X 24.8595 Y 3.8709 Z -1.0000 I -0.0573 J 0.6904
G01 X 24.8518 Y 3.8869 Z -1.0000
G01 X 24.8357 Y 3.9085 Z -1.0000
G03 X 24.7786 Y 3.8671 Z -1.0000 I 0.0257 J -0.0956
G01 X 24.7677 Y 3.8617 Z -1.0000
G01 X 24.7442 Y 3.8690 Z -1.0000
G03 X 24.7178 Y 3.8812 Z -1.0000 I -0.0630 J -0.1021
G03 X 24.6948 Y 3.8848 Z -1.0000 I -0.0230 J -0.0717
G01 X 24.6749 Y 3.8907 Z -1.0000
G01 X 24.6630 Y 3.9053 Z -1.0000
G01 X 24.6520 Y 3.9129 Z -1.0000
G01 X 24.6323 Y 3.9053 Z -1.0000
G02 X 24.5862 Y 3.8830 Z -1.0000 I -0.0611 J 0.0675
G01 X 24.5655 Y 3.8942 Z -1.0000
G01 X 24.5588 Y 3.9009 Z -1.0000
G03 X 24.4921 Y 3.9275 Z -1.0000 I -0.3169 J -0.6996
G02 X 24.4250 Y 3.9547 Z -1.0000 I 0.2198 J 0.6383
G02 X 24.4010 Y 3.9702 Z -1.0000 I 0.0447 J 0.0952
G03 X 24.3770 Y 3.9834 Z -1.0000 I -0.0429 J -0.0497
G03 X 24.3415 Y 3.9881 Z -1.0000 I -0.0323 J -0.1074
G02 X 24.3065 Y 3.9918 Z -1.0000 I -0.0038 J 0.1328
G01 X 24.2966 Y 3.9990 Z -1.0000
G03 X 24.2338 Y 4.0539 Z -1.0000 I -0.1207 J -0.0746
G03 X 24.1698 Y 4.0556 Z -1.0000 I -0.0341 J -0.0763
G01 X 24.1551 Y 4.0564 Z -1.0000
G01 X 24.1440 Y 4.0688 Z -1.0000
G03 X 24.0918 Y 4.1248 Z -1.0000 I -0.0955 J -0.0366
G03 X 24.0185 Y 4.1274 Z -1.0000 I -0.0397 J -0.0849
G01 X 24.0103 Y 4.1298 Z -1.0000
G01 X 24.0088 Y 4.1402 Z -1.0000
G01 X 24.0072 Y 4.1572 Z -1.0000
G03 X 23.9745 Y 4.1950 Z -1.0000 I -0.1395 J -0.0873
G02 X 23.8469 Y 4.3153 Z -1.0000 I 1.1528 J 1.3520
G01 X 23.8382 Y 4.3367 Z -1.0000
G01 X 23.8412 Y 4.3469 Z -1.0000
G01 X 23.8510 Y 4.3564 Z -1.0000
G01 X 23.8580 Y 4.3657 Z -1.0000
G01 X 23.8565 Y 4.3760 Z -1.0000
G01 X 23.8566 Y 4.3837 Z -1.0000
G01 X 23.8641 Y 4.3877 Z -1.0000
G01 X 23.8689 Y 4.3925 Z -1.0000
G01 X 23.8644 Y 4.4053 Z -1.0000
G02 X 23.8537 Y 4.4236 Z -1.0000 I 0.0488 J 0.0407
G01 X 23.8534 Y 4.4344 Z -1.0000
G01 X 23.8517 Y 4.4457 Z -1.0000
G03 X 23.7566 Y 4.5764 Z -1.0000 I -2.1651 J -1.4767
G02 X 23.7166 Y 4.6343 Z -1.0000 I 0.4931 J 0.3830
G01 X 23.7125 Y 4.6487 Z -1.0000
G01 X 23.7085 Y 4.6627 Z -1.0000
G03 X 23.6876 Y 4.6892 Z -1.0000 I -0.1235 J -0.0759
G01 X 23.6782 Y 4.7118 Z -1.0000
G01 X 23.6876 Y 4.7274 Z -1.0000
G03 X 23.7083 Y 4.7432 Z -1.0000 I -0.0383 J 0.0718
G01 X 23.7124 Y 4.7536 Z -1.0000
G01 X 23.7087 Y 4.7598 Z -1.0000
G01 X 23.7014 Y 4.7596 Z -1.0000
G01 X 23.6959 Y 4.7625 Z -1.0000
G02 X 23.6947 Y 4.8877 Z -1.0000 I 1.5004 J 0.0776
G02 X 23.7072 Y 5.0857 Z -1.0000 I 3.2114 J -0.1037
G01 X 23.7139 Y 5.0919 Z -1.0000
G01 X 23.7184 Y 5.0961 Z -1.0000
G03 X 23.7163 Y 5.1359 Z -1.0000 I -0.1854 J 0.0102
G02 X 23.7149 Y 5.1750 Z -1.0000 I 0.1575 J 0.0254
G01 X 23.7202 Y 5.1799 Z -1.0000
G01 X 23.7264 Y 5.1851 Z -1.0000
G03 X 23.7334 Y 5.2491 Z -1.0000 I -0.4018 J 0.0762
G03 X 23.7299 Y 5.3128 Z -1.0000 I -0.3824 J 0.0111
G01 X 23.7237 Y 5.3182 Z -1.0000
G01 X 23.7180 Y 5.3230 Z -1.0000
G02 X 23.7186 Y 5.3465 Z -1.0000 I 0.0575 J 0.0104
G03 X 23.7251 Y 5.3929 Z -1.0000 I -0.2498 J 0.0592
G03 X 23.7436 Y 5.8482 Z -1.0000 I -24.4997 J 1.2213
G02 X 23.7503 Y 5.9559 Z -1.0000 I 1.7623 J -0.0560
G01 X 23.7550 Y 5.9699 Z -1.0000
G01 X 23.7565 Y 5.9813 Z -1.0000
G01 X 23.7479 Y 5.9922 Z -1.0000
G01 X 23.7456 Y 6.0004 Z -1.0000
G01 X 23.7571 Y 6.0111 Z -1.0000
G01 X 23.7626 Y 6.0174 Z -1.0000
G01 X 23.7594 Y 6.0215 Z -1.0000
G01 X 23.7431 Y 6.0349 Z -1.0000
G01 X 23.7531 Y 6.0477 Z -1.0000
G01 X 23.7561 Y 6.0516 Z -1.0000
G01 X 23.7500 Y 6.0601 Z -1.0000
G01 X 23.7491 Y 6.0675 Z -1.0000
G01 X 23.7626 Y 6.0739 Z -1.0000
G01 X 23.7741 Y 6.0809 Z -1.0000
G01 X 23.7636 Y 6.0925 Z -1.0000
G02 X 23.7633 Y 6.1455 Z -1.0000 I 0.1648 J 0.0276
G03 X 23.7700 Y 6.2042 Z -1.0000 I -0.7413 J 0.1138
G01 X 23.7682 Y 6.2119 Z -1.0000
G01 X 23.7656 Y 6.2196 Z -1.0000
G02 X 23.7608 Y 6.2724 Z -1.0000 I 0.7979 J 0.0993
G03 X 23.7545 Y 6.3239 Z -1.0000 I -0.4068 J -0.0236
G01 X 23.7499 Y 6.3305 Z -1.0000
G02 X 23.7210 Y 6.3847 Z -1.0000 I 0.0325 J 0.0521
G02 X 23.7552 Y 6.4983 Z -1.0000 I 0.2304 J -0.0074
G01 X 23.7579 Y 6.5093 Z -1.0000
G01 X 23.7540 Y 6.5130 Z -1.0000
G01 X 23.7627 Y 6.5253 Z -1.0000
G01 X 23.7657 Y 6.5329 Z -1.0000
G01 X 23.7596 Y 6.5377 Z -1.0000
G01 X 23.7422 Y 6.5425 Z -1.0000
G01 X 23.7376 Y 6.5505 Z -1.0000
G01 X 23.7422 Y 6.5587 Z -1.0000
G01 X 23.7596 Y 6.5640 Z -1.0000
G01 X 23.7643 Y 6.5680 Z -1.0000
G01 X 23.7614 Y 6.5734 Z -1.0000
G01 X 23.7489 Y 6.5858 Z -1.0000
G01 X 23.7469 Y 6.6071 Z -1.0000
G03 X 23.7515 Y 6.6324 Z -1.0000 I -0.3117 J 0.0699
G03 X 23.7570 Y 6.6795 Z -1.0000 I -0.9733 J 0.1371
G02 X 23.7636 Y 6.7260 Z -1.0000 I 0.4693 J -0.0433
G01 X 23.7682 Y 6.7378 Z -1.0000
G01 X 23.7689 Y 6.7478 Z -1.0000
G01 X 23.7563 Y 6.7644 Z -1.0000
G01 X 23.7389 Y 6.8046 Z -1.0000
G01 X 23.7596 Y 6.8181 Z -1.0000
G01 X 23.7661 Y 6.8210 Z -1.0000
G01 X 23.7644 Y 6.8309 Z -1.0000
G02 X 23.7539 Y 6.8538 Z -1.0000 I 0.0390 J 0.0317
G02 X 23.7534 Y 6.8930 Z -1.0000 I 0.1194 J 0.0213
G03 X 23.7551 Y 6.9335 Z -1.0000 I -0.1856 J 0.0280
G03 X 23.7489 Y 6.9623 Z -1.0000 I -0.1015 J -0.0068
G01 X 23.7464 Y 6.9849 Z -1.0000
G01 X 23.7530 Y 6.9906 Z -1.0000
G01 X 23.7576 Y 6.9948 Z -1.0000
G01 X 23.7541 Y 7.0042 Z -1.0000
G01 X 23.7403 Y 7.0484 Z -1.0000
G01 X 23.7640 Y 7.0589 Z -1.0000
G01 X 23.7680 Y 7.0606 Z -1.0000
G01 X 23.7675 Y 7.0717 Z -1.0000
G03 X 23.7578 Y 7.0879 Z -1.0000 I -0.0512 J -0.0195
G01 X 23.7507 Y 7.0912 Z -1.0000
G01 X 23.7411 Y 7.1013 Z -1.0000
G02 X 23.7611 Y 7.2538 Z -1.0000 I 1.1467 J -0.0728
G03 X 23.7652 Y 7.2971 Z -1.0000 I -0.2083 J 0.0413
G03 X 23.7597 Y 7.3921 Z -1.0000 I -1.0026 J -0.0098
G02 X 23.7543 Y 7.4874 Z -1.0000 I 0.9952 J 0.1046
G02 X 23.7565 Y 7.7325 Z -1.0000 I 6.6922 J 0.0615
G03 X 23.7787 Y 8.6822 Z -1.0000 I -118.8618 J 3.2524
G03 X 23.7786 Y 8.8704 Z -1.0000 I -4.6897 J 0.0908
G02 X 23.7789 Y 8.9584 Z -1.0000 I 1.8515 J 0.0382
G02 X 23.7885 Y 9.2351 Z -1.0000 I 17.4845 J -0.4699
G03 X 23.7980 Y 9.5502 Z -1.0000 I -12.7822 J 0.5417
G03 X 23.8191 Y 10.9641 Z -1.0000 I -256.9183 J 4.5508
G02 X 23.8281 Y 11.5110 Z -1.0000 I 65.7538 J -0.8087
G02 X 23.8351 Y 11.7374 Z -1.0000 I 11.0094 J -0.2270
G03 X 23.8408 Y 11.9638 Z -1.0000 I -7.1307 J 0.2921
G03 X 23.8420 Y 12.4856 Z -1.0000 I -37.9745 J 0.3498
G02 X 23.8443 Y 14.2469 Z -1.0000 I 148.1532 J 0.6879
G02 X 23.8572 Y 14.5792 Z -1.0000 I 5.2693 J -0.0382
G03 X 23.8631 Y 14.6979 Z -1.0000 I -2.8430 J 0.2010
G03 X 23.8816 Y 15.4217 Z -1.0000 I -106.8929 J 3.0871
G03 X 23.8843 Y 15.8230 Z -1.0000 I -13.0617 J 0.2903
G03 X 23.8779 Y 15.8569 Z -1.0000 I -0.0971 J -0.0008
G02 X 23.8731 Y 15.8894 Z -1.0000 I 0.0700 J 0.0268
G02 X 23.8830 Y 15.9240 Z -1.0000 I 0.0894 J -0.0067
G03 X 23.8926 Y 15.9593 Z -1.0000 I -0.0774 J 0.0401
G03 X 23.8881 Y 16.0146 Z -1.0000 I -0.2008 J 0.0113
G02 X 23.8787 Y 16.0712 Z -1.0000 I 0.5100 J 0.1136
G02 X 23.8769 Y 16.1172 Z -1.0000 I 0.3260 J 0.0357
G03 X 23.8776 Y 16.1635 Z -1.0000 I -1.3585 J 0.0427
G03 X 23.8761 Y 16.4213 Z -1.0000 I -42.0610 J -0.1113
G02 X 23.8796 Y 16.6919 Z -1.0000 I 6.2681 J 0.0539
G02 X 23.8966 Y 17.0123 Z -1.0000 I 8.7428 J -0.3023
G03 X 23.9019 Y 17.0941 Z -1.0000 I -6.5469 J 0.4661
G03 X 23.9049 Y 17.1527 Z -1.0000 I -3.8477 J 0.2257
G02 X 23.9110 Y 17.2098 Z -1.0000 I 0.4473 J -0.0194
G01 X 23.9168 Y 17.2208 Z -1.0000
G01 X 23.9224 Y 17.2318 Z -1.0000
G03 X 23.9262 Y 17.2785 Z -1.0000 I -0.2872 J 0.0466
G02 X 23.9339 Y 17.3189 Z -1.0000 I 0.1098 J -0.0000
G01 X 23.9453 Y 17.3267 Z -1.0000
G01 X 23.9885 Y 17.3569 Z -1.0000
G03 X 24.0024 Y 17.4831 Z -1.0000 I -0.2509 J 0.0916
G02 X 24.0080 Y 17.5594 Z -1.0000 I 0.1887 J 0.0246
G02 X 24.0415 Y 17.6215 Z -1.0000 I 0.1555 J -0.0439
G01 X 24.0486 Y 17.6347 Z -1.0000
G03 X 24.0521 Y 17.6592 Z -1.0000 I -0.0897 J 0.0252
G02 X 24.0550 Y 17.6846 Z -1.0000 I 0.1188 J -0.0009
G02 X 24.0683 Y 17.7310 Z -1.0000 I 0.4178 J -0.0944
G02 X 24.0902 Y 17.7620 Z -1.0000 I 0.0650 J -0.0226
G01 X 24.1090 Y 17.7637 Z -1.0000
G01 X 24.1292 Y 17.7411 Z -1.0000
G01 X 24.1260 Y 17.7206 Z -1.0000
G01 X 24.1229 Y 17.7077 Z -1.0000
G01 X 24.1394 Y 17.7016 Z -1.0000
G02 X 24.1431 Y 17.6478 Z -1.0000 I -0.1005 J -0.0339
G03 X 24.1442 Y 17.6236 Z -1.0000 I 0.0513 J -0.0099
G01 X 24.1507 Y 17.6210 Z -1.0000
G01 X 24.1598 Y 17.6205 Z -1.0000
G01 X 24.1651 Y 17.6096 Z -1.0000
G01 X 24.1603 Y 17.5979 Z -1.0000
G01 X 24.1525 Y 17.5970 Z -1.0000
G01 X 24.1432 Y 17.5988 Z -1.0000
G01 X 24.1396 Y 17.5946 Z -1.0000
G02 X 24.1159 Y 17.3447 Z -1.0000 I -2.2072 J 0.0827
G02 X 24.0957 Y 17.3065 Z -1.0000 I -0.0648 J 0.0099
G03 X 24.0739 Y 17.2806 Z -1.0000 I 0.0929 J -0.1002
G01 X 24.0762 Y 17.2764 Z -1.0000
G01 X 24.0853 Y 17.2715 Z -1.0000
G02 X 24.0971 Y 17.2450 Z -1.0000 I -0.0708 J -0.0472
G03 X 24.1083 Y 17.2220 Z -1.0000 I 0.0596 J 0.0149
G01 X 24.1162 Y 17.2206 Z -1.0000
G01 X 24.1229 Y 17.2195 Z -1.0000
G01 X 24.1274 Y 17.2075 Z -1.0000
G01 X 24.1225 Y 17.1909 Z -1.0000
G01 X 24.1102 Y 17.1810 Z -1.0000
G03 X 24.0718 Y 17.1282 Z -1.0000 I 0.0213 J -0.0559
G03 X 24.1024 Y 17.0312 Z -1.0000 I 0.1451 J -0.0076
G02 X 24.1147 Y 16.9948 Z -1.0000 I -0.0456 J -0.0357
G02 X 24.1006 Y 16.8740 Z -1.0000 I -0.5858 J 0.0070
G03 X 24.0991 Y 16.8550 Z -1.0000 I 0.0661 J -0.0147
G03 X 24.1064 Y 16.7837 Z -1.0000 I 0.9431 J 0.0601
G02 X 24.1083 Y 16.7137 Z -1.0000 I -0.3141 J -0.0438
G02 X 24.0974 Y 16.6757 Z -1.0000 I -0.1004 J 0.0083
G03 X 24.0394 Y 16.4740 Z -1.0000 I 0.4753 J -0.2458
G03 X 24.0749 Y 16.4038 Z -1.0000 I 0.0750 J -0.0062
G01 X 24.0801 Y 16.3946 Z -1.0000
G02 X 24.0758 Y 16.3251 Z -1.0000 I -0.4765 J -0.0054
G03 X 24.0694 Y 16.2537 Z -1.0000 I 0.7753 J -0.1056
G01 X 24.0721 Y 16.2431 Z -1.0000
G01 X 24.0739 Y 16.2331 Z -1.0000
G02 X 24.0650 Y 16.2086 Z -1.0000 I -0.0888 J 0.0183
G03 X 24.0587 Y 16.1858 Z -1.0000 I 0.0470 J -0.0253
G01 X 24.0635 Y 16.1767 Z -1.0000
G01 X 24.0689 Y 16.1671 Z -1.0000
G02 X 24.0635 Y 16.1289 Z -1.0000 I -0.1383 J -0.0001
G03 X 24.0566 Y 16.0880 Z -1.0000 I 0.1793 J -0.0514
G03 X 24.0590 Y 16.0503 Z -1.0000 I 0.1567 J -0.0089
G02 X 24.0609 Y 16.0128 Z -1.0000 I -0.1384 J -0.0259
G02 X 24.0530 Y 15.9779 Z -1.0000 I -0.1275 J 0.0106
G03 X 24.0458 Y 15.9476 Z -1.0000 I 0.1121 J -0.0426
G01 X 24.0495 Y 15.9435 Z -1.0000
G01 X 24.0552 Y 15.9384 Z -1.0000
G02 X 24.0683 Y 15.7706 Z -1.0000 I -2.7483 J -0.2989
G02 X 24.0688 Y 15.6472 Z -1.0000 I -1.4292 J -0.0674
G01 X 24.0631 Y 15.6417 Z -1.0000
G01 X 24.0563 Y 15.6373 Z -1.0000
G03 X 24.0518 Y 15.6165 Z -1.0000 I 0.0462 J -0.0207
G01 X 24.0471 Y 15.5962 Z -1.0000
G01 X 24.0394 Y 15.5914 Z -1.0000
G01 X 24.0330 Y 15.5856 Z -1.0000
G03 X 24.0299 Y 15.4877 Z -1.0000 I 0.8095 J -0.0747
G02 X 24.0227 Y 15.3865 Z -1.0000 I -0.5113 J -0.0143
G02 X 24.0030 Y 15.3317 Z -1.0000 I -0.1655 J 0.0285
G03 X 23.9840 Y 15.2784 Z -1.0000 I 0.1399 J -0.0799
G03 X 23.9873 Y 15.2386 Z -1.0000 I 0.0793 J -0.0133
G02 X 23.9980 Y 15.1972 Z -1.0000 I -0.2439 J -0.0848
G02 X 24.0016 Y 15.1551 Z -1.0000 I -0.2471 J -0.0422
G03 X 24.0067 Y 15.1136 Z -1.0000 I 0.1702 J 0.0000
G03 X 24.0224 Y 15.0721 Z -1.0000 I 0.1875 J 0.0472
G02 X 24.0344 Y 15.0297 Z -1.0000 I -0.0986 J -0.0510
G02 X 24.0483 Y 14.7364 Z -1.0000 I -4.9008 J -0.3786
G02 X 24.0473 Y 14.4413 Z -1.0000 I -7.0164 J -0.1229
G02 X 24.0389 Y 14.3528 Z -1.0000 I -0.6379 J 0.0157
G03 X 24.0332 Y 14.2656 Z -1.0000 I 0.4394 J -0.0724
G03 X 24.0437 Y 14.2092 Z -1.0000 I 0.1912 J 0.0064
G02 X 24.0555 Y 14.1530 Z -1.0000 I -0.2145 J -0.0743
G02 X 24.0528 Y 14.0961 Z -1.0000 I -0.2240 J -0.0180
G03 X 24.0359 Y 13.8908 Z -1.0000 I 1.0910 J -0.1932
G03 X 24.0557 Y 13.8224 Z -1.0000 I 0.1331 J 0.0014
G02 X 24.0696 Y 13.7743 Z -1.0000 I -0.0792 J -0.0490
G02 X 24.0588 Y 13.4885 Z -1.0000 I -3.0285 J -0.0286
G03 X 24.0560 Y 13.3685 Z -1.0000 I 0.9825 J -0.0832
G01 X 24.0641 Y 13.3472 Z -1.0000
G02 X 24.0894 Y 13.2771 Z -1.0000 I -0.0844 J -0.0701
G02 X 24.0640 Y 13.1193 Z -1.0000 I -0.5045 J 0.0003
G03 X 24.0562 Y 13.0732 Z -1.0000 I 0.1465 J -0.0483
G03 X 24.0598 Y 12.8333 Z -1.0000 I 4.0637 J -0.0598
G02 X 24.0672 Y 12.4712 Z -1.0000 I -7.6976 J -0.3401
G02 X 24.0575 Y 12.0517 Z -1.0000 I -10.2567 J 0.0292
G03 X 24.0531 Y 11.9134 Z -1.0000 I 6.0307 J -0.2616
G03 X 24.0468 Y 11.5299 Z -1.0000 I 45.2449 J -0.9241
G02 X 24.0357 Y 11.1472 Z -1.0000 I -11.1322 J 0.1317
G02 X 24.0264 Y 11.0855 Z -1.0000 I -0.3012 J 0.0139
G03 X 24.0175 Y 11.0241 Z -1.0000 I 0.2723 J -0.0709
G03 X 24.0209 Y 10.9221 Z -1.0000 I 0.7601 J -0.0257
G02 X 24.0287 Y 10.8193 Z -1.0000 I -2.0184 J -0.2039
G02 X 24.0298 Y 10.7440 Z -1.0000 I -1.0883 J -0.0543
G03 X 24.0290 Y 10.6685 Z -1.0000 I 4.8609 J -0.0908
G03 X 24.0280 Y 10.1640 Z -1.0000 I 207.6418 J -0.6542
G02 X 24.0222 Y 9.6600 Z -1.0000 I -23.6826 J 0.0199
G02 X 24.0156 Y 9.6044 Z -1.0000 I -0.2900 J 0.0064
G03 X 23.9483 Y 9.0155 Z -1.0000 I 2.8770 J -0.6272
G03 X 24.0018 Y 8.5365 Z -1.0000 I 1.9441 J -0.0252
G02 X 24.0124 Y 8.4595 Z -1.0000 I -0.3816 J -0.0915
G02 X 24.0166 Y 8.1348 Z -1.0000 I -6.8312 J -0.2523
G03 X 24.0161 Y 8.0405 Z -1.0000 I 10.0516 J -0.1066
G03 X 24.0163 Y 7.8708 Z -1.0000 I 32.6123 J -0.0398
G02 X 24.0146 Y 7.7011 Z -1.0000 I -5.9613 J -0.0238
G02 X 24.0076 Y 7.5187 Z -1.0000 I -6.6780 J 0.1635
G02 X 23.9883 Y 7.3390 Z -1.0000 I -1.6213 J 0.0830
G02 X 23.9678 Y 7.2757 Z -1.0000 I -0.2183 J 0.0358
G03 X 23.9511 Y 7.2118 Z -1.0000 I 0.1421 J -0.0712
G03 X 23.9398 Y 6.6690 Z -1.0000 I 10.7341 J -0.4954
G03 X 23.9599 Y 6.1407 Z -1.0000 I 7.8684 J 0.0346
G01 X 23.9790 Y 6.1229 Z -1.0000
G03 X 24.0045 Y 6.1292 Z -1.0000 I -0.0000 J 0.0551
G01 X 24.0067 Y 6.1375 Z -1.0000
G01 X 24.0076 Y 6.1422 Z -1.0000
G01 X 24.0131 Y 6.1425 Z -1.0000
G01 X 24.0269 Y 6.1412 Z -1.0000
G01 X 24.0443 Y 6.1546 Z -1.0000
G01 X 24.0622 Y 6.1656 Z -1.0000
G01 X 24.0843 Y 6.1613 Z -1.0000
G01 X 24.1092 Y 6.1554 Z -1.0000
G03 X 24.1589 Y 6.1680 Z -1.0000 I -0.0146 J 0.1620
G02 X 24.2099 Y 6.1865 Z -1.0000 I 0.1850 J -0.4297
G02 X 24.2365 Y 6.1912 Z -1.0000 I 0.0334 J -0.1116
G03 X 24.2621 Y 6.1973 Z -1.0000 I -0.0044 J 0.0753
G03 X 24.2868 Y 6.2129 Z -1.0000 I -0.0372 J 0.0861
G02 X 24.3517 Y 6.2504 Z -1.0000 I 0.1263 J -0.1436
G01 X 24.3663 Y 6.2399 Z -1.0000
G01 X 24.3697 Y 6.2314 Z -1.0000
G03 X 24.3907 Y 6.2143 Z -1.0000 I 0.0779 J 0.0741
G01 X 24.4040 Y 6.2191 Z -1.0000
G03 X 24.4152 Y 6.2898 Z -1.0000 I -0.2189 J 0.0708
G02 X 24.4198 Y 6.4327 Z -1.0000 I 2.2456 J -0.0012
G01 X 24.4247 Y 6.4372 Z -1.0000
G02 X 24.4563 Y 6.4272 Z -1.0000 I 0.0000 J -0.0547
G02 X 24.5214 Y 6.3689 Z -1.0000 I -0.2193 J -0.3102
G01 X 24.5319 Y 6.3674 Z -1.0000
G01 X 24.5366 Y 6.3785 Z -1.0000
G01 X 24.5411 Y 6.4006 Z -1.0000
G01 X 24.5557 Y 6.4055 Z -1.0000
G01 X 24.5700 Y 6.4096 Z -1.0000
G01 X 24.5734 Y 6.4260 Z -1.0000
G02 X 24.5433 Y 6.5818 Z -1.0000 I 0.6483 J 0.2058
G01 X 24.5604 Y 6.6018 Z -1.0000
G01 X 24.5325 Y 6.6149 Z -1.0000
G01 X 24.5195 Y 6.6324 Z -1.0000
G01 X 24.5330 Y 6.6434 Z -1.0000
G01 X 24.5424 Y 6.6463 Z -1.0000
G02 X 24.5139 Y 6.6757 Z -1.0000 I 0.0210 J 0.0489
G01 X 24.5198 Y 6.7038 Z -1.0000
G01 X 24.5438 Y 6.7159 Z -1.0000
G01 X 24.5573 Y 6.7092 Z -1.0000
G01 X 24.5721 Y 6.6943 Z -1.0000
G01 X 24.5933 Y 6.6887 Z -1.0000
G01 X 24.6127 Y 6.6835 Z -1.0000
G01 X 24.6178 Y 6.6748 Z -1.0000
G01 X 24.6227 Y 6.6679 Z -1.0000
G01 X 24.6367 Y 6.6681 Z -1.0000
G01 X 24.6498 Y 6.6669 Z -1.0000
G01 X 24.6555 Y 6.6568 Z -1.0000
G01 X 24.6602 Y 6.6431 Z -1.0000
G01 X 24.6698 Y 6.6384 Z -1.0000
G02 X 24.7137 Y 6.6186 Z -1.0000 I 0.0000 J -0.0586
G02 X 24.7300 Y 6.5704 Z -1.0000 I -0.0491 J -0.0435
G01 X 24.7227 Y 6.5723 Z -1.0000
G01 X 24.7058 Y 6.5798 Z -1.0000
G01 X 24.6969 Y 6.5629 Z -1.0000
G01 X 24.6946 Y 6.5444 Z -1.0000
G01 X 24.6827 Y 6.5370 Z -1.0000
G01 X 24.6805 Y 6.5329 Z -1.0000
G01 X 24.6902 Y 6.5248 Z -1.0000
G01 X 24.7099 Y 6.5076 Z -1.0000
G02 X 24.7185 Y 6.4753 Z -1.0000 I -0.0565 J -0.0323
G01 X 24.7073 Y 6.4483 Z -1.0000
G01 X 24.6805 Y 6.4372 Z -1.0000
G02 X 24.6482 Y 6.4460 Z -1.0000 I -0.0000 J 0.0631
G01 X 24.6284 Y 6.4682 Z -1.0000
G01 X 24.6074 Y 6.4788 Z -1.0000
G01 X 24.5927 Y 6.4608 Z -1.0000
G01 X 24.5978 Y 6.4446 Z -1.0000
G01 X 24.6049 Y 6.4432 Z -1.0000
G01 X 24.5986 Y 6.4066 Z -1.0000
G03 X 24.5813 Y 6.3623 Z -1.0000 I 0.9134 J -0.3817
G01 X 24.5802 Y 6.3558 Z -1.0000
G01 X 24.5961 Y 6.3429 Z -1.0000
G01 X 24.6221 Y 6.3648 Z -1.0000
G01 X 24.6294 Y 6.3548 Z -1.0000
G03 X 24.6345 Y 6.3307 Z -1.0000 I 0.0731 J 0.0028
G01 X 24.6455 Y 6.3139 Z -1.0000
G03 X 24.6887 Y 6.2949 Z -1.0000 I 0.0459 J 0.0459
G01 X 24.7059 Y 6.3114 Z -1.0000
G01 X 24.7095 Y 6.3203 Z -1.0000
G01 X 24.7181 Y 6.3240 Z -1.0000
G01 X 24.7238 Y 6.3195 Z -1.0000
G01 X 24.7230 Y 6.3050 Z -1.0000
G01 X 24.7258 Y 6.2959 Z -1.0000
G01 X 24.7391 Y 6.2943 Z -1.0000
G03 X 24.7977 Y 6.3302 Z -1.0000 I -0.0561 J 0.1575
G01 X 24.7961 Y 6.3482 Z -1.0000
G01 X 24.7881 Y 6.3575 Z -1.0000
G02 X 24.7767 Y 6.3900 Z -1.0000 I 0.1601 J 0.0745
G02 X 24.7771 Y 6.4177 Z -1.0000 I 0.0541 J 0.0132
G01 X 24.7860 Y 6.4246 Z -1.0000
G01 X 24.8062 Y 6.4117 Z -1.0000
G02 X 24.8191 Y 6.3544 Z -1.0000 I -0.1219 J -0.0574
G03 X 24.8243 Y 6.3292 Z -1.0000 I 0.0637 J -0.0000
G01 X 24.8322 Y 6.3240 Z -1.0000
G01 X 24.8439 Y 6.3206 Z -1.0000
G02 X 24.8730 Y 6.2981 Z -1.0000 I -0.1058 J -0.1673
G01 X 24.8957 Y 6.2903 Z -1.0000
G01 X 24.9090 Y 6.3012 Z -1.0000
G01 X 24.9143 Y 6.3055 Z -1.0000
G01 X 24.9184 Y 6.3019 Z -1.0000
G01 X 24.9302 Y 6.2846 Z -1.0000
G03 X 24.9825 Y 6.2736 Z -1.0000 I 0.0523 J 0.1187
G03 X 25.0411 Y 6.2779 Z -1.0000 I -0.0000 J 0.3994
G01 X 25.0456 Y 6.2830 Z -1.0000
G01 X 25.0474 Y 6.2920 Z -1.0000
G02 X 25.0565 Y 6.3095 Z -1.0000 I 0.1107 J -0.0464
G01 X 25.0696 Y 6.3159 Z -1.0000
G02 X 25.0996 Y 6.3054 Z -1.0000 I -0.0063 J -0.0658
G01 X 25.1298 Y 6.2993 Z -1.0000
G03 X 25.1599 Y 6.3164 Z -1.0000 I -0.0094 J 0.0515
G01 X 25.1973 Y 6.3233 Z -1.0000
G01 X 25.2131 Y 6.2879 Z -1.0000
G01 X 25.2180 Y 6.2761 Z -1.0000
G01 X 25.2305 Y 6.2772 Z -1.0000
G01 X 25.2511 Y 6.2839 Z -1.0000
G01 X 25.2626 Y 6.2740 Z -1.0000
G01 X 25.2591 Y 6.2544 Z -1.0000
G01 X 25.2391 Y 6.2407 Z -1.0000
G01 X 25.2179 Y 6.2226 Z -1.0000
G01 X 25.2245 Y 6.2065 Z -1.0000
G01 X 25.2274 Y 6.2022 Z -1.0000
G01 X 25.2245 Y 6.1992 Z -1.0000
G01 X 25.2206 Y 6.1887 Z -1.0000
G01 X 25.2471 Y 6.1766 Z -1.0000
G02 X 25.2835 Y 6.1686 Z -1.0000 I -0.0091 J -0.1274
G02 X 25.3213 Y 6.1483 Z -1.0000 I -0.0601 J -0.1579
G03 X 25.3589 Y 6.1276 Z -1.0000 I 0.1088 J 0.1527
G03 X 25.3837 Y 6.1227 Z -1.0000 I 0.0248 J 0.0603
G01 X 25.4044 Y 6.1170 Z -1.0000
G01 X 25.4102 Y 6.1070 Z -1.0000
G01 X 25.4139 Y 6.1036 Z -1.0000
G01 X 25.4209 Y 6.1079 Z -1.0000
G01 X 25.4349 Y 6.1167 Z -1.0000
G02 X 25.4805 Y 6.1153 Z -1.0000 I 0.0182 J -0.1467
G01 X 25.5145 Y 6.1010 Z -1.0000
G01 X 25.5044 Y 6.0583 Z -1.0000
G03 X 25.5742 Y 6.0412 Z -1.0000 I 0.0489 J 0.0487
G02 X 25.6410 Y 6.0373 Z -1.0000 I 0.0283 J -0.0893
G01 X 25.6542 Y 6.0052 Z -1.0000
G01 X 25.6571 Y 5.9919 Z -1.0000
G03 X 25.6859 Y 5.9740 Z -1.0000 I 0.0543 J 0.0552
G02 X 25.7191 Y 5.9568 Z -1.0000 I -0.0435 J -0.1244
G01 X 25.7244 Y 5.9464 Z -1.0000
G01 X 25.7289 Y 5.9431 Z -1.0000
G01 X 25.7448 Y 5.9527 Z -1.0000
G01 X 25.7655 Y 5.9596 Z -1.0000
G02 X 25.7948 Y 5.9454 Z -1.0000 I -0.0078 J -0.0537
G03 X 25.8210 Y 5.9322 Z -1.0000 I 0.0358 J 0.0381
G01 X 25.8323 Y 5.9384 Z -1.0000
G01 X 25.8443 Y 5.9534 Z -1.0000
G01 X 25.8636 Y 5.9592 Z -1.0000
G01 X 25.8771 Y 5.9524 Z -1.0000
G01 X 25.8790 Y 5.9383 Z -1.0000
G01 X 25.8823 Y 5.9275 Z -1.0000
G01 X 25.8983 Y 5.9246 Z -1.0000
G01 X 25.9078 Y 5.9170 Z -1.0000
G01 X 25.8973 Y 5.8955 Z -1.0000
G03 X 25.8801 Y 5.8722 Z -1.0000 I 0.0400 J -0.0477
G01 X 25.8830 Y 5.8620 Z -1.0000
G01 X 25.8941 Y 5.8502 Z -1.0000
G02 X 25.9059 Y 5.8240 Z -1.0000 I -0.1029 J -0.0619
G01 X 25.9199 Y 5.8028 Z -1.0000
G01 X 25.9390 Y 5.7957 Z -1.0000
G01 X 25.9563 Y 5.7900 Z -1.0000
G01 X 25.9602 Y 5.7802 Z -1.0000
G01 X 25.9650 Y 5.7716 Z -1.0000
G03 X 25.9947 Y 5.7674 Z -1.0000 I 0.0245 J 0.0664
G01 X 26.0082 Y 5.7600 Z -1.0000
G01 X 26.0079 Y 5.7430 Z -1.0000
G03 X 26.0715 Y 5.7314 Z -1.0000 I 0.0554 J 0.1226
G02 X 26.1213 Y 5.7289 Z -1.0000 I 0.0140 J -0.2248
G01 X 26.1322 Y 5.7217 Z -1.0000
G01 X 26.1421 Y 5.7146 Z -1.0000
G01 X 26.1586 Y 5.7159 Z -1.0000
G01 X 26.1717 Y 5.7151 Z -1.0000
G01 X 26.1773 Y 5.7059 Z -1.0000
G01 X 26.1813 Y 5.7023 Z -1.0000
G01 X 26.1892 Y 5.7074 Z -1.0000
G02 X 26.2383 Y 5.7324 Z -1.0000 I 0.0457 J -0.0289
G02 X 26.3173 Y 5.6994 Z -1.0000 I -0.0081 J -0.1303
G01 X 26.3368 Y 5.6892 Z -1.0000
G01 X 26.3454 Y 5.6928 Z -1.0000
G02 X 26.3889 Y 5.7189 Z -1.0000 I 0.0470 J -0.0291
G02 X 26.4394 Y 5.6989 Z -1.0000 I 0.0041 J -0.0635
G01 X 26.4574 Y 5.6885 Z -1.0000
G03 X 26.5139 Y 5.6816 Z -1.0000 I 0.0605 J 0.2616
G02 X 26.5478 Y 5.6757 Z -1.0000 I -0.0016 J -0.1096
G01 X 26.5480 Y 5.6699 Z -1.0000
G01 X 26.5433 Y 5.6628 Z -1.0000
G01 X 26.5480 Y 5.6578 Z -1.0000
G02 X 26.5718 Y 5.6528 Z -1.0000 I -0.0039 J -0.0759
G02 X 26.5964 Y 5.6389 Z -1.0000 I -0.0372 J -0.0954
G01 X 26.5969 Y 5.6277 Z -1.0000
G01 X 26.5713 Y 5.6163 Z -1.0000
G01 X 26.5983 Y 5.6069 Z -1.0000
G03 X 26.6737 Y 5.6042 Z -1.0000 I 0.0977 J 1.6898
G03 X 26.6989 Y 5.6056 Z -1.0000 I 0.0025 J 0.1865
G02 X 26.7241 Y 5.6074 Z -1.0000 I 0.0310 J -0.2519
G02 X 26.9557 Y 5.6115 Z -1.0000 I 0.5218 J -23.1076
G02 X 27.1493 Y 5.6064 Z -1.0000 I 0.0317 J -2.4670
G01 X 27.1506 Y 5.5987 Z -1.0000
G02 X 27.1132 Y 5.5858 Z -1.0000 I -0.1108 J 0.2609
G02 X 27.0897 Y 5.5824 Z -1.0000 I -0.0258 J 0.0963
G01 X 27.0738 Y 5.5786 Z -1.0000
G01 X 27.0731 Y 5.5744 Z -1.0000
G01 X 27.1014 Y 5.5622 Z -1.0000
G03 X 27.6779 Y 5.5574 Z -1.0000 I 0.4114 J 14.7178
G02 X 27.7657 Y 5.5524 Z -1.0000 I 0.0072 J -0.6460
G01 X 27.7688 Y 5.5459 Z -1.0000
G01 X 27.7753 Y 5.5268 Z -1.0000
G01 X 27.8060 Y 5.5320 Z -1.0000
G01 X 27.8243 Y 5.5390 Z -1.0000
G01 X 27.8412 Y 5.5332 Z -1.0000
G01 X 27.8601 Y 5.5246 Z -1.0000
G03 X 27.9355 Y 5.5174 Z -1.0000 I 0.0875 J 0.5235
G02 X 28.0057 Y 5.5086 Z -1.0000 I -0.0076 J -0.3409
G01 X 28.0129 Y 5.4994 Z -1.0000
G01 X 28.0078 Y 5.4870 Z -1.0000
G01 X 27.9909 Y 5.4773 Z -1.0000
G01 X 28.0035 Y 5.4701 Z -1.0000
G02 X 28.0332 Y 5.4640 Z -1.0000 I -0.0040 J -0.0937
G01 X 28.0381 Y 5.4569 Z -1.0000
G01 X 28.0432 Y 5.4512 Z -1.0000
G03 X 28.0820 Y 5.4522 Z -1.0000 I 0.0155 J 0.1451
G02 X 28.1472 Y 5.4409 Z -1.0000 I 0.0163 J -0.1001
G01 X 28.1585 Y 5.4100 Z -1.0000
G01 X 28.1599 Y 5.3986 Z -1.0000
G01 X 28.1705 Y 5.3932 Z -1.0000
G01 X 28.1843 Y 5.3979 Z -1.0000
G01 X 28.1890 Y 5.4073 Z -1.0000
G01 X 28.1948 Y 5.4143 Z -1.0000
G02 X 28.2258 Y 5.4141 Z -1.0000 I 0.0150 J -0.0808
G03 X 28.2588 Y 5.4134 Z -1.0000 I 0.0185 J 0.0922
G01 X 28.2673 Y 5.4206 Z -1.0000
G01 X 28.2753 Y 5.4261 Z -1.0000
G02 X 28.3013 Y 5.4188 Z -1.0000 I -0.0032 J -0.0621
G01 X 28.3164 Y 5.4026 Z -1.0000
G01 X 28.3133 Y 5.3922 Z -1.0000
G01 X 28.2952 Y 5.3858 Z -1.0000
G01 X 28.2753 Y 5.3876 Z -1.0000
G01 X 28.2585 Y 5.3863 Z -1.0000
G01 X 28.2471 Y 5.3739 Z -1.0000
G01 X 28.2366 Y 5.3623 Z -1.0000
G01 X 28.2250 Y 5.3628 Z -1.0000
G03 X 28.1652 Y 5.3818 Z -1.0000 I -0.0678 J -0.1097
G03 X 28.0725 Y 5.3723 Z -1.0000 I -0.0177 J -0.2848
G01 X 28.0699 Y 5.3571 Z -1.0000
G03 X 28.1173 Y 5.3419 Z -1.0000 I 0.0494 J 0.0730
G03 X 28.3482 Y 5.3445 Z -1.0000 I 0.0782 J 3.2992
G01 X 28.3648 Y 5.3533 Z -1.0000
G01 X 28.3734 Y 5.3578 Z -1.0000
G02 X 28.6039 Y 5.3660 Z -1.0000 I 0.3444 J -6.4394
G03 X 28.8355 Y 5.3724 Z -1.0000 I -0.2126 J 11.8233
G01 X 28.8415 Y 5.3751 Z -1.0000
G01 X 28.8226 Y 5.3886 Z -1.0000
G02 X 28.7765 Y 5.4161 Z -1.0000 I 0.0471 J 0.1315
G01 X 28.7743 Y 5.4319 Z -1.0000
G01 X 28.7828 Y 5.4362 Z -1.0000
G02 X 28.8118 Y 5.4285 Z -1.0000 I -0.0084 J -0.0906
G03 X 28.8428 Y 5.4221 Z -1.0000 I 0.0295 J 0.0647
G03 X 28.8770 Y 5.4299 Z -1.0000 I -0.0019 J 0.0870
G02 X 29.0276 Y 5.4676 Z -1.0000 I 0.1774 J -0.3893
G02 X 29.1001 Y 5.4439 Z -1.0000 I 0.0065 J -0.1033
G01 X 29.1162 Y 5.4396 Z -1.0000
G01 X 29.1269 Y 5.4484 Z -1.0000
G01 X 29.1374 Y 5.4648 Z -1.0000
G01 X 29.1467 Y 5.4687 Z -1.0000
G01 X 29.1519 Y 5.4649 Z -1.0000
G01 X 29.1509 Y 5.4561 Z -1.0000
G01 X 29.1503 Y 5.4476 Z -1.0000
G01 X 29.1564 Y 5.4436 Z -1.0000
G01 X 29.1664 Y 5.4468 Z -1.0000
G01 X 29.1697 Y 5.4532 Z -1.0000
G01 X 29.1743 Y 5.4582 Z -1.0000
G02 X 29.2822 Y 5.4626 Z -1.0000 I 0.1058 J -1.2720
G03 X 29.3899 Y 5.4733 Z -1.0000 I 0.0010 J 0.5376
G03 X 29.4210 Y 5.4906 Z -1.0000 I -0.0116 J 0.0572
G02 X 29.4491 Y 5.5089 Z -1.0000 I 0.0506 J -0.0472
G01 X 29.4553 Y 5.5025 Z -1.0000
G01 X 29.4593 Y 5.4926 Z -1.0000
G03 X 29.4983 Y 5.4831 Z -1.0000 I 0.0455 J 0.1012
G03 X 29.5541 Y 5.4956 Z -1.0000 I 0.0061 J 0.1035
G01 X 29.5605 Y 5.5171 Z -1.0000
G01 X 29.5629 Y 5.5312 Z -1.0000
G01 X 29.5873 Y 5.5418 Z -1.0000
G02 X 29.6766 Y 5.5273 Z -1.0000 I 0.0147 J -0.1927
G01 X 29.6978 Y 5.4955 Z -1.0000
G01 X 29.7032 Y 5.4896 Z -1.0000
G01 X 29.7165 Y 5.4937 Z -1.0000
G01 X 29.7323 Y 5.4978 Z -1.0000
G01 X 29.7430 Y 5.4890 Z -1.0000
G01 X 29.7541 Y 5.4735 Z -1.0000
G01 X 29.7676 Y 5.4687 Z -1.0000
G01 X 29.7823 Y 5.4650 Z -1.0000
G01 X 29.7927 Y 5.4553 Z -1.0000
G01 X 29.7912 Y 5.4485 Z -1.0000
G01 X 29.7790 Y 5.4459 Z -1.0000
G01 X 29.7605 Y 5.4438 Z -1.0000
G01 X 29.7515 Y 5.4341 Z -1.0000
G01 X 29.7556 Y 5.4252 Z -1.0000
G03 X 29.7911 Y 5.4184 Z -1.0000 I 0.0355 J 0.0892
G02 X 29.8282 Y 5.4104 Z -1.0000 I -0.0000 J -0.0897
G01 X 29.8361 Y 5.3980 Z -1.0000
G01 X 29.8451 Y 5.3874 Z -1.0000
G03 X 29.9112 Y 5.3849 Z -1.0000 I 0.0422 J 0.2420
G02 X 29.9836 Y 5.3871 Z -1.0000 I 0.0527 J -0.5437
G01 X 29.9926 Y 5.3818 Z -1.0000
G01 X 30.0196 Y 5.3633 Z -1.0000
G03 X 30.1442 Y 5.3544 Z -1.0000 I 0.1039 J 0.5753
G03 X 30.4599 Y 5.3730 Z -1.0000 I -0.2385 J 6.7405
G03 X 30.6220 Y 5.3938 Z -1.0000 I -0.1476 J 1.7905
G02 X 30.6976 Y 5.4060 Z -1.0000 I 0.4616 J -2.6243
G02 X 30.8421 Y 5.4261 Z -1.0000 I 1.4966 J -10.2220
G03 X 30.9861 Y 5.4482 Z -1.0000 I -0.4614 J 3.4949
G03 X 31.0370 Y 5.4601 Z -1.0000 I -0.0782 J 0.4486
G02 X 31.0881 Y 5.4695 Z -1.0000 I 0.0694 J -0.2341
G02 X 31.2225 Y 5.4741 Z -1.0000 I 0.1238 J -1.6438
G03 X 31.3529 Y 5.4780 Z -1.0000 I 0.0115 J 1.7791
G01 X 31.3576 Y 5.4831 Z -1.0000
G01 X 31.3613 Y 5.4877 Z -1.0000
G01 X 31.3736 Y 5.4869 Z -1.0000
G03 X 31.4195 Y 5.4822 Z -1.0000 I 0.0317 J 0.0829
G03 X 31.6185 Y 5.5269 Z -1.0000 I -0.2769 J 1.7008
G03 X 31.6881 Y 5.5563 Z -1.0000 I -0.0868 J 0.3020
G01 X 31.6971 Y 5.5719 Z -1.0000
G01 X 31.7042 Y 5.5874 Z -1.0000
G01 X 31.7230 Y 5.5944 Z -1.0000
G01 X 31.7395 Y 5.5997 Z -1.0000
G01 X 31.7410 Y 5.6073 Z -1.0000
G01 X 31.7299 Y 5.6142 Z -1.0000
G03 X 31.6302 Y 5.6181 Z -1.0000 I -0.0834 J -0.8437
G02 X 31.5277 Y 5.6203 Z -1.0000 I -0.0244 J 1.2559
G02 X 31.4518 Y 5.6293 Z -1.0000 I 0.0434 J 0.6962
G03 X 31.3761 Y 5.6385 Z -1.0000 I -0.1306 J -0.7541
G03 X 31.3449 Y 5.6370 Z -1.0000 I -0.0093 J -0.1291
G02 X 31.3146 Y 5.6362 Z -1.0000 I -0.0175 J 0.1005
G01 X 31.2963 Y 5.6431 Z -1.0000
G01 X 31.2977 Y 5.6641 Z -1.0000
G02 X 31.3780 Y 5.6825 Z -1.0000 I 0.0803 J -0.1663
G03 X 31.4498 Y 5.6880 Z -1.0000 I 0.0000 J 0.4730
G01 X 31.4526 Y 5.6940 Z -1.0000
G01 X 31.4557 Y 5.6998 Z -1.0000
G02 X 31.6436 Y 5.7037 Z -1.0000 I 0.1594 J -3.1490
G03 X 31.8412 Y 5.7060 Z -1.0000 I 0.0426 J 4.8145
G03 X 31.8760 Y 5.7112 Z -1.0000 I -0.0049 J 0.1516
G01 X 31.8997 Y 5.7109 Z -1.0000
G01 X 31.9036 Y 5.7031 Z -1.0000
G01 X 31.9046 Y 5.6891 Z -1.0000
G01 X 31.9183 Y 5.6775 Z -1.0000
G01 X 31.9384 Y 5.6818 Z -1.0000
G01 X 31.9384 Y 5.6977 Z -1.0000
G01 X 31.9417 Y 5.7156 Z -1.0000
G02 X 32.0021 Y 5.7256 Z -1.0000 I 0.0497 J -0.1137
G03 X 32.0393 Y 5.7298 Z -1.0000 I 0.0081 J 0.0944
G01 X 32.0398 Y 5.7378 Z -1.0000
G02 X 32.0031 Y 5.7593 Z -1.0000 I 0.0908 J 0.1964
G01 X 31.9989 Y 5.7675 Z -1.0000
G01 X 32.0190 Y 5.7875 Z -1.0000
G02 X 32.2818 Y 5.7667 Z -1.0000 I -0.0051 J -1.7330
G03 X 32.5022 Y 5.7446 Z -1.0000 I 0.3104 J 1.9835
G01 X 32.5145 Y 5.7563 Z -1.0000
G01 X 32.5110 Y 5.7658 Z -1.0000
G01 X 32.5004 Y 5.7730 Z -1.0000
G01 X 32.5790 Y 5.7799 Z -1.0000
G03 X 32.6992 Y 5.7871 Z -1.0000 I -0.0399 J 1.6735
G03 X 32.8602 Y 5.8070 Z -1.0000 I -0.2865 J 2.9830
G02 X 32.9485 Y 5.8179 Z -1.0000 I 0.2463 J -1.6334
G02 X 33.0010 Y 5.8205 Z -1.0000 I 0.0551 J -0.5730
G03 X 33.0509 Y 5.8257 Z -1.0000 I -0.0012 J 0.2543
G01 X 33.0611 Y 5.8329 Z -1.0000
G01 X 33.0590 Y 5.8395 Z -1.0000
G03 X 33.0336 Y 5.8444 Z -1.0000 I -0.0244 J -0.0582
G02 X 32.9986 Y 5.8442 Z -1.0000 I -0.0251 J 1.5476
G02 X 32.9105 Y 5.8452 Z -1.0000 I 0.0623 J 9.7432
G03 X 32.8226 Y 5.8444 Z -1.0000 I -0.0280 J -1.8095
G03 X 32.7062 Y 5.8384 Z -1.0000 I 0.1042 J -3.1421
G02 X 32.5966 Y 5.8374 Z -1.0000 I -0.0631 J 0.9115
G01 X 32.5899 Y 5.8444 Z -1.0000
G01 X 32.5958 Y 5.8527 Z -1.0000
G02 X 32.6371 Y 5.8605 Z -1.0000 I 0.0473 J -0.1383
G03 X 32.7480 Y 5.8745 Z -1.0000 I -0.0273 J 0.6624
G03 X 32.7820 Y 5.8913 Z -1.0000 I -0.0160 J 0.0752
G02 X 32.8115 Y 5.9130 Z -1.0000 I 0.1606 J -0.1871
G02 X 32.8697 Y 5.9464 Z -1.0000 I 0.4411 J -0.7027
G03 X 32.9255 Y 5.9798 Z -1.0000 I -0.2519 J 0.4845
G01 X 32.9294 Y 5.9871 Z -1.0000
G01 X 32.9325 Y 5.9936 Z -1.0000
G01 X 32.9414 Y 5.9968 Z -1.0000
G01 X 32.9520 Y 6.0002 Z -1.0000
G03 X 32.9848 Y 6.0282 Z -1.0000 I -0.1595 J 0.2204
G02 X 33.0181 Y 6.0553 Z -1.0000 I 0.1473 J -0.1473
G01 X 33.0329 Y 6.0597 Z -1.0000
G01 X 33.0681 Y 6.0756 Z -1.0000
G03 X 33.0951 Y 6.1308 Z -1.0000 I -0.0889 J 0.0777
G01 X 33.1061 Y 6.1452 Z -1.0000
G01 X 33.1340 Y 6.1500 Z -1.0000
G03 X 33.1619 Y 6.1532 Z -1.0000 I 0.0071 J 0.0604
G01 X 33.1685 Y 6.1625 Z -1.0000
G01 X 33.1725 Y 6.1659 Z -1.0000
G01 X 33.1809 Y 6.1603 Z -1.0000
G01 X 33.1884 Y 6.1577 Z -1.0000
G01 X 33.1933 Y 6.1643 Z -1.0000
G03 X 33.1741 Y 6.2089 Z -1.0000 I -0.0602 J 0.0005
G01 X 33.1460 Y 6.2084 Z -1.0000
G01 X 33.1318 Y 6.1997 Z -1.0000
G01 X 33.1187 Y 6.1999 Z -1.0000
G01 X 33.1130 Y 6.2230 Z -1.0000
G02 X 33.1681 Y 6.2505 Z -1.0000 I 0.0671 J -0.0654
G01 X 33.1901 Y 6.2415 Z -1.0000
G02 X 33.2123 Y 6.1940 Z -1.0000 I -0.0921 J -0.0720
G01 X 33.2309 Y 6.1683 Z -1.0000
G01 X 33.2438 Y 6.1757 Z -1.0000
G01 X 33.2485 Y 6.1909 Z -1.0000
G01 X 33.2553 Y 6.1923 Z -1.0000
G01 X 33.2631 Y 6.1941 Z -1.0000
G03 X 33.2751 Y 6.2227 Z -1.0000 I -0.0722 J 0.0471
G02 X 33.2880 Y 6.2531 Z -1.0000 I 0.0872 J -0.0190
G01 X 33.2981 Y 6.2574 Z -1.0000
G01 X 33.3064 Y 6.2620 Z -1.0000
G03 X 33.3105 Y 6.2891 Z -1.0000 I -0.0587 J 0.0229
G02 X 33.3130 Y 6.3192 Z -1.0000 I 0.1018 J 0.0070
G01 X 33.3186 Y 6.3237 Z -1.0000
G01 X 33.3340 Y 6.3133 Z -1.0000
G02 X 33.3444 Y 6.2598 Z -1.0000 I -0.1330 J -0.0535
G01 X 33.3515 Y 6.2530 Z -1.0000
G01 X 33.3695 Y 6.2608 Z -1.0000
G03 X 33.3913 Y 6.2871 Z -1.0000 I -0.1304 J 0.1304
G01 X 33.3932 Y 6.2954 Z -1.0000
G01 X 33.4019 Y 6.3233 Z -1.0000
G01 X 33.4324 Y 6.3363 Z -1.0000
G03 X 33.4646 Y 6.3418 Z -1.0000 I 0.0000 J 0.0967
G01 X 33.4701 Y 6.3496 Z -1.0000
G01 X 33.4745 Y 6.3549 Z -1.0000
G01 X 33.4858 Y 6.3528 Z -1.0000
G03 X 33.5097 Y 6.3435 Z -1.0000 I 0.0349 J 0.0547
G03 X 33.5864 Y 6.3355 Z -1.0000 I 0.0983 J 0.5703
G01 X 33.6021 Y 6.3286 Z -1.0000
G01 X 33.6084 Y 6.3133 Z -1.0000
G01 X 33.6140 Y 6.2951 Z -1.0000
