%
(Header)
(Generated by gcodetools from Inkscape.)
(Using default header. To add your own header create file "header" in the output dir.)
M3
(Header end.)
G21 (All units in mm)

(Start cutting path id: path164)
(Change tool to Default tool)

G00 Z 5.0000
G00 X 29.6803 Y 2.2770

G01 Z -1.0000 F 100.0000(Penetrate)
G01 X 29.6898 Y 2.2865 Z -1.0000 F 3500.0000
G01 X 29.7006 Y 2.2896 Z -1.0000
G01 X 29.7062 Y 2.2857 Z -1.0000
G01 X 29.7054 Y 2.2770 Z -1.0000
G01 X 29.6959 Y 2.2676 Z -1.0000
G01 X 29.6851 Y 2.2645 Z -1.0000
G01 X 29.6795 Y 2.2683 Z -1.0000
G01 X 29.6803 Y 2.2770 Z -1.0000
G01 X 29.6803 Y 2.2770 Z -1.0000
G00 Z 5.0000

(End cutting path id: path164)


(Start cutting path id: path164)
(Change tool to Default tool)

G00 Z 5.0000
G00 X 31.1466 Y 3.8002

G01 Z -1.0000 F 100.0000(Penetrate)
G03 X 31.1238 Y 3.8283 Z -1.0000 I -0.1501 J -0.0984 F 3500.0000
G01 X 31.1151 Y 3.8320 Z -1.0000
G02 X 31.0210 Y 3.8622 Z -1.0000 I 0.0000 J 0.1613
G02 X 30.9908 Y 3.9212 Z -1.0000 I 0.0424 J 0.0590
G01 X 30.9949 Y 3.9246 Z -1.0000
G02 X 31.0552 Y 3.9077 Z -1.0000 I -0.0976 J -0.4644
G02 X 31.1687 Y 3.8437 Z -1.0000 I -0.1246 J -0.3537
G02 X 31.1914 Y 3.7958 Z -1.0000 I -0.0394 J -0.0479
G01 X 31.1764 Y 3.7822 Z -1.0000
G01 X 31.1466 Y 3.8003 Z -1.0000
G01 X 31.1466 Y 3.8002 Z -1.0000
G00 Z 5.0000

(End cutting path id: path164)


(Start cutting path id: path164)
(Change tool to Default tool)

G00 Z 5.0000
G00 X 30.8967 Y 4.4458

G01 Z -1.0000 F 100.0000(Penetrate)
G03 X 30.8339 Y 4.4683 Z -1.0000 I -3.1581 J -8.7279 F 3500.0000
G03 X 30.7086 Y 4.5123 Z -1.0000 I -12.3753 J -34.9842
G02 X 30.5835 Y 4.5570 Z -1.0000 I 3.1775 J 9.0858
G02 X 30.5017 Y 4.5879 Z -1.0000 I 1.4173 J 3.8799
G03 X 30.4200 Y 4.6191 Z -1.0000 I -2.2393 J -5.7495
G03 X 30.2760 Y 4.6722 Z -1.0000 I -6.6869 J -17.9162
G02 X 30.1321 Y 4.7255 Z -1.0000 I 4.5750 J 12.5655
G02 X 30.0753 Y 4.7478 Z -1.0000 I 0.7456 J 1.9768
G03 X 30.0187 Y 4.7704 Z -1.0000 I -1.0773 J -2.6267
G03 X 29.9123 Y 4.8106 Z -1.0000 I -3.4945 J -9.0710
G02 X 29.8059 Y 4.8506 Z -1.0000 I 5.7793 J 15.5405
G02 X 29.7806 Y 4.8606 Z -1.0000 I 0.3327 J 0.8761
G03 X 29.7554 Y 4.8705 Z -1.0000 I -0.2492 J -0.6028
G03 X 29.6803 Y 4.8973 Z -1.0000 I -1.9289 J -5.2782
G02 X 29.6056 Y 4.9247 Z -1.0000 I 0.8455 J 2.4195
G02 X 29.5800 Y 4.9359 Z -1.0000 I 0.1131 J 0.2940
G03 X 29.4711 Y 4.9830 Z -1.0000 I -0.5519 J -1.1258
G03 X 29.0282 Y 5.1442 Z -1.0000 I -6.9788 J -18.4800
G02 X 28.9031 Y 5.1889 Z -1.0000 I 3.8630 J 11.0187
G02 X 28.7837 Y 5.2331 Z -1.0000 I 3.6872 J 10.1460
G03 X 28.6645 Y 5.2779 Z -1.0000 I -22.8035 J -60.5137
G03 X 28.6207 Y 5.2942 Z -1.0000 I -2.9629 J -7.9099
G02 X 28.5768 Y 5.3104 Z -1.0000 I 18.4216 J 49.9660
G02 X 28.4702 Y 5.3498 Z -1.0000 I 72.9950 J 197.4543
G03 X 28.3636 Y 5.3891 Z -1.0000 I -10.2374 J -27.6470
G03 X 28.3229 Y 5.4037 Z -1.0000 I -1.4345 J -3.9204
G02 X 28.2857 Y 5.4207 Z -1.0000 I 0.0761 J 0.2158
G01 X 28.2821 Y 5.4269 Z -1.0000
G01 X 28.2944 Y 5.4403 Z -1.0000
G02 X 28.3466 Y 5.4326 Z -1.0000 I 0.0100 J -0.1129
G03 X 28.4293 Y 5.4006 Z -1.0000 I 1.3638 J 3.4017
G03 X 28.5580 Y 5.3537 Z -1.0000 I 3.0484 J 8.1707
G03 X 28.6772 Y 5.3115 Z -1.0000 I 34.4187 J 96.8692
G03 X 28.6897 Y 5.3071 Z -1.0000 I 0.4220 J 1.1922
G02 X 28.7021 Y 5.3024 Z -1.0000 I -0.0691 J -0.1988
G02 X 28.7468 Y 5.2830 Z -1.0000 I -0.9348 J -2.2248
G03 X 28.7920 Y 5.2651 Z -1.0000 I 0.2387 J 0.5375
G03 X 28.8283 Y 5.2546 Z -1.0000 I 0.1163 J 0.3338
G02 X 28.8646 Y 5.2441 Z -1.0000 I -0.0782 J -0.3379
G02 X 28.9342 Y 5.2177 Z -1.0000 I -0.4557 J -1.3030
G03 X 29.0077 Y 5.1889 Z -1.0000 I 0.8671 J 2.1065
G03 X 29.3207 Y 5.0740 Z -1.0000 I 14.1697 J 38.1248
G02 X 29.4622 Y 5.0214 Z -1.0000 I -3.2173 J -8.8798
G02 X 29.6718 Y 4.9404 Z -1.0000 I -7.4324 J -19.5326
G03 X 29.8812 Y 4.8588 Z -1.0000 I 14.5178 J 36.9583
G03 X 29.9437 Y 4.8354 Z -1.0000 I 1.2495 J 3.2344
G02 X 30.1840 Y 4.7460 Z -1.0000 I -6.3549 J -17.4437
G02 X 30.3136 Y 4.6948 Z -1.0000 I -1.9628 J -5.1648
G03 X 30.3452 Y 4.6825 Z -1.0000 I 0.3351 J 0.8136
G03 X 30.4766 Y 4.6348 Z -1.0000 I 5.7970 J 15.7755
G02 X 30.6081 Y 4.5872 Z -1.0000 I -6.0026 J -16.7583
G02 X 30.7675 Y 4.5280 Z -1.0000 I -8.8688 J -24.1605
G03 X 30.9237 Y 4.4826 Z -1.0000 I 0.3797 J 1.0137
G01 X 30.9482 Y 4.4899 Z -1.0000
G01 X 30.9580 Y 4.5101 Z -1.0000
G01 X 30.9520 Y 4.5226 Z -1.0000
G01 X 30.9482 Y 4.5299 Z -1.0000
G01 X 30.9525 Y 4.5340 Z -1.0000
G01 X 30.9547 Y 4.5429 Z -1.0000
G03 X 30.8340 Y 4.5963 Z -1.0000 I -0.4548 J -0.8643
G02 X 30.6496 Y 4.6645 Z -1.0000 I 6.8893 J 18.9149
G02 X 30.5344 Y 4.7088 Z -1.0000 I 2.8177 J 7.5074
G02 X 30.5047 Y 4.7243 Z -1.0000 I 0.0560 J 0.1430
G01 X 30.5043 Y 4.7290 Z -1.0000
G01 X 30.5111 Y 4.7309 Z -1.0000
G02 X 30.5781 Y 4.7087 Z -1.0000 I -0.1776 J -0.6477
G03 X 30.6459 Y 4.6823 Z -1.0000 I 22.4629 J 57.6490
G03 X 30.7274 Y 4.6507 Z -1.0000 I 34.5322 J 88.9331
G02 X 30.8087 Y 4.6185 Z -1.0000 I -2.1345 J -5.5119
G02 X 30.8484 Y 4.6017 Z -1.0000 I -0.5367 J -1.3272
G03 X 30.8887 Y 4.5881 Z -1.0000 I 0.0972 J 0.2201
G03 X 30.9195 Y 4.5844 Z -1.0000 I 0.0308 J 0.1263
G02 X 30.9471 Y 4.5790 Z -1.0000 I 0.0000 J -0.0739
G01 X 30.9560 Y 4.5696 Z -1.0000
G01 X 30.9720 Y 4.5661 Z -1.0000
G03 X 30.9957 Y 4.6123 Z -1.0000 I -0.0697 J 0.0649
G02 X 31.0438 Y 4.7813 Z -1.0000 I 1.0738 J -0.2139
G02 X 31.0905 Y 4.8665 Z -1.0000 I 0.3161 J -0.1180
G03 X 31.0978 Y 4.8801 Z -1.0000 I -0.0415 J 0.0312
G03 X 31.1132 Y 4.9292 Z -1.0000 I -0.5426 J 0.1966
G02 X 31.1280 Y 4.9789 Z -1.0000 I 0.8161 J -0.2159
G02 X 31.1527 Y 5.0482 Z -1.0000 I 1.5833 J -0.5248
G03 X 31.1737 Y 5.1275 Z -1.0000 I -0.3664 J 0.1396
G01 X 31.1663 Y 5.1361 Z -1.0000
G01 X 31.1582 Y 5.1317 Z -1.0000
G01 X 31.1538 Y 5.1169 Z -1.0000
G02 X 31.1322 Y 5.0498 Z -1.0000 I -0.1150 J 0.0000
G01 X 31.1012 Y 5.0436 Z -1.0000
G01 X 31.0948 Y 5.0416 Z -1.0000
G01 X 31.0914 Y 5.0215 Z -1.0000
G02 X 31.0909 Y 4.9909 Z -1.0000 I -0.1545 J -0.0128
G02 X 31.0847 Y 4.9637 Z -1.0000 I -0.1278 J 0.0148
G03 X 31.0815 Y 4.9542 Z -1.0000 I 0.7033 J -0.2434
G03 X 31.0722 Y 4.9261 Z -1.0000 I 4.3941 J -1.4553
G02 X 31.0601 Y 4.9020 Z -1.0000 I -0.0824 J 0.0266
G01 X 31.0520 Y 4.8979 Z -1.0000
G01 X 31.0458 Y 4.8930 Z -1.0000
G03 X 31.0409 Y 4.8538 Z -1.0000 I 0.1560 J -0.0392
G02 X 31.0373 Y 4.8106 Z -1.0000 I -0.2598 J -0.0000
G02 X 31.0298 Y 4.7880 Z -1.0000 I -0.0779 J 0.0131
G03 X 30.9672 Y 4.6325 Z -1.0000 I 0.8539 J -0.4344
G01 X 30.9718 Y 4.5972 Z -1.0000
G01 X 30.9693 Y 4.5929 Z -1.0000
G02 X 30.9444 Y 4.5973 Z -1.0000 I 0.0005 J 0.0742
G03 X 30.9092 Y 4.6101 Z -1.0000 I -2.5482 J -6.9483
G03 X 30.8921 Y 4.6162 Z -1.0000 I -1.0292 J -2.8509
G01 X 30.8887 Y 4.6386 Z -1.0000
G02 X 30.9363 Y 4.6498 Z -1.0000 I 0.0363 J -0.0478
G01 X 30.9581 Y 4.6512 Z -1.0000
G01 X 30.9605 Y 4.6578 Z -1.0000
G01 X 30.9494 Y 4.6682 Z -1.0000
G01 X 30.9339 Y 4.6721 Z -1.0000
G02 X 30.9166 Y 4.6750 Z -1.0000 I -0.0000 J 0.0537
G02 X 30.8186 Y 4.7112 Z -1.0000 I 0.6229 J 1.8353
G03 X 30.7209 Y 4.7498 Z -1.0000 I -3.6050 J -8.9924
G03 X 30.6459 Y 4.7783 Z -1.0000 I -2.0820 J -5.3610
G02 X 30.3798 Y 4.8788 Z -1.0000 I 10.9749 J 29.4671
G02 X 29.7430 Y 5.1239 Z -1.0000 I 64.1466 J 167.5801
G02 X 29.3365 Y 5.2817 Z -1.0000 I 101.5418 J 262.2574
G02 X 29.1474 Y 5.3556 Z -1.0000 I 21.2355 J 54.5945
G03 X 29.1033 Y 5.3726 Z -1.0000 I -1.1424 J -2.9029
G03 X 28.8652 Y 5.4618 Z -1.0000 I -33.7273 J -89.6573
G02 X 28.6271 Y 5.5512 Z -1.0000 I 22.7698 J 61.0183
G02 X 28.5016 Y 5.5991 Z -1.0000 I 6.4732 J 17.1422
G03 X 28.3760 Y 5.6471 Z -1.0000 I -6.7593 J -17.5127
G03 X 28.2560 Y 5.6919 Z -1.0000 I -5.9484 J -15.7466
G02 X 28.1360 Y 5.7369 Z -1.0000 I 3.7982 J 10.2911
G02 X 27.9550 Y 5.8070 Z -1.0000 I 9.0094 J 23.5595
G03 X 27.7451 Y 5.8884 Z -1.0000 I -14.8939 J -38.0678
G03 X 27.4858 Y 5.9876 Z -1.0000 I -22.1781 J -57.6189
G02 X 26.8248 Y 6.2404 Z -1.0000 I 52.2493 J 137.5767
G02 X 26.4576 Y 6.3837 Z -1.0000 I 16.4206 J 42.6182
G03 X 26.1815 Y 6.4924 Z -1.0000 I -44.3981 J -112.3337
G03 X 26.0876 Y 6.5289 Z -1.0000 I -5.0294 J -12.8171
G02 X 25.9936 Y 6.5651 Z -1.0000 I 29.1664 J 75.9707
G02 X 25.8180 Y 6.6328 Z -1.0000 I 109.4634 J 284.0715
G03 X 25.4172 Y 6.7795 Z -1.0000 I -4.3674 J -11.3136
G03 X 24.5327 Y 7.0777 Z -1.0000 I -18.9764 J -54.8258
G02 X 24.2256 Y 7.1790 Z -1.0000 I 32.5693 J 99.2325
G02 X 24.1878 Y 7.1920 Z -1.0000 I 0.4989 J 1.5044
G03 X 24.1501 Y 7.2051 Z -1.0000 I -0.6398 J -1.7888
G03 X 23.8806 Y 7.2946 Z -1.0000 I -26.0771 J -78.0484
G02 X 23.5810 Y 7.3996 Z -1.0000 I 2.7372 J 8.2888
G01 X 23.5819 Y 7.4054 Z -1.0000
G01 X 23.5903 Y 7.4044 Z -1.0000
G02 X 23.7888 Y 7.3422 Z -1.0000 I -4.4134 J -14.4342
G02 X 23.9872 Y 7.2785 Z -1.0000 I -381.1888 J -1187.8328
G02 X 24.3383 Y 7.1657 Z -1.0000 I -1134.9336 J -3534.9491
G03 X 24.6894 Y 7.0530 Z -1.0000 I 292.1327 J 909.4864
G03 X 24.7897 Y 7.0209 Z -1.0000 I 25.5940 J 79.7863
G02 X 25.0345 Y 6.9412 Z -1.0000 I -6.9642 J -21.8044
G02 X 25.0656 Y 6.9294 Z -1.0000 I -0.1208 J -0.3641
G03 X 25.0911 Y 6.9196 Z -1.0000 I 0.1226 J 0.2817
G03 X 25.1597 Y 6.8980 Z -1.0000 I 0.7270 J 2.1827
G02 X 25.2281 Y 6.8760 Z -1.0000 I -0.5259 J -1.7606
G02 X 25.2537 Y 6.8658 Z -1.0000 I -0.0868 J -0.2539
G03 X 25.3320 Y 6.8339 Z -1.0000 I 0.3887 J 0.8420
G03 X 25.6174 Y 6.7366 Z -1.0000 I 4.0047 J 11.2731
G02 X 25.6298 Y 6.7322 Z -1.0000 I -0.1616 J -0.4849
G02 X 25.6487 Y 6.7251 Z -1.0000 I -0.2797 J -0.7720
G03 X 25.6676 Y 6.7180 Z -1.0000 I 0.3767 J 0.9746
G03 X 25.8117 Y 6.6658 Z -1.0000 I 14.8486 J 40.7433
G02 X 25.9555 Y 6.6127 Z -1.0000 I -3.4064 J -9.4494
G02 X 26.2256 Y 6.5095 Z -1.0000 I -12.6826 J -33.5675
G03 X 26.4953 Y 6.4053 Z -1.0000 I 66.3521 J 171.4413
G03 X 26.6582 Y 6.3428 Z -1.0000 I 23.1258 J 60.0331
G02 X 26.8212 Y 6.2804 Z -1.0000 I -36.2561 J -94.8838
G02 X 26.8463 Y 6.2706 Z -1.0000 I -0.8453 J -2.2008
G03 X 26.8714 Y 6.2608 Z -1.0000 I 0.4857 J 1.2178
G03 X 26.8776 Y 6.2588 Z -1.0000 I 0.0309 J 0.0825
G02 X 26.8837 Y 6.2566 Z -1.0000 I -0.0163 J -0.0554
G02 X 26.9325 Y 6.2357 Z -1.0000 I -1.4961 J -3.5628
G03 X 26.9816 Y 6.2171 Z -1.0000 I 0.2171 J 0.4978
G03 X 26.9976 Y 6.2145 Z -1.0000 I 0.0160 J 0.0492
G01 X 27.0121 Y 6.2110 Z -1.0000
G01 X 27.0219 Y 6.2020 Z -1.0000
G01 X 27.0317 Y 6.1932 Z -1.0000
G01 X 27.0478 Y 6.1895 Z -1.0000
G02 X 27.0654 Y 6.1866 Z -1.0000 I 0.0000 J -0.0554
G02 X 27.1192 Y 6.1656 Z -1.0000 I -0.1847 J -0.5513
G03 X 27.1729 Y 6.1431 Z -1.0000 I 0.4356 J 0.9685
G03 X 27.3165 Y 6.0895 Z -1.0000 I 2.6220 J 6.8051
G02 X 27.4604 Y 6.0365 Z -1.0000 I -4.2499 J -11.7622
G02 X 27.5172 Y 6.0143 Z -1.0000 I -0.7081 J -1.8869
G03 X 27.6980 Y 5.9427 Z -1.0000 I 2.9558 J 7.2039
G03 X 27.8039 Y 5.9049 Z -1.0000 I 0.9291 J 2.4359
G02 X 27.9197 Y 5.8631 Z -1.0000 I -0.7770 J -2.3348
G02 X 28.0815 Y 5.7968 Z -1.0000 I -1.7978 J -4.6169
G03 X 28.1132 Y 5.7845 Z -1.0000 I 0.1979 J 0.4610
G03 X 28.1254 Y 5.7814 Z -1.0000 I 0.0219 J 0.0623
G02 X 28.1376 Y 5.7785 Z -1.0000 I -0.0103 J -0.0708
G02 X 28.1755 Y 5.7649 Z -1.0000 I -0.2583 J -0.7787
G03 X 28.2133 Y 5.7506 Z -1.0000 I 0.7161 J 1.8293
G03 X 28.3197 Y 5.7118 Z -1.0000 I 6.4375 J 17.4948
G02 X 28.5514 Y 5.6266 Z -1.0000 I -7.2605 J -20.1063
G02 X 28.6521 Y 5.5874 Z -1.0000 I -1.4446 J -3.8604
G03 X 28.7100 Y 5.5650 Z -1.0000 I 0.8171 J 2.0205
G03 X 28.7398 Y 5.5548 Z -1.0000 I 0.1955 J 0.5262
G02 X 28.8073 Y 5.5319 Z -1.0000 I -0.3795 J -1.2295
G02 X 28.9906 Y 5.4619 Z -1.0000 I -3.3794 J -9.1219
G03 X 29.0914 Y 5.4236 Z -1.0000 I 1.7471 J 4.4378
G03 X 29.1460 Y 5.4047 Z -1.0000 I 0.4764 J 1.2951
G02 X 29.1999 Y 5.3849 Z -1.0000 I -0.2087 J -0.6515
G02 X 29.2150 Y 5.3761 Z -1.0000 I -0.0246 J -0.0592
G03 X 29.2300 Y 5.3674 Z -1.0000 I 0.0370 J 0.0469
G03 X 29.2979 Y 5.3433 Z -1.0000 I 0.3798 J 0.9590
G02 X 29.4015 Y 5.3057 Z -1.0000 I -0.4114 J -1.2970
G02 X 29.5015 Y 5.2600 Z -1.0000 I -0.5121 J -1.2522
G03 X 29.5240 Y 5.2521 Z -1.0000 I 0.0407 J 0.0799
G03 X 29.5548 Y 5.2490 Z -1.0000 I 0.0307 J 0.1488
G02 X 29.5818 Y 5.2446 Z -1.0000 I 0.0000 J -0.0859
G01 X 29.5863 Y 5.2384 Z -1.0000
G01 X 29.5907 Y 5.2312 Z -1.0000
G03 X 29.6396 Y 5.2113 Z -1.0000 I 0.1422 J 0.2792
G02 X 29.9091 Y 5.1182 Z -1.0000 I -1.4087 J -4.5162
G02 X 30.1718 Y 5.0093 Z -1.0000 I -1.6683 J -4.3971
G03 X 30.2254 Y 4.9899 Z -1.0000 I 0.1557 J 0.3457
G03 X 30.2565 Y 4.9856 Z -1.0000 I 0.0311 J 0.1112
G02 X 30.2841 Y 4.9812 Z -1.0000 I -0.0000 J -0.0888
G01 X 30.2885 Y 4.9751 Z -1.0000
G01 X 30.2930 Y 4.9678 Z -1.0000
G03 X 30.3418 Y 4.9473 Z -1.0000 I 0.1465 J 0.2808
G02 X 30.3945 Y 4.9284 Z -1.0000 I -0.2815 J -0.8686
G02 X 30.4265 Y 4.9140 Z -1.0000 I -0.1321 J -0.3359
G03 X 30.4586 Y 4.9012 Z -1.0000 I 0.0851 J 0.1668
G03 X 30.4810 Y 4.8979 Z -1.0000 I 0.0226 J 0.0767
G02 X 30.5033 Y 4.8946 Z -1.0000 I -0.0003 J -0.0774
G02 X 30.5374 Y 4.8807 Z -1.0000 I -0.0607 J -0.1988
G03 X 30.5714 Y 4.8653 Z -1.0000 I 0.1794 J 0.3495
G03 X 30.6312 Y 4.8434 Z -1.0000 I 0.4214 J 1.0573
G03 X 30.6873 Y 4.8400 Z -1.0000 I 0.0344 J 0.1027
G03 X 30.7284 Y 4.8633 Z -1.0000 I -0.0153 J 0.0748
G03 X 30.7622 Y 4.9045 Z -1.0000 I -0.3715 J 0.3392
G01 X 30.7650 Y 4.9132 Z -1.0000
G01 X 30.7800 Y 4.9263 Z -1.0000
G02 X 30.8215 Y 4.9059 Z -1.0000 I -0.0091 J -0.0709
G03 X 30.8410 Y 4.8938 Z -1.0000 I 0.0357 J 0.0357
G03 X 30.9177 Y 4.8733 Z -1.0000 I 0.1926 J 0.5683
G02 X 30.9942 Y 4.8536 Z -1.0000 I -0.1320 J -0.6692
G01 X 31.0047 Y 4.8453 Z -1.0000
G01 X 31.0106 Y 4.8447 Z -1.0000
G01 X 31.0194 Y 4.8601 Z -1.0000
G01 X 31.0186 Y 4.8850 Z -1.0000
G03 X 31.0024 Y 4.9113 Z -1.0000 I -0.0638 J -0.0212
G03 X 30.9649 Y 4.9322 Z -1.0000 I -0.0555 J -0.0555
G01 X 30.9531 Y 4.9229 Z -1.0000
G01 X 30.9571 Y 4.9143 Z -1.0000
G01 X 30.9678 Y 4.9104 Z -1.0000
G01 X 30.9750 Y 4.9073 Z -1.0000
G01 X 30.9750 Y 4.9029 Z -1.0000
G01 X 30.9669 Y 4.9002 Z -1.0000
G02 X 30.9480 Y 4.9065 Z -1.0000 I 0.0069 J 0.0523
G01 X 30.9420 Y 4.9196 Z -1.0000
G02 X 30.9566 Y 4.9483 Z -1.0000 I 0.0598 J -0.0123
G03 X 30.9821 Y 4.9811 Z -1.0000 I -0.2024 J 0.1835
G03 X 31.0002 Y 5.0141 Z -1.0000 I -0.1886 J 0.1248
G01 X 30.9994 Y 5.0406 Z -1.0000
G01 X 30.9783 Y 5.0564 Z -1.0000
G01 X 30.9663 Y 5.0725 Z -1.0000
G01 X 30.9810 Y 5.0859 Z -1.0000
G01 X 30.9847 Y 5.0957 Z -1.0000
G03 X 30.9427 Y 5.1190 Z -1.0000 I -0.0770 J -0.0891
G01 X 30.9416 Y 5.1247 Z -1.0000
G01 X 30.9550 Y 5.1287 Z -1.0000
G03 X 31.0100 Y 5.1318 Z -1.0000 I 0.0161 J 0.2063
G01 X 31.0289 Y 5.1429 Z -1.0000
G01 X 31.0377 Y 5.1613 Z -1.0000
G01 X 31.0347 Y 5.1709 Z -1.0000
G01 X 31.0267 Y 5.1722 Z -1.0000
G01 X 31.0193 Y 5.1643 Z -1.0000
G01 X 31.0105 Y 5.1531 Z -1.0000
G01 X 30.9959 Y 5.1486 Z -1.0000
G01 X 30.9864 Y 5.1576 Z -1.0000
G02 X 30.9938 Y 5.1880 Z -1.0000 I 0.0540 J 0.0029
G01 X 31.0002 Y 5.2112 Z -1.0000
G01 X 30.9938 Y 5.2203 Z -1.0000
G01 X 30.9859 Y 5.2357 Z -1.0000
G01 X 31.0032 Y 5.2526 Z -1.0000
G01 X 31.0215 Y 5.2643 Z -1.0000
G01 X 31.0283 Y 5.2837 Z -1.0000
G02 X 31.0332 Y 5.3066 Z -1.0000 I 0.0563 J 0.0000
G02 X 31.0534 Y 5.3401 Z -1.0000 I 0.1447 J -0.0643
G03 X 31.0752 Y 5.3731 Z -1.0000 I -0.1910 J 0.1502
G01 X 31.0785 Y 5.3857 Z -1.0000
G01 X 31.0822 Y 5.3956 Z -1.0000
G01 X 31.0906 Y 5.3994 Z -1.0000
G01 X 31.0961 Y 5.4040 Z -1.0000
G01 X 31.0947 Y 5.4203 Z -1.0000
G01 X 31.0961 Y 5.4298 Z -1.0000
G01 X 31.1030 Y 5.4311 Z -1.0000
G01 X 31.1111 Y 5.4313 Z -1.0000
G01 X 31.1134 Y 5.4384 Z -1.0000
G01 X 31.1127 Y 5.4558 Z -1.0000
G02 X 31.1442 Y 5.5561 Z -1.0000 I 1.0766 J -0.2830
G03 X 31.1809 Y 5.6565 Z -1.0000 I -23.9898 J 8.8038
G03 X 31.2124 Y 5.7442 Z -1.0000 I -18.4650 J 6.6888
G02 X 31.2456 Y 5.8309 Z -1.0000 I 1.9114 J -0.6821
G02 X 31.2534 Y 5.8445 Z -1.0000 I 0.0537 J -0.0220
G03 X 31.2610 Y 5.8580 Z -1.0000 I -0.0421 J 0.0323
G03 X 31.2700 Y 5.8884 Z -1.0000 I -0.1997 J 0.0756
G02 X 31.2878 Y 5.9475 Z -1.0000 I 0.3816 J -0.0832
G02 X 31.3615 Y 6.1223 Z -1.0000 I 3.4018 J -1.3306
G03 X 31.3771 Y 6.1623 Z -1.0000 I -0.3783 J 0.1706
G01 X 31.3794 Y 6.1764 Z -1.0000
G02 X 31.3835 Y 6.1988 Z -1.0000 I 0.0627 J 0.0000
G02 X 31.4499 Y 6.3605 Z -1.0000 I 3.4446 J -1.3182
G03 X 31.4645 Y 6.4006 Z -1.0000 I -0.3209 J 0.1403
G03 X 31.4672 Y 6.4186 Z -1.0000 I -0.0603 J 0.0180
G02 X 31.4851 Y 6.5198 Z -1.0000 I 0.2940 J -0.0000
G02 X 31.5418 Y 6.6220 Z -1.0000 I 0.3561 J -0.1306
G03 X 31.5494 Y 6.6356 Z -1.0000 I -0.0400 J 0.0313
G03 X 31.5605 Y 6.6721 Z -1.0000 I -0.2940 J 0.1093
G02 X 31.5712 Y 6.7092 Z -1.0000 I 0.3834 J -0.0908
G02 X 31.5862 Y 6.7474 Z -1.0000 I 0.4376 J -0.1501
G03 X 31.6019 Y 6.7854 Z -1.0000 I -0.6863 J 0.3052
G03 X 31.6744 Y 6.9794 Z -1.0000 I -17.0997 J 6.5069
G02 X 31.7462 Y 7.1736 Z -1.0000 I 68.2128 J -25.0766
G02 X 31.7756 Y 7.2522 Z -1.0000 I 10.8533 J -4.0251
G03 X 31.8053 Y 7.3307 Z -1.0000 I -240.2389 J 91.0285
G03 X 31.8373 Y 7.4152 Z -1.0000 I -174.4134 J 66.0223
G02 X 31.8706 Y 7.4992 Z -1.0000 I 2.6676 J -1.0083
G02 X 31.8814 Y 7.5216 Z -1.0000 I 0.1999 J -0.0829
G03 X 31.8905 Y 7.5441 Z -1.0000 I -0.0850 J 0.0475
G03 X 31.8935 Y 7.5670 Z -1.0000 I -0.0865 J 0.0229
G02 X 31.8986 Y 7.5955 Z -1.0000 I 0.0830 J 0.0000
G02 X 31.9558 Y 7.7380 Z -1.0000 I 2.2115 J -0.8058
G03 X 31.9765 Y 7.7888 Z -1.0000 I -0.9317 J 0.4099
G03 X 32.0504 Y 7.9888 Z -1.0000 I -14.4258 J 5.4414
G02 X 32.1250 Y 8.1881 Z -1.0000 I 8.8868 J -3.2116
G01 X 32.1305 Y 8.1957 Z -1.0000
G01 X 32.1381 Y 8.2080 Z -1.0000
G03 X 32.1496 Y 8.2762 Z -1.0000 I -0.5053 J 0.1204
G02 X 32.1569 Y 8.3140 Z -1.0000 I 0.2112 J -0.0209
G02 X 32.1742 Y 8.3619 Z -1.0000 I 0.3667 J -0.1054
G03 X 32.1893 Y 8.4053 Z -1.0000 I -0.2652 J 0.1165
G01 X 32.1864 Y 8.4089 Z -1.0000
G01 X 32.1970 Y 8.4309 Z -1.0000
G03 X 32.2121 Y 8.4551 Z -1.0000 I -0.0696 J 0.0602
G03 X 32.2571 Y 8.5719 Z -1.0000 I -1.6364 J 0.6960
G02 X 32.2990 Y 8.6907 Z -1.0000 I 7.8588 J -2.7071
G02 X 32.3137 Y 8.7287 Z -1.0000 I 0.8077 J -0.2920
G03 X 32.3288 Y 8.7665 Z -1.0000 I -1.2562 J 0.5221
G03 X 32.3508 Y 8.8259 Z -1.0000 I -3.0564 J 1.1644
G02 X 32.3758 Y 8.8801 Z -1.0000 I 0.3189 J -0.1145
G01 X 32.3850 Y 8.8854 Z -1.0000
G01 X 32.3916 Y 8.8811 Z -1.0000
G01 X 32.3918 Y 8.8698 Z -1.0000
G03 X 32.3859 Y 8.8540 Z -1.0000 I 0.7503 J -0.2879
G03 X 32.3624 Y 8.7882 Z -1.0000 I 14.4904 J -5.2164
G02 X 32.3359 Y 8.7268 Z -1.0000 I -0.4769 J 0.1692
G01 X 32.3287 Y 8.7224 Z -1.0000
G01 X 32.3246 Y 8.7189 Z -1.0000
G01 X 32.3265 Y 8.7093 Z -1.0000
G01 X 32.3291 Y 8.6966 Z -1.0000
G01 X 32.3221 Y 8.6811 Z -1.0000
G03 X 32.3130 Y 8.6646 Z -1.0000 I 0.0406 J -0.0332
G03 X 32.3032 Y 8.6246 Z -1.0000 I 0.2310 J -0.0775
G02 X 32.2937 Y 8.5845 Z -1.0000 I -0.2635 J 0.0416
G02 X 32.2850 Y 8.5681 Z -1.0000 I -0.0501 J 0.0161
G03 X 32.2757 Y 8.5517 Z -1.0000 I 0.0488 J -0.0382
G03 X 32.1949 Y 8.3274 Z -1.0000 I 9.2364 J -3.4552
G02 X 32.1165 Y 8.1017 Z -1.0000 I -180.0916 J 62.4502
G02 X 32.0803 Y 7.9983 Z -1.0000 I -36.8378 J 12.8260
G03 X 32.0459 Y 7.8945 Z -1.0000 I 3.0176 J -1.0598
G01 X 32.0440 Y 7.8823 Z -1.0000
G01 X 32.0546 Y 7.8778 Z -1.0000
G03 X 32.0860 Y 7.9231 Z -1.0000 I -0.0998 J 0.1026
G02 X 32.1089 Y 7.9621 Z -1.0000 I 0.1726 J -0.0754
G01 X 32.1151 Y 7.9612 Z -1.0000
G01 X 32.1161 Y 7.9462 Z -1.0000
G02 X 32.1018 Y 7.9047 Z -1.0000 I -0.2130 J 0.0503
G03 X 32.0718 Y 7.8337 Z -1.0000 I 0.9870 J -0.4575
G03 X 31.9917 Y 7.6151 Z -1.0000 I 9.2744 J -3.5244
G02 X 31.9644 Y 7.5492 Z -1.0000 I -0.6344 J 0.2242
G01 X 31.9598 Y 7.5484 Z -1.0000
G01 X 31.9576 Y 7.5555 Z -1.0000
G02 X 31.9701 Y 7.6024 Z -1.0000 I 0.3314 J -0.0629
G03 X 31.9863 Y 7.6503 Z -1.0000 I -6.0353 J 2.0638
G03 X 31.9881 Y 7.6565 Z -1.0000 I -0.0896 J 0.0299
G02 X 31.9900 Y 7.6626 Z -1.0000 I 0.0737 J -0.0193
G02 X 31.9970 Y 7.6816 Z -1.0000 I 0.6566 J -0.2323
G03 X 32.0033 Y 7.7007 Z -1.0000 I -0.1841 J 0.0711
G03 X 32.0124 Y 7.7380 Z -1.0000 I -0.6919 J 0.1891
G01 X 32.0100 Y 7.7558 Z -1.0000
G01 X 32.0026 Y 7.7568 Z -1.0000
G03 X 31.9875 Y 7.7363 Z -1.0000 I 0.0723 J -0.0691
G03 X 31.9713 Y 7.7004 Z -1.0000 I 0.2085 J -0.1158
G02 X 31.9578 Y 7.6628 Z -1.0000 I -15.4785 J 5.5361
G02 X 31.9260 Y 7.5750 Z -1.0000 I -34.2443 J 12.3418
G03 X 31.8967 Y 7.4867 Z -1.0000 I 1.5259 J -0.5547
G03 X 31.8938 Y 7.4678 Z -1.0000 I 0.0662 J -0.0199
G01 X 31.8899 Y 7.4499 Z -1.0000
G02 X 31.8786 Y 7.4334 Z -1.0000 I -0.0500 J 0.0221
G03 X 31.8665 Y 7.4171 Z -1.0000 I 0.0490 J -0.0490
G03 X 31.8611 Y 7.4005 Z -1.0000 I 0.0448 J -0.0239
G02 X 31.8568 Y 7.3830 Z -1.0000 I -0.0890 J 0.0126
G02 X 31.8258 Y 7.3011 Z -1.0000 I -2.1141 J 0.7514
G03 X 31.7955 Y 7.2192 Z -1.0000 I 1.5566 J -0.6227
G01 X 31.7932 Y 7.2054 Z -1.0000
G01 X 31.7907 Y 7.1919 Z -1.0000
G02 X 31.7719 Y 7.1511 Z -1.0000 I -0.3635 J 0.1429
G03 X 31.7545 Y 7.1104 Z -1.0000 I 0.2258 J -0.1202
G01 X 31.7536 Y 7.0953 Z -1.0000
G01 X 31.7520 Y 7.0836 Z -1.0000
G01 X 31.7456 Y 7.0797 Z -1.0000
G01 X 31.7385 Y 7.0747 Z -1.0000
G03 X 31.7191 Y 7.0107 Z -1.0000 I 0.4252 J -0.1636
G02 X 31.7001 Y 6.9462 Z -1.0000 I -0.4990 J 0.1118
G01 X 31.6937 Y 6.9417 Z -1.0000
G01 X 31.6815 Y 6.9330 Z -1.0000
G03 X 31.6351 Y 6.7737 Z -1.0000 I 1.4857 J -0.5188
G01 X 31.6447 Y 6.7683 Z -1.0000
G03 X 31.6676 Y 6.8063 Z -1.0000 I -0.0655 J 0.0655
G02 X 31.6859 Y 6.8597 Z -1.0000 I 0.9638 J -0.2990
G02 X 31.7251 Y 6.9605 Z -1.0000 I 3.5953 J -1.3397
G03 X 31.7651 Y 7.0611 Z -1.0000 I -8.0424 J 3.2575
G03 X 31.7728 Y 7.0828 Z -1.0000 I -0.3588 J 0.1401
G01 X 31.7830 Y 7.1004 Z -1.0000
G01 X 31.7927 Y 7.1047 Z -1.0000
G01 X 31.7969 Y 7.0992 Z -1.0000
G02 X 31.7743 Y 7.0342 Z -1.0000 I -0.4169 J 0.1090
G03 X 31.7457 Y 6.9631 Z -1.0000 I 1.0127 J -0.4477
G01 X 31.7431 Y 6.9480 Z -1.0000
G01 X 31.7392 Y 6.9341 Z -1.0000
G02 X 31.7244 Y 6.9167 Z -1.0000 I -0.0579 J 0.0345
G01 X 31.7118 Y 6.9003 Z -1.0000
G01 X 31.7124 Y 6.8905 Z -1.0000
G01 X 31.7140 Y 6.8796 Z -1.0000
G02 X 31.6994 Y 6.8418 Z -1.0000 I -0.1826 J 0.0490
G01 X 31.6870 Y 6.8038 Z -1.0000
G01 X 31.6748 Y 6.7759 Z -1.0000
G03 X 31.6594 Y 6.7467 Z -1.0000 I 0.1072 J -0.0751
G03 X 31.6553 Y 6.7238 Z -1.0000 I 0.0611 J -0.0229
G02 X 31.6512 Y 6.7005 Z -1.0000 I -0.0684 J 0.0000
G02 X 31.6177 Y 6.6200 Z -1.0000 I -0.8754 J 0.3172
G03 X 31.5827 Y 6.5398 Z -1.0000 I 1.2883 J -0.6087
G01 X 31.5801 Y 6.5258 Z -1.0000
G01 X 31.5770 Y 6.5087 Z -1.0000
G02 X 31.4785 Y 6.2472 Z -1.0000 I -12.1425 J 4.4265
G03 X 31.4573 Y 6.1854 Z -1.0000 I 0.7412 J -0.2885
G03 X 31.4542 Y 6.1657 Z -1.0000 I 0.0713 J -0.0212
G02 X 31.4502 Y 6.1467 Z -1.0000 I -0.0515 J 0.0010
G02 X 31.4354 Y 6.1211 Z -1.0000 I -0.1102 J 0.0465
G03 X 31.4211 Y 6.0954 Z -1.0000 I 0.0854 J -0.0646
G03 X 31.4170 Y 6.0739 Z -1.0000 I 0.0551 J -0.0215
G02 X 31.4141 Y 6.0518 Z -1.0000 I -0.0849 J -0.0000
G02 X 31.4049 Y 6.0292 Z -1.0000 I -0.0955 J 0.0257
G03 X 31.3557 Y 5.9275 Z -1.0000 I 0.8768 J -0.4873
G03 X 31.3374 Y 5.8672 Z -1.0000 I 0.2888 J -0.1202
G02 X 31.3321 Y 5.8447 Z -1.0000 I -0.2636 J 0.0506
G02 X 31.3258 Y 5.8256 Z -1.0000 I -0.2261 J 0.0640
G03 X 31.3188 Y 5.8067 Z -1.0000 I 0.6983 J -0.2699
G03 X 31.2923 Y 5.7316 Z -1.0000 I 15.5973 J -5.5499
G02 X 31.2652 Y 5.6566 Z -1.0000 I -3.9283 J 1.3765
G02 X 31.2550 Y 5.6313 Z -1.0000 I -0.4673 J 0.1738
G02 X 31.2440 Y 5.6062 Z -1.0000 I -6.8719 J 2.9900
G02 X 31.2228 Y 5.5580 Z -1.0000 I -50.3847 J 22.1414
G03 X 31.2072 Y 5.5093 Z -1.0000 I 0.2234 J -0.0984
G03 X 31.2078 Y 5.4859 Z -1.0000 I 0.0502 J -0.0104
G01 X 31.2081 Y 5.4666 Z -1.0000
G01 X 31.2024 Y 5.4620 Z -1.0000
G01 X 31.1936 Y 5.4578 Z -1.0000
G03 X 31.1797 Y 5.4338 Z -1.0000 I 0.0717 J -0.0577
G02 X 31.1685 Y 5.4056 Z -1.0000 I -3.9101 J 1.5368
G02 X 31.1414 Y 5.3385 Z -1.0000 I -27.0226 J 10.8468
G03 X 31.1243 Y 5.2526 Z -1.0000 I 0.2176 J -0.0880
G01 X 31.1405 Y 5.2363 Z -1.0000
G01 X 31.1492 Y 5.2412 Z -1.0000
G03 X 31.1609 Y 5.2708 Z -1.0000 I -0.0874 J 0.0515
G02 X 31.1829 Y 5.3406 Z -1.0000 I 0.4107 J -0.0914
G01 X 31.1909 Y 5.3431 Z -1.0000
G01 X 31.1990 Y 5.3434 Z -1.0000
G01 X 31.2084 Y 5.3555 Z -1.0000
G01 X 31.2097 Y 5.3702 Z -1.0000
G01 X 31.2048 Y 5.3742 Z -1.0000
G01 X 31.1964 Y 5.3777 Z -1.0000
G01 X 31.1870 Y 5.3924 Z -1.0000
G01 X 31.1894 Y 5.4012 Z -1.0000
G01 X 31.2003 Y 5.4028 Z -1.0000
G01 X 31.2110 Y 5.4029 Z -1.0000
G01 X 31.2126 Y 5.4078 Z -1.0000
G01 X 31.2117 Y 5.4198 Z -1.0000
G02 X 31.2294 Y 5.4470 Z -1.0000 I 0.0862 J -0.0366
G03 X 31.2504 Y 5.4749 Z -1.0000 I -0.1234 J 0.1150
G01 X 31.2540 Y 5.4879 Z -1.0000
G01 X 31.2592 Y 5.4948 Z -1.0000
G01 X 31.2753 Y 5.4942 Z -1.0000
G01 X 31.2799 Y 5.4974 Z -1.0000
G01 X 31.2749 Y 5.5099 Z -1.0000
G01 X 31.2647 Y 5.5329 Z -1.0000
G01 X 31.2709 Y 5.5482 Z -1.0000
G01 X 31.2894 Y 5.5568 Z -1.0000
G01 X 31.3090 Y 5.5549 Z -1.0000
G01 X 31.3191 Y 5.5575 Z -1.0000
G01 X 31.3210 Y 5.5693 Z -1.0000
G01 X 31.3214 Y 5.5808 Z -1.0000
G01 X 31.3271 Y 5.5825 Z -1.0000
G01 X 31.3367 Y 5.5827 Z -1.0000
G01 X 31.3418 Y 5.5922 Z -1.0000
G01 X 31.3380 Y 5.6090 Z -1.0000
G01 X 31.3292 Y 5.6188 Z -1.0000
G01 X 31.3224 Y 5.6290 Z -1.0000
G02 X 31.3234 Y 5.6540 Z -1.0000 I 0.0618 J 0.0102
G03 X 31.3288 Y 5.6817 Z -1.0000 I -0.2905 J 0.0712
G03 X 31.3342 Y 5.7280 Z -1.0000 I -0.7710 J 0.1134
G02 X 31.3431 Y 5.7728 Z -1.0000 I 0.2065 J -0.0178
G02 X 31.3589 Y 5.8059 Z -1.0000 I 0.1281 J -0.0406
G03 X 31.3766 Y 5.8382 Z -1.0000 I -0.2030 J 0.1330
G01 X 31.3794 Y 5.8511 Z -1.0000
G01 X 31.3835 Y 5.8575 Z -1.0000
G01 X 31.3920 Y 5.8571 Z -1.0000
G01 X 31.4005 Y 5.8564 Z -1.0000
G01 X 31.4045 Y 5.8626 Z -1.0000
G01 X 31.4005 Y 5.8718 Z -1.0000
G01 X 31.3900 Y 5.8758 Z -1.0000
G01 X 31.3862 Y 5.8806 Z -1.0000
G01 X 31.3948 Y 5.8978 Z -1.0000
G03 X 31.4112 Y 5.9214 Z -1.0000 I -0.0944 J 0.0829
G03 X 31.4234 Y 5.9511 Z -1.0000 I -0.1393 J 0.0746
G02 X 31.4348 Y 5.9813 Z -1.0000 I 0.2123 J -0.0628
G02 X 31.4451 Y 5.9979 Z -1.0000 I 0.0739 J -0.0342
G01 X 31.4521 Y 6.0146 Z -1.0000
G03 X 31.4503 Y 6.0422 Z -1.0000 I -0.0755 J 0.0090
G01 X 31.4516 Y 6.0676 Z -1.0000
G01 X 31.4660 Y 6.0853 Z -1.0000
G03 X 31.4847 Y 6.1027 Z -1.0000 I -0.0364 J 0.0581
G03 X 31.4957 Y 6.1257 Z -1.0000 I -0.0544 J 0.0401
G01 X 31.4959 Y 6.1427 Z -1.0000
G01 X 31.4911 Y 6.1447 Z -1.0000
G01 X 31.4860 Y 6.1490 Z -1.0000
G02 X 31.5029 Y 6.1749 Z -1.0000 I 0.0702 J -0.0274
G02 X 31.5284 Y 6.1920 Z -1.0000 I 0.0562 J -0.0562
G02 X 31.5554 Y 6.1968 Z -1.0000 I 0.0244 J -0.0583
G01 X 31.5774 Y 6.2065 Z -1.0000
G03 X 31.6074 Y 6.2583 Z -1.0000 I -0.1296 J 0.1096
G03 X 31.6293 Y 6.3532 Z -1.0000 I -0.3806 J 0.1379
G01 X 31.6188 Y 6.3649 Z -1.0000
G01 X 31.6008 Y 6.3509 Z -1.0000
G03 X 31.5909 Y 6.2554 Z -1.0000 I 0.3209 J -0.0816
G01 X 31.5658 Y 6.2125 Z -1.0000
G01 X 31.5205 Y 6.2197 Z -1.0000
G01 X 31.5206 Y 6.2239 Z -1.0000
G01 X 31.5288 Y 6.2270 Z -1.0000
G01 X 31.5372 Y 6.2334 Z -1.0000
G03 X 31.5403 Y 6.2678 Z -1.0000 I -0.0890 J 0.0251
G02 X 31.5459 Y 6.3028 Z -1.0000 I 0.0692 J 0.0069
G01 X 31.5637 Y 6.3206 Z -1.0000
G01 X 31.5836 Y 6.3392 Z -1.0000
G03 X 31.6128 Y 6.4147 Z -1.0000 I -0.3205 J 0.1674
G02 X 31.6373 Y 6.4952 Z -1.0000 I 1.0816 J -0.2843
G02 X 31.6466 Y 6.5126 Z -1.0000 I 0.0581 J -0.0201
G01 X 31.6536 Y 6.5282 Z -1.0000
G01 X 31.6512 Y 6.5362 Z -1.0000
G01 X 31.6488 Y 6.5445 Z -1.0000
G02 X 31.6587 Y 6.5704 Z -1.0000 I 0.0897 J -0.0197
G03 X 31.6697 Y 6.5981 Z -1.0000 I -0.0936 J 0.0532
G03 X 31.6753 Y 6.6384 Z -1.0000 I -0.1958 J 0.0476
G02 X 31.6817 Y 6.6777 Z -1.0000 I 0.1599 J -0.0058
G01 X 31.6919 Y 6.6948 Z -1.0000
G01 X 31.6972 Y 6.6948 Z -1.0000
G01 X 31.6986 Y 6.6878 Z -1.0000
G01 X 31.6970 Y 6.6706 Z -1.0000
G01 X 31.7027 Y 6.6659 Z -1.0000
G01 X 31.7342 Y 6.6376 Z -1.0000
G01 X 31.7099 Y 6.5979 Z -1.0000
G01 X 31.6983 Y 6.5877 Z -1.0000
G01 X 31.6929 Y 6.5667 Z -1.0000
G02 X 31.6886 Y 6.5444 Z -1.0000 I -0.0601 J 0.0000
G01 X 31.6797 Y 6.5338 Z -1.0000
G01 X 31.6716 Y 6.5238 Z -1.0000
G01 X 31.6714 Y 6.5111 Z -1.0000
G01 X 31.6715 Y 6.4970 Z -1.0000
G02 X 31.6531 Y 6.4551 Z -1.0000 I -0.2275 J 0.0748
G03 X 31.6376 Y 6.4136 Z -1.0000 I 0.1258 J -0.0705
G01 X 31.6406 Y 6.3943 Z -1.0000
G01 X 31.6494 Y 6.3943 Z -1.0000
G03 X 31.6809 Y 6.4672 Z -1.0000 I -0.3552 J 0.1966
G02 X 31.7134 Y 6.5579 Z -1.0000 I 1.3197 J -0.4222
G02 X 31.7330 Y 6.5979 Z -1.0000 I 0.2746 J -0.1094
G03 X 31.7515 Y 6.6378 Z -1.0000 I -0.1987 J 0.1163
G03 X 31.7583 Y 6.6700 Z -1.0000 I -0.1216 J 0.0428
G02 X 31.7649 Y 6.6994 Z -1.0000 I 0.1078 J -0.0088
G01 X 31.7709 Y 6.7035 Z -1.0000
G01 X 31.7772 Y 6.7071 Z -1.0000
G01 X 31.7807 Y 6.7197 Z -1.0000
G01 X 31.7835 Y 6.7353 Z -1.0000
G02 X 31.8246 Y 6.8414 Z -1.0000 I 2.2397 J -0.8073
G03 X 31.8678 Y 6.9472 Z -1.0000 I -8.9293 J 3.7100
G01 X 31.8685 Y 6.9507 Z -1.0000
G01 X 31.8460 Y 6.9543 Z -1.0000
G01 X 31.8301 Y 6.9458 Z -1.0000
G03 X 31.8089 Y 6.8994 Z -1.0000 I 0.1273 J -0.0862
G02 X 31.7788 Y 6.8539 Z -1.0000 I -0.0833 J 0.0223
G01 X 31.7635 Y 6.8637 Z -1.0000
G02 X 31.7739 Y 6.8968 Z -1.0000 I 0.2414 J -0.0578
G02 X 31.7823 Y 6.9116 Z -1.0000 I 0.0550 J -0.0217
G01 X 31.7883 Y 6.9249 Z -1.0000
G01 X 31.7858 Y 6.9325 Z -1.0000
G01 X 31.7848 Y 6.9397 Z -1.0000
G02 X 31.8029 Y 6.9639 Z -1.0000 I 0.0928 J -0.0505
G03 X 31.8210 Y 6.9912 Z -1.0000 I -0.0592 J 0.0592
G03 X 31.8356 Y 7.0433 Z -1.0000 I -0.2112 J 0.0872
G02 X 31.8484 Y 7.0972 Z -1.0000 I 0.3432 J -0.0531
G02 X 31.8738 Y 7.1612 Z -1.0000 I 0.5118 J -0.1658
G03 X 31.9384 Y 7.3079 Z -1.0000 I -2.7048 J 1.2776
G03 X 31.9478 Y 7.3424 Z -1.0000 I -0.1374 J 0.0561
G02 X 31.9567 Y 7.3694 Z -1.0000 I 0.0816 J -0.0121
G01 X 31.9669 Y 7.3779 Z -1.0000
G01 X 31.9753 Y 7.3850 Z -1.0000
G01 X 31.9750 Y 7.3934 Z -1.0000
G01 X 31.9739 Y 7.4027 Z -1.0000
G01 X 31.9812 Y 7.4119 Z -1.0000
G01 X 31.9984 Y 7.4026 Z -1.0000
G02 X 31.9827 Y 7.3612 Z -1.0000 I -0.0578 J -0.0017
G01 X 31.9745 Y 7.3476 Z -1.0000
G03 X 31.9588 Y 7.2929 Z -1.0000 I 0.4669 J -0.1633
G02 X 31.9454 Y 7.2366 Z -1.0000 I -2.2524 J 0.5079
G02 X 31.9280 Y 7.1706 Z -1.0000 I -3.0367 J 0.7652
G03 X 31.9145 Y 7.1084 Z -1.0000 I 0.5412 J -0.1495
G01 X 31.9176 Y 7.1048 Z -1.0000
G01 X 31.9328 Y 7.1147 Z -1.0000
G03 X 31.9894 Y 7.2678 Z -1.0000 I -1.2263 J 0.5403
G02 X 32.0078 Y 7.3237 Z -1.0000 I 1.1866 J -0.3593
G02 X 32.0184 Y 7.3493 Z -1.0000 I 0.2513 J -0.0893
G03 X 32.0542 Y 7.4330 Z -1.0000 I -0.9714 J 0.4646
G03 X 32.0967 Y 7.5562 Z -1.0000 I -2.0688 J 0.7825
G02 X 32.1244 Y 7.6362 Z -1.0000 I 1.3169 J -0.4112
G01 X 32.1301 Y 7.6440 Z -1.0000
G01 X 32.1364 Y 7.6513 Z -1.0000
G01 X 32.1409 Y 7.6628 Z -1.0000
G02 X 32.1450 Y 7.6773 Z -1.0000 I 0.1134 J -0.0247
G02 X 32.2892 Y 8.0766 Z -1.0000 I 86.7522 J -31.0897
G02 X 32.3340 Y 8.1825 Z -1.0000 I 1.0425 J -0.3791
G01 X 32.3427 Y 8.1867 Z -1.0000
G01 X 32.3525 Y 8.1891 Z -1.0000
G01 X 32.3625 Y 8.2031 Z -1.0000
G01 X 32.3620 Y 8.2127 Z -1.0000
G01 X 32.3569 Y 8.2142 Z -1.0000
G01 X 32.3515 Y 8.2164 Z -1.0000
G01 X 32.3518 Y 8.2373 Z -1.0000
G02 X 32.3888 Y 8.3485 Z -1.0000 I 0.7546 J -0.1894
G01 X 32.3992 Y 8.3505 Z -1.0000
G01 X 32.4039 Y 8.3515 Z -1.0000
G03 X 32.4079 Y 8.3724 Z -1.0000 I -0.0535 J 0.0212
G01 X 32.4128 Y 8.3864 Z -1.0000
G01 X 32.4187 Y 8.3861 Z -1.0000
G01 X 32.4477 Y 8.3827 Z -1.0000
G03 X 32.4705 Y 8.4370 Z -1.0000 I -0.0534 J 0.0543
G01 X 32.4779 Y 8.4559 Z -1.0000
G01 X 32.4810 Y 8.4472 Z -1.0000
G02 X 32.4704 Y 8.3768 Z -1.0000 I -0.6579 J 0.0634
G02 X 32.4522 Y 8.3229 Z -1.0000 I -0.2306 J 0.0479
G01 X 32.4444 Y 8.3225 Z -1.0000
G01 X 32.4333 Y 8.3275 Z -1.0000
G01 X 32.4355 Y 8.3155 Z -1.0000
G03 X 32.4450 Y 8.2964 Z -1.0000 I 0.1004 J 0.0380
G01 X 32.4511 Y 8.2790 Z -1.0000
G01 X 32.4479 Y 8.2714 Z -1.0000
G01 X 32.4415 Y 8.2631 Z -1.0000
G03 X 32.4151 Y 8.1924 Z -1.0000 I 0.9408 J -0.3916
G02 X 32.3873 Y 8.1227 Z -1.0000 I -0.6098 J 0.2023
G01 X 32.3751 Y 8.1068 Z -1.0000
G01 X 32.3638 Y 8.0908 Z -1.0000
G03 X 32.3444 Y 8.0224 Z -1.0000 I 0.4603 J -0.1674
G02 X 32.3261 Y 7.9537 Z -1.0000 I -0.6274 J 0.1299
G01 X 32.3189 Y 7.9444 Z -1.0000
G01 X 32.3111 Y 7.9357 Z -1.0000
G03 X 32.3035 Y 7.9131 Z -1.0000 I 0.0798 J -0.0393
G02 X 32.2973 Y 7.8890 Z -1.0000 I -0.2025 J 0.0390
G02 X 32.2835 Y 7.8509 Z -1.0000 I -0.5031 J 0.1618
G03 X 32.2698 Y 7.8128 Z -1.0000 I 0.4134 J -0.1698
G03 X 32.2612 Y 7.7790 Z -1.0000 I 0.3290 J -0.1014
G01 X 32.2455 Y 7.7681 Z -1.0000
G01 X 32.2323 Y 7.7834 Z -1.0000
G01 X 32.2364 Y 7.8012 Z -1.0000
G01 X 32.2417 Y 7.8027 Z -1.0000
G01 X 32.2469 Y 7.8045 Z -1.0000
G03 X 32.2511 Y 7.8270 Z -1.0000 I -0.0588 J 0.0226
G03 X 32.2473 Y 7.8535 Z -1.0000 I -0.0937 J 0.0000
G01 X 32.2423 Y 7.8572 Z -1.0000
G01 X 32.2158 Y 7.8349 Z -1.0000
G03 X 32.2239 Y 7.7516 Z -1.0000 I 0.1551 J -0.0270
G01 X 32.2253 Y 7.7324 Z -1.0000
G02 X 32.1971 Y 7.6315 Z -1.0000 I -0.9531 J 0.2122
G03 X 32.1924 Y 7.6126 Z -1.0000 I 0.1086 J -0.0367
G01 X 32.1927 Y 7.6033 Z -1.0000
G01 X 32.1901 Y 7.5975 Z -1.0000
G01 X 32.1762 Y 7.5939 Z -1.0000
G01 X 32.1661 Y 7.5881 Z -1.0000
G01 X 32.1650 Y 7.5751 Z -1.0000
G01 X 32.1652 Y 7.5611 Z -1.0000
G01 X 32.1583 Y 7.5563 Z -1.0000
G01 X 32.1492 Y 7.5515 Z -1.0000
G01 X 32.1445 Y 7.5367 Z -1.0000
G01 X 32.1488 Y 7.5248 Z -1.0000
G01 X 32.1552 Y 7.5238 Z -1.0000
G01 X 32.1458 Y 7.4873 Z -1.0000
G02 X 32.1223 Y 7.4520 Z -1.0000 I -0.1285 J 0.0600
G01 X 32.1112 Y 7.4491 Z -1.0000
G01 X 32.0671 Y 7.4225 Z -1.0000
G03 X 32.0965 Y 7.3526 Z -1.0000 I 0.0718 J -0.0109
G01 X 32.0911 Y 7.3478 Z -1.0000
G01 X 32.0763 Y 7.3451 Z -1.0000
G01 X 32.0692 Y 7.3302 Z -1.0000
G01 X 32.0566 Y 7.3132 Z -1.0000
G01 X 32.0399 Y 7.3212 Z -1.0000
G01 X 32.0357 Y 7.3238 Z -1.0000
G01 X 32.0326 Y 7.3208 Z -1.0000
G01 X 32.0365 Y 7.3079 Z -1.0000
G01 X 32.0504 Y 7.2975 Z -1.0000
G01 X 32.0639 Y 7.2866 Z -1.0000
G01 X 32.0688 Y 7.2697 Z -1.0000
G02 X 32.0497 Y 7.2172 Z -1.0000 I -0.0862 J 0.0017
G01 X 32.0245 Y 7.2148 Z -1.0000
G01 X 32.0304 Y 7.2021 Z -1.0000
G01 X 32.0371 Y 7.1798 Z -1.0000
G02 X 32.0269 Y 7.1492 Z -1.0000 I -0.0635 J 0.0042
G03 X 32.0105 Y 7.1171 Z -1.0000 I 0.1404 J -0.0920
G03 X 32.0065 Y 7.0959 Z -1.0000 I 0.0561 J -0.0214
G02 X 32.0032 Y 7.0743 Z -1.0000 I -0.0735 J 0.0003
G02 X 31.9892 Y 7.0404 Z -1.0000 I -0.1937 J 0.0603
G03 X 31.9738 Y 7.0066 Z -1.0000 I 0.3028 J -0.1582
G03 X 31.9500 Y 6.9401 Z -1.0000 I 1.1546 J -0.4510
G02 X 31.9259 Y 6.8740 Z -1.0000 I -0.9847 J 0.3213
G02 X 31.9174 Y 6.8593 Z -1.0000 I -0.0556 J 0.0224
G01 X 31.9095 Y 6.8439 Z -1.0000
G03 X 31.8945 Y 6.7788 Z -1.0000 I 0.6437 J -0.1832
G01 X 31.8806 Y 6.7913 Z -1.0000
G01 X 31.8759 Y 6.7755 Z -1.0000
G02 X 31.8782 Y 6.7422 Z -1.0000 I -0.1036 J -0.0239
G01 X 31.8714 Y 6.7253 Z -1.0000
G03 X 31.8612 Y 6.7086 Z -1.0000 I 0.0579 J -0.0470
G03 X 31.8395 Y 6.6534 Z -1.0000 I 0.6196 J -0.2751
G02 X 31.8171 Y 6.6024 Z -1.0000 I -0.3146 J 0.1077
G01 X 31.8099 Y 6.5990 Z -1.0000
G01 X 31.8041 Y 6.5954 Z -1.0000
G03 X 31.7973 Y 6.5555 Z -1.0000 I 0.1691 J -0.0494
G02 X 31.7886 Y 6.5133 Z -1.0000 I -0.1425 J 0.0074
G01 X 31.7751 Y 6.4954 Z -1.0000
G01 X 31.7631 Y 6.4787 Z -1.0000
G01 X 31.7637 Y 6.4594 Z -1.0000
G01 X 31.7664 Y 6.4394 Z -1.0000
G01 X 31.7608 Y 6.4295 Z -1.0000
G03 X 31.7395 Y 6.4020 Z -1.0000 I 0.0366 J -0.0504
G03 X 31.6999 Y 6.2755 Z -1.0000 I 0.8379 J -0.3313
G02 X 31.6937 Y 6.2555 Z -1.0000 I -0.1362 J 0.0314
G02 X 31.6827 Y 6.2316 Z -1.0000 I -0.2148 J 0.0849
G03 X 31.6479 Y 6.1562 Z -1.0000 I 0.6256 J -0.3341
G03 X 31.6170 Y 6.0640 Z -1.0000 I 0.9066 J -0.3553
G02 X 31.5987 Y 6.0089 Z -1.0000 I -0.5954 J 0.1669
G01 X 31.5907 Y 5.9957 Z -1.0000
G01 X 31.5835 Y 5.9825 Z -1.0000
G03 X 31.5803 Y 5.9610 Z -1.0000 I 0.0709 J -0.0215
G02 X 31.5775 Y 5.9390 Z -1.0000 I -0.0879 J -0.0000
G02 X 31.5688 Y 5.9165 Z -1.0000 I -0.1022 J 0.0265
G03 X 31.5137 Y 5.7933 Z -1.0000 I 0.9283 J -0.4889
G03 X 31.5050 Y 5.7451 Z -1.0000 I 0.1296 J -0.0482
G01 X 31.5010 Y 5.7295 Z -1.0000
G01 X 31.4941 Y 5.7254 Z -1.0000
G01 X 31.4872 Y 5.7207 Z -1.0000
G03 X 31.4753 Y 5.6762 Z -1.0000 I 0.2090 J -0.0799
G02 X 31.4625 Y 5.6294 Z -1.0000 I -0.2194 J 0.0348
G02 X 31.4484 Y 5.6079 Z -1.0000 I -0.0590 J 0.0233
G03 X 31.4331 Y 5.5878 Z -1.0000 I 0.0667 J -0.0667
G01 X 31.4319 Y 5.5788 Z -1.0000
G02 X 31.4269 Y 5.4886 Z -1.0000 I -0.1484 J -0.0371
G01 X 31.3889 Y 5.4621 Z -1.0000
G01 X 31.3833 Y 5.4578 Z -1.0000
G01 X 31.3841 Y 5.4437 Z -1.0000
G01 X 31.3856 Y 5.4272 Z -1.0000
G01 X 31.3792 Y 5.4179 Z -1.0000
G01 X 31.3711 Y 5.4082 Z -1.0000
G03 X 31.3672 Y 5.3872 Z -1.0000 I 0.0539 J -0.0211
G01 X 31.3627 Y 5.3672 Z -1.0000
G01 X 31.3539 Y 5.3595 Z -1.0000
G01 X 31.3439 Y 5.3522 Z -1.0000
G01 X 31.3370 Y 5.3365 Z -1.0000
G02 X 31.3326 Y 5.3181 Z -1.0000 I -0.2070 J 0.0405
G02 X 31.3262 Y 5.2991 Z -1.0000 I -0.2503 J 0.0728
G03 X 31.3195 Y 5.2802 Z -1.0000 I 0.5806 J -0.2188
G03 X 31.2872 Y 5.1843 Z -1.0000 I 14.9517 J -5.0871
G02 X 31.2522 Y 5.0896 Z -1.0000 I -1.4752 J 0.4914
G02 X 31.2294 Y 5.0424 Z -1.0000 I -0.3875 J 0.1577
G03 X 31.2095 Y 4.9966 Z -1.0000 I 0.2171 J -0.1220
G01 X 31.2109 Y 4.9848 Z -1.0000
G01 X 31.2107 Y 4.9772 Z -1.0000
G01 X 31.2028 Y 4.9730 Z -1.0000
G01 X 31.1952 Y 4.9698 Z -1.0000
G01 X 31.1953 Y 4.9652 Z -1.0000
G01 X 31.1980 Y 4.9564 Z -1.0000
G02 X 31.1884 Y 4.9307 Z -1.0000 I -0.0862 J 0.0173
G03 X 31.1743 Y 4.9038 Z -1.0000 I 0.6099 J -0.3382
G01 X 31.1721 Y 4.8978 Z -1.0000
G02 X 31.1703 Y 4.8917 Z -1.0000 I -0.0609 J 0.0150
G02 X 31.1608 Y 4.8665 Z -1.0000 I -0.8274 J 0.2962
G03 X 31.1511 Y 4.8414 Z -1.0000 I 2.1489 J -0.8415
G03 X 31.1204 Y 4.7599 Z -1.0000 I 25.3548 J -9.5890
G02 X 31.0893 Y 4.6786 Z -1.0000 I -5.1182 J 1.9169
G02 X 31.0786 Y 4.6533 Z -1.0000 I -0.5203 J 0.2044
G03 X 31.0331 Y 4.5405 Z -1.0000 I 1.3571 J -0.6125
G03 X 31.0205 Y 4.4903 Z -1.0000 I 0.2546 J -0.0907
G02 X 30.9839 Y 4.4457 Z -1.0000 I -0.0557 J 0.0085
G02 X 30.8969 Y 4.4458 Z -1.0000 I -0.0434 J 0.1205
G01 X 30.8967 Y 4.4458 Z -1.0000
G00 Z 5.0000

(End cutting path id: path164)


(Start cutting path id: path164)
(Change tool to Default tool)

G00 Z 5.0000
G00 X 31.1412 Y 4.6338

G01 Z -1.0000 F 100.0000(Penetrate)
G01 X 31.1442 Y 4.6439 Z -1.0000 F 3500.0000
G01 X 31.1536 Y 4.6532 Z -1.0000
G01 X 31.1584 Y 4.6517 Z -1.0000
G01 X 31.1585 Y 4.6414 Z -1.0000
G01 X 31.1474 Y 4.6297 Z -1.0000
G01 X 31.1412 Y 4.6337 Z -1.0000
G01 X 31.1412 Y 4.6338 Z -1.0000
G00 Z 5.0000

(End cutting path id: path164)


(Start cutting path id: path164)
(Change tool to Default tool)

G00 Z 5.0000
G00 X 31.0033 Y 4.9480

G01 Z -1.0000 F 100.0000(Penetrate)
G01 X 30.9996 Y 4.9569 Z -1.0000 F 3500.0000
G01 X 30.9907 Y 4.9606 Z -1.0000
G01 X 30.9819 Y 4.9569 Z -1.0000
G01 X 30.9782 Y 4.9480 Z -1.0000
G01 X 30.9819 Y 4.9392 Z -1.0000
G01 X 30.9907 Y 4.9355 Z -1.0000
G01 X 30.9996 Y 4.9391 Z -1.0000
G01 X 31.0033 Y 4.9480 Z -1.0000
G01 X 31.0033 Y 4.9480 Z -1.0000
G00 Z 5.0000

(End cutting path id: path164)


(Start cutting path id: path164)
(Change tool to Default tool)

G00 Z 5.0000
G00 X 31.0534 Y 5.0177

G01 Z -1.0000 F 100.0000(Penetrate)
G01 X 31.0585 Y 5.0282 Z -1.0000 F 3500.0000
G01 X 31.0673 Y 5.0287 Z -1.0000
G01 X 31.0729 Y 5.0308 Z -1.0000
G01 X 31.0727 Y 5.0468 Z -1.0000
G01 X 31.0714 Y 5.0682 Z -1.0000
G01 X 31.0776 Y 5.0734 Z -1.0000
G01 X 31.0866 Y 5.0779 Z -1.0000
G01 X 31.0910 Y 5.0912 Z -1.0000
G01 X 31.0952 Y 5.1059 Z -1.0000
G01 X 31.1050 Y 5.1136 Z -1.0000
G03 X 31.1488 Y 5.1709 Z -1.0000 I -0.0203 J 0.0609
G01 X 31.1105 Y 5.2114 Z -1.0000
G01 X 31.0847 Y 5.1923 Z -1.0000
G01 X 31.0926 Y 5.1530 Z -1.0000
G01 X 31.1013 Y 5.1358 Z -1.0000
G01 X 31.0991 Y 5.1275 Z -1.0000
G01 X 31.0943 Y 5.1273 Z -1.0000
G01 X 31.0910 Y 5.1348 Z -1.0000
G01 X 31.0865 Y 5.1422 Z -1.0000
G01 X 31.0778 Y 5.1420 Z -1.0000
G01 X 31.0697 Y 5.1320 Z -1.0000
G01 X 31.0697 Y 5.1193 Z -1.0000
G01 X 31.0693 Y 5.1056 Z -1.0000
G02 X 31.0515 Y 5.0748 Z -1.0000 I -0.1220 J 0.0500
G03 X 31.0262 Y 5.0149 Z -1.0000 I 0.0996 J -0.0773
G01 X 31.0408 Y 4.9982 Z -1.0000
G01 X 31.0490 Y 5.0026 Z -1.0000
G01 X 31.0534 Y 5.0177 Z -1.0000
G01 X 31.0534 Y 5.0177 Z -1.0000
G00 Z 5.0000

(End cutting path id: path164)


(Start cutting path id: path164)
(Change tool to Default tool)

G00 Z 5.0000
G00 X 31.0534 Y 5.2051

G01 Z -1.0000 F 100.0000(Penetrate)
G01 X 31.0491 Y 5.2195 Z -1.0000 F 3500.0000
G01 X 31.0409 Y 5.2239 Z -1.0000
G01 X 31.0327 Y 5.2195 Z -1.0000
G01 X 31.0284 Y 5.2051 Z -1.0000
G01 X 31.0327 Y 5.1907 Z -1.0000
G01 X 31.0409 Y 5.1863 Z -1.0000
G01 X 31.0491 Y 5.1907 Z -1.0000
G01 X 31.0534 Y 5.2051 Z -1.0000
G01 X 31.0534 Y 5.2051 Z -1.0000
G00 Z 5.0000

(End cutting path id: path164)


(Start cutting path id: path164)
(Change tool to Default tool)

G00 Z 5.0000
G00 X 30.9448 Y 5.2929

G01 Z -1.0000 F 100.0000(Penetrate)
G01 X 30.9486 Y 5.3078 Z -1.0000 F 3500.0000
G01 X 30.9552 Y 5.3117 Z -1.0000
G01 X 30.9618 Y 5.3078 Z -1.0000
G01 X 30.9657 Y 5.2929 Z -1.0000
G01 X 30.9618 Y 5.2779 Z -1.0000
G01 X 30.9552 Y 5.2740 Z -1.0000
G01 X 30.9487 Y 5.2779 Z -1.0000
G01 X 30.9448 Y 5.2929 Z -1.0000
G01 X 30.9448 Y 5.2929 Z -1.0000
G00 Z 5.0000

(End cutting path id: path164)


(Start cutting path id: path164)
(Change tool to Default tool)

G00 Z 5.0000
G00 X 30.9508 Y 5.3579

G01 Z -1.0000 F 100.0000(Penetrate)
G01 X 30.9665 Y 5.3605 Z -1.0000 F 3500.0000
G01 X 30.9748 Y 5.3569 Z -1.0000
G01 X 30.9584 Y 5.3503 Z -1.0000
G01 X 30.9508 Y 5.3579 Z -1.0000
G01 X 30.9508 Y 5.3579 Z -1.0000
G00 Z 5.0000

(End cutting path id: path164)


(Start cutting path id: path164)
(Change tool to Default tool)

G00 Z 5.0000
G00 X 30.8716 Y 5.3744

G01 Z -1.0000 F 100.0000(Penetrate)
G01 X 30.8710 Y 5.3829 Z -1.0000 F 3500.0000
G01 X 30.8771 Y 5.3869 Z -1.0000
G01 X 30.8866 Y 5.3832 Z -1.0000
G01 X 30.8904 Y 5.3744 Z -1.0000
G01 X 30.8882 Y 5.3640 Z -1.0000
G01 X 30.8849 Y 5.3618 Z -1.0000
G01 X 30.8804 Y 5.3636 Z -1.0000
G02 X 30.8716 Y 5.3744 Z -1.0000 I 0.0359 J 0.0384
G01 X 30.8716 Y 5.3744 Z -1.0000
G00 Z 5.0000

(End cutting path id: path164)


(Start cutting path id: path164)
(Change tool to Default tool)

G00 Z 5.0000
G00 X 30.8373 Y 5.2561

G01 Z -1.0000 F 100.0000(Penetrate)
G01 X 30.8272 Y 5.2617 Z -1.0000 F 3500.0000
G03 X 30.7812 Y 5.2685 Z -1.0000 I -0.0726 J -0.3283
G02 X 30.6715 Y 5.2894 Z -1.0000 I 0.0412 J 0.5158
G02 X 30.4327 Y 5.3748 Z -1.0000 I 0.7752 J 2.5433
G03 X 30.4074 Y 5.3845 Z -1.0000 I -0.2019 J -0.4883
G03 X 30.3575 Y 5.4015 Z -1.0000 I -0.6869 J -1.9379
G01 X 30.3388 Y 5.4148 Z -1.0000
G01 X 30.3418 Y 5.4220 Z -1.0000
G03 X 30.3693 Y 5.4327 Z -1.0000 I -0.0070 J 0.0590
G01 X 30.3773 Y 5.4473 Z -1.0000
G01 X 30.3844 Y 5.4534 Z -1.0000
G01 X 30.3933 Y 5.4450 Z -1.0000
G01 X 30.4085 Y 5.4453 Z -1.0000
G01 X 30.4207 Y 5.4412 Z -1.0000
G02 X 30.4315 Y 5.4088 Z -1.0000 I -0.0607 J -0.0382
G01 X 30.4672 Y 5.3654 Z -1.0000
G01 X 30.4983 Y 5.3900 Z -1.0000
G02 X 30.5065 Y 5.4517 Z -1.0000 I 0.1864 J 0.0069
G01 X 30.5205 Y 5.4621 Z -1.0000
G01 X 30.5338 Y 5.4566 Z -1.0000
G01 X 30.5393 Y 5.4433 Z -1.0000
G01 X 30.5449 Y 5.4300 Z -1.0000
G01 X 30.5585 Y 5.4245 Z -1.0000
G01 X 30.5743 Y 5.4295 Z -1.0000
G01 X 30.5849 Y 5.4433 Z -1.0000
G01 X 30.5959 Y 5.4567 Z -1.0000
G01 X 30.6144 Y 5.4621 Z -1.0000
G01 X 30.6280 Y 5.4540 Z -1.0000
G01 X 30.6339 Y 5.4265 Z -1.0000
G02 X 30.6285 Y 5.3918 Z -1.0000 I -0.2225 J 0.0171
G02 X 30.6221 Y 5.3764 Z -1.0000 I -0.0517 J 0.0123
G01 X 30.6271 Y 5.3689 Z -1.0000
G03 X 30.6535 Y 5.3818 Z -1.0000 I -0.0089 J 0.0518
G03 X 30.6690 Y 5.4033 Z -1.0000 I -0.0422 J 0.0466
G01 X 30.6693 Y 5.4181 Z -1.0000
G01 X 30.6690 Y 5.4325 Z -1.0000
G01 X 30.6779 Y 5.4437 Z -1.0000
G01 X 30.6852 Y 5.4407 Z -1.0000
G02 X 30.6880 Y 5.4034 Z -1.0000 I -0.1068 J -0.0269
G03 X 30.6946 Y 5.3663 Z -1.0000 I 0.0705 J -0.0067
G01 X 30.7093 Y 5.3588 Z -1.0000
G01 X 30.7328 Y 5.3571 Z -1.0000
G01 X 30.7517 Y 5.3440 Z -1.0000
G03 X 30.7701 Y 5.3285 Z -1.0000 I 0.0509 J 0.0420
G01 X 30.7867 Y 5.3241 Z -1.0000
G01 X 30.7969 Y 5.3183 Z -1.0000
G01 X 30.7979 Y 5.3047 Z -1.0000
G01 X 30.7980 Y 5.2944 Z -1.0000
G01 X 30.8028 Y 5.2929 Z -1.0000
G01 X 30.8112 Y 5.2934 Z -1.0000
G01 X 30.8152 Y 5.2873 Z -1.0000
G01 X 30.8197 Y 5.2785 Z -1.0000
G01 X 30.8336 Y 5.2740 Z -1.0000
G01 X 30.8437 Y 5.2798 Z -1.0000
G01 X 30.8448 Y 5.2928 Z -1.0000
G01 X 30.8441 Y 5.3072 Z -1.0000
G01 X 30.8499 Y 5.3116 Z -1.0000
G01 X 30.8607 Y 5.3083 Z -1.0000
G02 X 30.8779 Y 5.2928 Z -1.0000 I -0.0460 J -0.0681
G01 X 30.8812 Y 5.2798 Z -1.0000
G01 X 30.8742 Y 5.2740 Z -1.0000
G01 X 30.8579 Y 5.2698 Z -1.0000
G01 X 30.8504 Y 5.2607 Z -1.0000
G01 X 30.8443 Y 5.2545 Z -1.0000
G01 X 30.8373 Y 5.2561 Z -1.0000
G01 X 30.8373 Y 5.2561 Z -1.0000
G00 Z 5.0000

(End cutting path id: path164)


(Start cutting path id: path164)
(Change tool to Default tool)

G00 Z 5.0000
G00 X 30.8875 Y 5.2511

G01 Z -1.0000 F 100.0000(Penetrate)
G01 X 30.9020 Y 5.2594 Z -1.0000 F 3500.0000
G01 X 30.9172 Y 5.2589 Z -1.0000
G01 X 30.9184 Y 5.2539 Z -1.0000
G01 X 30.9040 Y 5.2456 Z -1.0000
G01 X 30.8887 Y 5.2462 Z -1.0000
G01 X 30.8875 Y 5.2511 Z -1.0000
G01 X 30.8875 Y 5.2511 Z -1.0000
G00 Z 5.0000

(End cutting path id: path164)


(Start cutting path id: path164)
(Change tool to Default tool)

G00 Z 5.0000
G00 X 30.8403 Y 5.1486

G01 Z -1.0000 F 100.0000(Penetrate)
G01 X 30.8421 Y 5.1547 Z -1.0000 F 3500.0000
G02 X 30.8716 Y 5.1486 Z -1.0000 I 0.0000 J -0.0748
G01 X 30.8801 Y 5.1410 Z -1.0000
G01 X 30.8779 Y 5.1372 Z -1.0000
G02 X 30.8599 Y 5.1395 Z -1.0000 I -0.0020 J 0.0546
G02 X 30.8403 Y 5.1486 Z -1.0000 I 0.0230 J 0.0754
G01 X 30.8403 Y 5.1486 Z -1.0000
G00 Z 5.0000

(End cutting path id: path164)


(Start cutting path id: path164)
(Change tool to Default tool)

G00 Z 5.0000
G00 X 30.7491 Y 5.3067

G01 Z -1.0000 F 100.0000(Penetrate)
G01 X 30.7407 Y 5.3104 Z -1.0000 F 3500.0000
G01 X 30.7251 Y 5.3077 Z -1.0000
G01 X 30.7327 Y 5.3001 Z -1.0000
G01 X 30.7491 Y 5.3067 Z -1.0000
G01 X 30.7491 Y 5.3067 Z -1.0000
G00 Z 5.0000

(End cutting path id: path164)


(Start cutting path id: path164)
(Change tool to Default tool)

G00 Z 5.0000
G00 X 30.5895 Y 5.3493

G01 Z -1.0000 F 100.0000(Penetrate)
G01 X 30.5626 Y 5.3572 Z -1.0000 F 3500.0000
G01 X 30.5581 Y 5.3493 Z -1.0000
G01 X 30.5681 Y 5.3407 Z -1.0000
G01 X 30.5871 Y 5.3369 Z -1.0000
G01 X 30.5927 Y 5.3416 Z -1.0000
G01 X 30.5895 Y 5.3493 Z -1.0000
G01 X 30.5895 Y 5.3493 Z -1.0000
G00 Z 5.0000

(End cutting path id: path164)


(Start cutting path id: path164)
(Change tool to Default tool)

G00 Z 5.0000
G00 X 30.5832 Y 5.2364

G01 Z -1.0000 F 100.0000(Penetrate)
G01 X 30.5748 Y 5.2441 Z -1.0000 F 3500.0000
G01 X 30.5769 Y 5.2479 Z -1.0000
G02 X 30.5949 Y 5.2455 Z -1.0000 I 0.0020 J -0.0546
G02 X 30.6145 Y 5.2364 Z -1.0000 I -0.0231 J -0.0754
G01 X 30.6127 Y 5.2303 Z -1.0000
G02 X 30.5832 Y 5.2364 Z -1.0000 I -0.0000 J 0.0748
G01 X 30.5832 Y 5.2364 Z -1.0000
G00 Z 5.0000

(End cutting path id: path164)


(Start cutting path id: path164)
(Change tool to Default tool)

G00 Z 5.0000
G00 X 30.4703 Y 5.2740

G01 Z -1.0000 F 100.0000(Penetrate)
G01 X 30.4640 Y 5.2848 Z -1.0000 F 3500.0000
G02 X 30.4824 Y 5.2826 Z -1.0000 I -0.0000 J -0.0776
G02 X 30.5079 Y 5.2740 Z -1.0000 I -0.0375 J -0.1539
G01 X 30.5142 Y 5.2633 Z -1.0000
G02 X 30.4959 Y 5.2655 Z -1.0000 I 0.0000 J 0.0776
G02 X 30.4703 Y 5.2740 Z -1.0000 I 0.0375 J 0.1539
G01 X 30.4703 Y 5.2740 Z -1.0000
G00 Z 5.0000

(End cutting path id: path164)


(Start cutting path id: path164)
(Change tool to Default tool)

G00 Z 5.0000
G00 X 30.3512 Y 5.3133

G01 Z -1.0000 F 100.0000(Penetrate)
G01 X 30.3217 Y 5.3314 Z -1.0000 F 3500.0000
G02 X 30.4352 Y 5.3014 Z -1.0000 I -0.0826 J -0.5420
G01 X 30.4327 Y 5.2889 Z -1.0000
G01 X 30.4205 Y 5.2908 Z -1.0000
G02 X 30.3512 Y 5.3133 Z -1.0000 I 0.4536 J 1.5159
G01 X 30.3512 Y 5.3133 Z -1.0000
G00 Z 5.0000

(End cutting path id: path164)


(Start cutting path id: path164)
(Change tool to Default tool)

G00 Z 5.0000
G00 X 30.4544 Y 5.4519

G01 Z -1.0000 F 100.0000(Penetrate)
G01 X 30.4751 Y 5.4691 Z -1.0000 F 3500.0000
G01 X 30.4892 Y 5.4569 Z -1.0000
G01 X 30.4834 Y 5.4429 Z -1.0000
G01 X 30.4693 Y 5.4370 Z -1.0000
G01 X 30.4567 Y 5.4423 Z -1.0000
G01 X 30.4544 Y 5.4519 Z -1.0000
G01 X 30.4544 Y 5.4519 Z -1.0000
G00 Z 5.0000

(End cutting path id: path164)


(Start cutting path id: path164)
(Change tool to Default tool)

G00 Z 5.0000
G00 X 30.2007 Y 5.4558

G01 Z -1.0000 F 100.0000(Penetrate)
G03 X 30.1686 Y 5.4703 Z -1.0000 I -0.1322 J -0.2505 F 3500.0000
G03 X 30.1067 Y 5.4914 Z -1.0000 I -0.3555 J -0.9416
G02 X 30.0443 Y 5.5114 Z -1.0000 I 0.6164 J 2.0222
G02 X 29.9938 Y 5.5296 Z -1.0000 I 0.4603 J 1.3578
G01 X 29.9920 Y 5.5375 Z -1.0000
G01 X 30.0064 Y 5.5430 Z -1.0000
G02 X 30.1290 Y 5.5208 Z -1.0000 I -0.0660 J -0.7140
G02 X 30.1700 Y 5.4983 Z -1.0000 I -0.0264 J -0.0966
G03 X 30.1975 Y 5.4818 Z -1.0000 I 0.0553 J 0.0610
G01 X 30.2212 Y 5.4800 Z -1.0000
G02 X 30.2459 Y 5.4806 Z -1.0000 I 0.0140 J -0.0732
G01 X 30.2645 Y 5.4737 Z -1.0000
G01 X 30.2662 Y 5.4666 Z -1.0000
G01 X 30.2572 Y 5.4610 Z -1.0000
G01 X 30.2548 Y 5.4567 Z -1.0000
G01 X 30.2635 Y 5.4496 Z -1.0000
G01 X 30.2678 Y 5.4437 Z -1.0000
G01 X 30.2635 Y 5.4394 Z -1.0000
G02 X 30.2331 Y 5.4433 Z -1.0000 I -0.0004 J 0.1188
G02 X 30.2008 Y 5.4558 Z -1.0000 I 0.0382 J 0.1467
G01 X 30.2007 Y 5.4558 Z -1.0000
G00 Z 5.0000

(End cutting path id: path164)


(Start cutting path id: path164)
(Change tool to Default tool)

G00 Z 5.0000
G00 X 30.1318 Y 5.3869

G01 Z -1.0000 F 100.0000(Penetrate)
G01 X 30.1233 Y 5.3946 Z -1.0000 F 3500.0000
G01 X 30.1255 Y 5.3984 Z -1.0000
G02 X 30.1434 Y 5.3960 Z -1.0000 I 0.0020 J -0.0546
G02 X 30.1631 Y 5.3869 Z -1.0000 I -0.0230 J -0.0754
G01 X 30.1613 Y 5.3808 Z -1.0000
G02 X 30.1317 Y 5.3869 Z -1.0000 I -0.0000 J 0.0748
G01 X 30.1318 Y 5.3869 Z -1.0000
G00 Z 5.0000

(End cutting path id: path164)


(Start cutting path id: path164)
(Change tool to Default tool)

G00 Z 5.0000
G00 X 29.7054 Y 5.4117

G01 Z -1.0000 F 100.0000(Penetrate)
G03 X 29.6801 Y 5.4216 Z -1.0000 I -0.2174 J -0.5168 F 3500.0000
G03 X 29.5549 Y 5.4666 Z -1.0000 I -4.6873 J -12.8557
G02 X 29.4296 Y 5.5110 Z -1.0000 I 19.2830 J 54.5285
G02 X 29.1850 Y 5.5983 Z -1.0000 I 76.4694 J 214.6681
G03 X 28.9402 Y 5.6850 Z -1.0000 I -13.1709 J -36.8343
G03 X 28.8213 Y 5.7257 Z -1.0000 I -3.0451 J -8.6979
G02 X 28.7025 Y 5.7663 Z -1.0000 I 3.1162 J 9.3060
G02 X 28.6771 Y 5.7760 Z -1.0000 I 0.1533 J 0.4389
G03 X 28.6518 Y 5.7856 Z -1.0000 I -0.1733 J -0.4192
G03 X 28.5016 Y 5.8365 Z -1.0000 I -4.5823 J -13.2838
G02 X 28.3515 Y 5.8876 Z -1.0000 I 3.3459 J 10.0656
G02 X 28.3135 Y 5.9021 Z -1.0000 I 0.2312 J 0.6623
G03 X 28.2756 Y 5.9169 Z -1.0000 I -0.3406 J -0.8195
G01 X 28.2675 Y 5.9188 Z -1.0000
G01 X 28.2599 Y 5.9214 Z -1.0000
G02 X 28.2497 Y 5.9293 Z -1.0000 I 0.0262 J 0.0444
G01 X 28.2530 Y 5.9367 Z -1.0000
G02 X 28.2972 Y 5.9269 Z -1.0000 I -0.0068 J -0.1343
G03 X 28.3263 Y 5.9157 Z -1.0000 I 0.2629 J 0.6407
G03 X 28.4577 Y 5.8693 Z -1.0000 I 4.6780 J 13.0394
G02 X 28.5890 Y 5.8228 Z -1.0000 I -3.8447 J -11.0666
G02 X 28.6144 Y 5.8127 Z -1.0000 I -0.1535 J -0.4254
G03 X 28.6399 Y 5.8030 Z -1.0000 I 0.1429 J 0.3339
G03 X 28.8339 Y 5.7378 Z -1.0000 I 6.1700 J 18.0583
G02 X 29.0276 Y 5.6721 Z -1.0000 I -3.7495 J -11.3677
G02 X 29.0485 Y 5.6629 Z -1.0000 I -0.0492 J -0.1409
G03 X 29.0695 Y 5.6539 Z -1.0000 I 0.0668 J 0.1264
G03 X 29.1238 Y 5.6375 Z -1.0000 I 0.2720 J 0.8033
G02 X 29.1782 Y 5.6214 Z -1.0000 I -0.2410 J -0.9107
G02 X 29.2163 Y 5.6070 Z -1.0000 I -0.1568 J -0.4749
G03 X 29.3199 Y 5.5669 Z -1.0000 I 0.6987 J 1.6504
G03 X 29.5737 Y 5.4812 Z -1.0000 I 3.4811 J 9.8873
G02 X 29.6787 Y 5.4432 Z -1.0000 I -0.5002 J -1.5456
G02 X 29.7179 Y 5.4233 Z -1.0000 I -0.0941 J -0.2344
G01 X 29.7188 Y 5.4141 Z -1.0000
G01 X 29.7054 Y 5.4117 Z -1.0000
G01 X 29.7054 Y 5.4117 Z -1.0000
G00 Z 5.0000

(End cutting path id: path164)


(Start cutting path id: path164)
(Change tool to Default tool)

G00 Z 5.0000
G00 X 29.5236 Y 5.6889

G01 Z -1.0000 F 100.0000(Penetrate)
G03 X 29.3413 Y 5.7507 Z -1.0000 I -4.0745 J -11.7058 F 3500.0000
G03 X 29.2916 Y 5.7656 Z -1.0000 I -0.2824 J -0.8539
G02 X 29.2428 Y 5.7816 Z -1.0000 I 0.1208 J 0.4505
G01 X 29.2295 Y 5.7898 Z -1.0000
G01 X 29.2161 Y 5.7971 Z -1.0000
G03 X 29.1856 Y 5.8016 Z -1.0000 I -0.0347 J -0.1279
G01 X 29.1694 Y 5.8089 Z -1.0000
G01 X 29.1786 Y 5.8175 Z -1.0000
G01 X 29.1781 Y 5.8268 Z -1.0000
G01 X 29.2158 Y 5.8119 Z -1.0000
G03 X 29.2611 Y 5.7922 Z -1.0000 I 0.1026 J 0.1740
G01 X 29.2799 Y 5.7929 Z -1.0000
G01 X 29.2907 Y 5.7932 Z -1.0000
G01 X 29.2922 Y 5.7890 Z -1.0000
G01 X 29.2944 Y 5.7819 Z -1.0000
G03 X 29.3365 Y 5.7691 Z -1.0000 I 0.0707 J 0.1567
G02 X 29.3867 Y 5.7572 Z -1.0000 I -0.0694 J -0.4075
G02 X 29.4196 Y 5.7439 Z -1.0000 I -0.0556 J -0.1839
G03 X 29.4520 Y 5.7326 Z -1.0000 I 0.0550 J 0.1059
G01 X 29.4719 Y 5.7338 Z -1.0000
G01 X 29.4754 Y 5.7318 Z -1.0000
G01 X 29.4735 Y 5.7267 Z -1.0000
G01 X 29.4739 Y 5.7192 Z -1.0000
G03 X 29.4986 Y 5.7126 Z -1.0000 I 0.0254 J 0.0450
G02 X 29.5406 Y 5.7065 Z -1.0000 I -0.0022 J -0.1646
G02 X 29.5669 Y 5.6935 Z -1.0000 I -0.0211 J -0.0757
G03 X 29.5924 Y 5.6814 Z -1.0000 I 0.0416 J 0.0550
G01 X 29.6139 Y 5.6822 Z -1.0000
G01 X 29.6316 Y 5.6827 Z -1.0000
G01 X 29.6365 Y 5.6765 Z -1.0000
G01 X 29.6418 Y 5.6677 Z -1.0000
G03 X 29.6867 Y 5.6501 Z -1.0000 I 0.1015 J 0.1928
G02 X 29.7236 Y 5.6325 Z -1.0000 I -0.0296 J -0.1098
G01 X 29.7211 Y 5.6252 Z -1.0000
G02 X 29.7059 Y 5.6278 Z -1.0000 I 0.0008 J 0.0524
G02 X 29.5236 Y 5.6888 Z -1.0000 I 2.4786 J 7.7052
G01 X 29.5236 Y 5.6889 Z -1.0000
G00 Z 5.0000

(End cutting path id: path164)


(Start cutting path id: path164)
(Change tool to Default tool)

G00 Z 5.0000
G00 X 29.3417 Y 5.7881

G01 Z -1.0000 F 100.0000(Penetrate)
G01 X 29.3409 Y 5.7968 Z -1.0000 F 3500.0000
G01 X 29.3465 Y 5.8006 Z -1.0000
G01 X 29.3574 Y 5.7976 Z -1.0000
G01 X 29.3668 Y 5.7881 Z -1.0000
G01 X 29.3677 Y 5.7794 Z -1.0000
G01 X 29.3620 Y 5.7756 Z -1.0000
G01 X 29.3512 Y 5.7786 Z -1.0000
G01 X 29.3417 Y 5.7881 Z -1.0000
G01 X 29.3417 Y 5.7881 Z -1.0000
G00 Z 5.0000

(End cutting path id: path164)


(Start cutting path id: path164)
(Change tool to Default tool)

G00 Z 5.0000
G00 X 28.8811 Y 5.8998

G01 Z -1.0000 F 100.0000(Penetrate)
G02 X 28.6792 Y 5.9760 Z -1.0000 I 0.8978 J 2.6850 F 3500.0000
G01 X 28.6701 Y 5.9887 Z -1.0000
G01 X 28.6667 Y 5.9944 Z -1.0000
G01 X 28.6630 Y 5.9932 Z -1.0000
G01 X 28.6517 Y 5.9871 Z -1.0000
G02 X 28.5517 Y 6.0140 Z -1.0000 I 0.1212 J 0.6502
G03 X 28.5266 Y 6.0226 Z -1.0000 I -0.4545 J -1.2791
G03 X 28.2852 Y 6.1028 Z -1.0000 I -40.2482 J -120.7193
G02 X 28.0601 Y 6.1900 Z -1.0000 I 0.7656 J 2.3115
G01 X 28.0627 Y 6.2020 Z -1.0000
G01 X 28.0777 Y 6.1982 Z -1.0000
G01 X 28.0815 Y 6.1919 Z -1.0000
G03 X 28.1370 Y 6.1163 Z -1.0000 I 0.0792 J 0.0000
G03 X 28.2696 Y 6.1330 Z -1.0000 I 0.0480 J 0.1535
G01 X 28.2781 Y 6.1336 Z -1.0000
G01 X 28.2821 Y 6.1275 Z -1.0000
G01 X 28.2854 Y 6.1184 Z -1.0000
G01 X 28.2915 Y 6.1164 Z -1.0000
G02 X 28.4013 Y 6.1161 Z -1.0000 I 0.0542 J -0.2372
G01 X 28.4130 Y 6.0879 Z -1.0000
G01 X 28.4146 Y 6.0839 Z -1.0000
G01 X 28.4257 Y 6.0844 Z -1.0000
G01 X 28.4406 Y 6.0852 Z -1.0000
G01 X 28.4451 Y 6.0793 Z -1.0000
G01 X 28.4505 Y 6.0723 Z -1.0000
G03 X 28.4859 Y 6.0685 Z -1.0000 I 0.0301 J 0.1138
G02 X 28.5187 Y 6.0635 Z -1.0000 I 0.0038 J -0.0848
G01 X 28.5236 Y 6.0549 Z -1.0000
G01 X 28.5272 Y 6.0454 Z -1.0000
G01 X 28.5424 Y 6.0412 Z -1.0000
G02 X 28.6168 Y 6.0344 Z -1.0000 I 0.0180 J -0.2144
G01 X 28.6247 Y 6.0188 Z -1.0000
G01 X 28.6291 Y 6.0091 Z -1.0000
G01 X 28.6564 Y 6.0073 Z -1.0000
G02 X 28.6847 Y 6.0062 Z -1.0000 I 0.0121 J -0.0556
G01 X 28.6889 Y 5.9977 Z -1.0000
G01 X 28.6932 Y 5.9873 Z -1.0000
G03 X 28.7297 Y 5.9798 Z -1.0000 I 0.0356 J 0.0814
G02 X 28.8395 Y 5.9660 Z -1.0000 I 0.0037 J -0.4136
G01 X 28.8638 Y 5.9442 Z -1.0000
G01 X 28.8754 Y 5.9329 Z -1.0000
G03 X 28.9181 Y 5.9253 Z -1.0000 I 0.0452 J 0.1300
G02 X 29.0037 Y 5.9122 Z -1.0000 I -0.0060 J -0.3250
G01 X 29.0032 Y 5.9003 Z -1.0000
G01 X 29.0345 Y 5.8896 Z -1.0000
G02 X 29.0700 Y 5.8759 Z -1.0000 I -0.0191 J -0.1021
G01 X 29.0748 Y 5.8647 Z -1.0000
G01 X 29.0800 Y 5.8566 Z -1.0000
G03 X 29.1153 Y 5.8562 Z -1.0000 I 0.0186 J 0.0889
G02 X 29.1475 Y 5.8545 Z -1.0000 I 0.0126 J -0.0669
G01 X 29.1521 Y 5.8452 Z -1.0000
G01 X 29.1305 Y 5.8333 Z -1.0000
G02 X 28.8811 Y 5.8999 Z -1.0000 I 0.4139 J 2.0503
G01 X 28.8811 Y 5.8998 Z -1.0000
G00 Z 5.0000

(End cutting path id: path164)


(Start cutting path id: path164)
(Change tool to Default tool)

G00 Z 5.0000
G00 X 28.5839 Y 5.9131

G01 Z -1.0000 F 100.0000(Penetrate)
G01 X 28.5825 Y 5.9205 Z -1.0000 F 3500.0000
G01 X 28.5972 Y 5.9302 Z -1.0000
G01 X 28.6144 Y 5.9272 Z -1.0000
G01 X 28.6150 Y 5.9180 Z -1.0000
G01 X 28.5987 Y 5.9101 Z -1.0000
G01 X 28.5839 Y 5.9131 Z -1.0000
G01 X 28.5839 Y 5.9131 Z -1.0000
G00 Z 5.0000

(End cutting path id: path164)


(Start cutting path id: path164)
(Change tool to Default tool)

G00 Z 5.0000
G00 X 28.3386 Y 6.0012

G01 Z -1.0000 F 100.0000(Penetrate)
G01 X 28.3402 Y 6.0060 Z -1.0000 F 3500.0000
G01 X 28.3504 Y 6.0061 Z -1.0000
G01 X 28.3622 Y 5.9950 Z -1.0000
G01 X 28.3581 Y 5.9888 Z -1.0000
G01 X 28.3480 Y 5.9918 Z -1.0000
G01 X 28.3387 Y 6.0012 Z -1.0000
G01 X 28.3386 Y 6.0012 Z -1.0000
G00 Z 5.0000

(End cutting path id: path164)


(Start cutting path id: path164)
(Change tool to Default tool)

G00 Z 5.0000
G00 X 28.2265 Y 6.0427

G01 Z -1.0000 F 100.0000(Penetrate)
G01 X 28.2366 Y 6.0582 Z -1.0000 F 3500.0000
G01 X 28.2421 Y 6.0582 Z -1.0000
G01 X 28.2436 Y 6.0511 Z -1.0000
G01 X 28.2335 Y 6.0357 Z -1.0000
G01 X 28.2280 Y 6.0357 Z -1.0000
G01 X 28.2265 Y 6.0427 Z -1.0000
G01 X 28.2265 Y 6.0427 Z -1.0000
G00 Z 5.0000

(End cutting path id: path164)


(Start cutting path id: path164)
(Change tool to Default tool)

G00 Z 5.0000
G00 X 28.2045 Y 5.9472

G01 Z -1.0000 F 100.0000(Penetrate)
G01 X 28.2202 Y 5.9499 Z -1.0000 F 3500.0000
G01 X 28.2286 Y 5.9463 Z -1.0000
G01 X 28.2121 Y 5.9397 Z -1.0000
G01 X 28.2045 Y 5.9473 Z -1.0000
G01 X 28.2045 Y 5.9472 Z -1.0000
G00 Z 5.0000

(End cutting path id: path164)


(Start cutting path id: path164)
(Change tool to Default tool)

G00 Z 5.0000
G00 X 28.1144 Y 5.9696

G01 Z -1.0000 F 100.0000(Penetrate)
G02 X 28.0648 Y 5.9968 Z -1.0000 I 0.0600 J 0.1685 F 3500.0000
G01 X 28.0688 Y 6.0050 Z -1.0000
G02 X 28.1783 Y 5.9642 Z -1.0000 I -0.1436 J -0.5517
G01 X 28.1755 Y 5.9523 Z -1.0000
G01 X 28.1633 Y 5.9540 Z -1.0000
G02 X 28.1144 Y 5.9696 Z -1.0000 I 0.2049 J 0.7246
G01 X 28.1144 Y 5.9696 Z -1.0000
G00 Z 5.0000

(End cutting path id: path164)


(Start cutting path id: path164)
(Change tool to Default tool)

G00 Z 5.0000
G00 X 28.1066 Y 6.0899

G01 Z -1.0000 F 100.0000(Penetrate)
G01 X 28.1105 Y 6.0960 Z -1.0000 F 3500.0000
G01 X 28.1191 Y 6.0954 Z -1.0000
G02 X 28.1298 Y 6.0866 Z -1.0000 I -0.0289 J -0.0463
G01 X 28.1316 Y 6.0821 Z -1.0000
G01 X 28.1295 Y 6.0788 Z -1.0000
G01 X 28.1191 Y 6.0766 Z -1.0000
G01 X 28.1103 Y 6.0804 Z -1.0000
G01 X 28.1066 Y 6.0899 Z -1.0000
G01 X 28.1066 Y 6.0899 Z -1.0000
G00 Z 5.0000

(End cutting path id: path164)


(Start cutting path id: path164)
(Change tool to Default tool)

G00 Z 5.0000
G00 X 27.9810 Y 6.1129

G01 Z -1.0000 F 100.0000(Penetrate)
G02 X 27.9251 Y 6.1345 Z -1.0000 I 0.3611 J 1.0136 F 3500.0000
G02 X 27.9089 Y 6.1432 Z -1.0000 I 0.0394 J 0.0937
G01 X 27.8933 Y 6.1482 Z -1.0000
G01 X 27.8789 Y 6.1444 Z -1.0000
G01 X 27.8736 Y 6.1446 Z -1.0000
G01 X 27.8728 Y 6.1490 Z -1.0000
G01 X 27.8716 Y 6.1583 Z -1.0000
G01 X 27.8528 Y 6.1680 Z -1.0000
G01 X 27.8510 Y 6.1717 Z -1.0000
G01 X 27.8564 Y 6.1752 Z -1.0000
G02 X 27.8864 Y 6.1719 Z -1.0000 I 0.0049 J -0.0925
G01 X 27.9033 Y 6.1620 Z -1.0000
G03 X 27.9195 Y 6.1496 Z -1.0000 I 0.0553 J 0.0553
G01 X 27.9340 Y 6.1443 Z -1.0000
G02 X 27.9495 Y 6.1405 Z -1.0000 I -0.0193 J -0.1119
G02 X 28.0044 Y 6.1217 Z -1.0000 I -0.4936 J -1.5317
G03 X 28.0586 Y 6.1063 Z -1.0000 I 0.1334 J 0.3680
G01 X 28.0694 Y 6.1082 Z -1.0000
G01 X 28.0786 Y 6.1098 Z -1.0000
G01 X 28.0860 Y 6.1045 Z -1.0000
G01 X 28.0783 Y 6.0921 Z -1.0000
G02 X 27.9810 Y 6.1128 Z -1.0000 I 0.0300 J 0.3787
G01 X 27.9810 Y 6.1129 Z -1.0000
G00 Z 5.0000

(End cutting path id: path164)


(Start cutting path id: path164)
(Change tool to Default tool)

G00 Z 5.0000
G00 X 27.9686 Y 6.2083

G01 Z -1.0000 F 100.0000(Penetrate)
G01 X 27.9543 Y 6.2219 Z -1.0000 F 3500.0000
G01 X 27.9568 Y 6.2267 Z -1.0000
G01 X 27.9751 Y 6.2233 Z -1.0000
G02 X 28.0007 Y 6.2087 Z -1.0000 I -0.0425 J -0.1043
G01 X 27.9981 Y 6.2006 Z -1.0000
G02 X 27.9686 Y 6.2083 Z -1.0000 I -0.0007 J 0.0579
G01 X 27.9686 Y 6.2083 Z -1.0000
G00 Z 5.0000

(End cutting path id: path164)


(Start cutting path id: path164)
(Change tool to Default tool)

G00 Z 5.0000
G00 X 27.8620 Y 6.2459

G01 Z -1.0000 F 100.0000(Penetrate)
G01 X 27.8567 Y 6.2543 Z -1.0000 F 3500.0000
G01 X 27.8620 Y 6.2589 Z -1.0000
G03 X 27.8997 Y 6.2543 Z -1.0000 I 0.6895 J 5.4871
G03 X 27.9091 Y 6.2532 Z -1.0000 I 0.4260 J 3.5883
G01 X 27.9154 Y 6.2494 Z -1.0000
G01 X 27.9185 Y 6.2397 Z -1.0000
G01 X 27.9103 Y 6.2323 Z -1.0000
G02 X 27.8620 Y 6.2460 Z -1.0000 I 0.0170 J 0.1523
G01 X 27.8620 Y 6.2459 Z -1.0000
G00 Z 5.0000

(End cutting path id: path164)


(Start cutting path id: path164)
(Change tool to Default tool)

G00 Z 5.0000
G00 X 27.7680 Y 6.1895

G01 Z -1.0000 F 100.0000(Penetrate)
G01 X 27.7677 Y 6.1962 Z -1.0000 F 3500.0000
G01 X 27.7837 Y 6.2018 Z -1.0000
G02 X 27.8130 Y 6.1968 Z -1.0000 I 0.0005 J -0.0852
G01 X 27.8181 Y 6.1895 Z -1.0000
G01 X 27.8067 Y 6.1780 Z -1.0000
G02 X 27.7680 Y 6.1895 Z -1.0000 I -0.0000 J 0.0714
G01 X 27.7680 Y 6.1895 Z -1.0000
G00 Z 5.0000

(End cutting path id: path164)


(Start cutting path id: path164)
(Change tool to Default tool)

G00 Z 5.0000
G00 X 27.7053 Y 6.2070

G01 Z -1.0000 F 100.0000(Penetrate)
G01 X 27.7073 Y 6.2106 Z -1.0000 F 3500.0000
G02 X 27.7247 Y 6.2194 Z -1.0000 I 0.0528 J -0.0829
G01 X 27.7350 Y 6.2192 Z -1.0000
G01 X 27.7365 Y 6.2145 Z -1.0000
G01 X 27.7152 Y 6.1991 Z -1.0000
G01 X 27.7053 Y 6.2070 Z -1.0000
G01 X 27.7053 Y 6.2070 Z -1.0000
G00 Z 5.0000

(End cutting path id: path164)


(Start cutting path id: path164)
(Change tool to Default tool)

G00 Z 5.0000
G00 X 27.6175 Y 6.1518

G01 Z -1.0000 F 100.0000(Penetrate)
G01 X 27.6193 Y 6.1579 Z -1.0000 F 3500.0000
G02 X 27.6489 Y 6.1518 Z -1.0000 I 0.0000 J -0.0748
G01 X 27.6573 Y 6.1442 Z -1.0000
G01 X 27.6552 Y 6.1404 Z -1.0000
G02 X 27.6372 Y 6.1427 Z -1.0000 I -0.0020 J 0.0546
G02 X 27.6175 Y 6.1518 Z -1.0000 I 0.0230 J 0.0754
G01 X 27.6175 Y 6.1518 Z -1.0000
G00 Z 5.0000

(End cutting path id: path164)


(Start cutting path id: path164)
(Change tool to Default tool)

G00 Z 5.0000
G00 X 27.5485 Y 6.1769

G01 Z -1.0000 F 100.0000(Penetrate)
G01 X 27.5479 Y 6.1855 Z -1.0000 F 3500.0000
G01 X 27.5540 Y 6.1895 Z -1.0000
G01 X 27.5635 Y 6.1857 Z -1.0000
G01 X 27.5673 Y 6.1769 Z -1.0000
G01 X 27.5651 Y 6.1665 Z -1.0000
G01 X 27.5618 Y 6.1644 Z -1.0000
G01 X 27.5573 Y 6.1662 Z -1.0000
G02 X 27.5485 Y 6.1769 Z -1.0000 I 0.0359 J 0.0384
G01 X 27.5485 Y 6.1769 Z -1.0000
G00 Z 5.0000

(End cutting path id: path164)


(Start cutting path id: path164)
(Change tool to Default tool)

G00 Z 5.0000
G00 X 27.5743 Y 6.2521

G01 Z -1.0000 F 100.0000(Penetrate)
G02 X 27.4792 Y 6.2905 Z -1.0000 I 0.2894 J 0.8535 F 3500.0000
G01 X 27.4694 Y 6.3016 Z -1.0000
G01 X 27.4728 Y 6.3070 Z -1.0000
G01 X 27.4890 Y 6.3040 Z -1.0000
G03 X 27.5131 Y 6.2958 Z -1.0000 I 0.0372 J 0.0698
G01 X 27.5218 Y 6.2986 Z -1.0000
G01 X 27.5267 Y 6.2991 Z -1.0000
G01 X 27.5297 Y 6.2935 Z -1.0000
G01 X 27.5352 Y 6.2848 Z -1.0000
G03 X 27.5893 Y 6.2650 Z -1.0000 I 0.1295 J 0.2697
G02 X 27.6488 Y 6.2495 Z -1.0000 I -6.9140 J -26.6474
G02 X 27.6708 Y 6.2437 Z -1.0000 I -3.8109 J -14.5536
G01 X 27.6886 Y 6.2348 Z -1.0000
G01 X 27.6927 Y 6.2263 Z -1.0000
G01 X 27.6862 Y 6.2210 Z -1.0000
G02 X 27.5742 Y 6.2521 Z -1.0000 I 0.2227 J 1.0188
G01 X 27.5743 Y 6.2521 Z -1.0000
G00 Z 5.0000

(End cutting path id: path164)


(Start cutting path id: path164)
(Change tool to Default tool)

G00 Z 5.0000
G00 X 27.5639 Y 6.3432

G01 Z -1.0000 F 100.0000(Penetrate)
G03 X 27.4603 Y 6.3783 Z -1.0000 I -1.2735 J -3.5890 F 3500.0000
G03 X 27.4232 Y 6.3886 Z -1.0000 I -0.1459 J -0.4519
G02 X 27.3999 Y 6.3998 Z -1.0000 I 0.0139 J 0.0591
G01 X 27.4002 Y 6.4064 Z -1.0000
G01 X 27.4153 Y 6.4100 Z -1.0000
G02 X 27.4503 Y 6.4019 Z -1.0000 I -0.0117 J -0.1314
G03 X 27.4860 Y 6.3898 Z -1.0000 I 0.1995 J 0.5271
G01 X 27.4921 Y 6.3893 Z -1.0000
G02 X 27.5530 Y 6.3860 Z -1.0000 I 0.0219 J -0.1595
G02 X 27.6019 Y 6.3619 Z -1.0000 I -0.0312 J -0.1252
G03 X 27.6191 Y 6.3522 Z -1.0000 I 0.0390 J 0.0491
G03 X 27.6574 Y 6.3412 Z -1.0000 I 0.0904 J 0.2434
G02 X 27.6928 Y 6.3202 Z -1.0000 I -0.0125 J -0.0614
G01 X 27.6865 Y 6.3066 Z -1.0000
G02 X 27.6675 Y 6.3094 Z -1.0000 I 0.0000 J 0.0664
G02 X 27.5639 Y 6.3432 Z -1.0000 I 0.6143 J 2.0583
G01 X 27.5639 Y 6.3432 Z -1.0000
G00 Z 5.0000

(End cutting path id: path164)


(Start cutting path id: path164)
(Change tool to Default tool)

G00 Z 5.0000
G00 X 27.4043 Y 6.2267

G01 Z -1.0000 F 100.0000(Penetrate)
G01 X 27.4088 Y 6.2324 Z -1.0000 F 3500.0000
G01 X 27.4231 Y 6.2316 Z -1.0000
G02 X 27.4400 Y 6.2231 Z -1.0000 I -0.0339 J -0.0878
G01 X 27.4419 Y 6.2195 Z -1.0000
G01 X 27.4398 Y 6.2167 Z -1.0000
G02 X 27.4231 Y 6.2146 Z -1.0000 I -0.0167 J 0.0642
G01 X 27.4086 Y 6.2188 Z -1.0000
G01 X 27.4043 Y 6.2267 Z -1.0000
G01 X 27.4043 Y 6.2267 Z -1.0000
G00 Z 5.0000

(End cutting path id: path164)


(Start cutting path id: path164)
(Change tool to Default tool)

G00 Z 5.0000
G00 X 27.3267 Y 6.2608

G01 Z -1.0000 F 100.0000(Penetrate)
G01 X 27.3424 Y 6.2635 Z -1.0000 F 3500.0000
G01 X 27.3508 Y 6.2598 Z -1.0000
G01 X 27.3343 Y 6.2532 Z -1.0000
G01 X 27.3267 Y 6.2608 Z -1.0000
G01 X 27.3267 Y 6.2608 Z -1.0000
G00 Z 5.0000

(End cutting path id: path164)


(Start cutting path id: path164)
(Change tool to Default tool)

G00 Z 5.0000
G00 X 27.2852 Y 6.3481

G01 Z -1.0000 F 100.0000(Penetrate)
G03 X 27.1598 Y 6.3921 Z -1.0000 I -20.2838 J -57.6660 F 3500.0000
G03 X 27.0310 Y 6.4369 Z -1.0000 I -20.0712 J -57.4602
G01 X 26.9075 Y 6.4869 Z -1.0000
G01 X 26.9481 Y 6.4974 Z -1.0000
G02 X 27.0338 Y 6.4507 Z -1.0000 I -0.0612 J -0.2145
G01 X 27.0471 Y 6.4441 Z -1.0000
G03 X 27.0815 Y 6.4403 Z -1.0000 I 0.0344 J 0.1564
G02 X 27.1061 Y 6.4340 Z -1.0000 I 0.0000 J -0.0511
G01 X 27.1083 Y 6.4256 Z -1.0000
G01 X 27.1101 Y 6.4200 Z -1.0000
G01 X 27.1223 Y 6.4198 Z -1.0000
G01 X 27.1430 Y 6.4219 Z -1.0000
G01 X 27.1541 Y 6.4143 Z -1.0000
G01 X 27.1662 Y 6.4050 Z -1.0000
G03 X 27.2207 Y 6.3935 Z -1.0000 I 0.0873 J 0.2792
G02 X 27.2706 Y 6.3832 Z -1.0000 I -0.0314 J -0.2765
G01 X 27.2726 Y 6.3776 Z -1.0000
G01 X 27.2746 Y 6.3718 Z -1.0000
G03 X 27.3168 Y 6.3603 Z -1.0000 I 0.0745 J 0.1904
G02 X 27.3614 Y 6.3478 Z -1.0000 I -0.0322 J -0.2009
G01 X 27.3667 Y 6.3399 Z -1.0000
G01 X 27.3719 Y 6.3327 Z -1.0000
G03 X 27.4043 Y 6.3275 Z -1.0000 I 0.0324 J 0.0983
G02 X 27.4367 Y 6.3223 Z -1.0000 I 0.0000 J -0.1027
G01 X 27.4420 Y 6.3149 Z -1.0000
G01 X 27.4321 Y 6.3069 Z -1.0000
G02 X 27.2852 Y 6.3481 Z -1.0000 I 0.2435 J 1.1509
G01 X 27.2852 Y 6.3481 Z -1.0000
G00 Z 5.0000

(End cutting path id: path164)


(Start cutting path id: path164)
(Change tool to Default tool)

G00 Z 5.0000
G00 X 27.3103 Y 6.4267

G01 Z -1.0000 F 100.0000(Penetrate)
G02 X 27.2483 Y 6.4481 Z -1.0000 I 0.3998 J 1.2592 F 3500.0000
G02 X 27.2350 Y 6.4547 Z -1.0000 I 0.0238 J 0.0639
G03 X 27.2217 Y 6.4612 Z -1.0000 I -0.0322 J -0.0494
G03 X 27.1676 Y 6.4776 Z -1.0000 I -0.2815 J -0.8320
G02 X 27.1282 Y 6.4965 Z -1.0000 I 0.0309 J 0.1151
G01 X 27.1274 Y 6.5070 Z -1.0000
G01 X 27.1412 Y 6.5132 Z -1.0000
G01 X 27.1509 Y 6.5083 Z -1.0000
G03 X 27.1978 Y 6.4719 Z -1.0000 I 0.0774 J 0.0512
G03 X 27.3095 Y 6.4529 Z -1.0000 I 0.1117 J 0.3203
G01 X 27.3243 Y 6.4482 Z -1.0000
G01 X 27.3291 Y 6.4389 Z -1.0000
G01 X 27.3344 Y 6.4318 Z -1.0000
G01 X 27.3542 Y 6.4315 Z -1.0000
G02 X 27.3773 Y 6.4330 Z -1.0000 I 0.0155 J -0.0592
G01 X 27.3857 Y 6.4276 Z -1.0000
G01 X 27.3796 Y 6.4165 Z -1.0000
G02 X 27.3103 Y 6.4268 Z -1.0000 I -0.0023 J 0.2212
G01 X 27.3103 Y 6.4267 Z -1.0000
G00 Z 5.0000

(End cutting path id: path164)


(Start cutting path id: path164)
(Change tool to Default tool)

G00 Z 5.0000
G00 X 27.1159 Y 6.3275

G01 Z -1.0000 F 100.0000(Penetrate)
G01 X 27.1177 Y 6.3336 Z -1.0000 F 3500.0000
G02 X 27.1473 Y 6.3275 Z -1.0000 I 0.0000 J -0.0748
G01 X 27.1557 Y 6.3198 Z -1.0000
G01 X 27.1536 Y 6.3160 Z -1.0000
G02 X 27.1356 Y 6.3184 Z -1.0000 I -0.0020 J 0.0546
G02 X 27.1159 Y 6.3275 Z -1.0000 I 0.0230 J 0.0754
G01 X 27.1159 Y 6.3275 Z -1.0000
G00 Z 5.0000

(End cutting path id: path164)


(Start cutting path id: path164)
(Change tool to Default tool)

G00 Z 5.0000
G00 X 26.9968 Y 6.3729

G01 Z -1.0000 F 100.0000(Penetrate)
G01 X 26.9924 Y 6.3800 Z -1.0000 F 3500.0000
G01 X 26.9968 Y 6.3836 Z -1.0000
G02 X 27.0328 Y 6.3729 Z -1.0000 I -0.0432 J -0.2130
G01 X 27.0463 Y 6.3642 Z -1.0000
G01 X 27.0431 Y 6.3579 Z -1.0000
G02 X 26.9968 Y 6.3729 Z -1.0000 I 0.0304 J 0.1726
G01 X 26.9968 Y 6.3729 Z -1.0000
G00 Z 5.0000

(End cutting path id: path164)


(Start cutting path id: path164)
(Change tool to Default tool)

G00 Z 5.0000
G00 X 27.0626 Y 6.5116

G01 Z -1.0000 F 100.0000(Penetrate)
G01 X 27.0448 Y 6.5206 Z -1.0000 F 3500.0000
G01 X 27.0407 Y 6.5290 Z -1.0000
G01 X 27.0524 Y 6.5391 Z -1.0000
G02 X 27.0864 Y 6.5218 Z -1.0000 I -0.0096 J -0.0607
G01 X 27.0847 Y 6.5133 Z -1.0000
G01 X 27.0626 Y 6.5116 Z -1.0000
G01 X 27.0626 Y 6.5116 Z -1.0000
G00 Z 5.0000

(End cutting path id: path164)


(Start cutting path id: path164)
(Change tool to Default tool)

G00 Z 5.0000
G00 X 26.9608 Y 6.5460

G01 Z -1.0000 F 100.0000(Penetrate)
G01 X 26.9432 Y 6.5614 Z -1.0000 F 3500.0000
G01 X 26.9462 Y 6.5700 Z -1.0000
G02 X 26.9919 Y 6.5769 Z -1.0000 I 0.0383 J -0.0997
G01 X 26.9973 Y 6.5664 Z -1.0000
G01 X 26.9972 Y 6.5564 Z -1.0000
G01 X 27.0122 Y 6.5417 Z -1.0000
G01 X 27.0096 Y 6.5335 Z -1.0000
G02 X 26.9608 Y 6.5459 Z -1.0000 I 0.0124 J 0.1510
G01 X 26.9608 Y 6.5460 Z -1.0000
G00 Z 5.0000

(End cutting path id: path164)


(Start cutting path id: path164)
(Change tool to Default tool)

G00 Z 5.0000
G00 X 26.8087 Y 6.5990

G01 Z -1.0000 F 100.0000(Penetrate)
G02 X 26.7444 Y 6.6299 Z -1.0000 I 0.0670 J 0.2211 F 3500.0000
G01 X 26.7479 Y 6.6409 Z -1.0000
G02 X 26.8234 Y 6.6280 Z -1.0000 I 0.0000 J -0.2274
G02 X 26.8772 Y 6.5954 Z -1.0000 I -0.0510 J -0.1447
G01 X 26.8739 Y 6.5876 Z -1.0000
G02 X 26.8087 Y 6.5990 Z -1.0000 I 0.0144 J 0.2738
G01 X 26.8087 Y 6.5990 Z -1.0000
G00 Z 5.0000

(End cutting path id: path164)


(Start cutting path id: path164)
(Change tool to Default tool)

G00 Z 5.0000
G00 X 26.7648 Y 6.5298

G01 Z -1.0000 F 100.0000(Penetrate)
G03 X 26.6954 Y 6.5544 Z -1.0000 I -0.6772 J -1.8013 F 3500.0000
G03 X 26.6676 Y 6.5622 Z -1.0000 I -0.0941 J -0.2826
G02 X 26.6436 Y 6.5719 Z -1.0000 I 0.0176 J 0.0782
G01 X 26.6394 Y 6.5793 Z -1.0000
G01 X 26.6354 Y 6.5842 Z -1.0000
G01 X 26.6206 Y 6.5828 Z -1.0000
G01 X 26.6066 Y 6.5826 Z -1.0000
G01 X 26.6018 Y 6.5895 Z -1.0000
G01 X 26.6177 Y 6.6059 Z -1.0000
G01 X 26.6457 Y 6.5908 Z -1.0000
G01 X 26.6555 Y 6.5819 Z -1.0000
G01 X 26.6707 Y 6.5783 Z -1.0000
G02 X 26.6875 Y 6.5760 Z -1.0000 I -0.0000 J -0.0626
G02 X 26.7232 Y 6.5636 Z -1.0000 I -0.0849 J -0.3042
G02 X 26.7585 Y 6.5491 Z -1.0000 I -38.2335 J -92.8118
G03 X 26.7648 Y 6.5466 Z -1.0000 I 0.1242 J 0.3011
G03 X 26.7711 Y 6.5446 Z -1.0000 I 0.0204 J 0.0534
G03 X 26.8118 Y 6.5346 Z -1.0000 I 0.6314 J 2.4781
G02 X 26.8480 Y 6.5214 Z -1.0000 I -0.0379 J -0.1604
G01 X 26.8526 Y 6.5140 Z -1.0000
G01 X 26.8451 Y 6.5077 Z -1.0000
G02 X 26.7648 Y 6.5299 Z -1.0000 I 0.0820 J 0.4536
G01 X 26.7648 Y 6.5298 Z -1.0000
G00 Z 5.0000

(End cutting path id: path164)


(Start cutting path id: path164)
(Change tool to Default tool)

G00 Z 5.0000
G00 X 26.7021 Y 6.4787

G01 Z -1.0000 F 100.0000(Penetrate)
G01 X 26.7061 Y 6.4848 Z -1.0000 F 3500.0000
G01 X 26.7146 Y 6.4842 Z -1.0000
G02 X 26.7254 Y 6.4754 Z -1.0000 I -0.0289 J -0.0463
G01 X 26.7272 Y 6.4709 Z -1.0000
G01 X 26.7250 Y 6.4676 Z -1.0000
G01 X 26.7146 Y 6.4654 Z -1.0000
G01 X 26.7059 Y 6.4692 Z -1.0000
G01 X 26.7021 Y 6.4787 Z -1.0000
G01 X 26.7021 Y 6.4787 Z -1.0000
G00 Z 5.0000

(End cutting path id: path164)


(Start cutting path id: path164)
(Change tool to Default tool)

G00 Z 5.0000
G00 X 26.8463 Y 6.4211

G01 Z -1.0000 F 100.0000(Penetrate)
G02 X 26.8265 Y 6.4349 Z -1.0000 I 0.0282 J 0.0613 F 3500.0000
G01 X 26.8282 Y 6.4394 Z -1.0000
G01 X 26.8466 Y 6.4363 Z -1.0000
G02 X 26.8721 Y 6.4220 Z -1.0000 I -0.0407 J -0.1023
G01 X 26.8703 Y 6.4163 Z -1.0000
G02 X 26.8463 Y 6.4211 Z -1.0000 I -0.0018 J 0.0534
G01 X 26.8463 Y 6.4211 Z -1.0000
G00 Z 5.0000

(End cutting path id: path164)


(Start cutting path id: path164)
(Change tool to Default tool)

G00 Z 5.0000
G00 X 26.7523 Y 6.1644

G01 Z -1.0000 F 100.0000(Penetrate)
G01 X 26.7480 Y 6.1723 Z -1.0000 F 3500.0000
G01 X 26.7523 Y 6.1765 Z -1.0000
G02 X 26.7702 Y 6.1737 Z -1.0000 I 0.0000 J -0.0582
G02 X 26.7899 Y 6.1644 Z -1.0000 I -0.0261 J -0.0804
G01 X 26.7942 Y 6.1565 Z -1.0000
G01 X 26.7899 Y 6.1522 Z -1.0000
G02 X 26.7719 Y 6.1551 Z -1.0000 I -0.0000 J 0.0582
G02 X 26.7523 Y 6.1644 Z -1.0000 I 0.0261 J 0.0804
G01 X 26.7523 Y 6.1644 Z -1.0000
G00 Z 5.0000

(End cutting path id: path164)


(Start cutting path id: path164)
(Change tool to Default tool)

G00 Z 5.0000
G00 X 26.6206 Y 6.2146

G01 Z -1.0000 F 100.0000(Penetrate)
G01 X 26.6143 Y 6.2254 Z -1.0000 F 3500.0000
G02 X 26.6326 Y 6.2232 Z -1.0000 I 0.0000 J -0.0776
G02 X 26.6582 Y 6.2146 Z -1.0000 I -0.0375 J -0.1539
G01 X 26.6645 Y 6.2038 Z -1.0000
G02 X 26.6461 Y 6.2060 Z -1.0000 I -0.0000 J 0.0764
G02 X 26.6206 Y 6.2146 Z -1.0000 I 0.0404 J 0.1631
G01 X 26.6206 Y 6.2146 Z -1.0000
G00 Z 5.0000

(End cutting path id: path164)


(Start cutting path id: path164)
(Change tool to Default tool)

G00 Z 5.0000
G00 X 26.5234 Y 6.2493

G01 Z -1.0000 F 100.0000(Penetrate)
G02 X 26.4677 Y 6.2719 Z -1.0000 I 0.1490 J 0.4479 F 3500.0000
G01 X 26.4638 Y 6.2780 Z -1.0000
G01 X 26.4886 Y 6.2959 Z -1.0000
G02 X 26.5823 Y 6.2388 Z -1.0000 I -0.0765 J -0.2311
G01 X 26.5234 Y 6.2493 Z -1.0000
G01 X 26.5234 Y 6.2493 Z -1.0000
G00 Z 5.0000

(End cutting path id: path164)


(Start cutting path id: path164)
(Change tool to Default tool)

G00 Z 5.0000
G00 X 26.3142 Y 6.3130

G01 Z -1.0000 F 100.0000(Penetrate)
G01 X 26.3169 Y 6.3191 Z -1.0000 F 3500.0000
G01 X 26.3047 Y 6.3346 Z -1.0000
G01 X 26.3079 Y 6.3430 Z -1.0000
G02 X 26.3698 Y 6.3286 Z -1.0000 I -0.0214 J -0.2329
G01 X 26.3775 Y 6.3157 Z -1.0000
G01 X 26.3668 Y 6.3067 Z -1.0000
G01 X 26.3142 Y 6.3130 Z -1.0000
G01 X 26.3142 Y 6.3130 Z -1.0000
G00 Z 5.0000

(End cutting path id: path164)


(Start cutting path id: path164)
(Change tool to Default tool)

G00 Z 5.0000
G00 X 26.2009 Y 6.3868

G01 Z -1.0000 F 100.0000(Penetrate)
G01 X 26.1991 Y 6.3960 Z -1.0000 F 3500.0000
G01 X 26.2051 Y 6.3989 Z -1.0000
G03 X 26.2278 Y 6.3909 Z -1.0000 I 0.1302 J 0.3366
G01 X 26.2329 Y 6.3902 Z -1.0000
G01 X 26.2360 Y 6.3881 Z -1.0000
G01 X 26.2381 Y 6.3776 Z -1.0000
G01 X 26.2285 Y 6.3701 Z -1.0000
G02 X 26.2009 Y 6.3867 Z -1.0000 I 0.0129 J 0.0526
G01 X 26.2009 Y 6.3868 Z -1.0000
G00 Z 5.0000

(End cutting path id: path164)


(Start cutting path id: path164)
(Change tool to Default tool)

G00 Z 5.0000
G00 X 26.4450 Y 6.5657

G01 Z -1.0000 F 100.0000(Penetrate)
G01 X 26.4366 Y 6.5733 Z -1.0000 F 3500.0000
G01 X 26.4387 Y 6.5771 Z -1.0000
G02 X 26.4567 Y 6.5748 Z -1.0000 I 0.0020 J -0.0546
G02 X 26.4763 Y 6.5657 Z -1.0000 I -0.0230 J -0.0754
G01 X 26.4746 Y 6.5596 Z -1.0000
G02 X 26.4450 Y 6.5657 Z -1.0000 I -0.0000 J 0.0748
G01 X 26.4450 Y 6.5657 Z -1.0000
G00 Z 5.0000

(End cutting path id: path164)


(Start cutting path id: path164)
(Change tool to Default tool)

G00 Z 5.0000
G00 X 26.5203 Y 6.5406

G01 Z -1.0000 F 100.0000(Penetrate)
G01 X 26.5168 Y 6.5473 Z -1.0000 F 3500.0000
G01 X 26.5227 Y 6.5522 Z -1.0000
G02 X 26.5477 Y 6.5486 Z -1.0000 I 0.0023 J -0.0720
G01 X 26.5579 Y 6.5406 Z -1.0000
G01 X 26.5540 Y 6.5336 Z -1.0000
G02 X 26.5203 Y 6.5406 Z -1.0000 I 0.0000 J 0.0855
G01 X 26.5203 Y 6.5406 Z -1.0000
G00 Z 5.0000

(End cutting path id: path164)


(Start cutting path id: path164)
(Change tool to Default tool)

G00 Z 5.0000
G00 X 26.4951 Y 6.6285

G01 Z -1.0000 F 100.0000(Penetrate)
G01 X 26.4860 Y 6.6362 Z -1.0000 F 3500.0000
G01 X 26.4778 Y 6.6356 Z -1.0000
G01 X 26.4534 Y 6.6326 Z -1.0000
G02 X 26.3558 Y 6.6753 Z -1.0000 I 0.1703 J 0.5215
G03 X 26.3299 Y 6.6844 Z -1.0000 I -0.0383 J -0.0683
G01 X 26.3193 Y 6.6813 Z -1.0000
G01 X 26.3178 Y 6.6871 Z -1.0000
G01 X 26.3297 Y 6.6932 Z -1.0000
G02 X 26.4071 Y 6.6787 Z -1.0000 I -0.0404 J -0.4273
G02 X 26.5273 Y 6.6298 Z -1.0000 I -0.1661 J -0.5808
G01 X 26.5238 Y 6.6159 Z -1.0000
G01 X 26.5051 Y 6.6198 Z -1.0000
G01 X 26.4950 Y 6.6286 Z -1.0000
G01 X 26.4951 Y 6.6285 Z -1.0000
G00 Z 5.0000

(End cutting path id: path164)


(Start cutting path id: path164)
(Change tool to Default tool)

G00 Z 5.0000
G00 X 26.5516 Y 6.6867

G01 Z -1.0000 F 100.0000(Penetrate)
G03 X 26.4322 Y 6.7294 Z -1.0000 I -3.6255 J -9.9641 F 3500.0000
G03 X 26.3259 Y 6.7658 Z -1.0000 I -2.7344 J -7.8042
G02 X 26.1067 Y 6.8481 Z -1.0000 I 1.0462 J 3.1208
G01 X 26.1075 Y 6.8568 Z -1.0000
G02 X 26.1309 Y 6.8568 Z -1.0000 I 0.0118 J -0.0520
G02 X 26.1691 Y 6.8432 Z -1.0000 I -0.0358 J -0.1606
G03 X 26.2076 Y 6.8289 Z -1.0000 I 0.0815 J 0.1611
G03 X 26.2338 Y 6.8273 Z -1.0000 I 0.0176 J 0.0718
G02 X 26.2583 Y 6.8253 Z -1.0000 I 0.0072 J -0.0628
G01 X 26.2690 Y 6.8172 Z -1.0000
G01 X 26.2796 Y 6.8082 Z -1.0000
G03 X 26.3016 Y 6.8039 Z -1.0000 I 0.0220 J 0.0538
G01 X 26.3208 Y 6.7988 Z -1.0000
G01 X 26.3259 Y 6.7899 Z -1.0000
G01 X 26.3315 Y 6.7827 Z -1.0000
G03 X 26.3576 Y 6.7819 Z -1.0000 I 0.0148 J 0.0587
G02 X 26.3869 Y 6.7829 Z -1.0000 I 0.0178 J -0.0937
G01 X 26.3959 Y 6.7771 Z -1.0000
G01 X 26.4047 Y 6.7700 Z -1.0000
G03 X 26.4261 Y 6.7662 Z -1.0000 I 0.0213 J 0.0595
G02 X 26.4476 Y 6.7616 Z -1.0000 I 0.0000 J -0.0529
G02 X 26.4683 Y 6.7474 Z -1.0000 I -0.0283 J -0.0633
G03 X 26.4891 Y 6.7333 Z -1.0000 I 0.0476 J 0.0476
G03 X 26.5115 Y 6.7286 Z -1.0000 I 0.0225 J 0.0516
G02 X 26.6036 Y 6.7175 Z -1.0000 I -0.0000 J -0.3852
G01 X 26.6088 Y 6.7047 Z -1.0000
G01 X 26.6100 Y 6.6996 Z -1.0000
G01 X 26.6246 Y 6.6947 Z -1.0000
G02 X 26.6873 Y 6.6820 Z -1.0000 I -0.0207 J -0.2629
G01 X 26.6916 Y 6.6724 Z -1.0000
G01 X 26.6923 Y 6.6639 Z -1.0000
G01 X 26.7042 Y 6.6518 Z -1.0000
G01 X 26.7004 Y 6.6428 Z -1.0000
G02 X 26.5516 Y 6.6867 Z -1.0000 I 0.2785 J 1.2186
G01 X 26.5516 Y 6.6867 Z -1.0000
G00 Z 5.0000

(End cutting path id: path164)


(Start cutting path id: path164)
(Change tool to Default tool)

G00 Z 5.0000
G00 X 26.2130 Y 6.7224

G01 Z -1.0000 F 100.0000(Penetrate)
G01 X 26.2150 Y 6.7299 Z -1.0000 F 3500.0000
G02 X 26.2569 Y 6.7228 Z -1.0000 I 0.0010 J -0.1208
G02 X 26.2778 Y 6.7098 Z -1.0000 I -0.0199 J -0.0552
G01 X 26.2757 Y 6.7046 Z -1.0000
G02 X 26.2455 Y 6.7088 Z -1.0000 I -0.0004 J 0.1089
G02 X 26.2130 Y 6.7224 Z -1.0000 I 0.0404 J 0.1415
G01 X 26.2130 Y 6.7224 Z -1.0000
G00 Z 5.0000

(End cutting path id: path164)


(Start cutting path id: path164)
(Change tool to Default tool)

G00 Z 5.0000
G00 X 26.1201 Y 6.7646

G01 Z -1.0000 F 100.0000(Penetrate)
G01 X 26.1222 Y 6.7693 Z -1.0000 F 3500.0000
G02 X 26.1444 Y 6.7694 Z -1.0000 I 0.0113 J -0.0566
G02 X 26.1733 Y 6.7616 Z -1.0000 I -0.0404 J -0.2084
G01 X 26.1754 Y 6.7586 Z -1.0000
G01 X 26.1565 Y 6.7416 Z -1.0000
G01 X 26.1201 Y 6.7645 Z -1.0000
G01 X 26.1201 Y 6.7646 Z -1.0000
G00 Z 5.0000

(End cutting path id: path164)


(Start cutting path id: path164)
(Change tool to Default tool)

G00 Z 5.0000
G00 X 26.0343 Y 6.7827

G01 Z -1.0000 F 100.0000(Penetrate)
G01 X 26.0221 Y 6.7985 Z -1.0000 F 3500.0000
G01 X 26.0312 Y 6.8071 Z -1.0000
G02 X 26.0579 Y 6.7972 Z -1.0000 I -0.0164 J -0.0858
G01 X 26.0626 Y 6.7893 Z -1.0000
G01 X 26.0665 Y 6.7845 Z -1.0000
G01 X 26.0771 Y 6.7864 Z -1.0000
G01 X 26.0820 Y 6.7858 Z -1.0000
G01 X 26.0826 Y 6.7809 Z -1.0000
G01 X 26.0712 Y 6.7677 Z -1.0000
G01 X 26.0688 Y 6.7689 Z -1.0000
G03 X 26.0344 Y 6.7827 Z -1.0000 I -1.1769 J -2.8914
G01 X 26.0343 Y 6.7827 Z -1.0000
G00 Z 5.0000

(End cutting path id: path164)


(Start cutting path id: path164)
(Change tool to Default tool)

G00 Z 5.0000
G00 X 25.9622 Y 6.7413

G01 Z -1.0000 F 100.0000(Penetrate)
G01 X 25.9246 Y 6.7647 Z -1.0000 F 3500.0000
G02 X 26.0358 Y 6.7406 Z -1.0000 I -0.0035 J -0.2846
G01 X 26.0312 Y 6.7178 Z -1.0000
G01 X 26.0191 Y 6.7197 Z -1.0000
G02 X 25.9622 Y 6.7413 Z -1.0000 I 0.2825 J 0.8306
G01 X 25.9622 Y 6.7413 Z -1.0000
G00 Z 5.0000

(End cutting path id: path164)


(Start cutting path id: path164)
(Change tool to Default tool)

G00 Z 5.0000
G00 X 25.8807 Y 6.8370

G01 Z -1.0000 F 100.0000(Penetrate)
G01 X 25.8779 Y 6.8443 Z -1.0000 F 3500.0000
G01 X 25.8854 Y 6.8485 Z -1.0000
G03 X 25.9278 Y 6.8423 Z -1.0000 I 0.2078 J 1.2732
G03 X 25.9387 Y 6.8416 Z -1.0000 I 0.0109 J 0.0843
G01 X 25.9462 Y 6.8382 Z -1.0000
G01 X 25.9497 Y 6.8291 Z -1.0000
G01 X 25.9393 Y 6.8198 Z -1.0000
G02 X 25.8807 Y 6.8370 Z -1.0000 I 0.0205 J 0.1789
G01 X 25.8807 Y 6.8370 Z -1.0000
G00 Z 5.0000

(End cutting path id: path164)


(Start cutting path id: path164)
(Change tool to Default tool)

G00 Z 5.0000
G00 X 25.7680 Y 6.8791

G01 Z -1.0000 F 100.0000(Penetrate)
G01 X 25.7695 Y 6.8839 Z -1.0000 F 3500.0000
G01 X 25.7798 Y 6.8840 Z -1.0000
G01 X 25.7915 Y 6.8729 Z -1.0000
G01 X 25.7875 Y 6.8667 Z -1.0000
G01 X 25.7773 Y 6.8697 Z -1.0000
G01 X 25.7680 Y 6.8791 Z -1.0000
G01 X 25.7680 Y 6.8791 Z -1.0000
G00 Z 5.0000

(End cutting path id: path164)


(Start cutting path id: path164)
(Change tool to Default tool)

G00 Z 5.0000
G00 X 25.7491 Y 6.8166

G01 Z -1.0000 F 100.0000(Penetrate)
G01 X 25.7421 Y 6.8234 Z -1.0000 F 3500.0000
G01 X 25.7452 Y 6.8279 Z -1.0000
G02 X 25.7702 Y 6.8245 Z -1.0000 I 0.0032 J -0.0713
G01 X 25.7804 Y 6.8166 Z -1.0000
G01 X 25.7843 Y 6.8053 Z -1.0000
G03 X 25.7805 Y 6.8065 Z -1.0000 I -0.2323 J -0.7089
G03 X 25.7491 Y 6.8166 Z -1.0000 I -3.2786 J -10.1929
G01 X 25.7491 Y 6.8166 Z -1.0000
G00 Z 5.0000

(End cutting path id: path164)


(Start cutting path id: path164)
(Change tool to Default tool)

G00 Z 5.0000
G00 X 25.6491 Y 6.9164

G01 Z -1.0000 F 100.0000(Penetrate)
G01 X 25.6371 Y 6.9288 Z -1.0000 F 3500.0000
G01 X 25.6379 Y 6.9353 Z -1.0000
G01 X 25.6449 Y 6.9364 Z -1.0000
G02 X 25.6610 Y 6.9235 Z -1.0000 I -0.0233 J -0.0456
G01 X 25.6598 Y 6.9162 Z -1.0000
G01 X 25.6491 Y 6.9164 Z -1.0000
G01 X 25.6491 Y 6.9164 Z -1.0000
G00 Z 5.0000

(End cutting path id: path164)


(Start cutting path id: path164)
(Change tool to Default tool)

G00 Z 5.0000
G00 X 25.5461 Y 6.9506

G01 Z -1.0000 F 100.0000(Penetrate)
G01 X 25.5617 Y 6.9533 Z -1.0000 F 3500.0000
G01 X 25.5701 Y 6.9496 Z -1.0000
G01 X 25.5537 Y 6.9430 Z -1.0000
G01 X 25.5461 Y 6.9506 Z -1.0000
G01 X 25.5461 Y 6.9506 Z -1.0000
G00 Z 5.0000

(End cutting path id: path164)


(Start cutting path id: path164)
(Change tool to Default tool)

G00 Z 5.0000
G00 X 25.4732 Y 6.9743

G01 Z -1.0000 F 100.0000(Penetrate)
G01 X 25.4690 Y 6.9818 Z -1.0000 F 3500.0000
G01 X 25.4732 Y 6.9850 Z -1.0000
G02 X 25.5032 Y 6.9745 Z -1.0000 I -0.0487 J -0.1867
G01 X 25.5164 Y 6.9657 Z -1.0000
G01 X 25.5130 Y 6.9589 Z -1.0000
G02 X 25.4732 Y 6.9743 Z -1.0000 I 0.0244 J 0.1222
G01 X 25.4732 Y 6.9743 Z -1.0000
G00 Z 5.0000

(End cutting path id: path164)


(Start cutting path id: path164)
(Change tool to Default tool)

G00 Z 5.0000
G00 X 25.4794 Y 6.9102

G01 Z -1.0000 F 100.0000(Penetrate)
G01 X 25.4807 Y 6.9160 Z -1.0000 F 3500.0000
G02 X 25.5108 Y 6.9106 Z -1.0000 I 0.0012 J -0.0806
G01 X 25.5359 Y 6.8933 Z -1.0000
G02 X 25.5177 Y 6.8958 Z -1.0000 I -0.0012 J 0.0592
G02 X 25.4794 Y 6.9102 Z -1.0000 I 0.0855 J 0.2855
G01 X 25.4794 Y 6.9102 Z -1.0000
G00 Z 5.0000

(End cutting path id: path164)


(Start cutting path id: path164)
(Change tool to Default tool)

G00 Z 5.0000
G00 X 25.4081 Y 7.0007

G01 Z -1.0000 F 100.0000(Penetrate)
G01 X 25.4238 Y 7.0034 Z -1.0000 F 3500.0000
G01 X 25.4322 Y 6.9997 Z -1.0000
G01 X 25.4157 Y 6.9931 Z -1.0000
G01 X 25.4081 Y 7.0007 Z -1.0000
G01 X 25.4081 Y 7.0007 Z -1.0000
G00 Z 5.0000

(End cutting path id: path164)


(Start cutting path id: path164)
(Change tool to Default tool)

G00 Z 5.0000
G00 X 25.3445 Y 7.0134

G01 Z -1.0000 F 100.0000(Penetrate)
G01 X 25.3297 Y 7.0221 Z -1.0000 F 3500.0000
G01 X 25.3288 Y 7.0296 Z -1.0000
G01 X 25.3635 Y 7.0437 Z -1.0000
G01 X 25.3854 Y 7.0158 Z -1.0000
G01 X 25.3799 Y 7.0099 Z -1.0000
G02 X 25.3445 Y 7.0134 Z -1.0000 I -0.0067 J 0.1136
G01 X 25.3445 Y 7.0134 Z -1.0000
G00 Z 5.0000

(End cutting path id: path164)


(Start cutting path id: path164)
(Change tool to Default tool)

G00 Z 5.0000
G00 X 25.3415 Y 7.0935

G01 Z -1.0000 F 100.0000(Penetrate)
G03 X 25.2662 Y 7.1176 Z -1.0000 I -3.6064 J -11.1534 F 3500.0000
G03 X 25.1973 Y 7.1391 Z -1.0000 I -3.0842 J -9.7630
G02 X 25.1295 Y 7.1626 Z -1.0000 I 0.3052 J 0.9902
G01 X 25.1164 Y 7.1703 Z -1.0000
G01 X 25.1034 Y 7.1774 Z -1.0000
G03 X 25.0842 Y 7.1803 Z -1.0000 I -0.0192 J -0.0617
G02 X 24.9427 Y 7.2029 Z -1.0000 I -0.0000 J 0.4549
G01 X 24.9424 Y 7.2267 Z -1.0000
G01 X 24.9573 Y 7.2282 Z -1.0000
G02 X 25.0114 Y 7.2166 Z -1.0000 I -0.0632 J -0.4270
G03 X 25.0658 Y 7.2020 Z -1.0000 I 0.4901 J 1.7193
G03 X 25.0902 Y 7.1967 Z -1.0000 I 0.0923 J 0.3672
G02 X 25.1131 Y 7.1897 Z -1.0000 I -0.0190 J -0.1024
G01 X 25.1215 Y 7.1829 Z -1.0000
G01 X 25.1393 Y 7.1705 Z -1.0000
G03 X 25.3039 Y 7.1293 Z -1.0000 I 0.5826 J 1.9769
G02 X 25.4391 Y 7.0846 Z -1.0000 I -0.1257 J -0.6064
G01 X 25.4351 Y 7.0684 Z -1.0000
G02 X 25.4171 Y 7.0712 Z -1.0000 I 0.0041 J 0.0849
G02 X 25.3415 Y 7.0936 Z -1.0000 I 0.4156 J 1.5420
G01 X 25.3415 Y 7.0935 Z -1.0000
G00 Z 5.0000

(End cutting path id: path164)


(Start cutting path id: path164)
(Change tool to Default tool)

G00 Z 5.0000
G00 X 25.1785 Y 7.0675

G01 Z -1.0000 F 100.0000(Penetrate)
G01 X 25.1741 Y 7.0731 Z -1.0000 F 3500.0000
G01 X 25.1785 Y 7.0776 Z -1.0000
G02 X 25.2155 Y 7.0750 Z -1.0000 I 0.0034 J -0.2114
G02 X 25.2412 Y 7.0675 Z -1.0000 I -0.0171 J -0.1066
G01 X 25.2453 Y 7.0613 Z -1.0000
G01 X 25.2412 Y 7.0573 Z -1.0000
G02 X 25.2164 Y 7.0596 Z -1.0000 I 0.0044 J 0.1827
G02 X 25.1785 Y 7.0675 Z -1.0000 I 0.0693 J 0.4278
G01 X 25.1785 Y 7.0675 Z -1.0000
G00 Z 5.0000

(End cutting path id: path164)


(Start cutting path id: path164)
(Change tool to Default tool)

G00 Z 5.0000
G00 X 25.0719 Y 7.1054

G01 Z -1.0000 F 100.0000(Penetrate)
G01 X 25.0762 Y 7.1133 Z -1.0000 F 3500.0000
G01 X 25.0907 Y 7.1176 Z -1.0000
G02 X 25.1074 Y 7.1155 Z -1.0000 I 0.0000 J -0.0662
G01 X 25.1095 Y 7.1127 Z -1.0000
G01 X 25.1076 Y 7.1091 Z -1.0000
G02 X 25.0907 Y 7.1005 Z -1.0000 I -0.0494 J 0.0764
G01 X 25.0763 Y 7.0997 Z -1.0000
G01 X 25.0719 Y 7.1054 Z -1.0000
G01 X 25.0719 Y 7.1054 Z -1.0000
G00 Z 5.0000

(End cutting path id: path164)


(Start cutting path id: path164)
(Change tool to Default tool)

G00 Z 5.0000
G00 X 25.0194 Y 7.0635

G01 Z -1.0000 F 100.0000(Penetrate)
G01 X 25.0351 Y 7.0661 Z -1.0000 F 3500.0000
G01 X 25.0434 Y 7.0625 Z -1.0000
G01 X 25.0270 Y 7.0559 Z -1.0000
G01 X 25.0194 Y 7.0635 Z -1.0000
G01 X 25.0194 Y 7.0635 Z -1.0000
G00 Z 5.0000

(End cutting path id: path164)


(Start cutting path id: path164)
(Change tool to Default tool)

G00 Z 5.0000
G00 X 24.9967 Y 7.1307

G01 Z -1.0000 F 100.0000(Penetrate)
G01 X 25.0155 Y 7.1350 Z -1.0000 F 3500.0000
G02 X 25.0414 Y 7.1234 Z -1.0000 I -0.0155 J -0.0693
G01 X 25.0395 Y 7.1177 Z -1.0000
G02 X 25.0165 Y 7.1212 Z -1.0000 I 0.0007 J 0.0822
G02 X 24.9967 Y 7.1307 Z -1.0000 I 0.0209 J 0.0694
G01 X 24.9967 Y 7.1307 Z -1.0000
G00 Z 5.0000

(End cutting path id: path164)


(Start cutting path id: path164)
(Change tool to Default tool)

G00 Z 5.0000
G00 X 24.8775 Y 7.1612

G01 Z -1.0000 F 100.0000(Penetrate)
G01 X 24.8079 Y 7.1917 Z -1.0000 F 3500.0000
G02 X 24.9463 Y 7.1744 Z -1.0000 I 0.0225 J -0.3815
G01 X 24.9716 Y 7.1398 Z -1.0000
G01 X 24.9685 Y 7.1309 Z -1.0000
G02 X 24.9654 Y 7.1319 Z -1.0000 I 0.0155 J 0.0567
G02 X 24.8776 Y 7.1612 Z -1.0000 I 12.9195 J 38.7865
G01 X 24.8775 Y 7.1612 Z -1.0000
G00 Z 5.0000

(End cutting path id: path164)


(Start cutting path id: path164)
(Change tool to Default tool)

G00 Z 5.0000
G00 X 24.8023 Y 7.2549

G01 Z -1.0000 F 100.0000(Penetrate)
G02 X 24.7564 Y 7.2762 Z -1.0000 I 0.0771 J 0.2257 F 3500.0000
G01 X 24.7570 Y 7.2821 Z -1.0000
G02 X 24.8371 Y 7.2838 Z -1.0000 I 0.0428 J -0.1290
G02 X 24.9204 Y 7.2354 Z -1.0000 I -0.0536 J -0.1880
G01 X 24.9158 Y 7.2264 Z -1.0000
G02 X 24.8023 Y 7.2549 Z -1.0000 I 0.1144 J 0.6958
G01 X 24.8023 Y 7.2549 Z -1.0000
G00 Z 5.0000

(End cutting path id: path164)


(Start cutting path id: path164)
(Change tool to Default tool)

G00 Z 5.0000
G00 X 24.7239 Y 7.2016

G01 Z -1.0000 F 100.0000(Penetrate)
G02 X 24.7000 Y 7.2106 Z -1.0000 I 0.0146 J 0.0753 F 3500.0000
G01 X 24.6957 Y 7.2180 Z -1.0000
G01 X 24.7074 Y 7.2280 Z -1.0000
G02 X 24.7676 Y 7.2065 Z -1.0000 I -0.0279 J -0.1731
G01 X 24.7662 Y 7.2000 Z -1.0000
G02 X 24.7239 Y 7.2017 Z -1.0000 I -0.0155 J 0.1402
G01 X 24.7239 Y 7.2016 Z -1.0000
G00 Z 5.0000

(End cutting path id: path164)


(Start cutting path id: path164)
(Change tool to Default tool)

G00 Z 5.0000
G00 X 24.6644 Y 7.1675

G01 Z -1.0000 F 100.0000(Penetrate)
G01 X 24.6660 Y 7.1723 Z -1.0000 F 3500.0000
G01 X 24.6762 Y 7.1724 Z -1.0000
G01 X 24.6880 Y 7.1613 Z -1.0000
G01 X 24.6839 Y 7.1551 Z -1.0000
G01 X 24.6738 Y 7.1581 Z -1.0000
G01 X 24.6645 Y 7.1675 Z -1.0000
G01 X 24.6644 Y 7.1675 Z -1.0000
G00 Z 5.0000

(End cutting path id: path164)


(Start cutting path id: path164)
(Change tool to Default tool)

G00 Z 5.0000
G00 X 24.6455 Y 7.2303

G01 Z -1.0000 F 100.0000(Penetrate)
G01 X 24.6445 Y 7.2373 Z -1.0000 F 3500.0000
G01 X 24.6557 Y 7.2427 Z -1.0000
G01 X 24.6751 Y 7.2375 Z -1.0000
G01 X 24.6769 Y 7.2303 Z -1.0000
G01 X 24.6661 Y 7.2243 Z -1.0000
G01 X 24.6455 Y 7.2303 Z -1.0000
G01 X 24.6455 Y 7.2303 Z -1.0000
G00 Z 5.0000

(End cutting path id: path164)


(Start cutting path id: path164)
(Change tool to Default tool)

G00 Z 5.0000
G00 X 24.5954 Y 7.3146

G01 Z -1.0000 F 100.0000(Penetrate)
G02 X 24.4989 Y 7.3519 Z -1.0000 I 0.1757 J 0.5981 F 3500.0000
G01 X 24.5013 Y 7.3603 Z -1.0000
G02 X 24.5631 Y 7.3497 Z -1.0000 I -0.0770 J -0.6326
G02 X 24.5853 Y 7.3416 Z -1.0000 I -0.0200 J -0.0895
G03 X 24.6073 Y 7.3331 Z -1.0000 I 0.0477 J 0.0916
G03 X 24.6381 Y 7.3280 Z -1.0000 I 0.0459 J 0.1786
G02 X 24.6678 Y 7.3208 Z -1.0000 I -0.0080 J -0.0989
G02 X 24.6983 Y 7.3032 Z -1.0000 I -0.0504 J -0.1226
G01 X 24.6949 Y 7.2947 Z -1.0000
G02 X 24.5954 Y 7.3146 Z -1.0000 I 0.0638 J 0.5758
G01 X 24.5954 Y 7.3146 Z -1.0000
G00 Z 5.0000

(End cutting path id: path164)


(Start cutting path id: path164)
(Change tool to Default tool)

G00 Z 5.0000
G00 X 24.5214 Y 7.2626

G01 Z -1.0000 F 100.0000(Penetrate)
G02 X 24.4925 Y 7.2783 Z -1.0000 I 0.0288 J 0.0875 F 3500.0000
G01 X 24.4929 Y 7.2854 Z -1.0000
G01 X 24.5073 Y 7.2883 Z -1.0000
G02 X 24.5356 Y 7.2785 Z -1.0000 I -0.0141 J -0.0869
G03 X 24.5648 Y 7.2651 Z -1.0000 I 0.1067 J 0.1942
G03 X 24.5884 Y 7.2589 Z -1.0000 I 0.0441 J 0.1184
G02 X 24.6118 Y 7.2531 Z -1.0000 I -0.0252 J -0.1531
G01 X 24.6187 Y 7.2488 Z -1.0000
G01 X 24.6147 Y 7.2407 Z -1.0000
G02 X 24.5214 Y 7.2626 Z -1.0000 I 0.0743 J 0.5272
G01 X 24.5214 Y 7.2626 Z -1.0000
G00 Z 5.0000

(End cutting path id: path164)


(Start cutting path id: path164)
(Change tool to Default tool)

G00 Z 5.0000
G00 X 24.4230 Y 7.2935

G01 Z -1.0000 F 100.0000(Penetrate)
G02 X 24.3974 Y 7.3066 Z -1.0000 I 0.0561 J 0.1405 F 3500.0000
G01 X 24.3948 Y 7.3115 Z -1.0000
G01 X 24.4059 Y 7.3206 Z -1.0000
G02 X 24.4519 Y 7.2998 Z -1.0000 I -0.0232 J -0.1124
G01 X 24.4500 Y 7.2912 Z -1.0000
G01 X 24.4230 Y 7.2935 Z -1.0000
G01 X 24.4230 Y 7.2935 Z -1.0000
G00 Z 5.0000

(End cutting path id: path164)


(Start cutting path id: path164)
(Change tool to Default tool)

G00 Z 5.0000
G00 X 24.3446 Y 7.3879

G01 Z -1.0000 F 100.0000(Penetrate)
G02 X 24.2882 Y 7.4045 Z -1.0000 I 2.2741 J 7.8432 F 3500.0000
G02 X 24.2004 Y 7.4309 Z -1.0000 I 5.2205 J 17.5324
G03 X 24.1124 Y 7.4569 Z -1.0000 I -2.0464 J -6.7487
G03 X 24.0708 Y 7.4683 Z -1.0000 I -0.4299 J -1.4871
G02 X 24.0302 Y 7.4811 Z -1.0000 I 0.1107 J 0.4235
G01 X 24.0217 Y 7.4865 Z -1.0000
G01 X 24.0256 Y 7.4946 Z -1.0000
G02 X 24.1090 Y 7.4764 Z -1.0000 I -0.0500 J -0.4280
G03 X 24.3535 Y 7.4034 Z -1.0000 I 1.5853 J 4.8642
G03 X 24.4104 Y 7.3945 Z -1.0000 I 0.0683 J 0.2515
G01 X 24.4278 Y 7.3892 Z -1.0000
G01 X 24.4324 Y 7.3810 Z -1.0000
G01 X 24.4241 Y 7.3734 Z -1.0000
G02 X 24.3446 Y 7.3879 Z -1.0000 I 0.0313 J 0.3975
G01 X 24.3446 Y 7.3879 Z -1.0000
G00 Z 5.0000

(End cutting path id: path164)


(Start cutting path id: path164)
(Change tool to Default tool)

G00 Z 5.0000
G00 X 24.2380 Y 7.3459

G01 Z -1.0000 F 100.0000(Penetrate)
G02 X 24.1506 Y 7.3720 Z -1.0000 I 0.9781 J 3.4267 F 3500.0000
G02 X 24.1251 Y 7.3812 Z -1.0000 I 0.0939 J 0.2997
G03 X 24.0997 Y 7.3903 Z -1.0000 I -0.0996 J -0.2411
G03 X 24.0641 Y 7.3994 Z -1.0000 I -0.1424 J -0.4801
G01 X 24.0333 Y 7.4124 Z -1.0000
G01 X 24.0476 Y 7.4163 Z -1.0000
G02 X 24.2756 Y 7.3517 Z -1.0000 I -0.9226 J -3.6910
G01 X 24.2750 Y 7.3436 Z -1.0000
G02 X 24.2380 Y 7.3458 Z -1.0000 I -0.0134 J 0.0852
G01 X 24.2380 Y 7.3459 Z -1.0000
G00 Z 5.0000

(End cutting path id: path164)


(Start cutting path id: path164)
(Change tool to Default tool)

G00 Z 5.0000
G00 X 24.1063 Y 7.1301

G01 Z -1.0000 F 100.0000(Penetrate)
G01 X 24.1108 Y 7.1382 Z -1.0000 F 3500.0000
G01 X 24.1259 Y 7.1426 Z -1.0000
G01 X 24.1369 Y 7.1379 Z -1.0000
G01 X 24.1377 Y 7.1301 Z -1.0000
G01 X 24.1282 Y 7.1205 Z -1.0000
G01 X 24.1181 Y 7.1176 Z -1.0000
G01 X 24.1099 Y 7.1211 Z -1.0000
G01 X 24.1063 Y 7.1301 Z -1.0000
G01 X 24.1063 Y 7.1301 Z -1.0000
G00 Z 5.0000

(End cutting path id: path164)


(Start cutting path id: path164)
(Change tool to Default tool)

G00 Z 5.0000
G00 X 24.0529 Y 7.1387

G01 Z -1.0000 F 100.0000(Penetrate)
G01 X 24.0386 Y 7.1477 Z -1.0000 F 3500.0000
G01 X 24.0380 Y 7.1561 Z -1.0000
G01 X 24.0621 Y 7.1668 Z -1.0000
G01 X 24.0771 Y 7.1489 Z -1.0000
G01 X 24.0761 Y 7.1315 Z -1.0000
G01 X 24.0747 Y 7.1325 Z -1.0000
G03 X 24.0529 Y 7.1387 Z -1.0000 I -0.1615 J -0.5245
G01 X 24.0529 Y 7.1387 Z -1.0000
G00 Z 5.0000

(End cutting path id: path164)


(Start cutting path id: path164)
(Change tool to Default tool)

G00 Z 5.0000
G00 X 23.8834 Y 7.1981

G01 Z -1.0000 F 100.0000(Penetrate)
G02 X 23.8494 Y 7.2146 Z -1.0000 I 0.0625 J 0.1721 F 3500.0000
G01 X 23.8489 Y 7.2196 Z -1.0000
G01 X 23.8964 Y 7.2327 Z -1.0000
G02 X 23.9358 Y 7.1977 Z -1.0000 I -0.0140 J -0.0554
G01 X 23.9302 Y 7.1897 Z -1.0000
G02 X 23.8834 Y 7.1981 Z -1.0000 I 0.0010 J 0.1401
G01 X 23.8834 Y 7.1981 Z -1.0000
G00 Z 5.0000

(End cutting path id: path164)


(Start cutting path id: path164)
(Change tool to Default tool)

G00 Z 5.0000
G00 X 23.7239 Y 7.2554

G01 Z -1.0000 F 100.0000(Penetrate)
G01 X 23.7136 Y 7.2635 Z -1.0000 F 3500.0000
G03 X 23.6862 Y 7.2679 Z -1.0000 I -0.0274 J -0.0820
G02 X 23.6588 Y 7.2724 Z -1.0000 I 0.0000 J 0.0873
G01 X 23.6487 Y 7.2803 Z -1.0000
G01 X 23.6565 Y 7.2918 Z -1.0000
G02 X 23.7615 Y 7.2609 Z -1.0000 I -0.0792 J -0.4622
G01 X 23.7704 Y 7.2503 Z -1.0000
G01 X 23.7654 Y 7.2439 Z -1.0000
G02 X 23.7342 Y 7.2476 Z -1.0000 I -0.0032 J 0.1048
G01 X 23.7239 Y 7.2554 Z -1.0000
G01 X 23.7239 Y 7.2554 Z -1.0000
G00 Z 5.0000

(End cutting path id: path164)


(Start cutting path id: path164)
(Change tool to Default tool)

G00 Z 5.0000
G00 X 23.5655 Y 7.3143

G01 Z -1.0000 F 100.0000(Penetrate)
G01 X 23.5643 Y 7.3239 Z -1.0000 F 3500.0000
G01 X 23.5713 Y 7.3268 Z -1.0000
G03 X 23.5945 Y 7.3196 Z -1.0000 I 0.0768 J 0.2065
G01 X 23.6058 Y 7.3182 Z -1.0000
G01 X 23.6138 Y 7.3147 Z -1.0000
G01 X 23.6173 Y 7.3057 Z -1.0000
G01 X 23.6023 Y 7.2929 Z -1.0000
G02 X 23.5655 Y 7.3143 Z -1.0000 I 0.0099 J 0.0593
G01 X 23.5655 Y 7.3143 Z -1.0000
G00 Z 5.0000

(End cutting path id: path164)


(Start cutting path id: path164)
(Change tool to Default tool)

G00 Z 5.0000
G00 X 23.4919 Y 7.3433

G01 Z -1.0000 F 100.0000(Penetrate)
G01 X 23.4856 Y 7.3555 Z -1.0000 F 3500.0000
G01 X 23.4975 Y 7.3533 Z -1.0000
G02 X 23.5169 Y 7.3433 Z -1.0000 I -0.0395 J -0.1015
G01 X 23.5232 Y 7.3312 Z -1.0000
G01 X 23.5113 Y 7.3334 Z -1.0000
G02 X 23.4919 Y 7.3433 Z -1.0000 I 0.0397 J 0.1018
G01 X 23.4919 Y 7.3433 Z -1.0000
G00 Z 5.0000

(End cutting path id: path164)


(Start cutting path id: path164)
(Change tool to Default tool)

G00 Z 5.0000
G00 X 23.4668 Y 7.4280

G01 Z -1.0000 F 100.0000(Penetrate)
G01 X 23.4233 Y 7.4523 Z -1.0000 F 3500.0000
G01 X 23.4362 Y 7.4528 Z -1.0000
G02 X 23.5049 Y 7.4323 Z -1.0000 I -0.1693 J -0.6907
G01 X 23.5483 Y 7.4080 Z -1.0000
G02 X 23.5237 Y 7.4110 Z -1.0000 I 0.0003 J 0.1048
G02 X 23.4668 Y 7.4280 Z -1.0000 I 0.1407 J 0.5759
G01 X 23.4668 Y 7.4280 Z -1.0000
G00 Z 5.0000

(End cutting path id: path164)


(Start cutting path id: path164)
(Change tool to Default tool)

G00 Z 5.0000
G00 X 23.3978 Y 7.3685

G01 Z -1.0000 F 100.0000(Penetrate)
G01 X 23.3992 Y 7.3751 Z -1.0000 F 3500.0000
G02 X 23.4417 Y 7.3685 Z -1.0000 I -0.0000 J -0.1395
G01 X 23.4480 Y 7.3581 Z -1.0000
G02 X 23.4235 Y 7.3604 Z -1.0000 I -0.0016 J 0.1124
G02 X 23.3978 Y 7.3685 Z -1.0000 I 0.0274 J 0.1319
G01 X 23.3978 Y 7.3685 Z -1.0000
G00 Z 5.0000

(End cutting path id: path164)


(Start cutting path id: path164)
(Change tool to Default tool)

G00 Z 5.0000
G00 X 23.3602 Y 7.4689

G01 Z -1.0000 F 100.0000(Penetrate)
G01 X 23.3517 Y 7.4766 Z -1.0000 F 3500.0000
G01 X 23.3539 Y 7.4804 Z -1.0000
G02 X 23.3719 Y 7.4780 Z -1.0000 I 0.0020 J -0.0546
G02 X 23.3915 Y 7.4689 Z -1.0000 I -0.0230 J -0.0754
G01 X 23.3897 Y 7.4628 Z -1.0000
G02 X 23.3602 Y 7.4689 Z -1.0000 I -0.0000 J 0.0748
G01 X 23.3602 Y 7.4689 Z -1.0000
G00 Z 5.0000

(End cutting path id: path164)


(Start cutting path id: path164)
(Change tool to Default tool)

G00 Z 5.0000
G00 X 23.2787 Y 7.4061

G01 Z -1.0000 F 100.0000(Penetrate)
G01 X 23.2757 Y 7.4136 Z -1.0000 F 3500.0000
G01 X 23.2818 Y 7.4184 Z -1.0000
G01 X 23.2991 Y 7.4139 Z -1.0000
G01 X 23.3037 Y 7.4061 Z -1.0000
G01 X 23.2980 Y 7.4004 Z -1.0000
G01 X 23.2787 Y 7.4061 Z -1.0000
G01 X 23.2787 Y 7.4061 Z -1.0000
G00 Z 5.0000

(End cutting path id: path164)


(Start cutting path id: path164)
(Change tool to Default tool)

G00 Z 5.0000
G00 X 23.2097 Y 7.4312

G01 Z -1.0000 F 100.0000(Penetrate)
G01 X 23.2062 Y 7.4379 Z -1.0000 F 3500.0000
G01 X 23.2121 Y 7.4429 Z -1.0000
G02 X 23.2372 Y 7.4392 Z -1.0000 I 0.0023 J -0.0720
G01 X 23.2474 Y 7.4312 Z -1.0000
G01 X 23.2435 Y 7.4243 Z -1.0000
G02 X 23.2097 Y 7.4312 Z -1.0000 I 0.0000 J 0.0855
G01 X 23.2097 Y 7.4312 Z -1.0000
G00 Z 5.0000

(End cutting path id: path164)


(Start cutting path id: path164)
(Change tool to Default tool)

G00 Z 5.0000
G00 X 23.1251 Y 7.4521

G01 Z -1.0000 F 100.0000(Penetrate)
G01 X 23.1407 Y 7.4551 Z -1.0000 F 3500.0000
G01 X 23.1564 Y 7.4521 Z -1.0000
G01 X 23.1408 Y 7.4458 Z -1.0000
G01 X 23.1251 Y 7.4521 Z -1.0000
G01 X 23.1251 Y 7.4521 Z -1.0000
G00 Z 5.0000

(End cutting path id: path164)


(Start cutting path id: path164)
(Change tool to Default tool)

G00 Z 5.0000
G00 X 23.1721 Y 7.5255

G01 Z -1.0000 F 100.0000(Penetrate)
G01 X 23.1677 Y 7.5317 Z -1.0000 F 3500.0000
G01 X 23.1721 Y 7.5356 Z -1.0000
G02 X 23.2207 Y 7.5252 Z -1.0000 I -0.0490 J -0.3466
G01 X 23.2342 Y 7.5175 Z -1.0000
G01 X 23.2315 Y 7.5117 Z -1.0000
G02 X 23.1721 Y 7.5255 Z -1.0000 I 0.0390 J 0.3024
G01 X 23.1721 Y 7.5255 Z -1.0000
G00 Z 5.0000

(End cutting path id: path164)


(Start cutting path id: path164)
(Change tool to Default tool)

G00 Z 5.0000
G00 X 23.0844 Y 7.5565

G01 Z -1.0000 F 100.0000(Penetrate)
G01 X 23.0860 Y 7.5613 Z -1.0000 F 3500.0000
G01 X 23.0962 Y 7.5614 Z -1.0000
G01 X 23.1080 Y 7.5503 Z -1.0000
G01 X 23.1039 Y 7.5441 Z -1.0000
G01 X 23.0938 Y 7.5471 Z -1.0000
G01 X 23.0845 Y 7.5565 Z -1.0000
G01 X 23.0844 Y 7.5565 Z -1.0000
G00 Z 5.0000

(End cutting path id: path164)


(Start cutting path id: path164)
(Change tool to Default tool)

G00 Z 5.0000
G00 X 23.0256 Y 7.5778

G01 Z -1.0000 F 100.0000(Penetrate)
G01 X 23.0412 Y 7.5805 Z -1.0000 F 3500.0000
G01 X 23.0496 Y 7.5768 Z -1.0000
G01 X 23.0331 Y 7.5702 Z -1.0000
G01 X 23.0255 Y 7.5778 Z -1.0000
G01 X 23.0256 Y 7.5778 Z -1.0000
G00 Z 5.0000

(End cutting path id: path164)


(Start cutting path id: path164)
(Change tool to Default tool)

G00 Z 5.0000
G00 X 22.9754 Y 7.5903

G01 Z -1.0000 F 100.0000(Penetrate)
