%
(Header)
(Generated by gcodetools from Inkscape.)
(Using default header. To add your own header create file "header" in the output dir.)
M3
(Header end.)
G21 (All units in mm)

(Start cutting path id: path33155)
(Change tool to Default tool)

G00 Z 5.0000
G00 X 14.6907 Y -0.5000

G01 Z -1.0000 F 100.0000(Penetrate)
G01 X 14.6823 Y -0.4899 Z -1.0000 F 3500.0000
G03 X 14.6575 Y -0.4800 Z -1.0000 I -0.0426 J -0.0711
G01 X 14.6366 Y -0.4682 Z -1.0000
G01 X 14.6295 Y -0.4502 Z -1.0000
G01 X 14.6381 Y -0.4360 Z -1.0000
G02 X 14.6679 Y -0.4303 Z -1.0000 I 0.0245 J -0.0472
G03 X 14.6992 Y -0.4264 Z -1.0000 I 0.0070 J 0.0710
G01 X 14.7062 Y -0.4164 Z -1.0000
G01 X 14.6966 Y -0.4035 Z -1.0000
G01 X 14.6817 Y -0.4092 Z -1.0000
G01 X 14.6730 Y -0.4149 Z -1.0000
G02 X 14.6475 Y -0.4142 Z -1.0000 I -0.0108 J 0.0728
G03 X 14.6239 Y -0.4135 Z -1.0000 I -0.0140 J -0.0692
G01 X 14.6199 Y -0.4180 Z -1.0000
G01 X 14.6166 Y -0.4241 Z -1.0000
G01 X 14.6055 Y -0.4273 Z -1.0000
G01 X 14.5954 Y -0.4231 Z -1.0000
G01 X 14.5912 Y -0.4130 Z -1.0000
G01 X 14.5799 Y -0.4008 Z -1.0000
G01 X 14.5547 Y -0.4101 Z -1.0000
G01 X 14.5478 Y -0.4105 Z -1.0000
G01 X 14.5432 Y -0.4011 Z -1.0000
G02 X 14.5465 Y -0.3824 Z -1.0000 I 0.0550 J 0.0000
G01 X 14.5528 Y -0.3746 Z -1.0000
G01 X 14.5569 Y -0.3604 Z -1.0000
G01 X 14.5408 Y -0.3499 Z -1.0000
G01 X 14.5312 Y -0.3443 Z -1.0000
G01 X 14.5391 Y -0.3311 Z -1.0000
G01 X 14.5288 Y -0.3218 Z -1.0000
G01 X 14.5186 Y -0.3261 Z -1.0000
G01 X 14.5144 Y -0.3362 Z -1.0000
G01 X 14.5111 Y -0.3473 Z -1.0000
G01 X 14.5048 Y -0.3506 Z -1.0000
G01 X 14.4940 Y -0.3413 Z -1.0000
G02 X 14.4941 Y -0.2811 Z -1.0000 I 0.1929 J 0.0298
G01 X 14.4920 Y -0.2766 Z -1.0000
G01 X 14.4827 Y -0.2739 Z -1.0000
G01 X 14.4754 Y -0.2791 Z -1.0000
G03 X 14.4707 Y -0.3097 Z -1.0000 I 0.0867 J -0.0291
G01 X 14.4526 Y -0.3284 Z -1.0000
G01 X 14.4249 Y -0.3107 Z -1.0000
G03 X 14.4064 Y -0.2832 Z -1.0000 I -0.0829 J -0.0359
G01 X 14.3987 Y -0.2841 Z -1.0000
G01 X 14.3937 Y -0.2848 Z -1.0000
G01 X 14.3898 Y -0.2763 Z -1.0000
G01 X 14.3831 Y -0.2613 Z -1.0000
G01 X 14.3657 Y -0.2547 Z -1.0000
G01 X 14.3460 Y -0.2505 Z -1.0000
G01 X 14.3417 Y -0.2440 Z -1.0000
G01 X 14.3376 Y -0.2387 Z -1.0000
G01 X 14.3207 Y -0.2388 Z -1.0000
G02 X 14.2423 Y -0.2235 Z -1.0000 I -0.0233 J 0.0894
G02 X 14.2192 Y -0.1634 Z -1.0000 I 0.0358 J 0.0482
G01 X 14.2181 Y -0.1527 Z -1.0000
G01 X 14.2122 Y -0.1474 Z -1.0000
G01 X 14.2062 Y -0.1499 Z -1.0000
G03 X 14.1996 Y -0.1708 Z -1.0000 I 0.0509 J -0.0275
G01 X 14.1883 Y -0.1847 Z -1.0000
G01 X 14.1787 Y -0.1778 Z -1.0000
G01 X 14.1722 Y -0.1667 Z -1.0000
G01 X 14.1547 Y -0.1644 Z -1.0000
G01 X 14.1349 Y -0.1650 Z -1.0000
G01 X 14.1307 Y -0.1598 Z -1.0000
G01 X 14.1343 Y -0.1528 Z -1.0000
G01 X 14.1451 Y -0.1492 Z -1.0000
G01 X 14.1564 Y -0.1461 Z -1.0000
G01 X 14.1595 Y -0.1406 Z -1.0000
G01 X 14.1512 Y -0.1287 Z -1.0000
G03 X 14.1059 Y -0.1204 Z -1.0000 I -0.0453 J -0.1199
G01 X 14.0897 Y -0.1135 Z -1.0000
G01 X 14.0828 Y -0.0964 Z -1.0000
G01 X 14.0776 Y -0.0776 Z -1.0000
G01 X 14.0684 Y -0.0724 Z -1.0000
G01 X 14.0588 Y -0.0676 Z -1.0000
G01 X 14.0540 Y -0.0533 Z -1.0000
G01 X 14.0478 Y -0.0402 Z -1.0000
G01 X 14.0306 Y -0.0341 Z -1.0000
G01 X 14.0098 Y -0.0288 Z -1.0000
G02 X 13.9912 Y -0.0125 Z -1.0000 I 0.0274 J 0.0502
G01 X 13.9766 Y -0.0005 Z -1.0000
G01 X 13.9707 Y -0.0029 Z -1.0000
G01 X 13.9578 Y -0.0108 Z -1.0000
G01 X 13.9485 Y -0.0005 Z -1.0000
G01 X 13.9518 Y 0.0105 Z -1.0000
G01 X 13.9581 Y 0.0139 Z -1.0000
G01 X 13.9635 Y 0.0218 Z -1.0000
G01 X 13.9477 Y 0.0410 Z -1.0000
G01 X 13.9369 Y 0.0408 Z -1.0000
G01 X 13.9332 Y 0.0313 Z -1.0000
G01 X 13.9332 Y 0.0211 Z -1.0000
G01 X 13.9256 Y 0.0298 Z -1.0000
G01 X 13.9142 Y 0.0331 Z -1.0000
G01 X 13.9046 Y 0.0371 Z -1.0000
G01 X 13.9006 Y 0.0469 Z -1.0000
G01 X 13.8893 Y 0.0623 Z -1.0000
G01 X 13.8747 Y 0.0553 Z -1.0000
G02 X 13.8486 Y 0.0177 Z -1.0000 I -0.0884 J 0.0335
G01 X 13.8358 Y 0.0212 Z -1.0000
G01 X 13.8290 Y 0.0292 Z -1.0000
G01 X 13.8134 Y 0.0331 Z -1.0000
G01 X 13.8053 Y 0.0392 Z -1.0000
G01 X 13.8070 Y 0.0547 Z -1.0000
G02 X 13.8198 Y 0.0757 Z -1.0000 I 0.2654 J -0.1475
G02 X 13.8325 Y 0.0930 Z -1.0000 I 0.2035 J -0.1359
G01 X 13.8358 Y 0.1049 Z -1.0000
G01 X 13.8301 Y 0.1098 Z -1.0000
G01 X 13.8177 Y 0.1064 Z -1.0000
G01 X 13.8142 Y 0.1002 Z -1.0000
G01 X 13.8114 Y 0.0934 Z -1.0000
G01 X 13.8046 Y 0.0906 Z -1.0000
G01 X 13.7984 Y 0.0940 Z -1.0000
G01 X 13.7950 Y 0.1053 Z -1.0000
G01 X 13.7908 Y 0.1171 Z -1.0000
G01 X 13.7783 Y 0.1259 Z -1.0000
G02 X 13.7624 Y 0.1334 Z -1.0000 I 0.0308 J 0.0858
G02 X 13.7457 Y 0.1454 Z -1.0000 I 0.0620 J 0.1041
G01 X 13.7303 Y 0.1513 Z -1.0000
G01 X 13.7176 Y 0.1459 Z -1.0000
G02 X 13.6720 Y 0.1274 Z -1.0000 I -0.0427 J 0.0399
G01 X 13.6512 Y 0.1493 Z -1.0000
G01 X 13.6481 Y 0.1547 Z -1.0000
G01 X 13.6368 Y 0.1578 Z -1.0000
G01 X 13.6266 Y 0.1619 Z -1.0000
G01 X 13.6224 Y 0.1719 Z -1.0000
G01 X 13.6267 Y 0.1798 Z -1.0000
G01 X 13.6358 Y 0.1808 Z -1.0000
G01 X 13.6477 Y 0.1801 Z -1.0000
G01 X 13.6556 Y 0.1859 Z -1.0000
G01 X 13.6545 Y 0.1920 Z -1.0000
G01 X 13.6422 Y 0.1961 Z -1.0000
G01 X 13.6261 Y 0.1998 Z -1.0000
G01 X 13.6224 Y 0.2057 Z -1.0000
G01 X 13.6261 Y 0.2116 Z -1.0000
G01 X 13.6422 Y 0.2153 Z -1.0000
G01 X 13.6548 Y 0.2193 Z -1.0000
G01 X 13.6560 Y 0.2249 Z -1.0000
G01 X 13.6359 Y 0.2318 Z -1.0000
G01 X 13.6168 Y 0.2105 Z -1.0000
G01 X 13.6034 Y 0.1974 Z -1.0000
G01 X 13.5936 Y 0.2051 Z -1.0000
G01 X 13.5903 Y 0.2219 Z -1.0000
G01 X 13.5833 Y 0.2301 Z -1.0000
G01 X 13.5776 Y 0.2385 Z -1.0000
G01 X 13.5784 Y 0.2584 Z -1.0000
G01 X 13.5768 Y 0.2760 Z -1.0000
G01 X 13.5663 Y 0.2848 Z -1.0000
G01 X 13.5564 Y 0.2810 Z -1.0000
G01 X 13.5528 Y 0.2643 Z -1.0000
G01 X 13.5475 Y 0.2525 Z -1.0000
G01 X 13.5372 Y 0.2607 Z -1.0000
G01 X 13.5291 Y 0.2601 Z -1.0000
G01 X 13.4929 Y 0.2686 Z -1.0000
G02 X 13.4825 Y 0.3354 Z -1.0000 I 0.0738 J 0.0457
G03 X 13.4836 Y 0.3562 Z -1.0000 I -0.0533 J 0.0133
G01 X 13.4786 Y 0.3639 Z -1.0000
G01 X 13.4734 Y 0.3620 Z -1.0000
G03 X 13.4690 Y 0.3358 Z -1.0000 I 0.0779 J -0.0263
G01 X 13.4585 Y 0.3122 Z -1.0000
G01 X 13.4307 Y 0.3016 Z -1.0000
G02 X 13.3965 Y 0.3058 Z -1.0000 I 0.0000 J 0.1410
G01 X 13.3923 Y 0.3112 Z -1.0000
G01 X 13.3960 Y 0.3172 Z -1.0000
G01 X 13.4109 Y 0.3208 Z -1.0000
G01 X 13.4278 Y 0.3240 Z -1.0000
G01 X 13.4355 Y 0.3304 Z -1.0000
G01 X 13.4345 Y 0.3362 Z -1.0000
G01 X 13.4236 Y 0.3400 Z -1.0000
G01 X 13.4070 Y 0.3432 Z -1.0000
G01 X 13.3942 Y 0.3515 Z -1.0000
G02 X 13.3762 Y 0.3929 Z -1.0000 I 0.0437 J 0.0437
G01 X 13.3923 Y 0.4024 Z -1.0000
G01 X 13.3989 Y 0.4019 Z -1.0000
G01 X 13.4019 Y 0.4066 Z -1.0000
G01 X 13.3839 Y 0.4203 Z -1.0000
G01 X 13.3607 Y 0.3951 Z -1.0000
G01 X 13.3553 Y 0.3909 Z -1.0000
G01 X 13.3492 Y 0.3954 Z -1.0000
G01 X 13.3381 Y 0.4097 Z -1.0000
G01 X 13.3241 Y 0.4116 Z -1.0000
G01 X 13.3143 Y 0.4136 Z -1.0000
G01 X 13.3122 Y 0.4217 Z -1.0000
G01 X 13.3213 Y 0.4314 Z -1.0000
G01 X 13.3361 Y 0.4328 Z -1.0000
G01 X 13.3446 Y 0.4386 Z -1.0000
G01 X 13.3379 Y 0.4496 Z -1.0000
G01 X 13.3236 Y 0.4507 Z -1.0000
G01 X 13.3149 Y 0.4445 Z -1.0000
G01 X 13.3064 Y 0.4411 Z -1.0000
G02 X 13.2791 Y 0.4538 Z -1.0000 I 0.0207 J 0.0798
G03 X 13.2479 Y 0.4648 Z -1.0000 I -0.0349 J -0.0490
G01 X 13.2389 Y 0.4563 Z -1.0000
G01 X 13.2241 Y 0.4238 Z -1.0000
G01 X 13.2051 Y 0.4267 Z -1.0000
G01 X 13.1965 Y 0.4330 Z -1.0000
G01 X 13.1802 Y 0.4329 Z -1.0000
G01 X 13.1656 Y 0.4326 Z -1.0000
G01 X 13.1621 Y 0.4369 Z -1.0000
G01 X 13.1677 Y 0.4437 Z -1.0000
G02 X 13.2077 Y 0.4460 Z -1.0000 I 0.0285 J -0.1423
G01 X 13.2235 Y 0.4506 Z -1.0000
G01 X 13.2293 Y 0.4622 Z -1.0000
G01 X 13.2322 Y 0.4789 Z -1.0000
G01 X 13.2396 Y 0.4905 Z -1.0000
G01 X 13.2388 Y 0.4950 Z -1.0000
G01 X 13.2272 Y 0.4965 Z -1.0000
G01 X 13.2094 Y 0.5018 Z -1.0000
G02 X 13.1818 Y 0.5405 Z -1.0000 I 0.0915 J 0.0944
G03 X 13.1571 Y 0.5818 Z -1.0000 I -0.2164 J -0.1013
G01 X 13.1500 Y 0.5832 Z -1.0000
G01 X 13.1477 Y 0.5774 Z -1.0000
G01 X 13.1539 Y 0.5683 Z -1.0000
G01 X 13.1346 Y 0.5647 Z -1.0000
G03 X 13.1022 Y 0.5696 Z -1.0000 I -0.1170 J -0.6720
G03 X 13.0901 Y 0.5703 Z -1.0000 I -0.0121 J -0.0966
G01 X 13.0813 Y 0.5747 Z -1.0000
G02 X 13.0719 Y 0.5943 Z -1.0000 I 0.0434 J 0.0328
G01 X 13.0621 Y 0.6134 Z -1.0000
G01 X 13.0514 Y 0.6183 Z -1.0000
G01 X 13.0395 Y 0.6221 Z -1.0000
G01 X 13.0313 Y 0.6329 Z -1.0000
G01 X 13.0227 Y 0.6415 Z -1.0000
G01 X 13.0076 Y 0.6418 Z -1.0000
G01 X 12.9939 Y 0.6422 Z -1.0000
G01 X 12.9893 Y 0.6487 Z -1.0000
G01 X 12.9856 Y 0.6598 Z -1.0000
G03 X 12.9605 Y 0.6893 Z -1.0000 I -0.1763 J -0.1246
G03 X 12.9373 Y 0.7048 Z -1.0000 I -0.0521 J -0.0531
G01 X 12.9320 Y 0.7013 Z -1.0000
G01 X 12.9285 Y 0.6889 Z -1.0000
G01 X 12.9220 Y 0.6854 Z -1.0000
G01 X 12.9169 Y 0.6897 Z -1.0000
G02 X 12.9168 Y 0.7213 Z -1.0000 I 0.1143 J 0.0163
G01 X 12.9165 Y 0.7405 Z -1.0000
G01 X 12.9035 Y 0.7325 Z -1.0000
G01 X 12.8885 Y 0.7453 Z -1.0000
G03 X 12.8811 Y 0.7668 Z -1.0000 I -1.1273 J -0.3799
G03 X 12.8740 Y 0.7861 Z -1.0000 I -1.2269 J -0.4398
G01 X 12.8692 Y 0.7894 Z -1.0000
G01 X 12.8657 Y 0.7861 Z -1.0000
G01 X 12.8611 Y 0.7830 Z -1.0000
G01 X 12.8522 Y 0.7909 Z -1.0000
G03 X 12.8366 Y 0.8090 Z -1.0000 I -0.0460 J -0.0239
G01 X 12.8213 Y 0.8131 Z -1.0000
G01 X 12.7998 Y 0.8225 Z -1.0000
G02 X 12.7883 Y 0.8556 Z -1.0000 I 0.0431 J 0.0335
G03 X 12.7849 Y 0.8739 Z -1.0000 I -0.0533 J -0.0004
G01 X 12.7802 Y 0.8772 Z -1.0000
G01 X 12.7762 Y 0.8737 Z -1.0000
G03 X 12.7765 Y 0.8484 Z -1.0000 I 0.0935 J -0.0117
G01 X 12.7674 Y 0.8307 Z -1.0000
G01 X 12.7515 Y 0.8354 Z -1.0000
G01 X 12.7400 Y 0.8452 Z -1.0000
G01 X 12.7222 Y 0.8459 Z -1.0000
G01 X 12.7064 Y 0.8466 Z -1.0000
G01 X 12.7018 Y 0.8530 Z -1.0000
G01 X 12.6983 Y 0.8631 Z -1.0000
G01 X 12.6874 Y 0.8710 Z -1.0000
G01 X 12.6761 Y 0.8786 Z -1.0000
G01 X 12.6731 Y 0.8864 Z -1.0000
G01 X 12.6765 Y 0.8929 Z -1.0000
G01 X 12.6874 Y 0.8963 Z -1.0000
G01 X 12.6966 Y 0.9016 Z -1.0000
G01 X 12.7018 Y 0.9206 Z -1.0000
G01 X 12.6953 Y 0.9340 Z -1.0000
G01 X 12.6833 Y 0.9350 Z -1.0000
G01 X 12.6613 Y 0.9317 Z -1.0000
G01 X 12.6539 Y 0.9406 Z -1.0000
G01 X 12.6487 Y 0.9494 Z -1.0000
G01 X 12.6347 Y 0.9511 Z -1.0000
G01 X 12.6199 Y 0.9532 Z -1.0000
G01 X 12.6190 Y 0.9589 Z -1.0000
G03 X 12.5864 Y 0.9817 Z -1.0000 I -0.1337 J -0.1570
G03 X 12.5533 Y 0.9945 Z -1.0000 I -0.0604 J -0.1075
G01 X 12.5480 Y 0.9904 Z -1.0000
G01 X 12.5361 Y 0.9974 Z -1.0000
G01 X 12.5220 Y 1.0114 Z -1.0000
G01 X 12.5085 Y 1.0136 Z -1.0000
G01 X 12.4944 Y 1.0142 Z -1.0000
G01 X 12.4864 Y 1.0204 Z -1.0000
G01 X 12.4875 Y 1.0265 Z -1.0000
G01 X 12.4999 Y 1.0306 Z -1.0000
G01 X 12.5159 Y 1.0342 Z -1.0000
G01 X 12.5196 Y 1.0402 Z -1.0000
G01 X 12.5163 Y 1.0464 Z -1.0000
G01 X 12.5053 Y 1.0498 Z -1.0000
G01 X 12.4932 Y 1.0537 Z -1.0000
G02 X 12.4790 Y 1.0689 Z -1.0000 I 0.0321 J 0.0441
G03 X 12.4651 Y 1.0846 Z -1.0000 I -0.0528 J -0.0330
G01 X 12.4550 Y 1.0881 Z -1.0000
G01 X 12.4462 Y 1.0914 Z -1.0000
G01 X 12.4429 Y 1.0988 Z -1.0000
G01 X 12.4387 Y 1.1039 Z -1.0000
G01 X 12.4189 Y 1.1034 Z -1.0000
G01 X 12.3990 Y 1.1024 Z -1.0000
G01 X 12.3949 Y 1.1072 Z -1.0000
G01 X 12.3992 Y 1.1127 Z -1.0000
G02 X 12.4339 Y 1.1170 Z -1.0000 I 0.0346 J -0.1378
G03 X 12.4649 Y 1.1214 Z -1.0000 I -0.0000 J 0.1110
G01 X 12.4669 Y 1.1266 Z -1.0000
G01 X 12.4591 Y 1.1329 Z -1.0000
G03 X 12.4399 Y 1.1363 Z -1.0000 I -0.0191 J -0.0527
G01 X 12.4322 Y 1.1404 Z -1.0000
G01 X 12.4333 Y 1.1462 Z -1.0000
G01 X 12.4118 Y 1.1498 Z -1.0000
G02 X 12.3834 Y 1.1526 Z -1.0000 I -0.0091 J 0.0521
G01 X 12.3758 Y 1.1638 Z -1.0000
G01 X 12.3706 Y 1.1789 Z -1.0000
G01 X 12.3601 Y 1.1840 Z -1.0000
G01 X 12.3328 Y 1.1977 Z -1.0000
G02 X 12.3186 Y 1.2392 Z -1.0000 I 0.0565 J 0.0425
G03 X 12.3150 Y 1.2574 Z -1.0000 I -0.0514 J -0.0007
G01 X 12.3100 Y 1.2608 Z -1.0000
G01 X 12.3059 Y 1.2573 Z -1.0000
G03 X 12.3063 Y 1.2368 Z -1.0000 I 0.0595 J -0.0093
G01 X 12.3057 Y 1.2171 Z -1.0000
G01 X 12.3002 Y 1.2128 Z -1.0000
G01 X 12.2937 Y 1.2170 Z -1.0000
G01 X 12.2894 Y 1.2368 Z -1.0000
G01 X 12.2836 Y 1.2549 Z -1.0000
G01 X 12.2721 Y 1.2608 Z -1.0000
G02 X 12.2248 Y 1.2838 Z -1.0000 I 0.0000 J 0.0600
G01 X 12.2179 Y 1.3301 Z -1.0000
G01 X 12.2169 Y 1.3417 Z -1.0000
G03 X 12.1938 Y 1.3708 Z -1.0000 I -0.1173 J -0.0693
G03 X 12.1712 Y 1.3836 Z -1.0000 I -0.0364 J -0.0380
G01 X 12.1648 Y 1.3787 Z -1.0000
G01 X 12.1603 Y 1.3618 Z -1.0000
G01 X 12.1504 Y 1.3532 Z -1.0000
G01 X 12.1391 Y 1.3602 Z -1.0000
G01 X 12.1475 Y 1.3836 Z -1.0000
G01 X 12.1509 Y 1.3917 Z -1.0000
G01 X 12.1475 Y 1.3951 Z -1.0000
G01 X 12.1402 Y 1.3992 Z -1.0000
G01 X 12.1360 Y 1.4142 Z -1.0000
G01 X 12.1297 Y 1.4272 Z -1.0000
G01 X 12.1120 Y 1.4334 Z -1.0000
G01 X 12.0948 Y 1.4401 Z -1.0000
G01 X 12.0880 Y 1.4555 Z -1.0000
G01 X 12.0732 Y 1.4859 Z -1.0000
G01 X 12.0387 Y 1.4940 Z -1.0000
G02 X 12.0157 Y 1.4940 Z -1.0000 I -0.0116 J 0.0584
G01 X 12.0113 Y 1.4993 Z -1.0000
G01 X 12.0149 Y 1.5065 Z -1.0000
G01 X 12.0264 Y 1.5101 Z -1.0000
G01 X 12.0308 Y 1.5146 Z -1.0000
G01 X 12.0264 Y 1.5252 Z -1.0000
G01 X 12.0159 Y 1.5423 Z -1.0000
G02 X 12.0100 Y 1.5756 Z -1.0000 I 0.1163 J 0.0378
G01 X 12.0045 Y 1.5893 Z -1.0000
G01 X 11.9923 Y 1.5780 Z -1.0000
G01 X 11.9825 Y 1.5869 Z -1.0000
G01 X 11.9770 Y 1.6006 Z -1.0000
G01 X 11.9645 Y 1.6060 Z -1.0000
G02 X 11.8787 Y 1.6394 Z -1.0000 I 0.0000 J 0.1270
G02 X 11.8604 Y 1.7013 Z -1.0000 I 0.0422 J 0.0461
G01 X 11.8587 Y 1.7158 Z -1.0000
G01 X 11.8497 Y 1.7211 Z -1.0000
G01 X 11.8358 Y 1.7256 Z -1.0000
G02 X 11.7966 Y 1.7595 Z -1.0000 I 0.1729 J 0.2396
G03 X 11.7584 Y 1.7955 Z -1.0000 I -0.4219 J -0.4093
G01 X 11.7521 Y 1.7978 Z -1.0000
G01 X 11.7472 Y 1.8008 Z -1.0000
G02 X 11.7386 Y 1.8227 Z -1.0000 I 0.0813 J 0.0444
G01 X 11.7285 Y 1.8401 Z -1.0000
G01 X 11.7184 Y 1.8422 Z -1.0000
G01 X 11.7093 Y 1.8440 Z -1.0000
G01 X 11.7044 Y 1.8557 Z -1.0000
G01 X 11.6991 Y 1.8693 Z -1.0000
G01 X 11.6872 Y 1.8746 Z -1.0000
G01 X 11.6743 Y 1.8804 Z -1.0000
G02 X 11.6608 Y 1.9051 Z -1.0000 I 0.0510 J 0.0440
G03 X 11.6396 Y 1.9343 Z -1.0000 I -0.0522 J -0.0156
G01 X 11.6277 Y 1.9280 Z -1.0000
G01 X 11.6226 Y 1.9220 Z -1.0000
G01 X 11.6085 Y 1.9247 Z -1.0000
G01 X 11.5989 Y 1.9418 Z -1.0000
G01 X 11.6083 Y 1.9513 Z -1.0000
G01 X 11.6120 Y 1.9572 Z -1.0000
G03 X 11.5916 Y 1.9841 Z -1.0000 I -0.0845 J -0.0431
G03 X 11.5556 Y 2.0082 Z -1.0000 I -0.0973 J -0.1062
G01 X 11.5436 Y 2.0067 Z -1.0000
G01 X 11.5315 Y 2.0010 Z -1.0000
G01 X 11.5247 Y 2.0031 Z -1.0000
G01 X 11.5223 Y 2.0291 Z -1.0000
G01 X 11.5500 Y 2.0399 Z -1.0000
G01 X 11.5568 Y 2.0452 Z -1.0000
G01 X 11.5508 Y 2.0663 Z -1.0000
G01 X 11.5414 Y 2.0715 Z -1.0000
G01 X 11.5323 Y 2.0667 Z -1.0000
G01 X 11.5220 Y 2.0620 Z -1.0000
G01 X 11.5015 Y 2.0715 Z -1.0000
G02 X 11.4632 Y 2.1117 Z -1.0000 I 0.1811 J 0.2107
G01 X 11.4645 Y 2.1190 Z -1.0000
G01 X 11.4712 Y 2.1195 Z -1.0000
G01 X 11.4742 Y 2.1148 Z -1.0000
G01 X 11.4771 Y 2.1075 Z -1.0000
G01 X 11.4838 Y 2.1046 Z -1.0000
G01 X 11.4892 Y 2.1125 Z -1.0000
G03 X 11.4661 Y 2.1495 Z -1.0000 I -0.1125 J -0.0446
G01 X 11.4483 Y 2.1558 Z -1.0000
G01 X 11.4397 Y 2.1454 Z -1.0000
G02 X 11.4359 Y 2.1148 Z -1.0000 I -0.1007 J -0.0030
G01 X 11.4287 Y 2.1072 Z -1.0000
G01 X 11.4216 Y 2.1099 Z -1.0000
G01 X 11.4167 Y 2.1294 Z -1.0000
G03 X 11.4124 Y 2.1542 Z -1.0000 I -0.0725 J -0.0000
G03 X 11.4006 Y 2.1736 Z -1.0000 I -0.0551 J -0.0200
G01 X 11.3922 Y 2.1912 Z -1.0000
G01 X 11.3958 Y 2.2027 Z -1.0000
G01 X 11.3983 Y 2.2172 Z -1.0000
G01 X 11.3841 Y 2.2270 Z -1.0000
G01 X 11.3662 Y 2.2218 Z -1.0000
G01 X 11.3552 Y 2.2051 Z -1.0000
G01 X 11.3349 Y 2.1820 Z -1.0000
G01 X 11.3208 Y 2.1915 Z -1.0000
G01 X 11.3237 Y 2.1965 Z -1.0000
G01 X 11.3293 Y 2.1964 Z -1.0000
G01 X 11.3350 Y 2.1976 Z -1.0000
G01 X 11.3424 Y 2.2152 Z -1.0000
G03 X 11.3431 Y 2.2376 Z -1.0000 I -0.0697 J 0.0132
G01 X 11.3385 Y 2.2445 Z -1.0000
G01 X 11.3342 Y 2.2507 Z -1.0000
G01 X 11.3356 Y 2.2587 Z -1.0000
G01 X 11.3356 Y 2.2645 Z -1.0000
G01 X 11.3299 Y 2.2676 Z -1.0000
G01 X 11.3244 Y 2.2721 Z -1.0000
G02 X 11.3248 Y 2.2940 Z -1.0000 I 0.0513 J 0.0100
G01 X 11.3221 Y 2.3071 Z -1.0000
G01 X 11.3120 Y 2.2997 Z -1.0000
G01 X 11.3016 Y 2.3011 Z -1.0000
G01 X 11.2912 Y 2.3025 Z -1.0000
G01 X 11.2815 Y 2.2951 Z -1.0000
G01 X 11.2764 Y 2.2936 Z -1.0000
G01 X 11.2730 Y 2.2987 Z -1.0000
G01 X 11.2684 Y 2.3110 Z -1.0000
G01 X 11.2584 Y 2.3155 Z -1.0000
G01 X 11.2481 Y 2.3248 Z -1.0000
G01 X 11.2560 Y 2.3379 Z -1.0000
G01 X 11.2560 Y 2.3435 Z -1.0000
G01 X 11.2490 Y 2.3490 Z -1.0000
G02 X 11.2440 Y 2.3793 Z -1.0000 I 0.0911 J 0.0304
G01 X 11.2366 Y 2.3976 Z -1.0000
G01 X 11.2258 Y 2.3979 Z -1.0000
G01 X 11.2087 Y 2.3892 Z -1.0000
G01 X 11.2006 Y 2.3927 Z -1.0000
G01 X 11.1992 Y 2.4027 Z -1.0000
G01 X 11.2057 Y 2.4115 Z -1.0000
G01 X 11.2074 Y 2.4176 Z -1.0000
G01 X 11.1983 Y 2.4251 Z -1.0000
G01 X 11.1858 Y 2.4351 Z -1.0000
G01 X 11.1838 Y 2.4501 Z -1.0000
G01 X 11.1835 Y 2.4649 Z -1.0000
G01 X 11.1780 Y 2.4690 Z -1.0000
G01 X 11.1702 Y 2.4660 Z -1.0000
G01 X 11.1673 Y 2.4594 Z -1.0000
G01 X 11.1645 Y 2.4526 Z -1.0000
G01 X 11.1577 Y 2.4498 Z -1.0000
G01 X 11.1505 Y 2.4587 Z -1.0000
G02 X 11.1655 Y 2.4863 Z -1.0000 I 0.0542 J -0.0116
G01 X 11.1701 Y 2.5015 Z -1.0000
G01 X 11.1600 Y 2.5145 Z -1.0000
G03 X 11.1369 Y 2.5215 Z -1.0000 I -0.0357 J -0.0762
G01 X 11.1234 Y 2.5201 Z -1.0000
G01 X 11.1143 Y 2.5216 Z -1.0000
G01 X 11.1097 Y 2.5313 Z -1.0000
G01 X 11.1054 Y 2.5414 Z -1.0000
G01 X 11.0974 Y 2.5431 Z -1.0000
G01 X 11.0858 Y 2.5430 Z -1.0000
G02 X 11.0640 Y 2.5554 Z -1.0000 I 0.0273 J 0.0733
G01 X 11.0532 Y 2.5725 Z -1.0000
G01 X 11.0571 Y 2.5842 Z -1.0000
G01 X 11.0636 Y 2.6043 Z -1.0000
G01 X 11.0467 Y 2.6245 Z -1.0000
G01 X 11.0242 Y 2.6285 Z -1.0000
G01 X 11.0133 Y 2.6219 Z -1.0000
G01 X 11.0044 Y 2.6614 Z -1.0000
G03 X 10.9992 Y 2.7130 Z -1.0000 I -0.2704 J -0.0007
G01 X 10.9901 Y 2.7333 Z -1.0000
G01 X 10.9802 Y 2.7390 Z -1.0000
G01 X 10.9757 Y 2.7351 Z -1.0000
G01 X 10.9719 Y 2.7219 Z -1.0000
G01 X 10.9655 Y 2.7183 Z -1.0000
G01 X 10.9598 Y 2.7223 Z -1.0000
G01 X 10.9574 Y 2.7399 Z -1.0000
G03 X 10.9581 Y 2.7614 Z -1.0000 I -0.2106 J 0.0177
G03 X 10.9566 Y 2.7806 Z -1.0000 I -0.1632 J -0.0029
G01 X 10.9467 Y 2.7710 Z -1.0000
G01 X 10.9417 Y 2.7654 Z -1.0000
G01 X 10.9382 Y 2.7676 Z -1.0000
G01 X 10.9232 Y 2.7951 Z -1.0000
G01 X 10.8943 Y 2.7987 Z -1.0000
G01 X 10.8752 Y 2.8081 Z -1.0000
G02 X 10.8739 Y 2.8670 Z -1.0000 I 0.1065 J 0.0319
G01 X 10.8709 Y 2.8839 Z -1.0000
G01 X 10.8577 Y 2.8909 Z -1.0000
G01 X 10.8263 Y 2.9049 Z -1.0000
G02 X 10.8124 Y 2.9411 Z -1.0000 I 0.0402 J 0.0362
G03 X 10.8074 Y 2.9648 Z -1.0000 I -0.0588 J 0.0000
G01 X 10.7980 Y 2.9738 Z -1.0000
G01 X 10.7890 Y 2.9830 Z -1.0000
G02 X 10.7836 Y 3.0138 Z -1.0000 I 0.0856 J 0.0308
G01 X 10.7784 Y 3.0357 Z -1.0000
G01 X 10.7721 Y 3.0367 Z -1.0000
G01 X 10.7579 Y 3.0323 Z -1.0000
G01 X 10.7551 Y 3.0399 Z -1.0000
G01 X 10.7598 Y 3.0800 Z -1.0000
G01 X 10.7245 Y 3.1019 Z -1.0000
G01 X 10.7121 Y 3.1071 Z -1.0000
G01 X 10.7069 Y 3.1199 Z -1.0000
G01 X 10.7031 Y 3.1362 Z -1.0000
G01 X 10.6921 Y 3.1502 Z -1.0000
G01 X 10.6823 Y 3.1639 Z -1.0000
G01 X 10.6824 Y 3.1758 Z -1.0000
G01 X 10.6790 Y 3.1822 Z -1.0000
G03 X 10.6517 Y 3.1831 Z -1.0000 I -0.0160 J -0.0673
G01 X 10.6300 Y 3.1870 Z -1.0000
G01 X 10.6398 Y 3.1993 Z -1.0000
G03 X 10.6457 Y 3.2268 Z -1.0000 I -0.0807 J 0.0319
G01 X 10.6400 Y 3.2524 Z -1.0000
G01 X 10.6243 Y 3.2672 Z -1.0000
G01 X 10.6107 Y 3.2844 Z -1.0000
G01 X 10.6182 Y 3.2982 Z -1.0000
G01 X 10.6201 Y 3.3049 Z -1.0000
G01 X 10.6028 Y 3.3184 Z -1.0000
G03 X 10.5735 Y 3.3240 Z -1.0000 I -0.0278 J -0.0655
G01 X 10.5692 Y 3.3177 Z -1.0000
G01 X 10.5690 Y 3.3072 Z -1.0000
G01 X 10.5631 Y 3.3033 Z -1.0000
G01 X 10.5573 Y 3.3078 Z -1.0000
G01 X 10.5573 Y 3.3265 Z -1.0000
G03 X 10.5560 Y 3.3685 Z -1.0000 I -0.0748 J 0.0187
G01 X 10.5403 Y 3.3800 Z -1.0000
G01 X 10.5091 Y 3.3983 Z -1.0000
G02 X 10.4931 Y 3.4639 Z -1.0000 I 0.1088 J 0.0612
G03 X 10.4884 Y 3.4987 Z -1.0000 I -0.1031 J 0.0037
G01 X 10.4803 Y 3.5047 Z -1.0000
G01 X 10.4726 Y 3.5095 Z -1.0000
G01 X 10.4717 Y 3.5227 Z -1.0000
G01 X 10.4710 Y 3.5377 Z -1.0000
G01 X 10.4614 Y 3.5469 Z -1.0000
G01 X 10.4559 Y 3.5556 Z -1.0000
G01 X 10.4635 Y 3.5734 Z -1.0000
G01 X 10.4673 Y 3.5892 Z -1.0000
G01 X 10.4419 Y 3.5947 Z -1.0000
G01 X 10.4289 Y 3.6239 Z -1.0000
G01 X 10.4242 Y 3.6342 Z -1.0000
G01 X 10.4117 Y 3.6389 Z -1.0000
G01 X 10.4013 Y 3.6454 Z -1.0000
G02 X 10.3957 Y 3.6707 Z -1.0000 I 0.0466 J 0.0236
G02 X 10.3993 Y 3.7016 Z -1.0000 I 0.1895 J -0.0063
G01 X 10.4047 Y 3.7153 Z -1.0000
G01 X 10.4020 Y 3.7216 Z -1.0000
G01 X 10.3703 Y 3.7301 Z -1.0000
G02 X 10.3702 Y 3.7807 Z -1.0000 I 0.0472 J 0.0253
G01 X 10.3690 Y 3.7910 Z -1.0000
G01 X 10.3578 Y 3.7949 Z -1.0000
G01 X 10.3406 Y 3.7986 Z -1.0000
G01 X 10.3293 Y 3.8151 Z -1.0000
G01 X 10.3193 Y 3.8321 Z -1.0000
G01 X 10.3089 Y 3.8342 Z -1.0000
G01 X 10.3007 Y 3.8399 Z -1.0000
G01 X 10.3096 Y 3.8671 Z -1.0000
G01 X 10.3151 Y 3.8882 Z -1.0000
G01 X 10.3049 Y 3.9135 Z -1.0000
G02 X 10.2894 Y 3.9387 Z -1.0000 I 0.1006 J 0.0792
G01 X 10.2898 Y 3.9459 Z -1.0000
G01 X 10.2887 Y 3.9510 Z -1.0000
G03 X 10.2696 Y 3.9596 Z -1.0000 I -0.0338 J -0.0500
G01 X 10.2521 Y 3.9695 Z -1.0000
G01 X 10.2500 Y 3.9793 Z -1.0000
G01 X 10.2487 Y 3.9863 Z -1.0000
G01 X 10.2423 Y 3.9878 Z -1.0000
G01 X 10.2263 Y 3.9959 Z -1.0000
G01 X 10.2337 Y 4.0189 Z -1.0000
G01 X 10.2425 Y 4.0320 Z -1.0000
G01 X 10.2395 Y 4.0383 Z -1.0000
G01 X 10.2308 Y 4.0454 Z -1.0000
G01 X 10.2275 Y 4.0558 Z -1.0000
G01 X 10.2239 Y 4.0659 Z -1.0000
G01 X 10.2125 Y 4.0742 Z -1.0000
G01 X 10.2037 Y 4.0829 Z -1.0000
G01 X 10.2031 Y 4.0978 Z -1.0000
G01 X 10.2034 Y 4.1141 Z -1.0000
G01 X 10.1949 Y 4.1272 Z -1.0000
G01 X 10.1868 Y 4.1409 Z -1.0000
G02 X 10.1862 Y 4.1708 Z -1.0000 I 0.0821 J 0.0165
G03 X 10.1765 Y 4.2321 Z -1.0000 I -0.0982 J 0.0159
G01 X 10.1444 Y 4.2523 Z -1.0000
G01 X 10.1262 Y 4.2676 Z -1.0000
G02 X 10.1275 Y 4.3335 Z -1.0000 I 0.1446 J 0.0300
G01 X 10.1262 Y 4.3547 Z -1.0000
G01 X 10.1158 Y 4.3641 Z -1.0000
G01 X 10.0895 Y 4.3869 Z -1.0000
G02 X 10.0741 Y 4.4635 Z -1.0000 I 0.1823 J 0.0765
G01 X 10.0693 Y 4.4780 Z -1.0000
G01 X 10.0597 Y 4.4828 Z -1.0000
G01 X 10.0501 Y 4.4876 Z -1.0000
G01 X 10.0453 Y 4.5020 Z -1.0000
G01 X 10.0490 Y 4.5175 Z -1.0000
G01 X 10.0549 Y 4.5212 Z -1.0000
G01 X 10.0666 Y 4.5358 Z -1.0000
G03 X 10.0405 Y 4.5826 Z -1.0000 I -0.0949 J -0.0222
G02 X 10.0171 Y 4.6238 Z -1.0000 I 0.0636 J 0.0636
G01 X 10.0267 Y 4.6362 Z -1.0000
G01 X 10.0312 Y 4.6394 Z -1.0000
G01 X 10.0305 Y 4.6465 Z -1.0000
G01 X 10.0227 Y 4.6522 Z -1.0000
G01 X 10.0108 Y 4.6516 Z -1.0000
G01 X 10.0020 Y 4.6531 Z -1.0000
G01 X 9.9975 Y 4.6629 Z -1.0000
G02 X 10.0049 Y 4.7078 Z -1.0000 I 0.1480 J -0.0013
G02 X 10.0286 Y 4.7575 Z -1.0000 I 0.2064 J -0.0677
G01 X 10.0294 Y 4.7665 Z -1.0000
G01 X 10.0221 Y 4.7737 Z -1.0000
G01 X 10.0143 Y 4.7819 Z -1.0000
G01 X 10.0139 Y 4.7996 Z -1.0000
G01 X 10.0245 Y 4.8119 Z -1.0000
G01 X 10.0486 Y 4.8144 Z -1.0000
G02 X 10.0766 Y 4.8065 Z -1.0000 I -0.0352 J -0.1775
G01 X 10.0832 Y 4.8015 Z -1.0000
G01 X 10.0900 Y 4.7973 Z -1.0000
G03 X 10.1265 Y 4.7932 Z -1.0000 I 0.0445 J 0.2333
G02 X 10.1613 Y 4.7877 Z -1.0000 I -0.0048 J -0.1427
G01 X 10.1680 Y 4.7812 Z -1.0000
G01 X 10.1742 Y 4.7741 Z -1.0000
G01 X 10.1893 Y 4.7705 Z -1.0000
G02 X 10.2292 Y 4.7632 Z -1.0000 I 0.0000 J -0.1123
G02 X 10.3554 Y 4.7075 Z -1.0000 I -0.4614 J -1.2167
G03 X 10.3831 Y 4.6963 Z -1.0000 I 0.0785 J 0.1543
G03 X 10.3999 Y 4.6938 Z -1.0000 I 0.0168 J 0.0547
G01 X 10.4144 Y 4.6896 Z -1.0000
G01 X 10.4227 Y 4.6796 Z -1.0000
G01 X 10.4318 Y 4.6699 Z -1.0000
G03 X 10.4677 Y 4.6590 Z -1.0000 I 0.0579 J 0.1267
G02 X 10.5040 Y 4.6487 Z -1.0000 I -0.0257 J -0.1594
G01 X 10.5119 Y 4.6406 Z -1.0000
G01 X 10.5196 Y 4.6322 Z -1.0000
G03 X 10.5479 Y 4.6227 Z -1.0000 I 0.0481 J 0.0959
G02 X 10.5784 Y 4.6139 Z -1.0000 I -0.0297 J -0.1604
G02 X 10.6471 Y 4.5834 Z -1.0000 I -0.3464 J -0.8731
G03 X 10.7154 Y 4.5519 Z -1.0000 I 0.6256 J 1.2697
G01 X 10.7251 Y 4.5500 Z -1.0000
G01 X 10.7349 Y 4.5482 Z -1.0000
G02 X 10.7895 Y 4.5260 Z -1.0000 I -0.3458 J -0.9274
G03 X 10.8441 Y 4.5042 Z -1.0000 I 0.3115 J 0.7043
G01 X 10.8572 Y 4.5020 Z -1.0000
G01 X 10.8699 Y 4.4990 Z -1.0000
G02 X 10.8983 Y 4.4817 Z -1.0000 I -0.0822 J -0.1664
G03 X 10.9260 Y 4.4665 Z -1.0000 I 0.0691 J 0.0935
G01 X 10.9356 Y 4.4675 Z -1.0000
G01 X 10.9444 Y 4.4690 Z -1.0000
G01 X 10.9512 Y 4.4643 Z -1.0000
G01 X 10.9584 Y 4.4593 Z -1.0000
G01 X 10.9710 Y 4.4604 Z -1.0000
G01 X 10.9819 Y 4.4611 Z -1.0000
G01 X 10.9851 Y 4.4571 Z -1.0000
G01 X 10.9887 Y 4.4508 Z -1.0000
G03 X 11.0211 Y 4.4355 Z -1.0000 I 0.0943 J 0.1575
G02 X 11.0553 Y 4.4204 Z -1.0000 I -0.0904 J -0.2519
G01 X 11.0630 Y 4.4134 Z -1.0000
G01 X 11.0709 Y 4.4072 Z -1.0000
G03 X 11.0966 Y 4.4017 Z -1.0000 I 0.0350 J 0.1009
G02 X 11.1437 Y 4.3906 Z -1.0000 I -0.0149 J -0.1692
G02 X 11.2057 Y 4.3589 Z -1.0000 I -0.1273 J -0.3246
G03 X 11.2210 Y 4.3522 Z -1.0000 I 0.0280 J 0.0433
G03 X 11.2658 Y 4.3437 Z -1.0000 I 0.0935 J 0.3697
G02 X 11.3048 Y 4.3346 Z -1.0000 I -0.0248 J -0.1947
G01 X 11.3065 Y 4.3297 Z -1.0000
G01 X 11.3207 Y 4.3266 Z -1.0000
G01 X 11.3360 Y 4.3266 Z -1.0000
G01 X 11.3399 Y 4.3215 Z -1.0000
G01 X 11.3443 Y 4.3151 Z -1.0000
G03 X 11.3828 Y 4.3050 Z -1.0000 I 0.0656 J 0.1704
G02 X 11.4234 Y 4.2946 Z -1.0000 I -0.0301 J -0.2026
G01 X 11.4367 Y 4.2852 Z -1.0000
G01 X 11.4498 Y 4.2762 Z -1.0000
G03 X 11.4754 Y 4.2719 Z -1.0000 I 0.0256 J 0.0738
G02 X 11.4999 Y 4.2687 Z -1.0000 I 0.0000 J -0.0960
G01 X 11.5030 Y 4.2647 Z -1.0000
G01 X 11.5282 Y 4.2302 Z -1.0000
G01 X 11.5750 Y 4.2417 Z -1.0000
G01 X 11.6045 Y 4.2519 Z -1.0000
G01 X 11.6181 Y 4.2367 Z -1.0000
G01 X 11.6245 Y 4.2272 Z -1.0000
G01 X 11.6310 Y 4.2286 Z -1.0000
G02 X 11.6475 Y 4.2186 Z -1.0000 I -0.0178 J -0.0478
G03 X 11.6658 Y 4.2074 Z -1.0000 I 0.0375 J 0.0411
G03 X 11.7006 Y 4.1990 Z -1.0000 I 0.0541 J 0.1479
G02 X 11.7355 Y 4.1909 Z -1.0000 I -0.0213 J -0.1713
G01 X 11.7519 Y 4.1813 Z -1.0000
G01 X 11.7684 Y 4.1733 Z -1.0000
G03 X 11.8080 Y 4.1713 Z -1.0000 I 0.0276 J 0.1559
G02 X 11.8457 Y 4.1686 Z -1.0000 I 0.0097 J -0.1279
G01 X 11.8546 Y 4.1608 Z -1.0000
G01 X 11.8633 Y 4.1523 Z -1.0000
G03 X 11.8934 Y 4.1472 Z -1.0000 I 0.0301 J 0.0857
G01 X 11.9177 Y 4.1536 Z -1.0000
G01 X 11.9210 Y 4.1628 Z -1.0000
G01 X 11.9298 Y 4.1883 Z -1.0000
G02 X 11.9798 Y 4.1977 Z -1.0000 I 0.0381 J -0.0641
G03 X 12.0065 Y 4.1982 Z -1.0000 I 0.0120 J 0.0730
G01 X 12.0112 Y 4.2040 Z -1.0000
G01 X 12.0146 Y 4.2095 Z -1.0000
G01 X 12.0213 Y 4.2092 Z -1.0000
G01 X 12.0251 Y 4.2020 Z -1.0000
G01 X 12.0201 Y 4.1895 Z -1.0000
G01 X 12.0148 Y 4.1786 Z -1.0000
G01 X 12.0172 Y 4.1756 Z -1.0000
G01 X 11.9972 Y 4.1521 Z -1.0000
G01 X 11.9822 Y 4.1311 Z -1.0000
G01 X 11.9862 Y 4.1223 Z -1.0000
G01 X 12.0019 Y 4.1206 Z -1.0000
G01 X 12.0099 Y 4.1259 Z -1.0000
G01 X 12.0181 Y 4.1324 Z -1.0000
G01 X 12.0353 Y 4.1345 Z -1.0000
G01 X 12.0482 Y 4.1395 Z -1.0000
G01 X 12.0545 Y 4.1558 Z -1.0000
G01 X 12.0739 Y 4.1851 Z -1.0000
G01 X 12.1051 Y 4.1781 Z -1.0000
G01 X 12.1211 Y 4.1773 Z -1.0000
G01 X 12.1290 Y 4.2007 Z -1.0000
G01 X 12.1381 Y 4.2145 Z -1.0000
G01 X 12.1600 Y 4.2083 Z -1.0000
G01 X 12.1720 Y 4.1831 Z -1.0000
G01 X 12.1647 Y 4.1616 Z -1.0000
G01 X 12.1550 Y 4.1424 Z -1.0000
G01 X 12.1596 Y 4.1341 Z -1.0000
G01 X 12.1722 Y 4.1342 Z -1.0000
G01 X 12.1804 Y 4.1425 Z -1.0000
G01 X 12.1883 Y 4.1531 Z -1.0000
G01 X 12.1993 Y 4.1567 Z -1.0000
G03 X 12.2329 Y 4.1650 Z -1.0000 I -0.0000 J 0.0723
G03 X 12.2632 Y 4.1903 Z -1.0000 I -0.0436 J 0.0829
G01 X 12.2649 Y 4.1749 Z -1.0000
G03 X 12.2726 Y 4.1349 Z -1.0000 I 0.0488 J -0.0113
G01 X 12.3043 Y 4.1184 Z -1.0000
G01 X 12.3120 Y 4.1087 Z -1.0000
G01 X 12.2988 Y 4.0944 Z -1.0000
G01 X 12.2843 Y 4.0850 Z -1.0000
G01 X 12.2796 Y 4.0728 Z -1.0000
G01 X 12.2844 Y 4.0692 Z -1.0000
G01 X 12.2992 Y 4.0782 Z -1.0000
G02 X 12.3396 Y 4.0969 Z -1.0000 I 0.0432 J -0.0402
G01 X 12.3564 Y 4.0809 Z -1.0000
G01 X 12.3621 Y 4.0700 Z -1.0000
G01 X 12.3755 Y 4.0676 Z -1.0000
G01 X 12.3852 Y 4.0790 Z -1.0000
G01 X 12.3780 Y 4.0948 Z -1.0000
G01 X 12.3713 Y 4.1080 Z -1.0000
G01 X 12.3780 Y 4.1254 Z -1.0000
G03 X 12.3921 Y 4.1448 Z -1.0000 I -0.0797 J 0.0725
G01 X 12.3947 Y 4.1547 Z -1.0000
G01 X 12.3984 Y 4.1602 Z -1.0000
G01 X 12.4087 Y 4.1603 Z -1.0000
G01 X 12.4185 Y 4.1627 Z -1.0000
G01 X 12.4286 Y 4.1822 Z -1.0000
G02 X 12.4538 Y 4.2405 Z -1.0000 I 0.1617 J -0.0353
G01 X 12.4768 Y 4.2526 Z -1.0000
G01 X 12.4991 Y 4.2349 Z -1.0000
G01 X 12.4892 Y 4.1984 Z -1.0000
G01 X 12.4847 Y 4.1831 Z -1.0000
G01 X 12.4932 Y 4.1759 Z -1.0000
G03 X 12.5163 Y 4.1794 Z -1.0000 I 0.0000 J 0.0784
G01 X 12.5242 Y 4.1855 Z -1.0000
G01 X 12.5384 Y 4.1896 Z -1.0000
G01 X 12.5489 Y 4.1735 Z -1.0000
G01 X 12.5545 Y 4.1639 Z -1.0000
G01 X 12.5616 Y 4.1726 Z -1.0000
G01 X 12.5722 Y 4.1759 Z -1.0000
G01 X 12.5826 Y 4.1726 Z -1.0000
G01 X 12.5893 Y 4.1639 Z -1.0000
G01 X 12.5955 Y 4.1596 Z -1.0000
G01 X 12.6064 Y 4.1639 Z -1.0000
G01 X 12.6094 Y 4.1759 Z -1.0000
G01 X 12.5738 Y 4.1919 Z -1.0000
G02 X 12.5578 Y 4.2338 Z -1.0000 I 0.0470 J 0.0419
G01 X 12.5625 Y 4.2479 Z -1.0000
G01 X 12.5722 Y 4.2526 Z -1.0000
G01 X 12.5808 Y 4.2583 Z -1.0000
G03 X 12.5865 Y 4.2862 Z -1.0000 I -0.0650 J 0.0279
G02 X 12.5931 Y 4.3132 Z -1.0000 I 0.0589 J 0.0000
G01 X 12.6039 Y 4.3198 Z -1.0000
G01 X 12.6199 Y 4.3234 Z -1.0000
G03 X 12.6537 Y 4.3437 Z -1.0000 I -0.0911 J 0.1895
G01 X 12.6627 Y 4.3600 Z -1.0000
G01 X 12.6556 Y 4.3677 Z -1.0000
G01 X 12.6316 Y 4.3611 Z -1.0000
G01 X 12.6249 Y 4.3494 Z -1.0000
G01 X 12.6181 Y 4.3368 Z -1.0000
G02 X 12.5866 Y 4.3245 Z -1.0000 I -0.0454 J 0.0701
G03 X 12.5520 Y 4.3149 Z -1.0000 I 0.0291 J -0.1707
G01 X 12.5482 Y 4.3093 Z -1.0000
G01 X 12.5443 Y 4.3045 Z -1.0000
G02 X 12.5099 Y 4.3006 Z -1.0000 I -0.0345 J 0.1524
G02 X 12.4757 Y 4.3048 Z -1.0000 I 0.0000 J 0.1410
G01 X 12.4715 Y 4.3102 Z -1.0000
G01 X 12.4757 Y 4.3157 Z -1.0000
G02 X 12.5075 Y 4.3199 Z -1.0000 I 0.0318 J -0.1172
G03 X 12.5606 Y 4.3321 Z -1.0000 I -0.0005 J 0.1239
G01 X 12.5602 Y 4.3453 Z -1.0000
G01 X 12.5422 Y 4.3704 Z -1.0000
G01 X 12.5578 Y 4.3869 Z -1.0000
G01 X 12.5648 Y 4.3990 Z -1.0000
G03 X 12.5332 Y 4.4298 Z -1.0000 I -0.0698 J -0.0401
G03 X 12.5011 Y 4.4397 Z -1.0000 I -0.0412 J -0.0766
G01 X 12.4901 Y 4.4344 Z -1.0000
G01 X 12.4872 Y 4.4143 Z -1.0000
G01 X 12.4979 Y 4.4061 Z -1.0000
G01 X 12.5329 Y 4.3874 Z -1.0000
G01 X 12.5274 Y 4.3619 Z -1.0000
G01 X 12.5176 Y 4.3611 Z -1.0000
G01 X 12.5049 Y 4.3710 Z -1.0000
G01 X 12.4835 Y 4.3799 Z -1.0000
G01 X 12.4715 Y 4.3658 Z -1.0000
G01 X 12.4668 Y 4.3561 Z -1.0000
G01 X 12.4597 Y 4.3565 Z -1.0000
G01 X 12.4546 Y 4.3690 Z -1.0000
G01 X 12.4598 Y 4.3872 Z -1.0000
G01 X 12.4525 Y 4.3983 Z -1.0000
G01 X 12.4273 Y 4.3820 Z -1.0000
G01 X 12.4101 Y 4.3674 Z -1.0000
G01 X 12.3980 Y 4.3691 Z -1.0000
G01 X 12.3856 Y 4.3718 Z -1.0000
G01 X 12.3712 Y 4.3621 Z -1.0000
G01 X 12.3593 Y 4.3555 Z -1.0000
G01 X 12.3513 Y 4.3607 Z -1.0000
G01 X 12.3479 Y 4.3774 Z -1.0000
G01 X 12.3504 Y 4.3922 Z -1.0000
G01 X 12.3501 Y 4.4043 Z -1.0000
G01 X 12.3414 Y 4.4126 Z -1.0000
G01 X 12.3374 Y 4.4195 Z -1.0000
G01 X 12.3440 Y 4.4302 Z -1.0000
G02 X 12.4203 Y 4.4560 Z -1.0000 I 0.0822 J -0.1175
G01 X 12.4428 Y 4.4344 Z -1.0000
G01 X 12.4540 Y 4.4259 Z -1.0000
G01 X 12.4790 Y 4.4448 Z -1.0000
G01 X 12.4938 Y 4.4574 Z -1.0000
G01 X 12.5125 Y 4.4590 Z -1.0000
G01 X 12.5297 Y 4.4628 Z -1.0000
G03 X 12.5512 Y 4.4891 Z -1.0000 I -0.0466 J 0.0599
G03 X 12.5620 Y 4.5231 Z -1.0000 I -0.1071 J 0.0528
G01 X 12.5584 Y 4.5342 Z -1.0000
G01 X 12.5510 Y 4.5455 Z -1.0000
G01 X 12.5483 Y 4.5598 Z -1.0000
G01 X 12.5428 Y 4.5717 Z -1.0000
G03 X 12.5123 Y 4.5912 Z -1.0000 I -0.0804 J -0.0920
G02 X 12.4783 Y 4.6103 Z -1.0000 I 0.0862 J 0.1937
G02 X 12.4398 Y 4.6410 Z -1.0000 I 0.1944 J 0.2826
G03 X 12.3701 Y 4.6753 Z -1.0000 I -0.0925 J -0.1000
G01 X 12.3399 Y 4.6580 Z -1.0000
G02 X 12.3191 Y 4.6251 Z -1.0000 I -0.0904 J 0.0342
G01 X 12.3006 Y 4.6172 Z -1.0000
G01 X 12.2934 Y 4.6142 Z -1.0000
G01 X 12.2856 Y 4.6022 Z -1.0000
G01 X 12.2768 Y 4.5935 Z -1.0000
G01 X 12.2606 Y 4.5933 Z -1.0000
G01 X 12.2453 Y 4.5940 Z -1.0000
G01 X 12.2414 Y 4.5892 Z -1.0000
G01 X 12.2379 Y 4.5824 Z -1.0000
G01 X 12.2270 Y 4.5789 Z -1.0000
G01 X 12.2166 Y 4.5696 Z -1.0000
G01 X 12.2246 Y 4.5571 Z -1.0000
G01 X 12.2078 Y 4.5576 Z -1.0000
G01 X 12.1848 Y 4.5697 Z -1.0000
G01 X 12.1805 Y 4.5865 Z -1.0000
G01 X 12.1901 Y 4.6025 Z -1.0000
G01 X 12.2033 Y 4.6077 Z -1.0000
G01 X 12.2179 Y 4.6115 Z -1.0000
G01 X 12.2246 Y 4.6196 Z -1.0000
G01 X 12.2310 Y 4.6285 Z -1.0000
G01 X 12.2422 Y 4.6326 Z -1.0000
G02 X 12.2558 Y 4.6334 Z -1.0000 I 0.0526 J -0.7342
G02 X 12.2869 Y 4.6350 Z -1.0000 I 0.2613 J -4.9325
G01 X 12.3106 Y 4.6436 Z -1.0000
G01 X 12.3181 Y 4.6586 Z -1.0000
G01 X 12.3225 Y 4.6790 Z -1.0000
G02 X 12.3378 Y 4.7019 Z -1.0000 I 0.0769 J -0.0348
G01 X 12.3468 Y 4.7205 Z -1.0000
G01 X 12.3420 Y 4.7289 Z -1.0000
G01 X 12.3321 Y 4.7373 Z -1.0000
G01 X 12.3313 Y 4.7472 Z -1.0000
G01 X 12.3252 Y 4.7738 Z -1.0000
G01 X 12.3001 Y 4.7762 Z -1.0000
G01 X 12.2928 Y 4.7757 Z -1.0000
G01 X 12.2872 Y 4.7818 Z -1.0000
G01 X 12.2722 Y 4.7937 Z -1.0000
G03 X 12.2135 Y 4.7887 Z -1.0000 I -0.0155 J -0.1659
G01 X 12.2022 Y 4.7909 Z -1.0000
G02 X 12.1800 Y 4.8139 Z -1.0000 I 0.0604 J 0.0807
G03 X 12.1576 Y 4.8383 Z -1.0000 I -0.1027 J -0.0718
G01 X 12.1454 Y 4.8427 Z -1.0000
G01 X 12.1355 Y 4.8472 Z -1.0000
G01 X 12.1309 Y 4.8591 Z -1.0000
G01 X 12.1278 Y 4.8742 Z -1.0000
G01 X 12.1190 Y 4.8874 Z -1.0000
G01 X 12.1097 Y 4.9003 Z -1.0000
G01 X 12.1071 Y 4.9117 Z -1.0000
G01 X 12.1039 Y 4.9210 Z -1.0000
G01 X 12.0973 Y 4.9242 Z -1.0000
G01 X 12.0921 Y 4.9281 Z -1.0000
G01 X 12.0911 Y 4.9458 Z -1.0000
G01 X 12.0906 Y 4.9554 Z -1.0000
G01 X 12.0844 Y 4.9463 Z -1.0000
G01 X 12.0764 Y 4.9434 Z -1.0000
G01 X 12.0730 Y 4.9401 Z -1.0000
G01 X 12.0757 Y 4.9314 Z -1.0000
G02 X 12.1015 Y 4.8725 Z -1.0000 I -0.1004 J -0.0789
G01 X 12.0866 Y 4.8626 Z -1.0000
G01 X 12.0774 Y 4.8636 Z -1.0000
G01 X 12.0679 Y 4.8559 Z -1.0000
G01 X 12.0580 Y 4.8497 Z -1.0000
G01 X 12.0426 Y 4.8533 Z -1.0000
G01 X 12.0286 Y 4.8757 Z -1.0000
G02 X 12.0370 Y 4.9095 Z -1.0000 I 0.0518 J 0.0052
G03 X 12.0479 Y 4.9289 Z -1.0000 I -0.1278 J 0.0848
G01 X 12.0495 Y 4.9359 Z -1.0000
G01 X 12.0370 Y 4.9467 Z -1.0000
G01 X 12.0175 Y 4.9314 Z -1.0000
G01 X 12.0119 Y 4.9314 Z -1.0000
G01 X 12.0066 Y 4.9387 Z -1.0000
G03 X 11.9823 Y 4.9434 Z -1.0000 I -0.0243 J -0.0601
G02 X 11.9585 Y 4.9483 Z -1.0000 I -0.0000 J 0.0599
G01 X 11.9536 Y 4.9559 Z -1.0000
G03 X 11.9403 Y 5.0066 Z -1.0000 I -0.1039 J 0.0000
G01 X 11.9176 Y 5.0200 Z -1.0000
G01 X 11.9087 Y 5.0232 Z -1.0000
G01 X 11.9056 Y 5.0297 Z -1.0000
G01 X 11.9017 Y 5.0355 Z -1.0000
G03 X 11.8816 Y 5.0393 Z -1.0000 I -0.0201 J -0.0503
G01 X 11.8629 Y 5.0446 Z -1.0000
G01 X 11.8577 Y 5.0541 Z -1.0000
G01 X 11.8527 Y 5.0606 Z -1.0000
G01 X 11.8397 Y 5.0592 Z -1.0000
G01 X 11.8199 Y 5.0601 Z -1.0000
G01 X 11.8097 Y 5.0793 Z -1.0000
G01 X 11.8051 Y 5.0922 Z -1.0000
G01 X 11.7953 Y 5.0968 Z -1.0000
G01 X 11.7858 Y 5.0920 Z -1.0000
G01 X 11.7809 Y 5.0771 Z -1.0000
G01 X 11.7768 Y 5.0648 Z -1.0000
G01 X 11.7707 Y 5.0637 Z -1.0000
G01 X 11.7647 Y 5.0714 Z -1.0000
G01 X 11.7650 Y 5.0819 Z -1.0000
G01 X 11.7638 Y 5.0922 Z -1.0000
G03 X 11.7417 Y 5.1168 Z -1.0000 I -0.0949 J -0.0634
G02 X 11.7236 Y 5.1466 Z -1.0000 I 0.0338 J 0.0409
G01 X 11.7304 Y 5.1696 Z -1.0000
G01 X 11.7308 Y 5.1776 Z -1.0000
G01 X 11.7208 Y 5.1812 Z -1.0000
G01 X 11.7025 Y 5.1898 Z -1.0000
G01 X 11.7052 Y 5.2091 Z -1.0000
G01 X 11.7100 Y 5.2204 Z -1.0000
G01 X 11.7055 Y 5.2374 Z -1.0000
G01 X 11.6987 Y 5.2417 Z -1.0000
G01 X 11.6949 Y 5.2383 Z -1.0000
G01 X 11.6910 Y 5.2252 Z -1.0000
G01 X 11.6845 Y 5.2215 Z -1.0000
G01 X 11.6796 Y 5.2245 Z -1.0000
G01 X 11.6799 Y 5.2304 Z -1.0000
G01 X 11.6745 Y 5.2460 Z -1.0000
G01 X 11.6552 Y 5.2395 Z -1.0000
G01 X 11.6467 Y 5.2350 Z -1.0000
G01 X 11.6380 Y 5.2398 Z -1.0000
G01 X 11.6268 Y 5.2484 Z -1.0000
G03 X 11.5995 Y 5.2524 Z -1.0000 I -0.0250 J -0.0761
G02 X 11.5761 Y 5.2553 Z -1.0000 I -0.0022 J 0.0783
G01 X 11.5745 Y 5.2594 Z -1.0000
G01 X 11.5749 Y 5.2665 Z -1.0000
G01 X 11.5651 Y 5.2791 Z -1.0000
G01 X 11.5561 Y 5.2798 Z -1.0000
G01 X 11.5508 Y 5.2706 Z -1.0000
G01 X 11.5409 Y 5.2652 Z -1.0000
G01 X 11.5265 Y 5.2862 Z -1.0000
G01 X 11.5186 Y 5.2999 Z -1.0000
G01 X 11.5129 Y 5.2982 Z -1.0000
G01 X 11.5047 Y 5.2894 Z -1.0000
G01 X 11.4963 Y 5.2926 Z -1.0000
G01 X 11.4884 Y 5.2944 Z -1.0000
G01 X 11.4792 Y 5.2806 Z -1.0000
G02 X 11.4680 Y 5.2558 Z -1.0000 I -0.0637 J 0.0140
G01 X 11.4566 Y 5.2499 Z -1.0000
G01 X 11.4520 Y 5.2458 Z -1.0000
G01 X 11.4554 Y 5.2379 Z -1.0000
G02 X 11.4764 Y 5.1936 Z -1.0000 I -0.0343 J -0.0434
G01 X 11.4539 Y 5.1535 Z -1.0000
G02 X 11.4190 Y 5.1456 Z -1.0000 I -0.0285 J 0.0449
G01 X 11.4070 Y 5.1592 Z -1.0000
G01 X 11.4112 Y 5.1693 Z -1.0000
G01 X 11.4217 Y 5.1736 Z -1.0000
G01 X 11.4281 Y 5.1786 Z -1.0000
G01 X 11.4263 Y 5.1925 Z -1.0000
G02 X 11.4201 Y 5.2121 Z -1.0000 I 0.0486 J 0.0261
G02 X 11.4209 Y 5.2376 Z -1.0000 I 0.0856 J 0.0102
G01 X 11.4194 Y 5.2617 Z -1.0000
G01 X 11.4071 Y 5.2810 Z -1.0000
G03 X 11.3717 Y 5.2962 Z -1.0000 I -0.0391 J -0.0419
G01 X 11.3625 Y 5.2838 Z -1.0000
G01 X 11.3469 Y 5.2624 Z -1.0000
G02 X 11.2888 Y 5.2879 Z -1.0000 I 0.0051 J 0.0905
G01 X 11.2808 Y 5.3050 Z -1.0000
G01 X 11.2864 Y 5.3201 Z -1.0000
G01 X 11.2950 Y 5.3366 Z -1.0000
G01 X 11.2931 Y 5.3574 Z -1.0000
G01 X 11.2951 Y 5.3950 Z -1.0000
G01 X 11.3137 Y 5.3979 Z -1.0000
G01 X 11.3234 Y 5.4129 Z -1.0000
G01 X 11.3225 Y 5.4278 Z -1.0000
G01 X 11.3158 Y 5.4324 Z -1.0000
G01 X 11.3054 Y 5.4357 Z -1.0000
G01 X 11.2989 Y 5.4444 Z -1.0000
G01 X 11.2925 Y 5.4478 Z -1.0000
G01 X 11.2739 Y 5.4379 Z -1.0000
G01 X 11.2527 Y 5.4304 Z -1.0000
G02 X 11.2250 Y 5.4403 Z -1.0000 I 0.0025 J 0.0507
G03 X 11.1857 Y 5.4582 Z -1.0000 I -0.0622 J -0.0841
G01 X 11.1768 Y 5.4511 Z -1.0000
G01 X 11.1535 Y 5.4644 Z -1.0000
G02 X 11.1368 Y 5.4896 Z -1.0000 I 0.0541 J 0.0541
G01 X 11.1355 Y 5.5084 Z -1.0000
G01 X 11.1308 Y 5.5204 Z -1.0000
G01 X 11.1085 Y 5.5256 Z -1.0000
G03 X 11.0451 Y 5.4995 Z -1.0000 I 0.0130 J -0.1216
G01 X 11.0519 Y 5.4803 Z -1.0000
G01 X 11.0634 Y 5.4753 Z -1.0000
G01 X 11.0652 Y 5.4659 Z -1.0000
G01 X 11.0566 Y 5.4562 Z -1.0000
G01 X 11.0376 Y 5.4515 Z -1.0000
G01 X 11.0183 Y 5.4474 Z -1.0000
G01 X 11.0111 Y 5.4396 Z -1.0000
G01 X 11.0054 Y 5.4335 Z -1.0000
G01 X 10.9994 Y 5.4346 Z -1.0000
G01 X 10.9971 Y 5.4418 Z -1.0000
G01 X 11.0043 Y 5.4565 Z -1.0000
G01 X 11.0062 Y 5.4704 Z -1.0000
G03 X 10.9865 Y 5.4964 Z -1.0000 I -0.0656 J -0.0293
G02 X 10.9611 Y 5.5398 Z -1.0000 I 0.0469 J 0.0566
G01 X 10.9754 Y 5.5571 Z -1.0000
G01 X 10.9890 Y 5.5514 Z -1.0000
G01 X 10.9946 Y 5.5379 Z -1.0000
G01 X 11.0002 Y 5.5243 Z -1.0000
G01 X 11.0138 Y 5.5187 Z -1.0000
G01 X 11.0277 Y 5.5239 Z -1.0000
G01 X 11.0328 Y 5.5355 Z -1.0000
G03 X 11.0214 Y 5.5690 Z -1.0000 I -0.0564 J -0.0005
G01 X 11.0052 Y 5.5720 Z -1.0000
G01 X 10.9749 Y 5.5720 Z -1.0000
G02 X 10.9515 Y 5.6049 Z -1.0000 I 0.0269 J 0.0440
G01 X 10.9409 Y 5.6244 Z -1.0000
G01 X 10.9300 Y 5.6268 Z -1.0000
G01 X 10.9230 Y 5.6282 Z -1.0000
G01 X 10.9219 Y 5.6345 Z -1.0000
G01 X 10.9093 Y 5.6241 Z -1.0000
G03 X 10.8914 Y 5.5995 Z -1.0000 I 0.1971 J -0.1627
G01 X 10.8893 Y 5.5930 Z -1.0000
G01 X 10.8747 Y 5.5793 Z -1.0000
G01 X 10.8604 Y 5.5943 Z -1.0000
G01 X 10.8571 Y 5.6003 Z -1.0000
G03 X 10.8405 Y 5.6079 Z -1.0000 I -0.0304 J -0.0446
G01 X 10.8246 Y 5.6172 Z -1.0000
G01 X 10.8152 Y 5.6336 Z -1.0000
G01 X 10.8065 Y 5.6474 Z -1.0000
G01 X 10.7968 Y 5.6490 Z -1.0000
G01 X 10.7878 Y 5.6500 Z -1.0000
G01 X 10.7836 Y 5.6580 Z -1.0000
G01 X 10.7802 Y 5.6686 Z -1.0000
G01 X 10.7735 Y 5.6721 Z -1.0000
G01 X 10.7687 Y 5.6690 Z -1.0000
G01 X 10.7691 Y 5.6628 Z -1.0000
G01 X 10.7678 Y 5.6564 Z -1.0000
G02 X 10.7481 Y 5.6475 Z -1.0000 I -0.0313 J 0.0432
G01 X 10.7388 Y 5.6399 Z -1.0000
G01 X 10.7423 Y 5.6345 Z -1.0000
G02 X 10.7801 Y 5.6186 Z -1.0000 I -0.0010 J -0.0555
G01 X 10.7786 Y 5.5988 Z -1.0000
G01 X 10.7729 Y 5.5856 Z -1.0000
G01 X 10.7824 Y 5.5676 Z -1.0000
G02 X 10.7957 Y 5.5498 Z -1.0000 I -0.0342 J -0.0394
G01 X 10.7937 Y 5.5429 Z -1.0000
G01 X 10.7865 Y 5.5351 Z -1.0000
G01 X 10.7836 Y 5.5225 Z -1.0000
G01 X 10.7884 Y 5.5165 Z -1.0000
G01 X 10.8021 Y 5.5183 Z -1.0000
G01 X 10.8301 Y 5.5219 Z -1.0000
G01 X 10.8442 Y 5.5081 Z -1.0000
G01 X 10.8522 Y 5.4949 Z -1.0000
G01 X 10.8597 Y 5.4943 Z -1.0000
G01 X 10.8659 Y 5.4933 Z -1.0000
G01 X 10.8699 Y 5.4826 Z -1.0000
G01 X 10.8744 Y 5.4666 Z -1.0000
G03 X 10.8939 Y 5.4437 Z -1.0000 I 0.0848 J 0.0523
G02 X 10.9123 Y 5.4140 Z -1.0000 I -0.0387 J -0.0445
G01 X 10.9042 Y 5.4036 Z -1.0000
G03 X 10.8909 Y 5.4023 Z -1.0000 I 0.0000 J -0.0687
G03 X 10.8762 Y 5.3980 Z -1.0000 I 0.0170 J -0.0857
G01 X 10.8688 Y 5.4006 Z -1.0000
G01 X 10.8667 Y 5.4148 Z -1.0000
G01 X 10.8558 Y 5.4086 Z -1.0000
G01 X 10.8426 Y 5.4013 Z -1.0000
G01 X 10.8359 Y 5.4098 Z -1.0000
G01 X 10.8260 Y 5.4461 Z -1.0000
G01 X 10.8016 Y 5.4509 Z -1.0000
G01 X 10.7897 Y 5.4511 Z -1.0000
G01 X 10.7861 Y 5.4600 Z -1.0000
G01 X 10.7844 Y 5.4748 Z -1.0000
G01 X 10.7755 Y 5.4803 Z -1.0000
G01 X 10.7622 Y 5.4850 Z -1.0000
G02 X 10.7404 Y 5.5089 Z -1.0000 I 0.0691 J 0.0847
G03 X 10.7187 Y 5.5303 Z -1.0000 I -0.0629 J -0.0421
G01 X 10.7045 Y 5.5322 Z -1.0000
G01 X 10.6938 Y 5.5352 Z -1.0000
G01 X 10.6877 Y 5.5515 Z -1.0000
G01 X 10.6825 Y 5.5710 Z -1.0000
G01 X 10.6738 Y 5.5761 Z -1.0000
G01 X 10.6629 Y 5.5810 Z -1.0000
G02 X 10.6436 Y 5.6103 Z -1.0000 I 0.0947 J 0.0833
G01 X 10.6215 Y 5.6331 Z -1.0000
G03 X 10.5893 Y 5.6380 Z -1.0000 I -0.0236 J -0.0462
G02 X 10.5590 Y 5.6383 Z -1.0000 I -0.0145 J 0.0855
G01 X 10.5554 Y 5.6443 Z -1.0000
G01 X 10.5626 Y 5.6540 Z -1.0000
G02 X 10.5829 Y 5.6636 Z -1.0000 I 0.0384 J -0.0549
G01 X 10.5851 Y 5.6676 Z -1.0000
G01 X 10.5804 Y 5.6711 Z -1.0000
G02 X 10.5566 Y 5.6755 Z -1.0000 I 0.0031 J 0.0823
G01 X 10.5484 Y 5.6821 Z -1.0000
G01 X 10.5412 Y 5.6859 Z -1.0000
G01 X 10.5286 Y 5.6809 Z -1.0000
G01 X 10.5151 Y 5.6759 Z -1.0000
G01 X 10.5022 Y 5.6803 Z -1.0000
G01 X 10.4895 Y 5.6866 Z -1.0000
G01 X 10.4831 Y 5.6847 Z -1.0000
G01 X 10.4768 Y 5.7021 Z -1.0000
G02 X 10.4803 Y 5.7243 Z -1.0000 I 0.0711 J 0.0000
G01 X 10.4883 Y 5.7373 Z -1.0000
G01 X 10.4931 Y 5.7487 Z -1.0000
G01 X 10.4883 Y 5.7603 Z -1.0000
G01 X 10.4814 Y 5.7606 Z -1.0000
G01 X 10.4768 Y 5.7507 Z -1.0000
G01 X 10.4702 Y 5.7361 Z -1.0000
G01 X 10.4528 Y 5.7296 Z -1.0000
G03 X 10.4323 Y 5.7261 Z -1.0000 I 0.0000 J -0.0614
G01 X 10.4288 Y 5.7211 Z -1.0000
G01 X 10.4257 Y 5.7150 Z -1.0000
G01 X 10.4096 Y 5.7076 Z -1.0000
G01 X 10.3939 Y 5.6999 Z -1.0000
G01 X 10.3904 Y 5.6930 Z -1.0000
G01 X 10.3942 Y 5.6882 Z -1.0000
G01 X 10.4096 Y 5.6884 Z -1.0000
G01 X 10.4223 Y 5.6850 Z -1.0000
G01 X 10.4288 Y 5.6695 Z -1.0000
G02 X 10.4246 Y 5.6475 Z -1.0000 I -0.0588 J -0.0000
G01 X 10.4144 Y 5.6336 Z -1.0000
G01 X 10.4033 Y 5.6287 Z -1.0000
G01 X 10.4000 Y 5.6315 Z -1.0000
G01 X 10.3962 Y 5.6363 Z -1.0000
G01 X 10.3796 Y 5.6360 Z -1.0000
G01 X 10.3665 Y 5.6375 Z -1.0000
G01 X 10.3639 Y 5.6441 Z -1.0000
G01 X 10.3654 Y 5.6574 Z -1.0000
G01 X 10.3604 Y 5.6738 Z -1.0000
G01 X 10.3573 Y 5.6884 Z -1.0000
G01 X 10.3619 Y 5.6960 Z -1.0000
G01 X 10.3673 Y 5.7031 Z -1.0000
G01 X 10.3662 Y 5.7110 Z -1.0000
G01 X 10.3660 Y 5.7169 Z -1.0000
G01 X 10.3708 Y 5.7199 Z -1.0000
G01 X 10.3792 Y 5.7297 Z -1.0000
G01 X 10.3668 Y 5.7451 Z -1.0000
G01 X 10.3537 Y 5.7453 Z -1.0000
G01 X 10.3373 Y 5.7352 Z -1.0000
G02 X 10.3050 Y 5.7176 Z -1.0000 I -0.0460 J 0.0460
G01 X 10.2946 Y 5.7260 Z -1.0000
G01 X 10.2966 Y 5.7312 Z -1.0000
G02 X 10.3114 Y 5.7448 Z -1.0000 I 0.0795 J -0.0712
G01 X 10.3157 Y 5.7535 Z -1.0000
G01 X 10.3114 Y 5.7579 Z -1.0000
G01 X 10.2981 Y 5.7616 Z -1.0000
G01 X 10.2946 Y 5.7676 Z -1.0000
G01 X 10.3132 Y 5.7896 Z -1.0000
G02 X 10.3562 Y 5.7780 Z -1.0000 I 0.0089 J -0.0527
G01 X 10.3686 Y 5.7731 Z -1.0000
G01 X 10.3758 Y 5.7769 Z -1.0000
G01 X 10.3899 Y 5.7801 Z -1.0000
G01 X 10.4001 Y 5.7615 Z -1.0000
G01 X 10.4064 Y 5.7503 Z -1.0000
G01 X 10.4171 Y 5.7514 Z -1.0000
G02 X 10.4352 Y 5.7649 Z -1.0000 I 0.0784 J -0.0857
G02 X 10.4578 Y 5.7762 Z -1.0000 I 0.0790 J -0.1302
G01 X 10.4660 Y 5.7863 Z -1.0000
G01 X 10.4550 Y 5.7923 Z -1.0000
G02 X 10.4446 Y 5.8163 Z -1.0000 I 0.0507 J 0.0363
G03 X 10.4355 Y 5.8383 Z -1.0000 I -0.0607 J -0.0123
G01 X 10.4290 Y 5.8397 Z -1.0000
G01 X 10.4230 Y 5.8403 Z -1.0000
G01 X 10.4193 Y 5.8487 Z -1.0000
G01 X 10.4159 Y 5.8603 Z -1.0000
G01 X 10.4097 Y 5.8637 Z -1.0000
G01 X 10.4039 Y 5.8675 Z -1.0000
G01 X 10.4001 Y 5.8861 Z -1.0000
G01 X 10.3920 Y 5.9007 Z -1.0000
G03 X 10.3617 Y 5.9100 Z -1.0000 I -0.0327 J -0.0524
G03 X 10.3298 Y 5.9049 Z -1.0000 I -0.0033 J -0.0820
G01 X 10.3234 Y 5.8957 Z -1.0000
G01 X 10.3184 Y 5.8911 Z -1.0000
G01 X 10.3041 Y 5.8973 Z -1.0000
G03 X 10.2850 Y 5.9099 Z -1.0000 I -0.0499 J -0.0550
G01 X 10.2790 Y 5.9088 Z -1.0000
G01 X 10.2766 Y 5.8894 Z -1.0000
G03 X 10.3064 Y 5.8633 Z -1.0000 I 0.0559 J 0.0338
G01 X 10.2778 Y 5.8573 Z -1.0000
G03 X 10.2404 Y 5.8542 Z -1.0000 I -0.0087 J -0.1246
G01 X 10.2382 Y 5.8479 Z -1.0000
G01 X 10.2383 Y 5.8399 Z -1.0000
G01 X 10.2280 Y 5.8349 Z -1.0000
G03 X 10.2077 Y 5.8324 Z -1.0000 I -0.0000 J -0.0832
G03 X 10.1885 Y 5.8250 Z -1.0000 I 0.0210 J -0.0833
G01 X 10.1747 Y 5.8230 Z -1.0000
G01 X 10.1700 Y 5.8288 Z -1.0000
G01 X 10.1660 Y 5.8398 Z -1.0000
G01 X 10.1534 Y 5.8488 Z -1.0000
G01 X 10.1475 Y 5.8562 Z -1.0000
G01 X 10.1510 Y 5.8641 Z -1.0000
G01 X 10.1714 Y 5.8698 Z -1.0000
G01 X 10.1748 Y 5.8637 Z -1.0000
G01 X 10.1779 Y 5.8588 Z -1.0000
G03 X 10.2134 Y 5.8680 Z -1.0000 I -0.0143 J 0.1286
G03 X 10.2431 Y 5.8843 Z -1.0000 I -0.0596 J 0.1433
G01 X 10.2467 Y 5.8913 Z -1.0000
G01 X 10.2352 Y 5.9193 Z -1.0000
G01 X 10.2076 Y 5.9309 Z -1.0000
G01 X 10.2019 Y 5.9340 Z -1.0000
G01 X 10.1987 Y 5.9449 Z -1.0000
G03 X 10.1775 Y 5.9959 Z -1.0000 I -0.0720 J -0.0000
G03 X 10.1261 Y 6.0172 Z -1.0000 I -0.0514 J -0.0517
G01 X 10.1177 Y 6.0115 Z -1.0000
G01 X 10.1164 Y 5.9932 Z -1.0000
G01 X 10.1155 Y 5.9746 Z -1.0000
G01 X 10.1079 Y 5.9692 Z -1.0000
G01 X 10.0977 Y 5.9648 Z -1.0000
G01 X 10.0933 Y 5.9538 Z -1.0000
G01 X 10.0980 Y 5.9452 Z -1.0000
G01 X 10.1085 Y 5.9442 Z -1.0000
G02 X 10.1238 Y 5.9494 Z -1.0000 I 0.0761 J -0.1975
G01 X 10.1277 Y 5.9500 Z -1.0000
G01 X 10.1317 Y 5.9707 Z -1.0000
G01 X 10.1374 Y 5.9784 Z -1.0000
G01 X 10.1488 Y 5.9759 Z -1.0000
G02 X 10.1621 Y 5.9586 Z -1.0000 I -0.0412 J -0.0456
G01 X 10.1675 Y 5.9399 Z -1.0000
G01 X 10.1730 Y 5.9215 Z -1.0000
G01 X 10.1863 Y 5.9062 Z -1.0000
G01 X 10.1914 Y 5.8971 Z -1.0000
G01 X 10.1876 Y 5.8928 Z -1.0000
G01 X 10.1741 Y 5.8962 Z -1.0000
G01 X 10.1668 Y 5.9045 Z -1.0000
G01 X 10.1610 Y 5.9086 Z -1.0000
G01 X 10.1538 Y 5.9051 Z -1.0000
G01 X 10.1440 Y 5.8958 Z -1.0000
G02 X 10.1212 Y 5.8844 Z -1.0000 I -0.0675 J 0.1064
G01 X 10.0995 Y 5.8831 Z -1.0000
G01 X 10.0855 Y 5.8933 Z -1.0000
G02 X 10.0760 Y 5.9120 Z -1.0000 I 0.1017 J 0.0631
G01 X 10.0741 Y 5.9218 Z -1.0000
G01 X 10.0632 Y 5.9487 Z -1.0000
G01 X 10.0372 Y 5.9596 Z -1.0000
G01 X 10.0298 Y 5.9568 Z -1.0000
G01 X 10.0236 Y 5.9476 Z -1.0000
G01 X 10.0177 Y 5.9452 Z -1.0000
G02 X 9.9999 Y 5.9593 Z -1.0000 I 0.0238 J 0.0483
G02 X 9.9853 Y 5.9838 Z -1.0000 I 0.0737 J 0.0607
G01 X 9.9851 Y 5.9953 Z -1.0000
G01 X 9.9826 Y 6.0026 Z -1.0000
G01 X 9.9649 Y 6.0076 Z -1.0000
G01 X 9.9471 Y 6.0148 Z -1.0000
G01 X 9.9399 Y 6.0318 Z -1.0000
G01 X 9.9322 Y 6.0418 Z -1.0000
G01 X 9.9138 Y 6.0390 Z -1.0000
G01 X 9.9047 Y 6.0257 Z -1.0000
G01 X 9.9096 Y 6.0188 Z -1.0000
G01 X 9.9254 Y 6.0120 Z -1.0000
G01 X 9.9276 Y 6.0044 Z -1.0000
G01 X 9.8900 Y 5.9769 Z -1.0000
G01 X 9.8631 Y 6.0033 Z -1.0000
G01 X 9.8601 Y 6.0128 Z -1.0000
G03 X 9.8425 Y 6.0324 Z -1.0000 I -0.0942 J -0.0671
G01 X 9.8313 Y 6.0350 Z -1.0000
G01 X 9.8274 Y 6.0282 Z -1.0000
G01 X 9.8207 Y 5.9962 Z -1.0000
G01 X 9.7976 Y 5.9897 Z -1.0000
G03 X 9.7716 Y 5.9981 Z -1.0000 I -0.0907 J -0.2360
G03 X 9.7362 Y 6.0060 Z -1.0000 I -0.1131 J -0.4271
G01 X 9.7155 Y 6.0198 Z -1.0000
G01 X 9.7146 Y 6.0398 Z -1.0000
G03 X 9.7275 Y 6.0914 Z -1.0000 I -0.1016 J 0.0528
G01 X 9.7154 Y 6.1093 Z -1.0000
G01 X 9.7051 Y 6.1174 Z -1.0000
G02 X 9.6961 Y 6.1374 Z -1.0000 I 0.0511 J 0.0351
G01 X 9.6867 Y 6.1533 Z -1.0000
G01 X 9.6769 Y 6.1552 Z -1.0000
G01 X 9.6666 Y 6.1564 Z -1.0000
G01 X 9.6577 Y 6.1684 Z -1.0000
G03 X 9.6027 Y 6.2517 Z -1.0000 I -0.1747 J -0.0555
G01 X 9.5754 Y 6.2393 Z -1.0000
G01 X 9.5725 Y 6.2332 Z -1.0000
G02 X 9.5515 Y 6.2203 Z -1.0000 I -0.0632 J 0.0796
G01 X 9.5368 Y 6.2227 Z -1.0000
G01 X 9.5299 Y 6.2403 Z -1.0000
G03 X 9.5268 Y 6.2651 Z -1.0000 I -0.0625 J 0.0049
G01 X 9.5203 Y 6.2689 Z -1.0000
G01 X 9.5116 Y 6.2791 Z -1.0000
G01 X 9.5324 Y 6.3016 Z -1.0000
G01 X 9.5490 Y 6.3013 Z -1.0000
G01 X 9.5563 Y 6.2896 Z -1.0000
G01 X 9.5663 Y 6.2725 Z -1.0000
G01 X 9.5802 Y 6.2761 Z -1.0000
G01 X 9.5939 Y 6.2809 Z -1.0000
G01 X 9.6070 Y 6.2665 Z -1.0000
G01 X 9.6145 Y 6.2506 Z -1.0000
G01 X 9.6210 Y 6.2473 Z -1.0000
G01 X 9.6406 Y 6.2597 Z -1.0000
G03 X 9.6518 Y 6.3125 Z -1.0000 I -0.1058 J 0.0501
G01 X 9.6373 Y 6.2962 Z -1.0000
G01 X 9.6288 Y 6.2959 Z -1.0000
G01 X 9.6274 Y 6.3152 Z -1.0000
G03 X 9.6401 Y 6.3565 Z -1.0000 I -0.6282 J 0.2164
G01 X 9.6394 Y 6.3592 Z -1.0000
G01 X 9.6366 Y 6.3607 Z -1.0000
G03 X 9.5967 Y 6.3680 Z -1.0000 I -0.2023 J -0.9946
G03 X 9.5655 Y 6.3636 Z -1.0000 I -0.0085 J -0.0533
G01 X 9.5563 Y 6.3492 Z -1.0000
G01 X 9.5472 Y 6.3331 Z -1.0000
G02 X 9.5143 Y 6.3240 Z -1.0000 I -0.0329 J 0.0548
G02 X 9.4612 Y 6.3404 Z -1.0000 I -0.0000 J 0.0941
G01 X 9.4563 Y 6.3636 Z -1.0000
G01 X 9.4551 Y 6.3683 Z -1.0000
G01 X 9.4468 Y 6.3688 Z -1.0000
G02 X 9.4298 Y 6.3634 Z -1.0000 I -0.0573 J 0.1507
G01 X 9.4219 Y 6.3624 Z -1.0000
G01 X 9.4159 Y 6.3594 Z -1.0000
G03 X 9.4076 Y 6.3432 Z -1.0000 I 0.0439 J -0.0327
G01 X 9.3932 Y 6.3297 Z -1.0000
G01 X 9.3836 Y 6.3372 Z -1.0000
G01 X 9.3805 Y 6.3490 Z -1.0000
G01 X 9.3693 Y 6.3624 Z -1.0000
G01 X 9.3590 Y 6.3763 Z -1.0000
G02 X 9.3549 Y 6.3965 Z -1.0000 I 0.0481 J 0.0203
G03 X 9.3513 Y 6.4168 Z -1.0000 I -0.0590 J 0.0000
G01 X 9.3444 Y 6.4253 Z -1.0000
G01 X 9.3384 Y 6.4338 Z -1.0000
G02 X 9.3383 Y 6.4546 Z -1.0000 I 0.0519 J 0.0109
G01 X 9.3339 Y 6.4702 Z -1.0000
G01 X 9.3176 Y 6.4773 Z -1.0000
G03 X 9.2810 Y 6.4616 Z -1.0000 I 0.0003 J -0.0513
G01 X 9.2763 Y 6.4345 Z -1.0000
G01 X 9.2774 Y 6.4103 Z -1.0000
G01 X 9.2634 Y 6.3983 Z -1.0000
G01 X 9.2441 Y 6.3987 Z -1.0000
G01 X 9.2429 Y 6.4155 Z -1.0000
G03 X 9.2038 Y 6.4292 Z -1.0000 I -0.0408 J -0.0539
G01 X 9.1957 Y 6.4255 Z -1.0000
G01 X 9.1919 Y 6.4151 Z -1.0000
G01 X 9.1890 Y 6.4036 Z -1.0000
G01 X 9.1843 Y 6.4007 Z -1.0000
G01 X 9.1422 Y 6.4252 Z -1.0000
G01 X 9.1476 Y 6.4652 Z -1.0000
G01 X 9.1449 Y 6.5033 Z -1.0000
G03 X 9.0876 Y 6.5103 Z -1.0000 I -0.0347 J -0.0461
G02 X 9.0510 Y 6.5031 Z -1.0000 I -0.0353 J 0.0826
G01 X 9.0384 Y 6.5110 Z -1.0000
G01 X 9.0405 Y 6.5168 Z -1.0000
G02 X 9.0659 Y 6.5237 Z -1.0000 I 0.0330 J -0.0718
G01 X 9.0793 Y 6.5318 Z -1.0000
G01 X 9.0775 Y 6.5413 Z -1.0000
G01 X 9.0570 Y 6.5488 Z -1.0000
G01 X 9.0432 Y 6.5446 Z -1.0000
G01 X 9.0293 Y 6.5378 Z -1.0000
G01 X 9.0197 Y 6.5395 Z -1.0000
G01 X 9.0139 Y 6.5381 Z -1.0000
G01 X 9.0097 Y 6.5235 Z -1.0000
G01 X 9.0254 Y 6.4930 Z -1.0000
G03 X 9.0735 Y 6.4774 Z -1.0000 I 0.0482 J 0.0667
G01 X 9.0955 Y 6.4633 Z -1.0000
G02 X 9.0991 Y 6.4214 Z -1.0000 I -0.0570 J -0.0260
G01 X 9.1027 Y 6.4076 Z -1.0000
G01 X 9.1188 Y 6.4007 Z -1.0000
G02 X 9.1396 Y 6.3965 Z -1.0000 I -0.0000 J -0.0532
G01 X 9.1439 Y 6.3900 Z -1.0000
G01 X 9.1396 Y 6.3844 Z -1.0000
G01 X 9.1199 Y 6.3839 Z -1.0000
G01 X 9.1021 Y 6.3811 Z -1.0000
G01 X 9.0959 Y 6.3706 Z -1.0000
G01 X 9.1024 Y 6.3592 Z -1.0000
G01 X 9.1258 Y 6.3528 Z -1.0000
G01 X 9.1463 Y 6.3455 Z -1.0000
G01 X 9.1505 Y 6.3329 Z -1.0000
G01 X 9.1512 Y 6.3146 Z -1.0000
G03 X 9.1638 Y 6.2945 Z -1.0000 I 0.0499 J 0.0173
G01 X 9.1644 Y 6.2834 Z -1.0000
G01 X 9.1490 Y 6.2760 Z -1.0000
G02 X 9.1195 Y 6.2823 Z -1.0000 I 0.0000 J 0.0730
G01 X 9.1055 Y 6.2952 Z -1.0000
G01 X 9.1007 Y 6.3144 Z -1.0000
G01 X 9.0944 Y 6.3360 Z -1.0000
G02 X 9.0861 Y 6.3583 Z -1.0000 I 0.0719 J 0.0395
G02 X 9.0851 Y 6.3791 Z -1.0000 I 0.0620 J 0.0133
G01 X 9.0733 Y 6.3984 Z -1.0000
G01 X 9.0556 Y 6.3899 Z -1.0000
G01 X 9.0492 Y 6.3845 Z -1.0000
G01 X 9.0295 Y 6.3862 Z -1.0000
G01 X 9.0187 Y 6.3950 Z -1.0000
G01 X 9.0204 Y 6.4024 Z -1.0000
G01 X 9.0025 Y 6.4054 Z -1.0000
G02 X 8.9580 Y 6.4123 Z -1.0000 I -0.0127 J 0.0649
G01 X 8.9425 Y 6.4384 Z -1.0000
G01 X 8.9396 Y 6.4458 Z -1.0000
G01 X 8.9329 Y 6.4487 Z -1.0000
G01 X 8.9268 Y 6.4521 Z -1.0000
G01 X 8.9233 Y 6.4641 Z -1.0000
G01 X 8.9276 Y 6.4732 Z -1.0000
G01 X 8.9362 Y 6.4746 Z -1.0000
G01 X 8.9486 Y 6.4734 Z -1.0000
G01 X 8.9626 Y 6.4793 Z -1.0000
G01 X 8.9593 Y 6.4835 Z -1.0000
G01 X 8.9489 Y 6.4869 Z -1.0000
G01 X 8.9425 Y 6.5063 Z -1.0000
G01 X 8.9480 Y 6.5265 Z -1.0000
G01 X 8.9559 Y 6.5293 Z -1.0000
G01 X 8.9749 Y 6.5364 Z -1.0000
G01 X 8.9701 Y 6.5559 Z -1.0000
G01 X 8.9988 Y 6.5586 Z -1.0000
G03 X 9.0327 Y 6.5590 Z -1.0000 I 0.0157 J 0.1037
G01 X 9.0364 Y 6.5652 Z -1.0000
G01 X 9.0281 Y 6.5728 Z -1.0000
G03 X 8.9812 Y 6.5782 Z -1.0000 I -0.0468 J -0.1986
G02 X 8.9345 Y 6.5857 Z -1.0000 I 0.0000 J 0.1486
G01 X 8.9161 Y 6.5998 Z -1.0000
G01 X 8.8939 Y 6.6136 Z -1.0000
G01 X 8.8706 Y 6.6057 Z -1.0000
G01 X 8.8550 Y 6.5975 Z -1.0000
G01 X 8.8441 Y 6.6009 Z -1.0000
G01 X 8.8319 Y 6.6086 Z -1.0000
G03 X 8.8135 Y 6.6118 Z -1.0000 I -0.0184 J -0.0518
G01 X 8.7986 Y 6.6184 Z -1.0000
G02 X 8.7831 Y 6.6459 Z -1.0000 I 0.0561 J 0.0499
G02 X 8.7793 Y 6.6727 Z -1.0000 I 0.0798 J 0.0250
G01 X 8.7837 Y 6.6756 Z -1.0000
G01 X 8.7894 Y 6.6784 Z -1.0000
G01 X 8.7910 Y 6.6990 Z -1.0000
G01 X 8.7797 Y 6.7081 Z -1.0000
G01 X 8.7699 Y 6.6976 Z -1.0000
G01 X 8.7639 Y 6.6830 Z -1.0000
G02 X 8.7387 Y 6.6658 Z -1.0000 I -0.0553 J 0.0543
G02 X 8.7091 Y 6.6618 Z -1.0000 I -0.0223 J 0.0528
G01 X 8.6855 Y 6.6727 Z -1.0000
G01 X 8.6749 Y 6.6922 Z -1.0000
G01 X 8.6801 Y 6.7050 Z -1.0000
G01 X 8.7027 Y 6.7130 Z -1.0000
G01 X 8.7066 Y 6.7062 Z -1.0000
G01 X 8.7071 Y 6.7025 Z -1.0000
G01 X 8.7109 Y 6.7020 Z -1.0000
G01 X 8.7231 Y 6.7225 Z -1.0000
G03 X 8.7163 Y 6.7902 Z -1.0000 I -0.2109 J 0.0129
G01 X 8.7059 Y 6.8041 Z -1.0000
G01 X 8.6818 Y 6.8112 Z -1.0000
G02 X 8.6538 Y 6.8143 Z -1.0000 I 0.0049 J 0.1730
G01 X 8.6469 Y 6.8180 Z -1.0000
G01 X 8.6498 Y 6.8335 Z -1.0000
G02 X 8.6903 Y 6.8373 Z -1.0000 I 0.0260 J -0.0584
G01 X 8.7054 Y 6.8417 Z -1.0000
G01 X 8.7176 Y 6.8653 Z -1.0000
G01 X 8.7005 Y 6.9031 Z -1.0000
G01 X 8.6583 Y 6.9003 Z -1.0000
G01 X 8.6472 Y 6.8827 Z -1.0000
G01 X 8.6520 Y 6.8718 Z -1.0000
G01 X 8.6559 Y 6.8653 Z -1.0000
G01 X 8.6524 Y 6.8615 Z -1.0000
G01 X 8.6423 Y 6.8547 Z -1.0000
G03 X 8.6356 Y 6.8225 Z -1.0000 I 0.0747 J -0.0322
G01 X 8.6278 Y 6.7969 Z -1.0000
G01 X 8.6164 Y 6.7941 Z -1.0000
G01 X 8.6015 Y 6.8069 Z -1.0000
G01 X 8.5973 Y 6.8195 Z -1.0000
G01 X 8.5921 Y 6.8281 Z -1.0000
G01 X 8.5781 Y 6.8297 Z -1.0000
G01 X 8.5624 Y 6.8292 Z -1.0000
G01 X 8.5589 Y 6.8334 Z -1.0000
G01 X 8.5558 Y 6.8390 Z -1.0000
G01 X 8.5446 Y 6.8421 Z -1.0000
G01 X 8.5360 Y 6.8472 Z -1.0000
G01 X 8.5326 Y 6.8637 Z -1.0000
G01 X 8.5275 Y 6.8788 Z -1.0000
G01 X 8.5109 Y 6.8864 Z -1.0000
G02 X 8.4464 Y 6.8989 Z -1.0000 I 0.0106 J 0.2262
G01 X 8.4477 Y 6.9086 Z -1.0000
G01 X 8.4390 Y 6.9284 Z -1.0000
G01 X 8.4315 Y 6.9433 Z -1.0000
G01 X 8.4351 Y 6.9477 Z -1.0000
G01 X 8.4480 Y 6.9499 Z -1.0000
G03 X 8.4626 Y 6.9567 Z -1.0000 I -0.0199 J 0.0611
G01 X 8.4673 Y 6.9669 Z -1.0000
G01 X 8.4587 Y 6.9854 Z -1.0000
G01 X 8.4575 Y 6.9977 Z -1.0000
G01 X 8.4706 Y 7.0051 Z -1.0000
G01 X 8.4877 Y 7.0141 Z -1.0000
G01 X 8.4903 Y 7.0339 Z -1.0000
G03 X 8.4779 Y 7.0593 Z -1.0000 I -0.1115 J -0.0389
G01 X 8.4717 Y 7.0627 Z -1.0000
G01 X 8.4664 Y 7.0660 Z -1.0000
G01 X 8.4630 Y 7.0808 Z -1.0000
G01 X 8.4568 Y 7.0935 Z -1.0000
G01 X 8.4345 Y 7.1030 Z -1.0000
G03 X 8.4084 Y 7.1026 Z -1.0000 I -0.0117 J -0.0798
G01 X 8.4009 Y 7.0969 Z -1.0000
G01 X 8.3960 Y 7.0944 Z -1.0000
G01 X 8.3903 Y 7.0986 Z -1.0000
G01 X 8.3826 Y 7.1074 Z -1.0000
G01 X 8.3716 Y 7.1106 Z -1.0000
G01 X 8.3606 Y 7.1143 Z -1.0000
G02 X 8.3438 Y 7.1318 Z -1.0000 I 0.0470 J 0.0620
G01 X 8.3281 Y 7.1439 Z -1.0000
G01 X 8.3176 Y 7.1416 Z -1.0000
G01 X 8.3141 Y 7.1300 Z -1.0000
G01 X 8.3237 Y 7.1108 Z -1.0000
G03 X 8.3428 Y 7.0949 Z -1.0000 I 0.0671 J 0.0608
G01 X 8.3548 Y 7.0914 Z -1.0000
G01 X 8.3620 Y 7.0879 Z -1.0000
G01 X 8.3623 Y 7.0818 Z -1.0000
G01 X 8.3544 Y 7.0757 Z -1.0000
G02 X 8.3318 Y 7.0722 Z -1.0000 I -0.0227 J 0.0723
G01 X 8.3169 Y 7.0642 Z -1.0000
G01 X 8.3129 Y 7.0434 Z -1.0000
G01 X 8.3104 Y 7.0214 Z -1.0000
G01 X 8.3000 Y 7.0147 Z -1.0000
G01 X 8.2885 Y 7.0098 Z -1.0000
G01 X 8.2866 Y 7.0010 Z -1.0000
G01 X 8.2842 Y 6.9942 Z -1.0000
G01 X 8.2720 Y 6.9925 Z -1.0000
G01 X 8.2568 Y 7.0057 Z -1.0000
G01 X 8.2627 Y 7.0146 Z -1.0000
G01 X 8.2682 Y 7.0190 Z -1.0000
G01 X 8.2687 Y 7.0394 Z -1.0000
G01 X 8.2697 Y 7.0610 Z -1.0000
G01 X 8.2772 Y 7.0692 Z -1.0000
G01 X 8.2877 Y 7.0761 Z -1.0000
G01 X 8.2904 Y 7.0828 Z -1.0000
G01 X 8.2737 Y 7.0984 Z -1.0000
G01 X 8.2499 Y 7.0800 Z -1.0000
G01 X 8.2434 Y 7.0746 Z -1.0000
G01 X 8.2275 Y 7.0767 Z -1.0000
G01 X 8.2233 Y 7.0834 Z -1.0000
G01 X 8.2280 Y 7.0891 Z -1.0000
G01 X 8.2522 Y 7.1041 Z -1.0000
G01 X 8.2613 Y 7.1297 Z -1.0000
G01 X 8.2582 Y 7.1334 Z -1.0000
G01 X 8.2531 Y 7.1312 Z -1.0000
G01 X 8.2469 Y 7.1302 Z -1.0000
G01 X 8.2387 Y 7.1432 Z -1.0000
G01 X 8.2284 Y 7.1628 Z -1.0000
G01 X 8.2166 Y 7.1681 Z -1.0000
G01 X 8.2020 Y 7.1713 Z -1.0000
G02 X 8.1846 Y 7.1827 Z -1.0000 I 0.0285 J 0.0622
G01 X 8.1691 Y 7.1885 Z -1.0000
G01 X 8.1558 Y 7.1821 Z -1.0000
G01 X 8.1456 Y 7.1553 Z -1.0000
G03 X 8.1517 Y 7.0698 Z -1.0000 I 0.3977 J -0.0145
G02 X 8.1522 Y 7.0388 Z -1.0000 I -0.0939 J -0.0170
G01 X 8.1464 Y 7.0338 Z -1.0000
G01 X 8.1404 Y 7.0386 Z -1.0000
G02 X 8.1403 Y 7.0626 Z -1.0000 I 0.0582 J 0.0123
G03 X 8.1412 Y 7.0874 Z -1.0000 I -0.0758 J 0.0152
G01 X 8.1367 Y 7.0914 Z -1.0000
G01 X 8.1315 Y 7.0955 Z -1.0000
G02 X 8.1274 Y 7.1291 Z -1.0000 I 0.1357 J 0.0336
G03 X 8.1139 Y 7.2049 Z -1.0000 I -0.2206 J 0.0000
G01 X 8.0975 Y 7.2106 Z -1.0000
G01 X 8.0881 Y 7.2096 Z -1.0000
G01 X 8.0785 Y 7.2172 Z -1.0000
G01 X 8.0748 Y 7.2372 Z -1.0000
G01 X 8.0842 Y 7.2448 Z -1.0000
G01 X 8.0971 Y 7.2482 Z -1.0000
G03 X 8.1180 Y 7.2642 Z -1.0000 I -0.0490 J 0.0856
G01 X 8.1288 Y 7.2848 Z -1.0000
G01 X 8.1254 Y 7.3050 Z -1.0000
G01 X 8.1167 Y 7.3070 Z -1.0000
G01 X 8.1073 Y 7.2927 Z -1.0000
G01 X 8.1033 Y 7.2898 Z -1.0000
G01 X 8.0999 Y 7.2935 Z -1.0000
G03 X 8.0959 Y 7.3267 Z -1.0000 I -0.2039 J -0.0075
G01 X 8.0914 Y 7.3351 Z -1.0000
G02 X 8.0730 Y 7.3798 Z -1.0000 I 0.0449 J 0.0447
G01 X 8.0914 Y 7.3982 Z -1.0000
G01 X 8.0960 Y 7.4008 Z -1.0000
G01 X 8.0986 Y 7.4099 Z -1.0000
G01 X 8.0949 Y 7.4127 Z -1.0000
G01 X 8.0827 Y 7.4057 Z -1.0000
G03 X 8.0600 Y 7.3579 Z -1.0000 I 0.0558 J -0.0558
G03 X 8.0733 Y 7.3131 Z -1.0000 I 0.0613 J -0.0063
G01 X 8.0798 Y 7.2742 Z -1.0000
G01 X 8.0524 Y 7.2546 Z -1.0000
G01 X 8.0460 Y 7.2591 Z -1.0000
G01 X 8.0458 Y 7.2736 Z -1.0000
G01 X 8.0436 Y 7.2867 Z -1.0000
G01 X 8.0315 Y 7.2928 Z -1.0000
G02 X 8.0116 Y 7.2953 Z -1.0000 I 0.0000 J 0.0783
G02 X 7.9917 Y 7.3031 Z -1.0000 I 0.0235 J 0.0896
G01 X 7.9837 Y 7.3155 Z -1.0000
G01 X 7.9895 Y 7.3325 Z -1.0000
G01 X 7.9988 Y 7.3521 Z -1.0000
G01 X 7.9952 Y 7.3697 Z -1.0000
G02 X 7.9881 Y 7.3884 Z -1.0000 I 0.0443 J 0.0276
G01 X 7.9895 Y 7.4027 Z -1.0000
G01 X 7.9922 Y 7.4175 Z -1.0000
G01 X 7.9895 Y 7.4323 Z -1.0000
G01 X 7.9810 Y 7.4395 Z -1.0000
G01 X 7.9653 Y 7.4372 Z -1.0000
G01 X 7.9493 Y 7.4339 Z -1.0000
G01 X 7.9425 Y 7.4392 Z -1.0000
G01 X 7.9362 Y 7.4427 Z -1.0000
G01 X 7.9187 Y 7.4337 Z -1.0000
G03 X 7.8967 Y 7.3963 Z -1.0000 I 0.0468 J -0.0528
G01 X 7.9033 Y 7.3646 Z -1.0000
G01 X 7.9111 Y 7.3630 Z -1.0000
G01 X 7.9164 Y 7.3726 Z -1.0000
G01 X 7.9285 Y 7.3897 Z -1.0000
G01 X 7.9506 Y 7.3847 Z -1.0000
G01 X 7.9585 Y 7.3557 Z -1.0000
G01 X 7.9393 Y 7.3408 Z -1.0000
G01 X 7.9292 Y 7.3376 Z -1.0000
G01 X 7.9260 Y 7.3312 Z -1.0000
G01 X 7.9226 Y 7.3250 Z -1.0000
G01 X 7.9116 Y 7.3216 Z -1.0000
G01 X 7.9008 Y 7.3181 Z -1.0000
G01 X 7.8972 Y 7.3109 Z -1.0000
G01 X 7.8937 Y 7.3077 Z -1.0000
G01 X 7.8824 Y 7.3124 Z -1.0000
G01 X 7.8748 Y 7.3250 Z -1.0000
G01 X 7.8776 Y 7.3346 Z -1.0000
G01 X 7.8815 Y 7.3511 Z -1.0000
G01 X 7.8692 Y 7.3600 Z -1.0000
G01 X 7.8540 Y 7.3656 Z -1.0000
G02 X 7.8301 Y 7.3935 Z -1.0000 I 0.0779 J 0.0909
G03 X 7.8072 Y 7.4234 Z -1.0000 I -0.1580 J -0.0977
G01 X 7.7981 Y 7.4274 Z -1.0000
G01 X 7.8049 Y 7.4413 Z -1.0000
G01 X 7.8131 Y 7.4577 Z -1.0000
G03 X 7.8054 Y 7.5033 Z -1.0000 I -0.1316 J 0.0011
G03 X 7.7824 Y 7.5440 Z -1.0000 I -0.1311 J -0.0472
G01 X 7.7661 Y 7.5518 Z -1.0000
G01 X 7.7547 Y 7.5450 Z -1.0000
G01 X 7.7541 Y 7.5299 Z -1.0000
G02 X 7.7588 Y 7.5079 Z -1.0000 I -0.0474 J -0.0216
G02 X 7.7538 Y 7.4809 Z -1.0000 I -0.0775 J 0.0006
G01 X 7.7404 Y 7.4656 Z -1.0000
G01 X 7.7278 Y 7.4668 Z -1.0000
G01 X 7.7201 Y 7.4656 Z -1.0000
G01 X 7.7166 Y 7.4497 Z -1.0000
G01 X 7.7147 Y 7.4274 Z -1.0000
G01 X 7.7084 Y 7.4243 Z -1.0000
G01 X 7.6995 Y 7.4347 Z -1.0000
G02 X 7.6956 Y 7.4827 Z -1.0000 I 0.1746 J 0.0382
G03 X 7.6930 Y 7.5129 Z -1.0000 I -0.1064 J 0.0059
G01 X 7.6846 Y 7.5298 Z -1.0000
G01 X 7.6760 Y 7.5467 Z -1.0000
G02 X 7.6719 Y 7.5796 Z -1.0000 I 0.1285 J 0.0329
G03 X 7.6661 Y 7.6085 Z -1.0000 I -0.0754 J 0.0000
G01 X 7.6575 Y 7.6144 Z -1.0000
G02 X 7.6436 Y 7.6165 Z -1.0000 I 0.0009 J 0.0525
G01 X 7.6312 Y 7.6221 Z -1.0000
G01 X 7.6016 Y 7.6174 Z -1.0000
G03 X 7.5706 Y 7.5495 Z -1.0000 I 0.1086 J -0.0906
G01 X 7.5628 Y 7.5435 Z -1.0000
G03 X 7.5547 Y 7.5731 Z -1.0000 I -0.0667 J -0.0023
G01 X 7.5400 Y 7.5853 Z -1.0000
G01 X 7.5375 Y 7.5914 Z -1.0000
G01 X 7.5472 Y 7.5988 Z -1.0000
G01 X 7.5581 Y 7.6079 Z -1.0000
G01 X 7.5550 Y 7.6169 Z -1.0000
G03 X 7.5335 Y 7.6262 Z -1.0000 I -0.0581 J -0.1046
G01 X 7.5190 Y 7.6285 Z -1.0000
G01 X 7.5083 Y 7.6328 Z -1.0000
G01 X 7.5040 Y 7.6429 Z -1.0000
G01 X 7.5089 Y 7.6525 Z -1.0000
G01 X 7.5235 Y 7.6573 Z -1.0000
G01 X 7.5400 Y 7.6529 Z -1.0000
G01 X 7.5485 Y 7.6429 Z -1.0000
G01 X 7.5662 Y 7.6338 Z -1.0000
G01 X 7.5766 Y 7.6501 Z -1.0000
G02 X 7.5726 Y 7.6717 Z -1.0000 I 24.9899 J 4.6527
G02 X 7.5717 Y 7.6765 Z -1.0000 I 0.7498 J 0.1389
G01 X 7.5623 Y 7.6678 Z -1.0000
G01 X 7.5527 Y 7.6631 Z -1.0000
G01 X 7.5378 Y 7.6702 Z -1.0000
G01 X 7.5136 Y 7.6809 Z -1.0000
G01 X 7.5040 Y 7.6718 Z -1.0000
G01 X 7.5002 Y 7.6612 Z -1.0000
G01 X 7.4919 Y 7.6574 Z -1.0000
G01 X 7.4581 Y 7.6757 Z -1.0000
G01 X 7.4615 Y 7.7039 Z -1.0000
G01 X 7.4669 Y 7.7046 Z -1.0000
G01 X 7.4726 Y 7.6982 Z -1.0000
G01 X 7.4912 Y 7.6839 Z -1.0000
G01 X 7.5040 Y 7.6958 Z -1.0000
G01 X 7.5076 Y 7.7019 Z -1.0000
G01 X 7.5208 Y 7.7055 Z -1.0000
G01 X 7.5139 Y 7.7176 Z -1.0000
G01 X 7.4961 Y 7.7341 Z -1.0000
G02 X 7.4822 Y 7.7702 Z -1.0000 I 0.0960 J 0.0579
G03 X 7.4695 Y 7.8052 Z -1.0000 I -0.1213 J -0.0240
G01 X 7.4601 Y 7.8108 Z -1.0000
G01 X 7.4528 Y 7.8161 Z -1.0000
G01 X 7.4521 Y 7.8348 Z -1.0000
G01 X 7.4449 Y 7.8453 Z -1.0000
G01 X 7.4323 Y 7.8372 Z -1.0000
G03 X 7.4232 Y 7.7881 Z -1.0000 I 0.1967 J -0.0619
G01 X 7.4289 Y 7.7820 Z -1.0000
G01 X 7.4343 Y 7.7847 Z -1.0000
G01 X 7.4369 Y 7.7922 Z -1.0000
G01 X 7.4400 Y 7.7968 Z -1.0000
G01 X 7.4466 Y 7.7963 Z -1.0000
G01 X 7.4489 Y 7.7828 Z -1.0000
G01 X 7.4269 Y 7.7724 Z -1.0000
G01 X 7.4164 Y 7.7801 Z -1.0000
G02 X 7.4103 Y 7.8247 Z -1.0000 I 0.1261 J 0.0399
G03 X 7.4020 Y 7.8793 Z -1.0000 I -0.1479 J 0.0053
G01 X 7.3906 Y 7.8806 Z -1.0000
G01 X 7.3749 Y 7.8718 Z -1.0000
G02 X 7.3444 Y 7.8805 Z -1.0000 I -0.0001 J 0.0574
G01 X 7.3355 Y 7.8811 Z -1.0000
G01 X 7.3279 Y 7.8730 Z -1.0000
G01 X 7.3292 Y 7.8632 Z -1.0000
G01 X 7.3389 Y 7.8580 Z -1.0000
G01 X 7.3411 Y 7.8544 Z -1.0000
G01 X 7.3336 Y 7.8469 Z -1.0000
G02 X 7.2836 Y 7.8479 Z -1.0000 I -0.0240 J 0.0498
G01 X 7.2743 Y 7.8786 Z -1.0000
G03 X 7.2809 Y 7.8964 Z -1.0000 I -0.0617 J 0.0331
G03 X 7.2835 Y 7.9194 Z -1.0000 I -0.1021 J 0.0230
G01 X 7.2943 Y 7.9437 Z -1.0000
G01 X 7.3226 Y 7.9546 Z -1.0000
G01 X 7.3291 Y 7.9450 Z -1.0000
G01 X 7.3146 Y 7.9348 Z -1.0000
G01 X 7.3218 Y 7.9248 Z -1.0000
G02 X 7.3439 Y 7.9130 Z -1.0000 I -0.0377 J -0.0975
G02 X 7.3575 Y 7.9000 Z -1.0000 I -0.0345 J -0.0495
G01 X 7.3677 Y 7.8957 Z -1.0000
G01 X 7.3760 Y 7.9022 Z -1.0000
G01 X 7.3781 Y 7.9176 Z -1.0000
G01 X 7.3739 Y 7.9228 Z -1.0000
G01 X 7.3690 Y 7.9286 Z -1.0000
G02 X 7.3659 Y 7.9822 Z -1.0000 I 0.3542 J 0.0479
G03 X 7.3604 Y 8.0364 Z -1.0000 I -0.2338 J 0.0037
G03 X 7.3483 Y 8.0613 Z -1.0000 I -0.0588 J -0.0130
G01 X 7.3386 Y 8.0645 Z -1.0000
G01 X 7.3341 Y 8.0576 Z -1.0000
G02 X 7.3339 Y 8.0350 Z -1.0000 I -0.0667 J -0.0106
G01 X 7.3294 Y 8.0312 Z -1.0000
G01 X 7.3039 Y 8.0204 Z -1.0000
G01 X 7.2930 Y 7.9936 Z -1.0000
G01 X 7.2892 Y 7.9871 Z -1.0000
G01 X 7.2739 Y 7.9833 Z -1.0000
G01 X 7.2587 Y 7.9873 Z -1.0000
G01 X 7.2547 Y 7.9944 Z -1.0000
G01 X 7.2510 Y 7.9971 Z -1.0000
G01 X 7.2363 Y 7.9888 Z -1.0000
G01 X 7.2165 Y 7.9811 Z -1.0000
G02 X 7.1836 Y 7.9883 Z -1.0000 I -0.0006 J 0.0753
G02 X 7.1590 Y 8.0076 Z -1.0000 I 0.0303 J 0.0639
G01 X 7.1580 Y 8.0199 Z -1.0000
G01 X 7.1597 Y 8.0338 Z -1.0000
G01 X 7.1507 Y 8.0473 Z -1.0000
G01 X 7.1447 Y 8.0562 Z -1.0000
G01 X 7.1473 Y 8.0597 Z -1.0000
G01 X 7.1582 Y 8.0565 Z -1.0000
G02 X 7.1819 Y 8.0360 Z -1.0000 I -0.0788 J -0.1154
G03 X 7.2159 Y 8.0142 Z -1.0000 I 0.0595 J 0.0552
G01 X 7.2259 Y 8.0214 Z -1.0000
G01 X 7.2228 Y 8.0292 Z -1.0000
G03 X 7.2019 Y 8.0465 Z -1.0000 I -0.0867 J -0.0831
G01 X 7.1891 Y 8.0684 Z -1.0000
G01 X 7.1995 Y 8.0803 Z -1.0000
G01 X 7.2043 Y 8.0858 Z -1.0000
G01 X 7.1911 Y 8.0928 Z -1.0000
G01 X 7.1876 Y 8.1005 Z -1.0000
G01 X 7.1688 Y 8.0893 Z -1.0000
G01 X 7.1599 Y 8.0887 Z -1.0000
G01 X 7.1555 Y 8.1010 Z -1.0000
G03 X 7.1560 Y 8.1321 Z -1.0000 I -0.1069 J 0.0173
G01 X 7.1504 Y 8.1408 Z -1.0000
G03 X 7.0885 Y 8.1523 Z -1.0000 I -0.0460 J -0.0745
G01 X 7.0773 Y 8.1271 Z -1.0000
G01 X 7.0758 Y 8.1226 Z -1.0000
G02 X 7.0487 Y 8.1157 Z -1.0000 I -0.0399 J 0.1005
G02 X 7.0189 Y 8.1175 Z -1.0000 I -0.0099 J 0.0841
G01 X 7.0105 Y 8.1249 Z -1.0000
G01 X 6.9961 Y 8.1286 Z -1.0000
G01 X 6.9892 Y 8.1069 Z -1.0000
G01 X 6.9879 Y 8.0935 Z -1.0000
G01 X 6.9805 Y 8.0888 Z -1.0000
G01 X 6.9711 Y 8.0847 Z -1.0000
G01 X 6.9670 Y 8.0744 Z -1.0000
G01 X 6.9575 Y 8.0683 Z -1.0000
G01 X 6.9436 Y 8.0850 Z -1.0000
G02 X 6.9428 Y 8.1083 Z -1.0000 I 0.0541 J 0.0136
G01 X 6.9500 Y 8.1210 Z -1.0000
G03 X 6.9620 Y 8.1325 Z -1.0000 I -0.1046 J 0.1213
G03 X 6.9807 Y 8.1535 Z -1.0000 I -0.3499 J 0.3293
G01 X 6.9768 Y 8.1627 Z -1.0000
G01 X 6.9567 Y 8.1552 Z -1.0000
G02 X 6.9356 Y 8.1408 Z -1.0000 I -0.0487 J 0.0487
G01 X 6.9231 Y 8.1405 Z -1.0000
G01 X 6.9162 Y 8.1548 Z -1.0000
G01 X 6.9310 Y 8.1657 Z -1.0000
G01 X 6.9482 Y 8.1728 Z -1.0000
G03 X 6.9718 Y 8.2058 Z -1.0000 I -0.0826 J 0.0840
G02 X 6.9891 Y 8.2311 Z -1.0000 I 0.0912 J -0.0437
G01 X 6.9941 Y 8.2296 Z -1.0000
G01 X 7.0054 Y 8.2205 Z -1.0000
G01 X 7.0171 Y 8.2303 Z -1.0000
G01 X 7.0054 Y 8.2631 Z -1.0000
G03 X 6.9634 Y 8.2736 Z -1.0000 I -0.0323 J -0.0400
G01 X 6.9496 Y 8.2783 Z -1.0000
G01 X 6.9453 Y 8.2941 Z -1.0000
G01 X 6.9440 Y 8.3141 Z -1.0000
G01 X 6.9369 Y 8.3193 Z -1.0000
G01 X 6.9247 Y 8.3221 Z -1.0000
G02 X 6.9054 Y 8.3335 Z -1.0000 I 0.0421 J 0.0929
G01 X 6.8956 Y 8.3496 Z -1.0000
G01 X 6.8986 Y 8.3728 Z -1.0000
G01 X 6.8974 Y 8.3881 Z -1.0000
G01 X 6.8851 Y 8.3933 Z -1.0000
G01 X 6.8687 Y 8.3971 Z -1.0000
G01 X 6.8786 Y 8.4026 Z -1.0000
G02 X 6.9126 Y 8.4071 Z -1.0000 I 0.0416 J -0.1827
G03 X 6.9440 Y 8.4121 Z -1.0000 I -0.0049 J 0.1316
G01 X 6.9478 Y 8.4172 Z -1.0000
G01 X 6.9439 Y 8.4217 Z -1.0000
G03 X 6.9029 Y 8.4232 Z -1.0000 I -0.0281 J -0.2099
G02 X 6.8612 Y 8.4252 Z -1.0000 I -0.0117 J 0.1917
G01 X 6.8546 Y 8.4308 Z -1.0000
G01 X 6.8480 Y 8.4362 Z -1.0000
G03 X 6.8096 Y 8.4365 Z -1.0000 I -0.0203 J -0.1574
G01 X 6.7747 Y 8.4489 Z -1.0000
G01 X 6.7748 Y 8.4720 Z -1.0000
G01 X 6.7870 Y 8.4997 Z -1.0000
G01 X 6.7764 Y 8.5107 Z -1.0000
G01 X 6.7643 Y 8.5167 Z -1.0000
G01 X 6.7584 Y 8.5340 Z -1.0000
G01 X 6.7641 Y 8.5489 Z -1.0000
G01 X 6.7740 Y 8.5513 Z -1.0000
G02 X 6.7992 Y 8.5348 Z -1.0000 I -0.0249 J -0.0655
G02 X 6.8163 Y 8.5079 Z -1.0000 I -0.0556 J -0.0544
G01 X 6.8261 Y 8.4994 Z -1.0000
G01 X 6.8430 Y 8.5015 Z -1.0000
G01 X 6.8605 Y 8.5003 Z -1.0000
G01 X 6.8620 Y 8.4874 Z -1.0000
G01 X 6.8587 Y 8.4650 Z -1.0000
G01 X 6.8765 Y 8.4532 Z -1.0000
G01 X 6.8864 Y 8.4624 Z -1.0000
G01 X 6.8783 Y 8.4751 Z -1.0000
G01 X 6.8730 Y 8.4808 Z -1.0000
G01 X 6.8748 Y 8.4879 Z -1.0000
G01 X 6.8818 Y 8.4897 Z -1.0000
G01 X 6.8876 Y 8.4844 Z -1.0000
G01 X 6.8946 Y 8.4762 Z -1.0000
G01 X 6.9095 Y 8.4724 Z -1.0000
G01 X 6.9243 Y 8.4685 Z -1.0000
G01 X 6.9311 Y 8.4604 Z -1.0000
G01 X 6.9380 Y 8.4557 Z -1.0000
G03 X 6.9609 Y 8.4622 Z -1.0000 I -0.0032 J 0.0551
G01 X 6.9746 Y 8.4778 Z -1.0000
G01 X 6.9717 Y 8.4910 Z -1.0000
G01 X 6.9577 Y 8.4970 Z -1.0000
G01 X 6.9475 Y 8.4916 Z -1.0000
G01 X 6.9445 Y 8.5108 Z -1.0000
G02 X 6.9536 Y 8.5424 Z -1.0000 I 0.1716 J -0.0322
G01 X 6.9601 Y 8.5504 Z -1.0000
G01 X 6.9648 Y 8.5576 Z -1.0000
G01 X 6.9631 Y 8.5668 Z -1.0000
G01 X 6.9382 Y 8.5706 Z -1.0000
G03 X 6.9190 Y 8.5284 Z -1.0000 I 0.0369 J -0.0422
G01 X 6.9081 Y 8.5161 Z -1.0000
G01 X 6.8920 Y 8.5253 Z -1.0000
G01 X 6.8767 Y 8.5403 Z -1.0000
G01 X 6.8498 Y 8.5439 Z -1.0000
G01 X 6.8399 Y 8.5486 Z -1.0000
G01 X 6.8546 Y 8.5671 Z -1.0000
G01 X 6.8472 Y 8.5874 Z -1.0000
G01 X 6.8352 Y 8.5906 Z -1.0000
G01 X 6.8270 Y 8.5838 Z -1.0000
G01 X 6.8034 Y 8.5665 Z -1.0000
G01 X 6.7673 Y 8.5801 Z -1.0000
G01 X 6.7548 Y 8.5854 Z -1.0000
G01 X 6.7372 Y 8.5804 Z -1.0000
G01 X 6.7225 Y 8.5774 Z -1.0000
G01 X 6.7159 Y 8.5837 Z -1.0000
G01 X 6.7094 Y 8.5870 Z -1.0000
G03 X 6.6804 Y 8.5666 Z -1.0000 I 0.0471 J -0.0980
G03 X 6.6607 Y 8.5386 Z -1.0000 I 0.0658 J -0.0672
G01 X 6.6643 Y 8.5316 Z -1.0000
G01 X 6.6742 Y 8.5247 Z -1.0000
G01 X 6.6752 Y 8.5140 Z -1.0000
G03 X 6.6703 Y 8.4996 Z -1.0000 I 0.1960 J -0.0749
G01 X 6.6697 Y 8.4957 Z -1.0000
G01 X 6.6553 Y 8.4917 Z -1.0000
G01 X 6.6443 Y 8.4884 Z -1.0000
G01 X 6.6409 Y 8.4821 Z -1.0000
G01 X 6.6376 Y 8.4758 Z -1.0000
G01 X 6.6265 Y 8.4725 Z -1.0000
G01 X 6.6164 Y 8.4767 Z -1.0000
G01 X 6.6122 Y 8.4869 Z -1.0000
G01 X 6.6166 Y 8.4968 Z -1.0000
G01 X 6.6280 Y 8.5013 Z -1.0000
G01 X 6.6326 Y 8.5064 Z -1.0000
G01 X 6.6256 Y 8.5221 Z -1.0000
G01 X 6.6205 Y 8.5339 Z -1.0000
G01 X 6.6241 Y 8.5368 Z -1.0000
G01 X 6.6352 Y 8.5394 Z -1.0000
G01 X 6.6425 Y 8.5567 Z -1.0000
G03 X 6.6360 Y 8.6369 Z -1.0000 I -0.2797 J 0.0174
G01 X 6.6236 Y 8.6391 Z -1.0000
G01 X 6.6151 Y 8.6316 Z -1.0000
G02 X 6.5925 Y 8.6243 Z -1.0000 I -0.0393 J 0.0830
G01 X 6.5750 Y 8.6288 Z -1.0000
G01 X 6.5660 Y 8.6460 Z -1.0000
G02 X 6.5688 Y 8.6705 Z -1.0000 I 0.0652 J 0.0050
G01 X 6.5789 Y 8.6873 Z -1.0000
G01 X 6.5865 Y 8.7040 Z -1.0000
G03 X 6.5823 Y 8.7408 Z -1.0000 I -0.1048 J 0.0066
G03 X 6.5600 Y 8.7701 Z -1.0000 I -0.0502 J -0.0150
G01 X 6.5356 Y 8.7701 Z -1.0000
G01 X 6.5241 Y 8.7708 Z -1.0000
G02 X 6.5044 Y 8.7959 Z -1.0000 I 0.0481 J 0.0581
G02 X 6.4906 Y 8.8314 Z -1.0000 I 0.2130 J 0.1036
G02 X 6.4875 Y 8.8524 Z -1.0000 I 0.0697 J 0.0209
G01 X 6.4820 Y 8.8700 Z -1.0000
G01 X 6.4683 Y 8.8801 Z -1.0000
G01 X 6.4407 Y 8.9032 Z -1.0000
G02 X 6.4363 Y 8.9408 Z -1.0000 I 0.0464 J 0.0244
G01 X 6.4548 Y 8.9582 Z -1.0000
G01 X 6.4683 Y 8.9471 Z -1.0000
G01 X 6.4716 Y 8.9361 Z -1.0000
G01 X 6.4779 Y 8.9328 Z -1.0000
G01 X 6.4846 Y 8.9357 Z -1.0000
G01 X 6.4875 Y 8.9430 Z -1.0000
G01 X 6.5033 Y 8.9523 Z -1.0000
G01 X 6.5212 Y 8.9241 Z -1.0000
G03 X 6.5367 Y 8.8881 Z -1.0000 I 0.0599 J 0.0044
G01 X 6.5658 Y 8.8752 Z -1.0000
G01 X 6.5693 Y 8.8785 Z -1.0000
G03 X 6.5675 Y 8.9064 Z -1.0000 I -0.1165 J 0.0064
G01 X 6.5689 Y 8.9242 Z -1.0000
G01 X 6.5744 Y 8.9256 Z -1.0000
G01 X 6.5922 Y 8.9221 Z -1.0000
G01 X 6.6049 Y 8.9374 Z -1.0000
G01 X 6.6005 Y 8.9517 Z -1.0000
G01 X 6.5868 Y 8.9555 Z -1.0000
G01 X 6.5698 Y 8.9571 Z -1.0000
G01 X 6.5642 Y 8.9659 Z -1.0000
G01 X 6.5587 Y 8.9756 Z -1.0000
G01 X 6.5426 Y 8.9789 Z -1.0000
G01 X 6.5268 Y 8.9897 Z -1.0000
G02 X 6.5304 Y 9.0310 Z -1.0000 I 0.0650 J 0.0153
G01 X 6.5313 Y 9.0437 Z -1.0000
G01 X 6.5260 Y 9.0478 Z -1.0000
G01 X 6.5175 Y 9.0439 Z -1.0000
G01 X 6.5094 Y 9.0286 Z -1.0000
G01 X 6.4973 Y 9.0212 Z -1.0000
G01 X 6.4875 Y 9.0334 Z -1.0000
G03 X 6.4836 Y 9.0536 Z -1.0000 I -0.0541 J 0.0000
G01 X 6.4779 Y 9.0574 Z -1.0000
G01 X 6.4721 Y 9.0614 Z -1.0000
G02 X 6.4675 Y 9.0838 Z -1.0000 I 0.0621 J 0.0244
G01 X 6.4619 Y 9.0982 Z -1.0000
G01 X 6.4489 Y 9.0912 Z -1.0000
G01 X 6.4392 Y 9.1030 Z -1.0000
G01 X 6.4349 Y 9.1081 Z -1.0000
G01 X 6.4272 Y 9.1052 Z -1.0000
G01 X 6.4132 Y 9.0956 Z -1.0000
G02 X 6.3787 Y 9.0899 Z -1.0000 I -0.0368 J 0.1164
G03 X 6.3444 Y 9.0845 Z -1.0000 I 0.0024 J -0.1252
G01 X 6.3323 Y 9.0757 Z -1.0000
G01 X 6.3280 Y 9.0790 Z -1.0000
G01 X 6.3268 Y 9.0910 Z -1.0000
G01 X 6.3185 Y 9.0958 Z -1.0000
G01 X 6.3046 Y 9.0990 Z -1.0000
G02 X 6.2782 Y 9.1157 Z -1.0000 I 0.0679 J 0.1369
G01 X 6.2750 Y 9.1249 Z -1.0000
G01 X 6.2814 Y 9.1288 Z -1.0000
G02 X 6.3091 Y 9.1200 Z -1.0000 I -0.0474 J -0.1963
G02 X 6.3220 Y 9.1125 Z -1.0000 I -0.0195 J -0.0486
G01 X 6.3310 Y 9.1093 Z -1.0000
G01 X 6.3340 Y 9.1122 Z -1.0000
G01 X 6.3306 Y 9.1195 Z -1.0000
G03 X 6.2861 Y 9.1524 Z -1.0000 I -0.2886 J -0.3436
G02 X 6.2431 Y 9.1917 Z -1.0000 I 0.0963 J 0.1486
G01 X 6.2477 Y 9.2013 Z -1.0000
G01 X 6.2536 Y 9.2049 Z -1.0000
G01 X 6.2573 Y 9.2205 Z -1.0000
G01 X 6.2525 Y 9.2349 Z -1.0000
G01 X 6.2429 Y 9.2397 Z -1.0000
G01 X 6.2320 Y 9.2489 Z -1.0000
G01 X 6.2389 Y 9.2641 Z -1.0000
G01 X 6.2445 Y 9.2724 Z -1.0000
G03 X 6.2435 Y 9.2934 Z -1.0000 I -0.0520 J 0.0082
G02 X 6.2424 Y 9.3128 Z -1.0000 I 0.0503 J 0.0126
G01 X 6.2465 Y 9.3164 Z -1.0000
G01 X 6.2662 Y 9.3332 Z -1.0000
G03 X 6.2595 Y 9.4005 Z -1.0000 I -0.1339 J 0.0208
G01 X 6.2531 Y 9.4055 Z -1.0000
G01 X 6.2422 Y 9.4021 Z -1.0000
G01 X 6.2214 Y 9.4004 Z -1.0000
G01 X 6.2094 Y 9.4213 Z -1.0000
G01 X 6.1958 Y 9.4528 Z -1.0000
G01 X 6.1758 Y 9.4530 Z -1.0000
G01 X 6.1738 Y 9.4622 Z -1.0000
G01 X 6.1718 Y 9.4706 Z -1.0000
G01 X 6.1633 Y 9.4725 Z -1.0000
G03 X 6.1483 Y 9.4648 Z -1.0000 I 0.0242 J -0.0657
G01 X 6.1409 Y 9.4573 Z -1.0000
G01 X 6.1229 Y 9.4533 Z -1.0000
G01 X 6.1187 Y 9.4705 Z -1.0000
G01 X 6.1189 Y 9.4765 Z -1.0000
G01 X 6.1140 Y 9.4794 Z -1.0000
G01 X 6.1073 Y 9.4759 Z -1.0000
G01 X 6.1039 Y 9.4650 Z -1.0000
G01 X 6.1005 Y 9.4540 Z -1.0000
G01 X 6.0943 Y 9.4506 Z -1.0000
G01 X 6.0877 Y 9.4579 Z -1.0000
G02 X 6.0976 Y 9.4839 Z -1.0000 I 0.0527 J -0.0053
G01 X 6.1134 Y 9.4946 Z -1.0000
G02 X 6.1440 Y 9.4961 Z -1.0000 I 0.0188 J -0.0711
G03 X 6.1905 Y 9.5012 Z -1.0000 I 0.0141 J 0.0864
G01 X 6.1956 Y 9.5167 Z -1.0000
G01 X 6.1871 Y 9.5239 Z -1.0000
G03 X 6.1680 Y 9.5275 Z -1.0000 I -0.0194 J -0.0498
G01 X 6.1604 Y 9.5315 Z -1.0000
G01 X 6.1614 Y 9.5369 Z -1.0000
G01 X 6.1630 Y 9.5426 Z -1.0000
G01 X 6.1566 Y 9.5467 Z -1.0000
G01 X 6.1519 Y 9.5522 Z -1.0000
G01 X 6.1590 Y 9.5652 Z -1.0000
G03 X 6.1770 Y 9.5848 Z -1.0000 I -0.0629 J 0.0754
G01 X 6.1803 Y 9.5960 Z -1.0000
G01 X 6.1766 Y 9.5985 Z -1.0000
G01 X 6.1664 Y 9.5909 Z -1.0000
G01 X 6.1371 Y 9.5871 Z -1.0000
G01 X 6.1219 Y 9.6257 Z -1.0000
G01 X 6.1202 Y 9.6304 Z -1.0000
G01 X 6.1135 Y 9.6329 Z -1.0000
G01 X 6.1076 Y 9.6292 Z -1.0000
G01 X 6.1039 Y 9.6131 Z -1.0000
G01 X 6.0976 Y 9.6018 Z -1.0000
G01 X 6.0823 Y 9.5999 Z -1.0000
G02 X 6.0627 Y 9.6088 Z -1.0000 I 0.0264 J 0.0848
G01 X 6.0575 Y 9.6150 Z -1.0000
G01 X 6.0414 Y 9.6249 Z -1.0000
G01 X 6.0249 Y 9.6118 Z -1.0000
G01 X 6.0201 Y 9.6083 Z -1.0000
G01 X 6.0140 Y 9.6118 Z -1.0000
G01 X 6.0127 Y 9.6200 Z -1.0000
G01 X 6.0170 Y 9.6233 Z -1.0000
G01 X 6.0228 Y 9.6276 Z -1.0000
G03 X 6.0272 Y 9.6580 Z -1.0000 I -0.1040 J 0.0304
G01 X 6.0327 Y 9.6809 Z -1.0000
G01 X 6.0397 Y 9.6823 Z -1.0000
G01 X 6.0516 Y 9.6798 Z -1.0000
G01 X 6.0681 Y 9.6904 Z -1.0000
G01 X 6.0777 Y 9.7080 Z -1.0000
G01 X 6.0754 Y 9.7142 Z -1.0000
G01 X 6.0679 Y 9.7152 Z -1.0000
G01 X 6.0608 Y 9.7097 Z -1.0000
G02 X 6.0082 Y 9.6799 Z -1.0000 I -0.0535 J 0.0331
G01 X 5.9792 Y 9.7085 Z -1.0000
G01 X 5.9820 Y 9.7152 Z -1.0000
G01 X 5.9936 Y 9.7226 Z -1.0000
G01 X 6.0051 Y 9.7455 Z -1.0000
G01 X 5.9792 Y 9.7737 Z -1.0000
G02 X 5.9566 Y 9.7889 Z -1.0000 I 0.0211 J 0.0559
G01 X 5.9504 Y 9.8046 Z -1.0000
G01 X 5.9544 Y 9.8206 Z -1.0000
G01 X 5.9611 Y 9.8246 Z -1.0000
G01 X 5.9663 Y 9.8283 Z -1.0000
G01 X 5.9662 Y 9.8390 Z -1.0000
G01 X 5.9686 Y 9.8479 Z -1.0000
G01 X 5.9843 Y 9.8534 Z -1.0000
G02 X 6.0041 Y 9.8496 Z -1.0000 I -0.0000 J -0.0528
G01 X 6.0080 Y 9.8438 Z -1.0000
G01 X 6.0108 Y 9.8370 Z -1.0000
G01 X 6.0176 Y 9.8342 Z -1.0000
G01 X 6.0228 Y 9.8385 Z -1.0000
G03 X 6.0272 Y 9.8822 Z -1.0000 I -0.2180 J 0.0436
G03 X 6.0146 Y 9.9175 Z -1.0000 I -0.0560 J -0.0000
G01 X 5.9881 Y 9.9301 Z -1.0000
G02 X 5.9589 Y 9.9394 Z -1.0000 I -0.0000 J 0.0506
G01 X 5.9507 Y 9.9565 Z -1.0000
G03 X 5.9346 Y 10.0185 Z -1.0000 I -0.1013 J 0.0067
G01 X 5.9087 Y 10.0212 Z -1.0000
G02 X 5.8754 Y 10.0039 Z -1.0000 I -0.0440 J 0.0440
G01 X 5.8641 Y 10.0134 Z -1.0000
G01 X 5.8660 Y 10.0192 Z -1.0000
G02 X 5.8838 Y 10.0410 Z -1.0000 I 0.1718 J -0.1228
G03 X 5.8994 Y 10.0638 Z -1.0000 I -0.0643 J 0.0604
G03 X 5.9064 Y 10.0891 Z -1.0000 I -0.0715 J 0.0336
G02 X 5.9130 Y 10.1133 Z -1.0000 I 0.0790 J -0.0084
G01 X 5.9203 Y 10.1199 Z -1.0000
G01 X 5.9276 Y 10.1262 Z -1.0000
G01 X 5.9313 Y 10.1419 Z -1.0000
G01 X 5.9409 Y 10.1552 Z -1.0000
G01 X 5.9507 Y 10.1483 Z -1.0000
G01 X 5.9579 Y 10.1471 Z -1.0000
G03 X 5.9746 Y 10.2106 Z -1.0000 I -0.2828 J 0.1082
G03 X 5.9738 Y 10.2496 Z -1.0000 I -0.1152 J 0.0172
G01 X 5.9659 Y 10.2562 Z -1.0000
G01 X 5.9539 Y 10.2528 Z -1.0000
G01 X 5.9504 Y 10.2466 Z -1.0000
G01 X 5.9533 Y 10.2398 Z -1.0000
G01 X 5.9600 Y 10.2370 Z -1.0000
G01 X 5.9662 Y 10.2336 Z -1.0000
G01 X 5.9696 Y 10.2219 Z -1.0000
G01 X 5.9643 Y 10.2141 Z -1.0000
G01 X 5.9480 Y 10.2134 Z -1.0000
G02 X 5.9220 Y 10.2293 Z -1.0000 I 0.0175 J 0.0581
G01 X 5.9252 Y 10.2370 Z -1.0000
G01 X 5.9356 Y 10.2427 Z -1.0000
G01 X 5.9391 Y 10.2586 Z -1.0000
G01 X 5.9300 Y 10.2726 Z -1.0000
G01 X 5.9081 Y 10.2781 Z -1.0000
G03 X 5.8821 Y 10.2728 Z -1.0000 I 0.0072 J -0.1013
G01 X 5.8742 Y 10.2664 Z -1.0000
G01 X 5.8662 Y 10.2608 Z -1.0000
G02 X 5.8398 Y 10.2588 Z -1.0000 I -0.0199 J 0.0902
G01 X 5.8197 Y 10.2525 Z -1.0000
G01 X 5.8128 Y 10.2370 Z -1.0000
G02 X 5.8101 Y 10.2151 Z -1.0000 I -0.0618 J -0.0035
G01 X 5.8032 Y 10.2062 Z -1.0000
G01 X 5.8009 Y 10.1990 Z -1.0000
G01 X 5.8114 Y 10.1853 Z -1.0000
G01 X 5.8187 Y 10.1728 Z -1.0000
G01 X 5.8138 Y 10.1647 Z -1.0000
G01 X 5.8019 Y 10.1548 Z -1.0000
G01 X 5.7970 Y 10.1378 Z -1.0000
G01 X 5.7909 Y 10.1326 Z -1.0000
G01 X 5.7742 Y 10.1412 Z -1.0000
G02 X 5.7609 Y 10.1664 Z -1.0000 I 0.0378 J 0.0362
G01 X 5.7639 Y 10.1890 Z -1.0000
G03 X 5.7839 Y 10.2343 Z -1.0000 I -0.3534 J 0.1832
G03 X 5.7939 Y 10.2703 Z -1.0000 I -0.2130 J 0.0787
G01 X 5.7914 Y 10.2777 Z -1.0000
G01 X 5.7858 Y 10.2775 Z -1.0000
G01 X 5.7526 Y 10.2630 Z -1.0000
G01 X 5.7395 Y 10.2756 Z -1.0000
G01 X 5.7425 Y 10.2834 Z -1.0000
G01 X 5.7532 Y 10.2907 Z -1.0000
G01 X 5.7638 Y 10.2991 Z -1.0000
G03 X 5.7772 Y 10.3254 Z -1.0000 I -0.0906 J 0.0627
G03 X 5.7810 Y 10.3553 Z -1.0000 I -0.0688 J 0.0240
G01 X 5.7742 Y 10.3616 Z -1.0000
G01 X 5.7625 Y 10.3647 Z -1.0000
G01 X 5.7491 Y 10.3760 Z -1.0000
G01 X 5.7516 Y 10.3858 Z -1.0000
G02 X 5.7934 Y 10.3931 Z -1.0000 I 0.0393 J -0.1015
G01 X 5.7989 Y 10.3970 Z -1.0000
G01 X 5.7995 Y 10.4108 Z -1.0000
G01 X 5.7897 Y 10.4221 Z -1.0000
G03 X 5.7575 Y 10.4287 Z -1.0000 I -0.0322 J -0.0753
G02 X 5.7275 Y 10.4359 Z -1.0000 I -0.0000 J 0.0665
G01 X 5.7203 Y 10.4476 Z -1.0000
G01 X 5.7151 Y 10.4589 Z -1.0000
G01 X 5.7049 Y 10.4606 Z -1.0000
G01 X 5.6963 Y 10.4625 Z -1.0000
G01 X 5.6933 Y 10.4729 Z -1.0000
G01 X 5.7016 Y 10.4849 Z -1.0000
G01 X 5.7183 Y 10.4888 Z -1.0000
G01 X 5.7345 Y 10.4920 Z -1.0000
G01 X 5.7395 Y 10.5004 Z -1.0000
G01 X 5.7436 Y 10.5119 Z -1.0000
G02 X 5.7599 Y 10.5253 Z -1.0000 I 0.0421 J -0.0347
G01 X 5.7710 Y 10.5366 Z -1.0000
G01 X 5.7692 Y 10.5432 Z -1.0000
G01 X 5.7631 Y 10.5518 Z -1.0000
G01 X 5.7642 Y 10.5661 Z -1.0000
G01 X 5.7633 Y 10.5773 Z -1.0000
G01 X 5.7549 Y 10.5822 Z -1.0000
G01 X 5.7429 Y 10.5787 Z -1.0000
G01 X 5.7395 Y 10.5726 Z -1.0000
G01 X 5.7358 Y 10.5666 Z -1.0000
G01 X 5.7203 Y 10.5630 Z -1.0000
G01 X 5.7078 Y 10.5697 Z -1.0000
G01 X 5.7011 Y 10.5922 Z -1.0000
G02 X 5.7060 Y 10.6158 Z -1.0000 I 0.0593 J 0.0000
G01 X 5.7131 Y 10.6198 Z -1.0000
G03 X 5.7501 Y 10.6236 Z -1.0000 I 0.0105 J 0.0807
G01 X 5.7587 Y 10.6355 Z -1.0000
G01 X 5.7534 Y 10.6433 Z -1.0000
G01 X 5.7378 Y 10.6439 Z -1.0000
G01 X 5.7327 Y 10.6481 Z -1.0000
G01 X 5.7402 Y 10.6661 Z -1.0000
G02 X 5.7645 Y 10.6832 Z -1.0000 I 0.0424 J -0.0343
G01 X 5.7802 Y 10.6802 Z -1.0000
G01 X 5.7876 Y 10.6846 Z -1.0000
G03 X 5.7731 Y 10.7106 Z -1.0000 I -0.0529 J -0.0123
G02 X 5.7557 Y 10.7359 Z -1.0000 I 0.0598 J 0.0598
G01 X 5.7553 Y 10.7504 Z -1.0000
G01 X 5.7560 Y 10.7644 Z -1.0000
G01 X 5.7484 Y 10.7743 Z -1.0000
G01 X 5.7443 Y 10.7836 Z -1.0000
G01 X 5.7534 Y 10.8022 Z -1.0000
G03 X 5.7663 Y 10.8219 Z -1.0000 I -0.0570 J 0.0516
G01 X 5.7652 Y 10.8281 Z -1.0000
G01 X 5.7603 Y 10.8284 Z -1.0000
G01 X 5.7531 Y 10.8185 Z -1.0000
G01 X 5.7449 Y 10.8058 Z -1.0000
G01 X 5.7378 Y 10.8028 Z -1.0000
G01 X 5.7119 Y 10.7920 Z -1.0000
G01 X 5.7011 Y 10.7656 Z -1.0000
G01 X 5.6884 Y 10.7509 Z -1.0000
G01 X 5.6657 Y 10.7604 Z -1.0000
G01 X 5.6528 Y 10.7691 Z -1.0000
G01 X 5.6444 Y 10.7657 Z -1.0000
G01 X 5.6346 Y 10.7597 Z -1.0000
G01 X 5.6167 Y 10.7633 Z -1.0000
G01 X 5.5926 Y 10.7688 Z -1.0000
G01 X 5.5860 Y 10.7619 Z -1.0000
G01 X 5.5819 Y 10.7525 Z -1.0000
G02 X 5.5620 Y 10.7389 Z -1.0000 I -0.0506 J 0.0526
G01 X 5.5501 Y 10.7446 Z -1.0000
G01 X 5.5530 Y 10.7752 Z -1.0000
G01 X 5.5632 Y 10.7848 Z -1.0000
G01 X 5.5678 Y 10.7787 Z -1.0000
G01 X 5.5810 Y 10.7833 Z -1.0000
G02 X 5.6050 Y 10.7983 Z -1.0000 I 0.0497 J -0.0529
G01 X 5.6217 Y 10.7988 Z -1.0000
G01 X 5.6384 Y 10.7992 Z -1.0000
G03 X 5.6631 Y 10.8146 Z -1.0000 I -0.0275 J 0.0715
G02 X 5.6871 Y 10.8327 Z -1.0000 I 0.0973 J -0.1046
G01 X 5.6947 Y 10.8335 Z -1.0000
G01 X 5.7031 Y 10.8327 Z -1.0000
G03 X 5.7213 Y 10.8366 Z -1.0000 I -0.0108 J 0.0942
G01 X 5.7290 Y 10.8450 Z -1.0000
G01 X 5.7258 Y 10.8562 Z -1.0000
G03 X 5.7110 Y 10.8673 Z -1.0000 I -0.0456 J -0.0453
G01 X 5.7008 Y 10.8699 Z -1.0000
G01 X 5.6950 Y 10.8737 Z -1.0000
G01 X 5.6949 Y 10.8840 Z -1.0000
G01 X 5.6888 Y 10.9019 Z -1.0000
G01 X 5.6696 Y 10.8997 Z -1.0000
G01 X 5.6510 Y 10.8916 Z -1.0000
G01 X 5.6436 Y 10.8986 Z -1.0000
G01 X 5.6465 Y 10.9053 Z -1.0000
G01 X 5.6538 Y 10.9082 Z -1.0000
G01 X 5.6751 Y 10.9264 Z -1.0000
G03 X 5.6780 Y 11.0617 Z -1.0000 I -0.4987 J 0.0784
G03 X 5.6559 Y 11.1289 Z -1.0000 I -0.1732 J -0.0196
G01 X 5.6407 Y 11.1264 Z -1.0000
G01 X 5.6353 Y 11.1314 Z -1.0000
G01 X 5.6410 Y 11.1537 Z -1.0000
G01 X 5.6582 Y 11.1690 Z -1.0000
G01 X 5.6718 Y 11.1808 Z -1.0000
G01 X 5.6702 Y 11.1879 Z -1.0000
G01 X 5.6511 Y 11.1911 Z -1.0000
G01 X 5.6436 Y 11.1816 Z -1.0000
G01 X 5.6329 Y 11.1709 Z -1.0000
G02 X 5.5895 Y 11.1815 Z -1.0000 I -0.0001 J 0.0936
G03 X 5.5614 Y 11.1932 Z -1.0000 I -0.0803 J -0.1536
G03 X 5.5441 Y 11.1959 Z -1.0000 I -0.0175 J -0.0555
G01 X 5.5366 Y 11.2008 Z -1.0000
G01 X 5.5379 Y 11.2101 Z -1.0000
G01 X 5.5449 Y 11.2258 Z -1.0000
G03 X 5.5462 Y 11.2676 Z -1.0000 I -0.1868 J 0.0269
G01 X 5.5520 Y 11.2910 Z -1.0000
G01 X 5.5601 Y 11.2895 Z -1.0000
G01 X 5.5630 Y 11.2871 Z -1.0000
G01 X 5.5655 Y 11.2895 Z -1.0000
G01 X 5.5715 Y 11.3061 Z -1.0000
G01 X 5.5814 Y 11.3110 Z -1.0000
G02 X 5.6149 Y 11.3029 Z -1.0000 I -0.0000 J -0.0735
G02 X 5.6468 Y 11.2775 Z -1.0000 I -0.0469 J -0.0914
G01 X 5.6501 Y 11.2895 Z -1.0000
G01 X 5.6545 Y 11.3037 Z -1.0000
G01 X 5.6732 Y 11.3110 Z -1.0000
G03 X 5.6971 Y 11.3150 Z -1.0000 I 0.0000 J 0.0735
G01 X 5.7011 Y 11.3206 Z -1.0000
G01 X 5.6978 Y 11.3269 Z -1.0000
G01 X 5.6867 Y 11.3302 Z -1.0000
G01 X 5.6757 Y 11.3336 Z -1.0000
G01 X 5.6723 Y 11.3398 Z -1.0000
G01 X 5.6751 Y 11.3467 Z -1.0000
G01 X 5.6814 Y 11.3494 Z -1.0000
G01 X 5.6891 Y 11.3472 Z -1.0000
G01 X 5.6963 Y 11.3398 Z -1.0000
G01 X 5.7137 Y 11.3353 Z -1.0000
G01 X 5.7226 Y 11.3542 Z -1.0000
G01 X 5.7232 Y 11.3739 Z -1.0000
G01 X 5.7288 Y 11.3782 Z -1.0000
G01 X 5.7450 Y 11.3936 Z -1.0000
G03 X 5.7321 Y 11.4418 Z -1.0000 I -0.0807 J 0.0043
G01 X 5.7234 Y 11.4502 Z -1.0000
G03 X 5.7078 Y 11.4562 Z -1.0000 I -0.0256 J -0.0434
G01 X 5.7045 Y 11.4680 Z -1.0000
G01 X 5.7323 Y 11.4791 Z -1.0000
G03 X 5.7722 Y 11.4821 Z -1.0000 I -0.0014 J 0.2833
G01 X 5.7850 Y 11.4869 Z -1.0000
G01 X 5.7929 Y 11.4871 Z -1.0000
G01 X 5.7970 Y 11.4801 Z -1.0000
G01 X 5.7917 Y 11.4706 Z -1.0000
G02 X 5.7692 Y 11.4628 Z -1.0000 I -0.0282 J 0.0450
G01 X 5.7552 Y 11.4515 Z -1.0000
G01 X 5.7559 Y 11.4238 Z -1.0000
G03 X 5.7777 Y 11.3954 Z -1.0000 I 0.0613 J 0.0246
G01 X 5.7874 Y 11.4003 Z -1.0000
G01 X 5.7910 Y 11.4110 Z -1.0000
G02 X 5.8146 Y 11.4360 Z -1.0000 I 0.1290 J -0.0978
G01 X 5.8280 Y 11.4598 Z -1.0000
G01 X 5.8218 Y 11.4793 Z -1.0000
G03 X 5.7638 Y 11.5184 Z -1.0000 I -0.1287 J -0.1284
G01 X 5.7440 Y 11.5121 Z -1.0000
G01 X 5.7158 Y 11.4997 Z -1.0000
G02 X 5.6667 Y 11.5269 Z -1.0000 I 0.0168 J 0.0881
G01 X 5.6532 Y 11.5509 Z -1.0000
G01 X 5.6610 Y 11.5487 Z -1.0000
G02 X 5.6736 Y 11.5384 Z -1.0000 I -0.0313 J -0.0512
G01 X 5.7222 Y 11.5256 Z -1.0000
G01 X 5.7491 Y 11.5622 Z -1.0000
G01 X 5.7461 Y 11.5768 Z -1.0000
G01 X 5.7395 Y 11.5844 Z -1.0000
G01 X 5.7330 Y 11.5921 Z -1.0000
G01 X 5.7299 Y 11.6084 Z -1.0000
G01 X 5.7176 Y 11.6336 Z -1.0000
G01 X 5.7033 Y 11.6293 Z -1.0000
G01 X 5.6910 Y 11.6212 Z -1.0000
G01 X 5.6819 Y 11.6311 Z -1.0000
G01 X 5.6769 Y 11.6381 Z -1.0000
G01 X 5.6580 Y 11.6396 Z -1.0000
G03 X 5.6374 Y 11.6322 Z -1.0000 I 0.0131 J -0.0691
G01 X 5.6340 Y 11.6265 Z -1.0000
G01 X 5.6227 Y 11.6200 Z -1.0000
G02 X 5.5884 Y 11.6527 Z -1.0000 I 0.0495 J 0.0861
G02 X 5.5749 Y 11.6868 Z -1.0000 I 0.0824 J 0.0526
G01 X 5.5780 Y 11.7072 Z -1.0000
G01 X 5.5880 Y 11.7141 Z -1.0000
G01 X 5.5955 Y 11.7094 Z -1.0000
G01 X 5.6032 Y 11.7039 Z -1.0000
G01 X 5.6123 Y 11.7092 Z -1.0000
G01 X 5.6243 Y 11.7181 Z -1.0000
G01 X 5.6378 Y 11.7148 Z -1.0000
G01 X 5.6503 Y 11.6947 Z -1.0000
G01 X 5.6437 Y 11.6899 Z -1.0000
G01 X 5.6401 Y 11.6803 Z -1.0000
G01 X 5.6487 Y 11.6708 Z -1.0000
G01 X 5.6600 Y 11.6703 Z -1.0000
G02 X 5.6740 Y 11.6750 Z -1.0000 I 0.0715 J -0.1888
G01 X 5.6779 Y 11.6756 Z -1.0000
G01 X 5.6819 Y 11.6899 Z -1.0000
G01 X 5.6853 Y 11.7009 Z -1.0000
G01 X 5.6918 Y 11.7043 Z -1.0000
G01 X 5.7084 Y 11.6909 Z -1.0000
G01 X 5.7010 Y 11.6610 Z -1.0000
G01 X 5.6988 Y 11.6513 Z -1.0000
G01 X 5.7047 Y 11.6468 Z -1.0000
G01 X 5.7148 Y 11.6523 Z -1.0000
G01 X 5.7203 Y 11.6708 Z -1.0000
G01 X 5.7302 Y 11.6859 Z -1.0000
G01 X 5.7429 Y 11.6806 Z -1.0000
G01 X 5.7509 Y 11.6722 Z -1.0000
G01 X 5.7631 Y 11.6720 Z -1.0000
G01 X 5.7732 Y 11.6708 Z -1.0000
G01 X 5.7778 Y 11.6622 Z -1.0000
G01 X 5.7815 Y 11.6504 Z -1.0000
G01 X 5.7884 Y 11.6468 Z -1.0000
G01 X 5.7937 Y 11.6430 Z -1.0000
G01 X 5.7935 Y 11.6324 Z -1.0000
G01 X 5.7954 Y 11.6230 Z -1.0000
G01 X 5.8069 Y 11.6180 Z -1.0000
G01 X 5.8210 Y 11.6228 Z -1.0000
G01 X 5.8258 Y 11.6324 Z -1.0000
G01 X 5.8299 Y 11.6426 Z -1.0000
G01 X 5.8399 Y 11.6468 Z -1.0000
G01 X 5.8476 Y 11.6511 Z -1.0000
G01 X 5.8484 Y 11.6611 Z -1.0000
G01 X 5.8494 Y 11.6711 Z -1.0000
G01 X 5.8575 Y 11.6755 Z -1.0000
G01 X 5.8700 Y 11.6785 Z -1.0000
G01 X 5.8753 Y 11.6846 Z -1.0000
G01 X 5.8812 Y 11.6905 Z -1.0000
G02 X 5.9195 Y 11.7003 Z -1.0000 I 0.0721 J -0.2029
G02 X 5.9508 Y 11.6990 Z -1.0000 I 0.0124 J -0.0786
G01 X 5.9546 Y 11.6917 Z -1.0000
G01 X 5.9454 Y 11.6805 Z -1.0000
G02 X 5.9209 Y 11.6705 Z -1.0000 I -0.0412 J 0.0657
G03 X 5.8965 Y 11.6615 Z -1.0000 I 0.0206 J -0.0934
G01 X 5.8929 Y 11.6555 Z -1.0000
G01 X 5.9056 Y 11.6440 Z -1.0000
G01 X 5.9244 Y 11.6587 Z -1.0000
G01 X 5.9302 Y 11.6643 Z -1.0000
G01 X 5.9371 Y 11.6627 Z -1.0000
G01 X 5.9384 Y 11.6550 Z -1.0000
G02 X 5.9222 Y 11.6357 Z -1.0000 I -0.0575 J 0.0317
G01 X 5.9199 Y 11.6271 Z -1.0000
G01 X 5.9270 Y 11.6234 Z -1.0000
G03 X 5.9544 Y 11.6319 Z -1.0000 I -0.0526 J 0.2208
G01 X 5.9648 Y 11.6377 Z -1.0000
G02 X 5.9749 Y 11.6440 Z -1.0000 I 0.0380 J -0.0489
G01 X 5.9815 Y 11.6462 Z -1.0000
G01 X 5.9885 Y 11.6478 Z -1.0000
G03 X 6.0043 Y 11.6533 Z -1.0000 I -0.0811 J 0.2603
G01 X 6.0197 Y 11.6549 Z -1.0000
G01 X 6.0379 Y 11.6482 Z -1.0000
G01 X 6.0569 Y 11.6412 Z -1.0000
G03 X 6.1158 Y 11.6371 Z -1.0000 I 0.0590 J 0.4137
G02 X 6.1720 Y 11.6299 Z -1.0000 I -0.0000 J -0.2253
G01 X 6.1875 Y 11.6186 Z -1.0000
G01 X 6.2030 Y 11.6076 Z -1.0000
G03 X 6.2570 Y 11.6030 Z -1.0000 I 0.0440 J 0.1957
G02 X 6.3575 Y 11.5883 Z -1.0000 I 0.0129 J -0.2626
G01 X 6.3772 Y 11.5604 Z -1.0000
G01 X 6.3880 Y 11.5461 Z -1.0000
G03 X 6.4743 Y 11.5327 Z -1.0000 I 0.0963 J 0.3373
G02 X 6.5114 Y 11.5266 Z -1.0000 I -0.0040 J -0.1399
G01 X 6.5262 Y 11.5167 Z -1.0000
G01 X 6.5409 Y 11.5074 Z -1.0000
G03 X 6.5730 Y 11.5047 Z -1.0000 I 0.0240 J 0.0934
G01 X 6.5978 Y 11.5155 Z -1.0000
G01 X 6.6047 Y 11.5333 Z -1.0000
G01 X 6.6150 Y 11.5549 Z -1.0000
G02 X 6.6683 Y 11.5747 Z -1.0000 I 0.0705 J -0.1082
G02 X 6.7077 Y 11.5716 Z -1.0000 I 0.0126 J -0.0940
G01 X 6.7132 Y 11.5614 Z -1.0000
G01 X 6.7215 Y 11.5465 Z -1.0000
G01 X 6.7560 Y 11.5508 Z -1.0000
G01 X 6.7725 Y 11.5547 Z -1.0000
G01 X 6.7802 Y 11.5503 Z -1.0000
G01 X 6.7875 Y 11.5459 Z -1.0000
G01 X 6.7976 Y 11.5488 Z -1.0000
G02 X 6.8307 Y 11.5640 Z -1.0000 I 0.0495 J -0.0644
G01 X 6.8367 Y 11.5569 Z -1.0000
G01 X 6.8470 Y 11.5285 Z -1.0000
G03 X 6.9137 Y 11.5139 Z -1.0000 I 0.0574 J 0.1027
G02 X 6.9549 Y 11.5147 Z -1.0000 I 0.0272 J -0.3433
G01 X 6.9574 Y 11.5121 Z -1.0000
G01 X 6.9697 Y 11.4962 Z -1.0000
G03 X 7.0666 Y 11.4837 Z -1.0000 I 0.0969 J 0.3705
G02 X 7.1040 Y 11.4703 Z -1.0000 I 0.0000 J -0.0586
G01 X 7.1048 Y 11.4521 Z -1.0000
G01 X 7.1083 Y 11.4399 Z -1.0000
G03 X 7.1697 Y 11.4374 Z -1.0000 I 0.0377 J 0.1663
G01 X 7.1870 Y 11.4354 Z -1.0000
G01 X 7.1902 Y 11.4295 Z -1.0000
G01 X 7.1980 Y 11.4172 Z -1.0000
G03 X 7.3325 Y 11.3926 Z -1.0000 I 0.2363 J 0.9123
G02 X 7.3829 Y 11.3802 Z -1.0000 I -0.0209 J -0.1931
G02 X 7.4068 Y 11.3633 Z -1.0000 I -0.0226 J -0.0572
G03 X 7.4287 Y 11.3428 Z -1.0000 I 0.1108 J 0.0963
G01 X 7.4392 Y 11.3386 Z -1.0000
G03 X 7.4513 Y 11.3374 Z -1.0000 I 1.9517 J 19.2272
G02 X 7.4730 Y 11.3351 Z -1.0000 I -0.2913 J -2.8875
G02 X 7.4933 Y 11.3294 Z -1.0000 I -0.0060 J -0.0597
G02 X 7.5144 Y 11.3152 Z -1.0000 I -0.0394 J -0.0811
G01 X 7.5328 Y 11.3067 Z -1.0000
G01 X 7.5431 Y 11.3115 Z -1.0000
G01 X 7.5527 Y 11.3157 Z -1.0000
G01 X 7.5658 Y 11.3079 Z -1.0000
G03 X 7.5981 Y 11.2859 Z -1.0000 I 0.0492 J 0.0377
G03 X 7.6889 Y 11.2730 Z -1.0000 I 0.0929 J 0.3279
G02 X 7.7214 Y 11.2674 Z -1.0000 I -0.0006 J -0.1005
G01 X 7.7307 Y 11.2584 Z -1.0000
G01 X 7.7386 Y 11.2475 Z -1.0000
G01 X 7.7486 Y 11.2440 Z -1.0000
G01 X 7.7586 Y 11.2407 Z -1.0000
G01 X 7.7656 Y 11.2317 Z -1.0000
G01 X 7.7737 Y 11.2243 Z -1.0000
G03 X 7.8160 Y 11.2175 Z -1.0000 I 0.0503 J 0.1775
G02 X 7.8584 Y 11.2065 Z -1.0000 I -0.0045 J -0.1046
G01 X 7.8588 Y 11.1960 Z -1.0000
G01 X 7.8586 Y 11.1837 Z -1.0000
G03 X 7.8963 Y 11.1713 Z -1.0000 I 0.0415 J 0.0628
G02 X 8.0240 Y 11.1573 Z -1.0000 I -0.0552 J -1.0906
G01 X 8.0315 Y 11.1484 Z -1.0000
G01 X 8.0346 Y 11.1441 Z -1.0000
G03 X 8.0565 Y 11.1409 Z -1.0000 I 0.0219 J 0.0728
G02 X 8.0793 Y 11.1369 Z -1.0000 I -0.0000 J -0.0666
G01 X 8.0889 Y 11.1290 Z -1.0000
G01 X 8.0987 Y 11.1214 Z -1.0000
G03 X 8.1348 Y 11.1143 Z -1.0000 I 0.0476 J 0.1481
G02 X 8.1721 Y 11.1077 Z -1.0000 I -0.0144 J -0.1911
G02 X 8.1959 Y 11.0971 Z -1.0000 I -0.0239 J -0.0854
G03 X 8.2198 Y 11.0858 Z -1.0000 I 0.0567 J 0.0891
G03 X 8.2904 Y 11.0661 Z -1.0000 I 0.2556 J 0.7800
G02 X 8.4483 Y 11.0206 Z -1.0000 I -0.3464 J -1.4985
G01 X 8.4551 Y 11.0089 Z -1.0000
G01 X 8.4594 Y 11.0000 Z -1.0000
G01 X 8.4753 Y 10.9980 Z -1.0000
G02 X 8.4976 Y 11.0006 Z -1.0000 I 0.0210 J -0.0838
G01 X 8.5049 Y 10.9975 Z -1.0000
G01 X 8.5124 Y 10.9937 Z -1.0000
G03 X 8.5519 Y 10.9898 Z -1.0000 I 0.0489 J 0.2959
G02 X 8.6375 Y 10.9797 Z -1.0000 I -0.0173 J -0.5135
G01 X 8.6420 Y 10.9714 Z -1.0000
G01 X 8.6453 Y 10.9647 Z -1.0000
G03 X 8.6698 Y 10.9631 Z -1.0000 I 0.0156 J 0.0522
G02 X 8.6968 Y 10.9615 Z -1.0000 I 0.0101 J -0.0613
G01 X 8.7028 Y 10.9537 Z -1.0000
G01 X 8.7089 Y 10.9444 Z -1.0000
G03 X 8.7531 Y 10.9329 Z -1.0000 I 0.0643 J 0.1554
G02 X 8.8620 Y 10.9116 Z -1.0000 I -0.0917 J -0.7579
G01 X 8.8648 Y 10.9025 Z -1.0000
G01 X 8.8570 Y 10.8889 Z -1.0000
G01 X 8.8581 Y 10.8841 Z -1.0000
G01 X 8.8637 Y 10.8811 Z -1.0000
G03 X 8.9530 Y 10.8656 Z -1.0000 I 0.4370 J 2.2457
G02 X 9.0428 Y 10.8498 Z -1.0000 I -0.3093 J -2.0197
G02 X 9.1247 Y 10.8314 Z -1.0000 I -0.3479 J -1.7467
G03 X 9.2063 Y 10.8116 Z -1.0000 I 1.8643 J 7.5028
G03 X 9.2302 Y 10.8064 Z -1.0000 I 0.1482 J 0.6254
G02 X 9.3658 Y 10.7745 Z -1.0000 I -0.3658 J -1.8556
G02 X 9.3900 Y 10.7625 Z -1.0000 I -0.0188 J -0.0686
G01 X 9.4063 Y 10.7550 Z -1.0000
G03 X 9.5419 Y 10.7295 Z -1.0000 I 0.5192 J 2.3859
G02 X 9.5791 Y 10.7204 Z -1.0000 I -0.0380 J -0.2356
G02 X 9.5992 Y 10.7104 Z -1.0000 I -0.0252 J -0.0759
G03 X 9.6192 Y 10.7011 Z -1.0000 I 0.0380 J 0.0556
G03 X 9.6464 Y 10.6974 Z -1.0000 I 0.0272 J 0.0986
G02 X 9.6745 Y 10.6952 Z -1.0000 I 0.0000 J -0.1805
G02 X 9.7042 Y 10.6884 Z -1.0000 I -0.0345 J -0.2191
G03 X 9.7339 Y 10.6802 Z -1.0000 I 0.1512 J 0.4897
G03 X 9.7893 Y 10.6676 Z -1.0000 I 0.4465 J 1.8298
G02 X 9.8430 Y 10.6531 Z -1.0000 I -0.1074 J -0.5054
G01 X 9.8499 Y 10.6477 Z -1.0000
G01 X 9.8558 Y 10.6435 Z -1.0000
G01 X 9.8634 Y 10.6449 Z -1.0000
G02 X 9.9616 Y 10.6636 Z -1.0000 I 0.0733 J -0.1178
G01 X 9.9974 Y 10.6206 Z -1.0000
G01 X 10.0004 Y 10.6171 Z -1.0000
G03 X 10.0430 Y 10.6118 Z -1.0000 I 0.0585 J 0.3004
G02 X 10.0885 Y 10.6094 Z -1.0000 I -0.4233 J -8.1576
G02 X 10.1005 Y 10.6086 Z -1.0000 I -0.2161 J -3.7592
G01 X 10.1103 Y 10.6058 Z -1.0000
G01 X 10.1125 Y 10.6020 Z -1.0000
G01 X 10.1150 Y 10.5985 Z -1.0000
G03 X 10.1341 Y 10.5942 Z -1.0000 I 0.0252 J 0.0685
G02 X 10.2475 Y 10.5781 Z -1.0000 I -0.0942 J -1.0686
G02 X 10.3810 Y 10.5455 Z -1.0000 I -0.2971 J -1.5051
G03 X 10.5079 Y 10.5105 Z -1.0000 I 1.2029 J 4.1153
G03 X 10.5536 Y 10.5007 Z -1.0000 I 0.1355 J 0.5228
G02 X 10.5776 Y 10.4965 Z -1.0000 I -0.2581 J -1.5475
G02 X 10.6254 Y 10.4876 Z -1.0000 I -1.0568 J -5.7823
G03 X 10.6728 Y 10.4809 Z -1.0000 I 0.0951 J 0.5002
G01 X 10.6796 Y 10.4825 Z -1.0000
G02 X 10.7535 Y 10.4956 Z -1.0000 I 0.0535 J -0.0868
G02 X 10.8442 Y 10.4486 Z -1.0000 I -0.0377 J -0.1838
G01 X 10.8529 Y 10.4455 Z -1.0000
G03 X 10.8903 Y 10.4517 Z -1.0000 I -0.0130 J 0.1931
G02 X 10.9263 Y 10.4559 Z -1.0000 I 0.0325 J -0.1222
G01 X 10.9358 Y 10.4504 Z -1.0000
G01 X 10.9455 Y 10.4429 Z -1.0000
G03 X 10.9836 Y 10.4352 Z -1.0000 I 0.0542 J 0.1711
G02 X 11.0231 Y 10.4293 Z -1.0000 I -0.0306 J -0.3412
G01 X 11.0302 Y 10.4255 Z -1.0000
G01 X 11.0372 Y 10.4218 Z -1.0000
G03 X 11.0611 Y 10.4191 Z -1.0000 I 0.0257 J 0.1238
G02 X 11.0846 Y 10.4152 Z -1.0000 I -0.0010 J -0.0787
G02 X 11.1041 Y 10.4050 Z -1.0000 I -0.0207 J -0.0632
G03 X 11.1224 Y 10.3953 Z -1.0000 I 0.0388 J 0.0511
G01 X 11.1302 Y 10.3962 Z -1.0000
G01 X 11.1383 Y 10.3978 Z -1.0000
G02 X 11.1556 Y 10.3918 Z -1.0000 I -0.0097 J -0.0563
G03 X 11.1803 Y 10.3840 Z -1.0000 I 0.0332 J 0.0620
G03 X 11.3685 Y 10.3659 Z -1.0000 I 0.4553 J 3.7302
G02 X 11.4386 Y 10.3569 Z -1.0000 I -0.0449 J -0.6318
G01 X 11.4526 Y 10.3504 Z -1.0000
G01 X 11.4650 Y 10.3443 Z -1.0000
G01 X 11.4712 Y 10.3461 Z -1.0000
G01 X 11.4774 Y 10.3481 Z -1.0000
G01 X 11.4883 Y 10.3431 Z -1.0000
G01 X 11.5006 Y 10.3377 Z -1.0000
G03 X 11.5754 Y 10.3323 Z -1.0000 I 0.0900 J 0.7226
G02 X 11.6511 Y 10.3267 Z -1.0000 I -0.0160 J -0.7294
G02 X 11.6996 Y 10.3167 Z -1.0000 I -0.0398 J -0.3142
G03 X 11.7480 Y 10.3052 Z -1.0000 I 0.1333 J 0.4566
G03 X 11.7955 Y 10.2993 Z -1.0000 I 0.0787 J 0.4336
G02 X 11.8434 Y 10.2952 Z -1.0000 I -0.1386 J -1.9237
G02 X 11.8962 Y 10.2895 Z -1.0000 I -0.2214 J -2.2788
G03 X 11.9490 Y 10.2839 Z -1.0000 I 0.1996 J 1.6544
G03 X 11.9840 Y 10.2818 Z -1.0000 I 0.0595 J 0.6727
G01 X 12.0156 Y 10.2749 Z -1.0000
G01 X 12.0240 Y 10.2572 Z -1.0000
G03 X 12.1752 Y 10.2534 Z -1.0000 I 0.0926 J 0.6902
G02 X 12.2280 Y 10.2528 Z -1.0000 I 0.0231 J -0.2691
G02 X 12.2626 Y 10.2438 Z -1.0000 I -0.0138 J -0.1245
G03 X 12.2960 Y 10.2343 Z -1.0000 I 0.0562 J 0.1338
G01 X 12.3076 Y 10.2366 Z -1.0000
G01 X 12.3196 Y 10.2400 Z -1.0000
G02 X 12.3734 Y 10.2362 Z -1.0000 I -0.0029 J -0.4194
G03 X 12.4272 Y 10.2311 Z -1.0000 I 0.0887 J 0.6492
G01 X 12.4321 Y 10.2330 Z -1.0000
G01 X 12.4364 Y 10.2340 Z -1.0000
G01 X 12.4468 Y 10.2286 Z -1.0000
G03 X 12.4830 Y 10.2132 Z -1.0000 I 0.0441 J 0.0538
G03 X 12.5161 Y 10.2208 Z -1.0000 I 0.0058 J 0.0512
G01 X 12.5277 Y 10.2236 Z -1.0000
G02 X 12.5737 Y 10.2171 Z -1.0000 I -0.0181 J -0.2897
G03 X 12.6207 Y 10.2101 Z -1.0000 I 0.0693 J 0.3064
G03 X 12.7401 Y 10.2051 Z -1.0000 I 0.1434 J 2.0166
G02 X 12.8590 Y 10.2002 Z -1.0000 I -0.0236 J -2.0099
G01 X 12.8724 Y 10.1958 Z -1.0000
G03 X 13.0372 Y 10.1459 Z -1.0000 I 0.1692 J 0.2617
G01 X 13.0855 Y 10.1928 Z -1.0000
G01 X 13.0942 Y 10.1903 Z -1.0000
G03 X 13.1389 Y 10.1618 Z -1.0000 I 0.0527 J 0.0333
G01 X 13.1764 Y 10.1796 Z -1.0000
G01 X 13.1844 Y 10.1857 Z -1.0000
G02 X 13.2106 Y 10.1894 Z -1.0000 I 0.0262 J -0.0918
G01 X 13.2331 Y 10.1833 Z -1.0000
G01 X 13.2396 Y 10.1726 Z -1.0000
G01 X 13.2452 Y 10.1678 Z -1.0000
G01 X 13.2524 Y 10.1763 Z -1.0000
G01 X 13.2646 Y 10.1798 Z -1.0000
G01 X 13.2729 Y 10.1755 Z -1.0000
G01 X 13.2740 Y 10.1662 Z -1.0000
G01 X 13.2747 Y 10.1551 Z -1.0000
G01 X 13.2850 Y 10.1457 Z -1.0000
G03 X 13.5336 Y 10.0949 Z -1.0000 I 0.2497 J 0.5882
G03 X 13.6064 Y 10.1452 Z -1.0000 I 0.0001 J 0.0776
G01 X 13.6071 Y 10.1296 Z -1.0000
G01 X 13.6145 Y 10.1189 Z -1.0000
G01 X 13.6386 Y 10.1220 Z -1.0000
G02 X 13.6732 Y 10.1356 Z -1.0000 I 0.0757 J -0.1412
G01 X 13.6839 Y 10.1340 Z -1.0000
G03 X 13.6967 Y 10.1280 Z -1.0000 I 0.0281 J 0.0439
G03 X 13.7183 Y 10.1234 Z -1.0000 I 0.0375 J 0.1226
G01 X 13.7248 Y 10.1194 Z -1.0000
G01 X 13.7279 Y 10.1090 Z -1.0000
G01 X 13.7326 Y 10.0996 Z -1.0000
G01 X 13.7519 Y 10.0911 Z -1.0000
G01 X 13.7717 Y 10.0917 Z -1.0000
G01 X 13.7760 Y 10.0972 Z -1.0000
G01 X 13.7849 Y 10.0941 Z -1.0000
G01 X 13.7948 Y 10.0879 Z -1.0000
G01 X 13.8071 Y 10.0915 Z -1.0000
G01 X 13.8202 Y 10.0963 Z -1.0000
G01 X 13.8314 Y 10.0917 Z -1.0000
G01 X 13.8406 Y 10.0893 Z -1.0000
G01 X 13.8485 Y 10.0965 Z -1.0000
G01 X 13.8575 Y 10.1045 Z -1.0000
G01 X 13.8725 Y 10.1027 Z -1.0000
G01 X 13.8911 Y 10.0981 Z -1.0000
G03 X 13.9315 Y 10.1033 Z -1.0000 I -0.0018 J 0.1743
G02 X 13.9862 Y 10.1098 Z -1.0000 I 0.0535 J -0.2149
G02 X 14.0252 Y 10.1027 Z -1.0000 I -0.0007 J -0.1142
G01 X 14.0301 Y 10.1018 Z -1.0000
G03 X 14.0516 Y 10.1027 Z -1.0000 I 0.0003 J 0.2632
G01 X 14.0686 Y 10.0994 Z -1.0000
G01 X 14.0733 Y 10.0918 Z -1.0000
G01 X 14.0763 Y 10.0892 Z -1.0000
G01 X 14.0823 Y 10.0932 Z -1.0000
G02 X 14.1454 Y 10.1289 Z -1.0000 I 0.0649 J -0.0410
G02 X 14.2058 Y 10.0962 Z -1.0000 I 0.0016 J -0.0691
G01 X 14.2151 Y 10.0896 Z -1.0000
G03 X 14.2508 Y 10.0863 Z -1.0000 I 0.0311 J 0.1412
G02 X 14.2886 Y 10.0849 Z -1.0000 I 0.0088 J -0.2898
G02 X 14.3156 Y 10.0798 Z -1.0000 I -0.0154 J -0.1533
G01 X 14.3399 Y 10.0801 Z -1.0000
G01 X 14.3617 Y 10.0945 Z -1.0000
G01 X 14.3803 Y 10.1068 Z -1.0000
G01 X 14.3894 Y 10.1034 Z -1.0000
G03 X 14.4842 Y 10.0444 Z -1.0000 I 0.1068 J 0.0659
G03 X 14.5685 Y 10.0862 Z -1.0000 I 0.0085 J 0.0886
G01 X 14.5746 Y 10.0907 Z -1.0000
G02 X 14.5969 Y 10.0935 Z -1.0000 I 0.0224 J -0.0870
G01 X 14.6142 Y 10.0898 Z -1.0000
G01 X 14.6157 Y 10.0850 Z -1.0000
G01 X 14.6230 Y 10.0733 Z -1.0000
G03 X 14.6833 Y 10.0915 Z -1.0000 I -0.0155 J 0.1604
G02 X 14.7031 Y 10.0987 Z -1.0000 I 0.0349 J -0.0650
G01 X 14.7089 Y 10.0970 Z -1.0000
G03 X 14.7549 Y 10.0769 Z -1.0000 I 0.0487 J 0.0487
G01 X 14.7732 Y 10.0945 Z -1.0000
G01 X 14.7971 Y 10.1123 Z -1.0000
G02 X 14.8522 Y 10.0708 Z -1.0000 I -0.0287 J -0.0955
G01 X 14.8594 Y 10.0706 Z -1.0000
G01 X 14.8784 Y 10.0890 Z -1.0000
G02 X 14.9466 Y 10.0690 Z -1.0000 I -0.0024 J -0.1338
G03 X 14.9881 Y 10.0589 Z -1.0000 I 0.0363 J 0.0587
G03 X 15.0287 Y 10.0753 Z -1.0000 I -0.0055 J 0.0719
G01 X 15.0417 Y 10.0810 Z -1.0000
G01 X 15.0596 Y 10.0794 Z -1.0000
G03 X 15.1928 Y 10.0608 Z -1.0000 I 0.1212 J 0.3817
G03 X 15.2340 Y 10.0846 Z -1.0000 I -0.0015 J 0.0502
