%
(Header)
(Generated by gcodetools from Inkscape.)
(Using default header. To add your own header create file "header" in the output dir.)
M3
(Header end.)
G21 (All units in mm)

(Start cutting path id: path71381)
(Change tool to Default tool)

G00 X20.662184 Y2.485291


(End cutting path id: path71381)


(Start cutting path id: path71381)
(Change tool to Default tool)



(End cutting path id: path71381)


(Start cutting path id: path71381)
(Change tool to Default tool)

G00 X20.610743 Y2.681960


(End cutting path id: path71381)


(Start cutting path id: path71381)
(Change tool to Default tool)



(End cutting path id: path71381)


(Start cutting path id: path71381)
(Change tool to Default tool)

G00 X20.843956 Y2.503641


(End cutting path id: path71381)


(Start cutting path id: path71381)
(Change tool to Default tool)



(End cutting path id: path71381)


(Start cutting path id: path71381)
(Change tool to Default tool)

G00 X21.097751 Y2.557421

G01 X21.334398 Y2.567471 Z-1.000000 F3500.000000
G02 X21.634807 Y2.564626 Z-1.000000 I0.061433 J-9.375951
G02 X21.097751 Y2.557371 Z-1.000000 I-0.016755 J4.227344

(End cutting path id: path71381)


(Start cutting path id: path71381)
(Change tool to Default tool)


G02 X21.455155 Y2.634424 Z-1.000000 I0.453712 J-4.498237 F3500.000000
G02 X21.234938 Y2.609741 Z-1.000000 I-0.535767 J9.883746

(End cutting path id: path71381)


(Start cutting path id: path71381)
(Change tool to Default tool)

G00 X21.180063 Y2.848384

G02 X20.981195 Y2.874124 Z-1.000000 I0.183453 J1.416631
G01 X20.768505 Y2.855460 Z-1.000000
G03 X21.132049 Y2.837160 Z-1.000000 I0.188523 J5.396324

(End cutting path id: path71381)


(Start cutting path id: path71381)
(Change tool to Default tool)

G00 X21.361549 Y2.827474


(End cutting path id: path71381)


(Start cutting path id: path71381)
(Change tool to Default tool)



(End cutting path id: path71381)


(Start cutting path id: path71381)
(Change tool to Default tool)



(End cutting path id: path71381)


(Start cutting path id: path71381)
(Change tool to Default tool)

G00 X21.502451 Y2.654804

G01 X21.265153 Y2.739624 Z-1.000000
G03 X20.878205 Y2.761366 Z-1.000000 I-1.005516 J-16.981562
G01 X20.521571 Y2.775234 Z-1.000000
G02 X20.744852 Y2.739219 Z-1.000000 I-0.237187 J-1.649384
G03 X20.480052 Y2.746668 Z-1.000000 I-0.165081 J-1.023728
G03 X20.228184 Y2.762994 Z-1.000000 I-0.720106 J-9.158431
G01 X19.975953 Y2.775864 Z-1.000000
G01 X20.363822 Y2.908422 Z-1.000000
G03 X20.684769 Y2.913370 Z-1.000000 I-0.002869 J10.597200
G02 X21.111489 Y2.893652 Z-1.000000 I-0.299162 J-4.862954
G03 X21.440736 Y2.865562 Z-1.000000 I0.341846 J4.006910
G01 X21.634989 Y2.812982 Z-1.000000
G01 X21.334830 Y2.799042 Z-1.000000
G02 X21.043218 Y2.810323 Z-1.000000 I0.328796 J12.274177
G03 X20.216714 Y2.873709 Z-1.000000 I-1.068122 J-9.336839
G03 X20.782318 Y2.793122 Z-1.000000 I1.056889 J17.142099
G02 X21.286457 Y2.750816 Z-1.000000 I-0.206684 J-5.487931
G03 X21.505669 Y2.685501 Z-1.000000 I0.154316 J0.348751

(End cutting path id: path71381)


(Start cutting path id: path71381)
(Change tool to Default tool)



(End cutting path id: path71381)


(Start cutting path id: path71381)
(Change tool to Default tool)

G00 X21.639890 Y3.030054

G02 X21.186528 Y3.084109 Z-1.000000 I0.195940 J2.951508
G03 X20.971374 Y3.140574 Z-1.000000 I-0.129521 J-0.535656
G03 X21.276387 Y3.014294 Z-1.000000 I0.268882 J10.064032
G03 X21.637495 Y3.024036 Z-1.000000 I-0.110376 J10.789010

(End cutting path id: path71381)


(Start cutting path id: path71381)
(Change tool to Default tool)



(End cutting path id: path71381)


(Start cutting path id: path71381)
(Change tool to Default tool)



(End cutting path id: path71381)


(Start cutting path id: path71381)
(Change tool to Default tool)



(End cutting path id: path71381)


(Start cutting path id: path71381)
(Change tool to Default tool)

G00 X21.581341 Y3.500453


(End cutting path id: path71381)


(Start cutting path id: path71381)
(Change tool to Default tool)



(End cutting path id: path71381)


(Start cutting path id: path71381)
(Change tool to Default tool)

G00 X21.180066 Y3.314163

G02 X21.431575 Y3.326643 Z-1.000000 I0.171114 J-3.446482
G03 X21.116420 Y3.424628 Z-1.000000 I-0.271213 J-0.706605
G02 X20.905669 Y3.388397 Z-1.000000 I-0.119005 J0.244192
G03 X21.180039 Y3.314117 Z-1.000000 I-0.348869 J3.726429

(End cutting path id: path71381)


(Start cutting path id: path71381)
(Change tool to Default tool)

G00 X20.885235 Y3.266473

G01 X20.804489 Y3.459153 Z-1.000000
G02 X21.096911 Y3.458846 Z-1.000000 I-0.113828 J-1.791838
G03 X21.447592 Y3.410973 Z-1.000000 I0.311121 J2.694805
G01 X21.641394 Y3.299333 Z-1.000000
G02 X21.427092 Y3.278713 Z-1.000000 I-0.046432 J1.394245
G03 X21.132141 Y3.266133 Z-1.000000 I0.073332 J-1.720391
G02 X20.885327 Y3.266593 Z-1.000000 I1.636860 J6.393342

(End cutting path id: path71381)


(Start cutting path id: path71381)
(Change tool to Default tool)



(End cutting path id: path71381)


(Start cutting path id: path71381)
(Change tool to Default tool)



(End cutting path id: path71381)


(Start cutting path id: path71381)
(Change tool to Default tool)

G00 X20.922834 Y2.937934


(End cutting path id: path71381)


(Start cutting path id: path71381)
(Change tool to Default tool)


G01 X20.754686 Y3.050424 Z-1.000000
G01 X20.990933 Y3.190298 Z-1.000000
G03 X21.291352 Y3.103701 Z-1.000000 I0.408613 J1.156479
G03 X21.543345 Y3.080178 Z-1.000000 I0.286927 J1.712209
G02 X21.001653 Y2.977838 Z-1.000000 I-0.025953 J1.609837

(End cutting path id: path71381)


(Start cutting path id: path71381)
(Change tool to Default tool)

G00 X20.634746 Y2.870364


(End cutting path id: path71381)


(Start cutting path id: path71381)
(Change tool to Default tool)

G00 X20.401775 Y2.787844


(End cutting path id: path71381)


(Start cutting path id: path71381)
(Change tool to Default tool)


G03 X20.209928 Y2.884129 Z-1.000000 I-0.000092 J-1.057438

(End cutting path id: path71381)


(Start cutting path id: path71381)
(Change tool to Default tool)



(End cutting path id: path71381)


(Start cutting path id: path71381)
(Change tool to Default tool)



(End cutting path id: path71381)


(Start cutting path id: path71381)
(Change tool to Default tool)

G00 X20.096024 Y2.709830


(End cutting path id: path71381)


(Start cutting path id: path71381)
(Change tool to Default tool)



(End cutting path id: path71381)


(Start cutting path id: path71381)
(Change tool to Default tool)



(End cutting path id: path71381)


(Start cutting path id: path71381)
(Change tool to Default tool)

G00 X19.369297 Y2.626984


(End cutting path id: path71381)


(Start cutting path id: path71381)
(Change tool to Default tool)

G00 X19.187735 Y3.286583

G02 X18.648972 Y3.396453 Z-1.000000 I-0.216968 J6.707329
G03 X18.423755 Y3.387053 Z-1.000000 I0.022553 J-0.536239
G02 X18.635255 Y3.324343 Z-1.000000 I-0.797541 J-12.357382
G03 X18.914209 Y3.311603 Z-1.000000 I0.064318 J1.412924
G03 X19.113261 Y3.257493 Z-1.000000 I0.059206 J0.070350

(End cutting path id: path71381)


(Start cutting path id: path71381)
(Change tool to Default tool)


G02 X18.880991 Y3.246287 Z-1.000000 I-0.028190 J0.112822
G03 X18.669254 Y3.268035 Z-1.000000 I-0.244824 J-1.717309
G01 X18.354020 Y3.283503 Z-1.000000
G02 X18.534024 Y3.443371 Z-1.000000 I0.077807 J-0.388187
G02 X18.744903 Y3.442980 Z-1.000000 I0.042515 J-0.111489
G03 X19.011438 Y3.444168 Z-1.000000 I0.054935 J1.196018
G02 X19.266109 Y3.393273 Z-1.000000 I-0.079996 J-0.232770
G02 X19.107308 Y3.189617 Z-1.000000 I-0.139731 J0.193610

(End cutting path id: path71381)


(Start cutting path id: path71381)
(Change tool to Default tool)

G00 X18.566655 Y2.860252


(End cutting path id: path71381)


(Start cutting path id: path71381)
(Change tool to Default tool)

G00 X18.264844 Y2.915144


(End cutting path id: path71381)


(Start cutting path id: path71381)
(Change tool to Default tool)

G00 X17.850015 Y2.842522


(End cutting path id: path71381)


(Start cutting path id: path71381)
(Change tool to Default tool)



(End cutting path id: path71381)


(Start cutting path id: path71381)
(Change tool to Default tool)



(End cutting path id: path71381)


(Start cutting path id: path71381)
(Change tool to Default tool)

G00 X17.623497 Y2.953264

G02 X17.816597 Y3.049924 Z-1.000000 I0.035917 J-0.047295
G02 X17.623517 Y2.953214 Z-1.000000 I-0.009862 J0.131947

(End cutting path id: path71381)


(Start cutting path id: path71381)
(Change tool to Default tool)



(End cutting path id: path71381)


(Start cutting path id: path71381)
(Change tool to Default tool)

G00 X17.503464 Y2.627031

G02 X17.298272 Y2.672900 Z-1.000000 I-0.000000 J0.194244
G02 X17.407290 Y2.846691 Z-1.000000 I0.413837 J-2.566863
G02 X17.572688 Y3.096251 Z-1.000000 I0.128888 J-0.011636
G03 X17.466792 Y3.268685 Z-1.000000 I-0.074114 J-0.194344
G01 X17.621096 Y3.417632 Z-1.000000
G01 X17.827736 Y3.540922 Z-1.000000
G01 X17.777816 Y3.757552 Z-1.000000
G02 X17.825833 Y3.983191 Z-1.000000 I0.210546 J-0.179181
G01 X17.499519 Y4.040051 Z-1.000000
G01 X17.809996 Y4.101821 Z-1.000000
G01 X17.783966 Y4.314441 Z-1.000000
G01 X17.565154 Y4.314441 Z-1.000000
G01 X17.880683 Y4.369321 Z-1.000000
G01 X17.694955 Y4.533941 Z-1.000000
G02 X17.450279 Y4.625814 Z-1.000000 I0.013659 J0.239254
G01 X17.407717 Y4.824571 Z-1.000000
G03 X17.446212 Y5.041023 Z-1.000000 I-0.075615 J0.081141
G03 X17.112368 Y5.087509 Z-1.000000 I-0.674155 J-17.534104
G02 X16.817520 Y5.096446 Z-1.000000 I0.364442 J16.891686
G02 X16.543044 Y5.109789 Z-1.000000 I0.561853 J14.387629
G01 X16.268671 Y5.125769 Z-1.000000
G03 X15.968867 Y5.090302 Z-1.000000 I0.384217 J-3.568036
G03 X16.172540 Y5.044945 Z-1.000000 I0.410953 J3.205849
G03 X16.595622 Y5.023289 Z-1.000000 I0.956377 J14.540424
G01 X16.714557 Y4.862199 Z-1.000000
G01 X16.203537 Y4.868599 Z-1.000000
G02 X15.692700 Y4.878278 Z-1.000000 I0.489923 J39.342396
G01 X15.507316 Y4.958839 Z-1.000000
G03 X15.696600 Y5.038268 Z-1.000000 I-0.091700 J1.601999
G01 X15.469203 Y5.166519 Z-1.000000
G02 X15.253790 Y5.176019 Z-1.000000 I1.203322 J29.732595
G02 X15.027209 Y5.303719 Z-1.000000 I0.286730 J1.895311
G03 X14.680812 Y5.340117 Z-1.000000 I-0.385382 J-2.001141
G03 X14.420559 Y5.315319 Z-1.000000 I-0.021958 J-1.147627
G03 X14.487859 Y5.083191 Z-1.000000 I1.010466 J-0.102024
G01 X14.123409 Y4.978561 Z-1.000000
G02 X13.758369 Y4.987928 Z-1.000000 I0.464845 J25.232564
G03 X13.552054 Y4.995643 Z-1.000000 I-0.062989 J-0.783747
G01 X13.195794 Y4.805411 Z-1.000000
G02 X12.866748 Y4.805682 Z-1.000000 I-0.157772 J8.207455
G02 X12.640189 Y4.817081 Z-1.000000 I0.080485 J3.856720
G03 X12.413695 Y4.831785 Z-1.000000 I-0.619346 J-7.788563
G01 X12.133564 Y4.835770 Z-1.000000
G02 X12.035564 Y4.654170 Z-1.000000 I-0.267794 J0.112612
G01 X12.050284 Y4.424190 Z-1.000000
G01 X11.926824 Y4.208660 Z-1.000000
G02 X12.045871 Y4.013707 Z-1.000000 I-0.091528 J-0.046052
G02 X12.032708 Y3.807758 Z-1.000000 I-0.203885 J-0.014976
G03 X12.003601 Y3.599591 Z-1.000000 I0.072551 J0.000239
G02 X12.125132 Y3.410627 Z-1.000000 I0.000000 J-0.054497
G02 X12.124614 Y3.183750 Z-1.000000 I-0.049964 J-0.009993
G01 X11.940507 Y3.093671 Z-1.000000
G02 X12.182337 Y2.993459 Z-1.000000 I0.000000 J-0.211806
G02 X11.952631 Y3.032541 Z-1.000000 I0.056913 J0.198175
G01 X12.107100 Y3.189491 Z-1.000000
G03 X12.015040 Y3.409031 Z-1.000000 I-0.058370 J-0.021005
G02 X11.875711 Y3.553788 Z-1.000000 I0.056291 J0.014719
G01 X11.960898 Y3.738371 Z-1.000000
G01 X11.995348 Y3.957791 Z-1.000000
G02 X11.768898 Y3.836351 Z-1.000000 I-0.072206 J0.065559
G01 X11.866217 Y3.656011 Z-1.000000
G03 X11.754547 Y3.487141 Z-1.000000 I0.108107 J0.069728
G03 X11.551577 Y3.362629 Z-1.000000 I0.054776 J-0.480845
G02 X11.405295 Y3.208245 Z-1.000000 I-0.058952 J0.065146
G01 X11.416059 Y3.429694 Z-1.000000
G01 X11.353949 Y3.630674 Z-1.000000
G01 X11.275059 Y3.817864 Z-1.000000
G02 X11.366970 Y4.022632 Z-1.000000 I0.142228 J-0.132490
G01 X11.380609 Y4.243893 Z-1.000000
G02 X11.661101 Y4.424213 Z-1.000000 I0.213537 J-1.540293
G03 X11.776187 Y4.239007 Z-1.000000 I0.230435 J0.019582
G03 X11.909627 Y4.067967 Z-1.000000 I0.058065 J0.247439
G01 X11.870015 Y4.265241 Z-1.000000
G02 X11.947211 Y4.450628 Z-1.000000 I0.053553 J-0.045942
G02 X12.010247 Y4.691076 Z-1.000000 I0.108679 J-0.005911
G01 X12.362321 Y4.857781 Z-1.000000
G03 X12.633289 Y4.850402 Z-1.000000 I1.150695 J37.277262
G03 X13.068947 Y4.841181 Z-1.000000 I2.117075 J89.726023
G01 X13.504629 Y4.832981 Z-1.000000
G01 X13.532789 Y5.034831 Z-1.000000
G01 X13.806213 Y5.042431 Z-1.000000
G01 X14.135460 Y5.000611 Z-1.000000
G03 X14.461735 Y5.003584 Z-1.000000 I0.000000 J17.907165
G01 X14.464668 Y5.220151 Z-1.000000
G02 X14.636341 Y5.496899 Z-1.000000 I0.274927 J-0.169921
G02 X15.007241 Y5.344411 Z-1.000000 I0.000592 J-0.525877
G03 X15.242391 Y5.301841 Z-1.000000 I0.058978 J0.286032
G03 X15.532558 Y5.193711 Z-1.000000 I0.185324 J2.973368
G01 X15.731477 Y5.168736 Z-1.000000
G01 X15.534687 Y5.000676 Z-1.000000
G01 X15.771000 Y4.932566 Z-1.000000
G01 X16.220924 Y4.891786 Z-1.000000
G01 X16.687049 Y4.893186 Z-1.000000
G02 X15.997490 Y5.019526 Z-1.000000 I0.313558 J11.923168
G03 X16.309733 Y5.165613 Z-1.000000 I-1.515862 J26.734023
G03 X16.545630 Y5.151366 Z-1.000000 I0.156878 J2.189335
G02 X16.762508 Y5.137506 Z-1.000000 I-0.020026 J-0.314071
G03 X17.165723 Y5.117596 Z-1.000000 I0.551870 J11.135400
G02 X17.512597 Y5.107814 Z-1.000000 I-0.319244 J-17.475161
G03 X17.429460 Y4.883572 Z-1.000000 I0.020066 J-0.052531
G01 X17.586815 Y4.719391 Z-1.000000
G03 X17.792364 Y4.567395 Z-1.000000 I-0.000000 J0.602046
G01 X17.925519 Y4.409875 Z-1.000000
G02 X17.943607 Y4.148848 Z-1.000000 I-0.116560 J-0.094853
G02 X17.845837 Y3.942898 Z-1.000000 I-0.110332 J0.122396
G01 X17.896150 Y3.719107 Z-1.000000
G01 X17.873076 Y3.518141 Z-1.000000
G03 X17.702829 Y3.404269 Z-1.000000 I0.071259 J-0.155678
G03 X17.417644 Y3.322761 Z-1.000000 I0.426184 J-3.124190
G01 X17.571723 Y3.193908 Z-1.000000
G03 X17.558061 Y2.974779 Z-1.000000 I0.073866 J-0.107800
G02 X17.424827 Y2.818958 Z-1.000000 I-0.816923 J6.274531
G03 X17.175544 Y2.771185 Z-1.000000 I0.161761 J-1.518350
G02 X17.396007 Y2.691052 Z-1.000000 I-0.000000 J-0.201124

(End cutting path id: path71381)


(Start cutting path id: path71381)
(Change tool to Default tool)

G00 X17.969893 Y4.479104


(End cutting path id: path71381)


(Start cutting path id: path71381)
(Change tool to Default tool)



(End cutting path id: path71381)


(Start cutting path id: path71381)
(Change tool to Default tool)

G00 X18.526642 Y4.443560


(End cutting path id: path71381)


(Start cutting path id: path71381)
(Change tool to Default tool)

G00 X18.765575 Y4.402940


(End cutting path id: path71381)


(Start cutting path id: path71381)
(Change tool to Default tool)



(End cutting path id: path71381)


(Start cutting path id: path71381)
(Change tool to Default tool)

G00 X18.790476 Y4.136170


(End cutting path id: path71381)


(Start cutting path id: path71381)
(Change tool to Default tool)



(End cutting path id: path71381)


(Start cutting path id: path71381)
(Change tool to Default tool)

G00 X18.998790 Y4.149790


(End cutting path id: path71381)


(Start cutting path id: path71381)
(Change tool to Default tool)



(End cutting path id: path71381)


(Start cutting path id: path71381)
(Change tool to Default tool)



(End cutting path id: path71381)


(Start cutting path id: path71381)
(Change tool to Default tool)

G00 X18.937058 Y4.355640


(End cutting path id: path71381)


(Start cutting path id: path71381)
(Change tool to Default tool)

G00 X18.847883 Y4.561414


(End cutting path id: path71381)


(Start cutting path id: path71381)
(Change tool to Default tool)



(End cutting path id: path71381)


(Start cutting path id: path71381)
(Change tool to Default tool)

G00 X19.921365 Y4.707599


(End cutting path id: path71381)


(Start cutting path id: path71381)
(Change tool to Default tool)


G02 X20.177799 Y4.692956 Z-1.000000 I-0.135439 J-1.021813

(End cutting path id: path71381)


(Start cutting path id: path71381)
(Change tool to Default tool)



(End cutting path id: path71381)


(Start cutting path id: path71381)
(Change tool to Default tool)

G00 X20.531848 Y4.584554


(End cutting path id: path71381)


(Start cutting path id: path71381)
(Change tool to Default tool)

G00 X20.576438 Y4.314480


(End cutting path id: path71381)


(Start cutting path id: path71381)
(Change tool to Default tool)



(End cutting path id: path71381)


(Start cutting path id: path71381)
(Change tool to Default tool)



(End cutting path id: path71381)


(Start cutting path id: path71381)
(Change tool to Default tool)


G01 X20.785652 Y4.231940 Z-1.000000

(End cutting path id: path71381)


(Start cutting path id: path71381)
(Change tool to Default tool)



(End cutting path id: path71381)


(Start cutting path id: path71381)
(Change tool to Default tool)


G02 X21.005311 Y4.214133 Z-1.000000 I-0.000404 J-0.095094

(End cutting path id: path71381)


(Start cutting path id: path71381)
(Change tool to Default tool)



(End cutting path id: path71381)


(Start cutting path id: path71381)
(Change tool to Default tool)

G00 X21.418383 Y4.030980


(End cutting path id: path71381)


(Start cutting path id: path71381)
(Change tool to Default tool)

G00 X21.005906 Y3.720173


(End cutting path id: path71381)


(Start cutting path id: path71381)
(Change tool to Default tool)



(End cutting path id: path71381)


(Start cutting path id: path71381)
(Change tool to Default tool)


G01 X20.976530 Y3.521223 Z-1.000000

(End cutting path id: path71381)


(Start cutting path id: path71381)
(Change tool to Default tool)

G00 X20.131620 Y3.682503


(End cutting path id: path71381)


(Start cutting path id: path71381)
(Change tool to Default tool)

G00 X19.780756 Y3.710873


(End cutting path id: path71381)


(Start cutting path id: path71381)
(Change tool to Default tool)

G00 X20.305478 Y4.899658


(End cutting path id: path71381)


(Start cutting path id: path71381)
(Change tool to Default tool)

G00 X20.512132 Y5.256803


(End cutting path id: path71381)


(Start cutting path id: path71381)
(Change tool to Default tool)

G00 X21.197351 Y4.763088


(End cutting path id: path71381)


(Start cutting path id: path71381)
(Change tool to Default tool)

G00 X22.062336 Y4.639324


(End cutting path id: path71381)


(Start cutting path id: path71381)
(Change tool to Default tool)



(End cutting path id: path71381)


(Start cutting path id: path71381)
(Change tool to Default tool)

G00 X22.001841 Y4.083380


(End cutting path id: path71381)


(Start cutting path id: path71381)
(Change tool to Default tool)



(End cutting path id: path71381)


(Start cutting path id: path71381)
(Change tool to Default tool)



(End cutting path id: path71381)


(Start cutting path id: path71381)
(Change tool to Default tool)


G01 X22.174655 Y3.944497 Z-1.000000

(End cutting path id: path71381)


(Start cutting path id: path71381)
(Change tool to Default tool)



(End cutting path id: path71381)


(Start cutting path id: path71381)
(Change tool to Default tool)

G00 X22.032325 Y3.800303


(End cutting path id: path71381)


(Start cutting path id: path71381)
(Change tool to Default tool)

G00 X22.146951 Y3.628063


(End cutting path id: path71381)


(Start cutting path id: path71381)
(Change tool to Default tool)



(End cutting path id: path71381)


(Start cutting path id: path71381)
(Change tool to Default tool)



(End cutting path id: path71381)


(Start cutting path id: path71381)
(Change tool to Default tool)

G00 X22.096048 Y3.404843


(End cutting path id: path71381)


(Start cutting path id: path71381)
(Change tool to Default tool)



(End cutting path id: path71381)


(Start cutting path id: path71381)
(Change tool to Default tool)


G02 X22.263798 Y3.285533 Z-1.000000 I-0.067089 J-0.015516

(End cutting path id: path71381)


(Start cutting path id: path71381)
(Change tool to Default tool)

G00 X22.074923 Y3.142983


(End cutting path id: path71381)


(Start cutting path id: path71381)
(Change tool to Default tool)



(End cutting path id: path71381)


(Start cutting path id: path71381)
(Change tool to Default tool)



(End cutting path id: path71381)


(Start cutting path id: path71381)
(Change tool to Default tool)

G00 X22.158041 Y2.915312


(End cutting path id: path71381)


(Start cutting path id: path71381)
(Change tool to Default tool)



(End cutting path id: path71381)


(Start cutting path id: path71381)
(Change tool to Default tool)



(End cutting path id: path71381)


(Start cutting path id: path71381)
(Change tool to Default tool)

G00 X22.059525 Y2.717330


(End cutting path id: path71381)


(Start cutting path id: path71381)
(Change tool to Default tool)


G02 X22.263461 Y2.667250 Z-1.000000 I-0.053413 J-0.219004

(End cutting path id: path71381)


(Start cutting path id: path71381)
(Change tool to Default tool)


G01 X22.067120 Y2.791910 Z-1.000000
G02 X22.320163 Y2.667837 Z-1.000000 I-0.289682 J-0.297397

(End cutting path id: path71381)


(Start cutting path id: path71381)
(Change tool to Default tool)


G02 X22.312401 Y3.040784 Z-1.000000 I9.566097 J0.244735
G03 X22.299626 Y3.448058 Z-1.000000 I-6.056846 J0.013849
G01 X22.279661 Y3.653631 Z-1.000000
G03 X22.293448 Y3.898941 Z-1.000000 I-0.136924 J0.024409
G01 X22.196778 Y4.098411 Z-1.000000
G02 X22.290075 Y4.296045 Z-1.000000 I0.282514 J0.000000
G01 X22.256988 Y4.535319 Z-1.000000
G01 X22.284428 Y4.737349 Z-1.000000
G02 X22.400314 Y4.901607 Z-1.000000 I0.203186 J0.005776
G01 X22.616137 Y4.922329 Z-1.000000
G02 X22.744322 Y5.170066 Z-1.000000 I0.156310 J-0.178345
G01 X23.084677 Y5.162769 Z-1.000000
G02 X23.323627 Y5.190950 Z-1.000000 I0.001534 J-2.441414
G02 X23.743843 Y5.229809 Z-1.000000 I0.435029 J-1.582862
G02 X24.059055 Y5.128663 Z-1.000000 I-0.291562 J-6.004431
G03 X23.816393 Y5.065156 Z-1.000000 I0.170911 J-2.948422
G03 X24.451913 Y5.068979 Z-1.000000 I-0.023795 J2.061683
G02 X24.691203 Y5.083279 Z-1.000000 I-0.010774 J-0.160937
G01 X24.863433 Y4.936469 Z-1.000000
G01 X25.034923 Y5.057579 Z-1.000000
G03 X25.223935 Y5.125284 Z-1.000000 I-0.625930 J0.678551
G01 X25.351083 Y5.289520 Z-1.000000
G01 X25.487553 Y5.443430 Z-1.000000
G01 X25.940273 Y5.459830 Z-1.000000
G03 X26.010041 Y5.252081 Z-1.000000 I0.052227 J0.071180
G01 X26.416796 Y5.192310 Z-1.000000
G02 X26.722378 Y5.185582 Z-1.000000 I0.000000 J-6.943024
G02 X27.106556 Y5.158275 Z-1.000000 I0.000000 J-2.609942
G03 X27.303184 Y5.282833 Z-1.000000 I-0.115746 J0.076096
G02 X27.629418 Y5.494094 Z-1.000000 I0.385518 J-0.653475
G02 X27.899430 Y5.400463 Z-1.000000 I0.007447 J-0.414667
G03 X28.107782 Y5.385083 Z-1.000000 I0.221991 J2.996202
G01 X28.312876 Y5.370003 Z-1.000000
G02 X28.573256 Y5.351272 Z-1.000000 I-0.000000 J-1.316833
G03 X29.208164 Y5.305473 Z-1.000000 I1.413006 J22.649282
G02 X29.524652 Y5.289610 Z-1.000000 I-0.403312 J-11.211492
G02 X29.800954 Y5.275443 Z-1.000000 I-0.054928 J-1.935710
G01 X29.999136 Y5.185373 Z-1.000000
G01 X30.294769 Y5.164883 Z-1.000000
G02 X30.548740 Y5.158923 Z-1.000000 I-0.000000 J-5.414291
G03 X31.167079 Y5.131653 Z-1.000000 I0.981008 J28.739895
G02 X31.756938 Y5.121821 Z-1.000000 I-1.287966 J-94.971995
G02 X31.976480 Y5.115723 Z-1.000000 I-0.271439 J-13.726728
G01 X32.195979 Y5.107823 Z-1.000000
G01 X32.570162 Y5.027103 Z-1.000000
G02 X32.851184 Y5.019812 Z-1.000000 I-0.034204 J-6.737864
G03 X33.075907 Y4.972753 Z-1.000000 I0.083094 J0.544374
G02 X33.402668 Y4.937586 Z-1.000000 I0.003174 J-1.183904
G03 X33.848271 Y4.917883 Z-1.000000 I0.432535 J16.616668
G02 X34.282715 Y4.911240 Z-1.000000 I0.000000 J-14.209324
G03 X34.664580 Y4.835563 Z-1.000000 I0.273730 J5.595256
G02 X34.941343 Y4.828993 Z-1.000000 I0.000000 J-5.832572
G01 X35.234714 Y4.808123 Z-1.000000
G02 X35.691406 Y4.917913 Z-1.000000 I0.883926 J-27.619542
G01 X36.214409 Y4.924813 Z-1.000000
G02 X36.014193 Y5.034953 Z-1.000000 I0.032776 J1.862556
G02 X35.750186 Y5.060880 Z-1.000000 I-0.000000 J1.346018
G02 X35.478910 Y5.091842 Z-1.000000 I0.023313 J1.159465
G03 X35.272594 Y5.144729 Z-1.000000 I-0.070326 J-0.083936
G03 X35.035788 Y5.173593 Z-1.000000 I-0.359241 J-1.961449
G01 X34.831343 Y5.186632 Z-1.000000
G01 X35.049547 Y5.219313 Z-1.000000
G03 X35.253118 Y5.184645 Z-1.000000 I0.000000 J0.056452
G03 X34.908925 Y5.240433 Z-1.000000 I-0.289468 J-4.632793
G03 X34.689437 Y5.265483 Z-1.000000 I-0.140066 J-0.841872
G01 X35.096289 Y5.262983 Z-1.000000
G01 X34.889248 Y5.370743 Z-1.000000
G02 X34.638042 Y5.377654 Z-1.000000 I0.000000 J1.082937
G03 X34.876021 Y5.396478 Z-1.000000 I0.061132 J2.070238
G01 X34.620949 Y5.416653 Z-1.000000
G02 X34.349922 Y5.426380 Z-1.000000 I1.938124 J57.785945
G02 X34.000074 Y5.440323 Z-1.000000 I4.136912 J108.193227
G03 X33.650182 Y5.452411 Z-1.000000 I-1.035909 J-24.914132
G03 X33.314141 Y5.459253 Z-1.000000 I-0.645898 J-23.468501
G02 X32.978194 Y5.466500 Z-1.000000 I0.254016 J19.565477
G02 X32.437202 Y5.393157 Z-1.000000 I-0.420942 J4.549757
G02 X31.915861 Y5.417533 Z-1.000000 I0.030717 J6.244247
G03 X31.688473 Y5.432723 Z-1.000000 I-0.661416 J-9.931459
G02 X31.429822 Y5.461393 Z-1.000000 I0.119993 J2.263563
G01 X31.533540 Y5.650713 Z-1.000000
G02 X31.801054 Y5.632933 Z-1.000000 I-0.114943 J-1.736973
G01 X32.004054 Y5.642813 Z-1.000000
G02 X32.213107 Y5.635493 Z-1.000000 I-0.010208 J-0.166045
G02 X32.634973 Y5.599286 Z-1.000000 I-0.103102 J-11.182811
G02 X33.122131 Y5.576553 Z-1.000000 I-0.991814 J-26.485860
G03 X33.574407 Y5.557067 Z-1.000000 I0.989430 J17.706059
G01 X34.250492 Y5.581183 Z-1.000000
G01 X34.548873 Y5.572383 Z-1.000000
G01 X34.410344 Y5.741133 Z-1.000000
G03 X34.082427 Y5.795913 Z-1.000000 I-0.679018 J-3.038370
G02 X33.866567 Y5.831753 Z-1.000000 I0.216891 J1.306174
G02 X33.663557 Y5.968513 Z-1.000000 I0.315618 J1.064531
G02 X33.457039 Y5.993783 Z-1.000000 I0.000000 J0.472193
G03 X33.233111 Y6.039233 Z-1.000000 I-0.275894 J-1.550345
G02 X33.028314 Y6.064853 Z-1.000000 I0.013440 J0.107179
G02 X32.828054 Y6.119543 Z-1.000000 I0.013539 J0.062716
G03 X33.062397 Y6.213460 Z-1.000000 I-0.000000 J0.406829
G03 X33.330783 Y6.270720 Z-1.000000 I-0.016549 J0.437045
G03 X33.554112 Y6.323910 Z-1.000000 I-0.000000 J0.380797
G02 X33.800718 Y6.372273 Z-1.000000 I0.082428 J-0.825312
G03 X34.023724 Y6.409557 Z-1.000000 I-0.003003 J0.217280
G01 X34.226598 Y6.464023 Z-1.000000
G03 X34.434263 Y6.487815 Z-1.000000 I0.000000 J0.428036
G01 X34.668408 Y6.541813 Z-1.000000
G01 X34.873938 Y6.585265 Z-1.000000
G01 X35.074330 Y6.626129 Z-1.000000
G03 X35.309391 Y6.651970 Z-1.000000 I-0.000000 J0.428514
G02 X35.510653 Y6.701463 Z-1.000000 I0.091234 J-0.979616
G02 X35.721878 Y6.757748 Z-1.000000 I0.034841 J-1.039260
G02 X35.946993 Y6.787570 Z-1.000000 I0.028676 J-0.152427
G02 X36.189563 Y6.838500 Z-1.000000 I0.085436 J-0.601836
G02 X35.982457 Y6.893225 Z-1.000000 I-0.064610 J3.438505
G01 X36.310184 Y7.050870 Z-1.000000
G02 X36.636199 Y7.035097 Z-1.000000 I-0.174358 J-6.981036
G02 X36.880699 Y6.996201 Z-1.000000 I0.116792 J-0.263954
G02 X37.086430 Y7.030640 Z-1.000000 I0.066951 J-0.311539
G03 X37.241950 Y7.160980 Z-1.000000 I-0.145726 J0.022115
G01 X37.244610 Y7.366030 Z-1.000000
G01 X37.006177 Y7.355330 Z-1.000000
G02 X37.214118 Y7.414730 Z-1.000000 I0.161851 J-1.986578
G01 X37.413158 Y7.436170 Z-1.000000
G03 X37.618698 Y7.423666 Z-1.000000 I0.042988 J0.061359
G01 X37.945273 Y7.443020 Z-1.000000
G03 X38.246071 Y7.496400 Z-1.000000 I-0.890269 J5.016922
G01 X38.417557 Y7.389517 Z-1.000000
G03 X38.243726 Y7.244230 Z-1.000000 I-0.000000 J-0.420823
G01 X37.960793 Y7.163401 Z-1.000000
G01 X37.629066 Y7.219981 Z-1.000000
G01 X37.334099 Y7.226281 Z-1.000000
G01 X37.251469 Y7.027661 Z-1.000000
G03 X37.032685 Y6.985834 Z-1.000000 I0.081511 J-0.580550
G03 X36.730163 Y6.899621 Z-1.000000 I1.590113 J-7.259915
G02 X36.484523 Y6.862901 Z-1.000000 I-0.078321 J0.523981
G02 X36.226549 Y6.810891 Z-1.000000 I-0.064928 J0.285430
G02 X35.997767 Y6.759945 Z-1.000000 I-0.236655 J0.651458
G03 X35.723652 Y6.715086 Z-1.000000 I0.073218 J-0.652836
G03 X35.486273 Y6.667940 Z-1.000000 I0.000000 J-0.454308
G02 X35.282844 Y6.618581 Z-1.000000 I-0.202672 J0.864918
G02 X35.076647 Y6.577856 Z-1.000000 I-0.219518 J0.856627
G03 X34.816410 Y6.532691 Z-1.000000 I0.375987 J-2.047114
G02 X34.552988 Y6.477335 Z-1.000000 I-1.394891 J5.983436
G03 X34.323061 Y6.440855 Z-1.000000 I0.055204 J-0.455607
G02 X34.082462 Y6.385401 Z-1.000000 I-0.383958 J1.778409
G02 X33.837883 Y6.344661 Z-1.000000 I-0.061571 J0.511939
G02 X33.609168 Y6.303491 Z-1.000000 I-0.479744 J2.111891
G02 X33.375551 Y6.245816 Z-1.000000 I-0.493570 J1.692823
G03 X33.156453 Y6.202931 Z-1.000000 I3.361227 J-17.642696
G03 X32.960560 Y6.150496 Z-1.000000 I0.007927 J-0.049980
G01 X33.279512 Y6.070291 Z-1.000000
G03 X33.513950 Y6.028805 Z-1.000000 I0.075621 J0.115385
G02 X33.787737 Y5.971660 Z-1.000000 I-0.107051 J-0.965762
G01 X34.055846 Y5.878231 Z-1.000000
G01 X34.265975 Y5.823361 Z-1.000000
G01 X34.571551 Y5.768491 Z-1.000000
G01 X34.658641 Y5.548987 Z-1.000000
G01 X34.282860 Y5.485147 Z-1.000000
G02 X34.022269 Y5.497307 Z-1.000000 I0.831964 J20.628078
G02 X33.081055 Y5.548837 Z-1.000000 I14.268469 J269.238427
G03 X32.827161 Y5.560857 Z-1.000000 I-0.778213 J-13.750431
G03 X32.347107 Y5.576827 Z-1.000000 I-1.895088 J-49.742746
G02 X31.867251 Y5.595282 Z-1.000000 I0.678404 J23.887404
G02 X31.661174 Y5.610097 Z-1.000000 I0.215095 J4.432598
G03 X31.457778 Y5.623100 Z-1.000000 I-0.309912 J-3.250523
G03 X32.264836 Y5.541677 Z-1.000000 I2.039924 J29.322347
G02 X32.813582 Y5.514477 Z-1.000000 I-7.869306 J-158.229479
G03 X33.423182 Y5.487947 Z-1.000000 I1.859270 J35.704400
G03 X34.333384 Y5.461317 Z-1.000000 I2.786196 J79.663752
G02 X34.534498 Y5.452541 Z-1.000000 I-0.115506 J-4.955487
G01 X34.897317 Y5.439157 Z-1.000000
G03 X35.066494 Y5.323407 Z-1.000000 I0.623009 J1.015107
G01 X35.275704 Y5.274527 Z-1.000000
G03 X35.429414 Y5.137972 Z-1.000000 I0.265692 J1.056256
G03 X35.653351 Y5.108927 Z-1.000000 I0.772288 J5.076466
G03 X36.030665 Y5.072313 Z-1.000000 I1.972802 J18.367873
G01 X36.373581 Y5.053467 Z-1.000000
G01 X35.784869 Y4.893687 Z-1.000000
G03 X35.315323 Y4.883129 Z-1.000000 I0.122704 J-15.903063
G01 X35.103009 Y4.787057 Z-1.000000
G03 X34.624596 Y4.802087 Z-1.000000 I-1.330967 J-42.128443
G01 X34.336683 Y4.809187 Z-1.000000
G01 X33.803852 Y4.892547 Z-1.000000
G02 X33.348986 Y4.906753 Z-1.000000 I0.403605 J20.212472
G02 X32.970434 Y4.956040 Z-1.000000 I1.913913 J13.967218
G03 X32.525461 Y4.995667 Z-1.000000 I-0.420998 J-6.662400
G01 X32.251088 Y5.001767 Z-1.000000
G01 X31.883265 Y5.086047 Z-1.000000
G03 X31.592569 Y5.095365 Z-1.000000 I-1.441170 J-40.419756
G03 X31.057574 Y5.109477 Z-1.000000 I-3.663075 J-128.724953
G02 X30.522644 Y5.125049 Z-1.000000 I1.410707 J57.655805
G02 X30.241314 Y5.137117 Z-1.000000 I0.520399 J15.417013
G03 X29.960014 Y5.150053 Z-1.000000 I-1.271413 J-24.582450
G03 X29.628509 Y5.161697 Z-1.000000 I-1.301902 J-32.340526
G02 X29.298993 Y5.176394 Z-1.000000 I0.344723 J11.430016
G03 X29.061530 Y5.280898 Z-1.000000 I-0.523735 J-9.592191
G02 X28.835362 Y5.290860 Z-1.000000 I0.279004 J8.906380
G03 X28.044848 Y5.357181 Z-1.000000 I-2.381703 J-24.105769
G03 X27.616720 Y5.379068 Z-1.000000 I-0.748185 J-10.437101
G03 X27.388716 Y5.378347 Z-1.000000 I-0.103288 J-3.386966
G01 X27.295244 Y5.151088 Z-1.000000
G03 X26.766083 Y5.143992 Z-1.000000 I-1.213797 J-14.079720
G03 X26.365800 Y5.162408 Z-1.000000 I-0.911707 J-15.456781
G01 X26.063990 Y5.172408 Z-1.000000
G02 X25.903210 Y5.343129 Z-1.000000 I0.149564 J0.099780
G01 X25.693630 Y5.376776 Z-1.000000
G03 X25.360170 Y5.359341 Z-1.000000 I0.010802 J-3.404073
G01 X25.309985 Y5.151546 Z-1.000000
G01 X25.063058 Y4.890416 Z-1.000000
G02 X24.768414 Y4.914410 Z-1.000000 I-0.000000 J0.718854
G03 X24.578630 Y4.996907 Z-1.000000 I-0.081273 J-0.115680
G03 X24.115981 Y5.029386 Z-1.000000 I-0.658690 J-6.071471
G02 X22.903502 Y5.082042 Z-1.000000 I1.729971 J53.820402
G03 X22.678411 Y5.097176 Z-1.000000 I0.015372 J-0.201059
G01 X22.644831 Y4.890446 Z-1.000000
G01 X22.441958 Y4.850558 Z-1.000000
G01 X22.319127 Y4.682402 Z-1.000000
G03 X22.328507 Y4.436587 Z-1.000000 I0.184544 J0.027679
G03 X22.325487 Y4.211106 Z-1.000000 I0.330775 J-0.045822
G02 X22.351603 Y3.878131 Z-1.000000 I-0.193255 J-0.180039
G02 X22.341766 Y3.626994 Z-1.000000 I-0.071523 J-0.060191
G01 X22.351890 Y3.373719 Z-1.000000
G02 X22.349390 Y3.155039 Z-1.000000 I-73.323743 J0.862017
G02 X22.345290 Y2.890461 Z-1.000000 I-0.925679 J0.049220
G02 X22.496490 Y2.662510 Z-1.000000 I-0.554885 J-0.613211

(End cutting path id: path71381)


(Start cutting path id: path71381)
(Change tool to Default tool)

G00 X22.469617 Y5.220009


(End cutting path id: path71381)


(Start cutting path id: path71381)
(Change tool to Default tool)



(End cutting path id: path71381)


(Start cutting path id: path71381)
(Change tool to Default tool)

G00 X23.220713 Y5.270239


(End cutting path id: path71381)


(Start cutting path id: path71381)
(Change tool to Default tool)


G01 X23.018363 Y5.298629 Z-1.000000
G03 X23.218884 Y5.277354 Z-1.000000 I0.119196 J0.575189

(End cutting path id: path71381)


(Start cutting path id: path71381)
(Change tool to Default tool)


G02 X23.001585 Y5.280245 Z-1.000000 I0.081422 J0.786737
G02 X23.360377 Y5.322032 Z-1.000000 I-0.011692 J-2.373887
G03 X23.635027 Y5.308495 Z-1.000000 I0.684767 J7.551727
G01 X23.448290 Y5.210425 Z-1.000000

(End cutting path id: path71381)


(Start cutting path id: path71381)
(Change tool to Default tool)



(End cutting path id: path71381)


(Start cutting path id: path71381)
(Change tool to Default tool)



(End cutting path id: path71381)


(Start cutting path id: path71381)
(Change tool to Default tool)


G01 X23.676850 Y5.228439 Z-1.000000 F3500.000000

(End cutting path id: path71381)


(Start cutting path id: path71381)
(Change tool to Default tool)



(End cutting path id: path71381)


(Start cutting path id: path71381)
(Change tool to Default tool)



(End cutting path id: path71381)


(Start cutting path id: path71381)
(Change tool to Default tool)



(End cutting path id: path71381)


(Start cutting path id: path71381)
(Change tool to Default tool)

G00 X23.817475 Y5.448559


(End cutting path id: path71381)


(Start cutting path id: path71381)
(Change tool to Default tool)

G00 X23.587932 Y5.435859

G01 X23.814053 Y5.509679 Z-1.000000
G02 X23.608863 Y5.430889 Z-1.000000 I-0.010440 J0.736261

(End cutting path id: path71381)


(Start cutting path id: path71381)
(Change tool to Default tool)

G00 X23.800327 Y5.741965

G02 X23.611687 Y5.836975 Z-1.000000 I0.024442 J0.147662
G02 X23.839431 Y5.856556 Z-1.000000 I0.005990 J-0.416770

(End cutting path id: path71381)


(Start cutting path id: path71381)
(Change tool to Default tool)



(End cutting path id: path71381)


(Start cutting path id: path71381)
(Change tool to Default tool)

G00 X24.119283 Y5.750396


(End cutting path id: path71381)


(Start cutting path id: path71381)
(Change tool to Default tool)



(End cutting path id: path71381)


(Start cutting path id: path71381)
(Change tool to Default tool)

G00 X24.496738 Y5.792115


(End cutting path id: path71381)


(Start cutting path id: path71381)
(Change tool to Default tool)



(End cutting path id: path71381)


(Start cutting path id: path71381)
(Change tool to Default tool)

G00 X24.980132 Y5.728335

G02 X24.712618 Y5.746385 Z-1.000000 I0.660476 J9.781516
G03 X24.234548 Y5.778356 Z-1.000000 I-1.662156 J-21.264156
G02 X24.045845 Y5.855102 Z-1.000000 I0.033002 J3.902464
G02 X24.781208 Y5.850975 Z-1.000000 I-0.413611 J-36.348031
G02 X25.789506 Y5.798887 Z-1.000000 I-0.772023 J-24.729677
G02 X25.542594 Y5.733585 Z-1.000000 I-0.404866 J2.509441
G02 X25.213685 Y5.722307 Z-1.000000 I-0.391060 J6.603154
G02 X24.980129 Y5.728285 Z-1.000000 I-0.031379 J3.339580

(End cutting path id: path71381)


(Start cutting path id: path71381)
(Change tool to Default tool)

G00 X25.117317 Y5.466909


(End cutting path id: path71381)


(Start cutting path id: path71381)
(Change tool to Default tool)



(End cutting path id: path71381)


(Start cutting path id: path71381)
(Change tool to Default tool)

G00 X25.247640 Y5.239389


(End cutting path id: path71381)


(Start cutting path id: path71381)
(Change tool to Default tool)



(End cutting path id: path71381)


(Start cutting path id: path71381)
(Change tool to Default tool)

G00 X24.959533 Y5.082578


(End cutting path id: path71381)


(Start cutting path id: path71381)
(Change tool to Default tool)



(End cutting path id: path71381)


(Start cutting path id: path71381)
(Change tool to Default tool)



(End cutting path id: path71381)


(Start cutting path id: path71381)
(Change tool to Default tool)



(End cutting path id: path71381)


(Start cutting path id: path71381)
(Change tool to Default tool)



(End cutting path id: path71381)


(Start cutting path id: path71381)
(Change tool to Default tool)

G00 X24.647714 Y5.064270


(End cutting path id: path71381)


(Start cutting path id: path71381)
(Change tool to Default tool)

G00 X24.541134 Y5.284839

G03 X24.334056 Y5.359159 Z-1.000000 I-0.052650 J-0.101507
G01 X24.129588 Y5.490679 Z-1.000000
G02 X24.352214 Y5.518063 Z-1.000000 I0.023119 J-0.908572
G02 X24.685204 Y5.493949 Z-1.000000 I-0.020362 J-2.544416
G02 X25.011022 Y5.444689 Z-1.000000 I-0.897018 J-5.933725
G01 X24.795920 Y5.357219 Z-1.000000
G02 X24.541158 Y5.284879 Z-1.000000 I-0.023974 J0.483922

(End cutting path id: path71381)


(Start cutting path id: path71381)
(Change tool to Default tool)



(End cutting path id: path71381)


(Start cutting path id: path71381)
(Change tool to Default tool)


G01 X24.722746 Y5.377794 Z-1.000000
G03 X24.513739 Y5.454859 Z-1.000000 I-0.015628 J-0.234642
G03 X24.702560 Y5.336245 Z-1.000000 I0.000000 J0.471659

(End cutting path id: path71381)


(Start cutting path id: path71381)
(Change tool to Default tool)

G00 X24.242753 Y5.359339


(End cutting path id: path71381)


(Start cutting path id: path71381)
(Change tool to Default tool)

G00 X23.303917 Y5.089160

G01 X23.553394 Y5.131660 Z-1.000000
G03 X23.184013 Y5.129654 Z-1.000000 I-0.025271 J-2.553196

(End cutting path id: path71381)


(Start cutting path id: path71381)
(Change tool to Default tool)

G00 X23.464262 Y6.716317

G01 X23.255049 Y6.725637 Z-1.000000
G03 X23.054970 Y6.770637 Z-1.000000 I-0.780676 J-3.467961
G02 X22.842331 Y6.826947 Z-1.000000 I0.021972 J0.082972
G01 X23.066541 Y6.909507 Z-1.000000
G03 X23.324036 Y6.908768 Z-1.000000 I0.005613 J1.932902
G02 X23.530870 Y6.913568 Z-1.000000 I0.003040 J-0.129037
G03 X23.743768 Y6.920568 Z-1.000000 I-0.009988 J0.308213
G02 X23.498312 Y6.941128 Z-1.000000 I0.013809 J1.956174
G03 X23.781090 Y6.951930 Z-1.000000 I0.094915 J1.327511
G03 X23.587554 Y7.044558 Z-1.000000 I-0.022146 J-0.045624
G03 X23.397300 Y7.137218 Z-1.000000 I-0.199974 J-0.254093
G02 X23.156878 Y7.373803 Z-1.000000 I0.442611 J0.422461
G03 X22.940783 Y7.618782 Z-1.000000 I-0.203589 J-0.079135
G01 X22.746021 Y7.683500 Z-1.000000
G02 X22.499675 Y7.631753 Z-1.000000 I-0.130636 J0.448049
G01 X22.311884 Y7.557398 Z-1.000000
G02 X22.652322 Y7.512668 Z-1.000000 I0.036145 J-1.183199
G02 X22.428766 Y7.432149 Z-1.000000 I-0.037176 J0.556433
G03 X22.633124 Y7.464131 Z-1.000000 I-0.003168 J0.315637
G02 X22.277613 Y7.469558 Z-1.000000 I-0.163718 J2.840923
G03 X22.067647 Y7.468634 Z-1.000000 I1.919021 J-435.936510
G01 X21.868054 Y7.481914 Z-1.000000
G03 X21.656144 Y7.498034 Z-1.000000 I-0.221691 J-2.898688
G01 X21.454550 Y7.510914 Z-1.000000
G03 X21.156846 Y7.523904 Z-1.000000 I-0.344258 J-7.885336
G02 X20.868358 Y7.532695 Z-1.000000 I0.044150 J6.187049
G01 X20.512355 Y7.544954 Z-1.000000
G01 X20.249169 Y7.497214 Z-1.000000
G02 X20.027565 Y7.503851 Z-1.000000 I0.000000 J3.703070
G02 X19.698248 Y7.531202 Z-1.000000 I0.000000 J1.910084
G02 X19.314159 Y7.558689 Z-1.000000 I0.000000 J2.609942
G03 X19.111347 Y7.579534 Z-1.000000 I-0.189562 J-2.708411
G01 X18.902138 Y7.592094 Z-1.000000
G03 X18.536192 Y7.628794 Z-1.000000 I-0.693210 J-6.912230
G03 X18.328195 Y7.671474 Z-1.000000 I-0.050642 J-0.042242
G02 X18.004800 Y7.641867 Z-1.000000 I-0.124765 J0.124765
G03 X17.641458 Y7.793445 Z-1.000000 I-0.218877 J-0.222812
G03 X17.476756 Y7.645394 Z-1.000000 I0.079741 J-0.154228
G01 X17.547555 Y7.455902 Z-1.000000
G01 X17.428063 Y7.634478 Z-1.000000
G01 X17.215725 Y7.633619 Z-1.000000
G03 X17.006763 Y7.626648 Z-1.000000 I0.014419 J-3.567573
G02 X16.761336 Y7.488205 Z-1.000000 I-0.236100 J0.145841
G02 X16.449429 Y7.616169 Z-1.000000 I-0.003174 J0.436375
G02 X16.220119 Y7.638220 Z-1.000000 I0.043128 J1.196814
G02 X15.901312 Y7.722187 Z-1.000000 I0.048359 J0.431650
G03 X15.779965 Y7.520372 Z-1.000000 I0.260066 J0.016162
G01 X15.500598 Y7.458592 Z-1.000000
G02 X15.312413 Y7.529199 Z-1.000000 I0.328627 J0.945943
G02 X15.125652 Y7.613661 Z-1.000000 I0.155433 J0.503400
G01 X14.736971 Y7.668722 Z-1.000000
G01 X14.403108 Y7.668722 Z-1.000000
G02 X14.237504 Y7.797297 Z-1.000000 I0.113925 J0.124267
G01 X14.368839 Y7.980057 Z-1.000000
G03 X14.169424 Y8.117299 Z-1.000000 I-0.096020 J-0.337955
G03 X13.106725 Y8.147271 Z-1.000000 I-2.122972 J-56.417400
G02 X13.360470 Y8.084571 Z-1.000000 I-5.568937 J-45.746569
G03 X13.111167 Y8.095631 Z-1.000000 I-0.550253 J-5.392910
G02 X12.902457 Y8.059691 Z-1.000000 I-0.045289 J0.161631
G03 X13.156526 Y8.038151 Z-1.000000 I0.667336 J13.124176
G02 X13.444139 Y8.025826 Z-1.000000 I-0.302498 J-10.420724
G03 X13.209592 Y8.016171 Z-1.000000 I-0.354319 J-13.366684
G01 X12.818622 Y8.018567 Z-1.000000
G02 X12.605986 Y8.055727 Z-1.000000 I0.027445 J0.393696
G02 X12.303099 Y8.079164 Z-1.000000 I0.001536 J1.139643
G01 X12.067896 Y8.066687 Z-1.000000
G02 X11.851920 Y8.079927 Z-1.000000 I0.268585 J6.149503
G03 X11.641775 Y8.100487 Z-1.000000 I-0.103751 J-1.297889
G03 X11.439053 Y8.141738 Z-1.000000 I-0.208411 J-0.486350
G01 X11.567740 Y8.296137 Z-1.000000
G01 X11.676730 Y8.128132 Z-1.000000
G02 X11.811494 Y8.301154 Z-1.000000 I0.133754 J-0.025076
G02 X11.985435 Y8.445246 Z-1.000000 I0.258372 J-0.015754
G02 X12.265552 Y8.457406 Z-1.000000 I0.039422 J-8.198289
G01 X12.524590 Y8.450506 Z-1.000000
G03 X12.710888 Y8.314846 Z-1.000000 I0.513754 J0.745195
G03 X12.833158 Y8.090797 Z-1.000000 I0.062479 J0.029547
G01 X13.106769 Y8.172947 Z-1.000000
G02 X14.186774 Y8.149106 Z-1.000000 I-0.516376 J-47.867128
G02 X14.404302 Y7.982238 Z-1.000000 I-0.147096 J-0.120839
G03 X14.297868 Y7.783564 Z-1.000000 I0.144451 J0.018809
G01 X14.485526 Y7.685780 Z-1.000000
G01 X14.778932 Y7.694480 Z-1.000000
G01 X15.072338 Y7.703180 Z-1.000000
G01 X15.281203 Y7.587690 Z-1.000000
G01 X15.490413 Y7.582790 Z-1.000000
G01 X15.699622 Y7.577890 Z-1.000000
G01 X15.761109 Y7.853607 Z-1.000000
G03 X16.004660 Y7.738612 Z-1.000000 I0.428231 J0.638717
G03 X16.653766 Y7.617035 Z-1.000000 I0.614820 J2.277123
G03 X16.929531 Y7.647347 Z-1.000000 I0.050706 J0.808239
G02 X17.215529 Y7.670637 Z-1.000000 I0.402933 J-4.948120
G01 X17.448746 Y7.678637 Z-1.000000
G02 X17.556414 Y7.874171 Z-1.000000 I0.321482 J-0.001941
G01 X17.803275 Y7.956470 Z-1.000000
G01 X17.938175 Y8.118570 Z-1.000000
G02 X17.823419 Y8.569182 Z-1.000000 I11.409369 J3.570419
G02 X17.755582 Y8.780710 Z-1.000000 I0.206366 J0.111499
G02 X17.702760 Y9.013259 Z-1.000000 I0.635042 J0.147771
G01 X17.673984 Y9.217904 Z-1.000000
G01 X17.579014 Y9.431849 Z-1.000000
G03 X17.558646 Y9.671304 Z-1.000000 I-0.767526 J-0.094716
G02 X17.403500 Y9.911325 Z-1.000000 I0.144281 J0.160557
G01 X17.376456 Y10.117437 Z-1.000000
G03 X17.298586 Y10.327002 Z-1.000000 I-0.493052 J-0.168875
G03 X17.193276 Y10.566089 Z-1.000000 I-1.235203 J-0.554181
G03 X17.074126 Y10.835718 Z-1.000000 I-5.420027 J-2.391290
G02 X16.948232 Y11.111756 Z-1.000000 I3.748976 J1.709868
G02 X16.839911 Y11.364161 Z-1.000000 I1.623805 J0.727455
G02 X16.711036 Y11.673219 Z-1.000000 I2.257283 J1.073011
G01 X16.639302 Y11.897676 Z-1.000000
G03 X16.392368 Y11.926196 Z-1.000000 I-1.670654 J-14.709518
G02 X16.172870 Y11.958976 Z-1.000000 I0.568667 J3.818541
G03 X15.953371 Y11.993626 Z-1.000000 I-0.493745 J-3.128096
G02 X15.706436 Y12.034856 Z-1.000000 I1.004513 J6.022310
G03 X15.341006 Y12.101884 Z-1.000000 I-3.917542 J-20.328439
G02 X15.130425 Y12.132031 Z-1.000000 I0.352067 J2.897828
G03 X14.869598 Y12.175646 Z-1.000000 I-1.835150 J-10.871922
G03 X14.636133 Y12.214051 Z-1.000000 I-0.291717 J-1.635983
G02 X14.376128 Y12.245340 Z-1.000000 I0.340162 J3.294977
G03 X14.110584 Y12.294312 Z-1.000000 I-0.697625 J-3.206019
G03 X13.785824 Y12.338336 Z-1.000000 I-1.346943 J-8.716320
G02 X13.573184 Y12.373116 Z-1.000000 I0.510773 J3.127776
G02 X13.319482 Y12.420550 Z-1.000000 I0.740341 J4.364542
G03 X13.107441 Y12.449276 Z-1.000000 I-0.065471 J-0.619612
G03 X12.825001 Y12.499628 Z-1.000000 I-0.367169 J-1.457640
G03 X12.695189 Y12.316909 Z-1.000000 I0.346900 J-0.047608
G02 X12.625799 Y11.969129 Z-1.000000 I-8.566575 J1.709264
G03 X12.523188 Y11.786139 Z-1.000000 I0.191328 J-0.182737
G02 X12.476809 Y11.531106 Z-1.000000 I-0.851439 J0.151437
G03 X12.420809 Y11.276810 Z-1.000000 I0.279277 J-0.061508
G03 X12.378574 Y11.068471 Z-1.000000 I0.848971 J-0.232166
G03 X12.339039 Y10.782466 Z-1.000000 I7.621992 J-1.199341
G01 X12.352529 Y10.454452 Z-1.000000
G03 X12.328220 Y10.242384 Z-1.000000 I0.767280 J-0.195381
G01 X12.396829 Y10.036876 Z-1.000000
G02 X12.184146 Y9.755030 Z-1.000000 I-1.651015 J1.425996
G02 X12.125752 Y9.549658 Z-1.000000 I-0.148020 J0.028968
G03 X12.072613 Y9.326915 Z-1.000000 I0.203687 J-0.077674
G02 X12.047684 Y8.958330 Z-1.000000 I-4.376956 J0.167583
G03 X12.008762 Y8.683529 Z-1.000000 I5.309511 J-0.772658
G02 X11.967967 Y8.481985 Z-1.000000 I-1.302281 J0.158694
G01 X11.762278 Y8.446237 Z-1.000000
G02 X11.891621 Y8.629644 Z-1.000000 I0.546902 J0.045516
G02 X11.940868 Y9.060541 Z-1.000000 I10.917849 J-1.029531
G03 X11.963949 Y9.272694 Z-1.000000 I-4.192967 J0.563494
G03 X12.002170 Y9.619105 Z-1.000000 I-1.240346 J0.152436
G01 X12.036108 Y9.355743 Z-1.000000
G03 X12.097258 Y9.630119 Z-1.000000 I-1.873932 J0.357565
G02 X12.194148 Y9.845105 Z-1.000000 I0.121528 J-0.054770
G01 X12.353618 Y10.017615 Z-1.000000
G01 X12.274878 Y10.271335 Z-1.000000
G02 X12.300355 Y10.484482 Z-1.000000 I2.796624 J-0.226181
G01 X12.297258 Y10.792110 Z-1.000000
G03 X12.320138 Y11.015687 Z-1.000000 I-2.495877 J0.254677
G03 X12.374658 Y11.303779 Z-1.000000 I-1.036099 J0.213376
G02 X12.426884 Y11.562125 Z-1.000000 I0.549278 J-0.062752
G02 X12.467397 Y11.799808 Z-1.000000 I0.570734 J0.000000
G03 X12.598828 Y12.080023 Z-1.000000 I-0.327719 J0.128291
G03 X12.652828 Y12.384307 Z-1.000000 I-1.272591 J0.226178
G02 X12.457308 Y12.553988 Z-1.000000 I0.105651 J1.127392
G03 X12.763664 Y12.538155 Z-1.000000 I0.268756 J2.276968
G03 X13.030023 Y12.495438 Z-1.000000 I0.138177 J0.469549
G02 X13.340851 Y12.458015 Z-1.000000 I-0.426052 J-3.167047
G03 X13.665661 Y12.399568 Z-1.000000 I3.114829 J16.378474
G03 X13.881734 Y12.366215 Z-1.000000 I1.220756 J7.191875
G02 X14.094373 Y12.332675 Z-1.000000 I-0.841240 J-5.334327
G03 X14.292451 Y12.297525 Z-1.000000 I79.122171 J445.801216
G03 X14.740422 Y12.237695 Z-1.000000 I1.704924 J12.764191
G03 X14.938156 Y12.202345 Z-1.000000 I0.059248 J0.405788
G03 X15.154031 Y12.168005 Z-1.000000 I0.261140 J1.746369
G02 X15.352013 Y12.138895 Z-1.000000 I-0.049327 J-0.334639
G03 X15.550933 Y12.099325 Z-1.000000 I0.519187 J2.610777
G02 X15.777254 Y12.058775 Z-1.000000 I-0.269503 J-1.503948
G03 X15.989894 Y12.024275 Z-1.000000 I0.415234 J2.559983
G02 X16.241344 Y11.989945 Z-1.000000 I-0.657149 J-4.825698
G03 X16.508858 Y11.949075 Z-1.000000 I2.767331 J18.114454
G03 X16.721759 Y11.913934 Z-1.000000 I0.084136 J0.360638
G02 X16.925232 Y11.884925 Z-1.000000 I-0.090890 J-0.569488
G03 X17.709239 Y11.763422 Z-1.000000 I5.304178 J33.250970
G02 X17.983612 Y11.723182 Z-1.000000 I-9.979932 J-68.164857
G03 X18.244266 Y11.686992 Z-1.000000 I0.331422 J2.387701
G03 X18.450289 Y11.655795 Z-1.000000 I0.251296 J1.354486
G02 X18.662685 Y11.626452 Z-1.000000 I-0.073193 J-0.473012
G02 X18.861454 Y11.597681 Z-1.000000 I-0.232344 J-2.351778
G03 X19.149698 Y11.557702 Z-1.000000 I0.825782 J6.049066
G02 X19.430930 Y11.517012 Z-1.000000 I-1.531931 J-10.569513
G03 X19.664147 Y11.481682 Z-1.000000 I0.334286 J2.206425
G02 X19.903681 Y11.446362 Z-1.000000 I-3.156162 J-21.420571
G03 X20.180707 Y11.413572 Z-1.000000 I0.174788 J1.476333
G02 X20.591440 Y11.387643 Z-1.000000 I0.108056 J-0.539987
G01 X20.785280 Y11.302174 Z-1.000000
G02 X21.099108 Y11.268152 Z-1.000000 I-0.943289 J-7.802364
G03 X21.358492 Y11.228724 Z-1.000000 I7.269093 J46.948529
G02 X21.737456 Y11.167612 Z-1.000000 I-0.432340 J-3.645662
G03 X21.296672 Y11.214192 Z-1.000000 I-5.447119 J-31.397084
G03 X20.964383 Y11.264565 Z-1.000000 I-3.075551 J-19.167052
G03 X21.023155 Y11.035442 Z-1.000000 I0.707264 J0.538557
G01 X21.124825 Y10.857334 Z-1.000000
G01 X21.262435 Y10.656294 Z-1.000000
G02 X21.374303 Y10.465709 Z-1.000000 I-0.438933 J-0.250876
G02 X21.464125 Y10.268094 Z-1.000000 I-1.734724 J-0.965902
G01 X21.571205 Y10.089744 Z-1.000000
G02 X21.801364 Y9.801929 Z-1.000000 I-0.354184 J-0.501347
G02 X21.731073 Y9.521062 Z-1.000000 I-1.063638 J0.000817
G02 X21.619214 Y9.325482 Z-1.000000 I-0.250647 J0.069613
G01 X21.413265 Y9.260108 Z-1.000000
G03 X21.324238 Y9.068599 Z-1.000000 I0.262222 J-0.185362
G02 X21.151901 Y9.205325 Z-1.000000 I0.067529 J0.051073
G03 X21.065108 Y9.390047 Z-1.000000 I-0.109705 J-0.063278
G03 X20.899498 Y9.527077 Z-1.000000 I-0.097537 J-0.121452
G03 X21.043378 Y9.698405 Z-1.000000 I-0.000000 J0.150539
G03 X20.953340 Y9.976017 Z-1.000000 I-1.253992 J-0.753819
G03 X20.804079 Y10.406479 Z-1.000000 I-0.424786 J-0.000000
G01 X20.624570 Y10.501340 Z-1.000000
G03 X20.416696 Y10.590260 Z-1.000000 I-0.252611 J-0.756997
G01 X20.226198 Y10.683510 Z-1.000000
G03 X20.216438 Y10.910054 Z-1.000000 I-10.100106 J-0.321662
G03 X20.175900 Y11.159235 Z-1.000000 I-0.256428 J-0.022645
G03 X20.091318 Y11.363677 Z-1.000000 I-1.123802 J-0.046486
G03 X19.876952 Y11.422013 Z-1.000000 I-4.928734 J-31.673886
G02 X19.630043 Y11.461597 Z-1.000000 I0.575121 J3.462313
G02 X19.332400 Y11.503911 Z-1.000000 I0.958953 J7.959314
G02 X18.779486 Y11.584864 Z-1.000000 I11.089198 J77.668315
G03 X18.513090 Y11.620384 Z-1.000000 I-2.402926 J-17.997329
G03 X18.296743 Y11.662148 Z-1.000000 I-0.038886 J-0.072305
G03 X18.064967 Y11.687464 Z-1.000000 I-0.267230 J-1.906737
G03 X17.640406 Y11.753103 Z-1.000000 I-0.976197 J-5.348605
G02 X17.416891 Y11.776983 Z-1.000000 I0.082681 J1.112778
G03 X17.101919 Y11.825384 Z-1.000000 I-1.157769 J-7.762012
G02 X16.902324 Y11.858624 Z-1.000000 I0.027423 J0.164646
G01 X16.682460 Y11.890664 Z-1.000000
G03 X16.754830 Y11.698124 Z-1.000000 I0.085043 J0.015326
G03 X16.846540 Y11.496692 Z-1.000000 I2.955423 J1.349492
G01 X16.968630 Y11.308522 Z-1.000000
G02 X17.013523 Y11.098088 Z-1.000000 I-1.002469 J-0.519079
G03 X17.134465 Y10.831007 Z-1.000000 I0.816627 J0.262232
G01 X17.236120 Y10.635909 Z-1.000000
G03 X17.332110 Y10.398459 Z-1.000000 I0.967065 J0.409942
G01 X17.417280 Y10.192253 Z-1.000000
G01 X17.471790 Y9.970740 Z-1.000000
G02 X17.614523 Y9.744233 Z-1.000000 I-0.394141 J-0.568574
G03 X17.631963 Y9.430478 Z-1.000000 I0.556370 J-0.012665
G02 X17.787667 Y9.134719 Z-1.000000 I-0.193620 J-0.149825
G03 X17.762663 Y8.928318 Z-1.000000 I0.178507 J0.000000
G02 X17.834349 Y8.725305 Z-1.000000 I-0.329349 J-0.159138
G02 X17.897730 Y8.518387 Z-1.000000 I-0.059084 J-0.017605
G02 X17.972670 Y8.179742 Z-1.000000 I-1.002845 J-0.224657
G02 X17.847199 Y7.926187 Z-1.000000 I-0.555629 J0.380799
G02 X17.609410 Y7.848173 Z-1.000000 I-0.131327 J0.497810
G02 X17.930521 Y7.764929 Z-1.000000 I-0.000000 J-2.021918
G01 X18.147531 Y7.798730 Z-1.000000
G01 X18.354087 Y7.765516 Z-1.000000
G01 X18.609209 Y7.688970 Z-1.000000
G03 X18.870184 Y7.661530 Z-1.000000 I0.092641 J0.701205
G01 X19.191821 Y7.634090 Z-1.000000
G01 X19.396737 Y7.620370 Z-1.000000
G02 X19.769373 Y7.601190 Z-1.000000 I-0.000000 J-2.988739
G02 X20.093685 Y7.574209 Z-1.000000 I-0.069843 J-3.481050
G01 X20.300573 Y7.586040 Z-1.000000
G02 X20.693160 Y7.606620 Z-1.000000 I0.227962 J-4.003323
G02 X20.921095 Y7.600150 Z-1.000000 I-0.000000 J-4.018458
G03 X21.242715 Y7.579180 Z-1.000000 I0.297351 J6.730107
G02 X21.537646 Y7.573086 Z-1.000000 I-0.000000 J-7.139888
G03 X21.739066 Y7.552500 Z-1.000000 I0.217315 J2.965332
G01 X21.947589 Y7.537480 Z-1.000000
G01 X22.148939 Y7.534040 Z-1.000000
G02 X22.296259 Y7.709370 Z-1.000000 I0.400125 J-0.274079
G03 X22.333881 Y7.943886 Z-1.000000 I-0.684879 J0.017584
G02 X22.224276 Y8.138359 Z-1.000000 I0.112880 J0.182623
G02 X22.324889 Y8.382422 Z-1.000000 I0.344645 J0.000693
G03 X22.360089 Y9.451792 Z-1.000000 I-78.926964 J2.597506
G02 X22.373003 Y9.807041 Z-1.000000 I10.474121 J-0.202886
G03 X22.400619 Y10.130865 Z-1.000000 I-6.170186 J0.420327
G02 X22.427304 Y10.834752 Z-1.000000 I27.469543 J-0.688956
G01 X22.455909 Y11.056871 Z-1.000000
G01 X22.668548 Y11.064871 Z-1.000000
G03 X22.551753 Y11.242056 Z-1.000000 I-0.158039 J-1.013664
G02 X22.347210 Y11.260887 Z-1.000000 I0.075270 J1.217014
G02 X22.140438 Y11.297945 Z-1.000000 I0.645772 J6.232451
G03 X21.920813 Y11.324301 Z-1.000000 I-1.073559 J-8.526319
G03 X21.714162 Y11.360827 Z-1.000000 I-0.050906 J-0.111330
G02 X21.403494 Y11.399630 Z-1.000000 I0.449341 J4.743086
G02 X21.150822 Y11.426610 Z-1.000000 I0.000000 J0.974198
G03 X20.905714 Y11.475301 Z-1.000000 I-0.111531 J-0.997358
G03 X20.562765 Y11.525591 Z-1.000000 I-0.313858 J-1.816137
G03 X20.282921 Y11.618498 Z-1.000000 I-0.207038 J-0.248548
G03 X20.039984 Y11.617901 Z-1.000000 I-0.119800 J-0.679908
G03 X19.615476 Y11.667381 Z-1.000000 I-0.370236 J-3.319607
G03 X19.410387 Y11.700681 Z-1.000000 I-0.151786 J-0.696418
G02 X19.108618 Y11.734834 Z-1.000000 I1.240431 J12.310648
G03 X18.854781 Y11.772491 Z-1.000000 I-0.201109 J-1.455535
G03 X18.647068 Y11.804551 Z-1.000000 I-0.090277 J-0.751299
G02 X18.382243 Y11.837252 Z-1.000000 I0.000000 J0.560658
G02 X17.973936 Y11.893792 Z-1.000000 I0.550163 J6.846787
G01 X17.762711 Y11.935067 Z-1.000000
G02 X17.559165 Y11.947227 Z-1.000000 I0.000000 J0.952558
G02 X17.205620 Y12.003272 Z-1.000000 I0.483517 J5.142136
G01 X16.997760 Y12.045400 Z-1.000000
G01 X16.791951 Y12.072790 Z-1.000000
G01 X16.584343 Y12.092641 Z-1.000000
G01 X16.380721 Y12.128258 Z-1.000000
G03 X16.165933 Y12.161241 Z-1.000000 I-0.091029 J-0.678313
G03 X15.967013 Y12.188681 Z-1.000000 I-0.084200 J-0.585650
G02 X15.746740 Y12.222238 Z-1.000000 I0.000000 J0.248908
G01 X15.550835 Y12.278395 Z-1.000000
G03 X15.143903 Y12.346621 Z-1.000000 I-1.571577 J-8.125938
G02 X14.897139 Y12.382847 Z-1.000000 I3.810430 J26.814174
G02 X14.698046 Y12.414161 Z-1.000000 I2.679059 J17.682102
G03 X14.498951 Y12.445413 Z-1.000000 I-2.729158 J-16.736896
G02 X14.252405 Y12.480317 Z-1.000000 I0.745226 J5.686324
G03 X13.998395 Y12.518021 Z-1.000000 I-0.690389 J-4.942104
G03 X13.771613 Y12.555675 Z-1.000000 I-0.145050 J-0.555186
G02 X13.456997 Y12.604578 Z-1.000000 I1.248147 J8.657213
G03 X12.818590 Y12.710184 Z-1.000000 I-5.294559 J-32.455614
G03 X12.592036 Y12.748681 Z-1.000000 I-0.339983 J-1.697413
G03 X12.317859 Y12.792074 Z-1.000000 I-5.119077 J-31.457012
G02 X12.043590 Y12.834928 Z-1.000000 I8.846422 J57.516987
G03 X11.713946 Y12.886416 Z-1.000000 I-0.821532 J-4.925928
G02 X11.514093 Y12.854904 Z-1.000000 I-0.067717 J0.175852
G03 X11.370683 Y12.632739 Z-1.000000 I1.248171 J-0.000000
G02 X11.424960 Y11.355196 Z-1.000000 I-32.523011 J-0.322180
G03 X11.391829 Y11.123544 Z-1.000000 I2.456310 J-0.165630
G03 X11.364389 Y10.837386 Z-1.000000 I0.777887 J-0.097860
G03 X11.336949 Y10.574691 Z-1.000000 I1.563059 J-0.140958
G02 X11.555762 Y10.654476 Z-1.000000 I0.656535 J-0.251856
G02 X11.474869 Y10.409869 Z-1.000000 I-0.575809 J0.207340
G01 X11.642779 Y10.530619 Z-1.000000
G01 X11.704769 Y10.326019 Z-1.000000
G02 X11.907839 Y10.242400 Z-1.000000 I-0.324396 J-0.322670
G01 X11.692719 Y10.213809 Z-1.000000
G01 X11.624365 Y10.009189 Z-1.000000
G01 X11.454708 Y10.213259 Z-1.000000
G03 X11.276198 Y10.107499 Z-1.000000 I0.065264 J-0.046068
G01 X11.311978 Y9.863769 Z-1.000000
G03 X11.281908 Y9.607719 Z-1.000000 I2.052893 J-0.171824
G03 X11.254468 Y9.227465 Z-1.000000 I2.663831 J-0.184885
G01 X11.241908 Y9.025924 Z-1.000000
G03 X11.205128 Y8.553317 Z-1.000000 I13.800174 J-1.074069
G02 X11.178111 Y8.304450 Z-1.000000 I-1.982452 J0.089316
G03 X11.177348 Y8.553287 Z-1.000000 I-4.022111 J0.364456
G02 X11.188125 Y8.793144 Z-1.000000 I9.157379 J-0.291278
G03 X11.219133 Y9.154286 Z-1.000000 I-6.711879 J0.706563
G03 X11.250998 Y9.650779 Z-1.000000 I-33.043560 J2.370038
G01 X11.272158 Y9.852564 Z-1.000000
G01 X11.222128 Y10.168796 Z-1.000000
G02 X11.293448 Y10.382646 Z-1.000000 I0.070497 J-0.001496
G03 X11.315138 Y10.590502 Z-1.000000 I-2.732262 J0.284623
G02 X11.336768 Y10.878594 Z-1.000000 I1.916218 J-0.144312
G03 X11.365588 Y11.186325 Z-1.000000 I-3.905053 J0.520938
G03 X11.389548 Y11.852492 Z-1.000000 I-18.293896 J0.991485
G01 X11.398548 Y12.359956 Z-1.000000
G02 X11.346161 Y12.608154 Z-1.000000 I0.944489 J0.231599
G02 X11.356665 Y12.947480 Z-1.000000 I0.867307 J0.003134
G02 X11.463443 Y13.160290 Z-1.000000 I0.329047 J-0.071760
G03 X11.499509 Y12.954516 Z-1.000000 I0.035294 J-0.043531
G01 X11.710921 Y12.917574 Z-1.000000
G02 X11.961014 Y12.881254 Z-1.000000 I-0.390603 J-2.692841
G03 X13.106522 Y12.696911 Z-1.000000 I53.101201 J329.976838
G02 X13.480373 Y12.636830 Z-1.000000 I-10.271259 J-65.105665
G02 X13.819892 Y12.580154 Z-1.000000 I-8.721161 J-53.289541
G03 X14.032531 Y12.545454 Z-1.000000 I1.895417 J11.617564
G03 X14.279629 Y12.506818 Z-1.000000 I0.389898 J2.345041
G02 X14.732183 Y12.443114 Z-1.000000 I-3.674051 J-25.278282
G03 X15.020364 Y12.398477 Z-1.000000 I10.879369 J69.286011
G02 X15.570749 Y12.307693 Z-1.000000 I-1.164425 J-8.180826
G02 X15.815966 Y12.249614 Z-1.000000 I-0.163733 J-1.178121
G02 X16.103805 Y12.202955 Z-1.000000 I-0.445613 J-3.566258
G03 X16.318518 Y12.183527 Z-1.000000 I0.033125 J0.379553
G03 X16.542888 Y12.132644 Z-1.000000 I1.404912 J8.869495
G03 X16.748908 Y12.105024 Z-1.000000 I2.226124 J15.822709
G03 X17.023311 Y12.067378 Z-1.000000 I1.879088 J12.888838
G02 X17.228916 Y12.038344 Z-1.000000 I-0.796726 J-5.855421
G03 X17.432777 Y12.005279 Z-1.000000 I0.620821 J3.496359
G03 X17.702354 Y11.969134 Z-1.000000 I2.445051 J17.212458
G02 X17.901275 Y11.942434 Z-1.000000 I-1.569248 J-11.663405
G03 X18.152182 Y11.907244 Z-1.000000 I6.964057 J48.742417
G02 X18.408752 Y11.872680 Z-1.000000 I-0.871609 J-6.756764
G03 X18.690098 Y11.831994 Z-1.000000 I0.797492 J5.692650
G02 X18.924894 Y11.800042 Z-1.000000 I-1.016640 J-8.349356
G03 X19.232570 Y11.748572 Z-1.000000 I0.436261 J2.146098
G03 X19.465202 Y11.728594 Z-1.000000 I0.427335 J3.611558
G02 X19.701285 Y11.702781 Z-1.000000 I0.060221 J-0.511387
G03 X19.952259 Y11.675344 Z-1.000000 I0.234485 J2.099532
G01 X20.151679 Y11.645285 Z-1.000000
G03 X20.418659 Y11.599221 Z-1.000000 I1.350760 J7.173842
G01 X20.686181 Y11.567005 Z-1.000000
G01 X20.960609 Y11.500725 Z-1.000000
G03 X21.181011 Y11.462867 Z-1.000000 I0.098192 J0.284973
G02 X21.426815 Y11.433031 Z-1.000000 I-0.422985 J-4.352264
G03 X21.687698 Y11.393935 Z-1.000000 I0.967256 J6.386901
G03 X21.948544 Y11.352590 Z-1.000000 I0.485726 J2.714670
G02 X22.167791 Y11.323791 Z-1.000000 I-1.509347 J-12.311378
G03 X22.579599 Y11.272594 Z-1.000000 I1.150737 J8.201799
G03 X22.781761 Y11.234255 Z-1.000000 I0.110119 J0.274517
G01 X22.702961 Y11.029635 Z-1.000000
G01 X22.492996 Y11.021635 Z-1.000000
G03 X22.462210 Y10.726904 Z-1.000000 I2.636617 J-0.365711
G03 X22.407916 Y9.465673 Z-1.000000 I79.410715 J-4.050261
G02 X22.394071 Y9.081566 Z-1.000000 I-189.011881 J6.620478
G02 X22.379716 Y8.704288 Z-1.000000 I-191.269996 J7.088782
G03 X22.367485 Y8.326979 Z-1.000000 I28.522647 J-1.113441
G01 X22.366556 Y7.857161 Z-1.000000
G01 X22.554761 Y7.730263 Z-1.000000
G01 X22.856427 Y7.694763 Z-1.000000
G02 X23.062527 Y7.545496 Z-1.000000 I-0.507428 J-0.434305
G03 X23.355774 Y7.204703 Z-1.000000 I0.611722 J0.318663
G03 X23.599027 Y7.070732 Z-1.000000 I0.465692 J0.557739
G01 X23.811507 Y7.028092 Z-1.000000
G02 X24.023526 Y7.044322 Z-1.000000 I0.123514 J-1.608818
G02 X24.257607 Y7.252361 Z-1.000000 I0.373751 J-0.134382
G03 X24.513806 Y7.271494 Z-1.000000 I0.117083 J0.242378
G01 X24.712673 Y7.304981 Z-1.000000
G02 X24.938397 Y7.473956 Z-1.000000 I1.121022 J-1.247078
G03 X25.444380 Y7.892311 Z-1.000000 I-2.053835 J2.869933
G02 X25.549965 Y8.093812 Z-1.000000 I0.112358 J-0.053921
G03 X25.645545 Y8.277154 Z-1.000000 I-0.136961 J0.071393
G03 X25.715265 Y8.479243 Z-1.000000 I-0.604423 J0.189195
G02 X25.796975 Y8.749790 Z-1.000000 I0.333157 J-0.100626
G02 X25.686993 Y8.934873 Z-1.000000 I-0.000000 J0.101128
G02 X25.571788 Y9.129450 Z-1.000000 I0.149460 J0.084742
G03 X25.589887 Y9.378806 Z-1.000000 I-0.320382 J-0.001504
G03 X25.638740 Y9.581824 Z-1.000000 I-0.334720 J0.230265
G02 X25.756657 Y9.836970 Z-1.000000 I0.329355 J-0.165215
G02 X25.866607 Y10.076984 Z-1.000000 I0.127257 J-0.067616
G03 X26.166879 Y10.064234 Z-1.000000 I0.622283 J6.153485
G01 X26.368629 Y9.996974 Z-1.000000
G02 X26.509844 Y9.795166 Z-1.000000 I-0.143147 J-0.100168
G02 X26.522484 Y9.541084 Z-1.000000 I-0.406764 J0.004073
G02 X26.378750 Y9.279664 Z-1.000000 I-1.402008 J1.119774
G03 X26.268170 Y9.092918 Z-1.000000 I0.097476 J-0.000000
G01 X26.435816 Y8.941752 Z-1.000000
G01 X26.657284 Y8.779374 Z-1.000000
G03 X26.777385 Y8.582232 Z-1.000000 I0.119879 J0.000000
G03 X27.116866 Y8.145521 Z-1.000000 I7.116688 J6.534918
G01 X27.394669 Y7.866512 Z-1.000000
G01 X27.394669 Y7.602870 Z-1.000000
G01 X27.394669 Y7.339229 Z-1.000000
G03 X27.309093 Y7.072168 Z-1.000000 I1.460188 J-0.504219
G02 X27.581563 Y7.004749 Z-1.000000 I-0.000000 J-0.394787
G01 X27.791722 Y7.016837 Z-1.000000
G01 X28.404990 Y7.016837 Z-1.000000
G01 X29.018258 Y7.016837 Z-1.000000
G01 X29.228778 Y6.975377 Z-1.000000
G02 X29.452315 Y7.039767 Z-1.000000 I0.122573 J-0.562994
G03 X29.768052 Y7.085801 Z-1.000000 I0.019770 J0.703613
G03 X29.981997 Y7.250084 Z-1.000000 I-0.260443 J0.116619
G02 X29.788628 Y7.059394 Z-1.000000 I-0.403572 J1.038409
G02 X29.562789 Y7.029434 Z-1.000000 I-0.755664 J5.693378
G02 X29.301462 Y6.962797 Z-1.000000 I-0.386584 J0.750837
G02 X29.713192 Y6.947389 Z-1.000000 I5.224167 J-103.685184
G03 X30.028678 Y6.961940 Z-1.000000 I-1.193201 J27.245797
G02 X30.428311 Y6.982896 Z-1.000000 I1.449730 J-25.502086
G02 X30.748933 Y6.996764 Z-1.000000 I1.979941 J-42.062474
G03 X31.001099 Y7.011331 Z-1.000000 I-0.271421 J6.888564
G03 X31.201401 Y7.016154 Z-1.000000 I0.038605 J0.276909
G02 X31.220397 Y7.221321 Z-1.000000 I0.099177 J-0.021309
G02 X30.985420 Y7.217204 Z-1.000000 I-0.137244 J0.761614
G03 X30.747688 Y7.270873 Z-1.000000 I-0.201187 J-0.572964
G02 X30.412489 Y7.367461 Z-1.000000 I0.191399 J0.563336
G02 X30.248579 Y7.210270 Z-1.000000 I-0.067574 J0.075422
G02 X30.273322 Y7.416954 Z-1.000000 I0.183986 J0.113713
G02 X30.014314 Y7.402282 Z-1.000000 I-0.179845 J0.197653
G02 X29.813313 Y7.325352 Z-1.000000 I-0.104585 J0.269314
G03 X29.620207 Y7.439790 Z-1.000000 I-0.684780 J-0.798873
G03 X29.395426 Y7.567851 Z-1.000000 I-0.515234 J-0.704340
G02 X29.047472 Y7.767958 Z-1.000000 I2.655096 J4.516838
G03 X28.874060 Y7.874952 Z-1.000000 I-3.141639 J-4.897825
G02 X28.601875 Y8.027294 Z-1.000000 I3.418853 J5.985163
G03 X28.421931 Y8.133246 Z-1.000000 I-3.184584 J-5.202795
G03 X28.190838 Y8.287753 Z-1.000000 I-0.639162 J-0.683800
G02 X27.999491 Y8.395834 Z-1.000000 I0.556900 J1.135289
G03 X27.721567 Y8.498489 Z-1.000000 I-0.140888 J-0.411544
G02 X27.529018 Y8.613270 Z-1.000000 I0.259051 J0.434568
G02 X27.307854 Y8.789084 Z-1.000000 I0.837494 J1.309143
G03 X27.120260 Y8.923145 Z-1.000000 I-0.354061 J-0.511383
G02 X26.940550 Y9.056747 Z-1.000000 I0.048006 J0.064574
G03 X27.145497 Y9.033798 Z-1.000000 I0.760609 J1.127378
G02 X27.324752 Y8.931094 Z-1.000000 I-1.046809 J-1.923063
G03 X27.515692 Y8.824824 Z-1.000000 I0.305505 J0.431266
G02 X27.841695 Y8.841457 Z-1.000000 I0.248534 J-5.449846
G01 X28.091640 Y8.841457 Z-1.000000
G03 X28.271818 Y8.736925 Z-1.000000 I-0.000000 J0.143441
G03 X28.519110 Y8.773182 Z-1.000000 I-0.056596 J1.755375
G02 X28.830621 Y8.836917 Z-1.000000 I0.236099 J-0.889370
G02 X29.042721 Y8.807077 Z-1.000000 I-0.061889 J-0.157919
G02 X29.217344 Y8.965477 Z-1.000000 I0.437387 J-0.096093
G02 X29.100107 Y8.753385 Z-1.000000 I-0.425073 J0.634419
G03 X28.902117 Y8.784373 Z-1.000000 I-0.201230 J-0.126693
G03 X28.655497 Y8.752263 Z-1.000000 I0.009906 J-0.087174
G02 X28.445722 Y8.731693 Z-1.000000 I-0.086141 J0.550576
G01 X28.247571 Y8.635673 Z-1.000000
G01 X28.063151 Y8.814003 Z-1.000000
G02 X27.799500 Y8.794925 Z-1.000000 I-0.074854 J0.496076
G02 X27.550010 Y8.766945 Z-1.000000 I-0.060107 J0.037152
G02 X27.292148 Y8.892913 Z-1.000000 I19.141431 J28.757089
G03 X27.455085 Y8.749304 Z-1.000000 I0.098117 J0.104388
G01 X27.691666 Y8.539628 Z-1.000000
G01 X27.890706 Y8.512188 Z-1.000000
G02 X28.082466 Y8.405858 Z-1.000000 I-0.057647 J-0.080881
G02 X28.264046 Y8.296098 Z-1.000000 I-0.036786 J-0.047386
G02 X28.604802 Y8.078362 Z-1.000000 I-43.689755 J-73.690188
G03 X28.822457 Y7.954540 Z-1.000000 I3.141671 J5.269250
G03 X29.003133 Y7.852751 Z-1.000000 I0.138220 J0.182159
G03 X29.179895 Y7.726226 Z-1.000000 I0.150026 J0.121551
G03 X29.365127 Y7.637002 Z-1.000000 I0.120107 J0.278623
G03 X29.548042 Y7.516559 Z-1.000000 I0.414394 J0.460898
G02 X29.755964 Y7.402646 Z-1.000000 I-0.096696 J-0.169035
G01 X29.600095 Y7.528860 Z-1.000000
G02 X29.411270 Y7.661156 Z-1.000000 I0.544479 J0.981688
G01 X29.233817 Y7.769886 Z-1.000000
G02 X29.037167 Y7.881066 Z-1.000000 I0.086354 J0.149233
G03 X28.819610 Y8.013246 Z-1.000000 I-0.348677 J-0.557738
G03 X28.626407 Y8.125928 Z-1.000000 I-0.856468 J-1.232341
G01 X28.438811 Y8.231746 Z-1.000000
G02 X28.258980 Y8.326088 Z-1.000000 I0.000000 J0.051767
G01 X28.076351 Y8.448196 Z-1.000000
G02 X27.951871 Y8.618595 Z-1.000000 I0.099193 J0.032380
G03 X28.157048 Y8.557869 Z-1.000000 I0.066159 J0.029293
G01 X28.389831 Y8.523985 Z-1.000000
G02 X28.661124 Y8.539555 Z-1.000000 I0.225515 J-3.935391
G03 X29.022851 Y8.557368 Z-1.000000 I-0.000000 J3.681689
G03 X29.231903 Y8.615749 Z-1.000000 I-0.078873 J0.551087
G02 X29.444173 Y8.676745 Z-1.000000 I0.035640 J-0.135582
G01 X29.671943 Y8.767465 Z-1.000000
G02 X29.812943 Y8.522990 Z-1.000000 I-1.923644 J-1.057548
G02 X30.066502 Y8.251394 Z-1.000000 I-0.396905 J-0.628690
G02 X30.178878 Y8.076108 Z-1.000000 I-0.085302 J-0.045001
G03 X30.212355 Y7.775980 Z-1.000000 I0.855471 J0.019272
G03 X30.286593 Y7.584661 Z-1.000000 I0.069224 J0.000000
G03 X30.541370 Y7.339958 Z-1.000000 I0.450472 J0.671208
G02 X30.754914 Y7.301709 Z-1.000000 I-0.081596 J-1.099275
G01 X30.987314 Y7.246719 Z-1.000000
G03 X31.194688 Y7.264574 Z-1.000000 I-1.056651 J12.556537
G03 X31.383062 Y7.420328 Z-1.000000 I-0.045691 J0.047154
G02 X31.338162 Y7.730120 Z-1.000000 I5.980370 J0.866712
G03 X31.318196 Y7.929168 Z-1.000000 I-36.257894 J-3.536374
G03 X31.289832 Y8.198953 Z-1.000000 I-66.338400 J-6.838194
G03 X31.201592 Y8.422909 Z-1.000000 I-0.331981 J-0.123531
G02 X31.122812 Y8.606795 Z-1.000000 I0.208304 J0.163885
G03 X30.969752 Y8.803614 Z-1.000000 I-0.933098 J-0.765069
G02 X31.142945 Y8.642536 Z-1.000000 I-0.282928 J-0.295320
G03 X31.229034 Y8.436637 Z-1.000000 I0.282297 J0.095799
G02 X31.311354 Y8.212357 Z-1.000000 I-0.250203 J-0.066081
G02 X31.338794 Y8.011359 Z-1.000000 I-0.997358 J-0.111531
G02 X31.366234 Y7.750704 Z-1.000000 I-1.256164 J-0.125177
G02 X31.393674 Y7.531208 Z-1.000000 I-0.420602 J-0.070562
G03 X31.247919 Y7.197456 Z-1.000000 I0.624101 J-0.639873
G01 X31.443418 Y7.112787 Z-1.000000
G01 X31.594138 Y6.967817 Z-1.000000
G02 X31.805916 Y6.898363 Z-1.000000 I-0.025493 J-0.047638
G02 X31.590346 Y6.867657 Z-1.000000 I-0.245299 J8.346890
G01 X32.092735 Y6.841587 Z-1.000000
G01 X32.306009 Y7.001447 Z-1.000000
G03 X32.580248 Y7.017589 Z-1.000000 I-0.298313 J5.626938
G02 X32.868606 Y7.043703 Z-1.000000 I0.689691 J-6.746198
G03 X33.266281 Y7.071800 Z-1.000000 I-2.813246 J42.748443
G02 X33.636763 Y7.098729 Z-1.000000 I2.064393 J-27.309236
G03 X33.882488 Y7.118179 Z-1.000000 I-0.093447 J1.627177
G02 X34.096294 Y7.146717 Z-1.000000 I0.266968 J-2.470719
G03 X34.473557 Y7.167397 Z-1.000000 I-1.563060 J28.630473
G02 X34.693067 Y7.180844 Z-1.000000 I7.906102 J-127.260809
G03 X34.952564 Y7.200467 Z-1.000000 I-0.105083 J1.837153
G02 X35.392707 Y7.248787 Z-1.000000 I1.205326 J-12.395239
G03 X35.639643 Y7.276257 Z-1.000000 I-0.069028 J0.619339
G02 X35.927734 Y7.312177 Z-1.000000 I0.859089 J-6.894898
G03 X36.340123 Y7.358604 Z-1.000000 I-0.965299 J10.429149
G02 X36.038052 Y7.352381 Z-1.000000 I-0.473441 J6.743086
G02 X36.243634 Y7.412031 Z-1.000000 I0.677448 J-5.798752
G02 X36.616068 Y7.436407 Z-1.000000 I1.208613 J-15.608537
G02 X36.864419 Y7.386474 Z-1.000000 I-0.031948 J-0.094493
G01 X37.074635 Y7.287093 Z-1.000000
G01 X36.857848 Y7.282611 Z-1.000000
G01 X36.647958 Y7.347781 Z-1.000000
G02 X36.434958 Y7.322054 Z-1.000000 I-0.144993 J0.643512
G03 X36.154086 Y7.291491 Z-1.000000 I0.585439 J-5.381587
G02 X35.888592 Y7.270361 Z-1.000000 I-0.295562 J3.716255
G03 X35.662234 Y7.244341 Z-1.000000 I0.065479 J-0.567994
G02 X35.433857 Y7.216161 Z-1.000000 I-0.265316 J2.150306
G03 X35.183234 Y7.198376 Z-1.000000 I0.379993 J-7.129703
G02 X34.927870 Y7.167902 Z-1.000000 I-0.260791 J1.713715
G02 X34.549003 Y7.139811 Z-1.000000 I-1.567687 J18.574310
G03 X34.171740 Y7.114881 Z-1.000000 I6.307772 J-95.374678
G01 X33.968291 Y7.108425 Z-1.000000
G03 X33.693405 Y7.077168 Z-1.000000 I0.003449 J-1.352527
G03 X33.350211 Y7.050656 Z-1.000000 I0.023092 J-2.435121
G02 X33.148748 Y7.029631 Z-1.000000 I-0.199505 J2.486881
G03 X32.935933 Y7.015531 Z-1.000000 I0.028726 J-0.430514
G03 X32.643775 Y6.993519 Z-1.000000 I0.029957 J-1.313134
G03 X32.372704 Y6.969817 Z-1.000000 I0.000000 J-1.313964
G03 X32.155109 Y6.825081 Z-1.000000 I0.202783 J-0.775312
G02 X31.812093 Y6.798311 Z-1.000000 I-0.856570 J10.943468
G01 X31.496515 Y6.782711 Z-1.000000
G02 X31.257814 Y6.809718 Z-1.000000 I-0.039042 J0.289378
G02 X30.989020 Y6.892073 Z-1.000000 I-0.201082 J2.456106
G03 X30.728365 Y6.878483 Z-1.000000 I0.079889 J-1.535477
G02 X29.822934 Y6.831923 Z-1.000000 I-3.809019 J74.165061
G03 X29.493686 Y6.816833 Z-1.000000 I4.860044 J-105.921225
G02 X29.274136 Y6.808163 Z-1.000000 I-0.617487 J12.852678
G01 X28.958658 Y6.804240 Z-1.000000
G01 X28.752807 Y6.867050 Z-1.000000
G01 X28.949739 Y6.929560 Z-1.000000
G02 X28.382406 Y6.979920 Z-1.000000 I2.500410 J368.109715
G03 X27.834922 Y6.978659 Z-1.000000 I-0.212271 J-26.694014
G02 X27.677149 Y6.840756 Z-1.000000 I-0.045990 J0.306554
G02 X27.479292 Y6.810039 Z-1.000000 I-0.115952 J0.216611
G01 X27.546272 Y6.998815 Z-1.000000
G01 X27.286967 Y7.003197 Z-1.000000
G03 X27.305397 Y7.223507 Z-1.000000 I-0.132416 J0.037463
G03 X27.360277 Y7.593912 Z-1.000000 I-4.490856 J0.242551
G01 X27.360277 Y7.840200 Z-1.000000
G03 X27.072641 Y8.124891 Z-1.000000 I-6.622391 J-6.108875
G03 X26.862231 Y8.330427 Z-1.000000 I-8.335385 J-8.322563
G03 X26.755072 Y8.502680 Z-1.000000 I-0.107531 J-0.062993
G03 X26.659982 Y8.709280 Z-1.000000 I-0.235585 J-0.115161
G01 X26.475412 Y8.830470 Z-1.000000
G01 X26.297574 Y8.958727 Z-1.000000
G02 X26.239909 Y9.196522 Z-1.000000 I0.294333 J-0.000000
G03 X26.376230 Y9.369466 Z-1.000000 I-0.047744 J0.047208
G03 X26.483680 Y9.661684 Z-1.000000 I-1.848784 J0.157338
G01 X26.448240 Y9.878264 Z-1.000000
G02 X26.282560 Y9.990564 Z-1.000000 I0.060716 J0.078755
G02 X26.014504 Y10.026451 Z-1.000000 I0.033684 J1.376109
G03 X25.826613 Y9.892294 Z-1.000000 I0.233061 J-0.107777
G01 X25.750016 Y9.704789 Z-1.000000
G01 X25.664614 Y9.521029 Z-1.000000
G02 X25.691501 Y9.282906 Z-1.000000 I-0.051982 J-0.078931
G03 X25.655437 Y9.030020 Z-1.000000 I0.123493 J0.000000
G02 X25.855981 Y8.915040 Z-1.000000 I-0.365347 J-0.725031
G03 X25.811349 Y8.712978 Z-1.000000 I0.000000 J-0.060835
G02 X25.763683 Y8.460028 Z-1.000000 I-0.427798 J0.000000
G01 X25.701613 Y8.265590 Z-1.000000
G02 X25.615473 Y8.078084 Z-1.000000 I-0.435317 J0.204060
G02 X25.462011 Y7.734679 Z-1.000000 I-0.318393 J-0.000000
G03 X25.202569 Y7.607590 Z-1.000000 I1.144736 J-1.347521
G02 X25.045252 Y7.483260 Z-1.000000 I-0.116554 J0.146202
G02 X24.867325 Y7.341004 Z-1.000000 I-0.542781 J0.580968
G01 X24.700542 Y7.212080 Z-1.000000
G02 X24.483540 Y7.229350 Z-1.000000 I0.049711 J0.963103
G03 X24.227368 Y7.118461 Z-1.000000 I0.338249 J-0.443435
G01 X24.067837 Y6.990098 Z-1.000000
G02 X23.881565 Y6.865162 Z-1.000000 I-0.219845 J0.479367
G02 X24.175272 Y6.891438 Z-1.000000 I0.154649 J-1.145059
G01 X24.384543 Y6.866306 Z-1.000000
G02 X24.599971 Y6.861552 Z-1.000000 I0.024392 J-0.922305
G02 X24.336853 Y6.783928 Z-1.000000 I-0.094937 J1.057917
G03 X24.095263 Y6.831129 Z-1.000000 I-0.104900 J-0.290314
G01 X24.571775 Y6.763349 Z-1.000000
G02 X24.183320 Y6.727289 Z-1.000000 I-0.384329 J7.321297
G03 X23.843396 Y6.722316 Z-1.000000 I0.132807 J-20.697754
G02 X23.608229 Y6.712521 Z-1.000000 I-0.120419 J1.691890

(End cutting path id: path71381)


(Start cutting path id: path71381)
(Change tool to Default tool)


G01 X23.416244 Y6.858107 Z-1.000000
G03 X23.008108 Y6.868742 Z-1.000000 I0.036242 J-8.020854
G02 X23.278473 Y6.778530 Z-1.000000 I-0.408099 J-2.948301
G03 X23.495537 Y6.740618 Z-1.000000 I0.180239 J0.544968

(End cutting path id: path71381)


(Start cutting path id: path71381)
(Change tool to Default tool)

G00 X23.769502 Y6.766177


(End cutting path id: path71381)


(Start cutting path id: path71381)
(Change tool to Default tool)



(End cutting path id: path71381)


(Start cutting path id: path71381)
(Change tool to Default tool)



(End cutting path id: path71381)


(Start cutting path id: path71381)
(Change tool to Default tool)

G00 X24.038647 Y6.969537


(End cutting path id: path71381)


(Start cutting path id: path71381)
(Change tool to Default tool)


G01 X24.139858 Y6.792829 Z-1.000000

(End cutting path id: path71381)


(Start cutting path id: path71381)
(Change tool to Default tool)



(End cutting path id: path71381)


(Start cutting path id: path71381)
(Change tool to Default tool)

G00 X24.375762 Y6.823807


(End cutting path id: path71381)


(Start cutting path id: path71381)
(Change tool to Default tool)



(End cutting path id: path71381)


(Start cutting path id: path71381)
(Change tool to Default tool)

G00 X24.839695 Y6.820964


(End cutting path id: path71381)


(Start cutting path id: path71381)
(Change tool to Default tool)

G00 X25.041859 Y6.757192


(End cutting path id: path71381)


(Start cutting path id: path71381)
(Change tool to Default tool)


G01 X25.537219 Y6.821818 Z-1.000000 F3500.000000
G03 X26.121167 Y6.828089 Z-1.000000 I-0.176366 J43.615892
G01 X25.686580 Y6.800598 Z-1.000000
G02 X25.268237 Y6.805550 Z-1.000000 I0.164726 J31.590459

(End cutting path id: path71381)


(Start cutting path id: path71381)
(Change tool to Default tool)



(End cutting path id: path71381)


(Start cutting path id: path71381)
(Change tool to Default tool)

G00 X25.515153 Y6.756292


(End cutting path id: path71381)


(Start cutting path id: path71381)
(Change tool to Default tool)

G00 X25.714079 Y6.977425

G03 X25.439706 Y6.997475 Z-1.000000 I-0.356058 J-4.886849
G02 X25.200279 Y7.007617 Z-1.000000 I0.160349 J6.616499
G02 X25.211830 Y7.222475 Z-1.000000 I0.068964 J-0.082901
G03 X25.518450 Y7.439024 Z-1.000000 I-1.270814 J1.799429
G03 X25.740468 Y7.596261 Z-1.000000 I-0.206635 J0.453455
G02 X25.822819 Y7.784618 Z-1.000000 I0.069152 J-0.033309
G02 X25.919351 Y7.569311 Z-1.000000 I-0.258546 J-0.047077
G03 X25.978871 Y7.357534 Z-1.000000 I0.063394 J0.014779
G02 X25.942815 Y7.154871 Z-1.000000 I-0.122588 J-0.026921
G02 X25.793607 Y6.964310 Z-1.000000 I-0.151674 J0.401076

(End cutting path id: path71381)


(Start cutting path id: path71381)
(Change tool to Default tool)



(End cutting path id: path71381)


(Start cutting path id: path71381)
(Change tool to Default tool)


G01 X25.652302 Y7.106105 Z-1.000000
G01 X25.892379 Y7.136555 Z-1.000000
G01 X25.928379 Y7.366950 Z-1.000000
G01 X25.861939 Y7.579589 Z-1.000000
G03 X25.531611 Y7.388183 Z-1.000000 I0.691877 J-1.074085
G01 X25.336779 Y7.217776 Z-1.000000
G01 X25.583715 Y7.200776 Z-1.000000
G03 X25.261698 Y7.189277 Z-1.000000 I0.030807 J-1.839862
G03 X25.635228 Y7.037717 Z-1.000000 I0.263556 J8.552310
G03 X25.854240 Y7.042503 Z-1.000000 I-0.008023 J5.381211

(End cutting path id: path71381)


(Start cutting path id: path71381)
(Change tool to Default tool)

G00 X25.655779 Y7.451457


(End cutting path id: path71381)


(Start cutting path id: path71381)
(Change tool to Default tool)

G00 X25.861273 Y7.601565


(End cutting path id: path71381)


(Start cutting path id: path71381)
(Change tool to Default tool)



(End cutting path id: path71381)


(Start cutting path id: path71381)
(Change tool to Default tool)

G00 X26.057045 Y7.502890


(End cutting path id: path71381)


(Start cutting path id: path71381)
(Change tool to Default tool)

G00 X26.290255 Y6.811144


(End cutting path id: path71381)


(Start cutting path id: path71381)
(Change tool to Default tool)

G00 X26.914454 Y6.811144


(End cutting path id: path71381)


(Start cutting path id: path71381)
(Change tool to Default tool)



(End cutting path id: path71381)


(Start cutting path id: path71381)
(Change tool to Default tool)

G00 X27.145214 Y6.917070


(End cutting path id: path71381)


(Start cutting path id: path71381)
(Change tool to Default tool)



(End cutting path id: path71381)


(Start cutting path id: path71381)
(Change tool to Default tool)

G00 X27.346591 Y6.837700


(End cutting path id: path71381)


(Start cutting path id: path71381)
(Change tool to Default tool)


G02 X27.597655 Y6.813922 Z-1.000000 I0.154655 J-0.829586

(End cutting path id: path71381)


(Start cutting path id: path71381)
(Change tool to Default tool)


G02 X27.809591 Y6.793200 Z-1.000000 I0.000000 J-0.093662

(End cutting path id: path71381)


(Start cutting path id: path71381)
(Change tool to Default tool)



(End cutting path id: path71381)


(Start cutting path id: path71381)
(Change tool to Default tool)

G00 X28.079573 Y6.853870

G02 X28.378769 Y6.884662 Z-1.000000 I0.229978 J-1.914405
G02 X28.079577 Y6.853871 Z-1.000000 I-0.007436 J0.136036

(End cutting path id: path71381)


(Start cutting path id: path71381)
(Change tool to Default tool)


G02 X28.484251 Y6.817832 Z-1.000000 I0.260531 J-4.852769
G02 X28.169713 Y6.796540 Z-1.000000 I-0.022312 J0.592081

(End cutting path id: path71381)


(Start cutting path id: path71381)
(Change tool to Default tool)

G00 X28.457802 Y6.866380


(End cutting path id: path71381)


(Start cutting path id: path71381)
(Change tool to Default tool)



(End cutting path id: path71381)


(Start cutting path id: path71381)
(Change tool to Default tool)



(End cutting path id: path71381)


(Start cutting path id: path71381)
(Change tool to Default tool)


G02 X28.694811 Y6.866151 Z-1.000000 I0.058394 J0.000014 F3500.000000

(End cutting path id: path71381)


(Start cutting path id: path71381)
(Change tool to Default tool)


G01 X28.893080 Y6.805727 Z-1.000000

(End cutting path id: path71381)


(Start cutting path id: path71381)
(Change tool to Default tool)

G00 X29.147477 Y6.916317


(End cutting path id: path71381)


(Start cutting path id: path71381)
(Change tool to Default tool)


G02 X29.425117 Y6.864620 Z-1.000000 I0.279601 J-4.056900 F3500.000000
G02 X29.713111 Y6.872397 Z-1.000000 I0.629777 J-17.984178
G03 X30.001017 Y6.881413 Z-1.000000 I-0.220324 J11.636786
G02 X30.588502 Y6.923052 Z-1.000000 I1.524419 J-17.888967
G02 X31.016359 Y6.944677 Z-1.000000 I1.171775 J-18.940657
G03 X30.737924 Y6.955567 Z-1.000000 I0.261478 J-13.682049
G02 X30.330422 Y6.936234 Z-1.000000 I-6.635273 J135.554901
G02 X29.685673 Y6.907217 Z-1.000000 I-15.938807 J346.976956
G03 X29.041650 Y6.875311 Z-1.000000 I2.587079 J-58.735464
G03 X29.287833 Y6.857477 Z-1.000000 I-0.070118 J4.138955

(End cutting path id: path71381)


(Start cutting path id: path71381)
(Change tool to Default tool)

G00 X29.500431 Y7.221291


(End cutting path id: path71381)


(Start cutting path id: path71381)
(Change tool to Default tool)

G00 X29.898103 Y7.474032


(End cutting path id: path71381)


(Start cutting path id: path71381)
(Change tool to Default tool)


G01 X30.041233 Y7.620842 Z-1.000000
G01 X30.256743 Y7.623512 Z-1.000000
G02 X30.155963 Y7.953783 Z-1.000000 I0.987403 J0.257984
G01 X30.034804 Y8.204613 Z-1.000000
G03 X29.877235 Y8.349966 Z-1.000000 I-0.239648 J-0.259789
G03 X29.711453 Y8.624336 Z-1.000000 I-17.546261 J-8.936507
G02 X29.439142 Y8.636006 Z-1.000000 I-0.155112 J0.467718
G02 X29.232903 Y8.576776 Z-1.000000 I-0.361183 J1.198748
G01 X28.985969 Y8.510646 Z-1.000000
G01 X28.616867 Y8.498256 Z-1.000000
G01 X28.247764 Y8.485866 Z-1.000000
G02 X28.040139 Y8.573116 Z-1.000000 I0.191777 J0.399538
G03 X28.276459 Y8.371396 Z-1.000000 I0.683365 J0.748211
G03 X28.505910 Y8.256084 Z-1.000000 I16.421018 J27.980736
G03 X28.691025 Y8.148433 Z-1.000000 I70.846161 J121.613326
G02 X28.875815 Y8.040230 Z-1.000000 I-14.268965 J-24.580604
G03 X29.068562 Y7.924209 Z-1.000000 I6.246950 J10.240965
G02 X29.287445 Y7.794577 Z-1.000000 I-6.249973 J-10.665773
G03 X29.651894 Y7.570206 Z-1.000000 I8.552554 J13.537976
G01 X29.836431 Y7.473103 Z-1.000000

(End cutting path id: path71381)


(Start cutting path id: path71381)
(Change tool to Default tool)


G03 X30.108168 Y7.506214 Z-1.000000 I-0.083315 J0.292003 F3500.000000
G01 X29.918358 Y7.415945 Z-1.000000

(End cutting path id: path71381)


(Start cutting path id: path71381)
(Change tool to Default tool)


G01 X30.135975 Y7.463040 Z-1.000000

(End cutting path id: path71381)


(Start cutting path id: path71381)
(Change tool to Default tool)


G01 X30.048368 Y7.277749 Z-1.000000

(End cutting path id: path71381)


(Start cutting path id: path71381)
(Change tool to Default tool)



(End cutting path id: path71381)


(Start cutting path id: path71381)
(Change tool to Default tool)

G00 X30.296159 Y7.509462


(End cutting path id: path71381)


(Start cutting path id: path71381)
(Change tool to Default tool)


G01 X30.148213 Y7.671719 Z-1.000000 F3500.000000

(End cutting path id: path71381)


(Start cutting path id: path71381)
(Change tool to Default tool)

G00 X30.539489 Y7.519024

G01 X30.337262 Y7.588524 Z-1.000000
G02 X30.567855 Y7.531767 Z-1.000000 I-0.000000 J-0.140502

(End cutting path id: path71381)


(Start cutting path id: path71381)
(Change tool to Default tool)



(End cutting path id: path71381)


(Start cutting path id: path71381)
(Change tool to Default tool)

G00 X31.322482 Y7.067587


(End cutting path id: path71381)


(Start cutting path id: path71381)
(Change tool to Default tool)



(End cutting path id: path71381)


(Start cutting path id: path71381)
(Change tool to Default tool)

G00 X31.503392 Y6.976867

G01 X31.317152 Y7.085657 Z-1.000000
G02 X31.503386 Y6.976757 Z-1.000000 I0.066225 J-0.803098

(End cutting path id: path71381)


(Start cutting path id: path71381)
(Change tool to Default tool)



(End cutting path id: path71381)


(Start cutting path id: path71381)
(Change tool to Default tool)


G03 X31.701158 Y6.897358 Z-1.000000 I0.090467 J2.228534
G02 X31.370082 Y6.933369 Z-1.000000 I0.013052 J2.031122

(End cutting path id: path71381)


(Start cutting path id: path71381)
(Change tool to Default tool)

G00 X32.241588 Y6.066146


(End cutting path id: path71381)


(Start cutting path id: path71381)
(Change tool to Default tool)

G00 X32.281885 Y5.517825


(End cutting path id: path71381)


(Start cutting path id: path71381)
(Change tool to Default tool)

G00 X32.535680 Y5.504205


(End cutting path id: path71381)


(Start cutting path id: path71381)
(Change tool to Default tool)


G03 X32.299033 Y5.479135 Z-1.000000 I-109.846369 J-1617.732761
G03 X31.487317 Y5.525244 Z-1.000000 I-2.533878 J-37.439146
G03 X32.648834 Y5.443525 Z-1.000000 I1.151193 J24.195682

(End cutting path id: path71381)


(Start cutting path id: path71381)
(Change tool to Default tool)



(End cutting path id: path71381)


(Start cutting path id: path71381)
(Change tool to Default tool)

G00 X33.366519 Y5.586000


(End cutting path id: path71381)


(Start cutting path id: path71381)
(Change tool to Default tool)



(End cutting path id: path71381)


(Start cutting path id: path71381)
(Change tool to Default tool)

G00 X33.500875 Y5.872719


(End cutting path id: path71381)


(Start cutting path id: path71381)
(Change tool to Default tool)



(End cutting path id: path71381)


(Start cutting path id: path71381)
(Change tool to Default tool)



(End cutting path id: path71381)


(Start cutting path id: path71381)
(Change tool to Default tool)


G02 X33.698344 Y5.918512 Z-1.000000 I0.030874 J-0.158860 F3500.000000

(End cutting path id: path71381)


(Start cutting path id: path71381)
(Change tool to Default tool)



(End cutting path id: path71381)


(Start cutting path id: path71381)
(Change tool to Default tool)

G00 X34.006113 Y5.671250


(End cutting path id: path71381)


(Start cutting path id: path71381)
(Change tool to Default tool)


G01 X33.808092 Y5.564961 Z-1.000000
G01 X34.020719 Y5.539750 Z-1.000000

(End cutting path id: path71381)


(Start cutting path id: path71381)
(Change tool to Default tool)



(End cutting path id: path71381)


(Start cutting path id: path71381)
(Change tool to Default tool)



(End cutting path id: path71381)


(Start cutting path id: path71381)
(Change tool to Default tool)

G00 X34.182182 Y5.695930


(End cutting path id: path71381)


(Start cutting path id: path71381)
(Change tool to Default tool)



(End cutting path id: path71381)


(Start cutting path id: path71381)
(Change tool to Default tool)



(End cutting path id: path71381)


(Start cutting path id: path71381)
(Change tool to Default tool)


G02 X34.394558 Y5.655080 Z-1.000000 I0.000000 J-0.255317

(End cutting path id: path71381)


(Start cutting path id: path71381)
(Change tool to Default tool)



(End cutting path id: path71381)


(Start cutting path id: path71381)
(Change tool to Default tool)



(End cutting path id: path71381)


(Start cutting path id: path71381)
(Change tool to Default tool)



(End cutting path id: path71381)


(Start cutting path id: path71381)
(Change tool to Default tool)



(End cutting path id: path71381)


(Start cutting path id: path71381)
(Change tool to Default tool)



(End cutting path id: path71381)


(Start cutting path id: path71381)
(Change tool to Default tool)



(End cutting path id: path71381)


(Start cutting path id: path71381)
(Change tool to Default tool)

G00 X34.545155 Y5.216159


(End cutting path id: path71381)


(Start cutting path id: path71381)
(Change tool to Default tool)


G01 X34.758103 Y5.242803 Z-1.000000

(End cutting path id: path71381)


(Start cutting path id: path71381)
(Change tool to Default tool)



(End cutting path id: path71381)


(Start cutting path id: path71381)
(Change tool to Default tool)

G00 X34.189633 Y5.243089


(End cutting path id: path71381)


(Start cutting path id: path71381)
(Change tool to Default tool)


G02 X33.847923 Y5.291250 Z-1.000000 I0.351775 J11.200450 F3500.000000
G02 X33.936435 Y5.520743 Z-1.000000 I0.095210 J0.092183
G02 X34.537919 Y5.276761 Z-1.000000 I-0.027036 J-0.930058
G02 X34.152903 Y5.277513 Z-1.000000 I0.025524 J13.078835

(End cutting path id: path71381)


(Start cutting path id: path71381)
(Change tool to Default tool)

G00 X33.945269 Y5.261103


(End cutting path id: path71381)


(Start cutting path id: path71381)
(Change tool to Default tool)

G00 X32.998725 Y6.289993


(End cutting path id: path71381)


(Start cutting path id: path71381)
(Change tool to Default tool)

G00 X34.041293 Y7.008650


(End cutting path id: path71381)


(Start cutting path id: path71381)
(Change tool to Default tool)

G00 X34.761522 Y7.071990


(End cutting path id: path71381)


(Start cutting path id: path71381)
(Change tool to Default tool)

G00 X35.142226 Y6.930515


(End cutting path id: path71381)


(Start cutting path id: path71381)
(Change tool to Default tool)

G00 X35.186855 Y6.687877


(End cutting path id: path71381)


(Start cutting path id: path71381)
(Change tool to Default tool)

G00 X35.632657 Y6.975940


(End cutting path id: path71381)


(Start cutting path id: path71381)
(Change tool to Default tool)

G00 X35.948189 Y6.844970


(End cutting path id: path71381)


(Start cutting path id: path71381)
(Change tool to Default tool)

G00 X35.744841 Y7.341412


(End cutting path id: path71381)


(Start cutting path id: path71381)
(Change tool to Default tool)

G00 X36.150306 Y7.382032


(End cutting path id: path71381)


(Start cutting path id: path71381)
(Change tool to Default tool)

G00 X36.517566 Y7.384832

G01 X36.284358 Y7.396792 Z-1.000000
G03 X36.503854 Y7.378392 Z-1.000000 I0.068457 J1.080363

(End cutting path id: path71381)


(Start cutting path id: path71381)
(Change tool to Default tool)

G00 X36.719916 Y7.424602


(End cutting path id: path71381)


(Start cutting path id: path71381)
(Change tool to Default tool)



(End cutting path id: path71381)


(Start cutting path id: path71381)
(Change tool to Default tool)

G00 X37.134862 Y7.387452


(End cutting path id: path71381)


(Start cutting path id: path71381)
(Change tool to Default tool)

G00 X37.366979 Y7.268342


(End cutting path id: path71381)


(Start cutting path id: path71381)
(Change tool to Default tool)

G00 X38.078020 Y7.237272

G02 X38.280375 Y7.298332 Z-1.000000 I0.105045 J-0.456026
G01 X38.390125 Y7.471392 Z-1.000000
G02 X38.156099 Y7.417392 Z-1.000000 I-0.172416 J0.460567
G03 X37.903665 Y7.395012 Z-1.000000 I0.116445 J-0.775782
G01 X37.701261 Y7.373692 Z-1.000000
G03 X37.480371 Y7.406482 Z-1.000000 I-0.022416 J-0.198224
G01 X37.677906 Y7.274742 Z-1.000000
G01 X37.954533 Y7.268042 Z-1.000000

(End cutting path id: path71381)


(Start cutting path id: path71381)
(Change tool to Default tool)

G00 X36.613553 Y6.958185

G01 X36.301454 Y6.986455 Z-1.000000
G01 X35.989354 Y6.990155 Z-1.000000
G03 X36.324464 Y6.930735 Z-1.000000 I0.100209 J20.000742
G01 X36.613549 Y6.933635 Z-1.000000

(End cutting path id: path71381)


(Start cutting path id: path71381)
(Change tool to Default tool)



(End cutting path id: path71381)


(Start cutting path id: path71381)
(Change tool to Default tool)

G00 X31.980075 Y5.531545


(End cutting path id: path71381)


(Start cutting path id: path71381)
(Change tool to Default tool)

G00 X31.774455 Y5.544861


(End cutting path id: path71381)


(Start cutting path id: path71381)
(Change tool to Default tool)


G03 X31.558539 Y5.561798 Z-1.000000 I-0.030828 J-0.157595 F3500.000000

(End cutting path id: path71381)


(Start cutting path id: path71381)
(Change tool to Default tool)

G00 X30.375359 Y5.556827


(End cutting path id: path71381)


(Start cutting path id: path71381)
(Change tool to Default tool)


G03 X30.134047 Y5.594290 Z-1.000000 I-0.109866 J-0.276325 F3500.000000
G03 X29.651334 Y5.645197 Z-1.000000 I-1.540591 J-12.294131
G03 X29.026960 Y5.672705 Z-1.000000 I-0.644158 J-7.521360
G03 X29.898269 Y5.571987 Z-1.000000 I2.192531 J25.732025
G03 X30.205119 Y5.565597 Z-1.000000 I0.251367 J4.699737

(End cutting path id: path71381)


(Start cutting path id: path71381)
(Change tool to Default tool)



(End cutting path id: path71381)


(Start cutting path id: path71381)
(Change tool to Default tool)



(End cutting path id: path71381)


(Start cutting path id: path71381)
(Change tool to Default tool)

G00 X30.018469 Y5.654617


(End cutting path id: path71381)


(Start cutting path id: path71381)
(Change tool to Default tool)


G03 X29.854393 Y5.539431 Z-1.000000 I-0.404870 J-3.498409 F3500.000000
G03 X29.324978 Y5.570577 Z-1.000000 I-2.221774 J-33.250402
G03 X28.992838 Y5.597247 Z-1.000000 I-0.494922 J-6.206903
G02 X28.754068 Y5.632059 Z-1.000000 I0.071822 J1.328858
G02 X29.098497 Y5.710146 Z-1.000000 I0.259853 J-1.888902
G02 X29.727664 Y5.672897 Z-1.000000 I-0.180195 J-8.375892
G02 X30.084786 Y5.713811 Z-1.000000 I0.176092 J-2.307860
G01 X30.316684 Y5.633981 Z-1.000000
G02 X30.024479 Y5.523901 Z-1.000000 I-0.029335 J1.955961

(End cutting path id: path71381)


(Start cutting path id: path71381)
(Change tool to Default tool)

G00 X29.737074 Y5.243549


(End cutting path id: path71381)


(Start cutting path id: path71381)
(Change tool to Default tool)

G00 X29.510716 Y5.202459


(End cutting path id: path71381)


(Start cutting path id: path71381)
(Change tool to Default tool)

G00 X29.510717 Y5.613987


(End cutting path id: path71381)


(Start cutting path id: path71381)
(Change tool to Default tool)



(End cutting path id: path71381)


(Start cutting path id: path71381)
(Change tool to Default tool)

G00 X28.979120 Y5.658917


(End cutting path id: path71381)


(Start cutting path id: path71381)
(Change tool to Default tool)



(End cutting path id: path71381)


(Start cutting path id: path71381)
(Change tool to Default tool)

G00 X28.512685 Y5.550187

G03 X28.079127 Y5.582537 Z-1.000000 I-1.084397 J-11.611710 F3500.000000
G03 X27.819893 Y5.588907 Z-1.000000 I-0.231440 J-4.140656
G01 X27.614113 Y5.587507 Z-1.000000
G03 X28.485243 Y5.539617 Z-1.000000 I0.740386 J17.409274

(End cutting path id: path71381)


(Start cutting path id: path71381)
(Change tool to Default tool)

G00 X27.921641 Y5.749985

G01 X27.633549 Y5.752185 Z-1.000000 F3500.000000
G01 X27.339741 Y5.749285 Z-1.000000
G01 X27.545521 Y5.741185 Z-1.000000
G03 X27.892090 Y5.738432 Z-1.000000 I0.216816 J5.477933

(End cutting path id: path71381)


(Start cutting path id: path71381)
(Change tool to Default tool)



(End cutting path id: path71381)


(Start cutting path id: path71381)
(Change tool to Default tool)

G00 X27.867908 Y5.511167

G02 X27.558403 Y5.552535 Z-1.000000 I0.816348 J7.286135 F3500.000000
G02 X27.759949 Y5.683238 Z-1.000000 I0.236397 J-0.407124
G02 X28.680735 Y5.568531 Z-1.000000 I-0.252658 J-5.781231
G01 X28.326690 Y5.504601 Z-1.000000
G02 X27.957298 Y5.505473 Z-1.000000 I-0.147450 J15.776244

(End cutting path id: path71381)


(Start cutting path id: path71381)
(Change tool to Default tool)

G00 X27.471343 Y5.713865

G01 X27.665780 Y5.790695 Z-1.000000
G02 X28.142321 Y5.762328 Z-1.000000 I-0.254959 J-8.299958
G02 X27.471382 Y5.713895 Z-1.000000 I-0.114503 J12.375246

(End cutting path id: path71381)


(Start cutting path id: path71381)
(Change tool to Default tool)

G00 X27.085945 Y5.427959


(End cutting path id: path71381)


(Start cutting path id: path71381)
(Change tool to Default tool)

G00 X26.971865 Y5.202861


(End cutting path id: path71381)


(Start cutting path id: path71381)
(Change tool to Default tool)

G00 X25.868674 Y5.434685


(End cutting path id: path71381)


(Start cutting path id: path71381)
(Change tool to Default tool)

G00 X25.926716 Y5.741296


(End cutting path id: path71381)


(Start cutting path id: path71381)
(Change tool to Default tool)

G00 X25.521002 Y5.764175

G03 X25.136674 Y5.809155 Z-1.000000 I-0.518193 J-4.427712
G03 X24.585752 Y5.818292 Z-1.000000 I-0.617652 J-20.628695
G02 X24.842947 Y5.769395 Z-1.000000 I-1.540327 J-26.645018
G03 X25.207037 Y5.756397 Z-1.000000 I0.413557 J6.478293
G03 X25.521004 Y5.764195 Z-1.000000 I0.036879 J4.839448

(End cutting path id: path71381)


(Start cutting path id: path71381)
(Change tool to Default tool)



(End cutting path id: path71381)


(Start cutting path id: path71381)
(Change tool to Default tool)

G00 X24.959542 Y7.154298


(End cutting path id: path71381)


(Start cutting path id: path71381)
(Change tool to Default tool)

G00 X24.726325 Y7.084798

G02 X24.936708 Y7.200728 Z-1.000000 I0.749210 J-1.359522
G02 X24.731960 Y7.080342 Z-1.000000 I-0.237075 J0.629749

(End cutting path id: path71381)


(Start cutting path id: path71381)
(Change tool to Default tool)

G00 X24.342202 Y7.057330


(End cutting path id: path71381)


(Start cutting path id: path71381)
(Change tool to Default tool)



(End cutting path id: path71381)


(Start cutting path id: path71381)
(Change tool to Default tool)

G00 X23.347738 Y6.934975


(End cutting path id: path71381)


(Start cutting path id: path71381)
(Change tool to Default tool)

G00 X22.987757 Y6.958005


(End cutting path id: path71381)


(Start cutting path id: path71381)
(Change tool to Default tool)



(End cutting path id: path71381)


(Start cutting path id: path71381)
(Change tool to Default tool)



(End cutting path id: path71381)


(Start cutting path id: path71381)
(Change tool to Default tool)

G00 X22.658531 Y7.123430

G03 X22.520821 Y7.283208 Z-1.000000 I-0.096262 J-0.096669
G03 X22.671064 Y7.139373 Z-1.000000 I0.779459 J0.403066

(End cutting path id: path71381)


(Start cutting path id: path71381)
(Change tool to Default tool)

G00 X22.562527 Y7.670912


(End cutting path id: path71381)


(Start cutting path id: path71381)
(Change tool to Default tool)



(End cutting path id: path71381)


(Start cutting path id: path71381)
(Change tool to Default tool)

G00 X22.243307 Y7.545282


(End cutting path id: path71381)


(Start cutting path id: path71381)
(Change tool to Default tool)



(End cutting path id: path71381)


(Start cutting path id: path71381)
(Change tool to Default tool)


G01 X22.103495 Y7.699338 Z-1.000000 F3500.000000

(End cutting path id: path71381)


(Start cutting path id: path71381)
(Change tool to Default tool)



(End cutting path id: path71381)


(Start cutting path id: path71381)
(Change tool to Default tool)



(End cutting path id: path71381)


(Start cutting path id: path71381)
(Change tool to Default tool)



(End cutting path id: path71381)


(Start cutting path id: path71381)
(Change tool to Default tool)

G00 X21.764189 Y7.683583


(End cutting path id: path71381)


(Start cutting path id: path71381)
(Change tool to Default tool)



(End cutting path id: path71381)


(Start cutting path id: path71381)
(Change tool to Default tool)

G00 X21.696338 Y7.945092

G02 X21.648088 Y8.237998 Z-1.000000 I2.231147 J0.249858
G02 X21.705584 Y7.946312 Z-1.000000 I-0.548842 J-0.105857

(End cutting path id: path71381)


(Start cutting path id: path71381)
(Change tool to Default tool)



(End cutting path id: path71381)


(Start cutting path id: path71381)
(Change tool to Default tool)

G00 X21.965070 Y7.924182


(End cutting path id: path71381)


(Start cutting path id: path71381)
(Change tool to Default tool)


G01 X22.071760 Y8.141978 Z-1.000000
G01 X22.037660 Y7.926382 Z-1.000000

(End cutting path id: path71381)


(Start cutting path id: path71381)
(Change tool to Default tool)



(End cutting path id: path71381)


(Start cutting path id: path71381)
(Change tool to Default tool)



(End cutting path id: path71381)


(Start cutting path id: path71381)
(Change tool to Default tool)


G01 X22.220013 Y8.009538 Z-1.000000

(End cutting path id: path71381)


(Start cutting path id: path71381)
(Change tool to Default tool)

G00 X22.285498 Y8.383190


(End cutting path id: path71381)


(Start cutting path id: path71381)
(Change tool to Default tool)


G02 X22.233518 Y8.583599 Z-1.000000 I0.205370 J0.108962 F3500.000000

(End cutting path id: path71381)


(Start cutting path id: path71381)
(Change tool to Default tool)



(End cutting path id: path71381)


(Start cutting path id: path71381)
(Change tool to Default tool)

G00 X22.058136 Y8.690630


(End cutting path id: path71381)


(Start cutting path id: path71381)
(Change tool to Default tool)



(End cutting path id: path71381)


(Start cutting path id: path71381)
(Change tool to Default tool)



(End cutting path id: path71381)


(Start cutting path id: path71381)
(Change tool to Default tool)

G00 X22.134583 Y8.986863


(End cutting path id: path71381)


(Start cutting path id: path71381)
(Change tool to Default tool)

G00 X22.161539 Y9.523097

G03 X22.142449 Y9.760792 Z-1.000000 I-0.133122 J-0.017016
G03 X22.093972 Y10.025758 Z-1.000000 I-0.712588 J-0.060108
G03 X22.016719 Y10.223534 Z-1.000000 I-0.333318 J-0.115688
G02 X22.004429 Y10.752723 Z-1.000000 I388.893064 J-7.219262
G01 X22.012029 Y11.134130 Z-1.000000
G01 X22.229589 Y11.118920 Z-1.000000
G02 X22.243840 Y10.838022 Z-1.000000 I-3.077486 J0.163225
G01 X22.226064 Y10.618245 Z-1.000000
G01 X22.236894 Y10.323294 Z-1.000000
G03 X22.247892 Y10.028348 Z-1.000000 I490.822619 J18.153458
