%
(Header)
(Generated by gcodetools from Inkscape.)
(Using default header. To add your own header create file "header" in the output dir.)
M3
(Header end.)
G21 (All units in mm)

(Start cutting path id: path168879)
(Change tool to Default tool)

G00 Z 5.0000
G00 X 10.4735 Y 0.5670

G01 Z -1.0000 F 100.0000(Penetrate)
G02 X 10.5090 Y 1.2240 Z -1.0000 I 6.1023 J 0.0000 F 3500.0000
G01 X 10.5486 Y 1.2600 Z -1.0000
G03 X 10.8313 Y 1.2996 Z -1.0000 I -0.0165 J 1.1475
G03 X 10.9149 Y 1.3591 Z -1.0000 I -0.0385 J 0.1427
G01 X 10.9386 Y 1.3710 Z -1.0000
G02 X 11.0377 Y 1.3540 Z -1.0000 I -0.0163 J -0.3925
G03 X 11.2349 Y 1.3226 Z -1.0000 I 0.2094 J 0.6818
G03 X 11.5447 Y 1.3453 Z -1.0000 I 0.0296 J 1.7270
G01 X 11.5843 Y 1.3939 Z -1.0000
G03 X 11.5395 Y 1.4705 Z -1.0000 I -0.0947 J -0.0040
G03 X 11.5120 Y 1.4811 Z -1.0000 I -0.0424 J -0.0690
G03 X 11.4068 Y 1.4954 Z -1.0000 I -0.1935 J -1.0257
G02 X 11.3020 Y 1.5112 Z -1.0000 I 0.0697 J 0.8202
G02 X 11.2645 Y 1.5263 Z -1.0000 I 0.0253 J 0.1168
G01 X 11.2494 Y 1.5280 Z -1.0000
G01 X 11.2466 Y 1.5201 Z -1.0000
G01 X 11.2333 Y 1.4915 Z -1.0000
G02 X 10.7264 Y 1.4429 Z -1.0000 I -0.7241 J 4.8800
G03 X 10.5309 Y 1.4274 Z -1.0000 I 0.1242 J -2.8109
G03 X 10.5012 Y 1.4171 Z -1.0000 I 0.0082 J -0.0716
G01 X 10.4873 Y 1.4247 Z -1.0000
G02 X 10.4736 Y 3.2182 Z -1.0000 I 116.8554 J 1.7935
G02 X 10.4972 Y 5.0049 Z -1.0000 I 67.5390 J 0.0000
G01 X 10.5213 Y 5.0225 Z -1.0000
G03 X 10.5699 Y 5.0126 Z -1.0000 I 0.0839 J 0.2861
G03 X 10.8966 Y 4.9777 Z -1.0000 I 1.5759 J 13.2084
G02 X 11.2228 Y 4.9402 Z -1.0000 I -0.7621 J -8.0792
G02 X 11.3059 Y 4.9223 Z -1.0000 I -0.0731 J -0.5403
G03 X 11.3889 Y 4.9041 Z -1.0000 I 0.1636 J 0.5468
G03 X 11.5515 Y 4.8873 Z -1.0000 I 0.2981 J 2.0905
G02 X 11.7127 Y 4.8643 Z -1.0000 I -0.0677 J -1.0505
G02 X 11.9063 Y 4.8083 Z -1.0000 I -0.3503 J -1.5731
G03 X 12.0987 Y 4.7508 Z -1.0000 I 0.6295 J 1.7556
G03 X 12.1655 Y 4.7458 Z -1.0000 I 0.0486 J 0.2016
G02 X 12.2330 Y 4.7437 Z -1.0000 I 0.0249 J -0.2834
G02 X 12.3566 Y 4.7169 Z -1.0000 I -0.1500 J -0.9920
G03 X 12.9929 Y 4.6366 Z -1.0000 I 0.5824 J 2.0523
G03 X 13.2785 Y 4.7402 Z -1.0000 I -0.0121 J 0.4785
G02 X 13.3164 Y 4.7526 Z -1.0000 I 0.0357 J -0.0450
G02 X 13.4251 Y 4.7345 Z -1.0000 I -0.0169 J -0.4368
G03 X 13.5198 Y 4.7800 Z -1.0000 I 0.0224 J 0.0748
G03 X 13.5602 Y 5.0684 Z -1.0000 I -0.5551 J 0.2247
G02 X 13.5307 Y 5.3792 Z -1.0000 I 13.0733 J 1.3966
G02 X 13.5189 Y 5.5675 Z -1.0000 I 4.7834 J 0.3964
G03 X 13.5067 Y 5.7557 Z -1.0000 I -4.4877 J -0.1948
G03 X 13.4677 Y 6.1653 Z -1.0000 I -21.2009 J -1.8143
G02 X 13.4324 Y 6.5752 Z -1.0000 I 10.8904 J 1.1440
G02 X 13.4072 Y 7.0659 Z -1.0000 I 15.5645 J 1.0458
G03 X 13.3682 Y 7.5537 Z -1.0000 I -5.5452 J -0.1974
G03 X 13.3115 Y 7.8346 Z -1.0000 I -1.8879 J -0.2350
G02 X 13.1565 Y 8.4617 Z -1.0000 I 9.6356 J 2.7143
G02 X 13.0827 Y 8.9079 Z -1.0000 I 4.8007 J 1.0235
G02 X 12.9932 Y 9.9676 Z -1.0000 I 15.7267 J 1.8622
G02 X 12.9571 Y 11.3827 Z -1.0000 I 28.0257 J 1.4221
G02 X 12.9706 Y 12.0947 Z -1.0000 I 18.5847 J 0.0046
G02 X 12.9873 Y 12.1741 Z -1.0000 I 0.2411 J -0.0092
G03 X 13.0061 Y 12.2532 Z -1.0000 I -0.2669 J 0.1054
G03 X 13.0234 Y 12.5669 Z -1.0000 I -4.2679 J 0.3924
G02 X 13.0471 Y 12.8771 Z -1.0000 I 2.6842 J -0.0494
G02 X 13.0749 Y 12.9482 Z -1.0000 I 0.1603 J -0.0217
G03 X 13.1113 Y 13.0165 Z -1.0000 I -0.2606 J 0.1825
G03 X 13.1207 Y 13.0671 Z -1.0000 I -0.1315 J 0.0506
G02 X 13.1361 Y 13.1951 Z -1.0000 I 0.5400 J 0.0000
G02 X 13.2727 Y 13.6901 Z -1.0000 I 8.3191 J -2.0304
G02 X 13.5120 Y 14.1679 Z -1.0000 I 1.5557 J -0.4801
G02 X 13.6856 Y 14.2576 Z -1.0000 I 0.1762 J -0.1282
G03 X 13.8126 Y 14.3151 Z -1.0000 I -0.0019 J 0.1730
G03 X 13.8750 Y 14.4689 Z -1.0000 I -0.1828 J 0.1638
G02 X 13.9291 Y 14.7319 Z -1.0000 I 0.8328 J -0.0341
G02 X 13.9919 Y 14.7752 Z -1.0000 I 0.0628 J -0.0240
G02 X 14.1018 Y 14.7227 Z -1.0000 I 0.0000 J -0.1411
G02 X 14.3439 Y 14.3386 Z -1.0000 I -1.5277 J -1.2315
G03 X 14.4980 Y 14.0680 Z -1.0000 I 1.9748 J 0.9456
G03 X 14.5672 Y 14.0043 Z -1.0000 I 0.1660 J 0.1109
G03 X 14.6545 Y 13.9611 Z -1.0000 I 0.5010 J 0.9033
G03 X 14.6765 Y 13.9565 Z -1.0000 I 0.0219 J 0.0502
G01 X 14.6912 Y 13.9669 Z -1.0000
G03 X 14.7313 Y 14.1093 Z -1.0000 I -0.9963 J 0.3576
G02 X 14.7720 Y 14.2591 Z -1.0000 I 1.2625 J -0.2621
G02 X 14.8256 Y 14.3891 Z -1.0000 I 1.0034 J -0.3382
G03 X 14.8848 Y 14.5174 Z -1.0000 I -2.4275 J 1.1967
G03 X 14.9241 Y 14.6183 Z -1.0000 I -1.4633 J 0.6287
G02 X 14.9696 Y 14.7071 Z -1.0000 I 0.3482 J -0.1223
G01 X 14.9955 Y 14.7206 Z -1.0000
G01 X 15.0220 Y 14.7296 Z -1.0000
G01 X 15.0310 Y 14.7479 Z -1.0000
G01 X 15.0404 Y 14.7657 Z -1.0000
G02 X 15.0712 Y 14.7752 Z -1.0000 I 0.0308 J -0.0454
G03 X 15.1620 Y 14.8339 Z -1.0000 I -0.0000 J 0.0997
G03 X 15.1814 Y 15.0194 Z -1.0000 I -0.2702 J 0.1219
G03 X 15.0707 Y 15.1963 Z -1.0000 I -0.3033 J -0.0666
G03 X 14.8690 Y 15.2664 Z -1.0000 I -0.2017 J -0.2550
G02 X 14.8255 Y 15.2793 Z -1.0000 I 0.0000 J 0.0797
G01 X 14.8126 Y 15.3031 Z -1.0000
G02 X 14.8502 Y 15.3926 Z -1.0000 I 0.1252 J 0.0000
G02 X 14.9423 Y 15.4301 Z -1.0000 I 0.0921 J -0.0940
G02 X 15.1211 Y 15.3566 Z -1.0000 I -0.0000 J -0.2541
G02 X 15.1947 Y 15.1802 Z -1.0000 I -0.1747 J -0.1764
G01 X 15.2031 Y 15.1657 Z -1.0000
G03 X 15.2347 Y 15.1572 Z -1.0000 I 0.0316 J 0.0551
G03 X 15.2810 Y 15.1731 Z -1.0000 I -0.0000 J 0.0755
G03 X 15.5374 Y 15.3921 Z -1.0000 I -2.2002 J 2.8361
G02 X 15.6017 Y 15.4446 Z -1.0000 I 0.4119 J -0.4387
G02 X 15.6423 Y 15.4663 Z -1.0000 I 0.1068 J -0.1509
G03 X 15.6733 Y 15.4917 Z -1.0000 I -0.0229 J 0.0596
G03 X 15.6859 Y 15.5350 Z -1.0000 I -0.0683 J 0.0433
G02 X 15.7055 Y 15.5747 Z -1.0000 I 0.0500 J -0.0000
G02 X 15.8645 Y 15.6723 Z -1.0000 I 0.5433 J -0.7067
G02 X 16.0442 Y 15.7531 Z -1.0000 I 1.8369 J -3.8461
G02 X 16.0667 Y 15.7576 Z -1.0000 I 0.0226 J -0.0534
G02 X 16.1572 Y 15.7026 Z -1.0000 I 0.0000 J -0.1019
G02 X 16.3981 Y 15.1186 Z -1.0000 I -3.2215 J -1.6708
G03 X 16.4534 Y 14.9538 Z -1.0000 I 4.3103 J 1.3531
G03 X 16.4768 Y 14.8980 Z -1.0000 I 0.5161 J 0.1841
G02 X 16.4983 Y 14.8415 Z -1.0000 I -0.3012 J -0.1467
G02 X 16.6138 Y 14.4082 Z -1.0000 I -17.7949 J -4.9767
G03 X 16.7902 Y 13.9238 Z -1.0000 I 2.4836 J 0.6300
G01 X 16.8586 Y 13.9015 Z -1.0000
G02 X 16.9047 Y 13.9106 Z -1.0000 I 0.0378 J -0.0706
G02 X 16.9575 Y 13.8912 Z -1.0000 I -0.0119 J -0.1144
G03 X 17.1169 Y 13.8310 Z -1.0000 I 0.2043 J 0.3000
G03 X 17.5479 Y 13.8177 Z -1.0000 I 0.2870 J 2.3046
G03 X 17.9196 Y 13.9068 Z -1.0000 I -0.0687 J 1.1066
G03 X 18.0010 Y 14.0138 Z -1.0000 I -0.0545 J 0.1260
G02 X 18.0391 Y 14.0662 Z -1.0000 I 0.0680 J -0.0095
G01 X 18.0739 Y 14.0491 Z -1.0000
G03 X 18.1749 Y 14.0214 Z -1.0000 I 0.0577 J 0.0123
G03 X 18.3022 Y 14.2961 Z -1.0000 I -0.3618 J 0.3345
G02 X 18.4131 Y 14.5140 Z -1.0000 I 0.3544 J -0.0433
G02 X 18.5520 Y 14.5292 Z -1.0000 I 0.0796 J -0.0854
G03 X 18.7682 Y 14.4691 Z -1.0000 I 0.2202 J 0.3735
G03 X 18.9374 Y 14.5256 Z -1.0000 I 0.0026 J 0.2741
G02 X 19.1739 Y 14.6737 Z -1.0000 I 0.9065 J -1.1838
G02 X 19.3018 Y 14.7089 Z -1.0000 I 0.1515 J -0.3011
G03 X 19.3290 Y 14.7118 Z -1.0000 I -0.0288 J 0.3927
G03 X 19.4792 Y 14.7344 Z -1.0000 I -1.5735 J 10.9599
G02 X 19.6291 Y 14.7544 Z -1.0000 I 0.4877 J -3.0970
G02 X 19.6500 Y 14.7529 Z -1.0000 I 0.0064 J -0.0592
G03 X 20.0297 Y 14.7657 Z -1.0000 I 0.1675 J 0.6714
G03 X 20.1342 Y 14.9090 Z -1.0000 I -0.0462 J 0.1434
G01 X 20.1414 Y 14.9185 Z -1.0000
G02 X 20.2059 Y 14.9294 Z -1.0000 I 0.0819 J -0.2876
G03 X 20.2711 Y 14.9446 Z -1.0000 I -0.0115 J 0.1968
G03 X 20.2996 Y 14.9690 Z -1.0000 I -0.0240 J 0.0568
G01 X 20.3289 Y 14.9906 Z -1.0000
G02 X 20.4257 Y 15.0014 Z -1.0000 I 0.0866 J -0.3370
G03 X 20.5273 Y 15.0134 Z -1.0000 I 0.0101 J 0.3492
G03 X 20.8164 Y 15.1074 Z -1.0000 I -0.8068 J 2.9736
G02 X 21.2629 Y 15.2719 Z -1.0000 I 7.9634 J -20.9244
G02 X 21.5788 Y 15.3792 Z -1.0000 I 3.6942 J -10.3644
G03 X 21.8570 Y 15.4832 Z -1.0000 I -0.9935 J 3.0796
G03 X 21.9375 Y 15.5325 Z -1.0000 I -0.1284 J 0.3004
G02 X 22.0138 Y 15.5872 Z -1.0000 I 0.4225 J -0.5079
G01 X 22.0373 Y 15.5939 Z -1.0000
G01 X 22.0600 Y 15.6012 Z -1.0000
G03 X 22.1127 Y 15.6485 Z -1.0000 I -0.1997 J 0.2756
G02 X 22.1649 Y 15.6966 Z -1.0000 I 0.2912 J -0.2635
G01 X 22.1839 Y 15.7030 Z -1.0000
G01 X 22.1949 Y 15.6923 Z -1.0000
G02 X 22.2001 Y 15.0958 Z -1.0000 I -16.6205 J -0.4441
G03 X 22.2161 Y 14.4954 Z -1.0000 I 8.3688 J -0.0775
G03 X 22.2423 Y 14.4212 Z -1.0000 I 0.1438 J 0.0090
G01 X 22.2672 Y 14.4257 Z -1.0000
G03 X 22.2900 Y 14.6020 Z -1.0000 I -0.6679 J 0.1764
G02 X 22.3074 Y 14.8422 Z -1.0000 I 1.6736 J -0.0000
G02 X 22.3310 Y 14.8844 Z -1.0000 I 0.0666 J -0.0097
G03 X 22.3605 Y 14.9237 Z -1.0000 I -0.0677 J 0.0816
G03 X 22.3719 Y 14.9787 Z -1.0000 I -0.1266 J 0.0550
G02 X 22.4046 Y 15.0341 Z -1.0000 I 0.0634 J -0.0000
G02 X 22.4677 Y 15.0318 Z -1.0000 I 0.0296 J -0.0535
G02 X 22.5239 Y 14.9459 Z -1.0000 I -0.0703 J -0.1073
G02 X 22.6140 Y 14.1683 Z -1.0000 I -7.3622 J -1.2470
G03 X 22.6490 Y 13.7979 Z -1.0000 I 5.9339 J 0.3738
G03 X 22.6656 Y 13.7590 Z -1.0000 I 0.0763 J 0.0096
G02 X 22.6832 Y 13.7204 Z -1.0000 I -0.0651 J -0.0530
G02 X 22.7097 Y 13.5062 Z -1.0000 I -2.1421 J -0.3731
G03 X 22.7277 Y 13.2881 Z -1.0000 I 11.4741 J 0.8409
G03 X 22.7513 Y 13.0559 Z -1.0000 I 12.9318 J 1.1955
G02 X 22.7762 Y 12.8239 Z -1.0000 I -34.8521 J -3.8546
G02 X 22.7791 Y 12.7883 Z -1.0000 I -0.8375 J -0.0870
G01 X 22.7901 Y 12.7696 Z -1.0000
G01 X 22.8086 Y 12.7694 Z -1.0000
G01 X 22.8226 Y 12.7624 Z -1.0000
G02 X 22.8359 Y 12.4640 Z -1.0000 I -3.3377 J -0.2989
G03 X 22.8783 Y 11.4814 Z -1.0000 I 11.4411 J 0.0018
G03 X 22.9305 Y 11.3695 Z -1.0000 I 0.1795 J 0.0155
G01 X 22.9379 Y 11.3720 Z -1.0000
G03 X 22.9450 Y 11.4806 Z -1.0000 I -0.8277 J 0.1086
G02 X 22.9570 Y 11.5997 Z -1.0000 I 0.5998 J 0.0000
G01 X 22.9741 Y 11.6244 Z -1.0000
G01 X 22.9909 Y 11.6234 Z -1.0000
G01 X 22.9982 Y 11.6055 Z -1.0000
G03 X 22.9895 Y 11.2893 Z -1.0000 I 1.4410 J -0.1979
G01 X 23.0269 Y 11.2548 Z -1.0000
G01 X 23.0418 Y 11.2673 Z -1.0000
G03 X 23.0546 Y 11.4117 Z -1.0000 I -0.8307 J 0.1467
G02 X 23.0652 Y 11.5656 Z -1.0000 I 1.1668 J -0.0031
G02 X 23.0815 Y 11.6096 Z -1.0000 I 0.1067 J -0.0145
G01 X 23.0979 Y 11.6160 Z -1.0000
G01 X 23.1084 Y 11.6028 Z -1.0000
G03 X 23.1176 Y 11.5639 Z -1.0000 I 0.0900 J 0.0008
G01 X 23.1318 Y 11.5550 Z -1.0000
G01 X 23.1439 Y 11.5663 Z -1.0000
G03 X 23.1722 Y 12.2032 Z -1.0000 I -17.9340 J 1.1185
G02 X 23.3768 Y 14.2312 Z -1.0000 I 13.8335 J -0.3711
G02 X 23.7498 Y 15.4840 Z -1.0000 I 5.6053 J -0.9867
G02 X 24.1238 Y 16.1126 Z -1.0000 I 2.5470 J -1.0902
G02 X 24.4313 Y 16.3457 Z -1.0000 I 0.6048 J -0.4784
G02 X 24.7302 Y 16.3846 Z -1.0000 I 0.2206 J -0.5280
G02 X 25.0841 Y 16.2556 Z -1.0000 I -0.1223 J -0.8859
G03 X 25.1936 Y 16.2078 Z -1.0000 I 0.2139 J 0.3399
G03 X 25.2715 Y 16.2052 Z -1.0000 I 0.0444 J 0.1649
G02 X 25.3262 Y 16.1963 Z -1.0000 I 0.0155 J -0.0776
G01 X 25.3386 Y 16.1669 Z -1.0000
G01 X 25.3604 Y 16.1492 Z -1.0000
G03 X 25.4352 Y 16.2147 Z -1.0000 I -0.0858 J 0.1734
G02 X 25.5086 Y 16.3134 Z -1.0000 I 1.0578 J -0.7098
G02 X 25.6580 Y 16.4860 Z -1.0000 I 3.3984 J -2.7908
G02 X 25.8281 Y 16.6334 Z -1.0000 I 0.7097 J -0.6473
G02 X 26.1456 Y 16.8170 Z -1.0000 I 1.4317 J -2.1088
G02 X 27.0174 Y 17.1512 Z -1.0000 I 2.3648 J -4.8650
G02 X 27.7278 Y 17.2714 Z -1.0000 I 0.8891 J -3.0964
G03 X 28.3423 Y 17.3231 Z -1.0000 I -0.6003 J 10.8053
G01 X 28.3775 Y 17.3447 Z -1.0000
G01 X 28.3981 Y 17.3592 Z -1.0000
G02 X 28.5035 Y 17.3748 Z -1.0000 I 0.1416 J -0.5931
G03 X 28.5967 Y 17.3929 Z -1.0000 I -0.0212 J 0.3588
G01 X 28.6043 Y 17.4087 Z -1.0000
G02 X 28.6022 Y 17.4350 Z -1.0000 I 0.0475 J 0.0171
G02 X 28.6148 Y 17.4654 Z -1.0000 I 0.0780 J -0.0144
G02 X 28.7152 Y 17.5525 Z -1.0000 I 0.2169 J -0.1487
G02 X 28.8591 Y 17.5861 Z -1.0000 I 0.1439 J -0.2913
G01 X 28.8780 Y 17.5969 Z -1.0000
G01 X 28.8777 Y 17.6180 Z -1.0000
G01 X 28.8796 Y 17.6321 Z -1.0000
G01 X 28.8965 Y 17.6354 Z -1.0000
G01 X 28.9299 Y 17.6400 Z -1.0000
G03 X 29.0170 Y 17.7240 Z -1.0000 I -0.2712 J 0.3686
G02 X 29.1056 Y 17.8174 Z -1.0000 I 0.5743 J -0.4561
G02 X 29.1535 Y 17.8446 Z -1.0000 I 0.0890 J -0.1006
G01 X 29.1674 Y 17.8638 Z -1.0000
G01 X 29.1535 Y 17.8846 Z -1.0000
G01 X 29.1495 Y 17.9004 Z -1.0000
G01 X 29.1807 Y 17.9177 Z -1.0000
G02 X 29.3495 Y 17.9099 Z -1.0000 I 0.0623 J -0.4786
G02 X 29.5355 Y 17.8376 Z -1.0000 I -0.1486 J -0.6576
G03 X 29.6224 Y 17.8096 Z -1.0000 I 0.1097 J 0.1919
G03 X 29.9858 Y 17.7907 Z -1.0000 I 0.3634 J 3.4952
G02 X 30.3483 Y 17.7781 Z -1.0000 I 0.0000 J -5.2045
G01 X 30.3767 Y 17.7634 Z -1.0000
G01 X 30.3963 Y 17.7559 Z -1.0000
G01 X 30.4126 Y 17.7687 Z -1.0000
G01 X 30.4324 Y 17.7863 Z -1.0000
G02 X 30.4696 Y 17.7846 Z -1.0000 I 0.0159 J -0.0573
G01 X 30.4907 Y 17.7865 Z -1.0000
G01 X 30.4937 Y 17.7994 Z -1.0000
G01 X 30.4965 Y 17.8126 Z -1.0000
G01 X 30.5164 Y 17.8149 Z -1.0000
G02 X 30.5440 Y 17.7937 Z -1.0000 I -0.0220 J -0.0573
G01 X 30.5446 Y 17.7761 Z -1.0000
G01 X 30.5431 Y 17.7565 Z -1.0000
G01 X 30.5627 Y 17.7338 Z -1.0000
G01 X 30.5737 Y 17.7350 Z -1.0000
G01 X 30.5751 Y 17.7456 Z -1.0000
G01 X 30.5876 Y 17.7664 Z -1.0000
G02 X 30.6362 Y 17.7417 Z -1.0000 I -0.0044 J -0.0687
G03 X 30.6689 Y 17.7099 Z -1.0000 I 0.1627 J 0.1351
G03 X 30.7964 Y 17.6168 Z -1.0000 I 1.5533 J 1.9934
G01 X 30.8060 Y 17.6244 Z -1.0000
G03 X 30.7772 Y 17.6671 Z -1.0000 I -0.1065 J -0.0408
G03 X 30.4187 Y 17.9470 Z -1.0000 I -1.7924 J -1.9261
G03 X 29.8755 Y 18.2531 Z -1.0000 I -2.6945 J -4.1454
G01 X 29.5823 Y 18.4045 Z -1.0000
G02 X 30.3741 Y 18.2298 Z -1.0000 I 0.0223 J -1.7806
G02 X 30.5589 Y 17.9363 Z -1.0000 I -0.1406 J -0.2935
G01 X 30.5668 Y 17.9214 Z -1.0000
G01 X 30.5930 Y 17.9131 Z -1.0000
G02 X 30.6247 Y 17.9049 Z -1.0000 I -0.0010 J -0.0695
G02 X 30.7493 Y 17.8298 Z -1.0000 I -0.6470 J -1.2141
G03 X 30.8748 Y 17.7661 Z -1.0000 I 0.3137 J 0.4631
G03 X 30.9358 Y 17.7632 Z -1.0000 I 0.0354 J 0.0989
G02 X 30.9778 Y 17.7629 Z -1.0000 I 0.0206 J -0.0818
G01 X 30.9825 Y 17.7509 Z -1.0000
G01 X 30.9863 Y 17.7341 Z -1.0000
G03 X 31.0280 Y 17.7213 Z -1.0000 I 0.0433 J 0.0665
G02 X 31.0909 Y 17.7181 Z -1.0000 I -0.0191 J -0.9947
G02 X 31.2275 Y 17.7049 Z -1.0000 I -0.4041 J -4.8842
G03 X 31.3641 Y 17.6943 Z -1.0000 I 0.2252 J 2.0116
G03 X 31.4867 Y 17.6935 Z -1.0000 I 0.0718 J 1.6408
G02 X 31.6090 Y 17.6895 Z -1.0000 I 0.0299 J -0.9609
G02 X 31.8688 Y 17.6566 Z -1.0000 I -0.4240 J -4.3892
G03 X 32.1282 Y 17.6168 Z -1.0000 I 5.7915 J 36.8990
G03 X 32.2372 Y 17.6014 Z -1.0000 I 0.9589 J 6.4030
G03 X 32.3464 Y 17.5870 Z -1.0000 I 8.6746 J 65.1026
G03 X 32.5627 Y 17.5585 Z -1.0000 I 809.8602 J 6156.8656
G02 X 32.7755 Y 17.5218 Z -1.0000 I -0.3490 J -2.6555
G02 X 32.8083 Y 17.5058 Z -1.0000 I -0.0161 J -0.0750
G03 X 32.8411 Y 17.4904 Z -1.0000 I 0.0464 J 0.0560
G03 X 33.0059 Y 17.4682 Z -1.0000 I 0.2863 J 1.5022
G02 X 33.1729 Y 17.4482 Z -1.0000 I -0.1699 J -2.1252
G02 X 33.2651 Y 17.4267 Z -1.0000 I -0.1063 J -0.6641
G03 X 33.7298 Y 17.3065 Z -1.0000 I 1.5218 J 4.9251
G03 X 33.9880 Y 17.2752 Z -1.0000 I 0.3105 J 1.4818
G02 X 34.0572 Y 17.2632 Z -1.0000 I -0.0086 J -0.2553
G01 X 34.0614 Y 17.2518 Z -1.0000
G01 X 34.0762 Y 17.2306 Z -1.0000
G03 X 34.1484 Y 17.2692 Z -1.0000 I -0.0278 J 0.1387
G01 X 34.1591 Y 17.3090 Z -1.0000
G03 X 34.1123 Y 17.4047 Z -1.0000 I -0.2664 J -0.0709
G03 X 34.0338 Y 17.4939 Z -1.0000 I -0.6508 J -0.4936
G01 X 34.0110 Y 17.5041 Z -1.0000
G02 X 33.9000 Y 17.5510 Z -1.0000 I 0.0131 J 0.1860
G02 X 33.8609 Y 17.6382 Z -1.0000 I 0.0778 J 0.0872
G01 X 33.8534 Y 17.6604 Z -1.0000
G01 X 33.8380 Y 17.6680 Z -1.0000
G01 X 33.8206 Y 17.6765 Z -1.0000
G02 X 33.7828 Y 17.7389 Z -1.0000 I 0.2462 J 0.1917
G03 X 33.7426 Y 17.7904 Z -1.0000 I -0.1274 J -0.0580
G01 X 33.7122 Y 17.7951 Z -1.0000
G02 X 33.6775 Y 17.7939 Z -1.0000 I -0.0190 J 0.0495
G02 X 33.6442 Y 17.8162 Z -1.0000 I 0.0209 J 0.0672
G02 X 33.6294 Y 17.8992 Z -1.0000 I 0.0656 J 0.0544
G02 X 33.6885 Y 17.9409 Z -1.0000 I 0.0590 J -0.0210
G01 X 33.7126 Y 17.9540 Z -1.0000
G01 X 33.7193 Y 17.9886 Z -1.0000
G03 X 33.6693 Y 18.0364 Z -1.0000 I -0.0586 J -0.0113
G01 X 33.6256 Y 18.0023 Z -1.0000
G03 X 33.6223 Y 17.9681 Z -1.0000 I 2.8391 J -0.2875
G03 X 33.6188 Y 17.9272 Z -1.0000 I 8.6085 J -0.7675
G01 X 33.6030 Y 17.8997 Z -1.0000
G02 X 33.5606 Y 17.8863 Z -1.0000 I -0.0424 J 0.0603
G01 X 33.5360 Y 17.9040 Z -1.0000
G02 X 33.5401 Y 17.9477 Z -1.0000 I 0.0515 J 0.0172
G02 X 33.5790 Y 18.0047 Z -1.0000 I 0.3386 J -0.1894
G02 X 33.6085 Y 18.0309 Z -1.0000 I 0.0975 J -0.0802
G03 X 33.6312 Y 18.0590 Z -1.0000 I -0.0306 J 0.0479
G03 X 33.6427 Y 18.1226 Z -1.0000 I -0.1711 J 0.0636
G01 X 33.6605 Y 18.1425 Z -1.0000
G01 X 33.6953 Y 18.1281 Z -1.0000
G03 X 33.7490 Y 18.0924 Z -1.0000 I 0.0848 J 0.0693
G01 X 33.7840 Y 18.1018 Z -1.0000
G01 X 33.7866 Y 18.1183 Z -1.0000
G01 X 33.7737 Y 18.1237 Z -1.0000
G01 X 33.7481 Y 18.1276 Z -1.0000
G01 X 33.7425 Y 18.1470 Z -1.0000
G01 X 33.7425 Y 18.1761 Z -1.0000
G01 X 33.7274 Y 18.1865 Z -1.0000
G01 X 33.7077 Y 18.1970 Z -1.0000
G02 X 33.6972 Y 18.2317 Z -1.0000 I 0.0518 J 0.0346
G01 X 33.7114 Y 18.2448 Z -1.0000
G02 X 33.7518 Y 18.2275 Z -1.0000 I -0.0052 J -0.0678
G01 X 33.7746 Y 18.2339 Z -1.0000
G01 X 33.7664 Y 18.2780 Z -1.0000
G03 X 33.7247 Y 18.3102 Z -1.0000 I -0.0807 J -0.0611
G01 X 33.6948 Y 18.3079 Z -1.0000
G01 X 33.6828 Y 18.3085 Z -1.0000
G01 X 33.6810 Y 18.3188 Z -1.0000
G01 X 33.7227 Y 18.3414 Z -1.0000
G02 X 33.7846 Y 18.3162 Z -1.0000 I -0.0024 J -0.0943
G03 X 33.8241 Y 18.2874 Z -1.0000 I 0.1402 J 0.1509
G03 X 33.8616 Y 18.2730 Z -1.0000 I 0.0680 J 0.1213
G02 X 34.1294 Y 18.1743 Z -1.0000 I -0.2370 J -1.0552
G01 X 34.1429 Y 18.1245 Z -1.0000
G01 X 34.1443 Y 18.1151 Z -1.0000
G01 X 34.1545 Y 18.1142 Z -1.0000
G02 X 34.2355 Y 18.1233 Z -1.0000 I 0.0501 J -0.0810
G02 X 34.2703 Y 18.0745 Z -1.0000 I -0.0168 J -0.0488
G01 X 34.2615 Y 18.0589 Z -1.0000
G02 X 34.2294 Y 18.0501 Z -1.0000 I -0.0321 J 0.0539
G01 X 34.2151 Y 18.0237 Z -1.0000
G03 X 34.2827 Y 17.9687 Z -1.0000 I 0.1200 J 0.0787
G02 X 34.3570 Y 17.9251 Z -1.0000 I -0.1005 J -0.2562
G01 X 34.3604 Y 17.9048 Z -1.0000
G01 X 34.3627 Y 17.8968 Z -1.0000
G01 X 34.3753 Y 17.8974 Z -1.0000
G01 X 34.3829 Y 17.9281 Z -1.0000
G03 X 34.3317 Y 17.9722 Z -1.0000 I -0.0895 J -0.0521
G02 X 34.2879 Y 18.0017 Z -1.0000 I 0.0459 J 0.1153
G01 X 34.2910 Y 18.0148 Z -1.0000
G01 X 34.3106 Y 18.0325 Z -1.0000
G01 X 34.3097 Y 18.0527 Z -1.0000
G01 X 34.3143 Y 18.0600 Z -1.0000
G02 X 34.3632 Y 18.0464 Z -1.0000 I -0.0192 J -0.1632
G02 X 34.4135 Y 18.0091 Z -1.0000 I -0.0622 J -0.1365
G01 X 34.4153 Y 17.9874 Z -1.0000
G01 X 34.4167 Y 17.9782 Z -1.0000
G01 X 34.4267 Y 17.9774 Z -1.0000
G02 X 34.5790 Y 17.9912 Z -1.0000 I 0.0900 J -0.1456
G02 X 34.6072 Y 17.9068 Z -1.0000 I -0.0211 J -0.0539
G01 X 34.6089 Y 17.8975 Z -1.0000
G01 X 34.6202 Y 17.8970 Z -1.0000
G02 X 34.9005 Y 17.9077 Z -1.0000 I 0.1495 J -0.2419
G02 X 34.9316 Y 17.7359 Z -1.0000 I -0.0506 J -0.0979
G01 X 34.9331 Y 17.7311 Z -1.0000
G01 X 34.9450 Y 17.7330 Z -1.0000
G02 X 35.0256 Y 17.7349 Z -1.0000 I 0.0421 J -0.0732
G02 X 35.1500 Y 17.6277 Z -1.0000 I -0.1599 J -0.3113
G01 X 35.1648 Y 17.6167 Z -1.0000
G01 X 35.1705 Y 17.6206 Z -1.0000
G01 X 35.1796 Y 17.6266 Z -1.0000
G02 X 35.3383 Y 17.5524 Z -1.0000 I -0.6414 J -1.5783
G03 X 35.5059 Y 17.4635 Z -1.0000 I 31.0953 J 58.4528
G03 X 35.5771 Y 17.4262 Z -1.0000 I 5.6777 J 10.7471
G02 X 36.1658 Y 17.1021 Z -1.0000 I -6.4969 J -12.4973
G02 X 36.2352 Y 17.0432 Z -1.0000 I -0.1301 J -0.2235
G03 X 36.2512 Y 17.0296 Z -1.0000 I 0.0458 J 0.0378
G03 X 36.3853 Y 16.9561 Z -1.0000 I 1.5849 J 2.7303
G02 X 36.5216 Y 16.8853 Z -1.0000 I -29.7115 J -57.4258
G02 X 36.6582 Y 16.8140 Z -1.0000 I -29.7476 J -57.1626
G03 X 37.0402 Y 16.6309 Z -1.0000 I 2.7879 J 5.3261
G03 X 37.2144 Y 16.5711 Z -1.0000 I 0.4546 J 1.0411
G03 X 37.3131 Y 16.5460 Z -1.0000 I 22.9640 J 90.1623
G03 X 37.4172 Y 16.5197 Z -1.0000 I 25.2658 J 99.6558
G03 X 37.5198 Y 16.5033 Z -1.0000 I 0.1434 J 0.5681
G01 X 37.5489 Y 16.5105 Z -1.0000
G02 X 37.7113 Y 16.5539 Z -1.0000 I 0.1532 J -0.2479
G02 X 37.7827 Y 16.5031 Z -1.0000 I -0.0025 J -0.0791
G01 X 37.8005 Y 16.4907 Z -1.0000
G01 X 37.8312 Y 16.5025 Z -1.0000
G03 X 37.8572 Y 16.5367 Z -1.0000 I -0.0832 J 0.0901
G01 X 37.8567 Y 16.5522 Z -1.0000
G01 X 37.8596 Y 16.5617 Z -1.0000
G02 X 37.8937 Y 16.5690 Z -1.0000 I 0.0338 J -0.0749
G03 X 38.1774 Y 16.5908 Z -1.0000 I 0.0051 J 1.7892
G01 X 38.2000 Y 16.6173 Z -1.0000
G02 X 38.2102 Y 16.6481 Z -1.0000 I 0.0519 J 0.0000
G01 X 38.2303 Y 16.6582 Z -1.0000
G01 X 38.2452 Y 16.6477 Z -1.0000
G01 X 38.2448 Y 16.6173 Z -1.0000
G03 X 38.2423 Y 16.5854 Z -1.0000 I 0.0522 J -0.0200
G01 X 38.2537 Y 16.5763 Z -1.0000
G01 X 38.2717 Y 16.5852 Z -1.0000
G03 X 38.2956 Y 16.6309 Z -1.0000 I -0.1182 J 0.0908
G02 X 38.3220 Y 16.6730 Z -1.0000 I 0.0939 J -0.0297
G01 X 38.3536 Y 16.6855 Z -1.0000
G01 X 38.3760 Y 16.6753 Z -1.0000
G01 X 38.3774 Y 16.6582 Z -1.0000
G01 X 38.3761 Y 16.6396 Z -1.0000
G01 X 38.3895 Y 16.6309 Z -1.0000
G01 X 38.4102 Y 16.6391 Z -1.0000
G01 X 38.4184 Y 16.6582 Z -1.0000
G01 X 38.4287 Y 16.6751 Z -1.0000
G02 X 38.4713 Y 16.6855 Z -1.0000 I 0.0426 J -0.0828
G03 X 38.5193 Y 16.6945 Z -1.0000 I 0.0000 J 0.1317
G01 X 38.5412 Y 16.7128 Z -1.0000
G02 X 38.6025 Y 16.7470 Z -1.0000 I 0.0613 J -0.0379
G01 X 38.6367 Y 16.7128 Z -1.0000
G01 X 38.6264 Y 16.6958 Z -1.0000
G02 X 38.5837 Y 16.6855 Z -1.0000 I -0.0426 J 0.0828
G03 X 38.5363 Y 16.6756 Z -1.0000 I 0.0000 J -0.1191
G03 X 38.5113 Y 16.6540 Z -1.0000 I 0.0220 J -0.0506
G01 X 38.5179 Y 16.6399 Z -1.0000
G03 X 38.6031 Y 16.6404 Z -1.0000 I 0.0411 J 0.2760
G02 X 38.7702 Y 16.6357 Z -1.0000 I 0.0712 J -0.4453
G01 X 38.7850 Y 16.6007 Z -1.0000
G01 X 38.7872 Y 16.5860 Z -1.0000
G01 X 38.8125 Y 16.5763 Z -1.0000
G03 X 38.8454 Y 16.5860 Z -1.0000 I 0.0000 J 0.0609
G01 X 38.8550 Y 16.6036 Z -1.0000
G01 X 38.8670 Y 16.6189 Z -1.0000
G02 X 38.9642 Y 16.6309 Z -1.0000 I 0.0972 J -0.3888
G03 X 39.0605 Y 16.6437 Z -1.0000 I -0.0000 J 0.3693
G01 X 39.0733 Y 16.6604 Z -1.0000
G01 X 39.0850 Y 16.6690 Z -1.0000
G02 X 39.1673 Y 16.6318 Z -1.0000 I -0.1016 J -0.3346
G03 X 39.2677 Y 16.5971 Z -1.0000 I 0.1275 J 0.2063
G03 X 39.6040 Y 16.5827 Z -1.0000 I 0.2727 J 2.4218
G02 X 39.8053 Y 16.4465 Z -1.0000 I 0.0054 J -0.2088
G02 X 39.9466 Y 15.6594 Z -1.0000 I -2.1210 J -0.7871
G02 X 39.9068 Y 14.7538 Z -1.0000 I -10.3136 J -0.0000
G02 X 39.8613 Y 14.6919 Z -1.0000 I -0.0738 J 0.0065
G02 X 39.7749 Y 14.6731 Z -1.0000 I -0.0957 J 0.2310
G02 X 39.6703 Y 14.6848 Z -1.0000 I -0.0132 J 0.3545
G01 X 39.6250 Y 14.6712 Z -1.0000
G01 X 39.6305 Y 14.6399 Z -1.0000
G03 X 39.7390 Y 14.6153 Z -1.0000 I 0.0989 J 0.1848
G03 X 39.9008 Y 14.6522 Z -1.0000 I -0.0212 J 0.4668
G01 X 39.9283 Y 14.6430 Z -1.0000
G02 X 39.9418 Y 14.5810 Z -1.0000 I -0.0905 J -0.0521
G02 X 39.9030 Y 14.5124 Z -1.0000 I -0.0964 J 0.0092
G02 X 39.7183 Y 14.4156 Z -1.0000 I -0.4027 J 0.5442
G03 X 39.1961 Y 14.1944 Z -1.0000 I 1.2545 J -3.6884
G03 X 38.7083 Y 13.8981 Z -1.0000 I 1.7997 J -3.5121
G03 X 37.9808 Y 13.2701 Z -1.0000 I 2.9735 J -4.1803
G03 X 37.3701 Y 12.5039 Z -1.0000 I 3.8469 J -3.6923
G03 X 37.2111 Y 12.1605 Z -1.0000 I 1.0791 J -0.7084
G03 X 37.1548 Y 11.7733 Z -1.0000 I 1.3232 J -0.3900
G03 X 37.2671 Y 11.2455 Z -1.0000 I 1.2845 J -0.0026
G03 X 37.6270 Y 10.7194 Z -1.0000 I 1.6355 J 0.7327
G03 X 38.5524 Y 10.0736 Z -1.0000 I 2.2102 J 2.1812
G03 X 39.6669 Y 9.7924 Z -1.0000 I 1.3327 J 2.9325
G02 X 39.8097 Y 9.7546 Z -1.0000 I -0.0264 J -0.3893
G01 X 39.8033 Y 9.7267 Z -1.0000
G02 X 38.8528 Y 9.8800 Z -1.0000 I 0.0016 J 3.0332
G02 X 37.9817 Y 10.3289 Z -1.0000 I 0.9863 J 2.9831
G02 X 37.2635 Y 11.0768 Z -1.0000 I 1.7794 J 2.4278
G02 X 37.0339 Y 11.7381 Z -1.0000 I 1.1384 J 0.7657
G02 X 37.0910 Y 12.1657 Z -1.0000 I 1.0367 J 0.0791
G02 X 37.3575 Y 12.6480 Z -1.0000 I 1.5993 J -0.5688
G02 X 37.8285 Y 13.1806 Z -1.0000 I 4.9608 J -3.9128
G02 X 38.4593 Y 13.7608 Z -1.0000 I 6.5228 J -6.4583
G02 X 38.9697 Y 14.1451 Z -1.0000 I 3.9715 J -4.7442
G02 X 39.3803 Y 14.3824 Z -1.0000 I 1.9081 J -2.8273
G03 X 39.4950 Y 14.4691 Z -1.0000 I -0.1645 J 0.3367
G01 X 39.4800 Y 14.4937 Z -1.0000
G02 X 39.4409 Y 14.4891 Z -1.0000 I -0.0358 J 0.1375
G01 X 39.4387 Y 14.4947 Z -1.0000
G03 X 39.4343 Y 14.5773 Z -1.0000 I -0.0393 J 0.0393
G03 X 39.2601 Y 14.6387 Z -1.0000 I -0.1742 J -0.2159
G01 X 39.2406 Y 14.6438 Z -1.0000
G02 X 38.9857 Y 14.7910 Z -1.0000 I 4.1621 J 7.5033
G03 X 38.7293 Y 14.9341 Z -1.0000 I -2.3914 J -3.9824
G03 X 38.6844 Y 14.9469 Z -1.0000 I -0.0539 J -0.1041
G02 X 38.6450 Y 14.9582 Z -1.0000 I 0.0077 J 0.1006
G01 X 38.6367 Y 14.9720 Z -1.0000
G01 X 38.6280 Y 14.9848 Z -1.0000
G03 X 38.5821 Y 14.9935 Z -1.0000 I -0.0459 J -0.1166
G02 X 38.5380 Y 15.0039 Z -1.0000 I -0.0000 J 0.0987
G01 X 38.5275 Y 15.0208 Z -1.0000
G03 X 38.4740 Y 15.0750 Z -1.0000 I -0.0542 J 0.0000
G03 X 38.3785 Y 15.0225 Z -1.0000 I -0.0013 J -0.1106
G02 X 38.2991 Y 14.9786 Z -1.0000 I -0.0787 J 0.0487
G01 X 38.2546 Y 15.0234 Z -1.0000
G03 X 38.1584 Y 15.1228 Z -1.0000 I -0.0994 J 0.0000
G03 X 37.9691 Y 15.0327 Z -1.0000 I -0.0074 J -0.2284
G02 X 37.9339 Y 15.0087 Z -1.0000 I -0.0533 J 0.0405
G02 X 37.8180 Y 14.9904 Z -1.0000 I -0.1367 J 0.4889
G03 X 37.5488 Y 14.9370 Z -1.0000 I 0.0363 J -0.8875
G01 X 37.5309 Y 14.8853 Z -1.0000
G01 X 37.5268 Y 14.8764 Z -1.0000
G02 X 37.4792 Y 14.8772 Z -1.0000 I -0.0215 J 0.1372
G03 X 37.4207 Y 14.8766 Z -1.0000 I -0.0278 J -0.1442
G01 X 37.3966 Y 14.8596 Z -1.0000
G01 X 37.3726 Y 14.8396 Z -1.0000
G02 X 37.3183 Y 14.8293 Z -1.0000 I -0.0553 J 0.1429
G03 X 37.2597 Y 14.8221 Z -1.0000 I 0.0017 J -0.2569
G03 X 37.1358 Y 14.7852 Z -1.0000 I 0.2897 J -1.1998
G02 X 36.7880 Y 14.6783 Z -1.0000 I -1.4037 J 3.9450
G02 X 36.6650 Y 14.6626 Z -1.0000 I -0.1226 J 0.4704
G03 X 36.6264 Y 14.6535 Z -1.0000 I -0.0001 J -0.0863
G01 X 36.6172 Y 14.6387 Z -1.0000
G01 X 36.6081 Y 14.6237 Z -1.0000
G02 X 36.5695 Y 14.6140 Z -1.0000 I -0.0401 J 0.0776
G03 X 36.5217 Y 14.6129 Z -1.0000 I 0.0586 J -3.4988
G03 X 36.2215 Y 14.6034 Z -1.0000 I 4.0820 J -134.2415
G02 X 35.9215 Y 14.6011 Z -1.0000 I -0.1971 J 6.0277
G02 X 35.6621 Y 14.6129 Z -1.0000 I 0.0775 J 4.5444
G03 X 35.4028 Y 14.6312 Z -1.0000 I -2.5660 J -34.4853
G03 X 35.0754 Y 14.6521 Z -1.0000 I -3.7292 J -55.7813
G02 X 34.4676 Y 14.6930 Z -1.0000 I 2.9984 J 49.1903
G02 X 34.1475 Y 14.7202 Z -1.0000 I 1.0023 J 13.6606
G03 X 32.7681 Y 14.8207 Z -1.0000 I -2.7844 J -28.7050
G03 X 32.5600 Y 14.7976 Z -1.0000 I -0.0322 J -0.6601
G02 X 32.4549 Y 14.7923 Z -1.0000 I -0.0645 J 0.2337
G01 X 32.4471 Y 14.8168 Z -1.0000
G01 X 32.4641 Y 14.8262 Z -1.0000
G02 X 32.6357 Y 14.8618 Z -1.0000 I 0.6798 J -2.8492
G02 X 32.8398 Y 14.8764 Z -1.0000 I 0.1727 J -0.9804
G02 X 34.0793 Y 14.8163 Z -1.0000 I -1.1538 J -36.6187
G03 X 34.9766 Y 14.7651 Z -1.0000 I 3.4902 J 53.3168
G03 X 35.8122 Y 14.7321 Z -1.0000 I 2.2439 J 46.1860
G03 X 36.3828 Y 14.7380 Z -1.0000 I 0.2130 J 6.9930
G03 X 36.6211 Y 14.7735 Z -1.0000 I -0.0638 J 1.2463
G03 X 37.6167 Y 15.0636 Z -1.0000 I -3.2227 J 12.9149
G03 X 37.9053 Y 15.2026 Z -1.0000 I -0.4026 J 1.2049
G02 X 37.9415 Y 15.2238 Z -1.0000 I 0.2565 J -0.3956
G02 X 38.0089 Y 15.2573 Z -1.0000 I 0.7093 J -1.3421
G01 X 38.0303 Y 15.2800 Z -1.0000
G01 X 38.0227 Y 15.2918 Z -1.0000
G01 X 38.0008 Y 15.3032 Z -1.0000
G01 X 38.0032 Y 15.3167 Z -1.0000
G01 X 38.0028 Y 15.3369 Z -1.0000
G03 X 37.6211 Y 15.5384 Z -1.0000 I -2.7143 J -4.6788
G03 X 36.0514 Y 16.2093 Z -1.0000 I -8.7729 J -18.3546
G03 X 35.8856 Y 16.1955 Z -1.0000 I -0.0684 J -0.1808
G01 X 35.8691 Y 16.1762 Z -1.0000
G01 X 35.8748 Y 16.1677 Z -1.0000
G02 X 36.0451 Y 16.1329 Z -1.0000 I -0.0113 J -0.4886
G02 X 36.7304 Y 15.8252 Z -1.0000 I -3.3961 J -8.4818
G02 X 37.2044 Y 15.5416 Z -1.0000 I -1.6238 J -3.2521
G01 X 37.2093 Y 15.4867 Z -1.0000
G01 X 37.1981 Y 15.4655 Z -1.0000
G01 X 37.2039 Y 15.4598 Z -1.0000
G02 X 37.3027 Y 15.4457 Z -1.0000 I 0.0312 J -0.1339
G02 X 37.4834 Y 15.3020 Z -1.0000 I -0.3615 J -0.6402
G02 X 37.5690 Y 15.2036 Z -1.0000 I -1.8814 J -1.7232
G01 X 37.5724 Y 15.1943 Z -1.0000
G01 X 37.5677 Y 15.1908 Z -1.0000
G02 X 37.4837 Y 15.2210 Z -1.0000 I 0.2440 J 0.8115
G02 X 37.0457 Y 15.4287 Z -1.0000 I 2.0795 J 4.9491
G01 X 37.0536 Y 15.4494 Z -1.0000
G03 X 37.0911 Y 15.4507 Z -1.0000 I 0.0163 J 0.0665
G03 X 37.1287 Y 15.4737 Z -1.0000 I -0.0293 J 0.0899
G01 X 37.1427 Y 15.5159 Z -1.0000
G01 X 37.1207 Y 15.5288 Z -1.0000
G01 X 37.0983 Y 15.5292 Z -1.0000
G01 X 37.0950 Y 15.5396 Z -1.0000
G01 X 37.0916 Y 15.5554 Z -1.0000
G03 X 37.0555 Y 15.5665 Z -1.0000 I -0.0362 J -0.0530
G02 X 37.0098 Y 15.5770 Z -1.0000 I -0.0000 J 0.1046
G01 X 36.9993 Y 15.5938 Z -1.0000
G01 X 36.9889 Y 15.6108 Z -1.0000
G03 X 36.9463 Y 15.6211 Z -1.0000 I -0.0426 J -0.0828
G02 X 36.8984 Y 15.6302 Z -1.0000 I 0.0000 J 0.1317
G01 X 36.8765 Y 15.6484 Z -1.0000
G03 X 36.8557 Y 15.6688 Z -1.0000 I -0.0521 J -0.0323
G01 X 36.8306 Y 15.6757 Z -1.0000
G01 X 36.8214 Y 15.6655 Z -1.0000
G03 X 36.8356 Y 15.6279 Z -1.0000 I 0.0785 J 0.0082
G01 X 36.7993 Y 15.6552 Z -1.0000
G03 X 36.7260 Y 15.7235 Z -1.0000 I -0.5366 J -0.5028
G01 X 36.7068 Y 15.7303 Z -1.0000
G02 X 36.6857 Y 15.7346 Z -1.0000 I -0.0000 J 0.0533
G02 X 36.5895 Y 15.7808 Z -1.0000 I 0.5175 J 1.2005
G03 X 36.4925 Y 15.8268 Z -1.0000 I -0.5449 J -1.0249
G03 X 36.3852 Y 15.8663 Z -1.0000 I -0.5076 J -1.2137
G02 X 36.2786 Y 15.9060 Z -1.0000 I 0.3654 J 1.1446
G02 X 36.2438 Y 15.9267 Z -1.0000 I 0.0601 J 0.1406
G03 X 36.2084 Y 15.9439 Z -1.0000 I -0.0569 J -0.0718
G03 X 36.1169 Y 15.9572 Z -1.0000 I -0.1181 J -0.4903
G02 X 36.0375 Y 15.9703 Z -1.0000 I 0.0199 J 0.3701
G01 X 36.0335 Y 15.9805 Z -1.0000
G01 X 36.0301 Y 15.9934 Z -1.0000
G03 X 35.9420 Y 16.0319 Z -1.0000 I -0.2359 J -0.4201
G02 X 35.8406 Y 16.0674 Z -1.0000 I 0.6588 J 2.0434
G02 X 35.8121 Y 16.0810 Z -1.0000 I 0.0650 J 0.1718
G03 X 35.7839 Y 16.0947 Z -1.0000 I -0.0965 J -0.1628
G03 X 35.7576 Y 16.1022 Z -1.0000 I -0.0532 J -0.1375
G02 X 35.7305 Y 16.1083 Z -1.0000 I 0.0729 J 0.3910
G02 X 35.4035 Y 16.1942 Z -1.0000 I 14.3624 J 55.2828
G03 X 35.0753 Y 16.2707 Z -1.0000 I -1.3944 J -5.2408
G03 X 34.9611 Y 16.2829 Z -1.0000 I -0.1237 J -0.6168
G02 X 34.8629 Y 16.2942 Z -1.0000 I 0.0075 J 0.4985
G01 X 34.8582 Y 16.3053 Z -1.0000
G01 X 34.8548 Y 16.3151 Z -1.0000
G03 X 34.8230 Y 16.3182 Z -1.0000 I -0.0217 J -0.0593
G02 X 34.7764 Y 16.3182 Z -1.0000 I -0.0231 J 0.1450
G02 X 34.7312 Y 16.3331 Z -1.0000 I 0.0243 J 0.1496
G01 X 34.7036 Y 16.3306 Z -1.0000
G01 X 34.6902 Y 16.3013 Z -1.0000
G03 X 34.7040 Y 16.2531 Z -1.0000 I 0.1138 J 0.0064
G03 X 34.7342 Y 16.2209 Z -1.0000 I 0.0772 J 0.0422
G01 X 34.7372 Y 16.2059 Z -1.0000
G01 X 34.7155 Y 16.1946 Z -1.0000
G02 X 34.6743 Y 16.2147 Z -1.0000 I -0.0004 J 0.0516
G02 X 34.6472 Y 16.2829 Z -1.0000 I 0.1047 J 0.0809
G03 X 34.6141 Y 16.3483 Z -1.0000 I -0.1003 J -0.0097
G03 X 34.5295 Y 16.3881 Z -1.0000 I -0.1090 J -0.1220
G02 X 34.4213 Y 16.4088 Z -1.0000 I 0.2117 J 1.3970
G02 X 34.2157 Y 16.4611 Z -1.0000 I 1.1690 J 5.0279
G03 X 34.0101 Y 16.5133 Z -1.0000 I -1.3382 J -4.8436
G03 X 33.9019 Y 16.5337 Z -1.0000 I -0.3054 J -1.3202
G02 X 33.3700 Y 16.6236 Z -1.0000 I 1.8365 J 12.4808
G02 X 33.1105 Y 16.6850 Z -1.0000 I 0.5788 J 3.0284
G03 X 32.6711 Y 16.7828 Z -1.0000 I -1.0885 J -3.8526
G03 X 32.3668 Y 16.8072 Z -1.0000 I -0.2984 J -1.8159
G02 X 32.2589 Y 16.8149 Z -1.0000 I -0.0023 J 0.7245
G01 X 32.2508 Y 16.8242 Z -1.0000
G01 X 32.2432 Y 16.8323 Z -1.0000
G03 X 32.1825 Y 16.8285 Z -1.0000 I -0.0151 J -0.2414
G02 X 32.1165 Y 16.8262 Z -1.0000 I -0.0404 J 0.2112
G02 X 32.0801 Y 16.8407 Z -1.0000 I 0.0090 J 0.0756
G03 X 32.0437 Y 16.8572 Z -1.0000 I -0.0564 J -0.0758
G03 X 31.9848 Y 16.8613 Z -1.0000 I -0.0433 J -0.2004
G02 X 31.9331 Y 16.8670 Z -1.0000 I -0.0107 J 0.1390
G01 X 31.9234 Y 16.8801 Z -1.0000
G01 X 31.9167 Y 16.8954 Z -1.0000
G01 X 31.9029 Y 16.8992 Z -1.0000
G02 X 31.6218 Y 16.8953 Z -1.0000 I -0.1501 J 0.6880
G02 X 31.4281 Y 16.9891 Z -1.0000 I 0.0767 J 0.4056
G01 X 31.4142 Y 17.0234 Z -1.0000
G01 X 31.4325 Y 17.0402 Z -1.0000
G03 X 31.4773 Y 17.0478 Z -1.0000 I 0.0000 J 0.1354
G01 X 31.4794 Y 17.0566 Z -1.0000
G03 X 31.2568 Y 17.1265 Z -1.0000 I -0.1782 J -0.1782
G03 X 31.2036 Y 17.0074 Z -1.0000 I 0.0139 J -0.0777
G01 X 31.1965 Y 16.9941 Z -1.0000
G02 X 30.9326 Y 16.9967 Z -1.0000 I -0.1056 J 2.6857
G03 X 30.6519 Y 16.9995 Z -1.0000 I -0.1684 J -2.8532
G01 X 30.6265 Y 16.9847 Z -1.0000
G01 X 30.6058 Y 16.9723 Z -1.0000
G01 X 30.5769 Y 16.9818 Z -1.0000
G03 X 30.5416 Y 16.9967 Z -1.0000 I -0.0429 J -0.0520
G03 X 30.4180 Y 16.9998 Z -1.0000 I -0.0789 J -0.6969
G02 X 30.2917 Y 17.0022 Z -1.0000 I -0.0486 J 0.7562
G02 X 30.1315 Y 17.0291 Z -1.0000 I 0.1303 J 1.2649
G03 X 29.9703 Y 17.0511 Z -1.0000 I -0.1946 J -0.8275
G03 X 29.1693 Y 17.0671 Z -1.0000 I -0.8119 J -20.5957
G02 X 28.3802 Y 17.0731 Z -1.0000 I 0.0295 J 55.3448
G01 X 28.3779 Y 17.0788 Z -1.0000
G01 X 28.3916 Y 17.0853 Z -1.0000
G02 X 28.6486 Y 17.1095 Z -1.0000 I 0.7594 J -6.6766
G03 X 28.9078 Y 17.1293 Z -1.0000 I -7.9530 J 106.0804
G03 X 28.9760 Y 17.1349 Z -1.0000 I -0.5632 J 7.2732
G02 X 29.0444 Y 17.1386 Z -1.0000 I 0.0900 J -1.0235
G02 X 29.4513 Y 17.1451 Z -1.0000 I 0.8267 J -39.1521
G03 X 29.8399 Y 17.1569 Z -1.0000 I -0.0993 J 9.6624
G01 X 29.8430 Y 17.1648 Z -1.0000
G03 X 29.0215 Y 17.4868 Z -1.0000 I -0.7793 J -0.7793
G03 X 27.6960 Y 17.0827 Z -1.0000 I 0.1040 J -2.7174
G03 X 27.6672 Y 16.9698 Z -1.0000 I 0.0441 J -0.0714
G03 X 28.4017 Y 15.8434 Z -1.0000 I 9.7139 J 5.5313
G03 X 28.5658 Y 15.6316 Z -1.0000 I 5.0146 J 3.7179
G03 X 28.5916 Y 15.6090 Z -1.0000 I 0.0796 J 0.0645
G01 X 28.6094 Y 15.6224 Z -1.0000
G03 X 28.5606 Y 15.7198 Z -1.0000 I -0.2749 J -0.0768
G02 X 28.5424 Y 15.7553 Z -1.0000 I 0.0865 J 0.0667
G01 X 28.5488 Y 15.7596 Z -1.0000
G02 X 28.6794 Y 15.6063 Z -1.0000 I -0.3295 J -0.4131
G01 X 28.6508 Y 15.5788 Z -1.0000
G01 X 28.6296 Y 15.5821 Z -1.0000
G01 X 28.6213 Y 15.5715 Z -1.0000
G03 X 28.6918 Y 15.4194 Z -1.0000 I 0.1994 J -0.0000
G03 X 29.1712 Y 15.1056 Z -1.0000 I 1.5055 J 1.7769
G03 X 29.4594 Y 15.0021 Z -1.0000 I 0.6055 J 1.2336
G03 X 30.6134 Y 14.7633 Z -1.0000 I 4.7014 J 19.8106
G03 X 31.6858 Y 14.6038 Z -1.0000 I 3.4390 J 19.4369
G03 X 31.8960 Y 14.6084 Z -1.0000 I 0.0890 J 0.7373
G02 X 32.0451 Y 14.6298 Z -1.0000 I 0.5684 J -3.4349
G01 X 32.0525 Y 14.6274 Z -1.0000
G01 X 32.0517 Y 14.6229 Z -1.0000
G02 X 31.8808 Y 14.5516 Z -1.0000 I -1.8120 J 4.1042
G02 X 31.6999 Y 14.5088 Z -1.0000 I -0.2398 J 0.6104
G02 X 31.4924 Y 14.5165 Z -1.0000 I -0.0736 J 0.8153
G03 X 31.0391 Y 14.5752 Z -1.0000 I -1.0483 J -6.3216
G01 X 31.0226 Y 14.5603 Z -1.0000
G01 X 31.0147 Y 14.5508 Z -1.0000
G02 X 30.9135 Y 14.5391 Z -1.0000 I -0.1259 J 0.6466
G02 X 30.8251 Y 14.5470 Z -1.0000 I -0.0134 J 0.3495
G01 X 30.8198 Y 14.5596 Z -1.0000
G03 X 30.8292 Y 14.5817 Z -1.0000 I -0.0685 J 0.0421
G01 X 30.8265 Y 14.5861 Z -1.0000
G03 X 30.8180 Y 14.5875 Z -1.0000 I -0.0161 J -0.0674
G03 X 30.6884 Y 14.6015 Z -1.0000 I -2.1905 J -19.7075
G03 X 30.5769 Y 14.5950 Z -1.0000 I -0.0358 J -0.3429
G01 X 30.5588 Y 14.5723 Z -1.0000
G01 X 30.5371 Y 14.5405 Z -1.0000
G02 X 30.4452 Y 14.5277 Z -1.0000 I -0.0725 J 0.1847
G03 X 30.4048 Y 14.5223 Z -1.0000 I -0.0086 J -0.0890
G01 X 30.3822 Y 14.5036 Z -1.0000
G01 X 30.3877 Y 14.4879 Z -1.0000
G03 X 30.4617 Y 14.4750 Z -1.0000 I 0.0740 J 0.2056
G03 X 30.5460 Y 14.4878 Z -1.0000 I -0.0000 J 0.2839
G01 X 30.5588 Y 14.5052 Z -1.0000
G01 X 30.5689 Y 14.5207 Z -1.0000
G01 X 30.5954 Y 14.5214 Z -1.0000
G03 X 30.6311 Y 14.5171 Z -1.0000 I 0.0265 J 0.0691
G03 X 30.6697 Y 14.5307 Z -1.0000 I -0.0120 J 0.0958
G01 X 30.7186 Y 14.5193 Z -1.0000
G02 X 30.7328 Y 14.4301 Z -1.0000 I -0.0975 J -0.0611
G01 X 30.7434 Y 14.3870 Z -1.0000
G03 X 30.8021 Y 14.3527 Z -1.0000 I 0.0824 J 0.0738
G02 X 30.8477 Y 14.3095 Z -1.0000 I -0.0130 J -0.0593
G01 X 30.8253 Y 14.2683 Z -1.0000
G01 X 30.8124 Y 14.2478 Z -1.0000
G01 X 30.8315 Y 14.2241 Z -1.0000
G03 X 30.8992 Y 14.2094 Z -1.0000 I 0.0866 J 0.2340
G03 X 30.9590 Y 14.2144 Z -1.0000 I 0.0142 J 0.1871
G02 X 31.0145 Y 14.2175 Z -1.0000 I 0.0355 J -0.1422
G01 X 31.0352 Y 14.2040 Z -1.0000
G01 X 31.0307 Y 14.1883 Z -1.0000
G02 X 30.9619 Y 14.1685 Z -1.0000 I -0.0920 J 0.1901
G01 X 30.9386 Y 14.1489 Z -1.0000
G01 X 30.9495 Y 14.1258 Z -1.0000
G03 X 31.0281 Y 14.1017 Z -1.0000 I 0.1514 J 0.3541
G03 X 31.1200 Y 14.0929 Z -1.0000 I 0.0919 J 0.4774
G01 X 31.1589 Y 14.0644 Z -1.0000
G01 X 31.1387 Y 14.0334 Z -1.0000
G01 X 31.1200 Y 14.0006 Z -1.0000
G03 X 31.1667 Y 13.9701 Z -1.0000 I 0.0468 J 0.0207
G02 X 31.2524 Y 13.9625 Z -1.0000 I 0.0000 J -0.4830
G02 X 31.2888 Y 13.9481 Z -1.0000 I -0.0176 J -0.0976
G03 X 31.3230 Y 13.9364 Z -1.0000 I 0.0405 J 0.0626
G01 X 31.3502 Y 13.9429 Z -1.0000
G01 X 31.3682 Y 13.9425 Z -1.0000
G01 X 31.3784 Y 13.9240 Z -1.0000
G03 X 31.3880 Y 13.8917 Z -1.0000 I 0.0646 J 0.0016
G03 X 31.4499 Y 13.8079 Z -1.0000 I 0.5252 J 0.3234
G03 X 31.5189 Y 13.7646 Z -1.0000 I 0.1072 J 0.0942
G01 X 31.5574 Y 13.7780 Z -1.0000
G01 X 31.5901 Y 13.7966 Z -1.0000
G01 X 31.6117 Y 13.7833 Z -1.0000
G03 X 31.6371 Y 13.7499 Z -1.0000 I 0.0693 J 0.0265
G03 X 31.6738 Y 13.7377 Z -1.0000 I 0.0373 J 0.0509
G01 X 31.6860 Y 13.7280 Z -1.0000
G01 X 31.6798 Y 13.7127 Z -1.0000
G01 X 31.6784 Y 13.6961 Z -1.0000
G03 X 31.7207 Y 13.6763 Z -1.0000 I 0.0543 J 0.0610
G01 X 31.7208 Y 13.6694 Z -1.0000
G02 X 31.6300 Y 13.6604 Z -1.0000 I -0.1055 J 0.6009
G02 X 31.4694 Y 13.6666 Z -1.0000 I -0.0302 J 1.2880
G01 X 31.4594 Y 13.6777 Z -1.0000
G01 X 31.4498 Y 13.6892 Z -1.0000
G03 X 31.3571 Y 13.6952 Z -1.0000 I -0.0754 J -0.4414
G02 X 31.2549 Y 13.6964 Z -1.0000 I -0.0392 J 1.0037
G02 X 31.0774 Y 13.7127 Z -1.0000 I 0.1926 J 3.0690
G03 X 30.8999 Y 13.7339 Z -1.0000 I -6.4640 J -53.3528
G03 X 30.6544 Y 13.7626 Z -1.0000 I -11.9725 J -101.6476
G02 X 29.1250 Y 13.9895 Z -1.0000 I 2.7275 J 23.6517
G02 X 29.0618 Y 14.0520 Z -1.0000 I 0.0141 J 0.0774
G02 X 29.0672 Y 14.0972 Z -1.0000 I 0.0738 J 0.0142
G02 X 29.1027 Y 14.1421 Z -1.0000 I 0.1081 J -0.0491
G01 X 29.0993 Y 14.1592 Z -1.0000
G03 X 29.0170 Y 14.1654 Z -1.0000 I -0.0571 J -0.2102
G02 X 28.9627 Y 14.1737 Z -1.0000 I -0.0120 J 0.1034
G01 X 28.9624 Y 14.1896 Z -1.0000
G01 X 28.9640 Y 14.2059 Z -1.0000
G01 X 28.9283 Y 14.2156 Z -1.0000
G02 X 28.8438 Y 14.2340 Z -1.0000 I -0.0159 J 0.1302
G01 X 28.8464 Y 14.2658 Z -1.0000
G01 X 28.8527 Y 14.2751 Z -1.0000
G01 X 28.8464 Y 14.2818 Z -1.0000
G01 X 28.8246 Y 14.3111 Z -1.0000
G01 X 28.8601 Y 14.3407 Z -1.0000
G01 X 28.8639 Y 14.3496 Z -1.0000
G03 X 28.8343 Y 14.3697 Z -1.0000 I -0.0546 J -0.0484
G02 X 28.6953 Y 14.5009 Z -1.0000 I 0.0832 J 0.2275
G02 X 28.7299 Y 14.6110 Z -1.0000 I 0.0810 J 0.0350
G01 X 28.7320 Y 14.6267 Z -1.0000
G03 X 28.6954 Y 14.6484 Z -1.0000 I -0.0548 J -0.0505
G02 X 28.6212 Y 14.7159 Z -1.0000 I 0.0258 J 0.1029
G02 X 28.6417 Y 14.8000 Z -1.0000 I 0.0744 J 0.0263
G03 X 28.6580 Y 14.8345 Z -1.0000 I -0.0352 J 0.0377
G01 X 28.6453 Y 14.8590 Z -1.0000
G01 X 28.6420 Y 14.8786 Z -1.0000
G02 X 28.6904 Y 14.9149 Z -1.0000 I 0.0958 J -0.0773
G03 X 28.7188 Y 14.9427 Z -1.0000 I -0.0206 J 0.0494
G01 X 28.7100 Y 14.9593 Z -1.0000
G01 X 28.6742 Y 14.9934 Z -1.0000
G01 X 28.6963 Y 15.0212 Z -1.0000
G03 X 28.7387 Y 15.0453 Z -1.0000 I -0.0004 J 0.0501
G01 X 28.7256 Y 15.0695 Z -1.0000
G03 X 28.6406 Y 15.0583 Z -1.0000 I -0.0077 J -0.2711
G03 X 28.5873 Y 15.0284 Z -1.0000 I 0.0393 J -0.1323
G02 X 28.5394 Y 14.9977 Z -1.0000 I -0.1152 J 0.1273
G01 X 28.5228 Y 15.0009 Z -1.0000
G02 X 28.5235 Y 15.1058 Z -1.0000 I 0.0521 J 0.0521
G02 X 28.6440 Y 15.1191 Z -1.0000 I 0.0687 J -0.0705
G01 X 28.6718 Y 15.1117 Z -1.0000
G03 X 28.7211 Y 15.1218 Z -1.0000 I -0.0049 J 0.1502
G01 X 28.7274 Y 15.1381 Z -1.0000
G01 X 28.7031 Y 15.1571 Z -1.0000
G02 X 28.6498 Y 15.1867 Z -1.0000 I 0.0256 J 0.1089
G02 X 28.6261 Y 15.2338 Z -1.0000 I 0.0588 J 0.0590
G03 X 28.6090 Y 15.2766 Z -1.0000 I -0.0967 J -0.0139
G01 X 28.5935 Y 15.2797 Z -1.0000
G01 X 28.5823 Y 15.2835 Z -1.0000
G02 X 28.5794 Y 15.3160 Z -1.0000 I 0.0552 J 0.0214
G03 X 28.5716 Y 15.3622 Z -1.0000 I -0.0660 J 0.0126
G03 X 28.4836 Y 15.4827 Z -1.0000 I -0.5919 J -0.3400
G02 X 28.3856 Y 15.6027 Z -1.0000 I 1.0281 J 0.9398
G02 X 28.3613 Y 15.6506 Z -1.0000 I 0.1356 J 0.0987
G03 X 28.3378 Y 15.6936 Z -1.0000 I -0.1205 J -0.0381
G01 X 28.3176 Y 15.7030 Z -1.0000
G01 X 28.3045 Y 15.7108 Z -1.0000
G01 X 28.3049 Y 15.7262 Z -1.0000
G01 X 28.3064 Y 15.7481 Z -1.0000
G03 X 28.2715 Y 15.8012 Z -1.0000 I -0.1792 J -0.0796
G02 X 27.8124 Y 16.4010 Z -1.0000 I 3.1163 J 2.8612
G02 X 27.7334 Y 16.6520 Z -1.0000 I 0.4339 J 0.2745
G01 X 27.7281 Y 16.6704 Z -1.0000
G03 X 27.6519 Y 16.7946 Z -1.0000 I -2.0584 J -1.1772
G02 X 27.5750 Y 16.9194 Z -1.0000 I 2.1354 J 1.4022
G02 X 27.5394 Y 16.9894 Z -1.0000 I 0.6339 J 0.3660
G03 X 27.4894 Y 17.0359 Z -1.0000 I -0.0791 J -0.0350
G03 X 27.2810 Y 17.0814 Z -1.0000 I -0.2827 J -0.7938
G03 X 27.0644 Y 17.0861 Z -1.0000 I -0.1431 J -1.6165
G01 X 27.0441 Y 17.0707 Z -1.0000
G01 X 27.0285 Y 17.0545 Z -1.0000
G01 X 27.0067 Y 17.0567 Z -1.0000
G03 X 26.8971 Y 17.0747 Z -1.0000 I -0.0767 J -0.1241
G03 X 26.6973 Y 16.9852 Z -1.0000 I 0.1277 J -0.5527
G02 X 26.6682 Y 16.9701 Z -1.0000 I -0.0693 J 0.0980
G02 X 26.5882 Y 16.9465 Z -1.0000 I -0.2582 J 0.7284
G03 X 26.5087 Y 16.9203 Z -1.0000 I 0.1126 J -0.4754
G03 X 26.1965 Y 16.7790 Z -1.0000 I 3.2257 J -7.5419
G02 X 25.8858 Y 16.6350 Z -1.0000 I -6.1698 J 12.9049
G01 X 25.8667 Y 16.6309 Z -1.0000
G03 X 25.6455 Y 16.5322 Z -1.0000 I -0.0000 J -0.2971
G03 X 25.3521 Y 16.0572 Z -1.0000 I 1.1755 J -1.0543
G01 X 25.3540 Y 16.0381 Z -1.0000
G03 X 25.4823 Y 15.8540 Z -1.0000 I 2.4192 J 1.5499
G02 X 25.6147 Y 15.6677 Z -1.0000 I -3.0464 J -2.3058
G02 X 25.6741 Y 15.5663 Z -1.0000 I -0.8417 J -0.5612
G03 X 25.7571 Y 15.4518 Z -1.0000 I 0.4056 J 0.2069
G01 X 25.7760 Y 15.4640 Z -1.0000
G02 X 25.7762 Y 15.5029 Z -1.0000 I 0.0495 J 0.0191
G02 X 25.8123 Y 15.5546 Z -1.0000 I 0.1304 J -0.0524
G02 X 25.8576 Y 15.5857 Z -1.0000 I 0.1372 J -0.1516
G01 X 25.8650 Y 15.5811 Z -1.0000
G01 X 25.8724 Y 15.5757 Z -1.0000
G03 X 25.9059 Y 15.5939 Z -1.0000 I -0.0294 J 0.0942
G02 X 25.9384 Y 15.6099 Z -1.0000 I 0.0494 J -0.0595
G01 X 25.9469 Y 15.6031 Z -1.0000
G01 X 25.9577 Y 15.5895 Z -1.0000
G03 X 26.0423 Y 15.5815 Z -1.0000 I 0.0735 J 0.3244
G02 X 26.2110 Y 15.5464 Z -1.0000 I 0.0121 J -0.3651
G02 X 26.3383 Y 15.4410 Z -1.0000 I -0.1441 J -0.3038
G02 X 26.3797 Y 15.3673 Z -1.0000 I -0.2845 J -0.2079
G02 X 26.5624 Y 14.8970 Z -1.0000 I -11.6200 J -4.7860
G03 X 26.8254 Y 14.3078 Z -1.0000 I 4.3773 J 1.6006
G03 X 26.8886 Y 14.2841 Z -1.0000 I 0.0451 J 0.0240
G02 X 27.0709 Y 14.3075 Z -1.0000 I 0.1399 J -0.3681
G02 X 27.2546 Y 14.2444 Z -1.0000 I -0.0472 J -0.4364
G03 X 27.3117 Y 14.2215 Z -1.0000 I 0.0942 J 0.1523
G03 X 27.9663 Y 14.0937 Z -1.0000 I 4.3685 J 20.6322
G02 X 28.1434 Y 14.0604 Z -1.0000 I -1.7417 J -9.7376
G02 X 28.2665 Y 14.0344 Z -1.0000 I -0.9385 J -4.7466
G03 X 28.3900 Y 14.0104 Z -1.0000 I 0.4664 J 2.0737
G03 X 28.6622 Y 13.9697 Z -1.0000 I 1.6436 J 10.0538
G02 X 28.9351 Y 13.9326 Z -1.0000 I -140.8351 J -1037.0557
G02 X 29.3555 Y 13.8753 Z -1.0000 I -560.2999 J -4112.8080
G02 X 29.7745 Y 13.8139 Z -1.0000 I -2.8428 J -20.8628
G02 X 29.7947 Y 13.8064 Z -1.0000 I -0.0084 J -0.0539
G03 X 29.8150 Y 13.7989 Z -1.0000 I 0.0287 J 0.0462
G03 X 30.2203 Y 13.7395 Z -1.0000 I 3.0838 J 19.6148
G02 X 32.1286 Y 13.4569 Z -1.0000 I -11.1138 J -81.6480
G02 X 32.2351 Y 13.4170 Z -1.0000 I -0.0452 J -0.2826
G03 X 32.2660 Y 13.4027 Z -1.0000 I 0.0722 J 0.1156
G03 X 32.3190 Y 13.3903 Z -1.0000 I 0.1063 J 0.3336
G02 X 32.3670 Y 13.3740 Z -1.0000 I -0.0221 J -0.1439
G01 X 32.3827 Y 13.3554 Z -1.0000
G01 X 32.3985 Y 13.3383 Z -1.0000
G03 X 32.4441 Y 13.3289 Z -1.0000 I 0.0456 J 0.1056
G01 X 32.4760 Y 13.3079 Z -1.0000
G02 X 32.5001 Y 13.1992 Z -1.0000 I -0.2709 J -0.1171
G03 X 32.5083 Y 13.1376 Z -1.0000 I 0.2986 J 0.0084
G01 X 32.5149 Y 13.1378 Z -1.0000
G02 X 32.5731 Y 13.2871 Z -1.0000 I 0.3777 J -0.0612
G02 X 32.6484 Y 13.3406 Z -1.0000 I 0.1064 J -0.0701
G02 X 32.8062 Y 13.3338 Z -1.0000 I 0.0675 J -0.2690
G02 X 32.8512 Y 13.2708 Z -1.0000 I -0.0217 J -0.0630
G01 X 32.8599 Y 13.2607 Z -1.0000
G03 X 32.8989 Y 13.2641 Z -1.0000 I 0.0122 J 0.0869
G01 X 32.9172 Y 13.2634 Z -1.0000
G01 X 32.9182 Y 13.2564 Z -1.0000
G03 X 32.8990 Y 13.2285 Z -1.0000 I 0.0380 J -0.0469
G03 X 32.8840 Y 13.1535 Z -1.0000 I 0.2920 J -0.0971
G02 X 32.8670 Y 13.0785 Z -1.0000 I -0.2562 J 0.0187
G02 X 32.8332 Y 13.0239 Z -1.0000 I -0.1660 J 0.0650
G03 X 32.8178 Y 12.9872 Z -1.0000 I 0.0446 J -0.0404
G01 X 32.8301 Y 12.9741 Z -1.0000
G01 X 32.8621 Y 12.9606 Z -1.0000
G02 X 32.8905 Y 12.9127 Z -1.0000 I -0.0826 J -0.0813
G01 X 32.9108 Y 12.8940 Z -1.0000
G01 X 32.9300 Y 12.9043 Z -1.0000
G01 X 32.9544 Y 12.9140 Z -1.0000
G02 X 33.0019 Y 12.8712 Z -1.0000 I -0.0448 J -0.0974
G03 X 33.0573 Y 12.8115 Z -1.0000 I 0.1646 J 0.0972
G01 X 33.0860 Y 12.8127 Z -1.0000
G01 X 33.1176 Y 12.8096 Z -1.0000
G02 X 33.1624 Y 12.7190 Z -1.0000 I -0.1759 J -0.1435
G03 X 33.1974 Y 12.6683 Z -1.0000 I 0.0832 J 0.0199
G03 X 33.2507 Y 12.6588 Z -1.0000 I 0.0372 J 0.0545
G02 X 33.3139 Y 12.6558 Z -1.0000 I 0.0268 J -0.1066
G02 X 33.3726 Y 12.6159 Z -1.0000 I -0.0460 J -0.1308
G03 X 33.4322 Y 12.5716 Z -1.0000 I 0.1306 J 0.1133
G03 X 33.5065 Y 12.5556 Z -1.0000 I 0.0743 J 0.1648
G02 X 33.5737 Y 12.5413 Z -1.0000 I 0.0000 J -0.1650
G01 X 33.5880 Y 12.5192 Z -1.0000
G01 X 33.5993 Y 12.4941 Z -1.0000
G01 X 33.6289 Y 12.4829 Z -1.0000
G03 X 33.6604 Y 12.4924 Z -1.0000 I 0.0000 J 0.0566
G01 X 33.6699 Y 12.5101 Z -1.0000
G01 X 33.6802 Y 12.5271 Z -1.0000
G02 X 33.7228 Y 12.5374 Z -1.0000 I 0.0426 J -0.0828
G03 X 33.7708 Y 12.5465 Z -1.0000 I -0.0000 J 0.1317
G01 X 33.7927 Y 12.5647 Z -1.0000
G01 X 33.8143 Y 12.5832 Z -1.0000
G02 X 33.8557 Y 12.5909 Z -1.0000 I 0.0389 J -0.0936
G01 X 33.8610 Y 12.5800 Z -1.0000
G02 X 33.8230 Y 12.5471 Z -1.0000 I -0.0937 J 0.0700
G03 X 33.7758 Y 12.5035 Z -1.0000 I 0.0617 J -0.1140
G01 X 33.7807 Y 12.4818 Z -1.0000
G03 X 33.8174 Y 12.4686 Z -1.0000 I 0.0493 J 0.0798
G01 X 33.8407 Y 12.4736 Z -1.0000
G01 X 33.8652 Y 12.4800 Z -1.0000
G02 X 33.9361 Y 12.4699 Z -1.0000 I -0.0129 J -0.3420
G02 X 33.9763 Y 12.4469 Z -1.0000 I -0.0208 J -0.0831
G01 X 33.9744 Y 12.4309 Z -1.0000
G01 X 33.9753 Y 12.4199 Z -1.0000
G03 X 34.0245 Y 12.4101 Z -1.0000 I 0.0492 J 0.1181
G02 X 34.1163 Y 12.3777 Z -1.0000 I -0.0000 J -0.1465
G01 X 34.1051 Y 12.3452 Z -1.0000
G01 X 34.1006 Y 12.3338 Z -1.0000
G03 X 34.1456 Y 12.3058 Z -1.0000 I 0.0866 J 0.0889
G03 X 34.2520 Y 12.2768 Z -1.0000 I 0.2423 J 0.6800
G01 X 34.2748 Y 12.2810 Z -1.0000
G01 X 34.2980 Y 12.2870 Z -1.0000
G02 X 34.3953 Y 12.2760 Z -1.0000 I -0.0292 J -0.6907
G02 X 34.4624 Y 12.2516 Z -1.0000 I -0.0406 J -0.2163
G01 X 34.4627 Y 12.2382 Z -1.0000
G01 X 34.4622 Y 12.2211 Z -1.0000
G03 X 34.5810 Y 12.1543 Z -1.0000 I 0.3776 J 0.5325
G02 X 34.7164 Y 12.0853 Z -1.0000 I -0.4725 J -1.0946
G01 X 34.7196 Y 12.0721 Z -1.0000
G01 X 34.7242 Y 12.0629 Z -1.0000
G03 X 34.9178 Y 12.0505 Z -1.0000 I 0.2350 J 2.1596
G03 X 35.1196 Y 12.0598 Z -1.0000 I 0.0293 J 1.5697
G01 X 35.1449 Y 12.0757 Z -1.0000
G01 X 35.1653 Y 12.0841 Z -1.0000
G02 X 35.2071 Y 12.0607 Z -1.0000 I -0.0208 J -0.0860
G03 X 35.3032 Y 12.0162 Z -1.0000 I 0.1085 J 0.1085
G03 X 36.1430 Y 11.9849 Z -1.0000 I 0.7802 J 9.6351
G03 X 36.4441 Y 12.0224 Z -1.0000 I -0.0080 J 1.2899
G03 X 36.6724 Y 12.1155 Z -1.0000 I -0.2041 J 0.8267
G03 X 36.7192 Y 12.1457 Z -1.0000 I -0.3633 J 0.6166
G03 X 36.7609 Y 12.1774 Z -1.0000 I -0.3644 J 0.5210
G02 X 36.8398 Y 12.1946 Z -1.0000 I 0.0561 J -0.0675
G02 X 36.9007 Y 12.1396 Z -1.0000 I -0.0236 J -0.0874
G03 X 36.9224 Y 12.1106 Z -1.0000 I 0.0625 J 0.0240
G01 X 36.9511 Y 12.1008 Z -1.0000
G01 X 36.9695 Y 12.0846 Z -1.0000
G02 X 36.9765 Y 11.9007 Z -1.0000 I -1.0344 J -0.1313
G03 X 37.1190 Y 11.2100 Z -1.0000 I 1.4023 J -0.0708
G03 X 37.6580 Y 10.5156 Z -1.0000 I 1.9575 J 0.9631
G03 X 38.6171 Y 9.9258 Z -1.0000 I 2.3483 J 2.7440
G03 X 39.6568 Y 9.6827 Z -1.0000 I 1.2492 J 2.9978
G02 X 39.8206 Y 9.5460 Z -1.0000 I -0.0117 J -0.1805
G02 X 39.9465 Y 8.5220 Z -1.0000 I -4.1026 J -1.0240
G02 X 39.7936 Y 7.5330 Z -1.0000 I -3.2753 J -0.0000
G02 X 39.5849 Y 7.3804 Z -1.0000 I -0.2085 J 0.0660
G03 X 39.2236 Y 7.3739 Z -1.0000 I -0.0098 J -9.4580
G03 X 38.8686 Y 7.3537 Z -1.0000 I 0.3398 J -9.1376
G02 X 38.1487 Y 7.3260 Z -1.0000 I -0.7289 J 9.5685
G02 X 36.8900 Y 7.3518 Z -1.0000 I -0.0279 J 29.3352
G03 X 36.2760 Y 7.3771 Z -1.0000 I -14.9544 J -355.9014
G03 X 35.8394 Y 7.3942 Z -1.0000 I -7.1033 J -176.3037
G02 X 35.4028 Y 7.4115 Z -1.0000 I 4.3820 J 115.6419
G02 X 33.8882 Y 7.4755 Z -1.0000 I 56.3908 J 1353.1162
G03 X 31.0034 Y 7.5807 Z -1.0000 I -9.7695 J -228.2750
G01 X 30.9955 Y 7.5627 Z -1.0000
G03 X 31.0347 Y 7.5449 Z -1.0000 I 0.0422 J 0.0409
G03 X 34.8706 Y 7.3662 Z -1.0000 I 23.6523 J 466.5332
G02 X 35.2117 Y 7.3513 Z -1.0000 I -7.3230 J -171.7394
G02 X 35.4983 Y 7.3382 Z -1.0000 I -4.6288 J -103.7149
G03 X 37.9423 Y 7.2535 Z -1.0000 I 4.5378 J 95.6984
G03 X 38.7185 Y 7.2678 Z -1.0000 I 0.2110 J 9.6518
G02 X 39.4437 Y 7.3000 Z -1.0000 I 1.5013 J -25.5957
G02 X 39.8169 Y 7.3010 Z -1.0000 I 0.2050 J -6.7713
G02 X 39.8828 Y 7.2357 Z -1.0000 I -0.0017 J -0.0677
G02 X 39.9465 Y 3.5864 Z -1.0000 I -104.5765 J -3.6493
G02 X 39.5470 Y 1.5836 Z -1.0000 I -5.2203 J 0.0000
G02 X 38.1044 Y 0.3389 Z -1.0000 I -1.9612 J 0.8148
G02 X 35.4934 Y -0.0136 Z -1.0000 I -2.8652 J 11.3765
G02 X 25.2100 Y -0.1250 Z -1.0000 I -10.2834 J 474.4746
G02 X 10.8114 Y 0.2129 Z -1.0000 I -0.0000 J 306.9753
G02 X 10.4736 Y 0.5670 Z -1.0000 I 0.0166 J 0.3541
G01 X 10.4735 Y 0.5670 Z -1.0000
G00 Z 5.0000

(End cutting path id: path168879)


(Start cutting path id: path168879)
(Change tool to Default tool)

G00 Z 5.0000
G00 X 11.3468 Y 1.8399

G01 Z -1.0000 F 100.0000(Penetrate)
G01 X 11.3386 Y 1.8589 Z -1.0000 F 3500.0000
G01 X 11.3179 Y 1.8672 Z -1.0000
G01 X 11.3046 Y 1.8585 Z -1.0000
G01 X 11.3059 Y 1.8399 Z -1.0000
G03 X 11.3249 Y 1.8165 Z -1.0000 I 0.0994 J 0.0616
G01 X 11.3348 Y 1.8126 Z -1.0000
G01 X 11.3420 Y 1.8173 Z -1.0000
G03 X 11.3468 Y 1.8399 Z -1.0000 I -0.0511 J 0.0226
G01 X 11.3468 Y 1.8399 Z -1.0000
G00 Z 5.0000

(End cutting path id: path168879)


(Start cutting path id: path168879)
(Change tool to Default tool)

G00 Z 5.0000
G00 X 11.7425 Y 1.9217

G01 Z -1.0000 F 100.0000(Penetrate)
G03 X 11.7220 Y 1.9425 Z -1.0000 I -0.0562 J -0.0348 F 3500.0000
G01 X 11.7000 Y 1.9490 Z -1.0000
G01 X 11.6820 Y 1.9413 Z -1.0000
G01 X 11.6743 Y 1.9217 Z -1.0000
G01 X 11.6839 Y 1.9041 Z -1.0000
G03 X 11.7168 Y 1.8944 Z -1.0000 I 0.0329 J 0.0513
G01 X 11.7408 Y 1.9048 Z -1.0000
G01 X 11.7425 Y 1.9217 Z -1.0000
G01 X 11.7425 Y 1.9217 Z -1.0000
G00 Z 5.0000

(End cutting path id: path168879)


(Start cutting path id: path168879)
(Change tool to Default tool)

G00 Z 5.0000
G00 X 11.8932 Y 1.7982

G01 Z -1.0000 F 100.0000(Penetrate)
G03 X 11.7988 Y 1.8453 Z -1.0000 I -0.1007 J -0.0835 F 3500.0000
G01 X 11.7561 Y 1.8047 Z -1.0000
G01 X 11.7701 Y 1.7825 Z -1.0000
G03 X 11.8420 Y 1.7630 Z -1.0000 I 0.0871 J 0.1793
G03 X 11.8901 Y 1.7759 Z -1.0000 I 0.0057 J 0.0747
G01 X 11.8932 Y 1.7981 Z -1.0000
G01 X 11.8932 Y 1.7982 Z -1.0000
G00 Z 5.0000

(End cutting path id: path168879)


(Start cutting path id: path168879)
(Change tool to Default tool)

G00 Z 5.0000
G00 X 11.8498 Y 2.1097

G01 Z -1.0000 F 100.0000(Penetrate)
G01 X 11.8515 Y 2.1317 Z -1.0000 F 3500.0000
G03 X 11.8263 Y 2.1658 Z -1.0000 I -0.0816 J -0.0340
G01 X 11.8057 Y 2.1673 Z -1.0000
G01 X 11.7972 Y 2.1484 Z -1.0000
G03 X 11.8069 Y 2.0992 Z -1.0000 I 4.7340 J 0.9084
G03 X 11.8086 Y 2.0923 Z -1.0000 I 0.0733 J 0.0149
G01 X 11.8221 Y 2.0860 Z -1.0000
G03 X 11.8497 Y 2.1097 Z -1.0000 I -0.0233 J 0.0551
G01 X 11.8498 Y 2.1097 Z -1.0000
G00 Z 5.0000

(End cutting path id: path168879)


(Start cutting path id: path168879)
(Change tool to Default tool)

G00 Z 5.0000
G00 X 12.2465 Y 1.9422

G01 Z -1.0000 F 100.0000(Penetrate)
G03 X 12.1761 Y 2.0664 Z -1.0000 I -0.1565 J -0.0066 F 3500.0000
G01 X 12.1109 Y 2.0313 Z -1.0000
G01 X 12.1199 Y 2.0080 Z -1.0000
G03 X 12.1517 Y 1.9862 Z -1.0000 I 0.0616 J 0.0557
G02 X 12.1772 Y 1.9654 Z -1.0000 I -0.0189 J -0.0492
G01 X 12.1774 Y 1.9462 Z -1.0000
G01 X 12.1795 Y 1.9314 Z -1.0000
G01 X 12.2048 Y 1.9217 Z -1.0000
G03 X 12.2391 Y 1.9297 Z -1.0000 I -0.0000 J 0.0777
G01 X 12.2465 Y 1.9422 Z -1.0000
G01 X 12.2465 Y 1.9422 Z -1.0000
G00 Z 5.0000

(End cutting path id: path168879)


(Start cutting path id: path168879)
(Change tool to Default tool)

G00 Z 5.0000
G00 X 12.8204 Y 1.8399

G01 Z -1.0000 F 100.0000(Penetrate)
G01 X 12.8125 Y 1.8592 Z -1.0000 F 3500.0000
G01 X 12.7932 Y 1.8672 Z -1.0000
G01 X 12.7739 Y 1.8592 Z -1.0000
G01 X 12.7659 Y 1.8399 Z -1.0000
G01 X 12.7739 Y 1.8206 Z -1.0000
G01 X 12.7932 Y 1.8126 Z -1.0000
G01 X 12.8125 Y 1.8206 Z -1.0000
G01 X 12.8204 Y 1.8399 Z -1.0000
G01 X 12.8204 Y 1.8399 Z -1.0000
G00 Z 5.0000

(End cutting path id: path168879)


(Start cutting path id: path168879)
(Change tool to Default tool)

G00 Z 5.0000
G00 X 12.6189 Y 1.4044

G01 Z -1.0000 F 100.0000(Penetrate)
G02 X 12.8411 Y 1.4527 Z -1.0000 I 0.2715 J -0.7141 F 3500.0000
G02 X 13.2093 Y 1.4426 Z -1.0000 I 0.1294 J -2.0007
G03 X 13.3620 Y 1.4379 Z -1.0000 I 0.1026 J 0.8545
G03 X 13.4024 Y 1.4538 Z -1.0000 I -0.0041 J 0.0695
G02 X 13.4432 Y 1.4691 Z -1.0000 I 0.0426 J -0.0513
G02 X 13.7231 Y 1.4619 Z -1.0000 I 0.0692 J -2.7387
G03 X 14.0042 Y 1.4584 Z -1.0000 I 0.1681 J 2.1801
G03 X 14.0962 Y 1.4812 Z -1.0000 I -0.0129 J 0.2483
G03 X 14.1773 Y 1.5273 Z -1.0000 I -0.2403 J 0.5166
G01 X 14.1849 Y 1.5418 Z -1.0000
G01 X 14.1615 Y 1.5672 Z -1.0000
G03 X 13.7739 Y 1.5746 Z -1.0000 I -0.2558 J -3.2028
G02 X 13.4344 Y 1.5633 Z -1.0000 I -0.9068 J 21.9872
G02 X 13.3322 Y 1.5632 Z -1.0000 I -0.0526 J 2.0376
G03 X 13.2315 Y 1.5572 Z -1.0000 I -0.0149 J -0.5987
G03 X 13.1567 Y 1.5378 Z -1.0000 I 0.0506 J -0.3491
G02 X 13.0812 Y 1.5219 Z -1.0000 I -0.0882 J 0.2318
G02 X 12.7267 Y 1.5158 Z -1.0000 I -0.2684 J 5.2351
G03 X 11.8807 Y 1.5132 Z -1.0000 I -0.3570 J -21.6509
G03 X 11.8398 Y 1.4959 Z -1.0000 I 0.0014 J -0.0601
G01 X 11.8504 Y 1.4586 Z -1.0000
G03 X 12.1764 Y 1.4187 Z -1.0000 I 0.3546 J 1.5462
G02 X 12.4609 Y 1.4050 Z -1.0000 I -0.0877 J -4.7913
G01 X 12.4833 Y 1.3947 Z -1.0000
G01 X 12.5174 Y 1.3820 Z -1.0000
G03 X 12.6189 Y 1.4044 Z -1.0000 I -0.0255 J 0.3565
G01 X 12.6189 Y 1.4044 Z -1.0000
G00 Z 5.0000

(End cutting path id: path168879)


(Start cutting path id: path168879)
(Change tool to Default tool)

G00 Z 5.0000
G00 X 13.5982 Y 2.1674

G01 Z -1.0000 F 100.0000(Penetrate)
G01 X 13.6000 Y 2.1863 Z -1.0000 F 3500.0000
G01 X 13.5878 Y 2.1947 Z -1.0000
G01 X 13.5642 Y 2.1880 Z -1.0000
G03 X 13.5436 Y 2.1674 Z -1.0000 I 0.0333 J -0.0539
G01 X 13.5418 Y 2.1485 Z -1.0000
G01 X 13.5540 Y 2.1401 Z -1.0000
G01 X 13.5776 Y 2.1468 Z -1.0000
G03 X 13.5982 Y 2.1674 Z -1.0000 I -0.0333 J 0.0539
G01 X 13.5982 Y 2.1674 Z -1.0000
G00 Z 5.0000

(End cutting path id: path168879)


(Start cutting path id: path168879)
(Change tool to Default tool)

G00 Z 5.0000
G00 X 13.8848 Y 2.0036

G01 Z -1.0000 F 100.0000(Penetrate)
G01 X 13.8751 Y 2.0212 Z -1.0000 F 3500.0000
G03 X 13.8422 Y 2.0309 Z -1.0000 I -0.0329 J -0.0513
G01 X 13.8182 Y 2.0205 Z -1.0000
G01 X 13.8165 Y 2.0036 Z -1.0000
G03 X 13.8370 Y 1.9828 Z -1.0000 I 0.0562 J 0.0348
G01 X 13.8591 Y 1.9763 Z -1.0000
G01 X 13.8770 Y 1.9840 Z -1.0000
G01 X 13.8848 Y 2.0036 Z -1.0000
G01 X 13.8848 Y 2.0036 Z -1.0000
G00 Z 5.0000

(End cutting path id: path168879)


(Start cutting path id: path168879)
(Change tool to Default tool)

G00 Z 5.0000
G00 X 14.9790 Y 1.5197

G01 Z -1.0000 F 100.0000(Penetrate)
G03 X 15.1541 Y 1.5388 Z -1.0000 I -0.0425 J 1.2018 F 3500.0000
G03 X 15.2005 Y 1.5605 Z -1.0000 I -0.0183 J 0.0997
G02 X 15.2399 Y 1.5727 Z -1.0000 I 0.0345 J -0.0416
G02 X 15.2763 Y 1.5536 Z -1.0000 I -0.0048 J -0.0533
G03 X 15.3860 Y 1.5034 Z -1.0000 I 0.1069 J 0.0887
G03 X 15.6865 Y 1.5619 Z -1.0000 I -0.0182 J 0.8950
G02 X 15.7571 Y 1.5789 Z -1.0000 I 0.1016 J -0.2663
G02 X 15.9594 Y 1.5917 Z -1.0000 I 0.2406 J -2.2049
G03 X 16.1632 Y 1.5979 Z -1.0000 I -0.1261 J 7.4506
G03 X 16.2301 Y 1.6037 Z -1.0000 I -0.0357 J 0.8062
G01 X 16.2469 Y 1.6356 Z -1.0000
G03 X 16.1978 Y 1.6662 Z -1.0000 I -0.0502 J -0.0260
G02 X 16.0816 Y 1.6694 Z -1.0000 I 0.1512 J 7.4364
G02 X 15.9315 Y 1.6759 Z -1.0000 I 0.3955 J 10.9917
G03 X 15.7815 Y 1.6761 Z -1.0000 I -0.0778 J -1.5662
G03 X 15.4539 Y 1.6539 Z -1.0000 I 0.3461 J -7.5124
G02 X 15.1270 Y 1.6360 Z -1.0000 I -0.4174 J 4.6497
G02 X 15.0171 Y 1.6454 Z -1.0000 I -0.0103 J 0.5312
G03 X 14.9093 Y 1.6516 Z -1.0000 I -0.0777 J -0.4060
G03 X 14.8261 Y 1.6314 Z -1.0000 I 0.0190 J -0.2598
G02 X 14.7421 Y 1.6112 Z -1.0000 I -0.1024 J 0.2401
G02 X 14.5695 Y 1.6132 Z -1.0000 I -0.0737 J 1.0393
G03 X 14.4257 Y 1.6035 Z -1.0000 I -0.0422 J -0.4434
G01 X 14.4089 Y 1.5756 Z -1.0000
G01 X 14.3980 Y 1.5440 Z -1.0000
G02 X 14.3518 Y 1.5322 Z -1.0000 I -0.0369 J 0.0486
G01 X 14.3239 Y 1.5238 Z -1.0000
G01 X 14.3244 Y 1.5071 Z -1.0000
G03 X 14.3735 Y 1.4879 Z -1.0000 I 0.0540 J 0.0657
G03 X 14.5836 Y 1.4921 Z -1.0000 I 0.0779 J 1.3498
G02 X 14.7992 Y 1.5102 Z -1.0000 I 0.7423 J -7.5520
G02 X 14.9790 Y 1.5196 Z -1.0000 I 0.3640 J -5.2308
G01 X 14.9790 Y 1.5197 Z -1.0000
G00 Z 5.0000

(End cutting path id: path168879)


(Start cutting path id: path168879)
(Change tool to Default tool)

G00 Z 5.0000
G00 X 17.7798 Y 2.2384

G01 Z -1.0000 F 100.0000(Penetrate)
G01 X 17.7615 Y 2.2464 Z -1.0000 F 3500.0000
G03 X 17.7275 Y 2.2406 Z -1.0000 I -0.0034 J -0.0829
G01 X 17.7257 Y 2.2321 Z -1.0000
G01 X 17.7440 Y 2.2241 Z -1.0000
G03 X 17.7781 Y 2.2300 Z -1.0000 I 0.0034 J 0.0823
G01 X 17.7798 Y 2.2385 Z -1.0000
G01 X 17.7798 Y 2.2384 Z -1.0000
G00 Z 5.0000

(End cutting path id: path168879)


(Start cutting path id: path168879)
(Change tool to Default tool)

G00 Z 5.0000
G00 X 19.3291 Y 2.1674

G01 Z -1.0000 F 100.0000(Penetrate)
G01 X 19.3308 Y 2.1863 Z -1.0000 F 3500.0000
G01 X 19.3186 Y 2.1947 Z -1.0000
G01 X 19.2951 Y 2.1880 Z -1.0000
G03 X 19.2745 Y 2.1674 Z -1.0000 I 0.0333 J -0.0539
G01 X 19.2727 Y 2.1485 Z -1.0000
G01 X 19.2849 Y 2.1401 Z -1.0000
G01 X 19.3085 Y 2.1468 Z -1.0000
G03 X 19.3291 Y 2.1674 Z -1.0000 I -0.0333 J 0.0539
G01 X 19.3291 Y 2.1674 Z -1.0000
G00 Z 5.0000

(End cutting path id: path168879)


(Start cutting path id: path168879)
(Change tool to Default tool)

G00 Z 5.0000
G00 X 20.6452 Y 2.2384

G01 Z -1.0000 F 100.0000(Penetrate)
G01 X 20.6269 Y 2.2464 Z -1.0000 F 3500.0000
G03 X 20.5929 Y 2.2406 Z -1.0000 I -0.0034 J -0.0829
G01 X 20.5912 Y 2.2321 Z -1.0000
G01 X 20.6094 Y 2.2241 Z -1.0000
G03 X 20.6435 Y 2.2300 Z -1.0000 I 0.0034 J 0.0823
G01 X 20.6452 Y 2.2385 Z -1.0000
G01 X 20.6452 Y 2.2384 Z -1.0000
G00 Z 5.0000

(End cutting path id: path168879)


(Start cutting path id: path168879)
(Change tool to Default tool)

G00 Z 5.0000
G00 X 20.9050 Y 2.0032

G01 Z -1.0000 F 100.0000(Penetrate)
G03 X 20.9428 Y 2.0135 Z -1.0000 I -0.0006 J 0.0765 F 3500.0000
G01 X 20.9528 Y 2.0309 Z -1.0000
G01 X 20.9218 Y 2.0638 Z -1.0000
G03 X 20.7776 Y 2.0416 Z -1.0000 I -0.0210 J -0.3433
G01 X 20.7605 Y 2.0055 Z -1.0000
G01 X 20.7959 Y 1.9864 Z -1.0000
G02 X 20.8578 Y 1.9994 Z -1.0000 I 0.1481 J -0.5498
G02 X 20.9050 Y 2.0032 Z -1.0000 I 0.0499 J -0.3257
G01 X 20.9050 Y 2.0032 Z -1.0000
G00 Z 5.0000

(End cutting path id: path168879)


(Start cutting path id: path168879)
(Change tool to Default tool)

G00 Z 5.0000
G00 X 21.2166 Y 2.2401

G01 Z -1.0000 F 100.0000(Penetrate)
G03 X 21.1471 Y 2.2489 Z -1.0000 I -0.0404 J -0.0404 F 3500.0000
G01 X 21.1328 Y 2.1905 Z -1.0000
G01 X 21.1514 Y 2.1815 Z -1.0000
G03 X 21.1878 Y 2.1972 Z -1.0000 I -0.0085 J 0.0699
G03 X 21.2176 Y 2.2301 Z -1.0000 I -0.0991 J 0.1194
G01 X 21.2166 Y 2.2401 Z -1.0000
G01 X 21.2166 Y 2.2401 Z -1.0000
G00 Z 5.0000

(End cutting path id: path168879)


(Start cutting path id: path168879)
(Change tool to Default tool)

G00 Z 5.0000
G00 X 21.4440 Y 2.1810

G01 Z -1.0000 F 100.0000(Penetrate)
G03 X 21.3482 Y 2.2329 Z -1.0000 I -0.1125 J -0.0933 F 3500.0000
G01 X 21.3076 Y 2.1967 Z -1.0000
G01 X 21.3251 Y 2.1707 Z -1.0000
G03 X 21.4405 Y 2.1433 Z -1.0000 I 0.1491 J 0.3712
G01 X 21.4526 Y 2.1533 Z -1.0000
G01 X 21.4440 Y 2.1810 Z -1.0000
G01 X 21.4440 Y 2.1810 Z -1.0000
G00 Z 5.0000

(End cutting path id: path168879)


(Start cutting path id: path168879)
(Change tool to Default tool)

G00 Z 5.0000
G00 X 21.7169 Y 2.3038

G01 Z -1.0000 F 100.0000(Penetrate)
G01 X 21.7073 Y 2.3215 Z -1.0000 F 3500.0000
G03 X 21.6744 Y 2.3311 Z -1.0000 I -0.0329 J -0.0513
G01 X 21.6504 Y 2.3207 Z -1.0000
G01 X 21.6487 Y 2.3038 Z -1.0000
G03 X 21.6692 Y 2.2830 Z -1.0000 I 0.0562 J 0.0348
G01 X 21.6912 Y 2.2765 Z -1.0000
G01 X 21.7092 Y 2.2843 Z -1.0000
G01 X 21.7169 Y 2.3038 Z -1.0000
G01 X 21.7169 Y 2.3038 Z -1.0000
G00 Z 5.0000

(End cutting path id: path168879)


(Start cutting path id: path168879)
(Change tool to Default tool)

G00 Z 5.0000
G00 X 22.2218 Y 2.2492

G01 Z -1.0000 F 100.0000(Penetrate)
G01 X 22.1821 Y 2.3194 Z -1.0000 F 3500.0000
G03 X 22.0048 Y 2.2468 Z -1.0000 I 0.0028 J -0.2597
G01 X 22.0081 Y 2.2337 Z -1.0000
G03 X 22.0919 Y 2.2219 Z -1.0000 I 0.0838 J 0.2928
G03 X 22.1987 Y 2.2330 Z -1.0000 I 0.0000 J 0.5195
G01 X 22.2218 Y 2.2492 Z -1.0000
G01 X 22.2218 Y 2.2492 Z -1.0000
G00 Z 5.0000

(End cutting path id: path168879)


(Start cutting path id: path168879)
(Change tool to Default tool)

G00 Z 5.0000
G00 X 23.1249 Y 1.9081

G01 Z -1.0000 F 100.0000(Penetrate)
G03 X 23.1893 Y 1.9737 Z -1.0000 I -0.6621 J 0.7145 F 3500.0000
G01 X 23.1877 Y 1.9784 Z -1.0000
G02 X 23.1770 Y 1.9804 Z -1.0000 I 0.1978 J 1.0612
G03 X 23.1327 Y 1.9891 Z -1.0000 I -3.0780 J -15.6288
G02 X 22.9818 Y 2.0560 Z -1.0000 I 0.0709 J 0.3634
G02 X 22.9449 Y 2.1295 Z -1.0000 I 0.0550 J 0.0735
G01 X 22.9332 Y 2.1556 Z -1.0000
G01 X 22.9024 Y 2.1673 Z -1.0000
G01 X 22.8784 Y 2.1777 Z -1.0000
G01 X 22.8767 Y 2.1946 Z -1.0000
G01 X 22.8779 Y 2.2131 Z -1.0000
G01 X 22.8642 Y 2.2219 Z -1.0000
G01 X 22.8420 Y 2.2330 Z -1.0000
G02 X 22.7876 Y 2.3243 Z -1.0000 I 0.4062 J 0.3042
G03 X 22.7046 Y 2.4386 Z -1.0000 I -0.3321 J -0.1536
G01 X 22.6541 Y 2.4484 Z -1.0000
G03 X 22.6092 Y 2.3815 Z -1.0000 I 0.0250 J -0.0652
G03 X 22.6584 Y 2.2668 Z -1.0000 I 0.1680 J 0.0040
G02 X 22.6923 Y 2.2229 Z -1.0000 I -0.1559 J -0.1559
G02 X 22.6993 Y 2.1974 Z -1.0000 I -0.0432 J -0.0255
G01 X 22.7087 Y 2.1826 Z -1.0000
G01 X 22.7334 Y 2.1816 Z -1.0000
G02 X 22.7873 Y 2.1697 Z -1.0000 I 0.0177 J -0.0482
G02 X 22.8704 Y 2.0445 Z -1.0000 I -0.2682 J -0.2681
G03 X 22.9085 Y 1.9739 Z -1.0000 I 0.3453 J 0.1405
G01 X 22.9173 Y 1.9763 Z -1.0000
G01 X 22.9264 Y 1.9794 Z -1.0000
G02 X 22.9583 Y 1.9286 Z -1.0000 I -0.1529 J -0.1311
G03 X 23.0277 Y 1.8767 Z -1.0000 I 0.0801 J 0.0348
G03 X 23.1249 Y 1.9081 Z -1.0000 I 0.0148 J 0.1203
G01 X 23.1249 Y 1.9081 Z -1.0000
G00 Z 5.0000

(End cutting path id: path168879)


(Start cutting path id: path168879)
(Change tool to Default tool)

G00 Z 5.0000
G00 X 25.5301 Y 3.7666

G01 Z -1.0000 F 100.0000(Penetrate)
G01 X 25.5118 Y 3.7746 Z -1.0000 F 3500.0000
G03 X 25.4778 Y 3.7688 Z -1.0000 I -0.0034 J -0.0828
G01 X 25.4760 Y 3.7603 Z -1.0000
G01 X 25.4943 Y 3.7523 Z -1.0000
G03 X 25.5284 Y 3.7582 Z -1.0000 I 0.0034 J 0.0823
G01 X 25.5301 Y 3.7667 Z -1.0000
G01 X 25.5301 Y 3.7666 Z -1.0000
G00 Z 5.0000

(End cutting path id: path168879)


(Start cutting path id: path168879)
(Change tool to Default tool)

G00 Z 5.0000
G00 X 25.6346 Y 4.0356

G01 Z -1.0000 F 100.0000(Penetrate)
G01 X 25.6321 Y 4.0484 Z -1.0000 F 3500.0000
G03 X 25.5865 Y 4.0483 Z -1.0000 I -0.0226 J -0.0854
G02 X 25.4867 Y 4.0389 Z -1.0000 I -0.0779 J 0.2902
G02 X 25.3854 Y 4.0631 Z -1.0000 I 0.0237 J 0.3234
G03 X 25.2788 Y 4.0922 Z -1.0000 I -0.1661 J -0.3976
G01 X 25.2646 Y 4.0799 Z -1.0000
G03 X 25.3676 Y 3.9638 Z -1.0000 I 0.1170 J 0.0000
G03 X 25.6346 Y 4.0356 Z -1.0000 I 0.0441 J 0.3682
G01 X 25.6346 Y 4.0356 Z -1.0000
G00 Z 5.0000

(End cutting path id: path168879)


(Start cutting path id: path168879)
(Change tool to Default tool)

G00 Z 5.0000
G00 X 25.6739 Y 4.1185

G01 Z -1.0000 F 100.0000(Penetrate)
G03 X 25.8510 Y 4.2565 Z -1.0000 I -0.2807 J 0.5429 F 3500.0000
G03 X 25.8922 Y 4.3654 Z -1.0000 I -0.1231 J 0.1089
G01 X 25.8841 Y 4.3695 Z -1.0000
G03 X 25.7852 Y 4.2844 Z -1.0000 I 0.6303 J -0.8319
G02 X 25.6655 Y 4.2174 Z -1.0000 I -0.1841 J 0.1885
G02 X 25.4714 Y 4.2053 Z -1.0000 I -0.1295 J 0.5138
G03 X 25.2805 Y 4.2127 Z -1.0000 I -0.1395 J -1.1337
G01 X 25.2646 Y 4.1960 Z -1.0000
G03 X 25.3087 Y 4.1253 Z -1.0000 I 0.0787 J 0.0000
G03 X 25.5047 Y 4.0787 Z -1.0000 I 0.2015 J 0.4127
G03 X 25.5922 Y 4.0883 Z -1.0000 I 0.0044 J 0.3627
G03 X 25.6739 Y 4.1185 Z -1.0000 I -0.0813 J 0.3454
G01 X 25.6739 Y 4.1185 Z -1.0000
G00 Z 5.0000

(End cutting path id: path168879)


(Start cutting path id: path168879)
(Change tool to Default tool)

G00 Z 5.0000
G00 X 25.4350 Y 4.4104

G01 Z -1.0000 F 100.0000(Penetrate)
G02 X 25.5519 Y 4.4855 Z -1.0000 I 0.4365 J -0.5510 F 3500.0000
G02 X 25.7528 Y 4.5726 Z -1.0000 I 0.7949 J -1.5572
G01 X 25.7599 Y 4.6042 Z -1.0000
G03 X 25.7065 Y 4.6192 Z -1.0000 I -0.0400 J -0.0397
G03 X 25.4903 Y 4.5275 Z -1.0000 I 0.1761 J -0.7158
G03 X 25.3378 Y 4.3875 Z -1.0000 I 0.3048 J -0.4850
G01 X 25.3497 Y 4.3691 Z -1.0000
G03 X 25.4350 Y 4.4104 Z -1.0000 I -0.0500 J 0.2122
G01 X 25.4350 Y 4.4104 Z -1.0000
G00 Z 5.0000

(End cutting path id: path168879)


(Start cutting path id: path168879)
(Change tool to Default tool)

G00 Z 5.0000
G00 X 25.2271 Y 4.2286

G01 Z -1.0000 F 100.0000(Penetrate)
G01 X 25.1841 Y 4.2602 Z -1.0000 F 3500.0000
G01 X 25.1554 Y 4.2332 Z -1.0000
G03 X 25.1914 Y 4.1491 Z -1.0000 I 0.1162 J -0.0000
G01 X 25.2327 Y 4.1594 Z -1.0000
G03 X 25.2362 Y 4.1885 Z -1.0000 I -0.0688 J 0.0231
G03 X 25.2271 Y 4.2286 Z -1.0000 I -0.1461 J -0.0121
G01 X 25.2271 Y 4.2286 Z -1.0000
G00 Z 5.0000

(End cutting path id: path168879)


(Start cutting path id: path168879)
(Change tool to Default tool)

G00 Z 5.0000
G00 X 25.0987 Y 4.4256

G01 Z -1.0000 F 100.0000(Penetrate)
G03 X 25.0868 Y 4.6083 Z -1.0000 I -1.7112 J -0.0203 F 3500.0000
G03 X 25.0636 Y 4.7189 Z -1.0000 I -0.6429 J -0.0768
G03 X 25.0155 Y 4.7682 Z -1.0000 I -0.0715 J -0.0216
G03 X 24.9566 Y 4.7543 Z -1.0000 I -0.0181 J -0.0549
G03 X 24.8972 Y 4.6744 Z -1.0000 I 0.2384 J -0.2392
G03 X 24.8825 Y 4.6158 Z -1.0000 I 0.1094 J -0.0585
G03 X 24.9556 Y 4.3145 Z -1.0000 I 0.6577 J 0.0000
G03 X 25.0756 Y 4.2414 Z -1.0000 I 0.1200 J 0.0618
G01 X 25.0889 Y 4.2531 Z -1.0000
G03 X 25.0987 Y 4.4256 Z -1.0000 I -1.2566 J 0.1579
G01 X 25.0987 Y 4.4256 Z -1.0000
G00 Z 5.0000

(End cutting path id: path168879)


(Start cutting path id: path168879)
(Change tool to Default tool)

G00 Z 5.0000
G00 X 24.7308 Y 5.1078

G01 Z -1.0000 F 100.0000(Penetrate)
G02 X 24.4622 Y 6.2399 Z -1.0000 I 8.3847 J 2.5868 F 3500.0000
G02 X 24.2924 Y 7.7149 Z -1.0000 I 14.0937 J 2.3695
G03 X 24.2431 Y 8.0164 Z -1.0000 I -1.5347 J -0.0962
G01 X 24.2093 Y 8.0255 Z -1.0000
G03 X 24.1705 Y 7.9158 Z -1.0000 I 0.0954 J -0.0954
G03 X 24.3932 Y 6.3018 Z -1.0000 I 26.3151 J 2.8073
G03 X 24.6692 Y 5.0395 Z -1.0000 I 13.4356 J 2.2766
G03 X 24.7491 Y 4.9782 Z -1.0000 I 0.0799 J 0.0215
G01 X 24.7576 Y 4.9880 Z -1.0000
G03 X 24.7308 Y 5.1078 Z -1.0000 I -0.7623 J -0.1075
G01 X 24.7308 Y 5.1078 Z -1.0000
G00 Z 5.0000

(End cutting path id: path168879)


(Start cutting path id: path168879)
(Change tool to Default tool)

G00 Z 5.0000
G00 X 24.2584 Y 4.7771

G01 Z -1.0000 F 100.0000(Penetrate)
G02 X 24.1808 Y 5.1289 Z -1.0000 I 18.6151 J 4.2907 F 3500.0000
G02 X 24.1470 Y 5.3057 Z -1.0000 I 4.6482 J 0.9794
G03 X 24.0212 Y 5.5507 Z -1.0000 I -0.4524 J -0.0776
G03 X 23.8229 Y 5.6338 Z -1.0000 I -0.1990 J -0.1966
G02 X 23.5591 Y 5.6390 Z -1.0000 I 0.0198 J 7.7062
G02 X 23.0814 Y 5.6611 Z -1.0000 I 0.9325 J 25.3227
G03 X 22.6036 Y 5.6833 Z -1.0000 I -1.4285 J -25.6113
G03 X 21.5805 Y 5.7168 Z -1.0000 I -4.3584 J -117.5136
G02 X 20.5571 Y 5.7461 Z -1.0000 I 56.4430 J 1989.3424
G02 X 20.1774 Y 5.7573 Z -1.0000 I 7.9969 J 276.8196
G03 X 19.8022 Y 5.7557 Z -1.0000 I -0.1642 J -5.3977
G03 X 19.7644 Y 5.7412 Z -1.0000 I 0.0025 J -0.0630
G01 X 19.7369 Y 5.7358 Z -1.0000
G01 X 19.7145 Y 5.7569 Z -1.0000
G01 X 19.6849 Y 5.7809 Z -1.0000
G03 X 19.4725 Y 5.7955 Z -1.0000 I -0.1871 J -1.1746
G02 X 19.2472 Y 5.7927 Z -1.0000 I -0.2778 J 13.2428
G02 X 18.9123 Y 5.7933 Z -1.0000 I -0.1147 J 28.9680
G03 X 18.3584 Y 5.7542 Z -1.0000 I -0.0279 J -3.5535
G03 X 18.2109 Y 5.6883 Z -1.0000 I 0.0445 J -0.2973
G03 X 18.1870 Y 5.6505 Z -1.0000 I 0.0461 J -0.0555
G03 X 18.1599 Y 5.4884 Z -1.0000 I 0.9498 J -0.2420
G02 X 18.1431 Y 5.3196 Z -1.0000 I -4.7360 J 0.3870
G02 X 18.1159 Y 5.1146 Z -1.0000 I -7.0396 J 0.8291
G03 X 18.0985 Y 4.9099 Z -1.0000 I 1.6535 J -0.2438
G03 X 18.1076 Y 4.7598 Z -1.0000 I 0.8943 J -0.0210
G03 X 18.1625 Y 4.6511 Z -1.0000 I 0.1900 J 0.0277
G03 X 18.2494 Y 4.6193 Z -1.0000 I 0.0780 J 0.0787
G03 X 18.3680 Y 4.6363 Z -1.0000 I -0.0776 J 0.9660
G03 X 18.6309 Y 4.6982 Z -1.0000 I -0.9933 J 4.8028
G02 X 18.8940 Y 4.7585 Z -1.0000 I 1.0190 J -3.8458
G02 X 19.0530 Y 4.7799 Z -1.0000 I 0.2671 J -1.3804
G02 X 19.4171 Y 4.7668 Z -1.0000 I 0.1241 J -1.6097
G02 X 19.8612 Y 4.6584 Z -1.0000 I -0.3778 J -2.5126
G03 X 20.0698 Y 4.6103 Z -1.0000 I 0.3381 J 0.9889
G03 X 20.5050 Y 4.5780 Z -1.0000 I 0.5386 J 4.3122
G03 X 20.9398 Y 4.5862 Z -1.0000 I 0.1210 J 5.1120
G03 X 21.0236 Y 4.6099 Z -1.0000 I -0.0126 J 0.2044
G02 X 21.1076 Y 4.6325 Z -1.0000 I 0.0909 J -0.1704
G02 X 21.7447 Y 4.6357 Z -1.0000 I 0.3708 J -10.3566
G03 X 22.3849 Y 4.6378 Z -1.0000 I 0.2848 J 11.0754
G03 X 22.6249 Y 4.6639 Z -1.0000 I -0.0507 J 1.5794
G02 X 22.8636 Y 4.7021 Z -1.0000 I 0.8433 J -4.5008
G02 X 22.9110 Y 4.7020 Z -1.0000 I 0.0233 J -0.1747
G03 X 22.9587 Y 4.7000 Z -1.0000 I 0.0343 J 0.2493
G03 X 23.1785 Y 4.7164 Z -1.0000 I -0.2796 J 5.2499
G02 X 23.3961 Y 4.7169 Z -1.0000 I 0.1115 J -1.1724
G02 X 23.5700 Y 4.6810 Z -1.0000 I -0.0706 J -0.7803
G02 X 23.7383 Y 4.6178 Z -1.0000 I -0.6729 J -2.0495
G02 X 23.8276 Y 4.5718 Z -1.0000 I -0.2622 J -0.6190
G03 X 23.9178 Y 4.5302 Z -1.0000 I 0.2206 J 0.3596
G03 X 24.0502 Y 4.4995 Z -1.0000 I 0.2444 J 0.7518
G02 X 24.1842 Y 4.4721 Z -1.0000 I -0.1636 J -1.1432
G02 X 24.2549 Y 4.4449 Z -1.0000 I -0.0915 J -0.3431
G03 X 24.3222 Y 4.4159 Z -1.0000 I 0.2500 J 0.4867
G01 X 24.3312 Y 4.4179 Z -1.0000
G01 X 24.3342 Y 4.4274 Z -1.0000
G03 X 24.2584 Y 4.7770 Z -1.0000 I -13.2705 J -2.6917
G01 X 24.2584 Y 4.7771 Z -1.0000
G00 Z 5.0000

(End cutting path id: path168879)


(Start cutting path id: path168879)
(Change tool to Default tool)

G00 Z 5.0000
G00 X 24.8438 Y 6.1227

G01 Z -1.0000 F 100.0000(Penetrate)
G02 X 24.8946 Y 6.4605 Z -1.0000 I 9.0820 J -1.1924 F 3500.0000
G02 X 24.9108 Y 6.5184 Z -1.0000 I 0.2800 J -0.0474
G03 X 24.9306 Y 6.5755 Z -1.0000 I -0.5893 J 0.2353
G03 X 24.9500 Y 6.6520 Z -1.0000 I -1.0418 J 0.3049
G02 X 24.9773 Y 6.7236 Z -1.0000 I 0.2473 J -0.0535
G02 X 25.0302 Y 6.7930 Z -1.0000 I 0.2831 J -0.1609
G03 X 25.0881 Y 6.8611 Z -1.0000 I -0.3921 J 0.3921
G03 X 25.2740 Y 7.1318 Z -1.0000 I -6.0683 J 4.3685
G02 X 25.4653 Y 7.3867 Z -1.0000 I 2.1001 J -1.3760
G02 X 25.5092 Y 7.4070 Z -1.0000 I 0.0439 J -0.0375
G03 X 25.5520 Y 7.4250 Z -1.0000 I -0.0000 J 0.0597
G03 X 25.6053 Y 7.5058 Z -1.0000 I -0.1858 J 0.1806
G03 X 25.6417 Y 7.6556 Z -1.0000 I -0.4529 J 0.1892
G01 X 25.6193 Y 7.6799 Z -1.0000
G01 X 25.6006 Y 7.6713 Z -1.0000
G01 X 25.5920 Y 7.6484 Z -1.0000
G01 X 25.5825 Y 7.6209 Z -1.0000
G02 X 25.4889 Y 7.5187 Z -1.0000 I -0.7844 J 0.6240
G03 X 25.3908 Y 7.4161 Z -1.0000 I 1.0316 J -1.0843
G03 X 25.2675 Y 7.2640 Z -1.0000 I 2.1496 J -1.8681
G02 X 25.1460 Y 7.1247 Z -1.0000 I -1.0424 J 0.7870
G01 X 25.1251 Y 7.1223 Z -1.0000
G01 X 25.1096 Y 7.1216 Z -1.0000
G01 X 25.1008 Y 7.1038 Z -1.0000
G01 X 25.0947 Y 7.0853 Z -1.0000
G01 X 25.0865 Y 7.0847 Z -1.0000
G02 X 25.0748 Y 7.1573 Z -1.0000 I 0.0444 J 0.0444
G01 X 25.1310 Y 7.1732 Z -1.0000
G01 X 25.1450 Y 7.1768 Z -1.0000
G03 X 25.1554 Y 7.2159 Z -1.0000 I -0.0684 J 0.0391
G03 X 25.1432 Y 7.2518 Z -1.0000 I -0.0587 J -0.0000
G01 X 25.1252 Y 7.2551 Z -1.0000
G01 X 25.1131 Y 7.2597 Z -1.0000
G02 X 25.1134 Y 7.2944 Z -1.0000 I 0.0563 J 0.0169
G03 X 25.1071 Y 7.3408 Z -1.0000 I -0.0521 J 0.0165
G03 X 25.0549 Y 7.3840 Z -1.0000 I -0.0955 J -0.0624
G02 X 25.0201 Y 7.4123 Z -1.0000 I 0.0296 J 0.0720
G01 X 25.0258 Y 7.4269 Z -1.0000
G03 X 25.0688 Y 7.4420 Z -1.0000 I -0.0493 J 0.2088
G01 X 25.0736 Y 7.4496 Z -1.0000
G03 X 25.0372 Y 7.5344 Z -1.0000 I -0.1172 J 0.0000
G03 X 24.9465 Y 7.5707 Z -1.0000 I -0.0907 J -0.0951
G01 X 24.9217 Y 7.5819 Z -1.0000
G02 X 24.8952 Y 7.6283 Z -1.0000 I 0.0956 J 0.0852
G03 X 24.8107 Y 7.7634 Z -1.0000 I -0.3048 J -0.0967
G03 X 24.6809 Y 7.8319 Z -1.0000 I -0.1868 J -0.1966
G02 X 24.5978 Y 7.8552 Z -1.0000 I 0.1472 J 0.6844
G02 X 24.5261 Y 7.8858 Z -1.0000 I 0.1876 J 0.5384
G03 X 24.4401 Y 7.8799 Z -1.0000 I -0.0381 J -0.0747
G03 X 24.4061 Y 7.8021 Z -1.0000 I 0.0464 J -0.0666
G02 X 24.4156 Y 7.7206 Z -1.0000 I -1.7184 J -0.2421
G02 X 24.4328 Y 7.5161 Z -1.0000 I -11.3511 J -1.0548
G03 X 24.4502 Y 7.3117 Z -1.0000 I 9.5365 J 0.7116
G03 X 24.4735 Y 7.0931 Z -1.0000 I 11.0024 J 1.0588
G02 X 24.4965 Y 6.8746 Z -1.0000 I -10.3709 J -1.2057
G02 X 24.5136 Y 6.6701 Z -1.0000 I -9.0038 J -0.8552
G03 X 24.5422 Y 6.3541 Z -1.0000 I 8.7047 J 0.6281
G03 X 24.5953 Y 5.9197 Z -1.0000 I 16.4946 J 1.7950
G03 X 24.6753 Y 5.4466 Z -1.0000 I 7.2572 J 0.9840
G03 X 24.7393 Y 5.2101 Z -1.0000 I 1.8712 J 0.3799
G01 X 24.7506 Y 5.2112 Z -1.0000
G03 X 24.7786 Y 5.4694 Z -1.0000 I -3.0368 J 0.4599
G02 X 24.8045 Y 5.7827 Z -1.0000 I 9.2693 J -0.6095
G02 X 24.8438 Y 6.1227 Z -1.0000 I 10.9732 J -1.0955
G01 X 24.8438 Y 6.1227 Z -1.0000
G00 Z 5.0000

(End cutting path id: path168879)


(Start cutting path id: path168879)
(Change tool to Default tool)

G00 Z 5.0000
G00 X 25.4556 Y 6.6959

G01 Z -1.0000 F 100.0000(Penetrate)
G01 X 25.4620 Y 6.7179 Z -1.0000 F 3500.0000
G02 X 25.4826 Y 6.7382 Z -1.0000 I 0.0545 J -0.0347
G01 X 25.4930 Y 6.7349 Z -1.0000
G01 X 25.4933 Y 6.7125 Z -1.0000
G01 X 25.4691 Y 6.6871 Z -1.0000
G01 X 25.4556 Y 6.6959 Z -1.0000
G01 X 25.4556 Y 6.6959 Z -1.0000
G00 Z 5.0000

(End cutting path id: path168879)


(Start cutting path id: path168879)
(Change tool to Default tool)

G00 Z 5.0000
G00 X 25.6069 Y 7.9135

G01 Z -1.0000 F 100.0000(Penetrate)
G03 X 25.5789 Y 8.0233 Z -1.0000 I -0.5609 J -0.0842 F 3500.0000
G01 X 25.5628 Y 8.0346 Z -1.0000
G01 X 25.5328 Y 8.0022 Z -1.0000
G03 X 25.5839 Y 7.7617 Z -1.0000 I 0.9304 J 0.0719
G01 X 25.6067 Y 7.7639 Z -1.0000
G03 X 25.6069 Y 7.9135 Z -1.0000 I -0.4962 J 0.0752
G01 X 25.6069 Y 7.9135 Z -1.0000
G00 Z 5.0000

(End cutting path id: path168879)


(Start cutting path id: path168879)
(Change tool to Default tool)

G00 Z 5.0000
G00 X 25.7694 Y 8.0346

G01 Z -1.0000 F 100.0000(Penetrate)
G03 X 25.7488 Y 8.0552 Z -1.0000 I -0.0541 J -0.0335 F 3500.0000
G01 X 25.7253 Y 8.0619 Z -1.0000
G01 X 25.7131 Y 8.0535 Z -1.0000
G01 X 25.7149 Y 8.0346 Z -1.0000
G03 X 25.7355 Y 8.0140 Z -1.0000 I 0.0541 J 0.0335
G01 X 25.7590 Y 8.0073 Z -1.0000
G01 X 25.7712 Y 8.0157 Z -1.0000
G01 X 25.7694 Y 8.0346 Z -1.0000
G01 X 25.7694 Y 8.0346 Z -1.0000
G00 Z 5.0000

(End cutting path id: path168879)


(Start cutting path id: path168879)
(Change tool to Default tool)

G00 Z 5.0000
G00 X 25.7316 Y 8.3007

G01 Z -1.0000 F 100.0000(Penetrate)
G03 X 25.7327 Y 8.4848 Z -1.0000 I -8.4848 J 0.1424 F 3500.0000
G03 X 25.7304 Y 8.5298 Z -1.0000 I -0.4906 J -0.0024
G01 X 25.7391 Y 8.5624 Z -1.0000
G01 X 25.7614 Y 8.5733 Z -1.0000
G03 X 25.8628 Y 8.5985 Z -1.0000 I 0.0077 J 0.1855
G03 X 25.8923 Y 8.6498 Z -1.0000 I -0.0300 J 0.0513
G02 X 25.9065 Y 8.7137 Z -1.0000 I 0.1502 J -0.0000
G02 X 25.9583 Y 8.7904 Z -1.0000 I 0.2723 J -0.1278
G03 X 25.9894 Y 8.8635 Z -1.0000 I -0.0860 J 0.0798
G03 X 25.9668 Y 8.9393 Z -1.0000 I -0.1162 J 0.0066
G03 X 25.8931 Y 8.9907 Z -1.0000 I -0.1130 J -0.0835
G01 X 25.8639 Y 8.9693 Z -1.0000
G01 X 25.8527 Y 8.9634 Z -1.0000
G02 X 25.8221 Y 8.9966 Z -1.0000 I 0.0503 J 0.0771
G03 X 25.7452 Y 9.0478 Z -1.0000 I -0.0868 J -0.0471
G03 X 25.6879 Y 9.0102 Z -1.0000 I -0.0055 J -0.0542
G01 X 25.6692 Y 8.9898 Z -1.0000
G01 X 25.6554 Y 8.9966 Z -1.0000
G03 X 25.6358 Y 9.0355 Z -1.0000 I -0.1027 J -0.0274
G01 X 25.6174 Y 9.0444 Z -1.0000
G02 X 25.5500 Y 9.1122 Z -1.0000 I 0.0000 J 0.0674
G02 X 25.6194 Y 9.3445 Z -1.0000 I 0.4333 J -0.0029
G01 X 25.6348 Y 9.3450 Z -1.0000
G02 X 25.6491 Y 9.3036 Z -1.0000 I -0.0611 J -0.0444
G02 X 25.6503 Y 9.2218 Z -1.0000 I -1.5979 J -0.0639
G02 X 25.6473 Y 9.1451 Z -1.0000 I -1.3939 J 0.0157
G01 X 25.6649 Y 9.1060 Z -1.0000
G01 X 25.7005 Y 9.1041 Z -1.0000
G02 X 25.7524 Y 9.1149 Z -1.0000 I 0.0410 J -0.0669
G01 X 25.7860 Y 9.0921 Z -1.0000
G03 X 25.8179 Y 9.0527 Z -1.0000 I 0.1348 J 0.0765
G01 X 25.8399 Y 9.0444 Z -1.0000
G01 X 25.8478 Y 9.0553 Z -1.0000
G03 X 25.8044 Y 9.1540 Z -1.0000 I -0.5027 J -0.1623
G02 X 25.7613 Y 9.2594 Z -1.0000 I 0.3865 J 0.2193
G01 X 25.7700 Y 9.2836 Z -1.0000
G03 X 25.8461 Y 9.3845 Z -1.0000 I -0.1240 J 0.1727
G03 X 25.8480 Y 9.5011 Z -1.0000 I -0.1704 J 0.0611
G01 X 25.8497 Y 9.5154 Z -1.0000
G01 X 25.8568 Y 9.5157 Z -1.0000
G03 X 26.2179 Y 9.5192 Z -1.0000 I 0.1793 J 0.1299
G03 X 26.2324 Y 10.0556 Z -1.0000 I -0.4015 J 0.2793
G01 X 26.2359 Y 10.0650 Z -1.0000
G01 X 26.2593 Y 10.0645 Z -1.0000
G01 X 26.2904 Y 10.0645 Z -1.0000
G01 X 26.3016 Y 10.0807 Z -1.0000
G01 X 26.3118 Y 10.0991 Z -1.0000
G01 X 26.3356 Y 10.1019 Z -1.0000
G01 X 26.3585 Y 10.0807 Z -1.0000
G02 X 26.4028 Y 9.9427 Z -1.0000 I -0.7503 J -0.3169
G01 X 26.4148 Y 9.9428 Z -1.0000
G03 X 26.4211 Y 10.0268 Z -1.0000 I -0.2960 J 0.0646
G03 X 26.3502 Y 10.4920 Z -1.0000 I -2.7036 J -0.1743
G01 X 26.3089 Y 10.4890 Z -1.0000
G02 X 26.2797 Y 10.3854 Z -1.0000 I -0.2973 J 0.0276
G02 X 26.1254 Y 10.1141 Z -1.0000 I -2.2582 J 1.1050
G03 X 25.9578 Y 9.8463 Z -1.0000 I 6.5866 J -4.3083
G03 X 25.8895 Y 9.7198 Z -1.0000 I 1.3960 J -0.8351
G02 X 25.8218 Y 9.5982 Z -1.0000 I -1.0843 J 0.5247
G01 X 25.8071 Y 9.5902 Z -1.0000
G01 X 25.7942 Y 9.5985 Z -1.0000
G02 X 25.7688 Y 9.6751 Z -1.0000 I 0.3545 J 0.1600
G03 X 25.7380 Y 9.7538 Z -1.0000 I -0.2641 J -0.0580
G03 X 25.6609 Y 9.8593 Z -1.0000 I -0.5580 J -0.3269
G02 X 25.4829 Y 10.1155 Z -1.0000 I 0.9274 J 0.8341
G02 X 25.2201 Y 10.7024 Z -1.0000 I 4.6959 J 2.4549
G02 X 25.1694 Y 10.8760 Z -1.0000 I 1.1120 J 0.4190
G02 X 25.1452 Y 11.0571 Z -1.0000 I 1.1886 J 0.2508
G01 X 25.1458 Y 11.1593 Z -1.0000
G03 X 25.2135 Y 10.8675 Z -1.0000 I 1.6008 J 0.2178
G03 X 25.3930 Y 10.4157 Z -1.0000 I 4.0376 J 1.3422
G03 X 25.5941 Y 10.0431 Z -1.0000 I 3.2169 J 1.4959
G01 X 25.6194 Y 10.0503 Z -1.0000
G03 X 25.6147 Y 10.0728 Z -1.0000 I -0.0565 J -0.0000
G03 X 25.4562 Y 10.4260 Z -1.0000 I -14.7167 J -6.3908
G02 X 25.3034 Y 10.7814 Z -1.0000 I 6.3736 J 2.9524
G02 X 25.2783 Y 10.8733 Z -1.0000 I 0.3958 J 0.1575
G01 X 25.2856 Y 10.8780 Z -1.0000
G01 X 25.3004 Y 10.8591 Z -1.0000
G03 X 25.3432 Y 10.7525 Z -1.0000 I 0.9724 J 0.3289
G03 X 25.5020 Y 10.4289 Z -1.0000 I 9.1432 J 4.2847
G03 X 25.6504 Y 10.2138 Z -1.0000 I 0.8969 J 0.4600
G01 X 25.6866 Y 10.2242 Z -1.0000
G03 X 25.7022 Y 10.3410 Z -1.0000 I -1.5671 J 0.2688
G03 X 25.7050 Y 10.4157 Z -1.0000 I -0.6371 J 0.0612
G02 X 25.7135 Y 10.4808 Z -1.0000 I 0.2196 J 0.0046
G01 X 25.7266 Y 10.4907 Z -1.0000
G01 X 25.7414 Y 10.4988 Z -1.0000
G01 X 25.7485 Y 10.5248 Z -1.0000
G02 X 25.7612 Y 10.6555 Z -1.0000 I 0.4918 J 0.0183
G01 X 25.7799 Y 10.6587 Z -1.0000
G01 X 25.7977 Y 10.6559 Z -1.0000
G03 X 25.8210 Y 10.6932 Z -1.0000 I -0.0458 J 0.0546
G02 X 26.0337 Y 11.2711 Z -1.0000 I 2.8034 J -0.7036
G02 X 26.1394 Y 11.3367 Z -1.0000 I 0.1056 J -0.0523
G01 X 26.1575 Y 11.3258 Z -1.0000
G02 X 26.1830 Y 11.2543 Z -1.0000 I -0.2327 J -0.1231
G03 X 26.2067 Y 11.1768 Z -1.0000 I 0.4033 J 0.0809
G01 X 26.2237 Y 11.1569 Z -1.0000
G01 X 26.2371 Y 11.1394 Z -1.0000
G01 X 26.2344 Y 11.1201 Z -1.0000
G03 X 26.1916 Y 10.8970 Z -1.0000 I 0.2716 J -0.1678
G03 X 26.3158 Y 10.6585 Z -1.0000 I 0.4400 J 0.0774
G01 X 26.3398 Y 10.6693 Z -1.0000
G03 X 26.2907 Y 11.0695 Z -1.0000 I -3.2899 J -0.2005
G02 X 26.2191 Y 11.4596 Z -1.0000 I 120.0668 J 22.2548
G02 X 26.2058 Y 11.5361 Z -1.0000 I 4.6470 J 0.8457
G03 X 26.0672 Y 12.1066 Z -1.0000 I -3.8830 J -0.6411
G03 X 25.8241 Y 12.7158 Z -1.0000 I -4.6723 J -1.5119
G03 X 25.6062 Y 13.0605 Z -1.0000 I -1.5771 J -0.7552
G03 X 25.4266 Y 13.2070 Z -1.0000 I -0.4392 J -0.3554
G03 X 25.2641 Y 13.2468 Z -1.0000 I -0.1639 J -0.3170
G03 X 25.1063 Y 13.2083 Z -1.0000 I -0.0014 J -0.3363
G03 X 24.8627 Y 12.9851 Z -1.0000 I 0.3005 J -0.5725
G03 X 24.5881 Y 12.4010 Z -1.0000 I 2.0769 J -1.3332
G03 X 24.5862 Y 12.3294 Z -1.0000 I 0.1224 J -0.0390
G01 X 24.6071 Y 12.3284 Z -1.0000
G02 X 24.7185 Y 12.6218 Z -1.0000 I 10.5065 J -3.8192
G02 X 24.7304 Y 12.6400 Z -1.0000 I 0.0497 J -0.0197
G01 X 24.7383 Y 12.6370 Z -1.0000
G02 X 24.7461 Y 12.4097 Z -1.0000 I -3.3210 J -0.2273
G03 X 24.7744 Y 11.7215 Z -1.0000 I 8.3801 J 0.0000
G01 X 24.8030 Y 11.7187 Z -1.0000
G01 X 24.8140 Y 11.7199 Z -1.0000
G02 X 24.8252 Y 11.6770 Z -1.0000 I -0.0851 J -0.0453
G03 X 24.8709 Y 11.1414 Z -1.0000 I 4.4711 J 0.1114
G03 X 24.9634 Y 10.7324 Z -1.0000 I 2.6848 J 0.3925
G03 X 25.3269 Y 9.9139 Z -1.0000 I 3.6310 J 1.1226
G03 X 25.5123 Y 9.8084 Z -1.0000 I 0.1854 J 0.1101
G02 X 25.5539 Y 9.7929 Z -1.0000 I -0.0000 J -0.0635
G02 X 25.6050 Y 9.7279 Z -1.0000 I -0.1440 J -0.1658
G02 X 25.6607 Y 9.5248 Z -1.0000 I -0.4496 J -0.2325
G01 X 25.6193 Y 9.4810 Z -1.0000
G01 X 25.6028 Y 9.4698 Z -1.0000
G03 X 25.5889 Y 9.4059 Z -1.0000 I 0.1774 J -0.0720
G02 X 25.5807 Y 9.3772 Z -1.0000 I -0.0641 J 0.0027
G01 X 25.5733 Y 9.3782 Z -1.0000
G03 X 25.5497 Y 9.4096 Z -1.0000 I -0.0502 J -0.0131
G03 X 25.5014 Y 9.4209 Z -1.0000 I -0.0420 J -0.0706
G02 X 25.4432 Y 9.4264 Z -1.0000 I -0.0132 J 0.1732
G02 X 25.1332 Y 9.5198 Z -1.0000 I 1.3822 J 5.1492
G03 X 24.8266 Y 9.6142 Z -1.0000 I -2.1151 J -6.3197
G01 X 24.8118 Y 9.6104 Z -1.0000
G01 X 24.8130 Y 9.5998 Z -1.0000
G03 X 24.9899 Y 9.4975 Z -1.0000 I 1.3497 J 2.1294
G02 X 25.1758 Y 9.3919 Z -1.0000 I -1.5330 J -2.9171
G02 X 25.1969 Y 9.3709 Z -1.0000 I -0.0336 J -0.0549
G01 X 25.1620 Y 9.3151 Z -1.0000
G02 X 24.8143 Y 9.4101 Z -1.0000 I 0.1124 J 1.0949
G02 X 24.4291 Y 9.6591 Z -1.0000 I 0.6748 J 1.4664
G02 X 24.3640 Y 9.8022 Z -1.0000 I 0.1246 J 0.1431
G01 X 24.3760 Y 9.8168 Z -1.0000
G02 X 24.5723 Y 9.8436 Z -1.0000 I 0.3198 J -1.6063
G03 X 24.7639 Y 9.8899 Z -1.0000 I -0.0463 J 0.6115
G01 X 24.7584 Y 9.9219 Z -1.0000
G03 X 24.6409 Y 9.9225 Z -1.0000 I -0.0648 J -1.2195
G03 X 24.4517 Y 9.9087 Z -1.0000 I 0.1374 J -3.1827
G02 X 24.2965 Y 9.9177 Z -1.0000 I -0.0499 J 0.4828
G02 X 24.2566 Y 9.9520 Z -1.0000 I 0.0121 J 0.0544
G01 X 24.2327 Y 9.9746 Z -1.0000
G01 X 24.2139 Y 9.9657 Z -1.0000
G03 X 24.2041 Y 9.9171 Z -1.0000 I 0.1242 J -0.0502
G03 X 24.2117 Y 9.7883 Z -1.0000 I 0.9083 J -0.0113
G02 X 24.2272 Y 9.6582 Z -1.0000 I -6.0984 J -0.7932
G02 X 24.2349 Y 9.5737 Z -1.0000 I -2.4919 J -0.2702
G03 X 24.2595 Y 9.4985 Z -1.0000 I 0.1652 J 0.0123
G03 X 24.3367 Y 9.4101 Z -1.0000 I 0.3093 J 0.1926
G02 X 24.4314 Y 9.3303 Z -1.0000 I -3.9743 J -4.8104
G02 X 24.4683 Y 9.2969 Z -1.0000 I -0.6504 J -0.7561
G01 X 24.5182 Y 9.3061 Z -1.0000
G03 X 24.5076 Y 9.3790 Z -1.0000 I -0.0597 J 0.0285
G01 X 24.5126 Y 9.3860 Z -1.0000
G02 X 24.5963 Y 9.3400 Z -1.0000 I -0.2173 J -0.4940
G03 X 24.7379 Y 9.2592 Z -1.0000 I 0.6258 J 0.9315
G03 X 24.9827 Y 9.1552 Z -1.0000 I 1.2879 J 2.6931
G02 X 25.2182 Y 9.0460 Z -1.0000 I -0.5875 J -1.5753
G02 X 25.2618 Y 8.9985 Z -1.0000 I -0.0508 J -0.0905
G03 X 25.3007 Y 8.9506 Z -1.0000 I 0.1117 J 0.0509
G03 X 25.3477 Y 8.9352 Z -1.0000 I 0.0470 J 0.0638
G01 X 25.3804 Y 8.9532 Z -1.0000
G03 X 25.3863 Y 8.9966 Z -1.0000 I -0.0448 J 0.0282
G03 X 25.3226 Y 9.0867 Z -1.0000 I -0.1658 J -0.0497
G03 X 25.0931 Y 9.2106 Z -1.0000 I -0.5692 J -0.7797
G02 X 24.9470 Y 9.2725 Z -1.0000 I 0.6836 J 1.8176
G01 X 24.9457 Y 9.2803 Z -1.0000
G02 X 25.0663 Y 9.3043 Z -1.0000 I 0.0783 J -0.0783
G02 X 25.3891 Y 9.0968 Z -1.0000 I -0.4122 J -0.9962
G03 X 25.4486 Y 9.0523 Z -1.0000 I 0.2352 J 0.2524
G03 X 25.4778 Y 9.0443 Z -1.0000 I 0.0292 J 0.0493
G01 X 25.5000 Y 9.0341 Z -1.0000
G01 X 25.5102 Y 9.0065 Z -1.0000
G01 X 25.5217 Y 8.9750 Z -1.0000
G03 X 25.5818 Y 8.9218 Z -1.0000 I 0.2129 J 0.1801
G03 X 25.6485 Y 8.8980 Z -1.0000 I 0.0823 J 0.1257
G01 X 25.6769 Y 8.9118 Z -1.0000
G01 X 25.6913 Y 8.9089 Z -1.0000
G02 X 25.7063 Y 8.7353 Z -1.0000 I -1.0910 J -0.1816
G02 X 25.6368 Y 8.5574 Z -1.0000 I -0.2577 J -0.0018
G02 X 25.4702 Y 8.4829 Z -1.0000 I -0.1719 J 0.1608
G03 X 25.2816 Y 8.4616 Z -1.0000 I 0.0240 J -1.0610
G01 X 25.2646 Y 8.4408 Z -1.0000
G01 X 25.2774 Y 8.4260 Z -1.0000
G03 X 25.3533 Y 8.4280 Z -1.0000 I 0.0322 J 0.2225
G02 X 25.5538 Y 8.4476 Z -1.0000 I 0.2003 J -1.0118
G02 X 25.6231 Y 8.4279 Z -1.0000 I -0.0000 J -0.1319
G01 X 25.6373 Y 8.4082 Z -1.0000
G02 X 25.6470 Y 8.3263 Z -1.0000 I -0.3544 J -0.0834
G03 X 25.6521 Y 8.2399 Z -1.0000 I 0.7961 J 0.0034
G03 X 25.6638 Y 8.1778 Z -1.0000 I 0.4238 J 0.0481
G01 X 25.6978 Y 8.1737 Z -1.0000
G03 X 25.7316 Y 8.3006 Z -1.0000 I -0.2383 J 0.1316
G01 X 25.7316 Y 8.3007 Z -1.0000
G00 Z 5.0000

(End cutting path id: path168879)


(Start cutting path id: path168879)
(Change tool to Default tool)

G00 Z 5.0000
G00 X 25.8703 Y 8.8397

G01 Z -1.0000 F 100.0000(Penetrate)
G02 X 25.8771 Y 8.8737 Z -1.0000 I 0.0937 J -0.0012 F 3500.0000
G01 X 25.8839 Y 8.8733 Z -1.0000
G02 X 25.8897 Y 8.8254 Z -1.0000 I -0.1762 J -0.0458
G02 X 25.8829 Y 8.7914 Z -1.0000 I -0.0933 J 0.0010
G01 X 25.8761 Y 8.7918 Z -1.0000
G02 X 25.8703 Y 8.8397 Z -1.0000 I 0.1751 J 0.0456
G01 X 25.8703 Y 8.8397 Z -1.0000
G00 Z 5.0000

(End cutting path id: path168879)


(Start cutting path id: path168879)
(Change tool to Default tool)

G00 Z 5.0000
G00 X 26.2140 Y 8.5795

G01 Z -1.0000 F 100.0000(Penetrate)
G03 X 26.1398 Y 8.6429 Z -1.0000 I -0.1380 J -0.0862 F 3500.0000
G01 X 26.1106 Y 8.6236 Z -1.0000
G01 X 26.1089 Y 8.6125 Z -1.0000
G02 X 26.0922 Y 8.5643 Z -1.0000 I -0.7622 J 0.2370
G01 X 26.0964 Y 8.5390 Z -1.0000
G01 X 26.1181 Y 8.5334 Z -1.0000
G01 X 26.1524 Y 8.5298 Z -1.0000
G02 X 26.1806 Y 8.4927 Z -1.0000 I -0.0376 J -0.0579
G01 X 26.2026 Y 8.4710 Z -1.0000
G01 X 26.2238 Y 8.4795 Z -1.0000
G03 X 26.2330 Y 8.5236 Z -1.0000 I -0.0656 J 0.0367
G03 X 26.2140 Y 8.5795 Z -1.0000 I -0.1288 J -0.0126
G01 X 26.2140 Y 8.5795 Z -1.0000
G00 Z 5.0000

(End cutting path id: path168879)


(Start cutting path id: path168879)
(Change tool to Default tool)

G00 Z 5.0000
G00 X 26.4841 Y 9.3104

G01 Z -1.0000 F 100.0000(Penetrate)
G01 X 26.4778 Y 9.3104 Z -1.0000 F 3500.0000
G03 X 26.4717 Y 9.2627 Z -1.0000 I 0.1830 J -0.0478
G03 X 26.4778 Y 9.2149 Z -1.0000 I 0.1890 J -0.0000
G01 X 26.4841 Y 9.2149 Z -1.0000
G03 X 26.4903 Y 9.2627 Z -1.0000 I -0.1818 J 0.0478
G03 X 26.4841 Y 9.3104 Z -1.0000 I -0.1879 J -0.0000
G01 X 26.4841 Y 9.3104 Z -1.0000
G00 Z 5.0000

(End cutting path id: path168879)


(Start cutting path id: path168879)
(Change tool to Default tool)

G00 Z 5.0000
G00 X 26.4356 Y 9.7373

G01 Z -1.0000 F 100.0000(Penetrate)
G01 X 26.4233 Y 9.7363 Z -1.0000 F 3500.0000
G01 X 26.4204 Y 9.7175 Z -1.0000
G02 X 26.4325 Y 9.6665 Z -1.0000 I -0.2340 J -0.0826
G02 X 26.4431 Y 9.5402 Z -1.0000 I -1.4331 J -0.1836
G01 X 26.4500 Y 9.5380 Z -1.0000
G01 X 26.4583 Y 9.5599 Z -1.0000
G03 X 26.4542 Y 9.7014 Z -1.0000 I -0.7188 J 0.0500
G03 X 26.4356 Y 9.7373 Z -1.0000 I -0.0584 J -0.0075
G01 X 26.4356 Y 9.7373 Z -1.0000
G00 Z 5.0000

(End cutting path id: path168879)


(Start cutting path id: path168879)
(Change tool to Default tool)

G00 Z 5.0000
G00 X 25.6618 Y 10.7242

G01 Z -1.0000 F 100.0000(Penetrate)
G02 X 25.6498 Y 10.8217 Z -1.0000 I 0.7630 J 0.1431 F 3500.0000
G01 X 25.6552 Y 10.8359 Z -1.0000
G01 X 25.6630 Y 10.8341 Z -1.0000
G02 X 25.6860 Y 10.7484 Z -1.0000 I -0.5489 J -0.1930
G02 X 25.6980 Y 10.6509 Z -1.0000 I -0.7630 J -0.1431
G01 X 25.6926 Y 10.6367 Z -1.0000
G01 X 25.6847 Y 10.6385 Z -1.0000
G02 X 25.6618 Y 10.7242 Z -1.0000 I 0.5489 J 0.1930
G01 X 25.6618 Y 10.7242 Z -1.0000
G00 Z 5.0000

(End cutting path id: path168879)


(Start cutting path id: path168879)
(Change tool to Default tool)

G00 Z 5.0000
G00 X 25.6215 Y 10.9160

G01 Z -1.0000 F 100.0000(Penetrate)
G01 X 25.6295 Y 10.9342 Z -1.0000 F 3500.0000
G01 X 25.6380 Y 10.9325 Z -1.0000
G02 X 25.6438 Y 10.8984 Z -1.0000 I -0.0763 J -0.0306
G01 X 25.6358 Y 10.8802 Z -1.0000
G01 X 25.6273 Y 10.8819 Z -1.0000
G02 X 25.6214 Y 10.9160 Z -1.0000 I 0.0768 J 0.0307
G01 X 25.6215 Y 10.9160 Z -1.0000
G00 Z 5.0000

(End cutting path id: path168879)


(Start cutting path id: path168879)
(Change tool to Default tool)

G00 Z 5.0000
G00 X 25.5942 Y 11.0251

G01 Z -1.0000 F 100.0000(Penetrate)
G01 X 25.6022 Y 11.0434 Z -1.0000 F 3500.0000
G01 X 25.6107 Y 11.0416 Z -1.0000
G02 X 25.6165 Y 11.0076 Z -1.0000 I -0.0763 J -0.0306
G01 X 25.6085 Y 10.9893 Z -1.0000
G01 X 25.6000 Y 10.9911 Z -1.0000
G02 X 25.5942 Y 11.0251 Z -1.0000 I 0.0768 J 0.0307
G01 X 25.5942 Y 11.0251 Z -1.0000
G00 Z 5.0000

(End cutting path id: path168879)


(Start cutting path id: path168879)
(Change tool to Default tool)

G00 Z 5.0000
G00 X 25.2426 Y 11.0501

G01 Z -1.0000 F 100.0000(Penetrate)
G02 X 25.2494 Y 11.0842 Z -1.0000 I 0.0937 J -0.0012 F 3500.0000
G01 X 25.2562 Y 11.0837 Z -1.0000
G02 X 25.2620 Y 11.0359 Z -1.0000 I -0.1762 J -0.0458
G02 X 25.2552 Y 11.0019 Z -1.0000 I -0.0933 J 0.0010
G01 X 25.2484 Y 11.0023 Z -1.0000
G02 X 25.2426 Y 11.0501 Z -1.0000 I 0.1751 J 0.0456
G01 X 25.2426 Y 11.0501 Z -1.0000
G00 Z 5.0000

(End cutting path id: path168879)


(Start cutting path id: path168879)
(Change tool to Default tool)

G00 Z 5.0000
G00 X 25.2178 Y 11.3230

G01 Z -1.0000 F 100.0000(Penetrate)
G02 X 25.2237 Y 11.3842 Z -1.0000 I 0.3274 J -0.0009 F 3500.0000
G01 X 25.2296 Y 11.3841 Z -1.0000
G02 X 25.2351 Y 11.3088 Z -1.0000 I -0.4856 J -0.0738
G02 X 25.2292 Y 11.2476 Z -1.0000 I -0.3284 J 0.0010
G01 X 25.2233 Y 11.2477 Z -1.0000
G02 X 25.2178 Y 11.3230 Z -1.0000 I 0.4896 J 0.0739
G01 X 25.2178 Y 11.3230 Z -1.0000
G00 Z 5.0000

(End cutting path id: path168879)


(Start cutting path id: path168879)
(Change tool to Default tool)

G00 Z 5.0000
G00 X 25.1108 Y 11.5414

G01 Z -1.0000 F 100.0000(Penetrate)
G02 X 25.1159 Y 11.6701 Z -1.0000 I 1.6383 J -0.0008 F 3500.0000
G01 X 25.1210 Y 11.6701 Z -1.0000
G02 X 25.1260 Y 11.5259 Z -1.0000 I -2.0759 J -0.1440
G02 X 25.1209 Y 11.3972 Z -1.0000 I -1.6259 J 0.0001
G01 X 25.1158 Y 11.3972 Z -1.0000
G02 X 25.1108 Y 11.5414 Z -1.0000 I 2.0516 J 0.1431
G01 X 25.1108 Y 11.5414 Z -1.0000
G00 Z 5.0000

(End cutting path id: path168879)


(Start cutting path id: path168879)
(Change tool to Default tool)

G00 Z 5.0000
G00 X 25.1932 Y 12.1008

G01 Z -1.0000 F 100.0000(Penetrate)
G01 X 25.2029 Y 12.2714 Z -1.0000 F 3500.0000
G02 X 25.2077 Y 12.1008 Z -1.0000 I -3.0190 J -0.1706
G02 X 25.2029 Y 11.9302 Z -1.0000 I -3.0236 J 0.0000
G01 X 25.1932 Y 12.1008 Z -1.0000
G01 X 25.1932 Y 12.1008 Z -1.0000
G00 Z 5.0000

(End cutting path id: path168879)


(Start cutting path id: path168879)
(Change tool to Default tool)

G00 Z 5.0000
G00 X 25.0173 Y 12.5736

G01 Z -1.0000 F 100.0000(Penetrate)
G02 X 24.8648 Y 12.7347 Z -1.0000 I 0.3986 J 0.5300 F 3500.0000
G02 X 24.8534 Y 12.8185 Z -1.0000 I 0.0800 J 0.0536
G02 X 24.8945 Y 12.9037 Z -1.0000 I 0.3449 J -0.1138
G02 X 24.9642 Y 12.9875 Z -1.0000 I 0.4030 J -0.2641
G01 X 25.0251 Y 12.9760 Z -1.0000
G02 X 25.0679 Y 12.7624 Z -1.0000 I -0.4269 J -0.1966
G02 X 25.0408 Y 12.5817 Z -1.0000 I -0.8124 J 0.0296
G01 X 25.0173 Y 12.5736 Z -1.0000
G01 X 25.0173 Y 12.5736 Z -1.0000
G00 Z 5.0000

(End cutting path id: path168879)


(Start cutting path id: path168879)
(Change tool to Default tool)

G00 Z 5.0000
G00 X 25.2646 Y 13.3834

G01 Z -1.0000 F 100.0000(Penetrate)
G01 X 25.2541 Y 13.4003 Z -1.0000 F 3500.0000
G03 X 25.2100 Y 13.4107 Z -1.0000 I -0.0442 J -0.0883
G03 X 25.1658 Y 13.4003 Z -1.0000 I -0.0000 J -0.0987
G01 X 25.1554 Y 13.3834 Z -1.0000
G01 X 25.1658 Y 13.3666 Z -1.0000
G03 X 25.2100 Y 13.3561 Z -1.0000 I 0.0442 J 0.0883
G03 X 25.2541 Y 13.3666 Z -1.0000 I 0.0000 J 0.0987
G01 X 25.2646 Y 13.3834 Z -1.0000
G01 X 25.2646 Y 13.3834 Z -1.0000
G00 Z 5.0000

(End cutting path id: path168879)


(Start cutting path id: path168879)
(Change tool to Default tool)

G00 Z 5.0000
G00 X 25.6286 Y 13.6919

G01 Z -1.0000 F 100.0000(Penetrate)
G03 X 25.5886 Y 13.7598 Z -1.0000 I -0.1073 J -0.0174 F 3500.0000
G01 X 25.5543 Y 13.7504 Z -1.0000
G01 X 25.5547 Y 13.7281 Z -1.0000
G01 X 25.5651 Y 13.7247 Z -1.0000
G01 X 25.5805 Y 13.7207 Z -1.0000
G02 X 25.5921 Y 13.6761 Z -1.0000 I -0.0803 J -0.0446
G03 X 25.6123 Y 13.5869 Z -1.0000 I 0.2070 J -0.0000
G01 X 25.6367 Y 13.5827 Z -1.0000
G01 X 25.6403 Y 13.5924 Z -1.0000
G03 X 25.6286 Y 13.6919 Z -1.0000 I -1.1483 J -0.0846
G01 X 25.6286 Y 13.6919 Z -1.0000
G00 Z 5.0000

(End cutting path id: path168879)


(Start cutting path id: path168879)
(Change tool to Default tool)

G00 Z 5.0000
G00 X 25.4991 Y 13.8879

G01 Z -1.0000 F 100.0000(Penetrate)
G03 X 25.4696 Y 13.9329 Z -1.0000 I -0.0799 J -0.0201 F 3500.0000
G03 X 25.4282 Y 13.9428 Z -1.0000 I -0.0317 J -0.0409
G02 X 25.3887 Y 13.9506 Z -1.0000 I -0.0102 J 0.0529
G01 X 25.3733 Y 13.9785 Z -1.0000
G03 X 25.3662 Y 14.0226 Z -1.0000 I -0.1482 J -0.0013
G03 X 25.3452 Y 14.0657 Z -1.0000 I -0.1620 J -0.0522
G01 X 25.3324 Y 14.0637 Z -1.0000
G03 X 25.3252 Y 13.9974 Z -1.0000 I 0.1808 J -0.0531
G03 X 25.3464 Y 13.9061 Z -1.0000 I 0.2968 J 0.0208
G01 X 25.3669 Y 13.8951 Z -1.0000
G01 X 25.3896 Y 13.8875 Z -1.0000
G02 X 25.4029 Y 13.8542 Z -1.0000 I -0.0403 J -0.0354
G01 X 25.4124 Y 13.8472 Z -1.0000
G01 X 25.4283 Y 13.8610 Z -1.0000
G01 X 25.4432 Y 13.8698 Z -1.0000
G01 X 25.4537 Y 13.8587 Z -1.0000
G03 X 25.4794 Y 13.7877 Z -1.0000 I 0.1220 J 0.0041
G01 X 25.5054 Y 13.7922 Z -1.0000
G03 X 25.5093 Y 13.8226 Z -1.0000 I -0.0759 J 0.0252
G03 X 25.4990 Y 13.8878 Z -1.0000 I -0.3621 J -0.0237
G01 X 25.4991 Y 13.8879 Z -1.0000
G00 Z 5.0000

(End cutting path id: path168879)


(Start cutting path id: path168879)
(Change tool to Default tool)

G00 Z 5.0000
G00 X 24.9371 Y 13.9838

G01 Z -1.0000 F 100.0000(Penetrate)
G01 X 24.9291 Y 14.0031 Z -1.0000 F 3500.0000
G01 X 24.9098 Y 14.0111 Z -1.0000
G01 X 24.8905 Y 14.0031 Z -1.0000
G01 X 24.8825 Y 13.9838 Z -1.0000
G01 X 24.8905 Y 13.9645 Z -1.0000
G01 X 24.9098 Y 13.9565 Z -1.0000
G01 X 24.9291 Y 13.9645 Z -1.0000
G01 X 24.9371 Y 13.9838 Z -1.0000
G01 X 24.9371 Y 13.9838 Z -1.0000
G00 Z 5.0000

(End cutting path id: path168879)


(Start cutting path id: path168879)
(Change tool to Default tool)

G00 Z 5.0000
G00 X 24.8279 Y 13.9317

G01 Z -1.0000 F 100.0000(Penetrate)
G01 X 24.8192 Y 13.9421 Z -1.0000 F 3500.0000
G03 X 24.7870 Y 13.9391 Z -1.0000 I -0.0107 J -0.0592
G03 X 24.7570 Y 13.9159 Z -1.0000 I 0.0235 J -0.0616
G03 X 24.7461 Y 13.8820 Z -1.0000 I 0.0473 J -0.0339
G01 X 24.7585 Y 13.8672 Z -1.0000
G01 X 24.7870 Y 13.8746 Z -1.0000
G03 X 24.8215 Y 13.9116 Z -1.0000 I -0.1266 J 0.1525
G01 X 24.8279 Y 13.9317 Z -1.0000
G01 X 24.8279 Y 13.9317 Z -1.0000
G00 Z 5.0000

(End cutting path id: path168879)


(Start cutting path id: path168879)
(Change tool to Default tool)

G00 Z 5.0000
G00 X 24.7188 Y 13.8233

G01 Z -1.0000 F 100.0000(Penetrate)
G01 X 24.7104 Y 13.8355 Z -1.0000 F 3500.0000
G01 X 24.6915 Y 13.8337 Z -1.0000
G03 X 24.6709 Y 13.8131 Z -1.0000 I 0.0335 J -0.0541
G01 X 24.6642 Y 13.7895 Z -1.0000
G01 X 24.6726 Y 13.7773 Z -1.0000
G01 X 24.6915 Y 13.7791 Z -1.0000
G03 X 24.7121 Y 13.7997 Z -1.0000 I -0.0335 J 0.0541
G01 X 24.7188 Y 13.8233 Z -1.0000
G01 X 24.7188 Y 13.8233 Z -1.0000
G00 Z 5.0000

(End cutting path id: path168879)


(Start cutting path id: path168879)
(Change tool to Default tool)

G00 Z 5.0000
G00 X 23.5184 Y 15.5335

G01 Z -1.0000 F 100.0000(Penetrate)
G02 X 23.6403 Y 16.1483 Z -1.0000 I 1.5362 J 0.0149 F 3500.0000
G02 X 23.8334 Y 16.2761 Z -1.0000 I 0.1931 J -0.0819
G01 X 23.8377 Y 16.2703 Z -1.0000
G02 X 23.8169 Y 16.2191 Z -1.0000 I -0.2530 J 0.0730
G03 X 23.7890 Y 16.1607 Z -1.0000 I 0.6228 J -0.3333
G03 X 23.6525 Y 15.8302 Z -1.0000 I 19.9217 J -8.4198
G02 X 23.5251 Y 15.5321 Z -1.0000 I -7.2744 J 2.9338
G01 X 23.5184 Y 15.5335 Z -1.0000
G01 X 23.5184 Y 15.5335 Z -1.0000
G00 Z 5.0000

(End cutting path id: path168879)


(Start cutting path id: path168879)
(Change tool to Default tool)

G00 Z 5.0000
G00 X 23.0565 Y 15.6826

G01 Z -1.0000 F 100.0000(Penetrate)
G02 X 23.0148 Y 15.8012 Z -1.0000 I 0.6174 J 0.2832 F 3500.0000
G01 X 23.0258 Y 15.8054 Z -1.0000
G03 X 23.1152 Y 15.6579 Z -1.0000 I 1.3922 J 0.7434
G01 X 23.1331 Y 15.6485 Z -1.0000
G01 X 23.1665 Y 15.6686 Z -1.0000
G03 X 23.3129 Y 15.9896 Z -1.0000 I -2.7329 J 1.4410
G02 X 23.4237 Y 16.2599 Z -1.0000 I 7.6891 J -2.9912
G02 X 23.4456 Y 16.2978 Z -1.0000 I 0.1693 J -0.0729
G01 X 23.4308 Y 16.3421 Z -1.0000
G03 X 23.1223 Y 16.3914 Z -1.0000 I -0.3528 J -1.2172
G02 X 22.7152 Y 16.4510 Z -1.0000 I 0.0656 J 1.8702
G01 X 22.7090 Y 16.4993 Z -1.0000
G02 X 23.1151 Y 16.6007 Z -1.0000 I 0.3893 J -0.6956
G02 X 23.5153 Y 16.4825 Z -1.0000 I -0.0166 J -0.7928
G01 X 23.5377 Y 16.4285 Z -1.0000
G02 X 23.3911 Y 15.9576 Z -1.0000 I -3.4710 J 0.8221
G03 X 23.2758 Y 15.6519 Z -1.0000 I 14.5018 J -5.6422
G03 X 23.2715 Y 15.6301 Z -1.0000 I 0.0678 J -0.0247
G02 X 23.2312 Y 15.5205 Z -1.0000 I -0.1899 J 0.0076
G02 X 23.1577 Y 15.4847 Z -1.0000 I -0.0736 J 0.0576
G01 X 23.1501 Y 15.4894 Z -1.0000
G02 X 23.0565 Y 15.6826 Z -1.0000 I 4.4999 J 2.3007
G01 X 23.0565 Y 15.6826 Z -1.0000
G00 Z 5.0000

(End cutting path id: path168879)


(Start cutting path id: path168879)
(Change tool to Default tool)

G00 Z 5.0000
G00 X 24.0442 Y 16.9216

G01 Z -1.0000 F 100.0000(Penetrate)
G01 X 24.0212 Y 16.9434 Z -1.0000 F 3500.0000
G02 X 23.9931 Y 17.0301 Z -1.0000 I 0.3253 J 0.1530
G03 X 23.9616 Y 17.1160 Z -1.0000 I -0.2705 J -0.0507
G03 X 23.9172 Y 17.1630 Z -1.0000 I -0.1191 J -0.0681
G03 X 23.6287 Y 17.2881 Z -1.0000 I -0.5145 J -0.7914
G03 X 23.1975 Y 17.3404 Z -1.0000 I -0.4312 J -1.7489
G02 X 22.8562 Y 17.3819 Z -1.0000 I 0.0000 J 1.4258
G02 X 22.7891 Y 17.4411 Z -1.0000 I 0.0231 J 0.0939
G01 X 22.7675 Y 17.4654 Z -1.0000
G03 X 22.7209 Y 17.4769 Z -1.0000 I -0.0466 J -0.0891
G02 X 22.6688 Y 17.4868 Z -1.0000 I 0.0000 J 0.1422
G02 X 22.4850 Y 17.5697 Z -1.0000 I 0.7529 J 1.9122
G03 X 22.3013 Y 17.6560 Z -1.0000 I -1.3546 J -2.6456
G03 X 22.2298 Y 17.6791 Z -1.0000 I -0.1600 J -0.3734
G02 X 22.1646 Y 17.7090 Z -1.0000 I 0.0378 J 0.1687
G02 X 22.0885 Y 17.7841 Z -1.0000 I 0.2278 J 0.3067
G02 X 22.0495 Y 17.8786 Z -1.0000 I 0.1581 J 0.1206
G02 X 22.0569 Y 18.0227 Z -1.0000 I 0.3926 J 0.0520
G02 X 22.1668 Y 18.3516 Z -1.0000 I 1.9273 J -0.4608
G02 X 22.2453 Y 18.4562 Z -1.0000 I 0.2586 J -0.1124
G03 X 22.2745 Y 18.5005 Z -1.0000 I -0.0582 J 0.0702
G03 X 22.2900 Y 18.6073 Z -1.0000 I -0.3612 J 0.1067
G03 X 22.2521 Y 18.7489 Z -1.0000 I -0.2837 J -0.0000
G03 X 22.1866 Y 18.7868 Z -1.0000 I -0.0655 J -0.0378
G02 X 22.1535 Y 18.7969 Z -1.0000 I -0.0000 J 0.0591
G02 X 22.1029 Y 18.8433 Z -1.0000 I 0.1304 J 0.1930
G03 X 22.0461 Y 18.8767 Z -1.0000 I -0.0728 J -0.0590
G03 X 21.7846 Y 18.8986 Z -1.0000 I -0.2547 J -1.4655
G03 X 21.1763 Y 18.8693 Z -1.0000 I 0.0312 J -6.9770
G01 X 21.1699 Y 18.8421 Z -1.0000
G01 X 21.1679 Y 18.8339 Z -1.0000
G02 X 21.0555 Y 18.8351 Z -1.0000 I -0.0477 J 0.7802
G03 X 20.9126 Y 18.8320 Z -1.0000 I -0.0567 J -0.6806
G03 X 20.8054 Y 18.8033 Z -1.0000 I 0.0522 J -0.4101
G02 X 20.6980 Y 18.7718 Z -1.0000 I -0.1953 J 0.4673
G02 X 20.5469 Y 18.7578 Z -1.0000 I -0.1615 J 0.9167
G03 X 20.4621 Y 18.7416 Z -1.0000 I 0.0027 J -0.2456
G01 X 20.4616 Y 18.7252 Z -1.0000
G03 X 21.0394 Y 18.6060 Z -1.0000 I 0.5543 J 1.2268
G03 X 21.4847 Y 18.7432 Z -1.0000 I -0.0147 J 0.8390
G02 X 21.5493 Y 18.7756 Z -1.0000 I 0.1733 J -0.2646
G02 X 21.6112 Y 18.7895 Z -1.0000 I 0.0837 J -0.2287
G02 X 22.0675 Y 18.7988 Z -1.0000 I 0.2953 J -3.2958
G01 X 22.0990 Y 18.7657 Z -1.0000
G01 X 22.0909 Y 18.7494 Z -1.0000
G02 X 22.0047 Y 18.6938 Z -1.0000 I -0.3958 J 0.5193
G03 X 21.9237 Y 18.6367 Z -1.0000 I 0.1961 J -0.3641
G01 X 21.9160 Y 18.6138 Z -1.0000
G01 X 21.9061 Y 18.5954 Z -1.0000
