%
(Header)
(Generated by gcodetools from Inkscape.)
(Using default header. To add your own header create file "header" in the output dir.)
M3
(Header end.)
G21 (All units in mm)

(Start cutting path id: path2)
(Change tool to Default tool)

G00 Z5.000000
G00 X26.286650 Y1.810765

G01 Z-1.000000 F100.0(Penetrate)
G03 X26.280849 Y1.871509 Z-1.000000 I-0.320933 J0.000000 F3500.000000
G02 X26.228099 Y1.931960 Z-1.000000 I0.063866 J0.103337
G02 X26.177920 Y2.071185 Z-1.000000 I0.545717 J0.275340
G03 X26.162284 Y2.110297 Z-1.000000 I-0.133325 J-0.030620
G02 X26.143340 Y2.157765 Z-1.000000 I0.107903 J0.021749
G02 X26.157895 Y2.194836 Z-1.000000 I0.086972 J-0.012754
G02 X26.122195 Y2.267961 Z-1.000000 I0.039579 J0.082042
G02 X26.099870 Y2.373434 Z-1.000000 I0.242973 J0.106528
G03 X26.094948 Y2.409319 Z-1.000000 I-0.137210 J-0.000541
G03 X26.018120 Y2.670324 Z-1.000000 I-7.465397 J-2.055653
G02 X25.996219 Y2.772756 Z-1.000000 I0.537155 J0.168406
G02 X25.984750 Y2.953156 Z-1.000000 I1.663772 J0.196341
G03 X25.976108 Y3.126812 Z-1.000000 I-2.164723 J-0.020688
G02 X25.908139 Y3.174646 Z-1.000000 I-0.009060 J0.051474
G02 X25.941530 Y3.281550 Z-1.000000 I0.118692 J0.021594
G03 X25.988026 Y3.435473 Z-1.000000 I-0.120334 J0.120334
G03 X25.895250 Y3.511432 Z-1.000000 I-0.092776 J-0.018679
G03 X25.884050 Y3.656337 Z-1.000000 I-1.780936 J-0.050623
G02 X25.880246 Y3.773453 Z-1.000000 I0.937636 J0.089072
G03 X25.819600 Y3.823329 Z-1.000000 I0.048787 J-0.024708
G02 X25.804020 Y3.764369 Z-1.000000 I-0.059600 J-0.022352
G03 X25.809094 Y3.741600 Z-1.000000 I0.053618 J0.000000
G03 X25.828090 Y3.713049 Z-1.000000 I0.104923 J0.049212
G02 X25.843100 Y3.682685 Z-1.000000 I-0.046020 J-0.041641
G02 X25.859640 Y3.542289 Z-1.000000 I-1.062893 J-0.196393
G03 X25.882774 Y3.402577 Z-1.000000 I0.630738 J0.032668
G03 X25.906988 Y3.216532 Z-1.000000 I0.912049 J-0.041189
G03 X25.920890 Y3.126216 Z-1.000000 I0.608094 J0.047372
G02 X25.938290 Y3.035959 Z-1.000000 I-1.208798 J-0.279839
G02 X25.957630 Y2.888614 Z-1.000000 I-3.209163 J-0.496169
G03 X25.982954 Y2.706428 Z-1.000000 I3.003527 J0.324639
G03 X25.993400 Y2.678416 Z-1.000000 I0.078693 J0.013392
G02 X26.000068 Y2.661807 Z-1.000000 I-0.047465 J-0.028700
G02 X26.012520 Y2.592776 Z-1.000000 I-0.829274 J-0.185222
G03 X25.958169 Y2.615754 Z-1.000000 I-0.102534 J-0.053222
G03 X25.961450 Y2.511936 Z-1.000000 I0.118057 J0.001957
G02 X25.978407 Y2.459131 Z-1.000000 I-0.205358 J-0.095070
G02 X25.981610 Y2.405917 Z-1.000000 I-0.205533 J-0.039075
G03 X25.985194 Y2.353272 Z-1.000000 I0.196166 J-0.013091
G03 X25.999840 Y2.317197 Z-1.000000 I0.104737 J0.021511
G03 X25.944786 Y2.308434 Z-1.000000 I-0.088045 J-0.088045
G02 X25.913110 Y2.352447 Z-1.000000 I0.079849 J0.033264
G03 X25.908404 Y2.391206 Z-1.000000 I-0.161981 J0.000000
G03 X25.894870 Y2.426407 Z-1.000000 I-0.146341 J-0.036064
G02 X25.881596 Y2.461869 Z-1.000000 I0.124980 J0.066999
G02 X25.871410 Y2.529288 Z-1.000000 I0.447608 J0.102103
G03 X25.862710 Y2.596570 Z-1.000000 I-0.648428 J-0.049642
G03 X25.883490 Y2.207949 Z-1.000000 I1.320259 J0.087237
G02 X25.889385 Y2.175871 Z-1.000000 I-0.087028 J-0.032573
G02 X25.852060 Y2.242969 Z-1.000000 I0.428348 J0.175744
G03 X25.812718 Y2.313497 Z-1.000000 I-0.138401 J-0.030966
G02 X25.761700 Y2.347189 Z-1.000000 I0.070899 J0.038320
G03 X25.752205 Y2.392144 Z-1.000000 I-0.167562 J-0.011910
G02 X25.706700 Y2.479879 Z-1.000000 I0.043068 J0.034304
G02 X25.699957 Y2.305594 Z-1.000000 I-0.606231 J-0.016396
G02 X25.513471 Y2.958705 Z-1.000000 I2.500065 J1.041211
G02 X25.564130 Y3.202276 Z-1.000000 I0.360491 J0.052077
G02 X25.527030 Y3.336235 Z-1.000000 I0.979423 J0.249456
G02 X25.493775 Y3.583124 Z-1.000000 I224.873518 J30.414954
G02 X25.429390 Y4.064145 Z-1.000000 I862.276895 J115.661429
G03 X25.397949 Y4.297664 Z-1.000000 I-112.808300 J-15.069793
G03 X25.383950 Y4.398906 Z-1.000000 I-20.043119 J-2.719761
G02 X25.372369 Y4.500379 Z-1.000000 I1.975877 J0.276893
G02 X25.352400 Y4.757022 Z-1.000000 I12.350556 J1.090099
G03 X25.333780 Y5.013822 Z-1.000000 I-24.475205 J-1.645537
G03 X25.321540 Y5.154064 Z-1.000000 I-7.440736 J-0.578772
G02 X25.310763 Y5.294347 Z-1.000000 I3.443608 J0.335112
G02 X25.306530 Y5.418759 Z-1.000000 I2.782924 J0.156958
G03 X25.301477 Y5.630945 Z-1.000000 I-8.690311 J-0.100796
G03 X25.283810 Y6.049354 Z-1.000000 I-33.866630 J-1.220419
G02 X25.270561 Y6.454635 Z-1.000000 I12.894610 J0.624379
G02 X25.272490 Y6.715902 Z-1.000000 I5.363914 J0.091047
G02 X25.281508 Y6.770094 Z-1.000000 I0.207566 J-0.006694
G01 X25.290190 Y6.773372 Z-1.000000
G03 X25.304670 Y6.823052 Z-1.000000 I-0.149601 J0.043626
G03 X25.297411 Y6.851486 Z-1.000000 I-0.063935 J-0.001180
G02 X25.277960 Y6.901822 Z-1.000000 I0.194102 J0.046119
G02 X25.288176 Y6.974825 Z-1.000000 I0.310023 J-0.006169
G03 X25.320460 Y7.087850 Z-1.000000 I-0.177710 J0.035674
G02 X25.313123 Y7.153373 Z-1.000000 I0.197571 J0.055297
G03 X25.340660 Y7.256530 Z-1.000000 I-0.216821 J0.041013
G02 X25.344822 Y7.323145 Z-1.000000 I0.190598 J0.021529
G02 X25.365140 Y7.357915 Z-1.000000 I0.068087 J-0.016465
G03 X25.433188 Y7.459821 Z-1.000000 I-0.181460 J0.194842
G02 X25.390450 Y7.509478 Z-1.000000 I0.024970 J0.046781
G03 X25.351672 Y7.538991 Z-1.000000 I-0.065555 J-0.045903
G02 X25.311400 Y7.513308 Z-1.000000 I0.056517 J0.052992
G02 X25.340903 Y7.585001 Z-1.000000 I0.175882 J-0.030462
G02 X25.392236 Y7.581845 Z-1.000000 I-0.013580 J-0.051945
G03 X25.418330 Y7.579118 Z-1.000000 I-0.073937 J0.010640
G03 X25.461815 Y7.577888 Z-1.000000 I0.053702 J0.065450
G02 X25.414690 Y7.641678 Z-1.000000 I0.023031 J0.126270
G03 X25.390824 Y7.648753 Z-1.000000 I-0.054524 J-0.140127
G03 X25.341490 Y7.656908 Z-1.000000 I-0.122804 J-0.589632
G03 X25.302200 Y7.648676 Z-1.000000 I-0.007556 J-0.061814
G02 X25.295712 Y8.859033 Z-1.000000 I76.903324 J-0.963731
G03 X25.314407 Y9.273315 Z-1.000000 I-30.661248 J1.211996
G02 X25.327640 Y9.668673 Z-1.000000 I28.892923 J-0.769184
G01 X25.330777 Y9.679436 Z-1.000000
G03 X25.346277 Y10.115404 Z-1.000000 I-33.288907 J1.182824
G02 X25.358393 Y10.541286 Z-1.000000 I36.578680 J-0.827498
G02 X25.374967 Y10.953981 Z-1.000000 I35.123478 J-1.203915
G03 X25.390103 Y11.366698 Z-1.000000 I-22.044375 J1.015100
G03 X25.397247 Y11.770151 Z-1.000000 I-21.018939 J0.573968
G02 X25.403635 Y12.172801 Z-1.000000 I25.967313 J-0.210588
G03 X25.422077 Y12.473580 Z-1.000000 I-13.037831 J0.676195
G02 X25.457285 Y13.285398 Z-1.000000 I31.615490 J-0.964460
G02 X25.492047 Y13.717704 Z-1.000000 I9.002803 J-0.506375
G03 X25.505912 Y13.857911 Z-1.000000 I-11.393266 J1.197424
G03 X25.515907 Y13.974613 Z-1.000000 I-8.360357 J0.774841
G02 X25.525498 Y14.091360 Z-1.000000 I21.399317 J-1.699152
G02 X25.531847 Y14.161456 Z-1.000000 I6.214512 J-0.527586
G03 X25.537739 Y14.231595 Z-1.000000 I-2.943716 J0.282609
G03 X25.555387 Y14.488432 Z-1.000000 I-38.851301 J2.798586
G02 X25.574300 Y14.745163 Z-1.000000 I15.079334 J-0.981811
G02 X25.594647 Y14.966775 Z-1.000000 I11.669489 J-0.959678
G03 X25.613270 Y15.188350 Z-1.000000 I-6.427626 J0.651798
G03 X25.614897 Y15.270395 Z-1.000000 I-0.874870 J0.058389
G01 X25.609199 Y15.271529 Z-1.000000
G03 X25.599447 Y15.235805 Z-1.000000 I0.110551 J-0.049371
G03 X25.565998 Y14.904804 Z-1.000000 I13.449961 J-1.526381
G03 X25.492450 Y14.029109 Z-1.000000 I94.459999 J-8.374410
G02 X25.474682 Y13.826923 Z-1.000000 I-11.533963 J0.911718
G02 X25.469160 Y13.787770 Z-1.000000 I-0.450557 J0.043580
G03 X25.464067 Y13.748578 Z-1.000000 I0.350332 J-0.065452
G03 X25.446120 Y13.476365 Z-1.000000 I17.189121 J-1.269980
G02 X25.429847 Y13.203914 Z-1.000000 I-81.669205 J4.741112
G02 X25.415030 Y12.970331 Z-1.000000 I-57.636854 J3.538955
G03 X25.396768 Y12.603220 Z-1.000000 I11.721563 J-0.767111
G03 X25.368610 Y11.607933 Z-1.000000 I86.150924 J-2.935340
G02 X25.349325 Y10.899217 Z-1.000000 I-75.453907 J1.698607
G02 X25.312960 Y9.864063 Z-1.000000 I-161.087020 J5.140722
G02 X25.303404 Y9.638333 Z-1.000000 I-30.744932 J1.188468
G02 X25.289600 Y9.358029 Z-1.000000 I-43.431292 J1.998363
G03 X25.229062 Y7.481567 Z-1.000000 I46.543760 J-2.440792
G03 X25.250840 Y6.158339 Z-1.000000 I23.166204 J-0.280519
G03 X25.260380 Y5.948144 Z-1.000000 I259.714450 J11.681840
G03 X25.267050 Y5.804116 Z-1.000000 I138.053817 J6.321475
G01 X25.273750 Y5.660091 Z-1.000000
G02 X24.885162 Y5.692077 Z-1.000000 I0.000000 J1.216695
G02 X24.783244 Y5.748761 Z-1.000000 I0.048440 J0.207063
G02 X24.760431 Y5.797493 Z-1.000000 I0.055892 J0.055871
G03 X24.845874 Y5.758961 Z-1.000000 I0.032930 J0.046498
G02 X24.863652 Y5.890983 Z-1.000000 I0.068284 J0.017948
G03 X24.885294 Y5.950011 Z-1.000000 I-0.122095 J0.035993
G02 X24.892011 Y5.976925 Z-1.000000 I0.057282 J-0.000000
G02 X24.916434 Y5.900541 Z-1.000000 I-0.332818 J-0.065538
G03 X24.922738 Y5.837757 Z-1.000000 I0.315821 J-0.000000
G03 X24.914184 Y5.999816 Z-1.000000 I-0.592450 J-0.057570
G03 X24.785644 Y6.130906 Z-1.000000 I-0.228915 J-0.047812
G02 X24.770215 Y6.198749 Z-1.000000 I0.152499 J0.070359
G02 X24.737644 Y9.334661 Z-1.000000 I341.116181 J5.111061
G03 X24.727718 Y10.665890 Z-1.000000 I-386.946060 J-2.219600
G03 X24.721634 Y11.086316 Z-1.000000 I-39.719069 J-0.364493
G03 X24.672842 Y13.358231 Z-1.000000 I-660.749048 J-13.053788
G03 X24.660414 Y13.725476 Z-1.000000 I-17.268191 J-0.400556
G02 X24.655662 Y13.857859 Z-1.000000 I8.217511 J0.361259
G02 X24.635354 Y14.628551 Z-1.000000 I259.506776 J7.223666
G03 X24.611601 Y15.397503 Z-1.000000 I-64.118382 J-1.595771
G01 X24.606504 Y15.410393 Z-1.000000
G03 X24.453499 Y15.406693 Z-1.000000 I0.044630 J-1.816044
G02 X23.994449 Y15.374253 Z-1.000000 I-0.727506 J7.030626
G02 X22.199431 Y15.321013 Z-1.000000 I-4.089736 J107.600783
G02 X20.542372 Y15.328188 Z-1.000000 I-0.688704 J32.296230
G02 X19.077592 Y15.414633 Z-1.000000 I0.759368 J25.320534
G03 X18.820611 Y15.436335 Z-1.000000 I-3.115241 J-35.356103
G03 X18.696120 Y15.445443 Z-1.000000 I-0.662501 J-8.200034
G02 X18.571630 Y15.454545 Z-1.000000 I0.553328 J8.424107
G02 X18.408071 Y15.468653 Z-1.000000 I1.162377 J14.430739
G03 X18.244563 Y15.483527 Z-1.000000 I-5.693581 J-61.682721
G03 X17.972103 Y15.507773 Z-1.000000 I-19.152667 J-213.681639
G02 X17.566647 Y15.544334 Z-1.000000 I9.910552 J112.172040
G02 X17.123524 Y15.585843 Z-1.000000 I12.260196 J133.268897
G02 X16.719042 Y15.627089 Z-1.000000 I2.942323 J30.858359
G02 X16.625275 Y15.639953 Z-1.000000 I0.181421 J1.670508
G03 X16.151986 Y15.713441 Z-1.000000 I-3.720057 J-22.397762
G03 X16.081827 Y15.718483 Z-1.000000 I-0.070159 J-0.485581
G01 X16.053739 Y15.695948 Z-1.000000
G03 X16.017867 Y15.430433 Z-1.000000 I1.554875 J-0.345252
G02 X15.966114 Y14.705204 Z-1.000000 I-17.179781 J0.861502
G02 X15.879249 Y13.934277 Z-1.000000 I-19.482083 J1.804809
G03 X15.858599 Y13.764216 Z-1.000000 I7.561070 J-1.004420
G03 X15.846839 Y13.639853 Z-1.000000 I4.050209 J-0.445720
G02 X15.835670 Y13.515419 Z-1.000000 I-5.734650 J0.452009
G02 X15.814729 Y13.320662 Z-1.000000 I-14.466662 J1.457015
G03 X15.792543 Y13.126026 Z-1.000000 I277.681062 J-31.750756
G03 X15.768719 Y12.915835 Z-1.000000 I367.123396 J-41.717836
G02 X15.702232 Y12.355983 Z-1.000000 I-48.919759 J5.525769
G02 X15.690179 Y12.285239 Z-1.000000 I-0.794699 J0.098995
G03 X15.684888 Y12.253861 Z-1.000000 I0.340692 J-0.073588
G03 X15.659819 Y12.036115 Z-1.000000 I16.050068 J-1.958121
G02 X15.635483 Y11.818217 Z-1.000000 I-32.237902 J3.490237
G02 X15.613219 Y11.631288 Z-1.000000 I-23.748422 J2.733704
G03 X15.590590 Y11.444400 Z-1.000000 I47.009358 J-5.786738
G03 X15.558529 Y11.171965 Z-1.000000 I100.085766 J-11.916685
G02 X15.505359 Y10.738890 Z-1.000000 I-33.820366 J3.932389
G02 X15.402533 Y9.965270 Z-1.000000 I-108.296059 J14.000648
G03 X15.357293 Y9.622529 Z-1.000000 I38.111353 J-5.204883
G03 X15.325153 Y9.358029 Z-1.000000 I22.689669 J-2.891254
G02 X15.294393 Y9.093353 Z-1.000000 I-219.490421 J25.374182
G02 X15.286053 Y9.023268 Z-1.000000 I-16.324916 J1.907194
G03 X15.277794 Y8.953163 Z-1.000000 I8.590157 J-1.047580
G03 X15.232033 Y8.548375 Z-1.000000 I324.107144 J-36.844785
G02 X15.151005 Y7.878562 Z-1.000000 I-39.899541 J4.486890
G02 X15.022326 Y6.929068 Z-1.000000 I-80.330636 J10.403233
G03 X14.967274 Y6.539803 Z-1.000000 I1334.108066 J-188.870443
G03 X14.950826 Y6.423034 Z-1.000000 I142.156495 J-20.083655
G02 X14.875437 Y5.981426 Z-1.000000 I-7.504848 J1.053950
G02 X14.848184 Y5.913108 Z-1.000000 I-0.200368 J0.040334
G01 X14.814840 Y5.890764 Z-1.000000
G03 X14.820030 Y5.966787 Z-1.000000 I-0.313535 J0.120464
G03 X14.889704 Y6.391879 Z-1.000000 I-15.072759 J2.688740
G02 X14.923460 Y6.601463 Z-1.000000 I9.272529 J-1.385947
G02 X14.930044 Y6.625433 Z-1.000000 I0.126396 J-0.021828
G03 X14.936847 Y6.649344 Z-1.000000 I-0.133478 J0.050898
G03 X14.952504 Y6.742210 Z-1.000000 I-2.008306 J0.386354
G03 X15.004745 Y7.160911 Z-1.000000 I-10.535643 J1.527128
G03 X14.985226 Y7.115186 Z-1.000000 I0.341489 J-0.106341
G03 X14.958824 Y6.936839 Z-1.000000 I4.801407 J-0.801910
G02 X14.933014 Y6.758237 Z-1.000000 I-5.940068 J0.767239
G02 X14.912754 Y6.648789 Z-1.000000 I-2.247260 J0.359394
G03 X14.830211 Y6.222021 Z-1.000000 I12.925564 J-2.721353
G03 X14.779535 Y5.893631 Z-1.000000 I7.613466 J-1.342989
G02 X14.695707 Y5.363901 Z-1.000000 I-10.500444 J1.390161
G02 X14.617386 Y5.013911 Z-1.000000 I-4.655588 J0.858074
G03 X14.597906 Y4.935806 Z-1.000000 I2.863174 J-0.755578
G03 X14.578966 Y4.850423 Z-1.000000 I3.395206 J-0.797932
G02 X14.406160 Y4.073143 Z-1.000000 I-29.874415 J6.233858
G02 X14.244511 Y3.433529 Z-1.000000 I-20.401216 J4.815757
G03 X14.222037 Y3.347737 Z-1.000000 I6.141612 J-1.654714
G03 X14.140584 Y3.025193 Z-1.000000 I86.020016 J-21.894361
G02 X14.054189 Y2.716169 Z-1.000000 I-5.731997 J1.435927
G01 X14.043874 Y2.712301 Z-1.000000
G02 X14.049205 Y2.639279 Z-1.000000 I-0.073536 J-0.045586
G02 X13.937369 Y2.279264 Z-1.000000 I-2.718960 J0.647249
G02 X13.890984 Y2.229161 Z-1.000000 I-0.086245 J0.033321
G02 X13.714614 Y2.172834 Z-1.000000 I-0.293083 J0.613412
G02 X13.622199 Y2.157096 Z-1.000000 I-1.712000 J9.773788
G03 X13.578984 Y2.197344 Z-1.000000 I-0.029046 J-0.072695
G02 X13.526710 Y2.191549 Z-1.000000 I-0.766816 J6.678268
G02 X13.506354 Y2.189644 Z-1.000000 I-0.082369 J0.770511
G02 X13.413474 Y2.156764 Z-1.000000 I-0.078516 J0.413866
G02 X13.345931 Y2.186894 Z-1.000000 I0.000000 J0.090773
G02 X13.311653 Y2.270192 Z-1.000000 I0.100141 J0.089910
G03 X13.303026 Y2.325988 Z-1.000000 I-0.271396 J-0.013398
G02 X13.262969 Y2.394701 Z-1.000000 I0.042231 J0.059043
G02 X13.300993 Y2.393682 Z-1.000000 I-0.048954 J-0.022752
G03 X13.343813 Y2.367892 Z-1.000000 I0.030243 J0.050209
G03 X13.428593 Y2.383547 Z-1.000000 I-0.014943 J0.318322
G03 X13.452763 Y2.475992 Z-1.000000 I-0.245132 J0.067497
G03 X13.446596 Y2.521085 Z-1.000000 I-0.110852 J0.007808
G02 X13.343093 Y2.543742 Z-1.000000 I0.025210 J0.061539
G02 X13.306548 Y2.511091 Z-1.000000 I-0.056114 J0.024375
G02 X13.304703 Y2.564392 Z-1.000000 I0.196202 J-0.216641
G03 X13.360733 Y2.607819 Z-1.000000 I-0.110058 J0.199856
G03 X13.375533 Y2.639602 Z-1.000000 I-0.040609 J0.038247
G02 X13.357912 Y2.696729 Z-1.000000 I0.246043 J-0.090796
G02 X13.404363 Y2.789722 Z-1.000000 I0.570048 J-0.205200
G02 X13.432612 Y2.828047 Z-1.000000 I0.112679 J-0.053481
G02 X13.440543 Y2.784042 Z-1.000000 I-0.056055 J0.006711
G03 X13.463306 Y2.831236 Z-1.000000 I-0.036597 J0.040305
G03 X13.448169 Y2.922288 Z-1.000000 I-0.050238 J0.060285
G03 X13.480564 Y2.985722 Z-1.000000 I-0.480815 J0.285534
G02 X13.511725 Y3.050488 Z-1.000000 I0.827204 J-0.358115
G02 X13.528164 Y3.075342 Z-1.000000 I0.137209 J-0.072889
G03 X13.597548 Y3.207873 Z-1.000000 I-0.294728 J0.238726
G03 X13.587774 Y3.279797 Z-1.000000 I-0.085666 J0.024985
G02 X13.531851 Y3.164343 Z-1.000000 I-0.107354 J-0.027845
G02 X13.475014 Y3.090236 Z-1.000000 I-0.173319 J0.074080
G03 X13.459364 Y3.025609 Z-1.000000 I0.147462 J-0.056223
G03 X13.456684 Y2.996226 Z-1.000000 I0.159707 J-0.029383
G02 X13.394404 Y2.982166 Z-1.000000 I-0.012767 J0.056538
G03 X13.353814 Y3.004846 Z-1.000000 I0.062515 J-0.089455
G03 X13.341620 Y2.965954 Z-1.000000 I0.062531 J-0.040963
G02 X13.352018 Y2.877556 Z-1.000000 I-0.066062 J-0.000004
G02 X13.327421 Y2.856452 Z-1.000000 I-0.048773 J0.031959
G03 X13.264437 Y2.911134 Z-1.000000 I-0.131311 J-0.000788
G02 X13.284473 Y3.031734 Z-1.000000 I0.485324 J0.079571
G02 X13.293567 Y3.086991 Z-1.000000 I0.194538 J-0.003639
G03 X13.243537 Y3.067521 Z-1.000000 I0.063641 J-0.030516
G02 X13.246021 Y3.018463 Z-1.000000 I-0.217899 J-0.035626
G03 X13.209317 Y2.950291 Z-1.000000 I0.333533 J-0.164185
G02 X13.185452 Y2.900910 Z-1.000000 I-0.165783 J0.049663
G02 X13.177246 Y2.848357 Z-1.000000 I-0.084048 J-0.038460
G02 X13.181757 Y2.724976 Z-1.000000 I-1.385379 J-0.112427
G03 X13.188501 Y2.604511 Z-1.000000 I0.946030 J-0.007461
G03 X13.178227 Y2.487525 Z-1.000000 I0.372643 J-0.073304
G02 X13.207177 Y2.374245 Z-1.000000 I-0.089765 J0.035596
G03 X13.180531 Y2.341749 Z-1.000000 I0.150920 J-0.150920
G02 X13.137457 Y2.315895 Z-1.000000 I-0.025512 J0.081857
G02 X13.106593 Y2.326535 Z-1.000000 I0.005382 J0.065694
G03 X13.045729 Y2.304425 Z-1.000000 I0.055380 J-0.061177
G02 X12.998037 Y2.289685 Z-1.000000 I0.018233 J0.076872
G02 X12.983455 Y2.327947 Z-1.000000 I0.035402 J0.035402
G02 X12.980634 Y2.366712 Z-1.000000 I0.013570 J0.070672
G02 X12.985081 Y2.474880 Z-1.000000 I0.418135 J-0.000296
G02 X13.059687 Y2.744621 Z-1.000000 I3.468729 J-0.814208
G03 X13.094727 Y2.865661 Z-1.000000 I-2.200624 J0.702659
G03 X13.098367 Y2.893328 Z-1.000000 I-0.109428 J0.028468
G02 X13.101611 Y2.921075 Z-1.000000 I0.127988 J-0.000899
G02 X13.123397 Y3.002320 Z-1.000000 I1.130330 J-0.259561
G02 X13.164094 Y3.110495 Z-1.000000 I0.897313 J-0.275837
G03 X13.207327 Y3.157978 Z-1.000000 I-0.067230 J0.050036
G03 X13.200216 Y3.184107 Z-1.000000 I-0.052486 J-0.000251
G02 X13.199787 Y3.215448 Z-1.000000 I0.076203 J-0.047775
G03 X13.216679 Y3.237869 Z-1.000000 I-0.038877 J0.046864
G03 X13.223147 Y3.268738 Z-1.000000 I-0.070430 J0.030869
G02 X13.228598 Y3.300381 Z-1.000000 I0.094568 J-0.000000
G02 X13.241827 Y3.321328 Z-1.000000 I0.052992 J-0.018816
G03 X13.213045 Y3.307508 Z-1.000000 I0.124704 J-0.072398
G02 X13.179939 Y3.360894 Z-1.000000 I0.450967 J0.096406
G03 X13.232015 Y3.440348 Z-1.000000 I-0.573919 J0.272188
G03 X13.264562 Y3.579490 Z-1.000000 I-1.012122 J0.310123
G03 X13.223175 Y3.491827 Z-1.000000 I0.686266 J-0.234704
G02 X13.202178 Y3.412474 Z-1.000000 I-0.677943 J0.136931
G02 X13.223025 Y3.552529 Z-1.000000 I1.602807 J-0.297268
G03 X13.254709 Y3.674976 Z-1.000000 I-9.126377 J2.426824
G03 X13.263575 Y3.713705 Z-1.000000 I-0.897977 J0.225951
G02 X13.272530 Y3.752404 Z-1.000000 I0.787708 J-0.161883
G02 X13.293605 Y3.830482 Z-1.000000 I3.388731 J-0.872828
G03 X13.404524 Y4.268573 Z-1.000000 I-7.994032 J2.257081
G03 X13.636057 Y5.356369 Z-1.000000 I-49.080450 J11.015096
G03 X13.827724 Y6.392568 Z-1.000000 I-32.782324 J6.599610
G03 X13.947361 Y7.201445 Z-1.000000 I-19.854236 J3.349830
G02 X13.957265 Y7.271338 Z-1.000000 I2.448000 J-0.311240
G02 X13.963891 Y7.307220 Z-1.000000 I0.654736 J-0.102351
G03 X13.969839 Y7.343197 Z-1.000000 I-0.380807 J0.081435
G03 X14.001431 Y7.626410 Z-1.000000 I-23.946457 J2.814583
G02 X14.031805 Y7.909842 Z-1.000000 I89.927708 J-9.493699
G02 X14.054281 Y8.112306 Z-1.000000 I45.456216 J-4.943766
G03 X14.076432 Y8.314800 Z-1.000000 I-27.045060 J3.060962
G03 X14.097841 Y8.524918 Z-1.000000 I-28.560391 J3.016158
G01 X14.118491 Y8.735116 Z-1.000000
G02 X14.144049 Y8.707664 Z-1.000000 I2.375151 J-0.062801
G02 X14.149981 Y8.760418 Z-1.000000 I0.628361 J-0.043942
G02 X14.156841 Y9.272292 Z-1.000000 I13.700114 J-0.378815
G03 X14.215131 Y10.443622 Z-1.000000 I-43.027291 J2.728312
G03 X14.243491 Y11.670113 Z-1.000000 I-47.147826 J1.703778
G02 X14.254700 Y12.534165 Z-1.000000 I150.362438 J-1.518550
G02 X14.258651 Y12.627684 Z-1.000000 I1.774513 J-0.028121
G03 X14.265183 Y12.737550 Z-1.000000 I-5.714070 J0.394833
G03 X14.313761 Y13.733173 Z-1.000000 I-488.184434 J24.318469
G02 X14.331183 Y14.075661 Z-1.000000 I55.394125 J-2.646216
G02 X14.345691 Y14.324843 Z-1.000000 I29.411382 J-1.587345
G03 X14.370657 Y14.754093 Z-1.000000 I-49.640285 J3.102580
G03 X14.421961 Y15.741738 Z-1.000000 I-263.149962 J14.164559
G02 X14.439920 Y16.052862 Z-1.000000 I20.785634 J-1.043699
G02 X14.444861 Y16.092069 Z-1.000000 I0.327563 J-0.021369
G03 X14.449901 Y16.131257 Z-1.000000 I-0.342137 J0.063921
G03 X14.461471 Y16.325623 Z-1.000000 I-8.326403 J0.593170
G02 X14.473383 Y16.519819 Z-1.000000 I7.117098 J-0.339084
G02 X14.477931 Y16.545242 Z-1.000000 I0.126309 J-0.009480
G03 X14.479832 Y16.569959 Z-1.000000 I-0.060135 J0.017057
G03 X14.470131 Y16.607522 Z-1.000000 I-0.148654 J-0.018357
G01 X14.462279 Y16.607108 Z-1.000000
G03 X14.454271 Y16.551392 Z-1.000000 I0.204893 J-0.057882
G02 X14.434654 Y16.159068 Z-1.000000 I-4.928953 J0.049800
G02 X14.414591 Y16.111166 Z-1.000000 I-0.085626 J0.007711
G02 X14.384091 Y16.117266 Z-1.000000 I0.030237 J0.153588
G03 X14.355391 Y16.147786 Z-1.000000 I0.030814 J-0.070620
G03 X14.279471 Y16.173716 Z-1.000000 I-0.012361 J-0.070366
G03 X14.225851 Y16.195036 Z-1.000000 I-0.016375 J-0.054488
G02 X14.129964 Y16.225847 Z-1.000000 I-0.063305 J0.063762
G03 X14.006453 Y16.310246 Z-1.000000 I-0.472734 J-0.821627
G02 X13.888419 Y16.363512 Z-1.000000 I0.845575 J2.031169
G02 X13.827688 Y16.397346 Z-1.000000 I0.277199 J0.568978
G03 X13.767136 Y16.429081 Z-1.000000 I-0.227439 J-0.360325
G03 X13.740248 Y16.434566 Z-1.000000 I-0.026888 J-0.063166
G02 X13.713466 Y16.439599 Z-1.000000 I-0.000000 J0.073777
G02 X13.681548 Y16.457426 Z-1.000000 I0.048281 J0.123931
G02 X13.732227 Y16.475974 Z-1.000000 I0.001729 J-0.146429
G03 X13.803111 Y16.428720 Z-1.000000 I0.071119 J0.043945
G02 X13.661058 Y16.553196 Z-1.000000 I0.133000 J0.106187
G03 X13.666560 Y16.641581 Z-1.000000 I-0.124773 J-0.038971
G02 X13.633665 Y16.667936 Z-1.000000 I0.094450 J0.160256
G02 X13.595388 Y16.698656 Z-1.000000 I0.556768 J0.732936
G02 X13.586785 Y16.754371 Z-1.000000 I0.048013 J0.044518
G02 X13.581208 Y16.787636 Z-1.000000 I0.096425 J0.033265
G03 X13.572220 Y16.818229 Z-1.000000 I-0.056561 J0.000000
G03 X13.541798 Y16.848916 Z-1.000000 I-0.087350 J-0.056172
G02 X13.510158 Y16.875545 Z-1.000000 I0.094852 J0.144816
G02 X13.541908 Y16.870836 Z-1.000000 I-0.028072 J-0.075769
G03 X13.562028 Y16.858804 Z-1.000000 I0.048882 J0.058902
G02 X13.605048 Y16.845466 Z-1.000000 I-0.074951 J-0.187285
G03 X13.643827 Y16.825780 Z-1.000000 I0.108404 J0.165507
G03 X13.590498 Y16.876656 Z-1.000000 I-0.333282 J-0.421384
G02 X13.523070 Y16.920251 Z-1.000000 I0.462903 J0.789912
G02 X13.504732 Y16.987408 Z-1.000000 I0.054527 J0.033707
G03 X13.601566 Y17.012954 Z-1.000000 I-0.023040 J0.049706
G02 X13.538458 Y17.053876 Z-1.000000 I0.100140 J0.200009
G02 X13.592958 Y17.080426 Z-1.000000 I0.052554 J-0.107864
G03 X13.680296 Y17.087303 Z-1.000000 I0.002106 J0.531272
G03 X13.713102 Y17.099886 Z-1.000000 I-0.013837 J0.085132
G02 X13.789598 Y17.123006 Z-1.000000 I0.078511 J-0.121656
G02 X13.842103 Y17.101686 Z-1.000000 I0.001014 J-0.072816
G02 X14.005006 Y17.144039 Z-1.000000 I0.115222 J-0.138849
G03 X14.039170 Y17.046944 Z-1.000000 I0.049178 J0.040814
G02 X14.112755 Y17.006208 Z-1.000000 I-0.164956 J-0.249312
G03 X14.162197 Y16.973580 Z-1.000000 I0.104356 J0.104356
G03 X14.215833 Y16.964888 Z-1.000000 I0.046196 J0.115237
G02 X14.317229 Y16.961223 Z-1.000000 I0.031741 J-0.526219
G03 X14.356309 Y16.938428 Z-1.000000 I0.029561 J0.081810
G02 X14.398324 Y16.936306 Z-1.000000 I0.006767 J-0.282955
G02 X14.452839 Y16.926358 Z-1.000000 I-0.062061 J-0.494460
G03 X14.485327 Y16.926801 Z-1.000000 I0.015379 J0.063695
G02 X14.345298 Y16.921557 Z-1.000000 I-0.086322 J0.028774
G02 X13.995385 Y17.164766 Z-1.000000 I0.349516 J0.876180
G02 X13.979535 Y17.198770 Z-1.000000 I0.047152 J0.042675
G02 X13.984225 Y17.245846 Z-1.000000 I0.100195 J0.013790
G03 X13.989028 Y17.291576 Z-1.000000 I-0.094951 J0.033090
G03 X13.985866 Y17.377053 Z-1.000000 I-0.544696 J0.462762
G03 X14.018165 Y17.419206 Z-1.000000 I-1.948706 J1.526636
G02 X14.073966 Y17.467030 Z-1.000000 I0.135267 J-0.101365
G02 X14.242878 Y17.538905 Z-1.000000 I0.495929 J-0.931050
G02 X14.457830 Y17.568662 Z-1.000000 I0.018795 J-0.069991
G02 X14.497081 Y17.446653 Z-1.000000 I-0.146470 J-0.114439
G03 X14.497808 Y17.327714 Z-1.000000 I1.265481 J-0.051735
G03 X14.520341 Y17.579108 Z-1.000000 I-2.641635 J0.171194
G02 X14.520671 Y17.625795 Z-1.000000 I0.663883 J0.018658
G02 X14.532851 Y17.874943 Z-1.000000 I18.784565 J-0.793473
G03 X14.546402 Y18.124082 Z-1.000000 I-116.330972 J6.452548
G03 X14.561481 Y18.412117 Z-1.000000 I-148.933660 J7.941043
G02 X14.579700 Y18.699900 Z-1.000000 I11.860798 J-0.606411
G02 X14.601101 Y18.937826 Z-1.000000 I8.303928 J-0.627002
G03 X14.621366 Y19.174441 Z-1.000000 I-6.344650 J0.662559
G03 X14.441917 Y19.220246 Z-1.000000 I-0.438377 J-2.435561
G02 X14.274714 Y19.243233 Z-1.000000 I0.364493 J3.270870
G02 X14.094960 Y19.277046 Z-1.000000 I0.624271 J3.813383
G03 X13.915762 Y19.314449 Z-1.000000 I-4.964395 J-23.336209
G03 X13.679669 Y19.362066 Z-1.000000 I-8.271018 J-40.400338
G02 X13.444099 Y19.411665 Z-1.000000 I2.052797 J10.333899
G02 X13.368263 Y19.431366 Z-1.000000 I0.241659 J1.086054
G03 X13.293030 Y19.453524 Z-1.000000 I-3.746577 J-12.581924
G03 X13.199669 Y19.480476 Z-1.000000 I-5.672828 J-19.475372
G02 X12.988416 Y19.566210 Z-1.000000 I0.294012 J1.027600
G01 X12.997256 Y19.589059 Z-1.000000
G03 X13.030599 Y19.586370 Z-1.000000 I0.024670 J0.097810
G03 X12.997256 Y19.642179 Z-1.000000 I-0.267455 J-0.209166
G03 X12.965461 Y19.661768 Z-1.000000 I-0.063731 J-0.067844
G02 X12.930484 Y19.690379 Z-1.000000 I0.076264 J0.044402
G02 X12.957668 Y19.786889 Z-1.000000 I0.223725 J0.006721
G03 X12.957768 Y19.839961 Z-1.000000 I-0.118621 J0.026760
G02 X12.967838 Y19.941417 Z-1.000000 I0.050128 J0.050128
G03 X12.940223 Y20.022057 Z-1.000000 I-0.294424 J-0.059084
G02 X12.926508 Y20.101019 Z-1.000000 I0.053827 J-0.000894
G02 X12.919625 Y20.197098 Z-1.000000 I0.071006 J-0.018642
G03 X12.965088 Y20.180029 Z-1.000000 I-0.067725 J0.049981
G02 X12.979470 Y20.208405 Z-1.000000 I0.069124 J-0.017201
G02 X12.929929 Y20.310412 Z-1.000000 I0.108768 J-0.025901
G03 X12.940499 Y20.363210 Z-1.000000 I-0.084608 J0.000000
G02 X12.887087 Y20.295029 Z-1.000000 I-0.128082 J-0.011499
G03 X12.844369 Y20.257129 Z-1.000000 I0.053003 J-0.051444
G03 X12.844860 Y20.219646 Z-1.000000 I0.112799 J-0.017268
G03 X12.847655 Y20.178901 Z-1.000000 I0.313945 J-0.109963
G03 X12.843819 Y20.155899 Z-1.000000 I0.155587 J-0.037766
G02 X12.837283 Y20.134463 Z-1.000000 I-0.055404 J0.005178
G02 X12.814949 Y20.102939 Z-1.000000 I-0.144460 J0.078674
G02 X12.787302 Y20.086414 Z-1.000000 I-0.040715 J0.036727
G03 X12.745640 Y20.103049 Z-1.000000 I-0.043217 J-0.051992
G02 X12.651609 Y20.060407 Z-1.000000 I-0.100219 J0.100219
G02 X12.512867 Y20.078639 Z-1.000000 I-0.030577 J0.304329
G02 X12.425831 Y20.131928 Z-1.000000 I0.096474 J0.255293
G02 X12.359152 Y20.218280 Z-1.000000 I0.209729 J0.230866
G02 X12.333368 Y20.526446 Z-1.000000 I0.353327 J0.184724
G02 X12.508230 Y20.675916 Z-1.000000 I0.209670 J-0.068270
G03 X12.571041 Y20.692854 Z-1.000000 I-0.049996 J0.310322
G03 X12.618792 Y20.718506 Z-1.000000 I-0.077474 J0.201492
G02 X12.665731 Y20.740952 Z-1.000000 I0.087771 J-0.123240
G02 X12.700552 Y20.741426 Z-1.000000 I0.018302 J-0.065301
G03 X12.732092 Y20.742019 Z-1.000000 I0.014681 J0.058218
G02 X12.747632 Y20.800126 Z-1.000000 I0.100150 J-0.063101
G02 X12.793587 Y20.835760 Z-1.000000 I0.388689 J-0.453828
G02 X12.787692 Y20.780516 Z-1.000000 I-0.532179 J0.099182
G03 X12.781220 Y20.730293 Z-1.000000 I0.162317 J-0.046446
G03 X12.789792 Y20.688126 Z-1.000000 I0.121355 J0.002715
G02 X12.803659 Y20.645651 Z-1.000000 I-0.337184 J-0.133582
G02 X12.812382 Y20.600786 Z-1.000000 I-0.357639 J-0.092817
G03 X12.823125 Y20.556974 Z-1.000000 I0.204495 J0.026918
G03 X12.842512 Y20.518336 Z-1.000000 I0.176879 J0.064571
G02 X12.857926 Y20.480260 Z-1.000000 I-0.088427 J-0.057955
G02 X12.856012 Y20.447866 Z-1.000000 I-0.064878 J-0.012420
G02 X12.937422 Y20.430246 Z-1.000000 I-0.011953 J-0.065603
G02 X12.966991 Y20.388018 Z-1.000000 I-0.138618 J-0.128530
G02 X12.974012 Y20.358956 Z-1.000000 I-0.056637 J-0.029062
G03 X13.005421 Y20.411998 Z-1.000000 I-0.084711 J0.012423
G03 X13.105046 Y20.518936 Z-1.000000 I0.060605 J0.305089
G02 X13.189541 Y20.518776 Z-1.000000 I0.041142 J-0.584213
G03 X13.233675 Y20.446386 Z-1.000000 I0.036013 J0.047436
G03 X13.299036 Y20.488896 Z-1.000000 I-0.016537 J0.056871
G03 X13.350291 Y20.472483 Z-1.000000 I0.046666 J0.018017
G02 X13.468466 Y20.474186 Z-1.000000 I-0.025364 J-0.386107
G03 X13.500968 Y20.474343 Z-1.000000 I0.016003 J0.051311
G02 X13.615472 Y20.430165 Z-1.000000 I0.047526 J-0.124561
G03 X13.666846 Y20.409586 Z-1.000000 I0.040283 J0.105742
G03 X13.697997 Y20.406580 Z-1.000000 I0.569291 J5.736440
G03 X13.775838 Y20.399386 Z-1.000000 I2.739136 J29.213821
G02 X13.844084 Y20.385340 Z-1.000000 I-0.027928 J-0.308505
G03 X13.876278 Y20.407776 Z-1.000000 I-0.092145 J0.015042
G02 X13.876424 Y20.454231 Z-1.000000 I0.080129 J0.022975
G02 X13.908238 Y20.411486 Z-1.000000 I-0.102481 J-0.035117
G02 X14.001112 Y20.378421 Z-1.000000 I0.021014 J-0.083699
G02 X14.165658 Y20.301396 Z-1.000000 I-0.031881 J-0.061833
G02 X14.193279 Y20.322452 Z-1.000000 I0.059992 J-0.001127
G02 X14.275802 Y20.343945 Z-1.000000 I0.045449 J-0.073515
G02 X14.347830 Y20.289776 Z-1.000000 I-0.040748 J-0.129154
G02 X14.449660 Y20.342396 Z-1.000000 I0.075038 J-0.152304
G02 X14.485590 Y20.300316 Z-1.000000 I-0.091299 J-0.077924
G03 X14.579966 Y20.256359 Z-1.000000 I0.041537 J0.031750
G03 X14.615860 Y20.255386 Z-1.000000 I0.019686 J0.063635
G03 X14.687860 Y20.247806 Z-1.000000 I-0.015125 J0.048074
G02 X14.719746 Y20.271307 Z-1.000000 I0.063695 J-0.053040
G03 X14.782180 Y20.265896 Z-1.000000 I0.002404 J0.052067
G03 X14.880000 Y20.242496 Z-1.000000 I0.050652 J0.252434
G02 X14.959815 Y20.241823 Z-1.000000 I0.036218 J-0.437668
G03 X15.013700 Y20.218096 Z-1.000000 I0.040103 J0.118667
G03 X15.053274 Y20.225277 Z-1.000000 I-0.000000 J0.112642
G03 X15.150044 Y20.167301 Z-1.000000 I0.053694 J-0.011751
G03 X15.194536 Y20.161823 Z-1.000000 I-0.000000 J0.060867
G02 X15.231690 Y20.225146 Z-1.000000 I0.094347 J-0.123099
G02 X15.337201 Y20.198397 Z-1.000000 I0.039023 J-0.047013
G03 X15.467959 Y20.157232 Z-1.000000 I-0.000891 J0.072675
G03 X15.562540 Y20.169516 Z-1.000000 I0.028728 J0.054850
G03 X15.646870 Y20.157809 Z-1.000000 I-0.000024 J0.361834
G02 X15.718691 Y20.169089 Z-1.000000 I0.225515 J-1.201544
G02 X15.736000 Y20.101319 Z-1.000000 I-1.742217 J-0.350560
G02 X15.732354 Y20.070578 Z-1.000000 I-0.055104 J-0.009052
G03 X15.704104 Y20.084104 Z-1.000000 I-0.041402 J-0.032484
G03 X15.729930 Y20.035419 Z-1.000000 I0.123286 J0.084598
G02 X15.754351 Y20.005662 Z-1.000000 I-0.071595 J-0.083658
G02 X15.761070 Y19.979969 Z-1.000000 I-0.045769 J-0.025693
G03 X15.801572 Y20.000870 Z-1.000000 I-0.049244 J0.049244
G02 X15.760473 Y20.097002 Z-1.000000 I-0.027511 J0.270397
G02 X15.834830 Y20.118929 Z-1.000000 I0.027597 J-0.281674
G03 X15.889461 Y20.121290 Z-1.000000 I0.020789 J0.152179
G01 X15.902906 Y20.142926 Z-1.000000
G02 X15.940560 Y20.130869 Z-1.000000 I-0.002967 J-0.074092
G03 X15.979640 Y20.113429 Z-1.000000 I0.073425 J0.112028
G03 X16.088640 Y20.103819 Z-1.000000 I0.014011 J0.148587
G02 X16.126925 Y20.103512 Z-1.000000 I0.018404 J-0.092434
G03 X16.134579 Y20.034659 Z-1.000000 I0.037120 J-0.043752
G03 X16.198150 Y19.990309 Z-1.000000 I-0.025261 J0.065972
G02 X16.190350 Y20.070119 Z-1.000000 I0.102866 J-0.019560
G02 X16.285205 Y20.085985 Z-1.000000 I0.035375 J-0.042639
G03 X16.600908 Y19.954822 Z-1.000000 I0.309793 J0.309793
G03 X16.726409 Y20.079019 Z-1.000000 I0.001297 J0.124197
G02 X16.944388 Y20.046499 Z-1.000000 I0.025712 J-0.720657
G03 X17.053718 Y20.031489 Z-1.000000 I-0.026676 J0.124338
G02 X17.086548 Y20.040904 Z-1.000000 I0.038273 J-0.071508
G03 X17.189218 Y20.027889 Z-1.000000 I0.028772 J0.355662
G02 X17.242834 Y20.020537 Z-1.000000 I0.012361 J-0.109034
G03 X17.251150 Y19.975201 Z-1.000000 I0.058281 J-0.015212
G03 X17.282388 Y20.000199 Z-1.000000 I-0.057797 J0.043904
G03 X17.379858 Y20.015619 Z-1.000000 I0.003264 J0.143646
G02 X17.425855 Y20.024500 Z-1.000000 I0.073575 J-0.257512
G02 X17.453608 Y20.023219 Z-1.000000 I0.009618 J-0.092910
G02 X17.551506 Y19.994822 Z-1.000000 I-0.116609 J-0.584967
G02 X17.591116 Y20.007412 Z-1.000000 I0.056570 J-0.000000
G02 X17.694644 Y20.003518 Z-1.000000 I0.030943 J-0.041431
G03 X17.903336 Y19.933092 Z-1.000000 I0.002613 J1.183288
G03 X18.166620 Y19.897339 Z-1.000000 I0.171333 J0.503861
G02 X18.291179 Y19.893612 Z-1.000000 I-2.504570 J-85.794122
G02 X18.326216 Y19.892439 Z-1.000000 I-0.189211 J-6.174082
G02 X18.354877 Y19.885104 Z-1.000000 I-0.002339 J-0.068801
G03 X18.369296 Y19.815619 Z-1.000000 I0.130569 J0.059040
G02 X18.396032 Y19.771336 Z-1.000000 I-0.067073 J-0.070709
G03 X18.343726 Y19.789719 Z-1.000000 I-0.008342 J-0.054463
G03 X18.311596 Y19.721639 Z-1.000000 I0.050437 J-0.023800
G02 X18.317900 Y19.679469 Z-1.000000 I-0.108206 J-0.037732
G03 X18.321386 Y19.635269 Z-1.000000 I0.048675 J0.018074
G03 X18.323566 Y19.555588 Z-1.000000 I0.053753 J0.014121
G03 X18.462810 Y19.492719 Z-1.000000 I0.071082 J0.917870
G02 X18.574994 Y19.489443 Z-1.000000 I0.034059 J-0.756101
G03 X18.519226 Y19.396269 Z-1.000000 I0.086451 J-0.055439
G02 X18.510079 Y19.328142 Z-1.000000 I-0.360040 J0.013662
G03 X18.442862 Y19.222731 Z-1.000000 I0.064150 J-0.103784
G03 X18.415786 Y19.186789 Z-1.000000 I0.067408 J-0.023705
G02 X18.396558 Y19.121640 Z-1.000000 I-0.096270 J-0.006999
G03 X18.300365 Y19.176645 Z-1.000000 I-0.038158 J-0.102681
G02 X18.173136 Y19.128212 Z-1.000000 I-0.026151 J0.051579
G03 X18.183556 Y19.089272 Z-1.000000 I0.025272 J0.047102
G03 X18.123615 Y19.049161 Z-1.000000 I0.025117 J-0.319261
G03 X18.098086 Y19.040982 Z-1.000000 I0.027072 J-0.128423
G02 X18.042317 Y19.028400 Z-1.000000 I-0.060443 J0.138028
G02 X17.956450 Y19.036582 Z-1.000000 I-0.010644 J0.342967
G03 X17.885887 Y19.048894 Z-1.000000 I-0.160122 J-0.709323
G03 X17.778764 Y19.058662 Z-1.000000 I-0.203583 J-1.640403
G03 X17.676220 Y19.054190 Z-1.000000 I-0.029432 J-0.502997
G02 X17.570039 Y19.026492 Z-1.000000 I-0.029960 J0.180897
G02 X17.508281 Y19.042223 Z-1.000000 I0.063624 J0.378879
G02 X17.431516 Y19.043743 Z-1.000000 I-0.044345 J0.072018
G02 X17.123442 Y19.034242 Z-1.000000 I-0.300727 J4.751649
G02 X16.913407 Y19.044373 Z-1.000000 I0.003442 J2.253569
G02 X16.806572 Y19.064392 Z-1.000000 I0.057052 J0.599559
G03 X16.733779 Y19.071586 Z-1.000000 I-0.056498 J-0.199811
G03 X16.773142 Y19.036202 Z-1.000000 I0.055184 J0.055184
G03 X17.012679 Y19.018162 Z-1.000000 I0.257803 J1.823777
G02 X17.096387 Y19.011957 Z-1.000000 I-0.006473 J-0.655057
G02 X17.069805 Y19.001032 Z-1.000000 I-0.028359 J0.070946
G02 X16.900227 Y19.003682 Z-1.000000 I-0.040953 J2.806674
G02 X16.737033 Y19.026016 Z-1.000000 I0.041455 J0.910294
G02 X16.697469 Y19.050392 Z-1.000000 I0.016310 J0.070770
G03 X16.670262 Y19.074479 Z-1.000000 I-0.091650 J-0.076111
G02 X16.599219 Y19.068312 Z-1.000000 I-0.010486 J0.213172
G03 X16.531552 Y19.066232 Z-1.000000 I-0.029791 J-0.132558
G02 X16.446119 Y19.043232 Z-1.000000 I-0.047127 J0.735937
G03 X16.313763 Y19.049955 Z-1.000000 I-2.455058 J-47.027279
G03 X16.239206 Y19.053432 Z-1.000000 I-0.671681 J-13.601337
G03 X16.155031 Y18.824566 Z-1.000000 I3.522772 J-0.176608
G03 X16.147866 Y18.303979 Z-1.000000 I76.770576 J-1.316909
G03 X16.485065 Y17.791158 Z-1.000000 I-0.172642 J9.566403
G03 X16.889939 Y17.807184 Z-1.000000 I-2.013698 J55.993885
G02 X18.145230 Y17.827927 Z-1.000000 I1.016819 J-23.541488
G02 X20.245331 Y17.773194 Z-1.000000 I-0.667130 J-65.915953
G03 X20.626830 Y17.757896 Z-1.000000 I4.344551 J103.582470
G03 X21.054985 Y17.742244 Z-1.000000 I4.834478 J126.377657
G02 X21.483106 Y17.725887 Z-1.000000 I-2.204136 J-63.301715
G02 X21.786787 Y17.711834 Z-1.000000 I-1.351600 J-32.495508
G02 X22.929019 Y17.649985 Z-1.000000 I-9.268544 J-181.751059
G02 X23.009053 Y17.641804 Z-1.000000 I-0.051577 J-0.900120
G03 X23.071556 Y17.634665 Z-1.000000 I0.135902 J0.912676
G03 X23.406095 Y17.610044 Z-1.000000 I2.164402 J27.123705
G02 X23.740841 Y17.587257 Z-1.000000 I-16.898505 J-250.711547
G02 X23.966625 Y17.571514 Z-1.000000 I-7.940540 J-115.509840
G03 X24.571325 Y17.534699 Z-1.000000 I2.182365 J30.861678
G01 X24.581651 Y17.540114 Z-1.000000
G03 X24.590951 Y18.233193 Z-1.000000 I-93.070080 J1.252490
G03 X24.044609 Y18.899057 Z-1.000000 I0.190085 J-11.807220
G03 X23.561747 Y18.861155 Z-1.000000 I0.670761 J-11.640030
G02 X21.588362 Y18.771121 Z-1.000000 I-1.826903 J18.370912
G02 X20.140181 Y18.888305 Z-1.000000 I0.079238 J9.986271
G02 X20.095773 Y18.901439 Z-1.000000 I0.026413 J0.170945
G01 X20.089581 Y18.911005 Z-1.000000
G02 X19.884199 Y18.895825 Z-1.000000 I-0.151701 J1.743894
G02 X19.740242 Y18.903132 Z-1.000000 I0.010073 J1.620189
G03 X19.654901 Y18.950450 Z-1.000000 I-0.113998 J-0.312680
G03 X19.303302 Y18.960275 Z-1.000000 I-0.305885 J-4.650410
G03 X19.313413 Y18.998593 Z-1.000000 I-0.021516 J0.057643
G02 X19.272442 Y19.136042 Z-1.000000 I0.470728 J-0.084652
G03 X19.307821 Y19.254084 Z-1.000000 I-0.487557 J0.210450
G02 X19.279952 Y19.299529 Z-1.000000 I0.049181 J0.025128
G03 X19.274008 Y19.324719 Z-1.000000 I-0.056346 J-0.000000
G03 X19.248812 Y19.300989 Z-1.000000 I0.045501 J-0.023790
G03 X19.126102 Y19.306419 Z-1.000000 I-0.036400 J-0.534877
G03 X19.027740 Y19.295999 Z-1.000000 I0.120918 J-1.610866
G03 X19.059095 Y19.430029 Z-1.000000 I0.008512 J-0.053094
G02 X18.999675 Y19.474039 Z-1.000000 I0.031481 J0.042499
G02 X19.012054 Y19.520721 Z-1.000000 I0.094210 J0.000000
G03 X19.089565 Y19.713879 Z-1.000000 I-0.105288 J0.026629
G02 X19.055472 Y19.769631 Z-1.000000 I0.103404 J-0.020779
G03 X19.082702 Y19.765054 Z-1.000000 I0.029465 J0.047471
G03 X19.114495 Y19.760559 Z-1.000000 I0.040825 J0.174067
G03 X19.130675 Y19.679459 Z-1.000000 I0.060150 J-0.015237
G02 X19.139657 Y19.634089 Z-1.000000 I-0.538513 J-0.130180
G02 X19.141765 Y19.608119 Z-1.000000 I-0.177293 J-0.027464
G03 X19.147510 Y19.584538 Z-1.000000 I0.052999 J0.000423
G03 X19.164645 Y19.563099 Z-1.000000 I0.060319 J0.030640
G02 X19.175045 Y19.590520 Z-1.000000 I0.051370 J0.019539
G02 X19.184905 Y19.657939 Z-1.000000 I0.445621 J-0.030741
G03 X19.192818 Y19.724726 Z-1.000000 I-0.320766 J0.071867
G03 X19.186305 Y19.751589 Z-1.000000 I-0.055141 J0.000852
G02 X19.235105 Y19.813359 Z-1.000000 I0.045259 J-0.035763
G03 X19.330615 Y19.793629 Z-1.000000 I0.057917 J0.090443
G03 X19.377189 Y19.797535 Z-1.000000 I0.015130 J0.099215
G02 X19.389065 Y19.842069 Z-1.000000 I-0.118351 J-0.254733
G03 X19.435461 Y19.824881 Z-1.000000 I0.052879 J0.071525
G03 X19.576195 Y19.786659 Z-1.000000 I0.054127 J0.088802
G03 X19.645273 Y19.810328 Z-1.000000 I-0.052706 J0.266456
G02 X19.675154 Y19.852826 Z-1.000000 I0.058870 J-0.018530
G02 X19.696255 Y19.867159 Z-1.000000 I0.041197 J-0.037953
G03 X19.681896 Y19.815811 Z-1.000000 I0.039921 J-0.036122
G03 X19.770433 Y19.879586 Z-1.000000 I-0.036571 J0.068266
G02 X19.901967 Y19.897419 Z-1.000000 I0.071090 J-1.314019
G03 X20.037135 Y19.901170 Z-1.000000 I0.041044 J0.958243
G02 X20.145679 Y19.948984 Z-1.000000 I0.086167 J-0.086167
G02 X20.224117 Y19.917739 Z-1.000000 I0.002933 J-0.106715
G03 X20.270168 Y19.900040 Z-1.000000 I0.042923 J0.042923
G03 X20.338839 Y19.923639 Z-1.000000 I-0.006783 J0.131450
G02 X20.297853 Y19.927885 Z-1.000000 I-0.020315 J0.072495
G02 X20.350389 Y19.952119 Z-1.000000 I0.019843 J-0.064990
G02 X20.431439 Y19.932199 Z-1.000000 I-0.115869 J-0.099646
G02 X20.550592 Y19.946820 Z-1.000000 I-0.040743 J-0.049113
G02 X20.556789 Y19.918689 Z-1.000000 I-0.060750 J-0.028131
G02 X20.642792 Y19.906210 Z-1.000000 I0.072890 J-0.286092
G02 X20.693989 Y19.908069 Z-1.000000 I0.039991 J-0.395415
G03 X20.732897 Y19.913967 Z-1.000000 I0.003012 J0.111410
G02 X20.737809 Y20.005609 Z-1.000000 I0.044906 J-0.212099
G02 X20.808885 Y19.996545 Z-1.000000 I-0.067950 J-0.816020
G03 X20.861059 Y20.000809 Z-1.000000 I-0.015868 J0.059065
G02 X20.960689 Y19.977979 Z-1.000000 I-0.017427 J-0.049592
G03 X20.983587 Y19.959114 Z-1.000000 I0.060847 J0.050524
G02 X21.019410 Y19.994734 Z-1.000000 I0.001037 J-0.054566
G02 X21.044989 Y19.976889 Z-1.000000 I-0.037192 J-0.080568
G03 X21.069936 Y19.957375 Z-1.000000 I0.092568 J0.092640
G02 X21.210719 Y19.992579 Z-1.000000 I0.059808 J-0.110409
G03 X21.248039 Y19.994391 Z-1.000000 I0.012307 J0.131746
G02 X21.334739 Y20.008119 Z-1.000000 I0.010656 J-0.163620
G03 X21.382479 Y19.999875 Z-1.000000 I0.117296 J0.536888
G03 X21.455519 Y19.992759 Z-1.000000 I0.155908 J1.221894
G02 X21.523674 Y19.981113 Z-1.000000 I-0.022593 J-0.337469
G03 X21.572989 Y19.971304 Z-1.000000 I-0.000832 J0.062659
G02 X21.607619 Y19.981708 Z-1.000000 I0.042763 J-0.079505
G02 X21.785825 Y19.990644 Z-1.000000 I0.200430 J-2.215631
G02 X22.000915 Y20.025194 Z-1.000000 I0.083682 J-0.257343
G02 X22.125097 Y20.016048 Z-1.000000 I-0.013408 J-1.029701
G02 X22.051519 Y19.994824 Z-1.000000 I-0.054971 J0.326255
G03 X22.020294 Y19.988908 Z-1.000000 I-0.002469 J-0.072335
G03 X22.060599 Y19.971924 Z-1.000000 I0.050150 J0.123415
G03 X22.269504 Y19.962734 Z-1.000000 I0.254355 J3.402794
G03 X22.473373 Y19.973810 Z-1.000000 I0.020191 J1.510175
G03 X22.506604 Y19.991774 Z-1.000000 I-0.006293 J0.051359
G02 X22.527755 Y20.007469 Z-1.000000 I0.043940 J-0.037116
G02 X22.611694 Y20.036184 Z-1.000000 I-0.007007 J-0.062127
G02 X22.627059 Y20.009449 Z-1.000000 I-0.060322 J-0.052450
G02 X22.676119 Y19.964042 Z-1.000000 I0.043109 J-0.080888
G02 X22.706044 Y19.961204 Z-1.000000 I0.008375 J-0.070889
G03 X22.705454 Y19.984724 Z-1.000000 I-0.024934 J-0.046557
G02 X22.680264 Y19.990668 Z-1.000000 I0.000000 J0.056346
G02 X22.818139 Y20.021314 Z-1.000000 I0.130566 J-0.893416
G03 X22.934365 Y20.064022 Z-1.000000 I-0.050262 J0.050262
G03 X22.702786 Y20.094014 Z-1.000000 I-0.171335 J-2.019245
G02 X22.618304 Y20.099671 Z-1.000000 I-0.007944 J0.515013
G03 X22.635246 Y20.126528 Z-1.000000 I-0.001677 J0.160703
G03 X22.674306 Y20.133134 Z-1.000000 I-0.088136 J0.639919
G03 X22.721026 Y20.119834 Z-1.000000 I0.018335 J0.132263
G02 X22.791400 Y20.125695 Z-1.000000 I0.079331 J-0.527140
G02 X23.040217 Y20.125334 Z-1.000000 I0.114529 J-6.815119
G02 X23.386447 Y20.112301 Z-1.000000 I-0.192686 J-9.724101
G02 X23.437259 Y20.103374 Z-1.000000 I-0.012093 J-0.217910
G01 X23.452079 Y20.103333 Z-1.000000
G02 X23.639672 Y20.126104 Z-1.000000 I0.202302 J-2.084336
G03 X24.678493 Y20.152989 Z-1.000000 I-0.253102 J29.863406
G02 X24.725552 Y20.249364 Z-1.000000 I0.054461 J-0.029488
G02 X24.759792 Y20.316904 Z-1.000000 I0.044121 J-0.052710
G03 X24.800539 Y20.332119 Z-1.000000 I-0.026275 J0.132539
G02 X24.801893 Y20.400580 Z-1.000000 I0.109623 J-0.068473
G02 X24.783347 Y20.490341 Z-1.000000 I0.110716 J0.086613
G02 X24.793282 Y20.547661 Z-1.000000 I0.091527 J0.013658
G02 X24.782482 Y20.614071 Z-1.000000 I0.065409 J0.014392
G03 X24.742332 Y20.690701 Z-1.000000 I-0.118960 J-0.062295
G02 X24.708306 Y20.731228 Z-1.000000 I0.078810 J0.100716
G03 X24.670292 Y20.833241 Z-1.000000 I-0.085587 J0.002385
G02 X24.657584 Y20.874074 Z-1.000000 I0.154819 J0.070577
G02 X24.574312 Y20.918761 Z-1.000000 I1.119330 J6.365430
G03 X24.492185 Y20.931283 Z-1.000000 I-0.217755 J-1.152567
G03 X24.420377 Y20.936621 Z-1.000000 I-0.099880 J-0.857999
G02 X24.350966 Y20.947158 Z-1.000000 I0.010116 J0.300523
G02 X24.306915 Y20.967821 Z-1.000000 I0.037826 J0.137928
G03 X24.274445 Y20.981100 Z-1.000000 I-0.045741 J-0.065510
G02 X24.239588 Y20.952895 Z-1.000000 I-0.002279 J0.173537
G02 X24.184748 Y20.964761 Z-1.000000 I0.096086 J0.576755
G03 X24.129524 Y20.974571 Z-1.000000 I-0.085154 J-0.319009
G03 X23.920053 Y20.988781 Z-1.000000 I-0.413021 J-4.537475
G02 X23.709879 Y20.998687 Z-1.000000 I2.201479 J48.944373
G02 X23.585292 Y21.005321 Z-1.000000 I0.776107 J15.747860
G03 X23.460704 Y21.011925 Z-1.000000 I-0.907193 J-15.936361
G03 X23.289457 Y21.019791 Z-1.000000 I-1.335555 J-27.207485
G02 X22.916407 Y21.042092 Z-1.000000 I0.061551 J1.427467
G02 X22.880738 Y21.049771 Z-1.000000 I0.021085 J0.184628
G03 X22.851746 Y21.052779 Z-1.000000 I-0.021605 J-0.067009
G02 X22.787848 Y21.044171 Z-1.000000 I-0.006912 J0.200750
G03 X22.684561 Y21.058054 Z-1.000000 I-0.130172 J-0.577282
G03 X22.440877 Y21.059941 Z-1.000000 I-0.146847 J-3.228955
G03 X22.496399 Y21.000346 Z-1.000000 I0.242204 J0.365798
G02 X22.520937 Y21.023411 Z-1.000000 I-0.023108 J-0.058553
G03 X22.544084 Y21.009115 Z-1.000000 I0.041812 J0.041812
G03 X22.628777 Y20.997191 Z-1.000000 I0.002604 J0.095023
G02 X22.653328 Y21.003989 Z-1.000000 I0.027465 J-0.051461
G03 X22.692477 Y20.992791 Z-1.000000 I0.011198 J0.064347
G03 X22.803537 Y20.985331 Z-1.000000 I-0.030247 J0.101826
G02 X22.836232 Y20.995074 Z-1.000000 I0.032695 J-0.049989
G03 X22.877627 Y20.996651 Z-1.000000 I-0.018027 J0.050189
G02 X22.899701 Y21.015623 Z-1.000000 I0.061595 J-0.049340
G03 X22.956667 Y20.988861 Z-1.000000 I0.044921 J0.100305
G02 X22.999453 Y20.979519 Z-1.000000 I0.000000 J-0.102652
G03 X23.023666 Y20.911799 Z-1.000000 I0.072033 J-0.022426
G03 X23.046147 Y20.984831 Z-1.000000 I-0.138478 J0.022392
G02 X23.083805 Y20.918881 Z-1.000000 I-0.106949 J-0.042120
G02 X23.144096 Y20.941613 Z-1.000000 I0.073762 J-0.073762
G03 X23.190535 Y20.918821 Z-1.000000 I0.026280 J0.052473
G03 X23.236705 Y20.905661 Z-1.000000 I-0.016774 J0.073224
G02 X23.272268 Y20.914010 Z-1.000000 I0.029270 J-0.044764
G02 X23.305737 Y20.869810 Z-1.000000 I-0.051453 J-0.032148
G03 X23.334285 Y20.810051 Z-1.000000 I0.043584 J0.031175
G03 X23.454146 Y20.882173 Z-1.000000 I0.103981 J0.360313
G03 X23.497450 Y20.894001 Z-1.000000 I0.001592 J0.079357
G03 X23.490739 Y20.845539 Z-1.000000 I0.087801 J-0.046898
G03 X23.577390 Y20.852581 Z-1.000000 I-0.079167 J0.061488
G02 X23.583618 Y20.881621 Z-1.000000 I0.073138 J-0.000497
G02 X23.599110 Y20.843011 Z-1.000000 I-0.113185 J-0.015946
G03 X23.665588 Y20.789604 Z-1.000000 I0.020772 J0.107483
G03 X23.780150 Y20.809631 Z-1.000000 I-0.061577 J-0.006976
G02 X23.770243 Y20.843053 Z-1.000000 I0.076114 J0.040742
G02 X23.798680 Y20.844111 Z-1.000000 I0.005817 J0.052966
G03 X23.803411 Y20.793880 Z-1.000000 I0.069747 J-0.000000
G02 X23.850400 Y20.787631 Z-1.000000 I-0.050274 J-0.070888
G03 X23.873753 Y20.767079 Z-1.000000 I0.062067 J0.046983
G02 X23.860903 Y20.847682 Z-1.000000 I0.043051 J0.043051
G02 X23.902320 Y20.837111 Z-1.000000 I-0.087727 J-0.032757
G03 X23.914193 Y20.757002 Z-1.000000 I0.343708 J0.010008
G03 X23.918340 Y20.669551 Z-1.000000 I0.162611 J-0.017071
G02 X23.960844 Y20.586749 Z-1.000000 I-0.067046 J-0.013233
G02 X23.822900 Y20.591051 Z-1.000000 I0.060408 J0.022585
G03 X23.786230 Y20.582751 Z-1.000000 I0.048717 J-0.028262
G02 X23.775189 Y20.551771 Z-1.000000 I-0.057675 J0.003098
G02 X23.703134 Y20.572895 Z-1.000000 I0.039894 J0.048079
G02 X23.748724 Y20.676828 Z-1.000000 I0.040856 J-0.045151
G03 X23.748810 Y20.700901 Z-1.000000 I-0.040338 J-0.036971
G03 X23.703300 Y20.673651 Z-1.000000 I0.029684 J-0.049566
G02 X23.671737 Y20.622631 Z-1.000000 I-0.431298 J-0.120674
G02 X23.677040 Y20.587291 Z-1.000000 I-0.411241 J-0.079780
G03 X23.683600 Y20.552585 Z-1.000000 I0.219486 J0.023516
G03 X23.691450 Y20.534491 Z-1.000000 I0.067028 J0.018328
G03 X23.602863 Y20.602286 Z-1.000000 I-0.113669 J0.000000
G03 X23.580150 Y20.567931 Z-1.000000 I0.133674 J-0.032365
G02 X23.577292 Y20.514475 Z-1.000000 I-0.185964 J-0.016863
G03 X23.457138 Y20.532360 Z-1.000000 I0.061699 J0.004867
G03 X23.492030 Y20.512091 Z-1.000000 I0.048313 J0.043002
G02 X23.458468 Y20.441925 Z-1.000000 I-0.055604 J-0.014607
G02 X23.437510 Y20.466141 Z-1.000000 I0.051791 J0.024374
G03 X23.423820 Y20.531583 Z-1.000000 I-0.163259 J0.000000
G03 X23.395290 Y20.514131 Z-1.000000 I0.049584 J-0.012181
G02 X23.396138 Y20.488645 Z-1.000000 I-0.055604 J-0.014607
G02 X23.351860 Y20.525331 Z-1.000000 I0.065787 J-0.033476
G02 X23.325571 Y20.531983 Z-1.000000 I-0.066969 J0.194582
G02 X23.301440 Y20.529731 Z-1.000000 I-0.024131 J0.128152
G02 X23.327363 Y20.451470 Z-1.000000 I-0.075458 J-0.068299
G02 X23.291400 Y20.471341 Z-1.000000 I0.085658 J0.056966
G03 X23.094955 Y20.464152 Z-1.000000 I-0.076079 J-0.084053
G02 X23.095720 Y20.385701 Z-1.000000 I0.036099 J0.068986
G03 X23.038133 Y20.421714 Z-1.000000 I-0.083767 J-0.069900
G02 X22.987190 Y20.391391 Z-1.000000 I0.049016 J0.295214
G03 X22.938978 Y20.399345 Z-1.000000 I-0.047016 J-0.134890
G03 X22.854950 Y20.380973 Z-1.000000 I0.031228 J-0.073764
G02 X22.803415 Y20.363492 Z-1.000000 I-0.043482 J0.043482
G03 X22.830180 Y20.333663 Z-1.000000 I0.100894 J0.066307
G03 X22.788515 Y20.305999 Z-1.000000 I0.004615 J-0.193725
G03 X22.723158 Y20.293640 Z-1.000000 I-0.018315 J-0.047385
G02 X22.440932 Y20.266533 Z-1.000000 I-0.437254 J5.418134
G03 X22.398775 Y20.257029 Z-1.000000 I0.004178 J-0.116784
G03 X22.425514 Y20.238516 Z-1.000000 I0.038203 J0.065335
G02 X22.549682 Y20.170703 Z-1.000000 I-0.032579 J-0.038891
G02 X22.484872 Y20.158233 Z-1.000000 I-0.088319 J0.456204
G03 X22.420862 Y20.151065 Z-1.000000 I0.035687 J-0.608033
G03 X22.367756 Y20.149402 Z-1.000000 I0.020504 J-0.053431
G02 X21.962148 Y20.127253 Z-1.000000 I-0.304300 J11.006655
G03 X21.631277 Y20.197003 Z-1.000000 I-0.076570 J0.044377
G02 X21.636399 Y20.250141 Z-1.000000 I0.278183 J-0.000000
G02 X21.648027 Y20.282733 Z-1.000000 I0.113281 J-0.022045
G02 X21.599721 Y20.286227 Z-1.000000 I-0.044222 J0.082685
G02 X21.586678 Y20.372666 Z-1.000000 I0.086232 J0.116880
G03 X21.579197 Y20.409383 Z-1.000000 I-0.103825 J-0.020102
G02 X21.482332 Y20.382804 Z-1.000000 I-0.064088 J0.047124
G02 X21.453847 Y20.358513 Z-1.000000 I-0.327381 J0.355058
G03 X21.437590 Y20.398572 Z-1.000000 I-0.058563 J0.018714
G02 X21.351477 Y20.379843 Z-1.000000 I-0.023850 J0.191545
G03 X21.305448 Y20.376156 Z-1.000000 I-0.015446 J-0.096318
G03 X21.240077 Y20.367993 Z-1.000000 I-0.016018 J-0.070547
G03 X21.209667 Y20.388884 Z-1.000000 I0.005335 J-0.067672
G02 X21.176891 Y20.378152 Z-1.000000 I-0.046949 J0.087967
G03 X21.066795 Y20.454347 Z-1.000000 I-0.089439 J0.047859
G02 X20.966607 Y20.392264 Z-1.000000 I-0.055443 J0.082021
G02 X20.934593 Y20.406655 Z-1.000000 I0.006583 J0.057447
G03 X20.904037 Y20.405064 Z-1.000000 I0.069802 J-0.066494
G03 X20.882941 Y20.349970 Z-1.000000 I0.360705 J-0.169701
G02 X20.858687 Y20.360874 Z-1.000000 I0.113268 J0.019293
G02 X20.812802 Y20.368805 Z-1.000000 I-0.038027 J0.042015
G03 X20.686961 Y20.382891 Z-1.000000 I-0.016760 J-0.052889
G02 X20.626097 Y20.442524 Z-1.000000 I0.077588 J0.053588
G02 X20.595188 Y20.400026 Z-1.000000 I-0.275826 J0.105838
G02 X20.575707 Y20.374874 Z-1.000000 I-0.108721 J0.064089
G03 X20.468427 Y20.422424 Z-1.000000 I-0.090166 J-0.237632
G03 X20.362367 Y20.422856 Z-1.000000 I-0.069572 J-4.061605
G03 X20.340701 Y20.421224 Z-1.000000 I0.001475 J-0.164223
G01 X20.329741 Y20.426639 Z-1.000000
G03 X20.294711 Y20.424434 Z-1.000000 I0.138761 J-0.095236
G03 X20.269779 Y20.471951 Z-1.000000 I-0.109699 J-0.002616
G02 X20.229521 Y20.412424 Z-1.000000 I-0.103131 J0.059142
G02 X19.996341 Y20.420514 Z-1.000000 I0.009844 J0.084710
G03 X19.944346 Y20.436767 Z-1.000000 I-0.047534 J-0.060769
G03 X19.878393 Y20.442507 Z-1.000000 I-0.072704 J-0.060004
G02 X19.803776 Y20.378817 Z-1.000000 I-0.071875 J-0.000000
G02 X19.783691 Y20.404414 Z-1.000000 I0.092295 J0.018058
G03 X19.778351 Y20.336524 Z-1.000000 I0.034120 J0.257283
G02 X19.834090 Y20.334643 Z-1.000000 I0.019950 J-0.235615
G02 X19.642110 Y20.320624 Z-1.000000 I-0.083179 J2.546710
G03 X18.964719 Y20.337625 Z-1.000000 I-0.835880 J-19.801636
G03 X19.032316 Y20.308824 Z-1.000000 I0.016456 J0.075265
G02 X19.058599 Y20.317722 Z-1.000000 I0.031983 J-0.051204
G02 X19.007616 Y20.233744 Z-1.000000 I-0.065480 J0.191295
G03 X18.945304 Y20.224574 Z-1.000000 I0.002412 J-0.232697
G03 X18.976023 Y20.205012 Z-1.000000 I0.039920 J0.068571
G03 X19.099879 Y20.199404 Z-1.000000 I0.111353 J1.088790
G02 X19.225079 Y20.195845 Z-1.000000 I0.017880 J-1.574999
G02 X19.287885 Y20.186634 Z-1.000000 I-0.027956 J-0.409345
G02 X19.070467 Y20.180334 Z-1.000000 I-0.109440 J3.789565
G02 X18.793430 Y20.193344 Z-1.000000 I0.204147 J7.303424
G03 X18.702429 Y20.241071 Z-1.000000 I-0.083794 J-0.062999
G02 X18.646385 Y20.195104 Z-1.000000 I-0.017829 J0.075725
G03 X18.602602 Y20.201200 Z-1.000000 I-0.108811 J-0.621259
G03 X18.517156 Y20.208574 Z-1.000000 I-0.257124 J-2.480574
G02 X18.432186 Y20.217705 Z-1.000000 I0.080511 J1.149116
G02 X18.400379 Y20.225604 Z-1.000000 I0.023755 J0.163647
G02 X18.354165 Y20.207751 Z-1.000000 I-0.000666 J0.089326
G02 X18.334819 Y20.219864 Z-1.000000 I0.016544 J0.047928
G03 X18.315246 Y20.232863 Z-1.000000 I-0.041991 J-0.041991
G03 X18.265529 Y20.248134 Z-1.000000 I-0.110339 J-0.270662
G02 X18.228799 Y20.270613 Z-1.000000 I0.013379 J0.063109
G02 X18.217289 Y20.307634 Z-1.000000 I0.040604 J0.032923
G03 X18.139439 Y20.365254 Z-1.000000 I-0.077298 J-0.104377
G03 X18.057725 Y20.373744 Z-1.000000 I-0.618209 J-5.552756
G03 X17.979935 Y20.380584 Z-1.000000 I-0.442839 J-4.590420
G02 X17.913693 Y20.395195 Z-1.000000 I0.019795 J0.247213
G02 X17.895215 Y20.436224 Z-1.000000 I0.038662 J-0.078871
G02 X17.930423 Y20.429285 Z-1.000000 I0.000000 J-0.092799
G02 X17.857367 Y20.514540 Z-1.000000 I-0.023661 J0.094088
G03 X17.861755 Y20.579734 Z-1.000000 I-0.004832 J-0.092061
G02 X17.793664 Y20.578157 Z-1.000000 I-0.036443 J0.102682
G02 X17.759456 Y20.599499 Z-1.000000 I-0.043035 J0.032276
G02 X17.728465 Y20.585684 Z-1.000000 I-0.074280 J0.124964
G02 X17.703802 Y20.628625 Z-1.000000 I0.077920 J-0.006119
G02 X17.667715 Y20.645764 Z-1.000000 I-0.015041 J0.053468
G02 X17.540955 Y20.677584 Z-1.000000 I0.066596 J0.482854
G03 X17.466960 Y20.672264 Z-1.000000 I-0.030017 J-0.099748
G02 X17.430905 Y20.646344 Z-1.000000 I0.079352 J0.017205
G01 X17.426288 Y20.675291 Z-1.000000
G03 X17.294745 Y20.693354 Z-1.000000 I0.036654 J-0.337451
G03 X17.224685 Y20.763154 Z-1.000000 I0.044739 J-0.024737
G03 X17.230870 Y20.738222 Z-1.000000 I0.053340 J-0.000000
G02 X17.196075 Y20.740534 Z-1.000000 I0.026100 J0.056321
G02 X17.186954 Y20.780762 Z-1.000000 I0.092395 J0.042096
G02 X17.191420 Y20.903180 Z-1.000000 I0.280304 J0.084888
G02 X17.210444 Y20.943355 Z-1.000000 I0.057897 J-0.002824
G02 X17.234339 Y20.956892 Z-1.000000 I0.042152 J-0.046549
G03 X17.213734 Y20.876085 Z-1.000000 I0.202061 J-0.040435
G03 X17.221799 Y20.827670 Z-1.000000 I0.225102 J0.012619
G02 X17.264064 Y20.802125 Z-1.000000 I-0.060170 J-0.092877
G02 X17.360234 Y20.817705 Z-1.000000 I-0.024459 J-0.058366
G03 X17.389428 Y20.768276 Z-1.000000 I0.292904 J0.139660
G03 X17.390304 Y20.806025 Z-1.000000 I-0.146732 J-0.031062
G02 X17.367429 Y20.872502 Z-1.000000 I0.215259 J0.111246
G02 X17.364694 Y20.942265 Z-1.000000 I0.234781 J0.044138
G02 X17.382484 Y20.911775 Z-1.000000 I-0.098507 J-0.057534
G03 X17.400710 Y20.852778 Z-1.000000 I0.425750 J0.099216
G02 X17.432014 Y20.783355 Z-1.000000 I-0.265576 J-0.101668
G02 X17.428531 Y20.748305 Z-1.000000 I-0.060421 J-0.011693
G03 X17.420804 Y20.883898 Z-1.000000 I-0.372477 J0.023115
G02 X17.418955 Y20.912114 Z-1.000000 I0.055879 J0.017831
G03 X17.473194 Y20.901908 Z-1.000000 I-0.033252 J0.048943
G03 X17.478240 Y20.937469 Z-1.000000 I-0.046120 J0.024683
G02 X17.493484 Y20.889368 Z-1.000000 I-0.192614 J-0.012031
G03 X17.485224 Y20.831703 Z-1.000000 I0.265021 J-0.067384
G03 X17.506654 Y20.852778 Z-1.000000 I-0.044046 J0.024893
G02 X17.557430 Y20.881340 Z-1.000000 I0.119233 J-0.030884
G02 X17.576964 Y20.850358 Z-1.000000 I-0.068296 J-0.013826
G02 X17.586055 Y20.884173 Z-1.000000 I0.044182 J0.065621
G03 X17.607424 Y20.943608 Z-1.000000 I-0.081109 J0.013482
G02 X17.606124 Y20.971830 Z-1.000000 I0.069479 J0.017341
G03 X17.638025 Y20.911904 Z-1.000000 I0.110532 J-0.018918
G02 X17.665215 Y20.912854 Z-1.000000 I0.049665 J0.019008
G02 X17.674502 Y20.974128 Z-1.000000 I0.380196 J-0.026282
G02 X17.685782 Y21.001908 Z-1.000000 I0.093463 J-0.021771
G03 X17.697906 Y20.971747 Z-1.000000 I0.073107 J0.003263
G03 X17.723212 Y20.890188 Z-1.000000 I0.136949 J0.064069
G03 X17.762580 Y20.861203 Z-1.000000 I0.115090 J0.115090
G03 X17.751662 Y20.942355 Z-1.000000 I-1.092399 J0.211338
G03 X17.753132 Y20.953428 Z-1.000000 I-0.161008 J0.027002
G02 X17.785352 Y20.981168 Z-1.000000 I0.099654 J-0.115606
G03 X17.790700 Y20.921708 Z-1.000000 I0.085057 J-0.038756
G03 X17.798602 Y20.877658 Z-1.000000 I0.122530 J-0.000755
G02 X17.827483 Y20.949801 Z-1.000000 I0.177527 J0.008131
G03 X17.889442 Y21.049559 Z-1.000000 I-0.092332 J0.039975
G02 X17.891266 Y21.082593 Z-1.000000 I0.088321 J0.011691
G02 X17.911009 Y21.052161 Z-1.000000 I-0.130442 J-0.073256
G02 X17.920172 Y21.006939 Z-1.000000 I-0.263495 J-0.076929
G03 X17.932759 Y20.979085 Z-1.000000 I0.049906 J0.005781
G03 X17.976814 Y20.958881 Z-1.000000 I0.059577 J0.024015
G03 X18.040342 Y21.003288 Z-1.000000 I-0.000000 J0.064526
G02 X18.062981 Y21.028489 Z-1.000000 I0.002860 J-0.063395
G03 X18.177225 Y21.077901 Z-1.000000 I-0.047685 J0.047640
G03 X18.182311 Y21.102499 Z-1.000000 I-0.059057 J0.025036
G03 X18.169131 Y21.193469 Z-1.000000 I-0.075246 J-0.034651
G03 X17.889143 Y21.237733 Z-1.000000 I-0.278852 J-0.856201
G03 X16.983579 Y21.192069 Z-1.000000 I0.011643 J-9.232829
G03 X16.894908 Y21.176739 Z-1.000000 I0.061563 J-0.620213
G03 X16.765589 Y21.177399 Z-1.000000 I-0.073139 J-0.388003
G03 X16.701922 Y21.172436 Z-1.000000 I-0.006875 J-0.322661
G03 X16.490993 Y21.217105 Z-1.000000 I-0.182181 J-0.281443
G03 X16.343260 Y21.160399 Z-1.000000 I0.001950 J-0.225875
G02 X16.275452 Y21.121793 Z-1.000000 I0.048033 J0.021702
G03 X16.219780 Y21.168089 Z-1.000000 I-0.075821 J-0.262324
G03 X16.146240 Y21.160790 Z-1.000000 I-0.000000 J-0.374116
G03 X16.103930 Y21.099709 Z-1.000000 I0.080508 J-0.041511
G02 X16.097542 Y21.049887 Z-1.000000 I-0.197481 J-0.000000
G03 X16.109980 Y20.904609 Z-1.000000 I0.230149 J0.034316
G03 X16.050940 Y20.774959 Z-1.000000 I0.278133 J-0.109048
G02 X16.036186 Y20.721392 Z-1.000000 I-0.314296 J0.057750
G03 X16.016560 Y20.669009 Z-1.000000 I0.184873 J-0.049507
G03 X16.024022 Y20.634319 Z-1.000000 I0.072495 J-0.002553
G02 X16.110863 Y20.616230 Z-1.000000 I0.018435 J-0.058797
G02 X16.135030 Y20.607429 Z-1.000000 I-0.007680 J-0.058669
G03 X16.119853 Y20.546018 Z-1.000000 I0.033987 J0.054902
G03 X16.185390 Y20.529779 Z-1.000000 I0.257343 J0.898217
G03 X16.079684 Y20.517995 Z-1.000000 I-0.032485 J-0.927555
G02 X16.065160 Y20.477449 Z-1.000000 I-0.262205 J0.080757
G03 X16.113000 Y20.383399 Z-1.000000 I0.066878 J0.128835
G03 X16.466753 Y20.345377 Z-1.000000 I1.160290 J9.130527
G03 X16.835562 Y20.319849 Z-1.000000 I0.869256 J9.881524
G02 X17.117468 Y20.294177 Z-1.000000 I-0.176933 J-3.503525
G02 X17.057741 Y20.271309 Z-1.000000 I-0.055616 J0.537337
G03 X16.969304 Y20.269235 Z-1.000000 I-0.028531 J-0.670079
G03 X16.938944 Y20.260709 Z-1.000000 I0.007683 J-0.085672
G03 X16.561736 Y20.301619 Z-1.000000 I-0.488176 J-4.434362
G02 X16.390164 Y20.311013 Z-1.000000 I0.108341 J3.550231
G03 X16.273980 Y20.334459 Z-1.000000 I-0.194442 J-1.074144
G02 X16.189619 Y20.343575 Z-1.000000 I0.632008 J6.243428
G02 X16.111705 Y20.353019 Z-1.000000 I0.721011 J6.274712
G03 X16.033751 Y20.361959 Z-1.000000 I-0.368507 J-2.868993
G03 X15.971573 Y20.367229 Z-1.000000 I-0.195153 J-1.932993
G02 X15.792593 Y20.382303 Z-1.000000 I0.393103 J5.737510
G02 X15.512250 Y20.413149 Z-1.000000 I1.410231 J14.106285
G03 X15.333127 Y20.434061 Z-1.000000 I-3.323403 J-27.689404
G03 X15.224200 Y20.445819 Z-1.000000 I-1.131686 J-9.973470
G02 X15.115239 Y20.457265 Z-1.000000 I1.700469 J16.711982
G02 X15.084068 Y20.460919 Z-1.000000 I0.192853 J1.779984
G03 X15.052854 Y20.464003 Z-1.000000 I-0.068295 J-0.531770
G03 X15.010108 Y20.466119 Z-1.000000 I-0.074937 J-1.080882
G02 X15.018702 Y20.544426 Z-1.000000 I0.042647 J0.035397
G02 X14.982848 Y20.615339 Z-1.000000 I0.092688 J0.075318
G03 X14.964065 Y20.648479 Z-1.000000 I-0.116180 J-0.043954
G02 X14.958938 Y20.786619 Z-1.000000 I0.311667 J0.042499
G03 X14.957069 Y20.850580 Z-1.000000 I-0.331031 J0.022332
G02 X14.943738 Y20.927409 Z-1.000000 I0.338164 J0.030314
G03 X14.942393 Y20.984583 Z-1.000000 I-0.229851 J0.023197
G02 X14.944038 Y21.047429 Z-1.000000 I0.071513 J-0.011153
G03 X14.873968 Y21.082519 Z-1.000000 I-0.045899 J-0.091669
G02 X14.834747 Y21.076224 Z-1.000000 I-0.074802 J0.340749
G02 X14.757191 Y21.070469 Z-1.000000 I-0.141173 J1.376918
G03 X14.680414 Y21.063304 Z-1.000000 I0.038800 J-0.830715
G02 X14.566031 Y21.047229 Z-1.000000 I-0.087150 J0.834289
G03 X14.486246 Y21.040180 Z-1.000000 I0.003575 J-0.495545
G01 X14.463391 Y21.029649 Z-1.000000
G02 X14.417645 Y20.864135 Z-1.000000 I-0.051708 J-0.050806
G02 X14.422181 Y20.841929 Z-1.000000 I-0.049493 J-0.021676
G03 X14.407267 Y20.810135 Z-1.000000 I1.034862 J0.352088
G03 X14.417041 Y20.784841 Z-1.000000 I0.877672 J0.324624
G03 X14.377915 Y20.697834 Z-1.000000 I0.089052 J0.006197
G02 X14.381511 Y20.669921 Z-1.000000 I-0.021069 J0.048333
G03 X14.399031 Y20.596542 Z-1.000000 I0.089505 J0.270516
G02 X14.462040 Y20.580961 Z-1.000000 I-0.042250 J-0.114066
G02 X14.383540 Y20.568411 Z-1.000000 I-0.046920 J0.293521
G02 X13.791295 Y20.653440 Z-1.000000 I0.649813 J6.631177
G02 X13.675092 Y20.702817 Z-1.000000 I0.055338 J0.291654
G02 X13.668675 Y20.765784 Z-1.000000 I-0.041429 J0.030430
G03 X13.636182 Y20.829251 Z-1.000000 I-0.043634 J-0.048553
G02 X13.591940 Y20.849071 Z-1.000000 I0.105824 J0.295503
G03 X13.525972 Y20.849611 Z-1.000000 I0.027759 J-0.151374
G02 X13.479686 Y20.829051 Z-1.000000 I-0.187153 J0.358962
G02 X13.461782 Y20.825791 Z-1.000000 I-0.018157 J0.048919
G03 X13.428712 Y20.800001 Z-1.000000 I0.041802 J-0.053593
G02 X13.338412 Y20.811281 Z-1.000000 I0.028043 J0.224324
G02 X13.287441 Y20.845039 Z-1.000000 I0.101834 J0.209114
G02 X13.352022 Y20.939201 Z-1.000000 I0.197925 J-0.118086
G02 X13.398064 Y20.972727 Z-1.000000 I0.110934 J-0.103970
G02 X13.640072 Y21.075144 Z-1.000000 I1.381083 J-2.926317
G03 X13.685699 Y21.097616 Z-1.000000 I-0.091706 J0.243761
G02 X13.733492 Y21.133724 Z-1.000000 I0.096960 J-0.152694
G03 X13.690412 Y21.159714 Z-1.000000 I-0.058957 J-0.097732
G03 X13.514749 Y21.157649 Z-1.000000 I-0.080582 J-0.617711
G03 X13.075651 Y21.064764 Z-1.000000 I0.620456 J-4.017425
G03 X13.478942 Y21.422597 Z-1.000000 I-1.867400 J2.584657
G03 X13.945534 Y21.952842 Z-1.000000 I-4.169585 J4.139463
G03 X14.276523 Y22.482114 Z-1.000000 I-2.404161 J1.871610
G03 X14.553861 Y23.192370 Z-1.000000 I-4.080674 J2.002684
G03 X14.663857 Y23.727390 Z-1.000000 I-3.064860 J0.908926
G03 X14.698472 Y24.420269 Z-1.000000 I-5.121562 J0.603171
G03 X14.672638 Y25.091630 Z-1.000000 I-15.979991 J-0.278724
G03 X14.623842 Y25.673049 Z-1.000000 I-12.010310 J-0.715225
G02 X14.604844 Y26.361070 Z-1.000000 I4.261696 J0.461951
G02 X14.674492 Y26.632040 Z-1.000000 I0.707252 J-0.037351
G01 X14.722772 Y26.731890 Z-1.000000
G03 X14.684521 Y27.170415 Z-1.000000 I-14.469757 J-1.206633
G03 X14.649032 Y27.513120 Z-1.000000 I-35.486440 J-3.501578
G02 X14.613413 Y27.855806 Z-1.000000 I38.490569 J4.173898
G02 X14.601792 Y27.988013 Z-1.000000 I5.771358 J0.573929
G03 X14.589896 Y28.120190 Z-1.000000 I-5.098771 J-0.392267
G03 X14.562382 Y28.369485 Z-1.000000 I-17.354622 J-1.789218
G02 X14.534557 Y28.618755 Z-1.000000 I20.954714 J2.465296
G02 X14.524562 Y28.727601 Z-1.000000 I3.980433 J0.420385
G03 X14.514411 Y28.836424 Z-1.000000 I-3.688539 J-0.289177
G03 X14.500112 Y28.953370 Z-1.000000 I-4.217407 J-0.456321
G02 X14.457867 Y29.288502 Z-1.000000 I16.422518 J2.240368
G02 X14.429852 Y29.560610 Z-1.000000 I10.775015 J1.246841
G03 X14.404950 Y29.817275 Z-1.000000 I-19.084041 J-1.722008
G03 X14.399132 Y29.856445 Z-1.000000 I-0.447622 J-0.046471
G02 X14.393308 Y29.895605 Z-1.000000 I0.467750 J0.089574
G02 X14.367722 Y30.152280 Z-1.000000 I19.145025 J2.038061
G03 X14.307106 Y30.732654 Z-1.000000 I-25.469839 J-2.366804
G03 X14.212411 Y31.491323 Z-1.000000 I-43.636313 J-5.061309
G02 X14.174840 Y31.779490 Z-1.000000 I44.282735 J5.920111
G02 X14.157011 Y31.927291 Z-1.000000 I11.631308 J1.478033
G03 X14.083756 Y32.418346 Z-1.000000 I-7.179861 J-0.820087
G03 X13.954487 Y33.024995 Z-1.000000 I-11.090663 J-2.046185
G02 X13.837490 Y33.546616 Z-1.000000 I15.466125 J3.742902
G02 X13.791953 Y33.811293 Z-1.000000 I3.930262 J0.812448
G03 X13.781097 Y33.881158 Z-1.000000 I-2.004445 J-0.275679
G03 X13.759443 Y33.998967 Z-1.000000 I-5.809771 J-1.006992
G02 X13.739853 Y34.116997 Z-1.000000 I2.138362 J0.415547
G02 X13.730453 Y34.209165 Z-1.000000 I1.297831 J0.178932
G03 X13.722073 Y34.301329 Z-1.000000 I-1.923461 J-0.128420
G03 X13.717003 Y34.325112 Z-1.000000 I-0.126845 J-0.014610
G02 X13.676089 Y34.516320 Z-1.000000 I1.006359 J0.315321
G02 X13.659333 Y34.811683 Z-1.000000 I2.398043 J0.284195
G02 X13.664596 Y34.849477 Z-1.000000 I0.143131 J-0.000669
G01 X13.671213 Y34.854500 Z-1.000000
G03 X13.680213 Y34.905103 Z-1.000000 I-0.196339 J0.034978
G02 X13.677974 Y34.955724 Z-1.000000 I2.623879 J0.141413
G02 X13.676313 Y35.015015 Z-1.000000 I4.524273 J0.156417
G03 X13.669188 Y35.063520 Z-1.000000 I-0.195570 J-0.003951
G03 X13.653603 Y34.968047 Z-1.000000 I0.638341 J-0.054846
G02 X13.616450 Y35.147330 Z-1.000000 I0.860828 J0.186292
G02 X13.617667 Y35.221347 Z-1.000000 I0.128408 J0.106149
G03 X13.612274 Y35.243588 Z-1.000000 I-0.122691 J-0.013913
G02 X13.603433 Y35.290467 Z-1.000000 I1.259372 J0.216046
G03 X13.597718 Y35.329352 Z-1.000000 I-2.904078 J-0.406943
G03 X13.567443 Y35.524021 Z-1.000000 I-58.615651 J-9.016292
G02 X13.538664 Y35.775734 Z-1.000000 I2.970937 J0.467175
G03 X13.586754 Y35.927128 Z-1.000000 I-0.235383 J0.090347
G03 X13.544283 Y35.899663 Z-1.000000 I0.236686 J-0.016670
G02 X13.546493 Y35.842706 Z-1.000000 I-0.235655 J-0.037667
G02 X13.512453 Y35.946128 Z-1.000000 I0.825296 J0.186118
G02 X13.515516 Y36.030645 Z-1.000000 I0.342712 J0.029893
G03 X13.541594 Y35.981792 Z-1.000000 I0.208402 J0.039111
G02 X13.554806 Y36.054608 Z-1.000000 I0.065813 J-0.006276
G02 X13.528246 Y36.253707 Z-1.000000 I0.085357 J0.015493
G03 X13.535218 Y36.295338 Z-1.000000 I-0.199638 J0.054831
G03 X13.540086 Y36.437956 Z-1.000000 I-2.399551 J0.153303
G02 X13.548059 Y36.567963 Z-1.000000 I1.147768 J-0.005140
G03 X13.544816 Y36.645081 Z-1.000000 I-0.302954 J-0.045951
G02 X13.547100 Y36.699824 Z-1.000000 I0.061810 J0.024840
G02 X13.616595 Y36.621209 Z-1.000000 I-0.105719 J-0.105698
G02 X13.596616 Y36.560237 Z-1.000000 I-0.070188 J-0.010761
G03 X13.565622 Y36.478537 Z-1.000000 I0.075312 J-0.075299
G02 X13.605382 Y36.385489 Z-1.000000 I-0.078588 J0.020649
G03 X13.621346 Y36.352355 Z-1.000000 I0.007208 J0.056863
G03 X13.650513 Y36.374606 Z-1.000000 I-0.034191 J0.075059
G02 X13.671006 Y36.436212 Z-1.000000 I0.073810 J-0.028742
G03 X13.722352 Y36.397981 Z-1.000000 I0.264792 J0.097984
G02 X13.747294 Y36.678900 Z-1.000000 I1.239386 J-0.039678
G02 X13.712133 Y36.750022 Z-1.000000 I0.019241 J0.051912
G02 X13.773432 Y36.784527 Z-1.000000 I0.029171 J-0.041649
G03 X13.823356 Y36.783897 Z-1.000000 I-0.105590 J0.059297
G02 X13.837966 Y36.847404 Z-1.000000 I0.320208 J-0.040232
G02 X13.853276 Y36.872018 Z-1.000000 I0.060414 J-0.020508
G02 X13.870906 Y36.800362 Z-1.000000 I-0.237316 J-0.058377
G03 X13.875820 Y36.711099 Z-1.000000 I0.457681 J-0.019573
G02 X13.889376 Y36.658816 Z-1.000000 I-0.028655 J0.057546
G03 X13.930916 Y36.638970 Z-1.000000 I0.010375 J0.090231
G03 X13.955546 Y36.702170 Z-1.000000 I-0.122161 J0.047599
G03 X13.948951 Y36.744053 Z-1.000000 I-0.136285 J0.000000
G02 X13.907661 Y36.848003 Z-1.000000 I0.090973 J0.056243
G03 X14.011026 Y36.904533 Z-1.000000 I-0.091678 J0.146437
G02 X14.044456 Y36.931544 Z-1.000000 I0.109942 J-0.101877
G03 X14.062336 Y36.981505 Z-1.000000 I-0.028059 J-0.044221
G02 X13.861484 Y36.960159 Z-1.000000 I-0.093639 J0.151064
G02 X13.840856 Y36.956495 Z-1.000000 I-0.020628 J0.056247
G03 X13.799816 Y36.933140 Z-1.000000 I0.039173 J-0.068841
G02 X13.777979 Y36.915006 Z-1.000000 I-0.059343 J0.049245
G02 X13.813356 Y36.963637 Z-1.000000 I0.110007 J-0.113338
G03 X13.759258 Y37.033762 Z-1.000000 I-0.065817 J-0.059567
G03 X13.678278 Y37.009827 Z-1.000000 I-0.004814 J-0.132673
G02 X13.642363 Y36.991743 Z-1.000000 I-0.080035 J0.114243
G02 X14.026497 Y37.127768 Z-1.000000 I0.402209 J-1.189985
G02 X14.202822 Y37.107478 Z-1.000000 I-0.000000 J-0.776291
G02 X14.360325 Y37.049906 Z-1.000000 I-0.157388 J-0.674810
G02 X14.433384 Y36.967321 Z-1.000000 I-0.068438 J-0.134152
G02 X14.547207 Y36.537112 Z-1.000000 I-2.304860 J-0.839973
G03 X14.582349 Y36.344380 Z-1.000000 I7.703604 J1.305059
G03 X14.699362 Y36.367562 Z-1.000000 I-0.283479 J0.884610
G02 X14.804425 Y36.414495 Z-1.000000 I2.960616 J-6.486522
G02 X14.889693 Y36.450751 Z-1.000000 I1.854639 J-4.243381
G03 X14.975324 Y36.486170 Z-1.000000 I-115.252493 J278.780034
G03 X15.127140 Y36.549005 Z-1.000000 I-398.496375 J962.918073
G02 X15.272430 Y36.602098 Z-1.000000 I0.701684 J-1.694832
G02 X15.314431 Y36.593089 Z-1.000000 I0.057660 J-0.057669
G02 X15.338410 Y36.598137 Z-1.000000 I0.023460 J-0.051958
G03 X15.399580 Y36.597895 Z-1.000000 I-0.058966 J-0.058557
G03 X15.400580 Y36.615557 Z-1.000000 I-0.005426 J0.099963
G03 X15.424200 Y36.622883 Z-1.000000 I-0.043434 J0.181777
G02 X15.491724 Y36.638301 Z-1.000000 I0.061824 J-0.019797
G02 X15.522390 Y36.654806 Z-1.000000 I0.047943 J-0.052335
G03 X15.550067 Y36.670446 Z-1.000000 I-0.014581 J0.058112
G02 X15.644810 Y36.746721 Z-1.000000 I0.228141 J-0.345476
G02 X15.737699 Y36.776241 Z-1.000000 I0.322795 J-0.854819
G03 X15.789811 Y36.789289 Z-1.000000 I-0.032729 J0.084915
G02 X15.817857 Y36.808601 Z-1.000000 I0.102073 J-0.118214
G02 X15.847221 Y36.820188 Z-1.000000 I0.063567 J-0.118094
G03 X15.878036 Y36.829371 Z-1.000000 I-0.129688 J0.491495
G03 X15.905611 Y36.839620 Z-1.000000 I-0.134217 J0.403322
G02 X15.893931 Y36.809972 Z-1.000000 I-0.059621 J0.091671
G03 X15.861391 Y36.795219 Z-1.000000 I0.024286 J-0.096828
G02 X15.899373 Y36.797399 Z-1.000000 I0.054866 J-0.066105
G03 X15.956211 Y36.811009 Z-1.000000 I-0.045263 J0.155211
G02 X15.988541 Y36.824462 Z-1.000000 I0.082373 J-0.152382
G02 X16.048771 Y36.838947 Z-1.000000 I0.156886 J-0.519887
G03 X16.108543 Y36.854970 Z-1.000000 I-0.066451 J0.367385
G03 X16.184493 Y36.887707 Z-1.000000 I-0.225324 J0.627226
G02 X16.290927 Y36.924136 Z-1.000000 I0.183193 J-0.361534
G02 X16.275401 Y36.905276 Z-1.000000 I-0.010888 J0.056771
G03 X16.249125 Y36.907111 Z-1.000000 I-0.018013 J-0.068876
G02 X16.331142 Y36.870680 Z-1.000000 I0.039438 J-0.053329
G02 X16.399961 Y36.892655 Z-1.000000 I0.321556 J-0.888266
G03 X16.469316 Y36.914249 Z-1.000000 I-0.313459 J1.128934
G03 X16.569996 Y36.951434 Z-1.000000 I-0.836851 J2.420699
G02 X16.671186 Y36.984307 Z-1.000000 I0.321203 J-0.816559
G02 X16.721807 Y36.990756 Z-1.000000 I0.050621 J-0.195439
G03 X16.764669 Y36.999736 Z-1.000000 I-0.000000 J0.106780
G01 X16.773647 Y37.013473 Z-1.000000
G03 X16.842567 Y37.042861 Z-1.000000 I-0.051705 J0.199325
G02 X16.871702 Y37.049448 Z-1.000000 I0.027141 J-0.052319
G02 X16.923282 Y37.040896 Z-1.000000 I0.025353 J-0.047366
G03 X17.013607 Y37.060701 Z-1.000000 I-0.039796 J0.129973
G02 X17.055103 Y37.091146 Z-1.000000 I0.086479 J-0.074370
G02 X17.115093 Y37.104261 Z-1.000000 I0.064065 J-0.149278
G03 X17.175825 Y37.114088 Z-1.000000 I-0.005719 J0.227936
G02 X17.252218 Y37.087744 Z-1.000000 I-0.183968 J-0.139005
G03 X17.264433 Y37.127399 Z-1.000000 I-0.064954 J-0.013297
G02 X17.249216 Y37.153006 Z-1.000000 I0.055789 J0.050478
G02 X17.290853 Y37.121519 Z-1.000000 I-0.094199 J-0.094423
G02 X17.345833 Y37.151362 Z-1.000000 I0.062735 J-0.114756
G03 X17.388415 Y37.160946 Z-1.000000 I-0.189309 J0.940555
G03 X17.435363 Y37.173659 Z-1.000000 I-0.288981 J1.160168
G02 X17.482073 Y37.187329 Z-1.000000 I107.585750 J-367.550970
G02 X17.519053 Y37.198142 Z-1.000000 I33.471251 J-114.397476
G02 X17.595639 Y37.197437 Z-1.000000 I0.039459 J-0.073702
G02 X17.648973 Y37.195532 Z-1.000000 I0.019094 J-0.213049
G03 X17.700302 Y37.195973 Z-1.000000 I0.024375 J0.150285
G02 X17.783613 Y37.191318 Z-1.000000 I-0.025162 J-0.083790
G03 X17.808245 Y37.173230 Z-1.000000 I0.063025 J0.060009
G02 X17.893002 Y37.219004 Z-1.000000 I0.045862 J-0.119524
G03 X17.926169 Y37.196949 Z-1.000000 I-0.074271 J0.000947
G02 X17.923514 Y37.228162 Z-1.000000 I0.053245 J0.020248
G02 X18.094119 Y37.313523 Z-1.000000 I0.088571 J-0.240963
G02 X18.119258 Y37.308370 Z-1.000000 I0.001694 J-0.055629
G03 X18.265396 Y37.292651 Z-1.000000 I0.016631 J0.293753
G02 X18.300065 Y37.295502 Z-1.000000 I0.021823 J-0.053162
G02 X18.360326 Y37.298271 Z-1.000000 I0.049320 J-0.033831
G02 X18.399074 Y37.308323 Z-1.000000 I0.040128 J-0.074978
G03 X18.402376 Y37.252342 Z-1.000000 I0.034248 J0.089268
G03 X18.511977 Y37.266059 Z-1.000000 I0.053947 J0.053954
G03 X18.489326 Y37.300144 Z-1.000000 I-0.026860 J-0.065733
G02 X18.538315 Y37.325212 Z-1.000000 I0.052834 J-0.122950
G03 X18.549386 Y37.282737 Z-1.000000 I0.064474 J0.012232
G03 X18.632916 Y37.292331 Z-1.000000 I0.012257 J0.060688
G03 X18.646846 Y37.320595 Z-1.000000 I-0.056034 J-0.011920
G03 X18.717814 Y37.345886 Z-1.000000 I0.009138 J0.310914
G03 X18.372205 Y37.332538 Z-1.000000 I0.443131 J-7.716855
G02 X18.268946 Y37.327681 Z-1.000000 I-0.094626 J0.911499
G02 X18.312971 Y37.345761 Z-1.000000 I0.051848 J-0.232961
G03 X18.374885 Y37.348289 Z-1.000000 I-0.000000 J0.759558
G03 X18.489056 Y37.360168 Z-1.000000 I-0.211973 J2.591817
G02 X18.804007 Y37.390597 Z-1.000000 I0.674966 J-5.341167
G03 X18.777773 Y37.368905 Z-1.000000 I0.021798 J-0.085445
G03 X18.761890 Y37.351810 Z-1.000000 I0.029224 J-0.043079
G02 X18.718940 Y37.330190 Z-1.000000 I-0.026851 J0.053444
G03 X18.819296 Y37.275340 Z-1.000000 I0.080560 J0.346313
G03 X18.977632 Y37.301602 Z-1.000000 I-0.013670 J0.572870
G02 X19.057544 Y37.355735 Z-1.000000 I0.035676 J-0.087189
G03 X19.111913 Y37.358122 Z-1.000000 I0.019475 J0.176874
G02 X19.054214 Y37.389533 Z-1.000000 I-0.051532 J0.202898
G02 X18.968978 Y37.392483 Z-1.000000 I-0.018323 J0.703248
G02 X19.046828 Y37.412575 Z-1.000000 I0.110560 J-0.428434
G02 X19.435149 Y37.432416 Z-1.000000 I0.652515 J-8.960976
G02 X19.365642 Y37.413586 Z-1.000000 I-0.149712 J0.767276
G02 X19.264812 Y37.406576 Z-1.000000 I-0.159337 J1.563274
G02 X19.327664 Y37.365823 Z-1.000000 I-0.029242 J-0.285439
G03 X19.164269 Y37.362408 Z-1.000000 I-0.000797 J-0.098273
G02 X19.178979 Y37.280248 Z-1.000000 I-0.204706 J-0.035809
G03 X19.208387 Y37.220932 Z-1.000000 I0.066579 J-0.003939
G03 X19.285651 Y37.261015 Z-1.000000 I-0.068670 J0.073465
G03 X19.334549 Y37.314254 Z-1.000000 I-0.015417 J0.055924
G02 X19.366117 Y37.338876 Z-1.000000 I0.086251 J-0.078039
G02 X19.393699 Y37.345763 Z-1.000000 I0.027582 J-0.051781
G02 X19.483239 Y37.391985 Z-1.000000 I0.065270 J-0.247558
G03 X19.647926 Y37.404809 Z-1.000000 I0.028541 J0.697367
G03 X19.709505 Y37.408185 Z-1.000000 I0.084942 J0.059803
G03 X19.786944 Y37.392474 Z-1.000000 I0.077439 J0.182997
G01 X19.799453 Y37.414106 Z-1.000000
G03 X19.757854 Y37.443025 Z-1.000000 I-0.051424 J-0.029593
G02 X20.010145 Y37.439760 Z-1.000000 I-0.031716 J-2.146924
G02 X19.952505 Y37.423617 Z-1.000000 I-0.068251 J0.459040
G02 X19.973234 Y37.388429 Z-1.000000 I-0.068055 J-2.017436
G02 X20.023872 Y37.384809 Z-1.000000 I-0.118892 J-2.019652
G03 X20.068476 Y37.387075 Z-1.000000 I0.013939 J0.165782
G03 X20.145341 Y37.383483 Z-1.000000 I0.000486 J0.068832
G02 X20.431346 Y37.380799 Z-1.000000 I-0.006153 J-0.110004
G02 X20.523656 Y37.387870 Z-1.000000 I0.038719 J-0.231785
G03 X20.597559 Y37.387642 Z-1.000000 I0.037944 J0.320528
G03 X20.641963 Y37.401142 Z-1.000000 I-0.014167 J0.126367
G02 X20.686265 Y37.416914 Z-1.000000 I0.079543 J-0.153331
G02 X20.741633 Y37.421912 Z-1.000000 I0.049241 J-0.236281
G02 X21.013235 Y37.403996 Z-1.000000 I-0.085200 J-3.359113
G02 X20.919161 Y37.384630 Z-1.000000 I-0.051319 J0.759773
G03 X21.162831 Y37.353987 Z-1.000000 I0.272072 J1.613066
G02 X21.187748 Y37.345761 Z-1.000000 I-0.030486 J0.050821
G03 X21.155102 Y37.339474 Z-1.000000 I-0.000000 J-0.087892
G03 X21.206708 Y37.328931 Z-1.000000 I0.003676 J0.168942
G02 X21.257085 Y37.336505 Z-1.000000 I0.054129 J-0.188731
G02 X21.342845 Y37.331541 Z-1.000000 I0.010681 J-0.558848
G03 X21.418990 Y37.331999 Z-1.000000 I0.036458 J0.268760
G02 X21.519415 Y37.329355 Z-1.000000 I-0.104614 J-0.107067
G03 X21.543806 Y37.308689 Z-1.000000 I0.044495 J0.027787
G03 X21.621625 Y37.278707 Z-1.000000 I-0.005917 J0.115388
G03 X21.649445 Y37.295002 Z-1.000000 I-0.033528 J0.089137
G03 X21.752532 Y37.237807 Z-1.000000 I0.060236 J0.061764
G03 X21.870660 Y37.280572 Z-1.000000 I0.069049 J0.424500
G02 X21.910556 Y37.269355 Z-1.000000 I-0.003316 J-0.088352
G03 X22.016827 Y37.243102 Z-1.000000 I0.052115 J0.428972
G02 X22.122947 Y37.245877 Z-1.000000 I0.072280 J-0.733751
G02 X22.091767 Y37.221208 Z-1.000000 I-0.042173 J0.116767
G03 X22.047586 Y37.209982 Z-1.000000 I-0.000000 J-0.092548
G02 X21.993537 Y37.154509 Z-1.000000 I-0.042737 J0.050013
G02 X22.031221 Y37.138591 Z-1.000000 I-0.007913 J-0.145591
G02 X21.991203 Y37.080996 Z-1.000000 I-0.052221 J0.001035
G02 X21.828148 Y37.102290 Z-1.000000 I-0.043088 J0.304980
G03 X21.766943 Y37.116388 Z-1.000000 I-0.070775 J-0.167364
G02 X21.697698 Y37.097070 Z-1.000000 I-0.020660 J0.133718
G03 X21.512892 Y37.111405 Z-1.000000 I-0.144633 J-0.666190
G03 X21.437656 Y37.081714 Z-1.000000 I0.007647 J-0.129547
G02 X21.412157 Y37.068551 Z-1.000000 I-0.042710 J0.051457
G02 X21.359506 Y37.060899 Z-1.000000 I-0.059168 J0.222154
G03 X21.312521 Y37.051594 Z-1.000000 I0.004078 J-0.143857
G03 X21.471937 Y37.050222 Z-1.000000 I-0.050354 J0.828643
G02 X21.516009 Y37.054624 Z-1.000000 I0.036813 J-0.145764
G02 X21.627987 Y37.029109 Z-1.000000 I-0.069889 J-0.471065
G03 X21.805034 Y36.995077 Z-1.000000 I0.236704 J0.753868
G03 X21.878887 Y37.010112 Z-1.000000 I0.010426 J0.137691
G02 X21.924270 Y37.023483 Z-1.000000 I0.057324 J-0.110863
G02 X21.975877 Y37.019432 Z-1.000000 I0.014292 J-0.148690
G03 X22.029032 Y37.008527 Z-1.000000 I0.135725 J0.526546
G03 X22.114203 Y36.998185 Z-1.000000 I0.206106 J1.341561
G02 X22.198649 Y36.985955 Z-1.000000 I-0.069487 J-0.777400
G02 X22.238765 Y36.973131 Z-1.000000 I-0.037539 J-0.186600
G02 X22.176485 Y36.963321 Z-1.000000 I-0.041417 J0.262934
G02 X22.075388 Y36.971978 Z-1.000000 I0.356372 J4.756757
G02 X21.997427 Y36.980570 Z-1.000000 I0.274065 J2.844535
G03 X21.944649 Y36.980483 Z-1.000000 I-0.026041 J-0.209864
G02 X21.994930 Y36.950804 Z-1.000000 I0.035824 J-0.035830
G02 X22.080747 Y36.947829 Z-1.000000 I0.031868 J-0.320023
G02 X21.938078 Y36.923377 Z-1.000000 I-0.121710 J0.710134
G03 X21.763850 Y36.928078 Z-1.000000 I-1.188598 J-40.821318
G03 X21.639296 Y36.930807 Z-1.000000 I-0.527373 J-21.225520
G02 X21.517356 Y36.938290 Z-1.000000 I0.027396 J1.443775
G03 X21.445923 Y36.941316 Z-1.000000 I0.012412 J-0.224432
G02 X21.394823 Y36.935918 Z-1.000000 I-0.040901 J0.142607
G02 X21.341620 Y36.948506 Z-1.000000 I0.011543 J0.167507
G03 X21.294548 Y36.962120 Z-1.000000 I-0.082839 J-0.198249
G03 X21.283880 Y36.909818 Z-1.000000 I0.096130 J0.217717
G02 X21.424113 Y36.899442 Z-1.000000 I-0.076467 J-1.986190
G03 X21.491365 Y36.885754 Z-1.000000 I0.058472 J0.447690
G03 X21.549368 Y36.890036 Z-1.000000 I-0.000000 J0.395042
G02 X21.665179 Y36.999418 Z-1.000000 I0.104650 J0.000000
G02 X21.831315 Y36.876716 Z-1.000000 I-0.012581 J-0.190858
G03 X21.865425 Y36.863106 Z-1.000000 I0.025497 J0.063821
G02 X21.891362 Y36.857743 Z-1.000000 I0.000000 J-0.065396
G03 X21.953735 Y36.836359 Z-1.000000 I0.017853 J0.089821
G02 X21.987010 Y36.834607 Z-1.000000 I0.013083 J-0.068383
G03 X22.145388 Y36.816435 Z-1.000000 I0.008122 J0.202657
G02 X22.172127 Y36.823002 Z-1.000000 I0.026191 J-0.048927
G03 X22.215228 Y36.772415 Z-1.000000 I0.065771 J0.173272
G02 X22.275631 Y36.763131 Z-1.000000 I-0.034810 J-0.427606
G03 X22.390608 Y36.731038 Z-1.000000 I0.183876 J0.757812
G02 X22.459778 Y36.714094 Z-1.000000 I-0.044516 J-0.331389
G03 X22.478478 Y36.693928 Z-1.000000 I-0.005700 J0.151257
G02 X22.517827 Y36.700987 Z-1.000000 I0.033500 J-0.073537
G02 X22.597672 Y36.685278 Z-1.000000 I-0.024236 J-0.333948
G03 X22.678514 Y36.666324 Z-1.000000 I0.150547 J0.460245
G03 X22.719245 Y36.667592 Z-1.000000 I0.016793 J0.115446
G02 X22.759132 Y36.669658 Z-1.000000 I0.026563 J-0.126763
G02 X22.783735 Y36.660912 Z-1.000000 I-0.005685 J-0.054969
G01 X22.784030 Y36.651879 Z-1.000000
G03 X22.822884 Y36.623536 Z-1.000000 I0.104818 J0.567040
G03 X22.872393 Y36.621862 Z-1.000000 I0.040482 J0.464100
G02 X22.993520 Y36.599243 Z-1.000000 I0.056957 J-0.094844
G02 X23.054809 Y36.541998 Z-1.000000 I-0.028147 J-0.091567
G02 X23.198299 Y36.524008 Z-1.000000 I0.014313 J-0.129521
G03 X23.226184 Y36.525505 Z-1.000000 I0.010917 J0.057098
G03 X23.140869 Y36.561093 Z-1.000000 I-0.131552 J-0.420008
G02 X23.066425 Y36.576188 Z-1.000000 I0.073350 J0.552848
G02 X23.215535 Y36.564404 Z-1.000000 I-0.163204 J-1.292439
G02 X23.270214 Y36.543271 Z-1.000000 I-0.058654 J-0.233072
G02 X23.325055 Y36.514745 Z-1.000000 I-0.042031 J-0.236594
G03 X23.348054 Y36.449015 Z-1.000000 I0.103323 J0.186406
G03 X23.380565 Y36.445686 Z-1.000000 I0.025752 J0.091086
G02 X23.413924 Y36.444682 Z-1.000000 I0.011754 J-0.164203
G02 X23.449385 Y36.436576 Z-1.000000 I-0.025671 J-0.193912
G03 X23.428945 Y36.465473 Z-1.000000 I-0.049738 J-0.035181
G02 X23.393139 Y36.492955 Z-1.000000 I0.033997 J0.081361
G02 X23.583759 Y36.432642 Z-1.000000 I0.012807 J-0.049011
G03 X23.667705 Y36.389056 Z-1.000000 I0.238284 J0.503503
G02 X23.756183 Y36.360622 Z-1.000000 I-0.619087 J-2.078309
G02 X23.788228 Y36.347456 Z-1.000000 I-0.098398 J-0.285068
G03 X23.820433 Y36.335654 Z-1.000000 I0.077225 J0.160894
G03 X23.858298 Y36.329183 Z-1.000000 I0.056575 J0.217017
G02 X23.894981 Y36.320217 Z-1.000000 I-0.010091 J-0.120812
G02 X23.943748 Y36.293458 Z-1.000000 I-0.101657 J-0.243083
G03 X24.012904 Y36.256106 Z-1.000000 I0.200091 J0.287772
G03 X24.115278 Y36.249065 Z-1.000000 I0.108529 J0.285957
G02 X24.159015 Y36.233708 Z-1.000000 I-0.028243 J-0.150395
G03 X24.248148 Y36.201856 Z-1.000000 I0.023698 J0.091051
G03 X24.352688 Y36.170816 Z-1.000000 I0.057020 J0.106948
G02 X24.406944 Y36.168365 Z-1.000000 I0.016876 J-0.228154
G03 X24.441168 Y36.173687 Z-1.000000 I-0.049235 J0.045971
G03 X24.474761 Y36.171749 Z-1.000000 I0.064444 J0.046474
G03 X24.537888 Y36.120038 Z-1.000000 I0.994040 J1.149108
G02 X24.643503 Y36.120546 Z-1.000000 I-0.038890 J-0.062265
G03 X24.810339 Y36.032968 Z-1.000000 I0.063477 J0.425881
G03 X24.881982 Y35.991169 Z-1.000000 I0.040245 J0.040980
G02 X24.917379 Y35.984333 Z-1.000000 I-0.000000 J-0.095063
G02 X24.959072 Y35.960241 Z-1.000000 I-0.063158 J-0.157421
G03 X24.998812 Y35.936781 Z-1.000000 I0.107440 J0.136613
G02 X25.082502 Y35.899427 Z-1.000000 I-0.037496 J-0.066621
G03 X25.107977 Y35.871351 Z-1.000000 I0.123789 J0.086726
G02 X25.167892 Y35.837045 Z-1.000000 I-0.117862 J-0.187907
G03 X25.256620 Y35.786584 Z-1.000000 I0.150739 J0.161813
G03 X25.252626 Y35.835459 Z-1.000000 I-0.050187 J-0.067391
G02 X25.187854 Y35.859558 Z-1.000000 I0.000000 J0.099096
G02 X25.237996 Y35.874556 Z-1.000000 I-0.061469 J-0.176778
G03 X25.265906 Y35.864408 Z-1.000000 I0.035503 J0.054190
G02 X25.332738 Y35.918300 Z-1.000000 I-0.078269 J-0.168713
G03 X25.357426 Y35.928883 Z-1.000000 I-0.057052 J0.010879
G02 X25.384016 Y35.921484 Z-1.000000 I-0.070437 J-0.031694
G02 X25.457843 Y35.903495 Z-1.000000 I0.032688 J-0.086004
G03 X25.487006 Y35.920014 Z-1.000000 I-0.103539 J-0.161773
G02 X25.408936 Y35.973960 Z-1.000000 I0.015986 J0.106599
G02 X25.400736 Y36.074120 Z-1.000000 I0.105487 J0.059052
G02 X25.512736 Y36.051712 Z-1.000000 I-0.068165 J-0.105294
G03 X25.561640 Y36.109602 Z-1.000000 I-0.194369 J-0.000000
G03 X25.363842 Y36.198457 Z-1.000000 I-0.152610 J-0.163157
G02 X25.299376 Y36.188984 Z-1.000000 I0.060305 J-0.024606
G02 X25.264995 Y36.270845 Z-1.000000 I0.041774 J0.062925
G03 X25.240146 Y36.286836 Z-1.000000 I0.008335 J-0.053165
G02 X25.207356 Y36.263948 Z-1.000000 I-0.097315 J0.104485
G03 X25.082199 Y36.327706 Z-1.000000 I-0.060164 J-0.000000
G02 X24.972506 Y36.316381 Z-1.000000 I-0.001296 J0.062001
G02 X24.987156 Y36.349428 Z-1.000000 I0.051479 J-0.022835
G03 X25.004385 Y36.371464 Z-1.000000 I-0.041969 J0.050567
G03 X25.010336 Y36.397518 Z-1.000000 I-0.054058 J0.026055
G02 X24.935084 Y36.407791 Z-1.000000 I-0.023840 J0.062701
G03 X24.874096 Y36.465465 Z-1.000000 I-0.082371 J-0.099261
G03 X24.830438 Y36.467728 Z-1.000000 I-0.028864 J-0.134628
G02 X24.864666 Y36.419506 Z-1.000000 I-0.045150 J-0.030986
G02 X24.860460 Y36.386550 Z-1.000000 I-0.091291 J-0.005096
G03 X24.807056 Y36.432941 Z-1.000000 I-0.124165 J-0.118440
G02 X24.780468 Y36.470840 Z-1.000000 I0.028524 J0.048288
G03 X24.761103 Y36.513572 Z-1.000000 I-0.043371 J-0.107895
G03 X24.735696 Y36.509795 Z-1.000000 I-0.004209 J-0.059043
G02 X24.801226 Y36.538055 Z-1.000000 I0.053647 J-0.270006
G02 X24.868568 Y36.519503 Z-1.000000 I-0.010303 J-0.168896
G02 X24.902941 Y36.497913 Z-1.000000 I0.018553 J-0.057235
G02 X24.937516 Y36.486101 Z-1.000000 I-0.015828 J-0.102840
G03 X24.972167 Y36.472170 Z-1.000000 I0.073414 J0.132544
G02 X25.125696 Y36.415653 Z-1.000000 I0.020710 J-0.072394
G02 X25.156254 Y36.403878 Z-1.000000 I-0.017259 J-0.090323
G03 X25.253156 Y36.381668 Z-1.000000 I0.014728 J0.098421
G03 X25.395682 Y36.382753 Z-1.000000 I-0.000416 J0.121348
G02 X25.403880 Y36.345334 Z-1.000000 I-0.051830 J0.003783
G03 X25.432812 Y36.313117 Z-1.000000 I0.023125 J0.079891
G02 X25.468860 Y36.311584 Z-1.000000 I0.014891 J-0.074435
G02 X25.434992 Y36.274456 Z-1.000000 I-0.036942 J0.054673
G03 X25.408916 Y36.262835 Z-1.000000 I0.007758 J-0.052471
G03 X25.463362 Y36.242299 Z-1.000000 I-0.001522 J0.172219
G02 X25.538780 Y36.265395 Z-1.000000 I0.212511 J-0.559254
G03 X25.578865 Y36.259489 Z-1.000000 I0.067644 J0.219692
G03 X25.631142 Y36.249440 Z-1.000000 I0.308354 J1.463237
G03 X25.661709 Y36.253024 Z-1.000000 I0.009252 J0.053238
G02 X25.653283 Y36.283075 Z-1.000000 I0.048527 J0.040288
G02 X25.728625 Y36.267565 Z-1.000000 I0.000000 J-0.145080
G02 X25.770670 Y36.220835 Z-1.000000 I-0.050825 J-0.088009
G01 X25.778793 Y36.213610 Z-1.000000
G03 X25.807540 Y36.209157 Z-1.000000 I0.028747 J0.090563
G02 X26.006639 Y36.169411 Z-1.000000 I0.000000 J-0.518534
G02 X26.356721 Y35.980789 Z-1.000000 I-0.763872 J-1.836937
G03 X26.388140 Y35.962344 Z-1.000000 I0.160695 J0.237748
G03 X26.441291 Y36.142984 Z-1.000000 I-3.225651 J0.766883
G02 X26.522474 Y36.539976 Z-1.000000 I8.620542 J-1.556065
G02 X26.511921 Y36.255868 Z-1.000000 I-2.827976 J0.229759
G03 X26.493214 Y36.138915 Z-1.000000 I2.131825 J-0.400960
G03 X26.492381 Y36.107951 Z-1.000000 I0.147338 J-0.019458
G02 X26.492698 Y36.076837 Z-1.000000 I-0.236704 J-0.017967
G02 X26.485381 Y35.983388 Z-1.000000 I-2.059525 J0.114240
G02 X26.495217 Y35.950776 Z-1.000000 I0.168424 J-0.045236
G02 X26.505831 Y35.966241 Z-1.000000 I0.054001 J-0.025684
G02 X26.496731 Y35.896175 Z-1.000000 I-0.526016 J0.068359
G03 X26.478381 Y35.811582 Z-1.000000 I0.901658 J-0.239880
G03 X26.474171 Y35.762431 Z-1.000000 I0.297744 J-0.050256
G03 X26.490704 Y35.711934 Z-1.000000 I0.084425 J-0.000315
G02 X26.542241 Y35.647931 Z-1.000000 I-0.044875 J-0.048723
G02 X26.470191 Y35.601917 Z-1.000000 I-0.072050 J0.033402
G02 X26.452111 Y35.531978 Z-1.000000 I-0.125707 J0.033810
G03 X26.438347 Y35.496936 Z-1.000000 I0.077034 J-0.050482
G02 X26.501381 Y35.460679 Z-1.000000 I-0.057640 J-0.080075
G03 X26.414366 Y35.378686 Z-1.000000 I0.000931 J-0.054688
G02 X26.413561 Y35.274194 Z-1.000000 I-0.172218 J0.031752
G03 X26.371051 Y35.164670 Z-1.000000 I0.432804 J-0.230996
G02 X26.424308 Y35.232876 Z-1.000000 I0.065105 J-0.000466
G03 X26.427261 Y35.167616 Z-1.000000 I0.104736 J-0.038241
G02 X26.403518 Y35.115557 Z-1.000000 I-0.068944 J0.000000
G03 X26.349411 Y35.082152 Z-1.000000 I0.059264 J-0.027795
G02 X26.344042 Y35.046213 Z-1.000000 I-0.122967 J0.000000
G02 X26.342661 Y35.188819 Z-1.000000 I1.426196 J-0.072885
G03 X26.340414 Y35.216279 Z-1.000000 I-0.057476 J0.009119
G03 X26.310281 Y35.148466 Z-1.000000 I0.233953 J-0.076574
G02 X26.303668 Y35.096011 Z-1.000000 I-1.411696 J0.151323
G02 X26.281251 Y34.947966 Z-1.000000 I-11.843289 J1.717614
G03 X26.242766 Y34.650447 Z-1.000000 I5.312186 J-0.838403
G02 X26.263823 Y34.680543 Z-1.000000 I0.088930 J-0.017973
G03 X26.284181 Y34.737976 Z-1.000000 I-0.061359 J0.006308
G02 X26.278427 Y34.774695 Z-1.000000 I0.062921 J0.028671
G02 X26.296791 Y34.845600 Z-1.000000 I0.266773 J-0.031262
G02 X26.329714 Y34.911248 Z-1.000000 I0.455904 J-0.187561
G02 X26.314911 Y34.821339 Z-1.000000 I-0.104764 J0.026753
G03 X26.315215 Y34.763139 Z-1.000000 I0.138399 J0.000720
G02 X26.324389 Y34.717774 Z-1.000000 I-0.161731 J-0.056316
G03 X26.312315 Y34.663794 Z-1.000000 I0.094329 J-0.014426
G02 X26.295435 Y34.471998 Z-1.000000 I-0.403457 J0.027125
G03 X26.282394 Y34.428868 Z-1.000000 I0.203905 J-0.085190
G03 X26.317167 Y34.466344 Z-1.000000 I-0.037030 J0.059919
G03 X26.340475 Y34.612395 Z-1.000000 I-0.577028 J0.166970
G02 X26.351715 Y34.666136 Z-1.000000 I0.160173 J-0.005454
G03 X26.389572 Y34.613398 Z-1.000000 I0.054809 J-0.005645
G02 X26.430225 Y34.654936 Z-1.000000 I0.109616 J0.016268
G03 X26.511185 Y34.701036 Z-1.000000 I0.000000 J0.076145
G03 X26.588477 Y34.874010 Z-1.000000 I-0.445220 J0.302700
G03 X26.587609 Y34.907819 Z-1.000000 I-0.061680 J0.015332
G03 X26.555697 Y34.977863 Z-1.000000 I-0.066886 J-0.057686
G02 X26.553557 Y35.146026 Z-1.000000 I0.436271 J0.099689
G03 X26.544207 Y35.232884 Z-1.000000 I-0.657519 J-0.026845
G02 X26.514312 Y35.324588 Z-1.000000 I0.033767 J0.053036
G02 X26.538821 Y35.409571 Z-1.000000 I0.161625 J-0.025973
G03 X26.575907 Y35.375040 Z-1.000000 I-0.085538 J0.056276
G03 X26.580048 Y35.431273 Z-1.000000 I-0.247325 J0.046480
G02 X26.543076 Y35.498060 Z-1.000000 I0.043244 J0.059533
G02 X26.543067 Y35.572726 Z-1.000000 I0.049167 J0.010746
G03 X26.505974 Y35.525553 Z-1.000000 I0.086520 J-0.069159
G02 X26.492815 Y35.583949 Z-1.000000 I0.092307 J0.051645
G02 X26.559542 Y35.675358 Z-1.000000 I0.055593 J0.007255
G03 X26.576417 Y35.653626 Z-1.000000 I0.031938 J-0.042987
G02 X26.628802 Y35.656179 Z-1.000000 I1.618005 J-1.251741
G02 X26.644617 Y35.675224 Z-1.000000 I0.629716 J-0.506834
G03 X26.657449 Y35.695254 Z-1.000000 I-0.064247 J0.055284
G03 X26.704897 Y35.769302 Z-1.000000 I-0.133982 J0.093347
G02 X26.716178 Y35.733018 Z-1.000000 I-0.102076 J-0.002930
G03 X26.665917 Y35.626811 Z-1.000000 I0.093351 J-0.038477
G03 X26.693357 Y35.656417 Z-1.000000 I-0.085018 J0.078905
G02 X26.717241 Y35.700895 Z-1.000000 I0.343017 J-0.155547
G02 X26.785247 Y35.656611 Z-1.000000 I-0.054362 J-0.053789
G03 X26.816387 Y35.687179 Z-1.000000 I-0.100449 J0.033625
G02 X26.823132 Y35.719377 Z-1.000000 I0.080227 J-0.000000
G03 X26.878667 Y35.824291 Z-1.000000 I-0.068346 J0.048864
G03 X26.782127 Y35.827041 Z-1.000000 I-0.020575 J-0.116916
G03 X26.794851 Y35.853927 Z-1.000000 I-0.041435 J0.093714
G03 X26.856547 Y36.011805 Z-1.000000 I-0.407388 J0.102257
G02 X26.887557 Y35.928449 Z-1.000000 I-0.301363 J-0.112145
G03 X26.906855 Y35.823025 Z-1.000000 I0.540159 J0.044398
G03 X26.910053 Y35.898474 Z-1.000000 I-0.904638 J-0.052644
G02 X26.890499 Y35.962674 Z-1.000000 I0.041301 J0.041315
G02 X26.943917 Y36.084835 Z-1.000000 I0.025130 J-0.045948
G02 X26.947807 Y36.148826 Z-1.000000 I0.068251 J0.014822
G02 X26.872497 Y36.179318 Z-1.000000 I0.052548 J-0.022092
G03 X26.936147 Y36.292645 Z-1.000000 I-0.627320 J0.074003
G03 X26.924358 Y36.378443 Z-1.000000 I-0.402141 J-0.011545
G02 X26.926697 Y36.416889 Z-1.000000 I0.134641 J-0.058546
G02 X26.996717 Y36.449694 Z-1.000000 I-0.041411 J-0.051992
G02 X26.995576 Y36.398959 Z-1.000000 I-0.121263 J-0.022655
G03 X27.020121 Y36.335552 Z-1.000000 I0.044237 J0.139330
G03 X27.038127 Y36.473199 Z-1.000000 I-2.063216 J0.133381
G02 X27.044492 Y36.595936 Z-1.000000 I1.302103 J-0.005994
G03 X26.964477 Y36.678121 Z-1.000000 I0.047286 J-0.020448
G03 X26.977977 Y36.639188 Z-1.000000 I0.227049 J0.056922
G03 X26.992157 Y36.616440 Z-1.000000 I0.090517 J0.040630
G02 X27.019361 Y36.554657 Z-1.000000 I-0.094632 J-0.078548
G02 X26.987737 Y36.566795 Z-1.000000 I0.049081 J0.024778
G03 X26.982613 Y36.596122 Z-1.000000 I-0.086484 J0.000000
G03 X26.956867 Y36.652432 Z-1.000000 I-0.351792 J-0.126803
G02 X26.934053 Y36.702795 Z-1.000000 I0.279349 J0.156893
G03 X26.818917 Y36.751405 Z-1.000000 I-0.098372 J-0.153799
G03 X26.759699 Y36.730871 Z-1.000000 I-0.045384 J-0.030352
G03 X26.738916 Y36.741303 Z-1.000000 I-0.044107 J-0.061949
G02 X27.002202 Y36.800423 Z-1.000000 I0.258355 J-1.150588
G02 X27.338964 Y36.733864 Z-1.000000 I-0.002708 J-0.898913
G02 X27.548280 Y36.577709 Z-1.000000 I-0.196464 J-0.481714
G02 X27.572263 Y36.524054 Z-1.000000 I-0.090585 J-0.072678
G02 X27.584840 Y36.357496 Z-1.000000 I-0.925217 J-0.153618
G02 X27.557011 Y35.912269 Z-1.000000 I-4.560337 J0.061564
G02 X27.492640 Y35.531848 Z-1.000000 I-3.408818 J0.381148
G03 X27.486794 Y35.500483 Z-1.000000 I0.392615 J-0.089403
G03 X27.455230 Y35.274939 Z-1.000000 I20.145913 J-2.934336
G02 X27.423997 Y35.049299 Z-1.000000 I-28.100879 J3.774758
G02 X27.393100 Y34.838971 Z-1.000000 I-24.519324 J3.494417
G03 X27.361854 Y34.628692 Z-1.000000 I39.877383 J-6.032871
G03 X27.322680 Y34.356293 Z-1.000000 I66.663373 J-9.726057
G02 X27.163093 Y33.355186 Z-1.000000 I-29.003559 J4.110201
G02 X27.081758 Y32.996741 Z-1.000000 I-3.791379 J0.671853
G03 X26.917745 Y32.339106 Z-1.000000 I12.337945 J-3.426322
G03 X26.808720 Y31.763844 Z-1.000000 I9.329659 J-2.066148
G02 X26.783910 Y31.608176 Z-1.000000 I-57.569553 J9.095663
G02 X26.746130 Y31.374587 Z-1.000000 I-123.850267 J19.911102
G03 X26.626312 Y30.567082 Z-1.000000 I28.836977 J-4.691474
G03 X26.457929 Y29.225891 Z-1.000000 I79.369827 J-10.645857
G02 X26.408716 Y28.809435 Z-1.000000 I-175.990226 J20.585807
G02 X26.317604 Y28.050335 Z-1.000000 I-587.550586 J70.136500
G03 X26.219568 Y27.159519 Z-1.000000 I42.419708 J-5.119188
G03 X26.170498 Y26.571160 Z-1.000000 I18.457925 J-1.835633
G01 X26.160498 Y26.423243 Z-1.000000
G02 X26.380788 Y26.144221 Z-1.000000 I-0.197250 J-0.311271
G02 X26.388591 Y25.456714 Z-1.000000 I-1.973259 J-0.366194
G03 X26.368015 Y25.315091 Z-1.000000 I4.262309 J-0.691556
G03 X26.341591 Y25.090813 Z-1.000000 I10.743123 J-1.379445
G02 X26.315220 Y24.866518 Z-1.000000 I-10.941902 J1.172777
G02 X26.290921 Y24.694943 Z-1.000000 I-6.418683 J0.821523
G03 X26.274383 Y24.522896 Z-1.000000 I1.468620 J-0.227989
G03 X26.264531 Y23.994281 Z-1.000000 I13.894143 J-0.523352
G03 X26.297864 Y23.353508 Z-1.000000 I6.219673 J0.002298
G03 X26.383487 Y22.849866 Z-1.000000 I3.922386 J0.407733
G03 X26.580573 Y22.272027 Z-1.000000 I3.115270 J0.740011
G03 X26.861624 Y21.791088 Z-1.000000 I2.429512 J1.097165
G03 X27.280450 Y21.304617 Z-1.000000 I3.350291 J2.460897
G03 X27.808647 Y20.849174 Z-1.000000 I3.460448 J3.479221
G02 X27.884802 Y20.788198 Z-1.000000 I-0.838379 J-1.125133
G01 X27.884977 Y20.783574 Z-1.000000
G02 X27.686873 Y20.816654 Z-1.000000 I1.081983 J6.498333
G03 X27.296565 Y20.887596 Z-1.000000 I-2.585634 J-13.116335
G03 X27.213500 Y20.895434 Z-1.000000 I-0.096720 J-0.580998
G02 X27.194024 Y20.851032 Z-1.000000 I-0.060646 J-0.000000
G03 X27.268340 Y20.804764 Z-1.000000 I0.255987 J0.597373
G03 X27.359707 Y20.791153 Z-1.000000 I0.100589 J0.361777
G02 X27.321957 Y20.815026 Z-1.000000 I-0.024406 J0.122442
G02 X27.489986 Y20.829668 Z-1.000000 I0.000000 J-0.860884
G03 X27.552129 Y20.788604 Z-1.000000 I0.014058 J0.081516
G02 X27.516567 Y20.772248 Z-1.000000 I-0.035919 J0.081232
G02 X27.476999 Y20.779395 Z-1.000000 I-0.000637 J0.109585
G03 X27.405191 Y20.793161 Z-1.000000 I-0.075100 J-0.197570
G03 X27.435349 Y20.759555 Z-1.000000 I0.060193 J0.122042
G02 X27.477809 Y20.750655 Z-1.000000 I-0.094708 J-0.557592
G02 X27.601347 Y20.718115 Z-1.000000 I-1.230938 J-4.923962
G03 X27.719989 Y20.695791 Z-1.000000 I0.191604 J0.691875
G03 X27.758569 Y20.662288 Z-1.000000 I0.050236 J0.000342
G02 X27.836688 Y20.616425 Z-1.000000 I-0.132422 J-0.221686
G02 X27.855611 Y20.544905 Z-1.000000 I-0.046976 J-0.050692
G02 X27.789188 Y20.466117 Z-1.000000 I-0.127880 J0.040416
G02 X27.645369 Y20.409613 Z-1.000000 I-0.348958 J0.676923
G02 X27.669817 Y20.436877 Z-1.000000 I0.025208 J-0.062966
G03 X27.640572 Y20.470626 Z-1.000000 I-0.042763 J-0.056300
G03 X27.574194 Y20.476557 Z-1.000000 I-0.060703 J-0.304970
G02 X27.518080 Y20.484171 Z-1.000000 I-0.003379 J0.185676
G03 X27.581814 Y20.512727 Z-1.000000 I-0.019436 J0.151739
G03 X27.516424 Y20.527357 Z-1.000000 I-0.066453 J-0.297077
G03 X27.416600 Y20.521417 Z-1.000000 I-0.004034 J-0.773980
G03 X27.391862 Y20.511827 Z-1.000000 I0.006749 J-0.054111
G02 X27.351382 Y20.441127 Z-1.000000 I-0.038289 J0.087056
G03 X27.301370 Y20.434389 Z-1.000000 I-0.004423 J-0.156161
G02 X27.179852 Y20.397187 Z-1.000000 I-0.017566 J0.125076
G03 X27.213381 Y20.377955 Z-1.000000 I0.063075 J0.145963
G03 X27.239422 Y20.379287 Z-1.000000 I0.009774 J0.064159
G03 X27.250333 Y20.341791 Z-1.000000 I0.000000 J-0.148054
G03 X26.769657 Y20.280227 Z-1.000000 I12.690986 J-100.993974
G02 X26.652601 Y20.267862 Z-1.000000 I-0.307711 J2.352887
G02 X26.381956 Y20.248947 Z-1.000000 I-1.022921 J12.690283
G03 X26.111903 Y20.230164 Z-1.000000 I0.763593 J-12.929705
G02 X26.024939 Y20.200969 Z-1.000000 I-0.092590 J0.149813
G03 X25.999070 Y20.254897 Z-1.000000 I-0.068880 J-0.028303
G02 X25.979612 Y20.280070 Z-1.000000 I0.088553 J0.088553
G03 X25.944430 Y20.330947 Z-1.000000 I-0.086899 J-0.075156
G02 X25.918673 Y20.361648 Z-1.000000 I0.034313 J0.054942
G02 X25.993210 Y20.304457 Z-1.000000 I-0.538108 J-0.511245
G03 X26.051980 Y20.254720 Z-1.000000 I0.139165 J0.104849
G02 X26.074934 Y20.290236 Z-1.000000 I0.056346 J0.000000
G03 X26.155250 Y20.265327 Z-1.000000 I0.012142 J0.089115
G03 X26.350326 Y20.385826 Z-1.000000 I-0.108627 J0.975696
G03 X26.405424 Y20.395911 Z-1.000000 I0.018018 J0.056956
G03 X26.376503 Y20.424717 Z-1.000000 I-0.043414 J-0.069860
G03 X26.274673 Y20.496537 Z-1.000000 I0.012173 J-0.063205
G03 X26.302014 Y20.570867 Z-1.000000 I-0.051998 J0.046281
G02 X26.200753 Y20.599027 Z-1.000000 I0.038858 J0.054783
G02 X25.942552 Y20.655600 Z-1.000000 I-0.020820 J0.455135
G03 X25.872879 Y20.603976 Z-1.000000 I0.091504 J0.016894
G03 X25.882259 Y20.571946 Z-1.000000 I0.010880 J0.057051
G03 X25.926809 Y20.436016 Z-1.000000 I0.047593 J0.213615
G02 X25.890089 Y20.405256 Z-1.000000 I-0.049048 J0.183096
G03 X25.845629 Y20.346866 Z-1.000000 I0.044696 J-0.034030
G03 X25.876750 Y20.269983 Z-1.000000 I0.168492 J0.023464
G02 X25.948005 Y20.253608 Z-1.000000 I0.013123 J-0.059857
G02 X25.892469 Y20.201636 Z-1.000000 I-0.065364 J0.141927
G03 X25.812244 Y20.199257 Z-1.000000 I0.040672 J-2.725426
G03 X25.765472 Y20.196036 Z-1.000000 I0.042634 J-0.960268
G02 X25.718738 Y20.191966 Z-1.000000 I-0.346910 J3.713381
G02 X25.558927 Y20.179306 Z-1.000000 I-4.251544 J52.652077
G03 X25.815939 Y20.163096 Z-1.000000 I-0.071889 J9.267298
G02 X25.974413 Y20.164814 Z-1.000000 I0.101098 J-2.015077
G02 X26.010843 Y20.157596 Z-1.000000 I-0.003174 J-0.111554
G03 X26.046931 Y20.152117 Z-1.000000 I0.030726 J0.080791
G03 X26.155004 Y20.166596 Z-1.000000 I-0.047607 J0.765919
G02 X26.421804 Y20.197606 Z-1.000000 I0.308669 J-1.492417
G02 X26.570455 Y20.178016 Z-1.000000 I0.013048 J-0.474757
G03 X26.596258 Y20.177144 Z-1.000000 I0.014584 J0.049382
G03 X26.644275 Y20.194616 Z-1.000000 I-0.043168 J0.193356
G02 X26.692695 Y20.210571 Z-1.000000 I0.073997 J-0.143113
G02 X26.734585 Y20.209136 Z-1.000000 I0.017286 J-0.107507
G03 X26.802518 Y20.227595 Z-1.000000 I0.035062 J0.097854
G03 X26.870955 Y20.221974 Z-1.000000 I0.025940 J0.063260
G03 X26.904400 Y20.230305 Z-1.000000 I-0.009048 J0.107619
G02 X26.952695 Y20.243004 Z-1.000000 I0.012182 J-0.121577
G03 X27.245368 Y20.208101 Z-1.000000 I0.341644 J1.620282
G03 X27.345848 Y20.218414 Z-1.000000 I0.051253 J0.179113
G03 X27.398374 Y20.224918 Z-1.000000 I-0.000000 J0.215350
G02 X27.447048 Y20.234024 Z-1.000000 I0.006143 J-0.167369
G03 X27.488931 Y20.230636 Z-1.000000 I0.032942 J0.146680
G03 X27.626618 Y20.247604 Z-1.000000 I0.065991 J0.480329
G03 X27.710329 Y20.238997 Z-1.000000 I-0.000844 J0.120969
G03 X27.735111 Y20.250844 Z-1.000000 I-0.023206 J0.080385
G02 X27.694979 Y20.256166 Z-1.000000 I-0.016707 J0.059338
G02 X27.763671 Y20.270644 Z-1.000000 I0.016029 J-0.185775
G03 X27.804101 Y20.233234 Z-1.000000 I-0.013713 J0.055350
G02 X27.861741 Y20.228134 Z-1.000000 I-0.006185 J-0.069902
G02 X27.942056 Y20.259353 Z-1.000000 I0.087562 J-0.061335
G03 X27.994768 Y20.205764 Z-1.000000 I0.039502 J0.120990
G02 X28.046578 Y20.201448 Z-1.000000 I0.011655 J-0.173247
G03 X28.116649 Y20.152629 Z-1.000000 I-0.052224 J-0.052224
