%
(Header)
(Generated by gcodetools from Inkscape.)
(Using default header. To add your own header create file "header" in the output dir.)
M3
(Header end.)
G21 (All units in mm)

(Start cutting path id: path20655)
(Change tool to Default tool)

G00 Z5.000000
G00 X26.913957 Y3.621504

G01 Z-1.000000 F100.0(Penetrate)
G02 X26.933151 Y3.611451 Z-1.000000 I-0.094524 J-0.055033
G02 X26.913957 Y3.621504 Z-1.000000 I0.039684 J0.037496
G00 Z5.000000

(End cutting path id: path20655)


(Start cutting path id: path20655)
(Change tool to Default tool)

G00 Z5.000000

G01 Z-1.000000 F100.0(Penetrate)
G02 X26.912057 Y3.737679 Z-1.000000 I0.045458 J0.048079
G00 Z5.000000

(End cutting path id: path20655)


(Start cutting path id: path20655)
(Change tool to Default tool)

G00 Z5.000000

G01 Z-1.000000 F100.0(Penetrate)
G02 X26.899180 Y3.890591 Z-1.000000 I0.182972 J-0.029076 F3500.000000
G02 X26.894087 Y3.823306 Z-1.000000 I-0.217103 J0.044127
G00 Z5.000000

(End cutting path id: path20655)


(Start cutting path id: path20655)
(Change tool to Default tool)

G00 Z5.000000

G01 Z-1.000000 F100.0(Penetrate)
G02 X26.986776 Y3.873390 Z-1.000000 I0.084394 J-0.000000 F3500.000000
G02 X27.001444 Y3.853996 Z-1.000000 I-0.071086 J-0.014137
G00 Z5.000000

(End cutting path id: path20655)


(Start cutting path id: path20655)
(Change tool to Default tool)

G00 Z5.000000

G01 Z-1.000000 F100.0(Penetrate)
G02 X27.017189 Y3.927826 Z-1.000000 I0.109564 J0.044691 F3500.000000
G02 X27.013734 Y3.984196 Z-1.000000 I0.403231 J0.053005
G02 X27.021535 Y4.013715 Z-1.000000 I0.061695 J-0.000512
G02 X27.040075 Y3.984896 Z-1.000000 I-0.066993 J-0.038965
G02 X27.041424 Y3.928156 Z-1.000000 I-0.264780 J-0.034680
G02 X27.032272 Y3.898110 Z-1.000000 I-0.074052 J0.006140
G00 Z5.000000

(End cutting path id: path20655)


(Start cutting path id: path20655)
(Change tool to Default tool)

G00 Z5.000000

G01 Z-1.000000 F100.0(Penetrate)
G00 Z5.000000

(End cutting path id: path20655)


(Start cutting path id: path20655)
(Change tool to Default tool)

G00 Z5.000000

G01 Z-1.000000 F100.0(Penetrate)
G03 X26.986949 Y4.203229 Z-1.000000 I-0.548561 J-0.046706 F3500.000000
G03 X26.919849 Y4.274912 Z-1.000000 I-0.041768 J-0.040410
G03 X26.882289 Y4.296072 Z-1.000000 I0.140578 J-0.052938
G02 X26.878669 Y4.232348 Z-1.000000 I-0.312891 J-0.014188
G03 X26.855519 Y4.186292 Z-1.000000 I0.120141 J-0.045255
G02 X26.840070 Y4.241043 Z-1.000000 I0.218748 J0.040144
G02 X26.802913 Y4.285722 Z-1.000000 I0.013688 J0.051986
G02 X26.810809 Y4.343362 Z-1.000000 I-0.030543 J-0.044239
G03 X26.816659 Y4.319743 Z-1.000000 I0.050604 J0.000000
G02 X26.820779 Y4.429862 Z-1.000000 I0.243013 J0.032721
G03 X26.811768 Y4.473177 Z-1.000000 I-0.078529 J0.006257
G02 X26.751229 Y4.598462 Z-1.000000 I0.133277 J0.060148
G03 X26.742567 Y4.662411 Z-1.000000 I-0.283995 J-0.005906
G03 X26.718739 Y4.726491 Z-1.000000 I-0.308708 J-0.078323
G02 X26.681516 Y4.692141 Z-1.000000 I-0.228142 J0.002847
G02 X26.664079 Y4.716011 Z-1.000000 I0.091327 J0.027153
G03 X26.662725 Y4.757237 Z-1.000000 I-0.255047 J0.012257
G03 X26.654679 Y4.797861 Z-1.000000 I-0.251712 J-0.028744
G02 X26.650164 Y4.837317 Z-1.000000 I0.117393 J0.033420
G02 X26.657779 Y4.864031 Z-1.000000 I0.061315 J-0.003036
G03 X26.692059 Y5.013211 Z-1.000000 I-0.151652 J0.057380
G02 X26.694317 Y5.051438 Z-1.000000 I0.073810 J0.014820
G03 X26.770160 Y4.975731 Z-1.000000 I0.123104 J0.000736
G03 X26.787069 Y4.943481 Z-1.000000 I0.105686 J0.034853
G03 X26.804433 Y4.992456 Z-1.000000 I-0.105950 J0.001228
G02 X26.779779 Y5.052471 Z-1.000000 I0.161869 J0.046878
G03 X26.763378 Y5.109816 Z-1.000000 I-0.108451 J-0.000000
G02 X26.702346 Y5.097220 Z-1.000000 I-0.036493 J0.036493
G03 X26.648259 Y5.158324 Z-1.000000 I-0.077794 J-0.023999
G03 X26.607499 Y5.119116 Z-1.000000 I0.058228 J-0.050507
G03 X26.609819 Y5.072101 Z-1.000000 I0.101623 J-0.018550
G02 X26.623809 Y5.022419 Z-1.000000 I-6.658370 J-1.901695
G02 X26.563989 Y5.107879 Z-1.000000 I0.085250 J0.024416
G03 X26.595643 Y5.209683 Z-1.000000 I-0.318872 J0.154969
G03 X26.591079 Y5.286434 Z-1.000000 I-0.182405 J0.027666
G02 X26.581009 Y5.341090 Z-1.000000 I0.309325 J0.085247
G02 X26.582579 Y5.434244 Z-1.000000 I0.148805 J-0.019694
G03 X26.591273 Y5.483396 Z-1.000000 I-0.078726 J0.039271
G03 X26.562939 Y5.589094 Z-1.000000 I-0.101490 J0.010771
G02 X26.516300 Y5.722298 Z-1.000000 I0.073164 J0.020410
G02 X26.559069 Y5.746334 Z-1.000000 I0.042769 J-0.026033
G02 X26.510837 Y5.878729 Z-1.000000 I0.302700 J0.010927
G02 X26.512719 Y5.923464 Z-1.000000 I1.549456 J-0.042772
G03 X26.558569 Y6.029334 Z-1.000000 I-0.153733 J0.044050
G02 X26.551440 Y6.105999 Z-1.000000 I0.435997 J0.079204
G03 X26.583864 Y6.165830 Z-1.000000 I-0.032806 J0.048646
G03 X26.560110 Y6.214844 Z-1.000000 I-0.059755 J0.001304
G02 X26.537488 Y6.313174 Z-1.000000 I0.000000 J0.055808
G03 X26.494920 Y6.382423 Z-1.000000 I-0.054121 J-0.012124
G02 X26.476510 Y6.410062 Z-1.000000 I0.101784 J0.087747
G02 X26.463850 Y6.444593 Z-1.000000 I0.146756 J0.073392
G01 X26.517640 Y6.532733 Z-1.000000
G03 X26.565398 Y6.439469 Z-1.000000 I0.171237 J0.074818
G03 X26.689495 Y6.649237 Z-1.000000 I-0.126957 J0.205512
G03 X26.565360 Y6.816988 Z-1.000000 I-0.181415 J-0.004441
G02 X26.577710 Y6.914838 Z-1.000000 I0.050386 J0.010925
G03 X26.562140 Y6.976098 Z-1.000000 I-0.070037 J-0.017767
G03 X26.619463 Y7.010158 Z-1.000000 I0.020941 J0.055076
G03 X26.618841 Y7.091160 Z-1.000000 I-0.066579 J-0.000465
G03 X26.569960 Y7.110038 Z-1.000000 I-0.047054 J-0.049116
G02 X26.532597 Y7.118894 Z-1.000000 I-0.002004 J0.074791
G03 X26.651140 Y7.190848 Z-1.000000 I-0.078893 J0.019978
G02 X26.653205 Y7.238421 Z-1.000000 I0.143983 J0.017582
G03 X26.681495 Y7.278337 Z-1.000000 I-0.041205 J0.049928
G02 X26.748110 Y7.283978 Z-1.000000 I-0.011542 J-0.052503
G02 X26.790990 Y7.155132 Z-1.000000 I-1.039219 J-0.107251
G03 X26.797884 Y7.040762 Z-1.000000 I0.860197 J-0.005538
G02 X26.864120 Y6.326436 Z-1.000000 I-17.718136 J-0.710072
G03 X26.870342 Y6.126032 Z-1.000000 I3.446993 J0.006714
G02 X26.862360 Y5.994709 Z-1.000000 I-0.258131 J0.029328
G03 X26.849730 Y5.951327 Z-1.000000 I0.078544 J-0.046396
G02 X26.898551 Y5.865897 Z-1.000000 I-0.236662 J-0.203484
G03 X26.861020 Y5.808509 Z-1.000000 I0.152943 J-0.093542
G03 X26.856942 Y5.755522 Z-1.000000 I0.150643 J-0.038246
G02 X26.899045 Y5.613509 Z-1.000000 I-1.705083 J-0.175648
G02 X26.903290 Y5.427256 Z-1.000000 I-5.160404 J-0.210788
G03 X26.908523 Y5.334532 Z-1.000000 I0.899519 J0.004254
G03 X26.919220 Y5.280551 Z-1.000000 I0.312635 J0.033903
G02 X26.926435 Y5.228984 Z-1.000000 I-0.174567 J-0.050714
G03 X26.897651 Y5.108603 Z-1.000000 I0.084421 J-0.070049
G03 X26.959926 Y5.061352 Z-1.000000 I0.062275 J0.017412
G02 X26.979336 Y4.910556 Z-1.000000 I-1.267383 J-0.163170
G03 X26.989022 Y4.763939 Z-1.000000 I1.478065 J0.024022
G02 X26.998454 Y4.515058 Z-1.000000 I-3.024631 J-0.003923
G03 X26.989790 Y4.251108 Z-1.000000 I3.399313 J-0.243702
G03 X27.005803 Y4.185180 Z-1.000000 I0.098044 J-0.025684
G03 X27.014954 Y4.154989 Z-1.000000 I0.079313 J0.007558
G02 X27.024741 Y4.124553 Z-1.000000 I-0.077566 J-0.041733
G02 X27.024254 Y4.083549 Z-1.000000 I-0.145219 J-0.018781
G00 Z5.000000

(End cutting path id: path20655)


(Start cutting path id: path20655)
(Change tool to Default tool)

G00 Z5.000000

G01 Z-1.000000 F100.0(Penetrate)
G00 Z5.000000

(End cutting path id: path20655)


(Start cutting path id: path20655)
(Change tool to Default tool)

G00 Z5.000000

G01 Z-1.000000 F100.0(Penetrate)
G02 X26.838499 Y4.113887 Z-1.000000 I0.118423 J0.003223 F3500.000000
G02 X26.850233 Y4.071537 Z-1.000000 I-0.097609 J0.015827
G02 X26.832201 Y4.056362 Z-1.000000 I-0.042367 J0.032043
G00 Z5.000000

(End cutting path id: path20655)


(Start cutting path id: path20655)
(Change tool to Default tool)

G00 Z5.000000

G01 Z-1.000000 F100.0(Penetrate)
G00 Z5.000000

(End cutting path id: path20655)


(Start cutting path id: path20655)
(Change tool to Default tool)

G00 Z5.000000

G01 Z-1.000000 F100.0(Penetrate)
G02 X26.875894 Y4.161104 Z-1.000000 I0.124097 J0.047284 F3500.000000
G02 X26.874436 Y4.186644 Z-1.000000 I0.119289 J0.019621
G02 X26.890721 Y4.135995 Z-1.000000 I-0.059398 J-0.017744
G00 Z5.000000

(End cutting path id: path20655)


(Start cutting path id: path20655)
(Change tool to Default tool)

G00 Z5.000000

G01 Z-1.000000 F100.0(Penetrate)
G03 X26.865314 Y4.438395 Z-1.000000 I0.045458 J-0.048079
G00 Z5.000000

(End cutting path id: path20655)


(Start cutting path id: path20655)
(Change tool to Default tool)

G00 Z5.000000

G01 Z-1.000000 F100.0(Penetrate)
G03 X26.786377 Y4.853398 Z-1.000000 I-0.149668 J0.000000 F3500.000000
G03 X26.727129 Y4.814237 Z-1.000000 I0.027774 J-0.044929
G03 X26.755644 Y4.761726 Z-1.000000 I0.066902 J0.002332
G03 X26.795320 Y4.752896 Z-1.000000 I0.030502 J0.043504
G00 Z5.000000

(End cutting path id: path20655)


(Start cutting path id: path20655)
(Change tool to Default tool)

G00 Z5.000000

G01 Z-1.000000 F100.0(Penetrate)
G00 Z5.000000

(End cutting path id: path20655)


(Start cutting path id: path20655)
(Change tool to Default tool)

G00 Z5.000000

G01 Z-1.000000 F100.0(Penetrate)
G02 X26.922516 Y5.198677 Z-1.000000 I0.081102 J0.000000 F3500.000000
G02 X26.940999 Y5.177937 Z-1.000000 I-0.096254 J-0.061905
G00 Z5.000000

(End cutting path id: path20655)


(Start cutting path id: path20655)
(Change tool to Default tool)

G00 Z5.000000

G01 Z-1.000000 F100.0(Penetrate)
G00 Z5.000000

(End cutting path id: path20655)


(Start cutting path id: path20655)
(Change tool to Default tool)

G00 Z5.000000

G01 Z-1.000000 F100.0(Penetrate)
G00 Z5.000000

(End cutting path id: path20655)


(Start cutting path id: path20655)
(Change tool to Default tool)

G00 Z5.000000

G01 Z-1.000000 F100.0(Penetrate)
G03 X26.695580 Y5.833422 Z-1.000000 I-0.087886 J-0.000000 F3500.000000
G03 X26.681092 Y5.772241 Z-1.000000 I0.059388 J-0.004569
G00 Z5.000000

(End cutting path id: path20655)


(Start cutting path id: path20655)
(Change tool to Default tool)

G00 Z5.000000

G01 Z-1.000000 F100.0(Penetrate)
G03 X26.765232 Y5.781331 Z-1.000000 I0.099934 J-0.033675
G03 X26.791782 Y5.801137 Z-1.000000 I-0.371112 J0.160317
G03 X26.794192 Y5.812471 Z-1.000000 I-0.047939 J0.016118
G00 Z5.000000

(End cutting path id: path20655)


(Start cutting path id: path20655)
(Change tool to Default tool)

G00 Z5.000000

G01 Z-1.000000 F100.0(Penetrate)
G02 X26.542496 Y6.027221 Z-1.000000 I-0.076702 J-0.076702
G02 X26.504611 Y6.026510 Z-1.000000 I0.054220 J0.031447
G00 Z5.000000

(End cutting path id: path20655)


(Start cutting path id: path20655)
(Change tool to Default tool)

G00 Z5.000000

G01 Z-1.000000 F100.0(Penetrate)
G00 Z5.000000

(End cutting path id: path20655)


(Start cutting path id: path20655)
(Change tool to Default tool)

G00 Z5.000000

G01 Z-1.000000 F100.0(Penetrate)
G03 X26.608432 Y6.400246 Z-1.000000 I0.000000 J-0.061645
G03 X26.635047 Y6.389644 Z-1.000000 I0.000531 J0.058685
G00 Z5.000000

(End cutting path id: path20655)


(Start cutting path id: path20655)
(Change tool to Default tool)

G00 Z5.000000

G01 Z-1.000000 F100.0(Penetrate)
G03 X26.840494 Y6.649378 Z-1.000000 I-0.048481 J0.019465
G03 X26.836732 Y6.668843 Z-1.000000 I-0.052243 J0.000000
G00 Z5.000000

(End cutting path id: path20655)


(Start cutting path id: path20655)
(Change tool to Default tool)

G00 Z5.000000

G01 Z-1.000000 F100.0(Penetrate)
G03 X26.825117 Y6.913813 Z-1.000000 I-0.105408 J0.027609
G03 X26.821876 Y6.948906 Z-1.000000 I-0.183917 J0.000711
G00 Z5.000000

(End cutting path id: path20655)


(Start cutting path id: path20655)
(Change tool to Default tool)

G00 Z5.000000

G01 Z-1.000000 F100.0(Penetrate)
G00 Z5.000000

(End cutting path id: path20655)


(Start cutting path id: path20655)
(Change tool to Default tool)

G00 Z5.000000

G01 Z-1.000000 F100.0(Penetrate)
G03 X26.573142 Y7.403504 Z-1.000000 I-0.081519 J-0.000303
G03 X26.554731 Y7.447295 Z-1.000000 I-0.273487 J-0.089217
G02 X26.541100 Y7.484859 Z-1.000000 I0.133691 J0.069769
G02 X26.567651 Y7.465775 Z-1.000000 I-0.046182 J-0.042462
G03 X26.608351 Y7.500725 Z-1.000000 I-0.034808 J0.040527
G02 X26.566401 Y7.570705 Z-1.000000 I0.105737 J0.032924
G03 X26.568849 Y7.638861 Z-1.000000 I-0.340124 J0.046336
G02 X26.528456 Y7.716519 Z-1.000000 I0.016944 J0.050181
G02 X26.604821 Y7.770370 Z-1.000000 I0.076365 J-0.027220
G02 X26.636891 Y7.620902 Z-1.000000 I-0.835481 J-0.109543
G03 X26.652792 Y7.506218 Z-1.000000 I0.433812 J0.001703
G03 X26.721756 Y7.737255 Z-1.000000 I-0.311075 J0.192227
G03 X26.638591 Y7.777619 Z-1.000000 I-0.054368 J-0.006161
G02 X26.592761 Y7.939613 Z-1.000000 I0.538704 J0.152393
G03 X26.587351 Y8.047606 Z-1.000000 I-1.080476 J0.000000
G03 X26.577781 Y8.088003 Z-1.000000 I-0.156351 J-0.015706
G03 X26.701511 Y8.202443 Z-1.000000 I-0.263093 J0.092802
G03 X26.692030 Y8.274498 Z-1.000000 I-0.272478 J0.000798
G03 X26.666231 Y8.227263 Z-1.000000 I0.120761 J-0.027871
G02 X26.665626 Y8.185086 Z-1.000000 I-0.120095 J-0.019370
G02 X26.597777 Y8.196929 Z-1.000000 I0.050875 J0.061327
G02 X26.578441 Y8.260340 Z-1.000000 I0.009564 J-0.056587
G02 X26.577371 Y8.358990 Z-1.000000 I0.127958 J0.037924
G03 X26.625321 Y8.408800 Z-1.000000 I-0.035352 J0.038128
G03 X26.612489 Y8.526011 Z-1.000000 I-0.285201 J0.028086
G03 X26.593591 Y8.685264 Z-1.000000 I-0.106829 J0.018133
G02 X26.553691 Y8.789223 Z-1.000000 I0.379234 J0.205189
G02 X26.581451 Y8.993758 Z-1.000000 I0.438938 J-0.084752
G03 X26.597839 Y9.040921 Z-1.000000 I-0.155558 J0.080480
G03 X26.597891 Y9.078518 Z-1.000000 I-0.097719 J0.018935
G02 X26.608099 Y9.179631 Z-1.000000 I0.174747 J0.033430
G03 X26.691584 Y9.304258 Z-1.000000 I-0.024273 J0.060397
G03 X26.662731 Y9.374039 Z-1.000000 I-0.080483 J0.007578
G02 X26.641249 Y9.422301 Z-1.000000 I0.038059 J0.045853
G02 X26.666631 Y9.470469 Z-1.000000 I0.063253 J-0.002560
G03 X26.684993 Y9.495435 Z-1.000000 I-0.031844 J0.042656
G03 X26.695751 Y9.553099 Z-1.000000 I-0.179961 J0.063410
G02 X26.717498 Y9.688515 Z-1.000000 I0.533473 J-0.016218
G02 X26.746221 Y9.723258 Z-1.000000 I0.055135 J-0.016338
G03 X26.774245 Y9.756034 Z-1.000000 I-0.026295 J0.050851
G03 X26.787791 Y9.848169 Z-1.000000 I-0.253375 J0.084315
G03 X26.780442 Y9.948138 Z-1.000000 I-1.117727 J-0.031918
G01 X26.774511 Y9.960335 Z-1.000000
G02 X26.755661 Y10.088791 Z-1.000000 I0.042942 J0.042957
G02 X26.788931 Y10.146487 Z-1.000000 I0.089525 J-0.013183
G02 X26.663171 Y10.360317 Z-1.000000 I0.194417 J0.044940
G02 X26.680414 Y10.437634 Z-1.000000 I0.453845 J-0.060636
G02 X26.696711 Y10.466449 Z-1.000000 I0.076190 J-0.024074
G02 X26.618338 Y10.552025 Z-1.000000 I0.043384 J0.136701
G03 X26.639411 Y10.654469 Z-1.000000 I-0.142007 J0.041671
G02 X26.662751 Y10.752029 Z-1.000000 I0.268953 J0.416413
G02 X26.643294 Y10.775546 Z-1.000000 I0.052750 J0.063452
G03 X26.712403 Y10.813591 Z-1.000000 I0.029278 J0.118292
G02 X26.696841 Y10.993323 Z-1.000000 I0.724385 J0.037916
G02 X26.721973 Y11.139628 Z-1.000000 I2.240747 J-0.309600
G02 X26.732851 Y11.168277 Z-1.000000 I0.094231 J-0.019390
G03 X26.761646 Y11.275937 Z-1.000000 I-0.186853 J0.107657
G03 X26.653704 Y11.226878 Z-1.000000 I0.041902 J-0.045615
G02 X26.633524 Y11.273588 Z-1.000000 I0.122115 J0.052750
G02 X26.637714 Y11.325009 Z-1.000000 I0.212966 J0.008527
G02 X26.640244 Y11.409818 Z-1.000000 I0.169582 J0.013563
G03 X26.645848 Y11.466039 Z-1.000000 I-0.225604 J0.050878
G02 X26.627301 Y11.499160 Z-1.000000 I0.040456 J0.040456
G03 X26.692264 Y11.564888 Z-1.000000 I-0.107573 J0.027163
G03 X26.773829 Y11.586755 Z-1.000000 I0.033752 J0.065266
G03 X26.822289 Y11.563779 Z-1.000000 I0.050274 J-0.011562
G03 X26.842364 Y11.663464 Z-1.000000 I-0.066944 J0.004014
G02 X26.878131 Y11.660817 Z-1.000000 I0.000958 J-0.063439
G03 X26.881764 Y11.749444 Z-1.000000 I-0.267788 J0.000000
G02 X26.823434 Y11.814654 Z-1.000000 I0.082055 J0.046208
G02 X26.754234 Y11.915904 Z-1.000000 I0.087665 J0.040033
G03 X26.761258 Y11.982058 Z-1.000000 I-5.101930 J0.575142
G03 X26.762834 Y12.000954 Z-1.000000 I-0.586790 J0.058460
G02 X26.796074 Y12.037014 Z-1.000000 I0.074360 J-0.068546
G03 X26.811419 Y11.946576 Z-1.000000 I0.399511 J-0.074565
G03 X26.861544 Y12.001504 Z-1.000000 I-0.660537 J0.529436
G03 X26.887022 Y12.063141 Z-1.000000 I-0.137566 J0.092948
G03 X26.889204 Y12.145529 Z-1.000000 I-0.249002 J0.047817
G02 X26.886219 Y12.230278 Z-1.000000 I0.416750 J0.057108
G02 X26.898904 Y12.292367 Z-1.000000 I0.233575 J-0.015382
G03 X26.911283 Y12.351501 Z-1.000000 I-0.218202 J0.076541
G03 X26.878994 Y12.334757 Z-1.000000 I0.067273 J-0.050162
G02 X26.866273 Y12.293474 Z-1.000000 I-0.207752 J0.041415
G02 X26.847422 Y12.344233 Z-1.000000 I0.037613 J0.037613
G02 X26.910524 Y12.471535 Z-1.000000 I0.360960 J-0.099633
G03 X26.886078 Y12.522237 Z-1.000000 I-0.128140 J0.048851
G03 X26.888624 Y12.551635 Z-1.000000 I-0.168433 J0.029398
G02 X26.911001 Y12.657051 Z-1.000000 I0.041813 J0.034711
G02 X26.952984 Y12.695555 Z-1.000000 I0.057382 J-0.020427
G02 X27.020124 Y12.777545 Z-1.000000 I0.058976 J-0.018057
G01 X27.002583 Y12.861992 Z-1.000000
G02 X27.003404 Y12.888285 Z-1.000000 I0.052018 J-0.183785
G03 X27.093669 Y12.923167 Z-1.000000 I-0.004175 J0.145034
G03 X27.112283 Y12.981665 Z-1.000000 I-0.037977 J0.044295
G02 X27.112007 Y13.010701 Z-1.000000 I0.060608 J0.015095
G02 X27.106223 Y12.873303 Z-1.000000 I-0.182392 J0.018169
G03 X27.088021 Y12.816682 Z-1.000000 I0.051178 J-0.047689
G03 X27.175102 Y12.730434 Z-1.000000 I0.394361 J0.017271
G03 X27.192813 Y12.667211 Z-1.000000 I0.443180 J0.090061
G02 X27.212146 Y12.582675 Z-1.000000 I-0.337969 J-0.121769
G03 X27.177473 Y12.459972 Z-1.000000 I0.309364 J-0.063683
G02 X27.177810 Y12.424969 Z-1.000000 I-0.113117 J-0.018592
G03 X27.118133 Y12.419022 Z-1.000000 I0.006744 J-0.079136
G03 X27.068070 Y12.348227 Z-1.000000 I0.064832 J-0.098945
G03 X27.079743 Y12.262297 Z-1.000000 I0.114897 J-0.028151
G03 X27.158453 Y12.337708 Z-1.000000 I-0.048731 J0.012824
G03 X27.173193 Y12.256227 Z-1.000000 I0.058492 J-0.014233
G03 X27.147308 Y12.186063 Z-1.000000 I0.069299 J-0.002042
G02 X27.115476 Y12.195847 Z-1.000000 I0.055197 J0.085134
G02 X27.079912 Y12.115820 Z-1.000000 I-0.874066 J0.060469
G02 X27.071406 Y12.083383 Z-1.000000 I-0.166051 J0.026208
G03 X27.064857 Y12.059506 Z-1.000000 I0.128946 J-0.048204
G03 X27.053896 Y11.986073 Z-1.000000 I1.239669 J-0.222574
G03 X27.055982 Y11.921776 Z-1.000000 I0.213102 J-0.025269
G03 X27.107006 Y11.943693 Z-1.000000 I-0.050807 J0.063396
G02 X27.126446 Y11.965830 Z-1.000000 I0.057196 J-0.030623
G02 X27.135108 Y12.085423 Z-1.000000 I0.174380 J0.066940
G03 X27.156053 Y12.032841 Z-1.000000 I0.131080 J-0.081200
G03 X27.151566 Y11.760306 Z-1.000000 I2.176136 J-0.172135
G02 X27.147214 Y11.730962 Z-1.000000 I-0.077149 J-0.003551
G03 X27.104516 Y11.487830 Z-1.000000 I2.388555 J-0.348521
G02 X27.096418 Y11.451221 Z-1.000000 I-0.112787 J0.005747
G03 X27.080006 Y11.403180 Z-1.000000 I0.098417 J-0.016973
G02 X27.075806 Y11.337834 Z-1.000000 I-0.128761 J-0.024533
G03 X27.048566 Y11.241030 Z-1.000000 I0.502301 J-0.042489
G03 X27.011949 Y11.296778 Z-1.000000 I-0.163849 J-0.032542
G03 X26.966633 Y11.237257 Z-1.000000 I0.065080 J-0.065080
G03 X26.986606 Y11.137523 Z-1.000000 I0.213278 J-0.009157
G02 X26.994369 Y11.101904 Z-1.000000 I-0.074524 J-0.034898
G02 X26.985800 Y11.046433 Z-1.000000 I-0.194868 J0.001707
G03 X26.976235 Y10.990606 Z-1.000000 I0.212020 J-0.065059
G03 X26.982000 Y10.955113 Z-1.000000 I0.089247 J-0.003719
G02 X26.988523 Y10.919061 Z-1.000000 I-0.094544 J-0.035722
G02 X26.981464 Y10.808877 Z-1.000000 I-0.909781 J0.002966
G03 X26.972310 Y10.698462 Z-1.000000 I1.286133 J-0.162215
G03 X26.976064 Y10.675626 Z-1.000000 I0.057377 J-0.002295
G02 X26.968664 Y10.623636 Z-1.000000 I-0.089297 J0.012623
G03 X26.958863 Y10.592276 Z-1.000000 I0.076259 J-0.041044
G03 X26.949714 Y10.456004 Z-1.000000 I1.507781 J-0.169674
G02 X26.940719 Y10.318938 Z-1.000000 I-1.592750 J0.035698
G02 X26.926114 Y10.240147 Z-1.000000 I-0.534222 J0.058276
G03 X26.914769 Y10.164233 Z-1.000000 I0.339501 J-0.089543
G02 X26.956028 Y10.028230 Z-1.000000 I-0.115905 J-0.096228
G02 X26.903394 Y9.981409 Z-1.000000 I-0.052634 J0.006173
G01 X26.893645 Y9.957064 Z-1.000000
G02 X26.888494 Y9.350765 Z-1.000000 I-3.632647 J0.089352
G03 X26.864331 Y9.198080 Z-1.000000 I2.698329 J-0.505269
G03 X26.849394 Y9.048854 Z-1.000000 I2.562543 J-0.331869
G02 X26.838708 Y8.914924 Z-1.000000 I-7.276566 J0.513199
G02 X26.833344 Y8.868087 Z-1.000000 I-0.931962 J0.083004
G03 X26.829073 Y8.821186 Z-1.000000 I0.481947 J-0.067536
G03 X26.816894 Y8.480593 Z-1.000000 I25.514186 J-1.082832
G03 X26.815904 Y8.155304 Z-1.000000 I6.241366 J-0.181649
G02 X26.842024 Y7.904762 Z-1.000000 I-3.385056 J-0.241320
G02 X26.831513 Y7.652388 Z-1.000000 I-3.034924 J0.000000
G03 X26.804230 Y7.597645 Z-1.000000 I0.037301 J-0.037301
G03 X26.795314 Y7.506801 Z-1.000000 I0.458342 J-0.090844
G02 X26.782339 Y7.425233 Z-1.000000 I-0.262883 J0.000000
G03 X26.723624 Y7.372421 Z-1.000000 I0.044817 J-0.045944
G02 X26.707369 Y7.344574 Z-1.000000 I-0.056384 J0.014245
G03 X26.667993 Y7.348859 Z-1.000000 I-0.090991 J-0.236767
G03 X26.682543 Y7.421639 Z-1.000000 I-0.044101 J0.036598
G03 X26.639604 Y7.382431 Z-1.000000 I0.204460 J-0.054014
G02 X26.631923 Y7.326286 Z-1.000000 I-0.209029 J-0.000000
G02 X26.597994 Y7.278581 Z-1.000000 I0.068142 J0.095124
G00 Z5.000000

(End cutting path id: path20655)


(Start cutting path id: path20655)
(Change tool to Default tool)

G00 Z5.000000

G01 Z-1.000000 F100.0(Penetrate)
G00 Z5.000000

(End cutting path id: path20655)


(Start cutting path id: path20655)
(Change tool to Default tool)

G00 Z5.000000

G01 Z-1.000000 F100.0(Penetrate)
G03 X26.770115 Y7.501317 Z-1.000000 I-0.074770 J0.019409 F3500.000000
G03 X26.762174 Y7.523412 Z-1.000000 I-0.051803 J-0.006143
G03 X26.722915 Y7.464980 Z-1.000000 I0.069103 J-0.044555
G03 X26.768144 Y7.472812 Z-1.000000 I-0.068792 J0.045779
G00 Z5.000000

(End cutting path id: path20655)


(Start cutting path id: path20655)
(Change tool to Default tool)

G00 Z5.000000

G01 Z-1.000000 F100.0(Penetrate)
G03 X26.771874 Y7.614668 Z-1.000000 I-0.045458 J0.048079
G00 Z5.000000

(End cutting path id: path20655)


(Start cutting path id: path20655)
(Change tool to Default tool)

G00 Z5.000000

G01 Z-1.000000 F100.0(Penetrate)
G03 X26.819435 Y7.728646 Z-1.000000 I-0.092799 J0.000000 F3500.000000
G03 X26.795234 Y7.683818 Z-1.000000 I0.107091 J-0.034879
G03 X26.801481 Y7.652066 Z-1.000000 I0.083822 J-0.000000
G03 X26.826374 Y7.693438 Z-1.000000 I-0.126021 J0.041061
G00 Z5.000000

(End cutting path id: path20655)


(Start cutting path id: path20655)
(Change tool to Default tool)

G00 Z5.000000

G01 Z-1.000000 F100.0(Penetrate)
G00 Z5.000000

(End cutting path id: path20655)


(Start cutting path id: path20655)
(Change tool to Default tool)

G00 Z5.000000

G01 Z-1.000000 F100.0(Penetrate)
G03 X26.692998 Y8.046111 Z-1.000000 I-0.977666 J0.071846 F3500.000000
G03 X26.670712 Y8.009844 Z-1.000000 I0.152726 J-0.046033
G02 X26.665941 Y7.952490 Z-1.000000 I-0.347098 J0.000000
G02 X26.652382 Y7.900959 Z-1.000000 I-0.288250 J0.048294
G03 X26.644552 Y7.852105 Z-1.000000 I0.124358 J-0.044985
G03 X26.675170 Y7.804742 Z-1.000000 I0.127668 J0.105922
G03 X26.691372 Y7.929543 Z-1.000000 I-4.279536 J0.434294
G00 Z5.000000

(End cutting path id: path20655)


(Start cutting path id: path20655)
(Change tool to Default tool)

G00 Z5.000000

G01 Z-1.000000 F100.0(Penetrate)
G02 X26.515861 Y7.987766 Z-1.000000 I0.096800 J0.011365 F3500.000000
G02 X26.569061 Y7.934132 Z-1.000000 I-0.024179 J-0.062809
G02 X26.512249 Y7.947693 Z-1.000000 I0.182407 J0.069416
G00 Z5.000000

(End cutting path id: path20655)


(Start cutting path id: path20655)
(Change tool to Default tool)

G00 Z5.000000

G01 Z-1.000000 F100.0(Penetrate)
G02 X26.558646 Y8.037297 Z-1.000000 I-0.055845 J0.034416
G00 Z5.000000

(End cutting path id: path20655)


(Start cutting path id: path20655)
(Change tool to Default tool)

G00 Z5.000000

G01 Z-1.000000 F100.0(Penetrate)
G00 Z5.000000

(End cutting path id: path20655)


(Start cutting path id: path20655)
(Change tool to Default tool)

G00 Z5.000000

G01 Z-1.000000 F100.0(Penetrate)
G02 X26.512678 Y8.330526 Z-1.000000 I0.063348 J-0.003881 F3500.000000
G02 X26.518097 Y8.290220 Z-1.000000 I-0.063469 J0.003733
G00 Z5.000000

(End cutting path id: path20655)


(Start cutting path id: path20655)
(Change tool to Default tool)

G00 Z5.000000

G01 Z-1.000000 F100.0(Penetrate)
G00 Z5.000000

(End cutting path id: path20655)


(Start cutting path id: path20655)
(Change tool to Default tool)

G00 Z5.000000

G01 Z-1.000000 F100.0(Penetrate)
G02 X26.592188 Y8.487160 Z-1.000000 I-0.038079 J-0.038079
G00 Z5.000000

(End cutting path id: path20655)


(Start cutting path id: path20655)
(Change tool to Default tool)

G00 Z5.000000

G01 Z-1.000000 F100.0(Penetrate)
G00 Z5.000000

(End cutting path id: path20655)


(Start cutting path id: path20655)
(Change tool to Default tool)

G00 Z5.000000

G01 Z-1.000000 F100.0(Penetrate)
G02 X26.523632 Y7.843003 Z-1.000000 I0.042107 J0.042107 F3500.000000
G02 X26.561669 Y7.824883 Z-1.000000 I-0.081833 J-0.032620
G00 Z5.000000

(End cutting path id: path20655)


(Start cutting path id: path20655)
(Change tool to Default tool)

G00 Z5.000000

G01 Z-1.000000 F100.0(Penetrate)
G02 X26.529355 Y7.755306 Z-1.000000 I-0.038263 J-0.038553
G02 X26.508139 Y7.765803 Z-1.000000 I0.038042 J0.038416
G00 Z5.000000

(End cutting path id: path20655)


(Start cutting path id: path20655)
(Change tool to Default tool)

G00 Z5.000000

G01 Z-1.000000 F100.0(Penetrate)
G02 X25.843974 Y7.723673 Z-1.000000 I-0.048424 J-0.019460
G02 X25.840210 Y7.704213 Z-1.000000 I-0.052188 J-0.000000
G00 Z5.000000

(End cutting path id: path20655)


(Start cutting path id: path20655)
(Change tool to Default tool)

G00 Z5.000000

G01 Z-1.000000 F100.0(Penetrate)
G02 X25.808026 Y7.588527 Z-1.000000 I0.040300 J0.040300 F3500.000000
G02 X25.839350 Y7.582010 Z-1.000000 I-0.114031 J-0.040142
G02 X25.833289 Y7.548880 Z-1.000000 I-0.077857 J-0.002876
G00 Z5.000000

(End cutting path id: path20655)


(Start cutting path id: path20655)
(Change tool to Default tool)

G00 Z5.000000

G01 Z-1.000000 F100.0(Penetrate)
G00 Z5.000000

(End cutting path id: path20655)


(Start cutting path id: path20655)
(Change tool to Default tool)

G00 Z5.000000

G01 Z-1.000000 F100.0(Penetrate)
G02 X25.788128 Y7.481770 Z-1.000000 I0.095822 J-0.000000 F3500.000000
G02 X25.798758 Y7.513480 Z-1.000000 I0.195146 J-0.047783
G02 X25.809391 Y7.498501 Z-1.000000 I-0.095808 J-0.000000
G02 X25.798758 Y7.466780 Z-1.000000 I-0.195122 J0.047762
G00 Z5.000000

(End cutting path id: path20655)


(Start cutting path id: path20655)
(Change tool to Default tool)

G00 Z5.000000

G01 Z-1.000000 F100.0(Penetrate)
G00 Z5.000000

(End cutting path id: path20655)


(Start cutting path id: path20655)
(Change tool to Default tool)

G00 Z5.000000

G01 Z-1.000000 F100.0(Penetrate)
G03 X25.793526 Y7.235761 Z-1.000000 I-0.066796 J-0.000000 F3500.000000
G02 X25.804098 Y7.391647 Z-1.000000 I0.187129 J-0.022800
G03 X25.815943 Y7.354035 Z-1.000000 I0.176756 J0.000000
G03 X25.824548 Y7.302797 Z-1.000000 I0.828280 J0.112756
G02 X25.824746 Y7.266142 Z-1.000000 I-0.093759 J-0.018834
G03 X25.808648 Y7.226197 Z-1.000000 I0.077667 J-0.017672
G02 X25.812796 Y7.183068 Z-1.000000 I-0.211483 J-0.042102
G02 X25.798714 Y7.209847 Z-1.000000 I0.087461 J0.026984
G00 Z5.000000

(End cutting path id: path20655)


(Start cutting path id: path20655)
(Change tool to Default tool)

G00 Z5.000000

G01 Z-1.000000 F100.0(Penetrate)
G02 X25.749821 Y7.175649 Z-1.000000 I-0.034416 J-0.055845
G00 Z5.000000

(End cutting path id: path20655)


(Start cutting path id: path20655)
(Change tool to Default tool)

G00 Z5.000000

G01 Z-1.000000 F100.0(Penetrate)
G02 X25.586908 Y7.143489 Z-1.000000 I0.055021 J-0.021281
G02 X25.641248 Y7.125303 Z-1.000000 I0.000000 J-0.056933
G00 Z5.000000

(End cutting path id: path20655)


(Start cutting path id: path20655)
(Change tool to Default tool)

G00 Z5.000000
G00 X25.630522 Y7.030775

G01 Z-1.000000 F100.0(Penetrate)
G02 X25.641638 Y7.022656 Z-1.000000 I-0.101864 J-0.026222
G02 X25.637745 Y7.003235 Z-1.000000 I-0.053079 J0.000538
G00 Z5.000000

(End cutting path id: path20655)


(Start cutting path id: path20655)
(Change tool to Default tool)

G00 Z5.000000

G01 Z-1.000000 F100.0(Penetrate)
G00 Z5.000000

(End cutting path id: path20655)


(Start cutting path id: path20655)
(Change tool to Default tool)

G00 Z5.000000

G01 Z-1.000000 F100.0(Penetrate)
G02 X25.844099 Y7.038575 Z-1.000000 I-0.104738 J-0.027250
G02 X25.840612 Y7.011325 Z-1.000000 I-0.108225 J0.000000
G00 Z5.000000

(End cutting path id: path20655)


(Start cutting path id: path20655)
(Change tool to Default tool)

G00 Z5.000000

G01 Z-1.000000 F100.0(Penetrate)
G00 Z5.000000

(End cutting path id: path20655)


(Start cutting path id: path20655)
(Change tool to Default tool)

G00 Z5.000000

G01 Z-1.000000 F100.0(Penetrate)
G03 X25.788962 Y6.765687 Z-1.000000 I-0.116836 J0.018998 F3500.000000
G03 X25.763745 Y6.810055 Z-1.000000 I-0.107110 J-0.031528
G03 X25.725824 Y6.836322 Z-1.000000 I-0.078375 J-0.072640
G02 X25.755035 Y6.882855 Z-1.000000 I0.074200 J-0.101394
G02 X25.848565 Y6.815214 Z-1.000000 I-0.308719 J-0.105866
G02 X25.842631 Y6.678884 Z-1.000000 I-0.666131 J-0.039301
G02 X25.819815 Y6.707697 Z-1.000000 I0.101298 J0.015642
G00 Z5.000000

(End cutting path id: path20655)


(Start cutting path id: path20655)
(Change tool to Default tool)

G00 Z5.000000

G01 Z-1.000000 F100.0(Penetrate)
G02 X25.766461 Y6.712048 Z-1.000000 I-0.038263 J-0.038553
G02 X25.745245 Y6.722545 Z-1.000000 I0.038042 J0.038416
G00 Z5.000000

(End cutting path id: path20655)


(Start cutting path id: path20655)
(Change tool to Default tool)

G00 Z5.000000

G01 Z-1.000000 F100.0(Penetrate)
G02 X26.484737 Y7.085275 Z-1.000000 I0.215644 J-0.022674
G02 X26.489778 Y7.034914 Z-1.000000 I-0.084245 J-0.002589
G00 Z5.000000

(End cutting path id: path20655)


(Start cutting path id: path20655)
(Change tool to Default tool)

G00 Z5.000000

G01 Z-1.000000 F100.0(Penetrate)
G00 Z5.000000

(End cutting path id: path20655)


(Start cutting path id: path20655)
(Change tool to Default tool)

G00 Z5.000000

G01 Z-1.000000 F100.0(Penetrate)
G03 X25.766583 Y8.451450 Z-1.000000 I-0.306976 J-0.019318 F3500.000000
G03 X25.757852 Y8.504120 Z-1.000000 I-1.382909 J-0.202195
G02 X25.783822 Y8.455460 Z-1.000000 I-0.134919 J-0.019673
G00 Z5.000000

(End cutting path id: path20655)


(Start cutting path id: path20655)
(Change tool to Default tool)

G00 Z5.000000

G01 Z-1.000000 F100.0(Penetrate)
G02 X25.848811 Y9.518087 Z-1.000000 I0.355397 J0.071443 F3500.000000
G02 X25.868861 Y9.483095 Z-1.000000 I-0.240210 J-0.097235
G02 X25.875558 Y9.435360 Z-1.000000 I-0.308570 J-0.067629
G02 X25.855201 Y9.469475 Z-1.000000 I0.217859 J0.087589
G00 Z5.000000

(End cutting path id: path20655)


(Start cutting path id: path20655)
(Change tool to Default tool)

G00 Z5.000000

G01 Z-1.000000 F100.0(Penetrate)
G00 Z5.000000

(End cutting path id: path20655)


(Start cutting path id: path20655)
(Change tool to Default tool)

G00 Z5.000000

G01 Z-1.000000 F100.0(Penetrate)
G02 X25.860025 Y9.748918 Z-1.000000 I0.019772 J-0.051559
G02 X25.827830 Y9.660847 Z-1.000000 I-0.072063 J-0.023577
G02 X25.814330 Y9.693267 Z-1.000000 I0.071977 J0.030023
G00 Z5.000000

(End cutting path id: path20655)


(Start cutting path id: path20655)
(Change tool to Default tool)

G00 Z5.000000
G00 X25.706567 Y9.943726

G01 Z-1.000000 F100.0(Penetrate)
G00 Z5.000000

(End cutting path id: path20655)


(Start cutting path id: path20655)
(Change tool to Default tool)

G00 Z5.000000

G01 Z-1.000000 F100.0(Penetrate)
G03 X25.776438 Y10.067236 Z-1.000000 I-0.286381 J0.030262
G02 X25.776891 Y10.134067 Z-1.000000 I0.267619 J0.031601
G02 X25.796658 Y10.220366 Z-1.000000 I0.467303 J-0.061621
G03 X25.817737 Y10.306420 Z-1.000000 I-0.537172 J0.177190
G03 X25.818108 Y10.351728 Z-1.000000 I-0.146102 J0.023852
G02 X25.825922 Y10.387921 Z-1.000000 I0.052282 J0.007652
G02 X25.821494 Y10.497175 Z-1.000000 I0.099274 J0.115541
G02 X25.803728 Y10.548238 Z-1.000000 I0.136522 J0.076121
G03 X25.789714 Y10.598380 Z-1.000000 I-0.231136 J-0.037571
G02 X25.767588 Y10.638298 Z-1.000000 I0.071992 J0.028675
G03 X25.824669 Y10.699952 Z-1.000000 I-0.053502 J0.020370
G02 X25.806368 Y10.873435 Z-1.000000 I1.991482 J0.162731
G02 X25.814584 Y10.971511 Z-1.000000 I0.509019 J0.006739
G03 X25.848386 Y10.939253 Z-1.000000 I0.138809 J0.072747
G03 X25.868328 Y10.925755 Z-1.000000 I0.039003 J0.036142
G02 X25.882118 Y10.752985 Z-1.000000 I-0.430700 J-0.133171
G03 X25.898684 Y10.680036 Z-1.000000 I0.414687 J0.055814
G02 X25.915658 Y10.561405 Z-1.000000 I-0.079110 J-0.014980
G03 X25.909304 Y10.517997 Z-1.000000 I0.196816 J-0.050980
G03 X25.905758 Y10.297471 Z-1.000000 I5.204640 J-0.193974
G02 X25.898152 Y10.078097 Z-1.000000 I-2.766107 J-0.013912
G02 X25.885478 Y10.025475 Z-1.000000 I-0.167327 J0.012463
G02 X25.806105 Y9.988485 Z-1.000000 I-0.050749 J0.007843
G00 Z5.000000

(End cutting path id: path20655)


(Start cutting path id: path20655)
(Change tool to Default tool)

G00 Z5.000000

G01 Z-1.000000 F100.0(Penetrate)
G02 X25.761447 Y10.364277 Z-1.000000 I0.002180 J-0.069883
G02 X25.728688 Y10.355054 Z-1.000000 I0.773943 J1.881117
G00 Z5.000000

(End cutting path id: path20655)


(Start cutting path id: path20655)
(Change tool to Default tool)

G00 Z5.000000

G01 Z-1.000000 F100.0(Penetrate)
G00 Z5.000000

(End cutting path id: path20655)


(Start cutting path id: path20655)
(Change tool to Default tool)

G00 Z5.000000

G01 Z-1.000000 F100.0(Penetrate)
G02 X25.750455 Y10.713039 Z-1.000000 I0.051106 J-0.006225 F3500.000000
G03 X25.759129 Y10.703475 Z-1.000000 I0.044597 J-0.059044
G03 X25.746848 Y10.682024 Z-1.000000 I0.081713 J-0.061024
G00 Z5.000000

(End cutting path id: path20655)


(Start cutting path id: path20655)
(Change tool to Default tool)

G00 Z5.000000

G01 Z-1.000000 F100.0(Penetrate)
G03 X25.907216 Y10.931123 Z-1.000000 I-15.007555 J0.000000 F3500.000000
G03 X25.906554 Y10.942442 Z-1.000000 I-0.113635 J-0.000963
G02 X26.002509 Y10.897612 Z-1.000000 I0.019778 J-0.059505
G02 X25.913944 Y10.683332 Z-1.000000 I-0.322221 J0.007736
G00 Z5.000000

(End cutting path id: path20655)


(Start cutting path id: path20655)
(Change tool to Default tool)

G00 Z5.000000

G01 Z-1.000000 F100.0(Penetrate)
G03 X25.899621 Y11.041553 Z-1.000000 I-0.058080 J-0.017072 F3500.000000
G02 X25.869258 Y11.027280 Z-1.000000 I-0.067156 J0.067156
G02 X25.839884 Y11.277036 Z-1.000000 I3.718758 J0.290867
G02 X25.856579 Y11.335577 Z-1.000000 I0.106344 J0.001324
G03 X25.891944 Y11.371016 Z-1.000000 I-0.084876 J0.035190
G03 X25.885035 Y11.422312 Z-1.000000 I-0.188150 J0.000773
G03 X25.883564 Y11.633209 Z-1.000000 I-3.124480 J0.230927
G03 X25.837334 Y11.949282 Z-1.000000 I-0.574143 J0.037143
G02 X25.843677 Y12.030273 Z-1.000000 I0.219731 J0.023534
G02 X25.860427 Y12.161066 Z-1.000000 I0.328199 J0.134714
G02 X25.859134 Y12.324696 Z-1.000000 I0.895627 J0.088896
G02 X25.839804 Y12.507026 Z-1.000000 I0.513573 J0.058633
G03 X25.832463 Y12.583312 Z-1.000000 I-0.296604 J0.009953
G03 X25.883346 Y12.655246 Z-1.000000 I-0.023021 J0.111209
G02 X25.894588 Y12.698349 Z-1.000000 I0.522735 J-0.018438
G02 X25.900784 Y12.763704 Z-1.000000 I3.008021 J-0.252210
G03 X25.882845 Y12.822297 Z-1.000000 I-0.078258 J0.008083
G02 X25.838864 Y12.690594 Z-1.000000 I-0.056467 J-0.025586
G02 X25.800684 Y12.752874 Z-1.000000 I0.452903 J0.099320
G02 X25.806163 Y12.838227 Z-1.000000 I0.457617 J0.013475
G01 X25.815614 Y12.846294 Z-1.000000
G03 X25.823214 Y12.886704 Z-1.000000 I-0.076447 J0.014375
G02 X25.831493 Y12.947922 Z-1.000000 I0.080679 J0.020258
G02 X25.892264 Y12.916354 Z-1.000000 I-0.116376 J-0.045811
G03 X25.898544 Y12.868133 Z-1.000000 I0.188264 J-0.000000
G03 X25.912004 Y12.951384 Z-1.000000 I-0.518049 J0.030273
G02 X25.916096 Y13.016074 Z-1.000000 I0.196318 J0.020057
G03 X25.953770 Y13.007623 Z-1.000000 I0.038570 J0.046729
G02 X25.940174 Y11.242592 Z-1.000000 I-86.923969 J1.544833
G02 X25.924240 Y11.014753 Z-1.000000 I-3.577403 J0.135707
G00 Z5.000000

(End cutting path id: path20655)


(Start cutting path id: path20655)
(Change tool to Default tool)

G00 Z5.000000

G01 Z-1.000000 F100.0(Penetrate)
G00 Z5.000000

(End cutting path id: path20655)


(Start cutting path id: path20655)
(Change tool to Default tool)

G00 Z5.000000

G01 Z-1.000000 F100.0(Penetrate)
G00 Z5.000000

(End cutting path id: path20655)


(Start cutting path id: path20655)
(Change tool to Default tool)

G00 Z5.000000

G01 Z-1.000000 F100.0(Penetrate)
G03 X25.932572 Y11.796794 Z-1.000000 I-0.087886 J0.000000 F3500.000000
G03 X25.907714 Y11.764163 Z-1.000000 I0.081798 J-0.032609
G03 X25.913995 Y11.731524 Z-1.000000 I0.087943 J-0.000000
G03 X25.938854 Y11.764163 Z-1.000000 I-0.081833 J0.032620
G00 Z5.000000

(End cutting path id: path20655)


(Start cutting path id: path20655)
(Change tool to Default tool)

G00 Z5.000000

G01 Z-1.000000 F100.0(Penetrate)
G03 X25.879630 Y11.961018 Z-1.000000 I0.055845 J0.034416
G00 Z5.000000

(End cutting path id: path20655)


(Start cutting path id: path20655)
(Change tool to Default tool)

G00 Z5.000000

G01 Z-1.000000 F100.0(Penetrate)
G03 X25.953177 Y12.161213 Z-1.000000 I-0.182466 J0.035035
G03 X25.949844 Y12.196248 Z-1.000000 I-0.185799 J-0.000000
G00 Z5.000000

(End cutting path id: path20655)


(Start cutting path id: path20655)
(Change tool to Default tool)

G00 Z5.000000

G01 Z-1.000000 F100.0(Penetrate)
G00 Z5.000000

(End cutting path id: path20655)


(Start cutting path id: path20655)
(Change tool to Default tool)

G00 Z5.000000

G01 Z-1.000000 F100.0(Penetrate)
G02 X26.736943 Y12.299519 Z-1.000000 I0.143049 J0.065182 F3500.000000
G03 X26.764375 Y12.414201 Z-1.000000 I-0.111909 J0.043355
G02 X26.769387 Y12.463393 Z-1.000000 I0.255714 J-0.001204
G02 X26.779285 Y12.488011 Z-1.000000 I0.071127 J-0.014298
G02 X26.787985 Y12.358081 Z-1.000000 I-1.205852 J-0.081175
G02 X26.779093 Y12.206178 Z-1.000000 I-3.936828 J0.154239
G02 X26.751135 Y12.231916 Z-1.000000 I0.149699 J0.109929
G00 Z5.000000

(End cutting path id: path20655)


(Start cutting path id: path20655)
(Change tool to Default tool)

G00 Z5.000000

G01 Z-1.000000 F100.0(Penetrate)
G02 X26.840655 Y12.484149 Z-1.000000 I0.075792 J-0.011388
G00 Z5.000000

(End cutting path id: path20655)


(Start cutting path id: path20655)
(Change tool to Default tool)

G00 Z5.000000

G01 Z-1.000000 F100.0(Penetrate)
G02 X26.825122 Y12.580928 Z-1.000000 I0.048059 J0.048059 F3500.000000
G02 X26.844785 Y12.538249 Z-1.000000 I0.055401 J0.088610
G00 Z5.000000

(End cutting path id: path20655)


(Start cutting path id: path20655)
(Change tool to Default tool)

G00 Z5.000000

G01 Z-1.000000 F100.0(Penetrate)
G02 X26.844747 Y12.827903 Z-1.000000 I0.073738 J0.000000 F3500.000000
G03 X26.879787 Y12.840217 Z-1.000000 I-0.113622 J0.372318
G02 X26.861795 Y12.793578 Z-1.000000 I-0.051118 J0.019616
G00 Z5.000000

(End cutting path id: path20655)


(Start cutting path id: path20655)
(Change tool to Default tool)

G00 Z5.000000

G01 Z-1.000000 F100.0(Penetrate)
G02 X27.176727 Y12.955277 Z-1.000000 I0.045458 J0.048079
G00 Z5.000000

(End cutting path id: path20655)


(Start cutting path id: path20655)
(Change tool to Default tool)

G00 Z5.000000

G01 Z-1.000000 F100.0(Penetrate)
G03 X27.126397 Y13.058032 Z-1.000000 I-0.052796 J-0.013803
G02 X27.014361 Y13.064781 Z-1.000000 I0.067494 J0.002906
G02 X27.064707 Y13.100607 Z-1.000000 I0.088564 J-0.071169
G03 X27.098477 Y13.234075 Z-1.000000 I-0.346729 J0.012860
G03 X27.122297 Y13.298715 Z-1.000000 I-0.074906 J0.035293
G03 X27.110892 Y13.333370 Z-1.000000 I-0.058352 J-0.000000
G02 X26.996667 Y13.406895 Z-1.000000 I0.043694 J0.045658
G02 X26.960145 Y13.395963 Z-1.000000 I-0.071524 J0.030537
G02 X27.001607 Y13.521365 Z-1.000000 I0.120806 J-0.048534
G03 X27.061547 Y13.559575 Z-1.000000 I-0.076881 J0.054501
G03 X27.090627 Y13.624835 Z-1.000000 I-0.288612 J0.069477
G02 X27.101113 Y13.686583 Z-1.000000 I0.219032 J-0.005432
G03 X27.147623 Y13.883032 Z-1.000000 I-3.001696 J0.330446
G03 X27.122307 Y13.850598 Z-1.000000 I0.400381 J-0.195354
G02 X27.103218 Y13.817907 Z-1.000000 I-0.106611 J0.040334
G02 X27.060007 Y13.889528 Z-1.000000 I0.052321 J0.025327
G02 X27.065828 Y13.914795 Z-1.000000 I0.057750 J-0.000000
G03 X27.089477 Y13.979058 Z-1.000000 I-0.198996 J0.048406
G02 X27.091619 Y14.037136 Z-1.000000 I0.545984 J0.008944
G02 X27.099377 Y14.088050 Z-1.000000 I0.419910 J-0.037937
G03 X27.097488 Y14.128371 Z-1.000000 I-0.076903 J0.016602
G03 X27.073926 Y14.188217 Z-1.000000 I-0.193891 J0.074408
G03 X27.075617 Y14.202210 Z-1.000000 I-0.057052 J0.013993
G02 X27.106757 Y14.216510 Z-1.000000 I0.025532 J-0.055779
G03 X27.079507 Y14.262620 Z-1.000000 I-0.054015 J-0.031924
G02 X27.022171 Y14.281063 Z-1.000000 I0.197080 J0.711037
G02 X27.003757 Y14.290470 Z-1.000000 I0.029712 J0.080884
G02 X26.966765 Y14.343251 Z-1.000000 I0.050075 J0.074449
G03 X26.997767 Y14.416390 Z-1.000000 I-0.054378 J0.023965
G02 X27.026161 Y14.485324 Z-1.000000 I0.097874 J0.000000
G02 X27.066186 Y14.441260 Z-1.000000 I-0.140592 J0.000043
G03 X27.091046 Y14.387880 Z-1.000000 I0.045856 J0.021358
G03 X27.125179 Y14.376181 Z-1.000000 I0.053307 J0.099884
G03 X27.130896 Y14.452510 Z-1.000000 I-0.058343 J-0.012584
G02 X27.075899 Y14.505457 Z-1.000000 I0.047617 J0.104498
G02 X27.071516 Y14.570699 Z-1.000000 I0.075294 J0.037826
G03 X27.099301 Y14.536363 Z-1.000000 I0.053815 J-0.016155
G03 X27.112656 Y14.499169 Z-1.000000 I0.122717 J0.023070
G03 X27.207560 Y14.595698 Z-1.000000 I-0.119012 J0.119012
G02 X27.123066 Y14.663189 Z-1.000000 I0.103330 J0.180840
G02 X27.104689 Y14.690573 Z-1.000000 I0.039991 J0.046696
G03 X27.073178 Y14.707789 Z-1.000000 I0.055040 J-0.063696
G02 X27.052705 Y14.671700 Z-1.000000 I-0.215944 J0.098650
G02 X27.006540 Y14.685481 Z-1.000000 I0.001477 J0.056819
G02 X26.990118 Y14.725729 Z-1.000000 I0.041797 J0.040529
G03 X27.008398 Y14.827809 Z-1.000000 I0.008783 J0.056607
G02 X27.027398 Y14.908849 Z-1.000000 I0.039228 J-0.037208
G03 X27.066618 Y14.956609 Z-1.000000 I-0.063379 J0.052103
G03 X27.146300 Y14.910822 Z-1.000000 I0.000000 J0.063337
G03 X27.183398 Y14.944359 Z-1.000000 I-0.070195 J0.114937
G03 X27.189263 Y14.850218 Z-1.000000 I0.585373 J-0.162337
G03 X27.239278 Y15.023566 Z-1.000000 I-1.240234 J0.268550
G02 X27.249783 Y15.121261 Z-1.000000 I1.545054 J-0.116726
G03 X27.325332 Y15.358070 Z-1.000000 I-0.402191 J0.249808
G03 X27.271228 Y15.415356 Z-1.000000 I-0.054104 J0.003093
G03 X27.238498 Y15.389126 Z-1.000000 I0.206925 J-0.258008
G02 X27.222178 Y15.472556 Z-1.000000 I0.277487 J0.054261
G03 X27.221061 Y15.577650 Z-1.000000 I-0.517616 J0.047051
G02 X27.191260 Y15.624852 Z-1.000000 I0.036535 J0.044006
G03 X27.187826 Y15.730019 Z-1.000000 I-0.103336 J0.039644
G03 X27.143331 Y15.718240 Z-1.000000 I0.050793 J-0.030047
G03 X27.130808 Y15.668558 Z-1.000000 I0.685468 J-0.199197
G03 X27.109770 Y15.750303 Z-1.000000 I-0.704833 J0.116935
G03 X27.109918 Y15.822487 Z-1.000000 I-0.649692 J0.037427
G02 X27.114373 Y15.893531 Z-1.000000 I0.305248 J0.016522
G02 X27.137568 Y15.974873 Z-1.000000 I0.423275 J-0.076723
G03 X27.163583 Y16.100704 Z-1.000000 I-0.349946 J0.137955
G03 X27.144068 Y16.176817 Z-1.000000 I-0.140511 J0.004531
G03 X27.112884 Y16.206108 Z-1.000000 I-0.065921 J-0.038936
G03 X27.073998 Y16.212487 Z-1.000000 I-0.029456 J-0.057855
G01 X27.043296 Y16.230607 Z-1.000000
G02 X27.040198 Y16.302827 Z-1.000000 I0.109234 J0.040862
G03 X27.073768 Y16.344347 Z-1.000000 I-0.215691 J0.053629
G03 X27.067030 Y16.434694 Z-1.000000 I-0.486293 J0.009157
G02 X27.107118 Y16.502347 Z-1.000000 I0.042027 J-0.035529
G02 X27.054175 Y16.480019 Z-1.000000 I-0.053122 J0.000000
G02 X27.044855 Y16.577238 Z-1.000000 I0.103702 J-0.000346
G03 X27.037055 Y16.649918 Z-1.000000 I-0.194774 J-0.020823
G02 X27.002393 Y16.806072 Z-1.000000 I0.418164 J0.174744
G02 X27.028555 Y16.855391 Z-1.000000 I0.055288 J0.002270
G03 X27.025455 Y16.894231 Z-1.000000 I-0.060566 J-0.004953
G03 X27.005103 Y16.915147 Z-1.000000 I-0.058367 J-0.036434
G02 X27.011695 Y17.034648 Z-1.000000 I0.151856 J-0.023095
G03 X27.036121 Y17.066883 Z-1.000000 I-0.055425 J0.067369
G03 X27.065445 Y17.156820 Z-1.000000 I-0.436591 J0.192102
G03 X27.063196 Y17.221096 Z-1.000000 I-0.126767 J0.027742
G03 X27.050261 Y17.295493 Z-1.000000 I-0.085085 J0.077000
G03 X27.041935 Y17.349944 Z-1.000000 I-0.084769 J0.014901
G02 X27.036536 Y17.377055 Z-1.000000 I0.044455 J0.022946
G02 X27.047235 Y17.412224 Z-1.000000 I0.087063 J-0.007274
G03 X27.062273 Y17.447929 Z-1.000000 I-0.159223 J0.088081
G02 X27.091145 Y17.446814 Z-1.000000 I-0.086546 J-0.019406
G02 X27.162649 Y17.472881 Z-1.000000 I0.108955 J-0.039402
G02 X27.196685 Y17.490804 Z-1.000000 I0.046441 J-0.046913
G02 X27.235715 Y17.491211 Z-1.000000 I0.020633 J-0.106927
G03 X27.344875 Y17.463224 Z-1.000000 I0.088586 J0.453358
G03 X27.419137 Y17.477009 Z-1.000000 I0.003156 J0.189921
G03 X27.452362 Y17.544019 Z-1.000000 I-0.101624 J0.038369
G02 X27.332577 Y17.542972 Z-1.000000 I0.014959 J0.078822
G03 X27.291199 Y17.631334 Z-1.000000 I-0.366836 J-0.168795
G03 X27.250808 Y17.670445 Z-1.000000 I-0.107169 J-0.070263
G03 X27.204769 Y17.684094 Z-1.000000 I-0.048680 J-0.079733
G03 X27.162988 Y17.677543 Z-1.000000 I-0.003276 J-0.115623
G03 X27.146024 Y17.603867 Z-1.000000 I0.018404 J-0.072967
G02 X27.106569 Y17.615574 Z-1.000000 I0.088127 J0.031745
G02 X27.074919 Y17.657474 Z-1.000000 I0.061679 J0.032332
G02 X27.046487 Y17.753728 Z-1.000000 I0.111247 J-0.004458
G02 X27.098309 Y17.868374 Z-1.000000 I0.131269 J-0.042008
G03 X27.046379 Y18.030564 Z-1.000000 I-0.999228 J-0.161025
G02 X27.039129 Y18.091939 Z-1.000000 I0.291207 J0.065517
G02 X27.044779 Y18.143308 Z-1.000000 I0.209848 J0.002912
G02 X27.097649 Y18.196975 Z-1.000000 I0.152868 J-0.055824
G03 X27.075669 Y18.269478 Z-1.000000 I-0.077872 J-0.037640
G02 X27.034322 Y18.315311 Z-1.000000 I0.023787 J0.063026
G03 X27.072529 Y18.443768 Z-1.000000 I-0.143866 J0.047083
G03 X27.067098 Y18.492864 Z-1.000000 I-0.224621 J0.000000
G02 X27.047919 Y18.564438 Z-1.000000 I0.329837 J0.061927
G02 X27.053951 Y18.599316 Z-1.000000 I0.101604 J0.000388
G03 X27.074549 Y18.742195 Z-1.000000 I-1.549706 J0.151584
G02 X27.084530 Y18.910021 Z-1.000000 I1.583512 J-0.009964
G03 X27.101607 Y19.004851 Z-1.000000 I-0.045620 J0.045620
G03 X27.106739 Y19.031251 Z-1.000000 I-0.065336 J0.026400
G03 X27.114839 Y19.146091 Z-1.000000 I-0.100917 J-0.018546
G02 X27.076653 Y19.243202 Z-1.000000 I0.094567 J0.093249
G02 X27.121139 Y19.360973 Z-1.000000 I0.192999 J-0.005615
G03 X27.132856 Y19.386622 Z-1.000000 I-0.041503 J0.034461
G01 X27.129739 Y19.412813 Z-1.000000
G03 X27.058922 Y19.454946 Z-1.000000 I-0.061121 J-0.002372
G03 X26.930552 Y19.483553 Z-1.000000 I-0.121679 J-0.243696
G03 X26.788786 Y19.455465 Z-1.000000 I0.010625 J-0.425439
G02 X26.757589 Y19.393511 Z-1.000000 I-0.055206 J-0.000000
G02 X26.733602 Y19.362893 Z-1.000000 I-0.100951 J0.054381
G03 X26.709665 Y19.331039 Z-1.000000 I0.070477 J-0.077881
G03 X26.677762 Y19.248368 Z-1.000000 I0.467445 J-0.227881
G03 X26.667033 Y19.166469 Z-1.000000 I0.260853 J-0.075826
G03 X26.708739 Y19.123836 Z-1.000000 I0.119237 J0.163053
G02 X26.716432 Y19.034764 Z-1.000000 I-0.069651 J0.003284
G03 X26.703682 Y18.951274 Z-1.000000 I0.337108 J-0.051205
G02 X26.702600 Y18.879327 Z-1.000000 I-0.535478 J-0.027931
G02 X26.676032 Y18.679942 Z-1.000000 I-0.141259 J0.018598
G03 X26.679296 Y18.533062 Z-1.000000 I0.139649 J0.010292
G02 X26.688393 Y18.510062 Z-1.000000 I-0.043577 J-0.030534
G03 X26.626147 Y18.494709 Z-1.000000 I-0.019096 J-0.054039
G02 X26.519550 Y18.360794 Z-1.000000 I-0.079491 J0.047977
G02 X26.533976 Y18.403012 Z-1.000000 I0.063783 J-0.077716
G03 X26.503834 Y18.441207 Z-1.000000 I-0.027643 J-0.051673
G02 X26.475923 Y18.400027 Z-1.000000 I-0.103196 J0.032395
G02 X26.491624 Y18.468534 Z-1.000000 I0.101170 J0.003409
G03 X26.559316 Y18.476992 Z-1.000000 I-0.026122 J0.079336
G03 X26.577367 Y18.511726 Z-1.000000 I-0.039833 J0.042759
G03 X26.570016 Y18.554182 Z-1.000000 I-0.070126 J0.009722
G02 X26.550223 Y18.600358 Z-1.000000 I0.293662 J0.153205
G02 X26.546326 Y18.623562 Z-1.000000 I0.068759 J0.023478
G03 X26.541794 Y18.645822 Z-1.000000 I-0.058071 J-0.000232
G03 X26.528806 Y18.665122 Z-1.000000 I-0.055450 J-0.023294
G02 X26.512256 Y18.746092 Z-1.000000 I0.278914 J0.056926
G03 X26.505068 Y18.801835 Z-1.000000 I-0.198515 J0.002736
G03 X26.515443 Y18.870190 Z-1.000000 I-0.032046 J0.045134
G02 X26.471186 Y18.984802 Z-1.000000 I0.415939 J0.074220
G03 X26.492927 Y19.174264 Z-1.000000 I-1.441625 J-0.033626
G02 X26.474485 Y19.209787 Z-1.000000 I0.083694 J0.002700
G02 X26.489696 Y19.233594 Z-1.000000 I0.061422 J-0.022482
G03 X26.509156 Y19.385226 Z-1.000000 I-0.884991 J0.113561
G02 X26.524682 Y19.502347 Z-1.000000 I0.404643 J0.005948
G02 X26.592692 Y19.534684 Z-1.000000 I0.065432 J-0.242308
G02 X26.783230 Y19.547898 Z-1.000000 I0.422401 J-4.710489
G03 X27.198192 Y19.585788 Z-1.000000 I-0.242796 J4.950314
G03 X26.849801 Y19.589608 Z-1.000000 I0.300894 J-6.779877
G02 X26.419407 Y19.561072 Z-1.000000 I-0.676064 J6.936845
G03 X26.344749 Y19.565168 Z-1.000000 I0.040793 J-0.287027
G02 X26.282037 Y19.551669 Z-1.000000 I-0.084173 J0.238620
G02 X26.078585 Y19.542518 Z-1.000000 I-0.216141 J2.539209
G03 X25.874697 Y19.538102 Z-1.000000 I0.030654 J-6.123915
G02 X25.672714 Y19.526418 Z-1.000000 I-0.190756 J4.637622
G03 X25.495190 Y19.525701 Z-1.000000 I0.401708 J-121.432270
G03 X25.471835 Y19.525458 Z-1.000000 I0.009889 J-2.073191
G03 X25.183491 Y19.518481 Z-1.000000 I0.280054 J-17.536603
G03 X24.856809 Y19.505498 Z-1.000000 I0.724879 J-22.355583
G02 X24.804874 Y19.511476 Z-1.000000 I-0.007610 J0.162464
G02 X24.725059 Y19.515678 Z-1.000000 I-0.018446 J0.102570
G03 X24.682117 Y19.517560 Z-1.000000 I-0.027507 J-0.136781
G02 X24.558746 Y19.471318 Z-1.000000 I-0.046160 J0.028528
G02 X24.475462 Y19.488939 Z-1.000000 I-0.041488 J0.031505
G02 X24.389535 Y19.470498 Z-1.000000 I-0.130245 J0.397484
G03 X24.299516 Y19.457277 Z-1.000000 I0.119414 J-1.126096
G03 X24.260281 Y19.446218 Z-1.000000 I0.042547 J-0.226085
G01 X24.201571 Y19.520368 Z-1.000000
G03 X24.131495 Y19.507149 Z-1.000000 I0.097776 J-0.710688
G03 X24.112041 Y19.498788 Z-1.000000 I0.014664 J-0.060931
G02 X24.092585 Y19.490162 Z-1.000000 I-0.036613 J0.056327
G02 X24.002557 Y19.469858 Z-1.000000 I-0.323676 J1.225426
G02 X23.580933 Y19.432324 Z-1.000000 I-0.404382 J2.155627
G02 X23.058446 Y19.477258 Z-1.000000 I0.026479 J3.368068
G03 X22.972878 Y19.487191 Z-1.000000 I-0.144993 J-0.875535
G03 X22.941669 Y19.485158 Z-1.000000 I-0.007953 J-0.118500
G02 X22.707746 Y19.450669 Z-1.000000 I-0.443360 J2.196567
G02 X22.669836 Y19.459638 Z-1.000000 I-0.005686 J0.060570
G03 X22.643080 Y19.468148 Z-1.000000 I-0.030016 J-0.048056
G02 X22.539456 Y19.440401 Z-1.000000 I-0.076351 J0.120619
G02 X22.428917 Y19.469538 Z-1.000000 I0.009653 J0.260874
G03 X22.295503 Y19.546358 Z-1.000000 I-0.111418 J-0.322821
G02 X22.209820 Y19.541996 Z-1.000000 I-0.214030 J3.360267
G02 X22.061949 Y19.537358 Z-1.000000 I-0.416229 J10.911507
G03 X21.927762 Y19.521343 Z-1.000000 I0.018170 J-0.722422
G03 X21.829975 Y19.500568 Z-1.000000 I-0.015117 J-0.166873
G02 X21.784834 Y19.502090 Z-1.000000 I-0.019328 J0.096969
G02 X21.743762 Y19.549192 Z-1.000000 I0.088930 J0.064979
G02 X21.656215 Y19.573098 Z-1.000000 I0.068702 J0.266803
G03 X21.592348 Y19.596748 Z-1.000000 I-0.132496 J-0.259742
G03 X21.562795 Y19.595718 Z-1.000000 I-0.012933 J-0.053404
G02 X21.563685 Y19.619338 Z-1.000000 I0.024934 J-0.046557
G02 X21.257777 Y19.663992 Z-1.000000 I0.150749 J6.795121
G01 X21.242008 Y19.671128 Z-1.000000
G02 X21.324248 Y19.712758 Z-1.000000 I0.034456 J-0.090643
G03 X21.324058 Y19.754674 Z-1.000000 I-0.065045 J-0.053959
G02 X21.283748 Y19.837868 Z-1.000000 I0.066145 J0.019346
G02 X21.344118 Y19.847768 Z-1.000000 I0.020082 J-0.122424
G03 X21.389059 Y19.842183 Z-1.000000 I0.060481 J0.303091
G03 X21.370570 Y19.893386 Z-1.000000 I-0.063710 J0.000000
G03 X21.312288 Y19.915228 Z-1.000000 I-0.058282 J-0.066837
G02 X21.308288 Y19.960208 Z-1.000000 I0.065473 J0.005829
G03 X21.321373 Y20.005640 Z-1.000000 I-0.116656 J0.058198
G03 X21.316388 Y20.042768 Z-1.000000 I-0.081229 J0.007992
G02 X21.309780 Y20.079782 Z-1.000000 I0.095338 J0.036116
G02 X21.317008 Y20.106998 Z-1.000000 I0.056737 J-0.000500
G02 X21.288911 Y20.196834 Z-1.000000 I0.046381 J0.046397
G03 X21.330118 Y20.168868 Z-1.000000 I0.068197 J0.044185
G02 X21.336018 Y20.109088 Z-1.000000 I-0.053884 J-0.005316
G03 X21.383827 Y19.863592 Z-1.000000 I0.100528 J-0.024768
G03 X21.431428 Y19.868548 Z-1.000000 I-0.057466 J0.007774
G02 X21.437420 Y19.810738 Z-1.000000 I-0.090174 J0.000714
G03 X21.517030 Y19.709348 Z-1.000000 I0.069483 J0.284199
G03 X21.648278 Y19.718207 Z-1.000000 I0.000000 J0.976606
G03 X21.598772 Y19.744188 Z-1.000000 I-0.052417 J-0.194191
G02 X21.541639 Y19.748675 Z-1.000000 I0.001575 J0.386063
G02 X21.467862 Y19.857274 Z-1.000000 I0.065381 J0.100913
G02 X21.519790 Y19.933844 Z-1.000000 I0.143318 J0.054643
G02 X21.517035 Y19.964942 Z-1.000000 I0.174163 J0.031098
G02 X21.474355 Y20.008822 Z-1.000000 I0.100092 J0.026698
G02 X21.495258 Y20.091440 Z-1.000000 I0.739128 J-0.143047
G03 X21.547335 Y20.172992 Z-1.000000 I-0.618917 J0.383564
G03 X21.669465 Y20.090146 Z-1.000000 I-0.000000 J0.351843
G03 X21.698665 Y20.097972 Z-1.000000 I-0.018407 J0.127071
G03 X21.672685 Y20.117432 Z-1.000000 I-0.035701 J-0.047602
G02 X21.628087 Y20.135276 Z-1.000000 I0.014890 J0.101872
G02 X21.641255 Y20.226902 Z-1.000000 I0.071095 J0.010122
G03 X21.751835 Y20.195502 Z-1.000000 I0.055694 J0.209404
G02 X21.797695 Y20.172470 Z-1.000000 I-0.000000 J-0.057173
G03 X21.841675 Y20.136211 Z-1.000000 I-0.103275 J0.032887
G03 X21.836632 Y20.190582 Z-1.000000 I-0.295131 J0.000046
G03 X21.817746 Y20.231669 Z-1.000000 I-0.091709 J-0.017271
G02 X21.771574 Y20.237151 Z-1.000000 I-0.015398 J0.058819
G02 X21.733462 Y20.250742 Z-1.000000 I0.025831 J0.132665
G03 X21.697074 Y20.261169 Z-1.000000 I-0.042379 J-0.079188
G02 X21.690142 Y20.289282 Z-1.000000 I0.121178 J-0.108321
G03 X21.722369 Y20.313193 Z-1.000000 I-0.349964 J0.505350
G03 X21.743522 Y20.331642 Z-1.000000 I-0.188765 J0.237783
G02 X21.765744 Y20.346414 Z-1.000000 I0.052344 J-0.054641
G02 X21.788322 Y20.351102 Z-1.000000 I0.022578 J-0.052029
G03 X21.889855 Y20.338324 Z-1.000000 I0.048778 J0.036380
G02 X22.007482 Y20.397812 Z-1.000000 I0.016623 J-0.063210
G03 X22.029924 Y20.386871 Z-1.000000 I0.033659 J0.040552
G03 X22.130329 Y20.374381 Z-1.000000 I-0.065177 J0.272087
G03 X22.153712 Y20.388202 Z-1.000000 I-0.038692 J0.092152
G02 X22.340555 Y20.400712 Z-1.000000 I0.113935 J-1.699974
G03 X22.505667 Y20.396666 Z-1.000000 I0.573346 J20.025223
G03 X22.536806 Y20.396712 Z-1.000000 I0.014511 J0.711977
G02 X22.691786 Y20.382597 Z-1.000000 I0.016433 J-0.677435
G02 X22.802501 Y20.394791 Z-1.000000 I0.052204 J-0.094632
G02 X22.894515 Y20.395945 Z-1.000000 I0.057979 J-0.954169
G02 X22.974843 Y20.388691 Z-1.000000 I-0.026384 J-0.740576
G03 X23.035423 Y20.387421 Z-1.000000 I0.035374 J0.241825
G02 X23.088803 Y20.413421 Z-1.000000 I0.025555 J-0.058813
G03 X23.202923 Y20.458821 Z-1.000000 I-0.015808 J0.149115
G02 X23.241583 Y20.465859 Z-1.000000 I0.038347 J-0.100937
G02 X23.307170 Y20.458465 Z-1.000000 I-0.000876 J-0.302352
G03 X23.371413 Y20.451483 Z-1.000000 I0.063260 J0.283005
G03 X23.519591 Y20.434305 Z-1.000000 I0.086866 J0.137378
G02 X23.591120 Y20.454541 Z-1.000000 I-0.023048 J-0.268126
G03 X23.658634 Y20.440293 Z-1.000000 I0.119497 J0.399157
G03 X23.735709 Y20.436351 Z-1.000000 I0.065130 J0.517959
G02 X23.810455 Y20.430299 Z-1.000000 I0.008098 J-0.364589
G03 X23.880248 Y20.399335 Z-1.000000 I0.045665 J0.046624
G02 X23.977039 Y20.437876 Z-1.000000 I0.064955 J-0.259820
G02 X24.049493 Y20.431414 Z-1.000000 I-0.007161 J-0.489703
G02 X24.144439 Y20.437946 Z-1.000000 I0.015227 J-0.089282
G01 X24.164809 Y20.437697 Z-1.000000
G02 X24.272891 Y20.467516 Z-1.000000 I0.053544 J-0.227982
G03 X24.408080 Y20.447124 Z-1.000000 I0.231427 J1.075937
G03 X24.548011 Y20.443386 Z-1.000000 I0.100644 J1.146517
G02 X24.609783 Y20.439758 Z-1.000000 I0.011278 J-0.335626
G03 X24.711991 Y20.429386 Z-1.000000 I0.015579 J0.492977
G02 X24.792805 Y20.432438 Z-1.000000 I0.057506 J-0.451196
G02 X24.820465 Y20.423686 Z-1.000000 I-0.002945 J-0.057388
G02 X24.899846 Y20.442115 Z-1.000000 I0.041781 J-0.050362
G02 X24.985894 Y20.452886 Z-1.000000 I0.105431 J-0.493177
G03 X25.073882 Y20.460260 Z-1.000000 I-0.038334 J0.985978
G03 X25.103054 Y20.468066 Z-1.000000 I-0.014569 J0.112866
G02 X25.130985 Y20.472139 Z-1.000000 I0.021884 J-0.052255
G02 X25.165934 Y20.461366 Z-1.000000 I-0.010226 J-0.095246
G03 X25.201097 Y20.451887 Z-1.000000 I0.038004 J0.071019
G03 X25.242184 Y20.458666 Z-1.000000 I0.003719 J0.105365
G02 X25.281201 Y20.466785 Z-1.000000 I0.045119 J-0.119020
G03 X25.338797 Y20.436458 Z-1.000000 I0.043986 J0.027078
G03 X25.441831 Y20.468566 Z-1.000000 I-0.010990 J0.216639
G03 X25.565836 Y20.355336 Z-1.000000 I0.109732 J0.000203
G03 X25.769657 Y20.464439 Z-1.000000 I0.000328 J0.244324
G02 X25.919669 Y20.482859 Z-1.000000 I0.173680 J-1.411554
G03 X26.055936 Y20.498324 Z-1.000000 I-0.020319 J0.787131
G03 X26.108445 Y20.521099 Z-1.000000 I-0.027423 J0.135144
G02 X26.152093 Y20.539342 Z-1.000000 I0.062057 J-0.087141
G03 X26.245505 Y20.534029 Z-1.000000 I-0.002258 J0.063842
G03 X26.302527 Y20.515157 Z-1.000000 I-0.041172 J0.112319
G02 X26.363085 Y20.526999 Z-1.000000 I-0.002059 J-0.088398
G03 X26.399878 Y20.518686 Z-1.000000 I0.038356 J0.084185
G03 X26.428475 Y20.525899 Z-1.000000 I0.000955 J0.056510
G02 X26.458318 Y20.536296 Z-1.000000 I0.044300 J-0.079128
G02 X26.567611 Y20.548369 Z-1.000000 I0.175089 J-1.084278
G03 X26.787949 Y20.563940 Z-1.000000 I-0.637951 J10.594268
G03 X26.888139 Y20.574419 Z-1.000000 I-0.175143 J2.158697
G02 X26.941416 Y20.575689 Z-1.000000 I0.032748 J-0.255694
G02 X26.979449 Y20.567119 Z-1.000000 I-0.010976 J-0.137394
G03 X27.097839 Y20.582259 Z-1.000000 I0.007714 J0.172701
G02 X27.147172 Y20.589376 Z-1.000000 I0.052894 J-0.192105
G01 X27.153399 Y20.583259 Z-1.000000
G03 X27.208012 Y20.557588 Z-1.000000 I0.056200 J-0.004797
G03 X27.250361 Y20.565923 Z-1.000000 I-0.001584 J0.066024
G02 X27.334112 Y20.650162 Z-1.000000 I0.071645 J-0.015206
G03 X27.452998 Y20.579809 Z-1.000000 I0.107357 J0.335043
G03 X27.515935 Y20.581272 Z-1.000000 I0.026838 J0.199903
G03 X27.549058 Y20.597219 Z-1.000000 I-0.012390 J0.068108
G02 X27.702432 Y20.587815 Z-1.000000 I0.071225 J-0.044032
G02 X27.760656 Y20.513328 Z-1.000000 I-0.018534 J-0.074487
G02 X27.823389 Y20.442304 Z-1.000000 I0.037021 J-0.044654
G02 X27.789576 Y20.397738 Z-1.000000 I-0.042954 J0.043872
G03 X27.828156 Y20.359768 Z-1.000000 I0.048630 J0.167166
G02 X27.879558 Y20.355016 Z-1.000000 I0.003979 J-0.237353
G03 X27.918558 Y20.253259 Z-1.000000 I0.037474 J-0.037474
G03 X27.958276 Y20.288748 Z-1.000000 I-0.191736 J0.122177
G02 X27.980286 Y20.329136 Z-1.000000 I0.156476 J-0.059082
G03 X27.978656 Y20.248898 Z-1.000000 I0.107091 J-0.034879
G02 X27.973276 Y20.216259 Z-1.000000 I-0.101705 J0.000000
G03 X27.960086 Y20.161958 Z-1.000000 I0.167099 J-0.019146
G03 X27.890235 Y20.120731 Z-1.000000 I-0.018186 J-0.094143
G03 X27.874218 Y20.168703 Z-1.000000 I-0.100196 J0.013336
G03 X27.826116 Y20.308188 Z-1.000000 I-0.176556 J-0.043767
G03 X27.769758 Y20.335605 Z-1.000000 I-0.060171 J-0.052055
G03 X27.665946 Y20.312358 Z-1.000000 I-0.024562 J-0.135267
G02 X27.632498 Y20.317672 Z-1.000000 I-0.007625 J0.059927
G03 X27.609116 Y20.377368 Z-1.000000 I-0.056252 J-0.021953
G03 X27.542636 Y20.364828 Z-1.000000 I0.065196 J-0.070058
G03 X27.553438 Y20.287871 Z-1.000000 I0.052352 J-0.084636
G02 X27.525748 Y20.205450 Z-1.000000 I-0.277322 J0.047099
G03 X27.499976 Y20.161058 Z-1.000000 I0.072501 J-0.020765
G02 X27.449186 Y20.126028 Z-1.000000 I-0.041670 J0.060480
G03 X27.403955 Y20.116165 Z-1.000000 I0.001559 J-0.115795
G03 X27.488106 Y20.073598 Z-1.000000 I0.101971 J0.336112
G03 X27.680359 Y20.070349 Z-1.000000 I0.140433 J2.619859
G03 X27.725553 Y20.078198 Z-1.000000 I-0.002988 J0.151234
G02 X27.815549 Y20.057403 Z-1.000000 I0.109847 J-0.265581
G02 X27.867593 Y20.071378 Z-1.000000 I0.280237 J-0.939746
G02 X27.900458 Y20.072953 Z-1.000000 I0.020589 J-0.085942
G03 X27.870313 Y19.964369 Z-1.000000 I0.063796 J0.022056
G02 X27.891778 Y19.929852 Z-1.000000 I-0.039034 J-0.048207
G02 X27.889833 Y19.878109 Z-1.000000 I-0.098185 J-0.022217
G03 X27.888419 Y19.833434 Z-1.000000 I0.081223 J-0.024931
G02 X27.885211 Y19.780128 Z-1.000000 I-0.067225 J0.067225
G02 X27.862893 Y19.774969 Z-1.000000 I-0.022318 J0.045695
G02 X27.815253 Y19.767189 Z-1.000000 I0.072490 J0.057345
G02 X27.757491 Y19.749533 Z-1.000000 I-0.146279 J0.057766
G03 X27.690443 Y19.701009 Z-1.000000 I0.217318 J-0.282319
G03 X27.662671 Y19.654505 Z-1.000000 I0.091985 J-0.086479
G03 X27.659333 Y19.607819 Z-1.000000 I0.089444 J-0.029857
G02 X27.655660 Y19.572930 Z-1.000000 I-0.061508 J-0.011162
G02 X27.636134 Y19.439781 Z-1.000000 I-0.505424 J-0.102072
G02 X27.638633 Y18.871888 Z-1.000000 I-19.477621 J-0.369662
G03 X27.637767 Y18.723985 Z-1.000000 I17.103672 J-0.174085
G03 X27.638371 Y18.700615 Z-1.000000 I0.427187 J-0.000654
G02 X27.639109 Y18.421453 Z-1.000000 I-2.797254 J-0.146980
G02 X27.604261 Y17.983193 Z-1.000000 I-6.832755 J0.322791
G03 X27.593147 Y17.849477 Z-1.000000 I2.359144 J-0.263412
G03 X27.590991 Y17.740074 Z-1.000000 I1.562816 J-0.085514
G02 X27.585703 Y17.632178 Z-1.000000 I-0.841979 J-0.012811
G02 X27.574741 Y17.597014 Z-1.000000 I-0.097384 J0.011067
G03 X27.564594 Y17.561654 Z-1.000000 I0.077045 J-0.041245
G03 X27.559771 Y17.375354 Z-1.000000 I2.240265 J-0.151207
G02 X27.556117 Y17.190511 Z-1.000000 I-2.624793 J-0.040577
G01 X27.548761 Y17.177057 Z-1.000000
G03 X27.513254 Y17.109254 Z-1.000000 I0.050421 J-0.069602
G03 X27.546061 Y17.047457 Z-1.000000 I0.071775 J-0.001503
G03 X27.529391 Y16.912057 Z-1.000000 I0.454652 J-0.064931
G02 X27.528962 Y16.822061 Z-1.000000 I-0.727207 J-0.041531
G03 X27.511411 Y16.663076 Z-1.000000 I1.937230 J-0.147918
G02 X27.491828 Y16.384249 Z-1.000000 I-1.994809 J0.000000
G02 X27.490311 Y16.310323 Z-1.000000 I-0.064963 J-0.036039
G03 X27.494377 Y16.271479 Z-1.000000 I0.401437 J0.022385
G03 X27.502281 Y16.232483 Z-1.000000 I0.417639 J0.064351
G02 X27.500799 Y16.202523 Z-1.000000 I-0.049724 J-0.012558
G02 X27.485861 Y16.097573 Z-1.000000 I-0.226737 J-0.033832
G02 X27.464261 Y15.871072 Z-1.000000 I-3.746170 J0.242965
G02 X27.450271 Y15.815178 Z-1.000000 I-0.239011 J0.030126
G03 X27.437930 Y15.770623 Z-1.000000 I0.229317 J-0.087504
G03 X27.435071 Y15.729538 Z-1.000000 I0.190884 J-0.033925
G03 X27.449569 Y15.656481 Z-1.000000 I1.496429 J-0.209710
G03 X27.439421 Y15.547601 Z-1.000000 I5.500596 J-0.567611
G02 X27.425790 Y15.439947 Z-1.000000 I-1.265619 J0.105556
G02 X27.416381 Y15.412384 Z-1.000000 I-0.089944 J0.015317
G03 X27.405855 Y15.367270 Z-1.000000 I0.079442 J-0.042321
G03 X27.434897 Y15.325830 Z-1.000000 I0.183972 J-0.000000
G03 X27.442651 Y15.273164 Z-1.000000 I1.051274 J0.127874
G02 X27.442602 Y15.242605 Z-1.000000 I-0.087189 J-0.015140
G03 X27.412111 Y14.955918 Z-1.000000 I0.814977 J-0.071150
G03 X27.392324 Y14.906231 Z-1.000000 I0.091878 J-0.000642
G02 X27.383292 Y14.725877 Z-1.000000 I-0.553720 J-0.000762
G03 X27.378301 Y14.466650 Z-1.000000 I0.438010 J0.009477
G03 X27.356671 Y14.260494 Z-1.000000 I2.327089 J-0.210291
G02 X27.350737 Y14.072213 Z-1.000000 I-4.713335 J0.054305
G01 X27.346271 Y14.057982 Z-1.000000
G03 X27.331971 Y13.908695 Z-1.000000 I2.715517 J-0.258875
G02 X27.323007 Y13.772771 Z-1.000000 I-3.322250 J0.150850
G02 X27.302001 Y13.562355 Z-1.000000 I-8.003563 J0.692730
G03 X27.284626 Y13.352244 Z-1.000000 I3.464208 J-0.392237
G03 X27.287541 Y13.286174 Z-1.000000 I0.343272 J-0.017957
G02 X27.291405 Y13.220871 Z-1.000000 I-0.402736 J-0.056598
G02 X27.285541 Y13.192754 Z-1.000000 I-0.078382 J0.001678
G03 X27.276933 Y13.164643 Z-1.000000 I0.146911 J-0.060361
G03 X27.268641 Y13.110954 Z-1.000000 I0.519254 J-0.107679
G02 X27.257280 Y13.061214 Z-1.000000 I-0.209785 J0.021750
G02 X27.252861 Y12.970664 Z-1.000000 I-0.089595 J0.002743
G00 Z5.000000

(End cutting path id: path20655)


(Start cutting path id: path20655)
(Change tool to Default tool)

G00 Z5.000000

G01 Z-1.000000 F100.0(Penetrate)
G00 Z5.000000

(End cutting path id: path20655)


(Start cutting path id: path20655)
(Change tool to Default tool)

G00 Z5.000000

G01 Z-1.000000 F100.0(Penetrate)
G03 X27.150790 Y13.461465 Z-1.000000 I-0.991648 J0.189487 F3500.000000
G03 X27.162007 Y13.544524 Z-1.000000 I-3.636058 J0.533350
G03 X27.158125 Y13.612438 Z-1.000000 I-0.189079 J0.023260
G02 X27.130061 Y13.502053 Z-1.000000 I-0.328459 J-0.075777
G02 X27.117817 Y13.418508 Z-1.000000 I-0.343218 J0.007632
G03 X27.114079 Y13.381810 Z-1.000000 I0.106824 J-0.029421
G03 X27.143447 Y13.418508 Z-1.000000 I-0.115033 J0.061519
G00 Z5.000000

(End cutting path id: path20655)


(Start cutting path id: path20655)
(Change tool to Default tool)

G00 Z5.000000

G01 Z-1.000000 F100.0(Penetrate)
G03 X27.251358 Y13.460131 Z-1.000000 I0.074826 J-0.048331
G03 X27.247289 Y13.430190 Z-1.000000 I0.108125 J-0.029941
G03 X27.273400 Y13.446949 Z-1.000000 I-0.074826 J0.048331
G03 X27.277469 Y13.476890 Z-1.000000 I-0.108125 J0.029941
G00 Z5.000000

(End cutting path id: path20655)


(Start cutting path id: path20655)
(Change tool to Default tool)

G00 Z5.000000

G01 Z-1.000000 F100.0(Penetrate)
G02 X26.948134 Y13.735570 Z-1.000000 I0.358489 J0.153558 F3500.000000
G03 X26.991978 Y13.838975 Z-1.000000 I-0.276224 J0.001647
G03 X26.974539 Y13.875214 Z-1.000000 I-0.088414 J-0.020231
G02 X26.953738 Y13.905065 Z-1.000000 I0.094199 J0.032480
G02 X27.020268 Y13.851905 Z-1.000000 I-0.189416 J-0.018220
G03 X27.020102 Y13.802140 Z-1.000000 I0.135845 J-0.025335
G02 X27.055368 Y13.724865 Z-1.000000 I-0.142657 J-0.053250
G02 X27.047532 Y13.689517 Z-1.000000 I-0.074378 J-0.002054
G03 X27.006658 Y13.613115 Z-1.000000 I0.139600 J-0.056199
G02 X27.005410 Y13.553331 Z-1.000000 I-0.281936 J-0.024018
G00 Z5.000000

(End cutting path id: path20655)


(Start cutting path id: path20655)
(Change tool to Default tool)

G00 Z5.000000

G01 Z-1.000000 F100.0(Penetrate)
G02 X26.880896 Y13.578087 Z-1.000000 I0.045458 J0.048079
G00 Z5.000000

(End cutting path id: path20655)


(Start cutting path id: path20655)
(Change tool to Default tool)

G00 Z5.000000

G01 Z-1.000000 F100.0(Penetrate)
G02 X26.960547 Y13.319378 Z-1.000000 I-0.059688 J-0.000000
G00 Z5.000000

(End cutting path id: path20655)


(Start cutting path id: path20655)
(Change tool to Default tool)

G00 Z5.000000

G01 Z-1.000000 F100.0(Penetrate)
G02 X26.880907 Y13.354539 Z-1.000000 I0.106516 J-0.062208
G00 Z5.000000

(End cutting path id: path20655)


(Start cutting path id: path20655)
(Change tool to Default tool)

G00 Z5.000000

G01 Z-1.000000 F100.0(Penetrate)
G03 X27.214172 Y13.780506 Z-1.000000 I-0.048424 J0.019460
G03 X27.210408 Y13.799966 Z-1.000000 I-0.052188 J-0.000000
G00 Z5.000000

(End cutting path id: path20655)


(Start cutting path id: path20655)
(Change tool to Default tool)

G00 Z5.000000

G01 Z-1.000000 F100.0(Penetrate)
G03 X27.285043 Y13.786218 Z-1.000000 I0.092262 J-0.070772
G03 X27.278919 Y13.749366 Z-1.000000 I0.108147 J-0.036906
G03 X27.315799 Y13.803866 Z-1.000000 I-0.144344 J0.097675
G00 Z5.000000

(End cutting path id: path20655)


(Start cutting path id: path20655)
(Change tool to Default tool)

G00 Z5.000000

G01 Z-1.000000 F100.0(Penetrate)
G02 X27.016341 Y14.110509 Z-1.000000 I0.110225 J0.041998 F3500.000000
G02 X27.014851 Y14.143787 Z-1.000000 I0.177324 J0.024612
G02 X27.029231 Y14.123157 Z-1.000000 I-0.052475 J-0.036588
G02 X27.030522 Y14.085507 Z-1.000000 I-0.093883 J-0.022067
G00 Z5.000000

(End cutting path id: path20655)


(Start cutting path id: path20655)
(Change tool to Default tool)

G00 Z5.000000

G01 Z-1.000000 F100.0(Penetrate)
G00 Z5.000000

(End cutting path id: path20655)


(Start cutting path id: path20655)
(Change tool to Default tool)

G00 Z5.000000

G01 Z-1.000000 F100.0(Penetrate)
G00 Z5.000000

(End cutting path id: path20655)


(Start cutting path id: path20655)
(Change tool to Default tool)

G00 Z5.000000

G01 Z-1.000000 F100.0(Penetrate)
G00 Z5.000000

(End cutting path id: path20655)


(Start cutting path id: path20655)
(Change tool to Default tool)

G00 Z5.000000

G01 Z-1.000000 F100.0(Penetrate)
G02 X27.041535 Y14.566576 Z-1.000000 I-0.042879 J0.026783
G00 Z5.000000

(End cutting path id: path20655)


(Start cutting path id: path20655)
(Change tool to Default tool)

G00 Z5.000000

G01 Z-1.000000 F100.0(Penetrate)
G03 X26.902929 Y14.743003 Z-1.000000 I-0.121615 J-0.012076 F3500.000000
G03 X26.894179 Y14.771833 Z-1.000000 I-0.310673 J-0.078545
G02 X26.915259 Y14.735833 Z-1.000000 I-0.052230 J-0.013273
G00 Z5.000000

(End cutting path id: path20655)


(Start cutting path id: path20655)
(Change tool to Default tool)

G00 Z5.000000

G01 Z-1.000000 F100.0(Penetrate)
G00 Z5.000000

(End cutting path id: path20655)


(Start cutting path id: path20655)
(Change tool to Default tool)

G00 Z5.000000

G01 Z-1.000000 F100.0(Penetrate)
G02 X27.160951 Y15.021022 Z-1.000000 I0.078560 J-0.020637 F3500.000000
G02 X27.175066 Y14.988473 Z-1.000000 I-0.063882 J-0.007295
G00 Z5.000000

(End cutting path id: path20655)


(Start cutting path id: path20655)
(Change tool to Default tool)

G00 Z5.000000

G01 Z-1.000000 F100.0(Penetrate)
G02 X27.050828 Y15.216224 Z-1.000000 I0.692799 J-0.072995 F3500.000000
G03 X27.063729 Y15.194200 Z-1.000000 I0.114094 J-0.039995
G03 X27.059969 Y15.110474 Z-1.000000 I0.930358 J-0.083726
G02 X27.052027 Y15.034107 Z-1.000000 I-0.371134 J-0.000000
G02 X27.034479 Y15.122744 Z-1.000000 I0.481827 J0.038372
G00 Z5.000000

(End cutting path id: path20655)


(Start cutting path id: path20655)
(Change tool to Default tool)

G00 Z5.000000

G01 Z-1.000000 F100.0(Penetrate)
G02 X27.091419 Y15.398933 Z-1.000000 I0.305354 J-0.012974 F3500.000000
G02 X27.113483 Y15.358615 Z-1.000000 I-0.131406 J-0.023943
G02 X27.093293 Y15.322270 Z-1.000000 I-0.063302 J0.011385
G00 Z5.000000

(End cutting path id: path20655)


(Start cutting path id: path20655)
(Change tool to Default tool)

G00 Z5.000000

G01 Z-1.000000 F100.0(Penetrate)
G02 X27.081215 Y15.516091 Z-1.000000 I0.183466 J-0.002699 F3500.000000
G02 X27.091085 Y15.555435 Z-1.000000 I0.318796 J-0.059063
G02 X27.100729 Y15.517245 Z-1.000000 I-0.196819 J-0.002317
G02 X27.091092 Y15.485365 Z-1.000000 I-0.148775 J0.027577
G00 Z5.000000

(End cutting path id: path20655)


(Start cutting path id: path20655)
(Change tool to Default tool)

G00 Z5.000000

G01 Z-1.000000 F100.0(Penetrate)
G02 X27.197856 Y15.552459 Z-1.000000 I-0.034416 J-0.055845
G00 Z5.000000

(End cutting path id: path20655)


(Start cutting path id: path20655)
(Change tool to Default tool)

G00 Z5.000000

G01 Z-1.000000 F100.0(Penetrate)
G00 Z5.000000

(End cutting path id: path20655)


(Start cutting path id: path20655)
(Change tool to Default tool)

G00 Z5.000000

G01 Z-1.000000 F100.0(Penetrate)
G02 X27.432271 Y15.088393 Z-1.000000 I-0.104738 J-0.027250
G02 X27.428784 Y15.061143 Z-1.000000 I-0.108225 J0.000000
G00 Z5.000000

(End cutting path id: path20655)


(Start cutting path id: path20655)
(Change tool to Default tool)

G00 Z5.000000

G01 Z-1.000000 F100.0(Penetrate)
G00 Z5.000000

(End cutting path id: path20655)


(Start cutting path id: path20655)
(Change tool to Default tool)

G00 Z5.000000

G01 Z-1.000000 F100.0(Penetrate)
G03 X27.218576 Y14.726239 Z-1.000000 I-0.059717 J0.027208 F3500.000000
G03 X27.177842 Y14.804517 Z-1.000000 I-0.051626 J0.000000
G02 X27.112730 Y14.814637 Z-1.000000 I-0.070139 J-0.015290
G03 X27.112193 Y14.783979 Z-1.000000 I0.065617 J-0.016482
G02 X27.135040 Y14.733737 Z-1.000000 I-0.088389 J-0.029102
G03 X27.166568 Y14.676175 Z-1.000000 I0.059914 J-0.004599
G00 Z5.000000

(End cutting path id: path20655)


(Start cutting path id: path20655)
(Change tool to Default tool)

G00 Z5.000000

G01 Z-1.000000 F100.0(Penetrate)
G00 Z5.000000

(End cutting path id: path20655)


(Start cutting path id: path20655)
(Change tool to Default tool)

G00 Z5.000000

G01 Z-1.000000 F100.0(Penetrate)
G00 Z5.000000

(End cutting path id: path20655)


(Start cutting path id: path20655)
(Change tool to Default tool)

G00 Z5.000000

G01 Z-1.000000 F100.0(Penetrate)
G03 X25.913342 Y14.604150 Z-1.000000 I-0.127898 J-0.005798
G03 X25.873662 Y14.543440 Z-1.000000 I0.071098 J-0.046466
G03 X25.883315 Y14.516187 Z-1.000000 I0.080354 J0.013124
G00 Z5.000000

(End cutting path id: path20655)


(Start cutting path id: path20655)
(Change tool to Default tool)

G00 Z5.000000

G01 Z-1.000000 F100.0(Penetrate)
G02 X25.780965 Y14.571536 Z-1.000000 I-0.034416 J-0.055845
G00 Z5.000000

(End cutting path id: path20655)


(Start cutting path id: path20655)
(Change tool to Default tool)

G00 Z5.000000

G01 Z-1.000000 F100.0(Penetrate)
G02 X25.474878 Y14.572365 Z-1.000000 I0.055845 J-0.034416 F3500.000000
G00 Z5.000000

(End cutting path id: path20655)


(Start cutting path id: path20655)
(Change tool to Default tool)

G00 Z5.000000

G01 Z-1.000000 F100.0(Penetrate)
G02 X25.397810 Y14.534953 Z-1.000000 I0.243094 J0.112846 F3500.000000
G02 X25.393939 Y14.564042 Z-1.000000 I0.107368 J0.029089
G02 X25.429489 Y14.527502 Z-1.000000 I-0.050659 J-0.014423
G02 X25.413439 Y14.492182 Z-1.000000 I0.100429 J0.092991
G00 Z5.000000

(End cutting path id: path20655)


(Start cutting path id: path20655)
(Change tool to Default tool)

G00 Z5.000000

G01 Z-1.000000 F100.0(Penetrate)
G00 Z5.000000

(End cutting path id: path20655)


(Start cutting path id: path20655)
(Change tool to Default tool)

G00 Z5.000000

G01 Z-1.000000 F100.0(Penetrate)
G02 X25.386156 Y14.730293 Z-1.000000 I0.177403 J-0.167706
G00 Z5.000000

(End cutting path id: path20655)


(Start cutting path id: path20655)
(Change tool to Default tool)

G00 Z5.000000

G01 Z-1.000000 F100.0(Penetrate)
G02 X25.337632 Y14.783637 Z-1.000000 I0.169677 J-0.000000 F3500.000000
G02 X25.378027 Y14.721353 Z-1.000000 I-0.037329 J-0.060267
G02 X25.331626 Y14.739002 Z-1.000000 I0.485577 J0.052571
G00 Z5.000000

(End cutting path id: path20655)


(Start cutting path id: path20655)
(Change tool to Default tool)

G00 Z5.000000

G01 Z-1.000000 F100.0(Penetrate)
G02 X25.479847 Y14.720187 Z-1.000000 I-0.062080 J-0.056190
G02 X25.440336 Y14.738443 Z-1.000000 I0.055166 J0.083315
G00 Z5.000000

(End cutting path id: path20655)


(Start cutting path id: path20655)
(Change tool to Default tool)

G00 Z5.000000

G01 Z-1.000000 F100.0(Penetrate)
G03 X25.469139 Y14.909293 Z-1.000000 I-0.374501 J-0.020650 F3500.000000
G03 X25.464016 Y14.952163 Z-1.000000 I-1.798290 J-0.193173
G02 X25.465359 Y14.988830 Z-1.000000 I0.109108 J0.014362
G02 X25.487426 Y14.932703 Z-1.000000 I-0.240206 J-0.055844
G02 X25.483778 Y14.874088 Z-1.000000 I-0.472693 J-0.000000
G00 Z5.000000

(End cutting path id: path20655)


(Start cutting path id: path20655)
(Change tool to Default tool)

G00 Z5.000000

G01 Z-1.000000 F100.0(Penetrate)
G02 X25.349105 Y14.921023 Z-1.000000 I0.058810 J0.029628
G02 X25.360060 Y14.982523 Z-1.000000 I0.156237 J0.003894
G02 X25.403337 Y14.988798 Z-1.000000 I0.000000 J-0.053340
G02 X25.406442 Y14.853856 Z-1.000000 I-0.383715 J-0.130092
G02 X25.376605 Y14.889855 Z-1.000000 I0.159175 J0.050571
G00 Z5.000000

(End cutting path id: path20655)


(Start cutting path id: path20655)
(Change tool to Default tool)

G00 Z5.000000

G01 Z-1.000000 F100.0(Penetrate)
G02 X25.356978 Y15.085823 Z-1.000000 I0.189227 J0.007385
G02 X25.392524 Y15.156486 Z-1.000000 I0.133954 J-0.023112
G02 X25.447133 Y15.099361 Z-1.000000 I-0.000729 J-0.083445
G02 X25.471828 Y15.086683 Z-1.000000 I-0.029751 J-0.088337
G03 X25.415077 Y15.075077 Z-1.000000 I-0.021903 J-0.068093
G00 Z5.000000

(End cutting path id: path20655)


(Start cutting path id: path20655)
(Change tool to Default tool)

G00 Z5.000000

G01 Z-1.000000 F100.0(Penetrate)
G02 X25.385185 Y15.331963 Z-1.000000 I0.534856 J0.007418 F3500.000000
G03 X25.409036 Y15.381246 Z-1.000000 I-0.053807 J0.022525
G03 X25.375670 Y15.345259 Z-1.000000 I0.186578 J-0.108643
G03 X25.361046 Y15.299096 Z-1.000000 I0.392582 J-0.149767
G02 X25.371622 Y15.480891 Z-1.000000 I1.026842 J-0.073540
G02 X25.358914 Y15.613963 Z-1.000000 I0.092115 J0.026515
G03 X25.399113 Y15.561642 Z-1.000000 I0.065103 J-0.000000
G02 X25.475552 Y15.463759 Z-1.000000 I-0.034631 J-0.096018
G02 X25.421504 Y15.358613 Z-1.000000 I-0.114253 J-0.007734
G03 X25.412904 Y15.266153 Z-1.000000 I0.450284 J-0.041845
G02 X25.413687 Y15.193252 Z-1.000000 I-0.502042 J-0.041846
G00 Z5.000000

(End cutting path id: path20655)


(Start cutting path id: path20655)
(Change tool to Default tool)

G00 Z5.000000

G01 Z-1.000000 F100.0(Penetrate)
G00 Z5.000000

(End cutting path id: path20655)


(Start cutting path id: path20655)
(Change tool to Default tool)

G00 Z5.000000

G01 Z-1.000000 F100.0(Penetrate)
G02 X25.359855 Y15.744150 Z-1.000000 I0.078246 J0.020380 F3500.000000
G02 X25.380278 Y15.682645 Z-1.000000 I-0.105849 J-0.001411
G00 Z5.000000

(End cutting path id: path20655)


(Start cutting path id: path20655)
(Change tool to Default tool)

G00 Z5.000000

G01 Z-1.000000 F100.0(Penetrate)
G00 Z5.000000

(End cutting path id: path20655)


(Start cutting path id: path20655)
(Change tool to Default tool)

G00 Z5.000000

G01 Z-1.000000 F100.0(Penetrate)
G03 X25.132293 Y16.133787 Z-1.000000 I0.055845 J0.034416
G00 Z5.000000

(End cutting path id: path20655)


(Start cutting path id: path20655)
(Change tool to Default tool)

G00 Z5.000000

G01 Z-1.000000 F100.0(Penetrate)
G03 X24.777991 Y16.225010 Z-1.000000 I-0.037064 J-0.246127
G03 X24.749306 Y16.218834 Z-1.000000 I0.000000 J-0.069700
G00 Z5.000000

(End cutting path id: path20655)


(Start cutting path id: path20655)
(Change tool to Default tool)

G00 Z5.000000

G01 Z-1.000000 F100.0(Penetrate)
G00 Z5.000000

(End cutting path id: path20655)


(Start cutting path id: path20655)
(Change tool to Default tool)

G00 Z5.000000

G01 Z-1.000000 F100.0(Penetrate)
G00 Z5.000000

(End cutting path id: path20655)


(Start cutting path id: path20655)
(Change tool to Default tool)

G00 Z5.000000
G00 X24.175559 Y16.018056

G01 Z-1.000000 F100.0(Penetrate)
G02 X24.210594 Y16.021389 Z-1.000000 I0.035035 J-0.182466 F3500.000000
G02 X24.245629 Y16.018056 Z-1.000000 I-0.000000 J-0.185799
G00 Z5.000000

(End cutting path id: path20655)


(Start cutting path id: path20655)
(Change tool to Default tool)

G00 Z5.000000

G01 Z-1.000000 F100.0(Penetrate)
G02 X24.116255 Y16.116086 Z-1.000000 I-0.026042 J0.053801
G00 Z5.000000

(End cutting path id: path20655)


(Start cutting path id: path20655)
(Change tool to Default tool)

G00 Z5.000000

G01 Z-1.000000 F100.0(Penetrate)
G03 X24.116076 Y16.376722 Z-1.000000 I-0.015172 J0.205300 F3500.000000
G03 X24.025149 Y16.420842 Z-1.000000 I-0.086002 J-0.139174
G03 X23.863675 Y16.387710 Z-1.000000 I0.016869 J-0.492260
G02 X23.835519 Y16.382000 Z-1.000000 I-0.030803 J0.079618
G02 X23.792875 Y16.385610 Z-1.000000 I-0.005759 J0.185653
G03 X23.727621 Y16.379437 Z-1.000000 I-0.022319 J-0.112056
G02 X23.751213 Y16.351799 Z-1.000000 I-0.527918 J-1.623669
G02 X23.774635 Y16.343580 Z-1.000000 I-0.443599 J-1.301584
G03 X23.798510 Y16.339138 Z-1.000000 I0.025693 J0.071716
G03 X23.875841 Y16.341280 Z-1.000000 I0.017913 J0.750390
G02 X23.953703 Y16.347355 Z-1.000000 I2.260419 J-28.467972
G02 X24.035245 Y16.353480 Z-1.000000 I2.041390 J-26.632366
G00 Z5.000000

(End cutting path id: path20655)


(Start cutting path id: path20655)
(Change tool to Default tool)

G00 Z5.000000

G01 Z-1.000000 F100.0(Penetrate)
G00 Z5.000000

(End cutting path id: path20655)


(Start cutting path id: path20655)
(Change tool to Default tool)

G00 Z5.000000

G01 Z-1.000000 F100.0(Penetrate)
G03 X24.255530 Y16.421177 Z-1.000000 I-0.026961 J-0.046360 F3500.000000
G03 X24.265871 Y16.396727 Z-1.000000 I0.026956 J0.046416
G00 Z5.000000

(End cutting path id: path20655)


(Start cutting path id: path20655)
(Change tool to Default tool)

G00 Z5.000000

G01 Z-1.000000 F100.0(Penetrate)
G00 Z5.000000

(End cutting path id: path20655)


(Start cutting path id: path20655)
(Change tool to Default tool)

G00 Z5.000000

G01 Z-1.000000 F100.0(Penetrate)
G03 X23.547866 Y16.342420 Z-1.000000 I0.032995 J-0.167752
G03 X23.579319 Y16.323836 Z-1.000000 I-0.005816 J0.226816
G03 X23.611136 Y16.333390 Z-1.000000 I-0.033578 J0.169585
G00 Z5.000000

(End cutting path id: path20655)


(Start cutting path id: path20655)
(Change tool to Default tool)

G00 Z5.000000

G01 Z-1.000000 F100.0(Penetrate)
G02 X23.435968 Y16.334590 Z-1.000000 I0.029686 J-0.061157
G03 X23.358138 Y16.412612 Z-1.000000 I-0.039918 J-0.127951
G02 X23.292304 Y16.405087 Z-1.000000 I-0.089479 J0.491049
G02 X23.254999 Y16.407712 Z-1.000000 I-0.007546 J0.159117
G03 X23.220820 Y16.407781 Z-1.000000 I-0.017273 J-0.090840
G03 X23.276349 Y16.372972 Z-1.000000 I0.023260 J0.061392
G02 X23.324019 Y16.372667 Z-1.000000 I-0.000530 J-0.104020
G02 X23.316863 Y16.323546 Z-1.000000 I-0.054294 J0.045029
G03 X23.378979 Y16.250416 Z-1.000000 I0.094149 J0.058184
G03 X23.432057 Y16.303826 Z-1.000000 I-0.000333 J0.053410
G00 Z5.000000

(End cutting path id: path20655)


(Start cutting path id: path20655)
(Change tool to Default tool)

G00 Z5.000000

G01 Z-1.000000 F100.0(Penetrate)
G00 Z5.000000

(End cutting path id: path20655)


(Start cutting path id: path20655)
(Change tool to Default tool)

G00 Z5.000000

G01 Z-1.000000 F100.0(Penetrate)
G02 X23.062697 Y16.361971 Z-1.000000 I0.175137 J-0.335897 F3500.000000
G02 X22.996117 Y16.319185 Z-1.000000 I-0.092495 J0.169746
G02 X23.017357 Y16.341985 Z-1.000000 I0.063629 J-0.059235
G00 Z5.000000

(End cutting path id: path20655)


(Start cutting path id: path20655)
(Change tool to Default tool)

G00 Z5.000000

G01 Z-1.000000 F100.0(Penetrate)
G00 Z5.000000

(End cutting path id: path20655)


(Start cutting path id: path20655)
(Change tool to Default tool)

G00 Z5.000000

G01 Z-1.000000 F100.0(Penetrate)
G02 X22.923328 Y16.218019 Z-1.000000 I0.001893 J-0.075630
G02 X22.910554 Y16.196178 Z-1.000000 I0.027402 J0.072828
G02 X22.879334 Y16.209504 Z-1.000000 I1.850309 J4.378065
G00 Z5.000000

(End cutting path id: path20655)


(Start cutting path id: path20655)
(Change tool to Default tool)

G00 Z5.000000

G01 Z-1.000000 F100.0(Penetrate)
G00 Z5.000000

(End cutting path id: path20655)


(Start cutting path id: path20655)
(Change tool to Default tool)

G00 Z5.000000

G01 Z-1.000000 F100.0(Penetrate)
G02 X22.638354 Y16.459011 Z-1.000000 I0.554816 J-0.492498
G02 X22.666471 Y16.474624 Z-1.000000 I0.041360 J-0.041360
G03 X22.818143 Y16.449271 Z-1.000000 I0.105655 J0.775818
G02 X22.943424 Y16.446382 Z-1.000000 I0.031665 J-1.344633
G02 X22.914373 Y16.425321 Z-1.000000 I-0.035748 J0.085099
G02 X22.615557 Y16.415033 Z-1.000000 I-0.333911 J5.353704
G00 Z5.000000

(End cutting path id: path20655)


(Start cutting path id: path20655)
(Change tool to Default tool)

G00 Z5.000000

G01 Z-1.000000 F100.0(Penetrate)
G02 X23.076995 Y16.652660 Z-1.000000 I0.103158 J-0.445231
G03 X23.179430 Y16.660297 Z-1.000000 I0.003034 J0.650058
G03 X22.996776 Y16.745777 Z-1.000000 I-0.165489 J-0.137343
G03 X22.902690 Y16.642260 Z-1.000000 I0.009904 J-0.103517
G02 X22.852090 Y16.661170 Z-1.000000 I0.093253 J0.249703
G03 X22.764800 Y16.693521 Z-1.000000 I-0.126578 J-0.207599
G03 X22.774241 Y16.655070 Z-1.000000 I0.045815 J0.053648
G02 X22.801332 Y16.645029 Z-1.000000 I-0.319242 J-0.902913
G02 X22.855981 Y16.623300 Z-1.000000 I-1.261778 J-3.252959
G03 X22.945973 Y16.606852 Z-1.000000 I0.084315 J0.206906
G00 Z5.000000

(End cutting path id: path20655)


(Start cutting path id: path20655)
(Change tool to Default tool)

G00 Z5.000000

G01 Z-1.000000 F100.0(Penetrate)
G03 X22.093040 Y16.419721 Z-1.000000 I-0.020841 J-0.202915
G02 X22.040898 Y16.421209 Z-1.000000 I-0.022320 J0.132183
G02 X22.106670 Y16.458641 Z-1.000000 I0.065512 J-0.201171
G02 X22.265065 Y16.443825 Z-1.000000 I-0.000000 J-0.854088
G02 X22.233179 Y16.422041 Z-1.000000 I-0.012092 J0.147742
G03 X22.193758 Y16.422526 Z-1.000000 I-0.020994 J-0.104130
G00 Z5.000000

(End cutting path id: path20655)


(Start cutting path id: path20655)
(Change tool to Default tool)

G00 Z5.000000

G01 Z-1.000000 F100.0(Penetrate)
G00 Z5.000000

(End cutting path id: path20655)


(Start cutting path id: path20655)
(Change tool to Default tool)

G00 Z5.000000

G01 Z-1.000000 F100.0(Penetrate)
G02 X21.944128 Y16.422271 Z-1.000000 I0.043038 J-0.093583
G03 X21.907592 Y16.392928 Z-1.000000 I-0.017123 J-0.065335
G03 X21.884118 Y16.381891 Z-1.000000 I0.009593 J-0.050881
G00 Z5.000000

(End cutting path id: path20655)


(Start cutting path id: path20655)
(Change tool to Default tool)

G00 Z5.000000

G01 Z-1.000000 F100.0(Penetrate)
G00 Z5.000000

(End cutting path id: path20655)


(Start cutting path id: path20655)
(Change tool to Default tool)

G00 Z5.000000

G01 Z-1.000000 F100.0(Penetrate)
G02 X21.767131 Y16.465961 Z-1.000000 I0.089074 J-0.846959
G02 X21.738841 Y16.438601 Z-1.000000 I-0.035065 J0.036261
G02 X21.649506 Y16.443544 Z-1.000000 I-0.016801 J0.506114
G00 Z5.000000

(End cutting path id: path20655)


(Start cutting path id: path20655)
(Change tool to Default tool)

G00 Z5.000000

G01 Z-1.000000 F100.0(Penetrate)
G02 X21.576170 Y16.472791 Z-1.000000 I0.091204 J-0.074046 F3500.000000
G02 X21.572710 Y16.427521 Z-1.000000 I-0.031733 J0.082287
G03 X21.535596 Y16.424547 Z-1.000000 I-0.000000 J-0.233092
G03 X21.506540 Y16.416821 Z-1.000000 I0.023978 J-0.148670
G00 Z5.000000

(End cutting path id: path20655)


(Start cutting path id: path20655)
(Change tool to Default tool)

G00 Z5.000000
G00 X21.217215 Y16.633770

G01 Z-1.000000 F100.0(Penetrate)
G00 Z5.000000

(End cutting path id: path20655)


(Start cutting path id: path20655)
(Change tool to Default tool)

G00 Z5.000000

G01 Z-1.000000 F100.0(Penetrate)
G00 Z5.000000

(End cutting path id: path20655)


(Start cutting path id: path20655)
(Change tool to Default tool)

G00 Z5.000000

G01 Z-1.000000 F100.0(Penetrate)
G03 X21.818766 Y16.686170 Z-1.000000 I-0.000000 J-0.059688
G00 Z5.000000

(End cutting path id: path20655)


(Start cutting path id: path20655)
(Change tool to Default tool)

G00 Z5.000000

G01 Z-1.000000 F100.0(Penetrate)
G03 X21.459025 Y17.761645 Z-1.000000 I-0.074850 J-0.005680 F3500.000000
G03 X21.439087 Y17.735379 Z-1.000000 I0.066217 J-0.026202
G03 X21.444780 Y17.709893 Z-1.000000 I0.059892 J0.000000
G03 X21.465947 Y17.735379 Z-1.000000 I-0.053426 J0.021112
G00 Z5.000000

(End cutting path id: path20655)


(Start cutting path id: path20655)
(Change tool to Default tool)

G00 Z5.000000

G01 Z-1.000000 F100.0(Penetrate)
G00 Z5.000000

(End cutting path id: path20655)


(Start cutting path id: path20655)
(Change tool to Default tool)

G00 Z5.000000

G01 Z-1.000000 F100.0(Penetrate)
G03 X21.026471 Y17.710349 Z-1.000000 I-0.011388 J-0.049289
G03 X20.994346 Y17.695960 Z-1.000000 I0.019250 J-0.086032
G03 X21.025183 Y17.693255 Z-1.000000 I-0.000816 J0.102231
G03 X21.049831 Y17.704989 Z-1.000000 I-0.025734 J0.085809
G00 Z5.000000

(End cutting path id: path20655)


(Start cutting path id: path20655)
(Change tool to Default tool)

G00 Z5.000000

G01 Z-1.000000 F100.0(Penetrate)
G03 X20.505205 Y17.827282 Z-1.000000 I-0.019959 J-0.048923 F3500.000000
G03 X20.477918 Y17.823947 Z-1.000000 I-0.001061 J-0.104614
G00 Z5.000000

(End cutting path id: path20655)


(Start cutting path id: path20655)
(Change tool to Default tool)

G00 Z5.000000

G01 Z-1.000000 F100.0(Penetrate)
G03 X19.756336 Y17.813494 Z-1.000000 I-0.058584 J0.022617 F3500.000000
G00 Z5.000000

(End cutting path id: path20655)


(Start cutting path id: path20655)
(Change tool to Default tool)

G00 Z5.000000

G01 Z-1.000000 F100.0(Penetrate)
G02 X19.491496 Y17.691376 Z-1.000000 I0.113024 J-0.574784
G02 X19.542298 Y17.690878 Z-1.000000 I0.023036 J-0.241448
G02 X19.470716 Y17.641194 Z-1.000000 I-0.079117 J0.048911
G00 Z5.000000

(End cutting path id: path20655)


(Start cutting path id: path20655)
(Change tool to Default tool)

G00 Z5.000000

G01 Z-1.000000 F100.0(Penetrate)
G00 Z5.000000

(End cutting path id: path20655)


(Start cutting path id: path20655)
(Change tool to Default tool)

G00 Z5.000000

G01 Z-1.000000 F100.0(Penetrate)
G00 Z5.000000

(End cutting path id: path20655)


(Start cutting path id: path20655)
(Change tool to Default tool)

G00 Z5.000000
G00 X18.103161 Y17.745856

G01 Z-1.000000 F100.0(Penetrate)
G02 X18.122621 Y17.749620 Z-1.000000 I0.019460 J-0.048424 F3500.000000
G02 X18.142081 Y17.745856 Z-1.000000 I-0.000000 J-0.052188
G00 Z5.000000

(End cutting path id: path20655)


(Start cutting path id: path20655)
(Change tool to Default tool)

G00 Z5.000000

G01 Z-1.000000 F100.0(Penetrate)
G02 X17.134929 Y17.668606 Z-1.000000 I0.045599 J-0.234578
G03 X17.186232 Y17.674996 Z-1.000000 I0.004827 J0.170389
G02 X17.219549 Y17.664856 Z-1.000000 I-0.051950 J0.041401
G02 X17.082768 Y17.635917 Z-1.000000 I-0.164242 J0.438582
G00 Z5.000000

(End cutting path id: path20655)


(Start cutting path id: path20655)
(Change tool to Default tool)

G00 Z5.000000

G01 Z-1.000000 F100.0(Penetrate)
G00 Z5.000000

(End cutting path id: path20655)


(Start cutting path id: path20655)
(Change tool to Default tool)

G00 Z5.000000

G01 Z-1.000000 F100.0(Penetrate)
G03 X16.836839 Y16.841749 Z-1.000000 I0.016617 J0.051811
G00 Z5.000000

(End cutting path id: path20655)


(Start cutting path id: path20655)
(Change tool to Default tool)

G00 Z5.000000

G01 Z-1.000000 F100.0(Penetrate)
G03 X16.744649 Y16.816719 Z-1.000000 I-0.045458 J0.048079
G00 Z5.000000

(End cutting path id: path20655)


(Start cutting path id: path20655)
(Change tool to Default tool)

G00 Z5.000000

G01 Z-1.000000 F100.0(Penetrate)
G02 X16.443069 Y17.237410 Z-1.000000 I0.007492 J0.049675 F3500.000000
G02 X16.424207 Y17.408484 Z-1.000000 I0.486189 J0.140182
G02 X16.663131 Y17.505960 Z-1.000000 I-0.006641 J-0.178565
G02 X16.690309 Y17.425047 Z-1.000000 I-0.058488 J-0.064667
G03 X16.678265 Y17.341570 Z-1.000000 I0.925998 J-0.176207
G03 X16.674549 Y17.266201 Z-1.000000 I0.762421 J-0.075369
G02 X16.526770 Y17.196753 Z-1.000000 I0.053808 J1.683777
G02 X16.483806 Y17.201571 Z-1.000000 I0.045697 J0.601455
G00 Z5.000000

(End cutting path id: path20655)


(Start cutting path id: path20655)
(Change tool to Default tool)

G00 Z5.000000

G01 Z-1.000000 F100.0(Penetrate)
G03 X16.155321 Y17.072111 Z-1.000000 I-0.244894 J-0.001162 F3500.000000
G03 X16.144958 Y17.096989 Z-1.000000 I-0.070540 J-0.014786
G02 X16.129628 Y17.028219 Z-1.000000 I-0.082640 J-0.030974
G03 X16.139733 Y16.982534 Z-1.000000 I0.108323 J-0.000000
G03 X16.160578 Y17.023029 Z-1.000000 I-0.477230 J0.046377
G00 Z5.000000

(End cutting path id: path20655)


(Start cutting path id: path20655)
(Change tool to Default tool)

G00 Z5.000000

G01 Z-1.000000 F100.0(Penetrate)
G03 X15.988023 Y16.785232 Z-1.000000 I-0.048923 J0.019959
G03 X15.984688 Y16.812519 Z-1.000000 I-0.104614 J0.001061
G00 Z5.000000

(End cutting path id: path20655)


(Start cutting path id: path20655)
(Change tool to Default tool)

G00 Z5.000000

G01 Z-1.000000 F100.0(Penetrate)
G02 X15.815551 Y17.044909 Z-1.000000 I0.077482 J0.140412
G03 X15.793176 Y17.056938 Z-1.000000 I-0.035531 J-0.039266
G03 X15.875986 Y16.994447 Z-1.000000 I-0.019498 J0.051132
G00 Z5.000000

(End cutting path id: path20655)


(Start cutting path id: path20655)
(Change tool to Default tool)

G00 Z5.000000

G01 Z-1.000000 F100.0(Penetrate)
G03 X16.007147 Y17.252689 Z-1.000000 I0.070427 J-0.027250
G03 X16.012235 Y17.225439 Z-1.000000 I0.075515 J-0.000000
G03 X16.045146 Y17.252682 Z-1.000000 I-0.048554 J0.027243
G03 X16.038025 Y17.279939 Z-1.000000 I-0.055725 J-0.000000
G00 Z5.000000

(End cutting path id: path20655)


(Start cutting path id: path20655)
(Change tool to Default tool)

G00 Z5.000000

G01 Z-1.000000 F100.0(Penetrate)
G03 X15.961831 Y17.943703 Z-1.000000 I-0.445016 J0.006937 F3500.000000
G03 X15.930566 Y17.856023 Z-1.000000 I0.397185 J-0.079874
G03 X15.943909 Y17.747490 Z-1.000000 I0.531915 J0.010308
G03 X15.970046 Y17.851374 Z-1.000000 I-0.930022 J0.113191
G00 Z5.000000

(End cutting path id: path20655)


(Start cutting path id: path20655)
(Change tool to Default tool)

G00 Z5.000000

G01 Z-1.000000 F100.0(Penetrate)
G00 Z5.000000

(End cutting path id: path20655)


(Start cutting path id: path20655)
(Change tool to Default tool)

G00 Z5.000000

G01 Z-1.000000 F100.0(Penetrate)
G03 X16.018388 Y18.594637 Z-1.000000 I-0.141226 J0.054198 F3500.000000
G03 X16.020681 Y18.618208 Z-1.000000 I-0.120032 J0.023571
G03 X15.967416 Y18.567991 Z-1.000000 I0.053958 J-0.065002
G03 X16.011181 Y18.569588 Z-1.000000 I-0.043856 J0.041735
G00 Z5.000000

(End cutting path id: path20655)


(Start cutting path id: path20655)
(Change tool to Default tool)

G00 Z5.000000

G01 Z-1.000000 F100.0(Penetrate)
G00 Z5.000000

(End cutting path id: path20655)


(Start cutting path id: path20655)
(Change tool to Default tool)

G00 Z5.000000

G01 Z-1.000000 F100.0(Penetrate)
G03 X16.486954 Y19.571438 Z-1.000000 I-9.696597 J0.118955 F3500.000000
G03 X16.468699 Y19.547424 Z-1.000000 I0.069266 J-0.018094
G02 X16.466323 Y19.509542 Z-1.000000 I-0.074947 J-0.014315
G03 X16.416589 Y19.265232 Z-1.000000 I1.507062 J-0.217881
G03 X16.423830 Y19.137346 Z-1.000000 I0.874561 J-0.014632
G02 X16.438905 Y19.060751 Z-1.000000 I-0.325424 J-0.019699
G03 X16.386759 Y18.980170 Z-1.000000 I0.093965 J-0.031933
G03 X16.399873 Y18.956795 Z-1.000000 I0.063035 J0.019998
G02 X16.441179 Y18.852960 Z-1.000000 I-0.303584 J-0.076486
G03 X16.444293 Y18.770981 Z-1.000000 I1.143128 J0.002376
G03 X16.451929 Y18.708447 Z-1.000000 I0.659562 J0.048804
G03 X16.480633 Y18.755557 Z-1.000000 I-0.315329 J0.066352
G03 X16.490429 Y19.166258 Z-1.000000 I-17.831075 J0.630779
G00 Z5.000000

(End cutting path id: path20655)


(Start cutting path id: path20655)
(Change tool to Default tool)

G00 Z5.000000

G01 Z-1.000000 F100.0(Penetrate)
G02 X15.799566 Y19.637150 Z-1.000000 I-0.055845 J0.034416
G00 Z5.000000

(End cutting path id: path20655)


(Start cutting path id: path20655)
(Change tool to Default tool)

G00 Z5.000000

G01 Z-1.000000 F100.0(Penetrate)
G02 X15.582226 Y19.692196 Z-1.000000 I-0.039787 J-0.104340
G02 X15.561287 Y19.681643 Z-1.000000 I-0.020670 J0.080021
G00 Z5.000000

(End cutting path id: path20655)


(Start cutting path id: path20655)
(Change tool to Default tool)

G00 Z5.000000
G00 X16.250296 Y21.311259

G01 Z-1.000000 F100.0(Penetrate)
G02 X16.269761 Y21.315021 Z-1.000000 I0.019465 J-0.048481 F3500.000000
G02 X16.289226 Y21.311259 Z-1.000000 I-0.000000 J-0.052243
G00 Z5.000000

(End cutting path id: path20655)


(Start cutting path id: path20655)
(Change tool to Default tool)

G00 Z5.000000

G01 Z-1.000000 F100.0(Penetrate)
G00 Z5.000000

(End cutting path id: path20655)


(Start cutting path id: path20655)
(Change tool to Default tool)

G00 Z5.000000

G01 Z-1.000000 F100.0(Penetrate)
G00 Z5.000000

(End cutting path id: path20655)


(Start cutting path id: path20655)
(Change tool to Default tool)

G00 Z5.000000

G01 Z-1.000000 F100.0(Penetrate)
G00 Z5.000000

(End cutting path id: path20655)


(Start cutting path id: path20655)
(Change tool to Default tool)

G00 Z5.000000

G01 Z-1.000000 F100.0(Penetrate)
G03 X16.176366 Y22.092827 Z-1.000000 I-0.496570 J0.157070 F3500.000000
G02 X16.147038 Y22.145667 Z-1.000000 I0.099112 J0.034678
G03 X16.145551 Y22.180702 Z-1.000000 I-7.926240 J-0.318777
G03 X16.144038 Y22.211837 Z-1.000000 I-3.939422 J-0.175881
G02 X16.143470 Y22.242963 Z-1.000000 I0.481187 J0.024354
G02 X16.144912 Y22.274117 Z-1.000000 I0.484183 J-0.006806
G03 X16.145591 Y22.493892 Z-1.000000 I-1.453784 J0.114381
G02 X16.113072 Y22.598356 Z-1.000000 I0.070615 J0.004523
G03 X16.157206 Y22.837592 Z-1.000000 I-0.631407 J0.240170
G03 X16.091808 Y23.452305 Z-1.000000 I-5.520495 J-0.106506
G02 X16.067353 Y23.554907 Z-1.000000 I0.345298 J0.065345
G03 X16.059134 Y23.608000 Z-1.000000 I-0.175592 J0.000000
G03 X16.091752 Y23.972144 Z-1.000000 I-0.989500 J0.314276
G03 X16.020663 Y23.963681 Z-1.000000 I0.065519 J-0.026250
G02 X16.015075 Y23.936885 Z-1.000000 I-0.067035 J-0.000000
G02 X15.998153 Y23.912061 Z-1.000000 I-0.074028 J0.032282
G03 X15.978027 Y23.866725 Z-1.000000 I0.048798 J-0.048798
G03 X15.980403 Y23.558663 Z-1.000000 I2.658821 J-0.133535
G02 X15.979937 Y23.489329 Z-1.000000 I-0.484250 J-0.031412
G02 X15.972103 Y23.453564 Z-1.000000 I-0.133244 J0.010444
G03 X15.965992 Y23.423255 Z-1.000000 I0.094537 J-0.034832
G02 X15.981793 Y23.297874 Z-1.000000 I-1.230579 J-0.115303
G03 X15.986886 Y23.034170 Z-1.000000 I6.829191 J0.000000
G03 X16.013843 Y22.468744 Z-1.000000 I31.372202 J1.212317
G02 X16.020424 Y22.306072 Z-1.000000 I-5.087599 J-0.287300
G02 X16.019743 Y22.224981 Z-1.000000 I-1.233756 J-0.030184
G03 X16.042179 Y22.038337 Z-1.000000 I0.588236 J-0.023959
G03 X16.086563 Y21.992721 Z-1.000000 I0.064774 J0.018625
G03 X16.152723 Y21.958811 Z-1.000000 I-0.051091 J0.049090
G00 Z5.000000

(End cutting path id: path20655)


(Start cutting path id: path20655)
(Change tool to Default tool)

G00 Z5.000000

G01 Z-1.000000 F100.0(Penetrate)
G02 X15.791076 Y22.399701 Z-1.000000 I0.090030 J-0.046185 F3500.000000
G02 X15.780440 Y22.363240 Z-1.000000 I-0.090287 J0.046300
G00 Z5.000000

(End cutting path id: path20655)


(Start cutting path id: path20655)
(Change tool to Default tool)

G00 Z5.000000

G01 Z-1.000000 F100.0(Penetrate)
G00 Z5.000000

(End cutting path id: path20655)


(Start cutting path id: path20655)
(Change tool to Default tool)

G00 Z5.000000

G01 Z-1.000000 F100.0(Penetrate)
G00 Z5.000000

(End cutting path id: path20655)


(Start cutting path id: path20655)
(Change tool to Default tool)

G00 Z5.000000

G01 Z-1.000000 F100.0(Penetrate)
G02 X15.249902 Y22.852342 Z-1.000000 I-0.038562 J0.039256
G00 Z5.000000

(End cutting path id: path20655)


(Start cutting path id: path20655)
(Change tool to Default tool)

G00 Z5.000000

G01 Z-1.000000 F100.0(Penetrate)
G00 Z5.000000

(End cutting path id: path20655)


(Start cutting path id: path20655)
(Change tool to Default tool)

G00 Z5.000000

G01 Z-1.000000 F100.0(Penetrate)
G00 Z5.000000

(End cutting path id: path20655)


(Start cutting path id: path20655)
(Change tool to Default tool)

G00 Z5.000000

G01 Z-1.000000 F100.0(Penetrate)
G02 X15.385352 Y23.167095 Z-1.000000 I0.055845 J-0.034416 F3500.000000
G00 Z5.000000

(End cutting path id: path20655)


(Start cutting path id: path20655)
(Change tool to Default tool)

G00 Z5.000000

G01 Z-1.000000 F100.0(Penetrate)
G02 X15.316920 Y23.202689 Z-1.000000 I-0.055845 J0.034416
G00 Z5.000000

(End cutting path id: path20655)


(Start cutting path id: path20655)
(Change tool to Default tool)

G00 Z5.000000

G01 Z-1.000000 F100.0(Penetrate)
G02 X15.343786 Y23.366200 Z-1.000000 I0.051937 J-0.021197
G02 X15.400011 Y23.389295 Z-1.000000 I0.074968 J-0.102521
G03 X15.360146 Y23.328630 Z-1.000000 I0.053565 J-0.025870
G00 Z5.000000

(End cutting path id: path20655)


(Start cutting path id: path20655)
(Change tool to Default tool)

G00 Z5.000000

G01 Z-1.000000 F100.0(Penetrate)
G02 X15.146635 Y23.482752 Z-1.000000 I0.236279 J-0.000000 F3500.000000
G02 X15.195736 Y23.511836 Z-1.000000 I0.049101 J-0.026905
G02 X15.210986 Y23.472226 Z-1.000000 I-0.086826 J-0.033395
G02 X15.130106 Y23.364706 Z-1.000000 I-0.100599 J0.019195
G00 Z5.000000

(End cutting path id: path20655)


(Start cutting path id: path20655)
(Change tool to Default tool)

G00 Z5.000000

G01 Z-1.000000 F100.0(Penetrate)
G02 X15.105087 Y23.338333 Z-1.000000 I0.055845 J-0.034416 F3500.000000
G00 Z5.000000

(End cutting path id: path20655)


(Start cutting path id: path20655)
(Change tool to Default tool)

G00 Z5.000000

G01 Z-1.000000 F100.0(Penetrate)
G03 X15.094196 Y23.169374 Z-1.000000 I-0.045458 J0.048079
G00 Z5.000000

(End cutting path id: path20655)


(Start cutting path id: path20655)
(Change tool to Default tool)

G00 Z5.000000

G01 Z-1.000000 F100.0(Penetrate)
G03 X15.075192 Y23.076369 Z-1.000000 I0.080490 J-0.080552
G03 X15.112335 Y23.082221 Z-1.000000 I-0.049229 J0.059343
G00 Z5.000000

(End cutting path id: path20655)


