%
(Header)
(Generated by gcodetools from Inkscape.)
(Using default header. To add your own header create file "header" in the output dir.)
M3
(Header end.)
G21 (All units in mm)

(Start cutting path id: path2)
(Change tool to Default tool)

G00 Z5.000000
G00 X26.286650 Y1.810765

G01 Z-1.000000 F100.0(Penetrate)
G03 X26.280849 Y1.871509 Z-1.000000 I-0.320933 J0.000000 F3500.000000
G01 X26.272690 Y1.883345 Z-1.000000
G02 X26.228099 Y1.931960 Z-1.000000 I0.063866 J0.103337
G02 X26.177920 Y2.071185 Z-1.000000 I0.545717 J0.275340
G03 X26.162284 Y2.110297 Z-1.000000 I-0.133325 J-0.030620
G01 X26.151940 Y2.114945 Z-1.000000
G01 X26.144346 Y2.120050 Z-1.000000
G02 X26.143340 Y2.157765 Z-1.000000 I0.107903 J0.021749
G02 X26.157895 Y2.194836 Z-1.000000 I0.086972 J-0.012754
G01 X26.175540 Y2.204585 Z-1.000000
G01 X26.178782 Y2.210235 Z-1.000000
G01 X26.166040 Y2.222495 Z-1.000000
G02 X26.122195 Y2.267961 Z-1.000000 I0.039579 J0.082042
G02 X26.099870 Y2.373434 Z-1.000000 I0.242973 J0.106528
G03 X26.094948 Y2.409319 Z-1.000000 I-0.137210 J-0.000541
G03 X26.018120 Y2.670324 Z-1.000000 I-7.465397 J-2.055653
G02 X25.996219 Y2.772756 Z-1.000000 I0.537155 J0.168406
G02 X25.984750 Y2.953156 Z-1.000000 I1.663772 J0.196341
G03 X25.976108 Y3.126812 Z-1.000000 I-2.164723 J-0.020688
G01 X25.968620 Y3.132527 Z-1.000000
G02 X25.908139 Y3.174646 Z-1.000000 I-0.009060 J0.051474
G02 X25.941530 Y3.281550 Z-1.000000 I0.118692 J0.021594
G03 X25.988026 Y3.435473 Z-1.000000 I-0.120334 J0.120334
G03 X25.895250 Y3.511432 Z-1.000000 I-0.092776 J-0.018679
G01 X25.887693 Y3.515703 Z-1.000000
G01 X25.887750 Y3.523952 Z-1.000000
G01 X25.891411 Y3.537471 Z-1.000000
G03 X25.884050 Y3.656337 Z-1.000000 I-1.780936 J-0.050623
G02 X25.880246 Y3.773453 Z-1.000000 I0.937636 J0.089072
G01 X25.888150 Y3.791739 Z-1.000000
G01 X25.888965 Y3.801165 Z-1.000000
G01 X25.877210 Y3.807269 Z-1.000000
G01 X25.858000 Y3.814532 Z-1.000000
G01 X25.850740 Y3.830619 Z-1.000000
G01 X25.845315 Y3.848548 Z-1.000000
G01 X25.835170 Y3.853979 Z-1.000000
G01 X25.825500 Y3.848037 Z-1.000000
G03 X25.819600 Y3.823329 Z-1.000000 I0.048787 J-0.024708
G01 X25.812398 Y3.801792 Z-1.000000
G01 X25.800140 Y3.797419 Z-1.000000
G01 X25.792340 Y3.795619 Z-1.000000
G01 X25.799966 Y3.786721 Z-1.000000
G02 X25.804020 Y3.764369 Z-1.000000 I-0.059600 J-0.022352
G03 X25.809094 Y3.741600 Z-1.000000 I0.053618 J0.000000
G03 X25.828090 Y3.713049 Z-1.000000 I0.104923 J0.049212
G02 X25.843100 Y3.682685 Z-1.000000 I-0.046020 J-0.041641
G02 X25.859640 Y3.542289 Z-1.000000 I-1.062893 J-0.196393
G03 X25.882774 Y3.402577 Z-1.000000 I0.630738 J0.032668
G01 X25.899260 Y3.402590 Z-1.000000
G01 X25.905160 Y3.328630 Z-1.000000
G03 X25.906988 Y3.216532 Z-1.000000 I0.912049 J-0.041189
G03 X25.920890 Y3.126216 Z-1.000000 I0.608094 J0.047372
G02 X25.938290 Y3.035959 Z-1.000000 I-1.208798 J-0.279839
G02 X25.957630 Y2.888614 Z-1.000000 I-3.209163 J-0.496169
G03 X25.982954 Y2.706428 Z-1.000000 I3.003527 J0.324639
G03 X25.993400 Y2.678416 Z-1.000000 I0.078693 J0.013392
G02 X26.000068 Y2.661807 Z-1.000000 I-0.047465 J-0.028700
G02 X26.012520 Y2.592776 Z-1.000000 I-0.829274 J-0.185222
G01 X26.022220 Y2.522706 Z-1.000000
G01 X25.995950 Y2.573306 Z-1.000000
G03 X25.958169 Y2.615754 Z-1.000000 I-0.102534 J-0.053222
G01 X25.944190 Y2.608336 Z-1.000000
G01 X25.949267 Y2.597709 Z-1.000000
G01 X25.963650 Y2.592526 Z-1.000000
G01 X25.967356 Y2.587831 Z-1.000000
G01 X25.960350 Y2.577876 Z-1.000000
G01 X25.950509 Y2.559653 Z-1.000000
G03 X25.961450 Y2.511936 Z-1.000000 I0.118057 J0.001957
G02 X25.978407 Y2.459131 Z-1.000000 I-0.205358 J-0.095070
G02 X25.981610 Y2.405917 Z-1.000000 I-0.205533 J-0.039075
G03 X25.985194 Y2.353272 Z-1.000000 I0.196166 J-0.013091
G03 X25.999840 Y2.317197 Z-1.000000 I0.104737 J0.021511
G01 X25.996332 Y2.288632 Z-1.000000
G01 X25.969970 Y2.288997 Z-1.000000
G03 X25.944786 Y2.308434 Z-1.000000 I-0.088045 J-0.088045
G01 X25.929790 Y2.312497 Z-1.000000
G01 X25.919762 Y2.319183 Z-1.000000
G02 X25.913110 Y2.352447 Z-1.000000 I0.079849 J0.033264
G03 X25.908404 Y2.391206 Z-1.000000 I-0.161981 J0.000000
G03 X25.894870 Y2.426407 Z-1.000000 I-0.146341 J-0.036064
G02 X25.881596 Y2.461869 Z-1.000000 I0.124980 J0.066999
G02 X25.871410 Y2.529288 Z-1.000000 I0.447608 J0.102103
G03 X25.862710 Y2.596570 Z-1.000000 I-0.648428 J-0.049642
G01 X25.857160 Y2.607138 Z-1.000000
G01 X25.803146 Y2.582561 Z-1.000000
G03 X25.883490 Y2.207949 Z-1.000000 I1.320259 J0.087237
G02 X25.889385 Y2.175871 Z-1.000000 I-0.087028 J-0.032573
G01 X25.883720 Y2.165669 Z-1.000000
G01 X25.875542 Y2.168307 Z-1.000000
G02 X25.852060 Y2.242969 Z-1.000000 I0.428348 J0.175744
G03 X25.812718 Y2.313497 Z-1.000000 I-0.138401 J-0.030966
G01 X25.779970 Y2.313329 Z-1.000000
G01 X25.771188 Y2.314611 Z-1.000000
G02 X25.761700 Y2.347189 Z-1.000000 I0.070899 J0.038320
G03 X25.752205 Y2.392144 Z-1.000000 I-0.167562 J-0.011910
G01 X25.740240 Y2.406899 Z-1.000000
G01 X25.730610 Y2.419985 Z-1.000000
G01 X25.732940 Y2.435319 Z-1.000000
G01 X25.734776 Y2.447686 Z-1.000000
G01 X25.728340 Y2.452629 Z-1.000000
G01 X25.717281 Y2.457959 Z-1.000000
G02 X25.706700 Y2.479879 Z-1.000000 I0.043068 J0.034304
G01 X25.703600 Y2.390349 Z-1.000000
G02 X25.699957 Y2.305594 Z-1.000000 I-0.606231 J-0.016396
G01 X25.693800 Y2.304709 Z-1.000000
G02 X25.513471 Y2.958705 Z-1.000000 I2.500065 J1.041211
G02 X25.564130 Y3.202276 Z-1.000000 I0.360491 J0.052077
G01 X25.564633 Y3.211252 Z-1.000000
G01 X25.557830 Y3.215566 Z-1.000000
G01 X25.549172 Y3.222295 Z-1.000000
G02 X25.527030 Y3.336235 Z-1.000000 I0.979423 J0.249456
G02 X25.493775 Y3.583124 Z-1.000000 I224.873518 J30.414954
G02 X25.429390 Y4.064145 Z-1.000000 I862.276895 J115.661429
G03 X25.397949 Y4.297664 Z-1.000000 I-112.808300 J-15.069793
G03 X25.383950 Y4.398906 Z-1.000000 I-20.043119 J-2.719761
G02 X25.372369 Y4.500379 Z-1.000000 I1.975877 J0.276893
G02 X25.352400 Y4.757022 Z-1.000000 I12.350556 J1.090099
G03 X25.333780 Y5.013822 Z-1.000000 I-24.475205 J-1.645537
G03 X25.321540 Y5.154064 Z-1.000000 I-7.440736 J-0.578772
G02 X25.310763 Y5.294347 Z-1.000000 I3.443608 J0.335112
G02 X25.306530 Y5.418759 Z-1.000000 I2.782924 J0.156958
G03 X25.301477 Y5.630945 Z-1.000000 I-8.690311 J-0.100796
G03 X25.283810 Y6.049354 Z-1.000000 I-33.866630 J-1.220419
G02 X25.270561 Y6.454635 Z-1.000000 I12.894610 J0.624379
G02 X25.272490 Y6.715902 Z-1.000000 I5.363914 J0.091047
G02 X25.281508 Y6.770094 Z-1.000000 I0.207566 J-0.006694
G01 X25.290190 Y6.773372 Z-1.000000
G01 X25.298465 Y6.776554 Z-1.000000
G03 X25.304670 Y6.823052 Z-1.000000 I-0.149601 J0.043626
G03 X25.297411 Y6.851486 Z-1.000000 I-0.063935 J-0.001180
G01 X25.289970 Y6.851222 Z-1.000000
G01 X25.283326 Y6.851815 Z-1.000000
G02 X25.277960 Y6.901822 Z-1.000000 I0.194102 J0.046119
G02 X25.288176 Y6.974825 Z-1.000000 I0.310023 J-0.006169
G01 X25.299520 Y6.983562 Z-1.000000
G01 X25.323626 Y7.003310 Z-1.000000
G03 X25.320460 Y7.087850 Z-1.000000 I-0.177710 J0.035674
G02 X25.313123 Y7.153373 Z-1.000000 I0.197571 J0.055297
G01 X25.324660 Y7.171980 Z-1.000000
G01 X25.338204 Y7.190796 Z-1.000000
G03 X25.340660 Y7.256530 Z-1.000000 I-0.216821 J0.041013
G02 X25.344822 Y7.323145 Z-1.000000 I0.190598 J0.021529
G02 X25.365140 Y7.357915 Z-1.000000 I0.068087 J-0.016465
G03 X25.433188 Y7.459821 Z-1.000000 I-0.181460 J0.194842
G01 X25.422090 Y7.510778 Z-1.000000
G01 X25.418049 Y7.510161 Z-1.000000
G01 X25.414690 Y7.496508 Z-1.000000
G01 X25.408951 Y7.493066 Z-1.000000
G02 X25.390450 Y7.509478 Z-1.000000 I0.024970 J0.046781
G03 X25.351672 Y7.538991 Z-1.000000 I-0.065555 J-0.045903
G01 X25.336840 Y7.528518 Z-1.000000
G01 X25.342287 Y7.518357 Z-1.000000
G01 X25.360200 Y7.512948 Z-1.000000
G01 X25.387367 Y7.490873 Z-1.000000
G01 X25.374110 Y7.446418 Z-1.000000
G01 X25.331223 Y7.447108 Z-1.000000
G02 X25.311400 Y7.513308 Z-1.000000 I0.056517 J0.052992
G02 X25.340903 Y7.585001 Z-1.000000 I0.175882 J-0.030462
G01 X25.368520 Y7.595168 Z-1.000000
G02 X25.392236 Y7.581845 Z-1.000000 I-0.013580 J-0.051945
G01 X25.399120 Y7.565628 Z-1.000000
G01 X25.404099 Y7.549009 Z-1.000000
G01 X25.413230 Y7.544088 Z-1.000000
G01 X25.419919 Y7.549884 Z-1.000000
G03 X25.418330 Y7.579118 Z-1.000000 I-0.073937 J0.010640
G01 X25.423003 Y7.592673 Z-1.000000
G01 X25.435730 Y7.592468 Z-1.000000
G03 X25.461815 Y7.577888 Z-1.000000 I0.053702 J0.065450
G01 X25.471490 Y7.580118 Z-1.000000
G01 X25.479731 Y7.619263 Z-1.000000
G01 X25.450160 Y7.635178 Z-1.000000
G01 X25.438202 Y7.635025 Z-1.000000
G02 X25.414690 Y7.641678 Z-1.000000 I0.023031 J0.126270
G03 X25.390824 Y7.648753 Z-1.000000 I-0.054524 J-0.140127
G03 X25.341490 Y7.656908 Z-1.000000 I-0.122804 J-0.589632
G03 X25.302200 Y7.648676 Z-1.000000 I-0.007556 J-0.061814
G01 X25.284330 Y7.623028 Z-1.000000
G01 X25.285077 Y8.221400 Z-1.000000
G02 X25.295712 Y8.859033 Z-1.000000 I76.903324 J-0.963731
G01 X25.298497 Y8.868488 Z-1.000000
G01 X25.301330 Y8.877930 Z-1.000000
G03 X25.314407 Y9.273315 Z-1.000000 I-30.661248 J1.211996
G02 X25.327640 Y9.668673 Z-1.000000 I28.892923 J-0.769184
G01 X25.330777 Y9.679436 Z-1.000000
G01 X25.333887 Y9.690200 Z-1.000000
G03 X25.346277 Y10.115404 Z-1.000000 I-33.288907 J1.182824
G02 X25.358393 Y10.541286 Z-1.000000 I36.578680 J-0.827498
G02 X25.374967 Y10.953981 Z-1.000000 I35.123478 J-1.203915
G03 X25.390103 Y11.366698 Z-1.000000 I-22.044375 J1.015100
G03 X25.397247 Y11.770151 Z-1.000000 I-21.018939 J0.573968
G02 X25.403635 Y12.172801 Z-1.000000 I25.967313 J-0.210588
G01 X25.407047 Y12.184260 Z-1.000000
G01 X25.410631 Y12.195699 Z-1.000000
G03 X25.422077 Y12.473580 Z-1.000000 I-13.037831 J0.676195
G02 X25.457285 Y13.285398 Z-1.000000 I31.615490 J-0.964460
G02 X25.492047 Y13.717704 Z-1.000000 I9.002803 J-0.506375
G03 X25.505912 Y13.857911 Z-1.000000 I-11.393266 J1.197424
G03 X25.515907 Y13.974613 Z-1.000000 I-8.360357 J0.774841
G02 X25.525498 Y14.091360 Z-1.000000 I21.399317 J-1.699152
G02 X25.531847 Y14.161456 Z-1.000000 I6.214512 J-0.527586
G03 X25.537739 Y14.231595 Z-1.000000 I-2.943716 J0.282609
G03 X25.555387 Y14.488432 Z-1.000000 I-38.851301 J2.798586
G02 X25.574300 Y14.745163 Z-1.000000 I15.079334 J-0.981811
G02 X25.594647 Y14.966775 Z-1.000000 I11.669489 J-0.959678
G03 X25.613270 Y15.188350 Z-1.000000 I-6.427626 J0.651798
G03 X25.614897 Y15.270395 Z-1.000000 I-0.874870 J0.058389
G01 X25.609199 Y15.271529 Z-1.000000
G03 X25.599447 Y15.235805 Z-1.000000 I0.110551 J-0.049371
G03 X25.565998 Y14.904804 Z-1.000000 I13.449961 J-1.526381
G03 X25.492450 Y14.029109 Z-1.000000 I94.459999 J-8.374410
G02 X25.474682 Y13.826923 Z-1.000000 I-11.533963 J0.911718
G02 X25.469160 Y13.787770 Z-1.000000 I-0.450557 J0.043580
G03 X25.464067 Y13.748578 Z-1.000000 I0.350332 J-0.065452
G03 X25.446120 Y13.476365 Z-1.000000 I17.189121 J-1.269980
G02 X25.429847 Y13.203914 Z-1.000000 I-81.669205 J4.741112
G02 X25.415030 Y12.970331 Z-1.000000 I-57.636854 J3.538955
G03 X25.396768 Y12.603220 Z-1.000000 I11.721563 J-0.767111
G03 X25.368610 Y11.607933 Z-1.000000 I86.150924 J-2.935340
G02 X25.349325 Y10.899217 Z-1.000000 I-75.453907 J1.698607
G02 X25.312960 Y9.864063 Z-1.000000 I-161.087020 J5.140722
G02 X25.303404 Y9.638333 Z-1.000000 I-30.744932 J1.188468
G02 X25.289600 Y9.358029 Z-1.000000 I-43.431292 J1.998363
G03 X25.229062 Y7.481567 Z-1.000000 I46.543760 J-2.440792
G03 X25.250840 Y6.158339 Z-1.000000 I23.166204 J-0.280519
G03 X25.260380 Y5.948144 Z-1.000000 I259.714450 J11.681840
G03 X25.267050 Y5.804116 Z-1.000000 I138.053817 J6.321475
G01 X25.273750 Y5.660091 Z-1.000000
G01 X25.162311 Y5.660091 Z-1.000000
G02 X24.885162 Y5.692077 Z-1.000000 I0.000000 J1.216695
G02 X24.783244 Y5.748761 Z-1.000000 I0.048440 J0.207063
G02 X24.760431 Y5.797493 Z-1.000000 I0.055892 J0.055871
G01 X24.777144 Y5.815791 Z-1.000000
G01 X24.785260 Y5.811102 Z-1.000000
G01 X24.785144 Y5.801981 Z-1.000000
G01 X24.792527 Y5.765657 Z-1.000000
G03 X24.845874 Y5.758961 Z-1.000000 I0.032930 J0.046498
G01 X24.859355 Y5.772247 Z-1.000000
G01 X24.859474 Y5.793151 Z-1.000000
G01 X24.848202 Y5.802621 Z-1.000000
G01 X24.836624 Y5.797651 Z-1.000000
G01 X24.828753 Y5.795411 Z-1.000000
G01 X24.823224 Y5.804151 Z-1.000000
G01 X24.830731 Y5.823728 Z-1.000000
G01 X24.848154 Y5.831401 Z-1.000000
G01 X24.862398 Y5.839846 Z-1.000000
G01 X24.865184 Y5.862521 Z-1.000000
G02 X24.863652 Y5.890983 Z-1.000000 I0.068284 J0.017948
G01 X24.871184 Y5.902361 Z-1.000000
G01 X24.880099 Y5.914018 Z-1.000000
G03 X24.885294 Y5.950011 Z-1.000000 I-0.122095 J0.035993
G02 X24.892011 Y5.976925 Z-1.000000 I0.057282 J-0.000000
G01 X24.900864 Y5.979311 Z-1.000000
G01 X24.910043 Y5.966079 Z-1.000000
G02 X24.916434 Y5.900541 Z-1.000000 I-0.332818 J-0.065538
G03 X24.922738 Y5.837757 Z-1.000000 I0.315821 J-0.000000
G01 X24.930524 Y5.831391 Z-1.000000
G01 X24.948319 Y5.850999 Z-1.000000
G03 X24.914184 Y5.999816 Z-1.000000 I-0.592450 J-0.057570
G01 X24.894635 Y6.023197 Z-1.000000
G01 X24.869714 Y6.026016 Z-1.000000
G01 X24.844944 Y6.024830 Z-1.000000
G01 X24.838584 Y6.032716 Z-1.000000
G01 X24.832869 Y6.043576 Z-1.000000
G01 X24.814314 Y6.049336 Z-1.000000
G01 X24.800576 Y6.055191 Z-1.000000
G01 X24.799554 Y6.064736 Z-1.000000
G01 X24.802297 Y6.080570 Z-1.000000
G03 X24.785644 Y6.130906 Z-1.000000 I-0.228915 J-0.047812
G02 X24.770215 Y6.198749 Z-1.000000 I0.152499 J0.070359
G02 X24.737644 Y9.334661 Z-1.000000 I341.116181 J5.111061
G03 X24.727718 Y10.665890 Z-1.000000 I-386.946060 J-2.219600
G03 X24.721634 Y11.086316 Z-1.000000 I-39.719069 J-0.364493
G03 X24.672842 Y13.358231 Z-1.000000 I-660.749048 J-13.053788
G03 X24.660414 Y13.725476 Z-1.000000 I-17.268191 J-0.400556
G02 X24.655662 Y13.857859 Z-1.000000 I8.217511 J0.361259
G02 X24.635354 Y14.628551 Z-1.000000 I259.506776 J7.223666
G03 X24.611601 Y15.397503 Z-1.000000 I-64.118382 J-1.595771
G01 X24.606504 Y15.410393 Z-1.000000
G01 X24.594563 Y15.415661 Z-1.000000
G03 X24.453499 Y15.406693 Z-1.000000 I0.044630 J-1.816044
G02 X23.994449 Y15.374253 Z-1.000000 I-0.727506 J7.030626
G02 X22.199431 Y15.321013 Z-1.000000 I-4.089736 J107.600783
G02 X20.542372 Y15.328188 Z-1.000000 I-0.688704 J32.296230
G02 X19.077592 Y15.414633 Z-1.000000 I0.759368 J25.320534
G03 X18.820611 Y15.436335 Z-1.000000 I-3.115241 J-35.356103
G03 X18.696120 Y15.445443 Z-1.000000 I-0.662501 J-8.200034
G02 X18.571630 Y15.454545 Z-1.000000 I0.553328 J8.424107
G02 X18.408071 Y15.468653 Z-1.000000 I1.162377 J14.430739
G03 X18.244563 Y15.483527 Z-1.000000 I-5.693581 J-61.682721
G03 X17.972103 Y15.507773 Z-1.000000 I-19.152667 J-213.681639
G02 X17.566647 Y15.544334 Z-1.000000 I9.910552 J112.172040
G02 X17.123524 Y15.585843 Z-1.000000 I12.260196 J133.268897
G02 X16.719042 Y15.627089 Z-1.000000 I2.942323 J30.858359
G02 X16.625275 Y15.639953 Z-1.000000 I0.181421 J1.670508
G03 X16.151986 Y15.713441 Z-1.000000 I-3.720057 J-22.397762
G03 X16.081827 Y15.718483 Z-1.000000 I-0.070159 J-0.485581
G01 X16.053739 Y15.695948 Z-1.000000
G03 X16.017867 Y15.430433 Z-1.000000 I1.554875 J-0.345252
G02 X15.966114 Y14.705204 Z-1.000000 I-17.179781 J0.861502
G02 X15.879249 Y13.934277 Z-1.000000 I-19.482083 J1.804809
G03 X15.858599 Y13.764216 Z-1.000000 I7.561070 J-1.004420
G03 X15.846839 Y13.639853 Z-1.000000 I4.050209 J-0.445720
G02 X15.835670 Y13.515419 Z-1.000000 I-5.734650 J0.452009
G02 X15.814729 Y13.320662 Z-1.000000 I-14.466662 J1.457015
G03 X15.792543 Y13.126026 Z-1.000000 I277.681062 J-31.750756
G03 X15.768719 Y12.915835 Z-1.000000 I367.123396 J-41.717836
G02 X15.702232 Y12.355983 Z-1.000000 I-48.919759 J5.525769
G02 X15.690179 Y12.285239 Z-1.000000 I-0.794699 J0.098995
G03 X15.684888 Y12.253861 Z-1.000000 I0.340692 J-0.073588
G03 X15.659819 Y12.036115 Z-1.000000 I16.050068 J-1.958121
G02 X15.635483 Y11.818217 Z-1.000000 I-32.237902 J3.490237
G02 X15.613219 Y11.631288 Z-1.000000 I-23.748422 J2.733704
G03 X15.590590 Y11.444400 Z-1.000000 I47.009358 J-5.786738
G03 X15.558529 Y11.171965 Z-1.000000 I100.085766 J-11.916685
G02 X15.505359 Y10.738890 Z-1.000000 I-33.820366 J3.932389
G02 X15.402533 Y9.965270 Z-1.000000 I-108.296059 J14.000648
G03 X15.357293 Y9.622529 Z-1.000000 I38.111353 J-5.204883
G03 X15.325153 Y9.358029 Z-1.000000 I22.689669 J-2.891254
G02 X15.294393 Y9.093353 Z-1.000000 I-219.490421 J25.374182
G02 X15.286053 Y9.023268 Z-1.000000 I-16.324916 J1.907194
G03 X15.277794 Y8.953163 Z-1.000000 I8.590157 J-1.047580
G03 X15.232033 Y8.548375 Z-1.000000 I324.107144 J-36.844785
G02 X15.151005 Y7.878562 Z-1.000000 I-39.899541 J4.486890
G02 X15.022326 Y6.929068 Z-1.000000 I-80.330636 J10.403233
G03 X14.967274 Y6.539803 Z-1.000000 I1334.108066 J-188.870443
G03 X14.950826 Y6.423034 Z-1.000000 I142.156495 J-20.083655
G02 X14.875437 Y5.981426 Z-1.000000 I-7.504848 J1.053950
G02 X14.848184 Y5.913108 Z-1.000000 I-0.200368 J0.040334
G01 X14.814840 Y5.890764 Z-1.000000
G01 X14.802904 Y5.905308 Z-1.000000
G03 X14.820030 Y5.966787 Z-1.000000 I-0.313535 J0.120464
G03 X14.889704 Y6.391879 Z-1.000000 I-15.072759 J2.688740
G02 X14.923460 Y6.601463 Z-1.000000 I9.272529 J-1.385947
G02 X14.930044 Y6.625433 Z-1.000000 I0.126396 J-0.021828
G03 X14.936847 Y6.649344 Z-1.000000 I-0.133478 J0.050898
G03 X14.952504 Y6.742210 Z-1.000000 I-2.008306 J0.386354
G03 X15.004745 Y7.160911 Z-1.000000 I-10.535643 J1.527128
G01 X14.996514 Y7.162608 Z-1.000000
G03 X14.985226 Y7.115186 Z-1.000000 I0.341489 J-0.106341
G03 X14.958824 Y6.936839 Z-1.000000 I4.801407 J-0.801910
G02 X14.933014 Y6.758237 Z-1.000000 I-5.940068 J0.767239
G02 X14.912754 Y6.648789 Z-1.000000 I-2.247260 J0.359394
G03 X14.830211 Y6.222021 Z-1.000000 I12.925564 J-2.721353
G03 X14.779535 Y5.893631 Z-1.000000 I7.613466 J-1.342989
G02 X14.695707 Y5.363901 Z-1.000000 I-10.500444 J1.390161
G02 X14.617386 Y5.013911 Z-1.000000 I-4.655588 J0.858074
G03 X14.597906 Y4.935806 Z-1.000000 I2.863174 J-0.755578
G03 X14.578966 Y4.850423 Z-1.000000 I3.395206 J-0.797932
G02 X14.406160 Y4.073143 Z-1.000000 I-29.874415 J6.233858
G02 X14.244511 Y3.433529 Z-1.000000 I-20.401216 J4.815757
G03 X14.222037 Y3.347737 Z-1.000000 I6.141612 J-1.654714
G03 X14.140584 Y3.025193 Z-1.000000 I86.020016 J-21.894361
G02 X14.054189 Y2.716169 Z-1.000000 I-5.731997 J1.435927
G01 X14.043874 Y2.712301 Z-1.000000
G01 X14.038818 Y2.711285 Z-1.000000
G01 X14.038574 Y2.704901 Z-1.000000
G02 X14.049205 Y2.639279 Z-1.000000 I-0.073536 J-0.045586
G02 X13.937369 Y2.279264 Z-1.000000 I-2.718960 J0.647249
G02 X13.890984 Y2.229161 Z-1.000000 I-0.086245 J0.033321
G02 X13.714614 Y2.172834 Z-1.000000 I-0.293083 J0.613412
G02 X13.622199 Y2.157096 Z-1.000000 I-1.712000 J9.773788
G01 X13.617794 Y2.156734 Z-1.000000
G01 X13.622294 Y2.180034 Z-1.000000
G01 X13.616951 Y2.192266 Z-1.000000
G03 X13.578984 Y2.197344 Z-1.000000 I-0.029046 J-0.072695
G02 X13.526710 Y2.191549 Z-1.000000 I-0.766816 J6.678268
G02 X13.506354 Y2.189644 Z-1.000000 I-0.082369 J0.770511
G01 X13.495628 Y2.183077 Z-1.000000
G01 X13.495594 Y2.172334 Z-1.000000
G01 X13.491990 Y2.164146 Z-1.000000
G02 X13.413474 Y2.156764 Z-1.000000 I-0.078516 J0.413866
G02 X13.345931 Y2.186894 Z-1.000000 I0.000000 J0.090773
G02 X13.311653 Y2.270192 Z-1.000000 I0.100141 J0.089910
G03 X13.303026 Y2.325988 Z-1.000000 I-0.271396 J-0.013398
G01 X13.293183 Y2.340262 Z-1.000000
G02 X13.262969 Y2.394701 Z-1.000000 I0.042231 J0.059043
G01 X13.288083 Y2.421462 Z-1.000000
G01 X13.295964 Y2.416434 Z-1.000000
G02 X13.300993 Y2.393682 Z-1.000000 I-0.048954 J-0.022752
G01 X13.310852 Y2.376234 Z-1.000000
G03 X13.343813 Y2.367892 Z-1.000000 I0.030243 J0.050209
G03 X13.428593 Y2.383547 Z-1.000000 I-0.014943 J0.318322
G01 X13.435493 Y2.398102 Z-1.000000
G01 X13.432907 Y2.417122 Z-1.000000
G01 X13.437693 Y2.421492 Z-1.000000
G01 X13.444280 Y2.426526 Z-1.000000
G03 X13.452763 Y2.475992 Z-1.000000 I-0.245132 J0.067497
G03 X13.446596 Y2.521085 Z-1.000000 I-0.110852 J0.007808
G01 X13.433303 Y2.530462 Z-1.000000
G01 X13.415014 Y2.525345 Z-1.000000
G01 X13.409953 Y2.516352 Z-1.000000
G01 X13.382499 Y2.497931 Z-1.000000
G02 X13.343093 Y2.543742 Z-1.000000 I0.025210 J0.061539
G01 X13.334950 Y2.547254 Z-1.000000
G01 X13.319893 Y2.530462 Z-1.000000
G02 X13.306548 Y2.511091 Z-1.000000 I-0.056114 J0.024375
G01 X13.301953 Y2.512902 Z-1.000000
G01 X13.294919 Y2.520586 Z-1.000000
G01 X13.278993 Y2.516002 Z-1.000000
G01 X13.258595 Y2.507451 Z-1.000000
G01 X13.247703 Y2.512802 Z-1.000000
G01 X13.249443 Y2.524978 Z-1.000000
G02 X13.304703 Y2.564392 Z-1.000000 I0.196202 J-0.216641
G03 X13.360733 Y2.607819 Z-1.000000 I-0.110058 J0.199856
G03 X13.375533 Y2.639602 Z-1.000000 I-0.040609 J0.038247
G01 X13.380033 Y2.678292 Z-1.000000
G01 X13.348583 Y2.639362 Z-1.000000
G01 X13.317133 Y2.600432 Z-1.000000
G01 X13.335813 Y2.651032 Z-1.000000
G02 X13.357912 Y2.696729 Z-1.000000 I0.246043 J-0.090796
G01 X13.366643 Y2.701632 Z-1.000000
G01 X13.374670 Y2.705778 Z-1.000000
G01 X13.378803 Y2.718742 Z-1.000000
G01 X13.381673 Y2.735190 Z-1.000000
G02 X13.404363 Y2.789722 Z-1.000000 I0.570048 J-0.205200
G02 X13.432612 Y2.828047 Z-1.000000 I0.112679 J-0.053481
G01 X13.445743 Y2.827772 Z-1.000000
G01 X13.451462 Y2.811243 Z-1.000000
G02 X13.440543 Y2.784042 Z-1.000000 I-0.056055 J0.006711
G01 X13.441346 Y2.780092 Z-1.000000
G01 X13.446443 Y2.780642 Z-1.000000
G03 X13.463306 Y2.831236 Z-1.000000 I-0.036597 J0.040305
G01 X13.431673 Y2.857362 Z-1.000000
G01 X13.417011 Y2.871783 Z-1.000000
G01 X13.430934 Y2.902072 Z-1.000000
G03 X13.448169 Y2.922288 Z-1.000000 I-0.050238 J0.060285
G03 X13.480564 Y2.985722 Z-1.000000 I-0.480815 J0.285534
G02 X13.511725 Y3.050488 Z-1.000000 I0.827204 J-0.358115
G02 X13.528164 Y3.075342 Z-1.000000 I0.137209 J-0.072889
G03 X13.597548 Y3.207873 Z-1.000000 I-0.294728 J0.238726
G03 X13.587774 Y3.279797 Z-1.000000 I-0.085666 J0.024985
G01 X13.552492 Y3.285113 Z-1.000000
G01 X13.537224 Y3.235777 Z-1.000000
G02 X13.531851 Y3.164343 Z-1.000000 I-0.107354 J-0.027845
G02 X13.475014 Y3.090236 Z-1.000000 I-0.173319 J0.074080
G01 X13.455434 Y3.068966 Z-1.000000
G01 X13.465262 Y3.066703 Z-1.000000
G01 X13.467114 Y3.053276 Z-1.000000
G03 X13.459364 Y3.025609 Z-1.000000 I0.147462 J-0.056223
G03 X13.456684 Y2.996226 Z-1.000000 I0.159707 J-0.029383
G01 X13.438982 Y2.974080 Z-1.000000
G02 X13.394404 Y2.982166 Z-1.000000 I-0.012767 J0.056538
G01 X13.385396 Y2.997434 Z-1.000000
G01 X13.392204 Y3.011126 Z-1.000000
G01 X13.401326 Y3.024655 Z-1.000000
G01 X13.396804 Y3.034976 Z-1.000000
G01 X13.382632 Y3.034563 Z-1.000000
G03 X13.353814 Y3.004846 Z-1.000000 I0.062515 J-0.089455
G03 X13.341620 Y2.965954 Z-1.000000 I0.062531 J-0.040963
G01 X13.352014 Y2.939836 Z-1.000000
G01 X13.362817 Y2.913757 Z-1.000000
G02 X13.352018 Y2.877556 Z-1.000000 I-0.066062 J-0.000004
G02 X13.327421 Y2.856452 Z-1.000000 I-0.048773 J0.031959
G01 X13.314198 Y2.860326 Z-1.000000
G01 X13.300982 Y2.866649 Z-1.000000
G01 X13.285698 Y2.857326 Z-1.000000
G01 X13.277042 Y2.856544 Z-1.000000
G01 X13.270128 Y2.873676 Z-1.000000
G03 X13.264437 Y2.911134 Z-1.000000 I-0.131311 J-0.000788
G01 X13.252968 Y2.930306 Z-1.000000
G01 X13.246498 Y2.946014 Z-1.000000
G01 X13.253077 Y2.957766 Z-1.000000
G01 X13.266622 Y2.958794 Z-1.000000
G01 X13.276557 Y2.947866 Z-1.000000
G01 X13.285645 Y2.938551 Z-1.000000
G01 X13.290867 Y2.942966 Z-1.000000
G02 X13.284473 Y3.031734 Z-1.000000 I0.485324 J0.079571
G02 X13.293567 Y3.086991 Z-1.000000 I0.194538 J-0.003639
G01 X13.290007 Y3.111289 Z-1.000000
G01 X13.269687 Y3.122021 Z-1.000000
G01 X13.249562 Y3.109352 Z-1.000000
G03 X13.243537 Y3.067521 Z-1.000000 I0.063641 J-0.030516
G02 X13.246021 Y3.018463 Z-1.000000 I-0.217899 J-0.035626
G01 X13.240237 Y3.013021 Z-1.000000
G01 X13.231917 Y3.007843 Z-1.000000
G03 X13.209317 Y2.950291 Z-1.000000 I0.333533 J-0.164185
G02 X13.185452 Y2.900910 Z-1.000000 I-0.165783 J0.049663
G01 X13.173067 Y2.898351 Z-1.000000
G01 X13.167312 Y2.895864 Z-1.000000
G01 X13.169167 Y2.879341 Z-1.000000
G02 X13.177246 Y2.848357 Z-1.000000 I-0.084048 J-0.038460
G02 X13.181757 Y2.724976 Z-1.000000 I-1.385379 J-0.112427
G03 X13.188501 Y2.604511 Z-1.000000 I0.946030 J-0.007461
G01 X13.198087 Y2.588975 Z-1.000000
G01 X13.201159 Y2.581724 Z-1.000000
G01 X13.195887 Y2.577295 Z-1.000000
G01 X13.185292 Y2.568472 Z-1.000000
G03 X13.178227 Y2.487525 Z-1.000000 I0.372643 J-0.073304
G01 X13.187127 Y2.425245 Z-1.000000
G01 X13.207348 Y2.442249 Z-1.000000
G01 X13.228867 Y2.428745 Z-1.000000
G01 X13.228741 Y2.407011 Z-1.000000
G02 X13.207177 Y2.374245 Z-1.000000 I-0.089765 J0.035596
G03 X13.180531 Y2.341749 Z-1.000000 I0.150920 J-0.150920
G01 X13.176387 Y2.328065 Z-1.000000
G01 X13.170073 Y2.319484 Z-1.000000
G02 X13.137457 Y2.315895 Z-1.000000 I-0.025512 J0.081857
G02 X13.106593 Y2.326535 Z-1.000000 I0.005382 J0.065694
G01 X13.098537 Y2.341485 Z-1.000000
G01 X13.091271 Y2.347493 Z-1.000000
G01 X13.067177 Y2.335485 Z-1.000000
G03 X13.045729 Y2.304425 Z-1.000000 I0.055380 J-0.061177
G01 X13.044867 Y2.278575 Z-1.000000
G01 X13.035675 Y2.268671 Z-1.000000
G02 X12.998037 Y2.289685 Z-1.000000 I0.018233 J0.076872
G02 X12.983455 Y2.327947 Z-1.000000 I0.035402 J0.035402
G01 X13.001237 Y2.345595 Z-1.000000
G01 X13.010546 Y2.350095 Z-1.000000
G01 X13.009037 Y2.354495 Z-1.000000
G02 X12.980634 Y2.366712 Z-1.000000 I0.013570 J0.070672
G01 X12.974017 Y2.379625 Z-1.000000
G02 X12.985081 Y2.474880 Z-1.000000 I0.418135 J-0.000296
G02 X13.059687 Y2.744621 Z-1.000000 I3.468729 J-0.814208
G03 X13.094727 Y2.865661 Z-1.000000 I-2.200624 J0.702659
G03 X13.098367 Y2.893328 Z-1.000000 I-0.109428 J0.028468
G02 X13.101611 Y2.921075 Z-1.000000 I0.127988 J-0.000899
G02 X13.123397 Y3.002320 Z-1.000000 I1.130330 J-0.259561
G02 X13.164094 Y3.110495 Z-1.000000 I0.897313 J-0.275837
G01 X13.171777 Y3.110248 Z-1.000000
G01 X13.190752 Y3.107550 Z-1.000000
G03 X13.207327 Y3.157978 Z-1.000000 I-0.067230 J0.050036
G03 X13.200216 Y3.184107 Z-1.000000 I-0.052486 J-0.000251
G01 X13.191997 Y3.184308 Z-1.000000
G01 X13.181089 Y3.175497 Z-1.000000
G01 X13.176667 Y3.178508 Z-1.000000
G01 X13.181009 Y3.194001 Z-1.000000
G02 X13.199787 Y3.215448 Z-1.000000 I0.076203 J-0.047775
G03 X13.216679 Y3.237869 Z-1.000000 I-0.038877 J0.046864
G03 X13.223147 Y3.268738 Z-1.000000 I-0.070430 J0.030869
G02 X13.228598 Y3.300381 Z-1.000000 I0.094568 J-0.000000
G02 X13.241827 Y3.321328 Z-1.000000 I0.052992 J-0.018816
G01 X13.249740 Y3.340012 Z-1.000000
G01 X13.242415 Y3.358108 Z-1.000000
G01 X13.230637 Y3.356572 Z-1.000000
G03 X13.213045 Y3.307508 Z-1.000000 I0.124704 J-0.072398
G01 X13.201775 Y3.238808 Z-1.000000
G01 X13.188755 Y3.300048 Z-1.000000
G02 X13.179939 Y3.360894 Z-1.000000 I0.450967 J0.096406
G01 X13.182655 Y3.377898 Z-1.000000
G01 X13.191855 Y3.355588 Z-1.000000
G01 X13.198616 Y3.354264 Z-1.000000
G03 X13.232015 Y3.440348 Z-1.000000 I-0.573919 J0.272188
G03 X13.264562 Y3.579490 Z-1.000000 I-1.012122 J0.310123
G01 X13.256365 Y3.589137 Z-1.000000
G01 X13.247869 Y3.583063 Z-1.000000
G03 X13.223175 Y3.491827 Z-1.000000 I0.686266 J-0.234704
G02 X13.202178 Y3.412474 Z-1.000000 I-0.677943 J0.136931
G01 X13.197025 Y3.412397 Z-1.000000
G01 X13.195499 Y3.430453 Z-1.000000
G02 X13.223025 Y3.552529 Z-1.000000 I1.602807 J-0.297268
G03 X13.254709 Y3.674976 Z-1.000000 I-9.126377 J2.426824
G03 X13.263575 Y3.713705 Z-1.000000 I-0.897977 J0.225951
G02 X13.272530 Y3.752404 Z-1.000000 I0.787708 J-0.161883
G02 X13.293605 Y3.830482 Z-1.000000 I3.388731 J-0.872828
G03 X13.404524 Y4.268573 Z-1.000000 I-7.994032 J2.257081
G03 X13.636057 Y5.356369 Z-1.000000 I-49.080450 J11.015096
G03 X13.827724 Y6.392568 Z-1.000000 I-32.782324 J6.599610
G03 X13.947361 Y7.201445 Z-1.000000 I-19.854236 J3.349830
G02 X13.957265 Y7.271338 Z-1.000000 I2.448000 J-0.311240
G02 X13.963891 Y7.307220 Z-1.000000 I0.654736 J-0.102351
G03 X13.969839 Y7.343197 Z-1.000000 I-0.380807 J0.081435
G03 X14.001431 Y7.626410 Z-1.000000 I-23.946457 J2.814583
G02 X14.031805 Y7.909842 Z-1.000000 I89.927708 J-9.493699
G02 X14.054281 Y8.112306 Z-1.000000 I45.456216 J-4.943766
G03 X14.076432 Y8.314800 Z-1.000000 I-27.045060 J3.060962
G03 X14.097841 Y8.524918 Z-1.000000 I-28.560391 J3.016158
G01 X14.118491 Y8.735116 Z-1.000000
G01 X14.127391 Y8.618339 Z-1.000000
G01 X14.136291 Y8.501562 Z-1.000000
G01 X14.139091 Y8.604715 Z-1.000000
G02 X14.144049 Y8.707664 Z-1.000000 I2.375151 J-0.062801
G02 X14.149981 Y8.760418 Z-1.000000 I0.628361 J-0.043942
G01 X14.148395 Y8.781469 Z-1.000000
G01 X14.143281 Y8.781828 Z-1.000000
G01 X14.134614 Y8.783906 Z-1.000000
G02 X14.156841 Y9.272292 Z-1.000000 I13.700114 J-0.378815
G03 X14.215131 Y10.443622 Z-1.000000 I-43.027291 J2.728312
G03 X14.243491 Y11.670113 Z-1.000000 I-47.147826 J1.703778
G02 X14.254700 Y12.534165 Z-1.000000 I150.362438 J-1.518550
G02 X14.258651 Y12.627684 Z-1.000000 I1.774513 J-0.028121
G03 X14.265183 Y12.737550 Z-1.000000 I-5.714070 J0.394833
G03 X14.313761 Y13.733173 Z-1.000000 I-488.184434 J24.318469
G02 X14.331183 Y14.075661 Z-1.000000 I55.394125 J-2.646216
G02 X14.345691 Y14.324843 Z-1.000000 I29.411382 J-1.587345
G03 X14.370657 Y14.754093 Z-1.000000 I-49.640285 J3.102580
G03 X14.421961 Y15.741738 Z-1.000000 I-263.149962 J14.164559
G02 X14.439920 Y16.052862 Z-1.000000 I20.785634 J-1.043699
G02 X14.444861 Y16.092069 Z-1.000000 I0.327563 J-0.021369
G03 X14.449901 Y16.131257 Z-1.000000 I-0.342137 J0.063921
G03 X14.461471 Y16.325623 Z-1.000000 I-8.326403 J0.593170
G02 X14.473383 Y16.519819 Z-1.000000 I7.117098 J-0.339084
G02 X14.477931 Y16.545242 Z-1.000000 I0.126309 J-0.009480
G03 X14.479832 Y16.569959 Z-1.000000 I-0.060135 J0.017057
G03 X14.470131 Y16.607522 Z-1.000000 I-0.148654 J-0.018357
G01 X14.462279 Y16.607108 Z-1.000000
G03 X14.454271 Y16.551392 Z-1.000000 I0.204893 J-0.057882
G02 X14.434654 Y16.159068 Z-1.000000 I-4.928953 J0.049800
G02 X14.414591 Y16.111166 Z-1.000000 I-0.085626 J0.007711
G01 X14.410284 Y16.109689 Z-1.000000
G02 X14.384091 Y16.117266 Z-1.000000 I0.030237 J0.153588
G01 X14.373233 Y16.129097 Z-1.000000
G01 X14.377491 Y16.140146 Z-1.000000
G01 X14.389805 Y16.153626 Z-1.000000
G01 X14.388431 Y16.162076 Z-1.000000
G01 X14.378997 Y16.163861 Z-1.000000
G03 X14.355391 Y16.147786 Z-1.000000 I0.030814 J-0.070620
G01 X14.332491 Y16.138956 Z-1.000000
G01 X14.310721 Y16.149986 Z-1.000000
G01 X14.307380 Y16.160527 Z-1.000000
G01 X14.311581 Y16.162716 Z-1.000000
G01 X14.321460 Y16.161403 Z-1.000000
G01 X14.323241 Y16.166016 Z-1.000000
G01 X14.310021 Y16.174993 Z-1.000000
G03 X14.279471 Y16.173716 Z-1.000000 I-0.012361 J-0.070366
G01 X14.260875 Y16.176021 Z-1.000000
G01 X14.258451 Y16.185236 Z-1.000000
G01 X14.255089 Y16.194102 Z-1.000000
G03 X14.225851 Y16.195036 Z-1.000000 I-0.016375 J-0.054488
G01 X14.205001 Y16.195136 Z-1.000000
G01 X14.204061 Y16.200336 Z-1.000000
G01 X14.210777 Y16.211140 Z-1.000000
G01 X14.206261 Y16.216376 Z-1.000000
G01 X14.195592 Y16.223751 Z-1.000000
G01 X14.195511 Y16.243866 Z-1.000000
G01 X14.193429 Y16.251945 Z-1.000000
G01 X14.186311 Y16.251666 Z-1.000000
G02 X14.129964 Y16.225847 Z-1.000000 I-0.063305 J0.063762
G01 X14.117531 Y16.246266 Z-1.000000
G01 X14.114868 Y16.256762 Z-1.000000
G03 X14.006453 Y16.310246 Z-1.000000 I-0.472734 J-0.821627
G02 X13.888419 Y16.363512 Z-1.000000 I0.845575 J2.031169
G02 X13.827688 Y16.397346 Z-1.000000 I0.277199 J0.568978
G03 X13.767136 Y16.429081 Z-1.000000 I-0.227439 J-0.360325
G03 X13.740248 Y16.434566 Z-1.000000 I-0.026888 J-0.063166
G02 X13.713466 Y16.439599 Z-1.000000 I-0.000000 J0.073777
G02 X13.681548 Y16.457426 Z-1.000000 I0.048281 J0.123931
G01 X13.678275 Y16.471421 Z-1.000000
G01 X13.693228 Y16.480786 Z-1.000000
G02 X13.732227 Y16.475974 Z-1.000000 I0.001729 J-0.146429
G01 X13.743598 Y16.467566 Z-1.000000
G03 X13.803111 Y16.428720 Z-1.000000 I0.071119 J0.043945
G01 X13.825488 Y16.456066 Z-1.000000
G01 X13.815226 Y16.466426 Z-1.000000
G01 X13.791618 Y16.468426 Z-1.000000
G01 X13.776103 Y16.473528 Z-1.000000
G01 X13.773278 Y16.487886 Z-1.000000
G01 X13.772098 Y16.505131 Z-1.000000
G01 X13.759818 Y16.512406 Z-1.000000
G01 X13.742337 Y16.517790 Z-1.000000
G01 X13.736948 Y16.527976 Z-1.000000
G01 X13.731426 Y16.538063 Z-1.000000
G01 X13.712678 Y16.543546 Z-1.000000
G01 X13.699008 Y16.537639 Z-1.000000
G01 X13.698028 Y16.527976 Z-1.000000
G01 X13.699564 Y16.516889 Z-1.000000
G01 X13.693628 Y16.512406 Z-1.000000
G01 X13.682941 Y16.517549 Z-1.000000
G02 X13.661058 Y16.553196 Z-1.000000 I0.133000 J0.106187
G01 X13.658060 Y16.579324 Z-1.000000
G01 X13.667358 Y16.584436 Z-1.000000
G01 X13.679251 Y16.588779 Z-1.000000
G01 X13.681408 Y16.609816 Z-1.000000
G03 X13.666560 Y16.641581 Z-1.000000 I-0.124773 J-0.038971
G01 X13.651738 Y16.655806 Z-1.000000
G02 X13.633665 Y16.667936 Z-1.000000 I0.094450 J0.160256
G02 X13.595388 Y16.698656 Z-1.000000 I0.556768 J0.732936
G01 X13.584260 Y16.715735 Z-1.000000
G01 X13.588988 Y16.720336 Z-1.000000
G01 X13.600370 Y16.722858 Z-1.000000
G01 X13.600668 Y16.731206 Z-1.000000
G02 X13.586785 Y16.754371 Z-1.000000 I0.048013 J0.044518
G02 X13.581208 Y16.787636 Z-1.000000 I0.096425 J0.033265
G03 X13.572220 Y16.818229 Z-1.000000 I-0.056561 J0.000000
G03 X13.541798 Y16.848916 Z-1.000000 I-0.087350 J-0.056172
G02 X13.510158 Y16.875545 Z-1.000000 I0.094852 J0.144816
G01 X13.510278 Y16.882636 Z-1.000000
G01 X13.518396 Y16.884411 Z-1.000000
G02 X13.541908 Y16.870836 Z-1.000000 I-0.028072 J-0.075769
G03 X13.562028 Y16.858804 Z-1.000000 I0.048882 J0.058902
G01 X13.565638 Y16.861236 Z-1.000000
G01 X13.569598 Y16.863917 Z-1.000000
G02 X13.605048 Y16.845466 Z-1.000000 I-0.074951 J-0.187285
G03 X13.643827 Y16.825780 Z-1.000000 I0.108404 J0.165507
G01 X13.652458 Y16.827646 Z-1.000000
G01 X13.652055 Y16.834567 Z-1.000000
G03 X13.590498 Y16.876656 Z-1.000000 I-0.333282 J-0.421384
G02 X13.523070 Y16.920251 Z-1.000000 I0.462903 J0.789912
G01 X13.510938 Y16.933186 Z-1.000000
G02 X13.504732 Y16.987408 Z-1.000000 I0.054527 J0.033707
G01 X13.537208 Y17.010716 Z-1.000000
G01 X13.545277 Y17.005129 Z-1.000000
G01 X13.545208 Y16.989436 Z-1.000000
G01 X13.549764 Y16.981766 Z-1.000000
G01 X13.574558 Y16.985536 Z-1.000000
G03 X13.601566 Y17.012954 Z-1.000000 I-0.023040 J0.049706
G01 X13.592858 Y17.026626 Z-1.000000
G01 X13.574830 Y17.031056 Z-1.000000
G02 X13.538458 Y17.053876 Z-1.000000 I0.100140 J0.200009
G01 X13.539926 Y17.068305 Z-1.000000
G02 X13.592958 Y17.080426 Z-1.000000 I0.052554 J-0.107864
G03 X13.680296 Y17.087303 Z-1.000000 I0.002106 J0.531272
G03 X13.713102 Y17.099886 Z-1.000000 I-0.013837 J0.085132
G02 X13.789598 Y17.123006 Z-1.000000 I0.078511 J-0.121656
G02 X13.842103 Y17.101686 Z-1.000000 I0.001014 J-0.072816
G01 X13.860619 Y17.094255 Z-1.000000
G01 X13.882933 Y17.102588 Z-1.000000
G02 X14.005006 Y17.144039 Z-1.000000 I0.115222 J-0.138849
G01 X14.047615 Y17.096388 Z-1.000000
G01 X14.041434 Y17.086757 Z-1.000000
G01 X14.023475 Y17.083068 Z-1.000000
G01 X14.015542 Y17.077341 Z-1.000000
G01 X14.018975 Y17.063088 Z-1.000000
G03 X14.039170 Y17.046944 Z-1.000000 I0.049178 J0.040814
G01 X14.052685 Y17.045938 Z-1.000000
G01 X14.066326 Y17.044135 Z-1.000000
G02 X14.112755 Y17.006208 Z-1.000000 I-0.164956 J-0.249312
G03 X14.162197 Y16.973580 Z-1.000000 I0.104356 J0.104356
G03 X14.215833 Y16.964888 Z-1.000000 I0.046196 J0.115237
G02 X14.317229 Y16.961223 Z-1.000000 I0.031741 J-0.526219
G01 X14.322199 Y16.950728 Z-1.000000
G01 X14.324694 Y16.943581 Z-1.000000
G03 X14.356309 Y16.938428 Z-1.000000 I0.029561 J0.081810
G02 X14.398324 Y16.936306 Z-1.000000 I0.006767 J-0.282955
G02 X14.452839 Y16.926358 Z-1.000000 I-0.062061 J-0.494460
G03 X14.485327 Y16.926801 Z-1.000000 I0.015379 J0.063695
G01 X14.488239 Y16.935958 Z-1.000000
G01 X14.480103 Y16.958099 Z-1.000000
G01 X14.487766 Y16.976908 Z-1.000000
G01 X14.493604 Y16.990053 Z-1.000000
G01 X14.488693 Y16.995218 Z-1.000000
G01 X14.474682 Y16.990444 Z-1.000000
G01 X14.465333 Y16.977298 Z-1.000000
G02 X14.345298 Y16.921557 Z-1.000000 I-0.086322 J0.028774
G02 X13.995385 Y17.164766 Z-1.000000 I0.349516 J0.876180
G02 X13.979535 Y17.198770 Z-1.000000 I0.047152 J0.042675
G02 X13.984225 Y17.245846 Z-1.000000 I0.100195 J0.013790
G03 X13.989028 Y17.291576 Z-1.000000 I-0.094951 J0.033090
G01 X13.975525 Y17.314456 Z-1.000000
G01 X13.962595 Y17.334984 Z-1.000000
G01 X13.967925 Y17.355066 Z-1.000000
G03 X13.985866 Y17.377053 Z-1.000000 I-0.544696 J0.462762
G03 X14.018165 Y17.419206 Z-1.000000 I-1.948706 J1.526636
G02 X14.073966 Y17.467030 Z-1.000000 I0.135267 J-0.101365
G02 X14.242878 Y17.538905 Z-1.000000 I0.495929 J-0.931050
G01 X14.320728 Y17.571395 Z-1.000000
G01 X14.381928 Y17.594035 Z-1.000000
G02 X14.457830 Y17.568662 Z-1.000000 I0.018795 J-0.069991
G02 X14.497081 Y17.446653 Z-1.000000 I-0.146470 J-0.114439
G03 X14.497808 Y17.327714 Z-1.000000 I1.265481 J-0.051735
G01 X14.503681 Y17.322162 Z-1.000000
G01 X14.515843 Y17.333597 Z-1.000000
G03 X14.520341 Y17.579108 Z-1.000000 I-2.641635 J0.171194
G02 X14.520671 Y17.625795 Z-1.000000 I0.663883 J0.018658
G02 X14.532851 Y17.874943 Z-1.000000 I18.784565 J-0.793473
G03 X14.546402 Y18.124082 Z-1.000000 I-116.330972 J6.452548
G03 X14.561481 Y18.412117 Z-1.000000 I-148.933660 J7.941043
G02 X14.579700 Y18.699900 Z-1.000000 I11.860798 J-0.606411
G02 X14.601101 Y18.937826 Z-1.000000 I8.303928 J-0.627002
G03 X14.621366 Y19.174441 Z-1.000000 I-6.344650 J0.662559
G01 X14.617871 Y19.188516 Z-1.000000
G01 X14.606494 Y19.196302 Z-1.000000
G03 X14.441917 Y19.220246 Z-1.000000 I-0.438377 J-2.435561
G02 X14.274714 Y19.243233 Z-1.000000 I0.364493 J3.270870
G02 X14.094960 Y19.277046 Z-1.000000 I0.624271 J3.813383
G03 X13.915762 Y19.314449 Z-1.000000 I-4.964395 J-23.336209
G03 X13.679669 Y19.362066 Z-1.000000 I-8.271018 J-40.400338
G02 X13.444099 Y19.411665 Z-1.000000 I2.052797 J10.333899
G02 X13.368263 Y19.431366 Z-1.000000 I0.241659 J1.086054
G03 X13.293030 Y19.453524 Z-1.000000 I-3.746577 J-12.581924
G03 X13.199669 Y19.480476 Z-1.000000 I-5.672828 J-19.475372
G02 X12.988416 Y19.566210 Z-1.000000 I0.294012 J1.027600
G01 X12.997256 Y19.589059 Z-1.000000
G03 X13.030599 Y19.586370 Z-1.000000 I0.024670 J0.097810
G01 X13.036186 Y19.592459 Z-1.000000
G01 X13.032256 Y19.603863 Z-1.000000
G03 X12.997256 Y19.642179 Z-1.000000 I-0.267455 J-0.209166
G03 X12.965461 Y19.661768 Z-1.000000 I-0.063731 J-0.067844
G01 X12.957856 Y19.656569 Z-1.000000
G01 X12.952573 Y19.652955 Z-1.000000
G01 X12.940856 Y19.662769 Z-1.000000
G02 X12.930484 Y19.690379 Z-1.000000 I0.076264 J0.044402
G01 X12.933556 Y19.700399 Z-1.000000
G01 X12.938921 Y19.700294 Z-1.000000
G01 X12.942756 Y19.690499 Z-1.000000
G01 X12.948215 Y19.681250 Z-1.000000
G01 X12.959086 Y19.681499 Z-1.000000
G01 X12.965827 Y19.693151 Z-1.000000
G01 X12.959968 Y19.710199 Z-1.000000
G01 X12.952225 Y19.730661 Z-1.000000
G02 X12.957668 Y19.786889 Z-1.000000 I0.223725 J0.006721
G03 X12.957768 Y19.839961 Z-1.000000 I-0.118621 J0.026760
G01 X12.940068 Y19.866479 Z-1.000000
G01 X12.936712 Y19.889780 Z-1.000000
G01 X12.964748 Y19.897399 Z-1.000000
G01 X12.982555 Y19.905024 Z-1.000000
G01 X12.977828 Y19.928859 Z-1.000000
G02 X12.967838 Y19.941417 Z-1.000000 I0.050128 J0.050128
G01 X12.964058 Y19.950919 Z-1.000000
G03 X12.940223 Y20.022057 Z-1.000000 I-0.294424 J-0.059084
G01 X12.925408 Y20.031369 Z-1.000000
G01 X12.901035 Y20.056150 Z-1.000000
G02 X12.926508 Y20.101019 Z-1.000000 I0.053827 J-0.000894
G01 X12.934473 Y20.112600 Z-1.000000
G01 X12.932708 Y20.132989 Z-1.000000
G01 X12.921262 Y20.147732 Z-1.000000
G01 X12.911488 Y20.148039 Z-1.000000
G01 X12.906381 Y20.150331 Z-1.000000
G01 X12.907188 Y20.171479 Z-1.000000
G02 X12.919625 Y20.197098 Z-1.000000 I0.071006 J-0.018642
G01 X12.930758 Y20.202639 Z-1.000000
G01 X12.938147 Y20.197093 Z-1.000000
G01 X12.937458 Y20.179779 Z-1.000000
G01 X12.935155 Y20.159108 Z-1.000000
G01 X12.941958 Y20.148749 Z-1.000000
G01 X12.951173 Y20.150534 Z-1.000000
G03 X12.965088 Y20.180029 Z-1.000000 I-0.067725 J0.049981
G02 X12.979470 Y20.208405 Z-1.000000 I0.069124 J-0.017201
G01 X12.990108 Y20.210139 Z-1.000000
G01 X12.999340 Y20.211332 Z-1.000000
G01 X13.005218 Y20.225989 Z-1.000000
G01 X12.999584 Y20.241067 Z-1.000000
G01 X12.990978 Y20.242379 Z-1.000000
G01 X12.979461 Y20.241794 Z-1.000000
G01 X12.968848 Y20.253139 Z-1.000000
G01 X12.964060 Y20.254494 Z-1.000000
G01 X12.959748 Y20.246439 Z-1.000000
G01 X12.950595 Y20.229117 Z-1.000000
G01 X12.927908 Y20.222469 Z-1.000000
G01 X12.910264 Y20.234267 Z-1.000000
G01 X12.906708 Y20.264319 Z-1.000000
G02 X12.929929 Y20.310412 Z-1.000000 I0.108768 J-0.025901
G01 X12.944668 Y20.309419 Z-1.000000
G01 X12.953007 Y20.305681 Z-1.000000
G01 X12.958048 Y20.311619 Z-1.000000
G03 X12.940499 Y20.363210 Z-1.000000 I-0.084608 J0.000000
G01 X12.914738 Y20.367919 Z-1.000000
G01 X12.902602 Y20.368385 Z-1.000000
G01 X12.890698 Y20.385389 Z-1.000000
G01 X12.889759 Y20.334979 Z-1.000000
G02 X12.887087 Y20.295029 Z-1.000000 I-0.128082 J-0.011499
G01 X12.880559 Y20.294419 Z-1.000000
G01 X12.864377 Y20.297379 Z-1.000000
G03 X12.844369 Y20.257129 Z-1.000000 I0.053003 J-0.051444
G03 X12.844860 Y20.219646 Z-1.000000 I0.112799 J-0.017268
G01 X12.851369 Y20.218199 Z-1.000000
G01 X12.855854 Y20.218210 Z-1.000000
G01 X12.856969 Y20.210399 Z-1.000000
G03 X12.847655 Y20.178901 Z-1.000000 I0.313945 J-0.109963
G03 X12.843819 Y20.155899 Z-1.000000 I0.155587 J-0.037766
G02 X12.837283 Y20.134463 Z-1.000000 I-0.055404 J0.005178
G02 X12.814949 Y20.102939 Z-1.000000 I-0.144460 J0.078674
G02 X12.787302 Y20.086414 Z-1.000000 I-0.040715 J0.036727
G01 X12.766809 Y20.091129 Z-1.000000
G03 X12.745640 Y20.103049 Z-1.000000 I-0.043217 J-0.051992
G01 X12.737659 Y20.101209 Z-1.000000
G02 X12.651609 Y20.060407 Z-1.000000 I-0.100219 J0.100219
G02 X12.512867 Y20.078639 Z-1.000000 I-0.030577 J0.304329
G02 X12.425831 Y20.131928 Z-1.000000 I0.096474 J0.255293
G02 X12.359152 Y20.218280 Z-1.000000 I0.209729 J0.230866
G02 X12.333368 Y20.526446 Z-1.000000 I0.353327 J0.184724
G02 X12.508230 Y20.675916 Z-1.000000 I0.209670 J-0.068270
G03 X12.571041 Y20.692854 Z-1.000000 I-0.049996 J0.310322
G03 X12.618792 Y20.718506 Z-1.000000 I-0.077474 J0.201492
G02 X12.665731 Y20.740952 Z-1.000000 I0.087771 J-0.123240
G02 X12.700552 Y20.741426 Z-1.000000 I0.018302 J-0.065301
G03 X12.732092 Y20.742019 Z-1.000000 I0.014681 J0.058218
G01 X12.745822 Y20.754676 Z-1.000000
G01 X12.742704 Y20.766126 Z-1.000000
G01 X12.727982 Y20.768886 Z-1.000000
G01 X12.724541 Y20.773373 Z-1.000000
G02 X12.747632 Y20.800126 Z-1.000000 I0.100150 J-0.063101
G02 X12.793587 Y20.835760 Z-1.000000 I0.388689 J-0.453828
G01 X12.797972 Y20.835376 Z-1.000000
G01 X12.799484 Y20.830496 Z-1.000000
G02 X12.787692 Y20.780516 Z-1.000000 I-0.532179 J0.099182
G03 X12.781220 Y20.730293 Z-1.000000 I0.162317 J-0.046446
G03 X12.789792 Y20.688126 Z-1.000000 I0.121355 J0.002715
G02 X12.803659 Y20.645651 Z-1.000000 I-0.337184 J-0.133582
G02 X12.812382 Y20.600786 Z-1.000000 I-0.357639 J-0.092817
G03 X12.823125 Y20.556974 Z-1.000000 I0.204495 J0.026918
G03 X12.842512 Y20.518336 Z-1.000000 I0.176879 J0.064571
G02 X12.857926 Y20.480260 Z-1.000000 I-0.088427 J-0.057955
G02 X12.856012 Y20.447866 Z-1.000000 I-0.064878 J-0.012420
G01 X12.860439 Y20.439053 Z-1.000000
G01 X12.873092 Y20.441966 Z-1.000000
G01 X12.900473 Y20.450514 Z-1.000000
G02 X12.937422 Y20.430246 Z-1.000000 I-0.011953 J-0.065603
G02 X12.966991 Y20.388018 Z-1.000000 I-0.138618 J-0.128530
G02 X12.974012 Y20.358956 Z-1.000000 I-0.056637 J-0.029062
G01 X12.989329 Y20.348889 Z-1.000000
G01 X13.008472 Y20.373846 Z-1.000000
G03 X13.005421 Y20.411998 Z-1.000000 I-0.084711 J0.012423
G01 X12.993752 Y20.420556 Z-1.000000
G01 X12.982239 Y20.426153 Z-1.000000
G01 X12.981682 Y20.435946 Z-1.000000
G01 X12.979485 Y20.441674 Z-1.000000
G01 X12.964332 Y20.441046 Z-1.000000
G01 X12.950174 Y20.443424 Z-1.000000
G01 X12.947022 Y20.455656 Z-1.000000
G01 X12.947932 Y20.478320 Z-1.000000
G01 X12.934152 Y20.499186 Z-1.000000
G01 X12.924729 Y20.526979 Z-1.000000
G01 X12.942852 Y20.537346 Z-1.000000
G01 X12.966814 Y20.537571 Z-1.000000
G01 X12.974492 Y20.547976 Z-1.000000
G01 X12.980302 Y20.552028 Z-1.000000
G01 X12.996122 Y20.540576 Z-1.000000
G01 X13.022430 Y20.524118 Z-1.000000
G03 X13.105046 Y20.518936 Z-1.000000 I0.060605 J0.305089
G02 X13.189541 Y20.518776 Z-1.000000 I0.041142 J-0.584213
G01 X13.201106 Y20.511736 Z-1.000000
G01 X13.199809 Y20.503676 Z-1.000000
G01 X13.185106 Y20.498346 Z-1.000000
G01 X13.173078 Y20.485398 Z-1.000000
G01 X13.188106 Y20.457736 Z-1.000000
G03 X13.233675 Y20.446386 Z-1.000000 I0.036013 J0.047436
G01 X13.246496 Y20.467236 Z-1.000000
G01 X13.245311 Y20.492017 Z-1.000000
G01 X13.253196 Y20.498376 Z-1.000000
G01 X13.264743 Y20.493334 Z-1.000000
G01 X13.269816 Y20.480396 Z-1.000000
G01 X13.275797 Y20.475907 Z-1.000000
G03 X13.299036 Y20.488896 Z-1.000000 I-0.016537 J0.056871
G01 X13.324502 Y20.499632 Z-1.000000
G01 X13.337476 Y20.491296 Z-1.000000
G03 X13.350291 Y20.472483 Z-1.000000 I0.046666 J0.018017
G01 X13.363676 Y20.467266 Z-1.000000
G01 X13.372277 Y20.471908 Z-1.000000
G01 X13.372376 Y20.480586 Z-1.000000
G01 X13.378592 Y20.490912 Z-1.000000
G02 X13.468466 Y20.474186 Z-1.000000 I-0.025364 J-0.386107
G03 X13.500968 Y20.474343 Z-1.000000 I0.016003 J0.051311
G01 X13.507226 Y20.486696 Z-1.000000
G01 X13.514809 Y20.497721 Z-1.000000
G01 X13.539526 Y20.488096 Z-1.000000
G01 X13.542650 Y20.477559 Z-1.000000
G01 X13.533026 Y20.457636 Z-1.000000
G01 X13.535777 Y20.428424 Z-1.000000
G01 X13.576576 Y20.421686 Z-1.000000
G02 X13.615472 Y20.430165 Z-1.000000 I0.047526 J-0.124561
G01 X13.626626 Y20.424986 Z-1.000000
G01 X13.637868 Y20.416433 Z-1.000000
G03 X13.666846 Y20.409586 Z-1.000000 I0.040283 J0.105742
G03 X13.697997 Y20.406580 Z-1.000000 I0.569291 J5.736440
G03 X13.775838 Y20.399386 Z-1.000000 I2.739136 J29.213821
G02 X13.844084 Y20.385340 Z-1.000000 I-0.027928 J-0.308505
G01 X13.849798 Y20.375256 Z-1.000000
G01 X13.853269 Y20.364069 Z-1.000000
G01 X13.868178 Y20.358206 Z-1.000000
G01 X13.878646 Y20.367103 Z-1.000000
G03 X13.876278 Y20.407776 Z-1.000000 I-0.092145 J0.015042
G02 X13.876424 Y20.454231 Z-1.000000 I0.080129 J0.022975
G01 X13.891628 Y20.460056 Z-1.000000
G01 X13.902388 Y20.446603 Z-1.000000
G02 X13.908238 Y20.411486 Z-1.000000 I-0.102481 J-0.035117
G01 X13.919868 Y20.388107 Z-1.000000
G01 X13.946278 Y20.382726 Z-1.000000
G02 X14.001112 Y20.378421 Z-1.000000 I0.021014 J-0.083699
G01 X14.002588 Y20.358776 Z-1.000000
G01 X13.997859 Y20.346818 Z-1.000000
G01 X14.011588 Y20.325686 Z-1.000000
G01 X14.024594 Y20.323201 Z-1.000000
G01 X14.028388 Y20.330986 Z-1.000000
G01 X14.036222 Y20.348926 Z-1.000000
G01 X14.056278 Y20.342406 Z-1.000000
G01 X14.067687 Y20.333468 Z-1.000000
G01 X14.079478 Y20.334906 Z-1.000000
G01 X14.091266 Y20.336292 Z-1.000000
G01 X14.102838 Y20.327106 Z-1.000000
G01 X14.114548 Y20.318530 Z-1.000000
G01 X14.128308 Y20.320606 Z-1.000000
G01 X14.142125 Y20.321169 Z-1.000000
G02 X14.165658 Y20.301396 Z-1.000000 I-0.031881 J-0.061833
G01 X14.180933 Y20.292712 Z-1.000000
G01 X14.187978 Y20.298896 Z-1.000000
G02 X14.193279 Y20.322452 Z-1.000000 I0.059992 J-0.001127
G01 X14.204348 Y20.335036 Z-1.000000
G02 X14.275802 Y20.343945 Z-1.000000 I0.045449 J-0.073515
G02 X14.347830 Y20.289776 Z-1.000000 I-0.040748 J-0.129154
G01 X14.354522 Y20.288503 Z-1.000000
G01 X14.359510 Y20.297976 Z-1.000000
G01 X14.376450 Y20.324924 Z-1.000000
G02 X14.449660 Y20.342396 Z-1.000000 I0.075038 J-0.152304
G01 X14.464703 Y20.335556 Z-1.000000
G02 X14.485590 Y20.300316 Z-1.000000 I-0.091299 J-0.077924
G01 X14.503854 Y20.278059 Z-1.000000
G01 X14.516640 Y20.280856 Z-1.000000
G01 X14.532193 Y20.287640 Z-1.000000
G01 X14.553880 Y20.274556 Z-1.000000
G03 X14.579966 Y20.256359 Z-1.000000 I0.041537 J0.031750
G03 X14.615860 Y20.255386 Z-1.000000 I0.019686 J0.063635
G01 X14.646037 Y20.252862 Z-1.000000
G01 X14.656100 Y20.237806 Z-1.000000
G01 X14.664235 Y20.231954 Z-1.000000
G03 X14.687860 Y20.247806 Z-1.000000 I-0.015125 J0.048074
G02 X14.719746 Y20.271307 Z-1.000000 I0.063695 J-0.053040
G01 X14.736440 Y20.267996 Z-1.000000
G01 X14.755118 Y20.259750 Z-1.000000
G03 X14.782180 Y20.265896 Z-1.000000 I0.002404 J0.052067
G01 X14.797995 Y20.266825 Z-1.000000
G01 X14.801800 Y20.258196 Z-1.000000
G01 X14.808144 Y20.246653 Z-1.000000
G03 X14.880000 Y20.242496 Z-1.000000 I0.050652 J0.252434
G02 X14.959815 Y20.241823 Z-1.000000 I0.036218 J-0.437668
G01 X14.966990 Y20.233896 Z-1.000000
G01 X14.973597 Y20.224689 Z-1.000000
G03 X15.013700 Y20.218096 Z-1.000000 I0.040103 J0.118667
G03 X15.053274 Y20.225277 Z-1.000000 I-0.000000 J0.112642
G01 X15.060410 Y20.235576 Z-1.000000
G01 X15.066276 Y20.240626 Z-1.000000
G01 X15.086300 Y20.231676 Z-1.000000
G01 X15.108585 Y20.222921 Z-1.000000
G01 X15.118740 Y20.229776 Z-1.000000
G01 X15.136816 Y20.234026 Z-1.000000
G01 X15.146050 Y20.202526 Z-1.000000
G03 X15.150044 Y20.167301 Z-1.000000 I0.053694 J-0.011751
G01 X15.168170 Y20.155816 Z-1.000000
G03 X15.194536 Y20.161823 Z-1.000000 I-0.000000 J0.060867
G01 X15.200550 Y20.171386 Z-1.000000
G01 X15.195569 Y20.182003 Z-1.000000
G01 X15.181860 Y20.186956 Z-1.000000
G01 X15.177927 Y20.198553 Z-1.000000
G02 X15.231690 Y20.225146 Z-1.000000 I0.094347 J-0.123099
G01 X15.251980 Y20.222546 Z-1.000000
G01 X15.242741 Y20.207492 Z-1.000000
G01 X15.246880 Y20.187496 Z-1.000000
G01 X15.262522 Y20.178310 Z-1.000000
G01 X15.284790 Y20.185796 Z-1.000000
G02 X15.337201 Y20.198397 Z-1.000000 I0.039023 J-0.047013
G01 X15.348520 Y20.171486 Z-1.000000
G01 X15.347736 Y20.160802 Z-1.000000
G01 X15.355320 Y20.155806 Z-1.000000
G01 X15.367130 Y20.160507 Z-1.000000
G01 X15.371810 Y20.171376 Z-1.000000
G01 X15.376384 Y20.182399 Z-1.000000
G01 X15.387380 Y20.186946 Z-1.000000
G01 X15.397541 Y20.181499 Z-1.000000
G01 X15.402950 Y20.163586 Z-1.000000
G01 X15.409192 Y20.146510 Z-1.000000
G01 X15.422410 Y20.140466 Z-1.000000
G03 X15.467959 Y20.157232 Z-1.000000 I-0.000891 J0.072675
G01 X15.477730 Y20.186416 Z-1.000000
G01 X15.479891 Y20.202666 Z-1.000000
G01 X15.492480 Y20.213536 Z-1.000000
G01 X15.505247 Y20.211055 Z-1.000000
G01 X15.511940 Y20.196016 Z-1.000000
G01 X15.524157 Y20.175827 Z-1.000000
G03 X15.562540 Y20.169516 Z-1.000000 I0.028728 J0.054850
G01 X15.570446 Y20.166930 Z-1.000000
G01 X15.574220 Y20.157796 Z-1.000000
G01 X15.580374 Y20.151642 Z-1.000000
G03 X15.646870 Y20.157809 Z-1.000000 I-0.000024 J0.361834
G02 X15.718691 Y20.169089 Z-1.000000 I0.225515 J-1.201544
G01 X15.722660 Y20.167509 Z-1.000000
G01 X15.724683 Y20.163206 Z-1.000000
G02 X15.736000 Y20.101319 Z-1.000000 I-1.742217 J-0.350560
G02 X15.732354 Y20.070578 Z-1.000000 I-0.055104 J-0.009052
G01 X15.722500 Y20.069259 Z-1.000000
G03 X15.704104 Y20.084104 Z-1.000000 I-0.041402 J-0.032484
G01 X15.698790 Y20.080779 Z-1.000000
G01 X15.703863 Y20.064420 Z-1.000000
G03 X15.729930 Y20.035419 Z-1.000000 I0.123286 J0.084598
G02 X15.754351 Y20.005662 Z-1.000000 I-0.071595 J-0.083658
G02 X15.761070 Y19.979969 Z-1.000000 I-0.045769 J-0.025693
G01 X15.769044 Y19.970426 Z-1.000000
G01 X15.785420 Y19.975569 Z-1.000000
G03 X15.801572 Y20.000870 Z-1.000000 I-0.049244 J0.049244
G01 X15.800070 Y20.015609 Z-1.000000
G01 X15.800939 Y20.025385 Z-1.000000
G01 X15.814160 Y20.031299 Z-1.000000
G01 X15.826838 Y20.038933 Z-1.000000
G01 X15.827950 Y20.057359 Z-1.000000
G01 X15.830758 Y20.070599 Z-1.000000
G01 X15.844010 Y20.073419 Z-1.000000
G01 X15.864117 Y20.072026 Z-1.000000
G01 X15.870070 Y20.079519 Z-1.000000
G01 X15.864157 Y20.088994 Z-1.000000
G01 X15.842820 Y20.092809 Z-1.000000
G02 X15.760473 Y20.097002 Z-1.000000 I-0.027511 J0.270397
G01 X15.754420 Y20.111029 Z-1.000000
G01 X15.769033 Y20.120170 Z-1.000000
G02 X15.834830 Y20.118929 Z-1.000000 I0.027597 J-0.281674
G03 X15.889461 Y20.121290 Z-1.000000 I0.020789 J0.152179
G01 X15.895550 Y20.132669 Z-1.000000
G01 X15.902906 Y20.142926 Z-1.000000
G02 X15.940560 Y20.130869 Z-1.000000 I-0.002967 J-0.074092
G03 X15.979640 Y20.113429 Z-1.000000 I0.073425 J0.112028
G01 X16.001790 Y20.114619 Z-1.000000
G01 X16.022474 Y20.116588 Z-1.000000
G01 X16.033650 Y20.109019 Z-1.000000
G01 X16.045582 Y20.101624 Z-1.000000
G03 X16.088640 Y20.103819 Z-1.000000 I0.014011 J0.148587
G02 X16.126925 Y20.103512 Z-1.000000 I0.018404 J-0.092434
G01 X16.134750 Y20.093819 Z-1.000000
G01 X16.141541 Y20.084192 Z-1.000000
G01 X16.162000 Y20.084119 Z-1.000000
G01 X16.165684 Y20.080135 Z-1.000000
G01 X16.152600 Y20.062549 Z-1.000000
G03 X16.134579 Y20.034659 Z-1.000000 I0.037120 J-0.043752
G01 X16.140920 Y20.021929 Z-1.000000
G01 X16.167601 Y19.989586 Z-1.000000
G01 X16.150320 Y19.968979 Z-1.000000
G01 X16.139214 Y19.964469 Z-1.000000
G01 X16.134750 Y19.953899 Z-1.000000
G01 X16.140116 Y19.946637 Z-1.000000
G01 X16.156570 Y19.947199 Z-1.000000
G03 X16.198150 Y19.990309 Z-1.000000 I-0.025261 J0.065972
G01 X16.180000 Y20.015699 Z-1.000000
G01 X16.171021 Y20.026547 Z-1.000000
G02 X16.190350 Y20.070119 Z-1.000000 I0.102866 J-0.019560
G01 X16.213069 Y20.084933 Z-1.000000
G01 X16.227590 Y20.078919 Z-1.000000
G01 X16.243385 Y20.068930 Z-1.000000
G01 X16.263440 Y20.074919 Z-1.000000
G02 X16.285205 Y20.085985 Z-1.000000 I0.035375 J-0.042639
G01 X16.295690 Y20.083119 Z-1.000000
G03 X16.600908 Y19.954822 Z-1.000000 I0.309793 J0.309793
G03 X16.726409 Y20.079019 Z-1.000000 I0.001297 J0.124197
G01 X16.731666 Y20.088319 Z-1.000000
G01 X16.750679 Y20.093599 Z-1.000000
G01 X16.765164 Y20.088151 Z-1.000000
G01 X16.766419 Y20.079789 Z-1.000000
G01 X16.775116 Y20.040590 Z-1.000000
G01 X16.823719 Y20.042199 Z-1.000000
G01 X16.845148 Y20.049799 Z-1.000000
G02 X16.944388 Y20.046499 Z-1.000000 I0.025712 J-0.720657
G01 X17.023538 Y20.033709 Z-1.000000
G01 X17.010734 Y20.028102 Z-1.000000
G01 X17.010528 Y20.022289 Z-1.000000
G01 X17.020518 Y20.019340 Z-1.000000
G03 X17.053718 Y20.031489 Z-1.000000 I-0.026676 J0.124338
G02 X17.086548 Y20.040904 Z-1.000000 I0.038273 J-0.071508
G01 X17.102838 Y20.034789 Z-1.000000
G01 X17.120179 Y20.026772 Z-1.000000
G03 X17.189218 Y20.027889 Z-1.000000 I0.028772 J0.355662
G02 X17.242834 Y20.020537 Z-1.000000 I0.012361 J-0.109034
G01 X17.251878 Y20.002499 Z-1.000000
G03 X17.251150 Y19.975201 Z-1.000000 I0.058281 J-0.015212
G01 X17.258678 Y19.969059 Z-1.000000
G01 X17.269965 Y19.974659 Z-1.000000
G03 X17.282388 Y20.000199 Z-1.000000 I-0.057797 J0.043904
G01 X17.303616 Y20.024096 Z-1.000000
G01 X17.325118 Y20.016919 Z-1.000000
G01 X17.336985 Y20.010089 Z-1.000000
G03 X17.379858 Y20.015619 Z-1.000000 I0.003264 J0.143646
G02 X17.425855 Y20.024500 Z-1.000000 I0.073575 J-0.257512
G02 X17.453608 Y20.023219 Z-1.000000 I0.009618 J-0.092910
G02 X17.551506 Y19.994822 Z-1.000000 I-0.116609 J-0.584967
G01 X17.552408 Y19.985139 Z-1.000000
G01 X17.540392 Y19.969188 Z-1.000000
G01 X17.541428 Y19.946299 Z-1.000000
G01 X17.563973 Y19.939897 Z-1.000000
G01 X17.582728 Y19.977769 Z-1.000000
G02 X17.591116 Y20.007412 Z-1.000000 I0.056570 J-0.000000
G01 X17.606088 Y20.015779 Z-1.000000
G01 X17.623634 Y20.009929 Z-1.000000
G01 X17.629448 Y19.998299 Z-1.000000
G01 X17.634978 Y19.991882 Z-1.000000
G01 X17.648908 Y19.995399 Z-1.000000
G02 X17.694644 Y20.003518 Z-1.000000 I0.030943 J-0.041431
G01 X17.719898 Y19.974199 Z-1.000000
G01 X17.713177 Y19.948690 Z-1.000000
G01 X17.688758 Y19.933849 Z-1.000000
G01 X17.781258 Y19.927049 Z-1.000000
G03 X17.903336 Y19.933092 Z-1.000000 I0.002613 J1.183288
G01 X17.909713 Y19.940149 Z-1.000000
G01 X17.914646 Y19.948649 Z-1.000000
G01 X17.933063 Y19.953539 Z-1.000000
G01 X17.950992 Y19.958964 Z-1.000000
G01 X17.956423 Y19.969109 Z-1.000000
G01 X17.961956 Y19.979186 Z-1.000000
G01 X17.980823 Y19.984679 Z-1.000000
G01 X17.994133 Y19.976569 Z-1.000000
G01 X17.995933 Y19.955379 Z-1.000000
G01 X18.011062 Y19.925439 Z-1.000000
G03 X18.166620 Y19.897339 Z-1.000000 I0.171333 J0.503861
G02 X18.291179 Y19.893612 Z-1.000000 I-2.504570 J-85.794122
G02 X18.326216 Y19.892439 Z-1.000000 I-0.189211 J-6.174082
G02 X18.354877 Y19.885104 Z-1.000000 I-0.002339 J-0.068801
G01 X18.361246 Y19.874759 Z-1.000000
G01 X18.356278 Y19.867140 Z-1.000000
G01 X18.345676 Y19.867859 Z-1.000000
G01 X18.337347 Y19.860540 Z-1.000000
G03 X18.369296 Y19.815619 Z-1.000000 I0.130569 J0.059040
G02 X18.396032 Y19.771336 Z-1.000000 I-0.067073 J-0.070709
G01 X18.384686 Y19.760989 Z-1.000000
G01 X18.370770 Y19.773068 Z-1.000000
G01 X18.371066 Y19.785519 Z-1.000000
G01 X18.368287 Y19.791525 Z-1.000000
G03 X18.343726 Y19.789719 Z-1.000000 I-0.008342 J-0.054463
G01 X18.313822 Y19.763794 Z-1.000000
G03 X18.311596 Y19.721639 Z-1.000000 I0.050437 J-0.023800
G02 X18.317900 Y19.679469 Z-1.000000 I-0.108206 J-0.037732
G01 X18.309496 Y19.667329 Z-1.000000
G01 X18.305292 Y19.657623 Z-1.000000
G03 X18.321386 Y19.635269 Z-1.000000 I0.048675 J0.018074
G01 X18.332257 Y19.617757 Z-1.000000
G01 X18.326786 Y19.610939 Z-1.000000
G01 X18.312767 Y19.602555 Z-1.000000
G01 X18.310056 Y19.579799 Z-1.000000
G03 X18.323566 Y19.555588 Z-1.000000 I0.053753 J0.014121
G01 X18.339736 Y19.548659 Z-1.000000
G01 X18.356008 Y19.543395 Z-1.000000
G01 X18.361276 Y19.533089 Z-1.000000
G01 X18.356578 Y19.522201 Z-1.000000
G01 X18.344786 Y19.517519 Z-1.000000
G01 X18.337053 Y19.512654 Z-1.000000
G01 X18.337586 Y19.502519 Z-1.000000
G01 X18.350627 Y19.494549 Z-1.000000
G03 X18.462810 Y19.492719 Z-1.000000 I0.071082 J0.917870
G02 X18.574994 Y19.489443 Z-1.000000 I0.034059 J-0.756101
G01 X18.594456 Y19.479039 Z-1.000000
G01 X18.591264 Y19.458455 Z-1.000000
G01 X18.556796 Y19.454879 Z-1.000000
G01 X18.535401 Y19.447822 Z-1.000000
G03 X18.519226 Y19.396269 Z-1.000000 I0.086451 J-0.055439
G02 X18.510079 Y19.328142 Z-1.000000 I-0.360040 J0.013662
G01 X18.500106 Y19.314269 Z-1.000000
G03 X18.442862 Y19.222731 Z-1.000000 I0.064150 J-0.103784
G01 X18.486066 Y19.174949 Z-1.000000
G01 X18.494600 Y19.170121 Z-1.000000
G01 X18.494566 Y19.160839 Z-1.000000
G01 X18.453742 Y19.149608 Z-1.000000
G01 X18.435006 Y19.191859 Z-1.000000
G01 X18.435293 Y19.215897 Z-1.000000
G01 X18.428006 Y19.221659 Z-1.000000
G01 X18.419640 Y19.215733 Z-1.000000
G03 X18.415786 Y19.186789 Z-1.000000 I0.067408 J-0.023705
G02 X18.396558 Y19.121640 Z-1.000000 I-0.096270 J-0.006999
G01 X18.364906 Y19.119439 Z-1.000000
G01 X18.363351 Y19.128919 Z-1.000000
G01 X18.376946 Y19.143849 Z-1.000000
G01 X18.380017 Y19.155842 Z-1.000000
G01 X18.360926 Y19.172099 Z-1.000000
G03 X18.300365 Y19.176645 Z-1.000000 I-0.038158 J-0.102681
G01 X18.292246 Y19.157739 Z-1.000000
G01 X18.292758 Y19.148315 Z-1.000000
G01 X18.285646 Y19.143799 Z-1.000000
G01 X18.273183 Y19.148199 Z-1.000000
G01 X18.261376 Y19.163259 Z-1.000000
G01 X18.252284 Y19.168999 Z-1.000000
G01 X18.243176 Y19.163162 Z-1.000000
G01 X18.231654 Y19.151681 Z-1.000000
G01 X18.219816 Y19.152402 Z-1.000000
G01 X18.210356 Y19.152685 Z-1.000000
G01 X18.205576 Y19.144702 Z-1.000000
G01 X18.199287 Y19.134463 Z-1.000000
G02 X18.173136 Y19.128212 Z-1.000000 I-0.026151 J0.051579
G01 X18.150995 Y19.120832 Z-1.000000
G01 X18.147226 Y19.108752 Z-1.000000
G01 X18.158316 Y19.095624 Z-1.000000
G03 X18.183556 Y19.089272 Z-1.000000 I0.025272 J0.047102
G01 X18.192960 Y19.073279 Z-1.000000
G01 X18.164556 Y19.055062 Z-1.000000
G03 X18.123615 Y19.049161 Z-1.000000 I0.025117 J-0.319261
G03 X18.098086 Y19.040982 Z-1.000000 I0.027072 J-0.128423
G02 X18.042317 Y19.028400 Z-1.000000 I-0.060443 J0.138028
G02 X17.956450 Y19.036582 Z-1.000000 I-0.010644 J0.342967
G03 X17.885887 Y19.048894 Z-1.000000 I-0.160122 J-0.709323
G03 X17.778764 Y19.058662 Z-1.000000 I-0.203583 J-1.640403
G03 X17.676220 Y19.054190 Z-1.000000 I-0.029432 J-0.502997
G01 X17.653069 Y19.040232 Z-1.000000
G01 X17.630574 Y19.026389 Z-1.000000
G02 X17.570039 Y19.026492 Z-1.000000 I-0.029960 J0.180897
G02 X17.508281 Y19.042223 Z-1.000000 I0.063624 J0.378879
G01 X17.496139 Y19.051932 Z-1.000000
G01 X17.485448 Y19.059083 Z-1.000000
G01 X17.470519 Y19.056132 Z-1.000000
G02 X17.431516 Y19.043743 Z-1.000000 I-0.044345 J0.072018
G02 X17.123442 Y19.034242 Z-1.000000 I-0.300727 J4.751649
G02 X16.913407 Y19.044373 Z-1.000000 I0.003442 J2.253569
G02 X16.806572 Y19.064392 Z-1.000000 I0.057052 J0.599559
G03 X16.733779 Y19.071586 Z-1.000000 I-0.056498 J-0.199811
G01 X16.728882 Y19.058292 Z-1.000000
G03 X16.773142 Y19.036202 Z-1.000000 I0.055184 J0.055184
G03 X17.012679 Y19.018162 Z-1.000000 I0.257803 J1.823777
G02 X17.096387 Y19.011957 Z-1.000000 I-0.006473 J-0.655057
G01 X17.097049 Y19.006482 Z-1.000000
G02 X17.069805 Y19.001032 Z-1.000000 I-0.028359 J0.070946
G02 X16.900227 Y19.003682 Z-1.000000 I-0.040953 J2.806674
G02 X16.737033 Y19.026016 Z-1.000000 I0.041455 J0.910294
G02 X16.697469 Y19.050392 Z-1.000000 I0.016310 J0.070770
G03 X16.670262 Y19.074479 Z-1.000000 I-0.091650 J-0.076111
G01 X16.664629 Y19.071512 Z-1.000000
G01 X16.656627 Y19.063348 Z-1.000000
G02 X16.599219 Y19.068312 Z-1.000000 I-0.010486 J0.213172
G03 X16.531552 Y19.066232 Z-1.000000 I-0.029791 J-0.132558
G01 X16.531759 Y19.048732 Z-1.000000
G01 X16.531273 Y19.043758 Z-1.000000
G02 X16.446119 Y19.043232 Z-1.000000 I-0.047127 J0.735937
G03 X16.313763 Y19.049955 Z-1.000000 I-2.455058 J-47.027279
G03 X16.239206 Y19.053432 Z-1.000000 I-0.671681 J-13.601337
G01 X16.164636 Y19.056732 Z-1.000000
G01 X16.158936 Y18.940678 Z-1.000000
G03 X16.155031 Y18.824566 Z-1.000000 I3.522772 J-0.176608
G03 X16.147866 Y18.303979 Z-1.000000 I76.770576 J-1.316909
G01 X16.142566 Y17.783334 Z-1.000000
G01 X16.313839 Y17.786534 Z-1.000000
G03 X16.485065 Y17.791158 Z-1.000000 I-0.172642 J9.566403
G03 X16.889939 Y17.807184 Z-1.000000 I-2.013698 J55.993885
G02 X18.145230 Y17.827927 Z-1.000000 I1.016819 J-23.541488
G02 X20.245331 Y17.773194 Z-1.000000 I-0.667130 J-65.915953
G03 X20.626830 Y17.757896 Z-1.000000 I4.344551 J103.582470
G03 X21.054985 Y17.742244 Z-1.000000 I4.834478 J126.377657
G02 X21.483106 Y17.725887 Z-1.000000 I-2.204136 J-63.301715
G02 X21.786787 Y17.711834 Z-1.000000 I-1.351600 J-32.495508
G02 X22.929019 Y17.649985 Z-1.000000 I-9.268544 J-181.751059
G02 X23.009053 Y17.641804 Z-1.000000 I-0.051577 J-0.900120
G03 X23.071556 Y17.634665 Z-1.000000 I0.135902 J0.912676
G03 X23.406095 Y17.610044 Z-1.000000 I2.164402 J27.123705
G02 X23.740841 Y17.587257 Z-1.000000 I-16.898505 J-250.711547
G02 X23.966625 Y17.571514 Z-1.000000 I-7.940540 J-115.509840
G03 X24.571325 Y17.534699 Z-1.000000 I2.182365 J30.861678
G01 X24.581651 Y17.540114 Z-1.000000
G01 X24.584259 Y17.549014 Z-1.000000
G03 X24.590951 Y18.233193 Z-1.000000 I-93.070080 J1.252490
G01 X24.595151 Y18.918082 Z-1.000000
G01 X24.533881 Y18.917085 Z-1.000000
G03 X24.044609 Y18.899057 Z-1.000000 I0.190085 J-11.807220
G03 X23.561747 Y18.861155 Z-1.000000 I0.670761 J-11.640030
G02 X21.588362 Y18.771121 Z-1.000000 I-1.826903 J18.370912
G02 X20.140181 Y18.888305 Z-1.000000 I0.079238 J9.986271
G02 X20.095773 Y18.901439 Z-1.000000 I0.026413 J0.170945
G01 X20.089581 Y18.911005 Z-1.000000
G01 X20.084231 Y18.920548 Z-1.000000
G01 X20.065311 Y18.925875 Z-1.000000
G01 X20.051641 Y18.919968 Z-1.000000
G01 X20.050661 Y18.910305 Z-1.000000
G01 X20.046678 Y18.902378 Z-1.000000
G02 X19.884199 Y18.895825 Z-1.000000 I-0.151701 J1.743894
G02 X19.740242 Y18.903132 Z-1.000000 I0.010073 J1.620189
G01 X19.739255 Y18.909725 Z-1.000000
G01 X19.751191 Y18.922137 Z-1.000000
G01 X19.747055 Y18.931035 Z-1.000000
G03 X19.654901 Y18.950450 Z-1.000000 I-0.113998 J-0.312680
G03 X19.303302 Y18.960275 Z-1.000000 I-0.305885 J-4.650410
G01 X19.279952 Y18.968575 Z-1.000000
G03 X19.313413 Y18.998593 Z-1.000000 I-0.021516 J0.057643
G01 X19.306792 Y19.021995 Z-1.000000
G01 X19.290506 Y19.024979 Z-1.000000
G01 X19.278212 Y19.016495 Z-1.000000
G01 X19.265917 Y19.007953 Z-1.000000
G01 X19.249922 Y19.010795 Z-1.000000
G01 X19.240836 Y19.031161 Z-1.000000
G02 X19.272442 Y19.136042 Z-1.000000 I0.470728 J-0.084652
G03 X19.307821 Y19.254084 Z-1.000000 I-0.487557 J0.210450
G01 X19.295822 Y19.268389 Z-1.000000
G01 X19.286000 Y19.274401 Z-1.000000
G02 X19.279952 Y19.299529 Z-1.000000 I0.049181 J0.025128
G03 X19.274008 Y19.324719 Z-1.000000 I-0.056346 J-0.000000
G01 X19.264382 Y19.330669 Z-1.000000
G01 X19.254656 Y19.324779 Z-1.000000
G03 X19.248812 Y19.300989 Z-1.000000 I0.045501 J-0.023790
G01 X19.239378 Y19.283556 Z-1.000000
G01 X19.216352 Y19.279799 Z-1.000000
G01 X19.201987 Y19.290999 Z-1.000000
G01 X19.204652 Y19.301119 Z-1.000000
G01 X19.203264 Y19.306734 Z-1.000000
G03 X19.126102 Y19.306419 Z-1.000000 I-0.036400 J-0.534877
G03 X19.027740 Y19.295999 Z-1.000000 I0.120918 J-1.610866
G01 X19.014315 Y19.291179 Z-1.000000
G01 X19.003424 Y19.290265 Z-1.000000
G01 X18.991405 Y19.300379 Z-1.000000
G01 X18.992470 Y19.312672 Z-1.000000
G01 X19.014125 Y19.325919 Z-1.000000
G01 X19.035109 Y19.341305 Z-1.000000
G01 X19.037995 Y19.363799 Z-1.000000
G01 X19.039529 Y19.385079 Z-1.000000
G01 X19.052205 Y19.393009 Z-1.000000
G01 X19.088839 Y19.409822 Z-1.000000
G01 X19.087905 Y19.434529 Z-1.000000
G01 X19.078937 Y19.437434 Z-1.000000
G03 X19.059095 Y19.430029 Z-1.000000 I0.008512 J-0.053094
G01 X19.021083 Y19.431540 Z-1.000000
G02 X18.999675 Y19.474039 Z-1.000000 I0.031481 J0.042499
G02 X19.012054 Y19.520721 Z-1.000000 I0.094210 J0.000000
G01 X19.030815 Y19.528619 Z-1.000000
G01 X19.051343 Y19.537372 Z-1.000000
G01 X19.046385 Y19.556489 Z-1.000000
G01 X19.041693 Y19.578925 Z-1.000000
G01 X19.073635 Y19.595909 Z-1.000000
G01 X19.088813 Y19.605494 Z-1.000000
G01 X19.085385 Y19.619879 Z-1.000000
G01 X19.069753 Y19.642634 Z-1.000000
G01 X19.074955 Y19.656109 Z-1.000000
G01 X19.087208 Y19.672851 Z-1.000000
G03 X19.089565 Y19.713879 Z-1.000000 I-0.105288 J0.026629
G01 X19.083565 Y19.758899 Z-1.000000
G01 X19.064555 Y19.713919 Z-1.000000
G01 X19.048912 Y19.709866 Z-1.000000
G01 X19.040415 Y19.732799 Z-1.000000
G02 X19.055472 Y19.769631 Z-1.000000 I0.103404 J-0.020779
G01 X19.065995 Y19.771979 Z-1.000000
G03 X19.082702 Y19.765054 Z-1.000000 I0.029465 J0.047471
G03 X19.114495 Y19.760559 Z-1.000000 I0.040825 J0.174067
G01 X19.140152 Y19.750795 Z-1.000000
G01 X19.152805 Y19.729799 Z-1.000000
G01 X19.148977 Y19.714366 Z-1.000000
G01 X19.139075 Y19.712649 Z-1.000000
G01 X19.130827 Y19.709319 Z-1.000000
G03 X19.130675 Y19.679459 Z-1.000000 I0.060150 J-0.015237
G02 X19.139657 Y19.634089 Z-1.000000 I-0.538513 J-0.130180
G02 X19.141765 Y19.608119 Z-1.000000 I-0.177293 J-0.027464
G03 X19.147510 Y19.584538 Z-1.000000 I0.052999 J0.000423
G03 X19.164645 Y19.563099 Z-1.000000 I0.060319 J0.030640
G01 X19.175396 Y19.560892 Z-1.000000
G01 X19.178505 Y19.567199 Z-1.000000
G02 X19.175045 Y19.590520 Z-1.000000 I0.051370 J0.019539
G02 X19.184905 Y19.657939 Z-1.000000 I0.445621 J-0.030741
G03 X19.192818 Y19.724726 Z-1.000000 I-0.320766 J0.071867
G03 X19.186305 Y19.751589 Z-1.000000 I-0.055141 J0.000852
G01 X19.189846 Y19.791439 Z-1.000000
G02 X19.235105 Y19.813359 Z-1.000000 I0.045259 J-0.035763
G01 X19.257836 Y19.819333 Z-1.000000
G01 X19.269685 Y19.832819 Z-1.000000
G01 X19.274509 Y19.834316 Z-1.000000
G01 X19.278785 Y19.826819 Z-1.000000
G01 X19.288894 Y19.809356 Z-1.000000
G03 X19.330615 Y19.793629 Z-1.000000 I0.057917 J0.090443
G03 X19.377189 Y19.797535 Z-1.000000 I0.015130 J0.099215
G01 X19.377325 Y19.809019 Z-1.000000
G01 X19.363387 Y19.819855 Z-1.000000
G01 X19.357865 Y19.838029 Z-1.000000
G01 X19.352029 Y19.854278 Z-1.000000
G01 X19.339705 Y19.860089 Z-1.000000
G01 X19.330695 Y19.863873 Z-1.000000
G01 X19.330705 Y19.869289 Z-1.000000
G01 X19.340358 Y19.870998 Z-1.000000
G02 X19.389065 Y19.842069 Z-1.000000 I-0.118351 J-0.254733
G03 X19.435461 Y19.824881 Z-1.000000 I0.052879 J0.071525
G01 X19.461565 Y19.836769 Z-1.000000
G01 X19.476579 Y19.848258 Z-1.000000
G01 X19.481195 Y19.844569 Z-1.000000
G01 X19.501897 Y19.799880 Z-1.000000
G03 X19.576195 Y19.786659 Z-1.000000 I0.054127 J0.088802
G03 X19.645273 Y19.810328 Z-1.000000 I-0.052706 J0.266456
G01 X19.661675 Y19.829539 Z-1.000000
G02 X19.675154 Y19.852826 Z-1.000000 I0.058870 J-0.018530
G02 X19.696255 Y19.867159 Z-1.000000 I0.041197 J-0.037953
G01 X19.701821 Y19.863200 Z-1.000000
G01 X19.695662 Y19.847909 Z-1.000000
G03 X19.681896 Y19.815811 Z-1.000000 I0.039921 J-0.036122
G01 X19.692662 Y19.807799 Z-1.000000
G01 X19.709806 Y19.807716 Z-1.000000
G01 X19.716022 Y19.798599 Z-1.000000
G01 X19.721349 Y19.790015 Z-1.000000
G01 X19.732352 Y19.790499 Z-1.000000
G01 X19.738639 Y19.802254 Z-1.000000
G01 X19.731352 Y19.821469 Z-1.000000
G01 X19.728489 Y19.839511 Z-1.000000
G01 X19.746602 Y19.859789 Z-1.000000
G03 X19.770433 Y19.879586 Z-1.000000 I-0.036571 J0.068266
G01 X19.771092 Y19.890319 Z-1.000000
G01 X19.774451 Y19.896708 Z-1.000000
G02 X19.901967 Y19.897419 Z-1.000000 I0.071090 J-1.314019
G03 X20.037135 Y19.901170 Z-1.000000 I0.041044 J0.958243
G01 X20.062860 Y19.913339 Z-1.000000
G02 X20.145679 Y19.948984 Z-1.000000 I0.086167 J-0.086167
G02 X20.224117 Y19.917739 Z-1.000000 I0.002933 J-0.106715
G03 X20.270168 Y19.900040 Z-1.000000 I0.042923 J0.042923
G03 X20.338839 Y19.923639 Z-1.000000 I-0.006783 J0.131450
G01 X20.338573 Y19.928798 Z-1.000000
G01 X20.327159 Y19.930139 Z-1.000000
G02 X20.297853 Y19.927885 Z-1.000000 I-0.020315 J0.072495
G01 X20.292129 Y19.934339 Z-1.000000
G01 X20.306385 Y19.953598 Z-1.000000
G02 X20.350389 Y19.952119 Z-1.000000 I0.019843 J-0.064990
G01 X20.384365 Y19.953926 Z-1.000000
G01 X20.385109 Y19.969729 Z-1.000000
G01 X20.380566 Y19.978994 Z-1.000000
G01 X20.386509 Y19.984449 Z-1.000000
G01 X20.405031 Y19.976058 Z-1.000000
G02 X20.431439 Y19.932199 Z-1.000000 I-0.115869 J-0.099646
G01 X20.477350 Y19.904780 Z-1.000000
G01 X20.510079 Y19.941699 Z-1.000000
G01 X20.519743 Y19.967942 Z-1.000000
G01 X20.533429 Y19.969119 Z-1.000000
G02 X20.550592 Y19.946820 Z-1.000000 I-0.040743 J-0.049113
G02 X20.556789 Y19.918689 Z-1.000000 I-0.060750 J-0.028131
G01 X20.567644 Y19.901598 Z-1.000000
G01 X20.599609 Y19.898569 Z-1.000000
G02 X20.642792 Y19.906210 Z-1.000000 I0.072890 J-0.286092
G02 X20.693989 Y19.908069 Z-1.000000 I0.039991 J-0.395415
G03 X20.732897 Y19.913967 Z-1.000000 I0.003012 J0.111410
G01 X20.735889 Y19.922309 Z-1.000000
G01 X20.723638 Y19.933280 Z-1.000000
G01 X20.702869 Y19.937949 Z-1.000000
G01 X20.689969 Y19.943771 Z-1.000000
G01 X20.689139 Y19.953519 Z-1.000000
G01 X20.689855 Y19.964137 Z-1.000000
G01 X20.682239 Y19.969089 Z-1.000000
G01 X20.671143 Y19.974540 Z-1.000000
G01 X20.665749 Y19.990349 Z-1.000000
G01 X20.674912 Y20.001655 Z-1.000000
G02 X20.737809 Y20.005609 Z-1.000000 I0.044906 J-0.212099
G02 X20.808885 Y19.996545 Z-1.000000 I-0.067950 J-0.816020
G01 X20.824129 Y19.990799 Z-1.000000
G01 X20.837860 Y19.988800 Z-1.000000
G03 X20.861059 Y20.000809 Z-1.000000 I-0.015868 J0.059065
G01 X20.878418 Y20.008305 Z-1.000000
G01 X20.883729 Y20.003609 Z-1.000000
G01 X20.889780 Y19.995442 Z-1.000000
G01 X20.912069 Y19.995009 Z-1.000000
G01 X20.937688 Y19.993976 Z-1.000000
G02 X20.960689 Y19.977979 Z-1.000000 I-0.017427 J-0.049592
G03 X20.983587 Y19.959114 Z-1.000000 I0.060847 J0.050524
G01 X21.005399 Y19.953539 Z-1.000000
G01 X21.010461 Y19.960044 Z-1.000000
G01 X20.999599 Y19.976399 Z-1.000000
G01 X20.989662 Y19.992662 Z-1.000000
G01 X20.995499 Y19.999749 Z-1.000000
G02 X21.019410 Y19.994734 Z-1.000000 I0.001037 J-0.054566
G02 X21.044989 Y19.976889 Z-1.000000 I-0.037192 J-0.080568
G03 X21.069936 Y19.957375 Z-1.000000 I0.092568 J0.092640
G01 X21.083729 Y19.953539 Z-1.000000
G01 X21.096127 Y19.949013 Z-1.000000
G01 X21.106969 Y19.934079 Z-1.000000
G01 X21.111729 Y19.932827 Z-1.000000
G01 X21.116069 Y19.941279 Z-1.000000
G01 X21.139062 Y19.977981 Z-1.000000
G02 X21.210719 Y19.992579 Z-1.000000 I0.059808 J-0.110409
G03 X21.248039 Y19.994391 Z-1.000000 I0.012307 J0.131746
G01 X21.268469 Y20.003719 Z-1.000000
G01 X21.288911 Y20.011589 Z-1.000000
G02 X21.334739 Y20.008119 Z-1.000000 I0.010656 J-0.163620
G03 X21.382479 Y19.999875 Z-1.000000 I0.117296 J0.536888
G03 X21.455519 Y19.992759 Z-1.000000 I0.155908 J1.221894
G02 X21.523674 Y19.981113 Z-1.000000 I-0.022593 J-0.337469
G01 X21.534529 Y19.970789 Z-1.000000
G01 X21.544249 Y19.963893 Z-1.000000
G03 X21.572989 Y19.971304 Z-1.000000 I-0.000832 J0.062659
G02 X21.607619 Y19.981708 Z-1.000000 I0.042763 J-0.079505
G02 X21.785825 Y19.990644 Z-1.000000 I0.200430 J-2.215631
G01 X21.915275 Y19.997344 Z-1.000000
G01 X21.913674 Y20.011954 Z-1.000000
G02 X22.000915 Y20.025194 Z-1.000000 I0.083682 J-0.257343
G02 X22.125097 Y20.016048 Z-1.000000 I-0.013408 J-1.029701
G01 X22.129369 Y20.007934 Z-1.000000
G01 X22.117558 Y19.999237 Z-1.000000
G02 X22.051519 Y19.994824 Z-1.000000 I-0.054971 J0.326255
G03 X22.020294 Y19.988908 Z-1.000000 I-0.002469 J-0.072335
G01 X22.020379 Y19.981354 Z-1.000000
G03 X22.060599 Y19.971924 Z-1.000000 I0.050150 J0.123415
G03 X22.269504 Y19.962734 Z-1.000000 I0.254355 J3.402794
G03 X22.473373 Y19.973810 Z-1.000000 I0.020191 J1.510175
G03 X22.506604 Y19.991774 Z-1.000000 I-0.006293 J0.051359
G02 X22.527755 Y20.007469 Z-1.000000 I0.043940 J-0.037116
G01 X22.533854 Y20.003534 Z-1.000000
G01 X22.540158 Y19.997338 Z-1.000000
G01 X22.555994 Y20.003534 Z-1.000000
G01 X22.567468 Y20.024333 Z-1.000000
G01 X22.562994 Y20.041684 Z-1.000000
G01 X22.571508 Y20.057302 Z-1.000000
G02 X22.611694 Y20.036184 Z-1.000000 I-0.007007 J-0.062127
G02 X22.627059 Y20.009449 Z-1.000000 I-0.060322 J-0.052450
G01 X22.622324 Y20.004894 Z-1.000000
G01 X22.599821 Y20.007273 Z-1.000000
G01 X22.588244 Y19.999594 Z-1.000000
G01 X22.587744 Y19.989562 Z-1.000000
G01 X22.595544 Y19.984704 Z-1.000000
G01 X22.606376 Y19.979009 Z-1.000000
G01 X22.612034 Y19.960804 Z-1.000000
G01 X22.620244 Y19.950617 Z-1.000000
G01 X22.643764 Y19.953904 Z-1.000000
G02 X22.676119 Y19.964042 Z-1.000000 I0.043109 J-0.080888
G02 X22.706044 Y19.961204 Z-1.000000 I0.008375 J-0.070889
G01 X22.730262 Y19.960178 Z-1.000000
G01 X22.736594 Y19.968104 Z-1.000000
G01 X22.730388 Y19.978468 Z-1.000000
G03 X22.705454 Y19.984724 Z-1.000000 I-0.024934 J-0.046557
G02 X22.680264 Y19.990668 Z-1.000000 I0.000000 J0.056346
G01 X22.674314 Y20.000294 Z-1.000000
G01 X22.684286 Y20.011830 Z-1.000000
G02 X22.818139 Y20.021314 Z-1.000000 I0.130566 J-0.893416
G01 X22.839709 Y20.028735 Z-1.000000
G01 X22.854219 Y20.049674 Z-1.000000
G01 X22.886318 Y20.079548 Z-1.000000
G01 X22.907869 Y20.062564 Z-1.000000
G01 X22.903171 Y20.051676 Z-1.000000
G01 X22.891379 Y20.046994 Z-1.000000
G01 X22.883783 Y20.041995 Z-1.000000
G01 X22.884579 Y20.031304 Z-1.000000
G01 X22.895610 Y20.026835 Z-1.000000
G01 X22.918489 Y20.039804 Z-1.000000
G03 X22.934365 Y20.064022 Z-1.000000 I-0.050262 J0.050262
G01 X22.932169 Y20.074554 Z-1.000000
G01 X22.905389 Y20.086999 Z-1.000000
G03 X22.702786 Y20.094014 Z-1.000000 I-0.171335 J-2.019245
G02 X22.618304 Y20.099671 Z-1.000000 I-0.007944 J0.515013
G01 X22.604556 Y20.108734 Z-1.000000
G01 X22.604615 Y20.119284 Z-1.000000
G01 X22.614996 Y20.125034 Z-1.000000
G03 X22.635246 Y20.126528 Z-1.000000 I-0.001677 J0.160703
G03 X22.674306 Y20.133134 Z-1.000000 I-0.088136 J0.639919
G01 X22.682959 Y20.130492 Z-1.000000
G01 X22.682106 Y20.125234 Z-1.000000
G01 X22.683044 Y20.119645 Z-1.000000
G03 X22.721026 Y20.119834 Z-1.000000 I0.018335 J0.132263
G02 X22.791400 Y20.125695 Z-1.000000 I0.079331 J-0.527140
G02 X23.040217 Y20.125334 Z-1.000000 I0.114529 J-6.815119
G02 X23.386447 Y20.112301 Z-1.000000 I-0.192686 J-9.724101
G02 X23.437259 Y20.103374 Z-1.000000 I-0.012093 J-0.217910
G01 X23.452079 Y20.103333 Z-1.000000
G01 X23.452829 Y20.107974 Z-1.000000
G01 X23.455039 Y20.116384 Z-1.000000
G02 X23.639672 Y20.126104 Z-1.000000 I0.202302 J-2.084336
G03 X24.678493 Y20.152989 Z-1.000000 I-0.253102 J29.863406
G01 X24.683262 Y20.171274 Z-1.000000
G01 X24.671091 Y20.216920 Z-1.000000
G02 X24.725552 Y20.249364 Z-1.000000 I0.054461 J-0.029488
G01 X24.739296 Y20.262124 Z-1.000000
G01 X24.728652 Y20.290824 Z-1.000000
G01 X24.729156 Y20.302211 Z-1.000000
G02 X24.759792 Y20.316904 Z-1.000000 I0.044121 J-0.052710
G03 X24.800539 Y20.332119 Z-1.000000 I-0.026275 J0.132539
G01 X24.807472 Y20.344064 Z-1.000000
G01 X24.801398 Y20.352844 Z-1.000000
G01 X24.784342 Y20.352764 Z-1.000000
G01 X24.776996 Y20.356887 Z-1.000000
G01 X24.780342 Y20.374454 Z-1.000000
G02 X24.801893 Y20.400580 Z-1.000000 I0.109623 J-0.068473
G01 X24.813162 Y20.405014 Z-1.000000
G01 X24.817455 Y20.409655 Z-1.000000
G01 X24.811662 Y20.424474 Z-1.000000
G02 X24.783347 Y20.490341 Z-1.000000 I0.110716 J0.086613
G02 X24.793282 Y20.547661 Z-1.000000 I0.091527 J0.013658
G01 X24.797832 Y20.569814 Z-1.000000
G01 X24.790782 Y20.576281 Z-1.000000
G01 X24.782019 Y20.583325 Z-1.000000
G02 X24.782482 Y20.614071 Z-1.000000 I0.065409 J0.014392
G01 X24.778529 Y20.647249 Z-1.000000
G03 X24.742332 Y20.690701 Z-1.000000 I-0.118960 J-0.062295
G02 X24.708306 Y20.731228 Z-1.000000 I0.078810 J0.100716
G01 X24.710292 Y20.750751 Z-1.000000
G01 X24.719689 Y20.772528 Z-1.000000
G01 X24.715392 Y20.792211 Z-1.000000
G01 X24.705563 Y20.794423 Z-1.000000
G01 X24.693972 Y20.778441 Z-1.000000
G01 X24.680164 Y20.756672 Z-1.000000
G01 X24.666792 Y20.755711 Z-1.000000
G01 X24.661111 Y20.767016 Z-1.000000
G01 X24.668792 Y20.779521 Z-1.000000
G01 X24.677936 Y20.795419 Z-1.000000
G03 X24.670292 Y20.833241 Z-1.000000 I-0.085587 J0.002385
G02 X24.657584 Y20.874074 Z-1.000000 I0.154819 J0.070577
G01 X24.660392 Y20.888851 Z-1.000000
G01 X24.662692 Y20.903251 Z-1.000000
G01 X24.656197 Y20.903818 Z-1.000000
G02 X24.574312 Y20.918761 Z-1.000000 I1.119330 J6.365430
G03 X24.492185 Y20.931283 Z-1.000000 I-0.217755 J-1.152567
G03 X24.420377 Y20.936621 Z-1.000000 I-0.099880 J-0.857999
G02 X24.350966 Y20.947158 Z-1.000000 I0.010116 J0.300523
G02 X24.306915 Y20.967821 Z-1.000000 I0.037826 J0.137928
G03 X24.274445 Y20.981100 Z-1.000000 I-0.045741 J-0.065510
G01 X24.271305 Y20.973821 Z-1.000000
G01 X24.278551 Y20.958504 Z-1.000000
G01 X24.270388 Y20.950551 Z-1.000000
G02 X24.239588 Y20.952895 Z-1.000000 I-0.002279 J0.173537
G02 X24.184748 Y20.964761 Z-1.000000 I0.096086 J0.576755
G03 X24.129524 Y20.974571 Z-1.000000 I-0.085154 J-0.319009
G03 X23.920053 Y20.988781 Z-1.000000 I-0.413021 J-4.537475
G02 X23.709879 Y20.998687 Z-1.000000 I2.201479 J48.944373
G02 X23.585292 Y21.005321 Z-1.000000 I0.776107 J15.747860
G03 X23.460704 Y21.011925 Z-1.000000 I-0.907193 J-15.936361
G03 X23.289457 Y21.019791 Z-1.000000 I-1.335555 J-27.207485
G01 X23.118184 Y21.028491 Z-1.000000
G01 X23.016978 Y21.034191 Z-1.000000
G02 X22.916407 Y21.042092 Z-1.000000 I0.061551 J1.427467
G02 X22.880738 Y21.049771 Z-1.000000 I0.021085 J0.184628
G03 X22.851746 Y21.052779 Z-1.000000 I-0.021605 J-0.067009
G01 X22.845708 Y21.046071 Z-1.000000
G01 X22.839182 Y21.039316 Z-1.000000
G02 X22.787848 Y21.044171 Z-1.000000 I-0.006912 J0.200750
G03 X22.684561 Y21.058054 Z-1.000000 I-0.130172 J-0.577282
G03 X22.440877 Y21.059941 Z-1.000000 I-0.146847 J-3.228955
G01 X22.401947 Y21.058741 Z-1.000000
G01 X22.448657 Y21.027811 Z-1.000000
G03 X22.496399 Y21.000346 Z-1.000000 I0.242204 J0.365798
G01 X22.510937 Y20.997011 Z-1.000000
G01 X22.513336 Y21.000927 Z-1.000000
G01 X22.503637 Y21.011631 Z-1.000000
G01 X22.488965 Y21.027040 Z-1.000000
G01 X22.490107 Y21.035491 Z-1.000000
G01 X22.499538 Y21.037449 Z-1.000000
G02 X22.520937 Y21.023411 Z-1.000000 I-0.023108 J-0.058553
G03 X22.544084 Y21.009115 Z-1.000000 I0.041812 J0.041812
G01 X22.563887 Y21.009121 Z-1.000000
G01 X22.573509 Y21.006888 Z-1.000000
G01 X22.574507 Y20.998691 Z-1.000000
G01 X22.581358 Y20.986000 Z-1.000000
G03 X22.628777 Y20.997191 Z-1.000000 I0.002604 J0.095023
G02 X22.653328 Y21.003989 Z-1.000000 I0.027465 J-0.051461
G01 X22.658897 Y20.998691 Z-1.000000
G01 X22.664819 Y20.991650 Z-1.000000
G03 X22.692477 Y20.992791 Z-1.000000 I0.011198 J0.064347
G01 X22.711698 Y20.990081 Z-1.000000
G01 X22.714677 Y20.979651 Z-1.000000
G01 X22.726777 Y20.986551 Z-1.000000
G01 X22.763025 Y20.999040 Z-1.000000
G01 X22.772647 Y20.976131 Z-1.000000
G01 X22.775553 Y20.972345 Z-1.000000
G03 X22.803537 Y20.985331 Z-1.000000 I-0.030247 J0.101826
G02 X22.836232 Y20.995074 Z-1.000000 I0.032695 J-0.049989
G01 X22.846097 Y20.985331 Z-1.000000
G01 X22.854044 Y20.979816 Z-1.000000
G03 X22.877627 Y20.996651 Z-1.000000 I-0.018027 J0.050189
G02 X22.899701 Y21.015623 Z-1.000000 I0.061595 J-0.049340
G01 X22.904527 Y21.012221 Z-1.000000
G01 X22.911746 Y20.998460 Z-1.000000
G03 X22.956667 Y20.988861 Z-1.000000 I0.044921 J0.100305
G02 X22.999453 Y20.979519 Z-1.000000 I0.000000 J-0.102652
G01 X23.004627 Y20.966841 Z-1.000000
G01 X23.006934 Y20.957820 Z-1.000000
G01 X23.016047 Y20.957141 Z-1.000000
G01 X23.024843 Y20.955121 Z-1.000000
G01 X23.026837 Y20.940231 Z-1.000000
G03 X23.023666 Y20.911799 Z-1.000000 I0.072033 J-0.022426
G01 X23.030837 Y20.890141 Z-1.000000
G01 X23.060944 Y20.896253 Z-1.000000
G03 X23.046147 Y20.984831 Z-1.000000 I-0.138478 J0.022392
G01 X23.041100 Y21.006503 Z-1.000000
G01 X23.047045 Y21.012241 Z-1.000000
G01 X23.079555 Y20.990104 Z-1.000000
G02 X23.083805 Y20.918881 Z-1.000000 I-0.106949 J-0.042120
G01 X23.074405 Y20.882761 Z-1.000000
G01 X23.110925 Y20.919281 Z-1.000000
G02 X23.144096 Y20.941613 Z-1.000000 I0.073762 J-0.073762
G01 X23.153605 Y20.937311 Z-1.000000
G01 X23.164255 Y20.925034 Z-1.000000
G03 X23.190535 Y20.918821 Z-1.000000 I0.026280 J0.052473
G01 X23.208002 Y20.911402 Z-1.000000
G01 X23.209305 Y20.899361 Z-1.000000
G01 X23.212263 Y20.895241 Z-1.000000
G03 X23.236705 Y20.905661 Z-1.000000 I-0.016774 J0.073224
G02 X23.272268 Y20.914010 Z-1.000000 I0.029270 J-0.044764
G01 X23.296615 Y20.898561 Z-1.000000
G02 X23.305737 Y20.869810 Z-1.000000 I-0.051453 J-0.032148
G01 X23.298815 Y20.859611 Z-1.000000
G01 X23.289985 Y20.832457 Z-1.000000
G03 X23.334285 Y20.810051 Z-1.000000 I0.043584 J0.031175
G01 X23.337988 Y20.814225 Z-1.000000
G01 X23.332985 Y20.822291 Z-1.000000
G01 X23.314540 Y20.874102 Z-1.000000
G01 X23.357685 Y20.896801 Z-1.000000
G03 X23.454146 Y20.882173 Z-1.000000 I0.103981 J0.360313
G03 X23.497450 Y20.894001 Z-1.000000 I0.001592 J0.079357
G01 X23.503617 Y20.891196 Z-1.000000
G01 X23.500750 Y20.873961 Z-1.000000
G03 X23.490739 Y20.845539 Z-1.000000 I0.087801 J-0.046898
G01 X23.494550 Y20.840941 Z-1.000000
G01 X23.497081 Y20.837241 Z-1.000000
G01 X23.487350 Y20.822261 Z-1.000000
G01 X23.477774 Y20.796911 Z-1.000000
G01 X23.489250 Y20.791961 Z-1.000000
G01 X23.509370 Y20.798685 Z-1.000000
G01 X23.528820 Y20.790061 Z-1.000000
G01 X23.556319 Y20.791782 Z-1.000000
G03 X23.577390 Y20.852581 Z-1.000000 I-0.079167 J0.061488
G02 X23.583618 Y20.881621 Z-1.000000 I0.073138 J-0.000497
G01 X23.592810 Y20.887611 Z-1.000000
G01 X23.600179 Y20.881207 Z-1.000000
G02 X23.599110 Y20.843011 Z-1.000000 I-0.113185 J-0.015946
G01 X23.605139 Y20.808459 Z-1.000000
G01 X23.630640 Y20.790671 Z-1.000000
G03 X23.665588 Y20.789604 Z-1.000000 I0.020772 J0.107483
G01 X23.671090 Y20.795871 Z-1.000000
G01 X23.675985 Y20.801675 Z-1.000000
G01 X23.694440 Y20.799871 Z-1.000000
G01 X23.711783 Y20.799660 Z-1.000000
G01 X23.717800 Y20.808171 Z-1.000000
G01 X23.733505 Y20.817457 Z-1.000000
G01 X23.750170 Y20.790371 Z-1.000000
G01 X23.754782 Y20.774558 Z-1.000000
G01 X23.759270 Y20.774901 Z-1.000000
G01 X23.769995 Y20.785751 Z-1.000000
G01 X23.782950 Y20.784701 Z-1.000000
G01 X23.787107 Y20.787331 Z-1.000000
G03 X23.780150 Y20.809631 Z-1.000000 I-0.061577 J-0.006976
G02 X23.770243 Y20.843053 Z-1.000000 I0.076114 J0.040742
G01 X23.775950 Y20.858731 Z-1.000000
G01 X23.819420 Y20.869836 Z-1.000000
G01 X23.842280 Y20.839311 Z-1.000000
G01 X23.830558 Y20.828806 Z-1.000000
G02 X23.798680 Y20.844111 Z-1.000000 I0.005817 J0.052966
G01 X23.785060 Y20.850582 Z-1.000000
G01 X23.780000 Y20.846011 Z-1.000000
G03 X23.803411 Y20.793880 Z-1.000000 I0.069747 J-0.000000
G01 X23.827210 Y20.804051 Z-1.000000
G01 X23.831357 Y20.806100 Z-1.000000
G02 X23.850400 Y20.787631 Z-1.000000 I-0.050274 J-0.070888
G03 X23.873753 Y20.767079 Z-1.000000 I0.062067 J0.046983
G01 X23.883900 Y20.768431 Z-1.000000
G01 X23.887099 Y20.779195 Z-1.000000
G01 X23.878100 Y20.795861 Z-1.000000
G02 X23.860903 Y20.847682 Z-1.000000 I0.043051 J0.043051
G01 X23.889180 Y20.872141 Z-1.000000
G01 X23.896445 Y20.867099 Z-1.000000
G02 X23.902320 Y20.837111 Z-1.000000 I-0.087727 J-0.032757
G03 X23.914193 Y20.757002 Z-1.000000 I0.343708 J0.010008
G01 X23.926640 Y20.747341 Z-1.000000
G01 X23.930155 Y20.743330 Z-1.000000
G01 X23.925240 Y20.735491 Z-1.000000
G01 X23.915760 Y20.720146 Z-1.000000
G03 X23.918340 Y20.669551 Z-1.000000 I0.162611 J-0.017071
G01 X23.931498 Y20.650353 Z-1.000000
G01 X23.942130 Y20.654151 Z-1.000000
G01 X23.952508 Y20.656826 Z-1.000000
G01 X23.966890 Y20.630791 Z-1.000000
G02 X23.960844 Y20.586749 Z-1.000000 I-0.067046 J-0.013233
G01 X23.943880 Y20.585221 Z-1.000000
G01 X23.927968 Y20.594366 Z-1.000000
G01 X23.920680 Y20.588021 Z-1.000000
G01 X23.914321 Y20.566708 Z-1.000000
G01 X23.903570 Y20.560771 Z-1.000000
G01 X23.895658 Y20.567136 Z-1.000000
G01 X23.896770 Y20.591811 Z-1.000000
G01 X23.894234 Y20.609701 Z-1.000000
G01 X23.882250 Y20.613501 Z-1.000000
G01 X23.865097 Y20.599209 Z-1.000000
G01 X23.857880 Y20.573381 Z-1.000000
G01 X23.850610 Y20.552933 Z-1.000000
G01 X23.838420 Y20.549511 Z-1.000000
G01 X23.826569 Y20.561167 Z-1.000000
G02 X23.822900 Y20.591051 Z-1.000000 I0.060408 J0.022585
G01 X23.818124 Y20.614936 Z-1.000000
G01 X23.807330 Y20.619101 Z-1.000000
G01 X23.793755 Y20.608024 Z-1.000000
G03 X23.786230 Y20.582751 Z-1.000000 I0.048717 J-0.028262
G02 X23.775189 Y20.551771 Z-1.000000 I-0.057675 J0.003098
G01 X23.764460 Y20.552981 Z-1.000000
G01 X23.756369 Y20.556326 Z-1.000000
G01 X23.749980 Y20.547181 Z-1.000000
G01 X23.740374 Y20.529111 Z-1.000000
G01 X23.725530 Y20.529621 Z-1.000000
G02 X23.703134 Y20.572895 Z-1.000000 I0.039894 J0.048079
G01 X23.720730 Y20.591901 Z-1.000000
G01 X23.723987 Y20.596898 Z-1.000000
G01 X23.711930 Y20.611911 Z-1.000000
G01 X23.702775 Y20.632862 Z-1.000000
G01 X23.717730 Y20.661891 Z-1.000000
G02 X23.748724 Y20.676828 Z-1.000000 I0.040856 J-0.045151
G01 X23.764630 Y20.669591 Z-1.000000
G01 X23.779429 Y20.656029 Z-1.000000
G01 X23.788590 Y20.657501 Z-1.000000
G01 X23.789148 Y20.683154 Z-1.000000
G03 X23.748810 Y20.700901 Z-1.000000 I-0.040338 J-0.036971
G01 X23.723382 Y20.693869 Z-1.000000
G03 X23.703300 Y20.673651 Z-1.000000 I0.029684 J-0.049566
G01 X23.686481 Y20.662679 Z-1.000000
G01 X23.670370 Y20.669751 Z-1.000000
G01 X23.664892 Y20.669510 Z-1.000000
G01 X23.663370 Y20.658011 Z-1.000000
G02 X23.671737 Y20.622631 Z-1.000000 I-0.431298 J-0.120674
G02 X23.677040 Y20.587291 Z-1.000000 I-0.411241 J-0.079780
G03 X23.683600 Y20.552585 Z-1.000000 I0.219486 J0.023516
G03 X23.691450 Y20.534491 Z-1.000000 I0.067028 J0.018328
G01 X23.692166 Y20.520694 Z-1.000000
G01 X23.678800 Y20.508391 Z-1.000000
G01 X23.662548 Y20.509666 Z-1.000000
G01 X23.655530 Y20.521841 Z-1.000000
G01 X23.648490 Y20.533999 Z-1.000000
G01 X23.632170 Y20.535261 Z-1.000000
G01 X23.617804 Y20.539349 Z-1.000000
G01 X23.608820 Y20.565971 Z-1.000000
G03 X23.602863 Y20.602286 Z-1.000000 I-0.113669 J0.000000
G01 X23.591830 Y20.616141 Z-1.000000
G01 X23.583451 Y20.612708 Z-1.000000
G03 X23.580150 Y20.567931 Z-1.000000 I0.133674 J-0.032365
G02 X23.577292 Y20.514475 Z-1.000000 I-0.185964 J-0.016863
G01 X23.567230 Y20.502961 Z-1.000000
G01 X23.558777 Y20.507302 Z-1.000000
G01 X23.558230 Y20.532631 Z-1.000000
G01 X23.553636 Y20.546829 Z-1.000000
G01 X23.541060 Y20.546871 Z-1.000000
G01 X23.515563 Y20.549328 Z-1.000000
G01 X23.512840 Y20.580941 Z-1.000000
G01 X23.500670 Y20.578641 Z-1.000000
G01 X23.468860 Y20.542001 Z-1.000000
G01 X23.453440 Y20.578641 Z-1.000000
G01 X23.446517 Y20.580292 Z-1.000000
G01 X23.441670 Y20.568641 Z-1.000000
G03 X23.457138 Y20.532360 Z-1.000000 I0.061699 J0.004867
G03 X23.492030 Y20.512091 Z-1.000000 I0.048313 J0.043002
G01 X23.538740 Y20.502191 Z-1.000000
G01 X23.494110 Y20.500391 Z-1.000000
G01 X23.463775 Y20.488003 Z-1.000000
G01 X23.457620 Y20.467411 Z-1.000000
G02 X23.458468 Y20.441925 Z-1.000000 I-0.055604 J-0.014607
G01 X23.451620 Y20.436271 Z-1.000000
G01 X23.442959 Y20.441767 Z-1.000000
G02 X23.437510 Y20.466141 Z-1.000000 I0.051791 J0.024374
G03 X23.423820 Y20.531583 Z-1.000000 I-0.163259 J0.000000
G01 X23.402890 Y20.545271 Z-1.000000
G01 X23.395117 Y20.539176 Z-1.000000
G03 X23.395290 Y20.514131 Z-1.000000 I0.049584 J-0.012181
G02 X23.396138 Y20.488645 Z-1.000000 I-0.055604 J-0.014607
G01 X23.389290 Y20.482991 Z-1.000000
G01 X23.379838 Y20.487783 Z-1.000000
G01 X23.374940 Y20.502451 Z-1.000000
G01 X23.370234 Y20.506145 Z-1.000000
G01 X23.360220 Y20.499051 Z-1.000000
G01 X23.344598 Y20.486243 Z-1.000000
G01 X23.333240 Y20.488651 Z-1.000000
G01 X23.331358 Y20.500516 Z-1.000000
G02 X23.351860 Y20.525331 Z-1.000000 I0.065787 J-0.033476
G01 X23.358455 Y20.536207 Z-1.000000
G01 X23.354460 Y20.539631 Z-1.000000
G02 X23.325571 Y20.531983 Z-1.000000 I-0.066969 J0.194582
G02 X23.301440 Y20.529731 Z-1.000000 I-0.024131 J0.128152
G01 X23.294153 Y20.522104 Z-1.000000
G01 X23.302740 Y20.501261 Z-1.000000
G02 X23.327363 Y20.451470 Z-1.000000 I-0.075458 J-0.068299
G01 X23.314750 Y20.436311 Z-1.000000
G01 X23.304956 Y20.441560 Z-1.000000
G02 X23.291400 Y20.471341 Z-1.000000 I0.085658 J0.056966
G01 X23.279167 Y20.489395 Z-1.000000
G01 X23.269710 Y20.487731 Z-1.000000
G01 X23.255461 Y20.478889 Z-1.000000
G01 X23.234680 Y20.483631 Z-1.000000
G01 X23.227507 Y20.493677 Z-1.000000
G01 X23.231180 Y20.498381 Z-1.000000
G01 X23.245574 Y20.503575 Z-1.000000
G01 X23.250640 Y20.514191 Z-1.000000
G01 X23.235597 Y20.524142 Z-1.000000
G01 X23.211360 Y20.497491 Z-1.000000
G01 X23.195998 Y20.475878 Z-1.000000
G01 X23.179360 Y20.473571 Z-1.000000
G01 X23.162749 Y20.475460 Z-1.000000
G01 X23.159250 Y20.470771 Z-1.000000
G01 X23.148533 Y20.443470 Z-1.000000
G01 X23.125980 Y20.444171 Z-1.000000
G03 X23.094955 Y20.464152 Z-1.000000 I-0.076079 J-0.084053
G01 X23.084460 Y20.462151 Z-1.000000
G01 X23.084256 Y20.456001 Z-1.000000
G01 X23.093360 Y20.451871 Z-1.000000
G01 X23.102879 Y20.444782 Z-1.000000
G01 X23.102660 Y20.420731 Z-1.000000
G01 X23.101475 Y20.395950 Z-1.000000
G01 X23.109360 Y20.389591 Z-1.000000
G01 X23.120565 Y20.384321 Z-1.000000
G01 X23.125460 Y20.370131 Z-1.000000
G01 X23.119417 Y20.366581 Z-1.000000
G02 X23.095720 Y20.385701 Z-1.000000 I0.036099 J0.068986
G03 X23.038133 Y20.421714 Z-1.000000 I-0.083767 J-0.069900
G01 X23.016990 Y20.405161 Z-1.000000
G01 X23.021924 Y20.394466 Z-1.000000
G01 X23.035150 Y20.389591 Z-1.000000
G01 X23.045136 Y20.386218 Z-1.000000
G01 X23.045460 Y20.381691 Z-1.000000
G01 X23.036502 Y20.378817 Z-1.000000
G02 X22.987190 Y20.391391 Z-1.000000 I0.049016 J0.295214
G03 X22.938978 Y20.399345 Z-1.000000 I-0.047016 J-0.134890
G01 X22.918620 Y20.390813 Z-1.000000
G01 X22.912783 Y20.374103 Z-1.000000
G01 X22.922220 Y20.359233 Z-1.000000
G01 X22.922091 Y20.352713 Z-1.000000
G01 X22.902640 Y20.348203 Z-1.000000
G01 X22.875975 Y20.362779 Z-1.000000
G01 X22.880780 Y20.378313 Z-1.000000
G01 X22.891445 Y20.387412 Z-1.000000
G01 X22.890380 Y20.395923 Z-1.000000
G01 X22.880371 Y20.398104 Z-1.000000
G03 X22.854950 Y20.380973 Z-1.000000 I0.031228 J-0.073764
G02 X22.803415 Y20.363492 Z-1.000000 I-0.043482 J0.043482
G01 X22.791150 Y20.389373 Z-1.000000
G01 X22.791616 Y20.399883 Z-1.000000
G01 X22.783250 Y20.405053 Z-1.000000
G01 X22.770238 Y20.380931 Z-1.000000
G03 X22.830180 Y20.333663 Z-1.000000 I0.100894 J0.066307
G01 X22.884680 Y20.314003 Z-1.000000
G01 X22.835000 Y20.312803 Z-1.000000
G03 X22.788515 Y20.305999 Z-1.000000 I0.004615 J-0.193725
G01 X22.776110 Y20.296733 Z-1.000000
G01 X22.764563 Y20.288698 Z-1.000000
G01 X22.744800 Y20.290333 Z-1.000000
G03 X22.723158 Y20.293640 Z-1.000000 I-0.018315 J-0.047385
G01 X22.704840 Y20.287833 Z-1.000000
G01 X22.682919 Y20.280640 Z-1.000000
G02 X22.440932 Y20.266533 Z-1.000000 I-0.437254 J5.418134
G03 X22.398775 Y20.257029 Z-1.000000 I0.004178 J-0.116784
G01 X22.398232 Y20.248073 Z-1.000000
G03 X22.425514 Y20.238516 Z-1.000000 I0.038203 J0.065335
G01 X22.441162 Y20.241773 Z-1.000000
G01 X22.453592 Y20.242022 Z-1.000000
G01 X22.465682 Y20.228023 Z-1.000000
G01 X22.478911 Y20.214190 Z-1.000000
G01 X22.498282 Y20.213733 Z-1.000000
G01 X22.531547 Y20.208192 Z-1.000000
G02 X22.549682 Y20.170703 Z-1.000000 I-0.032579 J-0.038891
G01 X22.545829 Y20.165897 Z-1.000000
G02 X22.484872 Y20.158233 Z-1.000000 I-0.088319 J0.456204
G03 X22.420862 Y20.151065 Z-1.000000 I0.035687 J-0.608033
G01 X22.404612 Y20.144993 Z-1.000000
G01 X22.400085 Y20.146281 Z-1.000000
G01 X22.400412 Y20.153393 Z-1.000000
G01 X22.398762 Y20.160695 Z-1.000000
G01 X22.387242 Y20.161893 Z-1.000000
G03 X22.367756 Y20.149402 Z-1.000000 I0.020504 J-0.053431
G01 X22.363082 Y20.138303 Z-1.000000
G01 X22.356069 Y20.131094 Z-1.000000
G02 X21.962148 Y20.127253 Z-1.000000 I-0.304300 J11.006655
G01 X21.596247 Y20.136553 Z-1.000000
G01 X21.619347 Y20.152626 Z-1.000000
G03 X21.631277 Y20.197003 Z-1.000000 I-0.076570 J0.044377
G02 X21.636399 Y20.250141 Z-1.000000 I0.278183 J-0.000000
G02 X21.648027 Y20.282733 Z-1.000000 I0.113281 J-0.022045
G01 X21.645771 Y20.295023 Z-1.000000
G01 X21.632137 Y20.296563 Z-1.000000
G02 X21.599721 Y20.286227 Z-1.000000 I-0.044222 J0.082685
G01 X21.581587 Y20.290163 Z-1.000000
G01 X21.579896 Y20.299615 Z-1.000000
G01 X21.601377 Y20.315313 Z-1.000000
G01 X21.616991 Y20.332479 Z-1.000000
G01 X21.610777 Y20.350253 Z-1.000000
G02 X21.586678 Y20.372666 Z-1.000000 I0.086232 J0.116880
G01 X21.584697 Y20.380713 Z-1.000000
G01 X21.584846 Y20.390177 Z-1.000000
G03 X21.579197 Y20.409383 Z-1.000000 I-0.103825 J-0.020102
G01 X21.570197 Y20.393423 Z-1.000000
G01 X21.552447 Y20.371994 Z-1.000000
G01 X21.521647 Y20.382483 Z-1.000000
G01 X21.501927 Y20.396848 Z-1.000000
G01 X21.492497 Y20.394163 Z-1.000000
G02 X21.482332 Y20.382804 Z-1.000000 I-0.064088 J0.047124
G02 X21.453847 Y20.358513 Z-1.000000 I-0.327381 J0.355058
G01 X21.439944 Y20.357805 Z-1.000000
G01 X21.435437 Y20.370193 Z-1.000000
G03 X21.437590 Y20.398572 Z-1.000000 I-0.058563 J0.018714
G01 X21.429937 Y20.405103 Z-1.000000
G01 X21.418338 Y20.400122 Z-1.000000
G01 X21.413317 Y20.387543 Z-1.000000
G01 X21.405699 Y20.378918 Z-1.000000
G02 X21.351477 Y20.379843 Z-1.000000 I-0.023850 J0.191545
G03 X21.305448 Y20.376156 Z-1.000000 I-0.015446 J-0.096318
G01 X21.298447 Y20.362373 Z-1.000000
G01 X21.296825 Y20.355768 Z-1.000000
G01 X21.292147 Y20.356173 Z-1.000000
G01 X21.273749 Y20.368385 Z-1.000000
G03 X21.240077 Y20.367993 Z-1.000000 I-0.016018 J-0.070547
G01 X21.222567 Y20.367624 Z-1.000000
G01 X21.237723 Y20.379320 Z-1.000000
G01 X21.242027 Y20.391384 Z-1.000000
G01 X21.236303 Y20.396674 Z-1.000000
G03 X21.209667 Y20.388884 Z-1.000000 I0.005335 J-0.067672
G02 X21.176891 Y20.378152 Z-1.000000 I-0.046949 J0.087967
G01 X21.153197 Y20.380784 Z-1.000000
G01 X21.130276 Y20.382890 Z-1.000000
G01 X21.107707 Y20.372284 Z-1.000000
G01 X21.092315 Y20.367291 Z-1.000000
G01 X21.086327 Y20.373684 Z-1.000000
G01 X21.079868 Y20.383432 Z-1.000000
G01 X21.062617 Y20.383724 Z-1.000000
G01 X21.053743 Y20.387714 Z-1.000000
G01 X21.054817 Y20.404394 Z-1.000000
G03 X21.066795 Y20.454347 Z-1.000000 I-0.089439 J0.047859
G01 X21.053517 Y20.467354 Z-1.000000
G01 X21.044861 Y20.461443 Z-1.000000
G01 X21.044817 Y20.445134 Z-1.000000
G01 X21.033314 Y20.408602 Z-1.000000
G02 X20.966607 Y20.392264 Z-1.000000 I-0.055443 J0.082021
G02 X20.934593 Y20.406655 Z-1.000000 I0.006583 J0.057447
G01 X20.926267 Y20.428424 Z-1.000000
G01 X20.921519 Y20.430629 Z-1.000000
G03 X20.904037 Y20.405064 Z-1.000000 I0.069802 J-0.066494
G03 X20.882941 Y20.349970 Z-1.000000 I0.360705 J-0.169701
G01 X20.881837 Y20.331104 Z-1.000000
G01 X20.878528 Y20.317337 Z-1.000000
G01 X20.867087 Y20.311644 Z-1.000000
G01 X20.858120 Y20.319213 Z-1.000000
G02 X20.858687 Y20.360874 Z-1.000000 I0.113268 J0.019293
G01 X20.852317 Y20.381516 Z-1.000000
G01 X20.837277 Y20.381814 Z-1.000000
G02 X20.812802 Y20.368805 Z-1.000000 I-0.038027 J0.042015
G01 X20.806027 Y20.374114 Z-1.000000
G01 X20.801781 Y20.384428 Z-1.000000
G01 X20.795777 Y20.384444 Z-1.000000
G01 X20.785234 Y20.381405 Z-1.000000
G01 X20.764637 Y20.391544 Z-1.000000
G01 X20.749563 Y20.396501 Z-1.000000
G01 X20.743747 Y20.390344 Z-1.000000
G01 X20.736922 Y20.381131 Z-1.000000
G01 X20.713917 Y20.381244 Z-1.000000
G03 X20.686961 Y20.382891 Z-1.000000 I-0.016760 J-0.052889
G01 X20.673607 Y20.373744 Z-1.000000
G01 X20.641435 Y20.372926 Z-1.000000
G02 X20.626097 Y20.442524 Z-1.000000 I0.077588 J0.053588
G01 X20.634397 Y20.490644 Z-1.000000
G01 X20.616507 Y20.444214 Z-1.000000
G02 X20.595188 Y20.400026 Z-1.000000 I-0.275826 J0.105838
G02 X20.575707 Y20.374874 Z-1.000000 I-0.108721 J0.064089
G01 X20.566658 Y20.374754 Z-1.000000
G01 X20.563687 Y20.386274 Z-1.000000
G01 X20.554181 Y20.405931 Z-1.000000
G03 X20.468427 Y20.422424 Z-1.000000 I-0.090166 J-0.237632
G03 X20.362367 Y20.422856 Z-1.000000 I-0.069572 J-4.061605
G03 X20.340701 Y20.421224 Z-1.000000 I0.001475 J-0.164223
G01 X20.329741 Y20.426639 Z-1.000000
G01 X20.328531 Y20.442734 Z-1.000000
G01 X20.330365 Y20.462044 Z-1.000000
G01 X20.324131 Y20.467254 Z-1.000000
G01 X20.314038 Y20.461939 Z-1.000000
G03 X20.294711 Y20.424434 Z-1.000000 I0.138761 J-0.095236
G01 X20.279071 Y20.381614 Z-1.000000
G01 X20.277871 Y20.433134 Z-1.000000
G03 X20.269779 Y20.471951 Z-1.000000 I-0.109699 J-0.002616
G01 X20.260821 Y20.474874 Z-1.000000
G01 X20.251558 Y20.463519 Z-1.000000
G01 X20.252621 Y20.452684 Z-1.000000
G01 X20.252806 Y20.441363 Z-1.000000
G02 X20.229521 Y20.412424 Z-1.000000 I-0.103131 J0.059142
G01 X20.215087 Y20.414634 Z-1.000000
G01 X20.217431 Y20.432994 Z-1.000000
G01 X20.217936 Y20.444146 Z-1.000000
G01 X20.201861 Y20.451674 Z-1.000000
G01 X20.175668 Y20.443583 Z-1.000000
G01 X20.167611 Y20.428324 Z-1.000000
G01 X20.152316 Y20.416959 Z-1.000000
G01 X20.128851 Y20.440004 Z-1.000000
G01 X20.118224 Y20.451222 Z-1.000000
G01 X20.110201 Y20.447104 Z-1.000000
G01 X20.096370 Y20.430891 Z-1.000000
G01 X20.070571 Y20.429434 Z-1.000000
G01 X20.051958 Y20.426842 Z-1.000000
G01 X20.047991 Y20.414514 Z-1.000000
G01 X20.039037 Y20.402977 Z-1.000000
G02 X19.996341 Y20.420514 Z-1.000000 I0.009844 J0.084710
G03 X19.944346 Y20.436767 Z-1.000000 I-0.047534 J-0.060769
G01 X19.929061 Y20.416614 Z-1.000000
G01 X19.922869 Y20.410055 Z-1.000000
G01 X19.904591 Y20.420514 Z-1.000000
G03 X19.878393 Y20.442507 Z-1.000000 I-0.072704 J-0.060004
G01 X19.872121 Y20.438924 Z-1.000000
G01 X19.864510 Y20.428510 Z-1.000000
G01 X19.840631 Y20.428294 Z-1.000000
G01 X19.819070 Y20.425087 Z-1.000000
G01 X19.809491 Y20.406904 Z-1.000000
G02 X19.803776 Y20.378817 Z-1.000000 I-0.071875 J-0.000000
G01 X19.791491 Y20.364504 Z-1.000000
G01 X19.783620 Y20.367941 Z-1.000000
G02 X19.783691 Y20.404414 Z-1.000000 I0.092295 J0.018058
G01 X19.780676 Y20.433250 Z-1.000000
G01 X19.770201 Y20.435774 Z-1.000000
G01 X19.755465 Y20.413482 Z-1.000000
G01 X19.755691 Y20.387164 Z-1.000000
G01 X19.753848 Y20.366303 Z-1.000000
G01 X19.740471 Y20.358224 Z-1.000000
G01 X19.721064 Y20.353202 Z-1.000000
G01 X19.716071 Y20.344724 Z-1.000000
G01 X19.722109 Y20.337832 Z-1.000000
G03 X19.778351 Y20.336524 Z-1.000000 I0.034120 J0.257283
G02 X19.834090 Y20.334643 Z-1.000000 I0.019950 J-0.235615
G01 X19.840631 Y20.327024 Z-1.000000
G01 X19.833525 Y20.319682 Z-1.000000
G02 X19.642110 Y20.320624 Z-1.000000 I-0.083179 J2.546710
G03 X18.964719 Y20.337625 Z-1.000000 I-0.835880 J-19.801636
G01 X18.953126 Y20.326124 Z-1.000000
G01 X18.975041 Y20.298900 Z-1.000000
G03 X19.032316 Y20.308824 Z-1.000000 I0.016456 J0.075265
G02 X19.058599 Y20.317722 Z-1.000000 I0.031983 J-0.051204
G01 X19.069436 Y20.312324 Z-1.000000
G01 X19.070917 Y20.299858 Z-1.000000
G01 X19.061436 Y20.287794 Z-1.000000
G01 X19.057618 Y20.276802 Z-1.000000
G01 X19.072856 Y20.256074 Z-1.000000
G01 X19.071015 Y20.244630 Z-1.000000
G02 X19.007616 Y20.233744 Z-1.000000 I-0.065480 J0.191295
G03 X18.945304 Y20.224574 Z-1.000000 I0.002412 J-0.232697
G01 X18.944176 Y20.215374 Z-1.000000
G03 X18.976023 Y20.205012 Z-1.000000 I0.039920 J0.068571
G03 X19.099879 Y20.199404 Z-1.000000 I0.111353 J1.088790
G02 X19.225079 Y20.195845 Z-1.000000 I0.017880 J-1.574999
G02 X19.287885 Y20.186634 Z-1.000000 I-0.027956 J-0.409345
G01 X19.287271 Y20.180393 Z-1.000000
G02 X19.070467 Y20.180334 Z-1.000000 I-0.109440 J3.789565
G02 X18.793430 Y20.193344 Z-1.000000 I0.204147 J7.303424
G01 X18.782417 Y20.199304 Z-1.000000
G03 X18.702429 Y20.241071 Z-1.000000 I-0.083794 J-0.062999
G01 X18.680375 Y20.203104 Z-1.000000
G01 X18.677455 Y20.196040 Z-1.000000
G02 X18.646385 Y20.195104 Z-1.000000 I-0.017829 J0.075725
G03 X18.602602 Y20.201200 Z-1.000000 I-0.108811 J-0.621259
G03 X18.517156 Y20.208574 Z-1.000000 I-0.257124 J-2.480574
G02 X18.432186 Y20.217705 Z-1.000000 I0.080511 J1.149116
G02 X18.400379 Y20.225604 Z-1.000000 I0.023755 J0.163647
G01 X18.392565 Y20.224468 Z-1.000000
G01 X18.392579 Y20.219904 Z-1.000000
G01 X18.395065 Y20.209745 Z-1.000000
G01 X18.383979 Y20.202864 Z-1.000000
G02 X18.354165 Y20.207751 Z-1.000000 I-0.000666 J0.089326
G02 X18.334819 Y20.219864 Z-1.000000 I0.016544 J0.047928
G03 X18.315246 Y20.232863 Z-1.000000 I-0.041991 J-0.041991
G03 X18.265529 Y20.248134 Z-1.000000 I-0.110339 J-0.270662
G02 X18.228799 Y20.270613 Z-1.000000 I0.013379 J0.063109
G02 X18.217289 Y20.307634 Z-1.000000 I0.040604 J0.032923
G01 X18.202276 Y20.340556 Z-1.000000
G03 X18.139439 Y20.365254 Z-1.000000 I-0.077298 J-0.104377
