%
(Header)
(Generated by gcodetools from Inkscape.)
(Using default header. To add your own header create file "header" in the output dir.)
M3
(Header end.)
G21 (All units in mm)

(Start cutting path id: path20655)
(Change tool to Default tool)

G00 Z5.000000
G00 X26.913957 Y3.621504

G01 Z-1.000000 F100.0(Penetrate)
G01 X26.914377 Y3.638779 Z-1.000000 F3500.000000
G01 X26.921757 Y3.639194 Z-1.000000
G02 X26.933151 Y3.611451 Z-1.000000 I-0.094524 J-0.055033
G01 X26.930957 Y3.603494 Z-1.000000
G01 X26.925243 Y3.603575 Z-1.000000
G02 X26.913957 Y3.621504 Z-1.000000 I0.039684 J0.037496
G01 X26.913957 Y3.621504 Z-1.000000
G00 Z5.000000

(End cutting path id: path20655)


(Start cutting path id: path20655)
(Change tool to Default tool)

G00 Z5.000000
G00 X26.912057 Y3.737679

G01 Z-1.000000 F100.0(Penetrate)
G01 X26.911341 Y3.748297 Z-1.000000 F3500.000000
G01 X26.918957 Y3.753249 Z-1.000000
G01 X26.930767 Y3.748548 Z-1.000000
G01 X26.935447 Y3.737679 Z-1.000000
G01 X26.932720 Y3.724822 Z-1.000000
G01 X26.928547 Y3.722109 Z-1.000000
G01 X26.922903 Y3.724355 Z-1.000000
G02 X26.912057 Y3.737679 Z-1.000000 I0.045458 J0.048079
G01 X26.912057 Y3.737679 Z-1.000000
G00 Z5.000000

(End cutting path id: path20655)


(Start cutting path id: path20655)
(Change tool to Default tool)

G00 Z5.000000
G00 X26.882937 Y3.838886

G01 Z-1.000000 F100.0(Penetrate)
G02 X26.899180 Y3.890591 Z-1.000000 I0.182972 J-0.029076 F3500.000000
G01 X26.907777 Y3.890156 Z-1.000000
G01 X26.909235 Y3.870255 Z-1.000000
G02 X26.894087 Y3.823306 Z-1.000000 I-0.217103 J0.044127
G01 X26.873047 Y3.776596 Z-1.000000
G01 X26.882937 Y3.838886 Z-1.000000
G00 Z5.000000

(End cutting path id: path20655)


(Start cutting path id: path20655)
(Change tool to Default tool)

G00 Z5.000000
G00 X26.982124 Y3.845756

G01 Z-1.000000 F100.0(Penetrate)
G02 X26.986776 Y3.873390 Z-1.000000 I0.084394 J-0.000000 F3500.000000
G01 X26.995444 Y3.884216 Z-1.000000
G01 X27.001324 Y3.881653 Z-1.000000
G02 X27.001444 Y3.853996 Z-1.000000 I-0.071086 J-0.014137
G01 X26.990417 Y3.840331 Z-1.000000
G01 X26.982154 Y3.845796 Z-1.000000
G01 X26.982124 Y3.845756 Z-1.000000
G00 Z5.000000

(End cutting path id: path20655)


(Start cutting path id: path20655)
(Change tool to Default tool)

G00 Z5.000000
G00 X27.024944 Y3.898556

G01 Z-1.000000 F100.0(Penetrate)
G02 X27.017189 Y3.927826 Z-1.000000 I0.109564 J0.044691 F3500.000000
G02 X27.013734 Y3.984196 Z-1.000000 I0.403231 J0.053005
G02 X27.021535 Y4.013715 Z-1.000000 I0.061695 J-0.000512
G01 X27.030224 Y4.013796 Z-1.000000
G02 X27.040075 Y3.984896 Z-1.000000 I-0.066993 J-0.038965
G02 X27.041424 Y3.928156 Z-1.000000 I-0.264780 J-0.034680
G02 X27.032272 Y3.898110 Z-1.000000 I-0.074052 J0.006140
G01 X27.024934 Y3.898556 Z-1.000000
G01 X27.024944 Y3.898556 Z-1.000000
G00 Z5.000000

(End cutting path id: path20655)


(Start cutting path id: path20655)
(Change tool to Default tool)

G00 Z5.000000
G00 X27.045634 Y3.809046

G01 Z-1.000000 F100.0(Penetrate)
G01 X27.050185 Y3.819434 Z-1.000000 F3500.000000
G01 X27.055034 Y3.818446 Z-1.000000
G01 X27.058352 Y3.798974 Z-1.000000
G01 X27.053834 Y3.788606 Z-1.000000
G01 X27.048965 Y3.789602 Z-1.000000
G01 X27.045634 Y3.809046 Z-1.000000
G01 X27.045634 Y3.809046 Z-1.000000
G00 Z5.000000

(End cutting path id: path20655)


(Start cutting path id: path20655)
(Change tool to Default tool)

G00 Z5.000000
G00 X27.015599 Y4.068847

G01 Z-1.000000 F100.0(Penetrate)
G03 X26.986949 Y4.203229 Z-1.000000 I-0.548561 J-0.046706 F3500.000000
G01 X26.962769 Y4.220412 Z-1.000000
G01 X26.955407 Y4.224855 Z-1.000000
G01 X26.950989 Y4.242722 Z-1.000000
G01 X26.944027 Y4.259931 Z-1.000000
G03 X26.919849 Y4.274912 Z-1.000000 I-0.041768 J-0.040410
G01 X26.896403 Y4.297483 Z-1.000000
G01 X26.907249 Y4.309942 Z-1.000000
G01 X26.933291 Y4.330818 Z-1.000000
G01 X26.907909 Y4.364112 Z-1.000000
G01 X26.891775 Y4.355758 Z-1.000000
G03 X26.882289 Y4.296072 Z-1.000000 I0.140578 J-0.052938
G02 X26.878669 Y4.232348 Z-1.000000 I-0.312891 J-0.014188
G01 X26.871629 Y4.229132 Z-1.000000
G01 X26.863658 Y4.226432 Z-1.000000
G03 X26.855519 Y4.186292 Z-1.000000 I0.120141 J-0.045255
G01 X26.853419 Y4.134772 Z-1.000000
G01 X26.843419 Y4.189272 Z-1.000000
G02 X26.840070 Y4.241043 Z-1.000000 I0.218748 J0.040144
G01 X26.846819 Y4.253282 Z-1.000000
G01 X26.847310 Y4.260412 Z-1.000000
G01 X26.827689 Y4.271292 Z-1.000000
G02 X26.802913 Y4.285722 Z-1.000000 I0.013688 J0.051986
G01 X26.795229 Y4.304592 Z-1.000000
G01 X26.789286 Y4.323507 Z-1.000000
G01 X26.777989 Y4.329402 Z-1.000000
G01 X26.769478 Y4.335419 Z-1.000000
G01 X26.769689 Y4.352762 Z-1.000000
G01 X26.769765 Y4.370021 Z-1.000000
G01 X26.760989 Y4.376122 Z-1.000000
G01 X26.751662 Y4.379585 Z-1.000000
G01 X26.751489 Y4.384322 Z-1.000000
G01 X26.787594 Y4.387601 Z-1.000000
G02 X26.810809 Y4.343362 Z-1.000000 I-0.030543 J-0.044239
G03 X26.816659 Y4.319743 Z-1.000000 I0.050604 J0.000000
G01 X26.826379 Y4.313882 Z-1.000000
G01 X26.846709 Y4.333174 Z-1.000000
G01 X26.829179 Y4.366662 Z-1.000000
G01 X26.822186 Y4.377530 Z-1.000000
G02 X26.820779 Y4.429862 Z-1.000000 I0.243013 J0.032721
G03 X26.811768 Y4.473177 Z-1.000000 I-0.078529 J0.006257
G01 X26.790759 Y4.486242 Z-1.000000
G01 X26.783653 Y4.492015 Z-1.000000
G01 X26.787559 Y4.499512 Z-1.000000
G01 X26.794662 Y4.510910 Z-1.000000
G01 X26.785659 Y4.522202 Z-1.000000
G01 X26.764141 Y4.541339 Z-1.000000
G02 X26.751229 Y4.598462 Z-1.000000 I0.133277 J0.060148
G03 X26.742567 Y4.662411 Z-1.000000 I-0.283995 J-0.005906
G03 X26.718739 Y4.726491 Z-1.000000 I-0.308708 J-0.078323
G01 X26.687619 Y4.788771 Z-1.000000
G01 X26.686999 Y4.739091 Z-1.000000
G02 X26.681516 Y4.692141 Z-1.000000 I-0.228142 J0.002847
G01 X26.674239 Y4.681901 Z-1.000000
G01 X26.667922 Y4.684324 Z-1.000000
G02 X26.664079 Y4.716011 Z-1.000000 I0.091327 J0.027153
G03 X26.662725 Y4.757237 Z-1.000000 I-0.255047 J0.012257
G03 X26.654679 Y4.797861 Z-1.000000 I-0.251712 J-0.028744
G02 X26.650164 Y4.837317 Z-1.000000 I0.117393 J0.033420
G02 X26.657779 Y4.864031 Z-1.000000 I0.061315 J-0.003036
G01 X26.662287 Y4.884081 Z-1.000000
G01 X26.655979 Y4.889971 Z-1.000000
G01 X26.644450 Y4.894775 Z-1.000000
G01 X26.639639 Y4.906461 Z-1.000000
G01 X26.644503 Y4.914275 Z-1.000000
G01 X26.654429 Y4.913761 Z-1.000000
G01 X26.684711 Y4.924055 Z-1.000000
G03 X26.692059 Y5.013211 Z-1.000000 I-0.151652 J0.057380
G02 X26.694317 Y5.051438 Z-1.000000 I0.073810 J0.014820
G01 X26.707769 Y5.061191 Z-1.000000
G01 X26.725470 Y5.053521 Z-1.000000
G01 X26.733309 Y5.033941 Z-1.000000
G01 X26.739252 Y5.026365 Z-1.000000
G01 X26.748639 Y5.030041 Z-1.000000
G01 X26.757134 Y5.030787 Z-1.000000
G01 X26.763969 Y5.013551 Z-1.000000
G03 X26.770160 Y4.975731 Z-1.000000 I0.123104 J0.000736
G03 X26.787069 Y4.943481 Z-1.000000 I0.105686 J0.034853
G01 X26.800980 Y4.940452 Z-1.000000
G01 X26.810429 Y4.956071 Z-1.000000
G03 X26.804433 Y4.992456 Z-1.000000 I-0.105950 J0.001228
G01 X26.795349 Y4.998891 Z-1.000000
G01 X26.786430 Y5.005593 Z-1.000000
G02 X26.779779 Y5.052471 Z-1.000000 I0.161869 J0.046878
G03 X26.763378 Y5.109816 Z-1.000000 I-0.108451 J-0.000000
G01 X26.742569 Y5.112201 Z-1.000000
G02 X26.702346 Y5.097220 Z-1.000000 I-0.036493 J0.036493
G01 X26.677599 Y5.116901 Z-1.000000
G03 X26.648259 Y5.158324 Z-1.000000 I-0.077794 J-0.023999
G01 X26.625099 Y5.155781 Z-1.000000
G03 X26.607499 Y5.119116 Z-1.000000 I0.058228 J-0.050507
G03 X26.609819 Y5.072101 Z-1.000000 I0.101623 J-0.018550
G02 X26.623809 Y5.022419 Z-1.000000 I-6.658370 J-1.901695
G01 X26.624059 Y5.020581 Z-1.000000
G01 X26.589029 Y5.020479 Z-1.000000
G01 X26.558496 Y5.044700 Z-1.000000
G02 X26.563989 Y5.107879 Z-1.000000 I0.085250 J0.024416
G03 X26.595643 Y5.209683 Z-1.000000 I-0.318872 J0.154969
G03 X26.591079 Y5.286434 Z-1.000000 I-0.182405 J0.027666
G02 X26.581009 Y5.341090 Z-1.000000 I0.309325 J0.085247
G01 X26.584479 Y5.355884 Z-1.000000
G01 X26.585095 Y5.366997 Z-1.000000
G01 X26.574879 Y5.376024 Z-1.000000
G01 X26.568080 Y5.386910 Z-1.000000
G02 X26.582579 Y5.434244 Z-1.000000 I0.148805 J-0.019694
G03 X26.591273 Y5.483396 Z-1.000000 I-0.078726 J0.039271
G01 X26.574879 Y5.502324 Z-1.000000
G01 X26.556058 Y5.516206 Z-1.000000
G01 X26.556839 Y5.531384 Z-1.000000
G01 X26.565542 Y5.553073 Z-1.000000
G03 X26.562939 Y5.589094 Z-1.000000 I-0.101490 J0.010771
G01 X26.547152 Y5.604040 Z-1.000000
G01 X26.523469 Y5.596894 Z-1.000000
G01 X26.507691 Y5.589008 Z-1.000000
G01 X26.503679 Y5.593994 Z-1.000000
G01 X26.506474 Y5.618252 Z-1.000000
G01 X26.498879 Y5.629944 Z-1.000000
G01 X26.488144 Y5.641462 Z-1.000000
G01 X26.484229 Y5.657694 Z-1.000000
G01 X26.489088 Y5.661296 Z-1.000000
G01 X26.500819 Y5.652894 Z-1.000000
G01 X26.506187 Y5.652792 Z-1.000000
G01 X26.508019 Y5.662394 Z-1.000000
G02 X26.516300 Y5.722298 Z-1.000000 I0.073164 J0.020410
G02 X26.559069 Y5.746334 Z-1.000000 I0.042769 J-0.026033
G01 X26.575595 Y5.756299 Z-1.000000
G01 X26.573089 Y5.772914 Z-1.000000
G01 X26.546504 Y5.786681 Z-1.000000
G01 X26.527709 Y5.780714 Z-1.000000
G01 X26.504142 Y5.773115 Z-1.000000
G01 X26.499569 Y5.785314 Z-1.000000
G01 X26.506752 Y5.802944 Z-1.000000
G01 X26.501469 Y5.808674 Z-1.000000
G01 X26.489917 Y5.814586 Z-1.000000
G01 X26.483989 Y5.832944 Z-1.000000
G01 X26.489438 Y5.847426 Z-1.000000
G01 X26.497799 Y5.848684 Z-1.000000
G01 X26.506320 Y5.849253 Z-1.000000
G01 X26.510919 Y5.859444 Z-1.000000
G02 X26.510837 Y5.878729 Z-1.000000 I0.302700 J0.010927
G02 X26.512719 Y5.923464 Z-1.000000 I1.549456 J-0.042772
G01 X26.523201 Y5.949726 Z-1.000000
G01 X26.536069 Y5.950844 Z-1.000000
G01 X26.554962 Y5.956678 Z-1.000000
G03 X26.558569 Y6.029334 Z-1.000000 I-0.153733 J0.044050
G02 X26.551440 Y6.105999 Z-1.000000 I0.435997 J0.079204
G01 X26.558010 Y6.118464 Z-1.000000
G03 X26.583864 Y6.165830 Z-1.000000 I-0.032806 J0.048646
G03 X26.560110 Y6.214844 Z-1.000000 I-0.059755 J0.001304
G01 X26.525670 Y6.240824 Z-1.000000
G01 X26.559350 Y6.258854 Z-1.000000
G01 X26.579334 Y6.289405 Z-1.000000
G01 X26.563150 Y6.306924 Z-1.000000
G02 X26.537488 Y6.313174 Z-1.000000 I0.000000 J0.055808
G01 X26.525450 Y6.326384 Z-1.000000
G01 X26.520051 Y6.330428 Z-1.000000
G01 X26.516350 Y6.327303 Z-1.000000
G01 X26.519684 Y6.311097 Z-1.000000
G01 X26.530690 Y6.299133 Z-1.000000
G01 X26.541854 Y6.274939 Z-1.000000
G01 X26.524690 Y6.260213 Z-1.000000
G01 X26.480949 Y6.294294 Z-1.000000
G01 X26.502620 Y6.347763 Z-1.000000
G01 X26.507046 Y6.358319 Z-1.000000
G03 X26.494920 Y6.382423 Z-1.000000 I-0.054121 J-0.012124
G02 X26.476510 Y6.410062 Z-1.000000 I0.101784 J0.087747
G02 X26.463850 Y6.444593 Z-1.000000 I0.146756 J0.073392
G01 X26.469666 Y6.456377 Z-1.000000
G01 X26.485010 Y6.453893 Z-1.000000
G01 X26.503572 Y6.453464 Z-1.000000
G01 X26.516340 Y6.479713 Z-1.000000
G01 X26.517640 Y6.532733 Z-1.000000
G01 X26.540060 Y6.481413 Z-1.000000
G03 X26.565398 Y6.439469 Z-1.000000 I0.171237 J0.074818
G01 X26.574960 Y6.437813 Z-1.000000
G03 X26.689495 Y6.649237 Z-1.000000 I-0.126957 J0.205512
G03 X26.565360 Y6.816988 Z-1.000000 I-0.181415 J-0.004441
G01 X26.556584 Y6.836604 Z-1.000000
G01 X26.581230 Y6.853728 Z-1.000000
G01 X26.590401 Y6.858182 Z-1.000000
G01 X26.589030 Y6.862628 Z-1.000000
G01 X26.572778 Y6.879581 Z-1.000000
G02 X26.577710 Y6.914838 Z-1.000000 I0.050386 J0.010925
G01 X26.581116 Y6.942741 Z-1.000000
G03 X26.562140 Y6.976098 Z-1.000000 I-0.070037 J-0.017767
G01 X26.555989 Y6.999615 Z-1.000000
G01 X26.570840 Y7.007098 Z-1.000000
G03 X26.619463 Y7.010158 Z-1.000000 I0.020941 J0.055076
G01 X26.639360 Y7.043548 Z-1.000000
G03 X26.618841 Y7.091160 Z-1.000000 I-0.066579 J-0.000465
G03 X26.569960 Y7.110038 Z-1.000000 I-0.047054 J-0.049116
G02 X26.532597 Y7.118894 Z-1.000000 I-0.002004 J0.074791
G01 X26.520940 Y7.136348 Z-1.000000
G01 X26.525540 Y7.140248 Z-1.000000
G01 X26.538100 Y7.123707 Z-1.000000
G01 X26.562390 Y7.116588 Z-1.000000
G01 X26.580800 Y7.124223 Z-1.000000
G01 X26.583710 Y7.137938 Z-1.000000
G01 X26.599842 Y7.173530 Z-1.000000
G01 X26.643340 Y7.159938 Z-1.000000
G01 X26.649248 Y7.161018 Z-1.000000
G03 X26.651140 Y7.190848 Z-1.000000 I-0.078893 J0.019978
G02 X26.653205 Y7.238421 Z-1.000000 I0.143983 J0.017582
G01 X26.665610 Y7.258928 Z-1.000000
G03 X26.681495 Y7.278337 Z-1.000000 I-0.041205 J0.049928
G01 X26.686310 Y7.297558 Z-1.000000
G01 X26.709776 Y7.316426 Z-1.000000
G02 X26.748110 Y7.283978 Z-1.000000 I-0.011542 J-0.052503
G01 X26.763180 Y7.269328 Z-1.000000
G01 X26.768946 Y7.280637 Z-1.000000
G01 X26.777960 Y7.281188 Z-1.000000
G01 X26.785492 Y7.269171 Z-1.000000
G02 X26.790990 Y7.155132 Z-1.000000 I-1.039219 J-0.107251
G03 X26.797884 Y7.040762 Z-1.000000 I0.860197 J-0.005538
G01 X26.808340 Y7.019488 Z-1.000000
G01 X26.820539 Y7.015643 Z-1.000000
G01 X26.826450 Y7.022688 Z-1.000000
G01 X26.830445 Y7.034311 Z-1.000000
G01 X26.835750 Y7.034628 Z-1.000000
G01 X26.849930 Y7.002244 Z-1.000000
G02 X26.864120 Y6.326436 Z-1.000000 I-17.718136 J-0.710072
G03 X26.870342 Y6.126032 Z-1.000000 I3.446993 J0.006714
G01 X26.876610 Y6.120130 Z-1.000000
G01 X26.896808 Y6.097508 Z-1.000000
G02 X26.862360 Y5.994709 Z-1.000000 I-0.258131 J0.029328
G03 X26.849730 Y5.951327 Z-1.000000 I0.078544 J-0.046396
G01 X26.859960 Y5.922239 Z-1.000000
G02 X26.898551 Y5.865897 Z-1.000000 I-0.236662 J-0.203484
G01 X26.892910 Y5.860599 Z-1.000000
G01 X26.881851 Y5.857957 Z-1.000000
G03 X26.861020 Y5.808509 Z-1.000000 I0.152943 J-0.093542
G03 X26.856942 Y5.755522 Z-1.000000 I0.150643 J-0.038246
G01 X26.866920 Y5.746449 Z-1.000000
G01 X26.882404 Y5.739552 Z-1.000000
G01 X26.891450 Y5.719199 Z-1.000000
G02 X26.899045 Y5.613509 Z-1.000000 I-1.705083 J-0.175648
G02 X26.903290 Y5.427256 Z-1.000000 I-5.160404 J-0.210788
G03 X26.908523 Y5.334532 Z-1.000000 I0.899519 J0.004254
G03 X26.919220 Y5.280551 Z-1.000000 I0.312635 J0.033903
G02 X26.926435 Y5.228984 Z-1.000000 I-0.174567 J-0.050714
G01 X26.918876 Y5.208191 Z-1.000000
G03 X26.897651 Y5.108603 Z-1.000000 I0.084421 J-0.070049
G03 X26.959926 Y5.061352 Z-1.000000 I0.062275 J0.017412
G01 X26.969038 Y5.053338 Z-1.000000
G02 X26.979336 Y4.910556 Z-1.000000 I-1.267383 J-0.163170
G03 X26.989022 Y4.763939 Z-1.000000 I1.478065 J0.024022
G01 X26.998146 Y4.749626 Z-1.000000
G01 X27.006190 Y4.735202 Z-1.000000
G02 X26.998454 Y4.515058 Z-1.000000 I-3.024631 J-0.003923
G03 X26.989790 Y4.251108 Z-1.000000 I3.399313 J-0.243702
G01 X27.000054 Y4.245429 Z-1.000000
G01 X27.007801 Y4.242654 Z-1.000000
G01 X27.008654 Y4.220479 Z-1.000000
G03 X27.005803 Y4.185180 Z-1.000000 I0.098044 J-0.025684
G03 X27.014954 Y4.154989 Z-1.000000 I0.079313 J0.007558
G02 X27.024741 Y4.124553 Z-1.000000 I-0.077566 J-0.041733
G02 X27.024254 Y4.083549 Z-1.000000 I-0.145219 J-0.018781
G01 X27.015554 Y4.068989 Z-1.000000
G01 X27.015599 Y4.068847 Z-1.000000
G00 Z5.000000

(End cutting path id: path20655)


(Start cutting path id: path20655)
(Change tool to Default tool)

G00 Z5.000000
G00 X26.874363 Y4.073747

G01 Z-1.000000 F100.0(Penetrate)
G01 X26.878914 Y4.084135 Z-1.000000 F3500.000000
G01 X26.883763 Y4.083147 Z-1.000000
G01 X26.887081 Y4.063675 Z-1.000000
G01 X26.882563 Y4.053307 Z-1.000000
G01 X26.877694 Y4.054303 Z-1.000000
G01 X26.874363 Y4.073747 Z-1.000000
G01 X26.874363 Y4.073747 Z-1.000000
G00 Z5.000000

(End cutting path id: path20655)


(Start cutting path id: path20655)
(Change tool to Default tool)

G00 Z5.000000
G00 X26.826923 Y4.059497

G01 Z-1.000000 F100.0(Penetrate)
G02 X26.838499 Y4.113887 Z-1.000000 I0.118423 J0.003223 F3500.000000
G01 X26.859233 Y4.126947 Z-1.000000
G01 X26.869031 Y4.115432 Z-1.000000
G02 X26.850233 Y4.071537 Z-1.000000 I-0.097609 J0.015827
G02 X26.832201 Y4.056362 Z-1.000000 I-0.042367 J0.032043
G01 X26.826883 Y4.059507 Z-1.000000
G01 X26.826923 Y4.059497 Z-1.000000
G00 Z5.000000

(End cutting path id: path20655)


(Start cutting path id: path20655)
(Change tool to Default tool)

G00 Z5.000000
G00 X26.841993 Y4.004977

G01 Z-1.000000 F100.0(Penetrate)
G01 X26.846779 Y4.013123 Z-1.000000 F3500.000000
G01 X26.865343 Y4.017947 Z-1.000000
G01 X26.883877 Y4.013162 Z-1.000000
G01 X26.888703 Y4.004977 Z-1.000000
G01 X26.883918 Y3.996829 Z-1.000000
G01 X26.865343 Y3.991997 Z-1.000000
G01 X26.846825 Y3.996780 Z-1.000000
G01 X26.841993 Y4.004977 Z-1.000000
G01 X26.841993 Y4.004977 Z-1.000000
G00 Z5.000000

(End cutting path id: path20655)


(Start cutting path id: path20655)
(Change tool to Default tool)

G00 Z5.000000
G00 X26.882836 Y4.135374

G01 Z-1.000000 F100.0(Penetrate)
G02 X26.875894 Y4.161104 Z-1.000000 I0.124097 J0.047284 F3500.000000
G02 X26.874436 Y4.186644 Z-1.000000 I0.119289 J0.019621
G01 X26.889496 Y4.166694 Z-1.000000
G02 X26.890721 Y4.135995 Z-1.000000 I-0.059398 J-0.017744
G01 X26.882796 Y4.135374 Z-1.000000
G01 X26.882836 Y4.135374 Z-1.000000
G00 Z5.000000

(End cutting path id: path20655)


(Start cutting path id: path20655)
(Change tool to Default tool)

G00 Z5.000000
G00 X26.888704 Y4.438395

G01 Z-1.000000 F100.0(Penetrate)
G01 X26.885977 Y4.451252 Z-1.000000 F3500.000000
G01 X26.881804 Y4.453965 Z-1.000000
G01 X26.876160 Y4.451719 Z-1.000000
G03 X26.865314 Y4.438395 Z-1.000000 I0.045458 J-0.048079
G01 X26.864598 Y4.427777 Z-1.000000
G01 X26.872214 Y4.422825 Z-1.000000
G01 X26.884024 Y4.427526 Z-1.000000
G01 X26.888704 Y4.438395 Z-1.000000
G01 X26.888704 Y4.438395 Z-1.000000
G00 Z5.000000

(End cutting path id: path20655)


(Start cutting path id: path20655)
(Change tool to Default tool)

G00 Z5.000000
G00 X26.810854 Y4.771376

G01 Z-1.000000 F100.0(Penetrate)
G03 X26.786377 Y4.853398 Z-1.000000 I-0.149668 J0.000000 F3500.000000
G01 X26.752144 Y4.861006 Z-1.000000
G03 X26.727129 Y4.814237 Z-1.000000 I0.027774 J-0.044929
G03 X26.755644 Y4.761726 Z-1.000000 I0.066902 J0.002332
G03 X26.795320 Y4.752896 Z-1.000000 I0.030502 J0.043504
G01 X26.810884 Y4.771426 Z-1.000000
G01 X26.810854 Y4.771376 Z-1.000000
G00 Z5.000000

(End cutting path id: path20655)


(Start cutting path id: path20655)
(Change tool to Default tool)

G00 Z5.000000
G00 X26.966556 Y5.014495

G01 Z-1.000000 F100.0(Penetrate)
G01 X26.961982 Y5.025518 Z-1.000000 F3500.000000
G01 X26.950986 Y5.030065 Z-1.000000
G01 X26.939963 Y5.025491 Z-1.000000
G01 X26.935416 Y5.014495 Z-1.000000
G01 X26.939990 Y5.003472 Z-1.000000
G01 X26.950986 Y4.998925 Z-1.000000
G01 X26.962009 Y5.003499 Z-1.000000
G01 X26.966556 Y5.014495 Z-1.000000
G01 X26.966556 Y5.014495 Z-1.000000
G00 Z5.000000

(End cutting path id: path20655)


(Start cutting path id: path20655)
(Change tool to Default tool)

G00 Z5.000000
G00 X26.919819 Y5.177937

G01 Z-1.000000 F100.0(Penetrate)
G02 X26.922516 Y5.198677 Z-1.000000 I0.081102 J0.000000 F3500.000000
G01 X26.925919 Y5.201297 Z-1.000000
G01 X26.930404 Y5.198849 Z-1.000000
G02 X26.940999 Y5.177937 Z-1.000000 I-0.096254 J-0.061905
G01 X26.941990 Y5.160065 Z-1.000000
G01 X26.934899 Y5.154577 Z-1.000000
G01 X26.925134 Y5.159897 Z-1.000000
G01 X26.919819 Y5.177937 Z-1.000000
G01 X26.919819 Y5.177937 Z-1.000000
G00 Z5.000000

(End cutting path id: path20655)


(Start cutting path id: path20655)
(Change tool to Default tool)

G00 Z5.000000
G00 X26.717432 Y5.201338

G01 Z-1.000000 F100.0(Penetrate)
G01 X26.712858 Y5.212361 Z-1.000000 F3500.000000
G01 X26.701862 Y5.216908 Z-1.000000
G01 X26.690839 Y5.212334 Z-1.000000
G01 X26.686292 Y5.201338 Z-1.000000
G01 X26.690866 Y5.190315 Z-1.000000
G01 X26.701862 Y5.185768 Z-1.000000
G01 X26.712885 Y5.190342 Z-1.000000
G01 X26.717432 Y5.201338 Z-1.000000
G01 X26.717432 Y5.201338 Z-1.000000
G00 Z5.000000

(End cutting path id: path20655)


(Start cutting path id: path20655)
(Change tool to Default tool)

G00 Z5.000000
G00 X26.733002 Y5.677150

G01 Z-1.000000 F100.0(Penetrate)
G01 X26.718172 Y5.694833 Z-1.000000 F3500.000000
G01 X26.694082 Y5.684050 Z-1.000000
G01 X26.694319 Y5.651323 Z-1.000000
G01 X26.718512 Y5.645790 Z-1.000000
G01 X26.728628 Y5.657186 Z-1.000000
G01 X26.733002 Y5.677180 Z-1.000000
G01 X26.733002 Y5.677150 Z-1.000000
G00 Z5.000000

(End cutting path id: path20655)


(Start cutting path id: path20655)
(Change tool to Default tool)

G00 Z5.000000
G00 X26.701862 Y5.800791

G01 Z-1.000000 F100.0(Penetrate)
G03 X26.695580 Y5.833422 Z-1.000000 I-0.087886 J-0.000000 F3500.000000
G01 X26.686292 Y5.839711 Z-1.000000
G01 X26.663835 Y5.818915 Z-1.000000
G03 X26.681092 Y5.772241 Z-1.000000 I0.059388 J-0.004569
G01 X26.692868 Y5.773165 Z-1.000000
G01 X26.701852 Y5.800791 Z-1.000000
G01 X26.701862 Y5.800791 Z-1.000000
G00 Z5.000000

(End cutting path id: path20655)


(Start cutting path id: path20655)
(Change tool to Default tool)

G00 Z5.000000
G00 X26.794192 Y5.812471

G01 Z-1.000000 F100.0(Penetrate)
G01 X26.790953 Y5.820171 Z-1.000000 F3500.000000
G01 X26.779712 Y5.824151 Z-1.000000
G01 X26.770719 Y5.817691 Z-1.000000
G03 X26.765232 Y5.781331 Z-1.000000 I0.099934 J-0.033675
G01 X26.771949 Y5.767730 Z-1.000000
G01 X26.779712 Y5.769651 Z-1.000000
G03 X26.791782 Y5.801137 Z-1.000000 I-0.371112 J0.160317
G03 X26.794192 Y5.812471 Z-1.000000 I-0.047939 J0.016118
G01 X26.794192 Y5.812471 Z-1.000000
G00 Z5.000000

(End cutting path id: path20655)


(Start cutting path id: path20655)
(Change tool to Default tool)

G00 Z5.000000
G00 X26.504611 Y6.026510

G01 Z-1.000000 F100.0(Penetrate)
G01 X26.513347 Y6.049195 Z-1.000000 F3500.000000
G01 X26.525371 Y6.049490 Z-1.000000
G02 X26.542496 Y6.027221 Z-1.000000 I-0.076702 J-0.076702
G01 X26.546131 Y6.013710 Z-1.000000
G01 X26.541557 Y6.001819 Z-1.000000
G01 X26.525371 Y5.990730 Z-1.000000
G01 X26.513071 Y5.995063 Z-1.000000
G02 X26.504611 Y6.026510 Z-1.000000 I0.054220 J0.031447
G01 X26.504611 Y6.026510 Z-1.000000
G00 Z5.000000

(End cutting path id: path20655)


(Start cutting path id: path20655)
(Change tool to Default tool)

G00 Z5.000000
G00 X26.476171 Y6.119750

G01 Z-1.000000 F100.0(Penetrate)
G01 X26.478059 Y6.125675 Z-1.000000 F3500.000000
G01 X26.490821 Y6.125850 Z-1.000000
G01 X26.505336 Y6.112038 Z-1.000000
G01 X26.500321 Y6.104340 Z-1.000000
G01 X26.487695 Y6.108020 Z-1.000000
G01 X26.476161 Y6.119730 Z-1.000000
G01 X26.476171 Y6.119750 Z-1.000000
G00 Z5.000000

(End cutting path id: path20655)


(Start cutting path id: path20655)
(Change tool to Default tool)

G00 Z5.000000
G00 X26.647362 Y6.400246

G01 Z-1.000000 F100.0(Penetrate)
G01 X26.641867 Y6.410101 Z-1.000000 F3500.000000
G03 X26.608432 Y6.400246 Z-1.000000 I0.000000 J-0.061645
G01 X26.604399 Y6.390759 Z-1.000000
G01 X26.611432 Y6.384916 Z-1.000000
G03 X26.635047 Y6.389644 Z-1.000000 I0.000531 J0.058685
G01 X26.647382 Y6.400246 Z-1.000000
G01 X26.647362 Y6.400246 Z-1.000000
G00 Z5.000000

(End cutting path id: path20655)


(Start cutting path id: path20655)
(Change tool to Default tool)

G00 Z5.000000
G00 X26.836732 Y6.668833

G01 Z-1.000000 F100.0(Penetrate)
G01 X26.828832 Y6.649373 Z-1.000000 F3500.000000
G01 X26.836732 Y6.629913 Z-1.000000
G03 X26.840494 Y6.649378 Z-1.000000 I-0.048481 J0.019465
G03 X26.836732 Y6.668843 Z-1.000000 I-0.052243 J0.000000
G01 X26.836732 Y6.668833 Z-1.000000
G00 Z5.000000

(End cutting path id: path20655)


(Start cutting path id: path20655)
(Change tool to Default tool)

G00 Z5.000000
G00 X26.821862 Y6.948916

G01 Z-1.000000 F100.0(Penetrate)
G01 X26.814762 Y6.921846 Z-1.000000 F3500.000000
G01 X26.821562 Y6.886626 Z-1.000000
G03 X26.825117 Y6.913813 Z-1.000000 I-0.105408 J0.027609
G03 X26.821876 Y6.948906 Z-1.000000 I-0.183917 J0.000711
G01 X26.821862 Y6.948916 Z-1.000000
G00 Z5.000000

(End cutting path id: path20655)


(Start cutting path id: path20655)
(Change tool to Default tool)

G00 Z5.000000
G00 X26.759202 Y7.212819

G01 Z-1.000000 F100.0(Penetrate)
G01 X26.754341 Y7.213810 Z-1.000000 F3500.000000
G01 X26.749802 Y7.203419 Z-1.000000
G01 X26.753136 Y7.183984 Z-1.000000
G01 X26.758002 Y7.182979 Z-1.000000
G01 X26.762559 Y7.193413 Z-1.000000
G01 X26.759202 Y7.212819 Z-1.000000
G01 X26.759202 Y7.212819 Z-1.000000
G00 Z5.000000

(End cutting path id: path20655)


(Start cutting path id: path20655)
(Change tool to Default tool)

G00 Z5.000000
G00 X26.597921 Y7.278575

G01 Z-1.000000 F100.0(Penetrate)
G01 X26.590145 Y7.299233 Z-1.000000 F3500.000000
G01 X26.597921 Y7.318855 Z-1.000000
G01 X26.604059 Y7.335423 Z-1.000000
G01 X26.596721 Y7.345435 Z-1.000000
G01 X26.583171 Y7.356694 Z-1.000000
G01 X26.577161 Y7.378525 Z-1.000000
G03 X26.573142 Y7.403504 Z-1.000000 I-0.081519 J-0.000303
G03 X26.554731 Y7.447295 Z-1.000000 I-0.273487 J-0.089217
G02 X26.541100 Y7.484859 Z-1.000000 I0.133691 J0.069769
G01 X26.545331 Y7.490115 Z-1.000000
G01 X26.555264 Y7.485755 Z-1.000000
G02 X26.567651 Y7.465775 Z-1.000000 I-0.046182 J-0.042462
G01 X26.589736 Y7.460198 Z-1.000000
G03 X26.608351 Y7.500725 Z-1.000000 I-0.034808 J0.040527
G01 X26.598538 Y7.519813 Z-1.000000
G01 X26.582421 Y7.519265 Z-1.000000
G01 X26.570397 Y7.522850 Z-1.000000
G02 X26.566401 Y7.570705 Z-1.000000 I0.105737 J0.032924
G03 X26.568849 Y7.638861 Z-1.000000 I-0.340124 J0.046336
G01 X26.561401 Y7.648555 Z-1.000000
G02 X26.528456 Y7.716519 Z-1.000000 I0.016944 J0.050181
G02 X26.604821 Y7.770370 Z-1.000000 I0.076365 J-0.027220
G01 X26.616831 Y7.763232 Z-1.000000
G01 X26.617961 Y7.746210 Z-1.000000
G01 X26.617427 Y7.732573 Z-1.000000
G01 X26.622561 Y7.730620 Z-1.000000
G01 X26.629747 Y7.727208 Z-1.000000
G02 X26.636891 Y7.620902 Z-1.000000 I-0.835481 J-0.109543
G03 X26.652792 Y7.506218 Z-1.000000 I0.433812 J0.001703
G01 X26.669481 Y7.503852 Z-1.000000
G03 X26.721756 Y7.737255 Z-1.000000 I-0.311075 J0.192227
G03 X26.638591 Y7.777619 Z-1.000000 I-0.054368 J-0.006161
G01 X26.613901 Y7.787220 Z-1.000000
G02 X26.592761 Y7.939613 Z-1.000000 I0.538704 J0.152393
G03 X26.587351 Y8.047606 Z-1.000000 I-1.080476 J0.000000
G03 X26.577781 Y8.088003 Z-1.000000 I-0.156351 J-0.015706
G01 X26.586453 Y8.126777 Z-1.000000
G01 X26.615421 Y8.124293 Z-1.000000
G01 X26.633085 Y8.115788 Z-1.000000
G01 X26.651071 Y8.125793 Z-1.000000
G01 X26.661775 Y8.127821 Z-1.000000
G01 X26.669931 Y8.112913 Z-1.000000
G01 X26.685625 Y8.110466 Z-1.000000
G03 X26.701511 Y8.202443 Z-1.000000 I-0.263093 J0.092802
G03 X26.692030 Y8.274498 Z-1.000000 I-0.272478 J0.000798
G01 X26.679371 Y8.284183 Z-1.000000
G01 X26.667806 Y8.274983 Z-1.000000
G03 X26.666231 Y8.227263 Z-1.000000 I0.120761 J-0.027871
G02 X26.665626 Y8.185086 Z-1.000000 I-0.120095 J-0.019370
G01 X26.657431 Y8.181473 Z-1.000000
G01 X26.645040 Y8.182506 Z-1.000000
G01 X26.639431 Y8.174173 Z-1.000000
G01 X26.633464 Y8.168452 Z-1.000000
G01 X26.616071 Y8.175160 Z-1.000000
G02 X26.597777 Y8.196929 Z-1.000000 I0.050875 J0.061327
G01 X26.592711 Y8.215990 Z-1.000000
G01 X26.585240 Y8.229974 Z-1.000000
G01 X26.560651 Y8.237440 Z-1.000000
G01 X26.540455 Y8.244068 Z-1.000000
G01 X26.538601 Y8.253640 Z-1.000000
G01 X26.551410 Y8.262260 Z-1.000000
G02 X26.578441 Y8.260340 Z-1.000000 I0.009564 J-0.056587
G01 X26.605197 Y8.274438 Z-1.000000
G01 X26.592701 Y8.307470 Z-1.000000
G01 X26.582871 Y8.320313 Z-1.000000
G02 X26.577371 Y8.358990 Z-1.000000 I0.127958 J0.037924
G01 X26.584066 Y8.378375 Z-1.000000
G01 X26.592091 Y8.377990 Z-1.000000
G01 X26.608931 Y8.375796 Z-1.000000
G03 X26.625321 Y8.408800 Z-1.000000 I-0.035352 J0.038128
G03 X26.612489 Y8.526011 Z-1.000000 I-0.285201 J0.028086
G01 X26.580641 Y8.545148 Z-1.000000
G01 X26.560110 Y8.560640 Z-1.000000
G01 X26.576441 Y8.584298 Z-1.000000
G01 X26.605118 Y8.615568 Z-1.000000
G03 X26.593591 Y8.685264 Z-1.000000 I-0.106829 J0.018133
G02 X26.553691 Y8.789223 Z-1.000000 I0.379234 J0.205189
G01 X26.564131 Y8.807222 Z-1.000000
G01 X26.550151 Y8.831792 Z-1.000000
G01 X26.539565 Y8.873085 Z-1.000000
G02 X26.581451 Y8.993758 Z-1.000000 I0.438938 J-0.084752
G03 X26.597839 Y9.040921 Z-1.000000 I-0.155558 J0.080480
G03 X26.597891 Y9.078518 Z-1.000000 I-0.097719 J0.018935
G02 X26.608099 Y9.179631 Z-1.000000 I0.174747 J0.033430
G01 X26.648891 Y9.202512 Z-1.000000
G01 X26.659067 Y9.205172 Z-1.000000
G01 X26.667521 Y9.217162 Z-1.000000
G01 X26.664293 Y9.227787 Z-1.000000
G01 X26.644551 Y9.234892 Z-1.000000
G01 X26.641134 Y9.240288 Z-1.000000
G01 X26.651051 Y9.249962 Z-1.000000
G03 X26.691584 Y9.304258 Z-1.000000 I-0.024273 J0.060397
G03 X26.662731 Y9.374039 Z-1.000000 I-0.080483 J0.007578
G02 X26.641249 Y9.422301 Z-1.000000 I0.038059 J0.045853
G02 X26.666631 Y9.470469 Z-1.000000 I0.063253 J-0.002560
G03 X26.684993 Y9.495435 Z-1.000000 I-0.031844 J0.042656
G03 X26.695751 Y9.553099 Z-1.000000 I-0.179961 J0.063410
G02 X26.717498 Y9.688515 Z-1.000000 I0.533473 J-0.016218
G02 X26.746221 Y9.723258 Z-1.000000 I0.055135 J-0.016338
G03 X26.774245 Y9.756034 Z-1.000000 I-0.026295 J0.050851
G03 X26.787791 Y9.848169 Z-1.000000 I-0.253375 J0.084315
G03 X26.780442 Y9.948138 Z-1.000000 I-1.117727 J-0.031918
G01 X26.774511 Y9.960335 Z-1.000000
G01 X26.771380 Y9.970997 Z-1.000000
G01 X26.781211 Y9.991095 Z-1.000000
G01 X26.786419 Y10.011018 Z-1.000000
G01 X26.772811 Y10.036985 Z-1.000000
G02 X26.755661 Y10.088791 Z-1.000000 I0.042942 J0.042957
G02 X26.788931 Y10.146487 Z-1.000000 I0.089525 J-0.013183
G01 X26.796937 Y10.170139 Z-1.000000
G01 X26.779531 Y10.183697 Z-1.000000
G01 X26.756078 Y10.191384 Z-1.000000
G01 X26.748391 Y10.206567 Z-1.000000
G01 X26.740924 Y10.218581 Z-1.000000
G01 X26.722331 Y10.219437 Z-1.000000
G01 X26.708869 Y10.222058 Z-1.000000
G01 X26.705961 Y10.234697 Z-1.000000
G01 X26.704090 Y10.254398 Z-1.000000
G01 X26.684051 Y10.269987 Z-1.000000
G01 X26.666541 Y10.288961 Z-1.000000
G02 X26.663171 Y10.360317 Z-1.000000 I0.194417 J0.044940
G02 X26.680414 Y10.437634 Z-1.000000 I0.453845 J-0.060636
G02 X26.696711 Y10.466449 Z-1.000000 I0.076190 J-0.024074
G01 X26.702286 Y10.487516 Z-1.000000
G01 X26.689311 Y10.501879 Z-1.000000
G02 X26.618338 Y10.552025 Z-1.000000 I0.043384 J0.136701
G01 X26.621091 Y10.592009 Z-1.000000
G01 X26.633423 Y10.612798 Z-1.000000
G03 X26.639411 Y10.654469 Z-1.000000 I-0.142007 J0.041671
G01 X26.650408 Y10.680275 Z-1.000000
G01 X26.668921 Y10.682819 Z-1.000000
G01 X26.696265 Y10.678056 Z-1.000000
G01 X26.717541 Y10.690019 Z-1.000000
G01 X26.726736 Y10.708412 Z-1.000000
G01 X26.723041 Y10.713119 Z-1.000000
G01 X26.710725 Y10.716789 Z-1.000000
G02 X26.662751 Y10.752029 Z-1.000000 I0.268953 J0.416413
G02 X26.643294 Y10.775546 Z-1.000000 I0.052750 J0.063452
G01 X26.647181 Y10.780179 Z-1.000000
G01 X26.656900 Y10.784491 Z-1.000000
G01 X26.654981 Y10.798349 Z-1.000000
G01 X26.655705 Y10.811863 Z-1.000000
G01 X26.673491 Y10.816779 Z-1.000000
G03 X26.712403 Y10.813591 Z-1.000000 I0.029278 J0.118292
G01 X26.724321 Y10.820879 Z-1.000000
G01 X26.723152 Y10.830848 Z-1.000000
G01 X26.704841 Y10.840399 Z-1.000000
G01 X26.690993 Y10.856027 Z-1.000000
G02 X26.696841 Y10.993323 Z-1.000000 I0.724385 J0.037916
G02 X26.721973 Y11.139628 Z-1.000000 I2.240747 J-0.309600
G02 X26.732851 Y11.168277 Z-1.000000 I0.094231 J-0.019390
G03 X26.761646 Y11.275937 Z-1.000000 I-0.186853 J0.107657
G01 X26.732854 Y11.304728 Z-1.000000
G01 X26.722747 Y11.299223 Z-1.000000
G01 X26.717284 Y11.280688 Z-1.000000
G01 X26.709719 Y11.265649 Z-1.000000
G01 X26.691074 Y11.261228 Z-1.000000
G01 X26.671345 Y11.255432 Z-1.000000
G03 X26.653704 Y11.226878 Z-1.000000 I0.041902 J-0.045615
G01 X26.644319 Y11.226275 Z-1.000000
G02 X26.633524 Y11.273588 Z-1.000000 I0.122115 J0.052750
G02 X26.637714 Y11.325009 Z-1.000000 I0.212966 J0.008527
G01 X26.647044 Y11.339528 Z-1.000000
G01 X26.650007 Y11.346919 Z-1.000000
G01 X26.644944 Y11.351208 Z-1.000000
G01 X26.636649 Y11.358969 Z-1.000000
G02 X26.640244 Y11.409818 Z-1.000000 I0.169582 J0.013563
G03 X26.645848 Y11.466039 Z-1.000000 I-0.225604 J0.050878
G01 X26.638644 Y11.482998 Z-1.000000
G02 X26.627301 Y11.499160 Z-1.000000 I0.040456 J0.040456
G01 X26.624074 Y11.514148 Z-1.000000
G01 X26.628079 Y11.517145 Z-1.000000
G01 X26.636994 Y11.510548 Z-1.000000
G01 X26.652583 Y11.499274 Z-1.000000
G01 X26.676044 Y11.500648 Z-1.000000
G01 X26.690787 Y11.517281 Z-1.000000
G03 X26.692264 Y11.564888 Z-1.000000 I-0.107573 J0.027163
G01 X26.682114 Y11.619018 Z-1.000000
G01 X26.729974 Y11.594268 Z-1.000000
G03 X26.773829 Y11.586755 Z-1.000000 I0.033752 J0.065266
G01 X26.803724 Y11.604508 Z-1.000000
G01 X26.829614 Y11.639498 Z-1.000000
G01 X26.819534 Y11.595418 Z-1.000000
G03 X26.822289 Y11.563779 Z-1.000000 I0.050274 J-0.011562
G01 X26.835964 Y11.556488 Z-1.000000
G01 X26.875426 Y11.601575 Z-1.000000
G03 X26.842364 Y11.663464 Z-1.000000 I-0.066944 J0.004014
G01 X26.831926 Y11.673914 Z-1.000000
G01 X26.834064 Y11.677704 Z-1.000000
G02 X26.878131 Y11.660817 Z-1.000000 I0.000958 J-0.063439
G01 X26.881854 Y11.633444 Z-1.000000
G01 X26.880435 Y11.621333 Z-1.000000
G01 X26.887654 Y11.616134 Z-1.000000
G01 X26.898298 Y11.622012 Z-1.000000
G01 X26.904144 Y11.642274 Z-1.000000
G03 X26.881764 Y11.749444 Z-1.000000 I-0.267788 J0.000000
G01 X26.847554 Y11.771834 Z-1.000000
G01 X26.834933 Y11.779211 Z-1.000000
G02 X26.823434 Y11.814654 Z-1.000000 I0.082055 J0.046208
G01 X26.808436 Y11.844867 Z-1.000000
G01 X26.782684 Y11.853624 Z-1.000000
G01 X26.762349 Y11.865198 Z-1.000000
G02 X26.754234 Y11.915904 Z-1.000000 I0.087665 J0.040033
G03 X26.761258 Y11.982058 Z-1.000000 I-5.101930 J0.575142
G03 X26.762834 Y12.000954 Z-1.000000 I-0.586790 J0.058460
G01 X26.769435 Y12.016393 Z-1.000000
G02 X26.796074 Y12.037014 Z-1.000000 I0.074360 J-0.068546
G01 X26.812124 Y12.032344 Z-1.000000
G01 X26.817694 Y11.998634 Z-1.000000
G03 X26.811419 Y11.946576 Z-1.000000 I0.399511 J-0.074565
G01 X26.814694 Y11.943114 Z-1.000000
G01 X26.820629 Y11.945963 Z-1.000000
G03 X26.861544 Y12.001504 Z-1.000000 I-0.660537 J0.529436
G03 X26.887022 Y12.063141 Z-1.000000 I-0.137566 J0.092948
G03 X26.889204 Y12.145529 Z-1.000000 I-0.249002 J0.047817
G02 X26.886219 Y12.230278 Z-1.000000 I0.416750 J0.057108
G02 X26.898904 Y12.292367 Z-1.000000 I0.233575 J-0.015382
G03 X26.911283 Y12.351501 Z-1.000000 I-0.218202 J0.076541
G01 X26.904704 Y12.369247 Z-1.000000
G01 X26.894009 Y12.368472 Z-1.000000
G03 X26.878994 Y12.334757 Z-1.000000 I0.067273 J-0.050162
G02 X26.866273 Y12.293474 Z-1.000000 I-0.207752 J0.041415
G01 X26.861084 Y12.292467 Z-1.000000
G02 X26.847422 Y12.344233 Z-1.000000 I0.037613 J0.037613
G02 X26.910524 Y12.471535 Z-1.000000 I0.360960 J-0.099633
G01 X26.909820 Y12.480713 Z-1.000000
G01 X26.898584 Y12.483035 Z-1.000000
G01 X26.882681 Y12.485125 Z-1.000000
G01 X26.879124 Y12.496965 Z-1.000000
G03 X26.886078 Y12.522237 Z-1.000000 I-0.128140 J0.048851
G03 X26.888624 Y12.551635 Z-1.000000 I-0.168433 J0.029398
G01 X26.896630 Y12.573499 Z-1.000000
G01 X26.913884 Y12.581505 Z-1.000000
G01 X26.923582 Y12.588807 Z-1.000000
G01 X26.920384 Y12.604115 Z-1.000000
G02 X26.911001 Y12.657051 Z-1.000000 I0.041813 J0.034711
G02 X26.952984 Y12.695555 Z-1.000000 I0.057382 J-0.020427
G01 X26.973991 Y12.708444 Z-1.000000
G01 X26.975014 Y12.720415 Z-1.000000
G01 X26.977153 Y12.726671 Z-1.000000
G01 X26.991574 Y12.726615 Z-1.000000
G01 X27.004971 Y12.727407 Z-1.000000
G01 X27.006964 Y12.734715 Z-1.000000
G01 X27.004760 Y12.751987 Z-1.000000
G02 X27.020124 Y12.777545 Z-1.000000 I0.058976 J-0.018057
G01 X27.029214 Y12.811994 Z-1.000000
G01 X27.008224 Y12.820635 Z-1.000000
G01 X27.001424 Y12.822835 Z-1.000000
G01 X27.002583 Y12.861992 Z-1.000000
G01 X26.964764 Y12.868495 Z-1.000000
G01 X26.955142 Y12.867466 Z-1.000000
G01 X26.950954 Y12.873395 Z-1.000000
G01 X26.956813 Y12.881142 Z-1.000000
G02 X27.003404 Y12.888285 Z-1.000000 I0.052018 J-0.183785
G03 X27.093669 Y12.923167 Z-1.000000 I-0.004175 J0.145034
G03 X27.112283 Y12.981665 Z-1.000000 I-0.037977 J0.044295
G02 X27.112007 Y13.010701 Z-1.000000 I0.060608 J0.015095
G01 X27.120583 Y13.017535 Z-1.000000
G01 X27.154499 Y12.980073 Z-1.000000
G02 X27.106223 Y12.873303 Z-1.000000 I-0.182392 J0.018169
G03 X27.088021 Y12.816682 Z-1.000000 I0.051178 J-0.047689
G01 X27.117333 Y12.786953 Z-1.000000
G01 X27.142792 Y12.793641 Z-1.000000
G01 X27.157873 Y12.818093 Z-1.000000
G01 X27.167573 Y12.791773 Z-1.000000
G03 X27.175102 Y12.730434 Z-1.000000 I0.394361 J0.017271
G03 X27.192813 Y12.667211 Z-1.000000 I0.443180 J0.090061
G02 X27.212146 Y12.582675 Z-1.000000 I-0.337969 J-0.121769
G01 X27.202013 Y12.579161 Z-1.000000
G01 X27.179744 Y12.575087 Z-1.000000
G03 X27.177473 Y12.459972 Z-1.000000 I0.309364 J-0.063683
G02 X27.177810 Y12.424969 Z-1.000000 I-0.113117 J-0.018592
G01 X27.172173 Y12.423622 Z-1.000000
G01 X27.154888 Y12.431706 Z-1.000000
G03 X27.118133 Y12.419022 Z-1.000000 I0.006744 J-0.079136
G03 X27.068070 Y12.348227 Z-1.000000 I0.064832 J-0.098945
G03 X27.079743 Y12.262297 Z-1.000000 I0.114897 J-0.028151
G01 X27.104033 Y12.256389 Z-1.000000
G01 X27.122583 Y12.290577 Z-1.000000
G01 X27.128536 Y12.304752 Z-1.000000
G01 X27.135993 Y12.303917 Z-1.000000
G01 X27.146347 Y12.301214 Z-1.000000
G01 X27.157653 Y12.315617 Z-1.000000
G03 X27.158453 Y12.337708 Z-1.000000 I-0.048731 J0.012824
G01 X27.153153 Y12.340037 Z-1.000000
G01 X27.141603 Y12.338417 Z-1.000000
G01 X27.131423 Y12.346037 Z-1.000000
G01 X27.132547 Y12.356137 Z-1.000000
G01 X27.153163 Y12.368047 Z-1.000000
G01 X27.197910 Y12.346886 Z-1.000000
G01 X27.184103 Y12.300997 Z-1.000000
G01 X27.172944 Y12.285681 Z-1.000000
G03 X27.173193 Y12.256227 Z-1.000000 I0.058492 J-0.014233
G01 X27.164749 Y12.236963 Z-1.000000
G01 X27.148273 Y12.242957 Z-1.000000
G01 X27.139173 Y12.220747 Z-1.000000
G03 X27.147308 Y12.186063 Z-1.000000 I0.069299 J-0.002042
G01 X27.165193 Y12.171947 Z-1.000000
G01 X27.169424 Y12.167002 Z-1.000000
G01 X27.166076 Y12.163047 Z-1.000000
G01 X27.143382 Y12.168924 Z-1.000000
G02 X27.115476 Y12.195847 Z-1.000000 I0.055197 J0.085134
G01 X27.091236 Y12.230447 Z-1.000000
G01 X27.088536 Y12.191947 Z-1.000000
G02 X27.079912 Y12.115820 Z-1.000000 I-0.874066 J0.060469
G02 X27.071406 Y12.083383 Z-1.000000 I-0.166051 J0.026208
G03 X27.064857 Y12.059506 Z-1.000000 I0.128946 J-0.048204
G03 X27.053896 Y11.986073 Z-1.000000 I1.239669 J-0.222574
G03 X27.055982 Y11.921776 Z-1.000000 I0.213102 J-0.025269
G01 X27.067596 Y11.912113 Z-1.000000
G01 X27.086190 Y11.918644 Z-1.000000
G03 X27.107006 Y11.943693 Z-1.000000 I-0.050807 J0.063396
G02 X27.126446 Y11.965830 Z-1.000000 I0.057196 J-0.030623
G01 X27.138516 Y11.966243 Z-1.000000
G01 X27.144021 Y11.968181 Z-1.000000
G01 X27.143816 Y11.981493 Z-1.000000
G02 X27.135108 Y12.085423 Z-1.000000 I0.174380 J0.066940
G01 X27.170686 Y12.114532 Z-1.000000
G01 X27.178640 Y12.110142 Z-1.000000
G01 X27.178686 Y12.101882 Z-1.000000
G03 X27.156053 Y12.032841 Z-1.000000 I0.131080 J-0.081200
G03 X27.151566 Y11.760306 Z-1.000000 I2.176136 J-0.172135
G02 X27.147214 Y11.730962 Z-1.000000 I-0.077149 J-0.003551
G01 X27.139166 Y11.725276 Z-1.000000
G01 X27.126733 Y11.714525 Z-1.000000
G03 X27.104516 Y11.487830 Z-1.000000 I2.388555 J-0.348521
G02 X27.096418 Y11.451221 Z-1.000000 I-0.112787 J0.005747
G01 X27.087206 Y11.445010 Z-1.000000
G01 X27.079721 Y11.438705 Z-1.000000
G03 X27.080006 Y11.403180 Z-1.000000 I0.098417 J-0.016973
G02 X27.075806 Y11.337834 Z-1.000000 I-0.128761 J-0.024533
G01 X27.056166 Y11.330650 Z-1.000000
G01 X27.048501 Y11.326775 Z-1.000000
G03 X27.048566 Y11.241030 Z-1.000000 I0.502301 J-0.042489
G01 X27.057266 Y11.141390 Z-1.000000
G01 X27.038976 Y11.233480 Z-1.000000
G03 X27.011949 Y11.296778 Z-1.000000 I-0.163849 J-0.032542
G01 X26.993506 Y11.298390 Z-1.000000
G03 X26.966633 Y11.237257 Z-1.000000 I0.065080 J-0.065080
G03 X26.986606 Y11.137523 Z-1.000000 I0.213278 J-0.009157
G02 X26.994369 Y11.101904 Z-1.000000 I-0.074524 J-0.034898
G02 X26.985800 Y11.046433 Z-1.000000 I-0.194868 J0.001707
G03 X26.976235 Y10.990606 Z-1.000000 I0.212020 J-0.065059
G03 X26.982000 Y10.955113 Z-1.000000 I0.089247 J-0.003719
G02 X26.988523 Y10.919061 Z-1.000000 I-0.094544 J-0.035722
G02 X26.981464 Y10.808877 Z-1.000000 I-0.909781 J0.002966
G03 X26.972310 Y10.698462 Z-1.000000 I1.286133 J-0.162215
G03 X26.976064 Y10.675626 Z-1.000000 I0.057377 J-0.002295
G01 X26.978548 Y10.653755 Z-1.000000
G02 X26.968664 Y10.623636 Z-1.000000 I-0.089297 J0.012623
G03 X26.958863 Y10.592276 Z-1.000000 I0.076259 J-0.041044
G03 X26.949714 Y10.456004 Z-1.000000 I1.507781 J-0.169674
G02 X26.940719 Y10.318938 Z-1.000000 I-1.592750 J0.035698
G02 X26.926114 Y10.240147 Z-1.000000 I-0.534222 J0.058276
G03 X26.914769 Y10.164233 Z-1.000000 I0.339501 J-0.089543
G01 X26.922314 Y10.142007 Z-1.000000
G02 X26.956028 Y10.028230 Z-1.000000 I-0.115905 J-0.096228
G02 X26.903394 Y9.981409 Z-1.000000 I-0.052634 J0.006173
G01 X26.893339 Y9.976901 Z-1.000000
G01 X26.888774 Y9.964919 Z-1.000000
G01 X26.893645 Y9.957064 Z-1.000000
G01 X26.903554 Y9.957519 Z-1.000000
G01 X26.949635 Y9.931078 Z-1.000000
G02 X26.888494 Y9.350765 Z-1.000000 I-3.632647 J0.089352
G03 X26.864331 Y9.198080 Z-1.000000 I2.698329 J-0.505269
G03 X26.849394 Y9.048854 Z-1.000000 I2.562543 J-0.331869
G02 X26.838708 Y8.914924 Z-1.000000 I-7.276566 J0.513199
G02 X26.833344 Y8.868087 Z-1.000000 I-0.931962 J0.083004
G03 X26.829073 Y8.821186 Z-1.000000 I0.481947 J-0.067536
G03 X26.816894 Y8.480593 Z-1.000000 I25.514186 J-1.082832
G03 X26.815904 Y8.155304 Z-1.000000 I6.241366 J-0.181649
G01 X26.824494 Y8.150644 Z-1.000000
G01 X26.833433 Y8.146082 Z-1.000000
G02 X26.842024 Y7.904762 Z-1.000000 I-3.385056 J-0.241320
G02 X26.831513 Y7.652388 Z-1.000000 I-3.034924 J0.000000
G01 X26.818674 Y7.624690 Z-1.000000
G03 X26.804230 Y7.597645 Z-1.000000 I0.037301 J-0.037301
G03 X26.795314 Y7.506801 Z-1.000000 I0.458342 J-0.090844
G02 X26.782339 Y7.425233 Z-1.000000 I-0.262883 J0.000000
G01 X26.764474 Y7.412271 Z-1.000000
G01 X26.741059 Y7.402742 Z-1.000000
G03 X26.723624 Y7.372421 Z-1.000000 I0.044817 J-0.045944
G02 X26.707369 Y7.344574 Z-1.000000 I-0.056384 J0.014245
G01 X26.690914 Y7.341281 Z-1.000000
G03 X26.667993 Y7.348859 Z-1.000000 I-0.090991 J-0.236767
G01 X26.659784 Y7.349981 Z-1.000000
G01 X26.670584 Y7.373141 Z-1.000000
G03 X26.682543 Y7.421639 Z-1.000000 I-0.044101 J0.036598
G01 X26.655664 Y7.443411 Z-1.000000
G01 X26.646618 Y7.436445 Z-1.000000
G03 X26.639604 Y7.382431 Z-1.000000 I0.204460 J-0.054014
G02 X26.631923 Y7.326286 Z-1.000000 I-0.209029 J-0.000000
G01 X26.620144 Y7.312361 Z-1.000000
G01 X26.614364 Y7.303268 Z-1.000000
G01 X26.620144 Y7.294191 Z-1.000000
G01 X26.639140 Y7.270255 Z-1.000000
G01 X26.627944 Y7.257151 Z-1.000000
G01 X26.617727 Y7.260722 Z-1.000000
G02 X26.597994 Y7.278581 Z-1.000000 I0.068142 J0.095124
G01 X26.597921 Y7.278575 Z-1.000000
G00 Z5.000000

(End cutting path id: path20655)


(Start cutting path id: path20655)
(Change tool to Default tool)

G00 Z5.000000
G00 X26.623981 Y7.388902

G01 Z-1.000000 F100.0(Penetrate)
G01 X26.618558 Y7.406820 Z-1.000000 F3500.000000
G01 X26.608411 Y7.412252 Z-1.000000
G01 X26.598248 Y7.406804 Z-1.000000
G01 X26.592841 Y7.388902 Z-1.000000
G01 X26.598266 Y7.370973 Z-1.000000
G01 X26.608411 Y7.365542 Z-1.000000
G01 X26.618572 Y7.370989 Z-1.000000
G01 X26.623981 Y7.388902 Z-1.000000
G01 X26.623981 Y7.388902 Z-1.000000
G00 Z5.000000

(End cutting path id: path20655)


(Start cutting path id: path20655)
(Change tool to Default tool)

G00 Z5.000000
G00 X26.768174 Y7.472812

G01 Z-1.000000 F100.0(Penetrate)
G03 X26.770115 Y7.501317 Z-1.000000 I-0.074770 J0.019409 F3500.000000
G03 X26.762174 Y7.523412 Z-1.000000 I-0.051803 J-0.006143
G01 X26.748514 Y7.530858 Z-1.000000
G01 X26.734854 Y7.523412 Z-1.000000
G03 X26.722915 Y7.464980 Z-1.000000 I0.069103 J-0.044555
G01 X26.748514 Y7.443392 Z-1.000000
G01 X26.756991 Y7.447933 Z-1.000000
G03 X26.768144 Y7.472812 Z-1.000000 I-0.068792 J0.045779
G01 X26.768174 Y7.472812 Z-1.000000
G00 Z5.000000

(End cutting path id: path20655)


(Start cutting path id: path20655)
(Change tool to Default tool)

G00 Z5.000000
G00 X26.771874 Y7.614668

G01 Z-1.000000 F100.0(Penetrate)
G01 X26.772590 Y7.625286 Z-1.000000 F3500.000000
G01 X26.764974 Y7.630238 Z-1.000000
G01 X26.753164 Y7.625537 Z-1.000000
G01 X26.748484 Y7.614668 Z-1.000000
G01 X26.751211 Y7.601811 Z-1.000000
G01 X26.755384 Y7.599098 Z-1.000000
G01 X26.761028 Y7.601344 Z-1.000000
G03 X26.771874 Y7.614668 Z-1.000000 I-0.045458 J0.048079
G01 X26.771874 Y7.614668 Z-1.000000
G00 Z5.000000

(End cutting path id: path20655)


(Start cutting path id: path20655)
(Change tool to Default tool)

G00 Z5.000000
G00 X26.826374 Y7.693438

G01 Z-1.000000 F100.0(Penetrate)
G03 X26.819435 Y7.728646 Z-1.000000 I-0.092799 J0.000000 F3500.000000
G01 X26.810804 Y7.731448 Z-1.000000
G01 X26.800771 Y7.718697 Z-1.000000
G03 X26.795234 Y7.683818 Z-1.000000 I0.107091 J-0.034879
G03 X26.801481 Y7.652066 Z-1.000000 I0.083822 J-0.000000
G01 X26.810804 Y7.645808 Z-1.000000
G01 X26.819853 Y7.652377 Z-1.000000
G03 X26.826374 Y7.693438 Z-1.000000 I-0.126021 J0.041061
G01 X26.826374 Y7.693438 Z-1.000000
G00 Z5.000000

(End cutting path id: path20655)


(Start cutting path id: path20655)
(Change tool to Default tool)

G00 Z5.000000
G00 X26.821474 Y7.804430

G01 Z-1.000000 F100.0(Penetrate)
G01 X26.816613 Y7.805421 Z-1.000000 F3500.000000
G01 X26.812074 Y7.795030 Z-1.000000
G01 X26.815408 Y7.775595 Z-1.000000
G01 X26.820274 Y7.774590 Z-1.000000
G01 X26.824831 Y7.785024 Z-1.000000
G01 X26.821474 Y7.804430 Z-1.000000
G01 X26.821474 Y7.804430 Z-1.000000
G00 Z5.000000

(End cutting path id: path20655)


(Start cutting path id: path20655)
(Change tool to Default tool)

G00 Z5.000000
G00 X26.691382 Y7.929541

G01 Z-1.000000 F100.0(Penetrate)
G03 X26.692998 Y8.046111 Z-1.000000 I-0.977666 J0.071846 F3500.000000
G01 X26.685482 Y8.058914 Z-1.000000
G01 X26.677499 Y8.055877 Z-1.000000
G03 X26.670712 Y8.009844 Z-1.000000 I0.152726 J-0.046033
G02 X26.665941 Y7.952490 Z-1.000000 I-0.347098 J0.000000
G02 X26.652382 Y7.900959 Z-1.000000 I-0.288250 J0.048294
G03 X26.644552 Y7.852105 Z-1.000000 I0.124358 J-0.044985
G01 X26.654582 Y7.825519 Z-1.000000
G03 X26.675170 Y7.804742 Z-1.000000 I0.127668 J0.105922
G01 X26.678822 Y7.805029 Z-1.000000
G01 X26.680913 Y7.809860 Z-1.000000
G03 X26.691372 Y7.929543 Z-1.000000 I-4.279536 J0.434294
G01 X26.691382 Y7.929541 Z-1.000000
G00 Z5.000000

(End cutting path id: path20655)


(Start cutting path id: path20655)
(Change tool to Default tool)

G00 Z5.000000
G00 X26.512199 Y7.947683

G01 Z-1.000000 F100.0(Penetrate)
G02 X26.515861 Y7.987766 Z-1.000000 I0.096800 J0.011365 F3500.000000
G01 X26.526069 Y7.992733 Z-1.000000
G02 X26.569061 Y7.934132 Z-1.000000 I-0.024179 J-0.062809
G01 X26.532269 Y7.894963 Z-1.000000
G01 X26.523699 Y7.900872 Z-1.000000
G02 X26.512249 Y7.947693 Z-1.000000 I0.182407 J0.069416
G01 X26.512199 Y7.947683 Z-1.000000
G00 Z5.000000

(End cutting path id: path20655)


(Start cutting path id: path20655)
(Change tool to Default tool)

G00 Z5.000000
G00 X26.546132 Y8.050640

G01 Z-1.000000 F100.0(Penetrate)
G01 X26.550830 Y8.061528 Z-1.000000 F3500.000000
G01 X26.562622 Y8.066210 Z-1.000000
G01 X26.570241 Y8.061242 Z-1.000000
G01 X26.569522 Y8.050640 Z-1.000000
G02 X26.558646 Y8.037297 Z-1.000000 I-0.055845 J0.034416
G01 X26.553032 Y8.035070 Z-1.000000
G01 X26.548850 Y8.037791 Z-1.000000
G01 X26.546132 Y8.050640 Z-1.000000
G01 X26.546132 Y8.050640 Z-1.000000
G00 Z5.000000

(End cutting path id: path20655)


(Start cutting path id: path20655)
(Change tool to Default tool)

G00 Z5.000000
G00 X26.469510 Y8.199850

G01 Z-1.000000 F100.0(Penetrate)
G01 X26.474061 Y8.210238 Z-1.000000 F3500.000000
G01 X26.478910 Y8.209250 Z-1.000000
G01 X26.482228 Y8.189778 Z-1.000000
G01 X26.477710 Y8.179410 Z-1.000000
G01 X26.472841 Y8.180406 Z-1.000000
G01 X26.469510 Y8.199850 Z-1.000000
G01 X26.469510 Y8.199850 Z-1.000000
G00 Z5.000000

(End cutting path id: path20655)


(Start cutting path id: path20655)
(Change tool to Default tool)

G00 Z5.000000
G00 X26.504757 Y8.303490

G01 Z-1.000000 F100.0(Penetrate)
G02 X26.512678 Y8.330526 Z-1.000000 I0.063348 J-0.003881 F3500.000000
G01 X26.520497 Y8.331620 Z-1.000000
G01 X26.525946 Y8.317288 Z-1.000000
G02 X26.518097 Y8.290220 Z-1.000000 I-0.063469 J0.003733
G01 X26.510269 Y8.289135 Z-1.000000
G01 X26.504807 Y8.303500 Z-1.000000
G01 X26.504757 Y8.303490 Z-1.000000
G00 Z5.000000

(End cutting path id: path20655)


(Start cutting path id: path20655)
(Change tool to Default tool)

G00 Z5.000000
G00 X26.686282 Y8.330900

G01 Z-1.000000 F100.0(Penetrate)
G01 X26.680835 Y8.341061 Z-1.000000 F3500.000000
G01 X26.662922 Y8.346470 Z-1.000000
G01 X26.645004 Y8.341047 Z-1.000000
G01 X26.639572 Y8.330900 Z-1.000000
G01 X26.645020 Y8.320737 Z-1.000000
G01 X26.662922 Y8.315330 Z-1.000000
G01 X26.680851 Y8.320755 Z-1.000000
G01 X26.686282 Y8.330900 Z-1.000000
G01 X26.686282 Y8.330900 Z-1.000000
G00 Z5.000000

(End cutting path id: path20655)


(Start cutting path id: path20655)
(Change tool to Default tool)

G00 Z5.000000
G00 X26.572082 Y8.481410

G01 Z-1.000000 F100.0(Penetrate)
G01 X26.564528 Y8.492948 Z-1.000000 F3500.000000
G01 X26.561702 Y8.507880 Z-1.000000
G01 X26.566618 Y8.512205 Z-1.000000
G01 X26.580132 Y8.505580 Z-1.000000
G02 X26.592188 Y8.487160 Z-1.000000 I-0.038079 J-0.038079
G01 X26.590512 Y8.479110 Z-1.000000
G01 X26.582487 Y8.476344 Z-1.000000
G01 X26.572092 Y8.481410 Z-1.000000
G01 X26.572082 Y8.481410 Z-1.000000
G00 Z5.000000

(End cutting path id: path20655)


(Start cutting path id: path20655)
(Change tool to Default tool)

G00 Z5.000000
G00 X26.650212 Y8.536233

G01 Z-1.000000 F100.0(Penetrate)
G01 X26.645351 Y8.537224 Z-1.000000 F3500.000000
G01 X26.640812 Y8.526833 Z-1.000000
G01 X26.644146 Y8.507398 Z-1.000000
G01 X26.649012 Y8.506393 Z-1.000000
G01 X26.653569 Y8.516827 Z-1.000000
G01 X26.650212 Y8.536233 Z-1.000000
G01 X26.650212 Y8.536233 Z-1.000000
G00 Z5.000000

(End cutting path id: path20655)


(Start cutting path id: path20655)
(Change tool to Default tool)

G00 Z5.000000
G00 X26.540899 Y7.796343

G01 Z-1.000000 F100.0(Penetrate)
G02 X26.523632 Y7.843003 Z-1.000000 I0.042107 J0.042107 F3500.000000
G01 X26.546099 Y7.863813 Z-1.000000
G01 X26.555407 Y7.857503 Z-1.000000
G02 X26.561669 Y7.824883 Z-1.000000 I-0.081833 J-0.032620
G01 X26.552687 Y7.797258 Z-1.000000
G01 X26.540909 Y7.796333 Z-1.000000
G01 X26.540899 Y7.796343 Z-1.000000
G00 Z5.000000

(End cutting path id: path20655)


(Start cutting path id: path20655)
(Change tool to Default tool)

G00 Z5.000000
G00 X26.508159 Y7.765823

G01 Z-1.000000 F100.0(Penetrate)
G01 X26.510019 Y7.774505 Z-1.000000 F3500.000000
G01 X26.516859 Y7.774523 Z-1.000000
G02 X26.529355 Y7.755306 Z-1.000000 I-0.038263 J-0.038553
G01 X26.527489 Y7.746603 Z-1.000000
G01 X26.520638 Y7.746586 Z-1.000000
G02 X26.508139 Y7.765803 Z-1.000000 I0.038042 J0.038416
G01 X26.508159 Y7.765823 Z-1.000000
G00 Z5.000000

(End cutting path id: path20655)


(Start cutting path id: path20655)
(Change tool to Default tool)

G00 Z5.000000
G00 X25.832310 Y7.723673

G01 Z-1.000000 F100.0(Penetrate)
G01 X25.840210 Y7.743133 Z-1.000000 F3500.000000
G02 X25.843974 Y7.723673 Z-1.000000 I-0.048424 J-0.019460
G02 X25.840210 Y7.704213 Z-1.000000 I-0.052188 J-0.000000
G01 X25.832310 Y7.723673 Z-1.000000
G01 X25.832310 Y7.723673 Z-1.000000
G00 Z5.000000

(End cutting path id: path20655)


(Start cutting path id: path20655)
(Change tool to Default tool)

G00 Z5.000000
G00 X25.824710 Y7.547210

G01 Z-1.000000 F100.0(Penetrate)
G02 X25.808026 Y7.588527 Z-1.000000 I0.040300 J0.040300 F3500.000000
G01 X25.826010 Y7.620020 Z-1.000000
G01 X25.832573 Y7.617680 Z-1.000000
G02 X25.839350 Y7.582010 Z-1.000000 I-0.114031 J-0.040142
G02 X25.833289 Y7.548880 Z-1.000000 I-0.077857 J-0.002876
G01 X25.824720 Y7.547210 Z-1.000000
G01 X25.824710 Y7.547210 Z-1.000000
G00 Z5.000000

(End cutting path id: path20655)


(Start cutting path id: path20655)
(Change tool to Default tool)

G00 Z5.000000
G00 X25.815558 Y7.452480

G01 Z-1.000000 F100.0(Penetrate)
G01 X25.820109 Y7.462868 Z-1.000000 F3500.000000
G01 X25.824958 Y7.461880 Z-1.000000
G01 X25.828276 Y7.442408 Z-1.000000
G01 X25.823758 Y7.432040 Z-1.000000
G01 X25.818889 Y7.433036 Z-1.000000
G01 X25.815558 Y7.452480 Z-1.000000
G01 X25.815558 Y7.452480 Z-1.000000
G00 Z5.000000

(End cutting path id: path20655)


(Start cutting path id: path20655)
(Change tool to Default tool)

G00 Z5.000000
G00 X25.785378 Y7.458980

G01 Z-1.000000 F100.0(Penetrate)
G02 X25.788128 Y7.481770 Z-1.000000 I0.095822 J-0.000000 F3500.000000
G02 X25.798758 Y7.513480 Z-1.000000 I0.195146 J-0.047783
G01 X25.807839 Y7.523752 Z-1.000000
G01 X25.812138 Y7.521280 Z-1.000000
G02 X25.809391 Y7.498501 Z-1.000000 I-0.095808 J-0.000000
G02 X25.798758 Y7.466780 Z-1.000000 I-0.195122 J0.047762
G01 X25.789677 Y7.456508 Z-1.000000
G01 X25.785378 Y7.458980 Z-1.000000
G01 X25.785378 Y7.458980 Z-1.000000
G00 Z5.000000

(End cutting path id: path20655)


(Start cutting path id: path20655)
(Change tool to Default tool)

G00 Z5.000000
G00 X25.736478 Y7.349976

G01 Z-1.000000 F100.0(Penetrate)
G01 X25.741052 Y7.360999 Z-1.000000 F3500.000000
G01 X25.752048 Y7.365546 Z-1.000000
G01 X25.763071 Y7.360972 Z-1.000000
G01 X25.767618 Y7.349976 Z-1.000000
G01 X25.763044 Y7.338953 Z-1.000000
G01 X25.752048 Y7.334406 Z-1.000000
G01 X25.741025 Y7.338980 Z-1.000000
G01 X25.736478 Y7.349976 Z-1.000000
G01 X25.736478 Y7.349976 Z-1.000000
G00 Z5.000000

(End cutting path id: path20655)


(Start cutting path id: path20655)
(Change tool to Default tool)

G00 Z5.000000
G00 X25.798758 Y7.209845

G01 Z-1.000000 F100.0(Penetrate)
G03 X25.793526 Y7.235761 Z-1.000000 I-0.066796 J-0.000000 F3500.000000
G01 X25.785658 Y7.240985 Z-1.000000
G01 X25.750174 Y7.281055 Z-1.000000
G02 X25.804098 Y7.391647 Z-1.000000 I0.187129 J-0.022800
G01 X25.809899 Y7.391227 Z-1.000000
G01 X25.814328 Y7.377877 Z-1.000000
G03 X25.815943 Y7.354035 Z-1.000000 I0.176756 J0.000000
G03 X25.824548 Y7.302797 Z-1.000000 I0.828280 J0.112756
G02 X25.824746 Y7.266142 Z-1.000000 I-0.093759 J-0.018834
G01 X25.816948 Y7.262697 Z-1.000000
G01 X25.809104 Y7.259401 Z-1.000000
G03 X25.808648 Y7.226197 Z-1.000000 I0.077667 J-0.017672
G02 X25.812796 Y7.183068 Z-1.000000 I-0.211483 J-0.042102
G01 X25.808414 Y7.178707 Z-1.000000
G01 X25.802782 Y7.182863 Z-1.000000
G02 X25.798714 Y7.209847 Z-1.000000 I0.087461 J0.026984
G01 X25.798758 Y7.209845 Z-1.000000
G00 Z5.000000

(End cutting path id: path20655)


(Start cutting path id: path20655)
(Change tool to Default tool)

G00 Z5.000000
G00 X25.720908 Y7.179625

G01 Z-1.000000 F100.0(Penetrate)
G01 X25.725876 Y7.187244 Z-1.000000 F3500.000000
G01 X25.736478 Y7.186525 Z-1.000000
G02 X25.749821 Y7.175649 Z-1.000000 I-0.034416 J-0.055845
G01 X25.752048 Y7.170035 Z-1.000000
G01 X25.749327 Y7.165853 Z-1.000000
G01 X25.736478 Y7.163135 Z-1.000000
G01 X25.725590 Y7.167833 Z-1.000000
G01 X25.720908 Y7.179625 Z-1.000000
G01 X25.720908 Y7.179625 Z-1.000000
G00 Z5.000000

(End cutting path id: path20655)


(Start cutting path id: path20655)
(Change tool to Default tool)

G00 Z5.000000
G00 X25.619685 Y7.100875

G01 Z-1.000000 F100.0(Penetrate)
G01 X25.606293 Y7.111160 Z-1.000000 F3500.000000
G01 X25.587775 Y7.110475 Z-1.000000
G01 X25.577471 Y7.113101 Z-1.000000
G01 X25.575445 Y7.124985 Z-1.000000
G02 X25.586908 Y7.143489 Z-1.000000 I0.055021 J-0.021281
G01 X25.596105 Y7.147545 Z-1.000000
G02 X25.641248 Y7.125303 Z-1.000000 I0.000000 J-0.056933
G01 X25.639045 Y7.091635 Z-1.000000
G01 X25.631470 Y7.090316 Z-1.000000
G01 X25.619685 Y7.100835 Z-1.000000
G01 X25.619685 Y7.100875 Z-1.000000
G00 Z5.000000

(End cutting path id: path20655)


(Start cutting path id: path20655)
(Change tool to Default tool)

G00 Z5.000000
G00 X25.630522 Y7.030775

G01 Z-1.000000 F100.0(Penetrate)
G01 X25.638322 Y7.049945 Z-1.000000 F3500.000000
G02 X25.641638 Y7.022656 Z-1.000000 I-0.101864 J-0.026222
G02 X25.637745 Y7.003235 Z-1.000000 I-0.053079 J0.000538
G01 X25.630545 Y7.030785 Z-1.000000
G01 X25.630522 Y7.030775 Z-1.000000
G00 Z5.000000

(End cutting path id: path20655)


(Start cutting path id: path20655)
(Change tool to Default tool)

G00 Z5.000000
G00 X25.549635 Y7.029875

G01 Z-1.000000 F100.0(Penetrate)
G01 X25.555134 Y7.048639 Z-1.000000 F3500.000000
G01 X25.565205 Y7.054145 Z-1.000000
G01 X25.576374 Y7.049705 Z-1.000000
G01 X25.580775 Y7.039495 Z-1.000000
G01 X25.577069 Y7.026874 Z-1.000000
G01 X25.565205 Y7.015215 Z-1.000000
G01 X25.555528 Y7.016205 Z-1.000000
G01 X25.549635 Y7.029865 Z-1.000000
G01 X25.549635 Y7.029875 Z-1.000000
G00 Z5.000000

(End cutting path id: path20655)


(Start cutting path id: path20655)
(Change tool to Default tool)

G00 Z5.000000
G00 X25.833512 Y7.038575

G01 Z-1.000000 F100.0(Penetrate)
G01 X25.840612 Y7.065825 Z-1.000000 F3500.000000
G02 X25.844099 Y7.038575 Z-1.000000 I-0.104738 J-0.027250
G02 X25.840612 Y7.011325 Z-1.000000 I-0.108225 J0.000000
G01 X25.833512 Y7.038575 Z-1.000000
G01 X25.833512 Y7.038575 Z-1.000000
G00 Z5.000000

(End cutting path id: path20655)


(Start cutting path id: path20655)
(Change tool to Default tool)

G00 Z5.000000
G00 X25.831129 Y6.954225

G01 Z-1.000000 F100.0(Penetrate)
G01 X25.835680 Y6.964613 Z-1.000000 F3500.000000
G01 X25.840529 Y6.963625 Z-1.000000
G01 X25.843847 Y6.944153 Z-1.000000
G01 X25.839329 Y6.933785 Z-1.000000
G01 X25.834460 Y6.934781 Z-1.000000
G01 X25.831129 Y6.954225 Z-1.000000
G01 X25.831129 Y6.954225 Z-1.000000
G00 Z5.000000

(End cutting path id: path20655)


(Start cutting path id: path20655)
(Change tool to Default tool)

G00 Z5.000000
G00 X25.792245 Y6.713265

G01 Z-1.000000 F100.0(Penetrate)
G03 X25.788962 Y6.765687 Z-1.000000 I-0.116836 J0.018998 F3500.000000
G03 X25.763745 Y6.810055 Z-1.000000 I-0.107110 J-0.031528
G03 X25.725824 Y6.836322 Z-1.000000 I-0.078375 J-0.072640
G01 X25.708195 Y6.832775 Z-1.000000
G01 X25.690324 Y6.823182 Z-1.000000
G01 X25.678385 Y6.826775 Z-1.000000
G01 X25.680835 Y6.858605 Z-1.000000
G02 X25.755035 Y6.882855 Z-1.000000 I0.074200 J-0.101394
G01 X25.776032 Y6.890071 Z-1.000000
G01 X25.783205 Y6.904755 Z-1.000000
G01 X25.790825 Y6.916784 Z-1.000000
G01 X25.813035 Y6.918855 Z-1.000000
G01 X25.831492 Y6.901723 Z-1.000000
G02 X25.848565 Y6.815214 Z-1.000000 I-0.308719 J-0.105866
G02 X25.842631 Y6.678884 Z-1.000000 I-0.666131 J-0.039301
G01 X25.826415 Y6.664877 Z-1.000000
G01 X25.818897 Y6.671323 Z-1.000000
G02 X25.819815 Y6.707697 Z-1.000000 I0.101298 J0.015642
G01 X25.828615 Y6.750517 Z-1.000000
G01 X25.805855 Y6.703807 Z-1.000000
G01 X25.783095 Y6.657097 Z-1.000000
G01 X25.792245 Y6.713265 Z-1.000000
G00 Z5.000000

(End cutting path id: path20655)


(Start cutting path id: path20655)
(Change tool to Default tool)

G00 Z5.000000
G00 X25.745265 Y6.722565

G01 Z-1.000000 F100.0(Penetrate)
G01 X25.747125 Y6.731247 Z-1.000000 F3500.000000
G01 X25.753965 Y6.731265 Z-1.000000
G02 X25.766461 Y6.712048 Z-1.000000 I-0.038263 J-0.038553
G01 X25.764595 Y6.703345 Z-1.000000
G01 X25.757744 Y6.703328 Z-1.000000
G02 X25.745245 Y6.722545 Z-1.000000 I0.038042 J0.038416
G01 X25.745265 Y6.722565 Z-1.000000
G00 Z5.000000

(End cutting path id: path20655)


(Start cutting path id: path20655)
(Change tool to Default tool)

G00 Z5.000000
G00 X26.479437 Y7.034675

G01 Z-1.000000 F100.0(Penetrate)
G01 X26.477099 Y7.046714 Z-1.000000 F3500.000000
G02 X26.484737 Y7.085275 Z-1.000000 I0.215644 J-0.022674
G01 X26.491501 Y7.087200 Z-1.000000
G01 X26.497857 Y7.073595 Z-1.000000
G02 X26.489778 Y7.034914 Z-1.000000 I-0.084245 J-0.002589
G01 X26.479427 Y7.034665 Z-1.000000
G01 X26.479437 Y7.034675 Z-1.000000
G00 Z5.000000

(End cutting path id: path20655)


(Start cutting path id: path20655)
(Change tool to Default tool)

G00 Z5.000000
G00 X25.736478 Y8.127570

G01 Z-1.000000 F100.0(Penetrate)
G01 X25.740158 Y8.140196 Z-1.000000 F3500.000000
G01 X25.751868 Y8.151730 Z-1.000000
G01 X25.757793 Y8.149842 Z-1.000000
G01 X25.757968 Y8.137080 Z-1.000000
G01 X25.744157 Y8.122565 Z-1.000000
G01 X25.736458 Y8.127580 Z-1.000000
G01 X25.736478 Y8.127570 Z-1.000000
G00 Z5.000000

(End cutting path id: path20655)


(Start cutting path id: path20655)
(Change tool to Default tool)

G00 Z5.000000
G00 X25.769212 Y8.426270

G01 Z-1.000000 F100.0(Penetrate)
G03 X25.766583 Y8.451450 Z-1.000000 I-0.306976 J-0.019318 F3500.000000
G03 X25.757852 Y8.504120 Z-1.000000 I-1.382909 J-0.202195
G01 X25.761701 Y8.531441 Z-1.000000
G01 X25.772462 Y8.533310 Z-1.000000
G01 X25.786124 Y8.506802 Z-1.000000
G02 X25.783822 Y8.455460 Z-1.000000 I-0.134919 J-0.019673
G01 X25.769212 Y8.426270 Z-1.000000
G01 X25.769212 Y8.426270 Z-1.000000
G00 Z5.000000

(End cutting path id: path20655)


(Start cutting path id: path20655)
(Change tool to Default tool)

G00 Z5.000000
G00 X25.855201 Y9.469475

G01 Z-1.000000 F100.0(Penetrate)
G02 X25.848811 Y9.518087 Z-1.000000 I0.355397 J0.071443 F3500.000000
G01 X25.851701 Y9.525625 Z-1.000000
G01 X25.855955 Y9.524761 Z-1.000000
G02 X25.868861 Y9.483095 Z-1.000000 I-0.240210 J-0.097235
G02 X25.875558 Y9.435360 Z-1.000000 I-0.308570 J-0.067629
G01 X25.872361 Y9.426945 Z-1.000000
G01 X25.867593 Y9.427919 Z-1.000000
G02 X25.855201 Y9.469475 Z-1.000000 I0.217859 J0.087589
G01 X25.855201 Y9.469475 Z-1.000000
G00 Z5.000000

(End cutting path id: path20655)


(Start cutting path id: path20655)
(Change tool to Default tool)

G00 Z5.000000
G00 X25.845470 Y9.567825

G01 Z-1.000000 F100.0(Penetrate)
G01 X25.850969 Y9.586589 Z-1.000000 F3500.000000
G01 X25.861040 Y9.592095 Z-1.000000
G01 X25.872209 Y9.587655 Z-1.000000
G01 X25.876610 Y9.577445 Z-1.000000
G01 X25.872903 Y9.564823 Z-1.000000
G01 X25.861040 Y9.553175 Z-1.000000
G01 X25.851363 Y9.554165 Z-1.000000
G01 X25.845470 Y9.567825 Z-1.000000
G01 X25.845470 Y9.567825 Z-1.000000
G00 Z5.000000

(End cutting path id: path20655)


(Start cutting path id: path20655)
(Change tool to Default tool)

G00 Z5.000000
G00 X25.814330 Y9.693306

G01 Z-1.000000 F100.0(Penetrate)
G01 X25.806284 Y9.720156 Z-1.000000 F3500.000000
G01 X25.794870 Y9.722866 Z-1.000000
G01 X25.786970 Y9.724366 Z-1.000000
G01 X25.790957 Y9.737253 Z-1.000000
G01 X25.782670 Y9.756186 Z-1.000000
G01 X25.778523 Y9.772214 Z-1.000000
G01 X25.787770 Y9.783306 Z-1.000000
G02 X25.860025 Y9.748918 Z-1.000000 I0.019772 J-0.051559
G02 X25.827830 Y9.660847 Z-1.000000 I-0.072063 J-0.023577
G01 X25.820341 Y9.663244 Z-1.000000
G02 X25.814330 Y9.693267 Z-1.000000 I0.071977 J0.030023
G01 X25.814330 Y9.693306 Z-1.000000
G00 Z5.000000

(End cutting path id: path20655)


(Start cutting path id: path20655)
(Change tool to Default tool)

G00 Z5.000000
G00 X25.706567 Y9.943726

G01 Z-1.000000 F100.0(Penetrate)
G01 X25.711118 Y9.954114 Z-1.000000 F3500.000000
G01 X25.715967 Y9.953126 Z-1.000000
G01 X25.719285 Y9.933654 Z-1.000000
G01 X25.714767 Y9.923286 Z-1.000000
G01 X25.709898 Y9.924282 Z-1.000000
G01 X25.706567 Y9.943726 Z-1.000000
G01 X25.706567 Y9.943726 Z-1.000000
G00 Z5.000000

(End cutting path id: path20655)


(Start cutting path id: path20655)
(Change tool to Default tool)

G00 Z5.000000
G00 X25.753278 Y9.960986

G01 Z-1.000000 F100.0(Penetrate)
G01 X25.756711 Y9.977159 Z-1.000000 F3500.000000
G01 X25.768238 Y9.989536 Z-1.000000
G01 X25.776836 Y10.003156 Z-1.000000
G03 X25.776438 Y10.067236 Z-1.000000 I-0.286381 J0.030262
G02 X25.776891 Y10.134067 Z-1.000000 I0.267619 J0.031601
G02 X25.796658 Y10.220366 Z-1.000000 I0.467303 J-0.061621
G03 X25.817737 Y10.306420 Z-1.000000 I-0.537172 J0.177190
G03 X25.818108 Y10.351728 Z-1.000000 I-0.146102 J0.023852
G02 X25.825922 Y10.387921 Z-1.000000 I0.052282 J0.007652
G01 X25.854548 Y10.408488 Z-1.000000
G01 X25.897728 Y10.419328 Z-1.000000
G01 X25.855268 Y10.455818 Z-1.000000
G02 X25.821494 Y10.497175 Z-1.000000 I0.099274 J0.115541
G02 X25.803728 Y10.548238 Z-1.000000 I0.136522 J0.076121
G03 X25.789714 Y10.598380 Z-1.000000 I-0.231136 J-0.037571
G01 X25.781118 Y10.604178 Z-1.000000
G01 X25.773089 Y10.609623 Z-1.000000
G02 X25.767588 Y10.638298 Z-1.000000 I0.071992 J0.028675
G01 X25.775447 Y10.648376 Z-1.000000
G01 X25.788688 Y10.643598 Z-1.000000
G01 X25.812905 Y10.626158 Z-1.000000
G01 X25.839288 Y10.627458 Z-1.000000
G01 X25.846841 Y10.638266 Z-1.000000
G01 X25.840388 Y10.646918 Z-1.000000
G01 X25.822806 Y10.659359 Z-1.000000
G01 X25.820978 Y10.677058 Z-1.000000
G03 X25.824669 Y10.699952 Z-1.000000 I-0.053502 J0.020370
G01 X25.819078 Y10.718088 Z-1.000000
G01 X25.812831 Y10.737081 Z-1.000000
G02 X25.806368 Y10.873435 Z-1.000000 I1.991482 J0.162731
G02 X25.814584 Y10.971511 Z-1.000000 I0.509019 J0.006739
G01 X25.824528 Y10.973025 Z-1.000000
G03 X25.848386 Y10.939253 Z-1.000000 I0.138809 J0.072747
G03 X25.868328 Y10.925755 Z-1.000000 I0.039003 J0.036142
G01 X25.896152 Y10.883164 Z-1.000000
G01 X25.864928 Y10.853115 Z-1.000000
G01 X25.853887 Y10.848040 Z-1.000000
G01 X25.854748 Y10.841435 Z-1.000000
G01 X25.865985 Y10.826346 Z-1.000000
G02 X25.882118 Y10.752985 Z-1.000000 I-0.430700 J-0.133171
G03 X25.898684 Y10.680036 Z-1.000000 I0.414687 J0.055814
G01 X25.910758 Y10.664645 Z-1.000000
G01 X25.917642 Y10.651413 Z-1.000000
G01 X25.908758 Y10.628765 Z-1.000000
G01 X25.901635 Y10.610445 Z-1.000000
G01 X25.907558 Y10.604225 Z-1.000000
G01 X25.916819 Y10.596553 Z-1.000000
G02 X25.915658 Y10.561405 Z-1.000000 I-0.079110 J-0.014980
G03 X25.909304 Y10.517997 Z-1.000000 I0.196816 J-0.050980
G03 X25.905758 Y10.297471 Z-1.000000 I5.204640 J-0.193974
G02 X25.898152 Y10.078097 Z-1.000000 I-2.766107 J-0.013912
G02 X25.885478 Y10.025475 Z-1.000000 I-0.167327 J0.012463
G01 X25.868380 Y10.007747 Z-1.000000
G01 X25.858658 Y10.013035 Z-1.000000
G01 X25.838042 Y10.031011 Z-1.000000
G01 X25.817118 Y10.013169 Z-1.000000
G02 X25.806105 Y9.988485 Z-1.000000 I-0.050749 J0.007843
G01 X25.791168 Y9.981409 Z-1.000000
G01 X25.773761 Y9.976068 Z-1.000000
G01 X25.762338 Y9.961949 Z-1.000000
G01 X25.756939 Y9.957905 Z-1.000000
G01 X25.753238 Y9.961031 Z-1.000000
G01 X25.753278 Y9.960986 Z-1.000000
G00 Z5.000000

(End cutting path id: path20655)


(Start cutting path id: path20655)
(Change tool to Default tool)

G00 Z5.000000
G00 X25.728688 Y10.355054

G01 Z-1.000000 F100.0(Penetrate)
G01 X25.724700 Y10.363291 Z-1.000000 F3500.000000
G01 X25.732588 Y10.369534 Z-1.000000
G02 X25.761447 Y10.364277 Z-1.000000 I0.002180 J-0.069883
G01 X25.767618 Y10.355054 Z-1.000000
G01 X25.763718 Y10.340574 Z-1.000000
G01 X25.759967 Y10.341879 Z-1.000000
G02 X25.728688 Y10.355054 Z-1.000000 I0.773943 J1.881117
G01 X25.728688 Y10.355054 Z-1.000000
G00 Z5.000000

(End cutting path id: path20655)


(Start cutting path id: path20655)
(Change tool to Default tool)

G00 Z5.000000
G00 X25.753278 Y10.550980

G01 Z-1.000000 F100.0(Penetrate)
G01 X25.757829 Y10.561368 Z-1.000000 F3500.000000
G01 X25.762678 Y10.560380 Z-1.000000
G01 X25.765996 Y10.540908 Z-1.000000
G01 X25.761478 Y10.530540 Z-1.000000
G01 X25.756609 Y10.531536 Z-1.000000
G01 X25.753278 Y10.550980 Z-1.000000
G01 X25.753278 Y10.550980 Z-1.000000
G00 Z5.000000

(End cutting path id: path20655)


(Start cutting path id: path20655)
(Change tool to Default tool)

G00 Z5.000000
G00 X25.740648 Y10.688524

G01 Z-1.000000 F100.0(Penetrate)
G02 X25.750455 Y10.713039 Z-1.000000 I0.051106 J-0.006225 F3500.000000
G01 X25.767618 Y10.724744 Z-1.000000
G01 X25.774201 Y10.722915 Z-1.000000
G01 X25.773818 Y10.718244 Z-1.000000
G03 X25.759129 Y10.703475 Z-1.000000 I0.044597 J-0.059044
G03 X25.746848 Y10.682024 Z-1.000000 I0.081713 J-0.061024
G01 X25.740648 Y10.688524 Z-1.000000
G01 X25.740648 Y10.688524 Z-1.000000
G00 Z5.000000

(End cutting path id: path20655)


(Start cutting path id: path20655)
(Change tool to Default tool)

G00 Z5.000000
G00 X25.907754 Y10.803996

G01 Z-1.000000 F100.0(Penetrate)
G03 X25.907216 Y10.931123 Z-1.000000 I-15.007555 J0.000000 F3500.000000
G03 X25.906554 Y10.942442 Z-1.000000 I-0.113635 J-0.000963
G01 X25.909224 Y10.951230 Z-1.000000
G01 X25.920044 Y10.958622 Z-1.000000
G02 X26.002509 Y10.897612 Z-1.000000 I0.019778 J-0.059505
G02 X25.913944 Y10.683332 Z-1.000000 I-0.322221 J0.007736
G01 X25.907744 Y10.804001 Z-1.000000
G01 X25.907754 Y10.803996 Z-1.000000
G00 Z5.000000

(End cutting path id: path20655)


(Start cutting path id: path20655)
(Change tool to Default tool)

G00 Z5.000000
G00 X25.916754 Y11.014037

G01 Z-1.000000 F100.0(Penetrate)
G03 X25.899621 Y11.041553 Z-1.000000 I-0.058080 J-0.017072 F3500.000000
G01 X25.887094 Y11.041287 Z-1.000000
G02 X25.869258 Y11.027280 Z-1.000000 I-0.067156 J0.067156
G01 X25.859604 Y11.024577 Z-1.000000
G01 X25.850953 Y11.032578 Z-1.000000
G02 X25.839884 Y11.277036 Z-1.000000 I3.718758 J0.290867
G02 X25.856579 Y11.335577 Z-1.000000 I0.106344 J0.001324
G01 X25.877224 Y11.335536 Z-1.000000
G01 X25.884939 Y11.336197 Z-1.000000
G03 X25.891944 Y11.371016 Z-1.000000 I-0.084876 J0.035190
G03 X25.885035 Y11.422312 Z-1.000000 I-0.188150 J0.000773
G01 X25.875694 Y11.429406 Z-1.000000
G01 X25.868429 Y11.434547 Z-1.000000
G01 X25.869694 Y11.446366 Z-1.000000
G01 X25.875662 Y11.464639 Z-1.000000
G03 X25.883564 Y11.633209 Z-1.000000 I-3.124480 J0.230927
G01 X25.886964 Y11.803092 Z-1.000000
G01 X25.848754 Y11.803092 Z-1.000000
G01 X25.829439 Y11.811974 Z-1.000000
G01 X25.829334 Y11.825732 Z-1.000000
G01 X25.839390 Y11.851010 Z-1.000000
G03 X25.837334 Y11.949282 Z-1.000000 I-0.574143 J0.037143
G02 X25.843677 Y12.030273 Z-1.000000 I0.219731 J0.023534
G01 X25.862004 Y12.040912 Z-1.000000
G01 X25.881549 Y12.045545 Z-1.000000
G01 X25.885264 Y12.061392 Z-1.000000
G02 X25.860427 Y12.161066 Z-1.000000 I0.328199 J0.134714
G02 X25.859134 Y12.324696 Z-1.000000 I0.895627 J0.088896
G01 X25.867278 Y12.341341 Z-1.000000
G01 X25.884434 Y12.348056 Z-1.000000
G01 X25.902363 Y12.353481 Z-1.000000
G01 X25.907794 Y12.363626 Z-1.000000
G01 X25.902347 Y12.373787 Z-1.000000
G01 X25.884434 Y12.379196 Z-1.000000
G01 X25.867916 Y12.386038 Z-1.000000
G01 X25.861074 Y12.402556 Z-1.000000
G01 X25.856524 Y12.421384 Z-1.000000
G01 X25.849104 Y12.425916 Z-1.000000
G01 X25.842864 Y12.431485 Z-1.000000
G02 X25.839804 Y12.507026 Z-1.000000 I0.513573 J0.058633
G03 X25.832463 Y12.583312 Z-1.000000 I-0.296604 J0.009953
G01 X25.816744 Y12.607494 Z-1.000000
G01 X25.815118 Y12.621446 Z-1.000000
G01 X25.841584 Y12.637314 Z-1.000000
G03 X25.883346 Y12.655246 Z-1.000000 I-0.023021 J0.111209
G01 X25.893084 Y12.673084 Z-1.000000
G02 X25.894588 Y12.698349 Z-1.000000 I0.522735 J-0.018438
G02 X25.900784 Y12.763704 Z-1.000000 I3.008021 J-0.252210
G03 X25.882845 Y12.822297 Z-1.000000 I-0.078258 J0.008083
G01 X25.846924 Y12.828004 Z-1.000000
G01 X25.829502 Y12.806468 Z-1.000000
G01 X25.832624 Y12.788554 Z-1.000000
G01 X25.839182 Y12.768446 Z-1.000000
G01 X25.829924 Y12.745094 Z-1.000000
G01 X25.820840 Y12.726582 Z-1.000000
G01 X25.824724 Y12.721734 Z-1.000000
G01 X25.833338 Y12.716180 Z-1.000000
G02 X25.838864 Y12.690594 Z-1.000000 I-0.056467 J-0.025586
G01 X25.832332 Y12.665938 Z-1.000000
G01 X25.821174 Y12.659454 Z-1.000000
G01 X25.811238 Y12.667447 Z-1.000000
G02 X25.800684 Y12.752874 Z-1.000000 I0.452903 J0.099320
G02 X25.806163 Y12.838227 Z-1.000000 I0.457617 J0.013475
G01 X25.815614 Y12.846294 Z-1.000000
G01 X25.824207 Y12.853422 Z-1.000000
G03 X25.823214 Y12.886704 Z-1.000000 I-0.076447 J0.014375
G02 X25.831493 Y12.947922 Z-1.000000 I0.080679 J0.020258
G01 X25.870814 Y12.970854 Z-1.000000
G01 X25.883572 Y12.962165 Z-1.000000
G02 X25.892264 Y12.916354 Z-1.000000 I-0.116376 J-0.045811
G03 X25.898544 Y12.868133 Z-1.000000 I0.188264 J-0.000000
G01 X25.906704 Y12.861854 Z-1.000000
G01 X25.913790 Y12.868538 Z-1.000000
G03 X25.912004 Y12.951384 Z-1.000000 I-0.518049 J0.030273
G02 X25.916096 Y13.016074 Z-1.000000 I0.196318 J0.020057
G01 X25.928014 Y13.020114 Z-1.000000
G03 X25.953770 Y13.007623 Z-1.000000 I0.038570 J0.046729
G01 X25.971594 Y13.010714 Z-1.000000
G01 X25.989212 Y13.000685 Z-1.000000
G02 X25.940174 Y11.242592 Z-1.000000 I-86.923969 J1.544833
G02 X25.924240 Y11.014753 Z-1.000000 I-3.577403 J0.135707
G01 X25.916864 Y11.014070 Z-1.000000
G01 X25.916754 Y11.014037 Z-1.000000
G00 Z5.000000

(End cutting path id: path20655)


(Start cutting path id: path20655)
(Change tool to Default tool)

G00 Z5.000000
G00 X25.918354 Y11.510173

G01 Z-1.000000 F100.0(Penetrate)
G01 X25.913493 Y11.511164 Z-1.000000 F3500.000000
G01 X25.908954 Y11.500773 Z-1.000000
G01 X25.912288 Y11.481338 Z-1.000000
G01 X25.917154 Y11.480333 Z-1.000000
G01 X25.921711 Y11.490767 Z-1.000000
G01 X25.918354 Y11.510173 Z-1.000000
G01 X25.918354 Y11.510173 Z-1.000000
G00 Z5.000000

(End cutting path id: path20655)


(Start cutting path id: path20655)
(Change tool to Default tool)

G00 Z5.000000
G00 X25.753278 Y11.485185

G01 Z-1.000000 F100.0(Penetrate)
G01 X25.757829 Y11.495573 Z-1.000000 F3500.000000
G01 X25.762678 Y11.494585 Z-1.000000
G01 X25.765996 Y11.475113 Z-1.000000
G01 X25.761478 Y11.464745 Z-1.000000
G01 X25.756609 Y11.465741 Z-1.000000
G01 X25.753278 Y11.485185 Z-1.000000
G01 X25.753278 Y11.485185 Z-1.000000
G00 Z5.000000

(End cutting path id: path20655)


(Start cutting path id: path20655)
(Change tool to Default tool)

G00 Z5.000000
G00 X25.938854 Y11.764163

G01 Z-1.000000 F100.0(Penetrate)
G03 X25.932572 Y11.796794 Z-1.000000 I-0.087886 J0.000000 F3500.000000
G01 X25.923284 Y11.803083 Z-1.000000
G01 X25.913974 Y11.796772 Z-1.000000
G03 X25.907714 Y11.764163 Z-1.000000 I0.081798 J-0.032609
G03 X25.913995 Y11.731524 Z-1.000000 I0.087943 J-0.000000
G01 X25.923284 Y11.725233 Z-1.000000
G01 X25.932592 Y11.731543 Z-1.000000
G03 X25.938854 Y11.764163 Z-1.000000 I-0.081833 J0.032620
G01 X25.938854 Y11.764163 Z-1.000000
G00 Z5.000000

(End cutting path id: path20655)


(Start cutting path id: path20655)
(Change tool to Default tool)

G00 Z5.000000
G00 X25.892144 Y11.974361

G01 Z-1.000000 F100.0(Penetrate)
G01 X25.887446 Y11.985249 Z-1.000000 F3500.000000
G01 X25.875654 Y11.989931 Z-1.000000
G01 X25.868035 Y11.984963 Z-1.000000
G01 X25.868754 Y11.974361 Z-1.000000
G03 X25.879630 Y11.961018 Z-1.000000 I0.055845 J0.034416
G01 X25.885244 Y11.958791 Z-1.000000
G01 X25.889426 Y11.961512 Z-1.000000
G01 X25.892144 Y11.974361 Z-1.000000
G01 X25.892144 Y11.974361 Z-1.000000
G00 Z5.000000

(End cutting path id: path20655)


(Start cutting path id: path20655)
(Change tool to Default tool)

G00 Z5.000000
G00 X25.949844 Y12.196238

G01 Z-1.000000 F100.0(Penetrate)
G01 X25.943144 Y12.161208 Z-1.000000 F3500.000000
G01 X25.949844 Y12.126178 Z-1.000000
G03 X25.953177 Y12.161213 Z-1.000000 I-0.182466 J0.035035
G03 X25.949844 Y12.196248 Z-1.000000 I-0.185799 J-0.000000
G01 X25.949844 Y12.196238 Z-1.000000
G00 Z5.000000

(End cutting path id: path20655)


(Start cutting path id: path20655)
(Change tool to Default tool)

G00 Z5.000000
G00 X26.625213 Y12.030141

G01 Z-1.000000 F100.0(Penetrate)
G01 X26.629764 Y12.040529 Z-1.000000 F3500.000000
G01 X26.634613 Y12.039541 Z-1.000000
G01 X26.637931 Y12.020069 Z-1.000000
G01 X26.633413 Y12.009701 Z-1.000000
G01 X26.628544 Y12.010697 Z-1.000000
G01 X26.625213 Y12.030141 Z-1.000000
G01 X26.625213 Y12.030141 Z-1.000000
G00 Z5.000000

(End cutting path id: path20655)


(Start cutting path id: path20655)
(Change tool to Default tool)

G00 Z5.000000
G00 X26.751075 Y12.231921

G01 Z-1.000000 F100.0(Penetrate)
G02 X26.736943 Y12.299519 Z-1.000000 I0.143049 J0.065182 F3500.000000
G01 X26.752475 Y12.322191 Z-1.000000
G01 X26.757853 Y12.331699 Z-1.000000
G01 X26.748575 Y12.346601 Z-1.000000
G01 X26.740710 Y12.358299 Z-1.000000
G01 X26.744675 Y12.363361 Z-1.000000
G01 X26.756272 Y12.371409 Z-1.000000
G03 X26.764375 Y12.414201 Z-1.000000 I-0.111909 J0.043355
G02 X26.769387 Y12.463393 Z-1.000000 I0.255714 J-0.001204
G02 X26.779285 Y12.488011 Z-1.000000 I0.071127 J-0.014298
G01 X26.786171 Y12.486273 Z-1.000000
G02 X26.787985 Y12.358081 Z-1.000000 I-1.205852 J-0.081175
G02 X26.779093 Y12.206178 Z-1.000000 I-3.936828 J0.154239
G01 X26.775605 Y12.198566 Z-1.000000
G01 X26.770462 Y12.198958 Z-1.000000
G02 X26.751135 Y12.231916 Z-1.000000 I0.149699 J0.109929
G01 X26.751075 Y12.231921 Z-1.000000
G00 Z5.000000

(End cutting path id: path20655)


(Start cutting path id: path20655)
(Change tool to Default tool)

G00 Z5.000000
G00 X26.834255 Y12.441329

G01 Z-1.000000 F100.0(Penetrate)
G01 X26.831037 Y12.456870 Z-1.000000 F3500.000000
G02 X26.840655 Y12.484149 Z-1.000000 I0.075792 J-0.011388
G01 X26.849714 Y12.485464 Z-1.000000
G01 X26.857065 Y12.468699 Z-1.000000
G01 X26.847007 Y12.440429 Z-1.000000
G01 X26.834255 Y12.441329 Z-1.000000
G01 X26.834255 Y12.441329 Z-1.000000
G00 Z5.000000

(End cutting path id: path20655)


(Start cutting path id: path20655)
(Change tool to Default tool)

G00 Z5.000000
G00 X26.844815 Y12.538249

G01 Z-1.000000 F100.0(Penetrate)
G02 X26.825122 Y12.580928 Z-1.000000 I0.048059 J0.048059 F3500.000000
G01 X26.840115 Y12.597159 Z-1.000000
G01 X26.877694 Y12.571127 Z-1.000000
G01 X26.867525 Y12.524139 Z-1.000000
G01 X26.863170 Y12.523643 Z-1.000000
G02 X26.844785 Y12.538249 Z-1.000000 I0.055401 J0.088610
G01 X26.844815 Y12.538249 Z-1.000000
G00 Z5.000000

(End cutting path id: path20655)


(Start cutting path id: path20655)
(Change tool to Default tool)

G00 Z5.000000
G00 X26.841967 Y12.807847

G01 Z-1.000000 F100.0(Penetrate)
G02 X26.844747 Y12.827903 Z-1.000000 I0.073738 J0.000000 F3500.000000
G01 X26.848467 Y12.830717 Z-1.000000
G01 X26.854831 Y12.831666 Z-1.000000
G03 X26.879787 Y12.840217 Z-1.000000 I-0.113622 J0.372318
G01 X26.892612 Y12.837774 Z-1.000000
G01 X26.895427 Y12.825847 Z-1.000000
G02 X26.861795 Y12.793578 Z-1.000000 I-0.051118 J0.019616
G01 X26.841957 Y12.807827 Z-1.000000
G01 X26.841967 Y12.807847 Z-1.000000
G00 Z5.000000

(End cutting path id: path20655)


(Start cutting path id: path20655)
(Change tool to Default tool)

G00 Z5.000000
G00 X27.176727 Y12.955277

G01 Z-1.000000 F100.0(Penetrate)
G01 X27.176011 Y12.965895 Z-1.000000 F3500.000000
G01 X27.183627 Y12.970847 Z-1.000000
G01 X27.195437 Y12.966146 Z-1.000000
G01 X27.200117 Y12.955277 Z-1.000000
G01 X27.197390 Y12.942420 Z-1.000000
G01 X27.193217 Y12.939707 Z-1.000000
G01 X27.187573 Y12.941953 Z-1.000000
G02 X27.176727 Y12.955277 Z-1.000000 I0.045458 J0.048079
G01 X27.176727 Y12.955277 Z-1.000000
G00 Z5.000000

(End cutting path id: path20655)


(Start cutting path id: path20655)
(Change tool to Default tool)

G00 Z5.000000
G00 X27.237447 Y12.959177

G01 Z-1.000000 F100.0(Penetrate)
G01 X27.233580 Y12.977383 Z-1.000000 F3500.000000
G01 X27.213707 Y12.986427 Z-1.000000
G01 X27.188303 Y12.995106 Z-1.000000
G01 X27.173457 Y13.017567 Z-1.000000
G03 X27.126397 Y13.058032 Z-1.000000 I-0.052796 J-0.013803
G01 X27.091097 Y13.026267 Z-1.000000
G01 X27.069967 Y12.997324 Z-1.000000
G01 X27.035597 Y13.008517 Z-1.000000
G01 X27.019658 Y13.016059 Z-1.000000
G01 X27.008627 Y13.007017 Z-1.000000
G01 X26.999527 Y13.019557 Z-1.000000
G02 X27.014361 Y13.064781 Z-1.000000 I0.067494 J0.002906
G02 X27.064707 Y13.100607 Z-1.000000 I0.088564 J-0.071169
G01 X27.079808 Y13.100143 Z-1.000000
G01 X27.082007 Y13.093207 Z-1.000000
G01 X27.083089 Y13.085239 Z-1.000000
G01 X27.092877 Y13.083157 Z-1.000000
G01 X27.115403 Y13.113436 Z-1.000000
G03 X27.098477 Y13.234075 Z-1.000000 I-0.346729 J0.012860
G01 X27.097324 Y13.257456 Z-1.000000
G01 X27.104277 Y13.260405 Z-1.000000
G01 X27.114399 Y13.263422 Z-1.000000
G03 X27.122297 Y13.298715 Z-1.000000 I-0.074906 J0.035293
G03 X27.110892 Y13.333370 Z-1.000000 I-0.058352 J-0.000000
G01 X27.091687 Y13.340155 Z-1.000000
G01 X27.069507 Y13.341189 Z-1.000000
G01 X27.064437 Y13.350055 Z-1.000000
G01 X27.059704 Y13.361204 Z-1.000000
G01 X27.037347 Y13.367965 Z-1.000000
G01 X27.014089 Y13.377320 Z-1.000000
G02 X26.996667 Y13.406895 Z-1.000000 I0.043694 J0.045658
G01 X26.984709 Y13.422005 Z-1.000000
G01 X26.974847 Y13.418525 Z-1.000000
G02 X26.960145 Y13.395963 Z-1.000000 I-0.071524 J0.030537
G01 X26.949347 Y13.391275 Z-1.000000
G01 X26.913745 Y13.443945 Z-1.000000
G02 X27.001607 Y13.521365 Z-1.000000 I0.120806 J-0.048534
G01 X27.023136 Y13.521075 Z-1.000000
G01 X27.028857 Y13.513465 Z-1.000000
G01 X27.044253 Y13.508561 Z-1.000000
G03 X27.061547 Y13.559575 Z-1.000000 I-0.076881 J0.054501
G01 X27.063147 Y13.601475 Z-1.000000
G01 X27.075617 Y13.562555 Z-1.000000
G01 X27.082476 Y13.562811 Z-1.000000
G03 X27.090627 Y13.624835 Z-1.000000 I-0.288612 J0.069477
G02 X27.101113 Y13.686583 Z-1.000000 I0.219032 J-0.005432
G01 X27.110677 Y13.687115 Z-1.000000
G01 X27.128187 Y13.648185 Z-1.000000
G01 X27.132487 Y13.687115 Z-1.000000
G03 X27.147623 Y13.883032 Z-1.000000 I-3.001696 J0.330446
G01 X27.141387 Y13.889538 Z-1.000000
G01 X27.138343 Y13.887631 Z-1.000000
G03 X27.122307 Y13.850598 Z-1.000000 I0.400381 J-0.195354
G02 X27.103218 Y13.817907 Z-1.000000 I-0.106611 J0.040334
G01 X27.089887 Y13.811668 Z-1.000000
G01 X27.081117 Y13.817766 Z-1.000000
G01 X27.081187 Y13.835028 Z-1.000000
G01 X27.082178 Y13.852900 Z-1.000000
G01 X27.075087 Y13.858388 Z-1.000000
G01 X27.065815 Y13.864201 Z-1.000000
G02 X27.060007 Y13.889528 Z-1.000000 I0.052321 J0.025327
G02 X27.065828 Y13.914795 Z-1.000000 I0.057750 J-0.000000
G01 X27.075217 Y13.920668 Z-1.000000
G01 X27.083701 Y13.927336 Z-1.000000
G03 X27.089477 Y13.979058 Z-1.000000 I-0.198996 J0.048406
G02 X27.091619 Y14.037136 Z-1.000000 I0.545984 J0.008944
G02 X27.099377 Y14.088050 Z-1.000000 I0.419910 J-0.037937
G03 X27.097488 Y14.128371 Z-1.000000 I-0.076903 J0.016602
G01 X27.083457 Y14.138650 Z-1.000000
G01 X27.068175 Y14.146588 Z-1.000000
G01 X27.066117 Y14.163280 Z-1.000000
G03 X27.073926 Y14.188217 Z-1.000000 I-0.193891 J0.074408
G03 X27.075617 Y14.202210 Z-1.000000 I-0.057052 J0.013993
G01 X27.081225 Y14.210944 Z-1.000000
G02 X27.106757 Y14.216510 Z-1.000000 I0.025532 J-0.055779
G01 X27.116779 Y14.234075 Z-1.000000
G03 X27.079507 Y14.262620 Z-1.000000 I-0.054015 J-0.031924
G02 X27.022171 Y14.281063 Z-1.000000 I0.197080 J0.711037
G02 X27.003757 Y14.290470 Z-1.000000 I0.029712 J0.080884
G02 X26.966765 Y14.343251 Z-1.000000 I0.050075 J0.074449
G01 X26.981567 Y14.379610 Z-1.000000
G01 X26.992720 Y14.392425 Z-1.000000
G03 X26.997767 Y14.416390 Z-1.000000 I-0.054378 J0.023965
G02 X27.026161 Y14.485324 Z-1.000000 I0.097874 J0.000000
G01 X27.066237 Y14.485410 Z-1.000000
G01 X27.070373 Y14.475273 Z-1.000000
G02 X27.066186 Y14.441260 Z-1.000000 I-0.140592 J0.000043
G01 X27.069054 Y14.411125 Z-1.000000
G03 X27.091046 Y14.387880 Z-1.000000 I0.045856 J0.021358
G03 X27.125179 Y14.376181 Z-1.000000 I0.053307 J0.099884
G01 X27.146906 Y14.378280 Z-1.000000
G01 X27.164494 Y14.410781 Z-1.000000
G03 X27.130896 Y14.452510 Z-1.000000 I-0.058343 J-0.012584
G02 X27.075899 Y14.505457 Z-1.000000 I0.047617 J0.104498
G02 X27.071516 Y14.570699 Z-1.000000 I0.075294 J0.037826
G01 X27.090656 Y14.580887 Z-1.000000
G01 X27.100706 Y14.562899 Z-1.000000
G03 X27.099301 Y14.536363 Z-1.000000 I0.053815 J-0.016155
G03 X27.112656 Y14.499169 Z-1.000000 I0.122717 J0.023070
G01 X27.135496 Y14.481935 Z-1.000000
G01 X27.158686 Y14.488599 Z-1.000000
G03 X27.207560 Y14.595698 Z-1.000000 I-0.119012 J0.119012
G01 X27.169216 Y14.636859 Z-1.000000
G01 X27.155159 Y14.640592 Z-1.000000
G02 X27.123066 Y14.663189 Z-1.000000 I0.103330 J0.180840
G02 X27.104689 Y14.690573 Z-1.000000 I0.039991 J0.046696
G01 X27.108076 Y14.708509 Z-1.000000
G01 X27.114192 Y14.725924 Z-1.000000
G01 X27.107578 Y14.737549 Z-1.000000
G01 X27.094717 Y14.736524 Z-1.000000
G03 X27.073178 Y14.707789 Z-1.000000 I0.055040 J-0.063696
G02 X27.052705 Y14.671700 Z-1.000000 I-0.215944 J0.098650
G01 X27.045868 Y14.668229 Z-1.000000
G02 X27.006540 Y14.685481 Z-1.000000 I0.001477 J0.056819
G02 X26.990118 Y14.725729 Z-1.000000 I0.041797 J0.040529
G01 X26.981522 Y14.743521 Z-1.000000
G01 X26.961368 Y14.748739 Z-1.000000
G01 X26.945729 Y14.755146 Z-1.000000
G01 X26.942588 Y14.774829 Z-1.000000
G01 X26.942133 Y14.801743 Z-1.000000
G01 X26.926388 Y14.820379 Z-1.000000
G01 X26.915529 Y14.835273 Z-1.000000
G01 X26.920888 Y14.847619 Z-1.000000
G01 X26.938964 Y14.849759 Z-1.000000
G01 X26.956828 Y14.835809 Z-1.000000
G01 X26.975846 Y14.823322 Z-1.000000
G03 X27.008398 Y14.827809 Z-1.000000 I0.008783 J0.056607
G01 X27.032263 Y14.854055 Z-1.000000
G01 X27.021168 Y14.864779 Z-1.000000
G01 X27.004749 Y14.865912 Z-1.000000
G01 X26.997808 Y14.877639 Z-1.000000
G01 X27.004544 Y14.894529 Z-1.000000
G02 X27.027398 Y14.908849 Z-1.000000 I0.039228 J-0.037208
G01 X27.050413 Y14.924458 Z-1.000000
G03 X27.066618 Y14.956609 Z-1.000000 I-0.063379 J0.052103
G01 X27.090395 Y14.983964 Z-1.000000
G01 X27.106798 Y14.972919 Z-1.000000
G01 X27.112271 Y14.954524 Z-1.000000
G01 X27.126258 Y14.943009 Z-1.000000
G01 X27.126588 Y14.938528 Z-1.000000
G01 X27.110688 Y14.933909 Z-1.000000
G01 X27.096041 Y14.917457 Z-1.000000
G01 X27.113288 Y14.901539 Z-1.000000
G03 X27.146300 Y14.910822 Z-1.000000 I0.000000 J0.063337
G03 X27.183398 Y14.944359 Z-1.000000 I-0.070195 J0.114937
G01 X27.209398 Y14.963819 Z-1.000000
G03 X27.189263 Y14.850218 Z-1.000000 I0.585373 J-0.162337
G01 X27.199378 Y14.839257 Z-1.000000
G01 X27.214187 Y14.851202 Z-1.000000
G03 X27.239278 Y15.023566 Z-1.000000 I-1.240234 J0.268550
G02 X27.249783 Y15.121261 Z-1.000000 I1.545054 J-0.116726
G01 X27.254838 Y15.135284 Z-1.000000
G03 X27.325332 Y15.358070 Z-1.000000 I-0.402191 J0.249808
G03 X27.271228 Y15.415356 Z-1.000000 I-0.054104 J0.003093
G01 X27.265519 Y15.413350 Z-1.000000
G03 X27.238498 Y15.389126 Z-1.000000 I0.206925 J-0.258008
G01 X27.226286 Y15.392852 Z-1.000000
G02 X27.222178 Y15.472556 Z-1.000000 I0.277487 J0.054261
G03 X27.221061 Y15.577650 Z-1.000000 I-0.517616 J0.047051
G01 X27.207668 Y15.602488 Z-1.000000
G02 X27.191260 Y15.624852 Z-1.000000 I0.036535 J0.044006
G01 X27.191068 Y15.643138 Z-1.000000
G03 X27.187826 Y15.730019 Z-1.000000 I-0.103336 J0.039644
G01 X27.149208 Y15.731818 Z-1.000000
G03 X27.143331 Y15.718240 Z-1.000000 I0.050793 J-0.030047
G03 X27.130808 Y15.668558 Z-1.000000 I0.685468 J-0.199197
G01 X27.113328 Y15.657082 Z-1.000000
G01 X27.101318 Y15.674458 Z-1.000000
G03 X27.109770 Y15.750303 Z-1.000000 I-0.704833 J0.116935
G03 X27.109918 Y15.822487 Z-1.000000 I-0.649692 J0.037427
G02 X27.114373 Y15.893531 Z-1.000000 I0.305248 J0.016522
G02 X27.137568 Y15.974873 Z-1.000000 I0.423275 J-0.076723
G03 X27.163583 Y16.100704 Z-1.000000 I-0.349946 J0.137955
G03 X27.144068 Y16.176817 Z-1.000000 I-0.140511 J0.004531
G03 X27.112884 Y16.206108 Z-1.000000 I-0.065921 J-0.038936
G03 X27.073998 Y16.212487 Z-1.000000 I-0.029456 J-0.057855
G01 X27.043296 Y16.230607 Z-1.000000
G02 X27.040198 Y16.302827 Z-1.000000 I0.109234 J0.040862
G01 X27.051068 Y16.341747 Z-1.000000
G01 X27.061498 Y16.295037 Z-1.000000
G01 X27.067242 Y16.294970 Z-1.000000
G03 X27.073768 Y16.344347 Z-1.000000 I-0.215691 J0.053629
G03 X27.067030 Y16.434694 Z-1.000000 I-0.486293 J0.009157
G01 X27.056148 Y16.448217 Z-1.000000
G01 X27.055145 Y16.452929 Z-1.000000
G01 X27.064848 Y16.457317 Z-1.000000
G01 X27.081949 Y16.464405 Z-1.000000
G01 X27.083308 Y16.474247 Z-1.000000
G01 X27.084208 Y16.486271 Z-1.000000
G02 X27.107118 Y16.502347 Z-1.000000 I0.042027 J-0.035529
G01 X27.121714 Y16.517982 Z-1.000000
G01 X27.116618 Y16.534697 Z-1.000000
G01 X27.080399 Y16.538331 Z-1.000000
G01 X27.060068 Y16.504337 Z-1.000000
G02 X27.054175 Y16.480019 Z-1.000000 I-0.053122 J0.000000
G01 X27.044498 Y16.474117 Z-1.000000
G01 X27.014471 Y16.504245 Z-1.000000
G02 X27.044855 Y16.577238 Z-1.000000 I0.103702 J-0.000346
G01 X27.051152 Y16.595070 Z-1.000000
G03 X27.037055 Y16.649918 Z-1.000000 I-0.194774 J-0.020823
G02 X27.002393 Y16.806072 Z-1.000000 I0.418164 J0.174744
G02 X27.028555 Y16.855391 Z-1.000000 I0.055288 J0.002270
G01 X27.034443 Y16.867051 Z-1.000000
G03 X27.025455 Y16.894231 Z-1.000000 I-0.060566 J-0.004953
G03 X27.005103 Y16.915147 Z-1.000000 I-0.058367 J-0.036434
G01 X26.993635 Y16.915331 Z-1.000000
G01 X26.957540 Y16.939218 Z-1.000000
G02 X27.011695 Y17.034648 Z-1.000000 I0.151856 J-0.023095
G03 X27.036121 Y17.066883 Z-1.000000 I-0.055425 J0.067369
G03 X27.065445 Y17.156820 Z-1.000000 I-0.436591 J0.192102
G03 X27.063196 Y17.221096 Z-1.000000 I-0.126767 J0.027742
G01 X27.041875 Y17.237060 Z-1.000000
G01 X27.035009 Y17.232586 Z-1.000000
G01 X27.035675 Y17.223120 Z-1.000000
G01 X27.035550 Y17.212088 Z-1.000000
G01 X27.021025 Y17.200250 Z-1.000000
G01 X27.010048 Y17.208072 Z-1.000000
G01 X27.022325 Y17.238360 Z-1.000000
G03 X27.050261 Y17.295493 Z-1.000000 I-0.085085 J0.077000
G03 X27.041935 Y17.349944 Z-1.000000 I-0.084769 J0.014901
G02 X27.036536 Y17.377055 Z-1.000000 I0.044455 J0.022946
G02 X27.047235 Y17.412224 Z-1.000000 I0.087063 J-0.007274
G03 X27.062273 Y17.447929 Z-1.000000 I-0.159223 J0.088081
G01 X27.063075 Y17.464944 Z-1.000000
G01 X27.066021 Y17.479024 Z-1.000000
G01 X27.081245 Y17.490974 Z-1.000000
G01 X27.091152 Y17.485658 Z-1.000000
G02 X27.091145 Y17.446814 Z-1.000000 I-0.086546 J-0.019406
G01 X27.107072 Y17.417073 Z-1.000000
G01 X27.135205 Y17.429944 Z-1.000000
G02 X27.162649 Y17.472881 Z-1.000000 I0.108955 J-0.039402
G02 X27.196685 Y17.490804 Z-1.000000 I0.046441 J-0.046913
G02 X27.235715 Y17.491211 Z-1.000000 I0.020633 J-0.106927
G01 X27.249675 Y17.481804 Z-1.000000
G01 X27.264229 Y17.471730 Z-1.000000
G03 X27.344875 Y17.463224 Z-1.000000 I0.088586 J0.453358
G03 X27.419137 Y17.477009 Z-1.000000 I0.003156 J0.189921
G01 X27.445375 Y17.503854 Z-1.000000
G03 X27.452362 Y17.544019 Z-1.000000 I-0.101624 J0.038369
G01 X27.444409 Y17.562784 Z-1.000000
G01 X27.410232 Y17.571996 Z-1.000000
G01 X27.397639 Y17.550404 Z-1.000000
G01 X27.391402 Y17.534145 Z-1.000000
G01 X27.365039 Y17.528864 Z-1.000000
G02 X27.332577 Y17.542972 Z-1.000000 I0.014959 J0.078822
G01 X27.324799 Y17.558314 Z-1.000000
G01 X27.320325 Y17.578742 Z-1.000000
G03 X27.291199 Y17.631334 Z-1.000000 I-0.366836 J-0.168795
G03 X27.250808 Y17.670445 Z-1.000000 I-0.107169 J-0.070263
G03 X27.204769 Y17.684094 Z-1.000000 I-0.048680 J-0.079733
G03 X27.162988 Y17.677543 Z-1.000000 I-0.003276 J-0.115623
G01 X27.158239 Y17.667644 Z-1.000000
G01 X27.168635 Y17.656645 Z-1.000000
G01 X27.190169 Y17.654274 Z-1.000000
G01 X27.200938 Y17.641205 Z-1.000000
G01 X27.176879 Y17.619944 Z-1.000000
G03 X27.146024 Y17.603867 Z-1.000000 I0.018404 J-0.072967
G01 X27.137949 Y17.586194 Z-1.000000
G01 X27.132068 Y17.572767 Z-1.000000
G01 X27.122379 Y17.571834 Z-1.000000
G01 X27.112110 Y17.584478 Z-1.000000
G02 X27.106569 Y17.615574 Z-1.000000 I0.088127 J0.031745
G01 X27.100023 Y17.628055 Z-1.000000
G01 X27.091239 Y17.626334 Z-1.000000
G01 X27.082862 Y17.626716 Z-1.000000
G02 X27.074919 Y17.657474 Z-1.000000 I0.061679 J0.032332
G01 X27.067528 Y17.678067 Z-1.000000
G01 X27.059609 Y17.676934 Z-1.000000
G01 X27.044689 Y17.674126 Z-1.000000
G01 X27.033119 Y17.705124 Z-1.000000
G02 X27.046487 Y17.753728 Z-1.000000 I0.111247 J-0.004458
G01 X27.063439 Y17.761074 Z-1.000000
G01 X27.083819 Y17.763432 Z-1.000000
G01 X27.091229 Y17.775704 Z-1.000000
G01 X27.085935 Y17.792299 Z-1.000000
G01 X27.075659 Y17.797604 Z-1.000000
G01 X27.064486 Y17.812911 Z-1.000000
G02 X27.098309 Y17.868374 Z-1.000000 I0.131269 J-0.042008
G01 X27.136529 Y17.906594 Z-1.000000
G01 X27.098309 Y17.906594 Z-1.000000
G01 X27.067619 Y17.921476 Z-1.000000
G01 X27.058289 Y17.957334 Z-1.000000
G01 X27.058247 Y17.969089 Z-1.000000
G03 X27.046379 Y18.030564 Z-1.000000 I-0.999228 J-0.161025
G02 X27.039129 Y18.091939 Z-1.000000 I0.291207 J0.065517
G02 X27.044779 Y18.143308 Z-1.000000 I0.209848 J0.002912
G01 X27.054009 Y18.158163 Z-1.000000
G01 X27.059759 Y18.155708 Z-1.000000
G01 X27.062559 Y18.116788 Z-1.000000
G01 X27.078199 Y18.159608 Z-1.000000
G02 X27.097649 Y18.196975 Z-1.000000 I0.152868 J-0.055824
G01 X27.108109 Y18.202428 Z-1.000000
G01 X27.123017 Y18.226191 Z-1.000000
G03 X27.075669 Y18.269478 Z-1.000000 I-0.077872 J-0.037640
G02 X27.034322 Y18.315311 Z-1.000000 I0.023787 J0.063026
G01 X27.053619 Y18.353008 Z-1.000000
G01 X27.062671 Y18.364025 Z-1.000000
G01 X27.057519 Y18.375638 Z-1.000000
G01 X27.051178 Y18.384716 Z-1.000000
G01 X27.054619 Y18.389038 Z-1.000000
G01 X27.065020 Y18.396685 Z-1.000000
G03 X27.072529 Y18.443768 Z-1.000000 I-0.143866 J0.047083
G03 X27.067098 Y18.492864 Z-1.000000 I-0.224621 J0.000000
G01 X27.060349 Y18.498268 Z-1.000000
G01 X27.053680 Y18.503802 Z-1.000000
G02 X27.047919 Y18.564438 Z-1.000000 I0.329837 J0.061927
G02 X27.053951 Y18.599316 Z-1.000000 I0.101604 J0.000388
G01 X27.060559 Y18.599468 Z-1.000000
G01 X27.067184 Y18.600456 Z-1.000000
G03 X27.074549 Y18.742195 Z-1.000000 I-1.549706 J0.151584
G02 X27.084530 Y18.910021 Z-1.000000 I1.583512 J-0.009964
G01 X27.095109 Y18.923961 Z-1.000000
G01 X27.100460 Y18.933399 Z-1.000000
G01 X27.091309 Y18.947961 Z-1.000000
G01 X27.081027 Y18.965232 Z-1.000000
G01 X27.087409 Y18.983401 Z-1.000000
G03 X27.101607 Y19.004851 Z-1.000000 I-0.045620 J0.045620
G03 X27.106739 Y19.031251 Z-1.000000 I-0.065336 J0.026400
G01 X27.113398 Y19.055190 Z-1.000000
G01 X27.129109 Y19.068351 Z-1.000000
G01 X27.142687 Y19.092601 Z-1.000000
G03 X27.114839 Y19.146091 Z-1.000000 I-0.100917 J-0.018546
G02 X27.076653 Y19.243202 Z-1.000000 I0.094567 J0.093249
G02 X27.121139 Y19.360973 Z-1.000000 I0.192999 J-0.005615
G03 X27.132856 Y19.386622 Z-1.000000 I-0.041503 J0.034461
G01 X27.129739 Y19.412813 Z-1.000000
G01 X27.119315 Y19.416708 Z-1.000000
G01 X27.106189 Y19.401333 Z-1.000000
G01 X27.094319 Y19.362403 Z-1.000000
G01 X27.092719 Y19.402593 Z-1.000000
G03 X27.058922 Y19.454946 Z-1.000000 I-0.061121 J-0.002372
G03 X26.930552 Y19.483553 Z-1.000000 I-0.121679 J-0.243696
G03 X26.788786 Y19.455465 Z-1.000000 I0.010625 J-0.425439
G01 X26.764192 Y19.419693 Z-1.000000
G02 X26.757589 Y19.393511 Z-1.000000 I-0.055206 J-0.000000
G02 X26.733602 Y19.362893 Z-1.000000 I-0.100951 J0.054381
G03 X26.709665 Y19.331039 Z-1.000000 I0.070477 J-0.077881
G03 X26.677762 Y19.248368 Z-1.000000 I0.467445 J-0.227881
G03 X26.667033 Y19.166469 Z-1.000000 I0.260853 J-0.075826
G01 X26.680162 Y19.141294 Z-1.000000
G03 X26.708739 Y19.123836 Z-1.000000 I0.119237 J0.163053
G01 X26.720432 Y19.121064 Z-1.000000
G01 X26.749351 Y19.090749 Z-1.000000
G02 X26.716432 Y19.034764 Z-1.000000 I-0.069651 J0.003284
G01 X26.707068 Y19.020578 Z-1.000000
G03 X26.703682 Y18.951274 Z-1.000000 I0.337108 J-0.051205
G02 X26.702600 Y18.879327 Z-1.000000 I-0.535478 J-0.027931
G01 X26.696082 Y18.859434 Z-1.000000
G01 X26.692543 Y18.845247 Z-1.000000
G01 X26.697282 Y18.840794 Z-1.000000
G01 X26.746313 Y18.784884 Z-1.000000
G02 X26.676032 Y18.679942 Z-1.000000 I-0.141259 J0.018598
G01 X26.665997 Y18.664756 Z-1.000000
G01 X26.671832 Y18.644912 Z-1.000000
G01 X26.678132 Y18.628466 Z-1.000000
G01 X26.672696 Y18.622812 Z-1.000000
G01 X26.654360 Y18.603075 Z-1.000000
G03 X26.679296 Y18.533062 Z-1.000000 I0.139649 J0.010292
G02 X26.688393 Y18.510062 Z-1.000000 I-0.043577 J-0.030534
G01 X26.683196 Y18.505802 Z-1.000000
G03 X26.626147 Y18.494709 Z-1.000000 I-0.019096 J-0.054039
G01 X26.613846 Y18.444502 Z-1.000000
G01 X26.612802 Y18.427476 Z-1.000000
G01 X26.601006 Y18.420402 Z-1.000000
G01 X26.581885 Y18.415121 Z-1.000000
G01 X26.566466 Y18.399762 Z-1.000000
G02 X26.519550 Y18.360794 Z-1.000000 I-0.079491 J0.047977
G01 X26.499516 Y18.374682 Z-1.000000
G01 X26.505074 Y18.386434 Z-1.000000
G02 X26.533976 Y18.403012 Z-1.000000 I0.063783 J-0.077716
G01 X26.568436 Y18.415762 Z-1.000000
G01 X26.533746 Y18.434322 Z-1.000000
G03 X26.503834 Y18.441207 Z-1.000000 I-0.027643 J-0.051673
G01 X26.492736 Y18.432722 Z-1.000000
G02 X26.475923 Y18.400027 Z-1.000000 I-0.103196 J0.032395
G01 X26.469606 Y18.402022 Z-1.000000
G02 X26.491624 Y18.468534 Z-1.000000 I0.101170 J0.003409
G01 X26.518806 Y18.463712 Z-1.000000
G01 X26.528567 Y18.458830 Z-1.000000
G03 X26.559316 Y18.476992 Z-1.000000 I-0.026122 J0.079336
G03 X26.577367 Y18.511726 Z-1.000000 I-0.039833 J0.042759
G03 X26.570016 Y18.554182 Z-1.000000 I-0.070126 J0.009722
G02 X26.550223 Y18.600358 Z-1.000000 I0.293662 J0.153205
G02 X26.546326 Y18.623562 Z-1.000000 I0.068759 J0.023478
G03 X26.541794 Y18.645822 Z-1.000000 I-0.058071 J-0.000232
G03 X26.528806 Y18.665122 Z-1.000000 I-0.055450 J-0.023294
G01 X26.517979 Y18.685257 Z-1.000000
G02 X26.512256 Y18.746092 Z-1.000000 I0.278914 J0.056926
G03 X26.505068 Y18.801835 Z-1.000000 I-0.198515 J0.002736
G01 X26.494646 Y18.809872 Z-1.000000
G01 X26.489362 Y18.814240 Z-1.000000
G01 X26.492246 Y18.821552 Z-1.000000
G03 X26.515443 Y18.870190 Z-1.000000 I-0.032046 J0.045134
G01 X26.487846 Y18.891382 Z-1.000000
G01 X26.477580 Y18.898396 Z-1.000000
G02 X26.471186 Y18.984802 Z-1.000000 I0.415939 J0.074220
G01 X26.479786 Y19.008152 Z-1.000000
G01 X26.493151 Y18.999047 Z-1.000000
G01 X26.505366 Y19.015952 Z-1.000000
G03 X26.492927 Y19.174264 Z-1.000000 I-1.441625 J-0.033626
G01 X26.483906 Y19.175504 Z-1.000000
G01 X26.475575 Y19.171093 Z-1.000000
G01 X26.469426 Y19.178304 Z-1.000000
G02 X26.474485 Y19.209787 Z-1.000000 I0.083694 J0.002700
G02 X26.489696 Y19.233594 Z-1.000000 I0.061422 J-0.022482
G01 X26.501995 Y19.258637 Z-1.000000
G03 X26.509156 Y19.385226 Z-1.000000 I-0.884991 J0.113561
G02 X26.524682 Y19.502347 Z-1.000000 I0.404643 J0.005948
G01 X26.549676 Y19.527008 Z-1.000000
G02 X26.592692 Y19.534684 Z-1.000000 I0.065432 J-0.242308
G02 X26.783230 Y19.547898 Z-1.000000 I0.422401 J-4.710489
G03 X27.198192 Y19.585788 Z-1.000000 I-0.242796 J4.950314
G01 X27.215702 Y19.605798 Z-1.000000
G01 X27.206246 Y19.614844 Z-1.000000
G03 X26.849801 Y19.589608 Z-1.000000 I0.300894 J-6.779877
G02 X26.419407 Y19.561072 Z-1.000000 I-0.676064 J6.936845
G01 X26.406049 Y19.573968 Z-1.000000
G01 X26.400462 Y19.578817 Z-1.000000
G03 X26.344749 Y19.565168 Z-1.000000 I0.040793 J-0.287027
G02 X26.282037 Y19.551669 Z-1.000000 I-0.084173 J0.238620
G02 X26.078585 Y19.542518 Z-1.000000 I-0.216141 J2.539209
G03 X25.874697 Y19.538102 Z-1.000000 I0.030654 J-6.123915
G01 X25.861981 Y19.534218 Z-1.000000
G01 X25.849208 Y19.530318 Z-1.000000
G02 X25.672714 Y19.526418 Z-1.000000 I-0.190756 J4.637622
G03 X25.495190 Y19.525701 Z-1.000000 I0.401708 J-121.432270
G03 X25.471835 Y19.525458 Z-1.000000 I0.009889 J-2.073191
G03 X25.183491 Y19.518481 Z-1.000000 I0.280054 J-17.536603
G03 X24.856809 Y19.505498 Z-1.000000 I0.724879 J-22.355583
G02 X24.804874 Y19.511476 Z-1.000000 I-0.007610 J0.162464
G01 X24.798419 Y19.522038 Z-1.000000
G01 X24.795945 Y19.536271 Z-1.000000
G01 X24.786739 Y19.541498 Z-1.000000
G01 X24.775970 Y19.536648 Z-1.000000
G01 X24.771169 Y19.523978 Z-1.000000
G01 X24.763917 Y19.515305 Z-1.000000
G02 X24.725059 Y19.515678 Z-1.000000 I-0.018446 J0.102570
G03 X24.682117 Y19.517560 Z-1.000000 I-0.027507 J-0.136781
G01 X24.669489 Y19.509578 Z-1.000000
G01 X24.658270 Y19.501733 Z-1.000000
G01 X24.643789 Y19.504278 Z-1.000000
G01 X24.629491 Y19.506133 Z-1.000000
G01 X24.616139 Y19.495878 Z-1.000000
G02 X24.558746 Y19.471318 Z-1.000000 I-0.046160 J0.028528
G01 X24.521549 Y19.515938 Z-1.000000
G01 X24.516398 Y19.519213 Z-1.000000
G01 X24.500729 Y19.506938 Z-1.000000
G02 X24.475462 Y19.488939 Z-1.000000 I-0.041488 J0.031505
G02 X24.389535 Y19.470498 Z-1.000000 I-0.130245 J0.397484
G03 X24.299516 Y19.457277 Z-1.000000 I0.119414 J-1.126096
G03 X24.260281 Y19.446218 Z-1.000000 I0.042547 J-0.226085
G01 X24.236036 Y19.452748 Z-1.000000
G01 X24.238831 Y19.472658 Z-1.000000
G01 X24.243421 Y19.503371 Z-1.000000
G01 X24.201571 Y19.520368 Z-1.000000
G03 X24.131495 Y19.507149 Z-1.000000 I0.097776 J-0.710688
G03 X24.112041 Y19.498788 Z-1.000000 I0.014664 J-0.060931
G02 X24.092585 Y19.490162 Z-1.000000 I-0.036613 J0.056327
G02 X24.002557 Y19.469858 Z-1.000000 I-0.323676 J1.225426
G02 X23.580933 Y19.432324 Z-1.000000 I-0.404382 J2.155627
G02 X23.058446 Y19.477258 Z-1.000000 I0.026479 J3.368068
G03 X22.972878 Y19.487191 Z-1.000000 I-0.144993 J-0.875535
G03 X22.941669 Y19.485158 Z-1.000000 I-0.007953 J-0.118500
G02 X22.707746 Y19.450669 Z-1.000000 I-0.443360 J2.196567
G02 X22.669836 Y19.459638 Z-1.000000 I-0.005686 J0.060570
G03 X22.643080 Y19.468148 Z-1.000000 I-0.030016 J-0.048056
G01 X22.621086 Y19.462438 Z-1.000000
G02 X22.539456 Y19.440401 Z-1.000000 I-0.076351 J0.120619
G02 X22.428917 Y19.469538 Z-1.000000 I0.009653 J0.260874
G01 X22.387497 Y19.491028 Z-1.000000
G01 X22.427137 Y19.500928 Z-1.000000
G01 X22.428323 Y19.528343 Z-1.000000
G03 X22.295503 Y19.546358 Z-1.000000 I-0.111418 J-0.322821
G02 X22.209820 Y19.541996 Z-1.000000 I-0.214030 J3.360267
G02 X22.061949 Y19.537358 Z-1.000000 I-0.416229 J10.911507
G03 X21.927762 Y19.521343 Z-1.000000 I0.018170 J-0.722422
G01 X21.916285 Y19.505888 Z-1.000000
G01 X21.910432 Y19.493699 Z-1.000000
G01 X21.899055 Y19.494268 Z-1.000000
G01 X21.877697 Y19.503088 Z-1.000000
G03 X21.829975 Y19.500568 Z-1.000000 I-0.015117 J-0.166873
G02 X21.784834 Y19.502090 Z-1.000000 I-0.019328 J0.096969
G01 X21.759065 Y19.519798 Z-1.000000
G02 X21.743762 Y19.549192 Z-1.000000 I0.088930 J0.064979
G01 X21.745075 Y19.560798 Z-1.000000
G01 X21.744676 Y19.568324 Z-1.000000
G01 X21.735875 Y19.572648 Z-1.000000
G01 X21.724135 Y19.567918 Z-1.000000
G01 X21.719385 Y19.556758 Z-1.000000
G01 X21.712810 Y19.551661 Z-1.000000
G02 X21.656215 Y19.573098 Z-1.000000 I0.068702 J0.266803
G03 X21.592348 Y19.596748 Z-1.000000 I-0.132496 J-0.259742
G03 X21.562795 Y19.595718 Z-1.000000 I-0.012933 J-0.053404
G01 X21.538892 Y19.594749 Z-1.000000
G01 X21.532545 Y19.602718 Z-1.000000
G01 X21.538751 Y19.613082 Z-1.000000
