%
(Header)
(Generated by gcodetools from Inkscape.)
(Using default header. To add your own header create file "header" in the output dir.)
M3
(Header end.)
G21 (All units in mm)

(Start cutting path id: path51213)
(Change tool to Default tool)

G00 Z 5.0000
G00 X 15.8847 Y 15.6104

G01 Z -1.0000 F 100.0000(Penetrate)
G01 X 15.8880 Y 15.6153 Z -1.0000 F 3500.0000
G01 X 15.9027 Y 15.6175 Z -1.0000
G01 X 15.9178 Y 15.6136 Z -1.0000
G01 X 15.9206 Y 15.6091 Z -1.0000
G01 X 15.9177 Y 15.6049 Z -1.0000
G01 X 15.9027 Y 15.6020 Z -1.0000
G01 X 15.8880 Y 15.6053 Z -1.0000
G01 X 15.8847 Y 15.6104 Z -1.0000
G01 X 15.8847 Y 15.6104 Z -1.0000
G00 Z 5.0000

(End cutting path id: path51213)


(Start cutting path id: path51213)
(Change tool to Default tool)

G00 Z 5.0000
G00 X 15.8782 Y 15.6647

G01 Z -1.0000 F 100.0000(Penetrate)
G01 X 15.8828 Y 15.6793 Z -1.0000 F 3500.0000
G01 X 15.8889 Y 15.6828 Z -1.0000
G03 X 15.9378 Y 15.7010 Z -1.0000 I -0.0017 J 0.0795
G01 X 15.9318 Y 15.7183 Z -1.0000
G01 X 15.9246 Y 15.7225 Z -1.0000
G01 X 15.9206 Y 15.7374 Z -1.0000
G01 X 15.9155 Y 15.7420 Z -1.0000
G01 X 15.9040 Y 15.7359 Z -1.0000
G01 X 15.8857 Y 15.7222 Z -1.0000
G01 X 15.8705 Y 15.7220 Z -1.0000
G01 X 15.8660 Y 15.7304 Z -1.0000
G01 X 15.8758 Y 15.7457 Z -1.0000
G01 X 15.9093 Y 15.7553 Z -1.0000
G01 X 15.9378 Y 15.7397 Z -1.0000
G02 X 15.9508 Y 15.7100 Z -1.0000 I -0.0505 J -0.0398
G02 X 15.9475 Y 15.6784 Z -1.0000 I -0.0610 J -0.0097
G01 X 15.9352 Y 15.6643 Z -1.0000
G01 X 15.9215 Y 15.6642 Z -1.0000
G01 X 15.9070 Y 15.6665 Z -1.0000
G01 X 15.8993 Y 15.6601 Z -1.0000
G01 X 15.8867 Y 15.6533 Z -1.0000
G01 X 15.8782 Y 15.6647 Z -1.0000
G01 X 15.8782 Y 15.6647 Z -1.0000
G00 Z 5.0000

(End cutting path id: path51213)


(Start cutting path id: path51213)
(Change tool to Default tool)

G00 Z 5.0000
G00 X 15.8467 Y 15.6975

G01 Z -1.0000 F 100.0000(Penetrate)
G01 X 15.8579 Y 15.6997 Z -1.0000 F 3500.0000
G01 X 15.8691 Y 15.6975 Z -1.0000
G01 X 15.8579 Y 15.6930 Z -1.0000
G01 X 15.8467 Y 15.6975 Z -1.0000
G01 X 15.8467 Y 15.6975 Z -1.0000
G00 Z 5.0000

(End cutting path id: path51213)


(Start cutting path id: path51213)
(Change tool to Default tool)

G00 Z 5.0000
G00 X 15.8274 Y 15.6610

G01 Z -1.0000 F 100.0000(Penetrate)
G02 X 15.8223 Y 15.6752 Z -1.0000 I 0.3284 J 0.1263 F 3500.0000
G01 X 15.8220 Y 15.6770 Z -1.0000
G01 X 15.8422 Y 15.6798 Z -1.0000
G01 X 15.8511 Y 15.6765 Z -1.0000
G01 X 15.8444 Y 15.6706 Z -1.0000
G01 X 15.8445 Y 15.6646 Z -1.0000
G01 X 15.8454 Y 15.6579 Z -1.0000
G01 X 15.8410 Y 15.6520 Z -1.0000
G01 X 15.8346 Y 15.6521 Z -1.0000
G01 X 15.8274 Y 15.6611 Z -1.0000
G01 X 15.8274 Y 15.6610 Z -1.0000
G00 Z 5.0000

(End cutting path id: path51213)


(Start cutting path id: path51213)
(Change tool to Default tool)

G00 Z 5.0000
G00 X 15.7324 Y 15.6823

G01 Z -1.0000 F 100.0000(Penetrate)
G01 X 15.7356 Y 15.6864 Z -1.0000 F 3500.0000
G01 X 15.7459 Y 15.6858 Z -1.0000
G02 X 15.7579 Y 15.6798 Z -1.0000 I -0.0225 J -0.0595
G01 X 15.7593 Y 15.6771 Z -1.0000
G01 X 15.7459 Y 15.6736 Z -1.0000
G01 X 15.7355 Y 15.6767 Z -1.0000
G01 X 15.7324 Y 15.6823 Z -1.0000
G01 X 15.7324 Y 15.6823 Z -1.0000
G00 Z 5.0000

(End cutting path id: path51213)


(Start cutting path id: path51213)
(Change tool to Default tool)

G00 Z 5.0000
G00 X 15.9832 Y 15.6580

G01 Z -1.0000 F 100.0000(Penetrate)
G02 X 15.9814 Y 15.6648 Z -1.0000 I 0.0711 J 0.0231 F 3500.0000
G02 X 15.9799 Y 15.6730 Z -1.0000 I 0.0926 J 0.0206
G01 X 15.9775 Y 15.6805 Z -1.0000
G01 X 15.9726 Y 15.6874 Z -1.0000
G01 X 15.9706 Y 15.7135 Z -1.0000
G01 X 15.9976 Y 15.7214 Z -1.0000
G01 X 16.0363 Y 15.7236 Z -1.0000
G01 X 16.0420 Y 15.7446 Z -1.0000
G01 X 16.0430 Y 15.7503 Z -1.0000
G02 X 16.0774 Y 15.7723 Z -1.0000 I 0.1335 J -0.1708
G03 X 16.1156 Y 15.7949 Z -1.0000 I -0.1701 J 0.3308
G03 X 16.1323 Y 15.8094 Z -1.0000 I -0.0517 J 0.0764
G01 X 16.1350 Y 15.8206 Z -1.0000
G01 X 16.1280 Y 15.8260 Z -1.0000
G01 X 16.1135 Y 15.8210 Z -1.0000
G01 X 16.1080 Y 15.8103 Z -1.0000
G01 X 16.0998 Y 15.8125 Z -1.0000
G02 X 16.0923 Y 15.8456 Z -1.0000 I 0.0847 J 0.0364
G01 X 16.0984 Y 15.8492 Z -1.0000
G01 X 16.1054 Y 15.8493 Z -1.0000
G03 X 16.1276 Y 15.8688 Z -1.0000 I -0.0645 J 0.0959
G03 X 16.1590 Y 15.9380 Z -1.0000 I -0.0969 J 0.0857
G01 X 16.1393 Y 15.9604 Z -1.0000
G01 X 16.1297 Y 15.9634 Z -1.0000
G01 X 16.1267 Y 15.9693 Z -1.0000
G03 X 16.1108 Y 16.0072 Z -1.0000 I -0.0534 J -0.0000
G03 X 16.0723 Y 16.0231 Z -1.0000 I -0.0386 J -0.0390
G01 X 16.0595 Y 16.0194 Z -1.0000
G01 X 16.0520 Y 16.0103 Z -1.0000
G01 X 16.0444 Y 16.0030 Z -1.0000
G01 X 16.0287 Y 16.0024 Z -1.0000
G01 X 16.0151 Y 16.0009 Z -1.0000
G01 X 16.0102 Y 15.9927 Z -1.0000
G01 X 16.0070 Y 15.9815 Z -1.0000
G01 X 16.0012 Y 15.9783 Z -1.0000
G01 X 15.9959 Y 15.9835 Z -1.0000
G02 X 16.0007 Y 16.0096 Z -1.0000 I 0.0671 J 0.0010
G01 X 16.0034 Y 16.0269 Z -1.0000
G01 X 15.9986 Y 16.0392 Z -1.0000
G01 X 16.0024 Y 16.0634 Z -1.0000
G01 X 16.0415 Y 16.0679 Z -1.0000
G03 X 16.0656 Y 16.0647 Z -1.0000 I 0.0186 J 0.0486
G01 X 16.0808 Y 16.0720 Z -1.0000
G01 X 16.0825 Y 16.0807 Z -1.0000
G01 X 16.0748 Y 16.0858 Z -1.0000
G01 X 16.0613 Y 16.0949 Z -1.0000
G01 X 16.0662 Y 16.1067 Z -1.0000
G01 X 16.0538 Y 16.1119 Z -1.0000
G01 X 16.0333 Y 16.1078 Z -1.0000
G01 X 16.0247 Y 16.0986 Z -1.0000
G01 X 16.0175 Y 16.0901 Z -1.0000
G01 X 16.0103 Y 16.0902 Z -1.0000
G01 X 16.0047 Y 16.0897 Z -1.0000
G01 X 16.0013 Y 16.0818 Z -1.0000
G01 X 15.9846 Y 16.0670 Z -1.0000
G01 X 15.9606 Y 16.0869 Z -1.0000
G01 X 15.9655 Y 16.1134 Z -1.0000
G01 X 15.9842 Y 16.1167 Z -1.0000
G01 X 15.9898 Y 16.1165 Z -1.0000
G01 X 16.0009 Y 16.1257 Z -1.0000
G01 X 16.0072 Y 16.1590 Z -1.0000
G01 X 15.9843 Y 16.1754 Z -1.0000
G01 X 15.9776 Y 16.1775 Z -1.0000
G02 X 15.9354 Y 16.2090 Z -1.0000 I 0.3825 J 0.5564
G02 X 15.8998 Y 16.2454 Z -1.0000 I 0.1381 J 0.1706
G01 X 15.8938 Y 16.2628 Z -1.0000
G01 X 15.8886 Y 16.2777 Z -1.0000
G01 X 15.8777 Y 16.2829 Z -1.0000
G01 X 15.8627 Y 16.2858 Z -1.0000
G01 X 15.8508 Y 16.2937 Z -1.0000
G01 X 15.8431 Y 16.2972 Z -1.0000
G01 X 15.8400 Y 16.2943 Z -1.0000
G01 X 15.8425 Y 16.2852 Z -1.0000
G03 X 15.8541 Y 16.2701 Z -1.0000 I 0.0630 J 0.0366
G01 X 15.8605 Y 16.2593 Z -1.0000
G01 X 15.8581 Y 16.2561 Z -1.0000
G01 X 15.8506 Y 16.2598 Z -1.0000
G02 X 15.8350 Y 16.2874 Z -1.0000 I 0.1060 J 0.0784
G03 X 15.8178 Y 16.3127 Z -1.0000 I -0.0718 J -0.0301
G01 X 15.8031 Y 16.3188 Z -1.0000
G01 X 15.7919 Y 16.3240 Z -1.0000
G01 X 15.7903 Y 16.3342 Z -1.0000
G01 X 15.7901 Y 16.3436 Z -1.0000
G01 X 15.7841 Y 16.3423 Z -1.0000
G01 X 15.7706 Y 16.3511 Z -1.0000
G03 X 15.7277 Y 16.3672 Z -1.0000 I -0.0393 J -0.0393
G01 X 15.7126 Y 16.3473 Z -1.0000
G01 X 15.7106 Y 16.3417 Z -1.0000
G01 X 15.7054 Y 16.3414 Z -1.0000
G01 X 15.6993 Y 16.3487 Z -1.0000
G01 X 15.6991 Y 16.3575 Z -1.0000
G01 X 15.6922 Y 16.3844 Z -1.0000
G03 X 15.6487 Y 16.4042 Z -1.0000 I -0.0519 J -0.0560
G02 X 15.6285 Y 16.4104 Z -1.0000 I 0.0060 J 0.0554
G02 X 15.6071 Y 16.4263 Z -1.0000 I 0.0422 J 0.0796
G03 X 15.5859 Y 16.4404 Z -1.0000 I -0.0459 J -0.0459
G01 X 15.5704 Y 16.4415 Z -1.0000
G01 X 15.5565 Y 16.4411 Z -1.0000
G01 X 15.5533 Y 16.4452 Z -1.0000
G01 X 15.5560 Y 16.4506 Z -1.0000
G01 X 15.5639 Y 16.4533 Z -1.0000
G01 X 15.5581 Y 16.4653 Z -1.0000
G01 X 15.5557 Y 16.4830 Z -1.0000
G01 X 15.5766 Y 16.4887 Z -1.0000
G01 X 15.6003 Y 16.4869 Z -1.0000
G01 X 15.6104 Y 16.4958 Z -1.0000
G02 X 15.6170 Y 16.5109 Z -1.0000 I 0.1004 J -0.0350
G02 X 15.6332 Y 16.5384 Z -1.0000 I 0.3388 J -0.1810
G03 X 15.6478 Y 16.5662 Z -1.0000 I -0.1435 J 0.0932
G01 X 15.6512 Y 16.5817 Z -1.0000
G01 X 15.6580 Y 16.5872 Z -1.0000
G02 X 15.6936 Y 16.5748 Z -1.0000 I -0.0175 J -0.1073
G03 X 15.7275 Y 16.5671 Z -1.0000 I 0.0301 J 0.0539
G01 X 15.7332 Y 16.5773 Z -1.0000
G01 X 15.7293 Y 16.5988 Z -1.0000
G01 X 15.7370 Y 16.6056 Z -1.0000
G01 X 15.7473 Y 16.6024 Z -1.0000
G01 X 15.7505 Y 16.5966 Z -1.0000
G01 X 15.7539 Y 16.5910 Z -1.0000
G01 X 15.7684 Y 16.5876 Z -1.0000
G01 X 15.7817 Y 16.5829 Z -1.0000
G01 X 15.7863 Y 16.5732 Z -1.0000
G01 X 15.7907 Y 16.5651 Z -1.0000
G01 X 15.8003 Y 16.5642 Z -1.0000
G01 X 15.8081 Y 16.5614 Z -1.0000
G01 X 15.8115 Y 16.5450 Z -1.0000
G01 X 15.8167 Y 16.5248 Z -1.0000
G03 X 15.8397 Y 16.5048 Z -1.0000 I 0.0515 J 0.0360
G03 X 15.8712 Y 16.4910 Z -1.0000 I 0.1323 J 0.2595
G01 X 15.8823 Y 16.4890 Z -1.0000
G01 X 15.8903 Y 16.4856 Z -1.0000
G01 X 15.8938 Y 16.4769 Z -1.0000
G01 X 15.8998 Y 16.4670 Z -1.0000
G03 X 15.9908 Y 16.4252 Z -1.0000 I 0.3945 J 0.7394
G01 X 16.0179 Y 16.4258 Z -1.0000
G01 X 16.0282 Y 16.4416 Z -1.0000
G02 X 16.0562 Y 16.5060 Z -1.0000 I 0.0880 J 0.0000
G02 X 16.1104 Y 16.5182 Z -1.0000 I 0.0376 J -0.0403
G01 X 16.1115 Y 16.5309 Z -1.0000
G01 X 16.1150 Y 16.5401 Z -1.0000
G01 X 16.1224 Y 16.5407 Z -1.0000
G03 X 16.1367 Y 16.5588 Z -1.0000 I -0.0394 J 0.0458
G02 X 16.1670 Y 16.5879 Z -1.0000 I 0.0575 J -0.0296
G01 X 16.1806 Y 16.5792 Z -1.0000
G01 X 16.1713 Y 16.5597 Z -1.0000
G01 X 16.1604 Y 16.5629 Z -1.0000
G01 X 16.1522 Y 16.5447 Z -1.0000
G03 X 16.1534 Y 16.5221 Z -1.0000 I 0.0559 J -0.0083
G01 X 16.1588 Y 16.5194 Z -1.0000
G01 X 16.1641 Y 16.5164 Z -1.0000
G02 X 16.1649 Y 16.4872 Z -1.0000 I -0.0892 J -0.0170
G03 X 16.1664 Y 16.4595 Z -1.0000 I 0.0733 J -0.0098
G01 X 16.1726 Y 16.4565 Z -1.0000
G02 X 16.1852 Y 16.4619 Z -1.0000 I 0.1373 J -0.3056
G02 X 16.1998 Y 16.4674 Z -1.0000 I 0.1758 J -0.4386
G01 X 16.2121 Y 16.4753 Z -1.0000
G03 X 16.2238 Y 16.4921 Z -1.0000 I -0.0456 J 0.0444
G01 X 16.2338 Y 16.5003 Z -1.0000
G01 X 16.2379 Y 16.4927 Z -1.0000
G01 X 16.2488 Y 16.4891 Z -1.0000
G01 X 16.2568 Y 16.4933 Z -1.0000
G01 X 16.2578 Y 16.5025 Z -1.0000
G02 X 16.2524 Y 16.5160 Z -1.0000 I 75.0348 J 30.4195
G02 X 16.2469 Y 16.5294 Z -1.0000 I 8.0127 J 3.2467
G01 X 16.2473 Y 16.5390 Z -1.0000
G01 X 16.2536 Y 16.5431 Z -1.0000
G01 X 16.2793 Y 16.5580 Z -1.0000
G03 X 16.3000 Y 16.6197 Z -1.0000 I -0.1274 J 0.0770
G02 X 16.3071 Y 16.6509 Z -1.0000 I 0.1275 J -0.0129
G01 X 16.3138 Y 16.6574 Z -1.0000
G01 X 16.3207 Y 16.6632 Z -1.0000
G01 X 16.3240 Y 16.6766 Z -1.0000
G01 X 16.3404 Y 16.7114 Z -1.0000
G01 X 16.3685 Y 16.7133 Z -1.0000
G01 X 16.3789 Y 16.7132 Z -1.0000
G01 X 16.3929 Y 16.7282 Z -1.0000
G03 X 16.4037 Y 16.7673 Z -1.0000 I -0.0864 J 0.0449
G01 X 16.3957 Y 16.7758 Z -1.0000
G01 X 16.3894 Y 16.7785 Z -1.0000
G01 X 16.3867 Y 16.7853 Z -1.0000
G01 X 16.3999 Y 16.7967 Z -1.0000
G02 X 16.4388 Y 16.7780 Z -1.0000 I -0.0098 J -0.0703
G01 X 16.4519 Y 16.7697 Z -1.0000
G01 X 16.4672 Y 16.7668 Z -1.0000
G01 X 16.4813 Y 16.7633 Z -1.0000
G01 X 16.4873 Y 16.7562 Z -1.0000
G01 X 16.4933 Y 16.7511 Z -1.0000
G01 X 16.5082 Y 16.7531 Z -1.0000
G01 X 16.5141 Y 16.7596 Z -1.0000
G01 X 16.5117 Y 16.7640 Z -1.0000
G01 X 16.5038 Y 16.7715 Z -1.0000
G02 X 16.5015 Y 16.7984 Z -1.0000 I 0.0644 J 0.0191
G03 X 16.4987 Y 16.8238 Z -1.0000 I -0.0568 J 0.0066
G01 X 16.4907 Y 16.8295 Z -1.0000
G01 X 16.4799 Y 16.8258 Z -1.0000
G01 X 16.4761 Y 16.8183 Z -1.0000
G01 X 16.4612 Y 16.8367 Z -1.0000
G03 X 16.4427 Y 16.8626 Z -1.0000 I -0.0858 J -0.0421
G03 X 16.4115 Y 16.8860 Z -1.0000 I -0.1019 J -0.1030
G02 X 16.3765 Y 16.9058 Z -1.0000 I 1.9198 J 3.4343
G02 X 16.3345 Y 16.9301 Z -1.0000 I 2.9706 J 5.1888
G03 X 16.2922 Y 16.9538 Z -1.0000 I -0.7240 J -1.2402
G03 X 16.2791 Y 16.9599 Z -1.0000 I -0.0610 J -0.1130
G02 X 16.2323 Y 16.9819 Z -1.0000 I 0.1685 J 0.4195
G02 X 16.1714 Y 17.0183 Z -1.0000 I 0.4051 J 0.7479
G03 X 16.1477 Y 17.0312 Z -1.0000 I -0.0877 J -0.1331
G03 X 16.0907 Y 17.0538 Z -1.0000 I -0.3417 J -0.7791
G02 X 16.0337 Y 17.0761 Z -1.0000 I 0.3144 J 0.8844
G02 X 16.0193 Y 17.0845 Z -1.0000 I 0.0276 J 0.0641
G03 X 16.0053 Y 17.0937 Z -1.0000 I -0.0736 J -0.0973
G03 X 15.9700 Y 17.1121 Z -1.0000 I -0.3392 J -0.6063
G02 X 15.9348 Y 17.1306 Z -1.0000 I 0.2877 J 0.5907
G02 X 15.9073 Y 17.1475 Z -1.0000 I 0.2096 J 0.3714
G03 X 15.8801 Y 17.1648 Z -1.0000 I -0.3723 J -0.5551
G03 X 15.8536 Y 17.1799 Z -1.0000 I -0.3195 J -0.5300
G02 X 15.8203 Y 17.2117 Z -1.0000 I 0.0413 J 0.0767
G01 X 15.8282 Y 17.2220 Z -1.0000
G01 X 15.8354 Y 17.2222 Z -1.0000
G03 X 15.8564 Y 17.2314 Z -1.0000 I -0.0381 J 0.1146
G01 X 15.8682 Y 17.2446 Z -1.0000
G01 X 15.8665 Y 17.2557 Z -1.0000
G01 X 15.8647 Y 17.2644 Z -1.0000
G01 X 15.8704 Y 17.2685 Z -1.0000
G01 X 15.8817 Y 17.2653 Z -1.0000
G01 X 15.8849 Y 17.2595 Z -1.0000
G01 X 15.8880 Y 17.2537 Z -1.0000
G01 X 15.8983 Y 17.2505 Z -1.0000
G01 X 15.9089 Y 17.2476 Z -1.0000
G01 X 15.9118 Y 17.2426 Z -1.0000
G01 X 15.9153 Y 17.2377 Z -1.0000
G03 X 15.9533 Y 17.2285 Z -1.0000 I 0.0703 J 0.2068
G02 X 15.9943 Y 17.2207 Z -1.0000 I -0.0811 J -0.5440
G02 X 16.0137 Y 17.2147 Z -1.0000 I -0.0295 J -0.1294
G03 X 16.0329 Y 17.2078 Z -1.0000 I 0.1395 J 0.3556
G03 X 16.0817 Y 17.1923 Z -1.0000 I 0.6805 J 2.0503
G02 X 16.2600 Y 17.1032 Z -1.0000 I -0.1757 J -0.5747
G02 X 16.2810 Y 17.0470 Z -1.0000 I -0.0321 J -0.0440
G01 X 16.2844 Y 17.0404 Z -1.0000
G03 X 16.3098 Y 17.0355 Z -1.0000 I 0.0254 J 0.0638
G02 X 16.3341 Y 17.0306 Z -1.0000 I -0.0000 J -0.0627
G01 X 16.3369 Y 17.0241 Z -1.0000
G01 X 16.3432 Y 17.0114 Z -1.0000
G03 X 16.5142 Y 16.9722 Z -1.0000 I 0.4148 J 1.4156
G02 X 16.5734 Y 16.9587 Z -1.0000 I -0.0888 J -0.5262
G02 X 16.6079 Y 16.9451 Z -1.0000 I -0.0541 J -0.1874
G03 X 16.6561 Y 16.9298 Z -1.0000 I 0.0701 J 0.1374
G01 X 16.6644 Y 16.9370 Z -1.0000
G01 X 16.6616 Y 16.9431 Z -1.0000
G01 X 16.6543 Y 16.9460 Z -1.0000
G01 X 16.6511 Y 16.9492 Z -1.0000
G01 X 16.6544 Y 16.9582 Z -1.0000
G01 X 16.6579 Y 16.9698 Z -1.0000
G01 X 16.6519 Y 16.9809 Z -1.0000
G01 X 16.6407 Y 17.0108 Z -1.0000
G01 X 16.6591 Y 17.0266 Z -1.0000
G01 X 16.6676 Y 17.0304 Z -1.0000
G03 X 16.6962 Y 17.0687 Z -1.0000 I -0.2216 J 0.1953
G02 X 16.7236 Y 17.1101 Z -1.0000 I 0.8581 J -0.5386
G02 X 16.7415 Y 17.1336 Z -1.0000 I 0.3004 J -0.2098
G03 X 16.7666 Y 17.1923 Z -1.0000 I -0.0869 J 0.0719
G01 X 16.7523 Y 17.2249 Z -1.0000
G02 X 16.7386 Y 17.2380 Z -1.0000 I 0.0402 J 0.0558
G01 X 16.7356 Y 17.2458 Z -1.0000
G01 X 16.7165 Y 17.2776 Z -1.0000
G03 X 16.6503 Y 17.2954 Z -1.0000 I -0.0662 J -0.1141
G01 X 16.6336 Y 17.3004 Z -1.0000
G01 X 16.6285 Y 17.3098 Z -1.0000
G01 X 16.6329 Y 17.3179 Z -1.0000
G01 X 16.6423 Y 17.3189 Z -1.0000
G01 X 16.6557 Y 17.3176 Z -1.0000
G01 X 16.6730 Y 17.3242 Z -1.0000
G01 X 16.6886 Y 17.3261 Z -1.0000
G01 X 16.7082 Y 17.3128 Z -1.0000
G02 X 16.7247 Y 17.2902 Z -1.0000 I -0.1700 J -0.1415
G01 X 16.7268 Y 17.2838 Z -1.0000
G01 X 16.7437 Y 17.2495 Z -1.0000
G03 X 16.7875 Y 17.2330 Z -1.0000 I 0.0457 J 0.0546
G01 X 16.7956 Y 17.2359 Z -1.0000
G01 X 16.7987 Y 17.2429 Z -1.0000
G01 X 16.8010 Y 17.2524 Z -1.0000
G02 X 16.8254 Y 17.2964 Z -1.0000 I 0.5005 J -0.2491
G03 X 16.8496 Y 17.3407 Z -1.0000 I -0.4178 J 0.2571
G03 X 16.8582 Y 17.3646 Z -1.0000 I -0.1120 J 0.0539
G02 X 16.8669 Y 17.3879 Z -1.0000 I 0.1052 J -0.0262
G01 X 16.8755 Y 17.3984 Z -1.0000
G01 X 16.8838 Y 17.4091 Z -1.0000
G03 X 16.8927 Y 17.4365 Z -1.0000 I -0.1203 J 0.0542
G03 X 16.8920 Y 17.4602 Z -1.0000 I -0.0509 J 0.0105
G01 X 16.8850 Y 17.4656 Z -1.0000
G01 X 16.8726 Y 17.4691 Z -1.0000
G02 X 16.8488 Y 17.4880 Z -1.0000 I 0.0700 J 0.1126
G03 X 16.8244 Y 17.5056 Z -1.0000 I -0.0656 J -0.0656
G01 X 16.8036 Y 17.5104 Z -1.0000
G01 X 16.7891 Y 17.5022 Z -1.0000
G01 X 16.7886 Y 17.4852 Z -1.0000
G01 X 16.7907 Y 17.4703 Z -1.0000
G02 X 16.7807 Y 17.4449 Z -1.0000 I -0.0752 J 0.0149
G01 X 16.7651 Y 17.4196 Z -1.0000
G01 X 16.7606 Y 17.4493 Z -1.0000
G02 X 16.7599 Y 17.4780 Z -1.0000 I 0.1097 J 0.0168
G01 X 16.7650 Y 17.4901 Z -1.0000
G01 X 16.7700 Y 17.5018 Z -1.0000
G01 X 16.7683 Y 17.5158 Z -1.0000
G01 X 16.7606 Y 17.5222 Z -1.0000
G01 X 16.7492 Y 17.5192 Z -1.0000
G01 X 16.7431 Y 17.5073 Z -1.0000
G01 X 16.7471 Y 17.4941 Z -1.0000
G01 X 16.7473 Y 17.4869 Z -1.0000
G01 X 16.7416 Y 17.4838 Z -1.0000
G01 X 16.7461 Y 17.4637 Z -1.0000
G01 X 16.7466 Y 17.4534 Z -1.0000
G01 X 16.7409 Y 17.4509 Z -1.0000
G03 X 16.7255 Y 17.4561 Z -1.0000 I -0.0904 J -0.2373
G01 X 16.7221 Y 17.4567 Z -1.0000
G01 X 16.7241 Y 17.4845 Z -1.0000
G01 X 16.7160 Y 17.5176 Z -1.0000
G01 X 16.6983 Y 17.5167 Z -1.0000
G01 X 16.6916 Y 17.5178 Z -1.0000
G02 X 16.6901 Y 17.5485 Z -1.0000 I 0.0742 J 0.0190
G01 X 16.6883 Y 17.5528 Z -1.0000
G01 X 16.6800 Y 17.5554 Z -1.0000
G01 X 16.6812 Y 17.5634 Z -1.0000
G01 X 16.6822 Y 17.5706 Z -1.0000
G03 X 16.6610 Y 17.5867 Z -1.0000 I -0.0490 J -0.0425
G02 X 16.6316 Y 17.6041 Z -1.0000 I 0.0819 J 0.1725
G01 X 16.6285 Y 17.6101 Z -1.0000
G01 X 16.6256 Y 17.6151 Z -1.0000
G01 X 16.6149 Y 17.6180 Z -1.0000
G01 X 16.6021 Y 17.6208 Z -1.0000
G02 X 16.5678 Y 17.6397 Z -1.0000 I 0.1151 J 0.2487
G03 X 16.5335 Y 17.6590 Z -1.0000 I -0.1661 J -0.2551
G03 X 16.5165 Y 17.6644 Z -1.0000 I -0.0269 J -0.0560
G01 X 16.4984 Y 17.6712 Z -1.0000
G02 X 16.4410 Y 17.7126 Z -1.0000 I 0.3411 J 0.5344
G03 X 16.4001 Y 17.7390 Z -1.0000 I -0.1444 J -0.1787
G01 X 16.3856 Y 17.7405 Z -1.0000
G01 X 16.3715 Y 17.7419 Z -1.0000
G02 X 16.3498 Y 17.7578 Z -1.0000 I 0.0324 J 0.0669
G03 X 16.3283 Y 17.7759 Z -1.0000 I -0.0865 J -0.0812
G01 X 16.3170 Y 17.7792 Z -1.0000
G01 X 16.3057 Y 17.7827 Z -1.0000
G02 X 16.2735 Y 17.8084 Z -1.0000 I 0.1383 J 0.2063
G03 X 16.2423 Y 17.8345 Z -1.0000 I -0.2385 J -0.2530
G01 X 16.2380 Y 17.8347 Z -1.0000
G01 X 16.1911 Y 17.8387 Z -1.0000
G02 X 16.1193 Y 17.9338 Z -1.0000 I 0.1682 J 0.2018
G01 X 16.1147 Y 17.9380 Z -1.0000
G01 X 16.0991 Y 17.9405 Z -1.0000
G01 X 16.0883 Y 17.9469 Z -1.0000
G02 X 16.0819 Y 17.9718 Z -1.0000 I 0.0456 J 0.0250
G01 X 16.0982 Y 17.9940 Z -1.0000
G02 X 16.1417 Y 17.9906 Z -1.0000 I 0.0175 J -0.0557
G03 X 16.1672 Y 17.9782 Z -1.0000 I 1.0389 J 2.1003
G03 X 16.1917 Y 17.9667 Z -1.0000 I 0.6694 J 1.3955
G02 X 16.2124 Y 17.9529 Z -1.0000 I -0.0324 J -0.0707
G01 X 16.2163 Y 17.9437 Z -1.0000
G01 X 16.2202 Y 17.9377 Z -1.0000
G01 X 16.2298 Y 17.9372 Z -1.0000
G01 X 16.2397 Y 17.9373 Z -1.0000
G01 X 16.2432 Y 17.9324 Z -1.0000
G01 X 16.2466 Y 17.9258 Z -1.0000
G01 X 16.2567 Y 17.9225 Z -1.0000
G01 X 16.2674 Y 17.9198 Z -1.0000
G01 X 16.2701 Y 17.9152 Z -1.0000
G01 X 16.2871 Y 17.8857 Z -1.0000
G03 X 16.3501 Y 17.8688 Z -1.0000 I 0.0630 J 0.1087
G01 X 16.3594 Y 17.8661 Z -1.0000
G02 X 16.3838 Y 17.8472 Z -1.0000 I -0.0933 J -0.1456
G03 X 16.4092 Y 17.8293 Z -1.0000 I 0.0788 J 0.0850
G03 X 16.4467 Y 17.8145 Z -1.0000 I 0.0904 J 0.1740
G02 X 16.4756 Y 17.8019 Z -1.0000 I -0.0303 J -0.1088
G01 X 16.4756 Y 17.7968 Z -1.0000
G01 X 16.4755 Y 17.7919 Z -1.0000
G03 X 16.4951 Y 17.7835 Z -1.0000 I 0.0316 J 0.0466
G02 X 16.5561 Y 17.7582 Z -1.0000 I -0.0394 J -0.1810
G02 X 16.6021 Y 17.7145 Z -1.0000 I -0.0927 J -0.1438
G01 X 16.6084 Y 17.7100 Z -1.0000
G03 X 16.6316 Y 17.7056 Z -1.0000 I 0.0324 J 0.1078
G02 X 16.6542 Y 17.6997 Z -1.0000 I -0.0054 J -0.0667
G02 X 16.6706 Y 17.6877 Z -1.0000 I -0.0213 J -0.0461
G03 X 16.6864 Y 17.6747 Z -1.0000 I 0.0497 J 0.0446
G01 X 16.6974 Y 17.6717 Z -1.0000
G01 X 16.7087 Y 17.6688 Z -1.0000
G02 X 16.7291 Y 17.6538 Z -1.0000 I -0.0539 J -0.0950
G03 X 16.7502 Y 17.6406 Z -1.0000 I 0.0442 J 0.0472
G03 X 16.7758 Y 17.6359 Z -1.0000 I 0.0256 J 0.0671
G02 X 16.8004 Y 17.6305 Z -1.0000 I 0.0000 J -0.0584
G01 X 16.8145 Y 17.6180 Z -1.0000
G01 X 16.8288 Y 17.6056 Z -1.0000
G03 X 16.8549 Y 17.6000 Z -1.0000 I 0.0261 J 0.0586
G02 X 16.8801 Y 17.5938 Z -1.0000 I -0.0000 J -0.0540
G01 X 16.8932 Y 17.5799 Z -1.0000
G01 X 16.9049 Y 17.5647 Z -1.0000
G01 X 16.9144 Y 17.5623 Z -1.0000
G01 X 16.9254 Y 17.5612 Z -1.0000
G02 X 16.9441 Y 17.5489 Z -1.0000 I -0.0293 J -0.0653
G03 X 16.9621 Y 17.5347 Z -1.0000 I 0.1211 J 0.1349
G01 X 16.9651 Y 17.5345 Z -1.0000
G02 X 17.0178 Y 17.5350 Z -1.0000 I 0.0268 J -0.0544
G01 X 17.0406 Y 17.4990 Z -1.0000
G01 X 17.0443 Y 17.4948 Z -1.0000
G03 X 17.0678 Y 17.4957 Z -1.0000 I 0.0090 J 0.0724
G01 X 17.0905 Y 17.4931 Z -1.0000
G01 X 17.1031 Y 17.4798 Z -1.0000
G03 X 17.1131 Y 17.4600 Z -1.0000 I 0.1003 J 0.0384
G01 X 17.1207 Y 17.4525 Z -1.0000
G01 X 17.1271 Y 17.4384 Z -1.0000
G01 X 17.1174 Y 17.4328 Z -1.0000
G01 X 17.0918 Y 17.4279 Z -1.0000
G01 X 17.0914 Y 17.4088 Z -1.0000
G01 X 17.0792 Y 17.4029 Z -1.0000
G01 X 17.0659 Y 17.3953 Z -1.0000
G03 X 16.9551 Y 17.1915 Z -1.0000 I 3.0275 J -1.7772
G02 X 16.7938 Y 16.9160 Z -1.0000 I -2.2008 J 1.1035
G02 X 16.7320 Y 16.8615 Z -1.0000 I -0.1359 J 0.0919
G03 X 16.6742 Y 16.8168 Z -1.0000 I 0.0872 J -0.1724
G01 X 16.6695 Y 16.7905 Z -1.0000
G01 X 16.6668 Y 16.7513 Z -1.0000
G01 X 16.6445 Y 16.7455 Z -1.0000
G01 X 16.6412 Y 16.7451 Z -1.0000
G01 X 16.6408 Y 16.7416 Z -1.0000
G01 X 16.6407 Y 16.7323 Z -1.0000
G02 X 16.6109 Y 16.6955 Z -1.0000 I -0.1905 J 0.1239
G03 X 16.5768 Y 16.6584 Z -1.0000 I 0.4299 J -0.4299
G01 X 16.5745 Y 16.6526 Z -1.0000
G01 X 16.5722 Y 16.6468 Z -1.0000
G02 X 16.5073 Y 16.5794 Z -1.0000 I -1.4647 J 1.3455
G03 X 16.4441 Y 16.5114 Z -1.0000 I 0.7922 J -0.7995
G01 X 16.4403 Y 16.5010 Z -1.0000
G01 X 16.4373 Y 16.4921 Z -1.0000
G01 X 16.4313 Y 16.4891 Z -1.0000
G01 X 16.4250 Y 16.4864 Z -1.0000
G01 X 16.4223 Y 16.4797 Z -1.0000
G01 X 16.4196 Y 16.4713 Z -1.0000
G02 X 16.3767 Y 16.4156 Z -1.0000 I -0.7485 J 0.5314
G03 X 16.3325 Y 16.3599 Z -1.0000 I 1.1962 J -0.9955
G03 X 16.3108 Y 16.3286 Z -1.0000 I 0.3553 J -0.2692
G02 X 16.2877 Y 16.2993 Z -1.0000 I -0.1493 J 0.0943
G02 X 16.2668 Y 16.2836 Z -1.0000 I -0.0614 J 0.0602
G03 X 16.2466 Y 16.2689 Z -1.0000 I 0.0432 J -0.0804
G01 X 16.2431 Y 16.2607 Z -1.0000
G01 X 16.2402 Y 16.2518 Z -1.0000
G02 X 16.2169 Y 16.2254 Z -1.0000 I -0.1670 J 0.1236
G01 X 16.2078 Y 16.1930 Z -1.0000
G03 X 16.2346 Y 16.1584 Z -1.0000 I 0.0543 J 0.0143
G02 X 16.2666 Y 16.1362 Z -1.0000 I -0.1042 J -0.1854
G01 X 16.2711 Y 16.1278 Z -1.0000
G02 X 16.2723 Y 16.0694 Z -1.0000 I -0.3250 J -0.0355
G02 X 16.2625 Y 16.0052 Z -1.0000 I -0.4043 J 0.0285
G02 X 16.2453 Y 15.9496 Z -1.0000 I -0.3985 J 0.0933
G01 X 16.2370 Y 15.9398 Z -1.0000
G01 X 16.2287 Y 15.9307 Z -1.0000
G01 X 16.2252 Y 15.9152 Z -1.0000
G01 X 16.2218 Y 15.9011 Z -1.0000
G01 X 16.2163 Y 15.8977 Z -1.0000
G01 X 16.2106 Y 15.8939 Z -1.0000
G03 X 16.2016 Y 15.8615 Z -1.0000 I 0.1386 J -0.0559
G02 X 16.1911 Y 15.8287 Z -1.0000 I -0.1126 J 0.0181
G01 X 16.1791 Y 15.8164 Z -1.0000
G01 X 16.1661 Y 15.8053 Z -1.0000
G01 X 16.1624 Y 15.7944 Z -1.0000
G01 X 16.1586 Y 15.7852 Z -1.0000
G01 X 16.1490 Y 15.7812 Z -1.0000
G01 X 16.1379 Y 15.7742 Z -1.0000
G01 X 16.1347 Y 15.7515 Z -1.0000
G01 X 16.1267 Y 15.7499 Z -1.0000
G01 X 16.1216 Y 15.7566 Z -1.0000
G01 X 16.1225 Y 15.7640 Z -1.0000
G01 X 16.1182 Y 15.7702 Z -1.0000
G01 X 16.1004 Y 15.7598 Z -1.0000
G01 X 16.0970 Y 15.7490 Z -1.0000
G01 X 16.1015 Y 15.7430 Z -1.0000
G01 X 16.1034 Y 15.7285 Z -1.0000
G02 X 16.0619 Y 15.7156 Z -1.0000 I -0.0415 J 0.0600
G01 X 16.0437 Y 15.7119 Z -1.0000
G01 X 16.0454 Y 15.7026 Z -1.0000
G01 X 16.0266 Y 15.6978 Z -1.0000
G01 X 16.0067 Y 15.6977 Z -1.0000
G01 X 16.0047 Y 15.6931 Z -1.0000
G01 X 16.0060 Y 15.6856 Z -1.0000
G01 X 16.0023 Y 15.6828 Z -1.0000
G01 X 15.9958 Y 15.6797 Z -1.0000
G01 X 15.9894 Y 15.6671 Z -1.0000
G01 X 15.9831 Y 15.6581 Z -1.0000
G01 X 15.9832 Y 15.6580 Z -1.0000
G00 Z 5.0000

(End cutting path id: path51213)


(Start cutting path id: path51213)
(Change tool to Default tool)

G00 Z 5.0000
G00 X 16.0193 Y 15.6784

G01 Z -1.0000 F 100.0000(Penetrate)
G01 X 16.0308 Y 15.6884 Z -1.0000 F 3500.0000
G01 X 16.0347 Y 15.6880 Z -1.0000
G01 X 16.0358 Y 15.6740 Z -1.0000
G01 X 16.0175 Y 15.6648 Z -1.0000
G01 X 16.0147 Y 15.6679 Z -1.0000
G01 X 16.0193 Y 15.6784 Z -1.0000
G01 X 16.0193 Y 15.6784 Z -1.0000
G00 Z 5.0000

(End cutting path id: path51213)


(Start cutting path id: path51213)
(Change tool to Default tool)

G00 Z 5.0000
G00 X 16.1659 Y 15.8310

G01 Z -1.0000 F 100.0000(Penetrate)
G01 X 16.1624 Y 15.8394 Z -1.0000 F 3500.0000
G01 X 16.1556 Y 15.8327 Z -1.0000
G01 X 16.1535 Y 15.8254 Z -1.0000
G01 X 16.1579 Y 15.8226 Z -1.0000
G01 X 16.1659 Y 15.8309 Z -1.0000
G01 X 16.1659 Y 15.8310 Z -1.0000
G00 Z 5.0000

(End cutting path id: path51213)


(Start cutting path id: path51213)
(Change tool to Default tool)

G00 Z 5.0000
G00 X 16.1804 Y 15.8977

G01 Z -1.0000 F 100.0000(Penetrate)
G01 X 16.1778 Y 15.9040 Z -1.0000 F 3500.0000
G01 X 16.1714 Y 15.9067 Z -1.0000
G01 X 16.1651 Y 15.9041 Z -1.0000
G01 X 16.1624 Y 15.8977 Z -1.0000
G01 X 16.1650 Y 15.8914 Z -1.0000
G01 X 16.1714 Y 15.8887 Z -1.0000
G01 X 16.1777 Y 15.8913 Z -1.0000
G01 X 16.1804 Y 15.8977 Z -1.0000
G01 X 16.1804 Y 15.8977 Z -1.0000
G00 Z 5.0000

(End cutting path id: path51213)


(Start cutting path id: path51213)
(Change tool to Default tool)

G00 Z 5.0000
G00 X 16.1983 Y 15.9514

G01 Z -1.0000 F 100.0000(Penetrate)
G01 X 16.1952 Y 15.9573 Z -1.0000 F 3500.0000
G01 X 16.1849 Y 15.9604 Z -1.0000
G01 X 16.1746 Y 15.9573 Z -1.0000
G01 X 16.1714 Y 15.9514 Z -1.0000
G01 X 16.1745 Y 15.9456 Z -1.0000
G01 X 16.1849 Y 15.9424 Z -1.0000
G01 X 16.1952 Y 15.9456 Z -1.0000
G01 X 16.1983 Y 15.9514 Z -1.0000
G01 X 16.1983 Y 15.9514 Z -1.0000
G00 Z 5.0000

(End cutting path id: path51213)


(Start cutting path id: path51213)
(Change tool to Default tool)

G00 Z 5.0000
G00 X 16.0415 Y 15.9066

G01 Z -1.0000 F 100.0000(Penetrate)
G01 X 16.0477 Y 15.9143 Z -1.0000 F 3500.0000
G01 X 16.0510 Y 15.9156 Z -1.0000
G01 X 16.0534 Y 15.9140 Z -1.0000
G01 X 16.0550 Y 15.9066 Z -1.0000
G01 X 16.0523 Y 15.9003 Z -1.0000
G01 X 16.0455 Y 15.8976 Z -1.0000
G01 X 16.0412 Y 15.9004 Z -1.0000
G01 X 16.0415 Y 15.9066 Z -1.0000
G01 X 16.0415 Y 15.9066 Z -1.0000
G00 Z 5.0000

(End cutting path id: path51213)


(Start cutting path id: path51213)
(Change tool to Default tool)

G00 Z 5.0000
G00 X 16.0325 Y 15.9424

G01 Z -1.0000 F 100.0000(Penetrate)
G01 X 16.0387 Y 15.9501 Z -1.0000 F 3500.0000
G01 X 16.0420 Y 15.9514 Z -1.0000
G01 X 16.0444 Y 15.9499 Z -1.0000
G01 X 16.0460 Y 15.9424 Z -1.0000
G01 X 16.0433 Y 15.9362 Z -1.0000
G01 X 16.0365 Y 15.9334 Z -1.0000
G01 X 16.0322 Y 15.9363 Z -1.0000
G01 X 16.0325 Y 15.9424 Z -1.0000
G01 X 16.0325 Y 15.9424 Z -1.0000
G00 Z 5.0000

(End cutting path id: path51213)


(Start cutting path id: path51213)
(Change tool to Default tool)

G00 Z 5.0000
G00 X 16.1849 Y 16.1217

G01 Z -1.0000 F 100.0000(Penetrate)
G01 X 16.1842 Y 16.1272 Z -1.0000 F 3500.0000
G01 X 16.1759 Y 16.1307 Z -1.0000
G01 X 16.1676 Y 16.1272 Z -1.0000
G01 X 16.1669 Y 16.1217 Z -1.0000
G01 X 16.1730 Y 16.1139 Z -1.0000
G01 X 16.1759 Y 16.1127 Z -1.0000
G01 X 16.1787 Y 16.1138 Z -1.0000
G01 X 16.1849 Y 16.1217 Z -1.0000
G01 X 16.1849 Y 16.1217 Z -1.0000
G00 Z 5.0000

(End cutting path id: path51213)


(Start cutting path id: path51213)
(Change tool to Default tool)

G00 Z 5.0000
G00 X 16.2476 Y 16.3994

G01 Z -1.0000 F 100.0000(Penetrate)
G01 X 16.2480 Y 16.4055 Z -1.0000 F 3500.0000
G01 X 16.2436 Y 16.4084 Z -1.0000
G01 X 16.2368 Y 16.4057 Z -1.0000
G01 X 16.2341 Y 16.3994 Z -1.0000
G01 X 16.2357 Y 16.3920 Z -1.0000
G01 X 16.2381 Y 16.3904 Z -1.0000
G01 X 16.2413 Y 16.3917 Z -1.0000
G01 X 16.2476 Y 16.3994 Z -1.0000
G01 X 16.2476 Y 16.3994 Z -1.0000
G00 Z 5.0000

(End cutting path id: path51213)


(Start cutting path id: path51213)
(Change tool to Default tool)

G00 Z 5.0000
G00 X 16.2610 Y 16.4353

G01 Z -1.0000 F 100.0000(Penetrate)
G01 X 16.2595 Y 16.4427 Z -1.0000 F 3500.0000
G01 X 16.2570 Y 16.4443 Z -1.0000
G01 X 16.2538 Y 16.4430 Z -1.0000
G01 X 16.2475 Y 16.4353 Z -1.0000
G01 X 16.2471 Y 16.4292 Z -1.0000
G01 X 16.2515 Y 16.4263 Z -1.0000
G01 X 16.2583 Y 16.4289 Z -1.0000
G01 X 16.2610 Y 16.4353 Z -1.0000
G01 X 16.2610 Y 16.4353 Z -1.0000
G00 Z 5.0000

(End cutting path id: path51213)


(Start cutting path id: path51213)
(Change tool to Default tool)

G00 Z 5.0000
G00 X 16.1464 Y 16.4460

G01 Z -1.0000 F 100.0000(Penetrate)
G01 X 16.1356 Y 16.4505 Z -1.0000 F 3500.0000
G01 X 16.1249 Y 16.4460 Z -1.0000
G01 X 16.1249 Y 16.4397 Z -1.0000
G01 X 16.1356 Y 16.4353 Z -1.0000
G01 X 16.1464 Y 16.4397 Z -1.0000
G01 X 16.1464 Y 16.4460 Z -1.0000
G01 X 16.1464 Y 16.4460 Z -1.0000
G00 Z 5.0000

(End cutting path id: path51213)


(Start cutting path id: path51213)
(Change tool to Default tool)

G00 Z 5.0000
G00 X 16.2431 Y 16.6004

G01 Z -1.0000 F 100.0000(Penetrate)
G01 X 16.2472 Y 16.6105 Z -1.0000 F 3500.0000
G01 X 16.2573 Y 16.6146 Z -1.0000
G01 X 16.2663 Y 16.6109 Z -1.0000
G01 X 16.2679 Y 16.6040 Z -1.0000
G01 X 16.2532 Y 16.5917 Z -1.0000
G01 X 16.2431 Y 16.6005 Z -1.0000
G01 X 16.2431 Y 16.6004 Z -1.0000
G00 Z 5.0000

(End cutting path id: path51213)


(Start cutting path id: path51213)
(Change tool to Default tool)

G00 Z 5.0000
G00 X 16.2879 Y 16.6897

G01 Z -1.0000 F 100.0000(Penetrate)
G01 X 16.2890 Y 16.6926 Z -1.0000 F 3500.0000
G02 X 16.3015 Y 16.7044 Z -1.0000 I 0.0929 J -0.0860
G01 X 16.3077 Y 16.7053 Z -1.0000
G01 X 16.3095 Y 16.7010 Z -1.0000
G01 X 16.2954 Y 16.6851 Z -1.0000
G01 X 16.2879 Y 16.6897 Z -1.0000
G01 X 16.2879 Y 16.6897 Z -1.0000
G00 Z 5.0000

(End cutting path id: path51213)


(Start cutting path id: path51213)
(Change tool to Default tool)

G00 Z 5.0000
G00 X 16.4850 Y 16.7091

G01 Z -1.0000 F 100.0000(Penetrate)
G01 X 16.4816 Y 16.7169 Z -1.0000 F 3500.0000
G01 X 16.4760 Y 16.7175 Z -1.0000
G01 X 16.4692 Y 16.7108 Z -1.0000
G01 X 16.4670 Y 16.7035 Z -1.0000
G01 X 16.4695 Y 16.6977 Z -1.0000
G01 X 16.4760 Y 16.6951 Z -1.0000
G01 X 16.4818 Y 16.6982 Z -1.0000
G01 X 16.4850 Y 16.7091 Z -1.0000
G01 X 16.4850 Y 16.7091 Z -1.0000
G00 Z 5.0000

(End cutting path id: path51213)


(Start cutting path id: path51213)
(Change tool to Default tool)

G00 Z 5.0000
G00 X 16.5992 Y 16.9927

G01 Z -1.0000 F 100.0000(Penetrate)
G01 X 16.6190 Y 16.9984 Z -1.0000 F 3500.0000
G01 X 16.6252 Y 16.9869 Z -1.0000
G01 X 16.6170 Y 16.9774 Z -1.0000
G01 X 16.5997 Y 16.9730 Z -1.0000
G01 X 16.5796 Y 16.9730 Z -1.0000
G01 X 16.5992 Y 16.9927 Z -1.0000
G00 Z 5.0000

(End cutting path id: path51213)


(Start cutting path id: path51213)
(Change tool to Default tool)

G00 Z 5.0000
G00 X 16.5102 Y 17.2120

G01 Z -1.0000 F 100.0000(Penetrate)
G01 X 16.5214 Y 17.2139 Z -1.0000 F 3500.0000
G01 X 16.5274 Y 17.2113 Z -1.0000
G01 X 16.5156 Y 17.2066 Z -1.0000
G01 X 16.5102 Y 17.2120 Z -1.0000
G01 X 16.5102 Y 17.2120 Z -1.0000
G00 Z 5.0000

(End cutting path id: path51213)


(Start cutting path id: path51213)
(Change tool to Default tool)

G00 Z 5.0000
G00 X 16.4761 Y 17.2327

G01 Z -1.0000 F 100.0000(Penetrate)
G01 X 16.4792 Y 17.2386 Z -1.0000 F 3500.0000
G01 X 16.4895 Y 17.2417 Z -1.0000
G01 X 16.4998 Y 17.2386 Z -1.0000
G01 X 16.5029 Y 17.2327 Z -1.0000
G01 X 16.4999 Y 17.2269 Z -1.0000
G01 X 16.4895 Y 17.2237 Z -1.0000
G01 X 16.4792 Y 17.2268 Z -1.0000
G01 X 16.4761 Y 17.2327 Z -1.0000
G01 X 16.4761 Y 17.2327 Z -1.0000
G00 Z 5.0000

(End cutting path id: path51213)


(Start cutting path id: path51213)
(Change tool to Default tool)

G00 Z 5.0000
G00 X 16.4660 Y 17.2614

G01 Z -1.0000 F 100.0000(Penetrate)
G02 X 16.4757 Y 17.2786 Z -1.0000 I 0.0591 J -0.0218 F 3500.0000
G01 X 16.4845 Y 17.2848 Z -1.0000
G01 X 16.4804 Y 17.2651 Z -1.0000
G01 X 16.4697 Y 17.2574 Z -1.0000
G01 X 16.4660 Y 17.2614 Z -1.0000
G01 X 16.4660 Y 17.2614 Z -1.0000
G00 Z 5.0000

(End cutting path id: path51213)


(Start cutting path id: path51213)
(Change tool to Default tool)

G00 Z 5.0000
G00 X 16.4156 Y 17.3288

G01 Z -1.0000 F 100.0000(Penetrate)
G01 X 16.4017 Y 17.3463 Z -1.0000 F 3500.0000
G01 X 16.4124 Y 17.3582 Z -1.0000
G01 X 16.4331 Y 17.3458 Z -1.0000
G01 X 16.4292 Y 17.3268 Z -1.0000
G01 X 16.4266 Y 17.3260 Z -1.0000
G02 X 16.4156 Y 17.3288 Z -1.0000 I 0.0088 J 0.0589
G01 X 16.4156 Y 17.3288 Z -1.0000
G00 Z 5.0000

(End cutting path id: path51213)


(Start cutting path id: path51213)
(Change tool to Default tool)

G00 Z 5.0000
G00 X 16.3872 Y 17.3723

G01 Z -1.0000 F 100.0000(Penetrate)
G01 X 16.3926 Y 17.3777 Z -1.0000 F 3500.0000
G01 X 16.3945 Y 17.3665 Z -1.0000
G01 X 16.3919 Y 17.3606 Z -1.0000
G01 X 16.3872 Y 17.3723 Z -1.0000
G01 X 16.3872 Y 17.3723 Z -1.0000
G00 Z 5.0000

(End cutting path id: path51213)


(Start cutting path id: path51213)
(Change tool to Default tool)

G00 Z 5.0000
G00 X 16.3551 Y 17.3850

G01 Z -1.0000 F 100.0000(Penetrate)
G01 X 16.3545 Y 17.3912 Z -1.0000 F 3500.0000
G01 X 16.3585 Y 17.3940 Z -1.0000
G01 X 16.3662 Y 17.3919 Z -1.0000
G01 X 16.3730 Y 17.3850 Z -1.0000
G01 X 16.3736 Y 17.3788 Z -1.0000
G01 X 16.3696 Y 17.3760 Z -1.0000
G01 X 16.3619 Y 17.3782 Z -1.0000
G01 X 16.3551 Y 17.3850 Z -1.0000
G01 X 16.3551 Y 17.3850 Z -1.0000
G00 Z 5.0000

(End cutting path id: path51213)


(Start cutting path id: path51213)
(Change tool to Default tool)

G00 Z 5.0000
G00 X 16.4108 Y 17.4387

G01 Z -1.0000 F 100.0000(Penetrate)
G01 X 16.4099 Y 17.4552 Z -1.0000 F 3500.0000
G01 X 16.4142 Y 17.4617 Z -1.0000
G01 X 16.4197 Y 17.4620 Z -1.0000
G01 X 16.4223 Y 17.4580 Z -1.0000
G01 X 16.4232 Y 17.4494 Z -1.0000
G03 X 16.4277 Y 17.4350 Z -1.0000 I 0.1060 J 0.0247
G01 X 16.4284 Y 17.4241 Z -1.0000
G01 X 16.4243 Y 17.4209 Z -1.0000
G01 X 16.4178 Y 17.4241 Z -1.0000
G01 X 16.4107 Y 17.4388 Z -1.0000
G01 X 16.4108 Y 17.4387 Z -1.0000
G00 Z 5.0000

(End cutting path id: path51213)


(Start cutting path id: path51213)
(Change tool to Default tool)

G00 Z 5.0000
G00 X 16.4870 Y 17.4284

G01 Z -1.0000 F 100.0000(Penetrate)
G01 X 16.4835 Y 17.4370 Z -1.0000 F 3500.0000
G02 X 16.4950 Y 17.4605 Z -1.0000 I 0.0605 J -0.0150
G03 X 16.5143 Y 17.4981 Z -1.0000 I -0.0871 J 0.0685
G03 X 16.5231 Y 17.5575 Z -1.0000 I -0.2138 J 0.0619
G01 X 16.5282 Y 17.5717 Z -1.0000
G01 X 16.5352 Y 17.5724 Z -1.0000
G01 X 16.5451 Y 17.5491 Z -1.0000
G02 X 16.5292 Y 17.4920 Z -1.0000 I -0.1514 J 0.0115
G01 X 16.5259 Y 17.4782 Z -1.0000
G01 X 16.5294 Y 17.4663 Z -1.0000
G01 X 16.5312 Y 17.4549 Z -1.0000
G01 X 16.5223 Y 17.4376 Z -1.0000
G01 X 16.5034 Y 17.4258 Z -1.0000
G01 X 16.4870 Y 17.4283 Z -1.0000
G01 X 16.4870 Y 17.4284 Z -1.0000
G00 Z 5.0000

(End cutting path id: path51213)


(Start cutting path id: path51213)
(Change tool to Default tool)

G00 Z 5.0000
G00 X 16.5385 Y 17.4031

G01 Z -1.0000 F 100.0000(Penetrate)
G01 X 16.5325 Y 17.4118 Z -1.0000 F 3500.0000
G01 X 16.5341 Y 17.4267 Z -1.0000
G01 X 16.5407 Y 17.4337 Z -1.0000
G01 X 16.5451 Y 17.4320 Z -1.0000
G01 X 16.5507 Y 17.4245 Z -1.0000
G01 X 16.5553 Y 17.4243 Z -1.0000
G01 X 16.5608 Y 17.4245 Z -1.0000
G01 X 16.5719 Y 17.4163 Z -1.0000
G01 X 16.5737 Y 17.4073 Z -1.0000
G01 X 16.5662 Y 17.4004 Z -1.0000
G01 X 16.5503 Y 17.3991 Z -1.0000
G01 X 16.5385 Y 17.4031 Z -1.0000
G01 X 16.5385 Y 17.4031 Z -1.0000
G00 Z 5.0000

(End cutting path id: path51213)


(Start cutting path id: path51213)
(Change tool to Default tool)

G00 Z 5.0000
G00 X 16.5970 Y 17.4298

G01 Z -1.0000 F 100.0000(Penetrate)
G01 X 16.6032 Y 17.4375 Z -1.0000 F 3500.0000
G01 X 16.6065 Y 17.4388 Z -1.0000
G01 X 16.6089 Y 17.4372 Z -1.0000
G01 X 16.6105 Y 17.4298 Z -1.0000
G01 X 16.6078 Y 17.4235 Z -1.0000
G01 X 16.6010 Y 17.4208 Z -1.0000
G01 X 16.5966 Y 17.4236 Z -1.0000
G01 X 16.5970 Y 17.4298 Z -1.0000
G01 X 16.5970 Y 17.4298 Z -1.0000
G00 Z 5.0000

(End cutting path id: path51213)


(Start cutting path id: path51213)
(Change tool to Default tool)

G00 Z 5.0000
G00 X 16.5443 Y 17.4797

G01 Z -1.0000 F 100.0000(Penetrate)
G01 X 16.5486 Y 17.4906 Z -1.0000 F 3500.0000
G01 X 16.5622 Y 17.4883 Z -1.0000
G01 X 16.5677 Y 17.4746 Z -1.0000
G01 X 16.5616 Y 17.4687 Z -1.0000
G01 X 16.5507 Y 17.4719 Z -1.0000
G01 X 16.5443 Y 17.4798 Z -1.0000
G01 X 16.5443 Y 17.4797 Z -1.0000
G00 Z 5.0000

(End cutting path id: path51213)


(Start cutting path id: path51213)
(Change tool to Default tool)

G00 Z 5.0000
G00 X 16.6373 Y 17.5191

G01 Z -1.0000 F 100.0000(Penetrate)
G01 X 16.6405 Y 17.5232 Z -1.0000 F 3500.0000
G01 X 16.6508 Y 17.5226 Z -1.0000
G02 X 16.6628 Y 17.5166 Z -1.0000 I -0.0225 J -0.0595
G01 X 16.6642 Y 17.5139 Z -1.0000
G01 X 16.6508 Y 17.5104 Z -1.0000
G01 X 16.6404 Y 17.5135 Z -1.0000
G01 X 16.6373 Y 17.5191 Z -1.0000
G01 X 16.6373 Y 17.5191 Z -1.0000
G00 Z 5.0000

(End cutting path id: path51213)


(Start cutting path id: path51213)
(Change tool to Default tool)

G00 Z 5.0000
G00 X 16.6673 Y 17.3930

G01 Z -1.0000 F 100.0000(Penetrate)
G02 X 16.6631 Y 17.4192 Z -1.0000 I 0.0625 J 0.0237 F 3500.0000
G01 X 16.6689 Y 17.4361 Z -1.0000
G01 X 16.6812 Y 17.4467 Z -1.0000
G01 X 16.6872 Y 17.4457 Z -1.0000
G01 X 16.6892 Y 17.4390 Z -1.0000
G01 X 16.6830 Y 17.4264 Z -1.0000
G01 X 16.6780 Y 17.4144 Z -1.0000
G01 X 16.6810 Y 17.4082 Z -1.0000
G01 X 16.6879 Y 17.4077 Z -1.0000
G01 X 16.6931 Y 17.4133 Z -1.0000
G01 X 16.7144 Y 17.4299 Z -1.0000
G01 X 16.7442 Y 17.4173 Z -1.0000
G01 X 16.7462 Y 17.4072 Z -1.0000
G01 X 16.7386 Y 17.3991 Z -1.0000
G01 X 16.7251 Y 17.3977 Z -1.0000
G01 X 16.7198 Y 17.4023 Z -1.0000
G01 X 16.7152 Y 17.4040 Z -1.0000
G03 X 16.6972 Y 17.3887 Z -1.0000 I 0.0379 J -0.0632
G01 X 16.6776 Y 17.3660 Z -1.0000
G01 X 16.6673 Y 17.3930 Z -1.0000
G00 Z 5.0000

(End cutting path id: path51213)


(Start cutting path id: path51213)
(Change tool to Default tool)

G00 Z 5.0000
G00 X 16.7717 Y 17.3671

G01 Z -1.0000 F 100.0000(Penetrate)
G01 X 16.7744 Y 17.3734 Z -1.0000 F 3500.0000
G01 X 16.7812 Y 17.3761 Z -1.0000
G01 X 16.7856 Y 17.3733 Z -1.0000
G01 X 16.7852 Y 17.3671 Z -1.0000
G01 X 16.7790 Y 17.3595 Z -1.0000
G01 X 16.7757 Y 17.3581 Z -1.0000
G01 X 16.7733 Y 17.3597 Z -1.0000
G01 X 16.7717 Y 17.3671 Z -1.0000
G01 X 16.7717 Y 17.3671 Z -1.0000
G00 Z 5.0000

(End cutting path id: path51213)


(Start cutting path id: path51213)
(Change tool to Default tool)

G00 Z 5.0000
G00 X 16.8613 Y 17.4477

G01 Z -1.0000 F 100.0000(Penetrate)
G01 X 16.8639 Y 17.4542 Z -1.0000 F 3500.0000
G01 X 16.8697 Y 17.4567 Z -1.0000
G01 X 16.8769 Y 17.4547 Z -1.0000
G01 X 16.8837 Y 17.4477 Z -1.0000
G01 X 16.8831 Y 17.4422 Z -1.0000
G01 X 16.8753 Y 17.4387 Z -1.0000
G01 X 16.8645 Y 17.4419 Z -1.0000
G01 X 16.8613 Y 17.4477 Z -1.0000
G01 X 16.8613 Y 17.4477 Z -1.0000
G00 Z 5.0000

(End cutting path id: path51213)


(Start cutting path id: path51213)
(Change tool to Default tool)

G00 Z 5.0000
G00 X 17.1301 Y 17.3850

G01 Z -1.0000 F 100.0000(Penetrate)
G01 X 17.1273 Y 17.3938 Z -1.0000 F 3500.0000
G01 X 17.1367 Y 17.3915 Z -1.0000
G01 X 17.1435 Y 17.3850 Z -1.0000
G01 X 17.1301 Y 17.3850 Z -1.0000
G01 X 17.1301 Y 17.3850 Z -1.0000
G00 Z 5.0000

(End cutting path id: path51213)


(Start cutting path id: path51213)
(Change tool to Default tool)

G00 Z 5.0000
G00 X 17.1822 Y 17.4090

G01 Z -1.0000 F 100.0000(Penetrate)
G01 X 17.1934 Y 17.4110 Z -1.0000 F 3500.0000
G01 X 17.1994 Y 17.4083 Z -1.0000
G01 X 17.1876 Y 17.4036 Z -1.0000
G01 X 17.1822 Y 17.4090 Z -1.0000
G01 X 17.1822 Y 17.4090 Z -1.0000
G00 Z 5.0000

(End cutting path id: path51213)


(Start cutting path id: path51213)
(Change tool to Default tool)

G00 Z 5.0000
G00 X 17.1822 Y 17.4270

G01 Z -1.0000 F 100.0000(Penetrate)
G01 X 17.1934 Y 17.4289 Z -1.0000 F 3500.0000
G01 X 17.1994 Y 17.4263 Z -1.0000
G01 X 17.1876 Y 17.4216 Z -1.0000
G01 X 17.1822 Y 17.4270 Z -1.0000
G01 X 17.1822 Y 17.4270 Z -1.0000
G00 Z 5.0000

(End cutting path id: path51213)


(Start cutting path id: path51213)
(Change tool to Default tool)

G00 Z 5.0000
G00 X 17.3153 Y 17.3552

G01 Z -1.0000 F 100.0000(Penetrate)
G01 X 17.3127 Y 17.3667 Z -1.0000 F 3500.0000
G01 X 17.3219 Y 17.3731 Z -1.0000
G01 X 17.3290 Y 17.3693 Z -1.0000
G01 X 17.3299 Y 17.3611 Z -1.0000
G01 X 17.3226 Y 17.3537 Z -1.0000
G01 X 17.3153 Y 17.3551 Z -1.0000
G01 X 17.3153 Y 17.3552 Z -1.0000
G00 Z 5.0000

(End cutting path id: path51213)


(Start cutting path id: path51213)
(Change tool to Default tool)

G00 Z 5.0000
G00 X 17.3541 Y 17.3467

G01 Z -1.0000 F 100.0000(Penetrate)
G01 X 17.3568 Y 17.3554 Z -1.0000 F 3500.0000
G01 X 17.3620 Y 17.3582 Z -1.0000
G01 X 17.3689 Y 17.3561 Z -1.0000
G01 X 17.3794 Y 17.3467 Z -1.0000
G01 X 17.3797 Y 17.3395 Z -1.0000
G01 X 17.3715 Y 17.3352 Z -1.0000
G01 X 17.3581 Y 17.3392 Z -1.0000
G01 X 17.3541 Y 17.3467 Z -1.0000
G01 X 17.3541 Y 17.3467 Z -1.0000
G00 Z 5.0000

(End cutting path id: path51213)


(Start cutting path id: path51213)
(Change tool to Default tool)

G00 Z 5.0000
G00 X 17.5647 Y 17.2596

G01 Z -1.0000 F 100.0000(Penetrate)
G01 X 17.5554 Y 17.2736 Z -1.0000 F 3500.0000
G01 X 17.5378 Y 17.2828 Z -1.0000
G02 X 17.5194 Y 17.2911 Z -1.0000 I 0.0137 J 0.0548
G01 X 17.5118 Y 17.3007 Z -1.0000
G01 X 17.5181 Y 17.3074 Z -1.0000
G02 X 17.5531 Y 17.2878 Z -1.0000 I -0.0293 J -0.0936
G03 X 17.5835 Y 17.2669 Z -1.0000 I 0.1073 J 0.1235
G01 X 17.5938 Y 17.2661 Z -1.0000
G01 X 17.6012 Y 17.2600 Z -1.0000
G01 X 17.5908 Y 17.2471 Z -1.0000
G01 X 17.5749 Y 17.2477 Z -1.0000
G01 X 17.5646 Y 17.2596 Z -1.0000
G01 X 17.5647 Y 17.2596 Z -1.0000
G00 Z 5.0000

(End cutting path id: path51213)


(Start cutting path id: path51213)
(Change tool to Default tool)

G00 Z 5.0000
G00 X 17.6637 Y 17.2196

G01 Z -1.0000 F 100.0000(Penetrate)
G01 X 17.6575 Y 17.2290 Z -1.0000 F 3500.0000
G01 X 17.6604 Y 17.2328 Z -1.0000
G01 X 17.6730 Y 17.2296 Z -1.0000
G01 X 17.6856 Y 17.2193 Z -1.0000
G01 X 17.6827 Y 17.2131 Z -1.0000
G01 X 17.6638 Y 17.2196 Z -1.0000
G01 X 17.6637 Y 17.2196 Z -1.0000
G00 Z 5.0000

(End cutting path id: path51213)


(Start cutting path id: path51213)
(Change tool to Default tool)

G00 Z 5.0000
G00 X 17.7035 Y 17.1960

G01 Z -1.0000 F 100.0000(Penetrate)
G01 X 17.7124 Y 17.2144 Z -1.0000 F 3500.0000
G01 X 17.7256 Y 17.2135 Z -1.0000
G01 X 17.7160 Y 17.1988 Z -1.0000
G01 X 17.7035 Y 17.1960 Z -1.0000
G01 X 17.7035 Y 17.1960 Z -1.0000
G00 Z 5.0000

(End cutting path id: path51213)


(Start cutting path id: path51213)
(Change tool to Default tool)

G00 Z 5.0000
G00 X 17.7573 Y 17.1969

G01 Z -1.0000 F 100.0000(Penetrate)
G01 X 17.7607 Y 17.2025 Z -1.0000 F 3500.0000
G01 X 17.7752 Y 17.2059 Z -1.0000
G01 X 17.7897 Y 17.2025 Z -1.0000
G01 X 17.7931 Y 17.1969 Z -1.0000
G01 X 17.7897 Y 17.1914 Z -1.0000
G01 X 17.7752 Y 17.1879 Z -1.0000
G01 X 17.7607 Y 17.1913 Z -1.0000
G01 X 17.7573 Y 17.1969 Z -1.0000
G01 X 17.7573 Y 17.1969 Z -1.0000
G00 Z 5.0000

(End cutting path id: path51213)


(Start cutting path id: path51213)
(Change tool to Default tool)

G00 Z 5.0000
G00 X 17.8439 Y 17.1401

G01 Z -1.0000 F 100.0000(Penetrate)
G01 X 17.8399 Y 17.1469 Z -1.0000 F 3500.0000
G01 X 17.8382 Y 17.1602 Z -1.0000
G01 X 17.8415 Y 17.1628 Z -1.0000
G01 X 17.8480 Y 17.1580 Z -1.0000
G01 X 17.8504 Y 17.1419 Z -1.0000
G01 X 17.8439 Y 17.1400 Z -1.0000
G01 X 17.8439 Y 17.1401 Z -1.0000
G00 Z 5.0000

(End cutting path id: path51213)


(Start cutting path id: path51213)
(Change tool to Default tool)

G00 Z 5.0000
G00 X 17.9275 Y 17.1250

G01 Z -1.0000 F 100.0000(Penetrate)
G01 X 17.9240 Y 17.1306 Z -1.0000 F 3500.0000
G01 X 17.9128 Y 17.1322 Z -1.0000
G01 X 17.9006 Y 17.1340 Z -1.0000
G01 X 17.8936 Y 17.1421 Z -1.0000
G01 X 17.8961 Y 17.1483 Z -1.0000
G01 X 17.9084 Y 17.1497 Z -1.0000
G01 X 17.9243 Y 17.1490 Z -1.0000
G01 X 17.9275 Y 17.1528 Z -1.0000
G01 X 17.9305 Y 17.1579 Z -1.0000
G01 X 17.9420 Y 17.1609 Z -1.0000
G01 X 17.9479 Y 17.1568 Z -1.0000
G01 X 17.9466 Y 17.1489 Z -1.0000
G01 X 17.9403 Y 17.1370 Z -1.0000
G01 X 17.9416 Y 17.1319 Z -1.0000
G01 X 17.9425 Y 17.1274 Z -1.0000
G01 X 17.9370 Y 17.1210 Z -1.0000
G01 X 17.9305 Y 17.1204 Z -1.0000
G01 X 17.9274 Y 17.1250 Z -1.0000
G01 X 17.9275 Y 17.1250 Z -1.0000
G00 Z 5.0000

(End cutting path id: path51213)


(Start cutting path id: path51213)
(Change tool to Default tool)

G00 Z 5.0000
G00 X 17.9672 Y 17.1161

G01 Z -1.0000 F 100.0000(Penetrate)
G01 X 17.9714 Y 17.1299 Z -1.0000 F 3500.0000
G01 X 17.9794 Y 17.1341 Z -1.0000
G01 X 17.9866 Y 17.1301 Z -1.0000
G01 X 17.9887 Y 17.1192 Z -1.0000
G01 X 17.9767 Y 17.1078 Z -1.0000
G01 X 17.9672 Y 17.1161 Z -1.0000
G01 X 17.9672 Y 17.1161 Z -1.0000
G00 Z 5.0000

(End cutting path id: path51213)


(Start cutting path id: path51213)
(Change tool to Default tool)

G00 Z 5.0000
G00 X 18.0885 Y 17.0753

G01 Z -1.0000 F 100.0000(Penetrate)
G03 X 18.0739 Y 17.0854 Z -1.0000 I -0.0365 J -0.0370 F 3500.0000
G03 X 18.0485 Y 17.0939 Z -1.0000 I -0.0507 J -0.1092
G01 X 18.0350 Y 17.0901 Z -1.0000
G01 X 18.0375 Y 17.0840 Z -1.0000
G01 X 18.0333 Y 17.0804 Z -1.0000
G01 X 18.0182 Y 17.0922 Z -1.0000
G01 X 18.0247 Y 17.1167 Z -1.0000
G01 X 18.0422 Y 17.1354 Z -1.0000
G01 X 18.0946 Y 17.1110 Z -1.0000
G02 X 18.1429 Y 17.0802 Z -1.0000 I -0.0927 J -0.1989
G01 X 18.1423 Y 17.0710 Z -1.0000
G01 X 18.1135 Y 17.0638 Z -1.0000
G01 X 18.0885 Y 17.0752 Z -1.0000
G01 X 18.0885 Y 17.0753 Z -1.0000
G00 Z 5.0000

(End cutting path id: path51213)


(Start cutting path id: path51213)
(Change tool to Default tool)

G00 Z 5.0000
G00 X 18.1336 Y 17.0534

G01 Z -1.0000 F 100.0000(Penetrate)
G01 X 18.1367 Y 17.0592 Z -1.0000 F 3500.0000
G01 X 18.1475 Y 17.0624 Z -1.0000
G01 X 18.1554 Y 17.0590 Z -1.0000
G01 X 18.1559 Y 17.0534 Z -1.0000
G01 X 18.1493 Y 17.0466 Z -1.0000
G01 X 18.1420 Y 17.0444 Z -1.0000
G01 X 18.1362 Y 17.0469 Z -1.0000
G01 X 18.1336 Y 17.0534 Z -1.0000
G01 X 18.1336 Y 17.0534 Z -1.0000
G00 Z 5.0000

(End cutting path id: path51213)


(Start cutting path id: path51213)
(Change tool to Default tool)

G00 Z 5.0000
G00 X 18.8658 Y 17.7039

G01 Z -1.0000 F 100.0000(Penetrate)
G01 X 18.8598 Y 17.7065 Z -1.0000 F 3500.0000
G01 X 18.8487 Y 17.7046 Z -1.0000
G01 X 18.8541 Y 17.6992 Z -1.0000
G01 X 18.8658 Y 17.7039 Z -1.0000
G01 X 18.8658 Y 17.7039 Z -1.0000
G00 Z 5.0000

(End cutting path id: path51213)


(Start cutting path id: path51213)
(Change tool to Default tool)

G00 Z 5.0000
G00 X 19.0687 Y 17.6608

G01 Z -1.0000 F 100.0000(Penetrate)
G01 X 19.0423 Y 17.6643 Z -1.0000 F 3500.0000
G01 X 19.0116 Y 17.6572 Z -1.0000
G01 X 19.0314 Y 17.6385 Z -1.0000
G01 X 19.0687 Y 17.6608 Z -1.0000
G01 X 19.0687 Y 17.6608 Z -1.0000
G00 Z 5.0000

(End cutting path id: path51213)


(Start cutting path id: path51213)
(Change tool to Default tool)

G00 Z 5.0000
G00 X 19.1688 Y 17.6262

G01 Z -1.0000 F 100.0000(Penetrate)
G01 X 19.1688 Y 17.6335 Z -1.0000 F 3500.0000
G01 X 19.1824 Y 17.6477 Z -1.0000
G01 X 19.1929 Y 17.6605 Z -1.0000
G01 X 19.1909 Y 17.6671 Z -1.0000
G01 X 19.1817 Y 17.6677 Z -1.0000
G01 X 19.1681 Y 17.6568 Z -1.0000
G03 X 19.1578 Y 17.6345 Z -1.0000 I 0.0456 J -0.0346
G01 X 19.1609 Y 17.6238 Z -1.0000
G01 X 19.1672 Y 17.6223 Z -1.0000
G01 X 19.1687 Y 17.6262 Z -1.0000
G01 X 19.1688 Y 17.6262 Z -1.0000
G00 Z 5.0000

(End cutting path id: path51213)


(Start cutting path id: path51213)
(Change tool to Default tool)

G00 Z 5.0000
G00 X 19.2804 Y 17.6179

G01 Z -1.0000 F 100.0000(Penetrate)
G01 X 19.2777 Y 17.6242 Z -1.0000 F 3500.0000
G01 X 19.2709 Y 17.6269 Z -1.0000
G01 X 19.2665 Y 17.6241 Z -1.0000
G01 X 19.2669 Y 17.6179 Z -1.0000
G01 X 19.2731 Y 17.6102 Z -1.0000
G01 X 19.2764 Y 17.6089 Z -1.0000
G01 X 19.2788 Y 17.6105 Z -1.0000
G01 X 19.2804 Y 17.6179 Z -1.0000
G01 X 19.2804 Y 17.6179 Z -1.0000
G00 Z 5.0000

(End cutting path id: path51213)


(Start cutting path id: path51213)
(Change tool to Default tool)

G00 Z 5.0000
G00 X 19.3521 Y 17.6189

G01 Z -1.0000 F 100.0000(Penetrate)
G01 X 19.3493 Y 17.6234 Z -1.0000 F 3500.0000
G01 X 19.3409 Y 17.6247 Z -1.0000
G01 X 19.3340 Y 17.6268 Z -1.0000
G01 X 19.3319 Y 17.6337 Z -1.0000
G01 X 19.3296 Y 17.6412 Z -1.0000
G01 X 19.3207 Y 17.6449 Z -1.0000
G01 X 19.3120 Y 17.6362 Z -1.0000
G01 X 19.3206 Y 17.6127 Z -1.0000
G01 X 19.3411 Y 17.6056 Z -1.0000
G01 X 19.3520 Y 17.6189 Z -1.0000
G01 X 19.3521 Y 17.6189 Z -1.0000
G00 Z 5.0000

(End cutting path id: path51213)


(Start cutting path id: path51213)
(Change tool to Default tool)

G00 Z 5.0000
G00 X 19.3969 Y 17.6051

G01 Z -1.0000 F 100.0000(Penetrate)
G01 X 19.3954 Y 17.6096 Z -1.0000 F 3500.0000
G03 X 19.3834 Y 17.6237 Z -1.0000 I -0.0907 J -0.0652
G01 X 19.3700 Y 17.6328 Z -1.0000
G01 X 19.3694 Y 17.6285 Z -1.0000
G02 X 19.3646 Y 17.6142 Z -1.0000 I -0.1669 J 0.0480
G01 X 19.3664 Y 17.6050 Z -1.0000
G01 X 19.3780 Y 17.6000 Z -1.0000
G03 X 19.3947 Y 17.6022 Z -1.0000 I -0.0000 J 0.0639
G01 X 19.3969 Y 17.6051 Z -1.0000
G01 X 19.3969 Y 17.6051 Z -1.0000
G00 Z 5.0000

(End cutting path id: path51213)


(Start cutting path id: path51213)
(Change tool to Default tool)

G00 Z 5.0000
G00 X 19.7014 Y 17.6067

G01 Z -1.0000 F 100.0000(Penetrate)
G01 X 19.7047 Y 17.6133 Z -1.0000 F 3500.0000
G01 X 19.7103 Y 17.6136 Z -1.0000
G01 X 19.7191 Y 17.6123 Z -1.0000
G03 X 19.7383 Y 17.6214 Z -1.0000 I -0.0164 J 0.0594
G01 X 19.7684 Y 17.6259 Z -1.0000
G01 X 19.7820 Y 17.6071 Z -1.0000
G01 X 19.7773 Y 17.5992 Z -1.0000
G01 X 19.7686 Y 17.6002 Z -1.0000
G01 X 19.7551 Y 17.6058 Z -1.0000
G01 X 19.7440 Y 17.6025 Z -1.0000
G01 X 19.7133 Y 17.5935 Z -1.0000
G01 X 19.7014 Y 17.6067 Z -1.0000
G01 X 19.7014 Y 17.6067 Z -1.0000
G00 Z 5.0000

(End cutting path id: path51213)


(Start cutting path id: path51213)
(Change tool to Default tool)

G00 Z 5.0000
G00 X 19.7983 Y 17.6333

G01 Z -1.0000 F 100.0000(Penetrate)
G01 X 19.8095 Y 17.6352 Z -1.0000 F 3500.0000
G01 X 19.8155 Y 17.6326 Z -1.0000
G01 X 19.8037 Y 17.6279 Z -1.0000
G01 X 19.7983 Y 17.6333 Z -1.0000
G01 X 19.7983 Y 17.6333 Z -1.0000
G00 Z 5.0000

(End cutting path id: path51213)


(Start cutting path id: path51213)
(Change tool to Default tool)

G00 Z 5.0000
G00 X 19.8090 Y 17.6092

G01 Z -1.0000 F 100.0000(Penetrate)
G01 X 19.8115 Y 17.6156 Z -1.0000 F 3500.0000
G01 X 19.8174 Y 17.6182 Z -1.0000
G01 X 19.8246 Y 17.6161 Z -1.0000
G01 X 19.8313 Y 17.6092 Z -1.0000
G01 X 19.8308 Y 17.6036 Z -1.0000
G01 X 19.8229 Y 17.6002 Z -1.0000
G01 X 19.8122 Y 17.6033 Z -1.0000
G01 X 19.8090 Y 17.6092 Z -1.0000
G01 X 19.8090 Y 17.6092 Z -1.0000
G00 Z 5.0000

(End cutting path id: path51213)


(Start cutting path id: path51213)
(Change tool to Default tool)

G00 Z 5.0000
G00 X 19.8717 Y 17.5971

G01 Z -1.0000 F 100.0000(Penetrate)
G01 X 19.8656 Y 17.6049 Z -1.0000 F 3500.0000
G01 X 19.8689 Y 17.6090 Z -1.0000
G02 X 19.8867 Y 17.6059 Z -1.0000 I 0.0003 J -0.0504
G01 X 19.8944 Y 17.5996 Z -1.0000
G01 X 19.8914 Y 17.5934 Z -1.0000
G01 X 19.8716 Y 17.5971 Z -1.0000
G01 X 19.8717 Y 17.5971 Z -1.0000
G00 Z 5.0000

(End cutting path id: path51213)


(Start cutting path id: path51213)
(Change tool to Default tool)

G00 Z 5.0000
G00 X 19.9165 Y 17.5994

G01 Z -1.0000 F 100.0000(Penetrate)
G01 X 19.9256 Y 17.6080 Z -1.0000 F 3500.0000
G01 X 19.9491 Y 17.5975 Z -1.0000
G01 X 19.9359 Y 17.5913 Z -1.0000
G01 X 19.9197 Y 17.5946 Z -1.0000
G01 X 19.9165 Y 17.5995 Z -1.0000
G01 X 19.9165 Y 17.5994 Z -1.0000
G00 Z 5.0000

(End cutting path id: path51213)


(Start cutting path id: path51213)
(Change tool to Default tool)

G00 Z 5.0000
G00 X 19.9792 Y 17.6092

G01 Z -1.0000 F 100.0000(Penetrate)
G01 X 19.9823 Y 17.6150 Z -1.0000 F 3500.0000
G01 X 19.9926 Y 17.6182 Z -1.0000
G01 X 20.0029 Y 17.6151 Z -1.0000
G01 X 20.0061 Y 17.6092 Z -1.0000
G01 X 20.0030 Y 17.6034 Z -1.0000
G01 X 19.9926 Y 17.6002 Z -1.0000
G01 X 19.9823 Y 17.6033 Z -1.0000
G01 X 19.9792 Y 17.6092 Z -1.0000
G01 X 19.9792 Y 17.6092 Z -1.0000
G00 Z 5.0000

(End cutting path id: path51213)


(Start cutting path id: path51213)
(Change tool to Default tool)

G00 Z 5.0000
G00 X 20.2580 Y 17.5410

G01 Z -1.0000 F 100.0000(Penetrate)
G03 X 20.2898 Y 17.5458 Z -1.0000 I -0.0236 J 0.2626 F 3500.0000
G01 X 20.3003 Y 17.5500 Z -1.0000
G01 X 20.3108 Y 17.5532 Z -1.0000
G02 X 20.3463 Y 17.5518 Z -1.0000 I 0.0086 J -0.2235
G03 X 20.3786 Y 17.5517 Z -1.0000 I 0.0166 J 0.1376
G01 X 20.3824 Y 17.5559 Z -1.0000
G01 X 20.3858 Y 17.5610 Z -1.0000
G01 X 20.4025 Y 17.5642 Z -1.0000
G01 X 20.4101 Y 17.5604 Z -1.0000
G01 X 20.4092 Y 17.5554 Z -1.0000
G01 X 20.4052 Y 17.5466 Z -1.0000
G01 X 20.4139 Y 17.5484 Z -1.0000
G01 X 20.4231 Y 17.5548 Z -1.0000
G01 X 20.4330 Y 17.5603 Z -1.0000
G02 X 20.4759 Y 17.5682 Z -1.0000 I 0.0804 J -0.3159
G03 X 20.5180 Y 17.5769 Z -1.0000 I -0.0279 J 0.2424
G01 X 20.5263 Y 17.5832 Z -1.0000
G01 X 20.5327 Y 17.5855 Z -1.0000
G01 X 20.5447 Y 17.5765 Z -1.0000
G03 X 20.5694 Y 17.5574 Z -1.0000 I 0.0465 J 0.0346
G01 X 20.5751 Y 17.5642 Z -1.0000
G01 X 20.5757 Y 17.5699 Z -1.0000
G01 X 20.5834 Y 17.5734 Z -1.0000
G01 X 20.5941 Y 17.5767 Z -1.0000
G01 X 20.5974 Y 17.5829 Z -1.0000
G01 X 20.6005 Y 17.5868 Z -1.0000
G01 X 20.6086 Y 17.5854 Z -1.0000
G01 X 20.6207 Y 17.5812 Z -1.0000
G03 X 20.6934 Y 17.5762 Z -1.0000 I 0.0998 J 0.9084
G03 X 20.7647 Y 17.5798 Z -1.0000 I 0.0133 J 0.4413
G01 X 20.7808 Y 17.5878 Z -1.0000
G01 X 20.7904 Y 17.5916 Z -1.0000
G01 X 20.7945 Y 17.5874 Z -1.0000
G01 X 20.8019 Y 17.5763 Z -1.0000
G01 X 20.8150 Y 17.5788 Z -1.0000
G02 X 20.8536 Y 17.5953 Z -1.0000 I 0.0398 J -0.0398
G02 X 20.9134 Y 17.5809 Z -1.0000 I 0.0026 J -0.1211
G01 X 20.9288 Y 17.5789 Z -1.0000
G01 X 20.9417 Y 17.5873 Z -1.0000
G01 X 20.9528 Y 17.5950 Z -1.0000
G01 X 20.9595 Y 17.5924 Z -1.0000
G01 X 20.9672 Y 17.5884 Z -1.0000
G01 X 20.9828 Y 17.5938 Z -1.0000
G01 X 21.0010 Y 17.6004 Z -1.0000
G02 X 21.0516 Y 17.5998 Z -1.0000 I 0.0223 J -0.2535
G03 X 21.1484 Y 17.6026 Z -1.0000 I 0.0387 J 0.3456
G01 X 21.1619 Y 17.6185 Z -1.0000
G01 X 21.1649 Y 17.6239 Z -1.0000
G01 X 21.1753 Y 17.6270 Z -1.0000
G01 X 21.1857 Y 17.6243 Z -1.0000
G01 X 21.1877 Y 17.6203 Z -1.0000
G01 X 21.1939 Y 17.6114 Z -1.0000
G01 X 21.2196 Y 17.6140 Z -1.0000
G02 X 21.2487 Y 17.6215 Z -1.0000 I 0.0408 J -0.0974
G01 X 21.2560 Y 17.6180 Z -1.0000
G01 X 21.2738 Y 17.6112 Z -1.0000
G01 X 21.2902 Y 17.6281 Z -1.0000
G01 X 21.3025 Y 17.6379 Z -1.0000
G02 X 21.3708 Y 17.6309 Z -1.0000 I 0.0087 J -0.2511
G03 X 21.3956 Y 17.6290 Z -1.0000 I 0.0184 J 0.0761
G03 X 21.4156 Y 17.6347 Z -1.0000 I -0.0043 J 0.0530
G02 X 21.4359 Y 17.6425 Z -1.0000 I 0.0462 J -0.0902
G02 X 21.4889 Y 17.6541 Z -1.0000 I 0.1629 J -0.6146
G01 X 21.5785 Y 17.6718 Z -1.0000
G01 X 21.5990 Y 17.6756 Z -1.0000
G03 X 21.6182 Y 17.6805 Z -1.0000 I -0.0075 J 0.0707
G01 X 21.6295 Y 17.6879 Z -1.0000
G01 X 21.6402 Y 17.6927 Z -1.0000
G01 X 21.6560 Y 17.6891 Z -1.0000
G01 X 21.6694 Y 17.6855 Z -1.0000
G01 X 21.6726 Y 17.6885 Z -1.0000
G01 X 21.6881 Y 17.7064 Z -1.0000
G01 X 21.7253 Y 17.6962 Z -1.0000
G01 X 21.7313 Y 17.6977 Z -1.0000
G01 X 21.7336 Y 17.7038 Z -1.0000
G02 X 21.7565 Y 17.7062 Z -1.0000 I 0.0168 J -0.0498
G03 X 21.7838 Y 17.7086 Z -1.0000 I 0.0078 J 0.0667
G01 X 21.7897 Y 17.7163 Z -1.0000
G01 X 21.7980 Y 17.7123 Z -1.0000
G01 X 21.8031 Y 17.7083 Z -1.0000
G01 X 21.8063 Y 17.7110 Z -1.0000
G01 X 21.8111 Y 17.7213 Z -1.0000
G01 X 21.8193 Y 17.7229 Z -1.0000
G01 X 21.8308 Y 17.7220 Z -1.0000
G01 X 21.8414 Y 17.7280 Z -1.0000
G01 X 21.8529 Y 17.7340 Z -1.0000
G02 X 21.9014 Y 17.7389 Z -1.0000 I 0.0554 J -0.3042
G03 X 21.9493 Y 17.7439 Z -1.0000 I -0.0065 J 0.2938
G01 X 21.9576 Y 17.7494 Z -1.0000
G01 X 21.9654 Y 17.7565 Z -1.0000
G02 X 21.9861 Y 17.7639 Z -1.0000 I 0.0400 J -0.0789
G02 X 22.0085 Y 17.7689 Z -1.0000 I 1.5332 J -6.7460
G03 X 22.0309 Y 17.7740 Z -1.0000 I -0.7835 J 3.5011
G02 X 22.0533 Y 17.7791 Z -1.0000 I 1.9615 J -8.6305
G02 X 22.0774 Y 17.7844 Z -1.0000 I 0.5472 J -2.4371
G03 X 22.0998 Y 17.7923 Z -1.0000 I -0.0208 J 0.0947
G01 X 22.1110 Y 17.8012 Z -1.0000
G01 X 22.1499 Y 17.8172 Z -1.0000
G01 X 22.1602 Y 17.7964 Z -1.0000
G01 X 22.1632 Y 17.7920 Z -1.0000
G01 X 22.1779 Y 17.7997 Z -1.0000
G01 X 22.1854 Y 17.8118 Z -1.0000
G01 X 22.1855 Y 17.8221 Z -1.0000
G01 X 22.1877 Y 17.8289 Z -1.0000
G01 X 22.2010 Y 17.8332 Z -1.0000
G01 X 22.2148 Y 17.8362 Z -1.0000
G01 X 22.2160 Y 17.8399 Z -1.0000
G01 X 22.2481 Y 17.8456 Z -1.0000
G03 X 22.3007 Y 17.8498 Z -1.0000 I 0.0068 J 0.2450
G03 X 22.3625 Y 17.8673 Z -1.0000 I -0.0679 J 0.3571
G02 X 22.3760 Y 17.8720 Z -1.0000 I 0.0805 J -0.2128
G02 X 22.3849 Y 17.8742 Z -1.0000 I 0.0272 J -0.0884
G03 X 22.4289 Y 17.8885 Z -1.0000 I -0.0410 J 0.2019
G01 X 22.4341 Y 17.8966 Z -1.0000
G01 X 22.4371 Y 17.9000 Z -1.0000
G01 X 22.4490 Y 17.8985 Z -1.0000
G01 X 22.4557 Y 17.8996 Z -1.0000
G01 X 22.4566 Y 17.9048 Z -1.0000
G01 X 22.4574 Y 17.9100 Z -1.0000
G01 X 22.4641 Y 17.9111 Z -1.0000
G01 X 22.4757 Y 17.9101 Z -1.0000
G01 X 22.4790 Y 17.9141 Z -1.0000
G01 X 22.4823 Y 17.9194 Z -1.0000
G01 X 22.4974 Y 17.9228 Z -1.0000
G01 X 22.5095 Y 17.9193 Z -1.0000
G01 X 22.5106 Y 17.9143 Z -1.0000
G01 X 22.5301 Y 17.8928 Z -1.0000
G03 X 22.6228 Y 17.9698 Z -1.0000 I -0.1140 J 0.2314
G02 X 22.6720 Y 18.0033 Z -1.0000 I 0.0729 J -0.0543
G02 X 22.7346 Y 18.0001 Z -1.0000 I 0.0264 J -0.0975
G01 X 22.7459 Y 18.0000 Z -1.0000
G03 X 22.7678 Y 18.0122 Z -1.0000 I -0.0269 J 0.0741
G02 X 22.7905 Y 18.0256 Z -1.0000 I 0.0607 J -0.0770
G02 X 22.8221 Y 18.0351 Z -1.0000 I 0.0601 J -0.1429
G03 X 22.8487 Y 18.0441 Z -1.0000 I -0.0184 J 0.0981
G01 X 22.8502 Y 18.0493 Z -1.0000
G01 X 22.8512 Y 18.0539 Z -1.0000
G01 X 22.8626 Y 18.0573 Z -1.0000
G01 X 22.8782 Y 18.0607 Z -1.0000
G01 X 22.8911 Y 18.0707 Z -1.0000
G01 X 22.9040 Y 18.0803 Z -1.0000
G01 X 22.9231 Y 18.0841 Z -1.0000
G03 X 22.9419 Y 18.0878 Z -1.0000 I -0.0000 J 0.0502
G01 X 22.9511 Y 18.0955 Z -1.0000
G01 X 22.9689 Y 18.1095 Z -1.0000
G02 X 23.0595 Y 18.1326 Z -1.0000 I 0.1879 J -0.5481
G01 X 23.0702 Y 18.1366 Z -1.0000
G03 X 23.0908 Y 18.1517 Z -1.0000 I -0.0804 J 0.1318
G02 X 23.1115 Y 18.1655 Z -1.0000 I 0.0653 J -0.0755
G01 X 23.1208 Y 18.1667 Z -1.0000
G01 X 23.1288 Y 18.1684 Z -1.0000
G01 X 23.1361 Y 18.1779 Z -1.0000
G01 X 23.1438 Y 18.1858 Z -1.0000
G01 X 23.1551 Y 18.1861 Z -1.0000
G01 X 23.1653 Y 18.1859 Z -1.0000
G01 X 23.1688 Y 18.1908 Z -1.0000
G01 X 23.1730 Y 18.1962 Z -1.0000
G02 X 23.1977 Y 18.1985 Z -1.0000 I 0.0190 J -0.0710
G03 X 23.2216 Y 18.2019 Z -1.0000 I 0.0043 J 0.0548
G01 X 23.2271 Y 18.2097 Z -1.0000
G01 X 23.2316 Y 18.2185 Z -1.0000
G01 X 23.2430 Y 18.2219 Z -1.0000
G01 X 23.2557 Y 18.2236 Z -1.0000
G01 X 23.2584 Y 18.2276 Z -1.0000
G01 X 23.2612 Y 18.2323 Z -1.0000
G02 X 23.2822 Y 18.2405 Z -1.0000 I 0.0421 J -0.0767
G03 X 23.3048 Y 18.2491 Z -1.0000 I -0.0255 J 0.1011
G03 X 23.3443 Y 18.2729 Z -1.0000 I -0.1728 J 0.3322
G02 X 23.3833 Y 18.2969 Z -1.0000 I 0.2521 J -0.3663
G01 X 23.3926 Y 18.2992 Z -1.0000
G01 X 23.4016 Y 18.3017 Z -1.0000
G03 X 23.4210 Y 18.3164 Z -1.0000 I -0.0606 J 0.1003
G02 X 23.4409 Y 18.3308 Z -1.0000 I 0.0683 J -0.0737
G02 X 23.4631 Y 18.3395 Z -1.0000 I 0.0448 J -0.0815
G03 X 23.4857 Y 18.3478 Z -1.0000 I -0.0278 J 0.1102
G03 X 23.5014 Y 18.3584 Z -1.0000 I -0.0307 J 0.0622
G02 X 23.5170 Y 18.3691 Z -1.0000 I 0.0459 J -0.0503
G02 X 23.5347 Y 18.3751 Z -1.0000 I 0.0309 J -0.0622
G01 X 23.5517 Y 18.3822 Z -1.0000
G03 X 23.5809 Y 18.4067 Z -1.0000 I -0.1095 J 0.1602
G02 X 23.6099 Y 18.4281 Z -1.0000 I 0.0803 J -0.0785
G01 X 23.6250 Y 18.4294 Z -1.0000
G01 X 23.6406 Y 18.4291 Z -1.0000
G01 X 23.6555 Y 18.4378 Z -1.0000
G02 X 23.6702 Y 18.4494 Z -1.0000 I 0.0568 J -0.0568
G01 X 23.6778 Y 18.4515 Z -1.0000
G01 X 23.6852 Y 18.4538 Z -1.0000
G03 X 23.6975 Y 18.4649 Z -1.0000 I -0.0330 J 0.0485
G01 X 23.7102 Y 18.4749 Z -1.0000
G01 X 23.7254 Y 18.4784 Z -1.0000
G01 X 23.7389 Y 18.4817 Z -1.0000
G01 X 23.7422 Y 18.4874 Z -1.0000
G01 X 23.7453 Y 18.4933 Z -1.0000
G01 X 23.7547 Y 18.4964 Z -1.0000
G01 X 23.7649 Y 18.4998 Z -1.0000
G01 X 23.7724 Y 18.5098 Z -1.0000
G01 X 23.7800 Y 18.5197 Z -1.0000
G01 X 23.7912 Y 18.5233 Z -1.0000
G01 X 23.8016 Y 18.5266 Z -1.0000
G01 X 23.8050 Y 18.5332 Z -1.0000
G01 X 23.8085 Y 18.5380 Z -1.0000
G01 X 23.8189 Y 18.5378 Z -1.0000
G01 X 23.8578 Y 18.5405 Z -1.0000
G03 X 23.8931 Y 18.5793 Z -1.0000 I -0.0406 J 0.0724
G01 X 23.8976 Y 18.5836 Z -1.0000
G01 X 23.9110 Y 18.5862 Z -1.0000
G01 X 23.9244 Y 18.5902 Z -1.0000
G03 X 23.9605 Y 18.6175 Z -1.0000 I -0.1432 J 0.2263
G02 X 23.9960 Y 18.6462 Z -1.0000 I 0.2853 J -0.3168
G01 X 24.0036 Y 18.6487 Z -1.0000
G01 X 24.0071 Y 18.6515 Z -1.0000
G01 X 24.0057 Y 18.6590 Z -1.0000
G01 X 24.0059 Y 18.6627 Z -1.0000
G01 X 24.0092 Y 18.6632 Z -1.0000
G01 X 24.0337 Y 18.6624 Z -1.0000
G03 X 24.1149 Y 18.7199 Z -1.0000 I -0.1920 J 0.3576
G02 X 24.1475 Y 18.7437 Z -1.0000 I 0.1270 J -0.1397
G02 X 24.1723 Y 18.7530 Z -1.0000 I 0.0408 J -0.0706
G01 X 24.1933 Y 18.7633 Z -1.0000
G01 X 24.1992 Y 18.7762 Z -1.0000
G01 X 24.2040 Y 18.7869 Z -1.0000
G01 X 24.2131 Y 18.7886 Z -1.0000
G01 X 24.2220 Y 18.7914 Z -1.0000
G01 X 24.2232 Y 18.7973 Z -1.0000
G02 X 24.2504 Y 18.8106 Z -1.0000 I 0.0620 J -0.0922
G03 X 24.2985 Y 18.8369 Z -1.0000 I -0.0474 J 0.1437
G01 X 24.2996 Y 18.8506 Z -1.0000
G01 X 24.3046 Y 18.8511 Z -1.0000
G01 X 24.3137 Y 18.8507 Z -1.0000
G01 X 24.3212 Y 18.8586 Z -1.0000
G01 X 24.3281 Y 18.8679 Z -1.0000
G01 X 24.3335 Y 18.8682 Z -1.0000
G01 X 24.3386 Y 18.8688 Z -1.0000
G01 X 24.3446 Y 18.8795 Z -1.0000
G01 X 24.3521 Y 18.8923 Z -1.0000
G02 X 24.3748 Y 18.9085 Z -1.0000 I 0.0670 J -0.0699
G03 X 24.4000 Y 18.9231 Z -1.0000 I -0.1343 J 0.2600
G03 X 24.4127 Y 18.9331 Z -1.0000 I -0.0486 J 0.0747
G02 X 24.4254 Y 18.9421 Z -1.0000 I 0.0369 J -0.0387
G01 X 24.4346 Y 18.9443 Z -1.0000
G03 X 24.5020 Y 18.9731 Z -1.0000 I 0.0000 J 0.0934
G03 X 24.5307 Y 19.0445 Z -1.0000 I -0.0745 J 0.0714
G01 X 24.5341 Y 19.0485 Z -1.0000
G01 X 24.5479 Y 19.0476 Z -1.0000
G01 X 24.5632 Y 19.0496 Z -1.0000
G03 X 24.6102 Y 19.0873 Z -1.0000 I -0.1491 J 0.2338
G02 X 24.6564 Y 19.1299 Z -1.0000 I 0.5474 J -0.5474
G01 X 24.6633 Y 19.1325 Z -1.0000
G01 X 24.6703 Y 19.1348 Z -1.0000
G03 X 24.6875 Y 19.1504 Z -1.0000 I -0.0714 J 0.0961
G02 X 24.7049 Y 19.1656 Z -1.0000 I 0.0723 J -0.0650
G01 X 24.7136 Y 19.1683 Z -1.0000
G01 X 24.7221 Y 19.1712 Z -1.0000
G03 X 24.7503 Y 19.1967 Z -1.0000 I -0.1501 J 0.1937
G02 X 24.7784 Y 19.2238 Z -1.0000 I 0.2921 J -0.2757
G02 X 24.8112 Y 19.2499 Z -1.0000 I 0.3045 J -0.3491
G03 X 24.8431 Y 19.2755 Z -1.0000 I -0.2434 J 0.3361
G01 X 24.8448 Y 19.2797 Z -1.0000
G01 X 24.8498 Y 19.2963 Z -1.0000
G01 X 24.8632 Y 19.3027 Z -1.0000
G01 X 24.8749 Y 19.3076 Z -1.0000
G01 X 24.8767 Y 19.3166 Z -1.0000
G01 X 24.8772 Y 19.3236 Z -1.0000
G01 X 24.8809 Y 19.3246 Z -1.0000
G01 X 24.8894 Y 19.3245 Z -1.0000
G01 X 24.9041 Y 19.3381 Z -1.0000
G02 X 24.9198 Y 19.3550 Z -1.0000 I 0.0681 J -0.0477
G02 X 24.9372 Y 19.3650 Z -1.0000 I 0.0399 J -0.0492
G01 X 24.9538 Y 19.3757 Z -1.0000
G03 X 24.9699 Y 19.3975 Z -1.0000 I -0.0630 J 0.0635
G02 X 25.0108 Y 19.4545 Z -1.0000 I 0.2292 J -0.1210
G01 X 25.0328 Y 19.4640 Z -1.0000
G03 X 25.1123 Y 19.4978 Z -1.0000 I 0.0000 J 0.1104
G01 X 25.1182 Y 19.5526 Z -1.0000
G01 X 25.1198 Y 19.5663 Z -1.0000
G02 X 25.1476 Y 19.5820 Z -1.0000 I 0.0421 J -0.0422
G03 X 25.1988 Y 19.6077 Z -1.0000 I -0.0301 J 0.1236
G01 X 25.2116 Y 19.6351 Z -1.0000
G01 X 25.2135 Y 19.6401 Z -1.0000
G02 X 25.2833 Y 19.7160 Z -1.0000 I 2.0419 J -1.8088
G03 X 25.3521 Y 19.7921 Z -1.0000 I -1.3073 J 1.2490
G01 X 25.3550 Y 19.8001 Z -1.0000
G01 X 25.3579 Y 19.8077 Z -1.0000
G02 X 25.3784 Y 19.8267 Z -1.0000 I 0.1021 J -0.0897
G03 X 25.3988 Y 19.8465 Z -1.0000 I -0.0705 J 0.0935
G03 X 25.4099 Y 19.8657 Z -1.0000 I -0.0544 J 0.0441
G01 X 25.4216 Y 19.8802 Z -1.0000
G01 X 25.4358 Y 19.8824 Z -1.0000
G01 X 25.4485 Y 19.8859 Z -1.0000
G01 X 25.4487 Y 19.8924 Z -1.0000
G01 X 25.4580 Y 19.8997 Z -1.0000
G01 X 25.4672 Y 19.9077 Z -1.0000
G01 X 25.4679 Y 19.9175 Z -1.0000
G01 X 25.4686 Y 19.9251 Z -1.0000
G01 X 25.4739 Y 19.9275 Z -1.0000
G01 X 25.4813 Y 19.9301 Z -1.0000
G01 X 25.4874 Y 19.9438 Z -1.0000
G01 X 25.4946 Y 19.9594 Z -1.0000
G02 X 25.5168 Y 19.9779 Z -1.0000 I 0.0672 J -0.0577
G03 X 25.5398 Y 19.9955 Z -1.0000 I -0.0630 J 0.1067
G01 X 25.5432 Y 20.0035 Z -1.0000
G01 X 25.5455 Y 20.0126 Z -1.0000
G02 X 25.5563 Y 20.0276 Z -1.0000 I 0.0672 J -0.0365
G03 X 25.6038 Y 20.0826 Z -1.0000 I -0.9109 J 0.8361
G01 X 25.6062 Y 20.0889 Z -1.0000
G01 X 25.6084 Y 20.0948 Z -1.0000
G02 X 25.6551 Y 20.1484 Z -1.0000 I 0.9620 J -0.7911
G03 X 25.6986 Y 20.2018 Z -1.0000 I -0.4068 J 0.3754
G01 X 25.6988 Y 20.2095 Z -1.0000
G01 X 25.6996 Y 20.2154 Z -1.0000
G01 X 25.7133 Y 20.2229 Z -1.0000
G01 X 25.7223 Y 20.2296 Z -1.0000
G01 X 25.7209 Y 20.2356 Z -1.0000
G01 X 25.7204 Y 20.2399 Z -1.0000
G01 X 25.7281 Y 20.2433 Z -1.0000
G01 X 25.7444 Y 20.2476 Z -1.0000
G01 X 25.7525 Y 20.2568 Z -1.0000
G01 X 25.7528 Y 20.2670 Z -1.0000
G01 X 25.7485 Y 20.2703 Z -1.0000
G01 X 25.7606 Y 20.2904 Z -1.0000
G03 X 25.7802 Y 20.3120 Z -1.0000 I -0.1307 J 0.1381
G03 X 25.7989 Y 20.3397 Z -1.0000 I -0.1982 J 0.1538
G02 X 25.8180 Y 20.3649 Z -1.0000 I 0.1111 J -0.0645
G01 X 25.8273 Y 20.3688 Z -1.0000
G01 X 25.8348 Y 20.3728 Z -1.0000
G01 X 25.8388 Y 20.3853 Z -1.0000
G01 X 25.8434 Y 20.4001 Z -1.0000
G02 X 25.8791 Y 20.4445 Z -1.0000 I 0.2977 J -0.2030
G03 X 25.9169 Y 20.4882 Z -1.0000 I -0.4657 J 0.4399
G01 X 25.9195 Y 20.4957 Z -1.0000
G01 X 25.9220 Y 20.4997 Z -1.0000
G01 X 25.9275 Y 20.4993 Z -1.0000
G01 X 25.9336 Y 20.5004 Z -1.0000
G03 X 25.9504 Y 20.5279 Z -1.0000 I -0.0975 J 0.0785
G02 X 25.9992 Y 20.6227 Z -1.0000 I 0.8687 J -0.3873
G01 X 26.0096 Y 20.6287 Z -1.0000
G01 X 26.0143 Y 20.6313 Z -1.0000
G01 X 26.0143 Y 20.6363 Z -1.0000
G01 X 26.0140 Y 20.6435 Z -1.0000
G02 X 26.0272 Y 20.6627 Z -1.0000 I 0.0711 J -0.0347
G03 X 26.0430 Y 20.6827 Z -1.0000 I -0.1161 J 0.1077
G03 X 26.0682 Y 20.7245 Z -1.0000 I -0.4668 J 0.3103
G02 X 26.0937 Y 20.7658 Z -1.0000 I 0.3973 J -0.2168
G02 X 26.1058 Y 20.7787 Z -1.0000 I 0.0496 J -0.0344
G01 X 26.1131 Y 20.7899 Z -1.0000
G01 X 26.1232 Y 20.8146 Z -1.0000
G03 X 26.1661 Y 20.8895 Z -1.0000 I -0.4295 J 0.2952
G03 X 26.1732 Y 20.9217 Z -1.0000 I -0.0692 J 0.0323
G01 X 26.1762 Y 20.9305 Z -1.0000
G01 X 26.1847 Y 20.9369 Z -1.0000
G01 X 26.1926 Y 20.9442 Z -1.0000
G03 X 26.2021 Y 20.9731 Z -1.0000 I -0.1047 J 0.0503
G02 X 26.2120 Y 21.0002 Z -1.0000 I 0.0866 J -0.0164
G01 X 26.2202 Y 21.0050 Z -1.0000
G01 X 26.2267 Y 21.0089 Z -1.0000
G01 X 26.2272 Y 21.0184 Z -1.0000
G01 X 26.2269 Y 21.0286 Z -1.0000
G01 X 26.2312 Y 21.0318 Z -1.0000
G01 X 26.2731 Y 21.0546 Z -1.0000
G03 X 26.2957 Y 21.1312 Z -1.0000 I -0.1183 J 0.0766
G01 X 26.2979 Y 21.1399 Z -1.0000
G02 X 26.3226 Y 21.1797 Z -1.0000 I 0.4246 J -0.2353
G03 X 26.3463 Y 21.2197 Z -1.0000 I -0.2865 J 0.1971
G01 X 26.3494 Y 21.2328 Z -1.0000
G01 X 26.3530 Y 21.2433 Z -1.0000
G01 X 26.3606 Y 21.2471 Z -1.0000
G01 X 26.3694 Y 21.2513 Z -1.0000
G03 X 26.3876 Y 21.2791 Z -1.0000 I -0.1068 J 0.0900
G01 X 26.3921 Y 21.3038 Z -1.0000
G01 X 26.3965 Y 21.3208 Z -1.0000
G03 X 26.4089 Y 21.3458 Z -1.0000 I -0.0995 J 0.0649
G03 X 26.4124 Y 21.3653 Z -1.0000 I -0.0558 J 0.0199
G01 X 26.4159 Y 21.3741 Z -1.0000
G01 X 26.4202 Y 21.3737 Z -1.0000
G01 X 26.4265 Y 21.3728 Z -1.0000
G01 X 26.4375 Y 21.3894 Z -1.0000
G03 X 26.4433 Y 21.4144 Z -1.0000 I -0.1162 J 0.0404
G01 X 26.4409 Y 21.4172 Z -1.0000
G01 X 26.4438 Y 21.4239 Z -1.0000
G03 X 26.4769 Y 21.4634 Z -1.0000 I -0.0606 J 0.0843
G01 X 26.4793 Y 21.4981 Z -1.0000
G01 X 26.4802 Y 21.5109 Z -1.0000
G01 X 26.4878 Y 21.5156 Z -1.0000
G01 X 26.4978 Y 21.5196 Z -1.0000
G01 X 26.5018 Y 21.5291 Z -1.0000
G01 X 26.4988 Y 21.5394 Z -1.0000
G01 X 26.4931 Y 21.5425 Z -1.0000
G01 X 26.4890 Y 21.5457 Z -1.0000
G01 X 26.4896 Y 21.5560 Z -1.0000
G01 X 26.4969 Y 21.5663 Z -1.0000
G01 X 26.5052 Y 21.5694 Z -1.0000
G01 X 26.5134 Y 21.5731 Z -1.0000
G03 X 26.5325 Y 21.6008 Z -1.0000 I -0.1133 J 0.0990
G02 X 26.5511 Y 21.6293 Z -1.0000 I 0.1795 J -0.0968
G01 X 26.5570 Y 21.6321 Z -1.0000
G01 X 26.5612 Y 21.6355 Z -1.0000
G03 X 26.5645 Y 21.6627 Z -1.0000 I -0.1131 J 0.0273
G02 X 26.5679 Y 21.6926 Z -1.0000 I 0.1330 J 0.0000
G02 X 26.5774 Y 21.7187 Z -1.0000 I 0.1117 J -0.0257
G03 X 26.5888 Y 21.7447 Z -1.0000 I -0.2183 J 0.1111
G03 X 26.6100 Y 21.8066 Z -1.0000 I -1.2421 J 0.4603
G02 X 26.6327 Y 21.8675 Z -1.0000 I 0.5979 J -0.1886
G02 X 26.6476 Y 21.8934 Z -1.0000 I 0.1208 J -0.0524
G03 X 26.6615 Y 21.9191 Z -1.0000 I -0.0819 J 0.0608
G03 X 26.6665 Y 21.9450 Z -1.0000 I -0.0791 J 0.0289
G02 X 26.6717 Y 21.9694 Z -1.0000 I 0.0724 J -0.0026
G01 X 26.6793 Y 21.9769 Z -1.0000
G01 X 26.6859 Y 21.9840 Z -1.0000
G01 X 26.6858 Y 21.9983 Z -1.0000
G01 X 26.6859 Y 22.0127 Z -1.0000
G01 X 26.6927 Y 22.0200 Z -1.0000
G01 X 26.7079 Y 22.0356 Z -1.0000
G03 X 26.7285 Y 22.1218 Z -1.0000 I -0.4041 J 0.1421
G02 X 26.7331 Y 22.1402 Z -1.0000 I 0.0851 J -0.0112
G02 X 26.7401 Y 22.1531 Z -1.0000 I 0.0478 J -0.0176
G03 X 26.7481 Y 22.1658 Z -1.0000 I -0.0741 J 0.0561
G03 X 26.7596 Y 22.1898 Z -1.0000 I -0.2834 J 0.1501
G01 X 26.7636 Y 22.2103 Z -1.0000
G01 X 26.7592 Y 22.2148 Z -1.0000
G01 X 26.7625 Y 22.2260 Z -1.0000
G01 X 26.7734 Y 22.2390 Z -1.0000
G03 X 26.7821 Y 22.2638 Z -1.0000 I -0.0822 J 0.0426
G02 X 26.8156 Y 22.4081 Z -1.0000 I 2.1254 J -0.4171
G01 X 26.8242 Y 22.4205 Z -1.0000
G01 X 26.8282 Y 22.4264 Z -1.0000
G03 X 26.8416 Y 22.4833 Z -1.0000 I -0.6928 J 0.1935
G02 X 26.8545 Y 22.5408 Z -1.0000 I 0.9963 J -0.1929
G01 X 26.8588 Y 22.5505 Z -1.0000
G01 X 26.8630 Y 22.5599 Z -1.0000
G03 X 26.8649 Y 22.5729 Z -1.0000 I -0.0495 J 0.0137
G02 X 26.8666 Y 22.5861 Z -1.0000 I 0.0609 J -0.0013
G02 X 26.8814 Y 22.6401 Z -1.0000 I 1.0558 J -0.2597
G03 X 26.8971 Y 22.6939 Z -1.0000 I -3.3348 J 1.0037
G03 X 26.9067 Y 22.7297 Z -1.0000 I -1.3741 J 0.3895
G02 X 26.9167 Y 22.7652 Z -1.0000 I 0.7255 J -0.1841
G02 X 26.9232 Y 22.7834 Z -1.0000 I 0.2088 J -0.0641
G03 X 26.9292 Y 22.8017 Z -1.0000 I -0.1348 J 0.0545
G03 X 26.9369 Y 22.8372 Z -1.0000 I -0.4817 J 0.1236
G02 X 26.9483 Y 22.8946 Z -1.0000 I 1.6150 J -0.2909
G02 X 26.9613 Y 22.9493 Z -1.0000 I 1.4771 J -0.3209
G03 X 26.9703 Y 22.9990 Z -1.0000 I -0.3331 J 0.0858
G03 X 26.9703 Y 23.0344 Z -1.0000 I -0.1692 J 0.0179
G01 X 26.9741 Y 23.0518 Z -1.0000
G01 X 26.9807 Y 23.0522 Z -1.0000
G01 X 26.9867 Y 23.0527 Z -1.0000
G01 X 26.9891 Y 23.0680 Z -1.0000
G02 X 26.9885 Y 23.1003 Z -1.0000 I 0.1076 J 0.0183
G01 X 26.9953 Y 23.1160 Z -1.0000
G01 X 26.9988 Y 23.1293 Z -1.0000
G01 X 26.9902 Y 23.1427 Z -1.0000
G01 X 26.9843 Y 23.1561 Z -1.0000
G01 X 26.9940 Y 23.1772 Z -1.0000
G03 X 27.0091 Y 23.2018 Z -1.0000 I -0.0515 J 0.0484
G03 X 27.0165 Y 23.2400 Z -1.0000 I -0.1218 J 0.0436
G03 X 27.0140 Y 23.2766 Z -1.0000 I -0.1638 J 0.0068
G01 X 27.0090 Y 23.2807 Z -1.0000
G01 X 27.0105 Y 23.2914 Z -1.0000
G01 X 27.0175 Y 23.3037 Z -1.0000
G03 X 27.0214 Y 23.3340 Z -1.0000 I -0.1204 J 0.0308
G01 X 27.0288 Y 23.3543 Z -1.0000
G01 X 27.0342 Y 23.3946 Z -1.0000
G02 X 27.0356 Y 23.4453 Z -1.0000 I 0.3831 J 0.0148
G01 X 27.0400 Y 23.4560 Z -1.0000
G01 X 27.0444 Y 23.4669 Z -1.0000
G03 X 27.0516 Y 23.5680 Z -1.0000 I -1.4936 J 0.1566
G02 X 27.0580 Y 23.6702 Z -1.0000 I 2.0579 J -0.0767
G02 X 27.0656 Y 23.7287 Z -1.0000 I 0.6780 J -0.0591
G03 X 27.0853 Y 23.9026 Z -1.0000 I -1.4334 J 0.2501
G01 X 27.0757 Y 23.9209 Z -1.0000
G01 X 27.0720 Y 23.9277 Z -1.0000
G02 X 27.0760 Y 23.9550 Z -1.0000 I 0.0994 J -0.0008
G03 X 27.1035 Y 24.1003 Z -1.0000 I -0.7029 J 0.2080
G03 X 27.0917 Y 24.1379 Z -1.0000 I -0.0516 J 0.0044
G01 X 27.0867 Y 24.1502 Z -1.0000
G01 X 27.0901 Y 24.1572 Z -1.0000
G01 X 27.0953 Y 24.1655 Z -1.0000
G03 X 27.1008 Y 24.2528 Z -1.0000 I -0.8796 J 0.0998
G02 X 27.1029 Y 24.3424 Z -1.0000 I 6.0038 J -0.0904
G02 X 27.1060 Y 24.4273 Z -1.0000 I 5.6781 J -0.1703
G03 X 27.1063 Y 24.5103 Z -1.0000 I -0.9827 J 0.0442
G01 X 27.1024 Y 24.5169 Z -1.0000
G01 X 27.0989 Y 24.5233 Z -1.0000
G02 X 27.1019 Y 24.5574 Z -1.0000 I 0.1706 J 0.0019
G01 X 27.1099 Y 24.5770 Z -1.0000
G01 X 27.1139 Y 24.5665 Z -1.0000
G01 X 27.1186 Y 24.5656 Z -1.0000
G01 X 27.1290 Y 24.5898 Z -1.0000
G03 X 27.0969 Y 24.6703 Z -1.0000 I -0.2455 J -0.0512
G01 X 27.0951 Y 24.6802 Z -1.0000
G02 X 27.1027 Y 24.7022 Z -1.0000 I 0.0740 J -0.0135
G03 X 27.1091 Y 24.7230 Z -1.0000 I -0.0503 J 0.0268
G01 X 27.1057 Y 24.7305 Z -1.0000
G01 X 27.1007 Y 24.7386 Z -1.0000
G02 X 27.0957 Y 24.8038 Z -1.0000 I 0.5345 J 0.0742
G03 X 27.0937 Y 24.8709 Z -1.0000 I -2.7352 J -0.0493
G03 X 27.0921 Y 24.8889 Z -1.0000 I -0.2038 J -0.0087
G02 X 27.0919 Y 24.9067 Z -1.0000 I 0.0745 J 0.0098
G02 X 27.0961 Y 24.9259 Z -1.0000 I 0.0893 J -0.0095
G01 X 27.0954 Y 24.9411 Z -1.0000
G01 X 27.0861 Y 24.9492 Z -1.0000
G01 X 27.0771 Y 24.9592 Z -1.0000
G02 X 27.0701 Y 25.0534 Z -1.0000 I 0.5982 J 0.0915
G01 X 27.0661 Y 25.1532 Z -1.0000
G01 X 27.0635 Y 25.1553 Z -1.0000
G02 X 27.0603 Y 25.1756 Z -1.0000 I 0.1015 J 0.0263
G01 X 27.0628 Y 25.1915 Z -1.0000
G01 X 27.0670 Y 25.1930 Z -1.0000
G01 X 27.0723 Y 25.1928 Z -1.0000
G01 X 27.0750 Y 25.1975 Z -1.0000
G01 X 27.0692 Y 25.2058 Z -1.0000
G01 X 27.0459 Y 25.2080 Z -1.0000
G01 X 27.0360 Y 25.2182 Z -1.0000
G01 X 27.0512 Y 25.2365 Z -1.0000
G01 X 27.0708 Y 25.2652 Z -1.0000
G01 X 27.0509 Y 25.2814 Z -1.0000
G01 X 27.0465 Y 25.2845 Z -1.0000
G02 X 27.0430 Y 25.3381 Z -1.0000 I 0.3608 J 0.0502
G03 X 27.0375 Y 25.3934 Z -1.0000 I -0.2506 J 0.0028
G01 X 27.0280 Y 25.4080 Z -1.0000
G01 X 27.0179 Y 25.4276 Z -1.0000
G01 X 27.0277 Y 25.4367 Z -1.0000
G01 X 27.0393 Y 25.4403 Z -1.0000
G01 X 27.0464 Y 25.4522 Z -1.0000
G01 X 27.0452 Y 25.4622 Z -1.0000
G01 X 27.0410 Y 25.4634 Z -1.0000
G01 X 27.0340 Y 25.4633 Z -1.0000
G01 X 27.0271 Y 25.4712 Z -1.0000
G01 X 27.0280 Y 25.4822 Z -1.0000
G01 X 27.0410 Y 25.4946 Z -1.0000
G01 X 27.0488 Y 25.5049 Z -1.0000
G01 X 27.0451 Y 25.5131 Z -1.0000
G01 X 27.0337 Y 25.5236 Z -1.0000
G01 X 27.0302 Y 25.5350 Z -1.0000
G01 X 27.0271 Y 25.5430 Z -1.0000
G01 X 27.0223 Y 25.5436 Z -1.0000
G01 X 27.0078 Y 25.5486 Z -1.0000
G02 X 26.9909 Y 25.6287 Z -1.0000 I 0.2632 J 0.0971
G03 X 26.9805 Y 25.6932 Z -1.0000 I -0.3270 J -0.0197
G01 X 26.9720 Y 25.6998 Z -1.0000
G01 X 26.9617 Y 25.7029 Z -1.0000
G01 X 26.9586 Y 25.7088 Z -1.0000
G01 X 26.9615 Y 25.7148 Z -1.0000
G01 X 26.9698 Y 25.7179 Z -1.0000
G01 X 26.9687 Y 25.7259 Z -1.0000
G01 X 26.9615 Y 25.7349 Z -1.0000
G01 X 26.9625 Y 25.7436 Z -1.0000
G01 X 26.9621 Y 25.7499 Z -1.0000
G01 X 26.9541 Y 25.7536 Z -1.0000
G01 X 26.9462 Y 25.7585 Z -1.0000
G01 X 26.9451 Y 25.7713 Z -1.0000
G01 X 26.9459 Y 25.7888 Z -1.0000
G03 X 26.9322 Y 25.8307 Z -1.0000 I -0.2104 J -0.0455
G02 X 26.9232 Y 25.8641 Z -1.0000 I 0.1041 J 0.0461
G01 X 26.9283 Y 25.8656 Z -1.0000
G01 X 26.9415 Y 25.8388 Z -1.0000
G01 X 26.9369 Y 25.8738 Z -1.0000
G02 X 26.9385 Y 25.9064 Z -1.0000 I 0.0917 J 0.0118
G01 X 26.9476 Y 25.9206 Z -1.0000
G01 X 26.9478 Y 25.9272 Z -1.0000
G01 X 26.9334 Y 25.9325 Z -1.0000
G02 X 26.9106 Y 25.9367 Z -1.0000 I 0.0007 J 0.0686
G01 X 26.9090 Y 25.9413 Z -1.0000
G01 X 26.9132 Y 25.9792 Z -1.0000
G01 X 26.8904 Y 25.9955 Z -1.0000
G01 X 26.8810 Y 25.9985 Z -1.0000
G01 X 26.8779 Y 26.0045 Z -1.0000
G01 X 26.8805 Y 26.0108 Z -1.0000
G01 X 26.8869 Y 26.0135 Z -1.0000
G01 X 26.8988 Y 26.0254 Z -1.0000
G01 X 26.8870 Y 26.0419 Z -1.0000
G01 X 26.8818 Y 26.0476 Z -1.0000
G02 X 26.8761 Y 26.0919 Z -1.0000 I 0.2550 J 0.0555
G03 X 26.8709 Y 26.1358 Z -1.0000 I -0.2979 J -0.0127
G01 X 26.8671 Y 26.1389 Z -1.0000
G01 X 26.8629 Y 26.1418 Z -1.0000
G01 X 26.8601 Y 26.1561 Z -1.0000
G01 X 26.8565 Y 26.1708 Z -1.0000
G01 X 26.8489 Y 26.1778 Z -1.0000
G01 X 26.8457 Y 26.1833 Z -1.0000
G01 X 26.8508 Y 26.1915 Z -1.0000
G01 X 26.8555 Y 26.2015 Z -1.0000
G01 X 26.8487 Y 26.2174 Z -1.0000
G01 X 26.8406 Y 26.2340 Z -1.0000
G01 X 26.8440 Y 26.2446 Z -1.0000
G01 X 26.8426 Y 26.2554 Z -1.0000
G01 X 26.8251 Y 26.2558 Z -1.0000
G01 X 26.8121 Y 26.2553 Z -1.0000
G01 X 26.8064 Y 26.2640 Z -1.0000
G01 X 26.8104 Y 26.2783 Z -1.0000
G01 X 26.8176 Y 26.2824 Z -1.0000
G01 X 26.8211 Y 26.2850 Z -1.0000
G01 X 26.8198 Y 26.2891 Z -1.0000
G01 X 26.8115 Y 26.3015 Z -1.0000
G02 X 26.8046 Y 26.3505 Z -1.0000 I 0.2346 J 0.0581
G01 X 26.7973 Y 26.3724 Z -1.0000
G01 X 26.7870 Y 26.3759 Z -1.0000
G01 X 26.7741 Y 26.3755 Z -1.0000
G01 X 26.7705 Y 26.3802 Z -1.0000
G01 X 26.7732 Y 26.3871 Z -1.0000
G01 X 26.7792 Y 26.3898 Z -1.0000
G01 X 26.7833 Y 26.3929 Z -1.0000
G01 X 26.7827 Y 26.4031 Z -1.0000
G01 X 26.7759 Y 26.4115 Z -1.0000
G01 X 26.7695 Y 26.4115 Z -1.0000
G01 X 26.7651 Y 26.4129 Z -1.0000
G01 X 26.7615 Y 26.4295 Z -1.0000
G01 X 26.7565 Y 26.4475 Z -1.0000
G01 X 26.7477 Y 26.4524 Z -1.0000
G01 X 26.7396 Y 26.4582 Z -1.0000
G02 X 26.7343 Y 26.4905 Z -1.0000 I 0.0888 J 0.0313
G03 X 26.7253 Y 26.5504 Z -1.0000 I -0.1891 J 0.0022
G01 X 26.7108 Y 26.5640 Z -1.0000
G01 X 26.6951 Y 26.5736 Z -1.0000
G01 X 26.6887 Y 26.5893 Z -1.0000
G03 X 26.6802 Y 26.6489 Z -1.0000 I -0.3503 J -0.0198
G01 X 26.6731 Y 26.6566 Z -1.0000
G01 X 26.6660 Y 26.6623 Z -1.0000
G01 X 26.6630 Y 26.6727 Z -1.0000
G01 X 26.6599 Y 26.6823 Z -1.0000
G01 X 26.6540 Y 26.6854 Z -1.0000
G01 X 26.6479 Y 26.6882 Z -1.0000
G01 X 26.6450 Y 26.6959 Z -1.0000
G01 X 26.6425 Y 26.7055 Z -1.0000
G03 X 26.6305 Y 26.7224 Z -1.0000 I -0.0769 J -0.0420
G01 X 26.6215 Y 26.7394 Z -1.0000
G01 X 26.6228 Y 26.7545 Z -1.0000
G03 X 26.6312 Y 26.7919 Z -1.0000 I -0.0991 J 0.0422
G01 X 26.6246 Y 26.7959 Z -1.0000
G01 X 26.6224 Y 26.8187 Z -1.0000
G01 X 26.6217 Y 26.8411 Z -1.0000
G01 X 26.6144 Y 26.8467 Z -1.0000
G01 X 26.6036 Y 26.8552 Z -1.0000
G01 X 26.6099 Y 26.8663 Z -1.0000
G01 X 26.6120 Y 26.8714 Z -1.0000
G03 X 26.5964 Y 26.8944 Z -1.0000 I -0.0837 J -0.0402
G02 X 26.5757 Y 26.9202 Z -1.0000 I 0.1700 J 0.1576
G01 X 26.5734 Y 26.9278 Z -1.0000
G01 X 26.5703 Y 26.9332 Z -1.0000
G01 X 26.5596 Y 26.9363 Z -1.0000
G01 X 26.5488 Y 26.9402 Z -1.0000
G01 X 26.5409 Y 26.9519 Z -1.0000
G03 X 26.5353 Y 26.9674 Z -1.0000 I -0.2129 J -0.0693
G03 X 26.5259 Y 26.9884 Z -1.0000 I -0.3567 J -0.1459
G01 X 26.5227 Y 27.0072 Z -1.0000
G01 X 26.5290 Y 27.0173 Z -1.0000
G01 X 26.5313 Y 27.0225 Z -1.0000
G01 X 26.5274 Y 27.0257 Z -1.0000
G01 X 26.5162 Y 27.0302 Z -1.0000
G01 X 26.5081 Y 27.0438 Z -1.0000
G01 X 26.5092 Y 27.0573 Z -1.0000
G01 X 26.5160 Y 27.0617 Z -1.0000
G01 X 26.5250 Y 27.0653 Z -1.0000
G01 X 26.5286 Y 27.0739 Z -1.0000
G01 X 26.5240 Y 27.0805 Z -1.0000
G01 X 26.5066 Y 27.0819 Z -1.0000
G01 X 26.4921 Y 27.0880 Z -1.0000
G02 X 26.4786 Y 27.1238 Z -1.0000 I 0.0700 J 0.0469
G03 X 26.4659 Y 27.1613 Z -1.0000 I -0.1013 J -0.0134
G01 X 26.4536 Y 27.1674 Z -1.0000
G01 X 26.4390 Y 27.1700 Z -1.0000
G01 X 26.4338 Y 27.1782 Z -1.0000
G01 X 26.4260 Y 27.1956 Z -1.0000
G01 X 26.4166 Y 27.1961 Z -1.0000
G01 X 26.4062 Y 27.1914 Z -1.0000
G01 X 26.4032 Y 27.1940 Z -1.0000
G01 X 26.4060 Y 27.2011 Z -1.0000
G01 X 26.4166 Y 27.2083 Z -1.0000
G01 X 26.4256 Y 27.2164 Z -1.0000
G01 X 26.4293 Y 27.2339 Z -1.0000
G01 X 26.4241 Y 27.2431 Z -1.0000
G01 X 26.4131 Y 27.2405 Z -1.0000
G01 X 26.3989 Y 27.2655 Z -1.0000
G03 X 26.3903 Y 27.2980 Z -1.0000 I -0.2301 J -0.0436
G01 X 26.3835 Y 27.3102 Z -1.0000
G01 X 26.3783 Y 27.3219 Z -1.0000
G01 X 26.3797 Y 27.3353 Z -1.0000
G01 X 26.3768 Y 27.3442 Z -1.0000
G01 X 26.3723 Y 27.3454 Z -1.0000
G01 X 26.3698 Y 27.3571 Z -1.0000
G02 X 26.3734 Y 27.3728 Z -1.0000 I 0.0524 J -0.0039
G01 X 26.3771 Y 27.3752 Z -1.0000
G01 X 26.3798 Y 27.3779 Z -1.0000
G03 X 26.3770 Y 27.4044 Z -1.0000 I -0.1361 J -0.0008
G03 X 26.3662 Y 27.4280 Z -1.0000 I -0.0559 J -0.0114
G01 X 26.3535 Y 27.4348 Z -1.0000
G02 X 26.3317 Y 27.4415 Z -1.0000 I 0.0038 J 0.0512
G01 X 26.3315 Y 27.4474 Z -1.0000
G01 X 26.3150 Y 27.4524 Z -1.0000
G03 X 26.2867 Y 27.4449 Z -1.0000 I 0.0167 J -0.1196
G03 X 26.2695 Y 27.4341 Z -1.0000 I 0.0215 J -0.0534
G02 X 26.2527 Y 27.4231 Z -1.0000 I -0.0443 J 0.0488
G01 X 26.2390 Y 27.4201 Z -1.0000
G01 X 26.2322 Y 27.4111 Z -1.0000
G03 X 26.2509 Y 27.3780 Z -1.0000 I 0.0776 J 0.0221
G02 X 26.2733 Y 27.3469 Z -1.0000 I -0.1083 J -0.1015
G01 X 26.2696 Y 27.3434 Z -1.0000
G01 X 26.2630 Y 27.3440 Z -1.0000
G01 X 26.2581 Y 27.3388 Z -1.0000
G01 X 26.2538 Y 27.3378 Z -1.0000
G02 X 26.2314 Y 27.3650 Z -1.0000 I 0.1158 J 0.1178
G02 X 26.2173 Y 27.4007 Z -1.0000 I 0.0800 J 0.0524
G01 X 26.2216 Y 27.4204 Z -1.0000
G01 X 26.2224 Y 27.4284 Z -1.0000
G01 X 26.2171 Y 27.4302 Z -1.0000
G01 X 26.2017 Y 27.4277 Z -1.0000
G01 X 26.1936 Y 27.4345 Z -1.0000
G01 X 26.1922 Y 27.4572 Z -1.0000
G01 X 26.2020 Y 27.4683 Z -1.0000
G01 X 26.2103 Y 27.4669 Z -1.0000
G01 X 26.2132 Y 27.4590 Z -1.0000
G01 X 26.2166 Y 27.4490 Z -1.0000
G01 X 26.2315 Y 27.4427 Z -1.0000
G03 X 26.2885 Y 27.4632 Z -1.0000 I 0.0059 J 0.0728
G03 X 26.3136 Y 27.5229 Z -1.0000 I -0.0583 J 0.0597
G01 X 26.3075 Y 27.5322 Z -1.0000
G01 X 26.2961 Y 27.5304 Z -1.0000
G02 X 26.2601 Y 27.5118 Z -1.0000 I -0.0577 J 0.0673
G01 X 26.2509 Y 27.5190 Z -1.0000
G01 X 26.2534 Y 27.5254 Z -1.0000
G02 X 26.2700 Y 27.5401 Z -1.0000 I 0.0740 J -0.0671
G01 X 26.2844 Y 27.5687 Z -1.0000
G01 X 26.2689 Y 27.5770 Z -1.0000
G01 X 26.2628 Y 27.5767 Z -1.0000
G01 X 26.2599 Y 27.5811 Z -1.0000
G01 X 26.2565 Y 27.5886 Z -1.0000
G03 X 26.2375 Y 27.6010 Z -1.0000 I -0.0507 J -0.0570
G02 X 26.2199 Y 27.6143 Z -1.0000 I 0.0209 J 0.0459
G01 X 26.2151 Y 27.6274 Z -1.0000
G01 X 26.2106 Y 27.6370 Z -1.0000
G01 X 26.2015 Y 27.6384 Z -1.0000
G01 X 26.1886 Y 27.6372 Z -1.0000
G01 X 26.1761 Y 27.6431 Z -1.0000
G01 X 26.1643 Y 27.6502 Z -1.0000
G01 X 26.1605 Y 27.6495 Z -1.0000
G01 X 26.1570 Y 27.6492 Z -1.0000
G02 X 26.1439 Y 27.6601 Z -1.0000 I 0.0342 J 0.0543
G01 X 26.1431 Y 27.6668 Z -1.0000
G01 X 26.1492 Y 27.6694 Z -1.0000
G01 X 26.1652 Y 27.6705 Z -1.0000
G01 X 26.1779 Y 27.6813 Z -1.0000
G01 X 26.1807 Y 27.6937 Z -1.0000
G01 X 26.1758 Y 27.6980 Z -1.0000
G01 X 26.1638 Y 27.7000 Z -1.0000
G02 X 26.1381 Y 27.7111 Z -1.0000 I 0.0644 J 0.1850
G03 X 26.1136 Y 27.7182 Z -1.0000 I -0.0303 J -0.0587
G01 X 26.1010 Y 27.7143 Z -1.0000
G01 X 26.0968 Y 27.7039 Z -1.0000
G01 X 26.1040 Y 27.6880 Z -1.0000
G01 X 26.1097 Y 27.6737 Z -1.0000
G01 X 26.1045 Y 27.6660 Z -1.0000
G01 X 26.0988 Y 27.6586 Z -1.0000
G01 X 26.1026 Y 27.6479 Z -1.0000
G01 X 26.1133 Y 27.6445 Z -1.0000
G01 X 26.1153 Y 27.6502 Z -1.0000
G01 X 26.1129 Y 27.6583 Z -1.0000
G01 X 26.1164 Y 27.6606 Z -1.0000
G01 X 26.1264 Y 27.6536 Z -1.0000
G01 X 26.1300 Y 27.6435 Z -1.0000
G01 X 26.1327 Y 27.6315 Z -1.0000
G03 X 26.1457 Y 27.6086 Z -1.0000 I 0.1254 J 0.0563
G01 X 26.1542 Y 27.5848 Z -1.0000
G01 X 26.1478 Y 27.5815 Z -1.0000
G01 X 26.1384 Y 27.5840 Z -1.0000
G01 X 26.1344 Y 27.5792 Z -1.0000
G01 X 26.1386 Y 27.5690 Z -1.0000
G01 X 26.1523 Y 27.5610 Z -1.0000
G01 X 26.1635 Y 27.5528 Z -1.0000
G01 X 26.1646 Y 27.5415 Z -1.0000
G01 X 26.1659 Y 27.5303 Z -1.0000
G01 X 26.1780 Y 27.5217 Z -1.0000
G01 X 26.1923 Y 27.5130 Z -1.0000
G01 X 26.1971 Y 27.5004 Z -1.0000
G01 X 26.1867 Y 27.4858 Z -1.0000
G01 X 26.1691 Y 27.4905 Z -1.0000
G02 X 26.1191 Y 27.5678 Z -1.0000 I 0.2594 J 0.2221
G02 X 26.1148 Y 27.6063 Z -1.0000 I 0.0547 J 0.0256
G01 X 26.1131 Y 27.6153 Z -1.0000
G01 X 26.1036 Y 27.6229 Z -1.0000
G02 X 26.0638 Y 27.6586 Z -1.0000 I 0.0269 J 0.0701
G02 X 26.0576 Y 27.7121 Z -1.0000 I 0.0678 J 0.0350
G01 X 26.0657 Y 27.7286 Z -1.0000
G01 X 26.0713 Y 27.7296 Z -1.0000
G01 X 26.0784 Y 27.7287 Z -1.0000
G01 X 26.0850 Y 27.7337 Z -1.0000
G01 X 26.0841 Y 27.7392 Z -1.0000
G01 X 26.0736 Y 27.7428 Z -1.0000
G01 X 26.0596 Y 27.7381 Z -1.0000
G01 X 26.0476 Y 27.7229 Z -1.0000
G01 X 26.0383 Y 27.7207 Z -1.0000
G02 X 26.0160 Y 27.7484 Z -1.0000 I 0.0526 J 0.0653
G03 X 25.9915 Y 27.7927 Z -1.0000 I -0.5801 J -0.2915
G03 X 25.9652 Y 27.8323 Z -1.0000 I -0.4885 J -0.2952
G02 X 25.9393 Y 27.8716 Z -1.0000 I 0.4412 J 0.3197
G01 X 25.9373 Y 27.8789 Z -1.0000
G01 X 25.9351 Y 27.8861 Z -1.0000
G03 X 25.9185 Y 27.9067 Z -1.0000 I -0.1369 J -0.0930
G02 X 25.9013 Y 27.9275 Z -1.0000 I 0.1397 J 0.1326
G02 X 25.8916 Y 27.9444 Z -1.0000 I 0.0814 J 0.0580
G03 X 25.8577 Y 28.0043 Z -1.0000 I -0.3496 J -0.1580
G03 X 25.8077 Y 28.0658 Z -1.0000 I -0.4162 J -0.2874
G02 X 25.7963 Y 28.0810 Z -1.0000 I 0.0604 J 0.0572
G02 X 25.7815 Y 28.1106 Z -1.0000 I 0.2152 J 0.1260
G03 X 25.7657 Y 28.1395 Z -1.0000 I -0.1459 J -0.0610
G03 X 25.7449 Y 28.1637 Z -1.0000 I -0.1234 J -0.0852
G02 X 25.7229 Y 28.1875 Z -1.0000 I 0.1562 J 0.1667
G02 X 25.7017 Y 28.2175 Z -1.0000 I 0.2300 J 0.1846
G03 X 25.6811 Y 28.2481 Z -1.0000 I -0.3865 J -0.2380
G03 X 25.6606 Y 28.2735 Z -1.0000 I -0.2858 J -0.2097
G02 X 25.6400 Y 28.2987 Z -1.0000 I 0.3212 J 0.2847
G02 X 25.6291 Y 28.3151 Z -1.0000 I 0.1238 J 0.0940
G03 X 25.6181 Y 28.3314 Z -1.0000 I -0.1200 J -0.0689
G03 X 25.5475 Y 28.4194 Z -1.0000 I -3.6430 J -2.8486
G02 X 25.4769 Y 28.5074 Z -1.0000 I 3.7447 J 3.0785
G02 X 25.4467 Y 28.5480 Z -1.0000 I 0.7657 J 0.6002
G03 X 25.4162 Y 28.5882 Z -1.0000 I -0.5584 J -0.3927
G03 X 25.4052 Y 28.5987 Z -1.0000 I -0.0481 J -0.0394
G02 X 25.3939 Y 28.6090 Z -1.0000 I 0.0474 J 0.0632
G02 X 25.3447 Y 28.6659 Z -1.0000 I 1.3555 J 1.2201
G03 X 24.8157 Y 29.2466 Z -1.0000 I -6.3765 J -5.2788
G03 X 24.7256 Y 29.2838 Z -1.0000 I -0.0901 J -0.0903
G01 X 24.7213 Y 29.2854 Z -1.0000
G02 X 24.6905 Y 29.3130 Z -1.0000 I 0.3390 J 0.4086
G03 X 24.6233 Y 29.3746 Z -1.0000 I -1.1264 J -1.1611
G03 X 24.5535 Y 29.4317 Z -1.0000 I -1.0321 J -1.1915
G02 X 24.5308 Y 29.4504 Z -1.0000 I 0.2886 J 0.3728
G02 X 24.4949 Y 29.4832 Z -1.0000 I 0.8054 J 0.9165
G03 X 24.4588 Y 29.5147 Z -1.0000 I -0.3737 J -0.3925
G01 X 24.4526 Y 29.5169 Z -1.0000
G01 X 24.4462 Y 29.5190 Z -1.0000
G02 X 24.4172 Y 29.5416 Z -1.0000 I 0.2012 J 0.2885
G03 X 24.3675 Y 29.5827 Z -1.0000 I -0.9365 J -1.0818
G03 X 24.3408 Y 29.6019 Z -1.0000 I -0.2310 J -0.2925
G02 X 24.2938 Y 29.6346 Z -1.0000 I 0.5625 J 0.8581
G02 X 24.1866 Y 29.7158 Z -1.0000 I 3.3612 J 4.5514
G03 X 24.1601 Y 29.7353 Z -1.0000 I -0.3993 J -0.5144
G03 X 24.1446 Y 29.7451 Z -1.0000 I -0.1164 J -0.1666
G02 X 24.1290 Y 29.7547 Z -1.0000 I 0.1266 J 0.2228
G02 X 24.0201 Y 29.8281 Z -1.0000 I 7.9522 J 11.9167
G03 X 23.9111 Y 29.9007 Z -1.0000 I -3.5873 J -5.2711
G01 X 23.9065 Y 29.9020 Z -1.0000
G01 X 23.9021 Y 29.9034 Z -1.0000
G02 X 23.8676 Y 29.9289 Z -1.0000 I 0.3648 J 0.5295
G03 X 23.8329 Y 29.9535 Z -1.0000 I -0.2497 J -0.3152
G01 X 23.8251 Y 29.9558 Z -1.0000
G01 X 23.8172 Y 29.9579 Z -1.0000
G02 X 23.7816 Y 29.9810 Z -1.0000 I 0.2133 J 0.3687
G03 X 23.7462 Y 30.0053 Z -1.0000 I -0.5799 J -0.8054
G03 X 23.7332 Y 30.0127 Z -1.0000 I -0.0652 J -0.0993
G02 X 23.7200 Y 30.0198 Z -1.0000 I 0.0926 J 0.1892
G02 X 23.6615 Y 30.0543 Z -1.0000 I 2.1816 J 3.7577
G03 X 23.6028 Y 30.0885 Z -1.0000 I -1.2548 J -2.0856
G03 X 23.5630 Y 30.1099 Z -1.0000 I -0.5295 J -0.9385
G02 X 23.5237 Y 30.1319 Z -1.0000 I 0.2728 J 0.5346
G01 X 23.5137 Y 30.1399 Z -1.0000
G01 X 23.5036 Y 30.1477 Z -1.0000
G03 X 23.4555 Y 30.1709 Z -1.0000 I -0.3278 J -0.6165
G02 X 23.4069 Y 30.1938 Z -1.0000 I 0.3998 J 0.9142
G02 X 23.3838 Y 30.2070 Z -1.0000 I 0.1099 J 0.2184
G03 X 23.1336 Y 30.3482 Z -1.0000 I -1.2740 J -1.9661
G03 X 23.0094 Y 30.3889 Z -1.0000 I -0.2118 J -0.4359
G02 X 22.9946 Y 30.3934 Z -1.0000 I 0.0124 J 0.0672
G02 X 22.9165 Y 30.4291 Z -1.0000 I 0.8314 J 1.9205
G03 X 22.8387 Y 30.4651 Z -1.0000 I -1.1461 J -2.3752
G01 X 22.8321 Y 30.4665 Z -1.0000
G01 X 22.8255 Y 30.4678 Z -1.0000
G02 X 22.7618 Y 30.4942 Z -1.0000 I 0.6934 J 1.7607
G02 X 22.6984 Y 30.5219 Z -1.0000 I 222.0232 J 508.6754
G02 X 22.6715 Y 30.5336 Z -1.0000 I 40.3663 J 92.4388
G03 X 22.6442 Y 30.5440 Z -1.0000 I -0.1226 J -0.2804
G03 X 22.6018 Y 30.5564 Z -1.0000 I -0.2170 J -0.6627
G02 X 22.5608 Y 30.5698 Z -1.0000 I 0.0880 J 0.3401
G01 X 22.5543 Y 30.5752 Z -1.0000
G01 X 22.5479 Y 30.5801 Z -1.0000
G03 X 22.5284 Y 30.5830 Z -1.0000 I -0.0196 J -0.0656
G02 X 22.5091 Y 30.5858 Z -1.0000 I 0.0000 J 0.0681
G01 X 22.5043 Y 30.5901 Z -1.0000
G01 X 22.4993 Y 30.5950 Z -1.0000
G03 X 22.4206 Y 30.6230 Z -1.0000 I -0.4695 J -1.1926
G02 X 22.3403 Y 30.6496 Z -1.0000 I 1.3624 J 4.2546
G02 X 22.3266 Y 30.6551 Z -1.0000 I 0.0444 J 0.1302
G03 X 22.2749 Y 30.6747 Z -1.0000 I -0.1558 J -0.3335
G03 X 22.1160 Y 30.7172 Z -1.0000 I -0.9213 J -3.1249
G02 X 22.0715 Y 30.7290 Z -1.0000 I 0.2313 J 0.9611
G02 X 22.0533 Y 30.7354 Z -1.0000 I 0.0489 J 0.1684
G03 X 21.9981 Y 30.7546 Z -1.0000 I -0.1895 J -0.4570
G03 X 21.8651 Y 30.7885 Z -1.0000 I -0.7377 J -2.6159
G02 X 21.8204 Y 30.7988 Z -1.0000 I 1.9029 J 8.3432
G02 X 21.7621 Y 30.8125 Z -1.0000 I 3.5339 J 15.1189
G03 X 21.5894 Y 30.8512 Z -1.0000 I -1.5727 J -6.6126
G03 X 21.4888 Y 30.8701 Z -1.0000 I -0.4680 J -2.2234
G02 X 21.4441 Y 30.8779 Z -1.0000 I 0.3511 J 2.1413
G02 X 21.4216 Y 30.8825 Z -1.0000 I 0.1013 J 0.5461
G03 X 21.2626 Y 30.9128 Z -1.0000 I -0.4934 J -2.1558
G03 X 20.9826 Y 30.9497 Z -1.0000 I -1.0179 J -6.6545
G03 X 20.8974 Y 30.9580 Z -1.0000 I -0.3810 J -3.4565
G03 X 20.7631 Y 30.9684 Z -1.0000 I -0.7298 J -8.5475
G02 X 20.6287 Y 30.9780 Z -1.0000 I 2.7063 J 38.9202
G02 X 20.5660 Y 30.9828 Z -1.0000 I 0.6415 J 8.7874
G03 X 20.3068 Y 30.9931 Z -1.0000 I -0.2567 J -3.2000
G03 X 19.8582 Y 30.9822 Z -1.0000 I 0.0076 J -9.6047
G03 X 19.4984 Y 30.9556 Z -1.0000 I 0.3258 J -6.8575
G03 X 19.2310 Y 30.9193 Z -1.0000 I 0.3838 J -3.8242
G02 X 19.1503 Y 30.9064 Z -1.0000 I -0.6124 J 3.5645
G02 X 19.1011 Y 30.9000 Z -1.0000 I -0.1934 J 1.3016
G03 X 19.0521 Y 30.8929 Z -1.0000 I 0.0799 J -0.7237
G03 X 18.9488 Y 30.8726 Z -1.0000 I 0.5824 J -3.2390
G02 X 18.8457 Y 30.8512 Z -1.0000 I -1.9585 J 9.1929
G02 X 18.7741 Y 30.8374 Z -1.0000 I -0.8890 J 4.4153
G03 X 18.7027 Y 30.8232 Z -1.0000 I 0.4720 J -2.5556
G03 X 18.6666 Y 30.8144 Z -1.0000 I 0.1400 J -0.6549
G02 X 18.6306 Y 30.8053 Z -1.0000 I -0.2652 J 0.9734
G02 X 18.6173 Y 30.8029 Z -1.0000 I -0.0304 J 0.1301
G03 X 18.6041 Y 30.8003 Z -1.0000 I 0.0125 J -0.0975
G03 X 18.5904 Y 30.7957 Z -1.0000 I 0.0299 J -0.1102
G02 X 18.5767 Y 30.7912 Z -1.0000 I -0.0355 J 0.0859
G02 X 18.5238 Y 30.7796 Z -1.0000 I -0.3042 J 1.2650
G03 X 18.4712 Y 30.7674 Z -1.0000 I 0.1546 J -0.7856
G03 X 18.4566 Y 30.7616 Z -1.0000 I 0.0176 J -0.0656
G02 X 18.4420 Y 30.7555 Z -1.0000 I -0.0382 J 0.0710
G02 X 18.3844 Y 30.7395 Z -1.0000 I -0.3395 J 1.1080
G03 X 18.3004 Y 30.7175 Z -1.0000 I 0.9416 J -3.7555
G03 X 18.1738 Y 30.6817 Z -1.0000 I 2.3566 J -8.5791
G03 X 17.9744 Y 30.6178 Z -1.0000 I 1.0855 J -3.7349
G03 X 17.8199 Y 30.5578 Z -1.0000 I 0.8062 J -2.3035
G02 X 17.7973 Y 30.5487 Z -1.0000 I -0.2171 J 0.5067
G02 X 17.7080 Y 30.5156 Z -1.0000 I -3.0124 J 7.9862
G03 X 17.6198 Y 30.4812 Z -1.0000 I 0.7356 J -2.0177
G01 X 17.6139 Y 30.4765 Z -1.0000
G01 X 17.6081 Y 30.4717 Z -1.0000
G02 X 17.5646 Y 30.4536 Z -1.0000 I -0.2425 J 0.5219
G03 X 17.2390 Y 30.3133 Z -1.0000 I 1.1386 J -3.0906
G03 X 16.7672 Y 30.0578 Z -1.0000 I 3.3546 J -6.7600
G02 X 16.7224 Y 30.0315 Z -1.0000 I -33.4601 J 56.8827
G02 X 16.6922 Y 30.0138 Z -1.0000 I -15.2669 J 26.0007
G03 X 16.6623 Y 29.9956 Z -1.0000 I 0.4973 J -0.8490
G03 X 16.5902 Y 29.9491 Z -1.0000 I 3.1451 J -4.9561
G02 X 16.5178 Y 29.9040 Z -1.0000 I -1.0147 J 1.5485
G01 X 16.5106 Y 29.9020 Z -1.0000
G01 X 16.5053 Y 29.8996 Z -1.0000
G01 X 16.5028 Y 29.8930 Z -1.0000
G01 X 16.5001 Y 29.8868 Z -1.0000
G01 X 16.4931 Y 29.8840 Z -1.0000
G01 X 16.4843 Y 29.8814 Z -1.0000
G03 X 16.3445 Y 29.7877 Z -1.0000 I 2.9100 J -4.4914
G03 X 16.1445 Y 29.6432 Z -1.0000 I 3.6570 J -5.2738
G03 X 15.8801 Y 29.4385 Z -1.0000 I 7.0770 J -9.4111
G03 X 15.4620 Y 29.0727 Z -1.0000 I 3.8021 J -4.7680
G03 X 15.4366 Y 29.0133 Z -1.0000 I 0.0569 J -0.0593
G01 X 15.4339 Y 29.0088 Z -1.0000
G01 X 15.4227 Y 29.0060 Z -1.0000
G01 X 15.4135 Y 29.0033 Z -1.0000
G01 X 15.4125 Y 28.9993 Z -1.0000
G01 X 15.4118 Y 28.9934 Z -1.0000
G02 X 15.3777 Y 28.9612 Z -1.0000 I -0.2348 J 0.2146
G03 X 15.3422 Y 28.9284 Z -1.0000 I 0.2409 J -0.2962
G01 X 15.3386 Y 28.9202 Z -1.0000
G01 X 15.3350 Y 28.9125 Z -1.0000
G02 X 15.3157 Y 28.8985 Z -1.0000 I -0.0617 J 0.0651
G03 X 15.2958 Y 28.8850 Z -1.0000 I 0.0541 J -0.1011
G01 X 15.2933 Y 28.8796 Z -1.0000
G01 X 15.2910 Y 28.8737 Z -1.0000
G02 X 15.2514 Y 28.8341 Z -1.0000 I -0.4959 J 0.4559
G03 X 15.1161 Y 28.7005 Z -1.0000 I 1.8594 J -2.0188
G03 X 15.0114 Y 28.5801 Z -1.0000 I 1.4060 J -1.3289
G02 X 14.9754 Y 28.5361 Z -1.0000 I -1.9750 J 1.5797
G01 X 14.9704 Y 28.5312 Z -1.0000
G01 X 14.9655 Y 28.5262 Z -1.0000
G03 X 14.9173 Y 28.4649 Z -1.0000 I 3.2574 J -2.6083
G02 X 14.8694 Y 28.4031 Z -1.0000 I -10.0628 J 7.7563
G02 X 14.8578 Y 28.3887 Z -1.0000 I -0.5209 J 0.4066
G03 X 14.8462 Y 28.3742 Z -1.0000 I 0.5172 J -0.4255
G03 X 14.8189 Y 28.3386 Z -1.0000 I 2.8414 J -2.2086
G02 X 14.7915 Y 28.3029 Z -1.0000 I -2.6965 J 2.0425
G02 X 14.7820 Y 28.2912 Z -1.0000 I -0.3018 J 0.2349
G03 X 14.7251 Y 28.2186 Z -1.0000 I 0.9865 J -0.8323
G03 X 14.6274 Y 28.0788 Z -1.0000 I 3.5573 J -2.5899
G02 X 14.5672 Y 27.9892 Z -1.0000 I -64.8848 J 43.4892
G02 X 14.5461 Y 27.9578 Z -1.0000 I -9.2135 J 6.1938
G03 X 14.5251 Y 27.9262 Z -1.0000 I 1.6981 J -1.1498
G03 X 14.4820 Y 27.8593 Z -1.0000 I 7.4989 J -4.8780
G02 X 14.4381 Y 27.7930 Z -1.0000 I -2.0275 J 1.2930
G01 X 14.4329 Y 27.7876 Z -1.0000
G03 X 14.3978 Y 27.7469 Z -1.0000 I 0.0655 J -0.0919
G03 X 14.3839 Y 27.6919 Z -1.0000 I 0.1137 J -0.0580
G01 X 14.3812 Y 27.6823 Z -1.0000
G02 X 14.3651 Y 27.6605 Z -1.0000 I -0.1235 J 0.0739
G03 X 14.3316 Y 27.6133 Z -1.0000 I 0.1943 J -0.1734
G03 X 14.1329 Y 27.2410 Z -1.0000 I 12.0972 J -6.6976
G03 X 14.1128 Y 27.2004 Z -1.0000 I 1.3115 J -0.6750
G03 X 14.0796 Y 27.1290 Z -1.0000 I 4.0070 J -1.9089
G02 X 14.0469 Y 27.0574 Z -1.0000 I -95.8938 J 43.6412
G02 X 14.0305 Y 27.0215 Z -1.0000 I -16.9711 J 7.7388
G03 X 14.0145 Y 26.9856 Z -1.0000 I 2.1477 J -0.9807
G03 X 13.9895 Y 26.9275 Z -1.0000 I 4.4970 J -1.9634
G02 X 13.9648 Y 26.8693 Z -1.0000 I -8.8593 J 3.7368
G02 X 13.9482 Y 26.8312 Z -1.0000 I -3.8448 J 1.6516
G03 X 13.9327 Y 26.7930 Z -1.0000 I 0.6267 J -0.2760
G01 X 13.9314 Y 26.7859 Z -1.0000
G01 X 13.9300 Y 26.7788 Z -1.0000
G02 X 13.9090 Y 26.7321 Z -1.0000 I -0.8675 J 0.3617
G03 X 13.8881 Y 26.6853 Z -1.0000 I 0.7940 J -0.3830
G01 X 13.8866 Y 26.6778 Z -1.0000
G02 X 13.8813 Y 26.6504 Z -1.0000 I -0.0723 J 0.0000
G02 X 13.8412 Y 26.5666 Z -1.0000 I -0.7439 J 0.3040
G03 X 13.8347 Y 26.5501 Z -1.0000 I 0.0613 J -0.0338
G03 X 13.8270 Y 26.5106 Z -1.0000 I 0.3456 J -0.0880
G02 X 13.8191 Y 26.4732 Z -1.0000 I -0.2623 J 0.0357
G01 X 13.8156 Y 26.4705 Z -1.0000
G01 X 13.8066 Y 26.4642 Z -1.0000
G03 X 13.7832 Y 26.3812 Z -1.0000 I 0.5588 J -0.2020
G02 X 13.7755 Y 26.3506 Z -1.0000 I -0.3524 J 0.0722
G02 X 13.7698 Y 26.3364 Z -1.0000 I -0.0770 J 0.0229
G03 X 13.7510 Y 26.2901 Z -1.0000 I 0.2394 J -0.1240
G03 X 13.6941 Y 26.0853 Z -1.0000 I 4.7551 J -1.4309
G02 X 13.6790 Y 26.0271 Z -1.0000 I -8.5700 J 2.1940
G02 X 13.6669 Y 25.9822 Z -1.0000 I -3.7749 J 0.9938
G03 X 13.6348 Y 25.8623 Z -1.0000 I 7.4406 J -2.0545
G03 X 13.6310 Y 25.8434 Z -1.0000 I 0.1820 J -0.0471
G02 X 13.5971 Y 25.6555 Z -1.0000 I -3.3497 J 0.5069
G02 X 13.5812 Y 25.6059 Z -1.0000 I -0.2454 J 0.0514
G03 X 13.5706 Y 25.5712 Z -1.0000 I 0.1374 J -0.0607
G03 X 13.5229 Y 25.2744 Z -1.0000 I 10.2677 J -1.8027
G02 X 13.5187 Y 25.2476 Z -1.0000 I -1.4188 J 0.2112
G02 X 13.5130 Y 25.2162 Z -1.0000 I -1.4102 J 0.2373
G03 X 13.5053 Y 25.1671 Z -1.0000 I 0.8309 J -0.1564
G03 X 13.4982 Y 25.0997 Z -1.0000 I 1.5144 J -0.1938
G02 X 13.4938 Y 25.0505 Z -1.0000 I -6.5662 J 0.5573
G02 X 13.4799 Y 24.9026 Z -1.0000 I -39.8503 J 3.6835
G03 X 13.4690 Y 24.7549 Z -1.0000 I 3.3266 J -0.3191
G03 X 13.4709 Y 24.7267 Z -1.0000 I 0.1206 J -0.0062
G02 X 13.4718 Y 24.7005 Z -1.0000 I -0.0854 J -0.0160
G01 X 13.4670 Y 24.6929 Z -1.0000
G01 X 13.4616 Y 24.6838 Z -1.0000
G03 X 13.4541 Y 24.3740 Z -1.0000 I 9.6164 J -0.3882
G03 X 13.4578 Y 23.8712 Z -1.0000 I 16.2327 J -0.1315
G01 X 13.4658 Y 23.8633 Z -1.0000
G01 X 13.4683 Y 23.8611 Z -1.0000
G02 X 13.4709 Y 23.8252 Z -1.0000 I -0.2884 J -0.0387
G03 X 13.4724 Y 23.7872 Z -1.0000 I 0.6432 J 0.0070
G03 X 13.4781 Y 23.7244 Z -1.0000 I 1.5862 J 0.1113
G02 X 13.4838 Y 23.6617 Z -1.0000 I -1.9587 J -0.2101
G02 X 13.4843 Y 23.6415 Z -1.0000 I -0.1970 J -0.0148
G01 X 13.4868 Y 23.6245 Z -1.0000
G01 X 13.4911 Y 23.6214 Z -1.0000
G01 X 13.4948 Y 23.6178 Z -1.0000
G02 X 13.4943 Y 23.5484 Z -1.0000 I -0.6926 J -0.0298
G03 X 13.4949 Y 23.4836 Z -1.0000 I 0.4750 J -0.0276
G01 X 13.4995 Y 23.4813 Z -1.0000
G01 X 13.5048 Y 23.4792 Z -1.0000
G02 X 13.5133 Y 23.4266 Z -1.0000 I -0.2939 J -0.0744
G03 X 13.5292 Y 23.2763 Z -1.0000 I 2.2726 J 0.1652
G03 X 13.5606 Y 23.0883 Z -1.0000 I 3.5543 J 0.4969
G02 X 13.5654 Y 23.0613 Z -1.0000 I -0.6400 J -0.1256
G02 X 13.5696 Y 23.0301 Z -1.0000 I -1.0186 J -0.1558
G03 X 13.5750 Y 22.9991 Z -1.0000 I 0.3036 J 0.0370
G03 X 13.5820 Y 22.9763 Z -1.0000 I 0.1630 J 0.0371
G02 X 13.5888 Y 22.9535 Z -1.0000 I -0.1500 J -0.0572
G02 X 13.5948 Y 22.9181 Z -1.0000 I -0.3570 J -0.0783
G03 X 13.5998 Y 22.8824 Z -1.0000 I 0.7778 J 0.0908
G03 X 13.6084 Y 22.8340 Z -1.0000 I 1.5738 J 0.2576
G02 X 13.6175 Y 22.7857 Z -1.0000 I -3.0498 J -0.5975
G01 X 13.6178 Y 22.7819 Z -1.0000
G01 X 13.6282 Y 22.7845 Z -1.0000
G01 X 13.6328 Y 22.7830 Z -1.0000
G01 X 13.6335 Y 22.7717 Z -1.0000
G03 X 13.6322 Y 22.7525 Z -1.0000 I 0.0487 J -0.0129
G03 X 13.6412 Y 22.7100 Z -1.0000 I 0.2600 J 0.0328
G02 X 13.6509 Y 22.6677 Z -1.0000 I -0.3114 J -0.0934
G01 X 13.6497 Y 22.6565 Z -1.0000
G01 X 13.6492 Y 22.6466 Z -1.0000
G01 X 13.6540 Y 22.6401 Z -1.0000
G01 X 13.6593 Y 22.6330 Z -1.0000
G02 X 13.6626 Y 22.6084 Z -1.0000 I -0.0898 J -0.0245
G01 X 13.6683 Y 22.5874 Z -1.0000
G01 X 13.6783 Y 22.5814 Z -1.0000
G01 X 13.6836 Y 22.5765 Z -1.0000
G01 X 13.6788 Y 22.5695 Z -1.0000
G03 X 13.6824 Y 22.5391 Z -1.0000 I 0.1008 J -0.0035
G03 X 13.6931 Y 22.5071 Z -1.0000 I 0.2935 J 0.0806
G01 X 13.6974 Y 22.5015 Z -1.0000
G01 X 13.7110 Y 22.4811 Z -1.0000
G02 X 13.7434 Y 22.3316 Z -1.0000 I -1.4372 J -0.3898
G03 X 13.7533 Y 22.2945 Z -1.0000 I 0.1945 J 0.0319
G01 X 13.7595 Y 22.2885 Z -1.0000
G01 X 13.7647 Y 22.2831 Z -1.0000
G01 X 13.7642 Y 22.2724 Z -1.0000
G01 X 13.7646 Y 22.2632 Z -1.0000
G01 X 13.7702 Y 22.2596 Z -1.0000
G01 X 13.7756 Y 22.2553 Z -1.0000
G01 X 13.7754 Y 22.2367 Z -1.0000
G01 X 13.7756 Y 22.2145 Z -1.0000
G03 X 13.7953 Y 22.1628 Z -1.0000 I 0.2671 J 0.0719
G02 X 13.8182 Y 22.1106 Z -1.0000 I -0.5126 J -0.2566
G02 X 13.8558 Y 22.0042 Z -1.0000 I -2.0940 J -0.7993
G03 X 13.8927 Y 21.8977 Z -1.0000 I 2.7958 J 0.9092
G03 X 13.9003 Y 21.8833 Z -1.0000 I 0.0576 J 0.0212
G02 X 13.9223 Y 21.8413 Z -1.0000 I -0.1411 J -0.1006
G02 X 13.9304 Y 21.7996 Z -1.0000 I -0.1316 J -0.0474
G03 X 13.9400 Y 21.7671 Z -1.0000 I 0.0695 J 0.0028
G01 X 13.9496 Y 21.7670 Z -1.0000
G01 X 13.9542 Y 21.7667 Z -1.0000
G02 X 13.9630 Y 21.7396 Z -1.0000 I -0.0901 J -0.0439
G03 X 13.9735 Y 21.7031 Z -1.0000 I 0.1672 J 0.0284
G03 X 13.9866 Y 21.6827 Z -1.0000 I 0.0630 J 0.0261
G02 X 13.9990 Y 21.6635 Z -1.0000 I -0.0484 J -0.0451
G01 X 13.9992 Y 21.6529 Z -1.0000
G01 X 13.9989 Y 21.6442 Z -1.0000
G01 X 14.0027 Y 21.6413 Z -1.0000
G01 X 14.0081 Y 21.6381 Z -1.0000
G02 X 14.0166 Y 21.6144 Z -1.0000 I -0.0869 J -0.0447
G03 X 14.0256 Y 21.5947 Z -1.0000 I 0.0504 J 0.0112
G01 X 14.0323 Y 21.5935 Z -1.0000
G01 X 14.0360 Y 21.5922 Z -1.0000
G01 X 14.0359 Y 21.5836 Z -1.0000
G01 X 14.0355 Y 21.5678 Z -1.0000
G03 X 14.0657 Y 21.4916 Z -1.0000 I 0.6119 J 0.1989
G02 X 14.1002 Y 21.4153 Z -1.0000 I -2.0801 J -0.9838
G01 X 14.1017 Y 21.4078 Z -1.0000
G01 X 14.1035 Y 21.4006 Z -1.0000
G03 X 14.1286 Y 21.3577 Z -1.0000 I 0.6032 J 0.3237
G02 X 14.1529 Y 21.3146 Z -1.0000 I -0.4037 J -0.2560
G01 X 14.1554 Y 21.3036 Z -1.0000
G01 X 14.1584 Y 21.2949 Z -1.0000
G01 X 14.1644 Y 21.2919 Z -1.0000
G01 X 14.1707 Y 21.2892 Z -1.0000
G01 X 14.1734 Y 21.2821 Z -1.0000
G03 X 14.1817 Y 21.2452 Z -1.0000 I 0.0867 J -0.0000
G03 X 14.2159 Y 21.1920 Z -1.0000 I 0.2186 J 0.1030
G02 X 14.2265 Y 21.1762 Z -1.0000 I -0.0661 J -0.0556
G01 X 14.2305 Y 21.1638 Z -1.0000
G01 X 14.2343 Y 21.1513 Z -1.0000
G03 X 14.2423 Y 21.1383 Z -1.0000 I 0.0551 J 0.0255
G02 X 14.2510 Y 21.1255 Z -1.0000 I -0.0727 J -0.0586
G02 X 14.2667 Y 21.0949 Z -1.0000 I -0.3746 J -0.2105
G03 X 14.3364 Y 20.9639 Z -1.0000 I 1.1657 J 0.5371
G01 X 14.3502 Y 20.9579 Z -1.0000
G01 X 14.3570 Y 20.9557 Z -1.0000
G01 X 14.3643 Y 20.9422 Z -1.0000
G01 X 14.3632 Y 20.9323 Z -1.0000
G01 X 14.3585 Y 20.9309 Z -1.0000
G01 X 14.3746 Y 20.9018 Z -1.0000
G03 X 14.4022 Y 20.8678 Z -1.0000 I 0.4605 J 0.3450
G01 X 14.4082 Y 20.8634 Z -1.0000
G01 X 14.4129 Y 20.8589 Z -1.0000
G01 X 14.4153 Y 20.8473 Z -1.0000
G01 X 14.4185 Y 20.8351 Z -1.0000
G03 X 14.4646 Y 20.7585 Z -1.0000 I 1.0995 J 0.6099
G02 X 14.5121 Y 20.6824 Z -1.0000 I -1.8809 J -1.2259
G01 X 14.5139 Y 20.6759 Z -1.0000
G01 X 14.5162 Y 20.6699 Z -1.0000
G03 X 14.5318 Y 20.6559 Z -1.0000 I 0.0740 J 0.0666
G02 X 14.5468 Y 20.6415 Z -1.0000 I -0.0429 J -0.0599
G01 X 14.5497 Y 20.6331 Z -1.0000
G01 X 14.5523 Y 20.6241 Z -1.0000
G03 X 14.5856 Y 20.5752 Z -1.0000 I 0.5805 J 0.3594
G02 X 14.6190 Y 20.5264 Z -1.0000 I -0.5879 J -0.4386
G01 X 14.6217 Y 20.5176 Z -1.0000
G01 X 14.6247 Y 20.5092 Z -1.0000
G03 X 14.6532 Y 20.4770 Z -1.0000 I 0.2654 J 0.2059
G02 X 14.6800 Y 20.4450 Z -1.0000 I -0.1634 J -0.1642
G01 X 14.6812 Y 20.4367 Z -1.0000
G01 X 14.6820 Y 20.4284 Z -1.0000
G03 X 14.6976 Y 20.4095 Z -1.0000 I 0.0747 J 0.0456
G02 X 14.7155 Y 20.3900 Z -1.0000 I -0.1023 J -0.1117
G02 X 14.7508 Y 20.3400 Z -1.0000 I -0.6301 J -0.4835
G03 X 14.7860 Y 20.2954 Z -1.0000 I 0.2669 J 0.1740
G01 X 14.7939 Y 20.2944 Z -1.0000
