%
(Header)
(Generated by gcodetools from Inkscape.)
(Using default header. To add your own header create file "header" in the output dir.)
M3
(Header end.)
G21 (All units in mm)

(Start cutting path id: path2)
(Change tool to Default tool)

G00 X19.715997 Y1.633953


(End cutting path id: path2)


(Start cutting path id: path2)
(Change tool to Default tool)



(End cutting path id: path2)


(Start cutting path id: path2)
(Change tool to Default tool)

G00 X19.084858 Y2.773584


(End cutting path id: path2)


(Start cutting path id: path2)
(Change tool to Default tool)

G00 X18.803014 Y3.092179


(End cutting path id: path2)


(Start cutting path id: path2)
(Change tool to Default tool)

G00 X18.549763 Y2.985986


(End cutting path id: path2)


(Start cutting path id: path2)
(Change tool to Default tool)

G00 X18.534170 Y3.348299


(End cutting path id: path2)


(Start cutting path id: path2)
(Change tool to Default tool)

G00 X18.121532 Y3.073379

G02 X17.962213 Y3.226804 Z-1.000000 I0.045850 J0.135743
G01 X17.882960 Y3.457815 Z-1.000000
G01 X17.981506 Y3.649626 Z-1.000000
G03 X18.190968 Y3.491334 Z-1.000000 I0.286840 J0.287124
G01 X18.041772 Y3.355630 Z-1.000000
G02 X18.234595 Y3.166851 Z-1.000000 I-0.110051 J-0.180012

(End cutting path id: path2)


(Start cutting path id: path2)
(Change tool to Default tool)

G00 X17.357033 Y2.284866


(End cutting path id: path2)


(Start cutting path id: path2)
(Change tool to Default tool)

G00 X18.019971 Y1.952559

G01 X18.091081 Y2.222149 Z-1.000000
G02 X18.037664 Y1.949606 Z-1.000000 I-0.781983 J0.102176

(End cutting path id: path2)


(Start cutting path id: path2)
(Change tool to Default tool)

G00 X19.827762 Y2.986389


(End cutting path id: path2)


(Start cutting path id: path2)
(Change tool to Default tool)

G00 X20.028422 Y3.037039


(End cutting path id: path2)


(Start cutting path id: path2)
(Change tool to Default tool)



(End cutting path id: path2)


(Start cutting path id: path2)
(Change tool to Default tool)

G00 X20.255111 Y3.098279


(End cutting path id: path2)


(Start cutting path id: path2)
(Change tool to Default tool)

G00 X20.502246 Y3.164769

G01 X20.714648 Y3.202439 Z-1.000000
G01 X20.520929 Y3.110838 Z-1.000000

(End cutting path id: path2)


(Start cutting path id: path2)
(Change tool to Default tool)



(End cutting path id: path2)


(Start cutting path id: path2)
(Change tool to Default tool)

G00 X20.744770 Y3.219269


(End cutting path id: path2)


(Start cutting path id: path2)
(Change tool to Default tool)


G01 X20.640350 Y3.405887 Z-1.000000 F3500.000000

(End cutting path id: path2)


(Start cutting path id: path2)
(Change tool to Default tool)

G00 X20.705099 Y3.651519


(End cutting path id: path2)


(Start cutting path id: path2)
(Change tool to Default tool)

G00 X20.812683 Y3.851961


(End cutting path id: path2)


(Start cutting path id: path2)
(Change tool to Default tool)



(End cutting path id: path2)


(Start cutting path id: path2)
(Change tool to Default tool)

G00 X20.698630 Y4.156171

G01 X20.898798 Y4.172471 Z-1.000000
G01 X20.698624 Y4.156171 Z-1.000000

(End cutting path id: path2)


(Start cutting path id: path2)
(Change tool to Default tool)

G00 X20.622733 Y4.348172


(End cutting path id: path2)


(Start cutting path id: path2)
(Change tool to Default tool)


G03 X20.836479 Y4.452106 Z-1.000000 I-4.598231 J1.318889 F3500.000000

(End cutting path id: path2)


(Start cutting path id: path2)
(Change tool to Default tool)

G00 X20.935224 Y4.206141

G02 X21.155864 Y4.273341 Z-1.000000 I0.014991 J-0.119899
G02 X20.946284 Y4.196186 Z-1.000000 I-0.269811 J1.071578

(End cutting path id: path2)


(Start cutting path id: path2)
(Change tool to Default tool)

G00 X20.746103 Y4.685165


(End cutting path id: path2)


(Start cutting path id: path2)
(Change tool to Default tool)

G00 X20.977600 Y4.748962


(End cutting path id: path2)


(Start cutting path id: path2)
(Change tool to Default tool)



(End cutting path id: path2)


(Start cutting path id: path2)
(Change tool to Default tool)

G00 X22.001326 Y4.856682

G03 X22.221903 Y4.847812 Z-1.000000 I0.038358 J0.117494
G02 X22.460853 Y4.917069 Z-1.000000 I0.043883 J-0.134365
G01 X22.651363 Y4.994789 Z-1.000000
G01 X22.836592 Y5.101916 Z-1.000000
G02 X22.937617 Y5.294549 Z-1.000000 I0.144323 J0.045002
G03 X23.099711 Y5.460553 Z-1.000000 I-0.087380 J0.087380
G01 X23.197446 Y5.661189 Z-1.000000
G03 X23.374380 Y5.838755 Z-1.000000 I-0.019116 J0.057008
G01 X23.329564 Y6.067873 Z-1.000000
G02 X23.403254 Y6.286157 Z-1.000000 I0.141816 J0.022545
G03 X23.501500 Y6.489218 Z-1.000000 I-0.314830 J0.120730
G01 X23.525199 Y6.696728 Z-1.000000
G03 X23.566230 Y6.906626 Z-1.000000 I-0.022324 J0.088973
G03 X23.589194 Y7.140551 Z-1.000000 I-0.043208 J0.043208
G03 X23.613117 Y7.358122 Z-1.000000 I-0.040981 J0.064690
G03 X23.388181 Y7.479419 Z-1.000000 I-0.038867 J-0.154837
G03 X23.219873 Y7.257834 Z-1.000000 I0.226430 J-0.155783
G03 X23.203230 Y6.980188 Z-1.000000 I1.421325 J-0.224520
G02 X23.195034 Y6.697672 Z-1.000000 I-2.138726 J-0.079328
G02 X22.970676 Y6.232940 Z-1.000000 I-1.020313 J0.381744
G02 X22.793346 Y6.056422 Z-1.000000 I-0.214452 J0.000000
G02 X22.625629 Y5.947028 Z-1.000000 I-0.281004 J0.247558
G02 X22.406573 Y5.515126 Z-1.000000 I-0.549885 J-0.000000
G02 X22.128649 Y5.486216 Z-1.000000 I-0.157695 J0.165632
G02 X21.921007 Y5.190623 Z-1.000000 I-1.848301 J1.318726
G03 X21.916200 Y4.866959 Z-1.000000 I0.377225 J-0.036254

(End cutting path id: path2)


(Start cutting path id: path2)
(Change tool to Default tool)

G00 X22.178499 Y4.773472


(End cutting path id: path2)


(Start cutting path id: path2)
(Change tool to Default tool)

G00 X22.768341 Y4.855582


(End cutting path id: path2)


(Start cutting path id: path2)
(Change tool to Default tool)

G00 X22.934802 Y5.021988


(End cutting path id: path2)


(Start cutting path id: path2)
(Change tool to Default tool)

G00 X23.533088 Y4.574875


(End cutting path id: path2)


(Start cutting path id: path2)
(Change tool to Default tool)

G00 X23.214482 Y4.219541


(End cutting path id: path2)


(Start cutting path id: path2)
(Change tool to Default tool)



(End cutting path id: path2)


(Start cutting path id: path2)
(Change tool to Default tool)

G00 X23.475903 Y3.990801


(End cutting path id: path2)


(Start cutting path id: path2)
(Change tool to Default tool)

G00 X22.650795 Y3.923963


(End cutting path id: path2)


(Start cutting path id: path2)
(Change tool to Default tool)

G00 X22.368951 Y3.508849


(End cutting path id: path2)


(Start cutting path id: path2)
(Change tool to Default tool)

G00 X22.087107 Y3.611439


(End cutting path id: path2)


(Start cutting path id: path2)
(Change tool to Default tool)

G00 X22.038091 Y3.143459


(End cutting path id: path2)


(Start cutting path id: path2)
(Change tool to Default tool)



(End cutting path id: path2)


(Start cutting path id: path2)
(Change tool to Default tool)

G00 X22.283172 Y3.141059


(End cutting path id: path2)


(Start cutting path id: path2)
(Change tool to Default tool)

G00 X22.503746 Y3.028049


(End cutting path id: path2)


(Start cutting path id: path2)
(Change tool to Default tool)


G02 X22.676820 Y2.918119 Z-1.000000 I0.027526 J-0.068582 F3500.000000

(End cutting path id: path2)


(Start cutting path id: path2)
(Change tool to Default tool)


G02 X22.850400 Y3.061579 Z-1.000000 I-0.008962 J-0.238721

(End cutting path id: path2)


(Start cutting path id: path2)
(Change tool to Default tool)

G00 X22.805411 Y3.276299

G01 X22.727463 Y3.485439 Z-1.000000
G02 X22.524761 Y3.428714 Z-1.000000 I-0.151877 J0.025177
G01 X22.421121 Y3.601804 Z-1.000000
G02 X22.221315 Y3.714189 Z-1.000000 I0.000000 J0.050764
G03 X22.043031 Y3.822213 Z-1.000000 I-0.040784 J-0.056802
G02 X21.805258 Y3.838913 Z-1.000000 I0.026103 J0.336661
G01 X21.688268 Y4.008103 Z-1.000000
G03 X21.488223 Y4.127368 Z-1.000000 I-0.083423 J0.000000
G02 X21.278345 Y4.232583 Z-1.000000 I0.053793 J0.076218
G02 X21.097887 Y4.418033 Z-1.000000 I-0.024499 J0.093690
G03 X21.229331 Y4.622103 Z-1.000000 I-0.038392 J0.055199
G02 X20.939153 Y4.595263 Z-1.000000 I-0.088504 J1.049579
G03 X20.728001 Y4.588263 Z-1.000000 I0.005137 J-0.156962
G01 X20.510511 Y4.646553 Z-1.000000
G01 X20.418331 Y4.839010 Z-1.000000
G01 X20.171163 Y4.852823 Z-1.000000
G03 X19.947086 Y4.711403 Z-1.000000 I0.040137 J-0.308257
G02 X19.811201 Y4.545892 Z-1.000000 I-0.117425 J-0.060729
G03 X19.585161 Y4.542762 Z-1.000000 I-0.069701 J-0.227077
G03 X19.355787 Y4.412973 Z-1.000000 I0.131483 J-0.314679
G02 X19.570966 Y4.276220 Z-1.000000 I0.000000 J-0.100119
G03 X19.329757 Y4.255325 Z-1.000000 I-0.065929 J-0.144689
G01 X19.182084 Y4.069922 Z-1.000000
G02 X18.949484 Y3.910152 Z-1.000000 I-0.130909 J0.260243
G02 X18.700749 Y3.892372 Z-1.000000 I0.023358 J0.166053
G02 X18.844252 Y3.718599 Z-1.000000 I-0.460383 J-0.695736
G03 X18.627541 Y3.763058 Z-1.000000 I-0.211091 J-0.436937
G02 X18.399738 Y3.703802 Z-1.000000 I0.030615 J0.349955
G03 X18.202494 Y3.643417 Z-1.000000 I-0.155796 J-0.102076
G02 X17.979957 Y3.694957 Z-1.000000 I-0.025089 J0.099683
G03 X17.769177 Y3.726860 Z-1.000000 I0.000000 J-0.086542
G02 X17.668052 Y3.910382 Z-1.000000 I0.048210 J0.040018
G03 X17.810522 Y4.072153 Z-1.000000 I-0.064547 J0.040148
G02 X17.614134 Y3.979073 Z-1.000000 I-0.061590 J0.103305
G01 X17.577934 Y4.194673 Z-1.000000
G02 X17.366714 Y4.334873 Z-1.000000 I0.091976 J0.149890
G03 X17.208308 Y4.515592 Z-1.000000 I-0.456598 J-0.240441
G02 X16.997183 Y4.519344 Z-1.000000 I-0.010319 J0.059193
G01 X16.934174 Y4.710328 Z-1.000000
G03 X16.807967 Y4.866923 Z-1.000000 I-0.047379 J-0.018188
G03 X16.738122 Y5.085763 Z-1.000000 I-0.125040 J-0.084092
G03 X16.726637 Y5.292353 Z-1.000000 I-0.207830 J0.005385
G01 X16.803806 Y5.478988 Z-1.000000
G02 X16.653763 Y5.677553 Z-1.000000 I0.228970 J0.036808
G03 X16.883612 Y5.809918 Z-1.000000 I-0.068033 J0.132113
G02 X16.719610 Y5.925766 Z-1.000000 I-0.064466 J0.052422
G03 X16.607301 Y6.117048 Z-1.000000 I-0.050650 J0.042035
G01 X16.520561 Y6.302533 Z-1.000000
G01 X16.387935 Y6.458034 Z-1.000000
G01 X16.490433 Y6.629802 Z-1.000000
G02 X16.559931 Y6.873404 Z-1.000000 I0.256146 J-0.044090
G03 X16.673631 Y7.150332 Z-1.000000 I-0.234976 J0.088117
G03 X16.724261 Y7.388818 Z-1.000000 I-0.341670 J0.097615
G03 X16.928730 Y7.496274 Z-1.000000 I0.047409 J0.090431
G02 X16.976410 Y7.713058 Z-1.000000 I0.108587 J-0.066865
G03 X17.238351 Y7.766716 Z-1.000000 I0.009539 J0.160432
G03 X17.407226 Y7.883439 Z-1.000000 I-0.046520 J0.042106
G01 X17.381491 Y8.093258 Z-1.000000
G02 X17.500961 Y7.918401 Z-1.000000 I-0.484846 J-0.231410
G02 X17.682837 Y7.809525 Z-1.000000 I-0.069453 J-0.156882
G02 X17.915834 Y7.692273 Z-1.000000 I0.016479 J-0.146189
G03 X17.932890 Y7.461841 Z-1.000000 I0.110080 J-0.004626
G01 X17.992020 Y7.265961 Z-1.000000
G03 X18.240104 Y7.217126 Z-1.000000 I0.146407 J0.126967
G03 X18.442768 Y7.321856 Z-1.000000 I-0.141024 J0.188169
G02 X18.650010 Y7.228681 Z-1.000000 I-0.006132 J-0.061595
G01 X18.780810 Y7.392336 Z-1.000000
G03 X18.990815 Y7.278784 Z-1.000000 I-0.000000 J0.369452
G02 X19.162912 Y7.412557 Z-1.000000 I0.147578 J-0.061118
G01 X19.331752 Y7.546456 Z-1.000000
G03 X19.542692 Y7.569296 Z-1.000000 I-0.045291 J0.060656
G03 X19.645672 Y7.781042 Z-1.000000 I-0.572384 J0.004392
G03 X19.708892 Y8.019660 Z-1.000000 I-0.319155 J-0.010604
G01 X19.927182 Y7.985817 Z-1.000000
G03 X19.966226 Y7.773151 Z-1.000000 I0.202500 J0.000743
G03 X20.126432 Y7.914797 Z-1.000000 I-0.162414 J0.058236
G03 X20.103821 Y7.689510 Z-1.000000 I0.193097 J-0.269345
G03 X19.901087 Y7.665916 Z-1.000000 I-0.159193 J-0.306767
G01 X19.817469 Y7.479656 Z-1.000000
G02 X20.019971 Y7.487350 Z-1.000000 I-0.149033 J-0.087349
G02 X20.236307 Y7.374660 Z-1.000000 I-0.033248 J-0.085357
G01 X20.249447 Y7.171030 Z-1.000000
G01 X20.457301 Y7.202486 Z-1.000000
G03 X20.579957 Y7.364670 Z-1.000000 I-0.138728 J0.007161
G02 X20.540377 Y7.569230 Z-1.000000 I0.132627 J-0.022375
G03 X20.745734 Y7.541758 Z-1.000000 I0.150694 J0.001316
G01 X20.972657 Y7.552861 Z-1.000000
G01 X21.195047 Y7.541017 Z-1.000000
G01 X21.412207 Y7.451403 Z-1.000000
G02 X21.586517 Y7.651714 Z-1.000000 I0.131842 J-0.084041
G02 X21.606463 Y7.443657 Z-1.000000 I-0.054396 J0.037458
G03 X21.764622 Y7.276220 Z-1.000000 I0.090845 J0.031689
G03 X21.986127 Y7.322587 Z-1.000000 I0.105858 J0.425882
G02 X22.203843 Y7.467884 Z-1.000000 I0.278662 J-0.134540
G02 X22.365748 Y7.345647 Z-1.000000 I-0.039034 J-0.176910
G01 X22.510152 Y7.194558 Z-1.000000
G01 X22.637553 Y7.359408 Z-1.000000
G03 X22.756488 Y7.561725 Z-1.000000 I0.026018 J0.103697
G01 X22.860688 Y7.736372 Z-1.000000
G01 X23.003366 Y7.886260 Z-1.000000
G02 X23.225272 Y7.856109 Z-1.000000 I-0.081418 J-0.073686
G01 X23.430136 Y7.898402 Z-1.000000
G03 X23.596513 Y7.634504 Z-1.000000 I0.114873 J-0.044076
G03 X23.821010 Y7.636893 Z-1.000000 I0.095727 J0.059768
G02 X24.017464 Y7.467567 Z-1.000000 I0.024102 J-0.126074
G03 X24.145894 Y7.175288 Z-1.000000 I0.276339 J0.110246
G01 X23.998834 Y7.025528 Z-1.000000
G03 X24.178646 Y6.903795 Z-1.000000 I0.129911 J-0.000000
G03 X24.173667 Y6.693355 Z-1.000000 I0.122760 J-0.032066
G01 X24.207114 Y6.482668 Z-1.000000
G01 X24.186934 Y6.282478 Z-1.000000
G02 X24.102781 Y5.968456 Z-1.000000 I-0.279832 J-0.024835
G03 X23.934741 Y5.847639 Z-1.000000 I-0.073686 J-0.081418
G01 X23.889283 Y5.616389 Z-1.000000
G02 X24.081301 Y5.412774 Z-1.000000 I-0.243020 J-0.278241
G03 X24.058821 Y5.169096 Z-1.000000 I0.318187 J-0.100737
G02 X24.030433 Y4.866759 Z-1.000000 I-0.210397 J-0.064583
G02 X23.923954 Y4.664160 Z-1.000000 I-0.088948 J0.088948
G02 X23.655631 Y4.626670 Z-1.000000 I-0.026543 J0.387409
G02 X23.572641 Y4.415200 Z-1.000000 I-0.094436 J-0.035182
G01 X23.361541 Y4.452270 Z-1.000000
G03 X23.190003 Y4.253910 Z-1.000000 I0.037586 J-0.060721
G03 X23.124769 Y4.043545 Z-1.000000 I0.142047 J-0.093080
G02 X23.089893 Y3.813194 Z-1.000000 I-0.092053 J0.022152
G03 X22.895903 Y3.737775 Z-1.000000 I0.054383 J-0.030732
G02 X23.034078 Y3.579526 Z-1.000000 I-0.073064 J0.000000
G01 X22.834631 Y3.484215 Z-1.000000
G02 X23.006191 Y3.349835 Z-1.000000 I-0.042632 J-0.050019
G01 X22.805436 Y3.276245 Z-1.000000

(End cutting path id: path2)


(Start cutting path id: path2)
(Change tool to Default tool)

G00 X22.581600 Y3.229839


(End cutting path id: path2)


(Start cutting path id: path2)
(Change tool to Default tool)

G00 X21.302846 Y3.043159


(End cutting path id: path2)


(Start cutting path id: path2)
(Change tool to Default tool)



(End cutting path id: path2)


(Start cutting path id: path2)
(Change tool to Default tool)



(End cutting path id: path2)


(Start cutting path id: path2)
(Change tool to Default tool)

G00 X20.970860 Y3.044989


(End cutting path id: path2)


(Start cutting path id: path2)
(Change tool to Default tool)

G00 X20.248996 Y4.049401


(End cutting path id: path2)


(Start cutting path id: path2)
(Change tool to Default tool)

G00 X20.044761 Y4.284862


(End cutting path id: path2)


(Start cutting path id: path2)
(Change tool to Default tool)


G02 X19.955464 Y4.538187 Z-1.000000 I0.063236 J0.067874 F3500.000000

(End cutting path id: path2)


(Start cutting path id: path2)
(Change tool to Default tool)

G00 X19.742394 Y4.287562


(End cutting path id: path2)


(Start cutting path id: path2)
(Change tool to Default tool)



(End cutting path id: path2)


(Start cutting path id: path2)
(Change tool to Default tool)

G00 X19.848284 Y4.083871


(End cutting path id: path2)


(Start cutting path id: path2)
(Change tool to Default tool)

G00 X19.415718 Y4.121521


(End cutting path id: path2)


(Start cutting path id: path2)
(Change tool to Default tool)

G00 X19.440226 Y4.611635


(End cutting path id: path2)


(Start cutting path id: path2)
(Change tool to Default tool)



(End cutting path id: path2)


(Start cutting path id: path2)
(Change tool to Default tool)

G00 X18.813177 Y4.832165

G03 X18.651849 Y5.219268 Z-1.000000 I-0.780439 J-0.235028
G03 X18.213530 Y5.785748 Z-1.000000 I-5.389665 J-3.717478
G02 X18.014534 Y5.867108 Z-1.000000 I-0.059993 J-0.000000
G02 X17.585532 Y6.436484 Z-1.000000 I1.750159 J1.764981
G02 X17.522542 Y6.854102 Z-1.000000 I1.722776 J0.259859
G03 X17.480685 Y7.312798 Z-1.000000 I-2.153588 J0.034738
G03 X17.281013 Y7.432154 Z-1.000000 I-0.093528 J-0.160743
G03 X17.122112 Y7.218634 Z-1.000000 I0.078101 J-0.125038
G01 X17.152242 Y7.013583 Z-1.000000
G03 X17.226776 Y6.780402 Z-1.000000 I0.228339 J-0.034237
G03 X17.203944 Y6.546613 Z-1.000000 I0.175348 J-0.162496
G02 X17.267669 Y6.314342 Z-1.000000 I-0.412250 J-0.139971
G03 X17.292939 Y6.107102 Z-1.000000 I0.107613 J-0.008812
G03 X17.390004 Y5.851587 Z-1.000000 I0.382240 J0.001819
G01 X17.528579 Y5.691411 Z-1.000000
G02 X17.369460 Y5.568385 Z-1.000000 I-0.082821 J0.054262
G02 X17.104711 Y5.603141 Z-1.000000 I0.071166 J0.247588
G01 X17.000174 Y5.414259 Z-1.000000
G01 X17.198712 Y5.384841 Z-1.000000
G01 X17.345126 Y5.230374 Z-1.000000
G03 X17.538591 Y5.327985 Z-1.000000 I0.027195 J0.086592
G01 X17.789134 Y5.367815 Z-1.000000
G03 X17.811768 Y5.168862 Z-1.000000 I0.207569 J-0.163266
G01 X17.911370 Y4.993070 Z-1.000000
G02 X18.083892 Y4.869061 Z-1.000000 I-0.029201 J-0.111472
G03 X18.306704 Y4.871627 Z-1.000000 I-0.049079 J0.108587
G01 X18.501682 Y4.799531 Z-1.000000
G03 X18.788665 Y4.779407 Z-1.000000 I0.061159 J0.367160

(End cutting path id: path2)


(Start cutting path id: path2)
(Change tool to Default tool)

G00 X17.822685 Y5.052748


(End cutting path id: path2)


(Start cutting path id: path2)
(Change tool to Default tool)

G00 X17.632051 Y5.399933


(End cutting path id: path2)


(Start cutting path id: path2)
(Change tool to Default tool)



(End cutting path id: path2)


(Start cutting path id: path2)
(Change tool to Default tool)

G00 X17.406050 Y5.420413


(End cutting path id: path2)


(Start cutting path id: path2)
(Change tool to Default tool)


G03 X17.200869 Y5.462717 Z-1.000000 I-0.089654 J-0.224443 F3500.000000
G02 X17.442873 Y5.583175 Z-1.000000 I0.251019 J-0.235770
G02 X17.260601 Y5.447283 Z-1.000000 I-0.012782 J0.197140

(End cutting path id: path2)


(Start cutting path id: path2)
(Change tool to Default tool)



(End cutting path id: path2)


(Start cutting path id: path2)
(Change tool to Default tool)

G00 X17.252360 Y5.729286


(End cutting path id: path2)


(Start cutting path id: path2)
(Change tool to Default tool)


G03 X17.352742 Y5.906302 Z-1.000000 I-0.050033 J0.000000 F3500.000000

(End cutting path id: path2)


(Start cutting path id: path2)
(Change tool to Default tool)



(End cutting path id: path2)


(Start cutting path id: path2)
(Change tool to Default tool)

G00 X17.308014 Y6.146375


(End cutting path id: path2)


(Start cutting path id: path2)
(Change tool to Default tool)

G00 X17.038424 Y5.694416


(End cutting path id: path2)


(Start cutting path id: path2)
(Change tool to Default tool)

G00 X16.964900 Y5.455135


(End cutting path id: path2)


(Start cutting path id: path2)
(Change tool to Default tool)

G00 X16.768835 Y5.568036


(End cutting path id: path2)


(Start cutting path id: path2)
(Change tool to Default tool)

G00 X16.695309 Y5.841454


(End cutting path id: path2)


(Start cutting path id: path2)
(Change tool to Default tool)



(End cutting path id: path2)


(Start cutting path id: path2)
(Change tool to Default tool)

G00 X16.499245 Y5.198443


(End cutting path id: path2)


(Start cutting path id: path2)
(Change tool to Default tool)

G00 X16.812949 Y5.204699


(End cutting path id: path2)


(Start cutting path id: path2)
(Change tool to Default tool)

G00 X17.455063 Y5.224309


(End cutting path id: path2)


(Start cutting path id: path2)
(Change tool to Default tool)

G00 X17.822688 Y5.577068


(End cutting path id: path2)


(Start cutting path id: path2)
(Change tool to Default tool)

G00 X17.185476 Y6.939969


(End cutting path id: path2)


(Start cutting path id: path2)
(Change tool to Default tool)

G00 X16.523752 Y7.111535


(End cutting path id: path2)


(Start cutting path id: path2)
(Change tool to Default tool)

G00 X16.352195 Y6.939978


(End cutting path id: path2)


(Start cutting path id: path2)
(Change tool to Default tool)

G00 X15.837524 Y6.069937


(End cutting path id: path2)


(Start cutting path id: path2)
(Change tool to Default tool)


G02 X15.616946 Y6.036907 Z-1.000000 I-0.035878 J0.133129

(End cutting path id: path2)


(Start cutting path id: path2)
(Change tool to Default tool)



(End cutting path id: path2)


(Start cutting path id: path2)
(Change tool to Default tool)

G00 X15.378462 Y6.564832


(End cutting path id: path2)


(Start cutting path id: path2)
(Change tool to Default tool)

G00 X15.886891 Y8.175530


(End cutting path id: path2)


(Start cutting path id: path2)
(Change tool to Default tool)

G00 X16.346069 Y8.108120


(End cutting path id: path2)


(Start cutting path id: path2)
(Change tool to Default tool)

G00 X16.715223 Y8.084090


(End cutting path id: path2)


(Start cutting path id: path2)
(Change tool to Default tool)



(End cutting path id: path2)


(Start cutting path id: path2)
(Change tool to Default tool)

G00 X16.940392 Y8.165380


(End cutting path id: path2)


(Start cutting path id: path2)
(Change tool to Default tool)


G01 X17.153590 Y8.158035 Z-1.000000

(End cutting path id: path2)


(Start cutting path id: path2)
(Change tool to Default tool)



(End cutting path id: path2)


(Start cutting path id: path2)
(Change tool to Default tool)



(End cutting path id: path2)


(Start cutting path id: path2)
(Change tool to Default tool)

G00 X17.571068 Y8.143910


(End cutting path id: path2)


(Start cutting path id: path2)
(Change tool to Default tool)

G00 X17.554210 Y7.830956


(End cutting path id: path2)


(Start cutting path id: path2)
(Change tool to Default tool)

G00 X17.785921 Y7.748762


(End cutting path id: path2)


(Start cutting path id: path2)
(Change tool to Default tool)


G01 X17.937687 Y7.886281 Z-1.000000

(End cutting path id: path2)


(Start cutting path id: path2)
(Change tool to Default tool)

G00 X18.105574 Y7.550982


(End cutting path id: path2)


(Start cutting path id: path2)
(Change tool to Default tool)



(End cutting path id: path2)


(Start cutting path id: path2)
(Change tool to Default tool)

G00 X18.312851 Y7.907152


(End cutting path id: path2)


(Start cutting path id: path2)
(Change tool to Default tool)

G00 X18.098402 Y8.279649


(End cutting path id: path2)


(Start cutting path id: path2)
(Change tool to Default tool)

G00 X18.214816 Y8.459499


(End cutting path id: path2)


(Start cutting path id: path2)
(Change tool to Default tool)



(End cutting path id: path2)


(Start cutting path id: path2)
(Change tool to Default tool)

G00 X17.989650 Y8.721295


(End cutting path id: path2)


(Start cutting path id: path2)
(Change tool to Default tool)

G00 X17.873747 Y8.957575

G01 X18.055517 Y9.076235 Z-1.000000
G01 X17.885997 Y8.949765 Z-1.000000

(End cutting path id: path2)


(Start cutting path id: path2)
(Change tool to Default tool)


G02 X17.975863 Y9.134965 Z-1.000000 I1.479657 J-1.478995

(End cutting path id: path2)


(Start cutting path id: path2)
(Change tool to Default tool)


G02 X17.905546 Y9.337819 Z-1.000000 I0.393942 J-0.356535 F3500.000000

(End cutting path id: path2)


(Start cutting path id: path2)
(Change tool to Default tool)

G00 X18.141289 Y9.439859


(End cutting path id: path2)


(Start cutting path id: path2)
(Change tool to Default tool)


G02 X18.261382 Y9.660203 Z-1.000000 I1.714474 J-1.653545 F3500.000000
G01 X18.006496 Y9.405320 Z-1.000000

(End cutting path id: path2)


(Start cutting path id: path2)
(Change tool to Default tool)

G00 X18.348853 Y9.648017

G02 X18.519386 Y9.792664 Z-1.000000 I1.916701 J-2.086867 F3500.000000
G03 X18.312842 Y9.573875 Z-1.000000 I1.877050 J-2.061524

(End cutting path id: path2)


(Start cutting path id: path2)
(Change tool to Default tool)

G00 X18.533415 Y9.942329


(End cutting path id: path2)


(Start cutting path id: path2)
(Change tool to Default tool)

G00 X18.796321 Y9.961139


(End cutting path id: path2)


(Start cutting path id: path2)
(Change tool to Default tool)



(End cutting path id: path2)


(Start cutting path id: path2)
(Change tool to Default tool)

G00 X19.023578 Y10.075378


(End cutting path id: path2)


(Start cutting path id: path2)
(Change tool to Default tool)



(End cutting path id: path2)


(Start cutting path id: path2)
(Change tool to Default tool)

G00 X19.048096 Y10.378555


(End cutting path id: path2)


(Start cutting path id: path2)
(Change tool to Default tool)



(End cutting path id: path2)


(Start cutting path id: path2)
(Change tool to Default tool)

G00 X18.852031 Y10.484338

G01 X19.002611 Y10.677432 Z-1.000000
G02 X18.866258 Y10.481371 Z-1.000000 I-1533.467161 J1066.033799

(End cutting path id: path2)


(Start cutting path id: path2)
(Change tool to Default tool)


G02 X18.792108 Y10.678848 Z-1.000000 I0.282094 J-0.150389

(End cutting path id: path2)


(Start cutting path id: path2)
(Change tool to Default tool)



(End cutting path id: path2)


(Start cutting path id: path2)
(Change tool to Default tool)

G00 X18.978108 Y10.873525

G02 X19.154721 Y11.360084 Z-1.000000 I2.839823 J-0.755477 F3500.000000
G03 X19.129522 Y11.123428 Z-1.000000 I0.262188 J-0.092567
G03 X19.062618 Y10.933518 Z-1.000000 I0.184899 J-0.095606

(End cutting path id: path2)


(Start cutting path id: path2)
(Change tool to Default tool)


G03 X19.215521 Y11.075919 Z-1.000000 I-0.108418 J0.153032
G03 X19.410140 Y11.418818 Z-1.000000 I-1.688256 J0.851937
G03 X19.474104 Y11.631253 Z-1.000000 I-1.462511 J0.556208
G03 X19.526652 Y11.936178 Z-1.000000 I-2.969003 J0.668641
G02 X19.595777 Y12.127710 Z-1.000000 I0.049254 J-0.028181
G03 X19.537762 Y11.780310 Z-1.000000 I31.942869 J-5.959057
G02 X19.475866 Y11.490056 Z-1.000000 I-4.199735 J0.743861
G02 X19.385175 Y11.230086 Z-1.000000 I-0.183399 J0.000000
G02 X19.205487 Y11.014430 Z-1.000000 I-1.074457 J0.712568

(End cutting path id: path2)


(Start cutting path id: path2)
(Change tool to Default tool)


G02 X19.202354 Y11.353376 Z-1.000000 I0.545898 J0.026665 F3500.000000
G02 X19.368368 Y11.536232 Z-1.000000 I0.400898 J-0.197184
G03 X19.284058 Y11.320752 Z-1.000000 I0.153891 J-0.093267
G02 X19.183148 Y11.076617 Z-1.000000 I-0.943260 J0.246961

(End cutting path id: path2)


(Start cutting path id: path2)
(Change tool to Default tool)


G02 X19.376973 Y11.126891 Z-1.000000 I0.623965 J-0.586194 F3500.000000

(End cutting path id: path2)


(Start cutting path id: path2)
(Change tool to Default tool)



(End cutting path id: path2)


(Start cutting path id: path2)
(Change tool to Default tool)

G00 X19.616335 Y11.205755


(End cutting path id: path2)


(Start cutting path id: path2)
(Change tool to Default tool)


G02 X19.650469 Y11.418645 Z-1.000000 I1.233501 J-1.053810 F3500.000000
G02 X19.431720 Y11.157718 Z-1.000000 I-0.337105 J0.301141

(End cutting path id: path2)


(Start cutting path id: path2)
(Change tool to Default tool)


G02 X19.490058 Y11.399894 Z-1.000000 I0.970589 J-0.369105 F3500.000000
G03 X19.601776 Y11.749295 Z-1.000000 I-2.389451 J0.658034
G02 X19.664329 Y11.968245 Z-1.000000 I1.214347 J-0.228525
G02 X19.698343 Y11.741055 Z-1.000000 I-0.769662 J0.107369
G02 X19.540955 Y11.418789 Z-1.000000 I-2.486704 J1.014891

(End cutting path id: path2)


(Start cutting path id: path2)
(Change tool to Default tool)



(End cutting path id: path2)


(Start cutting path id: path2)
(Change tool to Default tool)

G00 X19.783344 Y11.348475


(End cutting path id: path2)


(Start cutting path id: path2)
(Change tool to Default tool)

G00 X19.961596 Y11.449405


(End cutting path id: path2)


(Start cutting path id: path2)
(Change tool to Default tool)



(End cutting path id: path2)


(Start cutting path id: path2)
(Change tool to Default tool)


G01 X20.143198 Y11.355995 Z-1.000000

(End cutting path id: path2)


(Start cutting path id: path2)
(Change tool to Default tool)



(End cutting path id: path2)


(Start cutting path id: path2)
(Change tool to Default tool)

G00 X20.216517 Y11.589505

G03 X20.244902 Y11.800134 Z-1.000000 I-0.532712 J0.147070
G02 X20.259509 Y11.593203 Z-1.000000 I-0.534000 J-0.000000

(End cutting path id: path2)


(Start cutting path id: path2)
(Change tool to Default tool)



(End cutting path id: path2)


(Start cutting path id: path2)
(Change tool to Default tool)


G03 X20.068938 Y11.798087 Z-1.000000 I-1.942997 J-0.552849
G01 X20.052738 Y12.000958 Z-1.000000
G03 X20.178817 Y11.804484 Z-1.000000 I1.578124 J-0.244647
G02 X20.155133 Y11.555943 Z-1.000000 I-0.858566 J0.042467

(End cutting path id: path2)


(Start cutting path id: path2)
(Change tool to Default tool)

G00 X19.995345 Y11.784828

G02 X19.910514 Y12.129730 Z-1.000000 I2.383634 J0.769151 F3500.000000
G03 X20.004701 Y11.854560 Z-1.000000 I2.746499 J0.469391

(End cutting path id: path2)


(Start cutting path id: path2)
(Change tool to Default tool)

G00 X19.653032 Y11.772626


(End cutting path id: path2)


(Start cutting path id: path2)
(Change tool to Default tool)

G00 X19.693454 Y11.533195


(End cutting path id: path2)


(Start cutting path id: path2)
(Change tool to Default tool)

G00 X19.416099 Y11.635265


(End cutting path id: path2)


(Start cutting path id: path2)
(Change tool to Default tool)

G00 X19.206657 Y11.839270

G03 X19.345039 Y12.027228 Z-1.000000 I-0.619326 J0.591025
G03 X19.509297 Y12.196940 Z-1.000000 I-0.136539 J0.129071
G02 X19.326619 Y11.939609 Z-1.000000 I-0.178467 J0.152646
G01 X19.163939 Y11.755799 Z-1.000000

(End cutting path id: path2)


(Start cutting path id: path2)
(Change tool to Default tool)

G00 X19.109367 Y12.086707


(End cutting path id: path2)


(Start cutting path id: path2)
(Change tool to Default tool)


G01 X19.210079 Y12.264694 Z-1.000000

(End cutting path id: path2)


(Start cutting path id: path2)
(Change tool to Default tool)

G00 X18.876540 Y12.292888

G02 X18.925943 Y12.527501 Z-1.000000 I0.581789 J0.000000 F3500.000000
G02 X18.897686 Y12.287525 Z-1.000000 I-1.618204 J0.569601

(End cutting path id: path2)


(Start cutting path id: path2)
(Change tool to Default tool)

G00 X18.567054 Y12.484643

G03 X18.738935 Y12.730095 Z-1.000000 I-3.654683 J2.924123
G02 X18.578575 Y12.479088 Z-1.000000 I-1.019139 J0.720241

(End cutting path id: path2)


(Start cutting path id: path2)
(Change tool to Default tool)


G02 X18.427596 Y12.259107 Z-1.000000 I-0.110411 J0.079447

(End cutting path id: path2)


(Start cutting path id: path2)
(Change tool to Default tool)



(End cutting path id: path2)


(Start cutting path id: path2)
(Change tool to Default tool)


G02 X18.595392 Y12.397695 Z-1.000000 I0.090795 J-0.000205
G01 X18.761907 Y12.508913 Z-1.000000
G01 X18.631457 Y12.335513 Z-1.000000
G03 X18.521407 Y12.141697 Z-1.000000 I14.946299 J-9.833433

(End cutting path id: path2)


(Start cutting path id: path2)
(Change tool to Default tool)

G00 X18.508922 Y11.865534

G02 X18.614372 Y12.076473 Z-1.000000 I0.550103 J-0.225409
G03 X18.718411 Y12.301523 Z-1.000000 I-1.001836 J0.463178
G03 X18.803001 Y12.527851 Z-1.000000 I-0.257260 J0.066015
G02 X18.907085 Y12.721674 Z-1.000000 I0.357405 J-0.017482
G03 X18.983461 Y13.018012 Z-1.000000 I-0.950792 J0.224103
G02 X19.067077 Y13.364301 Z-1.000000 I1.496621 J-0.178138
G03 X19.038237 Y13.075346 Z-1.000000 I0.682559 J-0.274158
G03 X19.037273 Y12.873164 Z-1.000000 I0.838051 J-0.105089
G03 X19.118676 Y12.598160 Z-1.000000 I0.432426 J0.002092
G02 X18.997562 Y12.788466 Z-1.000000 I0.352792 J0.206201
G03 X18.902239 Y12.522021 Z-1.000000 I0.611415 J-0.247236
G03 X18.769719 Y12.329590 Z-1.000000 I5.743686 J-2.304022
G02 X18.586577 Y11.888718 Z-1.000000 I-4.359776 J1.552615

(End cutting path id: path2)


(Start cutting path id: path2)
(Change tool to Default tool)

G00 X18.435397 Y11.728288


(End cutting path id: path2)


(Start cutting path id: path2)
(Change tool to Default tool)


G02 X18.422014 Y11.945882 Z-1.000000 I1.220399 J-0.186024 F3500.000000
G03 X18.398809 Y11.743502 Z-1.000000 I0.583594 J-0.211725

(End cutting path id: path2)


(Start cutting path id: path2)
(Change tool to Default tool)

G00 X18.191661 Y11.571945


(End cutting path id: path2)


(Start cutting path id: path2)
(Change tool to Default tool)


G02 X18.120294 Y11.788487 Z-1.000000 I1.444668 J-0.706069 F3500.000000

(End cutting path id: path2)


(Start cutting path id: path2)
(Change tool to Default tool)

G00 X17.898676 Y11.515685


(End cutting path id: path2)


(Start cutting path id: path2)
(Change tool to Default tool)

G00 X17.736908 Y11.228855


(End cutting path id: path2)


(Start cutting path id: path2)
(Change tool to Default tool)


G03 X17.797363 Y11.428334 Z-1.000000 I-0.180001 J0.226424
G03 X17.640268 Y11.272424 Z-1.000000 I0.118587 J-0.158012

(End cutting path id: path2)


(Start cutting path id: path2)
(Change tool to Default tool)

G00 X17.332523 Y11.369775


(End cutting path id: path2)


(Start cutting path id: path2)
(Change tool to Default tool)


G01 X17.385106 Y11.568083 Z-1.000000 F3500.000000

(End cutting path id: path2)


(Start cutting path id: path2)
(Change tool to Default tool)



(End cutting path id: path2)


(Start cutting path id: path2)
(Change tool to Default tool)


G01 X17.580499 Y11.669985 Z-1.000000

(End cutting path id: path2)


(Start cutting path id: path2)
(Change tool to Default tool)

G00 X17.272835 Y12.020368


(End cutting path id: path2)


(Start cutting path id: path2)
(Change tool to Default tool)


G02 X17.430564 Y12.197047 Z-1.000000 I1.414926 J-1.331388

(End cutting path id: path2)


(Start cutting path id: path2)
(Change tool to Default tool)

G00 X17.078582 Y12.197047


(End cutting path id: path2)


(Start cutting path id: path2)
(Change tool to Default tool)


G01 X16.933339 Y11.976418 Z-1.000000

(End cutting path id: path2)


(Start cutting path id: path2)
(Change tool to Default tool)



(End cutting path id: path2)


(Start cutting path id: path2)
(Change tool to Default tool)

G00 X16.758164 Y11.726198


(End cutting path id: path2)


(Start cutting path id: path2)
(Change tool to Default tool)



(End cutting path id: path2)


(Start cutting path id: path2)
(Change tool to Default tool)

G00 X16.572777 Y11.840124


(End cutting path id: path2)


(Start cutting path id: path2)
(Change tool to Default tool)

G00 X16.451971 Y11.584205


(End cutting path id: path2)


(Start cutting path id: path2)
(Change tool to Default tool)

G00 X16.695316 Y11.469245


(End cutting path id: path2)


(Start cutting path id: path2)
(Change tool to Default tool)

G00 X17.039210 Y11.487605


(End cutting path id: path2)


(Start cutting path id: path2)
(Change tool to Default tool)

G00 X17.410670 Y10.985413


(End cutting path id: path2)


(Start cutting path id: path2)
(Change tool to Default tool)


G03 X17.638881 Y10.983813 Z-1.000000 I-3.403409 J4.233488

(End cutting path id: path2)


(Start cutting path id: path2)
(Change tool to Default tool)

G00 X17.602115 Y10.750928


(End cutting path id: path2)


(Start cutting path id: path2)
(Change tool to Default tool)


G02 X17.835562 Y10.831430 Z-1.000000 I0.175889 J-0.001687 F3500.000000

(End cutting path id: path2)


(Start cutting path id: path2)
(Change tool to Default tool)



(End cutting path id: path2)


(Start cutting path id: path2)
(Change tool to Default tool)

G00 X17.871705 Y10.429375


(End cutting path id: path2)


(Start cutting path id: path2)
(Change tool to Default tool)



(End cutting path id: path2)


(Start cutting path id: path2)
(Change tool to Default tool)


G01 X17.770818 Y10.248604 Z-1.000000

(End cutting path id: path2)


(Start cutting path id: path2)
(Change tool to Default tool)



(End cutting path id: path2)


(Start cutting path id: path2)
(Change tool to Default tool)

G00 X17.528590 Y10.516078

G01 X17.736911 Y10.566548 Z-1.000000
G02 X17.535624 Y10.494468 Z-1.000000 I-0.171994 J0.357692

(End cutting path id: path2)


(Start cutting path id: path2)
(Change tool to Default tool)



(End cutting path id: path2)


(Start cutting path id: path2)
(Change tool to Default tool)

G00 X17.295763 Y10.456115


(End cutting path id: path2)


(Start cutting path id: path2)
(Change tool to Default tool)



(End cutting path id: path2)


(Start cutting path id: path2)
(Change tool to Default tool)

G00 X17.050681 Y10.493638


(End cutting path id: path2)


(Start cutting path id: path2)
(Change tool to Default tool)

G00 X17.111943 Y10.264914

G03 X17.321307 Y10.345350 Z-1.000000 I-0.012946 J0.118594
G02 X17.132963 Y10.247682 Z-1.000000 I-0.441292 J1.077312

(End cutting path id: path2)


(Start cutting path id: path2)
(Change tool to Default tool)

G00 X16.715249 Y10.228373

G02 X16.950934 Y10.353083 Z-1.000000 I0.041492 J-0.512822
G01 X17.222232 Y10.395683 Z-1.000000
G03 X17.023848 Y10.289769 Z-1.000000 I0.001068 J-0.079984
G02 X16.817845 Y10.236523 Z-1.000000 I-0.024543 J0.175067

(End cutting path id: path2)


(Start cutting path id: path2)
(Change tool to Default tool)

G00 X16.597271 Y10.248794


(End cutting path id: path2)


(Start cutting path id: path2)
(Change tool to Default tool)

G00 X16.358876 Y10.052588


(End cutting path id: path2)


(Start cutting path id: path2)
(Change tool to Default tool)

G00 X16.561921 Y9.682689


(End cutting path id: path2)


(Start cutting path id: path2)
(Change tool to Default tool)

G00 X16.695310 Y9.452119


(End cutting path id: path2)


(Start cutting path id: path2)
(Change tool to Default tool)



(End cutting path id: path2)


(Start cutting path id: path2)
(Change tool to Default tool)


G02 X16.914829 Y9.414281 Z-1.000000 I0.147800 J-0.141593 F3500.000000

(End cutting path id: path2)


(Start cutting path id: path2)
(Change tool to Default tool)



(End cutting path id: path2)


(Start cutting path id: path2)
(Change tool to Default tool)

G00 X17.099698 Y9.170178


(End cutting path id: path2)


(Start cutting path id: path2)
(Change tool to Default tool)


G02 X17.304488 Y9.247233 Z-1.000000 I0.064353 J-0.021463 F3500.000000

(End cutting path id: path2)


(Start cutting path id: path2)
(Change tool to Default tool)


G02 X17.599129 Y9.436284 Z-1.000000 I1.689305 J-2.467627
G03 X17.945325 Y9.713994 Z-1.000000 I-1.491773 J1.859680
G01 X18.125644 Y9.893157 Z-1.000000
G02 X17.906181 Y9.617260 Z-1.000000 I-2.039600 J1.567000
G02 X17.496825 Y9.300538 Z-1.000000 I-1.592903 J1.705231

(End cutting path id: path2)


(Start cutting path id: path2)
(Change tool to Default tool)



(End cutting path id: path2)


(Start cutting path id: path2)
(Change tool to Default tool)

G00 X17.246920 Y8.998325


(End cutting path id: path2)


(Start cutting path id: path2)
(Change tool to Default tool)

G00 X17.376946 Y8.794825


(End cutting path id: path2)


(Start cutting path id: path2)
(Change tool to Default tool)



(End cutting path id: path2)


(Start cutting path id: path2)
(Change tool to Default tool)


G01 X17.577609 Y8.876165 Z-1.000000

(End cutting path id: path2)


(Start cutting path id: path2)
(Change tool to Default tool)

G00 X17.540841 Y8.631045


(End cutting path id: path2)


(Start cutting path id: path2)
(Change tool to Default tool)

G00 X17.761415 Y8.459499


(End cutting path id: path2)


(Start cutting path id: path2)
(Change tool to Default tool)



(End cutting path id: path2)


(Start cutting path id: path2)
(Change tool to Default tool)

G00 X18.141598 Y8.990825


(End cutting path id: path2)


(Start cutting path id: path2)
(Change tool to Default tool)


G03 X18.369250 Y9.013519 Z-1.000000 I-0.452932 J0.652080 F3500.000000
G02 X18.543827 Y9.161315 Z-1.000000 I0.490448 J-0.520114
G01 X18.725672 Y9.258435 Z-1.000000
G02 X18.621934 Y9.077477 Z-1.000000 I-0.178097 J0.000000
G03 X18.426488 Y9.023477 Z-1.000000 I0.374565 J-0.667425

(End cutting path id: path2)


(Start cutting path id: path2)
(Change tool to Default tool)



(End cutting path id: path2)


(Start cutting path id: path2)
(Change tool to Default tool)

G00 X18.398630 Y8.774665

G02 X18.568456 Y8.918616 Z-1.000000 I0.262668 J-0.233482
G02 X18.380368 Y8.737224 Z-1.000000 I-0.867071 J1.001828

(End cutting path id: path2)


(Start cutting path id: path2)
(Change tool to Default tool)


G02 X18.686742 Y8.853604 Z-1.000000 I0.807069 J-0.914354 F3500.000000
G03 X18.530994 Y8.726009 Z-1.000000 I0.353213 J-0.726999

(End cutting path id: path2)


(Start cutting path id: path2)
(Change tool to Default tool)

G00 X18.597614 Y8.519539


(End cutting path id: path2)


(Start cutting path id: path2)
(Change tool to Default tool)

G00 X18.820932 Y8.559489


(End cutting path id: path2)


(Start cutting path id: path2)
(Change tool to Default tool)


G02 X18.999082 Y8.676415 Z-1.000000 I0.161318 J-0.245289

(End cutting path id: path2)


(Start cutting path id: path2)
(Change tool to Default tool)

G00 X18.864285 Y8.974125


(End cutting path id: path2)


(Start cutting path id: path2)
(Change tool to Default tool)


G01 X19.057689 Y9.037275 Z-1.000000

(End cutting path id: path2)


(Start cutting path id: path2)
(Change tool to Default tool)


G02 X19.231907 Y9.170185 Z-1.000000 I0.429447 J-0.338189
G02 X19.330048 Y9.375243 Z-1.000000 I0.136985 J-0.000000
G02 X19.184971 Y9.086344 Z-1.000000 I-0.754965 J0.540605

(End cutting path id: path2)


(Start cutting path id: path2)
(Change tool to Default tool)



(End cutting path id: path2)


(Start cutting path id: path2)
(Change tool to Default tool)

G00 X18.884584 Y9.233577

G01 X19.009954 Y9.403007 Z-1.000000
G02 X18.916578 Y9.199844 Z-1.000000 I-0.104052 J-0.039828

(End cutting path id: path2)


(Start cutting path id: path2)
(Change tool to Default tool)

G00 X18.876536 Y9.405369

G02 X19.064097 Y9.601154 Z-1.000000 I0.564346 J-0.577959
G02 X18.885035 Y9.401040 Z-1.000000 I-0.564346 J0.577959

(End cutting path id: path2)


(Start cutting path id: path2)
(Change tool to Default tool)

G00 X18.937799 Y9.660429


(End cutting path id: path2)


(Start cutting path id: path2)
(Change tool to Default tool)


G02 X19.041960 Y9.859669 Z-1.000000 I0.312269 J-0.312395

(End cutting path id: path2)


(Start cutting path id: path2)
(Change tool to Default tool)


G02 X19.364521 Y10.028106 Z-1.000000 I0.190321 J-0.196379
G03 X19.209943 Y9.845944 Z-1.000000 I0.456420 J-0.798269

(End cutting path id: path2)


(Start cutting path id: path2)
(Change tool to Default tool)



(End cutting path id: path2)


(Start cutting path id: path2)
(Change tool to Default tool)

G00 X19.256683 Y10.282504


(End cutting path id: path2)


(Start cutting path id: path2)
(Change tool to Default tool)


G02 X19.471497 Y10.401374 Z-1.000000 I0.722150 J-0.697685 F3500.000000
G02 X19.329930 Y10.231606 Z-1.000000 I-0.510431 J0.489962

(End cutting path id: path2)


(Start cutting path id: path2)
(Change tool to Default tool)


G02 X19.538250 Y10.349123 Z-1.000000 I2.047344 J-1.871067

(End cutting path id: path2)


(Start cutting path id: path2)
(Change tool to Default tool)

G00 X19.170637 Y10.355841


(End cutting path id: path2)


(Start cutting path id: path2)
(Change tool to Default tool)

G00 X19.148985 Y10.611448


(End cutting path id: path2)


(Start cutting path id: path2)
(Change tool to Default tool)

G00 X19.293177 Y10.751648


(End cutting path id: path2)


(Start cutting path id: path2)
(Change tool to Default tool)



(End cutting path id: path2)


(Start cutting path id: path2)
(Change tool to Default tool)

G00 X19.538259 Y10.714158


(End cutting path id: path2)


(Start cutting path id: path2)
(Change tool to Default tool)


G01 X19.627198 Y10.895996 Z-1.000000
G02 X19.786612 Y11.144519 Z-1.000000 I1.064400 J-0.628774
G02 X19.647874 Y10.824340 Z-1.000000 I-0.804116 J0.411994

(End cutting path id: path2)


(Start cutting path id: path2)
(Change tool to Default tool)


G02 X19.650206 Y11.083550 Z-1.000000 I1.018487 J-0.511578 F3500.000000
G02 X19.480094 Y10.766724 Z-1.000000 I-4.740732 J3.152114

(End cutting path id: path2)


(Start cutting path id: path2)
(Change tool to Default tool)

G00 X19.813191 Y10.924655


(End cutting path id: path2)


(Start cutting path id: path2)
(Change tool to Default tool)



(End cutting path id: path2)


(Start cutting path id: path2)
(Change tool to Default tool)

G00 X19.739709 Y10.678548


(End cutting path id: path2)


(Start cutting path id: path2)
(Change tool to Default tool)


G02 X20.061521 Y10.833794 Z-1.000000 I1.601097 J-0.806395 F3500.000000
G02 X19.916008 Y10.554287 Z-1.000000 I-1.443401 J0.855070

(End cutting path id: path2)


(Start cutting path id: path2)
(Change tool to Default tool)


G02 X20.093800 Y10.714198 Z-1.000000 I0.327955 J-0.130009
G02 X20.253834 Y11.033506 Z-1.000000 I0.636798 J-0.196515
G03 X20.184487 Y10.792525 Z-1.000000 I1.264452 J-0.541966
G02 X20.382658 Y11.093277 Z-1.000000 I1.837549 J-1.056770
G02 X20.335056 Y10.880275 Z-1.000000 I-0.046762 J-0.028895
G02 X20.190157 Y10.680699 Z-1.000000 I-0.933439 J0.525320

(End cutting path id: path2)


(Start cutting path id: path2)
(Change tool to Default tool)


G02 X20.436552 Y10.885721 Z-1.000000 I0.124337 J-0.090582
G02 X20.260782 Y10.623481 Z-1.000000 I-0.552111 J0.371901

(End cutting path id: path2)


(Start cutting path id: path2)
(Change tool to Default tool)

G00 X20.479526 Y10.630075

G01 X20.507436 Y10.833777 Z-1.000000
G02 X20.506327 Y10.478856 Z-1.000000 I-1.322997 J-0.000000

(End cutting path id: path2)


(Start cutting path id: path2)
(Change tool to Default tool)

G00 X20.705424 Y10.776318


(End cutting path id: path2)


(Start cutting path id: path2)
(Change tool to Default tool)


G02 X20.621846 Y10.961733 Z-1.000000 I0.114328 J0.056422 F3500.000000
G02 X20.638505 Y11.320791 Z-1.000000 I4.821604 J-0.043791
G01 X20.687745 Y11.120054 Z-1.000000
G02 X20.646748 Y10.904463 Z-1.000000 I-0.062110 J-0.011527

(End cutting path id: path2)


(Start cutting path id: path2)
(Change tool to Default tool)


G02 X20.746633 Y11.092200 Z-1.000000 I0.168542 J0.004632 F3500.000000

(End cutting path id: path2)


(Start cutting path id: path2)
(Change tool to Default tool)



(End cutting path id: path2)


(Start cutting path id: path2)
(Change tool to Default tool)

G00 X20.556744 Y11.226594


(End cutting path id: path2)


(Start cutting path id: path2)
(Change tool to Default tool)

G00 X20.404569 Y11.382005

G02 X20.514813 Y11.675349 Z-1.000000 I0.570353 J-0.174787
G02 X20.461484 Y11.385770 Z-1.000000 I-1.245612 J0.152617

(End cutting path id: path2)


(Start cutting path id: path2)
(Change tool to Default tool)

G00 X19.955271 Y11.145117


(End cutting path id: path2)


(Start cutting path id: path2)
(Change tool to Default tool)


G03 X20.179699 Y11.263321 Z-1.000000 I-1.901326 J1.436804
G02 X20.019343 Y11.021853 Z-1.000000 I-1.629552 J1.219221

(End cutting path id: path2)


(Start cutting path id: path2)
(Change tool to Default tool)

G00 X20.018731 Y10.331624

G03 X20.181325 Y10.521562 Z-1.000000 I-0.729132 J0.624208
G02 X20.029518 Y10.315876 Z-1.000000 I-0.145442 J0.141356

(End cutting path id: path2)


(Start cutting path id: path2)
(Change tool to Default tool)

G00 X19.820093 Y10.150753


(End cutting path id: path2)


(Start cutting path id: path2)
(Change tool to Default tool)

G00 X19.676121 Y10.370821


(End cutting path id: path2)


(Start cutting path id: path2)
(Change tool to Default tool)

G00 X19.685841 Y9.708689

G02 X19.865285 Y10.005691 Z-1.000000 I2.387008 J-1.239485 F3500.000000
G02 X19.728214 Y9.717389 Z-1.000000 I-0.992719 J0.574908

(End cutting path id: path2)


(Start cutting path id: path2)
(Change tool to Default tool)

G00 X19.549215 Y9.562359

G02 X19.599758 Y9.774606 Z-1.000000 I0.324211 J-0.050323
G02 X19.583435 Y9.547776 Z-1.000000 I-0.176394 J0.100579

(End cutting path id: path2)


(Start cutting path id: path2)
(Change tool to Default tool)



(End cutting path id: path2)


(Start cutting path id: path2)
(Change tool to Default tool)

G00 X19.197232 Y9.562359

G03 X19.363505 Y9.772189 Z-1.000000 I-0.383257 J0.464547
G03 X19.447999 Y9.996874 Z-1.000000 I-0.294979 J0.129046
G02 X19.583028 Y10.153590 Z-1.000000 I0.486216 J-0.419141
G01 X19.513752 Y9.944556 Z-1.000000
G03 X19.681752 Y10.120214 Z-1.000000 I-1.146264 J1.096286
G03 X19.867852 Y10.323281 Z-1.000000 I-1.015228 J0.840069
G02 X20.006863 Y10.469171 Z-1.000000 I0.037300 J-0.035544
G02 X19.620201 Y9.998139 Z-1.000000 I-26.925305 J25.443396
G03 X19.403467 Y9.791053 Z-1.000000 I1.143273 J-1.031175
G02 X19.236461 Y9.578949 Z-1.000000 I-1.406685 J1.107558

(End cutting path id: path2)


(Start cutting path id: path2)
(Change tool to Default tool)

G00 X19.513751 Y9.277309

G02 X19.612415 Y9.480133 Z-1.000000 I0.285628 J-0.131901
G01 X19.525381 Y9.268201 Z-1.000000

(End cutting path id: path2)


(Start cutting path id: path2)
(Change tool to Default tool)


G03 X19.702600 Y9.434521 Z-1.000000 I-2.603140 J1.819814 F3500.000000
G02 X19.554371 Y9.176738 Z-1.000000 I-2.553820 J1.664039

(End cutting path id: path2)


(Start cutting path id: path2)
(Change tool to Default tool)

G00 X19.777504 Y9.256229


(End cutting path id: path2)


(Start cutting path id: path2)
(Change tool to Default tool)



(End cutting path id: path2)


(Start cutting path id: path2)
(Change tool to Default tool)


G03 X19.975812 Y9.319332 Z-1.000000 I-0.151480 J0.132993
G02 X19.997095 Y9.687332 Z-1.000000 I0.700227 J0.054002
G03 X20.062915 Y9.439414 Z-1.000000 I0.622476 J-0.036557
G03 X19.918597 Y9.176130 Z-1.000000 I0.487350 J-0.461393

(End cutting path id: path2)


(Start cutting path id: path2)
(Change tool to Default tool)

G00 X19.809784 Y8.988415


(End cutting path id: path2)


(Start cutting path id: path2)
(Change tool to Default tool)

G00 X20.006012 Y9.084385


(End cutting path id: path2)


(Start cutting path id: path2)
(Change tool to Default tool)



(End cutting path id: path2)


(Start cutting path id: path2)
(Change tool to Default tool)

G00 X20.281598 Y9.147057

G03 X20.261568 Y9.365250 Z-1.000000 I-0.240181 J-0.022021
G03 X20.486874 Y9.688864 Z-1.000000 I-0.927097 J0.419273
G02 X20.361356 Y9.247688 Z-1.000000 I-2.955272 J1.016569

(End cutting path id: path2)


(Start cutting path id: path2)
(Change tool to Default tool)


G01 X20.337932 Y9.467989 Z-1.000000 F3500.000000

(End cutting path id: path2)


(Start cutting path id: path2)
(Change tool to Default tool)


G02 X20.355759 Y9.740253 Z-1.000000 I0.826543 J-0.085313 F3500.000000
G01 X20.322490 Y9.501089 Z-1.000000

(End cutting path id: path2)


(Start cutting path id: path2)
(Change tool to Default tool)

G00 X20.102316 Y9.504448


(End cutting path id: path2)


(Start cutting path id: path2)
(Change tool to Default tool)

G00 X20.104439 Y9.861079

G03 X20.132891 Y10.067067 Z-1.000000 I-0.116037 J0.044114
G01 X20.203819 Y10.263291 Z-1.000000
G03 X20.189119 Y10.052603 Z-1.000000 I17.485066 J-3.280965
G03 X20.131579 Y9.856542 Z-1.000000 I4.566608 J-1.402357

(End cutting path id: path2)


(Start cutting path id: path2)
(Change tool to Default tool)

G00 X20.371526 Y10.073808

G02 X20.408286 Y10.289205 Z-1.000000 I0.408724 J-0.069748
G01 X20.390132 Y10.062237 Z-1.000000

(End cutting path id: path2)


(Start cutting path id: path2)
(Change tool to Default tool)


G02 X20.503530 Y10.283108 Z-1.000000 I0.675086 J0.014468 F3500.000000
G01 X20.499563 Y10.064946 Z-1.000000

(End cutting path id: path2)


(Start cutting path id: path2)
(Change tool to Default tool)


G03 X20.659615 Y10.317034 Z-1.000000 I-3.290078 J-0.035858 F3500.000000
G02 X20.699526 Y10.028091 Z-1.000000 I-0.949788 J-0.068827

(End cutting path id: path2)


(Start cutting path id: path2)
(Change tool to Default tool)


G02 X20.826167 Y10.262762 Z-1.000000 I0.360316 J0.014191 F3500.000000

(End cutting path id: path2)


(Start cutting path id: path2)
(Change tool to Default tool)



(End cutting path id: path2)


(Start cutting path id: path2)
(Change tool to Default tool)

G00 X21.106781 Y10.407062

G03 X21.059821 Y10.650101 Z-1.000000 I-0.237600 J-0.045903
G02 X21.254059 Y10.571420 Z-1.000000 I-0.142401 J-0.230400
G02 X21.122311 Y10.255963 Z-1.000000 I-0.450454 J0.002888

(End cutting path id: path2)


(Start cutting path id: path2)
(Change tool to Default tool)

G00 X20.973562 Y10.510948


(End cutting path id: path2)


(Start cutting path id: path2)
(Change tool to Default tool)


G03 X20.838989 Y10.725732 Z-1.000000 I-0.791403 J0.135052 F3500.000000
G02 X20.867335 Y10.968035 Z-1.000000 I0.260308 J0.002426
G02 X20.925109 Y10.738623 Z-1.000000 I-0.758603 J-0.216113
G01 X20.814653 Y10.554886 Z-1.000000

(End cutting path id: path2)


(Start cutting path id: path2)
(Change tool to Default tool)


G02 X20.616748 Y10.704341 Z-1.000000 I2.574233 J0.774711 F3500.000000
G02 X20.738790 Y10.513465 Z-1.000000 I-0.065674 J-0.035863

(End cutting path id: path2)


(Start cutting path id: path2)
(Change tool to Default tool)

G00 X20.618543 Y9.772809


(End cutting path id: path2)


(Start cutting path id: path2)
(Change tool to Default tool)

G00 X20.606112 Y9.519509


(End cutting path id: path2)


(Start cutting path id: path2)
(Change tool to Default tool)



(End cutting path id: path2)


(Start cutting path id: path2)
(Change tool to Default tool)

G00 X20.861359 Y9.538558

G03 X20.924279 Y9.776833 Z-1.000000 I-0.077416 J0.058513
G02 X20.899989 Y9.979026 Z-1.000000 I2.200244 J0.264909
G02 X21.011105 Y9.795815 Z-1.000000 I-0.460921 J-0.204830
G02 X20.898259 Y9.505598 Z-1.000000 I-0.648845 J0.085245

(End cutting path id: path2)


(Start cutting path id: path2)
(Change tool to Default tool)

G00 X20.899078 Y9.291709

G03 X20.973598 Y9.525536 Z-1.000000 I-2.915262 J1.154605
G02 X21.081317 Y9.757085 Z-1.000000 I1.210922 J-0.422505
G03 X20.935641 Y9.332140 Z-1.000000 I4.225558 J-1.892750

(End cutting path id: path2)


(Start cutting path id: path2)
(Change tool to Default tool)

G00 X20.830057 Y9.133415


(End cutting path id: path2)


(Start cutting path id: path2)
(Change tool to Default tool)



(End cutting path id: path2)


(Start cutting path id: path2)
(Change tool to Default tool)

G00 X21.021002 Y8.802625


(End cutting path id: path2)


(Start cutting path id: path2)
(Change tool to Default tool)

G00 X21.266257 Y8.973835


(End cutting path id: path2)


(Start cutting path id: path2)
(Change tool to Default tool)

G00 X21.621452 Y8.915965

G02 X21.295996 Y9.111185 Z-1.000000 I1.929759 J3.586042 F3500.000000
G02 X21.815475 Y8.837112 Z-1.000000 I-1.125559 J-1.969056
G02 X21.621452 Y8.915912 Z-1.000000 I0.720630 J1.774901

(End cutting path id: path2)


(Start cutting path id: path2)
(Change tool to Default tool)



(End cutting path id: path2)


(Start cutting path id: path2)
(Change tool to Default tool)


G02 X21.683809 Y9.107747 Z-1.000000 I0.469597 J0.724194 F3500.000000
G02 X21.914009 Y9.011450 Z-1.000000 I0.000000 J-0.171543

(End cutting path id: path2)


(Start cutting path id: path2)
(Change tool to Default tool)


G02 X21.753167 Y9.201560 Z-1.000000 I0.149050 J0.140027 F3500.000000

(End cutting path id: path2)


(Start cutting path id: path2)
(Change tool to Default tool)


G03 X21.552878 Y9.188878 Z-1.000000 I-0.022762 J-0.045981

(End cutting path id: path2)


(Start cutting path id: path2)
(Change tool to Default tool)

G00 X21.425387 Y9.343169


(End cutting path id: path2)


(Start cutting path id: path2)
(Change tool to Default tool)


G01 X21.434203 Y9.545390 Z-1.000000
G02 X21.639745 Y9.354907 Z-1.000000 I-2.581224 J-1.548609

(End cutting path id: path2)


(Start cutting path id: path2)
(Change tool to Default tool)


G03 X21.599055 Y9.573929 Z-1.000000 I-0.556647 J-0.109430
G03 X21.701774 Y9.396859 Z-1.000000 I0.189929 J0.098692

(End cutting path id: path2)


(Start cutting path id: path2)
(Change tool to Default tool)

G00 X21.292168 Y9.359049


(End cutting path id: path2)


(Start cutting path id: path2)
(Change tool to Default tool)


G03 X21.305612 Y9.828201 Z-1.000000 I-2.736363 J0.481984 F3500.000000
G03 X21.179310 Y9.985742 Z-1.000000 I-0.244264 J-0.134292
G03 X21.338407 Y9.838712 Z-1.000000 I0.090125 J-0.000000
G03 X21.324609 Y9.565236 Z-1.000000 I0.723661 J-0.513772

(End cutting path id: path2)


(Start cutting path id: path2)
(Change tool to Default tool)



(End cutting path id: path2)


(Start cutting path id: path2)
(Change tool to Default tool)

G00 X21.416835 Y10.021958

G02 X21.394450 Y10.263478 Z-1.000000 I0.211473 J0.025849
G02 X21.432814 Y10.021274 Z-1.000000 I-0.216299 J-0.004837

(End cutting path id: path2)


(Start cutting path id: path2)
(Change tool to Default tool)

G00 X21.719475 Y10.099093

G01 X21.622355 Y10.298423 Z-1.000000
G02 X21.731855 Y10.081371 Z-1.000000 I-0.094544 J-0.036032

(End cutting path id: path2)


(Start cutting path id: path2)
(Change tool to Default tool)



(End cutting path id: path2)


(Start cutting path id: path2)
(Change tool to Default tool)

G00 X21.686797 Y9.848379


(End cutting path id: path2)


(Start cutting path id: path2)
(Change tool to Default tool)

G00 X21.946220 Y9.997479


(End cutting path id: path2)


(Start cutting path id: path2)
(Change tool to Default tool)


G02 X22.001682 Y10.216478 Z-1.000000 I0.205834 J0.134861 F3500.000000

(End cutting path id: path2)


(Start cutting path id: path2)
(Change tool to Default tool)

G00 X22.161807 Y10.377521


(End cutting path id: path2)


(Start cutting path id: path2)
(Change tool to Default tool)

G00 X21.932389 Y10.537858


(End cutting path id: path2)


(Start cutting path id: path2)
(Change tool to Default tool)


G02 X21.667203 Y10.782247 Z-1.000000 I1.677145 J0.907905
G03 X21.585630 Y10.969290 Z-1.000000 I-4.313730 J-1.769990
G03 X21.735479 Y10.718800 Z-1.000000 I1.183121 J0.424840
G02 X21.942380 Y10.360125 Z-1.000000 I-1.495307 J-0.982089

(End cutting path id: path2)


(Start cutting path id: path2)
(Change tool to Default tool)

G00 X21.527289 Y10.616168


(End cutting path id: path2)


(Start cutting path id: path2)
(Change tool to Default tool)

G00 X21.482600 Y10.403031

G02 X21.374888 Y10.650857 Z-1.000000 I2.195114 J1.101382 F3500.000000
G02 X21.495260 Y10.406896 Z-1.000000 I-0.338526 J-0.141304

(End cutting path id: path2)


(Start cutting path id: path2)
(Change tool to Default tool)

G00 X21.292721 Y10.778618

G03 X21.264819 Y11.068627 Z-1.000000 I-0.336992 J-0.054811
G03 X21.205704 Y11.265241 Z-1.000000 I-1.094456 J-0.156032
G02 X21.320049 Y10.945228 Z-1.000000 I-1.193861 J-0.288220

(End cutting path id: path2)


(Start cutting path id: path2)
(Change tool to Default tool)


G01 X21.508420 Y11.024575 Z-1.000000
G03 X21.346943 Y11.367495 Z-1.000000 I-1.444368 J-0.470659
G03 X21.225760 Y11.715011 Z-1.000000 I-5.433641 J-2.992463
G02 X21.411750 Y11.435531 Z-1.000000 I-0.464825 J-0.246895
G02 X21.505475 Y11.164382 Z-1.000000 I-0.387857 J-0.194937
G02 X21.532379 Y10.911176 Z-1.000000 I-0.666846 J-0.058938

(End cutting path id: path2)


(Start cutting path id: path2)
(Change tool to Default tool)

G00 X21.206748 Y10.998103


(End cutting path id: path2)


(Start cutting path id: path2)
(Change tool to Default tool)

G00 X21.082134 Y11.234985

G02 X20.987144 Y11.477695 Z-1.000000 I0.874248 J0.358914
G02 X20.843625 Y11.623938 Z-1.000000 I0.290066 J0.165048
G03 X20.807123 Y11.844432 Z-1.000000 I-0.091955 J-0.000261
G02 X20.667691 Y12.181077 Z-1.000000 I7.373778 J3.236683
G01 X20.877709 Y12.102667 Z-1.000000
G02 X21.010284 Y11.819805 Z-1.000000 I-0.609078 J-0.164466
G03 X20.995045 Y11.577344 Z-1.000000 I1.884892 J-0.240175
G03 X21.070725 Y11.367704 Z-1.000000 I0.201187 J-0.028772

(End cutting path id: path2)


(Start cutting path id: path2)
(Change tool to Default tool)

G00 X21.392446 Y11.578315


(End cutting path id: path2)


(Start cutting path id: path2)
(Change tool to Default tool)

G00 X21.160181 Y11.693815


(End cutting path id: path2)


(Start cutting path id: path2)
(Change tool to Default tool)



(End cutting path id: path2)


(Start cutting path id: path2)
(Change tool to Default tool)

G00 X21.357635 Y12.213347

G02 X21.018880 Y12.342666 Z-1.000000 I0.045359 J0.538709
G03 X21.231729 Y12.327715 Z-1.000000 I0.039886 J0.088031
G02 X21.401484 Y12.190610 Z-1.000000 I-0.675661 J-0.790081

(End cutting path id: path2)


(Start cutting path id: path2)
(Change tool to Default tool)


G03 X21.404115 Y12.431448 Z-1.000000 I-0.232250 J-0.214924 F3500.000000
G02 X21.192592 Y12.478320 Z-1.000000 I2.800388 J21.233940
G03 X21.079134 Y12.661301 Z-1.000000 I-0.127781 J-0.133509
G03 X21.266191 Y12.489615 Z-1.000000 I0.134112 J0.121378
G03 X21.045361 Y12.790933 Z-1.000000 I-0.662552 J-0.587398
G02 X20.835208 Y12.873812 Z-1.000000 I0.065554 J0.140165
G02 X20.780126 Y13.208080 Z-1.000000 I0.814402 J0.413125
G02 X20.790318 Y13.430018 Z-1.000000 I0.834724 J0.120886
G02 X20.864508 Y13.226379 Z-1.000000 I-4.742028 J-0.881865
G03 X20.959768 Y12.880034 Z-1.000000 I1.419303 J0.204098
G02 X21.150457 Y12.760832 Z-1.000000 I-0.407509 J-0.570907
G03 X21.286655 Y12.564517 Z-1.000000 I0.066222 J-0.037780
G02 X21.482730 Y12.490980 Z-1.000000 I-0.000000 J-0.050642
G01 X21.678419 Y12.270565 Z-1.000000
G02 X21.490049 Y12.365838 Z-1.000000 I0.627486 J0.730950

(End cutting path id: path2)


(Start cutting path id: path2)
(Change tool to Default tool)


G02 X21.554900 Y12.574600 Z-1.000000 I0.046908 J0.043151 F3500.000000

(End cutting path id: path2)


(Start cutting path id: path2)
(Change tool to Default tool)


G03 X21.394555 Y12.728123 Z-1.000000 I-0.247493 J-0.175124
G02 X21.134735 Y13.040068 Z-1.000000 I2.129238 J2.037625
G03 X21.093532 Y13.249019 Z-1.000000 I-1.094982 J-0.589618
G02 X20.899517 Y13.526276 Z-1.000000 I0.625733 J0.417253
G03 X20.949917 Y13.746306 Z-1.000000 I-0.083414 J0.062491
G02 X20.913177 Y14.059607 Z-1.000000 I0.491454 J0.041830
G02 X21.098830 Y13.962010 Z-1.000000 I-0.071464 J-0.086130
G02 X21.223357 Y13.771627 Z-1.000000 I-0.025752 J-0.061849
G02 X21.428395 Y13.647664 Z-1.000000 I-0.199123 J-0.184346
G03 X21.376921 Y13.438135 Z-1.000000 I0.073310 J-0.118658
G03 X21.622615 Y13.299803 Z-1.000000 I0.245694 J0.149024
G03 X21.807673 Y13.074126 Z-1.000000 I2.583909 J1.816211
G03 X21.948544 Y12.896379 Z-1.000000 I6.652052 J5.127305
G03 X21.756817 Y13.027663 Z-1.000000 I-0.194032 J-0.068224
G02 X21.563053 Y13.295224 Z-1.000000 I5.708334 J4.113442
G01 X21.410842 Y13.507863 Z-1.000000
G01 X21.305102 Y13.679669 Z-1.000000
G02 X21.290498 Y13.437920 Z-1.000000 I-0.156566 J-0.041921
G03 X21.620230 Y12.965073 Z-1.000000 I1.487921 J0.658188
G02 X21.782806 Y12.774367 Z-1.000000 I-0.090625 J-0.082012
G02 X21.915470 Y12.620394 Z-1.000000 I-0.091440 J-0.111930
G02 X21.711061 Y12.802129 Z-1.000000 I0.288281 J0.324249
G02 X21.542694 Y13.001393 Z-1.000000 I0.121589 J0.098891
G01 X21.436638 Y13.178113 Z-1.000000
G02 X21.135562 Y13.508441 Z-1.000000 I1.389144 J0.906228
G03 X21.210485 Y13.086969 Z-1.000000 I1.498780 J0.312512
G02 X21.401793 Y12.994116 Z-1.000000 I-0.000521 J-0.176726
G03 X21.458508 Y12.735993 Z-1.000000 I52.368092 J42.624627

(End cutting path id: path2)


(Start cutting path id: path2)
(Change tool to Default tool)


G01 X21.474404 Y12.944944 Z-1.000000

(End cutting path id: path2)


(Start cutting path id: path2)
(Change tool to Default tool)


G03 X21.654946 Y12.858030 Z-1.000000 I0.079847 J0.030393

(End cutting path id: path2)


(Start cutting path id: path2)
(Change tool to Default tool)

G00 X22.016407 Y12.985584

G02 X21.534966 Y13.229973 Z-1.000000 I-0.085804 J0.376651
G02 X21.542956 Y13.519558 Z-1.000000 I0.156998 J0.140571
G02 X21.490156 Y13.714461 Z-1.000000 I0.049428 J0.007791
G03 X21.684427 Y13.487334 Z-1.000000 I0.844627 J0.716722
G02 X21.821054 Y13.312522 Z-1.000000 I-0.183752 J-0.143620
G03 X22.002652 Y13.057005 Z-1.000000 I0.975777 J0.571870

(End cutting path id: path2)


(Start cutting path id: path2)
(Change tool to Default tool)


G01 X21.948866 Y13.271329 Z-1.000000
G02 X22.132054 Y13.104365 Z-1.000000 I-1.626560 J-1.706545
G02 X22.378423 Y12.736471 Z-1.000000 I-5.205033 J-4.830777
G02 X22.134987 Y12.974258 Z-1.000000 I8.824837 J8.369920

(End cutting path id: path2)


(Start cutting path id: path2)
(Change tool to Default tool)

G00 X22.392452 Y12.799078


(End cutting path id: path2)


(Start cutting path id: path2)
(Change tool to Default tool)

G00 X22.245117 Y12.628027


(End cutting path id: path2)


(Start cutting path id: path2)
(Change tool to Default tool)


G03 X22.425857 Y12.472783 Z-1.000000 I2.902317 J2.568384

(End cutting path id: path2)


(Start cutting path id: path2)
(Change tool to Default tool)

G00 X22.258665 Y12.307328


(End cutting path id: path2)


(Start cutting path id: path2)
(Change tool to Default tool)



(End cutting path id: path2)


(Start cutting path id: path2)
(Change tool to Default tool)

G00 X22.220899 Y11.990308


(End cutting path id: path2)


(Start cutting path id: path2)
(Change tool to Default tool)



(End cutting path id: path2)


(Start cutting path id: path2)
(Change tool to Default tool)


G02 X22.330389 Y11.793354 Z-1.000000 I-0.060237 J-0.060672

(End cutting path id: path2)


(Start cutting path id: path2)
(Change tool to Default tool)


G01 X22.454782 Y11.630275 Z-1.000000

(End cutting path id: path2)


(Start cutting path id: path2)
(Change tool to Default tool)



(End cutting path id: path2)


(Start cutting path id: path2)
(Change tool to Default tool)


G03 X22.237300 Y11.607291 Z-1.000000 I-0.758665 J-0.825928 F3500.000000

(End cutting path id: path2)


(Start cutting path id: path2)
(Change tool to Default tool)

G00 X21.953362 Y11.349675


(End cutting path id: path2)


(Start cutting path id: path2)
(Change tool to Default tool)

G00 X21.793842 Y11.491035

G02 X21.206644 Y11.833588 Z-1.000000 I0.117873 J0.802590
G02 X21.470944 Y11.810895 Z-1.000000 I-2.205086 J-2.508218
G02 X21.381252 Y11.990434 Z-1.000000 I1.837586 J1.662954
G02 X21.683890 Y11.679810 Z-1.000000 I-5.055807 J-4.730927
G02 X21.808259 Y11.501421 Z-1.000000 I-1.031137 J-0.851434

(End cutting path id: path2)


(Start cutting path id: path2)
(Change tool to Default tool)


G02 X21.676167 Y11.769171 Z-1.000000 I1.853957 J1.569461 F3500.000000
G02 X21.841636 Y11.604619 Z-1.000000 I-1.289146 J-1.128804
G01 X21.955656 Y11.424892 Z-1.000000

(End cutting path id: path2)


(Start cutting path id: path2)
(Change tool to Default tool)


G02 X21.848073 Y11.665147 Z-1.000000 I0.553410 J0.393983 F3500.000000

(End cutting path id: path2)


(Start cutting path id: path2)
(Change tool to Default tool)


G03 X21.875264 Y11.871003 Z-1.000000 I-0.357137 J-0.242903 F3500.000000
G02 X21.729238 Y12.048162 Z-1.000000 I0.035539 J0.035946
G02 X21.963533 Y11.850792 Z-1.000000 I-0.528703 J-0.763949

(End cutting path id: path2)


(Start cutting path id: path2)
(Change tool to Default tool)

G00 X21.759661 Y11.909636

G03 X21.514543 Y12.047589 Z-1.000000 I-3.095716 J-5.499434
G02 X21.289710 Y12.174243 Z-1.000000 I1.408861 J2.763869
G02 X21.508840 Y12.099043 Z-1.000000 I-0.279435 J-0.528109
G02 X21.709277 Y11.977403 Z-1.000000 I-0.512802 J-0.762861

(End cutting path id: path2)


(Start cutting path id: path2)
(Change tool to Default tool)



(End cutting path id: path2)


(Start cutting path id: path2)
(Change tool to Default tool)

G00 X21.920750 Y12.185577


(End cutting path id: path2)


(Start cutting path id: path2)
(Change tool to Default tool)


G02 X21.759499 Y12.429821 Z-1.000000 I0.131112 J0.184652
G03 X21.533827 Y12.715168 Z-1.000000 I-0.941083 J-0.533710
G02 X21.747915 Y12.571345 Z-1.000000 I-2.115854 J-1.494987
G01 X21.895412 Y12.412428 Z-1.000000
G02 X22.035110 Y12.181705 Z-1.000000 I-0.331225 J-0.195317

(End cutting path id: path2)


(Start cutting path id: path2)
(Change tool to Default tool)


G02 X22.160633 Y11.926554 Z-1.000000 I-0.141280 J-0.132347

(End cutting path id: path2)


(Start cutting path id: path2)
(Change tool to Default tool)

G00 X22.405010 Y12.055298

G01 X22.246415 Y12.219952 Z-1.000000 F3500.000000
G01 X22.417972 Y12.062512 Z-1.000000
G03 X22.590005 Y11.905660 Z-1.000000 I24.515667 J26.715537
G02 X22.405012 Y12.055312 Z-1.000000 I2.222622 J2.453619

(End cutting path id: path2)


(Start cutting path id: path2)
(Change tool to Default tool)

G00 X22.759332 Y12.097207


(End cutting path id: path2)


(Start cutting path id: path2)
(Change tool to Default tool)

G00 X22.591255 Y12.364398

G02 X22.770678 Y12.212256 Z-1.000000 I-1.717408 J-1.909573
G02 X22.591255 Y12.364398 Z-1.000000 I2.734111 J2.552668

(End cutting path id: path2)


(Start cutting path id: path2)
(Change tool to Default tool)



(End cutting path id: path2)


(Start cutting path id: path2)
(Change tool to Default tool)

G00 X22.638542 Y12.699417


(End cutting path id: path2)


(Start cutting path id: path2)
(Change tool to Default tool)

G00 X22.834607 Y12.846474


(End cutting path id: path2)


(Start cutting path id: path2)
(Change tool to Default tool)

G00 X23.078681 Y12.725557


(End cutting path id: path2)


(Start cutting path id: path2)
(Change tool to Default tool)


G01 X22.987551 Y12.537873 Z-1.000000

(End cutting path id: path2)


(Start cutting path id: path2)
(Change tool to Default tool)


G02 X22.783414 Y12.576580 Z-1.000000 I0.127279 J0.133049 F3500.000000

(End cutting path id: path2)


(Start cutting path id: path2)
(Change tool to Default tool)

G00 X23.081264 Y12.447193


(End cutting path id: path2)


(Start cutting path id: path2)
(Change tool to Default tool)



(End cutting path id: path2)


(Start cutting path id: path2)
(Change tool to Default tool)

G00 X23.173924 Y12.124537


(End cutting path id: path2)


(Start cutting path id: path2)
(Change tool to Default tool)

G00 X22.773340 Y11.744968


(End cutting path id: path2)


(Start cutting path id: path2)
(Change tool to Default tool)

G00 X23.010188 Y11.489445


(End cutting path id: path2)


(Start cutting path id: path2)
(Change tool to Default tool)

G00 X22.920382 Y11.192095


(End cutting path id: path2)


(Start cutting path id: path2)
(Change tool to Default tool)

G00 X22.405711 Y11.094057


(End cutting path id: path2)


(Start cutting path id: path2)
(Change tool to Default tool)

G00 X22.009230 Y10.976643


(End cutting path id: path2)


(Start cutting path id: path2)
(Change tool to Default tool)


G03 X21.778271 Y11.140025 Z-1.000000 I-1.735274 J-0.807526 F3500.000000
G02 X21.602844 Y11.427729 Z-1.000000 I1.425869 J0.954452
G02 X21.817515 Y11.160101 Z-1.000000 I-0.359855 J-0.272553
G03 X21.936759 Y10.904161 Z-1.000000 I0.645937 J0.300946

(End cutting path id: path2)


(Start cutting path id: path2)
(Change tool to Default tool)

G00 X21.598126 Y11.220491

G03 X21.533112 Y11.422683 Z-1.000000 I-0.142670 J-0.000993
G02 X21.729593 Y11.197477 Z-1.000000 I0.000000 J-0.158206

(End cutting path id: path2)


(Start cutting path id: path2)
(Change tool to Default tool)

G00 X22.516439 Y10.689208


(End cutting path id: path2)


(Start cutting path id: path2)
(Change tool to Default tool)



(End cutting path id: path2)


(Start cutting path id: path2)
(Change tool to Default tool)

G00 X22.513661 Y10.230403


(End cutting path id: path2)


(Start cutting path id: path2)
(Change tool to Default tool)

G00 X22.341961 Y10.110268


(End cutting path id: path2)


(Start cutting path id: path2)
(Change tool to Default tool)

G00 X22.165527 Y9.768909


(End cutting path id: path2)


(Start cutting path id: path2)
(Change tool to Default tool)

G00 X22.177286 Y9.360115

G02 X22.004384 Y9.527176 Z-1.000000 I8.379243 J8.845216 F3500.000000
G02 X22.381466 Y9.222160 Z-1.000000 I-1.502056 J-1.875215
G02 X22.177282 Y9.360118 Z-1.000000 I3.268682 J3.797158

(End cutting path id: path2)


(Start cutting path id: path2)
(Change tool to Default tool)


G02 X21.691215 Y9.673940 Z-1.000000 I3.457895 J3.383526 F3500.000000
G03 X21.869144 Y9.505858 Z-1.000000 I0.554515 J0.312305
G02 X22.317753 Y9.029409 Z-1.000000 I-3.335720 J-3.534944
G02 X22.097750 Y9.200992 Z-1.000000 I10.459221 J10.627785

(End cutting path id: path2)


(Start cutting path id: path2)
(Change tool to Default tool)



(End cutting path id: path2)


(Start cutting path id: path2)
(Change tool to Default tool)

G00 X22.038091 Y8.912925


(End cutting path id: path2)


(Start cutting path id: path2)
(Change tool to Default tool)



(End cutting path id: path2)


(Start cutting path id: path2)
(Change tool to Default tool)

G00 X22.264791 Y8.829955


(End cutting path id: path2)


(Start cutting path id: path2)
(Change tool to Default tool)



(End cutting path id: path2)


(Start cutting path id: path2)
(Change tool to Default tool)

G00 X22.489950 Y9.102695


(End cutting path id: path2)


(Start cutting path id: path2)
(Change tool to Default tool)


G02 X22.786242 Y9.071101 Z-1.000000 I-0.329556 J-0.511440

(End cutting path id: path2)


(Start cutting path id: path2)
(Change tool to Default tool)



(End cutting path id: path2)


(Start cutting path id: path2)
(Change tool to Default tool)

G00 X22.834606 Y8.851655


(End cutting path id: path2)


(Start cutting path id: path2)
(Change tool to Default tool)



(End cutting path id: path2)


(Start cutting path id: path2)
(Change tool to Default tool)

G00 X23.047809 Y8.802295


(End cutting path id: path2)


(Start cutting path id: path2)
(Change tool to Default tool)



(End cutting path id: path2)


(Start cutting path id: path2)
(Change tool to Default tool)



(End cutting path id: path2)


(Start cutting path id: path2)
(Change tool to Default tool)

G00 X23.232863 Y8.916875


(End cutting path id: path2)


(Start cutting path id: path2)
(Change tool to Default tool)



(End cutting path id: path2)


(Start cutting path id: path2)
(Change tool to Default tool)

G00 X23.385812 Y8.594555


(End cutting path id: path2)


(Start cutting path id: path2)
(Change tool to Default tool)



(End cutting path id: path2)


(Start cutting path id: path2)
(Change tool to Default tool)

G00 X23.508577 Y8.238910


(End cutting path id: path2)


(Start cutting path id: path2)
(Change tool to Default tool)



(End cutting path id: path2)


(Start cutting path id: path2)
(Change tool to Default tool)


G03 X23.704652 Y8.107780 Z-1.000000 I-0.138524 J0.816619

(End cutting path id: path2)


(Start cutting path id: path2)
(Change tool to Default tool)



(End cutting path id: path2)


(Start cutting path id: path2)
(Change tool to Default tool)

G00 X23.631118 Y8.361459


(End cutting path id: path2)


(Start cutting path id: path2)
(Change tool to Default tool)

G00 X23.876202 Y8.816775


(End cutting path id: path2)


(Start cutting path id: path2)
(Change tool to Default tool)

G00 X24.121284 Y8.851655

G02 X23.773445 Y8.966980 Z-1.000000 I0.017373 J0.634569
G03 X23.986488 Y8.964640 Z-1.000000 I0.055062 J0.144103
G02 X24.234184 Y8.857649 Z-1.000000 I-0.134360 J-0.651274

(End cutting path id: path2)


(Start cutting path id: path2)
(Change tool to Default tool)


G01 X24.269771 Y8.655585 Z-1.000000

(End cutting path id: path2)


(Start cutting path id: path2)
(Change tool to Default tool)

G00 X24.699845 Y8.645365


(End cutting path id: path2)


(Start cutting path id: path2)
(Change tool to Default tool)


G02 X24.722471 Y8.443213 Z-1.000000 I-0.045983 J-0.038158

(End cutting path id: path2)


(Start cutting path id: path2)
(Change tool to Default tool)



(End cutting path id: path2)


(Start cutting path id: path2)
(Change tool to Default tool)

G00 X25.170539 Y8.770315


(End cutting path id: path2)


(Start cutting path id: path2)
(Change tool to Default tool)

G00 X24.170300 Y9.268199


(End cutting path id: path2)


(Start cutting path id: path2)
(Change tool to Default tool)


G01 X24.121813 Y9.471049 Z-1.000000

(End cutting path id: path2)


(Start cutting path id: path2)
(Change tool to Default tool)

G00 X24.341851 Y9.562399


(End cutting path id: path2)


(Start cutting path id: path2)
(Change tool to Default tool)



(End cutting path id: path2)


(Start cutting path id: path2)
(Change tool to Default tool)

G00 X24.043154 Y9.750749


(End cutting path id: path2)


(Start cutting path id: path2)
(Change tool to Default tool)

G00 X24.198564 Y10.000728


(End cutting path id: path2)


(Start cutting path id: path2)
(Change tool to Default tool)

G00 X24.389655 Y10.115443


(End cutting path id: path2)


(Start cutting path id: path2)
(Change tool to Default tool)


G02 X24.542757 Y10.245279 Z-1.000000 I0.087908 J-0.054127 F3500.000000

(End cutting path id: path2)


(Start cutting path id: path2)
(Change tool to Default tool)


G02 X24.795258 Y10.367516 Z-1.000000 I0.320206 J-0.870724
G02 X25.012787 Y10.410240 Z-1.000000 I0.015898 J-0.060741
G03 X24.672776 Y10.294027 Z-1.000000 I12.358371 J-49.855115

(End cutting path id: path2)


(Start cutting path id: path2)
(Change tool to Default tool)

G00 X24.482779 Y10.362795


(End cutting path id: path2)


(Start cutting path id: path2)
(Change tool to Default tool)

G00 X24.116689 Y10.314311


(End cutting path id: path2)


(Start cutting path id: path2)
(Change tool to Default tool)

G00 X23.793579 Y10.072078


(End cutting path id: path2)


(Start cutting path id: path2)
(Change tool to Default tool)



(End cutting path id: path2)


(Start cutting path id: path2)
(Change tool to Default tool)

G00 X23.480650 Y10.054088


(End cutting path id: path2)


(Start cutting path id: path2)
(Change tool to Default tool)

G00 X23.472423 Y10.297626

G01 X23.533293 Y10.493694 Z-1.000000
G02 X23.485893 Y10.283328 Z-1.000000 I-0.550948 J0.124153

(End cutting path id: path2)


(Start cutting path id: path2)
(Change tool to Default tool)

G00 X23.288007 Y10.617578


(End cutting path id: path2)


(Start cutting path id: path2)
(Change tool to Default tool)

G00 X22.993909 Y10.371095


(End cutting path id: path2)


(Start cutting path id: path2)
(Change tool to Default tool)

G00 X22.800304 Y10.525378


(End cutting path id: path2)


(Start cutting path id: path2)
(Change tool to Default tool)

G00 X22.871358 Y9.930079


(End cutting path id: path2)


(Start cutting path id: path2)
(Change tool to Default tool)

G00 X22.866767 Y9.554599


(End cutting path id: path2)


(Start cutting path id: path2)
(Change tool to Default tool)



(End cutting path id: path2)


(Start cutting path id: path2)
(Change tool to Default tool)

G00 X22.908304 Y9.194407


(End cutting path id: path2)


(Start cutting path id: path2)
(Change tool to Default tool)

G00 X22.524836 Y9.539339


(End cutting path id: path2)


(Start cutting path id: path2)
(Change tool to Default tool)

G00 X23.445818 Y9.686889

G03 X23.572628 Y9.848889 Z-1.000000 I-0.469574 J0.598777
G02 X23.451259 Y9.682160 Z-1.000000 I-0.627835 J0.574401

(End cutting path id: path2)


(Start cutting path id: path2)
(Change tool to Default tool)

G00 X23.459564 Y9.281629

G02 X23.270780 Y9.349440 Z-1.000000 I0.001546 J0.092743
G02 X23.530359 Y9.299511 Z-1.000000 I-0.253221 J-1.109408

(End cutting path id: path2)


(Start cutting path id: path2)
(Change tool to Default tool)

G00 X23.739965 Y9.134815


(End cutting path id: path2)


(Start cutting path id: path2)
(Change tool to Default tool)


G02 X23.906838 Y9.260999 Z-1.000000 I0.000000 J-0.293545

(End cutting path id: path2)


(Start cutting path id: path2)
(Change tool to Default tool)

G00 X22.712062 Y8.410479


(End cutting path id: path2)


(Start cutting path id: path2)
(Change tool to Default tool)



(End cutting path id: path2)


(Start cutting path id: path2)
(Change tool to Default tool)

G00 X22.994284 Y7.938182


(End cutting path id: path2)


(Start cutting path id: path2)
(Change tool to Default tool)



(End cutting path id: path2)


(Start cutting path id: path2)
(Change tool to Default tool)

G00 X23.051788 Y7.736506


(End cutting path id: path2)


(Start cutting path id: path2)
(Change tool to Default tool)

G00 X22.469323 Y7.641192


(End cutting path id: path2)


(Start cutting path id: path2)
(Change tool to Default tool)

G00 X22.019229 Y7.234089


(End cutting path id: path2)


(Start cutting path id: path2)
(Change tool to Default tool)

G00 X21.780750 Y7.528172


(End cutting path id: path2)


(Start cutting path id: path2)
(Change tool to Default tool)

G00 X21.743988 Y7.762492


(End cutting path id: path2)


(Start cutting path id: path2)
(Change tool to Default tool)

G00 X21.367180 Y7.890802


(End cutting path id: path2)


(Start cutting path id: path2)
(Change tool to Default tool)

G00 X21.033251 Y7.833172


(End cutting path id: path2)


(Start cutting path id: path2)
(Change tool to Default tool)



(End cutting path id: path2)


(Start cutting path id: path2)
(Change tool to Default tool)

G00 X20.788170 Y7.648492


(End cutting path id: path2)


(Start cutting path id: path2)
(Change tool to Default tool)

G00 X20.328131 Y7.728852


(End cutting path id: path2)


(Start cutting path id: path2)
(Change tool to Default tool)



(End cutting path id: path2)


(Start cutting path id: path2)
(Change tool to Default tool)


G03 X20.199977 Y7.908066 Z-1.000000 I-0.049802 J-0.031939

(End cutting path id: path2)


(Start cutting path id: path2)
(Change tool to Default tool)

G00 X20.248991 Y7.513912


(End cutting path id: path2)


(Start cutting path id: path2)
(Change tool to Default tool)


G01 X20.396043 Y7.367432 Z-1.000000

(End cutting path id: path2)


(Start cutting path id: path2)
(Change tool to Default tool)



(End cutting path id: path2)


(Start cutting path id: path2)
(Change tool to Default tool)

G00 X20.150963 Y7.084418


(End cutting path id: path2)


(Start cutting path id: path2)
(Change tool to Default tool)

G00 X19.800082 Y7.777866


(End cutting path id: path2)


(Start cutting path id: path2)
(Change tool to Default tool)

G00 X19.578044 Y7.811012


(End cutting path id: path2)


(Start cutting path id: path2)
(Change tool to Default tool)


G03 X19.374425 Y7.762702 Z-1.000000 I-0.012557 J-0.053858

(End cutting path id: path2)


(Start cutting path id: path2)
(Change tool to Default tool)



(End cutting path id: path2)


(Start cutting path id: path2)
(Change tool to Default tool)

G00 X19.403464 Y7.405646


(End cutting path id: path2)


(Start cutting path id: path2)
(Change tool to Default tool)

G00 X19.170632 Y7.644892


(End cutting path id: path2)


(Start cutting path id: path2)
(Change tool to Default tool)

G00 X19.041448 Y7.407882


(End cutting path id: path2)


(Start cutting path id: path2)
(Change tool to Default tool)

G00 X18.631452 Y7.431582


(End cutting path id: path2)


(Start cutting path id: path2)
(Change tool to Default tool)

G00 X18.496662 Y7.087018


(End cutting path id: path2)


(Start cutting path id: path2)
(Change tool to Default tool)

G00 X19.182888 Y8.091890


(End cutting path id: path2)


(Start cutting path id: path2)
(Change tool to Default tool)

G00 X19.550510 Y8.508509


(End cutting path id: path2)


(Start cutting path id: path2)
(Change tool to Default tool)

G00 X19.333375 Y8.986515


(End cutting path id: path2)


(Start cutting path id: path2)
(Change tool to Default tool)

G00 X20.282136 Y8.630945


(End cutting path id: path2)


(Start cutting path id: path2)
(Change tool to Default tool)

G00 X20.759069 Y8.574265


(End cutting path id: path2)


(Start cutting path id: path2)
(Change tool to Default tool)

G00 X21.793006 Y8.559545


(End cutting path id: path2)


(Start cutting path id: path2)
(Change tool to Default tool)

G00 X24.047760 Y7.871252


(End cutting path id: path2)


(Start cutting path id: path2)
(Change tool to Default tool)

G00 X24.378616 Y7.111535


(End cutting path id: path2)


(Start cutting path id: path2)
(Change tool to Default tool)

G00 X24.476648 Y6.817438


(End cutting path id: path2)


(Start cutting path id: path2)
(Change tool to Default tool)

G00 X24.758492 Y6.769868


(End cutting path id: path2)


(Start cutting path id: path2)
(Change tool to Default tool)

G00 X24.819762 Y6.400799


(End cutting path id: path2)


(Start cutting path id: path2)
(Change tool to Default tool)

G00 X25.530499 Y6.155717


(End cutting path id: path2)


(Start cutting path id: path2)
(Change tool to Default tool)

G00 X25.702060 Y5.346939


(End cutting path id: path2)


(Start cutting path id: path2)
(Change tool to Default tool)

G00 X25.343566 Y4.286941


(End cutting path id: path2)


(Start cutting path id: path2)
(Change tool to Default tool)

G00 X25.640790 Y3.778431


(End cutting path id: path2)


(Start cutting path id: path2)
(Change tool to Default tool)

G00 X25.928407 Y3.842061


(End cutting path id: path2)


(Start cutting path id: path2)
(Change tool to Default tool)

G00 X25.637663 Y3.453709


(End cutting path id: path2)


(Start cutting path id: path2)
(Change tool to Default tool)



(End cutting path id: path2)


(Start cutting path id: path2)
(Change tool to Default tool)

G00 X25.567265 Y3.115919


(End cutting path id: path2)


(Start cutting path id: path2)
(Change tool to Default tool)

G00 X26.144500 Y3.359679


(End cutting path id: path2)


(Start cutting path id: path2)
(Change tool to Default tool)

G00 X26.351526 Y4.219541


(End cutting path id: path2)


(Start cutting path id: path2)
(Change tool to Default tool)

G00 X25.156754 Y2.373176


(End cutting path id: path2)


(Start cutting path id: path2)
(Change tool to Default tool)

G00 X24.750327 Y2.569349


(End cutting path id: path2)


(Start cutting path id: path2)
(Change tool to Default tool)

G00 X24.141197 Y4.726469


(End cutting path id: path2)


(Start cutting path id: path2)
(Change tool to Default tool)



(End cutting path id: path2)


(Start cutting path id: path2)
(Change tool to Default tool)

G00 X24.007326 Y4.966958


(End cutting path id: path2)


(Start cutting path id: path2)
(Change tool to Default tool)

G00 X24.268330 Y5.212143


(End cutting path id: path2)


(Start cutting path id: path2)
(Change tool to Default tool)

G00 X24.072268 Y5.518496


(End cutting path id: path2)


(Start cutting path id: path2)
(Change tool to Default tool)



(End cutting path id: path2)


(Start cutting path id: path2)
(Change tool to Default tool)

G00 X24.459799 Y5.706798


(End cutting path id: path2)


(Start cutting path id: path2)
(Change tool to Default tool)

G00 X24.047757 Y5.959556


(End cutting path id: path2)


(Start cutting path id: path2)
(Change tool to Default tool)

G00 X23.533085 Y5.553726


(End cutting path id: path2)


(Start cutting path id: path2)
(Change tool to Default tool)



(End cutting path id: path2)


(Start cutting path id: path2)
(Change tool to Default tool)

G00 X22.211364 Y5.595146

G01 X22.031804 Y5.464881 Z-1.000000
G03 X22.211321 Y5.595121 Z-1.000000 I-0.104387 J0.118869

(End cutting path id: path2)


(Start cutting path id: path2)
(Change tool to Default tool)

G00 X19.687610 Y3.273199


(End cutting path id: path2)


(Start cutting path id: path2)
(Change tool to Default tool)

G00 X17.406050 Y4.096981


(End cutting path id: path2)


(Start cutting path id: path2)
(Change tool to Default tool)


G01 X17.234882 Y4.219551 Z-1.000000

(End cutting path id: path2)


(Start cutting path id: path2)
(Change tool to Default tool)

G00 X16.787671 Y4.468749


(End cutting path id: path2)


(Start cutting path id: path2)
(Change tool to Default tool)

G00 X16.049238 Y4.109231


(End cutting path id: path2)


(Start cutting path id: path2)
(Change tool to Default tool)

G00 X15.935560 Y3.851961


(End cutting path id: path2)


(Start cutting path id: path2)
(Change tool to Default tool)

G00 X15.886544 Y3.410819


(End cutting path id: path2)


(Start cutting path id: path2)
(Change tool to Default tool)

G00 X15.567938 Y3.386279


(End cutting path id: path2)


(Start cutting path id: path2)
(Change tool to Default tool)



(End cutting path id: path2)


(Start cutting path id: path2)
(Change tool to Default tool)

G00 X15.420889 Y3.619139


(End cutting path id: path2)


(Start cutting path id: path2)
(Change tool to Default tool)



(End cutting path id: path2)


(Start cutting path id: path2)
(Change tool to Default tool)

G00 X15.126791 Y3.533359


(End cutting path id: path2)


(Start cutting path id: path2)
(Change tool to Default tool)

G00 X14.934236 Y4.045301


(End cutting path id: path2)


(Start cutting path id: path2)
(Change tool to Default tool)

G00 X15.764003 Y4.685219


(End cutting path id: path2)


(Start cutting path id: path2)
(Change tool to Default tool)

G00 X16.964898 Y7.868752


(End cutting path id: path2)


(Start cutting path id: path2)
(Change tool to Default tool)

G00 X16.414908 Y8.682455

G02 X16.685490 Y8.907675 Z-1.000000 I0.471611 J-0.291450 F3500.000000
G02 X16.885614 Y8.865610 Z-1.000000 I0.067837 J-0.174348
G03 X16.660474 Y8.779339 Z-1.000000 I0.409067 J-1.375341
G02 X16.419547 Y8.676663 Z-1.000000 I-0.441926 J0.914984

(End cutting path id: path2)


(Start cutting path id: path2)
(Change tool to Default tool)

G00 X16.205147 Y8.604675


(End cutting path id: path2)


(Start cutting path id: path2)
(Change tool to Default tool)

G00 X16.450232 Y9.006293

G01 X16.605632 Y9.157923 Z-1.000000
G02 X16.470074 Y8.996094 Z-1.000000 I-0.275243 J0.189572

(End cutting path id: path2)


(Start cutting path id: path2)
(Change tool to Default tool)

G00 X16.737794 Y8.879205


(End cutting path id: path2)


(Start cutting path id: path2)
(Change tool to Default tool)


G01 X16.907081 Y9.007496 Z-1.000000
G02 X17.095849 Y9.124704 Z-1.000000 I0.255654 J-0.255654
G02 X16.873573 Y8.965044 Z-1.000000 I-0.179694 J0.284643

(End cutting path id: path2)


(Start cutting path id: path2)
(Change tool to Default tool)


G02 X17.087445 Y8.961945 Z-1.000000 I0.157781 J-0.320204

(End cutting path id: path2)


(Start cutting path id: path2)
(Change tool to Default tool)

G00 X16.732075 Y9.194688


(End cutting path id: path2)


(Start cutting path id: path2)
(Change tool to Default tool)

G00 X17.051862 Y9.870249

G02 X16.753358 Y9.948440 Z-1.000000 I0.004175 J0.188911
G03 X17.012353 Y9.930069 Z-1.000000 I0.064018 J0.220099

(End cutting path id: path2)


(Start cutting path id: path2)
(Change tool to Default tool)


G02 X17.253942 Y9.923364 Z-1.000000 I0.104955 J-0.196090

(End cutting path id: path2)


(Start cutting path id: path2)
(Change tool to Default tool)



(End cutting path id: path2)


(Start cutting path id: path2)
(Change tool to Default tool)


G03 X17.538889 Y9.927104 Z-1.000000 I-0.328864 J1.184614 F3500.000000
G01 X17.320273 Y9.860939 Z-1.000000

(End cutting path id: path2)


(Start cutting path id: path2)
(Change tool to Default tool)

G00 X17.673778 Y9.569259

G01 X17.838151 Y9.770822 Z-1.000000
G03 X17.998218 Y9.979141 Z-1.000000 I-0.264091 J0.202932
G02 X17.869550 Y9.770717 Z-1.000000 I-3.264024 J2.257659
G02 X17.704100 Y9.578514 Z-1.000000 I-4.643310 J3.829703

(End cutting path id: path2)


(Start cutting path id: path2)
(Change tool to Default tool)

G00 X18.217269 Y10.045388


(End cutting path id: path2)


(Start cutting path id: path2)
(Change tool to Default tool)


G02 X18.276793 Y10.331866 Z-1.000000 I1.525757 J-0.932407 F3500.000000
G03 X18.451689 Y10.566958 Z-1.000000 I-0.990235 J0.806881
G02 X18.448453 Y10.312180 Z-1.000000 I-0.899905 J-0.006455
G02 X18.212574 Y10.199765 Z-1.000000 I-0.684491 J0.446976

(End cutting path id: path2)


(Start cutting path id: path2)
(Change tool to Default tool)


G02 X18.088812 Y10.370832 Z-1.000000 I0.273379 J0.008164 F3500.000000

(End cutting path id: path2)


(Start cutting path id: path2)
(Change tool to Default tool)

G00 X18.265803 Y10.591668


(End cutting path id: path2)


(Start cutting path id: path2)
(Change tool to Default tool)


G02 X18.306110 Y10.800113 Z-1.000000 I0.231617 J-0.182211

(End cutting path id: path2)


(Start cutting path id: path2)
(Change tool to Default tool)



(End cutting path id: path2)


(Start cutting path id: path2)
(Change tool to Default tool)

G00 X18.533425 Y10.787628


(End cutting path id: path2)


(Start cutting path id: path2)
(Change tool to Default tool)


G01 X18.639454 Y10.975406 Z-1.000000
G02 X18.706359 Y11.227462 Z-1.000000 I0.383910 J-0.000000
G03 X18.710252 Y10.970713 Z-1.000000 I6.192779 J-3.038198
G02 X18.620696 Y10.750925 Z-1.000000 I-20.997121 J8.406489

(End cutting path id: path2)


(Start cutting path id: path2)
(Change tool to Default tool)

G00 X18.753998 Y10.974993


(End cutting path id: path2)


(Start cutting path id: path2)
(Change tool to Default tool)

G00 X18.852117 Y11.179837

G02 X18.930352 Y11.393903 Z-1.000000 I0.226605 J-0.110078
G02 X19.178115 Y11.603254 Z-1.000000 I0.495949 J-0.448089
G03 X19.037262 Y11.382515 Z-1.000000 I1.255719 J-1.320755
G02 X18.922075 Y11.217527 Z-1.000000 I-0.673472 J0.396910

(End cutting path id: path2)


(Start cutting path id: path2)
(Change tool to Default tool)

G00 X18.485033 Y11.226415

G02 X18.655045 Y11.541202 Z-1.000000 I0.317025 J-0.171257
G03 X18.559945 Y11.345226 Z-1.000000 I1.368239 J-0.846749

(End cutting path id: path2)


(Start cutting path id: path2)
(Change tool to Default tool)

G00 X18.437325 Y11.120607


(End cutting path id: path2)


(Start cutting path id: path2)
(Change tool to Default tool)

G00 X18.447660 Y11.424895

G02 X18.547576 Y11.689491 Z-1.000000 I1.107375 J-0.267001 F3500.000000
G03 X18.497633 Y11.486164 Z-1.000000 I2.551897 J-1.503944

(End cutting path id: path2)


(Start cutting path id: path2)
(Change tool to Default tool)

G00 X18.624240 Y11.677975

G02 X18.840446 Y11.996882 Z-1.000000 I3.320048 J-2.250557
G03 X19.016837 Y12.253086 Z-1.000000 I-1.482951 J1.209803
G02 X19.153678 Y12.412594 Z-1.000000 I0.120994 J-0.095191
G02 X19.045626 Y12.023878 Z-1.000000 I-0.384154 J0.130717
G02 X18.943706 Y11.807138 Z-1.000000 I-0.290364 J0.100989
G03 X19.064102 Y12.217253 Z-1.000000 I-4.342222 J2.189852
G02 X18.935737 Y12.027513 Z-1.000000 I-1.499792 J0.778928
G02 X18.739957 Y11.788519 Z-1.000000 I-0.676712 J0.614473

(End cutting path id: path2)


(Start cutting path id: path2)
(Change tool to Default tool)



(End cutting path id: path2)


(Start cutting path id: path2)
(Change tool to Default tool)

G00 X18.925560 Y11.656315

G03 X19.231810 Y12.103219 Z-1.000000 I-1.397563 J1.138449
G03 X19.306418 Y12.316077 Z-1.000000 I-0.658949 J0.350470
G02 X19.197412 Y11.973857 Z-1.000000 I-1.165614 J0.574237
G02 X18.949626 Y11.647422 Z-1.000000 I-2.899316 J1.943517

(End cutting path id: path2)


(Start cutting path id: path2)
(Change tool to Default tool)

G00 X19.590603 Y12.378368

G02 X19.417872 Y12.525417 Z-1.000000 I0.291267 J0.342114
G02 X19.318982 Y12.799710 Z-1.000000 I0.297185 J0.020477
G02 X19.439582 Y12.606107 Z-1.000000 I-0.198033 J-0.057326
G03 X19.616290 Y12.403361 Z-1.000000 I1.254108 J1.072988

(End cutting path id: path2)


(Start cutting path id: path2)
(Change tool to Default tool)


G02 X19.577106 Y12.696545 Z-1.000000 I0.533106 J0.328031
G03 X19.722915 Y12.512310 Z-1.000000 I0.054208 J-0.014141

(End cutting path id: path2)


(Start cutting path id: path2)
(Change tool to Default tool)



(End cutting path id: path2)


(Start cutting path id: path2)
(Change tool to Default tool)

G00 X19.503074 Y12.692217


(End cutting path id: path2)


(Start cutting path id: path2)
(Change tool to Default tool)

G00 X19.464736 Y12.895494

G02 X19.564956 Y13.144144 Z-1.000000 I0.225794 J-0.106291
G02 X19.481535 Y12.826513 Z-1.000000 I-2.223859 J0.767204

(End cutting path id: path2)


(Start cutting path id: path2)
(Change tool to Default tool)



(End cutting path id: path2)


(Start cutting path id: path2)
(Change tool to Default tool)

G00 X19.709817 Y12.699417


(End cutting path id: path2)


(Start cutting path id: path2)
(Change tool to Default tool)

G00 X19.869120 Y12.969004


(End cutting path id: path2)


(Start cutting path id: path2)
(Change tool to Default tool)


G02 X20.022299 Y13.160035 Z-1.000000 I0.741901 J-0.527360
G02 X20.210600 Y13.372738 Z-1.000000 I0.229541 J-0.174860
G02 X20.055225 Y13.140587 Z-1.000000 I-1.473294 J1.210143

(End cutting path id: path2)


(Start cutting path id: path2)
(Change tool to Default tool)

G00 X19.832358 Y13.109245

G02 X19.944459 Y13.312164 Z-1.000000 I0.070505 J-0.038949
G02 X19.840046 Y13.105055 Z-1.000000 I-0.084801 J0.059399

(End cutting path id: path2)


(Start cutting path id: path2)
(Change tool to Default tool)

G00 X20.044983 Y13.363892

G02 X20.074324 Y13.653796 Z-1.000000 I0.411467 J-0.150923
G02 X20.059573 Y13.275816 Z-1.000000 I-0.459802 J0.036530

(End cutting path id: path2)


(Start cutting path id: path2)
(Change tool to Default tool)

G00 X20.134621 Y13.521533


(End cutting path id: path2)


(Start cutting path id: path2)
(Change tool to Default tool)


G03 X20.103576 Y13.763990 Z-1.000000 I-0.126432 J-0.030501
G01 X19.934766 Y13.898262 Z-1.000000
G02 X19.842133 Y14.134120 Z-1.000000 I0.443944 J0.301239
G03 X19.797046 Y14.532996 Z-1.000000 I-1.273664 J-0.150055
G01 X20.001466 Y14.506934 Z-1.000000
G03 X19.976406 Y14.202462 Z-1.000000 I1.119627 J-0.029892
G03 X20.042856 Y13.986133 Z-1.000000 I0.995155 J0.187314
G03 X20.168000 Y13.772151 Z-1.000000 I0.534112 J0.082297

(End cutting path id: path2)


(Start cutting path id: path2)
(Change tool to Default tool)



(End cutting path id: path2)


(Start cutting path id: path2)
(Change tool to Default tool)

G00 X20.371534 Y13.924837


(End cutting path id: path2)


(Start cutting path id: path2)
(Change tool to Default tool)


G03 X20.245793 Y14.111439 Z-1.000000 I-0.155358 J-0.037127 F3500.000000

(End cutting path id: path2)


(Start cutting path id: path2)
(Change tool to Default tool)



(End cutting path id: path2)


(Start cutting path id: path2)
(Change tool to Default tool)

G00 X20.689113 Y14.078605


(End cutting path id: path2)


(Start cutting path id: path2)
(Change tool to Default tool)

G00 X20.990723 Y14.264070


(End cutting path id: path2)


(Start cutting path id: path2)
(Change tool to Default tool)



(End cutting path id: path2)


(Start cutting path id: path2)
(Change tool to Default tool)

G00 X21.156528 Y14.413592


(End cutting path id: path2)


(Start cutting path id: path2)
(Change tool to Default tool)


G02 X20.981625 Y14.559163 Z-1.000000 I0.053248 J0.129977
G01 X20.919575 Y14.754403 Z-1.000000
G02 X20.788181 Y15.007889 Z-1.000000 I0.276928 J0.143548
G02 X20.985044 Y14.757193 Z-1.000000 I-0.381015 J-0.413486
G02 X21.090708 Y14.578333 Z-1.000000 I-1.260204 J-0.865125
G03 X21.198652 Y14.401326 Z-1.000000 I1.130684 J0.568103
G02 X21.405208 Y14.179629 Z-1.000000 I-0.671540 J-0.746905

(End cutting path id: path2)


(Start cutting path id: path2)
(Change tool to Default tool)



(End cutting path id: path2)


(Start cutting path id: path2)
(Change tool to Default tool)



(End cutting path id: path2)


(Start cutting path id: path2)
(Change tool to Default tool)



(End cutting path id: path2)


(Start cutting path id: path2)
(Change tool to Default tool)


G01 X21.586310 Y14.079392 Z-1.000000

(End cutting path id: path2)


(Start cutting path id: path2)
(Change tool to Default tool)


G02 X21.428573 Y14.286484 Z-1.000000 I0.508302 J0.695814 F3500.000000
G02 X21.222687 Y14.525240 Z-1.000000 I2.517432 J2.379000
G02 X21.082817 Y14.740680 Z-1.000000 I0.508553 J0.401526
G02 X20.914588 Y15.089035 Z-1.000000 I3.326131 J1.821062
G02 X20.767841 Y15.456514 Z-1.000000 I1.844506 J0.991553
G03 X20.917481 Y15.284958 Z-1.000000 I0.163107 J0.140295
G02 X21.120518 Y14.961551 Z-1.000000 I-0.693675 J-0.435490
G03 X21.211388 Y14.750892 Z-1.000000 I0.384316 J0.165779
G03 X21.304348 Y14.563489 Z-1.000000 I0.144329 J0.040796
G03 X21.267837 Y14.802687 Z-1.000000 I-0.093991 J0.000000
G03 X21.447157 Y14.524637 Z-1.000000 I3.361223 J1.175551
G03 X21.506704 Y14.251758 Z-1.000000 I0.112047 J0.005814

(End cutting path id: path2)


(Start cutting path id: path2)
(Change tool to Default tool)



(End cutting path id: path2)


(Start cutting path id: path2)
(Change tool to Default tool)


G03 X21.678067 Y14.445576 Z-1.000000 I-0.157135 J0.060296 F3500.000000
G02 X21.511178 Y14.635421 Z-1.000000 I1.462051 J0.697353
G03 X21.681855 Y14.453142 Z-1.000000 I2.078117 J1.262214

(End cutting path id: path2)


(Start cutting path id: path2)
(Change tool to Default tool)


G02 X21.816597 Y14.267534 Z-1.000000 I-0.324507 J-0.081307

