%
(Header)
(Generated by gcodetools from Inkscape.)
(Using default header. To add your own header create file "header" in the output dir.)
M3
(Header end.)
G21 (All units in mm)

(Start cutting path id: path83386)
(Change tool to Default tool)

G00 Z 5.0000
G00 X 26.3278 Y 1.9086

G01 Z -1.0000 F 100.0000(Penetrate)
G02 X 26.3249 Y 1.9243 Z -1.0000 I 0.0633 J 0.0199 F 3500.0000
G01 X 26.3266 Y 1.9288 Z -1.0000
G01 X 26.3269 Y 1.9327 Z -1.0000
G03 X 26.3078 Y 1.9544 Z -1.0000 I -0.1344 J -0.0991
G02 X 26.2867 Y 1.9850 Z -1.0000 I 0.0630 J 0.0659
G01 X 26.2928 Y 1.9902 Z -1.0000
G01 X 26.2959 Y 1.9976 Z -1.0000
G01 X 26.2970 Y 2.0097 Z -1.0000
G02 X 26.3370 Y 1.9910 Z -1.0000 I -0.0000 J -0.0521
G01 X 26.3352 Y 1.9639 Z -1.0000
G01 X 26.3309 Y 1.9634 Z -1.0000
G01 X 26.3263 Y 1.9687 Z -1.0000
G01 X 26.3213 Y 1.9762 Z -1.0000
G01 X 26.3154 Y 1.9785 Z -1.0000
G01 X 26.3127 Y 1.9756 Z -1.0000
G01 X 26.3167 Y 1.9621 Z -1.0000
G01 X 26.3282 Y 1.9513 Z -1.0000
G01 X 26.3443 Y 1.9493 Z -1.0000
G01 X 26.3598 Y 1.9487 Z -1.0000
G01 X 26.3633 Y 1.9442 Z -1.0000
G01 X 26.3707 Y 1.9470 Z -1.0000
G01 X 26.3786 Y 1.9496 Z -1.0000
G01 X 26.3962 Y 1.9372 Z -1.0000
G03 X 26.4181 Y 1.9218 Z -1.0000 I 0.0412 J 0.0354
G01 X 26.4232 Y 1.9269 Z -1.0000
G01 X 26.4234 Y 1.9368 Z -1.0000
G01 X 26.4338 Y 1.9512 Z -1.0000
G01 X 26.4483 Y 1.9573 Z -1.0000
G01 X 26.4606 Y 1.9525 Z -1.0000
G01 X 26.4681 Y 1.9395 Z -1.0000
G01 X 26.4674 Y 1.9269 Z -1.0000
G01 X 26.4677 Y 1.9200 Z -1.0000
G01 X 26.4713 Y 1.9190 Z -1.0000
G01 X 26.4774 Y 1.9192 Z -1.0000
G01 X 26.4804 Y 1.9143 Z -1.0000
G01 X 26.4758 Y 1.9087 Z -1.0000
G02 X 26.4354 Y 1.9050 Z -1.0000 I -0.0362 J 0.1744
G03 X 26.3922 Y 1.9029 Z -1.0000 I -0.0071 J -0.3012
G01 X 26.3860 Y 1.8990 Z -1.0000
G01 X 26.3807 Y 1.8975 Z -1.0000
G02 X 26.3607 Y 1.9112 Z -1.0000 I 0.0357 J 0.0736
G03 X 26.3407 Y 1.9251 Z -1.0000 I -0.0585 J -0.0631
G01 X 26.3357 Y 1.9237 Z -1.0000
G01 X 26.3350 Y 1.9178 Z -1.0000
G01 X 26.3395 Y 1.9120 Z -1.0000
G01 X 26.3469 Y 1.8993 Z -1.0000
G01 X 26.3402 Y 1.8924 Z -1.0000
G01 X 26.3348 Y 1.8950 Z -1.0000
G01 X 26.3278 Y 1.9086 Z -1.0000
G01 X 26.3278 Y 1.9086 Z -1.0000
G00 Z 5.0000

(End cutting path id: path83386)


(Start cutting path id: path83386)
(Change tool to Default tool)

G00 Z 5.0000
G00 X 26.2928 Y 1.9158

G01 Z -1.0000 F 100.0000(Penetrate)
G01 X 26.2956 Y 1.9209 Z -1.0000 F 3500.0000
G01 X 26.3046 Y 1.9236 Z -1.0000
G01 X 26.3136 Y 1.9209 Z -1.0000
G01 X 26.3163 Y 1.9158 Z -1.0000
G01 X 26.3136 Y 1.9107 Z -1.0000
G01 X 26.3046 Y 1.9080 Z -1.0000
G01 X 26.2955 Y 1.9107 Z -1.0000
G01 X 26.2928 Y 1.9158 Z -1.0000
G01 X 26.2928 Y 1.9158 Z -1.0000
G00 Z 5.0000

(End cutting path id: path83386)


(Start cutting path id: path83386)
(Change tool to Default tool)

G00 Z 5.0000
G00 X 26.2662 Y 1.9458

G01 Z -1.0000 F 100.0000(Penetrate)
G01 X 26.2652 Y 1.9529 Z -1.0000 F 3500.0000
G01 X 26.2697 Y 1.9590 Z -1.0000
G01 X 26.2801 Y 1.9571 Z -1.0000
G01 X 26.2794 Y 1.9462 Z -1.0000
G01 X 26.2717 Y 1.9429 Z -1.0000
G01 X 26.2661 Y 1.9458 Z -1.0000
G01 X 26.2662 Y 1.9458 Z -1.0000
G00 Z 5.0000

(End cutting path id: path83386)


(Start cutting path id: path83386)
(Change tool to Default tool)

G00 Z 5.0000
G00 X 26.2587 Y 1.9901

G01 Z -1.0000 F 100.0000(Penetrate)
G01 X 26.2648 Y 1.9996 Z -1.0000 F 3500.0000
G01 X 26.2700 Y 2.0018 Z -1.0000
G01 X 26.2730 Y 1.9993 Z -1.0000
G01 X 26.2722 Y 1.9901 Z -1.0000
G01 X 26.2661 Y 1.9806 Z -1.0000
G01 X 26.2609 Y 1.9783 Z -1.0000
G01 X 26.2579 Y 1.9809 Z -1.0000
G01 X 26.2587 Y 1.9901 Z -1.0000
G01 X 26.2587 Y 1.9901 Z -1.0000
G00 Z 5.0000

(End cutting path id: path83386)


(Start cutting path id: path83386)
(Change tool to Default tool)

G00 Z 5.0000
G00 X 26.2068 Y 1.9781

G01 Z -1.0000 F 100.0000(Penetrate)
G01 X 26.2093 Y 1.9838 Z -1.0000 F 3500.0000
G01 X 26.2151 Y 1.9862 Z -1.0000
G01 X 26.2190 Y 1.9894 Z -1.0000
G01 X 26.2180 Y 2.0034 Z -1.0000
G01 X 26.2199 Y 2.0085 Z -1.0000
G01 X 26.2253 Y 2.0079 Z -1.0000
G01 X 26.2312 Y 1.9915 Z -1.0000
G01 X 26.2224 Y 1.9784 Z -1.0000
G01 X 26.2098 Y 1.9751 Z -1.0000
G01 X 26.2068 Y 1.9781 Z -1.0000
G01 X 26.2068 Y 1.9781 Z -1.0000
G00 Z 5.0000

(End cutting path id: path83386)


(Start cutting path id: path83386)
(Change tool to Default tool)

G00 Z 5.0000
G00 X 26.1755 Y 1.9620

G01 Z -1.0000 F 100.0000(Penetrate)
G01 X 26.1784 Y 1.9654 Z -1.0000 F 3500.0000
G01 X 26.1912 Y 1.9650 Z -1.0000
G01 X 26.2068 Y 1.9579 Z -1.0000
G01 X 26.1912 Y 1.9549 Z -1.0000
G01 X 26.1783 Y 1.9577 Z -1.0000
G01 X 26.1755 Y 1.9620 Z -1.0000
G01 X 26.1755 Y 1.9620 Z -1.0000
G00 Z 5.0000

(End cutting path id: path83386)


(Start cutting path id: path83386)
(Change tool to Default tool)

G00 Z 5.0000
G00 X 26.1755 Y 1.9163

G01 Z -1.0000 F 100.0000(Penetrate)
G01 X 26.1780 Y 1.9201 Z -1.0000 F 3500.0000
G01 X 26.1833 Y 1.9197 Z -1.0000
G01 X 26.1900 Y 1.9142 Z -1.0000
G01 X 26.1911 Y 1.9114 Z -1.0000
G01 X 26.1833 Y 1.9080 Z -1.0000
G01 X 26.1779 Y 1.9103 Z -1.0000
G01 X 26.1755 Y 1.9163 Z -1.0000
G01 X 26.1755 Y 1.9163 Z -1.0000
G00 Z 5.0000

(End cutting path id: path83386)


(Start cutting path id: path83386)
(Change tool to Default tool)

G00 Z 5.0000
G00 X 26.2068 Y 1.9177

G01 Z -1.0000 F 100.0000(Penetrate)
G01 X 26.2096 Y 1.9212 Z -1.0000 F 3500.0000
G01 X 26.2195 Y 1.9204 Z -1.0000
G01 X 26.2259 Y 1.9231 Z -1.0000
G01 X 26.2275 Y 1.9391 Z -1.0000
G01 X 26.2291 Y 1.9573 Z -1.0000
G01 X 26.2363 Y 1.9621 Z -1.0000
G01 X 26.2396 Y 1.9574 Z -1.0000
G01 X 26.2376 Y 1.9440 Z -1.0000
G03 X 26.2713 Y 1.9317 Z -1.0000 I 0.0347 J 0.0427
G01 X 26.2814 Y 1.9278 Z -1.0000
G01 X 26.2850 Y 1.9198 Z -1.0000
G01 X 26.2801 Y 1.9133 Z -1.0000
G02 X 26.2459 Y 1.9091 Z -1.0000 I -0.0315 J 0.1148
G02 X 26.2103 Y 1.9134 Z -1.0000 I 0.0042 J 0.1881
G01 X 26.2068 Y 1.9176 Z -1.0000
G01 X 26.2068 Y 1.9177 Z -1.0000
G00 Z 5.0000

(End cutting path id: path83386)


(Start cutting path id: path83386)
(Change tool to Default tool)

G00 Z 5.0000
G00 X 26.1407 Y 2.0012

G01 Z -1.0000 F 100.0000(Penetrate)
G01 X 26.1413 Y 2.0059 Z -1.0000 F 3500.0000
G01 X 26.1522 Y 2.0119 Z -1.0000
G01 X 26.1651 Y 2.0126 Z -1.0000
G01 X 26.1677 Y 2.0097 Z -1.0000
G01 X 26.1570 Y 1.9951 Z -1.0000
G01 X 26.1407 Y 2.0012 Z -1.0000
G01 X 26.1407 Y 2.0012 Z -1.0000
G00 Z 5.0000

(End cutting path id: path83386)


(Start cutting path id: path83386)
(Change tool to Default tool)

G00 Z 5.0000
G00 X 26.1599 Y 2.1855

G01 Z -1.0000 F 100.0000(Penetrate)
G01 X 26.1626 Y 2.1946 Z -1.0000 F 3500.0000
G01 X 26.1675 Y 2.1973 Z -1.0000
G01 X 26.1711 Y 2.1945 Z -1.0000
G01 X 26.1706 Y 2.1855 Z -1.0000
G02 X 26.1652 Y 2.1750 Z -1.0000 I -0.0528 J 0.0203
G01 X 26.1630 Y 2.1738 Z -1.0000
G01 X 26.1599 Y 2.1855 Z -1.0000
G01 X 26.1599 Y 2.1855 Z -1.0000
G00 Z 5.0000

(End cutting path id: path83386)


(Start cutting path id: path83386)
(Change tool to Default tool)

G00 Z 5.0000
G00 X 26.1990 Y 2.2211

G01 Z -1.0000 F 100.0000(Penetrate)
G01 X 26.2021 Y 2.2317 Z -1.0000 F 3500.0000
G01 X 26.2065 Y 2.2326 Z -1.0000
G01 X 26.2105 Y 2.2268 Z -1.0000
G01 X 26.2096 Y 2.2165 Z -1.0000
G01 X 26.2037 Y 2.2140 Z -1.0000
G01 X 26.1990 Y 2.2211 Z -1.0000
G01 X 26.1990 Y 2.2211 Z -1.0000
G00 Z 5.0000

(End cutting path id: path83386)


(Start cutting path id: path83386)
(Change tool to Default tool)

G00 Z 5.0000
G00 X 26.1443 Y 2.2636

G01 Z -1.0000 F 100.0000(Penetrate)
G01 X 26.1415 Y 2.2726 Z -1.0000 F 3500.0000
G01 X 26.1365 Y 2.2754 Z -1.0000
G01 X 26.1314 Y 2.2726 Z -1.0000
G01 X 26.1287 Y 2.2636 Z -1.0000
G01 X 26.1314 Y 2.2546 Z -1.0000
G01 X 26.1365 Y 2.2519 Z -1.0000
G01 X 26.1416 Y 2.2546 Z -1.0000
G01 X 26.1443 Y 2.2636 Z -1.0000
G01 X 26.1443 Y 2.2636 Z -1.0000
G00 Z 5.0000

(End cutting path id: path83386)


(Start cutting path id: path83386)
(Change tool to Default tool)

G00 Z 5.0000
G00 X 26.2186 Y 2.2988

G01 Z -1.0000 F 100.0000(Penetrate)
G01 X 26.2124 Y 2.3043 Z -1.0000 F 3500.0000
G01 X 26.2020 Y 2.3066 Z -1.0000
G01 X 26.1955 Y 2.3037 Z -1.0000
G01 X 26.1951 Y 2.2988 Z -1.0000
G01 X 26.2013 Y 2.2933 Z -1.0000
G01 X 26.2117 Y 2.2910 Z -1.0000
G01 X 26.2182 Y 2.2939 Z -1.0000
G01 X 26.2186 Y 2.2988 Z -1.0000
G01 X 26.2186 Y 2.2988 Z -1.0000
G00 Z 5.0000

(End cutting path id: path83386)


(Start cutting path id: path83386)
(Change tool to Default tool)

G00 Z 5.0000
G00 X 26.0739 Y 2.1894

G01 Z -1.0000 F 100.0000(Penetrate)
G01 X 26.0762 Y 2.1949 Z -1.0000 F 3500.0000
G01 X 26.0822 Y 2.1972 Z -1.0000
G01 X 26.0860 Y 2.1947 Z -1.0000
G01 X 26.0856 Y 2.1894 Z -1.0000
G01 X 26.0801 Y 2.1827 Z -1.0000
G01 X 26.0773 Y 2.1816 Z -1.0000
G01 X 26.0739 Y 2.1894 Z -1.0000
G01 X 26.0739 Y 2.1894 Z -1.0000
G00 Z 5.0000

(End cutting path id: path83386)


(Start cutting path id: path83386)
(Change tool to Default tool)

G00 Z 5.0000
G00 X 26.0426 Y 2.2165

G01 Z -1.0000 F 100.0000(Penetrate)
G01 X 26.0462 Y 2.2228 Z -1.0000 F 3500.0000
G01 X 26.0543 Y 2.2235 Z -1.0000
G01 X 26.0637 Y 2.2175 Z -1.0000
G01 X 26.0660 Y 2.2120 Z -1.0000
G01 X 26.0635 Y 2.2076 Z -1.0000
G01 X 26.0543 Y 2.2050 Z -1.0000
G01 X 26.0459 Y 2.2085 Z -1.0000
G01 X 26.0426 Y 2.2165 Z -1.0000
G01 X 26.0426 Y 2.2165 Z -1.0000
G00 Z 5.0000

(End cutting path id: path83386)


(Start cutting path id: path83386)
(Change tool to Default tool)

G00 Z 5.0000
G00 X 26.0128 Y 2.2055

G01 Z -1.0000 F 100.0000(Penetrate)
G01 X 26.0180 Y 2.2140 Z -1.0000 F 3500.0000
G01 X 26.0264 Y 2.2192 Z -1.0000
G01 X 26.0320 Y 2.2179 Z -1.0000
G01 X 26.0332 Y 2.2124 Z -1.0000
G01 X 26.0280 Y 2.2040 Z -1.0000
G01 X 26.0196 Y 2.1988 Z -1.0000
G01 X 26.0140 Y 2.2001 Z -1.0000
G01 X 26.0128 Y 2.2056 Z -1.0000
G01 X 26.0128 Y 2.2055 Z -1.0000
G00 Z 5.0000

(End cutting path id: path83386)


(Start cutting path id: path83386)
(Change tool to Default tool)

G00 Z 5.0000
G00 X 25.9996 Y 2.2754

G01 Z -1.0000 F 100.0000(Penetrate)
G01 X 25.9936 Y 2.2813 Z -1.0000 F 3500.0000
G01 X 25.9870 Y 2.2832 Z -1.0000
G01 X 25.9835 Y 2.2807 Z -1.0000
G01 X 25.9840 Y 2.2754 Z -1.0000
G01 X 25.9899 Y 2.2694 Z -1.0000
G01 X 25.9966 Y 2.2676 Z -1.0000
G01 X 26.0001 Y 2.2700 Z -1.0000
G01 X 25.9996 Y 2.2754 Z -1.0000
G01 X 25.9996 Y 2.2754 Z -1.0000
G00 Z 5.0000

(End cutting path id: path83386)


(Start cutting path id: path83386)
(Change tool to Default tool)

G00 Z 5.0000
G00 X 25.9566 Y 2.2754

G01 Z -1.0000 F 100.0000(Penetrate)
G01 X 25.9543 Y 2.2808 Z -1.0000 F 3500.0000
G01 X 25.9483 Y 2.2832 Z -1.0000
G01 X 25.9445 Y 2.2807 Z -1.0000
G01 X 25.9449 Y 2.2754 Z -1.0000
G01 X 25.9504 Y 2.2687 Z -1.0000
G01 X 25.9532 Y 2.2676 Z -1.0000
G01 X 25.9566 Y 2.2754 Z -1.0000
G01 X 25.9566 Y 2.2754 Z -1.0000
G00 Z 5.0000

(End cutting path id: path83386)


(Start cutting path id: path83386)
(Change tool to Default tool)

G00 Z 5.0000
G00 X 25.8838 Y 2.2789

G01 Z -1.0000 F 100.0000(Penetrate)
G01 X 25.8729 Y 2.2798 Z -1.0000 F 3500.0000
G01 X 25.8716 Y 2.2702 Z -1.0000
G01 X 25.8741 Y 2.2626 Z -1.0000
G01 X 25.8711 Y 2.2597 Z -1.0000
G01 X 25.8666 Y 2.2571 Z -1.0000
G01 X 25.8667 Y 2.2518 Z -1.0000
G01 X 25.8722 Y 2.2495 Z -1.0000
G01 X 25.8833 Y 2.2557 Z -1.0000
G01 X 25.8884 Y 2.2675 Z -1.0000
G01 X 25.8838 Y 2.2789 Z -1.0000
G01 X 25.8838 Y 2.2789 Z -1.0000
G00 Z 5.0000

(End cutting path id: path83386)


(Start cutting path id: path83386)
(Change tool to Default tool)

G00 Z 5.0000
G00 X 25.8086 Y 2.2331

G01 Z -1.0000 F 100.0000(Penetrate)
G01 X 25.8133 Y 2.2378 Z -1.0000 F 3500.0000
G01 X 25.8150 Y 2.2281 Z -1.0000
G01 X 25.8127 Y 2.2228 Z -1.0000
G01 X 25.8086 Y 2.2331 Z -1.0000
G01 X 25.8086 Y 2.2331 Z -1.0000
G00 Z 5.0000

(End cutting path id: path83386)


(Start cutting path id: path83386)
(Change tool to Default tool)

G00 Z 5.0000
G00 X 25.7613 Y 2.2282

G01 Z -1.0000 F 100.0000(Penetrate)
G01 X 25.7544 Y 2.2360 Z -1.0000 F 3500.0000
G01 X 25.7552 Y 2.2410 Z -1.0000
G01 X 25.7608 Y 2.2426 Z -1.0000
G01 X 25.7718 Y 2.2372 Z -1.0000
G01 X 25.7818 Y 2.2332 Z -1.0000
G01 X 25.7870 Y 2.2362 Z -1.0000
G01 X 25.7892 Y 2.2351 Z -1.0000
G01 X 25.7798 Y 2.2253 Z -1.0000
G01 X 25.7612 Y 2.2283 Z -1.0000
G01 X 25.7613 Y 2.2282 Z -1.0000
G00 Z 5.0000

(End cutting path id: path83386)


(Start cutting path id: path83386)
(Change tool to Default tool)

G00 Z 5.0000
G00 X 25.7307 Y 2.2377

G01 Z -1.0000 F 100.0000(Penetrate)
G03 X 25.7290 Y 2.2506 Z -1.0000 I -0.1046 J -0.0072 F 3500.0000
G03 X 25.7253 Y 2.2651 Z -1.0000 I -0.1287 J -0.0252
G01 X 25.7297 Y 2.2655 Z -1.0000
G01 X 25.7355 Y 2.2510 Z -1.0000
G01 X 25.7351 Y 2.2381 Z -1.0000
G01 X 25.7307 Y 2.2377 Z -1.0000
G01 X 25.7307 Y 2.2377 Z -1.0000
G00 Z 5.0000

(End cutting path id: path83386)


(Start cutting path id: path83386)
(Change tool to Default tool)

G00 Z 5.0000
G00 X 25.6985 Y 2.2638

G01 Z -1.0000 F 100.0000(Penetrate)
G01 X 25.7017 Y 2.2802 Z -1.0000 F 3500.0000
G01 X 25.7063 Y 2.2833 Z -1.0000
G01 X 25.7110 Y 2.2802 Z -1.0000
G01 X 25.7141 Y 2.2638 Z -1.0000
G01 X 25.7110 Y 2.2474 Z -1.0000
G01 X 25.7063 Y 2.2442 Z -1.0000
G01 X 25.7017 Y 2.2474 Z -1.0000
G01 X 25.6985 Y 2.2638 Z -1.0000
G01 X 25.6985 Y 2.2638 Z -1.0000
G00 Z 5.0000

(End cutting path id: path83386)


(Start cutting path id: path83386)
(Change tool to Default tool)

G00 Z 5.0000
G00 X 25.6646 Y 2.2885

G01 Z -1.0000 F 100.0000(Penetrate)
G01 X 25.6608 Y 2.2943 Z -1.0000 F 3500.0000
G01 X 25.6594 Y 2.3018 Z -1.0000
G01 X 25.6687 Y 2.3006 Z -1.0000
G01 X 25.6748 Y 2.2913 Z -1.0000
G01 X 25.6739 Y 2.2873 Z -1.0000
G01 X 25.6699 Y 2.2859 Z -1.0000
G01 X 25.6646 Y 2.2885 Z -1.0000
G01 X 25.6646 Y 2.2885 Z -1.0000
G00 Z 5.0000

(End cutting path id: path83386)


(Start cutting path id: path83386)
(Change tool to Default tool)

G00 Z 5.0000
G00 X 25.6621 Y 2.2249

G01 Z -1.0000 F 100.0000(Penetrate)
G01 X 25.6654 Y 2.2376 Z -1.0000 F 3500.0000
G01 X 25.6754 Y 2.2361 Z -1.0000
G01 X 25.6803 Y 2.2182 Z -1.0000
G01 X 25.6748 Y 2.2129 Z -1.0000
G01 X 25.6685 Y 2.2154 Z -1.0000
G01 X 25.6621 Y 2.2249 Z -1.0000
G01 X 25.6621 Y 2.2249 Z -1.0000
G00 Z 5.0000

(End cutting path id: path83386)


(Start cutting path id: path83386)
(Change tool to Default tool)

G00 Z 5.0000
G00 X 25.5692 Y 2.2838

G01 Z -1.0000 F 100.0000(Penetrate)
G01 X 25.5716 Y 2.2902 Z -1.0000 F 3500.0000
G01 X 25.5811 Y 2.2874 Z -1.0000
G01 X 25.5827 Y 2.2755 Z -1.0000
G01 X 25.5754 Y 2.2775 Z -1.0000
G01 X 25.5692 Y 2.2838 Z -1.0000
G01 X 25.5692 Y 2.2838 Z -1.0000
G00 Z 5.0000

(End cutting path id: path83386)


(Start cutting path id: path83386)
(Change tool to Default tool)

G00 Z 5.0000
G00 X 25.3427 Y 2.3381

G01 Z -1.0000 F 100.0000(Penetrate)
G01 X 25.3433 Y 2.3429 Z -1.0000 F 3500.0000
G01 X 25.3505 Y 2.3459 Z -1.0000
G01 X 25.3578 Y 2.3429 Z -1.0000
G01 X 25.3583 Y 2.3381 Z -1.0000
G01 X 25.3529 Y 2.3313 Z -1.0000
G01 X 25.3505 Y 2.3303 Z -1.0000
G01 X 25.3481 Y 2.3313 Z -1.0000
G01 X 25.3427 Y 2.3381 Z -1.0000
G01 X 25.3427 Y 2.3381 Z -1.0000
G00 Z 5.0000

(End cutting path id: path83386)


(Start cutting path id: path83386)
(Change tool to Default tool)

G00 Z 5.0000
G00 X 25.3133 Y 2.3904

G01 Z -1.0000 F 100.0000(Penetrate)
G01 X 25.3001 Y 2.3996 Z -1.0000 F 3500.0000
G01 X 25.2952 Y 2.3987 Z -1.0000
G01 X 25.2947 Y 2.3859 Z -1.0000
G01 X 25.3136 Y 2.3772 Z -1.0000
G01 X 25.3173 Y 2.3810 Z -1.0000
G01 X 25.3133 Y 2.3904 Z -1.0000
G01 X 25.3133 Y 2.3904 Z -1.0000
G00 Z 5.0000

(End cutting path id: path83386)


(Start cutting path id: path83386)
(Change tool to Default tool)

G00 Z 5.0000
G00 X 25.2059 Y 2.0647

G01 Z -1.0000 F 100.0000(Penetrate)
G01 X 25.2084 Y 2.0685 Z -1.0000 F 3500.0000
G01 X 25.2137 Y 2.0681 Z -1.0000
G01 X 25.2204 Y 2.0626 Z -1.0000
G01 X 25.2215 Y 2.0598 Z -1.0000
G01 X 25.2137 Y 2.0564 Z -1.0000
G01 X 25.2083 Y 2.0587 Z -1.0000
G01 X 25.2059 Y 2.0647 Z -1.0000
G01 X 25.2059 Y 2.0647 Z -1.0000
G00 Z 5.0000

(End cutting path id: path83386)


(Start cutting path id: path83386)
(Change tool to Default tool)

G00 Z 5.0000
G00 X 25.1746 Y 2.0661

G01 Z -1.0000 F 100.0000(Penetrate)
G01 X 25.1651 Y 2.0818 Z -1.0000 F 3500.0000
G01 X 25.1674 Y 2.0866 Z -1.0000
G01 X 25.1752 Y 2.0862 Z -1.0000
G01 X 25.1824 Y 2.0800 Z -1.0000
G01 X 25.1876 Y 2.0774 Z -1.0000
G01 X 25.1922 Y 2.0810 Z -1.0000
G01 X 25.1951 Y 2.0701 Z -1.0000
G01 X 25.1925 Y 2.0486 Z -1.0000
G01 X 25.1746 Y 2.0661 Z -1.0000
G01 X 25.1746 Y 2.0661 Z -1.0000
G00 Z 5.0000

(End cutting path id: path83386)


(Start cutting path id: path83386)
(Change tool to Default tool)

G00 Z 5.0000
G00 X 25.1136 Y 2.0706

G01 Z -1.0000 F 100.0000(Penetrate)
G01 X 25.1197 Y 2.0800 Z -1.0000 F 3500.0000
G01 X 25.1356 Y 2.0861 Z -1.0000
G01 X 25.1443 Y 2.0811 Z -1.0000
G01 X 25.1375 Y 2.0730 Z -1.0000
G01 X 25.1379 Y 2.0668 Z -1.0000
G01 X 25.1370 Y 2.0624 Z -1.0000
G01 X 25.1267 Y 2.0586 Z -1.0000
G01 X 25.1164 Y 2.0621 Z -1.0000
G01 X 25.1136 Y 2.0706 Z -1.0000
G01 X 25.1136 Y 2.0706 Z -1.0000
G00 Z 5.0000

(End cutting path id: path83386)


(Start cutting path id: path83386)
(Change tool to Default tool)

G00 Z 5.0000
G00 X 25.1277 Y 2.0105

G01 Z -1.0000 F 100.0000(Penetrate)
G01 X 25.1227 Y 2.0206 Z -1.0000 F 3500.0000
G01 X 25.1116 Y 2.0229 Z -1.0000
G01 X 25.1043 Y 2.0242 Z -1.0000
G01 X 25.1037 Y 2.0285 Z -1.0000
G01 X 25.1256 Y 2.0395 Z -1.0000
G01 X 25.1482 Y 2.0308 Z -1.0000
G01 X 25.1498 Y 2.0254 Z -1.0000
G01 X 25.1445 Y 2.0149 Z -1.0000
G01 X 25.1393 Y 2.0044 Z -1.0000
G01 X 25.1408 Y 1.9991 Z -1.0000
G01 X 25.1368 Y 1.9940 Z -1.0000
G01 X 25.1311 Y 1.9973 Z -1.0000
G01 X 25.1277 Y 2.0105 Z -1.0000
G01 X 25.1277 Y 2.0105 Z -1.0000
G00 Z 5.0000

(End cutting path id: path83386)


(Start cutting path id: path83386)
(Change tool to Default tool)

G00 Z 5.0000
G00 X 25.1562 Y 1.9744

G01 Z -1.0000 F 100.0000(Penetrate)
G01 X 25.1573 Y 1.9852 Z -1.0000 F 3500.0000
G01 X 25.1672 Y 1.9891 Z -1.0000
G01 X 25.1671 Y 1.9976 Z -1.0000
G01 X 25.1666 Y 2.0132 Z -1.0000
G01 X 25.1790 Y 2.0142 Z -1.0000
G01 X 25.1887 Y 1.9922 Z -1.0000
G01 X 25.1808 Y 1.9721 Z -1.0000
G01 X 25.1662 Y 1.9668 Z -1.0000
G01 X 25.1561 Y 1.9744 Z -1.0000
G01 X 25.1562 Y 1.9744 Z -1.0000
G00 Z 5.0000

(End cutting path id: path83386)


(Start cutting path id: path83386)
(Change tool to Default tool)

G00 Z 5.0000
G00 X 25.2372 Y 2.0487

G01 Z -1.0000 F 100.0000(Penetrate)
G01 X 25.2399 Y 2.0538 Z -1.0000 F 3500.0000
G01 X 25.2489 Y 2.0565 Z -1.0000
G01 X 25.2579 Y 2.0538 Z -1.0000
G01 X 25.2606 Y 2.0487 Z -1.0000
G01 X 25.2579 Y 2.0436 Z -1.0000
G01 X 25.2489 Y 2.0409 Z -1.0000
G01 X 25.2399 Y 2.0436 Z -1.0000
G01 X 25.2372 Y 2.0487 Z -1.0000
G01 X 25.2372 Y 2.0487 Z -1.0000
G00 Z 5.0000

(End cutting path id: path83386)


(Start cutting path id: path83386)
(Change tool to Default tool)

G00 Z 5.0000
G00 X 25.3074 Y 1.9512

G01 Z -1.0000 F 100.0000(Penetrate)
G01 X 25.2974 Y 1.9599 Z -1.0000 F 3500.0000
G01 X 25.2939 Y 1.9595 Z -1.0000
G01 X 25.2930 Y 1.9473 Z -1.0000
G01 X 25.3090 Y 1.9393 Z -1.0000
G01 X 25.3074 Y 1.9512 Z -1.0000
G01 X 25.3074 Y 1.9512 Z -1.0000
G00 Z 5.0000

(End cutting path id: path83386)


(Start cutting path id: path83386)
(Change tool to Default tool)

G00 Z 5.0000
G00 X 25.3936 Y 1.9740

G01 Z -1.0000 F 100.0000(Penetrate)
G01 X 25.3924 Y 1.9768 Z -1.0000 F 3500.0000
G01 X 25.3858 Y 1.9823 Z -1.0000
G01 X 25.3804 Y 1.9827 Z -1.0000
G01 X 25.3780 Y 1.9789 Z -1.0000
G01 X 25.3803 Y 1.9730 Z -1.0000
G01 X 25.3858 Y 1.9706 Z -1.0000
G01 X 25.3936 Y 1.9740 Z -1.0000
G01 X 25.3936 Y 1.9740 Z -1.0000
G00 Z 5.0000

(End cutting path id: path83386)


(Start cutting path id: path83386)
(Change tool to Default tool)

G00 Z 5.0000
G00 X 25.4561 Y 1.9637

G01 Z -1.0000 F 100.0000(Penetrate)
G01 X 25.4537 Y 1.9672 Z -1.0000 F 3500.0000
G01 X 25.4483 Y 1.9667 Z -1.0000
G01 X 25.4424 Y 1.9607 Z -1.0000
G01 X 25.4405 Y 1.9540 Z -1.0000
G01 X 25.4429 Y 1.9505 Z -1.0000
G01 X 25.4483 Y 1.9510 Z -1.0000
G01 X 25.4542 Y 1.9570 Z -1.0000
G01 X 25.4561 Y 1.9637 Z -1.0000
G01 X 25.4561 Y 1.9637 Z -1.0000
G00 Z 5.0000

(End cutting path id: path83386)


(Start cutting path id: path83386)
(Change tool to Default tool)

G00 Z 5.0000
G00 X 25.5030 Y 1.9236

G01 Z -1.0000 F 100.0000(Penetrate)
G01 X 25.5054 Y 1.9290 Z -1.0000 F 3500.0000
G01 X 25.5113 Y 1.9314 Z -1.0000
G01 X 25.5152 Y 1.9289 Z -1.0000
G01 X 25.5147 Y 1.9236 Z -1.0000
G01 X 25.5093 Y 1.9169 Z -1.0000
G01 X 25.5064 Y 1.9158 Z -1.0000
G01 X 25.5030 Y 1.9236 Z -1.0000
G01 X 25.5030 Y 1.9236 Z -1.0000
G00 Z 5.0000

(End cutting path id: path83386)


(Start cutting path id: path83386)
(Change tool to Default tool)

G00 Z 5.0000
G00 X 25.5676 Y 1.9058

G01 Z -1.0000 F 100.0000(Penetrate)
G01 X 25.5609 Y 1.9115 Z -1.0000 F 3500.0000
G01 X 25.5578 Y 1.9243 Z -1.0000
G01 X 25.5498 Y 1.9329 Z -1.0000
G01 X 25.5416 Y 1.9256 Z -1.0000
G01 X 25.5335 Y 1.9309 Z -1.0000
G01 X 25.5307 Y 1.9483 Z -1.0000
G01 X 25.5348 Y 1.9553 Z -1.0000
G01 X 25.5345 Y 1.9616 Z -1.0000
G03 X 25.5116 Y 1.9669 Z -1.0000 I -0.0226 J -0.0457
G01 X 25.4968 Y 1.9622 Z -1.0000
G01 X 25.4906 Y 1.9523 Z -1.0000
G01 X 25.4846 Y 1.9466 Z -1.0000
G01 X 25.4795 Y 1.9513 Z -1.0000
G01 X 25.4749 Y 1.9597 Z -1.0000
G01 X 25.4684 Y 1.9585 Z -1.0000
G01 X 25.4331 Y 1.9398 Z -1.0000
G01 X 25.4196 Y 1.9566 Z -1.0000
G01 X 25.4158 Y 1.9661 Z -1.0000
G01 X 25.4060 Y 1.9649 Z -1.0000
G01 X 25.3994 Y 1.9609 Z -1.0000
G01 X 25.3871 Y 1.9590 Z -1.0000
G01 X 25.3793 Y 1.9538 Z -1.0000
G03 X 25.3755 Y 1.9315 Z -1.0000 I 0.0462 J -0.0195
G01 X 25.3716 Y 1.9222 Z -1.0000
G03 X 25.3644 Y 1.9378 Z -1.0000 I -0.0594 J -0.0180
G01 X 25.3602 Y 1.9398 Z -1.0000
G01 X 25.3423 Y 1.9440 Z -1.0000
G01 X 25.3312 Y 1.9570 Z -1.0000
G01 X 25.3270 Y 1.9587 Z -1.0000
G01 X 25.3236 Y 1.9536 Z -1.0000
G01 X 25.3100 Y 1.9406 Z -1.0000
G01 X 25.2784 Y 1.9548 Z -1.0000
G03 X 25.2383 Y 1.9842 Z -1.0000 I -0.0994 J -0.0935
G01 X 25.2292 Y 1.9785 Z -1.0000
G01 X 25.2319 Y 1.9734 Z -1.0000
G01 X 25.2405 Y 1.9707 Z -1.0000
G01 X 25.2505 Y 1.9684 Z -1.0000
G01 X 25.2566 Y 1.9629 Z -1.0000
G01 X 25.2550 Y 1.9586 Z -1.0000
G02 X 25.2331 Y 1.9551 Z -1.0000 I -0.0220 J 0.0667
G01 X 25.2136 Y 1.9616 Z -1.0000
G01 X 25.2102 Y 1.9723 Z -1.0000
G02 X 25.2293 Y 2.0048 Z -1.0000 I 0.0798 J -0.0253
G01 X 25.2400 Y 2.0037 Z -1.0000
G01 X 25.2695 Y 1.9895 Z -1.0000
G01 X 25.2886 Y 2.0099 Z -1.0000
G01 X 25.2983 Y 2.0253 Z -1.0000
G01 X 25.3116 Y 2.0231 Z -1.0000
G02 X 25.3281 Y 2.0001 Z -1.0000 I -0.1089 J -0.0958
G01 X 25.3309 Y 1.9899 Z -1.0000
G01 X 25.3336 Y 1.9813 Z -1.0000
G01 X 25.3387 Y 1.9786 Z -1.0000
G01 X 25.3431 Y 1.9820 Z -1.0000
G03 X 25.3465 Y 2.0099 Z -1.0000 I -0.1119 J 0.0279
G02 X 25.3499 Y 2.0377 Z -1.0000 I 0.1153 J 0.0000
G01 X 25.3543 Y 2.0411 Z -1.0000
G01 X 25.3597 Y 2.0388 Z -1.0000
G01 X 25.3621 Y 2.0327 Z -1.0000
G01 X 25.3745 Y 2.0115 Z -1.0000
G01 X 25.4035 Y 2.0092 Z -1.0000
G01 X 25.4213 Y 2.0110 Z -1.0000
G01 X 25.4351 Y 2.0038 Z -1.0000
G01 X 25.4473 Y 2.0026 Z -1.0000
G01 X 25.4488 Y 2.0128 Z -1.0000
G01 X 25.4447 Y 2.0232 Z -1.0000
G01 X 25.4477 Y 2.0291 Z -1.0000
G01 X 25.4529 Y 2.0287 Z -1.0000
G01 X 25.4559 Y 2.0220 Z -1.0000
G01 X 25.4587 Y 2.0126 Z -1.0000
G01 X 25.4637 Y 2.0098 Z -1.0000
G01 X 25.4685 Y 2.0068 Z -1.0000
G01 X 25.4715 Y 1.9930 Z -1.0000
G01 X 25.4765 Y 1.9872 Z -1.0000
G01 X 25.4873 Y 1.9904 Z -1.0000
G01 X 25.5023 Y 1.9959 Z -1.0000
G01 X 25.5144 Y 1.9896 Z -1.0000
G01 X 25.5219 Y 1.9866 Z -1.0000
G01 X 25.5260 Y 1.9913 Z -1.0000
G01 X 25.5413 Y 2.0136 Z -1.0000
G01 X 25.5701 Y 2.0092 Z -1.0000
G01 X 25.5779 Y 2.0069 Z -1.0000
G01 X 25.5826 Y 2.0107 Z -1.0000
G01 X 25.5884 Y 2.0147 Z -1.0000
G02 X 25.6166 Y 2.0099 Z -1.0000 I -0.0024 J -0.0983
G02 X 25.6466 Y 1.9986 Z -1.0000 I -0.1069 J -0.3304
G01 X 25.6514 Y 1.9950 Z -1.0000
G01 X 25.6558 Y 1.9907 Z -1.0000
G03 X 25.6848 Y 1.9683 Z -1.0000 I 0.6177 J 0.7676
G02 X 25.7084 Y 1.9451 Z -1.0000 I -0.0737 J -0.0989
G01 X 25.7090 Y 1.9370 Z -1.0000
G01 X 25.7122 Y 1.9356 Z -1.0000
G01 X 25.7203 Y 1.9663 Z -1.0000
G01 X 25.6934 Y 1.9947 Z -1.0000
G01 X 25.6925 Y 2.0013 Z -1.0000
G01 X 25.7074 Y 2.0049 Z -1.0000
G01 X 25.7348 Y 2.0078 Z -1.0000
G01 X 25.7355 Y 2.0138 Z -1.0000
G01 X 25.7473 Y 2.0207 Z -1.0000
G01 X 25.7550 Y 2.0270 Z -1.0000
G01 X 25.7533 Y 2.0329 Z -1.0000
G01 X 25.7466 Y 2.0409 Z -1.0000
G01 X 25.7476 Y 2.0461 Z -1.0000
G01 X 25.7530 Y 2.0469 Z -1.0000
G01 X 25.7643 Y 2.0368 Z -1.0000
G03 X 25.7755 Y 2.0219 Z -1.0000 I 0.4558 J 0.3295
G03 X 25.7883 Y 2.0060 Z -1.0000 I 0.4665 J 0.3614
G01 X 25.7970 Y 2.0040 Z -1.0000
G01 X 25.8014 Y 2.0132 Z -1.0000
G01 X 25.8118 Y 2.0097 Z -1.0000
G01 X 25.8176 Y 2.0055 Z -1.0000
G01 X 25.8244 Y 2.0065 Z -1.0000
G01 X 25.8271 Y 2.0121 Z -1.0000
G01 X 25.8229 Y 2.0223 Z -1.0000
G01 X 25.8249 Y 2.0273 Z -1.0000
G01 X 25.8442 Y 2.0250 Z -1.0000
G03 X 25.8664 Y 2.0183 Z -1.0000 I 0.0557 J 0.1452
G03 X 25.8905 Y 2.0148 Z -1.0000 I 0.0371 J 0.1680
G01 X 25.9079 Y 2.0188 Z -1.0000
G01 X 25.9113 Y 2.0270 Z -1.0000
G01 X 25.9134 Y 2.0366 Z -1.0000
G01 X 25.9229 Y 2.0411 Z -1.0000
G02 X 25.9373 Y 2.0392 Z -1.0000 I 0.0000 J -0.0543
G01 X 25.9439 Y 2.0353 Z -1.0000
G01 X 25.9718 Y 2.0226 Z -1.0000
G03 X 26.0057 Y 2.0309 Z -1.0000 I 0.0040 J 0.0569
G01 X 26.0069 Y 2.0350 Z -1.0000
G01 X 25.9987 Y 2.0446 Z -1.0000
G01 X 25.9921 Y 2.0541 Z -1.0000
G01 X 25.9943 Y 2.0599 Z -1.0000
G01 X 26.0094 Y 2.0593 Z -1.0000
G02 X 26.0273 Y 2.0359 Z -1.0000 I -0.0304 J -0.0418
G01 X 26.0380 Y 2.0223 Z -1.0000
G01 X 26.0522 Y 2.0191 Z -1.0000
G01 X 26.0653 Y 2.0252 Z -1.0000
G01 X 26.0689 Y 2.0342 Z -1.0000
G01 X 26.0732 Y 2.0381 Z -1.0000
G02 X 26.0940 Y 2.0303 Z -1.0000 I -0.0083 J -0.0536
G02 X 26.1157 Y 2.0113 Z -1.0000 I -0.0512 J -0.0805
G01 X 26.1203 Y 1.9991 Z -1.0000
G01 X 26.1167 Y 1.9927 Z -1.0000
G01 X 26.1101 Y 1.9932 Z -1.0000
G01 X 26.0963 Y 1.9956 Z -1.0000
G01 X 26.0893 Y 1.9856 Z -1.0000
G01 X 26.0957 Y 1.9759 Z -1.0000
G03 X 26.1323 Y 1.9673 Z -1.0000 I 0.0431 J 0.1012
G01 X 26.1386 Y 1.9649 Z -1.0000
G01 X 26.1425 Y 1.9590 Z -1.0000
G01 X 26.1456 Y 1.9515 Z -1.0000
G03 X 26.1561 Y 1.9340 Z -1.0000 I 0.2164 J 0.1174
G01 X 26.1531 Y 1.9200 Z -1.0000
G01 X 26.1268 Y 1.9155 Z -1.0000
G03 X 26.0993 Y 1.9187 Z -1.0000 I -0.0292 J -0.1289
G01 X 26.0893 Y 1.9160 Z -1.0000
G01 X 26.0792 Y 1.9127 Z -1.0000
G02 X 26.0396 Y 1.9122 Z -1.0000 I -0.0239 J 0.3141
G03 X 26.0011 Y 1.9109 Z -1.0000 I -0.0117 J -0.2350
G01 X 25.9949 Y 1.9070 Z -1.0000
G01 X 25.9896 Y 1.9056 Z -1.0000
G02 X 25.9682 Y 1.9216 Z -1.0000 I 0.0468 J 0.0851
G01 X 25.9541 Y 1.9294 Z -1.0000
G01 X 25.9505 Y 1.9258 Z -1.0000
G01 X 25.9499 Y 1.9120 Z -1.0000
G01 X 25.9445 Y 1.9082 Z -1.0000
G01 X 25.9371 Y 1.9117 Z -1.0000
G01 X 25.9307 Y 1.9258 Z -1.0000
G01 X 25.9262 Y 1.9238 Z -1.0000
G01 X 25.9190 Y 1.9102 Z -1.0000
G01 X 25.8977 Y 1.9023 Z -1.0000
G01 X 25.8760 Y 1.9063 Z -1.0000
G01 X 25.8704 Y 1.9151 Z -1.0000
G01 X 25.8822 Y 1.9323 Z -1.0000
G01 X 25.8975 Y 1.9254 Z -1.0000
G01 X 25.9033 Y 1.9209 Z -1.0000
G01 X 25.9096 Y 1.9239 Z -1.0000
G01 X 25.9048 Y 1.9392 Z -1.0000
G01 X 25.8763 Y 1.9381 Z -1.0000
G01 X 25.8626 Y 1.9352 Z -1.0000
G01 X 25.8462 Y 1.9397 Z -1.0000
G01 X 25.8294 Y 1.9449 Z -1.0000
G03 X 25.8108 Y 1.9437 Z -1.0000 I -0.0059 J -0.0521
G01 X 25.7945 Y 1.9441 Z -1.0000
G01 X 25.7873 Y 1.9509 Z -1.0000
G01 X 25.7767 Y 1.9574 Z -1.0000
G01 X 25.7703 Y 1.9491 Z -1.0000
G01 X 25.7670 Y 1.9400 Z -1.0000
G01 X 25.7531 Y 1.9345 Z -1.0000
G03 X 25.7338 Y 1.9324 Z -1.0000 I 0.0070 J -0.1524
G03 X 25.7199 Y 1.9286 Z -1.0000 I 0.0136 J -0.0777
G02 X 25.6833 Y 1.9208 Z -1.0000 I -0.0469 J 0.1293
G01 X 25.6655 Y 1.9245 Z -1.0000
G01 X 25.6508 Y 1.9279 Z -1.0000
G01 X 25.6437 Y 1.9238 Z -1.0000
G01 X 25.6362 Y 1.9182 Z -1.0000
G01 X 25.6184 Y 1.9170 Z -1.0000
G03 X 25.5998 Y 1.9164 Z -1.0000 I -0.0074 J -0.0570
G01 X 25.5880 Y 1.9109 Z -1.0000
G01 X 25.5767 Y 1.9054 Z -1.0000
G01 X 25.5674 Y 1.9058 Z -1.0000
G01 X 25.5676 Y 1.9058 Z -1.0000
G00 Z 5.0000

(End cutting path id: path83386)


(Start cutting path id: path83386)
(Change tool to Default tool)

G00 Z 5.0000
G00 X 25.5002 Y 2.0291

G01 Z -1.0000 F 100.0000(Penetrate)
G01 X 25.4994 Y 2.0384 Z -1.0000 F 3500.0000
G01 X 25.5024 Y 2.0409 Z -1.0000
G01 X 25.5076 Y 2.0387 Z -1.0000
G01 X 25.5137 Y 2.0291 Z -1.0000
G01 X 25.5145 Y 2.0199 Z -1.0000
G01 X 25.5115 Y 2.0174 Z -1.0000
G01 X 25.5062 Y 2.0196 Z -1.0000
G01 X 25.5002 Y 2.0291 Z -1.0000
G01 X 25.5002 Y 2.0291 Z -1.0000
G00 Z 5.0000

(End cutting path id: path83386)


(Start cutting path id: path83386)
(Change tool to Default tool)

G00 Z 5.0000
G00 X 25.3701 Y 2.0521

G01 Z -1.0000 F 100.0000(Penetrate)
G01 X 25.3773 Y 2.0677 Z -1.0000 F 3500.0000
G01 X 25.3880 Y 2.0672 Z -1.0000
G01 X 25.3914 Y 2.0504 Z -1.0000
G01 X 25.3771 Y 2.0408 Z -1.0000
G01 X 25.3726 Y 2.0433 Z -1.0000
G01 X 25.3701 Y 2.0521 Z -1.0000
G01 X 25.3701 Y 2.0521 Z -1.0000
G00 Z 5.0000

(End cutting path id: path83386)


(Start cutting path id: path83386)
(Change tool to Default tool)

G00 Z 5.0000
G00 X 25.7064 Y 2.0174

G01 Z -1.0000 F 100.0000(Penetrate)
G01 X 25.7086 Y 2.0229 Z -1.0000 F 3500.0000
G01 X 25.7142 Y 2.0252 Z -1.0000
G01 X 25.7197 Y 2.0229 Z -1.0000
G01 X 25.7220 Y 2.0174 Z -1.0000
G01 X 25.7197 Y 2.0119 Z -1.0000
G01 X 25.7142 Y 2.0096 Z -1.0000
G01 X 25.7086 Y 2.0119 Z -1.0000
G01 X 25.7064 Y 2.0174 Z -1.0000
G01 X 25.7064 Y 2.0174 Z -1.0000
G00 Z 5.0000

(End cutting path id: path83386)


(Start cutting path id: path83386)
(Change tool to Default tool)

G00 Z 5.0000
G00 X 25.7733 Y 2.0478

G01 Z -1.0000 F 100.0000(Penetrate)
G01 X 25.7790 Y 2.0602 Z -1.0000 F 3500.0000
G01 X 25.8006 Y 2.0521 Z -1.0000
G01 X 25.8011 Y 2.0450 Z -1.0000
G01 X 25.7938 Y 2.0408 Z -1.0000
G01 X 25.7790 Y 2.0433 Z -1.0000
G01 X 25.7733 Y 2.0478 Z -1.0000
G01 X 25.7733 Y 2.0478 Z -1.0000
G00 Z 5.0000

(End cutting path id: path83386)


(Start cutting path id: path83386)
(Change tool to Default tool)

G00 Z 5.0000
G00 X 25.8823 Y 2.0330

G01 Z -1.0000 F 100.0000(Penetrate)
G01 X 25.8819 Y 2.0384 Z -1.0000 F 3500.0000
G01 X 25.8857 Y 2.0408 Z -1.0000
G01 X 25.8917 Y 2.0385 Z -1.0000
G01 X 25.8940 Y 2.0330 Z -1.0000
G01 X 25.8906 Y 2.0252 Z -1.0000
G01 X 25.8878 Y 2.0264 Z -1.0000
G01 X 25.8823 Y 2.0330 Z -1.0000
G01 X 25.8823 Y 2.0330 Z -1.0000
G00 Z 5.0000

(End cutting path id: path83386)


(Start cutting path id: path83386)
(Change tool to Default tool)

G00 Z 5.0000
G00 X 25.8354 Y 1.9158

G01 Z -1.0000 F 100.0000(Penetrate)
G01 X 25.8409 Y 1.9225 Z -1.0000 F 3500.0000
G01 X 25.8437 Y 1.9236 Z -1.0000
G01 X 25.8471 Y 1.9158 Z -1.0000
G01 X 25.8447 Y 1.9104 Z -1.0000
G01 X 25.8388 Y 1.9080 Z -1.0000
G01 X 25.8350 Y 1.9105 Z -1.0000
G01 X 25.8354 Y 1.9158 Z -1.0000
G01 X 25.8354 Y 1.9158 Z -1.0000
G00 Z 5.0000

(End cutting path id: path83386)


(Start cutting path id: path83386)
(Change tool to Default tool)

G00 Z 5.0000
G00 X 26.4052 Y 1.9508

G01 Z -1.0000 F 100.0000(Penetrate)
G01 X 26.4081 Y 1.9608 Z -1.0000 F 3500.0000
G01 X 26.4172 Y 1.9597 Z -1.0000
G01 X 26.4214 Y 1.9493 Z -1.0000
G01 X 26.4183 Y 1.9434 Z -1.0000
G01 X 26.4118 Y 1.9433 Z -1.0000
G01 X 26.4052 Y 1.9509 Z -1.0000
G01 X 26.4052 Y 1.9508 Z -1.0000
G00 Z 5.0000

(End cutting path id: path83386)


(Start cutting path id: path83386)
(Change tool to Default tool)

G00 Z 5.0000
G00 X 26.4257 Y 2.2369

G01 Z -1.0000 F 100.0000(Penetrate)
G01 X 26.4282 Y 2.2407 Z -1.0000 F 3500.0000
G01 X 26.4335 Y 2.2403 Z -1.0000
G01 X 26.4402 Y 2.2348 Z -1.0000
G01 X 26.4413 Y 2.2320 Z -1.0000
G01 X 26.4335 Y 2.2286 Z -1.0000
G01 X 26.4281 Y 2.2309 Z -1.0000
G01 X 26.4257 Y 2.2369 Z -1.0000
G01 X 26.4257 Y 2.2369 Z -1.0000
G00 Z 5.0000

(End cutting path id: path83386)


(Start cutting path id: path83386)
(Change tool to Default tool)

G00 Z 5.0000
G00 X 26.8246 Y 2.3145

G01 Z -1.0000 F 100.0000(Penetrate)
G01 X 26.8212 Y 2.3223 Z -1.0000 F 3500.0000
G01 X 26.8184 Y 2.3211 Z -1.0000
G01 X 26.8129 Y 2.3145 Z -1.0000
G01 X 26.8125 Y 2.3091 Z -1.0000
G01 X 26.8163 Y 2.3067 Z -1.0000
G01 X 26.8222 Y 2.3090 Z -1.0000
G01 X 26.8246 Y 2.3145 Z -1.0000
G01 X 26.8246 Y 2.3145 Z -1.0000
G00 Z 5.0000

(End cutting path id: path83386)


(Start cutting path id: path83386)
(Change tool to Default tool)

G00 Z 5.0000
G00 X 26.8871 Y 2.2911

G01 Z -1.0000 F 100.0000(Penetrate)
G01 X 26.8894 Y 2.2966 Z -1.0000 F 3500.0000
G01 X 26.8949 Y 2.2989 Z -1.0000
G01 X 26.9004 Y 2.2966 Z -1.0000
G01 X 26.9027 Y 2.2911 Z -1.0000
G01 X 26.9004 Y 2.2856 Z -1.0000
G01 X 26.8949 Y 2.2833 Z -1.0000
G01 X 26.8894 Y 2.2856 Z -1.0000
G01 X 26.8871 Y 2.2911 Z -1.0000
G01 X 26.8871 Y 2.2911 Z -1.0000
G00 Z 5.0000

(End cutting path id: path83386)


(Start cutting path id: path83386)
(Change tool to Default tool)

G00 Z 5.0000
G00 X 26.8995 Y 2.3821

G01 Z -1.0000 F 100.0000(Penetrate)
G01 X 26.9023 Y 2.3936 Z -1.0000 F 3500.0000
G01 X 26.9109 Y 2.3925 Z -1.0000
G01 X 26.9164 Y 2.3743 Z -1.0000
G01 X 26.9114 Y 2.3692 Z -1.0000
G01 X 26.9061 Y 2.3716 Z -1.0000
G01 X 26.8995 Y 2.3821 Z -1.0000
G01 X 26.8995 Y 2.3821 Z -1.0000
G00 Z 5.0000

(End cutting path id: path83386)


(Start cutting path id: path83386)
(Change tool to Default tool)

G00 Z 5.0000
G00 X 27.0435 Y 2.4509

G01 Z -1.0000 F 100.0000(Penetrate)
G01 X 27.0360 Y 2.4604 Z -1.0000 F 3500.0000
G01 X 27.0241 Y 2.4554 Z -1.0000
G01 X 27.0246 Y 2.4505 Z -1.0000
G01 X 27.0314 Y 2.4475 Z -1.0000
G01 X 27.0436 Y 2.4509 Z -1.0000
G01 X 27.0435 Y 2.4509 Z -1.0000
G00 Z 5.0000

(End cutting path id: path83386)


(Start cutting path id: path83386)
(Change tool to Default tool)

G00 Z 5.0000
G00 X 27.0826 Y 2.4710

G01 Z -1.0000 F 100.0000(Penetrate)
G01 X 27.0803 Y 2.4765 Z -1.0000 F 3500.0000
G01 X 27.0743 Y 2.4788 Z -1.0000
G01 X 27.0705 Y 2.4763 Z -1.0000
G01 X 27.0709 Y 2.4710 Z -1.0000
G01 X 27.0764 Y 2.4644 Z -1.0000
G01 X 27.0792 Y 2.4632 Z -1.0000
G01 X 27.0826 Y 2.4710 Z -1.0000
G01 X 27.0826 Y 2.4710 Z -1.0000
G00 Z 5.0000

(End cutting path id: path83386)


(Start cutting path id: path83386)
(Change tool to Default tool)

G00 Z 5.0000
G00 X 27.1036 Y 2.4881

G01 Z -1.0000 F 100.0000(Penetrate)
G01 X 27.0989 Y 2.4834 Z -1.0000 F 3500.0000
G01 X 27.1030 Y 2.4732 Z -1.0000
G01 X 27.1053 Y 2.4784 Z -1.0000
G01 X 27.1036 Y 2.4881 Z -1.0000
G01 X 27.1036 Y 2.4881 Z -1.0000
G00 Z 5.0000

(End cutting path id: path83386)


(Start cutting path id: path83386)
(Change tool to Default tool)

G00 Z 5.0000
G00 X 27.1965 Y 2.4580

G01 Z -1.0000 F 100.0000(Penetrate)
G01 X 27.2048 Y 2.4580 Z -1.0000 F 3500.0000
G01 X 27.2077 Y 2.4623 Z -1.0000
G01 X 27.2049 Y 2.4682 Z -1.0000
G01 X 27.1970 Y 2.4710 Z -1.0000
G01 X 27.1739 Y 2.4602 Z -1.0000
G01 X 27.1746 Y 2.4442 Z -1.0000
G01 X 27.1787 Y 2.4439 Z -1.0000
G01 X 27.1828 Y 2.4503 Z -1.0000
G01 X 27.1879 Y 2.4574 Z -1.0000
G01 X 27.1965 Y 2.4581 Z -1.0000
G01 X 27.1965 Y 2.4580 Z -1.0000
G00 Z 5.0000

(End cutting path id: path83386)


(Start cutting path id: path83386)
(Change tool to Default tool)

G00 Z 5.0000
G00 X 27.2731 Y 2.4437

G01 Z -1.0000 F 100.0000(Penetrate)
G03 X 27.2678 Y 2.4542 Z -1.0000 I -0.0528 J -0.0203 F 3500.0000
G01 X 27.2655 Y 2.4554 Z -1.0000
G01 X 27.2624 Y 2.4437 Z -1.0000
G01 X 27.2651 Y 2.4346 Z -1.0000
G01 X 27.2700 Y 2.4319 Z -1.0000
G01 X 27.2736 Y 2.4347 Z -1.0000
G01 X 27.2731 Y 2.4437 Z -1.0000
G01 X 27.2731 Y 2.4437 Z -1.0000
G00 Z 5.0000

(End cutting path id: path83386)


(Start cutting path id: path83386)
(Change tool to Default tool)

G00 Z 5.0000
G00 X 27.4267 Y 2.4666

G01 Z -1.0000 F 100.0000(Penetrate)
G01 X 27.4256 Y 2.4695 Z -1.0000 F 3500.0000
G01 X 27.4189 Y 2.4749 Z -1.0000
G01 X 27.4136 Y 2.4753 Z -1.0000
G01 X 27.4111 Y 2.4715 Z -1.0000
G01 X 27.4135 Y 2.4656 Z -1.0000
G01 X 27.4189 Y 2.4632 Z -1.0000
G01 X 27.4267 Y 2.4666 Z -1.0000
G01 X 27.4267 Y 2.4666 Z -1.0000
G00 Z 5.0000

(End cutting path id: path83386)


(Start cutting path id: path83386)
(Change tool to Default tool)

G00 Z 5.0000
G00 X 27.3025 Y 2.6061

G01 Z -1.0000 F 100.0000(Penetrate)
G01 X 27.2969 Y 2.6073 Z -1.0000 F 3500.0000
G01 X 27.2938 Y 2.6028 Z -1.0000
G01 X 27.2955 Y 2.5915 Z -1.0000
G01 X 27.2995 Y 2.5851 Z -1.0000
G01 X 27.3040 Y 2.5841 Z -1.0000
G01 X 27.3082 Y 2.5884 Z -1.0000
G01 X 27.3082 Y 2.5966 Z -1.0000
G01 X 27.3025 Y 2.6061 Z -1.0000
G01 X 27.3025 Y 2.6061 Z -1.0000
G00 Z 5.0000

(End cutting path id: path83386)


(Start cutting path id: path83386)
(Change tool to Default tool)

G00 Z 5.0000
G00 X 27.6432 Y 2.4959

G01 Z -1.0000 F 100.0000(Penetrate)
G01 X 27.6385 Y 2.4912 Z -1.0000 F 3500.0000
G01 X 27.6426 Y 2.4810 Z -1.0000
G01 X 27.6449 Y 2.4862 Z -1.0000
G01 X 27.6432 Y 2.4960 Z -1.0000
G01 X 27.6432 Y 2.4959 Z -1.0000
G00 Z 5.0000

(End cutting path id: path83386)


(Start cutting path id: path83386)
(Change tool to Default tool)

G00 Z 5.0000
G00 X 27.6965 Y 2.4631

G01 Z -1.0000 F 100.0000(Penetrate)
G01 X 27.6969 Y 2.4685 Z -1.0000 F 3500.0000
G01 X 27.6931 Y 2.4709 Z -1.0000
G01 X 27.6871 Y 2.4685 Z -1.0000
G01 X 27.6848 Y 2.4631 Z -1.0000
G01 X 27.6882 Y 2.4553 Z -1.0000
G01 X 27.6910 Y 2.4564 Z -1.0000
G01 X 27.6965 Y 2.4631 Z -1.0000
G01 X 27.6965 Y 2.4631 Z -1.0000
G00 Z 5.0000

(End cutting path id: path83386)


(Start cutting path id: path83386)
(Change tool to Default tool)

G00 Z 5.0000
G00 X 27.6331 Y 2.4287

G01 Z -1.0000 F 100.0000(Penetrate)
G01 X 27.6328 Y 2.4362 Z -1.0000 F 3500.0000
G01 X 27.6286 Y 2.4379 Z -1.0000
G01 X 27.6149 Y 2.4246 Z -1.0000
G01 X 27.6208 Y 2.4163 Z -1.0000
G01 X 27.6268 Y 2.4188 Z -1.0000
G01 X 27.6332 Y 2.4287 Z -1.0000
G01 X 27.6331 Y 2.4287 Z -1.0000
G00 Z 5.0000

(End cutting path id: path83386)


(Start cutting path id: path83386)
(Change tool to Default tool)

G00 Z 5.0000
G00 X 27.7638 Y 2.4968

G01 Z -1.0000 F 100.0000(Penetrate)
G01 X 27.7529 Y 2.4975 Z -1.0000 F 3500.0000
G01 X 27.7510 Y 2.4871 Z -1.0000
G01 X 27.7571 Y 2.4825 Z -1.0000
G01 X 27.7642 Y 2.4836 Z -1.0000
G01 X 27.7671 Y 2.4891 Z -1.0000
G01 X 27.7638 Y 2.4969 Z -1.0000
G01 X 27.7638 Y 2.4968 Z -1.0000
G00 Z 5.0000

(End cutting path id: path83386)


(Start cutting path id: path83386)
(Change tool to Default tool)

G00 Z 5.0000
G00 X 27.8812 Y 2.4730

G01 Z -1.0000 F 100.0000(Penetrate)
G01 X 27.8768 Y 2.4686 Z -1.0000 F 3500.0000
G01 X 27.8865 Y 2.4590 Z -1.0000
G01 X 27.8874 Y 2.4634 Z -1.0000
G01 X 27.8812 Y 2.4730 Z -1.0000
G01 X 27.8812 Y 2.4730 Z -1.0000
G00 Z 5.0000

(End cutting path id: path83386)


(Start cutting path id: path83386)
(Change tool to Default tool)

G00 Z 5.0000
G00 X 28.0835 Y 2.4393

G01 Z -1.0000 F 100.0000(Penetrate)
G01 X 28.0755 Y 2.4541 Z -1.0000 F 3500.0000
G01 X 28.0627 Y 2.4527 Z -1.0000
G01 X 28.0614 Y 2.4400 Z -1.0000
G01 X 28.0762 Y 2.4319 Z -1.0000
G01 X 28.0814 Y 2.4340 Z -1.0000
G01 X 28.0836 Y 2.4393 Z -1.0000
G01 X 28.0835 Y 2.4393 Z -1.0000
G00 Z 5.0000

(End cutting path id: path83386)


(Start cutting path id: path83386)
(Change tool to Default tool)

G00 Z 5.0000
G00 X 28.1227 Y 2.4485

G01 Z -1.0000 F 100.0000(Penetrate)
G01 X 28.1202 Y 2.4519 Z -1.0000 F 3500.0000
G01 X 28.1149 Y 2.4515 Z -1.0000
G01 X 28.1089 Y 2.4455 Z -1.0000
G01 X 28.1071 Y 2.4388 Z -1.0000
G01 X 28.1095 Y 2.4353 Z -1.0000
G01 X 28.1149 Y 2.4358 Z -1.0000
G01 X 28.1208 Y 2.4418 Z -1.0000
G01 X 28.1227 Y 2.4485 Z -1.0000
G01 X 28.1227 Y 2.4485 Z -1.0000
G00 Z 5.0000

(End cutting path id: path83386)


(Start cutting path id: path83386)
(Change tool to Default tool)

G00 Z 5.0000
G00 X 28.2712 Y 2.4553

G01 Z -1.0000 F 100.0000(Penetrate)
G01 X 28.2678 Y 2.4631 Z -1.0000 F 3500.0000
G01 X 28.2650 Y 2.4620 Z -1.0000
G01 X 28.2595 Y 2.4553 Z -1.0000
G01 X 28.2591 Y 2.4500 Z -1.0000
G01 X 28.2629 Y 2.4475 Z -1.0000
G01 X 28.2689 Y 2.4499 Z -1.0000
G01 X 28.2712 Y 2.4553 Z -1.0000
G01 X 28.2712 Y 2.4553 Z -1.0000
G00 Z 5.0000

(End cutting path id: path83386)


(Start cutting path id: path83386)
(Change tool to Default tool)

G00 Z 5.0000
G00 X 28.2087 Y 2.5955

G01 Z -1.0000 F 100.0000(Penetrate)
G01 X 28.2068 Y 2.6018 Z -1.0000 F 3500.0000
G01 X 28.2009 Y 2.6077 Z -1.0000
G01 X 28.1960 Y 2.6072 Z -1.0000
G01 X 28.1931 Y 2.6003 Z -1.0000
G01 X 28.1958 Y 2.5909 Z -1.0000
G01 X 28.2009 Y 2.5881 Z -1.0000
G01 X 28.2064 Y 2.5903 Z -1.0000
G01 X 28.2087 Y 2.5955 Z -1.0000
G01 X 28.2087 Y 2.5955 Z -1.0000
G00 Z 5.0000

(End cutting path id: path83386)


(Start cutting path id: path83386)
(Change tool to Default tool)

G00 Z 5.0000
G00 X 28.7539 Y 2.4679

G01 Z -1.0000 F 100.0000(Penetrate)
G01 X 28.7487 Y 2.4702 Z -1.0000 F 3500.0000
G01 X 28.7389 Y 2.4686 Z -1.0000
G01 X 28.7436 Y 2.4639 Z -1.0000
G01 X 28.7539 Y 2.4680 Z -1.0000
G01 X 28.7539 Y 2.4679 Z -1.0000
G00 Z 5.0000

(End cutting path id: path83386)


(Start cutting path id: path83386)
(Change tool to Default tool)

G00 Z 5.0000
G00 X 28.8264 Y 2.4553

G01 Z -1.0000 F 100.0000(Penetrate)
G01 X 28.8237 Y 2.4604 Z -1.0000 F 3500.0000
G01 X 28.8147 Y 2.4631 Z -1.0000
G01 X 28.8057 Y 2.4604 Z -1.0000
G01 X 28.8030 Y 2.4553 Z -1.0000
G01 X 28.8057 Y 2.4503 Z -1.0000
G01 X 28.8147 Y 2.4475 Z -1.0000
G01 X 28.8237 Y 2.4503 Z -1.0000
G01 X 28.8264 Y 2.4553 Z -1.0000
G01 X 28.8264 Y 2.4553 Z -1.0000
G00 Z 5.0000

(End cutting path id: path83386)


(Start cutting path id: path83386)
(Change tool to Default tool)

G00 Z 5.0000
G00 X 28.9369 Y 2.4390

G01 Z -1.0000 F 100.0000(Penetrate)
G02 X 28.9272 Y 2.4467 Z -1.0000 I 0.0286 J 0.0456 F 3500.0000
G02 X 28.9197 Y 2.4563 Z -1.0000 I 0.0385 J 0.0381
G01 X 28.9145 Y 2.4494 Z -1.0000
G01 X 28.9203 Y 2.4368 Z -1.0000
G01 X 28.9317 Y 2.4321 Z -1.0000
G01 X 28.9377 Y 2.4350 Z -1.0000
G01 X 28.9369 Y 2.4390 Z -1.0000
G01 X 28.9369 Y 2.4390 Z -1.0000
G00 Z 5.0000

(End cutting path id: path83386)


(Start cutting path id: path83386)
(Change tool to Default tool)

G00 Z 5.0000
G00 X 28.9750 Y 2.4509

G01 Z -1.0000 F 100.0000(Penetrate)
G01 X 28.9739 Y 2.4538 Z -1.0000 F 3500.0000
G01 X 28.9672 Y 2.4592 Z -1.0000
G01 X 28.9619 Y 2.4596 Z -1.0000
G01 X 28.9594 Y 2.4558 Z -1.0000
G01 X 28.9618 Y 2.4499 Z -1.0000
G01 X 28.9672 Y 2.4475 Z -1.0000
G01 X 28.9750 Y 2.4509 Z -1.0000
G01 X 28.9750 Y 2.4509 Z -1.0000
G00 Z 5.0000

(End cutting path id: path83386)


(Start cutting path id: path83386)
(Change tool to Default tool)

G00 Z 5.0000
G00 X 28.9735 Y 2.3667

G01 Z -1.0000 F 100.0000(Penetrate)
G01 X 28.9833 Y 2.3684 Z -1.0000 F 3500.0000
G01 X 28.9885 Y 2.3661 Z -1.0000
G01 X 28.9783 Y 2.3620 Z -1.0000
G01 X 28.9736 Y 2.3667 Z -1.0000
G01 X 28.9735 Y 2.3667 Z -1.0000
G00 Z 5.0000

(End cutting path id: path83386)


(Start cutting path id: path83386)
(Change tool to Default tool)

G00 Z 5.0000
G00 X 29.1470 Y 2.4626

G01 Z -1.0000 F 100.0000(Penetrate)
G01 X 29.1452 Y 2.4689 Z -1.0000 F 3500.0000
G01 X 29.1392 Y 2.4748 Z -1.0000
G01 X 29.1344 Y 2.4743 Z -1.0000
G01 X 29.1314 Y 2.4674 Z -1.0000
G01 X 29.1342 Y 2.4580 Z -1.0000
G01 X 29.1392 Y 2.4552 Z -1.0000
G01 X 29.1448 Y 2.4575 Z -1.0000
G01 X 29.1470 Y 2.4626 Z -1.0000
G01 X 29.1470 Y 2.4626 Z -1.0000
G00 Z 5.0000

(End cutting path id: path83386)


(Start cutting path id: path83386)
(Change tool to Default tool)

G00 Z 5.0000
G00 X 29.5771 Y 2.4319

G01 Z -1.0000 F 100.0000(Penetrate)
G01 X 29.5748 Y 2.4374 Z -1.0000 F 3500.0000
G01 X 29.5693 Y 2.4397 Z -1.0000
G01 X 29.5642 Y 2.4425 Z -1.0000
G01 X 29.5609 Y 2.4533 Z -1.0000
G01 X 29.5563 Y 2.4570 Z -1.0000
G01 X 29.5545 Y 2.4470 Z -1.0000
G01 X 29.5567 Y 2.4355 Z -1.0000
G01 X 29.5693 Y 2.4252 Z -1.0000
G01 X 29.5772 Y 2.4318 Z -1.0000
G01 X 29.5771 Y 2.4319 Z -1.0000
G00 Z 5.0000

(End cutting path id: path83386)


(Start cutting path id: path83386)
(Change tool to Default tool)

G00 Z 5.0000
G00 X 29.6188 Y 2.4417

G01 Z -1.0000 F 100.0000(Penetrate)
G01 X 29.6082 Y 2.4445 Z -1.0000 F 3500.0000
G01 X 29.6006 Y 2.4316 Z -1.0000
G01 X 29.6046 Y 2.4249 Z -1.0000
G01 X 29.6115 Y 2.4257 Z -1.0000
G01 X 29.6192 Y 2.4362 Z -1.0000
G01 X 29.6189 Y 2.4417 Z -1.0000
G01 X 29.6188 Y 2.4417 Z -1.0000
G00 Z 5.0000

(End cutting path id: path83386)


(Start cutting path id: path83386)
(Change tool to Default tool)

G00 Z 5.0000
G00 X 29.9134 Y 2.3724

G01 Z -1.0000 F 100.0000(Penetrate)
G01 X 29.8977 Y 2.3795 Z -1.0000 F 3500.0000
G01 X 29.8864 Y 2.3765 Z -1.0000
G01 X 29.9044 Y 2.3647 Z -1.0000
G01 X 29.9134 Y 2.3724 Z -1.0000
G01 X 29.9134 Y 2.3724 Z -1.0000
G00 Z 5.0000

(End cutting path id: path83386)


(Start cutting path id: path83386)
(Change tool to Default tool)

G00 Z 5.0000
G00 X 30.7657 Y 2.3257

G01 Z -1.0000 F 100.0000(Penetrate)
G01 X 30.7684 Y 2.3351 Z -1.0000 F 3500.0000
G01 X 30.7735 Y 2.3379 Z -1.0000
G01 X 30.7790 Y 2.3356 Z -1.0000
G01 X 30.7813 Y 2.3305 Z -1.0000
G01 X 30.7795 Y 2.3242 Z -1.0000
G01 X 30.7735 Y 2.3183 Z -1.0000
G01 X 30.7686 Y 2.3188 Z -1.0000
G01 X 30.7657 Y 2.3257 Z -1.0000
G01 X 30.7657 Y 2.3257 Z -1.0000
G00 Z 5.0000

(End cutting path id: path83386)


(Start cutting path id: path83386)
(Change tool to Default tool)

G00 Z 5.0000
G00 X 31.3091 Y 2.3223

G01 Z -1.0000 F 100.0000(Penetrate)
G01 X 31.3096 Y 2.3271 Z -1.0000 F 3500.0000
G01 X 31.3165 Y 2.3301 Z -1.0000
G01 X 31.3260 Y 2.3273 Z -1.0000
G01 X 31.3287 Y 2.3223 Z -1.0000
G01 X 31.3265 Y 2.3167 Z -1.0000
G01 X 31.3213 Y 2.3145 Z -1.0000
G01 X 31.3151 Y 2.3163 Z -1.0000
G01 X 31.3091 Y 2.3223 Z -1.0000
G01 X 31.3091 Y 2.3223 Z -1.0000
G00 Z 5.0000

(End cutting path id: path83386)


(Start cutting path id: path83386)
(Change tool to Default tool)

G00 Z 5.0000
G00 X 31.3600 Y 2.3457

G01 Z -1.0000 F 100.0000(Penetrate)
G01 X 31.3571 Y 2.3507 Z -1.0000 F 3500.0000
G01 X 31.3463 Y 2.3534 Z -1.0000
G01 X 31.3425 Y 2.3504 Z -1.0000
G01 X 31.3443 Y 2.3457 Z -1.0000
G01 X 31.3564 Y 2.3422 Z -1.0000
G01 X 31.3600 Y 2.3457 Z -1.0000
G01 X 31.3600 Y 2.3457 Z -1.0000
G00 Z 5.0000

(End cutting path id: path83386)


(Start cutting path id: path83386)
(Change tool to Default tool)

G00 Z 5.0000
G00 X 31.3963 Y 2.3340

G01 Z -1.0000 F 100.0000(Penetrate)
G01 X 31.3981 Y 2.3416 Z -1.0000 F 3500.0000
G01 X 31.3923 Y 2.3457 Z -1.0000
G01 X 31.3734 Y 2.3380 Z -1.0000
G01 X 31.3733 Y 2.3273 Z -1.0000
G01 X 31.3814 Y 2.3252 Z -1.0000
G01 X 31.3963 Y 2.3340 Z -1.0000
G01 X 31.3963 Y 2.3340 Z -1.0000
G00 Z 5.0000

(End cutting path id: path83386)


(Start cutting path id: path83386)
(Change tool to Default tool)

G00 Z 5.0000
G00 X 31.4226 Y 2.3610

G01 Z -1.0000 F 100.0000(Penetrate)
G01 X 31.4200 Y 2.3670 Z -1.0000 F 3500.0000
G03 X 31.4050 Y 2.3778 Z -1.0000 I -0.0457 J -0.0476
G01 X 31.4011 Y 2.3763 Z -1.0000
G01 X 31.4023 Y 2.3703 Z -1.0000
G01 X 31.4184 Y 2.3584 Z -1.0000
G01 X 31.4226 Y 2.3611 Z -1.0000
G01 X 31.4226 Y 2.3610 Z -1.0000
G00 Z 5.0000

(End cutting path id: path83386)


(Start cutting path id: path83386)
(Change tool to Default tool)

G00 Z 5.0000
G00 X 31.4499 Y 2.3223

G01 Z -1.0000 F 100.0000(Penetrate)
G01 X 31.4558 Y 2.3282 Z -1.0000 F 3500.0000
G01 X 31.4621 Y 2.3301 Z -1.0000
G01 X 31.4672 Y 2.3279 Z -1.0000
G01 X 31.4695 Y 2.3223 Z -1.0000
G01 X 31.4667 Y 2.3172 Z -1.0000
G01 X 31.4573 Y 2.3145 Z -1.0000
G01 X 31.4504 Y 2.3174 Z -1.0000
G01 X 31.4499 Y 2.3223 Z -1.0000
G01 X 31.4499 Y 2.3223 Z -1.0000
G00 Z 5.0000

(End cutting path id: path83386)


(Start cutting path id: path83386)
(Change tool to Default tool)

G00 Z 5.0000
G00 X 32.2280 Y 2.3491

G01 Z -1.0000 F 100.0000(Penetrate)
G01 X 32.2269 Y 2.3519 Z -1.0000 F 3500.0000
G01 X 32.2202 Y 2.3574 Z -1.0000
G01 X 32.2149 Y 2.3578 Z -1.0000
G01 X 32.2124 Y 2.3540 Z -1.0000
G01 X 32.2148 Y 2.3481 Z -1.0000
G01 X 32.2202 Y 2.3457 Z -1.0000
G01 X 32.2280 Y 2.3491 Z -1.0000
G01 X 32.2280 Y 2.3491 Z -1.0000
G00 Z 5.0000

(End cutting path id: path83386)


(Start cutting path id: path83386)
(Change tool to Default tool)

G00 Z 5.0000
G00 X 32.3062 Y 2.2911

G01 Z -1.0000 F 100.0000(Penetrate)
G01 X 32.2985 Y 2.2984 Z -1.0000 F 3500.0000
G01 X 32.2988 Y 2.3020 Z -1.0000
G01 X 32.3031 Y 2.3032 Z -1.0000
G01 X 32.3140 Y 2.2989 Z -1.0000
G01 X 32.3217 Y 2.2915 Z -1.0000
G01 X 32.3214 Y 2.2880 Z -1.0000
G01 X 32.3171 Y 2.2867 Z -1.0000
G01 X 32.3062 Y 2.2911 Z -1.0000
G01 X 32.3062 Y 2.2911 Z -1.0000
G00 Z 5.0000

(End cutting path id: path83386)


(Start cutting path id: path83386)
(Change tool to Default tool)

G00 Z 5.0000
G00 X 32.3961 Y 2.2989

G01 Z -1.0000 F 100.0000(Penetrate)
G01 X 32.4016 Y 2.3056 Z -1.0000 F 3500.0000
G01 X 32.4044 Y 2.3067 Z -1.0000
G01 X 32.4078 Y 2.2989 Z -1.0000
G01 X 32.4054 Y 2.2935 Z -1.0000
G01 X 32.3995 Y 2.2911 Z -1.0000
G01 X 32.3957 Y 2.2936 Z -1.0000
G01 X 32.3961 Y 2.2989 Z -1.0000
G01 X 32.3961 Y 2.2989 Z -1.0000
G00 Z 5.0000

(End cutting path id: path83386)


(Start cutting path id: path83386)
(Change tool to Default tool)

G00 Z 5.0000
G00 X 33.0881 Y 2.2172

G01 Z -1.0000 F 100.0000(Penetrate)
G01 X 33.0911 Y 2.2241 Z -1.0000 F 3500.0000
G01 X 33.0959 Y 2.2246 Z -1.0000
G01 X 33.1019 Y 2.2188 Z -1.0000
G01 X 33.1037 Y 2.2124 Z -1.0000
G01 X 33.1015 Y 2.2073 Z -1.0000
G01 X 33.0959 Y 2.2050 Z -1.0000
G01 X 33.0909 Y 2.2078 Z -1.0000
G01 X 33.0881 Y 2.2172 Z -1.0000
G01 X 33.0881 Y 2.2172 Z -1.0000
G00 Z 5.0000

(End cutting path id: path83386)


(Start cutting path id: path83386)
(Change tool to Default tool)

G00 Z 5.0000
G00 X 33.9405 Y 2.2754

G01 Z -1.0000 F 100.0000(Penetrate)
G01 X 33.9382 Y 2.2808 Z -1.0000 F 3500.0000
G01 X 33.9322 Y 2.2832 Z -1.0000
G01 X 33.9284 Y 2.2807 Z -1.0000
G01 X 33.9288 Y 2.2754 Z -1.0000
G01 X 33.9343 Y 2.2687 Z -1.0000
G01 X 33.9371 Y 2.2676 Z -1.0000
G01 X 33.9405 Y 2.2754 Z -1.0000
G01 X 33.9405 Y 2.2754 Z -1.0000
G00 Z 5.0000

(End cutting path id: path83386)


(Start cutting path id: path83386)
(Change tool to Default tool)

G00 Z 5.0000
G00 X 34.0144 Y 2.2760

G01 Z -1.0000 F 100.0000(Penetrate)
G01 X 34.0118 Y 2.2840 Z -1.0000 F 3500.0000
G01 X 34.0135 Y 2.2885 Z -1.0000
G01 X 34.0263 Y 2.2898 Z -1.0000
G01 X 34.0343 Y 2.2750 Z -1.0000
G01 X 34.0273 Y 2.2684 Z -1.0000
G01 X 34.0144 Y 2.2760 Z -1.0000
G01 X 34.0144 Y 2.2760 Z -1.0000
G00 Z 5.0000

(End cutting path id: path83386)


(Start cutting path id: path83386)
(Change tool to Default tool)

G00 Z 5.0000
G00 X 34.0734 Y 2.2755

G01 Z -1.0000 F 100.0000(Penetrate)
G01 X 34.0762 Y 2.2806 Z -1.0000 F 3500.0000
G01 X 34.0851 Y 2.2833 Z -1.0000
G01 X 34.0942 Y 2.2805 Z -1.0000
G01 X 34.0969 Y 2.2755 Z -1.0000
G01 X 34.0941 Y 2.2704 Z -1.0000
G01 X 34.0851 Y 2.2677 Z -1.0000
G01 X 34.0761 Y 2.2704 Z -1.0000
G01 X 34.0734 Y 2.2755 Z -1.0000
G01 X 34.0734 Y 2.2755 Z -1.0000
G00 Z 5.0000

(End cutting path id: path83386)


(Start cutting path id: path83386)
(Change tool to Default tool)

G00 Z 5.0000
G00 X 34.1438 Y 2.3498

G01 Z -1.0000 F 100.0000(Penetrate)
G01 X 34.1411 Y 2.3588 Z -1.0000 F 3500.0000
G01 X 34.1360 Y 2.3615 Z -1.0000
G01 X 34.1309 Y 2.3643 Z -1.0000
G01 X 34.1282 Y 2.3733 Z -1.0000
G01 X 34.1310 Y 2.3823 Z -1.0000
G01 X 34.1360 Y 2.3850 Z -1.0000
G01 X 34.1418 Y 2.3829 Z -1.0000
G01 X 34.1438 Y 2.3787 Z -1.0000
G01 X 34.1456 Y 2.3730 Z -1.0000
G03 X 34.1598 Y 2.3552 Z -1.0000 I 0.1254 J 0.0855
G01 X 34.1757 Y 2.3381 Z -1.0000
G01 X 34.1598 Y 2.3381 Z -1.0000
G01 X 34.1478 Y 2.3421 Z -1.0000
G01 X 34.1438 Y 2.3499 Z -1.0000
G01 X 34.1438 Y 2.3498 Z -1.0000
G00 Z 5.0000

(End cutting path id: path83386)


(Start cutting path id: path83386)
(Change tool to Default tool)

G00 Z 5.0000
G00 X 34.1907 Y 2.3223

G01 Z -1.0000 F 100.0000(Penetrate)
G01 X 34.1930 Y 2.3278 Z -1.0000 F 3500.0000
G01 X 34.1985 Y 2.3301 Z -1.0000
G01 X 34.2040 Y 2.3278 Z -1.0000
G01 X 34.2063 Y 2.3223 Z -1.0000
G01 X 34.2040 Y 2.3168 Z -1.0000
G01 X 34.1985 Y 2.3145 Z -1.0000
G01 X 34.1930 Y 2.3168 Z -1.0000
G01 X 34.1907 Y 2.3223 Z -1.0000
G01 X 34.1907 Y 2.3223 Z -1.0000
G00 Z 5.0000

(End cutting path id: path83386)


(Start cutting path id: path83386)
(Change tool to Default tool)

G00 Z 5.0000
G00 X 34.2025 Y 2.3614

G01 Z -1.0000 F 100.0000(Penetrate)
G01 X 34.2080 Y 2.3681 Z -1.0000 F 3500.0000
G01 X 34.2108 Y 2.3692 Z -1.0000
G01 X 34.2142 Y 2.3614 Z -1.0000
G01 X 34.2118 Y 2.3560 Z -1.0000
G01 X 34.2059 Y 2.3536 Z -1.0000
G01 X 34.2021 Y 2.3561 Z -1.0000
G01 X 34.2025 Y 2.3614 Z -1.0000
G01 X 34.2025 Y 2.3614 Z -1.0000
G00 Z 5.0000

(End cutting path id: path83386)


(Start cutting path id: path83386)
(Change tool to Default tool)

G00 Z 5.0000
G00 X 34.2275 Y 2.2989

G01 Z -1.0000 F 100.0000(Penetrate)
G01 X 34.2285 Y 2.3106 Z -1.0000 F 3500.0000
G01 X 34.2344 Y 2.3145 Z -1.0000
G01 X 34.2416 Y 2.3108 Z -1.0000
G01 X 34.2454 Y 2.2989 Z -1.0000
G01 X 34.2427 Y 2.2860 Z -1.0000
G01 X 34.2385 Y 2.2832 Z -1.0000
G01 X 34.2336 Y 2.2858 Z -1.0000
G01 X 34.2275 Y 2.2989 Z -1.0000
G01 X 34.2275 Y 2.2989 Z -1.0000
G00 Z 5.0000

(End cutting path id: path83386)


(Start cutting path id: path83386)
(Change tool to Default tool)

G00 Z 5.0000
G00 X 34.1892 Y 2.2808

G01 Z -1.0000 F 100.0000(Penetrate)
G01 X 34.1990 Y 2.2825 Z -1.0000 F 3500.0000
G01 X 34.2042 Y 2.2802 Z -1.0000
G01 X 34.1940 Y 2.2761 Z -1.0000
G01 X 34.1893 Y 2.2808 Z -1.0000
G01 X 34.1892 Y 2.2808 Z -1.0000
G00 Z 5.0000

(End cutting path id: path83386)


(Start cutting path id: path83386)
(Change tool to Default tool)

G00 Z 5.0000
G00 X 34.5896 Y 2.0879

G01 Z -1.0000 F 100.0000(Penetrate)
G02 X 34.3885 Y 2.1272 Z -1.0000 I 0.2799 J 1.9654 F 3500.0000
G01 X 34.3659 Y 2.1438 Z -1.0000
G01 X 34.3755 Y 2.1476 Z -1.0000
G03 X 34.6178 Y 2.1012 Z -1.0000 I 0.3607 J 1.2287
G03 X 34.7581 Y 2.1120 Z -1.0000 I 0.0385 J 0.4150
G03 X 34.7846 Y 2.1267 Z -1.0000 I -0.0143 J 0.0568
G01 X 34.7814 Y 2.1346 Z -1.0000
G01 X 34.7639 Y 2.1447 Z -1.0000
G02 X 34.7537 Y 2.1833 Z -1.0000 I 0.0680 J 0.0386
G03 X 34.7509 Y 2.2006 Z -1.0000 I -0.0545 J 0.0000
G01 X 34.7444 Y 2.2111 Z -1.0000
G01 X 34.7421 Y 2.2205 Z -1.0000
G01 X 34.7527 Y 2.2391 Z -1.0000
G01 X 34.7703 Y 2.2578 Z -1.0000
G01 X 34.7515 Y 2.2782 Z -1.0000
G03 X 34.7325 Y 2.2940 Z -1.0000 I -0.0709 J -0.0657
G01 X 34.7275 Y 2.2934 Z -1.0000
G01 X 34.7224 Y 2.2974 Z -1.0000
G01 X 34.7252 Y 2.3038 Z -1.0000
G01 X 34.7322 Y 2.3066 Z -1.0000
G01 X 34.7314 Y 2.3134 Z -1.0000
G01 X 34.7256 Y 2.3222 Z -1.0000
G02 X 34.7264 Y 2.3456 Z -1.0000 I 0.0635 J 0.0097
G01 X 34.7233 Y 2.3656 Z -1.0000
G01 X 34.7171 Y 2.3589 Z -1.0000
G01 X 34.7146 Y 2.3477 Z -1.0000
G01 X 34.7092 Y 2.3406 Z -1.0000
G01 X 34.7060 Y 2.3470 Z -1.0000
G02 X 34.7028 Y 2.3848 Z -1.0000 I 0.3326 J 0.0472
G03 X 34.6936 Y 2.4243 Z -1.0000 I -0.0998 J -0.0024
G01 X 34.6830 Y 2.4275 Z -1.0000
G01 X 34.6802 Y 2.4219 Z -1.0000
G01 X 34.6842 Y 2.4154 Z -1.0000
G01 X 34.6850 Y 2.4072 Z -1.0000
G01 X 34.6727 Y 2.4049 Z -1.0000
G01 X 34.6638 Y 2.4126 Z -1.0000
G01 X 34.6598 Y 2.4281 Z -1.0000
G03 X 34.6571 Y 2.4448 Z -1.0000 I -0.0523 J -0.0000
G01 X 34.6520 Y 2.4512 Z -1.0000
G01 X 34.6485 Y 2.4623 Z -1.0000
G01 X 34.6618 Y 2.4746 Z -1.0000
G01 X 34.6680 Y 2.4799 Z -1.0000
G01 X 34.6662 Y 2.4838 Z -1.0000
G01 X 34.6566 Y 2.4906 Z -1.0000
G02 X 34.6480 Y 2.5104 Z -1.0000 I 0.0459 J 0.0317
G03 X 34.6406 Y 2.5279 Z -1.0000 I -0.0513 J -0.0113
G01 X 34.6357 Y 2.5290 Z -1.0000
G01 X 34.6308 Y 2.5286 Z -1.0000
G01 X 34.6285 Y 2.5319 Z -1.0000
G01 X 34.6258 Y 2.5372 Z -1.0000
G01 X 34.6129 Y 2.5433 Z -1.0000
G01 X 34.5996 Y 2.5554 Z -1.0000
G01 X 34.6059 Y 2.5626 Z -1.0000
G01 X 34.6113 Y 2.5651 Z -1.0000
G03 X 34.6176 Y 2.5860 Z -1.0000 I -0.0570 J 0.0284
G01 X 34.6079 Y 2.6012 Z -1.0000
G01 X 34.5935 Y 2.5938 Z -1.0000
G01 X 34.5881 Y 2.5884 Z -1.0000
G01 X 34.5841 Y 2.5905 Z -1.0000
G01 X 34.5842 Y 2.6038 Z -1.0000
G01 X 34.5919 Y 2.6179 Z -1.0000
G03 X 34.6010 Y 2.6322 Z -1.0000 I -0.0427 J 0.0373
G03 X 34.6081 Y 2.6545 Z -1.0000 I -0.0963 J 0.0429
G01 X 34.6063 Y 2.6754 Z -1.0000
G01 X 34.5938 Y 2.6916 Z -1.0000
G01 X 34.5759 Y 2.6996 Z -1.0000
G01 X 34.5697 Y 2.6970 Z -1.0000
G01 X 34.5643 Y 2.6951 Z -1.0000
G01 X 34.5538 Y 2.7029 Z -1.0000
G01 X 34.5505 Y 2.7179 Z -1.0000
G01 X 34.5577 Y 2.7213 Z -1.0000
G03 X 34.5930 Y 2.7143 Z -1.0000 I 0.0290 J 0.0543
G01 X 34.5999 Y 2.7256 Z -1.0000
G01 X 34.5927 Y 2.7331 Z -1.0000
G01 X 34.5803 Y 2.7341 Z -1.0000
G01 X 34.5721 Y 2.7365 Z -1.0000
G01 X 34.5702 Y 2.7452 Z -1.0000
G01 X 34.5703 Y 2.7568 Z -1.0000
G01 X 34.5658 Y 2.7601 Z -1.0000
G01 X 34.5611 Y 2.7633 Z -1.0000
G01 X 34.5611 Y 2.7719 Z -1.0000
G01 X 34.5616 Y 2.7809 Z -1.0000
G01 X 34.5580 Y 2.7836 Z -1.0000
G01 X 34.5526 Y 2.7813 Z -1.0000
G01 X 34.5504 Y 2.7758 Z -1.0000
G01 X 34.5432 Y 2.7725 Z -1.0000
G01 X 34.5319 Y 2.7920 Z -1.0000
G03 X 34.5245 Y 2.8099 Z -1.0000 I -0.0497 J -0.0101
G01 X 34.5192 Y 2.8111 Z -1.0000
G01 X 34.5138 Y 2.8107 Z -1.0000
G01 X 34.5113 Y 2.8145 Z -1.0000
G01 X 34.5206 Y 2.8227 Z -1.0000
G01 X 34.5459 Y 2.8105 Z -1.0000
G01 X 34.5541 Y 2.8082 Z -1.0000
G01 X 34.5582 Y 2.8135 Z -1.0000
G01 X 34.5551 Y 2.8273 Z -1.0000
G01 X 34.5465 Y 2.8384 Z -1.0000
G01 X 34.5384 Y 2.8499 Z -1.0000
G02 X 34.5347 Y 2.8707 Z -1.0000 I 0.0572 J 0.0207
G03 X 34.5312 Y 2.8896 Z -1.0000 I -0.0527 J -0.0000
G01 X 34.5260 Y 2.8932 Z -1.0000
G01 X 34.5215 Y 2.8896 Z -1.0000
G03 X 34.5207 Y 2.8697 Z -1.0000 I 0.0538 J -0.0121
G01 X 34.5133 Y 2.8595 Z -1.0000
G01 X 34.4970 Y 2.8658 Z -1.0000
G03 X 34.4804 Y 2.8829 Z -1.0000 I -0.0941 J -0.0744
G01 X 34.4739 Y 2.8854 Z -1.0000
G01 X 34.4637 Y 2.8962 Z -1.0000
G01 X 34.4758 Y 2.9181 Z -1.0000
G01 X 34.4778 Y 2.9241 Z -1.0000
G01 X 34.4699 Y 2.9383 Z -1.0000
G01 X 34.4603 Y 2.9545 Z -1.0000
G02 X 34.4565 Y 2.9779 Z -1.0000 I 0.0696 J 0.0233
G03 X 34.4526 Y 2.9987 Z -1.0000 I -0.0573 J 0.0000
G01 X 34.4467 Y 3.0028 Z -1.0000
G01 X 34.4469 Y 3.0093 Z -1.0000
G01 X 34.4520 Y 3.0173 Z -1.0000
G01 X 34.4501 Y 3.0340 Z -1.0000
G01 X 34.4425 Y 3.0442 Z -1.0000
G01 X 34.4378 Y 3.0433 Z -1.0000
G01 X 34.4310 Y 3.0396 Z -1.0000
G01 X 34.4169 Y 3.0438 Z -1.0000
G01 X 34.4070 Y 3.0578 Z -1.0000
G01 X 34.4126 Y 3.0627 Z -1.0000
G01 X 34.4229 Y 3.0673 Z -1.0000
G01 X 34.4200 Y 3.0822 Z -1.0000
G01 X 34.4161 Y 3.0965 Z -1.0000
G01 X 34.4226 Y 3.0991 Z -1.0000
G01 X 34.4251 Y 3.1052 Z -1.0000
G01 X 34.4217 Y 3.1097 Z -1.0000
G01 X 34.4051 Y 3.1101 Z -1.0000
G01 X 34.3914 Y 3.1115 Z -1.0000
G01 X 34.3892 Y 3.1168 Z -1.0000
G01 X 34.3888 Y 3.1258 Z -1.0000
G01 X 34.3810 Y 3.1342 Z -1.0000
G01 X 34.3775 Y 3.1404 Z -1.0000
G01 X 34.3816 Y 3.1460 Z -1.0000
G01 X 34.3867 Y 3.1534 Z -1.0000
G01 X 34.3815 Y 3.1706 Z -1.0000
G01 X 34.3747 Y 3.1870 Z -1.0000
G01 X 34.3773 Y 3.1903 Z -1.0000
G01 X 34.3835 Y 3.1928 Z -1.0000
G01 X 34.3860 Y 3.1986 Z -1.0000
G01 X 34.3835 Y 3.2023 Z -1.0000
G01 X 34.3778 Y 3.2018 Z -1.0000
G01 X 34.3350 Y 3.2063 Z -1.0000
G01 X 34.3347 Y 3.2432 Z -1.0000
G01 X 34.3402 Y 3.2438 Z -1.0000
G02 X 34.3560 Y 3.2298 Z -1.0000 I -0.0352 J -0.0554
G01 X 34.3709 Y 3.2193 Z -1.0000
G01 X 34.3784 Y 3.2219 Z -1.0000
G01 X 34.3788 Y 3.2309 Z -1.0000
G01 X 34.3700 Y 3.2388 Z -1.0000
G01 X 34.3592 Y 3.2476 Z -1.0000
G01 X 34.3547 Y 3.2627 Z -1.0000
G03 X 34.3518 Y 3.2798 Z -1.0000 I -0.0519 J -0.0000
G01 X 34.3449 Y 3.2908 Z -1.0000
G01 X 34.3424 Y 3.2997 Z -1.0000
G01 X 34.3488 Y 3.3084 Z -1.0000
G01 X 34.3556 Y 3.3223 Z -1.0000
G01 X 34.3449 Y 3.3352 Z -1.0000
G01 X 34.3058 Y 3.3537 Z -1.0000
G01 X 34.3125 Y 3.3574 Z -1.0000
G01 X 34.3156 Y 3.3667 Z -1.0000
G01 X 34.3125 Y 3.3731 Z -1.0000
G01 X 34.3069 Y 3.3735 Z -1.0000
G01 X 34.3035 Y 3.3867 Z -1.0000
G01 X 34.3003 Y 3.3935 Z -1.0000
G01 X 34.2915 Y 3.3904 Z -1.0000
G01 X 34.2763 Y 3.4002 Z -1.0000
G02 X 34.2640 Y 3.4196 Z -1.0000 I 0.0680 J 0.0570
G01 X 34.2618 Y 3.4315 Z -1.0000
G01 X 34.2663 Y 3.4306 Z -1.0000
G01 X 34.2718 Y 3.4196 Z -1.0000
G01 X 34.2773 Y 3.4169 Z -1.0000
G01 X 34.2887 Y 3.4273 Z -1.0000
G01 X 34.2808 Y 3.4582 Z -1.0000
G02 X 34.2722 Y 3.4777 Z -1.0000 I 0.0542 J 0.0356
G01 X 34.2728 Y 3.4891 Z -1.0000
G01 X 34.2725 Y 3.4987 Z -1.0000
G01 X 34.2648 Y 3.5057 Z -1.0000
G01 X 34.2570 Y 3.5028 Z -1.0000
G01 X 34.2574 Y 3.4976 Z -1.0000
G01 X 34.2535 Y 3.4951 Z -1.0000
G01 X 34.2478 Y 3.4977 Z -1.0000
G01 X 34.2452 Y 3.5042 Z -1.0000
G01 X 34.2401 Y 3.5082 Z -1.0000
G01 X 34.2358 Y 3.5082 Z -1.0000
G02 X 34.2245 Y 3.5235 Z -1.0000 I 0.0428 J 0.0437
G01 X 34.2203 Y 3.5440 Z -1.0000
G01 X 34.2266 Y 3.5498 Z -1.0000
G01 X 34.2314 Y 3.5535 Z -1.0000
G01 X 34.2297 Y 3.5614 Z -1.0000
G01 X 34.2190 Y 3.5674 Z -1.0000
G01 X 34.2055 Y 3.5651 Z -1.0000
G01 X 34.1965 Y 3.5637 Z -1.0000
G01 X 34.1945 Y 3.5672 Z -1.0000
G03 X 34.1957 Y 3.6064 Z -1.0000 I -0.0570 J 0.0213
G01 X 34.1764 Y 3.6262 Z -1.0000
G01 X 34.1620 Y 3.6157 Z -1.0000
G01 X 34.1768 Y 3.5940 Z -1.0000
G01 X 34.1748 Y 3.5897 Z -1.0000
G01 X 34.1648 Y 3.5932 Z -1.0000
G02 X 34.1414 Y 3.6180 Z -1.0000 I 0.1011 J 0.1194
G02 X 34.1283 Y 3.6459 Z -1.0000 I 0.0583 J 0.0442
G01 X 34.1321 Y 3.6588 Z -1.0000
G01 X 34.1439 Y 3.6633 Z -1.0000
G01 X 34.1542 Y 3.6578 Z -1.0000
G01 X 34.1650 Y 3.6503 Z -1.0000
G01 X 34.1752 Y 3.6516 Z -1.0000
G01 X 34.1783 Y 3.6589 Z -1.0000
G01 X 34.1715 Y 3.6695 Z -1.0000
G01 X 34.1559 Y 3.6768 Z -1.0000
G01 X 34.1423 Y 3.6767 Z -1.0000
G01 X 34.1309 Y 3.6787 Z -1.0000
G01 X 34.1207 Y 3.6915 Z -1.0000
G01 X 34.1128 Y 3.7032 Z -1.0000
G01 X 34.1006 Y 3.6980 Z -1.0000
G01 X 34.0888 Y 3.7232 Z -1.0000
G01 X 34.0917 Y 3.7267 Z -1.0000
G01 X 34.1040 Y 3.7258 Z -1.0000
G01 X 34.0962 Y 3.7456 Z -1.0000
G02 X 34.0781 Y 3.7708 Z -1.0000 I 0.0889 J 0.0831
G01 X 34.0784 Y 3.7786 Z -1.0000
G01 X 34.0699 Y 3.7817 Z -1.0000
G02 X 34.0561 Y 3.7770 Z -1.0000 I -0.0700 J 0.1810
G01 X 34.0529 Y 3.7765 Z -1.0000
G01 X 34.0496 Y 3.7682 Z -1.0000
G01 X 34.0521 Y 3.7644 Z -1.0000
G01 X 34.0574 Y 3.7648 Z -1.0000
G01 X 34.0628 Y 3.7653 Z -1.0000
G01 X 34.0652 Y 3.7618 Z -1.0000
G01 X 34.0622 Y 3.7573 Z -1.0000
G01 X 34.0496 Y 3.7552 Z -1.0000
G01 X 34.0373 Y 3.7594 Z -1.0000
G01 X 34.0340 Y 3.7656 Z -1.0000
G01 X 34.0313 Y 3.7731 Z -1.0000
G01 X 34.0232 Y 3.7790 Z -1.0000
G01 X 34.0152 Y 3.7855 Z -1.0000
G02 X 34.0073 Y 3.8041 Z -1.0000 I 0.0530 J 0.0339
G03 X 33.9990 Y 3.8234 Z -1.0000 I -0.0662 J -0.0166
G03 X 33.9789 Y 3.8497 Z -1.0000 I -0.1425 J -0.0885
G02 X 33.9621 Y 3.8878 Z -1.0000 I 0.0458 J 0.0429
G01 X 33.9740 Y 3.9148 Z -1.0000
G03 X 33.9880 Y 3.9304 Z -1.0000 I -0.0378 J 0.0480
G01 X 33.9890 Y 3.9389 Z -1.0000
G01 X 33.9792 Y 3.9438 Z -1.0000
G01 X 33.9714 Y 3.9330 Z -1.0000
G01 X 33.9682 Y 3.9206 Z -1.0000
G01 X 33.9627 Y 3.9173 Z -1.0000
G01 X 33.9584 Y 3.9204 Z -1.0000
G01 X 33.9585 Y 3.9291 Z -1.0000
G01 X 33.9593 Y 3.9382 Z -1.0000
G01 X 33.9560 Y 3.9408 Z -1.0000
G01 X 33.9372 Y 3.9257 Z -1.0000
G03 X 33.9438 Y 3.8862 Z -1.0000 I 0.0517 J -0.0116
G01 X 33.9439 Y 3.8810 Z -1.0000
G01 X 33.9391 Y 3.8782 Z -1.0000
G01 X 33.9450 Y 3.8606 Z -1.0000
G02 X 33.9809 Y 3.8068 Z -1.0000 I -0.1781 J -0.1575
G01 X 33.9826 Y 3.7831 Z -1.0000
G01 X 33.9861 Y 3.7721 Z -1.0000
G01 X 33.9915 Y 3.7717 Z -1.0000
G01 X 33.9948 Y 3.7646 Z -1.0000
G01 X 33.9850 Y 3.7589 Z -1.0000
G01 X 33.9725 Y 3.7772 Z -1.0000
G01 X 33.9661 Y 3.7942 Z -1.0000
G03 X 33.9471 Y 3.8164 Z -1.0000 I -0.0925 J -0.0600
G02 X 33.9278 Y 3.8381 Z -1.0000 I 0.0821 J 0.0919
G01 X 33.9244 Y 3.8491 Z -1.0000
G01 X 33.9221 Y 3.8604 Z -1.0000
G01 X 33.9172 Y 3.8661 Z -1.0000
G01 X 33.9120 Y 3.8721 Z -1.0000
G02 X 33.9049 Y 3.8939 Z -1.0000 I 0.1067 J 0.0471
G01 X 33.8936 Y 3.9060 Z -1.0000
G01 X 33.8851 Y 3.8997 Z -1.0000
G01 X 33.8807 Y 3.8947 Z -1.0000
G01 X 33.8730 Y 3.8977 Z -1.0000
G02 X 33.8530 Y 3.9382 Z -1.0000 I 0.0967 J 0.0731
G01 X 33.8572 Y 3.9543 Z -1.0000
G01 X 33.8619 Y 3.9547 Z -1.0000
G02 X 33.8743 Y 3.9421 Z -1.0000 I -0.0304 J -0.0425
G01 X 33.8873 Y 3.9294 Z -1.0000
G01 X 33.8937 Y 3.9294 Z -1.0000
G01 X 33.8987 Y 3.9298 Z -1.0000
G01 X 33.9010 Y 3.9265 Z -1.0000
G01 X 33.9037 Y 3.9211 Z -1.0000
G01 X 33.9166 Y 3.9150 Z -1.0000
G01 X 33.9259 Y 3.9239 Z -1.0000
G01 X 33.9108 Y 3.9414 Z -1.0000
G02 X 33.8908 Y 3.9517 Z -1.0000 I 0.0369 J 0.0964
G02 X 33.8748 Y 3.9652 Z -1.0000 I 0.0487 J 0.0739
G01 X 33.8599 Y 3.9728 Z -1.0000
G01 X 33.8468 Y 3.9686 Z -1.0000
G02 X 33.8171 Y 3.9552 Z -1.0000 I -0.0355 J 0.0392
G01 X 33.8071 Y 3.9642 Z -1.0000
G01 X 33.8100 Y 3.9691 Z -1.0000
G01 X 33.8218 Y 3.9720 Z -1.0000
G01 X 33.8328 Y 3.9765 Z -1.0000
G01 X 33.8400 Y 3.9899 Z -1.0000
G01 X 33.8376 Y 4.0030 Z -1.0000
G01 X 33.8292 Y 4.0077 Z -1.0000
G01 X 33.8195 Y 4.0040 Z -1.0000
G01 X 33.8169 Y 3.9965 Z -1.0000
G01 X 33.8078 Y 3.9866 Z -1.0000
G01 X 33.7917 Y 3.9987 Z -1.0000
G03 X 33.7818 Y 4.0158 Z -1.0000 I -0.0569 J -0.0215
G01 X 33.7752 Y 4.0189 Z -1.0000
G01 X 33.7708 Y 4.0158 Z -1.0000
G01 X 33.7710 Y 4.0068 Z -1.0000
G01 X 33.7685 Y 3.9991 Z -1.0000
G01 X 33.7621 Y 3.9998 Z -1.0000
G01 X 33.7558 Y 3.9948 Z -1.0000
G01 X 33.7504 Y 3.9922 Z -1.0000
G01 X 33.7440 Y 3.9964 Z -1.0000
G01 X 33.7418 Y 4.0064 Z -1.0000
G01 X 33.7466 Y 4.0175 Z -1.0000
G01 X 33.7488 Y 4.0270 Z -1.0000
G01 X 33.7422 Y 4.0358 Z -1.0000
G01 X 33.7328 Y 4.0455 Z -1.0000
G01 X 33.7289 Y 4.0616 Z -1.0000
G01 X 33.7250 Y 4.0772 Z -1.0000
G01 X 33.7167 Y 4.0846 Z -1.0000
G01 X 33.7090 Y 4.0908 Z -1.0000
G01 X 33.7090 Y 4.0966 Z -1.0000
G01 X 33.7099 Y 4.1030 Z -1.0000
G01 X 33.7056 Y 4.1089 Z -1.0000
G01 X 33.6986 Y 4.1044 Z -1.0000
G03 X 33.7098 Y 4.0755 Z -1.0000 I 0.0637 J 0.0080
G01 X 33.7148 Y 4.0618 Z -1.0000
G01 X 33.7114 Y 4.0581 Z -1.0000
G01 X 33.7017 Y 4.0603 Z -1.0000
G01 X 33.6904 Y 4.0679 Z -1.0000
G01 X 33.6887 Y 4.0608 Z -1.0000
G03 X 33.6990 Y 4.0457 Z -1.0000 I 0.0689 J 0.0356
G01 X 33.7058 Y 4.0411 Z -1.0000
G01 X 33.7074 Y 4.0369 Z -1.0000
G02 X 33.6930 Y 4.0189 Z -1.0000 I -0.0661 J 0.0382
G01 X 33.6795 Y 4.0125 Z -1.0000
G01 X 33.6760 Y 4.0164 Z -1.0000
G01 X 33.6744 Y 4.0299 Z -1.0000
G01 X 33.6655 Y 4.0372 Z -1.0000
G01 X 33.6569 Y 4.0449 Z -1.0000
G01 X 33.6553 Y 4.0637 Z -1.0000
G01 X 33.6549 Y 4.0846 Z -1.0000
G01 X 33.6474 Y 4.0967 Z -1.0000
G01 X 33.6417 Y 4.0948 Z -1.0000
G01 X 33.6426 Y 4.0782 Z -1.0000
G01 X 33.6345 Y 4.0709 Z -1.0000
G01 X 33.6145 Y 4.0925 Z -1.0000
G03 X 33.5987 Y 4.1148 Z -1.0000 I -0.0568 J -0.0235
G01 X 33.5905 Y 4.1140 Z -1.0000
G01 X 33.5805 Y 4.1119 Z -1.0000
G01 X 33.5761 Y 4.1174 Z -1.0000
G01 X 33.5571 Y 4.1180 Z -1.0000
G02 X 33.5356 Y 4.1171 Z -1.0000 I -0.0136 J 0.0692
G01 X 33.5291 Y 4.1213 Z -1.0000
G01 X 33.5228 Y 4.1254 Z -1.0000
G01 X 33.5092 Y 4.1244 Z -1.0000
G01 X 33.4978 Y 4.1247 Z -1.0000
G01 X 33.4941 Y 4.1299 Z -1.0000
G01 X 33.4874 Y 4.1298 Z -1.0000
G01 X 33.4825 Y 4.1295 Z -1.0000
G01 X 33.4748 Y 4.1454 Z -1.0000
G01 X 33.4687 Y 4.1715 Z -1.0000
G01 X 33.4635 Y 4.1480 Z -1.0000
G03 X 33.4625 Y 4.1253 Z -1.0000 I 0.0631 J -0.0141
G01 X 33.4690 Y 4.1075 Z -1.0000
G01 X 33.4742 Y 4.0902 Z -1.0000
G01 X 33.4698 Y 4.0723 Z -1.0000
G01 X 33.4599 Y 4.0542 Z -1.0000
G01 X 33.4546 Y 4.0776 Z -1.0000
G03 X 33.4478 Y 4.1005 Z -1.0000 I -0.1664 J -0.0374
G03 X 33.4376 Y 4.1227 Z -1.0000 I -0.1705 J -0.0644
G01 X 33.4251 Y 4.1357 Z -1.0000
G01 X 33.4176 Y 4.1343 Z -1.0000
G01 X 33.4152 Y 4.1242 Z -1.0000
G01 X 33.4242 Y 4.1049 Z -1.0000
G02 X 33.4376 Y 4.0748 Z -1.0000 I -0.0555 J -0.0427
G01 X 33.4320 Y 4.0622 Z -1.0000
G01 X 33.4260 Y 4.0630 Z -1.0000
G02 X 33.4089 Y 4.0872 Z -1.0000 I 0.0829 J 0.0770
G01 X 33.3929 Y 4.1070 Z -1.0000
G01 X 33.3896 Y 4.1003 Z -1.0000
G01 X 33.3809 Y 4.0972 Z -1.0000
G01 X 33.3718 Y 4.0944 Z -1.0000
G01 X 33.3691 Y 4.0894 Z -1.0000
G01 X 33.3716 Y 4.0840 Z -1.0000
G01 X 33.3782 Y 4.0816 Z -1.0000
G01 X 33.3821 Y 4.0764 Z -1.0000
G01 X 33.3808 Y 4.0710 Z -1.0000
G01 X 33.3876 Y 4.0588 Z -1.0000
G02 X 33.3964 Y 4.0454 Z -1.0000 I -0.0440 J -0.0382
G02 X 33.4027 Y 4.0269 Z -1.0000 I -0.0793 J -0.0373
G03 X 33.4255 Y 3.9517 Z -1.0000 I 0.4762 J 0.1039
G01 X 33.4319 Y 3.9526 Z -1.0000
G01 X 33.4391 Y 3.9448 Z -1.0000
G02 X 33.4430 Y 3.9293 Z -1.0000 I -0.0542 J -0.0220
G01 X 33.4417 Y 3.9228 Z -1.0000
G01 X 33.4192 Y 3.9215 Z -1.0000
G02 X 33.4004 Y 3.9776 Z -1.0000 I 0.0746 J 0.0561
G01 X 33.3972 Y 3.9845 Z -1.0000
G01 X 33.3885 Y 3.9878 Z -1.0000
G01 X 33.3822 Y 3.9835 Z -1.0000
G01 X 33.3812 Y 3.9694 Z -1.0000
G01 X 33.3812 Y 3.9522 Z -1.0000
G01 X 33.3730 Y 3.9381 Z -1.0000
G01 X 33.3682 Y 3.9247 Z -1.0000
G01 X 33.3762 Y 3.9048 Z -1.0000
G02 X 33.3881 Y 3.8840 Z -1.0000 I -0.0623 J -0.0493
G01 X 33.3873 Y 3.8762 Z -1.0000
G01 X 33.3913 Y 3.8737 Z -1.0000
G01 X 33.4012 Y 3.8907 Z -1.0000
G01 X 33.3926 Y 3.9159 Z -1.0000
G01 X 33.4063 Y 3.9049 Z -1.0000
G02 X 33.4201 Y 3.8859 Z -1.0000 I -0.0455 J -0.0476
G01 X 33.4180 Y 3.8807 Z -1.0000
G01 X 33.4110 Y 3.8750 Z -1.0000
G01 X 33.4082 Y 3.8655 Z -1.0000
G01 X 33.4111 Y 3.8592 Z -1.0000
G01 X 33.4160 Y 3.8588 Z -1.0000
G01 X 33.4214 Y 3.8594 Z -1.0000
G01 X 33.4238 Y 3.8560 Z -1.0000
G01 X 33.4216 Y 3.8499 Z -1.0000
G01 X 33.4147 Y 3.8453 Z -1.0000
G01 X 33.4121 Y 3.8400 Z -1.0000
G03 X 33.4264 Y 3.8116 Z -1.0000 I 0.1155 J 0.0403
G02 X 33.4452 Y 3.7802 Z -1.0000 I -0.2622 J -0.1781
G01 X 33.4473 Y 3.7716 Z -1.0000
G01 X 33.4498 Y 3.7640 Z -1.0000
G01 X 33.4571 Y 3.7584 Z -1.0000
G01 X 33.4532 Y 3.7538 Z -1.0000
G01 X 33.4447 Y 3.7456 Z -1.0000
G01 X 33.4517 Y 3.7345 Z -1.0000
G01 X 33.4603 Y 3.7284 Z -1.0000
G01 X 33.4608 Y 3.7239 Z -1.0000
G01 X 33.4656 Y 3.6976 Z -1.0000
G01 X 33.4916 Y 3.6971 Z -1.0000
G01 X 33.4926 Y 3.6955 Z -1.0000
G01 X 33.4915 Y 3.6886 Z -1.0000
G03 X 33.5063 Y 3.6605 Z -1.0000 I 0.1295 J 0.0501
G02 X 33.5227 Y 3.6314 Z -1.0000 I -0.1619 J -0.1100
G01 X 33.5255 Y 3.6182 Z -1.0000
G01 X 33.5287 Y 3.6063 Z -1.0000
G01 X 33.5361 Y 3.6000 Z -1.0000
G01 X 33.5421 Y 3.5935 Z -1.0000
G01 X 33.5429 Y 3.5762 Z -1.0000
G01 X 33.5439 Y 3.5576 Z -1.0000
G03 X 33.5558 Y 3.5339 Z -1.0000 I 0.0740 J 0.0224
G02 X 33.5707 Y 3.5108 Z -1.0000 I -0.1697 J -0.1259
G01 X 33.5724 Y 3.5041 Z -1.0000
G01 X 33.5748 Y 3.4984 Z -1.0000
G01 X 33.5842 Y 3.4923 Z -1.0000
G01 X 33.5919 Y 3.4851 Z -1.0000
G01 X 33.5950 Y 3.4700 Z -1.0000
G01 X 33.5905 Y 3.4658 Z -1.0000
G01 X 33.5850 Y 3.4769 Z -1.0000
G01 X 33.5797 Y 3.4794 Z -1.0000
G01 X 33.5747 Y 3.4738 Z -1.0000
G01 X 33.5833 Y 3.4519 Z -1.0000
G02 X 33.5930 Y 3.4360 Z -1.0000 I -0.1426 J -0.0990
G01 X 33.5948 Y 3.4305 Z -1.0000
G01 X 33.5964 Y 3.4247 Z -1.0000
G03 X 33.6072 Y 3.4022 Z -1.0000 I 0.3650 J 0.1599
G02 X 33.6154 Y 3.3803 Z -1.0000 I -0.0867 J -0.0451
G01 X 33.6139 Y 3.3749 Z -1.0000
G01 X 33.6264 Y 3.3700 Z -1.0000
G01 X 33.6373 Y 3.3736 Z -1.0000
G01 X 33.6383 Y 3.3788 Z -1.0000
G01 X 33.6388 Y 3.3829 Z -1.0000
G01 X 33.6437 Y 3.3840 Z -1.0000
G01 X 33.6519 Y 3.3780 Z -1.0000
G01 X 33.6573 Y 3.3654 Z -1.0000
G01 X 33.6621 Y 3.3514 Z -1.0000
G03 X 33.6722 Y 3.3367 Z -1.0000 I 0.0636 J 0.0330
G01 X 33.6766 Y 3.3230 Z -1.0000
G01 X 33.6706 Y 3.3257 Z -1.0000
G02 X 33.6584 Y 3.3427 Z -1.0000 I 0.0603 J 0.0560
G01 X 33.6467 Y 3.3549 Z -1.0000
G01 X 33.6395 Y 3.3540 Z -1.0000
G01 X 33.6385 Y 3.3458 Z -1.0000
G03 X 33.6606 Y 3.3192 Z -1.0000 I 0.1004 J 0.0612
G02 X 33.6862 Y 3.2917 Z -1.0000 I -0.1328 J -0.1489
G01 X 33.6880 Y 3.2835 Z -1.0000
G01 X 33.6891 Y 3.2759 Z -1.0000
G01 X 33.6956 Y 3.2706 Z -1.0000
G01 X 33.7020 Y 3.2718 Z -1.0000
G01 X 33.7054 Y 3.2794 Z -1.0000
G01 X 33.7131 Y 3.2885 Z -1.0000
G01 X 33.7257 Y 3.2828 Z -1.0000
G01 X 33.7264 Y 3.2747 Z -1.0000
G01 X 33.7189 Y 3.2647 Z -1.0000
G01 X 33.7161 Y 3.2512 Z -1.0000
G01 X 33.7386 Y 3.2312 Z -1.0000
G02 X 33.7561 Y 3.2191 Z -1.0000 I -0.0227 J -0.0517
G01 X 33.7601 Y 3.2094 Z -1.0000
G01 X 33.7571 Y 3.2024 Z -1.0000
G01 X 33.7523 Y 3.2019 Z -1.0000
G01 X 33.7470 Y 3.2023 Z -1.0000
G01 X 33.7445 Y 3.1985 Z -1.0000
G01 X 33.7468 Y 3.1925 Z -1.0000
G01 X 33.7521 Y 3.1902 Z -1.0000
G01 X 33.7763 Y 3.1776 Z -1.0000
G02 X 33.8249 Y 3.0863 Z -1.0000 I -0.3461 J -0.2428
G01 X 33.8248 Y 3.0765 Z -1.0000
G01 X 33.8193 Y 3.0729 Z -1.0000
G01 X 33.8149 Y 3.0688 Z -1.0000
G01 X 33.8176 Y 3.0534 Z -1.0000
G01 X 33.8307 Y 3.0441 Z -1.0000
G01 X 33.8389 Y 3.0514 Z -1.0000
G01 X 33.8420 Y 3.0553 Z -1.0000
G01 X 33.8458 Y 3.0534 Z -1.0000
G01 X 33.8485 Y 3.0383 Z -1.0000
G01 X 33.8451 Y 3.0289 Z -1.0000
G01 X 33.8422 Y 3.0195 Z -1.0000
G03 X 33.8472 Y 2.9977 Z -1.0000 I 0.0702 J 0.0046
G01 X 33.8563 Y 2.9752 Z -1.0000
G01 X 33.8615 Y 2.9947 Z -1.0000
G01 X 33.8667 Y 3.0143 Z -1.0000
G01 X 33.8768 Y 2.9957 Z -1.0000
G01 X 33.8813 Y 2.9786 Z -1.0000
G01 X 33.8772 Y 2.9711 Z -1.0000
G01 X 33.8716 Y 2.9636 Z -1.0000
G01 X 33.8722 Y 2.9525 Z -1.0000
G01 X 33.8841 Y 2.9449 Z -1.0000
G01 X 33.8900 Y 2.9537 Z -1.0000
G01 X 33.9015 Y 2.9482 Z -1.0000
G01 X 33.9089 Y 2.9301 Z -1.0000
G01 X 33.9035 Y 2.9186 Z -1.0000
G01 X 33.8957 Y 2.9083 Z -1.0000
G01 X 33.8976 Y 2.9026 Z -1.0000
G01 X 33.9045 Y 2.8958 Z -1.0000
G02 X 33.9112 Y 2.8829 Z -1.0000 I -0.0481 J -0.0332
G01 X 33.9182 Y 2.8737 Z -1.0000
G01 X 33.9242 Y 2.8735 Z -1.0000
G01 X 33.9276 Y 2.8669 Z -1.0000
G01 X 33.9286 Y 2.8581 Z -1.0000
G01 X 33.9389 Y 2.8505 Z -1.0000
G01 X 33.9508 Y 2.8420 Z -1.0000
G01 X 33.9594 Y 2.8232 Z -1.0000
G03 X 33.9672 Y 2.8026 Z -1.0000 I 0.0753 J 0.0166
G03 X 33.9791 Y 2.7876 Z -1.0000 I 0.0509 J 0.0281
G02 X 33.9909 Y 2.7726 Z -1.0000 I -0.0382 J -0.0424
G02 X 33.9988 Y 2.7516 Z -1.0000 I -0.0694 J -0.0380
G03 X 34.0061 Y 2.7318 Z -1.0000 I 0.0734 J 0.0159
G01 X 34.0110 Y 2.7289 Z -1.0000
G01 X 34.0156 Y 2.7263 Z -1.0000
G01 X 34.0182 Y 2.7168 Z -1.0000
G01 X 34.0210 Y 2.7059 Z -1.0000
G03 X 34.0338 Y 2.6880 Z -1.0000 I 0.0755 J 0.0407
G02 X 34.0470 Y 2.6703 Z -1.0000 I -0.0709 J -0.0663
G01 X 34.0495 Y 2.6610 Z -1.0000
G01 X 34.0520 Y 2.6532 Z -1.0000
G01 X 34.0570 Y 2.6507 Z -1.0000
G01 X 34.0618 Y 2.6476 Z -1.0000
G02 X 34.0695 Y 2.6239 Z -1.0000 I -0.0916 J -0.0425
G03 X 34.0778 Y 2.5997 Z -1.0000 I 0.0872 J 0.0165
G01 X 34.0855 Y 2.5928 Z -1.0000
G01 X 34.0928 Y 2.5862 Z -1.0000
G01 X 34.0966 Y 2.5708 Z -1.0000
G01 X 34.1000 Y 2.5541 Z -1.0000
G03 X 34.1121 Y 2.5334 Z -1.0000 I 0.0828 J 0.0344
G02 X 34.1253 Y 2.5131 Z -1.0000 I -0.1109 J -0.0866
G01 X 34.1275 Y 2.5044 Z -1.0000
G03 X 34.1376 Y 2.4646 Z -1.0000 I 0.0905 J 0.0017
G01 X 34.1530 Y 2.4552 Z -1.0000
G01 X 34.1737 Y 2.4465 Z -1.0000
G01 X 34.1825 Y 2.4251 Z -1.0000
G01 X 34.1846 Y 2.4188 Z -1.0000
G01 X 34.1923 Y 2.4128 Z -1.0000
G01 X 34.1952 Y 2.4083 Z -1.0000
G01 X 34.1923 Y 2.4037 Z -1.0000
G01 X 34.1859 Y 2.3925 Z -1.0000
G01 X 34.1940 Y 2.3876 Z -1.0000
G01 X 34.2043 Y 2.3885 Z -1.0000
G01 X 34.2101 Y 2.3845 Z -1.0000
G01 X 34.2100 Y 2.3793 Z -1.0000
G01 X 34.2045 Y 2.3760 Z -1.0000
G03 X 34.1943 Y 2.3750 Z -1.0000 I 0.5573 J -5.6843
G03 X 34.1766 Y 2.3732 Z -1.0000 I 0.5144 J -5.1520
G01 X 34.1638 Y 2.3766 Z -1.0000
G01 X 34.1590 Y 2.3859 Z -1.0000
G01 X 34.1554 Y 2.3968 Z -1.0000
G01 X 34.1481 Y 2.4005 Z -1.0000
G01 X 34.1402 Y 2.4043 Z -1.0000
G01 X 34.1324 Y 2.4200 Z -1.0000
G03 X 34.1250 Y 2.4365 Z -1.0000 I -0.0512 J -0.0129
G01 X 34.1193 Y 2.4396 Z -1.0000
G01 X 34.1154 Y 2.4372 Z -1.0000
G01 X 34.1156 Y 2.4324 Z -1.0000
G01 X 34.1158 Y 2.4268 Z -1.0000
G01 X 34.1102 Y 2.4219 Z -1.0000
G01 X 34.1065 Y 2.4169 Z -1.0000
G01 X 34.1098 Y 2.4072 Z -1.0000
G01 X 34.1085 Y 2.4016 Z -1.0000
G01 X 34.0922 Y 2.3990 Z -1.0000
G01 X 34.0756 Y 2.3908 Z -1.0000
G01 X 34.0765 Y 2.3726 Z -1.0000
G01 X 34.0838 Y 2.3567 Z -1.0000
G01 X 34.0837 Y 2.3407 Z -1.0000
G01 X 34.0831 Y 2.3254 Z -1.0000
G01 X 34.0872 Y 2.3193 Z -1.0000
G01 X 34.1074 Y 2.3297 Z -1.0000
G03 X 34.0908 Y 2.3738 Z -1.0000 I -0.0570 J 0.0038
G01 X 34.0922 Y 2.3785 Z -1.0000
G01 X 34.1049 Y 2.3767 Z -1.0000
G01 X 34.1143 Y 2.3660 Z -1.0000
G01 X 34.1153 Y 2.3494 Z -1.0000
G01 X 34.1162 Y 2.3332 Z -1.0000
G01 X 34.1243 Y 2.3249 Z -1.0000
G01 X 34.1271 Y 2.3197 Z -1.0000
G01 X 34.1217 Y 2.3136 Z -1.0000
G02 X 34.1050 Y 2.3103 Z -1.0000 I -0.0188 J 0.0513
G02 X 34.0778 Y 2.3120 Z -1.0000 I -0.0053 J 0.1338
G01 X 34.0615 Y 2.3200 Z -1.0000
G01 X 34.0614 Y 2.3274 Z -1.0000
G01 X 34.0679 Y 2.3493 Z -1.0000
G01 X 34.0520 Y 2.3717 Z -1.0000
G01 X 34.0461 Y 2.3792 Z -1.0000
G01 X 34.0470 Y 2.3873 Z -1.0000
G01 X 34.0381 Y 2.3849 Z -1.0000
G01 X 34.0327 Y 2.3754 Z -1.0000
G01 X 34.0359 Y 2.3708 Z -1.0000
G01 X 34.0534 Y 2.3545 Z -1.0000
G01 X 34.0460 Y 2.3334 Z -1.0000
G01 X 34.0360 Y 2.3235 Z -1.0000
G01 X 34.0339 Y 2.3172 Z -1.0000
G01 X 34.0307 Y 2.3135 Z -1.0000
G02 X 34.0065 Y 2.3131 Z -1.0000 I -0.0135 J 0.0887
G03 X 33.9832 Y 2.3118 Z -1.0000 I -0.0078 J -0.0679
G01 X 33.9791 Y 2.3067 Z -1.0000
G01 X 33.9762 Y 2.3034 Z -1.0000
G01 X 33.9690 Y 2.3055 Z -1.0000
G01 X 33.9580 Y 2.3103 Z -1.0000
G01 X 33.9413 Y 2.3094 Z -1.0000
G01 X 33.9376 Y 2.3033 Z -1.0000
G01 X 33.9448 Y 2.2939 Z -1.0000
G03 X 33.9654 Y 2.2859 Z -1.0000 I 0.0485 J 0.0933
G01 X 33.9698 Y 2.2870 Z -1.0000
G01 X 33.9847 Y 2.2877 Z -1.0000
G01 X 33.9948 Y 2.2661 Z -1.0000
G01 X 33.9916 Y 2.2626 Z -1.0000
G02 X 33.9703 Y 2.2640 Z -1.0000 I -0.0061 J 0.0703
G01 X 33.9500 Y 2.2627 Z -1.0000
G01 X 33.8806 Y 2.2565 Z -1.0000
G03 X 33.8100 Y 2.2540 Z -1.0000 I -0.0055 J -0.8476
G01 X 33.8071 Y 2.2509 Z -1.0000
G01 X 33.8047 Y 2.2483 Z -1.0000
G01 X 33.7946 Y 2.2496 Z -1.0000
G01 X 33.7834 Y 2.2504 Z -1.0000
G01 X 33.7765 Y 2.2455 Z -1.0000
G01 X 33.7582 Y 2.2341 Z -1.0000
G02 X 33.7191 Y 2.2402 Z -1.0000 I -0.0074 J 0.0806
G01 X 33.7084 Y 2.2415 Z -1.0000
G01 X 33.7054 Y 2.2380 Z -1.0000
G01 X 33.7077 Y 2.2316 Z -1.0000
G01 X 33.7152 Y 2.2261 Z -1.0000
G01 X 33.7118 Y 2.2215 Z -1.0000
G01 X 33.7000 Y 2.2235 Z -1.0000
G01 X 33.6938 Y 2.2287 Z -1.0000
G01 X 33.6876 Y 2.2341 Z -1.0000
G01 X 33.6767 Y 2.2365 Z -1.0000
G01 X 33.6722 Y 2.2328 Z -1.0000
G01 X 33.6742 Y 2.2247 Z -1.0000
G01 X 33.6771 Y 2.2121 Z -1.0000
G02 X 33.6481 Y 2.2142 Z -1.0000 I -0.0094 J 0.0719
G02 X 33.6253 Y 2.2267 Z -1.0000 I 0.0155 J 0.0553
G01 X 33.6116 Y 2.2347 Z -1.0000
G01 X 33.6060 Y 2.2334 Z -1.0000
G01 X 33.6048 Y 2.2283 Z -1.0000
G01 X 33.6102 Y 2.2218 Z -1.0000
G01 X 33.6104 Y 2.2170 Z -1.0000
G02 X 33.5906 Y 2.2068 Z -1.0000 I -0.0377 J 0.0488
G02 X 33.5622 Y 2.2036 Z -1.0000 I -0.0228 J 0.0740
G01 X 33.5423 Y 2.2103 Z -1.0000
G01 X 33.5303 Y 2.2140 Z -1.0000
G01 X 33.5279 Y 2.2106 Z -1.0000
G01 X 33.5245 Y 2.2041 Z -1.0000
G02 X 33.4819 Y 2.1998 Z -1.0000 I -0.0380 J 0.1623
G03 X 33.4337 Y 2.1966 Z -1.0000 I -0.0072 J -0.2582
G01 X 33.4247 Y 2.1906 Z -1.0000
G01 X 33.4182 Y 2.1860 Z -1.0000
G01 X 33.4132 Y 2.1881 Z -1.0000
G01 X 33.4063 Y 2.1926 Z -1.0000
G03 X 33.3565 Y 2.1959 Z -1.0000 I -0.0485 J -0.3537
G02 X 33.3071 Y 2.1997 Z -1.0000 I -0.0017 J 0.3006
G01 X 33.2989 Y 2.2052 Z -1.0000
G01 X 33.2935 Y 2.2090 Z -1.0000
G01 X 33.2901 Y 2.2071 Z -1.0000
G01 X 33.2854 Y 2.2014 Z -1.0000
G02 X 33.2697 Y 2.1940 Z -1.0000 I -0.0349 J 0.0542
G01 X 33.2582 Y 2.1942 Z -1.0000
G01 X 33.2561 Y 2.1988 Z -1.0000
G01 X 33.2342 Y 2.2338 Z -1.0000
G03 X 33.1779 Y 2.2055 Z -1.0000 I -0.0052 J -0.0597
G01 X 33.1592 Y 2.1958 Z -1.0000
G02 X 33.1245 Y 2.2086 Z -1.0000 I 0.0037 J 0.0636
G01 X 33.1174 Y 2.2190 Z -1.0000
G01 X 33.1198 Y 2.2251 Z -1.0000
G01 X 33.1209 Y 2.2306 Z -1.0000
G01 X 33.1078 Y 2.2421 Z -1.0000
G03 X 33.0869 Y 2.2503 Z -1.0000 I -0.0471 J -0.0893
G01 X 33.0822 Y 2.2490 Z -1.0000
G01 X 33.0778 Y 2.2480 Z -1.0000
G02 X 33.0616 Y 2.2562 Z -1.0000 I 0.0215 J 0.0620
G03 X 32.9938 Y 2.2794 Z -1.0000 I -0.0738 J -0.1053
G01 X 32.9823 Y 2.2598 Z -1.0000
G01 X 32.9819 Y 2.2549 Z -1.0000
G01 X 32.9756 Y 2.2520 Z -1.0000
G01 X 32.9661 Y 2.2547 Z -1.0000
G01 X 32.9610 Y 2.2612 Z -1.0000
G01 X 32.9551 Y 2.2656 Z -1.0000
G03 X 32.9171 Y 2.2623 Z -1.0000 I -0.0044 J -0.1733
G02 X 32.8777 Y 2.2575 Z -1.0000 I -0.0529 J 0.2700
G01 X 32.8726 Y 2.2602 Z -1.0000
G01 X 32.8677 Y 2.2633 Z -1.0000
G01 X 32.8533 Y 2.2621 Z -1.0000
G01 X 32.8403 Y 2.2616 Z -1.0000
G01 X 32.8376 Y 2.2648 Z -1.0000
G01 X 32.8073 Y 2.2959 Z -1.0000
G03 X 32.7513 Y 2.2667 Z -1.0000 I -0.0016 J -0.0653
G01 X 32.7229 Y 2.2554 Z -1.0000
G01 X 32.7048 Y 2.2775 Z -1.0000
G02 X 32.7047 Y 2.2834 Z -1.0000 I 0.4944 J 0.0127
G02 X 32.7047 Y 2.2882 Z -1.0000 I 0.3531 J 0.0048
G01 X 32.6949 Y 2.2860 Z -1.0000
G02 X 32.6500 Y 2.2716 Z -1.0000 I -0.0445 J 0.0615
G02 X 32.5759 Y 2.2866 Z -1.0000 I 0.0010 J 0.1947
G03 X 32.5472 Y 2.2926 Z -1.0000 I -0.0298 J -0.0713
G01 X 32.5433 Y 2.2871 Z -1.0000
G01 X 32.5413 Y 2.2826 Z -1.0000
G01 X 32.5329 Y 2.2832 Z -1.0000
G02 X 32.5189 Y 2.2923 Z -1.0000 I 0.0425 J 0.0801
G01 X 32.5132 Y 2.2987 Z -1.0000
G01 X 32.5070 Y 2.3026 Z -1.0000
G03 X 32.4854 Y 2.3016 Z -1.0000 I -0.0075 J -0.0723
G02 X 32.4655 Y 2.3009 Z -1.0000 I -0.0122 J 0.0605
G01 X 32.4622 Y 2.3045 Z -1.0000
G01 X 32.4590 Y 2.3089 Z -1.0000
G03 X 32.4345 Y 2.3131 Z -1.0000 I -0.0283 J -0.0907
G02 X 32.4072 Y 2.3158 Z -1.0000 I 0.0089 J 0.2358
G01 X 32.3998 Y 2.3184 Z -1.0000
G01 X 32.3937 Y 2.3193 Z -1.0000
G01 X 32.3882 Y 2.3151 Z -1.0000
G01 X 32.3823 Y 2.3112 Z -1.0000
G01 X 32.3707 Y 2.3124 Z -1.0000
G01 X 32.3646 Y 2.3106 Z -1.0000
G01 X 32.3636 Y 2.3023 Z -1.0000
G01 X 32.3529 Y 2.3049 Z -1.0000
G01 X 32.3341 Y 2.3169 Z -1.0000
G03 X 32.2993 Y 2.3225 Z -1.0000 I -0.0348 J -0.1062
G02 X 32.2635 Y 2.3260 Z -1.0000 I -0.0000 J 0.1853
G01 X 32.2530 Y 2.3316 Z -1.0000
G01 X 32.2437 Y 2.3351 Z -1.0000
G01 X 32.2313 Y 2.3301 Z -1.0000
G01 X 32.2196 Y 2.3251 Z -1.0000
G01 X 32.2133 Y 2.3282 Z -1.0000
G01 X 32.1809 Y 2.3461 Z -1.0000
G03 X 32.1168 Y 2.3277 Z -1.0000 I 0.0006 J -0.1228
G01 X 32.1034 Y 2.3242 Z -1.0000
G01 X 32.0958 Y 2.3287 Z -1.0000
G01 X 32.0877 Y 2.3334 Z -1.0000
G03 X 32.0667 Y 2.3301 Z -1.0000 I -0.0025 J -0.0520
G02 X 31.9972 Y 2.3210 Z -1.0000 I -0.0539 J 0.1416
G02 X 31.9324 Y 2.3440 Z -1.0000 I 0.0150 J 0.1446
G01 X 31.9134 Y 2.3511 Z -1.0000
G03 X 31.8795 Y 2.3510 Z -1.0000 I -0.0167 J -0.1259
G02 X 31.8479 Y 2.3502 Z -1.0000 I -0.0196 J 0.1411
G01 X 31.8445 Y 2.3539 Z -1.0000
G01 X 31.8474 Y 2.3587 Z -1.0000
G01 X 31.8592 Y 2.3616 Z -1.0000
G01 X 31.8725 Y 2.3645 Z -1.0000
G01 X 31.8823 Y 2.3718 Z -1.0000
G01 X 31.8744 Y 2.3864 Z -1.0000
G03 X 31.8318 Y 2.3657 Z -1.0000 I 0.0086 J -0.0717
G01 X 31.8193 Y 2.3596 Z -1.0000
G01 X 31.8115 Y 2.3630 Z -1.0000
G01 X 31.8050 Y 2.3665 Z -1.0000
G01 X 31.8001 Y 2.3632 Z -1.0000
G01 X 31.7949 Y 2.3606 Z -1.0000
G01 X 31.7853 Y 2.3671 Z -1.0000
G01 X 31.7744 Y 2.3706 Z -1.0000
G01 X 31.7702 Y 2.3652 Z -1.0000
G01 X 31.7546 Y 2.3649 Z -1.0000
G01 X 31.7383 Y 2.3656 Z -1.0000
G01 X 31.7350 Y 2.3618 Z -1.0000
G01 X 31.7373 Y 2.3561 Z -1.0000
G01 X 31.7428 Y 2.3538 Z -1.0000
G01 X 31.7484 Y 2.3516 Z -1.0000
G01 X 31.7506 Y 2.3465 Z -1.0000
G01 X 31.7474 Y 2.3428 Z -1.0000
G02 X 31.7213 Y 2.3427 Z -1.0000 I -0.0135 J 0.1011
G01 X 31.7017 Y 2.3416 Z -1.0000
G01 X 31.7048 Y 2.3325 Z -1.0000
G01 X 31.6939 Y 2.3266 Z -1.0000
G01 X 31.6759 Y 2.3329 Z -1.0000
G01 X 31.6763 Y 2.3377 Z -1.0000
G01 X 31.6598 Y 2.3439 Z -1.0000
G02 X 31.6287 Y 2.3478 Z -1.0000 I 0.0002 J 0.1290
G02 X 31.6041 Y 2.3579 Z -1.0000 I 0.0224 J 0.0896
G03 X 31.5800 Y 2.3658 Z -1.0000 I -0.0303 J -0.0513
G03 X 31.5552 Y 2.3630 Z -1.0000 I -0.0059 J -0.0570
G01 X 31.5378 Y 2.3627 Z -1.0000
G01 X 31.5340 Y 2.3697 Z -1.0000
G01 X 31.5308 Y 2.3796 Z -1.0000
G01 X 31.5153 Y 2.3852 Z -1.0000
G01 X 31.4976 Y 2.3802 Z -1.0000
G01 X 31.4927 Y 2.3715 Z -1.0000
G01 X 31.4957 Y 2.3677 Z -1.0000
G01 X 31.5005 Y 2.3695 Z -1.0000
G01 X 31.5082 Y 2.3737 Z -1.0000
G01 X 31.5159 Y 2.3695 Z -1.0000
G01 X 31.5216 Y 2.3572 Z -1.0000
G01 X 31.5237 Y 2.3429 Z -1.0000
G01 X 31.5193 Y 2.3381 Z -1.0000
G01 X 31.5084 Y 2.3419 Z -1.0000
G01 X 31.4920 Y 2.3514 Z -1.0000
G01 X 31.4778 Y 2.3518 Z -1.0000
G01 X 31.4659 Y 2.3535 Z -1.0000
G01 X 31.4586 Y 2.3634 Z -1.0000
G01 X 31.4522 Y 2.3729 Z -1.0000
G01 X 31.4455 Y 2.3733 Z -1.0000
G01 X 31.4404 Y 2.3661 Z -1.0000
G01 X 31.4407 Y 2.3516 Z -1.0000
G01 X 31.4419 Y 2.3360 Z -1.0000
G01 X 31.4377 Y 2.3222 Z -1.0000
G01 X 31.4389 Y 2.3128 Z -1.0000
G01 X 31.4552 Y 2.3038 Z -1.0000
G03 X 31.4779 Y 2.3034 Z -1.0000 I 0.0126 J 0.0635
G01 X 31.4861 Y 2.3087 Z -1.0000
G01 X 31.4898 Y 2.3096 Z -1.0000
G01 X 31.4925 Y 2.3049 Z -1.0000
G01 X 31.4894 Y 2.2945 Z -1.0000
G01 X 31.4834 Y 2.2912 Z -1.0000
G02 X 31.4466 Y 2.2958 Z -1.0000 I 0.0000 J 0.1497
G02 X 31.3675 Y 2.3206 Z -1.0000 I 0.1828 J 0.7204
G02 X 31.3558 Y 2.3250 Z -1.0000 I 1.9624 J 5.3148
G02 X 31.3519 Y 2.3264 Z -1.0000 I 4.7466 J 12.7684
G02 X 31.3479 Y 2.3279 Z -1.0000 I 0.0378 J 0.1119
G03 X 31.3363 Y 2.3322 Z -1.0000 I -0.9532 J -2.5220
G03 X 31.2955 Y 2.3414 Z -1.0000 I -0.0516 J -0.1346
G01 X 31.2873 Y 2.3359 Z -1.0000
G01 X 31.2829 Y 2.3320 Z -1.0000
G01 X 31.2748 Y 2.3335 Z -1.0000
G01 X 31.2708 Y 2.3405 Z -1.0000
G01 X 31.2743 Y 2.3506 Z -1.0000
G01 X 31.2725 Y 2.3557 Z -1.0000
G01 X 31.2557 Y 2.3544 Z -1.0000
G01 X 31.2369 Y 2.3518 Z -1.0000
G02 X 31.2153 Y 2.3583 Z -1.0000 I 0.0058 J 0.0594
G03 X 31.1940 Y 2.3662 Z -1.0000 I -0.0435 J -0.0839
G01 X 31.1869 Y 2.3651 Z -1.0000
G02 X 31.1562 Y 2.3550 Z -1.0000 I -0.0362 J 0.0588
G01 X 31.1486 Y 2.3621 Z -1.0000
G01 X 31.1514 Y 2.3667 Z -1.0000
G01 X 31.1633 Y 2.3695 Z -1.0000
G01 X 31.1765 Y 2.3725 Z -1.0000
G01 X 31.1877 Y 2.3812 Z -1.0000
G01 X 31.1913 Y 2.3900 Z -1.0000
G01 X 31.1886 Y 2.3929 Z -1.0000
G01 X 31.1824 Y 2.3903 Z -1.0000
G01 X 31.1798 Y 2.3839 Z -1.0000
G01 X 31.1647 Y 2.3886 Z -1.0000
G01 X 31.1434 Y 2.3937 Z -1.0000
G01 X 31.1329 Y 2.3799 Z -1.0000
G01 X 31.1285 Y 2.3735 Z -1.0000
G01 X 31.1140 Y 2.3725 Z -1.0000
G01 X 31.0973 Y 2.3732 Z -1.0000
G01 X 31.0923 Y 2.3690 Z -1.0000
G01 X 31.0874 Y 2.3654 Z -1.0000
G02 X 31.0677 Y 2.3690 Z -1.0000 I 0.0000 J 0.0558
G03 X 31.0333 Y 2.3741 Z -1.0000 I -0.0286 J -0.0751
G01 X 31.0282 Y 2.3661 Z -1.0000
G01 X 31.0348 Y 2.3596 Z -1.0000
G01 X 31.0456 Y 2.3594 Z -1.0000
G01 X 31.0493 Y 2.3579 Z -1.0000
G01 X 31.0487 Y 2.3533 Z -1.0000
G01 X 31.0376 Y 2.3489 Z -1.0000
G02 X 31.0135 Y 2.3553 Z -1.0000 I 0.0035 J 0.0614
G03 X 30.9677 Y 2.3733 Z -1.0000 I -0.1207 J -0.2408
G01 X 30.9648 Y 2.3694 Z -1.0000
G01 X 30.9636 Y 2.3651 Z -1.0000
G01 X 30.9496 Y 2.3617 Z -1.0000
G01 X 30.9350 Y 2.3563 Z -1.0000
G01 X 30.9296 Y 2.3446 Z -1.0000
G01 X 30.9255 Y 2.3397 Z -1.0000
G01 X 30.9180 Y 2.3426 Z -1.0000
G01 X 30.9067 Y 2.3496 Z -1.0000
G01 X 30.8989 Y 2.3463 Z -1.0000
G01 X 30.8922 Y 2.3434 Z -1.0000
G01 X 30.8862 Y 2.3483 Z -1.0000
G01 X 30.8755 Y 2.3523 Z -1.0000
G01 X 30.8670 Y 2.3381 Z -1.0000
G01 X 30.8603 Y 2.3269 Z -1.0000
G01 X 30.8473 Y 2.3274 Z -1.0000
G01 X 30.8349 Y 2.3313 Z -1.0000
G01 X 30.8325 Y 2.3278 Z -1.0000
G01 X 30.8299 Y 2.3208 Z -1.0000
G01 X 30.8131 Y 2.3171 Z -1.0000
G01 X 30.8004 Y 2.3250 Z -1.0000
G01 X 30.8025 Y 2.3357 Z -1.0000
G01 X 30.8049 Y 2.3422 Z -1.0000
G01 X 30.8005 Y 2.3454 Z -1.0000
G02 X 30.7850 Y 2.3450 Z -1.0000 I -0.0125 J 0.1718
G01 X 30.7810 Y 2.3458 Z -1.0000
G01 X 30.7509 Y 2.3460 Z -1.0000
G01 X 30.7497 Y 2.3344 Z -1.0000
G01 X 30.7553 Y 2.3282 Z -1.0000
G01 X 30.7575 Y 2.3188 Z -1.0000
G01 X 30.7530 Y 2.3130 Z -1.0000
G02 X 30.7262 Y 2.3109 Z -1.0000 I -0.0195 J 0.0768
G03 X 30.6992 Y 2.3091 Z -1.0000 I -0.0079 J -0.0857
G01 X 30.6949 Y 2.3038 Z -1.0000
G01 X 30.6903 Y 2.2986 Z -1.0000
G02 X 30.6187 Y 2.2955 Z -1.0000 I -0.0599 J 0.5550
G02 X 30.5466 Y 2.3016 Z -1.0000 I 0.0124 J 0.5780
G01 X 30.5456 Y 2.3063 Z -1.0000
G01 X 30.5378 Y 2.3125 Z -1.0000
G02 X 30.4090 Y 2.3161 Z -1.0000 I -0.0383 J 0.9457
G02 X 30.3458 Y 2.3309 Z -1.0000 I 0.0233 J 0.2421
G03 X 30.3263 Y 2.3361 Z -1.0000 I -0.0363 J -0.0957
G01 X 30.3207 Y 2.3350 Z -1.0000
G01 X 30.2878 Y 2.3293 Z -1.0000
G02 X 30.2191 Y 2.3570 Z -1.0000 I 0.0462 J 0.2134
G01 X 30.2121 Y 2.3579 Z -1.0000
G01 X 30.2055 Y 2.3526 Z -1.0000
G01 X 30.2006 Y 2.3517 Z -1.0000
G01 X 30.1927 Y 2.3622 Z -1.0000
G01 X 30.1841 Y 2.3703 Z -1.0000
G01 X 30.1755 Y 2.3674 Z -1.0000
G01 X 30.1624 Y 2.3577 Z -1.0000
G01 X 30.1593 Y 2.3615 Z -1.0000
G01 X 30.1605 Y 2.3675 Z -1.0000
G01 X 30.1578 Y 2.3699 Z -1.0000
G02 X 30.1515 Y 2.3707 Z -1.0000 I 0.0080 J 0.0875
G02 X 30.1339 Y 2.3738 Z -1.0000 I 0.1450 J 0.8773
G01 X 30.1205 Y 2.3721 Z -1.0000
G01 X 30.1163 Y 2.3654 Z -1.0000
G01 X 30.1136 Y 2.3565 Z -1.0000
G01 X 30.1085 Y 2.3538 Z -1.0000
G01 X 30.1035 Y 2.3566 Z -1.0000
G01 X 30.1007 Y 2.3670 Z -1.0000
G01 X 30.0973 Y 2.3721 Z -1.0000
G01 X 30.0913 Y 2.3709 Z -1.0000
G01 X 30.0629 Y 2.3589 Z -1.0000
G02 X 30.0030 Y 2.3693 Z -1.0000 I -0.0029 J 0.1607
G01 X 29.9870 Y 2.3699 Z -1.0000
G01 X 29.9879 Y 2.3635 Z -1.0000
G01 X 29.9835 Y 2.3577 Z -1.0000
G01 X 29.9781 Y 2.3574 Z -1.0000
G01 X 29.9756 Y 2.3613 Z -1.0000
G01 X 29.9726 Y 2.3678 Z -1.0000
G01 X 29.9580 Y 2.3766 Z -1.0000
G01 X 29.9416 Y 2.3768 Z -1.0000
G03 X 29.9185 Y 2.3628 Z -1.0000 I 0.0215 J -0.0615
G02 X 29.8976 Y 2.3493 Z -1.0000 I -0.0468 J 0.0498
G01 X 29.8909 Y 2.3515 Z -1.0000
G01 X 29.8831 Y 2.3578 Z -1.0000
G03 X 29.8520 Y 2.3661 Z -1.0000 I -0.0565 J -0.1504
G02 X 29.8204 Y 2.3738 Z -1.0000 I 0.0315 J 0.1982
G01 X 29.8144 Y 2.3786 Z -1.0000
G01 X 29.8092 Y 2.3810 Z -1.0000
G01 X 29.7985 Y 2.3763 Z -1.0000
G01 X 29.7898 Y 2.3751 Z -1.0000
G01 X 29.7827 Y 2.3837 Z -1.0000
G01 X 29.7716 Y 2.3963 Z -1.0000
G01 X 29.7604 Y 2.3927 Z -1.0000
G01 X 29.7547 Y 2.3883 Z -1.0000
G01 X 29.7482 Y 2.3893 Z -1.0000
G01 X 29.7424 Y 2.3893 Z -1.0000
G01 X 29.7365 Y 2.3824 Z -1.0000
G01 X 29.7160 Y 2.3647 Z -1.0000
G01 X 29.6988 Y 2.3740 Z -1.0000
G01 X 29.6925 Y 2.3799 Z -1.0000
G01 X 29.6813 Y 2.3796 Z -1.0000
G01 X 29.6746 Y 2.3799 Z -1.0000
G01 X 29.6736 Y 2.3836 Z -1.0000
G01 X 29.6915 Y 2.3935 Z -1.0000
G01 X 29.7159 Y 2.3833 Z -1.0000
G01 X 29.7221 Y 2.3817 Z -1.0000
G01 X 29.7253 Y 2.3860 Z -1.0000
G01 X 29.7223 Y 2.3967 Z -1.0000
G03 X 29.7092 Y 2.4127 Z -1.0000 I -0.0617 J -0.0374
G01 X 29.6941 Y 2.4202 Z -1.0000
G01 X 29.6867 Y 2.4170 Z -1.0000
G01 X 29.6789 Y 2.4122 Z -1.0000
G01 X 29.6643 Y 2.4153 Z -1.0000
G01 X 29.6391 Y 2.4186 Z -1.0000
G03 X 29.6056 Y 2.4016 Z -1.0000 I 0.0182 J -0.0773
G01 X 29.5924 Y 2.3953 Z -1.0000
G01 X 29.5860 Y 2.3982 Z -1.0000
G01 X 29.5788 Y 2.4043 Z -1.0000
G03 X 29.5531 Y 2.4121 Z -1.0000 I -0.0487 J -0.1150
G02 X 29.4933 Y 2.4353 Z -1.0000 I 0.0317 J 0.1703
G01 X 29.4966 Y 2.4473 Z -1.0000
G01 X 29.5032 Y 2.4506 Z -1.0000
G01 X 29.5064 Y 2.4598 Z -1.0000
G01 X 29.4969 Y 2.4646 Z -1.0000
G01 X 29.4811 Y 2.4410 Z -1.0000
G02 X 29.4725 Y 2.4189 Z -1.0000 I -0.0957 J 0.0245
G01 X 29.4679 Y 2.4162 Z -1.0000
G01 X 29.4534 Y 2.4270 Z -1.0000
G01 X 29.4598 Y 2.4437 Z -1.0000
G01 X 29.4652 Y 2.4494 Z -1.0000
G01 X 29.4673 Y 2.4573 Z -1.0000
G01 X 29.4647 Y 2.4599 Z -1.0000
G01 X 29.4585 Y 2.4574 Z -1.0000
G01 X 29.4490 Y 2.4521 Z -1.0000
G01 X 29.4389 Y 2.4528 Z -1.0000
G01 X 29.4311 Y 2.4527 Z -1.0000
G01 X 29.4281 Y 2.4483 Z -1.0000
G01 X 29.4306 Y 2.4421 Z -1.0000
G01 X 29.4364 Y 2.4396 Z -1.0000
G01 X 29.4406 Y 2.4373 Z -1.0000
G01 X 29.4406 Y 2.4329 Z -1.0000
G01 X 29.4458 Y 2.4044 Z -1.0000
G03 X 29.4945 Y 2.3912 Z -1.0000 I 0.0402 J 0.0519
G01 X 29.5113 Y 2.3849 Z -1.0000
G01 X 29.5083 Y 2.3754 Z -1.0000
G02 X 29.4723 Y 2.3769 Z -1.0000 I -0.0154 J 0.0611
G02 X 29.4251 Y 2.4042 Z -1.0000 I 0.0470 J 0.1359
G03 X 29.4023 Y 2.4172 Z -1.0000 I -0.0435 J -0.0502
G01 X 29.3918 Y 2.4152 Z -1.0000
G01 X 29.3840 Y 2.4121 Z -1.0000
G01 X 29.3813 Y 2.4147 Z -1.0000
G01 X 29.3777 Y 2.4189 Z -1.0000
G03 X 29.3548 Y 2.4187 Z -1.0000 I -0.0110 J -0.0742
G02 X 29.3289 Y 2.4178 Z -1.0000 I -0.0167 J 0.1014
G01 X 29.3143 Y 2.4223 Z -1.0000
G01 X 29.3003 Y 2.4258 Z -1.0000
G01 X 29.2868 Y 2.4218 Z -1.0000
G01 X 29.2741 Y 2.4194 Z -1.0000
G01 X 29.2604 Y 2.4265 Z -1.0000
G01 X 29.2346 Y 2.4349 Z -1.0000
G03 X 29.1945 Y 2.4160 Z -1.0000 I 0.0125 J -0.0784
G02 X 29.1677 Y 2.3937 Z -1.0000 I -0.4217 J 0.4786
G01 X 29.1649 Y 2.3927 Z -1.0000
G01 X 29.1607 Y 2.4010 Z -1.0000
G02 X 29.1954 Y 2.4353 Z -1.0000 I 0.1183 J -0.0849
G01 X 29.2047 Y 2.4474 Z -1.0000
G01 X 29.1975 Y 2.4456 Z -1.0000
G01 X 29.1874 Y 2.4380 Z -1.0000
G01 X 29.1780 Y 2.4342 Z -1.0000
G01 X 29.1686 Y 2.4380 Z -1.0000
G01 X 29.1528 Y 2.4453 Z -1.0000
G01 X 29.1467 Y 2.4396 Z -1.0000
G01 X 29.1494 Y 2.4346 Z -1.0000
G01 X 29.1584 Y 2.4318 Z -1.0000
G01 X 29.1672 Y 2.4289 Z -1.0000
G01 X 29.1701 Y 2.4231 Z -1.0000
G01 X 29.1664 Y 2.4189 Z -1.0000
G02 X 29.1418 Y 2.4197 Z -1.0000 I -0.0096 J 0.0811
G02 X 29.0946 Y 2.4389 Z -1.0000 I 0.0234 J 0.1256
G01 X 29.0865 Y 2.4564 Z -1.0000
G01 X 29.0847 Y 2.4663 Z -1.0000
G01 X 29.0803 Y 2.4685 Z -1.0000
G01 X 29.0757 Y 2.4644 Z -1.0000
G03 X 29.0735 Y 2.4465 Z -1.0000 I 0.0511 J -0.0156
G01 X 29.0688 Y 2.4329 Z -1.0000
G01 X 29.0592 Y 2.4299 Z -1.0000
G01 X 29.0500 Y 2.4375 Z -1.0000
G01 X 29.0485 Y 2.4524 Z -1.0000
G01 X 29.0490 Y 2.4677 Z -1.0000
G01 X 29.0452 Y 2.4709 Z -1.0000
G01 X 29.0396 Y 2.4685 Z -1.0000
G01 X 29.0372 Y 2.4626 Z -1.0000
G01 X 29.0339 Y 2.4586 Z -1.0000
G01 X 29.0196 Y 2.4591 Z -1.0000
G01 X 29.0150 Y 2.4573 Z -1.0000
G01 X 29.0156 Y 2.4530 Z -1.0000
G01 X 29.0250 Y 2.4418 Z -1.0000
G01 X 29.0243 Y 2.4372 Z -1.0000
G01 X 29.0266 Y 2.4172 Z -1.0000
G03 X 29.0823 Y 2.4008 Z -1.0000 I 0.0568 J 0.0905
G02 X 29.1044 Y 2.3973 Z -1.0000 I -0.0008 J -0.0751
G01 X 29.1077 Y 2.3927 Z -1.0000
G01 X 29.0859 Y 2.3721 Z -1.0000
G02 X 29.0374 Y 2.3965 Z -1.0000 I 0.0037 J 0.0678
G01 X 29.0271 Y 2.4044 Z -1.0000
G01 X 29.0210 Y 2.4040 Z -1.0000
G01 X 29.0163 Y 2.4049 Z -1.0000
G01 X 29.0095 Y 2.4190 Z -1.0000
G01 X 29.0003 Y 2.4280 Z -1.0000
G01 X 28.9819 Y 2.4252 Z -1.0000
G03 X 28.9613 Y 2.4110 Z -1.0000 I 0.0709 J -0.1250
G01 X 28.9591 Y 2.4064 Z -1.0000
G01 X 28.9571 Y 2.4026 Z -1.0000
G01 X 28.9504 Y 2.4005 Z -1.0000
G01 X 28.9462 Y 2.4036 Z -1.0000
G01 X 28.9464 Y 2.4126 Z -1.0000
G01 X 28.9447 Y 2.4173 Z -1.0000
G01 X 28.9380 Y 2.4173 Z -1.0000
G01 X 28.9249 Y 2.4135 Z -1.0000
G01 X 28.9127 Y 2.4161 Z -1.0000
G03 X 28.9005 Y 2.4220 Z -1.0000 I -0.5640 J -1.1451
G03 X 28.8789 Y 2.4322 Z -1.0000 I -1.0375 J -2.1644
G01 X 28.8636 Y 2.4451 Z -1.0000
G01 X 28.8618 Y 2.4566 Z -1.0000
G01 X 28.8621 Y 2.4677 Z -1.0000
G01 X 28.8580 Y 2.4709 Z -1.0000
G02 X 28.8498 Y 2.4715 Z -1.0000 I -0.0000 J 0.0574
G01 X 28.8445 Y 2.4729 Z -1.0000
G01 X 28.8380 Y 2.4576 Z -1.0000
G01 X 28.8405 Y 2.4427 Z -1.0000
G01 X 28.8471 Y 2.4363 Z -1.0000
G01 X 28.8547 Y 2.4305 Z -1.0000
G01 X 28.8573 Y 2.4223 Z -1.0000
G01 X 28.8503 Y 2.4232 Z -1.0000
G01 X 28.8420 Y 2.4297 Z -1.0000
G01 X 28.8312 Y 2.4294 Z -1.0000
G01 X 28.8204 Y 2.4300 Z -1.0000
G02 X 28.8041 Y 2.4436 Z -1.0000 I 0.0235 J 0.0448
G03 X 28.7890 Y 2.4584 Z -1.0000 I -0.0635 J -0.0500
G01 X 28.7847 Y 2.4581 Z -1.0000
G01 X 28.7842 Y 2.4509 Z -1.0000
G03 X 28.8169 Y 2.4138 Z -1.0000 I 0.2130 J 0.1552
G03 X 28.8366 Y 2.4018 Z -1.0000 I 0.0385 J 0.0411
G01 X 28.8580 Y 2.3993 Z -1.0000
G01 X 28.8772 Y 2.3974 Z -1.0000
G01 X 28.8810 Y 2.3923 Z -1.0000
G01 X 28.8768 Y 2.3875 Z -1.0000
G02 X 28.8414 Y 2.3867 Z -1.0000 I -0.0210 J 0.1475
G02 X 28.8047 Y 2.3959 Z -1.0000 I 0.0124 J 0.1273
G01 X 28.7865 Y 2.4095 Z -1.0000
G01 X 28.7683 Y 2.4215 Z -1.0000
G03 X 28.7342 Y 2.4240 Z -1.0000 I -0.0233 J -0.0844
G02 X 28.6726 Y 2.4271 Z -1.0000 I -0.0219 J 0.1775
G01 X 28.6620 Y 2.4404 Z -1.0000
G01 X 28.6596 Y 2.4441 Z -1.0000
G01 X 28.6483 Y 2.4467 Z -1.0000
G02 X 28.5938 Y 2.4535 Z -1.0000 I 0.0048 J 0.2595
G02 X 28.5701 Y 2.4650 Z -1.0000 I 0.0137 J 0.0585
G01 X 28.5593 Y 2.4700 Z -1.0000
G03 X 28.5252 Y 2.4738 Z -1.0000 I -0.0393 J -0.1992
G02 X 28.4922 Y 2.4768 Z -1.0000 I 0.0072 J 0.2606
G01 X 28.4900 Y 2.4793 Z -1.0000
G01 X 28.4868 Y 2.4830 Z -1.0000
G03 X 28.4231 Y 2.4897 Z -1.0000 I -0.0993 J -0.6404
G02 X 28.3761 Y 2.4939 Z -1.0000 I 0.0352 J 0.6546
G02 X 28.3581 Y 2.4979 Z -1.0000 I 0.0127 J 0.1002
G01 X 28.3507 Y 2.4955 Z -1.0000
G01 X 28.3504 Y 2.4875 Z -1.0000
G01 X 28.3568 Y 2.4692 Z -1.0000
G03 X 28.3532 Y 2.4668 Z -1.0000 I 0.0763 J -0.1175
G03 X 28.3268 Y 2.4484 Z -1.0000 I 4.0553 J -5.8356
G02 X 28.3013 Y 2.4350 Z -1.0000 I -0.0653 J 0.0931
G01 X 28.2956 Y 2.4367 Z -1.0000
G03 X 28.2501 Y 2.4601 Z -1.0000 I -0.0460 J -0.0336
G01 X 28.2373 Y 2.4373 Z -1.0000
G01 X 28.2229 Y 2.4342 Z -1.0000
G01 X 28.2144 Y 2.4340 Z -1.0000
G01 X 28.2214 Y 2.4286 Z -1.0000
G01 X 28.2242 Y 2.4195 Z -1.0000
G01 X 28.2282 Y 2.4124 Z -1.0000
G01 X 28.2432 Y 2.4083 Z -1.0000
G02 X 28.2608 Y 2.4055 Z -1.0000 I -0.0000 J -0.0566
G01 X 28.2672 Y 2.4005 Z -1.0000
G01 X 28.2608 Y 2.3895 Z -1.0000
G02 X 28.2062 Y 2.4025 Z -1.0000 I 0.0044 J 0.1400
G02 X 28.1877 Y 2.4147 Z -1.0000 I 0.0313 J 0.0675
G01 X 28.1808 Y 2.4254 Z -1.0000
G01 X 28.1729 Y 2.4313 Z -1.0000
G03 X 28.1417 Y 2.4266 Z -1.0000 I -0.0027 J -0.0882
G03 X 28.1098 Y 2.4126 Z -1.0000 I 0.0649 J -0.1915
G01 X 28.1069 Y 2.4076 Z -1.0000
G01 X 28.1046 Y 2.4028 Z -1.0000
G01 X 28.0982 Y 2.4005 Z -1.0000
G01 X 28.0936 Y 2.4033 Z -1.0000
G01 X 28.0933 Y 2.4103 Z -1.0000
G01 X 28.0909 Y 2.4160 Z -1.0000
G03 X 28.0707 Y 2.4207 Z -1.0000 I -0.0212 J -0.0462
G02 X 28.0172 Y 2.4338 Z -1.0000 I 0.0028 J 0.1270
G01 X 28.0052 Y 2.4532 Z -1.0000
G01 X 28.0022 Y 2.4587 Z -1.0000
G01 X 27.9968 Y 2.4589 Z -1.0000
G01 X 27.9920 Y 2.4525 Z -1.0000
G01 X 27.9924 Y 2.4434 Z -1.0000
G01 X 27.9881 Y 2.4315 Z -1.0000
G01 X 27.9681 Y 2.4297 Z -1.0000
G01 X 27.9637 Y 2.4351 Z -1.0000
G01 X 27.9662 Y 2.4476 Z -1.0000
G01 X 27.9694 Y 2.4610 Z -1.0000
G01 X 27.9660 Y 2.4670 Z -1.0000
G01 X 27.9600 Y 2.4665 Z -1.0000
G01 X 27.9511 Y 2.4538 Z -1.0000
G01 X 27.9584 Y 2.4196 Z -1.0000
G03 X 28.0048 Y 2.4005 Z -1.0000 I 0.0464 J 0.0467
G02 X 28.0250 Y 2.3969 Z -1.0000 I -0.0000 J -0.0580
G01 X 28.0286 Y 2.3917 Z -1.0000
G01 X 28.0061 Y 2.3715 Z -1.0000
G02 X 27.9396 Y 2.4013 Z -1.0000 I 0.0123 J 0.1162
G03 X 27.9028 Y 2.4279 Z -1.0000 I -0.1362 J -0.1502
G01 X 27.8910 Y 2.4287 Z -1.0000
G01 X 27.8689 Y 2.4332 Z -1.0000
G01 X 27.8624 Y 2.4562 Z -1.0000
G01 X 27.8565 Y 2.4729 Z -1.0000
G01 X 27.8390 Y 2.4736 Z -1.0000
G01 X 27.8287 Y 2.4696 Z -1.0000
G02 X 27.8136 Y 2.4691 Z -1.0000 I -0.0094 J 0.0537
G01 X 27.7980 Y 2.4707 Z -1.0000
G01 X 27.8136 Y 2.4640 Z -1.0000
G01 X 27.8291 Y 2.4609 Z -1.0000
G01 X 27.8429 Y 2.4644 Z -1.0000
G01 X 27.8536 Y 2.4666 Z -1.0000
G01 X 27.8566 Y 2.4634 Z -1.0000
G01 X 27.8543 Y 2.4576 Z -1.0000
G01 X 27.8488 Y 2.4553 Z -1.0000
G01 X 27.8437 Y 2.4526 Z -1.0000
G01 X 27.8410 Y 2.4438 Z -1.0000
G01 X 27.8362 Y 2.4378 Z -1.0000
G02 X 27.8078 Y 2.4362 Z -1.0000 I -0.0187 J 0.0820
G03 X 27.6824 Y 2.4413 Z -1.0000 I -0.0965 J -0.8351
G01 X 27.6622 Y 2.4312 Z -1.0000
G01 X 27.6457 Y 2.4184 Z -1.0000
G02 X 27.6236 Y 2.4136 Z -1.0000 I -0.0220 J 0.0482
G01 X 27.6033 Y 2.4071 Z -1.0000
G01 X 27.6032 Y 2.4029 Z -1.0000
G01 X 27.5990 Y 2.4006 Z -1.0000
G01 X 27.5936 Y 2.4035 Z -1.0000
G01 X 27.5907 Y 2.4128 Z -1.0000
G01 X 27.5865 Y 2.4201 Z -1.0000
G01 X 27.5740 Y 2.4226 Z -1.0000
G01 X 27.5579 Y 2.4281 Z -1.0000
G02 X 27.5407 Y 2.4573 Z -1.0000 I 0.0529 J 0.0508
G01 X 27.5338 Y 2.4673 Z -1.0000
G01 X 27.5230 Y 2.4710 Z -1.0000
G01 X 27.5200 Y 2.4675 Z -1.0000
G01 X 27.5247 Y 2.4595 Z -1.0000
G01 X 27.5298 Y 2.4513 Z -1.0000
G01 X 27.5269 Y 2.4478 Z -1.0000
G01 X 27.5197 Y 2.4432 Z -1.0000
G01 X 27.5184 Y 2.4307 Z -1.0000
G01 X 27.5170 Y 2.4217 Z -1.0000
G01 X 27.5119 Y 2.4206 Z -1.0000
G01 X 27.5004 Y 2.4254 Z -1.0000
G03 X 27.4774 Y 2.4289 Z -1.0000 I -0.0310 J -0.1270
G02 X 27.3873 Y 2.4377 Z -1.0000 I 0.1046 J 1.5310
G02 X 27.3532 Y 2.4449 Z -1.0000 I 0.0278 J 0.2173
G01 X 27.3396 Y 2.4460 Z -1.0000
G01 X 27.3337 Y 2.4425 Z -1.0000
G02 X 27.2827 Y 2.3937 Z -1.0000 I -0.1595 J 0.1155
G01 X 27.2701 Y 2.4005 Z -1.0000
G01 X 27.2727 Y 2.4072 Z -1.0000
G01 X 27.2819 Y 2.4134 Z -1.0000
G01 X 27.2905 Y 2.4201 Z -1.0000
G01 X 27.2936 Y 2.4297 Z -1.0000
G01 X 27.2781 Y 2.4230 Z -1.0000
G01 X 27.2631 Y 2.4127 Z -1.0000
G01 X 27.2555 Y 2.4153 Z -1.0000
G01 X 27.2475 Y 2.4218 Z -1.0000
G01 X 27.2404 Y 2.4211 Z -1.0000
G01 X 27.2182 Y 2.4198 Z -1.0000
G01 X 27.2076 Y 2.4366 Z -1.0000
G01 X 27.1994 Y 2.4432 Z -1.0000
G01 X 27.1841 Y 2.4318 Z -1.0000
G01 X 27.1734 Y 2.4235 Z -1.0000
G01 X 27.1584 Y 2.4255 Z -1.0000
G03 X 27.1404 Y 2.4317 Z -1.0000 I -0.0277 J -0.0506
G03 X 27.1157 Y 2.4328 Z -1.0000 I -0.0164 J -0.0957
G02 X 27.0942 Y 2.4349 Z -1.0000 I -0.0049 J 0.0597
G01 X 27.0903 Y 2.4401 Z -1.0000
G01 X 27.0873 Y 2.4430 Z -1.0000
G01 X 27.0786 Y 2.4397 Z -1.0000
G01 X 27.0668 Y 2.4374 Z -1.0000
G01 X 27.0634 Y 2.4412 Z -1.0000
G03 X 27.0121 Y 2.4423 Z -1.0000 I -0.0339 J -0.3825
G02 X 26.9610 Y 2.4436 Z -1.0000 I -0.0164 J 0.3604
G01 X 26.9573 Y 2.4476 Z -1.0000
G01 X 26.9551 Y 2.4531 Z -1.0000
G01 X 26.9495 Y 2.4554 Z -1.0000
G01 X 26.9446 Y 2.4526 Z -1.0000
G01 X 26.9417 Y 2.4421 Z -1.0000
G01 X 26.9383 Y 2.4370 Z -1.0000
G01 X 26.9323 Y 2.4382 Z -1.0000
G01 X 26.9169 Y 2.4446 Z -1.0000
G01 X 26.9104 Y 2.4381 Z -1.0000
G01 X 26.9076 Y 2.4300 Z -1.0000
G02 X 26.8889 Y 2.4108 Z -1.0000 I -0.1005 J 0.0791
G01 X 26.8776 Y 2.3937 Z -1.0000
G01 X 26.8811 Y 2.3847 Z -1.0000
G01 X 26.8954 Y 2.3641 Z -1.0000
G01 X 26.8867 Y 2.3538 Z -1.0000
G01 X 26.8804 Y 2.3563 Z -1.0000
G01 X 26.8742 Y 2.3655 Z -1.0000
G01 X 26.8683 Y 2.3729 Z -1.0000
G01 X 26.8630 Y 2.3730 Z -1.0000
G01 X 26.8601 Y 2.3675 Z -1.0000
