%
(Header)
(Generated by gcodetools from Inkscape.)
(Using default header. To add your own header create file "header" in the output dir.)
M3
(Header end.)
G21 (All units in mm)

(Start cutting path id: path144925)
(Change tool to Default tool)

G00 Z 5.0000
G00 X 5.0360 Y 0.1777

G01 Z -1.0000 F 100.0000(Penetrate)
G02 X 5.0294 Y 0.2072 Z -1.0000 I 0.4986 J 0.1282 F 3500.0000
G02 X 5.0193 Y 0.2635 Z -1.0000 I 1.7911 J 0.3498
G03 X 5.0089 Y 0.3197 Z -1.0000 I -1.3436 J -0.2188
G03 X 5.0046 Y 0.3345 Z -1.0000 I -0.0978 J -0.0202
G02 X 5.0005 Y 0.3494 Z -1.0000 I 0.0855 J 0.0320
G02 X 4.9948 Y 0.3861 Z -1.0000 I 0.5189 J 0.0990
G03 X 4.9718 Y 0.5399 Z -1.0000 I -2.5739 J -0.3055
G03 X 4.8558 Y 1.1582 Z -1.0000 I -41.7756 J -7.5220
G02 X 4.8055 Y 1.4283 Z -1.0000 I 15.3776 J 3.0048
G02 X 4.7682 Y 1.6523 Z -1.0000 I 10.5527 J 1.8706
G03 X 4.7557 Y 1.7263 Z -1.0000 I -2.7500 J -0.4276
G03 X 4.7444 Y 1.7820 Z -1.0000 I -1.5758 J -0.2887
G02 X 4.7328 Y 1.8378 Z -1.0000 I 2.6620 J 0.5860
G02 X 4.7077 Y 1.9673 Z -1.0000 I 14.2872 J 2.8340
G03 X 4.6830 Y 2.0970 Z -1.0000 I -44.8525 J -8.4744
G03 X 4.6614 Y 2.2082 Z -1.0000 I -33.3811 J -6.4071
G02 X 4.6401 Y 2.3195 Z -1.0000 I 15.4937 J 3.0275
G02 X 4.6115 Y 2.4738 Z -1.0000 I 29.6837 J 5.5795
G03 X 4.5822 Y 2.6280 Z -1.0000 I -10.5132 J -1.9197
G03 X 4.5736 Y 2.6653 Z -1.0000 I -0.6237 J -0.1234
G02 X 4.5654 Y 2.7026 Z -1.0000 I 0.4830 J 0.1261
G02 X 4.5589 Y 2.7468 Z -1.0000 I 0.6669 J 0.1205
G03 X 4.5524 Y 2.7908 Z -1.0000 I -0.6357 J -0.0721
G03 X 4.5469 Y 2.8116 Z -1.0000 I -0.1459 J -0.0269
G02 X 4.5409 Y 2.8340 Z -1.0000 I 0.1710 J 0.0581
G02 X 4.4874 Y 3.1069 Z -1.0000 I 25.5370 J 5.1531
G02 X 4.4786 Y 3.1533 Z -1.0000 I 10.6469 J 2.0308
G02 X 4.4666 Y 3.2181 Z -1.0000 I 21.2109 J 3.9502
G03 X 4.4441 Y 3.3392 Z -1.0000 I -19.2514 J -3.5246
G03 X 4.3829 Y 3.6597 Z -1.0000 I -134.9783 J -25.5912
G02 X 4.3173 Y 4.0051 Z -1.0000 I 86.9829 J 16.7058
G02 X 4.2964 Y 4.1199 Z -1.0000 I 9.5705 J 1.7987
G03 X 4.2858 Y 4.1785 Z -1.0000 I -4.6589 J -0.8186
G03 X 4.2655 Y 4.2836 Z -1.0000 I -14.7329 J -2.7803
G02 X 4.2453 Y 4.3886 Z -1.0000 I 13.6342 J 2.6742
G02 X 4.2318 Y 4.4627 Z -1.0000 I 6.7701 J 1.2738
G03 X 4.2185 Y 4.5368 Z -1.0000 I -15.4797 J -2.7375
G03 X 4.2066 Y 4.6017 Z -1.0000 I -11.9239 J -2.1676
G02 X 4.1947 Y 4.6666 Z -1.0000 I 7.6677 J 1.4360
G02 X 4.1757 Y 4.7746 Z -1.0000 I 20.6391 J 3.6847
G03 X 4.1568 Y 4.8827 Z -1.0000 I -29.6157 J -5.1276
G03 X 4.1413 Y 4.9692 Z -1.0000 I -18.9907 J -3.3594
G02 X 4.1259 Y 5.0557 Z -1.0000 I 12.5440 J 2.2788
G02 X 4.1138 Y 5.1267 Z -1.0000 I 8.6074 J 1.5024
G03 X 4.1014 Y 5.1976 Z -1.0000 I -4.2623 J -0.7080
G03 X 4.0832 Y 5.2934 Z -1.0000 I -7.7646 J -1.4231
G02 X 4.0646 Y 5.3892 Z -1.0000 I 34.9682 J 6.8562
G02 X 4.0558 Y 5.4355 Z -1.0000 I 8.0872 J 1.5627
G03 X 4.0470 Y 5.4818 Z -1.0000 I -14.0227 J -2.6251
G03 X 4.0287 Y 5.5776 Z -1.0000 I -61.4298 J -11.7102
G02 X 4.0107 Y 5.6734 Z -1.0000 I 11.4133 J 2.1938
G02 X 3.9913 Y 5.7814 Z -1.0000 I 14.4739 J 2.6564
G03 X 3.9653 Y 5.9250 Z -1.0000 I -15.6262 J -2.7476
G03 X 3.9386 Y 6.0655 Z -1.0000 I -14.9768 J -2.7757
G02 X 3.9182 Y 6.1737 Z -1.0000 I 9.4734 J 1.8480
G02 X 3.9075 Y 6.2354 Z -1.0000 I 3.0660 J 0.5619
G03 X 3.8458 Y 6.5875 Z -1.0000 I -14.4897 J -2.3559
G03 X 3.8055 Y 6.7789 Z -1.0000 I -4.3159 J -0.8101
G02 X 3.7889 Y 6.8559 Z -1.0000 I 2.0770 J 0.4866
G02 X 3.7599 Y 7.0116 Z -1.0000 I 8.4760 J 1.6582
G02 X 3.7572 Y 7.0282 Z -1.0000 I 0.7184 J 0.1271
G02 X 3.7500 Y 7.0765 Z -1.0000 I 6.4263 J 0.9850
G03 X 3.7423 Y 7.1247 Z -1.0000 I -1.8098 J -0.2635
G03 X 3.7283 Y 7.2020 Z -1.0000 I -4.6451 J -0.8035
G01 X 3.6913 Y 7.3966 Z -1.0000
G02 X 3.6409 Y 7.6632 Z -1.0000 I 94.9481 J 18.0644
G02 X 3.6045 Y 7.8598 Z -1.0000 I 51.6349 J 9.6737
G03 X 3.5700 Y 8.0450 Z -1.0000 I -31.7144 J -5.8167
G03 X 3.5618 Y 8.0853 Z -1.0000 I -1.5062 J -0.2854
G02 X 3.5537 Y 8.1255 Z -1.0000 I 1.2351 J 0.2685
G02 X 3.5340 Y 8.2366 Z -1.0000 I 9.3843 J 1.7228
G03 X 3.5072 Y 8.3857 Z -1.0000 I -9.3790 J -1.6075
G03 X 3.4226 Y 8.8295 Z -1.0000 I -83.1839 J -15.6245
G02 X 3.3874 Y 9.0129 Z -1.0000 I 69.3145 J 13.4029
G02 X 3.2743 Y 9.6078 Z -1.0000 I 728.2062 J 138.8114
G02 X 3.2203 Y 9.8928 Z -1.0000 I 361.8167 J 68.6641
G02 X 3.1972 Y 10.0155 Z -1.0000 I 66.7456 J 12.6122
G03 X 3.1810 Y 10.1019 Z -1.0000 I -79.0590 J -14.7945
G03 X 3.1629 Y 10.1977 Z -1.0000 I -84.3047 J -15.8716
G02 X 3.1449 Y 10.2934 Z -1.0000 I 46.9491 J 8.8905
G02 X 3.1167 Y 10.4447 Z -1.0000 I 111.3575 J 20.8520
G03 X 3.0883 Y 10.5960 Z -1.0000 I -43.0728 J -8.0049
G03 X 3.0581 Y 10.7536 Z -1.0000 I -46.6116 J -8.8321
G02 X 3.0279 Y 10.9111 Z -1.0000 I 104.3581 J 20.1392
G02 X 3.0085 Y 11.0130 Z -1.0000 I 43.0363 J 8.2379
G03 X 2.9890 Y 11.1148 Z -1.0000 I -27.5080 J -5.1983
G03 X 2.9745 Y 11.1890 Z -1.0000 I -14.4879 J -2.7935
G02 X 2.8464 Y 11.8796 Z -1.0000 I 28.4418 J 5.6348
G02 X 2.8341 Y 12.0007 Z -1.0000 I 0.8572 J 0.1484
G02 X 2.8396 Y 12.0413 Z -1.0000 I 0.1242 J 0.0039
G01 X 2.8497 Y 12.0511 Z -1.0000
G02 X 2.8668 Y 12.0533 Z -1.0000 I 0.0160 J -0.0579
G02 X 2.8868 Y 12.0506 Z -1.0000 I -0.0015 J -0.0859
G03 X 2.9070 Y 12.0464 Z -1.0000 I 0.0469 J 0.1779
G03 X 2.9460 Y 12.0418 Z -1.0000 I 0.1072 J 0.7317
G02 X 2.9850 Y 12.0373 Z -1.0000 I -0.0794 J -0.8575
G01 X 2.9893 Y 12.0358 Z -1.0000
G01 X 2.9935 Y 12.0343 Z -1.0000
G03 X 3.0426 Y 12.0295 Z -1.0000 I 0.1611 J 1.3789
G02 X 3.0921 Y 12.0256 Z -1.0000 I -1.2752 J -16.5028
G02 X 3.2115 Y 12.0159 Z -1.0000 I -7.3842 J -91.9755
G03 X 3.3394 Y 12.0107 Z -1.0000 I 0.1289 J 1.5879
G03 X 3.3916 Y 12.0158 Z -1.0000 I 0.0002 J 0.2691
G02 X 3.4071 Y 12.0187 Z -1.0000 I 0.1421 J -0.7097
G02 X 3.4680 Y 12.0294 Z -1.0000 I 2.6406 J -14.8589
G02 X 3.5184 Y 12.0207 Z -1.0000 I 0.0131 J -0.0754
G01 X 3.5275 Y 11.9960 Z -1.0000
G03 X 3.5175 Y 11.9351 Z -1.0000 I 0.1497 J -0.0558
G03 X 3.5312 Y 11.8828 Z -1.0000 I 0.1223 J 0.0039
G03 X 3.5763 Y 11.8232 Z -1.0000 I 0.1944 J 0.1005
G01 X 3.6094 Y 11.8099 Z -1.0000
G01 X 3.6180 Y 11.8076 Z -1.0000
G01 X 3.6202 Y 11.8040 Z -1.0000
G01 X 3.6223 Y 11.7998 Z -1.0000
G01 X 3.6341 Y 11.7941 Z -1.0000
G02 X 3.6475 Y 11.7889 Z -1.0000 I -0.0271 J -0.0900
G02 X 3.6634 Y 11.7800 Z -1.0000 I -0.0614 J -0.1285
G03 X 3.6797 Y 11.7726 Z -1.0000 I 0.0336 J 0.0518
G03 X 3.7033 Y 11.7683 Z -1.0000 I 0.0318 J 0.1089
G02 X 3.7258 Y 11.7636 Z -1.0000 I -0.0061 J -0.0844
G01 X 3.7327 Y 11.7577 Z -1.0000
G01 X 3.7397 Y 11.7519 Z -1.0000
G03 X 3.7717 Y 11.7446 Z -1.0000 I 0.0525 J 0.1561
G02 X 3.8035 Y 11.7365 Z -1.0000 I -0.0160 J -0.1288
G01 X 3.8147 Y 11.7277 Z -1.0000
G01 X 3.8226 Y 11.7226 Z -1.0000
G01 X 3.8276 Y 11.7255 Z -1.0000
G01 X 3.8331 Y 11.7304 Z -1.0000
G01 X 3.8403 Y 11.7288 Z -1.0000
G01 X 3.8489 Y 11.7244 Z -1.0000
G01 X 3.8530 Y 11.7256 Z -1.0000
G01 X 3.8570 Y 11.7264 Z -1.0000
G01 X 3.8683 Y 11.7193 Z -1.0000
G01 X 3.8796 Y 11.7138 Z -1.0000
G01 X 3.8935 Y 11.7096 Z -1.0000
G03 X 3.9082 Y 11.7028 Z -1.0000 I 0.0303 J 0.0463
G03 X 3.9379 Y 11.6965 Z -1.0000 I 0.0565 J 0.1929
G02 X 3.9670 Y 11.6902 Z -1.0000 I -0.0263 J -0.1923
G01 X 3.9723 Y 11.6861 Z -1.0000
G01 X 3.9774 Y 11.6814 Z -1.0000
G03 X 3.9912 Y 11.6763 Z -1.0000 I 0.0270 J 0.0520
G03 X 4.0349 Y 11.6666 Z -1.0000 I 0.4184 J 1.7767
G03 X 4.0868 Y 11.6562 Z -1.0000 I 0.5296 J 2.5253
G02 X 4.1179 Y 11.6498 Z -1.0000 I -0.1508 J -0.8089
G02 X 4.1426 Y 11.6437 Z -1.0000 I -0.1509 J -0.6661
G03 X 4.1673 Y 11.6384 Z -1.0000 I 0.0663 J 0.2484
G03 X 4.2009 Y 11.6342 Z -1.0000 I 0.0716 J 0.4377
G02 X 4.2466 Y 11.6279 Z -1.0000 I -0.0375 J -0.4366
G02 X 4.2749 Y 11.6199 Z -1.0000 I -0.0329 J -0.1699
G01 X 4.2844 Y 11.6174 Z -1.0000
G03 X 4.3115 Y 11.6141 Z -1.0000 I 0.0605 J 0.3830
G02 X 4.3380 Y 11.6098 Z -1.0000 I -0.0135 J -0.1687
G01 X 4.3461 Y 11.6058 Z -1.0000
G01 X 4.3541 Y 11.6016 Z -1.0000
G03 X 4.3836 Y 11.5958 Z -1.0000 I 0.0600 J 0.2251
G02 X 4.4127 Y 11.5893 Z -1.0000 I -0.0223 J -0.1685
G01 X 4.4243 Y 11.5828 Z -1.0000
G01 X 4.4350 Y 11.5767 Z -1.0000
G01 X 4.4405 Y 11.5773 Z -1.0000
G01 X 4.4466 Y 11.5787 Z -1.0000
G02 X 4.4795 Y 11.5726 Z -1.0000 I -0.0327 J -0.2687
G03 X 4.5807 Y 11.5496 Z -1.0000 I 0.6313 J 2.5500
G01 X 4.5852 Y 11.5508 Z -1.0000
G01 X 4.6013 Y 11.5445 Z -1.0000
G03 X 4.6164 Y 11.5384 Z -1.0000 I 0.0362 J 0.0674
G03 X 4.6353 Y 11.5347 Z -1.0000 I 0.0300 J 0.1043
G02 X 4.6590 Y 11.5311 Z -1.0000 I -0.0250 J -0.2446
G02 X 4.8493 Y 11.4916 Z -1.0000 I -3.2973 J -16.3286
G03 X 4.9513 Y 11.4701 Z -1.0000 I 2.7909 J 13.0366
G03 X 4.9697 Y 11.4667 Z -1.0000 I 0.0889 J 0.4317
G02 X 5.0277 Y 11.4563 Z -1.0000 I -0.2817 J -1.7261
G02 X 5.0778 Y 11.4453 Z -1.0000 I -0.2393 J -1.2088
G03 X 5.0995 Y 11.4404 Z -1.0000 I 0.1312 J 0.5381
G03 X 5.1550 Y 11.4296 Z -1.0000 I 0.8912 J 4.4173
G02 X 5.2106 Y 11.4191 Z -1.0000 I -1.7717 J -9.5033
G02 X 5.2384 Y 11.4136 Z -1.0000 I -0.7923 J -4.1160
G03 X 5.2826 Y 11.4058 Z -1.0000 I 0.2156 J 1.0861
G03 X 5.4330 Y 11.3832 Z -1.0000 I 1.9047 J 12.1579
G02 X 5.4761 Y 11.3762 Z -1.0000 I -0.1808 J -1.2646
G02 X 5.5226 Y 11.3673 Z -1.0000 I -0.2797 J -1.5712
G03 X 5.5690 Y 11.3584 Z -1.0000 I 0.2996 J 1.4402
G03 X 5.6306 Y 11.3484 Z -1.0000 I 0.4235 J 2.4246
G02 X 5.6924 Y 11.3391 Z -1.0000 I -1.1258 J -7.6489
G02 X 5.7233 Y 11.3341 Z -1.0000 I -0.4666 J -3.0016
G03 X 5.7542 Y 11.3294 Z -1.0000 I 0.1894 J 1.1490
G03 X 5.9209 Y 11.3070 Z -1.0000 I 4.2069 J 30.6293
G02 X 6.0877 Y 11.2847 Z -1.0000 I -5.9084 J -44.8615
G02 X 6.1773 Y 11.2723 Z -1.0000 I -1.8695 J -13.7985
G03 X 6.2669 Y 11.2601 Z -1.0000 I 1.0671 J 7.5093
G03 X 6.3255 Y 11.2530 Z -1.0000 I 0.4123 J 3.1724
G02 X 6.3842 Y 11.2464 Z -1.0000 I -1.7241 J -15.4559
G02 X 6.4027 Y 11.2440 Z -1.0000 I -0.0991 J -0.8585
G03 X 6.4213 Y 11.2417 Z -1.0000 I 0.1042 J 0.7583
G03 X 6.4799 Y 11.2352 Z -1.0000 I 1.6251 J 14.4368
G02 X 6.5386 Y 11.2290 Z -1.0000 I -2.4667 J -23.4142
G02 X 6.6035 Y 11.2219 Z -1.0000 I -4.8831 J -45.2614
G03 X 6.6683 Y 11.2150 Z -1.0000 I 1.4038 J 12.8393
G03 X 6.6868 Y 11.2131 Z -1.0000 I 0.3195 J 3.0655
G02 X 6.8184 Y 11.1988 Z -1.0000 I -0.5268 J -5.4610
G02 X 6.8323 Y 11.1956 Z -1.0000 I -0.0078 J -0.0641
G01 X 6.8415 Y 11.1936 Z -1.0000
G03 X 6.9042 Y 11.1897 Z -1.0000 I 0.1313 J 1.5779
G02 X 6.9668 Y 11.1856 Z -1.0000 I -0.0614 J -1.4173
G01 X 6.9724 Y 11.1838 Z -1.0000
G01 X 6.9781 Y 11.1818 Z -1.0000
G03 X 7.0453 Y 11.1762 Z -1.0000 I 0.1786 J 1.7214
G02 X 7.1549 Y 11.1683 Z -1.0000 I -0.4199 J -6.5833
G01 X 7.1593 Y 11.1671 Z -1.0000
G01 X 7.1626 Y 11.1661 Z -1.0000
G03 X 7.1871 Y 11.1643 Z -1.0000 I 0.0500 J 0.4922
G02 X 7.3136 Y 11.1555 Z -1.0000 I -0.1748 J -3.4217
G02 X 7.4311 Y 11.1429 Z -1.0000 I -0.2777 J -3.1464
G03 X 7.4776 Y 11.1385 Z -1.0000 I 0.0937 J 0.7459
G03 X 7.5824 Y 11.1335 Z -1.0000 I 0.2200 J 3.4949
G02 X 7.6874 Y 11.1293 Z -1.0000 I -0.3771 J -10.8882
G02 X 7.7183 Y 11.1274 Z -1.0000 I -0.0361 J -0.8150
G03 X 7.7492 Y 11.1250 Z -1.0000 I 0.1706 J 2.0703
G03 X 7.8141 Y 11.1209 Z -1.0000 I 0.7641 J 11.3330
G03 X 7.8789 Y 11.1169 Z -1.0000 I 1.9022 J 30.8413
G02 X 7.9191 Y 11.1145 Z -1.0000 I -0.6258 J -10.5056
G03 X 7.9592 Y 11.1122 Z -1.0000 I 0.4271 J 7.2541
G03 X 8.0272 Y 11.1088 Z -1.0000 I 0.7047 J 13.2155
G02 X 8.0951 Y 11.1052 Z -1.0000 I -0.3320 J -6.8918
G02 X 8.1383 Y 11.1023 Z -1.0000 I -0.1431 J -2.4648
G03 X 8.1816 Y 11.0993 Z -1.0000 I 0.2038 J 2.6928
G03 X 8.2433 Y 11.0959 Z -1.0000 I 0.5606 J 9.4121
G03 X 8.3051 Y 11.0926 Z -1.0000 I 2.4142 J 45.5631
G03 X 8.3638 Y 11.0897 Z -1.0000 I 1.4818 J 28.7025
G03 X 8.4225 Y 11.0876 Z -1.0000 I 0.0872 J 1.6548
G03 X 8.7004 Y 11.0839 Z -1.0000 I 0.6483 J 37.7462
G02 X 8.9783 Y 11.0796 Z -1.0000 I -0.2496 J -25.4417
G02 X 9.0432 Y 11.0768 Z -1.0000 I -0.0290 J -1.3987
G03 X 9.1081 Y 11.0731 Z -1.0000 I 0.1953 J 2.9023
G03 X 9.1575 Y 11.0716 Z -1.0000 I 0.0838 J 1.8665
G02 X 9.2069 Y 11.0700 Z -1.0000 I -0.0279 J -1.6138
G02 X 9.2656 Y 11.0664 Z -1.0000 I -0.1070 J -2.2318
G03 X 9.3331 Y 11.0625 Z -1.0000 I 0.1451 J 1.9595
G03 X 9.7597 Y 11.0469 Z -1.0000 I 3.0069 J 76.0696
G03 X 9.9602 Y 11.0416 Z -1.0000 I 0.4448 J 13.1584
G03 X 10.4453 Y 11.0342 Z -1.0000 I 1.3614 J 73.3348
G02 X 10.7444 Y 11.0279 Z -1.0000 I -0.2023 J -16.6985
G02 X 10.7642 Y 11.0246 Z -1.0000 I -0.0022 J -0.0745
G03 X 10.7839 Y 11.0205 Z -1.0000 I 0.0315 J 0.1017
G03 X 10.8136 Y 11.0191 Z -1.0000 I 0.0256 J 0.2282
G02 X 10.8436 Y 11.0185 Z -1.0000 I 0.0063 J -0.4064
G02 X 10.8732 Y 11.0156 Z -1.0000 I -0.0226 J -0.3870
G03 X 10.9017 Y 11.0148 Z -1.0000 I 0.0179 J 0.1327
G01 X 10.9111 Y 11.0187 Z -1.0000
G01 X 10.9207 Y 11.0225 Z -1.0000
G02 X 11.0082 Y 11.0253 Z -1.0000 I 0.0814 J -1.1754
G03 X 11.3590 Y 11.0255 Z -1.0000 I 0.1557 J 37.1436
G03 X 11.4607 Y 11.0277 Z -1.0000 I -0.0162 J 3.0752
G02 X 11.5338 Y 11.0282 Z -1.0000 I 0.0451 J -1.2148
G01 X 11.5471 Y 11.0257 Z -1.0000
G01 X 11.5589 Y 11.0248 Z -1.0000
G01 X 11.5664 Y 11.0296 Z -1.0000
G01 X 11.5745 Y 11.0340 Z -1.0000
G02 X 11.6097 Y 11.0317 Z -1.0000 I 0.0077 J -0.1566
G03 X 11.6515 Y 11.0274 Z -1.0000 I 0.0488 J 0.2696
G03 X 11.7393 Y 11.0283 Z -1.0000 I 0.0315 J 1.2186
G02 X 11.7635 Y 11.0266 Z -1.0000 I 0.0048 J -0.1027
G02 X 11.7948 Y 11.0177 Z -1.0000 I -0.0358 J -0.1853
G03 X 11.8237 Y 11.0127 Z -1.0000 I 0.0269 J 0.0703
G01 X 11.8359 Y 11.0188 Z -1.0000
G02 X 11.8470 Y 11.0302 Z -1.0000 I 0.0652 J -0.0523
G01 X 11.8509 Y 11.0316 Z -1.0000
G01 X 11.8550 Y 11.0328 Z -1.0000
G03 X 11.8768 Y 11.0479 Z -1.0000 I -0.1479 J 0.2370
G02 X 11.9055 Y 11.0588 Z -1.0000 I 0.0329 J -0.0431
G02 X 11.9956 Y 11.0571 Z -1.0000 I 0.0361 J -0.4658
G02 X 12.0995 Y 11.0407 Z -1.0000 I -0.1519 J -1.3035
G02 X 12.1262 Y 11.0312 Z -1.0000 I -0.0188 J -0.0945
G01 X 12.1409 Y 11.0264 Z -1.0000
G03 X 12.1745 Y 11.0242 Z -1.0000 I 0.0303 J 0.2066
G02 X 12.2086 Y 11.0231 Z -1.0000 I 0.0056 J -0.3554
G02 X 12.2489 Y 11.0183 Z -1.0000 I -0.0422 J -0.5250
G03 X 12.3130 Y 11.0097 Z -1.0000 I 0.1951 J 1.2125
G03 X 12.3786 Y 11.0044 Z -1.0000 I 0.1322 J 1.2329
G02 X 12.4246 Y 11.0000 Z -1.0000 I -0.0313 J -0.5690
G02 X 12.4486 Y 10.9947 Z -1.0000 I -0.0207 J -0.1514
G03 X 12.4723 Y 10.9897 Z -1.0000 I 0.0394 J 0.1285
G01 X 12.4809 Y 10.9908 Z -1.0000
G01 X 12.4894 Y 10.9918 Z -1.0000
G02 X 12.5091 Y 10.9872 Z -1.0000 I -0.0123 J -0.0963
G01 X 12.5272 Y 10.9863 Z -1.0000
G01 X 12.5404 Y 10.9945 Z -1.0000
G01 X 12.5536 Y 11.0047 Z -1.0000
G01 X 12.5702 Y 11.0078 Z -1.0000
G03 X 12.5886 Y 11.0069 Z -1.0000 I 54.9196 J 1113.6560
G02 X 12.6071 Y 11.0060 Z -1.0000 I -2.4365 J -50.0076
G01 X 12.6225 Y 11.0022 Z -1.0000
G01 X 12.6256 Y 10.9972 Z -1.0000
G01 X 12.6370 Y 10.9881 Z -1.0000
G03 X 12.8078 Y 11.0366 Z -1.0000 I -0.2943 J 1.3626
G03 X 12.8941 Y 11.0679 Z -1.0000 I -1.8828 J 5.3176
G03 X 12.9653 Y 11.0952 Z -1.0000 I -1.3605 J 3.6524
G02 X 13.1414 Y 11.1615 Z -1.0000 I 2.1092 J -5.3400
G02 X 13.1771 Y 11.1710 Z -1.0000 I 0.0747 J -0.2089
G01 X 13.2056 Y 11.1627 Z -1.0000
G02 X 13.2472 Y 11.1064 Z -1.0000 I -0.1262 J -0.1368
G02 X 13.2639 Y 11.0545 Z -1.0000 I -0.1813 J -0.0869
G02 X 13.2834 Y 10.9019 Z -1.0000 I -1.5768 J -0.2793
G03 X 13.2869 Y 10.8618 Z -1.0000 I 3.4756 J 0.2833
G03 X 13.2932 Y 10.7969 Z -1.0000 I 8.4430 J 0.7865
G02 X 13.2996 Y 10.7321 Z -1.0000 I -6.0896 J -0.6317
G02 X 13.3001 Y 10.7228 Z -1.0000 I -0.1262 J -0.0117
G03 X 13.3006 Y 10.7135 Z -1.0000 I 0.1767 J 0.0043
G03 X 13.3064 Y 10.6425 Z -1.0000 I 7.2153 J 0.5563
G02 X 13.3144 Y 10.5390 Z -1.0000 I -6.2516 J -0.5331
G02 X 13.3202 Y 10.4418 Z -1.0000 I -5.5941 J -0.3840
G03 X 13.3257 Y 10.3616 Z -1.0000 I 2.4049 J 0.1253
G03 X 13.3300 Y 10.3275 Z -1.0000 I 0.4339 J 0.0371
G02 X 13.3347 Y 10.2934 Z -1.0000 I -0.6423 J -0.1066
G02 X 13.3386 Y 10.2503 Z -1.0000 I -0.9688 J -0.1086
G03 X 13.3500 Y 10.1173 Z -1.0000 I 3.6664 J 0.2468
G03 X 13.3576 Y 10.0681 Z -1.0000 I 0.4927 J 0.0512
G02 X 13.3638 Y 10.0227 Z -1.0000 I -0.3187 J -0.0664
G02 X 13.3703 Y 9.8735 Z -1.0000 I -3.5312 J -0.2288
G03 X 13.3733 Y 9.7871 Z -1.0000 I 3.6894 J 0.0853
G03 X 13.3752 Y 9.7685 Z -1.0000 I 0.1714 J 0.0080
G03 X 13.3781 Y 9.7500 Z -1.0000 I 12.6867 J 1.9920
G02 X 13.3819 Y 9.7253 Z -1.0000 I -2.2260 J -0.3529
G03 X 13.3859 Y 9.7006 Z -1.0000 I 1.5161 J 0.2343
G03 X 13.3885 Y 9.6875 Z -1.0000 I 0.2691 J 0.0461
G02 X 13.3997 Y 9.5948 Z -1.0000 I -0.4960 J -0.1073
G01 X 13.3915 Y 9.5863 Z -1.0000
G01 X 13.3837 Y 9.5780 Z -1.0000
G03 X 13.3969 Y 9.5025 Z -1.0000 I 0.3533 J 0.0228
G01 X 13.3983 Y 9.4839 Z -1.0000
G02 X 13.3918 Y 9.4618 Z -1.0000 I -0.0711 J 0.0091
G03 X 13.3838 Y 9.4396 Z -1.0000 I 0.0993 J -0.0482
G01 X 13.3829 Y 9.4252 Z -1.0000
G02 X 13.3848 Y 9.4050 Z -1.0000 I -0.6483 J -0.0715
G02 X 13.3942 Y 9.2806 Z -1.0000 I -21.2230 J -1.6747
G03 X 13.3985 Y 9.2250 Z -1.0000 I 5.0349 J 0.3623
G03 X 13.4043 Y 9.1601 Z -1.0000 I 6.3660 J 0.5288
G02 X 13.4100 Y 9.0952 Z -1.0000 I -6.6995 J -0.6198
G02 X 13.4163 Y 9.0150 Z -1.0000 I -12.5199 J -1.0362
G03 X 13.4244 Y 8.9350 Z -1.0000 I 1.6893 J 0.1301
G03 X 13.4295 Y 8.9100 Z -1.0000 I 0.1680 J 0.0210
G03 X 13.4536 Y 8.8345 Z -1.0000 I 1.2034 J 0.3430
G01 X 13.4607 Y 8.8219 Z -1.0000
G01 X 13.4644 Y 8.8128 Z -1.0000
G02 X 13.4690 Y 8.7036 Z -1.0000 I -1.9903 J -0.1388
G03 X 13.4738 Y 8.5941 Z -1.0000 I 1.9023 J 0.0273
G01 X 13.4779 Y 8.5797 Z -1.0000
G01 X 13.4828 Y 8.5660 Z -1.0000
G01 X 13.4822 Y 8.5584 Z -1.0000
G01 X 13.4811 Y 8.5503 Z -1.0000
G03 X 13.4880 Y 8.4708 Z -1.0000 I 1.8082 J 0.1186
G02 X 13.4957 Y 8.3910 Z -1.0000 I -2.5508 J -0.2850
G02 X 13.4997 Y 8.3263 Z -1.0000 I -1.7939 J -0.1439
G03 X 13.5032 Y 8.2615 Z -1.0000 I 3.3542 J 0.1505
G03 X 13.5089 Y 8.1842 Z -1.0000 I 4.2743 J 0.2746
G02 X 13.5146 Y 8.1070 Z -1.0000 I -4.1548 J -0.3425
G02 X 13.5181 Y 8.0410 Z -1.0000 I -3.3634 J -0.2144
G03 X 13.5220 Y 7.9752 Z -1.0000 I 2.1562 J 0.0951
G03 X 13.5244 Y 7.9577 Z -1.0000 I 0.1459 J 0.0109
G02 X 13.5271 Y 7.9401 Z -1.0000 I -0.2033 J -0.0402
G02 X 13.5304 Y 7.9032 Z -1.0000 I -0.8966 J -0.0988
G03 X 13.5332 Y 7.8661 Z -1.0000 I 3.3044 J 0.2270
G03 X 13.5393 Y 7.7920 Z -1.0000 I 12.6954 J 1.0153
G02 X 13.5453 Y 7.7178 Z -1.0000 I -7.2763 J -0.6247
G02 X 13.5528 Y 7.6129 Z -1.0000 I -12.2893 J -0.9290
G03 X 13.5618 Y 7.5086 Z -1.0000 I 2.7480 J 0.1856
G01 X 13.5645 Y 7.5017 Z -1.0000
G02 X 13.5781 Y 7.4589 Z -1.0000 I -0.0551 J -0.0411
G02 X 13.5606 Y 7.3380 Z -1.0000 I -0.5109 J 0.0122
G03 X 13.5534 Y 7.2599 Z -1.0000 I 0.2210 J -0.0597
G03 X 13.5744 Y 7.1663 Z -1.0000 I 0.3423 J 0.0276
G02 X 13.5874 Y 7.1242 Z -1.0000 I -0.3348 J -0.1265
G02 X 13.5987 Y 7.0663 Z -1.0000 I -0.6305 J -0.1531
G02 X 13.6065 Y 7.0020 Z -1.0000 I -1.2439 J -0.1836
G02 X 13.6175 Y 6.8686 Z -1.0000 I -5.2750 J -0.5029
G03 X 13.6226 Y 6.8163 Z -1.0000 I 0.9669 J 0.0670
G03 X 13.6296 Y 6.7718 Z -1.0000 I 0.6833 J 0.0847
G02 X 13.6355 Y 6.7273 Z -1.0000 I -0.4041 J -0.0762
G02 X 13.6361 Y 6.6884 Z -1.0000 I -0.3133 J -0.0243
G03 X 13.6385 Y 6.6380 Z -1.0000 I 0.2658 J -0.0124
G03 X 13.6524 Y 6.5762 Z -1.0000 I 0.4085 J 0.0589
G01 X 13.6597 Y 6.5524 Z -1.0000
G01 X 13.7002 Y 6.5566 Z -1.0000
G03 X 13.7397 Y 6.5629 Z -1.0000 I -0.0377 J 0.3655
G01 X 13.7465 Y 6.5665 Z -1.0000
G01 X 13.7530 Y 6.5706 Z -1.0000
G01 X 13.7620 Y 6.5722 Z -1.0000
G01 X 13.7712 Y 6.5738 Z -1.0000
G03 X 13.7899 Y 6.5818 Z -1.0000 I -0.0478 J 0.1373
G02 X 13.8086 Y 6.5887 Z -1.0000 I 0.0363 J -0.0693
G01 X 13.8189 Y 6.5886 Z -1.0000
G01 X 13.8278 Y 6.5890 Z -1.0000
G01 X 13.8324 Y 6.5935 Z -1.0000
G01 X 13.8375 Y 6.5984 Z -1.0000
G02 X 13.8674 Y 6.6050 Z -1.0000 I 0.0476 J -0.1447
G03 X 13.8987 Y 6.6106 Z -1.0000 I -0.0312 J 0.2622
G01 X 13.9065 Y 6.6145 Z -1.0000
G01 X 13.9144 Y 6.6186 Z -1.0000
G02 X 13.9692 Y 6.6334 Z -1.0000 I 0.2710 J -0.8920
G03 X 14.0243 Y 6.6480 Z -1.0000 I -0.2792 J 1.1692
G03 X 14.0355 Y 6.6527 Z -1.0000 I -0.0150 J 0.0517
G01 X 14.0466 Y 6.6572 Z -1.0000
G01 X 14.0579 Y 6.6587 Z -1.0000
G01 X 14.0693 Y 6.6602 Z -1.0000
G03 X 14.0912 Y 6.6677 Z -1.0000 I -0.0489 J 0.1794
G02 X 14.1326 Y 6.6821 Z -1.0000 I 0.1413 J -0.3379
G02 X 14.2472 Y 6.7119 Z -1.0000 I 0.7295 J -2.5736
G03 X 14.2840 Y 6.7213 Z -1.0000 I -0.2360 J 1.0021
G03 X 14.3027 Y 6.7271 Z -1.0000 I -0.0747 J 0.2719
G02 X 14.3759 Y 6.7508 Z -1.0000 I 0.5091 J -1.4506
G02 X 14.4263 Y 6.7637 Z -1.0000 I 0.1994 J -0.6743
G03 X 14.5253 Y 6.7876 Z -1.0000 I -0.4460 J 2.0574
G01 X 14.5359 Y 6.7930 Z -1.0000
G01 X 14.5444 Y 6.7976 Z -1.0000
G02 X 14.5698 Y 6.8036 Z -1.0000 I 0.0553 J -0.1760
G03 X 14.5948 Y 6.8098 Z -1.0000 I -0.0265 J 0.1591
G01 X 14.5995 Y 6.8136 Z -1.0000
G01 X 14.6042 Y 6.8171 Z -1.0000
G02 X 14.6209 Y 6.8192 Z -1.0000 I 0.0167 J -0.0641
G03 X 14.6385 Y 6.8208 Z -1.0000 I 0.0000 J 0.0994
G03 X 14.6530 Y 6.8249 Z -1.0000 I -0.0133 J 0.0741
G02 X 14.7204 Y 6.8474 Z -1.0000 I 0.2242 J -0.5600
G02 X 14.8494 Y 6.8778 Z -1.0000 I 0.5441 J -2.0217
G03 X 14.8891 Y 6.8875 Z -1.0000 I -0.1027 J 0.5041
G03 X 14.9309 Y 6.9013 Z -1.0000 I -0.1603 J 0.5564
G02 X 14.9717 Y 6.9144 Z -1.0000 I 0.1631 J -0.4364
G01 X 14.9754 Y 6.9135 Z -1.0000
G01 X 14.9791 Y 6.9124 Z -1.0000
G03 X 14.9986 Y 6.9185 Z -1.0000 I -0.0243 J 0.1115
G02 X 15.0187 Y 6.9258 Z -1.0000 I 0.1057 J -0.2570
G02 X 15.0281 Y 6.9281 Z -1.0000 I 0.0183 J -0.0564
G03 X 15.0375 Y 6.9302 Z -1.0000 I -0.0079 J 0.0564
G03 X 15.0655 Y 6.9401 Z -1.0000 I -0.1507 J 0.4730
G02 X 15.0938 Y 6.9486 Z -1.0000 I 0.0713 J -0.1848
G02 X 15.1211 Y 6.9525 Z -1.0000 I 0.0387 J -0.1740
G03 X 15.1783 Y 6.9609 Z -1.0000 I -0.0228 J 0.3526
G03 X 15.2152 Y 6.9744 Z -1.0000 I -0.0369 J 0.1587
G01 X 15.2263 Y 6.9784 Z -1.0000
G02 X 15.2390 Y 6.9799 Z -1.0000 I 0.0127 J -0.0544
G03 X 15.2518 Y 6.9815 Z -1.0000 I -0.0000 J 0.0507
G03 X 15.2715 Y 6.9883 Z -1.0000 I -0.0346 J 0.1333
G02 X 15.2967 Y 6.9967 Z -1.0000 I 0.0605 J -0.1395
G02 X 15.4034 Y 7.0199 Z -1.0000 I 0.6084 J -2.5451
G03 X 15.4477 Y 7.0293 Z -1.0000 I -0.2582 J 1.3166
G03 X 15.4714 Y 7.0356 Z -1.0000 I -0.0839 J 0.3626
G02 X 15.4950 Y 7.0416 Z -1.0000 I 0.0795 J -0.2629
G02 X 15.5195 Y 7.0456 Z -1.0000 I 0.0585 J -0.2817
G03 X 15.5441 Y 7.0493 Z -1.0000 I -0.0446 J 0.3787
G03 X 15.5689 Y 7.0547 Z -1.0000 I -0.0734 J 0.3982
G02 X 15.6537 Y 7.0751 Z -1.0000 I 1.0917 J -4.3667
G02 X 15.7419 Y 7.0944 Z -1.0000 I 1.0750 J -4.6838
G03 X 15.8160 Y 7.1101 Z -1.0000 I -2078.4876 J 9853.4266
G03 X 15.8283 Y 7.1127 Z -1.0000 I -0.2118 J 1.0038
G02 X 15.8407 Y 7.1153 Z -1.0000 I 0.1039 J -0.4711
G02 X 15.8777 Y 7.1222 Z -1.0000 I 0.6337 J -3.2795
G03 X 15.9148 Y 7.1291 Z -1.0000 I -1.0738 J 5.9147
G03 X 15.9426 Y 7.1343 Z -1.0000 I -12.0541 J 64.1062
G02 X 15.9704 Y 7.1395 Z -1.0000 I 0.5495 J -2.8970
G02 X 16.0291 Y 7.1498 Z -1.0000 I 1.5912 J -8.8527
G03 X 16.0875 Y 7.1608 Z -1.0000 I -0.3636 J 2.0954
G03 X 16.0970 Y 7.1636 Z -1.0000 I -0.0114 J 0.0561
G02 X 16.1064 Y 7.1665 Z -1.0000 I 0.0255 J -0.0651
G02 X 16.1186 Y 7.1687 Z -1.0000 I 0.0247 J -0.1046
G03 X 16.1309 Y 7.1708 Z -1.0000 I -0.0152 J 0.1237
G03 X 16.1557 Y 7.1771 Z -1.0000 I -0.1118 J 0.4948
G02 X 16.1806 Y 7.1829 Z -1.0000 I 0.0807 J -0.2885
G02 X 16.2391 Y 7.1929 Z -1.0000 I 0.3105 J -1.6397
G03 X 16.2977 Y 7.2023 Z -1.0000 I -0.5542 J 3.6496
G03 X 16.3688 Y 7.2147 Z -1.0000 I -0.9979 J 5.9283
G02 X 16.4398 Y 7.2274 Z -1.0000 I 1.8114 J -9.9677
G02 X 16.5108 Y 7.2395 Z -1.0000 I 2.3445 J -13.4454
G03 X 16.6894 Y 7.2714 Z -1.0000 I -1.6742 J 9.9038
G03 X 16.8073 Y 7.2952 Z -1.0000 I -0.8106 J 4.3195
G02 X 16.8353 Y 7.3003 Z -1.0000 I 0.0906 J -0.4198
G02 X 16.8691 Y 7.3043 Z -1.0000 I 0.0892 J -0.6049
G03 X 16.9027 Y 7.3092 Z -1.0000 I -0.0278 J 0.3052
G03 X 16.9278 Y 7.3162 Z -1.0000 I -0.0371 J 0.1818
G02 X 16.9528 Y 7.3238 Z -1.0000 I 0.0836 J -0.2319
G02 X 16.9772 Y 7.3284 Z -1.0000 I 0.0560 J -0.2289
G03 X 17.0223 Y 7.3359 Z -1.0000 I -0.1058 J 0.7746
G03 X 17.1439 Y 7.3613 Z -1.0000 I -1.0792 J 5.4867
G03 X 17.1682 Y 7.3680 Z -1.0000 I -0.0505 J 0.2289
G03 X 17.1829 Y 7.3744 Z -1.0000 I -0.0308 J 0.0914
G01 X 17.1976 Y 7.3790 Z -1.0000
G02 X 17.2148 Y 7.3782 Z -1.0000 I 0.0061 J -0.0504
G01 X 17.2310 Y 7.3776 Z -1.0000
G01 X 17.2367 Y 7.3814 Z -1.0000
G01 X 17.2427 Y 7.3854 Z -1.0000
G02 X 17.2697 Y 7.3869 Z -1.0000 I 0.0202 J -0.1230
G03 X 17.3008 Y 7.3894 Z -1.0000 I 0.0063 J 0.1135
G03 X 17.3434 Y 7.4033 Z -1.0000 I -0.0514 J 0.2300
G01 X 17.3632 Y 7.4052 Z -1.0000
G01 X 17.3694 Y 7.3976 Z -1.0000
G01 X 17.3665 Y 7.3843 Z -1.0000
G01 X 17.3581 Y 7.3729 Z -1.0000
G01 X 17.3438 Y 7.3671 Z -1.0000
G01 X 17.3385 Y 7.3723 Z -1.0000
G01 X 17.3361 Y 7.3775 Z -1.0000
G01 X 17.3320 Y 7.3779 Z -1.0000
G01 X 17.3296 Y 7.3732 Z -1.0000
G01 X 17.3328 Y 7.3651 Z -1.0000
G01 X 17.3457 Y 7.3592 Z -1.0000
G03 X 17.3716 Y 7.3657 Z -1.0000 I -0.0009 J 0.0579
G02 X 17.3899 Y 7.3723 Z -1.0000 I 0.0321 J -0.0611
G02 X 17.4163 Y 7.3749 Z -1.0000 I 0.0264 J -0.1295
G03 X 17.4410 Y 7.3792 Z -1.0000 I -0.0000 J 0.0735
G01 X 17.4511 Y 7.3873 Z -1.0000
G01 X 17.4613 Y 7.3906 Z -1.0000
G01 X 17.4682 Y 7.3804 Z -1.0000
G01 X 17.4724 Y 7.3699 Z -1.0000
G01 X 17.4786 Y 7.3696 Z -1.0000
G01 X 17.4851 Y 7.3676 Z -1.0000
G01 X 17.4862 Y 7.3621 Z -1.0000
G01 X 17.4912 Y 7.3610 Z -1.0000
G01 X 17.4961 Y 7.3597 Z -1.0000
G01 X 17.4970 Y 7.3538 Z -1.0000
G01 X 17.4993 Y 7.3479 Z -1.0000
G01 X 17.5145 Y 7.3453 Z -1.0000
G01 X 17.5321 Y 7.3432 Z -1.0000
G01 X 17.5362 Y 7.3374 Z -1.0000
G01 X 17.5335 Y 7.3288 Z -1.0000
G01 X 17.5263 Y 7.3231 Z -1.0000
G01 X 17.5203 Y 7.3176 Z -1.0000
G01 X 17.5200 Y 7.3099 Z -1.0000
G01 X 17.5188 Y 7.3027 Z -1.0000
G01 X 17.5068 Y 7.2941 Z -1.0000
G01 X 17.4919 Y 7.2915 Z -1.0000
G01 X 17.4879 Y 7.2943 Z -1.0000
G01 X 17.4842 Y 7.2988 Z -1.0000
G01 X 17.4762 Y 7.3009 Z -1.0000
G01 X 17.4710 Y 7.2977 Z -1.0000
G01 X 17.4700 Y 7.2886 Z -1.0000
G01 X 17.4657 Y 7.2809 Z -1.0000
G01 X 17.4493 Y 7.2826 Z -1.0000
G01 X 17.4408 Y 7.2833 Z -1.0000
G01 X 17.4374 Y 7.2787 Z -1.0000
G01 X 17.4334 Y 7.2732 Z -1.0000
G01 X 17.4181 Y 7.2723 Z -1.0000
G03 X 17.3987 Y 7.2758 Z -1.0000 I -0.1078 J -0.5451
G01 X 17.3934 Y 7.2762 Z -1.0000
G01 X 17.3898 Y 7.2781 Z -1.0000
G01 X 17.3880 Y 7.2842 Z -1.0000
G01 X 17.3761 Y 7.3016 Z -1.0000
G03 X 17.3154 Y 7.3132 Z -1.0000 I -0.0605 J -0.1517
G01 X 17.3039 Y 7.3108 Z -1.0000
G01 X 17.3015 Y 7.3070 Z -1.0000
G01 X 17.3036 Y 7.3030 Z -1.0000
G01 X 17.3108 Y 7.3008 Z -1.0000
G01 X 17.3179 Y 7.2987 Z -1.0000
G01 X 17.3201 Y 7.2946 Z -1.0000
G01 X 17.3166 Y 7.2913 Z -1.0000
G01 X 17.2993 Y 7.2954 Z -1.0000
G01 X 17.2899 Y 7.3056 Z -1.0000
G02 X 17.2871 Y 7.3302 Z -1.0000 I 0.0530 J 0.0185
G01 X 17.2847 Y 7.3508 Z -1.0000
G01 X 17.2789 Y 7.3534 Z -1.0000
G02 X 17.2674 Y 7.3492 Z -1.0000 I -0.0479 J 0.1141
G02 X 17.2537 Y 7.3457 Z -1.0000 I -0.0452 J 0.1470
G01 X 17.2426 Y 7.3404 Z -1.0000
G01 X 17.2398 Y 7.3346 Z -1.0000
G01 X 17.2377 Y 7.3281 Z -1.0000
G01 X 17.2321 Y 7.3238 Z -1.0000
G01 X 17.2290 Y 7.3194 Z -1.0000
G01 X 17.2320 Y 7.3081 Z -1.0000
G01 X 17.2358 Y 7.2962 Z -1.0000
G01 X 17.2335 Y 7.2915 Z -1.0000
G01 X 17.2147 Y 7.2907 Z -1.0000
G01 X 17.2008 Y 7.3079 Z -1.0000
G01 X 17.1957 Y 7.3163 Z -1.0000
G01 X 17.1911 Y 7.3168 Z -1.0000
G01 X 17.1875 Y 7.3120 Z -1.0000
G01 X 17.1879 Y 7.3046 Z -1.0000
G01 X 17.1859 Y 7.2993 Z -1.0000
G02 X 17.1660 Y 7.2924 Z -1.0000 I -0.0294 J 0.0525
G01 X 17.1510 Y 7.2822 Z -1.0000
G01 X 17.1548 Y 7.2735 Z -1.0000
G02 X 17.1687 Y 7.2705 Z -1.0000 I -4.2631 J -20.2496
G02 X 17.1811 Y 7.2679 Z -1.0000 I -0.2836 J -1.3425
G01 X 17.1567 Y 7.2646 Z -1.0000
G01 X 17.1273 Y 7.2713 Z -1.0000
G01 X 17.1315 Y 7.2831 Z -1.0000
G01 X 17.1254 Y 7.2886 Z -1.0000
G01 X 17.1193 Y 7.2854 Z -1.0000
G01 X 17.1161 Y 7.2755 Z -1.0000
G01 X 17.1122 Y 7.2674 Z -1.0000
G01 X 17.1038 Y 7.2657 Z -1.0000
G01 X 17.0914 Y 7.2644 Z -1.0000
G01 X 17.0636 Y 7.2610 Z -1.0000
G03 X 17.0393 Y 7.2585 Z -1.0000 I -0.0035 J -0.0846
G01 X 17.0358 Y 7.2540 Z -1.0000
G01 X 17.0334 Y 7.2473 Z -1.0000
G01 X 17.0235 Y 7.2392 Z -1.0000
G01 X 17.0136 Y 7.2311 Z -1.0000
G01 X 17.0111 Y 7.2243 Z -1.0000
G01 X 17.0019 Y 7.2063 Z -1.0000
G01 X 16.9906 Y 7.2096 Z -1.0000
G01 X 16.9867 Y 7.2119 Z -1.0000
G01 X 16.9808 Y 7.2083 Z -1.0000
G01 X 16.9768 Y 7.2070 Z -1.0000
G01 X 16.9742 Y 7.2106 Z -1.0000
G01 X 16.9778 Y 7.2173 Z -1.0000
G01 X 16.9868 Y 7.2188 Z -1.0000
G01 X 16.9948 Y 7.2207 Z -1.0000
G01 X 16.9976 Y 7.2284 Z -1.0000
G01 X 16.9927 Y 7.2381 Z -1.0000
G01 X 16.9834 Y 7.2423 Z -1.0000
G02 X 16.9712 Y 7.2441 Z -1.0000 I 0.0080 J 0.0987
G02 X 16.9571 Y 7.2478 Z -1.0000 I 0.0266 J 0.1281
G01 X 16.9458 Y 7.2488 Z -1.0000
G01 X 16.9432 Y 7.2457 Z -1.0000
G01 X 16.9451 Y 7.2410 Z -1.0000
G01 X 16.9494 Y 7.2391 Z -1.0000
G01 X 16.9538 Y 7.2373 Z -1.0000
G01 X 16.9556 Y 7.2329 Z -1.0000
G01 X 16.9479 Y 7.2271 Z -1.0000
G01 X 16.9287 Y 7.2406 Z -1.0000
G01 X 16.9187 Y 7.2465 Z -1.0000
G01 X 16.9095 Y 7.2425 Z -1.0000
G01 X 16.8988 Y 7.2326 Z -1.0000
G01 X 16.8892 Y 7.2287 Z -1.0000
G02 X 16.8784 Y 7.2267 Z -1.0000 I -0.1756 J 0.9581
G03 X 16.8475 Y 7.2214 Z -1.0000 I 1.1001 J -6.4101
G01 X 16.8244 Y 7.2152 Z -1.0000
G01 X 16.8296 Y 7.2122 Z -1.0000
G01 X 16.8321 Y 7.2051 Z -1.0000
G01 X 16.8285 Y 7.1994 Z -1.0000
G01 X 16.8131 Y 7.1958 Z -1.0000
G03 X 16.7947 Y 7.1939 Z -1.0000 I 0.0000 J -0.0904
G01 X 16.7823 Y 7.1894 Z -1.0000
G01 X 16.7703 Y 7.1871 Z -1.0000
G02 X 16.7518 Y 7.1926 Z -1.0000 I 0.0057 J 0.0528
G01 X 16.7368 Y 7.1963 Z -1.0000
G01 X 16.7332 Y 7.1928 Z -1.0000
G01 X 16.7241 Y 7.1830 Z -1.0000
G01 X 16.7036 Y 7.1908 Z -1.0000
G01 X 16.6991 Y 7.1910 Z -1.0000
G01 X 16.6962 Y 7.1846 Z -1.0000
G01 X 16.6893 Y 7.1761 Z -1.0000
G01 X 16.6754 Y 7.1803 Z -1.0000
G01 X 16.6560 Y 7.1859 Z -1.0000
G01 X 16.6483 Y 7.1741 Z -1.0000
G01 X 16.6458 Y 7.1631 Z -1.0000
G01 X 16.6370 Y 7.1586 Z -1.0000
G01 X 16.6240 Y 7.1608 Z -1.0000
G01 X 16.6190 Y 7.1648 Z -1.0000
G01 X 16.6058 Y 7.1699 Z -1.0000
G01 X 16.5973 Y 7.1586 Z -1.0000
G01 X 16.5907 Y 7.1506 Z -1.0000
G02 X 16.5619 Y 7.1520 Z -1.0000 I -0.0115 J 0.0616
G03 X 16.5431 Y 7.1546 Z -1.0000 I -0.0181 J -0.0629
G01 X 16.5383 Y 7.1518 Z -1.0000
G01 X 16.5333 Y 7.1487 Z -1.0000
G02 X 16.5104 Y 7.1488 Z -1.0000 I -0.0110 J 0.0995
G01 X 16.4943 Y 7.1440 Z -1.0000
G01 X 16.4939 Y 7.1348 Z -1.0000
G01 X 16.4722 Y 7.1285 Z -1.0000
G02 X 16.4492 Y 7.1345 Z -1.0000 I 0.0030 J 0.0588
G01 X 16.4464 Y 7.1412 Z -1.0000
G01 X 16.4466 Y 7.1500 Z -1.0000
G01 X 16.4434 Y 7.1524 Z -1.0000
G01 X 16.4387 Y 7.1506 Z -1.0000
G01 X 16.4368 Y 7.1462 Z -1.0000
G01 X 16.4345 Y 7.1423 Z -1.0000
G01 X 16.4259 Y 7.1400 Z -1.0000
G01 X 16.4166 Y 7.1372 Z -1.0000
G01 X 16.4073 Y 7.1277 Z -1.0000
G01 X 16.3982 Y 7.1178 Z -1.0000
G01 X 16.3905 Y 7.1153 Z -1.0000
G01 X 16.3829 Y 7.1126 Z -1.0000
G03 X 16.3714 Y 7.0999 Z -1.0000 I 0.0340 J -0.0424
G01 X 16.3586 Y 7.0943 Z -1.0000
G01 X 16.3534 Y 7.1029 Z -1.0000
G01 X 16.3538 Y 7.1130 Z -1.0000
G01 X 16.3496 Y 7.1188 Z -1.0000
G01 X 16.3469 Y 7.1158 Z -1.0000
G01 X 16.3293 Y 7.1125 Z -1.0000
G03 X 16.3078 Y 7.1134 Z -1.0000 I -0.0139 J -0.0753
G01 X 16.2981 Y 7.1093 Z -1.0000
G01 X 16.2885 Y 7.1050 Z -1.0000
G01 X 16.2765 Y 7.1059 Z -1.0000
G01 X 16.2613 Y 7.1002 Z -1.0000
G01 X 16.2626 Y 7.0827 Z -1.0000
G01 X 16.2614 Y 7.0787 Z -1.0000
G02 X 16.2357 Y 7.0751 Z -1.0000 I -0.0257 J 0.0913
G02 X 16.2055 Y 7.0789 Z -1.0000 I -0.0000 J 0.1232
G01 X 16.2007 Y 7.0839 Z -1.0000
G01 X 16.1971 Y 7.0865 Z -1.0000
G01 X 16.1882 Y 7.0819 Z -1.0000
G01 X 16.1774 Y 7.0775 Z -1.0000
G01 X 16.1666 Y 7.0820 Z -1.0000
G01 X 16.1585 Y 7.0844 Z -1.0000
G01 X 16.1538 Y 7.0794 Z -1.0000
G01 X 16.1483 Y 7.0700 Z -1.0000
G01 X 16.1359 Y 7.0659 Z -1.0000
G01 X 16.1292 Y 7.0618 Z -1.0000
G01 X 16.1302 Y 7.0546 Z -1.0000
G02 X 16.1393 Y 7.0429 Z -1.0000 I -0.0740 J -0.0669
G01 X 16.1404 Y 7.0391 Z -1.0000
G01 X 16.1331 Y 7.0329 Z -1.0000
G01 X 16.1100 Y 7.0435 Z -1.0000
G03 X 16.0741 Y 7.0612 Z -1.0000 I -0.0506 J -0.0575
G01 X 16.0572 Y 7.0539 Z -1.0000
G01 X 16.0475 Y 7.0495 Z -1.0000
G01 X 16.0416 Y 7.0566 Z -1.0000
G01 X 16.0360 Y 7.0608 Z -1.0000
G01 X 16.0260 Y 7.0524 Z -1.0000
G01 X 16.0182 Y 7.0409 Z -1.0000
G01 X 16.0107 Y 7.0364 Z -1.0000
G01 X 16.0106 Y 7.0404 Z -1.0000
G01 X 16.0148 Y 7.0473 Z -1.0000
G01 X 16.0124 Y 7.0542 Z -1.0000
G01 X 16.0048 Y 7.0573 Z -1.0000
G01 X 15.9958 Y 7.0540 Z -1.0000
G01 X 15.9863 Y 7.0494 Z -1.0000
G01 X 15.9797 Y 7.0506 Z -1.0000
G01 X 15.9735 Y 7.0509 Z -1.0000
G01 X 15.9641 Y 7.0434 Z -1.0000
G01 X 15.9556 Y 7.0384 Z -1.0000
G01 X 15.9492 Y 7.0412 Z -1.0000
G01 X 15.9420 Y 7.0454 Z -1.0000
G01 X 15.9307 Y 7.0427 Z -1.0000
G02 X 15.9176 Y 7.0371 Z -1.0000 I -0.0263 J 0.0432
G02 X 15.9011 Y 7.0349 Z -1.0000 I -0.0164 J 0.0608
G03 X 15.8735 Y 7.0274 Z -1.0000 I 0.0003 J -0.0560
G01 X 15.8710 Y 7.0176 Z -1.0000
G01 X 15.8667 Y 7.0090 Z -1.0000
G01 X 15.8494 Y 7.0158 Z -1.0000
G03 X 15.8183 Y 7.0322 Z -1.0000 I -0.0392 J -0.0365
G01 X 15.8069 Y 7.0224 Z -1.0000
G01 X 15.8052 Y 7.0166 Z -1.0000
G02 X 15.7941 Y 7.0023 Z -1.0000 I -0.0843 J 0.0539
G01 X 15.7817 Y 6.9959 Z -1.0000
G01 X 15.7733 Y 6.9995 Z -1.0000
G01 X 15.7634 Y 7.0028 Z -1.0000
G01 X 15.7574 Y 6.9949 Z -1.0000
G01 X 15.7529 Y 6.9840 Z -1.0000
G01 X 15.7420 Y 6.9794 Z -1.0000
G01 X 15.7291 Y 6.9769 Z -1.0000
G01 X 15.7266 Y 6.9732 Z -1.0000
G01 X 15.7245 Y 6.9692 Z -1.0000
G01 X 15.7178 Y 6.9670 Z -1.0000
G01 X 15.7105 Y 6.9651 Z -1.0000
G01 X 15.7068 Y 6.9605 Z -1.0000
G01 X 15.7031 Y 6.9572 Z -1.0000
G01 X 15.6944 Y 6.9579 Z -1.0000
G01 X 15.6881 Y 6.9637 Z -1.0000
G01 X 15.6878 Y 6.9715 Z -1.0000
G01 X 15.6874 Y 6.9772 Z -1.0000
G01 X 15.6839 Y 6.9786 Z -1.0000
G01 X 15.6780 Y 6.9747 Z -1.0000
G01 X 15.6764 Y 6.9700 Z -1.0000
G01 X 15.6654 Y 6.9551 Z -1.0000
G01 X 15.6442 Y 6.9605 Z -1.0000
G01 X 15.6432 Y 6.9656 Z -1.0000
G01 X 15.6483 Y 6.9706 Z -1.0000
G01 X 15.6495 Y 6.9772 Z -1.0000
G01 X 15.6336 Y 6.9834 Z -1.0000
G03 X 15.6139 Y 6.9802 Z -1.0000 I -0.0014 J -0.0543
G01 X 15.6117 Y 6.9756 Z -1.0000
G01 X 15.6102 Y 6.9704 Z -1.0000
G01 X 15.6001 Y 6.9671 Z -1.0000
G01 X 15.5894 Y 6.9619 Z -1.0000
G03 X 15.5794 Y 6.9408 Z -1.0000 I 0.0412 J -0.0325
G01 X 15.5735 Y 6.9146 Z -1.0000
G01 X 15.5728 Y 6.9408 Z -1.0000
G01 X 15.5661 Y 6.9576 Z -1.0000
G01 X 15.5598 Y 6.9552 Z -1.0000
G01 X 15.5552 Y 6.9493 Z -1.0000
G01 X 15.5376 Y 6.9495 Z -1.0000
G03 X 15.5165 Y 6.9512 Z -1.0000 I -0.0149 J -0.0542
G01 X 15.5045 Y 6.9458 Z -1.0000
G01 X 15.4930 Y 6.9393 Z -1.0000
G01 X 15.4841 Y 6.9396 Z -1.0000
G01 X 15.4757 Y 6.9401 Z -1.0000
G01 X 15.4701 Y 6.9360 Z -1.0000
G01 X 15.4656 Y 6.9337 Z -1.0000
G01 X 15.4608 Y 6.9366 Z -1.0000
G01 X 15.4553 Y 6.9391 Z -1.0000
G01 X 15.4457 Y 6.9342 Z -1.0000
G02 X 15.4348 Y 6.9255 Z -1.0000 I -0.0441 J 0.0441
G01 X 15.4293 Y 6.9239 Z -1.0000
G01 X 15.4264 Y 6.9221 Z -1.0000
G01 X 15.4266 Y 6.9184 Z -1.0000
G01 X 15.4266 Y 6.9141 Z -1.0000
G01 X 15.4208 Y 6.9093 Z -1.0000
G01 X 15.4137 Y 6.9090 Z -1.0000
G01 X 15.4116 Y 6.9117 Z -1.0000
G01 X 15.4095 Y 6.9156 Z -1.0000
G01 X 15.4023 Y 6.9177 Z -1.0000
G01 X 15.3957 Y 6.9150 Z -1.0000
G01 X 15.3930 Y 6.9084 Z -1.0000
G01 X 15.3903 Y 6.9018 Z -1.0000
G01 X 15.3842 Y 6.8991 Z -1.0000
G01 X 15.3762 Y 6.8972 Z -1.0000
G01 X 15.3657 Y 6.8894 Z -1.0000
G01 X 15.3575 Y 6.8876 Z -1.0000
G01 X 15.3488 Y 6.8956 Z -1.0000
G01 X 15.3381 Y 6.9006 Z -1.0000
G01 X 15.3256 Y 6.8888 Z -1.0000
G01 X 15.3174 Y 6.8662 Z -1.0000
G01 X 15.3092 Y 6.8857 Z -1.0000
G01 X 15.2915 Y 6.8978 Z -1.0000
G01 X 15.2716 Y 6.8867 Z -1.0000
G02 X 15.2589 Y 6.8713 Z -1.0000 I -0.0561 J 0.0330
G01 X 15.2512 Y 6.8684 Z -1.0000
G01 X 15.2525 Y 6.8768 Z -1.0000
G01 X 15.2611 Y 6.8860 Z -1.0000
G01 X 15.2633 Y 6.8930 Z -1.0000
G01 X 15.2520 Y 6.8908 Z -1.0000
G01 X 15.2398 Y 6.8829 Z -1.0000
G01 X 15.2288 Y 6.8805 Z -1.0000
G03 X 15.2055 Y 6.8746 Z -1.0000 I 0.0004 J -0.0513
G01 X 15.2010 Y 6.8660 Z -1.0000
G01 X 15.2012 Y 6.8620 Z -1.0000
G02 X 15.2011 Y 6.8512 Z -1.0000 I -0.2336 J -0.0017
G01 X 15.1940 Y 6.8542 Z -1.0000
G01 X 15.1855 Y 6.8660 Z -1.0000
G01 X 15.1763 Y 6.8715 Z -1.0000
G01 X 15.1673 Y 6.8770 Z -1.0000
G01 X 15.1624 Y 6.8855 Z -1.0000
G01 X 15.1589 Y 6.8821 Z -1.0000
G01 X 15.1615 Y 6.8714 Z -1.0000
G01 X 15.1669 Y 6.8682 Z -1.0000
G01 X 15.1715 Y 6.8651 Z -1.0000
G01 X 15.1721 Y 6.8548 Z -1.0000
G01 X 15.1686 Y 6.8414 Z -1.0000
G01 X 15.1636 Y 6.8548 Z -1.0000
G01 X 15.1471 Y 6.8692 Z -1.0000
G01 X 15.1305 Y 6.8621 Z -1.0000
G01 X 15.1211 Y 6.8585 Z -1.0000
G01 X 15.1149 Y 6.8667 Z -1.0000
G01 X 15.1101 Y 6.8702 Z -1.0000
G02 X 15.0799 Y 6.8411 Z -1.0000 I -0.0758 J 0.0484
G02 X 15.0437 Y 6.8312 Z -1.0000 I -0.0362 J 0.0616
G01 X 15.0311 Y 6.8286 Z -1.0000
G01 X 15.0285 Y 6.8246 Z -1.0000
G01 X 15.0260 Y 6.8215 Z -1.0000
G01 X 15.0162 Y 6.8219 Z -1.0000
G01 X 15.0063 Y 6.8224 Z -1.0000
G01 X 15.0038 Y 6.8192 Z -1.0000
G01 X 15.0012 Y 6.8153 Z -1.0000
G01 X 14.9880 Y 6.8126 Z -1.0000
G01 X 14.9757 Y 6.8183 Z -1.0000
G01 X 14.9721 Y 6.8254 Z -1.0000
G01 X 14.9536 Y 6.8196 Z -1.0000
G02 X 14.9380 Y 6.8105 Z -1.0000 I -0.0439 J 0.0567
G02 X 14.9177 Y 6.8042 Z -1.0000 I -0.0391 J 0.0906
G03 X 14.8976 Y 6.7979 Z -1.0000 I 0.0185 J -0.0937
G01 X 14.8849 Y 6.7896 Z -1.0000
G01 X 14.8741 Y 6.7845 Z -1.0000
G01 X 14.8683 Y 6.7872 Z -1.0000
G01 X 14.8633 Y 6.7905 Z -1.0000
G01 X 14.8590 Y 6.7885 Z -1.0000
G01 X 14.8570 Y 6.7816 Z -1.0000
G01 X 14.8586 Y 6.7755 Z -1.0000
G01 X 14.8582 Y 6.7716 Z -1.0000
G01 X 14.8528 Y 6.7693 Z -1.0000
G01 X 14.8454 Y 6.7715 Z -1.0000
G01 X 14.8432 Y 6.7755 Z -1.0000
G01 X 14.8333 Y 6.7856 Z -1.0000
G01 X 14.8157 Y 6.7760 Z -1.0000
G01 X 14.8153 Y 6.7707 Z -1.0000
G01 X 14.8220 Y 6.7605 Z -1.0000
G01 X 14.8226 Y 6.7545 Z -1.0000
G01 X 14.8156 Y 6.7507 Z -1.0000
G01 X 14.8049 Y 6.7557 Z -1.0000
G01 X 14.8013 Y 6.7675 Z -1.0000
G01 X 14.7989 Y 6.7813 Z -1.0000
G01 X 14.7923 Y 6.7865 Z -1.0000
G01 X 14.7844 Y 6.7850 Z -1.0000
G01 X 14.7815 Y 6.7797 Z -1.0000
G01 X 14.7749 Y 6.7697 Z -1.0000
G02 X 14.7437 Y 6.7631 Z -1.0000 I -0.0312 J 0.0712
G01 X 14.7279 Y 6.7596 Z -1.0000
G01 X 14.7215 Y 6.7528 Z -1.0000
G02 X 14.6806 Y 6.7072 Z -1.0000 I -0.0799 J 0.0306
G01 X 14.6438 Y 6.7131 Z -1.0000
G01 X 14.6182 Y 6.7251 Z -1.0000
G01 X 14.6085 Y 6.7164 Z -1.0000
G01 X 14.6154 Y 6.7022 Z -1.0000
G01 X 14.6359 Y 6.6952 Z -1.0000
G01 X 14.6434 Y 6.6930 Z -1.0000
G01 X 14.6456 Y 6.6890 Z -1.0000
G01 X 14.6377 Y 6.6817 Z -1.0000
G02 X 14.6112 Y 6.6919 Z -1.0000 I 0.0042 J 0.0505
G01 X 14.5932 Y 6.6991 Z -1.0000
G01 X 14.5780 Y 6.6956 Z -1.0000
G01 X 14.5738 Y 6.6892 Z -1.0000
G01 X 14.5758 Y 6.6818 Z -1.0000
G01 X 14.5781 Y 6.6739 Z -1.0000
G01 X 14.5739 Y 6.6656 Z -1.0000
G01 X 14.5645 Y 6.6610 Z -1.0000
G02 X 14.5638 Y 6.6643 Z -1.0000 I 0.1612 J 0.0381
G02 X 14.5628 Y 6.6690 Z -1.0000 I 0.2182 J 0.0469
G01 X 14.5403 Y 6.6886 Z -1.0000
G01 X 14.5220 Y 6.6714 Z -1.0000
G01 X 14.5154 Y 6.6615 Z -1.0000
G02 X 14.4807 Y 6.6539 Z -1.0000 I -0.0375 J 0.0885
G02 X 14.4416 Y 6.6570 Z -1.0000 I -0.0053 J 0.1824
G01 X 14.4316 Y 6.6632 Z -1.0000
G01 X 14.4269 Y 6.6637 Z -1.0000
G01 X 14.4234 Y 6.6562 Z -1.0000
G01 X 14.4176 Y 6.6458 Z -1.0000
G01 X 14.4031 Y 6.6431 Z -1.0000
G02 X 14.3842 Y 6.6492 Z -1.0000 I 0.0220 J 0.1013
G01 X 14.3793 Y 6.6534 Z -1.0000
G01 X 14.3743 Y 6.6558 Z -1.0000
G03 X 14.3484 Y 6.6501 Z -1.0000 I 0.0120 J -0.1161
G02 X 14.3220 Y 6.6447 Z -1.0000 I -0.0348 J 0.1025
G01 X 14.3134 Y 6.6474 Z -1.0000
G01 X 14.3046 Y 6.6460 Z -1.0000
G01 X 14.3046 Y 6.6333 Z -1.0000
G01 X 14.3064 Y 6.6244 Z -1.0000
G01 X 14.3027 Y 6.6212 Z -1.0000
G01 X 14.2952 Y 6.6242 Z -1.0000
G01 X 14.2862 Y 6.6367 Z -1.0000
G03 X 14.2780 Y 6.6504 Z -1.0000 I -0.0685 J -0.0314
G01 X 14.2746 Y 6.6521 Z -1.0000
G01 X 14.2643 Y 6.6445 Z -1.0000
G01 X 14.2666 Y 6.6260 Z -1.0000
G01 X 14.2543 Y 6.6226 Z -1.0000
G01 X 14.2387 Y 6.6226 Z -1.0000
G01 X 14.2271 Y 6.6175 Z -1.0000
G01 X 14.2155 Y 6.6117 Z -1.0000
G02 X 14.1963 Y 6.6091 Z -1.0000 I -0.0200 J 0.0733
G01 X 14.1798 Y 6.6053 Z -1.0000
G01 X 14.1762 Y 6.5996 Z -1.0000
G01 X 14.1740 Y 6.5924 Z -1.0000
G01 X 14.1700 Y 6.5903 Z -1.0000
G01 X 14.1655 Y 6.5920 Z -1.0000
G01 X 14.1638 Y 6.5961 Z -1.0000
G01 X 14.1653 Y 6.6010 Z -1.0000
G01 X 14.1700 Y 6.6057 Z -1.0000
G01 X 14.1744 Y 6.6153 Z -1.0000
G01 X 14.1676 Y 6.6211 Z -1.0000
G01 X 14.1612 Y 6.6183 Z -1.0000
G01 X 14.1556 Y 6.6080 Z -1.0000
G01 X 14.1491 Y 6.5997 Z -1.0000
G01 X 14.1362 Y 6.5979 Z -1.0000
G01 X 14.1213 Y 6.5984 Z -1.0000
G01 X 14.1169 Y 6.5956 Z -1.0000
G01 X 14.1126 Y 6.5922 Z -1.0000
G02 X 14.0986 Y 6.5903 Z -1.0000 I -0.0140 J 0.0484
G01 X 14.0859 Y 6.5878 Z -1.0000
G01 X 14.0835 Y 6.5843 Z -1.0000
G01 X 14.0813 Y 6.5814 Z -1.0000
G01 X 14.0749 Y 6.5816 Z -1.0000
G01 X 14.0675 Y 6.5811 Z -1.0000
G01 X 14.0575 Y 6.5724 Z -1.0000
G01 X 14.0464 Y 6.5640 Z -1.0000
G02 X 14.0080 Y 6.5557 Z -1.0000 I -0.0565 J 0.1675
G03 X 13.9708 Y 6.5473 Z -1.0000 I 0.0157 J -0.1555
G01 X 13.9642 Y 6.5400 Z -1.0000
G01 X 13.9585 Y 6.5319 Z -1.0000
G01 X 13.9475 Y 6.5284 Z -1.0000
G01 X 13.9396 Y 6.5240 Z -1.0000
G01 X 13.9378 Y 6.5130 Z -1.0000
G01 X 13.9375 Y 6.5009 Z -1.0000
G01 X 13.9329 Y 6.4975 Z -1.0000
G01 X 13.9279 Y 6.5005 Z -1.0000
G01 X 13.9269 Y 6.5084 Z -1.0000
G01 X 13.9239 Y 6.5147 Z -1.0000
G03 X 13.9026 Y 6.5192 Z -1.0000 I -0.0212 J -0.0478
G03 X 13.8763 Y 6.5166 Z -1.0000 I 0.0002 J -0.1371
G01 X 13.8668 Y 6.5122 Z -1.0000
G01 X 13.8576 Y 6.5085 Z -1.0000
G01 X 13.8457 Y 6.5102 Z -1.0000
G01 X 13.8283 Y 6.5106 Z -1.0000
G01 X 13.8180 Y 6.5006 Z -1.0000
G01 X 13.8025 Y 6.4877 Z -1.0000
G01 X 13.7731 Y 6.4922 Z -1.0000
G01 X 13.7615 Y 6.4951 Z -1.0000
G01 X 13.7575 Y 6.4922 Z -1.0000
G01 X 13.7534 Y 6.4875 Z -1.0000
G01 X 13.7433 Y 6.4851 Z -1.0000
G01 X 13.7340 Y 6.4825 Z -1.0000
G01 X 13.7315 Y 6.4781 Z -1.0000
G01 X 13.7295 Y 6.4720 Z -1.0000
G01 X 13.7207 Y 6.4629 Z -1.0000
G01 X 13.7180 Y 6.4545 Z -1.0000
G01 X 13.7199 Y 6.4482 Z -1.0000
G01 X 13.7003 Y 6.4419 Z -1.0000
G01 X 13.6854 Y 6.4328 Z -1.0000
G01 X 13.6898 Y 6.4216 Z -1.0000
G01 X 13.6926 Y 6.4176 Z -1.0000
G01 X 13.6898 Y 6.4106 Z -1.0000
G01 X 13.6840 Y 6.4016 Z -1.0000
G01 X 13.6821 Y 6.3922 Z -1.0000
G03 X 13.6925 Y 6.3534 Z -1.0000 I 0.0778 J -0.0000
G01 X 13.7104 Y 6.3431 Z -1.0000
G01 X 13.7170 Y 6.3407 Z -1.0000
G01 X 13.7199 Y 6.3354 Z -1.0000
G02 X 13.7206 Y 6.3277 Z -1.0000 I -4.9214 J -0.4582
G02 X 13.7214 Y 6.3184 Z -1.0000 I -0.7163 J -0.0656
G01 X 13.7246 Y 6.3118 Z -1.0000
G01 X 13.7315 Y 6.3091 Z -1.0000
G01 X 13.7376 Y 6.3116 Z -1.0000
G01 X 13.7392 Y 6.3168 Z -1.0000
G01 X 13.7445 Y 6.3227 Z -1.0000
G01 X 13.7634 Y 6.3143 Z -1.0000
G01 X 13.7746 Y 6.3073 Z -1.0000
G01 X 13.7789 Y 6.3082 Z -1.0000
G01 X 13.7780 Y 6.3206 Z -1.0000
G03 X 13.7488 Y 6.3305 Z -1.0000 I -0.0302 J -0.0406
G01 X 13.7354 Y 6.3386 Z -1.0000
G01 X 13.7382 Y 6.3496 Z -1.0000
G02 X 13.7780 Y 6.3634 Z -1.0000 I 0.0506 J -0.0816
G01 X 13.8011 Y 6.3568 Z -1.0000
G03 X 13.8397 Y 6.3422 Z -1.0000 I 0.0421 J 0.0529
G03 X 13.8801 Y 6.3525 Z -1.0000 I 0.0036 J 0.0701
G01 X 13.8824 Y 6.3571 Z -1.0000
G01 X 13.8791 Y 6.3689 Z -1.0000
G01 X 13.8788 Y 6.3776 Z -1.0000
G01 X 13.8853 Y 6.3764 Z -1.0000
G01 X 13.8977 Y 6.3813 Z -1.0000
G01 X 13.9096 Y 6.3858 Z -1.0000
G01 X 13.9147 Y 6.3843 Z -1.0000
G01 X 13.9157 Y 6.3799 Z -1.0000
G01 X 13.9114 Y 6.3746 Z -1.0000
G01 X 13.9098 Y 6.3702 Z -1.0000
G01 X 13.9142 Y 6.3655 Z -1.0000
G01 X 13.9301 Y 6.3680 Z -1.0000
G01 X 13.9322 Y 6.3804 Z -1.0000
G01 X 13.9378 Y 6.3978 Z -1.0000
G02 X 13.9845 Y 6.4019 Z -1.0000 I 0.0299 J -0.0724
G03 X 14.0177 Y 6.4051 Z -1.0000 I 0.0117 J 0.0533
G01 X 14.0280 Y 6.4206 Z -1.0000
G01 X 14.0306 Y 6.4270 Z -1.0000
G01 X 14.0367 Y 6.4296 Z -1.0000
G01 X 14.0414 Y 6.4266 Z -1.0000
G01 X 14.0422 Y 6.4173 Z -1.0000
G01 X 14.0448 Y 6.4094 Z -1.0000
G01 X 14.0577 Y 6.4049 Z -1.0000
G01 X 14.0744 Y 6.4020 Z -1.0000
G01 X 14.0792 Y 6.3972 Z -1.0000
G01 X 14.0829 Y 6.3936 Z -1.0000
G01 X 14.0874 Y 6.3946 Z -1.0000
G01 X 14.0882 Y 6.3991 Z -1.0000
G01 X 14.0821 Y 6.4057 Z -1.0000
G01 X 14.0761 Y 6.4177 Z -1.0000
G01 X 14.0852 Y 6.4298 Z -1.0000
G03 X 14.1167 Y 6.4466 Z -1.0000 I -0.0889 J 0.2049
G01 X 14.1283 Y 6.4575 Z -1.0000
G01 X 14.1275 Y 6.4406 Z -1.0000
G01 X 14.1277 Y 6.4297 Z -1.0000
G01 X 14.1342 Y 6.4251 Z -1.0000
G01 X 14.1416 Y 6.4278 Z -1.0000
G01 X 14.1428 Y 6.4336 Z -1.0000
G02 X 14.1408 Y 6.4639 Z -1.0000 I 0.0484 J 0.0184
G01 X 14.1522 Y 6.4729 Z -1.0000
G01 X 14.1555 Y 6.4707 Z -1.0000
G01 X 14.1577 Y 6.4606 Z -1.0000
G01 X 14.1601 Y 6.4506 Z -1.0000
G01 X 14.1639 Y 6.4482 Z -1.0000
G01 X 14.1685 Y 6.4499 Z -1.0000
G01 X 14.1701 Y 6.4534 Z -1.0000
G01 X 14.1789 Y 6.4766 Z -1.0000
G01 X 14.1981 Y 6.4852 Z -1.0000
G01 X 14.2026 Y 6.4865 Z -1.0000
G03 X 14.2144 Y 6.4955 Z -1.0000 I -0.0448 J 0.0715
G01 X 14.2225 Y 6.4986 Z -1.0000
G01 X 14.2257 Y 6.4955 Z -1.0000
G01 X 14.2335 Y 6.4881 Z -1.0000
G01 X 14.2578 Y 6.4973 Z -1.0000
G01 X 14.2735 Y 6.5039 Z -1.0000
G01 X 14.2882 Y 6.5014 Z -1.0000
G03 X 14.3349 Y 6.4886 Z -1.0000 I 0.0529 J 0.1014
G01 X 14.3524 Y 6.4978 Z -1.0000
G01 X 14.3503 Y 6.5026 Z -1.0000
G03 X 14.3161 Y 6.5042 Z -1.0000 I -0.0232 J -0.1312
G01 X 14.3026 Y 6.5094 Z -1.0000
G01 X 14.3084 Y 6.5130 Z -1.0000
G02 X 14.3650 Y 6.5161 Z -1.0000 I 0.0566 J -0.5239
G01 X 14.4233 Y 6.5161 Z -1.0000
G01 X 14.4233 Y 6.5339 Z -1.0000
G01 X 14.4396 Y 6.5561 Z -1.0000
G01 X 14.4671 Y 6.5478 Z -1.0000
G01 X 14.4775 Y 6.5403 Z -1.0000
G01 X 14.4836 Y 6.5417 Z -1.0000
G01 X 14.4905 Y 6.5445 Z -1.0000
G01 X 14.5026 Y 6.5413 Z -1.0000
G01 X 14.5142 Y 6.5381 Z -1.0000
G01 X 14.5191 Y 6.5407 Z -1.0000
G01 X 14.5243 Y 6.5444 Z -1.0000
G02 X 14.5475 Y 6.5469 Z -1.0000 I 0.0232 J -0.1061
G01 X 14.5720 Y 6.5469 Z -1.0000
G01 X 14.5600 Y 6.5599 Z -1.0000
G01 X 14.5467 Y 6.5684 Z -1.0000
G01 X 14.5335 Y 6.5686 Z -1.0000
G01 X 14.5191 Y 6.5644 Z -1.0000
G01 X 14.5335 Y 6.5749 Z -1.0000
G01 X 14.5476 Y 6.5809 Z -1.0000
G01 X 14.5548 Y 6.5786 Z -1.0000
G01 X 14.5625 Y 6.5736 Z -1.0000
G01 X 14.5728 Y 6.5717 Z -1.0000
G01 X 14.5805 Y 6.5683 Z -1.0000
G01 X 14.5839 Y 6.5594 Z -1.0000
G01 X 14.5906 Y 6.5546 Z -1.0000
G01 X 14.6015 Y 6.5656 Z -1.0000
G01 X 14.6140 Y 6.5815 Z -1.0000
G01 X 14.6225 Y 6.5795 Z -1.0000
G01 X 14.6235 Y 6.5818 Z -1.0000
G01 X 14.6287 Y 6.5947 Z -1.0000
G01 X 14.6549 Y 6.6026 Z -1.0000
G03 X 14.6731 Y 6.6049 Z -1.0000 I -0.0000 J 0.0728
G01 X 14.6808 Y 6.6093 Z -1.0000
G01 X 14.6870 Y 6.6119 Z -1.0000
G01 X 14.6917 Y 6.6093 Z -1.0000
G01 X 14.7047 Y 6.6034 Z -1.0000
G01 X 14.7155 Y 6.6134 Z -1.0000
G01 X 14.7190 Y 6.5985 Z -1.0000
G02 X 14.7165 Y 6.5748 Z -1.0000 I -0.0894 J -0.0025
G01 X 14.7120 Y 6.5696 Z -1.0000
G01 X 14.7122 Y 6.5660 Z -1.0000
G01 X 14.7184 Y 6.5682 Z -1.0000
G01 X 14.7236 Y 6.5763 Z -1.0000
G02 X 14.7272 Y 6.5870 Z -1.0000 I 0.5773 J -0.1859
G02 X 14.7306 Y 6.5964 Z -1.0000 I 0.2131 J -0.0730
G01 X 14.7331 Y 6.6058 Z -1.0000
G01 X 14.7330 Y 6.6126 Z -1.0000
G01 X 14.7342 Y 6.6186 Z -1.0000
G01 X 14.7416 Y 6.6275 Z -1.0000
G01 X 14.7510 Y 6.6302 Z -1.0000
G01 X 14.7618 Y 6.6249 Z -1.0000
G01 X 14.7657 Y 6.6152 Z -1.0000
G01 X 14.7615 Y 6.6081 Z -1.0000
G01 X 14.7541 Y 6.5966 Z -1.0000
G01 X 14.7600 Y 6.5902 Z -1.0000
G01 X 14.7671 Y 6.5924 Z -1.0000
G01 X 14.7693 Y 6.5964 Z -1.0000
G01 X 14.7906 Y 6.6170 Z -1.0000
G01 X 14.8202 Y 6.5949 Z -1.0000
G01 X 14.8260 Y 6.6042 Z -1.0000
G01 X 14.8265 Y 6.6189 Z -1.0000
G01 X 14.8239 Y 6.6212 Z -1.0000
G01 X 14.8202 Y 6.6228 Z -1.0000
G01 X 14.8186 Y 6.6269 Z -1.0000
G01 X 14.8437 Y 6.6228 Z -1.0000
G03 X 14.8673 Y 6.6196 Z -1.0000 I 0.0186 J 0.0473
G01 X 14.8823 Y 6.6266 Z -1.0000
G01 X 14.8958 Y 6.6402 Z -1.0000
G01 X 14.8819 Y 6.6438 Z -1.0000
G01 X 14.8770 Y 6.6523 Z -1.0000
G01 X 14.8864 Y 6.6614 Z -1.0000
G01 X 14.9089 Y 6.6584 Z -1.0000
G01 X 14.9108 Y 6.6485 Z -1.0000
G01 X 14.9087 Y 6.6423 Z -1.0000
G01 X 14.9113 Y 6.6398 Z -1.0000
G01 X 14.9153 Y 6.6371 Z -1.0000
G01 X 14.9159 Y 6.6283 Z -1.0000
G01 X 14.9177 Y 6.6216 Z -1.0000
G01 X 14.9244 Y 6.6198 Z -1.0000
G01 X 14.9350 Y 6.6326 Z -1.0000
G01 X 14.9267 Y 6.6522 Z -1.0000
G01 X 14.9198 Y 6.6610 Z -1.0000
G01 X 14.9174 Y 6.6715 Z -1.0000
G01 X 14.9242 Y 6.6795 Z -1.0000
G02 X 14.9544 Y 6.6769 Z -1.0000 I 0.0097 J -0.0664
G01 X 14.9559 Y 6.6713 Z -1.0000
G01 X 14.9446 Y 6.6683 Z -1.0000
G01 X 14.9420 Y 6.6641 Z -1.0000
G01 X 14.9445 Y 6.6610 Z -1.0000
G01 X 14.9542 Y 6.6614 Z -1.0000
G02 X 15.0195 Y 6.6728 Z -1.0000 I 0.0750 J -0.2381
G01 X 15.0285 Y 6.6641 Z -1.0000
G01 X 15.0384 Y 6.6544 Z -1.0000
G01 X 15.0563 Y 6.6646 Z -1.0000
G01 X 15.0564 Y 6.6687 Z -1.0000
G01 X 15.0528 Y 6.6708 Z -1.0000
G01 X 15.0532 Y 6.6801 Z -1.0000
G01 X 15.0565 Y 6.6893 Z -1.0000
G01 X 15.0532 Y 6.6986 Z -1.0000
G01 X 15.0525 Y 6.7046 Z -1.0000
G01 X 15.0581 Y 6.7079 Z -1.0000
G03 X 15.0705 Y 6.7089 Z -1.0000 I -0.0000 J 0.0749
G03 X 15.0804 Y 6.7116 Z -1.0000 I -0.0090 J 0.0536
G01 X 15.0880 Y 6.7121 Z -1.0000
G01 X 15.0902 Y 6.7092 Z -1.0000
G01 X 15.0880 Y 6.7048 Z -1.0000
G01 X 15.0764 Y 6.6995 Z -1.0000
G01 X 15.0706 Y 6.6937 Z -1.0000
G01 X 15.0728 Y 6.6856 Z -1.0000
G01 X 15.0835 Y 6.6819 Z -1.0000
G01 X 15.1002 Y 6.6888 Z -1.0000
G01 X 15.1160 Y 6.6958 Z -1.0000
G01 X 15.1226 Y 6.6927 Z -1.0000
G01 X 15.1326 Y 6.6899 Z -1.0000
G01 X 15.1383 Y 6.7016 Z -1.0000
G01 X 15.1423 Y 6.7151 Z -1.0000
G01 X 15.1577 Y 6.7236 Z -1.0000
G03 X 15.1794 Y 6.7286 Z -1.0000 I -0.0298 J 0.1807
G03 X 15.1941 Y 6.7342 Z -1.0000 I -0.0268 J 0.0914
G01 X 15.2073 Y 6.7375 Z -1.0000
G01 X 15.2126 Y 6.7347 Z -1.0000
G01 X 15.2183 Y 6.7306 Z -1.0000
G03 X 15.2492 Y 6.7245 Z -1.0000 I 0.0535 J 0.1918
G03 X 15.2772 Y 6.7271 Z -1.0000 I 0.0078 J 0.0680
G01 X 15.2854 Y 6.7357 Z -1.0000
G01 X 15.2917 Y 6.7482 Z -1.0000
G01 X 15.3008 Y 6.7544 Z -1.0000
G01 X 15.3105 Y 6.7595 Z -1.0000
G01 X 15.3126 Y 6.7639 Z -1.0000
G01 X 15.3150 Y 6.7672 Z -1.0000
G02 X 15.3311 Y 6.7697 Z -1.0000 I 0.0161 J -0.0513
G02 X 15.3470 Y 6.7671 Z -1.0000 I 0.0000 J -0.0501
G01 X 15.3496 Y 6.7635 Z -1.0000
G01 X 15.3587 Y 6.7572 Z -1.0000
G01 X 15.3743 Y 6.7728 Z -1.0000
G01 X 15.3822 Y 6.7853 Z -1.0000
G01 X 15.3891 Y 6.7882 Z -1.0000
G01 X 15.3965 Y 6.7904 Z -1.0000
G01 X 15.4008 Y 6.7959 Z -1.0000
G01 X 15.4045 Y 6.7993 Z -1.0000
G01 X 15.4090 Y 6.7981 Z -1.0000
G01 X 15.4102 Y 6.7936 Z -1.0000
G01 X 15.4068 Y 6.7899 Z -1.0000
G01 X 15.3998 Y 6.7791 Z -1.0000
G01 X 15.4088 Y 6.7672 Z -1.0000
G01 X 15.4198 Y 6.7671 Z -1.0000
G01 X 15.4237 Y 6.7727 Z -1.0000
G01 X 15.4263 Y 6.7793 Z -1.0000
G01 X 15.4325 Y 6.7820 Z -1.0000
G01 X 15.4411 Y 6.7829 Z -1.0000
G03 X 15.4510 Y 6.7857 Z -1.0000 I -0.0131 J 0.0647
G01 X 15.4578 Y 6.7851 Z -1.0000
G01 X 15.4608 Y 6.7795 Z -1.0000
G01 X 15.4649 Y 6.7736 Z -1.0000
G03 X 15.4856 Y 6.7696 Z -1.0000 I 0.0207 J 0.0519
G03 X 15.5065 Y 6.7734 Z -1.0000 I 0.0000 J 0.0598
G01 X 15.5103 Y 6.7788 Z -1.0000
G01 X 15.5249 Y 6.8043 Z -1.0000
G02 X 15.5786 Y 6.8190 Z -1.0000 I 0.0538 J -0.0915
G01 X 15.5816 Y 6.8172 Z -1.0000
G01 X 15.5863 Y 6.8060 Z -1.0000
G01 X 15.5916 Y 6.7977 Z -1.0000
G01 X 15.5968 Y 6.7974 Z -1.0000
G01 X 15.6008 Y 6.8028 Z -1.0000
G01 X 15.6005 Y 6.8104 Z -1.0000
G01 X 15.6003 Y 6.8168 Z -1.0000
G01 X 15.6032 Y 6.8190 Z -1.0000
G01 X 15.6068 Y 6.8213 Z -1.0000
G01 X 15.6092 Y 6.8317 Z -1.0000
G01 X 15.6131 Y 6.8399 Z -1.0000
G01 X 15.6231 Y 6.8426 Z -1.0000
G01 X 15.6332 Y 6.8376 Z -1.0000
G01 X 15.6361 Y 6.8298 Z -1.0000
G01 X 15.6384 Y 6.8220 Z -1.0000
G01 X 15.6446 Y 6.8190 Z -1.0000
G01 X 15.6479 Y 6.8162 Z -1.0000
G01 X 15.6462 Y 6.8097 Z -1.0000
G01 X 15.6492 Y 6.8032 Z -1.0000
G01 X 15.6682 Y 6.8092 Z -1.0000
G01 X 15.6726 Y 6.8170 Z -1.0000
G01 X 15.6694 Y 6.8222 Z -1.0000
G01 X 15.6638 Y 6.8343 Z -1.0000
G01 X 15.6782 Y 6.8470 Z -1.0000
G01 X 15.6963 Y 6.8473 Z -1.0000
G01 X 15.7044 Y 6.8423 Z -1.0000
G01 X 15.7184 Y 6.8369 Z -1.0000
G01 X 15.7265 Y 6.8469 Z -1.0000
G01 X 15.7231 Y 6.8525 Z -1.0000
G03 X 15.7002 Y 6.8611 Z -1.0000 I -0.0422 J -0.0774
G01 X 15.6909 Y 6.8676 Z -1.0000
G01 X 15.7042 Y 6.8719 Z -1.0000
G01 X 15.7081 Y 6.8791 Z -1.0000
G01 X 15.7146 Y 6.8791 Z -1.0000
G01 X 15.7228 Y 6.8717 Z -1.0000
G01 X 15.7391 Y 6.8683 Z -1.0000
G01 X 15.7531 Y 6.8640 Z -1.0000
G01 X 15.7574 Y 6.8559 Z -1.0000
G01 X 15.7652 Y 6.8459 Z -1.0000
G01 X 15.7908 Y 6.8473 Z -1.0000
G01 X 15.7997 Y 6.8598 Z -1.0000
G01 X 15.7915 Y 6.8683 Z -1.0000
G01 X 15.7866 Y 6.8711 Z -1.0000
G01 X 15.7861 Y 6.8778 Z -1.0000
G01 X 15.7907 Y 6.8801 Z -1.0000
G01 X 15.7990 Y 6.8742 Z -1.0000
G01 X 15.8103 Y 6.8661 Z -1.0000
G01 X 15.8305 Y 6.8652 Z -1.0000
G03 X 15.8508 Y 6.8723 Z -1.0000 I -0.0135 J 0.0715
G01 X 15.8610 Y 6.8812 Z -1.0000
G01 X 15.8743 Y 6.8869 Z -1.0000
G01 X 15.8845 Y 6.8776 Z -1.0000
G01 X 15.8949 Y 6.8735 Z -1.0000
G01 X 15.9032 Y 6.8895 Z -1.0000
G02 X 15.9061 Y 6.9136 Z -1.0000 I 0.0685 J 0.0038
G01 X 15.9126 Y 6.9197 Z -1.0000
G01 X 15.9222 Y 6.9190 Z -1.0000
G01 X 15.9315 Y 6.9115 Z -1.0000
G03 X 15.9665 Y 6.8904 Z -1.0000 I 0.0427 J 0.0310
G01 X 15.9885 Y 6.9032 Z -1.0000
G01 X 15.9890 Y 6.9125 Z -1.0000
G01 X 15.9846 Y 6.9187 Z -1.0000
G01 X 15.9901 Y 6.9238 Z -1.0000
G01 X 16.0002 Y 6.9201 Z -1.0000
G01 X 16.0055 Y 6.9105 Z -1.0000
G01 X 16.0157 Y 6.9006 Z -1.0000
G01 X 16.0264 Y 6.9080 Z -1.0000
G01 X 16.0351 Y 6.9172 Z -1.0000
G02 X 16.0668 Y 6.9205 Z -1.0000 I 0.0242 J -0.0785
G03 X 16.1002 Y 6.9203 Z -1.0000 I 0.0173 J 0.1852
G01 X 16.1032 Y 6.9237 Z -1.0000
G01 X 16.1103 Y 6.9304 Z -1.0000
G01 X 16.1290 Y 6.9225 Z -1.0000
G03 X 16.1606 Y 6.9083 Z -1.0000 I 0.0361 J 0.0383
G01 X 16.1673 Y 6.9192 Z -1.0000
G01 X 16.1706 Y 6.9247 Z -1.0000
G02 X 16.1978 Y 6.9170 Z -1.0000 I -0.0053 J -0.0701
G01 X 16.1937 Y 6.9276 Z -1.0000
G01 X 16.1767 Y 6.9376 Z -1.0000
G01 X 16.1683 Y 6.9346 Z -1.0000
G01 X 16.1592 Y 6.9278 Z -1.0000
G01 X 16.1501 Y 6.9278 Z -1.0000
G01 X 16.1428 Y 6.9383 Z -1.0000
G01 X 16.1500 Y 6.9463 Z -1.0000
G01 X 16.1555 Y 6.9474 Z -1.0000
G03 X 16.1674 Y 6.9519 Z -1.0000 I -0.0385 J 0.1197
G01 X 16.1788 Y 6.9540 Z -1.0000
G01 X 16.1886 Y 6.9509 Z -1.0000
G01 X 16.1977 Y 6.9500 Z -1.0000
G03 X 16.2165 Y 6.9622 Z -1.0000 I -0.0225 J 0.0554
G01 X 16.2418 Y 6.9742 Z -1.0000
G01 X 16.2576 Y 6.9673 Z -1.0000
G01 X 16.2881 Y 6.9504 Z -1.0000
G01 X 16.2985 Y 6.9645 Z -1.0000
G01 X 16.3005 Y 6.9706 Z -1.0000
G01 X 16.3051 Y 6.9713 Z -1.0000
G03 X 16.3201 Y 6.9919 Z -1.0000 I -0.0818 J 0.0753
G01 X 16.3406 Y 7.0085 Z -1.0000
G01 X 16.3503 Y 7.0013 Z -1.0000
G01 X 16.3558 Y 6.9914 Z -1.0000
G01 X 16.3752 Y 6.9859 Z -1.0000
G02 X 16.3976 Y 6.9823 Z -1.0000 I 0.0000 J -0.0720
G01 X 16.4036 Y 6.9766 Z -1.0000
G01 X 16.4230 Y 6.9646 Z -1.0000
G01 X 16.4368 Y 6.9797 Z -1.0000
G01 X 16.4430 Y 6.9886 Z -1.0000
G01 X 16.4493 Y 6.9843 Z -1.0000
G01 X 16.4623 Y 6.9920 Z -1.0000
G01 X 16.4911 Y 7.0064 Z -1.0000
G01 X 16.5127 Y 6.9945 Z -1.0000
G01 X 16.5230 Y 6.9893 Z -1.0000
G01 X 16.5281 Y 6.9961 Z -1.0000
G01 X 16.5317 Y 7.0020 Z -1.0000
G02 X 16.5615 Y 7.0071 Z -1.0000 I 0.0320 J -0.0969
G01 X 16.5912 Y 7.0166 Z -1.0000
G01 X 16.6179 Y 7.0271 Z -1.0000
G03 X 16.6498 Y 7.0284 Z -1.0000 I -0.3110 J 7.9782
G03 X 16.6549 Y 7.0287 Z -1.0000 I -0.0075 J 0.1755
G01 X 16.6561 Y 7.0411 Z -1.0000
G01 X 16.6575 Y 7.0504 Z -1.0000
G01 X 16.6669 Y 7.0570 Z -1.0000
G02 X 16.6816 Y 7.0597 Z -1.0000 I 0.0319 J -0.1292
G01 X 16.6873 Y 7.0596 Z -1.0000
G01 X 16.6931 Y 7.0590 Z -1.0000
G03 X 16.7054 Y 7.0596 Z -1.0000 I -0.0004 J 0.1351
G01 X 16.7178 Y 7.0608 Z -1.0000
G01 X 16.7054 Y 7.0661 Z -1.0000
G01 X 16.7121 Y 7.0718 Z -1.0000
G01 X 16.7286 Y 7.0764 Z -1.0000
G01 X 16.7394 Y 7.0877 Z -1.0000
G01 X 16.7519 Y 7.0982 Z -1.0000
G01 X 16.7580 Y 7.0939 Z -1.0000
G01 X 16.7602 Y 7.0868 Z -1.0000
G01 X 16.7644 Y 7.0846 Z -1.0000
G03 X 16.8045 Y 7.0937 Z -1.0000 I -0.0000 J 0.0925
G01 X 16.8136 Y 7.1083 Z -1.0000
G01 X 16.8206 Y 7.1185 Z -1.0000
G02 X 16.8492 Y 7.1220 Z -1.0000 I 0.0214 J -0.0551
G01 X 16.8565 Y 7.1230 Z -1.0000
G03 X 16.8706 Y 7.1306 Z -1.0000 I -0.0253 J 0.0635
G01 X 16.8877 Y 7.1351 Z -1.0000
G01 X 16.8939 Y 7.1282 Z -1.0000
G01 X 16.9050 Y 7.1093 Z -1.0000
G01 X 16.9232 Y 7.1118 Z -1.0000
G01 X 16.9196 Y 7.1155 Z -1.0000
G01 X 16.9125 Y 7.1242 Z -1.0000
G01 X 16.9240 Y 7.1369 Z -1.0000
G01 X 16.9354 Y 7.1379 Z -1.0000
G02 X 16.9518 Y 7.1332 Z -1.0000 I -0.0074 J -0.0564
G01 X 16.9645 Y 7.1347 Z -1.0000
G01 X 16.9644 Y 7.1431 Z -1.0000
G01 X 16.9645 Y 7.1495 Z -1.0000
G01 X 16.9787 Y 7.1530 Z -1.0000
G01 X 16.9856 Y 7.1543 Z -1.0000
G03 X 16.9999 Y 7.1646 Z -1.0000 I -0.0343 J 0.0626
G02 X 17.0272 Y 7.1783 Z -1.0000 I 0.0368 J -0.0395
G01 X 17.0359 Y 7.1710 Z -1.0000
G01 X 17.0337 Y 7.1670 Z -1.0000
G01 X 17.0266 Y 7.1648 Z -1.0000
G01 X 17.0194 Y 7.1627 Z -1.0000
G01 X 17.0173 Y 7.1586 Z -1.0000
G01 X 17.0196 Y 7.1548 Z -1.0000
G01 X 17.0296 Y 7.1524 Z -1.0000
G01 X 17.0396 Y 7.1548 Z -1.0000
G01 X 17.0420 Y 7.1586 Z -1.0000
G01 X 17.0444 Y 7.1623 Z -1.0000
G01 X 17.0574 Y 7.1648 Z -1.0000
G01 X 17.0704 Y 7.1673 Z -1.0000
G01 X 17.0728 Y 7.1710 Z -1.0000
G01 X 17.0749 Y 7.1751 Z -1.0000
G01 X 17.0815 Y 7.1772 Z -1.0000
G01 X 17.0887 Y 7.1794 Z -1.0000
G01 X 17.0929 Y 7.1849 Z -1.0000
G01 X 17.0969 Y 7.1877 Z -1.0000
G01 X 17.1051 Y 7.1847 Z -1.0000
G01 X 17.1140 Y 7.1832 Z -1.0000
G01 X 17.1278 Y 7.1933 Z -1.0000
G01 X 17.1407 Y 7.1997 Z -1.0000
G01 X 17.1459 Y 7.1933 Z -1.0000
G01 X 17.1593 Y 7.1959 Z -1.0000
G01 X 17.1630 Y 7.2020 Z -1.0000
G01 X 17.1606 Y 7.2071 Z -1.0000
G01 X 17.1612 Y 7.2180 Z -1.0000
G02 X 17.1921 Y 7.2226 Z -1.0000 I 0.0227 J -0.0463
G01 X 17.2081 Y 7.2132 Z -1.0000
G01 X 17.2075 Y 7.2032 Z -1.0000
G01 X 17.1960 Y 7.1992 Z -1.0000
G01 X 17.1924 Y 7.2051 Z -1.0000
G01 X 17.1913 Y 7.2111 Z -1.0000
G01 X 17.1838 Y 7.2144 Z -1.0000
G01 X 17.1763 Y 7.2082 Z -1.0000
G01 X 17.1809 Y 7.1998 Z -1.0000
G01 X 17.1877 Y 7.1901 Z -1.0000
G01 X 17.1812 Y 7.1835 Z -1.0000
G01 X 17.1735 Y 7.1815 Z -1.0000
G01 X 17.1673 Y 7.1756 Z -1.0000
G02 X 17.1208 Y 7.1274 Z -1.0000 I -0.1373 J 0.0860
G02 X 16.9436 Y 7.0244 Z -1.0000 I -0.8477 J 1.2544
G03 X 16.8980 Y 7.0002 Z -1.0000 I 0.3957 J -0.8011
G01 X 16.8947 Y 6.9967 Z -1.0000
G01 X 16.8917 Y 6.9936 Z -1.0000
G01 X 16.8849 Y 6.9921 Z -1.0000
G01 X 16.8775 Y 6.9906 Z -1.0000
G03 X 16.8376 Y 6.9732 Z -1.0000 I 0.2458 J -0.6154
G03 X 16.7200 Y 6.9153 Z -1.0000 I 2.3420 J -4.9064
G01 X 16.7146 Y 6.9108 Z -1.0000
G01 X 16.7107 Y 6.9082 Z -1.0000
G02 X 16.6930 Y 6.9046 Z -1.0000 I -0.0308 J 0.1072
G01 X 16.6778 Y 6.8995 Z -1.0000
G01 X 16.6745 Y 6.8936 Z -1.0000
G01 X 16.6711 Y 6.8874 Z -1.0000
G02 X 16.6529 Y 6.8795 Z -1.0000 I -0.0323 J 0.0492
G03 X 16.6018 Y 6.8623 Z -1.0000 I 0.0760 J -0.3109
G01 X 16.5973 Y 6.8554 Z -1.0000
G01 X 16.5952 Y 6.8521 Z -1.0000
G01 X 16.5857 Y 6.8500 Z -1.0000
G01 X 16.5752 Y 6.8476 Z -1.0000
G01 X 16.5664 Y 6.8407 Z -1.0000
G01 X 16.5574 Y 6.8342 Z -1.0000
G01 X 16.5421 Y 6.8314 Z -1.0000
G03 X 16.5265 Y 6.8293 Z -1.0000 I -0.0000 J -0.0594
G01 X 16.5193 Y 6.8251 Z -1.0000
G01 X 16.5122 Y 6.8201 Z -1.0000
G01 X 16.5011 Y 6.8162 Z -1.0000
G03 X 16.4894 Y 6.8130 Z -1.0000 I 0.0225 J -0.1043
G03 X 16.4081 Y 6.7849 Z -1.0000 I 1.7882 J -5.2996
G03 X 16.3318 Y 6.7530 Z -1.0000 I 0.2547 J -0.7182
G01 X 16.3278 Y 6.7461 Z -1.0000
G01 X 16.3254 Y 6.7385 Z -1.0000
G01 X 16.3178 Y 6.7339 Z -1.0000
G01 X 16.3100 Y 6.7355 Z -1.0000
G01 X 16.3070 Y 6.7414 Z -1.0000
G01 X 16.3049 Y 6.7490 Z -1.0000
G01 X 16.3011 Y 6.7511 Z -1.0000
G03 X 16.2709 Y 6.7439 Z -1.0000 I -0.0000 J -0.0668
G01 X 16.2637 Y 6.7323 Z -1.0000
G01 X 16.2931 Y 6.6987 Z -1.0000
G01 X 16.3419 Y 6.7219 Z -1.0000
G01 X 16.3455 Y 6.7233 Z -1.0000
G01 X 16.3579 Y 6.7174 Z -1.0000
G01 X 16.3716 Y 6.7114 Z -1.0000
G01 X 16.3846 Y 6.7117 Z -1.0000
G01 X 16.3970 Y 6.7121 Z -1.0000
G01 X 16.4024 Y 6.7084 Z -1.0000
G01 X 16.4080 Y 6.7042 Z -1.0000
G03 X 16.4277 Y 6.7017 Z -1.0000 I 0.0198 J 0.0750
G02 X 16.4462 Y 6.6988 Z -1.0000 I -0.0000 J -0.0599
G01 X 16.4490 Y 6.6949 Z -1.0000
G01 X 16.4517 Y 6.6915 Z -1.0000
G01 X 16.4629 Y 6.6916 Z -1.0000
G01 X 16.4765 Y 6.6926 Z -1.0000
G01 X 16.4859 Y 6.6895 Z -1.0000
G01 X 16.4941 Y 6.6877 Z -1.0000
G01 X 16.5000 Y 6.6913 Z -1.0000
G01 X 16.5012 Y 6.6825 Z -1.0000
G01 X 16.5037 Y 6.6723 Z -1.0000
G01 X 16.5126 Y 6.6691 Z -1.0000
G01 X 16.5265 Y 6.6691 Z -1.0000
G01 X 16.5320 Y 6.6652 Z -1.0000
G01 X 16.5376 Y 6.6611 Z -1.0000
G03 X 16.5569 Y 6.6584 Z -1.0000 I 0.0193 J 0.0701
G02 X 16.5908 Y 6.6521 Z -1.0000 I 0.0000 J -0.0935
G01 X 16.5972 Y 6.6427 Z -1.0000
G01 X 16.5938 Y 6.6376 Z -1.0000
G02 X 16.5740 Y 6.6326 Z -1.0000 I -0.0247 J 0.0564
G01 X 16.5557 Y 6.6257 Z -1.0000
G01 X 16.5490 Y 6.6142 Z -1.0000
G01 X 16.5527 Y 6.6018 Z -1.0000
G01 X 16.5664 Y 6.5936 Z -1.0000
G01 X 16.5808 Y 6.5867 Z -1.0000
G01 X 16.5824 Y 6.5807 Z -1.0000
G01 X 16.5881 Y 6.5728 Z -1.0000
G01 X 16.6106 Y 6.5822 Z -1.0000
G01 X 16.6188 Y 6.5854 Z -1.0000
G01 X 16.6219 Y 6.5824 Z -1.0000
G01 X 16.6360 Y 6.5501 Z -1.0000
G01 X 16.6622 Y 6.5450 Z -1.0000
G01 X 16.6710 Y 6.5456 Z -1.0000
G01 X 16.6814 Y 6.5404 Z -1.0000
G01 X 16.6921 Y 6.5353 Z -1.0000
G03 X 16.7126 Y 6.5340 Z -1.0000 I 0.0144 J 0.0703
G02 X 16.7330 Y 6.5326 Z -1.0000 I 0.0058 J -0.0649
G01 X 16.7444 Y 6.5268 Z -1.0000
G03 X 16.7649 Y 6.5150 Z -1.0000 I 0.0407 J 0.0466
G03 X 16.8226 Y 6.4998 Z -1.0000 I 0.1279 J 0.3705
G01 X 16.8300 Y 6.4930 Z -1.0000
G01 X 16.8256 Y 6.4844 Z -1.0000
G01 X 16.8392 Y 6.4759 Z -1.0000
G02 X 16.8597 Y 6.4717 Z -1.0000 I -0.0022 J -0.0634
G01 X 16.8751 Y 6.4622 Z -1.0000
G01 X 16.8895 Y 6.4543 Z -1.0000
G01 X 16.8997 Y 6.4559 Z -1.0000
G01 X 16.9109 Y 6.4596 Z -1.0000
G01 X 16.9268 Y 6.4585 Z -1.0000
G01 X 16.9348 Y 6.4510 Z -1.0000
G01 X 16.9332 Y 6.4390 Z -1.0000
G01 X 16.9321 Y 6.4286 Z -1.0000
G01 X 16.9393 Y 6.4237 Z -1.0000
G01 X 16.9529 Y 6.4263 Z -1.0000
G01 X 16.9554 Y 6.4299 Z -1.0000
G01 X 16.9578 Y 6.4338 Z -1.0000
G01 X 16.9678 Y 6.4361 Z -1.0000
G01 X 16.9778 Y 6.4337 Z -1.0000
G01 X 16.9801 Y 6.4299 Z -1.0000
G01 X 16.9780 Y 6.4259 Z -1.0000
G01 X 16.9708 Y 6.4237 Z -1.0000
G01 X 16.9637 Y 6.4216 Z -1.0000
G01 X 16.9615 Y 6.4175 Z -1.0000
G01 X 16.9693 Y 6.4099 Z -1.0000
G01 X 16.9833 Y 6.4178 Z -1.0000
G01 X 16.9880 Y 6.4202 Z -1.0000
G01 X 16.9964 Y 6.4168 Z -1.0000
G01 X 17.0002 Y 6.4097 Z -1.0000
G01 X 16.9978 Y 6.4046 Z -1.0000
G01 X 16.9946 Y 6.3992 Z -1.0000
G01 X 16.9973 Y 6.3913 Z -1.0000
G01 X 17.0003 Y 6.3828 Z -1.0000
G01 X 16.9972 Y 6.3753 Z -1.0000
G01 X 17.0181 Y 6.3719 Z -1.0000
G02 X 17.0449 Y 6.3725 Z -1.0000 I 0.0159 J -0.1154
G01 X 17.0507 Y 6.3689 Z -1.0000
G01 X 17.0562 Y 6.3644 Z -1.0000
G01 X 17.0710 Y 6.3620 Z -1.0000
G01 X 17.0519 Y 6.3548 Z -1.0000
G03 X 17.0255 Y 6.3521 Z -1.0000 I 0.0033 J -0.1633
G01 X 17.0233 Y 6.3495 Z -1.0000
G01 X 17.0277 Y 6.3438 Z -1.0000
G03 X 17.0588 Y 6.3400 Z -1.0000 I 0.0292 J 0.1098
G02 X 17.0768 Y 6.3383 Z -1.0000 I 0.0014 J -0.0802
G01 X 17.0789 Y 6.3357 Z -1.0000
G01 X 17.0771 Y 6.3329 Z -1.0000
G01 X 17.0681 Y 6.3309 Z -1.0000
G01 X 17.0656 Y 6.3280 Z -1.0000
G01 X 17.0693 Y 6.3216 Z -1.0000
G01 X 17.0821 Y 6.3148 Z -1.0000
G01 X 17.0961 Y 6.3125 Z -1.0000
G01 X 17.1081 Y 6.3088 Z -1.0000
G01 X 17.1141 Y 6.3004 Z -1.0000
G01 X 17.1197 Y 6.2905 Z -1.0000
G01 X 17.1298 Y 6.2843 Z -1.0000
G01 X 17.1354 Y 6.2794 Z -1.0000
G01 X 17.1341 Y 6.2753 Z -1.0000
G01 X 17.1279 Y 6.2565 Z -1.0000
G01 X 17.1501 Y 6.2344 Z -1.0000
G01 X 17.1539 Y 6.2293 Z -1.0000
G01 X 17.1510 Y 6.2207 Z -1.0000
G01 X 17.1439 Y 6.2098 Z -1.0000
G03 X 17.1383 Y 6.1937 Z -1.0000 I 0.0755 J -0.0355
G01 X 17.1416 Y 6.1825 Z -1.0000
G01 X 17.1560 Y 6.1767 Z -1.0000
G01 X 17.1700 Y 6.1687 Z -1.0000
G01 X 17.1685 Y 6.1559 Z -1.0000
G01 X 17.1591 Y 6.1353 Z -1.0000
G01 X 17.1667 Y 6.1273 Z -1.0000
G01 X 17.1700 Y 6.1177 Z -1.0000
G02 X 17.1394 Y 6.1055 Z -1.0000 I -0.0352 J 0.0442
G01 X 17.1298 Y 6.1009 Z -1.0000
G01 X 17.1275 Y 6.0927 Z -1.0000
G01 X 17.1249 Y 6.0699 Z -1.0000
G01 X 17.1142 Y 6.0636 Z -1.0000
G01 X 17.1009 Y 6.0587 Z -1.0000
G01 X 17.1018 Y 6.0528 Z -1.0000
G01 X 17.0969 Y 6.0433 Z -1.0000
G01 X 17.0959 Y 6.0362 Z -1.0000
G01 X 17.1028 Y 6.0304 Z -1.0000
G01 X 17.1078 Y 6.0205 Z -1.0000
G01 X 17.0938 Y 6.0076 Z -1.0000
G01 X 17.0649 Y 5.9836 Z -1.0000
G01 X 17.0721 Y 5.9650 Z -1.0000
G01 X 17.0897 Y 5.9499 Z -1.0000
G01 X 17.0850 Y 5.9420 Z -1.0000
G01 X 17.0806 Y 5.9438 Z -1.0000
G01 X 17.0788 Y 5.9482 Z -1.0000
G01 X 17.0765 Y 5.9520 Z -1.0000
G01 X 17.0671 Y 5.9544 Z -1.0000
G01 X 17.0553 Y 5.9484 Z -1.0000
G03 X 17.0443 Y 5.9241 Z -1.0000 I 0.0482 J -0.0363
G01 X 17.0414 Y 5.9162 Z -1.0000
G01 X 17.0375 Y 5.9118 Z -1.0000
G01 X 17.0332 Y 5.9075 Z -1.0000
G03 X 17.0257 Y 5.8958 Z -1.0000 I 0.0843 J -0.0621
G01 X 17.0171 Y 5.8861 Z -1.0000
G01 X 17.0042 Y 5.8801 Z -1.0000
G01 X 16.9972 Y 5.8718 Z -1.0000
G01 X 17.0016 Y 5.8662 Z -1.0000
G01 X 17.0010 Y 5.8606 Z -1.0000
G01 X 16.9969 Y 5.8589 Z -1.0000
G01 X 16.9915 Y 5.8626 Z -1.0000
G01 X 16.9856 Y 5.8642 Z -1.0000
G01 X 16.9707 Y 5.8525 Z -1.0000
G01 X 16.9627 Y 5.8360 Z -1.0000
G01 X 16.9658 Y 5.8304 Z -1.0000
G01 X 16.9701 Y 5.8261 Z -1.0000
G01 X 16.9687 Y 5.8222 Z -1.0000
G01 X 16.9613 Y 5.8212 Z -1.0000
G02 X 16.9412 Y 5.8301 Z -1.0000 I 0.0215 J 0.0758
G03 X 16.9210 Y 5.8384 Z -1.0000 I -0.0353 J -0.0575
G01 X 16.9119 Y 5.8368 Z -1.0000
G01 X 16.9202 Y 5.8310 Z -1.0000
G01 X 16.9326 Y 5.8281 Z -1.0000
G01 X 16.9336 Y 5.8245 Z -1.0000
G01 X 16.9285 Y 5.8211 Z -1.0000
G01 X 16.9178 Y 5.8218 Z -1.0000
G01 X 16.9082 Y 5.8224 Z -1.0000
G01 X 16.9060 Y 5.8197 Z -1.0000
G01 X 16.9081 Y 5.8155 Z -1.0000
G01 X 16.9176 Y 5.8108 Z -1.0000
G01 X 16.9365 Y 5.7747 Z -1.0000
G01 X 16.8930 Y 5.7445 Z -1.0000
G01 X 16.8835 Y 5.7472 Z -1.0000
G01 X 16.8758 Y 5.7553 Z -1.0000
G01 X 16.8689 Y 5.7605 Z -1.0000
G01 X 16.8622 Y 5.7587 Z -1.0000
G01 X 16.8591 Y 5.7510 Z -1.0000
G01 X 16.8625 Y 5.7417 Z -1.0000
G01 X 16.8631 Y 5.7356 Z -1.0000
G01 X 16.8573 Y 5.7322 Z -1.0000
G01 X 16.8484 Y 5.7280 Z -1.0000
G01 X 16.8442 Y 5.7168 Z -1.0000
G01 X 16.8409 Y 5.7046 Z -1.0000
G01 X 16.8352 Y 5.7013 Z -1.0000
G01 X 16.8292 Y 5.6978 Z -1.0000
G03 X 16.8223 Y 5.6782 Z -1.0000 I 0.0537 J -0.0298
G02 X 16.8094 Y 5.6416 Z -1.0000 I -0.1107 J 0.0187
G01 X 16.7978 Y 5.6349 Z -1.0000
G01 X 16.7827 Y 5.6349 Z -1.0000
G01 X 16.7947 Y 5.6517 Z -1.0000
G01 X 16.8017 Y 5.6681 Z -1.0000
G01 X 16.7995 Y 5.6756 Z -1.0000
G01 X 16.7981 Y 5.6804 Z -1.0000
G01 X 16.8013 Y 5.6828 Z -1.0000
G01 X 16.8009 Y 5.6890 Z -1.0000
G01 X 16.7977 Y 5.6951 Z -1.0000
G01 X 16.8009 Y 5.7013 Z -1.0000
G01 X 16.8042 Y 5.7074 Z -1.0000
G01 X 16.8009 Y 5.7135 Z -1.0000
G01 X 16.7940 Y 5.7136 Z -1.0000
G01 X 16.7884 Y 5.7060 Z -1.0000
G01 X 16.7822 Y 5.6954 Z -1.0000
G01 X 16.7698 Y 5.6888 Z -1.0000
G01 X 16.7662 Y 5.6850 Z -1.0000
G01 X 16.7685 Y 5.6814 Z -1.0000
G01 X 16.7813 Y 5.6654 Z -1.0000
G01 X 16.7699 Y 5.6456 Z -1.0000
G01 X 16.7615 Y 5.6377 Z -1.0000
G01 X 16.7614 Y 5.6323 Z -1.0000
G01 X 16.7620 Y 5.6266 Z -1.0000
G01 X 16.7569 Y 5.6205 Z -1.0000
G01 X 16.7500 Y 5.6199 Z -1.0000
G01 X 16.7442 Y 5.6258 Z -1.0000
G01 X 16.7396 Y 5.6228 Z -1.0000
G01 X 16.7372 Y 5.6104 Z -1.0000
G01 X 16.7333 Y 5.6056 Z -1.0000
G01 X 16.7302 Y 5.6011 Z -1.0000
G01 X 16.7309 Y 5.5929 Z -1.0000
G01 X 16.7297 Y 5.5871 Z -1.0000
G01 X 16.7218 Y 5.5838 Z -1.0000
G01 X 16.7102 Y 5.5814 Z -1.0000
G01 X 16.6999 Y 5.5745 Z -1.0000
G01 X 16.6911 Y 5.5696 Z -1.0000
G01 X 16.6867 Y 5.5715 Z -1.0000
G01 X 16.6782 Y 5.5721 Z -1.0000
G01 X 16.6713 Y 5.5531 Z -1.0000
G01 X 16.6742 Y 5.5374 Z -1.0000
G01 X 16.6790 Y 5.5326 Z -1.0000
G01 X 16.6818 Y 5.5286 Z -1.0000
G01 X 16.6790 Y 5.5216 Z -1.0000
G01 X 16.6740 Y 5.5202 Z -1.0000
G01 X 16.6713 Y 5.5239 Z -1.0000
G01 X 16.6685 Y 5.5316 Z -1.0000
G01 X 16.6626 Y 5.5344 Z -1.0000
G01 X 16.6551 Y 5.5361 Z -1.0000
G01 X 16.6518 Y 5.5398 Z -1.0000
G01 X 16.6485 Y 5.5437 Z -1.0000
G03 X 16.6362 Y 5.5494 Z -1.0000 I -0.0282 J -0.0456
G01 X 16.6270 Y 5.5481 Z -1.0000
G01 X 16.6236 Y 5.5412 Z -1.0000
G01 X 16.6283 Y 5.5340 Z -1.0000
G01 X 16.6397 Y 5.5326 Z -1.0000
G01 X 16.6489 Y 5.5311 Z -1.0000
G01 X 16.6507 Y 5.5257 Z -1.0000
G03 X 16.6474 Y 5.5148 Z -1.0000 I 0.0760 J -0.0296
G01 X 16.6466 Y 5.5086 Z -1.0000
G01 X 16.6443 Y 5.5056 Z -1.0000
G01 X 16.6369 Y 5.5060 Z -1.0000
G01 X 16.6274 Y 5.5072 Z -1.0000
G01 X 16.6144 Y 5.5029 Z -1.0000
G01 X 16.6031 Y 5.5011 Z -1.0000
G01 X 16.5960 Y 5.5060 Z -1.0000
G01 X 16.5884 Y 5.5126 Z -1.0000
G03 X 16.5691 Y 5.5160 Z -1.0000 I -0.0192 J -0.0517
G01 X 16.5578 Y 5.5089 Z -1.0000
G01 X 16.5607 Y 5.4986 Z -1.0000
G01 X 16.5663 Y 5.4895 Z -1.0000
G01 X 16.5626 Y 5.4783 Z -1.0000
G01 X 16.5524 Y 5.4727 Z -1.0000
G01 X 16.5463 Y 5.4756 Z -1.0000
G01 X 16.5397 Y 5.4828 Z -1.0000
G01 X 16.5320 Y 5.4851 Z -1.0000
G01 X 16.5230 Y 5.4760 Z -1.0000
G01 X 16.5323 Y 5.4627 Z -1.0000
G01 X 16.5359 Y 5.4545 Z -1.0000
G01 X 16.5263 Y 5.4481 Z -1.0000
G01 X 16.5185 Y 5.4462 Z -1.0000
G03 X 16.4925 Y 5.4314 Z -1.0000 I 0.1094 J -0.2216
G03 X 16.4756 Y 5.4151 Z -1.0000 I 0.0344 J -0.0526
G01 X 16.4769 Y 5.4093 Z -1.0000
G01 X 16.4869 Y 5.4061 Z -1.0000
G01 X 16.4959 Y 5.4073 Z -1.0000
G01 X 16.5013 Y 5.4047 Z -1.0000
G01 X 16.4681 Y 5.3875 Z -1.0000
G01 X 16.4489 Y 5.4079 Z -1.0000
G01 X 16.4465 Y 5.4148 Z -1.0000
G01 X 16.4415 Y 5.4172 Z -1.0000
G01 X 16.4415 Y 5.4246 Z -1.0000
G01 X 16.4437 Y 5.4340 Z -1.0000
G01 X 16.4370 Y 5.4376 Z -1.0000
G01 X 16.4273 Y 5.4317 Z -1.0000
G03 X 16.4151 Y 5.4135 Z -1.0000 I 0.0558 J -0.0505
G01 X 16.4049 Y 5.4032 Z -1.0000
G01 X 16.4007 Y 5.4064 Z -1.0000
G01 X 16.3968 Y 5.4148 Z -1.0000
G01 X 16.3757 Y 5.4201 Z -1.0000
G03 X 16.3428 Y 5.4076 Z -1.0000 I 0.0004 J -0.0508
G01 X 16.3439 Y 5.3924 Z -1.0000
G01 X 16.3459 Y 5.3864 Z -1.0000
G01 X 16.3404 Y 5.3839 Z -1.0000
G01 X 16.3347 Y 5.3739 Z -1.0000
G01 X 16.3253 Y 5.3682 Z -1.0000
G01 X 16.3156 Y 5.3770 Z -1.0000
G01 X 16.3047 Y 5.3883 Z -1.0000
G01 X 16.2798 Y 5.3870 Z -1.0000
G01 X 16.2768 Y 5.3811 Z -1.0000
G01 X 16.2844 Y 5.3696 Z -1.0000
G02 X 16.2996 Y 5.3562 Z -1.0000 I -0.1187 J -0.1504
G01 X 16.3007 Y 5.3536 Z -1.0000
G01 X 16.2703 Y 5.3514 Z -1.0000
G03 X 16.2386 Y 5.3455 Z -1.0000 I -0.0023 J -0.0753
G01 X 16.2389 Y 5.3381 Z -1.0000
G01 X 16.2234 Y 5.3234 Z -1.0000
G01 X 16.2101 Y 5.3152 Z -1.0000
G02 X 16.2215 Y 5.3175 Z -1.0000 I 0.0198 J -0.0683
G02 X 16.2363 Y 5.3184 Z -1.0000 I 0.0148 J -0.1247
G01 X 16.2475 Y 5.3222 Z -1.0000
G01 X 16.2513 Y 5.3299 Z -1.0000
G01 X 16.2552 Y 5.3366 Z -1.0000
G01 X 16.2667 Y 5.3384 Z -1.0000
G01 X 16.2792 Y 5.3267 Z -1.0000
G01 X 16.2729 Y 5.3144 Z -1.0000
G01 X 16.2669 Y 5.3087 Z -1.0000
G01 X 16.2636 Y 5.2930 Z -1.0000
G01 X 16.2610 Y 5.2777 Z -1.0000
G01 X 16.2574 Y 5.2751 Z -1.0000
G01 X 16.2536 Y 5.2775 Z -1.0000
G01 X 16.2512 Y 5.2875 Z -1.0000
G01 X 16.2460 Y 5.2942 Z -1.0000
G01 X 16.2304 Y 5.2929 Z -1.0000
G01 X 16.2194 Y 5.2842 Z -1.0000
G01 X 16.2184 Y 5.2774 Z -1.0000
G01 X 16.2170 Y 5.2721 Z -1.0000
G01 X 16.2086 Y 5.2689 Z -1.0000
G01 X 16.1960 Y 5.2671 Z -1.0000
G03 X 16.1837 Y 5.2616 Z -1.0000 I 0.0143 J -0.0486
G01 X 16.1629 Y 5.2611 Z -1.0000
G01 X 16.1524 Y 5.2790 Z -1.0000
G01 X 16.1478 Y 5.2834 Z -1.0000
G01 X 16.1312 Y 5.2779 Z -1.0000
G01 X 16.1149 Y 5.2767 Z -1.0000
G01 X 16.1119 Y 5.2868 Z -1.0000
G01 X 16.0983 Y 5.2922 Z -1.0000
G03 X 16.0584 Y 5.2872 Z -1.0000 I 0.0009 J -0.1694
G01 X 16.0536 Y 5.2811 Z -1.0000
G01 X 16.0563 Y 5.2781 Z -1.0000
G03 X 16.0783 Y 5.2789 Z -1.0000 I 0.0080 J 0.0880
G02 X 16.1003 Y 5.2796 Z -1.0000 I 0.0138 J -0.0868
G01 X 16.1030 Y 5.2766 Z -1.0000
G01 X 16.0938 Y 5.2631 Z -1.0000
G02 X 16.0476 Y 5.2551 Z -1.0000 I -0.0428 J 0.1107
G01 X 16.0368 Y 5.2488 Z -1.0000
G03 X 16.0304 Y 5.2221 Z -1.0000 I 0.0504 J -0.0262
G03 X 16.0342 Y 5.1920 Z -1.0000 I 0.1315 J 0.0012
G01 X 16.0386 Y 5.1886 Z -1.0000
G01 X 16.0446 Y 5.1861 Z -1.0000
G01 X 16.0494 Y 5.1777 Z -1.0000
G01 X 16.0529 Y 5.1777 Z -1.0000
G01 X 16.0595 Y 5.1828 Z -1.0000
G01 X 16.0681 Y 5.1745 Z -1.0000
G03 X 16.0733 Y 5.1615 Z -1.0000 I 0.0491 J 0.0121
G03 X 16.0835 Y 5.1478 Z -1.0000 I 0.0633 J 0.0363
G02 X 16.0939 Y 5.1343 Z -1.0000 I -0.0689 J -0.0640
G01 X 16.0991 Y 5.1232 Z -1.0000
G01 X 16.0968 Y 5.1160 Z -1.0000
G01 X 16.0844 Y 5.1121 Z -1.0000
G02 X 16.0589 Y 5.1184 Z -1.0000 I 0.0026 J 0.0655
G01 X 16.0536 Y 5.1268 Z -1.0000
G01 X 16.0494 Y 5.1349 Z -1.0000
G01 X 16.0363 Y 5.1392 Z -1.0000
G01 X 16.0242 Y 5.1456 Z -1.0000
G02 X 16.0113 Y 5.1762 Z -1.0000 I 0.0713 J 0.0480
G03 X 15.9975 Y 5.2057 Z -1.0000 I -0.0687 J -0.0142
G01 X 15.9819 Y 5.2133 Z -1.0000
G01 X 15.9510 Y 5.2021 Z -1.0000
G01 X 15.9453 Y 5.1829 Z -1.0000
G01 X 15.9395 Y 5.1688 Z -1.0000
G01 X 15.9155 Y 5.1675 Z -1.0000
G01 X 15.9078 Y 5.1678 Z -1.0000
G01 X 15.9053 Y 5.1646 Z -1.0000
G01 X 15.9083 Y 5.1607 Z -1.0000
G03 X 15.9301 Y 5.1578 Z -1.0000 I 0.0217 J 0.0800
G02 X 15.9510 Y 5.1540 Z -1.0000 I -0.0000 J -0.0593
G01 X 15.9548 Y 5.1485 Z -1.0000
G01 X 15.9571 Y 5.1415 Z -1.0000
G01 X 15.9617 Y 5.1392 Z -1.0000
G01 X 15.9645 Y 5.1359 Z -1.0000
G02 X 15.9568 Y 5.1006 Z -1.0000 I -0.2021 J 0.0257
G01 X 15.9684 Y 5.0919 Z -1.0000
G03 X 15.9980 Y 5.1287 Z -1.0000 I -0.0458 J 0.0671
G01 X 16.0039 Y 5.1315 Z -1.0000
G01 X 16.0099 Y 5.1245 Z -1.0000
G01 X 16.0216 Y 5.1281 Z -1.0000
G01 X 16.0290 Y 5.1310 Z -1.0000
G01 X 16.0367 Y 5.1277 Z -1.0000
G01 X 16.0386 Y 5.1203 Z -1.0000
G01 X 16.0322 Y 5.1108 Z -1.0000
G01 X 16.0196 Y 5.1046 Z -1.0000
G01 X 16.0121 Y 5.1048 Z -1.0000
G01 X 16.0068 Y 5.1041 Z -1.0000
G01 X 16.0042 Y 5.0988 Z -1.0000
G01 X 16.0009 Y 5.0930 Z -1.0000
G01 X 15.9888 Y 5.0897 Z -1.0000
G01 X 15.9779 Y 5.0852 Z -1.0000
G01 X 15.9733 Y 5.0743 Z -1.0000
G01 X 15.9701 Y 5.0620 Z -1.0000
G01 X 15.9648 Y 5.0589 Z -1.0000
G01 X 15.9573 Y 5.0568 Z -1.0000
G01 X 15.9482 Y 5.0491 Z -1.0000
G01 X 15.9402 Y 5.0454 Z -1.0000
G01 X 15.9326 Y 5.0494 Z -1.0000
G01 X 15.9280 Y 5.0600 Z -1.0000
G01 X 15.9283 Y 5.0715 Z -1.0000
G01 X 15.9268 Y 5.0812 Z -1.0000
G01 X 15.9169 Y 5.0897 Z -1.0000
G01 X 15.9208 Y 5.0928 Z -1.0000
G01 X 15.9364 Y 5.0952 Z -1.0000
G01 X 15.9469 Y 5.1062 Z -1.0000
G01 X 15.9507 Y 5.1222 Z -1.0000
G01 X 15.9477 Y 5.1310 Z -1.0000
G01 X 15.9368 Y 5.1334 Z -1.0000
G01 X 15.9300 Y 5.1228 Z -1.0000
G01 X 15.9260 Y 5.1153 Z -1.0000
G01 X 15.9192 Y 5.1158 Z -1.0000
G01 X 15.9078 Y 5.1223 Z -1.0000
G01 X 15.8992 Y 5.1224 Z -1.0000
G01 X 15.8833 Y 5.1114 Z -1.0000
G01 X 15.8837 Y 5.1020 Z -1.0000
G01 X 15.8838 Y 5.0928 Z -1.0000
G01 X 15.8652 Y 5.0806 Z -1.0000
G01 X 15.8548 Y 5.0647 Z -1.0000
G01 X 15.8683 Y 5.0526 Z -1.0000
G01 X 15.8784 Y 5.0504 Z -1.0000
G01 X 15.8806 Y 5.0469 Z -1.0000
G01 X 15.8829 Y 5.0430 Z -1.0000
G01 X 15.8945 Y 5.0385 Z -1.0000
G01 X 15.8834 Y 5.0350 Z -1.0000
G02 X 15.8595 Y 5.0370 Z -1.0000 I -0.0034 J 0.1026
G01 X 15.8510 Y 5.0416 Z -1.0000
G01 X 15.8413 Y 5.0653 Z -1.0000
G01 X 15.8513 Y 5.0790 Z -1.0000
G01 X 15.8543 Y 5.0834 Z -1.0000
G01 X 15.8504 Y 5.0979 Z -1.0000
G01 X 15.8460 Y 5.1136 Z -1.0000
G01 X 15.8492 Y 5.1231 Z -1.0000
G01 X 15.8516 Y 5.1321 Z -1.0000
G01 X 15.8457 Y 5.1449 Z -1.0000
G01 X 15.8230 Y 5.1570 Z -1.0000
G03 X 15.7849 Y 5.1520 Z -1.0000 I -0.0092 J -0.0786
G01 X 15.7737 Y 5.1516 Z -1.0000
G01 X 15.7621 Y 5.1592 Z -1.0000
G01 X 15.7510 Y 5.1674 Z -1.0000
G01 X 15.7447 Y 5.1670 Z -1.0000
G01 X 15.7430 Y 5.1516 Z -1.0000
G01 X 15.7735 Y 5.1393 Z -1.0000
G01 X 15.7853 Y 5.1366 Z -1.0000
G01 X 15.7880 Y 5.1324 Z -1.0000
G01 X 15.7973 Y 5.1331 Z -1.0000
G01 X 15.8038 Y 5.1348 Z -1.0000
G01 X 15.8066 Y 5.1314 Z -1.0000
G01 X 15.8090 Y 5.1238 Z -1.0000
G01 X 15.8159 Y 5.1185 Z -1.0000
G01 X 15.8241 Y 5.1048 Z -1.0000
G01 X 15.8126 Y 5.0916 Z -1.0000
G01 X 15.8056 Y 5.0822 Z -1.0000
G03 X 15.8143 Y 5.0480 Z -1.0000 I 0.0847 J 0.0033
G01 X 15.8174 Y 5.0347 Z -1.0000
G01 X 15.8142 Y 5.0271 Z -1.0000
G01 X 15.8092 Y 5.0269 Z -1.0000
G01 X 15.8032 Y 5.0365 Z -1.0000
G01 X 15.7912 Y 5.0469 Z -1.0000
G01 X 15.7797 Y 5.0390 Z -1.0000
G01 X 15.7739 Y 5.0331 Z -1.0000
G01 X 15.7660 Y 5.0352 Z -1.0000
G01 X 15.7610 Y 5.0460 Z -1.0000
G01 X 15.7637 Y 5.0598 Z -1.0000
G02 X 15.7724 Y 5.0735 Z -1.0000 I 0.0870 J -0.0457
G01 X 15.7781 Y 5.0788 Z -1.0000
G01 X 15.7814 Y 5.0834 Z -1.0000
G01 X 15.7804 Y 5.0873 Z -1.0000
G01 X 15.7759 Y 5.0886 Z -1.0000
G01 X 15.7666 Y 5.0838 Z -1.0000
G01 X 15.7572 Y 5.0830 Z -1.0000
G01 X 15.7552 Y 5.0878 Z -1.0000
G01 X 15.7503 Y 5.0899 Z -1.0000
G01 X 15.7514 Y 5.0802 Z -1.0000
G01 X 15.7544 Y 5.0712 Z -1.0000
G01 X 15.7507 Y 5.0648 Z -1.0000
G01 X 15.7414 Y 5.0603 Z -1.0000
G01 X 15.7344 Y 5.0591 Z -1.0000
G01 X 15.7282 Y 5.0569 Z -1.0000
G01 X 15.7211 Y 5.0485 Z -1.0000
G01 X 15.7128 Y 5.0422 Z -1.0000
G02 X 15.6868 Y 5.0397 Z -1.0000 I -0.0209 J 0.0814
G03 X 15.6613 Y 5.0383 Z -1.0000 I -0.0069 J -0.1076
G01 X 15.6584 Y 5.0348 Z -1.0000
G01 X 15.6608 Y 5.0305 Z -1.0000
G01 X 15.6695 Y 5.0282 Z -1.0000
G01 X 15.6799 Y 5.0263 Z -1.0000
G01 X 15.6872 Y 5.0216 Z -1.0000
G01 X 15.6950 Y 5.0167 Z -1.0000
G03 X 15.7202 Y 5.0100 Z -1.0000 I 0.0558 J 0.1598
G01 X 15.7170 Y 5.0049 Z -1.0000
G01 X 15.7118 Y 4.9995 Z -1.0000
G03 X 15.7035 Y 4.9842 Z -1.0000 I 0.0919 J -0.0592
G01 X 15.6928 Y 4.9737 Z -1.0000
G02 X 15.6666 Y 4.9689 Z -1.0000 I -0.0242 J 0.0585
G02 X 15.6421 Y 4.9742 Z -1.0000 I 0.0022 J 0.0700
G01 X 15.6386 Y 4.9805 Z -1.0000
G01 X 15.6359 Y 4.9873 Z -1.0000
G01 X 15.6247 Y 4.9911 Z -1.0000
G01 X 15.6115 Y 4.9886 Z -1.0000
G01 X 15.6090 Y 4.9849 Z -1.0000
G01 X 15.6068 Y 4.9809 Z -1.0000
G01 X 15.5994 Y 4.9787 Z -1.0000
G01 X 15.5940 Y 4.9764 Z -1.0000
G01 X 15.5936 Y 4.9725 Z -1.0000
G01 X 15.5986 Y 4.9685 Z -1.0000
G01 X 15.6113 Y 4.9663 Z -1.0000
G02 X 15.6501 Y 4.9581 Z -1.0000 I 0.0000 J -0.0961
G01 X 15.6584 Y 4.9455 Z -1.0000
G01 X 15.6674 Y 4.9476 Z -1.0000
G01 X 15.6803 Y 4.9483 Z -1.0000
G01 X 15.6850 Y 4.9359 Z -1.0000
G01 X 15.6788 Y 4.9280 Z -1.0000
G01 X 15.6640 Y 4.9245 Z -1.0000
G01 X 15.6491 Y 4.9280 Z -1.0000
G01 X 15.6460 Y 4.9327 Z -1.0000
G01 X 15.6350 Y 4.9463 Z -1.0000
G01 X 15.6031 Y 4.9418 Z -1.0000
G01 X 15.5865 Y 4.9402 Z -1.0000
G01 X 15.5860 Y 4.9439 Z -1.0000
G01 X 15.5745 Y 4.9520 Z -1.0000
G01 X 15.5628 Y 4.9539 Z -1.0000
G01 X 15.5596 Y 4.9504 Z -1.0000
G01 X 15.5533 Y 4.9449 Z -1.0000
G01 X 15.5399 Y 4.9529 Z -1.0000
G01 X 15.5174 Y 4.9656 Z -1.0000
G01 X 15.4906 Y 4.9572 Z -1.0000
G02 X 15.4665 Y 4.9444 Z -1.0000 I -0.0419 J 0.0498
G01 X 15.4608 Y 4.9487 Z -1.0000
G01 X 15.4577 Y 4.9521 Z -1.0000
G03 X 15.4339 Y 4.9520 Z -1.0000 I -0.0112 J -0.0905
G02 X 15.4082 Y 4.9515 Z -1.0000 I -0.0148 J 0.1076
G01 X 15.4000 Y 4.9554 Z -1.0000
G01 X 15.3918 Y 4.9599 Z -1.0000
G03 X 15.3626 Y 4.9643 Z -1.0000 I -0.0394 J -0.1659
G03 X 15.3386 Y 4.9609 Z -1.0000 I -0.0037 J -0.0615
G01 X 15.3352 Y 4.9547 Z -1.0000
G01 X 15.3324 Y 4.9468 Z -1.0000
G02 X 15.3086 Y 4.9358 Z -1.0000 I -0.0412 J 0.0580
G02 X 15.2806 Y 4.9328 Z -1.0000 I -0.0247 J 0.0978
G01 X 15.2726 Y 4.9370 Z -1.0000
G01 X 15.2653 Y 4.9428 Z -1.0000
G01 X 15.2585 Y 4.9431 Z -1.0000
G01 X 15.2530 Y 4.9436 Z -1.0000
G01 X 15.2508 Y 4.9472 Z -1.0000
G01 X 15.2483 Y 4.9514 Z -1.0000
G01 X 15.2387 Y 4.9539 Z -1.0000
G01 X 15.2284 Y 4.9568 Z -1.0000
G01 X 15.2206 Y 4.9647 Z -1.0000
G01 X 15.2137 Y 4.9733 Z -1.0000
G01 X 15.2095 Y 4.9744 Z -1.0000
G01 X 15.2061 Y 4.9814 Z -1.0000
G01 X 15.2044 Y 4.9875 Z -1.0000
G01 X 15.1954 Y 4.9928 Z -1.0000
G01 X 15.1899 Y 4.9906 Z -1.0000
G01 X 15.1896 Y 4.9838 Z -1.0000
G01 X 15.1857 Y 4.9775 Z -1.0000
G01 X 15.1707 Y 4.9846 Z -1.0000
G03 X 15.1514 Y 5.0003 Z -1.0000 I -0.0581 J -0.0519
G01 X 15.1422 Y 5.0010 Z -1.0000
G01 X 15.1323 Y 5.0000 Z -1.0000
G01 X 15.1236 Y 5.0039 Z -1.0000
G01 X 15.1083 Y 5.0053 Z -1.0000
G01 X 15.0996 Y 4.9906 Z -1.0000
G01 X 15.0953 Y 4.9805 Z -1.0000
G01 X 15.0861 Y 4.9775 Z -1.0000
G01 X 15.0732 Y 4.9697 Z -1.0000
G01 X 15.0768 Y 4.9520 Z -1.0000
G01 X 15.0894 Y 4.9386 Z -1.0000
G01 X 15.0715 Y 4.9379 Z -1.0000
G01 X 15.0552 Y 4.9474 Z -1.0000
G01 X 15.0558 Y 4.9678 Z -1.0000
G01 X 15.0581 Y 4.9779 Z -1.0000
G01 X 15.0543 Y 4.9862 Z -1.0000
G01 X 15.0425 Y 4.9848 Z -1.0000
G01 X 15.0388 Y 4.9608 Z -1.0000
G01 X 15.0368 Y 4.9518 Z -1.0000
G01 X 15.0293 Y 4.9494 Z -1.0000
G01 X 15.0171 Y 4.9502 Z -1.0000
G01 X 15.0126 Y 4.9473 Z -1.0000
G01 X 15.0005 Y 4.9416 Z -1.0000
G01 X 14.9893 Y 4.9505 Z -1.0000
G01 X 14.9896 Y 4.9585 Z -1.0000
G02 X 15.0019 Y 4.9765 Z -1.0000 I 0.0664 J -0.0323
G03 X 15.0117 Y 4.9921 Z -1.0000 I -0.0369 J 0.0342
G01 X 15.0098 Y 4.9963 Z -1.0000
G01 X 15.0027 Y 4.9959 Z -1.0000
G01 X 14.9943 Y 4.9889 Z -1.0000
G01 X 14.9856 Y 4.9814 Z -1.0000
G01 X 14.9749 Y 4.9788 Z -1.0000
G03 X 14.9377 Y 4.9709 Z -1.0000 I 0.0000 J -0.0920
G01 X 14.9297 Y 4.9587 Z -1.0000
G01 X 14.9315 Y 4.9560 Z -1.0000
G01 X 14.9420 Y 4.9541 Z -1.0000
G01 X 14.9520 Y 4.9565 Z -1.0000
G01 X 14.9543 Y 4.9603 Z -1.0000
G01 X 14.9609 Y 4.9644 Z -1.0000
G01 X 14.9777 Y 4.9482 Z -1.0000
G01 X 14.9905 Y 4.9352 Z -1.0000
G01 X 15.0021 Y 4.9335 Z -1.0000
G01 X 15.0127 Y 4.9327 Z -1.0000
G01 X 15.0161 Y 4.9276 Z -1.0000
G01 X 15.0192 Y 4.9223 Z -1.0000
G01 X 15.0279 Y 4.9213 Z -1.0000
G01 X 15.0386 Y 4.9206 Z -1.0000
G01 X 15.0526 Y 4.9115 Z -1.0000
G01 X 15.0565 Y 4.8987 Z -1.0000
G01 X 15.0489 Y 4.8924 Z -1.0000
G01 X 15.0430 Y 4.8888 Z -1.0000
G01 X 15.0443 Y 4.8833 Z -1.0000
G01 X 15.0497 Y 4.8743 Z -1.0000
G01 X 15.0470 Y 4.8679 Z -1.0000
G01 X 15.0254 Y 4.8646 Z -1.0000
G01 X 15.0161 Y 4.8770 Z -1.0000
G01 X 15.0122 Y 4.8886 Z -1.0000
G01 X 15.0043 Y 4.8925 Z -1.0000
G01 X 14.9959 Y 4.8883 Z -1.0000
G01 X 14.9872 Y 4.8698 Z -1.0000
G01 X 14.9752 Y 4.8564 Z -1.0000
G01 X 14.9665 Y 4.8626 Z -1.0000
G01 X 14.9606 Y 4.8662 Z -1.0000
G01 X 14.9438 Y 4.8513 Z -1.0000
G01 X 14.9364 Y 4.8465 Z -1.0000
G01 X 14.9300 Y 4.8492 Z -1.0000
G01 X 14.9269 Y 4.8627 Z -1.0000
G01 X 14.9327 Y 4.8677 Z -1.0000
G01 X 14.9389 Y 4.8708 Z -1.0000
G01 X 14.9420 Y 4.8801 Z -1.0000
G01 X 14.9362 Y 4.8869 Z -1.0000
G01 X 14.9236 Y 4.8833 Z -1.0000
G01 X 14.9125 Y 4.8783 Z -1.0000
G02 X 14.8928 Y 4.8801 Z -1.0000 I -0.0053 J 0.0517
G01 X 14.8738 Y 4.8802 Z -1.0000
G01 X 14.8577 Y 4.8704 Z -1.0000
G03 X 14.8448 Y 4.8541 Z -1.0000 I 0.0957 J -0.0891
G01 X 14.8432 Y 4.8489 Z -1.0000
G01 X 14.8411 Y 4.8451 Z -1.0000
G01 X 14.8339 Y 4.8430 Z -1.0000
G01 X 14.8274 Y 4.8402 Z -1.0000
G01 X 14.8246 Y 4.8334 Z -1.0000
G01 X 14.8224 Y 4.8277 Z -1.0000
G01 X 14.8190 Y 4.8272 Z -1.0000
G01 X 14.8015 Y 4.8290 Z -1.0000
G01 X 14.7937 Y 4.8180 Z -1.0000
G01 X 14.7956 Y 4.8143 Z -1.0000
G01 X 14.8061 Y 4.8090 Z -1.0000
G01 X 14.8133 Y 4.7999 Z -1.0000
G01 X 14.8075 Y 4.7935 Z -1.0000
G01 X 14.7978 Y 4.7908 Z -1.0000
G03 X 14.7843 Y 4.7796 Z -1.0000 I 0.0295 J -0.0489
G01 X 14.7748 Y 4.7747 Z -1.0000
G01 X 14.7704 Y 4.7781 Z -1.0000
G01 X 14.7585 Y 4.7968 Z -1.0000
G03 X 14.7277 Y 4.8059 Z -1.0000 I -0.0308 J -0.0473
G01 X 14.7229 Y 4.8091 Z -1.0000
G01 X 14.7197 Y 4.8245 Z -1.0000
G01 X 14.7154 Y 4.8387 Z -1.0000
G01 X 14.7073 Y 4.8430 Z -1.0000
G01 X 14.6997 Y 4.8383 Z -1.0000
G01 X 14.6950 Y 4.8186 Z -1.0000
G01 X 14.6950 Y 4.7942 Z -1.0000
G01 X 14.6628 Y 4.7923 Z -1.0000
G03 X 14.6355 Y 4.7843 Z -1.0000 I 0.0037 J -0.0630
G01 X 14.6250 Y 4.7709 Z -1.0000
G01 X 14.6244 Y 4.7526 Z -1.0000
G01 X 14.6325 Y 4.7373 Z -1.0000
G01 X 14.6452 Y 4.7311 Z -1.0000
G01 X 14.6546 Y 4.7352 Z -1.0000
G01 X 14.6639 Y 4.7403 Z -1.0000
G01 X 14.6669 Y 4.7369 Z -1.0000
G01 X 14.6811 Y 4.7368 Z -1.0000
G01 X 14.6981 Y 4.7402 Z -1.0000
G01 X 14.6827 Y 4.7446 Z -1.0000
G01 X 14.6817 Y 4.7496 Z -1.0000
G01 X 14.6946 Y 4.7468 Z -1.0000
G01 X 14.7075 Y 4.7363 Z -1.0000
G01 X 14.7199 Y 4.7280 Z -1.0000
G01 X 14.7301 Y 4.7292 Z -1.0000
G01 X 14.7385 Y 4.7376 Z -1.0000
G01 X 14.7413 Y 4.7472 Z -1.0000
G01 X 14.7492 Y 4.7590 Z -1.0000
G01 X 14.7575 Y 4.7538 Z -1.0000
G03 X 14.7584 Y 4.7441 Z -1.0000 I 0.5003 J 0.0394
G03 X 14.7592 Y 4.7363 Z -1.0000 I 0.4066 J 0.0400
G01 X 14.7631 Y 4.7321 Z -1.0000
G03 X 14.7876 Y 4.7299 Z -1.0000 I 0.0200 J 0.0882
G02 X 14.8135 Y 4.7285 Z -1.0000 I 0.0059 J -0.1239
G01 X 14.8191 Y 4.7247 Z -1.0000
G01 X 14.8240 Y 4.7222 Z -1.0000
G01 X 14.8358 Y 4.7261 Z -1.0000
G01 X 14.8481 Y 4.7296 Z -1.0000
G01 X 14.8583 Y 4.7259 Z -1.0000
G01 X 14.8693 Y 4.7207 Z -1.0000
G03 X 14.9094 Y 4.7168 Z -1.0000 I 0.0455 J 0.2572
G03 X 14.9487 Y 4.7202 Z -1.0000 I 0.0040 J 0.1792
G01 X 14.9601 Y 4.7269 Z -1.0000
G01 X 14.9782 Y 4.7371 Z -1.0000
G01 X 14.9853 Y 4.7311 Z -1.0000
G01 X 14.9829 Y 4.7277 Z -1.0000
G01 X 14.9760 Y 4.7278 Z -1.0000
G01 X 14.9696 Y 4.7271 Z -1.0000
G01 X 14.9667 Y 4.7219 Z -1.0000
G01 X 14.9699 Y 4.7167 Z -1.0000
G01 X 14.9784 Y 4.7161 Z -1.0000
G01 X 14.9880 Y 4.7158 Z -1.0000
G01 X 14.9936 Y 4.7103 Z -1.0000
G01 X 15.0080 Y 4.6999 Z -1.0000
G03 X 15.0791 Y 4.7064 Z -1.0000 I 0.0119 J 0.2631
G02 X 15.1013 Y 4.7082 Z -1.0000 I 0.0171 J -0.0731
G01 X 15.1131 Y 4.7041 Z -1.0000
G03 X 15.1597 Y 4.6865 Z -1.0000 I 0.0594 J 0.0869
G03 X 15.1945 Y 4.6942 Z -1.0000 I 0.0065 J 0.0533
G01 X 15.1987 Y 4.7006 Z -1.0000
G03 X 15.1981 Y 4.7215 Z -1.0000 I -0.0661 J 0.0086
G01 X 15.2042 Y 4.7279 Z -1.0000
G01 X 15.2138 Y 4.7193 Z -1.0000
G01 X 15.2291 Y 4.6980 Z -1.0000
G01 X 15.2415 Y 4.7007 Z -1.0000
G01 X 15.2500 Y 4.7045 Z -1.0000
G02 X 15.2910 Y 4.6922 Z -1.0000 I -0.0308 J -0.1776
G03 X 15.3154 Y 4.6856 Z -1.0000 I 0.0343 J 0.0782
G01 X 15.3264 Y 4.6880 Z -1.0000
G01 X 15.3376 Y 4.6929 Z -1.0000
G01 X 15.3503 Y 4.6946 Z -1.0000
G01 X 15.3582 Y 4.6983 Z -1.0000
G01 X 15.3596 Y 4.7054 Z -1.0000
G01 X 15.3667 Y 4.7039 Z -1.0000
G01 X 15.3790 Y 4.6954 Z -1.0000
G01 X 15.3945 Y 4.6935 Z -1.0000
G01 X 15.4078 Y 4.6914 Z -1.0000
G01 X 15.4115 Y 4.6857 Z -1.0000
G01 X 15.4154 Y 4.6801 Z -1.0000
G03 X 15.4377 Y 4.6767 Z -1.0000 I 0.0204 J 0.0590
G02 X 15.4639 Y 4.6764 Z -1.0000 I 0.0091 J -0.3464
G02 X 15.5171 Y 4.6729 Z -1.0000 I -0.0811 J -1.6405
G03 X 15.5685 Y 4.6718 Z -1.0000 I 0.0343 J 0.4011
G01 X 15.5746 Y 4.6754 Z -1.0000
G01 X 15.5800 Y 4.6785 Z -1.0000
G01 X 15.5914 Y 4.6758 Z -1.0000
G01 X 15.6041 Y 4.6717 Z -1.0000
G01 X 15.6135 Y 4.6728 Z -1.0000
G01 X 15.6226 Y 4.6738 Z -1.0000
G01 X 15.6303 Y 4.6704 Z -1.0000
G01 X 15.6386 Y 4.6669 Z -1.0000
G03 X 15.7268 Y 4.6607 Z -1.0000 I 0.1483 J 1.4659
G02 X 15.8152 Y 4.6537 Z -1.0000 I -0.0475 J -1.1614
G02 X 15.8360 Y 4.6478 Z -1.0000 I -0.0081 J -0.0689
G03 X 15.8566 Y 4.6412 Z -1.0000 I 0.0393 J 0.0864
G03 X 15.8823 Y 4.6385 Z -1.0000 I 0.0267 J 0.1327
G02 X 16.0712 Y 4.6336 Z -1.0000 I -0.0149 J -4.1587
G02 X 16.1054 Y 4.6275 Z -1.0000 I -0.0068 J -0.1378
G03 X 16.1252 Y 4.6235 Z -1.0000 I 0.0307 J 0.0995
G03 X 16.1618 Y 4.6216 Z -1.0000 I 0.0350 J 0.3293
G02 X 16.1986 Y 4.6208 Z -1.0000 I 0.0010 J -0.7779
G02 X 16.2544 Y 4.6173 Z -1.0000 I -0.0808 J -1.7482
G03 X 16.4522 Y 4.6036 Z -1.0000 I 0.9586 J 12.4217
G03 X 16.4970 Y 4.6025 Z -1.0000 I 0.0385 J 0.6298
G02 X 16.5290 Y 4.6010 Z -1.0000 I 0.0028 J -0.2799
G01 X 16.5367 Y 4.5984 Z -1.0000
G01 X 16.5445 Y 4.5957 Z -1.0000
G03 X 16.6062 Y 4.5923 Z -1.0000 I 0.0886 J 1.0217
G02 X 16.6684 Y 4.5902 Z -1.0000 I -0.1213 J -4.5534
G02 X 16.7549 Y 4.5862 Z -1.0000 I -0.2855 J -7.0810
G03 X 16.8413 Y 4.5818 Z -1.0000 I 195.7677 J 3879.2539
G03 X 16.8691 Y 4.5805 Z -1.0000 I 0.3022 J 5.9904
G02 X 16.8968 Y 4.5782 Z -1.0000 I -0.0185 J -0.3962
G02 X 16.9124 Y 4.5755 Z -1.0000 I -0.0161 J -0.1373
G03 X 16.9280 Y 4.5731 Z -1.0000 I 0.0217 J 0.0922
G03 X 17.0266 Y 4.5682 Z -1.0000 I 0.2318 J 3.6145
G02 X 17.1254 Y 4.5640 Z -1.0000 I -0.3406 J -9.2546
G02 X 17.2089 Y 4.5596 Z -1.0000 I -0.3493 J -7.3539
G03 X 17.2922 Y 4.5549 Z -1.0000 I 1.0293 J 17.4835
G03 X 17.3077 Y 4.5542 Z -1.0000 I 0.0445 J 0.8230
G02 X 17.3231 Y 4.5534 Z -1.0000 I -0.0124 J -0.4236
G02 X 17.3602 Y 4.5507 Z -1.0000 I -0.1398 J -2.1230
G03 X 17.3973 Y 4.5482 Z -1.0000 I 0.0906 J 1.0862
G03 X 17.5052 Y 4.5435 Z -1.0000 I 0.5104 J 10.3841
G02 X 17.6128 Y 4.5383 Z -1.0000 I -0.2191 J -5.6540
G01 X 17.6171 Y 4.5369 Z -1.0000
G01 X 17.6215 Y 4.5355 Z -1.0000
G03 X 17.8957 Y 4.5309 Z -1.0000 I 0.6595 J 30.6198
G02 X 18.1701 Y 4.5258 Z -1.0000 I -0.2972 J -23.6163
G02 X 18.2254 Y 4.5230 Z -1.0000 I -0.0244 J -1.0093
G03 X 18.2804 Y 4.5206 Z -1.0000 I 0.0592 J 0.7477
G03 X 18.3083 Y 4.5225 Z -1.0000 I 0.0011 J 0.1952
G02 X 18.3356 Y 4.5236 Z -1.0000 I 0.0194 J -0.1409
G01 X 18.3478 Y 4.5203 Z -1.0000
G01 X 18.3600 Y 4.5167 Z -1.0000
G03 X 18.4034 Y 4.5150 Z -1.0000 I 0.0370 J 0.3860
G02 X 18.4775 Y 4.5159 Z -1.0000 I 0.1194 J -6.9873
G02 X 18.5090 Y 4.5157 Z -1.0000 I 0.0079 J -1.2186
G03 X 18.5337 Y 4.5158 Z -1.0000 I 0.0098 J 0.4771
G03 X 18.5768 Y 4.5178 Z -1.0000 I -0.0463 J 1.4843
G02 X 18.6194 Y 4.5177 Z -1.0000 I 0.0206 J -0.3493
G02 X 18.6355 Y 4.5140 Z -1.0000 I -0.0032 J -0.0502
G03 X 18.6517 Y 4.5103 Z -1.0000 I 0.0193 J 0.0475
G03 X 18.7870 Y 4.5048 Z -1.0000 I 0.2011 J 3.2716
G03 X 18.9749 Y 4.5021 Z -1.0000 I 0.3002 J 14.3559
G03 X 19.0526 Y 4.5027 Z -1.0000 I 0.0196 J 2.5012
G02 X 19.1143 Y 4.5030 Z -1.0000 I 0.0414 J -1.7394
G02 X 19.2132 Y 4.5008 Z -1.0000 I -0.0514 J -4.3848
G03 X 19.6457 Y 4.4921 Z -1.0000 I 0.5268 J 15.5413
G03 X 20.1551 Y 4.4951 Z -1.0000 I 0.1304 J 21.5317
G02 X 20.3744 Y 4.4986 Z -1.0000 I 1.4801 J -84.9977
G02 X 20.3929 Y 4.4985 Z -1.0000 I 0.0062 J -0.4187
G02 X 20.4114 Y 4.4980 Z -1.0000 I -0.2177 J -9.5644
G03 X 20.5782 Y 4.4940 Z -1.0000 I 5.7318 J 232.0212
G03 X 20.7450 Y 4.4900 Z -1.0000 I 7.4991 J 312.6446
G03 X 20.7666 Y 4.4897 Z -1.0000 I 0.0337 J 1.4373
G03 X 20.9065 Y 4.4906 Z -1.0000 I 0.0440 J 3.9421
G03 X 21.1588 Y 4.4992 Z -1.0000 I -0.3177 J 13.0553
G02 X 21.3695 Y 4.5072 Z -1.0000 I 0.7946 J -18.1454
G02 X 21.5634 Y 4.5121 Z -1.0000 I 0.4773 J -14.8376
G03 X 21.7205 Y 4.5178 Z -1.0000 I -0.0948 J 4.8333
G03 X 21.7424 Y 4.5215 Z -1.0000 I -0.0050 J 0.0951
G02 X 21.7644 Y 4.5255 Z -1.0000 I 0.0297 J -0.1007
G02 X 21.8382 Y 4.5285 Z -1.0000 I 0.0820 J -1.1068
G03 X 21.9123 Y 4.5305 Z -1.0000 I -0.0189 J 2.0909
G03 X 21.9494 Y 4.5334 Z -1.0000 I -0.0244 J 0.5480
G02 X 21.9859 Y 4.5342 Z -1.0000 I 0.0227 J -0.1978
G01 X 22.0031 Y 4.5297 Z -1.0000
G01 X 22.0188 Y 4.5268 Z -1.0000
G01 X 22.0295 Y 4.5316 Z -1.0000
G01 X 22.0404 Y 4.5374 Z -1.0000
G01 X 22.0561 Y 4.5367 Z -1.0000
G03 X 22.1014 Y 4.5309 Z -1.0000 I 0.0428 J 0.1534
G03 X 22.1307 Y 4.5380 Z -1.0000 I -0.0011 J 0.0682
G01 X 22.1459 Y 4.5427 Z -1.0000
G02 X 22.1877 Y 4.5456 Z -1.0000 I 0.0447 J -0.3368
G03 X 22.2300 Y 4.5474 Z -1.0000 I -0.0060 J 0.6412
G03 X 22.2457 Y 4.5499 Z -1.0000 I -0.0073 J 0.0968
G01 X 22.2589 Y 4.5506 Z -1.0000
G01 X 22.2613 Y 4.5478 Z -1.0000
G01 X 22.2804 Y 4.5268 Z -1.0000
G03 X 22.3274 Y 4.5411 Z -1.0000 I 0.0064 J 0.0631
G01 X 22.3371 Y 4.5453 Z -1.0000
G02 X 22.3931 Y 4.5492 Z -1.0000 I 0.0638 J -0.5120
G03 X 22.4497 Y 4.5520 Z -1.0000 I -0.0144 J 0.8640
G01 X 22.4573 Y 4.5545 Z -1.0000
G01 X 22.4636 Y 4.5557 Z -1.0000
G01 X 22.4683 Y 4.5525 Z -1.0000
G01 X 22.4728 Y 4.5488 Z -1.0000
G01 X 22.4772 Y 4.5492 Z -1.0000
G01 X 22.4919 Y 4.5538 Z -1.0000
G02 X 22.7400 Y 4.5614 Z -1.0000 I 0.3682 J -7.9423
G03 X 22.8569 Y 4.5657 Z -1.0000 I -0.0404 J 2.6621
G01 X 22.8726 Y 4.5693 Z -1.0000
G01 X 22.8880 Y 4.5724 Z -1.0000
G02 X 22.9125 Y 4.5698 Z -1.0000 I 0.0014 J -0.1059
G03 X 22.9372 Y 4.5666 Z -1.0000 I 0.0300 J 0.1318
G03 X 22.9529 Y 4.5682 Z -1.0000 I 0.0021 J 0.0548
G02 X 22.9688 Y 4.5709 Z -1.0000 I 0.0248 J -0.0969
G02 X 23.0149 Y 4.5739 Z -1.0000 I 0.0820 J -0.9103
G03 X 23.2019 Y 4.5821 Z -1.0000 I -0.5541 J 14.8030
G03 X 23.2565 Y 4.5860 Z -1.0000 I -0.0673 J 1.3426
G02 X 23.2898 Y 4.5882 Z -1.0000 I 0.0582 J -0.6264
G02 X 23.4256 Y 4.5928 Z -1.0000 I 0.4694 J -11.8669
G03 X 23.5614 Y 4.5981 Z -1.0000 I -0.1711 J 6.0900
G03 X 23.6109 Y 4.6022 Z -1.0000 I -0.0396 J 0.7856
G02 X 23.6605 Y 4.6062 Z -1.0000 I 0.0893 J -0.7826
G02 X 23.7870 Y 4.6111 Z -1.0000 I 0.2593 J -5.1348
G03 X 24.0450 Y 4.6197 Z -1.0000 I -0.4310 J 16.6437
G03 X 24.0927 Y 4.6238 Z -1.0000 I -0.0228 J 0.5507
G02 X 24.1175 Y 4.6260 Z -1.0000 I 0.0423 J -0.3384
G02 X 24.2088 Y 4.6297 Z -1.0000 I 0.2172 J -4.2129
G03 X 24.2997 Y 4.6338 Z -1.0000 I -0.0905 J 3.0309
G01 X 24.3049 Y 4.6354 Z -1.0000
G01 X 24.3100 Y 4.6371 Z -1.0000
G02 X 24.3927 Y 4.6422 Z -1.0000 I 0.2011 J -2.5696
G03 X 24.4756 Y 4.6471 Z -1.0000 I -0.1476 J 3.2092
G03 X 24.5405 Y 4.6527 Z -1.0000 I -0.1611 J 2.2386
G02 X 24.6055 Y 4.6581 Z -1.0000 I 0.1603 J -1.5458
G02 X 24.6857 Y 4.6618 Z -1.0000 I 0.1658 J -2.6953
G03 X 24.7659 Y 4.6652 Z -1.0000 I -0.0968 J 3.2869
G03 X 24.7845 Y 4.6671 Z -1.0000 I -0.0099 J 0.1835
G02 X 24.8630 Y 4.6760 Z -1.0000 I 0.1590 J -1.0530
G02 X 24.9914 Y 4.6827 Z -1.0000 I 0.2077 J -2.7391
G03 X 25.0308 Y 4.6858 Z -1.0000 I -0.0115 J 0.3999
G01 X 25.0377 Y 4.6887 Z -1.0000
G01 X 25.0447 Y 4.6914 Z -1.0000
G02 X 25.1396 Y 4.6968 Z -1.0000 I 0.1655 J -2.0572
G03 X 25.2353 Y 4.7011 Z -1.0000 I -0.1631 J 4.7714
G03 X 25.2663 Y 4.7036 Z -1.0000 I -0.0294 J 0.5424
G02 X 25.3789 Y 4.7153 Z -1.0000 I 0.6459 J -5.6848
G02 X 25.5403 Y 4.7293 Z -1.0000 I 1.0967 J -11.7149
G03 X 25.5730 Y 4.7332 Z -1.0000 I -0.0354 J 0.4305
G01 X 25.5794 Y 4.7356 Z -1.0000
G01 X 25.5857 Y 4.7376 Z -1.0000
G02 X 25.6574 Y 4.7413 Z -1.0000 I 0.1150 J -1.5590
G03 X 25.7450 Y 4.7469 Z -1.0000 I -0.0331 J 1.1957
G03 X 25.7752 Y 4.7532 Z -1.0000 I -0.0151 J 0.1490
G01 X 25.7854 Y 4.7535 Z -1.0000
G01 X 25.7882 Y 4.7500 Z -1.0000
G01 X 25.7905 Y 4.7472 Z -1.0000
G01 X 25.7959 Y 4.7484 Z -1.0000
G01 X 25.8043 Y 4.7520 Z -1.0000
G02 X 25.8438 Y 4.7558 Z -1.0000 I 0.0539 J -0.3519
G03 X 25.8820 Y 4.7600 Z -1.0000 I -0.0108 J 0.2764
G01 X 25.8861 Y 4.7634 Z -1.0000
G01 X 25.8893 Y 4.7654 Z -1.0000
G01 X 25.8967 Y 4.7623 Z -1.0000
G01 X 25.9059 Y 4.7589 Z -1.0000
G03 X 25.9241 Y 4.7618 Z -1.0000 I 0.0009 J 0.0524
G02 X 25.9429 Y 4.7660 Z -1.0000 I 0.0286 J -0.0824
G01 X 25.9517 Y 4.7650 Z -1.0000
G01 X 25.9603 Y 4.7638 Z -1.0000
G01 X 25.9685 Y 4.7668 Z -1.0000
G01 X 25.9771 Y 4.7700 Z -1.0000
G02 X 26.0105 Y 4.7731 Z -1.0000 I 0.0424 J -0.2777
G03 X 26.0445 Y 4.7749 Z -1.0000 I -0.0332 J 0.9467
G03 X 26.1279 Y 4.7815 Z -1.0000 I -0.3689 J 5.1935
G02 X 26.2113 Y 4.7881 Z -1.0000 I 0.6733 J -7.9172
G02 X 26.2500 Y 4.7905 Z -1.0000 I 0.1051 J -1.4112
G03 X 26.2886 Y 4.7933 Z -1.0000 I -0.0335 J 0.7137
G03 X 26.3025 Y 4.7958 Z -1.0000 I -0.0099 J 0.0978
G02 X 26.3165 Y 4.7982 Z -1.0000 I 0.0241 J -0.0964
G02 X 26.3719 Y 4.8029 Z -1.0000 I 0.1540 J -1.5019
G03 X 26.4273 Y 4.8081 Z -1.0000 I -0.0618 J 0.9446
G03 X 26.4985 Y 4.8187 Z -1.0000 I -0.1898 J 1.5210
G02 X 26.5697 Y 4.8294 Z -1.0000 I 0.2871 J -1.6742
G02 X 26.6066 Y 4.8325 Z -1.0000 I 0.0546 J -0.4259
G03 X 26.6431 Y 4.8360 Z -1.0000 I -0.0140 J 0.3413
G01 X 26.6519 Y 4.8392 Z -1.0000
G01 X 26.6598 Y 4.8411 Z -1.0000
G01 X 26.6667 Y 4.8378 Z -1.0000
G01 X 26.6738 Y 4.8346 Z -1.0000
G01 X 26.6838 Y 4.8368 Z -1.0000
G01 X 26.6947 Y 4.8403 Z -1.0000
G02 X 26.7419 Y 4.8439 Z -1.0000 I 0.0630 J -0.5157
G03 X 26.7883 Y 4.8476 Z -1.0000 I -0.0154 J 0.4816
G01 X 26.7926 Y 4.8504 Z -1.0000
G01 X 26.7967 Y 4.8535 Z -1.0000
G02 X 26.8106 Y 4.8554 Z -1.0000 I 0.0138 J -0.0489
G01 X 26.8202 Y 4.8592 Z -1.0000
G01 X 26.8220 Y 4.8662 Z -1.0000
G01 X 26.8243 Y 4.8690 Z -1.0000
G01 X 26.8342 Y 4.8632 Z -1.0000
G03 X 26.8983 Y 4.8604 Z -1.0000 I 0.0509 J 0.4387
G03 X 26.9306 Y 4.8656 Z -1.0000 I -0.0037 J 0.1263
G01 X 26.9331 Y 4.8708 Z -1.0000
G01 X 26.9330 Y 4.8777 Z -1.0000
G01 X 26.9364 Y 4.8801 Z -1.0000
G01 X 26.9410 Y 4.8778 Z -1.0000
G01 X 26.9432 Y 4.8708 Z -1.0000
G01 X 26.9502 Y 4.8619 Z -1.0000
G01 X 26.9638 Y 4.8657 Z -1.0000
G01 X 26.9687 Y 4.8684 Z -1.0000
G02 X 26.9911 Y 4.8719 Z -1.0000 I 0.0395 J -0.1782
G03 X 27.0142 Y 4.8747 Z -1.0000 I -0.0275 J 0.3182
G03 X 27.0660 Y 4.8839 Z -1.0000 I -0.2731 J 1.7047
G02 X 27.1179 Y 4.8909 Z -1.0000 I 0.0877 J -0.4549
G02 X 27.1628 Y 4.8915 Z -1.0000 I 0.0272 J -0.3506
G01 X 27.2079 Y 4.8892 Z -1.0000
G01 X 27.2139 Y 4.9078 Z -1.0000
G01 X 27.2199 Y 4.9264 Z -1.0000
G01 X 27.2205 Y 4.9094 Z -1.0000
G01 X 27.2270 Y 4.8988 Z -1.0000
G01 X 27.2398 Y 4.8987 Z -1.0000
G02 X 27.2763 Y 4.9096 Z -1.0000 I 0.0451 J -0.0841
G01 X 27.3022 Y 4.9044 Z -1.0000
G01 X 27.3375 Y 4.9005 Z -1.0000
G01 X 27.3509 Y 4.9181 Z -1.0000
G01 X 27.3491 Y 4.9210 Z -1.0000
G01 X 27.3370 Y 4.9252 Z -1.0000
G01 X 27.3463 Y 4.9287 Z -1.0000
G02 X 27.3673 Y 4.9274 Z -1.0000 I 0.0039 J -0.1076
G01 X 27.3694 Y 4.9249 Z -1.0000
G01 X 27.3926 Y 4.9211 Z -1.0000
G03 X 27.4157 Y 4.9220 Z -1.0000 I -0.3009 J 8.1386
G02 X 27.4327 Y 4.9226 Z -1.0000 I 0.0879 J -2.2074
G01 X 27.4441 Y 4.9310 Z -1.0000
G01 X 27.4408 Y 4.9454 Z -1.0000
G01 X 27.4368 Y 4.9553 Z -1.0000
G02 X 27.4413 Y 4.9769 Z -1.0000 I 0.0586 J -0.0010
G03 X 27.4470 Y 4.9994 Z -1.0000 I -0.0715 J 0.0300
G01 X 27.4448 Y 5.0125 Z -1.0000
G01 X 27.4460 Y 5.0206 Z -1.0000
G01 X 27.4551 Y 5.0243 Z -1.0000
G03 X 27.4713 Y 5.0233 Z -1.0000 I 0.0406 J 0.5420
G03 X 27.4961 Y 5.0225 Z -1.0000 I 0.0486 J 1.0811
G01 X 27.5115 Y 5.0159 Z -1.0000
G01 X 27.5017 Y 5.0119 Z -1.0000
G02 X 27.4825 Y 5.0098 Z -1.0000 I -0.0200 J 0.0963
G01 X 27.4617 Y 5.0013 Z -1.0000
G01 X 27.4628 Y 4.9907 Z -1.0000
G01 X 27.4651 Y 4.9853 Z -1.0000
G01 X 27.4593 Y 4.9767 Z -1.0000
G01 X 27.4541 Y 4.9675 Z -1.0000
G01 X 27.4578 Y 4.9575 Z -1.0000
G02 X 27.4668 Y 4.9464 Z -1.0000 I -0.0474 J -0.0474
G01 X 27.4683 Y 4.9413 Z -1.0000
G01 X 27.4760 Y 4.9339 Z -1.0000
G01 X 27.4901 Y 4.9422 Z -1.0000
G01 X 27.4908 Y 4.9484 Z -1.0000
G01 X 27.4841 Y 4.9598 Z -1.0000
G01 X 27.4776 Y 4.9716 Z -1.0000
G01 X 27.4780 Y 4.9810 Z -1.0000
G01 X 27.4870 Y 4.9877 Z -1.0000
G01 X 27.4930 Y 4.9821 Z -1.0000
G01 X 27.4956 Y 4.9746 Z -1.0000
G01 X 27.5053 Y 4.9665 Z -1.0000
G01 X 27.5134 Y 4.9670 Z -1.0000
G01 X 27.5177 Y 4.9755 Z -1.0000
G01 X 27.5248 Y 4.9801 Z -1.0000
G01 X 27.5378 Y 4.9665 Z -1.0000
G02 X 27.5434 Y 4.9446 Z -1.0000 I -0.0814 J -0.0322
G01 X 27.5408 Y 4.9418 Z -1.0000
G01 X 27.5376 Y 4.9383 Z -1.0000
G01 X 27.5488 Y 4.9363 Z -1.0000
G03 X 27.5732 Y 4.9546 Z -1.0000 I -0.0310 J 0.0669
G01 X 27.5872 Y 4.9610 Z -1.0000
G02 X 27.6165 Y 4.9543 Z -1.0000 I -0.0009 J -0.0713
G01 X 27.6197 Y 4.9535 Z -1.0000
G03 X 27.6359 Y 4.9539 Z -1.0000 I 0.0039 J 0.1920
G01 X 27.6509 Y 4.9523 Z -1.0000
G01 X 27.6566 Y 4.9481 Z -1.0000
G01 X 27.6699 Y 4.9462 Z -1.0000
G01 X 27.6741 Y 4.9639 Z -1.0000
G01 X 27.6749 Y 4.9698 Z -1.0000
G01 X 27.6806 Y 4.9727 Z -1.0000
G01 X 27.6877 Y 4.9698 Z -1.0000
G01 X 27.6905 Y 4.9634 Z -1.0000
G01 X 27.6933 Y 4.9569 Z -1.0000
G01 X 27.7005 Y 4.9541 Z -1.0000
G01 X 27.7061 Y 4.9579 Z -1.0000
G01 X 27.7077 Y 4.9726 Z -1.0000
G01 X 27.7085 Y 4.9881 Z -1.0000
G01 X 27.7123 Y 4.9911 Z -1.0000
G01 X 27.7162 Y 4.9882 Z -1.0000
G01 X 27.7167 Y 4.9757 Z -1.0000
G01 X 27.7207 Y 4.9660 Z -1.0000
G01 X 27.7392 Y 4.9602 Z -1.0000
G01 X 27.7599 Y 4.9650 Z -1.0000
G01 X 27.7646 Y 4.9726 Z -1.0000
G01 X 27.7708 Y 4.9811 Z -1.0000
G01 X 27.7787 Y 4.9772 Z -1.0000
G01 X 27.7824 Y 4.9736 Z -1.0000
G01 X 27.7869 Y 4.9746 Z -1.0000
G01 X 27.7858 Y 4.9899 Z -1.0000
G01 X 27.7606 Y 4.9929 Z -1.0000
G01 X 27.7550 Y 4.9879 Z -1.0000
G01 X 27.7548 Y 4.9810 Z -1.0000
G01 X 27.7551 Y 4.9745 Z -1.0000
G01 X 27.7524 Y 4.9725 Z -1.0000
G01 X 27.7406 Y 4.9860 Z -1.0000
G02 X 27.7595 Y 5.0239 Z -1.0000 I 0.0658 J -0.0091
G01 X 27.7689 Y 5.0268 Z -1.0000
G01 X 27.7792 Y 5.0202 Z -1.0000
G01 X 27.7888 Y 5.0064 Z -1.0000
G01 X 27.8011 Y 5.0219 Z -1.0000
G01 X 27.8134 Y 5.0373 Z -1.0000
G01 X 27.7890 Y 5.0392 Z -1.0000
G01 X 27.7647 Y 5.0411 Z -1.0000
G01 X 27.7750 Y 5.0567 Z -1.0000
G01 X 27.7871 Y 5.0678 Z -1.0000
G01 X 27.7996 Y 5.0696 Z -1.0000
G01 X 27.8117 Y 5.0695 Z -1.0000
G01 X 27.8140 Y 5.0722 Z -1.0000
G01 X 27.8157 Y 5.0757 Z -1.0000
G01 X 27.8209 Y 5.0775 Z -1.0000
G01 X 27.8198 Y 5.0678 Z -1.0000
G01 X 27.8168 Y 5.0589 Z -1.0000
G01 X 27.8206 Y 5.0524 Z -1.0000
G03 X 27.8466 Y 5.0447 Z -1.0000 I 0.0267 J 0.0423
G01 X 27.8597 Y 5.0519 Z -1.0000
G01 X 27.8592 Y 5.0561 Z -1.0000
G01 X 27.8469 Y 5.0645 Z -1.0000
G01 X 27.8398 Y 5.0728 Z -1.0000
G01 X 27.8425 Y 5.0807 Z -1.0000
G01 X 27.8446 Y 5.0864 Z -1.0000
G01 X 27.8406 Y 5.0897 Z -1.0000
G01 X 27.8283 Y 5.0920 Z -1.0000
G01 X 27.8232 Y 5.0962 Z -1.0000
G01 X 27.8186 Y 5.0994 Z -1.0000
G01 X 27.8124 Y 5.0982 Z -1.0000
G01 X 27.8050 Y 5.0953 Z -1.0000
G02 X 27.7850 Y 5.0932 Z -1.0000 I -0.0250 J 0.1395
G01 X 27.7710 Y 5.0974 Z -1.0000
G01 X 27.7683 Y 5.1051 Z -1.0000
G01 X 27.7623 Y 5.1053 Z -1.0000
G01 X 27.7557 Y 5.0919 Z -1.0000
G03 X 27.7524 Y 5.0671 Z -1.0000 I 0.0978 J -0.0255
G02 X 27.7495 Y 5.0427 Z -1.0000 I -0.1099 J 0.0008
G01 X 27.7453 Y 5.0369 Z -1.0000
G01 X 27.7379 Y 5.0343 Z -1.0000
G02 X 27.6985 Y 5.0307 Z -1.0000 I -0.0635 J 0.4778
G03 X 27.6596 Y 5.0261 Z -1.0000 I 0.0145 J -0.2895
G01 X 27.6498 Y 5.0215 Z -1.0000
G01 X 27.6410 Y 5.0182 Z -1.0000
G01 X 27.6327 Y 5.0211 Z -1.0000
G01 X 27.6246 Y 5.0251 Z -1.0000
G01 X 27.6204 Y 5.0239 Z -1.0000
G01 X 27.6131 Y 5.0035 Z -1.0000
