%
(Header)
(Generated by gcodetools from Inkscape.)
(Using default header. To add your own header create file "header" in the output dir.)
M3
(Header end.)
G21 (All units in mm)

(Start cutting path id: path2)
(Change tool to Default tool)

G00 Z5.000000
G00 X24.075211 Y1.414776

G01 Z-1.000000 F100.0(Penetrate)
G02 X24.027127 Y1.431501 Z-1.000000 I0.189378 J0.621945 F3500.000000
G02 X24.008771 Y1.440916 Z-1.000000 I0.037726 J0.096153
G01 X23.991232 Y1.446906 Z-1.000000
G01 X23.977301 Y1.443616 Z-1.000000
G01 X23.967775 Y1.442950 Z-1.000000
G01 X23.963311 Y1.449816 Z-1.000000
G01 X23.958134 Y1.459399 Z-1.000000
G01 X23.940621 Y1.464626 Z-1.000000
G01 X23.932182 Y1.471313 Z-1.000000
G01 X23.935621 Y1.485926 Z-1.000000
G01 X23.937036 Y1.495563 Z-1.000000
G01 X23.930321 Y1.498416 Z-1.000000
G01 X23.911475 Y1.496213 Z-1.000000
G01 X23.906291 Y1.501616 Z-1.000000
G03 X23.904815 Y1.513558 Z-1.000000 I-0.176499 J-0.015751
G03 X23.900491 Y1.538286 Z-1.000000 I-0.765829 J-0.121176
G01 X23.901997 Y1.561050 Z-1.000000
G02 X23.915191 Y1.582386 Z-1.000000 I0.051649 J-0.017191
G01 X23.921339 Y1.598981 Z-1.000000
G01 X23.913091 Y1.610056 Z-1.000000
G01 X23.900099 Y1.621164 Z-1.000000
G01 X23.900291 Y1.632396 Z-1.000000
G01 X23.897965 Y1.640536 Z-1.000000
G03 X23.869701 Y1.647586 Z-1.000000 I-0.030153 J-0.060704
G01 X23.851151 Y1.656786 Z-1.000000
G03 X23.869614 Y1.668019 Z-1.000000 I-0.023307 J0.059095
G03 X23.896971 Y1.696816 Z-1.000000 I-0.139867 J0.160269
G02 X23.924954 Y1.724538 Z-1.000000 I0.125698 J-0.098895
G02 X23.949631 Y1.737456 Z-1.000000 I0.048866 J-0.063320
G01 X23.971104 Y1.751944 Z-1.000000
G03 X23.986081 Y1.781576 Z-1.000000 I-0.058101 J0.047968
G01 X23.997592 Y1.799972 Z-1.000000
G01 X24.006311 Y1.798576 Z-1.000000
G01 X24.018758 Y1.794110 Z-1.000000
G03 X24.045171 Y1.811926 Z-1.000000 I-0.019899 J0.057988
G02 X24.071731 Y1.831955 Z-1.000000 I0.060207 J-0.052214
G01 X24.081751 Y1.828956 Z-1.000000
G01 X24.103662 Y1.819155 Z-1.000000
G01 X24.117151 Y1.835256 Z-1.000000
G01 X24.112272 Y1.851362 Z-1.000000
G01 X24.103161 Y1.856236 Z-1.000000
G01 X24.093264 Y1.860338 Z-1.000000
G01 X24.089171 Y1.870226 Z-1.000000
G01 X24.093899 Y1.879474 Z-1.000000
G01 X24.108561 Y1.884216 Z-1.000000
G01 X24.147589 Y1.916444 Z-1.000000
G03 X24.129131 Y1.990985 Z-1.000000 I-0.089851 J0.017307
G01 X24.127214 Y2.003905 Z-1.000000
G01 X24.138931 Y2.015465 Z-1.000000
G01 X24.153891 Y2.027644 Z-1.000000
G01 X24.155611 Y2.041575 Z-1.000000
G01 X24.123797 Y2.065610 Z-1.000000
G03 X24.040215 Y2.046875 Z-1.000000 I-0.007486 J-0.162410
G02 X24.006715 Y2.032519 Z-1.000000 I-0.104160 J0.196801
G02 X23.977275 Y2.025825 Z-1.000000 I-0.048307 J0.144358
G01 X23.967879 Y2.020018 Z-1.000000
G01 X23.963285 Y2.004845 Z-1.000000
G01 X23.956120 Y1.992776 Z-1.000000
G02 X23.928035 Y1.985615 Z-1.000000 I-0.028085 J0.051493
G01 X23.913423 Y1.992356 Z-1.000000
G01 X23.914495 Y2.001485 Z-1.000000
G01 X23.925302 Y2.020812 Z-1.000000
G03 X23.919695 Y2.066175 Z-1.000000 I-0.112832 J0.009081
G03 X23.900907 Y2.113754 Z-1.000000 I-0.491366 J-0.166534
G03 X23.889565 Y2.132475 Z-1.000000 I-0.083765 J-0.037952
G01 X23.894442 Y2.142792 Z-1.000000
G01 X23.918485 Y2.133174 Z-1.000000
G01 X23.928744 Y2.132156 Z-1.000000
G01 X23.935275 Y2.144354 Z-1.000000
G01 X23.945896 Y2.160854 Z-1.000000
G02 X23.987725 Y2.168234 Z-1.000000 I0.035227 J-0.077434
G01 X24.022695 Y2.172234 Z-1.000000
G01 X24.017994 Y2.190801 Z-1.000000
G01 X24.043675 Y2.200244 Z-1.000000
G01 X24.056326 Y2.203778 Z-1.000000
G01 X24.055905 Y2.212044 Z-1.000000
G02 X24.038741 Y2.235079 Z-1.000000 I0.033584 J0.042938
G01 X24.038665 Y2.255994 Z-1.000000
G01 X24.038890 Y2.277082 Z-1.000000
G03 X24.022935 Y2.299504 Z-1.000000 I-0.048439 J-0.017581
G01 X24.009998 Y2.317948 Z-1.000000
G01 X24.013635 Y2.326194 Z-1.000000
G01 X24.022140 Y2.336474 Z-1.000000
G03 X24.022535 Y2.367274 Z-1.000000 I-0.075995 J0.016376
G02 X24.023838 Y2.395217 Z-1.000000 I0.058945 J0.011254
G01 X24.032535 Y2.401754 Z-1.000000
G01 X24.040717 Y2.408138 Z-1.000000
G01 X24.040435 Y2.433224 Z-1.000000
G01 X24.031735 Y2.464694 Z-1.000000
G01 X24.059195 Y2.433224 Z-1.000000
G03 X24.088637 Y2.406111 Z-1.000000 I0.138325 J0.120665
G01 X24.101895 Y2.401754 Z-1.000000
G01 X24.111468 Y2.396064 Z-1.000000
G01 X24.117135 Y2.373784 Z-1.000000
G01 X24.122783 Y2.351403 Z-1.000000
G01 X24.132145 Y2.345814 Z-1.000000
G01 X24.140441 Y2.340260 Z-1.000000
G01 X24.142285 Y2.321334 Z-1.000000
G01 X24.163009 Y2.272585 Z-1.000000
G03 X24.230795 Y2.264594 Z-1.000000 I0.042108 J0.065695
G03 X24.278737 Y2.300096 Z-1.000000 I-0.033037 J0.094734
G01 X24.269735 Y2.317834 Z-1.000000
G01 X24.263112 Y2.322151 Z-1.000000
G01 X24.263735 Y2.331424 Z-1.000000
G01 X24.264301 Y2.372080 Z-1.000000
G03 X24.204095 Y2.434357 Z-1.000000 I-0.155358 J-0.089952
G01 X24.196117 Y2.447681 Z-1.000000
G01 X24.201995 Y2.465827 Z-1.000000
G01 X24.226635 Y2.477460 Z-1.000000
G01 X24.234575 Y2.465961 Z-1.000000
G01 X24.236649 Y2.450880 Z-1.000000
G01 X24.255995 Y2.437041 Z-1.000000
G02 X24.278458 Y2.423051 Z-1.000000 I-0.016468 J-0.051471
G01 X24.284985 Y2.406861 Z-1.000000
G01 X24.292241 Y2.395792 Z-1.000000
G01 X24.312875 Y2.394731 Z-1.000000
G01 X24.328935 Y2.392454 Z-1.000000
G01 X24.332355 Y2.381691 Z-1.000000
G01 X24.334845 Y2.367277 Z-1.000000
G01 X24.351065 Y2.359791 Z-1.000000
G01 X24.373587 Y2.352128 Z-1.000000
G02 X24.397145 Y2.324331 Z-1.000000 I-0.052834 J-0.068657
G03 X24.419636 Y2.298312 Z-1.000000 I0.069050 J0.036957
G01 X24.435205 Y2.296201 Z-1.000000
G01 X24.444888 Y2.295761 Z-1.000000
G01 X24.446355 Y2.290701 Z-1.000000
G01 X24.447962 Y2.282225 Z-1.000000
G01 X24.470105 Y2.272901 Z-1.000000
G01 X24.475935 Y2.262574 Z-1.000000
G01 X24.456375 Y2.239211 Z-1.000000
G03 X24.420138 Y2.209479 Z-1.000000 I0.101901 J-0.161144
G01 X24.420245 Y2.201221 Z-1.000000
G01 X24.420634 Y2.195599 Z-1.000000
G01 X24.413245 Y2.191921 Z-1.000000
G01 X24.401130 Y2.187660 Z-1.000000
G01 X24.396925 Y2.178891 Z-1.000000
G01 X24.413600 Y2.162960 Z-1.000000
G03 X24.476975 Y2.182491 Z-1.000000 I-0.006033 J0.132162
G01 X24.491344 Y2.185623 Z-1.000000
G01 X24.500785 Y2.179591 Z-1.000000
G01 X24.493350 Y2.154713 Z-1.000000
G01 X24.452585 Y2.157101 Z-1.000000
G01 X24.442248 Y2.158259 Z-1.000000
G01 X24.432015 Y2.150101 Z-1.000000
G01 X24.420964 Y2.144151 Z-1.000000
G02 X24.394305 Y2.151301 Z-1.000000 I0.001934 J0.060486
G01 X24.368110 Y2.156718 Z-1.000000
G01 X24.353745 Y2.147901 Z-1.000000
G01 X24.341552 Y2.142908 Z-1.000000
G01 X24.322725 Y2.155501 Z-1.000000
G01 X24.307316 Y2.161195 Z-1.000000
G01 X24.294725 Y2.148901 Z-1.000000
G03 X24.293684 Y2.118854 Z-1.000000 I0.066179 J-0.017335
G01 X24.303025 Y2.105081 Z-1.000000
G01 X24.309325 Y2.094091 Z-1.000000
G01 X24.299229 Y2.096129 Z-1.000000
G02 X24.271205 Y2.111011 Z-1.000000 I0.092265 J0.207574
G03 X24.244831 Y2.118824 Z-1.000000 I-0.027302 J-0.043741
G01 X24.227415 Y2.111794 Z-1.000000
G01 X24.228168 Y2.105242 Z-1.000000
G01 X24.241055 Y2.103294 Z-1.000000
G01 X24.260399 Y2.094217 Z-1.000000
G01 X24.256305 Y2.070754 Z-1.000000
G01 X24.246408 Y2.053755 Z-1.000000
G03 X24.236265 Y1.998024 Z-1.000000 I0.307083 J-0.084678
G03 X24.250103 Y1.953192 Z-1.000000 I0.061313 J-0.005626
G01 X24.285035 Y1.938954 Z-1.000000
G01 X24.289422 Y1.935012 Z-1.000000
G01 X24.285035 Y1.926624 Z-1.000000
G01 X24.277315 Y1.912290 Z-1.000000
G01 X24.284367 Y1.898984 Z-1.000000
G03 X24.304719 Y1.890766 Z-1.000000 I0.031685 J0.049156
G01 X24.315837 Y1.892784 Z-1.000000
G01 X24.323015 Y1.892575 Z-1.000000
G01 X24.326997 Y1.884884 Z-1.000000
G01 X24.333085 Y1.876222 Z-1.000000
G03 X24.368327 Y1.870074 Z-1.000000 I0.035242 J0.097925
G02 X24.406078 Y1.861450 Z-1.000000 I0.000000 J-0.086941
G02 X24.448117 Y1.831604 Z-1.000000 I-0.066855 J-0.138696
G03 X24.487579 Y1.795540 Z-1.000000 I0.420537 J0.420537
G01 X24.494217 Y1.793134 Z-1.000000
G01 X24.498453 Y1.790065 Z-1.000000
G01 X24.499917 Y1.775654 Z-1.000000
G01 X24.507019 Y1.769267 Z-1.000000
G03 X24.531547 Y1.782654 Z-1.000000 I-0.010837 J0.049020
G01 X24.543980 Y1.788238 Z-1.000000
G01 X24.547367 Y1.783654 Z-1.000000
G01 X24.556101 Y1.740633 Z-1.000000
G01 X24.585507 Y1.743714 Z-1.000000
G01 X24.596276 Y1.752053 Z-1.000000
G01 X24.607617 Y1.750614 Z-1.000000
G01 X24.610123 Y1.741420 Z-1.000000
G02 X24.584407 Y1.706534 Z-1.000000 I-0.127160 J0.066813
G03 X24.562431 Y1.671589 Z-1.000000 I0.065700 J-0.065700
G01 X24.567037 Y1.657014 Z-1.000000
G01 X24.567441 Y1.652807 Z-1.000000
G01 X24.561637 Y1.651314 Z-1.000000
G01 X24.540850 Y1.650356 Z-1.000000
G01 X24.523597 Y1.635154 Z-1.000000
G01 X24.515751 Y1.634275 Z-1.000000
G01 X24.509237 Y1.650544 Z-1.000000
G03 X24.503186 Y1.679646 Z-1.000000 I-0.077014 J-0.000834
G01 X24.496017 Y1.681934 Z-1.000000
G01 X24.485884 Y1.681506 Z-1.000000
G01 X24.476947 Y1.691634 Z-1.000000
G01 X24.468609 Y1.700878 Z-1.000000
G01 X24.460367 Y1.699634 Z-1.000000
G01 X24.456074 Y1.689221 Z-1.000000
G01 X24.461467 Y1.671664 Z-1.000000
G02 X24.471494 Y1.623419 Z-1.000000 I-0.061339 J-0.037912
G02 X24.438077 Y1.510022 Z-1.000000 I-0.411083 J0.059518
G03 X24.412856 Y1.450309 Z-1.000000 I0.992279 J-0.454300
G01 X24.410927 Y1.440002 Z-1.000000
G01 X24.406805 Y1.431967 Z-1.000000
G02 X24.372457 Y1.412382 Z-1.000000 I-0.110523 J0.153921
G02 X24.317075 Y1.401466 Z-1.000000 I-0.052188 J0.118824
G02 X24.181880 Y1.417082 Z-1.000000 I0.018555 J0.753656
G03 X24.144195 Y1.419236 Z-1.000000 I-0.026067 J-0.125350
G01 X24.132920 Y1.412582 Z-1.000000
G01 X24.121684 Y1.406858 Z-1.000000
G02 X24.075220 Y1.414582 Z-1.000000 I0.006266 J0.181318
G01 X24.075211 Y1.414776 Z-1.000000
G00 Z5.000000

(End cutting path id: path2)


(Start cutting path id: path2)
(Change tool to Default tool)

G00 Z5.000000
G00 X23.823436 Y1.545724

G01 Z-1.000000 F100.0(Penetrate)
G01 X23.817655 Y1.553469 Z-1.000000 F3500.000000
G01 X23.798956 Y1.553024 Z-1.000000
G01 X23.791392 Y1.555499 Z-1.000000
G01 X23.791956 Y1.563254 Z-1.000000
G01 X23.809634 Y1.571689 Z-1.000000
G01 X23.825996 Y1.565554 Z-1.000000
G01 X23.835552 Y1.549005 Z-1.000000
G01 X23.832996 Y1.539444 Z-1.000000
G01 X23.827100 Y1.538851 Z-1.000000
G01 X23.823396 Y1.545744 Z-1.000000
G01 X23.823436 Y1.545724 Z-1.000000
G00 Z5.000000

(End cutting path id: path2)


(Start cutting path id: path2)
(Change tool to Default tool)

G00 Z5.000000
G00 X23.795461 Y1.618434

G01 Z-1.000000 F100.0(Penetrate)
G01 X23.799563 Y1.628331 Z-1.000000 F3500.000000
G01 X23.809451 Y1.632424 Z-1.000000
G01 X23.819348 Y1.628322 Z-1.000000
G01 X23.823441 Y1.618434 Z-1.000000
G01 X23.819339 Y1.608537 Z-1.000000
G01 X23.809451 Y1.604444 Z-1.000000
G01 X23.799554 Y1.608546 Z-1.000000
G01 X23.795461 Y1.618434 Z-1.000000
G01 X23.795461 Y1.618434 Z-1.000000
G00 Z5.000000

(End cutting path id: path2)


(Start cutting path id: path2)
(Change tool to Default tool)

G00 Z5.000000
G00 X23.725526 Y1.652574

G01 Z-1.000000 F100.0(Penetrate)
G01 X23.723513 Y1.657632 Z-1.000000 F3500.000000
G03 X23.711536 Y1.667384 Z-1.000000 I-0.043279 J-0.040925
G01 X23.702010 Y1.668050 Z-1.000000
G01 X23.697546 Y1.661184 Z-1.000000
G01 X23.701742 Y1.650606 Z-1.000000
G01 X23.711536 Y1.646374 Z-1.000000
G01 X23.723090 Y1.648826 Z-1.000000
G01 X23.725526 Y1.652574 Z-1.000000
G01 X23.725526 Y1.652574 Z-1.000000
G00 Z5.000000

(End cutting path id: path2)


(Start cutting path id: path2)
(Change tool to Default tool)

G00 Z5.000000
G00 X23.594936 Y1.588104

G01 Z-1.000000 F100.0(Penetrate)
G03 X23.599089 Y1.606801 Z-1.000000 I-0.310912 J0.078866 F3500.000000
G01 X23.599636 Y1.612584 Z-1.000000
G01 X23.602142 Y1.615877 Z-1.000000
G02 X23.620616 Y1.618384 Z-1.000000 I0.018474 J-0.066804
G01 X23.636722 Y1.613505 Z-1.000000
G01 X23.641596 Y1.604394 Z-1.000000
G01 X23.636825 Y1.595183 Z-1.000000
G01 X23.621776 Y1.590404 Z-1.000000
G01 X23.604012 Y1.586927 Z-1.000000
G01 X23.596096 Y1.579914 Z-1.000000
G01 X23.594896 Y1.588014 Z-1.000000
G01 X23.594936 Y1.588104 Z-1.000000
G00 Z5.000000

(End cutting path id: path2)


(Start cutting path id: path2)
(Change tool to Default tool)

G00 Z5.000000
G00 X23.613626 Y1.542183

G01 Z-1.000000 F100.0(Penetrate)
G01 X23.616520 Y1.552161 Z-1.000000 F3500.000000
G02 X23.637076 Y1.579193 Z-1.000000 I0.167841 J-0.106299
G03 X23.649448 Y1.604826 Z-1.000000 I-0.037431 J0.033869
G01 X23.644076 Y1.621553 Z-1.000000
G01 X23.637783 Y1.643645 Z-1.000000
G01 X23.650876 Y1.650573 Z-1.000000
G01 X23.662294 Y1.651454 Z-1.000000
G01 X23.663976 Y1.658073 Z-1.000000
G01 X23.673419 Y1.678237 Z-1.000000
G02 X23.733426 Y1.667973 Z-1.000000 I0.014024 J-0.098550
G02 X23.757032 Y1.650801 Z-1.000000 I-0.045700 J-0.087633
G01 X23.755276 Y1.646483 Z-1.000000
G01 X23.748750 Y1.640462 Z-1.000000
G01 X23.753476 Y1.625413 Z-1.000000
G01 X23.755777 Y1.611531 Z-1.000000
G01 X23.745476 Y1.604433 Z-1.000000
G01 X23.739506 Y1.597918 Z-1.000000
G01 X23.747276 Y1.583893 Z-1.000000
G01 X23.760912 Y1.567690 Z-1.000000
G01 X23.758086 Y1.562913 Z-1.000000
G03 X23.742041 Y1.560841 Z-1.000000 I0.002168 J-0.079950
G03 X23.719626 Y1.554013 Z-1.000000 I0.040478 J-0.173085
G01 X23.704774 Y1.556100 Z-1.000000
G01 X23.697506 Y1.570673 Z-1.000000
G01 X23.691037 Y1.576543 Z-1.000000
G01 X23.676966 Y1.568673 Z-1.000000
G01 X23.655986 Y1.553723 Z-1.000000
G01 X23.651578 Y1.557067 Z-1.000000
G01 X23.634556 Y1.548523 Z-1.000000
G01 X23.617446 Y1.539342 Z-1.000000
G01 X23.613576 Y1.542223 Z-1.000000
G01 X23.613626 Y1.542183 Z-1.000000
G00 Z5.000000

(End cutting path id: path2)


(Start cutting path id: path2)
(Change tool to Default tool)

G00 Z5.000000
G00 X23.942329 Y1.772296

G01 Z-1.000000 F100.0(Penetrate)
G02 X23.952112 Y1.784281 Z-1.000000 I0.051766 J-0.032269 F3500.000000
G01 X23.957139 Y1.786286 Z-1.000000
G01 X23.960890 Y1.783847 Z-1.000000
G01 X23.963339 Y1.772296 Z-1.000000
G01 X23.959107 Y1.762501 Z-1.000000
G01 X23.948529 Y1.758306 Z-1.000000
G01 X23.941698 Y1.762743 Z-1.000000
G01 X23.942329 Y1.772296 Z-1.000000
G01 X23.942329 Y1.772296 Z-1.000000
G00 Z5.000000

(End cutting path id: path2)


(Start cutting path id: path2)
(Change tool to Default tool)

G00 Z5.000000
G00 X24.033249 Y1.884195

G01 Z-1.000000 F100.0(Penetrate)
G01 X24.025929 Y1.893803 Z-1.000000 F3500.000000
G01 X24.028949 Y1.897965 Z-1.000000
G01 X24.043546 Y1.894334 Z-1.000000
G01 X24.054249 Y1.884195 Z-1.000000
G01 X24.051285 Y1.878880 Z-1.000000
G01 X24.033269 Y1.884195 Z-1.000000
G01 X24.033249 Y1.884195 Z-1.000000
G00 Z5.000000

(End cutting path id: path2)


(Start cutting path id: path2)
(Change tool to Default tool)

G00 Z5.000000
G00 X24.054230 Y1.940105

G01 Z-1.000000 F100.0(Penetrate)
G01 X24.053564 Y1.949631 Z-1.000000 F3500.000000
G01 X24.060430 Y1.954095 Z-1.000000
G01 X24.071008 Y1.949899 Z-1.000000
G01 X24.075240 Y1.940105 Z-1.000000
G01 X24.072788 Y1.928551 Z-1.000000
G01 X24.069040 Y1.926115 Z-1.000000
G01 X24.063982 Y1.928128 Z-1.000000
G02 X24.054230 Y1.940105 Z-1.000000 I0.040925 J0.043279
G01 X24.054230 Y1.940105 Z-1.000000
G00 Z5.000000

(End cutting path id: path2)


(Start cutting path id: path2)
(Change tool to Default tool)

G00 Z5.000000
G00 X24.019470 Y1.969865

G01 Z-1.000000 F100.0(Penetrate)
G02 X24.038188 Y2.015326 Z-1.000000 I0.063120 J0.000594 F3500.000000
G01 X24.065330 Y2.015255 Z-1.000000
G01 X24.073881 Y2.013706 Z-1.000000
G03 X24.096510 Y2.029365 Z-1.000000 I-0.032093 J0.070558
G02 X24.133636 Y2.050236 Z-1.000000 I0.055796 J-0.055796
G01 X24.145130 Y2.041205 Z-1.000000
G01 X24.140962 Y2.032987 Z-1.000000
G02 X24.092680 Y2.002875 Z-1.000000 I-0.226232 J0.308981
G03 X24.042248 Y1.973009 Z-1.000000 I0.265117 J-0.505194
G01 X24.029950 Y1.961225 Z-1.000000
G01 X24.023939 Y1.960464 Z-1.000000
G01 X24.019460 Y1.969825 Z-1.000000
G01 X24.019470 Y1.969865 Z-1.000000
G00 Z5.000000

(End cutting path id: path2)


(Start cutting path id: path2)
(Change tool to Default tool)

G00 Z5.000000
G00 X23.963310 Y1.954095

G01 Z-1.000000 F100.0(Penetrate)
G01 X23.961938 Y1.961940 Z-1.000000 F3500.000000
G01 X23.973800 Y1.967865 Z-1.000000
G02 X23.999769 Y1.962513 Z-1.000000 I0.000433 J-0.063583
G01 X24.005270 Y1.954095 Z-1.000000
G01 X23.995714 Y1.944539 Z-1.000000
G02 X23.963310 Y1.954095 Z-1.000000 I0.000000 J0.059715
G01 X23.963310 Y1.954095 Z-1.000000
G00 Z5.000000

(End cutting path id: path2)


(Start cutting path id: path2)
(Change tool to Default tool)

G00 Z5.000000
G00 X23.886375 Y2.038015

G01 Z-1.000000 F100.0(Penetrate)
G01 X23.885709 Y2.047541 Z-1.000000 F3500.000000
G01 X23.892575 Y2.052005 Z-1.000000
G01 X23.903153 Y2.047809 Z-1.000000
G01 X23.907385 Y2.038015 Z-1.000000
G01 X23.904933 Y2.026461 Z-1.000000
G01 X23.901185 Y2.024025 Z-1.000000
G01 X23.896127 Y2.026038 Z-1.000000
G02 X23.886375 Y2.038015 Z-1.000000 I0.040925 J0.043279
G01 X23.886375 Y2.038015 Z-1.000000
G00 Z5.000000

(End cutting path id: path2)


(Start cutting path id: path2)
(Change tool to Default tool)

G00 Z5.000000
G00 X24.066423 Y2.091100

G01 Z-1.000000 F100.0(Penetrate)
G01 X24.064906 Y2.097925 Z-1.000000 F3500.000000
G01 X24.046263 Y2.104220 Z-1.000000
G01 X24.024340 Y2.100729 Z-1.000000
G01 X24.019253 Y2.093140 Z-1.000000
G01 X24.036408 Y2.075228 Z-1.000000
G01 X24.066413 Y2.091140 Z-1.000000
G01 X24.066423 Y2.091100 Z-1.000000
G00 Z5.000000

(End cutting path id: path2)


(Start cutting path id: path2)
(Change tool to Default tool)

G00 Z5.000000
G00 X24.220582 Y2.018220

G01 Z-1.000000 F100.0(Penetrate)
G03 X24.226850 Y2.040747 Z-1.000000 I-0.112396 J0.043407 F3500.000000
G03 X24.228582 Y2.063680 Z-1.000000 I-0.114840 J0.020207
G01 X24.222963 Y2.066872 Z-1.000000
G01 X24.208092 Y2.052050 Z-1.000000
G03 X24.189993 Y2.016533 Z-1.000000 I0.361387 J-0.206533
G01 X24.187602 Y2.006590 Z-1.000000
G01 X24.199520 Y1.997727 Z-1.000000
G01 X24.220582 Y2.018220 Z-1.000000
G01 X24.220582 Y2.018220 Z-1.000000
G00 Z5.000000

(End cutting path id: path2)


(Start cutting path id: path2)
(Change tool to Default tool)

G00 Z5.000000
G00 X24.368947 Y2.198417

G01 Z-1.000000 F100.0(Penetrate)
G01 X24.366460 Y2.203465 Z-1.000000 F3500.000000
G03 X24.341287 Y2.219717 Z-1.000000 I-0.111586 J-0.145217
G01 X24.325506 Y2.221056 Z-1.000000
G01 X24.321807 Y2.213217 Z-1.000000
G01 X24.351297 Y2.185456 Z-1.000000
G01 X24.368947 Y2.198417 Z-1.000000
G01 X24.368947 Y2.198417 Z-1.000000
G00 Z5.000000

(End cutting path id: path2)


(Start cutting path id: path2)
(Change tool to Default tool)

G00 Z5.000000
G00 X24.438878 Y2.207360

G01 Z-1.000000 F100.0(Penetrate)
G01 X24.444171 Y2.215103 Z-1.000000 F3500.000000
G01 X24.458958 Y2.215160 Z-1.000000
G01 X24.475622 Y2.214886 Z-1.000000
G01 X24.485018 Y2.224160 Z-1.000000
G01 X24.493160 Y2.231889 Z-1.000000
G01 X24.502998 Y2.229560 Z-1.000000
G01 X24.505505 Y2.219195 Z-1.000000
G01 X24.494398 Y2.205300 Z-1.000000
G02 X24.451859 Y2.193814 Z-1.000000 I-0.039815 J0.062941
G01 X24.438858 Y2.207300 Z-1.000000
G01 X24.438878 Y2.207360 Z-1.000000
G00 Z5.000000

(End cutting path id: path2)


(Start cutting path id: path2)
(Change tool to Default tool)

G00 Z5.000000
G00 X24.659180 Y2.592774

G01 Z-1.000000 F100.0(Penetrate)
G01 X24.672544 Y2.602615 Z-1.000000 F3500.000000
G01 X24.676670 Y2.614144 Z-1.000000
G01 X24.671550 Y2.621017 Z-1.000000
G01 X24.655690 Y2.620444 Z-1.000000
G01 X24.639421 Y2.619265 Z-1.000000
G01 X24.634710 Y2.625144 Z-1.000000
G01 X24.650467 Y2.646602 Z-1.000000
G01 X24.682810 Y2.640234 Z-1.000000
G03 X24.702610 Y2.628012 Z-1.000000 I0.053776 J0.064968
G01 X24.713670 Y2.626694 Z-1.000000
G02 X24.725681 Y2.627879 Z-1.000000 I0.013260 J-0.072928
G02 X24.739620 Y2.627098 Z-1.000000 I0.001616 J-0.095925
G01 X24.744022 Y2.602565 Z-1.000000
G02 X24.657590 Y2.584668 Z-1.000000 I-0.075085 J0.144959
G01 X24.655113 Y2.587900 Z-1.000000
G01 X24.659190 Y2.592868 Z-1.000000
G01 X24.659180 Y2.592774 Z-1.000000
G00 Z5.000000

(End cutting path id: path2)


(Start cutting path id: path2)
(Change tool to Default tool)

G00 Z5.000000
G00 X24.713380 Y2.565444

G01 Z-1.000000 F100.0(Penetrate)
G01 X24.709738 Y2.573948 Z-1.000000 F3500.000000
G01 X24.712838 Y2.585464 Z-1.000000
G01 X24.743418 Y2.602343 Z-1.000000
G01 X24.760588 Y2.585009 Z-1.000000
G01 X24.743519 Y2.559457 Z-1.000000
G01 X24.713378 Y2.565449 Z-1.000000
G01 X24.713380 Y2.565444 Z-1.000000
G00 Z5.000000

(End cutting path id: path2)


(Start cutting path id: path2)
(Change tool to Default tool)

G00 Z5.000000
G00 X23.990873 Y2.618974

G01 Z-1.000000 F100.0(Penetrate)
G02 X23.978723 Y2.639895 Z-1.000000 I0.055390 J0.046158 F3500.000000
G01 X23.980293 Y2.647124 Z-1.000000
G01 X24.014096 Y2.653708 Z-1.000000
G01 X24.033243 Y2.624804 Z-1.000000
G01 X24.018726 Y2.608160 Z-1.000000
G01 X23.990873 Y2.619004 Z-1.000000
G01 X23.990873 Y2.618974 Z-1.000000
G00 Z5.000000

(End cutting path id: path2)


(Start cutting path id: path2)
(Change tool to Default tool)

G00 Z5.000000
G00 X23.985920 Y2.465440

G01 Z-1.000000 F100.0(Penetrate)
G01 X23.984666 Y2.488407 Z-1.000000 F3500.000000
G01 X23.992820 Y2.491660 Z-1.000000
G01 X24.006532 Y2.490176 Z-1.000000
G01 X24.020580 Y2.501360 Z-1.000000
G01 X24.028124 Y2.504240 Z-1.000000
G01 X24.033000 Y2.497860 Z-1.000000
G01 X24.028321 Y2.477360 Z-1.000000
G02 X24.013870 Y2.459040 Z-1.000000 I-0.050254 J0.024782
G01 X23.997712 Y2.455188 Z-1.000000
G01 X23.985890 Y2.465440 Z-1.000000
G01 X23.985920 Y2.465440 Z-1.000000
G00 Z5.000000

(End cutting path id: path2)


(Start cutting path id: path2)
(Change tool to Default tool)

G00 Z5.000000
G00 X23.942325 Y2.443650

G01 Z-1.000000 F100.0(Penetrate)
G01 X23.941659 Y2.453176 Z-1.000000 F3500.000000
G01 X23.948525 Y2.457640 Z-1.000000
G01 X23.959103 Y2.453444 Z-1.000000
G01 X23.963335 Y2.443650 Z-1.000000
G01 X23.960883 Y2.432096 Z-1.000000
G01 X23.957135 Y2.429660 Z-1.000000
G01 X23.952077 Y2.431673 Z-1.000000
G02 X23.942325 Y2.443650 Z-1.000000 I0.040925 J0.043279
G01 X23.942325 Y2.443650 Z-1.000000
G00 Z5.000000

(End cutting path id: path2)


(Start cutting path id: path2)
(Change tool to Default tool)

G00 Z5.000000
G00 X23.823743 Y2.473940

G01 Z-1.000000 F100.0(Penetrate)
G01 X23.828817 Y2.493709 Z-1.000000 F3500.000000
G01 X23.840913 Y2.504350 Z-1.000000
G01 X23.845780 Y2.512857 Z-1.000000
G01 X23.837813 Y2.525740 Z-1.000000
G01 X23.825408 Y2.540776 Z-1.000000
G01 X23.827103 Y2.549900 Z-1.000000
G01 X23.828603 Y2.559178 Z-1.000000
G03 X23.812713 Y2.578370 Z-1.000000 I-0.049521 J-0.024827
G01 X23.802583 Y2.596450 Z-1.000000
G01 X23.809313 Y2.610640 Z-1.000000
G01 X23.818855 Y2.625481 Z-1.000000
G01 X23.813913 Y2.640590 Z-1.000000
G01 X23.803930 Y2.658259 Z-1.000000
G01 X23.805013 Y2.676140 Z-1.000000
G01 X23.804804 Y2.690183 Z-1.000000
G01 X23.796913 Y2.695420 Z-1.000000
G01 X23.785739 Y2.699719 Z-1.000000
G01 X23.781433 Y2.709410 Z-1.000000
G01 X23.786162 Y2.718661 Z-1.000000
G01 X23.800813 Y2.723400 Z-1.000000
G03 X23.872925 Y2.743136 Z-1.000000 I-0.000000 J0.141607
G01 X23.883953 Y2.772590 Z-1.000000
G01 X23.887802 Y2.780758 Z-1.000000
G02 X23.927873 Y2.789790 Z-1.000000 I0.049806 J-0.127565
G02 X23.963493 Y2.783735 Z-1.000000 I0.005391 J-0.076080
G01 X23.968313 Y2.772300 Z-1.000000
G01 X23.968372 Y2.756917 Z-1.000000
G01 X23.976513 Y2.751360 Z-1.000000
G01 X23.979283 Y2.746236 Z-1.000000
G02 X23.953533 Y2.716330 Z-1.000000 I-0.126123 J0.082557
G03 X23.938129 Y2.695069 Z-1.000000 I0.040960 J-0.045886
G01 X23.942263 Y2.690530 Z-1.000000
G03 X23.969231 Y2.701672 Z-1.000000 I-0.063973 J0.193048
G03 X23.987723 Y2.713290 Z-1.000000 I-0.050235 J0.100483
G01 X23.999047 Y2.714288 Z-1.000000
G01 X24.005203 Y2.704090 Z-1.000000
G01 X23.997877 Y2.688720 Z-1.000000
G01 X23.977223 Y2.681400 Z-1.000000
G01 X23.954795 Y2.675811 Z-1.000000
G01 X23.949253 Y2.666590 Z-1.000000
G01 X23.944597 Y2.660207 Z-1.000000
G01 X23.933453 Y2.661590 Z-1.000000
G01 X23.926414 Y2.660573 Z-1.000000
G01 X23.924753 Y2.651890 Z-1.000000
G01 X23.935039 Y2.638288 Z-1.000000
G01 X23.947043 Y2.635790 Z-1.000000
G01 X23.954126 Y2.632087 Z-1.000000
G01 X23.954343 Y2.618390 Z-1.000000
G01 X23.943748 Y2.605461 Z-1.000000
G01 X23.933863 Y2.605400 Z-1.000000
G01 X23.925466 Y2.605750 Z-1.000000
G01 X23.921343 Y2.599000 Z-1.000000
G01 X23.925668 Y2.587375 Z-1.000000
G03 X23.944853 Y2.571730 Z-1.000000 I0.054025 J0.046663
G01 X23.954044 Y2.556595 Z-1.000000
G01 X23.945953 Y2.536190 Z-1.000000
G01 X23.925656 Y2.525783 Z-1.000000
G01 X23.915373 Y2.531190 Z-1.000000
G01 X23.915171 Y2.506590 Z-1.000000
G01 X23.910780 Y2.492061 Z-1.000000
G01 X23.901441 Y2.492600 Z-1.000000
G01 X23.879599 Y2.501453 Z-1.000000
G01 X23.851871 Y2.485600 Z-1.000000
G02 X23.830482 Y2.469488 Z-1.000000 I-0.041887 J0.033354
G01 X23.823721 Y2.473940 Z-1.000000
G01 X23.823743 Y2.473940 Z-1.000000
G00 Z5.000000

(End cutting path id: path2)


(Start cutting path id: path2)
(Change tool to Default tool)

G00 Z5.000000
G00 X22.937923 Y2.564500

G01 Z-1.000000 F100.0(Penetrate)
G01 X22.936545 Y2.575484 Z-1.000000 F3500.000000
G01 X22.929023 Y2.577020 Z-1.000000
G01 X22.913090 Y2.574471 Z-1.000000
G01 X22.899963 Y2.583920 Z-1.000000
G01 X22.898530 Y2.620159 Z-1.000000
G01 X22.923423 Y2.629660 Z-1.000000
G01 X22.935407 Y2.632410 Z-1.000000
G01 X22.939753 Y2.647100 Z-1.000000
G01 X22.953291 Y2.672837 Z-1.000000
G02 X23.043609 Y2.693990 Z-1.000000 I0.099024 J-0.219413
G02 X23.073243 Y2.686322 Z-1.000000 I0.001923 J-0.053663
G01 X23.081859 Y2.670910 Z-1.000000
G01 X23.076642 Y2.663995 Z-1.000000
G01 X23.068629 Y2.667010 Z-1.000000
G01 X23.057516 Y2.673133 Z-1.000000
G01 X23.049199 Y2.667010 Z-1.000000
G02 X23.020272 Y2.607315 Z-1.000000 I-0.212452 J0.066094
G01 X23.005029 Y2.602570 Z-1.000000
G01 X22.990459 Y2.601423 Z-1.000000
G01 X22.984169 Y2.590530 Z-1.000000
G01 X22.978385 Y2.573941 Z-1.000000
G02 X22.956509 Y2.555680 Z-1.000000 I-0.055029 J0.043688
G01 X22.941586 Y2.555309 Z-1.000000
G01 X22.937909 Y2.564480 Z-1.000000
G01 X22.937923 Y2.564500 Z-1.000000
G00 Z5.000000

(End cutting path id: path2)


(Start cutting path id: path2)
(Change tool to Default tool)

G00 Z5.000000
G00 X22.886275 Y2.457640

G01 Z-1.000000 F100.0(Penetrate)
G01 X22.890377 Y2.467537 Z-1.000000 F3500.000000
G01 X22.900265 Y2.471630 Z-1.000000
G01 X22.910162 Y2.467528 Z-1.000000
G01 X22.914255 Y2.457640 Z-1.000000
G01 X22.910153 Y2.447743 Z-1.000000
G01 X22.900265 Y2.443650 Z-1.000000
G01 X22.890368 Y2.447752 Z-1.000000
G01 X22.886275 Y2.457640 Z-1.000000
G01 X22.886275 Y2.457640 Z-1.000000
G00 Z5.000000

(End cutting path id: path2)


(Start cutting path id: path2)
(Change tool to Default tool)

G00 Z5.000000
G00 X22.929866 Y1.936205

G01 Z-1.000000 F100.0(Penetrate)
G01 X22.921057 Y1.956210 Z-1.000000 F3500.000000
G01 X22.907266 Y1.959185 Z-1.000000
G01 X22.891957 Y1.966149 Z-1.000000
G01 X22.896776 Y1.987935 Z-1.000000
G03 X22.905341 Y1.999315 Z-1.000000 I-0.036037 J0.036037
G01 X22.907766 Y2.007755 Z-1.000000
G02 X22.930255 Y2.063994 Z-1.000000 I0.093808 J-0.004896
G01 X22.967596 Y2.077605 Z-1.000000
G03 X22.990352 Y2.077896 Z-1.000000 I0.010546 J0.065184
G03 X23.010236 Y2.085705 Z-1.000000 I-0.010555 J0.056096
G01 X23.042100 Y2.079642 Z-1.000000
G01 X23.039566 Y2.045915 Z-1.000000
G01 X23.033723 Y2.022466 Z-1.000000
G01 X23.050636 Y2.009755 Z-1.000000
G01 X23.054123 Y2.003576 Z-1.000000
G02 X23.036446 Y1.985405 Z-1.000000 I-0.045374 J0.026457
G03 X23.006657 Y1.958441 Z-1.000000 I0.058953 J-0.095066
G01 X23.004536 Y1.943815 Z-1.000000
G01 X22.996852 Y1.930890 Z-1.000000
G01 X22.977206 Y1.940215 Z-1.000000
G01 X22.956510 Y1.948439 Z-1.000000
G01 X22.937896 Y1.929725 Z-1.000000
G01 X22.933869 Y1.928425 Z-1.000000
G01 X22.929896 Y1.936325 Z-1.000000
G01 X22.929866 Y1.936205 Z-1.000000
G00 Z5.000000

(End cutting path id: path2)


(Start cutting path id: path2)
(Change tool to Default tool)

G00 Z5.000000
G00 X24.485673 Y1.737931

G01 Z-1.000000 F100.0(Penetrate)
G01 X24.475961 Y1.752846 Z-1.000000 F3500.000000
G01 X24.470723 Y1.752851 Z-1.000000
G01 X24.468246 Y1.745657 Z-1.000000
G01 X24.473323 Y1.731271 Z-1.000000
G01 X24.482346 Y1.728860 Z-1.000000
G01 X24.485723 Y1.737971 Z-1.000000
G01 X24.485673 Y1.737931 Z-1.000000
G00 Z5.000000

(End cutting path id: path2)


(Start cutting path id: path2)
(Change tool to Default tool)

G00 Z5.000000
G00 X24.550783 Y1.723341

G01 Z-1.000000 F100.0(Penetrate)
G01 X24.544399 Y1.737938 Z-1.000000 F3500.000000
G01 X24.528093 Y1.744321 Z-1.000000
G01 X24.519552 Y1.737668 Z-1.000000
G01 X24.522793 Y1.723341 Z-1.000000
G03 X24.541034 Y1.704105 Z-1.000000 I0.156983 J0.130592
G01 X24.545483 Y1.702361 Z-1.000000
G01 X24.548444 Y1.704663 Z-1.000000
G03 X24.550783 Y1.723341 Z-1.000000 I-0.073411 J0.018678
G01 X24.550783 Y1.723341 Z-1.000000
G00 Z5.000000

(End cutting path id: path2)


(Start cutting path id: path2)
(Change tool to Default tool)

G00 Z5.000000
G00 X25.551711 Y6.045837

G01 Z-1.000000 F100.0(Penetrate)
G01 X25.545748 Y6.059265 Z-1.000000 F3500.000000
G01 X25.553511 Y6.066377 Z-1.000000
G02 X25.579765 Y6.060729 Z-1.000000 I-0.000000 J-0.063841
G02 X25.599861 Y6.045397 Z-1.000000 I-0.023003 J-0.050987
G01 X25.593335 Y6.031663 Z-1.000000
G02 X25.551731 Y6.045842 Z-1.000000 I0.000644 J0.070017
G01 X25.551711 Y6.045837 Z-1.000000
G00 Z5.000000

(End cutting path id: path2)


(Start cutting path id: path2)
(Change tool to Default tool)

G00 Z5.000000
G00 X25.526467 Y6.131669

G01 Z-1.000000 F100.0(Penetrate)
G01 X25.535980 Y6.141405 Z-1.000000 F3500.000000
G01 X25.534767 Y6.153709 Z-1.000000
G01 X25.535774 Y6.158399 Z-1.000000
G01 X25.541867 Y6.158509 Z-1.000000
G01 X25.548307 Y6.136941 Z-1.000000
G01 X25.525487 Y6.123449 Z-1.000000
G01 X25.522706 Y6.126772 Z-1.000000
G01 X25.526400 Y6.131649 Z-1.000000
G01 X25.526467 Y6.131669 Z-1.000000
G00 Z5.000000

(End cutting path id: path2)


(Start cutting path id: path2)
(Change tool to Default tool)

G00 Z5.000000
G00 X25.585826 Y6.219820

G01 Z-1.000000 F100.0(Penetrate)
G01 X25.590766 Y6.226202 Z-1.000000 F3500.000000
G01 X25.606806 Y6.225320 Z-1.000000
G02 X25.625610 Y6.215773 Z-1.000000 I-0.035674 J-0.093564
G01 X25.627786 Y6.211770 Z-1.000000
G01 X25.625416 Y6.208691 Z-1.000000
G02 X25.606806 Y6.206270 Z-1.000000 I-0.018610 J0.070309
G01 X25.590602 Y6.211049 Z-1.000000
G01 X25.585826 Y6.219820 Z-1.000000
G01 X25.585826 Y6.219820 Z-1.000000
G00 Z5.000000

(End cutting path id: path2)


(Start cutting path id: path2)
(Change tool to Default tool)

G00 Z5.000000
G00 X25.690831 Y6.248030

G01 Z-1.000000 F100.0(Penetrate)
G01 X25.692533 Y6.253353 Z-1.000000 F3500.000000
G01 X25.703991 Y6.253530 Z-1.000000
G01 X25.717006 Y6.241133 Z-1.000000
G01 X25.712491 Y6.234210 Z-1.000000
G01 X25.701206 Y6.237483 Z-1.000000
G01 X25.690781 Y6.248040 Z-1.000000
G01 X25.690831 Y6.248030 Z-1.000000
G00 Z5.000000

(End cutting path id: path2)


(Start cutting path id: path2)
(Change tool to Default tool)

G00 Z5.000000
G00 X25.697726 Y6.205829

G01 Z-1.000000 F100.0(Penetrate)
G01 X25.702666 Y6.212211 Z-1.000000 F3500.000000
G01 X25.718706 Y6.211329 Z-1.000000
G02 X25.737510 Y6.201782 Z-1.000000 I-0.035674 J-0.093564
G01 X25.739686 Y6.197779 Z-1.000000
G01 X25.737316 Y6.194700 Z-1.000000
G02 X25.718706 Y6.192279 Z-1.000000 I-0.018610 J0.070309
G01 X25.702502 Y6.197058 Z-1.000000
G01 X25.697726 Y6.205829 Z-1.000000
G01 X25.697726 Y6.205829 Z-1.000000
G00 Z5.000000

(End cutting path id: path2)


(Start cutting path id: path2)
(Change tool to Default tool)

G00 Z5.000000
G00 X25.781650 Y6.149529

G01 Z-1.000000 F100.0(Penetrate)
G01 X25.784952 Y6.160811 Z-1.000000 F3500.000000
G01 X25.795640 Y6.171339 Z-1.000000
G01 X25.804341 Y6.170465 Z-1.000000
G01 X25.809630 Y6.158179 Z-1.000000
G01 X25.804685 Y6.141313 Z-1.000000
G01 X25.795640 Y6.136369 Z-1.000000
G01 X25.785629 Y6.140333 Z-1.000000
G01 X25.781650 Y6.149529 Z-1.000000
G01 X25.781650 Y6.149529 Z-1.000000
G00 Z5.000000

(End cutting path id: path2)


(Start cutting path id: path2)
(Change tool to Default tool)

G00 Z5.000000
G00 X25.872598 Y6.122390

G01 Z-1.000000 F100.0(Penetrate)
G02 X25.882381 Y6.134375 Z-1.000000 I0.051766 J-0.032269 F3500.000000
G01 X25.887408 Y6.136380 Z-1.000000
G01 X25.891159 Y6.133941 Z-1.000000
G01 X25.893608 Y6.122390 Z-1.000000
G01 X25.889376 Y6.112595 Z-1.000000
G01 X25.878798 Y6.108400 Z-1.000000
G01 X25.871967 Y6.112837 Z-1.000000
G01 X25.872598 Y6.122390 Z-1.000000
G01 X25.872598 Y6.122390 Z-1.000000
G00 Z5.000000

(End cutting path id: path2)


(Start cutting path id: path2)
(Change tool to Default tool)

G00 Z5.000000
G00 X25.918428 Y6.116190

G01 Z-1.000000 F100.0(Penetrate)
G01 X25.916303 Y6.125668 Z-1.000000 F3500.000000
G02 X25.929208 Y6.146040 Z-1.000000 I0.051930 J-0.018622
G01 X25.929646 Y6.170130 Z-1.000000
G01 X25.895388 Y6.182410 Z-1.000000
G02 X25.844636 Y6.182324 Z-1.000000 I-0.025702 J0.193365
G01 X25.831618 Y6.190710 Z-1.000000
G01 X25.832305 Y6.200543 Z-1.000000
G01 X25.844618 Y6.206300 Z-1.000000
G01 X25.857503 Y6.211738 Z-1.000000
G01 X25.858468 Y6.220520 Z-1.000000
G01 X25.848185 Y6.228302 Z-1.000000
G01 X25.836658 Y6.226720 Z-1.000000
G01 X25.828679 Y6.227788 Z-1.000000
G01 X25.823638 Y6.240480 Z-1.000000
G01 X25.829197 Y6.256777 Z-1.000000
G01 X25.840418 Y6.262290 Z-1.000000
G01 X25.845597 Y6.267085 Z-1.000000
G01 X25.841618 Y6.277860 Z-1.000000
G01 X25.810887 Y6.281708 Z-1.000000
G01 X25.801238 Y6.253890 Z-1.000000
G01 X25.794910 Y6.241278 Z-1.000000
G02 X25.761808 Y6.242810 Z-1.000000 I-0.014240 J0.050689
G01 X25.746082 Y6.255715 Z-1.000000
G01 X25.739678 Y6.277780 Z-1.000000
G01 X25.753887 Y6.292895 Z-1.000000
G01 X25.771998 Y6.279780 Z-1.000000
G01 X25.776386 Y6.276393 Z-1.000000
G01 X25.779998 Y6.279780 Z-1.000000
G01 X25.789890 Y6.295437 Z-1.000000
G02 X25.823578 Y6.304260 Z-1.000000 I0.033688 J-0.059903
G03 X25.859426 Y6.310421 Z-1.000000 I-0.000000 J0.107373
G01 X25.865538 Y6.319070 Z-1.000000
G01 X25.861101 Y6.325901 Z-1.000000
G01 X25.851548 Y6.325270 Z-1.000000
G01 X25.842832 Y6.326506 Z-1.000000
G01 X25.836578 Y6.341930 Z-1.000000
G01 X25.831949 Y6.348552 Z-1.000000
G01 X25.826088 Y6.346230 Z-1.000000
G02 X25.772247 Y6.306489 Z-1.000000 I-0.062541 J0.028388
G01 X25.739648 Y6.335190 Z-1.000000
G01 X25.743589 Y6.342394 Z-1.000000
G01 X25.757128 Y6.346450 Z-1.000000
G01 X25.760423 Y6.350684 Z-1.000000
G01 X25.753928 Y6.359760 Z-1.000000
G01 X25.752039 Y6.371396 Z-1.000000
G02 X25.781898 Y6.393970 Z-1.000000 I0.061436 J-0.050227
G03 X25.802040 Y6.409419 Z-1.000000 I-0.020815 J0.047992
G01 X25.799108 Y6.415630 Z-1.000000
G02 X25.773379 Y6.421804 Z-1.000000 I0.001063 J0.061127
G01 X25.767638 Y6.430990 Z-1.000000
G01 X25.772075 Y6.437821 Z-1.000000
G01 X25.781628 Y6.437190 Z-1.000000
G01 X25.789870 Y6.438848 Z-1.000000
G01 X25.795618 Y6.456910 Z-1.000000
G01 X25.788178 Y6.474462 Z-1.000000
G01 X25.774638 Y6.477220 Z-1.000000
G01 X25.758786 Y6.476687 Z-1.000000
G01 X25.753658 Y6.483620 Z-1.000000
G01 X25.758608 Y6.494315 Z-1.000000
G01 X25.778138 Y6.504470 Z-1.000000
G01 X25.781525 Y6.508858 Z-1.000000
G01 X25.778138 Y6.512470 Z-1.000000
G01 X25.759080 Y6.519173 Z-1.000000
G01 X25.753658 Y6.529580 Z-1.000000
G01 X25.759223 Y6.537030 Z-1.000000
G01 X25.776408 Y6.536380 Z-1.000000
G01 X25.821443 Y6.542743 Z-1.000000
G01 X25.827748 Y6.575180 Z-1.000000
G01 X25.842478 Y6.571380 Z-1.000000
G01 X25.866214 Y6.561788 Z-1.000000
G01 X25.882928 Y6.567880 Z-1.000000
G02 X25.900946 Y6.579652 Z-1.000000 I0.037084 J-0.037084
G02 X25.924418 Y6.584070 Z-1.000000 I0.023472 J-0.060146
G01 X25.935143 Y6.592127 Z-1.000000
G01 X25.932418 Y6.611700 Z-1.000000
G01 X25.927724 Y6.636908 Z-1.000000
G01 X25.941418 Y6.658530 Z-1.000000
G01 X25.957808 Y6.679664 Z-1.000000
G01 X25.956388 Y6.696010 Z-1.000000
G01 X25.956930 Y6.702445 Z-1.000000
G01 X25.962788 Y6.703310 Z-1.000000
G01 X25.978742 Y6.700982 Z-1.000000
G01 X25.993988 Y6.711610 Z-1.000000
G01 X26.006079 Y6.718553 Z-1.000000
G01 X26.014598 Y6.713310 Z-1.000000
G01 X26.024143 Y6.703095 Z-1.000000
G01 X26.034518 Y6.703610 Z-1.000000
G01 X26.042140 Y6.702280 Z-1.000000
G01 X26.047308 Y6.687540 Z-1.000000
G01 X26.054596 Y6.680013 Z-1.000000
G01 X26.072888 Y6.686714 Z-1.000000
G02 X26.100187 Y6.705398 Z-1.000000 I0.082308 J-0.090972
G01 X26.119048 Y6.709864 Z-1.000000
G01 X26.138029 Y6.713925 Z-1.000000
G03 X26.158158 Y6.727354 Z-1.000000 I-0.029828 J0.066511
G01 X26.174060 Y6.733671 Z-1.000000
G01 X26.183098 Y6.727354 Z-1.000000
G01 X26.200097 Y6.719472 Z-1.000000
G01 X26.208528 Y6.736654 Z-1.000000
G01 X26.212348 Y6.751757 Z-1.000000
G01 X26.228568 Y6.756004 Z-1.000000
G02 X26.251736 Y6.744380 Z-1.000000 I-0.015740 J-0.060273
G01 X26.257118 Y6.733184 Z-1.000000
G01 X26.277440 Y6.726039 Z-1.000000
G03 X26.302638 Y6.789924 Z-1.000000 I-0.090486 J0.072602
G01 X26.310483 Y6.809640 Z-1.000000
G01 X26.320978 Y6.812454 Z-1.000000
G01 X26.333475 Y6.815453 Z-1.000000
G03 X26.361238 Y6.857004 Z-1.000000 I-0.127593 J0.115305
G02 X26.389919 Y6.896275 Z-1.000000 I0.117652 J-0.055818
G01 X26.406708 Y6.899554 Z-1.000000
G01 X26.417387 Y6.901837 Z-1.000000
G01 X26.419538 Y6.912484 Z-1.000000
G02 X26.414547 Y6.946181 Z-1.000000 I0.067168 J0.027166
G01 X26.422838 Y6.948934 Z-1.000000
G01 X26.453028 Y6.915284 Z-1.000000
G01 X26.444128 Y6.980404 Z-1.000000
G02 X26.443276 Y7.038469 Z-1.000000 I0.237352 J0.032521
G01 X26.451128 Y7.045524 Z-1.000000
G01 X26.462238 Y7.040741 Z-1.000000
G01 X26.467018 Y7.028734 Z-1.000000
G01 X26.482099 Y7.025097 Z-1.000000
G03 X26.499058 Y7.091294 Z-1.000000 I-0.137803 J0.070575
G02 X26.508495 Y7.119749 Z-1.000000 I0.052186 J-0.001515
G01 X26.519698 Y7.120724 Z-1.000000
G03 X26.540018 Y7.104209 Z-1.000000 I0.090094 J0.090094
G01 X26.548448 Y7.101914 Z-1.000000
G03 X26.594936 Y7.121713 Z-1.000000 I-0.003396 J0.072450
G01 X26.603928 Y7.154444 Z-1.000000
G01 X26.605570 Y7.164505 Z-1.000000
G01 X26.613928 Y7.169124 Z-1.000000
G01 X26.621857 Y7.163859 Z-1.000000
G02 X26.625308 Y7.139054 Z-1.000000 I-0.052950 J-0.020010
G01 X26.629708 Y7.125164 Z-1.000000
G01 X26.639886 Y7.134513 Z-1.000000
G01 X26.656958 Y7.134064 Z-1.000000
G01 X26.666321 Y7.137182 Z-1.000000
G01 X26.667668 Y7.151134 Z-1.000000
G01 X26.668081 Y7.163954 Z-1.000000
G01 X26.674468 Y7.165894 Z-1.000000
G01 X26.686970 Y7.167116 Z-1.000000
G03 X26.705998 Y7.195074 Z-1.000000 I-0.050683 J0.054950
G02 X26.722135 Y7.233935 Z-1.000000 I0.870408 J-0.338649
G02 X26.740378 Y7.272794 Z-1.000000 I0.860198 J-0.380128
G03 X26.750821 Y7.305866 Z-1.000000 I-0.099991 J0.049759
G01 X26.746178 Y7.311264 Z-1.000000
G01 X26.736853 Y7.307280 Z-1.000000
G01 X26.732838 Y7.297274 Z-1.000000
G01 X26.728736 Y7.287377 Z-1.000000
G01 X26.718848 Y7.283284 Z-1.000000
G01 X26.710501 Y7.288936 Z-1.000000
G02 X26.704858 Y7.318254 Z-1.000000 I0.073335 J0.029318
G01 X26.719476 Y7.340431 Z-1.000000
G01 X26.745598 Y7.335734 Z-1.000000
G01 X26.752641 Y7.336613 Z-1.000000
G01 X26.754398 Y7.349724 Z-1.000000
G01 X26.762475 Y7.369713 Z-1.000000
G01 X26.779478 Y7.363714 Z-1.000000
G01 X26.790042 Y7.365088 Z-1.000000
G03 X26.789788 Y7.447634 Z-1.000000 I-0.326086 J0.040271
G01 X26.792946 Y7.460351 Z-1.000000
G01 X26.802118 Y7.465124 Z-1.000000
G01 X26.811677 Y7.460145 Z-1.000000
G01 X26.816718 Y7.444144 Z-1.000000
G01 X26.828166 Y7.433759 Z-1.000000
G01 X26.852498 Y7.447644 Z-1.000000
G02 X26.871033 Y7.463470 Z-1.000000 I0.042402 J-0.030895
G01 X26.880508 Y7.461974 Z-1.000000
G01 X26.883636 Y7.451487 Z-1.000000
G01 X26.874308 Y7.432154 Z-1.000000
G01 X26.869947 Y7.415602 Z-1.000000
G01 X26.879308 Y7.404284 Z-1.000000
G01 X26.895533 Y7.403481 Z-1.000000
G01 X26.900648 Y7.410184 Z-1.000000
G01 X26.905839 Y7.415712 Z-1.000000
G01 X26.925128 Y7.411684 Z-1.000000
G03 X26.949897 Y7.403679 Z-1.000000 I0.037016 J0.072209
G01 X26.967088 Y7.405384 Z-1.000000
G01 X26.979368 Y7.404313 Z-1.000000
G01 X26.984578 Y7.395384 Z-1.000000
G01 X26.991345 Y7.387530 Z-1.000000
G03 X27.028638 Y7.388784 Z-1.000000 I0.015240 J0.101898
G02 X27.059108 Y7.386748 Z-1.000000 I0.011728 J-0.053501
G01 X27.064048 Y7.375904 Z-1.000000
G01 X27.069662 Y7.367967 Z-1.000000
G01 X27.089758 Y7.376600 Z-1.000000
G01 X27.111600 Y7.387761 Z-1.000000
G01 X27.123978 Y7.382100 Z-1.000000
G01 X27.134935 Y7.375149 Z-1.000000
G01 X27.144478 Y7.379800 Z-1.000000
G01 X27.156615 Y7.385738 Z-1.000000
G02 X27.194388 Y7.374300 Z-1.000000 I-0.011635 J-0.106515
G03 X27.232316 Y7.362203 Z-1.000000 I0.054525 J0.105447
G01 X27.243378 Y7.367400 Z-1.000000
G01 X27.271316 Y7.373425 Z-1.000000
G01 X27.290208 Y7.335880 Z-1.000000
G01 X27.282308 Y7.328880 Z-1.000000
G01 X27.268173 Y7.344882 Z-1.000000
G01 X27.257488 Y7.335880 Z-1.000000
G02 X27.260718 Y7.304405 Z-1.000000 I-11.749511 J-1.221786
G02 X27.262588 Y7.285430 Z-1.000000 I-3.486395 J-0.353100
G01 X27.269560 Y7.274810 Z-1.000000
G01 X27.283648 Y7.273850 Z-1.000000
G01 X27.301703 Y7.275006 Z-1.000000
G01 X27.320418 Y7.264850 Z-1.000000
G01 X27.327553 Y7.266338 Z-1.000000
G01 X27.329218 Y7.285320 Z-1.000000
G02 X27.328443 Y7.319542 Z-1.000000 I0.080552 J0.018945
G01 X27.339018 Y7.337510 Z-1.000000
G01 X27.348245 Y7.334383 Z-1.000000
G02 X27.353518 Y7.274020 Z-1.000000 I-0.215618 J-0.049246
G02 X27.344045 Y7.197650 Z-1.000000 I-0.529003 J0.026847
G01 X27.334918 Y7.180570 Z-1.000000
G01 X27.324298 Y7.146179 Z-1.000000
G01 X27.344718 Y7.128460 Z-1.000000
G01 X27.352114 Y7.124456 Z-1.000000
G01 X27.350818 Y7.119960 Z-1.000000
G01 X27.336262 Y7.108818 Z-1.000000
G03 X27.317678 Y7.075600 Z-1.000000 I0.116924 J-0.087222
G02 X27.303123 Y7.054479 Z-1.000000 I-0.053516 J0.021305
G01 X27.296438 Y7.056090 Z-1.000000
G01 X27.287099 Y7.069485 Z-1.000000
G01 X27.276108 Y7.073570 Z-1.000000
G01 X27.272758 Y7.068491 Z-1.000000
G03 X27.292598 Y7.035100 Z-1.000000 I0.136189 J0.058330
G02 X27.307474 Y7.002302 Z-1.000000 I-0.059028 J-0.046544
G01 X27.300598 Y6.992110 Z-1.000000
G01 X27.283965 Y6.975301 Z-1.000000
G01 X27.293298 Y6.954060 Z-1.000000
G01 X27.301098 Y6.941440 Z-1.000000
G02 X27.299498 Y6.886790 Z-1.000000 I-0.226709 J-0.020709
G03 X27.299576 Y6.851086 Z-1.000000 I0.116473 J-0.017597
G01 X27.305298 Y6.849760 Z-1.000000
G01 X27.313500 Y6.850149 Z-1.000000
G01 X27.320108 Y6.832280 Z-1.000000
G02 X27.315109 Y6.799063 Z-1.000000 I-0.108837 J-0.000607
G01 X27.307968 Y6.793820 Z-1.000000
G01 X27.299145 Y6.789237 Z-1.000000
G03 X27.288298 Y6.765840 Z-1.000000 I0.059379 J-0.041741
G01 X27.292475 Y6.746735 Z-1.000000
G01 X27.311148 Y6.737870 Z-1.000000
G01 X27.328650 Y6.725225 Z-1.000000
G02 X27.341128 Y6.647270 Z-1.000000 I-0.234128 J-0.077453
G02 X27.331236 Y6.560840 Z-1.000000 I-0.389450 J0.000791
G02 X27.314668 Y6.531874 Z-1.000000 I-0.056171 J0.012908
G01 X27.301096 Y6.526666 Z-1.000000
G01 X27.297208 Y6.532285 Z-1.000000
G01 X27.297531 Y6.546921 Z-1.000000
G01 X27.292208 Y6.548945 Z-1.000000
G01 X27.282978 Y6.537840 Z-1.000000
G03 X27.278378 Y6.513255 Z-1.000000 I0.063396 J-0.024585
G01 X27.271491 Y6.493036 Z-1.000000
G01 X27.257398 Y6.486105 Z-1.000000
G01 X27.241593 Y6.480893 Z-1.000000
G01 X27.236418 Y6.470625 Z-1.000000
G01 X27.231144 Y6.462841 Z-1.000000
G01 X27.216598 Y6.462725 Z-1.000000
G01 X27.200394 Y6.462261 Z-1.000000
G01 X27.189058 Y6.450235 Z-1.000000
G01 X27.176879 Y6.436639 Z-1.000000
G02 X27.149438 Y6.429925 Z-1.000000 I-0.027859 J0.054430
G03 X27.090776 Y6.415974 Z-1.000000 I0.000900 J-0.134094
G01 X27.093878 Y6.402375 Z-1.000000
G01 X27.103825 Y6.397573 Z-1.000000
G01 X27.104358 Y6.389485 Z-1.000000
G01 X27.094213 Y6.382557 Z-1.000000
G02 X27.071088 Y6.383485 Z-1.000000 I-0.009473 J0.052548
G01 X27.048396 Y6.381948 Z-1.000000
G03 X27.025638 Y6.364685 Z-1.000000 I0.021645 J-0.052169
G01 X27.025967 Y6.359570 Z-1.000000
G01 X27.031138 Y6.359285 Z-1.000000
G01 X27.054629 Y6.367412 Z-1.000000
G01 X27.069388 Y6.359285 Z-1.000000
G02 X27.079404 Y6.338511 Z-1.000000 I-0.084255 J-0.053422
G01 X27.081208 Y6.325215 Z-1.000000
G01 X27.073108 Y6.329315 Z-1.000000
G01 X27.063101 Y6.336566 Z-1.000000
G01 X27.046238 Y6.331115 Z-1.000000
G03 X27.030547 Y6.312958 Z-1.000000 I0.047379 J-0.056802
G01 X27.026618 Y6.299025 Z-1.000000
G01 X26.992010 Y6.263481 Z-1.000000
G02 X26.924626 Y6.296325 Z-1.000000 I-0.002163 J0.081108
G01 X26.919032 Y6.297280 Z-1.000000
G01 X26.915826 Y6.290325 Z-1.000000
G02 X26.910765 Y6.246241 Z-1.000000 I-0.100893 J-0.010750
G01 X26.894726 Y6.229685 Z-1.000000
G01 X26.883756 Y6.232802 Z-1.000000
G01 X26.879936 Y6.249175 Z-1.000000
G01 X26.876391 Y6.269081 Z-1.000000
G01 X26.863496 Y6.276345 Z-1.000000
G01 X26.851387 Y6.269767 Z-1.000000
G01 X26.849876 Y6.255365 Z-1.000000
G01 X26.842926 Y6.240201 Z-1.000000
G01 X26.825036 Y6.246465 Z-1.000000
G01 X26.814813 Y6.253044 Z-1.000000
G03 X26.762126 Y6.254565 Z-1.000000 I-0.033934 J-0.262149
G02 X26.718310 Y6.259239 Z-1.000000 I-0.008868 J0.124575
G01 X26.713616 Y6.268705 Z-1.000000
G01 X26.709432 Y6.277472 Z-1.000000
G03 X26.681276 Y6.279265 Z-1.000000 I-0.017551 J-0.053643
G03 X26.659015 Y6.270610 Z-1.000000 I0.012223 J-0.064394
G01 X26.659566 Y6.265865 Z-1.000000
G01 X26.668891 Y6.256859 Z-1.000000
G01 X26.667766 Y6.243705 Z-1.000000
G01 X26.669866 Y6.237805 Z-1.000000
G01 X26.699972 Y6.239593 Z-1.000000
G01 X26.718856 Y6.203025 Z-1.000000
G01 X26.714321 Y6.198701 Z-1.000000
G01 X26.700956 Y6.203890 Z-1.000000
G01 X26.681241 Y6.213392 Z-1.000000
G03 X26.635256 Y6.217380 Z-1.000000 I-0.040250 J-0.197025
G02 X26.592106 Y6.222641 Z-1.000000 I-0.004143 J0.145613
G01 X26.582046 Y6.232210 Z-1.000000
G01 X26.573207 Y6.243651 Z-1.000000
G01 X26.557266 Y6.248410 Z-1.000000
G01 X26.545004 Y6.254027 Z-1.000000
G01 X26.542156 Y6.265890 Z-1.000000
G01 X26.540656 Y6.273190 Z-1.000000
G01 X26.537652 Y6.263460 Z-1.000000
G01 X26.539456 Y6.258860 Z-1.000000
G01 X26.537402 Y6.224744 Z-1.000000
G02 X26.482206 Y6.217580 Z-1.000000 I-0.034224 J0.047474
G01 X26.472941 Y6.214529 Z-1.000000
G01 X26.471556 Y6.200920 Z-1.000000
G01 X26.468734 Y6.188050 Z-1.000000
G01 X26.455026 Y6.184800 Z-1.000000
G03 X26.396449 Y6.182148 Z-1.000000 I-0.025684 J-0.080939
G01 X26.376156 Y6.151610 Z-1.000000
G01 X26.371311 Y6.135263 Z-1.000000
G01 X26.359776 Y6.126330 Z-1.000000
G01 X26.351832 Y6.129888 Z-1.000000
G01 X26.350476 Y6.147930 Z-1.000000
G01 X26.344470 Y6.162749 Z-1.000000
G01 X26.318146 Y6.167460 Z-1.000000
G01 X26.302023 Y6.172271 Z-1.000000
G01 X26.301936 Y6.183120 Z-1.000000
G02 X26.326817 Y6.198384 Z-1.000000 I0.044297 J-0.044297
G01 X26.347146 Y6.197860 Z-1.000000
G01 X26.364440 Y6.196227 Z-1.000000
G01 X26.369166 Y6.201860 Z-1.000000
G01 X26.364335 Y6.210893 Z-1.000000
G03 X26.326176 Y6.230500 Z-1.000000 I-0.104725 J-0.156882
G01 X26.304134 Y6.231745 Z-1.000000
G01 X26.301696 Y6.224300 Z-1.000000
G01 X26.299882 Y6.214115 Z-1.000000
G01 X26.278246 Y6.210590 Z-1.000000
G01 X26.253766 Y6.211790 Z-1.000000
G01 X26.270787 Y6.183607 Z-1.000000
G01 X26.250266 Y6.164550 Z-1.000000
G01 X26.234160 Y6.169429 Z-1.000000
G01 X26.229286 Y6.178540 Z-1.000000
G01 X26.216380 Y6.186696 Z-1.000000
G01 X26.196886 Y6.163150 Z-1.000000
G01 X26.184607 Y6.145219 Z-1.000000
G01 X26.171466 Y6.144730 Z-1.000000
G01 X26.165580 Y6.154309 Z-1.000000
G01 X26.170066 Y6.161120 Z-1.000000
G01 X26.183292 Y6.193744 Z-1.000000
G01 X26.139246 Y6.220510 Z-1.000000
G01 X26.135694 Y6.216408 Z-1.000000
G01 X26.141546 Y6.204820 Z-1.000000
G01 X26.151938 Y6.168768 Z-1.000000
G01 X26.129126 Y6.150570 Z-1.000000
G01 X26.123077 Y6.154639 Z-1.000000
G01 X26.123826 Y6.163590 Z-1.000000
G01 X26.125421 Y6.175081 Z-1.000000
G01 X26.117626 Y6.185400 Z-1.000000
G01 X26.107884 Y6.186146 Z-1.000000
G01 X26.103406 Y6.179400 Z-1.000000
G01 X26.098391 Y6.169684 Z-1.000000
G01 X26.082426 Y6.164590 Z-1.000000
G01 X26.066481 Y6.159516 Z-1.000000
G01 X26.061446 Y6.149780 Z-1.000000
G01 X26.056981 Y6.143042 Z-1.000000
G01 X26.047156 Y6.143780 Z-1.000000
G01 X26.044351 Y6.153487 Z-1.000000
G02 X26.064646 Y6.179600 Z-1.000000 I0.072393 J-0.035320
G01 X26.075340 Y6.194533 Z-1.000000
G01 X26.071946 Y6.198070 Z-1.000000
G01 X26.055652 Y6.206888 Z-1.000000
G01 X26.064946 Y6.226100 Z-1.000000
G01 X26.054456 Y6.230600 Z-1.000000
G01 X26.033554 Y6.219961 Z-1.000000
G01 X26.022016 Y6.195880 Z-1.000000
G01 X26.005371 Y6.177447 Z-1.000000
G01 X25.991516 Y6.188280 Z-1.000000
G01 X25.977262 Y6.193798 Z-1.000000
G03 X25.959926 Y6.153570 Z-1.000000 I0.049713 J-0.045273
G02 X25.953821 Y6.132238 Z-1.000000 I-0.054646 J0.004098
G01 X25.947846 Y6.130590 Z-1.000000
G01 X25.940155 Y6.130689 Z-1.000000
G01 X25.932976 Y6.121790 Z-1.000000
G01 X25.926151 Y6.114698 Z-1.000000
G01 X25.918456 Y6.116390 Z-1.000000
G01 X25.918428 Y6.116190 Z-1.000000
G00 Z5.000000

(End cutting path id: path2)


(Start cutting path id: path2)
(Change tool to Default tool)

G00 Z5.000000
G00 X25.998051 Y6.095120

G01 Z-1.000000 F100.0(Penetrate)
G01 X26.001517 Y6.113847 Z-1.000000 F3500.000000
G01 X26.020921 Y6.112550 Z-1.000000
G01 X26.026945 Y6.098617 Z-1.000000
G01 X26.021654 Y6.088780 Z-1.000000
G01 X26.009076 Y6.086924 Z-1.000000
G01 X25.998054 Y6.095080 Z-1.000000
G01 X25.998051 Y6.095120 Z-1.000000
G00 Z5.000000

(End cutting path id: path2)


(Start cutting path id: path2)
(Change tool to Default tool)

G00 Z5.000000
G00 X25.921528 Y6.219161

G01 Z-1.000000 F100.0(Penetrate)
G02 X25.923074 Y6.231763 Z-1.000000 I0.052136 J0.000000 F3500.000000
G02 X25.931128 Y6.257631 Z-1.000000 I0.227901 J-0.056769
G01 X25.927924 Y6.265409 Z-1.000000
G01 X25.917138 Y6.264031 Z-1.000000
G03 X25.893333 Y6.223066 Z-1.000000 I0.042278 J-0.051967
G01 X25.907538 Y6.206301 Z-1.000000
G01 X25.917620 Y6.210234 Z-1.000000
G01 X25.921528 Y6.219141 Z-1.000000
G01 X25.921528 Y6.219161 Z-1.000000
G00 Z5.000000

(End cutting path id: path2)


(Start cutting path id: path2)
(Change tool to Default tool)

G00 Z5.000000
G00 X25.913359 Y6.299161

G01 Z-1.000000 F100.0(Penetrate)
G01 X25.910510 Y6.305878 Z-1.000000 F3500.000000
G01 X25.900869 Y6.304461 Z-1.000000
G01 X25.886774 Y6.283418 Z-1.000000
G01 X25.892069 Y6.276221 Z-1.000000
G01 X25.901704 Y6.280430 Z-1.000000
G03 X25.913369 Y6.299181 Z-1.000000 I-0.042770 J0.039611
G01 X25.913359 Y6.299161 Z-1.000000
G00 Z5.000000

(End cutting path id: path2)


(Start cutting path id: path2)
(Change tool to Default tool)

G00 Z5.000000
G00 X25.861149 Y6.390721

G01 Z-1.000000 F100.0(Penetrate)
G01 X25.856799 Y6.391593 Z-1.000000 F3500.000000
G01 X25.852749 Y6.382221 Z-1.000000
G01 X25.855733 Y6.364737 Z-1.000000
G01 X25.860049 Y6.363861 Z-1.000000
G01 X25.864120 Y6.373145 Z-1.000000
G01 X25.861149 Y6.390671 Z-1.000000
G01 X25.861149 Y6.390721 Z-1.000000
G00 Z5.000000

(End cutting path id: path2)


(Start cutting path id: path2)
(Change tool to Default tool)

G00 Z5.000000
G00 X25.879569 Y6.454671

G01 Z-1.000000 F100.0(Penetrate)
G01 X25.875922 Y6.463192 Z-1.000000 F3500.000000
G03 X25.848099 Y6.484631 Z-1.000000 I-0.115248 J-0.120792
G01 X25.841965 Y6.482749 Z-1.000000
G01 X25.843299 Y6.474011 Z-1.000000
G03 X25.872947 Y6.450687 Z-1.000000 I0.079937 J0.071108
G01 X25.879599 Y6.454681 Z-1.000000
G01 X25.879569 Y6.454671 Z-1.000000
G00 Z5.000000

(End cutting path id: path2)


(Start cutting path id: path2)
(Change tool to Default tool)

G00 Z5.000000
G00 X25.851594 Y6.528011

G01 Z-1.000000 F100.0(Penetrate)
G01 X25.847492 Y6.537908 Z-1.000000 F3500.000000
G01 X25.837604 Y6.542001 Z-1.000000
G01 X25.827707 Y6.537899 Z-1.000000
G01 X25.823614 Y6.528011 Z-1.000000
G01 X25.827716 Y6.518114 Z-1.000000
G01 X25.837604 Y6.514021 Z-1.000000
G01 X25.847501 Y6.518123 Z-1.000000
G01 X25.851594 Y6.528011 Z-1.000000
G01 X25.851594 Y6.528011 Z-1.000000
G00 Z5.000000

(End cutting path id: path2)


(Start cutting path id: path2)
(Change tool to Default tool)

G00 Z5.000000
G00 X25.720207 Y6.424211

G01 Z-1.000000 F100.0(Penetrate)
G02 X25.712529 Y6.482821 Z-1.000000 I0.117971 J0.045262 F3500.000000
G01 X25.729207 Y6.508411 Z-1.000000
G01 X25.737807 Y6.508536 Z-1.000000
G01 X25.733747 Y6.497298 Z-1.000000
G03 X25.739807 Y6.450346 Z-1.000000 I0.252111 J0.008674
G01 X25.733786 Y6.422305 Z-1.000000
G01 X25.720167 Y6.424216 Z-1.000000
G01 X25.720207 Y6.424211 Z-1.000000
G00 Z5.000000

(End cutting path id: path2)


(Start cutting path id: path2)
(Change tool to Default tool)

G00 Z5.000000
G00 X25.690736 Y6.374141

G01 Z-1.000000 F100.0(Penetrate)
G01 X25.701326 Y6.384703 Z-1.000000 F3500.000000
G01 X25.713366 Y6.388131 Z-1.000000
G01 X25.719613 Y6.383820 Z-1.000000
G01 X25.718666 Y6.374141 Z-1.000000
G01 X25.708076 Y6.363579 Z-1.000000
G01 X25.696036 Y6.360151 Z-1.000000
G01 X25.689789 Y6.364462 Z-1.000000
G01 X25.690736 Y6.374141 Z-1.000000
G01 X25.690736 Y6.374141 Z-1.000000
G00 Z5.000000

(End cutting path id: path2)


(Start cutting path id: path2)
(Change tool to Default tool)

G00 Z5.000000
G00 X25.690736 Y6.332171

G01 Z-1.000000 F100.0(Penetrate)
G01 X25.691610 Y6.340872 Z-1.000000 F3500.000000
G01 X25.703896 Y6.346161 Z-1.000000
G01 X25.720762 Y6.341216 Z-1.000000
G01 X25.725706 Y6.332171 Z-1.000000
G01 X25.721742 Y6.322160 Z-1.000000
G01 X25.712546 Y6.318181 Z-1.000000
G01 X25.701264 Y6.321483 Z-1.000000
G01 X25.690736 Y6.332171 Z-1.000000
G01 X25.690736 Y6.332171 Z-1.000000
G00 Z5.000000

(End cutting path id: path2)


(Start cutting path id: path2)
(Change tool to Default tool)

G00 Z5.000000
G00 X25.660427 Y6.465031

G01 Z-1.000000 F100.0(Penetrate)
G01 X25.664359 Y6.482114 Z-1.000000 F3500.000000
G01 X25.670587 Y6.486011 Z-1.000000
G01 X25.678320 Y6.482487 Z-1.000000
G02 X25.688797 Y6.465031 Z-1.000000 I-0.044078 J-0.038327
G01 X25.688157 Y6.450022 Z-1.000000
G01 X25.678637 Y6.444051 Z-1.000000
G01 X25.666147 Y6.449741 Z-1.000000
G01 X25.660427 Y6.465031 Z-1.000000
G01 X25.660427 Y6.465031 Z-1.000000
G00 Z5.000000

(End cutting path id: path2)


(Start cutting path id: path2)
(Change tool to Default tool)

G00 Z5.000000
G00 X25.683742 Y6.540471

G01 Z-1.000000 F100.0(Penetrate)
G01 X25.687951 Y6.550106 Z-1.000000 F3500.000000
G02 X25.706702 Y6.561771 Z-1.000000 I0.039611 J-0.042770
G01 X25.713419 Y6.558922 Z-1.000000
G01 X25.712002 Y6.549281 Z-1.000000
G01 X25.690959 Y6.535186 Z-1.000000
G01 X25.683762 Y6.540481 Z-1.000000
G01 X25.683742 Y6.540471 Z-1.000000
G00 Z5.000000

(End cutting path id: path2)


(Start cutting path id: path2)
(Change tool to Default tool)

G00 Z5.000000
G00 X25.438959 Y6.262180

G01 Z-1.000000 F100.0(Penetrate)
G02 X25.448742 Y6.274165 Z-1.000000 I0.051766 J-0.032269 F3500.000000
G01 X25.453769 Y6.276170 Z-1.000000
G01 X25.457520 Y6.273731 Z-1.000000
G01 X25.459969 Y6.262180 Z-1.000000
G01 X25.455737 Y6.252385 Z-1.000000
G01 X25.445159 Y6.248190 Z-1.000000
G01 X25.438328 Y6.252627 Z-1.000000
G01 X25.438959 Y6.262180 Z-1.000000
G01 X25.438959 Y6.262180 Z-1.000000
G00 Z5.000000

(End cutting path id: path2)


(Start cutting path id: path2)
(Change tool to Default tool)

G00 Z5.000000
G00 X25.355064 Y6.122390

G01 Z-1.000000 F100.0(Penetrate)
G01 X25.354398 Y6.131916 Z-1.000000 F3500.000000
G01 X25.361264 Y6.136380 Z-1.000000
G01 X25.371842 Y6.132184 Z-1.000000
G01 X25.376074 Y6.122390 Z-1.000000
G01 X25.373622 Y6.110836 Z-1.000000
G01 X25.369874 Y6.108400 Z-1.000000
G01 X25.364816 Y6.110413 Z-1.000000
G02 X25.355064 Y6.122390 Z-1.000000 I0.040925 J0.043279
G01 X25.355064 Y6.122390 Z-1.000000
G00 Z5.000000

(End cutting path id: path2)


(Start cutting path id: path2)
(Change tool to Default tool)

G00 Z5.000000
G00 X25.229147 Y6.276170

G01 Z-1.000000 F100.0(Penetrate)
G02 X25.238930 Y6.288155 Z-1.000000 I0.051766 J-0.032269 F3500.000000
G01 X25.243957 Y6.290160 Z-1.000000
G01 X25.247708 Y6.287721 Z-1.000000
G01 X25.250157 Y6.276170 Z-1.000000
G01 X25.245925 Y6.266375 Z-1.000000
G01 X25.235347 Y6.262180 Z-1.000000
G01 X25.228516 Y6.266617 Z-1.000000
G01 X25.229147 Y6.276170 Z-1.000000
G01 X25.229147 Y6.276170 Z-1.000000
G00 Z5.000000

(End cutting path id: path2)


(Start cutting path id: path2)
(Change tool to Default tool)

G00 Z5.000000
G00 X25.194179 Y6.241240

G01 Z-1.000000 F100.0(Penetrate)
G03 X25.176076 Y6.256015 Z-1.000000 I-0.046368 J-0.038334 F3500.000000
G01 X25.167009 Y6.255720 Z-1.000000
G01 X25.149409 Y6.266270 Z-1.000000
G02 X25.170609 Y6.313220 Z-1.000000 I0.072514 J-0.004482
G01 X25.175911 Y6.312392 Z-1.000000
G01 X25.180209 Y6.294660 Z-1.000000
G01 X25.187809 Y6.271413 Z-1.000000
G03 X25.210829 Y6.252830 Z-1.000000 I0.046484 J0.034033
G01 X25.228200 Y6.238280 Z-1.000000
G01 X25.226399 Y6.229870 Z-1.000000
G01 X25.212615 Y6.228404 Z-1.000000
G01 X25.194189 Y6.241240 Z-1.000000
G01 X25.194179 Y6.241240 Z-1.000000
G00 Z5.000000

(End cutting path id: path2)


(Start cutting path id: path2)
(Change tool to Default tool)

G00 Z5.000000
G00 X25.110254 Y6.220259

G01 Z-1.000000 F100.0(Penetrate)
G01 X25.114486 Y6.230054 Z-1.000000 F3500.000000
G01 X25.125064 Y6.234249 Z-1.000000
G01 X25.131895 Y6.229812 Z-1.000000
G01 X25.131264 Y6.220259 Z-1.000000
G02 X25.121481 Y6.208274 Z-1.000000 I-0.051766 J0.032269
G01 X25.116454 Y6.206269 Z-1.000000
G01 X25.112703 Y6.208708 Z-1.000000
G01 X25.110254 Y6.220259 Z-1.000000
G01 X25.110254 Y6.220259 Z-1.000000
G00 Z5.000000

(End cutting path id: path2)


(Start cutting path id: path2)
(Change tool to Default tool)

G00 Z5.000000
G00 X25.093644 Y6.299761

G01 Z-1.000000 F100.0(Penetrate)
G01 X25.111123 Y6.302724 Z-1.000000 F3500.000000
G01 X25.120454 Y6.298661 Z-1.000000
G01 X25.119575 Y6.294336 Z-1.000000
G01 X25.102094 Y6.291361 Z-1.000000
G01 X25.092704 Y6.295480 Z-1.000000
G01 X25.093594 Y6.299861 Z-1.000000
G01 X25.093644 Y6.299761 Z-1.000000
G00 Z5.000000

(End cutting path id: path2)


(Start cutting path id: path2)
(Change tool to Default tool)

G00 Z5.000000
G00 X25.096271 Y6.360151

G01 Z-1.000000 F100.0(Penetrate)
G01 X25.100373 Y6.370048 Z-1.000000 F3500.000000
G01 X25.110261 Y6.374141 Z-1.000000
G01 X25.120158 Y6.370039 Z-1.000000
G01 X25.124251 Y6.360151 Z-1.000000
G01 X25.120149 Y6.350254 Z-1.000000
G01 X25.110261 Y6.346161 Z-1.000000
G01 X25.100364 Y6.350263 Z-1.000000
G01 X25.096271 Y6.360151 Z-1.000000
G01 X25.096271 Y6.360151 Z-1.000000
G00 Z5.000000

(End cutting path id: path2)


(Start cutting path id: path2)
(Change tool to Default tool)

G00 Z5.000000
G00 X25.194611 Y6.409081

G01 Z-1.000000 F100.0(Penetrate)
G01 X25.211647 Y6.436947 Z-1.000000 F3500.000000
G01 X25.243231 Y6.433981 Z-1.000000
G01 X25.248221 Y6.424749 Z-1.000000
G01 X25.244231 Y6.421661 Z-1.000000
G01 X25.220152 Y6.423020 Z-1.000000
G01 X25.205981 Y6.413061 Z-1.000000
G01 X25.197931 Y6.406683 Z-1.000000
G01 X25.194581 Y6.409061 Z-1.000000
G01 X25.194611 Y6.409081 Z-1.000000
G00 Z5.000000

(End cutting path id: path2)


(Start cutting path id: path2)
(Change tool to Default tool)

G00 Z5.000000
G00 X26.173305 Y6.653898

G01 Z-1.000000 F100.0(Penetrate)
G01 X26.169203 Y6.663795 Z-1.000000 F3500.000000
G01 X26.159315 Y6.667888 Z-1.000000
G01 X26.149418 Y6.663786 Z-1.000000
G01 X26.145325 Y6.653898 Z-1.000000
G01 X26.149427 Y6.644001 Z-1.000000
G01 X26.159315 Y6.639908 Z-1.000000
G01 X26.169212 Y6.644010 Z-1.000000
G01 X26.173305 Y6.653898 Z-1.000000
G01 X26.173305 Y6.653898 Z-1.000000
G00 Z5.000000

(End cutting path id: path2)


(Start cutting path id: path2)
(Change tool to Default tool)

G00 Z5.000000
G00 X26.369128 Y6.743988

G01 Z-1.000000 F100.0(Penetrate)
G01 X26.367115 Y6.749046 Z-1.000000 F3500.000000
G03 X26.355138 Y6.758798 Z-1.000000 I-0.043279 J-0.040925
G01 X26.345612 Y6.759464 Z-1.000000
G01 X26.341148 Y6.752598 Z-1.000000
G01 X26.345344 Y6.742020 Z-1.000000
G01 X26.355138 Y6.737788 Z-1.000000
G01 X26.366692 Y6.740240 Z-1.000000
G01 X26.369128 Y6.743988 Z-1.000000
G01 X26.369128 Y6.743988 Z-1.000000
G00 Z5.000000

(End cutting path id: path2)


(Start cutting path id: path2)
(Change tool to Default tool)

G00 Z5.000000
G00 X26.376128 Y6.807758

G01 Z-1.000000 F100.0(Penetrate)
G01 X26.376794 Y6.817284 Z-1.000000 F3500.000000
G01 X26.369928 Y6.821748 Z-1.000000
G01 X26.359350 Y6.817552 Z-1.000000
G01 X26.355118 Y6.807758 Z-1.000000
G01 X26.357570 Y6.796204 Z-1.000000
G01 X26.361318 Y6.793768 Z-1.000000
G01 X26.366376 Y6.795781 Z-1.000000
G03 X26.376128 Y6.807758 Z-1.000000 I-0.040925 J0.043279
G01 X26.376128 Y6.807758 Z-1.000000
G00 Z5.000000

(End cutting path id: path2)


(Start cutting path id: path2)
(Change tool to Default tool)

G00 Z5.000000
G00 X26.397048 Y6.859688

G01 Z-1.000000 F100.0(Penetrate)
G01 X26.391376 Y6.862511 Z-1.000000 F3500.000000
G01 X26.389048 Y6.859071 Z-1.000000
G02 X26.395879 Y6.833227 Z-1.000000 I-0.288222 J-0.090005
G02 X26.398248 Y6.817111 Z-1.000000 I-0.116847 J-0.025409
G01 X26.401520 Y6.814281 Z-1.000000
G01 X26.406248 Y6.817728 Z-1.000000
G01 X26.407667 Y6.834148 Z-1.000000
G03 X26.397048 Y6.859688 Z-1.000000 I-0.076043 J-0.016640
G01 X26.397048 Y6.859688 Z-1.000000
G00 Z5.000000

(End cutting path id: path2)


(Start cutting path id: path2)
(Change tool to Default tool)

G00 Z5.000000
G00 X26.467038 Y6.248231

G01 Z-1.000000 F100.0(Penetrate)
G01 X26.464586 Y6.259785 Z-1.000000 F3500.000000
G01 X26.460838 Y6.262221 Z-1.000000
G01 X26.455780 Y6.260208 Z-1.000000
G03 X26.446028 Y6.248231 Z-1.000000 I0.040925 J-0.043279
G01 X26.445362 Y6.238705 Z-1.000000
G01 X26.452228 Y6.234241 Z-1.000000
G01 X26.462806 Y6.238437 Z-1.000000
G01 X26.467038 Y6.248231 Z-1.000000
G01 X26.467038 Y6.248231 Z-1.000000
G00 Z5.000000

(End cutting path id: path2)


(Start cutting path id: path2)
(Change tool to Default tool)

G00 Z5.000000
G00 X26.411088 Y6.220261

G01 Z-1.000000 F100.0(Penetrate)
G01 X26.408636 Y6.231815 Z-1.000000 F3500.000000
G01 X26.404888 Y6.234251 Z-1.000000
G01 X26.399830 Y6.232238 Z-1.000000
G03 X26.390078 Y6.220261 Z-1.000000 I0.040925 J-0.043279
G01 X26.389412 Y6.210735 Z-1.000000
G01 X26.396278 Y6.206271 Z-1.000000
G01 X26.406856 Y6.210467 Z-1.000000
G01 X26.411088 Y6.220261 Z-1.000000
G01 X26.411088 Y6.220261 Z-1.000000
G00 Z5.000000

(End cutting path id: path2)


(Start cutting path id: path2)
(Change tool to Default tool)

G00 Z5.000000
G00 X26.418077 Y6.164339

G01 Z-1.000000 F100.0(Penetrate)
G01 X26.428602 Y6.175013 Z-1.000000 F3500.000000
G01 X26.439887 Y6.178329 Z-1.000000
G01 X26.449060 Y6.174373 Z-1.000000
G01 X26.453047 Y6.164339 Z-1.000000
G01 X26.448105 Y6.155295 Z-1.000000
G01 X26.431237 Y6.150349 Z-1.000000
G01 X26.418951 Y6.155658 Z-1.000000
G01 X26.418077 Y6.164339 Z-1.000000
G01 X26.418077 Y6.164339 Z-1.000000
G00 Z5.000000

(End cutting path id: path2)


(Start cutting path id: path2)
(Change tool to Default tool)

G00 Z5.000000
G00 X26.539056 Y6.186779

G01 Z-1.000000 F100.0(Penetrate)
G01 X26.539486 Y6.204500 Z-1.000000 F3500.000000
G01 X26.562636 Y6.210929 Z-1.000000
G02 X26.586237 Y6.198474 Z-1.000000 I-0.014680 J-0.056404
G01 X26.589126 Y6.187879 Z-1.000000
G01 X26.569564 Y6.173451 Z-1.000000
G01 X26.539056 Y6.186779 Z-1.000000
G01 X26.539056 Y6.186779 Z-1.000000
G00 Z5.000000

(End cutting path id: path2)


(Start cutting path id: path2)
(Change tool to Default tool)

G00 Z5.000000
G00 X26.774761 Y6.276201

G01 Z-1.000000 F100.0(Penetrate)
G01 X26.770797 Y6.286212 Z-1.000000 F3500.000000
G01 X26.761601 Y6.290191 Z-1.000000
G01 X26.750319 Y6.286889 Z-1.000000
G01 X26.739791 Y6.276201 Z-1.000000
G01 X26.740665 Y6.267500 Z-1.000000
G01 X26.752951 Y6.262211 Z-1.000000
G01 X26.769817 Y6.267156 Z-1.000000
G01 X26.774761 Y6.276201 Z-1.000000
G01 X26.774761 Y6.276201 Z-1.000000
G00 Z5.000000

(End cutting path id: path2)


(Start cutting path id: path2)
(Change tool to Default tool)

G00 Z5.000000
G00 X27.166411 Y6.458071

G01 Z-1.000000 F100.0(Penetrate)
G01 X27.166678 Y6.465580 Z-1.000000 F3500.000000
G01 X27.148101 Y6.471841 Z-1.000000
G03 X27.119840 Y6.465866 Z-1.000000 I-0.000372 J-0.068064
G01 X27.117451 Y6.458071 Z-1.000000
G01 X27.134389 Y6.448625 Z-1.000000
G03 X27.166411 Y6.458071 Z-1.000000 I-0.000000 J0.059000
G01 X27.166411 Y6.458071 Z-1.000000
G00 Z5.000000

(End cutting path id: path2)


(Start cutting path id: path2)
(Change tool to Default tool)

G00 Z5.000000
G00 X27.283148 Y6.927258

G01 Z-1.000000 F100.0(Penetrate)
G01 X27.273439 Y6.942175 Z-1.000000 F3500.000000
G01 X27.268198 Y6.942178 Z-1.000000
G01 X27.265721 Y6.934986 Z-1.000000
G01 X27.270798 Y6.920588 Z-1.000000
G01 X27.279821 Y6.918177 Z-1.000000
G01 X27.283198 Y6.927288 Z-1.000000
G01 X27.283148 Y6.927258 Z-1.000000
G00 Z5.000000

(End cutting path id: path2)


(Start cutting path id: path2)
(Change tool to Default tool)

G00 Z5.000000
G00 X27.264338 Y7.205578

G01 Z-1.000000 F100.0(Penetrate)
G01 X27.250878 Y7.222505 Z-1.000000 F3500.000000
G01 X27.229508 Y7.213578 Z-1.000000
G01 X27.230336 Y7.204745 Z-1.000000
G01 X27.242528 Y7.199358 Z-1.000000
G03 X27.261676 Y7.202032 Z-1.000000 I-0.000000 J0.069897
G01 X27.264338 Y7.205558 Z-1.000000
G01 X27.264338 Y7.205578 Z-1.000000
G00 Z5.000000

(End cutting path id: path2)


(Start cutting path id: path2)
(Change tool to Default tool)

G00 Z5.000000
G00 X27.260538 Y7.249818

G01 Z-1.000000 F100.0(Penetrate)
G01 X27.251254 Y7.253889 Z-1.000000 F3500.000000
G01 X27.233728 Y7.250918 Z-1.000000
G01 X27.232839 Y7.246537 Z-1.000000
G01 X27.242228 Y7.242418 Z-1.000000
G01 X27.259711 Y7.245402 Z-1.000000
G01 X27.260588 Y7.249718 Z-1.000000
G01 X27.260538 Y7.249818 Z-1.000000
G00 Z5.000000

(End cutting path id: path2)


(Start cutting path id: path2)
(Change tool to Default tool)

G00 Z5.000000
G00 X27.180398 Y7.276338

G01 Z-1.000000 F100.0(Penetrate)
G01 X27.174168 Y7.291099 Z-1.000000 F3500.000000
G01 X27.158868 Y7.297318 Z-1.000000
G01 X27.151351 Y7.290977 Z-1.000000
G01 X27.155368 Y7.276868 Z-1.000000
G01 X27.172716 Y7.268815 Z-1.000000
G01 X27.180398 Y7.276336 Z-1.000000
G01 X27.180398 Y7.276338 Z-1.000000
G00 Z5.000000

(End cutting path id: path2)


(Start cutting path id: path2)
(Change tool to Default tool)

G00 Z5.000000
G00 X27.161972 Y7.355898

G01 Z-1.000000 F100.0(Penetrate)
G01 X27.157591 Y7.356787 Z-1.000000 F3500.000000
G01 X27.153472 Y7.347398 Z-1.000000
G01 X27.156456 Y7.329914 Z-1.000000
G01 X27.160772 Y7.329038 Z-1.000000
G01 X27.164843 Y7.338322 Z-1.000000
G01 X27.161872 Y7.355848 Z-1.000000
G01 X27.161972 Y7.355898 Z-1.000000
G00 Z5.000000

(End cutting path id: path2)


(Start cutting path id: path2)
(Change tool to Default tool)

G00 Z5.000000
G00 X27.117452 Y7.339288

G01 Z-1.000000 F100.0(Penetrate)
G01 X27.118118 Y7.348814 Z-1.000000 F3500.000000
G01 X27.111252 Y7.353278 Z-1.000000
G01 X27.100674 Y7.349082 Z-1.000000
G01 X27.096442 Y7.339288 Z-1.000000
G01 X27.098894 Y7.327734 Z-1.000000
G01 X27.102642 Y7.325298 Z-1.000000
G01 X27.107700 Y7.327311 Z-1.000000
G03 X27.117452 Y7.339288 Z-1.000000 I-0.040925 J0.043279
G01 X27.117452 Y7.339288 Z-1.000000
G00 Z5.000000

(End cutting path id: path2)


(Start cutting path id: path2)
(Change tool to Default tool)

G00 Z5.000000
G00 X27.026132 Y7.353818

G01 Z-1.000000 F100.0(Penetrate)
G01 X27.007752 Y7.356136 Z-1.000000 F3500.000000
G01 X27.006352 Y7.347418 Z-1.000000
G03 X27.033082 Y7.332729 Z-1.000000 I0.070032 J0.095772
G01 X27.040092 Y7.334188 Z-1.000000
G01 X27.040599 Y7.340071 Z-1.000000
G03 X27.026132 Y7.353808 Z-1.000000 I-0.041511 J-0.029231
G01 X27.026132 Y7.353818 Z-1.000000
G00 Z5.000000

(End cutting path id: path2)


(Start cutting path id: path2)
(Change tool to Default tool)

G00 Z5.000000
G00 X26.952857 Y7.438924

G01 Z-1.000000 F100.0(Penetrate)
G01 X26.970144 Y7.450171 Z-1.000000 F3500.000000
G01 X26.977937 Y7.448524 Z-1.000000
G01 X26.977946 Y7.442364 Z-1.000000
G01 X26.960687 Y7.431144 Z-1.000000
G01 X26.952894 Y7.432810 Z-1.000000
G01 X26.952887 Y7.438944 Z-1.000000
G01 X26.952857 Y7.438924 Z-1.000000
G00 Z5.000000

(End cutting path id: path2)


(Start cutting path id: path2)
(Change tool to Default tool)

G00 Z5.000000
G00 X26.727281 Y7.415004

G01 Z-1.000000 F100.0(Penetrate)
G02 X26.738820 Y7.432751 Z-1.000000 I0.047761 J-0.018430 F3500.000000
G01 X26.749441 Y7.437154 Z-1.000000
G01 X26.759890 Y7.422269 Z-1.000000
G01 X26.735401 Y7.398394 Z-1.000000
G01 X26.727879 Y7.401555 Z-1.000000
G01 X26.727301 Y7.415004 Z-1.000000
G01 X26.727281 Y7.415004 Z-1.000000
G00 Z5.000000

(End cutting path id: path2)


(Start cutting path id: path2)
(Change tool to Default tool)

G00 Z5.000000
G00 X27.194373 Y7.395214

G01 Z-1.000000 F100.0(Penetrate)
G01 X27.199315 Y7.404258 Z-1.000000 F3500.000000
G01 X27.216183 Y7.409204 Z-1.000000
G01 X27.228469 Y7.403895 Z-1.000000
G01 X27.229343 Y7.395214 Z-1.000000
G01 X27.218818 Y7.384540 Z-1.000000
G01 X27.207533 Y7.381224 Z-1.000000
G01 X27.198360 Y7.385180 Z-1.000000
G01 X27.194373 Y7.395214 Z-1.000000
G01 X27.194373 Y7.395214 Z-1.000000
G00 Z5.000000

(End cutting path id: path2)


(Start cutting path id: path2)
(Change tool to Default tool)

G00 Z5.000000
G00 X27.376209 Y7.319074

G01 Z-1.000000 F100.0(Penetrate)
G01 X27.381573 Y7.331259 Z-1.000000 F3500.000000
G01 X27.390429 Y7.332094 Z-1.000000
G01 X27.398215 Y7.321805 Z-1.000000
G01 X27.396629 Y7.310284 Z-1.000000
G01 X27.384536 Y7.306479 Z-1.000000
G01 X27.376249 Y7.319084 Z-1.000000
G01 X27.376209 Y7.319074 Z-1.000000
G00 Z5.000000

(End cutting path id: path2)


(Start cutting path id: path2)
(Change tool to Default tool)

G00 Z5.000000
G00 X27.425165 Y7.283254

G01 Z-1.000000 F100.0(Penetrate)
G01 X27.424499 Y7.292780 Z-1.000000 F3500.000000
G01 X27.431365 Y7.297244 Z-1.000000
G01 X27.441943 Y7.293048 Z-1.000000
G01 X27.446175 Y7.283254 Z-1.000000
G01 X27.443723 Y7.271700 Z-1.000000
G01 X27.439975 Y7.269264 Z-1.000000
G01 X27.434917 Y7.271277 Z-1.000000
G02 X27.425165 Y7.283254 Z-1.000000 I0.040925 J0.043279
G01 X27.425165 Y7.283254 Z-1.000000
G00 Z5.000000

(End cutting path id: path2)


(Start cutting path id: path2)
(Change tool to Default tool)

G00 Z5.000000
G00 X27.371112 Y7.210254

G01 Z-1.000000 F100.0(Penetrate)
G01 X27.368721 Y7.221684 Z-1.000000 F3500.000000
G01 X27.375212 Y7.239634 Z-1.000000
G01 X27.385055 Y7.243961 Z-1.000000
G01 X27.394662 Y7.235934 Z-1.000000
G01 X27.389456 Y7.208545 Z-1.000000
G01 X27.371132 Y7.210274 Z-1.000000
G01 X27.371112 Y7.210254 Z-1.000000
G00 Z5.000000

(End cutting path id: path2)


(Start cutting path id: path2)
(Change tool to Default tool)

G00 Z5.000000
G00 X26.474777 Y8.750840

G01 Z-1.000000 F100.0(Penetrate)
G01 X26.471789 Y8.764087 Z-1.000000 F3500.000000
G02 X26.480477 Y8.799540 Z-1.000000 I0.147986 J-0.017472
G03 X26.482192 Y8.830962 Z-1.000000 I-0.048423 J0.018401
G01 X26.467437 Y8.849710 Z-1.000000
G03 X26.442786 Y8.856360 Z-1.000000 I-0.026748 J-0.050138
G01 X26.432737 Y8.851010 Z-1.000000
G01 X26.432985 Y8.841523 Z-1.000000
G01 X26.444907 Y8.833490 Z-1.000000
G01 X26.452731 Y8.823571 Z-1.000000
G02 X26.444494 Y8.793970 Z-1.000000 I-0.059528 J0.000617
G01 X26.435764 Y8.787189 Z-1.000000
G01 X26.432424 Y8.790470 Z-1.000000
G01 X26.431339 Y8.814567 Z-1.000000
G01 X26.420734 Y8.821940 Z-1.000000
G01 X26.383617 Y8.844447 Z-1.000000
G02 X26.382914 Y8.894480 Z-1.000000 I0.049319 J0.025715
G01 X26.378614 Y8.902080 Z-1.000000
G01 X26.362484 Y8.895432 Z-1.000000
G01 X26.351314 Y8.905080 Z-1.000000
G02 X26.351211 Y8.930558 Z-1.000000 I0.049429 J0.012940
G01 X26.362144 Y8.947880 Z-1.000000
G01 X26.373124 Y8.965236 Z-1.000000
G03 X26.373054 Y8.990360 Z-1.000000 I-0.048642 J0.012426
G01 X26.384107 Y9.007568 Z-1.000000
G01 X26.415194 Y8.997760 Z-1.000000
G01 X26.435275 Y8.987226 Z-1.000000
G01 X26.449134 Y8.991560 Z-1.000000
G01 X26.464778 Y8.998850 Z-1.000000
G02 X26.500364 Y8.996060 Z-1.000000 I0.009415 J-0.108243
G01 X26.522714 Y8.981773 Z-1.000000
G01 X26.522624 Y8.968480 Z-1.000000
G01 X26.520472 Y8.954456 Z-1.000000
G01 X26.532734 Y8.943740 Z-1.000000
G01 X26.515994 Y8.934640 Z-1.000000
G01 X26.502756 Y8.926430 Z-1.000000
G01 X26.505734 Y8.916790 Z-1.000000
G01 X26.526392 Y8.896652 Z-1.000000
G01 X26.528604 Y8.872280 Z-1.000000
G03 X26.520498 Y8.842874 Z-1.000000 I0.544238 J-0.165844
G03 X26.517884 Y8.829060 Z-1.000000 I0.123812 J-0.030584
G01 X26.513266 Y8.816703 Z-1.000000
G01 X26.502014 Y8.805010 Z-1.000000
G01 X26.496651 Y8.793255 Z-1.000000
G03 X26.505614 Y8.766550 Z-1.000000 I0.061664 J0.005841
G01 X26.510623 Y8.745162 Z-1.000000
G01 X26.502914 Y8.738150 Z-1.000000
G01 X26.484806 Y8.742086 Z-1.000000
G01 X26.474724 Y8.750960 Z-1.000000
G01 X26.474777 Y8.750840 Z-1.000000
G00 Z5.000000

(End cutting path id: path2)


(Start cutting path id: path2)
(Change tool to Default tool)

G00 Z5.000000
G00 X26.453067 Y8.891888

G01 Z-1.000000 F100.0(Penetrate)
G01 X26.450615 Y8.903442 Z-1.000000 F3500.000000
G01 X26.446867 Y8.905878 Z-1.000000
G01 X26.441809 Y8.903865 Z-1.000000
G03 X26.432057 Y8.891888 Z-1.000000 I0.040925 J-0.043279
G01 X26.431391 Y8.882362 Z-1.000000
G01 X26.438257 Y8.877898 Z-1.000000
G01 X26.448835 Y8.882094 Z-1.000000
G01 X26.453067 Y8.891888 Z-1.000000
G01 X26.453067 Y8.891888 Z-1.000000
G00 Z5.000000

(End cutting path id: path2)


(Start cutting path id: path2)
(Change tool to Default tool)

G00 Z5.000000
G00 X26.320187 Y8.975811

G01 Z-1.000000 F100.0(Penetrate)
G01 X26.319521 Y8.985337 Z-1.000000 F3500.000000
G01 X26.326387 Y8.989801 Z-1.000000
G01 X26.336965 Y8.985605 Z-1.000000
G01 X26.341197 Y8.975811 Z-1.000000
G01 X26.338745 Y8.964257 Z-1.000000
G01 X26.334997 Y8.961821 Z-1.000000
G01 X26.329939 Y8.963834 Z-1.000000
G02 X26.320187 Y8.975811 Z-1.000000 I0.040925 J0.043279
G01 X26.320187 Y8.975811 Z-1.000000
G00 Z5.000000

(End cutting path id: path2)


(Start cutting path id: path2)
(Change tool to Default tool)

G00 Z5.000000
G00 X26.348157 Y9.045751

G01 Z-1.000000 F100.0(Penetrate)
G02 X26.357940 Y9.057736 Z-1.000000 I0.051766 J-0.032269 F3500.000000
G01 X26.362967 Y9.059741 Z-1.000000
G01 X26.366718 Y9.057302 Z-1.000000
G01 X26.369167 Y9.045751 Z-1.000000
G01 X26.364935 Y9.035956 Z-1.000000
G01 X26.354357 Y9.031761 Z-1.000000
G01 X26.347526 Y9.036198 Z-1.000000
G01 X26.348157 Y9.045751 Z-1.000000
G01 X26.348157 Y9.045751 Z-1.000000
G00 Z5.000000

(End cutting path id: path2)


(Start cutting path id: path2)
(Change tool to Default tool)

G00 Z5.000000
G00 X26.299205 Y8.848691

G01 Z-1.000000 F100.0(Penetrate)
G01 X26.313466 Y8.862131 Z-1.000000 F3500.000000
G02 X26.350085 Y8.845691 Z-1.000000 I-0.003347 J-0.056460
G01 X26.349147 Y8.840356 Z-1.000000
G01 X26.329505 Y8.835991 Z-1.000000
G02 X26.304308 Y8.841056 Z-1.000000 I-0.000000 J0.065211
G01 X26.299195 Y8.848741 Z-1.000000
G01 X26.299205 Y8.848691 Z-1.000000
G00 Z5.000000

(End cutting path id: path2)


(Start cutting path id: path2)
(Change tool to Default tool)

G00 Z5.000000
G00 X26.168656 Y8.915201

G01 Z-1.000000 F100.0(Penetrate)
G01 X26.161892 Y8.925543 Z-1.000000 F3500.000000
G01 X26.159356 Y8.938981 Z-1.000000
G01 X26.163754 Y8.942844 Z-1.000000
G01 X26.175906 Y8.936881 Z-1.000000
G01 X26.186728 Y8.920344 Z-1.000000
G01 X26.185206 Y8.913101 Z-1.000000
G01 X26.177948 Y8.910637 Z-1.000000
G01 X26.168656 Y8.915201 Z-1.000000
G01 X26.168656 Y8.915201 Z-1.000000
G00 Z5.000000

(End cutting path id: path2)


(Start cutting path id: path2)
(Change tool to Default tool)

G00 Z5.000000
G00 X26.019457 Y8.766001

G01 Z-1.000000 F100.0(Penetrate)
G01 X26.023559 Y8.775898 Z-1.000000 F3500.000000
G01 X26.033447 Y8.779991 Z-1.000000
G01 X26.043344 Y8.775889 Z-1.000000
G01 X26.047437 Y8.766001 Z-1.000000
G01 X26.043335 Y8.756104 Z-1.000000
G01 X26.033447 Y8.752011 Z-1.000000
G01 X26.023550 Y8.756113 Z-1.000000
G01 X26.019457 Y8.766001 Z-1.000000
G01 X26.019457 Y8.766001 Z-1.000000
G00 Z5.000000

(End cutting path id: path2)


(Start cutting path id: path2)
(Change tool to Default tool)

G00 Z5.000000
G00 X26.027361 Y8.694600

G01 Z-1.000000 F100.0(Penetrate)
G01 X26.027330 Y8.704519 Z-1.000000 F3500.000000
G01 X26.039811 Y8.714870 Z-1.000000
G01 X26.050055 Y8.712675 Z-1.000000
G01 X26.052221 Y8.702350 Z-1.000000
G01 X26.039240 Y8.690192 Z-1.000000
G01 X26.027361 Y8.694650 Z-1.000000
G01 X26.027361 Y8.694600 Z-1.000000
G00 Z5.000000

(End cutting path id: path2)


(Start cutting path id: path2)
(Change tool to Default tool)

G00 Z5.000000
G00 X25.977473 Y8.668058

G01 Z-1.000000 F100.0(Penetrate)
G01 X25.981705 Y8.677853 Z-1.000000 F3500.000000
G01 X25.992283 Y8.682048 Z-1.000000
G01 X25.999114 Y8.677611 Z-1.000000
G01 X25.998483 Y8.668058 Z-1.000000
G02 X25.988700 Y8.656073 Z-1.000000 I-0.051766 J0.032269
G01 X25.983673 Y8.654068 Z-1.000000
G01 X25.979922 Y8.656507 Z-1.000000
G01 X25.977473 Y8.668058 Z-1.000000
G01 X25.977473 Y8.668058 Z-1.000000
G00 Z5.000000

(End cutting path id: path2)


(Start cutting path id: path2)
(Change tool to Default tool)

G00 Z5.000000
G00 X26.026433 Y8.626098

G01 Z-1.000000 F100.0(Penetrate)
G01 X26.025767 Y8.635624 Z-1.000000 F3500.000000
G01 X26.032633 Y8.640088 Z-1.000000
G01 X26.043211 Y8.635892 Z-1.000000
G01 X26.047443 Y8.626098 Z-1.000000
G01 X26.044991 Y8.614544 Z-1.000000
G01 X26.041243 Y8.612108 Z-1.000000
G01 X26.036185 Y8.614121 Z-1.000000
G02 X26.026433 Y8.626098 Z-1.000000 I0.040925 J0.043279
G01 X26.026433 Y8.626098 Z-1.000000
G00 Z5.000000

(End cutting path id: path2)


(Start cutting path id: path2)
(Change tool to Default tool)

G00 Z5.000000
G00 X25.424968 Y7.521114

G01 Z-1.000000 F100.0(Penetrate)
G02 X25.434751 Y7.533099 Z-1.000000 I0.051766 J-0.032269 F3500.000000
G01 X25.439778 Y7.535104 Z-1.000000
G01 X25.443529 Y7.532665 Z-1.000000
G01 X25.445978 Y7.521114 Z-1.000000
G01 X25.441746 Y7.511319 Z-1.000000
G01 X25.431168 Y7.507124 Z-1.000000
G01 X25.424337 Y7.511561 Z-1.000000
G01 X25.424968 Y7.521114 Z-1.000000
G01 X25.424968 Y7.521114 Z-1.000000
G00 Z5.000000

(End cutting path id: path2)


(Start cutting path id: path2)
(Change tool to Default tool)

G00 Z5.000000
G00 X25.463098 Y7.487244

G01 Z-1.000000 F100.0(Penetrate)
G02 X25.487311 Y7.506581 Z-1.000000 I0.084443 J-0.080909 F3500.000000
G01 X25.493928 Y7.505764 Z-1.000000
G01 X25.493987 Y7.499861 Z-1.000000
G02 X25.469788 Y7.480554 Z-1.000000 I-0.084869 J0.081551
G01 X25.463153 Y7.481369 Z-1.000000
G01 X25.463088 Y7.487254 Z-1.000000
G01 X25.463098 Y7.487244 Z-1.000000
G00 Z5.000000

(End cutting path id: path2)


(Start cutting path id: path2)
(Change tool to Default tool)

G00 Z5.000000
G00 X25.459934 Y7.409204

G01 Z-1.000000 F100.0(Penetrate)
G01 X25.464166 Y7.418999 Z-1.000000 F3500.000000
G01 X25.474744 Y7.423194 Z-1.000000
G01 X25.481575 Y7.418757 Z-1.000000
G01 X25.480944 Y7.409204 Z-1.000000
G02 X25.471161 Y7.397219 Z-1.000000 I-0.051766 J0.032269
G01 X25.466134 Y7.395214 Z-1.000000
G01 X25.462383 Y7.397653 Z-1.000000
G01 X25.459934 Y7.409204 Z-1.000000
G01 X25.459934 Y7.409204 Z-1.000000
G00 Z5.000000

(End cutting path id: path2)


(Start cutting path id: path2)
(Change tool to Default tool)

G00 Z5.000000
G00 X25.201210 Y10.682235

G01 Z-1.000000 F100.0(Penetrate)
G01 X25.211735 Y10.692909 Z-1.000000 F3500.000000
G01 X25.223020 Y10.696225 Z-1.000000
G01 X25.232193 Y10.692269 Z-1.000000
G01 X25.236180 Y10.682235 Z-1.000000
G01 X25.231238 Y10.673191 Z-1.000000
G01 X25.214370 Y10.668245 Z-1.000000
G01 X25.202084 Y10.673554 Z-1.000000
G01 X25.201210 Y10.682235 Z-1.000000
G01 X25.201210 Y10.682235 Z-1.000000
G00 Z5.000000

(End cutting path id: path2)


(Start cutting path id: path2)
(Change tool to Default tool)

G00 Z5.000000
G00 X25.258777 Y10.732075

G01 Z-1.000000 F100.0(Penetrate)
G02 X25.253715 Y10.755299 Z-1.000000 I0.073238 J0.028126 F3500.000000
G01 X25.256877 Y10.763555 Z-1.000000
G01 X25.260982 Y10.763054 Z-1.000000
G01 X25.264377 Y10.751065 Z-1.000000
G01 X25.268595 Y10.745292 Z-1.000000
G01 X25.274957 Y10.747565 Z-1.000000
G01 X25.287163 Y10.753197 Z-1.000000
G02 X25.313207 Y10.742165 Z-1.000000 I-0.007662 J-0.054345
G01 X25.318197 Y10.732933 Z-1.000000
G01 X25.314207 Y10.729845 Z-1.000000
G01 X25.289951 Y10.731842 Z-1.000000
G01 X25.277687 Y10.723545 Z-1.000000
G01 X25.269257 Y10.720949 Z-1.000000
G01 X25.258757 Y10.732045 Z-1.000000
G01 X25.258777 Y10.732075 Z-1.000000
G00 Z5.000000

(End cutting path id: path2)


(Start cutting path id: path2)
(Change tool to Default tool)

G00 Z5.000000
G00 X25.363483 Y10.701505

G01 Z-1.000000 F100.0(Penetrate)
G01 X25.361551 Y10.716264 Z-1.000000 F3500.000000
G01 X25.375773 Y10.728175 Z-1.000000
G01 X25.393067 Y10.727452 Z-1.000000
G01 X25.395253 Y10.721275 Z-1.000000
G01 X25.394148 Y10.708837 Z-1.000000
G01 X25.405723 Y10.694815 Z-1.000000
G01 X25.408603 Y10.687271 Z-1.000000
G01 X25.402223 Y10.682395 Z-1.000000
G01 X25.381711 Y10.687079 Z-1.000000
G02 X25.363463 Y10.701455 Z-1.000000 I0.024799 J0.050248
G01 X25.363483 Y10.701505 Z-1.000000
G00 Z5.000000

(End cutting path id: path2)


(Start cutting path id: path2)
(Change tool to Default tool)

G00 Z5.000000
G00 X25.369059 Y10.780225

G01 Z-1.000000 F100.0(Penetrate)
G02 X25.378842 Y10.792210 Z-1.000000 I0.051766 J-0.032269 F3500.000000
G01 X25.383869 Y10.794215 Z-1.000000
G01 X25.387620 Y10.791776 Z-1.000000
G01 X25.390069 Y10.780225 Z-1.000000
G01 X25.385837 Y10.770430 Z-1.000000
G01 X25.375259 Y10.766235 Z-1.000000
G01 X25.368428 Y10.770672 Z-1.000000
G01 X25.369059 Y10.780225 Z-1.000000
G01 X25.369059 Y10.780225 Z-1.000000
G00 Z5.000000

(End cutting path id: path2)


(Start cutting path id: path2)
(Change tool to Default tool)

G00 Z5.000000
G00 X25.429379 Y10.747825

G01 Z-1.000000 F100.0(Penetrate)
G01 X25.446858 Y10.750788 Z-1.000000 F3500.000000
G01 X25.456189 Y10.746725 Z-1.000000
G01 X25.455310 Y10.742400 Z-1.000000
G01 X25.437829 Y10.739425 Z-1.000000
G01 X25.428439 Y10.743544 Z-1.000000
G01 X25.429329 Y10.747925 Z-1.000000
G01 X25.429379 Y10.747825 Z-1.000000
G00 Z5.000000

(End cutting path id: path2)


(Start cutting path id: path2)
(Change tool to Default tool)

G00 Z5.000000
G00 X25.467020 Y12.178744

G01 Z-1.000000 F100.0(Penetrate)
G01 X25.466354 Y12.188270 Z-1.000000 F3500.000000
G01 X25.473220 Y12.192734 Z-1.000000
G01 X25.483798 Y12.188538 Z-1.000000
G01 X25.488030 Y12.178744 Z-1.000000
G01 X25.485578 Y12.167190 Z-1.000000
G01 X25.481830 Y12.164754 Z-1.000000
G01 X25.476772 Y12.166767 Z-1.000000
G02 X25.467020 Y12.178744 Z-1.000000 I0.040925 J0.043279
G01 X25.467020 Y12.178744 Z-1.000000
G00 Z5.000000

(End cutting path id: path2)


(Start cutting path id: path2)
(Change tool to Default tool)

G00 Z5.000000
G00 X27.306305 Y14.821597

G01 Z-1.000000 F100.0(Penetrate)
G01 X27.309607 Y14.832879 Z-1.000000 F3500.000000
G01 X27.320295 Y14.843407 Z-1.000000
G01 X27.328996 Y14.842533 Z-1.000000
G01 X27.334285 Y14.830247 Z-1.000000
G01 X27.329340 Y14.813381 Z-1.000000
G01 X27.320295 Y14.808437 Z-1.000000
G01 X27.310284 Y14.812401 Z-1.000000
G01 X27.306305 Y14.821597 Z-1.000000
G01 X27.306305 Y14.821597 Z-1.000000
G00 Z5.000000

(End cutting path id: path2)


(Start cutting path id: path2)
(Change tool to Default tool)

G00 Z5.000000
G00 X27.518218 Y14.713130

G01 Z-1.000000 F100.0(Penetrate)
G02 X27.493244 Y14.756293 Z-1.000000 I0.120791 J0.098697 F3500.000000
G02 X27.483938 Y14.803100 Z-1.000000 I0.133547 J0.050879
G03 X27.475525 Y14.830390 Z-1.000000 I-0.053510 J-0.001554
G01 X27.466308 Y14.830670 Z-1.000000
G01 X27.445661 Y14.825020 Z-1.000000
G01 X27.435678 Y14.843810 Z-1.000000
G01 X27.430342 Y14.865490 Z-1.000000
G01 X27.414578 Y14.870290 Z-1.000000
G01 X27.398469 Y14.870607 Z-1.000000
G01 X27.396298 Y14.876890 Z-1.000000
G01 X27.408693 Y14.887341 Z-1.000000
G02 X27.434358 Y14.892380 Z-1.000000 I0.025665 J-0.062837
G03 X27.527770 Y14.921668 Z-1.000000 I0.000000 J0.163611
G01 X27.536439 Y14.963390 Z-1.000000
G01 X27.536030 Y14.972089 Z-1.000000
G01 X27.542839 Y14.976310 Z-1.000000
G01 X27.549730 Y14.981449 Z-1.000000
G01 X27.549139 Y14.997450 Z-1.000000
G01 X27.551788 Y15.007832 Z-1.000000
G01 X27.563729 Y15.009880 Z-1.000000
G01 X27.574598 Y15.013038 Z-1.000000
G01 X27.576559 Y15.027210 Z-1.000000
G01 X27.579833 Y15.033035 Z-1.000000
G01 X27.590389 Y15.029810 Z-1.000000
G01 X27.599624 Y15.002883 Z-1.000000
G01 X27.584689 Y14.985930 Z-1.000000
G01 X27.565001 Y14.974374 Z-1.000000
G01 X27.563939 Y14.964280 Z-1.000000
G01 X27.565813 Y14.951886 Z-1.000000
G01 X27.558139 Y14.941390 Z-1.000000
G01 X27.550191 Y14.930949 Z-1.000000
G01 X27.551739 Y14.919440 Z-1.000000
G01 X27.551825 Y14.910833 Z-1.000000
G01 X27.544139 Y14.906420 Z-1.000000
G01 X27.536684 Y14.901869 Z-1.000000
G01 X27.537039 Y14.892590 Z-1.000000
G01 X27.547590 Y14.887956 Z-1.000000
G03 X27.579459 Y14.900990 Z-1.000000 I-0.017202 J0.087537
G02 X27.612069 Y14.910960 Z-1.000000 I0.033418 J-0.050989
G01 X27.634789 Y14.901727 Z-1.000000
G01 X27.646218 Y14.881432 Z-1.000000
G01 X27.642189 Y14.871557 Z-1.000000
G01 X27.633086 Y14.860010 Z-1.000000
G03 X27.628099 Y14.828707 Z-1.000000 I0.095742 J-0.031303
G02 X27.622478 Y14.800181 Z-1.000000 I-0.075195 J0.000000
G01 X27.614109 Y14.794567 Z-1.000000
G01 X27.606170 Y14.788507 Z-1.000000
G03 X27.600119 Y14.743437 Z-1.000000 I0.164825 J-0.045070
G01 X27.600119 Y14.692307 Z-1.000000
G01 X27.565169 Y14.732947 Z-1.000000
G03 X27.536792 Y14.755829 Z-1.000000 I-0.076417 J-0.065729
G01 X27.530199 Y14.751907 Z-1.000000
G03 X27.534206 Y14.731889 Z-1.000000 I0.051791 J-0.000043
G03 X27.545739 Y14.714667 Z-1.000000 I0.049561 J0.020718
G01 X27.556352 Y14.698027 Z-1.000000
G01 X27.556229 Y14.686047 Z-1.000000
G01 X27.549394 Y14.684011 Z-1.000000
G02 X27.518289 Y14.713197 Z-1.000000 I0.093818 J0.131155
G01 X27.518218 Y14.713130 Z-1.000000
G00 Z5.000000

(End cutting path id: path2)


(Start cutting path id: path2)
(Change tool to Default tool)

G00 Z5.000000
G00 X27.614028 Y14.687780

G01 Z-1.000000 F100.0(Penetrate)
G01 X27.629205 Y14.720565 Z-1.000000 F3500.000000
G01 X27.651588 Y14.719650 Z-1.000000
G01 X27.652865 Y14.711850 Z-1.000000
G02 X27.636668 Y14.689280 Z-1.000000 I-0.077273 J0.038359
G01 X27.620330 Y14.681872 Z-1.000000
G01 X27.614018 Y14.687780 Z-1.000000
G01 X27.614028 Y14.687780 Z-1.000000
G00 Z5.000000

(End cutting path id: path2)


(Start cutting path id: path2)
(Change tool to Default tool)

G00 Z5.000000
G00 X27.614028 Y14.752550

G01 Z-1.000000 F100.0(Penetrate)
G01 X27.618893 Y14.761651 Z-1.000000 F3500.000000
G01 X27.635008 Y14.766540 Z-1.000000
G01 X27.651114 Y14.761661 Z-1.000000
G01 X27.655988 Y14.752550 Z-1.000000
G01 X27.651123 Y14.743449 Z-1.000000
G01 X27.635008 Y14.738560 Z-1.000000
G01 X27.618902 Y14.743439 Z-1.000000
G01 X27.614028 Y14.752550 Z-1.000000
G01 X27.614028 Y14.752550 Z-1.000000
G00 Z5.000000

(End cutting path id: path2)


(Start cutting path id: path2)
(Change tool to Default tool)

G00 Z5.000000
G00 X27.642003 Y14.809287

G01 Z-1.000000 F100.0(Penetrate)
G01 X27.646440 Y14.816118 Z-1.000000 F3500.000000
G01 X27.655993 Y14.815487 Z-1.000000
G02 X27.667978 Y14.805704 Z-1.000000 I-0.032269 J-0.051766
G01 X27.669983 Y14.800677 Z-1.000000
G01 X27.667544 Y14.796926 Z-1.000000
G01 X27.655993 Y14.794477 Z-1.000000
G01 X27.646198 Y14.798709 Z-1.000000
G01 X27.642003 Y14.809287 Z-1.000000
G01 X27.642003 Y14.809287 Z-1.000000
G00 Z5.000000

(End cutting path id: path2)


(Start cutting path id: path2)
(Change tool to Default tool)

G00 Z5.000000
G00 X27.634418 Y14.921285

G01 Z-1.000000 F100.0(Penetrate)
G01 X27.623023 Y14.929840 Z-1.000000 F3500.000000
G01 X27.606548 Y14.929085 Z-1.000000
G01 X27.590222 Y14.942221 Z-1.000000
G02 X27.616248 Y14.993015 Z-1.000000 I0.088917 J-0.013494
G01 X27.628813 Y14.993234 Z-1.000000
G01 X27.635288 Y14.975645 Z-1.000000
G03 X27.638890 Y14.938908 Z-1.000000 I0.082704 J-0.010435
G01 X27.653528 Y14.920885 Z-1.000000
G01 X27.662812 Y14.910845 Z-1.000000
G01 X27.660328 Y14.906775 Z-1.000000
G01 X27.645816 Y14.910378 Z-1.000000
G01 X27.634438 Y14.921295 Z-1.000000
G01 X27.634418 Y14.921285 Z-1.000000
G00 Z5.000000

(End cutting path id: path2)


(Start cutting path id: path2)
(Change tool to Default tool)

G00 Z5.000000
G00 X27.977699 Y14.960598

G01 Z-1.000000 F100.0(Penetrate)
G01 X27.995998 Y14.997403 Z-1.000000 F3500.000000
G01 X28.023779 Y14.995498 Z-1.000000
G01 X28.025582 Y14.986955 Z-1.000000
G02 X28.012999 Y14.967648 Z-1.000000 I-0.052018 J0.020148
G02 X27.986450 Y14.953463 Z-1.000000 I-0.036640 J0.036640
G01 X27.977699 Y14.960648 Z-1.000000
G01 X27.977699 Y14.960598 Z-1.000000
G00 Z5.000000

(End cutting path id: path2)


(Start cutting path id: path2)
(Change tool to Default tool)

G00 Z5.000000
G00 X28.167427 Y15.232223

G01 Z-1.000000 F100.0(Penetrate)
G01 X28.178660 Y15.249478 Z-1.000000 F3500.000000
G01 X28.184807 Y15.249473 Z-1.000000
G01 X28.186475 Y15.241672 Z-1.000000
G01 X28.175207 Y15.224393 Z-1.000000
G01 X28.169066 Y15.224404 Z-1.000000
G01 X28.167407 Y15.232193 Z-1.000000
G01 X28.167427 Y15.232223 Z-1.000000
G00 Z5.000000

(End cutting path id: path2)


(Start cutting path id: path2)
(Change tool to Default tool)

G00 Z5.000000
G00 X28.808951 Y14.289460

G01 Z-1.000000 F100.0(Penetrate)
G01 X28.815606 Y14.306159 Z-1.000000 F3500.000000
G01 X28.827291 Y14.308810 Z-1.000000
G01 X28.834734 Y14.298907 Z-1.000000
G01 X28.829591 Y14.282420 Z-1.000000
G01 X28.816614 Y14.278753 Z-1.000000
G01 X28.808971 Y14.289420 Z-1.000000
G01 X28.808951 Y14.289460 Z-1.000000
G00 Z5.000000

(End cutting path id: path2)


(Start cutting path id: path2)
(Change tool to Default tool)

G00 Z5.000000
G00 X28.760994 Y14.235070

G01 Z-1.000000 F100.0(Penetrate)
G01 X28.765226 Y14.244865 Z-1.000000 F3500.000000
G01 X28.775804 Y14.249060 Z-1.000000
G01 X28.782635 Y14.244623 Z-1.000000
G01 X28.782004 Y14.235070 Z-1.000000
G02 X28.772221 Y14.223085 Z-1.000000 I-0.051766 J0.032269
G01 X28.767194 Y14.221080 Z-1.000000
G01 X28.763443 Y14.223519 Z-1.000000
G01 X28.760994 Y14.235070 Z-1.000000
G01 X28.760994 Y14.235070 Z-1.000000
G00 Z5.000000

(End cutting path id: path2)


(Start cutting path id: path2)
(Change tool to Default tool)

G00 Z5.000000
G00 X28.781975 Y14.137230

G01 Z-1.000000 F100.0(Penetrate)
G01 X28.782849 Y14.145931 Z-1.000000 F3500.000000
G01 X28.795135 Y14.151220 Z-1.000000
G01 X28.812001 Y14.146275 Z-1.000000
G01 X28.816945 Y14.137230 Z-1.000000
G01 X28.812981 Y14.127219 Z-1.000000
G01 X28.803785 Y14.123240 Z-1.000000
G01 X28.792503 Y14.126542 Z-1.000000
G01 X28.781975 Y14.137230 Z-1.000000
G01 X28.781975 Y14.137230 Z-1.000000
G00 Z5.000000

(End cutting path id: path2)


(Start cutting path id: path2)
(Change tool to Default tool)

G00 Z5.000000
G00 X28.732758 Y14.077736

G01 Z-1.000000 F100.0(Penetrate)
G01 X28.726524 Y14.095567 Z-1.000000 F3500.000000
G01 X28.718988 Y14.095216 Z-1.000000
G01 X28.709916 Y14.089754 Z-1.000000
G01 X28.705218 Y14.094016 Z-1.000000
G01 X28.701234 Y14.104650 Z-1.000000
G01 X28.696018 Y14.104846 Z-1.000000
G01 X28.693624 Y14.095606 Z-1.000000
G03 X28.704718 Y14.074536 Z-1.000000 I0.055887 J0.015972
G01 X28.708161 Y14.059910 Z-1.000000
G01 X28.699718 Y14.053216 Z-1.000000
G01 X28.684916 Y14.061111 Z-1.000000
G01 X28.677028 Y14.087036 Z-1.000000
G03 X28.675533 Y14.120674 Z-1.000000 I-0.379153 J0.000000
G03 X28.672328 Y14.139486 Z-1.000000 I-0.119063 J-0.010605
G01 X28.673528 Y14.147586 Z-1.000000
G01 X28.700916 Y14.135734 Z-1.000000
G01 X28.719028 Y14.158906 Z-1.000000
G01 X28.724392 Y14.171091 Z-1.000000
G01 X28.733248 Y14.171926 Z-1.000000
G01 X28.741455 Y14.161758 Z-1.000000
G01 X28.740348 Y14.151706 Z-1.000000
G01 X28.743322 Y14.133005 Z-1.000000
G03 X28.797078 Y14.103646 Z-1.000000 I0.098055 J0.115647
G01 X28.820825 Y14.106700 Z-1.000000
G03 X28.843248 Y14.132136 Z-1.000000 I-0.030637 J0.049608
G03 X28.850283 Y14.166550 Z-1.000000 I-0.071325 J0.032507
G01 X28.842048 Y14.181076 Z-1.000000
G01 X28.836276 Y14.189117 Z-1.000000
G01 X28.839148 Y14.192836 Z-1.000000
G01 X28.852917 Y14.188949 Z-1.000000
G02 X28.895098 Y14.157386 Z-1.000000 I-0.180698 J-0.285454
G01 X28.935738 Y14.121726 Z-1.000000
G01 X28.897278 Y14.130926 Z-1.000000
G03 X28.865150 Y14.132078 Z-1.000000 I-0.018935 J-0.079527
G01 X28.858818 Y14.124626 Z-1.000000
G01 X28.864551 Y14.114886 Z-1.000000
G01 X28.886788 Y14.109126 Z-1.000000
G01 X28.909263 Y14.082497 Z-1.000000
G01 X28.876568 Y14.049136 Z-1.000000
G01 X28.862858 Y14.052476 Z-1.000000
G01 X28.862988 Y14.059836 Z-1.000000
G01 X28.871342 Y14.075675 Z-1.000000
G01 X28.863840 Y14.086966 Z-1.000000
G01 X28.842649 Y14.088417 Z-1.000000
G01 X28.829460 Y14.078966 Z-1.000000
G01 X28.815896 Y14.071474 Z-1.000000
G02 X28.780530 Y14.079265 Z-1.000000 I0.000542 J0.086627
G01 X28.760675 Y14.082600 Z-1.000000
G01 X28.758430 Y14.077165 Z-1.000000
G01 X28.768100 Y14.057931 Z-1.000000
G01 X28.765430 Y14.048415 Z-1.000000
G01 X28.746131 Y14.047876 Z-1.000000
G01 X28.732700 Y14.077675 Z-1.000000
G01 X28.732758 Y14.077736 Z-1.000000
G00 Z5.000000

(End cutting path id: path2)


(Start cutting path id: path2)
(Change tool to Default tool)

G00 Z5.000000
G00 X28.551411 Y14.060586

G01 Z-1.000000 F100.0(Penetrate)
G01 X28.571679 Y14.073989 Z-1.000000 F3500.000000
G02 X28.598571 Y14.074686 Z-1.000000 I0.014731 J-0.049238
G01 X28.610581 Y14.075536 Z-1.000000
G01 X28.597036 Y14.086069 Z-1.000000
G01 X28.593101 Y14.097216 Z-1.000000
G01 X28.597521 Y14.102916 Z-1.000000
G01 X28.608651 Y14.101216 Z-1.000000
G01 X28.622409 Y14.099385 Z-1.000000
G01 X28.634881 Y14.108916 Z-1.000000
G01 X28.645556 Y14.115503 Z-1.000000
G01 X28.655121 Y14.110716 Z-1.000000
G01 X28.656378 Y14.099864 Z-1.000000
G01 X28.649921 Y14.095236 Z-1.000000
G01 X28.639453 Y14.090903 Z-1.000000
G01 X28.635111 Y14.080426 Z-1.000000
G01 X28.639548 Y14.073595 Z-1.000000
G01 X28.649101 Y14.074226 Z-1.000000
G01 X28.658821 Y14.075192 Z-1.000000
G01 X28.663091 Y14.069026 Z-1.000000
G01 X28.652783 Y14.054997 Z-1.000000
G02 X28.573971 Y14.041126 Z-1.000000 I-0.092758 J0.296204
G01 X28.552463 Y14.048581 Z-1.000000
G01 X28.551471 Y14.060596 Z-1.000000
G01 X28.551411 Y14.060586 Z-1.000000
G00 Z5.000000

(End cutting path id: path2)


(Start cutting path id: path2)
(Change tool to Default tool)

G00 Z5.000000
G00 X28.649096 Y13.829452

G01 Z-1.000000 F100.0(Penetrate)
G01 X28.643633 Y13.838524 Z-1.000000 F3500.000000
G01 X28.647896 Y13.843222 Z-1.000000
G01 X28.658760 Y13.847084 Z-1.000000
G01 X28.659056 Y13.852122 Z-1.000000
G01 X28.657339 Y13.860829 Z-1.000000
G02 X28.671376 Y13.881762 Z-1.000000 I0.060117 J-0.025140
G02 X28.692209 Y13.894695 Z-1.000000 I0.038053 J-0.038053
G01 X28.702186 Y13.892172 Z-1.000000
G01 X28.703866 Y13.883587 Z-1.000000
G01 X28.695986 Y13.875852 Z-1.000000
G01 X28.687194 Y13.866270 Z-1.000000
G01 X28.687086 Y13.842802 Z-1.000000
G01 X28.678151 Y13.826015 Z-1.000000
G01 X28.649006 Y13.829482 Z-1.000000
G01 X28.649096 Y13.829452 Z-1.000000
G00 Z5.000000

(End cutting path id: path2)


(Start cutting path id: path2)
(Change tool to Default tool)

G00 Z5.000000
G00 X28.459716 Y13.646708

G01 Z-1.000000 F100.0(Penetrate)
G01 X28.483512 Y13.670938 Z-1.000000 F3500.000000
G01 X28.521346 Y13.656778 Z-1.000000
G01 X28.520957 Y13.643324 Z-1.000000
G01 X28.497206 Y13.630868 Z-1.000000
G02 X28.466422 Y13.634810 Z-1.000000 I-0.008319 J0.057215
G01 X28.459706 Y13.646718 Z-1.000000
G01 X28.459716 Y13.646708 Z-1.000000
G00 Z5.000000

(End cutting path id: path2)


(Start cutting path id: path2)
(Change tool to Default tool)

G00 Z5.000000
G00 X28.921853 Y14.179180

G01 Z-1.000000 F100.0(Penetrate)
G02 X28.931636 Y14.191165 Z-1.000000 I0.051766 J-0.032269 F3500.000000
G01 X28.936663 Y14.193170 Z-1.000000
G01 X28.940414 Y14.190731 Z-1.000000
G01 X28.942863 Y14.179180 Z-1.000000
G01 X28.938631 Y14.169385 Z-1.000000
G01 X28.928053 Y14.165190 Z-1.000000
G01 X28.921222 Y14.169627 Z-1.000000
G01 X28.921853 Y14.179180 Z-1.000000
G01 X28.921853 Y14.179180 Z-1.000000
G00 Z5.000000

(End cutting path id: path2)


(Start cutting path id: path2)
(Change tool to Default tool)

G00 Z5.000000
G00 X29.195950 Y16.604234

G01 Z-1.000000 F100.0(Penetrate)
G02 X29.185306 Y16.624450 Z-1.000000 I0.042517 J0.035296 F3500.000000
G01 X29.185080 Y16.642544 Z-1.000000
G01 X29.184156 Y16.651344 Z-1.000000
G01 X29.166558 Y16.649401 Z-1.000000
G01 X29.159116 Y16.679324 Z-1.000000
G01 X29.157816 Y16.698814 Z-1.000000
G01 X29.150816 Y16.700304 Z-1.000000
G01 X29.128877 Y16.692981 Z-1.000000
G01 X29.124646 Y16.703804 Z-1.000000
G01 X29.128524 Y16.718424 Z-1.000000
G01 X29.120946 Y16.724784 Z-1.000000
G01 X29.105039 Y16.731460 Z-1.000000
G02 X29.092236 Y16.754044 Z-1.000000 I0.035981 J0.035318
G01 X29.097233 Y16.762447 Z-1.000000
G01 X29.111586 Y16.758844 Z-1.000000
G01 X29.131373 Y16.750669 Z-1.000000
G01 X29.138586 Y16.757544 Z-1.000000
G01 X29.143633 Y16.775650 Z-1.000000
G01 X29.152576 Y16.780694 Z-1.000000
G01 X29.161487 Y16.775611 Z-1.000000
G01 X29.166566 Y16.757044 Z-1.000000
G01 X29.173000 Y16.751552 Z-1.000000
G01 X29.188586 Y16.760544 Z-1.000000
G01 X29.202726 Y16.771794 Z-1.000000
G01 X29.202174 Y16.757487 Z-1.000000
G01 X29.216316 Y16.738084 Z-1.000000
G01 X29.230624 Y16.718403 Z-1.000000
G01 X29.230736 Y16.701914 Z-1.000000
G01 X29.232053 Y16.686104 Z-1.000000
G03 X29.254196 Y16.662194 Z-1.000000 I0.066534 J0.039409
G01 X29.284696 Y16.640834 Z-1.000000
G01 X29.254046 Y16.640834 Z-1.000000
G01 X29.234040 Y16.633501 Z-1.000000
G01 X29.230906 Y16.621264 Z-1.000000
G01 X29.221957 Y16.598608 Z-1.000000
G01 X29.195886 Y16.604244 Z-1.000000
G01 X29.195950 Y16.604234 Z-1.000000
G00 Z5.000000

(End cutting path id: path2)


(Start cutting path id: path2)
(Change tool to Default tool)

G00 Z5.000000
G00 X29.252447 Y16.940568

G01 Z-1.000000 F100.0(Penetrate)
G03 X29.300461 Y16.989836 Z-1.000000 I-0.476565 J0.512463 F3500.000000
G03 X29.310787 Y17.006628 Z-1.000000 I-0.043168 J0.038117
G01 X29.315292 Y17.007774 Z-1.000000
G01 X29.319387 Y16.999528 Z-1.000000
G02 X29.290678 Y16.923125 Z-1.000000 I-0.103959 J-0.004531
G02 X29.217603 Y16.892886 Z-1.000000 I-0.070761 J0.067584
G01 X29.214924 Y16.898322 Z-1.000000
G02 X29.252463 Y16.940576 Z-1.000000 I0.240601 J-0.175948
G01 X29.252447 Y16.940568 Z-1.000000
G00 Z5.000000

(End cutting path id: path2)


(Start cutting path id: path2)
(Change tool to Default tool)

G00 Z5.000000
G00 X29.495315 Y17.018262

G01 Z-1.000000 F100.0(Penetrate)
G02 X29.505098 Y17.030247 Z-1.000000 I0.051766 J-0.032269 F3500.000000
G01 X29.510125 Y17.032252 Z-1.000000
G01 X29.513876 Y17.029813 Z-1.000000
G01 X29.516325 Y17.018262 Z-1.000000
G01 X29.512093 Y17.008467 Z-1.000000
G01 X29.501515 Y17.004272 Z-1.000000
G01 X29.494684 Y17.008709 Z-1.000000
G01 X29.495315 Y17.018262 Z-1.000000
G01 X29.495315 Y17.018262 Z-1.000000
G00 Z5.000000

(End cutting path id: path2)


(Start cutting path id: path2)
(Change tool to Default tool)

G00 Z5.000000
G00 X29.521101 Y16.927958

G01 Z-1.000000 F100.0(Penetrate)
G01 X29.516767 Y16.948238 Z-1.000000 F3500.000000
G01 X29.503581 Y16.959338 Z-1.000000
G01 X29.494365 Y16.956058 Z-1.000000
G01 X29.493101 Y16.942188 Z-1.000000
G01 X29.492603 Y16.927550 Z-1.000000
G01 X29.484801 Y16.924248 Z-1.000000
G01 X29.473375 Y16.933947 Z-1.000000
G01 X29.470651 Y16.950048 Z-1.000000
G01 X29.465601 Y16.965295 Z-1.000000
G03 X29.428691 Y16.990388 Z-1.000000 I-0.091830 J-0.095384
G01 X29.410643 Y17.007187 Z-1.000000
G01 X29.414881 Y17.015688 Z-1.000000
G02 X29.444020 Y17.013286 Z-1.000000 I0.009469 J-0.063075
G02 X29.468331 Y16.998378 Z-1.000000 I-0.018763 J-0.057876
G03 X29.503082 Y16.980689 Z-1.000000 I0.044558 J0.044558
G01 X29.522881 Y16.989778 Z-1.000000
G01 X29.551345 Y16.996340 Z-1.000000
G01 X29.562461 Y16.964758 Z-1.000000
G01 X29.576891 Y16.969458 Z-1.000000
G01 X29.591683 Y16.975222 Z-1.000000
G01 X29.599751 Y16.965958 Z-1.000000
G01 X29.591888 Y16.942688 Z-1.000000
G01 X29.575021 Y16.934488 Z-1.000000
G03 X29.551616 Y16.930167 Z-1.000000 I0.000000 J-0.065552
G01 X29.534361 Y16.919008 Z-1.000000
G01 X29.525736 Y16.918184 Z-1.000000
G01 X29.521071 Y16.928008 Z-1.000000
G01 X29.521101 Y16.927958 Z-1.000000
G00 Z5.000000

(End cutting path id: path2)


(Start cutting path id: path2)
(Change tool to Default tool)

G00 Z5.000000
G00 X29.628627 Y16.913468

G01 Z-1.000000 F100.0(Penetrate)
G01 X29.631109 Y16.926731 Z-1.000000 F3500.000000
G02 X29.642187 Y16.948438 Z-1.000000 I0.111608 J-0.043280
G01 X29.655747 Y16.955438 Z-1.000000
G01 X29.653265 Y16.942175 Z-1.000000
G02 X29.642187 Y16.920468 Z-1.000000 I-0.111608 J0.043280
G01 X29.628627 Y16.913468 Z-1.000000
G01 X29.628627 Y16.913468 Z-1.000000
G00 Z5.000000

(End cutting path id: path2)


(Start cutting path id: path2)
(Change tool to Default tool)

G00 Z5.000000
G00 X29.977886 Y16.772428

G01 Z-1.000000 F100.0(Penetrate)
G01 X29.979522 Y16.776552 Z-1.000000 F3500.000000
G02 X29.998866 Y16.794688 Z-1.000000 I0.155648 J-0.146624
G01 X30.015086 Y16.801976 Z-1.000000
G01 X30.019846 Y16.797888 Z-1.000000
G01 X30.015436 Y16.786750 Z-1.000000
G01 X29.998866 Y16.775638 Z-1.000000
G01 X29.977886 Y16.772438 Z-1.000000
G01 X29.977886 Y16.772428 Z-1.000000
G00 Z5.000000

(End cutting path id: path2)


(Start cutting path id: path2)
(Change tool to Default tool)

G00 Z5.000000
G00 X29.969847 Y17.364742

G01 Z-1.000000 F100.0(Penetrate)
G01 X29.954502 Y17.416394 Z-1.000000 F3500.000000
G01 X29.914767 Y17.409722 Z-1.000000
G01 X29.903937 Y17.400247 Z-1.000000
G01 X29.884427 Y17.396022 Z-1.000000
