%
(Header)
(Generated by gcodetools from Inkscape.)
(Using default header. To add your own header create file "header" in the output dir.)
M3
(Header end.)
G21 (All units in mm)

(Start cutting path id: path180697)
(Change tool to Default tool)

G00 Z 5.0000
G00 X 17.0899 Y 15.0573

G01 Z -1.0000 F 100.0000(Penetrate)
G02 X 17.0836 Y 15.0899 Z -1.0000 I 0.0872 J 0.0337 F 3500.0000
G02 X 17.0875 Y 15.2636 Z -1.0000 I 2.5651 J 0.0296
G01 X 17.0926 Y 15.2759 Z -1.0000
G02 X 17.1242 Y 15.3046 Z -1.0000 I 0.1540 J -0.1379
G02 X 17.1628 Y 15.3247 Z -1.0000 I 0.0844 J -0.1148
G02 X 17.2454 Y 15.3458 Z -1.0000 I 0.1762 J -0.5181
G03 X 17.3306 Y 15.3611 Z -1.0000 I -1.1541 J 6.6837
G03 X 17.3638 Y 15.3677 Z -1.0000 I -0.2195 J 1.1809
G02 X 17.3940 Y 15.3683 Z -1.0000 I 0.0165 J -0.0767
G01 X 17.4055 Y 15.3603 Z -1.0000
G01 X 17.4142 Y 15.3542 Z -1.0000
G01 X 17.4217 Y 15.3574 Z -1.0000
G01 X 17.4315 Y 15.3656 Z -1.0000
G02 X 17.4593 Y 15.3733 Z -1.0000 I 0.0437 J -0.1042
G03 X 17.4891 Y 15.3782 Z -1.0000 I -0.0846 J 0.6069
G03 X 17.4989 Y 15.3807 Z -1.0000 I -0.0153 J 0.0805
G01 X 17.5082 Y 15.3813 Z -1.0000
G01 X 17.5196 Y 15.3770 Z -1.0000
G01 X 17.5309 Y 15.3746 Z -1.0000
G03 X 17.5542 Y 15.3818 Z -1.0000 I -0.0106 J 0.0753
G02 X 17.5787 Y 15.3892 Z -1.0000 I 0.0342 J -0.0683
G02 X 17.6779 Y 15.3976 Z -1.0000 I 0.1471 J -1.1540
G03 X 17.7754 Y 15.4064 Z -1.0000 I -0.0403 J 0.9893
G01 X 17.7849 Y 15.4126 Z -1.0000
G01 X 17.7942 Y 15.4191 Z -1.0000
G02 X 17.8477 Y 15.4252 Z -1.0000 I 0.0628 J -0.3140
G03 X 17.9028 Y 15.4302 Z -1.0000 I -0.0130 J 0.4462
G03 X 17.9212 Y 15.4365 Z -1.0000 I -0.0085 J 0.0549
G02 X 17.9394 Y 15.4441 Z -1.0000 I 0.0445 J -0.0806
G02 X 17.9713 Y 15.4514 Z -1.0000 I 0.0711 J -0.2383
G03 X 18.0056 Y 15.4735 Z -1.0000 I -0.0080 J 0.0502
G01 X 18.0068 Y 15.5050 Z -1.0000
G01 X 17.9960 Y 15.5160 Z -1.0000
G03 X 17.9492 Y 15.5393 Z -1.0000 I -0.1767 J -0.2960
G02 X 17.8653 Y 15.5909 Z -1.0000 I 0.1126 J 0.2770
G02 X 17.8205 Y 15.6514 Z -1.0000 I 0.1148 J 0.1317
G02 X 17.8066 Y 15.7094 Z -1.0000 I 0.1496 J 0.0668
G02 X 17.8148 Y 15.7575 Z -1.0000 I 0.1094 J 0.0059
G02 X 17.8578 Y 15.8188 Z -1.0000 I 0.1618 J -0.0676
G02 X 17.8989 Y 15.8349 Z -1.0000 I 0.0410 J -0.0446
G01 X 17.9083 Y 15.8366 Z -1.0000
G03 X 17.9353 Y 15.8486 Z -1.0000 I -0.0911 J 0.2410
G02 X 18.0616 Y 15.8768 Z -1.0000 I 0.1169 J -0.2259
G02 X 18.1482 Y 15.8406 Z -1.0000 I -0.0050 J -0.1334
G01 X 18.1604 Y 15.8336 Z -1.0000
G03 X 18.1935 Y 15.8274 Z -1.0000 I 0.0486 J 0.1671
G02 X 18.2263 Y 15.8206 Z -1.0000 I -0.0132 J -0.1472
G01 X 18.2404 Y 15.8119 Z -1.0000
G03 X 18.2539 Y 15.8023 Z -1.0000 I 0.0362 J 0.0362
G01 X 18.2654 Y 15.7996 Z -1.0000
G01 X 18.2741 Y 15.7958 Z -1.0000
G01 X 18.2779 Y 15.7864 Z -1.0000
G01 X 18.2815 Y 15.7765 Z -1.0000
G01 X 18.2890 Y 15.7729 Z -1.0000
G01 X 18.2915 Y 15.7697 Z -1.0000
G01 X 18.2868 Y 15.7619 Z -1.0000
G03 X 18.2527 Y 15.7133 Z -1.0000 I 0.0683 J -0.0841
G01 X 18.2614 Y 15.6888 Z -1.0000
G03 X 18.3093 Y 15.6796 Z -1.0000 I 0.0360 J 0.0582
G03 X 18.3445 Y 15.7035 Z -1.0000 I -0.0091 J 0.0512
G01 X 18.3511 Y 15.7076 Z -1.0000
G02 X 18.3710 Y 15.7061 Z -1.0000 I 0.0060 J -0.0564
G01 X 18.3887 Y 15.7056 Z -1.0000
G01 X 18.3925 Y 15.7102 Z -1.0000
G01 X 18.3964 Y 15.7166 Z -1.0000
G02 X 18.4300 Y 15.7292 Z -1.0000 I 0.0745 J -0.1465
G03 X 18.5699 Y 15.7731 Z -1.0000 I -0.3501 J 1.3620
G01 X 18.5776 Y 15.7841 Z -1.0000
G01 X 18.5738 Y 15.7883 Z -1.0000
G03 X 18.4762 Y 15.7946 Z -1.0000 I -0.1294 J -1.2348
G02 X 18.4417 Y 15.7979 Z -1.0000 I 0.0064 J 0.2509
G01 X 18.4306 Y 15.8021 Z -1.0000
G01 X 18.4212 Y 15.8041 Z -1.0000
G01 X 18.4146 Y 15.7997 Z -1.0000
G01 X 18.3954 Y 15.7907 Z -1.0000
G01 X 18.3837 Y 15.8040 Z -1.0000
G01 X 18.3811 Y 15.8141 Z -1.0000
G01 X 18.3771 Y 15.8158 Z -1.0000
G01 X 18.3707 Y 15.8160 Z -1.0000
G02 X 18.3466 Y 15.8243 Z -1.0000 I 0.0533 J 0.1937
G03 X 18.3223 Y 15.8333 Z -1.0000 I -0.1394 J -0.3398
G03 X 18.2717 Y 15.8490 Z -1.0000 I -0.4440 J -1.3442
G02 X 18.2213 Y 15.8654 Z -1.0000 I 0.2160 J 0.7477
G02 X 18.1766 Y 15.8836 Z -1.0000 I 0.2228 J 0.6116
G03 X 17.9985 Y 15.9522 Z -1.0000 I -0.7099 J -1.5763
G03 X 17.8355 Y 15.9939 Z -1.0000 I -0.4133 J -1.2783
G02 X 17.7920 Y 16.0068 Z -1.0000 I 0.0417 J 0.2209
G02 X 17.7475 Y 16.0299 Z -1.0000 I 0.1048 J 0.2558
G01 X 17.7047 Y 16.0574 Z -1.0000
G01 X 17.6488 Y 16.0299 Z -1.0000
G02 X 17.5926 Y 16.0034 Z -1.0000 I -0.7802 J 1.5841
G01 X 17.5876 Y 16.0023 Z -1.0000
G01 X 17.5825 Y 16.0014 Z -1.0000
G03 X 17.5358 Y 15.9816 Z -1.0000 I 0.4624 J -1.1583
G02 X 17.3705 Y 15.9184 Z -1.0000 I -0.6637 J 1.4882
G02 X 17.2293 Y 15.8831 Z -1.0000 I -0.3380 J 1.0520
G03 X 17.1989 Y 15.8759 Z -1.0000 I 0.0551 J -0.3015
G03 X 17.1197 Y 15.8512 Z -1.0000 I 0.5841 J -2.0098
G02 X 17.0404 Y 15.8277 Z -1.0000 I -0.3761 J 1.1250
G02 X 16.9983 Y 15.8198 Z -1.0000 I -0.0796 J 0.3081
G02 X 16.9581 Y 15.8223 Z -1.0000 I -0.0133 J 0.1118
G02 X 16.9332 Y 15.8358 Z -1.0000 I 0.0133 J 0.0542
G02 X 16.8743 Y 15.9113 Z -1.0000 I 0.2137 J 0.2275
G02 X 16.8359 Y 16.0103 Z -1.0000 I 0.3355 J 0.1871
G02 X 16.8160 Y 16.1699 Z -1.0000 I 0.7305 J 0.1720
G01 X 16.8328 Y 16.2006 Z -1.0000
G01 X 16.8343 Y 16.2069 Z -1.0000
G03 X 16.8110 Y 16.2374 Z -1.0000 I -0.1387 J -0.0816
G02 X 16.7833 Y 16.2706 Z -1.0000 I 0.2085 J 0.2024
G02 X 16.7750 Y 16.2876 Z -1.0000 I 0.0456 J 0.0327
G03 X 16.7516 Y 16.3496 Z -1.0000 I -0.4024 J -0.1165
G01 X 16.7434 Y 16.3548 Z -1.0000
G01 X 16.7203 Y 16.3723 Z -1.0000
G02 X 16.7264 Y 16.4154 Z -1.0000 I 0.0522 J 0.0146
G01 X 16.7849 Y 16.4357 Z -1.0000
G02 X 16.8240 Y 16.3799 Z -1.0000 I -0.0203 J -0.0558
G01 X 16.8284 Y 16.3680 Z -1.0000
G01 X 16.8380 Y 16.3636 Z -1.0000
G01 X 16.8510 Y 16.3608 Z -1.0000
G02 X 16.8724 Y 16.3476 Z -1.0000 I -0.0458 J -0.0986
G01 X 16.8823 Y 16.3322 Z -1.0000
G01 X 16.8783 Y 16.3225 Z -1.0000
G01 X 16.8718 Y 16.3121 Z -1.0000
G01 X 16.8758 Y 16.2989 Z -1.0000
G01 X 16.8885 Y 16.2892 Z -1.0000
G01 X 16.8962 Y 16.2897 Z -1.0000
G01 X 16.9041 Y 16.2900 Z -1.0000
G02 X 16.9222 Y 16.2762 Z -1.0000 I -0.0312 J -0.0598
G01 X 16.9488 Y 16.2657 Z -1.0000
G03 X 17.1325 Y 16.2909 Z -1.0000 I -0.0971 J 1.3919
G02 X 17.2429 Y 16.3121 Z -1.0000 I 0.9061 J -4.4090
G02 X 17.2801 Y 16.3174 Z -1.0000 I 0.0896 J -0.4990
G01 X 17.2990 Y 16.3302 Z -1.0000
G01 X 17.2933 Y 16.3427 Z -1.0000
G02 X 17.0899 Y 16.3971 Z -1.0000 I 1.0380 J 4.2891
G02 X 17.0512 Y 16.4137 Z -1.0000 I 0.0495 J 0.1689
G02 X 16.9841 Y 16.4745 Z -1.0000 I 0.1079 J 0.1864
G02 X 16.9651 Y 16.5337 Z -1.0000 I 0.0826 J 0.0592
G01 X 16.9693 Y 16.5504 Z -1.0000
G02 X 16.9879 Y 16.5759 Z -1.0000 I 0.1042 J -0.0565
G03 X 17.0062 Y 16.6024 Z -1.0000 I -0.0736 J 0.0705
G03 X 17.0261 Y 16.6557 Z -1.0000 I -0.2880 J 0.1380
G02 X 17.0424 Y 16.7113 Z -1.0000 I 1.5350 J -0.4192
G02 X 17.0487 Y 16.7282 Z -1.0000 I 0.1585 J -0.0496
G01 X 17.0496 Y 16.7426 Z -1.0000
G01 X 17.0413 Y 16.7528 Z -1.0000
G01 X 17.0299 Y 16.7629 Z -1.0000
G01 X 17.0267 Y 16.7726 Z -1.0000
G01 X 17.0238 Y 16.7832 Z -1.0000
G03 X 17.0003 Y 16.8175 Z -1.0000 I -0.2596 J -0.1533
G02 X 16.9816 Y 16.8507 Z -1.0000 I 0.0932 J 0.0741
G01 X 16.9837 Y 16.8627 Z -1.0000
G01 X 16.9880 Y 16.8747 Z -1.0000
G01 X 16.9838 Y 16.8865 Z -1.0000
G01 X 16.9781 Y 16.8982 Z -1.0000
G01 X 16.9798 Y 16.9041 Z -1.0000
G01 X 16.9731 Y 16.9102 Z -1.0000
G01 X 16.9760 Y 16.9194 Z -1.0000
G01 X 16.9878 Y 16.9305 Z -1.0000
G01 X 16.9914 Y 16.9424 Z -1.0000
G02 X 17.0032 Y 16.9869 Z -1.0000 I 0.0899 J -0.0000
G02 X 17.0394 Y 17.0265 Z -1.0000 I 0.1061 J -0.0605
G01 X 17.0494 Y 17.0309 Z -1.0000
G02 X 17.0712 Y 17.0331 Z -1.0000 I 0.0227 J -0.1112
G03 X 17.0925 Y 17.0362 Z -1.0000 I -0.0005 J 0.0790
G01 X 17.1024 Y 17.0420 Z -1.0000
G01 X 17.1123 Y 17.0462 Z -1.0000
G02 X 17.1399 Y 17.0425 Z -1.0000 I 0.0013 J -0.0951
G03 X 17.1686 Y 17.0371 Z -1.0000 I 0.0448 J 0.1576
G01 X 17.1801 Y 17.0386 Z -1.0000
G01 X 17.1918 Y 17.0398 Z -1.0000
G02 X 17.2876 Y 17.0211 Z -1.0000 I -0.2551 J -1.5618
G03 X 17.4910 Y 16.9844 Z -1.0000 I 0.5033 J 2.2070
G03 X 17.5397 Y 16.9874 Z -1.0000 I 0.0168 J 0.1256
G02 X 17.6611 Y 17.0018 Z -1.0000 I 0.1125 J -0.4284
G02 X 17.8852 Y 16.9809 Z -1.0000 I -0.0305 J -1.5365
G02 X 17.9903 Y 16.9412 Z -1.0000 I -0.0487 J -0.2884
G02 X 18.0454 Y 16.8818 Z -1.0000 I -0.0799 J -0.1292
G03 X 18.0801 Y 16.8395 Z -1.0000 I 0.1163 J 0.0601
G01 X 18.1054 Y 16.8341 Z -1.0000
G02 X 18.1260 Y 16.8357 Z -1.0000 I 0.0148 J -0.0583
G02 X 18.1543 Y 16.8295 Z -1.0000 I -0.0117 J -0.1218
G01 X 18.1747 Y 16.8155 Z -1.0000
G01 X 18.1779 Y 16.8017 Z -1.0000
G03 X 18.1823 Y 16.7650 Z -1.0000 I 0.0486 J -0.0127
G01 X 18.2052 Y 16.7514 Z -1.0000
G01 X 18.2107 Y 16.7552 Z -1.0000
G01 X 18.2093 Y 16.7619 Z -1.0000
G02 X 18.1887 Y 16.8107 Z -1.0000 I 0.0496 J 0.0496
G01 X 18.2085 Y 16.8307 Z -1.0000
G01 X 18.2134 Y 16.8273 Z -1.0000
G01 X 18.2135 Y 16.8182 Z -1.0000
G01 X 18.2138 Y 16.8080 Z -1.0000
G01 X 18.2214 Y 16.8008 Z -1.0000
G01 X 18.2294 Y 16.8027 Z -1.0000
G01 X 18.2340 Y 16.8143 Z -1.0000
G01 X 18.2392 Y 16.8248 Z -1.0000
G01 X 18.2494 Y 16.8261 Z -1.0000
G03 X 18.2651 Y 16.8206 Z -1.0000 I 0.0508 J 0.1199
G03 X 18.2781 Y 16.8181 Z -1.0000 I 0.0218 J 0.0779
G02 X 18.2909 Y 16.8150 Z -1.0000 I -0.0059 J -0.0522
G02 X 18.3213 Y 16.8016 Z -1.0000 I -0.1153 J -0.3033
G03 X 18.3517 Y 16.7886 Z -1.0000 I 0.1276 J 0.2567
G01 X 18.3631 Y 16.7866 Z -1.0000
G01 X 18.3710 Y 16.7827 Z -1.0000
G01 X 18.3750 Y 16.7709 Z -1.0000
G01 X 18.3812 Y 16.7621 Z -1.0000
G03 X 18.4103 Y 16.7586 Z -1.0000 I 0.0225 J 0.0646
G02 X 18.4396 Y 16.7555 Z -1.0000 I 0.0069 J -0.0728
G01 X 18.4455 Y 16.7473 Z -1.0000
G01 X 18.4410 Y 16.7379 Z -1.0000
G01 X 18.4301 Y 16.7350 Z -1.0000
G01 X 18.4155 Y 16.7338 Z -1.0000
G03 X 18.3917 Y 16.7222 Z -1.0000 I 0.0309 J -0.0933
G02 X 18.3681 Y 16.7116 Z -1.0000 I -0.0433 J 0.0652
G01 X 18.3542 Y 16.7124 Z -1.0000
G01 X 18.3448 Y 16.7106 Z -1.0000
G01 X 18.3398 Y 16.6994 Z -1.0000
G01 X 18.3309 Y 16.6874 Z -1.0000
G01 X 18.3193 Y 16.6931 Z -1.0000
G01 X 18.3016 Y 16.7073 Z -1.0000
G03 X 18.1657 Y 16.7163 Z -1.0000 I -0.1211 J -0.8006
G02 X 18.0983 Y 16.7204 Z -1.0000 I -0.0078 J 0.4312
G01 X 18.0928 Y 16.7266 Z -1.0000
G01 X 18.0836 Y 16.7227 Z -1.0000
G01 X 18.0724 Y 16.7110 Z -1.0000
G01 X 18.0596 Y 16.7071 Z -1.0000
G01 X 18.0341 Y 16.6965 Z -1.0000
G03 X 18.0172 Y 16.6649 Z -1.0000 I 0.0433 J -0.0436
G01 X 18.0224 Y 16.6456 Z -1.0000
G01 X 18.0420 Y 16.6367 Z -1.0000
G02 X 18.0715 Y 16.6344 Z -1.0000 I -0.0000 J -0.1876
G01 X 18.0784 Y 16.6309 Z -1.0000
G01 X 18.0853 Y 16.6277 Z -1.0000
G03 X 18.1671 Y 16.6229 Z -1.0000 I 0.1157 J 1.2837
G02 X 18.2490 Y 16.6171 Z -1.0000 I -0.0240 J -0.9124
G02 X 18.2679 Y 16.6112 Z -1.0000 I -0.0062 J -0.0526
G03 X 18.2867 Y 16.6049 Z -1.0000 I 0.0278 J 0.0519
G03 X 18.3299 Y 16.6016 Z -1.0000 I 0.0432 J 0.2796
G02 X 18.4957 Y 16.5823 Z -1.0000 I 0.0000 J -0.7231
G02 X 18.6241 Y 16.5322 Z -1.0000 I -0.1131 J -0.4800
G02 X 18.6851 Y 16.4913 Z -1.0000 I -0.2266 J -0.4035
G02 X 18.7005 Y 16.4716 Z -1.0000 I -0.0331 J -0.0417
G02 X 18.7118 Y 16.4210 Z -1.0000 I -0.1139 J -0.0519
G02 X 18.7017 Y 16.3510 Z -1.0000 I -0.2322 J -0.0023
G03 X 18.6938 Y 16.3239 Z -1.0000 I 1.2480 J -0.3774
G03 X 18.6843 Y 16.2886 Z -1.0000 I 1.7794 J -0.4963
G02 X 18.6700 Y 16.2563 Z -1.0000 I -0.1037 J 0.0267
G02 X 18.6349 Y 16.2137 Z -1.0000 I -0.2176 J 0.1438
G01 X 18.5945 Y 16.1742 Z -1.0000
G01 X 18.5222 Y 16.1742 Z -1.0000
G01 X 18.4500 Y 16.1742 Z -1.0000
G01 X 18.4524 Y 16.1301 Z -1.0000
G03 X 18.4791 Y 16.0101 Z -1.0000 I 0.3778 J 0.0210
G01 X 18.5026 Y 16.0052 Z -1.0000
G01 X 18.5181 Y 16.0146 Z -1.0000
G02 X 18.5667 Y 16.0249 Z -1.0000 I 0.0837 J -0.2726
G03 X 18.6462 Y 16.0467 Z -1.0000 I -0.0350 J 0.2838
G03 X 18.7483 Y 16.1043 Z -1.0000 I -0.2320 J 0.5311
G02 X 18.8201 Y 16.1264 Z -1.0000 I 0.0698 J -0.0989
G02 X 18.8749 Y 16.1023 Z -1.0000 I -0.0012 J -0.0770
G02 X 18.9028 Y 16.0684 Z -1.0000 I -0.2467 J -0.2326
G02 X 18.9131 Y 16.0494 Z -1.0000 I -0.0667 J -0.0483
G03 X 18.9236 Y 16.0327 Z -1.0000 I 0.0469 J 0.0178
G01 X 18.9326 Y 16.0288 Z -1.0000
G01 X 18.9767 Y 15.9851 Z -1.0000
G02 X 18.9338 Y 15.8684 Z -1.0000 I -0.1767 J -0.0013
G02 X 18.9169 Y 15.8490 Z -1.0000 I -3.9476 J 3.4215
G02 X 18.9009 Y 15.8309 Z -1.0000 I -1.7540 J 1.5355
G01 X 18.9006 Y 15.8134 Z -1.0000
G03 X 19.0029 Y 15.7094 Z -1.0000 I 0.7124 J 0.5981
G02 X 19.0411 Y 15.6714 Z -1.0000 I -0.2576 J -0.2964
G01 X 19.0448 Y 15.6615 Z -1.0000
G01 X 19.0531 Y 15.6550 Z -1.0000
G01 X 19.0647 Y 15.6666 Z -1.0000
G01 X 19.0737 Y 15.6782 Z -1.0000
G02 X 19.1047 Y 15.6893 Z -1.0000 I 0.0468 J -0.0824
G02 X 19.1579 Y 15.6795 Z -1.0000 I 0.0132 J -0.0783
G02 X 19.1945 Y 15.6368 Z -1.0000 I -0.0433 J -0.0741
G03 X 19.2087 Y 15.6087 Z -1.0000 I 0.1610 J 0.0634
G01 X 19.2138 Y 15.6058 Z -1.0000
G01 X 19.2178 Y 15.6027 Z -1.0000
G02 X 19.2210 Y 15.5750 Z -1.0000 I -0.1172 J -0.0277
G02 X 19.2176 Y 15.5475 Z -1.0000 I -0.1128 J -0.0000
G01 X 19.2133 Y 15.5442 Z -1.0000
G01 X 19.2083 Y 15.5410 Z -1.0000
G03 X 19.2005 Y 15.5187 Z -1.0000 I 0.0780 J -0.0395
G01 X 19.1786 Y 15.4894 Z -1.0000
G02 X 19.1144 Y 15.4737 Z -1.0000 I -0.0642 J 0.1226
G02 X 19.0556 Y 15.4844 Z -1.0000 I -0.0000 J 0.1657
G01 X 19.0448 Y 15.5001 Z -1.0000
G01 X 19.0425 Y 15.5046 Z -1.0000
G03 X 19.0230 Y 15.5160 Z -1.0000 I -0.0656 J -0.0898
G01 X 19.0025 Y 15.5165 Z -1.0000
G03 X 18.9612 Y 15.4914 Z -1.0000 I 0.0542 J -0.1356
G02 X 18.9191 Y 15.4615 Z -1.0000 I -0.1757 J 0.2030
G02 X 18.8927 Y 15.4521 Z -1.0000 I -0.0391 J 0.0682
G02 X 18.8004 Y 15.4416 Z -1.0000 I -0.1542 J 0.9403
G02 X 18.4505 Y 15.4234 Z -1.0000 I -0.8757 J 13.4611
G03 X 18.3549 Y 15.4164 Z -1.0000 I 0.0563 J -1.4221
G01 X 18.3387 Y 15.4114 Z -1.0000
G02 X 18.3228 Y 15.4057 Z -1.0000 I -0.0268 J 0.0500
G02 X 18.2967 Y 15.4032 Z -1.0000 I -0.0261 J 0.1338
G03 X 18.2706 Y 15.4000 Z -1.0000 I 0.0000 J -0.1092
G03 X 18.2253 Y 15.3856 Z -1.0000 I 0.0841 J -0.3420
G02 X 18.1800 Y 15.3708 Z -1.0000 I -0.1455 J 0.3689
G02 X 18.1579 Y 15.3680 Z -1.0000 I -0.0221 J 0.0846
G01 X 18.1425 Y 15.3630 Z -1.0000
G01 X 18.1402 Y 15.3552 Z -1.0000
G01 X 18.1390 Y 15.3485 Z -1.0000
G01 X 18.1332 Y 15.3470 Z -1.0000
G01 X 18.1227 Y 15.3475 Z -1.0000
G01 X 18.1154 Y 15.3420 Z -1.0000
G01 X 18.1085 Y 15.3366 Z -1.0000
G01 X 18.1009 Y 15.3377 Z -1.0000
G01 X 18.0932 Y 15.3373 Z -1.0000
G03 X 18.0597 Y 15.3066 Z -1.0000 I 0.1420 J -0.1885
G02 X 18.0239 Y 15.2742 Z -1.0000 I -0.1742 J 0.1566
G02 X 17.9697 Y 15.2407 Z -1.0000 I -0.2411 J 0.3291
G02 X 17.7977 Y 15.1548 Z -1.0000 I -3.3992 J 6.5925
G02 X 17.7054 Y 15.1129 Z -1.0000 I -0.8945 J 1.8510
G02 X 17.5128 Y 15.0536 Z -1.0000 I -0.3855 J 0.9097
G02 X 17.3043 Y 15.0331 Z -1.0000 I -0.2085 J 1.0470
G01 X 17.0995 Y 15.0331 Z -1.0000
G01 X 17.0899 Y 15.0573 Z -1.0000
G00 Z 5.0000

(End cutting path id: path180697)


(Start cutting path id: path180697)
(Change tool to Default tool)

G00 Z 5.0000
G00 X 17.1909 Y 15.4736

G01 Z -1.0000 F 100.0000(Penetrate)
G02 X 17.1420 Y 15.4989 Z -1.0000 I 0.0467 J 0.1504 F 3500.0000
G01 X 17.1323 Y 15.5184 Z -1.0000
G02 X 17.1943 Y 15.5863 Z -1.0000 I 0.0683 J 0.0000
G02 X 17.3007 Y 15.5340 Z -1.0000 I 0.0105 J -0.1131
G01 X 17.3071 Y 15.5035 Z -1.0000
G01 X 17.2930 Y 15.4835 Z -1.0000
G02 X 17.2427 Y 15.4683 Z -1.0000 I -0.0633 J 0.1181
G02 X 17.1909 Y 15.4736 Z -1.0000 I -0.0127 J 0.1308
G01 X 17.1909 Y 15.4736 Z -1.0000
G00 Z 5.0000

(End cutting path id: path180697)


(Start cutting path id: path180697)
(Change tool to Default tool)

G00 Z 5.0000
G00 X 16.5596 Y 15.8480

G01 Z -1.0000 F 100.0000(Penetrate)
G02 X 16.4875 Y 15.8757 Z -1.0000 I 0.0916 J 0.3451 F 3500.0000
G02 X 16.4505 Y 15.9043 Z -1.0000 I 0.0601 J 0.1165
G01 X 16.4311 Y 15.9152 Z -1.0000
G03 X 16.3833 Y 15.9172 Z -1.0000 I -0.0309 J -0.1598
G02 X 16.3126 Y 15.9193 Z -1.0000 I -0.0275 J 0.2638
G02 X 16.1895 Y 15.9491 Z -1.0000 I 0.1393 J 0.8457
G03 X 16.1409 Y 15.9643 Z -1.0000 I -0.8417 J -2.6092
G03 X 16.1013 Y 15.9758 Z -1.0000 I -0.5404 J -1.7883
G02 X 16.0582 Y 15.9889 Z -1.0000 I 0.2431 J 0.8740
G02 X 15.9780 Y 16.0168 Z -1.0000 I 1.0195 J 3.0661
G03 X 15.9199 Y 16.0330 Z -1.0000 I -0.1372 J -0.3791
G03 X 15.8741 Y 16.0376 Z -1.0000 I -0.0459 J -0.2295
G02 X 15.8283 Y 16.0411 Z -1.0000 I 0.0002 J 0.2972
G02 X 15.7992 Y 16.0494 Z -1.0000 I 0.0194 J 0.1239
G03 X 15.7708 Y 16.0581 Z -1.0000 I -0.0595 J -0.1427
G01 X 15.7599 Y 16.0575 Z -1.0000
G01 X 15.7520 Y 16.0582 Z -1.0000
G01 X 15.7488 Y 16.0633 Z -1.0000
G01 X 15.7406 Y 16.0676 Z -1.0000
G03 X 15.7053 Y 16.0326 Z -1.0000 I 0.0862 J -0.1223
G02 X 15.6740 Y 15.9953 Z -1.0000 I -0.2628 J 0.1887
G02 X 15.6575 Y 15.9837 Z -1.0000 I -0.0395 J 0.0386
G03 X 15.6389 Y 15.9746 Z -1.0000 I 0.2449 J -0.5290
G03 X 15.6128 Y 15.9610 Z -1.0000 I 0.4920 J -0.9707
G02 X 15.5480 Y 15.9413 Z -1.0000 I -0.0803 J 0.1481
G02 X 15.3155 Y 15.9335 Z -1.0000 I -0.1831 J 1.9811
G02 X 15.1925 Y 15.9606 Z -1.0000 I 0.0082 J 0.3294
G02 X 15.1250 Y 16.0162 Z -1.0000 I 0.0632 J 0.1456
G02 X 15.1044 Y 16.0622 Z -1.0000 I 0.1148 J 0.0791
G02 X 15.0981 Y 16.1265 Z -1.0000 I 0.2212 J 0.0539
G02 X 15.1085 Y 16.1911 Z -1.0000 I 0.2874 J -0.0131
G02 X 15.1298 Y 16.2395 Z -1.0000 I 0.1805 J -0.0506
G03 X 15.1575 Y 16.2858 Z -1.0000 I -1.3734 J 0.8536
G01 X 15.1584 Y 16.2892 Z -1.0000
G01 X 15.1569 Y 16.2918 Z -1.0000
G03 X 15.1034 Y 16.3201 Z -1.0000 I -0.5665 J -1.0094
G02 X 14.9687 Y 16.4124 Z -1.0000 I 0.2562 J 0.5180
G02 X 14.9514 Y 16.4596 Z -1.0000 I 0.0371 J 0.0404
G02 X 14.9754 Y 16.5283 Z -1.0000 I 0.1727 J -0.0217
G02 X 15.0208 Y 16.5738 Z -1.0000 I 0.1156 J -0.0703
G02 X 15.0971 Y 16.5988 Z -1.0000 I 0.0924 J -0.1525
G02 X 15.1483 Y 16.5853 Z -1.0000 I 0.0070 J -0.0770
G03 X 15.1728 Y 16.5716 Z -1.0000 I 0.0824 J 0.1191
G03 X 15.2069 Y 16.5598 Z -1.0000 I 0.0926 J 0.2126
G02 X 15.3180 Y 16.5230 Z -1.0000 I -0.2269 J -0.8688
G01 X 15.3373 Y 16.5069 Z -1.0000
G01 X 15.3645 Y 16.4909 Z -1.0000
G01 X 15.3787 Y 16.5044 Z -1.0000
G01 X 15.3889 Y 16.5115 Z -1.0000
G02 X 15.4184 Y 16.4899 Z -1.0000 I -0.0224 J -0.0617
G03 X 15.4857 Y 16.4470 Z -1.0000 I 0.0936 J 0.0725
G03 X 15.8810 Y 16.3846 Z -1.0000 I 0.6609 J 2.9025
G02 X 15.9395 Y 16.3749 Z -1.0000 I -0.0346 J -0.3898
G02 X 16.2027 Y 16.3059 Z -1.0000 I -1.9822 J -8.0990
G03 X 16.3174 Y 16.2748 Z -1.0000 I 2.0117 J 7.1939
G03 X 16.3701 Y 16.2620 Z -1.0000 I 0.3945 J 1.5026
G02 X 16.6879 Y 16.1620 Z -1.0000 I -0.4426 J -1.9621
G02 X 16.7501 Y 16.1068 Z -1.0000 I -0.0474 J -0.1160
G02 X 16.7639 Y 16.0591 Z -1.0000 I -0.0974 J -0.0540
G01 X 16.7543 Y 16.0327 Z -1.0000
G01 X 16.7485 Y 16.0232 Z -1.0000
G03 X 16.7232 Y 15.9473 Z -1.0000 I 1.3180 J -0.4809
G02 X 16.6790 Y 15.8679 Z -1.0000 I -0.2039 J 0.0615
G02 X 16.6300 Y 15.8416 Z -1.0000 I -0.0598 J 0.0527
G02 X 16.5994 Y 15.8409 Z -1.0000 I -0.0184 J 0.1358
G02 X 16.5595 Y 15.8479 Z -1.0000 I 0.0213 J 0.2386
G01 X 16.5596 Y 15.8480 Z -1.0000
G00 Z 5.0000

(End cutting path id: path180697)


(Start cutting path id: path180697)
(Change tool to Default tool)

G00 Z 5.0000
G00 X 16.8900 Y 16.2403

G01 Z -1.0000 F 100.0000(Penetrate)
G01 X 16.8831 Y 16.2465 Z -1.0000 F 3500.0000
G01 X 16.8719 Y 16.2491 Z -1.0000
G01 X 16.8622 Y 16.2460 Z -1.0000
G01 X 16.8592 Y 16.2403 Z -1.0000
G01 X 16.8625 Y 16.2349 Z -1.0000
G01 X 16.8773 Y 16.2315 Z -1.0000
G01 X 16.8890 Y 16.2351 Z -1.0000
G01 X 16.8900 Y 16.2403 Z -1.0000
G01 X 16.8900 Y 16.2403 Z -1.0000
G00 Z 5.0000

(End cutting path id: path180697)


(Start cutting path id: path180697)
(Change tool to Default tool)

G00 Z 5.0000
G00 X 16.8539 Y 16.2967

G01 Z -1.0000 F 100.0000(Penetrate)
G01 X 16.8533 Y 16.3076 Z -1.0000 F 3500.0000
G01 X 16.8586 Y 16.3148 Z -1.0000
G01 X 16.8653 Y 16.3288 Z -1.0000
G01 X 16.8558 Y 16.3372 Z -1.0000
G01 X 16.8462 Y 16.3336 Z -1.0000
G01 X 16.8382 Y 16.3218 Z -1.0000
G02 X 16.8324 Y 16.3065 Z -1.0000 I -0.3508 J 0.1238
G02 X 16.8276 Y 16.2953 Z -1.0000 I -0.2472 J 0.0997
G01 X 16.8291 Y 16.2886 Z -1.0000
G01 X 16.8405 Y 16.2843 Z -1.0000
G01 X 16.8520 Y 16.2888 Z -1.0000
G01 X 16.8539 Y 16.2967 Z -1.0000
G01 X 16.8539 Y 16.2967 Z -1.0000
G00 Z 5.0000

(End cutting path id: path180697)


(Start cutting path id: path180697)
(Change tool to Default tool)

G00 Z 5.0000
G00 X 16.9341 Y 16.3196

G01 Z -1.0000 F 100.0000(Penetrate)
G01 X 16.9262 Y 16.3336 Z -1.0000 F 3500.0000
G01 X 16.9289 Y 16.3372 Z -1.0000
G02 X 16.9656 Y 16.3261 Z -1.0000 I 0.0000 J -0.0661
G01 X 16.9690 Y 16.3103 Z -1.0000
G01 X 16.9571 Y 16.3056 Z -1.0000
G01 X 16.9341 Y 16.3196 Z -1.0000
G01 X 16.9341 Y 16.3196 Z -1.0000
G00 Z 5.0000

(End cutting path id: path180697)


(Start cutting path id: path180697)
(Change tool to Default tool)

G00 Z 5.0000
G00 X 16.8944 Y 16.3774

G01 Z -1.0000 F 100.0000(Penetrate)
G01 X 16.8978 Y 16.3852 Z -1.0000 F 3500.0000
G01 X 16.9032 Y 16.3857 Z -1.0000
G01 X 16.9099 Y 16.3791 Z -1.0000
G01 X 16.9120 Y 16.3719 Z -1.0000
G01 X 16.9095 Y 16.3661 Z -1.0000
G01 X 16.9032 Y 16.3636 Z -1.0000
G01 X 16.8975 Y 16.3667 Z -1.0000
G01 X 16.8944 Y 16.3774 Z -1.0000
G01 X 16.8944 Y 16.3774 Z -1.0000
G00 Z 5.0000

(End cutting path id: path180697)


(Start cutting path id: path180697)
(Change tool to Default tool)

G00 Z 5.0000
G00 X 16.1404 Y 16.5030

G01 Z -1.0000 F 100.0000(Penetrate)
G02 X 16.0595 Y 16.5501 Z -1.0000 I 0.0708 J 0.2147 F 3500.0000
G02 X 15.9906 Y 16.6386 Z -1.0000 I 0.2181 J 0.2409
G02 X 15.9806 Y 16.6630 Z -1.0000 I 0.1139 J 0.0609
G02 X 15.9780 Y 16.6813 Z -1.0000 I 0.0620 J 0.0182
G02 X 15.9899 Y 16.7216 Z -1.0000 I 0.0739 J -0.0000
G02 X 16.0349 Y 16.7687 Z -1.0000 I 0.1488 J -0.0968
G03 X 16.0523 Y 16.7824 Z -1.0000 I -0.1525 J 0.2126
G03 X 16.0884 Y 16.8144 Z -1.0000 I -0.8628 J 1.0105
G02 X 16.1259 Y 16.8434 Z -1.0000 I 0.1899 J -0.2067
G02 X 16.1484 Y 16.8531 Z -1.0000 I 0.0408 J -0.0631
G02 X 16.3335 Y 16.8485 Z -1.0000 I 0.0841 J -0.3352
G02 X 16.4162 Y 16.7713 Z -1.0000 I -0.0377 J -0.1233
G01 X 16.4225 Y 16.7631 Z -1.0000
G01 X 16.4313 Y 16.7602 Z -1.0000
G01 X 16.4390 Y 16.7559 Z -1.0000
G02 X 16.4528 Y 16.7247 Z -1.0000 I -0.1155 J -0.0699
G03 X 16.4661 Y 16.6960 Z -1.0000 I 0.1095 J 0.0331
G01 X 16.4722 Y 16.6946 Z -1.0000
G01 X 16.4767 Y 16.7016 Z -1.0000
G01 X 16.4754 Y 16.7175 Z -1.0000
G01 X 16.4774 Y 16.7331 Z -1.0000
G02 X 16.5092 Y 16.7718 Z -1.0000 I 0.1628 J -0.1013
G02 X 16.6012 Y 16.8376 Z -1.0000 I 0.2954 J -0.3159
G02 X 16.6785 Y 16.8621 Z -1.0000 I 0.1047 J -0.1964
G02 X 16.7195 Y 16.8597 Z -1.0000 I 0.0139 J -0.1129
G01 X 16.7402 Y 16.8469 Z -1.0000
G02 X 16.7797 Y 16.7544 Z -1.0000 I -0.1280 J -0.1093
G02 X 16.7547 Y 16.7037 Z -1.0000 I -0.0531 J -0.0054
G01 X 16.7495 Y 16.6965 Z -1.0000
G01 X 16.7501 Y 16.6857 Z -1.0000
G01 X 16.7432 Y 16.6674 Z -1.0000
G02 X 16.6911 Y 16.6544 Z -1.0000 I -0.0521 J 0.0983
G03 X 16.6649 Y 16.6499 Z -1.0000 I -0.0000 J -0.0772
G01 X 16.6485 Y 16.6390 Z -1.0000
G02 X 16.6337 Y 16.6240 Z -1.0000 I -0.2551 J 0.2371
G02 X 16.6108 Y 16.6029 Z -1.0000 I -0.6043 J 0.6340
G01 X 16.5875 Y 16.5823 Z -1.0000
G01 X 16.5467 Y 16.6062 Z -1.0000
G03 X 16.5064 Y 16.6259 Z -1.0000 I -0.1499 J -0.2557
G01 X 16.5004 Y 16.6247 Z -1.0000
G01 X 16.5002 Y 16.6213 Z -1.0000
G01 X 16.5046 Y 16.6192 Z -1.0000
G01 X 16.5221 Y 16.5985 Z -1.0000
G02 X 16.4936 Y 16.5521 Z -1.0000 I -0.0711 J 0.0117
G03 X 16.4827 Y 16.5411 Z -1.0000 I 0.0306 J -0.0414
G01 X 16.4803 Y 16.5337 Z -1.0000
G01 X 16.4633 Y 16.5068 Z -1.0000
G01 X 16.4279 Y 16.5087 Z -1.0000
G03 X 16.3794 Y 16.5232 Z -1.0000 I -0.0509 J -0.0820
G03 X 16.2512 Y 16.5134 Z -1.0000 I -0.0162 J -0.6344
G02 X 16.2027 Y 16.5047 Z -1.0000 I -6.6711 J 37.0526
G02 X 16.1807 Y 16.5008 Z -1.0000 I -0.8814 J 4.9327
G02 X 16.1588 Y 16.4996 Z -1.0000 I -0.0165 J 0.0953
G02 X 16.1404 Y 16.5030 Z -1.0000 I 0.0039 J 0.0714
G01 X 16.1404 Y 16.5030 Z -1.0000
G00 Z 5.0000

(End cutting path id: path180697)


(Start cutting path id: path180697)
(Change tool to Default tool)

G00 Z 5.0000
G00 X 15.6519 Y 16.9363

G01 Z -1.0000 F 100.0000(Penetrate)
G03 X 15.6122 Y 16.9426 Z -1.0000 I -1.4568 J -9.0777 F 3500.0000
G03 X 15.5153 Y 16.9576 Z -1.0000 I -7.7862 J -49.9116
G02 X 15.4186 Y 16.9735 Z -1.0000 I 0.7486 J 4.8669
G02 X 15.3347 Y 16.9891 Z -1.0000 I 0.6606 J 3.7906
G03 X 15.2507 Y 17.0041 Z -1.0000 I -0.4568 J -2.3109
G03 X 15.1981 Y 17.0110 Z -1.0000 I -0.1471 J -0.9174
G02 X 15.0485 Y 17.0408 Z -1.0000 I 0.0821 J 0.8019
G02 X 15.0111 Y 17.0671 Z -1.0000 I 0.0208 J 0.0693
G02 X 14.9939 Y 17.1181 Z -1.0000 I 0.0708 J 0.0523
G02 X 15.0091 Y 17.2006 Z -1.0000 I 0.2138 J 0.0032
G02 X 15.0404 Y 17.2690 Z -1.0000 I 0.7111 J -0.2837
G02 X 15.0561 Y 17.2914 Z -1.0000 I 0.0906 J -0.0469
G03 X 15.0738 Y 17.3128 Z -1.0000 I -0.1743 J 0.1614
G03 X 15.1046 Y 17.3579 Z -1.0000 I -0.7400 J 0.5397
G02 X 15.1518 Y 17.4090 Z -1.0000 I 0.1686 J -0.1082
G02 X 15.1874 Y 17.4211 Z -1.0000 I 0.0357 J -0.0467
G02 X 15.3263 Y 17.4042 Z -1.0000 I -0.0000 J -0.5788
G02 X 15.4008 Y 17.3684 Z -1.0000 I -0.0485 J -0.1964
G01 X 15.4103 Y 17.3633 Z -1.0000
G03 X 15.4360 Y 17.3569 Z -1.0000 I 0.0575 J 0.1763
G02 X 15.4623 Y 17.3514 Z -1.0000 I -0.0767 J -0.4289
G02 X 15.5286 Y 17.3344 Z -1.0000 I -0.6320 J -2.5993
G02 X 15.7962 Y 17.2347 Z -1.0000 I -0.4038 J -1.4932
G01 X 15.8165 Y 17.1956 Z -1.0000
G02 X 15.8083 Y 17.1642 Z -1.0000 I -0.1666 J 0.0271
G02 X 15.7830 Y 17.1049 Z -1.0000 I -0.6190 J 0.2289
G03 X 15.7584 Y 17.0454 Z -1.0000 I 0.4854 J -0.2356
G03 X 15.7476 Y 17.0025 Z -1.0000 I 0.2410 J -0.0832
G02 X 15.7223 Y 16.9388 Z -1.0000 I -0.1541 J 0.0244
G01 X 15.6972 Y 16.9288 Z -1.0000
G03 X 15.6916 Y 16.9298 Z -1.0000 I -0.0277 J -0.1326
G03 X 15.6519 Y 16.9363 Z -1.0000 I -1.5787 J -9.5841
G01 X 15.6519 Y 16.9363 Z -1.0000
G00 Z 5.0000

(End cutting path id: path180697)


(Start cutting path id: path180697)
(Change tool to Default tool)

G00 Z 5.0000
G00 X 15.2124 Y 17.4530

G01 Z -1.0000 F 100.0000(Penetrate)
G02 X 15.1791 Y 17.4965 Z -1.0000 I 0.0520 J 0.0743 F 3500.0000
G02 X 15.1542 Y 17.6142 Z -1.0000 I 0.4121 J 0.1490
G02 X 15.1545 Y 17.6814 Z -1.0000 I 0.4429 J 0.0317
G01 X 15.1604 Y 17.6911 Z -1.0000
G01 X 15.1725 Y 17.6952 Z -1.0000
G02 X 15.2642 Y 17.6999 Z -1.0000 I 0.1198 J -1.4301
G03 X 15.4087 Y 17.7099 Z -1.0000 I -0.0275 J 1.4571
G03 X 15.5296 Y 17.7314 Z -1.0000 I -0.1256 J 1.0571
G02 X 15.5700 Y 17.7370 Z -1.0000 I 0.0497 J -0.2092
G01 X 15.5869 Y 17.7339 Z -1.0000
G03 X 15.6753 Y 17.7153 Z -1.0000 I 0.0893 J 0.2060
G03 X 15.7359 Y 17.7333 Z -1.0000 I 0.0004 J 0.1097
G02 X 15.7769 Y 17.7400 Z -1.0000 I 0.0280 J -0.0428
G01 X 15.7881 Y 17.7196 Z -1.0000
G01 X 15.7914 Y 17.7093 Z -1.0000
G01 X 15.8099 Y 17.7030 Z -1.0000
G01 X 15.8138 Y 17.6938 Z -1.0000
G01 X 15.7885 Y 17.6814 Z -1.0000
G03 X 15.7436 Y 17.6721 Z -1.0000 I 0.0349 J -0.2822
G01 X 15.7400 Y 17.6673 Z -1.0000
G01 X 15.7168 Y 17.6310 Z -1.0000
G02 X 15.6575 Y 17.6289 Z -1.0000 I -0.0321 J 0.0689
G01 X 15.6466 Y 17.6281 Z -1.0000
G01 X 15.6348 Y 17.6159 Z -1.0000
G01 X 15.6083 Y 17.5946 Z -1.0000
G02 X 15.5109 Y 17.5806 Z -1.0000 I -0.1002 J 0.3517
G03 X 15.4185 Y 17.5754 Z -1.0000 I 0.0069 J -0.9381
G01 X 15.4140 Y 17.5703 Z -1.0000
G01 X 15.4106 Y 17.5654 Z -1.0000
G01 X 15.3929 Y 17.5621 Z -1.0000
G01 X 15.3748 Y 17.5578 Z -1.0000
G01 X 15.3667 Y 17.5489 Z -1.0000
G01 X 15.3588 Y 17.5397 Z -1.0000
G01 X 15.3431 Y 17.5356 Z -1.0000
G01 X 15.3174 Y 17.5265 Z -1.0000
G03 X 15.2970 Y 17.4982 Z -1.0000 I 0.0423 J -0.0521
G01 X 15.2889 Y 17.4859 Z -1.0000
G01 X 15.2811 Y 17.4828 Z -1.0000
G01 X 15.2761 Y 17.4793 Z -1.0000
G01 X 15.2761 Y 17.4695 Z -1.0000
G01 X 15.2747 Y 17.4607 Z -1.0000
G01 X 15.2656 Y 17.4563 Z -1.0000
G01 X 15.2510 Y 17.4538 Z -1.0000
G01 X 15.2413 Y 17.4476 Z -1.0000
G01 X 15.2320 Y 17.4448 Z -1.0000
G02 X 15.2123 Y 17.4530 Z -1.0000 I 0.0095 J 0.0501
G01 X 15.2124 Y 17.4530 Z -1.0000
G00 Z 5.0000

(End cutting path id: path180697)


(Start cutting path id: path180697)
(Change tool to Default tool)

G00 Z 5.0000
G00 X 14.7852 Y 17.4982

G01 Z -1.0000 F 100.0000(Penetrate)
G02 X 14.7555 Y 17.5323 Z -1.0000 I 0.4218 J 0.3970 F 3500.0000
G02 X 14.7303 Y 17.5665 Z -1.0000 I 0.3992 J 0.3208
G02 X 14.6652 Y 17.6791 Z -1.0000 I 0.7734 J 0.5219
G02 X 14.6562 Y 17.7184 Z -1.0000 I 0.0805 J 0.0393
G01 X 14.6546 Y 17.7260 Z -1.0000
G03 X 14.6310 Y 17.7786 Z -1.0000 I -0.9932 J -0.4145
G02 X 14.6072 Y 17.8314 Z -1.0000 I 1.0423 J 0.5021
G02 X 14.5951 Y 17.8638 Z -1.0000 I 0.3802 J 0.1602
G03 X 14.5821 Y 17.8949 Z -1.0000 I -0.2018 J -0.0658
G01 X 14.5754 Y 17.9023 Z -1.0000
G02 X 14.5491 Y 17.9310 Z -1.0000 I 0.0380 J 0.0612
G02 X 14.5104 Y 18.0313 Z -1.0000 I 0.4831 J 0.2441
G03 X 14.5085 Y 18.0379 Z -1.0000 I -0.3150 J -0.0875
G03 X 14.5064 Y 18.0445 Z -1.0000 I -0.2367 J -0.0711
G01 X 14.5050 Y 18.0512 Z -1.0000
G01 X 14.5053 Y 18.0578 Z -1.0000
G01 X 14.5048 Y 18.0644 Z -1.0000
G03 X 14.4711 Y 18.1700 Z -1.0000 I -3.9530 J -1.2052
G02 X 14.4382 Y 18.2759 Z -1.0000 I 2.4521 J 0.8196
G02 X 14.4358 Y 18.2928 Z -1.0000 I 0.0588 J 0.0169
G01 X 14.4521 Y 18.3291 Z -1.0000
G02 X 14.5200 Y 18.3677 Z -1.0000 I 0.1250 J -0.1407
G02 X 14.6462 Y 18.3985 Z -1.0000 I 0.2869 J -0.9025
G02 X 14.7530 Y 18.4079 Z -1.0000 I 0.1096 J -0.6359
G03 X 14.7945 Y 18.4118 Z -1.0000 I -0.0010 J 0.2288
G03 X 14.9469 Y 18.4445 Z -1.0000 I -0.5922 J 3.1338
G02 X 14.9867 Y 18.4534 Z -1.0000 I 0.3620 J -1.5185
G02 X 15.0703 Y 18.4705 Z -1.0000 I 1.2725 J -6.0312
G03 X 15.2303 Y 18.5070 Z -1.0000 I -0.5198 J 2.6446
G03 X 15.4287 Y 18.5639 Z -1.0000 I -1.0731 J 4.1170
G02 X 15.6142 Y 18.5954 Z -1.0000 I 0.2084 J -0.6656
G02 X 15.7127 Y 18.5733 Z -1.0000 I 0.0066 J -0.2011
G03 X 15.7428 Y 18.5584 Z -1.0000 I 0.5052 J 0.9807
G01 X 15.7449 Y 18.5579 Z -1.0000
G01 X 15.7578 Y 18.6218 Z -1.0000
G02 X 15.7688 Y 18.6856 Z -1.0000 I 5.0953 J -0.8410
G02 X 15.7903 Y 18.8046 Z -1.0000 I 21.4059 J -3.8094
G03 X 15.8115 Y 18.9237 Z -1.0000 I -10.9330 J 2.0085
G03 X 15.8245 Y 19.0029 Z -1.0000 I -4.7647 J 0.8218
G02 X 15.8392 Y 19.0817 Z -1.0000 I 1.3336 J -0.2079
G02 X 15.8545 Y 19.1409 Z -1.0000 I 0.7570 J -0.1645
G03 X 15.8692 Y 19.1999 Z -1.0000 I -0.6070 J 0.1826
G03 X 15.8722 Y 19.2301 Z -1.0000 I -0.1518 J 0.0301
G02 X 15.8850 Y 19.3032 Z -1.0000 I 0.2141 J -0.0000
G02 X 15.9187 Y 19.3582 Z -1.0000 I 0.1521 J -0.0553
G01 X 15.9411 Y 19.3715 Z -1.0000
G02 X 15.9810 Y 19.3742 Z -1.0000 I 0.0273 J -0.1063
G02 X 16.0225 Y 19.3662 Z -1.0000 I -0.0318 J -0.2773
G01 X 16.0357 Y 19.3593 Z -1.0000
G01 X 16.0553 Y 19.3571 Z -1.0000
G01 X 16.0660 Y 19.3746 Z -1.0000
G01 X 16.0707 Y 19.3823 Z -1.0000
G01 X 16.0836 Y 19.3837 Z -1.0000
G01 X 16.0997 Y 19.3830 Z -1.0000
G01 X 16.1066 Y 19.3877 Z -1.0000
G01 X 16.1132 Y 19.3923 Z -1.0000
G01 X 16.1245 Y 19.3914 Z -1.0000
G01 X 16.1345 Y 19.3926 Z -1.0000
G01 X 16.1451 Y 19.4062 Z -1.0000
G01 X 16.1536 Y 19.4171 Z -1.0000
G01 X 16.1767 Y 19.4344 Z -1.0000
G03 X 16.1930 Y 19.4620 Z -1.0000 I -0.0695 J 0.0598
G01 X 16.1941 Y 19.4808 Z -1.0000
G02 X 16.1985 Y 19.5251 Z -1.0000 I 0.0637 J 0.0159
G01 X 16.2191 Y 19.5333 Z -1.0000
G01 X 16.2293 Y 19.5328 Z -1.0000
G03 X 16.2456 Y 19.5408 Z -1.0000 I -0.0140 J 0.0491
G01 X 16.2514 Y 19.5539 Z -1.0000
G03 X 16.2414 Y 19.5794 Z -1.0000 I -0.0521 J -0.0057
G03 X 16.2194 Y 19.6035 Z -1.0000 I -0.1280 J -0.0947
G01 X 16.2054 Y 19.6115 Z -1.0000
G01 X 16.1943 Y 19.6202 Z -1.0000
G01 X 16.1894 Y 19.6382 Z -1.0000
G01 X 16.1824 Y 19.6506 Z -1.0000
G01 X 16.1651 Y 19.6530 Z -1.0000
G02 X 15.9896 Y 19.6305 Z -1.0000 I -0.1647 J 0.5891
G01 X 15.9538 Y 19.6568 Z -1.0000
G01 X 15.9495 Y 19.6654 Z -1.0000
G03 X 15.9158 Y 19.7128 Z -1.0000 I -1.0659 J -0.7231
G02 X 15.8811 Y 19.7903 Z -1.0000 I 0.1560 J 0.1164
G01 X 15.8923 Y 19.8284 Z -1.0000
G03 X 15.9368 Y 19.8914 Z -1.0000 I -0.1764 J 0.1719
G01 X 15.9324 Y 19.9097 Z -1.0000
G01 X 15.9292 Y 19.9115 Z -1.0000
G03 X 15.8986 Y 19.9239 Z -1.0000 I -0.4751 J -1.1314
G02 X 15.8690 Y 19.9383 Z -1.0000 I 0.0735 J 0.1888
G02 X 15.8297 Y 19.9646 Z -1.0000 I 0.2149 J 0.3640
G03 X 15.7894 Y 19.9885 Z -1.0000 I -0.1281 J -0.1701
G03 X 15.7451 Y 20.0029 Z -1.0000 I -0.0875 J -0.1931
G02 X 15.7016 Y 20.0181 Z -1.0000 I 0.0360 J 0.1731
G02 X 15.6730 Y 20.0392 Z -1.0000 I 0.0472 J 0.0937
G02 X 15.6556 Y 20.0691 Z -1.0000 I 0.0532 J 0.0509
G02 X 15.6475 Y 20.1248 Z -1.0000 I 0.1870 J 0.0558
G02 X 15.6506 Y 20.1832 Z -1.0000 I 0.5355 J 0.0003
G02 X 15.6578 Y 20.2190 Z -1.0000 I 0.2010 J -0.0220
G03 X 15.7740 Y 20.7345 Z -1.0000 I -3.8794 J 1.1448
G03 X 15.7504 Y 20.8068 Z -1.0000 I -0.0829 J 0.0131
G01 X 15.7437 Y 20.8081 Z -1.0000
G01 X 15.7400 Y 20.8023 Z -1.0000
G02 X 15.7362 Y 20.7770 Z -1.0000 I -0.0867 J -0.0000
G01 X 15.7273 Y 20.7609 Z -1.0000
G03 X 15.7180 Y 20.7466 Z -1.0000 I 0.0464 J -0.0400
G03 X 15.7103 Y 20.7241 Z -1.0000 I 0.1085 J -0.0500
G02 X 15.7021 Y 20.7019 Z -1.0000 I -0.0972 J 0.0232
G02 X 15.6915 Y 20.6873 Z -1.0000 I -0.0514 J 0.0262
G03 X 15.6796 Y 20.6735 Z -1.0000 I 0.0863 J -0.0863
G01 X 15.6783 Y 20.6694 Z -1.0000
G01 X 15.6717 Y 20.6543 Z -1.0000
G02 X 15.6124 Y 20.6076 Z -1.0000 I -0.2999 J 0.3205
G02 X 15.5854 Y 20.5960 Z -1.0000 I -0.0469 J 0.0715
G02 X 15.5402 Y 20.5903 Z -1.0000 I -0.0482 J 0.2008
G02 X 15.4968 Y 20.5982 Z -1.0000 I -0.0017 J 0.1148
G02 X 15.4603 Y 20.6215 Z -1.0000 I 0.0405 J 0.1036
G03 X 15.4250 Y 20.6504 Z -1.0000 I -0.1983 J -0.2065
G03 X 15.3812 Y 20.6763 Z -1.0000 I -0.2031 J -0.2933
G02 X 15.3360 Y 20.7155 Z -1.0000 I 0.0538 J 0.1078
G02 X 15.3130 Y 20.7747 Z -1.0000 I 0.1116 J 0.0774
G02 X 15.3255 Y 20.8574 Z -1.0000 I 0.1480 J 0.0200
G02 X 15.3809 Y 20.9213 Z -1.0000 I 0.1387 J -0.0642
G03 X 15.4256 Y 20.9504 Z -1.0000 I -26.1352 J 40.2168
G03 X 15.4344 Y 20.9562 Z -1.0000 I -0.9866 J 1.5145
G01 X 15.4499 Y 21.0177 Z -1.0000
G03 X 15.3780 Y 21.0605 Z -1.0000 I -0.0719 J -0.0388
G01 X 15.3643 Y 21.0573 Z -1.0000
G01 X 15.3610 Y 21.0519 Z -1.0000
G01 X 15.3444 Y 21.0251 Z -1.0000
G02 X 15.3023 Y 21.0226 Z -1.0000 I -0.0240 J 0.0480
G01 X 15.2947 Y 21.0211 Z -1.0000
G01 X 15.2862 Y 21.0080 Z -1.0000
G01 X 15.2783 Y 20.9954 Z -1.0000
G01 X 15.2723 Y 20.9948 Z -1.0000
G01 X 15.2369 Y 20.9885 Z -1.0000
G03 X 15.1976 Y 20.8998 Z -1.0000 I 0.1548 J -0.1216
G02 X 15.1879 Y 20.8679 Z -1.0000 I -0.1250 J 0.0209
G02 X 15.1707 Y 20.8409 Z -1.0000 I -0.1082 J 0.0495
G03 X 15.1535 Y 20.8142 Z -1.0000 I 0.0981 J -0.0825
G01 X 15.1495 Y 20.7971 Z -1.0000
G01 X 15.1461 Y 20.7819 Z -1.0000
G01 X 15.1407 Y 20.7786 Z -1.0000
G01 X 15.1355 Y 20.7751 Z -1.0000
G01 X 15.1319 Y 20.7577 Z -1.0000
G02 X 15.1287 Y 20.7376 Z -1.0000 I -0.0637 J 0.0000
G02 X 15.1060 Y 20.6797 Z -1.0000 I -0.5653 J 0.1881
G02 X 15.0506 Y 20.6214 Z -1.0000 I -0.1119 J 0.0507
G02 X 14.9801 Y 20.6145 Z -1.0000 I -0.0439 J 0.0847
G02 X 14.9400 Y 20.6364 Z -1.0000 I 0.0296 J 0.1020
G02 X 14.9134 Y 20.6726 Z -1.0000 I 0.0673 J 0.0772
G02 X 14.9032 Y 20.7486 Z -1.0000 I 0.1282 J 0.0560
G02 X 14.9427 Y 20.8755 Z -1.0000 I 0.4162 J -0.0601
G03 X 14.9598 Y 20.9160 Z -1.0000 I -0.3210 J 0.1594
G03 X 14.9682 Y 20.9482 Z -1.0000 I -0.1930 J 0.0679
G02 X 14.9771 Y 20.9802 Z -1.0000 I 0.1729 J -0.0305
G02 X 15.0102 Y 21.0583 Z -1.0000 I 1.0815 J -0.4122
G03 X 15.0460 Y 21.1355 Z -1.0000 I -13.4131 J 6.2733
G03 X 15.0640 Y 21.1751 Z -1.0000 I -3.5797 J 1.6492
G02 X 15.1234 Y 21.2509 Z -1.0000 I 0.1822 J -0.0815
G01 X 15.1541 Y 21.2454 Z -1.0000
G03 X 15.1948 Y 21.2075 Z -1.0000 I 0.0889 J 0.0547
G03 X 15.2554 Y 21.1927 Z -1.0000 I 0.0605 J 0.1165
G01 X 15.2639 Y 21.1903 Z -1.0000
G02 X 15.2838 Y 21.1751 Z -1.0000 I -0.0667 J -0.1078
G03 X 15.3043 Y 21.1614 Z -1.0000 I 0.0521 J 0.0560
G01 X 15.3225 Y 21.1575 Z -1.0000
G02 X 15.3407 Y 21.1544 Z -1.0000 I 0.0000 J -0.0549
G01 X 15.3478 Y 21.1487 Z -1.0000
G01 X 15.3667 Y 21.1410 Z -1.0000
G01 X 15.3787 Y 21.1564 Z -1.0000
G02 X 15.3808 Y 21.1725 Z -1.0000 I 0.0612 J 0.0000
G02 X 15.3919 Y 21.2046 Z -1.0000 I 0.2480 J -0.0676
G03 X 15.3997 Y 21.2710 Z -1.0000 I -0.1123 J 0.0469
G03 X 15.3749 Y 21.3093 Z -1.0000 I -0.0559 J -0.0091
G02 X 15.3482 Y 21.3326 Z -1.0000 I 0.0710 J 0.1082
G02 X 15.2992 Y 21.3964 Z -1.0000 I 0.5009 J 0.4351
G03 X 15.2508 Y 21.4601 Z -1.0000 I -0.5917 J -0.3994
G01 X 15.2347 Y 21.4721 Z -1.0000
G02 X 15.1449 Y 21.5198 Z -1.0000 I 0.2754 J 0.6275
G02 X 15.1187 Y 21.5451 Z -1.0000 I 0.0468 J 0.0744
G03 X 15.0995 Y 21.5694 Z -1.0000 I -0.1588 J -0.1066
G01 X 15.0901 Y 21.5756 Z -1.0000
G01 X 15.0674 Y 21.5701 Z -1.0000
G03 X 15.0345 Y 21.5129 Z -1.0000 I 0.1222 J -0.1084
G02 X 15.0225 Y 21.4867 Z -1.0000 I -0.1194 J 0.0392
G01 X 15.0167 Y 21.4835 Z -1.0000
G01 X 15.0115 Y 21.4805 Z -1.0000
G01 X 15.0086 Y 21.4695 Z -1.0000
G01 X 15.0045 Y 21.4506 Z -1.0000
G02 X 14.9322 Y 21.3028 Z -1.0000 I -2.9712 J 1.3621
G03 X 14.8917 Y 21.2244 Z -1.0000 I 9.7421 J -5.0741
G03 X 14.8849 Y 21.2103 Z -1.0000 I 0.3058 J -0.1562
G02 X 14.8338 Y 21.1000 Z -1.0000 I -7.2431 J 3.2902
G02 X 14.8141 Y 21.0605 Z -1.0000 I -0.9662 J 0.4569
G03 X 14.8073 Y 21.0472 Z -1.0000 I 1.1287 J -0.5875
G03 X 14.7473 Y 20.9283 Z -1.0000 I 54.7159 J -27.6696
G02 X 14.6851 Y 20.8108 Z -1.0000 I -2.8618 J 1.4399
G02 X 14.6608 Y 20.7728 Z -1.0000 I -0.3216 J 0.1789
G03 X 14.6075 Y 20.6901 Z -1.0000 I 0.6865 J -0.5009
G03 X 14.5991 Y 20.6636 Z -1.0000 I 0.0593 J -0.0335
G01 X 14.5943 Y 20.6515 Z -1.0000
G02 X 14.5522 Y 20.6019 Z -1.0000 I -0.4844 J 0.3686
G03 X 14.5087 Y 20.5530 Z -1.0000 I 0.7685 J -0.7266
G01 X 14.5065 Y 20.5472 Z -1.0000
G01 X 14.5036 Y 20.5434 Z -1.0000
G02 X 14.4854 Y 20.5406 Z -1.0000 I -0.0183 J 0.0580
G03 X 14.4661 Y 20.5370 Z -1.0000 I -0.0000 J -0.0538
G01 X 14.4546 Y 20.5288 Z -1.0000
G01 X 14.4429 Y 20.5209 Z -1.0000
G02 X 14.4138 Y 20.5158 Z -1.0000 I -0.0332 J 0.1048
G03 X 14.3835 Y 20.5120 Z -1.0000 I 0.0066 J -0.1754
G03 X 14.3658 Y 20.5056 Z -1.0000 I 0.0144 J -0.0670
G02 X 14.3216 Y 20.4952 Z -1.0000 I -0.0417 J 0.0779
G01 X 14.2972 Y 20.5075 Z -1.0000
G02 X 14.2704 Y 20.5616 Z -1.0000 I 0.1178 J 0.0921
G01 X 14.2780 Y 20.5807 Z -1.0000
G01 X 14.2829 Y 20.5878 Z -1.0000
G03 X 14.2846 Y 20.6144 Z -1.0000 I -0.0992 J 0.0195
G02 X 14.2871 Y 20.6417 Z -1.0000 I 0.0838 J 0.0059
G02 X 14.2976 Y 20.6642 Z -1.0000 I 0.0682 J -0.0179
G03 X 14.3092 Y 20.6865 Z -1.0000 I -0.0784 J 0.0550
G03 X 14.3125 Y 20.7053 Z -1.0000 I -0.0519 J 0.0188
G02 X 14.3153 Y 20.7246 Z -1.0000 I 0.0663 J -0.0000
G02 X 14.3382 Y 20.7899 Z -1.0000 I 0.8004 J -0.2434
G03 X 14.3618 Y 20.8554 Z -1.0000 I -1.0000 J 0.3974
G03 X 14.3904 Y 20.9509 Z -1.0000 I -2.1134 J 0.6853
G02 X 14.4171 Y 21.0472 Z -1.0000 I 23.3656 J -6.4326
G02 X 14.4357 Y 21.1128 Z -1.0000 I 11.0714 J -3.0971
G03 X 14.4461 Y 21.1781 Z -1.0000 I -0.2651 J 0.0759
G03 X 14.4399 Y 21.2226 Z -1.0000 I -0.1272 J 0.0049
G02 X 14.4311 Y 21.2641 Z -1.0000 I 0.1895 J 0.0619
G01 X 14.4350 Y 21.2702 Z -1.0000
G01 X 14.4414 Y 21.2758 Z -1.0000
G01 X 14.4446 Y 21.2893 Z -1.0000
G02 X 14.4666 Y 21.3372 Z -1.0000 I 0.0631 J 0.0000
G01 X 14.4888 Y 21.3272 Z -1.0000
G01 X 14.4998 Y 21.3388 Z -1.0000
G02 X 14.5109 Y 21.3569 Z -1.0000 I 0.6786 J -0.4039
G02 X 14.5305 Y 21.3872 Z -1.0000 I 1.7668 J -1.1173
G03 X 14.5534 Y 21.4532 Z -1.0000 I -0.1193 J 0.0784
G01 X 14.5383 Y 21.4774 Z -1.0000
G01 X 14.5273 Y 21.4767 Z -1.0000
G03 X 14.4981 Y 21.4563 Z -1.0000 I 0.0629 J -0.1209
G02 X 14.4691 Y 21.4326 Z -1.0000 I -0.2348 J 0.2571
G01 X 14.4630 Y 21.4306 Z -1.0000
G01 X 14.4570 Y 21.4285 Z -1.0000
G03 X 14.4402 Y 21.4130 Z -1.0000 I 0.0774 J -0.1006
G02 X 14.4226 Y 21.3990 Z -1.0000 I -0.0518 J 0.0470
G01 X 14.4087 Y 21.3953 Z -1.0000
G01 X 14.3953 Y 21.3911 Z -1.0000
G03 X 14.3710 Y 21.3689 Z -1.0000 I 0.0726 J -0.1036
G02 X 14.3465 Y 21.3473 Z -1.0000 I -0.0837 J 0.0704
G01 X 14.3300 Y 21.3425 Z -1.0000
G03 X 14.2971 Y 21.3313 Z -1.0000 I -0.0000 J -0.0543
G01 X 14.2860 Y 21.3089 Z -1.0000
G01 X 14.2826 Y 21.3033 Z -1.0000
G02 X 14.2606 Y 21.2955 Z -1.0000 I -0.0379 J 0.0717
G03 X 14.2355 Y 21.2856 Z -1.0000 I 0.0150 J -0.0749
G03 X 14.1154 Y 21.2056 Z -1.0000 I 1.1382 J -1.8398
G01 X 14.0984 Y 21.1825 Z -1.0000
G01 X 14.1053 Y 21.1749 Z -1.0000
G02 X 14.1617 Y 21.1786 Z -1.0000 I 0.0401 J -0.1801
G02 X 14.2454 Y 21.1625 Z -1.0000 I -0.0371 J -0.4192
G02 X 14.2907 Y 21.0965 Z -1.0000 I -0.0184 J -0.0612
G02 X 14.2331 Y 21.0020 Z -1.0000 I -0.1216 J 0.0093
G03 X 14.1784 Y 20.9497 Z -1.0000 I 0.0951 J -0.1541
G03 X 14.1626 Y 20.8982 Z -1.0000 I 0.0757 J -0.0514
G01 X 14.1600 Y 20.8879 Z -1.0000
G02 X 14.1460 Y 20.8678 Z -1.0000 I -0.1009 J 0.0550
G03 X 14.1301 Y 20.8481 Z -1.0000 I 0.2868 J -0.2476
G03 X 14.1085 Y 20.8179 Z -1.0000 I 0.6077 J -0.4576
G02 X 14.0855 Y 20.7902 Z -1.0000 I -0.1560 J 0.1060
G01 X 14.0729 Y 20.7825 Z -1.0000
G03 X 14.0386 Y 20.7534 Z -1.0000 I 0.0184 J -0.0564
G03 X 14.0216 Y 20.6837 Z -1.0000 I 0.1342 J -0.0697
G02 X 14.0187 Y 20.6666 Z -1.0000 I -0.0514 J 0.0000
G01 X 14.0131 Y 20.6597 Z -1.0000
G01 X 14.0081 Y 20.6525 Z -1.0000
G03 X 14.0057 Y 20.6243 Z -1.0000 I 0.1152 J -0.0240
G02 X 14.0035 Y 20.5953 Z -1.0000 I -0.1273 J -0.0048
G01 X 13.9977 Y 20.5828 Z -1.0000
G03 X 13.9901 Y 20.5706 Z -1.0000 I 0.0503 J -0.0399
G03 X 13.9818 Y 20.5494 Z -1.0000 I 0.1392 J -0.0666
G02 X 13.9725 Y 20.5292 Z -1.0000 I -0.0790 J 0.0241
G01 X 13.9616 Y 20.5176 Z -1.0000
G01 X 13.9510 Y 20.5060 Z -1.0000
G01 X 13.9457 Y 20.4914 Z -1.0000
G01 X 13.9398 Y 20.4771 Z -1.0000
G02 X 13.9206 Y 20.4584 Z -1.0000 I -0.0738 J 0.0563
G03 X 13.8604 Y 20.3984 Z -1.0000 I 0.1625 J -0.2231
G03 X 13.8396 Y 20.3478 Z -1.0000 I 0.0920 J -0.0674
G02 X 13.8194 Y 20.3006 Z -1.0000 I -0.0998 J 0.0150
G01 X 13.7884 Y 20.2824 Z -1.0000
G02 X 13.7190 Y 20.2818 Z -1.0000 I -0.0364 J 0.2255
G02 X 13.6450 Y 20.3034 Z -1.0000 I 0.0403 J 0.2752
G03 X 13.6075 Y 20.3195 Z -1.0000 I -0.5330 J -1.1905
G01 X 13.6039 Y 20.3202 Z -1.0000
G01 X 13.5987 Y 20.2431 Z -1.0000
G02 X 13.5876 Y 20.1387 Z -1.0000 I -0.5944 J 0.0108
G02 X 13.5722 Y 20.1088 Z -1.0000 I -0.0601 J 0.0119
G03 X 13.5537 Y 20.0829 Z -1.0000 I 0.0885 J -0.0827
G01 X 13.5495 Y 20.0661 Z -1.0000
G01 X 13.5687 Y 20.0443 Z -1.0000
G03 X 13.6956 Y 20.0473 Z -1.0000 I 0.0535 J 0.4168
G02 X 13.7870 Y 20.0530 Z -1.0000 I 0.0708 J -0.3998
G02 X 13.9908 Y 20.0323 Z -1.0000 I -0.1029 J -2.0295
G03 X 14.1407 Y 20.0108 Z -1.0000 I 1.2796 J 8.3808
G03 X 14.2111 Y 20.0027 Z -1.0000 I 0.2450 J 1.8221
G02 X 14.2813 Y 19.9940 Z -1.0000 I -0.1186 J -1.2431
G02 X 14.3433 Y 19.9825 Z -1.0000 I -0.1515 J -0.9904
G03 X 14.4050 Y 19.9691 Z -1.0000 I 13.7235 J 62.9238
G03 X 14.4534 Y 19.9586 Z -1.0000 I 5.1228 J 23.5999
G02 X 14.5016 Y 19.9471 Z -1.0000 I -0.2078 J -0.9719
G02 X 14.5801 Y 19.9249 Z -1.0000 I -0.7374 J -2.7667
G02 X 14.6526 Y 19.8941 Z -1.0000 I -0.1000 J -0.3361
G02 X 14.6791 Y 19.8690 Z -1.0000 I -0.0370 J -0.0656
G02 X 14.6952 Y 19.8359 Z -1.0000 I -0.1357 J -0.0864
G01 X 14.6950 Y 19.8236 Z -1.0000
G01 X 14.6943 Y 19.8123 Z -1.0000
G01 X 14.6995 Y 19.8051 Z -1.0000
G02 X 14.7299 Y 19.7510 Z -1.0000 I -0.0339 J -0.0546
G01 X 14.7001 Y 19.7210 Z -1.0000
G01 X 14.6943 Y 19.7181 Z -1.0000
G01 X 14.6913 Y 19.7090 Z -1.0000
G01 X 14.6868 Y 19.7025 Z -1.0000
G01 X 14.6707 Y 19.7010 Z -1.0000
G01 X 14.6515 Y 19.7001 Z -1.0000
G01 X 14.6359 Y 19.6909 Z -1.0000
G01 X 14.6193 Y 19.6833 Z -1.0000
G02 X 14.5134 Y 19.6821 Z -1.0000 I -0.0630 J 0.8772
G02 X 14.4062 Y 19.6906 Z -1.0000 I 0.0839 J 1.7258
G01 X 14.3954 Y 19.6952 Z -1.0000
G03 X 14.2878 Y 19.7412 Z -1.0000 I -0.1316 J -0.1591
G03 X 14.1658 Y 19.7221 Z -1.0000 I -0.0267 J -0.2283
G01 X 14.1482 Y 19.7180 Z -1.0000
G01 X 14.1433 Y 19.7213 Z -1.0000
G01 X 14.1130 Y 19.7461 Z -1.0000
G03 X 13.9659 Y 19.7437 Z -1.0000 I -0.0650 J -0.5159
G01 X 13.9366 Y 19.7454 Z -1.0000
G01 X 13.8694 Y 19.7442 Z -1.0000
G02 X 13.8012 Y 19.7411 Z -1.0000 I -0.0559 J 0.4784
G01 X 13.7944 Y 19.7461 Z -1.0000
G01 X 13.7885 Y 19.7528 Z -1.0000
G01 X 13.7731 Y 19.7563 Z -1.0000
G03 X 13.7248 Y 19.7494 Z -1.0000 I 0.0000 J -0.1707
G03 X 13.6494 Y 19.7198 Z -1.0000 I 0.1329 J -0.4506
G02 X 13.6336 Y 19.7144 Z -1.0000 I -0.0285 J 0.0570
G02 X 13.6123 Y 19.7122 Z -1.0000 I -0.0213 J 0.1048
G03 X 13.5910 Y 19.7095 Z -1.0000 I -0.0000 J -0.0834
G03 X 13.5457 Y 19.6946 Z -1.0000 I 0.1028 J -0.3893
G02 X 13.5006 Y 19.6791 Z -1.0000 I -0.1972 J 0.5000
G02 X 13.4859 Y 19.6770 Z -1.0000 I -0.0148 J 0.0503
G03 X 13.4197 Y 19.6601 Z -1.0000 I 0.0003 J -0.1399
G03 X 13.3056 Y 19.5795 Z -1.0000 I 0.2780 J -0.5142
G02 X 13.2432 Y 19.5390 Z -1.0000 I -0.1569 J 0.1735
G02 X 13.1871 Y 19.5272 Z -1.0000 I -0.0561 J 0.1271
G01 X 13.1598 Y 19.5449 Z -1.0000
G02 X 13.1349 Y 19.6448 Z -1.0000 I 0.2727 J 0.1210
G03 X 13.1262 Y 19.7145 Z -1.0000 I -0.6643 J -0.0470
G01 X 13.1212 Y 19.7220 Z -1.0000
G01 X 13.1094 Y 19.7525 Z -1.0000
G02 X 13.1484 Y 19.8178 Z -1.0000 I 0.1410 J -0.0399
G02 X 13.2253 Y 19.8861 Z -1.0000 I 0.8217 J -0.8488
G02 X 13.2866 Y 19.9300 Z -1.0000 I 0.4009 J -0.4937
G03 X 13.3214 Y 19.9570 Z -1.0000 I -0.1238 J 0.1961
G01 X 13.3268 Y 19.9678 Z -1.0000
G03 X 13.3241 Y 20.0157 Z -1.0000 I -0.1503 J 0.0156
G01 X 13.3121 Y 20.0346 Z -1.0000
G02 X 13.2852 Y 20.0700 Z -1.0000 I 0.0514 J 0.0670
G02 X 13.2537 Y 20.1793 Z -1.0000 I 0.5131 J 0.2070
G03 X 13.2379 Y 20.2498 Z -1.0000 I -0.8204 J -0.1464
G03 X 13.2187 Y 20.3093 Z -1.0000 I -0.6150 J -0.1658
G01 X 13.1983 Y 20.3256 Z -1.0000
G01 X 13.1646 Y 20.3169 Z -1.0000
G01 X 13.1504 Y 20.2944 Z -1.0000
G01 X 13.1580 Y 20.2851 Z -1.0000
G01 X 13.1632 Y 20.2816 Z -1.0000
G01 X 13.1668 Y 20.2637 Z -1.0000
G03 X 13.1704 Y 20.2437 Z -1.0000 I 0.0566 J 0.0000
G01 X 13.1796 Y 20.2295 Z -1.0000
G02 X 13.1899 Y 20.2154 Z -1.0000 I -0.0404 J -0.0404
G02 X 13.1982 Y 20.1935 Z -1.0000 I -0.0897 J -0.0464
G03 X 13.2075 Y 20.1725 Z -1.0000 I 0.0641 J 0.0160
G03 X 13.2251 Y 20.1537 Z -1.0000 I 0.0690 J 0.0466
G02 X 13.2464 Y 20.1057 Z -1.0000 I -0.0348 J -0.0442
G02 X 13.2165 Y 20.0261 Z -1.0000 I -0.1474 J 0.0100
G03 X 13.1898 Y 19.9857 Z -1.0000 I 0.2863 J -0.2185
G03 X 13.1808 Y 19.9635 Z -1.0000 I 0.0769 J -0.0438
G01 X 13.1713 Y 19.9468 Z -1.0000
G01 X 13.1618 Y 19.9448 Z -1.0000
G01 X 13.1516 Y 19.9433 Z -1.0000
G01 X 13.1401 Y 19.9274 Z -1.0000
G02 X 13.1299 Y 19.9058 Z -1.0000 I -0.1404 J 0.0533
G02 X 13.1205 Y 19.8933 Z -1.0000 I -0.0574 J 0.0330
G03 X 13.1101 Y 19.8812 Z -1.0000 I 0.1514 J -0.1420
G03 X 13.0930 Y 19.8588 Z -1.0000 I 0.4415 J -0.3544
G02 X 13.0764 Y 19.8360 Z -1.0000 I -9.5850 J 6.9335
G02 X 13.0659 Y 19.8215 Z -1.0000 I -4.6887 J 3.4087
G01 X 13.0344 Y 19.8078 Z -1.0000
G01 X 13.0170 Y 19.8274 Z -1.0000
G01 X 13.0145 Y 19.8331 Z -1.0000
G01 X 13.0079 Y 19.8356 Z -1.0000
G01 X 12.9877 Y 19.8207 Z -1.0000
G03 X 12.9912 Y 19.7819 Z -1.0000 I 0.0487 J -0.0152
G02 X 12.9912 Y 19.7289 Z -1.0000 I -0.0507 J -0.0265
G01 X 12.9503 Y 19.7037 Z -1.0000
G01 X 12.9165 Y 19.6869 Z -1.0000
G03 X 12.8849 Y 19.6199 Z -1.0000 I 0.1332 J -0.1040
G02 X 12.8726 Y 19.5778 Z -1.0000 I -0.3407 J 0.0763
G01 X 12.8674 Y 19.5713 Z -1.0000
G01 X 12.8608 Y 19.5618 Z -1.0000
G03 X 12.8420 Y 19.4347 Z -1.0000 I 1.7557 J -0.3254
G02 X 12.8340 Y 19.3825 Z -1.0000 I -0.6341 J 0.0698
G01 X 12.8298 Y 19.3720 Z -1.0000
G01 X 12.8291 Y 19.3629 Z -1.0000
G01 X 12.8410 Y 19.3464 Z -1.0000
G01 X 12.8529 Y 19.3282 Z -1.0000
G02 X 12.8584 Y 19.2953 Z -1.0000 I -0.0961 J -0.0328
G03 X 12.8640 Y 19.2620 Z -1.0000 I 0.1023 J 0.0000
G03 X 12.8807 Y 19.2309 Z -1.0000 I 0.1045 J 0.0361
G02 X 12.8966 Y 19.2004 Z -1.0000 I -0.0813 J -0.0620
G01 X 12.8973 Y 19.1794 Z -1.0000
G02 X 12.8894 Y 19.1602 Z -1.0000 I -0.0692 J 0.0175
G01 X 12.8839 Y 19.1571 Z -1.0000
G01 X 12.8791 Y 19.1540 Z -1.0000
G01 X 12.8760 Y 19.1395 Z -1.0000
G01 X 12.8794 Y 19.1252 Z -1.0000
G01 X 12.8849 Y 19.1218 Z -1.0000
G01 X 12.8878 Y 19.1185 Z -1.0000
G01 X 12.8827 Y 19.1039 Z -1.0000
G01 X 12.8857 Y 19.0847 Z -1.0000
G03 X 12.9289 Y 19.0646 Z -1.0000 I 0.0581 J 0.0681
G02 X 12.9594 Y 19.0575 Z -1.0000 I -0.0433 J -0.2559
G02 X 12.9723 Y 19.0517 Z -1.0000 I -0.0154 J -0.0518
G01 X 12.9891 Y 19.0194 Z -1.0000
G02 X 12.9630 Y 18.8896 Z -1.0000 I -0.4702 J 0.0271
G03 X 12.9496 Y 18.8376 Z -1.0000 I 0.2872 J -0.1017
G03 X 12.9500 Y 18.8113 Z -1.0000 I 0.0722 J -0.0120
G01 X 12.9269 Y 18.7637 Z -1.0000
G02 X 12.8204 Y 18.7457 Z -1.0000 I -0.0823 J 0.1626
G02 X 12.7684 Y 18.7782 Z -1.0000 I 0.0099 J 0.0736
G02 X 12.7227 Y 18.8926 Z -1.0000 I 0.2500 J 0.1662
G03 X 12.6894 Y 19.0116 Z -1.0000 I -0.6119 J -0.1071
G01 X 12.6712 Y 19.0246 Z -1.0000
G01 X 12.6671 Y 19.0223 Z -1.0000
G01 X 12.6646 Y 19.0117 Z -1.0000
G01 X 12.6429 Y 18.9935 Z -1.0000
G02 X 12.5947 Y 19.0241 Z -1.0000 I 0.0131 J 0.0742
G02 X 12.5809 Y 19.0596 Z -1.0000 I 0.0631 J 0.0450
G01 X 12.5892 Y 19.0690 Z -1.0000
G01 X 12.5991 Y 19.0816 Z -1.0000
G03 X 12.5769 Y 19.1191 Z -1.0000 I -0.0731 J -0.0179
G02 X 12.5447 Y 19.1535 Z -1.0000 I 0.2158 J 0.2347
G01 X 12.5412 Y 19.1633 Z -1.0000
G01 X 12.5386 Y 19.1722 Z -1.0000
G01 X 12.5342 Y 19.1747 Z -1.0000
G01 X 12.5299 Y 19.1779 Z -1.0000
G02 X 12.5177 Y 19.2302 Z -1.0000 I 0.4336 J 0.1286
G02 X 12.5140 Y 19.2858 Z -1.0000 I 0.2646 J 0.0453
G02 X 12.5235 Y 19.3822 Z -1.0000 I 0.8118 J -0.0309
G02 X 12.5425 Y 19.4777 Z -1.0000 I 1.2234 J -0.1936
G02 X 12.5571 Y 19.5228 Z -1.0000 I 0.2923 J -0.0702
G03 X 12.5748 Y 19.5670 Z -1.0000 I -1.6973 J 0.7054
G03 X 12.5798 Y 19.5816 Z -1.0000 I -0.1787 J 0.0689
G01 X 12.5880 Y 19.5902 Z -1.0000
G01 X 12.6099 Y 19.5923 Z -1.0000
G01 X 12.6357 Y 19.5882 Z -1.0000
G01 X 12.6402 Y 19.6920 Z -1.0000
G02 X 12.6595 Y 19.8160 Z -1.0000 I 0.5623 J -0.0242
G02 X 12.6882 Y 19.8683 Z -1.0000 I 0.1231 J -0.0336
G03 X 12.6971 Y 19.8806 Z -1.0000 I -0.0505 J 0.0457
G03 X 12.7039 Y 19.8963 Z -1.0000 I -0.0729 J 0.0410
G01 X 12.7124 Y 19.9104 Z -1.0000
G02 X 12.7433 Y 19.9365 Z -1.0000 I 0.1518 J -0.1485
G03 X 12.7715 Y 19.9639 Z -1.0000 I -0.0683 J 0.0986
G03 X 12.7831 Y 19.9905 Z -1.0000 I -0.0524 J 0.0386
G03 X 12.7862 Y 20.0204 Z -1.0000 I -0.1848 J 0.0343
G01 X 12.7839 Y 20.0288 Z -1.0000
G01 X 12.7550 Y 20.0384 Z -1.0000
G01 X 12.7351 Y 20.0096 Z -1.0000
G01 X 12.7321 Y 20.0060 Z -1.0000
G02 X 12.7025 Y 20.0030 Z -1.0000 I -0.0296 J 0.1453
G01 X 12.6869 Y 19.9970 Z -1.0000
G01 X 12.6871 Y 19.9891 Z -1.0000
G01 X 12.6902 Y 19.9819 Z -1.0000
G01 X 12.6863 Y 19.9790 Z -1.0000
G01 X 12.6698 Y 19.9783 Z -1.0000
G01 X 12.6566 Y 19.9701 Z -1.0000
G01 X 12.6401 Y 19.9719 Z -1.0000
G02 X 12.6339 Y 20.0090 Z -1.0000 I 0.0454 J 0.0266
G03 X 12.6393 Y 20.0614 Z -1.0000 I -0.2723 J 0.0548
G03 X 12.6347 Y 20.1118 Z -1.0000 I -0.2538 J 0.0022
G03 X 12.6226 Y 20.1369 Z -1.0000 I -0.0533 J -0.0103
G01 X 12.6097 Y 20.1409 Z -1.0000
G01 X 12.6039 Y 20.1434 Z -1.0000
G01 X 12.6049 Y 20.1498 Z -1.0000
G01 X 12.6107 Y 20.1650 Z -1.0000
G03 X 12.6023 Y 20.2004 Z -1.0000 I -0.0999 J -0.0051
G02 X 12.5823 Y 20.2884 Z -1.0000 I 0.2149 J 0.0951
G02 X 12.5975 Y 20.3589 Z -1.0000 I 0.1503 J 0.0045
G02 X 12.6237 Y 20.4035 Z -1.0000 I 0.3028 J -0.1482
G01 X 12.6344 Y 20.4119 Z -1.0000
G01 X 12.6427 Y 20.4188 Z -1.0000
G01 X 12.6427 Y 20.4255 Z -1.0000
G01 X 12.6428 Y 20.4325 Z -1.0000
G01 X 12.6546 Y 20.4431 Z -1.0000
G01 X 12.6658 Y 20.4547 Z -1.0000
G01 X 12.6672 Y 20.4689 Z -1.0000
G01 X 12.6668 Y 20.4841 Z -1.0000
G01 X 12.6716 Y 20.4911 Z -1.0000
G01 X 12.6764 Y 20.4981 Z -1.0000
G01 X 12.6759 Y 20.5140 Z -1.0000
G01 X 12.6784 Y 20.5284 Z -1.0000
G02 X 12.6987 Y 20.5470 Z -1.0000 I 0.0510 J -0.0353
G03 X 12.7213 Y 20.5654 Z -1.0000 I -0.0444 J 0.0778
G01 X 12.7261 Y 20.5780 Z -1.0000
G01 X 12.7301 Y 20.5895 Z -1.0000
G01 X 12.7382 Y 20.5934 Z -1.0000
G01 X 12.7466 Y 20.5980 Z -1.0000
G03 X 12.7558 Y 20.6206 Z -1.0000 I -0.0549 J 0.0354
G02 X 12.7653 Y 20.6457 Z -1.0000 I 0.0821 J -0.0165
G02 X 12.7921 Y 20.6838 Z -1.0000 I 0.2167 J -0.1244
G03 X 12.8202 Y 20.7210 Z -1.0000 I -0.2879 J 0.2465
G01 X 12.8231 Y 20.7305 Z -1.0000
G01 X 12.8257 Y 20.7398 Z -1.0000
G02 X 12.8365 Y 20.7522 Z -1.0000 I 0.0427 J -0.0263
G01 X 12.8464 Y 20.7635 Z -1.0000
G01 X 12.8460 Y 20.7673 Z -1.0000
G01 X 12.8452 Y 20.7712 Z -1.0000
G02 X 12.8542 Y 20.7858 Z -1.0000 I 0.0581 J -0.0256
G03 X 12.9145 Y 20.8674 Z -1.0000 I -0.7314 J 0.6041
G01 X 12.9199 Y 20.8854 Z -1.0000
G01 X 12.9242 Y 20.8975 Z -1.0000
G01 X 12.9331 Y 20.9018 Z -1.0000
G01 X 12.9376 Y 20.9103 Z -1.0000
G01 X 12.9188 Y 20.9228 Z -1.0000
G03 X 12.8859 Y 20.9244 Z -1.0000 I -0.0222 J -0.1110
G01 X 12.8847 Y 20.9195 Z -1.0000
G01 X 12.8885 Y 20.9108 Z -1.0000
G01 X 12.8599 Y 20.8986 Z -1.0000
G03 X 12.6919 Y 20.7124 Z -1.0000 I 1.9044 J -1.8870
G02 X 12.6264 Y 20.6460 Z -1.0000 I -0.3952 J 0.3243
G01 X 12.6031 Y 20.6375 Z -1.0000
G01 X 12.5972 Y 20.6341 Z -1.0000
G01 X 12.5936 Y 20.6220 Z -1.0000
G02 X 12.5796 Y 20.5801 Z -1.0000 I -0.0741 J 0.0014
G01 X 12.5540 Y 20.5670 Z -1.0000
G01 X 12.5575 Y 20.5788 Z -1.0000
G01 X 12.5632 Y 20.5904 Z -1.0000
G01 X 12.5615 Y 20.5964 Z -1.0000
G03 X 12.5016 Y 20.6079 Z -1.0000 I -0.0384 J -0.0384
G01 X 12.4825 Y 20.5625 Z -1.0000
G01 X 12.4822 Y 20.5521 Z -1.0000
G01 X 12.4710 Y 20.5366 Z -1.0000
G01 X 12.4584 Y 20.5336 Z -1.0000
G01 X 12.4494 Y 20.5424 Z -1.0000
G01 X 12.4413 Y 20.5497 Z -1.0000
G01 X 12.4307 Y 20.5455 Z -1.0000
G03 X 12.4205 Y 20.5274 Z -1.0000 I 0.0595 J -0.0456
G01 X 12.4176 Y 20.5125 Z -1.0000
G01 X 12.4087 Y 20.5072 Z -1.0000
G01 X 12.3912 Y 20.5274 Z -1.0000
G03 X 12.3750 Y 20.5522 Z -1.0000 I -0.0684 J -0.0269
G01 X 12.3606 Y 20.5582 Z -1.0000
G01 X 12.3465 Y 20.5630 Z -1.0000
G01 X 12.3408 Y 20.5736 Z -1.0000
G03 X 12.3387 Y 20.5889 Z -1.0000 I -0.1513 J -0.0126
G03 X 12.3296 Y 20.6331 Z -1.0000 I -1.1778 J -0.2202
G02 X 12.3233 Y 20.7799 Z -1.0000 I 0.4051 J 0.0910
G02 X 12.3656 Y 20.8989 Z -1.0000 I 0.3042 J -0.0412
G03 X 12.3988 Y 20.9554 Z -1.0000 I -1.5751 J 0.9638
G01 X 12.4000 Y 20.9598 Z -1.0000
G01 X 12.4013 Y 20.9641 Z -1.0000
G02 X 12.4523 Y 21.0333 Z -1.0000 I 2.1495 J -1.5290
G02 X 12.5440 Y 21.1392 Z -1.0000 I 0.8812 J -0.6707
G01 X 12.5659 Y 21.1488 Z -1.0000
G01 X 12.5712 Y 21.1507 Z -1.0000
G03 X 12.6062 Y 21.1799 Z -1.0000 I -0.3739 J 0.4831
G02 X 12.6412 Y 21.2099 Z -1.0000 I 0.5947 J -0.6605
G02 X 12.6546 Y 21.2192 Z -1.0000 I 0.0702 J -0.0866
G01 X 12.6599 Y 21.2278 Z -1.0000
G01 X 12.6556 Y 21.2362 Z -1.0000
G01 X 12.6460 Y 21.2467 Z -1.0000
G01 X 12.6424 Y 21.2606 Z -1.0000
G01 X 12.6369 Y 21.2716 Z -1.0000
G01 X 12.6181 Y 21.2792 Z -1.0000
G01 X 12.5987 Y 21.2863 Z -1.0000
G01 X 12.5939 Y 21.2955 Z -1.0000
G01 X 12.5894 Y 21.3024 Z -1.0000
G01 X 12.5784 Y 21.3026 Z -1.0000
G02 X 12.5627 Y 21.2969 Z -1.0000 I -0.0615 J 0.1452
G02 X 12.5432 Y 21.2919 Z -1.0000 I -0.0735 J 0.2420
G01 X 12.5203 Y 21.2690 Z -1.0000
G01 X 12.5320 Y 21.2413 Z -1.0000
G01 X 12.5352 Y 21.2346 Z -1.0000
G01 X 12.5298 Y 21.2181 Z -1.0000
G01 X 12.5159 Y 21.2067 Z -1.0000
G01 X 12.4922 Y 21.2044 Z -1.0000
G03 X 12.4376 Y 21.1978 Z -1.0000 I -0.0156 J -0.0994
G03 X 12.4071 Y 21.1687 Z -1.0000 I 0.0229 J -0.0545
G03 X 12.3998 Y 21.1388 Z -1.0000 I 0.0685 J -0.0326
G01 X 12.4055 Y 21.1241 Z -1.0000
G01 X 12.4046 Y 21.1093 Z -1.0000
G02 X 12.3630 Y 21.0911 Z -1.0000 I -0.0571 J 0.0733
G02 X 12.3103 Y 21.0978 Z -1.0000 I -0.0153 J 0.0900
G02 X 12.2809 Y 21.1280 Z -1.0000 I 0.0236 J 0.0523
G02 X 12.2784 Y 21.1764 Z -1.0000 I 0.0664 J 0.0277
G01 X 12.3003 Y 21.1927 Z -1.0000
G01 X 12.3046 Y 21.1971 Z -1.0000
G01 X 12.3000 Y 21.2088 Z -1.0000
G01 X 12.2915 Y 21.2302 Z -1.0000
G01 X 12.2992 Y 21.2493 Z -1.0000
G01 X 12.3050 Y 21.2632 Z -1.0000
G01 X 12.2992 Y 21.2770 Z -1.0000
G01 X 12.2892 Y 21.3006 Z -1.0000
G01 X 12.2984 Y 21.3195 Z -1.0000
G01 X 12.3070 Y 21.3319 Z -1.0000
G03 X 12.3216 Y 21.3998 Z -1.0000 I -0.4795 J 0.1390
G02 X 12.3472 Y 21.5028 Z -1.0000 I 0.5285 J -0.0765
G02 X 12.3681 Y 21.5297 Z -1.0000 I 0.0513 J -0.0183
G01 X 12.4038 Y 21.5359 Z -1.0000
G02 X 12.4414 Y 21.5110 Z -1.0000 I -0.0169 J -0.0663
G01 X 12.4525 Y 21.5052 Z -1.0000
G01 X 12.4703 Y 21.5088 Z -1.0000
G02 X 12.4880 Y 21.4301 Z -1.0000 I -0.1665 J -0.0788
G01 X 12.5042 Y 21.4068 Z -1.0000
G03 X 12.5518 Y 21.4062 Z -1.0000 I 0.0246 J 0.0658
G01 X 12.5668 Y 21.4182 Z -1.0000
G01 X 12.5672 Y 21.4308 Z -1.0000
G01 X 12.5657 Y 21.4555 Z -1.0000
G01 X 12.5839 Y 21.4742 Z -1.0000
G01 X 12.6093 Y 21.4847 Z -1.0000
G01 X 12.5962 Y 21.5260 Z -1.0000
G02 X 12.5843 Y 21.5675 Z -1.0000 I 0.7005 J 0.2225
G02 X 12.5745 Y 21.6112 Z -1.0000 I 0.7603 J 0.1931
G03 X 12.5636 Y 21.6541 Z -1.0000 I -0.3727 J -0.0723
G01 X 12.5579 Y 21.6637 Z -1.0000
G01 X 12.5529 Y 21.6734 Z -1.0000
G02 X 12.5489 Y 21.7165 Z -1.0000 I 0.2919 J 0.0492
G03 X 12.5457 Y 21.7608 Z -1.0000 I -0.4241 J -0.0081
G03 X 12.5378 Y 21.8049 Z -1.0000 I -0.4206 J -0.0522
G01 X 12.5276 Y 21.8488 Z -1.0000
G01 X 12.4924 Y 21.8465 Z -1.0000
G02 X 12.4291 Y 21.8624 Z -1.0000 I -0.0069 J 0.1066
G02 X 12.3867 Y 21.9122 Z -1.0000 I 0.0567 J 0.0912
G02 X 12.3648 Y 21.9793 Z -1.0000 I 0.4075 J 0.1703
G02 X 12.3161 Y 22.2061 Z -1.0000 I 4.6423 J 1.1159
G03 X 12.2805 Y 22.3501 Z -1.0000 I -1.3272 J -0.2515
G03 X 12.2595 Y 22.3907 Z -1.0000 I -0.1228 J -0.0376
G01 X 12.2429 Y 22.4124 Z -1.0000
G01 X 12.1942 Y 22.3885 Z -1.0000
G02 X 12.1451 Y 22.3663 Z -1.0000 I -0.4013 J 0.8195
G01 X 12.1372 Y 22.3647 Z -1.0000
G01 X 12.1191 Y 22.3517 Z -1.0000
G03 X 12.1193 Y 22.3118 Z -1.0000 I 0.0582 J -0.0197
G02 X 12.1216 Y 22.2852 Z -1.0000 I -0.0509 J -0.0178
G01 X 12.1127 Y 22.2711 Z -1.0000
G03 X 12.0960 Y 22.2594 Z -1.0000 I 1.5944 J -2.2920
G03 X 12.0866 Y 22.2526 Z -1.0000 I 0.2857 J -0.4044
G02 X 12.0771 Y 22.2461 Z -1.0000 I -0.0887 J 0.1191
G02 X 12.0605 Y 22.2361 Z -1.0000 I -0.2286 J 0.3626
G01 X 12.0463 Y 22.2239 Z -1.0000
G03 X 12.0238 Y 22.1890 Z -1.0000 I 0.1878 J -0.1461
G03 X 12.0103 Y 22.1503 Z -1.0000 I 0.1198 J -0.0633
G03 X 12.0093 Y 22.1105 Z -1.0000 I 0.1262 J -0.0234
G03 X 12.0164 Y 22.0700 Z -1.0000 I 0.4421 J 0.0568
G03 X 12.0213 Y 22.0568 Z -1.0000 I 0.0516 J 0.0115
G01 X 12.0237 Y 22.0184 Z -1.0000
G02 X 11.9904 Y 21.9752 Z -1.0000 I -0.0882 J 0.0334
G01 X 11.9911 Y 21.9687 Z -1.0000
G03 X 12.0474 Y 21.9513 Z -1.0000 I 0.1163 J 0.2772
G02 X 12.0871 Y 21.9431 Z -1.0000 I -0.9930 J -4.9219
G02 X 12.1488 Y 21.9301 Z -1.0000 I -4.5936 J -21.8595
G03 X 12.2106 Y 21.9178 Z -1.0000 I 0.4760 J 2.2432
G03 X 12.2517 Y 21.9112 Z -1.0000 I 0.1690 J 0.9201
G02 X 12.3163 Y 21.8851 Z -1.0000 I -0.0194 J -0.1407
G02 X 12.3427 Y 21.8445 Z -1.0000 I -0.0405 J -0.0553
G01 X 12.3416 Y 21.8193 Z -1.0000
G02 X 12.3213 Y 21.7770 Z -1.0000 I -0.1611 J 0.0510
G03 X 12.2983 Y 21.7347 Z -1.0000 I 0.2328 J -0.1542
G03 X 12.2935 Y 21.7133 Z -1.0000 I 0.0529 J -0.0231
G03 X 12.2931 Y 21.6905 Z -1.0000 I 0.9166 J -0.0275
G03 X 12.2928 Y 21.5829 Z -1.0000 I 20.5594 J -0.1069
G02 X 12.2860 Y 21.4777 Z -1.0000 I -0.8103 J -0.0000
G01 X 12.2759 Y 21.4538 Z -1.0000
G03 X 12.2615 Y 21.4313 Z -1.0000 I 0.1111 J -0.0872
G01 X 12.2587 Y 21.4204 Z -1.0000
G02 X 12.2405 Y 21.3770 Z -1.0000 I -0.0640 J 0.0013
G02 X 12.1734 Y 21.3330 Z -1.0000 I -0.1333 J 0.1300
G02 X 12.1500 Y 21.3281 Z -1.0000 I -0.0271 J 0.0711
G02 X 12.1012 Y 21.3294 Z -1.0000 I -0.0158 J 0.3211
G03 X 12.0527 Y 21.3310 Z -1.0000 I -0.0366 J -0.3549
G01 X 12.0418 Y 21.3275 Z -1.0000
G01 X 12.0355 Y 21.3184 Z -1.0000
G03 X 12.0263 Y 21.2659 Z -1.0000 I 0.3498 J -0.0884
G02 X 12.0104 Y 21.1924 Z -1.0000 I -0.3274 J 0.0325
G01 X 11.9985 Y 21.1839 Z -1.0000
G01 X 11.9732 Y 21.1645 Z -1.0000
G03 X 11.9765 Y 21.1015 Z -1.0000 I 0.0993 J -0.0265
G01 X 11.9887 Y 21.0879 Z -1.0000
G03 X 12.0354 Y 21.0713 Z -1.0000 I 0.0859 J 0.1677
G03 X 12.1398 Y 21.0658 Z -1.0000 I 0.0693 J 0.3268
G01 X 12.1663 Y 21.0851 Z -1.0000
G01 X 12.1806 Y 21.0981 Z -1.0000
G01 X 12.1884 Y 21.0925 Z -1.0000
G01 X 12.1913 Y 21.0817 Z -1.0000
G01 X 12.2017 Y 21.0693 Z -1.0000
G01 X 12.2177 Y 21.0313 Z -1.0000
G02 X 12.1921 Y 20.9497 Z -1.0000 I -0.1913 J 0.0154
G01 X 12.1752 Y 20.9107 Z -1.0000
G01 X 12.1837 Y 20.8951 Z -1.0000
G02 X 12.1249 Y 20.8331 Z -1.0000 I -0.1963 J 0.1272
G01 X 12.1140 Y 20.8191 Z -1.0000
G01 X 12.1106 Y 20.7978 Z -1.0000
G02 X 12.1040 Y 20.7447 Z -1.0000 I -0.1393 J -0.0097
G01 X 12.0899 Y 20.7345 Z -1.0000
G01 X 12.0872 Y 20.7314 Z -1.0000
G01 X 12.0916 Y 20.7213 Z -1.0000
G01 X 12.0925 Y 20.7128 Z -1.0000
G01 X 12.0848 Y 20.7080 Z -1.0000
G01 X 12.0733 Y 20.7011 Z -1.0000
G03 X 12.0632 Y 20.6662 Z -1.0000 I 0.0842 J -0.0433
G03 X 12.0625 Y 20.6247 Z -1.0000 I 0.2849 J -0.0260
G03 X 12.0665 Y 20.6046 Z -1.0000 I 0.0709 J 0.0038
G02 X 12.0697 Y 20.5846 Z -1.0000 I -0.0516 J -0.0185
G02 X 12.0651 Y 20.5473 Z -1.0000 I -0.1954 J 0.0052
G03 X 12.0569 Y 20.5098 Z -1.0000 I 7.6304 J -1.7006
G03 X 12.0409 Y 20.4355 Z -1.0000 I 17.3095 J -3.7685
G02 X 12.0217 Y 20.3642 Z -1.0000 I -0.6811 J 0.1451
G01 X 12.0156 Y 20.3581 Z -1.0000
G01 X 12.0105 Y 20.3524 Z -1.0000
G01 X 12.0103 Y 20.3333 Z -1.0000
G02 X 12.0104 Y 20.3121 Z -1.0000 I -0.0573 J -0.0111
G02 X 12.0004 Y 20.2766 Z -1.0000 I -0.1773 J 0.0312
G03 X 11.9902 Y 20.2415 Z -1.0000 I 0.1720 J -0.0686
G01 X 11.9915 Y 20.2280 Z -1.0000
G01 X 11.9897 Y 20.2193 Z -1.0000
G01 X 11.9788 Y 20.2146 Z -1.0000
G01 X 11.9656 Y 20.2087 Z -1.0000
G01 X 11.9551 Y 20.1883 Z -1.0000
G03 X 11.9521 Y 20.1626 Z -1.0000 I 0.1279 J -0.0284
G01 X 11.9544 Y 20.1540 Z -1.0000
G01 X 11.9544 Y 20.1476 Z -1.0000
G01 X 11.9462 Y 20.1409 Z -1.0000
G01 X 11.9292 Y 20.1151 Z -1.0000
G01 X 11.9485 Y 20.0831 Z -1.0000
G01 X 11.9515 Y 20.0774 Z -1.0000
G01 X 11.9478 Y 20.0739 Z -1.0000
G01 X 11.9370 Y 20.0698 Z -1.0000
G01 X 11.9352 Y 20.0629 Z -1.0000
G01 X 11.9421 Y 20.0567 Z -1.0000
G03 X 11.9886 Y 20.0514 Z -1.0000 I 0.0503 J 0.2329
G02 X 12.0409 Y 20.0396 Z -1.0000 I -0.0021 J -0.1319
G01 X 12.0529 Y 20.0222 Z -1.0000
G03 X 12.0539 Y 20.0076 Z -1.0000 I 5.2349 J 0.3233
G02 X 12.0551 Y 19.9877 Z -1.0000 I -61.0848 J -3.9428
G01 X 12.0607 Y 19.9724 Z -1.0000
G01 X 12.0698 Y 19.9679 Z -1.0000
G01 X 12.0825 Y 19.9657 Z -1.0000
G02 X 12.1005 Y 19.9570 Z -1.0000 I -0.0308 J -0.0871
G01 X 12.1167 Y 19.9555 Z -1.0000
G03 X 12.1429 Y 19.9735 Z -1.0000 I -0.0255 J 0.0653
G03 X 12.1656 Y 20.0024 Z -1.0000 I -0.1803 J 0.1647
G03 X 12.1841 Y 20.0350 Z -1.0000 I -0.2118 J 0.1417
G02 X 12.2423 Y 20.1179 Z -1.0000 I 0.2716 J -0.1287
G02 X 12.3273 Y 20.1795 Z -1.0000 I 0.2292 J -0.2272
G02 X 12.4748 Y 20.2242 Z -1.0000 I 0.2049 J -0.4103
G02 X 12.5504 Y 20.2076 Z -1.0000 I 0.0144 J -0.1145
G03 X 12.5679 Y 20.1991 Z -1.0000 I 0.0488 J 0.0782
G01 X 12.5797 Y 20.1970 Z -1.0000
G01 X 12.5969 Y 20.1846 Z -1.0000
G01 X 12.5943 Y 20.1535 Z -1.0000
G03 X 12.5884 Y 20.1380 Z -1.0000 I 0.0538 J -0.0290
G01 X 12.5897 Y 20.1338 Z -1.0000
G01 X 12.5899 Y 20.1299 Z -1.0000
G02 X 12.5552 Y 20.0883 Z -1.0000 I -0.4536 J 0.3429
G03 X 12.5199 Y 20.0296 Z -1.0000 I 0.1268 J -0.1164
G03 X 12.5060 Y 19.9501 Z -1.0000 I 0.2253 J -0.0803
G02 X 12.5010 Y 19.9206 Z -1.0000 I -0.0905 J 0.0003
G02 X 12.4839 Y 19.8867 Z -1.0000 I -0.1367 J 0.0476
G03 X 12.4641 Y 19.8536 Z -1.0000 I 0.2747 J -0.1867
G01 X 12.4618 Y 19.8445 Z -1.0000
G01 X 12.4589 Y 19.8400 Z -1.0000
G01 X 12.4526 Y 19.8404 Z -1.0000
G01 X 12.4300 Y 19.8401 Z -1.0000
G01 X 12.4178 Y 19.8174 Z -1.0000
G01 X 12.4341 Y 19.7968 Z -1.0000
G03 X 12.5031 Y 19.7973 Z -1.0000 I 0.0335 J 0.1420
G01 X 12.5197 Y 19.7974 Z -1.0000
G01 X 12.5235 Y 19.7926 Z -1.0000
G01 X 12.5267 Y 19.7859 Z -1.0000
G01 X 12.5356 Y 19.7828 Z -1.0000
G01 X 12.5615 Y 19.7686 Z -1.0000
G01 X 12.5599 Y 19.7445 Z -1.0000
G01 X 12.5542 Y 19.7329 Z -1.0000
G01 X 12.5559 Y 19.7269 Z -1.0000
G01 X 12.5561 Y 19.7234 Z -1.0000
G01 X 12.5514 Y 19.7211 Z -1.0000
G01 X 12.5453 Y 19.7169 Z -1.0000
G03 X 12.5411 Y 19.6943 Z -1.0000 I 0.0590 J -0.0225
G02 X 12.5375 Y 19.6687 Z -1.0000 I -0.0934 J -0.0000
G02 X 12.5276 Y 19.6469 Z -1.0000 I -0.0765 J 0.0219
G03 X 12.5166 Y 19.6258 Z -1.0000 I 0.0974 J -0.0642
G01 X 12.5162 Y 19.6186 Z -1.0000
G01 X 12.5161 Y 19.6112 Z -1.0000
G02 X 12.5077 Y 19.5916 Z -1.0000 I -0.1001 J 0.0314
G01 X 12.5023 Y 19.5737 Z -1.0000
G01 X 12.5058 Y 19.5669 Z -1.0000
G01 X 12.5150 Y 19.5492 Z -1.0000
G02 X 12.5028 Y 19.5191 Z -1.0000 I -0.0513 J 0.0032
G03 X 12.4742 Y 19.4623 Z -1.0000 I 0.1032 J -0.0875
G03 X 12.4623 Y 19.3454 Z -1.0000 I 0.4507 J -0.1052
G02 X 12.4615 Y 19.2851 Z -1.0000 I -0.7849 J -0.0200
G02 X 12.4576 Y 19.2529 Z -1.0000 I -0.2330 J 0.0120
G03 X 12.4560 Y 19.2229 Z -1.0000 I 0.1062 J -0.0206
G01 X 12.4610 Y 19.2149 Z -1.0000
G01 X 12.4790 Y 19.1833 Z -1.0000
G01 X 12.4620 Y 19.1659 Z -1.0000
G01 X 12.4585 Y 19.1624 Z -1.0000
G01 X 12.4617 Y 19.1441 Z -1.0000
G02 X 12.4673 Y 19.1218 Z -1.0000 I -0.0885 J -0.0340
G02 X 12.4716 Y 19.0646 Z -1.0000 I -0.6034 J -0.0744
G02 X 12.4382 Y 18.9673 Z -1.0000 I -0.1466 J -0.0041
G02 X 12.3489 Y 18.9156 Z -1.0000 I -0.1140 J 0.0939
G03 X 12.3019 Y 18.8958 Z -1.0000 I 0.0188 J -0.1106
G01 X 12.3007 Y 18.8806 Z -1.0000
G01 X 12.2945 Y 18.8751 Z -1.0000
G01 X 12.2913 Y 18.8713 Z -1.0000
G01 X 12.2977 Y 18.8587 Z -1.0000
G01 X 12.3013 Y 18.8437 Z -1.0000
G01 X 12.2891 Y 18.8268 Z -1.0000
G01 X 12.2753 Y 18.8116 Z -1.0000
G01 X 12.2774 Y 18.8042 Z -1.0000
G01 X 12.2814 Y 18.7957 Z -1.0000
G01 X 12.2742 Y 18.7802 Z -1.0000
G03 X 12.2616 Y 18.7626 Z -1.0000 I 0.0726 J -0.0655
G01 X 12.2591 Y 18.7533 Z -1.0000
G01 X 12.2459 Y 18.7344 Z -1.0000
G02 X 12.1405 Y 18.7104 Z -1.0000 I -0.1494 J 0.4132
G03 X 12.0640 Y 18.6877 Z -1.0000 I 0.0214 J -0.2115
G03 X 12.0385 Y 18.6575 Z -1.0000 I 0.0240 J -0.0462
G02 X 12.0263 Y 18.6244 Z -1.0000 I -0.4321 J 0.1403
G02 X 11.9979 Y 18.5594 Z -1.0000 I -1.6932 J 0.6992
G03 X 11.9711 Y 18.4943 Z -1.0000 I 0.8196 J -0.3762
G01 X 11.9683 Y 18.4789 Z -1.0000
G02 X 11.9498 Y 18.4214 Z -1.0000 I -0.0982 J 0.0000
G02 X 11.8702 Y 18.3430 Z -1.0000 I -0.2719 J 0.1964
G02 X 11.8490 Y 18.3315 Z -1.0000 I -0.0595 J 0.0844
G01 X 11.8346 Y 18.3287 Z -1.0000
G02 X 11.7038 Y 18.3636 Z -1.0000 I 0.0000 J 0.2629
G02 X 11.5856 Y 18.4716 Z -1.0000 I 0.1830 J 0.3190
G02 X 11.5764 Y 18.5080 Z -1.0000 I 0.0433 J 0.0303
G02 X 11.6039 Y 18.6307 Z -1.0000 I 0.5905 J -0.0679
G03 X 11.6329 Y 18.7249 Z -1.0000 I -1.6786 J 0.5684
G01 X 11.6315 Y 18.7302 Z -1.0000
G01 X 11.6260 Y 18.7327 Z -1.0000
G03 X 11.5002 Y 18.7390 Z -1.0000 I -0.2625 J -3.9641
G02 X 11.1905 Y 18.7590 Z -1.0000 I 0.1640 J 4.9370
G02 X 11.1363 Y 18.7740 Z -1.0000 I 0.0156 J 0.1621
G02 X 11.1095 Y 18.7927 Z -1.0000 I 0.0429 J 0.0904
G02 X 11.0744 Y 18.8342 Z -1.0000 I 0.1931 J 0.1987
G02 X 11.0519 Y 18.8829 Z -1.0000 I 0.1304 J 0.0898
G02 X 11.0418 Y 18.9551 Z -1.0000 I 0.2833 J 0.0763
G02 X 11.0620 Y 19.0582 Z -1.0000 I 0.2559 J 0.0034
G02 X 11.1050 Y 19.1044 Z -1.0000 I 0.0848 J -0.0359
G03 X 11.1375 Y 19.1251 Z -1.0000 I -0.0928 J 0.1812
G03 X 11.1511 Y 19.1404 Z -1.0000 I -0.0348 J 0.0445
G02 X 11.1834 Y 19.1711 Z -1.0000 I 0.0721 J -0.0435
G02 X 11.2567 Y 19.1969 Z -1.0000 I 0.1202 J -0.2246
G03 X 11.2872 Y 19.2065 Z -1.0000 I -0.0250 J 0.1337
G03 X 11.3174 Y 19.2241 Z -1.0000 I -0.0665 J 0.1487
G02 X 11.3476 Y 19.2407 Z -1.0000 I 0.0782 J -0.1060
G02 X 11.3730 Y 19.2458 Z -1.0000 I 0.0271 J -0.0691
G01 X 11.3823 Y 19.2535 Z -1.0000
G03 X 11.3649 Y 19.2584 Z -1.0000 I -0.0303 J -0.0753
G01 X 11.3588 Y 19.2572 Z -1.0000
G01 X 11.3537 Y 19.2576 Z -1.0000
G02 X 11.3354 Y 19.2762 Z -1.0000 I 0.0712 J 0.0887
G03 X 11.3193 Y 19.2897 Z -1.0000 I -0.0412 J -0.0324
G01 X 11.3142 Y 19.2877 Z -1.0000
G01 X 11.3078 Y 19.2832 Z -1.0000
G02 X 11.2826 Y 19.2886 Z -1.0000 I 0.0020 J 0.0712
G02 X 11.2576 Y 19.3022 Z -1.0000 I 0.0520 J 0.1253
G01 X 11.2545 Y 19.3080 Z -1.0000
G01 X 11.2519 Y 19.3131 Z -1.0000
G01 X 11.2435 Y 19.3158 Z -1.0000
G02 X 11.1897 Y 19.3283 Z -1.0000 I 0.0001 J 0.1226
G02 X 11.1014 Y 19.3854 Z -1.0000 I 0.1954 J 0.3989
G01 X 11.0850 Y 19.4197 Z -1.0000
G02 X 11.1001 Y 19.4972 Z -1.0000 I 0.1957 J 0.0022
G03 X 11.1083 Y 19.5289 Z -1.0000 I -0.1073 J 0.0449
G03 X 11.1080 Y 19.5657 Z -1.0000 I -0.1476 J 0.0169
G02 X 11.1072 Y 19.6028 Z -1.0000 I 0.1568 J 0.0218
G02 X 11.1169 Y 19.6578 Z -1.0000 I 0.3606 J -0.0351
G01 X 11.1309 Y 19.7125 Z -1.0000
G01 X 11.0982 Y 19.7630 Z -1.0000
G02 X 10.9740 Y 19.9869 Z -1.0000 I 1.6108 J 1.0406
G02 X 10.9526 Y 20.0724 Z -1.0000 I 0.2057 J 0.0968
G01 X 10.9506 Y 20.1132 Z -1.0000
G01 X 10.9946 Y 20.1132 Z -1.0000
G03 X 11.0367 Y 20.1184 Z -1.0000 I 0.0002 J 0.1706
G01 X 11.0558 Y 20.1286 Z -1.0000
G02 X 11.1064 Y 20.1460 Z -1.0000 I 0.0457 J -0.0504
G02 X 11.1583 Y 20.1212 Z -1.0000 I -0.0057 J -0.0787
G03 X 11.1813 Y 20.1004 Z -1.0000 I 0.1350 J 0.1261
G03 X 11.2061 Y 20.0847 Z -1.0000 I 0.1014 J 0.1329
G02 X 11.2318 Y 20.0702 Z -1.0000 I -0.1813 J -0.3515
G01 X 11.2370 Y 20.0657 Z -1.0000
G03 X 11.2754 Y 20.0376 Z -1.0000 I 0.0741 J 0.0610
G03 X 11.3467 Y 20.0218 Z -1.0000 I 0.0838 J 0.2094
G02 X 11.3805 Y 20.0172 Z -1.0000 I -0.0125 J -0.2179
G01 X 11.3908 Y 20.0122 Z -1.0000
G01 X 11.4009 Y 20.0071 Z -1.0000
G03 X 11.4220 Y 20.0043 Z -1.0000 I 0.0218 J 0.0855
G02 X 11.4439 Y 20.0029 Z -1.0000 I -0.0026 J -0.2015
G02 X 11.4717 Y 19.9983 Z -1.0000 I -0.0432 J -0.3532
G01 X 11.4935 Y 20.0028 Z -1.0000
G01 X 11.5101 Y 20.0249 Z -1.0000
G03 X 11.5134 Y 20.0574 Z -1.0000 I -0.0720 J 0.0238
G03 X 11.4963 Y 20.1449 Z -1.0000 I -0.5626 J -0.0648
G03 X 11.4690 Y 20.2314 Z -1.0000 I -1.3099 J -0.3659
G03 X 11.4579 Y 20.2536 Z -1.0000 I -0.0962 J -0.0339
G03 X 11.3854 Y 20.3566 Z -1.0000 I -1.7002 J -1.1211
G03 X 11.3405 Y 20.4098 Z -1.0000 I -0.4974 J -0.3740
G02 X 11.3271 Y 20.4269 Z -1.0000 I 0.0846 J 0.0799
G01 X 11.3251 Y 20.4338 Z -1.0000
G01 X 11.3230 Y 20.4406 Z -1.0000
G03 X 11.3119 Y 20.4525 Z -1.0000 I -0.0499 J -0.0352
G02 X 11.2943 Y 20.4837 Z -1.0000 I 0.0320 J 0.0386
G01 X 11.3054 Y 20.4966 Z -1.0000
G01 X 11.3111 Y 20.4943 Z -1.0000
G02 X 11.3545 Y 20.4484 Z -1.0000 I -0.6129 J -0.6246
G03 X 11.4440 Y 20.3661 Z -1.0000 I 0.4374 J 0.3855
G01 X 11.4633 Y 20.3675 Z -1.0000
G01 X 11.4689 Y 20.3693 Z -1.0000
G02 X 11.4849 Y 20.3638 Z -1.0000 I -0.0092 J -0.0531
G01 X 11.5014 Y 20.3598 Z -1.0000
G01 X 11.5184 Y 20.3641 Z -1.0000
G01 X 11.5345 Y 20.3670 Z -1.0000
G01 X 11.5486 Y 20.3600 Z -1.0000
G03 X 11.5815 Y 20.3375 Z -1.0000 I 0.0757 J 0.0757
G03 X 11.6292 Y 20.3249 Z -1.0000 I 0.0652 J 0.1497
G02 X 11.6465 Y 20.3217 Z -1.0000 I -0.0136 J -0.1201
G02 X 11.6636 Y 20.3158 Z -1.0000 I -0.0330 J -0.1248
G01 X 11.6718 Y 20.3193 Z -1.0000
G01 X 11.6738 Y 20.3431 Z -1.0000
G02 X 11.6683 Y 20.3778 Z -1.0000 I 0.5668 J 0.1074
G02 X 11.6650 Y 20.4129 Z -1.0000 I 0.5408 J 0.0688
G03 X 11.6612 Y 20.4479 Z -1.0000 I -0.3850 J -0.0238
G03 X 11.6527 Y 20.4922 Z -1.0000 I -0.5933 J -0.0916
G02 X 11.6432 Y 20.5481 Z -1.0000 I 0.4788 J 0.1103
G02 X 11.6281 Y 20.7132 Z -1.0000 I 4.1751 J 0.4649
G02 X 11.6277 Y 20.9640 Z -1.0000 I 1.7999 J 0.1282
G02 X 11.6563 Y 21.1274 Z -1.0000 I 0.7842 J -0.0534
G03 X 11.6940 Y 21.2929 Z -1.0000 I -1.4675 J 0.4211
G01 X 11.6889 Y 21.3192 Z -1.0000
G01 X 11.6836 Y 21.3203 Z -1.0000
G03 X 11.6435 Y 21.2866 Z -1.0000 I 0.1986 J -0.2772
G02 X 11.5506 Y 21.2180 Z -1.0000 I -0.2906 J 0.2964
G02 X 11.4865 Y 21.2017 Z -1.0000 I -0.0646 J 0.1194
G01 X 11.4680 Y 21.1845 Z -1.0000
G03 X 11.4803 Y 21.1274 Z -1.0000 I 0.0996 J -0.0083
G02 X 11.4961 Y 21.0840 Z -1.0000 I -0.1258 J -0.0703
G02 X 11.4995 Y 21.0268 Z -1.0000 I -0.2178 J -0.0414
G02 X 11.4762 Y 20.9268 Z -1.0000 I -0.3278 J 0.0236
G01 X 11.4523 Y 20.9108 Z -1.0000
G01 X 11.4440 Y 20.9064 Z -1.0000
G01 X 11.4415 Y 20.8953 Z -1.0000
G01 X 11.4377 Y 20.8848 Z -1.0000
G01 X 11.4199 Y 20.8771 Z -1.0000
G02 X 11.3997 Y 20.8789 Z -1.0000 I -0.0059 J 0.0504
G01 X 11.3957 Y 20.8842 Z -1.0000
G01 X 11.3927 Y 20.8889 Z -1.0000
G01 X 11.3865 Y 20.8884 Z -1.0000
G01 X 11.3845 Y 20.8821 Z -1.0000
G01 X 11.3966 Y 20.8659 Z -1.0000
G01 X 11.4051 Y 20.8531 Z -1.0000
G01 X 11.4022 Y 20.8491 Z -1.0000
G01 X 11.3906 Y 20.8523 Z -1.0000
G01 X 11.3843 Y 20.8601 Z -1.0000
G01 X 11.3789 Y 20.8627 Z -1.0000
G01 X 11.3679 Y 20.8552 Z -1.0000
G02 X 11.3217 Y 20.8273 Z -1.0000 I -0.0590 J 0.0455
G02 X 11.2600 Y 20.8363 Z -1.0000 I -0.0172 J 0.0982
G01 X 11.2347 Y 20.8385 Z -1.0000
G01 X 11.2323 Y 20.8282 Z -1.0000
G01 X 11.2435 Y 20.8049 Z -1.0000
G01 X 11.2350 Y 20.7928 Z -1.0000
G01 X 11.2264 Y 20.7854 Z -1.0000
G01 X 11.2284 Y 20.7783 Z -1.0000
G01 X 11.2321 Y 20.7697 Z -1.0000
G01 X 11.2255 Y 20.7599 Z -1.0000
G01 X 11.2199 Y 20.7492 Z -1.0000
G01 X 11.2277 Y 20.7332 Z -1.0000
G02 X 11.2437 Y 20.7151 Z -1.0000 I -0.0853 J -0.0916
G01 X 11.2460 Y 20.7079 Z -1.0000
G01 X 11.2490 Y 20.7041 Z -1.0000
G01 X 11.2592 Y 20.7048 Z -1.0000
G01 X 11.2682 Y 20.7037 Z -1.0000
G01 X 11.2725 Y 20.6957 Z -1.0000
G01 X 11.2671 Y 20.6869 Z -1.0000
G01 X 11.2460 Y 20.6816 Z -1.0000
G01 X 11.2296 Y 20.6706 Z -1.0000
G01 X 11.2334 Y 20.6514 Z -1.0000
G01 X 11.2373 Y 20.6375 Z -1.0000
G01 X 11.2328 Y 20.6345 Z -1.0000
G01 X 11.2333 Y 20.6279 Z -1.0000
G01 X 11.2400 Y 20.6242 Z -1.0000
G01 X 11.2488 Y 20.6279 Z -1.0000
G01 X 11.2593 Y 20.6354 Z -1.0000
G01 X 11.2677 Y 20.6372 Z -1.0000
G01 X 11.2615 Y 20.6279 Z -1.0000
G01 X 11.2521 Y 20.6163 Z -1.0000
G01 X 11.2514 Y 20.5972 Z -1.0000
G01 X 11.2490 Y 20.5842 Z -1.0000
G01 X 11.2405 Y 20.5815 Z -1.0000
G02 X 11.1985 Y 20.6042 Z -1.0000 I 0.0557 J 0.1532
G02 X 11.1428 Y 20.6548 Z -1.0000 I 0.2401 J 0.3206
G03 X 11.1191 Y 20.6734 Z -1.0000 I -0.0680 J -0.0621
G01 X 11.1141 Y 20.6705 Z -1.0000
G01 X 11.1110 Y 20.6581 Z -1.0000
G01 X 11.1062 Y 20.6551 Z -1.0000
G01 X 11.1015 Y 20.6518 Z -1.0000
G03 X 11.0940 Y 20.6208 Z -1.0000 I 0.1444 J -0.0515
G02 X 11.0649 Y 20.5387 Z -1.0000 I -0.2097 J 0.0280
G01 X 11.0381 Y 20.5290 Z -1.0000
G01 X 11.0295 Y 20.5285 Z -1.0000
G01 X 11.0172 Y 20.5188 Z -1.0000
G01 X 10.9791 Y 20.5206 Z -1.0000
G02 X 10.9598 Y 20.6032 Z -1.0000 I 0.0977 J 0.0664
G02 X 10.9687 Y 20.6402 Z -1.0000 I 0.1943 J -0.0270
G01 X 10.9731 Y 20.6417 Z -1.0000
G01 X 10.9777 Y 20.6430 Z -1.0000
G03 X 10.9833 Y 20.6616 Z -1.0000 I -0.0491 J 0.0250
G01 X 10.9906 Y 20.6809 Z -1.0000
G01 X 11.0003 Y 20.6861 Z -1.0000
G01 X 11.0138 Y 20.6884 Z -1.0000
G01 X 11.0268 Y 20.6951 Z -1.0000
G01 X 11.0481 Y 20.7020 Z -1.0000
G02 X 11.0804 Y 20.6954 Z -1.0000 I 0.0004 J -0.0798
G01 X 11.0952 Y 20.6918 Z -1.0000
G01 X 11.1036 Y 20.6939 Z -1.0000
G03 X 11.1280 Y 20.7278 Z -1.0000 I -0.0288 J 0.0464
G01 X 11.1148 Y 20.7412 Z -1.0000
G02 X 11.0553 Y 20.7502 Z -1.0000 I -0.0180 J 0.0824
G01 X 11.0480 Y 20.7788 Z -1.0000
G01 X 11.0481 Y 20.7847 Z -1.0000
G03 X 11.0322 Y 20.8064 Z -1.0000 I -0.1039 J -0.0594
G02 X 11.0133 Y 20.8284 Z -1.0000 I 0.2965 J 0.2735
G02 X 10.9979 Y 20.8494 Z -1.0000 I 0.2533 J 0.2021
G01 X 10.9730 Y 20.8535 Z -1.0000
G03 X 10.9335 Y 20.8003 Z -1.0000 I 0.0723 J -0.0949
G02 X 10.9100 Y 20.7522 Z -1.0000 I -0.2571 J 0.0958
G01 X 10.8993 Y 20.7448 Z -1.0000
G01 X 10.8896 Y 20.7380 Z -1.0000
G01 X 10.8847 Y 20.7204 Z -1.0000
G01 X 10.8626 Y 20.6829 Z -1.0000
G01 X 10.8314 Y 20.6909 Z -1.0000
G01 X 10.8270 Y 20.6907 Z -1.0000
G01 X 10.8232 Y 20.6755 Z -1.0000
G01 X 10.8110 Y 20.6455 Z -1.0000
G01 X 10.7941 Y 20.6453 Z -1.0000
G01 X 10.7734 Y 20.6489 Z -1.0000
G01 X 10.7530 Y 20.6256 Z -1.0000
G03 X 10.7536 Y 20.5833 Z -1.0000 I 0.0613 J -0.0202
G01 X 10.7719 Y 20.5737 Z -1.0000
G01 X 10.7836 Y 20.5723 Z -1.0000
G01 X 10.7860 Y 20.5661 Z -1.0000
G01 X 10.7795 Y 20.5568 Z -1.0000
G01 X 10.7694 Y 20.5526 Z -1.0000
G03 X 10.7569 Y 20.5514 Z -1.0000 I 1.2096 J -12.7810
G03 X 10.7471 Y 20.5504 Z -1.0000 I 0.0602 J -0.6299
G01 X 10.7121 Y 20.5127 Z -1.0000
G01 X 10.7449 Y 20.4789 Z -1.0000
G01 X 10.7500 Y 20.4815 Z -1.0000
G01 X 10.7526 Y 20.4899 Z -1.0000
G01 X 10.7614 Y 20.4877 Z -1.0000
G01 X 10.7663 Y 20.4737 Z -1.0000
G02 X 10.7650 Y 20.4502 Z -1.0000 I -0.0778 J -0.0074
G01 X 10.7650 Y 20.4301 Z -1.0000
G01 X 10.7700 Y 20.4260 Z -1.0000
G01 X 10.7757 Y 20.4221 Z -1.0000
G01 X 10.7773 Y 20.4062 Z -1.0000
G01 X 10.7702 Y 20.3923 Z -1.0000
G01 X 10.7591 Y 20.3889 Z -1.0000
G01 X 10.7495 Y 20.3776 Z -1.0000
G01 X 10.7701 Y 20.3568 Z -1.0000
G02 X 10.7929 Y 20.3451 Z -1.0000 I -0.0306 J -0.0874
G01 X 10.7966 Y 20.3381 Z -1.0000
G01 X 10.7829 Y 20.3203 Z -1.0000
G01 X 10.7615 Y 20.3288 Z -1.0000
G01 X 10.7547 Y 20.3328 Z -1.0000
G01 X 10.7482 Y 20.3294 Z -1.0000
G01 X 10.7506 Y 20.3016 Z -1.0000
G01 X 10.7874 Y 20.2851 Z -1.0000
G01 X 10.8188 Y 20.2721 Z -1.0000
G01 X 10.8318 Y 20.2410 Z -1.0000
G01 X 10.8270 Y 20.2369 Z -1.0000
G02 X 10.7972 Y 20.2464 Z -1.0000 I 0.0157 J 0.1009
G01 X 10.7656 Y 20.2454 Z -1.0000
G03 X 10.7387 Y 20.2125 Z -1.0000 I 0.0303 J -0.0523
G02 X 10.7204 Y 20.1854 Z -1.0000 I -0.0589 J 0.0200
G02 X 10.6798 Y 20.1619 Z -1.0000 I -0.0832 J 0.0967
G01 X 10.6622 Y 20.1486 Z -1.0000
G01 X 10.6556 Y 20.1280 Z -1.0000
G03 X 10.6603 Y 20.1048 Z -1.0000 I 0.0587 J 0.0000
G03 X 10.6734 Y 20.0866 Z -1.0000 I 0.0483 J 0.0208
G01 X 10.6723 Y 20.0694 Z -1.0000
G01 X 10.6409 Y 20.0639 Z -1.0000
G02 X 10.5757 Y 20.1176 Z -1.0000 I 0.0266 J 0.0987
G02 X 10.5810 Y 20.1859 Z -1.0000 I 0.0605 J 0.0297
G01 X 10.5873 Y 20.2058 Z -1.0000
G03 X 10.5810 Y 20.2315 Z -1.0000 I -0.0560 J 0.0000
G02 X 10.5715 Y 20.2587 Z -1.0000 I 0.0892 J 0.0464
G02 X 10.5674 Y 20.3009 Z -1.0000 I 0.2171 J 0.0422
G03 X 10.5501 Y 20.3822 Z -1.0000 I -0.1992 J 0.0000
G01 X 10.5233 Y 20.3996 Z -1.0000
G02 X 10.4398 Y 20.4166 Z -1.0000 I 0.0000 J 0.2138
G02 X 10.3224 Y 20.4848 Z -1.0000 I 0.2123 J 0.5005
G02 X 10.2952 Y 20.5092 Z -1.0000 I 0.1375 J 0.1804
G02 X 10.2666 Y 20.5437 Z -1.0000 I 0.2481 J 0.2349
G03 X 10.2379 Y 20.5772 Z -1.0000 I -0.2177 J -0.1576
G01 X 10.2233 Y 20.5865 Z -1.0000
G01 X 10.2123 Y 20.5954 Z -1.0000
G01 X 10.2113 Y 20.6054 Z -1.0000
G01 X 10.2120 Y 20.6167 Z -1.0000
G01 X 10.2067 Y 20.6239 Z -1.0000
G01 X 10.2009 Y 20.6233 Z -1.0000
G01 X 10.1973 Y 20.6149 Z -1.0000
G01 X 10.1934 Y 20.6082 Z -1.0000
G01 X 10.1863 Y 20.6088 Z -1.0000
G03 X 10.1743 Y 20.6159 Z -1.0000 I -0.0319 J -0.0405
G03 X 10.1305 Y 20.6321 Z -1.0000 I -0.2226 J -0.5319
G02 X 10.0893 Y 20.6516 Z -1.0000 I 0.0554 J 0.1705
G02 X 10.0661 Y 20.6733 Z -1.0000 I 0.0471 J 0.0737
G02 X 10.0555 Y 20.7015 Z -1.0000 I 0.0445 J 0.0329
G02 X 10.0599 Y 20.7463 Z -1.0000 I 0.1227 J 0.0104
G03 X 10.0680 Y 20.7932 Z -1.0000 I -0.2059 J 0.0599
G03 X 10.0680 Y 20.8806 Z -1.0000 I -0.7195 J 0.0434
G02 X 10.0834 Y 20.9775 Z -1.0000 I 0.2258 J 0.0137
G01 X 10.1148 Y 20.9988 Z -1.0000
G03 X 10.1361 Y 21.0013 Z -1.0000 I -0.0000 J 0.0916
G03 X 10.1547 Y 21.0084 Z -1.0000 I -0.0180 J 0.0751
G01 X 10.1649 Y 21.0218 Z -1.0000
G03 X 10.1662 Y 21.0591 Z -1.0000 I -0.0966 J 0.0219
G02 X 10.1600 Y 21.1002 Z -1.0000 I 4.8643 J 0.7537
G02 X 10.1569 Y 21.1228 Z -1.0000 I 1.2809 J 0.1874
G03 X 10.1408 Y 21.1819 Z -1.0000 I -0.2224 J -0.0287
G03 X 10.1066 Y 21.2408 Z -1.0000 I -0.2538 J -0.1080
G01 X 10.0926 Y 21.2504 Z -1.0000
G01 X 10.0814 Y 21.2481 Z -1.0000
G02 X 9.9978 Y 21.2307 Z -1.0000 I -0.0582 J 0.0701
G02 X 9.8691 Y 21.3097 Z -1.0000 I 0.0794 J 0.2738
G02 X 9.8538 Y 21.3391 Z -1.0000 I 0.0445 J 0.0417
G02 X 9.8448 Y 21.4277 Z -1.0000 I 0.4318 J 0.0886
G03 X 9.8405 Y 21.5188 Z -1.0000 I -0.9582 J -0.0000
G03 X 9.8342 Y 21.5391 Z -1.0000 I -0.0521 J -0.0050
G02 X 9.8276 Y 21.5595 Z -1.0000 I 0.0491 J 0.0271
G02 X 9.8232 Y 21.6291 Z -1.0000 I 0.5944 J 0.0728
G02 X 9.8325 Y 21.6967 Z -1.0000 I 0.2398 J 0.0013
G02 X 9.8569 Y 21.7462 Z -1.0000 I 0.1511 J -0.0434
G03 X 9.8969 Y 21.8226 Z -1.0000 I -0.2331 J 0.1711
G03 X 9.9078 Y 21.8933 Z -1.0000 I -0.1878 J 0.0651
G01 X 9.9154 Y 21.9153 Z -1.0000
G01 X 9.9240 Y 21.9131 Z -1.0000
G01 X 9.9279 Y 21.9203 Z -1.0000
G01 X 9.9396 Y 21.9238 Z -1.0000
G02 X 9.9748 Y 21.9122 Z -1.0000 I -0.0011 J -0.0624
G01 X 9.9858 Y 21.8907 Z -1.0000
G01 X 9.9890 Y 21.8835 Z -1.0000
G01 X 10.0014 Y 21.8763 Z -1.0000
G01 X 10.0143 Y 21.8680 Z -1.0000
G02 X 10.0332 Y 21.8412 Z -1.0000 I -0.1009 J -0.0914
G03 X 10.0610 Y 21.8117 Z -1.0000 I 0.0692 J 0.0373
G03 X 10.0982 Y 21.8009 Z -1.0000 I 0.0380 J 0.0612
G01 X 10.1091 Y 21.8156 Z -1.0000
G03 X 10.0806 Y 21.8569 Z -1.0000 I -0.0810 J -0.0255
G02 X 10.0521 Y 21.8797 Z -1.0000 I 1.1502 J 1.4645
G02 X 10.0365 Y 21.8929 Z -1.0000 I 0.3657 J 0.4474
G03 X 10.0201 Y 21.9038 Z -1.0000 I -0.0492 J -0.0565
G01 X 10.0084 Y 21.9065 Z -1.0000
G01 X 9.9987 Y 21.9104 Z -1.0000
G01 X 9.9902 Y 21.9241 Z -1.0000
G01 X 9.9823 Y 21.9386 Z -1.0000
G01 X 9.9756 Y 21.9417 Z -1.0000
G01 X 9.9678 Y 21.9443 Z -1.0000
G02 X 9.9497 Y 21.9615 Z -1.0000 I 0.0713 J 0.0935
G01 X 9.9350 Y 21.9692 Z -1.0000
G01 X 9.9335 Y 21.9593 Z -1.0000
G01 X 9.9263 Y 21.9531 Z -1.0000
G01 X 9.9200 Y 21.9557 Z -1.0000
G01 X 9.9153 Y 21.9762 Z -1.0000
G01 X 9.9047 Y 22.0058 Z -1.0000
G03 X 9.8495 Y 22.0563 Z -1.0000 I -0.2033 J -0.1673
G02 X 9.7971 Y 22.1051 Z -1.0000 I 0.1315 J 0.1932
G02 X 9.7796 Y 22.1452 Z -1.0000 I 0.0686 J 0.0538
G02 X 9.7827 Y 22.1774 Z -1.0000 I 0.0637 J 0.0102
G02 X 9.8028 Y 22.2091 Z -1.0000 I 0.0818 J -0.0297
G02 X 9.8593 Y 22.2545 Z -1.0000 I 0.2315 J -0.2305
G02 X 9.9329 Y 22.2917 Z -1.0000 I 0.2269 J -0.3576
G02 X 10.0414 Y 22.3051 Z -1.0000 I 0.0810 J -0.2085
G02 X 10.2022 Y 22.2583 Z -1.0000 I -0.0646 J -0.5211
G02 X 10.3208 Y 22.1856 Z -1.0000 I -0.2813 J -0.5920
G02 X 10.3952 Y 22.1096 Z -1.0000 I -0.2334 J -0.3031
G01 X 10.4109 Y 22.1101 Z -1.0000
G01 X 10.4170 Y 22.1435 Z -1.0000
G03 X 10.3873 Y 22.2093 Z -1.0000 I -0.1677 J -0.0360
G01 X 10.3546 Y 22.2282 Z -1.0000
G02 X 10.2759 Y 22.2624 Z -1.0000 I 0.0157 J 0.1438
G02 X 10.2316 Y 22.3341 Z -1.0000 I 0.0912 J 0.1058
G01 X 10.2117 Y 22.3618 Z -1.0000
G01 X 10.1842 Y 22.3647 Z -1.0000
G02 X 10.0525 Y 22.3648 Z -1.0000 I -0.0657 J 0.1729
G02 X 9.9203 Y 22.4655 Z -1.0000 I 0.1050 J 0.2749
G02 X 9.8859 Y 22.5430 Z -1.0000 I 0.1593 J 0.1170
G02 X 9.8887 Y 22.6203 Z -1.0000 I 0.1613 J 0.0329
G02 X 9.9278 Y 22.7178 Z -1.0000 I 0.4693 J -0.1314
G02 X 10.0387 Y 22.9022 Z -1.0000 I 1.8062 J -0.9611
G03 X 10.0808 Y 22.9893 Z -1.0000 I -0.2792 J 0.1887
G03 X 10.0972 Y 23.0872 Z -1.0000 I -0.3386 J 0.1071
G02 X 10.1014 Y 23.1795 Z -1.0000 I 2.3217 J -0.0593
G02 X 10.1044 Y 23.1990 Z -1.0000 I 0.1123 J -0.0073
G03 X 10.1059 Y 23.2180 Z -1.0000 I -0.0545 J 0.0139
G03 X 10.1006 Y 23.2409 Z -1.0000 I -0.0858 J -0.0079
G01 X 10.0873 Y 23.2567 Z -1.0000
G01 X 10.0627 Y 23.2635 Z -1.0000
G03 X 10.0260 Y 23.2497 Z -1.0000 I -0.0000 J -0.0554
G01 X 10.0122 Y 23.2190 Z -1.0000
G02 X 9.9978 Y 23.1722 Z -1.0000 I -0.0833 J 0.0000
G01 X 9.9705 Y 23.1578 Z -1.0000
G03 X 9.8263 Y 23.0863 Z -1.0000 I 0.0000 J -0.1814
G03 X 9.8335 Y 22.9781 Z -1.0000 I 0.0656 J -0.0500
G01 X 9.8349 Y 22.9730 Z -1.0000
G01 X 9.8293 Y 22.9619 Z -1.0000
G01 X 9.8223 Y 22.9497 Z -1.0000
G03 X 9.8170 Y 22.9286 Z -1.0000 I 0.0941 J -0.0348
G01 X 9.8089 Y 22.9117 Z -1.0000
G01 X 9.7936 Y 22.9037 Z -1.0000
G01 X 9.7767 Y 22.8965 Z -1.0000
G01 X 9.7653 Y 22.8817 Z -1.0000
G02 X 9.7337 Y 22.8334 Z -1.0000 I -0.1465 J 0.0615
G01 X 9.7091 Y 22.8229 Z -1.0000
G03 X 9.6492 Y 22.7917 Z -1.0000 I 0.0000 J -0.0731
G01 X 9.6608 Y 22.7539 Z -1.0000
G01 X 9.6692 Y 22.7376 Z -1.0000
G02 X 9.6465 Y 22.6995 Z -1.0000 I -0.0776 J 0.0205
G03 X 9.6267 Y 22.6779 Z -1.0000 I 0.1323 J -0.1409
G01 X 9.6245 Y 22.6714 Z -1.0000
G01 X 9.6384 Y 22.6508 Z -1.0000
G03 X 9.7535 Y 22.6195 Z -1.0000 I 0.1898 J 0.4718
G02 X 9.8253 Y 22.6048 Z -1.0000 I -0.0952 J -0.6451
G01 X 9.8364 Y 22.5976 Z -1.0000
G01 X 9.8450 Y 22.5657 Z -1.0000
G02 X 9.8178 Y 22.4860 Z -1.0000 I -0.2549 J 0.0426
G03 X 9.8122 Y 22.4700 Z -1.0000 I 0.0465 J -0.0251
G03 X 9.8095 Y 22.4391 Z -1.0000 I 0.1765 J -0.0309
G02 X 9.8054 Y 22.4092 Z -1.0000 I -0.1100 J -0.0000
G01 X 9.7971 Y 22.3950 Z -1.0000
G03 X 9.7860 Y 22.3818 Z -1.0000 I 0.0665 J -0.0669
G01 X 9.7811 Y 22.3720 Z -1.0000
G01 X 9.7649 Y 22.3598 Z -1.0000
G02 X 9.6068 Y 22.3636 Z -1.0000 I -0.0525 J 1.0827
G03 X 9.5848 Y 22.3648 Z -1.0000 I -0.0236 J -0.2385
G03 X 9.4318 Y 22.3648 Z -1.0000 I -0.0796 J -12.3569
G02 X 9.2794 Y 22.3682 Z -1.0000 I -0.0165 J 2.7061
G02 X 9.2481 Y 22.3740 Z -1.0000 I 0.0060 J 0.1187
G03 X 9.2173 Y 22.3804 Z -1.0000 I -0.0424 J -0.1275
G03 X 9.1915 Y 22.3789 Z -1.0000 I -0.0078 J -0.0904
G02 X 9.1654 Y 22.3768 Z -1.0000 I -0.0218 J 0.1077
G02 X 9.1020 Y 22.3823 Z -1.0000 I 0.0265 J 0.6737
G03 X 9.0383 Y 22.3884 Z -1.0000 I -0.1065 J -0.7747
G03 X 8.8809 Y 22.3945 Z -1.0000 I -0.2663 J -4.8629
G02 X 8.7275 Y 22.4075 Z -1.0000 I 0.0278 J 1.2401
G01 X 8.7003 Y 22.4212 Z -1.0000
G02 X 8.6858 Y 22.4478 Z -1.0000 I 0.0382 J 0.0381
G02 X 8.6785 Y 22.5213 Z -1.0000 I 0.3116 J 0.0678
G02 X 8.6873 Y 22.5964 Z -1.0000 I 0.3855 J -0.0068
G02 X 8.7081 Y 22.6572 Z -1.0000 I 0.2718 J -0.0591
G02 X 8.7756 Y 22.7312 Z -1.0000 I 0.1557 J -0.0744
G02 X 8.8533 Y 22.7435 Z -1.0000 I 0.0544 J -0.0916
G03 X 8.9073 Y 22.7351 Z -1.0000 I 0.0910 J 0.4047
G03 X 9.3014 Y 22.7034 Z -1.0000 I 1.9624 J 21.9061
G03 X 9.4920 Y 22.6966 Z -1.0000 I 0.1882 J 2.6330
G01 X 9.5151 Y 22.7035 Z -1.0000
G03 X 9.5373 Y 22.7345 Z -1.0000 I -0.0289 J 0.0441
G01 X 9.5286 Y 22.7561 Z -1.0000
G01 X 9.5238 Y 22.7627 Z -1.0000
G02 X 9.5146 Y 22.8205 Z -1.0000 I 0.5203 J 0.1125
G03 X 9.5056 Y 22.8796 Z -1.0000 I -0.6162 J -0.0637
G03 X 9.4874 Y 22.9550 Z -1.0000 I -1.0236 J -0.2070
G02 X 9.4553 Y 23.0895 Z -1.0000 I 1.7069 J 0.4795
G02 X 9.4306 Y 23.2414 Z -1.0000 I 2.1549 J 0.4275
G03 X 9.4182 Y 23.3202 Z -1.0000 I -1.2786 J -0.1618
G03 X 9.4045 Y 23.3790 Z -1.0000 I -0.7214 J -0.1371
G02 X 9.3710 Y 23.5509 Z -1.0000 I 1.0846 J 0.3002
G02 X 9.3751 Y 23.6346 Z -1.0000 I 0.2561 J 0.0294
G03 X 9.3775 Y 23.6746 Z -1.0000 I -0.1286 J 0.0278
G03 X 9.3684 Y 23.7073 Z -1.0000 I -0.0945 J -0.0088
G02 X 9.3582 Y 23.7359 Z -1.0000 I 0.1232 J 0.0599
G01 X 9.3609 Y 23.7393 Z -1.0000
G01 X 9.3707 Y 23.7522 Z -1.0000
G03 X 9.3451 Y 23.7959 Z -1.0000 I -0.0960 J -0.0267
G03 X 9.3197 Y 23.8135 Z -1.0000 I -0.0611 J -0.0611
G01 X 9.3033 Y 23.8149 Z -1.0000
G02 X 9.2851 Y 23.8111 Z -1.0000 I -0.0407 J 0.1497
G02 X 9.2698 Y 23.8099 Z -1.0000 I -0.0166 J 0.1135
G01 X 9.2562 Y 23.8054 Z -1.0000
G03 X 9.2192 Y 23.7735 Z -1.0000 I 0.1608 J -0.2239
G03 X 9.1911 Y 23.7354 Z -1.0000 I 0.1248 J -0.1211
G01 X 9.1889 Y 23.7178 Z -1.0000
G01 X 9.1886 Y 23.7000 Z -1.0000
G01 X 9.1800 Y 23.6869 Z -1.0000
G03 X 9.1540 Y 23.6346 Z -1.0000 I 0.0461 J -0.0556
G01 X 9.1757 Y 23.5935 Z -1.0000
G01 X 9.1805 Y 23.5854 Z -1.0000
G02 X 9.1793 Y 23.5335 Z -1.0000 I -0.3108 J -0.0191
G03 X 9.1746 Y 23.4619 Z -1.0000 I 0.9219 J -0.0978
G03 X 9.1746 Y 23.3647 Z -1.0000 I 1.6964 J -0.0479
G02 X 9.1751 Y 23.2943 Z -1.0000 I -1.6498 J -0.0477
G02 X 9.1727 Y 23.2305 Z -1.0000 I -1.3472 J 0.0186
G03 X 9.1712 Y 23.1677 Z -1.0000 I 0.8601 J -0.0528
G01 X 9.1735 Y 23.1621 Z -1.0000
G01 X 9.1764 Y 23.1566 Z -1.0000
G02 X 9.1810 Y 23.1201 Z -1.0000 I -0.3551 J -0.0633
G03 X 9.1980 Y 22.9958 Z -1.0000 I 1.0119 J 0.0755
G01 X 9.2107 Y 22.9722 Z -1.0000
G01 X 9.2202 Y 22.9564 Z -1.0000
G01 X 9.2177 Y 22.9497 Z -1.0000
G01 X 9.2156 Y 22.9439 Z -1.0000
G01 X 9.2224 Y 22.9357 Z -1.0000
G01 X 9.2298 Y 22.9205 Z -1.0000
G01 X 9.2187 Y 22.9109 Z -1.0000
G02 X 9.1621 Y 22.9332 Z -1.0000 I 0.0000 J 0.0832
G02 X 9.1398 Y 22.9842 Z -1.0000 I 0.0475 J 0.0511
G03 X 9.1321 Y 23.0167 Z -1.0000 I -0.0723 J -0.0000
G03 X 9.0933 Y 23.0767 Z -1.0000 I -0.2952 J -0.1486
G01 X 9.0864 Y 23.0895 Z -1.0000
G02 X 9.0682 Y 23.1560 Z -1.0000 I 0.8304 J 0.2628
G03 X 9.0508 Y 23.2232 Z -1.0000 I -1.3148 J -0.3042
G03 X 9.0339 Y 23.2759 Z -1.0000 I -0.8252 J -0.2362
G02 X 9.0233 Y 23.3294 Z -1.0000 I 0.1746 J 0.0624
G02 X 9.0160 Y 23.6483 Z -1.0000 I 6.3290 J 0.3039
G01 X 9.0168 Y 23.9685 Z -1.0000
G01 X 8.9506 Y 23.9999 Z -1.0000
G02 X 8.8862 Y 24.0331 Z -1.0000 I 0.4852 J 1.0221
G01 X 8.8795 Y 24.0395 Z -1.0000
G01 X 8.8676 Y 24.0424 Z -1.0000
G01 X 8.8596 Y 24.0278 Z -1.0000
G03 X 8.8627 Y 24.0085 Z -1.0000 I 0.0779 J 0.0026
G03 X 8.8823 Y 23.9507 Z -1.0000 I 0.7251 J 0.2131
G02 X 8.9002 Y 23.8925 Z -1.0000 I -0.4170 J -0.1601
G02 X 8.9147 Y 23.8123 Z -1.0000 I -0.7753 J -0.1815
G02 X 8.9171 Y 23.7339 Z -1.0000 I -0.4013 J -0.0515
G01 X 8.9081 Y 23.7142 Z -1.0000
G03 X 8.8952 Y 23.6951 Z -1.0000 I 0.0428 J -0.0430
G03 X 8.8825 Y 23.6543 Z -1.0000 I 0.1919 J -0.0822
G03 X 8.8771 Y 23.6042 Z -1.0000 I 0.2692 J -0.0545
G03 X 8.8798 Y 23.4861 Z -1.0000 I 1.5102 J -0.0242
G02 X 8.8795 Y 23.3827 Z -1.0000 I -0.7976 J -0.0497
G01 X 8.8722 Y 23.3728 Z -1.0000
G01 X 8.8608 Y 23.3651 Z -1.0000
G01 X 8.8576 Y 23.3572 Z -1.0000
G01 X 8.8398 Y 23.3329 Z -1.0000
G02 X 8.7382 Y 23.3169 Z -1.0000 I -0.0978 J 0.2900
G02 X 8.6636 Y 23.3354 Z -1.0000 I 0.0021 J 0.1681
G02 X 8.6092 Y 23.3831 Z -1.0000 I 0.0678 J 0.1323
G02 X 8.5751 Y 23.4584 Z -1.0000 I 0.1883 J 0.1304
G02 X 8.5541 Y 23.6054 Z -1.0000 I 0.7161 J 0.1773
G02 X 8.5577 Y 23.7125 Z -1.0000 I 0.7234 J 0.0298
G02 X 8.5716 Y 23.7677 Z -1.0000 I 0.2037 J -0.0219
G03 X 8.5851 Y 23.8687 Z -1.0000 I -0.1885 J 0.0766
G03 X 8.5416 Y 24.0161 Z -1.0000 I -0.4600 J -0.0555
G02 X 8.4469 Y 24.2151 Z -1.0000 I 10.8439 J 5.2832
G02 X 8.4327 Y 24.2504 Z -1.0000 I 0.3240 J 0.1506
G02 X 8.4032 Y 24.3737 Z -1.0000 I 0.6418 J 0.2190
G02 X 8.3926 Y 24.5323 Z -1.0000 I 1.0549 J 0.1503
G03 X 8.3819 Y 24.7126 Z -1.0000 I -1.3494 J 0.0106
G03 X 8.3593 Y 24.7948 Z -1.0000 I -0.2988 J -0.0379
G02 X 8.3502 Y 24.8529 Z -1.0000 I 0.1071 J 0.0466
G02 X 8.3696 Y 24.8980 Z -1.0000 I 0.0809 J -0.0081
G03 X 8.4082 Y 24.9623 Z -1.0000 I -0.1652 J 0.1428
G03 X 8.4133 Y 25.0115 Z -1.0000 I -0.0887 J 0.0342
G03 X 8.3909 Y 25.0650 Z -1.0000 I -0.1217 J -0.0195
G01 X 8.3640 Y 25.0787 Z -1.0000
G02 X 8.3163 Y 25.0901 Z -1.0000 I -0.0000 J 0.1051
G02 X 8.2458 Y 25.1388 Z -1.0000 I 0.1456 J 0.2861
G02 X 8.2198 Y 25.1693 Z -1.0000 I 0.1062 J 0.1168
G02 X 8.2049 Y 25.2016 Z -1.0000 I 0.1040 J 0.0679
G02 X 8.2018 Y 25.2378 Z -1.0000 I 0.0852 J 0.0255
G02 X 8.2280 Y 25.3914 Z -1.0000 I 1.6166 J -0.1972
G03 X 8.2814 Y 25.7400 Z -1.0000 I -2.6447 J 0.5834
G01 X 8.2620 Y 25.7824 Z -1.0000
G01 X 8.2535 Y 25.7928 Z -1.0000
G02 X 8.2071 Y 25.9026 Z -1.0000 I 1.8808 J 0.8586
G02 X 8.1670 Y 26.0411 Z -1.0000 I 0.7572 J 0.2942
G02 X 8.1690 Y 26.0978 Z -1.0000 I 0.1238 J 0.0242
G02 X 8.2197 Y 26.1864 Z -1.0000 I 0.1927 J -0.0515
G02 X 8.3247 Y 26.2557 Z -1.0000 I 0.2162 J -0.2132
G01 X 8.3600 Y 26.2696 Z -1.0000
G01 X 8.3367 Y 26.2888 Z -1.0000
G02 X 8.2753 Y 26.3895 Z -1.0000 I 0.1152 J 0.1393
G02 X 8.2628 Y 26.6273 Z -1.0000 I 0.7190 J 0.1569
G03 X 8.2636 Y 26.6817 Z -1.0000 I -0.2796 J 0.0309
G03 X 8.2546 Y 26.7252 Z -1.0000 I -0.1871 J -0.0157
G02 X 8.2484 Y 26.7826 Z -1.0000 I 0.1294 J 0.0430
G02 X 8.2715 Y 26.8844 Z -1.0000 I 0.4443 J -0.0471
G03 X 8.2670 Y 26.9476 Z -1.0000 I -0.0748 J 0.0265
G01 X 8.2251 Y 26.9732 Z -1.0000
G02 X 8.1756 Y 26.9862 Z -1.0000 I 0.0005 J 0.1023
G02 X 8.1138 Y 27.0355 Z -1.0000 I 0.1193 J 0.2130
G02 X 8.0603 Y 27.1493 Z -1.0000 I 0.1602 J 0.1447
G02 X 8.0335 Y 27.5901 Z -1.0000 I 2.6369 J 0.3817
G02 X 8.0403 Y 27.8677 Z -1.0000 I 55.4673 J -1.2316
G02 X 8.0420 Y 27.9030 Z -1.0000 I 0.8883 J -0.0242
G03 X 8.0442 Y 27.9382 Z -1.0000 I -3.5134 J 0.2356
G03 X 8.0505 Y 28.0528 Z -1.0000 I -38.1752 J 2.1749
G02 X 8.0916 Y 28.1945 Z -1.0000 I 0.3258 J -0.0176
G02 X 8.1727 Y 28.2710 Z -1.0000 I 0.1623 J -0.0909
G03 X 8.2307 Y 28.3106 Z -1.0000 I -0.1052 J 0.2167
G01 X 8.2410 Y 28.3339 Z -1.0000
G02 X 8.2439 Y 28.3633 Z -1.0000 I 0.1476 J -0.0000
G02 X 8.2586 Y 28.4208 Z -1.0000 I 0.5860 J -0.1189
G02 X 8.2843 Y 28.4728 Z -1.0000 I 0.1735 J -0.0536
G02 X 8.3467 Y 28.5441 Z -1.0000 I 0.3942 J -0.2817
G03 X 8.3989 Y 28.6234 Z -1.0000 I -0.1402 J 0.1491
G03 X 8.4066 Y 28.7092 Z -1.0000 I -0.1580 J 0.0573
G02 X 8.4273 Y 28.8629 Z -1.0000 I 0.2557 J 0.0438
G02 X 8.5385 Y 28.9915 Z -1.0000 I 0.2827 J -0.1321
G03 X 8.6120 Y 29.0598 Z -1.0000 I -0.1652 J 0.2512
G03 X 8.6287 Y 29.1091 Z -1.0000 I -0.0643 J 0.0493
G03 X 8.6251 Y 29.1558 Z -1.0000 I -0.3029 J -0.0000
G03 X 8.6154 Y 29.1941 Z -1.0000 I -0.2119 J -0.0331
G02 X 8.6055 Y 29.2324 Z -1.0000 I 0.2173 J 0.0766
G02 X 8.5964 Y 29.3070 Z -1.0000 I 0.8198 J 0.1384
G01 X 8.5906 Y 29.3823 Z -1.0000
G01 X 8.5355 Y 29.4366 Z -1.0000
G02 X 8.4764 Y 29.5230 Z -1.0000 I 0.1925 J 0.1954
G02 X 8.4671 Y 29.5946 Z -1.0000 I 0.1196 J 0.0518
G02 X 8.4963 Y 29.6733 Z -1.0000 I 0.2064 J -0.0317
G02 X 8.5874 Y 29.7875 Z -1.0000 I 0.5370 J -0.3346
G01 X 8.6659 Y 29.8656 Z -1.0000
G01 X 8.6598 Y 29.9469 Z -1.0000
G02 X 8.6687 Y 30.0573 Z -1.0000 I 0.3567 J 0.0268
G02 X 8.7006 Y 30.1162 Z -1.0000 I 0.1271 J -0.0306
G01 X 8.7028 Y 30.1394 Z -1.0000
G03 X 8.6608 Y 30.1794 Z -1.0000 I -0.1003 J -0.0631
G02 X 8.5825 Y 30.2440 Z -1.0000 I 0.1426 J 0.2526
G02 X 8.5359 Y 30.3261 Z -1.0000 I 0.1914 J 0.1630
G02 X 8.5262 Y 30.3752 Z -1.0000 I 0.1785 J 0.0607
G02 X 8.5293 Y 30.4326 Z -1.0000 I 0.2491 J 0.0153
G02 X 8.5617 Y 30.5178 Z -1.0000 I 0.2327 J -0.0399
G02 X 8.6173 Y 30.5737 Z -1.0000 I 0.1502 J -0.0937
G03 X 8.6514 Y 30.5999 Z -1.0000 I -0.1249 J 0.1976
G01 X 8.6596 Y 30.6129 Z -1.0000
G01 X 8.6569 Y 30.6486 Z -1.0000
G03 X 8.5986 Y 30.7361 Z -1.0000 I -0.3697 J -0.1834
G02 X 8.5674 Y 30.7891 Z -1.0000 I 0.1269 J 0.1104
G02 X 8.5548 Y 30.8567 Z -1.0000 I 0.1976 J 0.0717
G02 X 8.5617 Y 30.9055 Z -1.0000 I 0.1544 J 0.0030
G02 X 8.5844 Y 30.9519 Z -1.0000 I 0.1622 J -0.0504
G02 X 8.6384 Y 31.0141 Z -1.0000 I 0.3136 J -0.2176
G02 X 8.6984 Y 31.0577 Z -1.0000 I 0.2104 J -0.2268
G03 X 8.7293 Y 31.0762 Z -1.0000 I -0.2814 J 0.5059
G01 X 8.7345 Y 31.0808 Z -1.0000
G02 X 8.7837 Y 31.1157 Z -1.0000 I 0.0855 J -0.0686
G02 X 8.8826 Y 31.1326 Z -1.0000 I 0.0999 J -0.2856
G01 X 8.8969 Y 31.1351 Z -1.0000
G03 X 8.9239 Y 31.1471 Z -1.0000 I -0.0603 J 0.1724
G02 X 8.9511 Y 31.1584 Z -1.0000 I 0.0666 J -0.1222
G02 X 8.9691 Y 31.1605 Z -1.0000 I 0.0151 J -0.0510
G01 X 8.9739 Y 31.1659 Z -1.0000
G01 X 8.9647 Y 31.1837 Z -1.0000
G03 X 8.9406 Y 31.2070 Z -1.0000 I -0.3085 J -0.2946
G03 X 8.9001 Y 31.2415 Z -1.0000 I -0.7172 J -0.8017
G02 X 8.8392 Y 31.3122 Z -1.0000 I 0.1648 J 0.2037
G02 X 8.8226 Y 31.3731 Z -1.0000 I 0.1035 J 0.0610
G02 X 8.8502 Y 31.4665 Z -1.0000 I 0.1717 J -0.0000
G02 X 8.9299 Y 31.5386 Z -1.0000 I 0.1753 J -0.1137
G03 X 8.9611 Y 31.5567 Z -1.0000 I -0.1593 J 0.3097
G01 X 8.9670 Y 31.5629 Z -1.0000
G01 X 8.9657 Y 31.5687 Z -1.0000
G03 X 8.9039 Y 31.6044 Z -1.0000 I -0.3342 J -0.5082
G02 X 8.8211 Y 31.6616 Z -1.0000 I 0.1613 J 0.3219
G02 X 8.7732 Y 31.7249 Z -1.0000 I 0.1521 J 0.1649
G02 X 8.7580 Y 31.7679 Z -1.0000 I 0.1573 J 0.0799
G02 X 8.7521 Y 31.8236 Z -1.0000 I 0.2602 J 0.0557
G03 X 8.7433 Y 31.8772 Z -1.0000 I -0.1677 J -0.0000
G03 X 8.7216 Y 31.9140 Z -1.0000 I -0.0979 J -0.0330
G02 X 8.6933 Y 31.9489 Z -1.0000 I 0.2635 J 0.2415
G02 X 8.6679 Y 31.9897 Z -1.0000 I 0.3343 J 0.2366
G02 X 8.6518 Y 32.0337 Z -1.0000 I 0.1396 J 0.0760
G02 X 8.6488 Y 32.0825 Z -1.0000 I 0.1698 J 0.0349
G02 X 8.6546 Y 32.1325 Z -1.0000 I 0.7224 J -0.0580
G02 X 8.6611 Y 32.1636 Z -1.0000 I 0.2859 J -0.0431
G03 X 8.6569 Y 32.2093 Z -1.0000 I -0.0646 J 0.0172
G03 X 8.6194 Y 32.2521 Z -1.0000 I -0.0932 J -0.0439
G02 X 8.5789 Y 32.2817 Z -1.0000 I 0.2203 J 0.3433
G01 X 8.5758 Y 32.2883 Z -1.0000
G01 X 8.5739 Y 32.2959 Z -1.0000
G03 X 8.5570 Y 32.3220 Z -1.0000 I -0.2138 J -0.1194
G02 X 8.5453 Y 32.3496 Z -1.0000 I 0.0515 J 0.0381
G02 X 8.5429 Y 32.4071 Z -1.0000 I 0.2327 J 0.0386
G02 X 8.5521 Y 32.4642 Z -1.0000 I 0.3632 J -0.0291
G01 X 8.5596 Y 32.4759 Z -1.0000
G01 X 8.5698 Y 32.4867 Z -1.0000
G03 X 8.5815 Y 32.5075 Z -1.0000 I -0.1042 J 0.0720
G02 X 8.5947 Y 32.5271 Z -1.0000 I 0.0605 J -0.0267
G02 X 8.6283 Y 32.5555 Z -1.0000 I 0.1654 J -0.1616
G02 X 8.6679 Y 32.5731 Z -1.0000 I 0.0662 J -0.0955
G02 X 8.7396 Y 32.5817 Z -1.0000 I 0.0739 J -0.3142
G01 X 8.8138 Y 32.5822 Z -1.0000
G01 X 8.8234 Y 32.6112 Z -1.0000
G03 X 8.8289 Y 32.6407 Z -1.0000 I -0.1047 J 0.0346
G03 X 8.8271 Y 32.6912 Z -1.0000 I -0.3122 J 0.0144
G02 X 8.8335 Y 32.8087 Z -1.0000 I 0.3464 J 0.0402
G02 X 8.8656 Y 32.8606 Z -1.0000 I 0.0915 J -0.0208
G01 X 8.8849 Y 32.8696 Z -1.0000
G02 X 8.9657 Y 32.8797 Z -1.0000 I 0.1187 J -0.6244
G03 X 9.0470 Y 32.8910 Z -1.0000 I -0.0309 J 0.5182
G03 X 9.1062 Y 32.9107 Z -1.0000 I -0.0650 J 0.2937
G03 X 9.1620 Y 32.9390 Z -1.0000 I -0.2934 J 0.6472
G01 X 9.1699 Y 32.9467 Z -1.0000
G01 X 9.1741 Y 32.9571 Z -1.0000
G03 X 9.1806 Y 32.9985 Z -1.0000 I -0.4367 J 0.0902
G02 X 9.2350 Y 33.1365 Z -1.0000 I 0.2806 J -0.0309
G02 X 9.3337 Y 33.2035 Z -1.0000 I 0.1461 J -0.1092
G03 X 9.3719 Y 33.2318 Z -1.0000 I -0.0168 J 0.0625
G03 X 9.3843 Y 33.2850 Z -1.0000 I -0.0725 J 0.0450
G02 X 9.3840 Y 33.3309 Z -1.0000 I 0.2575 J 0.0249
G02 X 9.3918 Y 33.3772 Z -1.0000 I 0.2707 J -0.0221
G03 X 9.4007 Y 33.4231 Z -1.0000 I -0.3561 J 0.0926
G01 X 9.3993 Y 33.4351 Z -1.0000
G01 X 9.3925 Y 33.4456 Z -1.0000
G03 X 9.3559 Y 33.4795 Z -1.0000 I -0.3549 J -0.3470
G02 X 9.3204 Y 33.5145 Z -1.0000 I 0.1979 J 0.2367
G02 X 9.2972 Y 33.5474 Z -1.0000 I 0.1522 J 0.1315
G03 X 9.2735 Y 33.5779 Z -1.0000 I -0.1122 J -0.0630
G01 X 9.2548 Y 33.5876 Z -1.0000
G02 X 9.2077 Y 33.5984 Z -1.0000 I 0.1899 J 0.9346
G02 X 9.1280 Y 33.6201 Z -1.0000 I 0.6936 J 2.7038
G02 X 9.0450 Y 33.6871 Z -1.0000 I 0.0381 J 0.1321
G02 X 8.9997 Y 33.8586 Z -1.0000 I 0.3352 J 0.1803
G02 X 9.0058 Y 33.9339 Z -1.0000 I 0.3607 J 0.0083
G02 X 9.0198 Y 33.9652 Z -1.0000 I 0.0732 J -0.0138
G02 X 9.0729 Y 34.0042 Z -1.0000 I 0.0928 J -0.0708
G02 X 9.1800 Y 34.0232 Z -1.0000 I 0.1084 J -0.2995
G03 X 9.2204 Y 34.0347 Z -1.0000 I -0.0003 J 0.0776
G03 X 9.2442 Y 34.0627 Z -1.0000 I -0.0313 J 0.0508
G02 X 9.2846 Y 34.1200 Z -1.0000 I 0.1469 J -0.0607
G02 X 9.3811 Y 34.1863 Z -1.0000 I 0.2979 J -0.3298
G03 X 9.4128 Y 34.2072 Z -1.0000 I -0.0769 J 0.1511
G03 X 9.5073 Y 34.2916 Z -1.0000 I -1.2064 J 1.4468
G02 X 9.6007 Y 34.3779 Z -1.0000 I 2.7113 J -2.8392
G02 X 9.6295 Y 34.4010 Z -1.0000 I 0.2208 J -0.2468
G01 X 9.6486 Y 34.4316 Z -1.0000
G03 X 9.6423 Y 34.4790 Z -1.0000 I -0.0814 J 0.0133
G02 X 9.6133 Y 34.5711 Z -1.0000 I 0.3651 J 0.1657
G02 X 9.6131 Y 34.6355 Z -1.0000 I 0.1750 J 0.0327
G02 X 9.6302 Y 34.6785 Z -1.0000 I 0.1156 J -0.0209
G02 X 9.6782 Y 34.7358 Z -1.0000 I 0.2565 J -0.1665
G02 X 9.7312 Y 34.7724 Z -1.0000 I 0.1513 J -0.1624
G02 X 9.9051 Y 34.8478 Z -1.0000 I 0.8506 J -1.7223
G03 X 10.0316 Y 34.9038 Z -1.0000 I -0.4326 J 1.1494
G03 X 10.1814 Y 34.9891 Z -1.0000 I -0.8681 J 1.6977
G02 X 10.2155 Y 35.0096 Z -1.0000 I 0.4808 J -0.7616
G02 X 10.2744 Y 35.0423 Z -1.0000 I 1.2838 J -2.2480
G03 X 10.3324 Y 35.0764 Z -1.0000 I -0.4006 J 0.7458
G03 X 10.3771 Y 35.1084 Z -1.0000 I -0.3073 J 0.4771
G02 X 10.4223 Y 35.1398 Z -1.0000 I 0.2735 J -0.3457
G02 X 10.4785 Y 35.1698 Z -1.0000 I 0.3068 J -0.5065
G03 X 10.8001 Y 35.3372 Z -1.0000 I -1.7766 J 3.8048
G03 X 10.8272 Y 35.3709 Z -1.0000 I -0.0299 J 0.0518
G03 X 10.8307 Y 35.3887 Z -1.0000 I -0.0809 J 0.0253
G03 X 10.8328 Y 35.4349 Z -1.0000 I -0.5151 J 0.0462
G02 X 10.8493 Y 35.5471 Z -1.0000 I 0.3909 J -0.0004
G02 X 10.8776 Y 35.5839 Z -1.0000 I 0.0626 J -0.0188
G01 X 10.8825 Y 35.5922 Z -1.0000
G03 X 10.8949 Y 35.8616 Z -1.0000 I -8.1482 J 0.5081
G02 X 10.9059 Y 36.1333 Z -1.0000 I 12.0123 J -0.3534
G02 X 10.9122 Y 36.1933 Z -1.0000 I 0.5840 J -0.0304
G02 X 10.9510 Y 36.3093 Z -1.0000 I 0.3628 J -0.0568
G02 X 11.0238 Y 36.4027 Z -1.0000 I 0.3040 J -0.1621
G02 X 11.1504 Y 36.4893 Z -1.0000 I 0.3813 J -0.4214
G02 X 11.3305 Y 36.5565 Z -1.0000 I 0.4006 J -0.7988
G03 X 11.4097 Y 36.5797 Z -1.0000 I -0.2846 J 1.1181
G03 X 11.4495 Y 36.5960 Z -1.0000 I -0.0990 J 0.2979
G02 X 11.5516 Y 36.6388 Z -1.0000 I 0.4026 J -0.8169
G02 X 11.6495 Y 36.6659 Z -1.0000 I 0.2520 J -0.7213
G03 X 11.7274 Y 36.6942 Z -1.0000 I -0.0577 J 0.2799
G03 X 11.7569 Y 36.7238 Z -1.0000 I -0.0343 J 0.0637
G01 X 11.7594 Y 36.7471 Z -1.0000
G03 X 11.7286 Y 36.8237 Z -1.0000 I -0.3722 J -0.1055
G02 X 11.6494 Y 37.0286 Z -1.0000 I 0.8026 J 0.4278
G02 X 11.6597 Y 37.0960 Z -1.0000 I 0.0852 J 0.0215
G02 X 11.6941 Y 37.1271 Z -1.0000 I 0.0701 J -0.0430
G02 X 11.7910 Y 37.1593 Z -1.0000 I 0.1733 J -0.3597
G03 X 11.8465 Y 37.1720 Z -1.0000 I -0.1696 J 0.8702
G03 X 11.8667 Y 37.1792 Z -1.0000 I -0.0319 J 0.1214
G03 X 11.8974 Y 37.2074 Z -1.0000 I -0.0279 J 0.0612
G03 X 11.9209 Y 37.2755 Z -1.0000 I -0.1750 J 0.0985
G02 X 11.9292 Y 37.3133 Z -1.0000 I 0.3017 J -0.0466
G01 X 11.9352 Y 37.3250 Z -1.0000
G01 X 11.9399 Y 37.3358 Z -1.0000
G01 X 11.9383 Y 37.3441 Z -1.0000
G01 X 11.9375 Y 37.3521 Z -1.0000
G01 X 11.9464 Y 37.3659 Z -1.0000
G03 X 11.9580 Y 37.3799 Z -1.0000 I -0.0694 J 0.0693
G01 X 11.9597 Y 37.3854 Z -1.0000
G01 X 11.9694 Y 37.4045 Z -1.0000
G02 X 12.0258 Y 37.4333 Z -1.0000 I 0.1209 J -0.1668
G02 X 12.0634 Y 37.4362 Z -1.0000 I 0.0245 J -0.0743
G02 X 12.2064 Y 37.4026 Z -1.0000 I -0.1988 J -1.1679
G03 X 12.3753 Y 37.3601 Z -1.0000 I 0.5484 J 1.8200
G03 X 12.4515 Y 37.3527 Z -1.0000 I 0.0734 J 0.3600
G03 X 12.4934 Y 37.3554 Z -1.0000 I -0.0028 J 0.3625
