%
(Header)
(Generated by gcodetools from Inkscape.)
(Using default header. To add your own header create file "header" in the output dir.)
M3
(Header end.)
G21 (All units in mm)

(Start cutting path id: path56059)
(Change tool to Default tool)

G00 Z5.000000
G00 X27.834746 Y3.584417

G01 Z-1.000000 F100.0(Penetrate)
G01 X27.822036 Y3.604557 Z-1.000000 F3500.000000
G01 X27.840416 Y3.626027 Z-1.000000
G02 X27.860238 Y3.644352 Z-1.000000 I0.088126 J-0.075441
G01 X27.869896 Y3.647497 Z-1.000000
G01 X27.880103 Y3.650189 Z-1.000000
G03 X27.917776 Y3.674647 Z-1.000000 I-0.184825 J0.325940
G02 X27.955733 Y3.699765 Z-1.000000 I0.264136 J-0.357902
G02 X27.989606 Y3.717077 Z-1.000000 I0.158770 J-0.268867
G03 X28.010868 Y3.733337 Z-1.000000 I-0.022320 J0.051218
G01 X28.009416 Y3.741767 Z-1.000000
G01 X27.994176 Y3.751167 Z-1.000000
G01 X28.013976 Y3.758767 Z-1.000000
G02 X28.068216 Y3.767553 Z-1.000000 I0.048167 J-0.125533
G01 X28.079386 Y3.755867 Z-1.000000
G01 X28.075417 Y3.748275 Z-1.000000
G02 X28.052636 Y3.737237 Z-1.000000 I-0.046440 J0.066820
G01 X28.039388 Y3.728461 Z-1.000000
G01 X28.040746 Y3.722977 Z-1.000000
G01 X28.050536 Y3.706541 Z-1.000000
G01 X28.037746 Y3.695047 Z-1.000000
G01 X28.024191 Y3.690784 Z-1.000000
G01 X28.019916 Y3.682587 Z-1.000000
G01 X28.015244 Y3.673167 Z-1.000000
G02 X27.983446 Y3.654787 Z-1.000000 I-0.088537 J0.116476
G03 X27.952581 Y3.636712 Z-1.000000 I0.052010 J-0.124204
G01 X27.949866 Y3.628617 Z-1.000000
G01 X27.935586 Y3.588468 Z-1.000000
G02 X27.860586 Y3.564287 Z-1.000000 I-0.075000 J0.104218
G01 X27.849545 Y3.568080 Z-1.000000
G02 X27.834716 Y3.584427 Z-1.000000 I0.039555 J0.050781
G01 X27.834746 Y3.584417 Z-1.000000
G00 Z5.000000

(End cutting path id: path56059)


(Start cutting path id: path56059)
(Change tool to Default tool)

G00 Z5.000000
G00 X27.759286 Y3.640457

G01 Z-1.000000 F100.0(Penetrate)
G01 X27.753149 Y3.655959 Z-1.000000 F3500.000000
G01 X27.757786 Y3.664937 Z-1.000000
G01 X27.781312 Y3.664544 Z-1.000000
G01 X27.794026 Y3.640817 Z-1.000000
G01 X27.782846 Y3.629522 Z-1.000000
G01 X27.759236 Y3.640460 Z-1.000000
G01 X27.759286 Y3.640457 Z-1.000000
G00 Z5.000000

(End cutting path id: path56059)


(Start cutting path id: path56059)
(Change tool to Default tool)

G00 Z5.000000
G00 X27.740576 Y3.588017

G01 Z-1.000000 F100.0(Penetrate)
G01 X27.742027 Y3.594983 Z-1.000000 F3500.000000
G01 X27.757706 Y3.599907 Z-1.000000
G01 X27.777576 Y3.595361 Z-1.000000
G01 X27.782186 Y3.588017 Z-1.000000
G01 X27.778126 Y3.580235 Z-1.000000
G01 X27.765056 Y3.576127 Z-1.000000
G01 X27.749906 Y3.579586 Z-1.000000
G01 X27.740576 Y3.588017 Z-1.000000
G01 X27.740576 Y3.588017 Z-1.000000
G00 Z5.000000

(End cutting path id: path56059)


(Start cutting path id: path56059)
(Change tool to Default tool)

G00 Z5.000000
G00 X27.750937 Y3.714807

G01 Z-1.000000 F100.0(Penetrate)
G01 X27.725637 Y3.740547 Z-1.000000 F3500.000000
G01 X27.750417 Y3.747047 Z-1.000000
G01 X27.772106 Y3.741078 Z-1.000000
G01 X27.780107 Y3.716927 Z-1.000000
G01 X27.776207 Y3.689097 Z-1.000000
G01 X27.750937 Y3.714807 Z-1.000000
G00 Z5.000000

(End cutting path id: path56059)


(Start cutting path id: path56059)
(Change tool to Default tool)

G00 Z5.000000
G00 X27.502813 Y3.742567

G01 Z-1.000000 F100.0(Penetrate)
G01 X27.512325 Y3.750459 Z-1.000000 F3500.000000
G02 X27.533933 Y3.754457 Z-1.000000 I0.021608 J-0.056387
G01 X27.548949 Y3.749609 Z-1.000000
G01 X27.550363 Y3.742567 Z-1.000000
G01 X27.540851 Y3.734675 Z-1.000000
G02 X27.519243 Y3.730677 Z-1.000000 I-0.021608 J0.056387
G01 X27.504227 Y3.735525 Z-1.000000
G01 X27.502813 Y3.742567 Z-1.000000
G01 X27.502813 Y3.742567 Z-1.000000
G00 Z5.000000

(End cutting path id: path56059)


(Start cutting path id: path56059)
(Change tool to Default tool)

G00 Z5.000000
G00 X27.265058 Y3.944660

G01 Z-1.000000 F100.0(Penetrate)
G01 X27.264478 Y3.952755 Z-1.000000 F3500.000000
G01 X27.270258 Y3.956550 Z-1.000000
G01 X27.279232 Y3.953003 Z-1.000000
G01 X27.282848 Y3.944660 Z-1.000000
G01 X27.280764 Y3.934799 Z-1.000000
G01 X27.277648 Y3.932770 Z-1.000000
G01 X27.273369 Y3.934473 Z-1.000000
G02 X27.265058 Y3.944660 Z-1.000000 I0.035147 J0.037159
G01 X27.265058 Y3.944660 Z-1.000000
G00 Z5.000000

(End cutting path id: path56059)


(Start cutting path id: path56059)
(Change tool to Default tool)

G00 Z5.000000
G00 X27.092681 Y3.955530

G01 Z-1.000000 F100.0(Penetrate)
G03 X27.015087 Y3.989173 Z-1.000000 I-1.702670 J-3.820669 F3500.000000
G03 X26.976772 Y4.004420 Z-1.000000 I-0.394790 J-0.936353
G02 X26.942754 Y4.022095 Z-1.000000 I0.056824 J0.150939
G01 X26.938132 Y4.030840 Z-1.000000
G01 X26.980320 Y4.067291 Z-1.000000
G02 X27.043143 Y4.015430 Z-1.000000 I-0.011414 J-0.077808
G01 X27.049240 Y4.007055 Z-1.000000
G01 X27.057963 Y4.004100 Z-1.000000
G02 X27.182943 Y3.975495 Z-1.000000 I-0.000000 J-0.287326
G02 X27.211553 Y3.929900 Z-1.000000 I-0.022025 J-0.045595
G01 X27.199909 Y3.920497 Z-1.000000
G02 X27.092672 Y3.955530 Z-1.000000 I0.114752 J0.532900
G01 X27.092681 Y3.955530 Z-1.000000
G00 Z5.000000

(End cutting path id: path56059)


(Start cutting path id: path56059)
(Change tool to Default tool)

G00 Z5.000000
G00 X27.089709 Y4.119270

G01 Z-1.000000 F100.0(Penetrate)
G02 X27.072354 Y4.127411 Z-1.000000 I0.013422 J0.051181 F3500.000000
G01 X27.068909 Y4.134110 Z-1.000000
G01 X27.065475 Y4.141760 Z-1.000000
G03 X27.021359 Y4.176460 Z-1.000000 I-0.308348 J-0.346627
G02 X26.979222 Y4.212248 Z-1.000000 I0.161153 J0.232441
G01 X26.973809 Y4.225630 Z-1.000000
G01 X26.981966 Y4.230523 Z-1.000000
G02 X27.034209 Y4.193410 Z-1.000000 I-0.118683 J-0.222393
G03 X27.089511 Y4.150526 Z-1.000000 I0.276860 J0.299932
G03 X27.119209 Y4.138470 Z-1.000000 I0.046513 J0.071969
G02 X27.143724 Y4.128481 Z-1.000000 I-0.013944 J-0.069295
G01 X27.145289 Y4.121520 Z-1.000000
G01 X27.133389 Y4.114560 Z-1.000000
G02 X27.089719 Y4.119320 Z-1.000000 I-0.005901 J0.148555
G01 X27.089709 Y4.119270 Z-1.000000
G00 Z5.000000

(End cutting path id: path56059)


(Start cutting path id: path56059)
(Change tool to Default tool)

G00 Z5.000000
G00 X27.168016 Y4.307310

G01 Z-1.000000 F100.0(Penetrate)
G01 X27.172879 Y4.320305 Z-1.000000 F3500.000000
G01 X27.183496 Y4.325140 Z-1.000000
G01 X27.191587 Y4.320058 Z-1.000000
G01 X27.192096 Y4.307310 Z-1.000000
G02 X27.183179 Y4.292482 Z-1.000000 I-0.047265 J0.018327
G01 X27.176616 Y4.289480 Z-1.000000
G01 X27.171359 Y4.292772 Z-1.000000
G01 X27.168016 Y4.307310 Z-1.000000
G01 X27.168016 Y4.307310 Z-1.000000
G00 Z5.000000

(End cutting path id: path56059)


(Start cutting path id: path56059)
(Change tool to Default tool)

G00 Z5.000000
G00 X26.902515 Y4.241890

G01 Z-1.000000 F100.0(Penetrate)
G01 X26.884685 Y4.253410 Z-1.000000 F3500.000000
G01 X26.916675 Y4.253593 Z-1.000000
G02 X26.946249 Y4.249353 Z-1.000000 I0.000575 J-0.101239
G01 X26.956015 Y4.241883 Z-1.000000
G01 X26.948465 Y4.228328 Z-1.000000
G02 X26.902515 Y4.241883 Z-1.000000 I0.000000 J0.084660
G01 X26.902515 Y4.241890 Z-1.000000
G00 Z5.000000

(End cutting path id: path56059)


(Start cutting path id: path56059)
(Change tool to Default tool)

G00 Z5.000000
G00 X26.783635 Y4.247790

G01 Z-1.000000 F100.0(Penetrate)
G02 X26.785668 Y4.263563 Z-1.000000 I0.062186 J0.000000 F3500.000000
G01 X26.788335 Y4.265620 Z-1.000000
G01 X26.791773 Y4.263753 Z-1.000000
G02 X26.799845 Y4.247790 Z-1.000000 I-0.070049 J-0.045447
G01 X26.800616 Y4.234180 Z-1.000000
G01 X26.795145 Y4.229960 Z-1.000000
G01 X26.787719 Y4.233994 Z-1.000000
G01 X26.783635 Y4.247790 Z-1.000000
G01 X26.783635 Y4.247790 Z-1.000000
G00 Z5.000000

(End cutting path id: path56059)


(Start cutting path id: path56059)
(Change tool to Default tool)

G00 Z5.000000
G00 X26.682586 Y4.396430

G01 Z-1.000000 F100.0(Penetrate)
G01 X26.683324 Y4.403784 Z-1.000000 F3500.000000
G01 X26.693776 Y4.408320 Z-1.000000
G01 X26.708076 Y4.404147 Z-1.000000
G01 X26.712306 Y4.396430 Z-1.000000
G01 X26.708964 Y4.387950 Z-1.000000
G01 X26.701116 Y4.384540 Z-1.000000
G01 X26.691484 Y4.387359 Z-1.000000
G01 X26.682586 Y4.396430 Z-1.000000
G01 X26.682586 Y4.396430 Z-1.000000
G00 Z5.000000

(End cutting path id: path56059)


(Start cutting path id: path56059)
(Change tool to Default tool)

G00 Z5.000000
G00 X26.625127 Y4.535150

G01 Z-1.000000 F100.0(Penetrate)
G01 X26.619686 Y4.544162 Z-1.000000 F3500.000000
G02 X26.617227 Y4.560380 Z-1.000000 I0.052253 J0.016218
G01 X26.617227 Y4.577690 Z-1.000000
G01 X26.635057 Y4.562890 Z-1.000000
G02 X26.650000 Y4.546760 Z-1.000000 I-0.052872 J-0.063969
G01 X26.652887 Y4.537660 Z-1.000000
G01 X26.644268 Y4.528227 Z-1.000000
G01 X26.625147 Y4.535160 Z-1.000000
G01 X26.625127 Y4.535150 Z-1.000000
G00 Z5.000000

(End cutting path id: path56059)


(Start cutting path id: path56059)
(Change tool to Default tool)

G00 Z5.000000
G00 X26.664757 Y4.550100

G01 Z-1.000000 F100.0(Penetrate)
G01 X26.668110 Y4.557985 Z-1.000000 F3500.000000
G01 X26.682587 Y4.567190 Z-1.000000
G01 X26.696591 Y4.568435 Z-1.000000
G01 X26.700417 Y4.563790 Z-1.000000
G01 X26.697064 Y4.555905 Z-1.000000
G01 X26.682587 Y4.546700 Z-1.000000
G01 X26.668583 Y4.545455 Z-1.000000
G01 X26.664757 Y4.550100 Z-1.000000
G01 X26.664757 Y4.550100 Z-1.000000
G00 Z5.000000

(End cutting path id: path56059)


(Start cutting path id: path56059)
(Change tool to Default tool)

G00 Z5.000000
G00 X26.860907 Y4.527220

G01 Z-1.000000 F100.0(Penetrate)
G03 X26.836555 Y4.534797 Z-1.000000 I-0.048880 J-0.114171 F3500.000000
G03 X26.805897 Y4.538270 Z-1.000000 I-0.035464 J-0.176028
G02 X26.777056 Y4.544015 Z-1.000000 I0.002328 J0.086949
G01 X26.761067 Y4.555490 Z-1.000000
G01 X26.747467 Y4.571870 Z-1.000000
G01 X26.768527 Y4.576870 Z-1.000000
G02 X26.833419 Y4.574277 Z-1.000000 I0.027850 J-0.116329
G02 X26.875802 Y4.542070 Z-1.000000 I-0.025072 J-0.076983
G01 X26.874567 Y4.529825 Z-1.000000
G01 X26.860912 Y4.527210 Z-1.000000
G01 X26.860907 Y4.527220 Z-1.000000
G00 Z5.000000

(End cutting path id: path56059)


(Start cutting path id: path56059)
(Change tool to Default tool)

G00 Z5.000000
G00 X26.885744 Y4.643047

G01 Z-1.000000 F100.0(Penetrate)
G01 X26.880981 Y4.651055 Z-1.000000 F3500.000000
G02 X26.878744 Y4.666487 Z-1.000000 I0.052122 J0.015432
G01 X26.884185 Y4.673671 Z-1.000000
G01 X26.898264 Y4.671987 Z-1.000000
G03 X26.918364 Y4.665579 Z-1.000000 I0.025789 J0.046162
G03 X26.941464 Y4.667287 Z-1.000000 I0.006898 J0.063750
G01 X26.956865 Y4.665701 Z-1.000000
G01 X26.960014 Y4.658087 Z-1.000000
G01 X26.928486 Y4.630177 Z-1.000000
G01 X26.885744 Y4.643067 Z-1.000000
G01 X26.885744 Y4.643047 Z-1.000000
G00 Z5.000000

(End cutting path id: path56059)


(Start cutting path id: path56059)
(Change tool to Default tool)

G00 Z5.000000
G00 X26.973844 Y4.658677

G01 Z-1.000000 F100.0(Penetrate)
G01 X26.977595 Y4.664444 Z-1.000000 F3500.000000
G01 X26.985734 Y4.663877 Z-1.000000
G02 X26.995905 Y4.655609 Z-1.000000 I-0.026309 J-0.042753
G01 X26.997624 Y4.651287 Z-1.000000
G01 X26.995556 Y4.648132 Z-1.000000
G01 X26.985734 Y4.646087 Z-1.000000
G01 X26.977429 Y4.649665 Z-1.000000
G01 X26.973844 Y4.658677 Z-1.000000
G01 X26.973844 Y4.658677 Z-1.000000
G00 Z5.000000

(End cutting path id: path56059)


(Start cutting path id: path56059)
(Change tool to Default tool)

G00 Z5.000000
G00 X27.009511 Y4.562890

G01 Z-1.000000 F100.0(Penetrate)
G01 X27.013089 Y4.571195 Z-1.000000 F3500.000000
G01 X27.022101 Y4.574780 Z-1.000000
G01 X27.027868 Y4.571029 Z-1.000000
G01 X27.027301 Y4.562890 Z-1.000000
G02 X27.019033 Y4.552719 Z-1.000000 I-0.042753 J0.026309
G01 X27.014711 Y4.551000 Z-1.000000
G01 X27.011556 Y4.553068 Z-1.000000
G01 X27.009511 Y4.562890 Z-1.000000
G01 X27.009511 Y4.562890 Z-1.000000
G00 Z5.000000

(End cutting path id: path56059)


(Start cutting path id: path56059)
(Change tool to Default tool)

G00 Z5.000000
G00 X27.340146 Y4.654177

G01 Z-1.000000 F100.0(Penetrate)
G01 X27.354998 Y4.656702 Z-1.000000 F3500.000000
G01 X27.362926 Y4.653239 Z-1.000000
G01 X27.347326 Y4.647039 Z-1.000000
G01 X27.340126 Y4.654239 Z-1.000000
G01 X27.340146 Y4.654177 Z-1.000000
G00 Z5.000000

(End cutting path id: path56059)


(Start cutting path id: path56059)
(Change tool to Default tool)

G00 Z5.000000
G00 X27.409736 Y4.665867

G01 Z-1.000000 F100.0(Penetrate)
G01 X27.406565 Y4.697362 Z-1.000000 F3500.000000
G01 X27.443836 Y4.717387 Z-1.000000
G01 X27.456142 Y4.712292 Z-1.000000
G01 X27.461246 Y4.699977 Z-1.000000
G01 X27.441221 Y4.662706 Z-1.000000
G01 X27.409726 Y4.665877 Z-1.000000
G01 X27.409736 Y4.665867 Z-1.000000
G00 Z5.000000

(End cutting path id: path56059)


(Start cutting path id: path56059)
(Change tool to Default tool)

G00 Z5.000000
G00 X27.473239 Y4.607447

G01 Z-1.000000 F100.0(Penetrate)
G01 X27.487992 Y4.631573 Z-1.000000 F3500.000000
G02 X27.546849 Y4.646087 Z-1.000000 I0.058857 J-0.112079
G01 X27.559162 Y4.630609 Z-1.000000
G01 X27.537549 Y4.605747 Z-1.000000
G02 X27.483744 Y4.596531 Z-1.000000 I-0.050014 J0.130316
G01 X27.473229 Y4.607447 Z-1.000000
G01 X27.473239 Y4.607447 Z-1.000000
G00 Z5.000000

(End cutting path id: path56059)


(Start cutting path id: path56059)
(Change tool to Default tool)

G00 Z5.000000
G00 X27.386290 Y4.570490

G01 Z-1.000000 F100.0(Penetrate)
G01 X27.387446 Y4.586492 Z-1.000000 F3500.000000
G02 X27.423320 Y4.598170 Z-1.000000 I0.035181 J-0.047133
G01 X27.455310 Y4.597792 Z-1.000000
G01 X27.432230 Y4.580342 Z-1.000000
G02 X27.401120 Y4.566084 Z-1.000000 I-0.047755 J0.063128
G01 X27.386280 Y4.570442 Z-1.000000
G01 X27.386290 Y4.570490 Z-1.000000
G00 Z5.000000

(End cutting path id: path56059)


(Start cutting path id: path56059)
(Change tool to Default tool)

G00 Z5.000000
G00 X27.419647 Y4.515330

G01 Z-1.000000 F100.0(Penetrate)
G01 X27.423841 Y4.522852 Z-1.000000 F3500.000000
G01 X27.449367 Y4.515330 Z-1.000000
G01 X27.467197 Y4.503810 Z-1.000000
G01 X27.447097 Y4.503628 Z-1.000000
G01 X27.429063 Y4.507244 Z-1.000000
G01 X27.419647 Y4.515338 Z-1.000000
G01 X27.419647 Y4.515330 Z-1.000000
G00 Z5.000000

(End cutting path id: path56059)


(Start cutting path id: path56059)
(Change tool to Default tool)

G00 Z5.000000
G00 X27.526640 Y4.443980

G01 Z-1.000000 F100.0(Penetrate)
G01 X27.526060 Y4.452075 Z-1.000000 F3500.000000
G01 X27.531840 Y4.455870 Z-1.000000
G01 X27.540814 Y4.452323 Z-1.000000
G01 X27.544430 Y4.443980 Z-1.000000
G01 X27.542346 Y4.434119 Z-1.000000
G01 X27.539230 Y4.432090 Z-1.000000
G01 X27.534951 Y4.433793 Z-1.000000
G02 X27.526640 Y4.443980 Z-1.000000 I0.035147 J0.037159
G01 X27.526640 Y4.443980 Z-1.000000
G00 Z5.000000

(End cutting path id: path56059)


(Start cutting path id: path56059)
(Change tool to Default tool)

G00 Z5.000000
G00 X27.520692 Y4.699524

G01 Z-1.000000 F100.0(Penetrate)
G01 X27.524807 Y4.713180 Z-1.000000 F3500.000000
G01 X27.532582 Y4.717354 Z-1.000000
G01 X27.540297 Y4.713239 Z-1.000000
G01 X27.544472 Y4.699524 Z-1.000000
G01 X27.540357 Y4.685868 Z-1.000000
G01 X27.532582 Y4.681694 Z-1.000000
G01 X27.524867 Y4.685809 Z-1.000000
G01 X27.520692 Y4.699524 Z-1.000000
G01 X27.520692 Y4.699524 Z-1.000000
G00 Z5.000000

(End cutting path id: path56059)


(Start cutting path id: path56059)
(Change tool to Default tool)

G00 Z5.000000
G00 X27.512002 Y4.773094

G01 Z-1.000000 F100.0(Penetrate)
G02 X27.532852 Y4.775622 Z-1.000000 I0.019866 J-0.076616 F3500.000000
G01 X27.547662 Y4.772654 Z-1.000000
G01 X27.526632 Y4.767154 Z-1.000000
G01 X27.512002 Y4.773054 Z-1.000000
G01 X27.512002 Y4.773094 Z-1.000000
G00 Z5.000000

(End cutting path id: path56059)


(Start cutting path id: path56059)
(Change tool to Default tool)

G00 Z5.000000
G00 X27.725903 Y4.737404

G01 Z-1.000000 F100.0(Penetrate)
G02 X27.745995 Y4.751408 Z-1.000000 I0.049267 J-0.049267 F3500.000000
G01 X27.753413 Y4.750084 Z-1.000000
G01 X27.754185 Y4.730543 Z-1.000000
G01 X27.725483 Y4.717304 Z-1.000000
G01 X27.705803 Y4.717304 Z-1.000000
G01 X27.725903 Y4.737404 Z-1.000000
G00 Z5.000000

(End cutting path id: path56059)


(Start cutting path id: path56059)
(Change tool to Default tool)

G00 Z5.000000
G00 X27.789819 Y4.687634

G01 Z-1.000000 F100.0(Penetrate)
G01 X27.789048 Y4.701244 Z-1.000000 F3500.000000
G01 X27.794519 Y4.705464 Z-1.000000
G01 X27.801945 Y4.701430 Z-1.000000
G01 X27.806029 Y4.687634 Z-1.000000
G02 X27.803996 Y4.671861 Z-1.000000 I-0.062186 J0.000000
G01 X27.801329 Y4.669804 Z-1.000000
G01 X27.797892 Y4.671671 Z-1.000000
G02 X27.789809 Y4.687634 Z-1.000000 I0.070319 J0.045633
G01 X27.789819 Y4.687634 Z-1.000000
G00 Z5.000000

(End cutting path id: path56059)


(Start cutting path id: path56059)
(Change tool to Default tool)

G00 Z5.000000
G00 X27.763275 Y4.853014

G01 Z-1.000000 F100.0(Penetrate)
G02 X27.799446 Y4.876449 Z-1.000000 I0.094140 J-0.105669 F3500.000000
G01 X27.806005 Y4.872204 Z-1.000000
G01 X27.801687 Y4.863254 Z-1.000000
G02 X27.767365 Y4.841434 Z-1.000000 I-0.120218 J0.151192
G01 X27.728725 Y4.822244 Z-1.000000
G01 X27.763275 Y4.853014 Z-1.000000
G00 Z5.000000

(End cutting path id: path56059)


(Start cutting path id: path56059)
(Change tool to Default tool)

G00 Z5.000000
G00 X27.889222 Y4.829294

G01 Z-1.000000 F100.0(Penetrate)
G01 X27.894573 Y4.842740 Z-1.000000 F3500.000000
G01 X27.907052 Y4.848114 Z-1.000000
G01 X27.920708 Y4.852229 Z-1.000000
G01 X27.924882 Y4.860004 Z-1.000000
G01 X27.928542 Y4.868194 Z-1.000000
G01 X27.938222 Y4.871894 Z-1.000000
G01 X27.942415 Y4.867011 Z-1.000000
G02 X27.934222 Y4.845794 Z-1.000000 I-0.052268 J0.007992
G02 X27.901994 Y4.820366 Z-1.000000 I-0.054917 J0.036466
G01 X27.889212 Y4.829294 Z-1.000000
G01 X27.889222 Y4.829294 Z-1.000000
G00 Z5.000000

(End cutting path id: path56059)


(Start cutting path id: path56059)
(Change tool to Default tool)

G00 Z5.000000
G00 X28.019998 Y4.571890

G01 Z-1.000000 F100.0(Penetrate)
G01 X28.023129 Y4.582253 Z-1.000000 F3500.000000
G02 X28.037828 Y4.598580 Z-1.000000 I0.062794 J-0.041754
G01 X28.051675 Y4.604884 Z-1.000000
G01 X28.055658 Y4.601480 Z-1.000000
G01 X28.052527 Y4.591117 Z-1.000000
G02 X28.037828 Y4.574790 Z-1.000000 I-0.062794 J0.041754
G01 X28.023981 Y4.568486 Z-1.000000
G01 X28.019998 Y4.571890 Z-1.000000
G01 X28.019998 Y4.571890 Z-1.000000
G00 Z5.000000

(End cutting path id: path56059)


(Start cutting path id: path56059)
(Change tool to Default tool)

G00 Z5.000000
G00 X28.073492 Y4.515330

G01 Z-1.000000 F100.0(Penetrate)
G01 X28.072912 Y4.523425 Z-1.000000 F3500.000000
G01 X28.078692 Y4.527220 Z-1.000000
G01 X28.087666 Y4.523673 Z-1.000000
G01 X28.091282 Y4.515330 Z-1.000000
G01 X28.089198 Y4.505469 Z-1.000000
G01 X28.086082 Y4.503440 Z-1.000000
G01 X28.081803 Y4.505143 Z-1.000000
G02 X28.073492 Y4.515330 Z-1.000000 I0.035147 J0.037159
G01 X28.073492 Y4.515330 Z-1.000000
G00 Z5.000000

(End cutting path id: path56059)


(Start cutting path id: path56059)
(Change tool to Default tool)

G00 Z5.000000
G00 X28.103212 Y4.515330

G01 Z-1.000000 F100.0(Penetrate)
G01 X28.107378 Y4.522983 Z-1.000000 F3500.000000
G01 X28.121742 Y4.527220 Z-1.000000
G01 X28.132162 Y4.522731 Z-1.000000
G01 X28.132932 Y4.515330 Z-1.000000
G01 X28.124052 Y4.506274 Z-1.000000
G01 X28.114402 Y4.503440 Z-1.000000
G01 X28.106589 Y4.506815 Z-1.000000
G01 X28.103212 Y4.515330 Z-1.000000
G01 X28.103212 Y4.515330 Z-1.000000
G00 Z5.000000

(End cutting path id: path56059)


(Start cutting path id: path56059)
(Change tool to Default tool)

G00 Z5.000000
G00 X28.156708 Y4.491550

G01 Z-1.000000 F100.0(Penetrate)
G02 X28.164976 Y4.501721 Z-1.000000 I0.042753 J-0.026309 F3500.000000
G01 X28.169298 Y4.503440 Z-1.000000
G01 X28.172453 Y4.501372 Z-1.000000
G01 X28.174498 Y4.491550 Z-1.000000
G01 X28.170920 Y4.483245 Z-1.000000
G01 X28.161908 Y4.479660 Z-1.000000
G01 X28.156141 Y4.483411 Z-1.000000
G01 X28.156708 Y4.491550 Z-1.000000
G01 X28.156708 Y4.491550 Z-1.000000
G00 Z5.000000

(End cutting path id: path56059)


(Start cutting path id: path56059)
(Change tool to Default tool)

G00 Z5.000000
G00 X28.174543 Y4.587247

G01 Z-1.000000 F100.0(Penetrate)
G01 X28.185339 Y4.603130 Z-1.000000 F3500.000000
G01 X28.215083 Y4.603287 Z-1.000000
G01 X28.220485 Y4.590233 Z-1.000000
G01 X28.204263 Y4.579027 Z-1.000000
G02 X28.178695 Y4.581773 Z-1.000000 I-0.004516 J0.078341
G01 X28.174553 Y4.587227 Z-1.000000
G01 X28.174543 Y4.587247 Z-1.000000
G00 Z5.000000

(End cutting path id: path56059)


(Start cutting path id: path56059)
(Change tool to Default tool)

G00 Z5.000000
G00 X28.251813 Y4.515330

G01 Z-1.000000 F100.0(Penetrate)
G01 X28.252551 Y4.522684 Z-1.000000 F3500.000000
G01 X28.263003 Y4.527220 Z-1.000000
G01 X28.277303 Y4.523047 Z-1.000000
G01 X28.281533 Y4.515330 Z-1.000000
G01 X28.278191 Y4.506850 Z-1.000000
G01 X28.270343 Y4.503440 Z-1.000000
G01 X28.260711 Y4.506259 Z-1.000000
G01 X28.251813 Y4.515330 Z-1.000000
G01 X28.251813 Y4.515330 Z-1.000000
G00 Z5.000000

(End cutting path id: path56059)


(Start cutting path id: path56059)
(Change tool to Default tool)

G00 Z5.000000
G00 X28.031883 Y4.372650

G01 Z-1.000000 F100.0(Penetrate)
G01 X28.035461 Y4.380955 Z-1.000000 F3500.000000
G01 X28.044473 Y4.384540 Z-1.000000
G01 X28.050240 Y4.380789 Z-1.000000
G01 X28.049673 Y4.372650 Z-1.000000
G02 X28.041405 Y4.362479 Z-1.000000 I-0.042753 J0.026309
G01 X28.037083 Y4.360760 Z-1.000000
G01 X28.033928 Y4.362828 Z-1.000000
G01 X28.031883 Y4.372650 Z-1.000000
G01 X28.031883 Y4.372650 Z-1.000000
G00 Z5.000000

(End cutting path id: path56059)


(Start cutting path id: path56059)
(Change tool to Default tool)

G00 Z5.000000
G00 X27.979612 Y4.251790

G01 Z-1.000000 F100.0(Penetrate)
G01 X27.980393 Y4.257799 Z-1.000000 F3500.000000
G01 X27.990272 Y4.261690 Z-1.000000
G01 X28.000133 Y4.257813 Z-1.000000
G01 X28.000932 Y4.251790 Z-1.000000
G01 X27.993956 Y4.243344 Z-1.000000
G01 X27.990272 Y4.241890 Z-1.000000
G01 X27.986532 Y4.243366 Z-1.000000
G01 X27.979612 Y4.251790 Z-1.000000
G01 X27.979612 Y4.251790 Z-1.000000
G00 Z5.000000

(End cutting path id: path56059)


(Start cutting path id: path56059)
(Change tool to Default tool)

G00 Z5.000000
G00 X28.031883 Y4.204910

G01 Z-1.000000 F100.0(Penetrate)
G01 X28.037156 Y4.223771 Z-1.000000 F3500.000000
G01 X28.049713 Y4.234260 Z-1.000000
G01 X28.061852 Y4.227984 Z-1.000000
G01 X28.055413 Y4.212010 Z-1.000000
G01 X28.048826 Y4.203274 Z-1.000000
G01 X28.050213 Y4.193480 Z-1.000000
G01 X28.050507 Y4.186055 Z-1.000000
G01 X28.044513 Y4.182410 Z-1.000000
G01 X28.036589 Y4.187051 Z-1.000000
G01 X28.031923 Y4.204910 Z-1.000000
G01 X28.031883 Y4.204910 Z-1.000000
G00 Z5.000000

(End cutting path id: path56059)


(Start cutting path id: path56059)
(Change tool to Default tool)

G00 Z5.000000
G00 X28.037783 Y4.158630

G01 Z-1.000000 F100.0(Penetrate)
G02 X28.046051 Y4.168801 Z-1.000000 I0.042753 J-0.026309 F3500.000000
G01 X28.050373 Y4.170520 Z-1.000000
G01 X28.053528 Y4.168452 Z-1.000000
G01 X28.055573 Y4.158630 Z-1.000000
G01 X28.051995 Y4.150325 Z-1.000000
G01 X28.042983 Y4.146740 Z-1.000000
G01 X28.037216 Y4.150491 Z-1.000000
G01 X28.037783 Y4.158630 Z-1.000000
G01 X28.037783 Y4.158630 Z-1.000000
G00 Z5.000000

(End cutting path id: path56059)


(Start cutting path id: path56059)
(Change tool to Default tool)

G00 Z5.000000
G00 X28.109156 Y4.265660

G01 Z-1.000000 F100.0(Penetrate)
G01 X28.108362 Y4.273883 Z-1.000000 F3500.000000
G01 X28.113656 Y4.277550 Z-1.000000
G01 X28.123868 Y4.274672 Z-1.000000
G01 X28.132896 Y4.265660 Z-1.000000
G01 X28.133690 Y4.257437 Z-1.000000
G01 X28.128396 Y4.253770 Z-1.000000
G01 X28.118184 Y4.256648 Z-1.000000
G01 X28.109156 Y4.265660 Z-1.000000
G01 X28.109156 Y4.265660 Z-1.000000
G00 Z5.000000

(End cutting path id: path56059)


(Start cutting path id: path56059)
(Change tool to Default tool)

G00 Z5.000000
G00 X27.978343 Y3.944660

G01 Z-1.000000 F100.0(Penetrate)
G01 X27.977549 Y3.952883 Z-1.000000 F3500.000000
G01 X27.982843 Y3.956550 Z-1.000000
G01 X27.993056 Y3.953672 Z-1.000000
G01 X28.002073 Y3.944660 Z-1.000000
G01 X28.002867 Y3.936437 Z-1.000000
G01 X27.997573 Y3.932770 Z-1.000000
G01 X27.987360 Y3.935648 Z-1.000000
G01 X27.978343 Y3.944660 Z-1.000000
G01 X27.978343 Y3.944660 Z-1.000000
G00 Z5.000000

(End cutting path id: path56059)


(Start cutting path id: path56059)
(Change tool to Default tool)

G00 Z5.000000
G00 X28.008302 Y3.832010

G01 Z-1.000000 F100.0(Penetrate)
G02 X28.023582 Y3.845296 Z-1.000000 I0.048206 J-0.040011 F3500.000000
G01 X28.028782 Y3.844690 Z-1.000000
G01 X28.030169 Y3.826130 Z-1.000000
G01 X28.005912 Y3.813890 Z-1.000000
G01 X28.002226 Y3.818096 Z-1.000000
G01 X28.008312 Y3.832010 Z-1.000000
G01 X28.008302 Y3.832010 Z-1.000000
G00 Z5.000000

(End cutting path id: path56059)


(Start cutting path id: path56059)
(Change tool to Default tool)

G00 Z5.000000
G00 X28.168545 Y3.778227

G01 Z-1.000000 F100.0(Penetrate)
G01 X28.177425 Y3.787283 Z-1.000000 F3500.000000
G01 X28.187075 Y3.790117 Z-1.000000
G01 X28.194888 Y3.786742 Z-1.000000
G01 X28.198265 Y3.778227 Z-1.000000
G01 X28.194099 Y3.770574 Z-1.000000
G01 X28.179735 Y3.766337 Z-1.000000
G01 X28.169315 Y3.770826 Z-1.000000
G01 X28.168545 Y3.778227 Z-1.000000
G01 X28.168545 Y3.778227 Z-1.000000
G00 Z5.000000

(End cutting path id: path56059)


(Start cutting path id: path56059)
(Change tool to Default tool)

G00 Z5.000000
G00 X28.305258 Y3.790817

G01 Z-1.000000 F100.0(Penetrate)
G01 X28.309009 Y3.796584 Z-1.000000 F3500.000000
G01 X28.317148 Y3.796017 Z-1.000000
G02 X28.327319 Y3.787749 Z-1.000000 I-0.026309 J-0.042753
G01 X28.329038 Y3.783427 Z-1.000000
G01 X28.326970 Y3.780272 Z-1.000000
G01 X28.317148 Y3.778227 Z-1.000000
G01 X28.308843 Y3.781805 Z-1.000000
G01 X28.305258 Y3.790817 Z-1.000000
G01 X28.305258 Y3.790817 Z-1.000000
G00 Z5.000000

(End cutting path id: path56059)


(Start cutting path id: path56059)
(Change tool to Default tool)

G00 Z5.000000
G00 X28.464964 Y3.686097

G01 Z-1.000000 F100.0(Penetrate)
G03 X28.426936 Y3.718594 Z-1.000000 I-0.143870 J-0.129855 F3500.000000
G03 X28.400614 Y3.728047 Z-1.000000 I-0.033081 J-0.050743
G02 X28.361014 Y3.747010 Z-1.000000 I0.007424 J0.066333
G01 X28.360974 Y3.767377 Z-1.000000
G01 X28.372970 Y3.772346 Z-1.000000
G01 X28.381884 Y3.767377 Z-1.000000
G01 X28.392392 Y3.758975 Z-1.000000
G03 X28.419274 Y3.754457 Z-1.000000 I0.026882 J0.077719
G02 X28.444368 Y3.748026 Z-1.000000 I-0.000000 J-0.052175
G01 X28.457204 Y3.733657 Z-1.000000
G01 X28.469656 Y3.718698 Z-1.000000
G01 X28.489514 Y3.712857 Z-1.000000
G01 X28.506326 Y3.705033 Z-1.000000
G01 X28.517054 Y3.680167 Z-1.000000
G01 X28.503276 Y3.666378 Z-1.000000
G02 X28.464954 Y3.686067 Z-1.000000 I0.006854 J0.060480
G01 X28.464964 Y3.686097 Z-1.000000
G00 Z5.000000

(End cutting path id: path56059)


(Start cutting path id: path56059)
(Change tool to Default tool)

G00 Z5.000000
G00 X28.540144 Y3.654297

G01 Z-1.000000 F100.0(Penetrate)
G01 X28.537206 Y3.662214 Z-1.000000 F3500.000000
G02 X28.543244 Y3.695907 Z-1.000000 I0.166588 J-0.012466
G01 X28.553244 Y3.730677 Z-1.000000
G01 X28.518034 Y3.730677 Z-1.000000
G02 X28.487243 Y3.737065 Z-1.000000 I0.000000 J0.077406
G01 X28.475784 Y3.749027 Z-1.000000
G01 X28.483336 Y3.764687 Z-1.000000
G01 X28.516444 Y3.761847 Z-1.000000
G01 X28.551524 Y3.743707 Z-1.000000
G01 X28.590334 Y3.787547 Z-1.000000
G03 X28.626463 Y3.832645 Z-1.000000 I-0.438617 J0.388406
G01 X28.630954 Y3.843707 Z-1.000000
G02 X28.664917 Y3.922464 Z-1.000000 I0.163252 J-0.023698
G02 X28.710844 Y3.944669 Z-1.000000 I0.045927 J-0.036395
G01 X28.723122 Y3.930069 Z-1.000000
G02 X28.691384 Y3.832880 Z-1.000000 I-0.352715 J0.061405
G02 X28.640847 Y3.745929 Z-1.000000 I-0.668007 J0.330094
G02 X28.593124 Y3.687399 Z-1.000000 I-0.348136 J0.235135
G02 X28.550517 Y3.653123 Z-1.000000 I-0.164203 J0.160493
G01 X28.540124 Y3.654309 Z-1.000000
G01 X28.540144 Y3.654297 Z-1.000000
G00 Z5.000000

(End cutting path id: path56059)


(Start cutting path id: path56059)
(Change tool to Default tool)

G00 Z5.000000
G00 X28.765041 Y3.952460

G01 Z-1.000000 F100.0(Penetrate)
G01 X28.764955 Y3.975764 Z-1.000000 F3500.000000
G02 X28.804201 Y3.992190 Z-1.000000 I0.039246 J-0.038671
G01 X28.823057 Y3.996612 Z-1.000000
G03 X28.852121 Y4.015970 Z-1.000000 I-0.061324 J0.123567
G02 X28.880979 Y4.035898 Z-1.000000 I0.104521 J-0.120503
G01 X28.896251 Y4.039750 Z-1.000000
G01 X28.905197 Y4.044067 Z-1.000000
G01 X28.905651 Y4.051590 Z-1.000000
G01 X28.906689 Y4.060817 Z-1.000000
G02 X28.931701 Y4.078100 Z-1.000000 I0.057357 J-0.056267
G03 X28.963277 Y4.094958 Z-1.000000 I-0.096836 J0.219376
G01 X28.973331 Y4.104550 Z-1.000000
G01 X28.982025 Y4.111224 Z-1.000000
G01 X28.988111 Y4.109850 Z-1.000000
G01 X28.990297 Y4.054165 Z-1.000000
G02 X28.907501 Y4.016000 Z-1.000000 I-0.082796 J0.070726
G01 X28.898884 Y4.013544 Z-1.000000
G03 X28.857281 Y3.984870 Z-1.000000 I0.277319 J-0.446887
G02 X28.822261 Y3.965787 Z-1.000000 I-0.079481 J0.104187
G01 X28.816101 Y3.970010 Z-1.000000
G01 X28.812221 Y3.972670 Z-1.000000
G01 X28.803621 Y3.965510 Z-1.000000
G01 X28.782638 Y3.948402 Z-1.000000
G01 X28.765051 Y3.952530 Z-1.000000
G01 X28.765041 Y3.952460 Z-1.000000
G00 Z5.000000

(End cutting path id: path56059)


(Start cutting path id: path56059)
(Change tool to Default tool)

G00 Z5.000000
G00 X28.989992 Y4.048480

G01 Z-1.000000 F100.0(Penetrate)
G01 X28.984530 Y4.056253 Z-1.000000 F3500.000000
G01 X28.982892 Y4.063580 Z-1.000000
G01 X28.997692 Y4.086076 Z-1.000000
G02 X29.063692 Y4.098420 Z-1.000000 I0.060332 J-0.139958
G01 X29.083932 Y4.097666 Z-1.000000
G01 X29.057182 Y4.086916 Z-1.000000
G03 X29.034392 Y4.073494 Z-1.000000 I0.032769 J-0.081700
G01 X29.030432 Y4.065166 Z-1.000000
G01 X29.015817 Y4.043326 Z-1.000000
G01 X28.989982 Y4.048476 Z-1.000000
G01 X28.989992 Y4.048480 Z-1.000000
G00 Z5.000000

(End cutting path id: path56059)


(Start cutting path id: path56059)
(Change tool to Default tool)

G00 Z5.000000
G00 X29.037161 Y4.302510

G01 Z-1.000000 F100.0(Penetrate)
G01 X29.046052 Y4.309088 Z-1.000000 F3500.000000
G02 X29.078731 Y4.313210 Z-1.000000 I0.032679 J-0.127471
G02 X29.109131 Y4.308670 Z-1.000000 I-0.000000 J-0.104061
G01 X29.113691 Y4.302510 Z-1.000000
G01 X29.109008 Y4.296472 Z-1.000000
G02 X29.072111 Y4.291810 Z-1.000000 I-0.036897 J0.143675
G02 X29.039341 Y4.296705 Z-1.000000 I-0.000000 J0.112141
G01 X29.037151 Y4.302510 Z-1.000000
G01 X29.037161 Y4.302510 Z-1.000000
G00 Z5.000000

(End cutting path id: path56059)


(Start cutting path id: path56059)
(Change tool to Default tool)

G00 Z5.000000
G00 X29.116671 Y4.475650

G01 Z-1.000000 F100.0(Penetrate)
G01 X29.107096 Y4.485238 Z-1.000000 F3500.000000
G02 X29.101811 Y4.512620 Z-1.000000 I0.068297 J0.027382
G01 X29.101811 Y4.543590 Z-1.000000
G01 X29.125591 Y4.518070 Z-1.000000
G01 X29.134723 Y4.485271 Z-1.000000
G01 X29.116691 Y4.475650 Z-1.000000
G01 X29.116671 Y4.475650 Z-1.000000
G00 Z5.000000

(End cutting path id: path56059)


(Start cutting path id: path56059)
(Change tool to Default tool)

G00 Z5.000000
G00 X29.185028 Y4.515330

G01 Z-1.000000 F100.0(Penetrate)
G01 X29.189143 Y4.523045 Z-1.000000 F3500.000000
G01 X29.202858 Y4.527220 Z-1.000000
G01 X29.216514 Y4.523105 Z-1.000000
G01 X29.220688 Y4.515330 Z-1.000000
G01 X29.216573 Y4.507615 Z-1.000000
G01 X29.202858 Y4.503440 Z-1.000000
G01 X29.189202 Y4.507555 Z-1.000000
G01 X29.185028 Y4.515330 Z-1.000000
G01 X29.185028 Y4.515330 Z-1.000000
G00 Z5.000000

(End cutting path id: path56059)


(Start cutting path id: path56059)
(Change tool to Default tool)

G00 Z5.000000
G00 X29.228617 Y4.451900

G01 Z-1.000000 F100.0(Penetrate)
G01 X29.222840 Y4.460762 Z-1.000000 F3500.000000
G01 X29.220717 Y4.472110 Z-1.000000
G01 X29.224421 Y4.475371 Z-1.000000
G01 X29.234787 Y4.470310 Z-1.000000
G01 X29.243983 Y4.456272 Z-1.000000
G01 X29.242687 Y4.450100 Z-1.000000
G01 X29.236537 Y4.447998 Z-1.000000
G01 X29.228617 Y4.451900 Z-1.000000
G01 X29.228617 Y4.451900 Z-1.000000
G00 Z5.000000

(End cutting path id: path56059)


(Start cutting path id: path56059)
(Change tool to Default tool)

G00 Z5.000000
G00 X29.264281 Y4.428130

G01 Z-1.000000 F100.0(Penetrate)
G01 X29.258504 Y4.436992 Z-1.000000 F3500.000000
G01 X29.256381 Y4.448340 Z-1.000000
G01 X29.260085 Y4.451601 Z-1.000000
G01 X29.270451 Y4.446540 Z-1.000000
G01 X29.279647 Y4.432502 Z-1.000000
G01 X29.278351 Y4.426330 Z-1.000000
G01 X29.272201 Y4.424228 Z-1.000000
G01 X29.264281 Y4.428130 Z-1.000000
G01 X29.264281 Y4.428130 Z-1.000000
G00 Z5.000000

(End cutting path id: path56059)


(Start cutting path id: path56059)
(Change tool to Default tool)

G00 Z5.000000
G00 X29.351461 Y4.560510

G01 Z-1.000000 F100.0(Penetrate)
G03 X29.347777 Y4.604321 Z-1.000000 I-0.262317 J-0.000000 F3500.000000
G01 X29.341861 Y4.616980 Z-1.000000
G02 X29.333576 Y4.629097 Z-1.000000 I0.051959 J0.044417
G02 X29.318751 Y4.660060 Z-1.000000 I0.331864 J0.177929
G01 X29.305271 Y4.691850 Z-1.000000
G01 X29.324151 Y4.707520 Z-1.000000
G01 X29.343031 Y4.723190 Z-1.000000
G01 X29.335531 Y4.699510 Z-1.000000
G01 X29.335029 Y4.676802 Z-1.000000
G03 X29.351571 Y4.640160 Z-1.000000 I0.122184 J0.033105
G02 X29.386572 Y4.540830 Z-1.000000 I-0.181444 J-0.119767
G01 X29.363371 Y4.515335 Z-1.000000
G01 X29.356685 Y4.520482 Z-1.000000
G02 X29.351481 Y4.560515 Z-1.000000 I0.151363 J0.040033
G01 X29.351461 Y4.560510 Z-1.000000
G00 Z5.000000

(End cutting path id: path56059)


(Start cutting path id: path56059)
(Change tool to Default tool)

G00 Z5.000000
G00 X29.220688 Y4.694827

G01 Z-1.000000 F100.0(Penetrate)
G03 X29.215248 Y4.728699 Z-1.000000 I-0.108173 J0.000000 F3500.000000
G03 X29.202858 Y4.748797 Z-1.000000 I-0.048360 J-0.015944
G02 X29.174765 Y4.811545 Z-1.000000 I0.068193 J0.068193
G01 X29.196958 Y4.854092 Z-1.000000
G01 X29.213007 Y4.887584 Z-1.000000
G01 X29.190358 Y4.907592 Z-1.000000
G01 X29.179539 Y4.903280 Z-1.000000
G01 X29.178668 Y4.896522 Z-1.000000
G01 X29.179703 Y4.886817 Z-1.000000
G01 X29.171668 Y4.876922 Z-1.000000
G01 X29.165364 Y4.879292 Z-1.000000
G01 X29.164168 Y4.901342 Z-1.000000
G01 X29.170468 Y4.934302 Z-1.000000
G01 X29.148188 Y4.940102 Z-1.000000
G01 X29.133500 Y4.948961 Z-1.000000
G01 X29.132748 Y4.956982 Z-1.000000
G01 X29.129693 Y4.985218 Z-1.000000
G03 X29.088528 Y5.002662 Z-1.000000 I-0.041165 J-0.039850
G01 X29.083108 Y5.012649 Z-1.000000
G01 X29.102488 Y5.024142 Z-1.000000
G02 X29.157843 Y5.010896 Z-1.000000 I0.006966 J-0.093174
G01 X29.180628 Y4.976762 Z-1.000000
G02 X29.182101 Y4.966967 Z-1.000000 I-5.274892 J-0.798072
G02 X29.183628 Y4.956222 Z-1.000000 I-0.755716 J-0.112902
G01 X29.188654 Y4.950782 Z-1.000000
G01 X29.206828 Y4.951122 Z-1.000000
G01 X29.225395 Y4.947707 Z-1.000000
G02 X29.262788 Y4.911372 Z-1.000000 I-0.099084 J-0.139379
G01 X29.277628 Y4.881512 Z-1.000000
G01 X29.258228 Y4.897082 Z-1.000000
G01 X29.237878 Y4.854192 Z-1.000000
G01 X29.217528 Y4.811302 Z-1.000000
G01 X29.236988 Y4.751062 Z-1.000000
G02 X29.248764 Y4.680576 Z-1.000000 I-0.232351 J-0.075045
G01 X29.238588 Y4.665482 Z-1.000000
G01 X29.220758 Y4.658682 Z-1.000000
G01 X29.220688 Y4.694827 Z-1.000000
G00 Z5.000000

(End cutting path id: path56059)


(Start cutting path id: path56059)
(Change tool to Default tool)

G00 Z5.000000
G00 X29.167191 Y4.705424

G01 Z-1.000000 F100.0(Penetrate)
G01 X29.166397 Y4.713647 Z-1.000000 F3500.000000
G01 X29.171691 Y4.717314 Z-1.000000
G01 X29.181909 Y4.714437 Z-1.000000
G01 X29.190931 Y4.705424 Z-1.000000
G01 X29.191725 Y4.697201 Z-1.000000
G01 X29.186431 Y4.693534 Z-1.000000
G01 X29.176219 Y4.696412 Z-1.000000
G01 X29.167191 Y4.705424 Z-1.000000
G01 X29.167191 Y4.705424 Z-1.000000
G00 Z5.000000

(End cutting path id: path56059)


(Start cutting path id: path56059)
(Change tool to Default tool)

G00 Z5.000000
G00 X29.126522 Y4.783674

G01 Z-1.000000 F100.0(Penetrate)
G01 X29.133722 Y4.790874 Z-1.000000 F3500.000000
G01 X29.136249 Y4.776013 Z-1.000000
G01 X29.132784 Y4.768094 Z-1.000000
G01 X29.126584 Y4.783694 Z-1.000000
G01 X29.126522 Y4.783674 Z-1.000000
G00 Z5.000000

(End cutting path id: path56059)


(Start cutting path id: path56059)
(Change tool to Default tool)

G00 Z5.000000
G00 X29.119639 Y4.871933

G01 Z-1.000000 F100.0(Penetrate)
G02 X29.114942 Y4.896702 Z-1.000000 I0.098371 J0.031484 F3500.000000
G01 X29.117439 Y4.903443 Z-1.000000
G01 X29.121884 Y4.903071 Z-1.000000
G02 X29.131499 Y4.883823 Z-1.000000 I-0.056679 J-0.040337
G02 X29.136196 Y4.859054 Z-1.000000 I-0.098371 J-0.031484
G01 X29.133699 Y4.852313 Z-1.000000
G01 X29.129254 Y4.852685 Z-1.000000
G02 X29.119639 Y4.871933 Z-1.000000 I0.056679 J0.040337
G01 X29.119639 Y4.871933 Z-1.000000
G00 Z5.000000

(End cutting path id: path56059)


(Start cutting path id: path56059)
(Change tool to Default tool)

G00 Z5.000000
G00 X29.066143 Y4.948783

G01 Z-1.000000 F100.0(Penetrate)
G01 X29.072165 Y4.961001 Z-1.000000 F3500.000000
G01 X29.089923 Y4.967033 Z-1.000000
G02 X29.111286 Y4.964578 Z-1.000000 I0.000000 J-0.094180
G01 X29.113703 Y4.961533 Z-1.000000
G01 X29.111626 Y4.957311 Z-1.000000
G02 X29.089923 Y4.943283 Z-1.000000 I-0.095734 J0.124304
G01 X29.066143 Y4.930563 Z-1.000000
G01 X29.066143 Y4.948783 Z-1.000000
G00 Z5.000000

(End cutting path id: path56059)


(Start cutting path id: path56059)
(Change tool to Default tool)

G00 Z5.000000
G00 X28.994821 Y4.871303

G01 Z-1.000000 F100.0(Penetrate)
G01 X28.992002 Y4.880935 Z-1.000000 F3500.000000
G01 X28.982931 Y4.889833 Z-1.000000
G01 X28.975577 Y4.889095 Z-1.000000
G01 X28.971041 Y4.878643 Z-1.000000
G01 X28.975214 Y4.864343 Z-1.000000
G01 X28.982931 Y4.860113 Z-1.000000
G01 X28.991411 Y4.863455 Z-1.000000
G01 X28.994821 Y4.871303 Z-1.000000
G01 X28.994821 Y4.871303 Z-1.000000
G00 Z5.000000

(End cutting path id: path56059)


(Start cutting path id: path56059)
(Change tool to Default tool)

G00 Z5.000000
G00 X28.994659 Y4.785813

G01 Z-1.000000 F100.0(Penetrate)
G01 X28.993686 Y4.794609 Z-1.000000 F3500.000000
G03 X28.987259 Y4.821753 Z-1.000000 I-0.448988 J-0.091984
G01 X28.980059 Y4.848783 Z-1.000000
G01 X28.964669 Y4.827733 Z-1.000000
G01 X28.956897 Y4.806927 Z-1.000000
G01 X28.961669 Y4.791793 Z-1.000000
G01 X28.985452 Y4.777899 Z-1.000000
G01 X28.994729 Y4.785793 Z-1.000000
G01 X28.994659 Y4.785813 Z-1.000000
G00 Z5.000000

(End cutting path id: path56059)


(Start cutting path id: path56059)
(Change tool to Default tool)

G00 Z5.000000
G00 X29.119029 Y4.594850

G01 Z-1.000000 F100.0(Penetrate)
G03 X29.111303 Y4.642002 Z-1.000000 I-0.070189 J0.012709 F3500.000000
G01 X29.084179 Y4.658020 Z-1.000000
G01 X29.076420 Y4.652266 Z-1.000000
G01 X29.075179 Y4.628300 Z-1.000000
G01 X29.062354 Y4.614251 Z-1.000000
G02 X29.019109 Y4.633800 Z-1.000000 I0.007220 J0.073579
G01 X28.981389 Y4.669040 Z-1.000000
G01 X29.011909 Y4.676740 Z-1.000000
G01 X29.029629 Y4.698685 Z-1.000000
G01 X29.013509 Y4.724880 Z-1.000000
G01 X28.984739 Y4.738220 Z-1.000000
G01 X28.970249 Y4.724880 Z-1.000000
G01 X28.955759 Y4.711540 Z-1.000000
G01 X28.963659 Y4.733850 Z-1.000000
G01 X28.963962 Y4.753817 Z-1.000000
G01 X28.951969 Y4.770490 Z-1.000000
G02 X28.882118 Y4.915284 Z-1.000000 I0.100798 J0.137872
G02 X28.960869 Y4.990905 Z-1.000000 I0.078751 J-0.003194
G01 X28.966230 Y4.987395 Z-1.000000
G01 X28.965669 Y4.979835 Z-1.000000
G01 X28.964289 Y4.970028 Z-1.000000
G01 X28.970869 Y4.961305 Z-1.000000
G01 X28.979257 Y4.960390 Z-1.000000
G01 X28.982949 Y4.965605 Z-1.000000
G01 X28.998289 Y4.999375 Z-1.000000
G02 X29.039139 Y5.014705 Z-1.000000 I0.040850 J-0.046761
G01 X29.057969 Y5.014705 Z-1.000000
G01 X29.039709 Y4.993905 Z-1.000000
G03 X29.027135 Y4.971106 Z-1.000000 I0.045587 J-0.040008
G03 X29.023009 Y4.937435 Z-1.000000 I0.098580 J-0.029169
G01 X29.024609 Y4.901775 Z-1.000000
G01 X29.045409 Y4.905275 Z-1.000000
G01 X29.066209 Y4.908775 Z-1.000000
G01 X29.064809 Y4.875565 Z-1.000000
G01 X29.058009 Y4.863155 Z-1.000000
G01 X29.048591 Y4.878806 Z-1.000000
G01 X29.035389 Y4.883955 Z-1.000000
G01 X29.018199 Y4.883955 Z-1.000000
G01 X29.025999 Y4.851265 Z-1.000000
G03 X29.054879 Y4.790992 Z-1.000000 I0.154239 J0.036847
G01 X29.083489 Y4.776965 Z-1.000000
G01 X29.087176 Y4.779644 Z-1.000000
G03 X29.089889 Y4.796775 Z-1.000000 I-0.052732 J0.017131
G01 X29.097852 Y4.799577 Z-1.000000
G01 X29.108179 Y4.773985 Z-1.000000
G01 X29.115344 Y4.753683 Z-1.000000
G01 X29.124019 Y4.750215 Z-1.000000
G01 X29.133639 Y4.748399 Z-1.000000
G01 X29.137439 Y4.741315 Z-1.000000
G01 X29.133993 Y4.732920 Z-1.000000
G01 X29.125629 Y4.729425 Z-1.000000
G01 X29.115583 Y4.717087 Z-1.000000
G03 X29.147839 Y4.622432 Z-1.000000 I0.394984 J0.081776
G02 X29.151485 Y4.578777 Z-1.000000 I-0.054636 J-0.026543
G01 X29.130399 Y4.562992 Z-1.000000
G01 X29.121084 Y4.569556 Z-1.000000
G01 X29.118999 Y4.594932 Z-1.000000
G01 X29.119029 Y4.594850 Z-1.000000
G00 Z5.000000

(End cutting path id: path56059)


(Start cutting path id: path56059)
(Change tool to Default tool)

G00 Z5.000000
G00 X29.303904 Y4.800564

G01 Z-1.000000 F100.0(Penetrate)
G01 X29.307346 Y4.808931 Z-1.000000 F3500.000000
G01 X29.315794 Y4.812454 Z-1.000000
G01 X29.324161 Y4.809012 Z-1.000000
G01 X29.327684 Y4.800564 Z-1.000000
G01 X29.324242 Y4.792197 Z-1.000000
G01 X29.315794 Y4.788674 Z-1.000000
G01 X29.307427 Y4.792116 Z-1.000000
G01 X29.303904 Y4.800564 Z-1.000000
G01 X29.303904 Y4.800564 Z-1.000000
G00 Z5.000000

(End cutting path id: path56059)


(Start cutting path id: path56059)
(Change tool to Default tool)

G00 Z5.000000
G00 X29.351457 Y4.937313

G01 Z-1.000000 F100.0(Penetrate)
G02 X29.353490 Y4.953086 Z-1.000000 I0.062186 J0.000000 F3500.000000
G01 X29.356157 Y4.955143 Z-1.000000
G01 X29.359595 Y4.953276 Z-1.000000
G02 X29.367667 Y4.937313 Z-1.000000 I-0.070049 J-0.045447
G01 X29.368438 Y4.923703 Z-1.000000
G01 X29.362967 Y4.919483 Z-1.000000
G01 X29.355541 Y4.923517 Z-1.000000
G01 X29.351457 Y4.937313 Z-1.000000
G01 X29.351457 Y4.937313 Z-1.000000
G00 Z5.000000

(End cutting path id: path56059)


(Start cutting path id: path56059)
(Change tool to Default tool)

G00 Z5.000000
G00 X29.327682 Y4.991512

G01 Z-1.000000 F100.0(Penetrate)
G01 X29.331433 Y4.997279 Z-1.000000 F3500.000000
G01 X29.339572 Y4.996712 Z-1.000000
G02 X29.349743 Y4.988444 Z-1.000000 I-0.026309 J-0.042753
G01 X29.351462 Y4.984122 Z-1.000000
G01 X29.349394 Y4.980967 Z-1.000000
G01 X29.339572 Y4.978922 Z-1.000000
G01 X29.331267 Y4.982500 Z-1.000000
G01 X29.327682 Y4.991512 Z-1.000000
G01 X29.327682 Y4.991512 Z-1.000000
G00 Z5.000000

(End cutting path id: path56059)


(Start cutting path id: path56059)
(Change tool to Default tool)

G00 Z5.000000
G00 X29.280763 Y5.069812

G01 Z-1.000000 F100.0(Penetrate)
G03 X29.251312 Y5.090717 Z-1.000000 I-0.069925 J-0.067312 F3500.000000
G01 X29.232703 Y5.091862 Z-1.000000
G02 X29.186360 Y5.091075 Z-1.000000 I-0.024482 J0.076827
G01 X29.173133 Y5.108542 Z-1.000000
G01 X29.193988 Y5.126120 Z-1.000000
G02 X29.289641 Y5.088392 Z-1.000000 I-0.042652 J-0.248256
G03 X29.318522 Y5.075485 Z-1.000000 I0.054340 J0.082828
G03 X29.353321 Y5.071442 Z-1.000000 I0.031316 J0.117755
G01 X29.358249 Y5.063738 Z-1.000000
G01 X29.343321 Y5.051302 Z-1.000000
G01 X29.308221 Y5.041232 Z-1.000000
G01 X29.280763 Y5.069812 Z-1.000000
G00 Z5.000000

(End cutting path id: path56059)


(Start cutting path id: path56059)
(Change tool to Default tool)

G00 Z5.000000
G00 X29.218460 Y5.022672

G01 Z-1.000000 F100.0(Penetrate)
G01 X29.233312 Y5.025197 Z-1.000000 F3500.000000
G01 X29.241240 Y5.021733 Z-1.000000
G01 X29.225640 Y5.015533 Z-1.000000
G01 X29.218440 Y5.022733 Z-1.000000
G01 X29.218460 Y5.022672 Z-1.000000
G00 Z5.000000

(End cutting path id: path56059)


(Start cutting path id: path56059)
(Change tool to Default tool)

G00 Z5.000000
G00 X29.047462 Y5.097782

G01 Z-1.000000 F100.0(Penetrate)
G01 X29.062151 Y5.116732 Z-1.000000 F3500.000000
G01 X29.082042 Y5.106682 Z-1.000000
G01 X29.088042 Y5.091822 Z-1.000000
G01 X29.088980 Y5.106682 Z-1.000000
G01 X29.094464 Y5.116712 Z-1.000000
G01 X29.109210 Y5.121542 Z-1.000000
G01 X29.128500 Y5.121542 Z-1.000000
G01 X29.115260 Y5.105592 Z-1.000000
G01 X29.107530 Y5.089882 Z-1.000000
G01 X29.109860 Y5.081812 Z-1.000000
G01 X29.082590 Y5.074012 Z-1.000000
G01 X29.047490 Y5.074012 Z-1.000000
G01 X29.047462 Y5.097782 Z-1.000000
G00 Z5.000000

(End cutting path id: path56059)


(Start cutting path id: path56059)
(Change tool to Default tool)

G00 Z5.000000
G00 X29.006703 Y5.062112

G01 Z-1.000000 F100.0(Penetrate)
G01 X29.010145 Y5.070479 Z-1.000000 F3500.000000
G01 X29.018593 Y5.074002 Z-1.000000
G01 X29.026960 Y5.070560 Z-1.000000
G01 X29.030483 Y5.062112 Z-1.000000
G01 X29.027041 Y5.053745 Z-1.000000
G01 X29.018593 Y5.050222 Z-1.000000
G01 X29.010226 Y5.053664 Z-1.000000
G01 X29.006703 Y5.062112 Z-1.000000
G01 X29.006703 Y5.062112 Z-1.000000
G00 Z5.000000

(End cutting path id: path56059)


(Start cutting path id: path56059)
(Change tool to Default tool)

G00 Z5.000000
G00 X28.935375 Y5.056862

G01 Z-1.000000 F100.0(Penetrate)
G01 X28.939864 Y5.067282 Z-1.000000 F3500.000000
G01 X28.947265 Y5.068052 Z-1.000000
G01 X28.956321 Y5.059172 Z-1.000000
G01 X28.959155 Y5.049522 Z-1.000000
G01 X28.955780 Y5.041709 Z-1.000000
G01 X28.947265 Y5.038332 Z-1.000000
G01 X28.939612 Y5.042498 Z-1.000000
G01 X28.935375 Y5.056862 Z-1.000000
G01 X28.935375 Y5.056862 Z-1.000000
G00 Z5.000000

(End cutting path id: path56059)


(Start cutting path id: path56059)
(Change tool to Default tool)

G00 Z5.000000
G00 X29.522304 Y4.861314

G01 Z-1.000000 F100.0(Penetrate)
G03 X29.502863 Y4.981136 Z-1.000000 I-0.169741 J0.033948 F3500.000000
G03 X29.428174 Y5.026085 Z-1.000000 I-0.077527 J-0.044295
G01 X29.421342 Y5.031737 Z-1.000000
G02 X29.416834 Y5.077005 Z-1.000000 I0.183577 J0.041140
G02 X29.424023 Y5.120807 Z-1.000000 I0.158116 J-0.003461
G01 X29.432254 Y5.126345 Z-1.000000
G02 X29.464706 Y5.117997 Z-1.000000 I-0.008366 J-0.099767
G01 X29.470344 Y5.109305 Z-1.000000
G01 X29.473976 Y5.098487 Z-1.000000
G03 X29.505884 Y5.062265 Z-1.000000 I0.259080 J0.196058
G02 X29.586048 Y4.891631 Z-1.000000 I-0.188259 J-0.192592
G02 X29.525324 Y4.824569 Z-1.000000 I-0.061809 J-0.005056
G01 X29.520448 Y4.828976 Z-1.000000
G02 X29.522324 Y4.861319 Z-1.000000 I0.114653 J0.009576
G01 X29.522304 Y4.861314 Z-1.000000
G00 Z5.000000

(End cutting path id: path56059)


(Start cutting path id: path56059)
(Change tool to Default tool)

G00 Z5.000000
G00 X29.442826 Y4.262666

G01 Z-1.000000 F100.0(Penetrate)
G01 X29.437426 Y4.241856 Z-1.000000 F3500.000000
G01 X29.442826 Y4.221056 Z-1.000000
G03 X29.445509 Y4.241861 Z-1.000000 I-0.079336 J0.020805
G03 X29.442826 Y4.262666 Z-1.000000 I-0.082019 J0.000000
G01 X29.442826 Y4.262666 Z-1.000000
G00 Z5.000000

(End cutting path id: path56059)


(Start cutting path id: path56059)
(Change tool to Default tool)

G00 Z5.000000
G00 X29.261637 Y4.228890

G01 Z-1.000000 F100.0(Penetrate)
G01 X29.261711 Y4.257734 Z-1.000000 F3500.000000
G03 X29.229307 Y4.281820 Z-1.000000 I-0.046087 J-0.028163
G02 X29.210572 Y4.290248 Z-1.000000 I0.016126 J0.060885
G01 X29.210117 Y4.294680 Z-1.000000
G01 X29.252779 Y4.304853 Z-1.000000
G02 X29.305197 Y4.263560 Z-1.000000 I-0.030352 J-0.092446
G01 X29.306484 Y4.250589 Z-1.000000
G01 X29.294147 Y4.234000 Z-1.000000
G02 X29.266177 Y4.222081 Z-1.000000 I-0.037598 J0.049452
G01 X29.261647 Y4.228900 Z-1.000000
G01 X29.261637 Y4.228890 Z-1.000000
G00 Z5.000000

(End cutting path id: path56059)


(Start cutting path id: path56059)
(Change tool to Default tool)

G00 Z5.000000
G00 X29.354389 Y3.916870

G01 Z-1.000000 F100.0(Penetrate)
G01 X29.343678 Y3.925691 Z-1.000000 F3500.000000
G01 X29.339529 Y3.939710 Z-1.000000
G01 X29.344160 Y3.952019 Z-1.000000
G01 X29.354389 Y3.956730 Z-1.000000
G01 X29.369249 Y3.956912 Z-1.000000
G01 X29.353479 Y3.966912 Z-1.000000
G01 X29.342412 Y3.979097 Z-1.000000
G01 X29.340029 Y3.993482 Z-1.000000
G03 X29.337359 Y4.074120 Z-1.000000 I-0.233675 J0.032627
G01 X29.318729 Y4.095713 Z-1.000000
G02 X29.300154 Y4.106049 Z-1.000000 I0.023589 J0.064252
G01 X29.288129 Y4.119633 Z-1.000000
G01 X29.275806 Y4.129109 Z-1.000000
G01 X29.256159 Y4.128833 Z-1.000000
G01 X29.237311 Y4.129982 Z-1.000000
G01 X29.221859 Y4.144453 Z-1.000000
G01 X29.209729 Y4.167113 Z-1.000000
G01 X29.239859 Y4.180843 Z-1.000000
G02 X29.269688 Y4.189969 Z-1.000000 I0.050327 J-0.111188
G01 X29.280979 Y4.187743 Z-1.000000
G01 X29.288068 Y4.187916 Z-1.000000
G01 X29.291979 Y4.195343 Z-1.000000
G01 X29.296884 Y4.198909 Z-1.000000
G02 X29.317489 Y4.187143 Z-1.000000 I-0.017951 J-0.055360
G01 X29.342989 Y4.164493 Z-1.000000
G01 X29.336989 Y4.197183 Z-1.000000
G02 X29.338566 Y4.223564 Z-1.000000 I0.053899 J0.010017
G01 X29.347149 Y4.229873 Z-1.000000
G01 X29.356973 Y4.223511 Z-1.000000
G02 X29.363329 Y4.193793 Z-1.000000 I-0.066295 J-0.029718
G03 X29.367783 Y4.158988 Z-1.000000 I0.138203 J0.000000
G03 X29.379629 Y4.131383 Z-1.000000 I0.096777 J0.025184
G02 X29.389757 Y4.103266 Z-1.000000 I-0.061439 J-0.038014
G02 X29.396829 Y4.006977 Z-1.000000 I-0.746404 J-0.103223
G02 X29.379239 Y3.926514 Z-1.000000 I-0.185012 J-0.001709
G01 X29.354409 Y3.916777 Z-1.000000
G01 X29.354389 Y3.916870 Z-1.000000
G00 Z5.000000

(End cutting path id: path56059)


(Start cutting path id: path56059)
(Change tool to Default tool)

G00 Z5.000000
G00 X29.384286 Y3.813890

G01 Z-1.000000 F100.0(Penetrate)
G02 X29.368961 Y3.876628 Z-1.000000 I0.226131 J0.088478 F3500.000000
G01 X29.376686 Y3.885220 Z-1.000000
G01 X29.392749 Y3.873436 Z-1.000000
G02 X29.396066 Y3.823670 Z-1.000000 I-0.100732 J-0.031707
G01 X29.389607 Y3.812491 Z-1.000000
G01 X29.384296 Y3.813870 Z-1.000000
G01 X29.384286 Y3.813890 Z-1.000000
G00 Z5.000000

(End cutting path id: path56059)


(Start cutting path id: path56059)
(Change tool to Default tool)

G00 Z5.000000
G00 X29.434626 Y3.817457

G01 Z-1.000000 F100.0(Penetrate)
G02 X29.438924 Y3.843041 Z-1.000000 I0.078295 J0.000000 F3500.000000
G01 X29.449006 Y3.859187 Z-1.000000
G01 X29.463386 Y3.873567 Z-1.000000
G01 X29.442376 Y3.909137 Z-1.000000
G02 X29.427514 Y3.944644 Z-1.000000 I0.121217 J0.071603
G01 X29.429466 Y3.957827 Z-1.000000
G03 X29.454209 Y4.033172 Z-1.000000 I-0.144144 J0.089072
G01 X29.437166 Y4.051657 Z-1.000000
G01 X29.430462 Y4.056778 Z-1.000000
G02 X29.417776 Y4.122927 Z-1.000000 I0.424095 J0.115621
G03 X29.406093 Y4.193262 Z-1.000000 I-0.670952 J-0.075311
G03 X29.393546 Y4.232892 Z-1.000000 I-0.227850 J-0.050337
G02 X29.378262 Y4.276695 Z-1.000000 I0.356806 J0.149067
G02 X29.375036 Y4.298332 Z-1.000000 I0.082648 J0.023381
G01 X29.363326 Y4.289432 Z-1.000000
G01 X29.351806 Y4.271602 Z-1.000000
G01 X29.351624 Y4.292402 Z-1.000000
G01 X29.361257 Y4.309262 Z-1.000000
G01 X29.390074 Y4.314612 Z-1.000000
G01 X29.395258 Y4.317565 Z-1.000000
G03 X29.398974 Y4.336982 Z-1.000000 I-0.048865 J0.019417
G01 X29.393566 Y4.355317 Z-1.000000
G01 X29.383564 Y4.360762 Z-1.000000
G01 X29.357945 Y4.392427 Z-1.000000
G02 X29.413834 Y4.502350 Z-1.000000 I0.234480 J-0.050049
G03 X29.448739 Y4.571846 Z-1.000000 I-0.110839 J0.099184
G01 X29.434634 Y4.604468 Z-1.000000
G01 X29.414376 Y4.645583 Z-1.000000
G01 X29.441234 Y4.669848 Z-1.000000
G01 X29.452247 Y4.665651 Z-1.000000
G01 X29.453184 Y4.659198 Z-1.000000
G01 X29.451436 Y4.648320 Z-1.000000
G03 X29.463084 Y4.616708 Z-1.000000 I0.132741 J0.030961
G01 X29.479669 Y4.616385 Z-1.000000
G03 X29.495564 Y4.673748 Z-1.000000 I-0.105659 J0.060162
G01 X29.497064 Y4.739258 Z-1.000000
G01 X29.513354 Y4.732958 Z-1.000000
G01 X29.523237 Y4.736016 Z-1.000000
G01 X29.529644 Y4.756648 Z-1.000000
G01 X29.529644 Y4.786588 Z-1.000000
G01 X29.550444 Y4.782588 Z-1.000000
G02 X29.571220 Y4.778491 Z-1.000000 I-0.424106 J-2.205350
G02 X29.574644 Y4.777688 Z-1.000000 I-0.011266 J-0.055744
G01 X29.563554 Y4.750028 Z-1.000000
G03 X29.554071 Y4.722187 Z-1.000000 I0.076435 J-0.041569
G03 X29.552134 Y4.678978 Z-1.000000 I0.188333 J-0.030092
G02 X29.544777 Y4.598407 Z-1.000000 I-0.251539 J-0.017652
G01 X29.529844 Y4.592388 Z-1.000000
G01 X29.523647 Y4.590342 Z-1.000000
G03 X29.512124 Y4.547978 Z-1.000000 I0.179837 J-0.071666
G02 X29.500812 Y4.498548 Z-1.000000 I-0.350165 J0.054123
G02 X29.485054 Y4.459628 Z-1.000000 I-0.228119 J0.069713
G01 X29.465724 Y4.421858 Z-1.000000
G01 X29.477674 Y4.322918 Z-1.000000
G02 X29.484048 Y4.224259 Z-1.000000 I-0.881448 J-0.106480
G02 X29.478974 Y4.176428 Z-1.000000 I-0.210510 J-0.001854
G03 X29.473157 Y4.128562 Z-1.000000 I0.233297 J-0.052637
G03 X29.476274 Y4.042459 Z-1.000000 I0.767743 J-0.015318
G02 X29.472790 Y3.814322 Z-1.000000 I-1.065164 J-0.097830
G01 X29.445374 Y3.790065 Z-1.000000
G01 X29.438970 Y3.794410 Z-1.000000
G02 X29.434564 Y3.817405 Z-1.000000 I0.057807 J0.022995
G01 X29.434626 Y3.817457 Z-1.000000
G00 Z5.000000

(End cutting path id: path56059)


(Start cutting path id: path56059)
(Change tool to Default tool)

G00 Z5.000000
G00 X28.780833 Y4.348170

G01 Z-1.000000 F100.0(Penetrate)
G01 X28.783652 Y4.357802 Z-1.000000 F3500.000000
G01 X28.792723 Y4.366700 Z-1.000000
G01 X28.800077 Y4.365962 Z-1.000000
G01 X28.804613 Y4.355510 Z-1.000000
G01 X28.800440 Y4.341210 Z-1.000000
G01 X28.792723 Y4.336980 Z-1.000000
G01 X28.784243 Y4.340322 Z-1.000000
G01 X28.780833 Y4.348170 Z-1.000000
G01 X28.780833 Y4.348170 Z-1.000000
G00 Z5.000000

(End cutting path id: path56059)


(Start cutting path id: path56059)
(Change tool to Default tool)

G00 Z5.000000
G00 X28.406314 Y4.027850

G01 Z-1.000000 F100.0(Penetrate)
G02 X28.414582 Y4.038021 Z-1.000000 I0.042753 J-0.026309 F3500.000000
G01 X28.418904 Y4.039740 Z-1.000000
G01 X28.422059 Y4.037672 Z-1.000000
G01 X28.424104 Y4.027850 Z-1.000000
G01 X28.420526 Y4.019545 Z-1.000000
G01 X28.411514 Y4.015960 Z-1.000000
G01 X28.405747 Y4.019711 Z-1.000000
G01 X28.406314 Y4.027850 Z-1.000000
G01 X28.406314 Y4.027850 Z-1.000000
G00 Z5.000000

(End cutting path id: path56059)


(Start cutting path id: path56059)
(Change tool to Default tool)

G00 Z5.000000
G00 X26.871785 Y4.059760

G01 Z-1.000000 F100.0(Penetrate)
G02 X26.849324 Y4.069238 Z-1.000000 I0.011739 J0.059176 F3500.000000
G02 X26.788565 Y4.117050 Z-1.000000 I0.342839 J0.498183
G01 X26.730095 Y4.169450 Z-1.000000
G01 X26.762785 Y4.169982 Z-1.000000
G02 X26.790553 Y4.165537 Z-1.000000 I0.001316 J-0.080744
G01 X26.795475 Y4.158622 Z-1.000000
G01 X26.799336 Y4.150661 Z-1.000000
G01 X26.810665 Y4.146732 Z-1.000000
G01 X26.824030 Y4.142637 Z-1.000000
G02 X26.846645 Y4.122452 Z-1.000000 I-0.063533 J-0.093943
G01 X26.874232 Y4.112078 Z-1.000000
G01 X26.883425 Y4.127752 Z-1.000000
G01 X26.877325 Y4.143682 Z-1.000000
G01 X26.910705 Y4.138382 Z-1.000000
G02 X26.986773 Y4.114109 Z-1.000000 I-0.041837 J-0.262441
G01 X26.991235 Y4.098522 Z-1.000000
G01 X26.983649 Y4.094051 Z-1.000000
G02 X26.936325 Y4.096222 Z-1.000000 I-0.011580 J0.264460
G03 X26.898297 Y4.095499 Z-1.000000 I-0.016673 J-0.123522
G01 X26.895425 Y4.089122 Z-1.000000
G01 X26.906050 Y4.079283 Z-1.000000
G01 X26.921725 Y4.075422 Z-1.000000
G01 X26.931554 Y4.070998 Z-1.000000
G01 X26.932205 Y4.063532 Z-1.000000
G01 X26.920540 Y4.056521 Z-1.000000
G02 X26.871795 Y4.059732 Z-1.000000 I-0.011938 J0.190399
G01 X26.871785 Y4.059760 Z-1.000000
G00 Z5.000000

(End cutting path id: path56059)


(Start cutting path id: path56059)
(Change tool to Default tool)

G00 Z5.000000
G00 X26.528589 Y4.062560

G01 Z-1.000000 F100.0(Penetrate)
G01 X26.533061 Y4.091602 Z-1.000000 F3500.000000
G02 X26.585319 Y4.111450 Z-1.000000 I0.053447 J-0.062003
G01 X26.611219 Y4.111828 Z-1.000000
G01 X26.590069 Y4.127868 Z-1.000000
G01 X26.568919 Y4.143918 Z-1.000000
G01 X26.613839 Y4.161958 Z-1.000000
G01 X26.644045 Y4.159503 Z-1.000000
G01 X26.648209 Y4.141168 Z-1.000000
G01 X26.635619 Y4.111078 Z-1.000000
G01 X26.607429 Y4.081358 Z-1.000000
G02 X26.551421 Y4.053136 Z-1.000000 I-0.087527 J0.104015
G01 X26.528579 Y4.062568 Z-1.000000
G01 X26.528589 Y4.062560 Z-1.000000
G00 Z5.000000

(End cutting path id: path56059)


(Start cutting path id: path56059)
(Change tool to Default tool)

G00 Z5.000000
G00 X26.451399 Y4.107700

G01 Z-1.000000 F100.0(Penetrate)
G02 X26.419032 Y4.167190 Z-1.000000 I0.238458 J0.168288 F3500.000000
G02 X26.409449 Y4.212112 Z-1.000000 I0.124650 J0.050075
G03 X26.404021 Y4.258738 Z-1.000000 I-0.302271 J-0.011559
G03 X26.395539 Y4.283442 Z-1.000000 I-0.093718 J-0.018370
G03 X26.383435 Y4.307179 Z-1.000000 I-2.797337 J-1.411500
G03 X26.357649 Y4.357122 Z-1.000000 I-31.613100 J-16.290307
G02 X26.339305 Y4.413348 Z-1.000000 I0.162847 J0.084234
G01 X26.348349 Y4.417182 Z-1.000000
G01 X26.366664 Y4.410347 Z-1.000000
G01 X26.376439 Y4.423082 Z-1.000000
G02 X26.375966 Y4.449828 Z-1.000000 I0.368616 J0.019897
G02 X26.377939 Y4.503322 Z-1.000000 I1.461476 J-0.027121
G01 X26.380839 Y4.556822 Z-1.000000
G01 X26.391589 Y4.530072 Z-1.000000
G03 X26.405236 Y4.507620 Z-1.000000 I0.074357 J0.029824
G01 X26.414609 Y4.503322 Z-1.000000
G01 X26.421610 Y4.498121 Z-1.000000
G02 X26.426879 Y4.462412 Z-1.000000 I-0.118377 J-0.035709
G03 X26.430937 Y4.423724 Z-1.000000 I0.186445 J-0.000000
G01 X26.436779 Y4.415382 Z-1.000000
G01 X26.441977 Y4.407076 Z-1.000000
G02 X26.441379 Y4.373072 Z-1.000000 I-0.133321 J-0.014663
G01 X26.451051 Y4.353660 Z-1.000000
G01 X26.469539 Y4.357692 Z-1.000000
G01 X26.485099 Y4.378492 Z-1.000000
G01 X26.480399 Y4.311152 Z-1.000000
G03 X26.483101 Y4.248517 Z-1.000000 I0.279703 J-0.019309
G01 X26.491929 Y4.237602 Z-1.000000
G01 X26.519065 Y4.199892 Z-1.000000
G02 X26.499229 Y4.071983 Z-1.000000 I-0.329135 J-0.014451
G01 X26.491429 Y4.050783 Z-1.000000
G01 X26.451399 Y4.107700 Z-1.000000
G00 Z5.000000

(End cutting path id: path56059)


(Start cutting path id: path56059)
(Change tool to Default tool)

G00 Z5.000000
G00 X26.487339 Y4.203200

G01 Z-1.000000 F100.0(Penetrate)
G01 X26.475219 Y4.224000 Z-1.000000 F3500.000000
G01 X26.475219 Y4.182390 Z-1.000000
G01 X26.475219 Y4.140780 Z-1.000000
G01 X26.487339 Y4.161580 Z-1.000000
G01 X26.492939 Y4.182385 Z-1.000000
G01 X26.487339 Y4.203190 Z-1.000000
G01 X26.487339 Y4.203200 Z-1.000000
G00 Z5.000000

(End cutting path id: path56059)


(Start cutting path id: path56059)
(Change tool to Default tool)

G00 Z5.000000
G00 X26.446709 Y4.256700

G01 Z-1.000000 F100.0(Penetrate)
G01 X26.440709 Y4.241840 Z-1.000000 F3500.000000
G01 X26.446709 Y4.226980 Z-1.000000
G01 X26.449592 Y4.241865 Z-1.000000
G01 X26.446709 Y4.256700 Z-1.000000
G01 X26.446709 Y4.256700 Z-1.000000
G00 Z5.000000

(End cutting path id: path56059)


(Start cutting path id: path56059)
(Change tool to Default tool)

G00 Z5.000000
G00 X26.510209 Y4.309910

G01 Z-1.000000 F100.0(Penetrate)
G02 X26.526939 Y4.351446 Z-1.000000 I0.059926 J0.000000 F3500.000000
G01 X26.557329 Y4.358920 Z-1.000000
G01 X26.560224 Y4.352232 Z-1.000000
G02 X26.539899 Y4.320280 Z-1.000000 I-0.120793 J0.054398
G01 X26.510209 Y4.285740 Z-1.000000
G01 X26.510209 Y4.309910 Z-1.000000
G00 Z5.000000

(End cutting path id: path56059)


(Start cutting path id: path56059)
(Change tool to Default tool)

G00 Z5.000000
G00 X26.498321 Y4.372650

G01 Z-1.000000 F100.0(Penetrate)
G01 X26.501763 Y4.381017 Z-1.000000 F3500.000000
G01 X26.510211 Y4.384540 Z-1.000000
G01 X26.518578 Y4.381098 Z-1.000000
G01 X26.522101 Y4.372650 Z-1.000000
G01 X26.518659 Y4.364283 Z-1.000000
G01 X26.510211 Y4.360760 Z-1.000000
G01 X26.501844 Y4.364202 Z-1.000000
G01 X26.498321 Y4.372650 Z-1.000000
G01 X26.498321 Y4.372650 Z-1.000000
G00 Z5.000000

(End cutting path id: path56059)


(Start cutting path id: path56059)
(Change tool to Default tool)

G00 Z5.000000
G00 X26.498321 Y4.408320

G01 Z-1.000000 F100.0(Penetrate)
G01 X26.501763 Y4.416687 Z-1.000000 F3500.000000
G01 X26.510211 Y4.420210 Z-1.000000
G01 X26.518578 Y4.416768 Z-1.000000
G01 X26.522101 Y4.408320 Z-1.000000
G01 X26.518659 Y4.399953 Z-1.000000
G01 X26.510211 Y4.396430 Z-1.000000
G01 X26.501844 Y4.399872 Z-1.000000
G01 X26.498321 Y4.408320 Z-1.000000
G01 X26.498321 Y4.408320 Z-1.000000
G00 Z5.000000

(End cutting path id: path56059)


(Start cutting path id: path56059)
(Change tool to Default tool)

G00 Z5.000000
G00 X26.466773 Y4.483750

G01 Z-1.000000 F100.0(Penetrate)
G02 X26.472163 Y4.511454 Z-1.000000 I0.105025 J-0.006057 F3500.000000
G01 X26.477513 Y4.515290 Z-1.000000
G01 X26.486959 Y4.505436 Z-1.000000
G02 X26.475513 Y4.468900 Z-1.000000 I-0.074266 J0.003206
G01 X26.470342 Y4.468998 Z-1.000000
G01 X26.466813 Y4.483750 Z-1.000000
G01 X26.466773 Y4.483750 Z-1.000000
G00 Z5.000000

(End cutting path id: path56059)


(Start cutting path id: path56059)
(Change tool to Default tool)

G00 Z5.000000
G00 X26.415107 Y4.603247

G01 Z-1.000000 F100.0(Penetrate)
G01 X26.416974 Y4.606684 Z-1.000000 F3500.000000
G02 X26.432937 Y4.614767 Z-1.000000 I0.045633 J-0.070319
G01 X26.446547 Y4.615538 Z-1.000000
G01 X26.450767 Y4.610067 Z-1.000000
G01 X26.446734 Y4.602636 Z-1.000000
G01 X26.432937 Y4.598547 Z-1.000000
G02 X26.417164 Y4.600580 Z-1.000000 I0.000000 J0.062186
G01 X26.415107 Y4.603247 Z-1.000000
G01 X26.415107 Y4.603247 Z-1.000000
G00 Z5.000000

(End cutting path id: path56059)


(Start cutting path id: path56059)
(Change tool to Default tool)

G00 Z5.000000
G00 X26.325387 Y4.484370

G01 Z-1.000000 F100.0(Penetrate)
G03 X26.313632 Y4.522703 Z-1.000000 I-0.175012 J-0.032699 F3500.000000
G01 X26.306787 Y4.527190 Z-1.000000
G01 X26.300748 Y4.531699 Z-1.000000
G02 X26.296227 Y4.562860 Z-1.000000 I0.105134 J0.031161
G01 X26.310925 Y4.585124 Z-1.000000
G01 X26.336687 Y4.580150 Z-1.000000
G01 X26.355067 Y4.561770 Z-1.000000
G01 X26.347767 Y4.505850 Z-1.000000
G01 X26.335314 Y4.481206 Z-1.000000
G01 X26.325407 Y4.484380 Z-1.000000
G01 X26.325387 Y4.484370 Z-1.000000
G00 Z5.000000

(End cutting path id: path56059)


(Start cutting path id: path56059)
(Change tool to Default tool)

G00 Z5.000000
G00 X26.183289 Y4.630747

G01 Z-1.000000 F100.0(Penetrate)
G02 X26.100189 Y4.664171 Z-1.000000 I0.023138 J0.177541 F3500.000000
G01 X26.103389 Y4.689677 Z-1.000000
G01 X26.105277 Y4.716773 Z-1.000000
G03 X26.014339 Y4.741187 Z-1.000000 I-0.090938 J-0.157160
G01 X26.002552 Y4.744742 Z-1.000000
G01 X25.999019 Y4.751327 Z-1.000000
G01 X26.004369 Y4.756870 Z-1.000000
G02 X26.110370 Y4.755327 Z-1.000000 I0.037580 J-1.060312
G01 X26.144450 Y4.753127 Z-1.000000
G01 X26.138550 Y4.722117 Z-1.000000
G01 X26.132650 Y4.691107 Z-1.000000
G01 X26.184740 Y4.668067 Z-1.000000
G02 X26.232309 Y4.642088 Z-1.000000 I-0.131427 J-0.297189
G01 X26.236830 Y4.633687 Z-1.000000
G01 X26.233826 Y4.626108 Z-1.000000
G01 X26.227930 Y4.624287 Z-1.000000
G03 X26.218977 Y4.625866 Z-1.000000 I-0.033963 J-0.166417
G03 X26.183350 Y4.630787 Z-1.000000 I-0.251615 J-1.690149
G01 X26.183289 Y4.630747 Z-1.000000
G00 Z5.000000

(End cutting path id: path56059)


(Start cutting path id: path56059)
(Change tool to Default tool)

G00 Z5.000000
G00 X26.289146 Y4.695334

G01 Z-1.000000 F100.0(Penetrate)
G01 X26.266496 Y4.720844 Z-1.000000 F3500.000000
G01 X26.292586 Y4.707164 Z-1.000000
G02 X26.326893 Y4.678915 Z-1.000000 I-0.050524 J-0.096315
G01 X26.322536 Y4.669834 Z-1.000000
G01 X26.313219 Y4.672984 Z-1.000000
G02 X26.289146 Y4.695344 Z-1.000000 I0.103497 J0.135563
G01 X26.289146 Y4.695334 Z-1.000000
G00 Z5.000000

(End cutting path id: path56059)


(Start cutting path id: path56059)
(Change tool to Default tool)

G00 Z5.000000
G00 X26.474540 Y4.867014

G01 Z-1.000000 F100.0(Penetrate)
G01 X26.480258 Y4.889823 Z-1.000000 F3500.000000
G01 X26.488460 Y4.893084 Z-1.000000
G01 X26.513235 Y4.859968 Z-1.000000
G01 X26.490360 Y4.836304 Z-1.000000
G01 X26.480519 Y4.842296 Z-1.000000
G02 X26.474510 Y4.867014 Z-1.000000 I0.047835 J0.024718
G01 X26.474540 Y4.867014 Z-1.000000
G00 Z5.000000

(End cutting path id: path56059)


(Start cutting path id: path56059)
(Change tool to Default tool)

G00 Z5.000000
G00 X26.474540 Y4.920183

G01 Z-1.000000 F100.0(Penetrate)
G01 X26.478291 Y4.925950 Z-1.000000 F3500.000000
G01 X26.486430 Y4.925383 Z-1.000000
G02 X26.496601 Y4.917115 Z-1.000000 I-0.026309 J-0.042753
G01 X26.498320 Y4.912793 Z-1.000000
G01 X26.496252 Y4.909638 Z-1.000000
G01 X26.486430 Y4.907593 Z-1.000000
G01 X26.478125 Y4.911171 Z-1.000000
G01 X26.474540 Y4.920183 Z-1.000000
G01 X26.474540 Y4.920183 Z-1.000000
G00 Z5.000000

(End cutting path id: path56059)


(Start cutting path id: path56059)
(Change tool to Default tool)

G00 Z5.000000
G00 X26.635284 Y4.872214

G01 Z-1.000000 F100.0(Penetrate)
G02 X26.657299 Y4.886553 Z-1.000000 I0.038176 J-0.034542 F3500.000000
G01 X26.669724 Y4.883604 Z-1.000000
G01 X26.669148 Y4.863416 Z-1.000000
G02 X26.630224 Y4.848334 Z-1.000000 I-0.039580 J0.044378
G01 X26.613524 Y4.848152 Z-1.000000
G01 X26.635284 Y4.872214 Z-1.000000
G00 Z5.000000

(End cutting path id: path56059)


(Start cutting path id: path56059)
(Change tool to Default tool)

G00 Z5.000000
G00 X26.628860 Y4.806764

G01 Z-1.000000 F100.0(Penetrate)
G01 X26.613830 Y4.824864 Z-1.000000 F3500.000000
G01 X26.633340 Y4.817364 Z-1.000000
G01 X26.649292 Y4.807430 Z-1.000000
G01 X26.652850 Y4.799264 Z-1.000000
G01 X26.646735 Y4.794768 Z-1.000000
G01 X26.628850 Y4.806764 Z-1.000000
G01 X26.628860 Y4.806764 Z-1.000000
G00 Z5.000000

(End cutting path id: path56059)


(Start cutting path id: path56059)
(Change tool to Default tool)

G00 Z5.000000
G00 X26.727632 Y4.978913

G01 Z-1.000000 F100.0(Penetrate)
G03 X26.728803 Y5.000618 Z-1.000000 I-0.052787 J0.013732 F3500.000000
G01 X26.723032 Y5.009333 Z-1.000000
G01 X26.716151 Y5.018171 Z-1.000000
G02 X26.712262 Y5.042873 Z-1.000000 I0.076498 J0.024702
G02 X26.750935 Y5.130457 Z-1.000000 I0.118513 J0.000000
G02 X26.850780 Y5.169136 Z-1.000000 I0.099845 J-0.109529
G01 X26.878700 Y5.169136 Z-1.000000
G01 X26.878700 Y5.210746 Z-1.000000
G01 X26.891559 Y5.243294 Z-1.000000
G01 X26.907670 Y5.241686 Z-1.000000
G02 X26.915855 Y5.181814 Z-1.000000 I-0.063337 J-0.039154
G01 X26.883160 Y5.157246 Z-1.000000
G01 X26.871811 Y5.152258 Z-1.000000
G01 X26.866810 Y5.139416 Z-1.000000
G01 X26.883910 Y5.124578 Z-1.000000
G01 X26.908420 Y5.145316 Z-1.000000
G01 X26.932512 Y5.163401 Z-1.000000
G01 X26.950030 Y5.146288 Z-1.000000
G02 X26.933573 Y5.106208 Z-1.000000 I-0.057033 J0.000000
G01 X26.897970 Y5.093578 Z-1.000000
G01 X26.859030 Y5.097878 Z-1.000000
G01 X26.864330 Y5.061688 Z-1.000000
G02 X26.862412 Y5.027716 Z-1.000000 I-0.084007 J-0.012297
G02 X26.848550 Y5.002198 Z-1.000000 I-0.059187 J0.015628
G01 X26.820960 Y4.988781 Z-1.000000
G01 X26.812920 Y4.999698 Z-1.000000
G01 X26.812731 Y5.031171 Z-1.000000
G01 X26.795480 Y5.042978 Z-1.000000
G01 X26.765760 Y5.043361 Z-1.000000
G01 X26.769660 Y4.999241 Z-1.000000
G01 X26.773560 Y4.955121 Z-1.000000
G01 X26.747470 Y4.955121 Z-1.000000
G01 X26.721380 Y4.955121 Z-1.000000
G01 X26.727632 Y4.978913 Z-1.000000
G00 Z5.000000

(End cutting path id: path56059)


(Start cutting path id: path56059)
(Change tool to Default tool)

G00 Z5.000000
G00 X26.679435 Y5.008162

G01 Z-1.000000 F100.0(Penetrate)
G02 X26.658574 Y5.041892 Z-1.000000 I0.067761 J0.065226 F3500.000000
G01 X26.664475 Y5.050252 Z-1.000000
G02 X26.714041 Y5.024722 Z-1.000000 I-0.000000 J-0.060881
G01 X26.710765 Y4.985312 Z-1.000000
G01 X26.706071 Y4.984947 Z-1.000000
G02 X26.679435 Y5.008162 Z-1.000000 I0.120274 J0.164889
G01 X26.679435 Y5.008162 Z-1.000000
G00 Z5.000000

(End cutting path id: path56059)


(Start cutting path id: path56059)
(Change tool to Default tool)

G00 Z5.000000
G00 X26.688527 Y5.096782

G01 Z-1.000000 F100.0(Penetrate)
G02 X26.700000 Y5.133695 Z-1.000000 I0.065119 J0.000000 F3500.000000
G01 X26.722487 Y5.146142 Z-1.000000
G01 X26.742017 Y5.146978 Z-1.000000
G01 X26.718237 Y5.157198 Z-1.000000
G01 X26.710037 Y5.168248 Z-1.000000
G01 X26.718794 Y5.172680 Z-1.000000
G01 X26.719237 Y5.179388 Z-1.000000
G01 X26.719013 Y5.188857 Z-1.000000
G02 X26.736747 Y5.211298 Z-1.000000 I0.076090 J-0.041903
G01 X26.760627 Y5.232908 Z-1.000000
G01 X26.755227 Y5.189648 Z-1.000000
G02 X26.745108 Y5.148259 Z-1.000000 I-0.185271 J0.023363
G02 X26.728097 Y5.116498 Z-1.000000 I-0.123174 J0.045536
G02 X26.697887 Y5.090965 Z-1.000000 I-0.067385 J0.049089
G01 X26.688497 Y5.096778 Z-1.000000
G01 X26.688527 Y5.096782 Z-1.000000
G00 Z5.000000

(End cutting path id: path56059)


(Start cutting path id: path56059)
(Change tool to Default tool)

G00 Z5.000000
G00 X26.816322 Y5.104742

G01 Z-1.000000 F100.0(Penetrate)
G01 X26.794459 Y5.105905 Z-1.000000 F3500.000000
G01 X26.790722 Y5.084062 Z-1.000000
G01 X26.799076 Y5.079567 Z-1.000000
G01 X26.810932 Y5.084685 Z-1.000000
G01 X26.818281 Y5.097426 Z-1.000000
G01 X26.816332 Y5.104745 Z-1.000000
G01 X26.816322 Y5.104742 Z-1.000000
G00 Z5.000000

(End cutting path id: path56059)


(Start cutting path id: path56059)
(Change tool to Default tool)

G00 Z5.000000
G00 X26.819301 Y5.198722

G01 Z-1.000000 F100.0(Penetrate)
G02 X26.821431 Y5.214466 Z-1.000000 I0.059246 J0.000000 F3500.000000
G01 X26.824301 Y5.216652 Z-1.000000
G01 X26.829087 Y5.217352 Z-1.000000
G03 X26.848081 Y5.223852 Z-1.000000 I-0.073603 J0.246094
G01 X26.857114 Y5.216401 Z-1.000000
G01 X26.843081 Y5.195622 Z-1.000000
G01 X26.819301 Y5.180772 Z-1.000000
G01 X26.819301 Y5.198722 Z-1.000000
G00 Z5.000000

(End cutting path id: path56059)


(Start cutting path id: path56059)
(Change tool to Default tool)

G00 Z5.000000
G00 X26.783637 Y5.228552

G01 Z-1.000000 F100.0(Penetrate)
G01 X26.787215 Y5.236857 Z-1.000000 F3500.000000
G01 X26.796227 Y5.240442 Z-1.000000
G01 X26.801994 Y5.236691 Z-1.000000
G01 X26.801427 Y5.228552 Z-1.000000
G02 X26.793159 Y5.218381 Z-1.000000 I-0.042753 J0.026309
G01 X26.788837 Y5.216662 Z-1.000000
G01 X26.785682 Y5.218730 Z-1.000000
G01 X26.783637 Y5.228552 Z-1.000000
G01 X26.783637 Y5.228552 Z-1.000000
G00 Z5.000000

(End cutting path id: path56059)


(Start cutting path id: path56059)
(Change tool to Default tool)

G00 Z5.000000
G00 X26.807413 Y5.274702

G01 Z-1.000000 F100.0(Penetrate)
G01 X26.810291 Y5.284914 Z-1.000000 F3500.000000
G01 X26.819303 Y5.293942 Z-1.000000
G01 X26.827526 Y5.294736 Z-1.000000
G01 X26.831193 Y5.289442 Z-1.000000
G01 X26.828315 Y5.279230 Z-1.000000
G01 X26.819303 Y5.270202 Z-1.000000
G01 X26.811080 Y5.269408 Z-1.000000
G01 X26.807413 Y5.274702 Z-1.000000
G01 X26.807413 Y5.274702 Z-1.000000
G00 Z5.000000

(End cutting path id: path56059)


(Start cutting path id: path56059)
(Change tool to Default tool)

G00 Z5.000000
G00 X26.866858 Y5.305832

G01 Z-1.000000 F100.0(Penetrate)
G02 X26.883118 Y5.320504 Z-1.000000 I0.058019 J-0.047954 F3500.000000
G01 X26.893548 Y5.323662 Z-1.000000
G01 X26.896933 Y5.319678 Z-1.000000
G01 X26.890648 Y5.305832 Z-1.000000
G02 X26.874388 Y5.291160 Z-1.000000 I-0.058019 J0.047954
G01 X26.863958 Y5.288002 Z-1.000000
G01 X26.860573 Y5.291986 Z-1.000000
G01 X26.866858 Y5.305832 Z-1.000000
G01 X26.866858 Y5.305832 Z-1.000000
G00 Z5.000000

(End cutting path id: path56059)


(Start cutting path id: path56059)
(Change tool to Default tool)

G00 Z5.000000
G00 X26.874958 Y5.363652

G01 Z-1.000000 F100.0(Penetrate)
G01 X26.854418 Y5.394992 Z-1.000000 F3500.000000
G01 X26.872898 Y5.394992 Z-1.000000
G01 X26.896871 Y5.380916 Z-1.000000
G01 X26.900128 Y5.346212 Z-1.000000
G01 X26.894003 Y5.344150 Z-1.000000
G02 X26.874958 Y5.363652 Z-1.000000 I0.040180 J0.058289
G01 X26.874958 Y5.363652 Z-1.000000
G00 Z5.000000

(End cutting path id: path56059)


(Start cutting path id: path56059)
(Change tool to Default tool)

G00 Z5.000000
G00 X26.946888 Y5.289002

G01 Z-1.000000 F100.0(Penetrate)
G01 X26.955374 Y5.300310 Z-1.000000 F3500.000000
G01 X26.962828 Y5.298502 Z-1.000000
G01 X26.965329 Y5.274685 Z-1.000000
G01 X26.950488 Y5.264242 Z-1.000000
G01 X26.945749 Y5.268325 Z-1.000000
G02 X26.946888 Y5.289022 Z-1.000000 I0.050776 J0.007587
G01 X26.946888 Y5.289002 Z-1.000000
G00 Z5.000000

(End cutting path id: path56059)


(Start cutting path id: path56059)
(Change tool to Default tool)

G00 Z5.000000
G00 X27.015458 Y5.430712

G01 Z-1.000000 F100.0(Penetrate)
G01 X27.014878 Y5.438807 Z-1.000000 F3500.000000
G01 X27.020658 Y5.442602 Z-1.000000
G01 X27.029632 Y5.439055 Z-1.000000
G01 X27.033248 Y5.430712 Z-1.000000
G01 X27.031164 Y5.420851 Z-1.000000
G01 X27.028048 Y5.418822 Z-1.000000
G01 X27.023769 Y5.420525 Z-1.000000
G02 X27.015458 Y5.430712 Z-1.000000 I0.035147 J0.037159
G01 X27.015458 Y5.430712 Z-1.000000
G00 Z5.000000

(End cutting path id: path56059)


(Start cutting path id: path56059)
(Change tool to Default tool)

G00 Z5.000000
G00 X27.092969 Y5.532042

G01 Z-1.000000 F100.0(Penetrate)
G02 X27.108249 Y5.545328 Z-1.000000 I0.048206 J-0.040011 F3500.000000
G01 X27.113449 Y5.544722 Z-1.000000
G01 X27.114836 Y5.526162 Z-1.000000
G01 X27.090579 Y5.513922 Z-1.000000
G01 X27.086893 Y5.518128 Z-1.000000
G01 X27.092979 Y5.532042 Z-1.000000
G01 X27.092969 Y5.532042 Z-1.000000
G00 Z5.000000

(End cutting path id: path56059)


(Start cutting path id: path56059)
(Change tool to Default tool)

G00 Z5.000000
G00 X27.206080 Y5.489572

G01 Z-1.000000 F100.0(Penetrate)
G03 X27.228407 Y5.501930 Z-1.000000 I-0.040148 J0.098883 F3500.000000
G03 X27.246170 Y5.518542 Z-1.000000 I-0.056396 J0.078107
G02 X27.263701 Y5.534045 Z-1.000000 I0.057835 J-0.047739
G01 X27.275480 Y5.537272 Z-1.000000
G01 X27.277542 Y5.532980 Z-1.000000
G02 X27.253220 Y5.507612 Z-1.000000 I-0.116569 J0.087417
G02 X27.216066 Y5.482824 Z-1.000000 I-0.144064 J0.175690
G01 X27.199720 Y5.479072 Z-1.000000
G01 X27.206120 Y5.489572 Z-1.000000
G01 X27.206080 Y5.489572 Z-1.000000
G00 Z5.000000

(End cutting path id: path56059)


(Start cutting path id: path56059)
(Change tool to Default tool)

G00 Z5.000000
G00 X26.831193 Y5.585254

G01 Z-1.000000 F100.0(Penetrate)
G01 X26.835359 Y5.592907 Z-1.000000 F3500.000000
G01 X26.849723 Y5.597144 Z-1.000000
G01 X26.860143 Y5.592655 Z-1.000000
G01 X26.860913 Y5.585254 Z-1.000000
G01 X26.852033 Y5.576198 Z-1.000000
G01 X26.842383 Y5.573364 Z-1.000000
G01 X26.834570 Y5.576739 Z-1.000000
G01 X26.831193 Y5.585254 Z-1.000000
G01 X26.831193 Y5.585254 Z-1.000000
G00 Z5.000000

(End cutting path id: path56059)


(Start cutting path id: path56059)
(Change tool to Default tool)

G00 Z5.000000
G00 X26.724200 Y5.418822

G01 Z-1.000000 F100.0(Penetrate)
G01 X26.728808 Y5.426053 Z-1.000000 F3500.000000
G01 X26.749830 Y5.430712 Z-1.000000
G03 X26.773696 Y5.435939 Z-1.000000 I0.000000 J0.057099
G03 X26.814420 Y5.460432 Z-1.000000 I-0.090257 J0.196170
G02 X26.854625 Y5.486332 Z-1.000000 I0.182770 J-0.239557
G01 X26.869040 Y5.489772 Z-1.000000
G01 X26.872182 Y5.485354 Z-1.000000
G01 X26.863840 Y5.473602 Z-1.000000
G03 X26.846129 Y5.456254 Z-1.000000 I0.060253 J-0.079229
G01 X26.842940 Y5.447232 Z-1.000000
G01 X26.826860 Y5.422804 Z-1.000000
G02 X26.751500 Y5.406932 Z-1.000000 I-0.075360 J0.170961
G02 X26.728891 Y5.411608 Z-1.000000 I0.000000 J0.056994
G01 X26.724150 Y5.418822 Z-1.000000
G01 X26.724200 Y5.418822 Z-1.000000
G00 Z5.000000

(End cutting path id: path56059)


(Start cutting path id: path56059)
(Change tool to Default tool)

G00 Z5.000000
G00 X26.664760 Y5.430712

G01 Z-1.000000 F100.0(Penetrate)
G01 X26.668926 Y5.438365 Z-1.000000 F3500.000000
G01 X26.683290 Y5.442602 Z-1.000000
G01 X26.693710 Y5.438113 Z-1.000000
G01 X26.694480 Y5.430712 Z-1.000000
G01 X26.685600 Y5.421656 Z-1.000000
G01 X26.675950 Y5.418822 Z-1.000000
G01 X26.668137 Y5.422197 Z-1.000000
G01 X26.664760 Y5.430712 Z-1.000000
G01 X26.664760 Y5.430712 Z-1.000000
G00 Z5.000000

(End cutting path id: path56059)


(Start cutting path id: path56059)
(Change tool to Default tool)

G00 Z5.000000
G00 X26.545879 Y5.369872

G01 Z-1.000000 F100.0(Penetrate)
G01 X26.548757 Y5.380084 Z-1.000000 F3500.000000
G01 X26.557769 Y5.389112 Z-1.000000
G01 X26.565992 Y5.389906 Z-1.000000
G01 X26.569659 Y5.384612 Z-1.000000
G01 X26.566738 Y5.374364 Z-1.000000
G01 X26.557769 Y5.365372 Z-1.000000
G01 X26.549546 Y5.364578 Z-1.000000
G01 X26.545879 Y5.369872 Z-1.000000
G01 X26.545879 Y5.369872 Z-1.000000
G00 Z5.000000

(End cutting path id: path56059)


(Start cutting path id: path56059)
(Change tool to Default tool)

G00 Z5.000000
G00 X26.661968 Y5.249352

G01 Z-1.000000 F100.0(Penetrate)
G01 X26.656768 Y5.305822 Z-1.000000 F3500.000000
G01 X26.681378 Y5.325812 Z-1.000000
G01 X26.697484 Y5.326576 Z-1.000000
G01 X26.700948 Y5.312782 Z-1.000000
G01 X26.687678 Y5.287992 Z-1.000000
G01 X26.711868 Y5.287992 Z-1.000000
G01 X26.731466 Y5.283458 Z-1.000000
G01 X26.736058 Y5.276102 Z-1.000000
G01 X26.731477 Y5.268843 Z-1.000000
G01 X26.711008 Y5.264212 Z-1.000000
G01 X26.695275 Y5.257782 Z-1.000000
G01 X26.692798 Y5.246382 Z-1.000000
G02 X26.694251 Y5.206035 Z-1.000000 I-0.058292 J-0.022299
G01 X26.676538 Y5.192882 Z-1.000000
G01 X26.671002 Y5.197171 Z-1.000000
G02 X26.661938 Y5.249352 Z-1.000000 I0.318913 J0.082276
G01 X26.661968 Y5.249352 Z-1.000000
G00 Z5.000000

(End cutting path id: path56059)


(Start cutting path id: path56059)
(Change tool to Default tool)

G00 Z5.000000
G00 X26.586762 Y5.584452

G01 Z-1.000000 F100.0(Penetrate)
G02 X26.609202 Y5.600516 Z-1.000000 I0.048122 J-0.043515 F3500.000000
G01 X26.624752 Y5.600832 Z-1.000000
G01 X26.627241 Y5.593418 Z-1.000000
G01 X26.610392 Y5.577862 Z-1.000000
G01 X26.589301 Y5.575680 Z-1.000000
G01 X26.586762 Y5.584462 Z-1.000000
G01 X26.586762 Y5.584452 Z-1.000000
G00 Z5.000000

(End cutting path id: path56059)


(Start cutting path id: path56059)
(Change tool to Default tool)

G00 Z5.000000
G00 X26.331893 Y5.471932

G01 Z-1.000000 F100.0(Penetrate)
G01 X26.331893 Y5.493062 Z-1.000000 F3500.000000
G01 X26.314683 Y5.478782 Z-1.000000
G01 X26.296863 Y5.471877 Z-1.000000
G01 X26.276043 Y5.476982 Z-1.000000
G01 X26.254613 Y5.489442 Z-1.000000
G01 X26.272443 Y5.489895 Z-1.000000
G01 X26.286735 Y5.496251 Z-1.000000
G03 X26.316563 Y5.536395 Z-1.000000 I-0.151115 J0.143438
G01 X26.342853 Y5.582435 Z-1.000000
G01 X26.378973 Y5.587735 Z-1.000000
G02 X26.410821 Y5.588071 Z-1.000000 I0.017168 J-0.117630
G01 X26.415093 Y5.583235 Z-1.000000
G01 X26.411500 Y5.577049 Z-1.000000
G01 X26.397873 Y5.573435 Z-1.000000
G01 X26.382361 Y5.569018 Z-1.000000
G03 X26.347353 Y5.542155 Z-1.000000 I0.116836 J-0.188506
G01 X26.314053 Y5.510875 Z-1.000000
G01 X26.355663 Y5.518975 Z-1.000000
G02 X26.496714 Y5.533022 Z-1.000000 I0.145839 J-0.749216
G01 X26.507105 Y5.519938 Z-1.000000
G01 X26.500472 Y5.512804 Z-1.000000
G02 X26.468595 Y5.507498 Z-1.000000 I-0.033594 J0.103424
G03 X26.399184 Y5.495763 Z-1.000000 I0.003573 J-0.232281
G03 X26.352687 Y5.469138 Z-1.000000 I0.042269 J-0.127730
G01 X26.331887 Y5.450868 Z-1.000000
G01 X26.331893 Y5.471932 Z-1.000000
G00 Z5.000000

(End cutting path id: path56059)


(Start cutting path id: path56059)
(Change tool to Default tool)

G00 Z5.000000
G00 X26.218957 Y5.383162

G01 Z-1.000000 F100.0(Penetrate)
G01 X26.218890 Y5.408429 Z-1.000000 F3500.000000
G01 X26.237017 Y5.412742 Z-1.000000
G01 X26.245687 Y5.413151 Z-1.000000
G03 X26.260387 Y5.430382 Z-1.000000 I-0.032168 J0.042328
G01 X26.288698 Y5.449179 Z-1.000000
G01 X26.320567 Y5.435982 Z-1.000000
G01 X26.324967 Y5.421122 Z-1.000000
G01 X26.316595 Y5.421201 Z-1.000000
G01 X26.314037 Y5.417722 Z-1.000000
G02 X26.275946 Y5.363377 Z-1.000000 I-0.057813 J-0.000000
G01 X26.218937 Y5.383202 Z-1.000000
G01 X26.218957 Y5.383162 Z-1.000000
G00 Z5.000000

(End cutting path id: path56059)


(Start cutting path id: path56059)
(Change tool to Default tool)

G00 Z5.000000
G00 X26.117908 Y5.377172

G01 Z-1.000000 F100.0(Penetrate)
G01 X26.134941 Y5.390183 Z-1.000000 F3500.000000
G02 X26.157298 Y5.395002 Z-1.000000 I0.022357 J-0.049454
G01 X26.181888 Y5.395002 Z-1.000000
G01 X26.158808 Y5.377552 Z-1.000000
G02 X26.134651 Y5.363189 Z-1.000000 I-0.076387 J0.100974
G01 X26.119418 Y5.359722 Z-1.000000
G01 X26.103108 Y5.359344 Z-1.000000
G01 X26.117908 Y5.377172 Z-1.000000
G00 Z5.000000

(End cutting path id: path56059)


(Start cutting path id: path56059)
(Change tool to Default tool)

G00 Z5.000000
G00 X26.111960 Y5.276102

G01 Z-1.000000 F100.0(Penetrate)
G01 X26.113349 Y5.283109 Z-1.000000 F3500.000000
G01 X26.128390 Y5.287992 Z-1.000000
G03 X26.149924 Y5.291941 Z-1.000000 I0.000000 J0.060684
G01 X26.159510 Y5.299882 Z-1.000000
G01 X26.178858 Y5.311509 Z-1.000000
G01 X26.189230 Y5.301782 Z-1.000000
G01 X26.185528 Y5.294170 Z-1.000000
G02 X26.158950 Y5.278002 Z-1.000000 I-0.080888 J0.103041
G02 X26.124038 Y5.269683 Z-1.000000 I-0.038679 J0.084910
G01 X26.111960 Y5.276102 Z-1.000000
G01 X26.111960 Y5.276102 Z-1.000000
G00 Z5.000000

(End cutting path id: path56059)


(Start cutting path id: path56059)
(Change tool to Default tool)

G00 Z5.000000
G00 X26.056803 Y5.134292

G01 Z-1.000000 F100.0(Penetrate)
G01 X26.028733 Y5.158942 Z-1.000000 F3500.000000
G01 X26.069473 Y5.152042 Z-1.000000
G02 X26.109643 Y5.135681 Z-1.000000 I-0.016945 J-0.099099
G01 X26.112433 Y5.122362 Z-1.000000
G01 X26.095178 Y5.115013 Z-1.000000
G02 X26.056793 Y5.134332 Z-1.000000 I0.017958 J0.083472
G01 X26.056803 Y5.134292 Z-1.000000
G00 Z5.000000

(End cutting path id: path56059)


(Start cutting path id: path56059)
(Change tool to Default tool)

G00 Z5.000000
G00 X25.935555 Y5.152662

G01 Z-1.000000 F100.0(Penetrate)
G02 X25.908628 Y5.171936 Z-1.000000 I0.063508 J0.117169 F3500.000000
G01 X25.908515 Y5.177652 Z-1.000000
G01 X25.915476 Y5.179287 Z-1.000000
G02 X25.933345 Y5.169352 Z-1.000000 I-0.017857 J-0.053156
G01 X25.947350 Y5.163031 Z-1.000000
G01 X25.951465 Y5.166552 Z-1.000000
G01 X25.956192 Y5.172620 Z-1.000000
G01 X25.975245 Y5.172552 Z-1.000000
G01 X25.997276 Y5.149892 Z-1.000000
G01 X25.984145 Y5.133922 Z-1.000000
G01 X25.969900 Y5.136813 Z-1.000000
G02 X25.935545 Y5.152682 Z-1.000000 I0.106224 J0.275088
G01 X25.935555 Y5.152662 Z-1.000000
G00 Z5.000000

(End cutting path id: path56059)


(Start cutting path id: path56059)
(Change tool to Default tool)

G00 Z5.000000
G00 X25.888063 Y5.093782

G01 Z-1.000000 F100.0(Penetrate)
G01 X25.882286 Y5.102644 Z-1.000000 F3500.000000
G01 X25.880163 Y5.113992 Z-1.000000
G01 X25.883867 Y5.117253 Z-1.000000
G01 X25.894233 Y5.112192 Z-1.000000
G01 X25.903429 Y5.098154 Z-1.000000
G01 X25.902133 Y5.091982 Z-1.000000
G01 X25.895983 Y5.089880 Z-1.000000
G01 X25.888063 Y5.093782 Z-1.000000
G01 X25.888063 Y5.093782 Z-1.000000
G00 Z5.000000

(End cutting path id: path56059)


(Start cutting path id: path56059)
(Change tool to Default tool)

G00 Z5.000000
G00 X25.781007 Y5.019272

G01 Z-1.000000 F100.0(Penetrate)
G01 X25.761877 Y5.048472 Z-1.000000 F3500.000000
G01 X25.776427 Y5.054372 Z-1.000000
G01 X25.770127 Y5.061172 Z-1.000000
G01 X25.753441 Y5.066094 Z-1.000000
G01 X25.749327 Y5.073262 Z-1.000000
G01 X25.753682 Y5.079681 Z-1.000000
G01 X25.773037 Y5.082662 Z-1.000000
G01 X25.790028 Y5.073352 Z-1.000000
G02 X25.804187 Y5.041242 Z-1.000000 I-0.061557 J-0.046321
G01 X25.796463 Y5.017469 Z-1.000000
G01 X25.780967 Y5.019282 Z-1.000000
G01 X25.781007 Y5.019272 Z-1.000000
G00 Z5.000000

(End cutting path id: path56059)


(Start cutting path id: path56059)
(Change tool to Default tool)

G00 Z5.000000
G00 X25.734508 Y5.158162

G01 Z-1.000000 F100.0(Penetrate)
G02 X25.717948 Y5.172736 Z-1.000000 I0.029228 J0.049906 F3500.000000
G01 X25.713708 Y5.185172 Z-1.000000
G01 X25.707721 Y5.195869 Z-1.000000
G03 X25.655088 Y5.221142 Z-1.000000 I-0.149095 J-0.243056
G02 X25.599433 Y5.247006 Z-1.000000 I0.115597 J0.321558
G02 X25.562308 Y5.274872 Z-1.000000 I0.098034 J0.169272
G01 X25.528148 Y5.307522 Z-1.000000
G01 X25.526648 Y5.370712 Z-1.000000
G02 X25.540258 Y5.450752 Z-1.000000 I0.212640 J0.005019
G01 X25.562738 Y5.466302 Z-1.000000
G01 X25.567278 Y5.468064 Z-1.000000
G03 X25.623238 Y5.521572 Z-1.000000 I-1.166139 J1.275607
G02 X25.678503 Y5.569909 Z-1.000000 I0.389075 J-0.389075
G01 X25.685938 Y5.569412 Z-1.000000
G01 X25.687806 Y5.561711 Z-1.000000
G02 X25.677438 Y5.542832 Z-1.000000 I-0.053551 J0.017124
G03 X25.665841 Y5.521829 Z-1.000000 I0.050008 J-0.041317
G03 X25.654938 Y5.474422 Z-1.000000 I0.250133 J-0.082482
G01 X25.648338 Y5.425162 Z-1.000000
G01 X25.610158 Y5.401152 Z-1.000000
G03 X25.576930 Y5.374314 Z-1.000000 I0.096667 J-0.153671
G01 X25.571518 Y5.361582 Z-1.000000
G01 X25.575466 Y5.353622 Z-1.000000
G01 X25.582948 Y5.353382 Z-1.000000
G01 X25.591420 Y5.354579 Z-1.000000
G01 X25.594838 Y5.350082 Z-1.000000
G01 X25.598760 Y5.341891 Z-1.000000
G03 X25.625318 Y5.325512 Z-1.000000 I0.078381 J0.097372
G01 X25.648388 Y5.323612 Z-1.000000
G01 X25.660918 Y5.339242 Z-1.000000
G02 X25.755325 Y5.286432 Z-1.000000 I-0.101440 J-0.292129
G03 X25.780449 Y5.269527 Z-1.000000 I0.103271 J0.126360
G03 X25.805855 Y5.258882 Z-1.000000 I0.064406 J0.118075
G01 X25.837305 Y5.226592 Z-1.000000
G01 X25.820715 Y5.204822 Z-1.000000
G01 X25.812244 Y5.208242 Z-1.000000
G01 X25.808825 Y5.216292 Z-1.000000
G01 X25.804998 Y5.225460 Z-1.000000
G03 X25.783515 Y5.241312 Z-1.000000 I-0.065293 J-0.066006
G01 X25.758205 Y5.254862 Z-1.000000
G01 X25.766405 Y5.200122 Z-1.000000
G01 X25.756804 Y5.162643 Z-1.000000
G01 X25.734525 Y5.158222 Z-1.000000
G01 X25.734508 Y5.158162 Z-1.000000
G00 Z5.000000

(End cutting path id: path56059)


(Start cutting path id: path56059)
(Change tool to Default tool)

G00 Z5.000000
G00 X25.785038 Y5.181692

G01 Z-1.000000 F100.0(Penetrate)
G01 X25.788789 Y5.187459 Z-1.000000 F3500.000000
G01 X25.796928 Y5.186892 Z-1.000000
G02 X25.807099 Y5.178624 Z-1.000000 I-0.026309 J-0.042753
G01 X25.808818 Y5.174302 Z-1.000000
G01 X25.806750 Y5.171147 Z-1.000000
G01 X25.796928 Y5.169102 Z-1.000000
G01 X25.788623 Y5.172680 Z-1.000000
G01 X25.785038 Y5.181692 Z-1.000000
G01 X25.785038 Y5.181692 Z-1.000000
G00 Z5.000000

(End cutting path id: path56059)


(Start cutting path id: path56059)
(Change tool to Default tool)

G00 Z5.000000
G00 X25.881133 Y5.239452

G01 Z-1.000000 F100.0(Penetrate)
G03 X25.855023 Y5.260995 Z-1.000000 I-0.125433 J-0.125433 F3500.000000
G01 X25.844483 Y5.264222 Z-1.000000
G01 X25.836821 Y5.268415 Z-1.000000
G01 X25.832593 Y5.282862 Z-1.000000
G01 X25.832593 Y5.301502 Z-1.000000
G01 X25.867893 Y5.276362 Z-1.000000
G02 X25.912780 Y5.233793 Z-1.000000 I-0.128544 J-0.180491
G01 X25.912043 Y5.220832 Z-1.000000
G01 X25.905868 Y5.220081 Z-1.000000
G02 X25.881133 Y5.239452 Z-1.000000 I0.067269 J0.111375
G01 X25.881133 Y5.239452 Z-1.000000
G00 Z5.000000

(End cutting path id: path56059)


(Start cutting path id: path56059)
(Change tool to Default tool)

G00 Z5.000000
G00 X25.936416 Y5.408412

G01 Z-1.000000 F100.0(Penetrate)
G01 X25.951094 Y5.417936 Z-1.000000 F3500.000000
G01 X25.957736 Y5.416512 Z-1.000000
G01 X25.957742 Y5.411247 Z-1.000000
G01 X25.943076 Y5.401742 Z-1.000000
G01 X25.921756 Y5.393642 Z-1.000000
G01 X25.936416 Y5.408412 Z-1.000000
G00 Z5.000000

(End cutting path id: path56059)


(Start cutting path id: path56059)
(Change tool to Default tool)

G00 Z5.000000
G00 X25.678049 Y5.442602

G01 Z-1.000000 F100.0(Penetrate)
G01 X25.681391 Y5.451082 Z-1.000000 F3500.000000
G01 X25.689239 Y5.454492 Z-1.000000
G01 X25.698871 Y5.451673 Z-1.000000
G01 X25.707769 Y5.442602 Z-1.000000
G01 X25.707031 Y5.435248 Z-1.000000
G01 X25.696579 Y5.430712 Z-1.000000
G01 X25.682279 Y5.434885 Z-1.000000
G01 X25.678049 Y5.442602 Z-1.000000
G01 X25.678049 Y5.442602 Z-1.000000
G00 Z5.000000

(End cutting path id: path56059)


(Start cutting path id: path56059)
(Change tool to Default tool)

G00 Z5.000000
G00 X25.648329 Y5.395052

G01 Z-1.000000 F100.0(Penetrate)
G02 X25.656597 Y5.405223 Z-1.000000 I0.042753 J-0.026309 F3500.000000
G01 X25.660919 Y5.406942 Z-1.000000
G01 X25.664074 Y5.404874 Z-1.000000
G01 X25.666119 Y5.395052 Z-1.000000
G01 X25.662541 Y5.386747 Z-1.000000
G01 X25.653529 Y5.383162 Z-1.000000
G01 X25.647762 Y5.386913 Z-1.000000
G01 X25.648329 Y5.395052 Z-1.000000
G01 X25.648329 Y5.395052 Z-1.000000
G00 Z5.000000

(End cutting path id: path56059)


(Start cutting path id: path56059)
(Change tool to Default tool)

G00 Z5.000000
G00 X25.662569 Y5.375672

G01 Z-1.000000 F100.0(Penetrate)
G02 X25.685856 Y5.396944 Z-1.000000 I0.068631 J-0.051749 F3500.000000
G01 X25.698789 Y5.398172 Z-1.000000
G01 X25.706064 Y5.381526 Z-1.000000
G01 X25.683219 Y5.359032 Z-1.000000
G01 X25.664256 Y5.362043 Z-1.000000
G01 X25.662569 Y5.375672 Z-1.000000
G01 X25.662569 Y5.375672 Z-1.000000
G00 Z5.000000

(End cutting path id: path56059)


(Start cutting path id: path56059)
(Change tool to Default tool)

G00 Z5.000000
G00 X25.667434 Y5.627994

G01 Z-1.000000 F100.0(Penetrate)
G03 X25.661210 Y5.650552 Z-1.000000 I-0.053992 J-0.002759 F3500.000000
G03 X25.643224 Y5.673654 Z-1.000000 I-0.074638 J-0.039558
G02 X25.622901 Y5.696394 Z-1.000000 I0.096705 J0.106876
G02 X25.601284 Y5.731964 Z-1.000000 I0.219021 J0.157462
G03 X25.581771 Y5.769227 Z-1.000000 I-1.348068 J-0.682194
G03 X25.571284 Y5.787354 Z-1.000000 I-0.327118 J-0.177146
G02 X25.543231 Y5.842207 Z-1.000000 I0.329151 J0.202933
G02 X25.519534 Y5.912179 Z-1.000000 I0.513919 J0.213046
G03 X25.512920 Y5.935886 Z-1.000000 I-1.119291 J-0.299504
G03 X25.493594 Y6.001339 Z-1.000000 I-7.441511 J-2.161615
G02 X25.460847 Y6.180194 Z-1.000000 I0.790519 J0.237163
G02 X25.451284 Y6.598715 Z-1.000000 I4.364115 J0.309090
G03 X25.451713 Y6.637354 Z-1.000000 I-1.386173 J0.034703
G03 X25.451016 Y6.693375 Z-1.000000 I-2.918601 J-0.008285
G02 X25.468497 Y6.801747 Z-1.000000 I0.302148 J0.006857
G01 X25.496676 Y6.821615 Z-1.000000
G01 X25.507276 Y6.825973 Z-1.000000
G01 X25.511696 Y6.836475 Z-1.000000
G01 X25.527902 Y6.865028 Z-1.000000
G02 X25.585306 Y6.881055 Z-1.000000 I0.057404 J-0.094786
G01 X25.595833 Y6.863841 Z-1.000000
G02 X25.563226 Y6.837915 Z-1.000000 I-0.044874 J0.022971
G01 X25.531626 Y6.830015 Z-1.000000
G01 X25.552046 Y6.815085 Z-1.000000
G01 X25.562132 Y6.800543 Z-1.000000
G01 X25.558646 Y6.791585 Z-1.000000
G01 X25.544776 Y6.782985 Z-1.000000
G01 X25.560906 Y6.772945 Z-1.000000
G01 X25.577036 Y6.762905 Z-1.000000
G01 X25.559206 Y6.735795 Z-1.000000
G01 X25.541376 Y6.708685 Z-1.000000
G01 X25.538276 Y6.521448 Z-1.000000
G03 X25.540692 Y6.339652 Z-1.000000 I3.002959 J-0.051011
G01 X25.546376 Y6.334210 Z-1.000000
G01 X25.553716 Y6.338771 Z-1.000000
G03 X25.562566 Y6.366900 Z-1.000000 I-0.086111 J0.042548
G01 X25.569266 Y6.324590 Z-1.000000
G03 X25.576011 Y6.258679 Z-1.000000 I0.423835 J0.010069
G01 X25.581686 Y6.256160 Z-1.000000
G01 X25.590092 Y6.255987 Z-1.000000
G01 X25.599386 Y6.244360 Z-1.000000
G01 X25.599867 Y6.233941 Z-1.000000
G01 X25.595986 Y6.232420 Z-1.000000
G01 X25.581936 Y6.225857 Z-1.000000
G03 X25.572146 Y6.066725 Z-1.000000 I0.970537 J-0.139574
G03 X25.594103 Y5.931564 Z-1.000000 I0.489470 J0.010150
G01 X25.616896 Y5.923043 Z-1.000000
G01 X25.620788 Y5.921179 Z-1.000000
G02 X25.623496 Y5.869443 Z-1.000000 I-0.362383 J-0.044906
G03 X25.634009 Y5.830211 Z-1.000000 I0.073764 J-0.001258
G01 X25.646016 Y5.831933 Z-1.000000
G01 X25.652816 Y5.820443 Z-1.000000
G03 X25.657840 Y5.789064 Z-1.000000 I0.137041 J0.005849
G03 X25.673166 Y5.748373 Z-1.000000 I0.245439 J0.069212
G01 X25.692136 Y5.708583 Z-1.000000
G01 X25.680376 Y5.655833 Z-1.000000
G01 X25.667346 Y5.627993 Z-1.000000
G01 X25.667434 Y5.627994 Z-1.000000
G00 Z5.000000

(End cutting path id: path56059)


(Start cutting path id: path56059)
(Change tool to Default tool)

G00 Z5.000000
G00 X25.677783 Y5.810235

G01 Z-1.000000 F100.0(Penetrate)
G03 X25.683437 Y5.843894 Z-1.000000 I-0.144608 J0.041598 F3500.000000
G01 X25.680083 Y5.852685 Z-1.000000
G01 X25.674342 Y5.861247 Z-1.000000
G01 X25.671083 Y5.874385 Z-1.000000
G02 X25.669794 Y5.888393 Z-1.000000 I4.047084 J0.379480
G03 X25.667983 Y5.908365 Z-1.000000 I-25.221939 J-2.276941
G01 X25.662556 Y5.926630 Z-1.000000
G03 X25.647523 Y5.946975 Z-1.000000 I-0.075260 J-0.039883
G02 X25.589583 Y6.083743 Z-1.000000 I0.139941 J0.139941
G01 X25.644623 Y6.128906 Z-1.000000
G01 X25.654747 Y6.130870 Z-1.000000
G01 X25.662723 Y6.141046 Z-1.000000
G01 X25.660249 Y6.147831 Z-1.000000
G01 X25.649353 Y6.148646 Z-1.000000
G01 X25.630523 Y6.141446 Z-1.000000
G01 X25.630523 Y6.171466 Z-1.000000
G03 X25.628373 Y6.201076 Z-1.000000 I-0.204942 J-0.000000
G03 X25.623323 Y6.220286 Z-1.000000 I-0.087876 J-0.012831
G01 X25.624298 Y6.233464 Z-1.000000
G01 X25.633943 Y6.239096 Z-1.000000
G01 X25.654110 Y6.251189 Z-1.000000
G03 X25.666203 Y6.299506 Z-1.000000 I-0.090477 J0.048317
G01 X25.672125 Y6.316398 Z-1.000000
G01 X25.684413 Y6.322306 Z-1.000000
G01 X25.699325 Y6.327064 Z-1.000000
G01 X25.709463 Y6.340136 Z-1.000000
G01 X25.723783 Y6.342397 Z-1.000000
G02 X25.739523 Y6.302936 Z-1.000000 I-0.055898 J-0.045166
G01 X25.743923 Y6.247906 Z-1.000000
G01 X25.716593 Y6.229996 Z-1.000000
G03 X25.695131 Y6.211493 Z-1.000000 I0.058062 J-0.089048
G01 X25.695293 Y6.206066 Z-1.000000
G01 X25.701516 Y6.204709 Z-1.000000
G03 X25.719443 Y6.215066 Z-1.000000 I-0.021568 J0.058023
G01 X25.737563 Y6.230106 Z-1.000000
G01 X25.737563 Y6.199626 Z-1.000000
G02 X25.733224 Y6.171546 Z-1.000000 I-0.093038 J-0.000000
G01 X25.725633 Y6.161776 Z-1.000000
G01 X25.719240 Y6.152091 Z-1.000000
G03 X25.720333 Y6.127916 Z-1.000000 I0.061088 J-0.009351
G02 X25.722433 Y6.101692 Z-1.000000 I-0.075899 J-0.019274
G02 X25.715333 Y6.070816 Z-1.000000 I-0.115396 J0.010282
G03 X25.710956 Y6.039785 Z-1.000000 I0.065902 J-0.025119
G03 X25.724733 Y5.958343 Z-1.000000 I0.492511 J0.041428
G01 X25.745723 Y5.876493 Z-1.000000
G01 X25.720853 Y5.826293 Z-1.000000
G02 X25.690324 Y5.798726 Z-1.000000 I-0.050150 J0.024850
G01 X25.677893 Y5.810213 Z-1.000000
G01 X25.677783 Y5.810235 Z-1.000000
G00 Z5.000000

(End cutting path id: path56059)


(Start cutting path id: path56059)
(Change tool to Default tool)

G00 Z5.000000
G00 X25.543513 Y6.170001

G01 Z-1.000000 F100.0(Penetrate)
G01 X25.536313 Y6.162801 Z-1.000000 F3500.000000
G01 X25.542513 Y6.147201 Z-1.000000
G01 X25.545970 Y6.155163 Z-1.000000
G01 X25.543452 Y6.169991 Z-1.000000
G01 X25.543513 Y6.170001 Z-1.000000
G00 Z5.000000

(End cutting path id: path56059)


(Start cutting path id: path56059)
(Change tool to Default tool)

G00 Z5.000000
G00 X25.521213 Y6.381758

G01 Z-1.000000 F100.0(Penetrate)
G03 X25.514448 Y6.460503 Z-1.000000 I-0.689771 J-0.019591 F3500.000000
G01 X25.509283 Y6.464978 Z-1.000000
G01 X25.504191 Y6.460438 Z-1.000000
G03 X25.499683 Y6.381758 Z-1.000000 I0.684406 J-0.078680
G03 X25.505235 Y6.304065 Z-1.000000 I0.546354 J0.000000
G01 X25.511613 Y6.298538 Z-1.000000
G01 X25.517855 Y6.304106 Z-1.000000
G03 X25.521213 Y6.381758 Z-1.000000 I-0.545965 J0.062511
G01 X25.521213 Y6.381758 Z-1.000000
G00 Z5.000000

(End cutting path id: path56059)


(Start cutting path id: path56059)
(Change tool to Default tool)

G00 Z5.000000
G00 X25.583861 Y6.388653

G01 Z-1.000000 F100.0(Penetrate)
G01 X25.591061 Y6.395853 Z-1.000000 F3500.000000
G01 X25.593587 Y6.380995 Z-1.000000
G01 X25.590123 Y6.373063 Z-1.000000
G01 X25.583923 Y6.388663 Z-1.000000
G01 X25.583861 Y6.388653 Z-1.000000
G00 Z5.000000

(End cutting path id: path56059)


(Start cutting path id: path56059)
(Change tool to Default tool)

G00 Z5.000000
G00 X25.708993 Y6.307209

G01 Z-1.000000 F100.0(Penetrate)
G01 X25.696324 Y6.305402 Z-1.000000 F3500.000000
G01 X25.696853 Y6.285059 Z-1.000000
G01 X25.706153 Y6.269999 Z-1.000000
G01 X25.711153 Y6.285019 Z-1.000000
G01 X25.712764 Y6.299242 Z-1.000000
G01 X25.708953 Y6.307219 Z-1.000000
G01 X25.708993 Y6.307209 Z-1.000000
G00 Z5.000000

(End cutting path id: path56059)


(Start cutting path id: path56059)
(Change tool to Default tool)

G00 Z5.000000
G00 X25.759844 Y6.312637

G01 Z-1.000000 F100.0(Penetrate)
G02 X25.759141 Y6.351936 Z-1.000000 I1.097329 J0.039299 F3500.000000
G02 X25.759844 Y6.360887 Z-1.000000 I0.057297 J-0.000000
G01 X25.757203 Y6.366309 Z-1.000000
G01 X25.743794 Y6.369787 Z-1.000000
G01 X25.733777 Y6.374942 Z-1.000000
G01 X25.732414 Y6.385637 Z-1.000000
G01 X25.722103 Y6.402790 Z-1.000000
G03 X25.682584 Y6.391837 Z-1.000000 I-0.006570 J-0.053065
G01 X25.662541 Y6.395375 Z-1.000000
G02 X25.644534 Y6.453047 Z-1.000000 I0.102267 J0.063579
G03 X25.627666 Y6.565763 Z-1.000000 I-0.574609 J-0.028369
G03 X25.605894 Y6.605727 Z-1.000000 I-0.088790 J-0.022460
G02 X25.591734 Y6.642407 Z-1.000000 I0.038627 J0.035984
G01 X25.606707 Y6.667037 Z-1.000000
G01 X25.630487 Y6.679757 Z-1.000000
G01 X25.630487 Y6.663887 Z-1.000000
G01 X25.627324 Y6.649335 Z-1.000000
G02 X25.617237 Y6.634757 Z-1.000000 I-0.045716 J0.020856
G01 X25.603987 Y6.621507 Z-1.000000
G01 X25.642097 Y6.601797 Z-1.000000
G01 X25.680197 Y6.582097 Z-1.000000
G01 X25.672397 Y6.606737 Z-1.000000
G01 X25.671274 Y6.626427 Z-1.000000
G01 X25.677297 Y6.631377 Z-1.000000
G01 X25.684729 Y6.626095 Z-1.000000
G02 X25.689987 Y6.595007 Z-1.000000 I-0.089282 J-0.031088
G02 X25.684556 Y6.568450 Z-1.000000 I-0.067643 J-0.000000
G01 X25.677667 Y6.566257 Z-1.000000
G01 X25.671410 Y6.563334 Z-1.000000
G03 X25.667497 Y6.495987 Z-1.000000 I0.390540 J-0.056480
G01 X25.684428 Y6.494199 Z-1.000000
G03 X25.705367 Y6.652179 Z-1.000000 I-0.730968 J0.177263
G01 X25.707267 Y6.726479 Z-1.000000
G01 X25.731317 Y6.726297 Z-1.000000
G01 X25.755367 Y6.726115 Z-1.000000
G01 X25.737537 Y6.714405 Z-1.000000
G01 X25.719707 Y6.702695 Z-1.000000
G01 X25.737537 Y6.690805 Z-1.000000
G01 X25.755367 Y6.678915 Z-1.000000
G01 X25.739317 Y6.668555 Z-1.000000
G01 X25.723257 Y6.658195 Z-1.000000
G01 X25.745257 Y6.632685 Z-1.000000
G02 X25.761960 Y6.604773 Z-1.000000 I-0.071785 J-0.061910
G02 X25.774387 Y6.556855 Z-1.000000 I-0.204776 J-0.078678
G01 X25.783287 Y6.616405 Z-1.000000
G01 X25.785087 Y6.726278 Z-1.000000
G01 X25.748427 Y6.759058 Z-1.000000
G03 X25.685574 Y6.796763 Z-1.000000 I-0.129829 J-0.145181
G03 X25.645821 Y6.796638 Z-1.000000 I-0.019707 J-0.053812
G01 X25.625109 Y6.802907 Z-1.000000
G01 X25.623541 Y6.827508 Z-1.000000
G01 X25.636481 Y6.851288 Z-1.000000
G01 X25.684031 Y6.851288 Z-1.000000
G01 X25.731581 Y6.851288 Z-1.000000
G01 X25.728081 Y6.872088 Z-1.000000
G01 X25.732580 Y6.886151 Z-1.000000
G01 X25.748881 Y6.892888 Z-1.000000
G02 X25.769280 Y6.889016 Z-1.000000 I-0.000000 J-0.055674
G01 X25.773181 Y6.883288 Z-1.000000
G01 X25.760474 Y6.852611 Z-1.000000
G02 X25.719681 Y6.829778 Z-1.000000 I-0.060841 J0.060841
G01 X25.695901 Y6.824078 Z-1.000000
G01 X25.722511 Y6.815478 Z-1.000000
G01 X25.741192 Y6.803999 Z-1.000000
G01 X25.742141 Y6.795628 Z-1.000000
G01 X25.744607 Y6.790445 Z-1.000000
G03 X25.780911 Y6.790528 Z-1.000000 I0.017837 J0.136939
G01 X25.806591 Y6.790555 Z-1.000000
G01 X25.786521 Y6.784355 Z-1.000000
G01 X25.809571 Y6.761305 Z-1.000000
G02 X25.824973 Y6.735092 Z-1.000000 I-0.042749 J-0.042749
G02 X25.832611 Y6.680305 Z-1.000000 I-0.192666 J-0.054787
G03 X25.834633 Y6.622520 Z-1.000000 I0.826753 J0.000000
G03 X25.839411 Y6.582225 Z-1.000000 I0.421139 J0.029507
G01 X25.846211 Y6.542105 Z-1.000000
G01 X25.826941 Y6.565885 Z-1.000000
G01 X25.807671 Y6.589665 Z-1.000000
G01 X25.812971 Y6.510315 Z-1.000000
G03 X25.820720 Y6.431762 Z-1.000000 I1.231863 J0.081861
G01 X25.824771 Y6.420415 Z-1.000000
G01 X25.825865 Y6.409946 Z-1.000000
G02 X25.808271 Y6.374935 Z-1.000000 I-0.155861 J0.056399
G03 X25.789731 Y6.338664 Z-1.000000 I0.154673 J-0.101935
G03 X25.785171 Y6.313965 Z-1.000000 I0.065670 J-0.024895
G01 X25.772735 Y6.300859 Z-1.000000
G01 X25.759911 Y6.312565 Z-1.000000
G01 X25.759844 Y6.312637 Z-1.000000
G00 Z5.000000

(End cutting path id: path56059)


(Start cutting path id: path56059)
(Change tool to Default tool)

G00 Z5.000000
G00 X25.832574 Y6.283612

G01 Z-1.000000 F100.0(Penetrate)
G01 X25.835731 Y6.293816 Z-1.000000 F3500.000000
G02 X25.862294 Y6.327082 Z-1.000000 I0.238725 J-0.163381
G02 X25.886976 Y6.346551 Z-1.000000 I0.074451 J-0.069007
G01 X25.891804 Y6.343682 Z-1.000000
G01 X25.887482 Y6.330024 Z-1.000000
G02 X25.862084 Y6.300212 Z-1.000000 I-0.152785 J0.104441
G02 X25.836489 Y6.281323 Z-1.000000 I-0.088957 J0.093751
G01 X25.832574 Y6.283612 Z-1.000000
G01 X25.832574 Y6.283612 Z-1.000000
G00 Z5.000000

(End cutting path id: path56059)


(Start cutting path id: path56059)
(Change tool to Default tool)

G00 Z5.000000
G00 X25.796914 Y6.405477

G01 Z-1.000000 F100.0(Penetrate)
G01 X25.792799 Y6.413192 Z-1.000000 F3500.000000
G01 X25.779084 Y6.417367 Z-1.000000
G01 X25.765428 Y6.413252 Z-1.000000
G01 X25.761254 Y6.405477 Z-1.000000
G01 X25.765369 Y6.397762 Z-1.000000
G01 X25.779084 Y6.393587 Z-1.000000
G01 X25.792740 Y6.397702 Z-1.000000
G01 X25.796914 Y6.405477 Z-1.000000
G01 X25.796914 Y6.405477 Z-1.000000
G00 Z5.000000

(End cutting path id: path56059)


(Start cutting path id: path56059)
(Change tool to Default tool)

G00 Z5.000000
G00 X25.562413 Y6.557071

G01 Z-1.000000 F100.0(Penetrate)
G01 X25.560513 Y6.613541 Z-1.000000 F3500.000000
G01 X25.580463 Y6.568961 Z-1.000000
G03 X25.604146 Y6.530149 Z-1.000000 I0.163568 J0.073179
G01 X25.616153 Y6.524381 Z-1.000000
G01 X25.624302 Y6.520157 Z-1.000000
G01 X25.624553 Y6.512491 Z-1.000000
G01 X25.614965 Y6.504748 Z-1.000000
G02 X25.590773 Y6.500601 Z-1.000000 I-0.024192 J0.068490
G01 X25.564343 Y6.500601 Z-1.000000
