%
(Header)
(Generated by gcodetools from Inkscape.)
(Using default header. To add your own header create file "header" in the output dir.)
M3
(Header end.)
G21 (All units in mm)

(Start cutting path id: path21405)
(Change tool to Default tool)

G00 Z5.000000
G00 X16.969726 Y5.267031

G01 Z-1.000000 F100.0(Penetrate)
G02 X16.143274 Y5.317385 Z-1.000000 I1.412790 J29.995444 F3500.000000
G02 X16.041381 Y5.336441 Z-1.000000 I0.035129 J0.469769
G03 X15.939555 Y5.356667 Z-1.000000 I-0.152702 J-0.502337
G03 X15.145721 Y5.423641 Z-1.000000 I-2.995682 J-30.769333
G02 X13.745116 Y5.536248 Z-1.000000 I5.597394 J78.386888
G02 X13.289031 Y5.589639 Z-1.000000 I0.747193 J8.357536
G03 X12.917244 Y5.639897 Z-1.000000 I-2.826738 J-19.510704
G03 X12.493307 Y5.689499 Z-1.000000 I-3.172810 J-25.280835
G02 X11.500797 Y5.834778 Z-1.000000 I1.453215 J13.390944
G02 X11.247075 Y5.919609 Z-1.000000 I0.173961 J0.942147
G03 X11.109929 Y5.962990 Z-1.000000 I-0.206113 J-0.413133
G01 X11.087528 Y5.943719 Z-1.000000
G01 X11.068927 Y5.927847 Z-1.000000
G02 X11.004818 Y5.956889 Z-1.000000 I0.020955 J0.131536
G03 X10.745794 Y6.064904 Z-1.000000 I-0.305566 J-0.368178
G03 X10.661455 Y5.990449 Z-1.000000 I-0.007479 J-0.076523
G01 X10.643366 Y5.978749 Z-1.000000
G02 X10.589295 Y6.020589 Z-1.000000 I0.050687 J0.121363
G03 X10.506830 Y6.089266 Z-1.000000 I-0.189847 J-0.144114
G03 X10.405313 Y6.113429 Z-1.000000 I-0.101517 J-0.201168
G02 X10.312437 Y6.134060 Z-1.000000 I0.000000 J0.219369
G01 X10.291803 Y6.166479 Z-1.000000
G03 X10.278163 Y6.203562 Z-1.000000 I-0.057228 J0.000000
G01 X10.252013 Y6.213249 Z-1.000000
G02 X10.212027 Y6.210141 Z-1.000000 I-0.039126 J0.244592
G02 X10.000034 Y6.214062 Z-1.000000 I0.024505 J7.057534
G01 X9.787841 Y6.221162 Z-1.000000
G01 X9.867413 Y6.272582 Z-1.000000
G01 X9.946985 Y6.324002 Z-1.000000
G01 X9.781179 Y6.324815 Z-1.000000
G02 X9.620379 Y6.348564 Z-1.000000 I0.002840 J0.575475
G02 X9.303749 Y6.466421 Z-1.000000 I0.706901 J2.383383
G03 X8.986633 Y6.586951 Z-1.000000 I-1.143258 J-2.530501
G03 X8.780672 Y6.629428 Z-1.000000 I-0.317455 J-1.018692
G02 X8.581053 Y6.670479 Z-1.000000 I0.108690 J1.034395
G02 X8.536024 Y6.705358 Z-1.000000 I0.024085 J0.077601
G03 X8.499530 Y6.745990 Z-1.000000 I-0.131079 J-0.081026
G01 X8.482232 Y6.747178 Z-1.000000
G01 X8.461164 Y6.745503 Z-1.000000
G02 X8.202808 Y6.853190 Z-1.000000 I1.524412 J4.021048
G03 X7.939466 Y6.956087 Z-1.000000 I-1.066803 J-2.341814
G03 X7.751898 Y7.001381 Z-1.000000 I-0.374198 J-1.138581
G02 X7.565789 Y7.042230 Z-1.000000 I0.248933 J1.578523
G02 X7.533294 Y7.063241 Z-1.000000 I0.017925 J0.063358
G03 X7.271843 Y7.261529 Z-1.000000 I-0.567176 J-0.476336
G03 X6.936501 Y7.333688 Z-1.000000 I-0.334052 J-0.737131
G02 X6.861854 Y7.351754 Z-1.000000 I-0.000257 J0.162189
G01 X6.843667 Y7.381608 Z-1.000000
G01 X6.822124 Y7.410899 Z-1.000000
G03 X6.568260 Y7.467558 Z-1.000000 I-0.467757 J-1.498748
G02 X6.303824 Y7.527526 Z-1.000000 I0.214169 J1.557413
G02 X6.219169 Y7.579120 Z-1.000000 I0.064010 J0.200274
G03 X6.142429 Y7.626555 Z-1.000000 I-0.138846 J-0.138832
G03 X6.093868 Y7.620900 Z-1.000000 I-0.018240 J-0.054705
G01 X6.046366 Y7.621172 Z-1.000000
G02 X5.885490 Y7.753033 Z-1.000000 I0.459592 J0.724786
G03 X5.719780 Y7.896134 Z-1.000000 I-0.827723 J-0.791007
G03 X5.654040 Y7.917067 Z-1.000000 I-0.065740 J-0.092760
G02 X5.592487 Y7.935301 Z-1.000000 I0.000000 J0.113010
G02 X5.558716 Y7.978967 Z-1.000000 I0.045530 J0.070106
G03 X5.520140 Y8.016541 Z-1.000000 I-0.055661 J-0.018556
G03 X5.340867 Y8.045277 Z-1.000000 I-0.194210 J-0.638031
G01 X5.143653 Y8.049677 Z-1.000000
G01 X5.081538 Y8.189576 Z-1.000000
G01 X5.019423 Y8.329475 Z-1.000000
G01 X4.920397 Y8.269145 Z-1.000000
G01 X4.821371 Y8.208815 Z-1.000000
G01 X4.753046 Y8.300825 Z-1.000000
G03 X4.682650 Y8.364666 Z-1.000000 I-0.196399 J-0.145830
G01 X4.652900 Y8.361015 Z-1.000000
G01 X4.622166 Y8.358706 Z-1.000000
G02 X4.489935 Y8.481198 Z-1.000000 I0.479620 J0.650377
G01 X4.358789 Y8.633202 Z-1.000000
G01 X4.436456 Y8.719482 Z-1.000000
G01 X4.514123 Y8.805762 Z-1.000000
G01 X4.418998 Y8.846992 Z-1.000000
G03 X4.322077 Y8.875933 Z-1.000000 I-0.169626 J-0.391298
G03 X4.239160 Y8.878112 Z-1.000000 I-0.048916 J-0.282742
G02 X4.163352 Y8.890308 Z-1.000000 I-0.016628 J0.138346
G02 X4.086782 Y8.949532 Z-1.000000 I0.094323 J0.201059
G03 X4.010929 Y9.013624 Z-1.000000 I-0.217613 J-0.180613
G03 X3.946040 Y9.031062 Z-1.000000 I-0.064889 J-0.112010
G02 X3.893843 Y9.051941 Z-1.000000 I0.000000 J0.075685
G02 X3.872963 Y9.100662 Z-1.000000 I0.046402 J0.048721
G03 X3.763529 Y9.323445 Z-1.000000 I-0.281485 J-0.000000
G03 X3.487602 Y9.398269 Z-1.000000 I-0.228257 J-0.295562
G02 X3.336868 Y9.418698 Z-1.000000 I-0.037385 J0.290464
G02 X3.266787 Y9.490999 Z-1.000000 I0.049620 J0.118213
G02 X3.256144 Y9.572100 Z-1.000000 I0.163375 J0.062688
G02 X3.279415 Y9.610358 Z-1.000000 I0.052158 J-0.005519
G03 X3.304025 Y9.651312 Z-1.000000 I-0.030472 J0.046184
G03 X3.301541 Y9.843407 Z-1.000000 I-0.890540 J0.084544
G01 X3.277041 Y10.045716 Z-1.000000
G01 X3.176787 Y9.938106 Z-1.000000
G01 X3.076533 Y9.830497 Z-1.000000
G01 X2.957527 Y9.874430 Z-1.000000
G02 X2.861218 Y9.937566 Z-1.000000 I0.088746 J0.240398
G02 X2.819551 Y10.018473 Z-1.000000 I0.115569 J0.110703
G03 X2.723329 Y10.205223 Z-1.000000 I-0.362749 J-0.068740
G03 X2.617934 Y10.228799 Z-1.000000 I-0.070438 J-0.067521
G02 X2.557916 Y10.235494 Z-1.000000 I-0.023540 J0.061340
G02 X2.460077 Y10.334176 Z-1.000000 I0.193153 J0.289347
G01 X2.373187 Y10.466787 Z-1.000000
G01 X2.278249 Y10.380867 Z-1.000000
G02 X2.089450 Y10.345674 Z-1.000000 I-0.123018 J0.135935
G02 X1.973545 Y10.497995 Z-1.000000 I0.065338 J0.169975
G01 X1.957341 Y10.664346 Z-1.000000
G01 X1.832719 Y10.688166 Z-1.000000
G03 X1.711188 Y10.692935 Z-1.000000 I-0.076584 J-0.400703
G03 X1.624171 Y10.665026 Z-1.000000 I0.025344 J-0.228627
G02 X1.433538 Y10.680621 Z-1.000000 I-0.083717 J0.149589
G02 X1.326036 Y10.902913 Z-1.000000 I0.178184 J0.223311
G01 X1.325428 Y11.073453 Z-1.000000
G01 X1.103026 Y11.179550 Z-1.000000
G01 X0.880624 Y11.285646 Z-1.000000
G01 X0.997538 Y11.302596 Z-1.000000
G01 X1.114452 Y11.319546 Z-1.000000
G01 X1.114452 Y11.528049 Z-1.000000
G01 X1.114452 Y11.736553 Z-1.000000
G01 X1.216128 Y11.736553 Z-1.000000
G03 X1.303484 Y11.757774 Z-1.000000 I0.000000 J0.190414
G03 X1.344561 Y11.802863 Z-1.000000 I-0.040217 J0.077893
G01 X1.371317 Y11.869173 Z-1.000000
G01 X1.375507 Y11.802863 Z-1.000000
G03 X1.490272 Y11.697400 Z-1.000000 I0.112357 J0.007092
G03 X1.718661 Y11.810263 Z-1.000000 I-0.006428 J0.300521
G02 X2.043986 Y12.006698 Z-1.000000 I0.429135 J-0.343099
G02 X2.175420 Y11.898143 Z-1.000000 I0.020887 J-0.108555
G01 X2.200687 Y11.867961 Z-1.000000
G03 X2.485793 Y11.842693 Z-1.000000 I0.285106 J1.595807
G02 X3.038932 Y11.775576 Z-1.000000 I-0.000000 J-2.312876
G02 X3.189926 Y11.669264 Z-1.000000 I-0.060757 J-0.246676
G01 X3.230039 Y11.653376 Z-1.000000
G03 X3.360588 Y11.709434 Z-1.000000 I-0.093782 J0.398444
G01 X3.498136 Y11.799564 Z-1.000000
G01 X3.725337 Y11.764844 Z-1.000000
G02 X3.949820 Y11.719938 Z-1.000000 I-0.377237 J-2.469333
G02 X4.108188 Y11.669834 Z-1.000000 I-0.317069 J-1.277524
G01 X4.263839 Y11.609544 Z-1.000000
G01 X4.286005 Y11.676044 Z-1.000000
G01 X4.320020 Y11.687439 Z-1.000000
G02 X4.514954 Y11.518554 Z-1.000000 I-0.657368 J-0.955702
G03 X4.701411 Y11.346549 Z-1.000000 I1.163102 J1.073767
G01 X4.721737 Y11.356442 Z-1.000000
G01 X4.750360 Y11.389686 Z-1.000000
G02 X5.132861 Y11.418212 Z-1.000000 I0.381854 J-2.541539
G01 X5.543985 Y11.418111 Z-1.000000
G01 X5.558023 Y11.046874 Z-1.000000
G02 X5.546077 Y10.700651 Z-1.000000 I-2.395889 J-0.090650
G01 X5.518237 Y10.675636 Z-1.000000
G01 X5.484890 Y10.655161 Z-1.000000
G03 X5.464412 Y10.569540 Z-1.000000 I0.168763 J-0.085621
G01 X5.464412 Y10.463443 Z-1.000000
G01 X5.730512 Y10.463443 Z-1.000000
G01 X5.996612 Y10.463443 Z-1.000000
G01 X6.085151 Y10.277774 Z-1.000000
G03 X6.182929 Y10.106747 Z-1.000000 I1.196340 J0.570499
G01 X6.210477 Y10.092105 Z-1.000000
G01 X6.237385 Y10.106891 Z-1.000000
G03 X6.316227 Y10.258595 Z-1.000000 I-0.834380 J0.529974
G01 X6.385189 Y10.425085 Z-1.000000
G01 X6.481807 Y10.305767 Z-1.000000
G02 X6.553578 Y10.177647 Z-1.000000 I-0.337324 J-0.273128
G02 X6.578425 Y10.033180 Z-1.000000 I-0.407569 J-0.144467
G01 X6.578425 Y9.879912 Z-1.000000
G01 X6.711046 Y9.879912 Z-1.000000
G02 X6.822248 Y9.858497 Z-1.000000 I0.000000 J-0.299431
G01 X6.843666 Y9.826862 Z-1.000000
G03 X7.020399 Y9.655342 Z-1.000000 I0.171597 J0.000000
G03 X7.286117 Y9.840122 Z-1.000000 I-0.008869 J0.296198
G01 X7.313023 Y9.906432 Z-1.000000
G01 X7.369553 Y9.826862 Z-1.000000
G02 X7.406047 Y9.744608 Z-1.000000 I-0.184476 J-0.131068
G02 X7.401781 Y9.680979 Z-1.000000 I-0.110986 J-0.024518
G01 X7.428028 Y9.651767 Z-1.000000
G03 X7.576796 Y9.724639 Z-1.000000 I-0.095717 J0.383697
G01 X7.716605 Y9.834612 Z-1.000000
G01 X7.765677 Y9.724639 Z-1.000000
G03 X7.906373 Y9.648903 Z-1.000000 I0.119414 J0.053284
G03 X8.063777 Y9.773809 Z-1.000000 I-0.033657 J0.204046
G02 X8.141677 Y9.915026 Z-1.000000 I0.670179 J-0.277596
G01 X8.176310 Y9.932953 Z-1.000000
G01 X8.220641 Y9.886418 Z-1.000000
G02 X8.169870 Y9.800333 Z-1.000000 I-0.107189 J0.005203
G03 X8.132405 Y9.758864 Z-1.000000 I0.052681 J-0.085251
G03 X8.116822 Y9.691106 Z-1.000000 I0.139512 J-0.067758
G01 X8.116822 Y9.614666 Z-1.000000
G01 X8.647305 Y9.614666 Z-1.000000
G01 X9.177787 Y9.614666 Z-1.000000
G01 X9.177787 Y9.678326 Z-1.000000
G01 X9.177787 Y9.741986 Z-1.000000
G01 X9.241445 Y9.678326 Z-1.000000
G03 X9.315373 Y9.639464 Z-1.000000 I0.099470 J0.099476
G03 X9.586259 Y9.614666 Z-1.000000 I0.270886 J1.467132
G01 X9.867415 Y9.614666 Z-1.000000
G01 X9.973512 Y9.508569 Z-1.000000
G03 X10.087074 Y9.420500 Z-1.000000 I0.405128 J0.405149
G03 X10.152994 Y9.402473 Z-1.000000 I0.065919 J0.111511
G02 X10.208138 Y9.378855 Z-1.000000 I-0.000000 J-0.076185
G02 X10.254124 Y9.296376 Z-1.000000 I-0.136613 J-0.130227
G01 X10.281874 Y9.190280 Z-1.000000
G01 X10.472509 Y9.190280 Z-1.000000
G01 X10.663145 Y9.190280 Z-1.000000
G01 X10.663145 Y9.269850 Z-1.000000
G02 X10.680115 Y9.332457 Z-1.000000 I0.123968 J-0.000000
G01 X10.709695 Y9.349420 Z-1.000000
G02 X10.750200 Y9.336551 Z-1.000000 I-0.000000 J-0.070183
G02 X10.822287 Y9.269850 Z-1.000000 I-0.216318 J-0.306085
G03 X10.900831 Y9.216902 Z-1.000000 I0.129631 J0.107567
G03 X11.072259 Y9.190280 Z-1.000000 I0.171428 J0.538626
G02 X11.240056 Y9.156455 Z-1.000000 I-0.000000 J-0.433115
G02 X11.351067 Y9.073113 Z-1.000000 I-0.110350 J-0.262587
G01 X11.445947 Y8.955945 Z-1.000000
G01 X11.691125 Y8.971025 Z-1.000000
G01 X11.936304 Y8.986105 Z-1.000000
G01 X11.936304 Y8.876002 Z-1.000000
G01 X11.936304 Y8.765898 Z-1.000000
G01 X12.072412 Y8.765898 Z-1.000000
G03 X12.204753 Y8.780923 Z-1.000000 I0.000000 J0.590363
G03 X12.311130 Y8.820808 Z-1.000000 I-0.096291 J0.418610
G02 X12.394892 Y8.844254 Z-1.000000 I0.094688 J-0.176927
G01 X12.413739 Y8.826408 Z-1.000000
G01 X12.435292 Y8.796658 Z-1.000000
G03 X12.625932 Y8.756828 Z-1.000000 I0.274187 J0.836206
G03 X12.817978 Y8.758749 Z-1.000000 I0.086918 J0.911401
G01 X12.838124 Y8.781358 Z-1.000000
G01 X12.856566 Y8.800916 Z-1.000000
G02 X12.957066 Y8.788358 Z-1.000000 I0.016341 J-0.277648
G01 X13.076009 Y8.750608 Z-1.000000
G01 X13.003619 Y8.837828 Z-1.000000
G02 X12.967214 Y8.908148 Z-1.000000 I0.142813 J0.118520
G01 X12.980169 Y8.925048 Z-1.000000
G02 X13.098938 Y8.867563 Z-1.000000 I-0.000000 J-0.151435
G02 X13.156418 Y8.702246 Z-1.000000 I-0.208989 J-0.165317
G03 X13.205343 Y8.639999 Z-1.000000 I0.064061 J0.000000
G03 X13.301502 Y8.666966 Z-1.000000 I0.024085 J0.099044
G01 X13.361712 Y8.727176 Z-1.000000
G01 X13.061818 Y9.104618 Z-1.000000
G03 X12.758425 Y9.479075 Z-1.000000 I-19.791384 J-15.725243
G03 X12.640883 Y9.614139 Z-1.000000 I-2.688848 J-2.221350
G02 X12.530592 Y9.750396 Z-1.000000 I1.053768 J0.965712
G02 X12.519844 Y9.784004 Z-1.000000 I0.047165 J0.033608
G03 X12.509865 Y9.818644 Z-1.000000 I-0.065118 J-0.000000
G03 X12.285464 Y10.157073 Z-1.000000 I-6.993787 J-4.393736
G02 X11.699314 Y11.136610 Z-1.000000 I6.608193 J4.619455
G02 X11.087091 Y12.525676 Z-1.000000 I12.722239 J6.436711
G02 X10.683459 Y13.734327 Z-1.000000 I15.064211 J5.702451
G02 X10.430152 Y14.786887 Z-1.000000 I11.164883 J3.243681
G02 X10.273367 Y15.747087 Z-1.000000 I17.225109 J3.305466
G02 X10.152196 Y16.846957 Z-1.000000 I22.483257 J3.033572
G01 X10.066226 Y17.851871 Z-1.000000
G01 X10.126066 Y18.839172 Z-1.000000
G02 X10.335227 Y20.844778 Z-1.000000 I23.208376 J-1.406657
G02 X10.693686 Y22.665039 Z-1.000000 I19.468171 J-2.888382
G02 X11.161354 Y24.290551 Z-1.000000 I21.305272 J-5.249606
G02 X11.703719 Y25.726321 Z-1.000000 I17.156659 J-5.660635
G02 X13.639371 Y29.066246 Z-1.000000 I14.635915 J-6.251375
G02 X15.859379 Y31.229013 Z-1.000000 I8.186811 J-6.182719
G02 X17.204787 Y32.056809 Z-1.000000 I6.650519 J-9.301781
G02 X17.337665 Y32.003228 Z-1.000000 I0.043641 J-0.083328
G03 X17.371089 Y31.968840 Z-1.000000 I0.052344 J0.017441
G03 X17.488935 Y31.948003 Z-1.000000 I0.117845 J0.322829
G01 X17.621798 Y31.948003 Z-1.000000
G01 X17.585948 Y31.735810 Z-1.000000
G01 X17.550098 Y31.523617 Z-1.000000
G01 X17.657726 Y31.523617 Z-1.000000
G02 X17.756852 Y31.508364 Z-1.000000 I-0.000000 J-0.329718
G02 X17.791395 Y31.481483 Z-1.000000 I-0.018881 J-0.059897
G02 X17.802337 Y31.155307 Z-1.000000 I-0.279310 J-0.172642
G02 X17.533089 Y30.993134 Z-1.000000 I-0.269248 J0.142424
G01 X17.448519 Y30.993134 Z-1.000000
G01 X17.482299 Y30.813051 Z-1.000000
G02 X17.488804 Y30.637263 Z-1.000000 I-0.584552 J-0.109648
G02 X17.448169 Y30.508024 Z-1.000000 I-0.350621 J0.039235
G03 X17.366156 Y30.236544 Z-1.000000 I0.613542 J-0.333474
G03 X17.415059 Y30.136585 Z-1.000000 I0.107100 J-0.009546
G01 X17.429916 Y30.094892 Z-1.000000
G02 X17.349788 Y29.935785 Z-1.000000 I-0.558388 J0.181478
G01 X17.231230 Y29.769285 Z-1.000000
G01 X17.299070 Y29.687535 Z-1.000000
G01 X17.366910 Y29.605795 Z-1.000000
G01 X17.291190 Y29.558995 Z-1.000000
G01 X17.215470 Y29.512195 Z-1.000000
G01 X17.281340 Y29.446325 Z-1.000000
G02 X17.325510 Y29.310363 Z-1.000000 I-0.111318 J-0.111319
G02 X17.252670 Y29.265390 Z-1.000000 I-0.055760 J0.008837
G01 X17.158130 Y29.295400 Z-1.000000
G01 X17.084690 Y29.046662 Z-1.000000
G03 X17.029581 Y28.796024 Z-1.000000 I1.743416 J-0.514718
G03 X17.024350 Y28.635630 Z-1.000000 I0.702849 J-0.103201
G02 X17.034080 Y28.473193 Z-1.000000 I-3.924866 J-0.316592
G02 X17.038490 Y28.274406 Z-1.000000 I-5.852539 J-0.229300
G03 X17.063733 Y28.099812 Z-1.000000 I0.639471 J0.003331
G01 X17.096120 Y28.075475 Z-1.000000
G01 X17.117874 Y28.061049 Z-1.000000
G01 X17.112920 Y28.035685 Z-1.000000
G02 X17.068653 Y28.006575 Z-1.000000 I-0.092590 J0.092590
G02 X17.011244 Y27.995315 Z-1.000000 I-0.058909 J0.148361
G01 X16.978271 Y27.968500 Z-1.000000
G03 X16.967134 Y27.793157 Z-1.000000 I0.569179 J-0.124176
G02 X16.966308 Y27.592960 Z-1.000000 I-1.081847 J-0.095632
G02 X16.922514 Y27.331475 Z-1.000000 I-1.899785 J0.183763
G01 X16.860114 Y27.071364 Z-1.000000
G01 X16.938274 Y26.914682 Z-1.000000
G01 X17.016434 Y26.758001 Z-1.000000
G01 X16.959024 Y26.700591 Z-1.000000
G02 X16.895438 Y26.657050 Z-1.000000 I-0.148142 J0.148142
G02 X16.819385 Y26.638991 Z-1.000000 I-0.087003 J0.197231
G01 X16.797278 Y26.624712 Z-1.000000
G01 X16.803475 Y26.608051 Z-1.000000
G02 X16.832884 Y26.539382 Z-1.000000 I-0.019819 J-0.049119
G02 X16.750425 Y26.474466 Z-1.000000 I-0.097158 J0.038584
G03 X16.667644 Y26.377943 Z-1.000000 I0.013543 J-0.095375
G03 X16.752726 Y26.281116 Z-1.000000 I0.098981 J0.001179
G01 X16.874392 Y26.263866 Z-1.000000
G01 X16.849522 Y26.175026 Z-1.000000
G03 X16.826849 Y26.085657 Z-1.000000 I1.809549 J-0.506644
G03 X16.787862 Y25.904264 Z-1.000000 I7.406255 J-1.686723
G01 X16.751072 Y25.722344 Z-1.000000
G01 X16.685702 Y25.844491 Z-1.000000
G01 X16.620331 Y25.966638 Z-1.000000
G01 X16.591382 Y25.855955 Z-1.000000
G03 X16.591412 Y25.754593 Z-1.000000 I0.193636 J-0.050622
G03 X16.636532 Y25.683776 Z-1.000000 I0.132737 J0.034788
G02 X16.684438 Y25.609986 Z-1.000000 I-0.094382 J-0.113722
G02 X16.710632 Y25.419715 Z-1.000000 I-0.677978 J-0.190272
G03 X16.731859 Y25.228986 Z-1.000000 I0.867448 J-0.000000
G03 X16.763682 Y25.184363 Z-1.000000 I0.069009 J0.015554
G02 X16.855462 Y25.000629 Z-1.000000 I-0.102631 J-0.166058
G02 X16.737161 Y24.892597 Z-1.000000 I-0.118301 J0.010756
G02 X16.682129 Y24.917579 Z-1.000000 I-0.000000 J0.073105
G02 X16.655971 Y24.985427 Z-1.000000 I0.079699 J0.069693
G01 X16.654371 Y25.078257 Z-1.000000
G01 X16.601861 Y24.988217 Z-1.000000
G03 X16.526490 Y24.599956 Z-1.000000 I0.517780 J-0.301961
G03 X16.677642 Y24.467392 Z-1.000000 I0.153264 J0.022299
G01 X16.737171 Y24.466580 Z-1.000000
G01 X16.678012 Y24.427610 Z-1.000000
G03 X16.632458 Y24.378696 Z-1.000000 I0.077878 J-0.118198
G03 X16.581702 Y24.256015 Z-1.000000 I0.486765 J-0.273227
G01 X16.544552 Y24.123394 Z-1.000000
G01 X16.598192 Y24.201434 Z-1.000000
G01 X16.665482 Y24.212894 Z-1.000000
G02 X16.679312 Y24.142134 Z-1.000000 I-0.031325 J-0.042854
G03 X16.571274 Y23.801318 Z-1.000000 I0.622890 J-0.384986
G03 X16.655672 Y23.750865 Z-1.000000 I0.055283 J-0.003341
G01 X16.691815 Y23.750616 Z-1.000000
G01 X16.711372 Y23.715405 Z-1.000000
G03 X16.717650 Y23.646728 Z-1.000000 I0.427600 J0.004467
G03 X16.744292 Y23.525817 Z-1.000000 I1.356513 J0.235500
G01 X16.776482 Y23.405670 Z-1.000000
G01 X16.690512 Y23.438660 Z-1.000000
G03 X16.630896 Y23.433277 Z-1.000000 I-0.024327 J-0.063396
G03 X16.604542 Y23.386400 Z-1.000000 I0.028515 J-0.046878
G03 X16.623726 Y23.320329 Z-1.000000 I0.123363 J0.000000
G01 X16.658602 Y23.301150 Z-1.000000
G01 X16.698240 Y23.251127 Z-1.000000
G02 X16.548490 Y22.832121 Z-1.000000 I-1.926861 J0.452387
G01 X16.453330 Y22.638047 Z-1.000000
G01 X16.581986 Y22.502523 Z-1.000000
G02 X16.681529 Y22.304399 Z-1.000000 I-0.277618 J-0.263553
G02 X16.627496 Y22.240185 Z-1.000000 I-0.054033 J-0.009374
G01 X16.544346 Y22.240185 Z-1.000000
G01 X16.582096 Y22.359127 Z-1.000000
G01 X16.619846 Y22.478070 Z-1.000000
G01 X16.533136 Y22.406110 Z-1.000000
G03 X16.465011 Y22.245265 Z-1.000000 I0.121368 J-0.146254
G03 X16.565306 Y21.988209 Z-1.000000 I0.472894 J0.036413
G01 X16.617536 Y21.921899 Z-1.000000
G01 X16.534596 Y21.921899 Z-1.000000
G03 X16.437848 Y21.851812 Z-1.000000 I0.000000 J-0.101818
G03 X16.466846 Y21.715320 Z-1.000000 I0.131983 J-0.043287
G02 X16.526816 Y21.622141 Z-1.000000 I-0.252050 J-0.228110
G01 X16.520796 Y21.590586 Z-1.000000
G01 X16.510410 Y21.556598 Z-1.000000
G03 X16.547876 Y21.451235 Z-1.000000 I0.368913 J0.071836
G01 X16.605896 Y21.342823 Z-1.000000
G01 X16.503437 Y21.287983 Z-1.000000
G03 X16.425651 Y21.214585 Z-1.000000 I0.096363 J-0.180041
G03 X16.364016 Y21.060301 Z-1.000000 I0.420205 J-0.257322
G02 X16.314684 Y20.893339 Z-1.000000 I-1.112027 J0.237798
G02 X16.272336 Y20.819572 Z-1.000000 I-0.253827 J0.096678
G03 X16.247586 Y20.747911 Z-1.000000 I0.087042 J-0.070166
G03 X16.274936 Y20.625980 Z-1.000000 I0.303581 J0.004061
G02 X16.310998 Y20.498444 Z-1.000000 I-0.398463 J-0.181539
G02 X16.303976 Y20.392287 Z-1.000000 I-0.279941 J-0.034791
G03 X16.308691 Y20.292617 Z-1.000000 I0.161716 J-0.042295
G03 X16.387116 Y20.164752 Z-1.000000 I0.354926 J0.129706
G02 X16.521635 Y19.889303 Z-1.000000 I-0.384793 J-0.358491
G02 X16.445446 Y19.799963 Z-1.000000 I-0.076189 J-0.012183
G01 X16.413810 Y19.821381 Z-1.000000
G02 X16.392396 Y19.932584 Z-1.000000 I0.278018 J0.111203
G01 X16.392396 Y20.065205 Z-1.000000
G01 X16.291266 Y20.065205 Z-1.000000
G01 X16.190136 Y20.065205 Z-1.000000
G01 X16.219216 Y19.953995 Z-1.000000
G03 X16.264362 Y19.851997 Z-1.000000 I0.336937 J0.088146
G03 X16.372860 Y19.718224 Z-1.000000 I0.695590 J0.453277
G02 X16.463044 Y19.586353 Z-1.000000 I-0.306132 J-0.306132
G02 X16.464900 Y19.508901 Z-1.000000 I-0.093203 J-0.040982
G02 X16.379220 Y19.472755 Z-1.000000 I-0.060212 J0.023106
G02 X16.295474 Y19.581721 Z-1.000000 I0.055624 J0.129416
G03 X16.221754 Y19.633702 Z-1.000000 I-0.061554 J-0.009030
G03 X16.164176 Y19.555541 Z-1.000000 I0.014092 J-0.070669
G02 X16.173229 Y19.455033 Z-1.000000 I-3.382689 J-0.355363
G02 X16.190696 Y19.203185 Z-1.000000 I-21.867327 J-1.643108
G03 X16.233578 Y18.979828 Z-1.000000 I0.902039 J0.057388
G01 X16.273036 Y18.951206 Z-1.000000
G02 X16.365858 Y18.852041 Z-1.000000 I-0.000015 J-0.093039
G02 X16.256726 Y18.703968 Z-1.000000 I-0.170266 J0.011236
G03 X16.205434 Y18.658312 Z-1.000000 I0.034843 J-0.090783
G03 X16.202016 Y18.599537 Z-1.000000 I0.063309 J-0.033169
G02 X16.196149 Y18.550024 Z-1.000000 I-0.049993 J-0.019180
G02 X16.152016 Y18.526807 Z-1.000000 I-0.044133 J0.030338
G01 X16.074106 Y18.526807 Z-1.000000
G01 X16.074106 Y18.314614 Z-1.000000
G03 X16.128449 Y18.174950 Z-1.000000 I0.206640 J0.000000
G01 X16.183565 Y18.195255 Z-1.000000
G01 X16.186965 Y18.288085 Z-1.000000
G01 X16.239495 Y18.156413 Z-1.000000
G02 X16.260619 Y18.039332 Z-1.000000 I-0.276699 J-0.110371
G01 X16.236095 Y18.006110 Z-1.000000
G03 X16.141701 Y17.876908 Z-1.000000 I0.043660 J-0.130980
G03 X16.233295 Y17.784127 Z-1.000000 I0.091594 J-0.001180
G01 X16.270031 Y17.767805 Z-1.000000
G02 X16.286345 Y17.725407 Z-1.000000 I-0.046939 J-0.042399
G01 X16.266036 Y17.696228 Z-1.000000
G02 X16.208475 Y17.696567 Z-1.000000 I-0.028332 J0.076490
G03 X16.128032 Y17.657128 Z-1.000000 I-0.021904 J-0.057080
G03 X16.144495 Y17.484265 Z-1.000000 I0.219912 J-0.066272
G01 X16.219545 Y17.341026 Z-1.000000
G01 X16.284385 Y17.462178 Z-1.000000
G02 X16.356213 Y17.536115 Z-1.000000 I0.164676 J-0.088120
G01 X16.402626 Y17.529928 Z-1.000000
G02 X16.454124 Y17.346763 Z-1.000000 I-0.137474 J-0.137474
G02 X16.335816 Y17.253651 Z-1.000000 I-0.118308 J0.028605
G01 X16.303014 Y17.236982 Z-1.000000
G03 X16.286346 Y17.185871 Z-1.000000 I0.070030 J-0.051111
G02 X16.268291 Y17.126400 Z-1.000000 I-0.106975 J-0.000000
G02 X16.180249 Y17.027246 Z-1.000000 I-0.404628 J0.270619
G03 X16.089004 Y16.881007 Z-1.000000 I0.186745 J-0.218104
G01 X16.129069 Y16.829268 Z-1.000000
G01 X16.149407 Y16.808564 Z-1.000000
G02 X16.127169 Y16.723171 Z-1.000000 I-0.187919 J0.003347
G03 X16.099542 Y16.617082 Z-1.000000 I0.206153 J-0.110325
G03 X16.123469 Y16.517953 Z-1.000000 I0.202138 J-0.003663
G02 X16.155748 Y16.421906 Z-1.000000 I-0.268407 J-0.143656
G01 X16.144269 Y16.386581 Z-1.000000
G01 X16.143128 Y16.360936 Z-1.000000
G03 X16.199179 Y16.320881 Z-1.000000 I0.105236 J0.088016
G02 X16.290499 Y16.192682 Z-1.000000 I-0.051028 J-0.132974
G02 X16.207679 Y16.067751 Z-1.000000 I-0.129104 J-0.004331
G03 X16.162864 Y16.022471 Z-1.000000 I0.027733 J-0.072265
G03 X16.163249 Y15.948307 Z-1.000000 I0.098327 J-0.036573
G02 X16.162395 Y15.869278 Z-1.000000 I-0.100162 J-0.038437
G02 X16.096039 Y15.783875 Z-1.000000 I-0.185968 J0.076012
G01 X15.994585 Y15.708695 Z-1.000000
G01 X16.097559 Y15.632405 Z-1.000000
G01 X16.200532 Y15.556115 Z-1.000000
G01 X16.084297 Y15.556115 Z-1.000000
G01 X15.968061 Y15.556115 Z-1.000000
G01 X15.968061 Y15.343922 Z-1.000000
G02 X15.944803 Y15.154990 Z-1.000000 I-0.779013 J-0.000000
G01 X15.915011 Y15.131729 Z-1.000000
G01 X15.885218 Y15.108467 Z-1.000000
G03 X15.861961 Y14.919536 Z-1.000000 I0.755770 J-0.188931
G03 X15.887728 Y14.733110 Z-1.000000 I0.687280 J-0.000000
G01 X15.921761 Y14.707343 Z-1.000000
G02 X16.088385 Y14.514540 Z-1.000000 I0.000000 J-0.168402
G02 X15.830971 Y14.087463 Z-1.000000 I-0.638004 J0.093432
G01 X15.733071 Y14.015873 Z-1.000000
G01 X15.699921 Y13.685240 Z-1.000000
G03 X15.711059 Y13.281234 Z-1.000000 I1.581499 J-0.158553
G01 X15.767101 Y13.255459 Z-1.000000
G01 X15.787577 Y13.246015 Z-1.000000
G02 X15.781471 Y13.162319 Z-1.000000 I-0.185144 J-0.028563
G02 X15.686945 Y13.055473 Z-1.000000 I-0.165111 J0.050837
G02 X15.532440 Y13.050839 Z-1.000000 I-0.082875 J0.185135
G01 X15.366123 Y13.113619 Z-1.000000
G01 X15.295743 Y13.055209 Z-1.000000
G03 X15.252699 Y12.983973 Z-1.000000 I0.080948 J-0.097534
G03 X15.225363 Y12.723336 Z-1.000000 I1.228845 J-0.260637
G02 X15.196237 Y12.459054 Z-1.000000 I-1.213593 J-0.000000
G02 X15.135823 Y12.322030 Z-1.000000 I-0.375749 J0.083838
G01 X15.046283 Y12.194191 Z-1.000000
G01 X15.109303 Y12.173191 Z-1.000000
G02 X15.154227 Y12.139142 Z-1.000000 I-0.027751 J-0.083276
G02 X15.172323 Y12.080161 Z-1.000000 I-0.087075 J-0.058981
G02 X15.101906 Y11.981108 Z-1.000000 I-0.104875 J0.000000
G02 X14.988904 Y12.016351 Z-1.000000 I-0.032690 J0.093970
G01 X14.927674 Y12.100081 Z-1.000000
G01 X14.867804 Y12.004211 Z-1.000000
G01 X14.807924 Y11.908331 Z-1.000000
G01 X14.914958 Y11.793443 Z-1.000000
G01 X15.021993 Y11.678555 Z-1.000000
G01 X14.951273 Y11.588235 Z-1.000000
G02 X14.875241 Y11.503752 Z-1.000000 I-0.653751 J0.511894
G02 X14.814243 Y11.455492 Z-1.000000 I-0.270560 J0.279298
G03 X14.780753 Y11.367945 Z-1.000000 I0.042503 J-0.066438
G03 X14.854033 Y11.312246 Z-1.000000 I0.073280 J0.020356
G01 X14.960130 Y11.312246 Z-1.000000
G01 X14.951230 Y11.086790 Z-1.000000
G01 X14.942330 Y10.861335 Z-1.000000
G01 X14.921520 Y11.060266 Z-1.000000
G03 X14.849859 Y11.205176 Z-1.000000 I-0.231255 J-0.024186
G03 X14.758722 Y11.213916 Z-1.000000 I-0.051189 J-0.054237
G01 X14.689902 Y11.170256 Z-1.000000
G01 X14.773552 Y11.100826 Z-1.000000
G01 X14.857202 Y11.031396 Z-1.000000
G01 X14.645688 Y10.936696 Z-1.000000
G01 X14.434175 Y10.841996 Z-1.000000
G01 X14.140160 Y10.872346 Z-1.000000
G01 X13.846145 Y10.902696 Z-1.000000
G01 X13.846145 Y10.815706 Z-1.000000
G02 X13.818200 Y10.756658 Z-1.000000 I-0.076357 J0.000000
G02 X13.740049 Y10.728716 Z-1.000000 I-0.078151 J0.095320
G03 X13.654217 Y10.708455 Z-1.000000 I0.000000 J-0.191937
G01 X13.633952 Y10.675666 Z-1.000000
G01 X13.654215 Y10.642878 Z-1.000000
G03 X13.740049 Y10.622616 Z-1.000000 I0.085833 J0.171665
G03 X13.825879 Y10.642876 Z-1.000000 I0.000000 J0.191932
G01 X13.846145 Y10.675666 Z-1.000000
G01 X13.866408 Y10.708453 Z-1.000000
G02 X13.952242 Y10.728716 Z-1.000000 I0.085833 J-0.171665
G03 X14.038072 Y10.748976 Z-1.000000 I0.000000 J0.191932
G01 X14.058338 Y10.781766 Z-1.000000
G01 X14.077190 Y10.815969 Z-1.000000
G02 X14.142328 Y10.834816 Z-1.000000 I0.065137 J-0.103141
G01 X14.176824 Y10.768885 Z-1.000000
G02 X14.015063 Y10.651439 Z-1.000000 I-0.248968 J0.172786
G03 X13.871787 Y10.581604 Z-1.000000 I0.142536 J-0.474320
G03 X13.846142 Y10.532080 Z-1.000000 I0.034994 J-0.049524
G02 X13.829958 Y10.479662 Z-1.000000 I-0.092983 J0.000000
G01 X13.799322 Y10.463480 Z-1.000000
G01 X13.772374 Y10.441660 Z-1.000000
G03 X13.715612 Y10.069756 Z-1.000000 I3.172159 J-0.674444
G01 X13.678712 Y9.676033 Z-1.000000
G01 X13.788947 Y9.565798 Z-1.000000
G03 X13.983770 Y9.477754 Z-1.000000 I0.214028 J0.214028
G03 X14.062635 Y9.548398 Z-1.000000 I0.004710 J0.074085
G01 X14.083443 Y9.557476 Z-1.000000
G02 X14.141005 Y9.482088 Z-1.000000 I-0.142550 J-0.168512
G02 X14.191500 Y9.320359 Z-1.000000 I-0.579660 J-0.269731
G02 X14.188735 Y9.203585 Z-1.000000 I-0.299478 J-0.051328
G03 X14.223455 Y9.127031 Z-1.000000 I0.068458 J-0.015102
G01 X14.285365 Y9.150535 Z-1.000000
G01 X14.341902 Y9.154094 Z-1.000000
G02 X14.407894 Y8.908572 Z-1.000000 I-0.553935 J-0.280517
G01 X14.420764 Y8.680592 Z-1.000000
G01 X14.579121 Y8.511071 Z-1.000000
G03 X14.747780 Y8.365268 Z-1.000000 I0.765678 J0.715257
G03 X14.823617 Y8.341549 Z-1.000000 I0.075836 J0.109376
G02 X14.884368 Y8.310587 Z-1.000000 I0.000000 J-0.075082
G02 X14.942497 Y8.177845 Z-1.000000 I-0.274336 J-0.199232
G03 X14.996345 Y8.031945 Z-1.000000 I0.490291 J0.098069
G03 X15.050051 Y7.985432 Z-1.000000 I0.091100 J0.050924
G02 X15.118303 Y7.946271 Z-1.000000 I-0.091586 J-0.238680
G02 X15.347536 Y7.747115 Z-1.000000 I-2.380842 J-2.971900
G03 X15.578638 Y7.549321 Z-1.000000 I2.204789 J2.342180
G03 X15.716090 Y7.460731 Z-1.000000 I0.570365 J0.734014
G02 X15.846230 Y7.374454 Z-1.000000 I-0.360734 J-0.685419
G01 X15.861973 Y7.341204 Z-1.000000
G03 X15.955315 Y7.181347 Z-1.000000 I0.183556 J0.000000
G03 X17.846549 Y6.221233 Z-1.000000 I11.843088 J20.985794
G03 X18.777763 Y5.936723 Z-1.000000 I1.560345 J3.440876
G03 X20.782970 Y5.725339 Z-1.000000 I2.697778 J15.974852
G02 X20.807215 Y5.609854 Z-1.000000 I-0.002603 J-0.060834
G02 X19.958202 Y5.320144 Z-1.000000 I-1.551715 J3.158500
G01 X19.426065 Y5.211701 Z-1.000000
G01 X18.612150 Y5.219901 Z-1.000000
G02 X17.798451 Y5.235692 Z-1.000000 I0.437383 J43.510279
G02 X16.969826 Y5.267121 Z-1.000000 I1.302208 J45.271919
G01 X16.969726 Y5.267031 Z-1.000000
G00 Z5.000000

(End cutting path id: path21405)


(Footer)
M5
G00 X0.0000 Y0.0000
M2
(Using default footer. To add your own footer create file "footer" in the output dir.)
(end)
%