%
(Header)
(Generated by gcodetools from Inkscape.)
(Using default header. To add your own header create file "header" in the output dir.)
M3
(Header end.)
G21 (All units in mm)

(Start cutting path id: path2)
(Change tool to Default tool)

G00 Z5.000000
G00 X16.317655 Y1.437379

G01 Z-1.000000 F100.0(Penetrate)
G02 X15.895562 Y1.475054 Z-1.000000 I0.957189 J13.107181 F3500.000000
G02 X15.742159 Y1.498119 Z-1.000000 I0.184684 J1.749985
G02 X15.608763 Y1.553437 Z-1.000000 I0.069871 J0.356989
G02 X15.531810 Y1.639850 Z-1.000000 I0.130512 J0.193695
G02 X15.484774 Y1.755286 Z-1.000000 I0.613590 J0.317315
G02 X15.447970 Y1.914212 Z-1.000000 I1.131290 J0.345709
G02 X15.442587 Y2.076074 Z-1.000000 I0.639530 J0.102290
G02 X15.492080 Y2.391801 Z-1.000000 I2.512039 J-0.232042
G02 X15.574991 Y2.702692 Z-1.000000 I3.762617 J-0.836943
G02 X15.657910 Y2.923420 Z-1.000000 I1.976258 J-0.616467
G03 X15.735177 Y3.143838 Z-1.000000 I-1.350031 J0.597001
G03 X15.753650 Y3.286266 Z-1.000000 I-0.539822 J0.142428
G02 X15.765879 Y3.431235 Z-1.000000 I0.865413 J0.000000
G02 X15.854821 Y3.881714 Z-1.000000 I8.502170 J-1.444645
G02 X15.966042 Y4.327625 Z-1.000000 I9.796445 J-2.206653
G02 X16.019338 Y4.482439 Z-1.000000 I1.230219 J-0.336929
G03 X16.058470 Y4.638723 Z-1.000000 I-0.495966 J0.207226
G03 X16.076268 Y5.080485 Z-1.000000 I-4.028959 J0.383561
G02 X16.071941 Y5.526932 Z-1.000000 I48.940705 J0.697615
G02 X16.071568 Y6.026488 Z-1.000000 I56.954270 J0.292269
G03 X16.064553 Y6.523589 Z-1.000000 I-14.232238 J0.047758
G03 X16.054818 Y6.555873 Z-1.000000 I-0.065230 J-0.002060
G02 X16.044463 Y6.588144 Z-1.000000 I0.059838 J0.036998
G02 X16.017918 Y7.103741 Z-1.000000 I16.306485 J1.098004
G03 X15.995702 Y7.621608 Z-1.000000 I-35.822328 J-1.277362
G03 X15.958608 Y8.286508 Z-1.000000 I-59.104095 J-2.963828
G02 X15.927915 Y8.951548 Z-1.000000 I21.804254 J1.339525
G02 X15.916298 Y9.656230 Z-1.000000 I24.467963 J0.755819
G03 X15.893887 Y10.359889 Z-1.000000 I-11.832583 J-0.024666
G03 X15.833068 Y11.005809 Z-1.000000 I-10.028431 J-0.618446
G03 X15.749353 Y11.650104 Z-1.000000 I-106.251032 J-13.477837
G03 X15.727331 Y11.800696 Z-1.000000 I-5.817004 J-0.773764
G03 X15.689985 Y11.943351 Z-1.000000 I-0.745431 J-0.118934
G03 X15.658021 Y11.988308 Z-1.000000 I-0.099079 J-0.036603
G03 X15.608695 Y11.997923 Z-1.000000 I-0.033544 J-0.040755
G03 X15.149403 Y11.828951 Z-1.000000 I1.496793 J-4.777222
G02 X14.684370 Y11.640422 Z-1.000000 I-6.025119 J14.194030
G02 X14.638042 Y11.631267 Z-1.000000 I-0.049240 J0.127373
G03 X14.597423 Y11.616286 Z-1.000000 I0.001416 J-0.066398
G03 X14.527255 Y11.540707 Z-1.000000 I0.238687 J-0.291960
G02 X14.477792 Y11.493182 Z-1.000000 I-0.145452 J0.101881
G01 X14.464545 Y11.500417 Z-1.000000
G01 X14.442623 Y11.527746 Z-1.000000
G03 X14.242972 Y11.549667 Z-1.000000 I-0.199651 J-0.898233
G03 X14.038502 Y11.532562 Z-1.000000 I-0.000000 J-1.230652
G01 X14.021400 Y11.512337 Z-1.000000
G01 X14.008349 Y11.484843 Z-1.000000
G02 X13.950900 Y11.454807 Z-1.000000 I-0.101811 J0.124772
G01 X14.037300 Y11.457407 Z-1.000000
G02 X14.153885 Y11.453773 Z-1.000000 I0.048055 J-0.330270
G01 X14.163703 Y11.430887 Z-1.000000
G01 X14.173252 Y11.406183 Z-1.000000
G03 X14.288809 Y11.394957 Z-1.000000 I0.088140 J0.306917
G02 X14.421050 Y11.384861 Z-1.000000 I0.035199 J-0.410050
G01 X14.440378 Y11.358147 Z-1.000000
G02 X14.435579 Y11.308028 Z-1.000000 I-1.570088 J0.125061
G02 X14.430308 Y11.268677 Z-1.000000 I-0.909421 J0.101778
G01 X14.412707 Y11.237744 Z-1.000000
G02 X14.311808 Y11.171267 Z-1.000000 I-0.365106 J0.444346
G03 X14.224972 Y11.091650 Z-1.000000 I0.103400 J-0.199938
G03 X14.126425 Y10.878159 Z-1.000000 I0.757774 J-0.479278
G02 X14.035486 Y10.653702 Z-1.000000 I-1.378785 J0.427963
G02 X13.953435 Y10.536690 Z-1.000000 I-0.448420 J0.227168
G02 X13.841721 Y10.449397 Z-1.000000 I-0.338423 J0.317972
G02 X13.672466 Y10.379525 Z-1.000000 I-0.378001 J0.675715
G03 X13.505826 Y10.309377 Z-1.000000 I0.194842 J-0.695866
G03 X13.434782 Y10.242218 Z-1.000000 I0.105709 J-0.182979
G03 X13.388395 Y10.151305 Z-1.000000 I0.395017 J-0.258841
G03 X13.351612 Y10.023588 Z-1.000000 I0.748142 J-0.284624
G02 X13.302893 Y9.910512 Z-1.000000 I-0.290375 J0.058075
G02 X13.233419 Y9.856712 Z-1.000000 I-0.123061 J0.087157
G03 X13.151321 Y9.810573 Z-1.000000 I0.113029 J-0.297230
G03 X13.105529 Y9.757312 Z-1.000000 I0.108456 J-0.139563
G02 X13.057970 Y9.724361 Z-1.000000 I-0.057482 J0.032168
G02 X12.958654 Y9.734932 Z-1.000000 I-0.029567 J0.194045
G03 X12.847066 Y9.772668 Z-1.000000 I-0.561669 J-1.477017
G03 X12.816923 Y9.777052 Z-1.000000 I-0.030143 J-0.101448
G01 X12.797747 Y9.765278 Z-1.000000
G03 X12.785973 Y9.716042 Z-1.000000 I0.097056 J-0.049236
G01 X12.806283 Y9.682785 Z-1.000000
G03 X12.859403 Y9.678342 Z-1.000000 I0.031951 J0.062236
G02 X12.929634 Y9.680781 Z-1.000000 I0.039476 J-0.124371
G02 X13.022796 Y9.638642 Z-1.000000 I-0.064866 J-0.267464
G01 X13.020438 Y9.604746 Z-1.000000
G02 X12.899407 Y9.575632 Z-1.000000 I-0.121031 J0.237010
G03 X12.720678 Y9.547236 Z-1.000000 I0.000000 J-0.576681
G01 X12.699085 Y9.510332 Z-1.000000
G03 X12.730554 Y9.461419 Z-1.000000 I0.078072 J0.015649
G03 X12.852621 Y9.399545 Z-1.000000 I0.257621 J0.356895
G02 X12.974453 Y9.337571 Z-1.000000 I-0.134094 J-0.414346
G02 X13.005726 Y9.288348 Z-1.000000 I-0.046589 J-0.064146
G02 X12.999378 Y9.226544 Z-1.000000 I-0.106351 J-0.020305
G02 X12.915576 Y9.071226 Z-1.000000 I-0.804846 J0.333990
G03 X12.830420 Y8.914416 Z-1.000000 I0.748797 J-0.508161
G03 X12.812828 Y8.827348 Z-1.000000 I0.206661 J-0.087068
G02 X12.803594 Y8.736574 Z-1.000000 I-0.450788 J0.000000
G02 X12.771418 Y8.625953 Z-1.000000 I-0.703380 J0.144600
G02 X12.724667 Y8.541927 Z-1.000000 I-0.312343 J0.118764
G01 X12.706328 Y8.540703 Z-1.000000
G01 X12.696685 Y8.567705 Z-1.000000
G02 X12.719958 Y8.677220 Z-1.000000 I0.507221 J-0.050561
G03 X12.745519 Y8.790661 Z-1.000000 I-0.565890 J0.187110
G03 X12.742408 Y8.857419 Z-1.000000 I-0.195437 J0.024343
G03 X12.707363 Y8.903992 Z-1.000000 I-0.068486 J-0.015062
G03 X12.558690 Y8.957119 Z-1.000000 I-0.245564 J-0.452605
G03 X12.389565 Y8.984790 Z-1.000000 I-0.595581 J-3.109475
G03 X12.346180 Y8.985999 Z-1.000000 I-0.027306 J-0.200869
G01 X12.317141 Y8.998341 Z-1.000000
G02 X12.302540 Y9.039099 Z-1.000000 I0.049584 J0.040758
G01 X12.320062 Y9.070169 Z-1.000000
G01 X12.359780 Y9.073699 Z-1.000000
G03 X12.418200 Y9.056136 Z-1.000000 I0.147070 J0.383258
G03 X12.569061 Y9.027419 Z-1.000000 I0.560975 J2.536377
G03 X12.708427 Y9.039837 Z-1.000000 I0.045102 J0.282074
G03 X12.827398 Y9.117739 Z-1.000000 I-0.097339 J0.278451
G03 X12.918137 Y9.238382 Z-1.000000 I-0.539456 J0.500184
G03 X12.933073 Y9.293211 Z-1.000000 I-0.089280 J0.053770
G01 X12.919634 Y9.309054 Z-1.000000
G01 X12.897813 Y9.299411 Z-1.000000
G02 X12.854468 Y9.268639 Z-1.000000 I-0.059257 J0.037556
G02 X12.778472 Y9.271621 Z-1.000000 I-0.032569 J0.139855
G03 X12.698620 Y9.276943 Z-1.000000 I-0.050759 J-0.159899
G03 X12.638727 Y9.247081 Z-1.000000 I0.020415 J-0.115941
G03 X12.623611 Y9.196761 Z-1.000000 I0.035610 J-0.038127
G03 X12.668037 Y9.125135 Z-1.000000 I0.130543 J0.031378
G02 X12.711588 Y9.068804 Z-1.000000 I-0.106398 J-0.127261
G01 X12.702037 Y9.053265 Z-1.000000
G02 X12.665318 Y9.065936 Z-1.000000 I-0.001471 J0.055278
G01 X12.651677 Y9.094925 Z-1.000000
G01 X12.635354 Y9.115616 Z-1.000000
G03 X12.574427 Y9.113405 Z-1.000000 I-0.026487 J-0.110675
G02 X12.519765 Y9.115314 Z-1.000000 I-0.024653 J0.077652
G01 X12.505057 Y9.140905 Z-1.000000
G02 X12.518277 Y9.190941 Z-1.000000 I0.234960 J-0.035314
G02 X12.544397 Y9.243280 Z-1.000000 I0.286358 J-0.110222
G01 X12.542705 Y9.276086 Z-1.000000
G03 X12.502977 Y9.296470 Z-1.000000 I-0.041782 J-0.032527
G01 X12.491790 Y9.310742 Z-1.000000
G01 X12.510677 Y9.333930 Z-1.000000
G03 X12.543810 Y9.360110 Z-1.000000 I-0.032079 J0.074655
G01 X12.538517 Y9.371380 Z-1.000000
G01 X12.511178 Y9.387504 Z-1.000000
G01 X12.511087 Y9.415160 Z-1.000000
G02 X12.540467 Y9.438856 Z-1.000000 I0.048349 J-0.029885
G01 X12.569287 Y9.435770 Z-1.000000
G01 X12.591101 Y9.440645 Z-1.000000
G03 X12.621347 Y9.515680 Z-1.000000 I-0.175560 J0.114381
G03 X12.615250 Y9.595060 Z-1.000000 I-0.148963 J0.028483
G01 X12.585667 Y9.615925 Z-1.000000
G03 X12.547275 Y9.599481 Z-1.000000 I0.000000 J-0.053038
G03 X12.530827 Y9.558385 Z-1.000000 I0.043114 J-0.041096
G01 X12.506914 Y9.525851 Z-1.000000
G02 X12.369809 Y9.508025 Z-1.000000 I-0.119312 J0.381491
G02 X12.233832 Y9.532467 Z-1.000000 I0.023555 J0.521504
G01 X12.222125 Y9.555495 Z-1.000000
G01 X12.247219 Y9.577572 Z-1.000000
G02 X12.363000 Y9.582675 Z-1.000000 I0.075184 J-0.389858
G03 X12.472304 Y9.589822 Z-1.000000 I0.033498 J0.327101
G01 X12.490541 Y9.612885 Z-1.000000
G01 X12.471738 Y9.637409 Z-1.000000
G03 X12.329397 Y9.656205 Z-1.000000 I-0.142341 J-0.529585
G02 X12.183493 Y9.671449 Z-1.000000 I-0.000000 J0.705878
G01 X12.168253 Y9.690245 Z-1.000000
G01 X12.178051 Y9.719784 Z-1.000000
G02 X12.238753 Y9.784835 Z-1.000000 I0.323991 J-0.241487
G02 X12.311216 Y9.842582 Z-1.000000 I0.820851 J-0.955687
G02 X12.359149 Y9.873745 Z-1.000000 I0.285030 J-0.385975
G01 X12.381245 Y9.869787 Z-1.000000
G01 X12.385939 Y9.841885 Z-1.000000
G02 X12.351900 Y9.794328 Z-1.000000 I-0.108275 J0.041539
G02 X12.295759 Y9.766735 Z-1.000000 I-0.084980 J0.101991
G01 X12.294399 Y9.751777 Z-1.000000
G03 X12.446068 Y9.703175 Z-1.000000 I0.345133 J0.816084
G03 X12.659840 Y9.666957 Z-1.000000 I0.452938 J2.024405
G01 X12.684427 Y9.675515 Z-1.000000
G01 X12.682234 Y9.686898 Z-1.000000
G03 X12.635457 Y9.696495 Z-1.000000 I-0.046777 J-0.109196
G02 X12.592673 Y9.720058 Z-1.000000 I0.000000 J0.050624
G02 X12.578387 Y9.786725 Z-1.000000 I0.083364 J0.052728
G02 X12.610561 Y9.858549 Z-1.000000 I0.141421 J-0.020231
G02 X12.666537 Y9.891312 Z-1.000000 I0.074143 J-0.062476
G01 X12.705161 Y9.880131 Z-1.000000
G01 X12.709157 Y9.851442 Z-1.000000
G01 X12.714596 Y9.840988 Z-1.000000
G01 X12.740757 Y9.849242 Z-1.000000
G02 X12.796025 Y9.868819 Z-1.000000 I0.055268 J-0.068223
G01 X12.824027 Y9.849242 Z-1.000000
G01 X12.850506 Y9.828562 Z-1.000000
G03 X12.890967 Y9.842142 Z-1.000000 I0.005413 J0.050939
G03 X12.907001 Y9.887549 Z-1.000000 I-0.035755 J0.038160
G03 X12.875857 Y9.950051 Z-1.000000 I-0.108862 J-0.015234
G02 X12.823474 Y10.017472 Z-1.000000 I0.242371 J0.242371
G02 X12.812837 Y10.056233 Z-1.000000 I0.065304 J0.038761
G01 X12.825041 Y10.087190 Z-1.000000
G01 X12.853127 Y10.099393 Z-1.000000
G01 X12.878925 Y10.114142 Z-1.000000
G03 X12.894637 Y10.169893 Z-1.000000 I-0.098033 J0.057717
G01 X12.910397 Y10.184563 Z-1.000000
G01 X12.938297 Y10.167493 Z-1.000000
G02 X12.963752 Y10.093182 Z-1.000000 I-0.173557 J-0.100968
G02 X12.956517 Y10.031457 Z-1.000000 I-0.124566 J-0.016685
G03 X12.950286 Y9.971321 Z-1.000000 I0.108446 J-0.041628
G03 X12.974967 Y9.916970 Z-1.000000 I0.111982 J0.018073
G03 X13.023920 Y9.895458 Z-1.000000 I0.045969 J0.038152
G03 X13.136806 Y9.925070 Z-1.000000 I-0.014210 J0.284146
G03 X13.225829 Y10.002414 Z-1.000000 I-0.105341 J0.211152
G03 X13.251972 Y10.092362 Z-1.000000 I-0.122609 J0.084409
G01 X13.237476 Y10.111515 Z-1.000000
G01 X13.220642 Y10.102472 Z-1.000000
G02 X13.181579 Y10.015941 Z-1.000000 I-0.302826 J0.084622
G02 X13.147252 Y9.989385 Z-1.000000 I-0.055090 J0.035747
G01 X13.125337 Y9.999843 Z-1.000000
G02 X13.122452 Y10.055395 Z-1.000000 I0.085962 J0.032315
G03 X13.118844 Y10.131550 Z-1.000000 I-0.123536 J0.032311
G03 X13.048782 Y10.256896 Z-1.000000 I-0.425382 J-0.155514
G03 X12.944881 Y10.359323 Z-1.000000 I-0.463857 J-0.366620
G03 X12.889343 Y10.379254 Z-1.000000 I-0.058879 J-0.076723
G02 X12.826061 Y10.387920 Z-1.000000 I0.010575 J0.312592
G02 X12.697985 Y10.425714 Z-1.000000 I0.324851 J1.336782
G02 X12.586874 Y10.481141 Z-1.000000 I0.161083 J0.461997
G01 X12.571116 Y10.510654 Z-1.000000
G01 X12.588046 Y10.529780 Z-1.000000
G02 X12.681902 Y10.524204 Z-1.000000 I0.031692 J-0.259233
G01 X12.714273 Y10.533961 Z-1.000000
G01 X12.712122 Y10.556984 Z-1.000000
G01 X12.712548 Y10.585890 Z-1.000000
G02 X12.778432 Y10.603344 Z-1.000000 I0.056762 J-0.081189
G01 X12.925315 Y10.589764 Z-1.000000
G01 X12.913815 Y10.823843 Z-1.000000
G02 X12.924416 Y11.033411 Z-1.000000 I1.050945 J0.051891
G01 X12.948215 Y11.050936 Z-1.000000
G02 X12.992245 Y11.038899 Z-1.000000 I-0.028979 J-0.192558
G02 X13.046405 Y11.011296 Z-1.000000 I-0.131109 J-0.324178
G02 X13.080985 Y10.970583 Z-1.000000 I-0.046602 J-0.074625
G02 X13.087995 Y10.911716 Z-1.000000 I-0.099951 J-0.041753
G03 X13.091906 Y10.847060 Z-1.000000 I0.146972 J-0.023557
G03 X13.146675 Y10.707315 Z-1.000000 I0.770292 J0.221290
G02 X13.199188 Y10.572562 Z-1.000000 I-0.675660 J-0.340913
G01 X13.192295 Y10.546172 Z-1.000000
G01 X13.169393 Y10.544610 Z-1.000000
G02 X13.065831 Y10.641842 Z-1.000000 I0.404031 J0.534099
G03 X13.009155 Y10.677865 Z-1.000000 I-0.087841 J-0.075605
G01 X12.993691 Y10.661982 Z-1.000000
G03 X13.025780 Y10.563831 Z-1.000000 I2.912525 J0.897886
G01 X13.029341 Y10.558905 Z-1.000000
G01 X13.034735 Y10.555583 Z-1.000000
G03 X13.171527 Y10.488405 Z-1.000000 I8.191427 J16.507129
G03 X13.311619 Y10.434680 Z-1.000000 I0.381129 J0.784303
G03 X13.403171 Y10.421775 Z-1.000000 I0.091552 J0.318305
G03 X13.480389 Y10.439079 Z-1.000000 I-0.000000 J0.180942
G01 X13.497691 Y10.466375 Z-1.000000
G01 X13.513053 Y10.488626 Z-1.000000
G02 X13.556151 Y10.488535 Z-1.000000 I0.021430 J-0.056543
G03 X13.611214 Y10.487524 Z-1.000000 I0.028924 J0.075358
G03 X13.705407 Y10.539625 Z-1.000000 I-0.099840 J0.291696
G03 X13.718832 Y10.605410 Z-1.000000 I-0.033238 J0.041046
G03 X13.616727 Y10.706893 Z-1.000000 I-0.214527 J-0.113735
G03 X13.435923 Y10.787579 Z-1.000000 I-0.744310 J-1.424958
G03 X13.396971 Y10.789143 Z-1.000000 I-0.021852 J-0.058387
G01 X13.382824 Y10.793024 Z-1.000000
G01 X13.382971 Y10.803933 Z-1.000000
G01 X13.384437 Y10.829719 Z-1.000000
G03 X13.232527 Y10.993128 Z-1.000000 I-1.132731 J-0.900710
G03 X13.050152 Y11.126561 Z-1.000000 I-0.678743 J-0.736348
G03 X12.990782 Y11.131087 Z-1.000000 I-0.034461 J-0.060385
G02 X12.930081 Y11.131797 Z-1.000000 I-0.029458 J0.076744
G02 X12.805776 Y11.207107 Z-1.000000 I0.179104 J0.435865
G02 X12.746847 Y11.285802 Z-1.000000 I0.139688 J0.166013
G01 X12.761386 Y11.308076 Z-1.000000
G02 X12.831946 Y11.295899 Z-1.000000 I0.000000 J-0.210516
G02 X12.878752 Y11.266316 Z-1.000000 I-0.042174 J-0.118547
G03 X12.926103 Y11.235242 Z-1.000000 I0.098536 J0.098536
G03 X13.037881 Y11.203476 Z-1.000000 I0.215430 J0.545512
G03 X13.110553 Y11.205239 Z-1.000000 I0.032030 J0.178390
G01 X13.114961 Y11.221186 Z-1.000000
G03 X13.070238 Y11.251412 Z-1.000000 I-0.109374 J-0.113630
G03 X12.994103 Y11.275496 Z-1.000000 I-0.141408 J-0.314649
G01 X12.986937 Y11.296611 Z-1.000000
G02 X13.051553 Y11.340206 Z-1.000000 I0.117240 J-0.104087
G02 X13.159934 Y11.370651 Z-1.000000 I0.276168 J-0.775007
G01 X13.163757 Y11.363576 Z-1.000000
G01 X13.154148 Y11.335359 Z-1.000000
G03 X13.176487 Y11.265736 Z-1.000000 I0.200823 J0.026040
G02 X13.187893 Y11.203983 Z-1.000000 I-0.091107 J-0.048758
G01 X13.164997 Y11.175116 Z-1.000000
G01 X13.160487 Y11.155994 Z-1.000000
G03 X13.222497 Y11.113666 Z-1.000000 I0.125704 J0.117568
G02 X13.321757 Y11.060873 Z-1.000000 I-0.190340 J-0.477587
G02 X13.363497 Y11.017546 Z-1.000000 I-0.082962 J-0.121691
G03 X13.402553 Y10.969191 Z-1.000000 I0.222732 J0.139949
G03 X13.530984 Y10.854169 Z-1.000000 I1.413974 J1.449600
G03 X13.668654 Y10.754250 Z-1.000000 I0.901193 J1.096878
G03 X13.703577 Y10.744059 Z-1.000000 I0.034923 J0.054741
G01 X13.724281 Y10.759644 Z-1.000000
G03 X13.729677 Y10.834699 Z-1.000000 I-0.174654 J0.050278
G03 X13.710443 Y10.922889 Z-1.000000 I-0.579743 J-0.080245
G03 X13.688747 Y10.970668 Z-1.000000 I-0.187605 J-0.056376
G01 X13.696354 Y10.999638 Z-1.000000
G02 X13.819333 Y11.041428 Z-1.000000 I0.183988 J-0.339595
G03 X13.942210 Y11.087714 Z-1.000000 I-0.051748 J0.323626
G01 X13.955291 Y11.127028 Z-1.000000
G03 X13.924148 Y11.175478 Z-1.000000 I-0.132186 J-0.050733
G01 X13.896221 Y11.187198 Z-1.000000
G01 X13.874289 Y11.201249 Z-1.000000
G02 X13.860241 Y11.265388 Z-1.000000 I0.139399 J0.064139
G03 X13.845989 Y11.335641 Z-1.000000 I-0.180282 J-0.000000
G03 X13.815451 Y11.371264 Z-1.000000 I-0.071179 J-0.030118
G01 X13.776045 Y11.375591 Z-1.000000
G03 X13.735491 Y11.343424 Z-1.000000 I0.025852 J-0.074242
G01 X13.712875 Y11.332882 Z-1.000000
G01 X13.699091 Y11.348324 Z-1.000000
G01 X13.685389 Y11.364092 Z-1.000000
G01 X13.663221 Y11.354124 Z-1.000000
G02 X13.628754 Y11.329484 Z-1.000000 I-0.047612 J0.030173
G01 X13.603641 Y11.339834 Z-1.000000
G01 X13.602881 Y11.372021 Z-1.000000
G02 X13.638891 Y11.403304 Z-1.000000 I0.060968 J-0.033813
G03 X13.682516 Y11.437792 Z-1.000000 I-0.033406 J0.087092
G03 X13.699091 Y11.491454 Z-1.000000 I-0.078580 J0.053662
G03 X13.681600 Y11.531462 Z-1.000000 I-0.054502 J0.000000
G01 X13.648731 Y11.538044 Z-1.000000
G03 X13.614415 Y11.510772 Z-1.000000 I0.023951 J-0.065364
G01 X13.607961 Y11.475704 Z-1.000000
G01 X13.596997 Y11.455762 Z-1.000000
G02 X13.554231 Y11.456134 Z-1.000000 I-0.020885 J0.057391
G01 X13.531161 Y11.484445 Z-1.000000
G01 X13.544631 Y11.514494 Z-1.000000
G01 X13.545387 Y11.533531 Z-1.000000
G03 X13.497651 Y11.549794 Z-1.000000 I-0.048736 J-0.064863
G02 X13.445221 Y11.564757 Z-1.000000 I0.001272 J0.103794
G01 X13.445031 Y11.581604 Z-1.000000
G02 X13.496569 Y11.600227 Z-1.000000 I0.067475 J-0.106107
G02 X13.676677 Y11.611204 Z-1.000000 I0.172815 J-1.352456
G03 X13.838427 Y11.632144 Z-1.000000 I0.003255 J0.610042
G01 X13.860226 Y11.660584 Z-1.000000
G01 X13.877479 Y11.692893 Z-1.000000
G02 X13.930726 Y11.707764 Z-1.000000 I0.049254 J-0.073596
G01 X13.953668 Y11.696471 Z-1.000000
G01 X13.950616 Y11.684184 Z-1.000000
G03 X13.919290 Y11.657459 Z-1.000000 I0.024248 J-0.060146
G01 X13.919436 Y11.632334 Z-1.000000
G01 X13.945532 Y11.616047 Z-1.000000
G03 X14.040545 Y11.620324 Z-1.000000 I0.032747 J0.329989
G03 X14.127273 Y11.652121 Z-1.000000 I-0.053597 J0.280370
G01 X14.142221 Y11.677724 Z-1.000000
G01 X14.155054 Y11.692686 Z-1.000000
G02 X14.191431 Y11.685324 Z-1.000000 I0.008184 J-0.053117
G03 X14.243583 Y11.666809 Z-1.000000 I0.068966 J0.111550
G03 X14.362646 Y11.663184 Z-1.000000 I0.077940 J0.602887
G03 X14.472357 Y11.695283 Z-1.000000 I-0.018149 J0.265569
G03 X14.571319 Y11.777529 Z-1.000000 I-0.161643 J0.295158
G02 X14.667814 Y11.853417 Z-1.000000 I0.218485 J-0.178520
G02 X14.745060 Y11.860829 Z-1.000000 I0.048730 J-0.101626
G03 X14.830625 Y11.857441 Z-1.000000 I0.050498 J0.193158
G03 X14.980686 Y11.902859 Z-1.000000 I-0.117616 J0.659210
G02 X15.129950 Y11.959179 Z-1.000000 I0.631299 J-1.447170
G02 X15.159446 Y11.960179 Z-1.000000 I0.016511 J-0.051498
G01 X15.177855 Y11.967792 Z-1.000000
G03 X15.189666 Y12.010079 Z-1.000000 I-0.069798 J0.042287
G01 X15.164738 Y12.041043 Z-1.000000
G03 X14.982149 Y12.055429 Z-1.000000 I-0.143648 J-0.657281
G02 X14.833647 Y12.060145 Z-1.000000 I-0.047976 J0.829657
G01 X14.831077 Y12.073809 Z-1.000000
G02 X14.890451 Y12.094586 Z-1.000000 I0.094999 J-0.176257
G02 X15.129237 Y12.127719 Z-1.000000 I0.523254 J-2.893982
G02 X15.371000 Y12.150560 Z-1.000000 I4.376411 J-45.032317
G02 X15.401167 Y12.152669 Z-1.000000 I0.063668 J-0.693786
G01 X15.419697 Y12.165266 Z-1.000000
G03 X15.431387 Y12.219479 Z-1.000000 I-0.119865 J0.054213
G01 X15.412929 Y12.245534 Z-1.000000
G01 X15.376067 Y12.238929 Z-1.000000
G02 X15.317617 Y12.212021 Z-1.000000 I-0.079559 J0.095880
G02 X15.255209 Y12.218159 Z-1.000000 I-0.020040 J0.116571
G02 X15.201417 Y12.251380 Z-1.000000 I0.060970 J0.158884
G01 X15.189669 Y12.278019 Z-1.000000
G01 X15.202559 Y12.293975 Z-1.000000
G02 X15.247649 Y12.290479 Z-1.000000 I0.016669 J-0.077543
G03 X15.304324 Y12.284390 Z-1.000000 I0.039808 J0.103716
G03 X15.378578 Y12.310659 Z-1.000000 I-0.032058 J0.208695
G03 X15.405863 Y12.341333 Z-1.000000 I-0.033121 J0.056933
G01 X15.397558 Y12.354319 Z-1.000000
G02 X15.350272 Y12.369714 Z-1.000000 I0.001961 J0.086339
G02 X15.265230 Y12.446189 Z-1.000000 I0.260300 J0.374981
G02 X15.194626 Y12.541622 Z-1.000000 I0.591778 J0.511648
G02 X15.144977 Y12.637547 Z-1.000000 I0.548942 J0.344933
G03 X15.096352 Y12.682330 Z-1.000000 I-0.072848 J-0.030308
G01 X15.051287 Y12.667767 Z-1.000000
G02 X14.995754 Y12.604658 Z-1.000000 I-0.384675 J0.282505
G01 X14.977277 Y12.597267 Z-1.000000
G01 X14.966080 Y12.607146 Z-1.000000
G02 X14.965427 Y12.691757 Z-1.000000 I0.359131 J0.045081
G02 X14.982638 Y12.783894 Z-1.000000 I0.618231 J-0.067807
G02 X15.001727 Y12.828193 Z-1.000000 I0.159359 J-0.042409
G01 X15.005527 Y12.866522 Z-1.000000
G03 X14.967667 Y12.919923 Z-1.000000 I-0.119013 J-0.044256
G02 X14.920753 Y12.975848 Z-1.000000 I0.130162 J0.156832
G02 X14.907677 Y13.025203 Z-1.000000 I0.086611 J0.049355
G03 X14.895911 Y13.068939 Z-1.000000 I-0.087168 J0.000000
G01 X14.875487 Y13.080703 Z-1.000000
G01 X14.852500 Y13.093831 Z-1.000000
G02 X14.792307 Y13.221703 Z-1.000000 I0.655310 J0.386579
G03 X14.729275 Y13.345532 Z-1.000000 I-0.528695 J-0.191162
G01 X14.696927 Y13.362704 Z-1.000000
G01 X14.676346 Y13.372572 Z-1.000000
G01 X14.677147 Y13.387324 Z-1.000000
G01 X14.685155 Y13.415569 Z-1.000000
G03 X14.617447 Y13.639111 Z-1.000000 I-1.855885 J-0.440103
G03 X14.527220 Y13.862094 Z-1.000000 I-3.881378 J-1.440803
G03 X14.508900 Y13.886423 Z-1.000000 I-0.060678 J-0.026629
G02 X14.492123 Y13.910674 Z-1.000000 I0.035130 J0.042232
G02 X14.474020 Y13.987138 Z-1.000000 I0.368205 J0.127547
G03 X14.463148 Y14.067696 Z-1.000000 I-22.382822 J-2.979663
G03 X14.424350 Y14.349712 Z-1.000000 I-182.677322 J-24.988115
G02 X14.400144 Y14.632692 Z-1.000000 I2.698143 J0.373319
G02 X14.389580 Y15.397146 Z-1.000000 I19.742245 J0.655130
G02 X14.396528 Y16.162538 Z-1.000000 I105.895025 J-0.578540
G02 X14.404540 Y16.585581 Z-1.000000 I33.870610 J-0.429886
G02 X14.421664 Y17.008153 Z-1.000000 I13.957522 J-0.353961
G02 X14.441590 Y17.250299 Z-1.000000 I4.584733 J-0.255387
G02 X14.469917 Y17.491750 Z-1.000000 I14.565766 J-1.586475
G02 X14.488940 Y17.626910 Z-1.000000 I4.593311 J-0.577559
G03 X14.488579 Y17.729555 Z-1.000000 I-0.322090 J0.050190
G01 X14.470860 Y17.737640 Z-1.000000
G01 X14.454346 Y17.744032 Z-1.000000
G02 X14.453740 Y17.797510 Z-1.000000 I0.097361 J0.027846
G02 X14.483006 Y17.834774 Z-1.000000 I0.057512 J-0.015044
G01 X14.509800 Y17.827780 Z-1.000000
G01 X14.530402 Y17.821255 Z-1.000000
G01 X14.544500 Y17.842140 Z-1.000000
G03 X14.532347 Y17.903215 Z-1.000000 I-0.152604 J0.001381
G03 X14.505000 Y17.935060 Z-1.000000 I-0.063782 J-0.027109
G01 X14.473277 Y17.932227 Z-1.000000
G03 X14.417960 Y17.856870 Z-1.000000 I0.152961 J-0.170267
G02 X14.362784 Y17.766714 Z-1.000000 I-0.396372 J0.180621
G01 X14.336220 Y17.753883 Z-1.000000
G01 X14.310459 Y17.740751 Z-1.000000
G03 X14.263110 Y17.653168 Z-1.000000 I0.305368 J-0.221678
G02 X14.215587 Y17.565853 Z-1.000000 I-0.344945 J0.131153
G01 X14.189120 Y17.552454 Z-1.000000
G01 X14.171520 Y17.567414 Z-1.000000
G02 X14.172680 Y17.653168 Z-1.000000 I0.242568 J0.039603
G02 X14.206120 Y17.736740 Z-1.000000 I0.232004 J-0.044357
G01 X14.237590 Y17.753915 Z-1.000000
G01 X14.271944 Y17.771625 Z-1.000000
G03 X14.367847 Y17.936562 Z-1.000000 I-0.837642 J0.597398
G03 X14.431273 Y18.112818 Z-1.000000 I-0.962509 J0.445903
G01 X14.420957 Y18.138634 Z-1.000000
G01 X14.393733 Y18.137434 Z-1.000000
G03 X14.326287 Y18.067884 Z-1.000000 I0.183138 J-0.245075
G03 X14.275828 Y17.973664 Z-1.000000 I0.367578 J-0.257475
G03 X14.263097 Y17.906066 Z-1.000000 I0.173094 J-0.067598
G02 X14.248495 Y17.849068 Z-1.000000 I-0.118544 J0.000000
G01 X14.223817 Y17.834456 Z-1.000000
G01 X14.205060 Y17.851282 Z-1.000000
G02 X14.209967 Y17.961578 Z-1.000000 I0.360253 J0.039229
G03 X14.204680 Y18.045027 Z-1.000000 I-0.159056 J0.031815
G01 X14.178747 Y18.054558 Z-1.000000
G01 X14.167959 Y18.060297 Z-1.000000
G01 X14.177047 Y18.088138 Z-1.000000
G02 X14.235120 Y18.137247 Z-1.000000 I0.158513 J-0.128555
G01 X14.262957 Y18.136708 Z-1.000000
G01 X14.292951 Y18.135059 Z-1.000000
G03 X14.402789 Y18.203178 Z-1.000000 I-0.249495 J0.524911
G03 X14.471752 Y18.286539 Z-1.000000 I-0.158138 J0.201031
G01 X14.462789 Y18.318982 Z-1.000000
G02 X14.437153 Y18.354644 Z-1.000000 I0.030077 J0.048667
G02 X14.444289 Y18.398262 Z-1.000000 I0.056401 J0.013165
G01 X14.474622 Y18.414726 Z-1.000000
G01 X14.505809 Y18.396862 Z-1.000000
G01 X14.535267 Y18.391663 Z-1.000000
G03 X14.602519 Y18.473132 Z-1.000000 I-0.154788 J0.196268
G02 X14.673836 Y18.590355 Z-1.000000 I0.879487 J-0.454759
G01 X14.692199 Y18.599856 Z-1.000000
G01 X14.703277 Y18.588879 Z-1.000000
G02 X14.693399 Y18.468927 Z-1.000000 I-0.659812 J-0.006047
G03 X14.698565 Y18.424406 Z-1.000000 I0.077481 J-0.013571
G01 X14.712609 Y18.424047 Z-1.000000
G02 X14.767182 Y18.497320 Z-1.000000 I0.223338 J-0.109380
G02 X14.855315 Y18.555913 Z-1.000000 I0.226566 J-0.245212
G03 X14.928791 Y18.612810 Z-1.000000 I-0.083959 J0.184316
G01 X14.935455 Y18.654933 Z-1.000000
G01 X14.946459 Y18.681846 Z-1.000000
G02 X15.011605 Y18.689673 Z-1.000000 I0.044853 J-0.098297
G02 X15.079045 Y18.658415 Z-1.000000 I-0.028742 J-0.150395
G01 X15.083635 Y18.631513 Z-1.000000
G01 X15.090182 Y18.621019 Z-1.000000
G03 X15.144535 Y18.637513 Z-1.000000 I-0.014296 J0.144910
G03 X15.223206 Y18.687288 Z-1.000000 I-0.302447 J0.565089
G01 X15.229965 Y18.700693 Z-1.000000
G01 X15.222582 Y18.707407 Z-1.000000
G03 X15.169535 Y18.694993 Z-1.000000 I0.019154 J-0.201386
G02 X15.124634 Y18.694420 Z-1.000000 I-0.023227 J0.060553
G01 X15.109105 Y18.716403 Z-1.000000
G02 X15.112044 Y18.760513 Z-1.000000 I0.332449 J0.000000
G02 X15.119175 Y18.791213 Z-1.000000 I0.164402 J-0.022008
G01 X15.135608 Y18.808663 Z-1.000000
G01 X15.164975 Y18.809513 Z-1.000000
G01 X15.197369 Y18.812798 Z-1.000000
G03 X15.291565 Y18.882963 Z-1.000000 I-0.259219 J0.446312
G02 X15.373107 Y18.929524 Z-1.000000 I0.137863 J-0.146759
G01 X15.401604 Y18.915013 Z-1.000000
G01 X15.430912 Y18.901302 Z-1.000000
G03 X15.536872 Y18.964443 Z-1.000000 I-0.113779 J0.311417
G02 X15.654325 Y19.065494 Z-1.000000 I3.685534 J-4.164980
G02 X15.715235 Y19.113621 Z-1.000000 I0.894506 J-1.069479
G01 X15.753064 Y19.112462 Z-1.000000
G02 X15.775665 Y19.062511 Z-1.000000 I-0.041227 J-0.048742
G02 X15.749167 Y18.976609 Z-1.000000 I-0.162092 J0.002961
G02 X15.632819 Y18.844470 Z-1.000000 I-0.520973 J0.341426
G02 X15.488591 Y18.732080 Z-1.000000 I-1.317519 J1.542010
G02 X15.460617 Y18.722353 Z-1.000000 I-0.030758 J0.043371
G03 X15.431598 Y18.713855 Z-1.000000 I0.003442 J-0.065548
G03 X15.171801 Y18.558018 Z-1.000000 I3.256844 J-5.723987
G03 X14.936225 Y18.375036 Z-1.000000 I0.821548 J-1.300820
G03 X14.831005 Y18.235731 Z-1.000000 I0.362080 J-0.382875
G03 X14.764992 Y18.086555 Z-1.000000 I1.133744 J-0.590895
G01 X14.772255 Y18.076141 Z-1.000000
G01 X14.778726 Y18.067425 Z-1.000000
G02 X14.757015 Y18.025781 Z-1.000000 I-0.120860 J0.036530
G03 X14.725656 Y17.971409 Z-1.000000 I0.171723 J-0.135271
G03 X14.688805 Y17.854566 Z-1.000000 I0.774184 J-0.308402
G03 X14.691389 Y17.789004 Z-1.000000 I0.119113 J-0.028138
G01 X14.711445 Y17.784066 Z-1.000000
G02 X14.768112 Y17.821077 Z-1.000000 I0.120285 J-0.122283
G02 X14.837531 Y17.834426 Z-1.000000 I0.069419 J-0.173818
G03 X14.885668 Y17.849343 Z-1.000000 I0.000000 J0.085128
G01 X14.890131 Y17.870486 Z-1.000000
G01 X14.890902 Y17.898767 Z-1.000000
G02 X14.932521 Y17.931376 Z-1.000000 I0.073868 J-0.051413
G01 X14.966388 Y17.925361 Z-1.000000
G01 X14.973841 Y17.895316 Z-1.000000
G03 X14.974231 Y17.849796 Z-1.000000 I0.058025 J-0.022264
G01 X14.999571 Y17.831626 Z-1.000000
G01 X15.001082 Y17.823086 Z-1.000000
G02 X14.853051 Y17.768736 Z-1.000000 I-0.578267 J1.346229
G03 X14.673882 Y17.704568 Z-1.000000 I0.609421 J-1.983837
G01 X14.671819 Y17.694276 Z-1.000000
G01 X14.688645 Y17.688978 Z-1.000000
G03 X14.887575 Y17.732476 Z-1.000000 I-0.444389 J2.508968
G03 X15.086722 Y17.791504 Z-1.000000 I-0.801481 J3.069461
G03 X15.229951 Y17.846282 Z-1.000000 I-0.545020 J1.639716
G02 X15.371127 Y17.907093 Z-1.000000 I10.595964 J-24.405019
G02 X15.617705 Y18.011972 Z-1.000000 I31.390603 J-73.458896
G02 X15.865372 Y18.111936 Z-1.000000 I3.084551 J-7.285358
G02 X15.889635 Y18.116436 Z-1.000000 I0.024263 J-0.063164
G01 X15.905836 Y18.107456 Z-1.000000
G02 X15.914815 Y18.076146 Z-1.000000 I-0.050101 J-0.031310
G01 X15.901731 Y18.048971 Z-1.000000
G02 X15.864455 Y18.035976 Z-1.000000 I-0.037126 J0.046536
G03 X15.816082 Y18.027390 Z-1.000000 I-0.000306 J-0.138838
G03 X15.652954 Y17.957916 Z-1.000000 I0.625485 J-1.694915
G02 X15.490951 Y17.881638 Z-1.000000 I-3.377864 J6.963948
G02 X15.350810 Y17.819910 Z-1.000000 I-2.343211 J5.129804
G02 X15.207900 Y17.766029 Z-1.000000 I-0.731613 J1.723991
G02 X15.088951 Y17.733210 Z-1.000000 I-0.383756 J1.158936
G03 X14.968726 Y17.703944 Z-1.000000 I0.671850 J-3.021508
G03 X14.837179 Y17.666550 Z-1.000000 I0.962490 J-3.636018
G03 X14.746025 Y17.604264 Z-1.000000 I0.053555 J-0.176222
G03 X14.730337 Y17.530854 Z-1.000000 I0.066908 J-0.052680
G02 X14.728703 Y17.439788 Z-1.000000 I-0.169344 J-0.042508
G02 X14.667147 Y17.312400 Z-1.000000 I-0.405649 J0.117448
G03 X14.610133 Y17.205451 Z-1.000000 I0.383814 J-0.273282
G01 X14.620917 Y17.189856 Z-1.000000
G03 X14.655983 Y17.200750 Z-1.000000 I-0.000000 J0.061886
G03 X14.694157 Y17.240216 Z-1.000000 I-0.078441 J0.114066
G02 X14.735230 Y17.279362 Z-1.000000 I0.100413 J-0.064235
G02 X14.867374 Y17.339656 Z-1.000000 I0.389259 J-0.678171
G02 X14.911871 Y17.334127 Z-1.000000 I0.016649 J-0.047831
G01 X14.913264 Y17.309446 Z-1.000000
G03 X14.841723 Y17.238683 Z-1.000000 I0.379551 J-0.455269
G01 X14.845664 Y17.230146 Z-1.000000
G03 X14.871494 Y17.236328 Z-1.000000 I0.000000 J0.057056
G03 X15.051557 Y17.334689 Z-1.000000 I-1.540334 J3.033774
G03 X15.223797 Y17.442756 Z-1.000000 I-1.701232 J2.902745
G01 X15.229946 Y17.454282 Z-1.000000
G01 X15.223410 Y17.459860 Z-1.000000
G03 X15.162906 Y17.443612 Z-1.000000 I0.047162 J-0.296393
G01 X15.129871 Y17.446055 Z-1.000000
G01 X15.124996 Y17.465022 Z-1.000000
G02 X15.161299 Y17.499279 Z-1.000000 I0.082336 J-0.050888
G02 X15.212176 Y17.512152 Z-1.000000 I0.050877 J-0.094105
G02 X15.255823 Y17.497747 Z-1.000000 I0.000000 J-0.073325
G01 X15.270226 Y17.469152 Z-1.000000
G01 X15.287217 Y17.448443 Z-1.000000
G03 X15.360866 Y17.451092 Z-1.000000 I0.031232 J0.156827
G01 X15.381220 Y17.440202 Z-1.000000
G01 X15.373306 Y17.413522 Z-1.000000
G02 X15.289676 Y17.366501 Z-1.000000 I-0.185544 J0.232119
G02 X15.202091 Y17.351012 Z-1.000000 I-0.087585 J0.239893
G03 X15.116692 Y17.332622 Z-1.000000 I-0.000000 J-0.207481
G03 X15.032481 Y17.274412 Z-1.000000 I0.117284 J-0.259691
G02 X14.949593 Y17.208160 Z-1.000000 I-0.338421 J0.338421
G02 X14.866015 Y17.169293 Z-1.000000 I-0.192854 J0.305412
G03 X14.823828 Y17.133273 Z-1.000000 I0.021573 J-0.067981
G01 X14.831825 Y17.101083 Z-1.000000
G01 X14.836242 Y17.086921 Z-1.000000
G01 X14.824625 Y17.081173 Z-1.000000
G03 X14.765230 Y17.080562 Z-1.000000 I-0.028760 J-0.091544
G03 X14.663481 Y17.026873 Z-1.000000 I0.114866 J-0.340946
G03 X14.597747 Y16.936248 Z-1.000000 I0.115089 J-0.152630
G03 X14.561307 Y16.728904 Z-1.000000 I0.639370 J-0.219243
G03 X14.582666 Y16.529858 Z-1.000000 I0.807757 J-0.013989
G01 X14.614047 Y16.505005 Z-1.000000
G01 X14.642799 Y16.489439 Z-1.000000
G01 X14.643157 Y16.460405 Z-1.000000
G01 X14.650589 Y16.443045 Z-1.000000
G03 X14.711277 Y16.446015 Z-1.000000 I0.024695 J0.116921
G03 X14.806380 Y16.477918 Z-1.000000 I-0.849275 J2.689372
G03 X14.947966 Y16.530125 Z-1.000000 I-2.139024 J6.019188
G03 X14.976936 Y16.555878 Z-1.000000 I-0.019560 J0.051174
G01 X14.968106 Y16.568575 Z-1.000000
G03 X14.848633 Y16.547514 Z-1.000000 I0.162716 J-1.272437
G03 X14.766677 Y16.523145 Z-1.000000 I0.140001 J-0.620838
G01 X14.735668 Y16.526390 Z-1.000000
G01 X14.733327 Y16.544285 Z-1.000000
G02 X14.787965 Y16.580825 Z-1.000000 I0.103400 J-0.095494
G02 X14.913784 Y16.610935 Z-1.000000 I0.188952 J-0.511628
G03 X15.037999 Y16.645076 Z-1.000000 I-0.048773 J0.420482
G03 X15.126857 Y16.706285 Z-1.000000 I-0.121675 J0.271742
G03 X15.171153 Y16.786118 Z-1.000000 I-0.117279 J0.117279
G03 X15.156897 Y16.835916 Z-1.000000 I-0.052003 J0.012052
G03 X15.103936 Y16.857960 Z-1.000000 I-0.053220 J-0.053220
G03 X15.028081 Y16.836363 Z-1.000000 I-0.000490 J-0.142292
G02 X14.947454 Y16.792622 Z-1.000000 I-0.397498 J0.636525
G02 X14.922128 Y16.787013 Z-1.000000 I-0.025326 J0.054370
G01 X14.916612 Y16.796515 Z-1.000000
G02 X14.968108 Y16.867583 Z-1.000000 I0.352674 J-0.201358
G02 X15.047012 Y16.934649 Z-1.000000 I0.294441 J-0.266466
G02 X15.092789 Y16.948153 Z-1.000000 I0.045777 J-0.070837
G03 X15.142348 Y16.957757 Z-1.000000 I0.000000 J0.132667
G03 X15.398762 Y17.071364 Z-1.000000 I-1.530954 J3.801582
G03 X15.549776 Y17.162520 Z-1.000000 I-0.419873 J0.866251
G01 X15.543402 Y17.177898 Z-1.000000
G02 X15.462022 Y17.179824 Z-1.000000 I-0.035250 J0.230887
G01 X15.455132 Y17.195688 Z-1.000000
G02 X15.482732 Y17.218872 Z-1.000000 I0.048960 J-0.030264
G02 X15.541382 Y17.230158 Z-1.000000 I0.058650 J-0.146756
G03 X15.601224 Y17.243402 Z-1.000000 I0.000000 J0.141812
G03 X15.675114 Y17.292408 Z-1.000000 I-0.125194 J0.268975
G02 X15.750555 Y17.339118 Z-1.000000 I0.165169 J-0.182486
G02 X15.855174 Y17.362908 Z-1.000000 I0.131254 J-0.335269
G02 X15.953304 Y17.351004 Z-1.000000 I0.018789 J-0.255526
G01 X15.984280 Y17.320808 Z-1.000000
G01 X15.981236 Y17.285185 Z-1.000000
G01 X15.956090 Y17.270448 Z-1.000000
G01 X15.934016 Y17.283798 Z-1.000000
G01 X15.934970 Y17.310738 Z-1.000000
G03 X15.948514 Y17.344701 Z-1.000000 I-0.089879 J0.055526
G01 X15.943370 Y17.351028 Z-1.000000
G03 X15.927240 Y17.348596 Z-1.000000 I-0.000000 J-0.054712
G03 X15.799992 Y17.306798 Z-1.000000 I1.089574 J-3.531622
G03 X15.689056 Y17.251252 Z-1.000000 I0.158884 J-0.455877
G01 X15.673122 Y17.221298 Z-1.000000
G01 X15.686856 Y17.209241 Z-1.000000
G03 X15.732192 Y17.228998 Z-1.000000 I-0.011546 J0.088388
G02 X15.794288 Y17.261923 Z-1.000000 I0.110107 J-0.132642
G02 X15.842417 Y17.260978 Z-1.000000 I0.022548 J-0.077757
G01 X15.844936 Y17.240886 Z-1.000000
G02 X15.591985 Y17.099728 Z-1.000000 I-1.245458 J1.934608
G02 X15.288870 Y16.959379 Z-1.000000 I-5.820337 J12.172805
G02 X15.218988 Y16.932597 Z-1.000000 I-0.276958 J0.618106
G01 X15.186128 Y16.895414 Z-1.000000
G03 X15.198848 Y16.826396 Z-1.000000 I0.095407 J-0.018098
G02 X15.208522 Y16.750708 Z-1.000000 I-0.078820 J-0.048536
G02 X15.149398 Y16.665234 Z-1.000000 I-0.164164 J0.050369
G03 X15.071169 Y16.594587 Z-1.000000 I0.423635 J-0.547739
G01 X15.074498 Y16.586444 Z-1.000000
G03 X15.099326 Y16.590608 Z-1.000000 I0.002189 J0.063049
G03 X15.271326 Y16.662114 Z-1.000000 I-1.240285 J3.225989
G03 X15.373378 Y16.732803 Z-1.000000 I-0.138002 J0.308241
G01 X15.366366 Y16.758154 Z-1.000000
G01 X15.365356 Y16.769553 Z-1.000000
G02 X15.419326 Y16.782304 Z-1.000000 I0.059124 J-0.129652
G03 X15.535082 Y16.808962 Z-1.000000 I-0.011519 J0.314666
G03 X15.589316 Y16.857474 Z-1.000000 I-0.047664 J0.107858
G02 X15.623898 Y16.901811 Z-1.000000 I0.180475 J-0.105111
G01 X15.631606 Y16.898754 Z-1.000000
G01 X15.644541 Y16.887304 Z-1.000000
G03 X15.730426 Y16.906654 Z-1.000000 I-0.024784 J0.310278
G02 X15.821112 Y16.917526 Z-1.000000 I0.067171 J-0.176627
G02 X15.873729 Y16.888684 Z-1.000000 I-0.010150 J-0.080933
G01 X15.870657 Y16.864662 Z-1.000000
G01 X15.829769 Y16.857054 Z-1.000000
G03 X15.779617 Y16.845051 Z-1.000000 I-0.013845 J-0.052930
G01 X15.769429 Y16.803524 Z-1.000000
G01 X15.766046 Y16.776845 Z-1.000000
G01 X15.749519 Y16.775414 Z-1.000000
G03 X15.695465 Y16.790037 Z-1.000000 I-0.039878 J-0.040190
G03 X15.488001 Y16.707774 Z-1.000000 I0.225168 J-0.870599
G02 X15.271500 Y16.600595 Z-1.000000 I-1.375339 J2.505916
G02 X15.001059 Y16.491822 Z-1.000000 I-1.688157 J3.806671
G03 X14.727733 Y16.389123 Z-1.000000 I4.141972 J-11.438581
G03 X14.618507 Y16.342813 Z-1.000000 I0.727789 J-1.868533
G03 X14.529686 Y16.280155 Z-1.000000 I0.124177 J-0.270311
G03 X14.506483 Y16.227902 Z-1.000000 I0.058921 J-0.057442
G03 X14.503310 Y16.162509 Z-1.000000 I2.118767 J-0.135592
G03 X14.489803 Y15.724042 Z-1.000000 I96.323797 J-3.186625
G03 X14.514782 Y15.313639 Z-1.000000 I2.301857 J-0.065858
G03 X14.559383 Y15.264057 Z-1.000000 I0.059945 J0.009071
G01 X14.580388 Y15.238729 Z-1.000000
G01 X14.563083 Y15.211107 Z-1.000000
G01 X14.564993 Y15.197973 Z-1.000000
G03 X14.726385 Y15.195907 Z-1.000000 I0.093575 J1.004869
G01 X14.968100 Y15.212177 Z-1.000000
G01 X14.736456 Y15.169147 Z-1.000000
G01 X14.504812 Y15.126117 Z-1.000000
G01 X14.504812 Y14.828545 Z-1.000000
G03 X14.524624 Y14.550779 Z-1.000000 I1.957054 J-0.000000
G01 X14.547472 Y14.530973 Z-1.000000
G01 X14.567140 Y14.518153 Z-1.000000
G01 X14.565242 Y14.490683 Z-1.000000
G01 X14.569015 Y14.466064 Z-1.000000
G03 X14.613222 Y14.449173 Z-1.000000 I0.045366 J0.052435
G01 X14.628586 Y14.432969 Z-1.000000
G01 X14.611622 Y14.404683 Z-1.000000
G03 X14.569388 Y14.345873 Z-1.000000 I0.044471 J-0.076506
G03 X14.564592 Y14.174264 Z-1.000000 I0.487502 J-0.099496
G03 X14.604287 Y13.990636 Z-1.000000 I1.379530 J0.202107
G03 X14.669250 Y13.810778 Z-1.000000 I1.387020 J0.399320
G02 X14.740585 Y13.633203 Z-1.000000 I-2.843458 J-1.245387
G02 X14.746490 Y13.599919 Z-1.000000 I-0.090856 J-0.033284
G03 X14.753289 Y13.566984 Z-1.000000 I0.083166 J0.000000
G03 X14.861555 Y13.333110 Z-1.000000 I4.486646 J1.934976
G03 X14.982462 Y13.104041 Z-1.000000 I4.515653 J2.237008
G03 X15.167432 Y12.788028 Z-1.000000 I8.772861 J4.922822
G03 X15.371087 Y12.488821 Z-1.000000 I3.099348 J1.890653
G03 X15.435083 Y12.434108 Z-1.000000 I0.156698 J0.118503
G03 X15.493673 Y12.423626 Z-1.000000 I0.045413 J0.084849
G01 X15.512173 Y12.444758 Z-1.000000
G02 X15.529681 Y12.486774 Z-1.000000 I0.059877 J-0.000294
G02 X15.643102 Y12.575880 Z-1.000000 I0.425639 J-0.425049
G02 X15.778493 Y12.642947 Z-1.000000 I0.457676 J-0.753739
G02 X15.912215 Y12.681546 Z-1.000000 I0.273482 J-0.696514
G02 X15.972866 Y12.674091 Z-1.000000 I0.018695 J-0.098343
G01 X15.975015 Y12.652556 Z-1.000000
G03 X15.946208 Y12.612475 Z-1.000000 I0.046845 J-0.064062
G01 X15.957435 Y12.597096 Z-1.000000
G01 X15.963715 Y12.582482 Z-1.000000
G02 X15.878385 Y12.513366 Z-1.000000 I-0.299817 J0.282919
G03 X15.748420 Y12.421495 Z-1.000000 I0.610634 J-1.001695
G03 X15.668224 Y12.342301 Z-1.000000 I0.371570 J-0.456473
G03 X15.602077 Y12.252132 Z-1.000000 I0.682694 J-0.570165
G03 X15.593824 Y12.226237 Z-1.000000 I0.044254 J-0.028366
G01 X15.602023 Y12.201554 Z-1.000000
G03 X15.697216 Y12.100539 Z-1.000000 I0.795548 J0.654336
G02 X15.783145 Y11.992699 Z-1.000000 I-0.313011 J-0.337567
G02 X15.831542 Y11.867264 Z-1.000000 I-0.379220 J-0.218371
G03 X15.878183 Y11.757960 Z-1.000000 I0.308576 J0.067069
G01 X15.914912 Y11.743448 Z-1.000000
G01 X15.930052 Y11.732002 Z-1.000000
G02 X15.917412 Y11.693998 Z-1.000000 I-0.055084 J-0.002783
G03 X15.889926 Y11.624942 Z-1.000000 I0.092594 J-0.076853
G03 X15.894832 Y11.346348 Z-1.000000 I1.688150 J-0.109611
G03 X15.945120 Y11.076977 Z-1.000000 I1.615819 J0.162275
G03 X15.979582 Y11.038986 Z-1.000000 I0.054841 J0.015121
G02 X16.015443 Y11.003600 Z-1.000000 I-0.022519 J-0.058686
G02 X16.035632 Y10.898554 Z-1.000000 I-0.263197 J-0.105046
G02 X16.017796 Y10.811627 Z-1.000000 I-0.220747 J0.000000
G01 X15.995342 Y10.804524 Z-1.000000
G01 X15.970069 Y10.802464 Z-1.000000
G01 X15.955052 Y10.769494 Z-1.000000
G03 X15.967951 Y10.714910 Z-1.000000 I0.121944 J0.000000
G03 X16.015122 Y10.649495 Z-1.000000 I0.225415 J0.112835
G02 X16.048933 Y10.595076 Z-1.000000 I-0.099590 J-0.099590
G01 X16.039972 Y10.576115 Z-1.000000
G01 X16.022516 Y10.550862 Z-1.000000
G03 X16.039097 Y9.273657 Z-1.000000 I46.760825 J-0.031654
G03 X16.082030 Y7.984891 Z-1.000000 I96.695434 J2.576152
G03 X16.120437 Y7.239217 Z-1.000000 I32.454448 J1.297781
G02 X16.162739 Y6.493723 Z-1.000000 I-59.174958 J-3.731737
G02 X16.176007 Y6.137498 Z-1.000000 I-13.530391 J-0.682319
G03 X16.206406 Y5.793582 Z-1.000000 I2.698813 J0.065245
G03 X16.235527 Y5.749587 Z-1.000000 I0.062202 J0.009538
G01 X16.249260 Y5.722449 Z-1.000000
G01 X16.231527 Y5.699837 Z-1.000000
G01 X16.201826 Y5.663084 Z-1.000000
G03 X16.167777 Y5.120886 Z-1.000000 I5.751545 J-0.633353
G02 X16.137140 Y4.564269 Z-1.000000 I-7.107579 J0.112060
G02 X16.099567 Y4.399059 Z-1.000000 I-0.653518 J0.061749
G03 X16.048368 Y4.235662 Z-1.000000 I1.630017 J-0.600475
G03 X15.994834 Y3.996200 Z-1.000000 I3.451930 J-0.897422
G02 X15.948235 Y3.754763 Z-1.000000 I-23.485850 J4.407693
G02 X15.938894 Y3.714199 Z-1.000000 I-0.668783 J0.132652
G02 X15.928008 Y3.674000 Z-1.000000 I-2.379675 J0.622839
G02 X15.878864 Y3.499622 Z-1.000000 I-49.025506 J13.722524
G03 X15.856573 Y3.330906 Z-1.000000 I0.566023 J-0.160614
G03 X15.882164 Y3.260245 Z-1.000000 I0.114711 J0.001580
G01 X15.888617 Y3.232664 Z-1.000000
G01 X15.874464 Y3.226025 Z-1.000000
G01 X15.869426 Y3.220847 Z-1.000000
G03 X15.892234 Y3.193475 Z-1.000000 I0.080653 J0.044017
G02 X15.918134 Y3.148598 Z-1.000000 I-0.045610 J-0.056235
G01 X15.902304 Y3.130055 Z-1.000000
G03 X15.852860 Y3.110058 Z-1.000000 I0.000000 J-0.071125
G03 X15.829404 Y3.059555 Z-1.000000 I0.053895 J-0.055730
G03 X15.827800 Y2.989168 Z-1.000000 I0.795303 J-0.053335
G03 X15.832104 Y2.934655 Z-1.000000 I0.476526 J0.010197
G01 X15.821390 Y2.908198 Z-1.000000
G01 X15.796594 Y2.906815 Z-1.000000
G01 X15.766336 Y2.910523 Z-1.000000
G01 X15.753614 Y2.893095 Z-1.000000
G03 X15.763495 Y2.858316 Z-1.000000 I0.066146 J-0.000000
G03 X15.793904 Y2.827915 Z-1.000000 I0.079578 J0.049190
G02 X15.820772 Y2.795538 Z-1.000000 I-0.034653 J-0.056093
G02 X15.834194 Y2.723405 Z-1.000000 I-0.187115 J-0.072133
G01 X15.809902 Y2.684347 Z-1.000000
G02 X15.756764 Y2.685235 Z-1.000000 I-0.025705 J0.052146
G03 X15.700462 Y2.679688 Z-1.000000 I-0.024005 J-0.044859
G03 X15.648157 Y2.596005 Z-1.000000 I0.098262 J-0.119605
G03 X15.622155 Y2.464657 Z-1.000000 I1.678304 J-0.400486
G03 X15.614797 Y2.384769 Z-1.000000 I0.612113 J-0.096663
G02 X15.600831 Y2.310417 Z-1.000000 I-0.239423 J0.006484
G02 X15.576527 Y2.278048 Z-1.000000 I-0.064512 J0.023131
G01 X15.558460 Y2.246543 Z-1.000000
G03 X15.567127 Y2.182278 Z-1.000000 I0.140592 J-0.013756
G03 X15.613369 Y2.144802 Z-1.000000 I0.055599 J0.021338
G03 X15.833957 Y2.139828 Z-1.000000 I0.128573 J0.808106
G02 X16.070142 Y2.146498 Z-1.000000 I0.157492 J-1.391717
G02 X16.159011 Y2.121538 Z-1.000000 I-0.012012 J-0.213452
G03 X16.248090 Y2.090386 Z-1.000000 I0.144283 J0.269636
G03 X16.510870 Y2.056968 Z-1.000000 I0.434762 J2.368862
G03 X16.773527 Y2.059104 Z-1.000000 I0.117939 J1.647308
G03 X16.880046 Y2.089448 Z-1.000000 I-0.025725 J0.292439
G03 X16.978819 Y2.146448 Z-1.000000 I-0.457189 J0.906321
G03 X17.086717 Y2.224729 Z-1.000000 I-0.760160 J1.161264
G02 X17.199409 Y2.291529 Z-1.000000 I0.292390 J-0.364804
G02 X17.419076 Y2.363104 Z-1.000000 I0.558836 J-1.342230
G03 X17.614513 Y2.443609 Z-1.000000 I-0.159421 J0.664495
G03 X17.647638 Y2.501996 Z-1.000000 I-0.035785 J0.058892
G01 X17.662943 Y2.534868 Z-1.000000
G01 X17.682668 Y2.531896 Z-1.000000
G01 X17.721234 Y2.517885 Z-1.000000
G03 X17.808851 Y2.572186 Z-1.000000 I-0.064431 J0.201802
G02 X17.868141 Y2.614115 Z-1.000000 I0.141635 J-0.137396
G01 X17.878891 Y2.604346 Z-1.000000
G01 X17.891395 Y2.568375 Z-1.000000
G03 X17.963591 Y2.550446 Z-1.000000 I0.062845 J0.098739
G03 X18.069612 Y2.562014 Z-1.000000 I-0.149498 J1.861733
G03 X18.200948 Y2.583246 Z-1.000000 I-0.395117 J2.860963
G02 X18.313885 Y2.585873 Z-1.000000 I0.064607 J-0.348540
G01 X18.331877 Y2.565236 Z-1.000000
G01 X18.347412 Y2.548038 Z-1.000000
G03 X18.402377 Y2.558036 Z-1.000000 I0.010194 J0.100045
G02 X18.475214 Y2.582373 Z-1.000000 I0.122872 J-0.246571
G02 X18.573592 Y2.589666 Z-1.000000 I0.082619 J-0.447335
G02 X18.662206 Y2.571307 Z-1.000000 I-0.009169 J-0.267292
G01 X18.684034 Y2.546316 Z-1.000000
G01 X18.676925 Y2.518528 Z-1.000000
G02 X18.643744 Y2.502096 Z-1.000000 I-0.037598 J0.034205
G02 X18.593679 Y2.498467 Z-1.000000 I-0.148877 J1.706501
G02 X18.462802 Y2.491596 Z-1.000000 I-0.717530 J12.418274
G03 X18.355249 Y2.463137 Z-1.000000 I0.012504 J-0.264721
G01 X18.331872 Y2.425036 Z-1.000000
G02 X18.317826 Y2.378650 Z-1.000000 I-0.083615 J0.000000
G01 X18.291582 Y2.364606 Z-1.000000
G01 X18.266927 Y2.380244 Z-1.000000
G02 X18.251292 Y2.450106 Z-1.000000 I0.148269 J0.069862
G01 X18.229578 Y2.489372 Z-1.000000
G01 X18.192632 Y2.486926 Z-1.000000
G02 X18.132792 Y2.454025 Z-1.000000 I-0.115464 J0.139135
G01 X18.101992 Y2.457626 Z-1.000000
G01 X18.072468 Y2.459571 Z-1.000000
G03 X18.018062 Y2.420806 Z-1.000000 I0.065644 J-0.149690
G03 X17.996773 Y2.378014 Z-1.000000 I0.062563 J-0.057817
G01 X18.007992 Y2.364606 Z-1.000000
G01 X18.032932 Y2.348193 Z-1.000000
G02 X18.047032 Y2.273966 Z-1.000000 I-0.159701 J-0.068788
G01 X18.029719 Y2.252590 Z-1.000000
G01 X18.005922 Y2.263896 Z-1.000000
G01 X17.994144 Y2.265496 Z-1.000000
G01 X17.988482 Y2.243756 Z-1.000000
G02 X18.006539 Y2.142588 Z-1.000000 I-1.837199 J-0.380110
G02 X18.034132 Y1.940173 Z-1.000000 I-7.345620 J-1.104432
G02 X18.020013 Y1.771756 Z-1.000000 I-0.411534 J-0.050300
G01 X17.973832 Y1.737304 Z-1.000000
G02 X17.901710 Y1.750281 Z-1.000000 I0.000000 J0.206903
G01 X17.888732 Y1.768954 Z-1.000000
G01 X17.900320 Y1.789020 Z-1.000000
G02 X17.943572 Y1.800604 Z-1.000000 I0.043252 J-0.074954
G01 X17.973487 Y1.821998 Z-1.000000
G03 X17.981412 Y1.911390 Z-1.000000 I-0.178112 J0.060839
G03 X17.963023 Y2.021930 Z-1.000000 I-4.700612 J-0.725189
G03 X17.943942 Y2.120790 Z-1.000000 I-3.531704 J-0.630373
G03 X17.913869 Y2.166533 Z-1.000000 I-0.072806 J-0.015108
G01 X17.886572 Y2.161080 Z-1.000000
G01 X17.867544 Y2.162671 Z-1.000000
G02 X17.851882 Y2.243750 Z-1.000000 I0.185738 J0.077930
G02 X17.870788 Y2.305661 Z-1.000000 I0.116979 J-0.001881
G01 X17.891212 Y2.304180 Z-1.000000
G01 X17.908447 Y2.293143 Z-1.000000
G01 X17.918182 Y2.304180 Z-1.000000
G03 X17.887364 Y2.364406 Z-1.000000 I-0.098333 J-0.012319
G03 X17.817809 Y2.397630 Z-1.000000 I-0.087750 J-0.094288
G03 X17.744533 Y2.390978 Z-1.000000 I-0.022599 J-0.157969
G01 X17.727579 Y2.367420 Z-1.000000
G01 X17.711609 Y2.340300 Z-1.000000
G02 X17.649889 Y2.324330 Z-1.000000 I-0.061720 J0.111280
G03 X17.578528 Y2.309044 Z-1.000000 I0.000000 J-0.174218
G03 X17.508888 Y2.261020 Z-1.000000 I0.095880 J-0.213540
G02 X17.452306 Y2.213951 Z-1.000000 I-0.284712 J0.284712
G01 X17.445578 Y2.217490 Z-1.000000
G01 X17.436517 Y2.225352 Z-1.000000
G03 X17.297986 Y2.196510 Z-1.000000 I0.156587 J-1.099232
G03 X17.157256 Y2.143981 Z-1.000000 I0.227667 J-0.824720
G03 X17.093678 Y2.099040 Z-1.000000 I0.098977 J-0.207465
G03 X17.068703 Y2.055469 Z-1.000000 I0.067815 J-0.067815
G01 X17.078858 Y2.042320 Z-1.000000
G01 X17.098258 Y2.026849 Z-1.000000
G02 X17.094488 Y1.973860 Z-1.000000 I-0.088942 J-0.020300
G02 X17.069046 Y1.942705 Z-1.000000 I-0.059975 J0.023012
G01 X17.053998 Y1.948040 Z-1.000000
G01 X17.026988 Y1.969074 Z-1.000000
G03 X16.878508 Y1.961190 Z-1.000000 I-0.043579 J-0.581361
G03 X16.720539 Y1.925405 Z-1.000000 I0.347756 J-1.901725
G03 X16.697712 Y1.912180 Z-1.000000 I0.013399 J-0.049438
G01 X16.695344 Y1.893451 Z-1.000000
G03 X16.739122 Y1.842100 Z-1.000000 I0.169579 J0.100234
G03 X16.790172 Y1.829297 Z-1.000000 I0.038880 J0.046852
G01 X16.826272 Y1.859880 Z-1.000000
G01 X16.856319 Y1.887526 Z-1.000000
G01 X16.884302 Y1.876770 Z-1.000000
G01 X16.884966 Y1.833881 Z-1.000000
G02 X16.828342 Y1.779600 Z-1.000000 I-0.121287 J0.069848
G02 X16.739545 Y1.748071 Z-1.000000 I-0.157093 J0.301626
G02 X16.690451 Y1.751330 Z-1.000000 I-0.018624 J0.090851
G02 X16.661402 Y1.776257 Z-1.000000 I0.017222 J0.049458
G01 X16.662331 Y1.804370 Z-1.000000
G01 X16.656740 Y1.817116 Z-1.000000
G03 X16.615201 Y1.813470 Z-1.000000 I-0.014383 J-0.074575
G01 X16.583242 Y1.818840 Z-1.000000
G01 X16.578731 Y1.844150 Z-1.000000
G01 X16.574192 Y1.854424 Z-1.000000
G01 X16.555461 Y1.849350 Z-1.000000
G03 X16.535533 Y1.800857 Z-1.000000 I0.042701 J-0.045889
G01 X16.559161 Y1.760490 Z-1.000000
G01 X16.561804 Y1.742181 Z-1.000000
G01 X16.532031 Y1.730200 Z-1.000000
G02 X16.452255 Y1.753688 Z-1.000000 I0.014945 J0.197979
G02 X16.310966 Y1.850220 Z-1.000000 I0.400689 J0.738137
G02 X16.273752 Y1.903624 Z-1.000000 I0.081452 J0.096427
G01 X16.287056 Y1.916170 Z-1.000000
G03 X16.396994 Y1.892463 Z-1.000000 I0.115277 J0.267821
G03 X16.488486 Y1.912470 Z-1.000000 I0.003704 J0.202264
G01 X16.502056 Y1.939924 Z-1.000000
G01 X16.478786 Y1.959500 Z-1.000000
G02 X16.379505 Y1.971326 Z-1.000000 I0.017474 J0.569356
G02 X16.188219 Y2.020280 Z-1.000000 I0.458893 J2.191304
G03 X15.998187 Y2.054515 Z-1.000000 I-0.241399 J-0.795433
G03 X15.866855 Y2.040180 Z-1.000000 I-0.024050 J-0.388447
G02 X15.735535 Y2.016082 Z-1.000000 I-0.188522 J0.657463
G02 X15.668836 Y2.023570 Z-1.000000 I-0.014446 J0.172121
G01 X15.621246 Y2.012912 Z-1.000000
G03 X15.583086 Y1.944030 Z-1.000000 I0.085954 J-0.092628
G03 X15.581137 Y1.868495 Z-1.000000 I0.228612 J-0.043691
G01 X15.594386 Y1.862260 Z-1.000000
G01 X15.616595 Y1.857640 Z-1.000000
G02 X15.668906 Y1.754990 Z-1.000000 I-0.349392 J-0.242707
G03 X15.740213 Y1.673318 Z-1.000000 I0.137211 J0.047833
G03 X15.874253 Y1.650488 Z-1.000000 I0.103657 J0.203690
G02 X16.027324 Y1.654516 Z-1.000000 I0.095291 J-0.710677
G01 X16.058152 Y1.635678 Z-1.000000
G01 X16.089207 Y1.614517 Z-1.000000
G03 X16.259590 Y1.599228 Z-1.000000 I0.170383 J0.941726
G03 X16.420594 Y1.617132 Z-1.000000 I0.000000 J0.732860
G01 X16.438499 Y1.639518 Z-1.000000
G01 X16.450300 Y1.668007 Z-1.000000
G01 X16.478789 Y1.679808 Z-1.000000
G01 X16.505454 Y1.666181 Z-1.000000
G02 X16.519079 Y1.624078 Z-1.000000 I-0.058241 J-0.042103
G01 X16.538776 Y1.584641 Z-1.000000
G03 X16.618579 Y1.549328 Z-1.000000 I0.116079 J0.154494
G03 X16.690136 Y1.549553 Z-1.000000 I0.035200 J0.184143
G01 X16.696769 Y1.564778 Z-1.000000
G01 X16.702758 Y1.584033 Z-1.000000
G02 X16.775199 Y1.599248 Z-1.000000 I0.072441 J-0.164849
G03 X16.862849 Y1.616006 Z-1.000000 I-0.000000 J0.237596
G01 X16.890145 Y1.644878 Z-1.000000
G01 X16.916915 Y1.667742 Z-1.000000
G02 X16.994802 Y1.662118 Z-1.000000 I0.027212 J-0.165275
G02 X17.057870 Y1.623953 Z-1.000000 I-0.047484 J-0.149661
G01 X17.061142 Y1.596348 Z-1.000000
G01 X17.069504 Y1.576501 Z-1.000000
G03 X17.228415 Y1.558958 Z-1.000000 I0.158911 J0.710957
G03 X17.387890 Y1.571761 Z-1.000000 I-0.000000 J0.999651
G01 X17.392309 Y1.585438 Z-1.000000
G03 X17.363576 Y1.609086 Z-1.000000 I-0.136164 J-0.136164
G03 X17.214380 Y1.705039 Z-1.000000 I-2.436076 J-3.623850
G02 X17.132679 Y1.781457 Z-1.000000 I0.146912 J0.238951
G01 X17.143510 Y1.804719 Z-1.000000
G01 X17.146193 Y1.816197 Z-1.000000
G03 X17.083080 Y1.840959 Z-1.000000 I-0.105273 J-0.175508
G01 X16.942079 Y1.870639 Z-1.000000
G01 X17.069714 Y1.875939 Z-1.000000
G03 X17.195788 Y1.888789 Z-1.000000 I-0.043409 J1.050796
G03 X17.267681 Y1.908229 Z-1.000000 I-0.058803 J0.360123
G02 X17.305676 Y1.908427 Z-1.000000 I0.019260 J-0.050196
G01 X17.311311 Y1.892009 Z-1.000000
G01 X17.316087 Y1.859967 Z-1.000000
G03 X17.410201 Y1.805019 Z-1.000000 I0.187630 J0.213298
G02 X17.498493 Y1.739718 Z-1.000000 I-0.060902 J-0.174683
G02 X17.516455 Y1.660094 Z-1.000000 I-0.082428 J-0.060433
G03 X17.534825 Y1.589927 Z-1.000000 I0.082767 J-0.015819
G03 X17.602315 Y1.558332 Z-1.000000 I0.068012 J0.057399
G02 X17.648994 Y1.539050 Z-1.000000 I-0.000393 J-0.067093
G01 X17.647085 Y1.514242 Z-1.000000
G01 X17.644609 Y1.500112 Z-1.000000
G01 X17.660455 Y1.494712 Z-1.000000
G02 X17.735300 Y1.512033 Z-1.000000 I0.137505 J-0.423790
G02 X17.828955 Y1.518652 Z-1.000000 I0.093655 J-0.659312
G03 X17.906425 Y1.542201 Z-1.000000 I-0.000000 J0.139204
G03 X17.949233 Y1.599222 Z-1.000000 I-0.060066 J0.089673
G02 X17.985123 Y1.665695 Z-1.000000 I0.193030 J-0.061294
G01 X18.014753 Y1.679792 Z-1.000000
G01 X18.035659 Y1.669057 Z-1.000000
G01 X18.036413 Y1.649582 Z-1.000000
G01 X18.034667 Y1.621713 Z-1.000000
G03 X18.072193 Y1.569412 Z-1.000000 I0.145696 J0.064923
G03 X18.122657 Y1.545867 Z-1.000000 I0.062069 J0.067181
G01 X18.150913 Y1.559342 Z-1.000000
G02 X18.183752 Y1.584687 Z-1.000000 I0.050097 J-0.030962
G02 X18.283972 Y1.600122 Z-1.000000 I0.103111 J-0.336424
G01 X18.392381 Y1.601018 Z-1.000000
G01 X18.291666 Y1.684448 Z-1.000000
G02 X18.254759 Y1.732812 Z-1.000000 I0.086147 J0.104004
G01 X18.264746 Y1.743978 Z-1.000000
G03 X18.339154 Y1.723966 Z-1.000000 I0.235796 J0.728383
G03 X18.375532 Y1.720088 Z-1.000000 I0.036378 J0.168695
G01 X18.399309 Y1.706882 Z-1.000000
G02 X18.412522 Y1.660658 Z-1.000000 I-0.074249 J-0.046224
G01 X18.434633 Y1.633291 Z-1.000000
G03 X18.512392 Y1.639198 Z-1.000000 I0.028891 J0.134445
G02 X18.614291 Y1.667372 Z-1.000000 I0.201178 J-0.529247
G02 X18.764180 Y1.684038 Z-1.000000 I0.201936 J-1.133809
G03 X18.914299 Y1.702233 Z-1.000000 I-0.045737 J1.005723
G03 X19.208171 Y1.772138 Z-1.000000 I-0.778616 J3.925866
G03 X19.476239 Y1.871612 Z-1.000000 I-0.456211 J1.640361
G01 X19.500245 Y1.909422 Z-1.000000
G03 X19.485516 Y1.959373 Z-1.000000 I-0.092065 J-0.000000
G03 X19.397991 Y2.067726 Z-1.000000 I-0.553054 J-0.357218
G03 X19.281697 Y2.133390 Z-1.000000 I-0.176139 J-0.176139
G03 X19.039138 Y2.156536 Z-1.000000 I-0.199182 J-0.804798
G02 X18.808833 Y2.158618 Z-1.000000 I-0.098228 J1.873374
G01 X18.801338 Y2.173306 Z-1.000000
G01 X18.800509 Y2.192614 Z-1.000000
G01 X18.778738 Y2.203516 Z-1.000000
G01 X18.757571 Y2.217385 Z-1.000000
G01 X18.756808 Y2.253876 Z-1.000000
G02 X18.790013 Y2.284449 Z-1.000000 I0.047632 J-0.018415
G02 X18.934139 Y2.306106 Z-1.000000 I0.150456 J-0.510873
G02 X19.060235 Y2.290020 Z-1.000000 I0.005593 J-0.458428
G01 X19.068285 Y2.269606 Z-1.000000
G01 X19.076680 Y2.252652 Z-1.000000
G03 X19.201906 Y2.256526 Z-1.000000 I0.047625 J0.486466
G02 X19.307110 Y2.262248 Z-1.000000 I0.079739 J-0.496092
G01 X19.310028 Y2.251026 Z-1.000000
G01 X19.306342 Y2.224790 Z-1.000000
G03 X19.377308 Y2.176306 Z-1.000000 I0.135261 J0.121804
G03 X19.462004 Y2.169816 Z-1.000000 I0.053446 J0.141584
G01 X19.480659 Y2.198116 Z-1.000000
G03 X19.466446 Y2.263648 Z-1.000000 I-1.918451 J-0.381781
G03 X19.439229 Y2.374687 Z-1.000000 I-5.766162 J-1.354497
G03 X19.399150 Y2.470288 Z-1.000000 I-0.342994 J-0.087592
G01 X19.372219 Y2.485474 Z-1.000000
G01 X19.351458 Y2.500989 Z-1.000000
G02 X19.346369 Y2.572964 Z-1.000000 I0.160942 J0.047547
G02 X19.373989 Y2.648055 Z-1.000000 I0.193507 J-0.028552
G02 X19.411909 Y2.677807 Z-1.000000 I0.060087 J-0.037541
G02 X19.458463 Y2.670805 Z-1.000000 I0.016319 J-0.049764
G02 X19.623411 Y2.528194 Z-1.000000 I-0.646799 J-0.914802
G02 X19.757998 Y2.351535 Z-1.000000 I-0.736856 J-0.700968
G02 X19.782243 Y2.264209 Z-1.000000 I-0.145143 J-0.087326
G03 X19.799848 Y2.177238 Z-1.000000 I0.223627 J0.000000
G03 X19.836793 Y2.134976 Z-1.000000 I0.082469 J0.034813
G02 X19.883408 Y2.095218 Z-1.000000 I-0.090684 J-0.153528
G02 X19.939529 Y2.010988 Z-1.000000 I-0.374586 J-0.310394
G03 X19.994670 Y1.944648 Z-1.000000 I0.183219 J0.096202
G01 X20.025979 Y1.942868 Z-1.000000
G01 X20.051739 Y1.944044 Z-1.000000
G01 X20.064239 Y1.923848 Z-1.000000
G01 X20.050099 Y1.895334 Z-1.000000
G02 X20.008119 Y1.881188 Z-1.000000 I-0.041980 J0.055215
G03 X19.962576 Y1.865816 Z-1.000000 I0.000000 J-0.075149
G03 X19.928809 Y1.820758 Z-1.000000 I0.062476 J-0.082003
G02 X19.894734 Y1.776164 Z-1.000000 I-0.092804 J0.035597
G02 X19.846309 Y1.760328 Z-1.000000 I-0.048425 J0.066122
G03 X19.793642 Y1.748406 Z-1.000000 I-0.000000 J-0.122290
G03 X19.762169 Y1.720168 Z-1.000000 I0.032271 J-0.067627
G01 X19.769328 Y1.706401 Z-1.000000
G03 X19.832329 Y1.716068 Z-1.000000 I0.008876 J0.152275
G02 X19.928571 Y1.737774 Z-1.000000 I0.124325 J-0.327025
G02 X20.032097 Y1.732148 Z-1.000000 I0.030997 J-0.384927
G03 X20.117090 Y1.745337 Z-1.000000 I0.024021 J0.125660
G03 X20.166333 Y1.804918 Z-1.000000 I-0.049247 J0.090841
G03 X20.174392 Y1.886827 Z-1.000000 I-0.188766 J0.059924
G01 X20.154433 Y1.911503 Z-1.000000
G01 X20.131724 Y1.935410 Z-1.000000
G02 X20.131273 Y1.994873 Z-1.000000 I0.110019 J0.030568
G03 X20.128067 Y2.060777 Z-1.000000 I-0.106478 J0.027851
G03 X20.053573 Y2.205761 Z-1.000000 I-0.630483 J-0.232319
G02 X19.975492 Y2.349525 Z-1.000000 I0.687114 J0.466269
G02 X19.973733 Y2.395207 Z-1.000000 I0.059733 J0.025175
G01 X19.967814 Y2.438539 Z-1.000000
G03 X19.817812 Y2.626826 Z-1.000000 I-1.244557 J-0.837598
G03 X19.634705 Y2.796818 Z-1.000000 I-1.312408 J-1.230045
G03 X19.390174 Y2.971773 Z-1.000000 I-1.635804 J-2.027969
G02 X19.150973 Y3.149505 Z-1.000000 I1.051893 J1.665522
G02 X19.055099 Y3.262552 Z-1.000000 I0.319392 J0.368050
G02 X18.979540 Y3.393894 Z-1.000000 I2.255508 J1.384956
G02 X18.925984 Y3.502648 Z-1.000000 I1.490480 J0.801559
G03 X18.858609 Y3.586320 Z-1.000000 I-0.193434 J-0.086797
G03 X18.775323 Y3.614052 Z-1.000000 I-0.084152 J-0.113799
G02 X18.729873 Y3.630575 Z-1.000000 I0.000439 J0.071982
G01 X18.731143 Y3.650612 Z-1.000000
G02 X18.789378 Y3.671895 Z-1.000000 I0.078087 J-0.123352
G02 X18.841930 Y3.665832 Z-1.000000 I0.014466 J-0.105396
G03 X18.886896 Y3.658279 Z-1.000000 I0.041116 J0.107155
G01 X18.895940 Y3.667632 Z-1.000000
G03 X18.892076 Y3.689353 Z-1.000000 I-0.062975 J0.000000
G03 X18.853640 Y3.782728 Z-1.000000 I-1.236232 J-0.454266
G03 X18.786439 Y3.837383 Z-1.000000 I-0.088856 J-0.040611
G03 X18.409198 Y3.883758 Z-1.000000 I-0.416971 J-1.834354
G02 X18.017806 Y3.917447 Z-1.000000 I0.063773 J3.031298
G02 X17.945105 Y3.954198 Z-1.000000 I0.019595 J0.129046
G03 X17.876745 Y4.004830 Z-1.000000 I-0.204108 J-0.204108
G03 X17.780513 Y4.041908 Z-1.000000 I-0.199514 J-0.374399
G02 X17.681065 Y4.076015 Z-1.000000 I0.151718 J0.604411
G02 X17.450971 Y4.187051 Z-1.000000 I1.481644 J3.364260
G02 X17.229098 Y4.313423 Z-1.000000 I1.780382 J3.383810
G02 X17.165082 Y4.362780 Z-1.000000 I0.200646 J0.326427
G02 X17.139720 Y4.405648 Z-1.000000 I0.063560 J0.066540
G01 X17.150082 Y4.419130 Z-1.000000
G02 X17.188737 Y4.407791 Z-1.000000 I-0.000000 J-0.071559
G02 X17.244222 Y4.358700 Z-1.000000 I-0.130716 J-0.203643
G03 X17.299395 Y4.308967 Z-1.000000 I0.198350 J0.164576
G03 X17.334662 Y4.298270 Z-1.000000 I0.035267 J0.052788
G01 X17.346074 Y4.311829 Z-1.000000
G03 X17.324032 Y4.359620 Z-1.000000 I-0.100632 J-0.017434
G01 X17.320244 Y4.387163 Z-1.000000
G01 X17.339952 Y4.395320 Z-1.000000
G02 X17.386291 Y4.358160 Z-1.000000 I-0.034951 J-0.091055
G02 X17.396012 Y4.310750 Z-1.000000 I-0.053939 J-0.035762
G01 X17.412546 Y4.267681 Z-1.000000
G03 X17.546370 Y4.195083 Z-1.000000 I0.294073 J0.382440
G03 X17.708785 Y4.146231 Z-1.000000 I0.607227 J1.724401
G03 X17.767943 Y4.139493 Z-1.000000 I0.054883 J0.218791
G01 X17.770735 Y4.150153 Z-1.000000
G03 X17.667228 Y4.198713 Z-1.000000 I-0.312470 J-0.531439
G03 X17.505810 Y4.255440 Z-1.000000 I-3.698411 J-10.265900
G01 X17.496013 Y4.257373 Z-1.000000
G01 X17.490423 Y4.262142 Z-1.000000
G02 X17.485943 Y4.302903 Z-1.000000 I0.183200 J0.040761
G01 X17.502879 Y4.316477 Z-1.000000
G02 X17.589912 Y4.279703 Z-1.000000 I-0.057376 J-0.257169
G03 X17.696065 Y4.231951 Z-1.000000 I0.203538 J0.310603
G03 X17.754691 Y4.234913 Z-1.000000 I0.024781 J0.091188
G02 X17.814203 Y4.244366 Z-1.000000 I0.052071 J-0.135758
G02 X17.862199 Y4.229413 Z-1.000000 I-0.005183 J-0.101139
G03 X17.911600 Y4.212421 Z-1.000000 I0.062297 J0.100806
G03 X18.019707 Y4.212173 Z-1.000000 I0.055208 J0.504300
G02 X18.113659 Y4.205092 Z-1.000000 I0.027502 J-0.261916
G01 X18.130518 Y4.183273 Z-1.000000
G01 X18.115239 Y4.155363 Z-1.000000
G02 X18.039878 Y4.125293 Z-1.000000 I-0.116109 J0.181524
G01 X18.038892 Y4.114726 Z-1.000000
G03 X18.097928 Y4.102353 Z-1.000000 I0.065604 J0.165996
G02 X18.237736 Y4.081610 Z-1.000000 I-0.023467 J-0.639702
G02 X18.271520 Y4.056583 Z-1.000000 I-0.014467 J-0.054844
G03 X18.305434 Y4.032472 Z-1.000000 I0.045522 J0.028123
G03 X18.452807 Y4.016293 Z-1.000000 I0.147373 J0.663132
G02 X18.600174 Y4.000116 Z-1.000000 I0.000000 J-0.679299
G02 X18.634094 Y3.976003 Z-1.000000 I-0.011611 J-0.052249
G03 X18.666427 Y3.949047 Z-1.000000 I0.056507 J0.034909
G03 X18.737186 Y3.935713 Z-1.000000 I0.070759 J0.181083
G03 X18.792877 Y3.958217 Z-1.000000 I0.000000 J0.080161
G03 X18.815386 Y4.011253 Z-1.000000 I-0.051227 J0.053036
G02 X18.820059 Y4.086321 Z-1.000000 I0.605261 J0.000000
G02 X18.840566 Y4.212683 Z-1.000000 I1.738707 J-0.217323
G03 X18.815792 Y4.297624 Z-1.000000 I-0.093724 J0.018748
G03 X18.719708 Y4.338577 Z-1.000000 I-0.096084 J-0.092242
G03 X18.591089 Y4.321160 Z-1.000000 I0.000000 J-0.483618
G01 X18.573672 Y4.298287 Z-1.000000
G01 X18.589185 Y4.273507 Z-1.000000
G03 X18.656622 Y4.257997 Z-1.000000 I0.067437 J0.138850
G02 X18.709747 Y4.241369 Z-1.000000 I0.000000 J-0.093181
G01 X18.714672 Y4.217707 Z-1.000000
G01 X18.714883 Y4.191429 Z-1.000000
G01 X18.740492 Y4.177417 Z-1.000000
G01 X18.758723 Y4.164345 Z-1.000000
G01 X18.752942 Y4.140667 Z-1.000000
G02 X18.709215 Y4.116139 Z-1.000000 I-0.069088 J0.071924
G02 X18.573670 Y4.093517 Z-1.000000 I-0.190712 J0.725316
G02 X18.435015 Y4.098721 Z-1.000000 I-0.045957 J0.625259
G02 X18.301740 Y4.134207 Z-1.000000 I0.091371 J0.611179
G02 X18.186417 Y4.195964 Z-1.000000 I0.199284 J0.510692
G01 X18.170811 Y4.225957 Z-1.000000
G01 X18.185398 Y4.244970 Z-1.000000
G02 X18.231241 Y4.242157 Z-1.000000 I0.018723 J-0.069837
G03 X18.292087 Y4.218846 Z-1.000000 I0.656044 J1.621332
G03 X18.362171 Y4.194777 Z-1.000000 I0.767576 J2.120952
G01 X18.366995 Y4.201664 Z-1.000000
G03 X18.334191 Y4.230597 Z-1.000000 I-0.093774 J-0.073256
G02 X18.296943 Y4.280443 Z-1.000000 I0.041810 J0.070083
G01 X18.314051 Y4.309277 Z-1.000000
G01 X18.314111 Y4.321887 Z-1.000000
G03 X18.190954 Y4.341847 Z-1.000000 I-0.163068 J-0.616240
G01 X18.190422 Y4.353693 Z-1.000000
G02 X18.432670 Y4.378847 Z-1.000000 I0.380080 J-2.481290
G01 X18.875815 Y4.403207 Z-1.000000
G01 X18.422599 Y4.411207 Z-1.000000
G03 X17.997599 Y4.390414 Z-1.000000 I-0.056479 J-3.199420
G01 X17.969382 Y4.358737 Z-1.000000
G03 X17.984821 Y4.313743 Z-1.000000 I0.073285 J-0.000000
G01 X18.016382 Y4.298307 Z-1.000000
G02 X18.044305 Y4.290383 Z-1.000000 I-0.000000 J-0.053164
G01 X18.045462 Y4.280387 Z-1.000000
G01 X18.024496 Y4.273232 Z-1.000000
G02 X17.867532 Y4.303137 Z-1.000000 I0.167968 J1.308510
G02 X17.707963 Y4.345405 Z-1.000000 I2.025595 J7.969271
G02 X17.586661 Y4.380567 Z-1.000000 I1.275495 J4.627045
G01 X17.586765 Y4.394640 Z-1.000000
G02 X17.662591 Y4.402437 Z-1.000000 I0.059582 J-0.206834
G03 X17.800248 Y4.407170 Z-1.000000 I0.047368 J0.626580
G01 X17.803591 Y4.422877 Z-1.000000
G03 X17.744436 Y4.446804 Z-1.000000 I-0.095248 J-0.150397
G03 X17.626943 Y4.459447 Z-1.000000 I-0.123736 J-0.597621
G02 X17.509352 Y4.471716 Z-1.000000 I0.006451 J0.631481
G02 X17.453099 Y4.494277 Z-1.000000 I0.032582 J0.162649
G01 X17.456399 Y4.508987 Z-1.000000
G02 X17.594099 Y4.511827 Z-1.000000 I0.082568 J-0.663584
G03 X17.788274 Y4.498855 Z-1.000000 I0.513122 J6.221259
G03 X18.337106 Y4.473857 Z-1.000000 I2.506745 J48.997496
G03 X18.865353 Y4.493874 Z-1.000000 I0.135708 J3.398838
G03 X18.951467 Y4.545227 Z-1.000000 I-0.014123 J0.121562
G03 X19.003914 Y4.642582 Z-1.000000 I-0.388324 J0.272001
G03 X19.016807 Y4.710123 Z-1.000000 I-0.170459 J0.067541
G03 X19.002938 Y4.767862 Z-1.000000 I-0.127126 J0.000000
G01 X18.980297 Y4.781733 Z-1.000000
G01 X18.962479 Y4.767297 Z-1.000000
G03 X18.963947 Y4.704613 Z-1.000000 I0.133188 J-0.028240
G02 X18.956266 Y4.639663 Z-1.000000 I-0.086689 J-0.022678
G02 X18.898027 Y4.581417 Z-1.000000 I-0.125286 J0.067033
G02 X18.807917 Y4.559231 Z-1.000000 I-0.088504 J0.165376
G02 X18.501443 Y4.584817 Z-1.000000 I0.017629 J2.059433
G02 X18.200135 Y4.650566 Z-1.000000 I0.426521 J2.677879
G02 X18.149968 Y4.682747 Z-1.000000 I0.027189 J0.097579
G03 X18.100943 Y4.717110 Z-1.000000 I-0.089731 J-0.075864
G03 X17.942601 Y4.759327 Z-1.000000 I-0.305001 J-0.825907
G03 X17.786924 Y4.763765 Z-1.000000 I-0.093711 J-0.554544
G03 X17.745328 Y4.737467 Z-1.000000 I0.006190 J-0.055835
G01 X17.749804 Y4.716787 Z-1.000000
G01 X17.781478 Y4.713217 Z-1.000000
G02 X17.833896 Y4.717714 Z-1.000000 I0.034004 J-0.088601
G01 X17.848518 Y4.699917 Z-1.000000
G01 X17.834957 Y4.674461 Z-1.000000
G02 X17.790468 Y4.660897 Z-1.000000 I-0.044489 J0.066181
G02 X17.738749 Y4.672262 Z-1.000000 I-0.000000 J0.123364
G02 X17.709238 Y4.698397 Z-1.000000 I0.028686 J0.062120
G01 X17.704733 Y4.731477 Z-1.000000
G02 X17.727658 Y4.761607 Z-1.000000 I0.050583 J-0.014702
G03 X17.750576 Y4.791730 Z-1.000000 I-0.027739 J0.044884
G01 X17.746078 Y4.824817 Z-1.000000
G03 X17.717566 Y4.852765 Z-1.000000 I-0.070914 J-0.043827
G03 X17.682618 Y4.862317 Z-1.000000 I-0.034948 J-0.059158
G01 X17.665852 Y4.849202 Z-1.000000
G01 X17.671078 Y4.815807 Z-1.000000
G01 X17.669014 Y4.800106 Z-1.000000
G01 X17.652658 Y4.798447 Z-1.000000
G02 X17.625236 Y4.832260 Z-1.000000 I0.034718 J0.056182
G01 X17.628668 Y4.865097 Z-1.000000
G01 X17.628660 Y4.889677 Z-1.000000
G01 X17.605468 Y4.902597 Z-1.000000
G02 X17.562993 Y4.913693 Z-1.000000 I0.000000 J0.086844
G02 X17.452018 Y4.988637 Z-1.000000 I0.395388 J0.705115
G02 X17.381762 Y5.052834 Z-1.000000 I0.469861 J0.584744
G01 X17.385238 Y5.057927 Z-1.000000
G02 X17.425166 Y5.040379 Z-1.000000 I-0.406275 J-0.978592
G02 X17.667239 Y4.927023 Z-1.000000 I-17.213598 J-37.075150
G03 X17.915612 Y4.836640 Z-1.000000 I0.613005 J1.298081
G03 X18.231242 Y4.778914 Z-1.000000 I0.537231 J2.045694
G02 X18.552993 Y4.741172 Z-1.000000 I-1.434382 J-13.618487
G02 X18.706898 Y4.717424 Z-1.000000 I-0.407625 J-3.152294
G03 X18.836282 Y4.727410 Z-1.000000 I0.045516 J0.253441
G03 X18.883365 Y4.778214 Z-1.000000 I-0.023896 J0.069365
G02 X18.925178 Y4.838384 Z-1.000000 I0.102942 J-0.026923
G02 X18.991855 Y4.854354 Z-1.000000 I0.053511 J-0.076239
G03 X19.065711 Y4.866600 Z-1.000000 I0.017586 J0.122771
G03 X19.126276 Y4.922744 Z-1.000000 I-0.068596 J0.134738
G03 X19.172267 Y5.004970 Z-1.000000 I-1.093892 J0.665815
G03 X19.322015 Y5.305044 Z-1.000000 I-14.487523 J7.417211
G03 X19.452527 Y5.612675 Z-1.000000 I-2.928322 J1.423840
G03 X19.549877 Y5.929476 Z-1.000000 I-3.008442 J1.097821
G02 X19.644075 Y6.247321 Z-1.000000 I3.849607 J-0.968003
G02 X19.722597 Y6.433938 Z-1.000000 I1.401447 J-0.479854
G03 X19.800466 Y6.620973 Z-1.000000 I-1.255236 J0.632327
G03 X19.958079 Y7.138942 Z-1.000000 I-9.515991 J3.178584
G03 X20.089983 Y7.664798 Z-1.000000 I-11.550895 J3.176862
G03 X20.163651 Y8.044904 Z-1.000000 I-5.956278 J1.351571
G02 X20.235573 Y8.425435 Z-1.000000 I7.061129 J-1.137528
G02 X20.343026 Y8.870765 Z-1.000000 I9.782339 J-2.124729
G02 X20.461913 Y9.313591 Z-1.000000 I83.228857 J-22.107398
G02 X20.544499 Y9.613331 Z-1.000000 I38.439340 J-10.429744
G03 X20.620459 Y9.913820 Z-1.000000 I-5.927952 J1.658362
G03 X20.628259 Y9.983666 Z-1.000000 I-0.308826 J0.069846
G02 X20.637806 Y10.053052 Z-1.000000 I0.256917 J0.000000
G02 X20.766603 Y10.476907 Z-1.000000 I9.903790 J-2.777973
G03 X20.892193 Y10.902496 Z-1.000000 I-7.121432 J2.332840
G03 X20.971308 Y11.254721 Z-1.000000 I-4.797324 J1.262546
G02 X21.040012 Y11.609740 Z-1.000000 I26.932638 J-5.027881
G02 X21.115193 Y11.972782 Z-1.000000 I28.210323 J-5.652685
G03 X21.164905 Y12.337704 Z-1.000000 I-2.395703 J0.512206
G03 X21.169783 Y12.879216 Z-1.000000 I-5.286512 J0.318398
G02 X21.149804 Y13.423150 Z-1.000000 I50.190467 J2.115858
G02 X21.144883 Y13.674863 Z-1.000000 I10.709229 J0.335271
G02 X21.148155 Y13.926355 Z-1.000000 I6.002486 J0.047679
G02 X21.157513 Y14.047508 Z-1.000000 I1.408319 J-0.047845
G02 X21.185560 Y14.154284 Z-1.000000 I0.401030 J-0.048266
G01 X21.208843 Y14.171105 Z-1.000000
G01 X21.236166 Y14.158473 Z-1.000000
G02 X21.298213 Y14.048659 Z-1.000000 I-0.438989 J-0.320471
G02 X21.326456 Y13.951990 Z-1.000000 I-0.408816 J-0.171899
G01 X21.316063 Y13.944974 Z-1.000000
G01 X21.288818 Y13.944099 Z-1.000000
G03 X21.256913 Y13.902984 Z-1.000000 I0.052134 J-0.073392
G03 X21.240329 Y13.838051 Z-1.000000 I0.269506 J-0.103419
G03 X21.232553 Y13.721929 Z-1.000000 I0.863212 J-0.116122
G03 X21.253166 Y13.624986 Z-1.000000 I0.238267 J0.000000
G01 X21.284923 Y13.604366 Z-1.000000
G03 X21.333689 Y13.613556 Z-1.000000 I0.000000 J0.133981
G03 X21.375563 Y13.639786 Z-1.000000 I-0.048349 J0.123725
G02 X21.418195 Y13.667780 Z-1.000000 I0.105045 J-0.113511
G02 X21.574978 Y13.727736 Z-1.000000 I0.675688 J-1.531946
G03 X21.646190 Y13.779993 Z-1.000000 I-0.043782 J0.134313
G01 X21.635408 Y13.812426 Z-1.000000
G01 X21.633481 Y13.822572 Z-1.000000
G01 X21.655538 Y13.828856 Z-1.000000
G03 X21.774051 Y13.830551 Z-1.000000 I0.053430 J0.408221
G03 X21.912245 Y13.869896 Z-1.000000 I-0.095966 J0.599432
G02 X22.049439 Y13.919085 Z-1.000000 I0.545544 J-1.305670
G02 X22.093542 Y13.924536 Z-1.000000 I0.037953 J-0.125923
G01 X22.096691 Y13.913255 Z-1.000000
G02 X21.937550 Y13.819502 Z-1.000000 I-0.859757 J1.277452
G02 X21.733961 Y13.721362 Z-1.000000 I-2.221937 J4.349108
G02 X21.534691 Y13.636671 Z-1.000000 I-1.851360 J4.079305
G02 X21.332105 Y13.561772 Z-1.000000 I-1.692021 J4.265162
G02 X21.292975 Y13.553731 Z-1.000000 I-0.050828 J0.148109
G01 X21.272556 Y13.532784 Z-1.000000
G03 X21.266965 Y13.023607 Z-1.000000 I6.685242 J-0.328029
G03 X21.301097 Y12.507893 Z-1.000000 I6.635850 J0.180195
G03 X21.325475 Y12.468955 Z-1.000000 I0.052049 J0.005487
G03 X21.369729 Y12.453855 Z-1.000000 I0.054603 J0.087631
G03 X21.401845 Y12.461255 Z-1.000000 I0.005144 J0.051068
G01 X21.422853 Y12.461117 Z-1.000000
G01 X21.433985 Y12.440835 Z-1.000000
G02 X21.424104 Y12.406056 Z-1.000000 I-0.066146 J0.000000
G02 X21.393695 Y12.375655 Z-1.000000 I-0.079578 J0.049190
G01 X21.367240 Y12.375552 Z-1.000000
G01 X21.353405 Y12.400135 Z-1.000000
G01 X21.344015 Y12.426869 Z-1.000000
G01 X21.331445 Y12.427555 Z-1.000000
G03 X21.316287 Y12.401786 Z-1.000000 I0.042115 J-0.042115
G03 X21.228995 Y12.068596 Z-1.000000 I7.604856 J-2.170424
G03 X21.157824 Y11.730047 Z-1.000000 I6.175417 J-1.474978
G03 X21.127327 Y11.509767 Z-1.000000 I2.581524 J-0.469651
G02 X21.097061 Y11.290005 Z-1.000000 I-2.650941 J0.253129
G02 X21.069117 Y11.187222 Z-1.000000 I-0.603659 J0.108928
G03 X21.040373 Y11.084713 Z-1.000000 I0.632862 J-0.232739
G03 X21.021527 Y10.945506 Z-1.000000 I1.153366 J-0.227027
G02 X21.002539 Y10.808638 Z-1.000000 I-1.090793 J0.081581
G01 X20.988687 Y10.784362 Z-1.000000
G03 X20.971958 Y10.760508 Z-1.000000 I0.043912 J-0.048589
G03 X20.873652 Y10.502361 Z-1.000000 I5.458253 J-2.226373
G03 X20.788893 Y10.238518 Z-1.000000 I4.418832 J-1.565071
G03 X20.763077 Y10.119644 Z-1.000000 I0.867374 J-0.250612
G02 X20.742065 Y9.999403 Z-1.000000 I-2.268135 J0.334402
G02 X20.701957 Y9.817500 Z-1.000000 I-5.249646 J1.062120
G02 X20.655611 Y9.637026 Z-1.000000 I-5.340839 J1.275352
G02 X20.563177 Y9.312793 Z-1.000000 I-17.330450 J4.765353
G03 X20.476030 Y8.987812 Z-1.000000 I6.429045 J-1.898188
G03 X20.458613 Y8.879719 Z-1.000000 I0.690538 J-0.166717
G02 X20.435776 Y8.785010 Z-1.000000 I-0.316683 J0.026255
G01 X20.413463 Y8.770066 Z-1.000000
G01 X20.395382 Y8.754521 Z-1.000000
G03 X20.395133 Y8.649208 Z-1.000000 I0.352668 J-0.053491
G02 X20.398010 Y8.541174 Z-1.000000 I-0.447477 J-0.065974
G01 X20.383933 Y8.528350 Z-1.000000
G01 X20.364334 Y8.516369 Z-1.000000
G03 X20.327183 Y8.417564 Z-1.000000 I0.413658 J-0.211922
G03 X20.303057 Y8.306019 Z-1.000000 I1.684810 J-0.422793
G03 X20.226299 Y7.863632 Z-1.000000 I26.429804 J-4.813637
G02 X20.139475 Y7.423663 Z-1.000000 I-7.044115 J1.161543
G02 X20.027552 Y7.000237 Z-1.000000 I-6.635553 J1.527451
G02 X19.891221 Y6.584084 Z-1.000000 I-8.068743 J2.412894
G02 X19.804854 Y6.375805 Z-1.000000 I-2.103277 J0.750121
G03 X19.720551 Y6.167382 Z-1.000000 I1.715760 J-0.815254
G03 X19.665198 Y5.961524 Z-1.000000 I1.617684 J-0.545347
G03 X19.636879 Y5.752229 Z-1.000000 I1.575703 J-0.319766
G03 X19.645778 Y5.679523 Z-1.000000 I0.192910 J-0.013286
G01 X19.644030 Y5.656703 Z-1.000000
G01 X19.633908 Y5.655873 Z-1.000000
G01 X19.605676 Y5.656095 Z-1.000000
G03 X19.533349 Y5.522062 Z-1.000000 I0.408305 J-0.306862
G03 X19.518612 Y5.421154 Z-1.000000 I0.241314 J-0.086774
G01 X19.539349 Y5.413383 Z-1.000000
G03 X19.594016 Y5.488881 Z-1.000000 I-0.230477 J0.224424
G01 X19.593449 Y5.516979 Z-1.000000
G01 X19.591137 Y5.538505 Z-1.000000
G01 X19.603049 Y5.547199 Z-1.000000
G02 X19.628636 Y5.541591 Z-1.000000 I0.000000 J-0.061172
G02 X19.857214 Y5.430159 Z-1.000000 I-2.411637 J-5.237108
G03 X20.085875 Y5.316121 Z-1.000000 I4.490047 J8.716844
G03 X20.326141 Y5.203878 Z-1.000000 I4.587491 J9.506669
G02 X20.563670 Y5.087897 Z-1.000000 I-1.827906 J-4.044760
G02 X20.628286 Y5.045040 Z-1.000000 I-0.177826 J-0.338253
G03 X20.691937 Y5.001151 Z-1.000000 I0.293807 J0.357996
G03 X20.757164 Y4.971230 Z-1.000000 I0.198356 J0.346358
G01 X20.794914 Y4.976895 Z-1.000000
G01 X20.803214 Y5.005390 Z-1.000000
G02 X20.799472 Y5.051059 Z-1.000000 I0.076182 J0.029230
G01 X20.815334 Y5.064130 Z-1.000000
G01 X20.844620 Y5.053150 Z-1.000000
G02 X20.950573 Y4.943610 Z-1.000000 I-0.683964 J-0.767575
G03 X21.064806 Y4.846909 Z-1.000000 I0.332664 J0.277156
G03 X21.192289 Y4.802382 Z-1.000000 I0.177823 J0.304354
G01 X21.333290 Y4.782042 Z-1.000000
G01 X21.192289 Y4.827052 Z-1.000000
G02 X21.123841 Y4.874798 Z-1.000000 I0.042928 J0.134478
G01 X21.131859 Y4.904652 Z-1.000000
G02 X21.213734 Y4.931169 Z-1.000000 I0.226802 J-0.560616
G02 X21.272860 Y4.939462 Z-1.000000 I0.069812 J-0.282826
G01 X21.286012 Y4.926790 Z-1.000000
G01 X21.272860 Y4.902622 Z-1.000000
G01 X21.263324 Y4.878343 Z-1.000000
G01 X21.282930 Y4.862952 Z-1.000000
G03 X21.333592 Y4.882350 Z-1.000000 I0.000650 J0.074160
G03 X21.353430 Y4.927332 Z-1.000000 I-0.041080 J0.044982
G01 X21.328641 Y4.963642 Z-1.000000
G03 X21.232572 Y4.974592 Z-1.000000 I-0.068676 J-0.175627
G02 X21.126194 Y4.973678 Z-1.000000 I-0.056483 J0.383102
G01 X21.111714 Y4.990162 Z-1.000000
G01 X21.098226 Y5.009984 Z-1.000000
G03 X21.027294 Y5.023472 Z-1.000000 I-0.070932 J-0.179768
G02 X20.947670 Y5.038593 Z-1.000000 I-0.000000 J0.217201
G02 X20.835936 Y5.098882 Z-1.000000 I0.195269 J0.495578
G03 X20.725815 Y5.168965 Z-1.000000 I-0.793670 J-1.125529
G03 X20.518840 Y5.280169 Z-1.000000 I-2.214349 J-3.873176
G03 X20.306969 Y5.378861 Z-1.000000 I-1.711149 J-3.396704
G03 X20.271973 Y5.386050 Z-1.000000 I-0.034996 J-0.081588
G02 X20.236519 Y5.392094 Z-1.000000 I0.000000 J0.107009
G02 X20.079275 Y5.453710 Z-1.000000 I0.782573 J2.228575
G03 X19.921131 Y5.507427 Z-1.000000 I-0.406449 J-0.936951
G03 X19.842711 Y5.513010 Z-1.000000 I-0.055044 J-0.219611
G01 X19.822361 Y5.525192 Z-1.000000
G01 X19.829161 Y5.546120 Z-1.000000
G02 X19.898243 Y5.560098 Z-1.000000 I0.053431 J-0.086365
G02 X20.086650 Y5.505950 Z-1.000000 I-0.121046 J-0.776026
G03 X20.275264 Y5.433902 Z-1.000000 I0.993279 J2.317394
G01 X20.290214 Y5.437410 Z-1.000000
G01 X20.288748 Y5.447987 Z-1.000000
G03 X20.060831 Y5.565671 Z-1.000000 I-1.884095 J-3.369361
G02 X19.869335 Y5.683941 Z-1.000000 I0.440115 J0.926777
G01 X19.870813 Y5.714109 Z-1.000000
G02 X19.924966 Y5.741770 Z-1.000000 I0.175585 J-0.276907
G02 X19.955873 Y5.748009 Z-1.000000 I0.032574 J-0.081701
G01 X19.969918 Y5.738051 Z-1.000000
G01 X19.967073 Y5.714019 Z-1.000000
G01 X19.974009 Y5.688768 Z-1.000000
G03 X20.317116 Y5.531288 Z-1.000000 I1.719180 J3.293124
G02 X20.681919 Y5.370814 Z-1.000000 I-2.112764 J-5.297807
G02 X20.835695 Y5.281191 Z-1.000000 I-0.494044 J-1.024420
G03 X20.990640 Y5.196820 Z-1.000000 I0.468943 J0.676740
G03 X21.212028 Y5.125942 Z-1.000000 I0.544894 J1.320788
G03 X21.403472 Y5.091204 Z-1.000000 I0.450744 J1.939169
G01 X21.407393 Y5.100282 Z-1.000000
G03 X21.370500 Y5.122271 Z-1.000000 I-0.092535 J-0.113308
G03 X21.212428 Y5.180482 Z-1.000000 I-0.858349 J-2.087135
G02 X21.058168 Y5.247508 Z-1.000000 I0.276525 J0.847456
G02 X20.668568 Y5.480679 Z-1.000000 I3.140308 J5.689124
G02 X20.289507 Y5.732938 Z-1.000000 I9.563555 J14.781777
G02 X20.231811 Y5.779553 Z-1.000000 I0.263884 J0.385624
G02 X20.187320 Y5.835763 Z-1.000000 I0.173967 J0.183408
G02 X20.169621 Y5.886375 Z-1.000000 I0.122125 J0.071108
G03 X20.153011 Y5.938172 Z-1.000000 I-0.164687 J-0.024250
G03 X20.107941 Y6.006428 Z-1.000000 I-0.333989 J-0.171526
G02 X20.093517 Y6.052558 Z-1.000000 I0.048952 J0.040626
G01 X20.113541 Y6.070918 Z-1.000000
G02 X20.166210 Y6.056370 Z-1.000000 I-0.000000 J-0.102616
G02 X20.242378 Y5.993878 Z-1.000000 I-0.171338 J-0.286498
G02 X20.300465 Y5.911342 Z-1.000000 I-0.306845 J-0.277659
G02 X20.323148 Y5.842806 Z-1.000000 I-0.186634 J-0.099790
G03 X20.352568 Y5.790075 Z-1.000000 I0.084752 J0.012713
G03 X20.410748 Y5.768776 Z-1.000000 I0.058180 J0.068812
G02 X20.483014 Y5.754839 Z-1.000000 I-0.000000 J-0.194327
G02 X20.597738 Y5.693866 Z-1.000000 I-0.225194 J-0.562129
G02 X20.684426 Y5.613876 Z-1.000000 I-0.222687 J-0.328301
G01 X20.686288 Y5.583541 Z-1.000000
G01 X20.690896 Y5.570082 Z-1.000000
G01 X20.721978 Y5.570221 Z-1.000000
G02 X20.777709 Y5.571952 Z-1.000000 I0.030350 J-0.079110
G02 X20.915429 Y5.509481 Z-1.000000 I-0.186662 J-0.594540
G03 X21.055638 Y5.442043 Z-1.000000 I0.408986 J0.670841
G03 X21.143361 Y5.426491 Z-1.000000 I0.088181 J0.242217
G02 X21.230962 Y5.411456 Z-1.000000 I-0.000430 J-0.265218
G02 X21.341718 Y5.356691 Z-1.000000 I-0.170054 J-0.483295
G03 X21.437078 Y5.318514 Z-1.000000 I0.142234 J0.217089
G01 X21.463761 Y5.334281 Z-1.000000
G01 X21.489583 Y5.360241 Z-1.000000
G02 X21.537331 Y5.359331 Z-1.000000 I0.022618 J-0.066360
G03 X21.586271 Y5.350074 Z-1.000000 I0.049968 J0.130179
G01 X21.595161 Y5.358899 Z-1.000000
G01 X21.586052 Y5.375185 Z-1.000000
G03 X21.334040 Y5.519314 Z-1.000000 I-2.424073 J-3.946147
G03 X21.101791 Y5.630928 Z-1.000000 I-1.505457 J-2.835159
G01 X21.094702 Y5.622723 Z-1.000000
G01 X21.097219 Y5.598213 Z-1.000000
G01 X21.081882 Y5.587473 Z-1.000000
G02 X21.050763 Y5.595878 Z-1.000000 I0.000000 J0.061813
G02 X20.998932 Y5.635813 Z-1.000000 I0.128122 J0.219888
G02 X20.960378 Y5.688134 Z-1.000000 I0.153406 J0.153406
G02 X20.951202 Y5.726453 Z-1.000000 I0.070555 J0.037154
G01 X20.962612 Y5.733929 Z-1.000000
G02 X20.994552 Y5.708323 Z-1.000000 I-0.028614 J-0.068416
G01 X21.012288 Y5.699144 Z-1.000000
G01 X21.019112 Y5.708323 Z-1.000000
G03 X20.991067 Y5.752153 Z-1.000000 I-0.091108 J-0.027409
G01 X20.960412 Y5.760283 Z-1.000000
G01 X20.924630 Y5.766378 Z-1.000000
G02 X20.853690 Y5.824953 Z-1.000000 I0.165153 J0.272261
G02 X20.811589 Y5.902600 Z-1.000000 I0.138535 J0.125353
G02 X20.815260 Y5.970466 Z-1.000000 I0.106954 J0.028247
G01 X20.853852 Y5.984417 Z-1.000000
G02 X21.002617 Y5.865506 Z-1.000000 I-0.285652 J-0.509883
G01 X21.113351 Y5.756915 Z-1.000000
G02 X21.083714 Y5.826270 Z-1.000000 I0.144641 J0.102817
G02 X21.091691 Y5.869658 Z-1.000000 I0.059671 J0.011457
G01 X21.123246 Y5.887039 Z-1.000000
G02 X21.172921 Y5.868825 Z-1.000000 I-0.000808 J-0.079051
G02 X21.207722 Y5.817095 Z-1.000000 I-0.070565 J-0.085045
G02 X21.211871 Y5.745682 Z-1.000000 I-0.138817 J-0.043891
G03 X21.229279 Y5.683251 Z-1.000000 I0.071362 J-0.013744
G03 X21.355686 Y5.586317 Z-1.000000 I0.325862 J0.294051
G03 X21.505958 Y5.519334 Z-1.000000 I0.713620 J1.398907
G01 X21.514580 Y5.525257 Z-1.000000
G01 X21.506455 Y5.540359 Z-1.000000
G03 X21.363507 Y5.625007 Z-1.000000 I-0.935178 J-1.416234
G02 X21.274234 Y5.690302 Z-1.000000 I0.177744 J0.336695
G01 X21.280637 Y5.706537 Z-1.000000
G02 X21.345494 Y5.695416 Z-1.000000 I0.004410 J-0.168966
G02 X21.483559 Y5.628827 Z-1.000000 I-0.327988 J-0.856470
G01 X21.618285 Y5.549337 Z-1.000000
G01 X21.685675 Y5.679184 Z-1.000000
G03 X21.742918 Y5.812878 Z-1.000000 I-0.871733 J0.452344
G03 X21.815111 Y6.056562 Z-1.000000 I-2.834722 J0.972345
G03 X21.868081 Y6.305212 Z-1.000000 I-3.457555 J0.866535
G03 X21.877151 Y6.409064 Z-1.000000 I-0.590037 J0.103852
G03 X21.859989 Y6.496875 Z-1.000000 I-0.233223 J-0.000000
G01 X21.834491 Y6.514035 Z-1.000000
G01 X21.815769 Y6.500689 Z-1.000000
G01 X21.819211 Y6.469725 Z-1.000000
G01 X21.812288 Y6.457652 Z-1.000000
G02 X21.761161 Y6.471125 Z-1.000000 I0.002759 J0.114216
G02 X21.682490 Y6.520900 Z-1.000000 I0.302447 J0.565089
G01 X21.675731 Y6.534305 Z-1.000000
G01 X21.683192 Y6.540904 Z-1.000000
G02 X21.742771 Y6.526005 Z-1.000000 I-0.030679 J-0.249251
G01 X21.773781 Y6.530122 Z-1.000000
G01 X21.778011 Y6.551725 Z-1.000000
G01 X21.784434 Y6.573362 Z-1.000000
G02 X21.830491 Y6.576425 Z-1.000000 I0.026935 J-0.057208
G03 X21.893997 Y6.586947 Z-1.000000 I0.021434 J0.067544
G03 X21.942144 Y6.658765 Z-1.000000 I-0.075987 J0.102990
G03 X21.948817 Y6.764599 Z-1.000000 I-0.282592 J0.070944
G03 X21.919354 Y6.848182 Z-1.000000 I-0.202624 J-0.024440
G02 X21.910771 Y6.894230 Z-1.000000 I0.054385 J0.033961
G01 X21.930274 Y6.905072 Z-1.000000
G03 X21.980185 Y6.906693 Z-1.000000 I0.023033 J0.060009
G03 X22.015404 Y6.944292 Z-1.000000 I-0.028564 J0.062051
G03 X22.020750 Y7.006044 Z-1.000000 I-0.104719 J0.040174
G03 X21.979524 Y7.127080 Z-1.000000 I-0.467191 J-0.091592
G02 X21.964866 Y7.190109 Z-1.000000 I0.124738 J0.062227
G01 X21.979929 Y7.197130 Z-1.000000
G03 X22.038823 Y7.159586 Z-1.000000 I0.178541 J0.215104
G01 X22.052279 Y7.162870 Z-1.000000
G03 X22.061753 Y7.180034 Z-1.000000 I-0.054188 J0.041108
G03 X22.126389 Y7.359969 Z-1.000000 I-6.010591 J2.260680
G03 X22.186180 Y7.541995 Z-1.000000 I-7.193472 J2.463716
G03 X22.281540 Y7.853183 Z-1.000000 I-20.919520 J6.580742
G02 X22.379048 Y8.147546 Z-1.000000 I4.959828 J-1.479614
G01 X22.389790 Y8.149922 Z-1.000000
G01 X22.395242 Y8.131963 Z-1.000000
G02 X22.323990 Y7.817851 Z-1.000000 I-5.820621 J1.155187
G02 X22.238393 Y7.502304 Z-1.000000 I-10.823123 J2.766561
G02 X22.157859 Y7.239111 Z-1.000000 I-7.595810 J2.180308
G03 X22.075505 Y6.976508 Z-1.000000 I12.483390 J-4.059082
G03 X22.058529 Y6.910396 Z-1.000000 I0.776937 J-0.234735
G03 X22.046035 Y6.843242 Z-1.000000 I1.332152 J-0.282589
G03 X22.016579 Y6.648537 Z-1.000000 I11.148923 J-1.786241
G02 X21.982843 Y6.454669 Z-1.000000 I-3.156386 J0.449395
G02 X21.896866 Y6.067410 Z-1.000000 I-12.686757 J2.613458
G02 X21.791588 Y5.686026 Z-1.000000 I-5.419256 J1.290712
G02 X21.720178 Y5.505912 Z-1.000000 I-1.273776 J0.400806
G03 X21.643826 Y5.328619 Z-1.000000 I2.003561 J-0.967924
G03 X21.635448 Y5.282998 Z-1.000000 I0.120015 J-0.045621
G02 X21.625995 Y5.237733 Z-1.000000 I-0.113104 J0.000000
G02 X21.494448 Y4.960123 Z-1.000000 I-4.575512 J1.998164
G03 X21.389605 Y4.676070 Z-1.000000 I1.128390 J-0.577859
G03 X21.353447 Y4.368278 Z-1.000000 I1.291938 J-0.307792
G02 X21.335827 Y4.083374 Z-1.000000 I-2.312141 J-0.000000
G01 X21.316947 Y4.074328 Z-1.000000
G01 X21.297432 Y4.103691 Z-1.000000
G02 X21.301017 Y4.175583 Z-1.000000 I0.174023 J0.027358
G03 X21.287025 Y4.237191 Z-1.000000 I-0.066283 J0.017339
G03 X21.186449 Y4.310921 Z-1.000000 I-0.203791 J-0.172530
G03 X21.052168 Y4.344808 Z-1.000000 I-0.179508 J-0.428329
G03 X20.980099 Y4.331111 Z-1.000000 I-0.012689 J-0.129684
G02 X20.910656 Y4.320130 Z-1.000000 I-0.051486 J0.100532
G02 X20.820063 Y4.356881 Z-1.000000 I0.034721 J0.215625
G03 X20.726911 Y4.405409 Z-1.000000 I-0.231163 J-0.330059
G03 X20.649375 Y4.419101 Z-1.000000 I-0.077536 J-0.212694
G02 X20.569456 Y4.430112 Z-1.000000 I-0.000000 J0.295526
G02 X20.286488 Y4.521036 Z-1.000000 I1.084629 J3.861309
G02 X20.012238 Y4.633112 Z-1.000000 I1.262366 J3.480582
G02 X19.964375 Y4.667966 Z-1.000000 I0.061413 J0.134627
G01 X19.966453 Y4.683903 Z-1.000000
G01 X19.993795 Y4.686886 Z-1.000000
G03 X20.064515 Y4.661429 Z-1.000000 I1.505441 J4.071200
G03 X20.134796 Y4.637506 Z-1.000000 I1.397688 J3.990914
G01 X20.137902 Y4.643908 Z-1.000000
G03 X19.973120 Y4.744402 Z-1.000000 I-1.457705 J-2.204871
G02 X19.760387 Y4.877291 Z-1.000000 I1.297754 J2.314210
G01 X19.759001 Y4.892666 Z-1.000000
G01 X19.779268 Y4.896716 Z-1.000000
G02 X20.067090 Y4.765626 Z-1.000000 I-1.652339 J-4.009394
G03 X20.360787 Y4.636048 Z-1.000000 I1.485970 J2.970413
G03 X20.444368 Y4.620529 Z-1.000000 I0.083581 J0.217315
G02 X20.526071 Y4.606425 Z-1.000000 I0.000000 J-0.243696
G02 X20.585866 Y4.570169 Z-1.000000 I-0.058094 J-0.163248
G01 X20.607227 Y4.561495 Z-1.000000
G01 X20.612066 Y4.569561 Z-1.000000
G03 X20.574907 Y4.610339 Z-1.000000 I-0.107461 J-0.060604
G03 X20.307054 Y4.781062 Z-1.000000 I-2.329603 J-3.359511
G03 X20.025624 Y4.926285 Z-1.000000 I-1.530448 J-2.620582
G03 X19.948860 Y4.942814 Z-1.000000 I-0.076764 J-0.169985
G02 X19.875162 Y4.956332 Z-1.000000 I0.000000 J0.207661
G02 X19.842725 Y4.983104 Z-1.000000 I0.023220 J0.061168
G01 X19.841513 Y5.010204 Z-1.000000
G01 X19.862865 Y5.023394 Z-1.000000
G01 X19.883786 Y5.036843 Z-1.000000
G01 X19.881995 Y5.065314 Z-1.000000
G03 X19.849020 Y5.088169 Z-1.000000 I-0.042693 J-0.026383
G03 X19.784585 Y5.084544 Z-1.000000 I-0.025151 J-0.127426
G02 X19.720937 Y5.086541 Z-1.000000 I-0.028989 J0.091334
G02 X19.658989 Y5.133264 Z-1.000000 I0.051471 J0.132672
G01 X19.653995 Y5.151491 Z-1.000000
G01 X19.661389 Y5.154314 Z-1.000000
G03 X19.721235 Y5.112815 Z-1.000000 I0.199187 J0.223348
G03 X19.757109 Y5.103954 Z-1.000000 I0.035874 J0.068186
G01 X19.765057 Y5.117497 Z-1.000000
G03 X19.699639 Y5.206906 Z-1.000000 I-0.396428 J-0.221421
G02 X19.667286 Y5.267502 Z-1.000000 I0.096014 J0.090199
G01 X19.682549 Y5.281026 Z-1.000000
G02 X19.756438 Y5.243322 Z-1.000000 I-0.113877 J-0.314419
G02 X19.834243 Y5.178074 Z-1.000000 I-0.280916 J-0.413992
G03 X19.911409 Y5.115998 Z-1.000000 I0.291711 J0.283625
G03 X19.953658 Y5.103954 Z-1.000000 I0.042249 J0.068077
G02 X19.998631 Y5.094256 Z-1.000000 I-0.000000 J-0.109131
G02 X20.316206 Y4.939968 Z-1.000000 I-2.646930 J-5.852207
G03 X20.632733 Y4.792713 Z-1.000000 I1.820246 J3.498833
G03 X20.676993 Y4.791177 Z-1.000000 I0.024192 J0.058659
G01 X20.679138 Y4.809646 Z-1.000000
G03 X20.331075 Y5.005520 Z-1.000000 I-2.503375 J-4.041253
G02 X20.002597 Y5.196242 Z-1.000000 I1.552775 J3.052544
G01 X20.006868 Y5.218643 Z-1.000000
G01 X20.021513 Y5.241116 Z-1.000000
G03 X19.993928 Y5.279073 Z-1.000000 I-0.056576 J-0.012115
G03 X19.913180 Y5.324603 Z-1.000000 I-2.037938 J-3.519930
G03 X19.777503 Y5.397879 Z-1.000000 I-5.432170 J-9.895911
G01 X19.641313 Y5.470229 Z-1.000000
G01 X19.762171 Y5.367864 Z-1.000000
G02 X19.847223 Y5.278529 Z-1.000000 I-0.372532 J-0.439826
G01 X19.840731 Y5.265299 Z-1.000000
G02 X19.802300 Y5.274519 Z-1.000000 I-0.000393 J0.083071
G02 X19.753101 Y5.310429 Z-1.000000 I0.090399 J0.175508
G03 X19.701355 Y5.335036 Z-1.000000 I-0.060487 J-0.060487
G03 X19.567646 Y5.329479 Z-1.000000 I-0.047680 J-0.464154
G03 X19.441800 Y5.286060 Z-1.000000 I0.083935 J-0.447363
G03 X19.405253 Y5.245149 Z-1.000000 I0.035632 J-0.068612
G03 X19.399932 Y5.192821 Z-1.000000 I0.093713 J-0.035964
G01 X19.418453 Y5.165179 Z-1.000000
G01 X19.444193 Y5.167553 Z-1.000000
G03 X19.472453 Y5.214249 Z-1.000000 I-0.064404 J0.070877
G01 X19.484520 Y5.220141 Z-1.000000
G01 X19.495643 Y5.204249 Z-1.000000
G03 X19.518639 Y5.134152 Z-1.000000 I0.143963 J0.008408
G03 X19.580883 Y5.072979 Z-1.000000 I0.168921 J0.109626
G02 X19.648343 Y5.015391 Z-1.000000 I-0.158946 J-0.254498
G02 X19.661453 Y4.980339 Z-1.000000 I-0.040302 J-0.035052
G01 X19.648350 Y4.961518 Z-1.000000
G01 X19.618633 Y4.964489 Z-1.000000
G01 X19.577865 Y4.968459 Z-1.000000
G03 X19.495316 Y4.918109 Z-1.000000 I0.090978 J-0.242005
G02 X19.420222 Y4.883911 Z-1.000000 I-0.091242 J0.100807
G01 X19.378143 Y4.904089 Z-1.000000
G03 X19.334560 Y4.933160 Z-1.000000 I-0.053911 J-0.033619
G03 X19.274458 Y4.921169 Z-1.000000 I-0.014133 J-0.085784
G03 X19.223660 Y4.876041 Z-1.000000 I0.106725 J-0.171290
G01 X19.222958 Y4.856859 Z-1.000000
G01 X19.225119 Y4.834911 Z-1.000000
G02 X19.186418 Y4.771599 Z-1.000000 I-0.236952 J0.101360
G03 X19.166748 Y4.717103 Z-1.000000 I0.065657 J-0.054496
G01 X19.186418 Y4.688019 Z-1.000000
G01 X19.188626 Y4.675723 Z-1.000000
G01 X19.159898 Y4.663959 Z-1.000000
G01 X19.125715 Y4.643439 Z-1.000000
G01 X19.129688 Y4.612439 Z-1.000000
G02 X19.169623 Y4.560608 Z-1.000000 I-0.179952 J-0.179952
G02 X19.178028 Y4.529489 Z-1.000000 I-0.053408 J-0.031119
G01 X19.167329 Y4.514070 Z-1.000000
G01 X19.143128 Y4.516449 Z-1.000000
G01 X19.111152 Y4.517362 Z-1.000000
G03 X19.036409 Y4.458659 Z-1.000000 I0.134125 J-0.247708
G03 X18.990869 Y4.368839 Z-1.000000 I0.141836 J-0.128367
G03 X18.957869 Y4.076892 Z-1.000000 I1.595065 J-0.328135
G03 X18.966475 Y3.789473 Z-1.000000 I2.756143 J-0.061312
G01 X18.982749 Y3.774483 Z-1.000000
G01 X18.997076 Y3.762606 Z-1.000000
G02 X18.993159 Y3.719253 Z-1.000000 I-0.078351 J-0.014775
G03 X18.992213 Y3.668313 Z-1.000000 I0.069758 J-0.026774
G03 X19.032789 Y3.603191 Z-1.000000 I0.160705 J0.054929
G02 X19.074940 Y3.542362 Z-1.000000 I-0.146467 J-0.146511
G01 X19.070799 Y3.519541 Z-1.000000
G01 X19.065704 Y3.494659 Z-1.000000
G03 X19.139089 Y3.349297 Z-1.000000 I0.879366 J0.352735
G03 X19.247149 Y3.218623 Z-1.000000 I0.526612 J0.325463
G03 X19.455901 Y3.058591 Z-1.000000 I1.007123 J1.097559
G02 X19.675349 Y2.907359 Z-1.000000 I-1.893224 J-2.982026
G02 X19.796949 Y2.804052 Z-1.000000 I-0.756717 J-1.013934
G03 X19.918291 Y2.718376 Z-1.000000 I0.339376 J0.351888
G03 X19.978236 Y2.713722 Z-1.000000 I0.035718 J0.071681
G01 X19.991184 Y2.708217 Z-1.000000
G01 X19.987736 Y2.694522 Z-1.000000
G01 X19.969272 Y2.648940 Z-1.000000
G03 X20.014736 Y2.548371 Z-1.000000 I0.226525 J0.041844
G03 X20.096168 Y2.477143 Z-1.000000 I0.230398 J0.181240
G01 X20.123868 Y2.483981 Z-1.000000
G01 X20.124537 Y2.513685 Z-1.000000
G01 X20.096868 Y2.532431 Z-1.000000
G01 X20.096912 Y2.537764 Z-1.000000
G02 X20.386563 Y2.564491 Z-1.000000 I0.869167 J-7.836690
G02 X20.724676 Y2.566889 Z-1.000000 I0.187061 J-2.537117
G02 X20.837494 Y2.537681 Z-1.000000 I-0.017953 J-0.301829
G03 X20.938913 Y2.509803 Z-1.000000 I0.127713 J0.266193
G01 X20.970801 Y2.525761 Z-1.000000
G01 X20.976626 Y2.556460 Z-1.000000
G01 X20.963001 Y2.568981 Z-1.000000
G02 X20.930563 Y2.573114 Z-1.000000 I0.048036 J0.506352
G02 X20.856218 Y2.586101 Z-1.000000 I0.424866 J2.651499
G02 X20.785295 Y2.606320 Z-1.000000 I0.075040 J0.397711
G02 X20.758188 Y2.623971 Z-1.000000 I0.028217 J0.072974
G01 X20.752534 Y2.647807 Z-1.000000
G02 X20.781748 Y2.695201 Z-1.000000 I0.114549 J-0.037908
G02 X20.831643 Y2.709098 Z-1.000000 I0.037261 J-0.037261
G02 X20.949159 Y2.653861 Z-1.000000 I-0.079424 J-0.321600
G03 X21.029784 Y2.616919 Z-1.000000 I0.128287 J0.173531
G01 X21.043309 Y2.632541 Z-1.000000
G01 X21.048666 Y2.664986 Z-1.000000
G01 X21.074639 Y2.670221 Z-1.000000
G01 X21.079878 Y2.674866 Z-1.000000
G01 X21.065139 Y2.695511 Z-1.000000
G02 X21.027187 Y2.755935 Z-1.000000 I0.072106 J0.087420
G02 X21.035429 Y2.816671 Z-1.000000 I0.081178 J0.019912
G03 X21.049816 Y2.876938 Z-1.000000 I-0.099274 J0.055549
G01 X21.031629 Y2.908011 Z-1.000000
G02 X21.001286 Y2.939029 Z-1.000000 I0.047418 J0.076738
G02 X20.990849 Y2.977371 Z-1.000000 I0.065213 J0.038342
G01 X21.005772 Y2.987890 Z-1.000000
G02 X21.071419 Y2.948611 Z-1.000000 I-0.065899 J-0.184636
G02 X21.141547 Y2.871055 Z-1.000000 I-0.350629 J-0.387529
G02 X21.151989 Y2.839275 Z-1.000000 I-0.043138 J-0.031780
G01 X21.139380 Y2.824677 Z-1.000000
G02 X21.101629 Y2.831875 Z-1.000000 I-0.008514 J0.057940
G01 X21.095339 Y2.825448 Z-1.000000
G03 X21.148939 Y2.753685 Z-1.000000 I0.394331 J0.238628
G03 X21.252733 Y2.660341 Z-1.000000 I0.519352 J0.473115
G03 X21.295079 Y2.646474 Z-1.000000 I0.042346 J0.057723
G03 X21.338113 Y2.658058 Z-1.000000 I-0.000000 J0.085725
G03 X21.388609 Y2.700764 Z-1.000000 I-0.094752 J0.163243
G02 X21.441992 Y2.737958 Z-1.000000 I0.093999 J-0.078007
G02 X21.552165 Y2.758424 Z-1.000000 I0.120452 J-0.341637
G03 X21.667579 Y2.773393 Z-1.000000 I-0.017015 J0.583597
G03 X21.751106 Y2.804844 Z-1.000000 I-0.077311 J0.331962
G02 X21.834801 Y2.834786 Z-1.000000 I0.142341 J-0.265928
G02 X21.965127 Y2.847274 Z-1.000000 I0.127297 J-0.642208
G02 X22.095229 Y2.834770 Z-1.000000 I-0.003311 J-0.717570
G02 X22.154223 Y2.811494 Z-1.000000 I-0.031414 J-0.166018
G02 X22.187709 Y2.771257 Z-1.000000 I-0.045593 J-0.071996
G01 X22.184653 Y2.735734 Z-1.000000
G01 X22.150791 Y2.716000 Z-1.000000
G02 X22.009190 Y2.729034 Z-1.000000 I-0.020908 J0.548565
G03 X21.859948 Y2.738822 Z-1.000000 I-0.105678 J-0.468662
G03 X21.656474 Y2.696914 Z-1.000000 I0.084035 J-0.922928
G03 X21.456274 Y2.625757 Z-1.000000 I1.265680 J-3.878201
G03 X21.364097 Y2.584337 Z-1.000000 I0.331664 J-0.861366
G03 X21.299577 Y2.533831 Z-1.000000 I0.101176 J-0.195713
G01 X21.300307 Y2.511547 Z-1.000000
G03 X21.330559 Y2.494945 Z-1.000000 I0.043618 J0.043618
G03 X21.418553 Y2.485297 Z-1.000000 I0.087994 J0.396439
G03 X21.499054 Y2.505307 Z-1.000000 I0.000000 J0.171929
G03 X21.551615 Y2.555797 Z-1.000000 I-0.062170 J0.117325
G02 X21.581405 Y2.582500 Z-1.000000 I0.056206 J-0.032736
G01 X21.593905 Y2.574587 Z-1.000000
G03 X21.609225 Y2.529005 Z-1.000000 I0.081194 J0.001924
G03 X21.717377 Y2.403372 Z-1.000000 I0.782945 J0.564632
G03 X21.848965 Y2.306795 Z-1.000000 I0.406225 J0.415554
G03 X21.940214 Y2.283872 Z-1.000000 I0.091249 J0.170157
G02 X22.026765 Y2.263460 Z-1.000000 I0.000000 J-0.193700
G02 X22.064660 Y2.221702 Z-1.000000 I-0.034782 J-0.069639
G02 X22.077047 Y2.161989 Z-1.000000 I-0.176651 J-0.067788
G01 X22.068160 Y2.139212 Z-1.000000
G01 X22.047832 Y2.136204 Z-1.000000
G02 X21.980690 Y2.186032 Z-1.000000 I0.134894 J0.251918
G03 X21.913545 Y2.235206 Z-1.000000 I-0.192709 J-0.192709
G01 X21.892290 Y2.231922 Z-1.000000
G01 X21.867882 Y2.222873 Z-1.000000
G02 X21.762908 Y2.241722 Z-1.000000 I0.039303 J0.520629
G03 X21.655393 Y2.256384 Z-1.000000 I-0.104428 J-0.364242
G03 X21.566564 Y2.240122 Z-1.000000 I0.002139 J-0.262426
G02 X21.514497 Y2.243205 Z-1.000000 I-0.022520 J0.060881
G01 X21.503284 Y2.272472 Z-1.000000
G01 X21.500332 Y2.303785 Z-1.000000
G01 X21.481084 Y2.308322 Z-1.000000
G01 X21.447608 Y2.303716 Z-1.000000
G01 X21.433954 Y2.321852 Z-1.000000
G01 X21.446093 Y2.352379 Z-1.000000
G01 X21.474244 Y2.364512 Z-1.000000
G01 X21.502321 Y2.376727 Z-1.000000
G01 X21.514534 Y2.407752 Z-1.000000
G01 X21.498862 Y2.431986 Z-1.000000
G03 X21.447354 Y2.437962 Z-1.000000 I-0.035174 J-0.078200
G03 X21.399886 Y2.407399 Z-1.000000 I0.014570 J-0.074771
G03 X21.373514 Y2.334293 Z-1.000000 I0.117404 J-0.083662
G03 X21.379960 Y2.255891 Z-1.000000 I0.252282 J-0.018725
G01 X21.395524 Y2.243653 Z-1.000000
G01 X21.416551 Y2.232215 Z-1.000000
G02 X21.475124 Y2.120694 Z-1.000000 I-0.582959 J-0.377320
G03 X21.538742 Y2.027259 Z-1.000000 I0.256367 J0.106178
G01 X21.580726 Y2.018715 Z-1.000000
G02 X21.621308 Y2.019217 Z-1.000000 I0.020971 J-0.054643
G01 X21.635396 Y1.999255 Z-1.000000
G01 X21.650359 Y1.983462 Z-1.000000
G03 X21.705896 Y1.995455 Z-1.000000 I0.005814 J0.107669
G02 X21.777274 Y2.013955 Z-1.000000 I0.075995 J-0.146257
G02 X21.856968 Y1.999655 Z-1.000000 I0.005555 J-0.198252
G03 X21.938522 Y1.971668 Z-1.000000 I0.311132 J0.773813
G03 X21.977826 Y1.965045 Z-1.000000 I0.049113 J0.171528
G01 X21.983520 Y1.974084 Z-1.000000
G03 X21.957686 Y2.001885 Z-1.000000 I-0.067766 J-0.037068
G01 X21.950025 Y2.027592 Z-1.000000
G01 X21.977826 Y2.047255 Z-1.000000
G02 X22.058442 Y2.052811 Z-1.000000 I0.317626 J-4.021144
G02 X22.159113 Y2.057945 Z-1.000000 I0.377908 J-6.420482
G02 X22.253226 Y2.048637 Z-1.000000 I0.014475 J-0.334074
G02 X22.285538 Y2.026935 Z-1.000000 I-0.013482 J-0.054978
G01 X22.314869 Y2.009924 Z-1.000000
G03 X22.356038 Y2.019235 Z-1.000000 I0.007042 J0.064538
G03 X22.389235 Y2.053281 Z-1.000000 I-0.051712 J0.083629
G03 X22.400208 Y2.094895 Z-1.000000 I-0.069487 J0.040577
G01 X22.388264 Y2.103547 Z-1.000000
G03 X22.360538 Y2.082445 Z-1.000000 I0.015366 J-0.048956
G01 X22.336259 Y2.072909 Z-1.000000
G01 X22.320868 Y2.092515 Z-1.000000
G02 X22.335199 Y2.148198 Z-1.000000 I0.111555 J0.000975
G01 X22.360538 Y2.163015 Z-1.000000
G01 X22.385570 Y2.178277 Z-1.000000
G03 X22.400828 Y2.241205 Z-1.000000 I-0.122135 J0.062928
G03 X22.387492 Y2.311966 Z-1.000000 I-0.194397 J-0.000000
G03 X22.360538 Y2.344298 Z-1.000000 I-0.061874 J-0.024181
G02 X22.333056 Y2.376256 Z-1.000000 I0.036634 J0.059299
G02 X22.320868 Y2.437318 Z-1.000000 I0.139955 J0.059682
G01 X22.336776 Y2.456160 Z-1.000000
G01 X22.363798 Y2.445018 Z-1.000000
G01 X22.377281 Y2.446648 Z-1.000000
G03 X22.379438 Y2.485308 Z-1.000000 I-0.058333 J0.022644
G03 X22.347351 Y2.584104 Z-1.000000 I-0.911230 J-0.241339
G03 X22.261133 Y2.791050 Z-1.000000 I-4.084750 J-1.580365
G03 X22.149663 Y2.982314 Z-1.000000 I-0.943005 J-0.421474
G03 X21.952802 Y3.209482 Z-1.000000 I-1.533234 J-1.129802
G02 X21.852568 Y3.327457 Z-1.000000 I0.612566 J0.622016
G01 X21.862332 Y3.337422 Z-1.000000
G02 X21.981563 Y3.244039 Z-1.000000 I-0.613312 J-0.905874
G02 X22.107934 Y3.115991 Z-1.000000 I-1.033987 J-1.146835
G02 X22.218595 Y2.973798 Z-1.000000 I-1.143852 J-1.004350
G02 X22.356242 Y2.754684 Z-1.000000 I-2.587731 J-1.778405
G02 X22.448453 Y2.520438 Z-1.000000 I-0.757871 J-0.433610
G02 X22.473213 Y2.255922 Z-1.000000 I-0.946762 J-0.222037
G02 X22.422923 Y2.007857 Z-1.000000 I-0.812006 J0.035488
G02 X22.351997 Y1.930291 Z-1.000000 I-0.131351 J0.048896
G02 X22.238042 Y1.896971 Z-1.000000 I-0.159421 J0.333702
G02 X21.774647 Y1.858781 Z-1.000000 I-0.696928 J5.625956
G03 X21.307371 Y1.830710 Z-1.000000 I0.513906 J-12.458001
G03 X21.037904 Y1.800621 Z-1.000000 I0.329040 J-4.168388
G02 X20.768582 Y1.770823 Z-1.000000 I-0.580103 J4.011069
G02 X20.522160 Y1.760961 Z-1.000000 I-0.257285 J3.345300
G03 X20.298543 Y1.729865 Z-1.000000 I0.002710 J-0.839078
G03 X20.255767 Y1.686341 Z-1.000000 I0.016536 J-0.059035
G02 X20.211797 Y1.638454 Z-1.000000 I-0.067203 J0.017576
G02 X19.777709 Y1.516687 Z-1.000000 I-1.116990 J3.147337
G02 X19.315319 Y1.455102 Z-1.000000 I-0.649201 J3.107675
G02 X18.029805 Y1.413656 Z-1.000000 I-1.420269 J24.094928
G02 X16.741077 Y1.418963 Z-1.000000 I-0.372481 J66.025366
G02 X16.317652 Y1.437346 Z-1.000000 I0.099664 J7.181281
G01 X16.317655 Y1.437379 Z-1.000000
G00 Z5.000000

(End cutting path id: path2)


(Start cutting path id: path2)
(Change tool to Default tool)

G00 Z5.000000
G00 X7.265987 Y1.764189

G01 Z-1.000000 F100.0(Penetrate)
G02 X6.736875 Y1.808752 Z-1.000000 I0.653543 J10.923137 F3500.000000
G02 X6.573080 Y1.839517 Z-1.000000 I0.116514 J1.071744
G02 X6.426394 Y1.904505 Z-1.000000 I0.135961 J0.504919
G02 X6.334437 Y1.992841 Z-1.000000 I0.178539 J0.277890
G02 X6.268621 Y2.108183 Z-1.000000 I0.587422 J0.411640
G02 X6.186702 Y2.318547 Z-1.000000 I1.887673 J0.856218
G02 X6.134620 Y2.537853 Z-1.000000 I1.280979 J0.420054
G02 X6.101841 Y2.882060 Z-1.000000 I3.136883 J0.472387
G02 X6.108828 Y3.227395 Z-1.000000 I2.846666 J0.115151
G02 X6.149236 Y3.466793 Z-1.000000 I1.403204 J-0.113744
G03 X6.173417 Y3.703149 Z-1.000000 I-0.761453 J0.197314
G03 X6.123187 Y3.990999 Z-1.000000 I-1.188307 J-0.059053
G02 X6.038131 Y4.278753 Z-1.000000 I16.963087 J5.170495
G02 X5.979319 Y4.493317 Z-1.000000 I9.369972 J2.683644
G02 X5.936272 Y4.710845 Z-1.000000 I1.766634 J0.462624
G02 X5.881107 Y5.218464 Z-1.000000 I9.595543 J1.299583
G03 X5.815730 Y5.724657 Z-1.000000 I-5.464093 J-0.448399
G03 X5.641360 Y6.574359 Z-1.000000 I-15.592781 J-2.757091
G03 X5.442710 Y7.420187 Z-1.000000 I-479.310380 J-112.123931
G03 X5.365889 Y7.742651 Z-1.000000 I-69.744743 J-16.445110
G03 X5.278467 Y8.061984 Z-1.000000 I-5.187375 J-1.248487
G03 X5.142965 Y8.467798 Z-1.000000 I-8.516320 J-2.618075
G03 X4.971375 Y8.857335 Z-1.000000 I-2.918421 J-1.052998
G03 X4.698674 Y9.313803 Z-1.000000 I-4.286341 J-2.251031
G03 X4.388967 Y9.748999 Z-1.000000 I-8.841727 J-5.964409
G03 X3.913027 Y10.361237 Z-1.000000 I-17.983391 J-13.488787
G02 X3.452644 Y10.982341 Z-1.000000 I7.495166 J6.036838
G02 X3.227411 Y11.368385 Z-1.000000 I2.658822 J1.809991
G02 X3.034692 Y11.774050 Z-1.000000 I13.323009 J6.577949
G02 X2.882150 Y12.124418 Z-1.000000 I9.785093 J4.468600
G02 X2.750831 Y12.482480 Z-1.000000 I4.262042 J1.766214
G02 X2.636815 Y12.889851 Z-1.000000 I5.405019 J1.732407
G03 X2.535502 Y13.301523 Z-1.000000 I-36.283127 J-8.711020
G03 X2.416059 Y13.765399 Z-1.000000 I-46.193155 J-11.646898
G03 X2.284801 Y14.225892 Z-1.000000 I-11.223300 J-2.950129
G03 X1.951537 Y15.276121 Z-1.000000 I-58.731968 J-18.059122
G02 X1.618898 Y16.326462 Z-1.000000 I54.896616 J17.963390
G02 X1.513577 Y16.706272 Z-1.000000 I7.068156 J2.164506
G03 X1.414204 Y17.087754 Z-1.000000 I-17.409426 J-4.331307
G03 X1.376475 Y17.209846 Z-1.000000 I-1.819022 J-0.495242
G02 X1.343505 Y17.332810 Z-1.000000 I0.840149 J0.291165
G02 X1.294986 Y17.632848 Z-1.000000 I4.976477 J0.958689
G02 X1.261736 Y17.935631 Z-1.000000 I7.207450 J0.944715
G02 X1.207621 Y18.618288 Z-1.000000 I36.597088 J3.244551
G02 X1.177127 Y19.301943 Z-1.000000 I13.540503 J0.946468
G02 X1.180315 Y20.028296 Z-1.000000 I15.289031 J0.296085
G02 X1.229589 Y20.751187 Z-1.000000 I9.074748 J-0.255438
G02 X1.307124 Y21.198154 Z-1.000000 I3.537815 J-0.383486
G02 X1.421051 Y21.639153 Z-1.000000 I12.823066 J-3.077483
G02 X1.519031 Y21.963587 Z-1.000000 I7.036558 J-1.948047
G02 X1.634502 Y22.281797 Z-1.000000 I5.091669 J-1.667599
