%
(Header)
(Generated by gcodetools from Inkscape.)
(Using default header. To add your own header create file "header" in the output dir.)
M3
(Header end.)
G21 (All units in mm)

(Start cutting path id: path35148)
(Change tool to Default tool)

G00 Z 5.0000
G00 X 39.5201 Y 0.7610

G01 Z -1.0000 F 100.0000(Penetrate)
G01 X 39.5259 Y 0.7634 Z -1.0000 F 3500.0000
G01 X 39.5297 Y 0.7549 Z -1.0000
G01 X 39.5247 Y 0.7564 Z -1.0000
G01 X 39.5201 Y 0.7610 Z -1.0000
G01 X 39.5201 Y 0.7610 Z -1.0000
G00 Z 5.0000

(End cutting path id: path35148)


(Start cutting path id: path35148)
(Change tool to Default tool)

G00 Z 5.0000
G00 X 39.6840 Y 0.9188

G01 Z -1.0000 F 100.0000(Penetrate)
G01 X 39.6862 Y 0.9259 Z -1.0000 F 3500.0000
G01 X 39.6902 Y 0.9281 Z -1.0000
G01 X 39.6943 Y 0.9259 Z -1.0000
G01 X 39.6964 Y 0.9188 Z -1.0000
G01 X 39.6943 Y 0.9116 Z -1.0000
G01 X 39.6902 Y 0.9095 Z -1.0000
G01 X 39.6862 Y 0.9116 Z -1.0000
G01 X 39.6840 Y 0.9188 Z -1.0000
G01 X 39.6840 Y 0.9188 Z -1.0000
G00 Z 5.0000

(End cutting path id: path35148)


(Start cutting path id: path35148)
(Change tool to Default tool)

G00 Z 5.0000
G00 X 39.6222 Y 1.0953

G01 Z -1.0000 F 100.0000(Penetrate)
G01 X 39.6240 Y 1.0997 Z -1.0000 F 3500.0000
G01 X 39.6284 Y 1.1015 Z -1.0000
G01 X 39.6327 Y 1.0997 Z -1.0000
G01 X 39.6346 Y 1.0953 Z -1.0000
G01 X 39.6327 Y 1.0909 Z -1.0000
G01 X 39.6284 Y 1.0891 Z -1.0000
G01 X 39.6240 Y 1.0909 Z -1.0000
G01 X 39.6222 Y 1.0953 Z -1.0000
G01 X 39.6222 Y 1.0953 Z -1.0000
G00 Z 5.0000

(End cutting path id: path35148)


(Start cutting path id: path35148)
(Change tool to Default tool)

G00 Z 5.0000
G00 X 39.5855 Y 1.0927

G01 Z -1.0000 F 100.0000(Penetrate)
G01 X 39.5892 Y 1.0964 Z -1.0000 F 3500.0000
G01 X 39.5906 Y 1.0887 Z -1.0000
G01 X 39.5887 Y 1.0845 Z -1.0000
G01 X 39.5855 Y 1.0926 Z -1.0000
G01 X 39.5855 Y 1.0927 Z -1.0000
G00 Z 5.0000

(End cutting path id: path35148)


(Start cutting path id: path35148)
(Change tool to Default tool)

G00 Z 5.0000
G00 X 39.3190 Y 1.1572

G01 Z -1.0000 F 100.0000(Penetrate)
G01 X 39.3208 Y 1.1615 Z -1.0000 F 3500.0000
G01 X 39.3252 Y 1.1634 Z -1.0000
G01 X 39.3296 Y 1.1615 Z -1.0000
G01 X 39.3314 Y 1.1572 Z -1.0000
G01 X 39.3296 Y 1.1528 Z -1.0000
G01 X 39.3252 Y 1.1510 Z -1.0000
G01 X 39.3208 Y 1.1528 Z -1.0000
G01 X 39.3190 Y 1.1572 Z -1.0000
G01 X 39.3190 Y 1.1572 Z -1.0000
G00 Z 5.0000

(End cutting path id: path35148)


(Start cutting path id: path35148)
(Change tool to Default tool)

G00 Z 5.0000
G00 X 39.2799 Y 1.1736

G01 Z -1.0000 F 100.0000(Penetrate)
G01 X 39.2777 Y 1.1824 Z -1.0000 F 3500.0000
G01 X 39.2851 Y 1.1903 Z -1.0000
G01 X 39.2911 Y 1.1891 Z -1.0000
G01 X 39.2944 Y 1.1817 Z -1.0000
G01 X 39.2889 Y 1.1724 Z -1.0000
G01 X 39.2799 Y 1.1736 Z -1.0000
G01 X 39.2799 Y 1.1736 Z -1.0000
G00 Z 5.0000

(End cutting path id: path35148)


(Start cutting path id: path35148)
(Change tool to Default tool)

G00 Z 5.0000
G00 X 39.2289 Y 1.1716

G01 Z -1.0000 F 100.0000(Penetrate)
G01 X 39.2291 Y 1.1881 Z -1.0000 F 3500.0000
G01 X 39.2384 Y 1.1943 Z -1.0000
G01 X 39.2480 Y 1.1858 Z -1.0000
G01 X 39.2415 Y 1.1693 Z -1.0000
G01 X 39.2340 Y 1.1673 Z -1.0000
G01 X 39.2289 Y 1.1716 Z -1.0000
G01 X 39.2289 Y 1.1716 Z -1.0000
G00 Z 5.0000

(End cutting path id: path35148)


(Start cutting path id: path35148)
(Change tool to Default tool)

G00 Z 5.0000
G00 X 39.1953 Y 1.1908

G01 Z -1.0000 F 100.0000(Penetrate)
G01 X 39.2018 Y 1.2053 Z -1.0000 F 3500.0000
G01 X 39.2113 Y 1.2050 Z -1.0000
G01 X 39.2140 Y 1.1904 Z -1.0000
G01 X 39.2008 Y 1.1819 Z -1.0000
G01 X 39.1973 Y 1.1838 Z -1.0000
G01 X 39.1953 Y 1.1908 Z -1.0000
G01 X 39.1953 Y 1.1908 Z -1.0000
G00 Z 5.0000

(End cutting path id: path35148)


(Start cutting path id: path35148)
(Change tool to Default tool)

G00 Z 5.0000
G00 X 39.2017 Y 1.1166

G01 Z -1.0000 F 100.0000(Penetrate)
G01 X 39.2083 Y 1.1281 Z -1.0000 F 3500.0000
G01 X 39.2113 Y 1.1207 Z -1.0000
G01 X 39.2085 Y 1.1098 Z -1.0000
G01 X 39.2017 Y 1.1166 Z -1.0000
G01 X 39.2017 Y 1.1166 Z -1.0000
G00 Z 5.0000

(End cutting path id: path35148)


(Start cutting path id: path35148)
(Change tool to Default tool)

G00 Z 5.0000
G00 X 39.2448 Y 1.1015

G01 Z -1.0000 F 100.0000(Penetrate)
G01 X 39.2466 Y 1.1059 Z -1.0000 F 3500.0000
G01 X 39.2510 Y 1.1077 Z -1.0000
G01 X 39.2554 Y 1.1059 Z -1.0000
G01 X 39.2572 Y 1.1015 Z -1.0000
G01 X 39.2554 Y 1.0971 Z -1.0000
G01 X 39.2510 Y 1.0953 Z -1.0000
G01 X 39.2466 Y 1.0971 Z -1.0000
G01 X 39.2448 Y 1.1015 Z -1.0000
G01 X 39.2448 Y 1.1015 Z -1.0000
G00 Z 5.0000

(End cutting path id: path35148)


(Start cutting path id: path35148)
(Change tool to Default tool)

G00 Z 5.0000
G00 X 39.1396 Y 1.0740

G01 Z -1.0000 F 100.0000(Penetrate)
G01 X 39.1420 Y 1.0794 Z -1.0000 F 3500.0000
G01 X 39.1459 Y 1.0798 Z -1.0000
G01 X 39.1494 Y 1.0752 Z -1.0000
G01 X 39.1486 Y 1.0702 Z -1.0000
G01 X 39.1433 Y 1.0685 Z -1.0000
G01 X 39.1396 Y 1.0741 Z -1.0000
G01 X 39.1396 Y 1.0740 Z -1.0000
G00 Z 5.0000

(End cutting path id: path35148)


(Start cutting path id: path35148)
(Change tool to Default tool)

G00 Z 5.0000
G00 X 39.1396 Y 0.9033

G01 Z -1.0000 F 100.0000(Penetrate)
G01 X 39.1414 Y 0.9077 Z -1.0000 F 3500.0000
G01 X 39.1458 Y 0.9095 Z -1.0000
G01 X 39.1502 Y 0.9077 Z -1.0000
G01 X 39.1520 Y 0.9033 Z -1.0000
G01 X 39.1502 Y 0.8989 Z -1.0000
G01 X 39.1458 Y 0.8971 Z -1.0000
G01 X 39.1414 Y 0.8989 Z -1.0000
G01 X 39.1396 Y 0.9033 Z -1.0000
G01 X 39.1396 Y 0.9033 Z -1.0000
G00 Z 5.0000

(End cutting path id: path35148)


(Start cutting path id: path35148)
(Change tool to Default tool)

G00 Z 5.0000
G00 X 38.9757 Y 1.1262

G01 Z -1.0000 F 100.0000(Penetrate)
G01 X 38.9803 Y 1.1310 Z -1.0000 F 3500.0000
G01 X 38.9853 Y 1.1324 Z -1.0000
G01 X 38.9893 Y 1.1307 Z -1.0000
G01 X 38.9911 Y 1.1262 Z -1.0000
G01 X 38.9889 Y 1.1222 Z -1.0000
G01 X 38.9815 Y 1.1200 Z -1.0000
G01 X 38.9761 Y 1.1224 Z -1.0000
G01 X 38.9757 Y 1.1262 Z -1.0000
G01 X 38.9757 Y 1.1262 Z -1.0000
G00 Z 5.0000

(End cutting path id: path35148)


(Start cutting path id: path35148)
(Change tool to Default tool)

G00 Z 5.0000
G00 X 39.0543 Y 1.2326

G01 Z -1.0000 F 100.0000(Penetrate)
G01 X 39.0484 Y 1.2452 Z -1.0000 F 3500.0000
G01 X 39.0528 Y 1.2499 Z -1.0000
G01 X 39.0576 Y 1.2479 Z -1.0000
G01 X 39.0654 Y 1.2375 Z -1.0000
G01 X 39.0631 Y 1.2310 Z -1.0000
G01 X 39.0542 Y 1.2326 Z -1.0000
G01 X 39.0543 Y 1.2326 Z -1.0000
G00 Z 5.0000

(End cutting path id: path35148)


(Start cutting path id: path35148)
(Change tool to Default tool)

G00 Z 5.0000
G00 X 38.8551 Y 1.0054

G01 Z -1.0000 F 100.0000(Penetrate)
G01 X 38.8575 Y 1.0123 Z -1.0000 F 3500.0000
G01 X 38.8617 Y 1.0135 Z -1.0000
G01 X 38.8667 Y 1.0100 Z -1.0000
G01 X 38.8684 Y 1.0054 Z -1.0000
G01 X 38.8667 Y 1.0007 Z -1.0000
G01 X 38.8617 Y 0.9973 Z -1.0000
G01 X 38.8575 Y 0.9985 Z -1.0000
G01 X 38.8551 Y 1.0054 Z -1.0000
G01 X 38.8551 Y 1.0054 Z -1.0000
G00 Z 5.0000

(End cutting path id: path35148)


(Start cutting path id: path35148)
(Change tool to Default tool)

G00 Z 5.0000
G00 X 38.7190 Y 1.0458

G01 Z -1.0000 F 100.0000(Penetrate)
G01 X 38.7208 Y 1.0501 Z -1.0000 F 3500.0000
G01 X 38.7252 Y 1.0520 Z -1.0000
G01 X 38.7296 Y 1.0501 Z -1.0000
G01 X 38.7314 Y 1.0458 Z -1.0000
G01 X 38.7296 Y 1.0414 Z -1.0000
G01 X 38.7252 Y 1.0396 Z -1.0000
G01 X 38.7208 Y 1.0414 Z -1.0000
G01 X 38.7190 Y 1.0458 Z -1.0000
G01 X 38.7190 Y 1.0458 Z -1.0000
G00 Z 5.0000

(End cutting path id: path35148)


(Start cutting path id: path35148)
(Change tool to Default tool)

G00 Z 5.0000
G00 X 38.6736 Y 1.0863

G01 Z -1.0000 F 100.0000(Penetrate)
G01 X 38.6825 Y 1.0941 Z -1.0000 F 3500.0000
G01 X 38.6880 Y 1.0897 Z -1.0000
G01 X 38.6863 Y 1.0854 Z -1.0000
G01 X 38.6790 Y 1.0807 Z -1.0000
G01 X 38.6745 Y 1.0817 Z -1.0000
G01 X 38.6735 Y 1.0862 Z -1.0000
G01 X 38.6736 Y 1.0863 Z -1.0000
G00 Z 5.0000

(End cutting path id: path35148)


(Start cutting path id: path35148)
(Change tool to Default tool)

G00 Z 5.0000
G00 X 38.6602 Y 1.3118

G01 Z -1.0000 F 100.0000(Penetrate)
G01 X 38.6599 Y 1.3160 Z -1.0000 F 3500.0000
G01 X 38.6629 Y 1.3180 Z -1.0000
G01 X 38.6676 Y 1.3161 Z -1.0000
G01 X 38.6695 Y 1.3118 Z -1.0000
G01 X 38.6668 Y 1.3056 Z -1.0000
G01 X 38.6646 Y 1.3065 Z -1.0000
G01 X 38.6602 Y 1.3118 Z -1.0000
G01 X 38.6602 Y 1.3118 Z -1.0000
G00 Z 5.0000

(End cutting path id: path35148)


(Start cutting path id: path35148)
(Change tool to Default tool)

G00 Z 5.0000
G00 X 38.4999 Y 1.2800

G01 Z -1.0000 F 100.0000(Penetrate)
G01 X 38.4973 Y 1.2876 Z -1.0000 F 3500.0000
G01 X 38.4988 Y 1.2916 Z -1.0000
G01 X 38.5056 Y 1.2911 Z -1.0000
G01 X 38.5074 Y 1.2800 Z -1.0000
G01 X 38.5041 Y 1.2777 Z -1.0000
G01 X 38.5000 Y 1.2800 Z -1.0000
G01 X 38.4999 Y 1.2800 Z -1.0000
G00 Z 5.0000

(End cutting path id: path35148)


(Start cutting path id: path35148)
(Change tool to Default tool)

G00 Z 5.0000
G00 X 38.3787 Y 1.3511

G01 Z -1.0000 F 100.0000(Penetrate)
G01 X 38.3880 Y 1.3571 Z -1.0000 F 3500.0000
G01 X 38.3952 Y 1.3575 Z -1.0000
G01 X 38.3973 Y 1.3547 Z -1.0000
G01 X 38.3952 Y 1.3508 Z -1.0000
G01 X 38.3880 Y 1.3487 Z -1.0000
G01 X 38.3787 Y 1.3511 Z -1.0000
G01 X 38.3787 Y 1.3511 Z -1.0000
G00 Z 5.0000

(End cutting path id: path35148)


(Start cutting path id: path35148)
(Change tool to Default tool)

G00 Z 5.0000
G00 X 38.3638 Y 1.3602

G01 Z -1.0000 F 100.0000(Penetrate)
G01 X 38.3612 Y 1.3677 Z -1.0000 F 3500.0000
G01 X 38.3627 Y 1.3717 Z -1.0000
G01 X 38.3695 Y 1.3712 Z -1.0000
G01 X 38.3713 Y 1.3602 Z -1.0000
G01 X 38.3680 Y 1.3578 Z -1.0000
G01 X 38.3639 Y 1.3602 Z -1.0000
G01 X 38.3638 Y 1.3602 Z -1.0000
G00 Z 5.0000

(End cutting path id: path35148)


(Start cutting path id: path35148)
(Change tool to Default tool)

G00 Z 5.0000
G00 X 38.4808 Y 1.9300

G01 Z -1.0000 F 100.0000(Penetrate)
G01 X 38.4854 Y 1.9347 Z -1.0000 F 3500.0000
G01 X 38.4904 Y 1.9362 Z -1.0000
G01 X 38.4945 Y 1.9344 Z -1.0000
G01 X 38.4962 Y 1.9300 Z -1.0000
G01 X 38.4940 Y 1.9260 Z -1.0000
G01 X 38.4866 Y 1.9238 Z -1.0000
G01 X 38.4812 Y 1.9262 Z -1.0000
G01 X 38.4808 Y 1.9300 Z -1.0000
G01 X 38.4808 Y 1.9300 Z -1.0000
G00 Z 5.0000

(End cutting path id: path35148)


(Start cutting path id: path35148)
(Change tool to Default tool)

G00 Z 5.0000
G00 X 38.5210 Y 1.9424

G01 Z -1.0000 F 100.0000(Penetrate)
G01 X 38.5232 Y 1.9464 Z -1.0000 F 3500.0000
G01 X 38.5306 Y 1.9486 Z -1.0000
G01 X 38.5360 Y 1.9462 Z -1.0000
G01 X 38.5364 Y 1.9424 Z -1.0000
G01 X 38.5318 Y 1.9377 Z -1.0000
G01 X 38.5268 Y 1.9362 Z -1.0000
G01 X 38.5228 Y 1.9380 Z -1.0000
G01 X 38.5210 Y 1.9424 Z -1.0000
G01 X 38.5210 Y 1.9424 Z -1.0000
G00 Z 5.0000

(End cutting path id: path35148)


(Start cutting path id: path35148)
(Change tool to Default tool)

G00 Z 5.0000
G00 X 38.4097 Y 1.9761

G01 Z -1.0000 F 100.0000(Penetrate)
G01 X 38.4119 Y 1.9835 Z -1.0000 F 3500.0000
G01 X 38.4159 Y 1.9857 Z -1.0000
G01 X 38.4203 Y 1.9839 Z -1.0000
G01 X 38.4221 Y 1.9799 Z -1.0000
G01 X 38.4206 Y 1.9749 Z -1.0000
G01 X 38.4159 Y 1.9703 Z -1.0000
G01 X 38.4120 Y 1.9706 Z -1.0000
G01 X 38.4097 Y 1.9761 Z -1.0000
G01 X 38.4097 Y 1.9761 Z -1.0000
G00 Z 5.0000

(End cutting path id: path35148)


(Start cutting path id: path35148)
(Change tool to Default tool)

G00 Z 5.0000
G00 X 38.3664 Y 1.9548

G01 Z -1.0000 F 100.0000(Penetrate)
G01 X 38.3682 Y 1.9592 Z -1.0000 F 3500.0000
G01 X 38.3726 Y 1.9610 Z -1.0000
G01 X 38.3769 Y 1.9592 Z -1.0000
G01 X 38.3788 Y 1.9548 Z -1.0000
G01 X 38.3769 Y 1.9504 Z -1.0000
G01 X 38.3726 Y 1.9486 Z -1.0000
G01 X 38.3682 Y 1.9504 Z -1.0000
G01 X 38.3664 Y 1.9548 Z -1.0000
G01 X 38.3664 Y 1.9548 Z -1.0000
G00 Z 5.0000

(End cutting path id: path35148)


(Start cutting path id: path35148)
(Change tool to Default tool)

G00 Z 5.0000
G00 X 38.2674 Y 2.2273

G01 Z -1.0000 F 100.0000(Penetrate)
G01 X 38.2692 Y 2.2317 Z -1.0000 F 3500.0000
G01 X 38.2736 Y 2.2335 Z -1.0000
G01 X 38.2780 Y 2.2317 Z -1.0000
G01 X 38.2798 Y 2.2273 Z -1.0000
G01 X 38.2780 Y 2.2229 Z -1.0000
G01 X 38.2736 Y 2.2211 Z -1.0000
G01 X 38.2692 Y 2.2229 Z -1.0000
G01 X 38.2674 Y 2.2273 Z -1.0000
G01 X 38.2674 Y 2.2273 Z -1.0000
G00 Z 5.0000

(End cutting path id: path35148)


(Start cutting path id: path35148)
(Change tool to Default tool)

G00 Z 5.0000
G00 X 38.7623 Y 2.1097

G01 Z -1.0000 F 100.0000(Penetrate)
G01 X 38.7641 Y 2.1140 Z -1.0000 F 3500.0000
G01 X 38.7689 Y 2.1159 Z -1.0000
G01 X 38.7719 Y 2.1140 Z -1.0000
G01 X 38.7716 Y 2.1097 Z -1.0000
G01 X 38.7672 Y 2.1044 Z -1.0000
G01 X 38.7650 Y 2.1035 Z -1.0000
G01 X 38.7623 Y 2.1097 Z -1.0000
G01 X 38.7623 Y 2.1097 Z -1.0000
G00 Z 5.0000

(End cutting path id: path35148)


(Start cutting path id: path35148)
(Change tool to Default tool)

G00 Z 5.0000
G00 X 38.7654 Y 1.8990

G01 Z -1.0000 F 100.0000(Penetrate)
G01 X 38.7697 Y 1.9043 Z -1.0000 F 3500.0000
G01 X 38.7720 Y 1.9052 Z -1.0000
G01 X 38.7747 Y 1.8990 Z -1.0000
G01 X 38.7728 Y 1.8947 Z -1.0000
G01 X 38.7681 Y 1.8928 Z -1.0000
G01 X 38.7651 Y 1.8948 Z -1.0000
G01 X 38.7654 Y 1.8990 Z -1.0000
G01 X 38.7654 Y 1.8990 Z -1.0000
G00 Z 5.0000

(End cutting path id: path35148)


(Start cutting path id: path35148)
(Change tool to Default tool)

G00 Z 5.0000
G00 X 38.8643 Y 1.8990

G01 Z -1.0000 F 100.0000(Penetrate)
G01 X 38.8687 Y 1.9043 Z -1.0000 F 3500.0000
G01 X 38.8709 Y 1.9052 Z -1.0000
G01 X 38.8736 Y 1.8990 Z -1.0000
G01 X 38.8718 Y 1.8947 Z -1.0000
G01 X 38.8670 Y 1.8928 Z -1.0000
G01 X 38.8640 Y 1.8948 Z -1.0000
G01 X 38.8643 Y 1.8990 Z -1.0000
G01 X 38.8643 Y 1.8990 Z -1.0000
G00 Z 5.0000

(End cutting path id: path35148)


(Start cutting path id: path35148)
(Change tool to Default tool)

G00 Z 5.0000
G00 X 38.9231 Y 1.8681

G01 Z -1.0000 F 100.0000(Penetrate)
G01 X 38.9267 Y 1.8768 Z -1.0000 F 3500.0000
G01 X 38.9355 Y 1.8805 Z -1.0000
G01 X 38.9434 Y 1.8745 Z -1.0000
G01 X 38.9404 Y 1.8631 Z -1.0000
G01 X 38.9290 Y 1.8602 Z -1.0000
G01 X 38.9231 Y 1.8680 Z -1.0000
G01 X 38.9231 Y 1.8681 Z -1.0000
G00 Z 5.0000

(End cutting path id: path35148)


(Start cutting path id: path35148)
(Change tool to Default tool)

G00 Z 5.0000
G00 X 38.9275 Y 1.8285

G01 Z -1.0000 F 100.0000(Penetrate)
G01 X 38.9275 Y 1.8366 Z -1.0000 F 3500.0000
G01 X 38.9346 Y 1.8379 Z -1.0000
G01 X 38.9401 Y 1.8314 Z -1.0000
G01 X 38.9408 Y 1.8231 Z -1.0000
G01 X 38.9370 Y 1.8211 Z -1.0000
G01 X 38.9275 Y 1.8285 Z -1.0000
G01 X 38.9275 Y 1.8285 Z -1.0000
G00 Z 5.0000

(End cutting path id: path35148)


(Start cutting path id: path35148)
(Change tool to Default tool)

G00 Z 5.0000
G00 X 39.0542 Y 1.7944

G01 Z -1.0000 F 100.0000(Penetrate)
G01 X 39.0577 Y 1.7994 Z -1.0000 F 3500.0000
G01 X 39.0623 Y 1.8011 Z -1.0000
G01 X 39.0670 Y 1.7994 Z -1.0000
G01 X 39.0704 Y 1.7944 Z -1.0000
G01 X 39.0692 Y 1.7902 Z -1.0000
G01 X 39.0623 Y 1.7877 Z -1.0000
G01 X 39.0554 Y 1.7902 Z -1.0000
G01 X 39.0542 Y 1.7944 Z -1.0000
G01 X 39.0542 Y 1.7944 Z -1.0000
G00 Z 5.0000

(End cutting path id: path35148)


(Start cutting path id: path35148)
(Change tool to Default tool)

G00 Z 5.0000
G00 X 39.0500 Y 1.9363

G01 Z -1.0000 F 100.0000(Penetrate)
G01 X 39.0546 Y 1.9398 Z -1.0000 F 3500.0000
G01 X 39.0596 Y 1.9390 Z -1.0000
G01 X 39.0613 Y 1.9337 Z -1.0000
G01 X 39.0557 Y 1.9300 Z -1.0000
G01 X 39.0503 Y 1.9324 Z -1.0000
G01 X 39.0499 Y 1.9363 Z -1.0000
G01 X 39.0500 Y 1.9363 Z -1.0000
G00 Z 5.0000

(End cutting path id: path35148)


(Start cutting path id: path35148)
(Change tool to Default tool)

G00 Z 5.0000
G00 X 39.0597 Y 2.0079

G01 Z -1.0000 F 100.0000(Penetrate)
G01 X 39.0634 Y 2.0116 Z -1.0000 F 3500.0000
G01 X 39.0647 Y 2.0038 Z -1.0000
G01 X 39.0629 Y 1.9997 Z -1.0000
G01 X 39.0597 Y 2.0078 Z -1.0000
G01 X 39.0597 Y 2.0079 Z -1.0000
G00 Z 5.0000

(End cutting path id: path35148)


(Start cutting path id: path35148)
(Change tool to Default tool)

G00 Z 5.0000
G00 X 39.1025 Y 2.0356

G01 Z -1.0000 F 100.0000(Penetrate)
G01 X 39.1045 Y 2.0386 Z -1.0000 F 3500.0000
G01 X 39.1087 Y 2.0383 Z -1.0000
G01 X 39.1140 Y 2.0339 Z -1.0000
G01 X 39.1149 Y 2.0317 Z -1.0000
G01 X 39.1087 Y 2.0290 Z -1.0000
G01 X 39.1044 Y 2.0308 Z -1.0000
G01 X 39.1025 Y 2.0356 Z -1.0000
G01 X 39.1025 Y 2.0356 Z -1.0000
G00 Z 5.0000

(End cutting path id: path35148)


(Start cutting path id: path35148)
(Change tool to Default tool)

G00 Z 5.0000
G00 X 39.2757 Y 1.8592

G01 Z -1.0000 F 100.0000(Penetrate)
G01 X 39.2781 Y 1.8646 Z -1.0000 F 3500.0000
G01 X 39.2820 Y 1.8650 Z -1.0000
G01 X 39.2855 Y 1.8604 Z -1.0000
G01 X 39.2847 Y 1.8554 Z -1.0000
G01 X 39.2794 Y 1.8537 Z -1.0000
G01 X 39.2757 Y 1.8593 Z -1.0000
G01 X 39.2757 Y 1.8592 Z -1.0000
G00 Z 5.0000

(End cutting path id: path35148)


(Start cutting path id: path35148)
(Change tool to Default tool)

G00 Z 5.0000
G00 X 39.3438 Y 1.7410

G01 Z -1.0000 F 100.0000(Penetrate)
G01 X 39.3460 Y 1.7484 Z -1.0000 F 3500.0000
G01 X 39.3500 Y 1.7506 Z -1.0000
G01 X 39.3544 Y 1.7488 Z -1.0000
G01 X 39.3562 Y 1.7448 Z -1.0000
G01 X 39.3547 Y 1.7398 Z -1.0000
G01 X 39.3500 Y 1.7352 Z -1.0000
G01 X 39.3461 Y 1.7356 Z -1.0000
G01 X 39.3438 Y 1.7410 Z -1.0000
G01 X 39.3438 Y 1.7410 Z -1.0000
G00 Z 5.0000

(End cutting path id: path35148)


(Start cutting path id: path35148)
(Change tool to Default tool)

G00 Z 5.0000
G00 X 39.3747 Y 1.7433

G01 Z -1.0000 F 100.0000(Penetrate)
G01 X 39.3811 Y 1.7559 Z -1.0000 F 3500.0000
G01 X 39.3907 Y 1.7552 Z -1.0000
G01 X 39.3841 Y 1.7445 Z -1.0000
G01 X 39.3747 Y 1.7433 Z -1.0000
G01 X 39.3747 Y 1.7433 Z -1.0000
G00 Z 5.0000

(End cutting path id: path35148)


(Start cutting path id: path35148)
(Change tool to Default tool)

G00 Z 5.0000
G00 X 39.4737 Y 1.8867

G01 Z -1.0000 F 100.0000(Penetrate)
G01 X 39.4755 Y 1.8910 Z -1.0000 F 3500.0000
G01 X 39.4799 Y 1.8929 Z -1.0000
G01 X 39.4843 Y 1.8910 Z -1.0000
G01 X 39.4861 Y 1.8867 Z -1.0000
G01 X 39.4843 Y 1.8823 Z -1.0000
G01 X 39.4799 Y 1.8805 Z -1.0000
G01 X 39.4755 Y 1.8823 Z -1.0000
G01 X 39.4737 Y 1.8867 Z -1.0000
G01 X 39.4737 Y 1.8867 Z -1.0000
G00 Z 5.0000

(End cutting path id: path35148)


(Start cutting path id: path35148)
(Change tool to Default tool)

G00 Z 5.0000
G00 X 39.5170 Y 1.9056

G01 Z -1.0000 F 100.0000(Penetrate)
G01 X 39.5190 Y 1.9086 Z -1.0000 F 3500.0000
G01 X 39.5232 Y 1.9083 Z -1.0000
G01 X 39.5285 Y 1.9040 Z -1.0000
G01 X 39.5294 Y 1.9017 Z -1.0000
G01 X 39.5232 Y 1.8990 Z -1.0000
G01 X 39.5189 Y 1.9009 Z -1.0000
G01 X 39.5170 Y 1.9056 Z -1.0000
G01 X 39.5170 Y 1.9056 Z -1.0000
G00 Z 5.0000

(End cutting path id: path35148)


(Start cutting path id: path35148)
(Change tool to Default tool)

G00 Z 5.0000
G00 X 39.3623 Y 2.0285

G01 Z -1.0000 F 100.0000(Penetrate)
G01 X 39.3677 Y 2.0358 Z -1.0000 F 3500.0000
G02 X 39.4022 Y 2.0413 Z -1.0000 I 0.0354 J -0.1101
G01 X 39.4039 Y 2.0362 Z -1.0000
G02 X 39.3824 Y 2.0269 Z -1.0000 I -0.0312 J 0.0428
G02 X 39.3647 Y 2.0259 Z -1.0000 I -0.0125 J 0.0659
G01 X 39.3623 Y 2.0285 Z -1.0000
G01 X 39.3623 Y 2.0285 Z -1.0000
G00 Z 5.0000

(End cutting path id: path35148)


(Start cutting path id: path35148)
(Change tool to Default tool)

G00 Z 5.0000
G00 X 39.7248 Y 2.0219

G01 Z -1.0000 F 100.0000(Penetrate)
G01 X 39.7240 Y 2.0275 Z -1.0000 F 3500.0000
G01 X 39.7276 Y 2.0323 Z -1.0000
G01 X 39.7359 Y 2.0308 Z -1.0000
G01 X 39.7353 Y 2.0222 Z -1.0000
G01 X 39.7292 Y 2.0195 Z -1.0000
G01 X 39.7248 Y 2.0219 Z -1.0000
G01 X 39.7248 Y 2.0219 Z -1.0000
G00 Z 5.0000

(End cutting path id: path35148)


(Start cutting path id: path35148)
(Change tool to Default tool)

G00 Z 5.0000
G00 X 39.7644 Y 2.0105

G01 Z -1.0000 F 100.0000(Penetrate)
G01 X 39.7662 Y 2.0148 Z -1.0000 F 3500.0000
G01 X 39.7706 Y 2.0167 Z -1.0000
G01 X 39.7750 Y 2.0148 Z -1.0000
G01 X 39.7768 Y 2.0105 Z -1.0000
G01 X 39.7750 Y 2.0061 Z -1.0000
G01 X 39.7706 Y 2.0043 Z -1.0000
G01 X 39.7662 Y 2.0061 Z -1.0000
G01 X 39.7644 Y 2.0105 Z -1.0000
G01 X 39.7644 Y 2.0105 Z -1.0000
G00 Z 5.0000

(End cutting path id: path35148)


(Start cutting path id: path35148)
(Change tool to Default tool)

G00 Z 5.0000
G00 X 39.7985 Y 1.9734

G01 Z -1.0000 F 100.0000(Penetrate)
G01 X 39.7982 Y 1.9776 Z -1.0000 F 3500.0000
G01 X 39.8012 Y 1.9796 Z -1.0000
G01 X 39.8059 Y 1.9777 Z -1.0000
G01 X 39.8078 Y 1.9734 Z -1.0000
G01 X 39.8051 Y 1.9672 Z -1.0000
G01 X 39.8028 Y 1.9681 Z -1.0000
G01 X 39.7985 Y 1.9734 Z -1.0000
G01 X 39.7985 Y 1.9734 Z -1.0000
G00 Z 5.0000

(End cutting path id: path35148)


(Start cutting path id: path35148)
(Change tool to Default tool)

G00 Z 5.0000
G00 X 39.8763 Y 1.9460

G01 Z -1.0000 F 100.0000(Penetrate)
G01 X 39.8800 Y 1.9497 Z -1.0000 F 3500.0000
G01 X 39.8813 Y 1.9420 Z -1.0000
G01 X 39.8795 Y 1.9378 Z -1.0000
G01 X 39.8763 Y 1.9459 Z -1.0000
G01 X 39.8763 Y 1.9460 Z -1.0000
G00 Z 5.0000

(End cutting path id: path35148)


(Start cutting path id: path35148)
(Change tool to Default tool)

G00 Z 5.0000
G00 X 39.7521 Y 1.8743

G01 Z -1.0000 F 100.0000(Penetrate)
G01 X 39.7538 Y 1.8787 Z -1.0000 F 3500.0000
G01 X 39.7579 Y 1.8805 Z -1.0000
G01 X 39.7628 Y 1.8790 Z -1.0000
G01 X 39.7675 Y 1.8743 Z -1.0000
G01 X 39.7671 Y 1.8704 Z -1.0000
G01 X 39.7617 Y 1.8681 Z -1.0000
G01 X 39.7542 Y 1.8703 Z -1.0000
G01 X 39.7521 Y 1.8743 Z -1.0000
G01 X 39.7521 Y 1.8743 Z -1.0000
G00 Z 5.0000

(End cutting path id: path35148)


(Start cutting path id: path35148)
(Change tool to Default tool)

G00 Z 5.0000
G00 X 39.7645 Y 1.8542

G01 Z -1.0000 F 100.0000(Penetrate)
G01 X 39.7692 Y 1.8588 Z -1.0000 F 3500.0000
G03 X 39.7741 Y 1.8529 Z -1.0000 I 0.0512 J 0.0377
G03 X 39.7795 Y 1.8480 Z -1.0000 I 0.0393 J 0.0369
G01 X 39.7748 Y 1.8434 Z -1.0000
G01 X 39.7676 Y 1.8464 Z -1.0000
G01 X 39.7645 Y 1.8542 Z -1.0000
G01 X 39.7645 Y 1.8542 Z -1.0000
G00 Z 5.0000

(End cutting path id: path35148)


(Start cutting path id: path35148)
(Change tool to Default tool)

G00 Z 5.0000
G00 X 39.7644 Y 1.7308

G01 Z -1.0000 F 100.0000(Penetrate)
G01 X 39.7661 Y 1.7360 Z -1.0000 F 3500.0000
G01 X 39.7744 Y 1.7450 Z -1.0000
G01 X 39.7800 Y 1.7458 Z -1.0000
G01 X 39.7821 Y 1.7416 Z -1.0000
G01 X 39.7718 Y 1.7266 Z -1.0000
G01 X 39.7644 Y 1.7307 Z -1.0000
G01 X 39.7644 Y 1.7308 Z -1.0000
G00 Z 5.0000

(End cutting path id: path35148)


(Start cutting path id: path35148)
(Change tool to Default tool)

G00 Z 5.0000
G00 X 39.7830 Y 1.7135

G01 Z -1.0000 F 100.0000(Penetrate)
G01 X 39.7848 Y 1.7179 Z -1.0000 F 3500.0000
G01 X 39.7892 Y 1.7197 Z -1.0000
G01 X 39.7936 Y 1.7179 Z -1.0000
G01 X 39.7954 Y 1.7135 Z -1.0000
G01 X 39.7936 Y 1.7091 Z -1.0000
G01 X 39.7892 Y 1.7073 Z -1.0000
G01 X 39.7848 Y 1.7091 Z -1.0000
G01 X 39.7830 Y 1.7135 Z -1.0000
G01 X 39.7830 Y 1.7135 Z -1.0000
G00 Z 5.0000

(End cutting path id: path35148)


(Start cutting path id: path35148)
(Change tool to Default tool)

G00 Z 5.0000
G00 X 39.7616 Y 1.6883

G01 Z -1.0000 F 100.0000(Penetrate)
G01 X 39.7633 Y 1.6975 Z -1.0000 F 3500.0000
G01 X 39.7729 Y 1.6968 Z -1.0000
G01 X 39.7761 Y 1.6871 Z -1.0000
G01 X 39.7710 Y 1.6826 Z -1.0000
G01 X 39.7660 Y 1.6840 Z -1.0000
G01 X 39.7616 Y 1.6884 Z -1.0000
G01 X 39.7616 Y 1.6883 Z -1.0000
G00 Z 5.0000

(End cutting path id: path35148)


(Start cutting path id: path35148)
(Change tool to Default tool)

G00 Z 5.0000
G00 X 39.8172 Y 1.6635

G01 Z -1.0000 F 100.0000(Penetrate)
G01 X 39.8159 Y 1.6673 Z -1.0000 F 3500.0000
G01 X 39.8218 Y 1.6715 Z -1.0000
G01 X 39.8353 Y 1.6707 Z -1.0000
G01 X 39.8386 Y 1.6663 Z -1.0000
G01 X 39.8344 Y 1.6614 Z -1.0000
G01 X 39.8171 Y 1.6635 Z -1.0000
G01 X 39.8172 Y 1.6635 Z -1.0000
G00 Z 5.0000

(End cutting path id: path35148)


(Start cutting path id: path35148)
(Change tool to Default tool)

G00 Z 5.0000
G00 X 39.8113 Y 1.6200

G01 Z -1.0000 F 100.0000(Penetrate)
G01 X 39.8088 Y 1.6276 Z -1.0000 F 3500.0000
G01 X 39.8102 Y 1.6316 Z -1.0000
G01 X 39.8170 Y 1.6311 Z -1.0000
G01 X 39.8188 Y 1.6200 Z -1.0000
G01 X 39.8156 Y 1.6177 Z -1.0000
G01 X 39.8114 Y 1.6200 Z -1.0000
G01 X 39.8113 Y 1.6200 Z -1.0000
G00 Z 5.0000

(End cutting path id: path35148)


(Start cutting path id: path35148)
(Change tool to Default tool)

G00 Z 5.0000
G00 X 39.7747 Y 1.6249

G01 Z -1.0000 F 100.0000(Penetrate)
G01 X 39.7717 Y 1.6295 Z -1.0000 F 3500.0000
G01 X 39.7706 Y 1.6354 Z -1.0000
G01 X 39.7779 Y 1.6345 Z -1.0000
G01 X 39.7827 Y 1.6272 Z -1.0000
G01 X 39.7820 Y 1.6240 Z -1.0000
G01 X 39.7788 Y 1.6229 Z -1.0000
G01 X 39.7747 Y 1.6249 Z -1.0000
G01 X 39.7747 Y 1.6249 Z -1.0000
G00 Z 5.0000

(End cutting path id: path35148)


(Start cutting path id: path35148)
(Change tool to Default tool)

G00 Z 5.0000
G00 X 39.6283 Y 1.6733

G01 Z -1.0000 F 100.0000(Penetrate)
G01 X 39.6304 Y 1.6805 Z -1.0000 F 3500.0000
G01 X 39.6343 Y 1.6826 Z -1.0000
G01 X 39.6372 Y 1.6804 Z -1.0000
G01 X 39.6367 Y 1.6733 Z -1.0000
G01 X 39.6307 Y 1.6640 Z -1.0000
G01 X 39.6283 Y 1.6733 Z -1.0000
G01 X 39.6283 Y 1.6733 Z -1.0000
G00 Z 5.0000

(End cutting path id: path35148)


(Start cutting path id: path35148)
(Change tool to Default tool)

G00 Z 5.0000
G00 X 39.8611 Y 1.0073

G01 Z -1.0000 F 100.0000(Penetrate)
G01 X 39.8589 Y 1.0147 Z -1.0000 F 3500.0000
G01 X 39.8609 Y 1.0219 Z -1.0000
G01 X 39.8519 Y 1.0256 Z -1.0000
G01 X 39.8404 Y 1.0264 Z -1.0000
G01 X 39.8323 Y 1.0338 Z -1.0000
G01 X 39.8102 Y 1.0542 Z -1.0000
G01 X 39.7919 Y 1.0516 Z -1.0000
G01 X 39.7858 Y 1.0503 Z -1.0000
G01 X 39.7830 Y 1.0541 Z -1.0000
G01 X 39.7737 Y 1.0662 Z -1.0000
G03 X 39.7308 Y 1.0686 Z -1.0000 I -0.0269 J -0.0968
G01 X 39.7162 Y 1.0707 Z -1.0000
G01 X 39.7133 Y 1.0771 Z -1.0000
G01 X 39.7092 Y 1.0842 Z -1.0000
G03 X 39.6600 Y 1.0916 Z -1.0000 I -0.0563 J -0.2071
G01 X 39.6480 Y 1.0958 Z -1.0000
G01 X 39.6398 Y 1.1068 Z -1.0000
G01 X 39.6311 Y 1.1159 Z -1.0000
G01 X 39.6135 Y 1.1181 Z -1.0000
G02 X 39.5936 Y 1.1177 Z -1.0000 I -0.0114 J 0.0688
G01 X 39.5860 Y 1.1214 Z -1.0000
G01 X 39.5792 Y 1.1241 Z -1.0000
G01 X 39.5706 Y 1.1208 Z -1.0000
G01 X 39.5505 Y 1.1156 Z -1.0000
G01 X 39.5417 Y 1.1262 Z -1.0000
G01 X 39.5397 Y 1.1297 Z -1.0000
G03 X 39.5225 Y 1.1378 Z -1.0000 I -0.0477 J -0.0788
G01 X 39.5039 Y 1.1403 Z -1.0000
G01 X 39.4905 Y 1.1355 Z -1.0000
G01 X 39.4778 Y 1.1307 Z -1.0000
G01 X 39.4695 Y 1.1332 Z -1.0000
G01 X 39.4610 Y 1.1373 Z -1.0000
G01 X 39.4530 Y 1.1367 Z -1.0000
G01 X 39.4455 Y 1.1369 Z -1.0000
G01 X 39.4344 Y 1.1453 Z -1.0000
G01 X 39.4178 Y 1.1556 Z -1.0000
G01 X 39.4118 Y 1.1509 Z -1.0000
G01 X 39.4100 Y 1.1465 Z -1.0000
G01 X 39.4056 Y 1.1447 Z -1.0000
G01 X 39.4016 Y 1.1469 Z -1.0000
G01 X 39.3994 Y 1.1540 Z -1.0000
G01 X 39.3946 Y 1.1613 Z -1.0000
G01 X 39.3760 Y 1.1637 Z -1.0000
G01 X 39.3687 Y 1.1648 Z -1.0000
G02 X 39.3503 Y 1.1753 Z -1.0000 I 0.0460 J 0.1014
G03 X 39.3318 Y 1.1859 Z -1.0000 I -0.0610 J -0.0854
G01 X 39.3218 Y 1.1880 Z -1.0000
G01 X 39.3124 Y 1.1905 Z -1.0000
G01 X 39.3034 Y 1.1985 Z -1.0000
G01 X 39.2938 Y 1.2054 Z -1.0000
G03 X 39.2656 Y 1.2104 Z -1.0000 I -0.0330 J -0.1055
G02 X 39.2355 Y 1.2118 Z -1.0000 I 0.1166 J 2.7147
G01 X 39.2330 Y 1.2122 Z -1.0000
G01 X 39.2423 Y 1.2260 Z -1.0000
G01 X 39.2432 Y 1.2331 Z -1.0000
G01 X 39.2371 Y 1.2361 Z -1.0000
G01 X 39.2235 Y 1.2372 Z -1.0000
G01 X 39.2201 Y 1.2421 Z -1.0000
G01 X 39.2173 Y 1.2454 Z -1.0000
G01 X 39.2108 Y 1.2436 Z -1.0000
G01 X 39.2035 Y 1.2350 Z -1.0000
G01 X 39.2015 Y 1.2274 Z -1.0000
G01 X 39.1994 Y 1.2210 Z -1.0000
G01 X 39.1955 Y 1.2189 Z -1.0000
G01 X 39.1926 Y 1.2211 Z -1.0000
G01 X 39.1931 Y 1.2282 Z -1.0000
G01 X 39.1923 Y 1.2346 Z -1.0000
G01 X 39.1867 Y 1.2375 Z -1.0000
G01 X 39.1791 Y 1.2351 Z -1.0000
G01 X 39.1768 Y 1.2306 Z -1.0000
G01 X 39.1741 Y 1.2274 Z -1.0000
G01 X 39.1628 Y 1.2280 Z -1.0000
G03 X 39.1488 Y 1.2316 Z -1.0000 I -0.0554 J -0.1856
G03 X 39.1405 Y 1.2328 Z -1.0000 I -0.0119 J -0.0544
G01 X 39.1331 Y 1.2356 Z -1.0000
G02 X 39.1102 Y 1.2556 Z -1.0000 I 0.1227 J 0.1638
G01 X 39.0917 Y 1.2638 Z -1.0000
G01 X 39.0866 Y 1.2581 Z -1.0000
G01 X 39.0715 Y 1.2668 Z -1.0000
G01 X 39.0556 Y 1.2787 Z -1.0000
G03 X 39.0274 Y 1.2848 Z -1.0000 I -0.0312 J -0.0761
G02 X 38.9687 Y 1.2916 Z -1.0000 I 0.0131 J 0.3731
G02 X 38.9181 Y 1.3062 Z -1.0000 I 0.0580 J 0.2956
G01 X 38.9085 Y 1.3040 Z -1.0000
G01 X 38.9037 Y 1.3039 Z -1.0000
G01 X 38.8943 Y 1.3091 Z -1.0000
G01 X 38.8910 Y 1.3084 Z -1.0000
G01 X 38.8873 Y 1.3073 Z -1.0000
G02 X 38.8699 Y 1.3124 Z -1.0000 I 0.0177 J 0.0920
G03 X 38.8517 Y 1.3176 Z -1.0000 I -0.0333 J -0.0817
G03 X 38.8343 Y 1.3186 Z -1.0000 I -0.0128 J -0.0736
G02 X 38.8173 Y 1.3201 Z -1.0000 I -0.0034 J 0.0601
G01 X 38.8081 Y 1.3246 Z -1.0000
G01 X 38.7989 Y 1.3286 Z -1.0000
G01 X 38.7834 Y 1.3276 Z -1.0000
G01 X 38.7687 Y 1.3278 Z -1.0000
G01 X 38.7595 Y 1.3341 Z -1.0000
G01 X 38.7406 Y 1.3407 Z -1.0000
G01 X 38.7337 Y 1.3271 Z -1.0000
G01 X 38.7160 Y 1.3327 Z -1.0000
G03 X 38.6990 Y 1.3436 Z -1.0000 I -0.0385 J -0.0414
G01 X 38.6878 Y 1.3444 Z -1.0000
G01 X 38.6763 Y 1.3441 Z -1.0000
G01 X 38.6660 Y 1.3492 Z -1.0000
G01 X 38.6555 Y 1.3549 Z -1.0000
G03 X 38.6367 Y 1.3587 Z -1.0000 I -0.0259 J -0.0809
G02 X 38.6171 Y 1.3612 Z -1.0000 I 0.0140 J 0.1871
G02 X 38.5893 Y 1.3672 Z -1.0000 I 0.0782 J 0.4300
G03 X 38.5617 Y 1.3718 Z -1.0000 I -0.0419 J -0.1633
G01 X 38.5476 Y 1.3707 Z -1.0000
G01 X 38.5360 Y 1.3703 Z -1.0000
G01 X 38.5334 Y 1.3735 Z -1.0000
G01 X 38.5308 Y 1.3772 Z -1.0000
G01 X 38.5153 Y 1.3798 Z -1.0000
G02 X 38.4984 Y 1.3820 Z -1.0000 I 0.0000 J 0.0637
G01 X 38.4933 Y 1.3859 Z -1.0000
G01 X 38.4887 Y 1.3881 Z -1.0000
G01 X 38.4776 Y 1.3845 Z -1.0000
G01 X 38.4662 Y 1.3812 Z -1.0000
G01 X 38.4581 Y 1.3846 Z -1.0000
G01 X 38.4367 Y 1.3940 Z -1.0000
G01 X 38.4283 Y 1.3860 Z -1.0000
G01 X 38.4259 Y 1.3822 Z -1.0000
G01 X 38.4155 Y 1.3798 Z -1.0000
G01 X 38.4077 Y 1.3825 Z -1.0000
G01 X 38.4070 Y 1.3866 Z -1.0000
G01 X 38.3984 Y 1.3894 Z -1.0000
G01 X 38.3859 Y 1.3885 Z -1.0000
G02 X 38.3676 Y 1.3946 Z -1.0000 I 0.0105 J 0.0617
G01 X 38.3504 Y 1.3998 Z -1.0000
G01 X 38.3431 Y 1.3972 Z -1.0000
G01 X 38.3356 Y 1.3942 Z -1.0000
G02 X 38.3165 Y 1.3975 Z -1.0000 I 0.0007 J 0.0609
G03 X 38.2963 Y 1.4031 Z -1.0000 I -0.0556 J -0.1604
G03 X 38.2832 Y 1.4045 Z -1.0000 I -0.0131 J -0.0613
G01 X 38.2708 Y 1.4067 Z -1.0000
G01 X 38.2624 Y 1.4121 Z -1.0000
G01 X 38.2535 Y 1.4166 Z -1.0000
G03 X 38.2023 Y 1.4210 Z -1.0000 I -0.0619 J -0.4170
G03 X 38.1545 Y 1.4177 Z -1.0000 I -0.0067 J -0.2511
G01 X 38.1499 Y 1.4123 Z -1.0000
G01 X 38.1473 Y 1.4096 Z -1.0000
G01 X 38.1422 Y 1.4119 Z -1.0000
G01 X 38.1325 Y 1.4179 Z -1.0000
G03 X 38.0726 Y 1.4259 Z -1.0000 I -0.0913 J -0.4552
G03 X 38.0107 Y 1.4295 Z -1.0000 I -0.2238 J -3.3096
G03 X 37.9952 Y 1.4297 Z -1.0000 I -0.0105 J -0.2149
G02 X 37.9799 Y 1.4310 Z -1.0000 I -0.0017 J 0.0693
G02 X 37.9395 Y 1.4407 Z -1.0000 I 0.1043 J 0.5235
G03 X 37.8994 Y 1.4500 Z -1.0000 I -0.1128 J -0.3953
G01 X 37.8914 Y 1.4494 Z -1.0000
G01 X 37.8839 Y 1.4492 Z -1.0000
G01 X 37.8742 Y 1.4544 Z -1.0000
G01 X 37.8638 Y 1.4596 Z -1.0000
G03 X 37.8347 Y 1.4637 Z -1.0000 I -0.0384 J -0.1662
G02 X 37.8047 Y 1.4663 Z -1.0000 I 0.0210 J 0.4108
G02 X 37.7927 Y 1.4690 Z -1.0000 I 0.0081 J 0.0650
G01 X 37.7817 Y 1.4688 Z -1.0000
G01 X 37.7659 Y 1.4597 Z -1.0000
G01 X 37.7509 Y 1.4466 Z -1.0000
G01 X 37.7491 Y 1.4616 Z -1.0000
G01 X 37.7422 Y 1.4707 Z -1.0000
G03 X 37.7136 Y 1.4761 Z -1.0000 I -0.0277 J -0.0679
G03 X 37.6836 Y 1.4720 Z -1.0000 I 0.0016 J -0.1241
G01 X 37.6798 Y 1.4672 Z -1.0000
G01 X 37.6586 Y 1.4749 Z -1.0000
G03 X 37.6277 Y 1.4880 Z -1.0000 I -0.0408 J -0.0535
G01 X 37.6118 Y 1.4819 Z -1.0000
G01 X 37.6033 Y 1.4781 Z -1.0000
G01 X 37.5864 Y 1.4832 Z -1.0000
G01 X 37.5692 Y 1.4890 Z -1.0000
G01 X 37.5611 Y 1.4862 Z -1.0000
G01 X 37.5497 Y 1.4833 Z -1.0000
G01 X 37.5437 Y 1.4914 Z -1.0000
G01 X 37.5408 Y 1.5006 Z -1.0000
G01 X 37.5360 Y 1.5026 Z -1.0000
G02 X 37.4859 Y 1.5026 Z -1.0000 I -0.0249 J 0.1309
G01 X 37.4662 Y 1.5162 Z -1.0000
G01 X 37.4613 Y 1.5197 Z -1.0000
G03 X 37.4367 Y 1.5221 Z -1.0000 I -0.0246 J -0.1213
G02 X 37.4110 Y 1.5241 Z -1.0000 I 0.0007 J 0.1821
G02 X 37.3526 Y 1.5345 Z -1.0000 I 0.1367 J 0.9324
G03 X 37.2512 Y 1.5479 Z -1.0000 I -0.1385 J -0.6564
G01 X 37.2377 Y 1.5409 Z -1.0000
G01 X 37.2261 Y 1.5363 Z -1.0000
G01 X 37.2090 Y 1.5485 Z -1.0000
G01 X 37.2042 Y 1.5505 Z -1.0000
G03 X 37.1861 Y 1.5443 Z -1.0000 I 0.0117 J -0.0638
G01 X 37.1664 Y 1.5437 Z -1.0000
G01 X 37.1670 Y 1.5497 Z -1.0000
G01 X 37.1615 Y 1.5530 Z -1.0000
G01 X 37.1506 Y 1.5505 Z -1.0000
G01 X 37.1460 Y 1.5453 Z -1.0000
G01 X 37.1422 Y 1.5435 Z -1.0000
G01 X 37.1345 Y 1.5488 Z -1.0000
G03 X 37.0775 Y 1.5796 Z -1.0000 I -0.0630 J -0.0486
G01 X 37.0404 Y 1.5561 Z -1.0000
G01 X 37.0313 Y 1.5521 Z -1.0000
G01 X 37.0241 Y 1.5626 Z -1.0000
G01 X 37.0138 Y 1.5774 Z -1.0000
G01 X 36.9909 Y 1.5748 Z -1.0000
G02 X 36.9610 Y 1.5651 Z -1.0000 I -0.0324 J 0.0495
G01 X 36.9439 Y 1.5728 Z -1.0000
G01 X 36.9329 Y 1.5811 Z -1.0000
G01 X 36.9159 Y 1.5853 Z -1.0000
G02 X 36.8979 Y 1.5881 Z -1.0000 I 0.0053 J 0.0913
G01 X 36.8897 Y 1.5921 Z -1.0000
G01 X 36.8833 Y 1.5930 Z -1.0000
G01 X 36.8782 Y 1.5880 Z -1.0000
G01 X 36.8732 Y 1.5849 Z -1.0000
G01 X 36.8642 Y 1.5897 Z -1.0000
G03 X 36.8063 Y 1.6203 Z -1.0000 I -0.0690 J -0.0605
G01 X 36.7829 Y 1.5996 Z -1.0000
G01 X 36.7766 Y 1.5945 Z -1.0000
G01 X 36.7629 Y 1.6040 Z -1.0000
G01 X 36.7519 Y 1.6115 Z -1.0000
G01 X 36.7364 Y 1.6099 Z -1.0000
G01 X 36.7204 Y 1.6065 Z -1.0000
G01 X 36.7140 Y 1.6100 Z -1.0000
G01 X 36.7080 Y 1.6137 Z -1.0000
G01 X 36.6982 Y 1.6113 Z -1.0000
G01 X 36.6871 Y 1.6081 Z -1.0000
G02 X 36.6693 Y 1.6113 Z -1.0000 I -0.0000 J 0.0519
G01 X 36.6530 Y 1.6138 Z -1.0000
G01 X 36.6484 Y 1.6103 Z -1.0000
G01 X 36.6403 Y 1.6050 Z -1.0000
G01 X 36.6344 Y 1.6113 Z -1.0000
G01 X 36.6305 Y 1.6162 Z -1.0000
G03 X 36.5949 Y 1.6203 Z -1.0000 I -0.0367 J -0.1614
G02 X 36.5555 Y 1.6212 Z -1.0000 I 0.0101 J 1.3197
G01 X 36.5500 Y 1.6220 Z -1.0000
G03 X 36.4844 Y 1.6259 Z -1.0000 I -0.0426 J -0.1634
G03 X 36.4067 Y 1.6024 Z -1.0000 I 0.0356 J -0.2580
G02 X 36.3180 Y 1.5833 Z -1.0000 I -0.0837 J 0.1733
G02 X 36.2650 Y 1.6060 Z -1.0000 I 0.0020 J 0.0779
G01 X 36.2555 Y 1.6106 Z -1.0000
G01 X 36.2471 Y 1.6081 Z -1.0000
G01 X 36.2385 Y 1.6071 Z -1.0000
G01 X 36.2195 Y 1.6281 Z -1.0000
G03 X 36.1721 Y 1.6136 Z -1.0000 I -0.0063 J -0.0644
G01 X 36.1657 Y 1.6124 Z -1.0000
G01 X 36.1606 Y 1.6171 Z -1.0000
G01 X 36.1516 Y 1.6236 Z -1.0000
G03 X 36.0839 Y 1.6198 Z -1.0000 I -0.0131 J -0.3805
G01 X 36.0746 Y 1.6195 Z -1.0000
G02 X 36.0467 Y 1.6228 Z -1.0000 I 0.0306 J 0.3778
G03 X 36.0188 Y 1.6258 Z -1.0000 I -0.0431 J -0.2750
G03 X 35.9323 Y 1.6291 Z -1.0000 I -0.1502 J -2.7566
G02 X 35.8461 Y 1.6332 Z -1.0000 I 0.0419 J 1.8148
G01 X 35.8349 Y 1.6360 Z -1.0000
G01 X 35.8274 Y 1.6356 Z -1.0000
G01 X 35.8239 Y 1.6294 Z -1.0000
G01 X 35.8185 Y 1.6263 Z -1.0000
G01 X 35.8113 Y 1.6314 Z -1.0000
G03 X 35.7800 Y 1.6351 Z -1.0000 I -0.0327 J -0.1420
G02 X 35.7481 Y 1.6381 Z -1.0000 I 0.0021 J 0.1939
G01 X 35.7426 Y 1.6417 Z -1.0000
G01 X 35.7372 Y 1.6457 Z -1.0000
G03 X 35.7148 Y 1.6498 Z -1.0000 I -0.0307 J -0.1041
G02 X 35.6911 Y 1.6518 Z -1.0000 I 0.2234 J 2.9126
G03 X 35.6602 Y 1.6543 Z -1.0000 I -1.0445 J -12.3057
G03 X 35.6298 Y 1.6543 Z -1.0000 I -0.0151 J -0.1831
G01 X 35.6176 Y 1.6507 Z -1.0000
G01 X 35.6068 Y 1.6480 Z -1.0000
G01 X 35.6021 Y 1.6504 Z -1.0000
G01 X 35.5746 Y 1.6673 Z -1.0000
G03 X 35.5325 Y 1.6576 Z -1.0000 I -0.0070 J -0.0660
G01 X 35.5252 Y 1.6562 Z -1.0000
G01 X 35.5200 Y 1.6596 Z -1.0000
G01 X 35.5150 Y 1.6623 Z -1.0000
G01 X 35.5065 Y 1.6590 Z -1.0000
G01 X 35.4983 Y 1.6569 Z -1.0000
G01 X 35.4913 Y 1.6619 Z -1.0000
G01 X 35.4828 Y 1.6676 Z -1.0000
G03 X 35.4388 Y 1.6686 Z -1.0000 I -0.0266 J -0.2074
G02 X 35.3950 Y 1.6690 Z -1.0000 I -0.0198 J 0.2341
G01 X 35.3888 Y 1.6737 Z -1.0000
G01 X 35.3832 Y 1.6782 Z -1.0000
G01 X 35.3696 Y 1.6768 Z -1.0000
G01 X 35.3572 Y 1.6755 Z -1.0000
G01 X 35.3539 Y 1.6794 Z -1.0000
G01 X 35.3435 Y 1.6868 Z -1.0000
G01 X 35.3219 Y 1.6684 Z -1.0000
G01 X 35.3150 Y 1.6555 Z -1.0000
G01 X 35.3101 Y 1.6687 Z -1.0000
G01 X 35.3028 Y 1.6773 Z -1.0000
G01 X 35.2924 Y 1.6786 Z -1.0000
G01 X 35.2824 Y 1.6788 Z -1.0000
G01 X 35.2797 Y 1.6823 Z -1.0000
G01 X 35.2642 Y 1.6792 Z -1.0000
G01 X 35.2523 Y 1.6757 Z -1.0000
G01 X 35.2488 Y 1.6793 Z -1.0000
G01 X 35.2394 Y 1.6922 Z -1.0000
G01 X 35.2202 Y 1.6885 Z -1.0000
G01 X 35.2109 Y 1.6854 Z -1.0000
G01 X 35.2032 Y 1.6893 Z -1.0000
G01 X 35.1809 Y 1.7001 Z -1.0000
G01 X 35.1532 Y 1.6886 Z -1.0000
G01 X 35.1379 Y 1.6837 Z -1.0000
G01 X 35.1332 Y 1.6916 Z -1.0000
G01 X 35.1296 Y 1.6997 Z -1.0000
G01 X 35.1093 Y 1.7006 Z -1.0000
G02 X 35.0889 Y 1.6991 Z -1.0000 I -0.0139 J 0.0500
G01 X 35.0721 Y 1.7053 Z -1.0000
G01 X 35.0549 Y 1.7122 Z -1.0000
G03 X 35.0055 Y 1.7173 Z -1.0000 I -0.0586 J -0.3288
G02 X 34.9554 Y 1.7210 Z -1.0000 I 0.0147 J 0.5350
G02 X 34.9375 Y 1.7256 Z -1.0000 I 0.0088 J 0.0718
G01 X 34.9203 Y 1.7290 Z -1.0000
G01 X 34.9081 Y 1.7260 Z -1.0000
G01 X 34.8994 Y 1.7250 Z -1.0000
G01 X 34.8961 Y 1.7291 Z -1.0000
G01 X 34.8891 Y 1.7381 Z -1.0000
G01 X 34.8752 Y 1.7341 Z -1.0000
G01 X 34.8701 Y 1.7314 Z -1.0000
G02 X 34.8455 Y 1.7280 Z -1.0000 I -0.0361 J 0.1736
G03 X 34.8211 Y 1.7241 Z -1.0000 I 0.0088 J -0.1313
G01 X 34.8116 Y 1.7192 Z -1.0000
G01 X 34.8033 Y 1.7200 Z -1.0000
G01 X 34.8033 Y 1.7293 Z -1.0000
G01 X 34.8025 Y 1.7392 Z -1.0000
G01 X 34.7909 Y 1.7400 Z -1.0000
G02 X 34.7586 Y 1.7326 Z -1.0000 I -0.0269 J 0.0430
G01 X 34.7379 Y 1.7456 Z -1.0000
G01 X 34.7222 Y 1.7536 Z -1.0000
G01 X 34.7088 Y 1.7433 Z -1.0000
G01 X 34.7047 Y 1.7409 Z -1.0000
G01 X 34.6944 Y 1.7457 Z -1.0000
G01 X 34.6812 Y 1.7519 Z -1.0000
G03 X 34.6239 Y 1.7568 Z -1.0000 I -0.0637 J -0.4033
G02 X 34.5245 Y 1.7626 Z -1.0000 I 0.0185 J 1.1702
G01 X 34.5111 Y 1.7683 Z -1.0000
G01 X 34.5017 Y 1.7710 Z -1.0000
G01 X 34.4910 Y 1.7658 Z -1.0000
G01 X 34.4809 Y 1.7632 Z -1.0000
G01 X 34.4653 Y 1.7733 Z -1.0000
G03 X 34.4509 Y 1.7850 Z -1.0000 I -0.0396 J -0.0337
G01 X 34.4467 Y 1.7836 Z -1.0000
G01 X 34.4421 Y 1.7799 Z -1.0000
G01 X 34.4332 Y 1.7814 Z -1.0000
G03 X 34.4226 Y 1.7861 Z -1.0000 I -0.0437 J -0.0830
G01 X 34.4167 Y 1.7876 Z -1.0000
G01 X 34.4106 Y 1.7886 Z -1.0000
G02 X 34.3999 Y 1.7917 Z -1.0000 I 0.0338 J 0.1399
G01 X 34.3893 Y 1.7929 Z -1.0000
G03 X 34.3662 Y 1.7887 Z -1.0000 I 0.0120 J -0.1312
G01 X 34.3464 Y 1.7887 Z -1.0000
G01 X 34.3455 Y 1.7944 Z -1.0000
G01 X 34.3503 Y 1.8003 Z -1.0000
G01 X 34.3491 Y 1.8049 Z -1.0000
G01 X 34.3448 Y 1.8058 Z -1.0000
G01 X 34.3410 Y 1.8021 Z -1.0000
G01 X 34.3304 Y 1.7956 Z -1.0000
G01 X 34.3070 Y 1.8067 Z -1.0000
G01 X 34.2925 Y 1.8156 Z -1.0000
G03 X 34.2717 Y 1.8193 Z -1.0000 I -0.0219 J -0.0612
G02 X 34.2151 Y 1.8246 Z -1.0000 I 0.0066 J 0.3808
G01 X 34.2003 Y 1.8313 Z -1.0000
G01 X 34.1881 Y 1.8373 Z -1.0000
G03 X 34.1545 Y 1.8417 Z -1.0000 I -0.0395 J -0.1729
G02 X 34.0987 Y 1.8505 Z -1.0000 I 0.0083 J 0.2349
G01 X 34.0919 Y 1.8595 Z -1.0000
G01 X 34.0890 Y 1.8637 Z -1.0000
G01 X 34.0796 Y 1.8643 Z -1.0000
G01 X 34.0679 Y 1.8643 Z -1.0000
G02 X 34.0468 Y 1.8732 Z -1.0000 I 0.0235 J 0.0853
G03 X 34.0255 Y 1.8834 Z -1.0000 I -0.0687 J -0.1160
G03 X 34.0028 Y 1.8897 Z -1.0000 I -0.0476 J -0.1270
G01 X 33.9865 Y 1.8879 Z -1.0000
G01 X 33.9835 Y 1.8813 Z -1.0000
G01 X 33.9790 Y 1.8764 Z -1.0000
G01 X 33.9691 Y 1.8844 Z -1.0000
G01 X 33.9595 Y 1.8949 Z -1.0000
G01 X 33.9486 Y 1.8961 Z -1.0000
G01 X 33.9409 Y 1.8977 Z -1.0000
G01 X 33.9387 Y 1.9046 Z -1.0000
G01 X 33.9344 Y 1.9169 Z -1.0000
G01 X 33.9117 Y 1.9242 Z -1.0000
G01 X 33.9006 Y 1.9267 Z -1.0000
G02 X 33.8873 Y 1.9357 Z -1.0000 I 0.0214 J 0.0459
G03 X 33.8738 Y 1.9451 Z -1.0000 I -0.0405 J -0.0437
G03 X 33.8489 Y 1.9552 Z -1.0000 I -0.0711 J -0.1400
G02 X 33.8232 Y 1.9642 Z -1.0000 I 0.0967 J 0.3157
G02 X 33.7901 Y 1.9786 Z -1.0000 I 0.2256 J 0.5651
G03 X 33.7591 Y 1.9872 Z -1.0000 I -0.0411 J -0.0875
G01 X 33.7493 Y 1.9829 Z -1.0000
G01 X 33.7414 Y 1.9776 Z -1.0000
G01 X 33.7363 Y 1.9797 Z -1.0000
G01 X 33.7353 Y 1.9866 Z -1.0000
G01 X 33.7398 Y 1.9927 Z -1.0000
G01 X 33.7452 Y 1.9997 Z -1.0000
G03 X 33.6885 Y 2.0316 Z -1.0000 I -0.2947 J -0.4568
G01 X 33.6714 Y 2.0356 Z -1.0000
G01 X 33.6685 Y 2.0334 Z -1.0000
G01 X 33.6690 Y 2.0263 Z -1.0000
G01 X 33.6649 Y 2.0227 Z -1.0000
G01 X 33.6542 Y 2.0343 Z -1.0000
G01 X 33.6433 Y 2.0459 Z -1.0000
G01 X 33.6256 Y 2.0491 Z -1.0000
G02 X 33.6060 Y 2.0497 Z -1.0000 I -0.0079 J 0.0696
G01 X 33.6004 Y 2.0534 Z -1.0000
G01 X 33.5950 Y 2.0579 Z -1.0000
G01 X 33.5811 Y 2.0602 Z -1.0000
G01 X 33.5683 Y 2.0625 Z -1.0000
G01 X 33.5660 Y 2.0657 Z -1.0000
G01 X 33.5516 Y 2.0890 Z -1.0000
G03 X 33.4896 Y 2.1036 Z -1.0000 I -0.0620 J -0.1246
G01 X 33.4816 Y 2.1058 Z -1.0000
G01 X 33.4794 Y 2.1096 Z -1.0000
G01 X 33.4667 Y 2.1292 Z -1.0000
G03 X 33.4285 Y 2.1323 Z -1.0000 I -0.0236 J -0.0527
G01 X 33.4172 Y 2.1328 Z -1.0000
G01 X 33.4030 Y 2.1417 Z -1.0000
G03 X 33.3330 Y 2.1945 Z -1.0000 I -0.2647 J -0.2785
G01 X 33.3191 Y 2.1910 Z -1.0000
G01 X 33.3074 Y 2.1875 Z -1.0000
G01 X 33.2987 Y 2.2002 Z -1.0000
G01 X 33.2801 Y 2.2286 Z -1.0000
G01 X 33.2510 Y 2.2237 Z -1.0000
G01 X 33.2602 Y 2.2120 Z -1.0000
G01 X 33.2652 Y 2.2028 Z -1.0000
G01 X 33.2591 Y 2.2047 Z -1.0000
G02 X 33.2312 Y 2.2274 Z -1.0000 I 0.1814 J 0.2517
G03 X 33.1912 Y 2.2526 Z -1.0000 I -0.0905 J -0.0990
G01 X 33.1856 Y 2.2459 Z -1.0000
G01 X 33.1857 Y 2.2418 Z -1.0000
G01 X 33.1823 Y 2.2397 Z -1.0000
G01 X 33.1770 Y 2.2422 Z -1.0000
G01 X 33.1720 Y 2.2519 Z -1.0000
G01 X 33.1514 Y 2.2801 Z -1.0000
G03 X 33.1114 Y 2.2905 Z -1.0000 I -0.0361 J -0.0567
G01 X 33.0996 Y 2.2920 Z -1.0000
G02 X 33.0852 Y 2.2989 Z -1.0000 I 0.0182 J 0.0566
G03 X 33.0451 Y 2.3122 Z -1.0000 I -0.0449 J -0.0685
G01 X 33.0241 Y 2.3025 Z -1.0000
G01 X 33.0164 Y 2.3001 Z -1.0000
G02 X 32.9931 Y 2.3129 Z -1.0000 I 0.0242 J 0.0721
G03 X 32.9676 Y 2.3296 Z -1.0000 I -0.1004 J -0.1249
G03 X 32.9488 Y 2.3364 Z -1.0000 I -0.0326 J -0.0615
G02 X 32.9297 Y 2.3421 Z -1.0000 I 0.0205 J 0.1031
G01 X 32.9253 Y 2.3458 Z -1.0000
G01 X 32.9209 Y 2.3492 Z -1.0000
G01 X 32.9078 Y 2.3512 Z -1.0000
G01 X 32.8948 Y 2.3542 Z -1.0000
G02 X 32.8768 Y 2.3667 Z -1.0000 I 0.0348 J 0.0694
G01 X 32.8591 Y 2.3719 Z -1.0000
G01 X 32.8531 Y 2.3625 Z -1.0000
G01 X 32.8494 Y 2.3536 Z -1.0000
G01 X 32.8441 Y 2.3591 Z -1.0000
G01 X 32.8422 Y 2.3662 Z -1.0000
G01 X 32.8331 Y 2.3798 Z -1.0000
G01 X 32.8031 Y 2.3823 Z -1.0000
G01 X 32.7862 Y 2.3829 Z -1.0000
G01 X 32.7834 Y 2.3882 Z -1.0000
G01 X 32.7819 Y 2.3969 Z -1.0000
G01 X 32.7697 Y 2.4060 Z -1.0000
G02 X 32.7532 Y 2.4141 Z -1.0000 I 0.0408 J 0.1047
G02 X 32.7369 Y 2.4254 Z -1.0000 I 0.0691 J 0.1167
G03 X 32.7203 Y 2.4360 Z -1.0000 I -0.0532 J -0.0654
G03 X 32.7044 Y 2.4412 Z -1.0000 I -0.0270 J -0.0561
G02 X 32.6881 Y 2.4458 Z -1.0000 I 0.0157 J 0.0859
G02 X 32.6655 Y 2.4566 Z -1.0000 I 0.0666 J 0.1690
G03 X 32.6435 Y 2.4661 Z -1.0000 I -0.0568 J -0.1012
G01 X 32.6376 Y 2.4654 Z -1.0000
G01 X 32.6330 Y 2.4654 Z -1.0000
G01 X 32.6279 Y 2.4718 Z -1.0000
G01 X 32.6224 Y 2.4781 Z -1.0000
G01 X 32.6156 Y 2.4786 Z -1.0000
G01 X 32.6098 Y 2.4793 Z -1.0000
G01 X 32.6071 Y 2.4844 Z -1.0000
G01 X 32.6038 Y 2.4902 Z -1.0000
G01 X 32.5926 Y 2.4935 Z -1.0000
G01 X 32.5794 Y 2.4965 Z -1.0000
G01 X 32.5669 Y 2.5059 Z -1.0000
G01 X 32.5543 Y 2.5152 Z -1.0000
G01 X 32.5412 Y 2.5182 Z -1.0000
G01 X 32.5299 Y 2.5216 Z -1.0000
G01 X 32.5267 Y 2.5276 Z -1.0000
G01 X 32.5236 Y 2.5350 Z -1.0000
G01 X 32.5112 Y 2.5429 Z -1.0000
G01 X 32.4987 Y 2.5508 Z -1.0000
G01 X 32.4957 Y 2.5578 Z -1.0000
G01 X 32.4850 Y 2.5748 Z -1.0000
G01 X 32.4667 Y 2.5716 Z -1.0000
G01 X 32.4630 Y 2.5710 Z -1.0000
G02 X 32.4433 Y 2.5834 Z -1.0000 I 0.0567 J 0.1120
G03 X 32.4224 Y 2.5956 Z -1.0000 I -0.0574 J -0.0749
G01 X 32.4072 Y 2.5986 Z -1.0000
G01 X 32.3962 Y 2.6022 Z -1.0000
G01 X 32.3945 Y 2.6078 Z -1.0000
G01 X 32.3927 Y 2.6148 Z -1.0000
G03 X 32.3690 Y 2.6295 Z -1.0000 I -0.0604 J -0.0709
G03 X 32.3397 Y 2.6402 Z -1.0000 I -0.1155 J -0.2709
G01 X 32.3282 Y 2.6419 Z -1.0000
G01 X 32.3186 Y 2.6442 Z -1.0000
G01 X 32.3163 Y 2.6479 Z -1.0000
G01 X 32.2999 Y 2.6737 Z -1.0000
G03 X 32.2580 Y 2.6752 Z -1.0000 I -0.0227 J -0.0487
G01 X 32.2526 Y 2.6768 Z -1.0000
G01 X 32.2460 Y 2.6917 Z -1.0000
G01 X 32.2377 Y 2.7050 Z -1.0000
G01 X 32.2238 Y 2.7086 Z -1.0000
G01 X 32.2056 Y 2.7156 Z -1.0000
G01 X 32.1983 Y 2.7393 Z -1.0000
G01 X 32.1905 Y 2.7516 Z -1.0000
G01 X 32.1771 Y 2.7469 Z -1.0000
G01 X 32.1691 Y 2.7460 Z -1.0000
G01 X 32.1658 Y 2.7584 Z -1.0000
G01 X 32.1584 Y 2.7806 Z -1.0000
G03 X 32.1215 Y 2.7934 Z -1.0000 I -0.0369 J -0.0466
G01 X 32.1120 Y 2.7965 Z -1.0000
G01 X 32.1085 Y 2.8027 Z -1.0000
G01 X 32.1033 Y 2.8090 Z -1.0000
G01 X 32.0965 Y 2.8058 Z -1.0000
G01 X 32.0877 Y 2.7978 Z -1.0000
G03 X 32.0728 Y 2.8337 Z -1.0000 I -0.0542 J -0.0014
G01 X 32.0528 Y 2.8345 Z -1.0000
G01 X 32.0520 Y 2.8408 Z -1.0000
G01 X 32.0520 Y 2.8494 Z -1.0000
G01 X 32.0468 Y 2.8546 Z -1.0000
G01 X 32.0403 Y 2.8597 Z -1.0000
G01 X 32.0379 Y 2.8675 Z -1.0000
G01 X 32.0332 Y 2.8752 Z -1.0000
G01 X 32.0179 Y 2.8777 Z -1.0000
G01 X 32.0149 Y 2.8792 Z -1.0000
G02 X 32.0091 Y 2.8940 Z -1.0000 I 0.0577 J 0.0310
G01 X 31.9945 Y 2.9174 Z -1.0000
G01 X 31.9708 Y 2.9262 Z -1.0000
G01 X 31.9591 Y 2.9300 Z -1.0000
G01 X 31.9531 Y 2.9388 Z -1.0000
G01 X 31.9482 Y 2.9491 Z -1.0000
G01 X 31.9444 Y 2.9512 Z -1.0000
G01 X 31.9410 Y 2.9533 Z -1.0000
G01 X 31.9389 Y 2.9625 Z -1.0000
G01 X 31.9280 Y 2.9898 Z -1.0000
G01 X 31.9031 Y 3.0007 Z -1.0000
G02 X 31.8628 Y 3.0112 Z -1.0000 I -0.0000 J 0.0822
G01 X 31.8522 Y 3.0293 Z -1.0000
G01 X 31.8502 Y 3.0363 Z -1.0000
G03 X 31.8350 Y 3.0559 Z -1.0000 I -0.1300 J -0.0848
G02 X 31.8195 Y 3.0759 Z -1.0000 I 0.1135 J 0.1040
G02 X 31.8005 Y 3.1088 Z -1.0000 I 0.2947 J 0.1916
G03 X 31.7789 Y 3.1355 Z -1.0000 I -0.0729 J -0.0369
G01 X 31.7717 Y 3.1321 Z -1.0000
G01 X 31.7547 Y 3.1406 Z -1.0000
G03 X 31.7231 Y 3.1662 Z -1.0000 I -0.0892 J -0.0778
G01 X 31.7162 Y 3.1621 Z -1.0000
G01 X 31.7176 Y 3.1575 Z -1.0000
G01 X 31.7248 Y 3.1497 Z -1.0000
G02 X 31.7409 Y 3.1260 Z -1.0000 I -0.0336 J -0.0403
G01 X 31.7353 Y 3.1182 Z -1.0000
G01 X 31.7315 Y 3.1196 Z -1.0000
G02 X 31.7131 Y 3.1368 Z -1.0000 I 0.1492 J 0.1785
G03 X 31.6823 Y 3.1539 Z -1.0000 I -0.0432 J -0.0414
G01 X 31.6616 Y 3.1477 Z -1.0000
G01 X 31.6535 Y 3.1445 Z -1.0000
G01 X 31.6410 Y 3.1483 Z -1.0000
G01 X 31.6285 Y 3.1523 Z -1.0000
G01 X 31.6214 Y 3.1497 Z -1.0000
G01 X 31.6138 Y 3.1450 Z -1.0000
G01 X 31.6005 Y 3.1430 Z -1.0000
G01 X 31.5898 Y 3.1400 Z -1.0000
G01 X 31.5878 Y 3.1355 Z -1.0000
G01 X 31.5855 Y 3.1311 Z -1.0000
G01 X 31.5686 Y 3.1278 Z -1.0000
G01 X 31.5541 Y 3.1345 Z -1.0000
G01 X 31.5558 Y 3.1432 Z -1.0000
G01 X 31.5633 Y 3.1511 Z -1.0000
G01 X 31.5622 Y 3.1571 Z -1.0000
G01 X 31.5554 Y 3.1598 Z -1.0000
G01 X 31.5479 Y 3.1566 Z -1.0000
G01 X 31.5274 Y 3.1489 Z -1.0000
G01 X 31.5182 Y 3.1587 Z -1.0000
G01 X 31.5150 Y 3.1628 Z -1.0000
G01 X 31.5063 Y 3.1618 Z -1.0000
G01 X 31.4778 Y 3.1568 Z -1.0000
G01 X 31.4688 Y 3.1673 Z -1.0000
G01 X 31.4658 Y 3.1776 Z -1.0000
G01 X 31.4540 Y 3.1905 Z -1.0000
G02 X 31.4209 Y 3.2332 Z -1.0000 I 0.0645 J 0.0840
G02 X 31.4058 Y 3.3045 Z -1.0000 I 0.1773 J 0.0749
G03 X 31.4026 Y 3.3462 Z -1.0000 I -0.3568 J -0.0066
G01 X 31.3995 Y 3.3510 Z -1.0000
G01 X 31.3977 Y 3.3551 Z -1.0000
G01 X 31.4016 Y 3.3637 Z -1.0000
G01 X 31.4047 Y 3.3734 Z -1.0000
G03 X 31.3993 Y 3.3925 Z -1.0000 I -0.0507 J -0.0039
G02 X 31.3905 Y 3.4125 Z -1.0000 I 0.1685 J 0.0858
G02 X 31.3857 Y 3.4289 Z -1.0000 I 0.1146 J 0.0425
G01 X 31.3795 Y 3.4409 Z -1.0000
G01 X 31.3733 Y 3.4423 Z -1.0000
G01 X 31.3600 Y 3.4466 Z -1.0000
G02 X 31.3512 Y 3.4756 Z -1.0000 I 0.0436 J 0.0290
G03 X 31.3287 Y 3.5198 Z -1.0000 I -0.0546 J -0.0000
G01 X 31.2984 Y 3.5138 Z -1.0000
G01 X 31.2941 Y 3.5107 Z -1.0000
G01 X 31.2886 Y 3.5115 Z -1.0000
G01 X 31.2867 Y 3.5163 Z -1.0000
G02 X 31.2950 Y 3.5364 Z -1.0000 I 0.0762 J -0.0197
G01 X 31.3002 Y 3.5700 Z -1.0000
G01 X 31.2807 Y 3.5978 Z -1.0000
G01 X 31.2701 Y 3.6104 Z -1.0000
G02 X 31.2662 Y 3.6319 Z -1.0000 I 0.0461 J 0.0195
G01 X 31.2602 Y 3.6561 Z -1.0000
G01 X 31.2520 Y 3.6563 Z -1.0000
G01 X 31.2462 Y 3.6709 Z -1.0000
G03 X 31.2418 Y 3.6914 Z -1.0000 I -0.0518 J -0.0002
G01 X 31.2345 Y 3.6978 Z -1.0000
G01 X 31.2246 Y 3.7031 Z -1.0000
G01 X 31.2149 Y 3.7157 Z -1.0000
G01 X 31.2050 Y 3.7275 Z -1.0000
G01 X 31.1959 Y 3.7307 Z -1.0000
G01 X 31.1861 Y 3.7370 Z -1.0000
G02 X 31.1747 Y 3.7771 Z -1.0000 I 0.1256 J 0.0576
G03 X 31.1707 Y 3.7997 Z -1.0000 I -0.2379 J -0.0301
G01 X 31.1683 Y 3.8056 Z -1.0000
G01 X 31.1560 Y 3.8117 Z -1.0000
G01 X 31.1453 Y 3.8034 Z -1.0000
G01 X 31.1416 Y 3.7992 Z -1.0000
G01 X 31.1381 Y 3.7998 Z -1.0000
G01 X 31.1369 Y 3.8043 Z -1.0000
G02 X 31.1434 Y 3.8188 Z -1.0000 I 0.0497 J -0.0138
G01 X 31.1480 Y 3.8335 Z -1.0000
G01 X 31.1441 Y 3.8456 Z -1.0000
G01 X 31.1372 Y 3.8583 Z -1.0000
G01 X 31.1349 Y 3.8706 Z -1.0000
G03 X 31.1257 Y 3.9080 Z -1.0000 I -0.0859 J -0.0013
G03 X 31.0924 Y 3.9547 Z -1.0000 I -0.1696 J -0.0857
G02 X 31.0723 Y 3.9807 Z -1.0000 I 0.1029 J 0.1000
G02 X 31.0637 Y 4.0023 Z -1.0000 I 0.0614 J 0.0370
G03 X 31.0570 Y 4.0203 Z -1.0000 I -0.0659 J -0.0144
G01 X 31.0510 Y 4.0255 Z -1.0000
G01 X 31.0461 Y 4.0303 Z -1.0000
G01 X 31.0459 Y 4.0372 Z -1.0000
G01 X 31.0425 Y 4.0505 Z -1.0000
G01 X 31.0286 Y 4.0519 Z -1.0000
G01 X 31.0171 Y 4.0537 Z -1.0000
G01 X 31.0159 Y 4.0651 Z -1.0000
G01 X 31.0157 Y 4.0729 Z -1.0000
G01 X 31.0075 Y 4.0772 Z -1.0000
G03 X 30.9920 Y 4.0753 Z -1.0000 I 0.0000 J -0.0652
G03 X 30.9783 Y 4.0701 Z -1.0000 I 0.0138 J -0.0564
G01 X 30.9668 Y 4.0672 Z -1.0000
G01 X 30.9628 Y 4.0701 Z -1.0000
G01 X 30.9550 Y 4.0740 Z -1.0000
G03 X 30.9323 Y 4.0602 Z -1.0000 I 0.0180 J -0.0553
G03 X 30.9191 Y 4.0413 Z -1.0000 I 0.0446 J -0.0452
G03 X 30.9139 Y 4.0200 Z -1.0000 I 0.0529 J -0.0241
G03 X 30.9155 Y 3.9992 Z -1.0000 I 0.0846 J -0.0040
G01 X 30.9185 Y 3.9968 Z -1.0000
G01 X 30.9216 Y 3.9907 Z -1.0000
G02 X 30.8995 Y 3.9713 Z -1.0000 I -0.0567 J 0.0423
G03 X 30.8782 Y 3.9554 Z -1.0000 I 0.0499 J -0.0894
G01 X 30.8748 Y 3.9474 Z -1.0000
G01 X 30.8720 Y 3.9385 Z -1.0000
G02 X 30.8500 Y 3.9116 Z -1.0000 I -0.1791 J 0.1240
G01 X 30.8253 Y 3.8929 Z -1.0000
G01 X 30.8041 Y 3.8695 Z -1.0000
G02 X 30.7820 Y 3.8397 Z -1.0000 I -0.5070 J 0.3534
G02 X 30.7700 Y 3.8264 Z -1.0000 I -0.1125 J 0.0889
G03 X 30.7591 Y 3.8131 Z -1.0000 I 0.0572 J -0.0580
G01 X 30.7572 Y 3.8068 Z -1.0000
G01 X 30.7553 Y 3.8011 Z -1.0000
G01 X 30.7495 Y 3.7967 Z -1.0000
G01 X 30.7473 Y 3.7928 Z -1.0000
G01 X 30.7510 Y 3.7865 Z -1.0000
G01 X 30.7479 Y 3.7828 Z -1.0000
G01 X 30.7262 Y 3.7796 Z -1.0000
G01 X 30.7234 Y 3.7676 Z -1.0000
G01 X 30.7211 Y 3.7642 Z -1.0000
G01 X 30.7165 Y 3.7640 Z -1.0000
G01 X 30.7140 Y 3.7590 Z -1.0000
G01 X 30.7115 Y 3.7518 Z -1.0000
G01 X 30.7068 Y 3.7494 Z -1.0000
G01 X 30.7005 Y 3.7472 Z -1.0000
G03 X 30.6733 Y 3.7220 Z -1.0000 I 0.1945 J -0.2376
G03 X 30.6563 Y 3.6950 Z -1.0000 I 0.0571 J -0.0547
G01 X 30.6590 Y 3.6838 Z -1.0000
G01 X 30.6660 Y 3.6729 Z -1.0000
G01 X 30.6643 Y 3.6663 Z -1.0000
G01 X 30.6580 Y 3.6651 Z -1.0000
G01 X 30.6472 Y 3.6736 Z -1.0000
G01 X 30.6351 Y 3.6833 Z -1.0000
G01 X 30.6232 Y 3.6848 Z -1.0000
G03 X 30.5593 Y 3.6536 Z -1.0000 I 0.0258 J -0.1340
G03 X 30.5408 Y 3.6129 Z -1.0000 I 0.0356 J -0.0407
G01 X 30.5383 Y 3.6033 Z -1.0000
G01 X 30.5342 Y 3.6009 Z -1.0000
G01 X 30.5305 Y 3.6033 Z -1.0000
G01 X 30.5294 Y 3.6117 Z -1.0000
G01 X 30.5260 Y 3.6315 Z -1.0000
G01 X 30.5149 Y 3.6380 Z -1.0000
G01 X 30.5116 Y 3.6355 Z -1.0000
G01 X 30.5114 Y 3.6263 Z -1.0000
G01 X 30.5091 Y 3.6122 Z -1.0000
G02 X 30.4889 Y 3.5923 Z -1.0000 I -0.0568 J 0.0376
G01 X 30.4710 Y 3.5810 Z -1.0000
G01 X 30.4750 Y 3.5967 Z -1.0000
G01 X 30.4695 Y 3.6073 Z -1.0000
G01 X 30.4589 Y 3.6028 Z -1.0000
G02 X 30.4401 Y 3.5775 Z -1.0000 I -0.0657 J 0.0291
G01 X 30.4210 Y 3.5702 Z -1.0000
G01 X 30.4143 Y 3.5734 Z -1.0000
G01 X 30.4133 Y 3.5800 Z -1.0000
G01 X 30.4099 Y 3.5848 Z -1.0000
G03 X 30.3722 Y 3.5786 Z -1.0000 I 0.0050 J -0.1496
G01 X 30.3636 Y 3.5785 Z -1.0000
G01 X 30.3613 Y 3.5814 Z -1.0000
G01 X 30.3514 Y 3.5895 Z -1.0000
G01 X 30.3299 Y 3.5750 Z -1.0000
G01 X 30.3254 Y 3.5727 Z -1.0000
G01 X 30.3097 Y 3.5759 Z -1.0000
G01 X 30.2945 Y 3.5765 Z -1.0000
G01 X 30.2797 Y 3.5669 Z -1.0000
G01 X 30.2632 Y 3.5588 Z -1.0000
G01 X 30.2551 Y 3.5655 Z -1.0000
G01 X 30.2438 Y 3.5753 Z -1.0000
G01 X 30.2326 Y 3.5655 Z -1.0000
G01 X 30.2243 Y 3.5577 Z -1.0000
G02 X 30.1887 Y 3.5616 Z -1.0000 I -0.0081 J 0.0905
G01 X 30.1800 Y 3.5623 Z -1.0000
G03 X 30.1589 Y 3.5574 Z -1.0000 I 0.0172 J -0.1219
G01 X 30.1427 Y 3.5589 Z -1.0000
G01 X 30.1422 Y 3.5667 Z -1.0000
G01 X 30.1429 Y 3.5755 Z -1.0000
G01 X 30.1301 Y 3.5791 Z -1.0000
G01 X 30.1178 Y 3.5721 Z -1.0000
G01 X 30.1139 Y 3.5624 Z -1.0000
G01 X 30.1102 Y 3.5580 Z -1.0000
G01 X 30.1022 Y 3.5603 Z -1.0000
G01 X 30.0894 Y 3.5684 Z -1.0000
G03 X 30.0702 Y 3.5735 Z -1.0000 I -0.0286 J -0.0694
G02 X 30.0512 Y 3.5782 Z -1.0000 I 0.0102 J 0.0813
G01 X 30.0457 Y 3.5827 Z -1.0000
G01 X 30.0407 Y 3.5874 Z -1.0000
G01 X 30.0360 Y 3.5880 Z -1.0000
G02 X 29.9876 Y 3.5929 Z -1.0000 I -0.0173 J 0.0702
G01 X 29.9813 Y 3.6141 Z -1.0000
G01 X 29.9732 Y 3.6196 Z -1.0000
G01 X 29.9626 Y 3.6217 Z -1.0000
G01 X 29.9536 Y 3.6273 Z -1.0000
G01 X 29.9495 Y 3.6216 Z -1.0000
G01 X 29.9504 Y 3.6094 Z -1.0000
G01 X 29.9471 Y 3.6042 Z -1.0000
G01 X 29.9407 Y 3.6054 Z -1.0000
G01 X 29.9164 Y 3.6435 Z -1.0000
G03 X 29.8489 Y 3.6477 Z -1.0000 I -0.0392 J -0.0848
G01 X 29.8156 Y 3.6513 Z -1.0000
G01 X 29.8110 Y 3.6693 Z -1.0000
G01 X 29.8081 Y 3.6805 Z -1.0000
G01 X 29.7910 Y 3.6807 Z -1.0000
G01 X 29.7677 Y 3.6794 Z -1.0000
G01 X 29.7667 Y 3.6902 Z -1.0000
G01 X 29.7718 Y 3.6957 Z -1.0000
G01 X 29.7737 Y 3.7033 Z -1.0000
G01 X 29.7703 Y 3.7079 Z -1.0000
G01 X 29.7553 Y 3.7084 Z -1.0000
G01 X 29.7396 Y 3.7107 Z -1.0000
G01 X 29.7259 Y 3.7240 Z -1.0000
G03 X 29.7127 Y 3.7394 Z -1.0000 I -0.0457 J -0.0260
G01 X 29.7014 Y 3.7433 Z -1.0000
G01 X 29.6891 Y 3.7457 Z -1.0000
G01 X 29.6834 Y 3.7505 Z -1.0000
G01 X 29.6857 Y 3.7535 Z -1.0000
G01 X 29.6918 Y 3.7522 Z -1.0000
G01 X 29.6958 Y 3.7547 Z -1.0000
G01 X 29.6918 Y 3.7824 Z -1.0000
G01 X 29.6657 Y 3.7817 Z -1.0000
G01 X 29.6660 Y 3.7889 Z -1.0000
G01 X 29.6658 Y 3.7965 Z -1.0000
G01 X 29.6617 Y 3.7988 Z -1.0000
G01 X 29.6434 Y 3.8024 Z -1.0000
G01 X 29.6395 Y 3.8118 Z -1.0000
G01 X 29.6378 Y 3.8230 Z -1.0000
G03 X 29.6151 Y 3.8501 Z -1.0000 I -0.1153 J -0.0736
G02 X 29.5894 Y 3.8773 Z -1.0000 I 0.1826 J 0.1981
G02 X 29.5760 Y 3.8977 Z -1.0000 I 0.0887 J 0.0728
G03 X 29.5367 Y 3.9687 Z -1.0000 I -1.1580 J -0.5940
G03 X 29.5260 Y 3.9819 Z -1.0000 I -0.0490 J -0.0291
G01 X 29.5164 Y 3.9938 Z -1.0000
G01 X 29.5139 Y 4.0032 Z -1.0000
G01 X 29.5114 Y 4.0125 Z -1.0000
G03 X 29.5015 Y 4.0249 Z -1.0000 I -0.0440 J -0.0252
G01 X 29.4921 Y 4.0374 Z -1.0000
G01 X 29.4892 Y 4.0496 Z -1.0000
G01 X 29.4862 Y 4.0619 Z -1.0000
G01 X 29.4768 Y 4.0744 Z -1.0000
G01 X 29.4671 Y 4.0867 Z -1.0000
G01 X 29.4644 Y 4.0970 Z -1.0000
G01 X 29.4614 Y 4.1054 Z -1.0000
G01 X 29.4551 Y 4.1084 Z -1.0000
G01 X 29.4493 Y 4.1118 Z -1.0000
G01 X 29.4458 Y 4.1249 Z -1.0000
G03 X 29.4345 Y 4.1774 Z -1.0000 I -0.1272 J 0.0000
G01 X 29.4168 Y 4.1888 Z -1.0000
G01 X 29.4114 Y 4.1914 Z -1.0000
G01 X 29.4087 Y 4.1990 Z -1.0000
G01 X 29.4065 Y 4.2085 Z -1.0000
G03 X 29.3944 Y 4.2284 Z -1.0000 I -0.1096 J -0.0530
G02 X 29.3722 Y 4.2693 Z -1.0000 I 0.1316 J 0.0980
G02 X 29.3621 Y 4.3156 Z -1.0000 I 0.1596 J 0.0593
G03 X 29.3599 Y 4.3277 Z -1.0000 I -0.0624 J -0.0048
G03 X 29.3476 Y 4.3670 Z -1.0000 I -0.6542 J -0.1835
G02 X 29.3367 Y 4.4056 Z -1.0000 I 0.3371 J 0.1163
G01 X 29.3377 Y 4.4117 Z -1.0000
G01 X 29.3374 Y 4.4316 Z -1.0000
G01 X 29.3173 Y 4.4425 Z -1.0000
G01 X 29.3147 Y 4.4477 Z -1.0000
G01 X 29.3261 Y 4.4699 Z -1.0000
G03 X 29.3102 Y 4.5287 Z -1.0000 I -0.1465 J -0.0080
G01 X 29.3074 Y 4.5388 Z -1.0000
G02 X 29.3048 Y 4.6158 Z -1.0000 I 1.4191 J 0.0870
G03 X 29.3016 Y 4.6928 Z -1.0000 I -1.0942 J -0.0071
G03 X 29.2974 Y 4.7116 Z -1.0000 I -0.0675 J -0.0052
G02 X 29.2939 Y 4.7282 Z -1.0000 I 0.0510 J 0.0193
G01 X 29.2964 Y 4.7318 Z -1.0000
G01 X 29.2991 Y 4.7356 Z -1.0000
G03 X 29.2964 Y 4.7556 Z -1.0000 I -0.0778 J -0.0005
G02 X 29.2940 Y 4.7766 Z -1.0000 I 0.0652 J 0.0180
G01 X 29.2977 Y 4.7862 Z -1.0000
G01 X 29.3008 Y 4.7951 Z -1.0000
G01 X 29.2974 Y 4.8043 Z -1.0000
G01 X 29.2929 Y 4.8142 Z -1.0000
G01 X 29.2933 Y 4.8306 Z -1.0000
G01 X 29.2935 Y 4.8400 Z -1.0000
G01 X 29.2807 Y 4.8307 Z -1.0000
G01 X 29.2726 Y 4.8381 Z -1.0000
G01 X 29.2743 Y 4.8429 Z -1.0000
G01 X 29.2814 Y 4.8489 Z -1.0000
G03 X 29.3210 Y 4.9133 Z -1.0000 I -0.0387 J 0.0682
G01 X 29.2862 Y 4.9497 Z -1.0000
G01 X 29.2821 Y 4.9519 Z -1.0000
G01 X 29.2820 Y 4.9560 Z -1.0000
G01 X 29.2836 Y 4.9628 Z -1.0000
G03 X 29.2790 Y 4.9952 Z -1.0000 I -0.2459 J -0.0183
G02 X 29.2772 Y 5.0276 Z -1.0000 I 0.1069 J 0.0222
G02 X 29.2849 Y 5.0578 Z -1.0000 I 0.1003 J -0.0094
G03 X 29.2918 Y 5.0934 Z -1.0000 I -0.0783 J 0.0336
G03 X 29.2832 Y 5.1282 Z -1.0000 I -0.0831 J -0.0020
G01 X 29.2815 Y 5.1414 Z -1.0000
G01 X 29.2879 Y 5.1515 Z -1.0000
G01 X 29.2942 Y 5.1606 Z -1.0000
G01 X 29.2924 Y 5.1675 Z -1.0000
G01 X 29.2864 Y 5.1755 Z -1.0000
G01 X 29.2850 Y 5.1809 Z -1.0000
G01 X 29.2889 Y 5.1830 Z -1.0000
G01 X 29.2931 Y 5.1817 Z -1.0000
G01 X 29.3056 Y 5.1859 Z -1.0000
G01 X 29.3183 Y 5.1927 Z -1.0000
G01 X 29.3057 Y 5.2029 Z -1.0000
G01 X 29.2956 Y 5.2251 Z -1.0000
G01 X 29.3067 Y 5.2343 Z -1.0000
G01 X 29.3113 Y 5.2354 Z -1.0000
G01 X 29.3147 Y 5.2400 Z -1.0000
G01 X 29.3136 Y 5.2443 Z -1.0000
G01 X 29.3071 Y 5.2467 Z -1.0000
G01 X 29.3019 Y 5.2517 Z -1.0000
G01 X 29.3059 Y 5.2702 Z -1.0000
G03 X 29.3129 Y 5.2875 Z -1.0000 I -0.0956 J 0.0488
G03 X 29.3282 Y 5.3426 Z -1.0000 I -0.9568 J 0.2941
G02 X 29.3425 Y 5.3981 Z -1.0000 I 2.1619 J -0.5295
G02 X 29.3515 Y 5.4285 Z -1.0000 I 0.6950 J -0.1893
G03 X 29.3570 Y 5.4582 Z -1.0000 I -0.1140 J 0.0365
G01 X 29.3539 Y 5.4704 Z -1.0000
G01 X 29.3518 Y 5.4803 Z -1.0000
G01 X 29.3560 Y 5.4857 Z -1.0000
G01 X 29.3625 Y 5.4913 Z -1.0000
G01 X 29.3654 Y 5.5029 Z -1.0000
G01 X 29.3673 Y 5.5157 Z -1.0000
G01 X 29.3711 Y 5.5223 Z -1.0000
G03 X 29.3869 Y 5.5595 Z -1.0000 I -0.0403 J 0.0390
G01 X 29.3731 Y 5.5792 Z -1.0000
G01 X 29.3648 Y 5.5909 Z -1.0000
G01 X 29.3734 Y 5.5993 Z -1.0000
G01 X 29.3963 Y 5.6131 Z -1.0000
G01 X 29.3994 Y 5.6489 Z -1.0000
G01 X 29.3943 Y 5.6594 Z -1.0000
G01 X 29.3908 Y 5.6612 Z -1.0000
G01 X 29.3888 Y 5.6797 Z -1.0000
G01 X 29.3982 Y 5.6884 Z -1.0000
G01 X 29.4111 Y 5.6812 Z -1.0000
G01 X 29.4196 Y 5.6732 Z -1.0000
G01 X 29.4244 Y 5.6751 Z -1.0000
G01 X 29.4254 Y 5.6859 Z -1.0000
G03 X 29.4179 Y 5.7087 Z -1.0000 I -0.0951 J -0.0186
G01 X 29.4154 Y 5.7376 Z -1.0000
G01 X 29.4315 Y 5.7571 Z -1.0000
G01 X 29.4403 Y 5.7647 Z -1.0000
G01 X 29.4412 Y 5.7710 Z -1.0000
G01 X 29.4422 Y 5.7761 Z -1.0000
G01 X 29.4478 Y 5.7787 Z -1.0000
G01 X 29.4572 Y 5.7863 Z -1.0000
G03 X 29.4588 Y 5.8308 Z -1.0000 I -0.1276 J 0.0270
G01 X 29.4643 Y 5.8493 Z -1.0000
G01 X 29.4736 Y 5.8479 Z -1.0000
G01 X 29.4800 Y 5.8448 Z -1.0000
G01 X 29.4828 Y 5.8502 Z -1.0000
G02 X 29.4767 Y 5.8884 Z -1.0000 I 0.0885 J 0.0337
G01 X 29.4849 Y 5.8962 Z -1.0000
G01 X 29.4902 Y 5.8998 Z -1.0000
G03 X 29.5015 Y 5.9364 Z -1.0000 I -0.1922 J 0.0791
G02 X 29.5122 Y 5.9738 Z -1.0000 I 0.2606 J -0.0542
G01 X 29.5162 Y 5.9766 Z -1.0000
G01 X 29.5151 Y 5.9840 Z -1.0000
G01 X 29.5113 Y 5.9994 Z -1.0000
G01 X 29.5224 Y 6.0075 Z -1.0000
G01 X 29.5334 Y 6.0128 Z -1.0000
G03 X 29.5472 Y 6.0381 Z -1.0000 I -0.0619 J 0.0501
G03 X 29.5519 Y 6.0748 Z -1.0000 I -0.0948 J 0.0310
G01 X 29.5448 Y 6.0800 Z -1.0000
G01 X 29.5314 Y 6.0931 Z -1.0000
G01 X 29.5544 Y 6.1190 Z -1.0000
G01 X 29.5643 Y 6.1289 Z -1.0000
G03 X 29.5720 Y 6.1653 Z -1.0000 I -0.1128 J 0.0431
G01 X 29.5657 Y 6.1703 Z -1.0000
G01 X 29.5568 Y 6.1610 Z -1.0000
G01 X 29.5454 Y 6.1532 Z -1.0000
G01 X 29.5372 Y 6.1637 Z -1.0000
G01 X 29.5360 Y 6.1781 Z -1.0000
G01 X 29.5326 Y 6.1807 Z -1.0000
G01 X 29.5220 Y 6.1916 Z -1.0000
G01 X 29.5333 Y 6.2068 Z -1.0000
G01 X 29.5358 Y 6.2109 Z -1.0000
G01 X 29.5305 Y 6.2244 Z -1.0000
G01 X 29.5244 Y 6.2397 Z -1.0000
G01 X 29.5260 Y 6.2485 Z -1.0000
G01 X 29.5294 Y 6.2750 Z -1.0000
G03 X 29.5089 Y 6.3042 Z -1.0000 I -0.0556 J -0.0173
G01 X 29.5051 Y 6.3091 Z -1.0000
G02 X 29.4737 Y 6.3879 Z -1.0000 I 2.0627 J 0.8685
G03 X 29.4563 Y 6.4222 Z -1.0000 I -0.1659 J -0.0625
G01 X 29.4435 Y 6.4343 Z -1.0000
G01 X 29.4303 Y 6.4544 Z -1.0000
G01 X 29.4401 Y 6.4653 Z -1.0000
G01 X 29.4488 Y 6.4682 Z -1.0000
G01 X 29.4502 Y 6.4730 Z -1.0000
G01 X 29.4458 Y 6.4778 Z -1.0000
G01 X 29.4374 Y 6.4789 Z -1.0000
G01 X 29.4306 Y 6.4811 Z -1.0000
G01 X 29.4272 Y 6.4897 Z -1.0000
G01 X 29.4296 Y 6.4998 Z -1.0000
G01 X 29.4338 Y 6.5023 Z -1.0000
G01 X 29.4367 Y 6.5044 Z -1.0000
G01 X 29.4362 Y 6.5090 Z -1.0000
G01 X 29.4309 Y 6.5128 Z -1.0000
G01 X 29.4203 Y 6.5127 Z -1.0000
G01 X 29.4103 Y 6.5137 Z -1.0000
G01 X 29.4023 Y 6.5212 Z -1.0000
G01 X 29.3947 Y 6.5290 Z -1.0000
G01 X 29.3875 Y 6.5295 Z -1.0000
G01 X 29.3799 Y 6.5291 Z -1.0000
G01 X 29.3749 Y 6.5328 Z -1.0000
G01 X 29.3758 Y 6.5366 Z -1.0000
G01 X 29.3860 Y 6.5394 Z -1.0000
G01 X 29.3990 Y 6.5426 Z -1.0000
G01 X 29.4049 Y 6.5492 Z -1.0000
G01 X 29.4034 Y 6.5592 Z -1.0000
G01 X 29.3932 Y 6.5642 Z -1.0000
G01 X 29.3817 Y 6.5681 Z -1.0000
G01 X 29.3777 Y 6.5761 Z -1.0000
G01 X 29.3753 Y 6.5861 Z -1.0000
G01 X 29.3701 Y 6.5905 Z -1.0000
G01 X 29.3658 Y 6.5955 Z -1.0000
G02 X 29.3616 Y 6.6368 Z -1.0000 I 0.2474 J 0.0457
G03 X 29.3572 Y 6.6795 Z -1.0000 I -0.2585 J -0.0053
G01 X 29.3507 Y 6.6949 Z -1.0000
G01 X 29.3446 Y 6.7130 Z -1.0000
G01 X 29.3498 Y 6.7167 Z -1.0000
G01 X 29.3579 Y 6.7161 Z -1.0000
G01 X 29.3628 Y 6.7195 Z -1.0000
G01 X 29.3623 Y 6.7241 Z -1.0000
G01 X 29.3531 Y 6.7294 Z -1.0000
G01 X 29.3455 Y 6.7374 Z -1.0000
G02 X 29.3416 Y 6.7841 Z -1.0000 I 0.1854 J 0.0388
G03 X 29.3407 Y 6.8319 Z -1.0000 I -0.3986 J 0.0163
G01 X 29.3376 Y 6.8343 Z -1.0000
G01 X 29.3343 Y 6.8364 Z -1.0000
G01 X 29.3327 Y 6.8515 Z -1.0000
G03 X 29.3318 Y 6.8689 Z -1.0000 I -0.0681 J 0.0050
G01 X 29.3280 Y 6.8769 Z -1.0000
G01 X 29.3248 Y 6.8848 Z -1.0000
G02 X 29.3259 Y 6.9035 Z -1.0000 I 0.0694 J 0.0053
G01 X 29.3261 Y 6.9199 Z -1.0000
G01 X 29.3223 Y 6.9230 Z -1.0000
G01 X 29.3186 Y 6.9260 Z -1.0000
G01 X 29.3187 Y 6.9404 Z -1.0000
G03 X 29.3198 Y 6.9577 Z -1.0000 I -0.0558 J 0.0122
G03 X 29.3155 Y 6.9760 Z -1.0000 I -0.0663 J -0.0059
G02 X 29.3047 Y 7.0112 Z -1.0000 I 0.2420 J 0.0941
G02 X 29.3009 Y 7.0384 Z -1.0000 I 0.1433 J 0.0334
G01 X 29.2957 Y 7.0488 Z -1.0000
G01 X 29.2899 Y 7.0695 Z -1.0000
G03 X 29.2887 Y 7.0931 Z -1.0000 I -13.0010 J -0.6651
G02 X 29.2879 Y 7.1086 Z -1.0000 I 2.5968 J 0.1376
G03 X 29.2860 Y 7.1238 Z -1.0000 I -0.1021 J -0.0054
G03 X 29.2802 Y 7.1457 Z -1.0000 I -0.2107 J -0.0435
G02 X 29.2745 Y 7.1676 Z -1.0000 I 0.2143 J 0.0684
G02 X 29.2692 Y 7.1983 Z -1.0000 I 0.4007 J 0.0846
G03 X 29.2632 Y 7.2287 Z -1.0000 I -0.2568 J -0.0347
G03 X 29.2560 Y 7.2488 Z -1.0000 I -0.1163 J -0.0302
G02 X 29.2508 Y 7.2683 Z -1.0000 I 0.0535 J 0.0248
G01 X 29.2532 Y 7.2801 Z -1.0000
G01 X 29.2531 Y 7.3000 Z -1.0000
G01 X 29.2420 Y 7.3004 Z -1.0000
G01 X 29.2384 Y 7.2994 Z -1.0000
G01 X 29.2358 Y 7.3035 Z -1.0000
G03 X 29.2310 Y 7.3505 Z -1.0000 I -0.3054 J -0.0078
G03 X 29.2215 Y 7.3819 Z -1.0000 I -0.1450 J -0.0264
G02 X 29.2148 Y 7.4049 Z -1.0000 I 0.0910 J 0.0391
G01 X 29.2154 Y 7.4185 Z -1.0000
G01 X 29.2132 Y 7.4264 Z -1.0000
G01 X 29.2050 Y 7.4285 Z -1.0000
G01 X 29.1975 Y 7.4321 Z -1.0000
G01 X 29.1948 Y 7.4508 Z -1.0000
G03 X 29.1952 Y 7.4760 Z -1.0000 I -0.0952 J 0.0140
G01 X 29.1898 Y 7.4932 Z -1.0000
G02 X 29.1823 Y 7.5102 Z -1.0000 I 0.1201 J 0.0634
G02 X 29.1769 Y 7.5287 Z -1.0000 I 0.1367 J 0.0496
G03 X 29.1712 Y 7.5464 Z -1.0000 I -0.0936 J -0.0207
G01 X 29.1670 Y 7.5512 Z -1.0000
G01 X 29.1637 Y 7.5559 Z -1.0000
G02 X 29.1613 Y 7.5775 Z -1.0000 I 0.0992 J 0.0216
G03 X 29.1590 Y 7.5998 Z -1.0000 I -0.1103 J -0.0002
G03 X 29.1533 Y 7.6158 Z -1.0000 I -0.0614 J -0.0128
G02 X 29.1464 Y 7.6317 Z -1.0000 I 0.1110 J 0.0575
G02 X 29.1282 Y 7.6870 Z -1.0000 I 1.3982 J 0.4928
G03 X 29.1095 Y 7.7421 Z -1.0000 I -1.0845 J -0.3365
G03 X 29.0963 Y 7.7736 Z -1.0000 I -0.3520 J -0.1293
G02 X 29.0843 Y 7.8051 Z -1.0000 I 0.1882 J 0.0896
G02 X 29.0820 Y 7.8226 Z -1.0000 I 0.0555 J 0.0161
G01 X 29.0792 Y 7.8391 Z -1.0000
G01 X 29.0724 Y 7.8480 Z -1.0000
G01 X 29.0656 Y 7.8570 Z -1.0000
G02 X 29.0624 Y 7.8752 Z -1.0000 I 0.0496 J 0.0182
G03 X 29.0552 Y 7.9096 Z -1.0000 I -0.0855 J -0.0000
G01 X 29.0396 Y 7.9271 Z -1.0000
G01 X 29.0342 Y 7.9336 Z -1.0000
G01 X 29.0341 Y 7.9426 Z -1.0000
G01 X 29.0351 Y 7.9530 Z -1.0000
G03 X 29.0308 Y 7.9777 Z -1.0000 I -0.1502 J -0.0136
G02 X 29.0246 Y 8.0025 Z -1.0000 I 1.6290 J 0.4189
G02 X 29.0227 Y 8.0117 Z -1.0000 I 0.1480 J 0.0357
G01 X 29.0012 Y 8.0957 Z -1.0000
G01 X 28.9962 Y 8.1211 Z -1.0000
G03 X 28.9923 Y 8.1478 Z -1.0000 I -0.1269 J -0.0049
G01 X 28.9864 Y 8.1592 Z -1.0000
G02 X 28.9657 Y 8.1953 Z -1.0000 I 0.0864 J 0.0736
G02 X 28.9472 Y 8.2715 Z -1.0000 I 0.3796 J 0.1326
G03 X 28.9148 Y 8.4098 Z -1.0000 I -0.7899 J -0.1120
G01 X 28.8944 Y 8.4314 Z -1.0000
G01 X 28.8918 Y 8.4348 Z -1.0000
G01 X 28.8928 Y 8.4481 Z -1.0000
G01 X 28.8933 Y 8.4624 Z -1.0000
G03 X 28.8866 Y 8.4825 Z -1.0000 I -0.0737 J -0.0134
G02 X 28.8780 Y 8.5026 Z -1.0000 I 0.1770 J 0.0878
G01 X 28.8767 Y 8.5099 Z -1.0000
G01 X 28.8748 Y 8.5167 Z -1.0000
G01 X 28.8679 Y 8.5248 Z -1.0000
G01 X 28.8616 Y 8.5334 Z -1.0000
G02 X 28.8550 Y 8.5565 Z -1.0000 I 0.1005 J 0.0411
G03 X 28.8489 Y 8.5785 Z -1.0000 I -0.1143 J -0.0196
G01 X 28.8455 Y 8.5809 Z -1.0000
G01 X 28.8421 Y 8.5831 Z -1.0000
G02 X 28.8358 Y 8.6041 Z -1.0000 I 0.0952 J 0.0400
G03 X 28.8301 Y 8.6268 Z -1.0000 I -0.2019 J -0.0380
G03 X 28.8205 Y 8.6530 Z -1.0000 I -0.2521 J -0.0780
G02 X 28.8122 Y 8.6782 Z -1.0000 I 0.1479 J 0.0627
G01 X 28.8134 Y 8.6826 Z -1.0000
G01 X 28.8181 Y 8.7120 Z -1.0000
G01 X 28.7898 Y 8.7293 Z -1.0000
G01 X 28.7865 Y 8.7311 Z -1.0000
G02 X 28.7776 Y 8.7479 Z -1.0000 I 0.0898 J 0.0580
G03 X 28.7686 Y 8.7644 Z -1.0000 I -0.0806 J -0.0331
G01 X 28.7648 Y 8.7664 Z -1.0000
G01 X 28.7615 Y 8.7686 Z -1.0000
G02 X 28.7557 Y 8.7877 Z -1.0000 I 0.0845 J 0.0361
G03 X 28.7491 Y 8.8068 Z -1.0000 I -0.0687 J -0.0130
G01 X 28.7431 Y 8.8122 Z -1.0000
G01 X 28.7372 Y 8.8175 Z -1.0000
G01 X 28.7344 Y 8.8298 Z -1.0000
G01 X 28.7321 Y 8.8434 Z -1.0000
G03 X 28.7248 Y 8.8579 Z -1.0000 I -0.0545 J -0.0186
G01 X 28.7181 Y 8.8717 Z -1.0000
G01 X 28.7190 Y 8.8778 Z -1.0000
G01 X 28.7195 Y 8.8839 Z -1.0000
G03 X 28.7092 Y 8.9032 Z -1.0000 I -0.0815 J -0.0314
G02 X 28.6975 Y 8.9231 Z -1.0000 I 0.1052 J 0.0749
G01 X 28.6948 Y 8.9336 Z -1.0000
G01 X 28.6919 Y 8.9440 Z -1.0000
G03 X 28.6803 Y 8.9609 Z -1.0000 I -0.0797 J -0.0425
G02 X 28.6683 Y 8.9776 Z -1.0000 I 0.0790 J 0.0691
G01 X 28.6663 Y 8.9849 Z -1.0000
G01 X 28.6647 Y 8.9924 Z -1.0000
G03 X 28.6572 Y 9.0050 Z -1.0000 I -0.0602 J -0.0273
G01 X 28.6506 Y 9.0178 Z -1.0000
G02 X 28.6479 Y 9.0349 Z -1.0000 I 0.0565 J 0.0176
G01 X 28.6447 Y 9.0511 Z -1.0000
G01 X 28.6376 Y 9.0601 Z -1.0000
G01 X 28.6308 Y 9.0693 Z -1.0000
G02 X 28.6261 Y 9.0924 Z -1.0000 I 0.0781 J 0.0278
G03 X 28.6202 Y 9.1152 Z -1.0000 I -0.0611 J -0.0036
G03 X 28.6053 Y 9.1359 Z -1.0000 I -0.0640 J -0.0306
G02 X 28.5896 Y 9.1560 Z -1.0000 I 0.0606 J 0.0634
G01 X 28.5859 Y 9.1701 Z -1.0000
G01 X 28.5828 Y 9.1836 Z -1.0000
G01 X 28.5766 Y 9.1893 Z -1.0000
G01 X 28.5700 Y 9.1948 Z -1.0000
G01 X 28.5673 Y 9.2046 Z -1.0000
G01 X 28.5649 Y 9.2155 Z -1.0000
G03 X 28.5518 Y 9.2391 Z -1.0000 I -0.1432 J -0.0644
G02 X 28.5377 Y 9.2623 Z -1.0000 I 0.2205 J 0.1496
G01 X 28.5363 Y 9.2678 Z -1.0000
G01 X 28.5346 Y 9.2721 Z -1.0000
G01 X 28.5308 Y 9.2737 Z -1.0000
G01 X 28.5099 Y 9.2924 Z -1.0000
G01 X 28.5250 Y 9.3240 Z -1.0000
G01 X 28.5222 Y 9.3293 Z -1.0000
G01 X 28.5137 Y 9.3328 Z -1.0000
G01 X 28.5048 Y 9.3463 Z -1.0000
G03 X 28.4974 Y 9.3624 Z -1.0000 I -0.1155 J -0.0435
G01 X 28.4939 Y 9.3664 Z -1.0000
G02 X 28.4661 Y 9.3985 Z -1.0000 I 0.0513 J 0.0726
G02 X 28.4559 Y 9.4407 Z -1.0000 I 0.0824 J 0.0422
G01 X 28.4533 Y 9.4492 Z -1.0000
G01 X 28.4497 Y 9.4501 Z -1.0000
G01 X 28.4458 Y 9.4513 Z -1.0000
G02 X 28.4409 Y 9.4696 Z -1.0000 I 0.0532 J 0.0240
G01 X 28.4388 Y 9.4761 Z -1.0000
G03 X 28.4302 Y 9.4882 Z -1.0000 I -0.0657 J -0.0377
G02 X 28.4219 Y 9.5005 Z -1.0000 I 0.0448 J 0.0391
G02 X 28.4128 Y 9.5228 Z -1.0000 I 0.1381 J 0.0695
G03 X 28.4037 Y 9.5437 Z -1.0000 I -0.1113 J -0.0358
G01 X 28.4000 Y 9.5460 Z -1.0000
G01 X 28.3812 Y 9.5578 Z -1.0000
G02 X 28.3692 Y 9.6109 Z -1.0000 I 0.1120 J 0.0531
G01 X 28.3673 Y 9.6178 Z -1.0000
G01 X 28.3599 Y 9.6264 Z -1.0000
G01 X 28.3529 Y 9.6351 Z -1.0000
G01 X 28.3506 Y 9.6446 Z -1.0000
G01 X 28.3488 Y 9.6547 Z -1.0000
G03 X 28.3321 Y 9.6934 Z -1.0000 I -0.4669 J -0.1784
G02 X 28.3142 Y 9.7319 Z -1.0000 I 1.1557 J 0.5600
G01 X 28.3135 Y 9.7352 Z -1.0000
G01 X 28.3125 Y 9.7382 Z -1.0000
G03 X 28.3042 Y 9.7479 Z -1.0000 I -0.0689 J -0.0507
G01 X 28.2972 Y 9.7581 Z -1.0000
G01 X 28.2949 Y 9.7690 Z -1.0000
G03 X 28.2871 Y 9.8091 Z -1.0000 I -0.1074 J -0.0000
G03 X 28.2654 Y 9.8423 Z -1.0000 I -0.0935 J -0.0377
G01 X 28.2599 Y 9.8518 Z -1.0000
G01 X 28.2599 Y 9.8626 Z -1.0000
G01 X 28.2594 Y 9.8732 Z -1.0000
G01 X 28.2517 Y 9.8849 Z -1.0000
G01 X 28.2428 Y 9.8969 Z -1.0000
G02 X 28.2335 Y 9.9215 Z -1.0000 I 0.1187 J 0.0589
G03 X 28.2250 Y 9.9463 Z -1.0000 I -0.1804 J -0.0479
G01 X 28.2210 Y 9.9510 Z -1.0000
G01 X 28.2171 Y 9.9556 Z -1.0000
G02 X 28.2017 Y 9.9988 Z -1.0000 I 0.5065 J 0.2048
G03 X 28.1855 Y 10.0419 Z -1.0000 I -0.3787 J -0.1177
G01 X 28.1765 Y 10.0556 Z -1.0000
G02 X 28.1675 Y 10.0689 Z -1.0000 I 0.0374 J 0.0347
G01 X 28.1650 Y 10.0807 Z -1.0000
G01 X 28.1627 Y 10.0928 Z -1.0000
G03 X 28.1519 Y 10.1149 Z -1.0000 I -0.1259 J -0.0481
G02 X 28.1413 Y 10.1372 Z -1.0000 I 0.0973 J 0.0595
G02 X 28.1338 Y 10.1674 Z -1.0000 I 0.1730 J 0.0595
G03 X 28.1153 Y 10.2535 Z -1.0000 I -0.8802 J -0.1434
G03 X 28.0979 Y 10.3019 Z -1.0000 I -0.2910 J -0.0775
G02 X 28.0859 Y 10.3312 Z -1.0000 I 0.3755 J 0.1715
G01 X 28.0846 Y 10.3385 Z -1.0000
G01 X 28.0821 Y 10.3451 Z -1.0000
G03 X 28.0435 Y 10.3853 Z -1.0000 I -0.4754 J -0.4185
G03 X 27.9745 Y 10.4239 Z -1.0000 I -0.1100 J -0.1156
G03 X 27.8873 Y 10.4269 Z -1.0000 I -0.0502 J -0.1882
G01 X 27.8795 Y 10.4241 Z -1.0000
G01 X 27.8722 Y 10.4186 Z -1.0000
G01 X 27.8648 Y 10.4139 Z -1.0000
G01 X 27.8544 Y 10.4120 Z -1.0000
G01 X 27.8453 Y 10.4101 Z -1.0000
G01 X 27.8433 Y 10.4070 Z -1.0000
G01 X 27.8412 Y 10.4034 Z -1.0000
G02 X 27.8015 Y 10.3823 Z -1.0000 I -0.2424 J 0.4089
G02 X 27.7584 Y 10.3682 Z -1.0000 I -0.0778 J 0.1650
G02 X 27.6874 Y 10.3602 Z -1.0000 I -0.0861 J 0.4448
G02 X 27.6170 Y 10.3608 Z -1.0000 I -0.0282 J 0.8391
G01 X 27.6129 Y 10.3639 Z -1.0000
G01 X 27.6088 Y 10.3674 Z -1.0000
G03 X 27.5633 Y 10.3715 Z -1.0000 I -0.0571 J -0.3745
G02 X 27.5168 Y 10.3757 Z -1.0000 I 0.0123 J 0.3950
G01 X 27.5075 Y 10.3799 Z -1.0000
G01 X 27.4983 Y 10.3848 Z -1.0000
G03 X 27.4794 Y 10.3883 Z -1.0000 I -0.0253 J -0.0840
G01 X 27.4598 Y 10.3938 Z -1.0000
G01 X 27.4025 Y 10.4057 Z -1.0000
G02 X 27.3462 Y 10.4155 Z -1.0000 I 0.1178 J 0.8429
G01 X 27.3394 Y 10.4190 Z -1.0000
G01 X 27.3329 Y 10.4224 Z -1.0000
G03 X 27.3166 Y 10.4243 Z -1.0000 I -0.0163 J -0.0700
G02 X 27.3009 Y 10.4266 Z -1.0000 I -0.0000 J 0.0548
G01 X 27.2958 Y 10.4305 Z -1.0000
G01 X 27.2908 Y 10.4345 Z -1.0000
G01 X 27.2769 Y 10.4367 Z -1.0000
G01 X 27.2643 Y 10.4392 Z -1.0000
G01 X 27.2618 Y 10.4429 Z -1.0000
G01 X 27.2595 Y 10.4467 Z -1.0000
G01 X 27.2498 Y 10.4491 Z -1.0000
G01 X 27.2391 Y 10.4518 Z -1.0000
G01 X 27.2295 Y 10.4599 Z -1.0000
G03 X 27.1961 Y 10.4939 Z -1.0000 I -0.1492 J -0.1133
G01 X 27.1767 Y 10.5015 Z -1.0000
G02 X 27.1375 Y 10.5162 Z -1.0000 I 0.0055 J 0.0739
G01 X 27.1257 Y 10.5400 Z -1.0000
G01 X 27.1233 Y 10.5457 Z -1.0000
G01 X 27.1174 Y 10.5481 Z -1.0000
G01 X 27.1108 Y 10.5508 Z -1.0000
G01 X 27.1021 Y 10.5635 Z -1.0000
G01 X 27.0932 Y 10.5761 Z -1.0000
G01 X 27.0860 Y 10.5790 Z -1.0000
G01 X 27.0791 Y 10.5818 Z -1.0000
G01 X 27.0731 Y 10.5916 Z -1.0000
G01 X 27.0673 Y 10.6030 Z -1.0000
G03 X 27.0531 Y 10.6189 Z -1.0000 I -0.0886 J -0.0645
G02 X 27.0304 Y 10.6507 Z -1.0000 I 0.0667 J 0.0719
G02 X 27.0180 Y 10.6972 Z -1.0000 I 0.1358 J 0.0609
G03 X 27.0142 Y 10.7125 Z -1.0000 I -0.0532 J -0.0051
G03 X 27.0039 Y 10.7312 Z -1.0000 I -0.0899 J -0.0373
G02 X 26.9937 Y 10.7501 Z -1.0000 I 0.0738 J 0.0520
G02 X 26.9834 Y 10.7831 Z -1.0000 I 0.2196 J 0.0864
G03 X 26.9742 Y 10.8167 Z -1.0000 I -0.4071 J -0.0936
G03 X 26.9647 Y 10.8419 Z -1.0000 I -0.2509 J -0.0802
G02 X 26.9520 Y 10.8835 Z -1.0000 I 0.1755 J 0.0766
G02 X 26.9340 Y 11.0069 Z -1.0000 I 1.5449 J 0.2874
G03 X 26.9246 Y 11.0595 Z -1.0000 I -0.3691 J -0.0389
G03 X 26.9123 Y 11.0925 Z -1.0000 I -0.1554 J -0.0395
G02 X 26.9007 Y 11.1238 Z -1.0000 I 0.1289 J 0.0653
G01 X 26.9027 Y 11.1322 Z -1.0000
G01 X 26.9018 Y 11.1545 Z -1.0000
G01 X 26.8783 Y 11.1574 Z -1.0000
G01 X 26.8717 Y 11.1566 Z -1.0000
G01 X 26.8599 Y 11.1634 Z -1.0000
G01 X 26.8478 Y 11.1714 Z -1.0000
G01 X 26.8402 Y 11.1726 Z -1.0000
G02 X 26.8159 Y 11.1750 Z -1.0000 I -0.0072 J 0.0519
G01 X 26.8102 Y 11.1829 Z -1.0000
G01 X 26.8067 Y 11.1884 Z -1.0000
G01 X 26.7966 Y 11.1893 Z -1.0000
G01 X 26.7837 Y 11.1886 Z -1.0000
G01 X 26.7748 Y 11.1926 Z -1.0000
G01 X 26.7661 Y 11.1956 Z -1.0000
G01 X 26.7526 Y 11.1920 Z -1.0000
G01 X 26.7384 Y 11.1883 Z -1.0000
G01 X 26.7207 Y 11.1914 Z -1.0000
G01 X 26.7045 Y 11.1934 Z -1.0000
G01 X 26.6974 Y 11.1887 Z -1.0000
G01 X 26.6905 Y 11.1818 Z -1.0000
G01 X 26.6793 Y 11.1791 Z -1.0000
G01 X 26.6718 Y 11.1831 Z -1.0000
G01 X 26.6701 Y 11.1930 Z -1.0000
G01 X 26.6673 Y 11.2021 Z -1.0000
G01 X 26.6538 Y 11.2073 Z -1.0000
G02 X 26.6343 Y 11.2091 Z -1.0000 I 0.0024 J 0.1316
G01 X 26.6236 Y 11.2124 Z -1.0000
G01 X 26.6141 Y 11.2128 Z -1.0000
G01 X 26.6000 Y 11.2039 Z -1.0000
G01 X 26.5865 Y 11.1961 Z -1.0000
G01 X 26.5779 Y 11.1980 Z -1.0000
G01 X 26.5710 Y 11.2062 Z -1.0000
G01 X 26.5690 Y 11.2139 Z -1.0000
G01 X 26.5672 Y 11.2202 Z -1.0000
G01 X 26.5644 Y 11.2214 Z -1.0000
G01 X 26.5598 Y 11.2215 Z -1.0000
G02 X 26.5443 Y 11.2269 Z -1.0000 I 0.0322 J 0.1181
G02 X 26.5288 Y 11.2333 Z -1.0000 I 0.9089 J 2.2074
G03 X 26.5049 Y 11.2433 Z -1.0000 I -4.4048 J -10.4880
G03 X 26.4805 Y 11.2515 Z -1.0000 I -0.0705 J -0.1689
G03 X 26.4664 Y 11.2533 Z -1.0000 I -0.0141 J -0.0542
G01 X 26.4539 Y 11.2567 Z -1.0000
G01 X 26.4453 Y 11.2657 Z -1.0000
G01 X 26.4297 Y 11.2752 Z -1.0000
G01 X 26.4132 Y 11.2662 Z -1.0000
G01 X 26.4055 Y 11.2613 Z -1.0000
G01 X 26.3982 Y 11.2646 Z -1.0000
G01 X 26.3943 Y 11.2748 Z -1.0000
G01 X 26.3964 Y 11.2819 Z -1.0000
G01 X 26.3969 Y 11.2881 Z -1.0000
G01 X 26.3866 Y 11.2991 Z -1.0000
G01 X 26.3745 Y 11.3028 Z -1.0000
G01 X 26.3710 Y 11.2993 Z -1.0000
G01 X 26.3633 Y 11.2952 Z -1.0000
G01 X 26.3536 Y 11.3110 Z -1.0000
G01 X 26.3488 Y 11.3243 Z -1.0000
G01 X 26.3428 Y 11.3275 Z -1.0000
G01 X 26.3360 Y 11.3297 Z -1.0000
G01 X 26.3339 Y 11.3337 Z -1.0000
G01 X 26.3318 Y 11.3379 Z -1.0000
G01 X 26.3257 Y 11.3399 Z -1.0000
G02 X 26.2882 Y 11.3551 Z -1.0000 I 0.0000 J 0.0540
G02 X 26.2568 Y 11.4064 Z -1.0000 I 0.0830 J 0.0859
G01 X 26.2505 Y 11.4175 Z -1.0000
G01 X 26.2438 Y 11.4204 Z -1.0000
G01 X 26.2370 Y 11.4225 Z -1.0000
G01 X 26.2349 Y 11.4266 Z -1.0000
G01 X 26.2327 Y 11.4305 Z -1.0000
G01 X 26.2249 Y 11.4328 Z -1.0000
G01 X 26.2192 Y 11.4361 Z -1.0000
G01 X 26.2181 Y 11.4451 Z -1.0000
G01 X 26.2160 Y 11.4534 Z -1.0000
G01 X 26.2066 Y 11.4575 Z -1.0000
G01 X 26.1976 Y 11.4623 Z -1.0000
G01 X 26.1952 Y 11.4745 Z -1.0000
G01 X 26.1938 Y 11.4901 Z -1.0000
G03 X 26.1811 Y 11.5101 Z -1.0000 I -0.0586 J -0.0233
G02 X 26.1539 Y 11.5472 Z -1.0000 I 0.1383 J 0.1300
G02 X 26.1332 Y 11.5955 Z -1.0000 I 0.2155 J 0.1209
G01 X 26.1281 Y 11.6025 Z -1.0000
G01 X 26.1230 Y 11.6026 Z -1.0000
G01 X 26.1195 Y 11.6034 Z -1.0000
G01 X 26.1180 Y 11.6099 Z -1.0000
G03 X 26.1141 Y 11.6409 Z -1.0000 I -0.0572 J 0.0085
G01 X 26.1015 Y 11.6493 Z -1.0000
G01 X 26.0958 Y 11.6551 Z -1.0000
G01 X 26.1019 Y 11.6678 Z -1.0000
G01 X 26.1137 Y 11.6929 Z -1.0000
G01 X 26.1019 Y 11.7213 Z -1.0000
G01 X 26.0918 Y 11.7444 Z -1.0000
G01 X 26.1002 Y 11.7657 Z -1.0000
G01 X 26.1035 Y 11.7738 Z -1.0000
G01 X 26.1001 Y 11.7856 Z -1.0000
G01 X 26.0955 Y 11.7984 Z -1.0000
G01 X 26.0963 Y 11.8133 Z -1.0000
G01 X 26.0955 Y 11.8251 Z -1.0000
G01 X 26.0902 Y 11.8287 Z -1.0000
G01 X 26.0842 Y 11.8344 Z -1.0000
G01 X 26.0890 Y 11.8507 Z -1.0000
G01 X 26.0935 Y 11.8625 Z -1.0000
G01 X 26.0908 Y 11.8710 Z -1.0000
G01 X 26.0890 Y 11.8784 Z -1.0000
G01 X 26.0940 Y 11.8850 Z -1.0000
G01 X 26.0999 Y 11.8931 Z -1.0000
G03 X 26.1028 Y 11.9262 Z -1.0000 I -0.1320 J 0.0282
G03 X 26.0998 Y 11.9612 Z -1.0000 I -0.3630 J -0.0134
G01 X 26.0971 Y 11.9688 Z -1.0000
G01 X 26.0967 Y 11.9745 Z -1.0000
G01 X 26.1019 Y 11.9794 Z -1.0000
G01 X 26.1090 Y 11.9915 Z -1.0000
G01 X 26.0972 Y 12.0123 Z -1.0000
G02 X 26.0850 Y 12.0249 Z -1.0000 I 0.0453 J 0.0562
G02 X 26.0757 Y 12.0405 Z -1.0000 I 0.0633 J 0.0480
G01 X 26.0623 Y 12.0536 Z -1.0000
G01 X 26.0534 Y 12.0498 Z -1.0000
G01 X 26.0498 Y 12.0529 Z -1.0000
G01 X 26.0426 Y 12.0588 Z -1.0000
G01 X 26.0195 Y 12.0483 Z -1.0000
G02 X 26.0004 Y 12.0347 Z -1.0000 I -0.0958 J 0.1140
G01 X 25.9937 Y 12.0329 Z -1.0000
G01 X 25.9895 Y 12.0399 Z -1.0000
G01 X 26.0048 Y 12.0544 Z -1.0000
G01 X 26.0158 Y 12.0622 Z -1.0000
G01 X 26.0184 Y 12.0684 Z -1.0000
G01 X 26.0124 Y 12.0749 Z -1.0000
G01 X 25.9942 Y 12.0705 Z -1.0000
G01 X 25.9860 Y 12.0693 Z -1.0000
G01 X 25.9730 Y 12.0768 Z -1.0000
G01 X 25.9517 Y 12.0862 Z -1.0000
G01 X 25.9441 Y 12.0793 Z -1.0000
G01 X 25.9419 Y 12.0722 Z -1.0000
G01 X 25.9375 Y 12.0700 Z -1.0000
G01 X 25.9207 Y 12.0774 Z -1.0000
G01 X 25.9132 Y 12.0970 Z -1.0000
G01 X 25.9067 Y 12.1091 Z -1.0000
G01 X 25.8978 Y 12.1072 Z -1.0000
G01 X 25.8935 Y 12.1062 Z -1.0000
G02 X 25.8781 Y 12.1196 Z -1.0000 I 0.0354 J 0.0561
G03 X 25.8618 Y 12.1326 Z -1.0000 I -0.0405 J -0.0341
G01 X 25.8544 Y 12.1318 Z -1.0000
G01 X 25.8470 Y 12.1313 Z -1.0000
G02 X 25.8251 Y 12.1502 Z -1.0000 I 0.0509 J 0.0811
G03 X 25.8028 Y 12.1730 Z -1.0000 I -0.1847 J -0.1582
G01 X 25.7973 Y 12.1751 Z -1.0000
G02 X 25.7177 Y 12.2085 Z -1.0000 I 0.0000 J 0.1117
G02 X 25.6843 Y 12.2899 Z -1.0000 I 0.0828 J 0.0814
G01 X 25.6817 Y 12.2946 Z -1.0000
G01 X 25.6756 Y 12.2951 Z -1.0000
G01 X 25.6691 Y 12.2962 Z -1.0000
G01 X 25.6625 Y 12.3062 Z -1.0000
G03 X 25.6540 Y 12.3227 Z -1.0000 I -0.0515 J -0.0159
G03 X 25.6271 Y 12.3530 Z -1.0000 I -0.2059 J -0.1552
G02 X 25.6183 Y 12.3643 Z -1.0000 I 0.0345 J 0.0364
G01 X 25.6163 Y 12.3716 Z -1.0000
G01 X 25.6140 Y 12.3781 Z -1.0000
G01 X 25.6070 Y 12.3832 Z -1.0000
G01 X 25.6004 Y 12.3887 Z -1.0000
G01 X 25.5977 Y 12.3982 Z -1.0000
G01 X 25.5958 Y 12.4085 Z -1.0000
G01 X 25.5922 Y 12.4129 Z -1.0000
G01 X 25.5884 Y 12.4175 Z -1.0000
G02 X 25.5828 Y 12.4374 Z -1.0000 I 0.1005 J 0.0391
G03 X 25.5762 Y 12.4564 Z -1.0000 I -0.0682 J -0.0129
G01 X 25.5701 Y 12.4619 Z -1.0000
G01 X 25.5646 Y 12.4673 Z -1.0000
G01 X 25.5619 Y 12.4826 Z -1.0000
G01 X 25.5589 Y 12.4989 Z -1.0000
G03 X 25.5430 Y 12.5287 Z -1.0000 I -0.1525 J -0.0627
G02 X 25.5250 Y 12.5579 Z -1.0000 I 0.3208 J 0.2171
G01 X 25.5235 Y 12.5637 Z -1.0000
G01 X 25.5134 Y 12.5846 Z -1.0000
G03 X 25.4702 Y 12.6058 Z -1.0000 I -0.0712 J -0.0900
G01 X 25.4551 Y 12.6064 Z -1.0000
G03 X 25.4161 Y 12.5965 Z -1.0000 I 0.0424 J -0.2497
G02 X 25.3771 Y 12.5847 Z -1.0000 I -0.2060 J 0.6110
G01 X 25.3672 Y 12.5834 Z -1.0000
G01 X 25.3580 Y 12.5809 Z -1.0000
G03 X 25.3428 Y 12.5690 Z -1.0000 I 0.0384 J -0.0645
G02 X 25.3271 Y 12.5572 Z -1.0000 I -0.0468 J 0.0462
G02 X 25.3010 Y 12.5467 Z -1.0000 I -0.0619 J 0.1156
G03 X 25.2751 Y 12.5365 Z -1.0000 I 0.0387 J -0.1367
G01 X 25.2661 Y 12.5289 Z -1.0000
G01 X 25.2565 Y 12.5235 Z -1.0000
G02 X 25.1484 Y 12.5187 Z -1.0000 I -0.1106 J 1.2796
G02 X 24.9970 Y 12.5245 Z -1.0000 I -0.0040 J 1.8890
G01 X 24.9784 Y 12.5320 Z -1.0000
G01 X 24.9690 Y 12.5372 Z -1.0000
G03 X 24.9389 Y 12.5450 Z -1.0000 I -0.0772 J -0.2353
G02 X 24.8641 Y 12.5616 Z -1.0000 I 0.2560 J 1.3288
G02 X 24.8338 Y 12.5715 Z -1.0000 I 0.0580 J 0.2298
G03 X 24.8213 Y 12.5761 Z -1.0000 I -0.0913 J -0.2300
G03 X 24.8060 Y 12.5808 Z -1.0000 I -0.1071 J -0.3188
G02 X 24.7373 Y 12.6185 Z -1.0000 I 0.0479 J 0.1689
G02 X 24.6444 Y 12.7246 Z -1.0000 I 0.3766 J 0.4233
G02 X 24.6170 Y 12.7815 Z -1.0000 I 0.1796 J 0.1213
G02 X 24.6047 Y 12.8522 Z -1.0000 I 0.2673 J 0.0832
G02 X 24.6138 Y 12.9321 Z -1.0000 I 0.2533 J 0.0115
G02 X 24.6489 Y 13.0102 Z -1.0000 I 0.2776 J -0.0777
G03 X 24.6725 Y 13.0515 Z -1.0000 I -0.3890 J 0.2499
G03 X 24.6826 Y 13.0767 Z -1.0000 I -0.1356 J 0.0686
G02 X 24.6920 Y 13.1008 Z -1.0000 I 0.1457 J -0.0433
G01 X 24.6956 Y 13.1030 Z -1.0000
G01 X 24.6988 Y 13.1051 Z -1.0000
G01 X 24.7009 Y 13.1139 Z -1.0000
G01 X 24.7032 Y 13.1241 Z -1.0000
G02 X 24.7210 Y 13.1578 Z -1.0000 I 0.3047 J -0.1400
G03 X 24.7438 Y 13.1963 Z -1.0000 I -1.9040 J 1.1534
G03 X 24.7896 Y 13.2763 Z -1.0000 I -8.1787 J 4.7322
G03 X 24.7961 Y 13.2967 Z -1.0000 I -0.0454 J 0.0257
G01 X 24.7933 Y 13.3127 Z -1.0000
G02 X 24.7878 Y 13.3293 Z -1.0000 I 0.0605 J 0.0292
G02 X 24.7869 Y 13.3454 Z -1.0000 I 0.0600 J 0.0115
G01 X 24.7847 Y 13.3607 Z -1.0000
G01 X 24.7755 Y 13.3748 Z -1.0000
G02 X 24.7651 Y 13.3886 Z -1.0000 I 0.0434 J 0.0434
G01 X 24.7625 Y 13.3984 Z -1.0000
G01 X 24.7604 Y 13.4086 Z -1.0000
G03 X 24.7532 Y 13.4213 Z -1.0000 I -0.0519 J -0.0212
G01 X 24.7468 Y 13.4342 Z -1.0000
G02 X 24.7441 Y 13.4540 Z -1.0000 I 0.0715 J 0.0199
G01 X 24.7400 Y 13.4730 Z -1.0000
G03 X 24.7277 Y 13.4900 Z -1.0000 I -0.0483 J -0.0220
G02 X 24.7153 Y 13.5073 Z -1.0000 I 0.0365 J 0.0394
G02 X 24.7062 Y 13.5376 Z -1.0000 I 0.1083 J 0.0489
G03 X 24.6979 Y 13.5682 Z -1.0000 I -0.1496 J -0.0239
G01 X 24.6908 Y 13.5776 Z -1.0000
G01 X 24.6839 Y 13.5870 Z -1.0000
G02 X 24.6781 Y 13.6147 Z -1.0000 I 0.1085 J 0.0372
G03 X 24.6717 Y 13.6422 Z -1.0000 I -0.0956 J -0.0078
G01 X 24.6624 Y 13.6544 Z -1.0000
G01 X 24.6493 Y 13.6645 Z -1.0000
G01 X 24.6638 Y 13.6723 Z -1.0000
G01 X 24.6701 Y 13.6806 Z -1.0000
G01 X 24.6673 Y 13.6881 Z -1.0000
G01 X 24.6560 Y 13.6934 Z -1.0000
G01 X 24.6480 Y 13.6930 Z -1.0000
G01 X 24.6433 Y 13.6948 Z -1.0000
G01 X 24.6403 Y 13.7088 Z -1.0000
G02 X 24.6434 Y 13.7253 Z -1.0000 I 0.0531 J -0.0015
G01 X 24.6471 Y 13.7279 Z -1.0000
G01 X 24.6498 Y 13.7315 Z -1.0000
G01 X 24.6458 Y 13.7327 Z -1.0000
G01 X 24.6333 Y 13.7282 Z -1.0000
G01 X 24.6204 Y 13.7277 Z -1.0000
G01 X 24.6181 Y 13.7318 Z -1.0000
G01 X 24.6094 Y 13.7341 Z -1.0000
G01 X 24.5998 Y 13.7371 Z -1.0000
G02 X 24.5817 Y 13.7532 Z -1.0000 I 0.0554 J 0.0807
G01 X 24.5590 Y 13.7651 Z -1.0000
G01 X 24.5511 Y 13.7567 Z -1.0000
G01 X 24.5493 Y 13.7495 Z -1.0000
G01 X 24.5434 Y 13.7465 Z -1.0000
G01 X 24.5365 Y 13.7438 Z -1.0000
G01 X 24.5338 Y 13.7372 Z -1.0000
G01 X 24.5312 Y 13.7306 Z -1.0000
G01 X 24.5251 Y 13.7279 Z -1.0000
G01 X 24.5204 Y 13.7310 Z -1.0000
G01 X 24.5196 Y 13.7403 Z -1.0000
G01 X 24.5143 Y 13.7478 Z -1.0000
G01 X 24.4967 Y 13.7420 Z -1.0000
G01 X 24.4852 Y 13.7233 Z -1.0000
G01 X 24.4910 Y 13.7190 Z -1.0000
G01 X 24.4956 Y 13.7116 Z -1.0000
G01 X 24.4906 Y 13.7031 Z -1.0000
G01 X 24.4789 Y 13.6980 Z -1.0000
G01 X 24.4710 Y 13.7024 Z -1.0000
G01 X 24.4687 Y 13.7212 Z -1.0000
G01 X 24.4598 Y 13.7341 Z -1.0000
G01 X 24.4380 Y 13.7274 Z -1.0000
G01 X 24.4202 Y 13.7160 Z -1.0000
G01 X 24.4126 Y 13.7183 Z -1.0000
G01 X 24.4017 Y 13.7221 Z -1.0000
G03 X 24.3779 Y 13.7091 Z -1.0000 I 0.0145 J -0.0548
G03 X 24.3618 Y 13.6884 Z -1.0000 I 0.0532 J -0.0580
G01 X 24.3574 Y 13.6710 Z -1.0000
G01 X 24.3475 Y 13.6614 Z -1.0000
G01 X 24.3321 Y 13.6719 Z -1.0000
G01 X 24.3066 Y 13.6912 Z -1.0000
G01 X 24.2727 Y 13.6803 Z -1.0000
G01 X 24.2588 Y 13.6717 Z -1.0000
G01 X 24.2554 Y 13.6741 Z -1.0000
G01 X 24.2525 Y 13.6816 Z -1.0000
G01 X 24.2458 Y 13.6845 Z -1.0000
G01 X 24.2403 Y 13.6822 Z -1.0000
G01 X 24.2400 Y 13.6783 Z -1.0000
G01 X 24.2381 Y 13.6737 Z -1.0000
G02 X 24.2167 Y 13.6718 Z -1.0000 I -0.0156 J 0.0553
G01 X 24.2078 Y 13.6698 Z -1.0000
G01 X 24.2019 Y 13.6626 Z -1.0000
G01 X 24.1956 Y 13.6566 Z -1.0000
G01 X 24.1814 Y 13.6556 Z -1.0000
G01 X 24.1661 Y 13.6544 Z -1.0000
G03 X 24.1481 Y 13.6435 Z -1.0000 I 0.0181 J -0.0498
G01 X 24.1316 Y 13.6349 Z -1.0000
G01 X 24.1218 Y 13.6377 Z -1.0000
G01 X 24.1118 Y 13.6412 Z -1.0000
G01 X 24.0959 Y 13.6346 Z -1.0000
G02 X 24.0788 Y 13.6257 Z -1.0000 I -0.0323 J 0.0413
G01 X 24.0654 Y 13.6254 Z -1.0000
G01 X 24.0521 Y 13.6250 Z -1.0000
G01 X 24.0376 Y 13.6165 Z -1.0000
G01 X 24.0228 Y 13.6076 Z -1.0000
G02 X 24.0010 Y 13.6040 Z -1.0000 I -0.0218 J 0.0643
G03 X 23.9791 Y 13.6017 Z -1.0000 I 0.0000 J -0.1038
G01 X 23.9742 Y 13.5982 Z -1.0000
G01 X 23.9692 Y 13.5944 Z -1.0000
G02 X 23.9413 Y 13.5881 Z -1.0000 I -0.0559 J 0.1832
G03 X 23.9126 Y 13.5820 Z -1.0000 I 0.0308 J -0.2154
G03 X 23.8945 Y 13.5749 Z -1.0000 I 0.0279 J -0.0983
G02 X 23.8768 Y 13.5687 Z -1.0000 I -0.0330 J 0.0653
G01 X 23.8683 Y 13.5693 Z -1.0000
G01 X 23.8597 Y 13.5702 Z -1.0000
G03 X 23.8333 Y 13.5631 Z -1.0000 I 0.0277 J -0.1575
G02 X 23.8066 Y 13.5546 Z -1.0000 I -0.1424 J 0.3978
G02 X 23.7698 Y 13.5451 Z -1.0000 I -0.2012 J 0.7061
G03 X 23.7226 Y 13.5334 Z -1.0000 I 0.3309 J -1.4392
G03 X 23.6631 Y 13.5168 Z -1.0000 I 0.6100 J -2.3036
G02 X 23.6397 Y 13.5107 Z -1.0000 I -0.1379 J 0.4754
G02 X 23.6028 Y 13.5025 Z -1.0000 I -0.2549 J 1.0718
G03 X 23.5660 Y 13.4939 Z -1.0000 I 0.1166 J -0.5806
G03 X 23.5502 Y 13.4885 Z -1.0000 I 0.0306 J -0.1142
G02 X 23.4868 Y 13.4656 Z -1.0000 I -0.2354 J 0.5522
G02 X 23.4605 Y 13.4616 Z -1.0000 I -0.0267 J 0.0894
G03 X 23.4241 Y 13.4553 Z -1.0000 I 0.0006 J -0.1110
G03 X 23.3937 Y 13.4381 Z -1.0000 I 0.0331 J -0.0937
G01 X 23.3836 Y 13.4336 Z -1.0000
G01 X 23.3683 Y 13.4343 Z -1.0000
G01 X 23.3550 Y 13.4348 Z -1.0000
G01 X 23.3522 Y 13.4315 Z -1.0000
G01 X 23.3494 Y 13.4274 Z -1.0000
G01 X 23.3340 Y 13.4246 Z -1.0000
G03 X 23.3171 Y 13.4223 Z -1.0000 I -0.0000 J -0.0621
G01 X 23.3120 Y 13.4184 Z -1.0000
G01 X 23.3071 Y 13.4142 Z -1.0000
G01 X 23.2969 Y 13.4122 Z -1.0000
G01 X 23.2860 Y 13.4106 Z -1.0000
G03 X 23.2683 Y 13.4032 Z -1.0000 I 0.0314 J -0.1008
G02 X 23.2511 Y 13.3966 Z -1.0000 I -0.0396 J 0.0767
G01 X 23.2461 Y 13.3973 Z -1.0000
G01 X 23.2282 Y 13.3996 Z -1.0000
G03 X 23.0955 Y 13.3501 Z -1.0000 I 0.3977 J -1.2693
G02 X 23.0702 Y 13.3413 Z -1.0000 I -0.0730 J 0.1683
G02 X 23.0262 Y 13.3315 Z -1.0000 I -0.1321 J 0.4911
G03 X 22.9841 Y 13.3207 Z -1.0000 I 0.0499 J -0.2827
G01 X 22.9785 Y 13.3153 Z -1.0000
G01 X 22.9734 Y 13.3096 Z -1.0000
G01 X 22.9634 Y 13.3070 Z -1.0000
G01 X 22.9532 Y 13.3040 Z -1.0000
G01 X 22.9422 Y 13.2931 Z -1.0000
G01 X 22.9314 Y 13.2853 Z -1.0000
G01 X 22.9201 Y 13.2868 Z -1.0000
G01 X 22.9068 Y 13.2906 Z -1.0000
G03 X 22.8716 Y 13.2874 Z -1.0000 I -0.0025 J -0.1719
G02 X 22.8356 Y 13.2818 Z -1.0000 I -0.1033 J 0.5367
G02 X 22.8216 Y 13.2813 Z -1.0000 I -0.0092 J 0.0737
G01 X 22.8084 Y 13.2792 Z -1.0000
G03 X 22.7786 Y 13.2642 Z -1.0000 I 0.0713 J -0.1779
G02 X 22.7495 Y 13.2513 Z -1.0000 I -0.0602 J 0.0967
G01 X 22.7376 Y 13.2525 Z -1.0000
G01 X 22.7096 Y 13.2566 Z -1.0000
G03 X 22.6684 Y 13.2383 Z -1.0000 I 0.0218 J -0.1040
G01 X 22.6614 Y 13.2353 Z -1.0000
G02 X 22.6159 Y 13.2301 Z -1.0000 I -0.0882 J 0.5645
G03 X 22.5367 Y 13.2147 Z -1.0000 I 0.0256 J -0.3448
G01 X 22.5198 Y 13.1995 Z -1.0000
G01 X 22.5114 Y 13.1802 Z -1.0000
G01 X 22.5112 Y 13.2007 Z -1.0000
G01 X 22.5109 Y 13.2213 Z -1.0000
G01 X 22.4929 Y 13.2085 Z -1.0000
G02 X 22.4672 Y 13.1972 Z -1.0000 I -0.0398 J 0.0560
G01 X 22.4614 Y 13.2019 Z -1.0000
G01 X 22.4591 Y 13.2057 Z -1.0000
G01 X 22.4491 Y 13.2081 Z -1.0000
G01 X 22.4396 Y 13.2051 Z -1.0000
G01 X 22.4367 Y 13.1995 Z -1.0000
G01 X 22.4269 Y 13.1842 Z -1.0000
G01 X 22.4124 Y 13.1882 Z -1.0000
G01 X 22.3959 Y 13.1980 Z -1.0000
G01 X 22.3717 Y 13.1920 Z -1.0000
G01 X 22.3559 Y 13.1856 Z -1.0000
G02 X 22.3210 Y 13.1823 Z -1.0000 I -0.0349 J 0.1820
G03 X 22.2858 Y 13.1794 Z -1.0000 I -0.0002 J -0.2144
G03 X 22.2644 Y 13.1729 Z -1.0000 I 0.0139 J -0.0841
G02 X 22.2431 Y 13.1670 Z -1.0000 I -0.0296 J 0.0655
G02 X 22.2176 Y 13.1674 Z -1.0000 I -0.0112 J 0.0957
G03 X 22.1921 Y 13.1678 Z -1.0000 I -0.0141 J -0.0951
G03 X 22.1679 Y 13.1614 Z -1.0000 I 0.0109 J -0.0909
G02 X 22.1454 Y 13.1554 Z -1.0000 I -0.0341 J 0.0822
G01 X 22.1402 Y 13.1578 Z -1.0000
G01 X 22.1350 Y 13.1609 Z -1.0000
G03 X 22.1118 Y 13.1592 Z -1.0000 I -0.0049 J -0.0928
G02 X 22.0870 Y 13.1557 Z -1.0000 I -0.0440 J 0.2204
G02 X 22.0655 Y 13.1553 Z -1.0000 I -0.0136 J 0.1576
G03 X 22.0444 Y 13.1543 Z -1.0000 I -0.0051 J -0.1125
G01 X 22.0371 Y 13.1513 Z -1.0000
G01 X 22.0297 Y 13.1482 Z -1.0000
G02 X 22.0000 Y 13.1447 Z -1.0000 I -0.0428 J 0.2391
G03 X 21.9705 Y 13.1414 Z -1.0000 I 0.0131 J -0.2487
G01 X 21.9664 Y 13.1389 Z -1.0000
G01 X 21.9622 Y 13.1366 Z -1.0000
G02 X 21.9015 Y 13.1332 Z -1.0000 I -0.0828 J 0.9321
G03 X 21.8404 Y 13.1296 Z -1.0000 I 0.0216 J -0.8892
G01 X 21.8332 Y 13.1269 Z -1.0000
G02 X 21.8010 Y 13.1166 Z -1.0000 I -0.0318 J 0.0437
G01 X 21.7902 Y 13.1274 Z -1.0000
G01 X 21.7238 Y 13.1309 Z -1.0000
G02 X 21.6179 Y 13.1459 Z -1.0000 I 0.0252 J 0.5615
G01 X 21.6077 Y 13.1588 Z -1.0000
G01 X 21.6061 Y 13.1630 Z -1.0000
G03 X 21.5711 Y 13.1989 Z -1.0000 I -0.5560 J -0.5067
G02 X 21.5388 Y 13.2352 Z -1.0000 I 0.2155 J 0.2244
G01 X 21.5377 Y 13.2429 Z -1.0000
G01 X 21.5381 Y 13.2512 Z -1.0000
G03 X 21.5309 Y 13.2670 Z -1.0000 I -0.0536 J -0.0149
G01 X 21.5251 Y 13.2832 Z -1.0000
G02 X 21.5259 Y 13.3118 Z -1.0000 I 0.1004 J 0.0113
G03 X 21.5263 Y 13.3406 Z -1.0000 I -0.0903 J 0.0155
G03 X 21.5167 Y 13.3740 Z -1.0000 I -0.1309 J -0.0192
G02 X 21.5047 Y 13.4068 Z -1.0000 I 0.2721 J 0.1188
G01 X 21.5053 Y 13.4117 Z -1.0000
G01 X 21.5056 Y 13.4163 Z -1.0000
G03 X 21.4930 Y 13.4388 Z -1.0000 I -0.1352 J -0.0610
G02 X 21.4807 Y 13.4704 Z -1.0000 I 0.0626 J 0.0426
G01 X 21.4849 Y 13.4943 Z -1.0000
G01 X 21.4862 Y 13.5061 Z -1.0000
G01 X 21.4787 Y 13.5163 Z -1.0000
G01 X 21.4676 Y 13.5341 Z -1.0000
G01 X 21.4747 Y 13.5461 Z -1.0000
G01 X 21.4842 Y 13.5579 Z -1.0000
G01 X 21.4781 Y 13.5680 Z -1.0000
G01 X 21.4754 Y 13.5718 Z -1.0000
G02 X 21.4778 Y 13.5944 Z -1.0000 I 0.0976 J 0.0012
G01 X 21.4764 Y 13.6201 Z -1.0000
G01 X 21.4683 Y 13.6224 Z -1.0000
G01 X 21.4563 Y 13.6230 Z -1.0000
G01 X 21.4561 Y 13.6349 Z -1.0000
G01 X 21.4638 Y 13.6469 Z -1.0000
G01 X 21.4659 Y 13.6575 Z -1.0000
G03 X 21.4591 Y 13.7067 Z -1.0000 I -0.2182 J -0.0049
G01 X 21.4493 Y 13.7222 Z -1.0000
G01 X 21.4453 Y 13.7299 Z -1.0000
G01 X 21.4478 Y 13.7381 Z -1.0000
G01 X 21.4510 Y 13.7505 Z -1.0000
G03 X 21.4335 Y 13.8149 Z -1.0000 I -0.4024 J -0.0749
G02 X 21.4290 Y 13.8310 Z -1.0000 I 0.1078 J 0.0392
G01 X 21.4290 Y 13.8366 Z -1.0000
G03 X 21.4283 Y 13.8651 Z -1.0000 I -0.0537 J 0.0129
G01 X 21.4155 Y 13.8825 Z -1.0000
G01 X 21.4124 Y 13.8866 Z -1.0000
G02 X 21.4087 Y 13.9042 Z -1.0000 I 0.0863 J 0.0273
G03 X 21.4038 Y 13.9210 Z -1.0000 I -0.0510 J -0.0055
G01 X 21.3958 Y 13.9308 Z -1.0000
G01 X 21.3898 Y 13.9399 Z -1.0000
G01 X 21.3912 Y 13.9505 Z -1.0000
G03 X 21.3961 Y 13.9624 Z -1.0000 I -0.0560 J 0.0298
G01 X 21.3974 Y 13.9717 Z -1.0000
G01 X 21.3911 Y 13.9775 Z -1.0000
G01 X 21.3846 Y 13.9706 Z -1.0000
G01 X 21.3808 Y 13.9691 Z -1.0000
G01 X 21.3762 Y 13.9775 Z -1.0000
G03 X 21.3674 Y 13.9863 Z -1.0000 I -0.0403 J -0.0312
G01 X 21.3655 Y 13.9926 Z -1.0000
G01 X 21.3712 Y 13.9979 Z -1.0000
G01 X 21.3788 Y 14.0068 Z -1.0000
G03 X 21.3764 Y 14.0507 Z -1.0000 I -0.1445 J 0.0142
G03 X 21.3608 Y 14.1003 Z -1.0000 I -0.2566 J -0.0535
G01 X 21.3544 Y 14.1023 Z -1.0000
G01 X 21.3382 Y 14.1075 Z -1.0000
G02 X 21.3310 Y 14.1584 Z -1.0000 I 0.0947 J 0.0395
G03 X 21.3295 Y 14.1835 Z -1.0000 I -0.0721 J 0.0082
G01 X 21.3221 Y 14.1959 Z -1.0000
G01 X 21.3147 Y 14.2083 Z -1.0000
G02 X 21.3139 Y 14.2290 Z -1.0000 I 0.0496 J 0.0122
G01 X 21.3125 Y 14.2497 Z -1.0000
G01 X 21.3018 Y 14.2682 Z -1.0000
G02 X 21.2896 Y 14.2866 Z -1.0000 I 0.0509 J 0.0473
G01 X 21.2860 Y 14.3028 Z -1.0000
G01 X 21.2824 Y 14.3183 Z -1.0000
G01 X 21.2729 Y 14.3289 Z -1.0000
G01 X 21.2641 Y 14.3400 Z -1.0000
G02 X 21.2586 Y 14.3663 Z -1.0000 I 0.0779 J 0.0299
G03 X 21.2553 Y 14.3943 Z -1.0000 I -0.1803 J -0.0076
G01 X 21.2512 Y 14.4032 Z -1.0000
G02 X 21.2266 Y 14.4462 Z -1.0000 I 0.1580 J 0.1189
G01 X 21.2245 Y 14.4675 Z -1.0000
G01 X 21.2230 Y 14.4836 Z -1.0000
G03 X 21.2111 Y 14.5019 Z -1.0000 I -0.0496 J -0.0193
G01 X 21.2036 Y 14.5143 Z -1.0000
G01 X 21.2057 Y 14.5198 Z -1.0000
G01 X 21.2071 Y 14.5244 Z -1.0000
G01 X 21.2007 Y 14.5314 Z -1.0000
G03 X 21.1875 Y 14.5369 Z -1.0000 I -0.0339 J -0.0624
G01 X 21.1782 Y 14.5383 Z -1.0000
G01 X 21.1707 Y 14.5405 Z -1.0000
G01 X 21.1685 Y 14.5445 Z -1.0000
G01 X 21.1702 Y 14.5490 Z -1.0000
G01 X 21.1740 Y 14.5507 Z -1.0000
G01 X 21.1856 Y 14.5620 Z -1.0000
G01 X 21.1750 Y 14.5832 Z -1.0000
G01 X 21.1659 Y 14.5922 Z -1.0000
G01 X 21.1596 Y 14.6048 Z -1.0000
G01 X 21.1536 Y 14.6165 Z -1.0000
G01 X 21.1491 Y 14.6188 Z -1.0000
G01 X 21.1462 Y 14.6212 Z -1.0000
G01 X 21.1468 Y 14.6311 Z -1.0000
G01 X 21.1469 Y 14.6430 Z -1.0000
G03 X 21.1379 Y 14.6615 Z -1.0000 I -0.0594 J -0.0175
G02 X 21.1266 Y 14.6799 Z -1.0000 I 0.1301 J 0.0920
G01 X 21.1251 Y 14.6862 Z -1.0000
G01 X 21.1231 Y 14.6911 Z -1.0000
G01 X 21.1185 Y 14.6930 Z -1.0000
G01 X 21.1149 Y 14.6957 Z -1.0000
G01 X 21.1139 Y 14.7100 Z -1.0000
G01 X 21.1112 Y 14.7244 Z -1.0000
G01 X 21.1019 Y 14.7332 Z -1.0000
G01 X 21.0921 Y 14.7419 Z -1.0000
G01 X 21.0880 Y 14.7570 Z -1.0000
G01 X 21.0845 Y 14.7695 Z -1.0000
G01 X 21.0791 Y 14.7713 Z -1.0000
G01 X 21.0727 Y 14.7730 Z -1.0000
G02 X 21.0628 Y 14.7908 Z -1.0000 I 0.0408 J 0.0343
G03 X 21.0543 Y 14.8130 Z -1.0000 I -0.2370 J -0.0773
G01 X 21.0515 Y 14.8167 Z -1.0000
G01 X 21.0487 Y 14.8205 Z -1.0000
G02 X 21.0392 Y 14.8444 Z -1.0000 I 0.3032 J 0.1344
G03 X 21.0292 Y 14.8682 Z -1.0000 I -0.1978 J -0.0689
G03 X 21.0129 Y 14.8977 Z -1.0000 I -0.3246 J -0.1603
G02 X 20.9968 Y 14.9268 Z -1.0000 I 0.3109 J 0.1910
G01 X 20.9952 Y 14.9334 Z -1.0000
G01 X 20.9928 Y 14.9380 Z -1.0000
G01 X 20.9852 Y 14.9404 Z -1.0000
G01 X 20.9815 Y 14.9375 Z -1.0000
G01 X 20.9830 Y 14.9310 Z -1.0000
G01 X 20.9880 Y 14.9217 Z -1.0000
G01 X 20.9870 Y 14.9178 Z -1.0000
G01 X 20.9711 Y 14.9177 Z -1.0000
G01 X 20.9668 Y 14.9379 Z -1.0000
G01 X 20.9620 Y 14.9528 Z -1.0000
G01 X 20.9399 Y 14.9560 Z -1.0000
G01 X 20.9310 Y 14.9572 Z -1.0000
G01 X 20.9272 Y 14.9643 Z -1.0000
G01 X 20.9297 Y 14.9750 Z -1.0000
G01 X 20.9349 Y 14.9799 Z -1.0000
G01 X 20.9365 Y 14.9840 Z -1.0000
G01 X 20.9293 Y 14.9932 Z -1.0000
G01 X 20.9210 Y 15.0051 Z -1.0000
G02 X 20.9194 Y 15.0280 Z -1.0000 I 0.0539 J 0.0153
G01 X 20.9155 Y 15.0458 Z -1.0000
G01 X 20.9051 Y 15.0508 Z -1.0000
G01 X 20.8914 Y 15.0546 Z -1.0000
G01 X 20.8817 Y 15.0688 Z -1.0000
G03 X 20.8742 Y 15.0868 Z -1.0000 I -0.0838 J -0.0242
G01 X 20.8706 Y 15.0889 Z -1.0000
G01 X 20.8676 Y 15.0913 Z -1.0000
G02 X 20.8653 Y 15.1126 Z -1.0000 I 0.0948 J 0.0213
G01 X 20.8589 Y 15.1334 Z -1.0000
G03 X 20.8251 Y 15.1722 Z -1.0000 I -0.1727 J -0.1165
G02 X 20.7883 Y 15.2097 Z -1.0000 I 0.2688 J 0.3006
G01 X 20.7849 Y 15.2189 Z -1.0000
G03 X 20.7680 Y 15.2638 Z -1.0000 I -0.0682 J 0.0000
G01 X 20.7308 Y 15.2807 Z -1.0000
G01 X 20.7092 Y 15.2940 Z -1.0000
G01 X 20.7159 Y 15.3103 Z -1.0000
G01 X 20.7193 Y 15.3181 Z -1.0000
G01 X 20.7106 Y 15.3222 Z -1.0000
G01 X 20.7020 Y 15.3238 Z -1.0000
G01 X 20.6982 Y 15.3310 Z -1.0000
G01 X 20.6954 Y 15.3411 Z -1.0000
G01 X 20.6889 Y 15.3466 Z -1.0000
G01 X 20.6827 Y 15.3522 Z -1.0000
G01 X 20.6796 Y 15.3649 Z -1.0000
G01 X 20.6729 Y 15.3741 Z -1.0000
G01 X 20.6611 Y 15.3705 Z -1.0000
G01 X 20.6491 Y 15.3664 Z -1.0000
G01 X 20.6425 Y 15.3746 Z -1.0000
G01 X 20.6448 Y 15.3778 Z -1.0000
G01 X 20.6518 Y 15.3775 Z -1.0000
G01 X 20.6579 Y 15.3787 Z -1.0000
G01 X 20.6611 Y 15.3861 Z -1.0000
G01 X 20.6577 Y 15.3950 Z -1.0000
G01 X 20.6503 Y 15.3983 Z -1.0000
G01 X 20.6409 Y 15.4015 Z -1.0000
G02 X 20.6209 Y 15.4212 Z -1.0000 I 0.0760 J 0.0974
G03 X 20.6019 Y 15.4438 Z -1.0000 I -0.5922 J -0.4789
G03 X 20.5870 Y 15.4599 Z -1.0000 I -0.3137 J -0.2745
G02 X 20.5750 Y 15.4767 Z -1.0000 I 0.0505 J 0.0488
G01 X 20.5735 Y 15.4865 Z -1.0000
G01 X 20.5718 Y 15.4943 Z -1.0000
G01 X 20.5663 Y 15.4973 Z -1.0000
G01 X 20.5588 Y 15.5000 Z -1.0000
G02 X 20.5465 Y 15.5139 Z -1.0000 I 0.0410 J 0.0489
G03 X 20.5288 Y 15.5365 Z -1.0000 I -0.1424 J -0.0933
G03 X 20.4338 Y 15.6351 Z -1.0000 I -2.8207 J -2.6224
G03 X 20.4032 Y 15.6603 Z -1.0000 I -0.1432 J -0.1429
G01 X 20.3937 Y 15.6620 Z -1.0000
G01 X 20.3892 Y 15.6642 Z -1.0000
G01 X 20.3896 Y 15.6717 Z -1.0000
G01 X 20.3915 Y 15.6833 Z -1.0000
G01 X 20.3854 Y 15.6958 Z -1.0000
G03 X 20.3737 Y 15.7056 Z -1.0000 I -0.0435 J -0.0395
G01 X 20.3670 Y 15.7077 Z -1.0000
G01 X 20.3602 Y 15.7097 Z -1.0000
G02 X 20.3447 Y 15.7230 Z -1.0000 I 0.0553 J 0.0803
G03 X 20.3296 Y 15.7372 Z -1.0000 I -0.1330 J -0.1267
G01 X 20.3262 Y 15.7385 Z -1.0000
G02 X 20.2827 Y 15.7572 Z -1.0000 I 0.0017 J 0.0638
G02 X 20.2652 Y 15.7995 Z -1.0000 I 0.0424 J 0.0423
G01 X 20.2629 Y 15.8043 Z -1.0000
G01 X 20.2566 Y 15.8066 Z -1.0000
G01 X 20.2338 Y 15.8158 Z -1.0000
G02 X 20.1573 Y 15.9022 Z -1.0000 I 0.5021 J 0.5213
G01 X 20.1365 Y 15.9186 Z -1.0000
G01 X 20.1223 Y 15.9298 Z -1.0000
G01 X 20.1084 Y 15.9446 Z -1.0000
G01 X 20.0945 Y 15.9489 Z -1.0000
G01 X 20.0838 Y 15.9532 Z -1.0000
G01 X 20.0815 Y 15.9615 Z -1.0000
G01 X 20.0800 Y 15.9691 Z -1.0000
G01 X 20.0745 Y 15.9709 Z -1.0000
G01 X 20.0620 Y 15.9728 Z -1.0000
G02 X 20.0338 Y 15.9984 Z -1.0000 I 0.0740 J 0.1098
G03 X 20.0146 Y 16.0171 Z -1.0000 I -0.0952 J -0.0783
G01 X 20.0061 Y 16.0200 Z -1.0000
G01 X 19.9987 Y 16.0230 Z -1.0000
G01 X 19.9941 Y 16.0314 Z -1.0000
G01 X 19.9897 Y 16.0417 Z -1.0000
G03 X 19.9677 Y 16.0677 Z -1.0000 I -0.1948 J -0.1418
G02 X 19.9452 Y 16.0933 Z -1.0000 I 0.2496 J 0.2423
G01 X 19.9436 Y 16.0981 Z -1.0000
G01 X 19.9413 Y 16.1013 Z -1.0000
G01 X 19.9285 Y 16.1035 Z -1.0000
G01 X 19.9119 Y 16.1116 Z -1.0000
G01 X 19.9121 Y 16.1245 Z -1.0000
G01 X 19.9103 Y 16.1454 Z -1.0000
G01 X 19.8878 Y 16.1452 Z -1.0000
G01 X 19.8872 Y 16.1482 Z -1.0000
G01 X 19.8887 Y 16.1581 Z -1.0000
G01 X 19.8776 Y 16.1743 Z -1.0000
G03 X 19.8596 Y 16.1887 Z -1.0000 I -0.1714 J -0.1956
G01 X 19.8561 Y 16.1899 Z -1.0000
G01 X 19.8534 Y 16.1916 Z -1.0000
G02 X 19.8488 Y 16.2031 Z -1.0000 I 0.0450 J 0.0246
G01 X 19.8436 Y 16.2116 Z -1.0000
G01 X 19.8388 Y 16.2120 Z -1.0000
G01 X 19.8061 Y 16.2135 Z -1.0000
G01 X 19.7976 Y 16.2434 Z -1.0000
G01 X 19.7978 Y 16.2499 Z -1.0000
G01 X 19.7949 Y 16.2520 Z -1.0000
G01 X 19.7907 Y 16.2539 Z -1.0000
G01 X 19.7889 Y 16.2588 Z -1.0000
G01 X 19.7871 Y 16.2651 Z -1.0000
G03 X 19.7737 Y 16.2837 Z -1.0000 I -0.1269 J -0.0773
G02 X 19.7619 Y 16.3024 Z -1.0000 I 0.0605 J 0.0513
G01 X 19.7617 Y 16.3101 Z -1.0000
G01 X 19.7614 Y 16.3169 Z -1.0000
G01 X 19.7560 Y 16.3219 Z -1.0000
G01 X 19.7413 Y 16.3460 Z -1.0000
G02 X 19.7649 Y 16.3977 Z -1.0000 I 0.0927 J -0.0110
G01 X 19.7717 Y 16.4103 Z -1.0000
G01 X 19.7700 Y 16.4169 Z -1.0000
G01 X 19.7642 Y 16.4366 Z -1.0000
G01 X 19.7802 Y 16.4628 Z -1.0000
G01 X 19.7864 Y 16.4712 Z -1.0000
G01 X 19.7889 Y 16.4841 Z -1.0000
G01 X 19.7919 Y 16.4960 Z -1.0000
G01 X 19.7982 Y 16.5017 Z -1.0000
G01 X 19.8048 Y 16.5071 Z -1.0000
G01 X 19.8075 Y 16.5169 Z -1.0000
G01 X 19.8145 Y 16.5359 Z -1.0000
G02 X 19.8505 Y 16.5675 Z -1.0000 I 0.1249 J -0.1062
G03 X 19.8933 Y 16.6034 Z -1.0000 I -0.1213 J 0.1880
G01 X 19.9003 Y 16.6212 Z -1.0000
G01 X 19.9042 Y 16.6337 Z -1.0000
G01 X 19.9130 Y 16.6400 Z -1.0000
G01 X 19.9207 Y 16.6464 Z -1.0000
G01 X 19.9221 Y 16.6597 Z -1.0000
G01 X 19.9249 Y 16.6737 Z -1.0000
G02 X 19.9481 Y 16.6971 Z -1.0000 I 0.0780 J -0.0542
G02 X 19.9783 Y 16.7161 Z -1.0000 I 0.1977 J -0.2800
G01 X 19.9854 Y 16.7180 Z -1.0000
G01 X 19.9908 Y 16.7201 Z -1.0000
G01 X 19.9924 Y 16.7247 Z -1.0000
G01 X 19.9961 Y 16.7422 Z -1.0000
G01 X 20.0090 Y 16.7532 Z -1.0000
G01 X 20.0198 Y 16.7617 Z -1.0000
G01 X 20.0211 Y 16.7711 Z -1.0000
G01 X 20.0204 Y 16.7818 Z -1.0000
G01 X 20.0238 Y 16.7869 Z -1.0000
G01 X 20.0283 Y 16.7919 Z -1.0000
G01 X 20.0302 Y 16.8006 Z -1.0000
G01 X 20.0265 Y 16.8057 Z -1.0000
G01 X 20.0117 Y 16.8066 Z -1.0000
G01 X 19.9957 Y 16.8061 Z -1.0000
G01 X 19.9931 Y 16.8091 Z -1.0000
G01 X 20.0048 Y 16.8253 Z -1.0000
G01 X 20.0268 Y 16.8204 Z -1.0000
G01 X 20.0333 Y 16.8166 Z -1.0000
G01 X 20.0434 Y 16.8149 Z -1.0000
G03 X 20.0822 Y 16.8296 Z -1.0000 I 0.0000 J 0.0586
G01 X 20.0883 Y 16.8547 Z -1.0000
G01 X 20.0895 Y 16.8607 Z -1.0000
