%
(Header)
(Generated by gcodetools from Inkscape.)
(Using default header. To add your own header create file "header" in the output dir.)
M3
(Header end.)
G21 (All units in mm)

(Start cutting path id: path71175)
(Change tool to Default tool)

G00 Z 5.0000
G00 X 12.3995 Y 0.8845

G01 Z -1.0000 F 100.0000(Penetrate)
G02 X 12.3203 Y 0.9221 Z -1.0000 I 0.1422 J 0.4021 F 3500.0000
G02 X 12.2771 Y 0.9588 Z -1.0000 I 0.0936 J 0.1541
G03 X 12.2500 Y 0.9808 Z -1.0000 I -0.0746 J -0.0640
G03 X 12.1730 Y 1.0162 Z -1.0000 I -0.2796 J -0.5068
G03 X 12.0984 Y 1.0307 Z -1.0000 I -0.0809 J -0.2166
G03 X 11.9859 Y 1.0213 Z -1.0000 I -0.0139 J -0.5100
G02 X 11.9183 Y 1.0083 Z -1.0000 I -1.4691 J 7.4761
G02 X 11.9014 Y 1.0055 Z -1.0000 I -0.0840 J 0.4486
G03 X 11.8846 Y 1.0027 Z -1.0000 I 0.0841 J -0.5586
G03 X 11.8514 Y 0.9965 Z -1.0000 I 0.6160 J -3.3915
G02 X 11.8181 Y 0.9907 Z -1.0000 I -0.1435 J 0.7275
G02 X 11.8025 Y 0.9891 Z -1.0000 I -0.0255 J 0.1698
G01 X 11.7882 Y 0.9857 Z -1.0000
G01 X 11.7808 Y 0.9798 Z -1.0000
G01 X 11.7732 Y 0.9744 Z -1.0000
G02 X 11.7453 Y 0.9697 Z -1.0000 I -0.0350 J 0.1222
G02 X 11.4999 Y 0.9660 Z -1.0000 I -0.1685 J 2.9918
G01 X 11.4723 Y 0.9767 Z -1.0000
G02 X 11.4552 Y 0.9999 Z -1.0000 I 0.0430 J 0.0495
G02 X 11.4441 Y 1.0411 Z -1.0000 I 0.1320 J 0.0578
G03 X 11.4321 Y 1.0777 Z -1.0000 I -0.0959 J -0.0111
G01 X 11.4189 Y 1.0854 Z -1.0000
G01 X 11.4071 Y 1.0919 Z -1.0000
G01 X 11.4045 Y 1.1086 Z -1.0000
G02 X 11.4120 Y 1.1311 Z -1.0000 I 0.1395 J -0.0339
G02 X 11.4223 Y 1.1504 Z -1.0000 I 0.1180 J -0.0503
G03 X 11.4305 Y 1.1691 Z -1.0000 I -0.0548 J 0.0353
G01 X 11.4293 Y 1.1772 Z -1.0000
G01 X 11.4229 Y 1.1986 Z -1.0000
G02 X 11.4162 Y 1.6568 Z -1.0000 I 17.9097 J 0.4913
G03 X 11.4112 Y 1.7746 Z -1.0000 I -1.4716 J -0.0027
G01 X 11.4054 Y 1.7879 Z -1.0000
G02 X 11.3826 Y 1.8281 Z -1.0000 I 0.0759 J 0.0697
G01 X 11.3866 Y 1.8506 Z -1.0000
G03 X 11.3975 Y 1.8807 Z -1.0000 I -0.0427 J 0.0323
G03 X 11.3892 Y 1.9118 Z -1.0000 I -0.0545 J 0.0023
G01 X 11.3862 Y 1.9278 Z -1.0000
G02 X 11.3988 Y 1.9645 Z -1.0000 I 0.1267 J -0.0233
G03 X 11.4098 Y 2.0035 Z -1.0000 I -0.0865 J 0.0454
G03 X 11.4192 Y 2.2729 Z -1.0000 I -4.3157 J 0.2852
G03 X 11.4114 Y 2.5405 Z -1.0000 I -4.0833 J 0.0150
G01 X 11.4014 Y 2.5608 Z -1.0000
G02 X 11.3865 Y 2.5773 Z -1.0000 I 0.0601 J 0.0692
G01 X 11.3869 Y 2.5815 Z -1.0000
G03 X 11.4051 Y 2.6226 Z -1.0000 I -0.0441 J 0.0441
G01 X 11.3897 Y 2.6388 Z -1.0000
G01 X 11.3853 Y 2.6425 Z -1.0000
G02 X 11.3833 Y 2.6747 Z -1.0000 I 0.1398 J 0.0250
G03 X 11.3816 Y 2.7098 Z -1.0000 I -0.1783 J 0.0090
G03 X 11.3753 Y 2.7289 Z -1.0000 I -0.0582 J -0.0086
G02 X 11.3676 Y 2.7479 Z -1.0000 I 0.0827 J 0.0442
G02 X 11.3647 Y 2.7669 Z -1.0000 I 0.0796 J 0.0222
G03 X 11.3638 Y 2.7865 Z -1.0000 I -1.2410 J -0.0470
G03 X 11.3606 Y 2.8414 Z -1.0000 I -5.9795 J -0.3212
G02 X 11.3555 Y 3.0528 Z -1.0000 I 2.8690 J 0.1744
G01 X 11.3635 Y 3.0617 Z -1.0000
G02 X 11.3696 Y 3.0623 Z -1.0000 I 0.0119 J -0.0923
G02 X 11.3984 Y 3.0638 Z -1.0000 I 0.1039 J -1.6996
G01 X 11.4180 Y 3.0790 Z -1.0000
G01 X 11.4120 Y 3.1079 Z -1.0000
G02 X 11.3948 Y 3.1342 Z -1.0000 I 0.0918 J 0.0790
G01 X 11.3907 Y 3.1519 Z -1.0000
G01 X 11.3866 Y 3.1684 Z -1.0000
G01 X 11.3780 Y 3.1761 Z -1.0000
G01 X 11.3700 Y 3.1841 Z -1.0000
G02 X 11.3654 Y 3.2093 Z -1.0000 I 0.0662 J 0.0252
G03 X 11.3609 Y 3.2320 Z -1.0000 I -0.0600 J -0.0000
G01 X 11.3548 Y 3.2351 Z -1.0000
G01 X 11.3506 Y 3.2361 Z -1.0000
G01 X 11.3548 Y 3.2408 Z -1.0000
G01 X 11.3569 Y 3.2522 Z -1.0000
G01 X 11.3610 Y 3.2597 Z -1.0000
G01 X 11.3717 Y 3.2617 Z -1.0000
G01 X 11.3813 Y 3.2550 Z -1.0000
G01 X 11.3841 Y 3.2421 Z -1.0000
G01 X 11.3872 Y 3.2382 Z -1.0000
G01 X 11.3942 Y 3.2413 Z -1.0000
G01 X 11.4039 Y 3.2439 Z -1.0000
G01 X 11.4125 Y 3.2342 Z -1.0000
G01 X 11.4228 Y 3.2337 Z -1.0000
G03 X 11.4328 Y 3.2905 Z -1.0000 I -0.1585 J 0.0571
G03 X 11.4219 Y 3.3494 Z -1.0000 I -0.1630 J 0.0004
G01 X 11.4091 Y 3.3519 Z -1.0000
G01 X 11.4083 Y 3.3469 Z -1.0000
G01 X 11.4139 Y 3.3419 Z -1.0000
G01 X 11.4215 Y 3.3359 Z -1.0000
G01 X 11.4245 Y 3.3261 Z -1.0000
G01 X 11.4168 Y 3.3219 Z -1.0000
G02 X 11.3975 Y 3.3434 Z -1.0000 I 0.0291 J 0.0455
G02 X 11.3895 Y 3.3698 Z -1.0000 I 0.0743 J 0.0369
G01 X 11.3933 Y 3.3763 Z -1.0000
G01 X 11.3928 Y 3.3811 Z -1.0000
G01 X 11.3866 Y 3.3858 Z -1.0000
G02 X 11.3823 Y 3.4125 Z -1.0000 I 0.0794 J 0.0266
G03 X 11.3776 Y 3.4408 Z -1.0000 I -0.0885 J 0.0000
G01 X 11.3685 Y 3.4533 Z -1.0000
G01 X 11.3589 Y 3.4657 Z -1.0000
G02 X 11.3537 Y 3.4901 Z -1.0000 I 0.0672 J 0.0270
G01 X 11.3460 Y 3.4993 Z -1.0000
G01 X 11.3377 Y 3.4936 Z -1.0000
G01 X 11.3330 Y 3.5126 Z -1.0000
G01 X 11.3402 Y 3.5421 Z -1.0000
G01 X 11.3486 Y 3.5362 Z -1.0000
G01 X 11.3548 Y 3.5385 Z -1.0000
G01 X 11.3624 Y 3.5461 Z -1.0000
G02 X 11.3780 Y 3.5546 Z -1.0000 I 0.0480 J -0.0693
G01 X 11.3830 Y 3.5607 Z -1.0000
G01 X 11.3801 Y 3.5652 Z -1.0000
G01 X 11.3681 Y 3.5708 Z -1.0000
G01 X 11.3653 Y 3.5763 Z -1.0000
G01 X 11.3682 Y 3.5797 Z -1.0000
G01 X 11.3786 Y 3.5788 Z -1.0000
G01 X 11.3872 Y 3.5795 Z -1.0000
G01 X 11.3900 Y 3.5854 Z -1.0000
G01 X 11.3969 Y 3.6137 Z -1.0000
G01 X 11.4165 Y 3.6205 Z -1.0000
G01 X 11.4283 Y 3.6222 Z -1.0000
G01 X 11.4329 Y 3.6304 Z -1.0000
G01 X 11.4296 Y 3.6386 Z -1.0000
G01 X 11.4245 Y 3.6393 Z -1.0000
G01 X 11.4186 Y 3.6386 Z -1.0000
G01 X 11.4161 Y 3.6423 Z -1.0000
G01 X 11.4185 Y 3.6489 Z -1.0000
G01 X 11.4255 Y 3.6537 Z -1.0000
G01 X 11.4308 Y 3.6600 Z -1.0000
G03 X 11.4419 Y 3.7662 Z -1.0000 I -1.2960 J 0.1891
G02 X 11.4493 Y 3.8756 Z -1.0000 I 11.6874 J -0.7380
G02 X 11.4617 Y 4.0403 Z -1.0000 I 28.2459 J -2.0492
G03 X 11.4726 Y 4.2050 Z -1.0000 I -6.6239 J 0.5194
G03 X 11.4838 Y 4.4540 Z -1.0000 I -15.1026 J 0.8072
G02 X 11.4935 Y 4.7030 Z -1.0000 I 73.0537 J -2.7199
G02 X 11.5007 Y 4.8677 Z -1.0000 I 27.6812 J -1.1251
G03 X 11.5336 Y 5.7914 Z -1.0000 I -42.2554 J 1.9686
G03 X 11.5428 Y 6.5730 Z -1.0000 I -30.2226 J 0.7468
G03 X 11.5344 Y 7.2634 Z -1.0000 I -31.2691 J -0.0357
G03 X 11.5221 Y 7.4679 Z -1.0000 I -2.7520 J -0.0639
G02 X 11.5194 Y 7.5060 Z -1.0000 I 0.7140 J 0.0683
G02 X 11.5131 Y 7.6832 Z -1.0000 I 14.2055 J 0.5999
G03 X 11.5073 Y 7.8605 Z -1.0000 I -29.8417 J -0.8875
G03 X 11.5047 Y 7.9196 Z -1.0000 I -3.5667 J -0.1273
G02 X 11.5023 Y 7.9787 Z -1.0000 I 2.3453 J 0.1227
G02 X 11.4967 Y 8.2151 Z -1.0000 I 37.4990 J 1.0152
G03 X 11.4910 Y 8.4515 Z -1.0000 I -39.9039 J -0.8287
G03 X 11.4875 Y 8.5570 Z -1.0000 I -7.2126 J -0.1925
G02 X 11.4837 Y 8.6626 Z -1.0000 I 9.9018 J 0.4094
G02 X 11.4751 Y 8.9623 Z -1.0000 I 73.0043 J 2.2397
G03 X 11.4655 Y 9.2619 Z -1.0000 I -28.3475 J -0.7567
G03 X 11.4583 Y 9.4139 Z -1.0000 I -7.4754 J -0.2787
G02 X 11.4214 Y 10.1143 Z -1.0000 I 70.6686 J 4.0699
G02 X 11.4032 Y 10.5706 Z -1.0000 I 29.9787 J 1.4286
G03 X 11.3867 Y 11.0652 Z -1.0000 I -280.2619 J -9.0863
G03 X 11.3778 Y 11.3135 Z -1.0000 I -70.5459 J -2.4118
G03 X 11.3649 Y 11.5553 Z -1.0000 I -7.9858 J -0.3034
G03 X 11.3148 Y 12.2337 Z -1.0000 I -61.8564 J -4.2298
G02 X 11.3045 Y 12.3954 Z -1.0000 I 5.1275 J 0.4080
G02 X 11.2805 Y 12.9471 Z -1.0000 I 60.4517 J 2.8979
G03 X 11.2494 Y 13.4880 Z -1.0000 I -14.4659 J -0.5611
G03 X 11.2354 Y 13.5389 Z -1.0000 I -0.1371 J -0.0105
G01 X 11.2361 Y 13.5612 Z -1.0000
G01 X 11.2549 Y 13.5720 Z -1.0000
G01 X 11.2805 Y 13.5927 Z -1.0000
G03 X 11.2990 Y 13.7712 Z -1.0000 I -0.7653 J 0.1696
G03 X 11.2947 Y 13.9541 Z -1.0000 I -7.3120 J -0.0796
G01 X 11.2922 Y 13.9624 Z -1.0000
G01 X 11.2754 Y 13.9692 Z -1.0000
G03 X 11.2218 Y 13.9446 Z -1.0000 I 0.0399 J -0.1578
G02 X 11.1997 Y 13.9318 Z -1.0000 I -0.0902 J 0.1293
G02 X 11.1585 Y 13.9144 Z -1.0000 I -0.2016 J 0.4208
G03 X 11.1181 Y 13.8959 Z -1.0000 I 0.0977 J -0.2669
G03 X 11.0947 Y 13.8789 Z -1.0000 I 0.0585 J -0.1053
G02 X 11.0724 Y 13.8609 Z -1.0000 I -0.1398 J 0.1507
G01 X 11.0660 Y 13.8589 Z -1.0000
G03 X 11.0144 Y 13.8462 Z -1.0000 I -0.0000 J -0.1108
G03 X 10.9452 Y 13.7955 Z -1.0000 I 0.1348 J -0.2567
G02 X 10.9243 Y 13.7800 Z -1.0000 I -0.0642 J 0.0648
G02 X 10.9007 Y 13.7715 Z -1.0000 I -0.0402 J 0.0745
G03 X 10.8771 Y 13.7630 Z -1.0000 I 0.0165 J -0.0826
G03 X 10.8559 Y 13.7472 Z -1.0000 I 0.0442 J -0.0815
G02 X 10.8348 Y 13.7307 Z -1.0000 I -0.0804 J 0.0810
G02 X 10.7827 Y 13.7027 Z -1.0000 I -0.2876 J 0.4735
G03 X 10.7305 Y 13.6746 Z -1.0000 I 0.2292 J -0.4881
G03 X 10.6903 Y 13.6463 Z -1.0000 I 0.1935 J -0.3163
G03 X 10.5538 Y 13.5283 Z -1.0000 I 1.8573 J -2.2889
G01 X 10.5472 Y 13.5148 Z -1.0000
G01 X 10.5434 Y 13.5055 Z -1.0000
G02 X 10.4958 Y 13.4550 Z -1.0000 I -0.5874 J 0.5063
G03 X 10.4485 Y 13.4045 Z -1.0000 I 0.4845 J -0.4997
G01 X 10.4451 Y 13.3951 Z -1.0000
G01 X 10.4417 Y 13.3856 Z -1.0000
G02 X 10.3966 Y 13.3358 Z -1.0000 I -0.5170 J 0.4241
G03 X 10.3493 Y 13.2863 Z -1.0000 I 0.9431 J -0.9470
G03 X 10.2974 Y 13.2264 Z -1.0000 I 1.3307 J -1.2059
G02 X 10.2466 Y 13.1653 Z -1.0000 I -27.1940 J 22.5350
G02 X 10.2142 Y 13.1265 Z -1.0000 I -13.4095 J 11.1630
G03 X 10.1836 Y 13.0864 Z -1.0000 I 0.4201 J -0.3522
G03 X 10.1692 Y 13.0615 Z -1.0000 I 0.1473 J -0.1020
G02 X 10.1535 Y 13.0383 Z -1.0000 I -0.0852 J 0.0408
G02 X 10.1318 Y 13.0210 Z -1.0000 I -0.0670 J 0.0618
G03 X 10.1097 Y 13.0040 Z -1.0000 I 0.0526 J -0.0913
G03 X 10.0924 Y 12.9812 Z -1.0000 I 0.0770 J -0.0764
G02 X 10.0754 Y 12.9598 Z -1.0000 I -0.0789 J 0.0449
G01 X 10.0650 Y 12.9556 Z -1.0000
G03 X 10.0276 Y 12.9424 Z -1.0000 I 0.0002 J -0.0599
G01 X 10.0145 Y 12.9150 Z -1.0000
G01 X 10.0060 Y 12.8915 Z -1.0000
G02 X 9.8562 Y 12.7243 Z -1.0000 I -2.2923 J 1.9024
G03 X 9.8069 Y 12.6683 Z -1.0000 I 0.5862 J -0.5663
G01 X 9.8035 Y 12.6585 Z -1.0000
G02 X 9.7814 Y 12.6061 Z -1.0000 I -0.0736 J 0.0001
G02 X 9.7276 Y 12.5841 Z -1.0000 I -0.0538 J 0.0548
G01 X 9.7203 Y 12.5757 Z -1.0000
G01 X 9.7317 Y 12.5568 Z -1.0000
G01 X 9.7451 Y 12.5539 Z -1.0000
G01 X 9.7478 Y 12.5601 Z -1.0000
G01 X 9.7508 Y 12.5642 Z -1.0000
G01 X 9.7789 Y 12.5661 Z -1.0000
G01 X 9.7835 Y 12.5911 Z -1.0000
G01 X 9.7838 Y 12.5962 Z -1.0000
G02 X 9.8004 Y 12.6160 Z -1.0000 I 0.1019 J -0.0686
G01 X 9.8203 Y 12.6261 Z -1.0000
G01 X 9.8234 Y 12.6220 Z -1.0000
G01 X 9.8309 Y 12.6229 Z -1.0000
G01 X 9.8236 Y 12.6086 Z -1.0000
G03 X 9.8060 Y 12.5880 Z -1.0000 I 0.8435 J -0.7395
G03 X 9.7898 Y 12.5682 Z -1.0000 I 0.7776 J -0.6493
G02 X 9.7736 Y 12.5483 Z -1.0000 I -0.6330 J 0.5013
G02 X 9.7549 Y 12.5268 Z -1.0000 I -0.7811 J 0.6599
G03 X 9.7384 Y 12.5046 Z -1.0000 I 0.1127 J -0.1008
G01 X 9.7359 Y 12.4956 Z -1.0000
G01 X 9.7214 Y 12.4635 Z -1.0000
G02 X 9.6826 Y 12.4490 Z -1.0000 I -0.0387 J 0.0443
G01 X 9.6764 Y 12.4569 Z -1.0000
G02 X 9.6941 Y 12.4973 Z -1.0000 I 0.1201 J -0.0286
G01 X 9.6965 Y 12.5112 Z -1.0000
G01 X 9.6902 Y 12.5125 Z -1.0000
G02 X 9.6652 Y 12.4855 Z -1.0000 I -0.1538 J 0.1173
G02 X 9.6421 Y 12.4696 Z -1.0000 I -0.0746 J 0.0836
G01 X 9.6214 Y 12.4381 Z -1.0000
G01 X 9.6388 Y 12.4224 Z -1.0000
G01 X 9.6541 Y 12.4277 Z -1.0000
G01 X 9.6619 Y 12.4350 Z -1.0000
G01 X 9.6683 Y 12.4275 Z -1.0000
G01 X 9.6634 Y 12.4123 Z -1.0000
G02 X 9.6135 Y 12.3515 Z -1.0000 I -0.5026 J 0.3619
G03 X 9.5606 Y 12.2920 Z -1.0000 I 1.1514 J -1.0749
G01 X 9.5586 Y 12.2865 Z -1.0000
G02 X 9.5322 Y 12.2223 Z -1.0000 I -0.0911 J 0.0000
G01 X 9.4902 Y 12.2173 Z -1.0000
G01 X 9.4852 Y 12.2174 Z -1.0000
G01 X 9.4826 Y 12.2130 Z -1.0000
G01 X 9.4796 Y 12.2072 Z -1.0000
G01 X 9.4695 Y 12.2041 Z -1.0000
G01 X 9.4620 Y 12.2010 Z -1.0000
G01 X 9.4614 Y 12.1959 Z -1.0000
G02 X 9.4550 Y 12.1284 Z -1.0000 I -0.0479 J -0.0296
G02 X 9.3789 Y 12.1059 Z -1.0000 I -0.0567 J 0.0520
G01 X 9.3695 Y 12.1043 Z -1.0000
G01 X 9.3676 Y 12.0982 Z -1.0000
G01 X 9.3685 Y 12.0877 Z -1.0000
G01 X 9.3641 Y 12.0815 Z -1.0000
G01 X 9.3595 Y 12.0828 Z -1.0000
G01 X 9.3560 Y 12.0976 Z -1.0000
G02 X 9.3591 Y 12.1170 Z -1.0000 I 0.0635 J 0.0000
G01 X 9.3645 Y 12.1239 Z -1.0000
G01 X 9.3702 Y 12.1243 Z -1.0000
G01 X 9.3729 Y 12.1202 Z -1.0000
G01 X 9.3757 Y 12.1141 Z -1.0000
G01 X 9.3830 Y 12.1113 Z -1.0000
G01 X 9.3862 Y 12.1142 Z -1.0000
G01 X 9.3837 Y 12.1208 Z -1.0000
G01 X 9.3783 Y 12.1311 Z -1.0000
G01 X 9.3795 Y 12.1439 Z -1.0000
G01 X 9.3449 Y 12.1203 Z -1.0000
G03 X 9.3173 Y 12.0777 Z -1.0000 I 0.0719 J -0.0767
G01 X 9.3256 Y 12.0641 Z -1.0000
G01 X 9.3377 Y 12.0553 Z -1.0000
G01 X 9.3384 Y 12.0375 Z -1.0000
G01 X 9.3280 Y 12.0213 Z -1.0000
G02 X 9.3035 Y 12.0021 Z -1.0000 I -0.0863 J 0.0851
G03 X 9.2764 Y 11.9850 Z -1.0000 I 0.2743 J -0.4649
G03 X 9.2653 Y 11.9764 Z -1.0000 I 0.0611 J -0.0907
G01 X 9.2580 Y 11.9743 Z -1.0000
G01 X 9.2547 Y 11.9782 Z -1.0000
G01 X 9.2576 Y 11.9880 Z -1.0000
G02 X 9.2716 Y 12.0038 Z -1.0000 I 0.0632 J -0.0417
G03 X 9.2852 Y 12.0198 Z -1.0000 I -0.0440 J 0.0511
G01 X 9.2885 Y 12.0316 Z -1.0000
G01 X 9.2838 Y 12.0355 Z -1.0000
G01 X 9.2653 Y 12.0276 Z -1.0000
G03 X 9.2035 Y 11.9699 Z -1.0000 I 0.2326 J -0.3110
G01 X 9.1997 Y 11.9514 Z -1.0000
G01 X 9.2085 Y 11.9435 Z -1.0000
G01 X 9.2212 Y 11.9470 Z -1.0000
G01 X 9.2376 Y 11.9569 Z -1.0000
G01 X 9.2479 Y 11.9567 Z -1.0000
G01 X 9.2420 Y 11.9515 Z -1.0000
G01 X 9.2356 Y 11.9479 Z -1.0000
G01 X 9.2365 Y 11.9435 Z -1.0000
G01 X 9.2384 Y 11.9360 Z -1.0000
G02 X 9.2225 Y 11.9183 Z -1.0000 I -0.0471 J 0.0262
G02 X 9.1880 Y 11.9051 Z -1.0000 I -0.0427 J 0.0600
G01 X 9.1787 Y 11.9134 Z -1.0000
G01 X 9.1737 Y 11.9169 Z -1.0000
G03 X 9.1407 Y 11.9003 Z -1.0000 I 0.0442 J -0.1285
G03 X 9.1056 Y 11.8727 Z -1.0000 I 0.1998 J -0.2903
G01 X 9.1027 Y 11.8663 Z -1.0000
G01 X 9.1111 Y 11.8604 Z -1.0000
G03 X 9.1599 Y 11.8863 Z -1.0000 I -0.0594 J 0.1711
G01 X 9.1704 Y 11.8907 Z -1.0000
G01 X 9.1761 Y 11.8889 Z -1.0000
G01 X 9.1717 Y 11.8835 Z -1.0000
G01 X 9.1653 Y 11.8808 Z -1.0000
G01 X 9.1640 Y 11.8758 Z -1.0000
G01 X 9.1615 Y 11.8602 Z -1.0000
G02 X 9.1182 Y 11.8057 Z -1.0000 I -0.3155 J 0.2063
G02 X 9.0764 Y 11.7819 Z -1.0000 I -0.0612 J 0.0586
G01 X 9.0588 Y 11.7917 Z -1.0000
G01 X 9.0536 Y 11.7939 Z -1.0000
G03 X 9.0306 Y 11.7785 Z -1.0000 I 0.0397 J -0.0842
G03 X 9.0141 Y 11.7572 Z -1.0000 I 0.0532 J -0.0583
G01 X 9.0162 Y 11.7513 Z -1.0000
G01 X 9.0320 Y 11.7291 Z -1.0000
G01 X 9.0183 Y 11.7146 Z -1.0000
G01 X 9.0128 Y 11.7117 Z -1.0000
G01 X 9.0099 Y 11.7020 Z -1.0000
G01 X 9.0034 Y 11.6915 Z -1.0000
G01 X 8.9824 Y 11.6883 Z -1.0000
G01 X 8.9784 Y 11.6866 Z -1.0000
G01 X 8.9761 Y 11.6798 Z -1.0000
G01 X 8.9729 Y 11.6770 Z -1.0000
G01 X 8.9618 Y 11.6819 Z -1.0000
G01 X 8.9539 Y 11.6829 Z -1.0000
G01 X 8.9540 Y 11.6759 Z -1.0000
G01 X 8.9481 Y 11.6724 Z -1.0000
G01 X 8.9244 Y 11.6602 Z -1.0000
G01 X 8.9259 Y 11.6415 Z -1.0000
G01 X 8.9324 Y 11.6157 Z -1.0000
G01 X 8.9161 Y 11.6096 Z -1.0000
G01 X 8.9115 Y 11.6089 Z -1.0000
G01 X 8.9086 Y 11.6011 Z -1.0000
G01 X 8.9061 Y 11.5910 Z -1.0000
G01 X 8.9022 Y 11.5892 Z -1.0000
G03 X 8.8584 Y 11.5828 Z -1.0000 I -0.0130 J -0.0640
G03 X 8.8297 Y 11.5502 Z -1.0000 I 0.0294 J -0.0548
G01 X 8.8223 Y 11.5407 Z -1.0000
G01 X 8.8116 Y 11.5373 Z -1.0000
G01 X 8.8043 Y 11.5326 Z -1.0000
G01 X 8.8028 Y 11.5183 Z -1.0000
G01 X 8.7997 Y 11.5022 Z -1.0000
G02 X 8.7733 Y 11.4761 Z -1.0000 I -0.0851 J 0.0595
G02 X 8.7387 Y 11.4554 Z -1.0000 I -0.1780 J 0.2594
G01 X 8.7280 Y 11.4528 Z -1.0000
G01 X 8.7110 Y 11.4442 Z -1.0000
G03 X 8.6940 Y 11.4063 Z -1.0000 I 0.0803 J -0.0586
G01 X 8.6822 Y 11.3857 Z -1.0000
G02 X 8.6297 Y 11.3478 Z -1.0000 I -0.1934 J 0.2124
G03 X 8.5765 Y 11.3087 Z -1.0000 I 0.1357 J -0.2409
G01 X 8.5796 Y 11.3009 Z -1.0000
G01 X 8.5465 Y 11.2650 Z -1.0000
G03 X 8.5072 Y 11.2272 Z -1.0000 I 0.3012 J -0.3520
G01 X 8.4989 Y 11.2134 Z -1.0000
G02 X 8.4743 Y 11.1762 Z -1.0000 I -0.0893 J 0.0323
G01 X 8.4477 Y 11.1658 Z -1.0000
G03 X 8.4300 Y 11.1635 Z -1.0000 I 0.0000 J -0.0688
G03 X 8.3884 Y 11.1500 Z -1.0000 I 0.1062 J -0.3993
G02 X 8.3471 Y 11.1342 Z -1.0000 I -9.8302 J 25.6208
G02 X 8.3007 Y 11.1165 Z -1.0000 I -44.1196 J 115.5451
G02 X 8.2537 Y 11.1014 Z -1.0000 I -0.1655 J 0.4357
G02 X 8.2205 Y 11.0955 Z -1.0000 I -0.0538 J 0.2048
G03 X 8.1912 Y 11.0879 Z -1.0000 I 0.0098 J -0.0979
G01 X 8.1859 Y 11.0804 Z -1.0000
G02 X 8.1744 Y 11.0484 Z -1.0000 I -0.0621 J 0.0043
G01 X 8.1563 Y 11.0391 Z -1.0000
G01 X 8.1442 Y 11.0353 Z -1.0000
G01 X 8.1403 Y 11.0277 Z -1.0000
G01 X 8.1368 Y 11.0178 Z -1.0000
G02 X 8.1002 Y 10.9775 Z -1.0000 I -0.3332 J 0.2665
G03 X 7.9849 Y 10.8590 Z -1.0000 I 1.8820 J -1.9458
G01 X 7.9799 Y 10.8460 Z -1.0000
G01 X 7.9563 Y 10.8228 Z -1.0000
G02 X 7.8961 Y 10.8470 Z -1.0000 I 0.0011 J 0.0897
G01 X 7.8915 Y 10.8461 Z -1.0000
G01 X 7.8905 Y 10.8337 Z -1.0000
G01 X 7.8906 Y 10.8175 Z -1.0000
G01 X 7.8864 Y 10.8158 Z -1.0000
G01 X 7.8778 Y 10.8168 Z -1.0000
G01 X 7.8693 Y 10.8102 Z -1.0000
G01 X 7.8618 Y 10.8091 Z -1.0000
G01 X 7.8463 Y 10.8236 Z -1.0000
G03 X 7.8070 Y 10.8060 Z -1.0000 I 0.0034 J -0.0602
G01 X 7.7918 Y 10.7976 Z -1.0000
G02 X 7.7685 Y 10.7973 Z -1.0000 I -0.0123 J 0.0547
G03 X 7.7439 Y 10.7997 Z -1.0000 I -0.0253 J -0.1282
G01 X 7.7310 Y 10.7974 Z -1.0000
G01 X 7.7275 Y 10.7861 Z -1.0000
G01 X 7.7421 Y 10.7811 Z -1.0000
G01 X 7.7636 Y 10.7777 Z -1.0000
G01 X 7.7809 Y 10.7542 Z -1.0000
G01 X 7.7786 Y 10.7412 Z -1.0000
G01 X 7.7664 Y 10.7352 Z -1.0000
G01 X 7.7478 Y 10.7303 Z -1.0000
G03 X 7.7149 Y 10.7060 Z -1.0000 I 0.0844 J -0.1487
G02 X 7.6829 Y 10.6808 Z -1.0000 I -0.1538 J 0.1631
G01 X 7.6736 Y 10.6792 Z -1.0000
G01 X 7.6696 Y 10.6781 Z -1.0000
G01 X 7.6776 Y 10.6619 Z -1.0000
G01 X 7.6648 Y 10.6459 Z -1.0000
G01 X 7.6535 Y 10.6445 Z -1.0000
G02 X 7.6295 Y 10.6507 Z -1.0000 I 0.0153 J 0.1101
G01 X 7.6068 Y 10.6536 Z -1.0000
G01 X 7.5925 Y 10.6468 Z -1.0000
G01 X 7.5890 Y 10.6377 Z -1.0000
G01 X 7.5932 Y 10.6337 Z -1.0000
G01 X 7.6048 Y 10.6369 Z -1.0000
G01 X 7.6111 Y 10.6443 Z -1.0000
G01 X 7.6155 Y 10.6380 Z -1.0000
G03 X 7.6168 Y 10.6212 Z -1.0000 I 0.1742 J 0.0042
G03 X 7.6207 Y 10.5958 Z -1.0000 I 0.4052 J 0.0492
G01 X 7.6204 Y 10.5810 Z -1.0000
G01 X 7.5807 Y 10.6069 Z -1.0000
G03 X 7.5367 Y 10.5831 Z -1.0000 I -0.0013 J -0.0502
G01 X 7.5363 Y 10.5774 Z -1.0000
G01 X 7.5404 Y 10.5747 Z -1.0000
G01 X 7.5455 Y 10.5709 Z -1.0000
G02 X 7.5493 Y 10.5461 Z -1.0000 I -0.0797 J -0.0249
G01 X 7.5620 Y 10.5218 Z -1.0000
G03 X 7.5988 Y 10.5119 Z -1.0000 I 0.0324 J 0.0470
G03 X 7.6364 Y 10.5248 Z -1.0000 I -0.0058 J 0.0784
G01 X 7.6464 Y 10.5435 Z -1.0000
G01 X 7.6508 Y 10.5494 Z -1.0000
G02 X 7.6844 Y 10.5548 Z -1.0000 I 0.0378 J -0.1268
G03 X 7.7443 Y 10.5612 Z -1.0000 I -0.0135 J 0.4103
G03 X 7.7899 Y 10.5741 Z -1.0000 I -0.0445 J 0.2450
G02 X 7.8362 Y 10.5765 Z -1.0000 I 0.0267 J -0.0690
G01 X 7.8393 Y 10.5606 Z -1.0000
G02 X 7.7066 Y 10.4888 Z -1.0000 I -0.2949 J 0.3864
G02 X 7.3762 Y 10.3966 Z -1.0000 I -0.8385 J 2.3678
G03 X 7.3269 Y 10.3835 Z -1.0000 I 0.0940 J -0.4516
G01 X 7.3129 Y 10.3759 Z -1.0000
G02 X 7.2566 Y 10.3500 Z -1.0000 I -0.0781 J 0.0957
G02 X 7.1984 Y 10.3554 Z -1.0000 I -0.0192 J 0.1076
G02 X 7.1639 Y 10.3807 Z -1.0000 I 0.0287 J 0.0755
G02 X 7.1525 Y 10.4132 Z -1.0000 I 0.0410 J 0.0326
G01 X 7.1563 Y 10.4237 Z -1.0000
G02 X 7.2266 Y 10.5021 Z -1.0000 I 1.1124 J -0.9260
G03 X 7.2993 Y 10.5801 Z -1.0000 I -2.2809 J 2.1983
G03 X 7.3604 Y 10.6507 Z -1.0000 I -1.7984 J 1.6201
G02 X 7.4207 Y 10.7220 Z -1.0000 I 4.5720 J -3.8098
G02 X 7.4984 Y 10.8111 Z -1.0000 I 7.2419 J -6.2297
G03 X 7.6299 Y 10.9620 Z -1.0000 I -13.1615 J 11.6084
G03 X 7.8956 Y 11.2720 Z -1.0000 I -55.2201 J 47.5952
G02 X 7.9253 Y 11.3062 Z -1.0000 I 2.1427 J -1.8261
G02 X 7.9926 Y 11.3821 Z -1.0000 I 10.6525 J -9.3791
G03 X 8.0599 Y 11.4579 Z -1.0000 I -15.4080 J 13.7620
G03 X 8.1107 Y 11.5157 Z -1.0000 I -8.6902 J 7.6855
G02 X 8.2947 Y 11.7221 Z -1.0000 I 9.9526 J -8.6851
G02 X 8.5033 Y 11.9470 Z -1.0000 I 12.0157 J -10.9368
G03 X 8.5833 Y 12.0321 Z -1.0000 I -14.4872 J 13.6960
G03 X 8.6848 Y 12.1412 Z -1.0000 I -23.9661 J 22.3930
G02 X 9.2946 Y 12.7555 Z -1.0000 I 9.1093 J -8.4342
G02 X 9.7908 Y 13.1802 Z -1.0000 I 4.8397 J -5.1523
G02 X 10.1155 Y 13.4262 Z -1.0000 I 9.4527 J -12.1371
G02 X 10.3522 Y 13.5940 Z -1.0000 I 4.6314 J -6.2830
G03 X 10.4234 Y 13.6437 Z -1.0000 I -2.1871 J 3.2103
G03 X 10.5042 Y 13.7026 Z -1.0000 I -2.9813 J 4.1726
G02 X 10.6251 Y 13.7862 Z -1.0000 I 1.2512 J -1.6810
G01 X 10.6427 Y 13.7913 Z -1.0000
G01 X 10.6538 Y 13.7938 Z -1.0000
G01 X 10.6603 Y 13.7996 Z -1.0000
G01 X 10.6503 Y 13.8022 Z -1.0000
G01 X 10.6456 Y 13.8041 Z -1.0000
G01 X 10.6465 Y 13.8105 Z -1.0000
G01 X 10.6603 Y 13.8210 Z -1.0000
G02 X 10.7273 Y 13.8457 Z -1.0000 I 0.2487 J -0.5712
G03 X 10.7943 Y 13.8709 Z -1.0000 I -0.1645 J 0.5389
G03 X 10.8122 Y 13.8839 Z -1.0000 I -0.0223 J 0.0496
G01 X 10.8183 Y 13.9010 Z -1.0000
G03 X 10.7761 Y 13.8909 Z -1.0000 I -0.0000 J -0.0930
G01 X 10.7660 Y 13.8743 Z -1.0000
G01 X 10.7631 Y 13.8701 Z -1.0000
G01 X 10.7471 Y 13.8672 Z -1.0000
G01 X 10.7435 Y 13.8730 Z -1.0000
G02 X 10.7618 Y 13.8968 Z -1.0000 I 0.0702 J -0.0351
G02 X 10.8227 Y 13.9336 Z -1.0000 I 0.1333 J -0.1516
G01 X 10.8413 Y 13.9274 Z -1.0000
G01 X 10.8750 Y 13.9155 Z -1.0000
G03 X 10.9683 Y 13.9719 Z -1.0000 I -0.0882 J 0.2514
G02 X 10.9915 Y 13.9887 Z -1.0000 I 0.0791 J -0.0849
G02 X 11.0235 Y 14.0022 Z -1.0000 I 0.0820 J -0.1492
G03 X 11.0556 Y 14.0157 Z -1.0000 I -0.0516 J 0.1682
G03 X 11.0898 Y 14.0381 Z -1.0000 I -0.1154 J 0.2131
G02 X 11.1241 Y 14.0597 Z -1.0000 I 0.1218 J -0.1554
G02 X 11.1573 Y 14.0714 Z -1.0000 I 0.0656 J -0.1328
G03 X 11.1910 Y 14.0825 Z -1.0000 I -0.0391 J 0.1752
G03 X 11.2311 Y 14.1041 Z -1.0000 I -0.1209 J 0.2726
G02 X 11.2704 Y 14.1268 Z -1.0000 I 0.2628 J -0.4098
G01 X 11.2791 Y 14.1289 Z -1.0000
G01 X 11.2921 Y 14.1370 Z -1.0000
G01 X 11.2931 Y 14.1570 Z -1.0000
G01 X 11.2787 Y 14.1640 Z -1.0000
G03 X 11.1894 Y 14.1257 Z -1.0000 I 0.1251 J -0.4145
G02 X 11.1355 Y 14.0966 Z -1.0000 I -0.6711 J 1.1780
G01 X 11.1297 Y 14.0952 Z -1.0000
G01 X 11.1239 Y 14.0936 Z -1.0000
G03 X 11.0846 Y 14.0694 Z -1.0000 I 0.3502 J -0.6126
G02 X 11.0438 Y 14.0489 Z -1.0000 I -0.1069 J 0.1615
G02 X 11.0041 Y 14.0401 Z -1.0000 I -0.0526 J 0.1446
G02 X 10.9726 Y 14.0456 Z -1.0000 I -0.0053 J 0.0626
G01 X 10.9666 Y 14.0574 Z -1.0000
G01 X 10.9753 Y 14.0707 Z -1.0000
G01 X 10.9898 Y 14.0733 Z -1.0000
G03 X 11.0433 Y 14.0785 Z -1.0000 I 0.0194 J 0.0777
G01 X 11.0615 Y 14.1071 Z -1.0000
G01 X 11.0655 Y 14.1154 Z -1.0000
G01 X 11.0833 Y 14.1241 Z -1.0000
G03 X 11.1035 Y 14.1326 Z -1.0000 I -0.0177 J 0.0708
G03 X 11.1248 Y 14.1493 Z -1.0000 I -0.0587 J 0.0968
G02 X 11.1461 Y 14.1661 Z -1.0000 I 0.0813 J -0.0813
G02 X 11.1656 Y 14.1743 Z -1.0000 I 0.0366 J -0.0598
G03 X 11.1854 Y 14.1823 Z -1.0000 I -0.0185 J 0.0744
G03 X 11.2127 Y 14.2014 Z -1.0000 I -0.0950 J 0.1646
G02 X 11.2401 Y 14.2205 Z -1.0000 I 0.1206 J -0.1432
G02 X 11.2613 Y 14.2293 Z -1.0000 I 0.0441 J -0.0769
G01 X 11.2901 Y 14.2520 Z -1.0000
G01 X 11.2912 Y 14.2845 Z -1.0000
G01 X 11.2483 Y 14.3018 Z -1.0000
G01 X 11.2243 Y 14.2580 Z -1.0000
G01 X 11.2197 Y 14.2465 Z -1.0000
G01 X 11.2041 Y 14.2431 Z -1.0000
G03 X 11.1596 Y 14.2399 Z -1.0000 I -0.0168 J -0.0768
G01 X 11.1376 Y 14.2179 Z -1.0000
G01 X 11.1260 Y 14.2036 Z -1.0000
G02 X 11.0994 Y 14.1928 Z -1.0000 I -0.0402 J 0.0610
G03 X 11.0724 Y 14.1817 Z -1.0000 I 0.0131 J -0.0702
G03 X 11.0545 Y 14.1623 Z -1.0000 I 0.0328 J -0.0483
G02 X 11.0372 Y 14.1429 Z -1.0000 I -0.0533 J 0.0302
G01 X 11.0204 Y 14.1374 Z -1.0000
G01 X 11.0027 Y 14.1323 Z -1.0000
G03 X 10.9734 Y 14.1078 Z -1.0000 I 0.0763 J -0.1212
G02 X 10.9443 Y 14.0829 Z -1.0000 I -0.1185 J 0.1086
G01 X 10.9292 Y 14.0783 Z -1.0000
G01 X 10.8983 Y 14.0659 Z -1.0000
G03 X 10.8809 Y 14.0324 Z -1.0000 I 0.0399 J -0.0420
G01 X 10.8770 Y 14.0211 Z -1.0000
G01 X 10.8731 Y 14.0190 Z -1.0000
G03 X 10.8673 Y 14.0191 Z -1.0000 I -0.0085 J -0.2149
G03 X 10.8546 Y 14.0192 Z -1.0000 I -0.0127 J -1.0018
G01 X 10.8491 Y 14.0286 Z -1.0000
G02 X 10.8779 Y 14.0608 Z -1.0000 I 0.0867 J -0.0483
G03 X 10.9115 Y 14.0888 Z -1.0000 I -0.1864 J 0.2587
G03 X 10.9293 Y 14.1099 Z -1.0000 I -0.0873 J 0.0916
G02 X 10.9474 Y 14.1308 Z -1.0000 I 0.0937 J -0.0631
G02 X 10.9957 Y 14.1697 Z -1.0000 I 0.3783 J -0.4197
G03 X 11.0424 Y 14.2095 Z -1.0000 I -0.2159 J 0.3001
G03 X 11.0556 Y 14.2301 Z -1.0000 I -0.0415 J 0.0411
G01 X 11.0691 Y 14.2489 Z -1.0000
G02 X 11.0967 Y 14.2634 Z -1.0000 I 0.0506 J -0.0623
G03 X 11.1271 Y 14.2760 Z -1.0000 I -0.0475 J 0.1583
G03 X 11.1496 Y 14.2918 Z -1.0000 I -0.0537 J 0.1004
G03 X 11.1720 Y 14.3303 Z -1.0000 I -0.0485 J 0.0540
G01 X 11.1608 Y 14.3431 Z -1.0000
G01 X 11.1518 Y 14.3454 Z -1.0000
G01 X 11.1509 Y 14.3497 Z -1.0000
G01 X 11.1568 Y 14.3547 Z -1.0000
G01 X 11.1656 Y 14.3559 Z -1.0000
G01 X 11.1752 Y 14.3568 Z -1.0000
G03 X 11.2246 Y 14.3769 Z -1.0000 I -0.2007 J 0.5635
G02 X 11.2734 Y 14.3956 Z -1.0000 I 0.1677 J -0.3649
G01 X 11.2816 Y 14.3946 Z -1.0000
G01 X 11.2937 Y 14.3995 Z -1.0000
G03 X 11.2923 Y 14.4369 Z -1.0000 I -0.0648 J 0.0164
G01 X 11.2852 Y 14.4584 Z -1.0000
G01 X 11.2624 Y 14.4372 Z -1.0000
G02 X 11.2388 Y 14.4180 Z -1.0000 I -0.1615 J 0.1742
G01 X 11.2329 Y 14.4162 Z -1.0000
G01 X 11.2642 Y 14.4496 Z -1.0000
G01 X 11.3022 Y 14.4828 Z -1.0000
G01 X 11.3040 Y 14.7217 Z -1.0000
G02 X 11.3087 Y 14.9605 Z -1.0000 I 9.6718 J -0.0732
G02 X 11.3155 Y 15.0802 Z -1.0000 I 2.4288 J -0.0784
G02 X 11.3476 Y 15.1869 Z -1.0000 I 0.2657 J -0.0217
G01 X 11.3821 Y 15.2013 Z -1.0000
G03 X 11.4068 Y 15.1975 Z -1.0000 I 0.0273 J 0.0964
G03 X 11.4745 Y 15.1990 Z -1.0000 I 0.0185 J 0.7090
G01 X 11.5426 Y 15.2037 Z -1.0000
G01 X 11.5381 Y 15.4030 Z -1.0000
G03 X 11.5317 Y 15.6022 Z -1.0000 I -10.6936 J -0.2439
G03 X 11.5255 Y 15.7036 Z -1.0000 I -2.6535 J -0.1100
G02 X 11.5197 Y 15.8050 Z -1.0000 I 2.3205 J 0.1832
G02 X 11.5180 Y 15.9181 Z -1.0000 I 2.8257 J 0.0994
G02 X 11.5280 Y 16.0273 Z -1.0000 I 0.6366 J -0.0034
G02 X 11.5427 Y 16.0552 Z -1.0000 I 0.0520 J -0.0093
G02 X 11.5705 Y 16.0702 Z -1.0000 I 0.0386 J -0.0386
G02 X 11.6624 Y 16.0793 Z -1.0000 I 0.0918 J -0.4571
G02 X 11.9824 Y 16.0688 Z -1.0000 I -0.0001 J -4.9081
G02 X 12.4376 Y 16.0286 Z -1.0000 I -0.6526 J -9.9826
G03 X 12.9179 Y 15.9804 Z -1.0000 I 2.4392 J 21.8883
G03 X 13.5689 Y 15.9276 Z -1.0000 I 3.5884 J 40.1829
G03 X 14.3957 Y 15.8705 Z -1.0000 I 7.7698 J 106.4448
G03 X 14.8690 Y 15.8428 Z -1.0000 I 2.2736 J 34.8764
G03 X 15.1942 Y 15.8279 Z -1.0000 I 1.5395 J 29.9157
G03 X 15.4938 Y 15.8175 Z -1.0000 I 1.0140 J 24.9907
G02 X 15.7935 Y 15.8085 Z -1.0000 I -2.5653 J -89.9696
G02 X 16.0248 Y 15.8006 Z -1.0000 I -1.7104 J -53.7081
G03 X 16.2561 Y 15.7934 Z -1.0000 I 0.8109 J 22.4249
G03 X 16.3513 Y 15.7922 Z -1.0000 I 0.0952 J 3.6855
G01 X 16.4466 Y 15.7922 Z -1.0000
G01 X 16.4518 Y 15.8408 Z -1.0000
G02 X 16.5113 Y 16.3319 Z -1.0000 I 18.2103 J -1.9575
G02 X 16.5269 Y 16.3979 Z -1.0000 I 0.3411 J -0.0460
G03 X 16.5374 Y 16.4423 Z -1.0000 I -0.2180 J 0.0751
G03 X 16.5657 Y 16.6871 Z -1.0000 I -6.6703 J 0.8948
G03 X 16.5782 Y 16.8637 Z -1.0000 I -3.3675 J 0.3269
G03 X 16.5883 Y 17.1937 Z -1.0000 I -11.7485 J 0.5223
G02 X 16.5937 Y 17.4427 Z -1.0000 I 21.7037 J -0.3486
G02 X 16.6001 Y 17.6285 Z -1.0000 I 13.1379 J -0.3618
G03 X 16.6074 Y 17.8142 Z -1.0000 I -33.2320 J 1.3988
G03 X 16.6122 Y 17.9577 Z -1.0000 I -23.1011 J 0.8431
G02 X 16.6187 Y 18.1011 Z -1.0000 I 4.7990 J -0.1459
G02 X 16.6258 Y 18.1826 Z -1.0000 I 1.5084 J -0.0910
G03 X 16.6347 Y 18.2639 Z -1.0000 I -8.0538 J 0.9183
G03 X 16.6376 Y 18.2965 Z -1.0000 I -1.1030 J 0.1145
G02 X 16.6614 Y 18.5772 Z -1.0000 I 13.8607 J -1.0320
G02 X 16.6675 Y 18.6112 Z -1.0000 I 0.2088 J -0.0198
G03 X 16.6725 Y 18.6396 Z -1.0000 I -0.1673 J 0.0444
G01 X 16.6708 Y 18.6469 Z -1.0000
G01 X 16.6693 Y 18.6540 Z -1.0000
G01 X 16.6744 Y 18.6688 Z -1.0000
G01 X 16.6793 Y 18.6845 Z -1.0000
G03 X 16.6873 Y 18.7667 Z -1.0000 I -1.1505 J 0.1530
G02 X 16.6938 Y 18.8493 Z -1.0000 I 2.4439 J -0.1500
G01 X 16.6958 Y 18.8554 Z -1.0000
G01 X 16.6981 Y 18.8614 Z -1.0000
G03 X 16.7048 Y 18.9033 Z -1.0000 I -0.8169 J 0.1518
G02 X 16.7605 Y 19.2712 Z -1.0000 I 9.3520 J -1.2282
G02 X 16.8063 Y 19.4943 Z -1.0000 I 3.4770 J -0.5970
G03 X 16.8184 Y 19.5449 Z -1.0000 I -22.3152 J 5.3665
G02 X 16.8275 Y 19.5829 Z -1.0000 I 60.1881 J -14.3302
G02 X 16.8366 Y 19.6209 Z -1.0000 I 14.2736 J -3.4164
G02 X 16.8459 Y 19.6589 Z -1.0000 I 10.3669 J -2.5105
G03 X 16.8547 Y 19.6970 Z -1.0000 I -1.6485 J 0.4023
G03 X 16.8662 Y 19.7518 Z -1.0000 I -2.9124 J 0.6399
G02 X 16.8784 Y 19.8063 Z -1.0000 I 1.1307 J -0.2248
G02 X 16.8946 Y 19.8657 Z -1.0000 I 1.4565 J -0.3638
G03 X 16.9109 Y 19.9251 Z -1.0000 I -1.5846 J 0.4681
G03 X 16.9241 Y 19.9811 Z -1.0000 I -1.4871 J 0.3796
G02 X 17.0232 Y 20.3511 Z -1.0000 I 3.8090 J -0.8222
G02 X 17.1312 Y 20.6256 Z -1.0000 I 2.1996 J -0.7068
G03 X 17.1453 Y 20.6599 Z -1.0000 I -0.3390 J 0.1588
G03 X 17.1525 Y 20.6862 Z -1.0000 I -0.1875 J 0.0661
G02 X 17.1610 Y 20.7113 Z -1.0000 I 0.1058 J -0.0215
G01 X 17.1702 Y 20.7231 Z -1.0000
G01 X 17.1790 Y 20.7347 Z -1.0000
G01 X 17.1826 Y 20.7511 Z -1.0000
G02 X 17.1854 Y 20.7685 Z -1.0000 I 0.0601 J -0.0010
G02 X 17.1992 Y 20.8028 Z -1.0000 I 0.2493 J -0.0798
G03 X 17.2133 Y 20.8372 Z -1.0000 I -0.2719 J 0.1318
G01 X 17.2158 Y 20.8514 Z -1.0000
G01 X 17.2193 Y 20.8647 Z -1.0000
G02 X 17.2330 Y 20.8831 Z -1.0000 I 0.0699 J -0.0379
G03 X 17.2461 Y 20.9019 Z -1.0000 I -0.0456 J 0.0456
G03 X 17.2536 Y 20.9282 Z -1.0000 I -0.0829 J 0.0378
G02 X 17.2603 Y 20.9554 Z -1.0000 I 0.1221 J -0.0158
G02 X 17.2830 Y 21.0073 Z -1.0000 I 0.4675 J -0.1741
G03 X 17.3072 Y 21.0586 Z -1.0000 I -0.8249 J 0.4192
G01 X 17.3089 Y 21.0670 Z -1.0000
G01 X 17.3108 Y 21.0745 Z -1.0000
G01 X 17.3152 Y 21.0786 Z -1.0000
G01 X 17.3334 Y 21.0960 Z -1.0000
G03 X 17.3794 Y 21.2060 Z -1.0000 I -0.7453 J 0.3763
G01 X 17.3864 Y 21.2179 Z -1.0000
G01 X 17.3928 Y 21.2207 Z -1.0000
G01 X 17.3986 Y 21.2244 Z -1.0000
G03 X 17.4148 Y 21.2670 Z -1.0000 I -0.2604 J 0.1230
G02 X 17.4307 Y 21.3114 Z -1.0000 I 0.3716 J -0.1081
G01 X 17.4369 Y 21.3187 Z -1.0000
G01 X 17.4437 Y 21.3258 Z -1.0000
G03 X 17.4707 Y 21.3800 Z -1.0000 I -0.6497 J 0.3580
G02 X 17.4985 Y 21.4336 Z -1.0000 I 0.4865 J -0.2183
G01 X 17.5079 Y 21.4428 Z -1.0000
G01 X 17.5171 Y 21.4512 Z -1.0000
G01 X 17.5200 Y 21.4606 Z -1.0000
G01 X 17.5221 Y 21.4711 Z -1.0000
G02 X 17.5462 Y 21.5214 Z -1.0000 I 0.6554 J -0.2828
G01 X 17.5830 Y 21.5711 Z -1.0000
G01 X 17.5866 Y 21.5669 Z -1.0000
G03 X 17.5934 Y 21.5804 Z -1.0000 I -0.0412 J 0.0294
G01 X 17.5958 Y 21.5949 Z -1.0000
G01 X 17.5991 Y 21.6092 Z -1.0000
G02 X 17.6201 Y 21.6456 Z -1.0000 I 0.2462 J -0.1178
G03 X 17.6432 Y 21.6815 Z -1.0000 I -0.6742 J 0.4613
G03 X 17.6578 Y 21.7075 Z -1.0000 I -0.3446 J 0.2102
G02 X 17.6727 Y 21.7334 Z -1.0000 I 0.2789 J -0.1428
G02 X 17.6822 Y 21.7458 Z -1.0000 I 0.0744 J -0.0475
G01 X 17.7154 Y 21.7911 Z -1.0000
G01 X 17.7238 Y 21.8191 Z -1.0000
G02 X 17.7455 Y 21.8507 Z -1.0000 I 0.2018 J -0.1153
G01 X 17.7521 Y 21.8539 Z -1.0000
G01 X 17.7592 Y 21.8567 Z -1.0000
G03 X 17.7718 Y 21.8717 Z -1.0000 I -0.0492 J 0.0539
G01 X 17.7738 Y 21.8839 Z -1.0000
G01 X 17.7921 Y 21.9200 Z -1.0000
G03 X 17.8188 Y 21.9545 Z -1.0000 I -0.7364 J 0.5965
G03 X 17.8744 Y 22.0318 Z -1.0000 I -3.6415 J 2.6820
G02 X 17.9299 Y 22.1092 Z -1.0000 I 4.8568 J -3.4215
G02 X 17.9380 Y 22.1190 Z -1.0000 I 0.0856 J -0.0624
G03 X 17.9463 Y 22.1287 Z -1.0000 I -0.0987 J 0.0929
G03 X 17.9881 Y 22.1832 Z -1.0000 I -3.4951 J 2.7195
G02 X 18.0304 Y 22.2373 Z -1.0000 I 1.5347 J -1.1564
G02 X 18.0680 Y 22.2818 Z -1.0000 I 1.0628 J -0.8620
G03 X 18.1065 Y 22.3255 Z -1.0000 I -14.4767 J 12.7952
G03 X 18.1403 Y 22.3641 Z -1.0000 I -10.4848 J 9.2108
G02 X 18.1755 Y 22.3996 Z -1.0000 I 0.2981 J -0.2600
G01 X 18.1837 Y 22.4027 Z -1.0000
G01 X 18.1964 Y 22.4097 Z -1.0000
G03 X 18.2076 Y 22.4407 Z -1.0000 I -0.0655 J 0.0411
G01 X 18.2110 Y 22.4458 Z -1.0000
G01 X 18.2188 Y 22.4470 Z -1.0000
G01 X 18.2253 Y 22.4485 Z -1.0000
G01 X 18.2269 Y 22.4531 Z -1.0000
G02 X 18.2720 Y 22.6184 Z -1.0000 I 0.1686 J 0.0429
G02 X 18.4070 Y 22.6345 Z -1.0000 I 0.0776 J -0.0769
G01 X 18.4104 Y 22.6352 Z -1.0000
G01 X 18.4112 Y 22.6408 Z -1.0000
G01 X 18.4158 Y 22.6584 Z -1.0000
G02 X 18.5608 Y 22.7798 Z -1.0000 I 1.2491 J -1.3445
G03 X 18.5957 Y 22.8073 Z -1.0000 I -0.6346 J 0.8430
G03 X 18.6174 Y 22.8263 Z -1.0000 I -0.2854 J 0.3477
G02 X 18.6396 Y 22.8445 Z -1.0000 I 0.1501 J -0.1606
G02 X 18.6615 Y 22.8578 Z -1.0000 I 0.1023 J -0.1430
G03 X 18.6801 Y 22.8708 Z -1.0000 I -0.0393 J 0.0763
G01 X 18.6808 Y 22.8755 Z -1.0000
G01 X 18.6814 Y 22.8802 Z -1.0000
G02 X 18.6999 Y 22.8932 Z -1.0000 I 0.0570 J -0.0613
G03 X 18.7353 Y 22.9156 Z -1.0000 I -0.1132 J 0.2185
G03 X 18.7700 Y 22.9463 Z -1.0000 I -0.1833 J 0.2420
G02 X 18.7862 Y 22.9611 Z -1.0000 I 0.1370 J -0.1338
G02 X 18.8013 Y 22.9716 Z -1.0000 I 0.0797 J -0.0981
G03 X 18.8672 Y 23.0142 Z -1.0000 I -0.5351 J 0.9011
G03 X 18.8918 Y 23.0350 Z -1.0000 I -0.1018 J 0.1455
G02 X 18.9105 Y 23.0496 Z -1.0000 I 0.0664 J -0.0657
G02 X 18.9930 Y 23.0950 Z -1.0000 I 0.7378 J -1.2427
G03 X 19.0747 Y 23.1405 Z -1.0000 I -0.5732 J 1.1264
G01 X 19.0841 Y 23.1502 Z -1.0000
G02 X 19.1250 Y 23.1910 Z -1.0000 I 0.0921 J -0.0515
G01 X 19.1410 Y 23.1818 Z -1.0000
G01 X 19.1473 Y 23.1837 Z -1.0000
G02 X 19.2003 Y 23.2282 Z -1.0000 I 0.1186 J -0.0874
G02 X 19.2445 Y 23.2319 Z -1.0000 I 0.0268 J -0.0540
G01 X 19.2495 Y 23.2331 Z -1.0000
G01 X 19.2557 Y 23.2422 Z -1.0000
G01 X 19.2626 Y 23.2495 Z -1.0000
G01 X 19.2723 Y 23.2498 Z -1.0000
G01 X 19.2819 Y 23.2503 Z -1.0000
G01 X 19.2894 Y 23.2588 Z -1.0000
G01 X 19.2967 Y 23.2692 Z -1.0000
G01 X 19.3049 Y 23.2723 Z -1.0000
G01 X 19.3146 Y 23.2741 Z -1.0000
G03 X 19.3482 Y 23.2884 Z -1.0000 I -0.1242 J 0.3369
G02 X 19.3812 Y 23.3009 Z -1.0000 I 0.0838 J -0.1716
G01 X 19.3890 Y 23.2998 Z -1.0000
G01 X 19.3913 Y 23.3037 Z -1.0000
G01 X 19.4037 Y 23.3404 Z -1.0000
G02 X 19.4933 Y 23.3430 Z -1.0000 I 0.0484 J -0.1255
G01 X 19.4954 Y 23.3474 Z -1.0000
G01 X 19.4920 Y 23.3540 Z -1.0000
G01 X 19.4954 Y 23.3576 Z -1.0000
G02 X 19.5081 Y 23.3581 Z -1.0000 I 0.0105 J -0.1185
G02 X 19.5194 Y 23.3572 Z -1.0000 I -0.0018 J -0.0966
G01 X 19.5250 Y 23.3595 Z -1.0000
G01 X 19.5252 Y 23.3646 Z -1.0000
G01 X 19.5263 Y 23.3699 Z -1.0000
G01 X 19.5382 Y 23.3736 Z -1.0000
G03 X 19.6107 Y 23.3849 Z -1.0000 I -0.0000 J 0.2391
G01 X 19.6220 Y 23.4003 Z -1.0000
G01 X 19.6250 Y 23.4044 Z -1.0000
G02 X 19.6442 Y 23.4074 Z -1.0000 I 0.0192 J -0.0601
G03 X 19.6654 Y 23.4110 Z -1.0000 I -0.0000 J 0.0643
G03 X 19.6951 Y 23.4251 Z -1.0000 I -0.0502 J 0.1437
G02 X 19.7241 Y 23.4387 Z -1.0000 I 0.0753 J -0.1223
G01 X 19.7348 Y 23.4385 Z -1.0000
G01 X 19.7458 Y 23.4376 Z -1.0000
G03 X 19.7705 Y 23.4455 Z -1.0000 I -0.0210 J 0.1078
G02 X 19.7957 Y 23.4550 Z -1.0000 I 0.0810 J -0.1766
G02 X 19.8499 Y 23.4694 Z -1.0000 I 0.2458 J -0.8198
G03 X 19.9045 Y 23.4830 Z -1.0000 I -0.3181 J 1.3913
G03 X 19.9639 Y 23.5002 Z -1.0000 I -0.4710 J 1.7411
G02 X 20.0234 Y 23.5164 Z -1.0000 I 0.2840 J -0.9231
G02 X 20.0553 Y 23.5220 Z -1.0000 I 0.0615 J -0.2572
G03 X 20.0869 Y 23.5277 Z -1.0000 I -0.0265 J 0.2355
G03 X 20.1035 Y 23.5342 Z -1.0000 I -0.0181 J 0.0713
G01 X 20.1202 Y 23.5391 Z -1.0000
G02 X 20.1557 Y 23.5385 Z -1.0000 I 0.0147 J -0.1804
G01 X 20.1707 Y 23.5417 Z -1.0000
G01 X 20.1496 Y 23.5492 Z -1.0000
G01 X 20.1750 Y 23.5514 Z -1.0000
G02 X 20.2003 Y 23.5527 Z -1.0000 I 0.0300 J -0.3481
G02 X 20.2425 Y 23.5523 Z -1.0000 I 0.0133 J -1.0017
G01 X 20.2678 Y 23.5588 Z -1.0000
G01 X 20.2974 Y 23.5690 Z -1.0000
G02 X 20.3438 Y 23.5706 Z -1.0000 I 0.0774 J -1.5208
G02 X 20.3734 Y 23.5705 Z -1.0000 I 0.0118 J -0.5780
G03 X 20.4012 Y 23.5728 Z -1.0000 I 0.0036 J 0.1241
G01 X 20.4078 Y 23.5774 Z -1.0000
G01 X 20.4160 Y 23.5823 Z -1.0000
G02 X 20.6689 Y 23.5957 Z -1.0000 I 0.5094 J -7.2543
G01 X 20.7575 Y 23.5932 Z -1.0000
G01 X 20.7955 Y 23.5895 Z -1.0000
G02 X 21.1709 Y 23.5842 Z -1.0000 I 0.1417 J -3.2779
G02 X 21.2299 Y 23.5584 Z -1.0000 I -0.0068 J -0.0959
G01 X 21.2390 Y 23.5538 Z -1.0000
G03 X 21.2721 Y 23.5507 Z -1.0000 I 0.0341 J 0.1854
G02 X 21.3060 Y 23.5481 Z -1.0000 I -0.0013 J -0.2454
G02 X 21.3611 Y 23.5378 Z -1.0000 I -0.0947 J -0.6536
G03 X 21.4161 Y 23.5256 Z -1.0000 I 0.6687 J 2.8829
G03 X 21.4371 Y 23.5217 Z -1.0000 I 0.0843 J 0.3977
G02 X 21.5242 Y 23.5025 Z -1.0000 I -0.1176 J -0.7413
G02 X 21.5782 Y 23.4816 Z -1.0000 I -0.0847 J -0.2989
G03 X 21.5974 Y 23.4764 Z -1.0000 I 0.0224 J 0.0450
G01 X 21.6002 Y 23.4802 Z -1.0000
G01 X 21.6033 Y 23.4841 Z -1.0000
G02 X 21.6353 Y 23.4750 Z -1.0000 I -0.0189 J -0.1277
G03 X 21.6755 Y 23.4611 Z -1.0000 I 0.1165 J 0.2730
G03 X 21.6995 Y 23.4580 Z -1.0000 I 0.0240 J 0.0903
G02 X 21.7209 Y 23.4548 Z -1.0000 I -0.0000 J -0.0728
G01 X 21.7242 Y 23.4504 Z -1.0000
G01 X 21.7352 Y 23.4353 Z -1.0000
G03 X 21.8050 Y 23.4243 Z -1.0000 I 0.0698 J 0.2160
G02 X 21.8310 Y 23.4202 Z -1.0000 I -0.0000 J -0.0850
G01 X 21.8459 Y 23.4111 Z -1.0000
G01 X 21.8597 Y 23.4028 Z -1.0000
G01 X 21.8689 Y 23.4040 Z -1.0000
G01 X 21.8723 Y 23.4036 Z -1.0000
G01 X 21.8727 Y 23.4003 Z -1.0000
G01 X 21.8746 Y 23.3949 Z -1.0000
G03 X 21.9010 Y 23.3906 Z -1.0000 I 0.0263 J 0.0773
G02 X 21.9313 Y 23.3867 Z -1.0000 I -0.0000 J -0.1210
G01 X 21.9352 Y 23.3817 Z -1.0000
G01 X 21.9381 Y 23.3779 Z -1.0000
G01 X 21.9451 Y 23.3789 Z -1.0000
G01 X 21.9490 Y 23.3777 Z -1.0000
G01 X 21.9491 Y 23.3698 Z -1.0000
G01 X 21.9505 Y 23.3645 Z -1.0000
G01 X 21.9553 Y 23.3645 Z -1.0000
G01 X 21.9679 Y 23.3678 Z -1.0000
G02 X 21.9998 Y 23.3563 Z -1.0000 I -0.0186 J -0.1018
G02 X 22.0310 Y 23.3366 Z -1.0000 I -0.1689 J -0.3017
G01 X 22.0379 Y 23.3293 Z -1.0000
G01 X 22.0453 Y 23.3238 Z -1.0000
G03 X 22.0736 Y 23.3195 Z -1.0000 I 0.0319 J 0.1149
G02 X 22.1017 Y 23.3142 Z -1.0000 I -0.0033 J -0.0953
G01 X 22.1145 Y 23.3052 Z -1.0000
G03 X 22.1269 Y 23.2942 Z -1.0000 I 0.0390 J 0.0315
G03 X 22.1527 Y 23.2813 Z -1.0000 I 0.0826 J 0.1318
G02 X 22.1759 Y 23.2676 Z -1.0000 I -0.0315 J -0.0805
G01 X 22.1801 Y 23.2588 Z -1.0000
G01 X 22.1880 Y 23.2493 Z -1.0000
G01 X 22.2008 Y 23.2549 Z -1.0000
G01 X 22.2011 Y 23.2612 Z -1.0000
G01 X 22.1950 Y 23.2669 Z -1.0000
G01 X 22.1939 Y 23.2718 Z -1.0000
G01 X 22.2022 Y 23.2699 Z -1.0000
G01 X 22.2139 Y 23.2598 Z -1.0000
G01 X 22.2257 Y 23.2499 Z -1.0000
G01 X 22.2360 Y 23.2472 Z -1.0000
G01 X 22.2450 Y 23.2444 Z -1.0000
G01 X 22.2477 Y 23.2393 Z -1.0000
G01 X 22.2511 Y 23.2341 Z -1.0000
G03 X 22.2835 Y 23.2239 Z -1.0000 I 0.0671 J 0.1568
G02 X 22.3146 Y 23.2132 Z -1.0000 I -0.0265 J -0.1274
G01 X 22.3175 Y 23.2071 Z -1.0000
G01 X 22.3206 Y 23.2006 Z -1.0000
G03 X 22.3758 Y 23.1749 Z -1.0000 I 0.2100 J 0.3793
G02 X 22.4333 Y 23.1477 Z -1.0000 I -0.1490 J -0.3902
G02 X 22.4660 Y 23.1236 Z -1.0000 I -0.0843 J -0.1482
G03 X 22.4975 Y 23.1015 Z -1.0000 I 0.0909 J 0.0964
G01 X 22.5122 Y 23.1004 Z -1.0000
G01 X 22.5236 Y 23.0979 Z -1.0000
G01 X 22.5238 Y 23.0914 Z -1.0000
G01 X 22.5361 Y 23.0795 Z -1.0000
G01 X 22.5472 Y 23.0786 Z -1.0000
G01 X 22.5590 Y 23.0790 Z -1.0000
G02 X 22.5752 Y 23.0684 Z -1.0000 I -0.0562 J -0.1039
G01 X 22.5769 Y 23.0650 Z -1.0000
G01 X 22.5664 Y 23.0665 Z -1.0000
G01 X 22.5643 Y 23.0633 Z -1.0000
G01 X 22.5740 Y 23.0566 Z -1.0000
G03 X 22.5958 Y 23.0511 Z -1.0000 I 0.0341 J 0.0879
G02 X 22.6171 Y 23.0442 Z -1.0000 I -0.0084 J -0.0631
G02 X 22.6422 Y 23.0264 Z -1.0000 I -0.0555 J -0.1050
G03 X 22.7262 Y 22.9597 Z -1.0000 I 0.4932 J 0.5341
G01 X 22.7519 Y 22.9517 Z -1.0000
G01 X 22.7582 Y 22.9494 Z -1.0000
G02 X 22.7922 Y 22.9180 Z -1.0000 I -0.2964 J -0.3541
G03 X 22.8266 Y 22.8875 Z -1.0000 I 0.2297 J 0.2243
G01 X 22.8363 Y 22.8842 Z -1.0000
G01 X 22.8460 Y 22.8810 Z -1.0000
G02 X 22.8766 Y 22.8541 Z -1.0000 I -0.1536 J -0.2058
G03 X 22.9067 Y 22.8300 Z -1.0000 I 0.1108 J 0.1076
G01 X 22.9158 Y 22.8301 Z -1.0000
G01 X 22.9193 Y 22.8297 Z -1.0000
G01 X 22.9197 Y 22.8265 Z -1.0000
G01 X 22.9190 Y 22.8197 Z -1.0000
G01 X 22.9231 Y 22.8168 Z -1.0000
G01 X 22.9493 Y 22.8077 Z -1.0000
G02 X 23.0718 Y 22.7007 Z -1.0000 I -0.9013 J -1.1541
G03 X 23.0923 Y 22.6844 Z -1.0000 I 0.0865 J 0.0885
G01 X 23.1021 Y 22.6815 Z -1.0000
G01 X 23.1004 Y 22.6732 Z -1.0000
G01 X 23.0994 Y 22.6684 Z -1.0000
G01 X 23.1057 Y 22.6649 Z -1.0000
G01 X 23.1214 Y 22.6599 Z -1.0000
G02 X 23.1531 Y 22.6313 Z -1.0000 I -0.1061 J -0.1493
G03 X 23.1827 Y 22.6029 Z -1.0000 I 0.1811 J 0.1588
G01 X 23.1879 Y 22.6031 Z -1.0000
G01 X 23.1912 Y 22.6034 Z -1.0000
G01 X 23.1933 Y 22.5994 Z -1.0000
G01 X 23.1963 Y 22.5919 Z -1.0000
G03 X 23.2249 Y 22.5664 Z -1.0000 I 0.1733 J 0.1658
G02 X 23.2494 Y 22.5323 Z -1.0000 I -0.0426 J -0.0564
G01 X 23.2450 Y 22.5059 Z -1.0000
G01 X 23.2305 Y 22.4867 Z -1.0000
G01 X 23.2309 Y 22.5103 Z -1.0000
G01 X 23.2272 Y 22.5293 Z -1.0000
G01 X 23.2217 Y 22.5322 Z -1.0000
G01 X 23.2159 Y 22.5347 Z -1.0000
G01 X 23.2133 Y 22.5449 Z -1.0000
G01 X 23.2101 Y 22.5553 Z -1.0000
G01 X 23.2018 Y 22.5593 Z -1.0000
G01 X 23.1906 Y 22.5622 Z -1.0000
G01 X 23.1822 Y 22.5700 Z -1.0000
G01 X 23.1745 Y 22.5768 Z -1.0000
G01 X 23.1684 Y 22.5764 Z -1.0000
G01 X 23.1610 Y 22.5752 Z -1.0000
G02 X 23.1330 Y 22.5843 Z -1.0000 I 0.0353 J 0.1563
G01 X 23.1306 Y 22.5922 Z -1.0000
G01 X 23.1415 Y 22.5975 Z -1.0000
G01 X 23.1545 Y 22.6002 Z -1.0000
G01 X 23.1558 Y 22.6050 Z -1.0000
G01 X 23.1485 Y 22.6113 Z -1.0000
G01 X 23.1342 Y 22.6142 Z -1.0000
G01 X 23.1199 Y 22.6170 Z -1.0000
G01 X 23.1130 Y 22.6228 Z -1.0000
G01 X 23.1068 Y 22.6275 Z -1.0000
G01 X 23.0999 Y 22.6265 Z -1.0000
G01 X 23.0946 Y 22.6263 Z -1.0000
G01 X 23.0920 Y 22.6306 Z -1.0000
G01 X 23.0793 Y 22.6425 Z -1.0000
G01 X 23.0664 Y 22.6290 Z -1.0000
G01 X 23.0575 Y 22.6332 Z -1.0000
G01 X 23.0416 Y 22.6430 Z -1.0000
G01 X 23.0328 Y 22.6348 Z -1.0000
G01 X 23.0359 Y 22.6271 Z -1.0000
G01 X 23.0407 Y 22.6265 Z -1.0000
G01 X 23.0409 Y 22.6043 Z -1.0000
G01 X 23.0448 Y 22.5812 Z -1.0000
G01 X 23.0653 Y 22.5696 Z -1.0000
G02 X 23.0890 Y 22.5641 Z -1.0000 I -0.0053 J -0.0762
G01 X 23.0958 Y 22.5572 Z -1.0000
G01 X 23.0959 Y 22.5494 Z -1.0000
G01 X 23.0921 Y 22.5466 Z -1.0000
G01 X 23.0890 Y 22.5434 Z -1.0000
G03 X 23.0933 Y 22.5210 Z -1.0000 I 0.0792 J 0.0037
G01 X 23.1043 Y 22.5083 Z -1.0000
G01 X 23.1137 Y 22.5104 Z -1.0000
G01 X 23.1254 Y 22.5144 Z -1.0000
G03 X 23.1438 Y 22.4674 Z -1.0000 I 0.0740 J 0.0018
G03 X 23.1875 Y 22.4437 Z -1.0000 I 0.0538 J 0.0472
G01 X 23.1999 Y 22.4355 Z -1.0000
G02 X 23.2085 Y 22.4095 Z -1.0000 I -0.0505 J -0.0310
G01 X 23.2200 Y 22.3919 Z -1.0000
G01 X 23.2321 Y 22.3968 Z -1.0000
G01 X 23.2384 Y 22.4158 Z -1.0000
G01 X 23.2435 Y 22.3947 Z -1.0000
G01 X 23.2524 Y 22.3767 Z -1.0000
G01 X 23.2673 Y 22.3652 Z -1.0000
G01 X 23.2788 Y 22.3531 Z -1.0000
G01 X 23.2809 Y 22.3294 Z -1.0000
G01 X 23.2870 Y 22.3111 Z -1.0000
G01 X 23.3007 Y 22.3114 Z -1.0000
G01 X 23.3212 Y 22.3134 Z -1.0000
G02 X 23.3509 Y 22.2777 Z -1.0000 I -0.0459 J -0.0684
G03 X 23.3676 Y 22.2501 Z -1.0000 I 0.1085 J 0.0470
G01 X 23.3748 Y 22.2482 Z -1.0000
G01 X 23.4157 Y 22.2390 Z -1.0000
G01 X 23.4243 Y 22.1965 Z -1.0000
G01 X 23.4299 Y 22.1806 Z -1.0000
G01 X 23.4490 Y 22.1823 Z -1.0000
G01 X 23.4576 Y 22.1829 Z -1.0000
G01 X 23.4690 Y 22.1703 Z -1.0000
G02 X 23.4744 Y 22.1511 Z -1.0000 I -0.0559 J -0.0263
G01 X 23.4718 Y 22.1456 Z -1.0000
G01 X 23.4655 Y 22.1226 Z -1.0000
G01 X 23.4919 Y 22.1081 Z -1.0000
G02 X 23.5247 Y 22.1056 Z -1.0000 I 0.0083 J -0.1081
G01 X 23.5271 Y 22.0999 Z -1.0000
G01 X 23.5268 Y 22.0925 Z -1.0000
G03 X 23.5431 Y 22.0675 Z -1.0000 I 0.1121 J 0.0555
G02 X 23.5566 Y 22.0431 Z -1.0000 I -0.0550 J -0.0463
G01 X 23.5542 Y 22.0330 Z -1.0000
G01 X 23.5531 Y 22.0268 Z -1.0000
G01 X 23.5588 Y 22.0232 Z -1.0000
G01 X 23.5701 Y 22.0201 Z -1.0000
G01 X 23.5731 Y 22.0148 Z -1.0000
G01 X 23.5756 Y 22.0088 Z -1.0000
G01 X 23.5815 Y 22.0064 Z -1.0000
G01 X 23.5868 Y 22.0094 Z -1.0000
G01 X 23.5899 Y 22.0205 Z -1.0000
G01 X 23.5957 Y 22.0287 Z -1.0000
G01 X 23.6033 Y 22.0140 Z -1.0000
G02 X 23.6099 Y 21.9462 Z -1.0000 I -0.4629 J -0.0793
G01 X 23.6160 Y 21.9242 Z -1.0000
G01 X 23.6226 Y 21.9239 Z -1.0000
G01 X 23.6275 Y 21.9393 Z -1.0000
G01 X 23.6226 Y 21.9481 Z -1.0000
G01 X 23.6209 Y 21.9556 Z -1.0000
G01 X 23.6463 Y 21.9448 Z -1.0000
G01 X 23.6574 Y 21.9166 Z -1.0000
G01 X 23.6544 Y 21.9095 Z -1.0000
G01 X 23.6495 Y 21.9089 Z -1.0000
G01 X 23.6426 Y 21.9099 Z -1.0000
G01 X 23.6364 Y 21.9052 Z -1.0000
G01 X 23.6370 Y 21.8999 Z -1.0000
G01 X 23.6450 Y 21.8966 Z -1.0000
G01 X 23.6559 Y 21.8926 Z -1.0000
G01 X 23.6629 Y 21.8815 Z -1.0000
G01 X 23.6699 Y 21.8690 Z -1.0000
G01 X 23.6853 Y 21.8583 Z -1.0000
G01 X 23.6985 Y 21.8463 Z -1.0000
G02 X 23.7066 Y 21.8207 Z -1.0000 I -0.0559 J -0.0317
G01 X 23.7210 Y 21.7902 Z -1.0000
G01 X 23.7488 Y 21.7785 Z -1.0000
G01 X 23.7610 Y 21.7720 Z -1.0000
G01 X 23.7648 Y 21.7552 Z -1.0000
G01 X 23.7648 Y 21.7425 Z -1.0000
G01 X 23.7758 Y 21.7483 Z -1.0000
G01 X 23.7819 Y 21.7376 Z -1.0000
G01 X 23.7859 Y 21.7122 Z -1.0000
G03 X 23.8114 Y 21.6916 Z -1.0000 I 0.0438 J 0.0281
G01 X 23.8244 Y 21.6774 Z -1.0000
G01 X 23.8177 Y 21.6686 Z -1.0000
G01 X 23.8116 Y 21.6663 Z -1.0000
G01 X 23.8093 Y 21.6611 Z -1.0000
G01 X 23.8122 Y 21.6568 Z -1.0000
G01 X 23.8241 Y 21.6548 Z -1.0000
G01 X 23.8334 Y 21.6504 Z -1.0000
G01 X 23.8377 Y 21.6352 Z -1.0000
G03 X 23.8621 Y 21.5740 Z -1.0000 I 0.0780 J -0.0043
G01 X 23.8944 Y 21.5819 Z -1.0000
G01 X 23.8993 Y 21.5855 Z -1.0000
G01 X 23.9044 Y 21.5821 Z -1.0000
G01 X 23.9054 Y 21.5704 Z -1.0000
G01 X 23.9010 Y 21.5656 Z -1.0000
G01 X 23.8946 Y 21.5514 Z -1.0000
G03 X 23.9302 Y 21.4956 Z -1.0000 I 0.1777 J 0.0741
G01 X 23.9453 Y 21.4896 Z -1.0000
G01 X 23.9614 Y 21.4980 Z -1.0000
G01 X 23.9718 Y 21.5039 Z -1.0000
G01 X 23.9759 Y 21.5001 Z -1.0000
G01 X 23.9708 Y 21.4869 Z -1.0000
G01 X 23.9627 Y 21.4829 Z -1.0000
G01 X 23.9586 Y 21.4792 Z -1.0000
G01 X 23.9613 Y 21.4702 Z -1.0000
G01 X 23.9644 Y 21.4574 Z -1.0000
G01 X 23.9697 Y 21.4491 Z -1.0000
G01 X 23.9727 Y 21.4436 Z -1.0000
G01 X 23.9697 Y 21.4405 Z -1.0000
G01 X 23.9780 Y 21.4285 Z -1.0000
G03 X 23.9989 Y 21.4197 Z -1.0000 I 0.0503 J 0.0907
G01 X 24.0050 Y 21.4206 Z -1.0000
G01 X 24.0099 Y 21.4202 Z -1.0000
G01 X 24.0199 Y 21.4076 Z -1.0000
G01 X 24.0222 Y 21.3929 Z -1.0000
G01 X 24.0152 Y 21.3834 Z -1.0000
G01 X 24.0095 Y 21.3734 Z -1.0000
G03 X 24.0157 Y 21.3485 Z -1.0000 I 0.0560 J 0.0008
G03 X 24.0322 Y 21.3273 Z -1.0000 I 0.0656 J 0.0339
G01 X 24.0414 Y 21.3256 Z -1.0000
G01 X 24.0493 Y 21.3233 Z -1.0000
G02 X 24.0588 Y 21.3031 Z -1.0000 I -0.0403 J -0.0312
G03 X 24.0819 Y 21.2466 Z -1.0000 I 0.1719 J 0.0373
G01 X 24.0999 Y 21.2377 Z -1.0000
G01 X 24.1124 Y 21.2315 Z -1.0000
G01 X 24.1159 Y 21.2120 Z -1.0000
G01 X 24.1183 Y 21.1884 Z -1.0000
G03 X 24.1362 Y 21.1634 Z -1.0000 I 0.0631 J 0.0264
G02 X 24.1568 Y 21.1382 Z -1.0000 I -0.0647 J -0.0738
G02 X 24.1676 Y 21.1084 Z -1.0000 I -0.0810 J -0.0461
G03 X 24.1770 Y 21.0776 Z -1.0000 I 0.1324 J 0.0236
G03 X 24.1898 Y 21.0581 Z -1.0000 I 0.0643 J 0.0284
G02 X 24.2027 Y 21.0397 Z -1.0000 I -0.0597 J -0.0554
G01 X 24.2032 Y 21.0317 Z -1.0000
G01 X 24.2032 Y 21.0230 Z -1.0000
G03 X 24.2167 Y 20.9909 Z -1.0000 I 0.2102 J 0.0701
G03 X 24.2354 Y 20.9694 Z -1.0000 I 0.0544 J 0.0282
G01 X 24.2462 Y 20.9698 Z -1.0000
G01 X 24.2524 Y 20.9677 Z -1.0000
G02 X 24.2551 Y 20.9320 Z -1.0000 I -0.1117 J -0.0263
G03 X 24.2575 Y 20.8904 Z -1.0000 I 0.1479 J -0.0123
G01 X 24.2644 Y 20.8856 Z -1.0000
G01 X 24.2729 Y 20.8820 Z -1.0000
G01 X 24.2779 Y 20.8666 Z -1.0000
G01 X 24.2842 Y 20.8516 Z -1.0000
G01 X 24.2989 Y 20.8454 Z -1.0000
G01 X 24.3294 Y 20.8275 Z -1.0000
G01 X 24.3326 Y 20.7863 Z -1.0000
G01 X 24.3329 Y 20.7703 Z -1.0000
G01 X 24.3452 Y 20.7569 Z -1.0000
G01 X 24.3594 Y 20.7442 Z -1.0000
G01 X 24.3606 Y 20.7347 Z -1.0000
G01 X 24.3601 Y 20.7234 Z -1.0000
G03 X 24.3704 Y 20.7013 Z -1.0000 I 0.0787 J 0.0230
G02 X 24.3805 Y 20.6791 Z -1.0000 I -0.0691 J -0.0451
G01 X 24.3801 Y 20.6677 Z -1.0000
G01 X 24.3815 Y 20.6580 Z -1.0000
G03 X 24.3984 Y 20.6434 Z -1.0000 I 0.0419 J 0.0315
G01 X 24.4070 Y 20.6306 Z -1.0000
G01 X 24.3905 Y 20.6212 Z -1.0000
G01 X 24.3885 Y 20.6012 Z -1.0000
G01 X 24.3950 Y 20.5963 Z -1.0000
G01 X 24.4033 Y 20.6000 Z -1.0000
G01 X 24.4142 Y 20.6103 Z -1.0000
G01 X 24.4251 Y 20.6150 Z -1.0000
G01 X 24.4512 Y 20.5948 Z -1.0000
G01 X 24.4276 Y 20.5589 Z -1.0000
G01 X 24.4165 Y 20.5414 Z -1.0000
G01 X 24.4297 Y 20.5279 Z -1.0000
G02 X 24.4424 Y 20.5268 Z -1.0000 I -0.1226 J -1.4799
G02 X 24.4522 Y 20.5258 Z -1.0000 I -0.0468 J -0.5117
G01 X 24.4672 Y 20.5139 Z -1.0000
G01 X 24.4599 Y 20.5036 Z -1.0000
G01 X 24.4543 Y 20.5002 Z -1.0000
G01 X 24.4508 Y 20.4862 Z -1.0000
G01 X 24.4560 Y 20.4758 Z -1.0000
G01 X 24.4670 Y 20.4739 Z -1.0000
G01 X 24.4818 Y 20.4752 Z -1.0000
G01 X 24.4880 Y 20.4712 Z -1.0000
G01 X 24.4872 Y 20.4668 Z -1.0000
G01 X 24.4791 Y 20.4645 Z -1.0000
G01 X 24.4678 Y 20.4618 Z -1.0000
G01 X 24.4612 Y 20.4537 Z -1.0000
G01 X 24.4630 Y 20.4481 Z -1.0000
G01 X 24.4708 Y 20.4471 Z -1.0000
G01 X 24.4815 Y 20.4480 Z -1.0000
G01 X 24.4846 Y 20.4442 Z -1.0000
G01 X 24.4867 Y 20.4386 Z -1.0000
G01 X 24.4909 Y 20.4370 Z -1.0000
G01 X 24.5006 Y 20.4318 Z -1.0000
G01 X 24.5012 Y 20.4142 Z -1.0000
G01 X 24.5005 Y 20.3963 Z -1.0000
G01 X 24.5091 Y 20.3881 Z -1.0000
G01 X 24.5318 Y 20.3673 Z -1.0000
G01 X 24.5268 Y 20.3389 Z -1.0000
G01 X 24.5211 Y 20.3102 Z -1.0000
G01 X 24.5426 Y 20.2886 Z -1.0000
G01 X 24.5515 Y 20.2806 Z -1.0000
G02 X 24.5564 Y 20.2567 Z -1.0000 I -0.0545 J -0.0237
G03 X 24.5608 Y 20.2346 Z -1.0000 I 0.0578 J -0.0002
G01 X 24.5669 Y 20.2313 Z -1.0000
G01 X 24.5745 Y 20.2299 Z -1.0000
G01 X 24.5775 Y 20.2245 Z -1.0000
G01 X 24.5800 Y 20.2201 Z -1.0000
G01 X 24.5851 Y 20.2202 Z -1.0000
G01 X 24.5969 Y 20.2158 Z -1.0000
G02 X 24.5979 Y 20.1786 Z -1.0000 I -0.0661 J -0.0203
G01 X 24.5985 Y 20.1604 Z -1.0000
G01 X 24.6097 Y 20.1421 Z -1.0000
G02 X 24.6330 Y 20.1013 Z -1.0000 I -0.0632 J -0.0632
G01 X 24.6245 Y 20.0847 Z -1.0000
G01 X 24.6120 Y 20.0632 Z -1.0000
G01 X 24.6302 Y 20.0474 Z -1.0000
G01 X 24.6364 Y 20.0429 Z -1.0000
G01 X 24.6343 Y 20.0359 Z -1.0000
G01 X 24.6279 Y 20.0244 Z -1.0000
G01 X 24.6322 Y 20.0140 Z -1.0000
G01 X 24.6422 Y 20.0021 Z -1.0000
G01 X 24.6450 Y 19.9918 Z -1.0000
G01 X 24.6489 Y 19.9840 Z -1.0000
G01 X 24.6609 Y 19.9801 Z -1.0000
G01 X 24.6844 Y 19.9629 Z -1.0000
G01 X 24.6766 Y 19.9308 Z -1.0000
G01 X 24.6750 Y 19.9227 Z -1.0000
G03 X 24.6870 Y 19.9043 Z -1.0000 I 0.0500 J 0.0196
G01 X 24.6966 Y 19.8857 Z -1.0000
G01 X 24.6924 Y 19.8715 Z -1.0000
G01 X 24.6864 Y 19.8345 Z -1.0000
G01 X 24.7153 Y 19.8189 Z -1.0000
G01 X 24.7181 Y 19.8174 Z -1.0000
G01 X 24.7177 Y 19.8127 Z -1.0000
G01 X 24.7173 Y 19.8057 Z -1.0000
G03 X 24.7289 Y 19.7885 Z -1.0000 I 0.0593 J 0.0273
G02 X 24.7537 Y 19.7338 Z -1.0000 I -0.0691 J -0.0644
G01 X 24.7379 Y 19.7015 Z -1.0000
G01 X 24.7330 Y 19.6960 Z -1.0000
G03 X 24.7282 Y 19.6804 Z -1.0000 I 0.0569 J -0.0263
G01 X 24.7316 Y 19.6697 Z -1.0000
G01 X 24.7431 Y 19.6660 Z -1.0000
G01 X 24.7688 Y 19.6512 Z -1.0000
G01 X 24.7608 Y 19.6229 Z -1.0000
G01 X 24.7646 Y 19.6200 Z -1.0000
G01 X 24.7839 Y 19.6108 Z -1.0000
G01 X 24.7765 Y 19.5900 Z -1.0000
G01 X 24.7680 Y 19.5707 Z -1.0000
G01 X 24.7841 Y 19.5580 Z -1.0000
G01 X 24.8043 Y 19.5452 Z -1.0000
G01 X 24.8025 Y 19.5194 Z -1.0000
G03 X 24.7940 Y 19.5023 Z -1.0000 I 0.0603 J -0.0402
G03 X 24.7906 Y 19.4840 Z -1.0000 I 0.0655 J -0.0220
G01 X 24.7949 Y 19.4770 Z -1.0000
G01 X 24.8030 Y 19.4784 Z -1.0000
G01 X 24.8200 Y 19.4750 Z -1.0000
G01 X 24.8183 Y 19.4404 Z -1.0000
G03 X 24.8098 Y 19.4059 Z -1.0000 I 0.0679 J -0.0351
G01 X 24.8180 Y 19.3976 Z -1.0000
G01 X 24.8275 Y 19.4008 Z -1.0000
G01 X 24.8307 Y 19.4074 Z -1.0000
G01 X 24.8364 Y 19.4090 Z -1.0000
G02 X 24.8454 Y 19.3845 Z -1.0000 I -0.0506 J -0.0325
G01 X 24.8444 Y 19.3670 Z -1.0000
G01 X 24.8404 Y 19.3638 Z -1.0000
G01 X 24.8249 Y 19.3530 Z -1.0000
G01 X 24.8272 Y 19.3288 Z -1.0000
G01 X 24.8330 Y 19.3258 Z -1.0000
G01 X 24.8434 Y 19.3300 Z -1.0000
G01 X 24.8535 Y 19.3316 Z -1.0000
G01 X 24.8678 Y 19.3203 Z -1.0000
G02 X 24.8762 Y 19.3023 Z -1.0000 I -0.0470 J -0.0328
G01 X 24.8741 Y 19.2967 Z -1.0000
G01 X 24.8690 Y 19.2907 Z -1.0000
G03 X 24.8616 Y 19.2696 Z -1.0000 I 0.1040 J -0.0480
G01 X 24.8640 Y 19.2552 Z -1.0000
G01 X 24.8730 Y 19.2516 Z -1.0000
G01 X 24.8814 Y 19.2439 Z -1.0000
G01 X 24.8689 Y 19.2288 Z -1.0000
G01 X 24.8544 Y 19.2180 Z -1.0000
G01 X 24.8529 Y 19.2079 Z -1.0000
G01 X 24.8748 Y 19.1930 Z -1.0000
G01 X 24.8899 Y 19.2081 Z -1.0000
G01 X 24.8930 Y 19.2155 Z -1.0000
G01 X 24.8984 Y 19.2160 Z -1.0000
G01 X 24.9021 Y 19.2095 Z -1.0000
G01 X 24.8988 Y 19.1958 Z -1.0000
G01 X 24.8941 Y 19.1803 Z -1.0000
G03 X 24.8955 Y 19.1625 Z -1.0000 I 0.0506 J -0.0051
G01 X 24.8955 Y 19.1479 Z -1.0000
G01 X 24.8908 Y 19.1443 Z -1.0000
G01 X 24.8851 Y 19.1405 Z -1.0000
G01 X 24.8814 Y 19.1223 Z -1.0000
G01 X 24.8860 Y 19.1070 Z -1.0000
G01 X 24.8930 Y 19.1047 Z -1.0000
G01 X 24.9040 Y 19.1054 Z -1.0000
G01 X 24.9154 Y 19.0993 Z -1.0000
G01 X 24.9202 Y 19.1000 Z -1.0000
G01 X 24.9189 Y 19.1078 Z -1.0000
G01 X 24.9223 Y 19.1105 Z -1.0000
G01 X 24.9285 Y 19.1080 Z -1.0000
G01 X 24.9352 Y 19.0978 Z -1.0000
G01 X 24.9377 Y 19.0775 Z -1.0000
G01 X 24.9321 Y 19.0725 Z -1.0000
G01 X 24.9258 Y 19.0705 Z -1.0000
G01 X 24.9237 Y 19.0662 Z -1.0000
G01 X 24.9316 Y 19.0135 Z -1.0000
G03 X 24.9357 Y 19.0305 Z -1.0000 I -0.0580 J 0.0231
G01 X 24.9345 Y 19.0430 Z -1.0000
G01 X 24.9447 Y 19.0388 Z -1.0000
G02 X 24.9562 Y 19.0071 Z -1.0000 I -0.0390 J -0.0321
G02 X 24.9455 Y 18.9460 Z -1.0000 I -0.1714 J -0.0015
G01 X 24.9524 Y 18.9452 Z -1.0000
G01 X 24.9636 Y 18.9476 Z -1.0000
G01 X 24.9776 Y 18.9326 Z -1.0000
G01 X 24.9792 Y 18.9017 Z -1.0000
G01 X 24.9648 Y 18.8911 Z -1.0000
G01 X 24.9544 Y 18.8853 Z -1.0000
G01 X 24.9506 Y 18.8679 Z -1.0000
G01 X 24.9588 Y 18.8502 Z -1.0000
G01 X 24.9747 Y 18.8421 Z -1.0000
G01 X 24.9936 Y 18.8356 Z -1.0000
G01 X 25.0067 Y 18.8226 Z -1.0000
G01 X 25.0062 Y 18.8161 Z -1.0000
G01 X 24.9999 Y 18.8149 Z -1.0000
G01 X 24.9773 Y 18.8142 Z -1.0000
G01 X 24.9659 Y 18.7940 Z -1.0000
G01 X 24.9758 Y 18.7685 Z -1.0000
G01 X 24.9895 Y 18.7682 Z -1.0000
G01 X 24.9902 Y 18.7732 Z -1.0000
G01 X 24.9826 Y 18.7816 Z -1.0000
G01 X 24.9808 Y 18.7865 Z -1.0000
G01 X 24.9850 Y 18.7896 Z -1.0000
G01 X 24.9953 Y 18.7853 Z -1.0000
G01 X 24.9997 Y 18.7746 Z -1.0000
G01 X 25.0023 Y 18.7604 Z -1.0000
G01 X 25.0086 Y 18.7505 Z -1.0000
G01 X 25.0098 Y 18.7424 Z -1.0000
G01 X 24.9962 Y 18.7277 Z -1.0000
G03 X 24.9808 Y 18.7118 Z -1.0000 I 0.0282 J -0.0428
G01 X 24.9798 Y 18.7011 Z -1.0000
G01 X 24.9951 Y 18.6916 Z -1.0000
G01 X 25.0027 Y 18.7032 Z -1.0000
G01 X 25.0102 Y 18.7011 Z -1.0000
G02 X 25.0244 Y 18.6648 Z -1.0000 I -0.0603 J -0.0445
G01 X 25.0153 Y 18.6547 Z -1.0000
G01 X 25.0111 Y 18.6519 Z -1.0000
G01 X 25.0089 Y 18.6399 Z -1.0000
G01 X 25.0138 Y 18.6357 Z -1.0000
G01 X 25.0246 Y 18.6388 Z -1.0000
G01 X 25.0335 Y 18.6213 Z -1.0000
G03 X 25.0382 Y 18.5991 Z -1.0000 I 0.0550 J 0.0000
G01 X 25.0483 Y 18.5878 Z -1.0000
G01 X 25.0499 Y 18.5827 Z -1.0000
G01 X 25.0441 Y 18.5789 Z -1.0000
G01 X 25.0284 Y 18.5754 Z -1.0000
G01 X 25.0251 Y 18.5702 Z -1.0000
G01 X 25.0274 Y 18.5641 Z -1.0000
G01 X 25.0326 Y 18.5618 Z -1.0000
G01 X 25.0513 Y 18.5470 Z -1.0000
G01 X 25.0416 Y 18.5236 Z -1.0000
G01 X 25.0379 Y 18.5179 Z -1.0000
G01 X 25.0391 Y 18.5067 Z -1.0000
G01 X 25.0377 Y 18.4983 Z -1.0000
G01 X 25.0282 Y 18.4936 Z -1.0000
G01 X 25.0337 Y 18.4851 Z -1.0000
G01 X 25.0504 Y 18.4731 Z -1.0000
G02 X 25.0643 Y 18.4471 Z -1.0000 I -0.0614 J -0.0495
G02 X 25.0653 Y 18.4209 Z -1.0000 I -0.0481 J -0.0150
G01 X 25.0558 Y 18.4097 Z -1.0000
G01 X 25.0516 Y 18.4019 Z -1.0000
G01 X 25.0940 Y 18.3629 Z -1.0000
G01 X 25.0610 Y 18.3252 Z -1.0000
G01 X 25.0555 Y 18.3224 Z -1.0000
G01 X 25.0562 Y 18.3187 Z -1.0000
G01 X 25.0633 Y 18.3105 Z -1.0000
G02 X 25.0692 Y 18.2898 Z -1.0000 I -0.0682 J -0.0307
G03 X 25.0754 Y 18.2687 Z -1.0000 I 0.0748 J 0.0103
G03 X 25.0870 Y 18.2509 Z -1.0000 I 0.0635 J 0.0290
G01 X 25.0929 Y 18.2367 Z -1.0000
G01 X 25.0881 Y 18.2293 Z -1.0000
G02 X 25.0742 Y 18.2254 Z -1.0000 I -0.0271 J 0.0700
G02 X 25.0582 Y 18.2240 Z -1.0000 I -0.0160 J 0.0899
G01 X 25.0462 Y 18.2199 Z -1.0000
G01 X 25.0420 Y 18.2114 Z -1.0000
G01 X 25.0462 Y 18.2029 Z -1.0000
G01 X 25.0589 Y 18.1987 Z -1.0000
G01 X 25.0711 Y 18.1948 Z -1.0000
G01 X 25.0737 Y 18.1884 Z -1.0000
G01 X 25.0762 Y 18.1813 Z -1.0000
G01 X 25.0906 Y 18.1751 Z -1.0000
G01 X 25.1099 Y 18.1558 Z -1.0000
G01 X 25.0960 Y 18.1396 Z -1.0000
G01 X 25.0882 Y 18.1356 Z -1.0000
G01 X 25.0872 Y 18.1272 Z -1.0000
G01 X 25.0874 Y 18.1158 Z -1.0000
G01 X 25.0787 Y 18.1015 Z -1.0000
G01 X 25.0703 Y 18.0883 Z -1.0000
G01 X 25.0718 Y 18.0822 Z -1.0000
G01 X 25.0769 Y 18.0814 Z -1.0000
G01 X 25.0819 Y 18.0868 Z -1.0000
G01 X 25.0928 Y 18.0920 Z -1.0000
G01 X 25.1060 Y 18.0784 Z -1.0000
G03 X 25.1143 Y 18.0610 Z -1.0000 I 0.0679 J 0.0215
G03 X 25.1256 Y 18.0484 Z -1.0000 I 0.0462 J 0.0301
G01 X 25.1189 Y 18.0472 Z -1.0000
G01 X 25.1069 Y 18.0471 Z -1.0000
G01 X 25.1033 Y 18.0392 Z -1.0000
G01 X 25.1019 Y 18.0260 Z -1.0000
G01 X 25.0940 Y 18.0212 Z -1.0000
G01 X 25.1011 Y 18.0105 Z -1.0000
G01 X 25.1229 Y 17.9842 Z -1.0000
G01 X 25.1128 Y 17.9707 Z -1.0000
G01 X 25.1094 Y 17.9669 Z -1.0000
G01 X 25.1143 Y 17.9583 Z -1.0000
G01 X 25.1234 Y 17.9456 Z -1.0000
G01 X 25.1361 Y 17.9285 Z -1.0000
G01 X 25.1560 Y 17.9116 Z -1.0000
G01 X 25.1213 Y 17.9167 Z -1.0000
G01 X 25.0939 Y 17.9116 Z -1.0000
G01 X 25.0811 Y 17.8940 Z -1.0000
G01 X 25.0859 Y 17.8709 Z -1.0000
G01 X 25.0959 Y 17.8727 Z -1.0000
G01 X 25.1046 Y 17.8877 Z -1.0000
G01 X 25.1134 Y 17.8895 Z -1.0000
G01 X 25.1193 Y 17.8821 Z -1.0000
G01 X 25.1173 Y 17.8634 Z -1.0000
G01 X 25.1157 Y 17.8439 Z -1.0000
G01 X 25.1241 Y 17.8306 Z -1.0000
G01 X 25.1239 Y 17.8243 Z -1.0000
G01 X 25.1074 Y 17.8190 Z -1.0000
G03 X 25.0793 Y 17.8152 Z -1.0000 I 0.0009 J -0.1108
G01 X 25.0757 Y 17.8104 Z -1.0000
G01 X 25.0790 Y 17.8058 Z -1.0000
G01 X 25.0947 Y 17.8041 Z -1.0000
G01 X 25.1085 Y 17.8014 Z -1.0000
G01 X 25.1115 Y 17.7952 Z -1.0000
G01 X 25.1142 Y 17.7869 Z -1.0000
G03 X 25.1356 Y 17.7732 Z -1.0000 I 0.0502 J 0.0549
G01 X 25.1493 Y 17.7624 Z -1.0000
G01 X 25.1476 Y 17.7567 Z -1.0000
G01 X 25.1335 Y 17.7539 Z -1.0000
G01 X 25.1255 Y 17.7560 Z -1.0000
G01 X 25.0979 Y 17.7568 Z -1.0000
G01 X 25.0842 Y 17.7338 Z -1.0000
G01 X 25.0919 Y 17.7228 Z -1.0000
G01 X 25.1062 Y 17.7260 Z -1.0000
G01 X 25.1146 Y 17.7273 Z -1.0000
G02 X 25.1390 Y 17.7091 Z -1.0000 I -0.0422 J -0.0820
G03 X 25.1679 Y 17.6902 Z -1.0000 I 0.0550 J 0.0527
G01 X 25.1740 Y 17.6964 Z -1.0000
G01 X 25.1734 Y 17.7061 Z -1.0000
G01 X 25.1773 Y 17.7091 Z -1.0000
G01 X 25.1834 Y 17.7035 Z -1.0000
G02 X 25.1803 Y 17.6800 Z -1.0000 I -0.0509 J -0.0053
G01 X 25.1717 Y 17.6725 Z -1.0000
G02 X 25.1453 Y 17.6720 Z -1.0000 I -0.0145 J 0.0635
G01 X 25.1263 Y 17.6673 Z -1.0000
G01 X 25.1214 Y 17.6532 Z -1.0000
G03 X 25.1302 Y 17.6307 Z -1.0000 I 0.0856 J 0.0204
G01 X 25.1407 Y 17.6186 Z -1.0000
G01 X 25.1463 Y 17.6070 Z -1.0000
G01 X 25.1401 Y 17.5870 Z -1.0000
G01 X 25.1326 Y 17.5656 Z -1.0000
G01 X 25.1367 Y 17.5487 Z -1.0000
G03 X 25.1485 Y 17.5339 Z -1.0000 I 0.0704 J 0.0439
G01 X 25.1537 Y 17.5317 Z -1.0000
G01 X 25.1580 Y 17.5296 Z -1.0000
G01 X 25.1601 Y 17.5233 Z -1.0000
G01 X 25.1569 Y 17.5182 Z -1.0000
G01 X 25.1423 Y 17.5149 Z -1.0000
G01 X 25.1321 Y 17.5099 Z -1.0000
G01 X 25.1308 Y 17.5001 Z -1.0000
G02 X 25.1350 Y 17.4850 Z -1.0000 I -0.0573 J -0.0241
G02 X 25.1359 Y 17.4651 Z -1.0000 I -0.0995 J -0.0145
G03 X 25.1378 Y 17.4459 Z -1.0000 I 0.0619 J -0.0035
G01 X 25.1442 Y 17.4335 Z -1.0000
G01 X 25.1479 Y 17.4221 Z -1.0000
G01 X 25.1424 Y 17.4085 Z -1.0000
G01 X 25.1391 Y 17.3959 Z -1.0000
G01 X 25.1472 Y 17.3831 Z -1.0000
G01 X 25.1831 Y 17.3754 Z -1.0000
G01 X 25.2125 Y 17.3969 Z -1.0000
G03 X 25.2225 Y 17.4226 Z -1.0000 I -0.0819 J 0.0469
G01 X 25.2216 Y 17.4362 Z -1.0000
G01 X 25.2252 Y 17.4446 Z -1.0000
G01 X 25.2299 Y 17.4368 Z -1.0000
G02 X 25.2341 Y 17.3018 Z -1.0000 I -2.1750 J -0.1349
G01 X 25.2302 Y 17.1835 Z -1.0000
G01 X 25.2217 Y 17.1968 Z -1.0000
G01 X 25.2037 Y 17.2028 Z -1.0000
G01 X 25.1811 Y 17.2031 Z -1.0000
G01 X 25.2006 Y 17.2193 Z -1.0000
G03 X 25.2156 Y 17.2381 Z -1.0000 I -0.0382 J 0.0459
G03 X 25.2252 Y 17.2676 Z -1.0000 I -0.0891 J 0.0454
G01 X 25.2229 Y 17.2865 Z -1.0000
G01 X 25.2164 Y 17.2881 Z -1.0000
G01 X 25.2047 Y 17.2851 Z -1.0000
G01 X 25.1966 Y 17.2918 Z -1.0000
G01 X 25.1956 Y 17.3047 Z -1.0000
G01 X 25.2007 Y 17.3104 Z -1.0000
G01 X 25.2078 Y 17.3158 Z -1.0000
G01 X 25.2107 Y 17.3256 Z -1.0000
G01 X 25.2136 Y 17.3347 Z -1.0000
G01 X 25.2191 Y 17.3376 Z -1.0000
G01 X 25.2244 Y 17.3407 Z -1.0000
G01 X 25.2276 Y 17.3524 Z -1.0000
G01 X 25.2210 Y 17.3603 Z -1.0000
G03 X 25.1643 Y 17.3644 Z -1.0000 I -0.0460 J -0.2427
G03 X 25.1037 Y 17.3590 Z -1.0000 I 0.0292 J -0.6791
G01 X 25.1010 Y 17.3560 Z -1.0000
G01 X 25.1034 Y 17.3518 Z -1.0000
G03 X 25.1348 Y 17.3342 Z -1.0000 I 0.1546 J 0.2394
G01 X 25.1472 Y 17.3144 Z -1.0000
G01 X 25.1347 Y 17.3036 Z -1.0000
G01 X 25.1308 Y 17.3009 Z -1.0000
G01 X 25.1326 Y 17.2945 Z -1.0000
G01 X 25.1398 Y 17.2822 Z -1.0000
G02 X 25.1432 Y 17.2600 Z -1.0000 I -0.0725 J -0.0223
G01 X 25.1521 Y 17.2444 Z -1.0000
G01 X 25.1667 Y 17.2463 Z -1.0000
G01 X 25.1769 Y 17.2451 Z -1.0000
G01 X 25.1773 Y 17.2286 Z -1.0000
G01 X 25.1653 Y 17.2153 Z -1.0000
G01 X 25.1513 Y 17.2110 Z -1.0000
G01 X 25.1467 Y 17.2013 Z -1.0000
G01 X 25.1727 Y 17.1848 Z -1.0000
G01 X 25.1974 Y 17.1632 Z -1.0000
G01 X 25.1941 Y 17.1312 Z -1.0000
G03 X 25.1841 Y 17.1066 Z -1.0000 I 0.0568 J -0.0374
G01 X 25.1871 Y 17.0948 Z -1.0000
G01 X 25.1852 Y 17.0897 Z -1.0000
G02 X 25.1517 Y 17.0893 Z -1.0000 I -0.0180 J 0.1168
G03 X 25.1150 Y 17.0900 Z -1.0000 I -0.0214 J -0.1602
G01 X 25.1128 Y 17.0856 Z -1.0000
G01 X 25.1205 Y 17.0790 Z -1.0000
G01 X 25.1354 Y 17.0759 Z -1.0000
G01 X 25.1495 Y 17.0721 Z -1.0000
G01 X 25.1569 Y 17.0633 Z -1.0000
G01 X 25.1647 Y 17.0547 Z -1.0000
G01 X 25.1815 Y 17.0506 Z -1.0000
G02 X 25.1996 Y 17.0477 Z -1.0000 I 0.0000 J -0.0564
G01 X 25.2064 Y 17.0422 Z -1.0000
G01 X 25.2056 Y 17.0372 Z -1.0000
G01 X 25.1964 Y 17.0338 Z -1.0000
G01 X 25.1865 Y 17.0284 Z -1.0000
G01 X 25.1811 Y 17.0095 Z -1.0000
G01 X 25.1872 Y 16.9940 Z -1.0000
G01 X 25.1980 Y 16.9915 Z -1.0000
G01 X 25.2097 Y 17.0019 Z -1.0000
G03 X 25.2201 Y 17.0348 Z -1.0000 I -0.0932 J 0.0477
G03 X 25.2220 Y 17.0709 Z -1.0000 I -0.1990 J 0.0283
G01 X 25.2183 Y 17.0807 Z -1.0000
G01 X 25.2106 Y 17.1129 Z -1.0000
G01 X 25.2273 Y 17.1267 Z -1.0000
G01 X 25.2365 Y 17.1189 Z -1.0000
G02 X 25.2441 Y 17.0169 Z -1.0000 I -0.6655 J -0.1013
G01 X 25.2359 Y 16.9832 Z -1.0000
G01 X 25.2276 Y 16.9858 Z -1.0000
G01 X 25.2298 Y 16.9770 Z -1.0000
G01 X 25.2359 Y 16.9705 Z -1.0000
G01 X 25.2408 Y 16.9633 Z -1.0000
G02 X 25.2443 Y 16.9215 Z -1.0000 I -0.2429 J -0.0418
G03 X 25.2481 Y 16.8408 Z -1.0000 I 0.8715 J -0.0002
G03 X 25.2750 Y 16.5906 Z -1.0000 I 8.4198 J 0.7807
G02 X 25.3016 Y 16.3260 Z -1.0000 I -5.9721 J -0.7337
G01 X 25.2963 Y 16.3181 Z -1.0000
G01 X 25.2889 Y 16.3130 Z -1.0000
G01 X 25.2865 Y 16.3066 Z -1.0000
G01 X 25.2890 Y 16.3029 Z -1.0000
G01 X 25.2947 Y 16.3034 Z -1.0000
G01 X 25.3003 Y 16.3025 Z -1.0000
G01 X 25.3069 Y 16.2891 Z -1.0000
G02 X 25.3137 Y 16.2408 Z -1.0000 I -0.3813 J -0.0786
G02 X 25.3352 Y 15.9278 Z -1.0000 I -16.5126 J -1.2900
G01 X 25.3414 Y 15.8223 Z -1.0000
G01 X 25.4300 Y 15.8238 Z -1.0000
G03 X 25.5186 Y 15.8260 Z -1.0000 I -0.0915 J 5.5044
G03 X 25.7551 Y 15.8344 Z -1.0000 I -1.3345 J 40.7765
G02 X 25.9915 Y 15.8435 Z -1.0000 I 91.0798 J -2369.9579
G02 X 26.2194 Y 15.8522 Z -1.0000 I 15.9302 J -415.2577
G03 X 26.7635 Y 15.8769 Z -1.0000 I -1.3981 J 36.7980
G03 X 27.1776 Y 15.9029 Z -1.0000 I -1.0943 J 20.7194
G03 X 27.4650 Y 15.9249 Z -1.0000 I -2.8143 J 38.6341
G03 X 27.5998 Y 15.9368 Z -1.0000 I -0.6829 J 8.5017
G02 X 27.6884 Y 15.9451 Z -1.0000 I 1.5288 J -15.8605
G02 X 27.7770 Y 15.9529 Z -1.0000 I 1.4385 J -15.8508
G03 X 27.8657 Y 15.9607 Z -1.0000 I -1.5618 J 18.1314
G03 X 28.0008 Y 15.9733 Z -1.0000 I -2.8416 J 31.2050
G02 X 28.1359 Y 15.9859 Z -1.0000 I 2.3958 J -25.0679
G02 X 28.2456 Y 15.9954 Z -1.0000 I 1.5380 J -17.0625
G03 X 28.3553 Y 16.0049 Z -1.0000 I -2.7755 J 32.8493
G03 X 28.5327 Y 16.0207 Z -1.0000 I -5.0575 J 57.5638
G02 X 28.7100 Y 16.0360 Z -1.0000 I 1.5331 J -16.7970
G02 X 28.9506 Y 16.0545 Z -1.0000 I 2.6296 J -32.6093
G03 X 29.1911 Y 16.0730 Z -1.0000 I -2.3387 J 31.9063
G03 X 29.3685 Y 16.0883 Z -1.0000 I -1.3919 J 17.2090
G02 X 29.5458 Y 16.1041 Z -1.0000 I 3.9902 J -43.7177
G02 X 29.6006 Y 16.1085 Z -1.0000 I 0.3529 J -4.0474
G03 X 29.6555 Y 16.1130 Z -1.0000 I -0.2124 J 2.9140
G03 X 29.8412 Y 16.1306 Z -1.0000 I -3.3403 J 36.3655
G02 X 30.0837 Y 16.1410 Z -1.0000 I 0.2190 J -2.2576
G01 X 30.1122 Y 16.1278 Z -1.0000
G02 X 30.1289 Y 16.1029 Z -1.0000 I -0.0932 J -0.0802
G01 X 30.1325 Y 16.0875 Z -1.0000
G01 X 30.1352 Y 16.0716 Z -1.0000
G03 X 30.1449 Y 16.0518 Z -1.0000 I 0.0854 J 0.0298
G01 X 30.1511 Y 16.0313 Z -1.0000
G02 X 30.1450 Y 15.9107 Z -1.0000 I -1.1908 J -0.0007
G02 X 30.1314 Y 15.7887 Z -1.0000 I -6.0142 J 0.6088
G02 X 30.1240 Y 15.7379 Z -1.0000 I -1.0541 J 0.1284
G03 X 30.0799 Y 15.4421 Z -1.0000 I 6.6322 J -1.1406
G03 X 30.0734 Y 15.3397 Z -1.0000 I 0.8095 J -0.1024
G01 X 30.0792 Y 15.3336 Z -1.0000
G03 X 30.2486 Y 15.3311 Z -1.0000 I 0.1223 J 2.5032
G03 X 30.4235 Y 15.3369 Z -1.0000 I -0.1106 J 5.9180
G03 X 30.4508 Y 15.3408 Z -1.0000 I -0.0073 J 0.1512
G01 X 30.4725 Y 15.3383 Z -1.0000
G01 X 30.4835 Y 15.3247 Z -1.0000
G01 X 30.4795 Y 15.3047 Z -1.0000
G01 X 30.4692 Y 15.3053 Z -1.0000
G01 X 30.4585 Y 15.3158 Z -1.0000
G01 X 30.4424 Y 15.3198 Z -1.0000
G01 X 30.4238 Y 15.3196 Z -1.0000
G01 X 30.4413 Y 15.3050 Z -1.0000
G02 X 30.4620 Y 15.2684 Z -1.0000 I -0.0377 J -0.0454
G02 X 30.4826 Y 15.0287 Z -1.0000 I -1.9036 J -0.2839
G03 X 30.4973 Y 14.4235 Z -1.0000 I 215.6134 J 4.9643
G03 X 30.4996 Y 14.3702 Z -1.0000 I 1.6710 J 0.0432
G02 X 30.5019 Y 14.3195 Z -1.0000 I -2.0708 J -0.1189
G02 X 30.5074 Y 14.1338 Z -1.0000 I -28.6433 J -0.9429
G03 X 30.5253 Y 13.5822 Z -1.0000 I 45.4092 J 1.2001
G03 X 30.5297 Y 13.5562 Z -1.0000 I 0.1032 J 0.0040
G01 X 30.5370 Y 13.6252 Z -1.0000
G02 X 30.5432 Y 13.7103 Z -1.0000 I 0.6551 J -0.0052
G01 X 30.5497 Y 13.7159 Z -1.0000
G01 X 30.5745 Y 13.7047 Z -1.0000
G01 X 30.5836 Y 13.6776 Z -1.0000
G03 X 30.5847 Y 13.6502 Z -1.0000 I 0.1127 J -0.0092
G01 X 30.5890 Y 13.6437 Z -1.0000
G01 X 30.5940 Y 13.6440 Z -1.0000
G01 X 30.5970 Y 13.6500 Z -1.0000
G01 X 30.6034 Y 13.6514 Z -1.0000
G02 X 30.6358 Y 13.5682 Z -1.0000 I -0.5696 J -0.2698
G03 X 30.6549 Y 13.5094 Z -1.0000 I 2.2009 J 0.6826
G03 X 30.6845 Y 13.4248 Z -1.0000 I 4.5922 J 1.5606
G02 X 30.7645 Y 13.1691 Z -1.0000 I -2.9376 J -1.0598
G02 X 30.7630 Y 13.1304 Z -1.0000 I -0.0631 J -0.0168
G01 X 30.7488 Y 13.1587 Z -1.0000
G03 X 30.7374 Y 13.1965 Z -1.0000 I -1.0800 J -0.3050
G03 X 30.7223 Y 13.2414 Z -1.0000 I -1.5318 J -0.4914
G02 X 30.7084 Y 13.2864 Z -1.0000 I 0.5327 J 0.1888
G02 X 30.7065 Y 13.3013 Z -1.0000 I 0.0567 J 0.0149
G01 X 30.7031 Y 13.3150 Z -1.0000
G03 X 30.6907 Y 13.3309 Z -1.0000 I -0.0516 J -0.0276
G01 X 30.6790 Y 13.3474 Z -1.0000
G02 X 30.6702 Y 13.3800 Z -1.0000 I 0.1197 J 0.0499
G03 X 30.6614 Y 13.4121 Z -1.0000 I -0.1244 J -0.0169
G01 X 30.6522 Y 13.4223 Z -1.0000
G01 X 30.6434 Y 13.4323 Z -1.0000
G02 X 30.6390 Y 13.4555 Z -1.0000 I 0.0576 J 0.0232
G03 X 30.6334 Y 13.4788 Z -1.0000 I -0.0523 J -0.0000
G03 X 30.6149 Y 13.5037 Z -1.0000 I -0.0785 J -0.0392
G02 X 30.5799 Y 13.5598 Z -1.0000 I 0.0874 J 0.0936
G01 X 30.5897 Y 13.5860 Z -1.0000
G01 X 30.5990 Y 13.6049 Z -1.0000
G01 X 30.5868 Y 13.6127 Z -1.0000
G01 X 30.5801 Y 13.6069 Z -1.0000
G03 X 30.5749 Y 13.5888 Z -1.0000 I 0.0464 J -0.0231
G03 X 30.5694 Y 13.5018 Z -1.0000 I 1.3697 J -0.1313
G03 X 30.5716 Y 13.4838 Z -1.0000 I 0.0581 J -0.0019
G01 X 30.5718 Y 13.4755 Z -1.0000
G02 X 30.5642 Y 13.4516 Z -1.0000 I -0.1460 J 0.0332
G03 X 30.5591 Y 13.4165 Z -1.0000 I 0.0669 J -0.0276
G01 X 30.5704 Y 13.3915 Z -1.0000
G02 X 30.5990 Y 13.3523 Z -1.0000 I -0.1593 J -0.1462
G02 X 30.6813 Y 13.1967 Z -1.0000 I -2.4731 J -1.4081
G03 X 30.6947 Y 13.1722 Z -1.0000 I 0.2727 J 0.1331
G01 X 30.6992 Y 13.1672 Z -1.0000
G02 X 30.7430 Y 13.1078 Z -1.0000 I -0.0806 J -0.1052
G02 X 30.9974 Y 12.3567 Z -1.0000 I -14.3674 J -5.2855
G02 X 31.1091 Y 11.9654 Z -1.0000 I -8.6144 J -2.6714
G02 X 31.1706 Y 11.6940 Z -1.0000 I -4.0809 J -1.0663
G03 X 31.1813 Y 11.6436 Z -1.0000 I 1.1645 J 0.2215
G03 X 31.1914 Y 11.6053 Z -1.0000 I 0.7332 J 0.1728
G02 X 31.2011 Y 11.5670 Z -1.0000 I -0.5399 J -0.1576
G02 X 31.2124 Y 11.5082 Z -1.0000 I -1.2627 J -0.2740
G03 X 31.2232 Y 11.4493 Z -1.0000 I 2.2909 J 0.3877
G03 X 31.2443 Y 11.3457 Z -1.0000 I 6.8118 J 1.3343
G03 X 31.2702 Y 11.2540 Z -1.0000 I 0.6954 J 0.1472
G01 X 31.2778 Y 11.2520 Z -1.0000
G01 X 31.2892 Y 11.2574 Z -1.0000
G01 X 31.2954 Y 11.2556 Z -1.0000
G01 X 31.2961 Y 11.2503 Z -1.0000
G01 X 31.2868 Y 11.2413 Z -1.0000
G01 X 31.2730 Y 11.2182 Z -1.0000
G03 X 31.2850 Y 11.1452 Z -1.0000 I 0.2039 J -0.0038
G02 X 31.2941 Y 11.1109 Z -1.0000 I -0.1940 J -0.0700
G02 X 31.2976 Y 11.0735 Z -1.0000 I -0.2297 J -0.0403
G03 X 31.3002 Y 11.0357 Z -1.0000 I 0.3345 J 0.0041
G03 X 31.3104 Y 10.9722 Z -1.0000 I 0.9469 J 0.1194
G02 X 31.3218 Y 10.9087 Z -1.0000 I -1.9627 J -0.3832
G02 X 31.3323 Y 10.8371 Z -1.0000 I -2.5674 J -0.4158
G03 X 31.3458 Y 10.7666 Z -1.0000 I 0.6403 J 0.0860
G03 X 31.3577 Y 10.7359 Z -1.0000 I 0.1297 J 0.0324
G02 X 31.3677 Y 10.7050 Z -1.0000 I -0.0813 J -0.0435
G02 X 31.3740 Y 10.6177 Z -1.0000 I -0.6633 J -0.0917
G03 X 31.3774 Y 10.5295 Z -1.0000 I 1.3759 J 0.0092
G03 X 31.3815 Y 10.5120 Z -1.0000 I 0.0565 J 0.0040
G01 X 31.3883 Y 10.5094 Z -1.0000
G01 X 31.3982 Y 10.5201 Z -1.0000
G03 X 31.4149 Y 10.5914 Z -1.0000 I -0.2354 J 0.0927
G03 X 31.4164 Y 10.7337 Z -1.0000 I -0.9535 J 0.0810
G02 X 31.4221 Y 10.7853 Z -1.0000 I 0.1493 J 0.0096
G01 X 31.4316 Y 10.7855 Z -1.0000
G01 X 31.4439 Y 10.7661 Z -1.0000
G01 X 31.4535 Y 10.7641 Z -1.0000
G01 X 31.4610 Y 10.7596 Z -1.0000
G02 X 31.4572 Y 10.7300 Z -1.0000 I -0.0632 J -0.0068
G03 X 31.4500 Y 10.7058 Z -1.0000 I 0.1559 J -0.0596
G03 X 31.4360 Y 10.6324 Z -1.0000 I 1.3973 J -0.3030
G02 X 31.4212 Y 10.5593 Z -1.0000 I -0.9366 J 0.1521
G02 X 31.4072 Y 10.5142 Z -1.0000 I -0.3709 J 0.0906
G03 X 31.3935 Y 10.4693 Z -1.0000 I 0.3175 J -0.1212
G03 X 31.3903 Y 10.4413 Z -1.0000 I 0.1216 J -0.0280
G03 X 31.3944 Y 10.3855 Z -1.0000 I 0.3850 J -0.0001
G03 X 31.4368 Y 10.1237 Z -1.0000 I 8.5551 J 1.2515
G03 X 31.5124 Y 9.7307 Z -1.0000 I 13.9590 J 2.4811
G01 X 31.5187 Y 9.7280 Z -1.0000
G01 X 31.5300 Y 9.7492 Z -1.0000
G03 X 31.4873 Y 10.5121 Z -1.0000 I -24.0298 J -0.9619
G02 X 31.4760 Y 10.6810 Z -1.0000 I 16.2080 J 1.1693
G02 X 31.4703 Y 10.7865 Z -1.0000 I 6.7442 J 0.4160
G01 X 31.4655 Y 10.8920 Z -1.0000
G01 X 31.4110 Y 10.9784 Z -1.0000
G02 X 31.3610 Y 11.0661 Z -1.0000 I 0.9891 J 0.6232
G01 X 31.3567 Y 11.0840 Z -1.0000
G01 X 31.3617 Y 11.0860 Z -1.0000
G02 X 31.3918 Y 11.0482 Z -1.0000 I -0.1649 J -0.1622
G02 X 31.5010 Y 10.8679 Z -1.0000 I -3.6765 J -2.3493
G02 X 31.5166 Y 10.8303 Z -1.0000 I -0.1411 J -0.0808
G03 X 31.5495 Y 10.7721 Z -1.0000 I 0.1328 J 0.0367
G01 X 31.5733 Y 10.7707 Z -1.0000
G01 X 31.5819 Y 10.7813 Z -1.0000
G01 X 31.5845 Y 10.7917 Z -1.0000
G01 X 31.5874 Y 10.8005 Z -1.0000
G01 X 31.5929 Y 10.8033 Z -1.0000
G01 X 31.5982 Y 10.8002 Z -1.0000
G01 X 31.6013 Y 10.7874 Z -1.0000
G01 X 31.5833 Y 10.7557 Z -1.0000
G02 X 31.5337 Y 10.7472 Z -1.0000 I -0.0359 J 0.0604
G01 X 31.5102 Y 10.7519 Z -1.0000
G01 X 31.5130 Y 10.6827 Z -1.0000
G02 X 31.5158 Y 10.6134 Z -1.0000 I -23.6980 J -0.9952
G03 X 31.5210 Y 10.4825 Z -1.0000 I 106.8612 J 4.1747
G03 X 31.5393 Y 10.1223 Z -1.0000 I 15.1867 J 0.5918
G03 X 31.5506 Y 10.0098 Z -1.0000 I 1.5209 J 0.0955
G02 X 31.5568 Y 9.9547 Z -1.0000 I -1.0435 J -0.1452
G02 X 31.5717 Y 9.7649 Z -1.0000 I -13.0563 J -1.1219
G03 X 31.5941 Y 9.5346 Z -1.0000 I 4.4481 J 0.3173
G03 X 31.6054 Y 9.4927 Z -1.0000 I 0.1563 J 0.0193
G01 X 31.6044 Y 9.4826 Z -1.0000
G01 X 31.5955 Y 9.4779 Z -1.0000
G01 X 31.5805 Y 9.4751 Z -1.0000
G01 X 31.5692 Y 9.4677 Z -1.0000
G01 X 31.5606 Y 9.4429 Z -1.0000
G03 X 31.6111 Y 9.1148 Z -1.0000 I 4.7756 J 0.5665
G02 X 31.6250 Y 8.9473 Z -1.0000 I -0.7935 J -0.1502
G01 X 31.6070 Y 8.9229 Z -1.0000
G02 X 31.5433 Y 8.9213 Z -1.0000 I -0.0346 J 0.1044
G02 X 31.4336 Y 8.9705 Z -1.0000 I 0.1037 J 0.3780
G03 X 31.3184 Y 9.0361 Z -1.0000 I -0.6215 J -0.9572
G01 X 31.3074 Y 9.0330 Z -1.0000
G01 X 31.3045 Y 9.0229 Z -1.0000
G03 X 31.3073 Y 8.9025 Z -1.0000 I 2.5967 J -0.0005
G02 X 31.3117 Y 8.7819 Z -1.0000 I -6.1625 J -0.2868
G01 X 31.3106 Y 8.7791 Z -1.0000
G01 X 31.3079 Y 8.7783 Z -1.0000
G02 X 31.2940 Y 8.7822 Z -1.0000 I 0.0151 J 0.0796
G01 X 31.2732 Y 8.8061 Z -1.0000
G02 X 31.2510 Y 8.9653 Z -1.0000 I 0.8491 J 0.1994
G01 X 31.2449 Y 9.0986 Z -1.0000
G01 X 31.2066 Y 9.1300 Z -1.0000
G02 X 31.0486 Y 9.2692 Z -1.0000 I 1.7641 J 2.1604
G02 X 30.9115 Y 9.4106 Z -1.0000 I 1.6797 J 1.7662
G02 X 30.7351 Y 9.6514 Z -1.0000 I 1.1415 J 1.0209
G02 X 30.6942 Y 9.7776 Z -1.0000 I 0.2602 J 0.1540
G02 X 30.6410 Y 10.5898 Z -1.0000 I 15.1308 J 1.3998
G02 X 30.6232 Y 11.6138 Z -1.0000 I 24.0332 J 0.9300
G03 X 30.6201 Y 12.2960 Z -1.0000 I -40.2893 J 0.1605
G03 X 30.6095 Y 12.6813 Z -1.0000 I -13.0999 J -0.1696
G02 X 30.6106 Y 12.7698 Z -1.0000 I 0.8020 J 0.0339
G01 X 30.6157 Y 12.7716 Z -1.0000
G01 X 30.6217 Y 12.7594 Z -1.0000
G02 X 30.6241 Y 12.7067 Z -1.0000 I -0.3079 J -0.0402
G03 X 30.6275 Y 12.6576 Z -1.0000 I 0.2283 J -0.0087
G01 X 30.6339 Y 12.6523 Z -1.0000
G01 X 30.6399 Y 12.6577 Z -1.0000
G03 X 30.6418 Y 12.7219 Z -1.0000 I -0.3764 J 0.0428
G03 X 30.6277 Y 12.8188 Z -1.0000 I -0.5608 J -0.0318
G01 X 30.6177 Y 12.8241 Z -1.0000
G01 X 30.6097 Y 12.8288 Z -1.0000
G02 X 30.6010 Y 12.9393 Z -1.0000 I 0.8470 J 0.1228
G03 X 30.5948 Y 13.0356 Z -1.0000 I -0.9697 J -0.0140
G03 X 30.5847 Y 13.0807 Z -1.0000 I -0.2204 J -0.0252
G03 X 30.5631 Y 13.1107 Z -1.0000 I -0.0586 J -0.0196
G01 X 30.5508 Y 13.1060 Z -1.0000
G03 X 30.5448 Y 13.0531 Z -1.0000 I 0.2839 J -0.0589
G03 X 30.5326 Y 12.2132 Z -1.0000 I 70.5684 J -1.4477
G02 X 30.5161 Y 11.8260 Z -1.0000 I -5.7696 J 0.0507
G01 X 30.5009 Y 11.7986 Z -1.0000
G01 X 30.4984 Y 11.7925 Z -1.0000
G01 X 30.5045 Y 11.7762 Z -1.0000
G01 X 30.5099 Y 11.7575 Z -1.0000
G02 X 30.5051 Y 11.2453 Z -1.0000 I -24.6088 J -0.0282
G02 X 30.4781 Y 10.1616 Z -1.0000 I -102.9093 J 2.0265
G02 X 30.4619 Y 9.8156 Z -1.0000 I -10.4886 J 0.3171
G03 X 30.4443 Y 9.5143 Z -1.0000 I 31.7367 J -2.0087
G03 X 30.4194 Y 9.0262 Z -1.0000 I 82.9745 J -4.4616
G02 X 30.4114 Y 8.8573 Z -1.0000 I -171.0406 J 8.1032
G02 X 30.4063 Y 8.7518 Z -1.0000 I -2274.0736 J 110.1066
G03 X 30.4034 Y 8.6462 Z -1.0000 I 2.4377 J -0.1176
G03 X 30.4030 Y 8.0764 Z -1.0000 I 70.2021 J -0.3458
G02 X 30.4044 Y 7.5065 Z -1.0000 I -430.8459 J -1.3746
G02 X 30.4063 Y 6.2950 Z -1.0000 I -1815.8051 J -3.3914
G03 X 30.4118 Y 5.0836 Z -1.0000 I 178.8136 J 0.2199
G03 X 30.4177 Y 4.8598 Z -1.0000 I 6.1505 J 0.0492
G02 X 30.4275 Y 4.6361 Z -1.0000 I -94.9311 J -4.2432
G02 X 30.4362 Y 4.4250 Z -1.0000 I -96.3943 J -4.0810
G03 X 30.4448 Y 4.2140 Z -1.0000 I 159.1448 J 6.4434
G03 X 30.4528 Y 4.0282 Z -1.0000 I 83.2729 J 3.4822
G02 X 30.4608 Y 3.8425 Z -1.0000 I -113.0093 J -4.9782
G02 X 30.4655 Y 3.7285 Z -1.0000 I -40.1711 J -1.7034
G03 X 30.4702 Y 3.6146 Z -1.0000 I 45.3222 J 1.8074
G03 X 30.4747 Y 3.5132 Z -1.0000 I 23.8093 J 1.0095
G02 X 30.4967 Y 2.7430 Z -1.0000 I -22.3993 J -1.0243
G02 X 30.4902 Y 2.1413 Z -1.0000 I -13.5645 J -0.1537
G02 X 30.4722 Y 1.7271 Z -1.0000 I -20.2704 J 0.6696
G02 X 30.4650 Y 1.6703 Z -1.0000 I -0.3869 J 0.0207
G01 X 30.4555 Y 1.6590 Z -1.0000
G01 X 30.4296 Y 1.6564 Z -1.0000
G02 X 30.3986 Y 1.6632 Z -1.0000 I 0.0514 J 0.3065
G02 X 30.3360 Y 1.6820 Z -1.0000 I 0.3694 J 1.3421
G03 X 30.2735 Y 1.7003 Z -1.0000 I -0.3208 J -0.9818
G03 X 30.2574 Y 1.7023 Z -1.0000 I -0.0162 J -0.0626
G02 X 30.2413 Y 1.7043 Z -1.0000 I 0.0000 J 0.0648
G02 X 30.2260 Y 1.7102 Z -1.0000 I 0.0173 J 0.0677
G03 X 30.2105 Y 1.7161 Z -1.0000 I -0.0304 J -0.0566
G03 X 30.1743 Y 1.7226 Z -1.0000 I -0.0766 J -0.3227
G02 X 30.1377 Y 1.7283 Z -1.0000 I 0.0618 J 0.5222
G02 X 30.0821 Y 1.7401 Z -1.0000 I 0.2462 J 1.2917
G03 X 29.8483 Y 1.7906 Z -1.0000 I -1.4516 J -6.1584
G03 X 29.8012 Y 1.7952 Z -1.0000 I -0.0475 J -0.2424
G02 X 29.7742 Y 1.7985 Z -1.0000 I 0.0002 J 0.1151
G02 X 29.7493 Y 1.8079 Z -1.0000 I 0.0259 J 0.1066
G03 X 29.7246 Y 1.8185 Z -1.0000 I -0.0858 J -0.1653
G01 X 29.7128 Y 1.8205 Z -1.0000
G02 X 29.6956 Y 1.8224 Z -1.0000 I 0.0000 J 0.0784
G02 X 29.4695 Y 1.8751 Z -1.0000 I 3.1010 J 13.8159
G03 X 29.3575 Y 1.8990 Z -1.0000 I -0.5062 J -2.0943
G03 X 29.2627 Y 1.9136 Z -1.0000 I -0.2763 J -1.4844
G02 X 29.1856 Y 1.9269 Z -1.0000 I 0.0911 J 0.7542
G02 X 28.9292 Y 1.9893 Z -1.0000 I 1.9226 J 8.4660
G03 X 28.7263 Y 2.0406 Z -1.0000 I -4.4223 J -17.0529
G03 X 28.6886 Y 2.0486 Z -1.0000 I -0.1437 J -0.5827
G02 X 28.6509 Y 2.0564 Z -1.0000 I 0.1533 J 0.8429
G02 X 28.6379 Y 2.0604 Z -1.0000 I 0.0202 J 0.0883
G03 X 28.5685 Y 2.0819 Z -1.0000 I -0.1818 J -0.4646
G03 X 28.4564 Y 2.1026 Z -1.0000 I -0.2880 J -1.2451
G02 X 28.4110 Y 2.1102 Z -1.0000 I 0.1120 J 0.8085
G02 X 28.3044 Y 2.1324 Z -1.0000 I 0.8864 J 4.5096
G03 X 28.2706 Y 2.1396 Z -1.0000 I -0.4031 J -1.8260
G03 X 28.1989 Y 2.1537 Z -1.0000 I -1.5479 J -7.6828
G03 X 28.1271 Y 2.1675 Z -1.0000 I -27.5324 J -142.9899
G02 X 28.0892 Y 2.1748 Z -1.0000 I 5.6669 J 29.5105
G03 X 28.0511 Y 2.1819 Z -1.0000 I -0.9288 J -4.8509
G03 X 27.9710 Y 2.1964 Z -1.0000 I -2.7951 J -15.2428
G02 X 27.8912 Y 2.2123 Z -1.0000 I 0.3232 J 1.8276
G02 X 27.8701 Y 2.2187 Z -1.0000 I 0.0310 J 0.1394
G03 X 27.8489 Y 2.2242 Z -1.0000 I -0.0316 J -0.0798
G03 X 27.7716 Y 2.2309 Z -1.0000 I -0.1359 J -1.1139
G02 X 27.6938 Y 2.2366 Z -1.0000 I 0.0883 J 1.7196
G02 X 27.6065 Y 2.2469 Z -1.0000 I 0.2140 J 2.2087
G03 X 27.5192 Y 2.2574 Z -1.0000 I -0.3675 J -2.6695
G03 X 27.4518 Y 2.2631 Z -1.0000 I -0.1762 J -1.6851
G02 X 27.3843 Y 2.2687 Z -1.0000 I 0.1181 J 1.8288
G02 X 27.3251 Y 2.2760 Z -1.0000 I 0.1454 J 1.4287
G03 X 27.1248 Y 2.3023 Z -1.0000 I -1.1121 J -7.6852
G03 X 26.9960 Y 2.3149 Z -1.0000 I -0.3747 J -3.1687
G02 X 26.9537 Y 2.3187 Z -1.0000 I 0.1379 J 1.7834
G02 X 26.8819 Y 2.3264 Z -1.0000 I 0.5453 J 5.3848
G03 X 26.8101 Y 2.3342 Z -1.0000 I -0.7274 J -6.3803
G03 X 26.7510 Y 2.3398 Z -1.0000 I -0.3773 J -3.6766
G02 X 26.6922 Y 2.3468 Z -1.0000 I 0.0800 J 0.9286
G02 X 26.6286 Y 2.3582 Z -1.0000 I 0.1669 J 1.1082
G03 X 26.5649 Y 2.3680 Z -1.0000 I -0.1206 J -0.5753
G03 X 26.4766 Y 2.3730 Z -1.0000 I -0.1057 J -1.0878
G02 X 26.3881 Y 2.3761 Z -1.0000 I 0.0367 J 2.2832
G02 X 26.2656 Y 2.3846 Z -1.0000 I 0.2373 J 4.3191
G03 X 26.1432 Y 2.3947 Z -1.0000 I -7.0648 J -84.9415
G03 X 25.9363 Y 2.4115 Z -1.0000 I -16.5604 J -202.6438
G02 X 25.7295 Y 2.4286 Z -1.0000 I 4.0663 J 50.2822
G02 X 25.6408 Y 2.4366 Z -1.0000 I 0.7196 J 8.4641
G03 X 25.5521 Y 2.4438 Z -1.0000 I -0.2707 J -2.8086
G03 X 25.4467 Y 2.4492 Z -1.0000 I -0.2694 J -4.1680
G02 X 25.3412 Y 2.4544 Z -1.0000 I 0.2293 J 5.7854
G02 X 25.2314 Y 2.4618 Z -1.0000 I 0.3286 J 5.6743
G03 X 24.8742 Y 2.4859 Z -1.0000 I -1.4874 J -19.3754
G03 X 24.7122 Y 2.4921 Z -1.0000 I -0.2311 J -3.9667
G02 X 24.2455 Y 2.5039 Z -1.0000 I 0.5151 J 29.5558
G01 X 24.2317 Y 2.5080 Z -1.0000
G01 X 24.2260 Y 2.5098 Z -1.0000
G03 X 23.9775 Y 2.5162 Z -1.0000 I -0.6373 J -19.7114
G02 X 23.7286 Y 2.5220 Z -1.0000 I 0.9621 J 47.0464
G02 X 23.6400 Y 2.5250 Z -1.0000 I 0.1319 J 5.1251
G03 X 23.3365 Y 2.5371 Z -1.0000 I -2.0051 J -46.6565
G03 X 23.1418 Y 2.5431 Z -1.0000 I -0.6520 J -17.8815
G03 X 22.6465 Y 2.5547 Z -1.0000 I -2.9186 J -114.1490
G03 X 22.4636 Y 2.5575 Z -1.0000 I -0.3280 J -15.4530
G03 X 22.2969 Y 2.5572 Z -1.0000 I -0.0700 J -7.4220
G01 X 22.2924 Y 2.5553 Z -1.0000
G01 X 22.2635 Y 2.5432 Z -1.0000
G02 X 21.3985 Y 2.5461 Z -1.0000 I -0.3255 J 31.6006
G03 X 21.3190 Y 2.5459 Z -1.0000 I -0.0349 J -2.0501
G03 X 20.8254 Y 2.5337 Z -1.0000 I 1.7196 J -79.2222
G03 X 20.6665 Y 2.5274 Z -1.0000 I 0.2019 J -7.0808
G01 X 20.6592 Y 2.5251 Z -1.0000
G01 X 20.6519 Y 2.5228 Z -1.0000
G02 X 20.4682 Y 2.5168 Z -1.0000 I -0.3881 J 8.9996
G03 X 20.2844 Y 2.5097 Z -1.0000 I 0.1194 J -5.5001
G03 X 20.2513 Y 2.5049 Z -1.0000 I 0.0104 J -0.1883
G02 X 20.2187 Y 2.5010 Z -1.0000 I -0.0333 J 0.1395
G02 X 20.1988 Y 2.5046 Z -1.0000 I -0.0003 J 0.0556
G01 X 20.1806 Y 2.5077 Z -1.0000
G01 X 20.1741 Y 2.5040 Z -1.0000
G01 X 20.1670 Y 2.4994 Z -1.0000
G02 X 20.1126 Y 2.4958 Z -1.0000 I -0.0544 J 0.4168
G03 X 20.0562 Y 2.4943 Z -1.0000 I 0.0001 J -1.0011
G03 X 19.9675 Y 2.4876 Z -1.0000 I 0.1415 J -2.5005
G02 X 19.8524 Y 2.4803 Z -1.0000 I -0.1833 J 1.9761
G02 X 19.7395 Y 2.4798 Z -1.0000 I -0.0665 J 1.9319
G03 X 19.6678 Y 2.4795 Z -1.0000 I -0.0320 J -1.3201
G03 X 19.5875 Y 2.4752 Z -1.0000 I 0.0493 J -1.6370
G02 X 19.5073 Y 2.4693 Z -1.0000 I -0.5301 J 6.6809
G02 X 19.4651 Y 2.4668 Z -1.0000 I -0.1430 J 2.1257
G03 X 19.4233 Y 2.4632 Z -1.0000 I 0.0256 J -0.5411
G03 X 19.4103 Y 2.4600 Z -1.0000 I 0.0069 J -0.0546
G02 X 19.3972 Y 2.4563 Z -1.0000 I -0.0261 J 0.0677
G02 X 19.3300 Y 2.4453 Z -1.0000 I -0.3319 J 1.8129
G03 X 19.2626 Y 2.4349 Z -1.0000 I 0.6045 J -4.1589
G03 X 19.1992 Y 2.4241 Z -1.0000 I 0.6265 J -3.8675
G02 X 19.1358 Y 2.4135 Z -1.0000 I -0.5036 J 2.8283
G02 X 19.0852 Y 2.4065 Z -1.0000 I -0.2523 J 1.6273
G03 X 19.0161 Y 2.3972 Z -1.0000 I 0.3871 J -3.1278
G03 X 18.9206 Y 2.3824 Z -1.0000 I 0.8829 J -6.0344
G02 X 18.8488 Y 2.3711 Z -1.0000 I -1.2384 J 7.6375
G02 X 18.7053 Y 2.3496 Z -1.0000 I -4.1093 J 26.9427
G03 X 18.5618 Y 2.3284 Z -1.0000 I 12.6254 J -85.9179
G03 X 18.5280 Y 2.3233 Z -1.0000 I 0.7409 J -4.9839
G02 X 18.4942 Y 2.3181 Z -1.0000 I -1.5855 J 10.1527
G02 X 18.4436 Y 2.3103 Z -1.0000 I -8.5076 J 55.6921
G03 X 18.3929 Y 2.3026 Z -1.0000 I 3.1769 J -21.0737
G03 X 18.3001 Y 2.2884 Z -1.0000 I 29.8253 J -194.6661
G02 X 18.2070 Y 2.2762 Z -1.0000 I -0.3113 J 2.0127
G02 X 18.1587 Y 2.2731 Z -1.0000 I -0.0604 J 0.5604
G03 X 18.1126 Y 2.2696 Z -1.0000 I 0.0093 J -0.4308
G01 X 18.1101 Y 2.2668 Z -1.0000
G01 X 18.1037 Y 2.2597 Z -1.0000
G02 X 17.9146 Y 2.2480 Z -1.0000 I -0.2645 J 2.7424
G03 X 17.8680 Y 2.2442 Z -1.0000 I 0.0116 J -0.4221
G01 X 17.8605 Y 2.2404 Z -1.0000
G01 X 17.8540 Y 2.2384 Z -1.0000
G01 X 17.8427 Y 2.2436 Z -1.0000
G01 X 17.8299 Y 2.2478 Z -1.0000
G03 X 17.7111 Y 2.2345 Z -1.0000 I 0.0976 J -1.4117
G03 X 17.5911 Y 2.2147 Z -1.0000 I 0.9070 J -5.8735
G03 X 17.5604 Y 2.2081 Z -1.0000 I 0.0691 J -0.3940
G02 X 17.5296 Y 2.2020 Z -1.0000 I -0.0714 J 0.2788
G02 X 17.5044 Y 2.2002 Z -1.0000 I -0.0252 J 0.1765
G03 X 17.4795 Y 2.1976 Z -1.0000 I 0.0000 J -0.1234
G03 X 17.4432 Y 2.1875 Z -1.0000 I 0.0565 J -0.2733
G02 X 17.4069 Y 2.1772 Z -1.0000 I -0.0981 J 0.2767
G02 X 17.3847 Y 2.1749 Z -1.0000 I -0.0222 J 0.1029
G03 X 17.3633 Y 2.1721 Z -1.0000 I 0.0000 J -0.0846
G01 X 17.3540 Y 2.1668 Z -1.0000
G01 X 17.3444 Y 2.1617 Z -1.0000
G02 X 17.2784 Y 2.1532 Z -1.0000 I -0.1227 J 0.6845
G03 X 17.2118 Y 2.1444 Z -1.0000 I 0.0552 J -0.6823
G03 X 17.1822 Y 2.1358 Z -1.0000 I 0.0259 J -0.1434
G02 X 17.1530 Y 2.1282 Z -1.0000 I -0.0430 J 0.1049
G02 X 17.1265 Y 2.1290 Z -1.0000 I -0.0106 J 0.0863
G03 X 17.0996 Y 2.1300 Z -1.0000 I -0.0170 J -0.0902
G03 X 17.0436 Y 2.1200 Z -1.0000 I 0.0434 J -0.4022
G02 X 16.9882 Y 2.1088 Z -1.0000 I -0.1495 J 0.5965
G01 X 16.9808 Y 2.1103 Z -1.0000
G01 X 16.9738 Y 2.1117 Z -1.0000
G01 X 16.9620 Y 2.1073 Z -1.0000
G01 X 16.9501 Y 2.1041 Z -1.0000
G01 X 16.9348 Y 2.1082 Z -1.0000
G01 X 16.9219 Y 2.1099 Z -1.0000
G01 X 16.9145 Y 2.1034 Z -1.0000
G01 X 16.9060 Y 2.0955 Z -1.0000
G02 X 16.8703 Y 2.0903 Z -1.0000 I -0.0359 J 0.1208
G03 X 16.8312 Y 2.0884 Z -1.0000 I 0.0005 J -0.4046
G03 X 16.7804 Y 2.0815 Z -1.0000 I 0.0689 J -0.7019
G02 X 16.7297 Y 2.0732 Z -1.0000 I -0.5214 J 3.0265
G02 X 16.6707 Y 2.0645 Z -1.0000 I -0.6444 J 4.1548
G03 X 16.6116 Y 2.0557 Z -1.0000 I 0.5881 J -4.1551
G03 X 16.5905 Y 2.0519 Z -1.0000 I 0.0764 J -0.4897
G02 X 16.5693 Y 2.0481 Z -1.0000 I -0.1408 J 0.7106
G02 X 16.5229 Y 2.0408 Z -1.0000 I -0.4095 J 2.4461
G03 X 16.4770 Y 2.0319 Z -1.0000 I 0.0793 J -0.5327
G03 X 16.4522 Y 2.0239 Z -1.0000 I 0.0396 J -0.1660
G02 X 16.4277 Y 2.0173 Z -1.0000 I -0.0374 J 0.0909
G01 X 16.4132 Y 2.0186 Z -1.0000
G01 X 16.3985 Y 2.0201 Z -1.0000
G03 X 16.3762 Y 2.0148 Z -1.0000 I 0.0095 J -0.0900
G02 X 16.3533 Y 2.0085 Z -1.0000 I -0.0431 J 0.1126
G02 X 16.3012 Y 2.0020 Z -1.0000 I -0.1012 J 0.5952
G03 X 16.2489 Y 1.9954 Z -1.0000 I 0.0505 J -0.6088
G03 X 16.2021 Y 1.9850 Z -1.0000 I 0.0834 J -0.4889
G02 X 16.1554 Y 1.9747 Z -1.0000 I -0.1283 J 0.4680
G02 X 16.1277 Y 1.9723 Z -1.0000 I -0.0282 J 0.1656
G03 X 16.1003 Y 1.9698 Z -1.0000 I 0.0006 J -0.1570
G03 X 16.0855 Y 1.9647 Z -1.0000 I 0.0092 J -0.0509
G02 X 16.0576 Y 1.9554 Z -1.0000 I -0.0419 J 0.0797
G02 X 15.9486 Y 1.9432 Z -1.0000 I -0.1940 J 1.2313
G03 X 15.9277 Y 1.9401 Z -1.0000 I 0.0095 J -0.1393
G01 X 15.9186 Y 1.9365 Z -1.0000
G01 X 15.9095 Y 1.9332 Z -1.0000
G02 X 15.8598 Y 1.9290 Z -1.0000 I -0.0753 J 0.5873
G03 X 15.8102 Y 1.9245 Z -1.0000 I 0.0235 J -0.5426
G01 X 15.8011 Y 1.9211 Z -1.0000
G01 X 15.7920 Y 1.9171 Z -1.0000
G02 X 15.7504 Y 1.9095 Z -1.0000 I -0.1092 J 0.4799
G03 X 15.6771 Y 1.8982 Z -1.0000 I 0.2983 J -2.1750
G03 X 15.5985 Y 1.8835 Z -1.0000 I 0.4479 J -2.6074
G02 X 15.5308 Y 1.8706 Z -1.0000 I -0.5867 J 2.9061
G02 X 15.4549 Y 1.8580 Z -1.0000 I -0.5955 J 3.3492
G03 X 15.2728 Y 1.8282 Z -1.0000 I 1.5945 J -10.3262
G03 X 15.2565 Y 1.8238 Z -1.0000 I 0.0149 J -0.0861
G02 X 15.2435 Y 1.8204 Z -1.0000 I -0.0210 J 0.0543
G02 X 15.1946 Y 1.8152 Z -1.0000 I -0.1135 J 0.8289
G03 X 15.1460 Y 1.8084 Z -1.0000 I 0.0303 J -0.3914
G03 X 15.1155 Y 1.7990 Z -1.0000 I 0.0335 J -0.1631
G02 X 15.0850 Y 1.7896 Z -1.0000 I -0.0616 J 0.1465
G02 X 15.0534 Y 1.7865 Z -1.0000 I -0.0316 J 0.1583
G03 X 15.0230 Y 1.7831 Z -1.0000 I -0.0000 J -0.1384
G01 X 15.0159 Y 1.7781 Z -1.0000
G01 X 15.0091 Y 1.7726 Z -1.0000
G01 X 14.9928 Y 1.7697 Z -1.0000
G03 X 14.9752 Y 1.7681 Z -1.0000 I 0.0000 J -0.0985
G03 X 14.9490 Y 1.7618 Z -1.0000 I 0.0428 J -0.2353
G02 X 14.9228 Y 1.7550 Z -1.0000 I -0.0981 J 0.3254
G02 X 14.8471 Y 1.7398 Z -1.0000 I -0.5427 J 2.5060
G03 X 14.7711 Y 1.7257 Z -1.0000 I 6.9376 J -37.6521
G02 X 14.7289 Y 1.7179 Z -1.0000 I -31.8373 J 170.8514
G03 X 14.6871 Y 1.7085 Z -1.0000 I 0.1008 J -0.5441
G03 X 14.6698 Y 1.7022 Z -1.0000 I 0.0274 J -0.1028
G02 X 14.6524 Y 1.6958 Z -1.0000 I -0.0461 J 0.0996
G02 X 14.5938 Y 1.6817 Z -1.0000 I -0.2958 J 1.0935
G03 X 14.4286 Y 1.6445 Z -1.0000 I 1.7557 J -8.1923
G03 X 14.2772 Y 1.6071 Z -1.0000 I 1.6234 J -6.8919
G02 X 14.1966 Y 1.5880 Z -1.0000 I -0.4946 J 1.9105
G02 X 14.1337 Y 1.5763 Z -1.0000 I -0.2480 J 1.1558
G03 X 14.0707 Y 1.5647 Z -1.0000 I 0.1929 J -1.2214
G03 X 14.0450 Y 1.5575 Z -1.0000 I 0.0450 J -0.2128
G02 X 14.0194 Y 1.5500 Z -1.0000 I -0.0983 J 0.2852
G02 X 13.9648 Y 1.5376 Z -1.0000 I -0.3294 J 1.3277
G02 X 13.7727 Y 1.4995 Z -1.0000 I -3.1102 J 15.1713
G02 X 13.7200 Y 1.4906 Z -1.0000 I -0.2166 J 1.1292
G03 X 13.6736 Y 1.4836 Z -1.0000 I 0.5780 J -3.9897
G03 X 13.5891 Y 1.4701 Z -1.0000 I 1.9056 J -12.1550
G02 X 13.5046 Y 1.4570 Z -1.0000 I -0.8145 J 4.9760
G02 X 13.4419 Y 1.4486 Z -1.0000 I -0.3851 J 2.6320
G03 X 13.3794 Y 1.4389 Z -1.0000 I 0.1175 J -0.9673
G03 X 13.3088 Y 1.4236 Z -1.0000 I 0.2399 J -1.2765
G02 X 13.2384 Y 1.4072 Z -1.0000 I -0.7277 J 2.9591
G02 X 13.2154 Y 1.4030 Z -1.0000 I -0.0669 J 0.3029
G03 X 12.9132 Y 1.2880 Z -1.0000 I 0.1043 J -0.7286
G03 X 12.6195 Y 1.0082 Z -1.0000 I 0.6395 J -0.9652
G02 X 12.5495 Y 0.9298 Z -1.0000 I -0.4428 J 0.3253
G02 X 12.4899 Y 0.8884 Z -1.0000 I -0.1779 J 0.1926
G02 X 12.4478 Y 0.8776 Z -1.0000 I -0.0458 J 0.0906
G02 X 12.3987 Y 0.8851 Z -1.0000 I -0.0048 J 0.1319
G01 X 12.3995 Y 0.8845 Z -1.0000
G00 Z 5.0000

(End cutting path id: path71175)


(Start cutting path id: path71175)
(Change tool to Default tool)

G00 Z 5.0000
G00 X 11.2484 Y 1.0770

G01 Z -1.0000 F 100.0000(Penetrate)
G03 X 11.2272 Y 1.0989 Z -1.0000 I -0.1225 J -0.0975 F 3500.0000
G01 X 11.2140 Y 1.1062 Z -1.0000
G01 X 11.2029 Y 1.1146 Z -1.0000
G02 X 11.1890 Y 1.1444 Z -1.0000 I 0.0959 J 0.0627
G03 X 11.1754 Y 1.1749 Z -1.0000 I -0.1234 J -0.0369
G01 X 11.1634 Y 1.1862 Z -1.0000
G01 X 11.1509 Y 1.1971 Z -1.0000
G01 X 11.1428 Y 1.2143 Z -1.0000
G03 X 11.1353 Y 1.2327 Z -1.0000 I -0.0678 J -0.0169
G03 X 11.1174 Y 1.2579 Z -1.0000 I -0.1477 J -0.0864
G02 X 11.1047 Y 1.2845 Z -1.0000 I 0.0429 J 0.0368
G02 X 11.0984 Y 1.3613 Z -1.0000 I 0.3794 J 0.0698
G03 X 11.0979 Y 1.4401 Z -1.0000 I -1.6366 J 0.0298
G01 X 11.0959 Y 1.4448 Z -1.0000
G01 X 11.0931 Y 1.4494 Z -1.0000
G02 X 11.0892 Y 1.4669 Z -1.0000 I 0.1183 J 0.0359
G03 X 11.0846 Y 1.4842 Z -1.0000 I -0.0821 J -0.0123
G01 X 11.0787 Y 1.4943 Z -1.0000
G01 X 11.0730 Y 1.5045 Z -1.0000
G02 X 11.0676 Y 1.5281 Z -1.0000 I 0.1291 J 0.0416
G03 X 11.0600 Y 1.5491 Z -1.0000 I -0.0518 J -0.0069
G01 X 11.0481 Y 1.5589 Z -1.0000
G01 X 11.0458 Y 1.5630 Z -1.0000
G01 X 11.0491 Y 1.5659 Z -1.0000
G01 X 11.0652 Y 1.5635 Z -1.0000
G01 X 11.0764 Y 1.5565 Z -1.0000
G01 X 11.0885 Y 1.5564 Z -1.0000
G01 X 11.0919 Y 1.5713 Z -1.0000
G01 X 11.0841 Y 1.5797 Z -1.0000
G01 X 11.0733 Y 1.5801 Z -1.0000
G01 X 11.0657 Y 1.5826 Z -1.0000
G01 X 11.0616 Y 1.5982 Z -1.0000
G03 X 11.0578 Y 1.6599 Z -1.0000 I -0.2432 J 0.0158
G01 X 11.0482 Y 1.6678 Z -1.0000
G01 X 11.0406 Y 1.6708 Z -1.0000
G01 X 11.0399 Y 1.6757 Z -1.0000
G01 X 11.0406 Y 1.6826 Z -1.0000
G01 X 11.0349 Y 1.6897 Z -1.0000
G01 X 11.0314 Y 1.6893 Z -1.0000
G01 X 11.0310 Y 1.6861 Z -1.0000
G01 X 11.0307 Y 1.6799 Z -1.0000
G01 X 11.0234 Y 1.6764 Z -1.0000
G01 X 11.0156 Y 1.6796 Z -1.0000
G01 X 11.0150 Y 1.6848 Z -1.0000
G01 X 11.0158 Y 1.6907 Z -1.0000
G01 X 11.0126 Y 1.6932 Z -1.0000
G01 X 11.0072 Y 1.6963 Z -1.0000
G02 X 10.9940 Y 1.7265 Z -1.0000 I 0.1526 J 0.0849
G03 X 10.9801 Y 1.7571 Z -1.0000 I -0.1438 J -0.0471
G01 X 10.9715 Y 1.7642 Z -1.0000
G01 X 10.9633 Y 1.7708 Z -1.0000
G01 X 10.9601 Y 1.7816 Z -1.0000
G01 X 10.9571 Y 1.7916 Z -1.0000
G01 X 10.9517 Y 1.7945 Z -1.0000
G02 X 10.9433 Y 1.7946 Z -1.0000 I 0.0000 J 0.3499
G02 X 10.9393 Y 1.7948 Z -1.0000 I 0.0018 J 0.0753
G01 X 10.9358 Y 1.7962 Z -1.0000
G02 X 10.9045 Y 1.8242 Z -1.0000 I 0.5036 J 0.5949
G03 X 10.8731 Y 1.8480 Z -1.0000 I -0.1254 J -0.1330
G01 X 10.8649 Y 1.8479 Z -1.0000
G01 X 10.8623 Y 1.8523 Z -1.0000
G01 X 10.8642 Y 1.8822 Z -1.0000
G01 X 10.8451 Y 1.8900 Z -1.0000
G01 X 10.8372 Y 1.8908 Z -1.0000
G01 X 10.8347 Y 1.8968 Z -1.0000
G01 X 10.8343 Y 1.9080 Z -1.0000
G03 X 10.8263 Y 1.9280 Z -1.0000 I -0.0874 J -0.0236
G01 X 10.8140 Y 1.9396 Z -1.0000
G01 X 10.8044 Y 1.9384 Z -1.0000
G01 X 10.7951 Y 1.9360 Z -1.0000
G01 X 10.7886 Y 1.9415 Z -1.0000
G01 X 10.7943 Y 1.9628 Z -1.0000
G01 X 10.8198 Y 1.9669 Z -1.0000
G01 X 10.8302 Y 1.9665 Z -1.0000
G01 X 10.8335 Y 1.9710 Z -1.0000
G01 X 10.8631 Y 1.9997 Z -1.0000
G02 X 10.9154 Y 1.9688 Z -1.0000 I -0.0017 J -0.0625
G03 X 10.9461 Y 1.9441 Z -1.0000 I 0.0474 J 0.0276
G01 X 10.9602 Y 1.9544 Z -1.0000
G01 X 10.9568 Y 1.9601 Z -1.0000
G01 X 10.9433 Y 1.9634 Z -1.0000
G01 X 10.9293 Y 1.9664 Z -1.0000
G01 X 10.9264 Y 1.9709 Z -1.0000
G01 X 10.9291 Y 1.9762 Z -1.0000
G01 X 10.9433 Y 1.9828 Z -1.0000
G01 X 10.9560 Y 1.9904 Z -1.0000
G01 X 10.9602 Y 2.0013 Z -1.0000
G01 X 10.9645 Y 2.0100 Z -1.0000
G01 X 10.9749 Y 2.0123 Z -1.0000
G01 X 10.9881 Y 2.0134 Z -1.0000
G01 X 10.9991 Y 2.0216 Z -1.0000
G01 X 11.0103 Y 2.0275 Z -1.0000
G02 X 11.0340 Y 2.0234 Z -1.0000 I 0.0028 J -0.0544
G03 X 11.0600 Y 2.0163 Z -1.0000 I 0.0414 J 0.1000
G03 X 11.0879 Y 2.0156 Z -1.0000 I 0.0167 J 0.1160
G01 X 11.1100 Y 2.0249 Z -1.0000
G01 X 11.1190 Y 2.0417 Z -1.0000
G01 X 11.1251 Y 2.0580 Z -1.0000
G01 X 11.1310 Y 2.0593 Z -1.0000
G01 X 11.1348 Y 2.0603 Z -1.0000
G01 X 11.1352 Y 2.0668 Z -1.0000
G01 X 11.1366 Y 2.0768 Z -1.0000
G01 X 11.1486 Y 2.0850 Z -1.0000
G01 X 11.1723 Y 2.0838 Z -1.0000
G01 X 11.1796 Y 2.0732 Z -1.0000
G01 X 11.1837 Y 2.0604 Z -1.0000
G01 X 11.1913 Y 2.0564 Z -1.0000
G01 X 11.1986 Y 2.0513 Z -1.0000
G02 X 11.2089 Y 2.0093 Z -1.0000 I -0.1751 J -0.0652
G03 X 11.2183 Y 1.9632 Z -1.0000 I 0.2941 J 0.0364
G03 X 11.2351 Y 1.9185 Z -1.0000 I 0.2978 J 0.0862
G02 X 11.2532 Y 1.8743 Z -1.0000 I -0.4609 J -0.2145
G01 X 11.2555 Y 1.8611 Z -1.0000
G01 X 11.2586 Y 1.8487 Z -1.0000
G01 X 11.2683 Y 1.8368 Z -1.0000
G01 X 11.2762 Y 1.8241 Z -1.0000
G02 X 11.2809 Y 1.7812 Z -1.0000 I -0.1895 J -0.0429
G03 X 11.2858 Y 1.7372 Z -1.0000 I 0.2015 J 0.0000
G03 X 11.2985 Y 1.7023 Z -1.0000 I 0.1401 J 0.0313
G02 X 11.3111 Y 1.6688 Z -1.0000 I -0.1317 J -0.0686
G01 X 11.3094 Y 1.6578 Z -1.0000
G01 X 11.3050 Y 1.6461 Z -1.0000
G03 X 11.3006 Y 1.6059 Z -1.0000 I 0.3300 J -0.0565
G02 X 11.2829 Y 1.5298 Z -1.0000 I -0.2213 J 0.0112
G01 X 11.2620 Y 1.5160 Z -1.0000
G01 X 11.2512 Y 1.5120 Z -1.0000
G01 X 11.2472 Y 1.5034 Z -1.0000
G01 X 11.2435 Y 1.4944 Z -1.0000
G01 X 11.2345 Y 1.4907 Z -1.0000
G01 X 11.1996 Y 1.4567 Z -1.0000
G03 X 11.2320 Y 1.3968 Z -1.0000 I 0.0683 J -0.0018
G01 X 11.2367 Y 1.3903 Z -1.0000
G01 X 11.2354 Y 1.3824 Z -1.0000
G01 X 11.2322 Y 1.3729 Z -1.0000
G03 X 11.2290 Y 1.3161 Z -1.0000 I 0.7000 J -0.0679
G03 X 11.2347 Y 1.2600 Z -1.0000 I 0.2424 J -0.0040
G03 X 11.2538 Y 1.2037 Z -1.0000 I 0.2616 J 0.0575
G02 X 11.3010 Y 1.0813 Z -1.0000 I -0.8471 J -0.3971
G01 X 11.2950 Y 1.0696 Z -1.0000
G03 X 11.2856 Y 1.0655 Z -1.0000 I 0.0184 J -0.0552
G03 X 11.2765 Y 1.0596 Z -1.0000 I 0.0315 J -0.0580
G01 X 11.2687 Y 1.0592 Z -1.0000
G02 X 11.2484 Y 1.0772 Z -1.0000 I 0.0422 J 0.0676
G01 X 11.2484 Y 1.0770 Z -1.0000
G00 Z 5.0000

(End cutting path id: path71175)


(Start cutting path id: path71175)
(Change tool to Default tool)

G00 Z 5.0000
G00 X 11.0790 Y 1.3350

G01 Z -1.0000 F 100.0000(Penetrate)
G01 X 11.0841 Y 1.3401 Z -1.0000 F 3500.0000
G01 X 11.0858 Y 1.3296 Z -1.0000
G01 X 11.0834 Y 1.3240 Z -1.0000
G01 X 11.0790 Y 1.3350 Z -1.0000
G01 X 11.0790 Y 1.3350 Z -1.0000
G00 Z 5.0000

(End cutting path id: path71175)


(Start cutting path id: path71175)
(Change tool to Default tool)

G00 Z 5.0000
G00 X 11.0345 Y 1.5469

G01 Z -1.0000 F 100.0000(Penetrate)
G01 X 11.0451 Y 1.5487 Z -1.0000 F 3500.0000
G01 X 11.0507 Y 1.5463 Z -1.0000
G01 X 11.0396 Y 1.5419 Z -1.0000
G01 X 11.0345 Y 1.5470 Z -1.0000
G01 X 11.0345 Y 1.5469 Z -1.0000
G00 Z 5.0000

(End cutting path id: path71175)


(Start cutting path id: path71175)
(Change tool to Default tool)

G00 Z 5.0000
G00 X 10.9939 Y 1.7860

G01 Z -1.0000 F 100.0000(Penetrate)
G01 X 10.9914 Y 1.7919 Z -1.0000 F 3500.0000
G01 X 10.9855 Y 1.7944 Z -1.0000
G01 X 10.9795 Y 1.7919 Z -1.0000
G01 X 10.9771 Y 1.7860 Z -1.0000
G01 X 10.9795 Y 1.7801 Z -1.0000
G01 X 10.9855 Y 1.7776 Z -1.0000
G01 X 10.9914 Y 1.7801 Z -1.0000
G01 X 10.9939 Y 1.7860 Z -1.0000
G01 X 10.9939 Y 1.7860 Z -1.0000
G00 Z 5.0000

(End cutting path id: path71175)


(Start cutting path id: path71175)
(Change tool to Default tool)

G00 Z 5.0000
G00 X 10.8968 Y 1.9464

G01 Z -1.0000 F 100.0000(Penetrate)
G01 X 10.8957 Y 1.9513 Z -1.0000 F 3500.0000
G01 X 10.8841 Y 1.9548 Z -1.0000
G01 X 10.8725 Y 1.9513 Z -1.0000
G01 X 10.8715 Y 1.9464 Z -1.0000
G01 X 10.8778 Y 1.9399 Z -1.0000
G01 X 10.8841 Y 1.9380 Z -1.0000
G01 X 10.8905 Y 1.9399 Z -1.0000
G01 X 10.8968 Y 1.9464 Z -1.0000
G01 X 10.8968 Y 1.9464 Z -1.0000
G00 Z 5.0000

(End cutting path id: path71175)


(Start cutting path id: path71175)
(Change tool to Default tool)

G00 Z 5.0000
G00 X 10.9263 Y 2.0102

G01 Z -1.0000 F 100.0000(Penetrate)
G01 X 10.9296 Y 2.0176 Z -1.0000 F 3500.0000
G01 X 10.9349 Y 2.0181 Z -1.0000
G01 X 10.9396 Y 2.0120 Z -1.0000
G01 X 10.9386 Y 2.0050 Z -1.0000
G01 X 10.9313 Y 2.0027 Z -1.0000
G01 X 10.9263 Y 2.0103 Z -1.0000
G01 X 10.9263 Y 2.0102 Z -1.0000
G00 Z 5.0000

(End cutting path id: path71175)


(Start cutting path id: path71175)
(Change tool to Default tool)

G00 Z 5.0000
G00 X 10.7786 Y 1.9717

G01 Z -1.0000 F 100.0000(Penetrate)
G01 X 10.7845 Y 1.9790 Z -1.0000 F 3500.0000
G01 X 10.7875 Y 1.9801 Z -1.0000
G01 X 10.7912 Y 1.9717 Z -1.0000
G01 X 10.7887 Y 1.9659 Z -1.0000
G01 X 10.7823 Y 1.9633 Z -1.0000
G01 X 10.7782 Y 1.9660 Z -1.0000
G01 X 10.7786 Y 1.9717 Z -1.0000
G01 X 10.7786 Y 1.9717 Z -1.0000
G00 Z 5.0000

(End cutting path id: path71175)


(Start cutting path id: path71175)
(Change tool to Default tool)

G00 Z 5.0000
G00 X 11.4218 Y 3.0248

G01 Z -1.0000 F 100.0000(Penetrate)
G01 X 11.4176 Y 3.0144 Z -1.0000 F 3500.0000
G01 X 11.4215 Y 2.9995 Z -1.0000
G01 X 11.4237 Y 3.0100 Z -1.0000
G03 X 11.4218 Y 3.0248 Z -1.0000 I -0.0542 J 0.0009
G01 X 11.4218 Y 3.0248 Z -1.0000
G00 Z 5.0000

(End cutting path id: path71175)


(Start cutting path id: path71175)
(Change tool to Default tool)

G00 Z 5.0000
G00 X 11.3864 Y 3.0862

G01 Z -1.0000 F 100.0000(Penetrate)
G02 X 11.4109 Y 3.0912 Z -1.0000 I 0.0245 J -0.0571 F 3500.0000
G01 X 11.4160 Y 3.0862 Z -1.0000
G01 X 11.4125 Y 3.0813 Z -1.0000
G02 X 11.3928 Y 3.0784 Z -1.0000 I -0.0180 J 0.0528
G01 X 11.3854 Y 3.0820 Z -1.0000
G01 X 11.3865 Y 3.0862 Z -1.0000
G01 X 11.3864 Y 3.0862 Z -1.0000
G00 Z 5.0000

(End cutting path id: path71175)


(Start cutting path id: path71175)
(Change tool to Default tool)

G00 Z 5.0000
G00 X 11.4244 Y 3.1289

G01 Z -1.0000 F 100.0000(Penetrate)
G01 X 11.4211 Y 3.1402 Z -1.0000 F 3500.0000
G01 X 11.4163 Y 3.1413 Z -1.0000
G01 X 11.4120 Y 3.1350 Z -1.0000
G01 X 11.4130 Y 3.1239 Z -1.0000
G01 X 11.4194 Y 3.1212 Z -1.0000
G01 X 11.4244 Y 3.1289 Z -1.0000
G01 X 11.4244 Y 3.1289 Z -1.0000
G00 Z 5.0000

(End cutting path id: path71175)


(Start cutting path id: path71175)
(Change tool to Default tool)

G00 Z 5.0000
G00 X 11.3864 Y 3.2888

G01 Z -1.0000 F 100.0000(Penetrate)
G01 X 11.3860 Y 3.2945 Z -1.0000 F 3500.0000
G01 X 11.3901 Y 3.2972 Z -1.0000
G01 X 11.3965 Y 3.2946 Z -1.0000
G01 X 11.3990 Y 3.2888 Z -1.0000
G01 X 11.3953 Y 3.2804 Z -1.0000
G01 X 11.3923 Y 3.2816 Z -1.0000
G01 X 11.3864 Y 3.2888 Z -1.0000
G01 X 11.3864 Y 3.2888 Z -1.0000
G00 Z 5.0000

(End cutting path id: path71175)


(Start cutting path id: path71175)
(Change tool to Default tool)

G00 Z 5.0000
G00 X 11.4242 Y 3.6015

G01 Z -1.0000 F 100.0000(Penetrate)
G01 X 11.4121 Y 3.6028 Z -1.0000 F 3500.0000
G01 X 11.4112 Y 3.5968 Z -1.0000
G03 X 11.4272 Y 3.5880 Z -1.0000 I 0.0369 J 0.0483
G01 X 11.4320 Y 3.5891 Z -1.0000
G01 X 11.4325 Y 3.5932 Z -1.0000
G01 X 11.4242 Y 3.6015 Z -1.0000
G01 X 11.4242 Y 3.6015 Z -1.0000
G00 Z 5.0000

(End cutting path id: path71175)


(Start cutting path id: path71175)
(Change tool to Default tool)

G00 Z 5.0000
G00 X 8.0052 Y 10.7345

G01 Z -1.0000 F 100.0000(Penetrate)
G02 X 8.0231 Y 10.7762 Z -1.0000 I 0.0576 J -0.0000 F 3500.0000
G02 X 8.0680 Y 10.7942 Z -1.0000 I 0.0449 J -0.0473
G01 X 8.0725 Y 10.7875 Z -1.0000
G02 X 8.0498 Y 10.7507 Z -1.0000 I -0.1286 J 0.0539
G02 X 8.0158 Y 10.7271 Z -1.0000 I -0.0618 J 0.0529
G01 X 8.0052 Y 10.7345 Z -1.0000
G01 X 8.0052 Y 10.7345 Z -1.0000
G00 Z 5.0000

(End cutting path id: path71175)


(Start cutting path id: path71175)
(Change tool to Default tool)

G00 Z 5.0000
G00 X 8.1065 Y 10.8327

G01 Z -1.0000 F 100.0000(Penetrate)
G01 X 8.1079 Y 10.8363 Z -1.0000 F 3500.0000
G02 X 8.1353 Y 10.8658 Z -1.0000 I 0.4381 J -0.3812
G02 X 8.1623 Y 10.8857 Z -1.0000 I 0.0798 J -0.0798
G01 X 8.1685 Y 10.8833 Z -1.0000
G01 X 8.1679 Y 10.8733 Z -1.0000
G02 X 8.1541 Y 10.8558 Z -1.0000 I -0.0533 J 0.0279
G02 X 8.1130 Y 10.8287 Z -1.0000 I -0.1229 J 0.1414
G01 X 8.1065 Y 10.8327 Z -1.0000
G01 X 8.1065 Y 10.8327 Z -1.0000
G00 Z 5.0000

(End cutting path id: path71175)


(Start cutting path id: path71175)
(Change tool to Default tool)

G00 Z 5.0000
G00 X 8.0801 Y 11.0532

G01 Z -1.0000 F 100.0000(Penetrate)
G01 X 8.0945 Y 11.0599 Z -1.0000 F 3500.0000
G01 X 8.1079 Y 11.0594 Z -1.0000
G01 X 8.1154 Y 11.0620 Z -1.0000
G01 X 8.1173 Y 11.0731 Z -1.0000
G01 X 8.0803 Y 11.0899 Z -1.0000
G03 X 8.0477 Y 11.0383 Z -1.0000 I 0.0263 J -0.0527
G01 X 8.0549 Y 11.0242 Z -1.0000
G01 X 8.0632 Y 11.0275 Z -1.0000
G01 X 8.0688 Y 11.0412 Z -1.0000
G01 X 8.0801 Y 11.0532 Z -1.0000
G01 X 8.0801 Y 11.0532 Z -1.0000
G00 Z 5.0000

(End cutting path id: path71175)


(Start cutting path id: path71175)
(Change tool to Default tool)

G00 Z 5.0000
G00 X 8.2695 Y 11.2205

G01 Z -1.0000 F 100.0000(Penetrate)
G01 X 8.2554 Y 11.2320 Z -1.0000 F 3500.0000
G01 X 8.2385 Y 11.2203 Z -1.0000
G01 X 8.2406 Y 11.2126 Z -1.0000
G01 X 8.2522 Y 11.2094 Z -1.0000
G01 X 8.2671 Y 11.2149 Z -1.0000
G01 X 8.2695 Y 11.2205 Z -1.0000
G01 X 8.2695 Y 11.2205 Z -1.0000
G00 Z 5.0000

