%
(Header)
(Generated by gcodetools from Inkscape.)
(Using default header. To add your own header create file "header" in the output dir.)
M3
(Header end.)
G21 (All units in mm)

(Start cutting path id: path146394)
(Change tool to Default tool)

G00 Z 5.0000
G00 X 33.2500 Y 2.7021

G01 Z -1.0000 F 100.0000(Penetrate)
G01 X 33.2572 Y 2.7109 Z -1.0000 F 3500.0000
G01 X 33.2608 Y 2.7124 Z -1.0000
G01 X 33.2636 Y 2.7106 Z -1.0000
G01 X 33.2653 Y 2.7021 Z -1.0000
G01 X 33.2623 Y 2.6950 Z -1.0000
G01 X 33.2545 Y 2.6919 Z -1.0000
G01 X 33.2495 Y 2.6951 Z -1.0000
G01 X 33.2500 Y 2.7021 Z -1.0000
G01 X 33.2500 Y 2.7021 Z -1.0000
G00 Z 5.0000

(End cutting path id: path146394)


(Start cutting path id: path146394)
(Change tool to Default tool)

G00 Z 5.0000
G00 X 33.1344 Y 2.7706

G01 Z -1.0000 F 100.0000(Penetrate)
G01 X 33.1215 Y 2.7730 Z -1.0000 F 3500.0000
G01 X 33.1087 Y 2.7706 Z -1.0000
G01 X 33.1216 Y 2.7654 Z -1.0000
G01 X 33.1344 Y 2.7706 Z -1.0000
G01 X 33.1344 Y 2.7706 Z -1.0000
G00 Z 5.0000

(End cutting path id: path146394)


(Start cutting path id: path146394)
(Change tool to Default tool)

G00 Z 5.0000
G00 X 33.5119 Y 2.7124

G01 Z -1.0000 F 100.0000(Penetrate)
G01 X 33.5041 Y 2.7251 Z -1.0000 F 3500.0000
G03 X 33.4708 Y 2.7329 Z -1.0000 I -0.0333 J -0.0665
G03 X 33.4347 Y 2.7280 Z -1.0000 I -0.0000 J -0.1357
G01 X 33.4297 Y 2.7215 Z -1.0000
G01 X 33.4020 Y 2.6976 Z -1.0000
G02 X 33.3471 Y 2.7338 Z -1.0000 I 0.0113 J 0.0771
G01 X 33.3394 Y 2.7379 Z -1.0000
G03 X 33.3060 Y 2.7328 Z -1.0000 I 0.0030 J -0.1315
G02 X 33.2723 Y 2.7303 Z -1.0000 I -0.0230 J 0.0801
G01 X 33.2654 Y 2.7381 Z -1.0000
G01 X 33.2574 Y 2.7460 Z -1.0000
G03 X 33.2302 Y 2.7376 Z -1.0000 I 0.0007 J -0.0509
G02 X 33.2049 Y 2.7278 Z -1.0000 I -0.0356 J 0.0544
G02 X 33.1770 Y 2.7290 Z -1.0000 I -0.0111 J 0.0684
G01 X 33.1658 Y 2.7374 Z -1.0000
G01 X 33.1682 Y 2.7442 Z -1.0000
G01 X 33.1350 Y 2.7528 Z -1.0000
G02 X 33.0841 Y 2.7578 Z -1.0000 I 0.0041 J 0.3056
G01 X 33.0753 Y 2.7638 Z -1.0000
G01 X 33.0664 Y 2.7696 Z -1.0000
G03 X 33.0028 Y 2.7741 Z -1.0000 I -0.0636 J -0.4529
G02 X 32.9426 Y 2.7801 Z -1.0000 I 0.0000 J 0.3038
G01 X 32.9367 Y 2.7874 Z -1.0000
G01 X 32.9317 Y 2.7973 Z -1.0000
G03 X 32.9025 Y 2.8131 Z -1.0000 I -0.0670 J -0.0888
G03 X 32.8627 Y 2.8187 Z -1.0000 I -0.0333 J -0.0921
G01 X 32.8545 Y 2.8099 Z -1.0000
G01 X 32.8492 Y 2.8039 Z -1.0000
G01 X 32.8338 Y 2.8073 Z -1.0000
G02 X 32.8162 Y 2.8226 Z -1.0000 I 0.0393 J 0.0628
G01 X 32.8071 Y 2.8392 Z -1.0000
G01 X 32.7987 Y 2.8486 Z -1.0000
G01 X 32.7898 Y 2.8469 Z -1.0000
G02 X 32.7387 Y 2.8272 Z -1.0000 I -0.0479 J 0.0479
G02 X 32.6826 Y 2.8519 Z -1.0000 I 0.0040 J 0.0850
G01 X 32.6755 Y 2.8672 Z -1.0000
G01 X 32.6805 Y 2.8770 Z -1.0000
G01 X 32.6883 Y 2.8866 Z -1.0000
G01 X 32.6867 Y 2.8938 Z -1.0000
G01 X 32.6793 Y 2.8960 Z -1.0000
G01 X 32.6716 Y 2.8908 Z -1.0000
G02 X 32.6288 Y 2.8630 Z -1.0000 I -0.0526 J 0.0342
G01 X 32.6078 Y 2.8807 Z -1.0000
G01 X 32.6036 Y 2.8897 Z -1.0000
G03 X 32.5668 Y 2.9144 Z -1.0000 I -0.1495 J -0.1826
G03 X 32.5315 Y 2.9270 Z -1.0000 I -0.0584 J -0.1077
G01 X 32.5257 Y 2.9223 Z -1.0000
G01 X 32.5200 Y 2.9172 Z -1.0000
G02 X 32.4872 Y 2.9273 Z -1.0000 I 0.0131 J 0.1011
G03 X 32.4476 Y 2.9430 Z -1.0000 I -0.1076 J -0.2138
G03 X 32.3977 Y 2.9538 Z -1.0000 I -0.0969 J -0.3275
G02 X 32.3488 Y 2.9657 Z -1.0000 I 0.0346 J 0.2486
G02 X 32.3217 Y 2.9806 Z -1.0000 I 0.0316 J 0.0897
G03 X 32.2955 Y 2.9948 Z -1.0000 I -0.0546 J -0.0695
G01 X 32.2795 Y 2.9950 Z -1.0000
G01 X 32.2641 Y 2.9962 Z -1.0000
G02 X 32.2382 Y 3.0154 Z -1.0000 I 0.0403 J 0.0816
G03 X 32.2071 Y 3.0336 Z -1.0000 I -0.0467 J -0.0439
G01 X 32.1970 Y 3.0257 Z -1.0000
G01 X 32.1906 Y 3.0169 Z -1.0000
G02 X 32.1534 Y 3.0118 Z -1.0000 I -0.0336 J 0.1051
G01 X 32.1097 Y 3.0133 Z -1.0000
G01 X 32.1508 Y 3.0198 Z -1.0000
G01 X 32.1919 Y 3.0263 Z -1.0000
G01 X 32.1534 Y 3.0409 Z -1.0000
G02 X 32.1186 Y 3.0581 Z -1.0000 I 0.0698 J 0.1849
G01 X 32.1148 Y 3.0649 Z -1.0000
G01 X 32.1113 Y 3.0691 Z -1.0000
G01 X 32.0985 Y 3.0679 Z -1.0000
G01 X 32.0860 Y 3.0692 Z -1.0000
G01 X 32.0767 Y 3.0822 Z -1.0000
G01 X 32.0635 Y 3.0921 Z -1.0000
G01 X 32.0500 Y 3.0814 Z -1.0000
G01 X 32.0199 Y 3.0596 Z -1.0000
G01 X 31.9981 Y 3.0848 Z -1.0000
G01 X 31.9940 Y 3.0979 Z -1.0000
G01 X 31.9827 Y 3.1036 Z -1.0000
G02 X 31.9660 Y 3.1053 Z -1.0000 I 0.0072 J 0.1548
G02 X 31.9505 Y 3.1086 Z -1.0000 I 0.0223 J 0.1424
G03 X 31.9350 Y 3.1125 Z -1.0000 I -0.1480 J -0.5471
G03 X 31.9043 Y 3.1197 Z -1.0000 I -0.4762 J -1.9797
G02 X 31.8762 Y 3.1308 Z -1.0000 I 0.0210 J 0.0936
G02 X 31.8595 Y 3.1462 Z -1.0000 I 0.0279 J 0.0470
G01 X 31.8438 Y 3.1598 Z -1.0000
G01 X 31.8316 Y 3.1605 Z -1.0000
G01 X 31.8191 Y 3.1597 Z -1.0000
G01 X 31.8111 Y 3.1656 Z -1.0000
G01 X 31.8030 Y 3.1715 Z -1.0000
G01 X 31.7905 Y 3.1707 Z -1.0000
G01 X 31.7745 Y 3.1757 Z -1.0000
G01 X 31.7784 Y 3.1888 Z -1.0000
G01 X 31.7529 Y 3.1886 Z -1.0000
G02 X 31.7165 Y 3.1911 Z -1.0000 I -0.0127 J 0.0815
G02 X 31.6664 Y 3.2146 Z -1.0000 I 0.0548 J 0.1817
G03 X 31.6173 Y 3.2434 Z -1.0000 I -0.2812 J -0.4246
G01 X 31.6041 Y 3.2466 Z -1.0000
G01 X 31.5905 Y 3.2489 Z -1.0000
G02 X 31.5474 Y 3.2671 Z -1.0000 I 0.1513 J 0.4187
G03 X 31.5043 Y 3.2852 Z -1.0000 I -0.1895 J -0.3923
G01 X 31.4898 Y 3.2877 Z -1.0000
G01 X 31.4759 Y 3.2911 Z -1.0000
G02 X 31.4399 Y 3.3143 Z -1.0000 I 0.1241 J 0.2330
G03 X 31.4041 Y 3.3347 Z -1.0000 I -0.0957 J -0.1255
G01 X 31.3896 Y 3.3349 Z -1.0000
G01 X 31.3747 Y 3.3340 Z -1.0000
G02 X 31.3500 Y 3.3448 Z -1.0000 I 0.0198 J 0.0787
G03 X 31.2551 Y 3.3917 Z -1.0000 I -0.2405 J -0.3669
G03 X 31.1884 Y 3.4017 Z -1.0000 I -0.0590 J -0.1678
G02 X 31.1640 Y 3.4068 Z -1.0000 I -0.0022 J 0.0500
G02 X 31.1447 Y 3.4234 Z -1.0000 I 0.0229 J 0.0460
G01 X 31.1287 Y 3.4338 Z -1.0000
G01 X 31.1246 Y 3.4253 Z -1.0000
G01 X 31.1127 Y 3.4212 Z -1.0000
G01 X 31.1033 Y 3.4249 Z -1.0000
G01 X 31.1025 Y 3.4307 Z -1.0000
G01 X 31.0954 Y 3.4511 Z -1.0000
G01 X 31.0569 Y 3.4469 Z -1.0000
G01 X 31.0504 Y 3.4476 Z -1.0000
G01 X 31.0465 Y 3.4565 Z -1.0000
G01 X 31.0400 Y 3.4660 Z -1.0000
G03 X 31.0054 Y 3.4725 Z -1.0000 I -0.0346 J -0.0888
G02 X 30.9697 Y 3.4780 Z -1.0000 I 0.0000 J 0.1199
G01 X 30.9642 Y 3.4854 Z -1.0000
G01 X 30.9483 Y 3.5137 Z -1.0000
G03 X 30.8678 Y 3.5442 Z -1.0000 I -0.1217 J -0.1995
G02 X 30.8415 Y 3.5544 Z -1.0000 I 0.0128 J 0.0721
G01 X 30.8267 Y 3.5701 Z -1.0000
G03 X 30.8152 Y 3.5906 Z -1.0000 I -1.1509 J -0.6314
G03 X 30.8122 Y 3.5955 Z -1.0000 I -0.0921 J -0.0527
G01 X 30.8014 Y 3.5878 Z -1.0000
G01 X 30.7912 Y 3.5827 Z -1.0000
G02 X 30.7509 Y 3.5921 Z -1.0000 I 0.0122 J 0.1435
G02 X 30.7149 Y 3.6112 Z -1.0000 I 0.0645 J 0.1650
G01 X 30.7135 Y 3.6177 Z -1.0000
G01 X 30.7111 Y 3.6234 Z -1.0000
G03 X 30.6597 Y 3.6289 Z -1.0000 I -0.0542 J -0.2618
G02 X 30.6320 Y 3.6362 Z -1.0000 I 0.0006 J 0.0587
G01 X 30.6167 Y 3.6528 Z -1.0000
G01 X 30.6020 Y 3.6684 Z -1.0000
G01 X 30.5822 Y 3.6711 Z -1.0000
G01 X 30.5740 Y 3.6727 Z -1.0000
G01 X 30.5739 Y 3.6769 Z -1.0000
G01 X 30.5752 Y 3.6834 Z -1.0000
G01 X 30.5668 Y 3.6881 Z -1.0000
G02 X 30.5464 Y 3.6919 Z -1.0000 I 0.0004 J 0.0587
G01 X 30.5376 Y 3.6992 Z -1.0000
G01 X 30.5292 Y 3.7054 Z -1.0000
G01 X 30.5166 Y 3.7047 Z -1.0000
G01 X 30.5048 Y 3.7057 Z -1.0000
G01 X 30.4914 Y 3.7197 Z -1.0000
G01 X 30.4788 Y 3.7339 Z -1.0000
G01 X 30.4707 Y 3.7341 Z -1.0000
G01 X 30.4609 Y 3.7317 Z -1.0000
G01 X 30.4488 Y 3.7356 Z -1.0000
G01 X 30.4469 Y 3.7422 Z -1.0000
G01 X 30.4565 Y 3.7509 Z -1.0000
G01 X 30.4343 Y 3.7594 Z -1.0000
G02 X 30.3949 Y 3.7661 Z -1.0000 I 0.0023 J 0.1316
G01 X 30.3751 Y 3.7791 Z -1.0000
G03 X 30.3460 Y 3.7991 Z -1.0000 I -0.0569 J -0.0515
G03 X 30.2533 Y 3.8265 Z -1.0000 I -0.2092 J -0.5373
G01 X 30.2337 Y 3.8368 Z -1.0000
G01 X 30.2313 Y 3.8475 Z -1.0000
G01 X 30.2281 Y 3.8566 Z -1.0000
G01 X 30.2056 Y 3.8628 Z -1.0000
G02 X 30.1778 Y 3.8690 Z -1.0000 I -0.0000 J 0.0660
G01 X 30.1635 Y 3.8825 Z -1.0000
G01 X 30.1500 Y 3.8950 Z -1.0000
G01 X 30.1316 Y 3.8965 Z -1.0000
G01 X 30.1122 Y 3.8984 Z -1.0000
G02 X 30.0821 Y 3.9205 Z -1.0000 I 0.0453 J 0.0935
G03 X 30.0304 Y 3.9609 Z -1.0000 I -0.1600 J -0.1512
G03 X 29.9743 Y 3.9814 Z -1.0000 I -0.0898 J -0.1588
G02 X 29.9409 Y 3.9916 Z -1.0000 I 0.0282 J 0.1518
G01 X 29.9371 Y 3.9975 Z -1.0000
G01 X 29.9335 Y 4.0030 Z -1.0000
G01 X 29.9165 Y 4.0066 Z -1.0000
G01 X 29.8999 Y 4.0105 Z -1.0000
G01 X 29.8960 Y 4.0169 Z -1.0000
G01 X 29.8919 Y 4.0230 Z -1.0000
G03 X 29.8718 Y 4.0272 Z -1.0000 I -0.0201 J -0.0469
G02 X 29.8493 Y 4.0321 Z -1.0000 I 0.0000 J 0.0537
G02 X 29.8051 Y 4.0580 Z -1.0000 I 0.1109 J 0.2399
G03 X 29.7615 Y 4.0854 Z -1.0000 I -0.2284 J -0.3153
G01 X 29.7480 Y 4.0888 Z -1.0000
G01 X 29.7352 Y 4.0916 Z -1.0000
G01 X 29.7299 Y 4.0972 Z -1.0000
G03 X 29.6665 Y 4.1611 Z -1.0000 I -0.1085 J -0.0442
G03 X 29.5662 Y 4.1655 Z -1.0000 I -0.0562 J -0.1347
G01 X 29.5526 Y 4.1651 Z -1.0000
G01 X 29.5509 Y 4.1694 Z -1.0000
G01 X 29.5500 Y 4.1782 Z -1.0000
G03 X 29.5239 Y 4.1976 Z -1.0000 I -0.0704 J -0.0674
G02 X 29.4915 Y 4.2163 Z -1.0000 I 0.1756 J 0.3428
G01 X 29.4851 Y 4.2225 Z -1.0000
G01 X 29.4749 Y 4.2313 Z -1.0000
G03 X 29.3592 Y 4.2823 Z -1.0000 I -0.9641 J -2.0313
G02 X 29.3372 Y 4.2982 Z -1.0000 I 0.0215 J 0.0527
G01 X 29.3298 Y 4.3171 Z -1.0000
G01 X 29.3239 Y 4.3225 Z -1.0000
G01 X 29.3102 Y 4.3088 Z -1.0000
G01 X 29.2950 Y 4.3148 Z -1.0000
G01 X 29.2866 Y 4.3214 Z -1.0000
G03 X 29.2636 Y 4.3251 Z -1.0000 I -0.0230 J -0.0709
G02 X 29.2427 Y 4.3292 Z -1.0000 I 0.0000 J 0.0554
G01 X 29.2385 Y 4.3353 Z -1.0000
G01 X 29.2349 Y 4.3420 Z -1.0000
G01 X 29.2226 Y 4.3456 Z -1.0000
G01 X 29.2086 Y 4.3498 Z -1.0000
G02 X 29.1815 Y 4.3728 Z -1.0000 I 0.0817 J 0.1237
G01 X 29.1563 Y 4.3892 Z -1.0000
G01 X 29.1382 Y 4.3758 Z -1.0000
G01 X 29.1079 Y 4.4043 Z -1.0000
G01 X 29.0987 Y 4.4125 Z -1.0000
G01 X 29.0753 Y 4.4128 Z -1.0000
G01 X 29.0638 Y 4.4167 Z -1.0000
G01 X 29.0706 Y 4.4277 Z -1.0000
G01 X 29.0666 Y 4.4394 Z -1.0000
G01 X 29.0539 Y 4.4433 Z -1.0000
G01 X 29.0337 Y 4.4334 Z -1.0000
G01 X 29.0162 Y 4.4291 Z -1.0000
G01 X 29.0010 Y 4.4419 Z -1.0000
G03 X 28.9854 Y 4.4639 Z -1.0000 I -0.0668 J -0.0306
G01 X 28.9723 Y 4.4696 Z -1.0000
G01 X 28.9569 Y 4.4731 Z -1.0000
G02 X 28.9252 Y 4.4900 Z -1.0000 I 0.0903 J 0.2084
G03 X 28.8535 Y 4.5259 Z -1.0000 I -0.2102 J -0.3298
G01 X 28.8304 Y 4.5259 Z -1.0000
G01 X 28.8241 Y 4.5269 Z -1.0000
G01 X 28.8232 Y 4.5318 Z -1.0000
G01 X 28.8191 Y 4.5485 Z -1.0000
G03 X 28.7737 Y 4.5611 Z -1.0000 I -0.0459 J -0.0775
G02 X 28.7487 Y 4.5646 Z -1.0000 I 0.0005 J 0.0956
G01 X 28.7453 Y 4.5690 Z -1.0000
G01 X 28.7421 Y 4.5747 Z -1.0000
G03 X 28.7068 Y 4.5936 Z -1.0000 I -0.1395 J -0.2181
G03 X 28.5460 Y 4.6614 Z -1.0000 I -2.3052 J -5.2452
G01 X 28.5322 Y 4.6641 Z -1.0000
G01 X 28.5231 Y 4.6667 Z -1.0000
G02 X 28.5105 Y 4.6778 Z -1.0000 I 0.0292 J 0.0458
G01 X 28.4971 Y 4.6885 Z -1.0000
G03 X 28.4579 Y 4.7051 Z -1.0000 I -0.1219 J -0.2337
G02 X 28.4201 Y 4.7212 Z -1.0000 I 0.0779 J 0.2356
G01 X 28.4167 Y 4.7269 Z -1.0000
G01 X 28.4132 Y 4.7321 Z -1.0000
G03 X 28.3799 Y 4.7419 Z -1.0000 I -0.0647 J -0.1582
G02 X 28.3467 Y 4.7531 Z -1.0000 I 0.0235 J 0.1251
G01 X 28.3377 Y 4.7630 Z -1.0000
G01 X 28.3286 Y 4.7716 Z -1.0000
G03 X 28.2923 Y 4.7771 Z -1.0000 I -0.0362 J -0.1164
G02 X 28.2588 Y 4.7835 Z -1.0000 I 0.0000 J 0.0898
G01 X 28.2523 Y 4.7932 Z -1.0000
G01 X 28.2468 Y 4.8016 Z -1.0000
G01 X 28.2310 Y 4.8025 Z -1.0000
G01 X 28.2111 Y 4.8020 Z -1.0000
G02 X 28.1903 Y 4.8133 Z -1.0000 I 0.0130 J 0.0487
G03 X 28.1694 Y 4.8252 Z -1.0000 I -0.0369 J -0.0407
G01 X 28.1503 Y 4.8256 Z -1.0000
G01 X 28.1353 Y 4.8261 Z -1.0000
G01 X 28.1320 Y 4.8318 Z -1.0000
G01 X 28.1289 Y 4.8395 Z -1.0000
G01 X 28.1111 Y 4.8469 Z -1.0000
G01 X 28.0941 Y 4.8556 Z -1.0000
G01 X 28.0880 Y 4.8706 Z -1.0000
G01 X 28.0815 Y 4.8799 Z -1.0000
G01 X 28.0658 Y 4.8789 Z -1.0000
G01 X 28.0455 Y 4.8760 Z -1.0000
G01 X 28.0273 Y 4.8873 Z -1.0000
G03 X 28.0080 Y 4.9030 Z -1.0000 I -0.0469 J -0.0379
G03 X 27.9629 Y 4.9204 Z -1.0000 I -0.1040 J -0.2020
G02 X 27.9229 Y 4.9374 Z -1.0000 I 0.0407 J 0.1512
G01 X 27.9198 Y 4.9464 Z -1.0000
G01 X 27.8977 Y 4.9864 Z -1.0000
G03 X 27.8414 Y 4.9618 Z -1.0000 I -0.0104 J -0.0530
G01 X 27.8350 Y 4.9598 Z -1.0000
G01 X 27.8271 Y 4.9679 Z -1.0000
G01 X 27.8260 Y 4.9840 Z -1.0000
G01 X 27.8334 Y 4.9943 Z -1.0000
G01 X 27.8369 Y 4.9999 Z -1.0000
G01 X 27.8344 Y 5.0028 Z -1.0000
G01 X 27.8237 Y 5.0001 Z -1.0000
G01 X 27.8155 Y 4.9922 Z -1.0000
G01 X 27.7923 Y 4.9819 Z -1.0000
G02 X 27.7593 Y 5.0023 Z -1.0000 I 0.0093 J 0.0520
G01 X 27.7530 Y 5.0077 Z -1.0000
G03 X 27.7182 Y 5.0235 Z -1.0000 I -0.1800 J -0.3504
G02 X 27.6831 Y 5.0389 Z -1.0000 I 0.1807 J 0.4582
G01 X 27.6771 Y 5.0434 Z -1.0000
G03 X 27.6454 Y 5.0670 Z -1.0000 I -0.0742 J -0.0666
G03 X 27.6105 Y 5.0748 Z -1.0000 I -0.0349 J -0.0742
G01 X 27.5982 Y 5.0781 Z -1.0000
G01 X 27.5949 Y 5.0838 Z -1.0000
G01 X 27.5910 Y 5.0895 Z -1.0000
G03 X 27.5538 Y 5.0994 Z -1.0000 I -0.0670 J -0.1768
G02 X 27.5185 Y 5.1108 Z -1.0000 I 0.0192 J 0.1195
G01 X 27.5127 Y 5.1201 Z -1.0000
G01 X 27.5023 Y 5.1364 Z -1.0000
G03 X 27.4548 Y 5.1468 Z -1.0000 I -0.0475 J -0.1033
G01 X 27.4382 Y 5.1517 Z -1.0000
G01 X 27.4367 Y 5.1587 Z -1.0000
G01 X 27.4359 Y 5.1624 Z -1.0000
G01 X 27.4310 Y 5.1625 Z -1.0000
G01 X 27.4195 Y 5.1607 Z -1.0000
G01 X 27.4096 Y 5.1680 Z -1.0000
G01 X 27.4000 Y 5.1736 Z -1.0000
G01 X 27.3863 Y 5.1691 Z -1.0000
G01 X 27.3748 Y 5.1673 Z -1.0000
G01 X 27.3660 Y 5.1775 Z -1.0000
G01 X 27.3557 Y 5.1919 Z -1.0000
G01 X 27.3351 Y 5.1982 Z -1.0000
G02 X 27.3118 Y 5.2025 Z -1.0000 I -0.0000 J 0.0660
G01 X 27.2980 Y 5.2123 Z -1.0000
G01 X 27.2839 Y 5.2220 Z -1.0000
G03 X 27.2352 Y 5.2332 Z -1.0000 I -0.0840 J -0.2539
G02 X 27.1919 Y 5.2470 Z -1.0000 I 0.0168 J 0.1274
G01 X 27.1840 Y 5.2602 Z -1.0000
G01 X 27.1766 Y 5.2730 Z -1.0000
G03 X 27.1496 Y 5.2804 Z -1.0000 I -0.0271 J -0.0461
G02 X 27.0978 Y 5.2880 Z -1.0000 I 0.0000 J 0.1789
G02 X 26.9888 Y 5.3290 Z -1.0000 I 0.2564 J 0.8479
G02 X 26.8630 Y 5.3888 Z -1.0000 I 1.5413 J 3.4038
G01 X 26.8575 Y 5.3945 Z -1.0000
G01 X 26.8529 Y 5.3975 Z -1.0000
G03 X 26.8266 Y 5.3963 Z -1.0000 I -0.0071 J -0.1235
G01 X 26.8145 Y 5.3986 Z -1.0000
G01 X 26.8142 Y 5.4037 Z -1.0000
G01 X 26.8138 Y 5.4088 Z -1.0000
G01 X 26.8013 Y 5.4111 Z -1.0000
G02 X 26.7781 Y 5.4124 Z -1.0000 I -0.0086 J 0.0528
G01 X 26.7731 Y 5.4191 Z -1.0000
G01 X 26.7682 Y 5.4257 Z -1.0000
G01 X 26.7486 Y 5.4270 Z -1.0000
G02 X 26.7263 Y 5.4271 Z -1.0000 I -0.0107 J 0.0554
G01 X 26.7172 Y 5.4336 Z -1.0000
G01 X 26.7163 Y 5.4414 Z -1.0000
G01 X 26.7211 Y 5.4448 Z -1.0000
G01 X 26.7288 Y 5.4479 Z -1.0000
G01 X 26.7320 Y 5.4553 Z -1.0000
G01 X 26.7280 Y 5.4585 Z -1.0000
G03 X 26.7082 Y 5.4503 Z -1.0000 I 0.0122 J -0.0573
G01 X 26.6840 Y 5.4441 Z -1.0000
G02 X 26.6444 Y 5.4552 Z -1.0000 I 0.0080 J 0.1045
G03 X 26.6036 Y 5.4727 Z -1.0000 I -0.1531 J -0.3003
G03 X 26.5866 Y 5.4757 Z -1.0000 I -0.0171 J -0.0483
G01 X 26.5707 Y 5.4791 Z -1.0000
G01 X 26.5619 Y 5.4868 Z -1.0000
G01 X 26.5531 Y 5.4932 Z -1.0000
G01 X 26.5360 Y 5.4930 Z -1.0000
G01 X 26.5208 Y 5.4951 Z -1.0000
G01 X 26.5106 Y 5.5080 Z -1.0000
G01 X 26.5005 Y 5.5206 Z -1.0000
G01 X 26.4863 Y 5.5222 Z -1.0000
G01 X 26.4697 Y 5.5229 Z -1.0000
G02 X 26.4417 Y 5.5410 Z -1.0000 I 0.0377 J 0.0890
G03 X 26.4153 Y 5.5571 Z -1.0000 I -0.0525 J -0.0566
G01 X 26.4040 Y 5.5545 Z -1.0000
G01 X 26.3930 Y 5.5503 Z -1.0000
G01 X 26.3806 Y 5.5557 Z -1.0000
G01 X 26.3670 Y 5.5649 Z -1.0000
G01 X 26.3514 Y 5.5681 Z -1.0000
G01 X 26.3363 Y 5.5721 Z -1.0000
G02 X 26.3165 Y 5.5879 Z -1.0000 I 0.0392 J 0.0690
G03 X 26.2968 Y 5.6035 Z -1.0000 I -0.0563 J -0.0511
G01 X 26.2816 Y 5.6071 Z -1.0000
G02 X 26.2227 Y 5.6192 Z -1.0000 I -0.0050 J 0.1248
G01 X 26.2079 Y 5.6423 Z -1.0000
G01 X 26.2049 Y 5.6453 Z -1.0000
G01 X 26.1995 Y 5.6424 Z -1.0000
G01 X 26.1891 Y 5.6372 Z -1.0000
G02 X 26.1587 Y 5.6457 Z -1.0000 I 0.0066 J 0.0825
G03 X 26.1263 Y 5.6573 Z -1.0000 I -0.0651 J -0.1310
G01 X 26.1157 Y 5.6555 Z -1.0000
G01 X 26.1092 Y 5.6559 Z -1.0000
G01 X 26.1053 Y 5.6640 Z -1.0000
G01 X 26.0920 Y 5.6843 Z -1.0000
G03 X 26.0537 Y 5.6862 Z -1.0000 I -0.0216 J -0.0504
G01 X 26.0291 Y 5.6944 Z -1.0000
G01 X 26.0281 Y 5.7220 Z -1.0000
G01 X 26.0184 Y 5.7445 Z -1.0000
G01 X 25.9776 Y 5.7321 Z -1.0000
G01 X 25.9664 Y 5.7253 Z -1.0000
G02 X 25.9466 Y 5.7223 Z -1.0000 I -0.0192 J 0.0606
G01 X 25.9394 Y 5.7264 Z -1.0000
G01 X 25.9407 Y 5.7321 Z -1.0000
G01 X 25.9397 Y 5.7447 Z -1.0000
G03 X 25.8839 Y 5.7559 Z -1.0000 I -0.0558 J -0.1328
G02 X 25.8310 Y 5.7626 Z -1.0000 I -0.0000 J 0.2119
G01 X 25.8201 Y 5.7724 Z -1.0000
G03 X 25.7934 Y 5.8047 Z -1.0000 I -0.0602 J -0.0227
G01 X 25.7699 Y 5.8030 Z -1.0000
G01 X 25.7589 Y 5.7990 Z -1.0000
G01 X 25.7518 Y 5.8030 Z -1.0000
G01 X 25.7499 Y 5.8118 Z -1.0000
G01 X 25.7535 Y 5.8172 Z -1.0000
G01 X 25.7480 Y 5.8182 Z -1.0000
G01 X 25.7237 Y 5.8207 Z -1.0000
G02 X 25.6762 Y 5.8531 Z -1.0000 I 0.0870 J 0.1787
G01 X 25.6387 Y 5.8657 Z -1.0000
G01 X 25.6216 Y 5.8480 Z -1.0000
G01 X 25.6132 Y 5.8557 Z -1.0000
G01 X 25.6008 Y 5.8739 Z -1.0000
G01 X 25.5830 Y 5.8789 Z -1.0000
G01 X 25.5636 Y 5.8818 Z -1.0000
G01 X 25.5547 Y 5.8911 Z -1.0000
G01 X 25.5465 Y 5.9000 Z -1.0000
G01 X 25.5354 Y 5.9006 Z -1.0000
G01 X 25.5249 Y 5.9020 Z -1.0000
G01 X 25.5154 Y 5.9154 Z -1.0000
G01 X 25.5041 Y 5.9296 Z -1.0000
G03 X 25.4708 Y 5.9416 Z -1.0000 I -0.0485 J -0.0827
G02 X 25.4343 Y 5.9521 Z -1.0000 I 0.0251 J 0.1552
G02 X 25.3932 Y 5.9746 Z -1.0000 I 0.0938 J 0.2204
G03 X 25.3528 Y 5.9958 Z -1.0000 I -0.1117 J -0.1638
G01 X 25.3357 Y 5.9968 Z -1.0000
G01 X 25.3201 Y 5.9981 Z -1.0000
G01 X 25.3063 Y 6.0102 Z -1.0000
G01 X 25.2916 Y 6.0233 Z -1.0000
G03 X 25.2534 Y 6.0354 Z -1.0000 I -0.0626 J -0.1319
G02 X 25.2147 Y 6.0450 Z -1.0000 I 0.0445 J 0.2613
G01 X 25.2117 Y 6.0492 Z -1.0000
G01 X 25.1989 Y 6.0693 Z -1.0000
G03 X 25.1440 Y 6.0817 Z -1.0000 I -0.0548 J -0.1147
G01 X 25.1342 Y 6.0852 Z -1.0000
G01 X 25.1261 Y 6.0966 Z -1.0000
G01 X 25.1167 Y 6.1070 Z -1.0000
G03 X 25.0839 Y 6.1182 Z -1.0000 I -0.0552 J -0.1078
G02 X 25.0512 Y 6.1283 Z -1.0000 I 0.0283 J 0.1497
G01 X 25.0474 Y 6.1342 Z -1.0000
G01 X 25.0445 Y 6.1404 Z -1.0000
G01 X 25.0364 Y 6.1433 Z -1.0000
G01 X 25.0264 Y 6.1460 Z -1.0000
G02 X 25.0100 Y 6.1587 Z -1.0000 I 0.0406 J 0.0696
G03 X 24.9929 Y 6.1711 Z -1.0000 I -0.0478 J -0.0478
G03 X 24.9670 Y 6.1806 Z -1.0000 I -0.0522 J -0.1025
G02 X 24.9410 Y 6.1903 Z -1.0000 I 0.0265 J 0.1116
G02 X 24.9056 Y 6.2123 Z -1.0000 I 0.1170 J 0.2266
G03 X 24.8710 Y 6.2322 Z -1.0000 I -0.1005 J -0.1349
G01 X 24.8583 Y 6.2324 Z -1.0000
G01 X 24.8464 Y 6.2330 Z -1.0000
G02 X 24.8277 Y 6.2474 Z -1.0000 I 0.0254 J 0.0521
G03 X 24.8096 Y 6.2614 Z -1.0000 I -0.0429 J -0.0369
G01 X 24.7999 Y 6.2609 Z -1.0000
G01 X 24.7897 Y 6.2597 Z -1.0000
G02 X 24.7717 Y 6.2702 Z -1.0000 I 0.0157 J 0.0477
G03 X 24.7530 Y 6.2841 Z -1.0000 I -0.0818 J -0.0902
G03 X 24.7287 Y 6.2962 Z -1.0000 I -0.0854 J -0.1411
G01 X 24.7213 Y 6.3033 Z -1.0000
G01 X 24.7238 Y 6.3073 Z -1.0000
G01 X 24.7254 Y 6.3118 Z -1.0000
G03 X 24.7007 Y 6.3280 Z -1.0000 I -0.0652 J -0.0728
G02 X 24.6612 Y 6.3505 Z -1.0000 I 0.1016 J 0.2239
G01 X 24.6570 Y 6.3585 Z -1.0000
G01 X 24.6526 Y 6.3648 Z -1.0000
G03 X 24.6268 Y 6.3693 Z -1.0000 I -0.0258 J -0.0720
G02 X 24.5988 Y 6.3732 Z -1.0000 I -0.0000 J 0.1040
G01 X 24.5903 Y 6.3796 Z -1.0000
G01 X 24.5818 Y 6.3860 Z -1.0000
G03 X 24.5548 Y 6.3899 Z -1.0000 I -0.0270 J -0.0925
G02 X 24.5294 Y 6.3952 Z -1.0000 I -0.0000 J 0.0633
G01 X 24.5198 Y 6.4053 Z -1.0000
G01 X 24.5101 Y 6.4153 Z -1.0000
G03 X 24.4843 Y 6.4207 Z -1.0000 I -0.0258 J -0.0595
G02 X 24.4572 Y 6.4262 Z -1.0000 I -0.0000 J 0.0689
G02 X 24.4362 Y 6.4412 Z -1.0000 I 0.0238 J 0.0557
G03 X 24.4160 Y 6.4582 Z -1.0000 I -0.0726 J -0.0657
G01 X 24.4038 Y 6.4618 Z -1.0000
G01 X 24.3935 Y 6.4653 Z -1.0000
G01 X 24.3899 Y 6.4726 Z -1.0000
G01 X 24.3855 Y 6.4806 Z -1.0000
G03 X 24.3344 Y 6.5080 Z -1.0000 I -0.2079 J -0.3269
G02 X 24.2809 Y 6.5350 Z -1.0000 I 0.2406 J 0.5440
G01 X 24.2722 Y 6.5434 Z -1.0000
G01 X 24.2635 Y 6.5507 Z -1.0000
G01 X 24.2455 Y 6.5542 Z -1.0000
G01 X 24.2300 Y 6.5587 Z -1.0000
G01 X 24.2252 Y 6.5671 Z -1.0000
G01 X 24.2120 Y 6.5910 Z -1.0000
G03 X 24.0997 Y 6.6514 Z -1.0000 I -0.3634 J -0.5406
G02 X 24.0687 Y 6.6706 Z -1.0000 I 0.0436 J 0.1048
G01 X 24.0584 Y 6.6874 Z -1.0000
G01 X 24.0475 Y 6.7013 Z -1.0000
G03 X 24.0205 Y 6.7083 Z -1.0000 I -0.0270 J -0.0487
G02 X 23.9963 Y 6.7129 Z -1.0000 I -0.0000 J 0.0656
G01 X 23.9945 Y 6.7186 Z -1.0000
G01 X 23.9936 Y 6.7249 Z -1.0000
G01 X 23.9838 Y 6.7288 Z -1.0000
G01 X 23.9679 Y 6.7321 Z -1.0000
G02 X 23.9395 Y 6.7477 Z -1.0000 I 0.0626 J 0.1471
G03 X 23.9115 Y 6.7652 Z -1.0000 I -0.1988 J -0.2872
G03 X 23.8943 Y 6.7731 Z -1.0000 I -0.0566 J -0.1009
G01 X 23.8809 Y 6.7828 Z -1.0000
G01 X 23.8763 Y 6.7961 Z -1.0000
G01 X 23.8699 Y 6.8047 Z -1.0000
G03 X 23.8445 Y 6.8057 Z -1.0000 I -0.0146 J -0.0486
G01 X 23.8243 Y 6.8093 Z -1.0000
G01 X 23.8199 Y 6.8216 Z -1.0000
G01 X 23.8173 Y 6.8384 Z -1.0000
G01 X 23.8082 Y 6.8382 Z -1.0000
G02 X 23.7833 Y 6.8579 Z -1.0000 I 0.0536 J 0.0933
G03 X 23.7578 Y 6.8776 Z -1.0000 I -0.0748 J -0.0703
G01 X 23.7459 Y 6.8785 Z -1.0000
G01 X 23.7367 Y 6.8793 Z -1.0000
G01 X 23.7325 Y 6.8868 Z -1.0000
G01 X 23.7273 Y 6.8970 Z -1.0000
G03 X 23.6763 Y 6.9277 Z -1.0000 I -0.2019 J -0.2775
G02 X 23.5814 Y 6.9889 Z -1.0000 I 0.2128 J 0.4345
G01 X 23.5682 Y 7.0169 Z -1.0000
G01 X 23.5640 Y 7.0229 Z -1.0000
G03 X 23.5245 Y 7.0335 Z -1.0000 I -0.0707 J -0.1849
G01 X 23.4941 Y 7.0449 Z -1.0000
G01 X 23.4977 Y 7.0645 Z -1.0000
G03 X 23.4166 Y 7.1086 Z -1.0000 I -0.1558 J -0.1898
G01 X 23.3782 Y 7.1279 Z -1.0000
G01 X 23.3763 Y 7.1702 Z -1.0000
G03 X 23.2895 Y 7.2014 Z -1.0000 I -0.0868 J -0.1048
G01 X 23.2676 Y 7.2086 Z -1.0000
G01 X 23.2581 Y 7.2244 Z -1.0000
G01 X 23.2494 Y 7.2435 Z -1.0000
G03 X 23.2266 Y 7.2610 Z -1.0000 I -0.0530 J -0.0457
G02 X 23.2019 Y 7.2767 Z -1.0000 I 0.0517 J 0.1085
G01 X 23.1983 Y 7.2842 Z -1.0000
G01 X 23.1946 Y 7.2901 Z -1.0000
G01 X 23.1778 Y 7.2939 Z -1.0000
G01 X 23.1617 Y 7.2984 Z -1.0000
G01 X 23.1569 Y 7.3067 Z -1.0000
G01 X 23.1523 Y 7.3172 Z -1.0000
G03 X 23.1235 Y 7.3403 Z -1.0000 I -0.1157 J -0.1153
G02 X 23.0959 Y 7.3645 Z -1.0000 I 0.0616 J 0.0982
G01 X 23.0872 Y 7.3841 Z -1.0000
G01 X 23.0804 Y 7.3997 Z -1.0000
G01 X 23.0737 Y 7.4009 Z -1.0000
G01 X 23.0428 Y 7.4043 Z -1.0000
G02 X 23.0237 Y 7.4496 Z -1.0000 I 0.0440 J 0.0453
G01 X 23.0188 Y 7.4636 Z -1.0000
G01 X 23.0084 Y 7.4685 Z -1.0000
G01 X 22.9959 Y 7.4738 Z -1.0000
G02 X 22.9468 Y 7.5322 Z -1.0000 I 0.3912 J 0.3787
G01 X 22.9004 Y 7.5870 Z -1.0000
G01 X 22.8628 Y 7.6157 Z -1.0000
G03 X 22.8240 Y 7.6508 Z -1.0000 I -0.3636 J -0.3636
G01 X 22.8165 Y 7.6534 Z -1.0000
G01 X 22.8106 Y 7.6561 Z -1.0000
G01 X 22.8079 Y 7.6632 Z -1.0000
G01 X 22.8053 Y 7.6720 Z -1.0000
G03 X 22.7848 Y 7.6987 Z -1.0000 I -0.1819 J -0.1185
G02 X 22.7619 Y 7.7246 Z -1.0000 I 1.5972 J 1.4377
G02 X 22.7262 Y 7.7659 Z -1.0000 I 4.0915 J 3.5656
G03 X 22.6887 Y 7.8031 Z -1.0000 I -0.2429 J -0.2074
G01 X 22.6767 Y 7.8075 Z -1.0000
G01 X 22.6696 Y 7.8125 Z -1.0000
G01 X 22.6692 Y 7.8280 Z -1.0000
G01 X 22.6672 Y 7.8446 Z -1.0000
G01 X 22.6495 Y 7.8604 Z -1.0000
G02 X 22.6276 Y 7.8768 Z -1.0000 I 0.0267 J 0.0585
G02 X 22.6051 Y 7.9116 Z -1.0000 I 0.1112 J 0.0963
G03 X 22.5826 Y 7.9439 Z -1.0000 I -0.1014 J -0.0467
G01 X 22.5656 Y 7.9511 Z -1.0000
G01 X 22.5495 Y 7.9587 Z -1.0000
G02 X 22.5304 Y 7.9928 Z -1.0000 I 0.0790 J 0.0665
G03 X 22.5128 Y 8.0260 Z -1.0000 I -0.1058 J -0.0349
G01 X 22.5026 Y 8.0289 Z -1.0000
G01 X 22.4940 Y 8.0324 Z -1.0000
G01 X 22.4946 Y 8.0410 Z -1.0000
G03 X 22.4791 Y 8.0673 Z -1.0000 I -0.1077 J -0.0459
G02 X 22.4613 Y 8.0941 Z -1.0000 I 0.1547 J 0.1216
G01 X 22.4587 Y 8.1044 Z -1.0000
G01 X 22.4555 Y 8.1125 Z -1.0000
G01 X 22.4480 Y 8.1157 Z -1.0000
G01 X 22.4383 Y 8.1184 Z -1.0000
G02 X 22.4164 Y 8.1351 Z -1.0000 I 0.0750 J 0.1212
G01 X 22.4048 Y 8.1537 Z -1.0000
G01 X 22.4081 Y 8.1624 Z -1.0000
G01 X 22.4112 Y 8.1705 Z -1.0000
G01 X 22.4018 Y 8.1840 Z -1.0000
G01 X 22.3919 Y 8.1978 Z -1.0000
G01 X 22.3810 Y 8.2129 Z -1.0000
G01 X 22.3720 Y 8.2245 Z -1.0000
G01 X 22.3745 Y 8.2283 Z -1.0000
G01 X 22.3790 Y 8.2388 Z -1.0000
G01 X 22.3553 Y 8.2492 Z -1.0000
G01 X 22.3416 Y 8.2595 Z -1.0000
G01 X 22.3482 Y 8.2737 Z -1.0000
G01 X 22.3456 Y 8.2785 Z -1.0000
G02 X 22.3163 Y 8.2847 Z -1.0000 I -0.0033 J 0.0568
G01 X 22.3142 Y 8.2947 Z -1.0000
G01 X 22.3166 Y 8.3075 Z -1.0000
G01 X 22.3056 Y 8.3206 Z -1.0000
G01 X 22.2916 Y 8.3343 Z -1.0000
G01 X 22.2907 Y 8.3470 Z -1.0000
G01 X 22.2889 Y 8.3570 Z -1.0000
G01 X 22.2774 Y 8.3622 Z -1.0000
G01 X 22.2644 Y 8.3686 Z -1.0000
G01 X 22.2568 Y 8.3886 Z -1.0000
G01 X 22.2606 Y 8.4076 Z -1.0000
G01 X 22.2671 Y 8.4101 Z -1.0000
G02 X 22.2789 Y 8.4051 Z -1.0000 I -3.1660 J -7.6218
G03 X 22.3354 Y 8.3816 Z -1.0000 I 32.2114 J 77.2083
G02 X 22.3910 Y 8.3568 Z -1.0000 I -0.4569 J -1.0975
G01 X 22.3970 Y 8.3522 Z -1.0000
G01 X 22.4030 Y 8.3475 Z -1.0000
G03 X 22.4484 Y 8.3266 Z -1.0000 I 0.3658 J 0.7339
G02 X 22.4937 Y 8.3054 Z -1.0000 I -0.2672 J -0.6297
G02 X 22.5100 Y 8.2950 Z -1.0000 I -0.0471 J -0.0917
G03 X 22.5267 Y 8.2852 Z -1.0000 I 0.0458 J 0.0590
G03 X 22.6128 Y 8.2515 Z -1.0000 I 0.6554 J 1.5469
G02 X 22.6995 Y 8.2186 Z -1.0000 I -0.9336 J -2.5930
G02 X 22.7309 Y 8.2044 Z -1.0000 I -0.1422 J -0.3569
G03 X 22.9487 Y 8.1049 Z -1.0000 I 1.3345 J 2.6311
G03 X 22.9981 Y 8.0951 Z -1.0000 I 0.0494 J 0.1208
G01 X 23.0097 Y 8.0923 Z -1.0000
G02 X 23.0363 Y 8.0749 Z -1.0000 I -0.0832 J -0.1571
G03 X 23.0838 Y 8.0471 Z -1.0000 I 0.1258 J 0.1600
G03 X 23.2497 Y 7.9859 Z -1.0000 I 0.8109 J 1.9426
G02 X 23.2951 Y 7.9690 Z -1.0000 I -0.1701 J -0.5275
G02 X 23.3575 Y 7.9403 Z -1.0000 I -0.4285 J -1.0153
G03 X 23.4195 Y 7.9113 Z -1.0000 I 0.6453 J 1.2968
G01 X 23.4266 Y 7.9099 Z -1.0000
G02 X 23.4639 Y 7.9021 Z -1.0000 I 0.0031 J -0.0786
G02 X 23.5784 Y 7.8363 Z -1.0000 I -0.4098 J -0.8453
G03 X 23.6159 Y 7.8154 Z -1.0000 I 0.1439 J 0.2138
G03 X 23.6760 Y 7.7921 Z -1.0000 I 0.2396 J 0.5291
G02 X 23.7361 Y 7.7691 Z -1.0000 I -0.1914 J -0.5888
G02 X 23.7621 Y 7.7539 Z -1.0000 I -0.0554 J -0.1246
G03 X 23.7878 Y 7.7391 Z -1.0000 I 0.0738 J 0.0991
G01 X 23.8052 Y 7.7356 Z -1.0000
G01 X 23.8230 Y 7.7322 Z -1.0000
G02 X 23.8937 Y 7.7007 Z -1.0000 I -0.3255 J -0.8246
G03 X 24.0690 Y 7.6166 Z -1.0000 I 2.6745 J 5.3518
G03 X 24.1789 Y 7.5695 Z -1.0000 I 0.9459 J 2.0574
G02 X 24.2287 Y 7.5469 Z -1.0000 I -0.2078 J -0.5231
G02 X 24.2881 Y 7.5134 Z -1.0000 I -0.4010 J -0.7793
G03 X 24.3484 Y 7.4821 Z -1.0000 I 0.2366 J 0.3833
G03 X 24.4751 Y 7.4339 Z -1.0000 I 0.7004 J 1.6477
G02 X 24.6026 Y 7.3879 Z -1.0000 I -1.1095 J -3.2794
G02 X 24.6176 Y 7.3793 Z -1.0000 I -0.0201 J -0.0526
G03 X 24.6591 Y 7.3543 Z -1.0000 I 0.1164 J 0.1458
G03 X 24.7803 Y 7.3080 Z -1.0000 I 0.5392 J 1.2293
G02 X 24.8263 Y 7.2922 Z -1.0000 I -0.5152 J -1.5779
G02 X 24.8470 Y 7.2840 Z -1.0000 I -0.1263 J -0.3517
G03 X 24.9451 Y 7.2478 Z -1.0000 I 0.4083 J 0.9534
G03 X 24.9795 Y 7.2425 Z -1.0000 I 0.0345 J 0.1099
G02 X 25.0017 Y 7.2381 Z -1.0000 I 0.0000 J -0.0577
G01 X 25.0165 Y 7.2271 Z -1.0000
G03 X 25.0309 Y 7.2150 Z -1.0000 I 0.0404 J 0.0333
G01 X 25.0433 Y 7.2117 Z -1.0000
G01 X 25.0566 Y 7.2089 Z -1.0000
G02 X 25.1576 Y 7.1613 Z -1.0000 I -0.9050 J -2.0536
G03 X 25.3664 Y 7.0656 Z -1.0000 I 1.4718 J 2.9350
G03 X 25.4065 Y 7.0576 Z -1.0000 I 0.0401 J 0.0963
G02 X 25.4705 Y 7.0446 Z -1.0000 I -0.0000 J -0.1643
G02 X 25.6410 Y 6.9584 Z -1.0000 I -0.5478 J -1.2954
G03 X 25.8754 Y 6.8347 Z -1.0000 I 1.3409 J 2.2572
G03 X 25.9360 Y 6.8213 Z -1.0000 I 0.0606 J 0.1303
G01 X 25.9479 Y 6.8186 Z -1.0000
G01 X 25.9531 Y 6.8132 Z -1.0000
G03 X 25.9858 Y 6.7753 Z -1.0000 I 0.0745 J 0.0312
G03 X 26.0416 Y 6.7597 Z -1.0000 I 0.0558 J 0.0925
G01 X 26.0520 Y 6.7575 Z -1.0000
G02 X 26.2202 Y 6.6791 Z -1.0000 I -3.2136 J -7.1116
G03 X 26.3882 Y 6.5989 Z -1.0000 I 13.5699 J 28.2197
G03 X 26.4393 Y 6.5753 Z -1.0000 I 1.2619 J 2.6646
G02 X 26.4894 Y 6.5502 Z -1.0000 I -0.2791 J -0.6199
G02 X 26.5066 Y 6.5381 Z -1.0000 I -0.0468 J -0.0845
G03 X 26.7953 Y 6.3421 Z -1.0000 I 0.9045 J 1.0216
G03 X 26.9823 Y 6.2975 Z -1.0000 I 0.1870 J 0.3697
G01 X 26.9875 Y 6.2961 Z -1.0000
G02 X 27.0248 Y 6.2725 Z -1.0000 I -0.3414 J -0.5819
G03 X 27.0632 Y 6.2509 Z -1.0000 I 0.1456 J 0.2145
G03 X 27.1299 Y 6.2248 Z -1.0000 I 0.2824 J 0.6222
G02 X 27.1971 Y 6.1997 Z -1.0000 I -0.3169 J -0.9522
G02 X 27.2298 Y 6.1834 Z -1.0000 I -0.1001 J -0.2416
G03 X 27.2624 Y 6.1666 Z -1.0000 I 0.1627 J 0.2759
G03 X 27.3075 Y 6.1488 Z -1.0000 I 0.2279 J 0.5125
G02 X 27.3533 Y 6.1323 Z -1.0000 I -0.5096 J -1.4825
G02 X 27.3741 Y 6.1237 Z -1.0000 I -0.1261 J -0.3329
G03 X 27.3948 Y 6.1147 Z -1.0000 I 0.2920 J 0.6469
G03 X 27.4717 Y 6.0833 Z -1.0000 I 3.3722 J 8.1529
G02 X 27.7176 Y 5.9712 Z -1.0000 I -1.1193 J -2.7802
G02 X 27.7595 Y 5.9361 Z -1.0000 I -0.0559 J -0.1092
G01 X 27.7661 Y 5.9305 Z -1.0000
G03 X 27.9264 Y 5.8503 Z -1.0000 I 3.9606 J 7.7206
G02 X 28.0861 Y 5.7695 Z -1.0000 I -2.5439 J -5.2223
G01 X 28.0938 Y 5.7623 Z -1.0000
G01 X 28.1014 Y 5.7563 Z -1.0000
G03 X 28.1200 Y 5.7530 Z -1.0000 I 0.0187 J 0.0524
G02 X 28.1963 Y 5.7369 Z -1.0000 I -0.0000 J -0.1881
G02 X 28.2374 Y 5.7010 Z -1.0000 I -0.0375 J -0.0845
G01 X 28.2367 Y 5.6930 Z -1.0000
G01 X 28.2226 Y 5.6844 Z -1.0000
G01 X 28.2191 Y 5.6626 Z -1.0000
G03 X 28.3352 Y 5.6109 Z -1.0000 I 0.2189 J 0.3356
G02 X 28.4110 Y 5.5886 Z -1.0000 I -0.3702 J -1.3943
G02 X 28.5400 Y 5.5444 Z -1.0000 I -1.3255 J -4.0775
G03 X 28.6685 Y 5.4982 Z -1.0000 I 24.6678 J 68.3959
G03 X 28.7044 Y 5.4854 Z -1.0000 I 1.9066 J 5.3176
G02 X 28.7410 Y 5.4711 Z -1.0000 I -0.1881 J -0.5359
G02 X 28.9561 Y 5.3770 Z -1.0000 I -7.9897 J -18.5472
G02 X 28.9965 Y 5.3575 Z -1.0000 I -0.2856 J -0.6423
G02 X 29.0331 Y 5.3367 Z -1.0000 I -0.2852 J -0.5447
G03 X 29.1444 Y 5.2738 Z -1.0000 I 0.9100 J 1.4819
G03 X 29.1991 Y 5.2508 Z -1.0000 I 0.1723 J 0.3332
G02 X 29.2335 Y 5.2350 Z -1.0000 I -0.0523 J -0.1591
G01 X 29.2419 Y 5.2250 Z -1.0000
G03 X 29.2684 Y 5.1971 Z -1.0000 I 0.0468 J 0.0180
G03 X 29.4204 Y 5.1459 Z -1.0000 I 0.3534 J 0.7971
G02 X 29.5067 Y 5.1237 Z -1.0000 I -0.5630 J -2.3705
G02 X 29.5347 Y 5.1143 Z -1.0000 I -0.0715 J -0.2585
G02 X 29.5621 Y 5.1033 Z -1.0000 I -2.2251 J -5.6072
G02 X 29.5827 Y 5.0950 Z -1.0000 I -68.6909 J -170.6543
G03 X 29.6054 Y 5.0872 Z -1.0000 I 0.0898 J 0.2236
G03 X 29.8344 Y 5.0221 Z -1.0000 I 6.5111 J 22.4609
G02 X 29.9114 Y 5.0004 Z -1.0000 I -3.6271 J -13.0015
G02 X 29.9412 Y 4.9916 Z -1.0000 I -0.5486 J -1.9225
G03 X 29.9714 Y 4.9851 Z -1.0000 I 0.0531 J 0.1741
G03 X 30.0112 Y 4.9826 Z -1.0000 I 0.0399 J 0.3132
G02 X 30.0505 Y 4.9788 Z -1.0000 I -0.0000 J -0.2054
G02 X 30.0739 Y 4.9704 Z -1.0000 I -0.0158 J -0.0809
G03 X 30.3331 Y 4.8601 Z -1.0000 I 0.7126 J 1.3149
G03 X 30.7127 Y 4.7672 Z -1.0000 I 0.8726 J 2.7433
G02 X 30.7742 Y 4.7561 Z -1.0000 I -0.7878 J -4.5266
G02 X 30.8000 Y 4.7508 Z -1.0000 I -0.1486 J -0.7897
G03 X 31.0288 Y 4.7149 Z -1.0000 I 0.3977 J 1.7880
G03 X 31.3445 Y 4.7004 Z -1.0000 I 0.3147 J 3.3962
G03 X 31.6090 Y 4.7187 Z -1.0000 I -0.0005 J 1.9217
G03 X 31.9043 Y 4.7783 Z -1.0000 I -0.3420 J 2.4560
G02 X 32.0584 Y 4.8193 Z -1.0000 I 110.2001 J -414.3483
G02 X 32.0944 Y 4.8288 Z -1.0000 I 6.4198 J -24.1746
G02 X 32.1307 Y 4.8356 Z -1.0000 I 0.0643 J -0.2445
G02 X 32.1820 Y 4.8385 Z -1.0000 I 0.0530 J -0.4754
G03 X 32.2322 Y 4.8434 Z -1.0000 I -0.0013 J 0.2748
G03 X 32.2539 Y 4.8523 Z -1.0000 I -0.0110 J 0.0577
G02 X 32.3208 Y 4.8825 Z -1.0000 I 0.1243 J -0.1861
G02 X 32.4946 Y 4.9162 Z -1.0000 I 0.3336 J -1.2571
G03 X 32.6216 Y 4.9338 Z -1.0000 I -0.5540 J 4.4584
G03 X 32.6586 Y 4.9414 Z -1.0000 I -0.0576 J 0.3756
G03 X 32.7822 Y 4.9766 Z -1.0000 I -0.6081 J 2.3641
G03 X 32.8941 Y 5.0154 Z -1.0000 I -0.6217 J 1.9788
G03 X 32.9991 Y 5.0584 Z -1.0000 I -0.7245 J 1.9154
G03 X 33.0380 Y 5.0791 Z -1.0000 I -0.1246 J 0.2812
G02 X 33.0771 Y 5.0979 Z -1.0000 I 0.1039 J -0.1656
G02 X 33.1233 Y 5.1090 Z -1.0000 I 0.0775 J -0.2207
G03 X 33.1699 Y 5.1194 Z -1.0000 I -0.0383 J 0.2804
G03 X 33.2063 Y 5.1352 Z -1.0000 I -0.0577 J 0.1836
G02 X 33.2432 Y 5.1497 Z -1.0000 I 0.0716 J -0.1275
G02 X 33.3382 Y 5.1675 Z -1.0000 I 0.2076 J -0.8478
G03 X 33.4908 Y 5.1992 Z -1.0000 I -0.1331 J 1.0243
G03 X 33.5536 Y 5.2295 Z -1.0000 I -0.0573 J 0.1990
G02 X 33.5824 Y 5.2481 Z -1.0000 I 0.2172 J -0.3050
G01 X 33.5882 Y 5.2496 Z -1.0000
G01 X 33.5937 Y 5.2517 Z -1.0000
G03 X 33.6583 Y 5.3113 Z -1.0000 I -1.2511 J 1.4210
G02 X 33.7229 Y 5.3708 Z -1.0000 I 1.2879 J -1.3327
G01 X 33.7285 Y 5.3729 Z -1.0000
G01 X 33.7342 Y 5.3746 Z -1.0000
G03 X 33.7555 Y 5.3909 Z -1.0000 I -0.1152 J 0.1732
G03 X 33.8532 Y 5.4804 Z -1.0000 I -1.7025 J 1.9567
G03 X 33.8679 Y 5.4992 Z -1.0000 I -0.0588 J 0.0610
G02 X 33.8781 Y 5.5134 Z -1.0000 I 0.0735 J -0.0420
G02 X 33.9742 Y 5.6191 Z -1.0000 I 4.2433 J -3.7665
G03 X 34.0684 Y 5.7257 Z -1.0000 I -1.8752 J 1.7506
G03 X 34.0801 Y 5.7459 Z -1.0000 I -0.0530 J 0.0443
G02 X 34.0911 Y 5.7660 Z -1.0000 I 0.0749 J -0.0281
G01 X 34.1032 Y 5.7765 Z -1.0000
G01 X 34.1081 Y 5.7973 Z -1.0000
G01 X 34.0749 Y 5.8177 Z -1.0000
G03 X 34.0276 Y 5.8117 Z -1.0000 I -0.0123 J -0.0921
G01 X 34.0153 Y 5.7935 Z -1.0000
G01 X 34.0113 Y 5.7776 Z -1.0000
G01 X 34.0044 Y 5.7735 Z -1.0000
G01 X 33.9989 Y 5.7705 Z -1.0000
G01 X 33.9988 Y 5.7649 Z -1.0000
G01 X 33.9982 Y 5.7575 Z -1.0000
G02 X 33.9637 Y 5.7264 Z -1.0000 I -0.1753 J 0.1593
G03 X 33.9275 Y 5.6944 Z -1.0000 I 0.1661 J -0.2245
G01 X 33.9231 Y 5.6837 Z -1.0000
G01 X 33.9087 Y 5.6508 Z -1.0000
G02 X 33.8647 Y 5.6277 Z -1.0000 I -0.0619 J 0.0646
G01 X 33.8522 Y 5.6195 Z -1.0000
G01 X 33.8490 Y 5.6052 Z -1.0000
G01 X 33.8474 Y 5.5938 Z -1.0000
G01 X 33.8427 Y 5.5925 Z -1.0000
G01 X 33.8343 Y 5.5922 Z -1.0000
G03 X 33.8102 Y 5.5686 Z -1.0000 I 0.0713 J -0.0966
G02 X 33.7853 Y 5.5460 Z -1.0000 I -0.0737 J 0.0565
G01 X 33.7716 Y 5.5447 Z -1.0000
G01 X 33.7579 Y 5.5439 Z -1.0000
G03 X 33.7369 Y 5.5260 Z -1.0000 I 0.0313 J -0.0581
G01 X 33.7268 Y 5.5273 Z -1.0000
G01 X 33.7275 Y 5.5472 Z -1.0000
G01 X 33.7293 Y 5.5630 Z -1.0000
G01 X 33.7206 Y 5.5726 Z -1.0000
G03 X 33.6491 Y 5.5792 Z -1.0000 I -0.0475 J -0.1241
G03 X 33.5774 Y 5.5462 Z -1.0000 I 0.0289 J -0.1572
G01 X 33.5688 Y 5.5457 Z -1.0000
G01 X 33.5606 Y 5.5569 Z -1.0000
G01 X 33.5631 Y 5.5684 Z -1.0000
G01 X 33.5722 Y 5.5708 Z -1.0000
G01 X 33.5814 Y 5.5732 Z -1.0000
G01 X 33.5791 Y 5.5818 Z -1.0000
G01 X 33.5862 Y 5.5966 Z -1.0000
G01 X 33.5825 Y 5.6330 Z -1.0000
G03 X 33.5254 Y 5.6456 Z -1.0000 I -0.0412 J -0.0511
G02 X 33.5056 Y 5.6440 Z -1.0000 I -0.0146 J 0.0582
G01 X 33.5028 Y 5.6475 Z -1.0000
G03 X 33.4990 Y 5.6820 Z -1.0000 I -0.0641 J 0.0103
G01 X 33.4852 Y 5.6914 Z -1.0000
G01 X 33.4760 Y 5.6964 Z -1.0000
G01 X 33.4749 Y 5.7076 Z -1.0000
G01 X 33.4742 Y 5.7171 Z -1.0000
G01 X 33.4683 Y 5.7193 Z -1.0000
G01 X 33.4602 Y 5.7118 Z -1.0000
G01 X 33.4576 Y 5.6944 Z -1.0000
G02 X 33.4407 Y 5.6457 Z -1.0000 I -0.0601 J -0.0064
G02 X 33.3715 Y 5.6066 Z -1.0000 I -0.1027 J 0.1007
G01 X 33.3579 Y 5.6089 Z -1.0000
G01 X 33.3553 Y 5.6172 Z -1.0000
G01 X 33.3548 Y 5.6252 Z -1.0000
G01 X 33.3506 Y 5.6264 Z -1.0000
G01 X 33.3308 Y 5.6369 Z -1.0000
G02 X 33.3483 Y 5.6841 Z -1.0000 I 0.0656 J 0.0026
G03 X 33.3650 Y 5.7067 Z -1.0000 I -0.0929 J 0.0866
G01 X 33.3681 Y 5.7182 Z -1.0000
G01 X 33.3722 Y 5.7278 Z -1.0000
G01 X 33.3861 Y 5.7356 Z -1.0000
G01 X 33.3705 Y 5.7415 Z -1.0000
G02 X 33.2966 Y 5.7609 Z -1.0000 I 0.0060 J 0.1731
G02 X 33.2503 Y 5.8039 Z -1.0000 I 0.0549 J 0.1055
G01 X 33.2417 Y 5.8111 Z -1.0000
G01 X 33.2237 Y 5.8146 Z -1.0000
G01 X 33.2077 Y 5.8185 Z -1.0000
G01 X 33.2038 Y 5.8249 Z -1.0000
G01 X 33.1991 Y 5.8306 Z -1.0000
G03 X 33.1524 Y 5.8352 Z -1.0000 I -0.0467 J -0.2353
G03 X 33.1048 Y 5.8314 Z -1.0000 I -0.0000 J -0.3013
G01 X 33.1011 Y 5.8270 Z -1.0000
G01 X 33.0887 Y 5.8162 Z -1.0000
G02 X 33.0220 Y 5.8380 Z -1.0000 I 0.0281 J 0.1990
G03 X 32.9881 Y 5.8519 Z -1.0000 I -0.0834 J -0.1555
G03 X 32.9618 Y 5.8557 Z -1.0000 I -0.0263 J -0.0899
G01 X 32.9439 Y 5.8623 Z -1.0000
G01 X 32.9409 Y 5.8737 Z -1.0000
G01 X 32.9271 Y 5.8660 Z -1.0000
G01 X 32.9025 Y 5.8497 Z -1.0000
G02 X 32.8304 Y 5.8403 Z -1.0000 I -0.0721 J 0.2714
G02 X 32.7604 Y 5.8440 Z -1.0000 I -0.0000 J 0.6524
G01 X 32.7585 Y 5.8480 Z -1.0000
G01 X 32.7648 Y 5.8528 Z -1.0000
G02 X 32.7843 Y 5.8557 Z -1.0000 I 0.0195 J -0.0649
G01 X 32.7976 Y 5.8610 Z -1.0000
G01 X 32.7997 Y 5.8704 Z -1.0000
G01 X 32.7995 Y 5.8843 Z -1.0000
G02 X 32.8137 Y 5.9101 Z -1.0000 I 0.0852 J -0.0300
G01 X 32.8201 Y 5.9350 Z -1.0000
G01 X 32.8086 Y 5.9417 Z -1.0000
G01 X 32.7971 Y 5.9427 Z -1.0000
G02 X 32.7747 Y 5.9629 Z -1.0000 I 0.0470 J 0.0748
G03 X 32.7520 Y 5.9851 Z -1.0000 I -0.0950 J -0.0747
G01 X 32.7395 Y 5.9892 Z -1.0000
G01 X 32.7263 Y 5.9927 Z -1.0000
G02 X 32.7012 Y 6.0113 Z -1.0000 I 0.0680 J 0.1182
G01 X 32.6764 Y 6.0225 Z -1.0000
G01 X 32.6489 Y 6.0164 Z -1.0000
G02 X 32.6149 Y 6.0069 Z -1.0000 I -0.0347 J 0.0587
G01 X 32.5932 Y 6.0158 Z -1.0000
G01 X 32.5774 Y 6.0204 Z -1.0000
G01 X 32.5572 Y 6.0081 Z -1.0000
G01 X 32.5370 Y 5.9940 Z -1.0000
G01 X 32.5245 Y 5.9969 Z -1.0000
G01 X 32.5204 Y 6.0061 Z -1.0000
G01 X 32.5238 Y 6.0097 Z -1.0000
G01 X 32.5322 Y 6.0137 Z -1.0000
G01 X 32.5361 Y 6.0245 Z -1.0000
G01 X 32.5248 Y 6.0473 Z -1.0000
G01 X 32.5075 Y 6.0461 Z -1.0000
G01 X 32.5065 Y 6.0401 Z -1.0000
G01 X 32.5159 Y 6.0299 Z -1.0000
G01 X 32.5189 Y 6.0202 Z -1.0000
G01 X 32.5087 Y 6.0240 Z -1.0000
G02 X 32.4848 Y 6.0508 Z -1.0000 I 0.1101 J 0.1223
G03 X 32.4585 Y 6.0733 Z -1.0000 I -0.0582 J -0.0415
G03 X 32.4232 Y 6.0816 Z -1.0000 I -0.0354 J -0.0707
G02 X 32.3857 Y 6.0868 Z -1.0000 I -0.0000 J 0.1397
G01 X 32.3681 Y 6.0971 Z -1.0000
G03 X 32.3341 Y 6.1117 Z -1.0000 I -0.0355 J -0.0355
G01 X 32.3145 Y 6.0987 Z -1.0000
G01 X 32.3056 Y 6.0899 Z -1.0000
G02 X 32.2725 Y 6.0835 Z -1.0000 I -0.0372 J 0.1035
G03 X 32.2372 Y 6.0787 Z -1.0000 I 0.0069 J -0.1828
G01 X 32.2235 Y 6.0719 Z -1.0000
G02 X 32.1691 Y 6.0570 Z -1.0000 I -0.0437 J 0.0526
G01 X 32.1458 Y 6.0842 Z -1.0000
G01 X 32.1428 Y 6.0995 Z -1.0000
G01 X 32.1381 Y 6.1029 Z -1.0000
G02 X 32.1305 Y 6.1040 Z -1.0000 I 0.0129 J 0.1253
G02 X 32.1105 Y 6.1074 Z -1.0000 I 0.1977 J 1.1980
G03 X 32.0911 Y 6.1083 Z -1.0000 I -0.0126 J -0.0657
G01 X 32.0796 Y 6.1043 Z -1.0000
G02 X 32.0683 Y 6.0987 Z -1.0000 I -0.0365 J 0.0592
G01 X 32.0585 Y 6.0962 Z -1.0000
G02 X 32.0483 Y 6.0950 Z -1.0000 I -0.2854 J 2.2798
G02 X 32.0348 Y 6.0934 Z -1.0000 I -0.1316 J 1.0914
G01 X 32.0279 Y 6.0887 Z -1.0000
G01 X 32.0283 Y 6.0807 Z -1.0000
G01 X 32.0371 Y 6.0744 Z -1.0000
G01 X 32.0546 Y 6.0746 Z -1.0000
G01 X 32.0609 Y 6.0675 Z -1.0000
G01 X 32.0441 Y 6.0478 Z -1.0000
G02 X 32.0088 Y 6.0348 Z -1.0000 I -0.0536 J 0.0907
G01 X 32.0021 Y 6.0404 Z -1.0000
G01 X 32.0058 Y 6.0471 Z -1.0000
G01 X 32.0200 Y 6.0514 Z -1.0000
G01 X 32.0241 Y 6.0548 Z -1.0000
G01 X 32.0219 Y 6.0591 Z -1.0000
G02 X 31.9621 Y 6.1006 Z -1.0000 I 0.0740 J 0.1706
G01 X 31.9568 Y 6.1266 Z -1.0000
G01 X 31.9474 Y 6.1503 Z -1.0000
G01 X 31.9177 Y 6.1451 Z -1.0000
G01 X 31.9183 Y 6.1408 Z -1.0000
G01 X 31.9278 Y 6.1396 Z -1.0000
G01 X 31.9378 Y 6.1339 Z -1.0000
G02 X 31.9381 Y 6.1020 Z -1.0000 I -0.0604 J -0.0164
G03 X 31.9343 Y 6.0616 Z -1.0000 I 0.1259 J -0.0321
G01 X 31.9415 Y 6.0489 Z -1.0000
G01 X 31.9250 Y 6.0456 Z -1.0000
G01 X 31.8938 Y 6.0541 Z -1.0000
G02 X 31.8761 Y 6.1405 Z -1.0000 I 0.7202 J 0.1921
G01 X 31.8802 Y 6.1491 Z -1.0000
G01 X 31.8857 Y 6.1644 Z -1.0000
G01 X 31.8724 Y 6.1721 Z -1.0000
G01 X 31.8613 Y 6.1638 Z -1.0000
G03 X 31.8529 Y 6.1345 Z -1.0000 I 0.0685 J -0.0353
G01 X 31.8291 Y 6.1117 Z -1.0000
G01 X 31.8070 Y 6.1329 Z -1.0000
G03 X 31.8026 Y 6.1573 Z -1.0000 I -0.0728 J -0.0006
G03 X 31.7845 Y 6.1945 Z -1.0000 I -0.1897 J -0.0694
G01 X 31.7622 Y 6.2305 Z -1.0000
G01 X 31.7555 Y 6.1997 Z -1.0000
G02 X 31.7466 Y 6.1696 Z -1.0000 I -0.2095 J 0.0457
G02 X 31.7309 Y 6.1345 Z -1.0000 I -0.3031 J 0.1145
G01 X 31.7103 Y 6.1154 Z -1.0000
G01 X 31.6931 Y 6.1183 Z -1.0000
G02 X 31.6789 Y 6.1379 Z -1.0000 I 0.0384 J 0.0425
G01 X 31.6781 Y 6.1526 Z -1.0000
G01 X 31.6777 Y 6.1678 Z -1.0000
G03 X 31.6629 Y 6.1945 Z -1.0000 I -0.0903 J -0.0325
G01 X 31.6432 Y 6.2091 Z -1.0000
G01 X 31.6334 Y 6.2059 Z -1.0000
G01 X 31.6077 Y 6.1967 Z -1.0000
G01 X 31.5912 Y 6.2192 Z -1.0000
G01 X 31.5864 Y 6.2307 Z -1.0000
G01 X 31.5686 Y 6.2414 Z -1.0000
G02 X 31.5473 Y 6.2508 Z -1.0000 I 0.0336 J 0.1047
G02 X 31.5319 Y 6.2626 Z -1.0000 I 0.0371 J 0.0643
G01 X 31.5015 Y 6.2747 Z -1.0000
G01 X 31.4885 Y 6.2612 Z -1.0000
G01 X 31.4840 Y 6.2504 Z -1.0000
G01 X 31.4731 Y 6.2458 Z -1.0000
G01 X 31.4564 Y 6.2612 Z -1.0000
G01 X 31.4705 Y 6.2773 Z -1.0000
G01 X 31.4593 Y 6.2876 Z -1.0000
G03 X 31.4356 Y 6.2929 Z -1.0000 I -0.0283 J -0.0705
G01 X 31.4233 Y 6.2897 Z -1.0000
G02 X 31.3737 Y 6.2747 Z -1.0000 I -0.0517 J 0.0815
G01 X 31.3491 Y 6.2881 Z -1.0000
G01 X 31.3414 Y 6.2936 Z -1.0000
G03 X 31.3087 Y 6.2972 Z -1.0000 I -0.0327 J -0.1447
G01 X 31.2775 Y 6.3085 Z -1.0000
G01 X 31.2803 Y 6.3209 Z -1.0000
G01 X 31.2799 Y 6.3285 Z -1.0000
G03 X 31.2240 Y 6.3288 Z -1.0000 I -0.0290 J -0.2086
G01 X 31.2063 Y 6.3462 Z -1.0000
G01 X 31.2291 Y 6.3723 Z -1.0000
G01 X 31.2240 Y 6.3782 Z -1.0000
G01 X 31.2051 Y 6.3749 Z -1.0000
G01 X 31.2008 Y 6.3684 Z -1.0000
G01 X 31.1981 Y 6.3585 Z -1.0000
G02 X 31.1848 Y 6.3413 Z -1.0000 I -0.0746 J 0.0443
G01 X 31.1674 Y 6.3327 Z -1.0000
G01 X 31.1463 Y 6.3360 Z -1.0000
G03 X 31.1235 Y 6.3461 Z -1.0000 I -0.1815 J -0.3800
G03 X 31.1058 Y 6.3525 Z -1.0000 I -0.0918 J -0.2255
G01 X 31.0987 Y 6.3653 Z -1.0000
G01 X 31.1109 Y 6.3731 Z -1.0000
G01 X 31.1083 Y 6.3812 Z -1.0000
G01 X 31.0884 Y 6.4015 Z -1.0000
G01 X 31.0921 Y 6.4161 Z -1.0000
G01 X 31.1003 Y 6.4317 Z -1.0000
G01 X 31.0931 Y 6.4512 Z -1.0000
G01 X 31.0650 Y 6.4650 Z -1.0000
G01 X 31.0391 Y 6.4556 Z -1.0000
G01 X 31.0208 Y 6.4454 Z -1.0000
G02 X 30.9911 Y 6.4446 Z -1.0000 I -0.0170 J 0.0743
G01 X 30.9722 Y 6.4447 Z -1.0000
G01 X 30.9758 Y 6.4311 Z -1.0000
G01 X 30.9490 Y 6.4147 Z -1.0000
G03 X 30.9190 Y 6.3993 Z -1.0000 I 0.0109 J -0.0583
G01 X 30.9228 Y 6.3898 Z -1.0000
G01 X 30.9350 Y 6.3792 Z -1.0000
G01 X 30.9260 Y 6.3681 Z -1.0000
G03 X 30.9080 Y 6.3666 Z -1.0000 I 0.0336 J -0.5275
G03 X 30.8747 Y 6.3631 Z -1.0000 I 0.2032 J -2.0719
G01 X 30.8582 Y 6.3722 Z -1.0000
G01 X 30.8628 Y 6.3880 Z -1.0000
G01 X 30.8728 Y 6.4030 Z -1.0000
G01 X 30.8679 Y 6.4195 Z -1.0000
G02 X 30.8547 Y 6.4389 Z -1.0000 I 0.0651 J 0.0586
G01 X 30.8515 Y 6.4523 Z -1.0000
G01 X 30.8478 Y 6.4656 Z -1.0000
G03 X 30.8248 Y 6.4958 Z -1.0000 I -0.1646 J -0.1011
G02 X 30.8041 Y 6.5262 Z -1.0000 I 0.0903 J 0.0837
G01 X 30.8026 Y 6.5420 Z -1.0000
G01 X 30.7979 Y 6.5523 Z -1.0000
G03 X 30.7677 Y 6.5598 Z -1.0000 I -0.0311 J -0.0610
G03 X 30.7319 Y 6.5565 Z -1.0000 I -0.0022 J -0.1746
G01 X 30.7282 Y 6.5521 Z -1.0000
G01 X 30.7309 Y 6.5465 Z -1.0000
G01 X 30.7385 Y 6.5439 Z -1.0000
G01 X 30.7513 Y 6.5292 Z -1.0000
G01 X 30.7332 Y 6.5065 Z -1.0000
G01 X 30.7185 Y 6.5053 Z -1.0000
G01 X 30.7027 Y 6.5130 Z -1.0000
G01 X 30.6970 Y 6.5258 Z -1.0000
G01 X 30.7042 Y 6.5419 Z -1.0000
G01 X 30.7109 Y 6.5558 Z -1.0000
G01 X 30.7065 Y 6.5622 Z -1.0000
G02 X 30.6924 Y 6.5664 Z -1.0000 I 0.0687 J 0.2551
G02 X 30.6769 Y 6.5720 Z -1.0000 I 0.0978 J 0.2965
G03 X 30.5942 Y 6.5885 Z -1.0000 I -0.0894 J -0.2328
G01 X 30.5691 Y 6.5749 Z -1.0000
G01 X 30.5618 Y 6.5708 Z -1.0000
G01 X 30.5505 Y 6.5749 Z -1.0000
G03 X 30.4593 Y 6.6332 Z -1.0000 I -0.2778 J -0.3340
G03 X 30.3997 Y 6.6467 Z -1.0000 I -0.0596 J -0.1253
G01 X 30.3833 Y 6.6428 Z -1.0000
G01 X 30.3686 Y 6.6311 Z -1.0000
G01 X 30.3550 Y 6.6233 Z -1.0000
G01 X 30.3424 Y 6.6266 Z -1.0000
G01 X 30.3282 Y 6.6346 Z -1.0000
G01 X 30.3155 Y 6.6358 Z -1.0000
G02 X 30.2841 Y 6.6396 Z -1.0000 I -0.0084 J 0.0624
G01 X 30.2762 Y 6.6512 Z -1.0000
G01 X 30.2702 Y 6.6607 Z -1.0000
G03 X 30.2300 Y 6.6729 Z -1.0000 I -0.0616 J -0.1309
G02 X 30.1901 Y 6.6853 Z -1.0000 I 0.0203 J 0.1359
G01 X 30.1838 Y 6.6954 Z -1.0000
G01 X 30.1774 Y 6.7036 Z -1.0000
G03 X 30.1463 Y 6.7049 Z -1.0000 I -0.0188 J -0.0744
G02 X 30.1104 Y 6.7059 Z -1.0000 I -0.0154 J 0.0959
G02 X 30.0802 Y 6.7192 Z -1.0000 I 0.0172 J 0.0798
G03 X 30.0532 Y 6.7320 Z -1.0000 I -0.0500 J -0.0701
G01 X 30.0451 Y 6.7289 Z -1.0000
G01 X 30.0373 Y 6.7234 Z -1.0000
G01 X 30.0274 Y 6.7251 Z -1.0000
G03 X 29.9578 Y 6.7442 Z -1.0000 I -0.0675 J -0.1092
G01 X 29.9438 Y 6.7236 Z -1.0000
G01 X 29.9430 Y 6.7134 Z -1.0000
G01 X 29.9327 Y 6.7048 Z -1.0000
G01 X 29.9214 Y 6.7056 Z -1.0000
G01 X 29.9167 Y 6.7137 Z -1.0000
G01 X 29.9123 Y 6.7243 Z -1.0000
G01 X 29.9017 Y 6.7287 Z -1.0000
G02 X 29.8585 Y 6.7417 Z -1.0000 I -0.0000 J 0.0786
G02 X 29.8184 Y 6.7836 Z -1.0000 I 0.0715 J 0.1087
G02 X 29.8022 Y 6.8165 Z -1.0000 I 0.1943 J 0.1163
G01 X 29.8019 Y 6.8254 Z -1.0000
G01 X 29.7956 Y 6.8410 Z -1.0000
G03 X 29.7549 Y 6.8519 Z -1.0000 I -0.0413 J -0.0733
G01 X 29.7381 Y 6.8456 Z -1.0000
G01 X 29.7318 Y 6.8315 Z -1.0000
G01 X 29.7240 Y 6.8188 Z -1.0000
G02 X 29.6913 Y 6.8109 Z -1.0000 I -0.0327 J 0.0643
G03 X 29.6531 Y 6.8068 Z -1.0000 I -0.0000 J -0.1787
G01 X 29.6444 Y 6.8007 Z -1.0000
G01 X 29.6333 Y 6.7998 Z -1.0000
G01 X 29.6249 Y 6.8238 Z -1.0000
G02 X 29.6270 Y 6.8569 Z -1.0000 I 0.5225 J -0.0159
G01 X 29.6288 Y 6.8649 Z -1.0000
G01 X 29.6311 Y 6.8727 Z -1.0000
G03 X 29.6329 Y 6.8847 Z -1.0000 I -0.1255 J 0.0254
G01 X 29.6387 Y 6.8936 Z -1.0000
G02 X 29.7061 Y 6.9273 Z -1.0000 I 0.3026 J -0.5202
G03 X 29.9394 Y 7.0294 Z -1.0000 I -4.6463 J 10.9421
G03 X 30.1786 Y 7.1400 Z -1.0000 I -5.2233 J 11.6036
G02 X 30.2200 Y 7.1590 Z -1.0000 I 0.6584 J -1.3854
G02 X 30.3196 Y 7.2020 Z -1.0000 I 3.5087 J -7.9859
G01 X 30.4194 Y 7.2443 Z -1.0000
G01 X 30.4443 Y 7.2153 Z -1.0000
G03 X 30.4720 Y 7.1965 Z -1.0000 I 0.0486 J 0.0418
G01 X 30.4986 Y 7.1966 Z -1.0000
G03 X 30.5232 Y 7.2103 Z -1.0000 I -0.0286 J 0.0808
G01 X 30.5279 Y 7.2199 Z -1.0000
G01 X 30.5311 Y 7.2310 Z -1.0000
G01 X 30.5415 Y 7.2413 Z -1.0000
G01 X 30.5534 Y 7.2515 Z -1.0000
G03 X 30.5724 Y 7.2778 Z -1.0000 I -0.1651 J 0.1391
G02 X 30.5944 Y 7.2999 Z -1.0000 I 0.0570 J -0.0349
G02 X 30.6563 Y 7.3293 Z -1.0000 I 0.1689 J -0.2753
G03 X 30.8213 Y 7.3975 Z -1.0000 I -0.5481 J 1.5601
G01 X 30.8310 Y 7.4128 Z -1.0000
G01 X 30.8407 Y 7.4286 Z -1.0000
G02 X 30.9134 Y 7.4540 Z -1.0000 I 0.1360 J -0.2725
G01 X 30.9243 Y 7.4494 Z -1.0000
G02 X 30.9442 Y 7.4046 Z -1.0000 I -0.1504 J -0.0938
G03 X 30.9628 Y 7.3552 Z -1.0000 I 0.3134 J 0.0897
G01 X 30.9708 Y 7.3481 Z -1.0000
G01 X 30.9966 Y 7.3606 Z -1.0000
G03 X 31.0024 Y 7.4349 Z -1.0000 I -0.1303 J 0.0474
G02 X 31.0001 Y 7.4934 Z -1.0000 I 0.1847 J 0.0364
G01 X 31.0102 Y 7.5009 Z -1.0000
G01 X 31.0177 Y 7.5046 Z -1.0000
G01 X 31.0167 Y 7.5136 Z -1.0000
G02 X 30.9831 Y 7.5958 Z -1.0000 I 0.1139 J 0.0945
G01 X 31.0076 Y 7.6225 Z -1.0000
G01 X 31.0104 Y 7.6257 Z -1.0000
G03 X 31.0039 Y 7.6479 Z -1.0000 I -0.0826 J -0.0122
G02 X 30.9990 Y 7.6723 Z -1.0000 I 0.0499 J 0.0227
G01 X 31.0053 Y 7.6888 Z -1.0000
G01 X 31.0090 Y 7.7020 Z -1.0000
G01 X 31.0022 Y 7.7106 Z -1.0000
G01 X 30.9795 Y 7.7042 Z -1.0000
G01 X 30.9715 Y 7.6709 Z -1.0000
G01 X 30.9709 Y 7.6442 Z -1.0000
G01 X 30.9598 Y 7.6638 Z -1.0000
G02 X 30.9346 Y 7.8305 Z -1.0000 I 1.9678 J 0.3823
G01 X 30.9315 Y 7.8356 Z -1.0000
G01 X 30.9228 Y 7.8382 Z -1.0000
G01 X 30.9175 Y 7.8340 Z -1.0000
G01 X 30.9181 Y 7.8185 Z -1.0000
G01 X 30.9194 Y 7.8007 Z -1.0000
G01 X 30.9138 Y 7.7923 Z -1.0000
G01 X 30.9097 Y 7.7938 Z -1.0000
G01 X 30.9099 Y 7.8043 Z -1.0000
G01 X 30.9082 Y 7.8152 Z -1.0000
G01 X 30.9005 Y 7.8141 Z -1.0000
G01 X 30.8863 Y 7.8255 Z -1.0000
G02 X 30.8758 Y 7.8501 Z -1.0000 I 0.0440 J 0.0334
G01 X 30.8817 Y 7.8540 Z -1.0000
G01 X 30.8902 Y 7.8528 Z -1.0000
G01 X 30.8975 Y 7.8581 Z -1.0000
G01 X 30.9054 Y 7.8637 Z -1.0000
G01 X 30.9213 Y 7.8632 Z -1.0000
G01 X 30.9085 Y 7.8728 Z -1.0000
G03 X 30.8667 Y 7.8779 Z -1.0000 I -0.0284 J -0.0600
G01 X 30.8483 Y 7.8604 Z -1.0000
G01 X 30.8426 Y 7.8661 Z -1.0000
G03 X 30.8122 Y 7.9185 Z -1.0000 I -0.0663 J -0.0034
G01 X 30.7746 Y 7.9100 Z -1.0000
G01 X 30.7716 Y 7.8998 Z -1.0000
G01 X 30.7745 Y 7.8896 Z -1.0000
G01 X 30.7735 Y 7.8855 Z -1.0000
G01 X 30.7665 Y 7.8849 Z -1.0000
G01 X 30.7569 Y 7.8837 Z -1.0000
G01 X 30.7523 Y 7.8746 Z -1.0000
G01 X 30.7630 Y 7.8643 Z -1.0000
G03 X 30.7935 Y 7.8767 Z -1.0000 I -0.0026 J 0.0501
G01 X 30.8058 Y 7.8807 Z -1.0000
G01 X 30.8040 Y 7.8683 Z -1.0000
G01 X 30.8114 Y 7.8581 Z -1.0000
G01 X 30.8189 Y 7.8488 Z -1.0000
G01 X 30.8173 Y 7.8416 Z -1.0000
G01 X 30.8101 Y 7.8399 Z -1.0000
G01 X 30.8010 Y 7.8471 Z -1.0000
G01 X 30.7694 Y 7.8521 Z -1.0000
G03 X 30.7515 Y 7.8053 Z -1.0000 I 0.0334 J -0.0396
G01 X 30.7480 Y 7.7822 Z -1.0000
G01 X 30.7227 Y 7.7653 Z -1.0000
G03 X 30.7637 Y 7.6853 Z -1.0000 I 0.1446 J 0.0235
G03 X 30.7803 Y 7.6740 Z -1.0000 I 0.0380 J 0.0380
G03 X 30.8023 Y 7.6685 Z -1.0000 I 0.0275 J 0.0632
G01 X 30.8192 Y 7.6606 Z -1.0000
G01 X 30.8252 Y 7.6455 Z -1.0000
G01 X 30.8291 Y 7.6311 Z -1.0000
G01 X 30.8359 Y 7.6289 Z -1.0000
G01 X 30.8442 Y 7.6265 Z -1.0000
G02 X 30.8597 Y 7.5988 Z -1.0000 I -0.0775 J -0.0613
G02 X 30.8629 Y 7.5680 Z -1.0000 I -0.0605 J -0.0219
G01 X 30.8551 Y 7.5659 Z -1.0000
G01 X 30.8474 Y 7.5686 Z -1.0000
G01 X 30.8442 Y 7.5633 Z -1.0000
G01 X 30.8448 Y 7.5441 Z -1.0000
G01 X 30.8403 Y 7.5402 Z -1.0000
G01 X 30.8343 Y 7.5435 Z -1.0000
G01 X 30.8310 Y 7.5556 Z -1.0000
G01 X 30.8274 Y 7.5675 Z -1.0000
G01 X 30.8208 Y 7.5710 Z -1.0000
G01 X 30.8152 Y 7.5669 Z -1.0000
G01 X 30.8131 Y 7.5479 Z -1.0000
G01 X 30.8028 Y 7.5324 Z -1.0000
G02 X 30.6769 Y 7.5063 Z -1.0000 I -0.2030 J 0.6653
G03 X 30.6113 Y 7.4823 Z -1.0000 I 0.0165 J -0.1466
G01 X 30.5947 Y 7.4512 Z -1.0000
G01 X 30.5903 Y 7.4316 Z -1.0000
G01 X 30.5833 Y 7.4272 Z -1.0000
G01 X 30.5779 Y 7.4313 Z -1.0000
G01 X 30.5784 Y 7.4441 Z -1.0000
G01 X 30.5763 Y 7.4489 Z -1.0000
G01 X 30.5688 Y 7.4476 Z -1.0000
G01 X 30.5584 Y 7.4326 Z -1.0000
G01 X 30.5583 Y 7.4179 Z -1.0000
G01 X 30.5454 Y 7.4233 Z -1.0000
G03 X 30.4913 Y 7.4532 Z -1.0000 I -0.0668 J -0.0569
G03 X 30.4212 Y 7.4414 Z -1.0000 I -0.0167 J -0.1146
G02 X 30.3960 Y 7.4335 Z -1.0000 I -0.0349 J 0.0670
G01 X 30.3799 Y 7.4361 Z -1.0000
G03 X 30.2500 Y 7.4644 Z -1.0000 I -0.1264 J -0.2675
G03 X 30.1764 Y 7.4335 Z -1.0000 I 0.0012 J -0.1058
G01 X 30.1651 Y 7.4338 Z -1.0000
G01 X 30.1634 Y 7.4479 Z -1.0000
G01 X 30.1662 Y 7.4655 Z -1.0000
G01 X 30.1586 Y 7.4747 Z -1.0000
G01 X 30.1458 Y 7.4921 Z -1.0000
G02 X 30.1550 Y 7.5332 Z -1.0000 I 0.0759 J 0.0047
G03 X 30.1790 Y 7.6242 Z -1.0000 I -0.1735 J 0.0945
G03 X 30.1590 Y 7.7640 Z -1.0000 I -0.4444 J 0.0077
G01 X 30.1646 Y 7.7895 Z -1.0000
G02 X 30.2067 Y 7.8168 Z -1.0000 I 0.0724 J -0.0655
G03 X 30.2377 Y 7.8361 Z -1.0000 I -0.0236 J 0.0723
G03 X 30.2554 Y 7.8671 Z -1.0000 I -0.0518 J 0.0502
G03 X 30.2646 Y 7.9051 Z -1.0000 I -0.5416 J 0.1510
G03 X 30.2660 Y 7.9183 Z -1.0000 I -0.0660 J 0.0135
G01 X 30.2697 Y 7.9252 Z -1.0000
G01 X 30.2765 Y 7.9253 Z -1.0000
G01 X 30.2824 Y 7.9178 Z -1.0000
G01 X 30.2815 Y 7.9100 Z -1.0000
G01 X 30.2808 Y 7.9023 Z -1.0000
G01 X 30.2881 Y 7.8937 Z -1.0000
G01 X 30.2925 Y 7.8939 Z -1.0000
G01 X 30.2933 Y 7.8974 Z -1.0000
G01 X 30.2939 Y 7.9057 Z -1.0000
G01 X 30.3095 Y 7.9159 Z -1.0000
G01 X 30.3326 Y 7.9232 Z -1.0000
G01 X 30.3071 Y 7.9336 Z -1.0000
G03 X 30.2814 Y 7.9422 Z -1.0000 I -0.0816 J -0.2008
G01 X 30.2739 Y 7.9424 Z -1.0000
G01 X 30.2689 Y 7.9442 Z -1.0000
G01 X 30.2662 Y 7.9522 Z -1.0000
G01 X 30.2703 Y 7.9572 Z -1.0000
G01 X 30.2841 Y 7.9554 Z -1.0000
G03 X 30.3621 Y 7.9399 Z -1.0000 I 0.0723 J 0.1600
G03 X 30.4752 Y 7.9616 Z -1.0000 I -0.0119 J 0.3674
G03 X 30.5373 Y 7.9864 Z -1.0000 I -0.3423 J 0.9490
G03 X 30.5538 Y 7.9960 Z -1.0000 I -0.0329 J 0.0752
G01 X 30.5577 Y 7.9958 Z -1.0000
G01 X 30.5581 Y 7.9922 Z -1.0000
G03 X 30.5453 Y 7.9431 Z -1.0000 I 0.0573 J -0.0411
G03 X 30.5698 Y 7.8888 Z -1.0000 I 0.0969 J 0.0111
G01 X 30.5767 Y 7.8734 Z -1.0000
G01 X 30.5723 Y 7.8664 Z -1.0000
G01 X 30.5935 Y 7.8540 Z -1.0000
G03 X 30.6261 Y 7.8513 Z -1.0000 I 0.0256 J 0.1147
G01 X 30.6346 Y 7.8564 Z -1.0000
G01 X 30.6428 Y 7.8639 Z -1.0000
G02 X 30.6614 Y 7.8704 Z -1.0000 I 0.0312 J -0.0597
G01 X 30.6828 Y 7.8923 Z -1.0000
G01 X 30.6713 Y 7.9311 Z -1.0000
G01 X 30.6683 Y 7.9473 Z -1.0000
G01 X 30.6833 Y 7.9628 Z -1.0000
G02 X 30.7132 Y 7.9724 Z -1.0000 I 0.0762 J -0.1850
G01 X 30.7257 Y 7.9728 Z -1.0000
G01 X 30.7343 Y 7.9757 Z -1.0000
G01 X 30.7386 Y 7.9866 Z -1.0000
G01 X 30.7417 Y 7.9993 Z -1.0000
G01 X 30.7469 Y 8.0025 Z -1.0000
G01 X 30.7546 Y 8.0044 Z -1.0000
G03 X 30.7751 Y 8.0178 Z -1.0000 I -0.0751 J 0.1382
G01 X 30.7752 Y 8.0256 Z -1.0000
G01 X 30.7591 Y 8.0306 Z -1.0000
G02 X 30.7312 Y 8.0350 Z -1.0000 I -0.0044 J 0.0630
G01 X 30.7268 Y 8.0435 Z -1.0000
G03 X 30.7297 Y 8.0591 Z -1.0000 I -0.1575 J 0.0371
G03 X 30.7319 Y 8.0817 Z -1.0000 I -0.3243 J 0.0435
G01 X 30.7382 Y 8.0916 Z -1.0000
G01 X 30.7477 Y 8.0902 Z -1.0000
G01 X 30.7633 Y 8.0825 Z -1.0000
G01 X 30.7863 Y 8.0852 Z -1.0000
G01 X 30.8101 Y 8.0877 Z -1.0000
G02 X 30.8439 Y 8.0762 Z -1.0000 I -0.0158 J -0.1017
G03 X 30.8996 Y 8.0611 Z -1.0000 I 0.0589 J 0.1075
G01 X 30.9132 Y 8.0744 Z -1.0000
G01 X 30.9101 Y 8.0808 Z -1.0000
G01 X 30.8952 Y 8.0884 Z -1.0000
G01 X 30.8983 Y 8.0918 Z -1.0000
G03 X 30.9617 Y 8.1090 Z -1.0000 I 0.0082 J 0.0950
G01 X 30.9657 Y 8.1397 Z -1.0000
G01 X 30.9657 Y 8.1479 Z -1.0000
G01 X 30.9774 Y 8.1539 Z -1.0000
G01 X 30.9968 Y 8.1607 Z -1.0000
G03 X 31.0205 Y 8.1831 Z -1.0000 I -0.0569 J 0.0840
G02 X 31.0426 Y 8.2097 Z -1.0000 I 0.3306 J -0.2526
G02 X 31.0939 Y 8.2642 Z -1.0000 I 1.4529 J -1.3147
G02 X 31.1497 Y 8.3076 Z -1.0000 I 0.1864 J -0.1822
G01 X 31.1783 Y 8.3131 Z -1.0000
G01 X 31.2001 Y 8.3196 Z -1.0000
G01 X 31.2082 Y 8.3394 Z -1.0000
G03 X 31.2027 Y 8.3640 Z -1.0000 I -0.0864 J -0.0061
G01 X 31.1983 Y 8.3655 Z -1.0000
G01 X 31.1931 Y 8.3704 Z -1.0000
G02 X 31.2194 Y 8.4048 Z -1.0000 I 0.1198 J -0.0647
G02 X 31.2518 Y 8.4231 Z -1.0000 I 0.0535 J -0.0567
G02 X 31.3111 Y 8.4306 Z -1.0000 I 0.0547 J -0.1940
G03 X 31.3697 Y 8.4388 Z -1.0000 I 0.0042 J 0.1833
G03 X 31.4010 Y 8.4585 Z -1.0000 I -0.0213 J 0.0685
G02 X 31.4285 Y 8.4783 Z -1.0000 I 0.0628 J -0.0582
G01 X 31.4400 Y 8.4762 Z -1.0000
G01 X 31.4418 Y 8.4647 Z -1.0000
G02 X 31.4179 Y 8.4337 Z -1.0000 I -0.0994 J 0.0517
G02 X 31.3836 Y 8.4086 Z -1.0000 I -0.1325 J 0.1450
G01 X 31.3747 Y 8.4087 Z -1.0000
G01 X 31.3684 Y 8.4088 Z -1.0000
G01 X 31.3652 Y 8.4030 Z -1.0000
G01 X 31.3607 Y 8.3975 Z -1.0000
G01 X 31.3431 Y 8.3984 Z -1.0000
G01 X 31.3293 Y 8.3976 Z -1.0000
G01 X 31.3266 Y 8.3908 Z -1.0000
G01 X 31.3233 Y 8.3829 Z -1.0000
G01 X 31.2999 Y 8.3789 Z -1.0000
G01 X 31.2863 Y 8.3761 Z -1.0000
G01 X 31.2921 Y 8.3683 Z -1.0000
G01 X 31.2864 Y 8.3569 Z -1.0000
G01 X 31.2691 Y 8.3506 Z -1.0000
G01 X 31.2601 Y 8.3552 Z -1.0000
G01 X 31.2552 Y 8.3575 Z -1.0000
G01 X 31.2523 Y 8.3543 Z -1.0000
G01 X 31.2480 Y 8.3456 Z -1.0000
G01 X 31.2359 Y 8.3415 Z -1.0000
G01 X 31.2258 Y 8.3371 Z -1.0000
G01 X 31.2241 Y 8.3287 Z -1.0000
G01 X 31.2314 Y 8.3206 Z -1.0000
G01 X 31.2455 Y 8.3189 Z -1.0000
G01 X 31.2524 Y 8.3110 Z -1.0000
G02 X 31.2342 Y 8.2827 Z -1.0000 I -0.0604 J 0.0190
G01 X 31.2232 Y 8.2670 Z -1.0000
G01 X 31.2265 Y 8.2633 Z -1.0000
G02 X 31.2464 Y 8.2650 Z -1.0000 I 0.0141 J -0.0499
G01 X 31.2624 Y 8.2592 Z -1.0000
G01 X 31.2623 Y 8.2539 Z -1.0000
G01 X 31.2450 Y 8.2492 Z -1.0000
G03 X 31.2144 Y 8.2451 Z -1.0000 I 0.0006 J -0.1207
G01 X 31.2059 Y 8.2388 Z -1.0000
G01 X 31.1976 Y 8.2319 Z -1.0000
G01 X 31.1796 Y 8.2285 Z -1.0000
G01 X 31.1636 Y 8.2246 Z -1.0000
G01 X 31.1597 Y 8.2182 Z -1.0000
G01 X 31.1560 Y 8.2116 Z -1.0000
G01 X 31.1432 Y 8.2079 Z -1.0000
G01 X 31.1338 Y 8.2030 Z -1.0000
G01 X 31.1326 Y 8.1925 Z -1.0000
G01 X 31.1328 Y 8.1810 Z -1.0000
G01 X 31.1275 Y 8.1771 Z -1.0000
G01 X 31.1220 Y 8.1733 Z -1.0000
G01 X 31.1222 Y 8.1622 Z -1.0000
G01 X 31.1211 Y 8.1542 Z -1.0000
G01 X 31.1149 Y 8.1523 Z -1.0000
G01 X 31.1022 Y 8.1531 Z -1.0000
G03 X 31.0717 Y 8.1416 Z -1.0000 I 0.0329 J -0.1331
G02 X 31.0411 Y 8.1280 Z -1.0000 I -0.1280 J 0.2467
G01 X 31.0293 Y 8.1258 Z -1.0000
G03 X 30.9790 Y 8.1045 Z -1.0000 I 0.0004 J -0.0708
G01 X 30.9679 Y 8.0628 Z -1.0000
G01 X 30.9672 Y 8.0564 Z -1.0000
G01 X 30.9569 Y 8.0581 Z -1.0000
G01 X 30.9477 Y 8.0388 Z -1.0000
G01 X 30.9530 Y 8.0181 Z -1.0000
G01 X 30.9678 Y 8.0066 Z -1.0000
G02 X 30.9880 Y 7.9976 Z -1.0000 I -0.0322 J -0.1003
G02 X 31.0024 Y 7.9866 Z -1.0000 I -0.0344 J -0.0599
G01 X 31.0370 Y 7.9758 Z -1.0000
G01 X 31.0704 Y 7.9990 Z -1.0000
G01 X 31.0809 Y 8.0087 Z -1.0000
G01 X 31.0979 Y 8.0127 Z -1.0000
G01 X 31.1133 Y 8.0182 Z -1.0000
G01 X 31.1240 Y 8.0339 Z -1.0000
G01 X 31.1357 Y 8.0465 Z -1.0000
G01 X 31.1606 Y 8.0485 Z -1.0000
G03 X 31.1863 Y 8.0472 Z -1.0000 I 0.0167 J 0.0754
G01 X 31.1906 Y 8.0520 Z -1.0000
G01 X 31.1944 Y 8.0593 Z -1.0000
G02 X 31.2223 Y 8.0731 Z -1.0000 I 0.0682 J -0.1019
G03 X 31.2491 Y 8.0887 Z -1.0000 I -0.0267 J 0.0771
G01 X 31.2596 Y 8.1055 Z -1.0000
G01 X 31.2652 Y 8.1267 Z -1.0000
G01 X 31.2849 Y 8.1056 Z -1.0000
G01 X 31.3316 Y 8.0939 Z -1.0000
G03 X 31.4456 Y 8.1607 Z -1.0000 I -0.1078 J 0.3146
G01 X 31.4512 Y 8.1577 Z -1.0000
G02 X 31.4387 Y 8.1171 Z -1.0000 I -0.1472 J 0.0233
G03 X 31.4127 Y 8.0509 Z -1.0000 I 0.4768 J -0.2255
G03 X 31.4013 Y 7.9991 Z -1.0000 I 0.2789 J -0.0883
G02 X 31.3923 Y 7.9465 Z -1.0000 I -0.5959 J 0.0755
G02 X 31.3789 Y 7.8966 Z -1.0000 I -0.5392 J 0.1177
G03 X 31.3703 Y 7.8475 Z -1.0000 I 0.1777 J -0.0566
G03 X 31.3757 Y 7.8170 Z -1.0000 I 0.0722 J -0.0029
G03 X 31.3905 Y 7.7902 Z -1.0000 I 0.1256 J 0.0521
G01 X 31.3973 Y 7.7867 Z -1.0000
G01 X 31.4028 Y 7.7764 Z -1.0000
G01 X 31.3832 Y 7.7654 Z -1.0000
G01 X 31.3729 Y 7.7594 Z -1.0000
G01 X 31.3827 Y 7.7521 Z -1.0000
G01 X 31.3857 Y 7.7436 Z -1.0000
G01 X 31.3817 Y 7.7405 Z -1.0000
G02 X 31.3585 Y 7.7509 Z -1.0000 I 0.0201 J 0.0760
G01 X 31.3418 Y 7.7556 Z -1.0000
G01 X 31.3383 Y 7.7503 Z -1.0000
G01 X 31.3395 Y 7.7337 Z -1.0000
G01 X 31.3322 Y 7.7230 Z -1.0000
G01 X 31.3591 Y 7.7210 Z -1.0000
G03 X 31.3971 Y 7.7324 Z -1.0000 I -0.0283 J 0.1639
G03 X 31.4251 Y 7.7496 Z -1.0000 I -0.0458 J 0.1055
G03 X 31.5508 Y 7.8657 Z -1.0000 I -1.1240 J 1.3430
G03 X 31.6386 Y 7.9671 Z -1.0000 I -0.7691 J 0.7551
G02 X 31.6667 Y 7.9952 Z -1.0000 I 0.1172 J -0.0894
G01 X 31.6761 Y 7.9956 Z -1.0000
G01 X 31.6792 Y 8.0013 Z -1.0000
G01 X 31.6805 Y 8.0325 Z -1.0000
G01 X 31.7058 Y 8.0374 Z -1.0000
G01 X 31.7107 Y 8.0299 Z -1.0000
G01 X 31.7091 Y 8.0119 Z -1.0000
G01 X 31.7165 Y 7.9995 Z -1.0000
G03 X 31.7633 Y 8.0017 Z -1.0000 I 0.0187 J 0.1003
G01 X 31.7699 Y 7.9979 Z -1.0000
G01 X 31.7658 Y 7.9906 Z -1.0000
G01 X 31.7431 Y 7.9717 Z -1.0000
G01 X 31.7492 Y 7.9614 Z -1.0000
G01 X 31.7618 Y 7.9581 Z -1.0000
G01 X 31.7755 Y 7.9467 Z -1.0000
G01 X 31.7762 Y 7.9362 Z -1.0000
G01 X 31.7639 Y 7.9276 Z -1.0000
G01 X 31.7402 Y 7.9231 Z -1.0000
G01 X 31.7636 Y 7.9217 Z -1.0000
G01 X 31.7921 Y 7.9028 Z -1.0000
G01 X 31.7853 Y 7.8783 Z -1.0000
G01 X 31.7839 Y 7.8730 Z -1.0000
G01 X 31.7903 Y 7.8691 Z -1.0000
G01 X 31.8010 Y 7.8764 Z -1.0000
G03 X 31.8038 Y 7.9049 Z -1.0000 I -0.0520 J 0.0196
G02 X 31.8035 Y 7.9361 Z -1.0000 I 0.1030 J 0.0168
G01 X 31.8089 Y 7.9409 Z -1.0000
G01 X 31.8122 Y 7.9445 Z -1.0000
G01 X 31.8074 Y 7.9558 Z -1.0000
G01 X 31.7999 Y 7.9711 Z -1.0000
G01 X 31.8016 Y 7.9815 Z -1.0000
G01 X 31.8221 Y 7.9911 Z -1.0000
G01 X 31.8344 Y 7.9768 Z -1.0000
G01 X 31.8318 Y 7.9639 Z -1.0000
G01 X 31.8280 Y 7.9614 Z -1.0000
G01 X 31.8242 Y 7.9587 Z -1.0000
G03 X 31.8200 Y 7.9398 Z -1.0000 I 0.0652 J -0.0242
G01 X 31.8258 Y 7.9326 Z -1.0000
G01 X 31.8410 Y 7.9370 Z -1.0000
G03 X 31.8809 Y 7.9811 Z -1.0000 I -0.1360 J 0.1630
G01 X 31.8892 Y 8.0083 Z -1.0000
G02 X 31.8935 Y 8.0287 Z -1.0000 I 0.0503 J -0.0000
G01 X 31.9051 Y 8.0440 Z -1.0000
G01 X 31.9157 Y 8.0585 Z -1.0000
G01 X 31.9158 Y 8.0706 Z -1.0000
G01 X 31.9175 Y 8.0816 Z -1.0000
G02 X 31.9410 Y 8.1020 Z -1.0000 I 0.0675 J -0.0541
G03 X 31.9690 Y 8.1213 Z -1.0000 I -0.1254 J 0.2115
G01 X 31.9714 Y 8.1263 Z -1.0000
G01 X 31.9858 Y 8.1393 Z -1.0000
G01 X 32.0149 Y 8.1217 Z -1.0000
G01 X 32.0192 Y 8.1211 Z -1.0000
G01 X 32.0226 Y 8.1284 Z -1.0000
G01 X 32.0266 Y 8.1425 Z -1.0000
G01 X 32.0336 Y 8.1464 Z -1.0000
G01 X 32.0387 Y 8.1431 Z -1.0000
G01 X 32.0382 Y 8.1362 Z -1.0000
G01 X 32.0437 Y 8.1297 Z -1.0000
G03 X 32.0868 Y 8.1560 Z -1.0000 I -0.0593 J 0.1459
G02 X 32.1063 Y 8.1704 Z -1.0000 I 0.1173 J -0.1376
G01 X 32.1130 Y 8.1727 Z -1.0000
G01 X 32.1201 Y 8.1745 Z -1.0000
G03 X 32.1768 Y 8.1997 Z -1.0000 I -0.6809 J 1.6089
G02 X 32.2669 Y 8.2345 Z -1.0000 I 0.2999 J -0.6441
G02 X 32.3669 Y 8.2585 Z -1.0000 I 0.2385 J -0.7712
G03 X 32.4284 Y 8.2697 Z -1.0000 I -0.7007 J 4.0259
G03 X 32.5055 Y 8.2848 Z -1.0000 I -1.2265 J 6.4602
G02 X 32.5828 Y 8.2983 Z -1.0000 I 0.2872 J -1.4149
G02 X 32.6114 Y 8.3004 Z -1.0000 I 0.0288 J -0.1958
G01 X 32.6312 Y 8.3055 Z -1.0000
G01 X 32.6330 Y 8.3123 Z -1.0000
G01 X 32.6354 Y 8.3178 Z -1.0000
G02 X 32.6679 Y 8.3185 Z -1.0000 I 0.0185 J -0.1043
G03 X 32.7214 Y 8.3267 Z -1.0000 I 0.0127 J 0.0951
G01 X 32.7246 Y 8.3451 Z -1.0000
G01 X 32.7356 Y 8.3519 Z -1.0000
G01 X 32.7461 Y 8.3479 Z -1.0000
G01 X 32.7470 Y 8.3416 Z -1.0000
G01 X 32.7488 Y 8.3359 Z -1.0000
G03 X 32.7709 Y 8.3314 Z -1.0000 I 0.0221 J 0.0518
G01 X 32.7944 Y 8.3376 Z -1.0000
G01 X 32.7997 Y 8.3479 Z -1.0000
G01 X 32.8057 Y 8.3593 Z -1.0000
G02 X 32.8532 Y 8.3788 Z -1.0000 I 0.0957 J -0.1657
G02 X 32.9076 Y 8.3899 Z -1.0000 I 0.1299 J -0.4963
G01 X 32.9159 Y 8.3882 Z -1.0000
G03 X 32.9944 Y 8.3738 Z -1.0000 I 0.0576 J 0.0929
G03 X 33.0654 Y 8.4171 Z -1.0000 I -0.0228 J 0.1172
G02 X 33.0988 Y 8.4397 Z -1.0000 I 0.0520 J -0.0409
G01 X 33.1178 Y 8.4324 Z -1.0000
G01 X 33.1192 Y 8.4228 Z -1.0000
G01 X 33.1128 Y 8.4142 Z -1.0000
G01 X 33.1136 Y 8.3889 Z -1.0000
G03 X 33.1663 Y 8.3857 Z -1.0000 I 0.0299 J 0.0561
G01 X 33.1806 Y 8.3865 Z -1.0000
G02 X 33.2027 Y 8.3763 Z -1.0000 I -0.0169 J -0.0660
G03 X 33.2256 Y 8.3645 Z -1.0000 I 0.0543 J 0.0775
G03 X 33.2577 Y 8.3569 Z -1.0000 I 0.0517 J 0.1470
G02 X 33.2884 Y 8.3494 Z -1.0000 I -0.0171 J -0.1362
G01 X 33.2942 Y 8.3435 Z -1.0000
G01 X 33.3001 Y 8.3390 Z -1.0000
G03 X 33.3402 Y 8.3421 Z -1.0000 I 0.0058 J 0.1921
G02 X 33.3833 Y 8.3464 Z -1.0000 I 0.0494 J -0.2715
G02 X 33.4374 Y 8.3444 Z -1.0000 I 0.0101 J -0.4398
G03 X 33.4864 Y 8.3446 Z -1.0000 I 0.0235 J 0.2289
G01 X 33.4917 Y 8.3505 Z -1.0000
G01 X 33.4954 Y 8.3584 Z -1.0000
G01 X 33.5060 Y 8.3622 Z -1.0000
G01 X 33.5278 Y 8.3771 Z -1.0000
G01 X 33.5194 Y 8.3966 Z -1.0000
G01 X 33.5604 Y 8.4024 Z -1.0000
G03 X 33.6115 Y 8.4073 Z -1.0000 I -0.0049 J 0.3192
G01 X 33.6197 Y 8.4129 Z -1.0000
G01 X 33.6275 Y 8.4207 Z -1.0000
G02 X 33.6725 Y 8.4460 Z -1.0000 I 0.2837 J -0.4525
G03 X 33.7136 Y 8.4746 Z -1.0000 I -0.0775 J 0.1551
G03 X 33.7334 Y 8.5031 Z -1.0000 I -0.0566 J 0.0604
G02 X 33.7500 Y 8.5331 Z -1.0000 I 0.1484 J -0.0624
G01 X 33.7571 Y 8.5368 Z -1.0000
G01 X 33.7832 Y 8.5550 Z -1.0000
G03 X 33.8054 Y 8.6664 Z -1.0000 I -0.3335 J 0.1242
G02 X 33.8100 Y 8.7182 Z -1.0000 I 0.4884 J -0.0169
G01 X 33.8145 Y 8.7306 Z -1.0000
G01 X 33.8155 Y 8.7388 Z -1.0000
G01 X 33.8108 Y 8.7422 Z -1.0000
G01 X 33.8035 Y 8.7531 Z -1.0000
G01 X 33.8230 Y 8.7724 Z -1.0000
G03 X 33.8696 Y 8.8041 Z -1.0000 I -0.0463 J 0.1178
G01 X 33.8821 Y 8.8361 Z -1.0000
G01 X 33.8857 Y 8.8399 Z -1.0000
G01 X 33.8949 Y 8.8371 Z -1.0000
G01 X 33.9091 Y 8.8308 Z -1.0000
G03 X 33.9409 Y 8.8295 Z -1.0000 I 0.0212 J 0.1285
G02 X 33.9845 Y 8.8165 Z -1.0000 I 0.0053 J -0.0622
G01 X 33.9919 Y 8.7898 Z -1.0000
G01 X 33.9910 Y 8.7765 Z -1.0000
G01 X 33.9978 Y 8.7642 Z -1.0000
G01 X 34.0036 Y 8.7529 Z -1.0000
G01 X 34.0010 Y 8.7449 Z -1.0000
G01 X 33.9936 Y 8.7442 Z -1.0000
G02 X 33.9773 Y 8.7602 Z -1.0000 I 0.0302 J 0.0471
G03 X 33.9587 Y 8.7774 Z -1.0000 I -0.0454 J -0.0304
G01 X 33.9363 Y 8.7833 Z -1.0000
G01 X 33.9193 Y 8.7892 Z -1.0000
G01 X 33.9167 Y 8.7988 Z -1.0000
G01 X 33.9131 Y 8.8038 Z -1.0000
G03 X 33.8895 Y 8.7975 Z -1.0000 I 0.0028 J -0.0581
G03 X 33.8608 Y 8.7727 Z -1.0000 I 0.0360 J -0.0708
G01 X 33.8614 Y 8.7579 Z -1.0000
G01 X 33.8680 Y 8.7421 Z -1.0000
G01 X 33.8643 Y 8.7294 Z -1.0000
G01 X 33.8566 Y 8.7156 Z -1.0000
G01 X 33.8540 Y 8.7011 Z -1.0000
G02 X 33.8530 Y 8.6858 Z -1.0000 I -0.1275 J 0.0008
G02 X 33.8500 Y 8.6703 Z -1.0000 I -0.1230 J 0.0156
G01 X 33.8516 Y 8.6591 Z -1.0000
G01 X 33.8590 Y 8.6549 Z -1.0000
G01 X 33.8688 Y 8.6582 Z -1.0000
G01 X 33.8726 Y 8.6652 Z -1.0000
G01 X 33.8754 Y 8.6745 Z -1.0000
G02 X 33.8866 Y 8.6908 Z -1.0000 I 0.0809 J -0.0440
G03 X 33.8974 Y 8.7076 Z -1.0000 I -0.0542 J 0.0466
G03 X 33.9067 Y 8.7345 Z -1.0000 I -0.1312 J 0.0603
G01 X 33.9283 Y 8.7584 Z -1.0000
G01 X 33.9438 Y 8.7473 Z -1.0000
G01 X 33.9490 Y 8.7372 Z -1.0000
G01 X 33.9655 Y 8.7319 Z -1.0000
G01 X 33.9776 Y 8.7245 Z -1.0000
G01 X 33.9801 Y 8.7037 Z -1.0000
G02 X 33.9704 Y 8.6768 Z -1.0000 I -0.1409 J 0.0354
G02 X 33.9593 Y 8.6600 Z -1.0000 I -0.0644 J 0.0305
G03 X 33.9357 Y 8.5964 Z -1.0000 I 0.0701 J -0.0622
G01 X 33.9608 Y 8.5604 Z -1.0000
G01 X 33.9703 Y 8.5522 Z -1.0000
G01 X 33.9710 Y 8.5422 Z -1.0000
G01 X 33.9813 Y 8.5188 Z -1.0000
G03 X 34.0744 Y 8.5007 Z -1.0000 I 0.0936 J 0.2329
G03 X 34.1643 Y 8.5033 Z -1.0000 I 0.0024 J 1.4308
G03 X 34.1903 Y 8.5078 Z -1.0000 I -0.0073 J 0.1197
G02 X 34.2164 Y 8.5133 Z -1.0000 I 0.0523 J -0.1847
G02 X 34.3591 Y 8.5311 Z -1.0000 I 0.7508 J -5.4309
G03 X 34.4999 Y 8.5521 Z -1.0000 I -0.2170 J 1.9365
G01 X 34.5183 Y 8.5609 Z -1.0000
G01 X 34.5463 Y 8.5718 Z -1.0000
G01 X 34.5540 Y 8.5622 Z -1.0000
G01 X 34.5579 Y 8.5460 Z -1.0000
G01 X 34.5716 Y 8.5421 Z -1.0000
G03 X 34.5953 Y 8.5512 Z -1.0000 I -0.0523 J 0.1719
G03 X 34.6077 Y 8.5588 Z -1.0000 I -0.0262 J 0.0561
G01 X 34.6201 Y 8.5630 Z -1.0000
G02 X 34.6468 Y 8.5577 Z -1.0000 I -0.0026 J -0.0831
G01 X 34.6680 Y 8.5574 Z -1.0000
G01 X 34.6693 Y 8.5634 Z -1.0000
G01 X 34.6834 Y 8.5677 Z -1.0000
G01 X 34.6975 Y 8.5634 Z -1.0000
G01 X 34.6989 Y 8.5574 Z -1.0000
G01 X 34.6995 Y 8.5511 Z -1.0000
G01 X 34.7088 Y 8.5471 Z -1.0000
G01 X 34.7223 Y 8.5513 Z -1.0000
G01 X 34.7311 Y 8.5625 Z -1.0000
G01 X 34.7392 Y 8.5748 Z -1.0000
G01 X 34.7468 Y 8.5779 Z -1.0000
G01 X 34.7512 Y 8.5750 Z -1.0000
G01 X 34.7507 Y 8.5683 Z -1.0000
G01 X 34.7498 Y 8.5599 Z -1.0000
G01 X 34.7568 Y 8.5513 Z -1.0000
G01 X 34.7622 Y 8.5547 Z -1.0000
G01 X 34.7675 Y 8.5737 Z -1.0000
G01 X 34.7971 Y 8.5724 Z -1.0000
G01 X 34.8064 Y 8.5710 Z -1.0000
G03 X 34.8368 Y 8.5827 Z -1.0000 I -0.0360 J 0.1396
G02 X 34.8905 Y 8.5884 Z -1.0000 I 0.0342 J -0.0662
G01 X 34.9202 Y 8.5600 Z -1.0000
G03 X 34.9580 Y 8.4898 Z -1.0000 I 0.2079 J 0.0666
G01 X 34.9883 Y 8.4752 Z -1.0000
G01 X 34.9967 Y 8.4649 Z -1.0000
G01 X 34.9839 Y 8.4544 Z -1.0000
G01 X 34.9813 Y 8.4484 Z -1.0000
G03 X 35.0413 Y 8.3916 Z -1.0000 I 0.4231 J 0.3866
G01 X 35.0403 Y 8.3747 Z -1.0000
G02 X 34.9637 Y 8.3412 Z -1.0000 I -0.1391 J 0.2140
G02 X 34.7978 Y 8.3089 Z -1.0000 I -0.3757 J 1.4871
G02 X 34.7245 Y 8.3081 Z -1.0000 I -0.0394 J 0.2856
G03 X 34.7091 Y 8.3083 Z -1.0000 I -0.0084 J -0.0714
G03 X 34.6475 Y 8.3006 Z -1.0000 I 0.1171 J -1.1955
G02 X 34.5857 Y 8.2926 Z -1.0000 I -0.2301 J 1.5298
G02 X 34.5088 Y 8.2855 Z -1.0000 I -0.2445 J 2.2336
G03 X 34.4322 Y 8.2774 Z -1.0000 I 0.0969 J -1.2831
G03 X 34.4010 Y 8.2708 Z -1.0000 I 0.0291 J -0.2136
G02 X 34.3698 Y 8.2632 Z -1.0000 I -0.1070 J 0.3702
G02 X 34.2931 Y 8.2492 Z -1.0000 I -0.4251 J 2.1157
G03 X 34.1224 Y 8.2123 Z -1.0000 I 0.2780 J -1.6980
G01 X 34.1155 Y 8.2012 Z -1.0000
G01 X 34.1119 Y 8.1937 Z -1.0000
G02 X 34.0710 Y 8.1781 Z -1.0000 I -0.0866 J 0.1666
G03 X 34.0271 Y 8.1615 Z -1.0000 I 0.0509 J -0.2011
G03 X 33.9990 Y 8.1411 Z -1.0000 I 0.0514 J -0.0999
G02 X 33.9729 Y 8.1176 Z -1.0000 I -0.2337 J 0.2337
G01 X 33.9676 Y 8.1157 Z -1.0000
G01 X 33.9625 Y 8.1138 Z -1.0000
G03 X 33.9378 Y 8.0901 Z -1.0000 I 0.1963 J -0.2286
G02 X 33.9126 Y 8.0676 Z -1.0000 I -0.1315 J 0.1219
G01 X 33.9029 Y 8.0644 Z -1.0000
G01 X 33.8941 Y 8.0610 Z -1.0000
G01 X 33.8861 Y 8.0494 Z -1.0000
G02 X 33.8445 Y 8.0031 Z -1.0000 I -0.0816 J 0.0313
G01 X 33.7976 Y 8.0039 Z -1.0000
G01 X 33.7830 Y 8.0060 Z -1.0000
G01 X 33.7691 Y 7.9975 Z -1.0000
G01 X 33.7545 Y 7.9862 Z -1.0000
G01 X 33.7366 Y 7.9822 Z -1.0000
G01 X 33.7188 Y 7.9776 Z -1.0000
G03 X 33.6919 Y 7.9572 Z -1.0000 I 0.0600 J -0.1073
G02 X 33.6677 Y 7.9392 Z -1.0000 I -0.0728 J 0.0728
G01 X 33.6615 Y 7.9409 Z -1.0000
G01 X 33.6613 Y 7.9477 Z -1.0000
G01 X 33.6690 Y 7.9541 Z -1.0000
G01 X 33.6422 Y 7.9563 Z -1.0000
G03 X 33.6049 Y 7.9500 Z -1.0000 I 0.0093 J -0.1687
G01 X 33.5957 Y 7.9430 Z -1.0000
G01 X 33.5866 Y 7.9352 Z -1.0000
G02 X 33.5453 Y 7.9222 Z -1.0000 I -0.0978 J 0.2384
G03 X 33.5031 Y 7.9091 Z -1.0000 I 0.0617 J -0.2742
G03 X 33.4736 Y 7.8936 Z -1.0000 I 0.0585 J -0.1470
G02 X 33.4452 Y 7.8777 Z -1.0000 I -0.1147 J 0.1715
G01 X 33.4379 Y 7.8772 Z -1.0000
G01 X 33.4326 Y 7.8763 Z -1.0000
G01 X 33.4302 Y 7.8713 Z -1.0000
G01 X 33.4269 Y 7.8654 Z -1.0000
G02 X 33.3957 Y 7.8506 Z -1.0000 I -0.0919 J 0.1531
G03 X 33.3634 Y 7.8349 Z -1.0000 I 0.0598 J -0.1644
G03 X 33.3428 Y 7.8177 Z -1.0000 I 0.0505 J -0.0816
G02 X 33.3227 Y 7.8009 Z -1.0000 I -0.0705 J 0.0638
G01 X 33.3101 Y 7.7973 Z -1.0000
G01 X 33.2987 Y 7.7934 Z -1.0000
G01 X 33.2901 Y 7.7819 Z -1.0000
G01 X 33.2820 Y 7.7696 Z -1.0000
G01 X 33.2745 Y 7.7665 Z -1.0000
G01 X 33.2660 Y 7.7636 Z -1.0000
G03 X 33.2278 Y 7.7306 Z -1.0000 I 0.2680 J -0.3485
G02 X 33.1896 Y 7.6974 Z -1.0000 I -0.3155 J 0.3249
G01 X 33.1814 Y 7.6946 Z -1.0000
G01 X 33.1771 Y 7.6908 Z -1.0000
G01 X 33.1789 Y 7.6728 Z -1.0000
G01 X 33.1787 Y 7.6601 Z -1.0000
G01 X 33.1738 Y 7.6584 Z -1.0000
G01 X 33.1623 Y 7.6601 Z -1.0000
G01 X 33.1444 Y 7.6506 Z -1.0000
G02 X 33.1259 Y 7.6375 Z -1.0000 I -0.0682 J 0.0771
G02 X 33.1045 Y 7.6285 Z -1.0000 I -0.0540 J 0.0980
G01 X 33.0893 Y 7.6180 Z -1.0000
G01 X 33.0876 Y 7.6069 Z -1.0000
G01 X 33.0856 Y 7.5955 Z -1.0000
G01 X 33.0665 Y 7.5820 Z -1.0000
G03 X 33.0452 Y 7.5681 Z -1.0000 I 0.0215 J -0.0564
G01 X 33.0398 Y 7.5551 Z -1.0000
G01 X 33.0348 Y 7.5457 Z -1.0000
G01 X 33.0239 Y 7.5444 Z -1.0000
G01 X 33.0152 Y 7.5445 Z -1.0000
G01 X 33.0140 Y 7.5408 Z -1.0000
G01 X 33.0156 Y 7.5309 Z -1.0000
G02 X 33.0026 Y 7.4921 Z -1.0000 I -0.2081 J 0.0484
G03 X 32.9854 Y 7.4531 Z -1.0000 I 3.1037 J -1.3904
G03 X 32.9834 Y 7.4480 Z -1.0000 I 0.0735 J -0.0318
G02 X 32.9644 Y 7.4133 Z -1.0000 I -0.1168 J 0.0413
G01 X 32.9514 Y 7.4069 Z -1.0000
G01 X 32.9406 Y 7.4035 Z -1.0000
G01 X 32.9371 Y 7.3967 Z -1.0000
G01 X 32.9404 Y 7.3897 Z -1.0000
G01 X 32.9494 Y 7.3864 Z -1.0000
G01 X 32.9531 Y 7.3828 Z -1.0000
G01 X 32.9494 Y 7.3741 Z -1.0000
G01 X 32.9395 Y 7.3471 Z -1.0000
G01 X 32.9525 Y 7.3350 Z -1.0000
G01 X 32.9642 Y 7.3313 Z -1.0000
G01 X 32.9680 Y 7.3241 Z -1.0000
G01 X 32.9637 Y 7.3190 Z -1.0000
G01 X 32.9459 Y 7.3201 Z -1.0000
G01 X 32.9326 Y 7.3187 Z -1.0000
G01 X 32.9299 Y 7.3112 Z -1.0000
G01 X 32.9304 Y 7.2977 Z -1.0000
G01 X 32.9237 Y 7.2903 Z -1.0000
G01 X 32.9217 Y 7.2870 Z -1.0000
G01 X 32.9242 Y 7.2845 Z -1.0000
G01 X 32.9326 Y 7.2794 Z -1.0000
G01 X 32.9371 Y 7.2631 Z -1.0000
G01 X 32.9272 Y 7.2500 Z -1.0000
G01 X 32.9083 Y 7.2549 Z -1.0000
G01 X 32.9004 Y 7.2567 Z -1.0000
G01 X 32.8960 Y 7.2505 Z -1.0000
G01 X 32.9009 Y 7.2373 Z -1.0000
G01 X 32.9160 Y 7.2274 Z -1.0000
G01 X 32.9290 Y 7.2177 Z -1.0000
G01 X 32.9303 Y 7.2061 Z -1.0000
G01 X 32.9299 Y 7.1949 Z -1.0000
G01 X 32.9347 Y 7.1912 Z -1.0000
G01 X 32.9423 Y 7.1874 Z -1.0000
G02 X 32.9576 Y 7.1604 Z -1.0000 I -0.1019 J -0.0755
G03 X 32.9734 Y 7.1341 Z -1.0000 I 0.0962 J 0.0397
G01 X 32.9829 Y 7.1296 Z -1.0000
G01 X 32.9919 Y 7.1247 Z -1.0000
G02 X 33.0090 Y 7.0885 Z -1.0000 I -0.1375 J -0.0872
G03 X 33.0247 Y 7.0504 Z -1.0000 I 0.2728 J 0.0905
G01 X 33.0296 Y 7.0474 Z -1.0000
G01 X 33.0348 Y 7.0445 Z -1.0000
G02 X 33.0552 Y 7.0063 Z -1.0000 I -0.2759 J -0.1718
G03 X 33.0775 Y 6.9710 Z -1.0000 I 0.1367 J 0.0616
G01 X 33.0902 Y 6.9651 Z -1.0000
G01 X 33.0944 Y 6.9611 Z -1.0000
G01 X 33.0912 Y 6.9540 Z -1.0000
G01 X 33.0850 Y 6.9442 Z -1.0000
G01 X 33.0886 Y 6.9379 Z -1.0000
G01 X 33.0969 Y 6.9297 Z -1.0000
G02 X 33.1014 Y 6.9079 Z -1.0000 I -0.0511 J -0.0218
G01 X 33.1078 Y 6.8895 Z -1.0000
G01 X 33.1212 Y 6.8831 Z -1.0000
G01 X 33.1367 Y 6.8779 Z -1.0000
G01 X 33.1443 Y 6.8658 Z -1.0000
G01 X 33.1535 Y 6.8556 Z -1.0000
G03 X 33.2041 Y 6.8475 Z -1.0000 I 0.0543 J 0.1770
G03 X 33.2585 Y 6.8504 Z -1.0000 I 0.0075 J 0.3686
G01 X 33.2670 Y 6.8556 Z -1.0000
G01 X 33.2733 Y 6.8582 Z -1.0000
G01 X 33.2806 Y 6.8533 Z -1.0000
G01 X 33.2790 Y 6.8455 Z -1.0000
G02 X 33.2564 Y 6.8355 Z -1.0000 I -0.0339 J 0.0462
G03 X 33.2133 Y 6.8138 Z -1.0000 I 0.0179 J -0.0890
G01 X 33.2183 Y 6.8009 Z -1.0000
G01 X 33.2313 Y 6.7973 Z -1.0000
G01 X 33.2349 Y 6.7907 Z -1.0000
G01 X 33.2385 Y 6.7840 Z -1.0000
G01 X 33.2503 Y 6.7804 Z -1.0000
G01 X 33.2612 Y 6.7850 Z -1.0000
G01 X 33.2658 Y 6.7962 Z -1.0000
G01 X 33.2710 Y 6.8032 Z -1.0000
G01 X 33.2846 Y 6.8019 Z -1.0000
G03 X 33.3040 Y 6.7959 Z -1.0000 I 0.0247 J 0.0459
G03 X 33.3257 Y 6.7976 Z -1.0000 I 0.0063 J 0.0606
G01 X 33.3418 Y 6.7953 Z -1.0000
G01 X 33.3482 Y 6.7842 Z -1.0000
G01 X 33.3524 Y 6.7796 Z -1.0000
G01 X 33.3590 Y 6.7830 Z -1.0000
G01 X 33.3722 Y 6.7963 Z -1.0000
G01 X 33.3890 Y 6.8010 Z -1.0000
G01 X 33.4059 Y 6.7963 Z -1.0000
G01 X 33.4190 Y 6.7830 Z -1.0000
G01 X 33.4298 Y 6.7779 Z -1.0000
G01 X 33.4426 Y 6.7887 Z -1.0000
G02 X 33.4753 Y 6.7713 Z -1.0000 I -0.0079 J -0.0541
G03 X 33.5218 Y 6.7505 Z -1.0000 I 0.0469 J 0.0424
G03 X 33.5915 Y 6.7705 Z -1.0000 I 0.0009 J 0.1283
G01 X 33.6132 Y 6.7748 Z -1.0000
G01 X 33.6383 Y 6.7622 Z -1.0000
G03 X 33.6640 Y 6.7431 Z -1.0000 I 0.0946 J 0.1006
G01 X 33.6778 Y 6.7394 Z -1.0000
G01 X 33.6919 Y 6.7366 Z -1.0000
G01 X 33.7041 Y 6.7284 Z -1.0000
G01 X 33.7122 Y 6.7281 Z -1.0000
G01 X 33.7218 Y 6.7438 Z -1.0000
G02 X 33.7317 Y 6.7660 Z -1.0000 I 0.0673 J -0.0167
G01 X 33.7396 Y 6.7702 Z -1.0000
G01 X 33.7450 Y 6.7657 Z -1.0000
G02 X 33.7440 Y 6.7432 Z -1.0000 I -0.0553 J -0.0089
G01 X 33.7477 Y 6.7274 Z -1.0000
G01 X 33.7609 Y 6.7237 Z -1.0000
G02 X 33.7970 Y 6.7292 Z -1.0000 I 0.0360 J -0.1143
G02 X 33.8436 Y 6.7235 Z -1.0000 I -0.0003 J -0.1948
G01 X 33.8656 Y 6.7244 Z -1.0000
G01 X 33.8718 Y 6.7331 Z -1.0000
G01 X 33.8830 Y 6.7447 Z -1.0000
G01 X 33.8989 Y 6.7343 Z -1.0000
G01 X 33.9123 Y 6.7298 Z -1.0000
G01 X 33.9232 Y 6.7497 Z -1.0000
G01 X 33.9406 Y 6.7733 Z -1.0000
G01 X 33.9789 Y 6.7669 Z -1.0000
G01 X 33.9989 Y 6.7604 Z -1.0000
G03 X 34.0497 Y 6.7668 Z -1.0000 I 0.0002 J 0.2016
G02 X 34.0994 Y 6.7744 Z -1.0000 I 0.0616 J -0.2380
G01 X 34.1084 Y 6.7696 Z -1.0000
G01 X 34.1156 Y 6.7668 Z -1.0000
G01 X 34.1282 Y 6.7748 Z -1.0000
G01 X 34.1557 Y 6.7859 Z -1.0000
G01 X 34.1697 Y 6.7702 Z -1.0000
G01 X 34.1804 Y 6.7576 Z -1.0000
G01 X 34.2005 Y 6.7651 Z -1.0000
G01 X 34.2150 Y 6.7770 Z -1.0000
G01 X 34.2287 Y 6.7806 Z -1.0000
G01 X 34.2342 Y 6.7759 Z -1.0000
G01 X 34.2313 Y 6.7651 Z -1.0000
G01 X 34.2316 Y 6.7346 Z -1.0000
G01 X 34.2686 Y 6.7217 Z -1.0000
G02 X 34.2909 Y 6.7225 Z -1.0000 I 0.0140 J -0.0738
G01 X 34.3051 Y 6.7175 Z -1.0000
G01 X 34.3056 Y 6.7127 Z -1.0000
G01 X 34.2955 Y 6.7088 Z -1.0000
G01 X 34.2833 Y 6.6976 Z -1.0000
G01 X 34.2929 Y 6.6829 Z -1.0000
G02 X 34.3100 Y 6.6739 Z -1.0000 I -0.0164 J -0.0515
G01 X 34.3135 Y 6.6667 Z -1.0000
G01 X 34.3094 Y 6.6631 Z -1.0000
G02 X 34.2782 Y 6.6717 Z -1.0000 I 0.0175 J 0.1254
G03 X 34.2426 Y 6.6819 Z -1.0000 I -0.0613 J -0.1470
G03 X 34.2217 Y 6.6809 Z -1.0000 I -0.0081 J -0.0496
G01 X 34.2076 Y 6.6666 Z -1.0000
G03 X 34.1963 Y 6.5783 Z -1.0000 I 0.3741 J -0.0925
G02 X 34.1937 Y 6.5586 Z -1.0000 I -0.0820 J 0.0009
G01 X 34.1906 Y 6.5564 Z -1.0000
G01 X 34.1789 Y 6.5507 Z -1.0000
G01 X 34.1796 Y 6.5395 Z -1.0000
G01 X 34.1825 Y 6.5160 Z -1.0000
G01 X 34.1619 Y 6.5031 Z -1.0000
G01 X 34.1557 Y 6.4987 Z -1.0000
G01 X 34.1574 Y 6.4908 Z -1.0000
G01 X 34.1593 Y 6.4731 Z -1.0000
G01 X 34.1389 Y 6.4620 Z -1.0000
G01 X 34.1202 Y 6.4496 Z -1.0000
G01 X 34.1261 Y 6.4316 Z -1.0000
G01 X 34.1183 Y 6.4265 Z -1.0000
G01 X 34.0978 Y 6.4224 Z -1.0000
G01 X 34.0802 Y 6.3997 Z -1.0000
G02 X 34.0639 Y 6.3760 Z -1.0000 I -0.0561 J 0.0211
G01 X 34.0509 Y 6.3736 Z -1.0000
G01 X 34.0422 Y 6.3719 Z -1.0000
G01 X 34.0403 Y 6.3636 Z -1.0000
G01 X 34.0387 Y 6.3512 Z -1.0000
G01 X 34.0247 Y 6.3414 Z -1.0000
G01 X 34.0213 Y 6.3345 Z -1.0000
G01 X 34.0322 Y 6.3237 Z -1.0000
G03 X 34.0622 Y 6.3182 Z -1.0000 I 0.0283 J 0.0696
G03 X 34.1388 Y 6.3261 Z -1.0000 I -0.0106 J 0.4764
G02 X 34.2162 Y 6.3389 Z -1.0000 I 0.3527 J -1.8968
G02 X 34.2443 Y 6.3413 Z -1.0000 I 0.0360 J -0.2501
G01 X 34.2630 Y 6.3513 Z -1.0000
G01 X 34.2597 Y 6.3628 Z -1.0000
G01 X 34.2777 Y 6.3688 Z -1.0000
G03 X 34.3080 Y 6.3728 Z -1.0000 I -0.0039 J 0.1465
G03 X 34.3855 Y 6.3947 Z -1.0000 I -0.2383 J 0.9947
G03 X 34.4306 Y 6.4149 Z -1.0000 I -0.0703 J 0.2165
G01 X 34.4292 Y 6.4203 Z -1.0000
G02 X 34.4003 Y 6.4254 Z -1.0000 I 0.0018 J 0.0950
G01 X 34.3958 Y 6.4317 Z -1.0000
G01 X 34.4004 Y 6.4369 Z -1.0000
G02 X 34.4318 Y 6.4357 Z -1.0000 I 0.0118 J -0.1058
G01 X 34.4570 Y 6.4424 Z -1.0000
G01 X 34.4549 Y 6.4553 Z -1.0000
G01 X 34.4734 Y 6.4613 Z -1.0000
G03 X 34.5141 Y 6.4784 Z -1.0000 I -0.0016 J 0.0609
G01 X 34.5182 Y 6.5047 Z -1.0000
G01 X 34.5147 Y 6.5198 Z -1.0000
G01 X 34.5187 Y 6.5237 Z -1.0000
G01 X 34.5263 Y 6.5207 Z -1.0000
G01 X 34.5293 Y 6.5134 Z -1.0000
G01 X 34.5329 Y 6.5067 Z -1.0000
G01 X 34.5448 Y 6.5032 Z -1.0000
G01 X 34.5558 Y 6.5075 Z -1.0000
G01 X 34.5602 Y 6.5175 Z -1.0000
G01 X 34.5658 Y 6.5271 Z -1.0000
G02 X 34.5987 Y 6.5397 Z -1.0000 I 0.0553 J -0.0958
G01 X 34.6177 Y 6.5521 Z -1.0000
G01 X 34.6102 Y 6.5589 Z -1.0000
G01 X 34.6126 Y 6.5666 Z -1.0000
G01 X 34.6179 Y 6.5756 Z -1.0000
G01 X 34.6141 Y 6.5819 Z -1.0000
G01 X 34.6085 Y 6.5955 Z -1.0000
G01 X 34.6244 Y 6.6061 Z -1.0000
G03 X 34.7115 Y 6.6216 Z -1.0000 I -0.0018 J 0.2622
G01 X 34.7092 Y 6.6366 Z -1.0000
G01 X 34.7037 Y 6.6411 Z -1.0000
G01 X 34.7066 Y 6.6478 Z -1.0000
G01 X 34.7205 Y 6.6606 Z -1.0000
G01 X 34.7245 Y 6.6732 Z -1.0000
G01 X 34.7283 Y 6.6844 Z -1.0000
G01 X 34.7355 Y 6.6881 Z -1.0000
G01 X 34.7455 Y 6.6908 Z -1.0000
G03 X 34.7620 Y 6.7035 Z -1.0000 I -0.0405 J 0.0695
G01 X 34.7643 Y 6.7135 Z -1.0000
G01 X 34.7567 Y 6.7189 Z -1.0000
G02 X 34.7377 Y 6.7219 Z -1.0000 I 0.0000 J 0.0612
G01 X 34.7307 Y 6.7274 Z -1.0000
G01 X 34.7233 Y 6.7320 Z -1.0000
G03 X 34.6489 Y 6.7351 Z -1.0000 I -0.0674 J -0.7268
G02 X 34.5791 Y 6.7381 Z -1.0000 I -0.0069 J 0.6531
G01 X 34.5772 Y 6.7420 Z -1.0000
G01 X 34.6078 Y 6.7588 Z -1.0000
G02 X 34.7976 Y 6.7387 Z -1.0000 I -0.0153 J -1.0515
G03 X 34.8530 Y 6.7282 Z -1.0000 I 0.6627 J 3.3608
G03 X 34.9094 Y 6.7186 Z -1.0000 I 0.5725 J 3.1781
G02 X 34.9657 Y 6.7084 Z -1.0000 I -0.2260 J -1.4048
G02 X 34.9916 Y 6.7020 Z -1.0000 I -0.0644 J -0.3181
G01 X 35.0003 Y 6.7046 Z -1.0000
G01 X 35.0000 Y 6.7118 Z -1.0000
G03 X 34.9813 Y 6.7256 Z -1.0000 I -0.0549 J -0.0549
G01 X 34.9672 Y 6.7291 Z -1.0000
G01 X 34.9536 Y 6.7324 Z -1.0000
G01 X 34.9445 Y 6.7407 Z -1.0000
G01 X 34.9467 Y 6.7462 Z -1.0000
G02 X 34.9706 Y 6.7475 Z -1.0000 I 0.0152 J -0.0588
G01 X 34.9979 Y 6.7528 Z -1.0000
G01 X 35.0146 Y 6.7729 Z -1.0000
G01 X 35.0319 Y 6.7919 Z -1.0000
G02 X 35.0666 Y 6.7966 Z -1.0000 I 0.0251 J -0.0552
G02 X 35.1053 Y 6.7847 Z -1.0000 I -0.0225 J -0.1425
G02 X 35.1294 Y 6.7672 Z -1.0000 I -0.0336 J -0.0717
G03 X 35.1538 Y 6.7528 Z -1.0000 I 0.0372 J 0.0350
G03 X 35.1970 Y 6.7497 Z -1.0000 I 0.0299 J 0.1154
G03 X 35.2183 Y 6.7572 Z -1.0000 I -0.0056 J 0.0497
G01 X 35.2176 Y 6.7628 Z -1.0000
G01 X 35.1919 Y 6.7707 Z -1.0000
G01 X 35.2165 Y 6.7845 Z -1.0000
G01 X 35.2309 Y 6.7980 Z -1.0000
G01 X 35.2291 Y 6.8041 Z -1.0000
G01 X 35.2301 Y 6.8072 Z -1.0000
G01 X 35.2394 Y 6.8009 Z -1.0000
G01 X 35.2466 Y 6.7817 Z -1.0000
G01 X 35.2612 Y 6.7711 Z -1.0000
G01 X 35.2740 Y 6.7865 Z -1.0000
G01 X 35.2785 Y 6.8039 Z -1.0000
G01 X 35.2921 Y 6.8197 Z -1.0000
G01 X 35.3096 Y 6.8247 Z -1.0000
G01 X 35.3262 Y 6.8171 Z -1.0000
G01 X 35.3383 Y 6.8119 Z -1.0000
G01 X 35.3406 Y 6.8167 Z -1.0000
G01 X 35.3328 Y 6.8320 Z -1.0000
G01 X 35.3348 Y 6.8395 Z -1.0000
G01 X 35.3412 Y 6.8408 Z -1.0000
G01 X 35.3504 Y 6.8330 Z -1.0000
G01 X 35.3588 Y 6.8267 Z -1.0000
G01 X 35.3648 Y 6.8291 Z -1.0000
G01 X 35.3597 Y 6.8496 Z -1.0000
G03 X 35.2664 Y 6.8872 Z -1.0000 I -0.1699 J -0.2877
G02 X 35.2435 Y 6.8981 Z -1.0000 I 0.0140 J 0.0586
G01 X 35.2381 Y 6.9091 Z -1.0000
G01 X 35.2328 Y 6.9191 Z -1.0000
G01 X 35.2150 Y 6.9247 Z -1.0000
G02 X 35.1297 Y 6.9409 Z -1.0000 I 0.0051 J 0.2604
G01 X 35.1064 Y 6.9649 Z -1.0000
G01 X 35.1005 Y 6.9693 Z -1.0000
G01 X 35.0845 Y 6.9656 Z -1.0000
G02 X 35.0397 Y 6.9600 Z -1.0000 I -0.0296 J 0.0554
G02 X 34.9809 Y 6.9914 Z -1.0000 I 0.0330 J 0.1327
G01 X 34.9640 Y 6.9996 Z -1.0000
G01 X 34.9553 Y 6.9957 Z -1.0000
G01 X 34.9540 Y 6.9850 Z -1.0000
G01 X 34.9620 Y 6.9745 Z -1.0000
G01 X 34.9402 Y 6.9714 Z -1.0000
G01 X 34.9206 Y 6.9704 Z -1.0000
G01 X 34.9197 Y 6.9658 Z -1.0000
G01 X 34.9199 Y 6.9601 Z -1.0000
G01 X 34.9094 Y 6.9567 Z -1.0000
G03 X 34.8844 Y 6.9557 Z -1.0000 I -0.0089 J -0.0894
G03 X 34.8632 Y 6.9483 Z -1.0000 I 0.0132 J -0.0722
G02 X 34.7921 Y 6.9272 Z -1.0000 I -0.0878 J 0.1660
G01 X 34.7596 Y 6.9390 Z -1.0000
G02 X 34.7443 Y 6.9767 Z -1.0000 I 0.0370 J 0.0370
G01 X 34.7605 Y 6.9999 Z -1.0000
G01 X 34.7705 Y 6.9979 Z -1.0000
G01 X 34.7759 Y 6.9856 Z -1.0000
G01 X 34.7906 Y 6.9720 Z -1.0000
G01 X 34.8093 Y 6.9885 Z -1.0000
G02 X 34.8153 Y 7.0113 Z -1.0000 I 0.2962 J -0.0652
G02 X 34.8219 Y 7.0295 Z -1.0000 I 0.1782 J -0.0541
G01 X 34.8218 Y 7.0424 Z -1.0000
G01 X 34.8141 Y 7.0475 Z -1.0000
G01 X 34.8024 Y 7.0522 Z -1.0000
G01 X 34.7937 Y 7.0669 Z -1.0000
G01 X 34.7985 Y 7.0780 Z -1.0000
G01 X 34.8232 Y 7.0831 Z -1.0000
G03 X 34.8608 Y 7.0919 Z -1.0000 I 0.0056 J 0.0607
G01 X 34.8733 Y 7.1138 Z -1.0000
G01 X 34.8771 Y 7.1207 Z -1.0000
G02 X 34.8991 Y 7.1297 Z -1.0000 I 0.0392 J -0.0638
G01 X 34.9088 Y 7.1369 Z -1.0000
G01 X 34.9068 Y 7.1427 Z -1.0000
G01 X 34.8932 Y 7.1526 Z -1.0000
G01 X 34.8888 Y 7.1653 Z -1.0000
G01 X 34.8955 Y 7.1744 Z -1.0000
G02 X 34.9395 Y 7.1811 Z -1.0000 I 0.0440 J -0.1418
G03 X 34.9811 Y 7.1913 Z -1.0000 I 0.0000 J 0.0895
G01 X 34.9934 Y 7.2093 Z -1.0000
G01 X 35.0039 Y 7.2288 Z -1.0000
G01 X 35.0249 Y 7.2356 Z -1.0000
G01 X 35.0463 Y 7.2410 Z -1.0000
G01 X 35.0532 Y 7.2536 Z -1.0000
G01 X 35.0576 Y 7.2695 Z -1.0000
G01 X 35.0660 Y 7.2747 Z -1.0000
G03 X 35.1345 Y 7.2863 Z -1.0000 I -0.0406 J 0.4458
G01 X 35.1461 Y 7.2948 Z -1.0000
G01 X 35.1536 Y 7.2974 Z -1.0000
G01 X 35.1656 Y 7.2876 Z -1.0000
G01 X 35.1768 Y 7.2785 Z -1.0000
G01 X 35.1830 Y 7.2812 Z -1.0000
G01 X 35.1908 Y 7.2906 Z -1.0000
G01 X 35.2021 Y 7.2940 Z -1.0000
G01 X 35.2111 Y 7.2995 Z -1.0000
G03 X 35.2223 Y 7.3328 Z -1.0000 I -0.0999 J 0.0520
G02 X 35.2425 Y 7.3827 Z -1.0000 I 0.1233 J -0.0208
G01 X 35.2589 Y 7.3861 Z -1.0000
G01 X 35.2611 Y 7.3802 Z -1.0000
G01 X 35.2561 Y 7.3764 Z -1.0000
G01 X 35.2462 Y 7.3658 Z -1.0000
G01 X 35.2583 Y 7.3406 Z -1.0000
G03 X 35.2799 Y 7.3282 Z -1.0000 I 0.0389 J 0.0430
G01 X 35.2994 Y 7.3278 Z -1.0000
G01 X 35.3151 Y 7.3266 Z -1.0000
G01 X 35.3203 Y 7.3188 Z -1.0000
G01 X 35.3235 Y 7.3077 Z -1.0000
G01 X 35.3297 Y 7.3043 Z -1.0000
G01 X 35.3344 Y 7.3003 Z -1.0000
G02 X 35.3342 Y 7.2735 Z -1.0000 I -0.0881 J -0.0128
G01 X 35.3417 Y 7.2524 Z -1.0000
G01 X 35.3541 Y 7.2555 Z -1.0000
G01 X 35.3549 Y 7.2376 Z -1.0000
G01 X 35.3609 Y 7.2221 Z -1.0000
G01 X 35.3717 Y 7.2288 Z -1.0000
G01 X 35.3835 Y 7.2247 Z -1.0000
G01 X 35.3883 Y 7.2119 Z -1.0000
G01 X 35.3969 Y 7.1954 Z -1.0000
G01 X 35.4073 Y 7.1774 Z -1.0000
G01 X 35.4068 Y 7.1582 Z -1.0000
G01 X 35.4064 Y 7.1454 Z -1.0000
G01 X 35.4105 Y 7.1438 Z -1.0000
G01 X 35.4270 Y 7.1368 Z -1.0000
G02 X 35.4203 Y 7.0985 Z -1.0000 I -0.0504 J -0.0109
G01 X 35.4141 Y 7.0783 Z -1.0000
G01 X 35.4188 Y 7.0604 Z -1.0000
G02 X 35.4324 Y 6.9938 Z -1.0000 I -0.0841 J -0.0518
G01 X 35.4039 Y 6.9620 Z -1.0000
G01 X 35.4020 Y 6.9589 Z -1.0000
G01 X 35.4050 Y 6.9563 Z -1.0000
G01 X 35.4177 Y 6.9452 Z -1.0000
G01 X 35.4101 Y 6.9310 Z -1.0000
G01 X 35.4062 Y 6.9248 Z -1.0000
G01 X 35.4110 Y 6.9161 Z -1.0000
G01 X 35.4171 Y 6.9049 Z -1.0000
G01 X 35.4118 Y 6.8856 Z -1.0000
G01 X 35.4074 Y 6.8657 Z -1.0000
G01 X 35.4166 Y 6.8470 Z -1.0000
G02 X 35.4291 Y 6.8280 Z -1.0000 I -0.0403 J -0.0403
G01 X 35.4292 Y 6.8157 Z -1.0000
G01 X 35.4289 Y 6.8046 Z -1.0000
G01 X 35.4343 Y 6.7989 Z -1.0000
G01 X 35.4390 Y 6.7928 Z -1.0000
G02 X 35.4356 Y 6.7714 Z -1.0000 I -0.0538 J -0.0026
G01 X 35.4239 Y 6.7604 Z -1.0000
G01 X 35.4101 Y 6.7639 Z -1.0000
G03 X 35.3920 Y 6.7766 Z -1.0000 I -0.0450 J -0.0450
G01 X 35.3749 Y 6.7803 Z -1.0000
G01 X 35.3687 Y 6.7766 Z -1.0000
G01 X 35.3701 Y 6.7713 Z -1.0000
G01 X 35.3759 Y 6.7625 Z -1.0000
G01 X 35.3727 Y 6.7554 Z -1.0000
G01 X 35.3556 Y 6.7252 Z -1.0000
G01 X 35.3722 Y 6.7085 Z -1.0000
G01 X 35.3772 Y 6.7053 Z -1.0000
G01 X 35.3767 Y 6.6983 Z -1.0000
G01 X 35.3541 Y 6.6873 Z -1.0000
G01 X 35.3407 Y 6.7023 Z -1.0000
G01 X 35.3252 Y 6.7227 Z -1.0000
G01 X 35.3019 Y 6.7130 Z -1.0000
G01 X 35.2903 Y 6.7025 Z -1.0000
G02 X 35.2616 Y 6.6954 Z -1.0000 I -0.0352 J 0.0810
G03 X 35.2360 Y 6.6899 Z -1.0000 I 0.0069 J -0.0935
G01 X 35.2345 Y 6.6854 Z -1.0000
G01 X 35.2330 Y 6.6812 Z -1.0000
G02 X 35.2129 Y 6.6777 Z -1.0000 I -0.0201 J 0.0559
G01 X 35.2084 Y 6.6675 Z -1.0000
G01 X 35.2341 Y 6.6545 Z -1.0000
G02 X 35.2794 Y 6.6455 Z -1.0000 I -0.0301 J -0.2711
G01 X 35.2881 Y 6.6391 Z -1.0000
G01 X 35.2961 Y 6.6313 Z -1.0000
G03 X 35.3176 Y 6.6219 Z -1.0000 I 0.0527 J 0.0905
G01 X 35.3265 Y 6.6018 Z -1.0000
G02 X 35.2842 Y 6.5498 Z -1.0000 I -0.1235 J 0.0572
G01 X 35.2802 Y 6.5399 Z -1.0000
G01 X 35.2868 Y 6.5342 Z -1.0000
G01 X 35.3059 Y 6.5299 Z -1.0000
G01 X 35.3099 Y 6.5236 Z -1.0000
G01 X 35.3059 Y 6.5173 Z -1.0000
G01 X 35.2868 Y 6.5130 Z -1.0000
G03 X 35.2654 Y 6.5079 Z -1.0000 I 0.0008 J -0.0510
G03 X 35.2329 Y 6.4869 Z -1.0000 I 0.0690 J -0.1429
G03 X 35.2157 Y 6.4616 Z -1.0000 I 0.0355 J -0.0426
G01 X 35.2200 Y 6.4476 Z -1.0000
G02 X 35.2363 Y 6.4331 Z -1.0000 I -0.0812 J -0.1072
G01 X 35.2380 Y 6.4287 Z -1.0000
G01 X 35.2309 Y 6.4198 Z -1.0000
G02 X 35.1353 Y 6.4052 Z -1.0000 I -0.1482 J 0.6476
G03 X 34.9927 Y 6.3813 Z -1.0000 I 0.0670 J -0.8382
G03 X 34.9202 Y 6.3497 Z -1.0000 I 0.0622 J -0.2416
G01 X 34.9136 Y 6.3390 Z -1.0000
G01 X 34.9175 Y 6.3257 Z -1.0000
G01 X 34.9251 Y 6.3113 Z -1.0000
G01 X 34.9233 Y 6.3048 Z -1.0000
G01 X 34.8965 Y 6.3058 Z -1.0000
G01 X 34.8938 Y 6.3386 Z -1.0000
G01 X 34.8926 Y 6.3447 Z -1.0000
G01 X 34.8796 Y 6.3490 Z -1.0000
G01 X 34.8564 Y 6.3345 Z -1.0000
G01 X 34.8618 Y 6.3126 Z -1.0000
G01 X 34.8642 Y 6.3029 Z -1.0000
G01 X 34.8522 Y 6.2932 Z -1.0000
G01 X 34.8334 Y 6.2822 Z -1.0000
G01 X 34.8312 Y 6.2709 Z -1.0000
G01 X 34.8281 Y 6.2610 Z -1.0000
G01 X 34.8188 Y 6.2625 Z -1.0000
G03 X 34.7897 Y 6.2513 Z -1.0000 I 0.0333 J -0.1309
G02 X 34.7598 Y 6.2382 Z -1.0000 I -0.1153 J 0.2212
G01 X 34.7475 Y 6.2360 Z -1.0000
G01 X 34.7380 Y 6.2326 Z -1.0000
G01 X 34.7347 Y 6.2257 Z -1.0000
G01 X 34.7311 Y 6.2190 Z -1.0000
G01 X 34.7193 Y 6.2154 Z -1.0000
G01 X 34.7084 Y 6.2109 Z -1.0000
G01 X 34.7039 Y 6.2000 Z -1.0000
G01 X 34.7003 Y 6.1881 Z -1.0000
G01 X 34.6936 Y 6.1846 Z -1.0000
G01 X 34.6864 Y 6.1816 Z -1.0000
G01 X 34.6833 Y 6.1741 Z -1.0000
G01 X 34.6971 Y 6.1633 Z -1.0000
G03 X 34.7655 Y 6.1943 Z -1.0000 I -0.0487 J 0.1987
G02 X 34.8430 Y 6.2364 Z -1.0000 I 0.2279 J -0.3265
G02 X 34.8928 Y 6.2462 Z -1.0000 I 0.0498 J -0.1221
G01 X 34.9254 Y 6.2323 Z -1.0000
G01 X 34.9242 Y 6.2134 Z -1.0000
G03 X 34.9084 Y 6.1994 Z -1.0000 I 0.1762 J -0.2143
G03 X 34.8869 Y 6.1776 Z -1.0000 I 0.4106 J -0.4283
G02 X 34.8646 Y 6.1608 Z -1.0000 I -0.0601 J 0.0565
G01 X 34.8531 Y 6.1602 Z -1.0000
G01 X 34.8311 Y 6.1524 Z -1.0000
G03 X 34.8039 Y 6.0754 Z -1.0000 I 0.1913 J -0.1110
G01 X 34.7865 Y 6.0470 Z -1.0000
G02 X 34.7275 Y 6.0203 Z -1.0000 I -0.0958 J 0.1327
G03 X 34.6697 Y 6.0030 Z -1.0000 I 0.1021 J -0.4456
G03 X 34.6503 Y 5.9916 Z -1.0000 I 0.0228 J -0.0610
G01 X 34.6318 Y 5.9823 Z -1.0000
G01 X 34.6147 Y 5.9836 Z -1.0000
G01 X 34.6040 Y 5.9832 Z -1.0000
G01 X 34.6048 Y 5.9764 Z -1.0000
G01 X 34.5908 Y 5.9615 Z -1.0000
G03 X 34.5744 Y 5.9451 Z -1.0000 I 0.0388 J -0.0552
G01 X 34.5703 Y 5.9323 Z -1.0000
G01 X 34.5645 Y 5.9234 Z -1.0000
G02 X 34.5362 Y 5.9175 Z -1.0000 I -0.0283 J 0.0650
G03 X 34.5048 Y 5.9110 Z -1.0000 I -0.0000 J -0.0791
G03 X 34.4787 Y 5.8926 Z -1.0000 I 0.0311 J -0.0721
G02 X 34.4149 Y 5.8488 Z -1.0000 I -0.1328 J 0.1248
G01 X 34.3829 Y 5.8535 Z -1.0000
G01 X 34.3685 Y 5.8594 Z -1.0000
G03 X 34.3110 Y 5.8616 Z -1.0000 I -0.0426 J -0.3729
G02 X 34.2564 Y 5.8639 Z -1.0000 I -0.0125 J 0.3388
G01 X 34.2519 Y 5.8691 Z -1.0000
G01 X 34.2481 Y 5.8739 Z -1.0000
G01 X 34.2328 Y 5.8738 Z -1.0000
G02 X 34.2142 Y 5.8724 Z -1.0000 I -0.0130 J 0.0505
G01 X 34.1980 Y 5.8776 Z -1.0000
G01 X 34.1818 Y 5.8813 Z -1.0000
G03 X 34.1495 Y 5.8750 Z -1.0000 I 0.0059 J -0.1156
G01 X 34.1469 Y 5.8576 Z -1.0000
G03 X 34.1975 Y 5.8398 Z -1.0000 I 0.0546 J 0.0744
G02 X 34.2570 Y 5.8368 Z -1.0000 I -0.3279 J -7.1624
G02 X 34.2633 Y 5.8362 Z -1.0000 I -0.0038 J -0.0704
G01 X 34.2663 Y 5.8329 Z -1.0000
G02 X 34.2650 Y 5.8111 Z -1.0000 I -0.0873 J -0.0056
G01 X 34.2693 Y 5.7910 Z -1.0000
G03 X 34.2966 Y 5.7656 Z -1.0000 I 0.0717 J 0.0498
G03 X 34.3298 Y 5.7523 Z -1.0000 I 0.0595 J 0.1008
G01 X 34.3369 Y 5.7563 Z -1.0000
G01 X 34.3444 Y 5.7615 Z -1.0000
G02 X 34.3782 Y 5.7551 Z -1.0000 I -0.0032 J -0.1098
G03 X 34.4157 Y 5.7480 Z -1.0000 I 0.0408 J 0.1137
G03 X 34.4569 Y 5.7529 Z -1.0000 I 0.0040 J 0.1438
G03 X 34.4943 Y 5.7672 Z -1.0000 I -0.0494 J 0.1849
G01 X 34.4985 Y 5.7740 Z -1.0000
G01 X 34.5080 Y 5.7814 Z -1.0000
G02 X 34.5386 Y 5.7643 Z -1.0000 I -0.0153 J -0.0631
G01 X 34.5547 Y 5.7576 Z -1.0000
G01 X 34.5633 Y 5.7643 Z -1.0000
G01 X 34.5725 Y 5.7787 Z -1.0000
G01 X 34.5874 Y 5.7842 Z -1.0000
G01 X 34.5923 Y 5.7891 Z -1.0000
G01 X 34.5877 Y 5.7986 Z -1.0000
G01 X 34.5815 Y 5.8134 Z -1.0000
G01 X 34.5921 Y 5.8342 Z -1.0000
G01 X 34.6160 Y 5.8457 Z -1.0000
G01 X 34.6376 Y 5.8410 Z -1.0000
G03 X 34.6593 Y 5.8329 Z -1.0000 I 0.0286 J 0.0438
G01 X 34.6704 Y 5.8367 Z -1.0000
G01 X 34.6790 Y 5.8370 Z -1.0000
G02 X 34.6949 Y 5.8155 Z -1.0000 I -0.0404 J -0.0464
G03 X 34.7119 Y 5.7884 Z -1.0000 I 0.1016 J 0.0449
G01 X 34.7218 Y 5.7838 Z -1.0000
G01 X 34.7298 Y 5.7789 Z -1.0000
G01 X 34.7347 Y 5.7582 Z -1.0000
G01 X 34.7294 Y 5.7378 Z -1.0000
G01 X 34.7205 Y 5.7325 Z -1.0000
G03 X 34.6533 Y 5.6713 Z -1.0000 I 0.0000 J -0.0675
G03 X 34.7050 Y 5.5674 Z -1.0000 I 0.1096 J -0.0102
G01 X 34.7095 Y 5.5578 Z -1.0000
G01 X 34.7009 Y 5.5397 Z -1.0000
G03 X 34.6869 Y 5.5189 Z -1.0000 I 0.0640 J -0.0582
G01 X 34.6833 Y 5.5031 Z -1.0000
G01 X 34.6733 Y 5.4911 Z -1.0000
G01 X 34.6589 Y 5.4988 Z -1.0000
G01 X 34.6593 Y 5.4828 Z -1.0000
G02 X 34.6580 Y 5.4562 Z -1.0000 I -0.0516 J -0.0107
G02 X 34.6439 Y 5.4339 Z -1.0000 I -0.0495 J 0.0156
G03 X 34.6281 Y 5.4126 Z -1.0000 I 0.0493 J -0.0529
G01 X 34.6276 Y 5.4004 Z -1.0000
G01 X 34.6258 Y 5.3897 Z -1.0000
G02 X 34.6067 Y 5.3750 Z -1.0000 I -0.0413 J 0.0339
G01 X 34.5997 Y 5.3563 Z -1.0000
G01 X 34.6217 Y 5.3421 Z -1.0000
G02 X 34.6583 Y 5.3377 Z -1.0000 I -0.0000 J -0.1513
G01 X 34.6628 Y 5.3319 Z -1.0000
G01 X 34.6586 Y 5.3257 Z -1.0000
G02 X 34.6371 Y 5.3216 Z -1.0000 I -0.0215 J 0.0541
G01 X 34.6205 Y 5.3126 Z -1.0000
G03 X 34.6114 Y 5.2822 Z -1.0000 I 0.0467 J -0.0304
G03 X 34.6196 Y 5.2479 Z -1.0000 I 0.0762 J -0.0000
G01 X 34.6371 Y 5.2310 Z -1.0000
G01 X 34.6561 Y 5.2150 Z -1.0000
G01 X 34.6628 Y 5.1930 Z -1.0000
G03 X 34.6841 Y 5.1411 Z -1.0000 I 0.0740 J 0.0000
G01 X 34.7235 Y 5.1313 Z -1.0000
G01 X 34.7384 Y 5.1291 Z -1.0000
G01 X 34.7450 Y 5.1167 Z -1.0000
G01 X 34.7380 Y 5.1042 Z -1.0000
G01 X 34.7201 Y 5.1015 Z -1.0000
G01 X 34.6987 Y 5.1000 Z -1.0000
G01 X 34.6842 Y 5.0869 Z -1.0000
G01 X 34.6878 Y 5.0648 Z -1.0000
G01 X 34.7083 Y 5.0642 Z -1.0000
G01 X 34.7197 Y 5.0667 Z -1.0000
G01 X 34.7284 Y 5.0590 Z -1.0000
G01 X 34.7270 Y 5.0463 Z -1.0000
G01 X 34.7139 Y 5.0369 Z -1.0000
G01 X 34.7009 Y 5.0271 Z -1.0000
G01 X 34.6992 Y 5.0122 Z -1.0000
G01 X 34.6996 Y 4.9970 Z -1.0000
G01 X 34.6944 Y 4.9929 Z -1.0000
G01 X 34.6878 Y 4.9886 Z -1.0000
G03 X 34.6834 Y 4.9672 Z -1.0000 I 0.0498 J -0.0213
G02 X 34.6793 Y 4.9457 Z -1.0000 I -0.0581 J -0.0000
G01 X 34.6731 Y 4.9415 Z -1.0000
G01 X 34.6493 Y 4.9654 Z -1.0000
G02 X 34.6733 Y 5.0084 Z -1.0000 I 0.0507 J -0.0001
G01 X 34.6790 Y 5.0159 Z -1.0000
G01 X 34.6778 Y 5.0245 Z -1.0000
G01 X 34.6607 Y 5.0232 Z -1.0000
G03 X 34.6506 Y 4.9595 Z -1.0000 I 0.1255 J -0.0524
G03 X 34.6683 Y 4.9253 Z -1.0000 I 0.0500 J 0.0042
G01 X 34.6884 Y 4.9277 Z -1.0000
G01 X 34.7021 Y 4.9383 Z -1.0000
G01 X 34.7127 Y 4.9374 Z -1.0000
G01 X 34.7196 Y 4.9214 Z -1.0000
G01 X 34.7066 Y 4.9080 Z -1.0000
G01 X 34.7051 Y 4.9034 Z -1.0000
G01 X 34.7169 Y 4.8959 Z -1.0000
G01 X 34.7389 Y 4.8697 Z -1.0000
G01 X 34.7219 Y 4.8455 Z -1.0000
G01 X 34.7079 Y 4.8330 Z -1.0000
G03 X 34.7023 Y 4.7930 Z -1.0000 I 0.0876 J -0.0326
G03 X 34.7116 Y 4.7524 Z -1.0000 I 0.1439 J 0.0115
G01 X 34.7204 Y 4.7464 Z -1.0000
G01 X 34.7288 Y 4.7404 Z -1.0000
G02 X 34.7348 Y 4.7053 Z -1.0000 I -0.1002 J -0.0351
G02 X 34.7285 Y 4.6705 Z -1.0000 I -0.0990 J -0.0000
G01 X 34.7194 Y 4.6642 Z -1.0000
G01 X 34.7099 Y 4.6531 Z -1.0000
G01 X 34.7245 Y 4.6310 Z -1.0000
G02 X 34.7404 Y 4.6156 Z -1.0000 I -0.0281 J -0.0447
G01 X 34.7450 Y 4.6001 Z -1.0000
G01 X 34.7499 Y 4.5869 Z -1.0000
G01 X 34.7604 Y 4.5820 Z -1.0000
G01 X 34.7725 Y 4.5786 Z -1.0000
G01 X 34.7759 Y 4.5725 Z -1.0000
G01 X 34.7735 Y 4.5641 Z -1.0000
G02 X 34.7604 Y 4.5476 Z -1.0000 I -0.0757 J 0.0465
G01 X 34.7489 Y 4.5149 Z -1.0000
G01 X 34.7655 Y 4.4999 Z -1.0000
G01 X 34.7780 Y 4.4918 Z -1.0000
G02 X 34.7861 Y 4.4544 Z -1.0000 I -0.0828 J -0.0374
G02 X 34.7694 Y 4.3933 Z -1.0000 I -0.1203 J -0.0000
G01 X 34.7402 Y 4.3766 Z -1.0000
G01 X 34.7231 Y 4.3677 Z -1.0000
G01 X 34.7142 Y 4.3398 Z -1.0000
G01 X 34.7501 Y 4.3355 Z -1.0000
G01 X 34.7749 Y 4.3243 Z -1.0000
G01 X 34.7861 Y 4.2944 Z -1.0000
G03 X 34.7939 Y 4.2612 Z -1.0000 I 0.0744 J 0.0000
G01 X 34.8066 Y 4.2534 Z -1.0000
G01 X 34.8211 Y 4.2594 Z -1.0000
G01 X 34.8272 Y 4.2739 Z -1.0000
G01 X 34.8374 Y 4.2898 Z -1.0000
G01 X 34.8521 Y 4.2853 Z -1.0000
G01 X 34.8527 Y 4.2771 Z -1.0000
G01 X 34.8424 Y 4.2635 Z -1.0000
G01 X 34.8337 Y 4.2478 Z -1.0000
G03 X 34.8271 Y 4.1517 Z -1.0000 I 0.7030 J -0.0961
G02 X 34.8180 Y 4.0566 Z -1.0000 I -0.5011 J 0.0000
G01 X 34.8040 Y 4.0322 Z -1.0000
G01 X 34.7809 Y 4.0120 Z -1.0000
G01 X 34.8040 Y 4.0087 Z -1.0000
G01 X 34.8189 Y 3.9982 Z -1.0000
G02 X 34.8271 Y 3.9650 Z -1.0000 I -0.0627 J -0.0332
G01 X 34.8386 Y 3.9361 Z -1.0000
G01 X 34.8650 Y 3.9246 Z -1.0000
G01 X 34.8832 Y 3.9180 Z -1.0000
G01 X 34.8830 Y 3.9094 Z -1.0000
G01 X 34.8780 Y 3.8970 Z -1.0000
G01 X 34.8862 Y 3.8877 Z -1.0000
G01 X 34.9159 Y 3.8500 Z -1.0000
G01 X 34.8888 Y 3.8219 Z -1.0000
G01 X 34.8734 Y 3.8270 Z -1.0000
G01 X 34.8683 Y 3.8373 Z -1.0000
G01 X 34.8631 Y 3.8476 Z -1.0000
G01 X 34.8477 Y 3.8527 Z -1.0000
G01 X 34.8324 Y 3.8476 Z -1.0000
G01 X 34.8272 Y 3.8373 Z -1.0000
G01 X 34.8323 Y 3.8270 Z -1.0000
G01 X 34.8477 Y 3.8219 Z -1.0000
G01 X 34.8611 Y 3.8148 Z -1.0000
G01 X 34.8683 Y 3.7911 Z -1.0000
G01 X 34.8613 Y 3.7672 Z -1.0000
G01 X 34.8486 Y 3.7603 Z -1.0000
G01 X 34.8318 Y 3.7645 Z -1.0000
G01 X 34.8244 Y 3.7731 Z -1.0000
G01 X 34.8248 Y 3.7320 Z -1.0000
G01 X 34.8298 Y 3.6781 Z -1.0000
G01 X 34.7874 Y 3.6781 Z -1.0000
G01 X 34.7450 Y 3.6781 Z -1.0000
G01 X 34.7450 Y 3.6376 Z -1.0000
G01 X 34.7329 Y 3.6083 Z -1.0000
G02 X 34.7014 Y 3.5937 Z -1.0000 I -0.0355 J 0.0353
G01 X 34.6577 Y 3.5903 Z -1.0000
G01 X 34.7086 Y 3.5814 Z -1.0000
G03 X 34.7559 Y 3.5785 Z -1.0000 I 0.0365 J 0.2093
G01 X 34.7634 Y 3.5842 Z -1.0000
G01 X 34.8006 Y 3.6117 Z -1.0000
G01 X 34.8272 Y 3.5857 Z -1.0000
G01 X 34.8229 Y 3.5797 Z -1.0000
G02 X 34.7964 Y 3.5754 Z -1.0000 I -0.0265 J 0.0801
G01 X 34.7725 Y 3.5684 Z -1.0000
G01 X 34.7656 Y 3.5557 Z -1.0000
G01 X 34.7614 Y 3.5390 Z -1.0000
G01 X 34.7527 Y 3.5315 Z -1.0000
G01 X 34.7470 Y 3.5252 Z -1.0000
G01 X 34.7490 Y 3.5178 Z -1.0000
G01 X 34.7566 Y 3.5158 Z -1.0000
G01 X 34.7627 Y 3.5215 Z -1.0000
G01 X 34.8008 Y 3.5495 Z -1.0000
G01 X 34.8272 Y 3.5241 Z -1.0000
G01 X 34.8239 Y 3.5172 Z -1.0000
G01 X 34.8139 Y 3.5138 Z -1.0000
G01 X 34.7816 Y 3.4913 Z -1.0000
G03 X 34.7820 Y 3.4277 Z -1.0000 I 0.0845 J -0.0313
G01 X 34.7766 Y 3.3927 Z -1.0000
G01 X 34.7479 Y 3.3848 Z -1.0000
G01 X 34.7168 Y 3.3820 Z -1.0000
G03 X 34.6214 Y 3.3070 Z -1.0000 I 0.2789 J -0.4532
G02 X 34.5667 Y 3.2650 Z -1.0000 I -0.1950 J 0.1971
G01 X 34.5510 Y 3.2657 Z -1.0000
G03 X 34.5110 Y 3.2848 Z -1.0000 I -0.0727 J -0.1006
G01 X 34.5008 Y 3.2794 Z -1.0000
G01 X 34.4944 Y 3.2706 Z -1.0000
G01 X 34.4838 Y 3.2673 Z -1.0000
G03 X 34.4379 Y 3.2547 Z -1.0000 I 0.0000 J -0.0903
G03 X 34.3866 Y 3.2098 Z -1.0000 I 0.0941 J -0.1593
G02 X 34.3671 Y 3.1932 Z -1.0000 I -0.0511 J 0.0402
G01 X 34.3601 Y 3.1950 Z -1.0000
G01 X 34.3446 Y 3.2002 Z -1.0000
G01 X 34.3342 Y 3.1851 Z -1.0000
G01 X 34.3266 Y 3.1721 Z -1.0000
G02 X 34.2977 Y 3.1646 Z -1.0000 I -0.0289 J 0.0512
G03 X 34.2283 Y 3.1395 Z -1.0000 I 0.0000 J -0.1085
G01 X 34.2175 Y 3.0978 Z -1.0000
G01 X 34.2164 Y 3.0863 Z -1.0000
G01 X 34.2021 Y 3.0729 Z -1.0000
G01 X 34.1789 Y 3.0710 Z -1.0000
G01 X 34.1668 Y 3.0849 Z -1.0000
G01 X 34.1609 Y 3.0804 Z -1.0000
G02 X 34.1429 Y 3.0168 Z -1.0000 I -0.1479 J 0.0075
G01 X 34.1136 Y 2.9942 Z -1.0000
G03 X 34.0925 Y 2.9838 Z -1.0000 I 0.0137 J -0.0547
G01 X 34.0876 Y 2.9737 Z -1.0000
G01 X 34.0833 Y 2.9660 Z -1.0000
G01 X 34.0735 Y 2.9651 Z -1.0000
G01 X 34.0621 Y 2.9645 Z -1.0000
G01 X 34.0533 Y 2.9545 Z -1.0000
G01 X 34.0555 Y 2.9440 Z -1.0000
G01 X 34.0699 Y 2.9375 Z -1.0000
G01 X 34.0504 Y 2.9247 Z -1.0000
G03 X 33.9868 Y 2.8942 Z -1.0000 I 0.0548 J -0.1960
G01 X 33.9746 Y 2.8705 Z -1.0000
G01 X 33.9688 Y 2.8621 Z -1.0000
G02 X 33.9375 Y 2.8563 Z -1.0000 I -0.0313 J 0.0818
G03 X 33.9028 Y 2.8499 Z -1.0000 I 0.0000 J -0.0976
G03 X 33.8700 Y 2.8306 Z -1.0000 I 0.0406 J -0.1067
G02 X 33.8382 Y 2.8085 Z -1.0000 I -0.1374 J 0.1634
G01 X 33.8248 Y 2.8050 Z -1.0000
G01 X 33.8118 Y 2.8013 Z -1.0000
G03 X 33.7876 Y 2.7824 Z -1.0000 I 0.0662 J -0.1093
G02 X 33.7566 Y 2.7644 Z -1.0000 I -0.0496 J 0.0496
G02 X 33.6690 Y 2.7499 Z -1.0000 I -0.1135 J 0.4139
G03 X 33.6490 Y 2.7454 Z -1.0000 I 0.0039 J -0.0646
G01 X 33.6459 Y 2.7408 Z -1.0000
G01 X 33.6429 Y 2.7360 Z -1.0000
G01 X 33.6308 Y 2.7331 Z -1.0000
G01 X 33.6183 Y 2.7287 Z -1.0000
G03 X 33.6048 Y 2.7125 Z -1.0000 I 0.0318 J -0.0404
G01 X 33.5896 Y 2.6990 Z -1.0000
G02 X 33.5530 Y 2.6920 Z -1.0000 I -0.0365 J 0.0919
G02 X 33.5201 Y 2.6998 Z -1.0000 I 0.0000 J 0.0730
G01 X 33.5123 Y 2.7125 Z -1.0000
G01 X 33.5119 Y 2.7124 Z -1.0000
G00 Z 5.0000

(End cutting path id: path146394)


(Start cutting path id: path146394)
(Change tool to Default tool)

G00 Z 5.0000
G00 X 34.6881 Y 3.3391

G01 Z -1.0000 F 100.0000(Penetrate)
G01 X 34.6895 Y 3.3451 Z -1.0000 F 3500.0000
G01 X 34.7035 Y 3.3493 Z -1.0000
G01 X 34.7176 Y 3.3451 Z -1.0000
G01 X 34.7190 Y 3.3391 Z -1.0000
G01 X 34.7113 Y 3.3312 Z -1.0000
G01 X 34.7035 Y 3.3288 Z -1.0000
G01 X 34.6958 Y 3.3311 Z -1.0000
G01 X 34.6881 Y 3.3391 Z -1.0000
G01 X 34.6881 Y 3.3391 Z -1.0000
G00 Z 5.0000

(End cutting path id: path146394)


(Start cutting path id: path146394)
(Change tool to Default tool)

G00 Z 5.0000
G00 X 34.9347 Y 3.8322

G01 Z -1.0000 F 100.0000(Penetrate)
G01 X 34.9360 Y 3.8381 Z -1.0000 F 3500.0000
G01 X 34.9501 Y 3.8424 Z -1.0000
G01 X 34.9642 Y 3.8382 Z -1.0000
G01 X 34.9655 Y 3.8322 Z -1.0000
G01 X 34.9579 Y 3.8243 Z -1.0000
G01 X 34.9501 Y 3.8219 Z -1.0000
G01 X 34.9423 Y 3.8242 Z -1.0000
G01 X 34.9347 Y 3.8322 Z -1.0000
G01 X 34.9347 Y 3.8322 Z -1.0000
G00 Z 5.0000

(End cutting path id: path146394)


(Start cutting path id: path146394)
(Change tool to Default tool)

G00 Z 5.0000
G00 X 34.9090 Y 4.0270

G01 Z -1.0000 F 100.0000(Penetrate)
G01 X 34.9142 Y 4.0396 Z -1.0000 F 3500.0000
G01 X 34.9236 Y 4.0416 Z -1.0000
G01 X 34.9408 Y 4.0204 Z -1.0000
G01 X 34.9292 Y 4.0068 Z -1.0000
G01 X 34.9149 Y 4.0127 Z -1.0000
G01 X 34.9090 Y 4.0270 Z -1.0000
G01 X 34.9090 Y 4.0270 Z -1.0000
G00 Z 5.0000

(End cutting path id: path146394)


(Start cutting path id: path146394)
