%
(Header)
(Generated by gcodetools from Inkscape.)
(Using default header. To add your own header create file "header" in the output dir.)
M3
(Header end.)
G21 (All units in mm)

(Start cutting path id: path78048)
(Change tool to Default tool)

G00 Z 5.0000
G00 X 29.2890 Y -8.5069

G01 Z -1.0000 F 100.0000(Penetrate)
G01 X 29.2932 Y -8.4952 Z -1.0000 F 3500.0000
G02 X 29.3708 Y -8.4076 Z -1.0000 I 1.2398 J -1.0200
G02 X 29.4237 Y -8.3620 Z -1.0000 I 0.2572 J -0.2452
G01 X 29.4290 Y -8.3667 Z -1.0000
G02 X 29.3172 Y -8.5186 Z -1.0000 I -0.5571 J 0.2927
G01 X 29.2890 Y -8.5069 Z -1.0000
G01 X 29.2890 Y -8.5069 Z -1.0000
G00 Z 5.0000

(End cutting path id: path78048)


(Start cutting path id: path78048)
(Change tool to Default tool)

G00 Z 5.0000
G00 X 29.0241 Y -7.3685

G01 Z -1.0000 F 100.0000(Penetrate)
G02 X 29.0523 Y -7.3317 Z -1.0000 I 0.2047 J -0.1278 F 3500.0000
G01 X 29.0585 Y -7.3316 Z -1.0000
G01 X 29.0664 Y -7.3822 Z -1.0000
G02 X 29.0169 Y -7.4124 Z -1.0000 I -0.0495 J 0.0255
G01 X 29.0104 Y -7.4048 Z -1.0000
G02 X 29.0241 Y -7.3685 Z -1.0000 I 0.0971 J -0.0159
G01 X 29.0241 Y -7.3685 Z -1.0000
G00 Z 5.0000

(End cutting path id: path78048)


(Start cutting path id: path78048)
(Change tool to Default tool)

G00 Z 5.0000
G00 X 28.3086 Y -6.8343

G01 Z -1.0000 F 100.0000(Penetrate)
G01 X 28.3122 Y -6.8133 Z -1.0000 F 3500.0000
G01 X 28.3005 Y -6.7985 Z -1.0000
G01 X 28.3060 Y -6.7937 Z -1.0000
G01 X 28.3325 Y -6.7916 Z -1.0000
G03 X 28.3740 Y -6.7661 Z -1.0000 I -0.0556 J 0.1369
G02 X 28.4059 Y -6.7473 Z -1.0000 I 0.0660 J -0.0757
G01 X 28.4126 Y -6.7522 Z -1.0000
G01 X 28.4055 Y -6.7691 Z -1.0000
G02 X 28.3527 Y -6.8156 Z -1.0000 I -0.2776 J 0.2618
G02 X 28.3123 Y -6.8386 Z -1.0000 I -0.1206 J 0.1654
G01 X 28.3087 Y -6.8344 Z -1.0000
G01 X 28.3086 Y -6.8343 Z -1.0000
G00 Z 5.0000

(End cutting path id: path78048)


(Start cutting path id: path78048)
(Change tool to Default tool)

G00 Z 5.0000
G00 X 27.6844 Y -6.8077

G01 Z -1.0000 F 100.0000(Penetrate)
G01 X 27.6810 Y -6.7890 Z -1.0000 F 3500.0000
G01 X 27.6906 Y -6.7750 Z -1.0000
G01 X 27.7022 Y -6.7766 Z -1.0000
G01 X 27.7097 Y -6.7959 Z -1.0000
G01 X 27.6994 Y -6.8121 Z -1.0000
G01 X 27.6845 Y -6.8077 Z -1.0000
G01 X 27.6844 Y -6.8077 Z -1.0000
G00 Z 5.0000

(End cutting path id: path78048)


(Start cutting path id: path78048)
(Change tool to Default tool)

G00 Z 5.0000
G00 X 27.8968 Y -5.7957

G01 Z -1.0000 F 100.0000(Penetrate)
G01 X 27.9034 Y -5.7798 Z -1.0000 F 3500.0000
G01 X 27.9192 Y -5.7732 Z -1.0000
G01 X 27.9351 Y -5.7798 Z -1.0000
G01 X 27.9417 Y -5.7957 Z -1.0000
G01 X 27.9351 Y -5.8115 Z -1.0000
G01 X 27.9192 Y -5.8181 Z -1.0000
G01 X 27.9034 Y -5.8115 Z -1.0000
G01 X 27.8968 Y -5.7957 Z -1.0000
G01 X 27.8968 Y -5.7957 Z -1.0000
G00 Z 5.0000

(End cutting path id: path78048)


(Start cutting path id: path78048)
(Change tool to Default tool)

G00 Z 5.0000
G00 X 27.6947 Y -5.7058

G01 Z -1.0000 F 100.0000(Penetrate)
G02 X 27.7429 Y -5.6916 Z -1.0000 I 0.0482 J -0.0746 F 3500.0000
G01 X 27.7508 Y -5.7058 Z -1.0000
G01 X 27.7331 Y -5.7212 Z -1.0000
G02 X 27.6990 Y -5.7280 Z -1.0000 I -0.0333 J 0.0781
G01 X 27.6889 Y -5.7195 Z -1.0000
G01 X 27.6947 Y -5.7058 Z -1.0000
G01 X 27.6947 Y -5.7058 Z -1.0000
G00 Z 5.0000

(End cutting path id: path78048)


(Start cutting path id: path78048)
(Change tool to Default tool)

G00 Z 5.0000
G00 X 27.5545 Y -5.5823

G01 Z -1.0000 F 100.0000(Penetrate)
G02 X 27.5536 Y -5.5343 Z -1.0000 I 0.1388 J 0.0265 F 3500.0000
G01 X 27.5631 Y -5.5262 Z -1.0000
G01 X 27.5744 Y -5.5343 Z -1.0000
G02 X 27.5824 Y -5.5823 Z -1.0000 I -0.1396 J -0.0481
G02 X 27.5784 Y -5.6345 Z -1.0000 I -0.3429 J -0.0000
G01 X 27.5738 Y -5.6385 Z -1.0000
G01 X 27.5684 Y -5.6347 Z -1.0000
G02 X 27.5545 Y -5.5823 Z -1.0000 I 0.3557 J 0.1229
G01 X 27.5545 Y -5.5823 Z -1.0000
G00 Z 5.0000

(End cutting path id: path78048)


(Start cutting path id: path78048)
(Change tool to Default tool)

G00 Z 5.0000
G00 X 26.5963 Y -6.3507

G01 Z -1.0000 F 100.0000(Penetrate)
G03 X 26.6055 Y -6.3441 Z -1.0000 I -0.1558 J 0.2270 F 3500.0000
G03 X 26.6455 Y -6.3138 Z -1.0000 I -2.6243 J 3.5076
G01 X 26.6656 Y -6.3097 Z -1.0000
G01 X 26.6712 Y -6.3202 Z -1.0000
G02 X 26.6505 Y -6.3476 Z -1.0000 I -0.0579 J 0.0223
G01 X 26.6220 Y -6.3571 Z -1.0000
G01 X 26.5963 Y -6.3507 Z -1.0000
G01 X 26.5963 Y -6.3507 Z -1.0000
G00 Z 5.0000

(End cutting path id: path78048)


(Start cutting path id: path78048)
(Change tool to Default tool)

G00 Z 5.0000
G00 X 25.4675 Y -6.2069

G01 Z -1.0000 F 100.0000(Penetrate)
G02 X 25.4955 Y -6.2021 Z -1.0000 I 0.0252 J -0.0629 F 3500.0000
G01 X 25.5106 Y -6.2087 Z -1.0000
G01 X 25.5091 Y -6.2158 Z -1.0000
G02 X 25.4811 Y -6.2205 Z -1.0000 I -0.0252 J 0.0633
G01 X 25.4661 Y -6.2140 Z -1.0000
G01 X 25.4675 Y -6.2070 Z -1.0000
G01 X 25.4675 Y -6.2069 Z -1.0000
G00 Z 5.0000

(End cutting path id: path78048)


(Start cutting path id: path78048)
(Change tool to Default tool)

G00 Z 5.0000
G00 X 25.4615 Y -5.6400

G01 Z -1.0000 F 100.0000(Penetrate)
G01 X 25.4580 Y -5.6214 Z -1.0000 F 3500.0000
G01 X 25.4677 Y -5.6073 Z -1.0000
G01 X 25.4793 Y -5.6090 Z -1.0000
G01 X 25.4867 Y -5.6282 Z -1.0000
G01 X 25.4764 Y -5.6445 Z -1.0000
G01 X 25.4615 Y -5.6400 Z -1.0000
G01 X 25.4615 Y -5.6400 Z -1.0000
G00 Z 5.0000

(End cutting path id: path78048)


(Start cutting path id: path78048)
(Change tool to Default tool)

G00 Z 5.0000
G00 X 24.3604 Y -6.5818

G01 Z -1.0000 F 100.0000(Penetrate)
G01 X 24.3631 Y -6.5733 Z -1.0000 F 3500.0000
G01 X 24.3815 Y -6.5730 Z -1.0000
G01 X 24.4025 Y -6.5930 Z -1.0000
G01 X 24.3953 Y -6.6041 Z -1.0000
G01 X 24.3771 Y -6.5988 Z -1.0000
G02 X 24.3604 Y -6.5819 Z -1.0000 I 0.0287 J 0.0450
G01 X 24.3604 Y -6.5818 Z -1.0000
G00 Z 5.0000

(End cutting path id: path78048)


(Start cutting path id: path78048)
(Change tool to Default tool)

G00 Z 5.0000
G00 X 24.1132 Y -6.3121

G01 Z -1.0000 F 100.0000(Penetrate)
G02 X 24.1289 Y -6.2929 Z -1.0000 I 0.0805 J -0.0495 F 3500.0000
G01 X 24.1370 Y -6.2897 Z -1.0000
G01 X 24.1430 Y -6.2936 Z -1.0000
G01 X 24.1469 Y -6.3121 Z -1.0000
G01 X 24.1402 Y -6.3278 Z -1.0000
G01 X 24.1231 Y -6.3346 Z -1.0000
G01 X 24.1122 Y -6.3274 Z -1.0000
G01 X 24.1132 Y -6.3121 Z -1.0000
G01 X 24.1132 Y -6.3121 Z -1.0000
G00 Z 5.0000

(End cutting path id: path78048)


(Start cutting path id: path78048)
(Change tool to Default tool)

G00 Z 5.0000
G00 X 24.0115 Y -6.1337

G01 Z -1.0000 F 100.0000(Penetrate)
G02 X 24.0582 Y -6.0919 Z -1.0000 I 0.0810 J -0.0433 F 3500.0000
G01 X 24.0796 Y -6.1063 Z -1.0000
G02 X 24.0691 Y -6.1430 Z -1.0000 I -0.0698 J 0.0000
G02 X 24.0440 Y -6.1637 Z -1.0000 I -0.0433 J 0.0268
G01 X 24.0157 Y -6.1583 Z -1.0000
G01 X 24.0115 Y -6.1337 Z -1.0000
G01 X 24.0115 Y -6.1337 Z -1.0000
G00 Z 5.0000

(End cutting path id: path78048)


(Start cutting path id: path78048)
(Change tool to Default tool)

G00 Z 5.0000
G00 X 23.8999 Y -6.1985

G01 Z -1.0000 F 100.0000(Penetrate)
G01 X 23.9071 Y -6.1876 Z -1.0000 F 3500.0000
G01 X 23.9224 Y -6.1886 Z -1.0000
G02 X 23.9416 Y -6.2043 Z -1.0000 I -0.0494 J -0.0803
G01 X 23.9448 Y -6.2124 Z -1.0000
G01 X 23.9410 Y -6.2184 Z -1.0000
G01 X 23.9224 Y -6.2223 Z -1.0000
G01 X 23.9067 Y -6.2156 Z -1.0000
G01 X 23.8999 Y -6.1985 Z -1.0000
G01 X 23.8999 Y -6.1985 Z -1.0000
G00 Z 5.0000

(End cutting path id: path78048)


(Start cutting path id: path78048)
(Change tool to Default tool)

G00 Z 5.0000
G00 X 23.8707 Y -5.0234

G01 Z -1.0000 F 100.0000(Penetrate)
G02 X 23.8609 Y -4.9823 Z -1.0000 I 0.1389 J 0.0546 F 3500.0000
G01 X 23.8657 Y -4.9691 Z -1.0000
G01 X 23.8878 Y -4.9724 Z -1.0000
G02 X 23.8956 Y -5.0248 Z -1.0000 I -0.0689 J -0.0370
G01 X 23.8845 Y -5.0334 Z -1.0000
G01 X 23.8706 Y -5.0233 Z -1.0000
G01 X 23.8707 Y -5.0234 Z -1.0000
G00 Z 5.0000

(End cutting path id: path78048)


(Start cutting path id: path78048)
(Change tool to Default tool)

G00 Z 5.0000
G00 X 23.8101 Y -4.9115

G01 Z -1.0000 F 100.0000(Penetrate)
G01 X 23.8129 Y -4.9043 Z -1.0000 F 3500.0000
G02 X 23.8438 Y -4.8750 Z -1.0000 I 0.2382 J -0.2206
G01 X 23.8668 Y -4.8698 Z -1.0000
G01 X 23.8775 Y -4.8835 Z -1.0000
G01 X 23.8672 Y -4.9097 Z -1.0000
G01 X 23.8438 Y -4.9200 Z -1.0000
G02 X 23.8138 Y -4.9163 Z -1.0000 I 0.0000 J 0.1228
G01 X 23.8101 Y -4.9115 Z -1.0000
G01 X 23.8101 Y -4.9115 Z -1.0000
G00 Z 5.0000

(End cutting path id: path78048)


(Start cutting path id: path78048)
(Change tool to Default tool)

G00 Z 5.0000
G00 X 23.8223 Y -4.8092

G01 Z -1.0000 F 100.0000(Penetrate)
G01 X 23.8197 Y -4.7908 Z -1.0000 F 3500.0000
G01 X 23.8322 Y -4.7742 Z -1.0000
G01 X 23.8464 Y -4.7755 Z -1.0000
G01 X 23.8550 Y -4.7951 Z -1.0000
G01 X 23.8417 Y -4.8153 Z -1.0000
G01 X 23.8223 Y -4.8092 Z -1.0000
G01 X 23.8223 Y -4.8092 Z -1.0000
G00 Z 5.0000

(End cutting path id: path78048)


(Start cutting path id: path78048)
(Change tool to Default tool)

G00 Z 5.0000
G00 X 23.7161 Y -1.9182

G01 Z -1.0000 F 100.0000(Penetrate)
G02 X 23.7441 Y -1.9134 Z -1.0000 I 0.0252 J -0.0629 F 3500.0000
G01 X 23.7591 Y -1.9200 Z -1.0000
G01 X 23.7577 Y -1.9270 Z -1.0000
G02 X 23.7297 Y -1.9318 Z -1.0000 I -0.0252 J 0.0633
G01 X 23.7147 Y -1.9252 Z -1.0000
G01 X 23.7161 Y -1.9182 Z -1.0000
G01 X 23.7161 Y -1.9182 Z -1.0000
G00 Z 5.0000

(End cutting path id: path78048)


(Start cutting path id: path78048)
(Change tool to Default tool)

G00 Z 5.0000
G00 X 23.7812 Y -1.7090

G01 Z -1.0000 F 100.0000(Penetrate)
G02 X 23.7988 Y -1.6717 Z -1.0000 I 0.1096 J -0.0288 F 3500.0000
G01 X 23.8135 Y -1.6641 Z -1.0000
G01 X 23.8209 Y -1.6720 Z -1.0000
G02 X 23.8101 Y -1.7090 Z -1.0000 I -0.0927 J 0.0070
G02 X 23.7841 Y -1.7506 Z -1.0000 I -0.3252 J 0.1741
G01 X 23.7778 Y -1.7539 Z -1.0000
G01 X 23.7743 Y -1.7501 Z -1.0000
G02 X 23.7812 Y -1.7090 Z -1.0000 I 0.2280 J -0.0170
G01 X 23.7812 Y -1.7090 Z -1.0000
G00 Z 5.0000

(End cutting path id: path78048)


(Start cutting path id: path78048)
(Change tool to Default tool)

G00 Z 5.0000
G00 X 28.7051 Y -6.1185

G01 Z -1.0000 F 100.0000(Penetrate)
G01 X 28.6490 Y -6.0857 Z -1.0000 F 3500.0000
G01 X 28.7052 Y -6.1006 Z -1.0000
G02 X 28.7691 Y -6.1285 Z -1.0000 I -0.0598 J -0.2244
G01 X 28.7706 Y -6.1419 Z -1.0000
G01 X 28.7602 Y -6.1442 Z -1.0000
G02 X 28.7051 Y -6.1185 Z -1.0000 I 0.1125 J 0.3132
G01 X 28.7051 Y -6.1185 Z -1.0000
G00 Z 5.0000

(End cutting path id: path78048)


(Start cutting path id: path78048)
(Change tool to Default tool)

G00 Z 5.0000
G00 X 29.0644 Y -6.1325

G01 Z -1.0000 F 100.0000(Penetrate)
G01 X 29.0527 Y -6.1170 Z -1.0000 F 3500.0000
G01 X 29.0575 Y -6.1104 Z -1.0000
G01 X 29.0809 Y -6.1162 Z -1.0000
G01 X 29.0981 Y -6.1325 Z -1.0000
G01 X 29.0934 Y -6.1410 Z -1.0000
G02 X 29.0645 Y -6.1325 Z -1.0000 I 0.0000 J 0.0533
G01 X 29.0644 Y -6.1325 Z -1.0000
G00 Z 5.0000

(End cutting path id: path78048)


(Start cutting path id: path78048)
(Change tool to Default tool)

G00 Z 5.0000
G00 X 29.2544 Y -6.2882

G01 Z -1.0000 F 100.0000(Penetrate)
G02 X 29.2463 Y -6.2650 Z -1.0000 I 0.0488 J 0.0300 F 3500.0000
G01 X 29.2503 Y -6.2535 Z -1.0000
G01 X 29.2587 Y -6.2535 Z -1.0000
G02 X 29.2743 Y -6.2775 Z -1.0000 I -0.0486 J -0.0486
G01 X 29.2688 Y -6.2921 Z -1.0000
G01 X 29.2544 Y -6.2882 Z -1.0000
G01 X 29.2544 Y -6.2882 Z -1.0000
G00 Z 5.0000

(End cutting path id: path78048)


(Start cutting path id: path78048)
(Change tool to Default tool)

G00 Z 5.0000
G00 X 29.2907 Y -6.3889

G01 Z -1.0000 F 100.0000(Penetrate)
G01 X 29.2973 Y -6.3739 Z -1.0000 F 3500.0000
G01 X 29.3043 Y -6.3753 Z -1.0000
G02 X 29.3091 Y -6.4033 Z -1.0000 I -0.0629 J -0.0252
G01 X 29.3025 Y -6.4183 Z -1.0000
G01 X 29.2955 Y -6.4169 Z -1.0000
G02 X 29.2907 Y -6.3889 Z -1.0000 I 0.0633 J 0.0252
G01 X 29.2907 Y -6.3889 Z -1.0000
G00 Z 5.0000

(End cutting path id: path78048)


(Start cutting path id: path78048)
(Change tool to Default tool)

G00 Z 5.0000
G00 X 29.5667 Y -5.8911

G01 Z -1.0000 F 100.0000(Penetrate)
G02 X 29.5188 Y -5.8018 Z -1.0000 I 0.0588 J 0.0890 F 3500.0000
G02 X 29.5672 Y -5.6909 Z -1.0000 I 0.1524 J -0.0004
G01 X 29.5747 Y -5.6936 Z -1.0000
G02 X 29.5719 Y -5.7358 Z -1.0000 I -0.1240 J -0.0130
G03 X 29.5696 Y -5.7814 Z -1.0000 I 0.1193 J -0.0288
G01 X 29.5788 Y -5.7857 Z -1.0000
G01 X 29.5892 Y -5.7891 Z -1.0000
G01 X 29.5922 Y -5.8175 Z -1.0000
G01 X 29.6155 Y -5.8547 Z -1.0000
G01 X 29.6572 Y -5.8349 Z -1.0000
G01 X 29.6620 Y -5.8350 Z -1.0000
G01 X 29.6644 Y -5.8515 Z -1.0000
G02 X 29.6293 Y -5.8973 Z -1.0000 I -0.0564 J 0.0069
G02 X 29.5666 Y -5.8910 Z -1.0000 I -0.0253 J 0.0626
G01 X 29.5667 Y -5.8911 Z -1.0000
G00 Z 5.0000

(End cutting path id: path78048)


(Start cutting path id: path78048)
(Change tool to Default tool)

G00 Z 5.0000
G00 X 29.2777 Y -5.5711

G01 Z -1.0000 F 100.0000(Penetrate)
G02 X 29.2934 Y -5.5519 Z -1.0000 I 0.0803 J -0.0494 F 3500.0000
G01 X 29.3015 Y -5.5487 Z -1.0000
G01 X 29.3075 Y -5.5525 Z -1.0000
G01 X 29.3114 Y -5.5711 Z -1.0000
G01 X 29.3046 Y -5.5868 Z -1.0000
G01 X 29.2876 Y -5.5936 Z -1.0000
G01 X 29.2767 Y -5.5864 Z -1.0000
G01 X 29.2777 Y -5.5711 Z -1.0000
G01 X 29.2777 Y -5.5711 Z -1.0000
G00 Z 5.0000

(End cutting path id: path78048)


(Start cutting path id: path78048)
(Change tool to Default tool)

G00 Z 5.0000
G00 X 30.4790 Y -5.9178

G01 Z -1.0000 F 100.0000(Penetrate)
G01 X 30.4823 Y -5.9114 Z -1.0000 F 3500.0000
G02 X 30.5239 Y -5.8855 Z -1.0000 I 0.2163 J -0.3003
G02 X 30.5609 Y -5.8747 Z -1.0000 I 0.0440 J -0.0822
G01 X 30.5689 Y -5.8821 Z -1.0000
G01 X 30.5613 Y -5.8968 Z -1.0000
G02 X 30.5239 Y -5.9144 Z -1.0000 I -0.0658 J 0.0913
G02 X 30.4828 Y -5.9213 Z -1.0000 I -0.0582 J 0.2211
G01 X 30.4790 Y -5.9178 Z -1.0000
G01 X 30.4790 Y -5.9178 Z -1.0000
G00 Z 5.0000

(End cutting path id: path78048)


(Start cutting path id: path78048)
(Change tool to Default tool)

G00 Z 5.0000
G00 X 30.5854 Y -5.7935

G01 Z -1.0000 F 100.0000(Penetrate)
G02 X 30.6027 Y -5.7601 Z -1.0000 I 0.0817 J -0.0214 F 3500.0000
G02 X 30.6304 Y -5.7406 Z -1.0000 I 0.0522 J -0.0444
G01 X 30.6402 Y -5.7451 Z -1.0000
G01 X 30.6375 Y -5.7605 Z -1.0000
G03 X 30.6195 Y -5.7944 Z -1.0000 I 0.0726 J -0.0602
G01 X 30.6221 Y -5.8134 Z -1.0000
G01 X 30.6210 Y -5.8257 Z -1.0000
G01 X 30.6046 Y -5.8331 Z -1.0000
G01 X 30.5883 Y -5.8229 Z -1.0000
G01 X 30.5854 Y -5.7935 Z -1.0000
G01 X 30.5854 Y -5.7935 Z -1.0000
G00 Z 5.0000

(End cutting path id: path78048)


(Start cutting path id: path78048)
(Change tool to Default tool)

G00 Z 5.0000
G00 X 30.5706 Y -6.8828

G01 Z -1.0000 F 100.0000(Penetrate)
G01 X 30.5772 Y -6.8678 Z -1.0000 F 3500.0000
G01 X 30.5842 Y -6.8693 Z -1.0000
G02 X 30.5890 Y -6.8973 Z -1.0000 I -0.0629 J -0.0252
G01 X 30.5824 Y -6.9123 Z -1.0000
G01 X 30.5754 Y -6.9109 Z -1.0000
G02 X 30.5706 Y -6.8828 Z -1.0000 I 0.0633 J 0.0252
G01 X 30.5706 Y -6.8828 Z -1.0000
G00 Z 5.0000

(End cutting path id: path78048)


(Start cutting path id: path78048)
(Change tool to Default tool)

G00 Z 5.0000
G00 X 30.8512 Y -6.8987

G01 Z -1.0000 F 100.0000(Penetrate)
G01 X 30.8512 Y -6.8825 Z -1.0000 F 3500.0000
G01 X 30.8721 Y -6.8653 Z -1.0000
G01 X 30.8981 Y -6.8634 Z -1.0000
G01 X 30.9057 Y -6.8728 Z -1.0000
G01 X 30.8833 Y -6.9081 Z -1.0000
G01 X 30.8512 Y -6.8986 Z -1.0000
G01 X 30.8512 Y -6.8987 Z -1.0000
G00 Z 5.0000

(End cutting path id: path78048)


(Start cutting path id: path78048)
(Change tool to Default tool)

G00 Z 5.0000
G00 X 30.9506 Y -6.8497

G01 Z -1.0000 F 100.0000(Penetrate)
G01 X 30.9577 Y -6.8388 Z -1.0000 F 3500.0000
G01 X 30.9730 Y -6.8398 Z -1.0000
G02 X 30.9923 Y -6.8555 Z -1.0000 I -0.0494 J -0.0803
G01 X 30.9955 Y -6.8636 Z -1.0000
G01 X 30.9916 Y -6.8696 Z -1.0000
G01 X 30.9730 Y -6.8735 Z -1.0000
G01 X 30.9573 Y -6.8667 Z -1.0000
G01 X 30.9506 Y -6.8497 Z -1.0000
G01 X 30.9506 Y -6.8497 Z -1.0000
G00 Z 5.0000

(End cutting path id: path78048)


(Start cutting path id: path78048)
(Change tool to Default tool)

G00 Z 5.0000
G00 X 32.7142 Y -8.1325

G01 Z -1.0000 F 100.0000(Penetrate)
G01 X 32.7116 Y -8.1140 Z -1.0000 F 3500.0000
G01 X 32.7241 Y -8.0975 Z -1.0000
G01 X 32.7383 Y -8.0988 Z -1.0000
G01 X 32.7469 Y -8.1184 Z -1.0000
G01 X 32.7336 Y -8.1386 Z -1.0000
G01 X 32.7142 Y -8.1325 Z -1.0000
G01 X 32.7142 Y -8.1325 Z -1.0000
G00 Z 5.0000

(End cutting path id: path78048)


(Start cutting path id: path78048)
(Change tool to Default tool)

G00 Z 5.0000
G00 X 30.3780 Y -3.8197

G01 Z -1.0000 F 100.0000(Penetrate)
G01 X 30.3769 Y -3.8044 Z -1.0000 F 3500.0000
G01 X 30.3879 Y -3.7972 Z -1.0000
G01 X 30.4049 Y -3.8040 Z -1.0000
G01 X 30.4117 Y -3.8197 Z -1.0000
G01 X 30.4077 Y -3.8383 Z -1.0000
G01 X 30.4018 Y -3.8421 Z -1.0000
G01 X 30.3937 Y -3.8389 Z -1.0000
G02 X 30.3780 Y -3.8197 Z -1.0000 I 0.0651 J 0.0692
G01 X 30.3780 Y -3.8197 Z -1.0000
G00 Z 5.0000

(End cutting path id: path78048)


(Start cutting path id: path78048)
(Change tool to Default tool)

G00 Z 5.0000
G00 X 32.1294 Y -0.7210

G01 Z -1.0000 F 100.0000(Penetrate)
G02 X 32.1451 Y -0.7018 Z -1.0000 I 0.0803 J -0.0494 F 3500.0000
G01 X 32.1532 Y -0.6986 Z -1.0000
G01 X 32.1592 Y -0.7024 Z -1.0000
G01 X 32.1631 Y -0.7210 Z -1.0000
G01 X 32.1563 Y -0.7367 Z -1.0000
G01 X 32.1393 Y -0.7435 Z -1.0000
G01 X 32.1284 Y -0.7363 Z -1.0000
G01 X 32.1294 Y -0.7210 Z -1.0000
G01 X 32.1294 Y -0.7210 Z -1.0000
G00 Z 5.0000

(End cutting path id: path78048)


(Start cutting path id: path78048)
(Change tool to Default tool)

G00 Z 5.0000
G00 X 31.3506 Y 4.8181

G01 Z -1.0000 F 100.0000(Penetrate)
G02 X 31.3786 Y 4.8230 Z -1.0000 I 0.0252 J -0.0629 F 3500.0000
G01 X 31.3936 Y 4.8163 Z -1.0000
G01 X 31.3921 Y 4.8093 Z -1.0000
G02 X 31.3641 Y 4.8046 Z -1.0000 I -0.0252 J 0.0633
G01 X 31.3491 Y 4.8111 Z -1.0000
G01 X 31.3506 Y 4.8181 Z -1.0000
G01 X 31.3506 Y 4.8181 Z -1.0000
G00 Z 5.0000

(End cutting path id: path78048)


(Start cutting path id: path78048)
(Change tool to Default tool)

G00 Z 5.0000
G00 X 31.3690 Y 5.1124

G01 Z -1.0000 F 100.0000(Penetrate)
G01 X 31.3715 Y 5.1225 Z -1.0000 F 3500.0000
G02 X 31.3997 Y 5.1300 Z -1.0000 I 0.0282 J -0.0490
G02 X 31.4278 Y 5.1226 Z -1.0000 I -0.0000 J -0.0565
G01 X 31.4304 Y 5.1124 Z -1.0000
G01 X 31.4169 Y 5.0994 Z -1.0000
G01 X 31.3997 Y 5.0948 Z -1.0000
G01 X 31.3824 Y 5.0994 Z -1.0000
G01 X 31.3690 Y 5.1124 Z -1.0000
G01 X 31.3690 Y 5.1124 Z -1.0000
G00 Z 5.0000

(End cutting path id: path78048)


(Start cutting path id: path78048)
(Change tool to Default tool)

G00 Z 5.0000
G00 X 31.2874 Y 5.1172

G01 Z -1.0000 F 100.0000(Penetrate)
G01 X 31.2757 Y 5.1326 Z -1.0000 F 3500.0000
G01 X 31.2805 Y 5.1393 Z -1.0000
G01 X 31.3039 Y 5.1335 Z -1.0000
G01 X 31.3211 Y 5.1172 Z -1.0000
G01 X 31.3164 Y 5.1087 Z -1.0000
G02 X 31.2874 Y 5.1172 Z -1.0000 I 0.0000 J 0.0533
G01 X 31.2874 Y 5.1172 Z -1.0000
G00 Z 5.0000

(End cutting path id: path78048)


(Start cutting path id: path78048)
(Change tool to Default tool)

G00 Z 5.0000
G00 X 31.1863 Y 5.1172

G01 Z -1.0000 F 100.0000(Penetrate)
G02 X 31.2033 Y 5.1342 Z -1.0000 I 0.0441 J -0.0272 F 3500.0000
G01 X 31.2227 Y 5.1397 Z -1.0000
G01 X 31.2327 Y 5.1327 Z -1.0000
G01 X 31.2313 Y 5.1172 Z -1.0000
G02 X 31.2144 Y 5.1003 Z -1.0000 I -0.0441 J 0.0272
G01 X 31.1949 Y 5.0948 Z -1.0000
G01 X 31.1849 Y 5.1017 Z -1.0000
G01 X 31.1863 Y 5.1172 Z -1.0000
G01 X 31.1863 Y 5.1172 Z -1.0000
G00 Z 5.0000

(End cutting path id: path78048)


(Start cutting path id: path78048)
(Change tool to Default tool)

G00 Z 5.0000
G00 X 31.4784 Y 5.1395

G01 Z -1.0000 F 100.0000(Penetrate)
G01 X 31.4811 Y 5.1480 Z -1.0000 F 3500.0000
G01 X 31.4995 Y 5.1483 Z -1.0000
G01 X 31.5205 Y 5.1284 Z -1.0000
G01 X 31.5133 Y 5.1173 Z -1.0000
G01 X 31.4951 Y 5.1226 Z -1.0000
G02 X 31.4784 Y 5.1395 Z -1.0000 I 0.0287 J 0.0450
G01 X 31.4784 Y 5.1395 Z -1.0000
G00 Z 5.0000

(End cutting path id: path78048)


(Start cutting path id: path78048)
(Change tool to Default tool)

G00 Z 5.0000
G00 X 31.7019 Y 5.1413

G01 Z -1.0000 F 100.0000(Penetrate)
G02 X 31.6938 Y 5.1644 Z -1.0000 I 0.0488 J 0.0300 F 3500.0000
G01 X 31.6978 Y 5.1759 Z -1.0000
G01 X 31.7062 Y 5.1759 Z -1.0000
G02 X 31.7218 Y 5.1520 Z -1.0000 I -0.0486 J -0.0486
G01 X 31.7164 Y 5.1374 Z -1.0000
G01 X 31.7019 Y 5.1413 Z -1.0000
G01 X 31.7019 Y 5.1413 Z -1.0000
G00 Z 5.0000

(End cutting path id: path78048)


(Start cutting path id: path78048)
(Change tool to Default tool)

G00 Z 5.0000
G00 X 30.8935 Y 4.9390

G01 Z -1.0000 F 100.0000(Penetrate)
G02 X 30.8854 Y 4.9622 Z -1.0000 I 0.0488 J 0.0300 F 3500.0000
G01 X 30.8894 Y 4.9737 Z -1.0000
G01 X 30.8979 Y 4.9737 Z -1.0000
G02 X 30.9134 Y 4.9497 Z -1.0000 I -0.0486 J -0.0486
G01 X 30.9080 Y 4.9351 Z -1.0000
G01 X 30.8935 Y 4.9390 Z -1.0000
G01 X 30.8935 Y 4.9390 Z -1.0000
G00 Z 5.0000

(End cutting path id: path78048)


(Start cutting path id: path78048)
(Change tool to Default tool)

G00 Z 5.0000
G00 X 30.8443 Y 5.0428

G01 Z -1.0000 F 100.0000(Penetrate)
G02 X 30.8837 Y 5.0476 Z -1.0000 I 0.0374 J -0.1435 F 3500.0000
G02 X 30.9117 Y 5.0420 Z -1.0000 I -0.0010 J -0.0775
G01 X 30.9114 Y 5.0365 Z -1.0000
G02 X 30.8720 Y 5.0317 Z -1.0000 I -0.0375 J 0.1435
G02 X 30.8440 Y 5.0373 Z -1.0000 I 0.0010 J 0.0772
G01 X 30.8443 Y 5.0428 Z -1.0000
G01 X 30.8443 Y 5.0428 Z -1.0000
G00 Z 5.0000

(End cutting path id: path78048)


(Start cutting path id: path78048)
(Change tool to Default tool)

G00 Z 5.0000
G00 X 30.6545 Y 5.1326

G01 Z -1.0000 F 100.0000(Penetrate)
G02 X 30.6825 Y 5.1374 Z -1.0000 I 0.0252 J -0.0629 F 3500.0000
G01 X 30.6975 Y 5.1308 Z -1.0000
G01 X 30.6961 Y 5.1238 Z -1.0000
G02 X 30.6680 Y 5.1190 Z -1.0000 I -0.0252 J 0.0633
G01 X 30.6530 Y 5.1256 Z -1.0000
G01 X 30.6545 Y 5.1326 Z -1.0000
G01 X 30.6545 Y 5.1326 Z -1.0000
G00 Z 5.0000

(End cutting path id: path78048)


(Start cutting path id: path78048)
(Change tool to Default tool)

G00 Z 5.0000
G00 X 30.4468 Y 5.0207

G01 Z -1.0000 F 100.0000(Penetrate)
G01 X 30.4495 Y 5.0333 Z -1.0000 F 3500.0000
G01 X 30.4594 Y 5.0333 Z -1.0000
G02 X 30.4774 Y 5.0056 Z -1.0000 I -0.0551 J -0.0556
G01 X 30.4747 Y 4.9930 Z -1.0000
G01 X 30.4648 Y 4.9930 Z -1.0000
G02 X 30.4468 Y 5.0207 Z -1.0000 I 0.0548 J 0.0554
G01 X 30.4468 Y 5.0207 Z -1.0000
G00 Z 5.0000

(End cutting path id: path78048)


(Start cutting path id: path78048)
(Change tool to Default tool)

G00 Z 5.0000
G00 X 30.3431 Y 4.9767

G01 Z -1.0000 F 100.0000(Penetrate)
G02 X 30.3370 Y 5.0073 Z -1.0000 I 0.0525 J 0.0263 F 3500.0000
G01 X 30.3455 Y 5.0096 Z -1.0000
G02 X 30.3865 Y 4.9365 Z -1.0000 I -0.4480 J -0.2993
G01 X 30.3845 Y 4.9253 Z -1.0000
G01 X 30.3759 Y 4.9257 Z -1.0000
G02 X 30.3431 Y 4.9767 Z -1.0000 I 0.2221 J 0.1787
G01 X 30.3431 Y 4.9767 Z -1.0000
G00 Z 5.0000

(End cutting path id: path78048)


(Start cutting path id: path78048)
(Change tool to Default tool)

G00 Z 5.0000
G00 X 30.3461 Y 4.8384

G01 Z -1.0000 F 100.0000(Penetrate)
G01 X 30.3527 Y 4.8534 Z -1.0000 F 3500.0000
G01 X 30.3597 Y 4.8519 Z -1.0000
G02 X 30.3645 Y 4.8239 Z -1.0000 I -0.0629 J -0.0252
G01 X 30.3579 Y 4.8089 Z -1.0000
G01 X 30.3509 Y 4.8103 Z -1.0000
G02 X 30.3461 Y 4.8384 Z -1.0000 I 0.0633 J 0.0252
G01 X 30.3461 Y 4.8384 Z -1.0000
G00 Z 5.0000

(End cutting path id: path78048)


(Start cutting path id: path78048)
(Change tool to Default tool)

G00 Z 5.0000
G00 X 30.4322 Y 4.7947

G01 Z -1.0000 F 100.0000(Penetrate)
G01 X 30.4298 Y 4.8125 Z -1.0000 F 3500.0000
G01 X 30.4425 Y 4.8178 Z -1.0000
G01 X 30.4649 Y 4.8238 Z -1.0000
G01 X 30.4714 Y 4.8529 Z -1.0000
G01 X 30.4788 Y 4.8615 Z -1.0000
G01 X 30.4994 Y 4.8499 Z -1.0000
G03 X 30.5363 Y 4.8209 Z -1.0000 I 0.0743 J 0.0566
G01 X 30.5509 Y 4.8274 Z -1.0000
G01 X 30.5636 Y 4.8320 Z -1.0000
G02 X 30.5912 Y 4.8027 Z -1.0000 I -0.0401 J -0.0655
G01 X 30.5935 Y 4.7804 Z -1.0000
G01 X 30.5837 Y 4.7774 Z -1.0000
G01 X 30.5561 Y 4.7874 Z -1.0000
G01 X 30.5460 Y 4.7774 Z -1.0000
G01 X 30.5386 Y 4.7709 Z -1.0000
G01 X 30.5236 Y 4.7803 Z -1.0000
G01 X 30.5015 Y 4.7939 Z -1.0000
G01 X 30.4827 Y 4.7849 Z -1.0000
G01 X 30.4627 Y 4.7764 Z -1.0000
G02 X 30.4321 Y 4.7947 Z -1.0000 I 0.0100 J 0.0513
G01 X 30.4322 Y 4.7947 Z -1.0000
G00 Z 5.0000

(End cutting path id: path78048)


(Start cutting path id: path78048)
(Change tool to Default tool)

G00 Z 5.0000
G00 X 30.1610 Y 4.8186

G01 Z -1.0000 F 100.0000(Penetrate)
G01 X 30.1647 Y 4.8285 Z -1.0000 F 3500.0000
G02 X 30.2077 Y 4.8258 Z -1.0000 I 0.0153 J -0.0993
G03 X 30.2634 Y 4.8303 Z -1.0000 I 0.0218 J 0.0761
G01 X 30.2777 Y 4.8589 Z -1.0000
G01 X 30.2815 Y 4.8658 Z -1.0000
G01 X 30.2907 Y 4.8639 Z -1.0000
G02 X 30.3041 Y 4.8444 Z -1.0000 I -0.0463 J -0.0463
G02 X 30.3129 Y 4.8145 Z -1.0000 I -0.1034 J -0.0464
G01 X 30.2697 Y 4.7659 Z -1.0000
G02 X 30.1610 Y 4.8187 Z -1.0000 I 0.0040 J 0.1467
G01 X 30.1610 Y 4.8186 Z -1.0000
G00 Z 5.0000

(End cutting path id: path78048)


(Start cutting path id: path78048)
(Change tool to Default tool)

G00 Z 5.0000
G00 X 30.1790 Y 4.9038

G01 Z -1.0000 F 100.0000(Penetrate)
G01 X 30.1776 Y 4.9296 Z -1.0000 F 3500.0000
G01 X 30.1878 Y 4.9375 Z -1.0000
G01 X 30.2019 Y 4.9298 Z -1.0000
G01 X 30.2096 Y 4.9038 Z -1.0000
G02 X 30.2057 Y 4.8739 Z -1.0000 I -0.1174 J 0.0000
G01 X 30.2008 Y 4.8701 Z -1.0000
G01 X 30.1943 Y 4.8737 Z -1.0000
G02 X 30.1790 Y 4.9038 Z -1.0000 I 0.1388 J 0.0893
G01 X 30.1790 Y 4.9038 Z -1.0000
G00 Z 5.0000

(End cutting path id: path78048)


(Start cutting path id: path78048)
(Change tool to Default tool)

G00 Z 5.0000
G00 X 30.0767 Y 4.8667

G01 Z -1.0000 F 100.0000(Penetrate)
G01 X 30.0751 Y 4.8946 Z -1.0000 F 3500.0000
G01 X 30.0884 Y 4.8961 Z -1.0000
G02 X 30.1153 Y 4.8456 Z -1.0000 I -0.1930 J -0.1352
G01 X 30.1127 Y 4.8331 Z -1.0000
G01 X 30.1027 Y 4.8329 Z -1.0000
G02 X 30.0767 Y 4.8667 Z -1.0000 I 0.0889 J 0.0953
G01 X 30.0767 Y 4.8667 Z -1.0000
G00 Z 5.0000

(End cutting path id: path78048)


(Start cutting path id: path78048)
(Change tool to Default tool)

G00 Z 5.0000
G00 X 30.0300 Y 4.8365

G01 Z -1.0000 F 100.0000(Penetrate)
G02 X 30.0338 Y 4.8663 Z -1.0000 I 0.1174 J 0.0000 F 3500.0000
G01 X 30.0388 Y 4.8701 Z -1.0000
G01 X 30.0452 Y 4.8666 Z -1.0000
G02 X 30.0605 Y 4.8365 Z -1.0000 I -0.1388 J -0.0893
G01 X 30.0619 Y 4.8107 Z -1.0000
G01 X 30.0517 Y 4.8028 Z -1.0000
G01 X 30.0376 Y 4.8104 Z -1.0000
G01 X 30.0300 Y 4.8365 Z -1.0000
G01 X 30.0300 Y 4.8365 Z -1.0000
G00 Z 5.0000

(End cutting path id: path78048)


(Start cutting path id: path78048)
(Change tool to Default tool)

G00 Z 5.0000
G00 X 29.9678 Y 4.8252

G01 Z -1.0000 F 100.0000(Penetrate)
G02 X 29.9539 Y 4.8650 Z -1.0000 I 0.0815 J 0.0509 F 3500.0000
G01 X 29.9614 Y 4.8806 Z -1.0000
G01 X 29.9765 Y 4.8789 Z -1.0000
G02 X 29.9967 Y 4.8463 Z -1.0000 I -0.0549 J -0.0565
G01 X 29.9885 Y 4.8212 Z -1.0000
G01 X 29.9678 Y 4.8252 Z -1.0000
G01 X 29.9678 Y 4.8252 Z -1.0000
G00 Z 5.0000

(End cutting path id: path78048)


(Start cutting path id: path78048)
(Change tool to Default tool)

G00 Z 5.0000
G00 X 29.8521 Y 4.8220

G01 Z -1.0000 F 100.0000(Penetrate)
G01 X 29.8414 Y 4.8387 Z -1.0000 F 3500.0000
G01 X 29.8183 Y 4.8402 Z -1.0000
G01 X 29.7892 Y 4.8392 Z -1.0000
G02 X 29.7613 Y 4.8579 Z -1.0000 I 0.0176 J 0.0564
G01 X 29.7629 Y 4.8746 Z -1.0000
G01 X 29.7933 Y 4.8846 Z -1.0000
G02 X 29.8434 Y 4.8749 Z -1.0000 I -0.0108 J -0.1881
G01 X 29.8503 Y 4.8652 Z -1.0000
G01 X 29.8566 Y 4.8583 Z -1.0000
G03 X 29.8840 Y 4.8620 Z -1.0000 I 0.0057 J 0.0602
G01 X 29.9087 Y 4.8619 Z -1.0000
G01 X 29.9177 Y 4.8488 Z -1.0000
G01 X 29.9105 Y 4.8355 Z -1.0000
G01 X 29.8971 Y 4.8353 Z -1.0000
G01 X 29.8805 Y 4.8361 Z -1.0000
G01 X 29.8652 Y 4.8197 Z -1.0000
G01 X 29.8578 Y 4.8156 Z -1.0000
G01 X 29.8521 Y 4.8220 Z -1.0000
G01 X 29.8521 Y 4.8220 Z -1.0000
G00 Z 5.0000

(End cutting path id: path78048)


(Start cutting path id: path78048)
(Change tool to Default tool)

G00 Z 5.0000
G00 X 29.7034 Y 4.8492

G01 Z -1.0000 F 100.0000(Penetrate)
G02 X 29.6954 Y 4.8723 Z -1.0000 I 0.0488 J 0.0300 F 3500.0000
G01 X 29.6993 Y 4.8838 Z -1.0000
G01 X 29.7078 Y 4.8838 Z -1.0000
G02 X 29.7233 Y 4.8599 Z -1.0000 I -0.0485 J -0.0485
G01 X 29.7179 Y 4.8453 Z -1.0000
G01 X 29.7034 Y 4.8492 Z -1.0000
G01 X 29.7034 Y 4.8492 Z -1.0000
G00 Z 5.0000

(End cutting path id: path78048)


(Start cutting path id: path78048)
(Change tool to Default tool)

G00 Z 5.0000
G00 X 29.7283 Y 4.9534

G01 Z -1.0000 F 100.0000(Penetrate)
G01 X 29.7310 Y 4.9660 Z -1.0000 F 3500.0000
G01 X 29.7408 Y 4.9660 Z -1.0000
G02 X 29.7589 Y 4.9383 Z -1.0000 I -0.0551 J -0.0555
G01 X 29.7562 Y 4.9257 Z -1.0000
G01 X 29.7463 Y 4.9257 Z -1.0000
G02 X 29.7283 Y 4.9534 Z -1.0000 I 0.0548 J 0.0554
G01 X 29.7283 Y 4.9534 Z -1.0000
G00 Z 5.0000

(End cutting path id: path78048)


(Start cutting path id: path78048)
(Change tool to Default tool)

G00 Z 5.0000
G00 X 29.6622 Y 4.9496

G01 Z -1.0000 F 100.0000(Penetrate)
G01 X 29.6628 Y 4.9745 Z -1.0000 F 3500.0000
G01 X 29.6734 Y 4.9751 Z -1.0000
G02 X 29.6899 Y 4.9351 Z -1.0000 I -0.1370 J -0.0797
G01 X 29.6867 Y 4.9236 Z -1.0000
G01 X 29.6785 Y 4.9238 Z -1.0000
G02 X 29.6622 Y 4.9496 Z -1.0000 I 0.0574 J 0.0541
G01 X 29.6622 Y 4.9496 Z -1.0000
G00 Z 5.0000

(End cutting path id: path78048)


(Start cutting path id: path78048)
(Change tool to Default tool)

G00 Z 5.0000
G00 X 29.6819 Y 5.0497

G01 Z -1.0000 F 100.0000(Penetrate)
G01 X 29.6809 Y 5.0650 Z -1.0000 F 3500.0000
G01 X 29.6918 Y 5.0722 Z -1.0000
G01 X 29.7088 Y 5.0654 Z -1.0000
G01 X 29.7156 Y 5.0497 Z -1.0000
G01 X 29.7117 Y 5.0312 Z -1.0000
G01 X 29.7057 Y 5.0273 Z -1.0000
G01 X 29.6976 Y 5.0305 Z -1.0000
G02 X 29.6819 Y 5.0497 Z -1.0000 I 0.0651 J 0.0692
G01 X 29.6819 Y 5.0497 Z -1.0000
G00 Z 5.0000

(End cutting path id: path78048)


(Start cutting path id: path78048)
(Change tool to Default tool)

G00 Z 5.0000
G00 X 29.6084 Y 5.0776

G01 Z -1.0000 F 100.0000(Penetrate)
G03 X 29.5898 Y 5.0986 Z -1.0000 I -0.0468 J -0.0225 F 3500.0000
G01 X 29.5820 Y 5.0946 Z -1.0000
G01 X 29.5733 Y 5.0864 Z -1.0000
G01 X 29.5581 Y 5.0946 Z -1.0000
G01 X 29.5360 Y 5.1066 Z -1.0000
G01 X 29.5139 Y 5.0946 Z -1.0000
G01 X 29.4974 Y 5.0799 Z -1.0000
G01 X 29.4917 Y 5.0834 Z -1.0000
G02 X 29.5155 Y 5.1456 Z -1.0000 I 0.0931 J 0.0000
G01 X 29.5451 Y 5.1429 Z -1.0000
G01 X 29.5633 Y 5.1293 Z -1.0000
G01 X 29.5899 Y 5.1306 Z -1.0000
G01 X 29.6119 Y 5.1265 Z -1.0000
G02 X 29.6332 Y 5.0913 Z -1.0000 I -0.0486 J -0.0535
G01 X 29.6250 Y 5.0723 Z -1.0000
G01 X 29.6084 Y 5.0776 Z -1.0000
G01 X 29.6084 Y 5.0776 Z -1.0000
G00 Z 5.0000

(End cutting path id: path78048)


(Start cutting path id: path78048)
(Change tool to Default tool)

G00 Z 5.0000
G00 X 29.4623 Y 5.1697

G01 Z -1.0000 F 100.0000(Penetrate)
G02 X 29.4469 Y 5.2110 Z -1.0000 I 1.1726 J 0.4614 F 3500.0000
G01 X 29.4461 Y 5.2154 Z -1.0000
G01 X 29.4483 Y 5.2180 Z -1.0000
G02 X 29.4910 Y 5.2234 Z -1.0000 I 0.0760 J -0.4267
G02 X 29.5273 Y 5.2175 Z -1.0000 I 0.0060 J -0.0774
G01 X 29.5360 Y 5.2044 Z -1.0000
G01 X 29.5293 Y 5.1940 Z -1.0000
G01 X 29.5152 Y 5.1948 Z -1.0000
G01 X 29.5006 Y 5.1934 Z -1.0000
G01 X 29.4865 Y 5.1681 Z -1.0000
G01 X 29.4757 Y 5.1599 Z -1.0000
G01 X 29.4623 Y 5.1697 Z -1.0000
G01 X 29.4623 Y 5.1697 Z -1.0000
G00 Z 5.0000

(End cutting path id: path78048)


(Start cutting path id: path78048)
(Change tool to Default tool)

G00 Z 5.0000
G00 X 29.4143 Y 5.1316

G01 Z -1.0000 F 100.0000(Penetrate)
G01 X 29.4220 Y 5.1464 Z -1.0000 F 3500.0000
G01 X 29.4416 Y 5.1386 Z -1.0000
G02 X 29.4552 Y 5.1023 Z -1.0000 I -0.0836 J -0.0522
G01 X 29.4488 Y 5.0947 Z -1.0000
G01 X 29.4332 Y 5.1015 Z -1.0000
G02 X 29.4144 Y 5.1316 Z -1.0000 I 0.0681 J 0.0635
G01 X 29.4143 Y 5.1316 Z -1.0000
G00 Z 5.0000

(End cutting path id: path78048)


(Start cutting path id: path78048)
(Change tool to Default tool)

G00 Z 5.0000
G00 X 29.3690 Y 5.0881

G01 Z -1.0000 F 100.0000(Penetrate)
G01 X 29.3717 Y 5.1007 Z -1.0000 F 3500.0000
G01 X 29.3816 Y 5.1007 Z -1.0000
G02 X 29.3996 Y 5.0730 Z -1.0000 I -0.0551 J -0.0555
G01 X 29.3969 Y 5.0604 Z -1.0000
G01 X 29.3870 Y 5.0604 Z -1.0000
G02 X 29.3690 Y 5.0881 Z -1.0000 I 0.0548 J 0.0554
G01 X 29.3690 Y 5.0881 Z -1.0000
G00 Z 5.0000

(End cutting path id: path78048)


(Start cutting path id: path78048)
(Change tool to Default tool)

G00 Z 5.0000
G00 X 29.3054 Y 5.1154

G01 Z -1.0000 F 100.0000(Penetrate)
G01 X 29.3063 Y 5.1427 Z -1.0000 F 3500.0000
G01 X 29.3152 Y 5.1448 Z -1.0000
G02 X 29.3300 Y 5.1190 Z -1.0000 I -0.0402 J -0.0402
G01 X 29.3291 Y 5.0916 Z -1.0000
G01 X 29.3202 Y 5.0895 Z -1.0000
G02 X 29.3054 Y 5.1154 Z -1.0000 I 0.0403 J 0.0403
G01 X 29.3054 Y 5.1154 Z -1.0000
G00 Z 5.0000

(End cutting path id: path78048)


(Start cutting path id: path78048)
(Change tool to Default tool)

G00 Z 5.0000
G00 X 29.1805 Y 5.1195

G01 Z -1.0000 F 100.0000(Penetrate)
G02 X 29.1642 Y 5.1853 Z -1.0000 I 0.0924 J 0.0577 F 3500.0000
G01 X 29.1865 Y 5.1994 Z -1.0000
G01 X 29.2130 Y 5.1990 Z -1.0000
G01 X 29.2276 Y 5.2138 Z -1.0000
G01 X 29.2349 Y 5.2148 Z -1.0000
G02 X 29.2476 Y 5.1833 Z -1.0000 I -0.0733 J -0.0479
G02 X 29.2253 Y 5.1138 Z -1.0000 I -0.0748 J -0.0143
G01 X 29.1804 Y 5.1195 Z -1.0000
G01 X 29.1805 Y 5.1195 Z -1.0000
G00 Z 5.0000

(End cutting path id: path78048)


(Start cutting path id: path78048)
(Change tool to Default tool)

G00 Z 5.0000
G00 X 29.1301 Y 5.2576

G01 Z -1.0000 F 100.0000(Penetrate)
G02 X 29.1220 Y 5.3287 Z -1.0000 I 0.1863 J 0.0570 F 3500.0000
G01 X 29.1362 Y 5.3418 Z -1.0000
G01 X 29.1473 Y 5.3338 Z -1.0000
G01 X 29.1466 Y 5.3096 Z -1.0000
G01 X 29.1508 Y 5.2865 Z -1.0000
G03 X 29.1835 Y 5.2677 Z -1.0000 I 0.0439 J 0.0388
G01 X 29.2328 Y 5.2581 Z -1.0000
G01 X 29.1823 Y 5.2550 Z -1.0000
G02 X 29.1337 Y 5.2547 Z -1.0000 I -0.0268 J 0.4377
G01 X 29.1301 Y 5.2576 Z -1.0000
G01 X 29.1301 Y 5.2576 Z -1.0000
G00 Z 5.0000

(End cutting path id: path78048)


(Start cutting path id: path78048)
(Change tool to Default tool)

G00 Z 5.0000
G00 X 29.2567 Y 5.2455

G01 Z -1.0000 F 100.0000(Penetrate)
G01 X 29.2594 Y 5.2580 Z -1.0000 F 3500.0000
G01 X 29.2693 Y 5.2580 Z -1.0000
G02 X 29.2873 Y 5.2303 Z -1.0000 I -0.0552 J -0.0556
G01 X 29.2846 Y 5.2178 Z -1.0000
G01 X 29.2748 Y 5.2177 Z -1.0000
G02 X 29.2567 Y 5.2455 Z -1.0000 I 0.0548 J 0.0554
G01 X 29.2567 Y 5.2455 Z -1.0000
G00 Z 5.0000

(End cutting path id: path78048)


(Start cutting path id: path78048)
(Change tool to Default tool)

G00 Z 5.0000
G00 X 29.2890 Y 5.2983

G01 Z -1.0000 F 100.0000(Penetrate)
G01 X 29.2961 Y 5.3092 Z -1.0000 F 3500.0000
G01 X 29.3114 Y 5.3082 Z -1.0000
G02 X 29.3306 Y 5.2925 Z -1.0000 I -0.0494 J -0.0803
G01 X 29.3339 Y 5.2844 Z -1.0000
G01 X 29.3300 Y 5.2784 Z -1.0000
G01 X 29.3114 Y 5.2745 Z -1.0000
G01 X 29.2957 Y 5.2813 Z -1.0000
G01 X 29.2890 Y 5.2983 Z -1.0000
G01 X 29.2890 Y 5.2983 Z -1.0000
G00 Z 5.0000

(End cutting path id: path78048)


(Start cutting path id: path78048)
(Change tool to Default tool)

G00 Z 5.0000
G00 X 29.3690 Y 5.2455

G01 Z -1.0000 F 100.0000(Penetrate)
G01 X 29.3717 Y 5.2580 Z -1.0000 F 3500.0000
G01 X 29.3816 Y 5.2580 Z -1.0000
G02 X 29.3996 Y 5.2303 Z -1.0000 I -0.0551 J -0.0555
G01 X 29.3969 Y 5.2178 Z -1.0000
G01 X 29.3870 Y 5.2177 Z -1.0000
G02 X 29.3690 Y 5.2455 Z -1.0000 I 0.0548 J 0.0554
G01 X 29.3690 Y 5.2455 Z -1.0000
G00 Z 5.0000

(End cutting path id: path78048)


(Start cutting path id: path78048)
(Change tool to Default tool)

G00 Z 5.0000
G00 X 29.4095 Y 5.3079

G01 Z -1.0000 F 100.0000(Penetrate)
G02 X 29.3443 Y 5.3432 Z -1.0000 I 0.1469 J 0.3493 F 3500.0000
G02 X 29.3210 Y 5.3677 Z -1.0000 I 0.0438 J 0.0648
G01 X 29.3239 Y 5.3738 Z -1.0000
G01 X 29.3372 Y 5.3701 Z -1.0000
G03 X 29.3711 Y 5.3529 Z -1.0000 I 0.0573 J 0.0708
G01 X 29.3865 Y 5.3570 Z -1.0000
G01 X 29.3952 Y 5.3572 Z -1.0000
G01 X 29.4012 Y 5.3432 Z -1.0000
G01 X 29.4106 Y 5.3282 Z -1.0000
G01 X 29.4342 Y 5.3272 Z -1.0000
G02 X 29.4636 Y 5.3295 Z -1.0000 I 0.0184 J -0.0477
G01 X 29.4813 Y 5.3169 Z -1.0000
G01 X 29.4729 Y 5.2992 Z -1.0000
G02 X 29.4095 Y 5.3078 Z -1.0000 I -0.0155 J 0.1224
G01 X 29.4095 Y 5.3079 Z -1.0000
G00 Z 5.0000

(End cutting path id: path78048)


(Start cutting path id: path78048)
(Change tool to Default tool)

G00 Z 5.0000
G00 X 29.5696 Y 5.2745

G01 Z -1.0000 F 100.0000(Penetrate)
G01 X 29.5397 Y 5.2954 Z -1.0000 F 3500.0000
G03 X 29.5545 Y 5.2984 Z -1.0000 I -0.0081 J 0.0778
G03 X 29.5939 Y 5.3120 Z -1.0000 I -0.1706 J 0.5584
G01 X 29.6121 Y 5.3096 Z -1.0000
G01 X 29.6146 Y 5.2969 Z -1.0000
G01 X 29.6166 Y 5.2840 Z -1.0000
G01 X 29.6333 Y 5.2812 Z -1.0000
G02 X 29.6625 Y 5.2837 Z -1.0000 I 0.0190 J -0.0494
G01 X 29.6707 Y 5.2738 Z -1.0000
G01 X 29.6537 Y 5.2569 Z -1.0000
G02 X 29.5697 Y 5.2745 Z -1.0000 I 0.0015 J 0.2167
G01 X 29.5696 Y 5.2745 Z -1.0000
G00 Z 5.0000

(End cutting path id: path78048)


(Start cutting path id: path78048)
(Change tool to Default tool)

G00 Z 5.0000
G00 X 29.7475 Y 5.2466

G01 Z -1.0000 F 100.0000(Penetrate)
G02 X 29.8153 Y 5.2777 Z -1.0000 I 0.0759 J -0.0759 F 3500.0000
G01 X 29.8596 Y 5.2552 Z -1.0000
G01 X 29.8560 Y 5.2446 Z -1.0000
G02 X 29.8023 Y 5.2345 Z -1.0000 I -0.0585 J 0.1621
G02 X 29.7496 Y 5.2395 Z -1.0000 I -0.0062 J 0.2140
G01 X 29.7475 Y 5.2466 Z -1.0000
G01 X 29.7475 Y 5.2466 Z -1.0000
G00 Z 5.0000

(End cutting path id: path78048)


(Start cutting path id: path78048)
(Change tool to Default tool)

G00 Z 5.0000
G00 X 29.8952 Y 5.2296

G01 Z -1.0000 F 100.0000(Penetrate)
G01 X 29.9018 Y 5.2455 Z -1.0000 F 3500.0000
G01 X 29.9177 Y 5.2520 Z -1.0000
G01 X 29.9336 Y 5.2455 Z -1.0000
G01 X 29.9401 Y 5.2296 Z -1.0000
G01 X 29.9335 Y 5.2137 Z -1.0000
G01 X 29.9177 Y 5.2071 Z -1.0000
G01 X 29.9018 Y 5.2137 Z -1.0000
G01 X 29.8952 Y 5.2296 Z -1.0000
G01 X 29.8952 Y 5.2296 Z -1.0000
G00 Z 5.0000

(End cutting path id: path78048)


(Start cutting path id: path78048)
(Change tool to Default tool)

G00 Z 5.0000
G00 X 30.0093 Y 5.1303

G01 Z -1.0000 F 100.0000(Penetrate)
G01 X 30.0159 Y 5.1453 Z -1.0000 F 3500.0000
G01 X 30.0228 Y 5.1439 Z -1.0000
G02 X 30.0277 Y 5.1159 Z -1.0000 I -0.0629 J -0.0252
G01 X 30.0210 Y 5.1008 Z -1.0000
G01 X 30.0140 Y 5.1023 Z -1.0000
G02 X 30.0093 Y 5.1303 Z -1.0000 I 0.0633 J 0.0252
G01 X 30.0093 Y 5.1303 Z -1.0000
G00 Z 5.0000

(End cutting path id: path78048)


(Start cutting path id: path78048)
(Change tool to Default tool)

G00 Z 5.0000
G00 X 30.0659 Y 5.0985

G01 Z -1.0000 F 100.0000(Penetrate)
G01 X 30.0803 Y 5.1123 Z -1.0000 F 3500.0000
G01 X 30.0986 Y 5.1172 Z -1.0000
G01 X 30.1139 Y 5.1114 Z -1.0000
G01 X 30.1198 Y 5.0985 Z -1.0000
G01 X 30.1129 Y 5.0866 Z -1.0000
G02 X 30.0871 Y 5.0797 Z -1.0000 I -0.0258 J 0.0451
G01 X 30.0676 Y 5.0871 Z -1.0000
G01 X 30.0659 Y 5.0985 Z -1.0000
G01 X 30.0659 Y 5.0985 Z -1.0000
G00 Z 5.0000

(End cutting path id: path78048)


(Start cutting path id: path78048)
(Change tool to Default tool)

G00 Z 5.0000
G00 X 30.1151 Y 5.1644

G01 Z -1.0000 F 100.0000(Penetrate)
G01 X 30.1188 Y 5.1875 Z -1.0000 F 3500.0000
G01 X 30.1447 Y 5.2011 Z -1.0000
G02 X 30.1786 Y 5.1952 Z -1.0000 I 0.0053 J -0.0690
G01 X 30.1871 Y 5.1820 Z -1.0000
G01 X 30.1805 Y 5.1715 Z -1.0000
G01 X 30.1666 Y 5.1723 Z -1.0000
G01 X 30.1503 Y 5.1731 Z -1.0000
G01 X 30.1370 Y 5.1579 Z -1.0000
G01 X 30.1275 Y 5.1529 Z -1.0000
G01 X 30.1151 Y 5.1644 Z -1.0000
G01 X 30.1151 Y 5.1644 Z -1.0000
G00 Z 5.0000

(End cutting path id: path78048)


(Start cutting path id: path78048)
(Change tool to Default tool)

G00 Z 5.0000
G00 X 30.2208 Y 5.0722

G01 Z -1.0000 F 100.0000(Penetrate)
G01 X 30.2198 Y 5.0875 Z -1.0000 F 3500.0000
G01 X 30.2307 Y 5.0947 Z -1.0000
G01 X 30.2477 Y 5.0879 Z -1.0000
G01 X 30.2545 Y 5.0722 Z -1.0000
G01 X 30.2506 Y 5.0537 Z -1.0000
G01 X 30.2446 Y 5.0498 Z -1.0000
G01 X 30.2365 Y 5.0530 Z -1.0000
G02 X 30.2208 Y 5.0722 Z -1.0000 I 0.0651 J 0.0692
G01 X 30.2208 Y 5.0722 Z -1.0000
G00 Z 5.0000

(End cutting path id: path78048)


(Start cutting path id: path78048)
(Change tool to Default tool)

G00 Z 5.0000
G00 X 30.1878 Y 5.0264

G01 Z -1.0000 F 100.0000(Penetrate)
G02 X 30.1663 Y 5.0486 Z -1.0000 I 0.0353 J 0.0558 F 3500.0000
G01 X 30.1677 Y 5.0603 Z -1.0000
G01 X 30.1802 Y 5.0623 Z -1.0000
G02 X 30.2091 Y 5.0391 Z -1.0000 I -0.0418 J -0.0819
G01 X 30.2069 Y 5.0261 Z -1.0000
G01 X 30.1878 Y 5.0264 Z -1.0000
G01 X 30.1878 Y 5.0264 Z -1.0000
G00 Z 5.0000

(End cutting path id: path78048)


(Start cutting path id: path78048)
(Change tool to Default tool)

G00 Z 5.0000
G00 X 30.3668 Y 5.1509

G01 Z -1.0000 F 100.0000(Penetrate)
G01 X 30.3564 Y 5.1763 Z -1.0000 F 3500.0000
G01 X 30.3641 Y 5.1846 Z -1.0000
G01 X 30.3824 Y 5.1778 Z -1.0000
G01 X 30.3893 Y 5.1628 Z -1.0000
G01 X 30.3972 Y 5.1526 Z -1.0000
G01 X 30.4229 Y 5.1540 Z -1.0000
G01 X 30.4480 Y 5.1544 Z -1.0000
G01 X 30.4566 Y 5.1421 Z -1.0000
G01 X 30.4296 Y 5.1176 Z -1.0000
G02 X 30.3668 Y 5.1509 Z -1.0000 I 0.0091 J 0.0930
G01 X 30.3668 Y 5.1509 Z -1.0000
G00 Z 5.0000

(End cutting path id: path78048)


(Start cutting path id: path78048)
(Change tool to Default tool)

G00 Z 5.0000
G00 X 29.9426 Y 5.0105

G01 Z -1.0000 F 100.0000(Penetrate)
G02 X 29.9013 Y 5.1427 Z -1.0000 I 1.1744 J 0.4394 F 3500.0000
G01 X 29.9085 Y 5.1452 Z -1.0000
G01 X 29.9268 Y 5.1254 Z -1.0000
G03 X 29.9589 Y 5.1168 Z -1.0000 I 0.0327 J 0.0579
G01 X 29.9696 Y 5.1089 Z -1.0000
G01 X 29.9652 Y 5.0968 Z -1.0000
G01 X 29.9589 Y 5.0780 Z -1.0000
G03 X 29.9825 Y 5.0512 Z -1.0000 I 0.0476 J 0.0180
G03 X 30.0306 Y 5.0342 Z -1.0000 I 0.0790 J 0.1476
G01 X 30.0517 Y 5.0382 Z -1.0000
G01 X 30.0685 Y 5.0370 Z -1.0000
G02 X 30.0974 Y 4.9999 Z -1.0000 I -0.0721 J -0.0860
G01 X 30.0990 Y 4.9839 Z -1.0000
G01 X 30.0929 Y 4.9824 Z -1.0000
G03 X 29.9986 Y 5.0308 Z -1.0000 I -0.1075 J -0.0935
G01 X 29.9706 Y 4.9938 Z -1.0000
G02 X 29.9769 Y 4.9646 Z -1.0000 I -0.0915 J -0.0349
G01 X 29.9725 Y 4.9600 Z -1.0000
G01 X 29.9646 Y 4.9645 Z -1.0000
G02 X 29.9425 Y 5.0105 Z -1.0000 I 0.2481 J 0.1471
G01 X 29.9426 Y 5.0105 Z -1.0000
G00 Z 5.0000

(End cutting path id: path78048)


(Start cutting path id: path78048)
(Change tool to Default tool)

G00 Z 5.0000
G00 X 29.8116 Y 5.0286

G01 Z -1.0000 F 100.0000(Penetrate)
G03 X 29.7921 Y 5.0604 Z -1.0000 I -0.0618 J -0.0160 F 3500.0000
G01 X 29.7716 Y 5.0641 Z -1.0000
G01 X 29.7495 Y 5.0675 Z -1.0000
G02 X 29.7197 Y 5.1058 Z -1.0000 I 0.0659 J 0.0819
G02 X 29.7140 Y 5.1509 Z -1.0000 I 0.0697 J 0.0317
G01 X 29.7314 Y 5.1719 Z -1.0000
G02 X 29.7655 Y 5.1790 Z -1.0000 I 0.0386 J -0.1007
G01 X 29.7787 Y 5.1738 Z -1.0000
G01 X 29.7783 Y 5.1671 Z -1.0000
G01 X 29.7643 Y 5.1621 Z -1.0000
G01 X 29.7467 Y 5.1535 Z -1.0000
G01 X 29.7381 Y 5.1284 Z -1.0000
G01 X 29.7597 Y 5.1043 Z -1.0000
G01 X 29.7905 Y 5.1228 Z -1.0000
G01 X 29.7974 Y 5.1244 Z -1.0000
G01 X 29.8036 Y 5.1116 Z -1.0000
G03 X 29.8138 Y 5.0810 Z -1.0000 I 0.0592 J 0.0027
G01 X 29.8303 Y 5.0723 Z -1.0000
G01 X 29.8425 Y 5.0809 Z -1.0000
G01 X 29.8422 Y 5.1059 Z -1.0000
G01 X 29.8511 Y 5.1125 Z -1.0000
G02 X 29.8834 Y 5.0734 Z -1.0000 I -0.0747 J -0.0946
G02 X 29.9030 Y 5.0139 Z -1.0000 I -0.1747 J -0.0904
G01 X 29.8934 Y 5.0105 Z -1.0000
G01 X 29.8564 Y 5.0346 Z -1.0000
G01 X 29.8422 Y 5.0161 Z -1.0000
G02 X 29.8461 Y 4.9886 Z -1.0000 I -0.0581 J -0.0223
G01 X 29.8394 Y 4.9824 Z -1.0000
G01 X 29.8284 Y 4.9886 Z -1.0000
G02 X 29.8116 Y 5.0286 Z -1.0000 I 0.1307 J 0.0785
G01 X 29.8116 Y 5.0286 Z -1.0000
G00 Z 5.0000

(End cutting path id: path78048)


(Start cutting path id: path78048)
(Change tool to Default tool)

G00 Z 5.0000
G00 X 29.5732 Y 4.8577

G01 Z -1.0000 F 100.0000(Penetrate)
G03 X 29.5544 Y 4.8851 Z -1.0000 I -0.0663 J -0.0253 F 3500.0000
G01 X 29.5431 Y 4.8848 Z -1.0000
G01 X 29.4989 Y 4.8846 Z -1.0000
G02 X 29.4694 Y 4.9571 Z -1.0000 I 0.0690 J 0.0704
G01 X 29.4786 Y 4.9624 Z -1.0000
G02 X 29.5042 Y 4.9375 Z -1.0000 I -0.0345 J -0.0612
G01 X 29.5381 Y 4.8814 Z -1.0000
G01 X 29.5296 Y 4.9551 Z -1.0000
G01 X 29.5435 Y 4.9680 Z -1.0000
G01 X 29.5627 Y 4.9488 Z -1.0000
G03 X 29.5809 Y 4.9163 Z -1.0000 I 0.0582 J 0.0112
G01 X 29.6085 Y 4.9068 Z -1.0000
G02 X 29.6391 Y 4.8994 Z -1.0000 I 0.0040 J -0.0508
G01 X 29.6584 Y 4.8762 Z -1.0000
G01 X 29.6550 Y 4.8589 Z -1.0000
G01 X 29.6387 Y 4.8552 Z -1.0000
G01 X 29.6118 Y 4.8560 Z -1.0000
G01 X 29.5977 Y 4.8420 Z -1.0000
G01 X 29.5886 Y 4.8388 Z -1.0000
G01 X 29.5733 Y 4.8577 Z -1.0000
G01 X 29.5732 Y 4.8577 Z -1.0000
G00 Z 5.0000

(End cutting path id: path78048)


(Start cutting path id: path78048)
(Change tool to Default tool)

G00 Z 5.0000
G00 X 29.3666 Y 4.9165

G01 Z -1.0000 F 100.0000(Penetrate)
G02 X 29.3586 Y 4.9397 Z -1.0000 I 0.0488 J 0.0300 F 3500.0000
G01 X 29.3625 Y 4.9512 Z -1.0000
G01 X 29.3710 Y 4.9512 Z -1.0000
G02 X 29.3865 Y 4.9272 Z -1.0000 I -0.0486 J -0.0486
G01 X 29.3811 Y 4.9126 Z -1.0000
G01 X 29.3666 Y 4.9165 Z -1.0000
G01 X 29.3666 Y 4.9165 Z -1.0000
G00 Z 5.0000

(End cutting path id: path78048)


(Start cutting path id: path78048)
(Change tool to Default tool)

G00 Z 5.0000
G00 X 29.2094 Y 5.3658

G01 Z -1.0000 F 100.0000(Penetrate)
G02 X 29.2014 Y 5.3890 Z -1.0000 I 0.0488 J 0.0300 F 3500.0000
G01 X 29.2053 Y 5.4005 Z -1.0000
G01 X 29.2138 Y 5.4005 Z -1.0000
G02 X 29.2293 Y 5.3765 Z -1.0000 I -0.0486 J -0.0486
G01 X 29.2239 Y 5.3619 Z -1.0000
G01 X 29.2094 Y 5.3658 Z -1.0000
G01 X 29.2094 Y 5.3658 Z -1.0000
G00 Z 5.0000

(End cutting path id: path78048)


(Start cutting path id: path78048)
(Change tool to Default tool)

G00 Z 5.0000
G00 X 29.0981 Y 5.3830

G01 Z -1.0000 F 100.0000(Penetrate)
G01 X 29.0934 Y 5.4227 Z -1.0000 F 3500.0000
G01 X 29.1318 Y 5.4382 Z -1.0000
G01 X 29.1668 Y 5.3999 Z -1.0000
G01 X 29.1430 Y 5.3718 Z -1.0000
G02 X 29.1109 Y 5.3758 Z -1.0000 I 0.0000 J 0.1313
G01 X 29.0981 Y 5.3830 Z -1.0000
G01 X 29.0981 Y 5.3830 Z -1.0000
G00 Z 5.0000

(End cutting path id: path78048)


(Start cutting path id: path78048)
(Change tool to Default tool)

G00 Z 5.0000
G00 X 28.9777 Y 5.4351

G01 Z -1.0000 F 100.0000(Penetrate)
G02 X 28.9558 Y 5.4769 Z -1.0000 I 0.2609 J 0.1629 F 3500.0000
G01 X 28.9528 Y 5.4931 Z -1.0000
G01 X 28.9573 Y 5.4949 Z -1.0000
G02 X 28.9764 Y 5.4710 Z -1.0000 I -0.0727 J -0.0775
G03 X 29.0043 Y 5.4404 Z -1.0000 I 0.0844 J 0.0492
G01 X 29.0318 Y 5.4317 Z -1.0000
G02 X 29.0575 Y 5.4248 Z -1.0000 I 0.0000 J -0.0517
G01 X 29.0644 Y 5.4130 Z -1.0000
G01 X 29.0370 Y 5.3917 Z -1.0000
G02 X 28.9777 Y 5.4351 Z -1.0000 I 0.0244 J 0.0957
G01 X 28.9777 Y 5.4351 Z -1.0000
G00 Z 5.0000

(End cutting path id: path78048)


(Start cutting path id: path78048)
(Change tool to Default tool)

G00 Z 5.0000
G00 X 28.9557 Y 5.3194

G01 Z -1.0000 F 100.0000(Penetrate)
G02 X 28.9611 Y 5.3475 Z -1.0000 I 0.0750 J -0.0000 F 3500.0000
G01 X 28.9670 Y 5.3475 Z -1.0000
G02 X 28.9724 Y 5.3194 Z -1.0000 I -0.0699 J -0.0281
G02 X 28.9670 Y 5.2913 Z -1.0000 I -0.0753 J 0.0000
G01 X 28.9611 Y 5.2913 Z -1.0000
G02 X 28.9557 Y 5.3194 Z -1.0000 I 0.0695 J 0.0281
G01 X 28.9557 Y 5.3194 Z -1.0000
G00 Z 5.0000

(End cutting path id: path78048)


(Start cutting path id: path78048)
(Change tool to Default tool)

G00 Z 5.0000
G00 X 28.8843 Y 5.3536

G01 Z -1.0000 F 100.0000(Penetrate)
G02 X 28.8637 Y 5.3875 Z -1.0000 I 0.1060 J 0.0880 F 3500.0000
G01 X 28.8656 Y 5.3975 Z -1.0000
G01 X 28.8742 Y 5.3977 Z -1.0000
G02 X 28.9027 Y 5.3633 Z -1.0000 I -0.1135 J -0.1231
G01 X 28.8993 Y 5.3507 Z -1.0000
G01 X 28.8843 Y 5.3536 Z -1.0000
G01 X 28.8843 Y 5.3536 Z -1.0000
G00 Z 5.0000

(End cutting path id: path78048)


(Start cutting path id: path78048)
(Change tool to Default tool)

G00 Z 5.0000
G00 X 28.8548 Y 5.4466

G01 Z -1.0000 F 100.0000(Penetrate)
G01 X 28.8444 Y 5.4634 Z -1.0000 F 3500.0000
G02 X 28.8399 Y 5.4915 Z -1.0000 I 0.0841 J 0.0281
G01 X 28.8690 Y 5.5237 Z -1.0000
G02 X 28.9183 Y 5.4992 Z -1.0000 I 0.0051 J -0.0517
G01 X 28.9152 Y 5.4910 Z -1.0000
G01 X 28.8933 Y 5.4919 Z -1.0000
G01 X 28.8733 Y 5.4880 Z -1.0000
G01 X 28.8689 Y 5.4692 Z -1.0000
G01 X 28.8669 Y 5.4480 Z -1.0000
G01 X 28.8548 Y 5.4466 Z -1.0000
G01 X 28.8548 Y 5.4466 Z -1.0000
G00 Z 5.0000

(End cutting path id: path78048)


(Start cutting path id: path78048)
(Change tool to Default tool)

G00 Z 5.0000
G00 X 28.6194 Y 5.5552

G01 Z -1.0000 F 100.0000(Penetrate)
G03 X 28.5855 Y 5.5984 Z -1.0000 I -0.1064 J -0.0485 F 3500.0000
G03 X 28.5484 Y 5.6113 Z -1.0000 I -0.0371 J -0.0469
G02 X 28.5117 Y 5.6199 Z -1.0000 I -0.0000 J 0.0830
G01 X 28.5031 Y 5.6338 Z -1.0000
G01 X 28.5154 Y 5.6448 Z -1.0000
G02 X 28.5986 Y 5.6234 Z -1.0000 I -0.0325 J -0.2985
G02 X 28.6908 Y 5.5544 Z -1.0000 I -0.0909 J -0.2175
G01 X 28.6886 Y 5.5125 Z -1.0000
G01 X 28.6600 Y 5.5091 Z -1.0000
G02 X 28.6194 Y 5.5552 Z -1.0000 I 0.0554 J 0.0898
G01 X 28.6194 Y 5.5552 Z -1.0000
G00 Z 5.0000

(End cutting path id: path78048)


(Start cutting path id: path78048)
(Change tool to Default tool)

G00 Z 5.0000
G00 X 28.5639 Y 5.5440

G01 Z -1.0000 F 100.0000(Penetrate)
G02 X 28.5627 Y 5.5807 Z -1.0000 I 0.0802 J 0.0211 F 3500.0000
G01 X 28.5725 Y 5.5889 Z -1.0000
G01 X 28.5849 Y 5.5809 Z -1.0000
G02 X 28.5929 Y 5.5440 Z -1.0000 I -0.0815 J -0.0369
G02 X 28.5889 Y 5.5029 Z -1.0000 I -0.2171 J 0.0000
G01 X 28.5843 Y 5.4990 Z -1.0000
G01 X 28.5785 Y 5.5027 Z -1.0000
G02 X 28.5639 Y 5.5440 Z -1.0000 I 0.2337 J 0.1062
G01 X 28.5639 Y 5.5440 Z -1.0000
G00 Z 5.0000

(End cutting path id: path78048)


(Start cutting path id: path78048)
(Change tool to Default tool)

G00 Z 5.0000
G00 X 28.3967 Y 5.6178

G01 Z -1.0000 F 100.0000(Penetrate)
G01 X 28.4069 Y 5.6307 Z -1.0000 F 3500.0000
G01 X 28.4225 Y 5.6335 Z -1.0000
G01 X 28.4388 Y 5.6370 Z -1.0000
G03 X 28.4603 Y 5.6596 Z -1.0000 I -0.0437 J 0.0630
G01 X 28.4691 Y 5.6601 Z -1.0000
G01 X 28.4750 Y 5.6408 Z -1.0000
G02 X 28.4594 Y 5.6062 Z -1.0000 I -0.0555 J 0.0042
G01 X 28.4308 Y 5.5954 Z -1.0000
G02 X 28.4009 Y 5.6056 Z -1.0000 I 0.0048 J 0.0630
G01 X 28.3967 Y 5.6178 Z -1.0000
G01 X 28.3967 Y 5.6178 Z -1.0000
G00 Z 5.0000

(End cutting path id: path78048)


(Start cutting path id: path78048)
(Change tool to Default tool)

G00 Z 5.0000
G00 X 28.2867 Y 5.6448

G01 Z -1.0000 F 100.0000(Penetrate)
G03 X 28.2713 Y 5.6750 Z -1.0000 I -0.1525 J -0.0585 F 3500.0000
G01 X 28.2649 Y 5.6785 Z -1.0000
G01 X 28.2599 Y 5.6746 Z -1.0000
G03 X 28.2561 Y 5.6448 Z -1.0000 I 0.1152 J -0.0298
G01 X 28.2638 Y 5.6188 Z -1.0000
G01 X 28.2779 Y 5.6111 Z -1.0000
G01 X 28.2881 Y 5.6190 Z -1.0000
G01 X 28.2867 Y 5.6448 Z -1.0000
G01 X 28.2867 Y 5.6448 Z -1.0000
G00 Z 5.0000

(End cutting path id: path78048)


(Start cutting path id: path78048)
(Change tool to Default tool)

G00 Z 5.0000
G00 X 28.2952 Y 5.5662

G01 Z -1.0000 F 100.0000(Penetrate)
G01 X 28.2915 Y 5.5724 Z -1.0000 F 3500.0000
G01 X 28.2827 Y 5.5689 Z -1.0000
G01 X 28.2584 Y 5.5508 Z -1.0000
G01 X 28.2361 Y 5.5534 Z -1.0000
G01 X 28.2189 Y 5.5549 Z -1.0000
G01 X 28.2112 Y 5.5434 Z -1.0000
G01 X 28.2458 Y 5.5169 Z -1.0000
G03 X 28.2952 Y 5.5662 Z -1.0000 I -0.0184 J 0.0678
G01 X 28.2952 Y 5.5662 Z -1.0000
G00 Z 5.0000

(End cutting path id: path78048)


(Start cutting path id: path78048)
(Change tool to Default tool)

G00 Z 5.0000
G00 X 28.3311 Y 5.4472

G01 Z -1.0000 F 100.0000(Penetrate)
G01 X 28.3759 Y 5.4666 Z -1.0000 F 3500.0000
G03 X 28.3634 Y 5.5269 Z -1.0000 I -0.0514 J 0.0208
G03 X 28.3338 Y 5.5415 Z -1.0000 I -0.0369 J -0.0375
G01 X 28.3234 Y 5.5325 Z -1.0000
G02 X 28.3168 Y 5.5054 Z -1.0000 I -0.0585 J -0.0000
G01 X 28.3059 Y 5.4988 Z -1.0000
G01 X 28.2955 Y 5.4913 Z -1.0000
G03 X 28.2859 Y 5.4371 Z -1.0000 I 0.1928 J -0.0621
G01 X 28.2942 Y 5.4163 Z -1.0000
G02 X 28.3118 Y 5.4439 Z -1.0000 I 0.0521 J -0.0137
G01 X 28.3311 Y 5.4471 Z -1.0000
G01 X 28.3311 Y 5.4472 Z -1.0000
G00 Z 5.0000

(End cutting path id: path78048)


(Start cutting path id: path78048)
(Change tool to Default tool)

G00 Z 5.0000
G00 X 28.1844 Y 5.3753

G01 Z -1.0000 F 100.0000(Penetrate)
G03 X 28.1747 Y 5.4470 Z -1.0000 I -0.3740 J -0.0138 F 3500.0000
G01 X 28.1660 Y 5.4539 Z -1.0000
G01 X 28.1512 Y 5.4395 Z -1.0000
G03 X 28.1628 Y 5.3136 Z -1.0000 I 0.5530 J -0.0127
G01 X 28.1750 Y 5.3128 Z -1.0000
G03 X 28.1844 Y 5.3753 Z -1.0000 I -0.1602 J 0.0562
G01 X 28.1844 Y 5.3753 Z -1.0000
G00 Z 5.0000

(End cutting path id: path78048)


(Start cutting path id: path78048)
(Change tool to Default tool)

G00 Z 5.0000
G00 X 28.1438 Y 5.3291

G01 Z -1.0000 F 100.0000(Penetrate)
G01 X 28.1406 Y 5.3372 Z -1.0000 F 3500.0000
G03 X 28.1213 Y 5.3529 Z -1.0000 I -0.0692 J -0.0651
G01 X 28.1060 Y 5.3539 Z -1.0000
G01 X 28.0989 Y 5.3430 Z -1.0000
G01 X 28.1056 Y 5.3260 Z -1.0000
G01 X 28.1213 Y 5.3192 Z -1.0000
G01 X 28.1399 Y 5.3231 Z -1.0000
G01 X 28.1438 Y 5.3291 Z -1.0000
G01 X 28.1438 Y 5.3291 Z -1.0000
G00 Z 5.0000

(End cutting path id: path78048)


(Start cutting path id: path78048)
(Change tool to Default tool)

G00 Z 5.0000
G00 X 28.1700 Y 5.5490

G01 Z -1.0000 F 100.0000(Penetrate)
G01 X 28.1611 Y 5.5469 Z -1.0000 F 3500.0000
G01 X 28.1602 Y 5.5195 Z -1.0000
G03 X 28.1750 Y 5.4937 Z -1.0000 I 0.0549 J 0.0143
G01 X 28.1840 Y 5.4958 Z -1.0000
G01 X 28.1849 Y 5.5231 Z -1.0000
G03 X 28.1700 Y 5.5490 Z -1.0000 I -0.0550 J -0.0144
G01 X 28.1700 Y 5.5490 Z -1.0000
G00 Z 5.0000

(End cutting path id: path78048)


(Start cutting path id: path78048)
(Change tool to Default tool)

G00 Z 5.0000
G00 X 27.9196 Y 5.6329

G01 Z -1.0000 F 100.0000(Penetrate)
G03 X 27.8738 Y 5.6854 Z -1.0000 I -0.1010 J -0.0418 F 3500.0000
G01 X 27.8471 Y 5.6753 Z -1.0000
G03 X 27.8664 Y 5.5606 Z -1.0000 I 0.1175 J -0.0392
G01 X 27.9389 Y 5.5559 Z -1.0000
G01 X 27.9417 Y 5.5660 Z -1.0000
G03 X 27.9196 Y 5.6329 Z -1.0000 I -0.4663 J -0.1171
G01 X 27.9196 Y 5.6329 Z -1.0000
G00 Z 5.0000

(End cutting path id: path78048)


(Start cutting path id: path78048)
(Change tool to Default tool)

G00 Z 5.0000
G00 X 27.8825 Y 5.5775

G01 Z -1.0000 F 100.0000(Penetrate)
G03 X 27.8652 Y 5.6047 Z -1.0000 I -0.0763 J -0.0293 F 3500.0000
G01 X 27.8502 Y 5.6111 Z -1.0000
G01 X 27.8414 Y 5.6039 Z -1.0000
G01 X 27.8438 Y 5.5775 Z -1.0000
G03 X 27.8611 Y 5.5502 Z -1.0000 I 0.0763 J 0.0292
G01 X 27.8761 Y 5.5438 Z -1.0000
G01 X 27.8848 Y 5.5510 Z -1.0000
G01 X 27.8825 Y 5.5775 Z -1.0000
G01 X 27.8825 Y 5.5775 Z -1.0000
G00 Z 5.0000

(End cutting path id: path78048)


(Start cutting path id: path78048)
(Change tool to Default tool)

G00 Z 5.0000
G00 X 27.7958 Y 5.5887

G01 Z -1.0000 F 100.0000(Penetrate)
G01 X 27.7968 Y 5.6040 Z -1.0000 F 3500.0000
G01 X 27.7859 Y 5.6111 Z -1.0000
G01 X 27.7688 Y 5.6044 Z -1.0000
G01 X 27.7621 Y 5.5887 Z -1.0000
G01 X 27.7660 Y 5.5701 Z -1.0000
G01 X 27.7720 Y 5.5662 Z -1.0000
G01 X 27.7800 Y 5.5694 Z -1.0000
G03 X 27.7958 Y 5.5887 Z -1.0000 I -0.0651 J 0.0692
G01 X 27.7958 Y 5.5887 Z -1.0000
G00 Z 5.0000

(End cutting path id: path78048)


(Start cutting path id: path78048)
(Change tool to Default tool)

G00 Z 5.0000
G00 X 27.7970 Y 5.6990

G01 Z -1.0000 F 100.0000(Penetrate)
G03 X 27.7786 Y 5.7175 Z -1.0000 I -0.0489 J -0.0302 F 3500.0000
G01 X 27.7580 Y 5.7234 Z -1.0000
G01 X 27.7505 Y 5.7157 Z -1.0000
G01 X 27.7591 Y 5.6933 Z -1.0000
G02 X 27.7776 Y 5.6627 Z -1.0000 I -0.0922 J -0.0765
G01 X 27.7766 Y 5.6512 Z -1.0000
G01 X 27.7906 Y 5.6569 Z -1.0000
G01 X 27.8016 Y 5.6763 Z -1.0000
G01 X 27.7970 Y 5.6990 Z -1.0000
G01 X 27.7970 Y 5.6990 Z -1.0000
G00 Z 5.0000

(End cutting path id: path78048)


(Start cutting path id: path78048)
(Change tool to Default tool)

G00 Z 5.0000
G00 X 27.6947 Y 5.7769

G01 Z -1.0000 F 100.0000(Penetrate)
G01 X 27.6910 Y 5.7826 Z -1.0000 F 3500.0000
G03 X 27.6498 Y 5.7973 Z -1.0000 I -0.1061 J -0.2334
G03 X 27.6208 Y 5.7972 Z -1.0000 I -0.0144 J -0.0547
G01 X 27.6174 Y 5.7887 Z -1.0000
G03 X 27.6688 Y 5.7547 Z -1.0000 I 0.0625 J 0.0386
G01 X 27.6947 Y 5.7769 Z -1.0000
G01 X 27.6947 Y 5.7769 Z -1.0000
G00 Z 5.0000

(End cutting path id: path78048)


(Start cutting path id: path78048)
(Change tool to Default tool)

G00 Z 5.0000
G00 X 27.8311 Y 5.9467

G01 Z -1.0000 F 100.0000(Penetrate)
G02 X 27.7735 Y 5.9886 Z -1.0000 I 0.0236 J 0.0931 F 3500.0000
G01 X 27.7883 Y 6.0147 Z -1.0000
G02 X 27.8936 Y 5.9805 Z -1.0000 I -0.0046 J -0.1931
G01 X 27.8952 Y 5.9407 Z -1.0000
G01 X 27.8845 Y 5.9375 Z -1.0000
G02 X 27.8311 Y 5.9467 Z -1.0000 I 0.0327 J 0.3486
G01 X 27.8311 Y 5.9467 Z -1.0000
G00 Z 5.0000

(End cutting path id: path78048)


(Start cutting path id: path78048)
(Change tool to Default tool)

G00 Z 5.0000
G00 X 27.5681 Y 6.1164

G01 Z -1.0000 F 100.0000(Penetrate)
G03 X 27.5492 Y 6.1414 Z -1.0000 I -0.0526 J -0.0202 F 3500.0000
G01 X 27.5230 Y 6.1500 Z -1.0000
G01 X 27.5123 Y 6.1404 Z -1.0000
G01 X 27.5198 Y 6.1172 Z -1.0000
G03 X 27.5568 Y 6.1001 Z -1.0000 I 0.0378 J 0.0334
G01 X 27.5681 Y 6.1164 Z -1.0000
G01 X 27.5681 Y 6.1164 Z -1.0000
G00 Z 5.0000

(End cutting path id: path78048)


(Start cutting path id: path78048)
(Change tool to Default tool)

G00 Z 5.0000
G00 X 27.1669 Y 6.2845

G01 Z -1.0000 F 100.0000(Penetrate)
G01 X 27.1641 Y 6.2930 Z -1.0000 F 3500.0000
G01 X 27.1458 Y 6.2933 Z -1.0000
G01 X 27.1248 Y 6.2734 Z -1.0000
G01 X 27.1320 Y 6.2623 Z -1.0000
G01 X 27.1502 Y 6.2676 Z -1.0000
G03 X 27.1669 Y 6.2845 Z -1.0000 I -0.0287 J 0.0450
G01 X 27.1669 Y 6.2845 Z -1.0000
G00 Z 5.0000

(End cutting path id: path78048)


(Start cutting path id: path78048)
(Change tool to Default tool)

G00 Z 5.0000
G00 X 27.3283 Y 5.7052

G01 Z -1.0000 F 100.0000(Penetrate)
G01 X 27.3213 Y 5.7066 Z -1.0000 F 3500.0000
G01 X 27.3148 Y 5.6916 Z -1.0000
G03 X 27.3196 Y 5.6636 Z -1.0000 I 0.0680 J -0.0028
G01 X 27.3266 Y 5.6622 Z -1.0000
G01 X 27.3332 Y 5.6772 Z -1.0000
G03 X 27.3284 Y 5.7052 Z -1.0000 I -0.0676 J 0.0028
G01 X 27.3283 Y 5.7052 Z -1.0000
G00 Z 5.0000

(End cutting path id: path78048)


(Start cutting path id: path78048)
(Change tool to Default tool)

G00 Z 5.0000
G00 X 27.2905 Y 5.5537

G01 Z -1.0000 F 100.0000(Penetrate)
G01 X 27.2873 Y 5.5617 Z -1.0000 F 3500.0000
G03 X 27.2681 Y 5.5775 Z -1.0000 I -0.0692 J -0.0651
G01 X 27.2528 Y 5.5785 Z -1.0000
G01 X 27.2456 Y 5.5676 Z -1.0000
G01 X 27.2524 Y 5.5505 Z -1.0000
G01 X 27.2681 Y 5.5438 Z -1.0000
G01 X 27.2867 Y 5.5477 Z -1.0000
G01 X 27.2905 Y 5.5537 Z -1.0000
G01 X 27.2905 Y 5.5537 Z -1.0000
G00 Z 5.0000

(End cutting path id: path78048)


(Start cutting path id: path78048)
(Change tool to Default tool)

G00 Z 5.0000
G00 X 27.2007 Y 5.5648

G01 Z -1.0000 F 100.0000(Penetrate)
G01 X 27.1924 Y 5.5770 Z -1.0000 F 3500.0000
G03 X 27.1558 Y 5.5825 Z -1.0000 I -0.0304 J -0.0772
G03 X 27.1180 Y 5.5726 Z -1.0000 I 0.0084 J -0.1087
G01 X 27.1109 Y 5.5615 Z -1.0000
G01 X 27.1180 Y 5.5510 Z -1.0000
G03 X 27.1558 Y 5.5438 Z -1.0000 I 0.0378 J 0.0957
G03 X 27.1925 Y 5.5520 Z -1.0000 I -0.0000 J 0.0864
G01 X 27.2007 Y 5.5648 Z -1.0000
G01 X 27.2007 Y 5.5648 Z -1.0000
G00 Z 5.0000

(End cutting path id: path78048)


(Start cutting path id: path78048)
(Change tool to Default tool)

G00 Z 5.0000
G00 X 27.3804 Y 5.5325

G01 Z -1.0000 F 100.0000(Penetrate)
G03 X 27.3765 Y 5.5624 Z -1.0000 I -0.1174 J -0.0000 F 3500.0000
G01 X 27.3716 Y 5.5662 Z -1.0000
G01 X 27.3651 Y 5.5627 Z -1.0000
G03 X 27.3498 Y 5.5325 Z -1.0000 I 0.1388 J -0.0893
G01 X 27.3484 Y 5.5067 Z -1.0000
G01 X 27.3586 Y 5.4989 Z -1.0000
G01 X 27.3727 Y 5.5065 Z -1.0000
G01 X 27.3804 Y 5.5325 Z -1.0000
G01 X 27.3804 Y 5.5325 Z -1.0000
G00 Z 5.0000

(End cutting path id: path78048)


(Start cutting path id: path78048)
(Change tool to Default tool)

G00 Z 5.0000
G00 X 27.4910 Y 5.6693

G01 Z -1.0000 F 100.0000(Penetrate)
G01 X 27.4600 Y 5.6786 Z -1.0000 F 3500.0000
G01 X 27.4520 Y 5.6575 Z -1.0000
G03 X 27.4820 Y 5.6262 Z -1.0000 I 0.0900 J 0.0562
G01 X 27.4982 Y 5.6258 Z -1.0000
G01 X 27.5045 Y 5.6397 Z -1.0000
G03 X 27.4910 Y 5.6693 Z -1.0000 I -0.0618 J -0.0103
G01 X 27.4910 Y 5.6693 Z -1.0000
G00 Z 5.0000

(End cutting path id: path78048)


(Start cutting path id: path78048)
(Change tool to Default tool)

G00 Z 5.0000
G00 X 27.5600 Y 5.4694

G01 Z -1.0000 F 100.0000(Penetrate)
G01 X 27.5556 Y 5.4741 Z -1.0000 F 3500.0000
G03 X 27.5333 Y 5.4712 Z -1.0000 I -0.0039 J -0.0580
G01 X 27.5091 Y 5.4728 Z -1.0000
G02 X 27.4641 Y 5.5049 Z -1.0000 I 0.0732 J 0.1503
G03 X 27.4215 Y 5.5367 Z -1.0000 I -0.1317 J -0.1317
G01 X 27.4090 Y 5.5349 Z -1.0000
G01 X 27.4150 Y 5.4625 Z -1.0000
G03 X 27.5312 Y 5.4477 Z -1.0000 I 0.0719 J 0.1006
G03 X 27.5560 Y 5.4615 Z -1.0000 I -0.0368 J 0.0954
G01 X 27.5600 Y 5.4694 Z -1.0000
G01 X 27.5600 Y 5.4694 Z -1.0000
G00 Z 5.0000

(End cutting path id: path78048)


(Start cutting path id: path78048)
(Change tool to Default tool)

G00 Z 5.0000
G00 X 27.6722 Y 5.3464

G01 Z -1.0000 F 100.0000(Penetrate)
G01 X 27.6656 Y 5.3574 Z -1.0000 F 3500.0000
G03 X 27.6386 Y 5.3641 Z -1.0000 I -0.0270 J -0.0514
G01 X 27.6137 Y 5.3730 Z -1.0000
G01 X 27.6045 Y 5.3922 Z -1.0000
G01 X 27.5978 Y 5.3976 Z -1.0000
G01 X 27.5836 Y 5.3877 Z -1.0000
G03 X 27.5703 Y 5.3550 Z -1.0000 I 0.0846 J -0.0535
G01 X 27.5731 Y 5.3386 Z -1.0000
G03 X 27.6357 Y 5.3069 Z -1.0000 I 0.0572 J 0.0354
G01 X 27.6723 Y 5.3465 Z -1.0000
G01 X 27.6722 Y 5.3464 Z -1.0000
G00 Z 5.0000

(End cutting path id: path78048)


(Start cutting path id: path78048)
(Change tool to Default tool)

G00 Z 5.0000
G00 X 27.8070 Y 5.3637

G01 Z -1.0000 F 100.0000(Penetrate)
G03 X 27.7192 Y 5.3922 Z -1.0000 I -0.0959 J -0.1453 F 3500.0000
G01 X 27.6947 Y 5.3689 Z -1.0000
G01 X 27.7024 Y 5.3584 Z -1.0000
G03 X 27.7677 Y 5.3463 Z -1.0000 I 0.0843 J 0.2720
G03 X 27.8061 Y 5.3531 Z -1.0000 I 0.0055 J 0.0813
G01 X 27.8070 Y 5.3636 Z -1.0000
G01 X 27.8070 Y 5.3637 Z -1.0000
G00 Z 5.0000

(End cutting path id: path78048)


(Start cutting path id: path78048)
(Change tool to Default tool)

G00 Z 5.0000
G00 X 27.8968 Y 5.2535

G01 Z -1.0000 F 100.0000(Penetrate)
G01 X 27.8893 Y 5.2620 Z -1.0000 F 3500.0000
G03 X 27.8592 Y 5.2584 Z -1.0000 I -0.0080 J -0.0611
G01 X 27.8392 Y 5.2615 Z -1.0000
G01 X 27.8347 Y 5.2780 Z -1.0000
G01 X 27.8275 Y 5.2987 Z -1.0000
G03 X 27.7721 Y 5.3149 Z -1.0000 I -0.0598 J -0.1017
G03 X 27.7013 Y 5.3088 Z -1.0000 I -0.0111 J -0.2879
G01 X 27.6830 Y 5.2960 Z -1.0000
G01 X 27.6870 Y 5.2839 Z -1.0000
G03 X 27.7359 Y 5.2743 Z -1.0000 I 0.0489 J 0.1190
G02 X 27.7941 Y 5.2625 Z -1.0000 I 0.0000 J -0.1499
G01 X 27.8150 Y 5.2410 Z -1.0000
G01 X 27.8624 Y 5.2134 Z -1.0000
G01 X 27.8968 Y 5.2535 Z -1.0000
G01 X 27.8968 Y 5.2535 Z -1.0000
G00 Z 5.0000

(End cutting path id: path78048)


(Start cutting path id: path78048)
(Change tool to Default tool)

G00 Z 5.0000
G00 X 28.3430 Y 5.0890

G01 Z -1.0000 F 100.0000(Penetrate)
G01 X 28.3435 Y 5.0970 Z -1.0000 F 3500.0000
G01 X 28.3515 Y 5.0975 Z -1.0000
G02 X 28.3871 Y 5.0585 Z -1.0000 I -0.0984 J -0.1255
G01 X 28.3823 Y 5.0497 Z -1.0000
G01 X 28.3752 Y 5.0527 Z -1.0000
G02 X 28.3430 Y 5.0890 Z -1.0000 I 0.2867 J 0.2863
G01 X 28.3430 Y 5.0890 Z -1.0000
G00 Z 5.0000

(End cutting path id: path78048)


(Start cutting path id: path78048)
(Change tool to Default tool)

G00 Z 5.0000
G00 X 28.4235 Y 5.0482

G01 Z -1.0000 F 100.0000(Penetrate)
G01 X 28.4263 Y 5.0667 Z -1.0000 F 3500.0000
G01 X 28.4146 Y 5.0826 Z -1.0000
G01 X 28.4016 Y 5.1247 Z -1.0000
G02 X 28.4546 Y 5.1721 Z -1.0000 I 0.0794 J -0.0355
G03 X 28.5303 Y 5.2592 Z -1.0000 I -0.0337 J 0.1057
G03 X 28.4797 Y 5.3192 Z -1.0000 I -0.0506 J 0.0086
G01 X 28.4652 Y 5.3121 Z -1.0000
G01 X 28.4578 Y 5.2911 Z -1.0000
G01 X 28.4509 Y 5.2858 Z -1.0000
G01 X 28.4357 Y 5.2967 Z -1.0000
G01 X 28.4241 Y 5.2957 Z -1.0000
G03 X 28.4136 Y 5.2462 Z -1.0000 I 0.1144 J -0.0501
G02 X 28.4031 Y 5.1722 Z -1.0000 I -0.2727 J 0.0011
G01 X 28.3895 Y 5.1620 Z -1.0000
G01 X 28.3785 Y 5.1541 Z -1.0000
G01 X 28.3799 Y 5.1339 Z -1.0000
G01 X 28.3619 Y 5.1451 Z -1.0000
G03 X 28.3256 Y 5.1758 Z -1.0000 I -0.1008 J -0.0826
G03 X 28.2929 Y 5.1844 Z -1.0000 I -0.0327 J -0.0575
G02 X 28.2644 Y 5.1927 Z -1.0000 I 0.0000 J 0.0531
G01 X 28.2561 Y 5.2079 Z -1.0000
G01 X 28.2637 Y 5.2226 Z -1.0000
G01 X 28.2841 Y 5.2277 Z -1.0000
G03 X 28.3533 Y 5.2452 Z -1.0000 I 0.0125 J 0.0958
G03 X 28.3796 Y 5.2967 Z -1.0000 I -0.0373 J 0.0515
G03 X 28.3728 Y 5.3574 Z -1.0000 I -0.2780 J -0.0000
G01 X 28.3646 Y 5.3641 Z -1.0000
G03 X 28.3000 Y 5.3425 Z -1.0000 I -0.0000 J -0.1075
G03 X 28.2792 Y 5.2999 Z -1.0000 I 0.0313 J -0.0416
G01 X 28.2893 Y 5.2918 Z -1.0000
G01 X 28.3129 Y 5.3066 Z -1.0000
G01 X 28.3341 Y 5.3150 Z -1.0000
G01 X 28.3459 Y 5.3010 Z -1.0000
G01 X 28.3311 Y 5.2666 Z -1.0000
G02 X 28.2940 Y 5.2518 Z -1.0000 I -0.0371 J 0.0391
G03 X 28.2461 Y 5.2415 Z -1.0000 I -0.0000 J -0.1159
G03 X 28.1929 Y 5.2060 Z -1.0000 I 0.0816 J -0.1801
G01 X 28.1438 Y 5.1602 Z -1.0000
G01 X 28.1438 Y 5.2084 Z -1.0000
G01 X 28.1319 Y 5.2394 Z -1.0000
G01 X 28.1116 Y 5.2443 Z -1.0000
G02 X 28.0833 Y 5.2410 Z -1.0000 I -0.0206 J 0.0536
G01 X 28.0723 Y 5.2496 Z -1.0000
G01 X 28.0604 Y 5.2614 Z -1.0000
G03 X 27.9944 Y 5.2810 Z -1.0000 I -0.1348 J -0.3338
G03 X 27.9513 Y 5.2693 Z -1.0000 I -0.0097 J -0.0498
G01 X 27.9408 Y 5.2340 Z -1.0000
G03 X 27.9653 Y 5.1855 Z -1.0000 I 0.1366 J 0.0384
G01 X 27.9835 Y 5.1789 Z -1.0000
G01 X 28.0011 Y 5.1744 Z -1.0000
G01 X 28.0094 Y 5.1564 Z -1.0000
G01 X 28.0162 Y 5.1510 Z -1.0000
G01 X 28.0304 Y 5.1609 Z -1.0000
G01 X 28.0312 Y 5.2079 Z -1.0000
G01 X 27.9956 Y 5.2204 Z -1.0000
G01 X 27.9719 Y 5.2196 Z -1.0000
G01 X 27.9642 Y 5.2301 Z -1.0000
G01 X 27.9725 Y 5.2434 Z -1.0000
G02 X 28.0091 Y 5.2518 Z -1.0000 I 0.0365 J -0.0754
G02 X 28.0454 Y 5.2432 Z -1.0000 I -0.0000 J -0.0812
G01 X 28.0540 Y 5.2294 Z -1.0000
G01 X 28.0619 Y 5.2149 Z -1.0000
G03 X 28.0890 Y 5.2069 Z -1.0000 I 0.0271 J 0.0422
G01 X 28.1086 Y 5.1983 Z -1.0000
G01 X 28.1099 Y 5.1841 Z -1.0000
G01 X 28.0933 Y 5.1716 Z -1.0000
G01 X 28.0751 Y 5.1740 Z -1.0000
G01 X 28.0669 Y 5.1718 Z -1.0000
G01 X 28.0660 Y 5.1568 Z -1.0000
G01 X 28.0836 Y 5.1346 Z -1.0000
G03 X 28.1163 Y 5.1228 Z -1.0000 I 0.0398 J 0.0591
G02 X 28.2862 Y 5.0908 Z -1.0000 I -0.1017 J -1.0067
G01 X 28.3010 Y 5.0713 Z -1.0000
G01 X 28.3118 Y 5.0548 Z -1.0000
G03 X 28.3951 Y 5.0299 Z -1.0000 I 0.1416 J 0.3219
G01 X 28.4082 Y 5.0326 Z -1.0000
G01 X 28.4235 Y 5.0482 Z -1.0000
G01 X 28.4235 Y 5.0482 Z -1.0000
G00 Z 5.0000

(End cutting path id: path78048)


(Start cutting path id: path78048)
(Change tool to Default tool)

G00 Z 5.0000
G00 X 28.5391 Y 5.0404

G01 Z -1.0000 F 100.0000(Penetrate)
G02 X 28.5277 Y 5.0763 Z -1.0000 I 0.2998 J 0.1151 F 3500.0000
G02 X 28.5255 Y 5.0939 Z -1.0000 I 0.0691 J 0.0176
G01 X 28.5187 Y 5.1066 Z -1.0000
G03 X 28.4806 Y 5.1236 Z -1.0000 I -0.0703 J -0.1062
G01 X 28.4474 Y 5.1202 Z -1.0000
G01 X 28.4357 Y 5.1014 Z -1.0000
G01 X 28.4461 Y 5.0826 Z -1.0000
G01 X 28.4694 Y 5.0803 Z -1.0000
G01 X 28.4952 Y 5.0817 Z -1.0000
G01 X 28.5031 Y 5.0715 Z -1.0000
G01 X 28.4953 Y 5.0575 Z -1.0000
G02 X 28.4680 Y 5.0498 Z -1.0000 I -0.0272 J 0.0438
G01 X 28.4483 Y 5.0412 Z -1.0000
G01 X 28.4469 Y 5.0273 Z -1.0000
G01 X 28.4650 Y 5.0124 Z -1.0000
G03 X 28.5068 Y 5.0049 Z -1.0000 I 0.0418 J 0.1114
G01 X 28.5348 Y 5.0172 Z -1.0000
G01 X 28.5391 Y 5.0404 Z -1.0000
G01 X 28.5391 Y 5.0404 Z -1.0000
G00 Z 5.0000

(End cutting path id: path78048)


(Start cutting path id: path78048)
(Change tool to Default tool)

G00 Z 5.0000
G00 X 28.6459 Y 5.0834

G01 Z -1.0000 F 100.0000(Penetrate)
G03 X 28.6306 Y 5.1136 Z -1.0000 I -0.1525 J -0.0585 F 3500.0000
G01 X 28.6242 Y 5.1171 Z -1.0000
G01 X 28.6191 Y 5.1132 Z -1.0000
G03 X 28.6154 Y 5.0834 Z -1.0000 I 0.1152 J -0.0298
G01 X 28.6230 Y 5.0574 Z -1.0000
G01 X 28.6371 Y 5.0497 Z -1.0000
G01 X 28.6473 Y 5.0576 Z -1.0000
G01 X 28.6459 Y 5.0834 Z -1.0000
G01 X 28.6459 Y 5.0834 Z -1.0000
G00 Z 5.0000

(End cutting path id: path78048)


(Start cutting path id: path78048)
(Change tool to Default tool)

G00 Z 5.0000
G00 X 28.4806 Y 5.3634

G01 Z -1.0000 F 100.0000(Penetrate)
G01 X 28.4727 Y 5.3736 Z -1.0000 F 3500.0000
G01 X 28.4469 Y 5.3722 Z -1.0000
G03 X 28.4167 Y 5.3569 Z -1.0000 I 0.0583 J -0.1522
G01 X 28.4132 Y 5.3505 Z -1.0000
G01 X 28.4171 Y 5.3454 Z -1.0000
G03 X 28.4469 Y 5.3417 Z -1.0000 I 0.0298 J 0.1152
G01 X 28.4729 Y 5.3493 Z -1.0000
G01 X 28.4806 Y 5.3634 Z -1.0000
G01 X 28.4806 Y 5.3634 Z -1.0000
G00 Z 5.0000

(End cutting path id: path78048)


(Start cutting path id: path78048)
(Change tool to Default tool)

G00 Z 5.0000
G00 X 26.5747 Y 6.0136

G01 Z -1.0000 F 100.0000(Penetrate)
G01 X 26.5577 Y 6.0342 Z -1.0000 F 3500.0000
G02 X 26.5414 Y 6.1005 Z -1.0000 I 0.2557 J 0.0980
G03 X 26.5255 Y 6.1687 Z -1.0000 I -0.3093 J -0.0362
G03 X 26.5031 Y 6.2081 Z -1.0000 I -0.1224 J -0.0436
G02 X 26.4789 Y 6.2468 Z -1.0000 I 0.1295 J 0.1075
G02 X 26.4659 Y 6.2912 Z -1.0000 I 0.1575 J 0.0704
G03 X 26.4550 Y 6.3362 Z -1.0000 I -0.2621 J -0.0396
G01 X 26.4459 Y 6.3507 Z -1.0000
G01 X 26.4410 Y 6.3485 Z -1.0000
G03 X 26.4487 Y 6.2847 Z -1.0000 I 0.4195 J 0.0181
G02 X 26.4611 Y 6.2058 Z -1.0000 I -0.9751 J -0.1940
G02 X 26.4642 Y 6.1522 Z -1.0000 I -0.4536 J -0.0529
G01 X 26.4730 Y 6.1288 Z -1.0000
G01 X 26.4840 Y 6.1297 Z -1.0000
G01 X 26.4994 Y 6.1303 Z -1.0000
G01 X 26.5070 Y 6.0986 Z -1.0000
G01 X 26.5084 Y 6.0815 Z -1.0000
G03 X 26.5276 Y 6.0368 Z -1.0000 I 0.2685 J 0.0891
G02 X 26.5353 Y 6.0023 Z -1.0000 I -0.0578 J -0.0309
G01 X 26.5252 Y 5.9928 Z -1.0000
G01 X 26.5174 Y 5.9843 Z -1.0000
G01 X 26.5283 Y 5.9577 Z -1.0000
G01 X 26.5553 Y 5.9459 Z -1.0000
G01 X 26.5786 Y 5.9604 Z -1.0000
G03 X 26.5862 Y 5.9947 Z -1.0000 I -0.0533 J 0.0298
G01 X 26.5747 Y 6.0136 Z -1.0000
G01 X 26.5747 Y 6.0136 Z -1.0000
G00 Z 5.0000

(End cutting path id: path78048)


(Start cutting path id: path78048)
(Change tool to Default tool)

G00 Z 5.0000
G00 X 26.4148 Y 6.0140

G01 Z -1.0000 F 100.0000(Penetrate)
G01 X 26.4095 Y 6.0321 Z -1.0000 F 3500.0000
G03 X 26.3924 Y 6.0490 Z -1.0000 I -0.0457 J -0.0293
G01 X 26.3784 Y 6.0476 Z -1.0000
G01 X 26.3699 Y 6.0279 Z -1.0000
G03 X 26.3779 Y 6.0008 Z -1.0000 I 0.0502 J 0.0000
G01 X 26.3924 Y 5.9929 Z -1.0000
G01 X 26.4084 Y 5.9992 Z -1.0000
G01 X 26.4148 Y 6.0140 Z -1.0000
G01 X 26.4148 Y 6.0140 Z -1.0000
G00 Z 5.0000

(End cutting path id: path78048)


(Start cutting path id: path78048)
(Change tool to Default tool)

G00 Z 5.0000
G00 X 26.1387 Y 6.3465

G01 Z -1.0000 F 100.0000(Penetrate)
G01 X 26.1510 Y 6.3635 Z -1.0000 F 3500.0000
G01 X 26.1759 Y 6.3514 Z -1.0000
G02 X 26.1939 Y 6.2969 Z -1.0000 I -0.1165 J -0.0688
G01 X 26.1830 Y 6.2847 Z -1.0000
G01 X 26.1603 Y 6.2964 Z -1.0000
G02 X 26.1388 Y 6.3464 Z -1.0000 I 0.1036 J 0.0741
G01 X 26.1387 Y 6.3465 Z -1.0000
G00 Z 5.0000

(End cutting path id: path78048)


(Start cutting path id: path78048)
(Change tool to Default tool)

G00 Z 5.0000
G00 X 26.2015 Y 6.3970

G01 Z -1.0000 F 100.0000(Penetrate)
G01 X 26.2004 Y 6.4123 Z -1.0000 F 3500.0000
G01 X 26.2114 Y 6.4195 Z -1.0000
G01 X 26.2284 Y 6.4127 Z -1.0000
G01 X 26.2352 Y 6.3970 Z -1.0000
G01 X 26.2312 Y 6.3784 Z -1.0000
G01 X 26.2253 Y 6.3745 Z -1.0000
G01 X 26.2172 Y 6.3777 Z -1.0000
G02 X 26.2015 Y 6.3970 Z -1.0000 I 0.0652 J 0.0693
G01 X 26.2015 Y 6.3970 Z -1.0000
G00 Z 5.0000

(End cutting path id: path78048)


(Start cutting path id: path78048)
(Change tool to Default tool)

G00 Z 5.0000
G00 X 25.8475 Y 6.1979

G01 Z -1.0000 F 100.0000(Penetrate)
G02 X 25.8752 Y 6.2159 Z -1.0000 I 0.0556 J -0.0551 F 3500.0000
G01 X 25.8877 Y 6.2132 Z -1.0000
G01 X 25.8877 Y 6.2034 Z -1.0000
G02 X 25.8600 Y 6.1853 Z -1.0000 I -0.0554 J 0.0548
G01 X 25.8475 Y 6.1880 Z -1.0000
G01 X 25.8475 Y 6.1979 Z -1.0000
G01 X 25.8475 Y 6.1979 Z -1.0000
G00 Z 5.0000

(End cutting path id: path78048)


(Start cutting path id: path78048)
(Change tool to Default tool)

G00 Z 5.0000
G00 X 25.7861 Y 6.2147

G01 Z -1.0000 F 100.0000(Penetrate)
G01 X 25.7916 Y 6.2341 Z -1.0000 F 3500.0000
G02 X 25.8086 Y 6.2510 Z -1.0000 I 0.0444 J -0.0274
G01 X 25.8241 Y 6.2525 Z -1.0000
G01 X 25.8310 Y 6.2424 Z -1.0000
G01 X 25.8255 Y 6.2231 Z -1.0000
G02 X 25.8086 Y 6.2061 Z -1.0000 I -0.0443 J 0.0274
G01 X 25.7930 Y 6.2046 Z -1.0000
G01 X 25.7861 Y 6.2147 Z -1.0000
G01 X 25.7861 Y 6.2147 Z -1.0000
G00 Z 5.0000

(End cutting path id: path78048)


(Start cutting path id: path78048)
(Change tool to Default tool)

G00 Z 5.0000
G00 X 25.4251 Y 6.2350

G01 Z -1.0000 F 100.0000(Penetrate)
G02 X 25.3949 Y 6.2752 Z -1.0000 I 0.2974 J 0.2546 F 3500.0000
G01 X 25.3882 Y 6.2915 Z -1.0000
G03 X 25.3815 Y 6.3080 Z -1.0000 I -0.0513 J -0.0110
G03 X 25.3397 Y 6.3701 Z -1.0000 I -0.7929 J -0.4889
G03 X 25.2932 Y 6.4076 Z -1.0000 I -0.0944 J -0.0692
G01 X 25.2666 Y 6.4028 Z -1.0000
G02 X 25.2062 Y 6.3803 Z -1.0000 I -0.0554 J 0.0561
G01 X 25.1798 Y 6.4084 Z -1.0000
G01 X 25.1910 Y 6.4309 Z -1.0000
G02 X 25.2247 Y 6.4421 Z -1.0000 I 0.0337 J -0.0449
G03 X 25.2581 Y 6.4537 Z -1.0000 I 0.0000 J 0.0541
G01 X 25.2696 Y 6.4773 Z -1.0000
G01 X 25.2571 Y 6.4960 Z -1.0000
G03 X 25.2191 Y 6.4983 Z -1.0000 I -0.0223 J -0.0537
G01 X 25.2012 Y 6.4994 Z -1.0000
G01 X 25.2005 Y 6.5061 Z -1.0000
G01 X 25.2127 Y 6.5320 Z -1.0000
G03 X 25.1936 Y 6.5874 Z -1.0000 I -0.1192 J -0.0101
G03 X 25.1502 Y 6.6410 Z -1.0000 I -0.2867 J -0.1878
G03 X 25.1225 Y 6.6590 Z -1.0000 I -0.0558 J -0.0554
G01 X 25.1027 Y 6.6756 Z -1.0000
G01 X 25.1027 Y 6.6915 Z -1.0000
G01 X 25.1044 Y 6.7056 Z -1.0000
G01 X 25.0961 Y 6.7116 Z -1.0000
G01 X 25.0853 Y 6.7197 Z -1.0000
G02 X 25.0779 Y 6.7733 Z -1.0000 I 0.1737 J 0.0511
G01 X 25.0566 Y 6.8146 Z -1.0000
G03 X 24.9778 Y 6.8421 Z -1.0000 I -0.0898 J -0.1308
G02 X 24.8796 Y 6.8701 Z -1.0000 I 0.0170 J 0.2461
G01 X 24.8848 Y 6.8912 Z -1.0000
G03 X 24.9185 Y 6.9007 Z -1.0000 I -0.0000 J 0.0648
G01 X 24.9216 Y 6.9137 Z -1.0000
G01 X 24.9040 Y 6.9294 Z -1.0000
G03 X 24.8738 Y 6.9361 Z -1.0000 I -0.0302 J -0.0645
G02 X 24.8429 Y 6.9434 Z -1.0000 I -0.0000 J 0.0694
G02 X 24.8061 Y 6.9698 Z -1.0000 I 0.0626 J 0.1256
G03 X 24.7688 Y 6.9904 Z -1.0000 I -0.0543 J -0.0543
G03 X 24.7179 Y 6.9898 Z -1.0000 I -0.0242 J -0.1067
G01 X 24.6895 Y 7.0063 Z -1.0000
G02 X 24.6956 Y 7.0680 Z -1.0000 I 0.0809 J 0.0231
G02 X 24.7735 Y 7.1613 Z -1.0000 I 0.2493 J -0.1289
G01 X 24.8051 Y 7.1524 Z -1.0000
G02 X 24.8047 Y 7.0681 Z -1.0000 I -0.1084 J -0.0416
G01 X 24.7619 Y 7.0433 Z -1.0000
G01 X 24.7535 Y 7.0372 Z -1.0000
G01 X 24.7590 Y 7.0253 Z -1.0000
G03 X 24.7985 Y 7.0099 Z -1.0000 I 0.0622 J 0.1012
G01 X 24.8188 Y 7.0136 Z -1.0000
G01 X 24.8369 Y 7.0173 Z -1.0000
G01 X 24.8487 Y 7.0092 Z -1.0000
G01 X 24.8513 Y 7.0203 Z -1.0000
G01 X 24.8636 Y 7.0325 Z -1.0000
G02 X 24.9335 Y 6.9995 Z -1.0000 I -0.0493 J -0.1943
G03 X 24.9898 Y 6.9955 Z -1.0000 I 0.0313 J 0.0423
G01 X 25.0040 Y 7.0378 Z -1.0000
G02 X 24.9981 Y 7.0860 Z -1.0000 I 0.0730 J 0.0333
G01 X 25.0172 Y 7.1077 Z -1.0000
G03 X 25.1797 Y 7.1822 Z -1.0000 I -0.2486 J 0.7562
G01 X 25.1898 Y 7.2118 Z -1.0000
G01 X 25.1919 Y 7.2351 Z -1.0000
G02 X 25.2227 Y 7.2665 Z -1.0000 I 0.0809 J -0.0487
G02 X 25.4885 Y 7.3785 Z -1.0000 I 0.4819 J -0.7717
G02 X 25.5784 Y 7.3534 Z -1.0000 I 0.0226 J -0.0924
G01 X 25.5769 Y 7.3468 Z -1.0000
G02 X 25.5075 Y 7.3280 Z -1.0000 I -0.1527 J 0.4249
G03 X 25.4306 Y 7.3065 Z -1.0000 I 0.0854 J -0.4536
G01 X 25.4140 Y 7.2928 Z -1.0000
G01 X 25.4249 Y 7.2755 Z -1.0000
G03 X 25.5475 Y 7.3069 Z -1.0000 I -0.0457 J 0.4340
G02 X 25.6281 Y 7.3364 Z -1.0000 I 0.3651 J -0.8736
G01 X 25.6366 Y 7.3349 Z -1.0000
G01 X 25.6444 Y 7.3341 Z -1.0000
G03 X 25.6760 Y 7.3534 Z -1.0000 I -0.0717 J 0.1535
G02 X 25.7105 Y 7.3695 Z -1.0000 I 0.0535 J -0.0694
G02 X 25.8087 Y 7.3828 Z -1.0000 I 0.1281 J -0.5775
G02 X 25.9020 Y 7.3684 Z -1.0000 I 0.0119 J -0.2331
G02 X 25.9736 Y 7.3213 Z -1.0000 I -0.0670 J -0.1798
G02 X 26.0323 Y 7.2531 Z -1.0000 I -0.6068 J -0.5813
G01 X 26.0353 Y 7.2414 Z -1.0000
G03 X 26.0439 Y 7.1989 Z -1.0000 I 0.0603 J -0.0099
G01 X 26.0668 Y 7.1912 Z -1.0000
G01 X 26.0930 Y 7.1934 Z -1.0000
G01 X 26.1004 Y 7.1842 Z -1.0000
G01 X 26.0943 Y 7.1686 Z -1.0000
G02 X 26.0724 Y 7.1539 Z -1.0000 I -0.0417 J 0.0387
G01 X 26.0700 Y 7.1432 Z -1.0000
G03 X 26.1074 Y 7.1184 Z -1.0000 I 0.0778 J 0.0767
G02 X 26.1524 Y 7.0873 Z -1.0000 I -0.0449 J -0.1130
G01 X 26.1542 Y 7.0670 Z -1.0000
G01 X 26.1574 Y 7.0568 Z -1.0000
G01 X 26.1785 Y 7.0563 Z -1.0000
G01 X 26.1913 Y 7.0519 Z -1.0000
G01 X 26.1903 Y 7.0371 Z -1.0000
G01 X 26.1898 Y 7.0226 Z -1.0000
G01 X 26.2039 Y 7.0184 Z -1.0000
G01 X 26.2173 Y 7.0134 Z -1.0000
G01 X 26.2158 Y 6.9967 Z -1.0000
G01 X 26.2063 Y 6.9647 Z -1.0000
G01 X 26.2213 Y 6.9452 Z -1.0000
G02 X 26.2445 Y 6.9270 Z -1.0000 I -0.0179 J -0.0468
G01 X 26.2450 Y 6.9113 Z -1.0000
G01 X 26.2483 Y 6.9003 Z -1.0000
G03 X 26.2844 Y 6.8929 Z -1.0000 I 0.0334 J 0.0719
G03 X 26.3085 Y 6.8996 Z -1.0000 I -0.0018 J 0.0538
G01 X 26.3082 Y 6.9060 Z -1.0000
G01 X 26.2816 Y 6.9384 Z -1.0000
G01 X 26.2983 Y 6.9585 Z -1.0000
G01 X 26.3149 Y 6.9541 Z -1.0000
G02 X 26.3600 Y 6.9232 Z -1.0000 I -0.1687 J -0.2946
G01 X 26.3781 Y 6.9005 Z -1.0000
G01 X 26.3551 Y 6.9011 Z -1.0000
G03 X 26.3219 Y 6.8760 Z -1.0000 I 0.0356 J -0.0817
G03 X 26.3089 Y 6.8440 Z -1.0000 I 0.0446 J -0.0368
G01 X 26.3181 Y 6.8299 Z -1.0000
G01 X 26.3330 Y 6.8153 Z -1.0000
G01 X 26.3326 Y 6.7887 Z -1.0000
G01 X 26.3380 Y 6.7686 Z -1.0000
G03 X 26.3731 Y 6.7561 Z -1.0000 I 0.0355 J 0.0443
G01 X 26.3946 Y 6.7468 Z -1.0000
G01 X 26.3932 Y 6.7350 Z -1.0000
G01 X 26.3794 Y 6.7087 Z -1.0000
G03 X 26.3975 Y 6.6362 Z -1.0000 I 0.1874 J 0.0082
G02 X 26.4130 Y 6.5663 Z -1.0000 I -0.1435 J -0.0684
G01 X 26.3967 Y 6.5418 Z -1.0000
G02 X 26.3577 Y 6.5313 Z -1.0000 I -0.0561 J 0.1303
G02 X 26.2999 Y 6.5300 Z -1.0000 I -0.0351 J 0.2889
G03 X 26.2446 Y 6.5247 Z -1.0000 I -0.0124 J -0.1609
G03 X 26.2101 Y 6.5052 Z -1.0000 I 0.0216 J -0.0787
G02 X 26.1755 Y 6.4834 Z -1.0000 I -0.0717 J 0.0756
G02 X 26.1148 Y 6.4689 Z -1.0000 I -0.0864 J 0.2268
G03 X 25.8446 Y 6.4038 Z -1.0000 I 0.1144 J -1.0683
G03 X 25.8085 Y 6.3513 Z -1.0000 I 0.0201 J -0.0525
G01 X 25.8008 Y 6.3424 Z -1.0000
G02 X 25.7709 Y 6.3456 Z -1.0000 I -0.0088 J 0.0580
G01 X 25.7512 Y 6.3422 Z -1.0000
G01 X 25.7468 Y 6.3250 Z -1.0000
G01 X 25.7417 Y 6.3065 Z -1.0000
G01 X 25.7169 Y 6.3013 Z -1.0000
G03 X 25.6368 Y 6.2909 Z -1.0000 I -0.0272 J -0.1041
G03 X 25.6064 Y 6.2389 Z -1.0000 I 0.0294 J -0.0520
G01 X 25.6130 Y 6.2258 Z -1.0000
G03 X 25.6457 Y 6.2095 Z -1.0000 I 0.0610 J 0.0813
G01 X 25.6099 Y 6.2062 Z -1.0000
G02 X 25.5361 Y 6.2271 Z -1.0000 I 0.0244 J 0.2267
G01 X 25.5391 Y 6.2400 Z -1.0000
G01 X 25.5541 Y 6.2461 Z -1.0000
G01 X 25.5542 Y 6.2548 Z -1.0000
G01 X 25.5390 Y 6.2579 Z -1.0000
G03 X 25.4988 Y 6.2329 Z -1.0000 I 0.0491 J -0.1238
G02 X 25.4596 Y 6.2184 Z -1.0000 I -0.0376 J 0.0416
G01 X 25.4251 Y 6.2349 Z -1.0000
G01 X 25.4251 Y 6.2350 Z -1.0000
G00 Z 5.0000

(End cutting path id: path78048)


(Start cutting path id: path78048)
(Change tool to Default tool)

G00 Z 5.0000
G00 X 25.0633 Y 6.5022

G01 Z -1.0000 F 100.0000(Penetrate)
G02 X 25.0914 Y 6.5070 Z -1.0000 I 0.0252 J -0.0629 F 3500.0000
G01 X 25.1064 Y 6.5004 Z -1.0000
G01 X 25.1049 Y 6.4934 Z -1.0000
G02 X 25.0769 Y 6.4886 Z -1.0000 I -0.0252 J 0.0633
G01 X 25.0619 Y 6.4952 Z -1.0000
G01 X 25.0633 Y 6.5022 Z -1.0000
G01 X 25.0633 Y 6.5022 Z -1.0000
G00 Z 5.0000

(End cutting path id: path78048)


(Start cutting path id: path78048)
(Change tool to Default tool)

G00 Z 5.0000
G00 X 24.9777 Y 6.5093

G01 Z -1.0000 F 100.0000(Penetrate)
G01 X 24.9845 Y 6.5250 Z -1.0000 F 3500.0000
G01 X 25.0015 Y 6.5317 Z -1.0000
G01 X 25.0125 Y 6.5246 Z -1.0000
G01 X 25.0114 Y 6.5093 Z -1.0000
G02 X 24.9958 Y 6.4900 Z -1.0000 I -0.0803 J 0.0494
G01 X 24.9876 Y 6.4868 Z -1.0000
G01 X 24.9817 Y 6.4907 Z -1.0000
G01 X 24.9777 Y 6.5093 Z -1.0000
G01 X 24.9777 Y 6.5093 Z -1.0000
G00 Z 5.0000

(End cutting path id: path78048)


(Start cutting path id: path78048)
(Change tool to Default tool)

G00 Z 5.0000
G00 X 24.9328 Y 6.6553

G01 Z -1.0000 F 100.0000(Penetrate)
G01 X 24.9410 Y 6.6808 Z -1.0000 F 3500.0000
G01 X 24.9569 Y 6.6890 Z -1.0000
G01 X 24.9785 Y 6.6832 Z -1.0000
G02 X 25.0146 Y 6.6553 Z -1.0000 I -0.0897 J -0.1537
G01 X 25.0163 Y 6.6349 Z -1.0000
G01 X 24.9906 Y 6.6216 Z -1.0000
G02 X 24.9451 Y 6.6339 Z -1.0000 I -0.0000 J 0.0902
G01 X 24.9328 Y 6.6553 Z -1.0000
G01 X 24.9328 Y 6.6553 Z -1.0000
G00 Z 5.0000

(End cutting path id: path78048)


(Start cutting path id: path78048)
(Change tool to Default tool)

G00 Z 5.0000
G00 X 24.9104 Y 6.7802

G01 Z -1.0000 F 100.0000(Penetrate)
G01 X 24.9175 Y 6.7911 Z -1.0000 F 3500.0000
G01 X 24.9328 Y 6.7901 Z -1.0000
G02 X 24.9521 Y 6.7744 Z -1.0000 I -0.0494 J -0.0803
G01 X 24.9553 Y 6.7663 Z -1.0000
G01 X 24.9514 Y 6.7603 Z -1.0000
G01 X 24.9328 Y 6.7564 Z -1.0000
G01 X 24.9171 Y 6.7632 Z -1.0000
G01 X 24.9104 Y 6.7802 Z -1.0000
G01 X 24.9104 Y 6.7802 Z -1.0000
G00 Z 5.0000

(End cutting path id: path78048)


(Start cutting path id: path78048)
(Change tool to Default tool)

G00 Z 5.0000
G00 X 24.6858 Y 6.8700

G01 Z -1.0000 F 100.0000(Penetrate)
G01 X 24.6930 Y 6.8810 Z -1.0000 F 3500.0000
G01 X 24.7083 Y 6.8799 Z -1.0000
G02 X 24.7275 Y 6.8642 Z -1.0000 I -0.0495 J -0.0805
G01 X 24.7307 Y 6.8561 Z -1.0000
G01 X 24.7269 Y 6.8501 Z -1.0000
G01 X 24.7083 Y 6.8462 Z -1.0000
G01 X 24.6926 Y 6.8530 Z -1.0000
G01 X 24.6858 Y 6.8700 Z -1.0000
G01 X 24.6858 Y 6.8700 Z -1.0000
G00 Z 5.0000

(End cutting path id: path78048)


(Start cutting path id: path78048)
(Change tool to Default tool)

G00 Z 5.0000
G00 X 24.6634 Y 6.9374

G01 Z -1.0000 F 100.0000(Penetrate)
G01 X 24.6705 Y 6.9483 Z -1.0000 F 3500.0000
G01 X 24.6858 Y 6.9473 Z -1.0000
G02 X 24.7051 Y 6.9316 Z -1.0000 I -0.0494 J -0.0803
G01 X 24.7083 Y 6.9235 Z -1.0000
G01 X 24.7044 Y 6.9175 Z -1.0000
G01 X 24.6858 Y 6.9136 Z -1.0000
G01 X 24.6701 Y 6.9203 Z -1.0000
G01 X 24.6634 Y 6.9374 Z -1.0000
G01 X 24.6634 Y 6.9374 Z -1.0000
G00 Z 5.0000

(End cutting path id: path78048)


(Start cutting path id: path78048)
(Change tool to Default tool)

G00 Z 5.0000
G00 X 24.8260 Y 7.2783

G01 Z -1.0000 F 100.0000(Penetrate)
G02 X 24.7134 Y 7.4661 Z -1.0000 I 0.6345 J 0.5082 F 3500.0000
G01 X 24.7345 Y 7.4918 Z -1.0000
G01 X 24.7544 Y 7.4974 Z -1.0000
G03 X 24.7704 Y 7.5253 Z -1.0000 I -0.0369 J 0.0395
G03 X 24.7679 Y 7.5558 Z -1.0000 I -0.0512 J 0.0111
G01 X 24.7548 Y 7.5646 Z -1.0000
G01 X 24.7378 Y 7.5576 Z -1.0000
G01 X 24.7307 Y 7.5408 Z -1.0000
G01 X 24.7236 Y 7.5299 Z -1.0000
G01 X 24.7083 Y 7.5309 Z -1.0000
G01 X 24.6986 Y 7.5705 Z -1.0000
G02 X 24.7476 Y 7.5967 Z -1.0000 I 0.0463 J -0.0276
G03 X 24.8085 Y 7.6003 Z -1.0000 I 0.0141 J 0.2814
G03 X 24.9176 Y 7.6254 Z -1.0000 I -0.1577 J 0.9347
G02 X 25.0256 Y 7.6499 Z -1.0000 I 0.2518 J -0.8586
G02 X 25.0523 Y 7.6473 Z -1.0000 I 0.0085 J -0.0520
G01 X 25.0531 Y 7.6392 Z -1.0000
G02 X 25.0114 Y 7.6220 Z -1.0000 I -0.0727 J 0.1171
G03 X 24.9450 Y 7.6035 Z -1.0000 I 0.1786 J -0.7696
G03 X 24.8879 Y 7.5816 Z -1.0000 I 0.1881 J -0.5765
G02 X 24.8314 Y 7.5611 Z -1.0000 I -0.1772 J 0.4008
G01 X 24.8149 Y 7.5607 Z -1.0000
G01 X 24.8041 Y 7.5570 Z -1.0000
G01 X 24.7981 Y 7.5398 Z -1.0000
G01 X 24.8072 Y 7.5282 Z -1.0000
G03 X 24.8374 Y 7.5304 Z -1.0000 I 0.0117 J 0.0491
G02 X 24.8775 Y 7.5427 Z -1.0000 I 0.1007 J -0.2559
G02 X 24.9440 Y 7.5544 Z -1.0000 I 0.1558 J -0.6899
G03 X 25.0265 Y 7.5690 Z -1.0000 I -0.1084 J 0.8548
G03 X 25.1798 Y 7.6079 Z -1.0000 I -0.6876 J 3.0281
G03 X 25.2787 Y 7.6405 Z -1.0000 I -0.3213 J 1.1419
G03 X 25.3033 Y 7.6547 Z -1.0000 I -0.0313 J 0.0826
G02 X 25.3272 Y 7.6695 Z -1.0000 I 0.0689 J -0.0843
G02 X 25.3482 Y 7.6751 Z -1.0000 I 0.0268 J -0.0591
G03 X 25.3703 Y 7.6790 Z -1.0000 I -0.0111 J 0.1246
G03 X 25.4456 Y 7.7018 Z -1.0000 I -0.4122 J 1.4998
G03 X 25.5013 Y 7.7371 Z -1.0000 I -0.0424 J 0.1283
G01 X 25.5095 Y 7.7691 Z -1.0000
G02 X 25.5077 Y 7.8078 Z -1.0000 I 0.0900 J 0.0235
G01 X 25.5187 Y 7.8241 Z -1.0000
G01 X 25.5305 Y 7.8213 Z -1.0000
G02 X 25.5391 Y 7.7904 Z -1.0000 I -0.0509 J -0.0308
G03 X 25.5471 Y 7.7522 Z -1.0000 I 0.0953 J 0.0000
G01 X 25.5593 Y 7.7442 Z -1.0000
G01 X 25.5756 Y 7.7370 Z -1.0000
G02 X 25.6263 Y 7.6712 Z -1.0000 I -0.3540 J -0.3249
G03 X 25.6656 Y 7.6243 Z -1.0000 I 0.2029 J 0.1299
G01 X 25.6734 Y 7.6277 Z -1.0000
G01 X 25.6822 Y 7.6418 Z -1.0000
G01 X 25.6997 Y 7.6410 Z -1.0000
G01 X 25.7085 Y 7.6422 Z -1.0000
G01 X 25.7094 Y 7.6513 Z -1.0000
G01 X 25.6906 Y 7.6666 Z -1.0000
G01 X 25.6722 Y 7.6647 Z -1.0000
G01 X 25.6580 Y 7.6636 Z -1.0000
G01 X 25.6513 Y 7.6737 Z -1.0000
G01 X 25.6562 Y 7.6928 Z -1.0000
G01 X 25.6682 Y 7.7050 Z -1.0000
G01 X 25.6587 Y 7.7082 Z -1.0000
G02 X 25.5714 Y 7.7408 Z -1.0000 I -0.0193 J 0.0817
G02 X 25.5778 Y 7.8203 Z -1.0000 I 0.0499 J 0.0360
G01 X 25.5927 Y 7.8240 Z -1.0000
G02 X 25.6431 Y 7.8005 Z -1.0000 I -0.0567 J -0.1872
G03 X 25.6925 Y 7.7844 Z -1.0000 I 0.0542 J 0.0827
G01 X 25.7224 Y 7.7966 Z -1.0000
G01 X 25.7455 Y 7.7962 Z -1.0000
G02 X 25.8136 Y 7.6923 Z -1.0000 I -0.3391 J -0.2966
G02 X 25.8723 Y 7.5591 Z -1.0000 I -2.4531 J -1.1602
G01 X 25.8709 Y 7.5523 Z -1.0000
G01 X 25.8637 Y 7.5486 Z -1.0000
G02 X 25.7861 Y 7.5339 Z -1.0000 I -0.2952 J 1.3527
G03 X 25.2701 Y 7.4168 Z -1.0000 I 0.6367 J -3.9993
G03 X 24.9362 Y 7.2816 Z -1.0000 I 0.5341 J -1.7987
G02 X 24.8613 Y 7.2620 Z -1.0000 I -0.0801 J 0.1535
G01 X 24.8260 Y 7.2783 Z -1.0000
G01 X 24.8260 Y 7.2783 Z -1.0000
G00 Z 5.0000

(End cutting path id: path78048)


(Start cutting path id: path78048)
(Change tool to Default tool)

G00 Z 5.0000
G00 X 25.0707 Y 7.2035

G01 Z -1.0000 F 100.0000(Penetrate)
G02 X 25.1233 Y 7.2385 Z -1.0000 I 0.2088 J -0.2575 F 3500.0000
G01 X 25.1333 Y 7.2370 Z -1.0000
G01 X 25.1309 Y 7.1957 Z -1.0000
G02 X 25.0370 Y 7.1613 Z -1.0000 I -0.0998 J 0.1270
G01 X 25.0342 Y 7.1668 Z -1.0000
G02 X 25.0707 Y 7.2035 Z -1.0000 I 0.1867 J -0.1487
G01 X 25.0707 Y 7.2035 Z -1.0000
G00 Z 5.0000

(End cutting path id: path78048)


(Start cutting path id: path78048)
(Change tool to Default tool)

G00 Z 5.0000
G00 X 25.3338 Y 7.1580

G01 Z -1.0000 F 100.0000(Penetrate)
G01 X 25.3465 Y 7.1772 Z -1.0000 F 3500.0000
G01 X 25.3394 Y 7.1926 Z -1.0000
G01 X 25.3146 Y 7.1995 Z -1.0000
G03 X 25.2886 Y 7.1920 Z -1.0000 I 0.0005 J -0.0501
G01 X 25.2800 Y 7.1933 Z -1.0000
G01 X 25.2793 Y 7.2028 Z -1.0000
G01 X 25.3005 Y 7.2174 Z -1.0000
G02 X 25.3422 Y 7.2149 Z -1.0000 I 0.0161 J -0.0832
G01 X 25.3587 Y 7.2191 Z -1.0000
G01 X 25.3588 Y 7.2320 Z -1.0000
G03 X 25.2828 Y 7.2715 Z -1.0000 I -0.0939 J -0.0877
G01 X 25.2354 Y 7.2493 Z -1.0000
G03 X 25.2310 Y 7.1733 Z -1.0000 I 0.0681 J -0.0421
G03 X 25.2873 Y 7.1383 Z -1.0000 I 0.0550 J 0.0257
G01 X 25.3024 Y 7.1416 Z -1.0000
G03 X 25.3338 Y 7.1580 Z -1.0000 I -0.0820 J 0.1948
G01 X 25.3338 Y 7.1580 Z -1.0000
G00 Z 5.0000

(End cutting path id: path78048)


(Start cutting path id: path78048)
(Change tool to Default tool)

G00 Z 5.0000
G00 X 25.4268 Y 7.0507

G01 Z -1.0000 F 100.0000(Penetrate)
G01 X 25.4202 Y 7.0589 Z -1.0000 F 3500.0000
G03 X 25.3707 Y 7.0626 Z -1.0000 I -0.0387 J -0.1831
G03 X 25.3216 Y 7.0528 Z -1.0000 I 0.0104 J -0.1786
G01 X 25.3146 Y 7.0428 Z -1.0000
G01 X 25.3217 Y 7.0340 Z -1.0000
G03 X 25.3707 Y 7.0309 Z -1.0000 I 0.0351 J 0.1645
G03 X 25.4203 Y 7.0415 Z -1.0000 I -0.0168 J 0.1993
G01 X 25.4268 Y 7.0507 Z -1.0000
G01 X 25.4268 Y 7.0507 Z -1.0000
G00 Z 5.0000

(End cutting path id: path78048)


(Start cutting path id: path78048)
(Change tool to Default tool)

G00 Z 5.0000
G00 X 25.2187 Y 7.5333

G01 Z -1.0000 F 100.0000(Penetrate)
G01 X 25.2036 Y 7.5399 Z -1.0000 F 3500.0000
G03 X 25.1756 Y 7.5351 Z -1.0000 I -0.0028 J -0.0676
G01 X 25.1742 Y 7.5281 Z -1.0000
G01 X 25.1892 Y 7.5215 Z -1.0000
G03 X 25.2172 Y 7.5263 Z -1.0000 I 0.0028 J 0.0680
G01 X 25.2187 Y 7.5333 Z -1.0000
G01 X 25.2187 Y 7.5333 Z -1.0000
G00 Z 5.0000

(End cutting path id: path78048)


(Start cutting path id: path78048)
(Change tool to Default tool)

G00 Z 5.0000
G00 X 25.0905 Y 7.6615

G01 Z -1.0000 F 100.0000(Penetrate)
G01 X 25.1044 Y 7.6705 Z -1.0000 F 3500.0000
G02 X 25.1579 Y 7.6846 Z -1.0000 I 0.1234 J -0.3582
G03 X 25.2126 Y 7.6984 Z -1.0000 I -0.0818 J 0.4394
G03 X 25.3442 Y 7.7443 Z -1.0000 I -0.8506 J 2.6515
G02 X 25.4728 Y 7.7844 Z -1.0000 I 0.4074 J -1.0802
G01 X 25.4882 Y 7.7802 Z -1.0000
G01 X 25.4872 Y 7.7609 Z -1.0000
G02 X 25.4367 Y 7.7385 Z -1.0000 I -0.0669 J 0.0829
G03 X 25.3945 Y 7.7282 Z -1.0000 I 0.0381 J -0.2468
G03 X 25.3651 Y 7.7142 Z -1.0000 I 0.0455 J -0.1339
G01 X 25.3433 Y 7.7083 Z -1.0000
G01 X 25.3367 Y 7.7149 Z -1.0000
G01 X 25.3320 Y 7.7178 Z -1.0000
G01 X 25.3198 Y 7.7072 Z -1.0000
G01 X 25.2977 Y 7.6900 Z -1.0000
G02 X 25.1911 Y 7.6650 Z -1.0000 I -0.1981 J 0.6049
G02 X 25.0929 Y 7.6562 Z -1.0000 I -0.1297 J 0.8898
G01 X 25.0905 Y 7.6614 Z -1.0000
G01 X 25.0905 Y 7.6615 Z -1.0000
G00 Z 5.0000

(End cutting path id: path78048)


(Start cutting path id: path78048)
(Change tool to Default tool)

G00 Z 5.0000
G00 X 25.1000 Y 7.8320

G01 Z -1.0000 F 100.0000(Penetrate)
G01 X 25.0966 Y 7.8406 Z -1.0000 F 3500.0000
G03 X 25.0676 Y 7.8406 Z -1.0000 I -0.0146 J -0.0549
G01 X 25.0474 Y 7.8233 Z -1.0000
G01 X 25.0550 Y 7.8117 Z -1.0000
G03 X 25.0839 Y 7.8179 Z -1.0000 I -0.0000 J 0.0699
G01 X 25.1000 Y 7.8320 Z -1.0000
G01 X 25.1000 Y 7.8320 Z -1.0000
G00 Z 5.0000

(End cutting path id: path78048)


(Start cutting path id: path78048)
(Change tool to Default tool)

G00 Z 5.0000
G00 X 25.3044 Y 7.8101

G01 Z -1.0000 F 100.0000(Penetrate)
G02 X 25.3286 Y 7.8257 Z -1.0000 I 0.0505 J -0.0516 F 3500.0000
G02 X 25.3931 Y 7.8449 Z -1.0000 I 0.1450 J -0.3698
G01 X 25.3986 Y 7.8384 Z -1.0000
G01 X 25.3849 Y 7.8240 Z -1.0000
G02 X 25.3093 Y 7.8005 Z -1.0000 I -0.1276 J 0.2772
G01 X 25.3044 Y 7.8101 Z -1.0000
G01 X 25.3044 Y 7.8101 Z -1.0000
G00 Z 5.0000

(End cutting path id: path78048)


(Start cutting path id: path78048)
(Change tool to Default tool)

G00 Z 5.0000
G00 X 25.4882 Y 7.8818

G01 Z -1.0000 F 100.0000(Penetrate)
G02 X 25.5159 Y 7.8998 Z -1.0000 I 0.0555 J -0.0551 F 3500.0000
G01 X 25.5285 Y 7.8972 Z -1.0000
G01 X 25.5285 Y 7.8873 Z -1.0000
G02 X 25.5008 Y 7.8693 Z -1.0000 I -0.0554 J 0.0548
G01 X 25.4882 Y 7.8719 Z -1.0000
G01 X 25.4882 Y 7.8818 Z -1.0000
G01 X 25.4882 Y 7.8818 Z -1.0000
G00 Z 5.0000

(End cutting path id: path78048)


(Start cutting path id: path78048)
(Change tool to Default tool)

G00 Z 5.0000
G00 X 25.5990 Y 7.8491

G01 Z -1.0000 F 100.0000(Penetrate)
G01 X 25.5865 Y 7.8840 Z -1.0000 F 3500.0000
G01 X 25.6032 Y 7.8923 Z -1.0000
G01 X 25.6116 Y 7.8961 Z -1.0000
G03 X 25.6112 Y 7.9392 Z -1.0000 I -0.1198 J 0.0204
G02 X 25.6138 Y 7.9778 Z -1.0000 I 0.0750 J 0.0143
G01 X 25.6256 Y 7.9821 Z -1.0000
G01 X 25.6420 Y 7.9610 Z -1.0000
G02 X 25.6514 Y 7.9001 Z -1.0000 I -0.1942 J -0.0609
G02 X 25.6297 Y 7.8489 Z -1.0000 I -0.0716 J 0.0000
G01 X 25.5990 Y 7.8491 Z -1.0000
G01 X 25.5990 Y 7.8491 Z -1.0000
G00 Z 5.0000

(End cutting path id: path78048)


(Start cutting path id: path78048)
(Change tool to Default tool)

G00 Z 5.0000
G00 X 25.8310 Y 7.8860

G01 Z -1.0000 F 100.0000(Penetrate)
G01 X 25.8335 Y 7.8920 Z -1.0000 F 3500.0000
G02 X 25.9040 Y 7.9590 Z -1.0000 I 1.3754 J -1.3768
G01 X 25.9770 Y 8.0250 Z -1.0000
G01 X 25.9110 Y 7.9520 Z -1.0000
G02 X 25.8384 Y 7.8826 Z -1.0000 I -0.5094 J 0.4603
G01 X 25.8310 Y 7.8860 Z -1.0000
G01 X 25.8310 Y 7.8860 Z -1.0000
G00 Z 5.0000

(End cutting path id: path78048)


(Start cutting path id: path78048)
(Change tool to Default tool)

G00 Z 5.0000
G00 X 25.7965 Y 8.1021

G01 Z -1.0000 F 100.0000(Penetrate)
G03 X 25.8968 Y 8.2274 Z -1.0000 I -1.7082 J 1.4696 F 3500.0000
G03 X 25.9342 Y 8.2874 Z -1.0000 I -0.3506 J 0.2606
G02 X 25.9696 Y 8.3461 Z -1.0000 I 0.4680 J -0.2420
G01 X 25.9781 Y 8.3505 Z -1.0000
G01 X 25.9908 Y 8.3265 Z -1.0000
G02 X 25.8067 Y 8.1001 Z -1.0000 I -1.4643 J 1.0022
G01 X 25.6915 Y 7.9800 Z -1.0000
G01 X 25.7965 Y 8.1021 Z -1.0000
G00 Z 5.0000

(End cutting path id: path78048)


(Start cutting path id: path78048)
(Change tool to Default tool)

G00 Z 5.0000
G00 X 26.0126 Y 8.4291

G01 Z -1.0000 F 100.0000(Penetrate)
G02 X 26.0353 Y 8.5119 Z -1.0000 I 0.2018 J -0.0109 F 3500.0000
G01 X 26.0536 Y 8.5077 Z -1.0000
G02 X 26.0494 Y 8.4755 Z -1.0000 I -0.0978 J -0.0036
G02 X 26.0331 Y 8.4403 Z -1.0000 I -0.1350 J 0.0413
G01 X 26.0176 Y 8.4259 Z -1.0000
G01 X 26.0126 Y 8.4291 Z -1.0000
G01 X 26.0126 Y 8.4291 Z -1.0000
G00 Z 5.0000

(End cutting path id: path78048)


(Start cutting path id: path78048)
(Change tool to Default tool)

G00 Z 5.0000
G00 X 25.6289 Y 8.7211

G01 Z -1.0000 F 100.0000(Penetrate)
G01 X 25.6704 Y 8.7772 Z -1.0000 F 3500.0000
G01 X 25.6607 Y 8.7736 Z -1.0000
G03 X 25.6065 Y 8.7211 Z -1.0000 I 0.5183 J -0.5902
G01 X 25.5650 Y 8.6649 Z -1.0000
G01 X 25.5746 Y 8.6686 Z -1.0000
G03 X 25.6289 Y 8.7211 Z -1.0000 I -0.5183 J 0.5902
G01 X 25.6289 Y 8.7211 Z -1.0000
G00 Z 5.0000

(End cutting path id: path78048)


(Start cutting path id: path78048)
(Change tool to Default tool)

G00 Z 5.0000
G00 X 25.7416 Y 8.8338

G01 Z -1.0000 F 100.0000(Penetrate)
G01 X 25.7439 Y 8.8493 Z -1.0000 F 3500.0000
G01 X 25.7331 Y 8.8539 Z -1.0000
G03 X 25.7030 Y 8.8351 Z -1.0000 I 0.0337 J -0.0877
G01 X 25.6963 Y 8.8197 Z -1.0000
G01 X 25.7078 Y 8.8112 Z -1.0000
G03 X 25.7416 Y 8.8338 Z -1.0000 I -0.0213 J 0.0684
G01 X 25.7416 Y 8.8338 Z -1.0000
G00 Z 5.0000

(End cutting path id: path78048)


(Start cutting path id: path78048)
(Change tool to Default tool)

G00 Z 5.0000
G00 X 26.2810 Y 8.9287

G01 Z -1.0000 F 100.0000(Penetrate)
G02 X 26.3676 Y 9.1041 Z -1.0000 I 0.2313 J -0.0052 F 3500.0000
G02 X 26.4914 Y 9.0972 Z -1.0000 I 0.0581 J -0.0725
G02 X 26.4936 Y 8.9746 Z -1.0000 I -0.0625 J -0.0625
G02 X 26.2979 Y 8.8894 Z -1.0000 I -0.1957 J 0.1822
G01 X 26.2872 Y 8.8964 Z -1.0000
G02 X 26.2810 Y 8.9287 Z -1.0000 I 0.0711 J 0.0305
G01 X 26.2810 Y 8.9287 Z -1.0000
G00 Z 5.0000

(End cutting path id: path78048)


(Start cutting path id: path78048)
(Change tool to Default tool)

G00 Z 5.0000
G00 X 26.3147 Y 9.0900

G01 Z -1.0000 F 100.0000(Penetrate)
G01 X 26.3117 Y 9.1086 Z -1.0000 F 3500.0000
G01 X 26.3224 Y 9.1237 Z -1.0000
G01 X 26.3382 Y 9.1403 Z -1.0000
G03 X 26.3668 Y 9.2046 Z -1.0000 I -0.3715 J 0.2038
G03 X 26.3764 Y 9.2551 Z -1.0000 I -0.1650 J 0.0575
G01 X 26.3690 Y 9.2594 Z -1.0000
G01 X 26.3564 Y 9.2621 Z -1.0000
G02 X 26.3474 Y 9.2910 Z -1.0000 I 0.0423 J 0.0289
G02 X 26.3550 Y 9.3317 Z -1.0000 I 0.1141 J 0.0000
G01 X 26.3699 Y 9.3498 Z -1.0000
G01 X 26.3847 Y 9.3679 Z -1.0000
G03 X 26.3923 Y 9.4107 Z -1.0000 I -0.1164 J 0.0428
G01 X 26.3785 Y 9.4267 Z -1.0000
G01 X 26.3474 Y 9.4171 Z -1.0000
G03 X 26.3102 Y 9.3731 Z -1.0000 I 0.1461 J -0.1614
G01 X 26.3025 Y 9.3470 Z -1.0000
G01 X 26.2929 Y 9.3315 Z -1.0000
G01 X 26.2688 Y 9.3304 Z -1.0000
G01 X 26.2438 Y 9.3307 Z -1.0000
G01 X 26.2352 Y 9.3185 Z -1.0000
G01 X 26.2410 Y 9.2992 Z -1.0000
G01 X 26.2520 Y 9.2929 Z -1.0000
G01 X 26.2676 Y 9.2885 Z -1.0000
G02 X 26.3113 Y 9.2601 Z -1.0000 I -0.1784 J -0.3217
G01 X 26.3304 Y 9.2239 Z -1.0000
G02 X 26.3160 Y 9.1703 Z -1.0000 I -0.0892 J -0.0047
G03 X 26.2929 Y 9.0925 Z -1.0000 I 0.1179 J -0.0772
G01 X 26.3164 Y 9.0691 Z -1.0000
G01 X 26.3202 Y 9.0732 Z -1.0000
G01 X 26.3147 Y 9.0900 Z -1.0000
G01 X 26.3147 Y 9.0900 Z -1.0000
G00 Z 5.0000

(End cutting path id: path78048)


(Start cutting path id: path78048)
(Change tool to Default tool)

G00 Z 5.0000
G00 X 26.5046 Y 8.9891

G01 Z -1.0000 F 100.0000(Penetrate)
G01 X 26.5324 Y 9.0334 Z -1.0000 F 3500.0000
G01 X 26.5796 Y 9.0253 Z -1.0000
G01 X 26.5784 Y 9.0167 Z -1.0000
G01 X 26.5625 Y 9.0154 Z -1.0000
G01 X 26.5390 Y 9.0122 Z -1.0000
G01 X 26.5337 Y 8.9943 Z -1.0000
G02 X 26.5363 Y 8.9648 Z -1.0000 I -0.0502 J -0.0192
G01 X 26.5264 Y 8.9567 Z -1.0000
G01 X 26.5122 Y 8.9643 Z -1.0000
G01 X 26.5047 Y 8.9891 Z -1.0000
G01 X 26.5046 Y 8.9891 Z -1.0000
G00 Z 5.0000

(End cutting path id: path78048)


(Start cutting path id: path78048)
(Change tool to Default tool)

G00 Z 5.0000
G00 X 26.6394 Y 8.8793

G01 Z -1.0000 F 100.0000(Penetrate)
G03 X 26.6056 Y 8.8858 Z -1.0000 I -0.2231 J -1.0596 F 3500.0000
G03 X 26.5185 Y 8.9007 Z -1.0000 I -1.1703 J -6.5893
G02 X 26.4563 Y 8.9230 Z -1.0000 I 0.0294 J 0.1799
G01 X 26.4544 Y 8.9379 Z -1.0000
G01 X 26.4793 Y 8.9475 Z -1.0000
G02 X 26.5275 Y 8.9340 Z -1.0000 I -0.0061 J -0.1148
G03 X 26.5733 Y 8.9238 Z -1.0000 I 0.0414 J 0.0773
G01 X 26.5970 Y 8.9375 Z -1.0000
G01 X 26.6099 Y 8.9457 Z -1.0000
G01 X 26.6166 Y 8.9398 Z -1.0000
G01 X 26.6257 Y 8.9207 Z -1.0000
G01 X 26.6506 Y 8.9118 Z -1.0000
G01 X 26.6764 Y 8.9039 Z -1.0000
G01 X 26.6843 Y 8.8893 Z -1.0000
G01 X 26.6787 Y 8.8695 Z -1.0000
G01 X 26.6728 Y 8.8715 Z -1.0000
G03 X 26.6394 Y 8.8792 Z -1.0000 I -0.2294 J -0.9228
G01 X 26.6394 Y 8.8793 Z -1.0000
G00 Z 5.0000

(End cutting path id: path78048)


(Start cutting path id: path78048)
(Change tool to Default tool)

G00 Z 5.0000
G00 X 26.7348 Y 8.9951

G01 Z -1.0000 F 100.0000(Penetrate)
G02 X 26.6919 Y 9.0111 Z -1.0000 I 0.0266 J 0.1370 F 3500.0000
G01 X 26.6843 Y 9.0242 Z -1.0000
G01 X 26.6771 Y 9.0383 Z -1.0000
G03 X 26.6364 Y 9.0588 Z -1.0000 I -0.0841 J -0.1165
G01 X 26.6149 Y 9.0775 Z -1.0000
G01 X 26.6195 Y 9.0940 Z -1.0000
G01 X 26.6234 Y 9.1098 Z -1.0000
G01 X 26.6001 Y 9.1278 Z -1.0000
G02 X 26.5569 Y 9.1473 Z -1.0000 I 0.0398 J 0.1456
G01 X 26.5495 Y 9.1610 Z -1.0000
G01 X 26.5574 Y 9.1681 Z -1.0000
G02 X 26.6057 Y 9.1548 Z -1.0000 I -0.0178 J -0.1588
G02 X 26.6558 Y 9.1254 Z -1.0000 I -0.1167 J -0.2562
G01 X 26.6618 Y 9.1135 Z -1.0000
G01 X 26.6686 Y 9.1052 Z -1.0000
G03 X 26.7123 Y 9.1028 Z -1.0000 I 0.0296 J 0.1401
G01 X 26.7222 Y 9.0980 Z -1.0000
G01 X 26.7069 Y 9.0641 Z -1.0000
G03 X 26.7589 Y 9.0283 Z -1.0000 I 0.0600 J 0.0316
G02 X 26.8104 Y 9.0137 Z -1.0000 I -0.0197 J -0.1669
G01 X 26.8190 Y 9.0003 Z -1.0000
G01 X 26.8133 Y 8.9860 Z -1.0000
G01 X 26.8021 Y 8.9824 Z -1.0000
G02 X 26.7852 Y 8.9855 Z -1.0000 I 0.5557 J 3.0401
G02 X 26.7348 Y 8.9952 Z -1.0000 I 1.8007 J 9.5508
G01 X 26.7348 Y 8.9951 Z -1.0000
G00 Z 5.0000

(End cutting path id: path78048)


(Start cutting path id: path78048)
(Change tool to Default tool)

G00 Z 5.0000
G00 X 26.8751 Y 8.9792

G01 Z -1.0000 F 100.0000(Penetrate)
G01 X 26.8741 Y 8.9945 Z -1.0000 F 3500.0000
G01 X 26.8850 Y 9.0016 Z -1.0000
G01 X 26.9020 Y 8.9949 Z -1.0000
G01 X 26.9088 Y 8.9792 Z -1.0000
G01 X 26.9049 Y 8.9606 Z -1.0000
G01 X 26.8989 Y 8.9567 Z -1.0000
G01 X 26.8908 Y 8.9599 Z -1.0000
G02 X 26.8751 Y 8.9792 Z -1.0000 I 0.0651 J 0.0692
G01 X 26.8751 Y 8.9792 Z -1.0000
G00 Z 5.0000

(End cutting path id: path78048)


(Start cutting path id: path78048)
(Change tool to Default tool)

G00 Z 5.0000
G00 X 26.9676 Y 8.9558

G01 Z -1.0000 F 100.0000(Penetrate)
G02 X 26.9896 Y 8.9702 Z -1.0000 I 0.0534 J -0.0574 F 3500.0000
G02 X 27.0435 Y 8.9890 Z -1.0000 I 0.1490 J -0.3409
G01 X 27.0562 Y 8.9849 Z -1.0000
G01 X 27.0548 Y 8.9755 Z -1.0000
G02 X 26.9747 Y 8.9424 Z -1.0000 I -0.1369 J 0.2174
G01 X 26.9676 Y 8.9558 Z -1.0000
G01 X 26.9676 Y 8.9558 Z -1.0000
G00 Z 5.0000

(End cutting path id: path78048)


(Start cutting path id: path78048)
(Change tool to Default tool)

G00 Z 5.0000
G00 X 26.8207 Y 8.8422

G01 Z -1.0000 F 100.0000(Penetrate)
G02 X 26.7282 Y 8.8639 Z -1.0000 I 0.0671 J 0.4954 F 3500.0000
G01 X 26.7141 Y 8.8782 Z -1.0000
G01 X 26.7444 Y 8.9232 Z -1.0000
G02 X 26.8544 Y 8.8879 Z -1.0000 I 0.0107 J -0.1554
G03 X 26.8810 Y 8.8727 Z -1.0000 I 0.0572 J 0.0692
G03 X 26.9667 Y 8.8472 Z -1.0000 I 0.2600 J 0.7177
G02 X 26.9902 Y 8.8345 Z -1.0000 I -0.0117 J -0.0500
G01 X 26.9874 Y 8.8277 Z -1.0000
G02 X 26.9202 Y 8.8312 Z -1.0000 I 0.0157 J 0.9481
G02 X 26.8207 Y 8.8422 Z -1.0000 I 0.1871 J 2.1316
G01 X 26.8207 Y 8.8422 Z -1.0000
G00 Z 5.0000

(End cutting path id: path78048)


(Start cutting path id: path78048)
(Change tool to Default tool)

G00 Z 5.0000
G00 X 27.1054 Y 8.8133

G01 Z -1.0000 F 100.0000(Penetrate)
G01 X 27.1226 Y 8.8293 Z -1.0000 F 3500.0000
G01 X 27.1222 Y 8.8445 Z -1.0000
G01 X 27.1249 Y 8.8537 Z -1.0000
G01 X 27.1501 Y 8.8572 Z -1.0000
G01 X 27.1659 Y 8.8317 Z -1.0000
G01 X 27.1334 Y 8.8058 Z -1.0000
G02 X 27.1058 Y 8.8082 Z -1.0000 I -0.0071 J 0.0782
G01 X 27.1054 Y 8.8133 Z -1.0000
G01 X 27.1054 Y 8.8133 Z -1.0000
G00 Z 5.0000

(End cutting path id: path78048)


(Start cutting path id: path78048)
(Change tool to Default tool)

G00 Z 5.0000
G00 X 27.3523 Y 8.8144

G01 Z -1.0000 F 100.0000(Penetrate)
G02 X 27.3804 Y 8.8199 Z -1.0000 I 0.0281 J -0.0699 F 3500.0000
G02 X 27.4084 Y 8.8144 Z -1.0000 I -0.0000 J -0.0753
G01 X 27.4084 Y 8.8086 Z -1.0000
G02 X 27.3804 Y 8.8031 Z -1.0000 I -0.0281 J 0.0695
G02 X 27.3523 Y 8.8086 Z -1.0000 I -0.0000 J 0.0750
G01 X 27.3523 Y 8.8144 Z -1.0000
G01 X 27.3523 Y 8.8144 Z -1.0000
G00 Z 5.0000

(End cutting path id: path78048)


(Start cutting path id: path78048)
(Change tool to Default tool)

G00 Z 5.0000
G00 X 27.3354 Y 8.9206

G01 Z -1.0000 F 100.0000(Penetrate)
G01 X 27.3390 Y 8.9271 Z -1.0000 F 3500.0000
G02 X 27.3703 Y 8.9428 Z -1.0000 I 0.0945 J -0.1489
G01 X 27.3887 Y 8.9426 Z -1.0000
