%
(Header)
(Generated by gcodetools from Inkscape.)
(Using default header. To add your own header create file "header" in the output dir.)
M3
(Header end.)
G21 (All units in mm)

(Start cutting path id: path2206)
(Change tool to Default tool)

G00 Z5.000000
G00 X5.762190 Y2.565767

G01 Z-1.000000 F100.0(Penetrate)
G03 X5.918292 Y2.799295 Z-1.000000 I-0.110684 J0.242924 F3500.000000
G03 X5.775222 Y2.935754 Z-1.000000 I-0.132172 J0.004655
G02 X5.696241 Y2.963371 Z-1.000000 I-0.008505 J0.102424
G02 X5.682645 Y3.022944 Z-1.000000 I0.037611 J0.039922
G03 X5.689207 Y3.110435 Z-1.000000 I-0.142503 J0.054679
G03 X5.651773 Y3.163211 Z-1.000000 I-0.081083 J-0.017848
G02 X5.611388 Y3.267415 Z-1.000000 I0.048704 J0.078803
G02 X5.708590 Y3.362489 Z-1.000000 I0.131873 J-0.037599
G03 X5.651320 Y3.403529 Z-1.000000 I-0.066116 J-0.092265
G03 X5.389251 Y3.316307 Z-1.000000 I-0.017496 J-0.384750
G03 X5.346007 Y3.152552 Z-1.000000 I0.091961 J-0.111872
G02 X5.347367 Y3.078978 Z-1.000000 I-0.100749 J-0.038662
G03 X5.256616 Y3.030724 Z-1.000000 I0.000000 J-0.078450
G03 X5.195614 Y2.936425 Z-1.000000 I0.193144 J-0.191824
G03 X5.185569 Y2.635459 Z-1.000000 I0.429982 J-0.165001
G03 X5.302114 Y2.591756 Z-1.000000 I0.075177 J0.023229
G03 X5.435909 Y2.491132 Z-1.000000 I0.065891 J0.000000
G03 X5.762191 Y2.565806 Z-1.000000 I-0.018555 J0.831239
G00 Z5.000000

(End cutting path id: path2206)


(Start cutting path id: path2279)
(Change tool to Default tool)

G00 Z5.000000

G01 Z-1.000000 F100.0(Penetrate)
G03 X6.850928 Y3.892002 Z-1.000000 I-0.071591 J0.000000 F3500.000000
G03 X6.800306 Y3.912972 Z-1.000000 I-0.050622 J-0.050617
G03 X6.749684 Y3.892002 Z-1.000000 I-0.000000 J-0.071587
G03 X6.728718 Y3.841382 Z-1.000000 I0.050625 J-0.050620
G03 X6.749684 Y3.790762 Z-1.000000 I0.071591 J0.000000
G03 X6.800306 Y3.769792 Z-1.000000 I0.050622 J0.050617
G03 X6.850928 Y3.790762 Z-1.000000 I0.000000 J0.071587
G03 X6.871894 Y3.841382 Z-1.000000 I-0.050625 J0.050620
G00 Z5.000000

(End cutting path id: path2279)


(Start cutting path id: path2497)
(Change tool to Default tool)

G00 Z5.000000

G01 Z-1.000000 F100.0(Penetrate)
G02 X8.554695 Y5.040464 Z-1.000000 I1.314390 J-0.000000 F3500.000000
G02 X8.584518 Y4.843597 Z-1.000000 I-1.299608 J-0.196867
G02 X8.569691 Y4.646730 Z-1.000000 I-1.314434 J-0.000000
G02 X8.539868 Y4.843597 Z-1.000000 I1.299551 J0.196867
G00 Z5.000000

(End cutting path id: path2497)


(Start cutting path id: path2588)
(Change tool to Default tool)

G00 Z5.000000
G00 X8.042711 Y5.738446

G01 Z-1.000000 F100.0(Penetrate)
G02 X8.056032 Y6.080570 Z-1.000000 I4.331514 J0.002667 F3500.000000
G02 X8.083330 Y5.778481 Z-1.000000 I-3.366852 J-0.304244
G02 X8.070009 Y5.436357 Z-1.000000 I-4.331628 J-0.002661
G02 X8.042711 Y5.738446 Z-1.000000 I3.367032 J0.304258
G00 Z5.000000

(End cutting path id: path2588)


(Start cutting path id: path2684)
(Change tool to Default tool)

G00 Z5.000000

G01 Z-1.000000 F100.0(Penetrate)
G02 X8.128081 Y8.906212 Z-1.000000 I4.325801 J0.000000 F3500.000000
G01 X8.141509 Y8.906212 Z-1.000000
G02 X8.154894 Y8.566169 Z-1.000000 I-4.312484 J-0.340043
G02 X8.141509 Y8.226126 Z-1.000000 I-4.325870 J0.000000
G02 X8.114696 Y8.566169 Z-1.000000 I4.312446 J0.340043
G00 Z5.000000

(End cutting path id: path2684)


(Start cutting path id: path2708)
(Change tool to Default tool)

G00 Z5.000000

G01 Z-1.000000 F100.0(Penetrate)
G02 X8.697871 Y10.839086 Z-1.000000 I1.314390 J0.000000 F3500.000000
G02 X8.727694 Y10.642219 Z-1.000000 I-1.299529 J-0.196867
G02 X8.712867 Y10.445352 Z-1.000000 I-1.314356 J0.000000
G02 X8.683044 Y10.642219 Z-1.000000 I1.299525 J0.196867
G00 Z5.000000

(End cutting path id: path2708)


(Start cutting path id: path2710)
(Change tool to Default tool)

G00 Z5.000000

G01 Z-1.000000 F100.0(Penetrate)
G02 X8.200411 Y11.695582 Z-1.000000 I5.358583 J-0.001998 F3500.000000
G02 X8.226320 Y11.281336 Z-1.000000 I-6.582802 J-0.411723
G02 X8.213163 Y10.908065 Z-1.000000 I-5.358842 J0.002009
G02 X8.187255 Y11.322309 Z-1.000000 I6.583087 J0.411727
G00 Z5.000000

(End cutting path id: path2710)


(Start cutting path id: path2714)
(Change tool to Default tool)

G00 Z5.000000

G01 Z-1.000000 F100.0(Penetrate)
G02 X9.833623 Y11.662442 Z-1.000000 I0.071754 J-0.002960 F3500.000000
G02 X9.871221 Y11.568481 Z-1.000000 I-0.201108 J-0.080474
G02 X9.850251 Y11.520661 Z-1.000000 I-0.071750 J0.002956
G02 X9.812652 Y11.614621 Z-1.000000 I0.201098 J0.080474
G00 Z5.000000

(End cutting path id: path2714)


(Start cutting path id: path2709)
(Change tool to Default tool)

G00 Z5.000000

G01 Z-1.000000 F100.0(Penetrate)
G02 X10.696685 Y10.624566 Z-1.000000 I0.062737 J0.038772 F3500.000000
G02 X10.736475 Y10.677296 Z-1.000000 I0.087802 J-0.024878
G02 X10.809235 Y10.610656 Z-1.000000 I-0.057149 J-0.062360
G02 X10.766821 Y10.546187 Z-1.000000 I-0.070203 J0.000000
G00 Z5.000000

(End cutting path id: path2709)


(Start cutting path id: path2704)
(Change tool to Default tool)

G00 Z5.000000

G01 Z-1.000000 F100.0(Penetrate)
G02 X10.693862 Y10.031527 Z-1.000000 I1.167641 J-0.014235 F3500.000000
G02 X10.737641 Y10.212691 Z-1.000000 I1.264053 J-0.209589
G02 X10.797061 Y10.176901 Z-1.000000 I-0.029149 J-0.048394
G02 X10.780719 Y9.965842 Z-1.000000 I-1.212094 J-0.012314
G02 X10.737641 Y9.818962 Z-1.000000 I-0.627611 J0.104315
G02 X10.678221 Y9.854752 Z-1.000000 I0.027667 J0.045933
G00 Z5.000000

(End cutting path id: path2704)


(Start cutting path id: path2701)
(Change tool to Default tool)

G00 Z5.000000
G00 X12.240988 Y9.783162

G01 Z-1.000000 F100.0(Penetrate)
G00 Z5.000000

(End cutting path id: path2701)


(Start cutting path id: path2691)
(Change tool to Default tool)

G00 Z5.000000

G01 Z-1.000000 F100.0(Penetrate)
G03 X11.328110 Y8.463920 Z-1.000000 I-0.435708 J0.266250 F3500.000000
G03 X11.366893 Y8.636463 Z-1.000000 I-0.996458 J0.314605
G02 X11.414005 Y8.689184 Z-1.000000 I0.062680 J-0.008600
G02 X11.416462 Y8.458175 Z-1.000000 I-0.559824 J-0.000000
G02 X11.332389 Y8.342273 Z-1.000000 I-0.258399 J0.098995
G02 X11.286629 Y8.330125 Z-1.000000 I-0.036410 J0.044889
G00 Z5.000000

(End cutting path id: path2691)


(Start cutting path id: path2649)
(Change tool to Default tool)

G00 Z5.000000
G00 X12.461403 Y6.818229

G01 Z-1.000000 F100.0(Penetrate)
G02 X12.482370 Y6.866054 Z-1.000000 I0.071695 J-0.002923 F3500.000000
G02 X12.519966 Y6.772110 Z-1.000000 I-0.201028 J-0.080442
G02 X12.498953 Y6.724269 Z-1.000000 I-0.071702 J0.002959
G02 X12.461353 Y6.818229 Z-1.000000 I0.201088 J0.080471
G00 Z5.000000

(End cutting path id: path2649)


(Start cutting path id: path2632)
(Change tool to Default tool)

G00 Z5.000000

G01 Z-1.000000 F100.0(Penetrate)
G02 X12.761579 Y6.638994 Z-1.000000 I0.075936 J-0.004660 F3500.000000
G02 X12.772154 Y6.158457 Z-1.000000 I-3.872469 J0.057619
G02 X12.713387 Y6.572816 Z-1.000000 I3.269907 J0.213728
G00 Z5.000000

(End cutting path id: path2632)


(Start cutting path id: path2631)
(Change tool to Default tool)

G00 Z5.000000

G01 Z-1.000000 F100.0(Penetrate)
G02 X13.335640 Y7.179566 Z-1.000000 I7.172090 J0.000000 F3500.000000
G02 X13.585270 Y6.633259 Z-1.000000 I-0.550758 J-0.550758
G02 X13.352347 Y6.074243 Z-1.000000 I-0.795894 J0.003589
G02 X13.314847 Y6.633305 Z-1.000000 I8.230021 J0.551922
G00 Z5.000000

(End cutting path id: path2631)


(Start cutting path id: path2654)
(Change tool to Default tool)

G00 Z5.000000

G01 Z-1.000000 F100.0(Penetrate)
G02 X13.596463 Y7.287669 Z-1.000000 I0.608055 J0.116226 F3500.000000
G02 X13.676532 Y7.349173 Z-1.000000 I0.080069 J-0.021366
G02 X13.730552 Y7.098615 Z-1.000000 I-0.876654 J-0.189011
G02 X13.660008 Y6.979044 Z-1.000000 I-0.145900 J0.005483
G00 Z5.000000

(End cutting path id: path2654)


(Start cutting path id: path2650)
(Change tool to Default tool)

G00 Z5.000000

G01 Z-1.000000 F100.0(Penetrate)
G02 X13.885103 Y7.096066 Z-1.000000 I0.437070 J0.064141 F3500.000000
G02 X13.935704 Y7.134405 Z-1.000000 I0.050601 J-0.014223
G02 X14.030270 Y7.048025 Z-1.000000 I0.000000 J-0.094954
G02 X13.967194 Y6.787110 Z-1.000000 I-0.415388 J-0.037663
G02 X13.873304 Y6.912389 Z-1.000000 I0.223434 J0.167446
G00 Z5.000000

(End cutting path id: path2650)


(Start cutting path id: path2625)
(Change tool to Default tool)

G00 Z5.000000

G01 Z-1.000000 F100.0(Penetrate)
G02 X14.151702 Y6.803421 Z-1.000000 I3.592236 J0.312866 F3500.000000
G02 X14.184170 Y6.891787 Z-1.000000 I0.153088 J-0.006102
G03 X14.218923 Y6.978841 Z-1.000000 I-0.131494 J0.102958
G03 X14.214980 Y7.213933 Z-1.000000 I-1.045703 J0.100040
G02 X14.187258 Y7.456880 Z-1.000000 I7.923022 J1.027129
G02 X14.178700 Y7.581845 Z-1.000000 I2.082332 J0.205380
G03 X14.030693 Y7.496585 Z-1.000000 I0.072928 J-0.126616
G02 X14.003750 Y7.301073 Z-1.000000 I-0.722845 J0.000000
G02 X13.959103 Y7.241802 Z-1.000000 I-0.098346 J0.027630
G02 X13.887513 Y7.368822 Z-1.000000 I0.206612 J0.116460
G03 X13.809726 Y7.546840 Z-1.000000 I-0.242592 J0.000000
G03 X13.691777 Y7.550033 Z-1.000000 I-0.060795 J-0.065670
G02 X13.599052 Y7.519561 Z-1.000000 I-0.085044 J0.102471
G02 X13.532481 Y7.559233 Z-1.000000 I0.004842 J0.083816
G03 X13.396938 Y7.518833 Z-1.000000 I0.038848 J-0.130347
G02 X13.338895 Y7.461915 Z-1.000000 I-0.132316 J0.076877
G03 X13.207535 Y7.555099 Z-1.000000 I-0.085962 J-0.002069
G03 X13.100047 Y7.412833 Z-1.000000 I0.040404 J-0.142266
G02 X12.959253 Y7.430733 Z-1.000000 I0.019504 J0.153416
G02 X12.710509 Y7.441589 Z-1.000000 I0.141714 J0.153291
G03 X12.610010 Y7.505270 Z-1.000000 I-0.081894 J-0.018099
G03 X12.521724 Y7.398639 Z-1.000000 I0.025189 J-0.110720
G02 X12.499554 Y7.344603 Z-1.000000 I-0.084354 J0.003043
G03 X12.319731 Y7.535361 Z-1.000000 I-0.337613 J-0.124987
G03 X12.198078 Y7.511036 Z-1.000000 I-0.047078 J-0.080923
G02 X12.126392 Y7.459280 Z-1.000000 I-0.120620 J0.091543
G03 X12.071212 Y7.538176 Z-1.000000 I-0.082359 J-0.002102
G03 X12.008358 Y7.555776 Z-1.000000 I-0.050464 J-0.059186
G02 X11.920871 Y7.557411 Z-1.000000 I-0.039195 J0.244197
G02 X11.779991 Y7.601316 Z-1.000000 I0.136698 J0.686609
G03 X11.660920 Y7.617000 Z-1.000000 I-0.087162 J-0.201899
G03 X11.612952 Y7.576816 Z-1.000000 I0.008662 J-0.059061
G02 X11.529310 Y7.539245 Z-1.000000 I-0.059109 J0.019702
G02 X11.395632 Y7.669906 Z-1.000000 I0.101961 J0.238027
G03 X11.294627 Y7.798332 Z-1.000000 I-0.314104 J-0.143105
G03 X11.217119 Y7.810007 Z-1.000000 I-0.049047 J-0.062495
G02 X11.154089 Y8.008145 Z-1.000000 I0.371199 J0.118078
G02 X11.200711 Y8.118431 Z-1.000000 I0.235501 J-0.034558
G03 X11.323940 Y8.044137 Z-1.000000 I0.097636 J0.034248
G03 X12.772579 Y7.990537 Z-1.000000 I1.354674 J17.009797
G03 X14.256616 Y8.030970 Z-1.000000 I-0.187133 J34.123134
G03 X14.398313 Y8.070217 Z-1.000000 I-0.016409 J0.334663
G03 X14.590503 Y8.343939 Z-1.000000 I-0.175194 J0.327342
G03 X14.460253 Y8.494579 Z-1.000000 I-0.130250 J0.019010
G02 X14.409299 Y8.515208 Z-1.000000 I-0.000000 J0.073244
G02 X14.388663 Y8.563919 Z-1.000000 I0.047174 J0.048711
G02 X14.488633 Y8.594899 Z-1.000000 I0.034067 J-0.109939
G02 X14.619072 Y8.426955 Z-1.000000 I-0.073589 J-0.191782
G02 X14.613270 Y7.528144 Z-1.000000 I-3.645209 J-0.425893
G02 X14.547300 Y7.357156 Z-1.000000 I-0.383861 J0.049879
G02 X14.467850 Y7.632591 Z-1.000000 I1.566417 J0.330177
G02 X14.485925 Y7.742369 Z-1.000000 I0.275358 J0.011038
G03 X14.493605 Y7.827101 Z-1.000000 I-0.145720 J0.055921
G03 X14.384753 Y7.784573 Z-1.000000 I0.000000 J-0.082656
G03 X14.310795 Y7.110658 Z-1.000000 I3.422817 J-0.716651
G02 X14.290936 Y6.598545 Z-1.000000 I-9.593071 J0.115564
G02 X14.253765 Y6.239561 Z-1.000000 I-4.776774 J0.313194
G00 Z5.000000

(End cutting path id: path2625)


(Start cutting path id: path2629)
(Change tool to Default tool)

G00 Z5.000000

G01 Z-1.000000 F100.0(Penetrate)
G02 X13.928472 Y6.392905 Z-1.000000 I0.238701 J-0.002970 F3500.000000
G02 X13.990855 Y6.184254 Z-1.000000 I-0.655718 J-0.196110
G02 X13.958210 Y6.066712 Z-1.000000 I-0.238593 J0.002961
G02 X13.895810 Y6.275365 Z-1.000000 I0.655938 J0.196171
G00 Z5.000000

(End cutting path id: path2629)


(Start cutting path id: path2621)
(Change tool to Default tool)

G00 Z5.000000

G01 Z-1.000000 F100.0(Penetrate)
G02 X13.637189 Y6.328383 Z-1.000000 I0.858944 J-0.002343 F3500.000000
G02 X13.667104 Y6.130533 Z-1.000000 I-1.283704 J-0.194057
G02 X13.651546 Y5.970132 Z-1.000000 I-0.858353 J0.002302
G02 X13.621626 Y6.167983 Z-1.000000 I1.283290 J0.194046
G00 Z5.000000

(End cutting path id: path2621)


(Start cutting path id: path2604)
(Change tool to Default tool)

G00 Z5.000000

G01 Z-1.000000 F100.0(Penetrate)
G02 X13.922377 Y5.792137 Z-1.000000 I0.851734 J0.000000 F3500.000000
G02 X13.953396 Y5.631064 Z-1.000000 I-0.836428 J-0.161073
G02 X13.938028 Y5.469991 Z-1.000000 I-0.851796 J0.000000
G02 X13.907008 Y5.631064 Z-1.000000 I0.836355 J0.161073
G00 Z5.000000

(End cutting path id: path2604)


(Start cutting path id: path2589)
(Change tool to Default tool)

G00 Z5.000000

G01 Z-1.000000 F100.0(Penetrate)
G02 X14.210140 Y5.684755 Z-1.000000 I1.314484 J0.000000 F3500.000000
G02 X14.239959 Y5.487888 Z-1.000000 I-1.299766 J-0.196867
G02 X14.225134 Y5.291021 Z-1.000000 I-1.314591 J-0.000000
G02 X14.195314 Y5.487888 Z-1.000000 I1.299643 J0.196867
G00 Z5.000000

(End cutting path id: path2589)


(Start cutting path id: path2597)
(Change tool to Default tool)

G00 Z5.000000

G01 Z-1.000000 F100.0(Penetrate)
G02 X14.490327 Y5.459027 Z-1.000000 I0.081433 J-0.019537 F3500.000000
G02 X14.501053 Y5.232286 Z-1.000000 I-0.639637 J0.000000
G02 X14.433136 Y5.398404 Z-1.000000 I0.455178 J0.059463
G00 Z5.000000

(End cutting path id: path2597)


(Start cutting path id: path2590)
(Change tool to Default tool)

G00 Z5.000000

G01 Z-1.000000 F100.0(Penetrate)
G02 X14.782599 Y5.612498 Z-1.000000 I0.858773 J-0.002347 F3500.000000
G02 X14.812515 Y5.414647 Z-1.000000 I-1.283293 J-0.193995
G02 X14.796963 Y5.254247 Z-1.000000 I-0.859119 J0.002346
G02 X14.767043 Y5.452098 Z-1.000000 I1.283286 J0.194046
G00 Z5.000000

(End cutting path id: path2590)


(Start cutting path id: path2600)
(Change tool to Default tool)

G00 Z5.000000

G01 Z-1.000000 F100.0(Penetrate)
G02 X15.326355 Y5.423376 Z-1.000000 I0.153891 J0.095105 F3500.000000
G01 X15.365922 Y5.460006 Z-1.000000
G02 X15.415559 Y5.383642 Z-1.000000 I-0.154274 J-0.154592
G00 Z5.000000

(End cutting path id: path2600)


(Start cutting path id: path2572)
(Change tool to Default tool)

G00 Z5.000000

G01 Z-1.000000 F100.0(Penetrate)
G02 X15.059536 Y4.933160 Z-1.000000 I0.071695 J-0.002923 F3500.000000
G02 X15.097132 Y4.839216 Z-1.000000 I-0.201028 J-0.080442
G02 X15.076119 Y4.791375 Z-1.000000 I-0.071702 J0.002959
G02 X15.038519 Y4.885335 Z-1.000000 I0.201088 J0.080471
G00 Z5.000000

(End cutting path id: path2572)


(Start cutting path id: path2281)
(Change tool to Default tool)

G00 Z5.000000

G01 Z-1.000000 F100.0(Penetrate)
G03 X14.548001 Y4.078920 Z-1.000000 I-0.074307 J-0.117276 F3500.000000
G03 X14.625855 Y3.952660 Z-1.000000 I0.180317 J0.149654
G03 X14.690732 Y3.958498 Z-1.000000 I0.026602 J0.067782
G03 X14.664722 Y4.063996 Z-1.000000 I-0.098244 J-0.024222
G00 Z5.000000

(End cutting path id: path2281)


(Start cutting path id: path2276)
(Change tool to Default tool)

G00 Z5.000000

G01 Z-1.000000 F100.0(Penetrate)
G03 X14.270592 Y3.880423 Z-1.000000 I-0.080618 J0.030931 F3500.000000
G03 X14.106758 Y3.774447 Z-1.000000 I0.063502 J-0.190513
G03 X14.160233 Y3.698208 Z-1.000000 I0.053475 J-0.019365
G03 X14.214637 Y3.720737 Z-1.000000 I0.000000 J0.076953
G03 X14.273629 Y3.811572 Z-1.000000 I-0.184013 J0.184079
G00 Z5.000000

(End cutting path id: path2276)


(Start cutting path id: path2259)
(Change tool to Default tool)

G00 Z5.000000

G01 Z-1.000000 F100.0(Penetrate)
G03 X14.152898 Y3.462457 Z-1.000000 I-0.071590 J0.000000 F3500.000000
G03 X14.102272 Y3.483430 Z-1.000000 I-0.050626 J-0.050617
G03 X14.051655 Y3.462466 Z-1.000000 I0.000000 J-0.071590
G03 X14.030682 Y3.411840 Z-1.000000 I0.050617 J-0.050626
G03 X14.051650 Y3.361218 Z-1.000000 I0.071590 J0.000000
G03 X14.102272 Y3.340250 Z-1.000000 I0.050622 J0.050622
G03 X14.152894 Y3.361218 Z-1.000000 I-0.000000 J0.071590
G03 X14.173862 Y3.411840 Z-1.000000 I-0.050622 J0.050622
G00 Z5.000000

(End cutting path id: path2259)


(Start cutting path id: path2271)
(Change tool to Default tool)

G00 Z5.000000

G01 Z-1.000000 F100.0(Penetrate)
G03 X13.643231 Y3.854912 Z-1.000000 I-0.335535 J0.209562 F3500.000000
G03 X13.631261 Y4.002490 Z-1.000000 I-0.326388 J0.047801
G03 X13.451889 Y3.908530 Z-1.000000 I0.132397 J-0.252750
G03 X13.330209 Y3.659780 Z-1.000000 I3.553075 J-1.892184
G03 X13.317810 Y3.608716 Z-1.000000 I0.132265 J-0.059152
G03 X13.395983 Y3.549825 Z-1.000000 I0.058791 J-0.003290
G03 X13.587344 Y3.702676 Z-1.000000 I-0.121372 J0.348163
G00 Z5.000000

(End cutting path id: path2271)


(Start cutting path id: path2249)
(Change tool to Default tool)

G00 Z5.000000

G01 Z-1.000000 F100.0(Penetrate)
G03 X13.161316 Y3.350560 Z-1.000000 I0.062662 J-0.187950
G03 X13.113465 Y3.273136 Z-1.000000 I0.140052 J-0.140057
G03 X13.253533 Y3.258351 Z-1.000000 I-0.062662 J0.187950
G03 X13.301384 Y3.335775 Z-1.000000 I-0.140052 J0.140057
G00 Z5.000000

(End cutting path id: path2249)


(Start cutting path id: path2283)
(Change tool to Default tool)

G00 Z5.000000

G01 Z-1.000000 F100.0(Penetrate)
G03 X12.864315 Y4.249925 Z-1.000000 I-0.071590 J0.000000 F3500.000000
G03 X12.813689 Y4.270898 Z-1.000000 I-0.050626 J-0.050617
G03 X12.763072 Y4.249934 Z-1.000000 I0.000000 J-0.071590
G03 X12.742099 Y4.199308 Z-1.000000 I0.050617 J-0.050626
G03 X12.763063 Y4.148691 Z-1.000000 I0.071590 J0.000000
G03 X12.813689 Y4.127718 Z-1.000000 I0.050626 J0.050617
G03 X12.864306 Y4.148682 Z-1.000000 I-0.000000 J0.071590
G03 X12.885279 Y4.199308 Z-1.000000 I-0.050617 J0.050626
G00 Z5.000000

(End cutting path id: path2283)


(Start cutting path id: path2270)
(Change tool to Default tool)

G00 Z5.000000
G00 X11.883048 Y3.626606

G01 Z-1.000000 F100.0(Penetrate)
G03 X11.861487 Y3.676627 Z-1.000000 I-0.068805 J0.000000 F3500.000000
G03 X11.807238 Y3.698196 Z-1.000000 I-0.054249 J-0.057438
G03 X11.775668 Y3.626606 Z-1.000000 I0.048068 J-0.021195
G03 X11.825638 Y3.565288 Z-1.000000 I0.259045 J0.160086
G03 X11.883048 Y3.626606 Z-1.000000 I-0.134082 J0.059132
G00 Z5.000000

(End cutting path id: path2270)


(Start cutting path id: path2619)
(Change tool to Default tool)

G00 Z5.000000

G01 Z-1.000000 F100.0(Penetrate)
G02 X12.410782 Y5.935423 Z-1.000000 I0.071694 J-0.002923 F3500.000000
G02 X12.448378 Y5.841479 Z-1.000000 I-0.201028 J-0.080442
G02 X12.427365 Y5.793638 Z-1.000000 I-0.071702 J0.002959
G02 X12.389765 Y5.887598 Z-1.000000 I0.201088 J0.080471
G00 Z5.000000

(End cutting path id: path2619)


(Start cutting path id: path2618)
(Change tool to Default tool)

G00 Z5.000000

G01 Z-1.000000 F100.0(Penetrate)
G02 X12.130520 Y6.114294 Z-1.000000 I0.495503 J0.000000 F3500.000000
G02 X12.163264 Y5.989018 Z-1.000000 I-0.479264 J-0.125276
G02 X12.147161 Y5.863736 Z-1.000000 I-0.495408 J-0.000000
G02 X12.114421 Y5.989015 Z-1.000000 I0.479390 J0.125278
G00 Z5.000000

(End cutting path id: path2618)


(Start cutting path id: path2626)
(Change tool to Default tool)

G00 Z5.000000

G01 Z-1.000000 F100.0(Penetrate)
G02 X14.484244 Y6.381795 Z-1.000000 I2.717753 J-0.013450 F3500.000000
G02 X14.530697 Y6.740687 Z-1.000000 I5.668600 J-0.551254
G01 X14.588637 Y7.098626 Z-1.000000
G02 X14.561306 Y6.171830 Z-1.000000 I-5.135133 J0.036112
G02 X14.526157 Y6.024744 Z-1.000000 I-0.548921 J0.053433
G02 X14.471547 Y6.132189 Z-1.000000 I0.211858 J0.107684
G00 Z5.000000

(End cutting path id: path2626)


(Start cutting path id: path2591)
(Change tool to Default tool)

G00 Z5.000000

G01 Z-1.000000 F100.0(Penetrate)
G02 X15.140671 Y7.739229 Z-1.000000 I34.902007 J-0.773314 F3500.000000
G02 X15.178044 Y7.957676 Z-1.000000 I1.007949 J-0.060022
G02 X15.142644 Y5.500404 Z-1.000000 I-36.923172 J0.532044
G02 X15.087504 Y6.437335 Z-1.000000 I11.556609 J0.680128
G00 Z5.000000

(End cutting path id: path2591)


(Start cutting path id: path2622)
(Change tool to Default tool)

G00 Z5.000000

G01 Z-1.000000 F100.0(Penetrate)
G02 X14.844574 Y7.752632 Z-1.000000 I17.584962 J0.204634 F3500.000000
G02 X14.905710 Y7.009222 Z-1.000000 I-10.658477 J-0.469061
G02 X14.864847 Y6.788532 Z-1.000000 I-0.715962 J0.018439
G00 Z5.000000

(End cutting path id: path2622)


(Start cutting path id: path2638)
(Change tool to Default tool)

G00 Z5.000000

G01 Z-1.000000 F100.0(Penetrate)
G02 X15.451935 Y7.680352 Z-1.000000 I7.036153 J-0.102234 F3500.000000
G02 X15.537851 Y7.648658 Z-1.000000 I0.000761 J-0.056758
G02 X15.464936 Y6.812265 Z-1.000000 I-6.024117 J0.103797
G02 X15.417516 Y7.080000 Z-1.000000 I1.396174 J0.247280
G00 Z5.000000

(End cutting path id: path2638)


(Start cutting path id: path2601)
(Change tool to Default tool)

G00 Z5.000000

G01 Z-1.000000 F100.0(Penetrate)
G02 X15.739175 Y8.038325 Z-1.000000 I36.640694 J-0.226218 F3500.000000
G02 X15.834786 Y7.996541 Z-1.000000 I0.000374 J-0.067716
G02 X15.749617 Y5.953258 Z-1.000000 I-30.467814 J0.246560
G02 X15.704337 Y6.650944 Z-1.000000 I9.816822 J0.637154
G00 Z5.000000

(End cutting path id: path2601)


(Start cutting path id: path2639)
(Change tool to Default tool)

G00 Z5.000000

G01 Z-1.000000 F100.0(Penetrate)
G02 X16.069609 Y6.865655 Z-1.000000 I0.503534 J-0.002542 F3500.000000
G02 X16.100745 Y6.703742 Z-1.000000 I-0.817705 J-0.157205
G02 X16.084381 Y6.578769 Z-1.000000 I-0.504721 J0.002530
G02 X16.053251 Y6.740677 Z-1.000000 I0.817227 J0.157147
G00 Z5.000000

(End cutting path id: path2639)


(Start cutting path id: path2645)
(Change tool to Default tool)

G00 Z5.000000

G01 Z-1.000000 F100.0(Penetrate)
G02 X16.359571 Y7.331277 Z-1.000000 I2.580290 J-0.000000 F3500.000000
G02 X16.387646 Y7.062822 Z-1.000000 I-2.567183 J-0.268454
G02 X16.373648 Y6.794368 Z-1.000000 I-2.581181 J-0.000000
G02 X16.345568 Y7.062823 Z-1.000000 I2.566280 J0.268455
G00 Z5.000000

(End cutting path id: path2645)


(Start cutting path id: path2673)
(Change tool to Default tool)

G00 Z5.000000

G01 Z-1.000000 F100.0(Penetrate)
G02 X16.639759 Y7.545819 Z-1.000000 I0.246475 J-0.003130 F3500.000000
G02 X16.672750 Y7.419191 Z-1.000000 I-0.459015 J-0.119614
G02 X16.654757 Y7.329909 Z-1.000000 I-0.245587 J0.003038
G02 X16.621757 Y7.456550 Z-1.000000 I0.459045 J0.119631
G00 Z5.000000

(End cutting path id: path2673)


(Start cutting path id: path2676)
(Change tool to Default tool)

G00 Z5.000000

G01 Z-1.000000 F100.0(Penetrate)
G02 X16.926111 Y7.689029 Z-1.000000 I0.246475 J-0.003130 F3500.000000
G02 X16.959102 Y7.562402 Z-1.000000 I-0.459013 J-0.119614
G02 X16.941109 Y7.473120 Z-1.000000 I-0.245586 J0.003038
G02 X16.908109 Y7.599761 Z-1.000000 I0.459045 J0.119631
G00 Z5.000000

(End cutting path id: path2676)


(Start cutting path id: path2685)
(Change tool to Default tool)

G00 Z5.000000

G01 Z-1.000000 F100.0(Penetrate)
G02 X16.922880 Y8.154534 Z-1.000000 I0.239113 J-0.000000 F3500.000000
G02 X16.958989 Y8.065045 Z-1.000000 I-0.221782 J-0.089488
G02 X16.941616 Y7.975564 Z-1.000000 I-0.239121 J-0.000000
G02 X16.905506 Y8.065044 Z-1.000000 I0.221811 J0.089479
G00 Z5.000000

(End cutting path id: path2685)


(Start cutting path id: path2693)
(Change tool to Default tool)

G00 Z5.000000

G01 Z-1.000000 F100.0(Penetrate)
G02 X16.706058 Y8.584165 Z-1.000000 I0.071694 J-0.002923 F3500.000000
G02 X16.743654 Y8.490221 Z-1.000000 I-0.201028 J-0.080442
G02 X16.722641 Y8.442380 Z-1.000000 I-0.071702 J0.002959
G02 X16.685041 Y8.536340 Z-1.000000 I0.201088 J0.080471
G00 Z5.000000

(End cutting path id: path2693)


(Start cutting path id: path2694)
(Change tool to Default tool)

G00 Z5.000000

G01 Z-1.000000 F100.0(Penetrate)
G02 X15.775415 Y8.655755 Z-1.000000 I0.071694 J-0.002923 F3500.000000
G02 X15.813011 Y8.561811 Z-1.000000 I-0.201028 J-0.080442
G02 X15.791998 Y8.513969 Z-1.000000 I-0.071705 J0.002959
G02 X15.754398 Y8.607929 Z-1.000000 I0.201088 J0.080471
G00 Z5.000000

(End cutting path id: path2694)


(Start cutting path id: path2690)
(Change tool to Default tool)

G00 Z5.000000

G01 Z-1.000000 F100.0(Penetrate)
G02 X15.775415 Y8.369399 Z-1.000000 I0.071694 J-0.002923 F3500.000000
G02 X15.813011 Y8.275455 Z-1.000000 I-0.201028 J-0.080442
G02 X15.791998 Y8.227614 Z-1.000000 I-0.071702 J0.002959
G02 X15.754398 Y8.321574 Z-1.000000 I0.201088 J0.080471
G00 Z5.000000

(End cutting path id: path2690)


(Start cutting path id: path2696)
(Change tool to Default tool)

G00 Z5.000000

G01 Z-1.000000 F100.0(Penetrate)
G02 X15.202709 Y8.727343 Z-1.000000 I0.071698 J-0.002923 F3500.000000
G02 X15.240307 Y8.633398 Z-1.000000 I-0.201030 J-0.080443
G02 X15.219294 Y8.585557 Z-1.000000 I-0.071702 J0.002959
G02 X15.181694 Y8.679517 Z-1.000000 I0.201088 J0.080471
G00 Z5.000000

(End cutting path id: path2696)


(Start cutting path id: path2698)
(Change tool to Default tool)

G00 Z5.000000

G01 Z-1.000000 F100.0(Penetrate)
G02 X14.916360 Y8.942106 Z-1.000000 I0.071694 J-0.002923 F3500.000000
G02 X14.953956 Y8.848162 Z-1.000000 I-0.201028 J-0.080442
G02 X14.932943 Y8.800321 Z-1.000000 I-0.071702 J0.002959
G02 X14.895343 Y8.894281 Z-1.000000 I0.201088 J0.080471
G00 Z5.000000

(End cutting path id: path2698)


(Start cutting path id: path2500)
(Change tool to Default tool)

G00 Z5.000000

G01 Z-1.000000 F100.0(Penetrate)
G03 X14.537454 Y9.466985 Z-1.000000 I0.050773 J-0.050773
G03 X14.552776 Y9.377597 Z-1.000000 I0.216514 J-0.008894
G03 X14.596031 Y9.420854 Z-1.000000 I-0.050790 J0.050790
G03 X14.580754 Y9.510235 Z-1.000000 I-0.216777 J0.008945
G00 Z5.000000

(End cutting path id: path2500)


(Start cutting path id: path2501)
(Change tool to Default tool)

G00 Z5.000000

G01 Z-1.000000 F100.0(Penetrate)
G03 X14.537454 Y9.824924 Z-1.000000 I0.050773 J-0.050773
G03 X14.552775 Y9.735537 Z-1.000000 I0.216524 J-0.008895
G03 X14.596031 Y9.778793 Z-1.000000 I-0.050790 J0.050790
G03 X14.580754 Y9.868174 Z-1.000000 I-0.216777 J0.008945
G00 Z5.000000

(End cutting path id: path2501)


(Start cutting path id: path2502)
(Change tool to Default tool)

G00 Z5.000000
G00 X14.581411 Y10.265020

G01 Z-1.000000 F100.0(Penetrate)
G03 X14.545761 Y10.176900 Z-1.000000 I0.228176 J-0.092310
G03 X14.561048 Y10.051406 Z-1.000000 I0.473386 J-0.006012
G03 X14.596711 Y10.139537 Z-1.000000 I-0.228195 J0.092323
G03 X14.581461 Y10.265023 Z-1.000000 I-0.475511 J0.005883
G00 Z5.000000

(End cutting path id: path2502)


(Start cutting path id: path2505)
(Change tool to Default tool)

G00 Z5.000000

G01 Z-1.000000 F100.0(Penetrate)
G03 X14.537454 Y10.612392 Z-1.000000 I0.050773 J-0.050773
G03 X14.552776 Y10.523004 Z-1.000000 I0.216514 J-0.008894
G03 X14.596031 Y10.566261 Z-1.000000 I-0.050790 J0.050790
G03 X14.580754 Y10.655643 Z-1.000000 I-0.216783 J0.008945
G00 Z5.000000

(End cutting path id: path2505)


(Start cutting path id: path2508)
(Change tool to Default tool)

G00 Z5.000000

G01 Z-1.000000 F100.0(Penetrate)
G03 X15.430030 Y10.977374 Z-1.000000 I-0.044683 J0.027613 F3500.000000
G03 X15.340835 Y10.978597 Z-1.000000 I-0.000000 J-0.079008
G03 X15.319270 Y10.928571 Z-1.000000 I0.047240 J-0.050026
G03 X15.331730 Y10.869439 Z-1.000000 I0.146542 J0.000000
G03 X15.426650 Y10.928571 Z-1.000000 I-0.208877 J0.221244
G00 Z5.000000

(End cutting path id: path2508)


(Start cutting path id: path2504)
(Change tool to Default tool)

G00 Z5.000000

G01 Z-1.000000 F100.0(Penetrate)
G03 X15.727231 Y10.477480 Z-1.000000 I-0.068805 J-0.000000 F3500.000000
G03 X15.672986 Y10.499045 Z-1.000000 I-0.054245 J-0.057443
G03 X15.641416 Y10.427455 Z-1.000000 I0.048063 J-0.021190
G03 X15.691386 Y10.366137 Z-1.000000 I0.259045 J0.160086
G03 X15.748796 Y10.427455 Z-1.000000 I-0.134082 J0.059132
G00 Z5.000000

(End cutting path id: path2504)


(Start cutting path id: path2506)
(Change tool to Default tool)

G00 Z5.000000

G01 Z-1.000000 F100.0(Penetrate)
G03 X16.288892 Y10.878482 Z-1.000000 I-0.217557 J0.000000 F3500.000000
G03 X16.206927 Y10.802262 Z-1.000000 I0.101746 J-0.101746
G03 X16.219430 Y10.689984 Z-1.000000 I0.221157 J-0.032208
G03 X16.321500 Y10.763914 Z-1.000000 I-0.065568 J0.090525
G00 Z5.000000

(End cutting path id: path2506)


(Start cutting path id: path2509)
(Change tool to Default tool)

G00 Z5.000000

G01 Z-1.000000 F100.0(Penetrate)
G03 X16.218724 Y11.092733 Z-1.000000 I0.175848 J-0.177170
G03 X16.316235 Y11.141004 Z-1.000000 I-0.175913 J0.177217
G00 Z5.000000

(End cutting path id: path2509)


(Start cutting path id: path2503)
(Change tool to Default tool)

G00 Z5.000000

G01 Z-1.000000 F100.0(Penetrate)
G03 X15.982319 Y10.856983 Z-1.000000 I3.864464 J-0.415416
G03 X16.006841 Y10.605421 Z-1.000000 I1.348173 J0.004441
G03 X16.053017 Y11.034946 Z-1.000000 I-3.865300 J0.415425
G03 X16.028479 Y11.286510 Z-1.000000 I-1.348366 J-0.004542
G00 Z5.000000

(End cutting path id: path2503)


(Start cutting path id: path2510)
(Change tool to Default tool)

G00 Z5.000000

G01 Z-1.000000 F100.0(Penetrate)
G03 X15.661522 Y11.318545 Z-1.000000 I0.801131 J-0.145685
G03 X15.739065 Y11.580168 Z-1.000000 I-1.934867 J0.158899
G03 X15.717752 Y11.627769 Z-1.000000 I-0.073045 J-0.004133
G00 Z5.000000

(End cutting path id: path2510)


(Start cutting path id: path2515)
(Change tool to Default tool)

G00 Z5.000000

G01 Z-1.000000 F100.0(Penetrate)
G03 X15.986476 Y12.217149 Z-1.000000 I1.875033 J-0.232661
G03 X16.000855 Y11.984488 Z-1.000000 I1.889432 J-0.000000
G03 X16.029727 Y12.217150 Z-1.000000 I-1.874833 J0.232662
G03 X16.015346 Y12.449810 Z-1.000000 I-1.889185 J0.000000
G00 Z5.000000

(End cutting path id: path2515)


(Start cutting path id: path2522)
(Change tool to Default tool)

G00 Z5.000000

G01 Z-1.000000 F100.0(Penetrate)
G03 X15.682861 Y12.688441 Z-1.000000 I0.050773 J-0.050773
G03 X15.698183 Y12.599053 Z-1.000000 I0.216512 J-0.008893
G03 X15.741438 Y12.642310 Z-1.000000 I-0.050790 J0.050790
G03 X15.726161 Y12.731691 Z-1.000000 I-0.216777 J0.008945
G00 Z5.000000

(End cutting path id: path2522)


(Start cutting path id: path2536)
(Change tool to Default tool)

G00 Z5.000000
G00 X14.988758 Y14.061102

G01 Z-1.000000 F100.0(Penetrate)
G03 X14.895203 Y14.182767 Z-1.000000 I-0.150100 J-0.018618 F3500.000000
G03 X14.791802 Y14.140492 Z-1.000000 I-0.029957 J-0.074320
G03 X14.583005 Y14.207165 Z-1.000000 I-0.074565 J-0.001823
G03 X14.474744 Y14.070390 Z-1.000000 I0.049410 J-0.150342
G03 X14.538413 Y13.897730 Z-1.000000 I0.215621 J-0.018557
G03 X14.737301 Y13.811497 Z-1.000000 I0.210854 J0.213837
G00 Z5.000000

(End cutting path id: path2536)


(Start cutting path id: path2535)
(Change tool to Default tool)

G00 Z5.000000

G01 Z-1.000000 F100.0(Penetrate)
G03 X14.274048 Y14.103329 Z-1.000000 I-0.072831 J0.000000 F3500.000000
G03 X14.186651 Y14.017112 Z-1.000000 I0.007819 J-0.095331
G03 X14.208384 Y13.832972 Z-1.000000 I0.436807 J-0.041799
G03 X14.318912 Y13.864296 Z-1.000000 I-0.031755 J0.095282
G03 X14.352831 Y14.030746 Z-1.000000 I-0.391453 J0.166450
G00 Z5.000000

(End cutting path id: path2535)


(Start cutting path id: path2534)
(Change tool to Default tool)

G00 Z5.000000

G01 Z-1.000000 F100.0(Penetrate)
G03 X13.960670 Y14.113609 Z-1.000000 I-0.083537 J-0.006043 F3500.000000
G03 X13.852936 Y14.018112 Z-1.000000 I0.011027 J-0.120958
G03 X13.866463 Y13.843157 Z-1.000000 I0.301663 J-0.064678
G03 X13.934056 Y13.806153 Z-1.000000 I0.055568 J0.021267
G03 X14.018059 Y13.870098 Z-1.000000 I-0.024676 J0.119566
G03 X14.051809 Y14.036245 Z-1.000000 I-0.280253 J0.143429
G00 Z5.000000

(End cutting path id: path2534)


(Start cutting path id: path2531)
(Change tool to Default tool)

G00 Z5.000000

G01 Z-1.000000 F100.0(Penetrate)
G03 X13.579104 Y13.801957 Z-1.000000 I0.502543 J-0.214013
G03 X13.680320 Y13.770963 Z-1.000000 I0.058839 J0.011385
G03 X13.723517 Y13.856413 Z-1.000000 I-0.108487 J0.108487
G03 X13.728350 Y14.087182 Z-1.000000 I-0.881667 J0.133898
G00 Z5.000000

(End cutting path id: path2531)


(Start cutting path id: path2533)
(Change tool to Default tool)

G00 Z5.000000

G01 Z-1.000000 F100.0(Penetrate)
G03 X13.364047 Y14.094041 Z-1.000000 I-0.082097 J0.000000 F3500.000000
G03 X13.256361 Y13.983422 Z-1.000000 I0.018293 J-0.125533
G03 X13.280499 Y13.833655 Z-1.000000 I0.274854 J-0.032531
G03 X13.345841 Y13.792076 Z-1.000000 I0.065342 J0.030554
G03 X13.415333 Y13.834716 Z-1.000000 I0.000000 J0.077946
G03 X13.457978 Y14.012805 Z-1.000000 I-0.350530 J0.178089
G00 Z5.000000

(End cutting path id: path2533)


(Start cutting path id: path2532)
(Change tool to Default tool)

G00 Z5.000000

G01 Z-1.000000 F100.0(Penetrate)
G03 X13.095019 Y14.141262 Z-1.000000 I-0.156300 J0.000000 F3500.000000
G03 X13.000320 Y14.108329 Z-1.000000 I-0.033449 J-0.056439
G03 X12.979643 Y13.861256 Z-1.000000 I0.414596 J-0.159098
G03 X13.064250 Y13.792039 Z-1.000000 I0.084607 J0.017100
G03 X13.130617 Y13.833057 Z-1.000000 I-0.000000 J0.074200
G03 X13.171631 Y14.006802 Z-1.000000 I-0.347497 J0.173742
G00 Z5.000000

(End cutting path id: path2532)


(Start cutting path id: path2530)
(Change tool to Default tool)

G00 Z5.000000

G01 Z-1.000000 F100.0(Penetrate)
G03 X12.760634 Y14.090845 Z-1.000000 I-0.169374 J-0.016728 F3500.000000
G03 X12.650223 Y14.028096 Z-1.000000 I-0.028473 J-0.078413
G03 X12.677372 Y13.791533 Z-1.000000 I0.391736 J-0.074882
G03 X12.786658 Y13.720447 Z-1.000000 I0.109286 J0.048464
G03 X12.847688 Y13.762727 Z-1.000000 I0.000000 J0.065188
G03 X12.871918 Y13.947594 Z-1.000000 I-0.384876 J0.144466
G00 Z5.000000

(End cutting path id: path2530)


(Start cutting path id: path2529)
(Change tool to Default tool)

G00 Z5.000000

G01 Z-1.000000 F100.0(Penetrate)
G03 X12.495068 Y14.172133 Z-1.000000 I-0.533395 J-0.000000 F3500.000000
G03 X12.407859 Y14.128317 Z-1.000000 I0.062057 J-0.100419
G03 X12.384160 Y14.002572 Z-1.000000 I0.321755 J-0.125745
G02 X12.353988 Y13.893800 Z-1.000000 I-0.211152 J0.000000
G02 X12.300640 Y13.863621 Z-1.000000 I-0.053348 J0.032063
G02 X12.261219 Y13.881886 Z-1.000000 I0.000000 J0.051672
G03 X12.277882 Y13.958420 Z-1.000000 I-0.039676 J0.039676
G03 X12.227220 Y14.104101 Z-1.000000 I-0.485218 J-0.087090
G03 X12.153004 Y14.151776 Z-1.000000 I-0.079884 J-0.042751
G03 X12.091594 Y14.112601 Z-1.000000 I-0.003865 J-0.061662
G03 X12.103713 Y13.845400 Z-1.000000 I0.307019 J-0.119950
G03 X12.276775 Y13.741738 Z-1.000000 I0.167749 J0.083761
G03 X12.455871 Y13.818313 Z-1.000000 I-0.007559 J0.265404
G03 X12.527333 Y13.989435 Z-1.000000 I-0.169151 J0.171122
G00 Z5.000000

(End cutting path id: path2529)


(Start cutting path id: path2528)
(Change tool to Default tool)

G00 Z5.000000
G00 X11.954636 Y13.979816

G01 Z-1.000000 F100.0(Penetrate)
G03 X11.908235 Y14.140327 Z-1.000000 I-0.300821 J-0.000000 F3500.000000
G03 X11.770827 Y14.046360 Z-1.000000 I0.171120 J-0.206168
G03 X11.739872 Y13.890697 Z-1.000000 I0.375910 J-0.155663
G03 X11.778041 Y13.758663 Z-1.000000 I0.247449 J0.000000
G03 X11.847254 Y13.720493 Z-1.000000 I0.069213 J0.043666
G03 X11.911623 Y13.763508 Z-1.000000 I-0.000000 J0.069669
G03 X11.954636 Y13.979816 Z-1.000000 I-0.522385 J0.216308
G00 Z5.000000

(End cutting path id: path2528)


(Start cutting path id: path2527)
(Change tool to Default tool)

G00 Z5.000000

G01 Z-1.000000 F100.0(Penetrate)
G03 X11.630029 Y14.111774 Z-1.000000 I-0.250522 J0.000000 F3500.000000
G03 X11.560903 Y14.150027 Z-1.000000 I-0.069126 J-0.043331
G03 X11.494415 Y14.109128 Z-1.000000 I0.000000 J-0.074493
G03 X11.453521 Y13.937510 Z-1.000000 I0.339663 J-0.171618
G03 X11.496600 Y13.787669 Z-1.000000 I0.282133 J0.000000
G03 X11.560903 Y13.766199 Z-1.000000 I0.045194 J0.028328
G03 X11.633208 Y13.831514 Z-1.000000 I-0.048474 J0.126341
G03 X11.668285 Y13.978716 Z-1.000000 I-0.291332 J0.147202
G00 Z5.000000

(End cutting path id: path2527)


(Start cutting path id: path2526)
(Change tool to Default tool)

G00 Z5.000000

G01 Z-1.000000 F100.0(Penetrate)
G02 X11.129099 Y13.824641 Z-1.000000 I0.037333 J-0.040222 F3500.000000
G03 X11.234536 Y13.720505 Z-1.000000 I0.088261 J0.095557
G03 X11.331094 Y13.771346 Z-1.000000 I-0.000000 J0.117114
G03 X11.381937 Y13.935268 Z-1.000000 I-0.238831 J0.163922
G03 X11.296399 Y14.073195 Z-1.000000 I-0.153971 J0.000000
G03 X11.188653 Y14.031168 Z-1.000000 I-0.034750 J-0.070039
G02 X11.078584 Y14.084858 Z-1.000000 I0.057091 J0.117049
G03 X10.999439 Y14.152337 Z-1.000000 I-0.100268 J-0.037450
G03 X10.911682 Y14.118458 Z-1.000000 I-0.017280 J-0.085838
G03 X10.896732 Y13.838894 Z-1.000000 I0.205015 J-0.151145
G03 X11.091770 Y13.809995 Z-1.000000 I0.109097 J0.063693
G00 Z5.000000

(End cutting path id: path2526)


(Start cutting path id: path2524)
(Change tool to Default tool)

G00 Z5.000000

G01 Z-1.000000 F100.0(Penetrate)
G03 X10.900319 Y13.076208 Z-1.000000 I0.836355 J-0.161073
G03 X10.915688 Y12.915135 Z-1.000000 I0.851734 J0.000000
G03 X10.946707 Y13.076208 Z-1.000000 I-0.836428 J0.161073
G03 X10.931339 Y13.237281 Z-1.000000 I-0.851796 J-0.000000
G00 Z5.000000

(End cutting path id: path2524)


(Start cutting path id: path2712)
(Change tool to Default tool)

G00 Z5.000000

G01 Z-1.000000 F100.0(Penetrate)
G03 X12.158821 Y12.324927 Z-1.000000 I-17.965143 J1.398696 F3500.000000
G03 X12.168976 Y12.768095 Z-1.000000 I-10.098469 J0.453113
G02 X14.093504 Y12.454232 Z-1.000000 I-9.135818 J0.002736
G02 X14.055769 Y11.798630 Z-1.000000 I-24.550211 J1.084170
G00 Z5.000000

(End cutting path id: path2712)


(Start cutting path id: path2720)
(Change tool to Default tool)

G00 Z5.000000

G01 Z-1.000000 F100.0(Penetrate)
G02 X13.604839 Y13.428657 Z-1.000000 I0.303268 J-3.377231 F3500.000000
G02 X13.871505 Y13.414597 Z-1.000000 I-0.002103 J-2.575752
G02 X13.565364 Y13.387097 Z-1.000000 I-0.303239 J3.375712
G02 X13.298698 Y13.401160 Z-1.000000 I0.002126 J2.575552
G00 Z5.000000

(End cutting path id: path2720)


(Start cutting path id: path2725)
(Change tool to Default tool)

G00 Z5.000000

G01 Z-1.000000 F100.0(Penetrate)
G03 X11.804715 Y15.710255 Z-1.000000 I-0.324566 J-0.124546 F3500.000000
G03 X11.511687 Y15.505729 Z-1.000000 I-0.009071 J-0.299180
G02 X11.461411 Y15.467771 Z-1.000000 I-0.052740 J0.017580
G02 X10.931131 Y15.479979 Z-1.000000 I-0.174654 J3.936441
G02 X10.413498 Y15.543900 Z-1.000000 I0.724287 J7.993097
G02 X10.445498 Y15.579429 Z-1.000000 I0.042598 J-0.042598
G02 X11.179067 Y15.622469 Z-1.000000 I1.460747 J-18.623933
G03 X11.918803 Y15.652218 Z-1.000000 I-11.452443 J293.988825
G03 X12.777897 Y15.688789 Z-1.000000 I-16.319255 J393.465012
G02 X16.556174 Y15.802023 Z-1.000000 I6.031486 J-138.160878
G02 X16.607746 Y15.751199 Z-1.000000 I0.000827 J-0.050738
G01 X16.578437 Y15.718000 Z-1.000000
G02 X16.052939 Y15.680909 Z-1.000000 I-0.596239 J4.706221
G03 X14.190708 Y15.615620 Z-1.000000 I0.688078 J-46.216591
G03 X14.012789 Y15.568172 Z-1.000000 I0.024905 J-0.450693
G02 X13.911888 Y15.544683 Z-1.000000 I-0.099003 J0.196818
G03 X13.751643 Y15.700541 Z-1.000000 I-0.131347 J0.000000
G03 X13.245017 Y15.547152 Z-1.000000 I0.035484 J-1.030556
G02 X13.165722 Y15.517138 Z-1.000000 I-0.116953 J0.189228
G02 X12.663047 Y15.447182 Z-1.000000 I-1.350127 J7.860474
G02 X12.183393 Y15.439326 Z-1.000000 I-0.283322 J2.651734
G02 X12.118745 Y15.487362 Z-1.000000 I0.005534 J0.074969
G01 X12.118745 Y15.487319 Z-1.000000
G00 Z5.000000

(End cutting path id: path2725)


(Start cutting path id: path2726)
(Change tool to Default tool)

G00 Z5.000000

G01 Z-1.000000 F100.0(Penetrate)
G02 X10.240885 Y15.574412 Z-1.000000 I0.080443 J-0.201030 F3500.000000
G02 X10.288726 Y15.553399 Z-1.000000 I-0.002959 J-0.071702
G02 X10.194766 Y15.515799 Z-1.000000 I-0.080471 J0.201088
G02 X10.146941 Y15.536764 Z-1.000000 I0.002923 J0.071698
G00 Z5.000000

(End cutting path id: path2726)


(Start cutting path id: path2724)
(Change tool to Default tool)

G00 Z5.000000
G00 X6.639233 Y15.447969

G01 Z-1.000000 F100.0(Penetrate)
G02 X6.591795 Y15.548031 Z-1.000000 I0.132601 J0.124140 F3500.000000
G02 X6.704073 Y15.557141 Z-1.000000 I0.000000 J-0.151204
G02 X6.728718 Y15.511586 Z-1.000000 I-0.029781 J-0.045555
G03 X7.014343 Y15.229316 Z-1.000000 I0.282290 J0.000000
G03 X9.784714 Y15.547756 Z-1.000000 I-0.160820 J13.609191
G02 X9.928834 Y15.552623 Z-1.000000 I0.085192 J-0.386401
G02 X9.981049 Y15.518156 Z-1.000000 I-0.011080 J-0.073568
G01 X9.964489 Y15.484872 Z-1.000000
G02 X9.186311 Y15.443326 Z-1.000000 I-0.901098 J9.569443
G03 X8.356616 Y15.416519 Z-1.000000 I0.274465 J-21.348410
G03 X8.294377 Y15.397086 Z-1.000000 I0.006791 J-0.131131
G02 X8.232198 Y15.376891 Z-1.000000 I-0.072436 J0.117209
G02 X7.500672 Y15.337836 Z-1.000000 I-1.288150 J17.257207
G02 X6.788358 Y15.371714 Z-1.000000 I-0.144049 J4.476675
G02 X6.639233 Y15.447969 Z-1.000000 I0.031376 J0.245303
G01 X6.639233 Y15.447969 Z-1.000000
G00 Z5.000000

(End cutting path id: path2724)


(Start cutting path id: path2736)
(Change tool to Default tool)

G00 Z5.000000
G00 X10.888004 Y23.259590

G01 Z-1.000000 F100.0(Penetrate)
G02 X11.067056 Y23.576457 Z-1.000000 I2.573342 J-1.245097 F3500.000000
G02 X11.109845 Y23.599632 Z-1.000000 I0.042789 J-0.027914
G02 X10.984099 Y23.264635 Z-1.000000 I-1.317162 J0.494401
G02 X10.911754 Y23.223856 Z-1.000000 I-0.077193 J0.052385
G00 Z5.000000

(End cutting path id: path2736)


(Start cutting path id: path2737)
(Change tool to Default tool)

G00 Z5.000000
G00 X14.375202 Y23.791711

G01 Z-1.000000 F100.0(Penetrate)
G02 X14.464571 Y23.807024 Z-1.000000 I0.080442 J-0.201028 F3500.000000
G02 X14.512412 Y23.786011 Z-1.000000 I-0.002959 J-0.071702
G02 X14.418452 Y23.748411 Z-1.000000 I-0.080471 J0.201088
G02 X14.370627 Y23.769378 Z-1.000000 I0.002923 J0.071694
G00 Z5.000000

(End cutting path id: path2737)


(Start cutting path id: path2739)
(Change tool to Default tool)

G00 Z5.000000

G01 Z-1.000000 F100.0(Penetrate)
G02 X16.179464 Y24.309522 Z-1.000000 I0.157206 J-0.817710 F3500.000000
G02 X16.304436 Y24.293158 Z-1.000000 I-0.002530 J-0.504710
G02 X16.142529 Y24.262028 Z-1.000000 I-0.157146 J0.817219
G02 X16.017549 Y24.278439 Z-1.000000 I0.002541 J0.503469
G00 Z5.000000

(End cutting path id: path2739)


(Start cutting path id: path2738)
(Change tool to Default tool)

G00 Z5.000000
G00 X22.464637 Y24.221238

G01 Z-1.000000 F100.0(Penetrate)
G02 X22.554006 Y24.236551 Z-1.000000 I0.080442 J-0.201028 F3500.000000
G02 X22.601847 Y24.215538 Z-1.000000 I-0.002959 J-0.071702
G02 X22.507887 Y24.177938 Z-1.000000 I-0.080471 J0.201088
G02 X22.460062 Y24.198905 Z-1.000000 I0.002923 J0.071694
G00 Z5.000000

(End cutting path id: path2738)


(Start cutting path id: path2740)
(Change tool to Default tool)

G00 Z5.000000

G01 Z-1.000000 F100.0(Penetrate)
G02 X24.514595 Y24.342828 Z-1.000000 I0.030347 J-0.072699
G02 X24.581373 Y24.279308 Z-1.000000 I-0.043006 J-0.112073
G02 X24.500393 Y24.260814 Z-1.000000 I0.000000 J0.107854
G02 X24.447235 Y24.314698 Z-1.000000 I0.091115 J0.143049
G00 Z5.000000

(End cutting path id: path2740)


(Start cutting path id: path2741)
(Change tool to Default tool)

G00 Z5.000000
G00 X26.236426 Y24.387108

G01 Z-1.000000 F100.0(Penetrate)
G02 X26.233046 Y24.435911 Z-1.000000 I0.044683 J0.027613 F3500.000000
G02 X26.322241 Y24.437134 Z-1.000000 I0.000000 J-0.079008
G02 X26.343806 Y24.387108 Z-1.000000 I-0.047240 J-0.050026
G02 X26.331346 Y24.327976 Z-1.000000 I-0.146542 J-0.000000
G02 X26.236426 Y24.387108 Z-1.000000 I0.208877 J0.221244
G00 Z5.000000

(End cutting path id: path2741)


(Start cutting path id: path2733)
(Change tool to Default tool)

G00 Z5.000000
G00 X33.910318 Y21.805843

G01 Z-1.000000 F100.0(Penetrate)
G02 X33.967060 Y21.929502 Z-1.000000 I0.379210 J-0.099156 F3500.000000
G02 X34.012068 Y21.953110 Z-1.000000 I0.045008 J-0.031099
G02 X34.061696 Y21.893557 Z-1.000000 I0.000000 J-0.050455
G02 X33.973558 Y21.743021 Z-1.000000 I-0.251313 J0.046072
G02 X33.910318 Y21.805841 Z-1.000000 I0.044471 J0.044770
G00 Z5.000000

(End cutting path id: path2733)


(Start cutting path id: path2734)
(Change tool to Default tool)

G00 Z5.000000

G01 Z-1.000000 F100.0(Penetrate)
G02 X34.012486 Y22.168746 Z-1.000000 I0.297875 J0.393724 F3500.000000
G02 X34.182291 Y22.096725 Z-1.000000 I-0.346521 J-0.542506
G02 X34.116331 Y22.062025 Z-1.000000 I-0.025677 J0.048809
G00 Z5.000000

(End cutting path id: path2734)


(Start cutting path id: path2735)
(Change tool to Default tool)

G00 Z5.000000

G01 Z-1.000000 F100.0(Penetrate)
G02 X34.151481 Y22.521486 Z-1.000000 I0.317843 J0.121998 F3500.000000
G02 X34.164086 Y22.612937 Z-1.000000 I0.249706 J0.012177
G02 X34.232496 Y22.507916 Z-1.000000 I-0.253324 J-0.165053
G02 X34.214030 Y22.411956 Z-1.000000 I-0.129574 J-0.024822
G00 Z5.000000

(End cutting path id: path2735)


(Start cutting path id: path2732)
(Change tool to Default tool)

G00 Z5.000000

G01 Z-1.000000 F100.0(Penetrate)
G02 X33.754659 Y21.183540 Z-1.000000 I1.889432 J0.000000 F3500.000000
G02 X33.783531 Y20.950879 Z-1.000000 I-1.874826 J-0.232661
G02 X33.769150 Y20.718218 Z-1.000000 I-1.889207 J0.000000
G02 X33.740280 Y20.950879 Z-1.000000 I1.875033 J0.232661
G00 Z5.000000

(End cutting path id: path2732)


(Start cutting path id: path2731)
(Change tool to Default tool)

G00 Z5.000000

G01 Z-1.000000 F100.0(Penetrate)
G02 X33.415474 Y20.305339 Z-1.000000 I2.416948 J0.192167 F3500.000000
G02 X33.443283 Y20.432845 Z-1.000000 I0.403934 J-0.021313
G02 X33.497563 Y20.109721 Z-1.000000 I-2.045674 J-0.343664
G02 X33.459846 Y19.975600 Z-1.000000 I-0.247504 J-0.002761
G00 Z5.000000

(End cutting path id: path2731)


(Start cutting path id: path2730)
(Change tool to Default tool)

G00 Z5.000000

G01 Z-1.000000 F100.0(Penetrate)
G02 X34.065989 Y19.353882 Z-1.000000 I-0.795709 J-1.014514
G02 X33.923000 Y19.429637 Z-1.000000 I0.275463 J0.427038
G00 Z5.000000

(End cutting path id: path2730)


(Start cutting path id: path2729)
(Change tool to Default tool)

G00 Z5.000000
G00 X33.885679 Y16.642738

G01 Z-1.000000 F100.0(Penetrate)
G02 X33.549277 Y16.937700 Z-1.000000 I0.462194 J0.866441 F3500.000000
G02 X33.387352 Y17.339112 Z-1.000000 I0.747452 J0.534879
G02 X33.543118 Y17.437014 Z-1.000000 I0.099474 J0.014598
G02 X34.229754 Y16.769884 Z-1.000000 I-1.524366 J-2.255859
G02 X34.261344 Y16.587355 Z-1.000000 I-0.172350 J-0.123827
G02 X34.157134 Y16.517459 Z-1.000000 I-0.093620 J0.026948
G02 X34.113297 Y16.529646 Z-1.000000 I0.015595 J0.141026
G02 X33.885683 Y16.642738 Z-1.000000 I1.840417 J3.989724
G00 Z5.000000

(End cutting path id: path2729)


(Start cutting path id: path2723)
(Change tool to Default tool)

G00 Z5.000000

G01 Z-1.000000 F100.0(Penetrate)
G02 X35.736028 Y14.762539 Z-1.000000 I1.488136 J0.605226 F3500.000000
G02 X35.650017 Y15.152258 Z-1.000000 I5.407648 J1.397818
G03 X35.431049 Y16.237548 Z-1.000000 I-30.925105 J-5.674702
G03 X34.862014 Y18.731654 Z-1.000000 I-163.978632 J-36.100091
G02 X34.658084 Y19.628011 Z-1.000000 I54.368728 J12.840806
G02 X34.595647 Y19.948649 Z-1.000000 I6.891457 J1.508350
G01 X34.540627 Y20.270795 Z-1.000000
G02 X34.452137 Y20.306589 Z-1.000000 I6.534070 J0.577359
G03 X35.013690 Y18.669973 Z-1.000000 I311.779572 J65.635340
G03 X35.544903 Y16.236152 Z-1.000000 I633.366130 J136.965493
G02 X35.855719 Y14.573857 Z-1.000000 I-25.833635 J-5.690581
G01 X35.803260 Y14.559362 Z-1.000000
G00 Z5.000000

(End cutting path id: path2723)


(Start cutting path id: path2722)
(Change tool to Default tool)

G00 Z5.000000

G01 Z-1.000000 F100.0(Penetrate)
G02 X36.184062 Y14.418482 Z-1.000000 I0.495501 J0.000000 F3500.000000
G02 X36.216806 Y14.293207 Z-1.000000 I-0.479260 J-0.125275
G02 X36.200703 Y14.167924 Z-1.000000 I-0.495418 J0.000000
G02 X36.167963 Y14.293203 Z-1.000000 I0.479390 J0.125278
G00 Z5.000000

(End cutting path id: path2722)


(Start cutting path id: path2717)
(Change tool to Default tool)

G00 Z5.000000

G01 Z-1.000000 F100.0(Penetrate)
G02 X36.945906 Y12.796893 Z-1.000000 I0.153904 J0.095113 F3500.000000
G02 X37.035112 Y12.757151 Z-1.000000 I-0.154367 J-0.154661
G00 Z5.000000

(End cutting path id: path2717)


(Start cutting path id: path2719)
(Change tool to Default tool)

G00 Z5.000000

G01 Z-1.000000 F100.0(Penetrate)
G02 X34.035789 Y12.960346 Z-1.000000 I0.030347 J-0.072699
G02 X34.102567 Y12.896826 Z-1.000000 I-0.043006 J-0.112074
G02 X34.021583 Y12.878336 Z-1.000000 I-0.000000 J0.107844
G02 X33.968429 Y12.932216 Z-1.000000 I0.091166 J0.143098
G00 Z5.000000

(End cutting path id: path2719)


(Start cutting path id: path2716)
(Change tool to Default tool)

G00 Z5.000000

G01 Z-1.000000 F100.0(Penetrate)
G02 X33.842641 Y12.441123 Z-1.000000 I0.028020 J-0.052891
G02 X33.963388 Y12.330018 Z-1.000000 I-0.153376 J-0.287852
G02 X33.886518 Y12.306665 Z-1.000000 I0.000000 J0.091451
G02 X33.779818 Y12.407847 Z-1.000000 I0.358780 J0.485195
G00 Z5.000000

(End cutting path id: path2716)


(Start cutting path id: path2718)
(Change tool to Default tool)

G00 Z5.000000

G01 Z-1.000000 F100.0(Penetrate)
G02 X33.383872 Y13.051757 Z-1.000000 I0.152885 J0.000000 F3500.000000
G02 X33.428765 Y13.076208 Z-1.000000 I0.044893 J-0.028987
G02 X33.456895 Y12.968826 Z-1.000000 I-0.129933 J-0.034040
G02 X33.408023 Y12.872591 Z-1.000000 I-0.487464 J0.187029
G02 X33.359425 Y12.968826 Z-1.000000 I0.363101 J0.095129
G00 Z5.000000

(End cutting path id: path2718)


(Start cutting path id: path2715)
(Change tool to Default tool)

G00 Z5.000000
G00 X31.328118 Y12.274262

G01 Z-1.000000 F100.0(Penetrate)
G02 X31.317556 Y12.331241 Z-1.000000 I0.068121 J0.042096 F3500.000000
G02 X31.358588 Y12.435335 Z-1.000000 I0.293293 J-0.055478
G02 X31.425448 Y12.378225 Z-1.000000 I-0.054120 J-0.063361
G02 X31.382650 Y12.268822 Z-1.000000 I-0.158541 J-0.001053
G00 Z5.000000

(End cutting path id: path2715)


(Start cutting path id: path2517)
(Change tool to Default tool)

G00 Z5.000000

G01 Z-1.000000 F100.0(Penetrate)
G03 X30.859501 Y12.115732 Z-1.000000 I0.050773 J-0.050773
G03 X30.874823 Y12.026344 Z-1.000000 I0.216512 J-0.008893
G03 X30.918078 Y12.069601 Z-1.000000 I-0.050790 J0.050790
G03 X30.902801 Y12.158982 Z-1.000000 I-0.216777 J0.008945
G00 Z5.000000

(End cutting path id: path2517)


(Start cutting path id: path2520)
(Change tool to Default tool)

G00 Z5.000000

G01 Z-1.000000 F100.0(Penetrate)
G03 X30.873350 Y12.646649 Z-1.000000 I0.836355 J-0.161073
G03 X30.888719 Y12.485576 Z-1.000000 I0.851734 J-0.000000
G03 X30.919738 Y12.646648 Z-1.000000 I-0.836423 J0.161072
G03 X30.904370 Y12.807722 Z-1.000000 I-0.851810 J0.000000
G00 Z5.000000

(End cutting path id: path2520)


(Start cutting path id: path2521)
(Change tool to Default tool)

G00 Z5.000000
G00 X28.419858 Y12.619305

G01 Z-1.000000 F100.0(Penetrate)
G03 X28.393074 Y12.678642 Z-1.000000 I-0.079119 J0.000000 F3500.000000
G03 X28.298079 Y12.626272 Z-1.000000 I0.069694 J-0.112776
G03 X28.276678 Y12.530819 Z-1.000000 I0.202165 J-0.095453
G03 X28.303462 Y12.471482 Z-1.000000 I0.079119 J0.000000
G03 X28.398457 Y12.523852 Z-1.000000 I-0.069694 J0.112776
G03 X28.419858 Y12.619305 Z-1.000000 I-0.202165 J0.095453
G00 Z5.000000

(End cutting path id: path2521)


(Start cutting path id: path2563)
(Change tool to Default tool)

G00 Z5.000000

G01 Z-1.000000 F100.0(Penetrate)
G03 X27.908576 Y14.378618 Z-1.000000 I-0.129656 J0.080119 F3500.000000
G03 X27.884420 Y14.632937 Z-1.000000 I-1.414622 J-0.006056
G03 X27.791817 Y14.661670 Z-1.000000 I-0.053897 J-0.010111
G03 X27.705122 Y14.454275 Z-1.000000 I0.208044 J-0.208784
G03 X27.783298 Y14.282143 Z-1.000000 I0.226198 J-0.001087
G03 X27.885867 Y14.297847 Z-1.000000 I0.044596 J0.051533
G00 Z5.000000

(End cutting path id: path2563)


(Start cutting path id: path2560)
(Change tool to Default tool)

G00 Z5.000000

G01 Z-1.000000 F100.0(Penetrate)
G03 X27.596185 Y14.291343 Z-1.000000 I-0.057519 J0.090685 F3500.000000
G03 X27.590732 Y14.644413 Z-1.000000 I-1.512078 J0.153226
G03 X27.491639 Y14.694278 Z-1.000000 I-0.066535 J-0.008827
G03 X27.377025 Y14.525864 Z-1.000000 I0.109797 J-0.197930
G03 X27.429317 Y14.242142 Z-1.000000 I0.464408 J-0.061086
G03 X27.546861 Y14.211484 Z-1.000000 I0.073066 J0.039472
G00 Z5.000000

(End cutting path id: path2560)


(Start cutting path id: path2559)
(Change tool to Default tool)

G00 Z5.000000

G01 Z-1.000000 F100.0(Penetrate)
G03 X27.250497 Y14.692780 Z-1.000000 I-0.904378 J0.076425 F3500.000000
G03 X27.122933 Y14.659485 Z-1.000000 I0.000000 J-0.098409
G03 X27.059690 Y14.317176 Z-1.000000 I0.894762 J-0.342309
G03 X27.152075 Y14.269426 Z-1.000000 I0.058532 J0.000000
G03 X27.260878 Y14.459810 Z-1.000000 I-0.150509 J0.212297
G00 Z5.000000

(End cutting path id: path2559)


(Start cutting path id: path2558)
(Change tool to Default tool)

G00 Z5.000000

G01 Z-1.000000 F100.0(Penetrate)
G03 X26.974249 Y14.565277 Z-1.000000 I-1.543854 J-0.000000 F3500.000000
G03 X26.944650 Y14.681082 Z-1.000000 I-0.510939 J-0.068907
G03 X26.853320 Y14.695841 Z-1.000000 I-0.049955 J-0.019169
G03 X26.773339 Y14.472173 Z-1.000000 I0.272756 J-0.223668
G03 X26.818317 Y14.195005 Z-1.000000 I0.876480 J0.000000
G03 X26.880721 Y14.150027 Z-1.000000 I0.062404 J0.020801
G03 X26.947404 Y14.190728 Z-1.000000 I0.000000 J0.074976
G03 X26.988103 Y14.358936 Z-1.000000 I-0.327252 J0.168208
G00 Z5.000000

(End cutting path id: path2558)


(Start cutting path id: path2557)
(Change tool to Default tool)

G00 Z5.000000

G01 Z-1.000000 F100.0(Penetrate)
G03 X26.665398 Y14.564738 Z-1.000000 I-0.592346 J0.197423 F3500.000000
G03 X26.558577 Y14.651140 Z-1.000000 I-0.106821 J-0.022832
G03 X26.477802 Y14.593586 Z-1.000000 I0.000000 J-0.085459
G03 X26.416375 Y14.239509 Z-1.000000 I1.060399 J-0.366331
G03 X26.512615 Y14.141028 Z-1.000000 I0.097380 J-0.001102
G03 X26.647158 Y14.236809 Z-1.000000 I0.001640 J0.140082
G00 Z5.000000

(End cutting path id: path2557)


(Start cutting path id: path2556)
(Change tool to Default tool)

G00 Z5.000000

G01 Z-1.000000 F100.0(Penetrate)
G03 X26.329701 Y14.565226 Z-1.000000 I-1.405390 J-0.000000 F3500.000000
G03 X26.298049 Y14.687081 Z-1.000000 I-0.555973 J-0.079377
G03 X26.130138 Y14.349138 Z-1.000000 I0.694878 J-0.345255
G03 X26.174613 Y14.148934 Z-1.000000 I0.464243 J-0.001911
G03 X26.306636 Y14.190891 Z-1.000000 I-0.045252 J0.117897
G03 X26.343806 Y14.366592 Z-1.000000 I-0.396683 J0.175701
G00 Z5.000000

(End cutting path id: path2556)


(Start cutting path id: path2555)
(Change tool to Default tool)

G00 Z5.000000

G01 Z-1.000000 F100.0(Penetrate)
G03 X26.050465 Y14.294873 Z-1.000000 I-0.266011 J0.102087 F3500.000000
G03 X26.024430 Y14.486493 Z-1.000000 I-0.871491 J-0.020830
G03 X25.960762 Y14.584518 Z-1.000000 I-0.174853 J-0.043880
G03 X25.801699 Y14.191878 Z-1.000000 I0.593404 J-0.375406
G03 X25.916524 Y14.078441 Z-1.000000 I0.114825 J0.001397
G03 X25.974606 Y14.101353 Z-1.000000 I0.000000 J0.085076
G03 X26.031626 Y14.185983 Z-1.000000 I-0.155159 J0.166062
G00 Z5.000000

(End cutting path id: path2555)


(Start cutting path id: path2554)
(Change tool to Default tool)

G00 Z5.000000

G01 Z-1.000000 F100.0(Penetrate)
G03 X25.614663 Y14.530106 Z-1.000000 I-0.202691 J-0.017156 F3500.000000
G03 X25.518445 Y14.486139 Z-1.000000 I-0.032611 J-0.055900
G03 X25.543284 Y14.152724 Z-1.000000 I0.639558 J-0.119986
G03 X25.652387 Y14.100344 Z-1.000000 I0.080552 J0.027968
G03 X25.699314 Y14.153001 Z-1.000000 I-0.024559 J0.069125
G03 X25.714857 Y14.371560 Z-1.000000 I-0.689686 J0.158880
G00 Z5.000000

(End cutting path id: path2554)


(Start cutting path id: path2553)
(Change tool to Default tool)

G00 Z5.000000
G00 X25.400930 Y14.286120

G01 Z-1.000000 F100.0(Penetrate)
G03 X25.406320 Y14.444770 Z-1.000000 I-0.704771 J0.103359 F3500.000000
G03 X25.379180 Y14.564858 Z-1.000000 I-0.426018 J-0.033169
G03 X25.326236 Y14.605833 Z-1.000000 I-0.060208 J-0.023103
G03 X25.267233 Y14.577548 Z-1.000000 I-0.006939 J-0.061210
G03 X25.162046 Y14.182975 Z-1.000000 I0.577618 J-0.365291
G03 X25.287883 Y14.095978 Z-1.000000 I0.095832 J0.004110
G03 X25.351602 Y14.147116 Z-1.000000 I-0.036455 J0.110691
G03 X25.400926 Y14.286120 Z-1.000000 I-0.326509 J0.194110
G00 Z5.000000

(End cutting path id: path2553)


(Start cutting path id: path2552)
(Change tool to Default tool)

G00 Z5.000000

G01 Z-1.000000 F100.0(Penetrate)
G03 X25.168430 Y14.568591 Z-1.000000 I-0.487814 J0.301507 F3500.000000
G03 X24.980394 Y14.722770 Z-1.000000 I-0.188036 J-0.037575
G03 X24.912054 Y14.400624 Z-1.000000 I1.374463 J-0.291558
G03 X24.994463 Y14.150574 Z-1.000000 I0.420560 J-0.000000
G03 X25.093895 Y14.154711 Z-1.000000 I0.048316 J0.035727
G00 Z5.000000

(End cutting path id: path2552)


(Start cutting path id: path2551)
(Change tool to Default tool)

G00 Z5.000000

G01 Z-1.000000 F100.0(Penetrate)
G03 X24.887642 Y14.484551 Z-1.000000 I-0.277740 J0.276932 F3500.000000
G03 X24.689163 Y14.651182 Z-1.000000 I-0.198479 J-0.034892
G03 X24.625703 Y14.476437 Z-1.000000 I0.409174 J-0.148599
G02 X24.600133 Y14.315944 Z-1.000000 I-0.516457 J-0.000000
G02 X24.554113 Y14.257448 Z-1.000000 I-0.102987 J0.033671
G02 X24.482523 Y14.467987 Z-1.000000 I0.577847 J0.196504
G03 X24.404341 Y14.634001 Z-1.000000 I-0.215351 J0.000000
G03 X24.311212 Y14.609533 Z-1.000000 I-0.037769 J-0.045711
G03 X24.282504 Y14.493564 Z-1.000000 I0.451800 J-0.173379
G03 X24.267762 Y14.245905 Z-1.000000 I2.072849 J-0.247659
G03 X24.340967 Y14.085737 Z-1.000000 I0.211820 J-0.000000
G03 X24.500423 Y14.044538 Z-1.000000 I0.121249 J0.140102
G03 X24.726018 Y14.106580 Z-1.000000 I-0.397363 J1.886045
G03 X24.779096 Y14.139708 Z-1.000000 I-0.044568 J0.130493
G00 Z5.000000

(End cutting path id: path2551)


(Start cutting path id: path2550)
(Change tool to Default tool)

G00 Z5.000000

G01 Z-1.000000 F100.0(Penetrate)
G03 X24.115385 Y14.548356 Z-1.000000 I-0.456658 J0.000000 F3500.000000
G03 X24.024703 Y14.537534 Z-1.000000 I-0.042488 J-0.029316
G03 X23.965079 Y14.207257 Z-1.000000 I0.839168 J-0.322013
G03 X24.029103 Y14.054616 Z-1.000000 I0.218765 J0.002011
G03 X24.123687 Y14.062496 Z-1.000000 I0.043958 J0.043958
G03 X24.196141 Y14.289017 Z-1.000000 I-0.317872 J0.226521
G00 Z5.000000

(End cutting path id: path2550)


(Start cutting path id: path2525)
(Change tool to Default tool)

G00 Z5.000000

G01 Z-1.000000 F100.0(Penetrate)
G03 X23.637427 Y12.968829 Z-1.000000 I0.228176 J-0.092310
G03 X23.652714 Y12.843335 Z-1.000000 I0.473386 J-0.006012
G03 X23.688377 Y12.931466 Z-1.000000 I-0.228195 J0.092323
G03 X23.673127 Y13.056952 Z-1.000000 I-0.475511 J0.005883
G00 Z5.000000

(End cutting path id: path2525)


(Start cutting path id: path2518)
(Change tool to Default tool)

G00 Z5.000000

G01 Z-1.000000 F100.0(Penetrate)
G03 X23.634769 Y12.360328 Z-1.000000 I0.221811 J-0.089479
G03 X23.652143 Y12.270847 Z-1.000000 I0.239113 J-0.000000
G03 X23.688252 Y12.360336 Z-1.000000 I-0.221781 J0.089488
G03 X23.670879 Y12.449818 Z-1.000000 I-0.239129 J-0.000000
G00 Z5.000000

(End cutting path id: path2518)


(Start cutting path id: path2514)
(Change tool to Default tool)

G00 Z5.000000

G01 Z-1.000000 F100.0(Penetrate)
G03 X23.361185 Y12.145565 Z-1.000000 I2.566338 J-0.268455
G03 X23.375188 Y11.877111 Z-1.000000 I2.580295 J0.000000
G03 X23.403263 Y12.145566 Z-1.000000 I-2.567183 J0.268455
G03 X23.389265 Y12.414020 Z-1.000000 I-2.581181 J-0.000000
G00 Z5.000000

(End cutting path id: path2514)


(Start cutting path id: path2512)
(Change tool to Default tool)

G00 Z5.000000
G00 X22.486789 Y11.685360

G01 Z-1.000000 F100.0(Penetrate)
G03 X22.442172 Y11.341659 Z-1.000000 I1.088287 J-0.022108
G03 X22.515297 Y11.414790 Z-1.000000 I-0.086266 J0.086266
G03 X22.486789 Y11.685360 Z-1.000000 I-1.088507 J0.022101
G00 Z5.000000

(End cutting path id: path2512)


(Start cutting path id: path2516)
(Change tool to Default tool)

G00 Z5.000000

G01 Z-1.000000 F100.0(Penetrate)
G03 X22.139623 Y12.217147 Z-1.000000 I0.836355 J-0.161073
G03 X22.154992 Y12.056074 Z-1.000000 I0.851734 J-0.000000
G03 X22.186011 Y12.217147 Z-1.000000 I-0.836428 J0.161073
G03 X22.170643 Y12.378220 Z-1.000000 I-0.851796 J-0.000000
G00 Z5.000000

(End cutting path id: path2516)


(Start cutting path id: path2519)
(Change tool to Default tool)

G00 Z5.000000

G01 Z-1.000000 F100.0(Penetrate)
G03 X21.839422 Y12.402058 Z-1.000000 I0.050773 J-0.050773
G03 X21.854744 Y12.312670 Z-1.000000 I0.216514 J-0.008894
G03 X21.897999 Y12.355927 Z-1.000000 I-0.050790 J0.050790
G03 X21.882722 Y12.445309 Z-1.000000 I-0.216783 J0.008945
G00 Z5.000000

(End cutting path id: path2519)


(Start cutting path id: path2523)
(Change tool to Default tool)

G00 Z5.000000

G01 Z-1.000000 F100.0(Penetrate)
G03 X21.839422 Y12.760031 Z-1.000000 I0.050773 J-0.050773
G03 X21.854743 Y12.670644 Z-1.000000 I0.216524 J-0.008895
G03 X21.897999 Y12.713900 Z-1.000000 I-0.050790 J0.050790
G03 X21.882722 Y12.803281 Z-1.000000 I-0.216777 J0.008945
G00 Z5.000000

(End cutting path id: path2523)


(Start cutting path id: path2549)
(Change tool to Default tool)

G00 Z5.000000

G01 Z-1.000000 F100.0(Penetrate)
G03 X21.699781 Y14.450450 Z-1.000000 I-1.121564 J-0.012197 F3500.000000
G03 X21.619002 Y14.508006 Z-1.000000 I-0.080779 J-0.027909
G03 X21.466671 Y14.385072 Z-1.000000 I0.000000 J-0.155846
G03 X21.522432 Y14.060989 Z-1.000000 I0.429870 J-0.092876
G03 X21.671779 Y13.991578 Z-1.000000 I0.127397 J0.078736
G03 X21.761203 Y14.096379 Z-1.000000 I-0.015358 J0.103657
G00 Z5.000000

(End cutting path id: path2549)


(Start cutting path id: path2548)
(Change tool to Default tool)

G00 Z5.000000

G01 Z-1.000000 F100.0(Penetrate)
G03 X21.380823 Y14.478597 Z-1.000000 I-0.662433 J0.065432 F3500.000000
G03 X21.251506 Y14.445978 Z-1.000000 I0.000000 J-0.101250
G03 X21.189480 Y14.138246 Z-1.000000 I0.732365 J-0.307732
G03 X21.280591 Y14.091122 Z-1.000000 I0.057742 J0.000000
G03 X21.390883 Y14.280858 Z-1.000000 I-0.152746 J0.215714
G00 Z5.000000

(End cutting path id: path2548)


(Start cutting path id: path2547)
(Change tool to Default tool)

G00 Z5.000000

G01 Z-1.000000 F100.0(Penetrate)
G03 X21.056971 Y14.446004 Z-1.000000 I-0.422824 J0.013980 F3500.000000
G03 X20.999775 Y14.484142 Z-1.000000 I-0.057196 J-0.023820
G03 X20.942252 Y14.445018 Z-1.000000 I0.000000 J-0.061850
G03 X20.903135 Y14.239550 Z-1.000000 I0.520073 J-0.205468
G03 X20.994380 Y14.161764 Z-1.000000 I0.078779 J0.000000
G03 X21.089263 Y14.269380 Z-1.000000 I-0.017849 J0.111374
G00 Z5.000000

(End cutting path id: path2547)


(Start cutting path id: path2546)
(Change tool to Default tool)

G00 Z5.000000

G01 Z-1.000000 F100.0(Penetrate)
G03 X20.620338 Y14.033665 Z-1.000000 I0.399907 J-0.164890
G03 X20.718327 Y14.002053 Z-1.000000 I0.059037 J0.015322
G03 X20.769383 Y14.090149 Z-1.000000 I-0.094085 J0.113369
G03 X20.771907 Y14.309778 Z-1.000000 I-0.675300 J0.117591
G00 Z5.000000

(End cutting path id: path2546)


(Start cutting path id: path2545)
(Change tool to Default tool)

G00 Z5.000000

G01 Z-1.000000 F100.0(Penetrate)
G03 X20.461977 Y14.279373 Z-1.000000 I-0.705231 J-0.000000 F3500.000000
G03 X20.427839 Y14.400769 Z-1.000000 I-0.672585 J-0.123640
G03 X20.259927 Y14.134414 Z-1.000000 I0.440836 J-0.277910
G03 X20.301196 Y14.001060 Z-1.000000 I0.231872 J-0.001306
G03 X20.366213 Y13.981000 Z-1.000000 I0.045282 J0.031371
G03 X20.442409 Y14.043636 Z-1.000000 I-0.055879 J0.145640
G03 X20.473595 Y14.151868 Z-1.000000 I-0.172219 J0.108232
G00 Z5.000000

(End cutting path id: path2545)


(Start cutting path id: path2544)
(Change tool to Default tool)

G00 Z5.000000

G01 Z-1.000000 F100.0(Penetrate)
G03 X20.105664 Y14.369876 Z-1.000000 I-0.397769 J-0.002204 F3500.000000
G03 X19.998772 Y14.005466 Z-1.000000 I0.834169 J-0.223363
G03 X20.079867 Y13.935301 Z-1.000000 I0.081095 J0.011782
G03 X20.146983 Y13.975338 Z-1.000000 I0.000000 J0.076274
G03 X20.186153 Y14.132168 Z-1.000000 I-0.287100 J0.155012
G00 Z5.000000

(End cutting path id: path2544)


(Start cutting path id: path2543)
(Change tool to Default tool)

G00 Z5.000000

G01 Z-1.000000 F100.0(Penetrate)
G03 X19.865081 Y14.343095 Z-1.000000 I-0.350892 J0.187791 F3500.000000
G03 X19.750062 Y14.436414 Z-1.000000 I-0.115019 J-0.024223
G03 X19.686132 Y14.299093 Z-1.000000 I0.241507 J-0.112431
G02 X19.674500 Y14.163925 Z-1.000000 I-0.791145 J0.000000
G02 X19.642682 Y14.048535 Z-1.000000 I-0.606625 J0.105189
G03 X19.826535 Y14.073285 Z-1.000000 I-0.023421 J0.173974
G00 Z5.000000

(End cutting path id: path2543)


(Start cutting path id: path2542)
(Change tool to Default tool)

G00 Z5.000000
G00 X19.529814 Y14.173480

G01 Z-1.000000 F100.0(Penetrate)
G03 X19.517323 Y14.333596 Z-1.000000 I-0.410093 J0.048553 F3500.000000
G03 X19.417737 Y14.346541 Z-1.000000 I-0.000000 J-0.102365
G02 X19.392865 Y14.258143 Z-1.000000 I-0.285841 J0.005208
G02 X19.352154 Y14.086788 Z-1.000000 I-3.052848 J0.634782
G03 X19.358878 Y13.971558 Z-1.000000 I0.177356 J-0.047462
G03 X19.476596 Y14.007133 Z-1.000000 I-0.038614 J0.117417
G03 X19.529817 Y14.173481 Z-1.000000 I-0.401683 J0.220202
G00 Z5.000000

(End cutting path id: path2542)


(Start cutting path id: path2541)
(Change tool to Default tool)

G00 Z5.000000

G01 Z-1.000000 F100.0(Penetrate)
G03 X19.135777 Y14.237259 Z-1.000000 I-0.125978 J-0.014912 F3500.000000
G03 X19.041841 Y14.156020 Z-1.000000 I-0.011838 J-0.081239
G03 X19.084483 Y13.977934 Z-1.000000 I0.393196 J-0.000000
G03 X19.153977 Y13.935290 Z-1.000000 I0.069494 J0.035304
G03 X19.219321 Y13.976868 Z-1.000000 I0.000000 J0.072137
G03 X19.243457 Y14.126636 Z-1.000000 I-0.250667 J0.117224
G00 Z5.000000

(End cutting path id: path2541)


(Start cutting path id: path2540)
(Change tool to Default tool)

G00 Z5.000000

G01 Z-1.000000 F100.0(Penetrate)
G03 X18.963518 Y14.276047 Z-1.000000 I-0.265573 J0.164140 F3500.000000
G03 X18.821923 Y14.325843 Z-1.000000 I-0.090894 J-0.032246
G03 X18.682589 Y14.075224 Z-1.000000 I0.154471 J-0.249921
G03 X18.822852 Y13.935294 Z-1.000000 I0.140263 J0.000333
G03 X18.880713 Y13.952332 Z-1.000000 I-0.000000 J0.106766
G03 X18.934855 Y14.007524 Z-1.000000 I-0.095044 J0.147388
G00 Z5.000000

(End cutting path id: path2540)


(Start cutting path id: path2539)
(Change tool to Default tool)

G00 Z5.000000

G01 Z-1.000000 F100.0(Penetrate)
G03 X18.585363 Y14.341351 Z-1.000000 I-0.722709 J-0.000000 F3500.000000
G03 X18.540723 Y14.400616 Z-1.000000 I-0.098354 J-0.027639
G03 X18.468163 Y14.351146 Z-1.000000 I0.033413 J-0.049041
G02 X18.459707 Y14.258461 Z-1.000000 I-0.578320 J0.006037
G02 X18.424023 Y14.096363 Z-1.000000 I-1.811938 J0.313896
G03 X18.433770 Y13.975892 Z-1.000000 I0.173794 J-0.046569
G03 X18.496593 Y13.935290 Z-1.000000 I0.062823 J0.028301
G03 X18.569315 Y13.978301 Z-1.000000 I-0.000000 J0.082985
G03 X18.612324 Y14.145829 Z-1.000000 I-0.304776 J0.167528
G00 Z5.000000

(End cutting path id: path2539)


(Start cutting path id: path2538)
(Change tool to Default tool)

G00 Z5.000000

G01 Z-1.000000 F100.0(Penetrate)
G03 X18.301103 Y14.270926 Z-1.000000 I-0.506102 J0.000000 F3500.000000
G03 X18.256471 Y14.327730 Z-1.000000 I-0.099822 J-0.032496
G03 X18.099642 Y14.266995 Z-1.000000 I-0.055438 J-0.089696
G03 X18.145198 Y13.938194 Z-1.000000 I0.395006 J-0.112828
G03 X18.246411 Y13.925733 Z-1.000000 I0.055604 J0.034365
G03 X18.325961 Y14.114263 Z-1.000000 I-0.183632 J0.188531
G00 Z5.000000

(End cutting path id: path2538)


(Start cutting path id: path2537)
(Change tool to Default tool)

G00 Z5.000000

G01 Z-1.000000 F100.0(Penetrate)
G03 X18.026559 Y14.049977 Z-1.000000 I-0.055941 J0.145792 F3500.000000
G03 X17.934473 Y14.333241 Z-1.000000 I-0.455051 J0.008668
G03 X17.868242 Y14.352641 Z-1.000000 I-0.046191 J-0.034937
G03 X17.825994 Y14.293231 Z-1.000000 I0.022361 J-0.060628
G02 X17.802697 Y14.120341 Z-1.000000 I-0.762374 J0.014716
G02 X17.753224 Y14.006879 Z-1.000000 I-0.370582 J0.094068
G02 X17.682734 Y14.138124 Z-1.000000 I0.243905 J0.131001
G03 X17.587590 Y14.213266 Z-1.000000 I-0.077522 J-0.000352
G03 X17.480236 Y14.090854 Z-1.000000 I0.031782 J-0.136152
G03 X17.523199 Y13.922956 Z-1.000000 I0.252196 J-0.024912
G03 X17.635453 Y13.863706 Z-1.000000 I0.112254 J0.076712
G03 X17.810693 Y13.876720 Z-1.000000 I-0.000000 J1.186308
G03 X17.926341 Y13.907156 Z-1.000000 I-0.081136 J0.543236
G00 Z5.000000

(End cutting path id: path2537)


(Start cutting path id: path2727)
(Change tool to Default tool)

G00 Z5.000000

G01 Z-1.000000 F100.0(Penetrate)
G02 X17.270039 Y15.803320 Z-1.000000 I0.618595 J-5.088511
G03 X17.860482 Y15.815078 Z-1.000000 I-0.394684 J34.650200
G03 X18.290167 Y15.832290 Z-1.000000 I-0.526821 J18.523764
G02 X19.380812 Y15.880732 Z-1.000000 I3.889299 J-75.263697
G02 X22.261388 Y15.979864 Z-1.000000 I19.508719 J-524.982168
G03 X23.440227 Y16.024298 Z-1.000000 I-3.102332 J97.965279
G03 X23.711044 Y16.043254 Z-1.000000 I-0.226414 J5.178644
G02 X23.952665 Y16.037666 Z-1.000000 I0.097468 J-1.012114
G01 X23.981407 Y16.004514 Z-1.000000
G02 X23.319219 Y15.936774 Z-1.000000 I-0.462070 J4.517347
G03 X22.935171 Y15.922514 Z-1.000000 I-0.093159 J-2.669747
G02 X21.493674 Y15.815744 Z-1.000000 I-1.772633 J32.987405
G03 X20.080278 Y15.788765 Z-1.000000 I1.120253 J-95.725650
G03 X19.578750 Y15.765104 Z-1.000000 I0.321397 J-12.139521
G02 X16.758804 Y15.653093 Z-1.000000 I-3.401279 J50.076218
G02 X16.679439 Y15.731544 Z-1.000000 I-0.000909 J0.078451
G01 X16.679439 Y15.731530 Z-1.000000
G00 Z5.000000

(End cutting path id: path2727)


(Start cutting path id: path2511)
(Change tool to Default tool)

G00 Z5.000000
G00 X17.323730 Y11.495419

G01 Z-1.000000 F100.0(Penetrate)
G03 X17.259291 Y11.937955 Z-1.000000 I-1.551792 J-0.000000 F3500.000000
G03 X17.172895 Y12.002389 Z-1.000000 I-0.086396 J-0.025706
G03 X17.108965 Y11.608656 Z-1.000000 I2.243865 J-0.364347
G03 X17.155467 Y11.261422 Z-1.000000 I1.319663 J0.000000
G03 X17.216347 Y11.214922 Z-1.000000 I0.060880 J0.016604
G03 X17.279963 Y11.258687 Z-1.000000 I0.000000 J0.068119
G03 X17.323728 Y11.495419 Z-1.000000 I-0.618384 J0.236732
G00 Z5.000000

(End cutting path id: path2511)


(Start cutting path id: path2513)
(Change tool to Default tool)

G00 Z5.000000

G01 Z-1.000000 F100.0(Penetrate)
G03 X17.400971 Y11.471447 Z-1.000000 I0.050773 J-0.050773
G03 X17.416293 Y11.382059 Z-1.000000 I0.216514 J-0.008894
G03 X17.459548 Y11.425316 Z-1.000000 I-0.050790 J0.050790
G03 X17.444271 Y11.514698 Z-1.000000 I-0.216783 J0.008945
G00 Z5.000000

(End cutting path id: path2513)


(Start cutting path id: path2507)
(Change tool to Default tool)

G00 Z5.000000

G01 Z-1.000000 F100.0(Penetrate)
G03 X16.905130 Y11.239750 Z-1.000000 I-0.139638 J-0.001462 F3500.000000
G03 X16.872689 Y10.628150 Z-1.000000 I5.731129 J-0.073434
G03 X16.937835 Y10.666057 Z-1.000000 I-0.037980 J0.061455
G03 X16.960762 Y11.129663 Z-1.000000 I-3.854386 J0.422985
G00 Z5.000000

(End cutting path id: path2507)


(Start cutting path id: path2711)
(Change tool to Default tool)

G00 Z5.000000

G01 Z-1.000000 F100.0(Penetrate)
G01 X20.616772 Y12.936963 Z-1.000000
G03 X20.506458 Y12.682709 Z-1.000000 I-13.673309 J-0.294671
G02 X20.444632 Y12.800918 Z-1.000000 I0.071741 J0.019760
G02 X19.819160 Y12.657908 Z-1.000000 I-0.604998 J0.978850
G02 X19.593029 Y12.818568 Z-1.000000 I-0.003193 J0.234977
G03 X19.431270 Y12.829338 Z-1.000000 I-0.017930 J-0.269275
G02 X19.289001 Y12.786820 Z-1.000000 I-0.274158 J0.658083
G02 X19.077624 Y12.762768 Z-1.000000 I-0.270655 J1.437731
G03 X18.775049 Y11.035949 Z-1.000000 I2445.902913 J-125.224695
G03 X18.765190 Y10.839091 Z-1.000000 I129.212788 J-6.569916
G02 X18.717374 Y10.682269 Z-1.000000 I-0.334966 J0.016432
G02 X18.646444 Y10.642224 Z-1.000000 I-0.070930 J0.042796
G02 X18.590508 Y10.694154 Z-1.000000 I0.000000 J0.056090
G02 X18.562584 Y11.769734 Z-1.000000 I11.115139 J0.826726
G00 Z5.000000

(End cutting path id: path2711)


(Start cutting path id: path2687)
(Change tool to Default tool)

G00 Z5.000000
G00 X18.526261 Y9.239285

G01 Z-1.000000 F100.0(Penetrate)
G02 X20.516034 Y10.028419 Z-1.000000 I-0.097354 J0.013716
G03 X18.846404 Y10.230733 Z-1.000000 I0.127173 J-18.359146
G03 X18.801170 Y10.210627 Z-1.000000 I0.003503 J-0.068817
G03 X18.780166 Y10.165352 Z-1.000000 I0.051316 J-0.051316
G03 X18.712960 Y9.154705 Z-1.000000 I29.799786 J-2.489184
G02 X18.626618 Y8.174329 Z-1.000000 I-12.806402 J0.633869
G02 X18.526256 Y9.239254 Z-1.000000 I14.890201 J0.776307
G00 Z5.000000

(End cutting path id: path2687)


(Start cutting path id: path2688)
(Change tool to Default tool)

G00 Z5.000000

G01 Z-1.000000 F100.0(Penetrate)
G02 X20.502276 Y8.369295 Z-1.000000 I0.239113 J0.000000 F3500.000000
G02 X20.538385 Y8.279806 Z-1.000000 I-0.221781 J-0.089488
G02 X20.521012 Y8.190324 Z-1.000000 I-0.239129 J0.000000
G02 X20.484902 Y8.279804 Z-1.000000 I0.221811 J0.089479
G00 Z5.000000

(End cutting path id: path2688)


(Start cutting path id: path2705)
(Change tool to Default tool)

G00 Z5.000000

G01 Z-1.000000 F100.0(Penetrate)
G02 X20.903129 Y9.890522 Z-1.000000 I0.021195 J-0.048068
G02 X20.964447 Y9.840552 Z-1.000000 I-0.160086 J-0.259045
G02 X20.903129 Y9.783142 Z-1.000000 I-0.059135 J0.134063
G02 X20.853108 Y9.804703 Z-1.000000 I-0.000000 J0.068805
G02 X20.831539 Y9.858952 Z-1.000000 I0.057438 J0.054249
G00 Z5.000000

(End cutting path id: path2705)


(Start cutting path id: path2680)
(Change tool to Default tool)

G00 Z5.000000
G00 X22.191709 Y8.522693

G01 Z-1.000000 F100.0(Penetrate)
G02 X22.219455 Y9.240749 Z-1.000000 I9.305486 J-0.000000 F3500.000000
G02 X22.586630 Y8.639432 Z-1.000000 I-0.374974 J-0.606713
G02 X22.229299 Y7.792448 Z-1.000000 I-1.220281 J0.015952
G02 X22.191719 Y8.522693 Z-1.000000 I14.048615 J0.722945
G00 Z5.000000

(End cutting path id: path2680)


(Start cutting path id: path2686)
(Change tool to Default tool)

G00 Z5.000000

G01 Z-1.000000 F100.0(Penetrate)
G02 X22.521501 Y8.103324 Z-1.000000 I0.113334 J0.052733 F3500.000000
G02 X22.552341 Y8.745136 Z-1.000000 I15.660680 J-0.430876
G02 X22.577217 Y8.054238 Z-1.000000 I-4.739540 J-0.083803
G00 Z5.000000

(End cutting path id: path2686)


(Start cutting path id: path2668)
(Change tool to Default tool)

G00 Z5.000000

G01 Z-1.000000 F100.0(Penetrate)
G02 X23.158631 Y7.760805 Z-1.000000 I1.314488 J-0.000000 F3500.000000
G02 X23.188450 Y7.563938 Z-1.000000 I-1.299766 J-0.196867
G02 X23.173625 Y7.367071 Z-1.000000 I-1.314591 J-0.000000
G02 X23.143805 Y7.563938 Z-1.000000 I1.299647 J0.196867
G00 Z5.000000

(End cutting path id: path2668)


(Start cutting path id: path2681)
(Change tool to Default tool)

G00 Z5.000000

G01 Z-1.000000 F100.0(Penetrate)
G02 X23.429668 Y7.900931 Z-1.000000 I0.071590 J-0.000000 F3500.000000
G02 X23.480294 Y7.921904 Z-1.000000 I0.050626 J-0.050617
G02 X23.530916 Y7.900936 Z-1.000000 I0.000000 J-0.071590
G02 X23.551884 Y7.850314 Z-1.000000 I-0.050622 J-0.050622
G02 X23.530916 Y7.799692 Z-1.000000 I-0.071590 J-0.000000
G02 X23.480294 Y7.778724 Z-1.000000 I-0.050622 J0.050622
G02 X23.429677 Y7.799688 Z-1.000000 I-0.000000 J0.071590
G02 X23.408704 Y7.850314 Z-1.000000 I0.050617 J0.050626
G00 Z5.000000

(End cutting path id: path2681)


(Start cutting path id: path2669)
(Change tool to Default tool)

G00 Z5.000000

G01 Z-1.000000 F100.0(Penetrate)
G02 X23.793262 Y7.367171 Z-1.000000 I0.071694 J-0.002923 F3500.000000
G02 X23.830858 Y7.273227 Z-1.000000 I-0.201028 J-0.080442
G02 X23.809845 Y7.225386 Z-1.000000 I-0.071702 J0.002959
G02 X23.772245 Y7.319346 Z-1.000000 I0.201088 J0.080471
G00 Z5.000000

(End cutting path id: path2669)


(Start cutting path id: path2664)
(Change tool to Default tool)

G00 Z5.000000

G01 Z-1.000000 F100.0(Penetrate)
G02 X24.090950 Y7.759362 Z-1.000000 I1.890031 J-0.002181 F3500.000000
G02 X24.119125 Y7.489311 Z-1.000000 I-2.557976 J-0.266944
G02 X24.104658 Y7.258105 Z-1.000000 I-1.889525 J0.002179
G02 X24.076478 Y7.528156 Z-1.000000 I2.558665 J0.267017
G00 Z5.000000

(End cutting path id: path2664)


(Start cutting path id: path2670)
(Change tool to Default tool)

G00 Z5.000000

G01 Z-1.000000 F100.0(Penetrate)
G02 X24.365966 Y7.367171 Z-1.000000 I0.071694 J-0.002923 F3500.000000
G02 X24.403562 Y7.273227 Z-1.000000 I-0.201028 J-0.080442
G02 X24.382549 Y7.225386 Z-1.000000 I-0.071702 J0.002959
G02 X24.344949 Y7.319346 Z-1.000000 I0.201088 J0.080471
G00 Z5.000000

(End cutting path id: path2670)


(Start cutting path id: path2652)
(Change tool to Default tool)

G00 Z5.000000

G01 Z-1.000000 F100.0(Penetrate)
G02 X24.368024 Y7.009132 Z-1.000000 I0.239152 J-0.000000 F3500.000000
G02 X24.404134 Y6.919644 Z-1.000000 I-0.221783 J-0.089488
G02 X24.386760 Y6.830162 Z-1.000000 I-0.239122 J-0.000000
G02 X24.350650 Y6.919642 Z-1.000000 I0.221811 J0.089479
G00 Z5.000000

(End cutting path id: path2652)


(Start cutting path id: path2636)
(Change tool to Default tool)

G00 Z5.000000

G01 Z-1.000000 F100.0(Penetrate)
G02 X24.079614 Y6.436547 Z-1.000000 I0.071694 J-0.002923 F3500.000000
G02 X24.117210 Y6.342603 Z-1.000000 I-0.201028 J-0.080442
G02 X24.096197 Y6.294762 Z-1.000000 I-0.071702 J0.002959
G02 X24.058597 Y6.388722 Z-1.000000 I0.201088 J0.080471
G00 Z5.000000

(End cutting path id: path2636)


(Start cutting path id: path2624)
(Change tool to Default tool)

G00 Z5.000000

G01 Z-1.000000 F100.0(Penetrate)
G02 X23.731090 Y6.328383 Z-1.000000 I0.858736 J-0.002342 F3500.000000
G02 X23.761010 Y6.130531 Z-1.000000 I-1.282109 J-0.193934
G02 X23.745454 Y5.970132 Z-1.000000 I-0.859346 J0.002390
G02 X23.715534 Y6.167983 Z-1.000000 I1.282570 J0.193982
G00 Z5.000000

(End cutting path id: path2624)


(Start cutting path id: path2623)
(Change tool to Default tool)

G00 Z5.000000

G01 Z-1.000000 F100.0(Penetrate)
G02 X23.444734 Y6.328383 Z-1.000000 I0.858944 J-0.002343 F3500.000000
G02 X23.474653 Y6.130532 Z-1.000000 I-1.282525 J-0.193997
G02 X23.459092 Y5.970132 Z-1.000000 I-0.858626 J0.002345
G02 X23.429172 Y6.167983 Z-1.000000 I1.283290 J0.194046
G00 Z5.000000

(End cutting path id: path2623)


(Start cutting path id: path2620)
(Change tool to Default tool)

G00 Z5.000000

G01 Z-1.000000 F100.0(Penetrate)
G02 X23.136528 Y5.907156 Z-1.000000 I0.259045 J-0.160086 F3500.000000
G02 X23.193938 Y5.845838 Z-1.000000 I-0.134082 J-0.059132
G02 X23.172373 Y5.795813 Z-1.000000 I-0.068805 J0.000000
G02 X23.118128 Y5.774248 Z-1.000000 I-0.054245 J0.057443
G02 X23.086558 Y5.845838 Z-1.000000 I0.048068 J0.021195
G00 Z5.000000

(End cutting path id: path2620)


(Start cutting path id: path2609)
(Change tool to Default tool)

G00 Z5.000000

G01 Z-1.000000 F100.0(Penetrate)
G02 X23.435323 Y5.720657 Z-1.000000 I0.071694 J-0.002923 F3500.000000
G02 X23.472919 Y5.626713 Z-1.000000 I-0.201028 J-0.080442
G02 X23.451906 Y5.578871 Z-1.000000 I-0.071705 J0.002959
G01 X23.429626 Y5.583442 Z-1.000000
G02 X23.414306 Y5.672831 Z-1.000000 I0.201088 J0.080471
G00 Z5.000000

(End cutting path id: path2609)


(Start cutting path id: path2593)
(Change tool to Default tool)

G00 Z5.000000

G01 Z-1.000000 F100.0(Penetrate)
G02 X23.682802 Y5.535941 Z-1.000000 I0.788459 J-0.000000 F3500.000000
G02 X23.766642 Y5.344718 Z-1.000000 I-0.764901 J-0.191224
G02 X23.743102 Y5.153496 Z-1.000000 I-0.788449 J-0.000000
G02 X23.659262 Y5.344718 Z-1.000000 I0.764895 J0.191223
G00 Z5.000000

(End cutting path id: path2593)


(Start cutting path id: path2576)
(Change tool to Default tool)

G00 Z5.000000

G01 Z-1.000000 F100.0(Penetrate)
G02 X23.686091 Y5.038661 Z-1.000000 I0.082701 J0.051111 F3500.000000
G02 X23.819132 Y5.029722 Z-1.000000 I0.061407 J-0.080576
G02 X23.774352 Y4.986762 Z-1.000000 I-0.044522 J0.046393
G03 X23.730673 Y4.962190 Z-1.000000 I0.000000 J-0.051108
G02 X23.751144 Y4.856956 Z-1.000000 I-0.121163 J-0.074877
G02 X23.662272 Y4.910222 Z-1.000000 I0.157983 J0.182483
G00 Z5.000000

(End cutting path id: path2576)


(Start cutting path id: path2575)
(Change tool to Default tool)

G00 Z5.000000

G01 Z-1.000000 F100.0(Penetrate)
G02 X22.793090 Y5.076245 Z-1.000000 I0.239152 J-0.000000 F3500.000000
G02 X22.829200 Y4.986757 Z-1.000000 I-0.221783 J-0.089488
G02 X22.811826 Y4.897275 Z-1.000000 I-0.239122 J-0.000000
G02 X22.775716 Y4.986755 Z-1.000000 I0.221811 J0.089479
G00 Z5.000000

(End cutting path id: path2575)


(Start cutting path id: path2574)
(Change tool to Default tool)

G00 Z5.000000

G01 Z-1.000000 F100.0(Penetrate)
G02 X22.148799 Y5.004645 Z-1.000000 I0.239111 J0.000000 F3500.000000
G02 X22.184908 Y4.915157 Z-1.000000 I-0.221781 J-0.089488
G02 X22.167535 Y4.825675 Z-1.000000 I-0.239129 J-0.000000
G02 X22.131425 Y4.915165 Z-1.000000 I0.221853 J0.089489
G00 Z5.000000

(End cutting path id: path2574)


(Start cutting path id: path2573)
(Change tool to Default tool)

G00 Z5.000000

G01 Z-1.000000 F100.0(Penetrate)
G02 X21.865678 Y5.040221 Z-1.000000 I0.246475 J-0.003130 F3500.000000
G02 X21.898669 Y4.913594 Z-1.000000 I-0.459011 J-0.119613
G02 X21.880676 Y4.824311 Z-1.000000 I-0.245594 J0.003038
G02 X21.847676 Y4.950953 Z-1.000000 I0.459051 J0.119632
G00 Z5.000000

(End cutting path id: path2573)


(Start cutting path id: path2592)
(Change tool to Default tool)

G00 Z5.000000

G01 Z-1.000000 F100.0(Penetrate)
G02 X22.148799 Y5.362609 Z-1.000000 I0.239113 J0.000000 F3500.000000
G02 X22.184908 Y5.273120 Z-1.000000 I-0.221781 J-0.089488
G02 X22.167535 Y5.183638 Z-1.000000 I-0.239129 J-0.000000
G02 X22.131425 Y5.273128 Z-1.000000 I0.221853 J0.089489
G00 Z5.000000

(End cutting path id: path2592)


(Start cutting path id: path2608)
(Change tool to Default tool)

G00 Z5.000000

G01 Z-1.000000 F100.0(Penetrate)
G02 X22.431280 Y5.691664 Z-1.000000 I0.089623 J0.055393 F3500.000000
G02 X22.472583 Y5.857122 Z-1.000000 I0.642237 J-0.072437
G02 X22.526413 Y5.792292 Z-1.000000 I-0.077443 J-0.064301
G02 X22.484164 Y5.626518 Z-1.000000 I-0.439551 J0.023752
G00 Z5.000000

(End cutting path id: path2608)


(Start cutting path id: path2499)
(Change tool to Default tool)

G00 Z5.000000

G01 Z-1.000000 F100.0(Penetrate)
G03 X21.541572 Y8.172531 Z-1.000000 I-378.956105 J9.470215 F3500.000000
G03 X21.593705 Y10.992655 Z-1.000000 I-877.212014 J17.626691
G01 X21.641305 Y13.812875 Z-1.000000
G03 X19.149413 Y13.713896 Z-1.000000 I7.131745 J-187.406022
G03 X18.343856 Y13.673745 Z-1.000000 I3.521433 J-78.752468
G01 X17.538492 Y13.629455 Z-1.000000
G02 X17.511988 Y11.254089 Z-1.000000 I-25.567871 J-0.000000
G03 X17.450602 Y10.152264 Z-1.000000 I21.971251 J-0.690966
G02 X17.451514 Y9.031660 Z-1.000000 I-33.800467 J-0.587813
G02 X17.402472 Y7.098622 Z-1.000000 I-100.659242 J1.586631
G01 X17.334852 Y5.165748 Z-1.000000
G03 X17.375105 Y9.889313 Z-1.000000 I-95.036442 J1.387485
G01 X17.346262 Y9.905426 Z-1.000000
G02 X17.272672 Y10.411164 Z-1.000000 I4.196779 J0.610737
G03 X17.226984 Y10.938880 Z-1.000000 I-4.556990 J-0.128690
G03 X17.183192 Y11.026185 Z-1.000000 I-0.153426 J-0.022324
G03 X17.079433 Y10.320079 Z-1.000000 I5.763430 J-0.846877
G02 X17.068057 Y9.962201 Z-1.000000 I-36.818561 J0.991219
G02 X17.045223 Y9.389436 Z-1.000000 I-89.256992 J3.271544
G02 X16.921094 Y9.533658 Z-1.000000 I2.367806 J0.419276
G02 X16.937193 Y9.971240 Z-1.000000 I3.541017 J0.088810
G03 X16.945011 Y10.392260 Z-1.000000 I-2.619483 J0.259225
G03 X16.907383 Y10.455118 Z-1.000000 I-0.079495 J-0.004895
G03 X16.727486 Y9.210466 Z-1.000000 I13.627206 J-1.969586
G02 X16.684226 Y10.033727 Z-1.000000 I23.731160 J1.247085
G03 X16.641036 Y11.247837 Z-1.000000 I-34.272644 J-0.611364
G03 X16.607866 Y11.465486 Z-1.000000 I-1.123953 J-0.059941
G03 X16.491705 Y9.962140 Z-1.000000 I27.848683 J-2.151896
G02 X16.437634 Y8.388556 Z-1.000000 I-71.564159 J1.671346
G02 X16.402375 Y7.993472 Z-1.000000 I-4.539072 J0.205970
G02 X16.356825 Y8.780939 Z-1.000000 I12.331304 J0.713355
G03 X16.287619 Y9.858894 Z-1.000000 I-7.717112 J0.045748
G02 X16.148277 Y8.818601 Z-1.000000 I-14.300051 J0.358000
G02 X16.035157 Y9.475342 Z-1.000000 I6.406630 J0.660446
G03 X15.997653 Y10.079198 Z-1.000000 I-4.880064 J0.000000
G03 X15.914036 Y10.002248 Z-1.000000 I0.109367 J-0.109341
G03 X15.883937 Y9.487775 Z-1.000000 I4.019561 J-0.493276
G02 X15.858731 Y8.967811 Z-1.000000 I-4.858057 J-0.025094
G02 X15.818847 Y8.852467 Z-1.000000 I-0.265285 J0.027164
G02 X15.740767 Y9.210466 Z-1.000000 I1.797880 J0.392091
G03 X15.695141 Y9.962754 Z-1.000000 I-9.763415 J-0.214621
G03 X15.658147 Y10.040868 Z-1.000000 I-0.127823 J-0.012718
G03 X15.567727 Y9.000577 Z-1.000000 I26.775705 J-2.327341
G02 X15.494980 Y7.943639 Z-1.000000 I-25.769046 J1.242670
G02 X15.435567 Y9.210461 Z-1.000000 I36.651805 J1.013208
G03 X15.413721 Y10.468505 Z-1.000000 I-25.915621 J0.179176
G03 X15.286227 Y9.234823 Z-1.000000 I18.420056 J-1.393662
G02 X15.261889 Y8.946040 Z-1.000000 I-1.935776 J0.017729
G02 X15.229797 Y8.882849 Z-1.000000 I-0.114374 J0.018341
G02 X15.171297 Y10.169543 Z-1.000000 I9.949735 J0.452244
G03 X15.171487 Y10.375922 Z-1.000000 I-1.294246 J0.104383
G03 X15.134637 Y10.634864 Z-1.000000 I-2.079708 J-0.163872
G03 X14.995672 Y10.337197 Z-1.000000 I2.653187 J-0.479349
G03 X14.967107 Y9.758532 Z-1.000000 I11.452178 J-0.855355
G02 X14.877297 Y9.968105 Z-1.000000 I0.528159 J0.226335
G03 X14.830300 Y11.258442 Z-1.000000 I-29.614944 J-0.432621
G03 X14.797897 Y11.330653 Z-1.000000 I-0.111090 J-0.006473
G03 X14.732317 Y11.208963 Z-1.000000 I0.263007 J-0.141735
G03 X14.720784 Y11.012283 Z-1.000000 I4.141620 J-0.341542
G03 X14.676347 Y9.604200 Z-1.000000 I212.163184 J-7.400252
G02 X14.640677 Y8.991300 Z-1.000000 I-10.261720 J0.289729
G03 X14.566979 Y9.134359 Z-1.000000 I-0.311944 J-0.037889
G02 X14.045538 Y9.286576 Z-1.000000 I-0.214517 J0.148841
G02 X14.580587 Y13.491663 Z-1.000000 I18.809295 J-0.256683
G01 X14.620847 Y13.656555 Z-1.000000
G03 X11.493788 Y13.546631 Z-1.000000 I3.334041 J-105.946973
G03 X11.461235 Y13.533605 Z-1.000000 I0.002467 J-0.053353
G01 X11.455240 Y13.507401 Z-1.000000
G03 X11.513135 Y13.412805 Z-1.000000 I0.356338 J0.153074
G02 X11.553478 Y13.302723 Z-1.000000 I-0.134739 J-0.111812
G02 X11.534545 Y11.245540 Z-1.000000 I-53.902727 J-0.532600
G02 X11.478926 Y10.033278 Z-1.000000 I-34.539755 J0.977285
G01 X11.457605 Y10.033727 Z-1.000000
G03 X11.412809 Y10.710730 Z-1.000000 I-7.586045 J-0.161976
G02 X11.317495 Y10.916645 Z-1.000000 I0.680137 J0.216123
G03 X11.270504 Y11.241366 Z-1.000000 I-1.315982 J-0.024679
G03 X11.170227 Y11.211625 Z-1.000000 I0.025655 J-0.074150
G03 X11.155115 Y10.993069 Z-1.000000 I0.643972 J-0.154329
G02 X11.140342 Y10.830239 Z-1.000000 I-0.436239 J-0.042507
G02 X11.061082 Y10.905797 Z-1.000000 I0.111728 J0.113630
G02 X10.986674 Y11.465486 Z-1.000000 I5.444295 J1.008580
G03 X10.931258 Y12.034122 Z-1.000000 I-17.807191 J-1.448378
G03 X10.841504 Y11.450787 Z-1.000000 I16.308286 J-2.081700
G02 X10.770447 Y11.104986 Z-1.000000 I-1.562978 J0.140968
G02 X10.695228 Y11.395940 Z-1.000000 I1.979247 J0.381538
G02 X10.670184 Y12.390163 Z-1.000000 I23.609020 J1.092133
G03 X10.641979 Y13.327950 Z-1.000000 I-18.135494 J-0.076124
G01 X10.617084 Y13.337457 Z-1.000000
G03 X10.591344 Y13.279246 Z-1.000000 I0.062381 J-0.062381
G03 X10.585284 Y12.665348 Z-1.000000 I8.198695 J-0.387907
G02 X10.547878 Y11.204283 Z-1.000000 I-13.752452 J-0.378919
G02 X10.437596 Y11.241212 Z-1.000000 I0.073078 J0.073078
G02 X10.392227 Y12.360335 Z-1.000000 I24.278592 J1.544726
G03 X10.312415 Y12.469742 Z-1.000000 I-0.117718 J-0.002059
G03 X10.234346 Y12.414025 Z-1.000000 I-0.019014 J-0.055912
G02 X10.196906 Y11.883248 Z-1.000000 I-3.968261 J0.013204
G02 X10.110594 Y12.005193 Z-1.000000 I0.367294 J0.214026
G02 X10.101586 Y12.162284 Z-1.000000 I0.539230 J0.109726
G03 X10.107870 Y12.324654 Z-1.000000 I-1.708721 J0.147436
G03 X10.097386 Y12.646686 Z-1.000000 I-6.759089 J-0.058857
G03 X10.056719 Y12.792940 Z-1.000000 I-0.355904 J-0.020180
G03 X9.981752 Y12.608012 Z-1.000000 I0.952743 J-0.305133
G03 X9.957344 Y12.270849 Z-1.000000 I3.272285 J-0.406350
G02 X9.918769 Y11.962913 Z-1.000000 I-1.499240 J0.031424
G02 X9.819853 Y12.127673 Z-1.000000 I0.454212 J0.134961
G03 X9.826374 Y12.324622 Z-1.000000 I-2.835024 J0.192446
G03 X9.819029 Y12.646686 Z-1.000000 I-7.592792 J-0.012033
G03 X9.664953 Y12.338212 Z-1.000000 I0.654250 J-0.326784
G02 X9.630081 Y11.983126 Z-1.000000 I-1.875595 J0.004944
G02 X9.552712 Y12.028697 Z-1.000000 I0.044481 J0.071984
G02 X9.520681 Y12.575098 Z-1.000000 I4.644417 J0.546401
G03 X9.488650 Y13.121493 Z-1.000000 I-4.676344 J0.000000
G03 X9.449093 Y13.183595 Z-1.000000 I-0.084050 J-0.009888
G03 X9.373379 Y12.704602 Z-1.000000 I3.076474 J-0.486297
G02 X9.350954 Y12.183309 Z-1.000000 I-7.433225 J0.058633
G02 X9.310024 Y11.895013 Z-1.000000 I-2.307876 J0.180601
G02 X9.237530 Y12.038188 Z-1.000000 I0.313326 J0.158647
G03 X9.196619 Y12.321988 Z-1.000000 I-1.278576 J-0.039465
G03 X9.117422 Y12.177810 Z-1.000000 I0.665041 J-0.285769
G03 X9.096185 Y11.984497 Z-1.000000 I1.139150 J-0.222967
G02 X8.904916 Y12.306643 Z-1.000000 I0.748327 J0.444310
G02 X8.745698 Y11.164936 Z-1.000000 I-14.400715 J0.640700
G02 X8.715317 Y11.101257 Z-1.000000 I-0.104267 J0.010659
G02 X8.659037 Y11.328275 Z-1.000000 I0.918836 J0.227786
G03 X8.653364 Y11.608580 Z-1.000000 I-12.710958 J-0.117044
G03 X8.633485 Y12.145570 Z-1.000000 I-46.799791 J-1.463632
G02 X8.613244 Y12.682567 Z-1.000000 I52.993882 J2.266372
G02 X8.600281 Y13.163451 Z-1.000000 I42.479112 J1.385713
G03 X8.542022 Y13.572948 Z-1.000000 I-1.726617 J-0.036752
G02 X8.407714 Y13.614112 Z-1.000000 I-0.027750 J0.072316
G02 X8.363241 Y13.694947 Z-1.000000 I0.070081 J0.091208
G03 X8.303688 Y13.398357 Z-1.000000 I3.354372 J-0.673513
G02 X8.244135 Y13.945721 Z-1.000000 I5.677282 J0.617685
G02 X10.272490 Y15.001873 Z-1.000000 I5.579607 J-137.064466
G02 X12.706344 Y15.079011 Z-1.000000 I25.943750 J-780.143954
G03 X22.364147 Y15.374496 Z-1.000000 I-314.859955 J10449.041681
G03 X27.739808 Y15.545921 Z-1.000000 I-100.549710 J3237.477797
G02 X31.032911 Y15.650050 Z-1.000000 I49.078386 J-1499.992367
G02 X31.265513 Y15.653526 Z-1.000000 I0.227931 J-7.467867
G01 X31.498174 Y15.653382 Z-1.000000
G02 X31.466137 Y12.695695 Z-1.000000 I-32.835065 J-0.000000
G01 X31.433304 Y12.678329 Z-1.000000
G02 X31.398866 Y12.730602 Z-1.000000 I0.039069 J0.063219
G02 X31.405954 Y12.861905 Z-1.000000 I0.324504 J0.048326
G03 X31.410170 Y12.998016 Z-1.000000 I-0.295460 J0.077272
G03 X31.357524 Y13.108956 Z-1.000000 I-0.244290 J-0.047964
G02 X31.307891 Y13.220221 Z-1.000000 I0.173810 J0.144236
G02 X31.317974 Y13.377030 Z-1.000000 I0.371609 J0.054834
G03 X31.315594 Y13.437801 Z-1.000000 I-0.094746 J0.026721
G02 X31.192271 Y13.512040 Z-1.000000 I0.072897 J0.104188
G03 X31.138771 Y13.112014 Z-1.000000 I4.126101 J-0.551782
G02 X31.115394 Y12.539439 Z-1.000000 I-67.891008 J2.485129
G02 X31.103811 Y12.336135 Z-1.000000 I-8.557108 J0.385531
G03 X31.126987 Y12.156675 Z-1.000000 I0.459620 J-0.031869
G03 X31.184761 Y12.096521 Z-1.000000 I0.092920 J0.031422
G02 X31.174171 Y11.954541 Z-1.000000 I-0.145127 J0.010825
G03 X31.114566 Y11.829797 Z-1.000000 I0.146717 J-0.146717
G03 X31.062462 Y10.905572 Z-1.000000 I9.249448 J-0.985024
G02 X31.050712 Y9.962360 Z-1.000000 I-79.873126 J0.523370
G02 X31.041182 Y9.747382 Z-1.000000 I-4.148030 J0.076175
G03 X31.030894 Y9.532413 Z-1.000000 I4.807367 J-0.337802
G03 X31.011552 Y8.584078 Z-1.000000 I93.002125 J-2.371213
G02 X30.960075 Y7.673073 Z-1.000000 I-11.069933 J0.168562
G01 X30.918682 Y7.635538 Z-1.000000
G02 X30.874642 Y9.765279 Z-1.000000 I56.828753 J1.175257
G03 X30.878657 Y11.746532 Z-1.000000 I-70.300738 J1.133111
G01 X30.850652 Y11.751844 Z-1.000000
G03 X30.816491 Y11.603855 Z-1.000000 I0.441810 J-0.179922
G03 X30.787302 Y10.807529 Z-1.000000 I13.099572 J-0.878861
G02 X30.753147 Y10.022740 Z-1.000000 I-10.577687 J0.067217
G02 X30.719372 Y9.967515 Z-1.000000 I-0.071482 J0.005776
G02 X30.656572 Y10.732861 Z-1.000000 I9.113801 J0.747865
G03 X30.610440 Y13.073034 Z-1.000000 I-59.008963 J0.007290
G03 X30.526679 Y12.752234 Z-1.000000 I2.596172 J-0.462001
G03 X30.501222 Y11.881347 Z-1.000000 I18.802042 J-0.985420
G02 X30.466057 Y11.025390 Z-1.000000 I-12.234290 J0.073916
G02 X30.431702 Y10.968936 Z-1.000000 I-0.072664 J0.005539
G02 X30.374402 Y11.125784 Z-1.000000 I0.360035 J0.131508
G03 X30.370204 Y13.420847 Z-1.000000 I-31.008997 J1.090820
G03 X30.281942 Y13.505748 Z-1.000000 I-0.088262 J-0.003428
G03 X30.220652 Y13.344675 Z-1.000000 I0.299666 J-0.114027
G02 X30.245575 Y10.482418 Z-1.000000 I-28.481888 J-1.679246
G02 X30.076779 Y9.877386 Z-1.000000 I-1.372961 J0.056977
G02 X30.032539 Y11.165968 Z-1.000000 I35.583251 J1.221740
G03 X29.969659 Y12.397728 Z-1.000000 I-11.705445 J0.019932
G03 X29.858561 Y11.465259 Z-1.000000 I84.090807 J-4.614813
G03 X29.808872 Y10.212703 Z-1.000000 I152.443743 J-6.674769
G02 X29.750414 Y8.965725 Z-1.000000 I-55.116830 J1.958991
G02 X29.734062 Y8.927767 Z-1.000000 I-0.060396 J0.003517
G02 X29.713482 Y10.180556 Z-1.000000 I52.024577 J0.854556
G03 X29.717464 Y11.465076 Z-1.000000 I-145.974738 J1.094736
G03 X29.711782 Y11.537080 Z-1.000000 I-0.466796 J-0.000607
G02 X29.705544 Y11.609081 Z-1.000000 I0.494234 J0.079087
G02 X29.699092 Y12.431929 Z-1.000000 I65.120684 J0.922094
G03 X29.505569 Y10.928583 Z-1.000000 I15.873254 J-2.043402
G03 X29.340619 Y12.825191 Z-1.000000 I-41.111369 J-0.505781
G02 X29.263702 Y12.611005 Z-1.000000 I-21.261933 J1.746013
G02 X29.249321 Y12.467723 Z-1.000000 I-8.967284 J0.827647
G03 X29.239917 Y12.324179 Z-1.000000 I1.699156 J-0.183401
G03 X29.220581 Y11.232831 Z-1.000000 I97.287661 J-2.269513
G02 X29.177707 Y10.171129 Z-1.000000 I-18.838614 J0.229034
G02 X29.072141 Y11.586638 Z-1.000000 I33.119195 J1.681806
G03 X29.009240 Y13.044325 Z-1.000000 I-20.790672 J-0.166945
G03 X28.937243 Y13.020251 Z-1.000000 I0.046300 J-0.046300
G03 X28.860215 Y10.743200 Z-1.000000 I149.849427 J-6.208919
G01 X28.800305 Y8.458799 Z-1.000000
G02 X28.757347 Y12.610872 Z-1.000000 I1045.766937 J11.338491
G02 X28.758605 Y12.700384 Z-1.000000 I1.953895 J0.017306
G03 X28.741914 Y12.770589 Z-1.000000 I-0.135197 J0.004944
G01 X28.709295 Y12.789864 Z-1.000000
G03 X28.633764 Y12.719173 Z-1.000000 I0.000000 J-0.075696
G03 X28.563072 Y10.583261 Z-1.000000 I32.232065 J-2.135912
G02 X28.456275 Y11.250723 Z-1.000000 I5.924050 J0.947882
G03 X28.364069 Y12.340035 Z-1.000000 I-14.302884 J-0.662126
G03 X28.304945 Y12.319174 Z-1.000000 I0.041347 J-0.038901
G03 X28.241047 Y11.143341 Z-1.000000 I53.332836 J-3.487885
G02 X28.181960 Y9.965417 Z-1.000000 I-86.040598 J3.725521
G02 X27.318590 Y10.264671 Z-1.000000 I-0.362822 J0.331253
G02 X28.104177 Y13.380701 Z-1.000000 I6.092030 J0.121172
G03 X28.025116 Y13.297225 Z-1.000000 I0.094502 J-0.102947
G03 X27.940775 Y11.047967 Z-1.000000 I63.671738 J-3.513737
G02 X27.871491 Y8.805747 Z-1.000000 I-101.408059 J2.011305
G01 X27.845625 Y8.780944 Z-1.000000
G02 X27.831949 Y11.305353 Z-1.000000 I175.511454 J-0.234978
G02 X27.888229 Y13.799323 Z-1.000000 I177.206260 J-2.751310
G02 X27.924315 Y13.850415 Z-1.000000 I0.056584 J-0.001675
G01 X27.952459 Y13.886171 Z-1.000000
G03 X27.941575 Y13.979143 Z-1.000000 I-0.187675 J0.025152
G03 X27.869660 Y14.035929 Z-1.000000 I-0.083759 J-0.032143
G03 X27.426584 Y14.047723 Z-1.000000 I-0.277069 J-2.080333
G02 X26.951948 Y14.016898 Z-1.000000 I-1.314777 J16.574829
G02 X25.842735 Y13.967593 Z-1.000000 I-4.576322 J90.452459
G03 X24.725207 Y13.840089 Z-1.000000 I0.286043 J-7.468182
G01 X24.717407 Y13.752426 Z-1.000000
G02 X24.780139 Y13.673830 Z-1.000000 I-0.035591 J-0.092740
G02 X24.802697 Y13.159479 Z-1.000000 I-2.576840 J-0.370684
G03 X24.779966 Y12.610611 Z-1.000000 I19.869561 J-1.097788
G03 X24.734557 Y10.689695 Z-1.000000 I242.961443 J-6.704425
G02 X24.649276 Y8.783977 Z-1.000000 I-38.097605 J0.750097
G02 X24.589648 Y8.615614 Z-1.000000 I-0.333245 J0.023283
G03 X24.487940 Y8.315192 Z-1.000000 I0.462666 J-0.324064
G03 X24.572048 Y8.195485 Z-1.000000 I0.120081 J-0.005030
G03 X24.663550 Y8.181982 Z-1.000000 I0.088274 J0.281402
G03 X26.226098 Y8.213675 Z-1.000000 I-0.916551 J83.723017
G03 X27.765122 Y8.305186 Z-1.000000 I-0.763881 J25.834301
G03 X27.854742 Y8.359365 Z-1.000000 I-0.010627 J0.118790
G01 X27.885110 Y8.350654 Z-1.000000
G02 X27.873112 Y7.027034 Z-1.000000 I-28.957746 J-0.399379
G02 X27.815382 Y5.599989 Z-1.000000 I-83.794583 J2.675151
G02 X27.801502 Y5.565447 Z-1.000000 I-0.056852 J0.002785
G02 X27.775602 Y6.651308 Z-1.000000 I45.314054 J1.081182
G03 X27.756014 Y7.763364 Z-1.000000 I-31.577585 J0.000000
G03 X27.732302 Y7.879823 Z-1.000000 I-0.360171 J-0.012692
G03 X27.552529 Y7.541821 Z-1.000000 I0.678149 J-0.360679
G02 X27.454979 Y7.653428 Z-1.000000 I0.190160 J0.166223
G03 X27.390465 Y7.897527 Z-1.000000 I-1.291071 J-0.210646
G03 X27.224574 Y7.653428 Z-1.000000 I1.305307 J-0.636414
G03 X27.104187 Y7.893782 Z-1.000000 I-1.052115 J-0.035629
G03 X27.000774 Y7.871708 Z-1.000000 I0.000000 J-0.069368
G03 X26.923148 Y7.420767 Z-1.000000 I2.005055 J-0.577307
G02 X26.882539 Y7.371184 Z-1.000000 I-0.054622 J0.003315
G03 X26.804764 Y7.742272 Z-1.000000 I-1.475055 J0.000000
G03 X26.737626 Y7.850292 Z-1.000000 I-0.195477 J-0.046622
G03 X26.630244 Y7.501118 Z-1.000000 I1.079664 J-0.332031
G02 X26.593892 Y7.099183 Z-1.000000 I-2.240250 J0.000000
G02 X26.510594 Y7.216645 Z-1.000000 I0.236608 J0.061079
G03 X26.527380 Y7.678174 Z-1.000000 I-1.026475 J0.268402
G03 X26.406531 Y7.778704 Z-1.000000 I-0.120849 J-0.022371
G03 X26.342791 Y7.617631 Z-1.000000 I0.349360 J-0.138243
G02 X26.322213 Y7.462379 Z-1.000000 I-0.628137 J0.004268
G02 X26.272301 Y7.349176 Z-1.000000 I-0.379068 J0.099528
G02 X26.201811 Y7.550543 Z-1.000000 I0.568856 J0.199141
G03 X26.149771 Y7.802698 Z-1.000000 I-0.648052 J-0.002300
G03 X26.075436 Y7.846548 Z-1.000000 I-0.066966 J-0.028590
G02 X25.951399 Y7.841547 Z-1.000000 I-0.102997 J1.013786
G02 X25.914363 Y7.849848 Z-1.000000 I0.001974 J0.095572
G03 X25.505100 Y7.933144 Z-1.000000 I-0.389382 J-0.866100
G03 X25.413248 Y7.839348 Z-1.000000 I0.001964 J-0.093796
G02 X25.279484 Y7.845248 Z-1.000000 I0.011135 J0.253598
G03 X25.149565 Y7.807329 Z-1.000000 I-0.045616 J-0.085235
G03 X25.044582 Y7.426724 Z-1.000000 I0.717447 J-0.402675
G02 X25.023425 Y7.241165 Z-1.000000 I-1.078087 J0.028934
G03 X24.893039 Y7.707432 Z-1.000000 I-2.055526 J-0.256516
G03 X24.821915 Y7.739521 Z-1.000000 I-0.051432 J-0.019130
G03 X24.773481 Y7.676961 Z-1.000000 I0.027386 J-0.071232
G03 X24.709637 Y6.757714 Z-1.000000 I10.283318 J-1.176040
G02 X24.664345 Y5.819093 Z-1.000000 I-20.079119 J0.498486
G02 X24.638047 Y5.759859 Z-1.000000 I-0.095249 J0.006833
G01 X24.614162 Y5.768952 Z-1.000000
G02 X24.601477 Y6.762948 Z-1.000000 I20.986786 J0.764895
G03 X24.564723 Y7.800088 Z-1.000000 I-11.190053 J0.122670
G03 X24.503497 Y7.958526 Z-1.000000 I-0.299066 J-0.024521
G03 X24.438247 Y7.909666 Z-1.000000 I0.032161 J-0.042949
G02 X24.440475 Y7.567391 Z-1.000000 I-0.761130 J-0.176100
G02 X24.347337 Y7.492347 Z-1.000000 I-0.093138 J0.020275
G02 X24.283397 Y7.850287 Z-1.000000 I2.495266 J0.445704
G02 X24.303385 Y8.174181 Z-1.000000 I1.545795 J0.067170
G03 X24.371007 Y8.286616 Z-1.000000 I-0.060378 J0.021082
G02 X24.363134 Y8.363328 Z-1.000000 I0.075202 J0.046478
G02 X24.474164 Y8.570069 Z-1.000000 I0.769350 J-0.279993
G03 X24.562852 Y8.795861 Z-1.000000 I-0.376033 J0.278014
G03 X24.625771 Y9.919209 Z-1.000000 I-9.996591 J1.123348
G03 X24.591905 Y11.044413 Z-1.000000 I-18.709220 J-0.000000
G03 X24.554181 Y11.107533 Z-1.000000 I-0.079704 J-0.004802
G01 X24.516767 Y11.090490 Z-1.000000
G03 X24.482591 Y10.670299 Z-1.000000 I2.566023 J-0.420191
G02 X24.460134 Y10.243044 Z-1.000000 I-4.075582 J0.000000
G02 X24.412452 Y10.289342 Z-1.000000 I0.058758 J0.058735
G02 X24.404991 Y10.871209 Z-1.000000 I7.872009 J0.391919
G03 X24.394796 Y11.404744 Z-1.000000 I-6.188438 J0.148612
G03 X24.337825 Y11.342182 Z-1.000000 I0.081505 J-0.081505
G03 X24.201730 Y9.468231 Z-1.000000 I65.115319 J-5.670901
G02 X24.108883 Y8.195075 Z-1.000000 I-43.430282 J2.527249
G02 X24.085726 Y8.145431 Z-1.000000 I-0.079791 J0.006997
G01 X24.065109 Y8.153392 Z-1.000000
G02 X24.053116 Y8.818296 Z-1.000000 I10.924845 J0.529609
G03 X24.042846 Y11.313524 Z-1.000000 I-75.718081 J0.935997
G01 X24.001336 Y11.330228 Z-1.000000
G03 X23.972798 Y11.268227 Z-1.000000 I0.069607 J-0.069607
G03 X23.868637 Y9.618083 Z-1.000000 I57.615232 J-4.465167
G01 X23.787667 Y7.957665 Z-1.000000
G03 X23.736328 Y11.099235 Z-1.000000 I-43.553902 J-0.321797
G03 X23.703497 Y11.203821 Z-1.000000 I-0.212357 J-0.009216
G01 X23.634822 Y11.187224 Z-1.000000
G03 X23.554896 Y9.568393 Z-1.000000 I19.555575 J-1.776897
G02 X23.520195 Y8.182187 Z-1.000000 I-40.896880 J0.330251
G02 X23.494116 Y8.122353 Z-1.000000 I-0.090391 J0.003797
G01 X23.469319 Y8.132148 Z-1.000000
G02 X23.450826 Y9.682363 Z-1.000000 I49.002600 J1.359788
G03 X23.432941 Y11.279054 Z-1.000000 I-53.085581 J0.203819
G03 X23.407696 Y11.322970 Z-1.000000 I-0.053253 J-0.001398
G01 X23.335205 Y11.285950 Z-1.000000
G03 X23.265609 Y9.378425 Z-1.000000 I26.106572 J-1.907525
G02 X23.228248 Y8.746708 Z-1.000000 I-5.359287 J0.000000
