%
(Header)
(Generated by gcodetools from Inkscape.)
(Using default header. To add your own header create file "header" in the output dir.)
M3
(Header end.)
G21 (All units in mm)

(Start cutting path id: path139)
(Change tool to Default tool)

G00 Z 5.0000
G00 X 2.0223 Y 9.4277

G01 Z -1.0000 F 100.0000(Penetrate)
G02 X 2.1406 Y 15.2137 Z -1.0000 I 150.9710 J -0.1928 F 400.0000
G02 X 2.2662 Y 15.5813 Z -1.0000 I 0.6797 J -0.0269
G03 X 2.4731 Y 15.9228 Z -1.0000 I -2.1994 J 1.5661
G03 X 2.5026 Y 16.0459 Z -1.0000 I -0.2419 J 0.1231
G02 X 2.5476 Y 16.1335 Z -1.0000 I 0.1076 J 0.0000
G02 X 2.6879 Y 16.1785 Z -1.0000 I 0.1403 J -0.1960
G03 X 2.8398 Y 16.2270 Z -1.0000 I -0.0000 J 0.2619
G03 X 2.9428 Y 16.3600 Z -1.0000 I -0.1690 J 0.2373
G02 X 3.1030 Y 16.4493 Z -1.0000 I 0.1336 J -0.0513
G02 X 3.2636 Y 16.2995 Z -1.0000 I -0.0381 J -0.2018
G02 X 3.2702 Y 16.1013 Z -1.0000 I -0.4346 J -0.1136
G02 X 3.2172 Y 16.0575 Z -1.0000 I -0.0530 J 0.0102
G03 X 3.1471 Y 16.0163 Z -1.0000 I 0.0000 J -0.0803
G03 X 3.0991 Y 15.8458 Z -1.0000 I 0.3331 J -0.1859
G01 X 3.0571 Y 15.8149 Z -1.0000
G02 X 2.9866 Y 15.8760 Z -1.0000 I 0.0277 J 0.1033
G01 X 2.9281 Y 15.8837 Z -1.0000
G03 X 2.8741 Y 15.7334 Z -1.0000 I 0.1976 J -0.1559
G02 X 2.8089 Y 15.3730 Z -1.0000 I -1.1716 J 0.0259
G02 X 2.6724 Y 15.1556 Z -1.0000 I -0.5438 J 0.1899
G03 X 2.6199 Y 14.7685 Z -1.0000 I 0.2280 J -0.2280
G03 X 2.9318 Y 14.6982 Z -1.0000 I 0.1879 J 0.1066
G03 X 3.3926 Y 15.2644 Z -1.0000 I -0.7693 J 1.0966
G03 X 3.5915 Y 16.2282 Z -1.0000 I -2.2351 J 0.9638
G02 X 3.6272 Y 16.3510 Z -1.0000 I 0.2289 J -0.0000
G02 X 3.8032 Y 16.5612 Z -1.0000 I 0.8888 J -0.5651
G03 X 4.0044 Y 16.7654 Z -1.0000 I -1.9584 J 2.1305
G03 X 4.2247 Y 17.0337 Z -1.0000 I -3.1671 J 2.8250
G02 X 4.3576 Y 17.0264 Z -1.0000 I 0.0640 J -0.0483
G02 X 4.3661 Y 16.7961 Z -1.0000 I -0.2067 J -0.1230
G03 X 4.2280 Y 16.4008 Z -1.0000 I 1.4845 J -0.7406
G03 X 4.2333 Y 16.1716 Z -1.0000 I 0.4860 J -0.1034
G02 X 4.2438 Y 15.9571 Z -1.0000 I -0.5060 J -0.1323
G02 X 4.1851 Y 15.8689 Z -1.0000 I -0.1255 J 0.0200
G01 X 4.1198 Y 15.8807 Z -1.0000
G02 X 4.0755 Y 16.0100 Z -1.0000 I 0.1663 J 0.1293
G01 X 4.0228 Y 16.0221 Z -1.0000
G03 X 3.9023 Y 15.6523 Z -1.0000 I 1.2916 J -0.6253
G03 X 3.8864 Y 15.2870 Z -1.0000 I 1.3317 J -0.2410
G01 X 3.9384 Y 15.2611 Z -1.0000
G02 X 4.0451 Y 15.2778 Z -1.0000 I 0.0732 J -0.1185
G02 X 4.1347 Y 15.2125 Z -1.0000 I -0.0353 J -0.1425
G03 X 4.3160 Y 15.1586 Z -1.0000 I 0.1208 J 0.0747
G03 X 4.4524 Y 15.3618 Z -1.0000 I -0.1012 J 0.2154
G02 X 4.4876 Y 15.4234 Z -1.0000 I 0.0788 J -0.0041
G01 X 4.5243 Y 15.4093 Z -1.0000
G02 X 4.5291 Y 15.1992 Z -1.0000 I -0.4485 J -0.1154
G02 X 4.4498 Y 15.0524 Z -1.0000 I -0.2858 J 0.0597
G03 X 4.3533 Y 14.9052 Z -1.0000 I 0.3055 J -0.3054
G03 X 4.3174 Y 14.7162 Z -1.0000 I 0.4802 J -0.1890
G02 X 4.2577 Y 14.2887 Z -1.0000 I -1.5593 J 0.0000
G02 X 3.7591 Y 12.7581 Z -1.0000 I -20.8466 J 5.9442
G03 X 3.6454 Y 12.2532 Z -1.0000 I 1.8665 J -0.6857
G03 X 3.7068 Y 12.1858 Z -1.0000 I 0.0615 J -0.0056
G03 X 4.3682 Y 12.6392 Z -1.0000 I 0.0000 J 0.7090
G03 X 4.4641 Y 14.1440 Z -1.0000 I -2.3392 J 0.9046
G02 X 4.4649 Y 14.2259 Z -1.0000 I 0.1594 J 0.0393
G02 X 4.6225 Y 14.7339 Z -1.0000 I 6.6892 J -1.7965
G03 X 4.7691 Y 15.2464 Z -1.0000 I -4.1535 J 1.4654
G03 X 4.8014 Y 15.5411 Z -1.0000 I -1.3297 J 0.2947
G02 X 4.8695 Y 15.7422 Z -1.0000 I 0.3309 J -0.0000
G02 X 4.9790 Y 15.7731 Z -1.0000 I 0.0754 J -0.0577
G03 X 5.2124 Y 15.8476 Z -1.0000 I 0.0702 J 0.1830
G03 X 5.1669 Y 16.0558 Z -1.0000 I -0.1235 J 0.0821
G02 X 5.0292 Y 16.4226 Z -1.0000 I 0.1684 J 0.2724
G02 X 5.3540 Y 16.6623 Z -1.0000 I 0.3247 J -0.1002
G03 X 5.4754 Y 16.7142 Z -1.0000 I -0.0000 J 0.1679
G03 X 5.5273 Y 16.8438 Z -1.0000 I -0.1357 J 0.1295
G02 X 5.5662 Y 16.9863 Z -1.0000 I 0.2801 J -0.0000
G02 X 5.6345 Y 17.0253 Z -1.0000 I 0.0683 J -0.0404
G03 X 5.7778 Y 17.1356 Z -1.0000 I 0.0000 J 0.1481
G03 X 5.9006 Y 18.0342 Z -1.0000 I -3.6027 J 0.9500
G02 X 5.9658 Y 18.0866 Z -1.0000 I 0.0543 J -0.0008
G02 X 6.1389 Y 17.9854 Z -1.0000 I -0.0626 J -0.3057
G02 X 6.3503 Y 17.7052 Z -1.0000 I -1.9510 J -1.6921
G02 X 6.3742 Y 17.6251 Z -1.0000 I -0.1227 J -0.0801
G03 X 6.4099 Y 17.5748 Z -1.0000 I 0.0533 J 0.0000
G03 X 6.5813 Y 17.5529 Z -1.0000 I 0.1374 J 0.3941
G03 X 6.7330 Y 17.6410 Z -1.0000 I -0.0164 J 0.2029
G03 X 6.9869 Y 18.1467 Z -1.0000 I -1.7500 J 1.1953
G02 X 7.2048 Y 18.7118 Z -1.0000 I 7.8296 J -2.6941
G02 X 7.2704 Y 18.8087 Z -1.0000 I 0.2841 J -0.1216
G02 X 7.4765 Y 18.7740 Z -1.0000 I 0.0907 J -0.0907
G02 X 7.5195 Y 18.2956 Z -1.0000 I -0.6093 J -0.2959
G03 X 7.2255 Y 16.9856 Z -1.0000 I 12.4158 J -3.4740
G03 X 7.2208 Y 16.5413 Z -1.0000 I 1.3922 J -0.2370
G02 X 7.1713 Y 15.7505 Z -1.0000 I -1.8819 J -0.2792
G02 X 6.6091 Y 14.3505 Z -1.0000 I -6.6444 J 1.8550
G03 X 6.5539 Y 14.1619 Z -1.0000 I 0.4221 J -0.2259
G01 X 6.5912 Y 14.1216 Z -1.0000
G03 X 6.6684 Y 14.1644 Z -1.0000 I -0.0000 J 0.0911
G03 X 6.9887 Y 14.7568 Z -1.0000 I -4.4953 J 2.8130
G02 X 7.3034 Y 15.3698 Z -1.0000 I 7.4128 J -3.4182
G02 X 7.3723 Y 15.4323 Z -1.0000 I 0.1293 J -0.0734
G03 X 7.4273 Y 15.4958 Z -1.0000 I -0.0402 J 0.0903
G03 X 7.4630 Y 15.7549 Z -1.0000 I -0.9210 J 0.2591
G02 X 7.5085 Y 16.0044 Z -1.0000 I 0.7070 J -0.0000
G02 X 7.5848 Y 16.0778 Z -1.0000 I 0.1153 J -0.0435
G03 X 7.6351 Y 16.1524 Z -1.0000 I -0.0233 J 0.0699
G03 X 7.5573 Y 16.5139 Z -1.0000 I -1.2431 J -0.0784
G02 X 7.4863 Y 16.9017 Z -1.0000 I 1.0310 J 0.3892
G02 X 7.5565 Y 17.1472 Z -1.0000 I 0.4624 J 0.0006
G03 X 7.6698 Y 17.3950 Z -1.0000 I -0.8946 J 0.5587
G03 X 7.7050 Y 17.6285 Z -1.0000 I -0.7571 J 0.2335
G02 X 7.7502 Y 17.8269 Z -1.0000 I 0.4577 J -0.0000
G02 X 7.8222 Y 17.8722 Z -1.0000 I 0.0720 J -0.0346
G03 X 7.8787 Y 17.9139 Z -1.0000 I 0.0000 J 0.0592
G03 X 7.8744 Y 18.0414 Z -1.0000 I -0.1865 J 0.0576
G02 X 7.8659 Y 18.1916 Z -1.0000 I 0.2306 J 0.0885
G02 X 7.9387 Y 18.2905 Z -1.0000 I 0.1594 J -0.0411
G03 X 8.0142 Y 18.4003 Z -1.0000 I -0.0867 J 0.1404
G03 X 8.0680 Y 18.9768 Z -1.0000 I -3.0616 J 0.5765
G02 X 8.1338 Y 19.5560 Z -1.0000 I 2.5803 J 0.0000
G02 X 8.2494 Y 19.7647 Z -1.0000 I 0.4215 J -0.0971
G03 X 8.3818 Y 19.9665 Z -1.0000 I -0.4190 J 0.4191
G03 X 8.4309 Y 20.2252 Z -1.0000 I -0.6566 J 0.2587
G02 X 8.4968 Y 20.4699 Z -1.0000 I 0.4874 J -0.0000
G02 X 8.7031 Y 20.6942 Z -1.0000 I 0.6096 J -0.3539
G03 X 8.8065 Y 20.8338 Z -1.0000 I -0.1560 J 0.2236
G01 X 8.7667 Y 20.8904 Z -1.0000
G02 X 8.6542 Y 20.9740 Z -1.0000 I 0.0038 J 0.1226
G02 X 8.6327 Y 21.2900 Z -1.0000 I 0.5936 J 0.1990
G02 X 8.7345 Y 21.6740 Z -1.0000 I 2.7414 J -0.5211
G02 X 8.8920 Y 22.0461 Z -1.0000 I 2.7323 J -0.9369
G03 X 9.0604 Y 22.4158 Z -1.0000 I -4.2378 J 2.1546
G03 X 9.2351 Y 22.8930 Z -1.0000 I -6.8970 J 2.7939
G01 X 9.3936 Y 23.3770 Z -1.0000
G01 X 9.3723 Y 22.7274 Z -1.0000
G03 X 9.4315 Y 22.1171 Z -1.0000 I 2.3728 J -0.0778
G03 X 9.5564 Y 21.9277 Z -1.0000 I 0.3166 J 0.0729
G02 X 9.6597 Y 21.7541 Z -1.0000 I -0.1522 J -0.2082
G02 X 9.5877 Y 21.6971 Z -1.0000 I -0.0529 J -0.0072
G03 X 9.4735 Y 21.6592 Z -1.0000 I -0.0340 J -0.0886
G03 X 9.3365 Y 21.3001 Z -1.0000 I 0.8187 J -0.5178
G02 X 9.2398 Y 20.8416 Z -1.0000 I -5.3237 J 0.8841
G02 X 9.1302 Y 20.4969 Z -1.0000 I -3.1156 J 0.8003
G03 X 9.0738 Y 20.1730 Z -1.0000 I 0.8068 J -0.3073
G03 X 9.1394 Y 20.0190 Z -1.0000 I 0.2239 J 0.0043
G03 X 9.2231 Y 20.0127 Z -1.0000 I 0.0455 J 0.0455
G03 X 9.2778 Y 20.1211 Z -1.0000 I -0.0800 J 0.1084
G02 X 9.3159 Y 20.3525 Z -1.0000 I 0.7222 J -0.0000
G02 X 9.5198 Y 20.8363 Z -1.0000 I 3.4268 J -1.1594
G02 X 9.7055 Y 21.0766 Z -1.0000 I 0.7296 J -0.3720
G01 X 9.7618 Y 21.0513 Z -1.0000
G02 X 9.5747 Y 19.3734 Z -1.0000 I -7.6174 J 0.0000
G02 X 9.2909 Y 18.9659 Z -1.0000 I -0.6429 J 0.1452
G03 X 9.2124 Y 18.8542 Z -1.0000 I 0.0999 J -0.1536
G03 X 8.9118 Y 17.3515 Z -1.0000 I 22.4621 J -5.2741
G02 X 8.7644 Y 16.6599 Z -1.0000 I -7.6179 J 1.2621
G02 X 8.6639 Y 16.4035 Z -1.0000 I -1.1336 J 0.2965
G03 X 8.5823 Y 16.1650 Z -1.0000 I 0.6901 J -0.3693
G03 X 8.6092 Y 16.0807 Z -1.0000 I 0.0950 J -0.0161
G03 X 8.7517 Y 16.1125 Z -1.0000 I 0.0612 J 0.0612
G03 X 8.9828 Y 17.1138 Z -1.0000 I -4.0300 J 1.4576
G02 X 9.1800 Y 17.7538 Z -1.0000 I 1.7430 J -0.1867
G02 X 9.3164 Y 17.7376 Z -1.0000 I 0.0651 J -0.0348
G03 X 9.4201 Y 17.5788 Z -1.0000 I 0.2896 J 0.0757
G03 X 9.5246 Y 17.5727 Z -1.0000 I 0.0566 J 0.0714
G01 X 9.5816 Y 17.5501 Z -1.0000
G02 X 9.5786 Y 17.3731 Z -1.0000 I -0.3083 J -0.0834
G02 X 9.4089 Y 17.0555 Z -1.0000 I -0.8960 J 0.2746
G01 X 9.3443 Y 17.0857 Z -1.0000
G03 X 9.3408 Y 17.2608 Z -1.0000 I -0.4127 J 0.0794
G01 X 9.3018 Y 17.2672 Z -1.0000
G03 X 9.2211 Y 17.0746 Z -1.0000 I 0.5676 J -0.3512
G03 X 9.1126 Y 16.4930 Z -1.0000 I 5.2003 J -1.2713
G02 X 8.9962 Y 15.9174 Z -1.0000 I -4.1504 J 0.5393
G02 X 8.9054 Y 15.7435 Z -1.0000 I -0.4503 J 0.1244
G03 X 8.7710 Y 15.2684 Z -1.0000 I 0.4691 J -0.3893
G03 X 9.0086 Y 15.0173 Z -1.0000 I 0.2959 J 0.0421
G01 X 9.0423 Y 15.0277 Z -1.0000
G01 X 9.0389 Y 15.0482 Z -1.0000
G02 X 8.9709 Y 15.2171 Z -1.0000 I 0.0608 J 0.1226
G02 X 9.2778 Y 15.7135 Z -1.0000 I 1.3240 J -0.4755
G03 X 9.5807 Y 16.1178 Z -1.0000 I -1.5276 J 1.4599
G03 X 9.6435 Y 16.3476 Z -1.0000 I -0.4072 J 0.2348
G02 X 9.6883 Y 16.5918 Z -1.0000 I 0.7305 J -0.0078
G02 X 10.0037 Y 17.3278 Z -1.0000 I 7.1304 J -2.6207
G03 X 10.2992 Y 18.1120 Z -1.0000 I -3.8683 J 1.9052
G01 X 10.2290 Y 18.1643 Z -1.0000
G02 X 9.9660 Y 18.3409 Z -1.0000 I -0.0914 J 0.1479
G02 X 10.3921 Y 19.1425 Z -1.0000 I 1.4093 J -0.2351
G01 X 10.4448 Y 19.1260 Z -1.0000
G02 X 10.4471 Y 18.8750 Z -1.0000 I -0.6386 J -0.1315
G03 X 10.4350 Y 18.5132 Z -1.0000 I 1.1839 J -0.2210
G03 X 10.5022 Y 18.4077 Z -1.0000 I 0.1428 J 0.0168
G02 X 10.5673 Y 18.3061 Z -1.0000 I -0.0733 J -0.1186
G02 X 10.5438 Y 18.0703 Z -1.0000 I -0.5347 J -0.0660
G03 X 10.4835 Y 17.8070 Z -1.0000 I 1.3444 J -0.4467
G03 X 10.4311 Y 17.2068 Z -1.0000 I 6.9883 J -0.9124
G02 X 10.3904 Y 16.6030 Z -1.0000 I -13.1246 J 0.5818
G02 X 10.3078 Y 15.8457 Z -1.0000 I -20.7346 J 1.8789
G03 X 10.4305 Y 15.6150 Z -1.0000 I 0.2243 J -0.0286
G03 X 10.6087 Y 15.6945 Z -1.0000 I 0.0566 J 0.1126
G02 X 10.8235 Y 16.2338 Z -1.0000 I 2.4809 J -0.6756
G02 X 10.9330 Y 16.2994 Z -1.0000 I 0.1095 J -0.0587
G03 X 11.0367 Y 16.3552 Z -1.0000 I 0.0000 J 0.1243
G03 X 11.0926 Y 16.5414 Z -1.0000 I -0.2821 J 0.1861
G02 X 11.1531 Y 16.7228 Z -1.0000 I 0.3025 J 0.0000
G02 X 11.2741 Y 16.7833 Z -1.0000 I 0.1210 J -0.0907
G03 X 11.3703 Y 16.8771 Z -1.0000 I 0.0000 J 0.0962
G03 X 11.2858 Y 17.2446 Z -1.0000 I -0.7578 J 0.0193
G02 X 11.1959 Y 17.5842 Z -1.0000 I 0.7201 J 0.3724
G02 X 11.2459 Y 18.2295 Z -1.0000 I 2.7502 J 0.1114
G02 X 11.3918 Y 18.6606 Z -1.0000 I 1.7070 J -0.3375
G01 X 11.4562 Y 18.6567 Z -1.0000
G01 X 11.5052 Y 18.6610 Z -1.0000
G03 X 11.6243 Y 19.6923 Z -1.0000 I -11.1698 J 1.8131
G02 X 12.0064 Y 22.6613 Z -1.0000 I 25.3863 J -1.7582
G02 X 12.1837 Y 22.6511 Z -1.0000 I 0.0880 J -0.0166
G02 X 12.1993 Y 22.2885 Z -1.0000 I -6.0835 J -0.4431
G02 X 12.1905 Y 22.1369 Z -1.0000 I -1.0683 J -0.0141
G03 X 12.2120 Y 22.0219 Z -1.0000 I 0.1880 J -0.0244
G03 X 12.2729 Y 21.9857 Z -1.0000 I 0.0609 J 0.0331
G02 X 12.3251 Y 21.9401 Z -1.0000 I 0.0000 J -0.0528
G02 X 12.3352 Y 21.5320 Z -1.0000 I -1.8118 J -0.2490
G01 X 12.2956 Y 21.0783 Z -1.0000
G01 X 12.4654 Y 21.5295 Z -1.0000
G03 X 12.6684 Y 22.4548 Z -1.0000 I -3.0907 J 1.1632
G03 X 12.5420 Y 22.5906 Z -1.0000 I -0.1264 J 0.0091
G02 X 12.3663 Y 22.7640 Z -1.0000 I 0.0000 J 0.1757
G02 X 12.5151 Y 24.5869 Z -1.0000 I 9.6460 J 0.1300
G02 X 12.7584 Y 25.4524 Z -1.0000 I 4.5411 J -0.8094
G01 X 12.8451 Y 25.4338 Z -1.0000
G02 X 12.6660 Y 24.0124 Z -1.0000 I -9.5150 J 0.4770
G02 X 12.5094 Y 23.7825 Z -1.0000 I -0.3521 J 0.0716
G03 X 12.4055 Y 23.4641 Z -1.0000 I 0.1447 J -0.2233
G03 X 12.6646 Y 23.3765 Z -1.0000 I 0.1658 J 0.0634
G02 X 12.7492 Y 23.3769 Z -1.0000 I 0.0426 J -0.0689
G02 X 12.8015 Y 23.2934 Z -1.0000 I -0.0570 J -0.0939
G01 X 12.8456 Y 23.2911 Z -1.0000
G03 X 13.1293 Y 24.8894 Z -1.0000 I -29.5923 J 6.0781
G02 X 13.2581 Y 25.3407 Z -1.0000 I 1.8049 J -0.2706
G01 X 13.3239 Y 25.3411 Z -1.0000
G02 X 13.3702 Y 25.1207 Z -1.0000 I -0.4919 J -0.2182
G02 X 13.3202 Y 24.4337 Z -1.0000 I -5.0350 J 0.0207
G03 X 13.2479 Y 23.7384 Z -1.0000 I 9.2486 J -1.3138
G03 X 13.2320 Y 23.1048 Z -1.0000 I 7.6577 J -0.5081
G02 X 13.1925 Y 22.5187 Z -1.0000 I -3.5153 J -0.0574
G02 X 13.1354 Y 22.4696 Z -1.0000 I -0.0571 J 0.0087
G03 X 13.0673 Y 22.4307 Z -1.0000 I 0.0000 J -0.0791
G03 X 13.0284 Y 22.2882 Z -1.0000 I 0.2418 J -0.1426
G03 X 13.1564 Y 22.1469 Z -1.0000 I 0.1420 J 0.0000
G03 X 13.3333 Y 22.2579 Z -1.0000 I 0.0168 J 0.1696
G03 X 13.4425 Y 22.6826 Z -1.0000 I -2.0911 J 0.7644
G03 X 13.5034 Y 23.3597 Z -1.0000 I -5.2866 J 0.8162
G02 X 13.5795 Y 23.6049 Z -1.0000 I 0.4720 J -0.0122
G02 X 13.6850 Y 23.6391 Z -1.0000 I 0.0739 J -0.0480
G03 X 13.9082 Y 23.7281 Z -1.0000 I 0.0634 J 0.1653
G03 X 14.1671 Y 24.6474 Z -1.0000 I -2.5247 J 1.2072
G02 X 14.4140 Y 26.4662 Z -1.0000 I 28.6326 J -2.9614
G02 X 14.5085 Y 26.6749 Z -1.0000 I 0.4421 J -0.0744
G03 X 14.5780 Y 26.8418 Z -1.0000 I -0.2458 J 0.2002
G03 X 14.5672 Y 27.2297 Z -1.0000 I -1.4538 J 0.1538
G02 X 14.5537 Y 27.6206 Z -1.0000 I 1.5326 J 0.2487
G02 X 14.6200 Y 27.8034 Z -1.0000 I 0.3820 J -0.0351
G01 X 14.6550 Y 27.7981 Z -1.0000
G02 X 14.6567 Y 27.6871 Z -1.0000 I -0.1846 J -0.0583
G03 X 14.6544 Y 27.5046 Z -1.0000 I 0.3368 J -0.0954
G01 X 14.7092 Y 27.4825 Z -1.0000
G02 X 14.7850 Y 27.4609 Z -1.0000 I 0.0280 J -0.0453
G02 X 14.8432 Y 27.2121 Z -1.0000 I -0.5022 J -0.2488
G03 X 14.8587 Y 26.8600 Z -1.0000 I 4.0163 J -0.0000
G03 X 14.9263 Y 26.2673 Z -1.0000 I 11.4618 J 1.0088
G03 X 15.0298 Y 25.9699 Z -1.0000 I 0.8039 J 0.1130
G01 X 15.0958 Y 25.9782 Z -1.0000
G02 X 15.2125 Y 25.9664 Z -1.0000 I 0.0573 J -0.0163
G02 X 15.2282 Y 24.2542 Z -1.0000 I -12.6621 J -0.9729
G03 X 15.2592 Y 23.8547 Z -1.0000 I 1.4791 J -0.0862
G03 X 15.3264 Y 23.8005 Z -1.0000 I 0.0672 J 0.0145
G02 X 15.3868 Y 23.7457 Z -1.0000 I 0.0000 J -0.0607
G02 X 15.3736 Y 23.3165 Z -1.0000 I -1.6749 J -0.1635
G03 X 15.3520 Y 22.8802 Z -1.0000 I 1.9821 J -0.3169
G03 X 15.4024 Y 22.8328 Z -1.0000 I 0.0504 J 0.0030
G02 X 15.4570 Y 22.7826 Z -1.0000 I 0.0001 J -0.0546
G02 X 15.4821 Y 21.8485 Z -1.0000 I -8.6531 J -0.7006
G03 X 15.4978 Y 20.9620 Z -1.0000 I 9.9467 J -0.2678
G01 X 15.5383 Y 20.9467 Z -1.0000
G03 X 15.5851 Y 21.0447 Z -1.0000 I -0.1152 J 0.1152
G03 X 15.6456 Y 21.9612 Z -1.0000 I -11.5705 J 1.2243
G02 X 15.7314 Y 24.0619 Z -1.0000 I 73.2371 J -1.9389
G02 X 15.8140 Y 25.0103 Z -1.0000 I 14.9949 J -0.8281
G01 X 15.8326 Y 25.0149 Z -1.0000
G02 X 16.0639 Y 24.6474 Z -1.0000 I -4.3399 J -2.9871
G01 X 16.3066 Y 24.2239 Z -1.0000
G01 X 16.2389 Y 24.5869 Z -1.0000
G02 X 16.0631 Y 26.2492 Z -1.0000 I 10.4000 J 1.9401
G02 X 16.1571 Y 27.6993 Z -1.0000 I 7.9909 J 0.2099
G03 X 16.2730 Y 28.5819 Z -1.0000 I -17.4638 J 2.7425
G03 X 16.3654 Y 29.6683 Z -1.0000 I -26.3764 J 2.7906
G02 X 16.7729 Y 34.2058 Z -1.0000 I 89.9988 J -5.7946
G02 X 16.8887 Y 34.2052 Z -1.0000 I 0.0578 J -0.0067
G01 X 16.9471 Y 34.1652 Z -1.0000
G03 X 17.0853 Y 34.2586 Z -1.0000 I -0.0676 J 0.2491
G03 X 17.2004 Y 34.5534 Z -1.0000 I -0.4642 J 0.3511
G01 X 17.1177 Y 34.5924 Z -1.0000
G02 X 16.9144 Y 34.6527 Z -1.0000 I -0.0853 J 0.0853
G02 X 16.9829 Y 35.2295 Z -1.0000 I 0.8851 J 0.1874
G02 X 17.2366 Y 35.4195 Z -1.0000 I 0.3081 J -0.1469
G02 X 17.3839 Y 35.2941 Z -1.0000 I 0.0202 J -0.1254
G03 X 17.4346 Y 34.9818 Z -1.0000 I 0.9876 J 0.0000
G03 X 17.5049 Y 34.9312 Z -1.0000 I 0.0703 J 0.0234
G03 X 17.5739 Y 34.9832 Z -1.0000 I 0.0000 J 0.0717
G03 X 17.6259 Y 35.3546 Z -1.0000 I -1.3000 J 0.3714
G02 X 17.6698 Y 35.7341 Z -1.0000 I 1.6603 J 0.0000
G02 X 17.7253 Y 35.7780 Z -1.0000 I 0.0555 J -0.0130
G03 X 17.7880 Y 35.8232 Z -1.0000 I 0.0000 J 0.0662
G03 X 17.9878 Y 36.5595 Z -1.0000 I -6.1148 J 2.0541
G02 X 18.1970 Y 37.1276 Z -1.0000 I 2.0223 J -0.4220
G02 X 18.3018 Y 37.1345 Z -1.0000 I 0.0546 J -0.0298
G02 X 18.3869 Y 36.9299 Z -1.0000 I -0.3805 J -0.2782
G02 X 18.3536 Y 36.8068 Z -1.0000 I -0.1541 J -0.0244
G03 X 18.0442 Y 36.1223 Z -1.0000 I 1.1287 J -0.9224
G03 X 18.1113 Y 35.3419 Z -1.0000 I 1.5635 J -0.2587
G02 X 18.1727 Y 34.9845 Z -1.0000 I -1.0411 J -0.3629
G02 X 18.1182 Y 33.9631 Z -1.0000 I -8.7679 J -0.0440
G03 X 18.0042 Y 32.9347 Z -1.0000 I 405.1311 J -45.4180
G03 X 17.8730 Y 31.7250 Z -1.0000 I 560.2094 J -61.3640
G02 X 17.5370 Y 29.0021 Z -1.0000 I -86.2365 J 9.2579
G02 X 17.4334 Y 28.5728 Z -1.0000 I -2.2257 J 0.3104
G01 X 17.4612 Y 28.5360 Z -1.0000
G03 X 17.5452 Y 28.5794 Z -1.0000 I -0.0069 J 0.1162
G02 X 17.6825 Y 28.6555 Z -1.0000 I 0.1612 J -0.1292
G02 X 17.7430 Y 28.6026 Z -1.0000 I 0.0063 J -0.0539
G03 X 17.7874 Y 28.4580 Z -1.0000 I 0.2728 J 0.0048
G01 X 17.8460 Y 28.4450 Z -1.0000
G03 X 17.9025 Y 28.5308 Z -1.0000 I -0.0642 J 0.1039
G03 X 17.9654 Y 29.2430 Z -1.0000 I -5.8452 J 0.8750
G02 X 18.0454 Y 29.9629 Z -1.0000 I 4.3620 J -0.1202
G02 X 18.1744 Y 30.3079 Z -1.0000 I 1.1076 J -0.2173
G01 X 18.3630 Y 30.6362 Z -1.0000
G01 X 18.2924 Y 30.1523 Z -1.0000
G03 X 18.2978 Y 29.8607 Z -1.0000 I 0.8862 J -0.1293
G01 X 18.3481 Y 29.8498 Z -1.0000
G01 X 18.4133 Y 29.8309 Z -1.0000
G02 X 18.4899 Y 26.7042 Z -1.0000 I -76.0296 J -3.4268
G01 X 18.4940 Y 25.6758 Z -1.0000
G01 X 18.6793 Y 26.3772 Z -1.0000
G02 X 18.8795 Y 27.0234 Z -1.0000 I 7.7644 J -2.0513
G01 X 18.9124 Y 27.0308 Z -1.0000
G02 X 18.9384 Y 26.9737 Z -1.0000 I -0.0633 J -0.0633
G02 X 18.9824 Y 26.0269 Z -1.0000 I -20.3784 J -1.4210
G03 X 19.0303 Y 25.4343 Z -1.0000 I 5.1729 J 0.1201
G01 X 19.0649 Y 25.4338 Z -1.0000
G01 X 19.1234 Y 25.4491 Z -1.0000
G02 X 19.2099 Y 25.2523 Z -1.0000 I -0.3266 J -0.2610
G01 X 19.2337 Y 25.2541 Z -1.0000
G03 X 19.2164 Y 25.8573 Z -1.0000 I -7.6649 J 0.0824
G02 X 19.1521 Y 28.1424 Z -1.0000 I 28.6318 J 1.9491
G02 X 19.2483 Y 28.5794 Z -1.0000 I 1.0997 J -0.0129
G01 X 19.3306 Y 28.5910 Z -1.0000
G02 X 19.4522 Y 28.3375 Z -1.0000 I -0.4299 J -0.3623
G02 X 19.5193 Y 27.8506 Z -1.0000 I -4.1715 J -0.8228
G02 X 19.5547 Y 27.0455 Z -1.0000 I -11.4040 J -0.9039
G03 X 19.6315 Y 26.2668 Z -1.0000 I 4.3601 J 0.0373
G03 X 19.7431 Y 26.0560 Z -1.0000 I 0.3982 J 0.0759
G02 X 19.8581 Y 25.8462 Z -1.0000 I -0.3020 J -0.3020
G02 X 19.9389 Y 25.1702 Z -1.0000 I -3.3761 J -0.7462
G03 X 19.9775 Y 24.4689 Z -1.0000 I 10.1742 J 0.2075
G03 X 20.0347 Y 24.1030 Z -1.0000 I 2.8106 J 0.2520
G03 X 20.1470 Y 23.9549 Z -1.0000 I 0.2183 J 0.0490
G03 X 20.2524 Y 23.9858 Z -1.0000 I 0.0370 J 0.0689
G03 X 20.3242 Y 24.2478 Z -1.0000 I -0.5013 J 0.2780
G03 X 20.3411 Y 27.1503 Z -1.0000 I -65.4295 J 1.8326
G02 X 20.3386 Y 30.0672 Z -1.0000 I 94.2009 J 1.5398
G02 X 20.4003 Y 31.1995 Z -1.0000 I 14.2375 J -0.2081
G03 X 20.4514 Y 32.3106 Z -1.0000 I -11.4666 J 1.0843
G03 X 20.3974 Y 32.4449 Z -1.0000 I -0.1951 J -0.0005
G03 X 20.3155 Y 32.4800 Z -1.0000 I -0.0819 J -0.0782
G01 X 20.2771 Y 32.4449 Z -1.0000
G03 X 20.1377 Y 30.3207 Z -1.0000 I 42.2736 J -3.8413
G03 X 20.0523 Y 26.8917 Z -1.0000 I 110.1026 J -4.4573
G02 X 19.9946 Y 26.3031 Z -1.0000 I -3.3521 J 0.0316
G01 X 19.9384 Y 26.2868 Z -1.0000
G02 X 19.8798 Y 26.4217 Z -1.0000 I 0.1608 J 0.1500
G02 X 19.7499 Y 29.0355 Z -1.0000 I 69.4124 J 4.7599
G02 X 19.7483 Y 31.5745 Z -1.0000 I 42.0006 J 1.2962
G02 X 19.8268 Y 31.6367 Z -1.0000 I 0.0654 J -0.0019
G03 X 19.9287 Y 31.6815 Z -1.0000 I 0.0194 J 0.0942
G03 X 20.0246 Y 31.9670 Z -1.0000 I -0.6045 J 0.3619
G02 X 20.0977 Y 32.3142 Z -1.0000 I 1.7851 J -0.1946
G02 X 20.1759 Y 32.4449 Z -1.0000 I 0.3154 J -0.0998
G03 X 20.2511 Y 32.5752 Z -1.0000 I -0.2205 J 0.2142
G03 X 20.2961 Y 32.8684 Z -1.0000 I -1.1489 J 0.3261
G02 X 20.3470 Y 32.9550 Z -1.0000 I 0.1039 J -0.0028
G01 X 20.4085 Y 32.9349 Z -1.0000
G01 X 20.4693 Y 32.9181 Z -1.0000
G03 X 20.5210 Y 33.0158 Z -1.0000 I -0.0726 J 0.1010
G02 X 20.6593 Y 33.5528 Z -1.0000 I 1.2389 J -0.0326
G02 X 20.8126 Y 33.5792 Z -1.0000 I 0.0867 J -0.0449
G02 X 20.8886 Y 33.4201 Z -1.0000 I -0.1654 J -0.1767
G02 X 20.9429 Y 31.8000 Z -1.0000 I -20.4148 J -1.4955
G03 X 20.9589 Y 30.1553 Z -1.0000 I 52.1753 J -0.3166
G03 X 20.9911 Y 29.9103 Z -1.0000 I 1.1755 J 0.0299
G01 X 21.0493 Y 29.6683 Z -1.0000
G01 X 21.1439 Y 29.9103 Z -1.0000
G03 X 21.2128 Y 30.1575 Z -1.0000 I -1.1919 J 0.4659
G03 X 21.2488 Y 30.5152 Z -1.0000 I -2.4756 J 0.4294
G02 X 21.3088 Y 30.6980 Z -1.0000 I 0.3375 J -0.0096
G01 X 21.3746 Y 30.6967 Z -1.0000
G01 X 21.4283 Y 30.7108 Z -1.0000
G03 X 21.4338 Y 31.7856 Z -1.0000 I -10.8973 J 0.5925
G02 X 21.4539 Y 32.6262 Z -1.0000 I 6.1708 J 0.2730
G01 X 21.5119 Y 32.6325 Z -1.0000
G02 X 21.5876 Y 32.2017 Z -1.0000 I -1.5688 J -0.4978
G02 X 21.5771 Y 31.0328 Z -1.0000 I -11.7475 J -0.4788
G03 X 21.5893 Y 29.8875 Z -1.0000 I 8.2435 J -0.4848
G03 X 21.6858 Y 29.6787 Z -1.0000 I 0.3318 J 0.0266
G02 X 22.0277 Y 29.0127 Z -1.0000 I -0.8647 J -0.8647
G02 X 21.8572 Y 28.6380 Z -1.0000 I -0.3650 J -0.0601
G03 X 21.7608 Y 28.5013 Z -1.0000 I 0.1122 J -0.1815
G03 X 21.6263 Y 27.5660 Z -1.0000 I 6.6626 J -1.4348
G03 X 21.6757 Y 26.5224 Z -1.0000 I 4.3315 J -0.3183
G03 X 21.8117 Y 26.4720 Z -1.0000 I 0.0825 J 0.0140
G02 X 21.9466 Y 26.5367 Z -1.0000 I 0.1970 J -0.2373
G01 X 21.9835 Y 26.5073 Z -1.0000
G03 X 21.9874 Y 26.4018 Z -1.0000 I 3.2090 J 0.0663
G03 X 22.0427 Y 25.4036 Z -1.0000 I 280.2881 J 15.0254
G02 X 22.0401 Y 24.4618 Z -1.0000 I -7.8541 J -0.4491
G02 X 21.9801 Y 24.4054 Z -1.0000 I -0.0600 J 0.0038
G03 X 21.9115 Y 24.3543 Z -1.0000 I 0.0000 J -0.0716
G03 X 21.8604 Y 24.0051 Z -1.0000 I 1.1679 J -0.3492
G02 X 21.6769 Y 23.2261 Z -1.0000 I -1.7461 J 0.0000
G02 X 21.4870 Y 23.2561 Z -1.0000 I -0.0903 J 0.0450
G01 X 21.4638 Y 23.2591 Z -1.0000
G03 X 21.3822 Y 23.0141 Z -1.0000 I 1.3616 J -0.5891
G01 X 21.2957 Y 22.6512 Z -1.0000
G01 X 21.2059 Y 23.1351 Z -1.0000
G03 X 20.9073 Y 24.1817 Z -1.0000 I -5.6683 J -1.0515
G03 X 20.7568 Y 24.2845 Z -1.0000 I -0.1505 J -0.0588
G03 X 20.6521 Y 24.1892 Z -1.0000 I 0.0000 J -0.1052
G03 X 20.6202 Y 22.8500 Z -1.0000 I 9.3822 J -0.8938
G01 X 20.5353 Y 22.8161 Z -1.0000
G02 X 20.3737 Y 23.1351 Z -1.0000 I 0.5601 J 0.4842
G01 X 20.3587 Y 23.1336 Z -1.0000
G03 X 20.3670 Y 22.9098 Z -1.0000 I 1.6797 J -0.0499
G02 X 20.3616 Y 22.4591 Z -1.0000 I -1.9395 J -0.2022
G02 X 20.2869 Y 22.2875 Z -1.0000 I -0.3328 J 0.0428
G03 X 20.1983 Y 22.1151 Z -1.0000 I 0.3455 J -0.2868
G03 X 20.0865 Y 21.5268 Z -1.0000 I 4.1457 J -1.0926
G02 X 19.9293 Y 20.9796 Z -1.0000 I -1.7549 J 0.2078
G02 X 19.7277 Y 20.7676 Z -1.0000 I -0.4217 J 0.1993
G03 X 19.4933 Y 20.5203 Z -1.0000 I 0.2550 J -0.4764
G03 X 19.5616 Y 20.4129 Z -1.0000 I 0.0683 J -0.0320
G02 X 19.6139 Y 20.3110 Z -1.0000 I 0.0000 J -0.0644
G02 X 19.3127 Y 20.0663 Z -1.0000 I -0.6004 J 0.4311
G02 X 19.0453 Y 20.1216 Z -1.0000 I -0.0950 J 0.2146
G02 X 19.0083 Y 20.3957 Z -1.0000 I 0.1768 J 0.1635
G03 X 19.0736 Y 20.7789 Z -1.0000 I -0.5690 J 0.2942
G03 X 18.9379 Y 20.8969 Z -1.0000 I -0.1357 J -0.0190
G02 X 18.8422 Y 20.9701 Z -1.0000 I 0.0000 J 0.0993
G02 X 18.8776 Y 21.1183 Z -1.0000 I 0.1532 J 0.0417
G03 X 18.9950 Y 21.3899 Z -1.0000 I -0.3410 J 0.3086
G03 X 18.9702 Y 22.2651 Z -1.0000 I -4.0137 J 0.3240
G01 X 18.9294 Y 22.3050 Z -1.0000
G03 X 18.8252 Y 22.2817 Z -1.0000 I -0.0185 J -0.1620
G03 X 18.7507 Y 22.1776 Z -1.0000 I 0.0872 J -0.1411
G03 X 18.7539 Y 21.9700 Z -1.0000 I 0.4253 J -0.0972
G02 X 18.7539 Y 21.7559 Z -1.0000 I -0.4091 J -0.1070
G02 X 18.6508 Y 21.5762 Z -1.0000 I -0.3830 J 0.1003
G03 X 18.5460 Y 21.3890 Z -1.0000 I 0.2793 J -0.2793
G03 X 18.4942 Y 20.9234 Z -1.0000 I 1.8326 J -0.4396
G02 X 18.4470 Y 20.4463 Z -1.0000 I -2.1374 J -0.0294
G02 X 18.3054 Y 20.0419 Z -1.0000 I -1.6687 J 0.3574
G03 X 18.1501 Y 19.6403 Z -1.0000 I 2.0589 J -1.0271
G03 X 18.1098 Y 19.3496 Z -1.0000 I 1.0292 J -0.2908
G02 X 18.0434 Y 19.0783 Z -1.0000 I -0.5870 J 0.0000
G02 X 17.8073 Y 18.7690 Z -1.0000 I -1.0108 J 0.5266
G03 X 17.5909 Y 18.4504 Z -1.0000 I 0.5821 J -0.6281
G03 X 17.4972 Y 17.9687 Z -1.0000 I 1.2957 J -0.5021
G02 X 17.4327 Y 17.7459 Z -1.0000 I -0.4399 J 0.0065
G01 X 17.3644 Y 17.7512 Z -1.0000
G01 X 17.2392 Y 18.0537 Z -1.0000
G01 X 17.1218 Y 17.7512 Z -1.0000
G03 X 17.0504 Y 17.4447 Z -1.0000 I 1.0435 J -0.4049
G03 X 17.0671 Y 17.1313 Z -1.0000 I 1.1090 J -0.0979
G02 X 17.0494 Y 16.8319 Z -1.0000 I -0.5862 J -0.1157
G02 X 16.8356 Y 16.4152 Z -1.0000 I -1.3861 J 0.4481
G03 X 16.6423 Y 16.0193 Z -1.0000 I 0.9825 J -0.7249
G03 X 16.6780 Y 15.8519 Z -1.0000 I 0.1776 J -0.0497
G02 X 16.7404 Y 15.6774 Z -1.0000 I -0.2087 J -0.1732
G02 X 16.6758 Y 15.3827 Z -1.0000 I -0.7189 J 0.0034
G03 X 16.5765 Y 15.0696 Z -1.0000 I 1.2410 J -0.5655
G03 X 16.5370 Y 14.6456 Z -1.0000 I 2.2522 J -0.4240
G02 X 16.4625 Y 14.3716 Z -1.0000 I -0.5414 J -0.0000
G02 X 16.3663 Y 14.3547 Z -1.0000 I -0.0553 J 0.0325
G03 X 16.2095 Y 14.4117 Z -1.0000 I -0.1578 J -0.1901
G03 X 16.1088 Y 14.3557 Z -1.0000 I -0.0005 J -0.1177
G03 X 16.0941 Y 14.2322 Z -1.0000 I 0.1256 J -0.0776
G03 X 16.1888 Y 14.1113 Z -1.0000 I 0.2137 J 0.0699
G02 X 16.2600 Y 13.9885 Z -1.0000 I -0.0802 J -0.1285
G02 X 16.2008 Y 13.7921 Z -1.0000 I -0.3157 J -0.0119
G03 X 16.0622 Y 13.5687 Z -1.0000 I 1.5604 J -1.1223
G03 X 15.9749 Y 13.3652 Z -1.0000 I 1.2043 J -0.6371
G02 X 15.8758 Y 13.1925 Z -1.0000 I -0.4817 J 0.1617
G02 X 15.7898 Y 13.1535 Z -1.0000 I -0.0860 J 0.0751
G03 X 15.7403 Y 13.1175 Z -1.0000 I 0.0000 J -0.0520
G03 X 15.7506 Y 13.0325 Z -1.0000 I 0.0969 J -0.0315
G03 X 15.8477 Y 12.9515 Z -1.0000 I 0.1697 J 0.1048
G03 X 16.0602 Y 12.9115 Z -1.0000 I 0.2125 J 0.5441
G02 X 16.2492 Y 12.8657 Z -1.0000 I 0.0000 J -0.4128
G02 X 16.2950 Y 12.7905 Z -1.0000 I -0.0387 J -0.0752
G02 X 16.2488 Y 12.7157 Z -1.0000 I -0.0836 J 0.0000
G02 X 16.0530 Y 12.6696 Z -1.0000 I -0.1957 J 0.3917
G03 X 15.8819 Y 12.5987 Z -1.0000 I 0.0000 J -0.2420
G03 X 15.8111 Y 12.4276 Z -1.0000 I 0.1711 J -0.1711
G02 X 15.7539 Y 12.2428 Z -1.0000 I -0.3271 J 0.0000
G02 X 15.6454 Y 12.1856 Z -1.0000 I -0.1085 J 0.0742
G03 X 15.4713 Y 12.0461 Z -1.0000 I 0.0000 J -0.1784
G03 X 15.3285 Y 10.7640 Z -1.0000 I 5.8192 J -1.2975
G02 X 15.2545 Y 10.3227 Z -1.0000 I -1.3749 J 0.0036
G02 X 15.1526 Y 10.2498 Z -1.0000 I -0.1019 J 0.0348
G02 X 15.0437 Y 10.3216 Z -1.0000 I 0.0000 J 0.1186
G02 X 14.9318 Y 10.7640 Z -1.0000 I 1.3332 J 0.5726
G01 X 14.8855 Y 11.2782 Z -1.0000
G01 X 14.8643 Y 10.7640 Z -1.0000
G02 X 14.7160 Y 10.4207 Z -1.0000 I -0.5210 J 0.0214
G02 X 14.5683 Y 10.4616 Z -1.0000 I -0.0625 J 0.0612
G03 X 14.5033 Y 10.5074 Z -1.0000 I -0.0586 J -0.0140
G03 X 14.4194 Y 10.4456 Z -1.0000 I 0.0111 J -0.1029
G03 X 14.3839 Y 10.2226 Z -1.0000 I 0.4192 J -0.1810
G03 X 14.4611 Y 9.9935 Z -1.0000 I 0.5212 J 0.0482
G02 X 14.6293 Y 9.4351 Z -1.0000 I -0.9418 J -0.5882
G02 X 14.4802 Y 9.2820 Z -1.0000 I -0.1491 J -0.0040
G03 X 14.4123 Y 9.2289 Z -1.0000 I -0.0000 J -0.0700
G03 X 14.3592 Y 8.7980 Z -1.0000 I 1.7236 J -0.4309
G02 X 14.2514 Y 8.4220 Z -1.0000 I -0.7096 J 0.0000
G02 X 14.0568 Y 8.3141 Z -1.0000 I -0.1946 J 0.1216
G02 X 13.8622 Y 8.4220 Z -1.0000 I 0.0000 J 0.2295
G02 X 13.7543 Y 8.7980 Z -1.0000 I 0.6017 J 0.3761
G02 X 13.8495 Y 9.1868 Z -1.0000 I 0.8416 J -0.0000
G02 X 14.0064 Y 9.2820 Z -1.0000 I 0.1569 J -0.0817
G03 X 14.1153 Y 9.4261 Z -1.0000 I 0.0000 J 0.1133
G03 X 13.8993 Y 9.6597 Z -1.0000 I -0.3379 J -0.0958
G03 X 13.7087 Y 9.6499 Z -1.0000 I -0.0839 J -0.2269
G03 X 13.6333 Y 9.5289 Z -1.0000 I 0.0595 J -0.1210
G02 X 13.5729 Y 9.3464 Z -1.0000 I -0.3057 J -0.0000
G02 X 13.4216 Y 9.2444 Z -1.0000 I -0.2209 J 0.1644
G01 X 13.3922 Y 9.2064 Z -1.0000
G01 X 13.4216 Y 9.1750 Z -1.0000
G02 X 13.5577 Y 9.0901 Z -1.0000 I -0.0113 J -0.1696
G02 X 13.6333 Y 8.8069 Z -1.0000 I -0.4924 J -0.2833
G02 X 13.5608 Y 8.5088 Z -1.0000 I -0.6489 J -0.0000
G02 X 13.4216 Y 8.3975 Z -1.0000 I -0.1946 J 0.1006
G01 X 13.3922 Y 8.3594 Z -1.0000
G01 X 13.4216 Y 8.3281 Z -1.0000
G02 X 13.5571 Y 8.2427 Z -1.0000 I -0.0111 J -0.1677
G02 X 13.6333 Y 7.9511 Z -1.0000 I -0.5193 J -0.2916
G03 X 13.7543 Y 7.7091 Z -1.0000 I 0.3025 J -0.0000
G03 X 14.1173 Y 7.5881 Z -1.0000 I 0.3630 J 0.4839
G03 X 14.4802 Y 7.7091 Z -1.0000 I 0.0000 J 0.6049
G03 X 14.6012 Y 7.9511 Z -1.0000 I -0.1815 J 0.2420
G02 X 14.6519 Y 8.2633 Z -1.0000 I 0.9875 J 0.0000
G02 X 14.7222 Y 8.3140 Z -1.0000 I 0.0703 J -0.0234
G02 X 14.7903 Y 8.2611 Z -1.0000 I 0.0000 J -0.0703
G02 X 14.8432 Y 7.8402 Z -1.0000 I -1.6487 J -0.4210
G03 X 14.9031 Y 7.4063 Z -1.0000 I 1.5995 J -0.0000
G03 X 14.9944 Y 7.3035 Z -1.0000 I 0.1517 J 0.0428
G02 X 15.0289 Y 7.2215 Z -1.0000 I -0.0243 J -0.0585
G02 X 14.8734 Y 7.0018 Z -1.0000 I -0.5373 J 0.2155
G03 X 14.4596 Y 6.2536 Z -1.0000 I 0.8332 J -0.9494
G03 X 14.7242 Y 6.0770 Z -1.0000 I 0.1727 J -0.0279
G03 X 14.7914 Y 6.1661 Z -1.0000 I -0.0810 J 0.1311
G03 X 14.7775 Y 6.2656 Z -1.0000 I -0.1200 J 0.0339
G02 X 14.7865 Y 6.3344 Z -1.0000 I 0.0467 J 0.0289
G02 X 14.8965 Y 6.3782 Z -1.0000 I 0.1101 J -0.1163
G02 X 15.1640 Y 6.1133 Z -1.0000 I 0.0000 J -0.2674
G02 X 14.9025 Y 5.7291 Z -1.0000 I -0.4074 J -0.0038
G03 X 14.7759 Y 5.6284 Z -1.0000 I 0.0961 J -0.2507
G03 X 14.7513 Y 5.5045 Z -1.0000 I 0.1357 J -0.0913
G02 X 14.7072 Y 5.4190 Z -1.0000 I -0.0753 J -0.0153
G02 X 14.4802 Y 5.3838 Z -1.0000 I -0.1782 J 0.4002
G03 X 14.3913 Y 5.3302 Z -1.0000 I -0.0095 J -0.0847
G03 X 14.4191 Y 5.2278 Z -1.0000 I 0.0828 J -0.0324
G02 X 14.5315 Y 5.0445 Z -1.0000 I -0.1919 J -0.2438
G02 X 14.4796 Y 4.9236 Z -1.0000 I -0.1140 J -0.0227
G02 X 14.2948 Y 4.8175 Z -1.0000 I -1.3673 J 2.1662
G02 X 14.1777 Y 4.7666 Z -1.0000 I -0.4214 J 0.8098
G03 X 14.1386 Y 4.7011 Z -1.0000 I 0.0199 J -0.0563
G03 X 14.2139 Y 4.5334 Z -1.0000 I 0.3429 J 0.0531
G02 X 14.2886 Y 4.3566 Z -1.0000 I -0.2590 J -0.2137
G02 X 14.2437 Y 4.2644 Z -1.0000 I -0.0955 J -0.0106
G03 X 14.1758 Y 4.1615 Z -1.0000 I 0.0772 J -0.1248
G03 X 14.1884 Y 3.8987 Z -1.0000 I 0.6612 J -0.1000
G01 X 14.2604 Y 3.6118 Z -1.0000
G01 X 8.1376 Y 3.6088 Z -1.0000
G01 X 2.0149 Y 3.6058 Z -1.0000
G01 X 2.0223 Y 9.4277 Z -1.0000
G00 Z 5.0000

(End cutting path id: path139)


(Start cutting path id: path139)
(Change tool to Default tool)

G00 Z 5.0000
G00 X 2.9866 Y 8.5564

G01 Z -1.0000 F 100.0000(Penetrate)
G03 X 2.9656 Y 8.7774 Z -1.0000 I -1.1738 J -0.0000 F 400.0000
G01 X 2.9402 Y 8.7984 Z -1.0000
G01 X 2.9092 Y 8.7784 Z -1.0000
G03 X 2.8305 Y 8.5564 Z -1.0000 I 1.2653 J -0.5734
G03 X 2.8240 Y 8.3582 Z -1.0000 I 0.4345 J -0.1136
G03 X 2.8769 Y 8.3144 Z -1.0000 I 0.0530 J 0.0102
G03 X 2.9436 Y 8.3574 Z -1.0000 I 0.0000 J 0.0732
G03 X 2.9866 Y 8.5564 Z -1.0000 I -0.4391 J 0.1990
G01 X 2.9866 Y 8.5564 Z -1.0000
G00 Z 5.0000

(End cutting path id: path139)


(Start cutting path id: path139)
(Change tool to Default tool)

G00 Z 5.0000
G00 X 3.5400 Y 9.4690

G01 Z -1.0000 F 100.0000(Penetrate)
G03 X 3.3967 Y 9.5841 Z -1.0000 I -0.1024 J 0.0192 F 400.0000
G03 X 3.1728 Y 9.3127 Z -1.0000 I 0.1497 J -0.3516
G03 X 3.1867 Y 9.0345 Z -1.0000 I 0.5267 J -0.1131
G03 X 3.2762 Y 8.9916 Z -1.0000 I 0.0650 J 0.0209
G03 X 3.4103 Y 9.1084 Z -1.0000 I -0.0929 J 0.2422
G03 X 3.5400 Y 9.4690 Z -1.0000 I -1.0546 J 0.5828
G01 X 3.5400 Y 9.4690 Z -1.0000
G00 Z 5.0000

(End cutting path id: path139)


(Start cutting path id: path139)
(Change tool to Default tool)

G00 Z 5.0000
G00 X 3.7004 Y 10.7644

G01 Z -1.0000 F 100.0000(Penetrate)
G03 X 3.6454 Y 10.9805 Z -1.0000 I -0.4979 J -0.0117 F 400.0000
G01 X 3.5915 Y 10.9761 Z -1.0000
G03 X 3.4934 Y 10.3483 Z -1.0000 I 1.9604 J -0.6278
G03 X 3.5915 Y 10.2502 Z -1.0000 I 0.0981 J 0.0000
G03 X 3.6576 Y 10.3038 Z -1.0000 I 0.0000 J 0.0676
G03 X 3.7004 Y 10.7644 Z -1.0000 I -1.9533 J 0.4138
G01 X 3.7004 Y 10.7644 Z -1.0000
G00 Z 5.0000

(End cutting path id: path139)


(Start cutting path id: path139)
(Change tool to Default tool)

G00 Z 5.0000
G00 X 2.9231 Y 11.5867

G01 Z -1.0000 F 100.0000(Penetrate)
G03 X 2.9016 Y 11.6980 Z -1.0000 I -0.1169 J 0.0352 F 400.0000
G01 X 2.8311 Y 11.7020 Z -1.0000
G03 X 2.6794 Y 11.5027 Z -1.0000 I 0.6575 J -0.6576
G03 X 2.5602 Y 11.2237 Z -1.0000 I 1.1881 J -0.6729
G03 X 2.5816 Y 11.1123 Z -1.0000 I 0.1169 J -0.0352
G01 X 2.6522 Y 11.1083 Z -1.0000
G03 X 2.8038 Y 11.3077 Z -1.0000 I -0.6575 J 0.6576
G03 X 2.9231 Y 11.5867 Z -1.0000 I -1.1881 J 0.6729
G01 X 2.9231 Y 11.5867 Z -1.0000
G00 Z 5.0000

(End cutting path id: path139)


(Start cutting path id: path139)
(Change tool to Default tool)

G00 Z 5.0000
G00 X 2.3567 Y 12.2638

G01 Z -1.0000 F 100.0000(Penetrate)
G01 X 2.3100 Y 12.2777 Z -1.0000 F 400.0000
G03 X 2.2394 Y 12.1465 Z -1.0000 I 0.1828 J -0.1828
G03 X 2.2403 Y 11.9358 Z -1.0000 I 0.5071 J -0.1034
G01 X 2.2870 Y 11.9219 Z -1.0000
G03 X 2.3576 Y 12.0531 Z -1.0000 I -0.1827 J 0.1828
G03 X 2.3567 Y 12.2638 Z -1.0000 I -0.5072 J 0.1034
G01 X 2.3567 Y 12.2638 Z -1.0000
G00 Z 5.0000

(End cutting path id: path139)


(Start cutting path id: path139)
(Change tool to Default tool)

G00 Z 5.0000
G00 X 2.9097 Y 12.9018

G01 Z -1.0000 F 100.0000(Penetrate)
G03 X 3.0811 Y 13.3747 Z -1.0000 I -2.2928 J 1.0980 F 400.0000
G03 X 3.0705 Y 13.5356 Z -1.0000 I -0.2530 J 0.0642
G01 X 3.0313 Y 13.5469 Z -1.0000
G03 X 2.9961 Y 13.4815 Z -1.0000 I 0.0503 J -0.0692
G02 X 2.9424 Y 13.2832 Z -1.0000 I -0.4684 J 0.0206
G02 X 2.7446 Y 13.0050 Z -1.0000 I -1.1454 J 0.6046
G03 X 2.5412 Y 12.7301 Z -1.0000 I 1.1108 J -1.0350
G03 X 2.5026 Y 12.5866 Z -1.0000 I 0.2482 J -0.1435
G03 X 2.6119 Y 12.5330 Z -1.0000 I 0.0678 J 0.0000
G03 X 2.9097 Y 12.9018 Z -1.0000 I -0.6294 J 0.8129
G01 X 2.9097 Y 12.9018 Z -1.0000
G00 Z 5.0000

(End cutting path id: path139)


(Start cutting path id: path139)
(Change tool to Default tool)

G00 Z 5.0000
G00 X 3.5915 Y 13.2374

G01 Z -1.0000 F 100.0000(Penetrate)
G02 X 3.6262 Y 13.4181 Z -1.0000 I 0.4878 J -0.0000 F 400.0000
G02 X 3.8178 Y 13.8050 Z -1.0000 I 2.4946 J -0.9947
G03 X 4.2428 Y 14.8938 Z -1.0000 I -2.9923 J 1.7951
G03 X 4.0833 Y 15.0896 Z -1.0000 I -0.1594 J 0.0330
G03 X 4.0216 Y 15.0470 Z -1.0000 I 0.0000 J -0.0659
G03 X 3.9118 Y 14.6359 Z -1.0000 I 1.9874 J -0.7515
G02 X 3.7997 Y 14.1953 Z -1.0000 I -2.5494 J 0.4138
G02 X 3.5938 Y 13.7289 Z -1.0000 I -3.0636 J 1.0739
G03 X 3.3613 Y 13.0454 Z -1.0000 I 1.9188 J -1.0342
G03 X 3.4705 Y 12.9723 Z -1.0000 I 0.0713 J -0.0116
G03 X 3.5546 Y 13.0677 Z -1.0000 I -0.1150 J 0.1862
G03 X 3.5915 Y 13.2374 Z -1.0000 I -0.3720 J 0.1698
G01 X 3.5915 Y 13.2374 Z -1.0000
G00 Z 5.0000

(End cutting path id: path139)


(Start cutting path id: path139)
(Change tool to Default tool)

G00 Z 5.0000
G00 X 3.4187 Y 14.0526

G01 Z -1.0000 F 100.0000(Penetrate)
G03 X 3.5481 Y 14.2431 Z -1.0000 I -0.4350 J 0.4348 F 400.0000
G03 X 3.5888 Y 14.4458 Z -1.0000 I -0.4543 J 0.1966
G01 X 3.5265 Y 14.4897 Z -1.0000
G03 X 3.3495 Y 14.3637 Z -1.0000 I 0.1240 J -0.3615
G03 X 3.2878 Y 14.0907 Z -1.0000 I 0.2581 J -0.2019
G03 X 3.4187 Y 14.0526 Z -1.0000 I 0.0759 J 0.0169
G01 X 3.4187 Y 14.0526 Z -1.0000
G00 Z 5.0000

(End cutting path id: path139)


(Start cutting path id: path139)
(Change tool to Default tool)

G00 Z 5.0000
G00 X 5.3285 Y 11.7927

G01 Z -1.0000 F 100.0000(Penetrate)
G03 X 6.1975 Y 14.2758 Z -1.0000 I -37.0202 J 14.3493 F 400.0000
G03 X 6.2228 Y 14.6483 Z -1.0000 I -0.7631 J 0.2390
G01 X 6.1656 Y 14.6610 Z -1.0000
G03 X 6.0254 Y 14.3637 Z -1.0000 I 0.8178 J -0.5673
G02 X 5.8550 Y 13.8249 Z -1.0000 I -8.5758 J 2.4163
G02 X 5.4724 Y 12.7909 Z -1.0000 I -31.9934 J 11.2479
G03 X 4.9570 Y 11.2835 Z -1.0000 I 18.0662 J -7.0192
G03 X 5.0059 Y 11.2180 Z -1.0000 I 0.0489 J -0.0145
G03 X 5.0772 Y 11.2598 Z -1.0000 I 0.0000 J 0.0817
G03 X 5.3285 Y 11.7927 Z -1.0000 I -3.6283 J 2.0367
G01 X 5.3285 Y 11.7927 Z -1.0000
G00 Z 5.0000

(End cutting path id: path139)


(Start cutting path id: path139)
(Change tool to Default tool)

G00 Z 5.0000
G00 X 7.0617 Y 11.4827

G01 Z -1.0000 F 100.0000(Penetrate)
G01 X 7.0241 Y 11.4904 Z -1.0000 F 400.0000
G03 X 6.9887 Y 11.4096 Z -1.0000 I 0.0858 J -0.0858
G03 X 7.0145 Y 11.2585 Z -1.0000 I 0.3658 J -0.0151
G01 X 7.0522 Y 11.2508 Z -1.0000
G03 X 7.0876 Y 11.3316 Z -1.0000 I -0.0858 J 0.0858
G03 X 7.0617 Y 11.4827 Z -1.0000 I -0.3658 J 0.0151
G01 X 7.0617 Y 11.4827 Z -1.0000
G00 Z 5.0000

(End cutting path id: path139)


(Start cutting path id: path139)
(Change tool to Default tool)

G00 Z 5.0000
G00 X 8.1890 Y 12.3069

G01 Z -1.0000 F 100.0000(Penetrate)
G03 X 8.1679 Y 12.4069 Z -1.0000 I -0.2476 J -0.0000 F 400.0000
G01 X 8.1356 Y 12.4279 Z -1.0000
G03 X 8.0919 Y 12.4106 Z -1.0000 I 0.0000 J -0.0636
G03 X 8.0075 Y 12.3069 Z -1.0000 I 0.3524 J -0.3735
G03 X 8.0018 Y 12.2245 Z -1.0000 I 0.0755 J -0.0467
G03 X 8.0608 Y 12.1859 Z -1.0000 I 0.0591 J 0.0260
G03 X 8.1525 Y 12.2224 Z -1.0000 I -0.0000 J 0.1335
G03 X 8.1890 Y 12.3069 Z -1.0000 I -0.0798 J 0.0846
G01 X 8.1890 Y 12.3069 Z -1.0000
G00 Z 5.0000

(End cutting path id: path139)


(Start cutting path id: path139)
(Change tool to Default tool)

G00 Z 5.0000
G00 X 7.9415 Y 12.7606

G01 Z -1.0000 F 100.0000(Penetrate)
G02 X 7.9815 Y 12.8761 Z -1.0000 I 0.2087 J -0.0075 F 400.0000
G02 X 8.0518 Y 12.9118 Z -1.0000 I 0.0703 J -0.0512
G03 X 8.1245 Y 12.9576 Z -1.0000 I 0.0000 J 0.0807
G03 X 8.4880 Y 13.8206 Z -1.0000 I -8.6342 J 4.1446
G03 X 8.7411 Y 15.1230 Z -1.0000 I -3.9656 J 1.4463
G03 X 8.5395 Y 15.3316 Z -1.0000 I -0.2015 J 0.0069
G03 X 8.4711 Y 15.2891 Z -1.0000 I 0.0000 J -0.0764
G03 X 8.4646 Y 15.1803 Z -1.0000 I 0.1250 J -0.0619
G02 X 8.4774 Y 15.0292 Z -1.0000 I -0.2801 J -0.0998
G02 X 8.3639 Y 14.6057 Z -1.0000 I -2.4499 J 0.4295
G03 X 8.2197 Y 14.1788 Z -1.0000 I 8.6814 J -3.1698
G03 X 8.0067 Y 13.4563 Z -1.0000 I 24.6761 J -7.6694
G02 X 7.7934 Y 12.7339 Z -1.0000 I -24.3933 J 6.8083
G02 X 7.6940 Y 12.4525 Z -1.0000 I -3.7992 J 1.1832
G03 X 7.6056 Y 12.1712 Z -1.0000 I 1.8974 J -0.7512
G03 X 7.5939 Y 12.0290 Z -1.0000 I 0.4649 J -0.1100
G03 X 7.7551 Y 11.9983 Z -1.0000 I 0.0846 J 0.0057
G03 X 7.9415 Y 12.7606 Z -1.0000 I -1.7512 J 0.8322
G01 X 7.9415 Y 12.7606 Z -1.0000
G00 Z 5.0000

(End cutting path id: path139)


(Start cutting path id: path139)
(Change tool to Default tool)

G00 Z 5.0000
G00 X 9.2173 Y 13.0328

G01 Z -1.0000 F 100.0000(Penetrate)
G03 X 9.2231 Y 13.1153 Z -1.0000 I -0.0755 J 0.0467 F 400.0000
G03 X 9.1640 Y 13.1538 Z -1.0000 I -0.0591 J -0.0260
G03 X 9.0723 Y 13.1174 Z -1.0000 I -0.0000 J -0.1335
G03 X 9.0359 Y 13.0328 Z -1.0000 I 0.0798 J -0.0846
G03 X 9.0569 Y 12.9329 Z -1.0000 I 0.2476 J 0.0000
G01 X 9.0892 Y 12.9118 Z -1.0000
G03 X 9.1329 Y 12.9292 Z -1.0000 I -0.0000 J 0.0636
G03 X 9.2173 Y 13.0328 Z -1.0000 I -0.3525 J 0.3735
G01 X 9.2173 Y 13.0328 Z -1.0000
G00 Z 5.0000

(End cutting path id: path139)


(Start cutting path id: path139)
(Change tool to Default tool)

G00 Z 5.0000
G00 X 9.2778 Y 14.1360

G01 Z -1.0000 F 100.0000(Penetrate)
G03 X 9.2283 Y 14.2890 Z -1.0000 I -0.2611 J -0.0000 F 400.0000
G03 X 9.1568 Y 14.3032 Z -1.0000 I -0.0433 J -0.0313
G03 X 9.0763 Y 14.2059 Z -1.0000 I 0.1035 J -0.1676
G03 X 9.0359 Y 13.9864 Z -1.0000 I 0.5745 J -0.2194
G03 X 9.0854 Y 13.8334 Z -1.0000 I 0.2611 J -0.0000
G03 X 9.1568 Y 13.8192 Z -1.0000 I 0.0433 J 0.0313
G03 X 9.2373 Y 13.9166 Z -1.0000 I -0.1035 J 0.1676
G03 X 9.2778 Y 14.1360 Z -1.0000 I -0.5746 J 0.2194
G01 X 9.2778 Y 14.1360 Z -1.0000
G00 Z 5.0000

(End cutting path id: path139)


(Start cutting path id: path139)
(Change tool to Default tool)

G00 Z 5.0000
G00 X 10.4877 Y 13.4087

G01 Z -1.0000 F 100.0000(Penetrate)
G02 X 10.5332 Y 13.5923 Z -1.0000 I 0.3929 J 0.0000 F 400.0000
G02 X 10.6087 Y 13.6378 Z -1.0000 I 0.0755 J -0.0399
G03 X 10.6840 Y 13.6834 Z -1.0000 I 0.0000 J 0.0850
G03 X 10.7297 Y 13.8697 Z -1.0000 I -0.3569 J 0.1862
G02 X 10.7675 Y 14.0756 Z -1.0000 I 0.5789 J 0.0000
G02 X 10.8333 Y 14.1419 Z -1.0000 I 0.1074 J -0.0409
G03 X 11.2956 Y 14.7192 Z -1.0000 I -0.2676 J 0.6880
G03 X 10.9771 Y 15.0896 Z -1.0000 I -0.3185 J 0.0483
G03 X 10.9017 Y 15.0385 Z -1.0000 I 0.0000 J -0.0811
G03 X 10.8506 Y 14.7723 Z -1.0000 I 0.6678 J -0.2662
G02 X 10.7842 Y 14.5965 Z -1.0000 I -0.2659 J 0.0000
G02 X 10.6891 Y 14.5891 Z -1.0000 I -0.0514 J 0.0453
G03 X 10.5759 Y 14.5740 Z -1.0000 I -0.0496 J -0.0598
G03 X 10.3802 Y 14.1502 Z -1.0000 I 1.0616 J -0.7473
G03 X 10.2128 Y 13.1639 Z -1.0000 I 5.7911 J -1.4903
G03 X 10.2918 Y 13.1045 Z -1.0000 I 0.0581 J -0.0049
G03 X 10.4316 Y 13.2182 Z -1.0000 I -0.1037 J 0.2705
G03 X 10.4877 Y 13.4087 Z -1.0000 I -0.2959 J 0.1905
G01 X 10.4877 Y 13.4087 Z -1.0000
G00 Z 5.0000

(End cutting path id: path139)


(Start cutting path id: path139)
(Change tool to Default tool)

G00 Z 5.0000
G00 X 11.2136 Y 15.9436

G01 Z -1.0000 F 100.0000(Penetrate)
G03 X 11.1793 Y 16.0231 Z -1.0000 I -0.1091 J -0.0000 F 400.0000
G03 X 11.0926 Y 16.0575 Z -1.0000 I -0.0866 J -0.0921
G03 X 11.0144 Y 16.0147 Z -1.0000 I -0.0000 J -0.0929
G03 X 10.9716 Y 15.8689 Z -1.0000 I 0.2274 J -0.1458
G03 X 11.0175 Y 15.7626 Z -1.0000 I 0.1459 J -0.0000
G03 X 11.0926 Y 15.7550 Z -1.0000 I 0.0425 J 0.0451
G03 X 11.1849 Y 15.8458 Z -1.0000 I -0.1534 J 0.2483
G03 X 11.2136 Y 15.9436 Z -1.0000 I -0.1526 J 0.0979
G01 X 11.2136 Y 15.9436 Z -1.0000
G00 Z 5.0000

(End cutting path id: path139)


(Start cutting path id: path139)
(Change tool to Default tool)

G00 Z 5.0000
G00 X 12.2641 Y 16.3221

G01 Z -1.0000 F 100.0000(Penetrate)
G01 X 12.2265 Y 16.3299 Z -1.0000 F 400.0000
G03 X 12.1910 Y 16.2490 Z -1.0000 I 0.0858 J -0.0858
G03 X 12.2169 Y 16.0980 Z -1.0000 I 0.3652 J -0.0152
G01 X 12.2546 Y 16.0902 Z -1.0000
G03 X 12.2900 Y 16.1711 Z -1.0000 I -0.0858 J 0.0858
G03 X 12.2642 Y 16.3221 Z -1.0000 I -0.3661 J 0.0151
G01 X 12.2641 Y 16.3221 Z -1.0000
G00 Z 5.0000

(End cutting path id: path139)


(Start cutting path id: path139)
(Change tool to Default tool)

G00 Z 5.0000
G00 X 11.6592 Y 17.2900

G01 Z -1.0000 F 100.0000(Penetrate)
G01 X 11.6215 Y 17.2977 Z -1.0000 F 400.0000
G03 X 11.5861 Y 17.2169 Z -1.0000 I 0.0858 J -0.0858
G03 X 11.6120 Y 17.0658 Z -1.0000 I 0.3653 J -0.0152
G01 X 11.6496 Y 17.0581 Z -1.0000
G03 X 11.6851 Y 17.1389 Z -1.0000 I -0.0858 J 0.0858
G03 X 11.6592 Y 17.2900 Z -1.0000 I -0.3660 J 0.0151
G01 X 11.6592 Y 17.2900 Z -1.0000
G00 Z 5.0000

(End cutting path id: path139)


(Start cutting path id: path139)
(Change tool to Default tool)

G00 Z 5.0000
G00 X 11.6592 Y 18.2575

G01 Z -1.0000 F 100.0000(Penetrate)
G01 X 11.6215 Y 18.2652 Z -1.0000 F 400.0000
G03 X 11.5861 Y 18.1844 Z -1.0000 I 0.0858 J -0.0858
G03 X 11.6120 Y 18.0333 Z -1.0000 I 0.3652 J -0.0152
G01 X 11.6496 Y 18.0256 Z -1.0000
G03 X 11.6851 Y 18.1064 Z -1.0000 I -0.0858 J 0.0858
G03 X 11.6592 Y 18.2575 Z -1.0000 I -0.3661 J 0.0151
G01 X 11.6592 Y 18.2575 Z -1.0000
G00 Z 5.0000

(End cutting path id: path139)


(Start cutting path id: path139)
(Change tool to Default tool)

G00 Z 5.0000
G00 X 11.4147 Y 18.2655

G01 Z -1.0000 F 100.0000(Penetrate)
G01 X 11.3830 Y 18.2655 Z -1.0000 F 400.0000
G03 X 11.3537 Y 18.1142 Z -1.0000 I 0.3749 J -0.1512
G03 X 11.3830 Y 17.9630 Z -1.0000 I 0.4042 J -0.0000
G01 X 11.4147 Y 17.9630 Z -1.0000
G03 X 11.4441 Y 18.1143 Z -1.0000 I -0.3750 J 0.1512
G03 X 11.4147 Y 18.2655 Z -1.0000 I -0.4041 J 0.0000
G01 X 11.4147 Y 18.2655 Z -1.0000
G00 Z 5.0000

(End cutting path id: path139)


(Start cutting path id: path139)
(Change tool to Default tool)

G00 Z 5.0000
G00 X 10.7577 Y 19.3241

G01 Z -1.0000 F 100.0000(Penetrate)
G02 X 10.7849 Y 19.5358 Z -1.0000 I 0.8374 J 0.0000 F 400.0000
G01 X 10.8131 Y 19.5358 Z -1.0000
G02 X 10.8403 Y 19.3241 Z -1.0000 I -0.8102 J -0.2117
G02 X 10.8131 Y 19.1124 Z -1.0000 I -0.8374 J 0.0000
G01 X 10.7849 Y 19.1124 Z -1.0000
G02 X 10.7577 Y 19.3241 Z -1.0000 I 0.8101 J 0.2117
G01 X 10.7577 Y 19.3241 Z -1.0000
G00 Z 5.0000

(End cutting path id: path139)


(Start cutting path id: path139)
(Change tool to Default tool)

G00 Z 5.0000
G00 X 9.0359 Y 19.8076

G01 Z -1.0000 F 100.0000(Penetrate)
G03 X 8.9937 Y 19.8864 Z -1.0000 I -0.0947 J 0.0000 F 400.0000
G03 X 8.8544 Y 19.9286 Z -1.0000 I -0.1393 J -0.2089
G03 X 8.7151 Y 19.8864 Z -1.0000 I 0.0000 J -0.2512
G03 X 8.6729 Y 19.8076 Z -1.0000 I 0.0525 J -0.0788
G03 X 8.7151 Y 19.7288 Z -1.0000 I 0.0947 J -0.0000
G03 X 8.8544 Y 19.6866 Z -1.0000 I 0.1393 J 0.2089
G03 X 8.9937 Y 19.7288 Z -1.0000 I -0.0000 J 0.2512
G03 X 9.0359 Y 19.8076 Z -1.0000 I -0.0525 J 0.0788
G01 X 9.0359 Y 19.8076 Z -1.0000
G00 Z 5.0000

(End cutting path id: path139)


(Start cutting path id: path139)
(Change tool to Default tool)

G00 Z 5.0000
G00 X 8.6729 Y 19.2560

G01 Z -1.0000 F 100.0000(Penetrate)
G03 X 8.6388 Y 19.4113 Z -1.0000 I -0.3705 J 0.0000 F 400.0000
G03 X 8.5603 Y 19.5000 Z -1.0000 I -0.1865 J -0.0861
G03 X 8.3723 Y 19.4570 Z -1.0000 I -0.0722 J -0.1168
G03 X 8.3704 Y 19.2027 Z -1.0000 I 0.2015 J -0.1287
G03 X 8.5577 Y 19.1187 Z -1.0000 I 0.1555 J 0.0961
G03 X 8.6729 Y 19.2560 Z -1.0000 I -0.0242 J 0.1372
G01 X 8.6729 Y 19.2560 Z -1.0000
G00 Z 5.0000

(End cutting path id: path139)


(Start cutting path id: path139)
(Change tool to Default tool)

G00 Z 5.0000
G00 X 7.2211 Y 19.2405

G01 Z -1.0000 F 100.0000(Penetrate)
G02 X 7.4117 Y 19.8721 Z -1.0000 I 1.1416 J 0.0000 F 400.0000
G02 X 7.6568 Y 19.8966 Z -1.0000 I 0.1326 J -0.0880
G02 X 7.6841 Y 19.8040 Z -1.0000 I -0.0714 J -0.0714
G02 X 7.6062 Y 19.6608 Z -1.0000 I -0.2815 J 0.0604
G03 X 7.5061 Y 19.4999 Z -1.0000 I 0.2950 J -0.2952
G03 X 7.4630 Y 19.2394 Z -1.0000 I 0.7669 J -0.2605
G02 X 7.4151 Y 19.0091 Z -1.0000 I -0.5777 J 0.0000
G02 X 7.3421 Y 18.9611 Z -1.0000 I -0.0731 J 0.0318
G02 X 7.2690 Y 19.0091 Z -1.0000 I -0.0000 J 0.0796
G02 X 7.2211 Y 19.2405 Z -1.0000 I 0.5342 J 0.2314
G01 X 7.2211 Y 19.2405 Z -1.0000
G00 Z 5.0000

(End cutting path id: path139)


(Start cutting path id: path139)
(Change tool to Default tool)

G00 Z 5.0000
G00 X 6.4952 Y 17.9933

G01 Z -1.0000 F 100.0000(Penetrate)
G02 X 6.5553 Y 18.1384 Z -1.0000 I 0.2053 J -0.0000 F 400.0000
G02 X 6.6403 Y 18.1384 Z -1.0000 I 0.0425 J -0.0425
G02 X 6.7005 Y 17.9933 Z -1.0000 I -0.1452 J -0.1452
G02 X 6.6403 Y 17.8481 Z -1.0000 I -0.2053 J 0.0000
G02 X 6.5553 Y 17.8481 Z -1.0000 I -0.0425 J 0.0425
G02 X 6.4952 Y 17.9933 Z -1.0000 I 0.1452 J 0.1452
G01 X 6.4952 Y 17.9933 Z -1.0000
G00 Z 5.0000

(End cutting path id: path139)


(Start cutting path id: path139)
(Change tool to Default tool)

G00 Z 5.0000
G00 X 7.2211 Y 17.5698

G01 Z -1.0000 F 100.0000(Penetrate)
G03 X 7.1789 Y 17.7091 Z -1.0000 I -0.2511 J -0.0000 F 400.0000
G03 X 7.1001 Y 17.7513 Z -1.0000 I -0.0788 J -0.0525
G03 X 7.0213 Y 17.7091 Z -1.0000 I 0.0000 J -0.0947
G03 X 6.9791 Y 17.5698 Z -1.0000 I 0.2090 J -0.1393
G03 X 7.0213 Y 17.4305 Z -1.0000 I 0.2511 J -0.0000
G03 X 7.1001 Y 17.3883 Z -1.0000 I 0.0788 J 0.0525
G03 X 7.1789 Y 17.4305 Z -1.0000 I -0.0000 J 0.0947
G03 X 7.2211 Y 17.5698 Z -1.0000 I -0.2090 J 0.1393
G01 X 7.2211 Y 17.5698 Z -1.0000
G00 Z 5.0000

(End cutting path id: path139)


(Start cutting path id: path139)
(Change tool to Default tool)

G00 Z 5.0000
G00 X 8.1890 Y 17.5236

G01 Z -1.0000 F 100.0000(Penetrate)
G03 X 8.1517 Y 17.5777 Z -1.0000 I -0.0579 J 0.0000 F 400.0000
G03 X 8.0680 Y 17.5698 Z -1.0000 I -0.0339 J -0.0887
G03 X 7.9767 Y 17.4785 Z -1.0000 I 0.1476 J -0.2389
G03 X 7.9470 Y 17.3740 Z -1.0000 I 0.1691 J -0.1045
G03 X 7.9842 Y 17.3199 Z -1.0000 I 0.0579 J 0.0000
G03 X 8.0680 Y 17.3278 Z -1.0000 I 0.0339 J 0.0887
G03 X 8.1593 Y 17.4191 Z -1.0000 I -0.1476 J 0.2389
G03 X 8.1890 Y 17.5236 Z -1.0000 I -0.1691 J 0.1045
G01 X 8.1890 Y 17.5236 Z -1.0000
G00 Z 5.0000

(End cutting path id: path139)


(Start cutting path id: path139)
(Change tool to Default tool)

G00 Z 5.0000
G00 X 9.5295 Y 17.9543

G01 Z -1.0000 F 100.0000(Penetrate)
G02 X 9.4465 Y 18.1681 Z -1.0000 I 0.2468 J 0.2188 F 400.0000
G02 X 9.5182 Y 18.7058 Z -1.0000 I 1.8438 J 0.0277
G03 X 9.6581 Y 19.2675 Z -1.0000 I -7.7006 J 2.2162
G03 X 9.7125 Y 19.6266 Z -1.0000 I -3.0867 J 0.6513
G02 X 9.8965 Y 20.6960 Z -1.0000 I 6.9655 J -0.6482
G02 X 10.2376 Y 21.6999 Z -1.0000 I 6.4746 J -1.6399
G03 X 10.2265 Y 21.8532 Z -1.0000 I -0.1529 J 0.0659
G03 X 10.1159 Y 21.8975 Z -1.0000 I -0.0852 J -0.0525
G02 X 9.9492 Y 22.0051 Z -1.0000 I -0.0341 J 0.1302
G02 X 10.0378 Y 22.3550 Z -1.0000 I 0.4390 J 0.0749
G02 X 10.5053 Y 22.5814 Z -1.0000 I 0.4655 J -0.3654
G02 X 10.6535 Y 22.3530 Z -1.0000 I -0.0005 J -0.1626
G03 X 10.5922 Y 22.1611 Z -1.0000 I 0.8603 J -0.3803
G03 X 10.4177 Y 21.1993 Z -1.0000 I 21.6777 J -4.4313
G02 X 10.1750 Y 19.9739 Z -1.0000 I -16.2188 J 2.5751
G02 X 9.7756 Y 18.5005 Z -1.0000 I -23.8585 J 5.6757
G03 X 9.6967 Y 18.1019 Z -1.0000 I 1.9425 J -0.5919
G03 X 9.7207 Y 17.9258 Z -1.0000 I 0.3865 J -0.0370
G01 X 9.6786 Y 17.8734 Z -1.0000
G02 X 9.5295 Y 17.9542 Z -1.0000 I 0.0365 J 0.2454
G01 X 9.5295 Y 17.9543 Z -1.0000
G00 Z 5.0000

(End cutting path id: path139)


(Start cutting path id: path139)
(Change tool to Default tool)

G00 Z 5.0000
G00 X 6.8594 Y 16.0272

G01 Z -1.0000 F 100.0000(Penetrate)
G02 X 6.8726 Y 16.3592 Z -1.0000 I 4.6641 J -0.0187 F 400.0000
G02 X 6.9210 Y 16.8439 Z -1.0000 I 10.0001 J -0.7539
G01 X 6.9812 Y 17.3278 Z -1.0000
G01 X 6.8042 Y 16.9649 Z -1.0000
G03 X 6.5314 Y 15.9114 Z -1.0000 I 2.4541 J -1.1974
G03 X 6.7371 Y 15.6945 Z -1.0000 I 0.2057 J -0.0109
G03 X 6.8085 Y 15.7443 Z -1.0000 I 0.0000 J 0.0760
G03 X 6.8594 Y 16.0272 Z -1.0000 I -0.7785 J 0.2862
G01 X 6.8594 Y 16.0272 Z -1.0000
G00 Z 5.0000

(End cutting path id: path139)


(Start cutting path id: path139)
(Change tool to Default tool)

G00 Z 5.0000
G00 X 5.9672 Y 16.2628

G01 Z -1.0000 F 100.0000(Penetrate)
G03 X 5.8853 Y 16.2784 Z -1.0000 I -0.0524 J -0.0524 F 400.0000
G03 X 5.7645 Y 16.1750 Z -1.0000 I 0.1075 J -0.2479
G03 X 5.7495 Y 15.9882 Z -1.0000 I 0.1703 J -0.1077
G03 X 5.8528 Y 15.9682 Z -1.0000 I 0.0584 J 0.0249
G03 X 5.9862 Y 16.1728 Z -1.0000 I -0.4190 J 0.4190
G03 X 5.9672 Y 16.2629 Z -1.0000 I -0.0786 J 0.0305
G01 X 5.9672 Y 16.2628 Z -1.0000
G00 Z 5.0000

(End cutting path id: path139)


(Start cutting path id: path139)
(Change tool to Default tool)

G00 Z 5.0000
G00 X 3.6666 Y 17.2389

G01 Z -1.0000 F 100.0000(Penetrate)
G03 X 3.8856 Y 17.4869 Z -1.0000 I -0.8298 J 0.9531 F 400.0000
G03 X 4.0157 Y 17.7580 Z -1.0000 I -0.8663 J 0.5825
G02 X 4.2410 Y 18.1262 Z -1.0000 I 0.8448 J -0.2640
G02 X 4.4989 Y 18.2315 Z -1.0000 I 0.2579 J -0.2632
G01 X 4.5288 Y 18.2017 Z -1.0000
G02 X 4.4989 Y 18.1426 Z -1.0000 I -0.0733 J 0.0000
G03 X 4.3973 Y 18.0368 Z -1.0000 I 0.2538 J -0.3454
G03 X 4.1128 Y 17.5698 Z -1.0000 I 4.9329 J -3.3246
G02 X 3.8060 Y 17.1451 Z -1.0000 I -1.8484 J 1.0125
G02 X 3.6289 Y 17.0507 Z -1.0000 I -0.2261 J 0.2108
G01 X 3.5843 Y 17.0970 Z -1.0000
G02 X 3.6666 Y 17.2389 Z -1.0000 I 0.2499 J -0.0501
G01 X 3.6666 Y 17.2389 Z -1.0000
G00 Z 5.0000

(End cutting path id: path139)


(Start cutting path id: path139)
(Change tool to Default tool)

G00 Z 5.0000
G00 X 4.2569 Y 18.4772

G01 Z -1.0000 F 100.0000(Penetrate)
G02 X 4.3414 Y 18.5808 Z -1.0000 I 0.4367 J -0.2697 F 400.0000
G02 X 4.3851 Y 18.5982 Z -1.0000 I 0.0437 J -0.0463
G01 X 4.4173 Y 18.5771 Z -1.0000
G02 X 4.4384 Y 18.4772 Z -1.0000 I -0.2265 J -0.0999
G02 X 4.4020 Y 18.3927 Z -1.0000 I -0.1163 J 0.0000
G02 X 4.3103 Y 18.3562 Z -1.0000 I -0.0917 J 0.0971
G02 X 4.2512 Y 18.3947 Z -1.0000 I -0.0000 J 0.0645
G02 X 4.2569 Y 18.4772 Z -1.0000 I 0.0812 J 0.0358
G01 X 4.2569 Y 18.4772 Z -1.0000
G00 Z 5.0000

(End cutting path id: path139)


(Start cutting path id: path139)
(Change tool to Default tool)

G00 Z 5.0000
G00 X 5.5273 Y 20.3377

G01 Z -1.0000 F 100.0000(Penetrate)
G02 X 5.5430 Y 20.3757 Z -1.0000 I 0.0538 J 0.0000 F 400.0000
G02 X 5.7390 Y 20.5494 Z -1.0000 I 1.5397 J -1.5396
G01 X 5.7821 Y 20.5468 Z -1.0000
G01 X 5.7847 Y 20.5037 Z -1.0000
G02 X 5.5744 Y 20.3120 Z -1.0000 I -0.6759 J 0.5301
G01 X 5.5273 Y 20.3377 Z -1.0000
G01 X 5.5273 Y 20.3377 Z -1.0000
G00 Z 5.0000

(End cutting path id: path139)


(Start cutting path id: path139)
(Change tool to Default tool)

G00 Z 5.0000
G00 X 7.8260 Y 20.7759

G01 Z -1.0000 F 100.0000(Penetrate)
G02 X 7.8800 Y 21.0563 Z -1.0000 I 0.7550 J -0.0000 F 400.0000
G01 X 7.9470 Y 21.0784 Z -1.0000
G02 X 8.0284 Y 20.9815 Z -1.0000 I -0.1063 J -0.1719
G02 X 8.0680 Y 20.7759 Z -1.0000 I -0.5140 J -0.2056
G02 X 8.0284 Y 20.5703 Z -1.0000 I -0.5536 J -0.0000
G02 X 7.9470 Y 20.4735 Z -1.0000 I -0.1876 J 0.0751
G01 X 7.8800 Y 20.4955 Z -1.0000
G02 X 7.8260 Y 20.7759 Z -1.0000 I 0.7010 J 0.2804
G01 X 7.8260 Y 20.7759 Z -1.0000
G00 Z 5.0000

(End cutting path id: path139)


(Start cutting path id: path139)
(Change tool to Default tool)

G00 Z 5.0000
G00 X 8.8740 Y 21.5321

G01 Z -1.0000 F 100.0000(Penetrate)
G01 X 8.8423 Y 21.5321 Z -1.0000 F 400.0000
G03 X 8.8130 Y 21.3809 Z -1.0000 I 0.3748 J -0.1512
G03 X 8.8423 Y 21.2296 Z -1.0000 I 0.4042 J -0.0000
G01 X 8.8740 Y 21.2296 Z -1.0000
G03 X 8.9034 Y 21.3809 Z -1.0000 I -0.3748 J 0.1512
G03 X 8.8740 Y 21.5321 Z -1.0000 I -0.4042 J -0.0000
G01 X 8.8740 Y 21.5321 Z -1.0000
G00 Z 5.0000

(End cutting path id: path139)


(Start cutting path id: path139)
(Change tool to Default tool)

G00 Z 5.0000
G00 X 9.5531 Y 22.1401

G01 Z -1.0000 F 100.0000(Penetrate)
G03 X 9.6017 Y 22.2976 Z -1.0000 I -1.1412 J 0.4379 F 400.0000
G03 X 9.7599 Y 23.0173 Z -1.0000 I -23.8037 J 5.6121
G02 X 9.9449 Y 23.7269 Z -1.0000 I 6.7136 J -1.3707
G02 X 10.1252 Y 24.1635 Z -1.0000 I 2.7085 J -0.8631
G03 X 10.3291 Y 24.5930 Z -1.0000 I -6.6841 J 3.4361
G03 X 10.4949 Y 25.0104 Z -1.0000 I -6.1499 J 2.6845
G02 X 11.0625 Y 26.3962 Z -1.0000 I 15.9804 J -5.7361
G02 X 11.1657 Y 26.4622 Z -1.0000 I 0.1033 J -0.0477
G02 X 11.2164 Y 26.4016 Z -1.0000 I 0.0000 J -0.0515
G02 X 10.9433 Y 25.2261 Z -1.0000 I -11.8246 J 2.1277
G02 X 10.7837 Y 24.8565 Z -1.0000 I -1.5030 J 0.4298
G02 X 10.7131 Y 24.8392 Z -1.0000 I -0.0438 J 0.0261
G01 X 10.6750 Y 24.8252 Z -1.0000
G03 X 10.6775 Y 24.7299 Z -1.0000 I 0.1359 J -0.0442
G02 X 10.6721 Y 24.5895 Z -1.0000 I -0.1663 J -0.0638
G02 X 10.5627 Y 24.4883 Z -1.0000 I -0.1813 J 0.0862
G03 X 10.2941 Y 24.2068 Z -1.0000 I 0.1627 J -0.4240
G03 X 10.1254 Y 23.1654 Z -1.0000 I 3.1711 J -1.0482
G02 X 10.0768 Y 22.8807 Z -1.0000 I -0.8690 J 0.0018
G02 X 10.0092 Y 22.8327 Z -1.0000 I -0.0676 J 0.0236
G03 X 9.9338 Y 22.7844 Z -1.0000 I -0.0000 J -0.0830
G03 X 9.8143 Y 22.4092 Z -1.0000 I 1.4575 J -0.6710
G02 X 9.6933 Y 22.0358 Z -1.0000 I -1.5133 J 0.2839
G02 X 9.6144 Y 21.9858 Z -1.0000 I -0.0789 J 0.0373
G02 X 9.5538 Y 22.0269 Z -1.0000 I -0.0000 J 0.0652
G02 X 9.5531 Y 22.1401 Z -1.0000 I 0.1447 J 0.0574
G01 X 9.5531 Y 22.1401 Z -1.0000
G00 Z 5.0000

(End cutting path id: path139)


(Start cutting path id: path139)
(Change tool to Default tool)

G00 Z 5.0000
G00 X 10.8602 Y 22.7823

G01 Z -1.0000 F 100.0000(Penetrate)
G02 X 10.8956 Y 22.8631 Z -1.0000 I 0.1213 J -0.0050 F 400.0000
G01 X 10.9333 Y 22.8554 Z -1.0000
G02 X 10.9592 Y 22.7043 Z -1.0000 I -0.3398 J -0.1360
G02 X 10.9237 Y 22.6235 Z -1.0000 I -0.1212 J 0.0050
G01 X 10.8860 Y 22.6312 Z -1.0000
G02 X 10.8602 Y 22.7823 Z -1.0000 I 0.3398 J 0.1360
G01 X 10.8602 Y 22.7823 Z -1.0000
G00 Z 5.0000

(End cutting path id: path139)


(Start cutting path id: path139)
(Change tool to Default tool)

G00 Z 5.0000
G00 X 9.4784 Y 23.8611

G01 Z -1.0000 F 100.0000(Penetrate)
G02 X 9.5640 Y 24.1924 Z -1.0000 I 1.3667 J -0.1766 F 400.0000
G02 X 9.6375 Y 24.2623 Z -1.0000 I 0.1126 J -0.0446
G03 X 9.6859 Y 24.3306 Z -1.0000 I -0.0231 J 0.0677
G03 X 9.6347 Y 24.6029 Z -1.0000 I -0.7840 J -0.0063
G02 X 9.6315 Y 24.8079 Z -1.0000 I 0.2812 J 0.1069
G01 X 9.7102 Y 24.8218 Z -1.0000
G03 X 9.8081 Y 24.7295 Z -1.0000 I 0.3931 J 0.3188
G01 X 9.8220 Y 24.7415 Z -1.0000
G02 X 9.7846 Y 25.8293 Z -1.0000 I 1.1476 J 0.5841
G02 X 10.3293 Y 25.9350 Z -1.0000 I 0.3081 J -0.1309
G02 X 10.6305 Y 24.6308 Z -1.0000 I -0.8931 J -0.8931
G02 X 9.6362 Y 23.9216 Z -1.0000 I -0.9942 J 0.3422
G03 X 9.5651 Y 23.8851 Z -1.0000 I 0.0000 J -0.0876
G03 X 9.4840 Y 23.7098 Z -1.0000 I 0.4153 J -0.2986
G01 X 9.4715 Y 23.7111 Z -1.0000
G02 X 9.4784 Y 23.8611 Z -1.0000 I 0.9044 J 0.0339
G01 X 9.4784 Y 23.8611 Z -1.0000
G00 Z 5.0000

(End cutting path id: path139)


(Start cutting path id: path139)
(Change tool to Default tool)

G00 Z 5.0000
G00 X 11.0945 Y 24.6706

G01 Z -1.0000 F 100.0000(Penetrate)
G02 X 11.1311 Y 24.8539 Z -1.0000 I 0.4572 J 0.0041 F 400.0000
G02 X 11.2136 Y 24.9499 Z -1.0000 I 0.1926 J -0.0821
G02 X 11.2902 Y 24.9072 Z -1.0000 I 0.0264 J -0.0427
G02 X 11.2136 Y 24.6475 Z -1.0000 I -0.4785 J -0.0000
G02 X 11.1398 Y 24.6161 Z -1.0000 I -0.0601 J 0.0389
G02 X 11.0945 Y 24.6706 Z -1.0000 I 0.0107 J 0.0550
G01 X 11.0945 Y 24.6706 Z -1.0000
G00 Z 5.0000

(End cutting path id: path139)


(Start cutting path id: path139)
(Change tool to Default tool)

G00 Z 5.0000
G00 X 10.3667 Y 26.2289

G01 Z -1.0000 F 100.0000(Penetrate)
G02 X 10.3979 Y 26.3456 Z -1.0000 I 0.2337 J -0.0000 F 400.0000
G02 X 10.5430 Y 26.5349 Z -1.0000 I 0.7892 J -0.4548
G03 X 10.6569 Y 26.7245 Z -1.0000 I -0.3227 J 0.3227
G03 X 10.6511 Y 26.8892 Z -1.0000 I -0.2424 J 0.0739
G02 X 10.6812 Y 26.9971 Z -1.0000 I 0.0877 J 0.0337
G02 X 10.8679 Y 27.0576 Z -1.0000 I 0.1771 J -0.2280
G02 X 11.0036 Y 27.0216 Z -1.0000 I -0.0106 J -0.3137
G01 X 11.0019 Y 26.9870 Z -1.0000
G03 X 10.8952 Y 26.8953 Z -1.0000 I 0.0819 J -0.2031
G03 X 10.8468 Y 26.7244 Z -1.0000 I 0.3008 J -0.1776
G02 X 10.6011 Y 26.1340 Z -1.0000 I -0.8722 J 0.0167
G02 X 10.3667 Y 26.2289 Z -1.0000 I -0.0980 J 0.0949
G01 X 10.3667 Y 26.2289 Z -1.0000
G00 Z 5.0000

(End cutting path id: path139)


(Start cutting path id: path139)
(Change tool to Default tool)

G00 Z 5.0000
G00 X 10.8629 Y 27.7764

G01 Z -1.0000 F 100.0000(Penetrate)
G02 X 11.2026 Y 28.3165 Z -1.0000 I 1.3444 J -0.4687 F 400.0000
G02 X 11.3838 Y 28.2952 Z -1.0000 I 0.0822 J -0.0825
G02 X 11.3854 Y 28.1875 Z -1.0000 I -0.0893 J -0.0552
G02 X 11.0951 Y 27.7957 Z -1.0000 I -1.8622 J 1.0766
G01 X 10.7355 Y 27.4108 Z -1.0000
G01 X 10.8629 Y 27.7764 Z -1.0000
G00 Z 5.0000

(End cutting path id: path139)


(Start cutting path id: path139)
(Change tool to Default tool)

G00 Z 5.0000
G00 X 13.1494 Y 25.8573

G01 Z -1.0000 F 100.0000(Penetrate)
G02 X 13.1858 Y 25.9419 Z -1.0000 I 0.1163 J 0.0000 F 400.0000
G02 X 13.2775 Y 25.9783 Z -1.0000 I 0.0917 J -0.0971
G02 X 13.3365 Y 25.9398 Z -1.0000 I -0.0000 J -0.0645
G02 X 13.3308 Y 25.8573 Z -1.0000 I -0.0812 J -0.0358
G02 X 13.2464 Y 25.7537 Z -1.0000 I -0.4377 J 0.2705
G02 X 13.2027 Y 25.7363 Z -1.0000 I -0.0437 J 0.0463
G01 X 13.1704 Y 25.7574 Z -1.0000
G02 X 13.1494 Y 25.8573 Z -1.0000 I 0.2266 J 0.0999
G01 X 13.1494 Y 25.8573 Z -1.0000
G00 Z 5.0000

(End cutting path id: path139)


(Start cutting path id: path139)
(Change tool to Default tool)

G00 Z 5.0000
G00 X 13.7069 Y 24.1423

G01 Z -1.0000 F 100.0000(Penetrate)
G02 X 13.6076 Y 24.5783 Z -1.0000 I 0.5876 J 0.3632 F 400.0000
G02 X 13.7948 Y 24.9703 Z -1.0000 I 0.6479 J -0.0688
G01 X 13.8366 Y 24.9574 Z -1.0000
G02 X 13.8753 Y 24.5466 Z -1.0000 I -2.1627 J -0.4108
G02 X 13.7959 Y 24.1494 Z -1.0000 I -1.0336 J 0.0000
G02 X 13.7069 Y 24.1423 Z -1.0000 I -0.0463 J 0.0193
G01 X 13.7069 Y 24.1423 Z -1.0000
G00 Z 5.0000

(End cutting path id: path139)


(Start cutting path id: path139)
(Change tool to Default tool)

G00 Z 5.0000
G00 X 12.7864 Y 22.9679

G01 Z -1.0000 F 100.0000(Penetrate)
G03 X 12.7491 Y 23.0221 Z -1.0000 I -0.0579 J 0.0000 F 400.0000
G03 X 12.6654 Y 23.0142 Z -1.0000 I -0.0338 J -0.0886
G03 X 12.5741 Y 22.9228 Z -1.0000 I 0.1478 J -0.2391
G03 X 12.5444 Y 22.8184 Z -1.0000 I 0.1690 J -0.1044
G03 X 12.5817 Y 22.7643 Z -1.0000 I 0.0579 J 0.0000
G03 X 12.6654 Y 22.7722 Z -1.0000 I 0.0338 J 0.0886
G03 X 12.7567 Y 22.8635 Z -1.0000 I -0.1478 J 0.2391
G03 X 12.7864 Y 22.9679 Z -1.0000 I -0.1690 J 0.1044
G01 X 12.7864 Y 22.9679 Z -1.0000
G00 Z 5.0000

(End cutting path id: path139)


(Start cutting path id: path139)
(Change tool to Default tool)

G00 Z 5.0000
G00 X 14.1172 Y 22.6512

G01 Z -1.0000 F 100.0000(Penetrate)
G03 X 14.0759 Y 22.7914 Z -1.0000 I -0.2584 J -0.0000 F 400.0000
G03 X 14.0001 Y 22.8327 Z -1.0000 I -0.0759 J -0.0490
G03 X 13.9449 Y 22.7901 Z -1.0000 I 0.0000 J -0.0571
G03 X 13.9525 Y 22.6512 Z -1.0000 I 0.2196 J -0.0575
G03 X 14.0351 Y 22.4886 Z -1.0000 I 0.8242 J 0.3163
G01 X 14.0697 Y 22.4697 Z -1.0000
G01 X 14.0965 Y 22.4904 Z -1.0000
G03 X 14.1172 Y 22.6512 Z -1.0000 I -0.6136 J 0.1608
G01 X 14.1172 Y 22.6512 Z -1.0000
G00 Z 5.0000

(End cutting path id: path139)


(Start cutting path id: path139)
(Change tool to Default tool)

G00 Z 5.0000
G00 X 16.3387 Y 23.9820

G01 Z -1.0000 F 100.0000(Penetrate)
G03 X 16.2561 Y 24.1447 Z -1.0000 I -0.8242 J -0.3163 F 400.0000
G01 X 16.2215 Y 24.1635 Z -1.0000
G01 X 16.1947 Y 24.1428 Z -1.0000
G03 X 16.1740 Y 23.9820 Z -1.0000 I 0.6136 J -0.1608
G03 X 16.2153 Y 23.8419 Z -1.0000 I 0.2584 J -0.0000
G03 X 16.2912 Y 23.8006 Z -1.0000 I 0.0759 J 0.0490
G03 X 16.3464 Y 23.8432 Z -1.0000 I 0.0000 J 0.0571
G03 X 16.3387 Y 23.9820 Z -1.0000 I -0.2196 J 0.0575
G01 X 16.3387 Y 23.9820 Z -1.0000
G00 Z 5.0000

(End cutting path id: path139)


(Start cutting path id: path139)
(Change tool to Default tool)

G00 Z 5.0000
G00 X 16.6579 Y 23.2561

G01 Z -1.0000 F 100.0000(Penetrate)
G02 X 16.6989 Y 23.6387 Z -1.0000 I 1.8090 J 0.0000 F 400.0000
G02 X 16.7496 Y 23.6796 Z -1.0000 I 0.0507 J -0.0110
G01 X 16.7956 Y 23.7217 Z -1.0000
G03 X 16.7979 Y 24.2240 Z -1.0000 I -2.9839 J 0.2648
G02 X 16.8183 Y 24.7096 Z -1.0000 I 1.9985 J 0.1590
G02 X 16.8877 Y 24.7685 Z -1.0000 I 0.0694 J -0.0115
G02 X 16.9647 Y 24.7115 Z -1.0000 I 0.0000 J -0.0804
G02 X 17.0264 Y 24.3148 Z -1.0000 I -1.3543 J -0.4138
G03 X 17.0779 Y 23.8720 Z -1.0000 I 2.1477 J 0.0258
G03 X 17.2089 Y 23.4981 Z -1.0000 I 1.6560 J 0.3702
G01 X 17.3860 Y 23.1351 Z -1.0000
G01 X 17.3142 Y 23.6191 Z -1.0000
G02 X 17.2701 Y 24.1053 Z -1.0000 I 4.2706 J 0.6331
G02 X 17.1927 Y 27.1882 Z -1.0000 I 172.1888 J 5.8634
G03 X 17.1364 Y 30.2729 Z -1.0000 I -732.7488 J -11.8237
G03 X 17.1262 Y 30.4548 Z -1.0000 I -2.5517 J -0.0519
G01 X 17.0388 Y 30.4547 Z -1.0000
G03 X 16.8341 Y 27.2487 Z -1.0000 I 58.9913 J -5.3752
G02 X 16.6829 Y 24.9258 Z -1.0000 I -40.9655 J 1.5011
G02 X 16.4572 Y 23.2259 Z -1.0000 I -22.1499 J 2.0753
G03 X 16.4567 Y 22.8893 Z -1.0000 I 0.9857 J -0.1697
G03 X 16.5237 Y 22.8327 Z -1.0000 I 0.0670 J 0.0113
G03 X 16.6012 Y 22.8894 Z -1.0000 I 0.0000 J 0.0813
G03 X 16.6579 Y 23.2561 Z -1.0000 I -1.1569 J 0.3667
G01 X 16.6579 Y 23.2561 Z -1.0000
G00 Z 5.0000

(End cutting path id: path139)


(Start cutting path id: path139)
(Change tool to Default tool)

G00 Z 5.0000
G00 X 16.9866 Y 22.8024

G01 Z -1.0000 F 100.0000(Penetrate)
G01 X 16.9612 Y 22.8024 Z -1.0000 F 400.0000
G03 X 16.9362 Y 22.4697 Z -1.0000 I 2.1964 J -0.3327
G03 X 16.9612 Y 22.1370 Z -1.0000 I 2.2214 J -0.0000
G01 X 16.9866 Y 22.1370 Z -1.0000
G03 X 17.0116 Y 22.4697 Z -1.0000 I -2.1964 J 0.3327
G03 X 16.9866 Y 22.8024 Z -1.0000 I -2.2214 J 0.0000
G01 X 16.9866 Y 22.8024 Z -1.0000
G00 Z 5.0000

(End cutting path id: path139)


(Start cutting path id: path139)
(Change tool to Default tool)

G00 Z 5.0000
G00 X 18.9212 Y 24.4343

G01 Z -1.0000 F 100.0000(Penetrate)
G01 X 18.8939 Y 24.4352 Z -1.0000 F 400.0000
G03 X 18.8662 Y 24.2240 Z -1.0000 I 0.8231 J -0.2155
G03 X 18.8915 Y 23.9513 Z -1.0000 I 1.4086 J -0.0069
G01 X 18.9188 Y 23.9504 Z -1.0000
G03 X 18.9465 Y 24.1616 Z -1.0000 I -0.8232 J 0.2155
G03 X 18.9212 Y 24.4343 Z -1.0000 I -1.4049 J 0.0071
G01 X 18.9212 Y 24.4343 Z -1.0000
G00 Z 5.0000

(End cutting path id: path139)


(Start cutting path id: path139)
(Change tool to Default tool)

G00 Z 5.0000
G00 X 21.4598 Y 24.3753

G01 Z -1.0000 F 100.0000(Penetrate)
G01 X 21.4317 Y 24.3753 Z -1.0000 F 400.0000
G03 X 21.4044 Y 24.1635 Z -1.0000 I 0.8102 J -0.2117
G03 X 21.4317 Y 23.9518 Z -1.0000 I 0.8374 J 0.0000
G01 X 21.4598 Y 23.9518 Z -1.0000
G03 X 21.4870 Y 24.1635 Z -1.0000 I -0.8102 J 0.2117
G03 X 21.4598 Y 24.3753 Z -1.0000 I -0.8374 J 0.0000
G01 X 21.4598 Y 24.3753 Z -1.0000
G00 Z 5.0000

(End cutting path id: path139)


(Start cutting path id: path139)
(Change tool to Default tool)

G00 Z 5.0000
G00 X 21.4974 Y 24.8218

G01 Z -1.0000 F 100.0000(Penetrate)
G03 X 21.4800 Y 24.8655 Z -1.0000 I -0.0636 J 0.0000 F 400.0000
G03 X 21.3764 Y 24.9499 Z -1.0000 I -0.3741 J -0.3533
G03 X 21.2939 Y 24.9556 Z -1.0000 I -0.0467 J -0.0755
G03 X 21.2554 Y 24.8966 Z -1.0000 I 0.0260 J -0.0591
G03 X 21.2918 Y 24.8049 Z -1.0000 I 0.1335 J 0.0000
G03 X 21.3764 Y 24.7685 Z -1.0000 I 0.0845 J 0.0798
G03 X 21.4763 Y 24.7895 Z -1.0000 I -0.0000 J 0.2477
G01 X 21.4974 Y 24.8218 Z -1.0000
G01 X 21.4974 Y 24.8218 Z -1.0000
G00 Z 5.0000

(End cutting path id: path139)


(Start cutting path id: path139)
(Change tool to Default tool)

G00 Z 5.0000
G00 X 21.9813 Y 25.1314

G01 Z -1.0000 F 100.0000(Penetrate)
G03 X 21.9459 Y 25.2170 Z -1.0000 I -0.1210 J 0.0000 F 400.0000
G03 X 21.8603 Y 25.2524 Z -1.0000 I -0.0856 J -0.0855
G02 X 21.7914 Y 25.3044 Z -1.0000 I 0.0000 J 0.0717
G02 X 21.7393 Y 25.6758 Z -1.0000 I 1.3000 J 0.3714
G03 X 21.6073 Y 25.9499 Z -1.0000 I -0.3504 J 0.0000
G03 X 21.4494 Y 25.9069 Z -1.0000 I -0.0632 J -0.0793
G03 X 21.4377 Y 25.7197 Z -1.0000 I 0.2925 J -0.1122
G03 X 21.5836 Y 25.3625 Z -1.0000 I 1.2875 J 0.3172
G03 X 21.8769 Y 25.0713 Z -1.0000 I 0.7040 J 0.4159
G03 X 21.9813 Y 25.1314 Z -1.0000 I 0.0349 J 0.0601
G01 X 21.9813 Y 25.1314 Z -1.0000
G00 Z 5.0000

(End cutting path id: path139)


(Start cutting path id: path139)
(Change tool to Default tool)

G00 Z 5.0000
G00 X 22.9108 Y 25.0331

G01 Z -1.0000 F 100.0000(Penetrate)
G01 X 22.8732 Y 25.0408 Z -1.0000 F 400.0000
G03 X 22.8378 Y 24.9600 Z -1.0000 I 0.0858 J -0.0858
G03 X 22.8636 Y 24.8089 Z -1.0000 I 0.3653 J -0.0152
G01 X 22.9013 Y 24.8012 Z -1.0000
G03 X 22.9367 Y 24.8820 Z -1.0000 I -0.0858 J 0.0858
G03 X 22.9109 Y 25.0331 Z -1.0000 I -0.3661 J 0.0151
G01 X 22.9108 Y 25.0331 Z -1.0000
G00 Z 5.0000

(End cutting path id: path139)


(Start cutting path id: path139)
(Change tool to Default tool)

G00 Z 5.0000
G00 X 23.4370 Y 24.4286

G01 Z -1.0000 F 100.0000(Penetrate)
G02 X 23.4730 Y 24.6114 Z -1.0000 I 0.4401 J 0.0082 F 400.0000
G02 X 23.5590 Y 24.7110 Z -1.0000 I 0.2013 J -0.0870
G03 X 23.6261 Y 24.8106 Z -1.0000 I -0.0766 J 0.1239
G03 X 23.6114 Y 25.0206 Z -1.0000 I -0.4413 J 0.0746
G02 X 23.6048 Y 25.2034 Z -1.0000 I 0.3253 J 0.1032
G02 X 23.6669 Y 25.2524 Z -1.0000 I 0.0622 J -0.0149
G02 X 23.8428 Y 25.0654 Z -1.0000 I 0.0000 J -0.1762
G02 X 23.6185 Y 24.4589 Z -1.0000 I -1.1165 J 0.0682
G02 X 23.4924 Y 24.3826 Z -1.0000 I -0.1588 J 0.1201
G01 X 23.4370 Y 24.4286 Z -1.0000
G01 X 23.4370 Y 24.4286 Z -1.0000
G00 Z 5.0000

(End cutting path id: path139)


(Start cutting path id: path139)
(Change tool to Default tool)

G00 Z 5.0000
G00 X 22.6786 Y 23.6796

G01 Z -1.0000 F 100.0000(Penetrate)
G02 X 22.6159 Y 23.9859 Z -1.0000 I 1.7794 J 0.5241 F 400.0000
G02 X 22.5857 Y 24.4660 Z -1.0000 I 4.3596 J 0.5153
G03 X 22.3859 Y 26.5734 Z -1.0000 I -12.2521 J -0.0982
G03 X 22.1004 Y 27.1174 Z -1.0000 I -1.0153 J -0.1858
G01 X 22.0321 Y 27.1138 Z -1.0000
G03 X 21.9813 Y 26.9704 Z -1.0000 I 0.1770 J -0.1435
G02 X 21.9339 Y 26.7516 Z -1.0000 I -0.5287 J -0.0000
G02 X 21.8603 Y 26.7042 Z -1.0000 I -0.0736 J 0.0335
G02 X 21.7405 Y 26.8223 Z -1.0000 I 0.0000 J 0.1199
G02 X 21.8516 Y 27.2805 Z -1.0000 I 0.9420 J 0.0142
G03 X 22.1158 Y 28.0769 Z -1.0000 I -2.1772 J 1.1642
G03 X 22.1475 Y 29.2449 Z -1.0000 I -4.7344 J 0.7132
G02 X 21.9062 Y 33.5924 Z -1.0000 I 54.6197 J 5.2119
G02 X 22.0779 Y 33.6651 Z -1.0000 I 0.1005 J 0.0016
G02 X 22.1456 Y 33.5729 Z -1.0000 I -0.2681 J -0.2681
G02 X 22.1646 Y 33.4996 Z -1.0000 I -0.1472 J -0.0771
G03 X 22.1813 Y 33.4234 Z -1.0000 I 0.2031 J 0.0046
G03 X 22.2708 Y 33.2542 Z -1.0000 I 1.1272 J 0.4881
G02 X 22.2959 Y 33.1077 Z -1.0000 I -0.1631 J -0.1033
G02 X 22.2095 Y 32.9870 Z -1.0000 I -0.1876 J 0.0431
G03 X 22.1414 Y 32.8732 Z -1.0000 I 0.0758 J -0.1226
G03 X 22.1940 Y 32.7343 Z -1.0000 I 0.1804 J -0.0111
G02 X 22.2883 Y 32.5610 Z -1.0000 I -0.2465 J -0.2465
G02 X 22.3444 Y 32.0336 Z -1.0000 I -2.4605 J -0.5280
G03 X 22.4697 Y 30.6539 Z -1.0000 I 7.6785 J 0.0020
G03 X 22.8204 Y 29.4311 Z -1.0000 I 6.3690 J 1.1651
G02 X 22.9166 Y 29.0693 Z -1.0000 I -1.4790 J -0.5869
G02 X 22.9069 Y 28.8262 Z -1.0000 I -0.6654 J -0.0951
G03 X 22.8887 Y 28.5821 Z -1.0000 I 0.8111 J -0.1832
G03 X 22.9427 Y 28.3375 Z -1.0000 I 0.8689 J 0.0638
G03 X 23.0297 Y 28.2955 Z -1.0000 I 0.0657 J 0.0249
G03 X 23.1330 Y 28.3980 Z -1.0000 I -0.0483 J 0.1521
G03 X 23.2780 Y 29.5702 Z -1.0000 I -2.9357 J 0.9581
G03 X 23.0189 Y 30.0395 Z -1.0000 I -0.6344 J -0.0441
G02 X 22.7308 Y 30.5406 Z -1.0000 I 0.4206 J 0.5752
G02 X 22.4294 Y 35.6798 Z -1.0000 I 56.2098 J 5.8751
G02 X 22.4760 Y 37.3007 Z -1.0000 I 19.4331 J 0.2530
G01 X 22.5449 Y 37.3154 Z -1.0000
G03 X 22.6171 Y 37.2943 Z -1.0000 I 0.0465 J 0.0248
G03 X 22.6659 Y 37.3835 Z -1.0000 I -0.0470 J 0.0835
G03 X 22.6099 Y 37.6748 Z -1.0000 I -1.1285 J -0.0655
G03 X 22.5559 Y 37.7138 Z -1.0000 I -0.0541 J -0.0180
G02 X 22.4966 Y 37.7453 Z -1.0000 I 0.0001 J 0.0717
G02 X 22.4652 Y 37.8478 Z -1.0000 I 0.1514 J 0.1025
G02 X 22.5119 Y 37.9139 Z -1.0000 I 0.0701 J 0.0000
G02 X 22.6467 Y 37.9121 Z -1.0000 I 0.0650 J -0.1836
G03 X 22.7746 Y 37.9204 Z -1.0000 I 0.0550 J 0.1434
G03 X 22.8282 Y 38.0101 Z -1.0000 I -0.0484 J 0.0897
G03 X 22.7867 Y 38.1478 Z -1.0000 I -0.2494 J -0.0000
G03 X 22.6857 Y 38.2251 Z -1.0000 I -0.1626 J -0.1077
G02 X 22.6179 Y 38.2996 Z -1.0000 I 0.0326 J 0.0978
G02 X 22.6389 Y 38.4272 Z -1.0000 I 0.1654 J 0.0383
G02 X 22.8003 Y 38.4271 Z -1.0000 I 0.0806 J -0.0498
G02 X 23.0249 Y 37.7997 Z -1.0000 I -1.3767 J -0.8468
G02 X 23.0332 Y 37.2909 Z -1.0000 I -2.1064 J -0.2887
G02 X 22.9656 Y 37.2300 Z -1.0000 I -0.0676 J 0.0070
G03 X 22.8679 Y 37.1902 Z -1.0000 I 0.0000 J -0.1400
G03 X 22.8282 Y 37.0960 Z -1.0000 I 0.0918 J -0.0942
G03 X 22.8748 Y 37.0300 Z -1.0000 I 0.0701 J 0.0000
G03 X 23.0096 Y 37.0317 Z -1.0000 I 0.0650 J 0.1836
G02 X 23.1288 Y 36.9438 Z -1.0000 I 0.0315 J -0.0820
G02 X 22.9794 Y 36.5838 Z -1.0000 I -0.6073 J 0.0410
G03 X 22.9475 Y 36.4652 Z -1.0000 I 0.1047 J -0.0917
G01 X 23.0096 Y 36.4302 Z -1.0000
G02 X 23.0958 Y 36.4187 Z -1.0000 I 0.0321 J -0.0880
G01 X 23.1004 Y 36.3660 Z -1.0000
G03 X 23.0006 Y 36.1925 Z -1.0000 I 0.2763 J -0.2743
G03 X 22.9491 Y 35.8015 Z -1.0000 I 1.4596 J -0.3910
G02 X 22.8666 Y 35.5094 Z -1.0000 I -0.5579 J -0.0000
G02 X 22.7442 Y 35.4679 Z -1.0000 I -0.0862 J 0.0529
G01 X 22.6979 Y 35.4378 Z -1.0000
G03 X 22.7370 Y 35.3281 Z -1.0000 I 0.1517 J -0.0078
G02 X 22.9178 Y 34.9191 Z -1.0000 I -0.5282 J -0.4780
G02 X 23.0886 Y 31.7132 Z -1.0000 I -36.5380 J -3.5541
G03 X 23.1518 Y 30.3844 Z -1.0000 I 17.4947 J 0.1660
G03 X 23.2069 Y 30.3338 Z -1.0000 I 0.0551 J 0.0047
G03 X 23.2742 Y 30.3717 Z -1.0000 I 0.0000 J 0.0785
G03 X 23.3121 Y 30.5081 Z -1.0000 I -0.2260 J 0.1364
G02 X 23.3485 Y 30.6622 Z -1.0000 I 0.3450 J 0.0000
G02 X 23.4380 Y 30.7602 Z -1.0000 I 0.2171 J -0.1083
G01 X 23.4903 Y 30.7375 Z -1.0000
G02 X 23.4853 Y 30.5254 Z -1.0000 I -0.4714 J -0.0951
G03 X 23.4936 Y 29.7940 Z -1.0000 I 1.3943 J -0.3499
G03 X 23.7379 Y 29.6079 Z -1.0000 I 0.2442 J 0.0672
G02 X 23.8480 Y 29.5388 Z -1.0000 I -0.0000 J -0.1224
G02 X 23.9171 Y 29.2378 Z -1.0000 I -0.6219 J -0.3011
G02 X 23.8692 Y 28.9535 Z -1.0000 I -0.8675 J -0.0000
G01 X 23.8114 Y 28.9330 Z -1.0000
G01 X 23.7554 Y 28.9090 Z -1.0000
G03 X 23.7044 Y 28.4259 Z -1.0000 I 2.3149 J -0.4883
G03 X 23.7509 Y 28.1553 Z -1.0000 I 0.8014 J -0.0018
G01 X 23.8006 Y 28.1560 Z -1.0000
G01 X 23.8486 Y 28.1525 Z -1.0000
G02 X 23.8906 Y 27.6116 Z -1.0000 I -3.1042 J -0.5136
G02 X 23.8347 Y 26.7914 Z -1.0000 I -6.9177 J 0.0594
G02 X 23.7730 Y 26.6932 Z -1.0000 I -0.1367 J 0.0175
G03 X 23.7284 Y 26.6026 Z -1.0000 I 0.0536 J -0.0827
G03 X 23.8039 Y 26.3119 Z -1.0000 I 0.8680 J 0.0704
G02 X 23.8757 Y 25.9992 Z -1.0000 I -0.7284 J -0.3319
G02 X 23.8197 Y 25.6574 Z -1.0000 I -0.9332 J -0.0224
G02 X 23.7223 Y 25.4979 Z -1.0000 I -0.4442 J 0.1617
G01 X 23.6846 Y 25.5117 Z -1.0000
G03 X 23.6301 Y 25.6779 Z -1.0000 I -0.3289 J -0.0159
G03 X 23.5107 Y 25.7735 Z -1.0000 I -0.2094 J -0.1391
G03 X 23.4250 Y 25.7352 Z -1.0000 I -0.0237 J -0.0619
G03 X 23.3904 Y 25.4577 Z -1.0000 I 0.5500 J -0.2095
G02 X 23.3064 Y 24.5557 Z -1.0000 I -2.1706 J -0.2527
G02 X 23.0120 Y 24.2416 Z -1.0000 I -0.4712 J 0.1466
G03 X 22.9000 Y 24.1352 Z -1.0000 I 0.0722 J -0.1881
G03 X 22.8061 Y 23.7772 Z -1.0000 I 1.0567 J -0.4685
G02 X 22.7407 Y 23.6593 Z -1.0000 I -0.1681 J 0.0161
G01 X 22.6786 Y 23.6796 Z -1.0000
G01 X 22.6786 Y 23.6796 Z -1.0000
G00 Z 5.0000

(End cutting path id: path139)


(Start cutting path id: path139)
(Change tool to Default tool)

G00 Z 5.0000
G00 X 21.5708 Y 22.2981

G01 Z -1.0000 F 100.0000(Penetrate)
G02 X 21.4912 Y 22.8354 Z -1.0000 I 1.1650 J 0.4470 F 400.0000
G02 X 21.6183 Y 22.9537 Z -1.0000 I 0.1271 J -0.0092
G02 X 21.6873 Y 22.9016 Z -1.0000 I 0.0000 J -0.0717
G02 X 21.7393 Y 22.5302 Z -1.0000 I -1.3000 J -0.3714
G02 X 21.6601 Y 22.2864 Z -1.0000 I -0.4150 J -0.0000
G02 X 21.5708 Y 22.2981 Z -1.0000 I -0.0415 J 0.0301
G01 X 21.5708 Y 22.2981 Z -1.0000
G00 Z 5.0000

(End cutting path id: path139)


(Start cutting path id: path139)
(Change tool to Default tool)

G00 Z 5.0000
G00 X 23.6751 Y 20.7688

G01 Z -1.0000 F 100.0000(Penetrate)
G02 X 23.7036 Y 20.8668 Z -1.0000 I 0.1823 J 0.0000 F 400.0000
G02 X 23.7947 Y 20.9566 Z -1.0000 I 0.2417 J -0.1540
G01 X 23.8408 Y 20.9418 Z -1.0000
G02 X 23.8422 Y 20.8427 Z -1.0000 I -0.1229 J -0.0513
G02 X 23.7349 Y 20.7299 Z -1.0000 I -0.1894 J 0.0727
G01 X 23.6751 Y 20.7688 Z -1.0000
G01 X 23.6751 Y 20.7688 Z -1.0000
G00 Z 5.0000

(End cutting path id: path139)


(Start cutting path id: path139)
(Change tool to Default tool)

G00 Z 5.0000
G00 X 22.3443 Y 19.0821

G01 Z -1.0000 F 100.0000(Penetrate)
G02 X 22.4874 Y 19.3013 Z -1.0000 I 1.3264 J -0.7099 F 400.0000
G02 X 22.5343 Y 19.3241 Z -1.0000 I 0.0468 J -0.0368
G01 X 22.5531 Y 19.2991 Z -1.0000
G02 X 22.4652 Y 19.0821 Z -1.0000 I -1.0571 J 0.3016
G02 X 22.3221 Y 18.8629 Z -1.0000 I -1.3269 J 0.7102
G02 X 22.2752 Y 18.8402 Z -1.0000 I -0.0468 J 0.0368
G01 X 22.2564 Y 18.8651 Z -1.0000
G02 X 22.3443 Y 19.0821 Z -1.0000 I 1.0569 J -0.3015
G01 X 22.3443 Y 19.0821 Z -1.0000
G00 Z 5.0000

(End cutting path id: path139)


(Start cutting path id: path139)
(Change tool to Default tool)

G00 Z 5.0000
G00 X 19.9264 Y 17.4532

G01 Z -1.0000 F 100.0000(Penetrate)
G02 X 20.0647 Y 17.8273 Z -1.0000 I 0.6011 J -0.0095 F 400.0000
G02 X 20.2435 Y 17.8357 Z -1.0000 I 0.0932 J -0.0773
G02 X 20.2624 Y 17.7455 Z -1.0000 I -0.0597 J -0.0596
G02 X 20.1291 Y 17.5410 Z -1.0000 I -0.5521 J 0.2144
G02 X 19.9635 Y 17.4284 Z -1.0000 I -0.3787 J 0.3786
G01 X 19.9264 Y 17.4531 Z -1.0000
G01 X 19.9264 Y 17.4532 Z -1.0000
G00 Z 5.0000

(End cutting path id: path139)


(Start cutting path id: path139)
(Change tool to Default tool)

G00 Z 5.0000
G00 X 18.7242 Y 19.1527

G01 Z -1.0000 F 100.0000(Penetrate)
G02 X 18.7597 Y 19.2335 Z -1.0000 I 0.1213 J -0.0050 F 400.0000
G01 X 18.7973 Y 19.2258 Z -1.0000
G02 X 18.8232 Y 19.0748 Z -1.0000 I -0.3396 J -0.1359
G02 X 18.7877 Y 18.9939 Z -1.0000 I -0.1213 J 0.0050
G01 X 18.7501 Y 19.0016 Z -1.0000
G02 X 18.7242 Y 19.1527 Z -1.0000 I 0.3399 J 0.1360
G01 X 18.7242 Y 19.1527 Z -1.0000
G00 Z 5.0000

(End cutting path id: path139)


(Start cutting path id: path139)
(Change tool to Default tool)

G00 Z 5.0000
G00 X 17.5144 Y 16.8540

G01 Z -1.0000 F 100.0000(Penetrate)
G02 X 17.5498 Y 16.9348 Z -1.0000 I 0.1213 J -0.0050 F 400.0000
G01 X 17.5875 Y 16.9271 Z -1.0000
G02 X 17.6134 Y 16.7760 Z -1.0000 I -0.3396 J -0.1360
G02 X 17.5779 Y 16.6952 Z -1.0000 I -0.1212 J 0.0050
G01 X 17.5402 Y 16.7029 Z -1.0000
G02 X 17.5143 Y 16.8540 Z -1.0000 I 0.3397 J 0.1360
G01 X 17.5144 Y 16.8540 Z -1.0000
G00 Z 5.0000

(End cutting path id: path139)


(Start cutting path id: path139)
(Change tool to Default tool)

G00 Z 5.0000
G00 X 17.6863 Y 15.6949

G01 Z -1.0000 F 100.0000(Penetrate)
G02 X 17.6806 Y 15.7774 Z -1.0000 I 0.0755 J 0.0467 F 400.0000
G02 X 17.7397 Y 15.8159 Z -1.0000 I 0.0591 J -0.0260
G02 X 17.8313 Y 15.7795 Z -1.0000 I 0.0000 J -0.1335
G02 X 17.8678 Y 15.6949 Z -1.0000 I -0.0798 J -0.0846
G02 X 17.8468 Y 15.5950 Z -1.0000 I -0.2478 J 0.0000
G01 X 17.8144 Y 15.5739 Z -1.0000
G02 X 17.7708 Y 15.5913 Z -1.0000 I -0.0000 J 0.0636
G02 X 17.6863 Y 15.6949 Z -1.0000 I 0.3544 J 0.3751
G01 X 17.6863 Y 15.6949 Z -1.0000
G00 Z 5.0000

(End cutting path id: path139)


(Start cutting path id: path139)
(Change tool to Default tool)

G00 Z 5.0000
G00 X 17.2402 Y 13.8418

G01 Z -1.0000 F 100.0000(Penetrate)
G02 X 17.3911 Y 13.8676 Z -1.0000 I 0.1356 J -0.3395 F 400.0000
G02 X 17.4721 Y 13.8318 Z -1.0000 I -0.0051 J -0.1210
G01 X 17.4643 Y 13.7941 Z -1.0000
G02 X 17.3133 Y 13.7683 Z -1.0000 I -0.1359 J 0.3397
G02 X 17.2325 Y 13.8038 Z -1.0000 I 0.0052 J 0.1215
G01 X 17.2402 Y 13.8414 Z -1.0000
G01 X 17.2402 Y 13.8418 Z -1.0000
G00 Z 5.0000

(End cutting path id: path139)


(Start cutting path id: path139)
(Change tool to Default tool)

G00 Z 5.0000
G00 X 16.4178 Y 13.3054

G01 Z -1.0000 F 100.0000(Penetrate)
G02 X 16.4385 Y 13.4948 Z -1.0000 I 0.8133 J 0.0070 F 400.0000
G01 X 16.4666 Y 13.5172 Z -1.0000
G03 X 16.5158 Y 13.5245 Z -1.0000 I 0.0000 J 0.1694
G03 X 16.7085 Y 13.5906 Z -1.0000 I -0.8385 J 2.7595
G02 X 16.8326 Y 13.5659 Z -1.0000 I 0.0424 J -0.1107
G02 X 16.8999 Y 13.4091 Z -1.0000 I -0.1488 J -0.1568
G02 X 16.8531 Y 13.2010 Z -1.0000 I -0.4852 J -0.0000
G02 X 16.7789 Y 13.1542 Z -1.0000 I -0.0741 J 0.0352
G02 X 16.6966 Y 13.1934 Z -1.0000 I 0.0000 J 0.1060
G02 X 16.6561 Y 13.3054 Z -1.0000 I 0.1407 J 0.1143
G01 X 16.6189 Y 13.3340 Z -1.0000
G03 X 16.5370 Y 13.2752 Z -1.0000 I 0.0339 J -0.1337
G02 X 16.4640 Y 13.2465 Z -1.0000 I -0.0564 J 0.0365
G02 X 16.4178 Y 13.3054 Z -1.0000 I 0.0151 J 0.0594
G01 X 16.4178 Y 13.3054 Z -1.0000
G00 Z 5.0000

(End cutting path id: path139)


(Start cutting path id: path139)
(Change tool to Default tool)

G00 Z 5.0000
G00 X 15.8110 Y 10.6159

G01 Z -1.0000 F 100.0000(Penetrate)
G02 X 15.8504 Y 10.7147 Z -1.0000 I 0.1438 J 0.0000 F 400.0000
G02 X 15.9977 Y 10.8133 Z -1.0000 I 0.2907 J -0.2749
G02 X 16.0963 Y 10.7640 Z -1.0000 I 0.0267 J -0.0697
G02 X 16.0475 Y 10.6377 Z -1.0000 I -0.1083 J -0.0307
G02 X 15.8574 Y 10.5736 Z -1.0000 I -0.2301 J 0.3684
G01 X 15.8110 Y 10.6158 Z -1.0000
G01 X 15.8110 Y 10.6159 Z -1.0000
G00 Z 5.0000

(End cutting path id: path139)


(Start cutting path id: path139)
(Change tool to Default tool)

G00 Z 5.0000
G00 X 16.0303 Y 10.3329

G01 Z -1.0000 F 100.0000(Penetrate)
G02 X 16.1812 Y 10.3587 Z -1.0000 I 0.1356 J -0.3395 F 400.0000
G02 X 16.2622 Y 10.3229 Z -1.0000 I -0.0051 J -0.1210
G01 X 16.2545 Y 10.2852 Z -1.0000
G02 X 16.1034 Y 10.2593 Z -1.0000 I -0.1361 J 0.3400
G02 X 16.0226 Y 10.2948 Z -1.0000 I 0.0052 J 0.1216
G01 X 16.0303 Y 10.3324 Z -1.0000
G01 X 16.0303 Y 10.3329 Z -1.0000
G00 Z 5.0000

(End cutting path id: path139)


(Start cutting path id: path139)
(Change tool to Default tool)

G00 Z 5.0000
G00 X 16.2950 Y 8.4354

G01 Z -1.0000 F 100.0000(Penetrate)
G02 X 16.3304 Y 8.5210 Z -1.0000 I 0.1210 J 0.0000 F 400.0000
G02 X 16.4160 Y 8.5564 Z -1.0000 I 0.0856 J -0.0855
G02 X 16.5015 Y 8.5210 Z -1.0000 I 0.0000 J -0.1210
G02 X 16.5370 Y 8.4354 Z -1.0000 I -0.0855 J -0.0856
G02 X 16.5015 Y 8.3499 Z -1.0000 I -0.1210 J 0.0000
G02 X 16.4160 Y 8.3145 Z -1.0000 I -0.0856 J 0.0855
G02 X 16.3304 Y 8.3499 Z -1.0000 I 0.0000 J 0.1210
G02 X 16.2950 Y 8.4354 Z -1.0000 I 0.0856 J 0.0855
G01 X 16.2950 Y 8.4354 Z -1.0000
G00 Z 5.0000

(End cutting path id: path139)


(Start cutting path id: path139)
(Change tool to Default tool)

G00 Z 5.0000
G00 X 15.8110 Y 7.5885

G01 Z -1.0000 F 100.0000(Penetrate)
G02 X 15.8573 Y 7.7843 Z -1.0000 I 0.4377 J -0.0000 F 400.0000
G02 X 15.9320 Y 7.8305 Z -1.0000 I 0.0748 J -0.0374
G02 X 16.0068 Y 7.7843 Z -1.0000 I 0.0000 J -0.0836
G02 X 16.0530 Y 7.5885 Z -1.0000 I -0.3915 J -0.1958
G02 X 16.0068 Y 7.3927 Z -1.0000 I -0.4377 J -0.0000
G02 X 15.9320 Y 7.3465 Z -1.0000 I -0.0748 J 0.0374
G02 X 15.8573 Y 7.3927 Z -1.0000 I 0.0000 J 0.0836
G02 X 15.8110 Y 7.5885 Z -1.0000 I 0.3915 J 0.1958
G01 X 15.8110 Y 7.5885 Z -1.0000
G00 Z 5.0000

(End cutting path id: path139)


(Start cutting path id: path139)
(Change tool to Default tool)

G00 Z 5.0000
G00 X 14.9641 Y 8.4354

G01 Z -1.0000 F 100.0000(Penetrate)
G03 X 14.9220 Y 8.5142 Z -1.0000 I -0.0947 J 0.0000 F 400.0000
G03 X 14.7827 Y 8.5564 Z -1.0000 I -0.1393 J -0.2089
G02 X 14.6543 Y 8.6096 Z -1.0000 I 0.0000 J 0.1815
G02 X 14.6012 Y 8.7379 Z -1.0000 I 0.1283 J 0.1283
G02 X 14.7436 Y 8.8526 Z -1.0000 I 0.1174 J 0.0000
G02 X 15.1562 Y 8.6169 Z -1.0000 I -0.1688 J -0.7746
G02 X 15.2651 Y 8.3893 Z -1.0000 I -0.3118 J -0.2890
G02 X 15.2003 Y 8.3145 Z -1.0000 I -0.0647 J -0.0094
G02 X 15.0100 Y 8.3604 Z -1.0000 I 0.0000 J 0.4173
G02 X 14.9641 Y 8.4354 Z -1.0000 I 0.0385 J 0.0751
G01 X 14.9641 Y 8.4354 Z -1.0000
G00 Z 5.0000

(End cutting path id: path139)


(Start cutting path id: path139)
(Change tool to Default tool)

G00 Z 5.0000
G00 X 13.1494 Y 9.4033

G01 Z -1.0000 F 100.0000(Penetrate)
G03 X 13.1283 Y 9.5032 Z -1.0000 I -0.2478 J -0.0000 F 400.0000
G01 X 13.0960 Y 9.5243 Z -1.0000
G03 X 13.0523 Y 9.5069 Z -1.0000 I 0.0000 J -0.0636
G03 X 12.9679 Y 9.4033 Z -1.0000 I 0.3544 J -0.3751
G03 X 12.9622 Y 9.3208 Z -1.0000 I 0.0755 J -0.0467
G03 X 13.0212 Y 9.2823 Z -1.0000 I 0.0591 J 0.0260
G03 X 13.1129 Y 9.3187 Z -1.0000 I -0.0000 J 0.1335
G03 X 13.1494 Y 9.4033 Z -1.0000 I -0.0798 J 0.0846
G01 X 13.1494 Y 9.4033 Z -1.0000
G00 Z 5.0000

(End cutting path id: path139)


(Start cutting path id: path139)
(Change tool to Default tool)

G00 Z 5.0000
G00 X 13.6333 Y 6.8626

G01 Z -1.0000 F 100.0000(Penetrate)
G03 X 13.5911 Y 6.9414 Z -1.0000 I -0.0947 J 0.0000 F 400.0000
G03 X 13.4518 Y 6.9836 Z -1.0000 I -0.1393 J -0.2089
G03 X 13.3125 Y 6.9414 Z -1.0000 I -0.0000 J -0.2512
G03 X 13.2703 Y 6.8626 Z -1.0000 I 0.0525 J -0.0788
G03 X 13.3126 Y 6.7838 Z -1.0000 I 0.0947 J 0.0000
G03 X 13.4518 Y 6.7416 Z -1.0000 I 0.1393 J 0.2090
G03 X 13.5911 Y 6.7838 Z -1.0000 I -0.0000 J 0.2512
G03 X 13.6333 Y 6.8626 Z -1.0000 I -0.0525 J 0.0788
G01 X 13.6333 Y 6.8626 Z -1.0000
G00 Z 5.0000

(End cutting path id: path139)


(Start cutting path id: path139)
(Change tool to Default tool)

G00 Z 5.0000
G00 X 13.9730 Y 5.8742

G01 Z -1.0000 F 100.0000(Penetrate)
G03 X 13.9264 Y 6.3011 Z -1.0000 I -1.1810 J 0.0870 F 400.0000
G03 X 13.8217 Y 6.3790 Z -1.0000 I -0.1046 J -0.0313
G03 X 13.6773 Y 6.3350 Z -1.0000 I 0.0000 J -0.2596
G03 X 13.6333 Y 6.2527 Z -1.0000 I 0.0552 J -0.0824
G02 X 13.5865 Y 6.1817 Z -1.0000 I -0.0772 J 0.0000
G02 X 13.4216 Y 6.1620 Z -1.0000 I -0.1161 J 0.2707
G03 X 13.2845 Y 6.1093 Z -1.0000 I -0.0239 J -0.1424
G03 X 13.2099 Y 5.8951 Z -1.0000 I 0.2702 J -0.2142
G03 X 13.2845 Y 5.6808 Z -1.0000 I 0.3447 J -0.0000
G03 X 13.4216 Y 5.6281 Z -1.0000 I 0.1132 J 0.0898
G02 X 13.5718 Y 5.5910 Z -1.0000 I 0.0322 J -0.1921
G02 X 13.6333 Y 5.4668 Z -1.0000 I -0.0946 J -0.1242
G03 X 13.7859 Y 5.4116 Z -1.0000 I 0.0863 J 0.0000
G03 X 13.9730 Y 5.8742 Z -1.0000 I -0.6269 J 0.5226
G01 X 13.9730 Y 5.8742 Z -1.0000
G00 Z 5.0000

(End cutting path id: path139)


(Start cutting path id: path139)
(Change tool to Default tool)

G00 Z 5.0000
G00 X 13.3586 Y 5.1212

G01 Z -1.0000 F 100.0000(Penetrate)
G03 X 13.2777 Y 5.1567 Z -1.0000 I -0.0859 J -0.0859 F 400.0000
G03 X 13.1267 Y 5.1312 Z -1.0000 I -0.0154 J -0.3688
G01 X 13.1189 Y 5.0936 Z -1.0000
G03 X 13.1998 Y 5.0581 Z -1.0000 I 0.0858 J 0.0858
G03 X 13.3508 Y 5.0840 Z -1.0000 I 0.0145 J 0.3689
G01 X 13.3586 Y 5.1216 Z -1.0000
G01 X 13.3586 Y 5.1212 Z -1.0000
G00 Z 5.0000

(End cutting path id: path139)


(Start cutting path id: path139)
(Change tool to Default tool)

G00 Z 5.0000
G00 X 13.9963 Y 4.6981

G01 Z -1.0000 F 100.0000(Penetrate)
G03 X 13.9571 Y 4.7670 Z -1.0000 I -0.0802 J 0.0000 F 400.0000
G03 X 13.8148 Y 4.8061 Z -1.0000 I -0.1423 J -0.2390
G03 X 13.6859 Y 4.7536 Z -1.0000 I -0.0000 J -0.1842
G03 X 13.6333 Y 4.6284 Z -1.0000 I 0.1224 J -0.1251
G03 X 13.6886 Y 4.5312 Z -1.0000 I 0.1132 J 0.0000
G03 X 13.8148 Y 4.5204 Z -1.0000 I 0.0742 J 0.1247
G03 X 13.9610 Y 4.6143 Z -1.0000 I -0.1535 J 0.4000
G03 X 13.9963 Y 4.6981 Z -1.0000 I -0.0821 J 0.0838
G01 X 13.9963 Y 4.6981 Z -1.0000
G00 Z 5.0000

(End cutting path id: path139)


(Start cutting path id: path139)
(Change tool to Default tool)

G00 Z 5.0000
G00 X 14.5226 Y 3.9590

G01 Z -1.0000 F 100.0000(Penetrate)
G03 X 14.5900 Y 4.2625 Z -1.0000 I -5.9405 J 1.4791 F 400.0000
G03 X 14.5995 Y 4.3522 Z -1.0000 I -0.5066 J 0.0991
G02 X 14.6315 Y 4.4120 Z -1.0000 I 0.0744 J -0.0014
G02 X 14.7303 Y 4.4429 Z -1.0000 I 0.0988 J -0.1425
G02 X 14.8573 Y 4.2820 Z -1.0000 I 0.0000 J -0.1305
G02 X 14.5711 Y 3.7775 Z -1.0000 I -1.0166 J 0.2432
G01 X 14.5241 Y 3.7904 Z -1.0000
G02 X 14.5226 Y 3.9589 Z -1.0000 I 0.3256 J 0.0871
G01 X 14.5226 Y 3.9590 Z -1.0000
G00 Z 5.0000

(End cutting path id: path139)


(Start cutting path id: path139)
(Change tool to Default tool)

G00 Z 5.0000
G00 X 15.0851 Y 3.8308

G01 Z -1.0000 F 100.0000(Penetrate)
G02 X 15.1317 Y 4.0334 Z -1.0000 I 0.4636 J -0.0000 F 400.0000
G02 X 15.2061 Y 4.0799 Z -1.0000 I 0.0744 J -0.0361
G02 X 15.2856 Y 4.0384 Z -1.0000 I 0.0000 J -0.0967
G02 X 15.3271 Y 3.9056 Z -1.0000 I -0.1914 J -0.1328
G02 X 15.2916 Y 3.7511 Z -1.0000 I -0.3537 J 0.0000
G02 X 15.2061 Y 3.6565 Z -1.0000 I -0.2056 J 0.0999
G02 X 15.1351 Y 3.6713 Z -1.0000 I -0.0277 J 0.0449
G02 X 15.0851 Y 3.8308 Z -1.0000 I 0.2298 J 0.1595
G01 X 15.0851 Y 3.8308 Z -1.0000
G00 Z 5.0000

(End cutting path id: path139)


(Start cutting path id: path139)
(Change tool to Default tool)

G00 Z 5.0000
G00 X 15.5691 Y 3.8711

G01 Z -1.0000 F 100.0000(Penetrate)
G02 X 15.6144 Y 4.1613 Z -1.0000 I 0.9523 J -0.0000 F 400.0000
G02 X 15.6949 Y 4.2644 Z -1.0000 I 0.1797 J -0.0575
G01 X 15.7472 Y 4.2405 Z -1.0000
G02 X 15.7384 Y 3.9993 Z -1.0000 I -0.6021 J -0.0987
G02 X 15.6336 Y 3.8391 Z -1.0000 I -0.2764 J 0.0664
G01 X 15.5691 Y 3.8711 Z -1.0000
G01 X 15.5691 Y 3.8711 Z -1.0000
G00 Z 5.0000

(End cutting path id: path139)


(Start cutting path id: path139)
(Change tool to Default tool)

G00 Z 5.0000
G00 X 15.9320 Y 4.5711

G01 Z -1.0000 F 100.0000(Penetrate)
G02 X 15.9705 Y 4.6301 Z -1.0000 I 0.0645 J -0.0000 F 400.0000
G02 X 16.0530 Y 4.6244 Z -1.0000 I 0.0358 J -0.0812
G02 X 16.1567 Y 4.5399 Z -1.0000 I -0.2700 J -0.4371
G02 X 16.1740 Y 4.4962 Z -1.0000 I -0.0463 J -0.0437
G01 X 16.1530 Y 4.4640 Z -1.0000
G02 X 16.0530 Y 4.4429 Z -1.0000 I -0.1000 J 0.2268
G02 X 15.9685 Y 4.4794 Z -1.0000 I 0.0000 J 0.1163
G02 X 15.9320 Y 4.5711 Z -1.0000 I 0.0971 J 0.0917
G01 X 15.9320 Y 4.5711 Z -1.0000
G00 Z 5.0000

(End cutting path id: path139)


(Start cutting path id: path139)
(Change tool to Default tool)

G00 Z 5.0000
G00 X 15.4481 Y 5.2293

G01 Z -1.0000 F 100.0000(Penetrate)
G02 X 15.3754 Y 5.3742 Z -1.0000 I 0.2763 J 0.2293 F 400.0000
G01 X 15.4042 Y 5.4108 Z -1.0000
G03 X 15.7729 Y 5.6471 Z -1.0000 I 0.0000 J 0.4058
G03 X 15.7000 Y 6.0542 Z -1.0000 I -0.3288 J 0.1512
G02 X 15.6063 Y 6.3539 Z -1.0000 I 0.2393 J 0.2393
G02 X 15.7808 Y 6.4994 Z -1.0000 I 0.1743 J -0.0316
G02 X 16.0553 Y 6.2629 Z -1.0000 I -0.0003 J -0.2779
G02 X 15.9275 Y 5.5234 Z -1.0000 I -1.1785 J -0.1772
G03 X 15.9058 Y 5.3300 Z -1.0000 I 0.2315 J -0.1239
G03 X 16.0220 Y 5.1790 Z -1.0000 I 0.2429 J 0.0666
G01 X 16.0346 Y 5.1079 Z -1.0000
G02 X 15.9166 Y 5.0515 Z -1.0000 I -0.1198 J 0.0991
G02 X 15.6244 Y 5.1034 Z -1.0000 I -0.0091 J 0.7979
G02 X 15.4481 Y 5.2293 Z -1.0000 I 0.1508 J 0.3975
G01 X 15.4481 Y 5.2293 Z -1.0000
G00 Z 5.0000

(End cutting path id: path139)


(Start cutting path id: path139)
(Change tool to Default tool)

G00 Z 5.0000
G00 X 15.3876 Y 5.8948

G01 Z -1.0000 F 100.0000(Penetrate)
G02 X 15.4720 Y 5.9984 Z -1.0000 I 0.4386 J -0.2712 F 400.0000
G02 X 15.5157 Y 6.0158 Z -1.0000 I 0.0437 J -0.0462
G01 X 15.5480 Y 5.9947 Z -1.0000
G02 X 15.5691 Y 5.8948 Z -1.0000 I -0.2265 J -0.0999
G02 X 15.5326 Y 5.8103 Z -1.0000 I -0.1163 J -0.0000
G02 X 15.4409 Y 5.7738 Z -1.0000 I -0.0917 J 0.0971
G02 X 15.3819 Y 5.8123 Z -1.0000 I 0.0000 J 0.0645
G02 X 15.3876 Y 5.8948 Z -1.0000 I 0.0812 J 0.0358
G01 X 15.3876 Y 5.8948 Z -1.0000
G00 Z 5.0000

(End cutting path id: path139)


(Start cutting path id: path139)
(Change tool to Default tool)

G00 Z 5.0000
G00 X 14.9271 Y 4.7622

G01 Z -1.0000 F 100.0000(Penetrate)
G02 X 14.9171 Y 4.9337 Z -1.0000 I 0.0914 J 0.0914 F 400.0000
G02 X 15.1528 Y 5.0478 Z -1.0000 I 0.2357 J -0.1862
G02 X 15.2750 Y 4.9957 Z -1.0000 I 0.0000 J -0.1695
G02 X 15.3271 Y 4.8664 Z -1.0000 I -0.1347 J -0.1294
G02 X 15.1911 Y 4.6905 Z -1.0000 I -0.1817 J 0.0000
G02 X 14.9271 Y 4.7622 Z -1.0000 I -0.0693 J 0.2665
G01 X 14.9271 Y 4.7622 Z -1.0000
G00 Z 5.0000

(End cutting path id: path139)


(Start cutting path id: path139)
(Change tool to Default tool)

G00 Z 5.0000
G00 X 12.9956 Y 4.3953

G01 Z -1.0000 F 100.0000(Penetrate)
G03 X 12.9147 Y 4.4308 Z -1.0000 I -0.0859 J -0.0859 F 400.0000
G03 X 12.7637 Y 4.4053 Z -1.0000 I -0.0154 J -0.3688
G01 X 12.7560 Y 4.3676 Z -1.0000
G03 X 12.8368 Y 4.3322 Z -1.0000 I 0.0858 J 0.0858
G03 X 12.9879 Y 4.3581 Z -1.0000 I 0.0145 J 0.3689
G01 X 12.9956 Y 4.3957 Z -1.0000
G01 X 12.9956 Y 4.3953 Z -1.0000
G00 Z 5.0000

(End cutting path id: path139)


(Start cutting path id: path139)
(Change tool to Default tool)

G00 Z 5.0000
G00 X 10.7297 Y 4.5037

G01 Z -1.0000 F 100.0000(Penetrate)
G03 X 10.6905 Y 4.6460 Z -1.0000 I -0.2782 J -0.0000 F 400.0000
G03 X 10.6216 Y 4.6851 Z -1.0000 I -0.0689 J -0.0410
G03 X 10.5378 Y 4.6499 Z -1.0000 I -0.0000 J -0.1173
G03 X 10.4439 Y 4.5037 Z -1.0000 I 0.3063 J -0.2999
G03 X 10.4547 Y 4.3775 Z -1.0000 I 0.1355 J -0.0520
G03 X 10.5520 Y 4.3222 Z -1.0000 I 0.0973 J 0.0579
G03 X 10.6771 Y 4.3748 Z -1.0000 I 0.0000 J 0.1751
G03 X 10.7297 Y 4.5037 Z -1.0000 I -0.1317 J 0.1289
G01 X 10.7297 Y 4.5037 Z -1.0000
G00 Z 5.0000

(End cutting path id: path139)


(Start cutting path id: path139)
(Change tool to Default tool)

G00 Z 5.0000
G00 X 10.3440 Y 5.0405

G01 Z -1.0000 F 100.0000(Penetrate)
G03 X 10.3238 Y 5.1262 Z -1.0000 I -0.0794 J 0.0265 F 400.0000
G03 X 10.2381 Y 5.1464 Z -1.0000 I -0.0592 J -0.0592
G03 X 10.1073 Y 5.0655 Z -1.0000 I 0.1058 J -0.3175
G03 X 10.0264 Y 4.9347 Z -1.0000 I 0.2367 J -0.2367
G03 X 10.0466 Y 4.8490 Z -1.0000 I 0.0794 J -0.0265
G03 X 10.1323 Y 4.8288 Z -1.0000 I 0.0592 J 0.0592
G03 X 10.2631 Y 4.9097 Z -1.0000 I -0.1058 J 0.3175
G03 X 10.3440 Y 5.0405 Z -1.0000 I -0.2368 J 0.2367
G01 X 10.3440 Y 5.0405 Z -1.0000
G00 Z 5.0000

(End cutting path id: path139)


(Start cutting path id: path139)
(Change tool to Default tool)

G00 Z 5.0000
G00 X 10.7297 Y 5.4787

G01 Z -1.0000 F 100.0000(Penetrate)
G03 X 10.6837 Y 5.5850 Z -1.0000 I -0.1459 J -0.0000 F 400.0000
G03 X 10.6087 Y 5.5926 Z -1.0000 I -0.0425 J -0.0451
G03 X 10.5164 Y 5.5018 Z -1.0000 I 0.1534 J -0.2483
G03 X 10.4877 Y 5.4040 Z -1.0000 I 0.1526 J -0.0979
G03 X 10.5220 Y 5.3245 Z -1.0000 I 0.1092 J 0.0000
G03 X 10.6087 Y 5.2901 Z -1.0000 I 0.0866 J 0.0921
G03 X 10.6869 Y 5.3329 Z -1.0000 I -0.0000 J 0.0929
G03 X 10.7297 Y 5.4787 Z -1.0000 I -0.2274 J 0.1459
G01 X 10.7297 Y 5.4787 Z -1.0000
G00 Z 5.0000

(End cutting path id: path139)


(Start cutting path id: path139)
(Change tool to Default tool)

G00 Z 5.0000
G00 X 10.4272 Y 6.2580

G01 Z -1.0000 F 100.0000(Penetrate)
G03 X 10.4185 Y 6.3324 Z -1.0000 I -0.0514 J 0.0318 F 400.0000
G03 X 10.3062 Y 6.3789 Z -1.0000 I -0.1123 J -0.1123
G03 X 10.1939 Y 6.3324 Z -1.0000 I 0.0000 J -0.1588
G03 X 10.1852 Y 6.2580 Z -1.0000 I 0.0427 J -0.0427
G03 X 10.2687 Y 6.1525 Z -1.0000 I 0.4955 J 0.3064
G03 X 10.3062 Y 6.1370 Z -1.0000 I 0.0376 J 0.0375
G03 X 10.3438 Y 6.1525 Z -1.0000 I 0.0000 J 0.0531
G03 X 10.4272 Y 6.2580 Z -1.0000 I -0.4125 J 0.4122
G01 X 10.4272 Y 6.2580 Z -1.0000
G00 Z 5.0000

(End cutting path id: path139)


(Start cutting path id: path139)
(Change tool to Default tool)

G00 Z 5.0000
G00 X 10.4272 Y 6.7416

G01 Z -1.0000 F 100.0000(Penetrate)
G03 X 10.3364 Y 6.8339 Z -1.0000 I -0.2487 J -0.1538 F 400.0000
G03 X 10.2386 Y 6.8626 Z -1.0000 I -0.0979 J -0.1525
G03 X 10.1591 Y 6.8282 Z -1.0000 I -0.0000 J -0.1092
G03 X 10.1247 Y 6.7416 Z -1.0000 I 0.0921 J -0.0866
G03 X 10.1675 Y 6.6634 Z -1.0000 I 0.0929 J -0.0000
G03 X 10.3133 Y 6.6206 Z -1.0000 I 0.1459 J 0.2273
G03 X 10.4196 Y 6.6666 Z -1.0000 I -0.0000 J 0.1459
G03 X 10.4272 Y 6.7416 Z -1.0000 I -0.0451 J 0.0425
G01 X 10.4272 Y 6.7416 Z -1.0000
G00 Z 5.0000

(End cutting path id: path139)


(Start cutting path id: path139)
(Change tool to Default tool)

G00 Z 5.0000
G00 X 10.7278 Y 7.3768

G01 Z -1.0000 F 100.0000(Penetrate)
G03 X 10.6784 Y 7.4829 Z -1.0000 I -0.1408 J -0.0009 F 400.0000
G01 X 10.6148 Y 7.4733 Z -1.0000
G03 X 10.5454 Y 7.2974 Z -1.0000 I 0.4261 J -0.2696
G03 X 10.5633 Y 7.2011 Z -1.0000 I 0.1330 J -0.0252
G03 X 10.6555 Y 7.1919 Z -1.0000 I 0.0496 J 0.0307
G03 X 10.7278 Y 7.3768 Z -1.0000 I -0.1955 J 0.1831
G01 X 10.7278 Y 7.3768 Z -1.0000
G00 Z 5.0000

(End cutting path id: path139)


(Start cutting path id: path139)
(Change tool to Default tool)

G00 Z 5.0000
G00 X 8.5519 Y 6.4925

G01 Z -1.0000 F 100.0000(Penetrate)
G03 X 8.5232 Y 6.5903 Z -1.0000 I -0.1812 J -0.0000 F 400.0000
G03 X 8.4309 Y 6.6811 Z -1.0000 I -0.2459 J -0.1577
G03 X 8.3559 Y 6.6735 Z -1.0000 I -0.0326 J -0.0527
G03 X 8.3099 Y 6.5673 Z -1.0000 I 0.1000 J -0.1063
G03 X 8.3527 Y 6.4214 Z -1.0000 I 0.2702 J 0.0000
G03 X 8.4309 Y 6.3787 Z -1.0000 I 0.0782 J 0.0502
G03 X 8.5175 Y 6.4130 Z -1.0000 I -0.0000 J 0.1264
G03 X 8.5519 Y 6.4925 Z -1.0000 I -0.0748 J 0.0795
G01 X 8.5519 Y 6.4925 Z -1.0000
G00 Z 5.0000

(End cutting path id: path139)


(Start cutting path id: path139)
(Change tool to Default tool)

G00 Z 5.0000
G00 X 7.7932 Y 5.4842

G01 Z -1.0000 F 100.0000(Penetrate)
G03 X 7.7124 Y 5.5197 Z -1.0000 I -0.0859 J -0.0860 F 400.0000
G03 X 7.5613 Y 5.4942 Z -1.0000 I -0.0154 J -0.3688
G01 X 7.5536 Y 5.4565 Z -1.0000
G03 X 7.6344 Y 5.4211 Z -1.0000 I 0.0858 J 0.0858
G03 X 7.7855 Y 5.4470 Z -1.0000 I 0.0145 J 0.3689
G01 X 7.7932 Y 5.4846 Z -1.0000
G01 X 7.7932 Y 5.4842 Z -1.0000
G00 Z 5.0000

(End cutting path id: path139)


(Start cutting path id: path139)
(Change tool to Default tool)

G00 Z 5.0000
G00 X 8.7939 Y 4.3222

G01 Z -1.0000 F 100.0000(Penetrate)
G03 X 8.7575 Y 4.4067 Z -1.0000 I -0.1163 J 0.0000 F 400.0000
G03 X 8.6658 Y 4.4432 Z -1.0000 I -0.0917 J -0.0971
G03 X 8.6067 Y 4.4046 Z -1.0000 I 0.0000 J -0.0646
G03 X 8.6124 Y 4.3222 Z -1.0000 I 0.0812 J -0.0358
G03 X 8.6968 Y 4.2186 Z -1.0000 I 0.4387 J 0.2713
G03 X 8.7405 Y 4.2012 Z -1.0000 I 0.0437 J 0.0462
G01 X 8.7728 Y 4.2223 Z -1.0000
G03 X 8.7939 Y 4.3222 Z -1.0000 I -0.2267 J 0.0999
G01 X 8.7939 Y 4.3222 Z -1.0000
G00 Z 5.0000

(End cutting path id: path139)


(Start cutting path id: path139)
(Change tool to Default tool)

G00 Z 5.0000
G00 X 6.4905 Y 4.3132

G01 Z -1.0000 F 100.0000(Penetrate)
G03 X 6.5635 Y 4.7739 Z -1.0000 I -0.6268 J 0.3355 F 400.0000
G03 X 6.3807 Y 4.9269 Z -1.0000 I -0.1828 J -0.0327
G03 X 6.3134 Y 4.8939 Z -1.0000 I 0.0000 J -0.0850
G03 X 6.1700 Y 4.6547 Z -1.0000 I 0.9324 J -0.7216
G03 X 6.2329 Y 4.2792 Z -1.0000 I 0.3133 J -0.1405
G03 X 6.4905 Y 4.3132 Z -1.0000 I 0.1166 J 0.1094
G01 X 6.4905 Y 4.3132 Z -1.0000
G00 Z 5.0000

(End cutting path id: path139)


(Start cutting path id: path139)
(Change tool to Default tool)

G00 Z 5.0000
G00 X 5.8739 Y 4.2676

G01 Z -1.0000 F 100.0000(Penetrate)
G03 X 5.8312 Y 4.3489 Z -1.0000 I -0.0721 J 0.0140 F 400.0000
G03 X 5.7227 Y 4.3335 Z -1.0000 I -0.0417 J -0.0958
G03 X 5.5785 Y 4.0714 Z -1.0000 I 0.2606 J -0.3141
G03 X 5.6785 Y 3.9891 Z -1.0000 I 0.0758 J -0.0097
G03 X 5.7914 Y 4.0732 Z -1.0000 I -0.0710 J 0.2131
G03 X 5.8739 Y 4.2676 Z -1.0000 I -0.4141 J 0.2907
G01 X 5.8739 Y 4.2676 Z -1.0000
G00 Z 5.0000

(End cutting path id: path139)


(Start cutting path id: path139)
(Change tool to Default tool)

G00 Z 5.0000
G00 X 5.3664 Y 4.9774

G01 Z -1.0000 F 100.0000(Penetrate)
G03 X 5.2607 Y 5.0893 Z -1.0000 I -0.1887 J -0.0724 F 400.0000
G03 X 5.1084 Y 5.0936 Z -1.0000 I -0.0813 J -0.1807
G03 X 4.9365 Y 4.8634 Z -1.0000 I 0.0964 J -0.2512
G03 X 5.0736 Y 4.6498 Z -1.0000 I 0.2093 J -0.0164
G03 X 5.3175 Y 4.7108 Z -1.0000 I 0.0771 J 0.2101
G03 X 5.3664 Y 4.9774 Z -1.0000 I -0.1940 J 0.1734
G01 X 5.3664 Y 4.9774 Z -1.0000
G00 Z 5.0000

(End cutting path id: path139)


(Start cutting path id: path139)
(Change tool to Default tool)

G00 Z 5.0000
G00 X 5.8902 Y 5.3506

G01 Z -1.0000 F 100.0000(Penetrate)
G03 X 5.8489 Y 5.4908 Z -1.0000 I -0.2584 J 0.0000 F 400.0000
G03 X 5.7730 Y 5.5321 Z -1.0000 I -0.0759 J -0.0490
G03 X 5.7178 Y 5.4895 Z -1.0000 I 0.0000 J -0.0571
G03 X 5.7255 Y 5.3506 Z -1.0000 I 0.2196 J -0.0575
G03 X 5.8081 Y 5.1880 Z -1.0000 I 0.8247 J 0.3165
G01 X 5.8427 Y 5.1691 Z -1.0000
G01 X 5.8695 Y 5.1898 Z -1.0000
G03 X 5.8902 Y 5.3506 Z -1.0000 I -0.6138 J 0.1608
G01 X 5.8902 Y 5.3506 Z -1.0000
G00 Z 5.0000

(End cutting path id: path139)


(Start cutting path id: path139)
(Change tool to Default tool)

G00 Z 5.0000
G00 X 5.5110 Y 6.2037

G01 Z -1.0000 F 100.0000(Penetrate)
G03 X 5.4682 Y 6.2850 Z -1.0000 I -0.0721 J 0.0140 F 400.0000
G03 X 5.3598 Y 6.2696 Z -1.0000 I -0.0417 J -0.0958
G03 X 5.2156 Y 6.0075 Z -1.0000 I 0.2606 J -0.3141
G03 X 5.3156 Y 5.9252 Z -1.0000 I 0.0758 J -0.0097
G03 X 5.4284 Y 6.0093 Z -1.0000 I -0.0710 J 0.2131
G03 X 5.5110 Y 6.2037 Z -1.0000 I -0.4141 J 0.2907
G01 X 5.5110 Y 6.2037 Z -1.0000
G00 Z 5.0000

(End cutting path id: path139)


(Start cutting path id: path139)
(Change tool to Default tool)

G00 Z 5.0000
G00 X 4.8631 Y 3.8399

G01 Z -1.0000 F 100.0000(Penetrate)
G02 X 4.9513 Y 3.9110 Z -1.0000 I 0.1450 J -0.0897 F 400.0000
G02 X 5.0380 Y 3.9017 Z -1.0000 I 0.0336 J -0.0952
G03 X 5.2886 Y 3.9681 Z -1.0000 I 0.0938 J 0.1518
G03 X 5.2692 Y 4.3259 Z -1.0000 I -0.2994 J 0.1632
G03 X 5.1580 Y 4.3944 Z -1.0000 I -0.1341 J -0.0932
G03 X 5.0845 Y 4.3521 Z -1.0000 I -0.0097 J -0.0682
G02 X 4.9906 Y 4.2492 Z -1.0000 I -0.1859 J 0.0754
G02 X 4.7913 Y 4.2009 Z -1.0000 I -0.1993 J 0.3865
G03 X 4.6287 Y 4.1315 Z -1.0000 I 0.0000 J -0.2251
G03 X 4.5594 Y 3.9589 Z -1.0000 I 0.1801 J -0.1726
G03 X 4.6818 Y 3.7795 Z -1.0000 I 0.1927 J -0.0000
G03 X 4.8631 Y 3.8399 Z -1.0000 I 0.0544 J 0.1388
G01 X 4.8631 Y 3.8399 Z -1.0000
G00 Z 5.0000

(End cutting path id: path139)


(Start cutting path id: path139)
(Change tool to Default tool)

G00 Z 5.0000
G00 X 2.0282 Y 16.8540

G01 Z -1.0000 F 100.0000(Penetrate)
G02 X 2.0637 Y 16.9348 Z -1.0000 I 0.1213 J -0.0050 F 400.0000
G01 X 2.1013 Y 16.9271 Z -1.0000
G02 X 2.1272 Y 16.7760 Z -1.0000 I -0.3397 J -0.1360
G02 X 2.0918 Y 16.6952 Z -1.0000 I -0.1213 J 0.0050
G01 X 2.0542 Y 16.7029 Z -1.0000
G02 X 2.0282 Y 16.8540 Z -1.0000 I 0.3398 J 0.1360
G01 X 2.0282 Y 16.8540 Z -1.0000
G00 Z 5.0000

(End cutting path id: path139)


(Start cutting path id: path139)
(Change tool to Default tool)

G00 Z 5.0000
G00 X 12.3025 Y 20.5940

G01 Z -1.0000 F 100.0000(Penetrate)
G03 X 12.2536 Y 20.8476 Z -1.0000 I -0.6829 J -0.0000 F 400.0000
G03 X 12.1815 Y 20.8965 Z -1.0000 I -0.0721 J -0.0289
G03 X 12.1093 Y 20.8476 Z -1.0000 I -0.0000 J -0.0777
G03 X 12.0605 Y 20.5940 Z -1.0000 I 0.6340 J -0.2536
G03 X 12.1093 Y 20.3404 Z -1.0000 I 0.6829 J 0.0000
G03 X 12.1815 Y 20.2915 Z -1.0000 I 0.0721 J 0.0289
G03 X 12.2536 Y 20.3404 Z -1.0000 I 0.0000 J 0.0777
G03 X 12.3025 Y 20.5940 Z -1.0000 I -0.6340 J 0.2536
G01 X 12.3025 Y 20.5940 Z -1.0000
G00 Z 5.0000

(End cutting path id: path139)


(Start cutting path id: path139)
(Change tool to Default tool)

G00 Z 5.0000
G00 X 15.7181 Y 25.8573

G01 Z -1.0000 F 100.0000(Penetrate)
G02 X 15.7453 Y 26.0690 Z -1.0000 I 0.8374 J 0.0000 F 400.0000
G01 X 15.7735 Y 26.0690 Z -1.0000
G02 X 15.8007 Y 25.8573 Z -1.0000 I -0.8102 J -0.2117
G02 X 15.7735 Y 25.6456 Z -1.0000 I -0.8374 J -0.0000
G01 X 15.7453 Y 25.6456 Z -1.0000
G02 X 15.7181 Y 25.8573 Z -1.0000 I 0.8102 J 0.2117
G01 X 15.7181 Y 25.8573 Z -1.0000
G00 Z 5.0000

(End cutting path id: path139)


(Start cutting path id: path139)
(Change tool to Default tool)

G00 Z 5.0000
G00 X 15.0718 Y 27.1882

G01 Z -1.0000 F 100.0000(Penetrate)
G02 X 15.0732 Y 28.7826 Z -1.0000 I 13.2215 J 0.7864 F 400.0000
G02 X 15.1844 Y 29.0296 Z -1.0000 I 0.3815 J -0.0233
G01 X 15.2384 Y 29.0090 Z -1.0000
G02 X 15.2422 Y 28.0144 Z -1.0000 I -9.3622 J -0.5334
