%
(Header)
(Generated by gcodetools from Inkscape.)
(Using default header. To add your own header create file "header" in the output dir.)
M3
(Header end.)
G21 (All units in mm)

(Start cutting path id: path42133)
(Change tool to Default tool)

G00 Z 5.0000
G00 X 20.0905 Y 0.6334

G01 Z -1.0000 F 100.0000(Penetrate)
G01 X 20.0926 Y 0.6367 Z -1.0000 F 3500.0000
G02 X 20.1095 Y 0.6421 Z -1.0000 I 0.0310 J -0.0682
G01 X 20.1246 Y 0.6410 Z -1.0000
G01 X 20.1285 Y 0.6355 Z -1.0000
G01 X 20.1246 Y 0.6295 Z -1.0000
G01 X 20.1095 Y 0.6268 Z -1.0000
G02 X 20.0926 Y 0.6304 Z -1.0000 I 0.0056 J 0.0676
G01 X 20.0905 Y 0.6334 Z -1.0000
G01 X 20.0905 Y 0.6334 Z -1.0000
G00 Z 5.0000

(End cutting path id: path42133)


(Start cutting path id: path42133)
(Change tool to Default tool)

G00 Z 5.0000
G00 X 20.1145 Y 0.6859

G01 Z -1.0000 F 100.0000(Penetrate)
G01 X 20.1183 Y 0.6954 Z -1.0000 F 3500.0000
G01 X 20.1201 Y 0.6859 Z -1.0000
G01 X 20.1183 Y 0.6764 Z -1.0000
G01 X 20.1145 Y 0.6859 Z -1.0000
G01 X 20.1145 Y 0.6859 Z -1.0000
G00 Z 5.0000

(End cutting path id: path42133)


(Start cutting path id: path42133)
(Change tool to Default tool)

G00 Z 5.0000
G00 X 20.1300 Y 0.6821

G01 Z -1.0000 F 100.0000(Penetrate)
G01 X 20.1338 Y 0.6915 Z -1.0000 F 3500.0000
G02 X 20.1354 Y 0.6782 Z -1.0000 I -0.0499 J -0.0128
G01 X 20.1335 Y 0.6687 Z -1.0000
G01 X 20.1300 Y 0.6821 Z -1.0000
G01 X 20.1300 Y 0.6821 Z -1.0000
G00 Z 5.0000

(End cutting path id: path42133)


(Start cutting path id: path42133)
(Change tool to Default tool)

G00 Z 5.0000
G00 X 20.0943 Y 0.7239

G01 Z -1.0000 F 100.0000(Penetrate)
G01 X 20.0938 Y 0.7292 Z -1.0000 F 3500.0000
G01 X 20.0972 Y 0.7315 Z -1.0000
G01 X 20.1037 Y 0.7297 Z -1.0000
G01 X 20.1095 Y 0.7239 Z -1.0000
G01 X 20.1100 Y 0.7187 Z -1.0000
G01 X 20.1066 Y 0.7163 Z -1.0000
G01 X 20.1000 Y 0.7182 Z -1.0000
G01 X 20.0943 Y 0.7239 Z -1.0000
G01 X 20.0943 Y 0.7239 Z -1.0000
G00 Z 5.0000

(End cutting path id: path42133)


(Start cutting path id: path42133)
(Change tool to Default tool)

G00 Z 5.0000
G00 X 20.1072 Y 0.7486

G01 Z -1.0000 F 100.0000(Penetrate)
G01 X 20.1025 Y 0.7598 Z -1.0000 F 3500.0000
G01 X 20.1054 Y 0.7656 Z -1.0000
G01 X 20.1099 Y 0.7715 Z -1.0000
G01 X 20.1091 Y 0.7777 Z -1.0000
G01 X 20.1086 Y 0.7827 Z -1.0000
G01 X 20.1116 Y 0.7848 Z -1.0000
G01 X 20.1170 Y 0.7873 Z -1.0000
G03 X 20.1269 Y 0.8020 Z -1.0000 I -0.0485 J 0.0434
G01 X 20.1311 Y 0.8026 Z -1.0000
G01 X 20.1341 Y 0.7944 Z -1.0000
G02 X 20.1306 Y 0.7720 Z -1.0000 I -0.1056 J 0.0053
G01 X 20.1274 Y 0.7696 Z -1.0000
G01 X 20.1239 Y 0.7674 Z -1.0000
G01 X 20.1195 Y 0.7531 Z -1.0000
G01 X 20.1143 Y 0.7467 Z -1.0000
G01 X 20.1072 Y 0.7486 Z -1.0000
G01 X 20.1072 Y 0.7486 Z -1.0000
G00 Z 5.0000

(End cutting path id: path42133)


(Start cutting path id: path42133)
(Change tool to Default tool)

G00 Z 5.0000
G00 X 20.1095 Y 0.8077

G01 Z -1.0000 F 100.0000(Penetrate)
G01 X 20.1148 Y 0.8141 Z -1.0000 F 3500.0000
G01 X 20.1176 Y 0.8153 Z -1.0000
G01 X 20.1210 Y 0.8077 Z -1.0000
G01 X 20.1187 Y 0.8024 Z -1.0000
G01 X 20.1129 Y 0.8001 Z -1.0000
G01 X 20.1092 Y 0.8025 Z -1.0000
G01 X 20.1095 Y 0.8077 Z -1.0000
G01 X 20.1095 Y 0.8077 Z -1.0000
G00 Z 5.0000

(End cutting path id: path42133)


(Start cutting path id: path42133)
(Change tool to Default tool)

G00 Z 5.0000
G00 X 20.0905 Y 0.8440

G01 Z -1.0000 F 100.0000(Penetrate)
G01 X 20.0918 Y 0.8496 Z -1.0000 F 3500.0000
G02 X 20.1023 Y 0.8668 Z -1.0000 I 0.1326 J -0.0688
G01 X 20.1074 Y 0.8838 Z -1.0000
G01 X 20.1036 Y 0.8867 Z -1.0000
G02 X 20.1008 Y 0.9085 Z -1.0000 I 0.0830 J 0.0218
G03 X 20.0991 Y 0.9328 Z -1.0000 I -0.1576 J 0.0010
G01 X 20.0952 Y 0.9455 Z -1.0000
G01 X 20.0957 Y 0.9549 Z -1.0000
G01 X 20.1051 Y 0.9619 Z -1.0000
G01 X 20.1177 Y 0.9684 Z -1.0000
G01 X 20.1208 Y 0.9749 Z -1.0000
G01 X 20.1175 Y 0.9792 Z -1.0000
G01 X 20.1062 Y 0.9791 Z -1.0000
G01 X 20.0917 Y 0.9832 Z -1.0000
G01 X 20.0942 Y 0.9931 Z -1.0000
G01 X 20.1019 Y 1.0048 Z -1.0000
G01 X 20.0932 Y 1.0131 Z -1.0000
G01 X 20.0882 Y 1.0165 Z -1.0000
G01 X 20.0892 Y 1.0232 Z -1.0000
G01 X 20.0942 Y 1.0342 Z -1.0000
G03 X 20.0953 Y 1.0612 Z -1.0000 I -0.1140 J 0.0180
G02 X 20.0957 Y 1.0868 Z -1.0000 I 0.1360 J 0.0106
G01 X 20.0984 Y 1.0892 Z -1.0000
G01 X 20.1143 Y 1.1025 Z -1.0000
G01 X 20.1047 Y 1.1240 Z -1.0000
G01 X 20.1010 Y 1.1291 Z -1.0000
G01 X 20.1020 Y 1.1353 Z -1.0000
G01 X 20.0964 Y 1.1385 Z -1.0000
G01 X 20.0905 Y 1.1404 Z -1.0000
G01 X 20.0865 Y 1.1538 Z -1.0000
G01 X 20.0904 Y 1.1691 Z -1.0000
G01 X 20.0970 Y 1.1729 Z -1.0000
G01 X 20.1003 Y 1.1763 Z -1.0000
G01 X 20.0970 Y 1.1856 Z -1.0000
G01 X 20.0923 Y 1.1966 Z -1.0000
G01 X 20.0953 Y 1.2012 Z -1.0000
G01 X 20.1063 Y 1.2197 Z -1.0000
G01 X 20.0895 Y 1.2338 Z -1.0000
G01 X 20.0849 Y 1.2360 Z -1.0000
G01 X 20.0828 Y 1.2419 Z -1.0000
G01 X 20.0859 Y 1.2457 Z -1.0000
G01 X 20.0991 Y 1.2448 Z -1.0000
G01 X 20.1087 Y 1.2460 Z -1.0000
G01 X 20.1108 Y 1.2519 Z -1.0000
G01 X 20.1104 Y 1.2612 Z -1.0000
G01 X 20.1144 Y 1.2642 Z -1.0000
G01 X 20.1123 Y 1.2770 Z -1.0000
G01 X 20.1115 Y 1.2829 Z -1.0000
G01 X 20.1158 Y 1.2846 Z -1.0000
G03 X 20.1299 Y 1.2802 Z -1.0000 I 0.0484 J 0.1285
G01 X 20.1357 Y 1.2794 Z -1.0000
G01 X 20.1388 Y 1.2767 Z -1.0000
G02 X 20.1399 Y 1.2414 Z -1.0000 I -0.2221 J -0.0246
G03 X 20.1412 Y 1.2064 Z -1.0000 I 0.2049 J -0.0098
G01 X 20.1447 Y 1.2033 Z -1.0000
G01 X 20.1492 Y 1.2013 Z -1.0000
G01 X 20.1513 Y 1.1952 Z -1.0000
G01 X 20.1489 Y 1.1915 Z -1.0000
G01 X 20.1437 Y 1.1918 Z -1.0000
G01 X 20.1396 Y 1.1904 Z -1.0000
G03 X 20.1361 Y 1.1695 Z -1.0000 I 0.0615 J -0.0209
G03 X 20.1394 Y 1.1457 Z -1.0000 I 0.0883 J 0.0000
G01 X 20.1437 Y 1.1424 Z -1.0000
G01 X 20.1491 Y 1.1402 Z -1.0000
G01 X 20.1513 Y 1.1350 Z -1.0000
G01 X 20.1486 Y 1.1315 Z -1.0000
G01 X 20.1399 Y 1.1320 Z -1.0000
G01 X 20.1326 Y 1.1304 Z -1.0000
G01 X 20.1285 Y 1.1203 Z -1.0000
G01 X 20.1324 Y 1.1082 Z -1.0000
G01 X 20.1399 Y 1.1043 Z -1.0000
G01 X 20.1475 Y 1.1004 Z -1.0000
G01 X 20.1513 Y 1.0882 Z -1.0000
G01 X 20.1474 Y 1.0802 Z -1.0000
G01 X 20.1412 Y 1.0804 Z -1.0000
G01 X 20.1365 Y 1.0793 Z -1.0000
G01 X 20.1345 Y 1.0661 Z -1.0000
G03 X 20.1403 Y 1.0461 Z -1.0000 I 0.0764 J 0.0110
G01 X 20.1443 Y 1.0434 Z -1.0000
G01 X 20.1490 Y 1.0350 Z -1.0000
G02 X 20.1262 Y 1.0144 Z -1.0000 I -0.0476 J 0.0298
G01 X 20.1211 Y 1.0071 Z -1.0000
G01 X 20.1249 Y 1.0015 Z -1.0000
G01 X 20.1348 Y 0.9928 Z -1.0000
G02 X 20.1402 Y 0.9669 Z -1.0000 I -0.0583 J -0.0259
G02 X 20.1362 Y 0.9409 Z -1.0000 I -0.0842 J -0.0000
G01 X 20.1305 Y 0.9369 Z -1.0000
G01 X 20.1246 Y 0.9306 Z -1.0000
G01 X 20.1323 Y 0.9086 Z -1.0000
G01 X 20.1391 Y 0.8932 Z -1.0000
G01 X 20.1368 Y 0.8878 Z -1.0000
G01 X 20.1311 Y 0.8875 Z -1.0000
G01 X 20.1259 Y 0.8930 Z -1.0000
G01 X 20.1214 Y 0.8945 Z -1.0000
G01 X 20.1231 Y 0.8873 Z -1.0000
G03 X 20.1355 Y 0.8708 Z -1.0000 I 0.0822 J 0.0484
G01 X 20.1440 Y 0.8551 Z -1.0000
G01 X 20.1416 Y 0.8465 Z -1.0000
G01 X 20.1278 Y 0.8420 Z -1.0000
G01 X 20.1236 Y 0.8494 Z -1.0000
G01 X 20.1241 Y 0.8581 Z -1.0000
G01 X 20.1206 Y 0.8608 Z -1.0000
G01 X 20.1158 Y 0.8582 Z -1.0000
G01 X 20.1132 Y 0.8494 Z -1.0000
G01 X 20.1099 Y 0.8413 Z -1.0000
G01 X 20.1018 Y 0.8380 Z -1.0000
G01 X 20.0926 Y 0.8402 Z -1.0000
G01 X 20.0904 Y 0.8439 Z -1.0000
G01 X 20.0905 Y 0.8440 Z -1.0000
G00 Z 5.0000

(End cutting path id: path42133)


(Start cutting path id: path42133)
(Change tool to Default tool)

G00 Z 5.0000
G00 X 20.0835 Y 1.1089

G01 Z -1.0000 F 100.0000(Penetrate)
G01 X 20.0881 Y 1.1135 Z -1.0000 F 3500.0000
G01 X 20.0897 Y 1.1040 Z -1.0000
G01 X 20.0875 Y 1.0989 Z -1.0000
G01 X 20.0835 Y 1.1089 Z -1.0000
G01 X 20.0835 Y 1.1089 Z -1.0000
G00 Z 5.0000

(End cutting path id: path42133)


(Start cutting path id: path42133)
(Change tool to Default tool)

G00 Z 5.0000
G00 X 20.1284 Y 1.2436

G01 Z -1.0000 F 100.0000(Penetrate)
G01 X 20.1179 Y 1.2398 Z -1.0000 F 3500.0000
G01 X 20.1108 Y 1.2295 Z -1.0000
G01 X 20.1112 Y 1.2235 Z -1.0000
G01 X 20.1204 Y 1.2227 Z -1.0000
G01 X 20.1284 Y 1.2437 Z -1.0000
G01 X 20.1284 Y 1.2436 Z -1.0000
G00 Z 5.0000

(End cutting path id: path42133)


(Start cutting path id: path42133)
(Change tool to Default tool)

G00 Z 5.0000
G00 X 20.1361 Y 1.3023

G01 Z -1.0000 F 100.0000(Penetrate)
G01 X 20.1384 Y 1.3076 Z -1.0000 F 3500.0000
G01 X 20.1442 Y 1.3099 Z -1.0000
G01 X 20.1479 Y 1.3075 Z -1.0000
G01 X 20.1476 Y 1.3023 Z -1.0000
G01 X 20.1423 Y 1.2958 Z -1.0000
G01 X 20.1395 Y 1.2947 Z -1.0000
G01 X 20.1361 Y 1.3023 Z -1.0000
G01 X 20.1361 Y 1.3023 Z -1.0000
G00 Z 5.0000

(End cutting path id: path42133)


(Start cutting path id: path42133)
(Change tool to Default tool)

G00 Z 5.0000
G00 X 20.0905 Y 1.3013

G01 Z -1.0000 F 100.0000(Penetrate)
G01 X 20.0926 Y 1.3060 Z -1.0000 F 3500.0000
G02 X 20.1095 Y 1.3175 Z -1.0000 I 0.0618 J -0.0721
G03 X 20.1261 Y 1.3292 Z -1.0000 I -0.0406 J 0.0758
G01 X 20.1285 Y 1.3345 Z -1.0000
G01 X 20.1307 Y 1.3374 Z -1.0000
G01 X 20.1358 Y 1.3367 Z -1.0000
G01 X 20.1376 Y 1.3315 Z -1.0000
G01 X 20.1295 Y 1.3186 Z -1.0000
G02 X 20.0975 Y 1.2966 Z -1.0000 I -0.0748 J 0.0748
G01 X 20.0904 Y 1.3012 Z -1.0000
G01 X 20.0905 Y 1.3013 Z -1.0000
G00 Z 5.0000

(End cutting path id: path42133)


(Start cutting path id: path42133)
(Change tool to Default tool)

G00 Z 5.0000
G00 X 20.1247 Y 1.3555

G01 Z -1.0000 F 100.0000(Penetrate)
G01 X 20.1244 Y 1.3607 Z -1.0000 F 3500.0000
G01 X 20.1281 Y 1.3631 Z -1.0000
G01 X 20.1339 Y 1.3609 Z -1.0000
G01 X 20.1362 Y 1.3555 Z -1.0000
G01 X 20.1328 Y 1.3479 Z -1.0000
G01 X 20.1301 Y 1.3490 Z -1.0000
G01 X 20.1247 Y 1.3555 Z -1.0000
G01 X 20.1247 Y 1.3555 Z -1.0000
G00 Z 5.0000

(End cutting path id: path42133)


(Start cutting path id: path42133)
(Change tool to Default tool)

G00 Z 5.0000
G00 X 20.1057 Y 1.4088

G01 Z -1.0000 F 100.0000(Penetrate)
G01 X 20.1079 Y 1.4142 Z -1.0000 F 3500.0000
G01 X 20.1133 Y 1.4164 Z -1.0000
G01 X 20.1187 Y 1.4142 Z -1.0000
G01 X 20.1209 Y 1.4088 Z -1.0000
G01 X 20.1187 Y 1.4034 Z -1.0000
G01 X 20.1133 Y 1.4012 Z -1.0000
G01 X 20.1079 Y 1.4034 Z -1.0000
G01 X 20.1057 Y 1.4088 Z -1.0000
G01 X 20.1057 Y 1.4088 Z -1.0000
G00 Z 5.0000

(End cutting path id: path42133)


(Start cutting path id: path42133)
(Change tool to Default tool)

G00 Z 5.0000
G00 X 20.1209 Y 1.4341

G01 Z -1.0000 F 100.0000(Penetrate)
G01 X 20.1182 Y 1.4430 Z -1.0000 F 3500.0000
G03 X 20.1019 Y 1.4621 Z -1.0000 I -0.0959 J -0.0653
G02 X 20.0853 Y 1.4810 Z -1.0000 I 0.0886 J 0.0946
G01 X 20.0831 Y 1.4881 Z -1.0000
G01 X 20.0935 Y 1.4830 Z -1.0000
G01 X 20.1050 Y 1.4726 Z -1.0000
G01 X 20.1149 Y 1.4697 Z -1.0000
G01 X 20.1220 Y 1.4654 Z -1.0000
G01 X 20.1269 Y 1.4469 Z -1.0000
G01 X 20.1243 Y 1.4241 Z -1.0000
G01 X 20.1210 Y 1.4342 Z -1.0000
G01 X 20.1209 Y 1.4341 Z -1.0000
G00 Z 5.0000

(End cutting path id: path42133)


(Start cutting path id: path42133)
(Change tool to Default tool)

G00 Z 5.0000
G00 X 20.1152 Y 1.5034

G01 Z -1.0000 F 100.0000(Penetrate)
G01 X 20.1185 Y 1.5161 Z -1.0000 F 3500.0000
G01 X 20.1226 Y 1.5167 Z -1.0000
G01 X 20.1259 Y 1.5086 Z -1.0000
G01 X 20.1226 Y 1.4959 Z -1.0000
G01 X 20.1185 Y 1.4953 Z -1.0000
G01 X 20.1152 Y 1.5033 Z -1.0000
G01 X 20.1152 Y 1.5034 Z -1.0000
G00 Z 5.0000

(End cutting path id: path42133)


(Start cutting path id: path42133)
(Change tool to Default tool)

G00 Z 5.0000
G00 X 20.0829 Y 1.5306

G01 Z -1.0000 F 100.0000(Penetrate)
G01 X 20.0851 Y 1.5359 Z -1.0000 F 3500.0000
G01 X 20.0905 Y 1.5382 Z -1.0000
G01 X 20.0958 Y 1.5359 Z -1.0000
G01 X 20.0981 Y 1.5306 Z -1.0000
G01 X 20.0958 Y 1.5252 Z -1.0000
G01 X 20.0905 Y 1.5230 Z -1.0000
G01 X 20.0851 Y 1.5252 Z -1.0000
G01 X 20.0829 Y 1.5306 Z -1.0000
G01 X 20.0829 Y 1.5306 Z -1.0000
G00 Z 5.0000

(End cutting path id: path42133)


(Start cutting path id: path42133)
(Change tool to Default tool)

G00 Z 5.0000
G00 X 20.1168 Y 1.5463

G01 Z -1.0000 F 100.0000(Penetrate)
G01 X 20.1141 Y 1.5541 Z -1.0000 F 3500.0000
G01 X 20.1154 Y 1.5580 Z -1.0000
G01 X 20.1235 Y 1.5499 Z -1.0000
G01 X 20.1217 Y 1.5450 Z -1.0000
G01 X 20.1168 Y 1.5463 Z -1.0000
G01 X 20.1168 Y 1.5463 Z -1.0000
G00 Z 5.0000

(End cutting path id: path42133)


(Start cutting path id: path42133)
(Change tool to Default tool)

G00 Z 5.0000
G00 X 20.1133 Y 1.5915

G01 Z -1.0000 F 100.0000(Penetrate)
G01 X 20.1155 Y 1.5968 Z -1.0000 F 3500.0000
G01 X 20.1209 Y 1.5991 Z -1.0000
G01 X 20.1263 Y 1.5968 Z -1.0000
G01 X 20.1285 Y 1.5915 Z -1.0000
G01 X 20.1263 Y 1.5861 Z -1.0000
G01 X 20.1209 Y 1.5839 Z -1.0000
G01 X 20.1155 Y 1.5861 Z -1.0000
G01 X 20.1133 Y 1.5915 Z -1.0000
G01 X 20.1133 Y 1.5915 Z -1.0000
G00 Z 5.0000

(End cutting path id: path42133)


(Start cutting path id: path42133)
(Change tool to Default tool)

G00 Z 5.0000
G00 X 20.0905 Y 1.5915

G01 Z -1.0000 F 100.0000(Penetrate)
G01 X 20.0927 Y 1.5968 Z -1.0000 F 3500.0000
G01 X 20.0981 Y 1.5991 Z -1.0000
G01 X 20.1035 Y 1.5968 Z -1.0000
G01 X 20.1057 Y 1.5915 Z -1.0000
G01 X 20.1035 Y 1.5861 Z -1.0000
G01 X 20.0981 Y 1.5839 Z -1.0000
G01 X 20.0927 Y 1.5861 Z -1.0000
G01 X 20.0905 Y 1.5915 Z -1.0000
G01 X 20.0905 Y 1.5915 Z -1.0000
G00 Z 5.0000

(End cutting path id: path42133)


(Start cutting path id: path42133)
(Change tool to Default tool)

G00 Z 5.0000
G00 X 20.1093 Y 1.6146

G01 Z -1.0000 F 100.0000(Penetrate)
G01 X 20.1103 Y 1.6189 Z -1.0000 F 3500.0000
G01 X 20.1205 Y 1.6219 Z -1.0000
G01 X 20.1274 Y 1.6174 Z -1.0000
G01 X 20.1250 Y 1.6117 Z -1.0000
G01 X 20.1150 Y 1.6107 Z -1.0000
G01 X 20.1093 Y 1.6147 Z -1.0000
G01 X 20.1093 Y 1.6146 Z -1.0000
G00 Z 5.0000

(End cutting path id: path42133)


(Start cutting path id: path42133)
(Change tool to Default tool)

G00 Z 5.0000
G00 X 20.1172 Y 1.6371

G01 Z -1.0000 F 100.0000(Penetrate)
G01 X 20.1156 Y 1.6447 Z -1.0000 F 3500.0000
G01 X 20.1199 Y 1.6577 Z -1.0000
G01 X 20.1260 Y 1.6502 Z -1.0000
G01 X 20.1216 Y 1.6370 Z -1.0000
G01 X 20.1172 Y 1.6371 Z -1.0000
G01 X 20.1172 Y 1.6371 Z -1.0000
G00 Z 5.0000

(End cutting path id: path42133)


(Start cutting path id: path42133)
(Change tool to Default tool)

G00 Z 5.0000
G00 X 20.1140 Y 1.7024

G01 Z -1.0000 F 100.0000(Penetrate)
G01 X 20.1186 Y 1.7070 Z -1.0000 F 3500.0000
G01 X 20.1202 Y 1.6975 Z -1.0000
G01 X 20.1180 Y 1.6925 Z -1.0000
G01 X 20.1140 Y 1.7025 Z -1.0000
G01 X 20.1140 Y 1.7024 Z -1.0000
G00 Z 5.0000

(End cutting path id: path42133)


(Start cutting path id: path42133)
(Change tool to Default tool)

G00 Z 5.0000
G00 X 20.0912 Y 1.7405

G01 Z -1.0000 F 100.0000(Penetrate)
G01 X 20.0958 Y 1.7451 Z -1.0000 F 3500.0000
G01 X 20.0974 Y 1.7356 Z -1.0000
G01 X 20.0952 Y 1.7305 Z -1.0000
G01 X 20.0912 Y 1.7405 Z -1.0000
G01 X 20.0912 Y 1.7405 Z -1.0000
G00 Z 5.0000

(End cutting path id: path42133)


(Start cutting path id: path42133)
(Change tool to Default tool)

G00 Z 5.0000
G00 X 20.1249 Y 1.7783

G01 Z -1.0000 F 100.0000(Penetrate)
G02 X 20.1196 Y 1.7935 Z -1.0000 I 0.0976 J 0.0428 F 3500.0000
G02 X 20.1164 Y 1.8098 Z -1.0000 I 0.1124 J 0.0302
G03 X 20.1129 Y 1.8261 Z -1.0000 I -0.0888 J -0.0106
G03 X 20.1063 Y 1.8417 Z -1.0000 I -0.0849 J -0.0267
G01 X 20.1042 Y 1.8588 Z -1.0000
G01 X 20.1127 Y 1.8674 Z -1.0000
G01 X 20.1214 Y 1.8646 Z -1.0000
G01 X 20.1251 Y 1.8520 Z -1.0000
G03 X 20.1250 Y 1.8329 Z -1.0000 I 0.0842 J -0.0095
G03 X 20.1302 Y 1.8068 Z -1.0000 I 0.1650 J 0.0186
G02 X 20.1314 Y 1.7791 Z -1.0000 I -0.0602 J -0.0167
G01 X 20.1251 Y 1.7783 Z -1.0000
G01 X 20.1249 Y 1.7783 Z -1.0000
G00 Z 5.0000

(End cutting path id: path42133)


(Start cutting path id: path42133)
(Change tool to Default tool)

G00 Z 5.0000
G00 X 20.0830 Y 1.8817

G01 Z -1.0000 F 100.0000(Penetrate)
G01 X 20.0849 Y 1.8863 Z -1.0000 F 3500.0000
G01 X 20.0900 Y 1.8883 Z -1.0000
G01 X 20.0968 Y 1.8891 Z -1.0000
G03 X 20.1090 Y 1.8929 Z -1.0000 I -0.0250 J 0.1025
G01 X 20.1183 Y 1.8935 Z -1.0000
G01 X 20.1210 Y 1.8900 Z -1.0000
G01 X 20.1181 Y 1.8849 Z -1.0000
G01 X 20.1020 Y 1.8788 Z -1.0000
G01 X 20.0857 Y 1.8785 Z -1.0000
G01 X 20.0830 Y 1.8817 Z -1.0000
G01 X 20.0830 Y 1.8817 Z -1.0000
G00 Z 5.0000

(End cutting path id: path42133)


(Start cutting path id: path42133)
(Change tool to Default tool)

G00 Z 5.0000
G00 X 20.0982 Y 1.9111

G01 Z -1.0000 F 100.0000(Penetrate)
G01 X 20.1011 Y 1.9158 Z -1.0000 F 3500.0000
G01 X 20.1134 Y 1.9187 Z -1.0000
G01 X 20.1257 Y 1.9158 Z -1.0000
G01 X 20.1286 Y 1.9111 Z -1.0000
G01 X 20.1257 Y 1.9064 Z -1.0000
G01 X 20.1134 Y 1.9035 Z -1.0000
G01 X 20.1011 Y 1.9064 Z -1.0000
G01 X 20.0982 Y 1.9111 Z -1.0000
G01 X 20.0982 Y 1.9111 Z -1.0000
G00 Z 5.0000

(End cutting path id: path42133)


(Start cutting path id: path42133)
(Change tool to Default tool)

G00 Z 5.0000
G00 X 20.0982 Y 1.9483

G01 Z -1.0000 F 100.0000(Penetrate)
G01 X 20.1076 Y 1.9622 Z -1.0000 F 3500.0000
G01 X 20.1241 Y 1.9588 Z -1.0000
G01 X 20.1253 Y 1.9482 Z -1.0000
G01 X 20.1134 Y 1.9415 Z -1.0000
G01 X 20.1008 Y 1.9442 Z -1.0000
G01 X 20.0982 Y 1.9483 Z -1.0000
G01 X 20.0982 Y 1.9483 Z -1.0000
G00 Z 5.0000

(End cutting path id: path42133)


(Start cutting path id: path42133)
(Change tool to Default tool)

G00 Z 5.0000
G00 X 20.1134 Y 1.9853

G01 Z -1.0000 F 100.0000(Penetrate)
G01 X 20.1164 Y 1.9919 Z -1.0000 F 3500.0000
G01 X 20.1224 Y 1.9931 Z -1.0000
G01 X 20.1316 Y 1.9821 Z -1.0000
G01 X 20.1250 Y 1.9745 Z -1.0000
G01 X 20.1166 Y 1.9778 Z -1.0000
G01 X 20.1134 Y 1.9853 Z -1.0000
G01 X 20.1134 Y 1.9853 Z -1.0000
G00 Z 5.0000

(End cutting path id: path42133)


(Start cutting path id: path42133)
(Change tool to Default tool)

G00 Z 5.0000
G00 X 20.1039 Y 2.0858

G01 Z -1.0000 F 100.0000(Penetrate)
G01 X 20.0956 Y 2.1027 Z -1.0000 F 3500.0000
G01 X 20.1011 Y 2.1090 Z -1.0000
G01 X 20.1089 Y 2.1054 Z -1.0000
G01 X 20.1160 Y 2.0922 Z -1.0000
G01 X 20.1127 Y 2.0846 Z -1.0000
G01 X 20.1039 Y 2.0859 Z -1.0000
G01 X 20.1039 Y 2.0858 Z -1.0000
G00 Z 5.0000

(End cutting path id: path42133)


(Start cutting path id: path42133)
(Change tool to Default tool)

G00 Z 5.0000
G00 X 20.1083 Y 2.1292

G01 Z -1.0000 F 100.0000(Penetrate)
G01 X 20.1099 Y 2.1344 Z -1.0000 F 3500.0000
G01 X 20.1058 Y 2.1433 Z -1.0000
G02 X 20.0941 Y 2.1694 Z -1.0000 I 0.0405 J 0.0338
G02 X 20.0898 Y 2.2530 Z -1.0000 I 0.4492 J 0.0652
G03 X 20.0871 Y 2.2772 Z -1.0000 I -0.0811 J 0.0033
G01 X 20.0812 Y 2.2854 Z -1.0000
G01 X 20.0783 Y 2.2916 Z -1.0000
G01 X 20.0830 Y 2.2991 Z -1.0000
G01 X 20.1058 Y 2.3060 Z -1.0000
G01 X 20.1096 Y 2.2992 Z -1.0000
G01 X 20.1093 Y 2.2940 Z -1.0000
G01 X 20.1130 Y 2.2916 Z -1.0000
G01 X 20.1179 Y 2.2884 Z -1.0000
G01 X 20.1211 Y 2.2726 Z -1.0000
G01 X 20.1248 Y 2.2571 Z -1.0000
G01 X 20.1306 Y 2.2533 Z -1.0000
G01 X 20.1211 Y 2.2421 Z -1.0000
G01 X 20.1021 Y 2.2313 Z -1.0000
G01 X 20.1230 Y 2.2310 Z -1.0000
G02 X 20.1408 Y 2.2276 Z -1.0000 I -0.0007 J -0.0523
G01 X 20.1440 Y 2.2231 Z -1.0000
G01 X 20.1414 Y 2.2181 Z -1.0000
G01 X 20.1334 Y 2.2155 Z -1.0000
G01 X 20.1248 Y 2.2126 Z -1.0000
G01 X 20.1182 Y 2.2037 Z -1.0000
G01 X 20.1212 Y 2.1965 Z -1.0000
G01 X 20.1288 Y 2.1919 Z -1.0000
G01 X 20.1192 Y 2.1708 Z -1.0000
G01 X 20.1202 Y 2.1636 Z -1.0000
G01 X 20.1288 Y 2.1625 Z -1.0000
G01 X 20.1341 Y 2.1565 Z -1.0000
G01 X 20.1338 Y 2.1497 Z -1.0000
G01 X 20.1293 Y 2.1470 Z -1.0000
G01 X 20.1239 Y 2.1442 Z -1.0000
G01 X 20.1211 Y 2.1356 Z -1.0000
G01 X 20.1182 Y 2.1271 Z -1.0000
G01 X 20.1122 Y 2.1242 Z -1.0000
G01 X 20.1083 Y 2.1292 Z -1.0000
G01 X 20.1083 Y 2.1292 Z -1.0000
G00 Z 5.0000

(End cutting path id: path42133)


(Start cutting path id: path42133)
(Change tool to Default tool)

G00 Z 5.0000
G00 X 20.1134 Y 2.2612

G01 Z -1.0000 F 100.0000(Penetrate)
G01 X 20.1105 Y 2.2764 Z -1.0000 F 3500.0000
G01 X 20.1036 Y 2.2612 Z -1.0000
G01 X 20.1032 Y 2.2487 Z -1.0000
G01 X 20.1065 Y 2.2459 Z -1.0000
G01 X 20.1107 Y 2.2486 Z -1.0000
G01 X 20.1134 Y 2.2612 Z -1.0000
G01 X 20.1134 Y 2.2612 Z -1.0000
G00 Z 5.0000

(End cutting path id: path42133)


(Start cutting path id: path42133)
(Change tool to Default tool)

G00 Z 5.0000
G00 X 20.0754 Y 2.3231

G01 Z -1.0000 F 100.0000(Penetrate)
G01 X 20.0772 Y 2.3268 Z -1.0000 F 3500.0000
G01 X 20.0887 Y 2.3332 Z -1.0000
G01 X 20.0928 Y 2.3396 Z -1.0000
G01 X 20.0879 Y 2.3487 Z -1.0000
G01 X 20.0787 Y 2.3600 Z -1.0000
G01 X 20.0791 Y 2.3676 Z -1.0000
G01 X 20.0852 Y 2.3709 Z -1.0000
G01 X 20.0951 Y 2.3671 Z -1.0000
G01 X 20.1007 Y 2.3708 Z -1.0000
G01 X 20.0887 Y 2.3910 Z -1.0000
G01 X 20.0829 Y 2.4015 Z -1.0000
G01 X 20.0860 Y 2.4046 Z -1.0000
G02 X 20.1252 Y 2.3791 Z -1.0000 I -0.0108 J -0.0596
G01 X 20.1225 Y 2.3509 Z -1.0000
G01 X 20.1133 Y 2.3305 Z -1.0000
G01 X 20.1210 Y 2.3259 Z -1.0000
G01 X 20.1265 Y 2.3267 Z -1.0000
G01 X 20.1286 Y 2.3239 Z -1.0000
G01 X 20.1257 Y 2.3201 Z -1.0000
G02 X 20.1020 Y 2.3177 Z -1.0000 I -0.0217 J 0.0929
G02 X 20.0776 Y 2.3204 Z -1.0000 I 0.0029 J 0.1344
G01 X 20.0754 Y 2.3232 Z -1.0000
G01 X 20.0754 Y 2.3231 Z -1.0000
G00 Z 5.0000

(End cutting path id: path42133)


(Start cutting path id: path42133)
(Change tool to Default tool)

G00 Z 5.0000
G00 X 20.1116 Y 2.4089

G01 Z -1.0000 F 100.0000(Penetrate)
G01 X 20.1028 Y 2.4190 Z -1.0000 F 3500.0000
G01 X 20.1034 Y 2.4236 Z -1.0000
G01 X 20.0900 Y 2.4290 Z -1.0000
G01 X 20.0716 Y 2.4294 Z -1.0000
G01 X 20.0888 Y 2.4414 Z -1.0000
G01 X 20.0966 Y 2.4536 Z -1.0000
G01 X 20.0926 Y 2.4636 Z -1.0000
G01 X 20.0885 Y 2.4740 Z -1.0000
G01 X 20.0936 Y 2.4771 Z -1.0000
G01 X 20.0942 Y 2.4838 Z -1.0000
G02 X 20.0934 Y 2.5218 Z -1.0000 I 0.0547 J 0.0202
G01 X 20.1127 Y 2.5413 Z -1.0000
G01 X 20.1160 Y 2.5391 Z -1.0000
G01 X 20.1136 Y 2.5279 Z -1.0000
G01 X 20.1112 Y 2.5126 Z -1.0000
G01 X 20.1185 Y 2.5010 Z -1.0000
G01 X 20.1248 Y 2.4900 Z -1.0000
G01 X 20.1209 Y 2.4769 Z -1.0000
G01 X 20.1113 Y 2.4509 Z -1.0000
G01 X 20.1200 Y 2.4261 Z -1.0000
G01 X 20.1218 Y 2.4115 Z -1.0000
G01 X 20.1117 Y 2.4090 Z -1.0000
G01 X 20.1116 Y 2.4089 Z -1.0000
G00 Z 5.0000

(End cutting path id: path42133)


(Start cutting path id: path42133)
(Change tool to Default tool)

G00 Z 5.0000
G00 X 20.0906 Y 2.5503

G01 Z -1.0000 F 100.0000(Penetrate)
G01 X 20.0932 Y 2.5553 Z -1.0000 F 3500.0000
G01 X 20.1016 Y 2.5579 Z -1.0000
G01 X 20.1110 Y 2.5609 Z -1.0000
G01 X 20.1204 Y 2.5713 Z -1.0000
G01 X 20.1255 Y 2.5743 Z -1.0000
G01 X 20.1284 Y 2.5715 Z -1.0000
G01 X 20.1251 Y 2.5605 Z -1.0000
G01 X 20.1139 Y 2.5506 Z -1.0000
G01 X 20.0952 Y 2.5458 Z -1.0000
G01 X 20.0906 Y 2.5503 Z -1.0000
G01 X 20.0906 Y 2.5503 Z -1.0000
G00 Z 5.0000

(End cutting path id: path42133)


(Start cutting path id: path42133)
(Change tool to Default tool)

G00 Z 5.0000
G00 X 20.0906 Y 2.5808

G01 Z -1.0000 F 100.0000(Penetrate)
G01 X 20.0928 Y 2.5862 Z -1.0000 F 3500.0000
G01 X 20.0982 Y 2.5884 Z -1.0000
G01 X 20.1035 Y 2.5862 Z -1.0000
G01 X 20.1058 Y 2.5808 Z -1.0000
G01 X 20.1035 Y 2.5754 Z -1.0000
G01 X 20.0982 Y 2.5732 Z -1.0000
G01 X 20.0928 Y 2.5754 Z -1.0000
G01 X 20.0906 Y 2.5808 Z -1.0000
G01 X 20.0906 Y 2.5808 Z -1.0000
G00 Z 5.0000

(End cutting path id: path42133)


(Start cutting path id: path42133)
(Change tool to Default tool)

G00 Z 5.0000
G00 X 20.0982 Y 2.6802

G01 Z -1.0000 F 100.0000(Penetrate)
G01 X 20.1006 Y 2.6839 Z -1.0000 F 3500.0000
G01 X 20.1058 Y 2.6836 Z -1.0000
G01 X 20.1123 Y 2.6783 Z -1.0000
G01 X 20.1134 Y 2.6755 Z -1.0000
G01 X 20.1058 Y 2.6721 Z -1.0000
G01 X 20.1005 Y 2.6744 Z -1.0000
G01 X 20.0982 Y 2.6802 Z -1.0000
G01 X 20.0982 Y 2.6802 Z -1.0000
G00 Z 5.0000

(End cutting path id: path42133)


(Start cutting path id: path42133)
(Change tool to Default tool)

G00 Z 5.0000
G00 X 20.0836 Y 4.0651

G01 Z -1.0000 F 100.0000(Penetrate)
G02 X 20.0763 Y 4.1037 Z -1.0000 I 0.8481 J 0.1806 F 3500.0000
G02 X 20.0754 Y 4.1146 Z -1.0000 I 0.0660 J 0.0110
G01 X 20.0726 Y 4.1229 Z -1.0000
G01 X 20.0672 Y 4.1256 Z -1.0000
G01 X 20.0709 Y 4.1375 Z -1.0000
G02 X 20.1143 Y 4.1568 Z -1.0000 I 0.0466 J -0.0466
G02 X 20.1539 Y 4.1414 Z -1.0000 I 0.0025 J -0.0523
G01 X 20.1568 Y 4.1333 Z -1.0000
G01 X 20.1524 Y 4.1262 Z -1.0000
G01 X 20.1492 Y 4.1205 Z -1.0000
G01 X 20.1524 Y 4.1157 Z -1.0000
G01 X 20.1557 Y 4.1108 Z -1.0000
G01 X 20.1523 Y 4.1042 Z -1.0000
G01 X 20.1459 Y 4.0960 Z -1.0000
G01 X 20.1466 Y 4.0891 Z -1.0000
G01 X 20.1476 Y 4.0676 Z -1.0000
G01 X 20.1306 Y 4.0571 Z -1.0000
G01 X 20.1262 Y 4.0538 Z -1.0000
G01 X 20.1278 Y 4.0466 Z -1.0000
G01 X 20.1299 Y 4.0378 Z -1.0000
G01 X 20.1243 Y 4.0314 Z -1.0000
G01 X 20.1017 Y 4.0351 Z -1.0000
G02 X 20.0835 Y 4.0651 Z -1.0000 I 0.0342 J 0.0413
G01 X 20.0836 Y 4.0651 Z -1.0000
G00 Z 5.0000

(End cutting path id: path42133)


(Start cutting path id: path42133)
(Change tool to Default tool)

G00 Z 5.0000
G00 X 20.9490 Y 6.0715

G01 Z -1.0000 F 100.0000(Penetrate)
G01 X 20.9585 Y 6.0731 Z -1.0000 F 3500.0000
G01 X 20.9636 Y 6.0709 Z -1.0000
G01 X 20.9536 Y 6.0669 Z -1.0000
G01 X 20.9490 Y 6.0715 Z -1.0000
G01 X 20.9490 Y 6.0715 Z -1.0000
G00 Z 5.0000

(End cutting path id: path42133)


(Start cutting path id: path42133)
(Change tool to Default tool)

G00 Z 5.0000
G00 X 21.8601 Y 8.2748

G01 Z -1.0000 F 100.0000(Penetrate)
G02 X 21.8317 Y 8.2837 Z -1.0000 I 0.0350 J 0.1611 F 3500.0000
G01 X 21.8249 Y 8.2895 Z -1.0000
G01 X 21.8216 Y 8.2985 Z -1.0000
G02 X 21.8145 Y 8.3585 Z -1.0000 I 0.9413 J 0.1427
G02 X 21.8144 Y 8.4169 Z -1.0000 I 0.3359 J 0.0296
G01 X 21.8204 Y 8.4280 Z -1.0000
G01 X 21.8272 Y 8.4391 Z -1.0000
G03 X 21.8353 Y 8.5030 Z -1.0000 I -0.4512 J 0.0901
G01 X 21.8391 Y 8.5691 Z -1.0000
G01 X 21.8182 Y 8.5764 Z -1.0000
G01 X 21.7991 Y 8.5955 Z -1.0000
G02 X 21.7922 Y 8.6518 Z -1.0000 I 0.1289 J 0.0444
G03 X 21.8000 Y 8.8041 Z -1.0000 I -2.1157 J 0.1850
G01 X 21.7947 Y 8.8139 Z -1.0000
G03 X 21.7222 Y 8.8333 Z -1.0000 I -0.0688 J -0.1116
G03 X 21.6428 Y 8.8097 Z -1.0000 I 0.0045 J -0.1599
G01 X 21.6313 Y 8.7857 Z -1.0000
G03 X 21.6501 Y 8.7494 Z -1.0000 I 0.0580 J 0.0070
G01 X 21.6600 Y 8.7337 Z -1.0000
G02 X 21.6694 Y 8.6854 Z -1.0000 I -0.2334 J -0.0704
G03 X 21.6745 Y 8.6348 Z -1.0000 I 2.5358 J 0.2275
G03 X 21.6772 Y 8.6146 Z -1.0000 I 0.3943 J 0.0433
G01 X 21.6758 Y 8.5958 Z -1.0000
G02 X 21.6654 Y 8.5772 Z -1.0000 I -0.0499 J 0.0157
G03 X 21.6520 Y 8.5349 Z -1.0000 I 0.0423 J -0.0367
G03 X 21.6738 Y 8.4940 Z -1.0000 I 0.0607 J 0.0061
G01 X 21.6825 Y 8.4798 Z -1.0000
G02 X 21.6966 Y 8.3933 Z -1.0000 I -0.7013 J -0.1588
G02 X 21.7031 Y 8.3043 Z -1.0000 I -1.5547 J -0.1583
G01 X 21.7012 Y 8.2924 Z -1.0000
G01 X 21.6944 Y 8.2845 Z -1.0000
G01 X 21.6807 Y 8.2809 Z -1.0000
G01 X 21.6719 Y 8.2871 Z -1.0000
G02 X 21.6698 Y 8.3120 Z -1.0000 I 0.0475 J 0.0166
G03 X 21.6682 Y 8.3361 Z -1.0000 I -0.0511 J 0.0087
G01 X 21.6610 Y 8.3404 Z -1.0000
G01 X 21.6522 Y 8.3332 Z -1.0000
G03 X 21.6469 Y 8.3073 Z -1.0000 I 0.0606 J -0.0259
G01 X 21.6469 Y 8.2771 Z -1.0000
G01 X 20.0450 Y 8.2771 Z -1.0000
G02 X 17.5911 Y 8.2853 Z -1.0000 I -0.0000 J 364.7390
G01 X 17.5710 Y 8.2938 Z -1.0000
G01 X 17.5642 Y 8.3141 Z -1.0000
G02 X 17.6018 Y 8.5129 Z -1.0000 I 2.1293 J -0.3004
G03 X 17.6135 Y 8.5786 Z -1.0000 I -0.5496 J 0.1313
G01 X 17.6101 Y 8.5839 Z -1.0000
G01 X 17.6016 Y 8.5968 Z -1.0000
G02 X 17.6218 Y 8.7190 Z -1.0000 I 0.7998 J -0.0692
G03 X 17.6384 Y 8.7990 Z -1.0000 I -1.0885 J 0.2674
G01 X 17.6373 Y 8.8102 Z -1.0000
G01 X 17.6296 Y 8.8163 Z -1.0000
G03 X 17.5608 Y 8.8212 Z -1.0000 I -0.0688 J -0.4803
G03 X 17.4929 Y 8.8010 Z -1.0000 I -0.0000 J -0.1240
G01 X 17.4728 Y 8.7637 Z -1.0000
G01 X 17.4778 Y 8.7463 Z -1.0000
G01 X 17.4844 Y 8.7453 Z -1.0000
G01 X 17.4958 Y 8.7517 Z -1.0000
G01 X 17.5001 Y 8.7508 Z -1.0000
G01 X 17.5020 Y 8.7458 Z -1.0000
G02 X 17.4948 Y 8.6686 Z -1.0000 I -1.3928 J 0.0906
G02 X 17.4777 Y 8.5966 Z -1.0000 I -0.3279 J 0.0398
G01 X 17.4638 Y 8.5825 Z -1.0000
G01 X 17.4495 Y 8.5694 Z -1.0000
G03 X 17.4423 Y 8.5375 Z -1.0000 I 0.0665 J -0.0318
G01 X 17.4490 Y 8.5049 Z -1.0000
G01 X 17.4552 Y 8.5054 Z -1.0000
G01 X 17.4641 Y 8.4990 Z -1.0000
G02 X 17.4917 Y 8.4049 Z -1.0000 I -0.0951 J -0.0789
G02 X 17.4392 Y 8.2974 Z -1.0000 I -0.1825 J 0.0225
G01 X 17.4240 Y 8.2908 Z -1.0000
G02 X 17.0101 Y 8.2829 Z -1.0000 I -0.4753 J 14.0930
G02 X 16.5304 Y 8.2898 Z -1.0000 I -0.0553 J 12.8353
G01 X 16.5078 Y 8.2996 Z -1.0000
G01 X 16.4967 Y 8.3351 Z -1.0000
G02 X 16.5348 Y 8.4511 Z -1.0000 I 0.4249 J -0.0753
G03 X 16.5604 Y 8.5180 Z -1.0000 I -0.3455 J 0.1708
G03 X 16.5671 Y 8.5667 Z -1.0000 I -0.1738 J 0.0486
G01 X 16.5619 Y 8.5726 Z -1.0000
G03 X 16.4842 Y 8.5777 Z -1.0000 I -0.0777 J -0.5852
G03 X 16.4122 Y 8.5575 Z -1.0000 I 0.0000 J -0.1383
G01 X 16.3927 Y 8.5219 Z -1.0000
G01 X 16.3971 Y 8.4997 Z -1.0000
G01 X 16.4119 Y 8.5082 Z -1.0000
G01 X 16.4221 Y 8.4959 Z -1.0000
G02 X 16.4075 Y 8.3632 Z -1.0000 I -0.7850 J 0.0193
G02 X 16.3892 Y 8.3288 Z -1.0000 I -0.0657 J 0.0130
G01 X 16.3841 Y 8.3277 Z -1.0000
G01 X 16.3776 Y 8.3328 Z -1.0000
G01 X 16.3712 Y 8.3357 Z -1.0000
G01 X 16.3613 Y 8.3300 Z -1.0000
G01 X 16.3601 Y 8.3229 Z -1.0000
G01 X 16.3650 Y 8.3201 Z -1.0000
G01 X 16.3769 Y 8.3190 Z -1.0000
G01 X 16.3824 Y 8.3132 Z -1.0000
G01 X 16.3741 Y 8.2967 Z -1.0000
G01 X 16.3537 Y 8.3042 Z -1.0000
G01 X 16.3464 Y 8.3077 Z -1.0000
G01 X 16.3325 Y 8.3011 Z -1.0000
G01 X 16.3152 Y 8.2942 Z -1.0000
G02 X 15.9976 Y 8.2900 Z -1.0000 I -0.2612 J 7.8711
G02 X 15.6793 Y 8.2968 Z -1.0000 I 0.0810 J 11.3473
G01 X 15.6682 Y 8.3016 Z -1.0000
G01 X 15.6640 Y 8.3123 Z -1.0000
G02 X 15.6717 Y 8.3757 Z -1.0000 I 0.4314 J -0.0200
G02 X 15.6863 Y 8.4400 Z -1.0000 I 1.0890 J -0.2135
G02 X 15.6949 Y 8.4654 Z -1.0000 I 0.1786 J -0.0462
G03 X 15.7285 Y 8.5618 Z -1.0000 I -0.7583 J 0.3188
G01 X 15.7263 Y 8.5774 Z -1.0000
G03 X 15.6518 Y 8.6184 Z -1.0000 I -0.0737 J -0.0456
G03 X 15.5644 Y 8.5758 Z -1.0000 I 0.0010 J -0.1130
G01 X 15.5591 Y 8.5653 Z -1.0000
G03 X 15.5519 Y 8.5282 Z -1.0000 I 0.2920 J -0.0764
G03 X 15.5535 Y 8.5060 Z -1.0000 I 0.0543 J -0.0071
G01 X 15.5586 Y 8.5050 Z -1.0000
G01 X 15.5706 Y 8.5137 Z -1.0000
G01 X 15.5779 Y 8.5121 Z -1.0000
G01 X 15.5894 Y 8.4756 Z -1.0000
G02 X 15.5441 Y 8.3184 Z -1.0000 I -0.7508 J 0.1315
G01 X 15.5213 Y 8.3021 Z -1.0000
G02 X 15.1369 Y 8.2922 Z -1.0000 I -0.3206 J 4.9703
G02 X 14.8448 Y 8.2979 Z -1.0000 I 0.2908 J 22.2750
G02 X 14.8306 Y 8.3003 Z -1.0000 I 0.0014 J 0.0516
G01 X 14.8207 Y 8.3076 Z -1.0000
G01 X 14.8168 Y 8.3204 Z -1.0000
G02 X 14.8255 Y 8.3833 Z -1.0000 I 0.2306 J -0.0000
G02 X 14.8739 Y 8.5219 Z -1.0000 I 1.1815 J -0.3351
G03 X 14.8831 Y 8.5494 Z -1.0000 I -0.1829 J 0.0760
G03 X 14.8853 Y 8.5671 Z -1.0000 I -0.0700 J 0.0177
G01 X 14.8772 Y 8.5772 Z -1.0000
G03 X 14.8062 Y 8.5852 Z -1.0000 I -0.0711 J -0.3104
G03 X 14.7352 Y 8.5678 Z -1.0000 I 0.0000 J -0.1535
G01 X 14.7178 Y 8.5392 Z -1.0000
G01 X 14.7221 Y 8.5235 Z -1.0000
G01 X 14.7285 Y 8.5213 Z -1.0000
G01 X 14.7388 Y 8.5139 Z -1.0000
G02 X 14.7251 Y 8.4164 Z -1.0000 I -0.4590 J 0.0149
G02 X 14.6885 Y 8.3140 Z -1.0000 I -0.5496 J 0.1387
G01 X 14.6721 Y 8.3036 Z -1.0000
G01 X 14.6510 Y 8.3177 Z -1.0000
G01 X 14.6577 Y 8.3383 Z -1.0000
G01 X 14.6649 Y 8.3545 Z -1.0000
G01 X 14.6529 Y 8.3645 Z -1.0000
G01 X 14.6371 Y 8.3533 Z -1.0000
G01 X 14.6411 Y 8.3310 Z -1.0000
G01 X 14.6439 Y 8.3207 Z -1.0000
G01 X 14.6376 Y 8.3082 Z -1.0000
G01 X 14.6230 Y 8.3019 Z -1.0000
G02 X 14.3226 Y 8.2960 Z -1.0000 I -0.3003 J 7.7396
G02 X 13.9846 Y 8.3087 Z -1.0000 I 0.0000 J 4.5143
G01 X 13.9720 Y 8.3223 Z -1.0000
G02 X 13.9803 Y 8.3720 Z -1.0000 I 0.1529 J 0.0000
G02 X 14.0470 Y 8.5409 Z -1.0000 I 1.8846 J -0.6467
G03 X 14.0647 Y 8.5901 Z -1.0000 I -0.3101 J 0.1391
G01 X 14.0635 Y 8.6011 Z -1.0000
G02 X 14.0579 Y 8.6678 Z -1.0000 I 0.0756 J 0.0399
G02 X 14.1038 Y 8.7234 Z -1.0000 I 0.0944 J -0.0312
G01 X 14.1134 Y 8.7324 Z -1.0000
G01 X 14.1166 Y 8.7435 Z -1.0000
G01 X 14.1184 Y 8.7561 Z -1.0000
G02 X 14.1321 Y 8.7972 Z -1.0000 I 0.5166 J -0.1494
G03 X 14.1427 Y 8.8371 Z -1.0000 I -0.1878 J 0.0714
G01 X 14.1400 Y 8.8470 Z -1.0000
G01 X 14.1371 Y 8.8571 Z -1.0000
G02 X 14.1470 Y 8.9014 Z -1.0000 I 0.2503 J -0.0325
G02 X 14.1813 Y 9.0011 Z -1.0000 I 2.5345 J -0.8173
G02 X 14.1935 Y 9.0283 Z -1.0000 I 0.2001 J -0.0734
G03 X 14.1996 Y 9.0434 Z -1.0000 I -0.0652 J 0.0351
G03 X 14.2076 Y 9.0785 Z -1.0000 I -0.3557 J 0.0994
G02 X 14.2312 Y 9.1728 Z -1.0000 I 0.6835 J -0.1208
G02 X 14.2655 Y 9.2561 Z -1.0000 I 0.5664 J -0.1847
G03 X 14.2878 Y 9.3113 Z -1.0000 I -0.3203 J 0.1613
G01 X 14.2888 Y 9.3313 Z -1.0000
G02 X 14.2903 Y 9.3690 Z -1.0000 I 0.0789 J 0.0157
G02 X 14.3265 Y 9.4642 Z -1.0000 I 0.5646 J -0.1602
G03 X 14.3492 Y 9.5185 Z -1.0000 I -0.4920 J 0.2379
G03 X 14.3598 Y 9.5574 Z -1.0000 I -0.2410 J 0.0860
G02 X 14.3828 Y 9.6256 Z -1.0000 I 0.2535 J -0.0476
G02 X 14.4087 Y 9.6546 Z -1.0000 I 0.0669 J -0.0336
G02 X 14.5275 Y 9.6923 Z -1.0000 I 0.1268 J -0.1935
G02 X 14.6034 Y 9.6611 Z -1.0000 I 0.0034 J -0.0995
G01 X 14.6082 Y 9.6536 Z -1.0000
G02 X 14.6124 Y 9.6392 Z -1.0000 I -0.0665 J -0.0271
G01 X 14.6322 Y 9.6186 Z -1.0000
G01 X 14.6677 Y 9.6274 Z -1.0000
G01 X 14.6785 Y 9.6314 Z -1.0000
G02 X 14.6981 Y 9.6280 Z -1.0000 I 0.0010 J -0.0522
G03 X 14.7189 Y 9.6235 Z -1.0000 I 0.0250 J 0.0652
G03 X 14.7538 Y 9.6245 Z -1.0000 I 0.0118 J 0.1954
G03 X 14.7954 Y 9.6353 Z -1.0000 I -0.0187 J 0.1565
G01 X 14.7978 Y 9.6427 Z -1.0000
G01 X 14.8033 Y 9.6555 Z -1.0000
G02 X 14.9169 Y 9.6671 Z -1.0000 I 0.1137 J -0.5551
G01 X 15.0180 Y 9.6671 Z -1.0000
G01 X 15.0391 Y 9.6435 Z -1.0000
G02 X 15.0573 Y 9.6093 Z -1.0000 I -0.0608 J -0.0544
G02 X 15.0555 Y 9.5789 Z -1.0000 I -0.0486 J -0.0124
G01 X 15.0356 Y 9.5650 Z -1.0000
G01 X 15.0221 Y 9.5783 Z -1.0000
G01 X 15.0186 Y 9.5863 Z -1.0000
G01 X 15.0102 Y 9.5897 Z -1.0000
G01 X 15.0036 Y 9.5858 Z -1.0000
G01 X 15.0027 Y 9.5758 Z -1.0000
G01 X 15.0022 Y 9.5632 Z -1.0000
G01 X 14.9918 Y 9.5480 Z -1.0000
G01 X 14.9777 Y 9.5185 Z -1.0000
G03 X 14.9881 Y 9.4802 Z -1.0000 I 0.0635 J -0.0035
G01 X 14.9931 Y 9.4613 Z -1.0000
G02 X 14.9828 Y 9.3932 Z -1.0000 I -0.3866 J 0.0235
G03 X 14.9691 Y 9.3248 Z -1.0000 I 0.7948 J -0.1938
G01 X 14.9712 Y 9.3185 Z -1.0000
G03 X 15.0143 Y 9.2994 Z -1.0000 I 0.0465 J 0.0465
G03 X 15.0657 Y 9.3138 Z -1.0000 I 0.0042 J 0.0835
G01 X 15.0723 Y 9.3221 Z -1.0000
G03 X 15.0943 Y 9.3868 Z -1.0000 I -0.6955 J 0.2728
G02 X 15.1156 Y 9.4526 Z -1.0000 I 1.0728 J -0.3108
G02 X 15.1242 Y 9.4702 Z -1.0000 I 0.0845 J -0.0303
G03 X 15.1334 Y 9.4875 Z -1.0000 I -0.1175 J 0.0741
G03 X 15.1402 Y 9.5060 Z -1.0000 I -0.1274 J 0.0571
G02 X 15.1475 Y 9.5241 Z -1.0000 I 0.0906 J -0.0260
G02 X 15.1623 Y 9.5479 Z -1.0000 I 0.1725 J -0.0913
G03 X 15.1770 Y 9.5718 Z -1.0000 I -0.1411 J 0.1034
G03 X 15.1927 Y 9.6073 Z -1.0000 I -0.3049 J 0.1555
G02 X 15.2104 Y 9.6400 Z -1.0000 I 0.1257 J -0.0472
G01 X 15.2251 Y 9.6511 Z -1.0000
G02 X 15.2444 Y 9.6552 Z -1.0000 I 0.0227 J -0.0599
G02 X 15.3572 Y 9.6582 Z -1.0000 I 0.1128 J -2.0965
G01 X 15.4706 Y 9.6582 Z -1.0000
G01 X 15.4939 Y 9.6354 Z -1.0000
G03 X 15.5181 Y 9.6146 Z -1.0000 I 0.1710 J 0.1750
G01 X 15.5244 Y 9.6125 Z -1.0000
G01 X 15.5307 Y 9.6145 Z -1.0000
G03 X 15.5582 Y 9.6360 Z -1.0000 I -0.1760 J 0.2534
G01 X 15.5850 Y 9.6595 Z -1.0000
G01 X 15.7079 Y 9.6590 Z -1.0000
G02 X 15.8294 Y 9.6546 Z -1.0000 I -0.0086 J -1.9030
G01 X 15.8411 Y 9.6499 Z -1.0000
G02 X 15.8503 Y 9.6403 Z -1.0000 I -0.0371 J -0.0450
G02 X 15.8671 Y 9.6160 Z -1.0000 I -0.2357 J -0.1804
G02 X 15.8763 Y 9.5907 Z -1.0000 I -0.0558 J -0.0345
G01 X 15.8729 Y 9.5748 Z -1.0000
G01 X 15.8523 Y 9.5642 Z -1.0000
G01 X 15.8425 Y 9.5767 Z -1.0000
G01 X 15.8395 Y 9.5854 Z -1.0000
G01 X 15.8287 Y 9.5897 Z -1.0000
G01 X 15.8183 Y 9.5849 Z -1.0000
G01 X 15.8150 Y 9.5733 Z -1.0000
G01 X 15.8117 Y 9.5597 Z -1.0000
G02 X 15.7946 Y 9.5442 Z -1.0000 I -0.0424 J 0.0298
G01 X 15.7716 Y 9.5134 Z -1.0000
G03 X 15.7791 Y 9.4733 Z -1.0000 I 0.0515 J -0.0113
G01 X 15.7849 Y 9.4537 Z -1.0000
G02 X 15.7787 Y 9.3931 Z -1.0000 I -0.3145 J 0.0015
G03 X 15.7691 Y 9.3315 Z -1.0000 I 0.6617 J -0.1343
G01 X 15.7707 Y 9.3197 Z -1.0000
G01 X 15.7781 Y 9.3127 Z -1.0000
G03 X 15.8077 Y 9.3083 Z -1.0000 I 0.0292 J 0.0942
G03 X 15.8548 Y 9.3293 Z -1.0000 I -0.0002 J 0.0637
G03 X 15.9060 Y 9.4172 Z -1.0000 I -0.1839 J 0.1659
G02 X 15.9507 Y 9.5176 Z -1.0000 I 0.5279 J -0.1752
G02 X 15.9839 Y 9.5538 Z -1.0000 I 0.0960 J -0.0548
G03 X 15.9994 Y 9.5700 Z -1.0000 I -0.0312 J 0.0454
G03 X 16.0118 Y 9.5984 Z -1.0000 I -0.0895 J 0.0558
G02 X 16.0234 Y 9.6277 Z -1.0000 I 0.1315 J -0.0353
G02 X 16.0383 Y 9.6477 Z -1.0000 I 0.0758 J -0.0408
G01 X 16.0595 Y 9.6585 Z -1.0000
G02 X 16.1562 Y 9.6658 Z -1.0000 I 0.0967 J -0.6284
G02 X 16.2736 Y 9.6540 Z -1.0000 I 0.0000 J -0.5878
G01 X 16.2854 Y 9.6395 Z -1.0000
G01 X 16.2890 Y 9.6312 Z -1.0000
G03 X 16.3094 Y 9.6169 Z -1.0000 I 0.0584 J 0.0620
G03 X 16.3339 Y 9.6101 Z -1.0000 I 0.0299 J 0.0597
G03 X 16.3618 Y 9.6126 Z -1.0000 I 0.0066 J 0.0815
G03 X 16.4063 Y 9.6340 Z -1.0000 I -0.0356 J 0.1313
G01 X 16.4034 Y 9.6430 Z -1.0000
G01 X 16.4078 Y 9.6551 Z -1.0000
G01 X 16.4204 Y 9.6615 Z -1.0000
G02 X 16.5350 Y 9.6630 Z -1.0000 I 0.0726 J -1.1691
G02 X 16.6508 Y 9.6550 Z -1.0000 I -0.0616 J -1.7281
G01 X 16.6631 Y 9.6499 Z -1.0000
G02 X 16.6915 Y 9.6107 Z -1.0000 I -0.0624 J -0.0753
G02 X 16.6928 Y 9.5749 Z -1.0000 I -0.0495 J -0.0196
G01 X 16.6725 Y 9.5581 Z -1.0000
G01 X 16.6584 Y 9.5706 Z -1.0000
G01 X 16.6555 Y 9.5792 Z -1.0000
G01 X 16.6500 Y 9.5820 Z -1.0000
G01 X 16.6457 Y 9.5792 Z -1.0000
G01 X 16.6456 Y 9.5716 Z -1.0000
G01 X 16.6413 Y 9.5542 Z -1.0000
G01 X 16.6145 Y 9.5440 Z -1.0000
G03 X 16.5799 Y 9.5312 Z -1.0000 I -0.0000 J -0.0533
G01 X 16.5671 Y 9.5034 Z -1.0000
G03 X 16.5701 Y 9.4798 Z -1.0000 I 0.0925 J 0.0000
G01 X 16.5760 Y 9.4697 Z -1.0000
G01 X 16.5844 Y 9.4488 Z -1.0000
G02 X 16.5744 Y 9.3636 Z -1.0000 I -0.4222 J 0.0067
G01 X 16.5848 Y 9.3264 Z -1.0000
G03 X 16.6276 Y 9.3082 Z -1.0000 I 0.0426 J 0.0408
G03 X 16.6668 Y 9.3222 Z -1.0000 I -0.0002 J 0.0628
G03 X 16.6889 Y 9.3577 Z -1.0000 I -0.0400 J 0.0495
G02 X 16.7255 Y 9.4836 Z -1.0000 I 1.0223 J -0.2286
G02 X 16.7484 Y 9.5231 Z -1.0000 I 0.1196 J -0.0430
G01 X 16.7612 Y 9.5330 Z -1.0000
G01 X 16.7759 Y 9.5364 Z -1.0000
G01 X 16.8081 Y 9.5495 Z -1.0000
G03 X 16.8322 Y 9.5914 Z -1.0000 I -0.0623 J 0.0637
G02 X 16.8434 Y 9.6224 Z -1.0000 I 0.1551 J -0.0388
G02 X 16.8563 Y 9.6411 Z -1.0000 I 0.0687 J -0.0333
G01 X 16.8751 Y 9.6514 Z -1.0000
G02 X 16.9510 Y 9.6582 Z -1.0000 I 0.0759 J -0.4224
G01 X 17.0299 Y 9.6582 Z -1.0000
G01 X 17.0618 Y 9.6315 Z -1.0000
G03 X 17.1037 Y 9.6127 Z -1.0000 I 0.0543 J 0.0650
G03 X 17.2195 Y 9.6081 Z -1.0000 I 0.0793 J 0.5343
G03 X 17.2743 Y 9.6200 Z -1.0000 I -0.0130 J 0.1929
G01 X 17.2825 Y 9.6317 Z -1.0000
G01 X 17.2856 Y 9.6406 Z -1.0000
G01 X 17.2972 Y 9.6503 Z -1.0000
G02 X 17.3998 Y 9.6766 Z -1.0000 I 0.1050 J -0.1966
G02 X 17.4767 Y 9.6524 Z -1.0000 I 0.0014 J -0.1299
G02 X 17.5018 Y 9.6233 Z -1.0000 I -0.0477 J -0.0664
G02 X 17.5108 Y 9.5860 Z -1.0000 I -0.0727 J -0.0373
G01 X 17.4979 Y 9.5659 Z -1.0000
G02 X 17.4246 Y 9.5460 Z -1.0000 I -0.0944 J 0.2036
G03 X 17.3837 Y 9.5362 Z -1.0000 I 0.0142 J -0.1486
G01 X 17.3684 Y 9.5237 Z -1.0000
G01 X 17.3629 Y 9.5049 Z -1.0000
G03 X 17.3687 Y 9.4772 Z -1.0000 I 0.0712 J 0.0004
G02 X 17.3796 Y 9.4346 Z -1.0000 I -0.1304 J -0.0561
G02 X 17.3785 Y 9.3743 Z -1.0000 I -0.2657 J -0.0253
G03 X 17.3913 Y 9.3271 Z -1.0000 I 0.0629 J -0.0083
G01 X 17.4299 Y 9.3083 Z -1.0000
G03 X 17.4682 Y 9.3106 Z -1.0000 I -0.0010 J 0.3328
G01 X 17.4774 Y 9.3140 Z -1.0000
G01 X 17.4829 Y 9.3215 Z -1.0000
G03 X 17.5014 Y 9.3924 Z -1.0000 I -0.8009 J 0.2464
G02 X 17.5195 Y 9.4644 Z -1.0000 I 1.0510 J -0.2256
G02 X 17.5310 Y 9.4950 Z -1.0000 I 0.1975 J -0.0569
G02 X 17.5506 Y 9.5173 Z -1.0000 I 0.0482 J -0.0227
G02 X 17.5869 Y 9.5307 Z -1.0000 I 0.0489 J -0.0767
G03 X 17.6398 Y 9.5537 Z -1.0000 I -0.0149 J 0.1065
G01 X 17.6554 Y 9.5864 Z -1.0000
G02 X 17.6665 Y 9.6274 Z -1.0000 I 0.0810 J -0.0000
G02 X 17.6929 Y 9.6504 Z -1.0000 I 0.0474 J -0.0278
G02 X 17.7139 Y 9.6552 Z -1.0000 I 0.0253 J -0.0614
G02 X 17.7889 Y 9.6566 Z -1.0000 I 0.0515 J -0.7861
G02 X 17.8584 Y 9.6473 Z -1.0000 I -0.0100 J -0.3402
G01 X 17.8670 Y 9.6378 Z -1.0000
G01 X 17.8844 Y 9.6174 Z -1.0000
G03 X 17.9846 Y 9.6015 Z -1.0000 I 0.1058 J 0.3424
G03 X 18.0807 Y 9.6154 Z -1.0000 I 0.0047 J 0.3075
G01 X 18.0965 Y 9.6364 Z -1.0000
G01 X 18.1001 Y 9.6466 Z -1.0000
G01 X 18.1101 Y 9.6542 Z -1.0000
G02 X 18.2300 Y 9.6758 Z -1.0000 I 0.1132 J -0.2845
G02 X 18.2994 Y 9.6497 Z -1.0000 I -0.0025 J -0.1118
G02 X 18.3290 Y 9.6064 Z -1.0000 I -0.0610 J -0.0735
G02 X 18.3281 Y 9.5636 Z -1.0000 I -0.0601 J -0.0200
G01 X 18.2981 Y 9.5379 Z -1.0000
G02 X 18.2157 Y 9.5392 Z -1.0000 I -0.0384 J 0.1770
G03 X 18.1969 Y 9.5409 Z -1.0000 I -0.0146 J -0.0585
G03 X 18.1772 Y 9.5365 Z -1.0000 I 0.0048 J -0.0687
G01 X 18.1636 Y 9.5250 Z -1.0000
G01 X 18.1576 Y 9.5032 Z -1.0000
G03 X 18.1616 Y 9.4791 Z -1.0000 I 0.0756 J -0.0000
G01 X 18.1696 Y 9.4674 Z -1.0000
G01 X 18.1764 Y 9.4550 Z -1.0000
G02 X 18.1795 Y 9.3860 Z -1.0000 I -0.4580 J -0.0555
G03 X 18.1972 Y 9.3202 Z -1.0000 I 0.1184 J -0.0035
G01 X 18.2323 Y 9.3005 Z -1.0000
G03 X 18.2782 Y 9.3152 Z -1.0000 I 0.0003 J 0.0780
G01 X 18.2981 Y 9.3479 Z -1.0000
G02 X 18.3039 Y 9.3801 Z -1.0000 I 0.6008 J -0.0909
G02 X 18.3175 Y 9.4412 Z -1.0000 I 2.0344 J -0.4212
G03 X 18.3315 Y 9.5022 Z -1.0000 I -3.6429 J 0.8705
G03 X 18.3343 Y 9.5173 Z -1.0000 I -0.2273 J 0.0503
G01 X 18.3421 Y 9.5262 Z -1.0000
G02 X 18.3866 Y 9.5327 Z -1.0000 I 0.0449 J -0.1525
G03 X 18.4580 Y 9.5521 Z -1.0000 I -0.0004 J 0.1427
G01 X 18.4772 Y 9.5855 Z -1.0000
G02 X 18.4817 Y 9.6099 Z -1.0000 I 0.0694 J 0.0000
G02 X 18.4944 Y 9.6313 Z -1.0000 I 0.0664 J -0.0250
G01 X 18.5153 Y 9.6430 Z -1.0000
G02 X 18.6271 Y 9.6530 Z -1.0000 I 0.1247 J -0.7642
G02 X 18.7645 Y 9.6443 Z -1.0000 I 0.0144 J -0.8623
G01 X 18.7716 Y 9.6322 Z -1.0000
G01 X 18.7836 Y 9.6126 Z -1.0000
G03 X 18.8334 Y 9.6256 Z -1.0000 I 0.0077 J 0.0723
G02 X 18.8818 Y 9.6460 Z -1.0000 I 0.0693 J -0.0973
G02 X 19.0013 Y 9.6554 Z -1.0000 I 0.1086 J -0.6126
G02 X 19.1131 Y 9.6299 Z -1.0000 I -0.0048 J -0.2794
G02 X 19.1472 Y 9.5884 Z -1.0000 I -0.0257 J -0.0559
G03 X 19.1724 Y 9.5524 Z -1.0000 I 0.0581 J 0.0139
G03 X 19.2263 Y 9.5363 Z -1.0000 I 0.0539 J 0.0817
G03 X 19.2761 Y 9.5537 Z -1.0000 I 0.0000 J 0.0797
G03 X 19.3056 Y 9.5997 Z -1.0000 I -0.0535 J 0.0669
G02 X 19.3167 Y 9.6314 Z -1.0000 I 0.1808 J -0.0453
G01 X 19.3248 Y 9.6420 Z -1.0000
G02 X 19.4275 Y 9.6811 Z -1.0000 I 0.1087 J -0.1310
G02 X 19.5251 Y 9.6489 Z -1.0000 I 0.0052 J -0.1481
G01 X 19.5303 Y 9.6406 Z -1.0000
G01 X 19.5295 Y 9.6296 Z -1.0000
G01 X 19.5312 Y 9.6233 Z -1.0000
G01 X 19.5395 Y 9.6216 Z -1.0000
G02 X 19.5541 Y 9.6257 Z -1.0000 I 0.3423 J -1.1907
G02 X 19.5646 Y 9.6285 Z -1.0000 I 0.2214 J -0.8071
G01 X 19.5731 Y 9.6275 Z -1.0000
G01 X 19.5789 Y 9.6208 Z -1.0000
G01 X 19.5774 Y 9.6165 Z -1.0000
G01 X 19.5722 Y 9.6163 Z -1.0000
G01 X 19.5676 Y 9.6159 Z -1.0000
G03 X 19.6315 Y 9.5863 Z -1.0000 I 0.0672 J 0.0611
G03 X 19.6794 Y 9.6118 Z -1.0000 I 0.0020 J 0.0539
G01 X 19.6857 Y 9.6163 Z -1.0000
G02 X 19.7065 Y 9.6178 Z -1.0000 I 0.0156 J -0.0704
G01 X 19.7256 Y 9.6218 Z -1.0000
G01 X 19.7366 Y 9.6333 Z -1.0000
G01 X 19.7490 Y 9.6430 Z -1.0000
G02 X 19.8410 Y 9.6504 Z -1.0000 I 0.0920 J -0.5610
G02 X 19.9428 Y 9.6279 Z -1.0000 I 0.0000 J -0.2415
G02 X 19.9718 Y 9.5896 Z -1.0000 I -0.0216 J -0.0464
G03 X 19.9942 Y 9.5526 Z -1.0000 I 0.0567 J 0.0091
G03 X 20.0438 Y 9.5363 Z -1.0000 I 0.0495 J 0.0669
G03 X 20.1036 Y 9.5538 Z -1.0000 I 0.0000 J 0.1108
G01 X 20.1210 Y 9.5858 Z -1.0000
G02 X 20.1256 Y 9.6099 Z -1.0000 I 0.0663 J -0.0000
G02 X 20.1394 Y 9.6329 Z -1.0000 I 0.0746 J -0.0291
G01 X 20.1618 Y 9.6457 Z -1.0000
G02 X 20.2687 Y 9.6567 Z -1.0000 I 0.1220 J -0.6624
G01 X 20.3797 Y 9.6592 Z -1.0000
G01 X 20.3866 Y 9.6409 Z -1.0000
G03 X 20.4148 Y 9.6048 Z -1.0000 I 0.0724 J 0.0274
G01 X 20.4395 Y 9.6041 Z -1.0000
G01 X 20.4492 Y 9.6073 Z -1.0000
G02 X 20.4907 Y 9.6079 Z -1.0000 I 0.0262 J -0.3540
G03 X 20.5282 Y 9.6137 Z -1.0000 I 0.0042 J 0.0974
G01 X 20.5418 Y 9.6264 Z -1.0000
G02 X 20.5520 Y 9.6456 Z -1.0000 I 0.1290 J -0.0566
G01 X 20.5584 Y 9.6525 Z -1.0000
G02 X 20.6083 Y 9.6690 Z -1.0000 I 0.0503 J -0.0681
G02 X 20.7496 Y 9.6531 Z -1.0000 I 0.0031 J -0.6082
G02 X 20.7826 Y 9.6293 Z -1.0000 I -0.0120 J -0.0513
G02 X 20.7983 Y 9.5736 Z -1.0000 I -0.0911 J -0.0558
G01 X 20.8148 Y 9.5474 Z -1.0000
G03 X 20.8818 Y 9.5337 Z -1.0000 I 0.0611 J 0.1278
G03 X 20.9277 Y 9.5496 Z -1.0000 I -0.0036 J 0.0845
G01 X 20.9472 Y 9.5809 Z -1.0000
G02 X 20.9523 Y 9.6085 Z -1.0000 I 0.8917 J -0.1517
G02 X 20.9557 Y 9.6227 Z -1.0000 I 0.2146 J -0.0434
G01 X 20.9768 Y 9.6432 Z -1.0000
G02 X 21.0986 Y 9.6581 Z -1.0000 I 0.1218 J -0.4914
G01 X 21.1864 Y 9.6581 Z -1.0000
G01 X 21.1864 Y 9.6389 Z -1.0000
G01 X 21.2221 Y 9.6016 Z -1.0000
G01 X 21.2679 Y 9.6354 Z -1.0000
G01 X 21.2769 Y 9.6415 Z -1.0000
G01 X 21.2833 Y 9.6333 Z -1.0000
G01 X 21.2878 Y 9.6212 Z -1.0000
G01 X 21.3043 Y 9.6136 Z -1.0000
G02 X 21.3257 Y 9.6088 Z -1.0000 I -0.0110 J -0.0987
G01 X 21.3312 Y 9.6044 Z -1.0000
G01 X 21.3503 Y 9.5991 Z -1.0000
G03 X 21.3766 Y 9.6276 Z -1.0000 I -0.0256 J 0.0500
G01 X 21.4036 Y 9.6490 Z -1.0000
G02 X 21.5367 Y 9.6533 Z -1.0000 I 0.0834 J -0.5206
G02 X 21.5820 Y 9.6410 Z -1.0000 I -0.0132 J -0.1383
G02 X 21.6061 Y 9.6210 Z -1.0000 I -0.0259 J -0.0557
G02 X 21.6231 Y 9.5922 Z -1.0000 I -0.1569 J -0.1123
G02 X 21.6312 Y 9.5686 Z -1.0000 I -0.0965 J -0.0463
G01 X 21.6507 Y 9.5421 Z -1.0000
G03 X 21.7017 Y 9.5287 Z -1.0000 I 0.0509 J 0.0899
G03 X 21.7514 Y 9.5468 Z -1.0000 I -0.0000 J 0.0774
G03 X 21.7748 Y 9.5901 Z -1.0000 I -0.0430 J 0.0512
G02 X 21.7836 Y 9.6270 Z -1.0000 I 0.1603 J -0.0190
G01 X 21.7928 Y 9.6392 Z -1.0000
G02 X 21.8218 Y 9.6504 Z -1.0000 I 0.0354 J -0.0484
G02 X 21.9473 Y 9.6558 Z -1.0000 I 0.1048 J -0.9738
G01 X 22.0195 Y 9.6543 Z -1.0000
G01 X 22.0235 Y 9.6315 Z -1.0000
G01 X 22.0342 Y 9.6165 Z -1.0000
G03 X 22.0657 Y 9.6080 Z -1.0000 I 0.0327 J 0.0586
G02 X 22.1037 Y 9.6058 Z -1.0000 I -0.0080 J -0.4646
G02 X 22.1247 Y 9.6021 Z -1.0000 I -0.0143 J -0.1437
G01 X 22.1456 Y 9.6058 Z -1.0000
G03 X 22.1897 Y 9.6463 Z -1.0000 I -0.1159 J 0.1703
G02 X 22.2859 Y 9.6915 Z -1.0000 I 0.0950 J -0.0771
G02 X 22.4111 Y 9.6440 Z -1.0000 I -0.0020 J -0.1940
G02 X 22.4323 Y 9.6092 Z -1.0000 I -0.0440 J -0.0506
G01 X 22.4236 Y 9.5925 Z -1.0000
G01 X 22.4066 Y 9.5682 Z -1.0000
G01 X 22.4231 Y 9.5516 Z -1.0000
G01 X 22.4307 Y 9.5553 Z -1.0000
G01 X 22.4345 Y 9.5668 Z -1.0000
G01 X 22.4435 Y 9.5737 Z -1.0000
G01 X 22.4606 Y 9.5601 Z -1.0000
G01 X 22.4831 Y 9.5390 Z -1.0000
G03 X 22.5329 Y 9.5287 Z -1.0000 I 0.0497 J 0.1145
G03 X 22.5747 Y 9.5446 Z -1.0000 I 0.0000 J 0.0631
G03 X 22.6009 Y 9.5889 Z -1.0000 I -0.0555 J 0.0627
G02 X 22.6329 Y 9.6269 Z -1.0000 I 0.0525 J -0.0118
G02 X 22.7503 Y 9.6505 Z -1.0000 I 0.1192 J -0.2892
G02 X 22.8920 Y 9.6446 Z -1.0000 I 0.0088 J -1.4879
G01 X 22.8989 Y 9.6372 Z -1.0000
G01 X 22.9027 Y 9.6257 Z -1.0000
G03 X 22.9184 Y 9.6098 Z -1.0000 I 0.0566 J 0.0403
G01 X 22.9564 Y 9.6015 Z -1.0000
G01 X 22.9791 Y 9.6220 Z -1.0000
G02 X 22.9863 Y 9.6377 Z -1.0000 I 0.0658 J -0.0203
G01 X 22.9929 Y 9.6447 Z -1.0000
G01 X 23.0023 Y 9.6477 Z -1.0000
G02 X 23.1208 Y 9.6503 Z -1.0000 I 0.1228 J -2.8099
G01 X 23.2401 Y 9.6505 Z -1.0000
G01 X 23.2559 Y 9.6284 Z -1.0000
G02 X 23.2693 Y 9.5921 Z -1.0000 I -0.0607 J -0.0432
G01 X 23.2602 Y 9.5820 Z -1.0000
G01 X 23.2514 Y 9.5793 Z -1.0000
G01 X 23.2487 Y 9.5742 Z -1.0000
G01 X 23.2519 Y 9.5704 Z -1.0000
G01 X 23.2667 Y 9.5710 Z -1.0000
G01 X 23.2811 Y 9.5694 Z -1.0000
G01 X 23.2888 Y 9.5598 Z -1.0000
G01 X 23.3060 Y 9.5403 Z -1.0000
G03 X 23.3660 Y 9.5287 Z -1.0000 I 0.0600 J 0.1489
G03 X 23.4091 Y 9.5434 Z -1.0000 I 0.0000 J 0.0705
G01 X 23.4238 Y 9.5733 Z -1.0000
G02 X 23.4368 Y 9.6256 Z -1.0000 I 0.1112 J -0.0000
G02 X 23.4647 Y 9.6501 Z -1.0000 I 0.0466 J -0.0248
G02 X 23.4840 Y 9.6541 Z -1.0000 I 0.0222 J -0.0587
G02 X 23.5925 Y 9.6558 Z -1.0000 I 0.0837 J -1.8571
G02 X 23.6948 Y 9.6466 Z -1.0000 I -0.0096 J -0.6814
G01 X 23.7040 Y 9.6372 Z -1.0000
G01 X 23.7206 Y 9.6136 Z -1.0000
G03 X 23.7662 Y 9.6042 Z -1.0000 I 0.0389 J 0.0732
G03 X 23.8104 Y 9.6169 Z -1.0000 I -0.0093 J 0.1152
G01 X 23.8195 Y 9.6319 Z -1.0000
G01 X 23.8306 Y 9.6455 Z -1.0000
G02 X 23.9416 Y 9.6565 Z -1.0000 I 0.1109 J -0.5506
G02 X 24.0602 Y 9.6367 Z -1.0000 I -0.0001 J -0.3650
G02 X 24.0994 Y 9.6022 Z -1.0000 I -0.0224 J -0.0650
G02 X 24.1219 Y 9.5551 Z -1.0000 I -1.4532 J -0.7212
G02 X 24.1266 Y 9.5428 Z -1.0000 I -0.0931 J -0.0425
G01 X 24.1469 Y 9.5246 Z -1.0000
G03 X 24.2170 Y 9.5251 Z -1.0000 I 0.0336 J 0.1722
G03 X 24.2526 Y 9.5475 Z -1.0000 I -0.0127 J 0.0599
G03 X 24.2629 Y 9.5843 Z -1.0000 I -0.0401 J 0.0312
G02 X 24.2644 Y 9.6150 Z -1.0000 I 0.0952 J 0.0108
G01 X 24.2734 Y 9.6338 Z -1.0000
G01 X 24.2910 Y 9.6442 Z -1.0000
G02 X 24.3917 Y 9.6558 Z -1.0000 I 0.1334 J -0.7172
G01 X 24.4959 Y 9.6605 Z -1.0000
G01 X 24.5011 Y 9.6384 Z -1.0000
G01 X 24.5209 Y 9.6116 Z -1.0000
G03 X 24.5615 Y 9.6030 Z -1.0000 I 0.0332 J 0.0566
G02 X 24.5951 Y 9.6036 Z -1.0000 I 0.0203 J -0.1802
G02 X 24.6307 Y 9.5979 Z -1.0000 I -0.0153 J -0.2080
G03 X 24.6647 Y 9.5949 Z -1.0000 I 0.0264 J 0.1053
G01 X 24.6797 Y 9.6013 Z -1.0000
G03 X 24.6910 Y 9.6150 Z -1.0000 I -0.0411 J 0.0453
G03 X 24.6978 Y 9.6312 Z -1.0000 I -0.0508 J 0.0306
G01 X 24.7057 Y 9.6453 Z -1.0000
G01 X 24.7194 Y 9.6533 Z -1.0000
G02 X 24.8294 Y 9.6667 Z -1.0000 I 0.1024 J -0.3822
G02 X 24.8937 Y 9.6499 Z -1.0000 I -0.0027 J -0.1416
G01 X 24.9058 Y 9.6388 Z -1.0000
G02 X 24.9300 Y 9.5948 Z -1.0000 I -0.2608 J -0.1720
G03 X 24.9720 Y 9.5413 Z -1.0000 I 0.1281 J 0.0575
G03 X 25.0195 Y 9.5253 Z -1.0000 I 0.0467 J 0.0601
G03 X 25.0665 Y 9.5436 Z -1.0000 I -0.0007 J 0.0715
G03 X 25.0884 Y 9.5872 Z -1.0000 I -0.0446 J 0.0498
G02 X 25.1186 Y 9.6322 Z -1.0000 I 0.0566 J -0.0053
G02 X 25.2238 Y 9.6581 Z -1.0000 I 0.1052 J -0.2007
G01 X 25.3340 Y 9.6581 Z -1.0000
G01 X 25.3340 Y 9.6356 Z -1.0000
G01 X 25.3457 Y 9.6096 Z -1.0000
G01 X 25.3765 Y 9.5981 Z -1.0000
G02 X 25.3911 Y 9.5980 Z -1.0000 I 0.0039 J -0.6907
G02 X 25.4366 Y 9.5972 Z -1.0000 I -0.1050 J -6.8024
G03 X 25.4793 Y 9.6022 Z -1.0000 I 0.0034 J 0.1543
G01 X 25.4955 Y 9.6127 Z -1.0000
G03 X 25.5050 Y 9.6295 Z -1.0000 I -0.0442 J 0.0359
G01 X 25.5042 Y 9.6369 Z -1.0000
G01 X 25.5091 Y 9.6479 Z -1.0000
G02 X 25.6209 Y 9.6580 Z -1.0000 I 0.1125 J -0.6227
G01 X 25.7213 Y 9.6581 Z -1.0000
G01 X 25.7408 Y 9.6327 Z -1.0000
G02 X 25.7544 Y 9.5984 Z -1.0000 I -0.0542 J -0.0414
G01 X 25.7474 Y 9.5696 Z -1.0000
G01 X 25.7467 Y 9.5577 Z -1.0000
G01 X 25.7560 Y 9.5528 Z -1.0000
G01 X 25.7717 Y 9.5471 Z -1.0000
G02 X 25.7862 Y 9.5207 Z -1.0000 I -0.0437 J -0.0412
G03 X 25.7977 Y 9.4872 Z -1.0000 I 0.2160 J 0.0554
G03 X 25.8113 Y 9.4631 Z -1.0000 I 0.1218 J 0.0530
G02 X 25.8318 Y 9.4117 Z -1.0000 I -0.0948 J -0.0675
G01 X 25.8232 Y 9.3778 Z -1.0000
G03 X 25.8132 Y 9.3562 Z -1.0000 I 0.0481 J -0.0354
G03 X 25.8116 Y 9.3290 Z -1.0000 I 0.0761 J -0.0180
G01 X 25.8267 Y 9.3085 Z -1.0000
G01 X 25.8416 Y 9.3157 Z -1.0000
G01 X 25.8510 Y 9.3199 Z -1.0000
G01 X 25.8590 Y 9.3068 Z -1.0000
G03 X 25.8629 Y 9.2837 Z -1.0000 I 0.0702 J -0.0000
G03 X 25.8811 Y 9.2435 Z -1.0000 I 0.2312 J 0.0804
G02 X 25.9012 Y 9.2035 Z -1.0000 I -0.4108 J -0.2319
G02 X 25.9128 Y 9.1724 Z -1.0000 I -0.2368 J -0.1055
G02 X 25.9147 Y 9.1422 Z -1.0000 I -0.0637 J -0.0192
G01 X 25.9043 Y 9.1212 Z -1.0000
G03 X 25.8926 Y 9.1013 Z -1.0000 I 0.0382 J -0.0359
G01 X 25.8941 Y 9.0894 Z -1.0000
G01 X 25.9128 Y 9.0779 Z -1.0000
G01 X 25.9251 Y 9.0865 Z -1.0000
G01 X 25.9344 Y 9.0890 Z -1.0000
G01 X 25.9417 Y 9.0697 Z -1.0000
G03 X 25.9469 Y 9.0254 Z -1.0000 I 0.1236 J -0.0077
G03 X 25.9655 Y 8.9922 Z -1.0000 I 0.0867 J 0.0268
G02 X 26.0109 Y 8.9169 Z -1.0000 I -0.1848 J -0.1627
G01 X 26.0025 Y 8.8947 Z -1.0000
G03 X 25.9757 Y 8.8630 Z -1.0000 I 0.0257 J -0.0488
G01 X 25.9818 Y 8.8312 Z -1.0000
G01 X 25.9942 Y 8.8311 Z -1.0000
G01 X 26.0042 Y 8.8576 Z -1.0000
G01 X 26.0049 Y 8.8857 Z -1.0000
G01 X 26.0148 Y 8.8633 Z -1.0000
G02 X 26.0211 Y 8.8404 Z -1.0000 I -0.0770 J -0.0337
G02 X 26.0212 Y 8.8138 Z -1.0000 I -0.1031 J -0.0134
G03 X 26.0236 Y 8.7881 Z -1.0000 I 0.0588 J -0.0075
G03 X 26.0416 Y 8.7510 Z -1.0000 I 0.1425 J 0.0461
G02 X 26.0892 Y 8.6569 Z -1.0000 I -0.3650 J -0.2438
G02 X 26.1025 Y 8.5832 Z -1.0000 I -0.2084 J -0.0757
G01 X 26.0990 Y 8.5735 Z -1.0000
G01 X 26.0912 Y 8.5699 Z -1.0000
G01 X 26.0846 Y 8.5747 Z -1.0000
G02 X 26.0798 Y 8.6079 Z -1.0000 I 0.1105 J 0.0332
G01 X 26.0698 Y 8.6344 Z -1.0000
G01 X 26.0566 Y 8.6342 Z -1.0000
G01 X 26.0526 Y 8.6217 Z -1.0000
G03 X 26.0590 Y 8.5969 Z -1.0000 I 0.0673 J 0.0043
G01 X 26.0622 Y 8.5755 Z -1.0000
G01 X 26.0545 Y 8.5669 Z -1.0000
G02 X 26.0377 Y 8.5645 Z -1.0000 I -0.0176 J 0.0640
G02 X 25.6479 Y 8.5623 Z -1.0000 I -0.4071 J 37.0179
G01 X 25.2579 Y 8.5622 Z -1.0000
G01 X 25.2579 Y 8.5409 Z -1.0000
G03 X 25.2618 Y 8.5208 Z -1.0000 I 0.0535 J -0.0000
G03 X 25.2769 Y 8.4937 Z -1.0000 I 0.1157 J 0.0468
G02 X 25.2936 Y 8.4672 Z -1.0000 I -0.1748 J -0.1289
G01 X 25.2959 Y 8.4581 Z -1.0000
G01 X 25.2973 Y 8.4485 Z -1.0000
G03 X 25.3187 Y 8.3796 Z -1.0000 I 1.8195 J 0.5287
G02 X 25.3397 Y 8.3105 Z -1.0000 I -1.3018 J -0.4327
G02 X 25.3416 Y 8.2966 Z -1.0000 I -0.0509 J -0.0140
G01 X 25.3288 Y 8.2764 Z -1.0000
G01 X 25.3104 Y 8.2818 Z -1.0000
G01 X 25.3037 Y 8.2852 Z -1.0000
G01 X 25.2915 Y 8.2802 Z -1.0000
G02 X 25.1484 Y 8.2277 Z -1.0000 I -0.1455 J 0.1752
G02 X 24.6700 Y 8.2738 Z -1.0000 I -0.0237 J 2.2586
G02 X 24.6177 Y 8.3011 Z -1.0000 I 0.0216 J 0.1051
G02 X 24.5980 Y 8.3422 Z -1.0000 I 0.0440 J 0.0463
G01 X 24.6028 Y 8.3720 Z -1.0000
G01 X 24.6091 Y 8.3891 Z -1.0000
G01 X 24.6014 Y 8.4100 Z -1.0000
G01 X 24.5948 Y 8.4082 Z -1.0000
G01 X 24.5889 Y 8.4081 Z -1.0000
G02 X 24.5813 Y 8.5185 Z -1.0000 I 1.0282 J 0.1262
G03 X 24.5727 Y 8.5543 Z -1.0000 I -0.0839 J -0.0013
G01 X 24.5597 Y 8.5624 Z -1.0000
G02 X 24.3788 Y 8.5696 Z -1.0000 I 0.0222 J 2.8606
G02 X 24.3438 Y 8.5779 Z -1.0000 I 0.0079 J 0.1115
G01 X 24.3280 Y 8.5977 Z -1.0000
G02 X 24.3177 Y 8.7318 Z -1.0000 I 0.7275 J 0.1234
G01 X 24.3190 Y 8.8215 Z -1.0000
G01 X 24.2310 Y 8.8194 Z -1.0000
G01 X 24.1430 Y 8.8173 Z -1.0000
G01 X 24.1442 Y 8.7920 Z -1.0000
G03 X 24.1490 Y 8.7683 Z -1.0000 I 0.0811 J 0.0038
G01 X 24.1586 Y 8.7522 Z -1.0000
G02 X 24.2143 Y 8.6457 Z -1.0000 I -0.1777 J -0.1608
G02 X 24.1987 Y 8.5797 Z -1.0000 I -0.0744 J -0.0173
G01 X 24.1866 Y 8.5796 Z -1.0000
G01 X 24.1773 Y 8.6048 Z -1.0000
G03 X 24.1717 Y 8.6327 Z -1.0000 I -0.0730 J 0.0000
G01 X 24.1640 Y 8.6369 Z -1.0000
G01 X 24.1562 Y 8.6299 Z -1.0000
G03 X 24.1530 Y 8.6028 Z -1.0000 I 0.0678 J -0.0218
G01 X 24.1553 Y 8.5715 Z -1.0000
G01 X 24.1187 Y 8.5673 Z -1.0000
G02 X 24.0821 Y 8.5650 Z -1.0000 I -0.0404 J 0.3531
G02 X 23.8624 Y 8.5647 Z -1.0000 I -0.1277 J 12.3339
G03 X 23.6428 Y 8.5646 Z -1.0000 I -0.1018 J -13.4277
G03 X 23.6037 Y 8.5624 Z -1.0000 I 0.0037 J -0.4204
G01 X 23.5647 Y 8.5585 Z -1.0000
G01 X 23.5668 Y 8.5322 Z -1.0000
G03 X 23.5721 Y 8.5072 Z -1.0000 I 0.1009 J 0.0084
G01 X 23.5803 Y 8.4933 Z -1.0000
G01 X 23.5874 Y 8.4800 Z -1.0000
G01 X 23.5868 Y 8.4682 Z -1.0000
G01 X 23.5854 Y 8.4562 Z -1.0000
G01 X 23.5902 Y 8.4456 Z -1.0000
G02 X 23.6311 Y 8.3632 Z -1.0000 I -0.1540 J -0.1279
G02 X 23.6262 Y 8.2913 Z -1.0000 I -0.1197 J -0.0279
G01 X 23.6199 Y 8.2840 Z -1.0000
G01 X 23.6075 Y 8.2807 Z -1.0000
G01 X 23.5997 Y 8.2863 Z -1.0000
G01 X 23.5987 Y 8.3066 Z -1.0000
G01 X 23.5945 Y 8.3365 Z -1.0000
G01 X 23.5814 Y 8.3384 Z -1.0000
G01 X 23.5747 Y 8.3250 Z -1.0000
G03 X 23.5761 Y 8.3032 Z -1.0000 I 0.0508 J -0.0076
G02 X 23.5779 Y 8.2824 Z -1.0000 I -0.0520 J -0.0148
G01 X 23.5731 Y 8.2762 Z -1.0000
G01 X 23.5632 Y 8.2744 Z -1.0000
G02 X 23.2343 Y 8.2747 Z -1.0000 I -0.1340 J 29.3966
G02 X 22.9084 Y 8.2833 Z -1.0000 I 0.0544 J 8.2507
G01 X 22.8954 Y 8.2903 Z -1.0000
G02 X 22.8649 Y 8.3706 Z -1.0000 I 0.1306 J 0.0955
G02 X 22.8824 Y 8.4279 Z -1.0000 I 0.0785 J 0.0074
G01 X 22.8866 Y 8.4379 Z -1.0000
G03 X 22.8900 Y 8.4995 Z -1.0000 I -0.6170 J 0.0652
G01 X 22.8904 Y 8.5623 Z -1.0000
G01 X 22.8023 Y 8.5623 Z -1.0000
G01 X 22.7141 Y 8.5623 Z -1.0000
G01 X 22.7186 Y 8.5347 Z -1.0000
G03 X 22.7260 Y 8.5085 Z -1.0000 I 0.1241 J 0.0205
G01 X 22.7349 Y 8.4941 Z -1.0000
G01 X 22.7427 Y 8.4793 Z -1.0000
G02 X 22.7587 Y 8.3942 Z -1.0000 I -0.8771 J -0.2089
G02 X 22.7644 Y 8.2895 Z -1.0000 I -0.6202 J -0.0860
G01 X 22.7553 Y 8.2807 Z -1.0000
G01 X 22.7471 Y 8.2863 Z -1.0000
G02 X 22.7429 Y 8.3115 Z -1.0000 I 0.0544 J 0.0219
G03 X 22.7392 Y 8.3361 Z -1.0000 I -0.0604 J 0.0034
G01 X 22.7323 Y 8.3399 Z -1.0000
G01 X 22.7248 Y 8.3336 Z -1.0000
G03 X 22.7200 Y 8.3076 Z -1.0000 I 0.0684 J -0.0260
G01 X 22.7122 Y 8.2841 Z -1.0000
G01 X 22.6934 Y 8.2721 Z -1.0000
G02 X 22.2777 Y 8.2300 Z -1.0000 I -0.4091 J 1.9629
G02 X 21.8604 Y 8.2746 Z -1.0000 I 0.0067 J 2.0350
G01 X 21.8601 Y 8.2748 Z -1.0000
G00 Z 5.0000

(End cutting path id: path42133)


(Start cutting path id: path42133)
(Change tool to Default tool)

G00 Z 5.0000
G00 X 22.0035 Y 8.3761

G01 Z -1.0000 F 100.0000(Penetrate)
G01 X 22.0020 Y 8.3851 Z -1.0000 F 3500.0000
G01 X 21.9877 Y 8.3954 Z -1.0000
G01 X 21.9580 Y 8.3954 Z -1.0000
G01 X 21.9473 Y 8.3799 Z -1.0000
G01 X 21.9529 Y 8.3700 Z -1.0000
G01 X 21.9732 Y 8.3644 Z -1.0000
G03 X 21.9961 Y 8.3687 Z -1.0000 I -0.0000 J 0.0635
G01 X 22.0035 Y 8.3761 Z -1.0000
G01 X 22.0035 Y 8.3761 Z -1.0000
G00 Z 5.0000

(End cutting path id: path42133)


(Start cutting path id: path42133)
(Change tool to Default tool)

G00 Z 5.0000
G00 X 22.0995 Y 8.3797

G01 Z -1.0000 F 100.0000(Penetrate)
G01 X 22.0940 Y 8.3896 Z -1.0000 F 3500.0000
G01 X 22.0729 Y 8.3961 Z -1.0000
G02 X 22.0463 Y 8.3973 Z -1.0000 I 0.1086 J 2.5332
G02 X 22.0368 Y 8.3980 Z -1.0000 I 0.0221 J 0.4145
G01 X 22.0303 Y 8.3950 Z -1.0000
G01 X 22.0248 Y 8.3816 Z -1.0000
G01 X 22.0303 Y 8.3714 Z -1.0000
G03 X 22.0610 Y 8.3645 Z -1.0000 I 0.0306 J 0.0646
G03 X 22.0934 Y 8.3706 Z -1.0000 I -0.0000 J 0.0883
G01 X 22.0995 Y 8.3797 Z -1.0000
G01 X 22.0995 Y 8.3797 Z -1.0000
G00 Z 5.0000

(End cutting path id: path42133)


(Start cutting path id: path42133)
(Change tool to Default tool)

G00 Z 5.0000
G00 X 22.1368 Y 8.3703

G01 Z -1.0000 F 100.0000(Penetrate)
G01 X 22.1455 Y 8.3754 Z -1.0000 F 3500.0000
G01 X 22.1577 Y 8.3704 Z -1.0000
G01 X 22.1712 Y 8.3647 Z -1.0000
G01 X 22.1849 Y 8.3698 Z -1.0000
G01 X 22.1979 Y 8.3744 Z -1.0000
G01 X 22.2089 Y 8.3685 Z -1.0000
G01 X 22.2262 Y 8.3623 Z -1.0000
G01 X 22.2365 Y 8.3755 Z -1.0000
G01 X 22.2252 Y 8.3982 Z -1.0000
G01 X 22.2101 Y 8.3954 Z -1.0000
G01 X 22.2039 Y 8.3919 Z -1.0000
G01 X 22.1904 Y 8.3953 Z -1.0000
G01 X 22.1757 Y 8.3990 Z -1.0000
G01 X 22.1609 Y 8.3953 Z -1.0000
G01 X 22.1473 Y 8.3918 Z -1.0000
G01 X 22.1414 Y 8.3950 Z -1.0000
G01 X 22.1177 Y 8.3988 Z -1.0000
G01 X 22.1099 Y 8.3684 Z -1.0000
G01 X 22.1218 Y 8.3608 Z -1.0000
G01 X 22.1368 Y 8.3703 Z -1.0000
G01 X 22.1368 Y 8.3703 Z -1.0000
G00 Z 5.0000

(End cutting path id: path42133)


(Start cutting path id: path42133)
(Change tool to Default tool)

G00 Z 5.0000
G00 X 22.2975 Y 8.3702

G01 Z -1.0000 F 100.0000(Penetrate)
G01 X 22.3105 Y 8.3541 Z -1.0000 F 3500.0000
G01 X 22.3201 Y 8.3720 Z -1.0000
G01 X 22.3297 Y 8.3899 Z -1.0000
G01 X 22.3440 Y 8.3715 Z -1.0000
G01 X 22.3579 Y 8.3616 Z -1.0000
G01 X 22.3654 Y 8.3642 Z -1.0000
G01 X 22.3607 Y 8.3831 Z -1.0000
G03 X 22.3051 Y 8.3981 Z -1.0000 I -0.0575 J -0.1022
G03 X 22.2544 Y 8.3857 Z -1.0000 I -0.0016 J -0.1033
G01 X 22.2474 Y 8.3670 Z -1.0000
G01 X 22.2542 Y 8.3630 Z -1.0000
G01 X 22.2684 Y 8.3702 Z -1.0000
G01 X 22.2845 Y 8.3862 Z -1.0000
G01 X 22.2975 Y 8.3702 Z -1.0000
G00 Z 5.0000

(End cutting path id: path42133)


(Start cutting path id: path42133)
(Change tool to Default tool)

G00 Z 5.0000
G00 X 22.4564 Y 8.3674

G01 Z -1.0000 F 100.0000(Penetrate)
G01 X 22.4618 Y 8.3783 Z -1.0000 F 3500.0000
G01 X 22.4609 Y 8.3888 Z -1.0000
G01 X 22.4529 Y 8.3948 Z -1.0000
G03 X 22.3869 Y 8.3954 Z -1.0000 I -0.0363 J -0.4079
G01 X 22.3835 Y 8.3928 Z -1.0000
G01 X 22.3812 Y 8.3802 Z -1.0000
G01 X 22.3866 Y 8.3704 Z -1.0000
G03 X 22.4097 Y 8.3624 Z -1.0000 I 0.0287 J 0.0462
G02 X 22.4382 Y 8.3591 Z -1.0000 I -0.0960 J -0.9416
G01 X 22.4430 Y 8.3581 Z -1.0000
G01 X 22.4471 Y 8.3588 Z -1.0000
G01 X 22.4565 Y 8.3673 Z -1.0000
G01 X 22.4564 Y 8.3674 Z -1.0000
G00 Z 5.0000

(End cutting path id: path42133)


(Start cutting path id: path42133)
(Change tool to Default tool)

G00 Z 5.0000
G00 X 22.5029 Y 8.3951

G01 Z -1.0000 F 100.0000(Penetrate)
G03 X 22.4911 Y 8.4013 Z -1.0000 I -0.0433 J -0.0682 F 3500.0000
G01 X 22.4855 Y 8.4025 Z -1.0000
G01 X 22.4744 Y 8.3942 Z -1.0000
G01 X 22.4757 Y 8.3670 Z -1.0000
G01 X 22.4825 Y 8.3632 Z -1.0000
G01 X 22.4975 Y 8.3711 Z -1.0000
G01 X 22.5062 Y 8.3870 Z -1.0000
G01 X 22.5029 Y 8.3952 Z -1.0000
G01 X 22.5029 Y 8.3951 Z -1.0000
G00 Z 5.0000

(End cutting path id: path42133)


(Start cutting path id: path42133)
(Change tool to Default tool)

G00 Z 5.0000
G00 X 22.5485 Y 8.3797

G01 Z -1.0000 F 100.0000(Penetrate)
G01 X 22.5391 Y 8.3979 Z -1.0000 F 3500.0000
G01 X 22.5243 Y 8.3966 Z -1.0000
G01 X 22.5211 Y 8.3884 Z -1.0000
G01 X 22.5253 Y 8.3727 Z -1.0000
G01 X 22.5391 Y 8.3671 Z -1.0000
G01 X 22.5485 Y 8.3797 Z -1.0000
G01 X 22.5485 Y 8.3797 Z -1.0000
G00 Z 5.0000

(End cutting path id: path42133)


(Start cutting path id: path42133)
(Change tool to Default tool)

G00 Z 5.0000
G00 X 22.6385 Y 8.3817

G01 Z -1.0000 F 100.0000(Penetrate)
G01 X 22.6276 Y 8.4062 Z -1.0000 F 3500.0000
G01 X 22.6094 Y 8.4026 Z -1.0000
G01 X 22.6017 Y 8.3969 Z -1.0000
G01 X 22.5877 Y 8.3969 Z -1.0000
G01 X 22.5610 Y 8.3903 Z -1.0000
G01 X 22.5607 Y 8.3724 Z -1.0000
G01 X 22.5796 Y 8.3625 Z -1.0000
G03 X 22.6246 Y 8.3599 Z -1.0000 I 0.0319 J 0.1641
G01 X 22.6324 Y 8.3646 Z -1.0000
G01 X 22.6385 Y 8.3817 Z -1.0000
G01 X 22.6385 Y 8.3817 Z -1.0000
G00 Z 5.0000

(End cutting path id: path42133)


(Start cutting path id: path42133)
(Change tool to Default tool)

G00 Z 5.0000
G00 X 22.4889 Y 8.6116

G01 Z -1.0000 F 100.0000(Penetrate)
G01 X 22.4864 Y 8.6306 Z -1.0000 F 3500.0000
G01 X 22.4791 Y 8.6367 Z -1.0000
G01 X 22.4646 Y 8.6282 Z -1.0000
G01 X 22.4653 Y 8.5952 Z -1.0000
G01 X 22.4770 Y 8.5916 Z -1.0000
G01 X 22.4889 Y 8.6116 Z -1.0000
G01 X 22.4889 Y 8.6116 Z -1.0000
G00 Z 5.0000

(End cutting path id: path42133)


(Start cutting path id: path42133)
(Change tool to Default tool)

G00 Z 5.0000
G00 X 22.6358 Y 8.6802

G01 Z -1.0000 F 100.0000(Penetrate)
G03 X 22.6358 Y 8.8017 Z -1.0000 I -4.4928 J 0.0623 F 3500.0000
G01 X 22.6341 Y 8.8115 Z -1.0000
G01 X 22.5927 Y 8.8410 Z -1.0000
G03 X 22.4806 Y 8.8137 Z -1.0000 I -0.0031 J -0.2315
G01 X 22.4700 Y 8.7936 Z -1.0000
G03 X 22.4881 Y 8.7450 Z -1.0000 I 0.1049 J 0.0114
G02 X 22.5241 Y 8.6557 Z -1.0000 I -0.1795 J -0.1243
G02 X 22.5158 Y 8.5748 Z -1.0000 I -0.1539 J -0.0250
G01 X 22.5212 Y 8.5642 Z -1.0000
G03 X 22.5818 Y 8.5571 Z -1.0000 I 0.0548 J 0.2043
G01 X 22.6341 Y 8.5586 Z -1.0000
G01 X 22.6358 Y 8.6802 Z -1.0000
G00 Z 5.0000

(End cutting path id: path42133)


(Start cutting path id: path42133)
(Change tool to Default tool)

G00 Z 5.0000
G00 X 22.5847 Y 8.9410

G01 Z -1.0000 F 100.0000(Penetrate)
G01 X 22.5826 Y 8.9466 Z -1.0000 F 3500.0000
G01 X 22.5685 Y 8.9505 Z -1.0000
G01 X 22.5493 Y 8.9568 Z -1.0000
G02 X 22.5227 Y 8.9841 Z -1.0000 I 0.0678 J 0.0924
G01 X 22.5015 Y 8.9906 Z -1.0000
G01 X 22.4877 Y 8.9704 Z -1.0000
G01 X 22.5017 Y 8.9413 Z -1.0000
G03 X 22.5394 Y 8.9292 Z -1.0000 I 0.0347 J 0.0436
G03 X 22.5787 Y 8.9353 Z -1.0000 I -0.0100 J 0.1942
G01 X 22.5847 Y 8.9410 Z -1.0000
G01 X 22.5847 Y 8.9410 Z -1.0000
G00 Z 5.0000

(End cutting path id: path42133)


(Start cutting path id: path42133)
(Change tool to Default tool)

G00 Z 5.0000
G00 X 22.6246 Y 9.1027

G01 Z -1.0000 F 100.0000(Penetrate)
G01 X 22.6157 Y 9.1180 Z -1.0000 F 3500.0000
G01 X 22.6045 Y 9.1140 Z -1.0000
G01 X 22.6057 Y 9.0897 Z -1.0000
G01 X 22.6218 Y 9.0798 Z -1.0000
G01 X 22.6247 Y 9.1027 Z -1.0000
G01 X 22.6246 Y 9.1027 Z -1.0000
G00 Z 5.0000

(End cutting path id: path42133)


(Start cutting path id: path42133)
(Change tool to Default tool)

G00 Z 5.0000
G00 X 22.7588 Y 9.0628

G01 Z -1.0000 F 100.0000(Penetrate)
G01 X 22.7638 Y 9.0706 Z -1.0000 F 3500.0000
G03 X 22.7730 Y 9.1559 Z -1.0000 I -0.9575 J 0.1466
G03 X 22.7749 Y 9.2892 Z -1.0000 I -1.3392 J 0.0853
G01 X 22.7678 Y 9.3016 Z -1.0000
G03 X 22.7218 Y 9.3153 Z -1.0000 I -0.0471 J -0.0742
G03 X 22.6266 Y 9.3034 Z -1.0000 I -0.0042 J -0.3525
G01 X 22.6096 Y 9.2818 Z -1.0000
G03 X 22.6250 Y 9.2333 Z -1.0000 I 0.0785 J -0.0018
G02 X 22.6358 Y 9.2104 Z -1.0000 I -0.0525 J -0.0388
G02 X 22.6489 Y 9.1389 Z -1.0000 I -0.5261 J -0.1329
G03 X 22.6634 Y 9.0711 Z -1.0000 I 0.3512 J 0.0398
G01 X 22.6733 Y 9.0623 Z -1.0000
G03 X 22.7370 Y 9.0563 Z -1.0000 I 0.0617 J 0.3160
G01 X 22.7589 Y 9.0628 Z -1.0000
G01 X 22.7588 Y 9.0628 Z -1.0000
G00 Z 5.0000

(End cutting path id: path42133)


(Start cutting path id: path42133)
(Change tool to Default tool)

G00 Z 5.0000
G00 X 22.8744 Y 8.8655

G01 Z -1.0000 F 100.0000(Penetrate)
G01 X 22.8722 Y 8.8779 Z -1.0000 F 3500.0000
G01 X 22.8653 Y 8.8820 Z -1.0000
G01 X 22.8502 Y 8.8735 Z -1.0000
G01 X 22.8484 Y 8.8544 Z -1.0000
G01 X 22.8615 Y 8.8488 Z -1.0000
G01 X 22.8744 Y 8.8655 Z -1.0000
G01 X 22.8744 Y 8.8655 Z -1.0000
G00 Z 5.0000

(End cutting path id: path42133)


(Start cutting path id: path42133)
(Change tool to Default tool)

G00 Z 5.0000
G00 X 23.0115 Y 8.8174

G01 Z -1.0000 F 100.0000(Penetrate)
G01 X 23.0128 Y 8.8203 Z -1.0000 F 3500.0000
G03 X 23.0164 Y 8.9137 Z -1.0000 I -3.6553 J 0.1855
G02 X 23.0194 Y 9.0075 Z -1.0000 I 6.5154 J -0.1641
G01 X 23.0205 Y 9.0152 Z -1.0000
G01 X 23.0215 Y 9.0229 Z -1.0000
G03 X 23.0213 Y 9.0440 Z -1.0000 I -0.3155 J 0.0085
G01 X 23.0204 Y 9.0652 Z -1.0000
G01 X 22.9348 Y 9.0630 Z -1.0000
G01 X 22.8492 Y 9.0608 Z -1.0000
G01 X 22.8467 Y 9.0390 Z -1.0000
G01 X 22.8490 Y 9.0189 Z -1.0000
G03 X 22.8605 Y 9.0000 Z -1.0000 I 0.0506 J 0.0178
G02 X 22.8842 Y 8.9559 Z -1.0000 I -0.0705 J -0.0662
G02 X 22.8984 Y 8.8387 Z -1.0000 I -0.5236 J -0.1231
G01 X 22.9033 Y 8.8180 Z -1.0000
G01 X 22.9120 Y 8.8107 Z -1.0000
G03 X 22.9802 Y 8.8035 Z -1.0000 I 0.0550 J 0.1924
G01 X 23.0115 Y 8.8173 Z -1.0000
G01 X 23.0115 Y 8.8174 Z -1.0000
G00 Z 5.0000

(End cutting path id: path42133)


(Start cutting path id: path42133)
(Change tool to Default tool)

G00 Z 5.0000
G00 X 23.0299 Y 8.7425

G01 Z -1.0000 F 100.0000(Penetrate)
G01 X 23.0373 Y 8.7582 Z -1.0000 F 3500.0000
G01 X 23.0261 Y 8.7684 Z -1.0000
G02 X 22.9791 Y 8.7729 Z -1.0000 I 0.0263 J 0.5180
G02 X 22.9541 Y 8.7786 Z -1.0000 I 0.0221 J 0.1545
G01 X 22.9350 Y 8.7737 Z -1.0000
G01 X 22.9352 Y 8.7587 Z -1.0000
G01 X 22.9397 Y 8.7501 Z -1.0000
G01 X 22.9387 Y 8.7393 Z -1.0000
G01 X 22.9419 Y 8.7338 Z -1.0000
G03 X 22.9793 Y 8.7334 Z -1.0000 I 0.0201 J 0.1373
G03 X 23.0238 Y 8.7402 Z -1.0000 I -0.1054 J 0.8412
G01 X 23.0299 Y 8.7425 Z -1.0000
G01 X 23.0299 Y 8.7425 Z -1.0000
G00 Z 5.0000

(End cutting path id: path42133)


(Start cutting path id: path42133)
(Change tool to Default tool)

G00 Z 5.0000
G00 X 23.0128 Y 8.6563

G01 Z -1.0000 F 100.0000(Penetrate)
G01 X 23.0054 Y 8.6690 Z -1.0000 F 3500.0000
G01 X 22.9925 Y 8.6680 Z -1.0000
G01 X 22.9878 Y 8.6539 Z -1.0000
G01 X 22.9975 Y 8.6461 Z -1.0000
G01 X 23.0092 Y 8.6497 Z -1.0000
G01 X 23.0128 Y 8.6563 Z -1.0000
G01 X 23.0128 Y 8.6563 Z -1.0000
G00 Z 5.0000

(End cutting path id: path42133)


(Start cutting path id: path42133)
(Change tool to Default tool)

G00 Z 5.0000
G00 X 23.3324 Y 8.6126

G01 Z -1.0000 F 100.0000(Penetrate)
G01 X 23.3284 Y 8.6268 Z -1.0000 F 3500.0000
G01 X 23.3214 Y 8.6308 Z -1.0000
G01 X 23.3076 Y 8.6224 Z -1.0000
G01 X 23.3057 Y 8.6006 Z -1.0000
G01 X 23.3204 Y 8.5940 Z -1.0000
G01 X 23.3324 Y 8.6126 Z -1.0000
G01 X 23.3324 Y 8.6126 Z -1.0000
G00 Z 5.0000

(End cutting path id: path42133)


(Start cutting path id: path42133)
(Change tool to Default tool)

G00 Z 5.0000
G00 X 23.4207 Y 8.5103

G01 Z -1.0000 F 100.0000(Penetrate)
G01 X 23.4256 Y 8.5124 Z -1.0000 F 3500.0000
G01 X 23.4320 Y 8.5079 Z -1.0000
G01 X 23.4390 Y 8.5037 Z -1.0000
G01 X 23.4476 Y 8.5069 Z -1.0000
G01 X 23.4571 Y 8.5112 Z -1.0000
G01 X 23.4666 Y 8.5081 Z -1.0000
G01 X 23.4824 Y 8.5077 Z -1.0000
G01 X 23.4922 Y 8.5274 Z -1.0000
G01 X 23.4862 Y 8.5398 Z -1.0000
G01 X 23.4640 Y 8.5496 Z -1.0000
G03 X 23.4375 Y 8.5505 Z -1.0000 I -0.0167 J -0.1035
G01 X 23.4310 Y 8.5464 Z -1.0000
G01 X 23.4245 Y 8.5414 Z -1.0000
G02 X 23.3987 Y 8.5369 Z -1.0000 I -0.0338 J 0.1164
G03 X 23.3690 Y 8.5267 Z -1.0000 I 0.0038 J -0.0601
G01 X 23.3650 Y 8.5142 Z -1.0000
G01 X 23.3910 Y 8.4950 Z -1.0000
G01 X 23.4207 Y 8.5102 Z -1.0000
G01 X 23.4207 Y 8.5103 Z -1.0000
G00 Z 5.0000

(End cutting path id: path42133)


(Start cutting path id: path42133)
(Change tool to Default tool)

G00 Z 5.0000
G00 X 23.4784 Y 8.5723

G01 Z -1.0000 F 100.0000(Penetrate)
G01 X 23.4809 Y 8.5806 Z -1.0000 F 3500.0000
G01 X 23.4787 Y 8.5885 Z -1.0000
G01 X 23.4761 Y 8.5970 Z -1.0000
G02 X 23.4735 Y 8.7068 Z -1.0000 I 2.7451 J 0.1189
G01 X 23.4732 Y 8.8172 Z -1.0000
G01 X 23.4047 Y 8.8191 Z -1.0000
G03 X 23.3163 Y 8.8066 Z -1.0000 I -0.0074 J -0.2654
G01 X 23.3043 Y 8.7869 Z -1.0000
G03 X 23.3117 Y 8.7629 Z -1.0000 I 0.0912 J 0.0148
G03 X 23.3229 Y 8.7468 Z -1.0000 I 0.0511 J 0.0237
G01 X 23.3328 Y 8.7300 Z -1.0000
G02 X 23.3515 Y 8.6476 Z -1.0000 I -0.7022 J -0.2025
G03 X 23.3856 Y 8.5799 Z -1.0000 I 0.1260 J 0.0210
G03 X 23.4351 Y 8.5611 Z -1.0000 I 0.0447 J 0.0432
G03 X 23.4714 Y 8.5672 Z -1.0000 I -0.0156 J 0.2045
G01 X 23.4784 Y 8.5723 Z -1.0000
G01 X 23.4784 Y 8.5723 Z -1.0000
G00 Z 5.0000

(End cutting path id: path42133)


(Start cutting path id: path42133)
(Change tool to Default tool)

G00 Z 5.0000
G00 X 23.4337 Y 8.3804

G01 Z -1.0000 F 100.0000(Penetrate)
G01 X 23.4348 Y 8.3931 Z -1.0000 F 3500.0000
G01 X 23.4325 Y 8.3955 Z -1.0000
G03 X 23.3648 Y 8.3937 Z -1.0000 I -0.0278 J -0.2375
G01 X 23.3552 Y 8.3824 Z -1.0000
G01 X 23.3896 Y 8.3472 Z -1.0000
G01 X 23.4337 Y 8.3804 Z -1.0000
G01 X 23.4337 Y 8.3804 Z -1.0000
G00 Z 5.0000

(End cutting path id: path42133)


(Start cutting path id: path42133)
(Change tool to Default tool)

G00 Z 5.0000
G00 X 23.4755 Y 8.3736

G01 Z -1.0000 F 100.0000(Penetrate)
G01 X 23.4804 Y 8.3928 Z -1.0000 F 3500.0000
G01 X 23.4675 Y 8.4012 Z -1.0000
G01 X 23.4544 Y 8.3946 Z -1.0000
G01 X 23.4479 Y 8.3816 Z -1.0000
G01 X 23.4562 Y 8.3687 Z -1.0000
G01 X 23.4754 Y 8.3736 Z -1.0000
G01 X 23.4755 Y 8.3736 Z -1.0000
G00 Z 5.0000

(End cutting path id: path42133)


(Start cutting path id: path42133)
(Change tool to Default tool)

G00 Z 5.0000
G00 X 23.5226 Y 8.3799

G01 Z -1.0000 F 100.0000(Penetrate)
G01 X 23.5191 Y 8.3929 Z -1.0000 F 3500.0000
G01 X 23.5109 Y 8.3999 Z -1.0000
G01 X 23.4987 Y 8.3964 Z -1.0000
G01 X 23.4958 Y 8.3802 Z -1.0000
G01 X 23.5113 Y 8.3687 Z -1.0000
G01 X 23.5227 Y 8.3799 Z -1.0000
G01 X 23.5226 Y 8.3799 Z -1.0000
G00 Z 5.0000

(End cutting path id: path42133)


(Start cutting path id: path42133)
(Change tool to Default tool)

G00 Z 5.0000
G00 X 23.3463 Y 8.3749

G01 Z -1.0000 F 100.0000(Penetrate)
G01 X 23.3402 Y 8.4026 Z -1.0000 F 3500.0000
G01 X 23.3239 Y 8.4057 Z -1.0000
G01 X 23.3127 Y 8.3864 Z -1.0000
G01 X 23.3224 Y 8.3617 Z -1.0000
G01 X 23.3354 Y 8.3599 Z -1.0000
G01 X 23.3464 Y 8.3749 Z -1.0000
G01 X 23.3463 Y 8.3749 Z -1.0000
G00 Z 5.0000

(End cutting path id: path42133)


(Start cutting path id: path42133)
(Change tool to Default tool)

G00 Z 5.0000
G00 X 23.3014 Y 8.3710

G01 Z -1.0000 F 100.0000(Penetrate)
G01 X 23.2998 Y 8.4028 Z -1.0000 F 3500.0000
G01 X 23.2787 Y 8.4050 Z -1.0000
G01 X 23.2681 Y 8.3726 Z -1.0000
G01 X 23.2866 Y 8.3569 Z -1.0000
G01 X 23.2924 Y 8.3592 Z -1.0000
G01 X 23.3013 Y 8.3710 Z -1.0000
G01 X 23.3014 Y 8.3710 Z -1.0000
G00 Z 5.0000

(End cutting path id: path42133)


(Start cutting path id: path42133)
(Change tool to Default tool)

G00 Z 5.0000
G00 X 23.2326 Y 8.3597

G01 Z -1.0000 F 100.0000(Penetrate)
G01 X 23.2621 Y 8.3751 Z -1.0000 F 3500.0000
G01 X 23.2589 Y 8.3933 Z -1.0000
G01 X 23.2494 Y 8.3966 Z -1.0000
G03 X 23.2171 Y 8.3988 Z -1.0000 I -0.0323 J -0.2423
G03 X 23.1886 Y 8.3935 Z -1.0000 I 0.0000 J -0.0791
G01 X 23.1816 Y 8.3850 Z -1.0000
G01 X 23.1865 Y 8.3579 Z -1.0000
G01 X 23.2012 Y 8.3532 Z -1.0000
G02 X 23.2147 Y 8.3573 Z -1.0000 I 0.0288 J -0.0701
G02 X 23.2326 Y 8.3597 Z -1.0000 I 0.0255 J -0.1241
G01 X 23.2326 Y 8.3597 Z -1.0000
G00 Z 5.0000

(End cutting path id: path42133)


(Start cutting path id: path42133)
(Change tool to Default tool)

G00 Z 5.0000
G00 X 23.1652 Y 8.3686

G01 Z -1.0000 F 100.0000(Penetrate)
G01 X 23.1639 Y 8.3832 Z -1.0000 F 3500.0000
G03 X 23.1328 Y 8.3960 Z -1.0000 I -0.0356 J -0.0422
G03 X 23.0972 Y 8.3869 Z -1.0000 I -0.0047 J -0.0560
G01 X 23.0914 Y 8.3688 Z -1.0000
G01 X 23.1214 Y 8.3481 Z -1.0000
G03 X 23.1652 Y 8.3686 Z -1.0000 I 0.0001 J 0.0568
G01 X 23.1652 Y 8.3686 Z -1.0000
G00 Z 5.0000

(End cutting path id: path42133)


(Start cutting path id: path42133)
(Change tool to Default tool)

G00 Z 5.0000
G00 X 23.4465 Y 8.8473

G01 Z -1.0000 F 100.0000(Penetrate)
G01 X 23.4373 Y 8.8628 Z -1.0000 F 3500.0000
G01 X 23.4222 Y 8.8607 Z -1.0000
G01 X 23.4179 Y 8.8524 Z -1.0000
G01 X 23.4195 Y 8.8446 Z -1.0000
G01 X 23.4365 Y 8.8362 Z -1.0000
G01 X 23.4465 Y 8.8473 Z -1.0000
G01 X 23.4465 Y 8.8473 Z -1.0000
G00 Z 5.0000

(End cutting path id: path42133)


(Start cutting path id: path42133)
(Change tool to Default tool)

G00 Z 5.0000
G00 X 23.3919 Y 8.9143

G01 Z -1.0000 F 100.0000(Penetrate)
G01 X 23.3896 Y 8.9325 Z -1.0000 F 3500.0000
G01 X 23.3821 Y 8.9400 Z -1.0000
G01 X 23.3710 Y 8.9372 Z -1.0000
G03 X 23.3592 Y 8.9137 Z -1.0000 I 0.0400 J -0.0347
G01 X 23.3618 Y 8.8958 Z -1.0000
G01 X 23.3716 Y 8.8908 Z -1.0000
G01 X 23.3848 Y 8.8980 Z -1.0000
G01 X 23.3919 Y 8.9143 Z -1.0000
G01 X 23.3919 Y 8.9143 Z -1.0000
G00 Z 5.0000

(End cutting path id: path42133)


(Start cutting path id: path42133)
(Change tool to Default tool)

G00 Z 5.0000
G00 X 23.3764 Y 8.9972

G01 Z -1.0000 F 100.0000(Penetrate)
G01 X 23.3682 Y 9.0270 Z -1.0000 F 3500.0000
G01 X 23.3470 Y 9.0300 Z -1.0000
G01 X 23.3356 Y 9.0105 Z -1.0000
G01 X 23.3453 Y 8.9857 Z -1.0000
G01 X 23.3633 Y 8.9818 Z -1.0000
G01 X 23.3764 Y 8.9972 Z -1.0000
G01 X 23.3764 Y 8.9972 Z -1.0000
G00 Z 5.0000

(End cutting path id: path42133)


(Start cutting path id: path42133)
(Change tool to Default tool)

G00 Z 5.0000
G00 X 23.4542 Y 9.1103

G01 Z -1.0000 F 100.0000(Penetrate)
G01 X 23.4500 Y 9.1290 Z -1.0000 F 3500.0000
G01 X 23.4434 Y 9.1331 Z -1.0000
G01 X 23.4314 Y 9.1252 Z -1.0000
G01 X 23.4296 Y 9.1008 Z -1.0000
G01 X 23.4430 Y 9.0940 Z -1.0000
G01 X 23.4542 Y 9.1103 Z -1.0000
G01 X 23.4542 Y 9.1103 Z -1.0000
G00 Z 5.0000

(End cutting path id: path42133)


(Start cutting path id: path42133)
(Change tool to Default tool)

G00 Z 5.0000
G00 X 23.5858 Y 9.0748

G01 Z -1.0000 F 100.0000(Penetrate)
G01 X 23.5877 Y 9.0853 Z -1.0000 F 3500.0000
G03 X 23.5847 Y 9.1262 Z -1.0000 I -0.4038 J -0.0087
G02 X 23.5826 Y 9.1673 Z -1.0000 I 0.2904 J 0.0359
G02 X 23.5865 Y 9.2267 Z -1.0000 I 0.6066 J -0.0108
G03 X 23.5894 Y 9.2846 Z -1.0000 I -0.4306 J 0.0501
G01 X 23.5853 Y 9.2941 Z -1.0000
G01 X 23.5550 Y 9.3077 Z -1.0000
G03 X 23.4521 Y 9.3021 Z -1.0000 I -0.0270 J -0.4487
G01 X 23.4326 Y 9.2819 Z -1.0000
G03 X 23.4422 Y 9.2284 Z -1.0000 I 0.0880 J -0.0118
G02 X 23.4572 Y 9.1905 Z -1.0000 I -0.1591 J -0.0846
G02 X 23.4618 Y 9.1557 Z -1.0000 I -0.1297 J -0.0348
G03 X 23.4649 Y 9.1203 Z -1.0000 I 0.1977 J -0.0000
G03 X 23.4733 Y 9.0921 Z -1.0000 I 0.1347 J 0.0245
G01 X 23.4848 Y 9.0646 Z -1.0000
G01 X 23.5333 Y 9.0646 Z -1.0000
G03 X 23.5789 Y 9.0689 Z -1.0000 I 0.0000 J 0.2388
G01 X 23.5858 Y 9.0748 Z -1.0000
G01 X 23.5858 Y 9.0748 Z -1.0000
G00 Z 5.0000

(End cutting path id: path42133)


(Start cutting path id: path42133)
(Change tool to Default tool)

G00 Z 5.0000
G00 X 23.7116 Y 8.8587

G01 Z -1.0000 F 100.0000(Penetrate)
G01 X 23.7042 Y 8.8836 Z -1.0000 F 3500.0000
G01 X 23.6891 Y 8.8841 Z -1.0000
G01 X 23.6793 Y 8.8498 Z -1.0000
G01 X 23.6999 Y 8.8383 Z -1.0000
G01 X 23.7064 Y 8.8436 Z -1.0000
G01 X 23.7116 Y 8.8587 Z -1.0000
G01 X 23.7116 Y 8.8587 Z -1.0000
G00 Z 5.0000

(End cutting path id: path42133)


(Start cutting path id: path42133)
(Change tool to Default tool)

G00 Z 5.0000
G00 X 23.8468 Y 8.9239

G01 Z -1.0000 F 100.0000(Penetrate)
G03 X 23.8448 Y 9.0300 Z -1.0000 I -2.1538 J 0.0139 F 3500.0000
G03 X 23.8416 Y 9.0468 Z -1.0000 I -0.0577 J -0.0025
G01 X 23.8307 Y 9.0564 Z -1.0000
G03 X 23.7656 Y 9.0640 Z -1.0000 I -0.0685 J -0.3032
G03 X 23.6968 Y 9.0610 Z -1.0000 I -0.0068 J -0.6395
G01 X 23.6852 Y 9.0562 Z -1.0000
G01 X 23.6768 Y 9.0356 Z -1.0000
G03 X 23.6907 Y 9.0010 Z -1.0000 I 0.0662 J 0.0066
G02 X 23.7022 Y 8.9790 Z -1.0000 I -0.0529 J -0.0416
G02 X 23.7193 Y 8.9068 Z -1.0000 I -0.5745 J -0.1745
G03 X 23.7340 Y 8.8333 Z -1.0000 I 1.4674 J 0.2554
G01 X 23.7384 Y 8.8227 Z -1.0000
G01 X 23.7470 Y 8.8173 Z -1.0000
G03 X 23.7954 Y 8.8151 Z -1.0000 I 0.0362 J 0.2673
G01 X 23.8461 Y 8.8173 Z -1.0000
G01 X 23.8468 Y 8.9239 Z -1.0000
G00 Z 5.0000

(End cutting path id: path42133)


(Start cutting path id: path42133)
(Change tool to Default tool)

G00 Z 5.0000
G00 X 23.8426 Y 8.7465

G01 Z -1.0000 F 100.0000(Penetrate)
G01 X 23.8599 Y 8.7767 Z -1.0000 F 3500.0000
G01 X 23.8480 Y 8.7954 Z -1.0000
G03 X 23.8025 Y 8.8001 Z -1.0000 I -0.0335 J -0.1008
G01 X 23.7748 Y 8.7870 Z -1.0000
G01 X 23.7729 Y 8.7702 Z -1.0000
G01 X 23.7896 Y 8.7642 Z -1.0000
G01 X 23.7998 Y 8.7628 Z -1.0000
G01 X 23.8042 Y 8.7544 Z -1.0000
G01 X 23.8091 Y 8.7347 Z -1.0000
G01 X 23.8172 Y 8.7298 Z -1.0000
G01 X 23.8198 Y 8.7306 Z -1.0000
G03 X 23.8426 Y 8.7465 Z -1.0000 I -0.2835 J 0.4305
G01 X 23.8426 Y 8.7465 Z -1.0000
G00 Z 5.0000

(End cutting path id: path42133)


(Start cutting path id: path42133)
(Change tool to Default tool)

G00 Z 5.0000
G00 X 23.8438 Y 8.6662

G01 Z -1.0000 F 100.0000(Penetrate)
G03 X 23.8699 Y 8.6963 Z -1.0000 I -0.0461 J 0.0666 F 3500.0000
G01 X 23.8660 Y 8.7103 Z -1.0000
G01 X 23.8482 Y 8.7099 Z -1.0000
G03 X 23.8100 Y 8.6730 Z -1.0000 I 0.0803 J -0.1210
G01 X 23.8033 Y 8.6525 Z -1.0000
G01 X 23.8095 Y 8.6461 Z -1.0000
G01 X 23.8144 Y 8.6474 Z -1.0000
G03 X 23.8438 Y 8.6662 Z -1.0000 I -0.2247 J 0.3847
G01 X 23.8438 Y 8.6662 Z -1.0000
G00 Z 5.0000

(End cutting path id: path42133)


(Start cutting path id: path42133)
(Change tool to Default tool)

G00 Z 5.0000
G00 X 24.0097 Y 8.9961

G01 Z -1.0000 F 100.0000(Penetrate)
G01 X 24.0116 Y 9.0008 Z -1.0000 F 3500.0000
G01 X 24.0082 Y 9.0036 Z -1.0000
G01 X 23.9967 Y 9.0013 Z -1.0000
G01 X 23.9906 Y 8.9961 Z -1.0000
G01 X 23.9933 Y 8.9913 Z -1.0000
G01 X 24.0097 Y 8.9961 Z -1.0000
G01 X 24.0097 Y 8.9961 Z -1.0000
G00 Z 5.0000

(End cutting path id: path42133)


(Start cutting path id: path42133)
(Change tool to Default tool)

G00 Z 5.0000
G00 X 23.9631 Y 9.1434

G01 Z -1.0000 F 100.0000(Penetrate)
G01 X 23.9700 Y 9.1772 Z -1.0000 F 3500.0000
G01 X 23.9446 Y 9.2045 Z -1.0000
G01 X 23.9259 Y 9.1982 Z -1.0000
G01 X 23.9222 Y 9.1679 Z -1.0000
G02 X 23.9260 Y 9.1559 Z -1.0000 I -3.0846 J -0.9815
G02 X 23.9295 Y 9.1445 Z -1.0000 I -1.0958 J -0.3440
G01 X 23.9429 Y 9.1344 Z -1.0000
G01 X 23.9630 Y 9.1434 Z -1.0000
G01 X 23.9631 Y 9.1434 Z -1.0000
G00 Z 5.0000

(End cutting path id: path42133)


(Start cutting path id: path42133)
(Change tool to Default tool)

G00 Z 5.0000
G00 X 23.9488 Y 9.2401

G01 Z -1.0000 F 100.0000(Penetrate)
G03 X 23.9364 Y 9.2809 Z -1.0000 I -0.0734 J 0.0000 F 3500.0000
G01 X 23.9186 Y 9.2854 Z -1.0000
G01 X 23.8981 Y 9.2438 Z -1.0000
G01 X 23.9300 Y 9.2168 Z -1.0000
G01 X 23.9427 Y 9.2229 Z -1.0000
G01 X 23.9488 Y 9.2401 Z -1.0000
G01 X 23.9488 Y 9.2401 Z -1.0000
G00 Z 5.0000

(End cutting path id: path42133)


(Start cutting path id: path42133)
(Change tool to Default tool)

G00 Z 5.0000
G00 X 23.9450 Y 9.4109

G01 Z -1.0000 F 100.0000(Penetrate)
G03 X 23.9424 Y 9.5092 Z -1.0000 I -1.8430 J -0.0000 F 3500.0000
G01 X 23.9390 Y 9.5231 Z -1.0000
G01 X 23.9294 Y 9.5308 Z -1.0000
G03 X 23.8719 Y 9.5364 Z -1.0000 I -0.0574 J -0.2891
G03 X 23.8116 Y 9.5333 Z -1.0000 I -0.0000 J -0.5894
G01 X 23.7961 Y 9.5285 Z -1.0000
G01 X 23.7834 Y 9.5058 Z -1.0000
G03 X 23.8004 Y 9.4558 Z -1.0000 I 0.0994 J 0.0059
G02 X 23.8161 Y 9.4266 Z -1.0000 I -0.1355 J -0.0919
G02 X 23.8203 Y 9.4079 Z -1.0000 I -0.0509 J -0.0211
G03 X 23.8269 Y 9.3462 Z -1.0000 I 0.4889 J 0.0215
G03 X 23.8350 Y 9.3226 Z -1.0000 I 0.0773 J 0.0133
G01 X 23.8468 Y 9.3137 Z -1.0000
G03 X 23.8941 Y 9.3097 Z -1.0000 I 0.0393 J 0.1792
G01 X 23.9450 Y 9.3119 Z -1.0000
G01 X 23.9450 Y 9.4109 Z -1.0000
G00 Z 5.0000

(End cutting path id: path42133)


(Start cutting path id: path42133)
(Change tool to Default tool)

G00 Z 5.0000
G00 X 23.8104 Y 9.3443

G01 Z -1.0000 F 100.0000(Penetrate)
G01 X 23.8006 Y 9.3517 Z -1.0000 F 3500.0000
G01 X 23.7903 Y 9.3428 Z -1.0000
G01 X 23.7924 Y 9.3346 Z -1.0000
G01 X 23.8004 Y 9.3309 Z -1.0000
G01 X 23.8082 Y 9.3348 Z -1.0000
G01 X 23.8104 Y 9.3443 Z -1.0000
G01 X 23.8104 Y 9.3443 Z -1.0000
G00 Z 5.0000

(End cutting path id: path42133)


(Start cutting path id: path42133)
(Change tool to Default tool)

G00 Z 5.0000
G00 X 23.9598 Y 9.6196

G01 Z -1.0000 F 100.0000(Penetrate)
G01 X 23.9418 Y 9.6204 Z -1.0000 F 3500.0000
G01 X 23.9366 Y 9.6003 Z -1.0000
G01 X 23.9436 Y 9.5953 Z -1.0000
G01 X 23.9545 Y 9.5995 Z -1.0000
G01 X 23.9618 Y 9.6123 Z -1.0000
G01 X 23.9599 Y 9.6196 Z -1.0000
G01 X 23.9598 Y 9.6196 Z -1.0000
G00 Z 5.0000

(End cutting path id: path42133)


(Start cutting path id: path42133)
(Change tool to Default tool)

G00 Z 5.0000
G00 X 24.0079 Y 9.6109

G01 Z -1.0000 F 100.0000(Penetrate)
G01 X 24.0066 Y 9.6168 Z -1.0000 F 3500.0000
G01 X 23.9989 Y 9.6199 Z -1.0000
G01 X 23.9904 Y 9.6164 Z -1.0000
G01 X 23.9869 Y 9.6079 Z -1.0000
G01 X 23.9955 Y 9.6004 Z -1.0000
G01 X 24.0080 Y 9.6109 Z -1.0000
G01 X 24.0079 Y 9.6109 Z -1.0000
G00 Z 5.0000

(End cutting path id: path42133)


(Start cutting path id: path42133)
(Change tool to Default tool)

G00 Z 5.0000
G00 X 24.0477 Y 9.6092

G01 Z -1.0000 F 100.0000(Penetrate)
G01 X 24.0392 Y 9.6167 Z -1.0000 F 3500.0000
G01 X 24.0267 Y 9.6062 Z -1.0000
G01 X 24.0280 Y 9.6003 Z -1.0000
G01 X 24.0357 Y 9.5972 Z -1.0000
G01 X 24.0442 Y 9.6007 Z -1.0000
G01 X 24.0477 Y 9.6093 Z -1.0000
G01 X 24.0477 Y 9.6092 Z -1.0000
G00 Z 5.0000

(End cutting path id: path42133)


(Start cutting path id: path42133)
(Change tool to Default tool)

G00 Z 5.0000
G00 X 24.1010 Y 9.5706

G01 Z -1.0000 F 100.0000(Penetrate)
G01 X 24.0985 Y 9.5796 Z -1.0000 F 3500.0000
G01 X 24.0942 Y 9.5820 Z -1.0000
G01 X 24.0890 Y 9.5798 Z -1.0000
G01 X 24.0830 Y 9.5706 Z -1.0000
G01 X 24.0837 Y 9.5626 Z -1.0000
G01 X 24.0898 Y 9.5592 Z -1.0000
G01 X 24.0977 Y 9.5624 Z -1.0000
G01 X 24.1010 Y 9.5706 Z -1.0000
G01 X 24.1010 Y 9.5706 Z -1.0000
G00 Z 5.0000

(End cutting path id: path42133)


(Start cutting path id: path42133)
(Change tool to Default tool)

G00 Z 5.0000
G00 X 24.3025 Y 9.4629

G01 Z -1.0000 F 100.0000(Penetrate)
G01 X 24.3079 Y 9.4829 Z -1.0000 F 3500.0000
G01 X 24.2862 Y 9.5005 Z -1.0000
G01 X 24.2473 Y 9.4900 Z -1.0000
G01 X 24.2453 Y 9.4644 Z -1.0000
G01 X 24.2695 Y 9.4526 Z -1.0000
G03 X 24.3025 Y 9.4629 Z -1.0000 I 0.0014 J 0.0534
G01 X 24.3025 Y 9.4629 Z -1.0000
G00 Z 5.0000

(End cutting path id: path42133)


(Start cutting path id: path42133)
(Change tool to Default tool)

G00 Z 5.0000
G00 X 24.3249 Y 9.3887

G01 Z -1.0000 F 100.0000(Penetrate)
G01 X 24.3336 Y 9.4034 Z -1.0000 F 3500.0000
G01 X 24.3210 Y 9.4185 Z -1.0000
G03 X 24.2542 Y 9.4227 Z -1.0000 I -0.0416 J -0.1311
G01 X 24.2380 Y 9.4032 Z -1.0000
G01 X 24.2562 Y 9.3817 Z -1.0000
G03 X 24.3249 Y 9.3887 Z -1.0000 I 0.0216 J 0.1297
G01 X 24.3249 Y 9.3887 Z -1.0000
G00 Z 5.0000

(End cutting path id: path42133)


(Start cutting path id: path42133)
(Change tool to Default tool)

G00 Z 5.0000
G00 X 24.6184 Y 9.3519

G01 Z -1.0000 F 100.0000(Penetrate)
G01 X 24.6154 Y 9.3583 Z -1.0000 F 3500.0000
G01 X 24.6071 Y 9.3614 Z -1.0000
G01 X 24.5940 Y 9.3505 Z -1.0000
G01 X 24.6009 Y 9.3283 Z -1.0000
G01 X 24.6106 Y 9.3290 Z -1.0000
G01 X 24.6184 Y 9.3518 Z -1.0000
G01 X 24.6184 Y 9.3519 Z -1.0000
G00 Z 5.0000

(End cutting path id: path42133)


(Start cutting path id: path42133)
(Change tool to Default tool)

G00 Z 5.0000
G00 X 24.7591 Y 9.3462

G01 Z -1.0000 F 100.0000(Penetrate)
G02 X 24.7552 Y 9.3806 Z -1.0000 I 0.4320 J 0.0665 F 3500.0000
G02 X 24.7512 Y 9.4521 Z -1.0000 I 2.0125 J 0.1483
G03 X 24.7444 Y 9.5213 Z -1.0000 I -0.5573 J -0.0198
G01 X 24.7387 Y 9.5299 Z -1.0000
G03 X 24.6806 Y 9.5461 Z -1.0000 I -0.0556 J -0.0875
G03 X 24.6033 Y 9.5266 Z -1.0000 I 0.0044 J -0.1804
G01 X 24.5855 Y 9.5024 Z -1.0000
G01 X 24.5944 Y 9.4730 Z -1.0000
G02 X 24.6126 Y 9.4442 Z -1.0000 I -0.0655 J -0.0614
G02 X 24.6381 Y 9.3608 Z -1.0000 I -0.5509 J -0.2146
G03 X 24.6639 Y 9.3179 Z -1.0000 I 0.0781 J 0.0178
G03 X 24.7098 Y 9.2988 Z -1.0000 I 0.0521 J 0.0602
G01 X 24.7476 Y 9.3123 Z -1.0000
G01 X 24.7590 Y 9.3462 Z -1.0000
G01 X 24.7591 Y 9.3462 Z -1.0000
G00 Z 5.0000

(End cutting path id: path42133)


(Start cutting path id: path42133)
(Change tool to Default tool)

G00 Z 5.0000
G00 X 24.7572 Y 9.2225

G01 Z -1.0000 F 100.0000(Penetrate)
G01 X 24.7651 Y 9.2488 Z -1.0000 F 3500.0000
G01 X 24.7504 Y 9.2744 Z -1.0000
G01 X 24.7276 Y 9.2750 Z -1.0000
G01 X 24.7163 Y 9.2509 Z -1.0000
G03 X 24.7202 Y 9.2210 Z -1.0000 I 0.3916 J 0.0353
G01 X 24.7225 Y 9.2149 Z -1.0000
G01 X 24.7352 Y 9.2095 Z -1.0000
G01 X 24.7572 Y 9.2225 Z -1.0000
G01 X 24.7572 Y 9.2225 Z -1.0000
G00 Z 5.0000

(End cutting path id: path42133)


(Start cutting path id: path42133)
(Change tool to Default tool)

G00 Z 5.0000
G00 X 24.7777 Y 9.1471

G01 Z -1.0000 F 100.0000(Penetrate)
G01 X 24.7806 Y 9.1791 Z -1.0000 F 3500.0000
G01 X 24.7613 Y 9.1984 Z -1.0000
G01 X 24.7436 Y 9.1928 Z -1.0000
G01 X 24.7385 Y 9.1684 Z -1.0000
G01 X 24.7592 Y 9.1416 Z -1.0000
G01 X 24.7777 Y 9.1471 Z -1.0000
G01 X 24.7777 Y 9.1471 Z -1.0000
G00 Z 5.0000

(End cutting path id: path42133)


(Start cutting path id: path42133)
(Change tool to Default tool)

G00 Z 5.0000
G00 X 25.0978 Y 9.1160

G01 Z -1.0000 F 100.0000(Penetrate)
G01 X 25.0870 Y 9.1293 Z -1.0000 F 3500.0000
G01 X 25.0721 Y 9.1212 Z -1.0000
G01 X 25.0708 Y 9.1094 Z -1.0000
G01 X 25.0759 Y 9.0935 Z -1.0000
G01 X 25.0846 Y 9.0861 Z -1.0000
G01 X 25.0910 Y 9.0883 Z -1.0000
G01 X 25.0958 Y 9.0995 Z -1.0000
G03 X 25.0978 Y 9.1160 Z -1.0000 I -0.0716 J 0.0173
G01 X 25.0978 Y 9.1160 Z -1.0000
G00 Z 5.0000

(End cutting path id: path42133)


(Start cutting path id: path42133)
(Change tool to Default tool)

G00 Z 5.0000
G00 X 25.2282 Y 9.1483

G01 Z -1.0000 F 100.0000(Penetrate)
G02 X 25.2254 Y 9.2282 Z -1.0000 I 24.4202 J 0.8890 F 3500.0000
G02 X 25.2244 Y 9.2624 Z -1.0000 I 5.2079 J 0.1725
G01 X 25.2235 Y 9.2967 Z -1.0000
G01 X 25.1442 Y 9.2989 Z -1.0000
G03 X 25.0688 Y 9.2848 Z -1.0000 I -0.0051 J -0.1816
G01 X 25.0577 Y 9.2625 Z -1.0000
G03 X 25.0643 Y 9.2443 Z -1.0000 I 0.0870 J 0.0215
G03 X 25.0767 Y 9.2240 Z -1.0000 I 0.1223 J 0.0605
G02 X 25.0880 Y 9.2030 Z -1.0000 I -0.0680 J -0.0502
G02 X 25.1060 Y 9.1448 Z -1.0000 I -0.5267 J -0.1942
G03 X 25.1231 Y 9.0862 Z -1.0000 I 0.7344 J 0.1833
G01 X 25.1297 Y 9.0745 Z -1.0000
G01 X 25.1404 Y 9.0684 Z -1.0000
G03 X 25.1848 Y 9.0662 Z -1.0000 I 0.0334 J 0.2214
G01 X 25.2311 Y 9.0684 Z -1.0000
G01 X 25.2282 Y 9.1483 Z -1.0000
G00 Z 5.0000

(End cutting path id: path42133)


(Start cutting path id: path42133)
(Change tool to Default tool)

G00 Z 5.0000
G00 X 25.4921 Y 8.9063

G01 Z -1.0000 F 100.0000(Penetrate)
G01 X 25.5000 Y 8.9310 Z -1.0000 F 3500.0000
G01 X 25.4858 Y 8.9429 Z -1.0000
G01 X 25.4679 Y 8.9325 Z -1.0000
G01 X 25.4660 Y 8.9086 Z -1.0000
G01 X 25.4766 Y 8.9006 Z -1.0000
G01 X 25.4922 Y 8.9063 Z -1.0000
G01 X 25.4921 Y 8.9063 Z -1.0000
G00 Z 5.0000

(End cutting path id: path42133)


(Start cutting path id: path42133)
(Change tool to Default tool)

G00 Z 5.0000
G00 X 25.5869 Y 8.9103

G01 Z -1.0000 F 100.0000(Penetrate)
G01 X 25.6001 Y 8.9153 Z -1.0000 F 3500.0000
G01 X 25.6091 Y 8.9099 Z -1.0000
G01 X 25.6179 Y 8.9031 Z -1.0000
G01 X 25.6275 Y 8.9053 Z -1.0000
G01 X 25.6354 Y 8.9156 Z -1.0000
G01 X 25.6383 Y 8.9288 Z -1.0000
G01 X 25.6251 Y 8.9468 Z -1.0000
G01 X 25.6036 Y 8.9398 Z -1.0000
G01 X 25.5943 Y 8.9330 Z -1.0000
G01 X 25.5891 Y 8.9348 Z -1.0000
G01 X 25.5592 Y 8.9513 Z -1.0000
G03 X 25.5184 Y 8.9341 Z -1.0000 I 0.0006 J -0.0586
G01 X 25.5141 Y 8.9247 Z -1.0000
G01 X 25.5171 Y 8.9113 Z -1.0000
G01 X 25.5447 Y 8.8945 Z -1.0000
G03 X 25.5869 Y 8.9104 Z -1.0000 I 0.0008 J 0.0616
G01 X 25.5869 Y 8.9103 Z -1.0000
G00 Z 5.0000

(End cutting path id: path42133)


(Start cutting path id: path42133)
(Change tool to Default tool)

G00 Z 5.0000
G00 X 25.6362 Y 9.0144

G01 Z -1.0000 F 100.0000(Penetrate)
G01 X 25.6406 Y 9.0158 Z -1.0000 F 3500.0000
G01 X 25.6539 Y 9.0112 Z -1.0000
G01 X 25.6654 Y 9.0091 Z -1.0000
G01 X 25.6707 Y 9.0134 Z -1.0000
G01 X 25.6756 Y 9.0168 Z -1.0000
G01 X 25.6858 Y 9.0130 Z -1.0000
G01 X 25.6970 Y 9.0082 Z -1.0000
G01 X 25.7027 Y 9.0111 Z -1.0000
G01 X 25.7089 Y 9.0145 Z -1.0000
G01 X 25.7232 Y 9.0108 Z -1.0000
G01 X 25.7391 Y 9.0061 Z -1.0000
G03 X 25.7588 Y 9.0081 Z -1.0000 I 0.0044 J 0.0570
G02 X 25.7792 Y 9.0127 Z -1.0000 I 0.0582 J -0.2086
G02 X 25.7941 Y 9.0145 Z -1.0000 I 0.0228 J -0.1286
G01 X 25.8126 Y 9.0287 Z -1.0000
G01 X 25.8029 Y 9.0419 Z -1.0000
G01 X 25.7928 Y 9.0396 Z -1.0000
G01 X 25.7865 Y 9.0339 Z -1.0000
G01 X 25.7807 Y 9.0309 Z -1.0000
G01 X 25.7708 Y 9.0349 Z -1.0000
G01 X 25.7589 Y 9.0400 Z -1.0000
G03 X 25.7343 Y 9.0397 Z -1.0000 I -0.0111 J -0.0831
G02 X 25.7099 Y 9.0394 Z -1.0000 I -0.0133 J 0.0822
G01 X 25.6998 Y 9.0444 Z -1.0000
G01 X 25.6916 Y 9.0479 Z -1.0000
G01 X 25.6856 Y 9.0446 Z -1.0000
G01 X 25.6783 Y 9.0397 Z -1.0000
G02 X 25.6499 Y 9.0385 Z -1.0000 I -0.0190 J 0.1113
G03 X 25.6207 Y 9.0376 Z -1.0000 I -0.0105 J -0.1350
G01 X 25.6100 Y 9.0329 Z -1.0000
G01 X 25.6029 Y 9.0306 Z -1.0000
G01 X 25.6003 Y 9.0334 Z -1.0000
G01 X 25.5897 Y 9.0443 Z -1.0000
G03 X 25.5554 Y 9.0350 Z -1.0000 I -0.0021 J -0.0603
G01 X 25.5492 Y 9.0268 Z -1.0000
G01 X 25.5496 Y 9.0158 Z -1.0000
G01 X 25.5578 Y 9.0088 Z -1.0000
G03 X 25.5933 Y 9.0069 Z -1.0000 I 0.0243 J 0.1190
G03 X 25.6315 Y 9.0120 Z -1.0000 I -0.0439 J 0.4696
G01 X 25.6363 Y 9.0146 Z -1.0000
G01 X 25.6362 Y 9.0144 Z -1.0000
G00 Z 5.0000

(End cutting path id: path42133)


(Start cutting path id: path42133)
(Change tool to Default tool)

G00 Z 5.0000
G00 X 25.7184 Y 8.9127

G01 Z -1.0000 F 100.0000(Penetrate)
G01 X 25.7208 Y 8.9210 Z -1.0000 F 3500.0000
G01 X 25.7187 Y 8.9328 Z -1.0000
G01 X 25.7121 Y 8.9369 Z -1.0000
G01 X 25.6989 Y 8.9311 Z -1.0000
G01 X 25.6845 Y 8.9258 Z -1.0000
G01 X 25.6729 Y 8.9320 Z -1.0000
G01 X 25.6616 Y 8.9398 Z -1.0000
G01 X 25.6530 Y 8.9376 Z -1.0000
G01 X 25.6525 Y 8.9182 Z -1.0000
G01 X 25.6832 Y 8.9047 Z -1.0000
G03 X 25.7117 Y 8.9079 Z -1.0000 I -0.0000 J 0.1282
G01 X 25.7184 Y 8.9127 Z -1.0000
G01 X 25.7184 Y 8.9127 Z -1.0000
G00 Z 5.0000

(End cutting path id: path42133)


(Start cutting path id: path42133)
(Change tool to Default tool)

G00 Z 5.0000
G00 X 25.7630 Y 8.9168

G01 Z -1.0000 F 100.0000(Penetrate)
G01 X 25.7648 Y 8.9372 Z -1.0000 F 3500.0000
G01 X 25.7581 Y 8.9427 Z -1.0000
G01 X 25.7356 Y 8.9333 Z -1.0000
G01 X 25.7320 Y 8.9170 Z -1.0000
G01 X 25.7475 Y 8.9063 Z -1.0000
G01 X 25.7630 Y 8.9168 Z -1.0000
G01 X 25.7630 Y 8.9168 Z -1.0000
G00 Z 5.0000

(End cutting path id: path42133)


(Start cutting path id: path42133)
(Change tool to Default tool)

G00 Z 5.0000
G00 X 25.8176 Y 8.9181

G01 Z -1.0000 F 100.0000(Penetrate)
G01 X 25.8262 Y 8.9225 Z -1.0000 F 3500.0000
G01 X 25.8326 Y 8.9181 Z -1.0000
G01 X 25.8475 Y 8.9071 Z -1.0000
G01 X 25.8616 Y 8.9160 Z -1.0000
G01 X 25.8570 Y 8.9291 Z -1.0000
G03 X 25.8194 Y 8.9407 Z -1.0000 I -0.0437 J -0.0749
G01 X 25.7905 Y 8.9323 Z -1.0000
G01 X 25.7857 Y 8.9159 Z -1.0000
G01 X 25.7986 Y 8.9077 Z -1.0000
G01 X 25.8176 Y 8.9182 Z -1.0000
G01 X 25.8176 Y 8.9181 Z -1.0000
G00 Z 5.0000

(End cutting path id: path42133)


(Start cutting path id: path42133)
(Change tool to Default tool)

G00 Z 5.0000
G00 X 25.8837 Y 8.6756

G01 Z -1.0000 F 100.0000(Penetrate)
G01 X 25.8794 Y 8.6997 Z -1.0000 F 3500.0000
G01 X 25.8635 Y 8.7046 Z -1.0000
G01 X 25.8511 Y 8.6879 Z -1.0000
G01 X 25.8601 Y 8.6632 Z -1.0000
G01 X 25.8724 Y 8.6614 Z -1.0000
G01 X 25.8837 Y 8.6756 Z -1.0000
G01 X 25.8837 Y 8.6756 Z -1.0000
G00 Z 5.0000

(End cutting path id: path42133)


(Start cutting path id: path42133)
(Change tool to Default tool)

G00 Z 5.0000
G00 X 25.9306 Y 8.6662

G01 Z -1.0000 F 100.0000(Penetrate)
G01 X 25.9310 Y 8.6965 Z -1.0000 F 3500.0000
G01 X 25.9160 Y 8.7070 Z -1.0000
G01 X 25.8986 Y 8.6936 Z -1.0000
G01 X 25.9049 Y 8.6648 Z -1.0000
G01 X 25.9198 Y 8.6583 Z -1.0000
G01 X 25.9306 Y 8.6662 Z -1.0000
G01 X 25.9306 Y 8.6662 Z -1.0000
G00 Z 5.0000

(End cutting path id: path42133)


(Start cutting path id: path42133)
(Change tool to Default tool)

G00 Z 5.0000
G00 X 25.7175 Y 8.6633

G01 Z -1.0000 F 100.0000(Penetrate)
G01 X 25.7220 Y 8.6661 Z -1.0000 F 3500.0000
G01 X 25.7264 Y 8.6633 Z -1.0000
G01 X 25.7387 Y 8.6565 Z -1.0000
G01 X 25.7568 Y 8.6671 Z -1.0000
G01 X 25.7668 Y 8.6716 Z -1.0000
G01 X 25.7786 Y 8.6652 Z -1.0000
G01 X 25.7905 Y 8.6588 Z -1.0000
G01 X 25.8010 Y 8.6635 Z -1.0000
G01 X 25.8103 Y 8.6688 Z -1.0000
G01 X 25.8160 Y 8.6654 Z -1.0000
G01 X 25.8220 Y 8.6560 Z -1.0000
G01 X 25.8275 Y 8.6537 Z -1.0000
G01 X 25.8395 Y 8.6624 Z -1.0000
G01 X 25.8389 Y 8.6880 Z -1.0000
G01 X 25.8233 Y 8.7007 Z -1.0000
G01 X 25.8133 Y 8.6923 Z -1.0000
G01 X 25.7986 Y 8.6794 Z -1.0000
G02 X 25.7471 Y 8.7011 Z -1.0000 I 0.0143 J 0.1062
G01 X 25.7311 Y 8.7021 Z -1.0000
G01 X 25.7220 Y 8.6860 Z -1.0000
G01 X 25.7188 Y 8.6813 Z -1.0000
G01 X 25.7129 Y 8.6826 Z -1.0000
G01 X 25.6790 Y 8.6965 Z -1.0000
G01 X 25.6591 Y 8.6822 Z -1.0000
G01 X 25.6634 Y 8.6638 Z -1.0000
G01 X 25.6880 Y 8.6537 Z -1.0000
G03 X 25.7109 Y 8.6573 Z -1.0000 I 0.0000 J 0.0748
G01 X 25.7176 Y 8.6632 Z -1.0000
G01 X 25.7175 Y 8.6633 Z -1.0000
G00 Z 5.0000

(End cutting path id: path42133)


(Start cutting path id: path42133)
(Change tool to Default tool)

G00 Z 5.0000
G00 X 25.8468 Y 8.3742

G01 Z -1.0000 F 100.0000(Penetrate)
G01 X 25.8474 Y 8.3881 Z -1.0000 F 3500.0000
G03 X 25.8119 Y 8.4045 Z -1.0000 I -0.0462 J -0.0532
G01 X 25.7783 Y 8.3967 Z -1.0000
G01 X 25.7721 Y 8.3767 Z -1.0000
G01 X 25.7971 Y 8.3589 Z -1.0000
G03 X 25.8468 Y 8.3742 Z -1.0000 I 0.0026 J 0.0797
G01 X 25.8468 Y 8.3742 Z -1.0000
G00 Z 5.0000

(End cutting path id: path42133)


(Start cutting path id: path42133)
(Change tool to Default tool)

G00 Z 5.0000
G00 X 25.5145 Y 8.2727

G01 Z -1.0000 F 100.0000(Penetrate)
G02 X 25.4868 Y 8.2798 Z -1.0000 I 0.0480 J 0.2437 F 3500.0000
G01 X 25.4804 Y 8.2837 Z -1.0000
G01 X 25.4775 Y 8.2901 Z -1.0000
G02 X 25.4748 Y 8.3548 Z -1.0000 I 0.8575 J 0.0671
G02 X 25.4825 Y 8.4146 Z -1.0000 I 0.2311 J 0.0006
G01 X 25.4937 Y 8.4260 Z -1.0000
G02 X 25.6639 Y 8.4491 Z -1.0000 I 0.1645 J -0.5731
G02 X 26.1008 Y 8.4206 Z -1.0000 I -0.0383 J -3.9490
G02 X 26.1294 Y 8.4101 Z -1.0000 I -0.0082 J -0.0665
G02 X 26.1541 Y 8.3856 Z -1.0000 I -0.0478 J -0.0729
G02 X 26.1954 Y 8.2939 Z -1.0000 I -0.2533 J -0.1692
G01 X 26.1833 Y 8.2745 Z -1.0000
G01 X 26.1759 Y 8.2786 Z -1.0000
G01 X 26.1742 Y 8.2990 Z -1.0000
G01 X 26.1696 Y 8.3263 Z -1.0000
G01 X 26.1583 Y 8.3268 Z -1.0000
G01 X 26.1514 Y 8.3103 Z -1.0000
G01 X 26.1523 Y 8.2948 Z -1.0000
G01 X 26.1529 Y 8.2804 Z -1.0000
G01 X 26.1471 Y 8.2722 Z -1.0000
G02 X 25.9904 Y 8.2267 Z -1.0000 I -0.1564 J 0.2459
G02 X 25.5146 Y 8.2727 Z -1.0000 I 0.0030 J 2.5117
G01 X 25.5145 Y 8.2727 Z -1.0000
G00 Z 5.0000

(End cutting path id: path42133)


(Start cutting path id: path42133)
(Change tool to Default tool)

G00 Z 5.0000
G00 X 25.3110 Y 8.3233

G01 Z -1.0000 F 100.0000(Penetrate)
G01 X 25.3012 Y 8.3318 Z -1.0000 F 3500.0000
G01 X 25.2896 Y 8.3202 Z -1.0000
G01 X 25.2919 Y 8.3078 Z -1.0000
G01 X 25.2991 Y 8.3037 Z -1.0000
G01 X 25.3067 Y 8.3080 Z -1.0000
G01 X 25.3110 Y 8.3233 Z -1.0000
G01 X 25.3110 Y 8.3233 Z -1.0000
G00 Z 5.0000

(End cutting path id: path42133)


(Start cutting path id: path42133)
(Change tool to Default tool)

G00 Z 5.0000
G00 X 25.2881 Y 8.4429

G01 Z -1.0000 F 100.0000(Penetrate)
G03 X 25.2859 Y 8.4589 Z -1.0000 I -0.0645 J -0.0004 F 3500.0000
G01 X 25.2806 Y 8.4710 Z -1.0000
G01 X 25.2731 Y 8.4496 Z -1.0000
G03 X 25.2765 Y 8.4231 Z -1.0000 I 0.1008 J -0.0004
G01 X 25.2806 Y 8.4215 Z -1.0000
G01 X 25.2856 Y 8.4277 Z -1.0000
G01 X 25.2881 Y 8.4429 Z -1.0000
G01 X 25.2881 Y 8.4429 Z -1.0000
G00 Z 5.0000

(End cutting path id: path42133)


(Start cutting path id: path42133)
(Change tool to Default tool)

G00 Z 5.0000
G00 X 24.9797 Y 8.3643

G01 Z -1.0000 F 100.0000(Penetrate)
G01 X 24.9891 Y 8.3800 Z -1.0000 F 3500.0000
G01 X 24.9889 Y 8.3904 Z -1.0000
G01 X 24.9650 Y 8.4066 Z -1.0000
G01 X 24.9288 Y 8.3891 Z -1.0000
G01 X 24.9269 Y 8.3787 Z -1.0000
G01 X 24.9373 Y 8.3636 Z -1.0000
G01 X 24.9606 Y 8.3556 Z -1.0000
G01 X 24.9797 Y 8.3642 Z -1.0000
G01 X 24.9797 Y 8.3643 Z -1.0000
G00 Z 5.0000

(End cutting path id: path42133)


(Start cutting path id: path42133)
(Change tool to Default tool)

G00 Z 5.0000
G00 X 24.9590 Y 8.5218

G01 Z -1.0000 F 100.0000(Penetrate)
G01 X 24.9576 Y 8.5294 Z -1.0000 F 3500.0000
G03 X 24.9422 Y 8.5437 Z -1.0000 I -0.0497 J -0.0379
G01 X 24.9231 Y 8.5492 Z -1.0000
G01 X 24.9075 Y 8.5430 Z -1.0000
G01 X 24.9037 Y 8.5220 Z -1.0000
G01 X 24.9242 Y 8.5104 Z -1.0000
G03 X 24.9533 Y 8.5162 Z -1.0000 I -0.0091 J 0.1228
G01 X 24.9590 Y 8.5218 Z -1.0000
G01 X 24.9590 Y 8.5218 Z -1.0000
G00 Z 5.0000

(End cutting path id: path42133)


(Start cutting path id: path42133)
(Change tool to Default tool)

G00 Z 5.0000
G00 X 24.6261 Y 8.4439

G01 Z -1.0000 F 100.0000(Penetrate)
G01 X 24.6191 Y 8.4590 Z -1.0000 F 3500.0000
G01 X 24.6087 Y 8.4586 Z -1.0000
G01 X 24.6054 Y 8.4423 Z -1.0000
G01 X 24.6193 Y 8.4329 Z -1.0000
G01 X 24.6237 Y 8.4353 Z -1.0000
G01 X 24.6261 Y 8.4439 Z -1.0000
G01 X 24.6261 Y 8.4439 Z -1.0000
G00 Z 5.0000

(End cutting path id: path42133)


(Start cutting path id: path42133)
(Change tool to Default tool)

G00 Z 5.0000
G00 X 24.6260 Y 8.3436

G01 Z -1.0000 F 100.0000(Penetrate)
G01 X 24.6228 Y 8.3500 Z -1.0000 F 3500.0000
G01 X 24.6185 Y 8.3493 Z -1.0000
G01 X 24.6133 Y 8.3317 Z -1.0000
G01 X 24.6185 Y 8.3265 Z -1.0000
G01 X 24.6231 Y 8.3295 Z -1.0000
G01 X 24.6260 Y 8.3436 Z -1.0000
G01 X 24.6260 Y 8.3436 Z -1.0000
G00 Z 5.0000

(End cutting path id: path42133)


(Start cutting path id: path42133)
(Change tool to Default tool)

G00 Z 5.0000
G00 X 24.4587 Y 8.3224

G01 Z -1.0000 F 100.0000(Penetrate)
G01 X 24.4503 Y 8.3343 Z -1.0000 F 3500.0000
G01 X 24.4361 Y 8.3303 Z -1.0000
G01 X 24.4336 Y 8.3127 Z -1.0000
G01 X 24.4477 Y 8.3034 Z -1.0000
G01 X 24.4547 Y 8.3074 Z -1.0000
G01 X 24.4587 Y 8.3224 Z -1.0000
G01 X 24.4587 Y 8.3224 Z -1.0000
G00 Z 5.0000

(End cutting path id: path42133)


(Start cutting path id: path42133)
(Change tool to Default tool)

G00 Z 5.0000
G00 X 24.1581 Y 8.3947

G01 Z -1.0000 F 100.0000(Penetrate)
G01 X 24.1519 Y 8.4070 Z -1.0000 F 3500.0000
G01 X 24.1353 Y 8.4117 Z -1.0000
G03 X 24.0847 Y 8.4006 Z -1.0000 I 0.0178 J -0.2019
G01 X 24.0782 Y 8.3914 Z -1.0000
G01 X 24.0862 Y 8.3805 Z -1.0000
G03 X 24.1315 Y 8.3745 Z -1.0000 I 0.0394 J 0.1249
G01 X 24.1517 Y 8.3818 Z -1.0000
G01 X 24.1581 Y 8.3947 Z -1.0000
G01 X 24.1581 Y 8.3947 Z -1.0000
G00 Z 5.0000

(End cutting path id: path42133)


(Start cutting path id: path42133)
(Change tool to Default tool)

G00 Z 5.0000
G00 X 23.8372 Y 8.2734

G01 Z -1.0000 F 100.0000(Penetrate)
G02 X 23.7832 Y 8.2807 Z -1.0000 I 0.0793 J 0.7931 F 3500.0000
G01 X 23.7744 Y 8.2840 Z -1.0000
G01 X 23.7699 Y 8.2911 Z -1.0000
G02 X 23.7662 Y 8.3531 Z -1.0000 I 0.5189 J 0.0619
G02 X 23.7726 Y 8.4132 Z -1.0000 I 0.2875 J -0.0000
G01 X 23.7817 Y 8.4253 Z -1.0000
G02 X 23.8902 Y 8.4526 Z -1.0000 I 0.1092 J -0.2050
G02 X 24.3967 Y 8.4269 Z -1.0000 I 0.0141 J -4.7270
G02 X 24.4246 Y 8.4165 Z -1.0000 I -0.0062 J -0.0593
G01 X 24.4413 Y 8.3958 Z -1.0000
G03 X 24.4543 Y 8.3693 Z -1.0000 I 0.2167 J 0.0897
G01 X 24.4594 Y 8.3640 Z -1.0000
G02 X 24.4896 Y 8.3258 Z -1.0000 I -0.0394 J -0.0622
G01 X 24.4854 Y 8.2882 Z -1.0000
G01 X 24.4804 Y 8.2842 Z -1.0000
