%
(Header)
(Generated by gcodetools from Inkscape.)
(Using default header. To add your own header create file "header" in the output dir.)
M3
(Header end.)
G21 (All units in mm)

(Start cutting path id: path223)
(Change tool to Default tool)

G00 Z 5.0000
G00 X 1.0578 Y 0.1593

G01 Z -1.0000 F 100.0000(Penetrate)
G01 X 1.0604 Y 0.1754 Z -1.0000 F 3500.0000
G03 X 1.0488 Y 0.1990 Z -1.0000 I -0.0556 J -0.0127
G01 X 1.0540 Y 0.2099 Z -1.0000
G02 X 1.0867 Y 0.1988 Z -1.0000 I -0.0002 J -0.0545
G01 X 1.0987 Y 0.1636 Z -1.0000
G01 X 1.0713 Y 0.1427 Z -1.0000
G01 X 1.0585 Y 0.1488 Z -1.0000
G01 X 1.0578 Y 0.1593 Z -1.0000
G01 X 1.0578 Y 0.1593 Z -1.0000
G00 Z 5.0000

(End cutting path id: path223)


(Start cutting path id: path223)
(Change tool to Default tool)

G00 Z 5.0000
G00 X 1.1526 Y 0.1745

G01 Z -1.0000 F 100.0000(Penetrate)
G01 X 1.1646 Y 0.1864 Z -1.0000 F 3500.0000
G01 X 1.1783 Y 0.1903 Z -1.0000
G01 X 1.1854 Y 0.1854 Z -1.0000
G01 X 1.1844 Y 0.1745 Z -1.0000
G01 X 1.1724 Y 0.1625 Z -1.0000
G01 X 1.1587 Y 0.1586 Z -1.0000
G01 X 1.1516 Y 0.1635 Z -1.0000
G01 X 1.1526 Y 0.1745 Z -1.0000
G01 X 1.1526 Y 0.1745 Z -1.0000
G00 Z 5.0000

(End cutting path id: path223)


(Start cutting path id: path223)
(Change tool to Default tool)

G00 Z 5.0000
G00 X 1.1804 Y 0.2016

G01 Z -1.0000 F 100.0000(Penetrate)
G01 X 1.1745 Y 0.2205 Z -1.0000 F 3500.0000
G01 X 1.2113 Y 0.2332 Z -1.0000
G03 X 1.2546 Y 0.2327 Z -1.0000 I 0.0239 J 0.1785
G01 X 1.2558 Y 0.2380 Z -1.0000
G01 X 1.2543 Y 0.2485 Z -1.0000
G01 X 1.2780 Y 0.2628 Z -1.0000
G03 X 1.3043 Y 0.2767 Z -1.0000 I -0.0151 J 0.0606
G01 X 1.3036 Y 0.2855 Z -1.0000
G01 X 1.3016 Y 0.2946 Z -1.0000
G01 X 1.3171 Y 0.3055 Z -1.0000
G02 X 1.3465 Y 0.3045 Z -1.0000 I 0.0129 J -0.0490
G02 X 1.3748 Y 0.2858 Z -1.0000 I -0.0221 J -0.0644
G01 X 1.3780 Y 0.2633 Z -1.0000
G01 X 1.3533 Y 0.2412 Z -1.0000
G02 X 1.3074 Y 0.2304 Z -1.0000 I -0.0747 J 0.2151
G01 X 1.2969 Y 0.2340 Z -1.0000
G01 X 1.2914 Y 0.2341 Z -1.0000
G01 X 1.2876 Y 0.2258 Z -1.0000
G01 X 1.2940 Y 0.2136 Z -1.0000
G03 X 1.3233 Y 0.2015 Z -1.0000 I 0.0441 J 0.0648
G01 X 1.2876 Y 0.1946 Z -1.0000
G02 X 1.2164 Y 0.1969 Z -1.0000 I -0.0000 J 1.1094
G02 X 1.1805 Y 0.2015 Z -1.0000 I 0.0184 J 0.2853
G01 X 1.1804 Y 0.2016 Z -1.0000
G00 Z 5.0000

(End cutting path id: path223)


(Start cutting path id: path223)
(Change tool to Default tool)

G00 Z 5.0000
G00 X 1.3669 Y 0.2609

G01 Z -1.0000 F 100.0000(Penetrate)
G01 X 1.3646 Y 0.2666 Z -1.0000 F 3500.0000
G03 X 1.3510 Y 0.2777 Z -1.0000 I -0.0500 J -0.0472
G01 X 1.3403 Y 0.2784 Z -1.0000
G01 X 1.3352 Y 0.2707 Z -1.0000
G01 X 1.3400 Y 0.2586 Z -1.0000
G01 X 1.3510 Y 0.2539 Z -1.0000
G01 X 1.3641 Y 0.2566 Z -1.0000
G01 X 1.3669 Y 0.2609 Z -1.0000
G01 X 1.3669 Y 0.2609 Z -1.0000
G00 Z 5.0000

(End cutting path id: path223)


(Start cutting path id: path223)
(Change tool to Default tool)

G00 Z 5.0000
G00 X 1.4026 Y 0.2331

G01 Z -1.0000 F 100.0000(Penetrate)
G01 X 1.4201 Y 0.2536 Z -1.0000 F 3500.0000
G01 X 1.4065 Y 0.2755 Z -1.0000
G01 X 1.3886 Y 0.2887 Z -1.0000
G01 X 1.3827 Y 0.3054 Z -1.0000
G01 X 1.4139 Y 0.3378 Z -1.0000
G02 X 1.4782 Y 0.3091 Z -1.0000 I 0.0030 J -0.0796
G01 X 1.4861 Y 0.2911 Z -1.0000
G01 X 1.4813 Y 0.2857 Z -1.0000
G01 X 1.4732 Y 0.2793 Z -1.0000
G03 X 1.4733 Y 0.2539 Z -1.0000 I 0.0500 J -0.0125
G01 X 1.4660 Y 0.2347 Z -1.0000
G02 X 1.4282 Y 0.2240 Z -1.0000 I -0.0356 J 0.0537
G01 X 1.4025 Y 0.2332 Z -1.0000
G01 X 1.4026 Y 0.2331 Z -1.0000
G00 Z 5.0000

(End cutting path id: path223)


(Start cutting path id: path223)
(Change tool to Default tool)

G00 Z 5.0000
G00 X 2.5387 Y 2.4554

G01 Z -1.0000 F 100.0000(Penetrate)
G01 X 2.5584 Y 2.4589 Z -1.0000 F 3500.0000
G01 X 2.5691 Y 2.4541 Z -1.0000
G01 X 2.5681 Y 2.4493 Z -1.0000
G01 X 2.5483 Y 2.4458 Z -1.0000
G01 X 2.5376 Y 2.4505 Z -1.0000
G01 X 2.5387 Y 2.4554 Z -1.0000
G01 X 2.5387 Y 2.4554 Z -1.0000
G00 Z 5.0000

(End cutting path id: path223)


(Start cutting path id: path223)
(Change tool to Default tool)

G00 Z 5.0000
G00 X 2.6805 Y 2.4868

G01 Z -1.0000 F 100.0000(Penetrate)
G02 X 2.7003 Y 2.4907 Z -1.0000 I 0.0198 J -0.0487 F 3500.0000
G02 X 2.7202 Y 2.4868 Z -1.0000 I 0.0000 J -0.0532
G01 X 2.7004 Y 2.4788 Z -1.0000
G01 X 2.6805 Y 2.4868 Z -1.0000
G01 X 2.6805 Y 2.4868 Z -1.0000
G00 Z 5.0000

(End cutting path id: path223)


(Start cutting path id: path223)
(Change tool to Default tool)

G00 Z 5.0000
G00 X 2.7768 Y 2.5030

G01 Z -1.0000 F 100.0000(Penetrate)
G01 X 2.7965 Y 2.5065 Z -1.0000 F 3500.0000
G01 X 2.8072 Y 2.5017 Z -1.0000
G01 X 2.8062 Y 2.4968 Z -1.0000
G01 X 2.7863 Y 2.4934 Z -1.0000
G01 X 2.7757 Y 2.4981 Z -1.0000
G01 X 2.7767 Y 2.5030 Z -1.0000
G01 X 2.7768 Y 2.5030 Z -1.0000
G00 Z 5.0000

(End cutting path id: path223)


(Start cutting path id: path223)
(Change tool to Default tool)

G00 Z 5.0000
G00 X 2.8561 Y 2.5189

G01 Z -1.0000 F 100.0000(Penetrate)
G01 X 2.8759 Y 2.5223 Z -1.0000 F 3500.0000
G01 X 2.8866 Y 2.5176 Z -1.0000
G01 X 2.8856 Y 2.5127 Z -1.0000
G01 X 2.8657 Y 2.5093 Z -1.0000
G01 X 2.8551 Y 2.5139 Z -1.0000
G01 X 2.8561 Y 2.5189 Z -1.0000
G01 X 2.8561 Y 2.5189 Z -1.0000
G00 Z 5.0000

(End cutting path id: path223)


(Start cutting path id: path223)
(Change tool to Default tool)

G00 Z 5.0000
G00 X 2.9514 Y 2.5348

G01 Z -1.0000 F 100.0000(Penetrate)
G01 X 2.9711 Y 2.5382 Z -1.0000 F 3500.0000
G01 X 2.9818 Y 2.5335 Z -1.0000
G01 X 2.9808 Y 2.5286 Z -1.0000
G01 X 2.9610 Y 2.5252 Z -1.0000
G01 X 2.9504 Y 2.5298 Z -1.0000
G01 X 2.9514 Y 2.5348 Z -1.0000
G01 X 2.9514 Y 2.5348 Z -1.0000
G00 Z 5.0000

(End cutting path id: path223)


(Start cutting path id: path223)
(Change tool to Default tool)

G00 Z 5.0000
G00 X 3.2530 Y 2.5983

G01 Z -1.0000 F 100.0000(Penetrate)
G01 X 3.2727 Y 2.6018 Z -1.0000 F 3500.0000
G01 X 3.2834 Y 2.5970 Z -1.0000
G01 X 3.2824 Y 2.5922 Z -1.0000
G01 X 3.2626 Y 2.5887 Z -1.0000
G01 X 3.2520 Y 2.5934 Z -1.0000
G01 X 3.2530 Y 2.5983 Z -1.0000
G01 X 3.2530 Y 2.5983 Z -1.0000
G00 Z 5.0000

(End cutting path id: path223)


(Start cutting path id: path223)
(Change tool to Default tool)

G00 Z 5.0000
G00 X 3.3208 Y 2.6093

G01 Z -1.0000 F 100.0000(Penetrate)
G01 X 3.3284 Y 2.6130 Z -1.0000 F 3500.0000
G02 X 3.4068 Y 2.6244 Z -1.0000 I 0.2345 J -1.3333
G01 X 3.4464 Y 2.6200 Z -1.0000
G02 X 3.3270 Y 2.5949 Z -1.0000 I -0.1621 J 0.4753
G01 X 3.3208 Y 2.6093 Z -1.0000
G01 X 3.3208 Y 2.6093 Z -1.0000
G00 Z 5.0000

(End cutting path id: path223)


(Start cutting path id: path223)
(Change tool to Default tool)

G00 Z 5.0000
G00 X 3.5046 Y 2.6349

G01 Z -1.0000 F 100.0000(Penetrate)
G02 X 3.6318 Y 2.6967 Z -1.0000 I 0.1692 J -0.1864 F 3500.0000
G01 X 3.6509 Y 2.6597 Z -1.0000
G01 X 3.6407 Y 2.6538 Z -1.0000
G02 X 3.5668 Y 2.6370 Z -1.0000 I -0.2493 J 0.9237
G02 X 3.5064 Y 2.6304 Z -1.0000 I -0.0746 J 0.4021
G01 X 3.5046 Y 2.6349 Z -1.0000
G01 X 3.5046 Y 2.6349 Z -1.0000
G00 Z 5.0000

(End cutting path id: path223)


(Start cutting path id: path223)
(Change tool to Default tool)

G00 Z 5.0000
G00 X 3.6974 Y 2.6777

G01 Z -1.0000 F 100.0000(Penetrate)
G01 X 3.7172 Y 2.6811 Z -1.0000 F 3500.0000
G01 X 3.7279 Y 2.6764 Z -1.0000
G01 X 3.7269 Y 2.6715 Z -1.0000
G01 X 3.7070 Y 2.6681 Z -1.0000
G01 X 3.6964 Y 2.6727 Z -1.0000
G01 X 3.6974 Y 2.6777 Z -1.0000
G01 X 3.6974 Y 2.6777 Z -1.0000
G00 Z 5.0000

(End cutting path id: path223)


(Start cutting path id: path223)
(Change tool to Default tool)

G00 Z 5.0000
G00 X 3.8086 Y 2.7020

G01 Z -1.0000 F 100.0000(Penetrate)
G01 X 3.8258 Y 2.7113 Z -1.0000 F 3500.0000
G02 X 3.8535 Y 2.7112 Z -1.0000 I 0.0138 J -0.0676
G01 X 3.8553 Y 2.7051 Z -1.0000
G01 X 3.8381 Y 2.6959 Z -1.0000
G02 X 3.8105 Y 2.6959 Z -1.0000 I -0.0136 J 0.0668
G01 X 3.8086 Y 2.7021 Z -1.0000
G01 X 3.8086 Y 2.7020 Z -1.0000
G00 Z 5.0000

(End cutting path id: path223)


(Start cutting path id: path223)
(Change tool to Default tool)

G00 Z 5.0000
G00 X 3.9404 Y 2.7215

G01 Z -1.0000 F 100.0000(Penetrate)
G01 X 3.9487 Y 2.7262 Z -1.0000 F 3500.0000
G02 X 4.1057 Y 2.7622 Z -1.0000 I 1.1793 J -4.7918
G03 X 4.2637 Y 2.7966 Z -1.0000 I -3.0805 J 14.5291
G03 X 4.2917 Y 2.8037 Z -1.0000 I -0.1020 J 0.4564
G01 X 4.3140 Y 2.8043 Z -1.0000
G01 X 4.3195 Y 2.7974 Z -1.0000
G01 X 4.3129 Y 2.7886 Z -1.0000
G02 X 4.2044 Y 2.7628 Z -1.0000 I -0.2719 J 0.9019
G03 X 4.0896 Y 2.7412 Z -1.0000 I 0.8342 J -4.7485
G03 X 4.0338 Y 2.7286 Z -1.0000 I 0.2359 J -1.1750
G02 X 3.9438 Y 2.7140 Z -1.0000 I -0.1298 J 0.5176
G01 X 3.9404 Y 2.7216 Z -1.0000
G01 X 3.9404 Y 2.7215 Z -1.0000
G00 Z 5.0000

(End cutting path id: path223)


(Start cutting path id: path223)
(Change tool to Default tool)

G00 Z 5.0000
G00 X 4.0655 Y 2.6945

G01 Z -1.0000 F 100.0000(Penetrate)
G01 X 4.0706 Y 2.7015 Z -1.0000 F 3500.0000
G02 X 4.1037 Y 2.7065 Z -1.0000 I 0.0331 J -0.1057
G02 X 4.1323 Y 2.7012 Z -1.0000 I 0.0000 J -0.0788
G01 X 4.1345 Y 2.6945 Z -1.0000
G01 X 4.1247 Y 2.6870 Z -1.0000
G02 X 4.0963 Y 2.6826 Z -1.0000 I -0.0284 J 0.0893
G02 X 4.0704 Y 2.6874 Z -1.0000 I -0.0000 J 0.0716
G01 X 4.0655 Y 2.6945 Z -1.0000
G01 X 4.0655 Y 2.6945 Z -1.0000
G00 Z 5.0000

(End cutting path id: path223)


(Start cutting path id: path223)
(Change tool to Default tool)

G00 Z 5.0000
G00 X 3.9394 Y 2.5768

G01 Z -1.0000 F 100.0000(Penetrate)
G01 X 3.9412 Y 2.6128 Z -1.0000 F 3500.0000
G01 X 3.9575 Y 2.6132 Z -1.0000
G02 X 3.9665 Y 2.5873 Z -1.0000 I -0.0689 J -0.0386
G01 X 3.9640 Y 2.5741 Z -1.0000
G01 X 3.9650 Y 2.5661 Z -1.0000
G01 X 3.9775 Y 2.5610 Z -1.0000
G01 X 3.9894 Y 2.5676 Z -1.0000
G01 X 3.9909 Y 2.5824 Z -1.0000
G01 X 3.9944 Y 2.5920 Z -1.0000
G01 X 4.0106 Y 2.5931 Z -1.0000
G01 X 4.0357 Y 2.5919 Z -1.0000
G01 X 4.0560 Y 2.6058 Z -1.0000
G02 X 4.0761 Y 2.6258 Z -1.0000 I 0.0814 J -0.0617
G02 X 4.1053 Y 2.6426 Z -1.0000 I 0.0830 J -0.1107
G02 X 4.2186 Y 2.6670 Z -1.0000 I 0.1212 J -0.2873
G01 X 4.2402 Y 2.6460 Z -1.0000
G01 X 4.2455 Y 2.6402 Z -1.0000
G03 X 4.2720 Y 2.6430 Z -1.0000 I 0.0061 J 0.0686
G01 X 4.2970 Y 2.6438 Z -1.0000
G01 X 4.3037 Y 2.6353 Z -1.0000
G01 X 4.3091 Y 2.6271 Z -1.0000
G01 X 4.3208 Y 2.6280 Z -1.0000
G01 X 4.3246 Y 2.6254 Z -1.0000
G02 X 4.3177 Y 2.6062 Z -1.0000 I -0.0496 J 0.0071
G01 X 4.2938 Y 2.5878 Z -1.0000
G01 X 4.2668 Y 2.5903 Z -1.0000
G01 X 4.2391 Y 2.5956 Z -1.0000
G01 X 4.2226 Y 2.5852 Z -1.0000
G01 X 4.2120 Y 2.5848 Z -1.0000
G01 X 4.2064 Y 2.6068 Z -1.0000
G01 X 4.2028 Y 2.6115 Z -1.0000
G01 X 4.1845 Y 2.6091 Z -1.0000
G01 X 4.1672 Y 2.6093 Z -1.0000
G01 X 4.1609 Y 2.6187 Z -1.0000
G01 X 4.1551 Y 2.6234 Z -1.0000
G01 X 4.1371 Y 2.6136 Z -1.0000
G03 X 4.1168 Y 2.5883 Z -1.0000 I 0.1049 J -0.1049
G01 X 4.1132 Y 2.5762 Z -1.0000
G01 X 4.1080 Y 2.5676 Z -1.0000
G02 X 4.0855 Y 2.5617 Z -1.0000 I -0.0245 J 0.0474
G03 X 4.0578 Y 2.5595 Z -1.0000 I 0.0095 J -0.2944
G03 X 4.0051 Y 2.5516 Z -1.0000 I 0.1459 J -1.1471
G02 X 3.9603 Y 2.5559 Z -1.0000 I -0.0145 J 0.0829
G01 X 3.9395 Y 2.5768 Z -1.0000
G01 X 3.9394 Y 2.5768 Z -1.0000
G00 Z 5.0000

(End cutting path id: path223)


(Start cutting path id: path223)
(Change tool to Default tool)

G00 Z 5.0000
G00 X 3.7877 Y 2.5399

G01 Z -1.0000 F 100.0000(Penetrate)
G01 X 3.7870 Y 2.5507 Z -1.0000 F 3500.0000
G01 X 3.7947 Y 2.5557 Z -1.0000
G01 X 3.8068 Y 2.5509 Z -1.0000
G01 X 3.8115 Y 2.5399 Z -1.0000
G01 X 3.8088 Y 2.5268 Z -1.0000
G01 X 3.8045 Y 2.5240 Z -1.0000
G01 X 3.7989 Y 2.5263 Z -1.0000
G02 X 3.7877 Y 2.5399 Z -1.0000 I 0.0472 J 0.0500
G01 X 3.7877 Y 2.5399 Z -1.0000
G00 Z 5.0000

(End cutting path id: path223)


(Start cutting path id: path223)
(Change tool to Default tool)

G00 Z 5.0000
G00 X 3.7328 Y 2.3398

G01 Z -1.0000 F 100.0000(Penetrate)
G01 X 3.6779 Y 2.3596 Z -1.0000 F 3500.0000
G01 X 3.7413 Y 2.3757 Z -1.0000
G02 X 3.8301 Y 2.3778 Z -1.0000 I 0.0491 J -0.1934
G01 X 3.8554 Y 2.3525 Z -1.0000
G01 X 3.8500 Y 2.3449 Z -1.0000
G01 X 3.8280 Y 2.3488 Z -1.0000
G01 X 3.8099 Y 2.3504 Z -1.0000
G01 X 3.8057 Y 2.3415 Z -1.0000
G01 X 3.7974 Y 2.3292 Z -1.0000
G02 X 3.7328 Y 2.3395 Z -1.0000 I -0.0048 J 0.1762
G01 X 3.7328 Y 2.3398 Z -1.0000
G00 Z 5.0000

(End cutting path id: path223)


(Start cutting path id: path223)
(Change tool to Default tool)

G00 Z 5.0000
G00 X 3.6093 Y 2.3335

G01 Z -1.0000 F 100.0000(Penetrate)
G01 X 3.6212 Y 2.3510 Z -1.0000 F 3500.0000
G02 X 3.6462 Y 2.3610 Z -1.0000 I 0.0314 J -0.0422
G01 X 3.6528 Y 2.3547 Z -1.0000
G03 X 3.6309 Y 2.3422 Z -1.0000 I 0.0402 J -0.0956
G03 X 3.6159 Y 2.3272 Z -1.0000 I 0.0446 J -0.0598
G01 X 3.6111 Y 2.3268 Z -1.0000
G01 X 3.6093 Y 2.3335 Z -1.0000
G01 X 3.6093 Y 2.3335 Z -1.0000
G00 Z 5.0000

(End cutting path id: path223)


(Start cutting path id: path223)
(Change tool to Default tool)

G00 Z 5.0000
G00 X 3.4693 Y 2.3161

G01 Z -1.0000 F 100.0000(Penetrate)
G01 X 3.4809 Y 2.3237 Z -1.0000 F 3500.0000
G02 X 3.5100 Y 2.3222 Z -1.0000 I 0.0108 J -0.0709
G01 X 3.5154 Y 2.3111 Z -1.0000
G01 X 3.5011 Y 2.3017 Z -1.0000
G02 X 3.4718 Y 2.3080 Z -1.0000 I 0.0000 J 0.0708
G01 X 3.4693 Y 2.3161 Z -1.0000
G01 X 3.4693 Y 2.3161 Z -1.0000
G00 Z 5.0000

(End cutting path id: path223)


(Start cutting path id: path223)
(Change tool to Default tool)

G00 Z 5.0000
G00 X 3.9622 Y 2.3813

G01 Z -1.0000 F 100.0000(Penetrate)
G01 X 3.9506 Y 2.3908 Z -1.0000 F 3500.0000
G01 X 3.9398 Y 2.3897 Z -1.0000
G01 X 3.9276 Y 2.3884 Z -1.0000
G02 X 3.8972 Y 2.4045 Z -1.0000 I 0.0364 J 0.1050
G01 X 3.8961 Y 2.4163 Z -1.0000
G01 X 3.9147 Y 2.4238 Z -1.0000
G02 X 3.9855 Y 2.4025 Z -1.0000 I -0.0114 J -0.1660
G01 X 4.0020 Y 2.3742 Z -1.0000
G01 X 3.9889 Y 2.3631 Z -1.0000
G01 X 3.9622 Y 2.3812 Z -1.0000
G01 X 3.9622 Y 2.3813 Z -1.0000
G00 Z 5.0000

(End cutting path id: path223)


(Start cutting path id: path223)
(Change tool to Default tool)

G00 Z 5.0000
G00 X 4.1290 Y 2.4319

G01 Z -1.0000 F 100.0000(Penetrate)
G01 X 4.1400 Y 2.4447 Z -1.0000 F 3500.0000
G02 X 4.2191 Y 2.4460 Z -1.0000 I 0.0441 J -0.2822
G01 X 4.2354 Y 2.4487 Z -1.0000
G01 X 4.2478 Y 2.4599 Z -1.0000
G01 X 4.2733 Y 2.4726 Z -1.0000
G01 X 4.2838 Y 2.4564 Z -1.0000
G02 X 4.1918 Y 2.3783 Z -1.0000 I -0.1103 J 0.0366
G02 X 4.1290 Y 2.4319 Z -1.0000 I -0.0085 J 0.0536
G01 X 4.1290 Y 2.4319 Z -1.0000
G00 Z 5.0000

(End cutting path id: path223)


(Start cutting path id: path223)
(Change tool to Default tool)

G00 Z 5.0000
G00 X 4.3354 Y 2.3253

G01 Z -1.0000 F 100.0000(Penetrate)
G01 X 4.3414 Y 2.3418 Z -1.0000 F 3500.0000
G01 X 4.3605 Y 2.3555 Z -1.0000
G02 X 4.4311 Y 2.3662 Z -1.0000 I 0.0596 J -0.1553
G01 X 4.4465 Y 2.3497 Z -1.0000
G01 X 4.4409 Y 2.3425 Z -1.0000
G01 X 4.4227 Y 2.3435 Z -1.0000
G01 X 4.4046 Y 2.3444 Z -1.0000
G01 X 4.3989 Y 2.3369 Z -1.0000
G01 X 4.3933 Y 2.3256 Z -1.0000
G02 X 4.3671 Y 2.3129 Z -1.0000 I -0.0449 J 0.0592
G01 X 4.3429 Y 2.3143 Z -1.0000
G01 X 4.3354 Y 2.3253 Z -1.0000
G01 X 4.3354 Y 2.3253 Z -1.0000
G00 Z 5.0000

(End cutting path id: path223)


(Start cutting path id: path223)
(Change tool to Default tool)

G00 Z 5.0000
G00 X 4.4385 Y 2.4772

G01 Z -1.0000 F 100.0000(Penetrate)
G01 X 4.4378 Y 2.4843 Z -1.0000 F 3500.0000
G01 X 4.4593 Y 2.4912 Z -1.0000
G03 X 4.5003 Y 2.4986 Z -1.0000 I -0.0028 J 0.1330
G01 X 4.5031 Y 2.5064 Z -1.0000
G01 X 4.5057 Y 2.5153 Z -1.0000
G02 X 4.5538 Y 2.5304 Z -1.0000 I 0.0776 J -0.1628
G02 X 4.7376 Y 2.5503 Z -1.0000 I 0.2658 J -1.6003
G01 X 4.7481 Y 2.5403 Z -1.0000
G01 X 4.7420 Y 2.5332 Z -1.0000
G02 X 4.6915 Y 2.5317 Z -1.0000 I -0.0315 J 0.2094
G03 X 4.6407 Y 2.5276 Z -1.0000 I -0.0136 J -0.1468
G01 X 4.6263 Y 2.5147 Z -1.0000
G01 X 4.6123 Y 2.5004 Z -1.0000
G02 X 4.5707 Y 2.4923 Z -1.0000 I -0.0416 J 0.1035
G03 X 4.5248 Y 2.4881 Z -1.0000 I 0.0000 J -0.2492
G03 X 4.4970 Y 2.4784 Z -1.0000 I 0.0182 J -0.0970
G02 X 4.4700 Y 2.4715 Z -1.0000 I -0.0284 J 0.0549
G02 X 4.4386 Y 2.4773 Z -1.0000 I -0.0017 J 0.0789
G01 X 4.4385 Y 2.4772 Z -1.0000
G00 Z 5.0000

(End cutting path id: path223)


(Start cutting path id: path223)
(Change tool to Default tool)

G00 Z 5.0000
G00 X 4.5100 Y 2.3890

G01 Z -1.0000 F 100.0000(Penetrate)
G01 X 4.5187 Y 2.4041 Z -1.0000 F 3500.0000
G02 X 4.5506 Y 2.4128 Z -1.0000 I 0.0320 J -0.0545
G03 X 4.5781 Y 2.4201 Z -1.0000 I 0.0000 J 0.0550
G01 X 4.5806 Y 2.4300 Z -1.0000
G01 X 4.5831 Y 2.4389 Z -1.0000
G01 X 4.6074 Y 2.4430 Z -1.0000
G03 X 4.7292 Y 2.4516 Z -1.0000 I 0.0378 J 0.3301
G01 X 4.7395 Y 2.4773 Z -1.0000
G01 X 4.7415 Y 2.4827 Z -1.0000
G01 X 4.7552 Y 2.4822 Z -1.0000
G01 X 4.7683 Y 2.4518 Z -1.0000
G01 X 4.7322 Y 2.4266 Z -1.0000
G03 X 4.6628 Y 2.4196 Z -1.0000 I 0.0267 J -0.6181
G01 X 4.6489 Y 2.4133 Z -1.0000
G01 X 4.6445 Y 2.4112 Z -1.0000
G02 X 4.5973 Y 2.4025 Z -1.0000 I -0.1744 J 0.8158
G03 X 4.5538 Y 2.3899 Z -1.0000 I 0.0296 J -0.1848
G01 X 4.5444 Y 2.3800 Z -1.0000
G01 X 4.5249 Y 2.3696 Z -1.0000
G01 X 4.5100 Y 2.3889 Z -1.0000
G01 X 4.5100 Y 2.3890 Z -1.0000
G00 Z 5.0000

(End cutting path id: path223)


(Start cutting path id: path223)
(Change tool to Default tool)

G00 Z 5.0000
G00 X 4.3431 Y 2.6672

G01 Z -1.0000 F 100.0000(Penetrate)
G01 X 4.3314 Y 2.6760 Z -1.0000 F 3500.0000
G01 X 4.3184 Y 2.6742 Z -1.0000
G01 X 4.3085 Y 2.6738 Z -1.0000
G01 X 4.3036 Y 2.6819 Z -1.0000
G01 X 4.3103 Y 2.6921 Z -1.0000
G02 X 4.3407 Y 2.6987 Z -1.0000 I 0.0304 J -0.0673
G02 X 4.3693 Y 2.6903 Z -1.0000 I -0.0000 J -0.0530
G01 X 4.3777 Y 2.6749 Z -1.0000
G01 X 4.3644 Y 2.6582 Z -1.0000
G01 X 4.3431 Y 2.6672 Z -1.0000
G01 X 4.3431 Y 2.6672 Z -1.0000
G00 Z 5.0000

(End cutting path id: path223)


(Start cutting path id: path223)
(Change tool to Default tool)

G00 Z 5.0000
G00 X 4.4663 Y 2.7692

G01 Z -1.0000 F 100.0000(Penetrate)
G01 X 4.4833 Y 2.7720 Z -1.0000 F 3500.0000
G01 X 4.4853 Y 2.7792 Z -1.0000
G01 X 4.4847 Y 2.7890 Z -1.0000
G01 X 4.4921 Y 2.7937 Z -1.0000
G01 X 4.5034 Y 2.7883 Z -1.0000
G01 X 4.5128 Y 2.7685 Z -1.0000
G01 X 4.5240 Y 2.7609 Z -1.0000
G03 X 4.5561 Y 2.7764 Z -1.0000 I -0.0121 J 0.0663
G02 X 4.5963 Y 2.8040 Z -1.0000 I 0.1400 J -0.1609
G01 X 4.6188 Y 2.8095 Z -1.0000
G01 X 4.6282 Y 2.8158 Z -1.0000
G01 X 4.6261 Y 2.8268 Z -1.0000
G01 X 4.6072 Y 2.8335 Z -1.0000
G03 X 4.5629 Y 2.8203 Z -1.0000 I 0.0127 J -0.1236
G02 X 4.5171 Y 2.8065 Z -1.0000 I -0.0595 J 0.1151
G01 X 4.4885 Y 2.8124 Z -1.0000
G01 X 4.4614 Y 2.8166 Z -1.0000
G03 X 4.4295 Y 2.8005 Z -1.0000 I 0.0130 J -0.0656
G03 X 4.4081 Y 2.7648 Z -1.0000 I 0.0482 J -0.0532
G01 X 4.4188 Y 2.7579 Z -1.0000
G02 X 4.4400 Y 2.7682 Z -1.0000 I 0.0336 J -0.0418
G02 X 4.4665 Y 2.7692 Z -1.0000 I 0.0155 J -0.0656
G01 X 4.4663 Y 2.7692 Z -1.0000
G00 Z 5.0000

(End cutting path id: path223)


(Start cutting path id: path223)
(Change tool to Default tool)

G00 Z 5.0000
G00 X 4.9226 Y 2.6279

G01 Z -1.0000 F 100.0000(Penetrate)
G01 X 4.9166 Y 2.6419 Z -1.0000 F 3500.0000
G01 X 4.9068 Y 2.6429 Z -1.0000
G01 X 4.8947 Y 2.6310 Z -1.0000
G01 X 4.8909 Y 2.6181 Z -1.0000
G01 X 4.8954 Y 2.6077 Z -1.0000
G01 X 4.9068 Y 2.6032 Z -1.0000
G01 X 4.9170 Y 2.6088 Z -1.0000
G01 X 4.9226 Y 2.6279 Z -1.0000
G01 X 4.9226 Y 2.6279 Z -1.0000
G00 Z 5.0000

(End cutting path id: path223)


(Start cutting path id: path223)
(Change tool to Default tool)

G00 Z 5.0000
G00 X 4.9501 Y 2.8350

G01 Z -1.0000 F 100.0000(Penetrate)
G01 X 4.9396 Y 2.8396 Z -1.0000 F 3500.0000
G01 X 4.9197 Y 2.8363 Z -1.0000
G01 X 4.9186 Y 2.8313 Z -1.0000
G01 X 4.9293 Y 2.8267 Z -1.0000
G01 X 4.9491 Y 2.8301 Z -1.0000
G01 X 4.9501 Y 2.8350 Z -1.0000
G01 X 4.9501 Y 2.8350 Z -1.0000
G00 Z 5.0000

(End cutting path id: path223)


(Start cutting path id: path223)
(Change tool to Default tool)

G00 Z 5.0000
G00 X 5.0496 Y 2.3165

G01 Z -1.0000 F 100.0000(Penetrate)
G01 X 5.0356 Y 2.3363 Z -1.0000 F 3500.0000
G03 X 4.9875 Y 2.3383 Z -1.0000 I -0.0272 J -0.0776
G01 X 4.9706 Y 2.3260 Z -1.0000
G01 X 4.9729 Y 2.3155 Z -1.0000
G03 X 5.0321 Y 2.2987 Z -1.0000 I 0.0578 J 0.0912
G01 X 5.0496 Y 2.3165 Z -1.0000
G01 X 5.0496 Y 2.3165 Z -1.0000
G00 Z 5.0000

(End cutting path id: path223)


(Start cutting path id: path223)
(Change tool to Default tool)

G00 Z 5.0000
G00 X 5.2242 Y 2.3651

G01 Z -1.0000 F 100.0000(Penetrate)
G01 X 5.2187 Y 2.3753 Z -1.0000 F 3500.0000
G01 X 5.1995 Y 2.3809 Z -1.0000
G01 X 5.1855 Y 2.3749 Z -1.0000
G01 X 5.1846 Y 2.3651 Z -1.0000
G01 X 5.1965 Y 2.3530 Z -1.0000
G01 X 5.2093 Y 2.3492 Z -1.0000
G01 X 5.2198 Y 2.3537 Z -1.0000
G01 X 5.2243 Y 2.3651 Z -1.0000
G01 X 5.2242 Y 2.3651 Z -1.0000
G00 Z 5.0000

(End cutting path id: path223)


(Start cutting path id: path223)
(Change tool to Default tool)

G00 Z 5.0000
G00 X 5.3353 Y 2.3469

G01 Z -1.0000 F 100.0000(Penetrate)
G01 X 5.3422 Y 2.3255 Z -1.0000 F 3500.0000
G01 X 5.3609 Y 2.3110 Z -1.0000
G01 X 5.3743 Y 2.3134 Z -1.0000
G01 X 5.3773 Y 2.3252 Z -1.0000
G01 X 5.3834 Y 2.3341 Z -1.0000
G01 X 5.4045 Y 2.3254 Z -1.0000
G01 X 5.4283 Y 2.3155 Z -1.0000
G01 X 5.4522 Y 2.3254 Z -1.0000
G02 X 5.4782 Y 2.3440 Z -1.0000 I 0.0686 J -0.0687
G02 X 5.5009 Y 2.3492 Z -1.0000 I 0.0228 J -0.0466
G01 X 5.5201 Y 2.3737 Z -1.0000
G03 X 5.4851 Y 2.4131 Z -1.0000 I -0.0551 J -0.0136
G03 X 5.4451 Y 2.4136 Z -1.0000 I -0.0207 J -0.0544
G01 X 5.4355 Y 2.3956 Z -1.0000
G01 X 5.4315 Y 2.3773 Z -1.0000
G01 X 5.4175 Y 2.3740 Z -1.0000
G03 X 5.3902 Y 2.3825 Z -1.0000 I -0.0582 J -0.1375
G03 X 5.3393 Y 2.3904 Z -1.0000 I -0.0968 J -0.4572
G03 X 5.2972 Y 2.3850 Z -1.0000 I -0.0093 J -0.0946
G01 X 5.2877 Y 2.3714 Z -1.0000
G01 X 5.2812 Y 2.3591 Z -1.0000
G01 X 5.2692 Y 2.3589 Z -1.0000
G01 X 5.2617 Y 2.3569 Z -1.0000
G01 X 5.2608 Y 2.3439 Z -1.0000
G01 X 5.2622 Y 2.3235 Z -1.0000
G01 X 5.2546 Y 2.3175 Z -1.0000
G01 X 5.2473 Y 2.3124 Z -1.0000
G01 X 5.2485 Y 2.3009 Z -1.0000
G01 X 5.2599 Y 2.2980 Z -1.0000
G03 X 5.2970 Y 2.3286 Z -1.0000 I -0.0713 J 0.1240
G02 X 5.3274 Y 2.3519 Z -1.0000 I 0.0709 J -0.0610
G01 X 5.3353 Y 2.3470 Z -1.0000
G01 X 5.3353 Y 2.3469 Z -1.0000
G00 Z 5.0000

(End cutting path id: path223)


(Start cutting path id: path223)
(Change tool to Default tool)

G00 Z 5.0000
G00 X 5.3671 Y 2.2570

G01 Z -1.0000 F 100.0000(Penetrate)
G01 X 5.3502 Y 2.2688 Z -1.0000 F 3500.0000
G01 X 5.3231 Y 2.2410 Z -1.0000
G01 X 5.3267 Y 2.2325 Z -1.0000
G01 X 5.3420 Y 2.2318 Z -1.0000
G03 X 5.3621 Y 2.2450 Z -1.0000 I -0.0216 J 0.0551
G01 X 5.3671 Y 2.2570 Z -1.0000
G01 X 5.3671 Y 2.2570 Z -1.0000
G00 Z 5.0000

(End cutting path id: path223)


(Start cutting path id: path223)
(Change tool to Default tool)

G00 Z 5.0000
G00 X 5.5951 Y 2.2936

G01 Z -1.0000 F 100.0000(Penetrate)
G01 X 5.5895 Y 2.3073 Z -1.0000 F 3500.0000
G03 X 5.5422 Y 2.3175 Z -1.0000 I -0.0473 J -0.1051
G01 X 5.5060 Y 2.2999 Z -1.0000
G01 X 5.5136 Y 2.2813 Z -1.0000
G02 X 5.5654 Y 2.2744 Z -1.0000 I -0.2724 J -2.2209
G02 X 5.5757 Y 2.2723 Z -1.0000 I -0.0154 J -0.1054
G01 X 5.5834 Y 2.2747 Z -1.0000
G03 X 5.5951 Y 2.2936 Z -1.0000 I -0.0447 J 0.0407
G01 X 5.5951 Y 2.2936 Z -1.0000
G00 Z 5.0000

(End cutting path id: path223)


(Start cutting path id: path223)
(Change tool to Default tool)

G00 Z 5.0000
G00 X 5.8694 Y 2.5238

G01 Z -1.0000 F 100.0000(Penetrate)
G01 X 5.8812 Y 2.5171 Z -1.0000 F 3500.0000
G01 X 5.8814 Y 2.5040 Z -1.0000
G01 X 5.8835 Y 2.4965 Z -1.0000
G03 X 5.9077 Y 2.5489 Z -1.0000 I -0.0501 J 0.0550
G01 X 5.8860 Y 2.5715 Z -1.0000
G03 X 5.8446 Y 2.5532 Z -1.0000 I 0.0000 J -0.0561
G03 X 5.8286 Y 2.5087 Z -1.0000 I 0.0452 J -0.0414
G01 X 5.8329 Y 2.5021 Z -1.0000
G01 X 5.8379 Y 2.5039 Z -1.0000
G01 X 5.8497 Y 2.5181 Z -1.0000
G01 X 5.8693 Y 2.5238 Z -1.0000
G01 X 5.8694 Y 2.5238 Z -1.0000
G00 Z 5.0000

(End cutting path id: path223)


(Start cutting path id: path223)
(Change tool to Default tool)

G00 Z 5.0000
G00 X 5.9399 Y 2.9141

G01 Z -1.0000 F 100.0000(Penetrate)
G01 X 5.9445 Y 2.9247 Z -1.0000 F 3500.0000
G01 X 5.9495 Y 2.9237 Z -1.0000
G01 X 5.9529 Y 2.9040 Z -1.0000
G01 X 5.9482 Y 2.8933 Z -1.0000
G01 X 5.9433 Y 2.8943 Z -1.0000
G01 X 5.9399 Y 2.9141 Z -1.0000
G01 X 5.9399 Y 2.9141 Z -1.0000
G00 Z 5.0000

(End cutting path id: path223)


(Start cutting path id: path223)
(Change tool to Default tool)

G00 Z 5.0000
G00 X 5.9198 Y 2.9792

G01 Z -1.0000 F 100.0000(Penetrate)
G01 X 5.9395 Y 2.9826 Z -1.0000 F 3500.0000
G01 X 5.9502 Y 2.9779 Z -1.0000
G01 X 5.9492 Y 2.9730 Z -1.0000
G01 X 5.9293 Y 2.9696 Z -1.0000
G01 X 5.9187 Y 2.9743 Z -1.0000
G01 X 5.9197 Y 2.9792 Z -1.0000
G01 X 5.9198 Y 2.9792 Z -1.0000
G00 Z 5.0000

(End cutting path id: path223)


(Start cutting path id: path223)
(Change tool to Default tool)

G00 Z 5.0000
G00 X 5.9276 Y 3.0310

G01 Z -1.0000 F 100.0000(Penetrate)
G03 X 5.9143 Y 3.0566 Z -1.0000 I -0.0638 J -0.0169 F 3500.0000
G01 X 5.8975 Y 3.0667 Z -1.0000
G01 X 5.8947 Y 3.0737 Z -1.0000
G01 X 5.9119 Y 3.0885 Z -1.0000
G01 X 5.9355 Y 3.0846 Z -1.0000
G01 X 5.9498 Y 3.0527 Z -1.0000
G01 X 5.9397 Y 3.0276 Z -1.0000
G01 X 5.9276 Y 3.0310 Z -1.0000
G01 X 5.9276 Y 3.0310 Z -1.0000
G00 Z 5.0000

(End cutting path id: path223)


(Start cutting path id: path223)
(Change tool to Default tool)

G00 Z 5.0000
G00 X 5.7481 Y 3.2222

G01 Z -1.0000 F 100.0000(Penetrate)
G03 X 5.7390 Y 3.2608 Z -1.0000 I -0.0862 J -0.0000 F 3500.0000
G01 X 5.7243 Y 3.2699 Z -1.0000
G01 X 5.7096 Y 3.2608 Z -1.0000
G03 X 5.7005 Y 3.2222 Z -1.0000 I 0.0770 J -0.0385
G03 X 5.7095 Y 3.1837 Z -1.0000 I 0.0862 J 0.0000
G01 X 5.7243 Y 3.1746 Z -1.0000
G01 X 5.7390 Y 3.1837 Z -1.0000
G03 X 5.7481 Y 3.2222 Z -1.0000 I -0.0770 J 0.0385
G01 X 5.7481 Y 3.2222 Z -1.0000
G00 Z 5.0000

(End cutting path id: path223)


(Start cutting path id: path223)
(Change tool to Default tool)

G00 Z 5.0000
G00 X 5.7429 Y 3.3730

G01 Z -1.0000 F 100.0000(Penetrate)
G03 X 5.7354 Y 3.4394 Z -1.0000 I -0.4462 J -0.0170 F 3500.0000
G01 X 5.7292 Y 3.4445 Z -1.0000
G01 X 5.7056 Y 3.4253 Z -1.0000
G03 X 5.7072 Y 3.3402 Z -1.0000 I 0.1851 J -0.0391
G01 X 5.7268 Y 3.3343 Z -1.0000
G03 X 5.7428 Y 3.3731 Z -1.0000 I -0.0340 J 0.0368
G01 X 5.7429 Y 3.3730 Z -1.0000
G00 Z 5.0000

(End cutting path id: path223)


(Start cutting path id: path223)
(Change tool to Default tool)

G00 Z 5.0000
G00 X 5.6179 Y 3.3096

G01 Z -1.0000 F 100.0000(Penetrate)
G03 X 5.6139 Y 3.3895 Z -1.0000 I -0.4368 J 0.0180 F 3500.0000
G01 X 5.6054 Y 3.3969 Z -1.0000
G01 X 5.5958 Y 3.3903 Z -1.0000
G03 X 5.5893 Y 3.3567 Z -1.0000 I 0.0842 J -0.0337
G02 X 5.5813 Y 3.3219 Z -1.0000 I -0.0800 J -0.0000
G01 X 5.5655 Y 3.3074 Z -1.0000
G01 X 5.5508 Y 3.2952 Z -1.0000
G01 X 5.5508 Y 3.2838 Z -1.0000
G01 X 5.5614 Y 3.2762 Z -1.0000
G01 X 5.5745 Y 3.2784 Z -1.0000
G01 X 5.5831 Y 3.2764 Z -1.0000
G01 X 5.5892 Y 3.2549 Z -1.0000
G03 X 5.5943 Y 3.2273 Z -1.0000 I 0.0772 J -0.0000
G01 X 5.6018 Y 3.2222 Z -1.0000
G01 X 5.6087 Y 3.2280 Z -1.0000
G03 X 5.6179 Y 3.3095 Z -1.0000 I -0.5769 J 0.1060
G01 X 5.6179 Y 3.3096 Z -1.0000
G00 Z 5.0000

(End cutting path id: path223)


(Start cutting path id: path223)
(Change tool to Default tool)

G00 Z 5.0000
G00 X 5.7481 Y 3.5238

G01 Z -1.0000 F 100.0000(Penetrate)
G01 X 5.7436 Y 3.5352 Z -1.0000 F 3500.0000
G01 X 5.7332 Y 3.5397 Z -1.0000
G01 X 5.7203 Y 3.5359 Z -1.0000
G01 X 5.7084 Y 3.5238 Z -1.0000
G01 X 5.7094 Y 3.5140 Z -1.0000
G01 X 5.7234 Y 3.5080 Z -1.0000
G01 X 5.7425 Y 3.5136 Z -1.0000
G01 X 5.7481 Y 3.5238 Z -1.0000
G01 X 5.7481 Y 3.5238 Z -1.0000
G00 Z 5.0000

(End cutting path id: path223)


(Start cutting path id: path223)
(Change tool to Default tool)

G00 Z 5.0000
G00 X 4.5575 Y 4.2581

G01 Z -1.0000 F 100.0000(Penetrate)
G01 X 4.5625 Y 4.2650 Z -1.0000 F 3500.0000
G02 X 4.5963 Y 4.2701 Z -1.0000 I 0.0337 J -0.1081
G02 X 4.6324 Y 4.2655 Z -1.0000 I -0.0000 J -0.1437
G01 X 4.6424 Y 4.2581 Z -1.0000
G01 X 4.6399 Y 4.2516 Z -1.0000
G02 X 4.6036 Y 4.2462 Z -1.0000 I -0.0363 J 0.1179
G02 X 4.5627 Y 4.2514 Z -1.0000 I -0.0000 J 0.1624
G01 X 4.5575 Y 4.2581 Z -1.0000
G01 X 4.5575 Y 4.2581 Z -1.0000
G00 Z 5.0000

(End cutting path id: path223)


(Start cutting path id: path223)
(Change tool to Default tool)

G00 Z 5.0000
G00 X 5.8750 Y 4.9189

G01 Z -1.0000 F 100.0000(Penetrate)
G01 X 5.8788 Y 4.9310 Z -1.0000 F 3500.0000
G02 X 5.8988 Y 4.9526 Z -1.0000 I 0.0910 J -0.0641
G01 X 5.9168 Y 4.9599 Z -1.0000
G01 X 5.9226 Y 4.9546 Z -1.0000
G01 X 5.9171 Y 4.9422 Z -1.0000
G01 X 5.9028 Y 4.9365 Z -1.0000
G01 X 5.8990 Y 4.9317 Z -1.0000
G01 X 5.9067 Y 4.9209 Z -1.0000
G01 X 5.9105 Y 4.9113 Z -1.0000
G01 X 5.9028 Y 4.9053 Z -1.0000
G01 X 5.8803 Y 4.9105 Z -1.0000
G01 X 5.8750 Y 4.9189 Z -1.0000
G01 X 5.8750 Y 4.9189 Z -1.0000
G00 Z 5.0000

(End cutting path id: path223)


(Start cutting path id: path223)
(Change tool to Default tool)

G00 Z 5.0000
G00 X 5.8433 Y 5.0477

G01 Z -1.0000 F 100.0000(Penetrate)
G03 X 5.8372 Y 5.0735 Z -1.0000 I -0.0573 J -0.0000 F 3500.0000
G01 X 5.8275 Y 5.0795 Z -1.0000
G01 X 5.8177 Y 5.0734 Z -1.0000
G03 X 5.8116 Y 5.0477 Z -1.0000 I 0.0513 J -0.0257
G03 X 5.8177 Y 5.0220 Z -1.0000 I 0.0573 J 0.0000
G01 X 5.8275 Y 5.0160 Z -1.0000
G01 X 5.8373 Y 5.0220 Z -1.0000
G03 X 5.8433 Y 5.0477 Z -1.0000 I -0.0513 J 0.0257
G01 X 5.8433 Y 5.0477 Z -1.0000
G00 Z 5.0000

(End cutting path id: path223)


(Start cutting path id: path223)
(Change tool to Default tool)

G00 Z 5.0000
G00 X 5.8433 Y 5.1757

G01 Z -1.0000 F 100.0000(Penetrate)
G03 X 5.8373 Y 5.2005 Z -1.0000 I -0.0540 J 0.0000 F 3500.0000
G01 X 5.8275 Y 5.2065 Z -1.0000
G01 X 5.8181 Y 5.2001 Z -1.0000
G03 X 5.8116 Y 5.1659 Z -1.0000 I 0.0873 J -0.0342
G03 X 5.8185 Y 5.1375 Z -1.0000 I 0.0617 J 0.0000
G01 X 5.8275 Y 5.1350 Z -1.0000
G01 X 5.8381 Y 5.1478 Z -1.0000
G03 X 5.8433 Y 5.1757 Z -1.0000 I -0.0712 J 0.0279
G01 X 5.8433 Y 5.1757 Z -1.0000
G00 Z 5.0000

(End cutting path id: path223)


(Start cutting path id: path223)
(Change tool to Default tool)

G00 Z 5.0000
G00 X 5.9267 Y 5.3415

G01 Z -1.0000 F 100.0000(Penetrate)
G01 X 5.9339 Y 5.3691 Z -1.0000 F 3500.0000
G02 X 5.9372 Y 5.3333 Z -1.0000 I -0.1821 J -0.0351
G02 X 5.9335 Y 5.3056 Z -1.0000 I -0.1099 J 0.0004
G01 X 5.9266 Y 5.3415 Z -1.0000
G01 X 5.9267 Y 5.3415 Z -1.0000
G00 Z 5.0000

(End cutting path id: path223)


(Start cutting path id: path223)
(Change tool to Default tool)

G00 Z 5.0000
G00 X 5.9239 Y 5.4380

G01 Z -1.0000 F 100.0000(Penetrate)
G01 X 5.9285 Y 5.4486 Z -1.0000 F 3500.0000
G01 X 5.9335 Y 5.4476 Z -1.0000
G01 X 5.9369 Y 5.4279 Z -1.0000
G01 X 5.9322 Y 5.4172 Z -1.0000
G01 X 5.9273 Y 5.4182 Z -1.0000
G01 X 5.9239 Y 5.4380 Z -1.0000
G01 X 5.9239 Y 5.4380 Z -1.0000
G00 Z 5.0000

(End cutting path id: path223)


(Start cutting path id: path223)
(Change tool to Default tool)

G00 Z 5.0000
G00 X 5.8634 Y 5.7319

G01 Z -1.0000 F 100.0000(Penetrate)
G01 X 5.8481 Y 5.7356 Z -1.0000 F 3500.0000
G01 X 5.8397 Y 5.7054 Z -1.0000
G01 X 5.8510 Y 5.6823 Z -1.0000
G01 X 5.8594 Y 5.6830 Z -1.0000
G01 X 5.8659 Y 5.7029 Z -1.0000
G03 X 5.8633 Y 5.7319 Z -1.0000 I -0.0849 J 0.0069
G01 X 5.8634 Y 5.7319 Z -1.0000
G00 Z 5.0000

(End cutting path id: path223)


(Start cutting path id: path223)
(Change tool to Default tool)

G00 Z 5.0000
G00 X 5.9226 Y 5.7393

G01 Z -1.0000 F 100.0000(Penetrate)
G01 X 5.9287 Y 5.7531 Z -1.0000 F 3500.0000
G01 X 5.9387 Y 5.7540 Z -1.0000
G01 X 5.9475 Y 5.7423 Z -1.0000
G01 X 5.9457 Y 5.7293 Z -1.0000
G01 X 5.9320 Y 5.7250 Z -1.0000
G01 X 5.9226 Y 5.7393 Z -1.0000
G01 X 5.9226 Y 5.7393 Z -1.0000
G00 Z 5.0000

(End cutting path id: path223)


(Start cutting path id: path223)
(Change tool to Default tool)

G00 Z 5.0000
G00 X 5.8658 Y 5.8040

G01 Z -1.0000 F 100.0000(Penetrate)
G03 X 5.8716 Y 5.8292 Z -1.0000 I -0.0863 J 0.0331 F 3500.0000
G01 X 5.8686 Y 5.8373 Z -1.0000
G01 X 5.8442 Y 5.8381 Z -1.0000
G01 X 5.8275 Y 5.8008 Z -1.0000
G01 X 5.8428 Y 5.7867 Z -1.0000
G01 X 5.8659 Y 5.8040 Z -1.0000
G01 X 5.8658 Y 5.8040 Z -1.0000
G00 Z 5.0000

(End cutting path id: path223)


(Start cutting path id: path223)
(Change tool to Default tool)

G00 Z 5.0000
G00 X 5.9253 Y 5.8732

G01 Z -1.0000 F 100.0000(Penetrate)
G02 X 5.9286 Y 5.9121 Z -1.0000 I 0.2030 J 0.0024 F 3500.0000
G02 X 5.9385 Y 5.9447 Z -1.0000 I 0.1450 J -0.0265
G01 X 5.9522 Y 5.9764 Z -1.0000
G01 X 5.9517 Y 5.9447 Z -1.0000
G02 X 5.9486 Y 5.9134 Z -1.0000 I -0.1872 J 0.0027
G02 X 5.9385 Y 5.8732 Z -1.0000 I -0.3156 J 0.0584
G01 X 5.9258 Y 5.8336 Z -1.0000
G01 X 5.9253 Y 5.8732 Z -1.0000
G00 Z 5.0000

(End cutting path id: path223)


(Start cutting path id: path223)
(Change tool to Default tool)

G00 Z 5.0000
G00 X 5.9365 Y 6.0354

G01 Z -1.0000 F 100.0000(Penetrate)
G01 X 5.9450 Y 6.0520 Z -1.0000 F 3500.0000
G01 X 5.9511 Y 6.0500 Z -1.0000
G02 X 5.9509 Y 6.0144 Z -1.0000 I -0.1116 J -0.0173
G01 X 5.9425 Y 5.9979 Z -1.0000
G01 X 5.9364 Y 5.9999 Z -1.0000
G02 X 5.9366 Y 6.0354 Z -1.0000 I 0.1111 J 0.0171
G01 X 5.9365 Y 6.0354 Z -1.0000
G00 Z 5.0000

(End cutting path id: path223)


(Start cutting path id: path223)
(Change tool to Default tool)

G00 Z 5.0000
G00 X 5.9365 Y 6.1466

G01 Z -1.0000 F 100.0000(Penetrate)
G01 X 5.9450 Y 6.1631 Z -1.0000 F 3500.0000
G01 X 5.9511 Y 6.1611 Z -1.0000
G02 X 5.9509 Y 6.1255 Z -1.0000 I -0.1116 J -0.0173
G01 X 5.9425 Y 6.1090 Z -1.0000
G01 X 5.9364 Y 6.1110 Z -1.0000
G02 X 5.9366 Y 6.1466 Z -1.0000 I 0.1111 J 0.0171
G01 X 5.9365 Y 6.1466 Z -1.0000
G00 Z 5.0000

(End cutting path id: path223)


(Start cutting path id: path223)
(Change tool to Default tool)

G00 Z 5.0000
G00 X 5.9067 Y 6.2128

G01 Z -1.0000 F 100.0000(Penetrate)
G01 X 5.9091 Y 6.2174 Z -1.0000 F 3500.0000
G02 X 5.9305 Y 6.2282 Z -1.0000 I 0.0605 J -0.0926
G01 X 5.9487 Y 6.2293 Z -1.0000
G01 X 5.9543 Y 6.2220 Z -1.0000
G01 X 5.9489 Y 6.2121 Z -1.0000
G01 X 5.9305 Y 6.2066 Z -1.0000
G02 X 5.9093 Y 6.2093 Z -1.0000 I 0.0000 J 0.0836
G01 X 5.9067 Y 6.2128 Z -1.0000
G01 X 5.9067 Y 6.2128 Z -1.0000
G00 Z 5.0000

(End cutting path id: path223)


(Start cutting path id: path223)
(Change tool to Default tool)

G00 Z 5.0000
G00 X 5.9227 Y 6.3335

G01 Z -1.0000 F 100.0000(Penetrate)
G01 X 5.9200 Y 6.3466 Z -1.0000 F 3500.0000
G01 X 5.9157 Y 6.3494 Z -1.0000
G01 X 5.9100 Y 6.3471 Z -1.0000
G03 X 5.8989 Y 6.3335 Z -1.0000 I 0.0472 J -0.0500
G01 X 5.8981 Y 6.3227 Z -1.0000
G01 X 5.9059 Y 6.3176 Z -1.0000
G01 X 5.9180 Y 6.3225 Z -1.0000
G01 X 5.9227 Y 6.3335 Z -1.0000
G01 X 5.9227 Y 6.3335 Z -1.0000
G00 Z 5.0000

(End cutting path id: path223)


(Start cutting path id: path223)
(Change tool to Default tool)

G00 Z 5.0000
G00 X 5.8649 Y 6.3732

G01 Z -1.0000 F 100.0000(Penetrate)
G03 X 5.8541 Y 6.3945 Z -1.0000 I -0.1119 J -0.0436 F 3500.0000
G01 X 5.8496 Y 6.3970 Z -1.0000
G01 X 5.8461 Y 6.3943 Z -1.0000
G03 X 5.8434 Y 6.3732 Z -1.0000 I 0.0808 J -0.0211
G01 X 5.8488 Y 6.3548 Z -1.0000
G01 X 5.8587 Y 6.3494 Z -1.0000
G01 X 5.8660 Y 6.3549 Z -1.0000
G01 X 5.8649 Y 6.3732 Z -1.0000
G01 X 5.8649 Y 6.3732 Z -1.0000
G00 Z 5.0000

(End cutting path id: path223)


(Start cutting path id: path223)
(Change tool to Default tool)

G00 Z 5.0000
G00 X 5.9305 Y 6.4447

G01 Z -1.0000 F 100.0000(Penetrate)
G02 X 5.9239 Y 6.4934 Z -1.0000 I 0.2802 J 0.0623 F 3500.0000
G01 X 5.9275 Y 6.5025 Z -1.0000
G01 X 5.9328 Y 6.5015 Z -1.0000
G02 X 5.9464 Y 6.4606 Z -1.0000 I -0.1955 J -0.0874
G02 X 5.9529 Y 6.4119 Z -1.0000 I -0.2802 J -0.0623
G01 X 5.9494 Y 6.4028 Z -1.0000
G01 X 5.9440 Y 6.4037 Z -1.0000
G02 X 5.9305 Y 6.4447 Z -1.0000 I 0.1955 J 0.0874
G01 X 5.9305 Y 6.4447 Z -1.0000
G00 Z 5.0000

(End cutting path id: path223)


(Start cutting path id: path223)
(Change tool to Default tool)

G00 Z 5.0000
G00 X 5.8751 Y 6.5716

G01 Z -1.0000 F 100.0000(Penetrate)
G01 X 5.8704 Y 6.5829 Z -1.0000 F 3500.0000
G01 X 5.8592 Y 6.5875 Z -1.0000
G01 X 5.8480 Y 6.5828 Z -1.0000
G01 X 5.8433 Y 6.5716 Z -1.0000
G01 X 5.8480 Y 6.5604 Z -1.0000
G01 X 5.8592 Y 6.5557 Z -1.0000
G01 X 5.8704 Y 6.5604 Z -1.0000
G01 X 5.8751 Y 6.5716 Z -1.0000
G01 X 5.8751 Y 6.5716 Z -1.0000
G00 Z 5.0000

(End cutting path id: path223)


(Start cutting path id: path223)
(Change tool to Default tool)

G00 Z 5.0000
G00 X 6.2504 Y 6.7217

G01 Z -1.0000 F 100.0000(Penetrate)
G01 X 6.2529 Y 6.7334 Z -1.0000 F 3500.0000
G01 X 6.2646 Y 6.7359 Z -1.0000
G01 X 6.2848 Y 6.7129 Z -1.0000
G01 X 6.2735 Y 6.6987 Z -1.0000
G01 X 6.2625 Y 6.7032 Z -1.0000
G02 X 6.2505 Y 6.7217 Z -1.0000 I 0.0375 J 0.0375
G01 X 6.2504 Y 6.7217 Z -1.0000
G00 Z 5.0000

(End cutting path id: path223)


(Start cutting path id: path223)
(Change tool to Default tool)

G00 Z 5.0000
G00 X 5.8784 Y 7.2499

G01 Z -1.0000 F 100.0000(Penetrate)
G02 X 5.8813 Y 7.2759 Z -1.0000 I 0.0692 J 0.0055 F 3500.0000
G01 X 5.8868 Y 7.2770 Z -1.0000
G03 X 5.8994 Y 7.2633 Z -1.0000 I 0.1418 J 0.1184
G03 X 5.9114 Y 7.2530 Z -1.0000 I 0.0857 J 0.0877
G01 X 5.9145 Y 7.2433 Z -1.0000
G01 X 5.9030 Y 7.2259 Z -1.0000
G01 X 5.8894 Y 7.2265 Z -1.0000
G01 X 5.8784 Y 7.2499 Z -1.0000
G01 X 5.8784 Y 7.2499 Z -1.0000
G00 Z 5.0000

(End cutting path id: path223)


(Start cutting path id: path223)
(Change tool to Default tool)

G00 Z 5.0000
G00 X 5.8974 Y 7.3138

G01 Z -1.0000 F 100.0000(Penetrate)
G01 X 5.8988 Y 7.3280 Z -1.0000 F 3500.0000
G01 X 5.8909 Y 7.3337 Z -1.0000
G01 X 5.8829 Y 7.3390 Z -1.0000
G01 X 5.8839 Y 7.3509 Z -1.0000
G01 X 5.8958 Y 7.3575 Z -1.0000
G01 X 5.9119 Y 7.3509 Z -1.0000
G01 X 5.9178 Y 7.3339 Z -1.0000
G01 X 5.9078 Y 7.3138 Z -1.0000
G01 X 5.8976 Y 7.3138 Z -1.0000
G01 X 5.8974 Y 7.3138 Z -1.0000
G00 Z 5.0000

(End cutting path id: path223)


(Start cutting path id: path223)
(Change tool to Default tool)

G00 Z 5.0000
G00 X 5.8750 Y 7.4536

G01 Z -1.0000 F 100.0000(Penetrate)
G01 X 5.8811 Y 7.4675 Z -1.0000 F 3500.0000
G01 X 5.8912 Y 7.4684 Z -1.0000
G01 X 5.9000 Y 7.4567 Z -1.0000
G01 X 5.8982 Y 7.4436 Z -1.0000
G01 X 5.8844 Y 7.4393 Z -1.0000
G01 X 5.8750 Y 7.4536 Z -1.0000
G01 X 5.8750 Y 7.4536 Z -1.0000
G00 Z 5.0000

(End cutting path id: path223)


(Start cutting path id: path223)
(Change tool to Default tool)

G00 Z 5.0000
G00 X 5.9440 Y 7.4534

G01 Z -1.0000 F 100.0000(Penetrate)
G02 X 5.9390 Y 7.4769 Z -1.0000 I 0.0706 J 0.0271 F 3500.0000
G01 X 5.9425 Y 7.4857 Z -1.0000
G01 X 5.9482 Y 7.4852 Z -1.0000
G02 X 5.9588 Y 7.4612 Z -1.0000 I -0.0677 J -0.0445
G01 X 5.9538 Y 7.4497 Z -1.0000
G01 X 5.9440 Y 7.4533 Z -1.0000
G01 X 5.9440 Y 7.4534 Z -1.0000
G00 Z 5.0000

(End cutting path id: path223)


(Start cutting path id: path223)
(Change tool to Default tool)

G00 Z 5.0000
G00 X 5.9385 Y 7.5409

G01 Z -1.0000 F 100.0000(Penetrate)
G01 X 5.9436 Y 7.5487 Z -1.0000 F 3500.0000
G01 X 5.9544 Y 7.5479 Z -1.0000
G02 X 5.9680 Y 7.5368 Z -1.0000 I -0.0361 J -0.0582
G01 X 5.9703 Y 7.5311 Z -1.0000
G01 X 5.9675 Y 7.5268 Z -1.0000
G01 X 5.9544 Y 7.5241 Z -1.0000
G01 X 5.9433 Y 7.5288 Z -1.0000
G01 X 5.9385 Y 7.5409 Z -1.0000
G01 X 5.9385 Y 7.5409 Z -1.0000
G00 Z 5.0000

(End cutting path id: path223)


(Start cutting path id: path223)
(Change tool to Default tool)

G00 Z 5.0000
G00 X 5.9534 Y 7.6194

G01 Z -1.0000 F 100.0000(Penetrate)
G02 X 5.9486 Y 7.6439 Z -1.0000 I 0.0723 J 0.0270 F 3500.0000
G02 X 5.9488 Y 7.7588 Z -1.0000 I 1.6163 J 0.0540
G03 X 5.9471 Y 7.8641 Z -1.0000 I -0.9787 J 0.0369
G01 X 5.9412 Y 7.8671 Z -1.0000
G01 X 5.8885 Y 7.8860 Z -1.0000
G02 X 5.9048 Y 7.9742 Z -1.0000 I 0.0870 J 0.0295
G01 X 5.9120 Y 7.9943 Z -1.0000
G01 X 5.9046 Y 8.0121 Z -1.0000
G01 X 5.8956 Y 8.0304 Z -1.0000
G01 X 5.8998 Y 8.0495 Z -1.0000
G01 X 5.9186 Y 8.0481 Z -1.0000
G02 X 5.9374 Y 7.9599 Z -1.0000 I -0.2234 J -0.0938
G03 X 5.9441 Y 7.9138 Z -1.0000 I 0.1916 J 0.0044
G01 X 5.9551 Y 7.8949 Z -1.0000
G01 X 5.9640 Y 7.8755 Z -1.0000
G02 X 5.9670 Y 7.7370 Z -1.0000 I -1.2838 J -0.0974
G02 X 5.9584 Y 7.6200 Z -1.0000 I -1.4221 J 0.0457
G01 X 5.9535 Y 7.6194 Z -1.0000
G01 X 5.9534 Y 7.6194 Z -1.0000
G00 Z 5.0000

(End cutting path id: path223)


(Start cutting path id: path223)
(Change tool to Default tool)

G00 Z 5.0000
G00 X 5.9630 Y 7.9357

G01 Z -1.0000 F 100.0000(Penetrate)
G01 X 5.9612 Y 7.9488 Z -1.0000 F 3500.0000
G01 X 5.9700 Y 7.9604 Z -1.0000
G01 X 5.9801 Y 7.9595 Z -1.0000
G01 X 5.9862 Y 7.9457 Z -1.0000
G01 X 5.9768 Y 7.9313 Z -1.0000
G01 X 5.9630 Y 7.9357 Z -1.0000
G01 X 5.9630 Y 7.9357 Z -1.0000
G00 Z 5.0000

(End cutting path id: path223)


(Start cutting path id: path223)
(Change tool to Default tool)

G00 Z 5.0000
G00 X 5.9494 Y 8.0063

G01 Z -1.0000 F 100.0000(Penetrate)
G02 X 5.9414 Y 8.0351 Z -1.0000 I 0.1537 J 0.0583 F 3500.0000
G02 X 5.9395 Y 8.0611 Z -1.0000 I 0.1187 J 0.0217
G01 X 5.9446 Y 8.0636 Z -1.0000
G01 X 5.9558 Y 8.0493 Z -1.0000
G02 X 5.9668 Y 8.0108 Z -1.0000 I -0.1846 J -0.0736
G01 X 5.9657 Y 7.9945 Z -1.0000
G01 X 5.9599 Y 7.9926 Z -1.0000
G01 X 5.9494 Y 8.0063 Z -1.0000
G01 X 5.9494 Y 8.0063 Z -1.0000
G00 Z 5.0000

(End cutting path id: path223)


(Start cutting path id: path223)
(Change tool to Default tool)

G00 Z 5.0000
G00 X 5.9545 Y 8.1581

G01 Z -1.0000 F 100.0000(Penetrate)
G01 X 5.9507 Y 8.1709 Z -1.0000 F 3500.0000
G01 X 5.9386 Y 8.1828 Z -1.0000
G01 X 5.9288 Y 8.1818 Z -1.0000
G01 X 5.9227 Y 8.1679 Z -1.0000
G01 X 5.9284 Y 8.1487 Z -1.0000
G01 X 5.9386 Y 8.1431 Z -1.0000
G01 X 5.9500 Y 8.1477 Z -1.0000
G01 X 5.9545 Y 8.1581 Z -1.0000
G01 X 5.9545 Y 8.1581 Z -1.0000
G00 Z 5.0000

(End cutting path id: path223)


(Start cutting path id: path223)
(Change tool to Default tool)

G00 Z 5.0000
G00 X 5.9254 Y 8.3827

G01 Z -1.0000 F 100.0000(Penetrate)
G02 X 5.9111 Y 8.4152 Z -1.0000 I 0.1059 J 0.0660 F 3500.0000
G01 X 5.9137 Y 8.4250 Z -1.0000
G01 X 5.9189 Y 8.4248 Z -1.0000
G01 X 5.9227 Y 8.4146 Z -1.0000
G01 X 5.9282 Y 8.4049 Z -1.0000
G01 X 5.9386 Y 8.4049 Z -1.0000
G01 X 5.9479 Y 8.4030 Z -1.0000
G01 X 5.9544 Y 8.3820 Z -1.0000
G01 X 5.9442 Y 8.3720 Z -1.0000
G01 X 5.9254 Y 8.3826 Z -1.0000
G01 X 5.9254 Y 8.3827 Z -1.0000
G00 Z 5.0000

(End cutting path id: path223)


(Start cutting path id: path223)
(Change tool to Default tool)

G00 Z 5.0000
G00 X 5.9021 Y 8.5180

G01 Z -1.0000 F 100.0000(Penetrate)
G02 X 5.8971 Y 8.6399 Z -1.0000 I 0.6721 J 0.0888 F 3500.0000
G01 X 5.9087 Y 8.6510 Z -1.0000
G01 X 5.9165 Y 8.6441 Z -1.0000
G02 X 5.9155 Y 8.5934 Z -1.0000 I -0.1850 J -0.0219
G03 X 5.9133 Y 8.5377 Z -1.0000 I 0.2289 J -0.0368
G01 X 5.9216 Y 8.5175 Z -1.0000
G01 X 5.9289 Y 8.4986 Z -1.0000
G01 X 5.9236 Y 8.4778 Z -1.0000
G01 X 5.9150 Y 8.4780 Z -1.0000
G02 X 5.9022 Y 8.5180 Z -1.0000 I 0.1044 J 0.0555
G01 X 5.9021 Y 8.5180 Z -1.0000
G00 Z 5.0000

(End cutting path id: path223)


(Start cutting path id: path223)
(Change tool to Default tool)

G00 Z 5.0000
G00 X 5.9703 Y 8.5558

G01 Z -1.0000 F 100.0000(Penetrate)
G03 X 5.9642 Y 8.5815 Z -1.0000 I -0.0573 J -0.0000 F 3500.0000
G01 X 5.9544 Y 8.5875 Z -1.0000
G01 X 5.9433 Y 8.5923 Z -1.0000
G01 X 5.9386 Y 8.6043 Z -1.0000
G01 X 5.9436 Y 8.6121 Z -1.0000
G01 X 5.9544 Y 8.6113 Z -1.0000
G01 X 5.9642 Y 8.6124 Z -1.0000
G01 X 5.9703 Y 8.6272 Z -1.0000
G01 X 5.9647 Y 8.6428 Z -1.0000
G01 X 5.9562 Y 8.6442 Z -1.0000
G01 X 5.9461 Y 8.6454 Z -1.0000
G01 X 5.9339 Y 8.6670 Z -1.0000
G02 X 5.9331 Y 8.6928 Z -1.0000 I 0.0567 J 0.0147
G01 X 5.9401 Y 8.6986 Z -1.0000
G01 X 5.9497 Y 8.6938 Z -1.0000
G01 X 5.9547 Y 8.6788 Z -1.0000
G01 X 5.9596 Y 8.6750 Z -1.0000
G01 X 5.9704 Y 8.6827 Z -1.0000
G01 X 5.9784 Y 8.6813 Z -1.0000
G02 X 5.9860 Y 8.6152 Z -1.0000 I -0.2893 J -0.0668
G02 X 5.9824 Y 8.5277 Z -1.0000 I -0.9950 J -0.0027
G01 X 5.9783 Y 8.5239 Z -1.0000
G01 X 5.9738 Y 8.5274 Z -1.0000
G02 X 5.9704 Y 8.5557 Z -1.0000 I 0.1146 J 0.0282
G01 X 5.9703 Y 8.5558 Z -1.0000
G00 Z 5.0000

(End cutting path id: path223)


(Start cutting path id: path223)
(Change tool to Default tool)

G00 Z 5.0000
G00 X 5.9186 Y 8.7820

G01 Z -1.0000 F 100.0000(Penetrate)
G03 X 5.9095 Y 8.8172 Z -1.0000 I -0.4087 J -0.0874 F 3500.0000
G03 X 5.8979 Y 8.8494 Z -1.0000 I -0.3554 J -0.1091
G01 X 5.9004 Y 8.8604 Z -1.0000
G01 X 5.9102 Y 8.8607 Z -1.0000
G01 X 5.9318 Y 8.8525 Z -1.0000
G01 X 5.9418 Y 8.8593 Z -1.0000
G01 X 5.9473 Y 8.8124 Z -1.0000
G02 X 5.9333 Y 8.7779 Z -1.0000 I -0.0513 J 0.0007
G01 X 5.9186 Y 8.7820 Z -1.0000
G01 X 5.9186 Y 8.7820 Z -1.0000
G00 Z 5.0000

(End cutting path id: path223)


(Start cutting path id: path223)
(Change tool to Default tool)

G00 Z 5.0000
G00 X 5.9703 Y 9.0398

G01 Z -1.0000 F 100.0000(Penetrate)
G03 X 5.9603 Y 9.1391 Z -1.0000 I -0.4993 J -0.0000 F 3500.0000
G03 X 5.9430 Y 9.1747 Z -1.0000 I -0.0775 J -0.0157
G01 X 5.9075 Y 9.1908 Z -1.0000
G01 X 5.8910 Y 9.1740 Z -1.0000
G01 X 5.8986 Y 9.1544 Z -1.0000
G01 X 5.9108 Y 9.1525 Z -1.0000
G01 X 5.9108 Y 9.1424 Z -1.0000
G03 X 5.8986 Y 9.1180 Z -1.0000 I 0.0369 J -0.0338
G03 X 5.8910 Y 9.0382 Z -1.0000 I 0.4160 J -0.0798
G03 X 5.8993 Y 8.9610 Z -1.0000 I 0.3621 J 0.0000
G01 X 5.9108 Y 8.9474 Z -1.0000
G01 X 5.9465 Y 8.9587 Z -1.0000
G03 X 5.9703 Y 9.0399 Z -1.0000 I -0.1261 J 0.0812
G01 X 5.9703 Y 9.0398 Z -1.0000
G00 Z 5.0000

(End cutting path id: path223)


(Start cutting path id: path223)
(Change tool to Default tool)

G00 Z 5.0000
G00 X 5.9324 Y 9.0749

G01 Z -1.0000 F 100.0000(Penetrate)
G01 X 5.9444 Y 9.0895 Z -1.0000 F 3500.0000
G01 X 5.9545 Y 9.0822 Z -1.0000
G02 X 5.9479 Y 9.0226 Z -1.0000 I -0.2754 J 0.0000
G01 X 5.9398 Y 9.0161 Z -1.0000
G01 X 5.9325 Y 9.0225 Z -1.0000
G02 X 5.9325 Y 9.0748 Z -1.0000 I 0.2056 J 0.0262
G01 X 5.9324 Y 9.0749 Z -1.0000
G00 Z 5.0000

(End cutting path id: path223)


(Start cutting path id: path223)
(Change tool to Default tool)

G00 Z 5.0000
G00 X 5.9709 Y 9.5003

G01 Z -1.0000 F 100.0000(Penetrate)
G01 X 5.9637 Y 9.5027 Z -1.0000 F 3500.0000
G01 X 5.9530 Y 9.4845 Z -1.0000
G01 X 5.9440 Y 9.4842 Z -1.0000
G02 X 5.9329 Y 9.5519 Z -1.0000 I 0.2595 J 0.0770
G02 X 5.9449 Y 9.5940 Z -1.0000 I 0.0716 J 0.0024
G01 X 5.9594 Y 9.5916 Z -1.0000
G01 X 5.9666 Y 9.7543 Z -1.0000
G03 X 5.9597 Y 9.8512 Z -1.0000 I -0.6882 J -0.0003
G01 X 5.9528 Y 9.8512 Z -1.0000
G02 X 5.9370 Y 9.7586 Z -1.0000 I -1.9575 J 0.2850
G01 X 5.9335 Y 9.7519 Z -1.0000
G01 X 5.8498 Y 9.7879 Z -1.0000
G02 X 5.9412 Y 10.0652 Z -1.0000 I 0.5070 J -0.0135
G01 X 5.9473 Y 10.0640 Z -1.0000
G02 X 5.9482 Y 10.0367 Z -1.0000 I -0.0646 J -0.0159
G03 X 5.9468 Y 9.9890 Z -1.0000 I 0.1691 J -0.0290
G01 X 5.9548 Y 9.9762 Z -1.0000
G01 X 5.9632 Y 9.9796 Z -1.0000
G03 X 5.9728 Y 10.0471 Z -1.0000 I -0.3063 J 0.0778
G02 X 5.9756 Y 10.1274 Z -1.0000 I 15.6351 J -0.4956
G02 X 5.9767 Y 10.1551 Z -1.0000 I 3.1037 J -0.1143
G01 X 5.9693 Y 10.1739 Z -1.0000
G01 X 5.9502 Y 10.1807 Z -1.0000
G01 X 5.9298 Y 10.1864 Z -1.0000
G01 X 5.9225 Y 10.2006 Z -1.0000
G01 X 5.9285 Y 10.2150 Z -1.0000
G01 X 5.9410 Y 10.2186 Z -1.0000
G01 X 5.9791 Y 10.2433 Z -1.0000
G03 X 5.9705 Y 10.3565 Z -1.0000 I -0.1959 J 0.0420
G02 X 5.9634 Y 10.3905 Z -1.0000 I 0.1031 J 0.0391
G02 X 5.9640 Y 10.5006 Z -1.0000 I 1.0821 J 0.0498
G03 X 5.9616 Y 10.5859 Z -1.0000 I -0.5181 J 0.0285
G01 X 5.9544 Y 10.5877 Z -1.0000
G01 X 5.9440 Y 10.5821 Z -1.0000
G01 X 5.9383 Y 10.5877 Z -1.0000
G03 X 5.9360 Y 10.6113 Z -1.0000 I -0.1557 J -0.0030
G03 X 5.9273 Y 10.6512 Z -1.0000 I -0.4603 J -0.0797
G01 X 5.9314 Y 10.6682 Z -1.0000
G01 X 5.9434 Y 10.6691 Z -1.0000
G01 X 5.9625 Y 10.6631 Z -1.0000
G01 X 5.9700 Y 10.6712 Z -1.0000
G03 X 5.9661 Y 10.6943 Z -1.0000 I -0.0712 J -0.0000
G03 X 5.9463 Y 10.7406 Z -1.0000 I -0.3197 J -0.1097
G02 X 5.9191 Y 10.8372 Z -1.0000 I 0.2170 J 0.1131
G01 X 5.9390 Y 10.8492 Z -1.0000
G01 X 5.9478 Y 10.8360 Z -1.0000
G02 X 5.9459 Y 10.8085 Z -1.0000 I -0.0593 J -0.0096
G01 X 5.9450 Y 10.7845 Z -1.0000
G01 X 5.9532 Y 10.7781 Z -1.0000
G03 X 6.0731 Y 10.8975 Z -1.0000 I 0.0000 J 0.1200
G03 X 5.9546 Y 11.1112 Z -1.0000 I -0.2497 J 0.0012
G01 X 5.9415 Y 11.1245 Z -1.0000
G01 X 5.9394 Y 11.1367 Z -1.0000
G03 X 5.9407 Y 11.1512 Z -1.0000 I -0.0733 J 0.0139
G03 X 5.9388 Y 11.1988 Z -1.0000 I -0.7659 J -0.0057
G01 X 5.9356 Y 11.2464 Z -1.0000
G01 X 5.9209 Y 11.1988 Z -1.0000
G03 X 5.9114 Y 11.1503 Z -1.0000 I 0.2138 J -0.0669
G03 X 5.9070 Y 11.0321 Z -1.0000 I 1.3116 J -0.1088
G02 X 5.9068 Y 10.9130 Z -1.0000 I -7.8812 J -0.0495
G02 X 5.8986 Y 10.0743 Z -1.0000 I -417.3473 J 3.6849
G03 X 5.8978 Y 9.2505 Z -1.0000 I 41.7775 J -0.4529
G01 X 5.9061 Y 9.2459 Z -1.0000
G01 X 5.9165 Y 9.2595 Z -1.0000
G03 X 5.9226 Y 9.3028 Z -1.0000 I -0.1500 J 0.0432
G01 X 5.9392 Y 9.3085 Z -1.0000
G02 X 5.9574 Y 9.2582 Z -1.0000 I -0.0681 J -0.0531
G01 X 5.9694 Y 9.3177 Z -1.0000
G03 X 5.9745 Y 9.4682 Z -1.0000 I -2.9737 J 0.1757
G03 X 5.9709 Y 9.5003 Z -1.0000 I -0.1353 J 0.0011
G01 X 5.9709 Y 9.5003 Z -1.0000
G00 Z 5.0000

(End cutting path id: path223)


(Start cutting path id: path223)
(Change tool to Default tool)

G00 Z 5.0000
G00 X 5.9227 Y 9.6969

G01 Z -1.0000 F 100.0000(Penetrate)
G01 X 5.9266 Y 9.7106 Z -1.0000 F 3500.0000
G01 X 5.9386 Y 9.7226 Z -1.0000
G01 X 5.9495 Y 9.7236 Z -1.0000
G01 X 5.9544 Y 9.7165 Z -1.0000
G01 X 5.9505 Y 9.7028 Z -1.0000
G01 X 5.9386 Y 9.6908 Z -1.0000
G01 X 5.9276 Y 9.6897 Z -1.0000
G01 X 5.9227 Y 9.6969 Z -1.0000
G01 X 5.9227 Y 9.6969 Z -1.0000
G00 Z 5.0000

(End cutting path id: path223)


(Start cutting path id: path223)
(Change tool to Default tool)

G00 Z 5.0000
G00 X 5.9227 Y 10.1283

G01 Z -1.0000 F 100.0000(Penetrate)
G01 X 5.9293 Y 10.1492 Z -1.0000 F 3500.0000
G01 X 5.9386 Y 10.1512 Z -1.0000
G01 X 5.9498 Y 10.1387 Z -1.0000
G01 X 5.9544 Y 10.1185 Z -1.0000
G01 X 5.9490 Y 10.1010 Z -1.0000
G01 X 5.9386 Y 10.0956 Z -1.0000
G01 X 5.9288 Y 10.1017 Z -1.0000
G02 X 5.9227 Y 10.1283 Z -1.0000 I 0.0546 J 0.0266
G01 X 5.9227 Y 10.1283 Z -1.0000
G00 Z 5.0000

(End cutting path id: path223)


(Start cutting path id: path223)
(Change tool to Default tool)

G00 Z 5.0000
G00 X 5.9268 Y 10.3129

G01 Z -1.0000 F 100.0000(Penetrate)
G02 X 5.9351 Y 10.3686 Z -1.0000 I 0.2592 J -0.0100 F 3500.0000
G01 X 5.9420 Y 10.3713 Z -1.0000
G01 X 5.9598 Y 10.3383 Z -1.0000
G02 X 5.9392 Y 10.2704 Z -1.0000 I -0.1346 J 0.0038
G01 X 5.9319 Y 10.2714 Z -1.0000
G02 X 5.9269 Y 10.3129 Z -1.0000 I 0.1254 J 0.0361
G01 X 5.9268 Y 10.3129 Z -1.0000
G00 Z 5.0000

(End cutting path id: path223)


(Start cutting path id: path223)
(Change tool to Default tool)

G00 Z 5.0000
G00 X 5.9227 Y 10.4766

G01 Z -1.0000 F 100.0000(Penetrate)
G01 X 5.9275 Y 10.4877 Z -1.0000 F 3500.0000
G01 X 5.9395 Y 10.4924 Z -1.0000
G01 X 5.9473 Y 10.4873 Z -1.0000
G01 X 5.9465 Y 10.4766 Z -1.0000
G02 X 5.9354 Y 10.4630 Z -1.0000 I -0.0581 J 0.0361
G01 X 5.9297 Y 10.4607 Z -1.0000
G01 X 5.9255 Y 10.4634 Z -1.0000
G01 X 5.9227 Y 10.4766 Z -1.0000
G01 X 5.9227 Y 10.4766 Z -1.0000
G00 Z 5.0000

(End cutting path id: path223)


(Start cutting path id: path223)
(Change tool to Default tool)

G00 Z 5.0000
G00 X 5.9244 Y 10.9528

G01 Z -1.0000 F 100.0000(Penetrate)
G02 X 5.9274 Y 10.9761 Z -1.0000 I 0.1151 J -0.0029 F 3500.0000
G02 X 5.9369 Y 11.0072 Z -1.0000 I 0.2352 J -0.0552
G01 X 5.9488 Y 11.0177 Z -1.0000
G01 X 5.9585 Y 11.0127 Z -1.0000
G01 X 5.9603 Y 10.9887 Z -1.0000
G02 X 5.9460 Y 10.9583 Z -1.0000 I -0.0793 J 0.0186
G01 X 5.9304 Y 10.9480 Z -1.0000
G01 X 5.9244 Y 10.9528 Z -1.0000
G01 X 5.9244 Y 10.9528 Z -1.0000
G00 Z 5.0000

(End cutting path id: path223)


(Start cutting path id: path223)
(Change tool to Default tool)

G00 Z 5.0000
G00 X 5.9988 Y 11.1772

G01 Z -1.0000 F 100.0000(Penetrate)
G01 X 5.9925 Y 11.1787 Z -1.0000 F 3500.0000
G01 X 5.9820 Y 11.1604 Z -1.0000
G01 X 5.9826 Y 11.1411 Z -1.0000
G01 X 5.9889 Y 11.1396 Z -1.0000
G01 X 5.9994 Y 11.1579 Z -1.0000
G01 X 5.9988 Y 11.1772 Z -1.0000
G01 X 5.9988 Y 11.1772 Z -1.0000
G00 Z 5.0000

(End cutting path id: path223)


(Start cutting path id: path223)
(Change tool to Default tool)

G00 Z 5.0000
G00 X 6.0011 Y 11.3218

G01 Z -1.0000 F 100.0000(Penetrate)
G01 X 5.9944 Y 11.3425 Z -1.0000 F 3500.0000
G01 X 5.9874 Y 11.3417 Z -1.0000
G03 X 5.9797 Y 11.3099 Z -1.0000 I 0.1099 J -0.0434
G01 X 5.9823 Y 11.2901 Z -1.0000
G01 X 5.9926 Y 11.2892 Z -1.0000
G03 X 6.0011 Y 11.3218 Z -1.0000 I -0.0529 J 0.0313
G01 X 6.0011 Y 11.3218 Z -1.0000
G00 Z 5.0000

(End cutting path id: path223)


(Start cutting path id: path223)
(Change tool to Default tool)

G00 Z 5.0000
G00 X 6.0011 Y 11.5758

G01 Z -1.0000 F 100.0000(Penetrate)
G01 X 5.9940 Y 11.5966 Z -1.0000 F 3500.0000
G01 X 5.9863 Y 11.5957 Z -1.0000
G03 X 5.9741 Y 11.5364 Z -1.0000 I 0.1379 J -0.0592
G01 X 5.9863 Y 11.5242 Z -1.0000
G01 X 5.9953 Y 11.5310 Z -1.0000
G03 X 6.0011 Y 11.5758 Z -1.0000 I -0.1448 J 0.0416
G01 X 6.0011 Y 11.5758 Z -1.0000
G00 Z 5.0000

(End cutting path id: path223)


(Start cutting path id: path223)
(Change tool to Default tool)

G00 Z 5.0000
G00 X 5.9317 Y 11.7905

G01 Z -1.0000 F 100.0000(Penetrate)
G01 X 5.9205 Y 11.7867 Z -1.0000 F 3500.0000
G03 X 5.9203 Y 11.7068 Z -1.0000 I 0.2981 J -0.0406
G01 X 5.9307 Y 11.6274 Z -1.0000
G01 X 5.9356 Y 11.7045 Z -1.0000
G03 X 5.9363 Y 11.7801 Z -1.0000 I -0.6884 J 0.0438
G01 X 5.9317 Y 11.7905 Z -1.0000
G01 X 5.9317 Y 11.7905 Z -1.0000
G00 Z 5.0000

(End cutting path id: path223)


(Start cutting path id: path223)
(Change tool to Default tool)

G00 Z 5.0000
G00 X 6.0022 Y 11.8708

G01 Z -1.0000 F 100.0000(Penetrate)
G01 X 5.9699 Y 11.9043 Z -1.0000 F 3500.0000
G01 X 5.9255 Y 11.8736 Z -1.0000
G01 X 5.9291 Y 11.8636 Z -1.0000
G01 X 5.9440 Y 11.8622 Z -1.0000
G01 X 5.9669 Y 11.8647 Z -1.0000
G01 X 5.9788 Y 11.8568 Z -1.0000
G01 X 5.9924 Y 11.8535 Z -1.0000
G01 X 6.0022 Y 11.8707 Z -1.0000
G01 X 6.0022 Y 11.8708 Z -1.0000
G00 Z 5.0000

(End cutting path id: path223)


(Start cutting path id: path223)
(Change tool to Default tool)

G00 Z 5.0000
G00 X 6.0022 Y 12.0031

G01 Z -1.0000 F 100.0000(Penetrate)
G03 X 5.9965 Y 12.0555 Z -1.0000 I -0.2425 J 0.0000 F 3500.0000
G01 X 5.9902 Y 12.0573 Z -1.0000
G01 X 5.9830 Y 12.0434 Z -1.0000
G03 X 5.9783 Y 11.9911 Z -1.0000 I 0.2851 J -0.0523
G03 X 5.9836 Y 11.9423 Z -1.0000 I 0.2263 J -0.0000
G01 X 5.9902 Y 11.9369 Z -1.0000
G01 X 5.9967 Y 11.9423 Z -1.0000
G03 X 6.0022 Y 12.0031 Z -1.0000 I -0.3320 J 0.0608
G01 X 6.0022 Y 12.0031 Z -1.0000
G00 Z 5.0000

(End cutting path id: path223)


(Start cutting path id: path223)
(Change tool to Default tool)

G00 Z 5.0000
G00 X 5.9387 Y 12.1512

G01 Z -1.0000 F 100.0000(Penetrate)
G03 X 5.9316 Y 12.2157 Z -1.0000 I -0.2955 J 0.0000 F 3500.0000
G01 X 5.9228 Y 12.2227 Z -1.0000
G01 X 5.9012 Y 12.2022 Z -1.0000
G03 X 5.9166 Y 12.1049 Z -1.0000 I 0.2358 J -0.0125
G01 X 5.9282 Y 12.1045 Z -1.0000
G03 X 5.9387 Y 12.1513 Z -1.0000 I -0.0980 J 0.0468
G01 X 5.9387 Y 12.1512 Z -1.0000
G00 Z 5.0000

(End cutting path id: path223)


(Start cutting path id: path223)
(Change tool to Default tool)

G00 Z 5.0000
G00 X 6.0020 Y 12.3060

G01 Z -1.0000 F 100.0000(Penetrate)
G01 X 5.9955 Y 12.3199 Z -1.0000 F 3500.0000
G01 X 5.9871 Y 12.3187 Z -1.0000
G03 X 5.9780 Y 12.2956 Z -1.0000 I 0.0566 J -0.0358
G01 X 5.9803 Y 12.2830 Z -1.0000
G01 X 5.9924 Y 12.2818 Z -1.0000
G01 X 6.0019 Y 12.3060 Z -1.0000
G01 X 6.0020 Y 12.3060 Z -1.0000
G00 Z 5.0000

(End cutting path id: path223)


(Start cutting path id: path223)
(Change tool to Default tool)

G00 Z 5.0000
G00 X 5.9546 Y 12.3427

G01 Z -1.0000 F 100.0000(Penetrate)
G01 X 5.9485 Y 12.3566 Z -1.0000 F 3500.0000
G01 X 5.9387 Y 12.3576 Z -1.0000
G01 X 5.9266 Y 12.3457 Z -1.0000
G01 X 5.9228 Y 12.3328 Z -1.0000
G01 X 5.9274 Y 12.3224 Z -1.0000
G01 X 5.9387 Y 12.3179 Z -1.0000
G01 X 5.9489 Y 12.3235 Z -1.0000
G01 X 5.9546 Y 12.3426 Z -1.0000
G01 X 5.9546 Y 12.3427 Z -1.0000
G00 Z 5.0000

(End cutting path id: path223)


(Start cutting path id: path223)
(Change tool to Default tool)

G00 Z 5.0000
G00 X 5.9546 Y 12.4476

G01 Z -1.0000 F 100.0000(Penetrate)
G03 X 5.9491 Y 12.5005 Z -1.0000 I -0.2573 J -0.0000 F 3500.0000
G01 X 5.9432 Y 12.5022 Z -1.0000
G03 X 5.9060 Y 12.4161 Z -1.0000 I 0.0898 J -0.0898
G01 X 5.9397 Y 12.3814 Z -1.0000
G01 X 5.9480 Y 12.3880 Z -1.0000
G03 X 5.9546 Y 12.4475 Z -1.0000 I -0.2621 J 0.0595
G01 X 5.9546 Y 12.4476 Z -1.0000
G00 Z 5.0000

(End cutting path id: path223)


(Start cutting path id: path223)
(Change tool to Default tool)

G00 Z 5.0000
G00 X 5.9973 Y 12.5203

G01 Z -1.0000 F 100.0000(Penetrate)
G01 X 5.9900 Y 12.4925 Z -1.0000 F 3500.0000
G01 X 5.9973 Y 12.4648 Z -1.0000
G03 X 6.0008 Y 12.4925 Z -1.0000 I -0.1088 J 0.0278
G03 X 5.9973 Y 12.5203 Z -1.0000 I -0.1126 J 0.0000
G01 X 5.9973 Y 12.5203 Z -1.0000
G00 Z 5.0000

(End cutting path id: path223)


(Start cutting path id: path223)
(Change tool to Default tool)

G00 Z 5.0000
G00 X 6.0181 Y 12.7932

G01 Z -1.0000 F 100.0000(Penetrate)
G03 X 6.0128 Y 12.8211 Z -1.0000 I -0.0763 J -0.0000 F 3500.0000
G01 X 6.0022 Y 12.8338 Z -1.0000
G01 X 5.9932 Y 12.8313 Z -1.0000
G03 X 5.9863 Y 12.8030 Z -1.0000 I 0.0549 J -0.0283
G03 X 5.9928 Y 12.7688 Z -1.0000 I 0.0936 J 0.0000
G01 X 6.0022 Y 12.7624 Z -1.0000
G01 X 6.0120 Y 12.7684 Z -1.0000
G03 X 6.0181 Y 12.7932 Z -1.0000 I -0.0480 J 0.0248
G01 X 6.0181 Y 12.7932 Z -1.0000
G00 Z 5.0000

(End cutting path id: path223)


(Start cutting path id: path223)
(Change tool to Default tool)

G00 Z 5.0000
G00 X 5.9567 Y 13.1394

G01 Z -1.0000 F 100.0000(Penetrate)
G03 X 5.9466 Y 13.1701 Z -1.0000 I -0.1031 J -0.0168 F 3500.0000
G01 X 5.9385 Y 13.1751 Z -1.0000
G03 X 5.8883 Y 13.1248 Z -1.0000 I 0.0000 J -0.0501
G03 X 5.9406 Y 12.6195 Z -1.0000 I 2.5531 J 0.0086
G01 X 5.9906 Y 12.6239 Z -1.0000
G03 X 5.9567 Y 13.1394 Z -1.0000 I -2.6990 J 0.0814
G01 X 5.9567 Y 13.1394 Z -1.0000
G00 Z 5.0000

(End cutting path id: path223)


(Start cutting path id: path223)
(Change tool to Default tool)

G00 Z 5.0000
G00 X 6.0022 Y 13.2227

G01 Z -1.0000 F 100.0000(Penetrate)
G01 X 5.9975 Y 13.2340 Z -1.0000 F 3500.0000
G01 X 5.9863 Y 13.2386 Z -1.0000
G01 X 5.9751 Y 13.2339 Z -1.0000
G01 X 5.9705 Y 13.2227 Z -1.0000
G01 X 5.9751 Y 13.2115 Z -1.0000
G01 X 5.9863 Y 13.2069 Z -1.0000
G01 X 5.9976 Y 13.2115 Z -1.0000
G01 X 6.0022 Y 13.2227 Z -1.0000
G01 X 6.0022 Y 13.2227 Z -1.0000
G00 Z 5.0000

(End cutting path id: path223)


(Start cutting path id: path223)
(Change tool to Default tool)

G00 Z 5.0000
G00 X 5.9705 Y 13.5243

G01 Z -1.0000 F 100.0000(Penetrate)
G01 X 5.9658 Y 13.5356 Z -1.0000 F 3500.0000
G01 X 5.9546 Y 13.5402 Z -1.0000
G01 X 5.9434 Y 13.5355 Z -1.0000
G01 X 5.9387 Y 13.5243 Z -1.0000
G01 X 5.9434 Y 13.5131 Z -1.0000
G01 X 5.9546 Y 13.5085 Z -1.0000
G01 X 5.9658 Y 13.5131 Z -1.0000
G01 X 5.9705 Y 13.5243 Z -1.0000
G01 X 5.9705 Y 13.5243 Z -1.0000
G00 Z 5.0000

(End cutting path id: path223)


(Start cutting path id: path223)
(Change tool to Default tool)

G00 Z 5.0000
G00 X 5.9705 Y 13.6523

G01 Z -1.0000 F 100.0000(Penetrate)
G03 X 5.9630 Y 13.7192 Z -1.0000 I -0.3046 J 0.0000 F 3500.0000
G01 X 5.9546 Y 13.7227 Z -1.0000
G01 X 5.9453 Y 13.7093 Z -1.0000
G03 X 5.9387 Y 13.6424 Z -1.0000 I 0.3373 J -0.0669
G03 X 5.9458 Y 13.5790 Z -1.0000 I 0.2875 J -0.0000
G01 X 5.9546 Y 13.5719 Z -1.0000
G01 X 5.9633 Y 13.5791 Z -1.0000
G03 X 5.9705 Y 13.6523 Z -1.0000 I -0.3692 J 0.0732
G01 X 5.9705 Y 13.6523 Z -1.0000
G00 Z 5.0000

(End cutting path id: path223)


(Start cutting path id: path223)
(Change tool to Default tool)

G00 Z 5.0000
G00 X 6.0339 Y 13.9529

G01 Z -1.0000 F 100.0000(Penetrate)
G01 X 6.0293 Y 13.9642 Z -1.0000 F 3500.0000
G01 X 6.0181 Y 13.9688 Z -1.0000
G01 X 6.0068 Y 13.9641 Z -1.0000
G01 X 6.0022 Y 13.9529 Z -1.0000
G01 X 6.0069 Y 13.9417 Z -1.0000
G01 X 6.0181 Y 13.9371 Z -1.0000
G01 X 6.0293 Y 13.9417 Z -1.0000
G01 X 6.0339 Y 13.9529 Z -1.0000
G01 X 6.0339 Y 13.9529 Z -1.0000
G00 Z 5.0000

(End cutting path id: path223)


(Start cutting path id: path223)
(Change tool to Default tool)

G00 Z 5.0000
G00 X 6.0288 Y 14.0829

G01 Z -1.0000 F 100.0000(Penetrate)
G01 X 6.0239 Y 14.0839 Z -1.0000 F 3500.0000
G01 X 6.0192 Y 14.0733 Z -1.0000
G01 X 6.0227 Y 14.0534 Z -1.0000
G01 X 6.0275 Y 14.0525 Z -1.0000
G01 X 6.0322 Y 14.0630 Z -1.0000
G01 X 6.0288 Y 14.0829 Z -1.0000
G01 X 6.0288 Y 14.0829 Z -1.0000
G00 Z 5.0000

(End cutting path id: path223)


(Start cutting path id: path223)
(Change tool to Default tool)

G00 Z 5.0000
G00 X 5.9863 Y 15.0323

G01 Z -1.0000 F 100.0000(Penetrate)
G01 X 5.9816 Y 15.0435 Z -1.0000 F 3500.0000
G01 X 5.9704 Y 15.0482 Z -1.0000
G01 X 5.9592 Y 15.0435 Z -1.0000
G01 X 5.9545 Y 15.0323 Z -1.0000
G01 X 5.9592 Y 15.0211 Z -1.0000
G01 X 5.9704 Y 15.0164 Z -1.0000
G01 X 5.9816 Y 15.0211 Z -1.0000
G01 X 5.9863 Y 15.0323 Z -1.0000
G01 X 5.9863 Y 15.0323 Z -1.0000
G00 Z 5.0000

(End cutting path id: path223)


(Start cutting path id: path223)
(Change tool to Default tool)

G00 Z 5.0000
G00 X 5.8434 Y 15.0244

G01 Z -1.0000 F 100.0000(Penetrate)
G01 X 5.8364 Y 15.0412 Z -1.0000 F 3500.0000
G01 X 5.8196 Y 15.0482 Z -1.0000
G01 X 5.8028 Y 15.0413 Z -1.0000
G01 X 5.7958 Y 15.0244 Z -1.0000
G01 X 5.8027 Y 15.0076 Z -1.0000
G01 X 5.8196 Y 15.0006 Z -1.0000
G01 X 5.8364 Y 15.0076 Z -1.0000
G01 X 5.8434 Y 15.0244 Z -1.0000
G01 X 5.8434 Y 15.0244 Z -1.0000
G00 Z 5.0000

(End cutting path id: path223)


(Start cutting path id: path223)
(Change tool to Default tool)

G00 Z 5.0000
G00 X 6.0498 Y 15.2871

G01 Z -1.0000 F 100.0000(Penetrate)
G01 X 6.0462 Y 15.2984 Z -1.0000 F 3500.0000
G01 X 6.0339 Y 15.3101 Z -1.0000
G01 X 6.0180 Y 15.3124 Z -1.0000
G01 X 6.0169 Y 15.3050 Z -1.0000
G02 X 6.0083 Y 15.2795 Z -1.0000 I -0.3459 J 0.1030
G01 X 6.0111 Y 15.2667 Z -1.0000
G01 X 6.0242 Y 15.2641 Z -1.0000
G03 X 6.0452 Y 15.2770 Z -1.0000 I -0.0242 J 0.0631
G01 X 6.0498 Y 15.2871 Z -1.0000
G01 X 6.0498 Y 15.2871 Z -1.0000
G00 Z 5.0000

(End cutting path id: path223)


(Start cutting path id: path223)
(Change tool to Default tool)

G00 Z 5.0000
G00 X 6.0495 Y 16.0601

G01 Z -1.0000 F 100.0000(Penetrate)
G01 X 6.0446 Y 16.0748 Z -1.0000 F 3500.0000
G01 X 6.0339 Y 16.0800 Z -1.0000
G01 X 6.0246 Y 16.0735 Z -1.0000
G03 X 6.0182 Y 16.0363 Z -1.0000 I 0.1018 J -0.0365
G01 X 6.0253 Y 16.0161 Z -1.0000
G01 X 6.0339 Y 16.0165 Z -1.0000
G03 X 6.0461 Y 16.0412 Z -1.0000 I -0.1040 J 0.0667
G03 X 6.0495 Y 16.0601 Z -1.0000 I -0.0543 J 0.0196
G01 X 6.0495 Y 16.0601 Z -1.0000
G00 Z 5.0000

(End cutting path id: path223)


(Start cutting path id: path223)
(Change tool to Default tool)

G00 Z 5.0000
G00 X 6.0498 Y 16.1355

G01 Z -1.0000 F 100.0000(Penetrate)
G01 X 6.0442 Y 16.1538 Z -1.0000 F 3500.0000
G01 X 6.0339 Y 16.1593 Z -1.0000
G01 X 6.0236 Y 16.1538 Z -1.0000
G01 X 6.0180 Y 16.1355 Z -1.0000
G01 X 6.0236 Y 16.1172 Z -1.0000
G01 X 6.0339 Y 16.1117 Z -1.0000
G01 X 6.0442 Y 16.1172 Z -1.0000
G01 X 6.0498 Y 16.1355 Z -1.0000
G01 X 6.0498 Y 16.1355 Z -1.0000
G00 Z 5.0000

(End cutting path id: path223)


(Start cutting path id: path223)
(Change tool to Default tool)

G00 Z 5.0000
G00 X 5.9863 Y 16.2228

G01 Z -1.0000 F 100.0000(Penetrate)
G01 X 5.9816 Y 16.2341 Z -1.0000 F 3500.0000
G01 X 5.9704 Y 16.2387 Z -1.0000
G01 X 5.9592 Y 16.2340 Z -1.0000
G01 X 5.9545 Y 16.2228 Z -1.0000
G01 X 5.9592 Y 16.2116 Z -1.0000
G01 X 5.9704 Y 16.2070 Z -1.0000
G01 X 5.9816 Y 16.2116 Z -1.0000
G01 X 5.9863 Y 16.2228 Z -1.0000
G01 X 5.9863 Y 16.2228 Z -1.0000
G00 Z 5.0000

(End cutting path id: path223)


(Start cutting path id: path223)
(Change tool to Default tool)

G00 Z 5.0000
G00 X 6.0498 Y 16.3657

G01 Z -1.0000 F 100.0000(Penetrate)
G03 X 6.0424 Y 16.4694 Z -1.0000 I -0.7339 J -0.0000 F 3500.0000
G01 X 6.0339 Y 16.4768 Z -1.0000
G03 X 5.9693 Y 16.4137 Z -1.0000 I 0.0000 J -0.0646
G03 X 6.0285 Y 16.2652 Z -1.0000 I 0.2038 J -0.0048
G01 X 6.0395 Y 16.2684 Z -1.0000
G03 X 6.0496 Y 16.3657 Z -1.0000 I -0.4618 J 0.0973
G01 X 6.0498 Y 16.3657 Z -1.0000
G00 Z 5.0000

(End cutting path id: path223)


(Start cutting path id: path223)
(Change tool to Default tool)

G00 Z 5.0000
G00 X 5.9650 Y 16.4808

G01 Z -1.0000 F 100.0000(Penetrate)
G01 X 5.9570 Y 16.4610 Z -1.0000 F 3500.0000
G01 X 5.9650 Y 16.4411 Z -1.0000
G03 X 5.9689 Y 16.4610 Z -1.0000 I -0.0497 J 0.0199
G03 X 5.9650 Y 16.4808 Z -1.0000 I -0.0529 J -0.0000
G01 X 5.9650 Y 16.4808 Z -1.0000
G00 Z 5.0000

(End cutting path id: path223)


(Start cutting path id: path223)
(Change tool to Default tool)

G00 Z 5.0000
G00 X 5.9863 Y 16.5562

G01 Z -1.0000 F 100.0000(Penetrate)
G03 X 5.9802 Y 16.5819 Z -1.0000 I -0.0573 J 0.0000 F 3500.0000
G01 X 5.9704 Y 16.5879 Z -1.0000
G01 X 5.9606 Y 16.5819 Z -1.0000
G03 X 5.9545 Y 16.5562 Z -1.0000 I 0.0513 J -0.0257
G03 X 5.9606 Y 16.5305 Z -1.0000 I 0.0573 J -0.0000
G01 X 5.9704 Y 16.5244 Z -1.0000
G01 X 5.9802 Y 16.5305 Z -1.0000
G03 X 5.9863 Y 16.5562 Z -1.0000 I -0.0513 J 0.0257
G01 X 5.9863 Y 16.5562 Z -1.0000
G00 Z 5.0000

(End cutting path id: path223)


(Start cutting path id: path223)
(Change tool to Default tool)

G00 Z 5.0000
G00 X 6.0687 Y 17.0245

G01 Z -1.0000 F 100.0000(Penetrate)
G01 X 6.0766 Y 17.0441 Z -1.0000 F 3500.0000
G02 X 6.0800 Y 17.0163 Z -1.0000 I -0.0996 J -0.0264
G02 X 6.0760 Y 16.9965 Z -1.0000 I -0.0542 J 0.0007
G01 X 6.0687 Y 17.0245 Z -1.0000
G01 X 6.0687 Y 17.0245 Z -1.0000
G00 Z 5.0000

(End cutting path id: path223)


(Start cutting path id: path223)
(Change tool to Default tool)

G00 Z 5.0000
G00 X 6.0703 Y 17.2547

G01 Z -1.0000 F 100.0000(Penetrate)
G01 X 6.0769 Y 17.2984 Z -1.0000 F 3500.0000
G02 X 6.0802 Y 17.2547 Z -1.0000 I -0.2833 J -0.0437
G02 X 6.0769 Y 17.2111 Z -1.0000 I -0.2866 J 0.0000
G01 X 6.0703 Y 17.2547 Z -1.0000
G01 X 6.0703 Y 17.2547 Z -1.0000
G00 Z 5.0000

(End cutting path id: path223)


(Start cutting path id: path223)
(Change tool to Default tool)

G00 Z 5.0000
G00 X 6.0092 Y 17.7322

G01 Z -1.0000 F 100.0000(Penetrate)
G01 X 5.9982 Y 17.7401 Z -1.0000 F 3500.0000
G01 X 5.9849 Y 17.7380 Z -1.0000
G01 X 5.9770 Y 17.7270 Z -1.0000
G01 X 5.9791 Y 17.7137 Z -1.0000
G01 X 5.9901 Y 17.7057 Z -1.0000
G01 X 6.0034 Y 17.7079 Z -1.0000
G01 X 6.0114 Y 17.7189 Z -1.0000
G01 X 6.0092 Y 17.7322 Z -1.0000
G01 X 6.0092 Y 17.7322 Z -1.0000
G00 Z 5.0000

(End cutting path id: path223)


(Start cutting path id: path223)
(Change tool to Default tool)

G00 Z 5.0000
G00 X 6.0730 Y 17.8567

G01 Z -1.0000 F 100.0000(Penetrate)
G02 X 6.0847 Y 17.9414 Z -1.0000 I 1.1605 J -0.1176 F 3500.0000
G01 X 6.0895 Y 17.9506 Z -1.0000
G01 X 6.1279 Y 17.9334 Z -1.0000
G02 X 6.0805 Y 17.7944 Z -1.0000 I -0.2739 J 0.0158
G01 X 6.0735 Y 17.7961 Z -1.0000
G02 X 6.0729 Y 17.8567 Z -1.0000 I 0.2706 J 0.0333
G01 X 6.0730 Y 17.8567 Z -1.0000
G00 Z 5.0000

(End cutting path id: path223)


(Start cutting path id: path223)
(Change tool to Default tool)

G00 Z 5.0000
G00 X 6.0846 Y 18.1621

G01 Z -1.0000 F 100.0000(Penetrate)
G03 X 6.0728 Y 18.2776 Z -1.0000 I -0.7692 J -0.0201 F 3500.0000
G01 X 6.0616 Y 18.2909 Z -1.0000
G01 X 6.0519 Y 18.3004 Z -1.0000
G01 X 6.0540 Y 18.3110 Z -1.0000
G01 X 6.0779 Y 18.3051 Z -1.0000
G02 X 6.0933 Y 18.1659 Z -1.0000 I -0.4401 J -0.1194
G01 X 6.0878 Y 18.0404 Z -1.0000
G01 X 6.0846 Y 18.1621 Z -1.0000
G00 Z 5.0000

(End cutting path id: path223)


(Start cutting path id: path223)
(Change tool to Default tool)

G00 Z 5.0000
G00 X 6.0868 Y 18.4611

G01 Z -1.0000 F 100.0000(Penetrate)
G01 X 6.0930 Y 18.5206 Z -1.0000 F 3500.0000
G02 X 6.0960 Y 18.4611 Z -1.0000 I -0.5733 J -0.0595
G02 X 6.0930 Y 18.4016 Z -1.0000 I -0.5759 J -0.0000
G01 X 6.0868 Y 18.4611 Z -1.0000
G01 X 6.0868 Y 18.4611 Z -1.0000
G00 Z 5.0000

(End cutting path id: path223)


(Start cutting path id: path223)
(Change tool to Default tool)

G00 Z 5.0000
G00 X 6.0996 Y 18.6754

G01 Z -1.0000 F 100.0000(Penetrate)
G02 X 6.0807 Y 18.8508 Z -1.0000 I 0.7023 J 0.1642 F 3500.0000
G01 X 6.1021 Y 18.8594 Z -1.0000
G01 X 6.1089 Y 18.8445 Z -1.0000
G02 X 6.1091 Y 18.7531 Z -1.0000 I -0.7215 J -0.0474
G01 X 6.0997 Y 18.6754 Z -1.0000
G01 X 6.0996 Y 18.6754 Z -1.0000
G00 Z 5.0000

(End cutting path id: path223)


(Start cutting path id: path223)
(Change tool to Default tool)

G00 Z 5.0000
G00 X 6.1026 Y 19.0643

G01 Z -1.0000 F 100.0000(Penetrate)
G01 X 6.1088 Y 19.1238 Z -1.0000 F 3500.0000
G02 X 6.1119 Y 19.0643 Z -1.0000 I -0.5733 J -0.0595
G02 X 6.1088 Y 19.0048 Z -1.0000 I -0.5759 J -0.0000
G01 X 6.1026 Y 19.0643 Z -1.0000
G01 X 6.1026 Y 19.0643 Z -1.0000
G00 Z 5.0000

(End cutting path id: path223)


(Start cutting path id: path223)
(Change tool to Default tool)

G00 Z 5.0000
G00 X 6.2901 Y 19.3734

G01 Z -1.0000 F 100.0000(Penetrate)
G01 X 6.2988 Y 19.3788 Z -1.0000 F 3500.0000
G02 X 6.3284 Y 19.3858 Z -1.0000 I 0.0610 J -0.1906
G03 X 6.3583 Y 19.3932 Z -1.0000 I -0.0288 J 0.1803
G03 X 6.3790 Y 19.4030 Z -1.0000 I -0.0325 J 0.0959
G01 X 6.3920 Y 19.4030 Z -1.0000
G01 X 6.3989 Y 19.3906 Z -1.0000
G01 X 6.3890 Y 19.3757 Z -1.0000
G02 X 6.3407 Y 19.3658 Z -1.0000 I -0.0483 J 0.1137
G01 X 6.2901 Y 19.3734 Z -1.0000
G01 X 6.2901 Y 19.3734 Z -1.0000
G00 Z 5.0000

(End cutting path id: path223)


(Start cutting path id: path223)
(Change tool to Default tool)

G00 Z 5.0000
G00 X 6.4149 Y 19.5087

G01 Z -1.0000 F 100.0000(Penetrate)
G01 X 6.4121 Y 19.5218 Z -1.0000 F 3500.0000
G01 X 6.4079 Y 19.5246 Z -1.0000
G01 X 6.4022 Y 19.5223 Z -1.0000
G03 X 6.3910 Y 19.5087 Z -1.0000 I 0.0472 J -0.0500
G01 X 6.3903 Y 19.4979 Z -1.0000
G01 X 6.3980 Y 19.4928 Z -1.0000
G01 X 6.4101 Y 19.4977 Z -1.0000
G01 X 6.4149 Y 19.5087 Z -1.0000
G01 X 6.4149 Y 19.5087 Z -1.0000
G00 Z 5.0000

(End cutting path id: path223)


(Start cutting path id: path223)
(Change tool to Default tool)

G00 Z 5.0000
G00 X 6.4942 Y 19.4373

G01 Z -1.0000 F 100.0000(Penetrate)
G01 X 6.4886 Y 19.4556 Z -1.0000 F 3500.0000
G01 X 6.4783 Y 19.4611 Z -1.0000
G01 X 6.4680 Y 19.4556 Z -1.0000
G01 X 6.4625 Y 19.4373 Z -1.0000
G01 X 6.4680 Y 19.4190 Z -1.0000
G01 X 6.4783 Y 19.4135 Z -1.0000
G01 X 6.4887 Y 19.4190 Z -1.0000
G01 X 6.4942 Y 19.4373 Z -1.0000
G01 X 6.4942 Y 19.4373 Z -1.0000
G00 Z 5.0000

(End cutting path id: path223)


(Start cutting path id: path223)
(Change tool to Default tool)

G00 Z 5.0000
G00 X 6.5368 Y 19.4641

G01 Z -1.0000 F 100.0000(Penetrate)
G01 X 6.5319 Y 19.4651 Z -1.0000 F 3500.0000
G01 X 6.5272 Y 19.4545 Z -1.0000
G01 X 6.5306 Y 19.4346 Z -1.0000
G01 X 6.5355 Y 19.4336 Z -1.0000
G01 X 6.5401 Y 19.4441 Z -1.0000
G01 X 6.5368 Y 19.4640 Z -1.0000
G01 X 6.5368 Y 19.4641 Z -1.0000
G00 Z 5.0000

(End cutting path id: path223)


(Start cutting path id: path223)
(Change tool to Default tool)

G00 Z 5.0000
G00 X 6.4585 Y 19.6943

G01 Z -1.0000 F 100.0000(Penetrate)
G03 X 6.4307 Y 19.6977 Z -1.0000 I -0.0278 J -0.1088 F 3500.0000
G03 X 6.4030 Y 19.6943 Z -1.0000 I -0.0000 J -0.1123
G01 X 6.4307 Y 19.6869 Z -1.0000
G01 X 6.4585 Y 19.6943 Z -1.0000
G01 X 6.4585 Y 19.6943 Z -1.0000
G00 Z 5.0000

(End cutting path id: path223)


(Start cutting path id: path223)
(Change tool to Default tool)

G00 Z 5.0000
G00 X 6.2402 Y 19.5969

G01 Z -1.0000 F 100.0000(Penetrate)
G01 X 6.2462 Y 19.6109 Z -1.0000 F 3500.0000
G01 X 6.2559 Y 19.6120 Z -1.0000
G01 X 6.2620 Y 19.6139 Z -1.0000
G01 X 6.2621 Y 19.6269 Z -1.0000
G01 X 6.2315 Y 19.6423 Z -1.0000
G01 X 6.2085 Y 19.6119 Z -1.0000
G03 X 6.2149 Y 19.5786 Z -1.0000 I 0.0893 J 0.0000
G01 X 6.2243 Y 19.5722 Z -1.0000
G01 X 6.2346 Y 19.5778 Z -1.0000
G01 X 6.2402 Y 19.5969 Z -1.0000
G01 X 6.2402 Y 19.5969 Z -1.0000
G00 Z 5.0000

(End cutting path id: path223)


(Start cutting path id: path223)
(Change tool to Default tool)

G00 Z 5.0000
G00 X 6.0567 Y 19.7217

G01 Z -1.0000 F 100.0000(Penetrate)
G01 X 6.0510 Y 19.7492 Z -1.0000 F 3500.0000
G01 X 6.0854 Y 19.7706 Z -1.0000
G01 X 6.1064 Y 19.7870 Z -1.0000
G03 X 6.1221 Y 19.8820 Z -1.0000 I -0.2973 J 0.0979
G02 X 6.1314 Y 19.9848 Z -1.0000 I 0.6391 J -0.0059
G01 X 6.1420 Y 19.9971 Z -1.0000
G01 X 6.1545 Y 20.0080 Z -1.0000
G03 X 6.1608 Y 20.0348 Z -1.0000 I -0.0536 J 0.0267
G01 X 6.1549 Y 20.0554 Z -1.0000
G01 X 6.1466 Y 20.0573 Z -1.0000
G01 X 6.1221 Y 20.0676 Z -1.0000
G01 X 6.1342 Y 20.1119 Z -1.0000
G01 X 6.1410 Y 20.1289 Z -1.0000
G01 X 6.1343 Y 20.1385 Z -1.0000
G01 X 6.1255 Y 20.1503 Z -1.0000
G02 X 6.1304 Y 20.1960 Z -1.0000 I 0.1324 J 0.0089
G03 X 6.1340 Y 20.2447 Z -1.0000 I -0.1146 J 0.0329
G01 X 6.1225 Y 20.2547 Z -1.0000
G01 X 6.1128 Y 20.2635 Z -1.0000
G02 X 6.1177 Y 20.3016 Z -1.0000 I 0.0837 J 0.0086
G02 X 6.1406 Y 20.3305 Z -1.0000 I 0.0564 J -0.0213
G01 X 6.1600 Y 20.3299 Z -1.0000
G01 X 6.1489 Y 20.3515 Z -1.0000
G02 X 6.1217 Y 20.4098 Z -1.0000 I 0.0842 J 0.0747
G01 X 6.1383 Y 20.4231 Z -1.0000
G01 X 6.1529 Y 20.4242 Z -1.0000
G01 X 6.1562 Y 20.4333 Z -1.0000
G01 X 6.1454 Y 20.4467 Z -1.0000
G01 X 6.1310 Y 20.4491 Z -1.0000
G01 X 6.1193 Y 20.4529 Z -1.0000
G01 X 6.1132 Y 20.4690 Z -1.0000
G01 X 6.1284 Y 20.4860 Z -1.0000
G01 X 6.1494 Y 20.4729 Z -1.0000
G01 X 6.1589 Y 20.4629 Z -1.0000
G01 X 6.1691 Y 20.4649 Z -1.0000
G01 X 6.1723 Y 20.4771 Z -1.0000
G03 X 6.1563 Y 20.5048 Z -1.0000 I -0.0717 J -0.0229
G02 X 6.1394 Y 20.5361 Z -1.0000 I 0.0555 J 0.0502
G02 X 6.1318 Y 20.5986 Z -1.0000 I 0.2269 J 0.0593
G03 X 6.1287 Y 20.6633 Z -1.0000 I -0.5298 J 0.0073
G01 X 6.1228 Y 20.6804 Z -1.0000
G01 X 6.1190 Y 20.6971 Z -1.0000
G02 X 6.1287 Y 20.7380 Z -1.0000 I 0.1613 J -0.0168
G03 X 6.1326 Y 20.7743 Z -1.0000 I -0.0669 J 0.0255
G01 X 6.1210 Y 20.7886 Z -1.0000
G01 X 6.1058 Y 20.8005 Z -1.0000
G01 X 6.1056 Y 20.8108 Z -1.0000
G03 X 6.1212 Y 20.8655 Z -1.0000 I -0.0892 J 0.0552
G03 X 6.1086 Y 21.4571 Z -1.0000 I -11.4570 J 0.0502
G02 X 6.1087 Y 21.5668 Z -1.0000 I 1.1252 J 0.0533
G01 X 6.1144 Y 21.5722 Z -1.0000
G01 X 6.1293 Y 21.5590 Z -1.0000
G02 X 6.1439 Y 21.3363 Z -1.0000 I -1.8710 J -0.2342
G03 X 6.1476 Y 21.1720 Z -1.0000 I 4.9305 J 0.0303
G03 X 6.1601 Y 20.9236 Z -1.0000 I 11.5550 J 0.4565
G02 X 6.1737 Y 20.6752 Z -1.0000 I -20.5756 J -1.2505
G02 X 6.1841 Y 20.4293 Z -1.0000 I -18.6574 J -0.9081
G03 X 6.1936 Y 20.1833 Z -1.0000 I 37.2864 J 1.3226
G03 X 6.2023 Y 19.9985 Z -1.0000 I 19.4872 J 0.8200
G02 X 6.1947 Y 19.7692 Z -1.0000 I -1.3653 J -0.0695
G01 X 6.1747 Y 19.7644 Z -1.0000
G01 X 6.1597 Y 19.7711 Z -1.0000
G01 X 6.1391 Y 19.7588 Z -1.0000
G02 X 6.1174 Y 19.7408 Z -1.0000 I -0.0502 J 0.0383
G01 X 6.1068 Y 19.7425 Z -1.0000
G01 X 6.1061 Y 19.7264 Z -1.0000
G01 X 6.0964 Y 19.7107 Z -1.0000
G02 X 6.0567 Y 19.7216 Z -1.0000 I -0.0056 J 0.0575
G01 X 6.0567 Y 19.7217 Z -1.0000
G00 Z 5.0000

(End cutting path id: path223)


(Start cutting path id: path223)
(Change tool to Default tool)

G00 Z 5.0000
G00 X 6.0429 Y 19.7926

G01 Z -1.0000 F 100.0000(Penetrate)
G01 X 6.0418 Y 19.8054 Z -1.0000 F 3500.0000
G02 X 6.0565 Y 19.8253 Z -1.0000 I 0.0481 J -0.0202
G01 X 6.0667 Y 19.8248 Z -1.0000
G01 X 6.0703 Y 19.8112 Z -1.0000
G01 X 6.0553 Y 19.7899 Z -1.0000
G01 X 6.0428 Y 19.7926 Z -1.0000
G01 X 6.0429 Y 19.7926 Z -1.0000
G00 Z 5.0000

(End cutting path id: path223)


(Start cutting path id: path223)
(Change tool to Default tool)

G00 Z 5.0000
G00 X 6.8117 Y 19.5951

G01 Z -1.0000 F 100.0000(Penetrate)
G01 X 6.8094 Y 19.6008 Z -1.0000 F 3500.0000
G03 X 6.7958 Y 19.6120 Z -1.0000 I -0.0500 J -0.0472
G01 X 6.7850 Y 19.6127 Z -1.0000
G01 X 6.7800 Y 19.6049 Z -1.0000
G01 X 6.7848 Y 19.5929 Z -1.0000
G01 X 6.7958 Y 19.5881 Z -1.0000
G01 X 6.8089 Y 19.5909 Z -1.0000
G01 X 6.8117 Y 19.5951 Z -1.0000
G01 X 6.8117 Y 19.5951 Z -1.0000
G00 Z 5.0000

(End cutting path id: path223)


(Start cutting path id: path223)
(Change tool to Default tool)

G00 Z 5.0000
G00 X 6.7770 Y 19.4168

G01 Z -1.0000 F 100.0000(Penetrate)
G01 X 6.7941 Y 19.4261 Z -1.0000 F 3500.0000
G02 X 6.8218 Y 19.4260 Z -1.0000 I 0.0138 J -0.0677
G01 X 6.8237 Y 19.4199 Z -1.0000
G01 X 6.8064 Y 19.4107 Z -1.0000
G02 X 6.7788 Y 19.4107 Z -1.0000 I -0.0136 J 0.0668
G01 X 6.7770 Y 19.4169 Z -1.0000
G01 X 6.7770 Y 19.4168 Z -1.0000
G00 Z 5.0000

(End cutting path id: path223)


(Start cutting path id: path223)
(Change tool to Default tool)

G00 Z 5.0000
G00 X 6.8275 Y 19.1277

G01 Z -1.0000 F 100.0000(Penetrate)
G02 X 6.9554 Y 19.1708 Z -1.0000 I 0.1482 J -0.2285 F 3500.0000
G01 X 6.9690 Y 19.1380 Z -1.0000
G01 X 6.9614 Y 19.1344 Z -1.0000
G02 X 6.8830 Y 19.1222 Z -1.0000 I -0.2485 J 1.3402
G02 X 6.8290 Y 19.1214 Z -1.0000 I -0.0304 J 0.2389
G01 X 6.8275 Y 19.1277 Z -1.0000
G01 X 6.8275 Y 19.1277 Z -1.0000
G00 Z 5.0000

(End cutting path id: path223)


(Start cutting path id: path223)
(Change tool to Default tool)

G00 Z 5.0000
G00 X 6.9664 Y 19.0589

G01 Z -1.0000 F 100.0000(Penetrate)
G02 X 6.9862 Y 19.0628 Z -1.0000 I 0.0198 J -0.0487 F 3500.0000
G02 X 7.0061 Y 19.0589 Z -1.0000 I 0.0000 J -0.0532
G01 X 6.9862 Y 19.0509 Z -1.0000
G01 X 6.9664 Y 19.0589 Z -1.0000
G01 X 6.9664 Y 19.0589 Z -1.0000
G00 Z 5.0000

(End cutting path id: path223)


(Start cutting path id: path223)
(Change tool to Default tool)

G00 Z 5.0000
G00 X 7.0497 Y 19.0652

G01 Z -1.0000 F 100.0000(Penetrate)
G01 X 7.0548 Y 19.0730 Z -1.0000 F 3500.0000
G01 X 7.0656 Y 19.0722 Z -1.0000
G02 X 7.0792 Y 19.0611 Z -1.0000 I -0.0361 J -0.0581
G01 X 7.0815 Y 19.0554 Z -1.0000
G01 X 7.0787 Y 19.0512 Z -1.0000
G01 X 7.0656 Y 19.0484 Z -1.0000
G01 X 7.0545 Y 19.0532 Z -1.0000
G01 X 7.0497 Y 19.0652 Z -1.0000
G01 X 7.0497 Y 19.0652 Z -1.0000
G00 Z 5.0000

(End cutting path id: path223)


(Start cutting path id: path223)
(Change tool to Default tool)

G00 Z 5.0000
G00 X 7.1876 Y 19.0952

G01 Z -1.0000 F 100.0000(Penetrate)
G02 X 7.2154 Y 19.1183 Z -1.0000 I 0.0814 J -0.0697 F 3500.0000
G01 X 7.2272 Y 19.1181 Z -1.0000
G01 X 7.2357 Y 19.1182 Z -1.0000
G01 X 7.2403 Y 19.1268 Z -1.0000
G01 X 7.2340 Y 19.1373 Z -1.0000
G03 X 7.2095 Y 19.1436 Z -1.0000 I -0.0245 J -0.0450
G02 X 7.1816 Y 19.1489 Z -1.0000 I 0.0000 J 0.0763
G01 X 7.1688 Y 19.1595 Z -1.0000
G01 X 7.1723 Y 19.1679 Z -1.0000
G02 X 7.2353 Y 19.1751 Z -1.0000 I 0.0622 J -0.2636
G02 X 7.2884 Y 19.1681 Z -1.0000 I -0.0007 J -0.2101
G01 X 7.2895 Y 19.1608 Z -1.0000
G01 X 7.2769 Y 19.1437 Z -1.0000
G01 X 7.2781 Y 19.1187 Z -1.0000
G01 X 7.2685 Y 19.0856 Z -1.0000
G02 X 7.2047 Y 19.0645 Z -1.0000 I -0.0644 J 0.0874
G01 X 7.1857 Y 19.0756 Z -1.0000
G01 X 7.1877 Y 19.0952 Z -1.0000
G01 X 7.1876 Y 19.0952 Z -1.0000
G00 Z 5.0000

(End cutting path id: path223)


(Start cutting path id: path223)
(Change tool to Default tool)

G00 Z 5.0000
G00 X 7.4415 Y 19.1001

G01 Z -1.0000 F 100.0000(Penetrate)
G03 X 7.4904 Y 19.1221 Z -1.0000 I -0.1984 J 0.5082 F 3500.0000
G03 X 7.5036 Y 19.1317 Z -1.0000 I -0.0232 J 0.0455
G02 X 7.5491 Y 19.1490 Z -1.0000 I 0.0415 J -0.0409
G02 X 7.6016 Y 19.1251 Z -1.0000 I -0.0055 J -0.0820
G01 X 7.6171 Y 19.1210 Z -1.0000
G01 X 7.6303 Y 19.1330 Z -1.0000
G01 X 7.6448 Y 19.1531 Z -1.0000
G01 X 7.6625 Y 19.1595 Z -1.0000
G01 X 7.6791 Y 19.1651 Z -1.0000
G01 X 7.6847 Y 19.1763 Z -1.0000
G01 X 7.6802 Y 19.1852 Z -1.0000
G01 X 7.6724 Y 19.1855 Z -1.0000
G01 X 7.6593 Y 19.1823 Z -1.0000
G02 X 7.6049 Y 19.1909 Z -1.0000 I 0.0284 J 0.3574
G01 X 7.6038 Y 19.1982 Z -1.0000
G02 X 7.6291 Y 19.2057 Z -1.0000 I 0.0265 J -0.0433
G03 X 7.7081 Y 19.2106 Z -1.0000 I -0.0236 J 1.0285
G03 X 7.7442 Y 19.2171 Z -1.0000 I -0.0230 J 0.2293
G01 X 7.7713 Y 19.2153 Z -1.0000
G01 X 7.7799 Y 19.2023 Z -1.0000
G01 X 7.7742 Y 19.1819 Z -1.0000
G01 X 7.7601 Y 19.1700 Z -1.0000
G01 X 7.7562 Y 19.1645 Z -1.0000
G01 X 7.7596 Y 19.1607 Z -1.0000
G01 X 7.7699 Y 19.1536 Z -1.0000
G01 X 7.7703 Y 19.1370 Z -1.0000
G01 X 7.7549 Y 19.1236 Z -1.0000
G02 X 7.6240 Y 19.1043 Z -1.0000 I -0.1980 J 0.8861
G03 X 7.4864 Y 19.0929 Z -1.0000 I 0.5776 J -7.8108
G03 X 7.4386 Y 19.0872 Z -1.0000 I 0.0817 J -0.8910
G01 X 7.3910 Y 19.0803 Z -1.0000
G01 X 7.4415 Y 19.1001 Z -1.0000
G00 Z 5.0000

(End cutting path id: path223)


(Start cutting path id: path223)
(Change tool to Default tool)

G00 Z 5.0000
G00 X 7.5388 Y 19.4719

G01 Z -1.0000 F 100.0000(Penetrate)
G01 X 7.5586 Y 19.4754 Z -1.0000 F 3500.0000
G01 X 7.5693 Y 19.4706 Z -1.0000
G01 X 7.5683 Y 19.4657 Z -1.0000
G01 X 7.5484 Y 19.4623 Z -1.0000
G01 X 7.5378 Y 19.4670 Z -1.0000
G01 X 7.5388 Y 19.4719 Z -1.0000
G01 X 7.5388 Y 19.4719 Z -1.0000
G00 Z 5.0000

(End cutting path id: path223)


(Start cutting path id: path223)
(Change tool to Default tool)

G00 Z 5.0000
G00 X 7.5816 Y 19.6675

G01 Z -1.0000 F 100.0000(Penetrate)
G01 X 7.5689 Y 19.6781 Z -1.0000 F 3500.0000
G03 X 7.5409 Y 19.6833 Z -1.0000 I -0.0279 J -0.0712
G03 X 7.5161 Y 19.6773 Z -1.0000 I 0.0000 J -0.0540
G01 X 7.5101 Y 19.6675 Z -1.0000
G01 X 7.5166 Y 19.6581 Z -1.0000
G03 X 7.5508 Y 19.6516 Z -1.0000 I 0.0342 J 0.0874
G03 X 7.5791 Y 19.6585 Z -1.0000 I 0.0000 J 0.0617
G01 X 7.5816 Y 19.6675 Z -1.0000
G01 X 7.5816 Y 19.6675 Z -1.0000
G00 Z 5.0000

(End cutting path id: path223)


(Start cutting path id: path223)
(Change tool to Default tool)

G00 Z 5.0000
G00 X 7.4149 Y 19.6596

G01 Z -1.0000 F 100.0000(Penetrate)
G01 X 7.4079 Y 19.6764 Z -1.0000 F 3500.0000
G01 X 7.3911 Y 19.6834 Z -1.0000
G01 X 7.3743 Y 19.6764 Z -1.0000
G01 X 7.3673 Y 19.6596 Z -1.0000
G01 X 7.3743 Y 19.6427 Z -1.0000
G01 X 7.3911 Y 19.6358 Z -1.0000
G01 X 7.4079 Y 19.6427 Z -1.0000
G01 X 7.4149 Y 19.6596 Z -1.0000
G01 X 7.4149 Y 19.6596 Z -1.0000
G00 Z 5.0000

(End cutting path id: path223)


(Start cutting path id: path223)
(Change tool to Default tool)

G00 Z 5.0000
G00 X 7.3315 Y 19.5193

G01 Z -1.0000 F 100.0000(Penetrate)
G02 X 7.3514 Y 19.5231 Z -1.0000 I 0.0199 J -0.0497 F 3500.0000
G02 X 7.3712 Y 19.5193 Z -1.0000 I 0.0000 J -0.0529
G01 X 7.3513 Y 19.5113 Z -1.0000
G01 X 7.3315 Y 19.5193 Z -1.0000
G01 X 7.3315 Y 19.5193 Z -1.0000
G00 Z 5.0000

(End cutting path id: path223)


(Start cutting path id: path223)
(Change tool to Default tool)

G00 Z 5.0000
G00 X 7.2402 Y 19.4490

G01 Z -1.0000 F 100.0000(Penetrate)
G01 X 7.2459 Y 19.4553 Z -1.0000 F 3500.0000
G02 X 7.3474 Y 19.4589 Z -1.0000 I 0.0845 J -0.9254
G01 X 7.3492 Y 19.4514 Z -1.0000
G02 X 7.3156 Y 19.4418 Z -1.0000 I -0.0387 J 0.0718
G02 X 7.2458 Y 19.4430 Z -1.0000 I -0.0279 J 0.4279
G01 X 7.2402 Y 19.4491 Z -1.0000
G01 X 7.2402 Y 19.4490 Z -1.0000
G00 Z 5.0000

(End cutting path id: path223)


(Start cutting path id: path223)
(Change tool to Default tool)

G00 Z 5.0000
G00 X 7.0772 Y 19.7406

G01 Z -1.0000 F 100.0000(Penetrate)
G01 X 7.0667 Y 19.7452 Z -1.0000 F 3500.0000
G01 X 7.0468 Y 19.7419 Z -1.0000
G01 X 7.0458 Y 19.7369 Z -1.0000
G01 X 7.0564 Y 19.7323 Z -1.0000
G01 X 7.0763 Y 19.7357 Z -1.0000
G01 X 7.0772 Y 19.7406 Z -1.0000
G01 X 7.0772 Y 19.7406 Z -1.0000
G00 Z 5.0000

(End cutting path id: path223)


(Start cutting path id: path223)
(Change tool to Default tool)

G00 Z 5.0000
G00 X 6.6571 Y 19.1229

G01 Z -1.0000 F 100.0000(Penetrate)
G02 X 6.6850 Y 19.1263 Z -1.0000 I 0.0264 J -0.0996 F 3500.0000
G02 X 6.7048 Y 19.1223 Z -1.0000 I -0.0007 J -0.0543
G01 X 6.6767 Y 19.1150 Z -1.0000
G01 X 6.6571 Y 19.1229 Z -1.0000
G01 X 6.6571 Y 19.1229 Z -1.0000
G00 Z 5.0000

(End cutting path id: path223)


(Start cutting path id: path223)
(Change tool to Default tool)

G00 Z 5.0000
G00 X 6.5576 Y 19.0304

G01 Z -1.0000 F 100.0000(Penetrate)
G01 X 6.5639 Y 19.0374 Z -1.0000 F 3500.0000
G02 X 6.6288 Y 19.0381 Z -1.0000 I 0.0360 J -0.3294
G03 X 6.6996 Y 19.0376 Z -1.0000 I 0.0384 J 0.4690
G03 X 6.7707 Y 19.0480 Z -1.0000 I -0.0328 J 0.4749
G02 X 6.8409 Y 19.0567 Z -1.0000 I 0.0798 J -0.3561
G02 X 6.8770 Y 19.0507 Z -1.0000 I 0.0025 J -0.0959
G01 X 6.8765 Y 19.0425 Z -1.0000
G02 X 6.7787 Y 19.0271 Z -1.0000 I -0.1465 J 0.6114
G02 X 6.5673 Y 19.0204 Z -1.0000 I -0.1794 J 2.3151
G01 X 6.5576 Y 19.0302 Z -1.0000
G01 X 6.5576 Y 19.0304 Z -1.0000
G00 Z 5.0000

(End cutting path id: path223)


(Start cutting path id: path223)
(Change tool to Default tool)

G00 Z 5.0000
G00 X 7.8001 Y 19.4879

G01 Z -1.0000 F 100.0000(Penetrate)
G02 X 7.8279 Y 19.4914 Z -1.0000 I 0.0264 J -0.0996 F 3500.0000
G02 X 7.8477 Y 19.4874 Z -1.0000 I -0.0007 J -0.0542
G01 X 7.8196 Y 19.4801 Z -1.0000
G01 X 7.8001 Y 19.4880 Z -1.0000
G01 X 7.8001 Y 19.4879 Z -1.0000
G00 Z 5.0000

(End cutting path id: path223)


(Start cutting path id: path223)
(Change tool to Default tool)

G00 Z 5.0000
G00 X 7.8276 Y 19.6115

G01 Z -1.0000 F 100.0000(Penetrate)
G01 X 7.8204 Y 19.6242 Z -1.0000 F 3500.0000
G01 X 7.8038 Y 19.6256 Z -1.0000
G03 X 7.7846 Y 19.6133 Z -1.0000 I 0.0208 J -0.0533
G01 X 7.7800 Y 19.6023 Z -1.0000
G01 X 7.7851 Y 19.5933 Z -1.0000
G01 X 7.8038 Y 19.5881 Z -1.0000
G01 X 7.8207 Y 19.5950 Z -1.0000
G01 X 7.8276 Y 19.6115 Z -1.0000
G01 X 7.8276 Y 19.6115 Z -1.0000
G00 Z 5.0000

(End cutting path id: path223)


(Start cutting path id: path223)
(Change tool to Default tool)

G00 Z 5.0000
G00 X 7.9267 Y 19.6889

G01 Z -1.0000 F 100.0000(Penetrate)
G01 X 7.9321 Y 19.6900 Z -1.0000 F 3500.0000
G01 X 7.9323 Y 19.6968 Z -1.0000
G01 X 7.9073 Y 19.7072 Z -1.0000
G01 X 7.8923 Y 19.6874 Z -1.0000
G01 X 7.8968 Y 19.6783 Z -1.0000
G01 X 7.9016 Y 19.6795 Z -1.0000
G01 X 7.9126 Y 19.6903 Z -1.0000
G01 X 7.9266 Y 19.6889 Z -1.0000
G01 X 7.9267 Y 19.6889 Z -1.0000
G00 Z 5.0000

(End cutting path id: path223)


(Start cutting path id: path223)
(Change tool to Default tool)

G00 Z 5.0000
G00 X 8.1292 Y 19.7326

G01 Z -1.0000 F 100.0000(Penetrate)
G01 X 8.1234 Y 19.7408 Z -1.0000 F 3500.0000
G03 X 8.0895 Y 19.7468 Z -1.0000 I -0.0339 J -0.0937
G01 X 8.0769 Y 19.7341 Z -1.0000
G01 X 8.0895 Y 19.7207 Z -1.0000
G03 X 8.1233 Y 19.7247 Z -1.0000 I 0.0057 J 0.0965
G01 X 8.1292 Y 19.7327 Z -1.0000
G01 X 8.1292 Y 19.7326 Z -1.0000
G00 Z 5.0000

(End cutting path id: path223)


(Start cutting path id: path223)
(Change tool to Default tool)

G00 Z 5.0000
G00 X 8.2840 Y 19.7560

G01 Z -1.0000 F 100.0000(Penetrate)
G01 X 8.2547 Y 19.7576 Z -1.0000 F 3500.0000
G01 X 8.2498 Y 19.7284 Z -1.0000
G01 X 8.2610 Y 19.7225 Z -1.0000
G01 X 8.2768 Y 19.7293 Z -1.0000
G01 X 8.2866 Y 19.7463 Z -1.0000
G01 X 8.2840 Y 19.7561 Z -1.0000
G01 X 8.2840 Y 19.7560 Z -1.0000
G00 Z 5.0000

(End cutting path id: path223)


(Start cutting path id: path223)
(Change tool to Default tool)

G00 Z 5.0000
G00 X 8.2799 Y 19.6831

G01 Z -1.0000 F 100.0000(Penetrate)
G01 X 8.2780 Y 19.6892 Z -1.0000 F 3500.0000
G01 X 8.2650 Y 19.6893 Z -1.0000
G01 X 8.2502 Y 19.6752 Z -1.0000
G01 X 8.2553 Y 19.6674 Z -1.0000
G01 X 8.2681 Y 19.6711 Z -1.0000
G01 X 8.2799 Y 19.6831 Z -1.0000
G01 X 8.2799 Y 19.6831 Z -1.0000
G00 Z 5.0000

(End cutting path id: path223)


(Start cutting path id: path223)
(Change tool to Default tool)

G00 Z 5.0000
G00 X 8.3831 Y 19.5405

G01 Z -1.0000 F 100.0000(Penetrate)
G01 X 8.3926 Y 19.5500 Z -1.0000 F 3500.0000
G02 X 8.4387 Y 19.5405 Z -1.0000 I -0.0000 J -0.1165
G01 X 8.4406 Y 19.5326 Z -1.0000
G01 X 8.4267 Y 19.5257 Z -1.0000
G02 X 8.3896 Y 19.5314 Z -1.0000 I -0.0027 J 0.1067
G01 X 8.3831 Y 19.5405 Z -1.0000
G01 X 8.3831 Y 19.5405 Z -1.0000
G00 Z 5.0000

(End cutting path id: path223)


(Start cutting path id: path223)
(Change tool to Default tool)

G00 Z 5.0000
G00 X 8.1730 Y 19.5200

G01 Z -1.0000 F 100.0000(Penetrate)
G02 X 8.2088 Y 19.5233 Z -1.0000 I 0.0351 J -0.1821 F 3500.0000
G02 X 8.2365 Y 19.5197 Z -1.0000 I -0.0004 J -0.1099
G01 X 8.2006 Y 19.5128 Z -1.0000
G01 X 8.1730 Y 19.5200 Z -1.0000
G01 X 8.1730 Y 19.5200 Z -1.0000
G00 Z 5.0000

(End cutting path id: path223)


(Start cutting path id: path223)
(Change tool to Default tool)

G00 Z 5.0000
G00 X 8.0584 Y 19.5235

G01 Z -1.0000 F 100.0000(Penetrate)
G01 X 8.0655 Y 19.5400 Z -1.0000 F 3500.0000
G01 X 8.0941 Y 19.5308 Z -1.0000
G01 X 8.0988 Y 19.5155 Z -1.0000
G01 X 8.0910 Y 19.5086 Z -1.0000
G02 X 8.0700 Y 19.5131 Z -1.0000 I 0.0000 J 0.0510
G01 X 8.0583 Y 19.5234 Z -1.0000
G01 X 8.0584 Y 19.5235 Z -1.0000
G00 Z 5.0000

(End cutting path id: path223)


(Start cutting path id: path223)
(Change tool to Default tool)

G00 Z 5.0000
G00 X 8.0150 Y 19.2339

G01 Z -1.0000 F 100.0000(Penetrate)
G01 X 8.0348 Y 19.2373 Z -1.0000 F 3500.0000
G01 X 8.0455 Y 19.2326 Z -1.0000
G01 X 8.0445 Y 19.2277 Z -1.0000
G01 X 8.0246 Y 19.2243 Z -1.0000
G01 X 8.0140 Y 19.2289 Z -1.0000
G01 X 8.0150 Y 19.2339 Z -1.0000
G01 X 8.0150 Y 19.2339 Z -1.0000
G00 Z 5.0000

(End cutting path id: path223)


(Start cutting path id: path223)
(Change tool to Default tool)

G00 Z 5.0000
G00 X 8.1291 Y 19.1596

G01 Z -1.0000 F 100.0000(Penetrate)
G01 X 8.1339 Y 19.1707 Z -1.0000 F 3500.0000
G01 X 8.1459 Y 19.1754 Z -1.0000
G01 X 8.1537 Y 19.1703 Z -1.0000
G01 X 8.1529 Y 19.1596 Z -1.0000
G02 X 8.1419 Y 19.1460 Z -1.0000 I -0.0581 J 0.0361
G01 X 8.1361 Y 19.1437 Z -1.0000
G01 X 8.1319 Y 19.1464 Z -1.0000
G01 X 8.1291 Y 19.1596 Z -1.0000
G01 X 8.1291 Y 19.1596 Z -1.0000
G00 Z 5.0000

(End cutting path id: path223)


(Start cutting path id: path223)
(Change tool to Default tool)

G00 Z 5.0000
G00 X 8.2824 Y 19.1841

G01 Z -1.0000 F 100.0000(Penetrate)
G01 X 8.2941 Y 19.1982 Z -1.0000 F 3500.0000
G01 X 8.3054 Y 19.1982 Z -1.0000
G01 X 8.3105 Y 19.1847 Z -1.0000
G01 X 8.2967 Y 19.1700 Z -1.0000
G01 X 8.2850 Y 19.1725 Z -1.0000
G01 X 8.2825 Y 19.1841 Z -1.0000
G01 X 8.2824 Y 19.1841 Z -1.0000
G00 Z 5.0000

(End cutting path id: path223)


(Start cutting path id: path223)
(Change tool to Default tool)

G00 Z 5.0000
G00 X 8.3752 Y 19.1913

G01 Z -1.0000 F 100.0000(Penetrate)
G01 X 8.3871 Y 19.2034 Z -1.0000 F 3500.0000
G01 X 8.3999 Y 19.2072 Z -1.0000
G01 X 8.4104 Y 19.2026 Z -1.0000
G01 X 8.4149 Y 19.1913 Z -1.0000
G01 X 8.4093 Y 19.1810 Z -1.0000
G01 X 8.3901 Y 19.1754 Z -1.0000
G01 X 8.3761 Y 19.1815 Z -1.0000
G01 X 8.3752 Y 19.1913 Z -1.0000
G01 X 8.3752 Y 19.1913 Z -1.0000
G00 Z 5.0000

(End cutting path id: path223)


(Start cutting path id: path223)
(Change tool to Default tool)

G00 Z 5.0000
G00 X 8.5260 Y 19.2066

G01 Z -1.0000 F 100.0000(Penetrate)
G02 X 8.5512 Y 19.2180 Z -1.0000 I 0.0474 J -0.0714 F 3500.0000
G02 X 8.5868 Y 19.2228 Z -1.0000 I 0.0366 J -0.1364
G03 X 8.6136 Y 19.2303 Z -1.0000 I -0.0003 J 0.0527
G01 X 8.6177 Y 19.2414 Z -1.0000
G01 X 8.5805 Y 19.2698 Z -1.0000
G03 X 8.5201 Y 19.2466 Z -1.0000 I -0.0042 J -0.0795
G02 X 8.4919 Y 19.2311 Z -1.0000 I -0.0411 J 0.0411
G01 X 8.4863 Y 19.2389 Z -1.0000
G01 X 8.4828 Y 19.2477 Z -1.0000
G03 X 8.4198 Y 19.2569 Z -1.0000 I -0.0704 J -0.2614
G01 X 8.4185 Y 19.2623 Z -1.0000
G02 X 8.4466 Y 19.2710 Z -1.0000 I 0.0374 J -0.0710
G02 X 8.5499 Y 19.2818 Z -1.0000 I 0.5007 J -4.3056
G02 X 8.6926 Y 19.2936 Z -1.0000 I 0.7241 J -7.8640
G03 X 8.8355 Y 19.3047 Z -1.0000 I -1.3634 J 18.4721
G03 X 8.8950 Y 19.3101 Z -1.0000 I -0.3154 J 3.8661
G02 X 8.9369 Y 19.2965 Z -1.0000 I 0.0054 J -0.0548
G02 X 8.9543 Y 19.2576 Z -1.0000 I -0.0342 J -0.0387
G02 X 8.9476 Y 19.2216 Z -1.0000 I -0.1025 J 0.0004
G01 X 8.9404 Y 19.2209 Z -1.0000
G01 X 8.9278 Y 19.2306 Z -1.0000
G01 X 8.9208 Y 19.2272 Z -1.0000
G01 X 8.9100 Y 19.2187 Z -1.0000
G02 X 8.7085 Y 19.2012 Z -1.0000 I -0.3480 J 2.8392
G02 X 8.5281 Y 19.1993 Z -1.0000 I -0.1147 J 2.2338
G01 X 8.5260 Y 19.2066 Z -1.0000
G01 X 8.5260 Y 19.2066 Z -1.0000
G00 Z 5.0000

(End cutting path id: path223)


(Start cutting path id: path223)
(Change tool to Default tool)

G00 Z 5.0000
G00 X 8.6054 Y 19.5563

G01 Z -1.0000 F 100.0000(Penetrate)
G02 X 8.6531 Y 19.5704 Z -1.0000 I 0.0477 J -0.0739 F 3500.0000
G01 X 8.6609 Y 19.5563 Z -1.0000
G01 X 8.6481 Y 19.5460 Z -1.0000
G02 X 8.6163 Y 19.5407 Z -1.0000 I -0.0311 J 0.0883
G01 X 8.6036 Y 19.5473 Z -1.0000
G01 X 8.6053 Y 19.5563 Z -1.0000
G01 X 8.6054 Y 19.5563 Z -1.0000
G00 Z 5.0000

(End cutting path id: path223)


(Start cutting path id: path223)
(Change tool to Default tool)

G00 Z 5.0000
G00 X 8.7294 Y 19.5672

G01 Z -1.0000 F 100.0000(Penetrate)
G01 X 8.7491 Y 19.5706 Z -1.0000 F 3500.0000
G01 X 8.7598 Y 19.5659 Z -1.0000
G01 X 8.7588 Y 19.5610 Z -1.0000
G01 X 8.7390 Y 19.5576 Z -1.0000
G01 X 8.7284 Y 19.5622 Z -1.0000
G01 X 8.7294 Y 19.5672 Z -1.0000
G01 X 8.7294 Y 19.5672 Z -1.0000
G00 Z 5.0000

(End cutting path id: path223)


(Start cutting path id: path223)
(Change tool to Default tool)

G00 Z 5.0000
G00 X 8.9228 Y 19.2707

G01 Z -1.0000 F 100.0000(Penetrate)
G03 X 8.8860 Y 19.2815 Z -1.0000 I -0.0368 J -0.0569 F 3500.0000
G01 X 8.8752 Y 19.2707 Z -1.0000
G01 X 8.8814 Y 19.2611 Z -1.0000
G03 X 8.9109 Y 19.2550 Z -1.0000 I 0.0290 J 0.0659
G01 X 8.9244 Y 19.2618 Z -1.0000
G01 X 8.9229 Y 19.2707 Z -1.0000
G01 X 8.9228 Y 19.2707 Z -1.0000
G00 Z 5.0000

(End cutting path id: path223)


(Start cutting path id: path223)
(Change tool to Default tool)

G00 Z 5.0000
G00 X 9.4588 Y 19.6310

G01 Z -1.0000 F 100.0000(Penetrate)
G02 X 9.4945 Y 19.6344 Z -1.0000 I 0.0351 J -0.1821 F 3500.0000
G02 X 9.5223 Y 19.6307 Z -1.0000 I -0.0004 J -0.1099
G01 X 9.4864 Y 19.6238 Z -1.0000
G01 X 9.4588 Y 19.6310 Z -1.0000
G01 X 9.4588 Y 19.6310 Z -1.0000
G00 Z 5.0000

(End cutting path id: path223)


(Start cutting path id: path223)
(Change tool to Default tool)

G00 Z 5.0000
G00 X 9.5795 Y 19.7230

G01 Z -1.0000 F 100.0000(Penetrate)
G01 X 9.5561 Y 19.7443 Z -1.0000 F 3500.0000
G01 X 9.5420 Y 19.7336 Z -1.0000
G01 X 9.5520 Y 19.7092 Z -1.0000
G01 X 9.5759 Y 19.6992 Z -1.0000
G01 X 9.5815 Y 19.7040 Z -1.0000
G01 X 9.5796 Y 19.7230 Z -1.0000
G01 X 9.5795 Y 19.7230 Z -1.0000
G00 Z 5.0000

(End cutting path id: path223)


(Start cutting path id: path223)
(Change tool to Default tool)

G00 Z 5.0000
G00 X 9.6489 Y 19.7260

G01 Z -1.0000 F 100.0000(Penetrate)
G03 X 9.6221 Y 19.7447 Z -1.0000 I -0.0658 J -0.0658 F 3500.0000
G01 X 9.6122 Y 19.7429 Z -1.0000
G01 X 9.6111 Y 19.7169 Z -1.0000
G03 X 9.6495 Y 19.6991 Z -1.0000 I 0.0384 J 0.0326
G01 X 9.6571 Y 19.7069 Z -1.0000
G01 X 9.6489 Y 19.7260 Z -1.0000
G01 X 9.6489 Y 19.7260 Z -1.0000
G00 Z 5.0000

(End cutting path id: path223)


(Start cutting path id: path223)
(Change tool to Default tool)

G00 Z 5.0000
G00 X 9.7960 Y 19.7628

G01 Z -1.0000 F 100.0000(Penetrate)
G01 X 9.7914 Y 19.7741 Z -1.0000 F 3500.0000
G01 X 9.7810 Y 19.7786 Z -1.0000
G01 X 9.7682 Y 19.7748 Z -1.0000
G01 X 9.7563 Y 19.7628 Z -1.0000
G01 X 9.7573 Y 19.7529 Z -1.0000
G01 X 9.7712 Y 19.7469 Z -1.0000
G01 X 9.7904 Y 19.7525 Z -1.0000
G01 X 9.7960 Y 19.7628 Z -1.0000
G01 X 9.7960 Y 19.7628 Z -1.0000
G00 Z 5.0000

(End cutting path id: path223)


(Start cutting path id: path223)
(Change tool to Default tool)

G00 Z 5.0000
G00 X 9.9193 Y 19.7598

G01 Z -1.0000 F 100.0000(Penetrate)
G01 X 9.9157 Y 19.7683 Z -1.0000 F 3500.0000
G01 X 9.9005 Y 19.7690 Z -1.0000
G03 X 9.8803 Y 19.7558 Z -1.0000 I 0.0215 J -0.0550
G01 X 9.8753 Y 19.7438 Z -1.0000
G01 X 9.8923 Y 19.7319 Z -1.0000
G01 X 9.9193 Y 19.7597 Z -1.0000
G01 X 9.9193 Y 19.7598 Z -1.0000
G00 Z 5.0000

(End cutting path id: path223)


(Start cutting path id: path223)
(Change tool to Default tool)

G00 Z 5.0000
G00 X 9.9764 Y 19.7349

G01 Z -1.0000 F 100.0000(Penetrate)
G01 X 9.9899 Y 19.7341 Z -1.0000 F 3500.0000
G01 X 10.0135 Y 19.7247 Z -1.0000
G01 X 10.0263 Y 19.7311 Z -1.0000
G01 X 10.0235 Y 19.7497 Z -1.0000
G03 X 9.9861 Y 19.7662 Z -1.0000 I -0.0451 J -0.0517
G03 X 9.9555 Y 19.7604 Z -1.0000 I -0.0060 J -0.0518
G01 X 9.9423 Y 19.7427 Z -1.0000
G01 X 9.9465 Y 19.7231 Z -1.0000
G01 X 9.9624 Y 19.7150 Z -1.0000
G01 X 9.9759 Y 19.7220 Z -1.0000
G01 X 9.9763 Y 19.7348 Z -1.0000
G01 X 9.9764 Y 19.7349 Z -1.0000
G00 Z 5.0000

(End cutting path id: path223)


(Start cutting path id: path223)
(Change tool to Default tool)

G00 Z 5.0000
G00 X 9.8795 Y 19.6630

G01 Z -1.0000 F 100.0000(Penetrate)
G02 X 9.9233 Y 19.6662 Z -1.0000 I 0.0424 J -0.2764 F 3500.0000
G02 X 9.9588 Y 19.6627 Z -1.0000 I -0.0010 J -0.1952
G01 X 9.9149 Y 19.6561 Z -1.0000
G01 X 9.8794 Y 19.6630 Z -1.0000
G01 X 9.8795 Y 19.6630 Z -1.0000
G00 Z 5.0000

(End cutting path id: path223)


(Start cutting path id: path223)
(Change tool to Default tool)

G00 Z 5.0000
G00 X 10.1000 Y 19.3817

G01 Z -1.0000 F 100.0000(Penetrate)
G01 X 10.1080 Y 19.4016 Z -1.0000 F 3500.0000
G02 X 10.1118 Y 19.3817 Z -1.0000 I -0.0497 J -0.0199
G02 X 10.1080 Y 19.3619 Z -1.0000 I -0.0529 J -0.0000
G01 X 10.1000 Y 19.3817 Z -1.0000
G01 X 10.1000 Y 19.3817 Z -1.0000
G00 Z 5.0000

(End cutting path id: path223)


(Start cutting path id: path223)
(Change tool to Default tool)

G00 Z 5.0000
G00 X 10.3081 Y 19.4244

G01 Z -1.0000 F 100.0000(Penetrate)
G02 X 10.3360 Y 19.4279 Z -1.0000 I 0.0264 J -0.0996 F 3500.0000
G02 X 10.3557 Y 19.4239 Z -1.0000 I -0.0007 J -0.0543
G01 X 10.3277 Y 19.4166 Z -1.0000
G01 X 10.3081 Y 19.4245 Z -1.0000
G01 X 10.3081 Y 19.4244 Z -1.0000
G00 Z 5.0000

(End cutting path id: path223)


(Start cutting path id: path223)
(Change tool to Default tool)

G00 Z 5.0000
G00 X 10.3961 Y 19.4243

G01 Z -1.0000 F 100.0000(Penetrate)
G01 X 10.4159 Y 19.4277 Z -1.0000 F 3500.0000
G01 X 10.4265 Y 19.4230 Z -1.0000
G01 X 10.4255 Y 19.4181 Z -1.0000
G01 X 10.4057 Y 19.4147 Z -1.0000
G01 X 10.3951 Y 19.4193 Z -1.0000
G01 X 10.3961 Y 19.4243 Z -1.0000
G01 X 10.3961 Y 19.4243 Z -1.0000
G00 Z 5.0000

(End cutting path id: path223)


(Start cutting path id: path223)
(Change tool to Default tool)

G00 Z 5.0000
G00 X 10.3875 Y 19.3452

G01 Z -1.0000 F 100.0000(Penetrate)
G02 X 10.4153 Y 19.3486 Z -1.0000 I 0.0264 J -0.0996 F 3500.0000
G02 X 10.4351 Y 19.3446 Z -1.0000 I -0.0007 J -0.0543
G01 X 10.4070 Y 19.3373 Z -1.0000
G01 X 10.3875 Y 19.3452 Z -1.0000
G01 X 10.3875 Y 19.3452 Z -1.0000
G00 Z 5.0000

(End cutting path id: path223)


(Start cutting path id: path223)
(Change tool to Default tool)

G00 Z 5.0000
G00 X 10.4279 Y 19.7100

G01 Z -1.0000 F 100.0000(Penetrate)
G01 X 10.4476 Y 19.7134 Z -1.0000 F 3500.0000
G01 X 10.4583 Y 19.7087 Z -1.0000
G01 X 10.4573 Y 19.7038 Z -1.0000
G01 X 10.4375 Y 19.7004 Z -1.0000
G01 X 10.4269 Y 19.7050 Z -1.0000
G01 X 10.4279 Y 19.7100 Z -1.0000
G01 X 10.4279 Y 19.7100 Z -1.0000
G00 Z 5.0000

(End cutting path id: path223)


(Start cutting path id: path223)
(Change tool to Default tool)

G00 Z 5.0000
G00 X 10.5420 Y 19.7945

G01 Z -1.0000 F 100.0000(Penetrate)
G01 X 10.5374 Y 19.8057 Z -1.0000 F 3500.0000
G01 X 10.5262 Y 19.8104 Z -1.0000
G01 X 10.5149 Y 19.8057 Z -1.0000
G01 X 10.5103 Y 19.7945 Z -1.0000
G01 X 10.5149 Y 19.7833 Z -1.0000
G01 X 10.5262 Y 19.7786 Z -1.0000
G01 X 10.5374 Y 19.7833 Z -1.0000
G01 X 10.5420 Y 19.7945 Z -1.0000
G01 X 10.5420 Y 19.7945 Z -1.0000
G00 Z 5.0000

(End cutting path id: path223)


(Start cutting path id: path223)
(Change tool to Default tool)

G00 Z 5.0000
G00 X 10.6055 Y 19.7469

G01 Z -1.0000 F 100.0000(Penetrate)
G01 X 10.6134 Y 19.7708 Z -1.0000 F 3500.0000
G01 X 10.6288 Y 19.7786 Z -1.0000
G01 X 10.6416 Y 19.7859 Z -1.0000
G01 X 10.6430 Y 19.8024 Z -1.0000
G01 X 10.6220 Y 19.8142 Z -1.0000
G01 X 10.6009 Y 19.7945 Z -1.0000
G01 X 10.5859 Y 19.7714 Z -1.0000
G01 X 10.5611 Y 19.7628 Z -1.0000
G03 X 10.5345 Y 19.7556 Z -1.0000 I -0.0000 J -0.0526
G01 X 10.5204 Y 19.7389 Z -1.0000
G01 X 10.5252 Y 19.7247 Z -1.0000
G03 X 10.5584 Y 19.7151 Z -1.0000 I 0.0332 J 0.0532
G03 X 10.5945 Y 19.7262 Z -1.0000 I -0.0000 J 0.0645
G01 X 10.6055 Y 19.7469 Z -1.0000
G01 X 10.6055 Y 19.7469 Z -1.0000
G00 Z 5.0000

(End cutting path id: path223)


(Start cutting path id: path223)
(Change tool to Default tool)

G00 Z 5.0000
G00 X 10.7110 Y 19.7549

G01 Z -1.0000 F 100.0000(Penetrate)
G02 X 10.7373 Y 19.7727 Z -1.0000 I 0.0596 J -0.0596 F 3500.0000
G02 X 10.7663 Y 19.7787 Z -1.0000 I 0.0291 J -0.0676
G01 X 10.7869 Y 19.7848 Z -1.0000
G01 X 10.7888 Y 19.7933 Z -1.0000
G01 X 10.7896 Y 19.8041 Z -1.0000
G01 X 10.8077 Y 19.8158 Z -1.0000
G01 X 10.7909 Y 19.8200 Z -1.0000
G03 X 10.7501 Y 19.8096 Z -1.0000 I 0.0101 J -0.1240
G01 X 10.7316 Y 19.7936 Z -1.0000
G01 X 10.7217 Y 19.7867 Z -1.0000
G01 X 10.7169 Y 19.7906 Z -1.0000
G01 X 10.7104 Y 19.8041 Z -1.0000
G01 X 10.6928 Y 19.8104 Z -1.0000
G01 X 10.6760 Y 19.8034 Z -1.0000
G01 X 10.6690 Y 19.7866 Z -1.0000
G01 X 10.6635 Y 19.7683 Z -1.0000
G01 X 10.6532 Y 19.7628 Z -1.0000
G01 X 10.6419 Y 19.7581 Z -1.0000
G01 X 10.6373 Y 19.7469 Z -1.0000
G01 X 10.6572 Y 19.7291 Z -1.0000
G03 X 10.7110 Y 19.7548 Z -1.0000 I -0.0096 J 0.0893
G01 X 10.7110 Y 19.7549 Z -1.0000
G00 Z 5.0000

(End cutting path id: path223)


(Start cutting path id: path223)
(Change tool to Default tool)

G00 Z 5.0000
G00 X 10.9676 Y 19.7418

G01 Z -1.0000 F 100.0000(Penetrate)
G01 X 10.9873 Y 19.7452 Z -1.0000 F 3500.0000
G01 X 10.9980 Y 19.7405 Z -1.0000
G01 X 10.9970 Y 19.7356 Z -1.0000
G01 X 10.9772 Y 19.7322 Z -1.0000
G01 X 10.9666 Y 19.7368 Z -1.0000
G01 X 10.9676 Y 19.7418 Z -1.0000
G01 X 10.9676 Y 19.7418 Z -1.0000
G00 Z 5.0000

(End cutting path id: path223)


(Start cutting path id: path223)
(Change tool to Default tool)

G00 Z 5.0000
G00 X 11.1255 Y 19.7580

G01 Z -1.0000 F 100.0000(Penetrate)
G02 X 11.1613 Y 19.7614 Z -1.0000 I 0.0351 J -0.1821 F 3500.0000
G02 X 11.1890 Y 19.7577 Z -1.0000 I -0.0004 J -0.1099
G01 X 11.1531 Y 19.7508 Z -1.0000
G01 X 11.1255 Y 19.7580 Z -1.0000
G01 X 11.1255 Y 19.7580 Z -1.0000
G00 Z 5.0000

(End cutting path id: path223)


(Start cutting path id: path223)
(Change tool to Default tool)

G00 Z 5.0000
G00 X 11.1294 Y 19.8491

G01 Z -1.0000 F 100.0000(Penetrate)
G01 X 11.1271 Y 19.8548 Z -1.0000 F 3500.0000
G03 X 11.1135 Y 19.8659 Z -1.0000 I -0.0500 J -0.0472
G01 X 11.1027 Y 19.8667 Z -1.0000
G01 X 11.0976 Y 19.8589 Z -1.0000
G01 X 11.1024 Y 19.8468 Z -1.0000
G01 X 11.1135 Y 19.8421 Z -1.0000
G01 X 11.1265 Y 19.8448 Z -1.0000
G01 X 11.1294 Y 19.8491 Z -1.0000
G01 X 11.1294 Y 19.8491 Z -1.0000
G00 Z 5.0000

