%
(Header)
(Generated by gcodetools from Inkscape.)
(Using default header. To add your own header create file "header" in the output dir.)
M3
(Header end.)
G21 (All units in mm)

(Start cutting path id: path2)
(Change tool to Default tool)

G00 Z 5.0000
G00 X 30.3036 Y 1.4030

G01 Z -1.0000 F 100.0000(Penetrate)
G02 X 29.6105 Y 1.6744 Z -1.0000 I 0.7086 J 2.8302 F 3500.0000
G02 X 29.2487 Y 1.9809 Z -1.0000 I 0.5690 J 1.0387
G02 X 29.1503 Y 2.7581 Z -1.0000 I 0.5981 J 0.4705
G02 X 29.9260 Y 3.5191 Z -1.0000 I 1.3400 J -0.5901
G01 X 30.1717 Y 3.6217 Z -1.0000
G01 X 30.1371 Y 13.1469 Z -1.0000
G03 X 30.0813 Y 22.6631 Z -1.0000 I -2148.4419 J -7.8206
G03 X 30.0599 Y 22.7133 Z -1.0000 I -0.0709 J -0.0006
G03 X 30.0107 Y 22.7435 Z -1.0000 I -0.0922 J -0.0949
G03 X 29.1287 Y 23.0341 Z -1.0000 I -11.1821 J -32.4562
G01 X 28.2400 Y 23.3136 Z -1.0000
G01 X 28.1696 Y 23.6670 Z -1.0000
G02 X 27.9309 Y 25.6833 Z -1.0000 I 12.6138 J 2.5152
G02 X 28.0353 Y 27.1270 Z -1.0000 I 6.5323 J 0.2536
G01 X 28.1735 Y 27.8739 Z -1.0000
G01 X 27.8941 Y 29.0485 Z -1.0000
G02 X 27.3539 Y 31.6091 Z -1.0000 I 49.6922 J 11.8215
G02 X 27.2868 Y 32.3425 Z -1.0000 I 3.9779 J 0.7334
G02 X 27.4469 Y 33.1274 Z -1.0000 I 2.0048 J 0.0000
G02 X 27.7192 Y 33.3585 Z -1.0000 I 0.3666 J -0.1560
G03 X 28.3080 Y 33.6534 Z -1.0000 I -0.3490 J 1.4320
G03 X 28.6215 Y 34.1027 Z -1.0000 I -0.6490 J 0.7870
G02 X 29.5708 Y 35.4385 Z -1.0000 I 2.7944 J -0.9805
G02 X 30.7103 Y 35.7664 Z -1.0000 I 0.9658 J -1.2126
G02 X 31.9629 Y 35.2288 Z -1.0000 I -0.2642 J -2.3436
G02 X 32.9155 Y 33.9143 Z -1.0000 I -2.1513 J -2.5614
G03 X 33.1015 Y 33.4607 Z -1.0000 I 31.4939 J 12.6513
G03 X 33.1459 Y 33.3639 Z -1.0000 I 1.4770 J 0.6182
G03 X 33.2174 Y 33.2987 Z -1.0000 I 0.1202 J 0.0600
G03 X 33.6914 Y 33.1515 Z -1.0000 I 1.2833 J 3.2968
G02 X 34.1666 Y 33.0003 Z -1.0000 I -0.7389 J -3.1446
G02 X 34.2776 Y 32.9137 Z -1.0000 I -0.0967 J -0.2384
G02 X 34.3286 Y 32.7808 Z -1.0000 I -0.2194 J -0.1604
G02 X 34.3659 Y 32.0441 Z -1.0000 I -7.2532 J -0.7367
G02 X 34.2970 Y 31.3046 Z -1.0000 I -3.9980 J 0.0000
G02 X 33.9211 Y 29.6804 Z -1.0000 I -19.7950 J 3.7258
G02 X 33.4587 Y 28.0746 Z -1.0000 I -70.0345 J 19.2947
G02 X 33.4126 Y 27.9879 Z -1.0000 I -0.2405 J 0.0722
G03 X 33.3902 Y 27.9218 Z -1.0000 I 0.0768 J -0.0628
G01 X 33.4160 Y 27.8868 Z -1.0000
G02 X 33.4562 Y 27.8411 Z -1.0000 I -0.0205 J -0.0585
G02 X 33.6554 Y 26.7509 Z -1.0000 I -20.1055 J -4.2372
G01 X 33.8278 Y 25.6385 Z -1.0000
G01 X 33.6081 Y 24.5598 Z -1.0000
G01 X 33.3884 Y 23.4810 Z -1.0000
G01 X 32.4630 Y 23.1823 Z -1.0000
G01 X 31.5376 Y 22.8836 Z -1.0000
G01 X 31.5187 Y 19.1708 Z -1.0000
G03 X 31.5023 Y 15.4580 Z -1.0000 I 2844.5170 J -14.4728
G03 X 31.4821 Y 9.4783 Z -1.0000 I 7362.1348 J -27.8517
G01 X 31.4643 Y 3.4986 Z -1.0000
G01 X 31.7038 Y 3.3849 Z -1.0000
G02 X 32.3224 Y 2.8470 Z -1.0000 I -0.6524 J -1.3749
G02 X 32.5452 Y 2.1070 Z -1.0000 I -1.1293 J -0.7436
G02 X 32.4476 Y 1.8385 Z -1.0000 I -0.4149 J -0.0011
G02 X 32.0524 Y 1.5224 Z -1.0000 I -0.9944 J 0.8384
G02 X 31.3085 Y 1.3138 Z -1.0000 I -0.8729 J 1.6817
G02 X 30.3036 Y 1.4030 Z -1.0000 I -0.2201 J 3.2237
G01 X 30.3036 Y 1.4030 Z -1.0000
G00 Z 5.0000

(End cutting path id: path2)


(Start cutting path id: path2)
(Change tool to Default tool)

G00 Z 5.0000
G00 X 29.9162 Y 2.3449

G01 Z -1.0000 F 100.0000(Penetrate)
G03 X 29.9045 Y 2.4006 Z -1.0000 I -0.1380 J 0.0000 F 3500.0000
G01 X 29.8865 Y 2.4123 Z -1.0000
G01 X 29.8622 Y 2.4026 Z -1.0000
G03 X 29.8151 Y 2.3449 Z -1.0000 I 0.1970 J -0.2086
G01 X 29.8119 Y 2.2989 Z -1.0000
G01 X 29.8448 Y 2.2774 Z -1.0000
G03 X 29.8959 Y 2.2978 Z -1.0000 I 0.0000 J 0.0744
G03 X 29.9162 Y 2.3449 Z -1.0000 I -0.0445 J 0.0471
G01 X 29.9162 Y 2.3449 Z -1.0000
G00 Z 5.0000

(End cutting path id: path2)


(Start cutting path id: path2)
(Change tool to Default tool)

G00 Z 5.0000
G00 X 29.6465 Y 23.2148

G01 Z -1.0000 F 100.0000(Penetrate)
G03 X 29.5852 Y 23.3194 Z -1.0000 I -0.1198 J 0.0000 F 3500.0000
G03 X 29.0566 Y 23.5449 Z -1.0000 I -1.3154 J -2.3506
G03 X 28.9483 Y 23.5326 Z -1.0000 I -0.0400 J -0.1309
G03 X 28.9049 Y 23.4575 Z -1.0000 I 0.0433 J -0.0751
G03 X 28.9523 Y 23.3572 Z -1.0000 I 0.1297 J 0.0000
G03 X 29.1915 Y 23.2223 Z -1.0000 I 0.5044 J 0.6145
G03 X 29.5825 Y 23.1518 Z -1.0000 I 0.4114 J 1.1621
G03 X 29.6465 Y 23.2148 Z -1.0000 I 0.0010 J 0.0630
G01 X 29.6465 Y 23.2148 Z -1.0000
G00 Z 5.0000

(End cutting path id: path2)


(Start cutting path id: path2)
(Change tool to Default tool)

G00 Z 5.0000
G00 X 29.7920 Y 25.7338

G01 Z -1.0000 F 100.0000(Penetrate)
G03 X 29.6707 Y 26.0467 Z -1.0000 I -0.6261 J -0.0628 F 3500.0000
G03 X 29.5251 Y 26.0924 Z -1.0000 I -0.1044 J -0.0777
G01 X 29.4924 Y 26.0472 Z -1.0000
G03 X 29.5246 Y 25.9522 Z -1.0000 I 0.1546 J -0.0006
G01 X 29.5163 Y 25.9397 Z -1.0000
G02 X 29.4600 Y 25.9692 Z -1.0000 I 0.0364 J 0.1381
G02 X 29.3629 Y 26.1426 Z -1.0000 I 0.1860 J 0.2180
G02 X 29.4218 Y 26.2116 Z -1.0000 I 0.0589 J 0.0093
G03 X 29.4902 Y 26.2297 Z -1.0000 I -0.0000 J 0.1379
G01 X 29.4933 Y 26.2524 Z -1.0000
G01 X 29.4867 Y 26.2939 Z -1.0000
G02 X 29.5871 Y 26.4379 Z -1.0000 I 0.5577 J -0.2823
G01 X 29.7218 Y 26.5824 Z -1.0000
G01 X 29.5557 Y 26.7254 Z -1.0000
G03 X 28.9599 Y 26.8894 Z -1.0000 I -0.4712 J -0.5474
G03 X 28.4300 Y 26.5281 Z -1.0000 I 0.1342 J -0.7662
G03 X 28.3590 Y 26.2295 Z -1.0000 I 0.4240 J -0.2585
G03 X 28.4776 Y 25.9412 Z -1.0000 I 0.5103 J 0.0414
G03 X 28.6498 Y 25.8038 Z -1.0000 I 0.4285 J 0.3605
G01 X 28.7096 Y 25.8218 Z -1.0000
G02 X 28.9902 Y 25.9573 Z -1.0000 I 0.2371 J -0.1327
G02 X 29.3184 Y 25.7229 Z -1.0000 I -0.0729 J -0.4490
G03 X 29.3935 Y 25.6553 Z -1.0000 I 0.1314 J 0.0703
G01 X 29.4440 Y 25.6717 Z -1.0000
G02 X 29.5058 Y 25.7181 Z -1.0000 I 0.0900 J -0.0556
G02 X 29.5756 Y 25.7081 Z -1.0000 I 0.0235 J -0.0850
G01 X 29.5965 Y 25.6570 Z -1.0000
G02 X 29.5438 Y 25.5782 Z -1.0000 I -0.1344 J 0.0329
G01 X 29.5407 Y 25.5334 Z -1.0000
G03 X 29.6240 Y 25.5004 Z -1.0000 I 0.0814 J 0.0839
G03 X 29.7466 Y 25.5646 Z -1.0000 I -0.0026 J 0.1542
G03 X 29.7920 Y 25.7338 Z -1.0000 I -0.2009 J 0.1446
G01 X 29.7920 Y 25.7338 Z -1.0000
G00 Z 5.0000

(End cutting path id: path2)


(Start cutting path id: path2)
(Change tool to Default tool)

G00 Z 5.0000
G00 X 30.1062 Y 25.7059

G01 Z -1.0000 F 100.0000(Penetrate)
G03 X 29.9410 Y 25.8461 Z -1.0000 I -0.2316 J -0.1055 F 3500.0000
G03 X 29.8488 Y 25.7754 Z -1.0000 I -0.0191 J -0.0706
G03 X 29.8797 Y 25.7214 Z -1.0000 I 0.0627 J 0.0000
G03 X 29.9507 Y 25.7155 Z -1.0000 I 0.0416 J 0.0707
G01 X 30.0009 Y 25.7030 Z -1.0000
G02 X 30.0109 Y 25.6460 Z -1.0000 I -0.0425 J -0.0368
G03 X 30.0175 Y 25.5705 Z -1.0000 I 0.0807 J -0.0310
G03 X 30.0761 Y 25.5374 Z -1.0000 I 0.0586 J 0.0352
G01 X 30.1226 Y 25.5762 Z -1.0000
G03 X 30.1062 Y 25.7059 Z -1.0000 I -0.2162 J 0.0386
G01 X 30.1062 Y 25.7059 Z -1.0000
G00 Z 5.0000

(End cutting path id: path2)


(Start cutting path id: path2)
(Change tool to Default tool)

G00 Z 5.0000
G00 X 30.0387 Y 26.1409

G01 Z -1.0000 F 100.0000(Penetrate)
G01 X 30.0260 Y 26.1766 Z -1.0000 F 3500.0000
G01 X 29.9820 Y 26.1768 Z -1.0000
G01 X 29.9491 Y 26.1770 Z -1.0000
G01 X 29.9435 Y 26.2011 Z -1.0000
G03 X 29.9300 Y 26.3352 Z -1.0000 I -0.0942 J 0.0582
G03 X 29.8105 Y 26.3426 Z -1.0000 I -0.0637 J -0.0599
G03 X 29.7637 Y 26.2556 Z -1.0000 I 0.0842 J -0.1014
G03 X 29.7874 Y 26.1330 Z -1.0000 I 0.2097 J -0.0231
G03 X 29.9229 Y 26.0546 Z -1.0000 I 0.1309 J 0.0701
G03 X 30.0387 Y 26.1409 Z -1.0000 I -0.0040 J 0.1262
G01 X 30.0387 Y 26.1409 Z -1.0000
G00 Z 5.0000

(End cutting path id: path2)


(Start cutting path id: path2)
(Change tool to Default tool)

G00 Z 5.0000
G00 X 29.4443 Y 26.5487

G01 Z -1.0000 F 100.0000(Penetrate)
G02 X 29.4681 Y 26.5922 Z -1.0000 I 0.0518 J -0.0000 F 3500.0000
G02 X 29.5494 Y 26.6161 Z -1.0000 I 0.0813 J -0.1267
G02 X 29.6086 Y 26.5905 Z -1.0000 I 0.0000 J -0.0813
G01 X 29.6128 Y 26.5487 Z -1.0000
G02 X 29.5622 Y 26.4972 Z -1.0000 I -0.1385 J 0.0856
G02 X 29.5077 Y 26.4812 Z -1.0000 I -0.0545 J 0.0850
G02 X 29.4634 Y 26.5004 Z -1.0000 I 0.0000 J 0.0608
G02 X 29.4443 Y 26.5487 Z -1.0000 I 0.0513 J 0.0483
G01 X 29.4443 Y 26.5487 Z -1.0000
G00 Z 5.0000

(End cutting path id: path2)


(Start cutting path id: path2)
(Change tool to Default tool)

G00 Z 5.0000
G00 X 28.5004 Y 26.3440

G01 Z -1.0000 F 100.0000(Penetrate)
G02 X 28.5220 Y 26.3961 Z -1.0000 I 0.0737 J 0.0000 F 3500.0000
G02 X 28.6403 Y 26.4840 Z -1.0000 I 0.3557 J -0.3557
G01 X 28.6970 Y 26.4756 Z -1.0000
G01 X 28.7054 Y 26.4189 Z -1.0000
G02 X 28.5661 Y 26.2981 Z -1.0000 I -0.2280 J 0.1220
G01 X 28.5004 Y 26.3440 Z -1.0000
G01 X 28.5004 Y 26.3440 Z -1.0000
G00 Z 5.0000

(End cutting path id: path2)


(Start cutting path id: path2)
(Change tool to Default tool)

G00 Z 5.0000
G00 X 30.2931 Y 28.3184

G01 Z -1.0000 F 100.0000(Penetrate)
G03 X 30.2057 Y 29.0664 Z -1.0000 I -6.8903 J -0.4257 F 3500.0000
G03 X 30.1149 Y 29.3510 Z -1.0000 I -1.0707 J -0.1847
G02 X 30.0052 Y 29.6300 Z -1.0000 I 1.8825 J 0.9017
G02 X 29.9836 Y 29.7711 Z -1.0000 I 0.4514 J 0.1411
G03 X 29.9385 Y 29.8811 Z -1.0000 I -0.1567 J -0.0000
G03 X 29.7982 Y 29.9592 Z -1.0000 I -0.2037 J -0.2008
G02 X 29.6131 Y 30.0026 Z -1.0000 I 3.0406 J 13.3761
G02 X 29.1116 Y 30.1254 Z -1.0000 I 23.6399 J 97.7096
G03 X 28.5882 Y 30.1642 Z -1.0000 I -0.3758 J -1.5191
G03 X 28.4994 Y 30.0674 Z -1.0000 I 0.0093 J -0.0977
G01 X 28.4771 Y 30.0276 Z -1.0000
G01 X 28.4468 Y 30.0344 Z -1.0000
G01 X 28.4198 Y 30.0278 Z -1.0000
G03 X 28.3765 Y 29.1917 Z -1.0000 I 13.2637 J -1.1066
G03 X 28.3978 Y 28.2815 Z -1.0000 I 10.4186 J -0.2117
G03 X 28.4459 Y 28.1577 Z -1.0000 I 0.2212 J 0.0149
G03 X 28.5543 Y 28.0779 Z -1.0000 I 0.2040 J 0.1634
G03 X 29.2757 Y 27.8318 Z -1.0000 I 3.0611 J 7.7927
G02 X 30.0169 Y 27.6147 Z -1.0000 I -62.2466 J -213.8705
G02 X 30.0848 Y 27.5933 Z -1.0000 I -0.5335 J -1.8097
G03 X 30.2216 Y 27.6651 Z -1.0000 I 0.0341 J 0.1013
G03 X 30.2931 Y 28.3184 Z -1.0000 I -1.8593 J 0.5341
G01 X 30.2931 Y 28.3184 Z -1.0000
G00 Z 5.0000

(End cutting path id: path2)


(Start cutting path id: path2)
(Change tool to Default tool)

G00 Z 5.0000
G00 X 29.5791 Y 31.0995

G01 Z -1.0000 F 100.0000(Penetrate)
G03 X 29.5335 Y 31.9640 Z -1.0000 I -8.2086 J 0.0000 F 3500.0000
G03 X 29.4827 Y 32.0097 Z -1.0000 I -0.0507 J -0.0054
G03 X 29.4310 Y 31.9677 Z -1.0000 I 0.0000 J -0.0529
G03 X 29.4079 Y 31.6557 Z -1.0000 I 1.1405 J -0.2410
G02 X 29.3775 Y 30.8791 Z -1.0000 I -3.8794 J -0.2368
G02 X 29.2935 Y 30.8397 Z -1.0000 I -0.0549 J 0.0077
G03 X 29.2353 Y 30.8444 Z -1.0000 I -0.0337 J -0.0545
G03 X 29.1681 Y 30.7879 Z -1.0000 I 0.0554 J -0.1342
G01 X 29.1381 Y 30.7948 Z -1.0000
G02 X 29.1082 Y 31.3232 Z -1.0000 I 4.7933 J 0.5363
G02 X 29.1689 Y 31.8671 Z -1.0000 I 2.4312 J 0.0040
G02 X 29.2416 Y 31.9087 Z -1.0000 I 0.0555 J -0.0126
G03 X 29.3225 Y 31.9165 Z -1.0000 I 0.0313 J 0.0987
G01 X 29.3392 Y 31.9619 Z -1.0000
G03 X 29.2352 Y 32.0641 Z -1.0000 I -0.1640 J -0.0629
G03 X 28.5489 Y 32.2492 Z -1.0000 I -1.4273 J -3.9266
G01 X 28.2940 Y 32.2951 Z -1.0000
G01 X 28.3129 Y 31.4349 Z -1.0000
G03 X 28.3767 Y 30.6026 Z -1.0000 I 7.6694 J 0.1688
G03 X 28.4330 Y 30.5227 Z -1.0000 I 0.1044 J 0.0137
G03 X 28.9963 Y 30.2958 Z -1.0000 I 1.5220 J 2.9665
G03 X 29.5286 Y 30.1938 Z -1.0000 I 0.7638 J 2.5440
G01 X 29.5545 Y 30.2162 Z -1.0000
G03 X 29.5791 Y 31.0995 Z -1.0000 I -15.8183 J 0.8833
G01 X 29.5791 Y 31.0995 Z -1.0000
G00 Z 5.0000

(End cutting path id: path2)


(Start cutting path id: path2)
(Change tool to Default tool)

G00 Z 5.0000
G00 X 28.0649 Y 32.2749

G01 Z -1.0000 F 100.0000(Penetrate)
G03 X 27.9116 Y 32.3606 Z -1.0000 I -0.1537 J -0.0950 F 3500.0000
G03 X 27.8262 Y 32.2754 Z -1.0000 I -0.0002 J -0.0852
G01 X 27.8470 Y 32.2412 Z -1.0000
G01 X 27.8890 Y 32.2428 Z -1.0000
G02 X 27.9442 Y 32.2496 Z -1.0000 I 0.0351 J -0.0567
G02 X 27.9968 Y 32.2085 Z -1.0000 I -0.0290 J -0.0915
G03 X 28.0453 Y 32.1643 Z -1.0000 I 0.1019 J 0.0630
G01 X 28.0757 Y 32.1693 Z -1.0000
G01 X 28.0885 Y 32.2054 Z -1.0000
G03 X 28.0649 Y 32.2749 Z -1.0000 I -0.1628 J -0.0165
G01 X 28.0649 Y 32.2749 Z -1.0000
G00 Z 5.0000

(End cutting path id: path2)


(Start cutting path id: path2)
(Change tool to Default tool)

G00 Z 5.0000
G00 X 29.4878 Y 33.8626

G01 Z -1.0000 F 100.0000(Penetrate)
G03 X 29.4310 Y 33.9213 Z -1.0000 I -0.0975 J -0.0374 F 3500.0000
G03 X 29.3457 Y 33.9228 Z -1.0000 I -0.0445 J -0.1049
G02 X 29.2693 Y 33.9226 Z -1.0000 I -0.0384 J 0.1001
G01 X 29.2420 Y 33.9621 Z -1.0000
G02 X 29.4154 Y 34.1031 Z -1.0000 I 0.1440 J 0.0000
G02 X 29.6341 Y 33.8806 Z -1.0000 I -0.0572 J -0.2749
G02 X 29.5803 Y 33.8070 Z -1.0000 I -0.0613 J -0.0116
G02 X 29.4878 Y 33.8626 Z -1.0000 I -0.0107 J 0.0870
G01 X 29.4878 Y 33.8626 Z -1.0000
G00 Z 5.0000

(End cutting path id: path2)


(Start cutting path id: path2)
(Change tool to Default tool)

G00 Z 5.0000
G00 X 29.4555 Y 34.8417

G01 Z -1.0000 F 100.0000(Penetrate)
G03 X 29.6736 Y 35.0239 Z -1.0000 I -1.2075 J 1.6669 F 3500.0000
G01 X 29.6657 Y 35.0436 Z -1.0000
G03 X 29.3349 Y 34.9077 Z -1.0000 I -0.0000 J -0.4707
G03 X 28.8811 Y 34.2682 Z -1.0000 I 1.5903 J -1.6095
G03 X 28.8877 Y 34.1815 Z -1.0000 I 0.0791 J -0.0375
G01 X 28.9380 Y 34.1844 Z -1.0000
G02 X 29.2129 Y 34.6086 Z -1.0000 I 2.4374 J -1.2783
G02 X 29.4555 Y 34.8417 Z -1.0000 I 0.9576 J -0.7539
G01 X 29.4555 Y 34.8417 Z -1.0000
G00 Z 5.0000

(End cutting path id: path2)


(Start cutting path id: path2)
(Change tool to Default tool)

G00 Z 5.0000
G00 X 30.3363 Y 35.5041

G01 Z -1.0000 F 100.0000(Penetrate)
G01 X 30.3157 Y 35.5525 Z -1.0000 F 3500.0000
G03 X 30.0511 Y 35.4992 Z -1.0000 I 0.0127 J -0.7466
G02 X 29.9499 Y 35.4590 Z -1.0000 I -11.8845 J 29.7073
G02 X 29.8488 Y 35.4191 Z -1.0000 I -11.8230 J 29.8476
G01 X 29.8510 Y 35.4055 Z -1.0000
G03 X 30.0115 Y 35.4113 Z -1.0000 I 0.0457 J 0.9557
G03 X 30.2659 Y 35.4627 Z -1.0000 I -0.1972 J 1.6324
G03 X 30.3363 Y 35.5041 Z -1.0000 I -0.0447 J 0.1564
G01 X 30.3363 Y 35.5041 Z -1.0000
G00 Z 5.0000

(End cutting path id: path2)


(Start cutting path id: path2)
(Change tool to Default tool)

G00 Z 5.0000
G00 X 30.9886 Y 35.3546

G01 Z -1.0000 F 100.0000(Penetrate)
G01 X 30.9210 Y 35.3631 Z -1.0000 F 3500.0000
G03 X 30.8993 Y 35.2896 Z -1.0000 I 0.0371 J -0.0509
G03 X 30.9552 Y 35.2194 Z -1.0000 I 0.1386 J 0.0532
G01 X 31.0053 Y 35.2185 Z -1.0000
G01 X 31.0274 Y 35.2646 Z -1.0000
G03 X 30.9886 Y 35.3546 Z -1.0000 I -0.1727 J -0.0212
G01 X 30.9886 Y 35.3546 Z -1.0000
G00 Z 5.0000

(End cutting path id: path2)


(Start cutting path id: path2)
(Change tool to Default tool)

G00 Z 5.0000
G00 X 31.9012 Y 34.9369

G01 Z -1.0000 F 100.0000(Penetrate)
G03 X 31.7724 Y 35.0077 Z -1.0000 I -0.3376 J -0.4617 F 3500.0000
G01 X 31.7386 Y 35.0007 Z -1.0000
G03 X 31.7466 Y 34.9134 Z -1.0000 I 0.0403 J -0.0403
G03 X 31.9686 Y 34.8423 Z -1.0000 I 0.2285 J 0.3319
G01 X 31.9776 Y 34.8596 Z -1.0000
G03 X 31.9013 Y 34.9369 Z -1.0000 I -0.2773 J -0.1973
G01 X 31.9012 Y 34.9369 Z -1.0000
G00 Z 5.0000

(End cutting path id: path2)


(Start cutting path id: path2)
(Change tool to Default tool)

G00 Z 5.0000
G00 X 32.5425 Y 34.3077

G01 Z -1.0000 F 100.0000(Penetrate)
G03 X 32.4618 Y 34.4113 Z -1.0000 I -0.3402 J -0.1821 F 3500.0000
G01 X 32.4294 Y 34.4105 Z -1.0000
G01 X 32.4202 Y 34.3713 Z -1.0000
G03 X 32.4768 Y 34.2699 Z -1.0000 I 0.3012 J 0.1016
G01 X 32.5290 Y 34.2605 Z -1.0000
G01 X 32.5425 Y 34.3077 Z -1.0000
G01 X 32.5425 Y 34.3077 Z -1.0000
G00 Z 5.0000

(End cutting path id: path2)


(Start cutting path id: path2)
(Change tool to Default tool)

G00 Z 5.0000
G00 X 31.6691 Y 33.9046

G01 Z -1.0000 F 100.0000(Penetrate)
G01 X 31.6427 Y 33.9408 Z -1.0000 F 3500.0000
G03 X 31.5630 Y 33.9386 Z -1.0000 I -0.0366 J -0.1146
G02 X 31.3516 Y 33.9963 Z -1.0000 I -0.0664 J 0.1730
G02 X 31.3304 Y 34.2314 Z -1.0000 I 0.1683 J 0.1337
G02 X 31.4147 Y 34.2843 Z -1.0000 I 0.0885 J -0.0474
G02 X 31.5292 Y 34.2396 Z -1.0000 I 0.0063 J -0.1528
G02 X 31.7568 Y 33.9054 Z -1.0000 I -0.7669 J -0.7669
G02 X 31.7074 Y 33.8300 Z -1.0000 I -0.0494 J -0.0215
G01 X 31.6837 Y 33.8445 Z -1.0000
G02 X 31.6691 Y 33.9047 Z -1.0000 I 0.1173 J 0.0601
G01 X 31.6691 Y 33.9046 Z -1.0000
G00 Z 5.0000

(End cutting path id: path2)


(Start cutting path id: path2)
(Change tool to Default tool)

G00 Z 5.0000
G00 X 31.7366 Y 33.4295

G01 Z -1.0000 F 100.0000(Penetrate)
G01 X 31.7580 Y 33.4624 Z -1.0000 F 3500.0000
G01 X 31.8040 Y 33.4592 Z -1.0000
G02 X 31.8617 Y 33.4121 Z -1.0000 I -0.1508 J -0.2440
G01 X 31.8714 Y 33.3878 Z -1.0000
G01 X 31.8597 Y 33.3698 Z -1.0000
G02 X 31.8040 Y 33.3581 Z -1.0000 I -0.0557 J 0.1263
G02 X 31.7569 Y 33.3784 Z -1.0000 I 0.0000 J 0.0648
G02 X 31.7366 Y 33.4295 Z -1.0000 I 0.0541 J 0.0511
G01 X 31.7366 Y 33.4295 Z -1.0000
G00 Z 5.0000

(End cutting path id: path2)


(Start cutting path id: path2)
(Change tool to Default tool)

G00 Z 5.0000
G00 X 31.8545 Y 33.1983

G01 Z -1.0000 F 100.0000(Penetrate)
G03 X 31.9780 Y 33.3659 Z -1.0000 I -0.0431 J 0.1610 F 3500.0000
G03 X 31.8240 Y 33.9685 Z -1.0000 I -1.4869 J -0.0589
G03 X 30.9443 Y 35.0161 Z -1.0000 I -2.6006 J -1.2906
G03 X 30.2769 Y 35.1071 Z -1.0000 I -0.4173 J -0.5669
G02 X 30.1071 Y 35.0577 Z -1.0000 I -0.3935 J 1.0351
G02 X 29.9688 Y 35.0436 Z -1.0000 I -0.1383 J 0.6706
G03 X 29.6270 Y 34.9246 Z -1.0000 I 0.0000 J -0.5503
G03 X 29.2672 Y 34.4878 Z -1.0000 I 0.8359 J -1.0551
G03 X 29.0986 Y 33.9627 Z -1.0000 I 1.4781 J -0.7643
G03 X 29.1616 Y 33.7610 Z -1.0000 I 0.2419 J -0.0351
G03 X 29.4386 Y 33.5554 Z -1.0000 I 0.6965 J 0.6489
G03 X 29.7075 Y 33.4929 Z -1.0000 I 0.2690 J 0.5477
G03 X 29.8243 Y 33.5843 Z -1.0000 I 0.0000 J 0.1203
G03 X 29.8493 Y 34.0660 Z -1.0000 I -1.2353 J 0.3055
G02 X 29.8259 Y 34.3351 Z -1.0000 I 2.5522 J 0.3567
G02 X 29.8363 Y 34.4470 Z -1.0000 I 0.4456 J 0.0152
G02 X 29.9709 Y 34.5810 Z -1.0000 I 0.1721 J -0.0382
G02 X 30.3269 Y 34.5539 Z -1.0000 I 0.1326 J -0.6086
G03 X 30.4928 Y 34.5077 Z -1.0000 I 0.3237 J 0.8427
G03 X 30.7773 Y 34.4739 Z -1.0000 I 0.4363 J 2.4582
G02 X 31.0597 Y 34.4441 Z -1.0000 I -0.1950 J -3.2011
G02 X 31.0956 Y 34.4260 Z -1.0000 I -0.0096 J -0.0636
G02 X 31.1121 Y 34.3897 Z -1.0000 I -0.0402 J -0.0402
G02 X 31.1362 Y 33.8369 Z -1.0000 I -10.9318 J -0.7521
G03 X 31.2152 Y 33.3629 Z -1.0000 I 1.6401 J 0.0298
G03 X 31.3066 Y 33.3087 Z -1.0000 I 0.0764 J 0.0246
G02 X 31.4324 Y 33.2977 Z -1.0000 I 0.0434 J -0.2270
G02 X 31.4669 Y 33.2476 Z -1.0000 I -0.0191 J -0.0501
G03 X 31.5297 Y 33.1763 Z -1.0000 I 0.0719 J 0.0000
G03 X 31.8546 Y 33.1983 Z -1.0000 I 0.1064 J 0.8371
G01 X 31.8545 Y 33.1983 Z -1.0000
G00 Z 5.0000

(End cutting path id: path2)


(Start cutting path id: path2)
(Change tool to Default tool)

G00 Z 5.0000
G00 X 31.3320 Y 33.5603

G01 Z -1.0000 F 100.0000(Penetrate)
G02 X 31.3524 Y 33.6074 Z -1.0000 I 0.0648 J -0.0000 F 3500.0000
G02 X 31.4034 Y 33.6278 Z -1.0000 I 0.0511 J -0.0541
G01 X 31.4364 Y 33.6063 Z -1.0000
G01 X 31.4332 Y 33.5603 Z -1.0000
G02 X 31.3861 Y 33.5026 Z -1.0000 I -0.2440 J 0.1508
G01 X 31.3618 Y 33.4929 Z -1.0000
G01 X 31.3438 Y 33.5046 Z -1.0000
G02 X 31.3320 Y 33.5603 Z -1.0000 I 0.1263 J 0.0557
G01 X 31.3320 Y 33.5603 Z -1.0000
G00 Z 5.0000

(End cutting path id: path2)


(Start cutting path id: path2)
(Change tool to Default tool)

G00 Z 5.0000
G00 X 30.9275 Y 33.2154

G01 Z -1.0000 F 100.0000(Penetrate)
G01 X 30.9047 Y 33.2572 Z -1.0000 F 3500.0000
G03 X 30.7758 Y 33.3131 Z -1.0000 I -0.2348 J -0.3642
G01 X 30.7423 Y 33.2951 Z -1.0000
G01 X 30.7550 Y 33.2536 Z -1.0000
G03 X 30.8951 Y 33.1894 Z -1.0000 I 0.2194 J 0.2937
G01 X 30.9275 Y 33.2154 Z -1.0000
G01 X 30.9275 Y 33.2154 Z -1.0000
G00 Z 5.0000

(End cutting path id: path2)


(Start cutting path id: path2)
(Change tool to Default tool)

G00 Z 5.0000
G00 X 30.3545 Y 33.3581

G01 Z -1.0000 F 100.0000(Penetrate)
G03 X 30.2998 Y 33.4013 Z -1.0000 I -0.0867 J -0.0536 F 3500.0000
G03 X 30.1651 Y 33.4208 Z -1.0000 I -0.1222 J -0.3693
G01 X 30.1334 Y 33.3941 Z -1.0000
G01 X 30.1522 Y 33.3581 Z -1.0000
G03 X 30.3336 Y 33.3207 Z -1.0000 I 0.1814 J 0.4223
G01 X 30.3544 Y 33.3581 Z -1.0000
G01 X 30.3545 Y 33.3581 Z -1.0000
G00 Z 5.0000

(End cutting path id: path2)



(Footer)
M5
G00 X0.0000 Y0.0000
M2
(Using default footer. To add your own footer create file "footer" in the output dir.)
(end)
%