%
(Header)
(Generated by gcodetools from Inkscape.)
(Using default header. To add your own header create file "header" in the output dir.)
M3
(Header end.)
G21 (All units in mm)

(Start cutting path id: path632)
(Change tool to Default tool)

G00 Z 5.0000
G00 X 6.1787 Y 0.0497

G01 Z -1.0000 F 100.0000(Penetrate)
G01 X 6.2064 Y 0.0616 Z -1.0000 F 3500.0000
G03 X 6.2264 Y 0.0929 Z -1.0000 I -0.0475 J 0.0525
G03 X 6.2374 Y 0.1335 Z -1.0000 I -0.4801 J 0.1514
G03 X 6.2392 Y 0.1493 Z -1.0000 I -0.0700 J 0.0158
G01 X 6.2415 Y 0.1640 Z -1.0000
G01 X 6.2457 Y 0.1694 Z -1.0000
G01 X 6.2504 Y 0.1749 Z -1.0000
G03 X 6.2617 Y 0.2099 Z -1.0000 I -0.2784 J 0.1093
G02 X 6.2719 Y 0.2461 Z -1.0000 I 0.7580 J -0.1943
G02 X 6.2811 Y 0.2731 Z -1.0000 I 0.4295 J -0.1324
G03 X 6.2900 Y 0.3002 Z -1.0000 I -0.2879 J 0.1092
G03 X 6.3042 Y 0.3566 Z -1.0000 I -1.2350 J 0.3415
G02 X 6.3185 Y 0.4129 Z -1.0000 I 1.1758 J -0.2683
G02 X 6.3234 Y 0.4253 Z -1.0000 I 0.0611 J -0.0171
G03 X 6.3397 Y 0.4591 Z -1.0000 I -0.4725 J 0.2476
G03 X 6.3687 Y 0.5287 Z -1.0000 I -1.9816 J 0.8671
G02 X 6.3748 Y 0.5440 Z -1.0000 I 2.9309 J -1.1619
G02 X 6.3954 Y 0.5951 Z -1.0000 I 35.0109 J -14.0909
G03 X 6.4133 Y 0.6468 Z -1.0000 I -0.5071 J 0.2050
G03 X 6.4199 Y 0.6790 Z -1.0000 I -0.1891 J 0.0552
G02 X 6.4262 Y 0.7112 Z -1.0000 I 0.2100 J -0.0247
G02 X 6.4379 Y 0.7434 Z -1.0000 I 0.2203 J -0.0616
G03 X 6.4509 Y 0.7753 Z -1.0000 I -0.4415 J 0.1983
G03 X 6.4686 Y 0.8273 Z -1.0000 I -1.1537 J 0.4224
G02 X 6.4853 Y 0.8798 Z -1.0000 I 12.0425 J -3.8055
G02 X 6.5072 Y 0.9476 Z -1.0000 I 22.1576 J -7.1083
G03 X 6.5276 Y 1.0156 Z -1.0000 I -1.5304 J 0.4962
G01 X 6.5292 Y 1.0272 Z -1.0000
G02 X 6.5303 Y 1.0388 Z -1.0000 I 0.0583 J 0.0000
G02 X 6.5364 Y 1.0624 Z -1.0000 I 0.2462 J -0.0502
G03 X 6.5572 Y 1.1418 Z -1.0000 I -0.9758 J 0.2990
G03 X 6.5642 Y 1.1889 Z -1.0000 I -0.3330 J 0.0734
G02 X 6.5663 Y 1.2001 Z -1.0000 I 0.0535 J -0.0041
G02 X 6.5744 Y 1.2232 Z -1.0000 I 0.2402 J -0.0716
G03 X 6.5826 Y 1.2465 Z -1.0000 I -0.2307 J 0.0942
G03 X 6.5948 Y 1.2919 Z -1.0000 I -0.8714 J 0.2587
G02 X 6.6321 Y 1.4310 Z -1.0000 I 2.8534 J -0.6889
G02 X 6.6509 Y 1.4827 Z -1.0000 I 0.4111 J -0.1209
G03 X 6.6669 Y 1.5254 Z -1.0000 I -0.3674 J 0.1616
G03 X 6.6864 Y 1.5972 Z -1.0000 I -1.0189 J 0.3161
G02 X 6.6920 Y 1.6200 Z -1.0000 I 1.3906 J -0.3269
G02 X 6.6942 Y 1.6277 Z -1.0000 I 0.1597 J -0.0403
G03 X 6.6963 Y 1.6354 Z -1.0000 I -0.1861 J 0.0567
G03 X 6.7037 Y 1.6643 Z -1.0000 I -2.5907 J 0.6748
G02 X 6.7126 Y 1.6927 Z -1.0000 I 0.2301 J -0.0572
G02 X 6.7302 Y 1.7330 Z -1.0000 I 0.4879 J -0.1887
G03 X 6.7468 Y 1.7737 Z -1.0000 I -0.2989 J 0.1457
G03 X 6.7625 Y 1.8300 Z -1.0000 I -0.5587 J 0.1859
G02 X 6.7852 Y 1.9015 Z -1.0000 I 0.4303 J -0.0971
G02 X 6.8388 Y 2.0143 Z -1.0000 I 1.1281 J -0.4668
G03 X 6.8475 Y 2.0351 Z -1.0000 I -0.1002 J 0.0541
G03 X 6.8497 Y 2.0501 Z -1.0000 I -0.0491 J 0.0150
G01 X 6.8523 Y 2.0642 Z -1.0000
G01 X 6.8573 Y 2.0704 Z -1.0000
G01 X 6.8620 Y 2.0768 Z -1.0000
G03 X 6.8650 Y 2.1011 Z -1.0000 I -0.0979 J 0.0243
G02 X 6.8701 Y 2.1252 Z -1.0000 I 0.0589 J -0.0000
G02 X 6.8887 Y 2.1541 Z -1.0000 I 0.1049 J -0.0469
G01 X 6.9068 Y 2.1810 Z -1.0000
G01 X 6.9105 Y 2.1922 Z -1.0000
G01 X 6.9162 Y 2.2035 Z -1.0000
G01 X 6.9151 Y 2.2107 Z -1.0000
G01 X 6.9141 Y 2.2173 Z -1.0000
G01 X 6.9183 Y 2.2229 Z -1.0000
G01 X 6.9234 Y 2.2229 Z -1.0000
G01 X 6.9263 Y 2.2177 Z -1.0000
G01 X 6.9343 Y 2.2211 Z -1.0000
G01 X 6.9391 Y 2.2345 Z -1.0000
G01 X 6.9377 Y 2.2417 Z -1.0000
G01 X 6.9376 Y 2.2476 Z -1.0000
G01 X 6.9455 Y 2.2556 Z -1.0000
G01 X 6.9539 Y 2.2649 Z -1.0000
G03 X 6.9620 Y 2.2949 Z -1.0000 I -0.1081 J 0.0455
G02 X 6.9699 Y 2.3246 Z -1.0000 I 0.1221 J -0.0164
G01 X 6.9767 Y 2.3313 Z -1.0000
G01 X 6.9840 Y 2.3374 Z -1.0000
G01 X 6.9871 Y 2.3480 Z -1.0000
G01 X 6.9894 Y 2.3600 Z -1.0000
G02 X 6.9986 Y 2.3772 Z -1.0000 I 0.0767 J -0.0302
G03 X 7.0076 Y 2.3945 Z -1.0000 I -0.0617 J 0.0433
G03 X 7.0125 Y 2.4151 Z -1.0000 I -0.0837 J 0.0308
G02 X 7.0384 Y 2.5023 Z -1.0000 I 0.2599 J -0.0297
G02 X 7.0747 Y 2.5396 Z -1.0000 I 0.0768 J -0.0384
G03 X 7.0920 Y 2.5511 Z -1.0000 I -0.0545 J 0.1011
G01 X 7.0939 Y 2.5551 Z -1.0000
G01 X 7.0958 Y 2.5606 Z -1.0000
G02 X 7.1322 Y 2.6065 Z -1.0000 I 0.7691 J -0.5742
G01 X 7.1353 Y 2.6160 Z -1.0000
G01 X 7.1430 Y 2.6353 Z -1.0000
G03 X 7.1520 Y 2.6546 Z -1.0000 I -0.0625 J 0.0409
G01 X 7.1510 Y 2.6620 Z -1.0000
G01 X 7.1516 Y 2.6665 Z -1.0000
G01 X 7.1584 Y 2.6694 Z -1.0000
G01 X 7.1673 Y 2.6770 Z -1.0000
G01 X 7.1607 Y 2.6849 Z -1.0000
G01 X 7.1652 Y 2.6957 Z -1.0000
G03 X 7.1981 Y 2.7336 Z -1.0000 I -0.0741 J 0.0977
G03 X 7.2084 Y 2.7731 Z -1.0000 I -0.0706 J 0.0395
G01 X 7.2121 Y 2.7824 Z -1.0000
G01 X 7.2239 Y 2.7893 Z -1.0000
G01 X 7.2336 Y 2.7966 Z -1.0000
G01 X 7.2348 Y 2.8077 Z -1.0000
G01 X 7.2356 Y 2.8181 Z -1.0000
G01 X 7.2418 Y 2.8220 Z -1.0000
G03 X 7.2802 Y 2.8375 Z -1.0000 I -0.0000 J 0.0552
G01 X 7.2869 Y 2.8655 Z -1.0000
G01 X 7.2865 Y 2.8743 Z -1.0000
G02 X 7.2934 Y 2.8922 Z -1.0000 I 0.0710 J -0.0173
G03 X 7.3021 Y 2.9101 Z -1.0000 I -0.1777 J 0.0977
G01 X 7.3042 Y 2.9174 Z -1.0000
G03 X 7.3052 Y 2.9251 Z -1.0000 I -0.6290 J 0.0905
G03 X 7.3065 Y 2.9346 Z -1.0000 I -1.0376 J 0.1364
G01 X 7.3102 Y 2.9411 Z -1.0000
G01 X 7.3191 Y 2.9441 Z -1.0000
G01 X 7.3267 Y 2.9479 Z -1.0000
G01 X 7.3305 Y 2.9594 Z -1.0000
G02 X 7.3426 Y 2.9940 Z -1.0000 I 0.0556 J 0.0000
G01 X 7.3668 Y 3.0048 Z -1.0000
G01 X 7.3705 Y 3.0070 Z -1.0000
G01 X 7.3749 Y 3.0201 Z -1.0000
G01 X 7.3797 Y 3.0330 Z -1.0000
G01 X 7.3845 Y 3.0357 Z -1.0000
G01 X 7.3890 Y 3.0376 Z -1.0000
G01 X 7.3899 Y 3.0414 Z -1.0000
G01 X 7.3952 Y 3.0733 Z -1.0000
G01 X 7.4148 Y 3.0774 Z -1.0000
G01 X 7.4193 Y 3.0779 Z -1.0000
G01 X 7.4221 Y 3.0844 Z -1.0000
G01 X 7.4251 Y 3.0943 Z -1.0000
G01 X 7.4362 Y 3.1058 Z -1.0000
G01 X 7.4467 Y 3.1181 Z -1.0000
G03 X 7.4558 Y 3.1454 Z -1.0000 I -0.0939 J 0.0465
G02 X 7.4638 Y 3.1741 Z -1.0000 I 0.1675 J -0.0312
G02 X 7.4745 Y 3.1951 Z -1.0000 I 0.0990 J -0.0372
G03 X 7.4992 Y 3.2359 Z -1.0000 I -0.5342 J 0.3514
G03 X 7.5288 Y 3.2929 Z -1.0000 I -1.0153 J 0.5642
G03 X 7.5505 Y 3.3406 Z -1.0000 I -0.8951 J 0.4345
G01 X 7.5518 Y 3.3474 Z -1.0000
G01 X 7.5541 Y 3.3530 Z -1.0000
G01 X 7.5633 Y 3.3590 Z -1.0000
G01 X 7.5717 Y 3.3655 Z -1.0000
G01 X 7.5747 Y 3.3750 Z -1.0000
G01 X 7.5781 Y 3.3833 Z -1.0000
G01 X 7.5862 Y 3.3867 Z -1.0000
G01 X 7.5950 Y 3.3894 Z -1.0000
G01 X 7.5976 Y 3.3943 Z -1.0000
G01 X 7.6002 Y 3.3994 Z -1.0000
G01 X 7.6077 Y 3.4019 Z -1.0000
G01 X 7.6307 Y 3.4142 Z -1.0000
G03 X 7.6628 Y 3.4842 Z -1.0000 I -0.2009 J 0.1345
G02 X 7.6799 Y 3.5299 Z -1.0000 I 0.2674 J -0.0741
G02 X 7.6960 Y 3.5535 Z -1.0000 I 0.0860 J -0.0411
G02 X 7.8187 Y 3.6576 Z -1.0000 I 0.4949 J -0.4588
G02 X 7.9217 Y 3.7027 Z -1.0000 I 0.1818 J -0.2750
G03 X 7.9822 Y 3.7249 Z -1.0000 I -0.0702 J 0.2851
G03 X 8.0632 Y 3.7731 Z -1.0000 I -0.2789 J 0.5609
G02 X 8.0985 Y 3.7955 Z -1.0000 I 0.2538 J -0.3615
G02 X 8.1268 Y 3.8093 Z -1.0000 I 0.1254 J -0.2204
G03 X 8.1548 Y 3.8238 Z -1.0000 I -0.0716 J 0.1723
G03 X 8.1948 Y 3.8523 Z -1.0000 I -0.2391 J 0.3790
G02 X 8.2348 Y 3.8802 Z -1.0000 I 0.2395 J -0.3008
G02 X 8.2533 Y 3.8877 Z -1.0000 I 0.0331 J -0.0546
G03 X 8.2723 Y 3.8941 Z -1.0000 I -0.0267 J 0.1118
G03 X 8.2845 Y 3.9013 Z -1.0000 I -0.0230 J 0.0531
G02 X 8.2965 Y 3.9093 Z -1.0000 I 0.0615 J -0.0791
G02 X 8.3188 Y 3.9209 Z -1.0000 I 0.1604 J -0.2820
G03 X 8.3406 Y 3.9333 Z -1.0000 I -0.0676 J 0.1442
G03 X 8.3627 Y 3.9506 Z -1.0000 I -0.1134 J 0.1672
G01 X 8.3837 Y 3.9649 Z -1.0000
G01 X 8.4051 Y 3.9806 Z -1.0000
G02 X 8.4562 Y 4.0239 Z -1.0000 I 0.3991 J -0.4193
G01 X 8.4678 Y 4.0277 Z -1.0000
G01 X 8.4732 Y 4.0298 Z -1.0000
G01 X 8.4753 Y 4.0344 Z -1.0000
G01 X 8.4779 Y 4.0394 Z -1.0000
G02 X 8.4982 Y 4.0506 Z -1.0000 I 0.0604 J -0.0856
G03 X 8.5190 Y 4.0615 Z -1.0000 I -0.0505 J 0.1223
G01 X 8.5211 Y 4.0653 Z -1.0000
G01 X 8.5232 Y 4.0691 Z -1.0000
G02 X 8.5688 Y 4.0955 Z -1.0000 I 0.3462 J -0.5455
G03 X 8.6163 Y 4.1209 Z -1.0000 I -1.7700 J 3.3674
G03 X 8.6432 Y 4.1360 Z -1.0000 I -0.5925 J 1.0895
G02 X 8.6700 Y 4.1511 Z -1.0000 I 0.7751 J -1.3397
G02 X 8.7004 Y 4.1676 Z -1.0000 I 1.1252 J -2.0373
G03 X 8.7302 Y 4.1851 Z -1.0000 I -0.2115 J 0.3945
G03 X 8.7588 Y 4.2050 Z -1.0000 I -0.2333 J 0.3646
G02 X 8.7872 Y 4.2242 Z -1.0000 I 0.1798 J -0.2365
G01 X 8.7945 Y 4.2262 Z -1.0000
G01 X 8.8016 Y 4.2281 Z -1.0000
G03 X 8.8142 Y 4.2380 Z -1.0000 I -0.0333 J 0.0556
G02 X 8.8419 Y 4.2591 Z -1.0000 I 0.0925 J -0.0925
G02 X 8.9485 Y 4.3145 Z -1.0000 I 0.7675 J -1.3466
G03 X 9.0805 Y 4.3786 Z -1.0000 I -2.8465 J 6.0359
G03 X 9.2338 Y 4.4568 Z -1.0000 I -4.0794 J 8.1792
G02 X 9.2887 Y 4.4830 Z -1.0000 I 0.3856 J -0.7378
G01 X 9.2998 Y 4.4854 Z -1.0000
G01 X 9.3105 Y 4.4885 Z -1.0000
G03 X 9.3380 Y 4.5083 Z -1.0000 I -0.1030 J 0.1723
G02 X 9.3650 Y 4.5293 Z -1.0000 I 0.2421 J -0.2833
G01 X 9.3704 Y 4.5311 Z -1.0000
G01 X 9.3760 Y 4.5327 Z -1.0000
G03 X 9.3961 Y 4.5444 Z -1.0000 I -0.0984 J 0.1920
G02 X 9.4165 Y 4.5556 Z -1.0000 I 0.0831 J -0.1271
G01 X 9.4283 Y 4.5590 Z -1.0000
G03 X 9.4405 Y 4.5615 Z -1.0000 I -0.0115 J 0.0865
G03 X 9.4903 Y 4.5765 Z -1.0000 I -0.4103 J 1.4512
G02 X 9.5402 Y 4.5909 Z -1.0000 I 0.2885 J -0.9048
G01 X 9.5520 Y 4.5924 Z -1.0000
G03 X 9.5737 Y 4.5965 Z -1.0000 I -0.0003 J 0.0618
G03 X 9.6945 Y 4.6469 Z -1.0000 I -0.7703 J 2.0169
G02 X 9.7275 Y 4.6599 Z -1.0000 I 0.1436 J -0.3162
G02 X 9.7517 Y 4.6661 Z -1.0000 I 0.0562 J -0.1673
G03 X 9.7748 Y 4.6735 Z -1.0000 I -0.0172 J 0.0936
G01 X 9.7856 Y 4.6820 Z -1.0000
G01 X 9.7952 Y 4.6896 Z -1.0000
G01 X 9.8011 Y 4.6893 Z -1.0000
G03 X 9.8498 Y 4.6818 Z -1.0000 I 0.0332 J 0.0533
G03 X 9.8895 Y 4.7118 Z -1.0000 I -0.0159 J 0.0622
G01 X 9.8970 Y 4.7200 Z -1.0000
G01 X 9.9047 Y 4.7225 Z -1.0000
G01 X 9.9135 Y 4.7243 Z -1.0000
G03 X 9.9444 Y 4.7376 Z -1.0000 I -0.1349 J 0.3564
G02 X 9.9754 Y 4.7504 Z -1.0000 I 0.1290 J -0.2675
G01 X 9.9874 Y 4.7526 Z -1.0000
G01 X 9.9993 Y 4.7547 Z -1.0000
G03 X 10.0425 Y 4.7717 Z -1.0000 I -0.1921 J 0.5511
G02 X 10.0857 Y 4.7891 Z -1.0000 I 0.2830 J -0.6401
G02 X 10.1033 Y 4.7939 Z -1.0000 I 0.0367 J -0.1006
G03 X 10.1527 Y 4.8063 Z -1.0000 I -0.0695 J 0.3814
G03 X 10.2840 Y 4.8521 Z -1.0000 I -0.8792 J 2.7288
G02 X 10.3415 Y 4.8730 Z -1.0000 I 0.9556 J -2.5363
G02 X 10.3833 Y 4.8870 Z -1.0000 I 0.4703 J -1.3391
G03 X 10.4893 Y 4.9234 Z -1.0000 I -0.6972 J 2.2027
G03 X 10.6106 Y 4.9713 Z -1.0000 I -1.0861 J 2.9292
G02 X 10.6359 Y 4.9802 Z -1.0000 I 0.0888 J -0.2109
G01 X 10.6468 Y 4.9818 Z -1.0000
G01 X 10.6557 Y 4.9841 Z -1.0000
G01 X 10.6580 Y 4.9882 Z -1.0000
G01 X 10.6609 Y 4.9922 Z -1.0000
G02 X 10.7019 Y 5.0041 Z -1.0000 I 0.1076 J -0.2958
G03 X 10.7454 Y 5.0148 Z -1.0000 I -0.1589 J 0.7376
G03 X 10.8221 Y 5.0375 Z -1.0000 I -0.6662 J 2.3921
G02 X 10.8987 Y 5.0603 Z -1.0000 I 0.7919 J -2.5260
G02 X 10.9251 Y 5.0664 Z -1.0000 I 0.0822 J -0.2929
G03 X 11.1016 Y 5.1024 Z -1.0000 I -0.9684 J 5.1958
G03 X 11.1186 Y 5.1093 Z -1.0000 I -0.0119 J 0.0538
G02 X 11.1718 Y 5.1312 Z -1.0000 I 0.0932 J -0.1509
G02 X 11.3778 Y 5.1694 Z -1.0000 I 0.5301 J -2.2869
G03 X 11.4606 Y 5.1833 Z -1.0000 I -0.2060 J 1.4757
G03 X 11.4889 Y 5.1913 Z -1.0000 I -0.0352 J 0.1782
G02 X 11.5170 Y 5.2001 Z -1.0000 I 0.0892 J -0.2385
G02 X 11.5662 Y 5.2105 Z -1.0000 I 0.1812 J -0.7336
G03 X 11.6153 Y 5.2212 Z -1.0000 I -0.1057 J 0.6005
G03 X 11.6556 Y 5.2338 Z -1.0000 I -0.1136 J 0.4332
G02 X 11.6959 Y 5.2463 Z -1.0000 I 0.1391 J -0.3803
G02 X 11.7777 Y 5.2645 Z -1.0000 I 0.3858 J -1.5341
G03 X 11.8588 Y 5.2846 Z -1.0000 I -0.1662 J 0.8471
G03 X 11.9096 Y 5.3040 Z -1.0000 I -0.1045 J 0.3494
G02 X 11.9598 Y 5.3260 Z -1.0000 I 0.4251 J -0.9025
G02 X 12.0279 Y 5.3520 Z -1.0000 I 0.6742 J -1.6623
G03 X 12.0962 Y 5.3777 Z -1.0000 I -0.8247 J 2.2994
G03 X 12.1327 Y 5.3932 Z -1.0000 I -0.2623 J 0.6679
G02 X 12.1687 Y 5.4079 Z -1.0000 I 0.2027 J -0.4426
G01 X 12.1720 Y 5.4075 Z -1.0000
G01 X 12.1750 Y 5.4073 Z -1.0000
G03 X 12.1893 Y 5.4171 Z -1.0000 I -0.0441 J 0.0798
G02 X 12.2042 Y 5.4277 Z -1.0000 I 0.0787 J -0.0944
G02 X 12.2225 Y 5.4373 Z -1.0000 I 0.0829 J -0.1366
G02 X 12.3155 Y 5.4714 Z -1.0000 I 0.3060 J -0.6917
G02 X 12.3605 Y 5.4778 Z -1.0000 I 0.0450 J -0.1533
G01 X 12.3713 Y 5.4799 Z -1.0000
G01 X 12.3794 Y 5.4850 Z -1.0000
G02 X 12.4183 Y 5.5096 Z -1.0000 I 0.0737 J -0.0737
G02 X 12.6308 Y 5.5740 Z -1.0000 I 0.8110 J -2.2920
G03 X 12.6764 Y 5.5864 Z -1.0000 I -0.3457 J 1.3606
G03 X 12.6919 Y 5.5918 Z -1.0000 I -0.0464 J 0.1600
G02 X 12.7270 Y 5.6038 Z -1.0000 I 0.1396 J -0.3509
G02 X 12.8941 Y 5.6499 Z -1.0000 I 2.2107 J -7.6781
G03 X 13.0051 Y 5.6866 Z -1.0000 I -0.2461 J 0.9303
G03 X 13.1613 Y 5.7567 Z -1.0000 I -0.7659 J 1.9173
G02 X 13.3241 Y 5.8241 Z -1.0000 I 0.5611 J -1.1242
G02 X 13.4002 Y 5.8365 Z -1.0000 I 0.0760 J -0.2275
G03 X 13.4138 Y 5.8379 Z -1.0000 I 0.0000 J 0.0654
G03 X 13.5032 Y 5.8584 Z -1.0000 I -0.6412 J 3.0060
G02 X 13.5928 Y 5.8788 Z -1.0000 I 0.6714 J -2.7348
G02 X 13.6497 Y 5.8893 Z -1.0000 I 0.2307 J -1.0921
G03 X 13.7069 Y 5.8986 Z -1.0000 I -1.1516 J 7.2503
G03 X 13.7451 Y 5.9053 Z -1.0000 I -0.4237 J 2.5380
G02 X 13.7834 Y 5.9115 Z -1.0000 I 0.1815 J -1.0027
G02 X 13.8787 Y 5.9242 Z -1.0000 I 0.8108 J -5.7106
G03 X 14.1852 Y 5.9679 Z -1.0000 I -1.1289 J 9.0210
G03 X 14.2602 Y 5.9852 Z -1.0000 I -0.0888 J 0.5554
G03 X 14.4187 Y 6.0402 Z -1.0000 I -0.6382 J 2.0957
G03 X 14.4477 Y 6.0584 Z -1.0000 I -0.0333 J 0.0853
G02 X 14.4641 Y 6.0717 Z -1.0000 I 0.1043 J -0.1120
G01 X 14.4685 Y 6.0731 Z -1.0000
G01 X 14.4734 Y 6.0741 Z -1.0000
G03 X 14.5291 Y 6.1003 Z -1.0000 I -0.7623 J 1.6929
G02 X 14.5851 Y 6.1263 Z -1.0000 I 0.6286 J -1.2806
G02 X 14.6151 Y 6.1380 Z -1.0000 I 0.1558 J -0.3555
G02 X 14.7279 Y 6.1647 Z -1.0000 I 0.1930 J -0.5634
G02 X 14.8070 Y 6.1641 Z -1.0000 I 0.0374 J -0.2749
G02 X 14.9020 Y 6.1408 Z -1.0000 I -0.0831 J -0.5434
G01 X 14.9253 Y 6.1236 Z -1.0000
G01 X 14.9314 Y 6.1204 Z -1.0000
G03 X 14.9520 Y 6.1232 Z -1.0000 I 0.0011 J 0.0691
G02 X 14.9814 Y 6.1306 Z -1.0000 I 0.1187 J -0.4049
G02 X 14.9986 Y 6.1333 Z -1.0000 I 0.0301 J -0.1390
G01 X 15.0069 Y 6.1365 Z -1.0000
G03 X 15.0291 Y 6.1560 Z -1.0000 I -0.1078 J 0.1449
G02 X 15.0514 Y 6.1761 Z -1.0000 I 0.1560 J -0.1504
G02 X 15.0730 Y 6.1904 Z -1.0000 I 0.0990 J -0.1264
G03 X 15.0958 Y 6.2033 Z -1.0000 I -0.4566 J 0.8331
G03 X 15.1074 Y 6.2104 Z -1.0000 I -0.1513 J 0.2589
G02 X 15.1724 Y 6.2452 Z -1.0000 I 0.2416 J -0.3736
G02 X 15.3293 Y 6.3064 Z -1.0000 I 0.9204 J -2.1283
G01 X 15.3716 Y 6.2847 Z -1.0000
G02 X 15.3551 Y 6.2197 Z -1.0000 I -0.0625 J -0.0187
G03 X 15.2869 Y 6.1470 Z -1.0000 I 0.9872 J -0.9941
G01 X 15.2785 Y 6.1320 Z -1.0000
G02 X 15.2711 Y 6.1163 Z -1.0000 I -0.0617 J 0.0192
G02 X 15.2571 Y 6.0986 Z -1.0000 I -0.0933 J 0.0599
G03 X 15.2413 Y 6.0819 Z -1.0000 I 0.3502 J -0.3463
G03 X 15.2318 Y 6.0707 Z -1.0000 I 0.1909 J -0.1719
G03 X 15.1214 Y 5.9001 Z -1.0000 I 0.7822 J -0.6266
G03 X 15.1143 Y 5.8408 Z -1.0000 I 0.0771 J -0.0394
G01 X 15.1142 Y 5.8338 Z -1.0000
G02 X 15.1043 Y 5.8026 Z -1.0000 I -0.3098 J 0.0815
G03 X 15.0951 Y 5.7711 Z -1.0000 I 0.2008 J -0.0754
G03 X 15.0886 Y 5.7275 Z -1.0000 I 0.3693 J -0.0772
G02 X 15.0839 Y 5.6834 Z -1.0000 I -1.2285 J 0.1113
G02 X 15.0766 Y 5.6329 Z -1.0000 I -1.6072 J 0.2040
G03 X 15.0726 Y 5.5826 Z -1.0000 I 0.3232 J -0.0514
G03 X 15.0764 Y 5.5435 Z -1.0000 I 0.1974 J -0.0007
G02 X 15.0832 Y 5.5043 Z -1.0000 I -0.7613 J -0.1525
G02 X 15.0887 Y 5.4606 Z -1.0000 I -1.0157 J -0.1499
G03 X 15.0961 Y 5.4200 Z -1.0000 I 0.2657 J 0.0275
G01 X 15.1003 Y 5.4167 Z -1.0000
G01 X 15.1044 Y 5.4137 Z -1.0000
G02 X 15.1074 Y 5.3938 Z -1.0000 I -0.0641 J -0.0199
G03 X 15.1104 Y 5.3740 Z -1.0000 I 0.0665 J 0.0000
G01 X 15.1146 Y 5.3709 Z -1.0000
G01 X 15.1190 Y 5.3678 Z -1.0000
G02 X 15.1271 Y 5.3347 Z -1.0000 I -0.1692 J -0.0589
G03 X 15.1350 Y 5.2995 Z -1.0000 I 0.2322 J 0.0338
G03 X 15.1428 Y 5.2834 Z -1.0000 I 0.0559 J 0.0172
G02 X 15.1511 Y 5.2677 Z -1.0000 I -0.0625 J -0.0429
G01 X 15.1532 Y 5.2562 Z -1.0000
G03 X 15.1645 Y 5.2062 Z -1.0000 I 0.1159 J -0.0000
G03 X 15.1913 Y 5.1764 Z -1.0000 I 0.0643 J 0.0307
G01 X 15.1965 Y 5.1703 Z -1.0000
G01 X 15.1990 Y 5.1579 Z -1.0000
G03 X 15.2140 Y 5.0940 Z -1.0000 I 0.1438 J 0.0000
G03 X 15.2789 Y 4.9970 Z -1.0000 I 0.4074 J 0.2021
G02 X 15.2878 Y 4.9848 Z -1.0000 I -0.0674 J -0.0588
G02 X 15.3092 Y 4.9474 Z -1.0000 I -0.6183 J -0.3778
G03 X 15.3551 Y 4.8662 Z -1.0000 I 1.5685 J 0.8348
G01 X 15.3612 Y 4.8609 Z -1.0000
G01 X 15.3648 Y 4.8570 Z -1.0000
G01 X 15.3669 Y 4.8460 Z -1.0000
G01 X 15.3693 Y 4.8344 Z -1.0000
G03 X 15.3843 Y 4.8066 Z -1.0000 I 0.1865 J 0.0821
G02 X 15.4175 Y 4.7521 Z -1.0000 I -1.2102 J -0.7747
G02 X 15.4281 Y 4.7308 Z -1.0000 I -0.1728 J -0.1001
G03 X 15.4374 Y 4.7135 Z -1.0000 I 0.1036 J 0.0445
G03 X 15.4682 Y 4.6698 Z -1.0000 I 0.6979 J 0.4578
G02 X 15.4989 Y 4.6259 Z -1.0000 I -0.6382 J -0.4796
G02 X 15.5157 Y 4.5968 Z -1.0000 I -0.2621 J -0.1707
G03 X 15.5324 Y 4.5678 Z -1.0000 I 0.2806 J 0.1427
G03 X 15.5441 Y 4.5531 Z -1.0000 I 0.0829 J 0.0539
G02 X 15.5551 Y 4.5382 Z -1.0000 I -0.0507 J -0.0486
G02 X 15.5621 Y 4.5202 Z -1.0000 I -0.0667 J -0.0366
G03 X 15.5691 Y 4.5036 Z -1.0000 I 0.0600 J 0.0153
G01 X 15.5738 Y 4.5009 Z -1.0000
G01 X 15.5785 Y 4.4989 Z -1.0000
G01 X 15.5806 Y 4.4935 Z -1.0000
G01 X 15.5823 Y 4.4866 Z -1.0000
G03 X 15.6024 Y 4.4534 Z -1.0000 I 0.3689 J 0.2010
G02 X 15.7185 Y 4.2717 Z -1.0000 I -4.2404 J -2.8377
G02 X 15.7259 Y 4.2509 Z -1.0000 I -0.0458 J -0.0280
G01 X 15.7278 Y 4.2458 Z -1.0000
G03 X 15.7371 Y 4.2338 Z -1.0000 I 0.0779 J 0.0505
G02 X 15.7460 Y 4.2214 Z -1.0000 I -0.0526 J -0.0476
G02 X 15.7654 Y 4.1842 Z -1.0000 I -0.4595 J -0.2627
G03 X 15.8135 Y 4.0943 Z -1.0000 I 0.9044 J 0.4261
G03 X 15.8321 Y 4.0735 Z -1.0000 I 0.0640 J 0.0386
G01 X 15.8365 Y 4.0692 Z -1.0000
G02 X 15.8591 Y 4.0392 Z -1.0000 I -0.6889 J -0.5441
G03 X 15.8818 Y 4.0092 Z -1.0000 I 0.7126 J 0.5148
G03 X 15.8892 Y 4.0010 Z -1.0000 I 0.0605 J 0.0477
G01 X 15.8961 Y 3.9925 Z -1.0000
G02 X 15.9126 Y 3.9634 Z -1.0000 I -0.3297 J -0.2053
G03 X 15.9292 Y 3.9343 Z -1.0000 I 0.3170 J 0.1616
G03 X 15.9469 Y 3.9093 Z -1.0000 I 0.2505 J 0.1590
G02 X 16.0318 Y 3.7919 Z -1.0000 I -1.3266 J -1.0485
G01 X 16.0384 Y 3.7707 Z -1.0000
G01 X 16.0405 Y 3.7626 Z -1.0000
G01 X 16.0487 Y 3.7515 Z -1.0000
G02 X 16.0580 Y 3.7405 Z -1.0000 I -0.0612 J -0.0612
G02 X 16.0804 Y 3.7070 Z -1.0000 I -0.5447 J -0.3885
G03 X 16.1026 Y 3.6734 Z -1.0000 I 0.7473 J 0.4679
G03 X 16.1199 Y 3.6500 Z -1.0000 I 0.3788 J 0.2620
G03 X 16.1379 Y 3.6270 Z -1.0000 I 7587.6155 J 5966.3686
G02 X 16.1438 Y 3.6194 Z -1.0000 I -0.8175 J -0.6428
G02 X 16.2673 Y 3.4473 Z -1.0000 I -2.4532 J -1.8908
G01 X 16.2634 Y 3.4401 Z -1.0000
G01 X 16.2923 Y 3.4014 Z -1.0000
G02 X 16.3034 Y 3.3858 Z -1.0000 I -0.0623 J -0.0562
G01 X 16.3056 Y 3.3770 Z -1.0000
G01 X 16.3082 Y 3.3684 Z -1.0000
G03 X 16.3264 Y 3.3450 Z -1.0000 I 0.1419 J 0.0917
G02 X 16.4408 Y 3.2123 Z -1.0000 I -1.7874 J -1.6574
G02 X 16.4598 Y 3.1787 Z -1.0000 I -0.0925 J -0.0742
G03 X 16.4690 Y 3.1599 Z -1.0000 I 0.0916 J 0.0333
G01 X 16.4730 Y 3.1577 Z -1.0000
G02 X 16.5398 Y 3.1249 Z -1.0000 I 0.0000 J -0.0843
G02 X 16.5727 Y 3.0283 Z -1.0000 I -0.1251 J -0.0966
G01 X 16.5750 Y 3.0226 Z -1.0000
G01 X 16.5801 Y 3.0203 Z -1.0000
G01 X 16.5862 Y 3.0178 Z -1.0000
G02 X 16.6260 Y 2.9726 Z -1.0000 I -0.4939 J -0.4763
G03 X 16.6649 Y 2.9252 Z -1.0000 I 3.5089 J 2.8374
G03 X 16.6920 Y 2.8933 Z -1.0000 I 1.5955 J 1.3264
G02 X 16.7185 Y 2.8611 Z -1.0000 I -0.5920 J -0.5130
G02 X 16.7281 Y 2.8468 Z -1.0000 I -0.1052 J -0.0817
G03 X 16.7928 Y 2.7452 Z -1.0000 I 1.4648 J 0.8618
G03 X 16.8228 Y 2.7093 Z -1.0000 I 0.2109 J 0.1452
G02 X 16.8493 Y 2.6788 Z -1.0000 I -0.2048 J -0.2048
G02 X 16.9525 Y 2.5372 Z -1.0000 I -4.3824 J -3.3032
G03 X 17.0928 Y 2.3553 Z -1.0000 I 2.1730 J 1.5313
G03 X 17.1207 Y 2.3376 Z -1.0000 I 0.0418 J 0.0352
G01 X 17.1336 Y 2.3312 Z -1.0000
G01 X 17.1344 Y 2.3268 Z -1.0000
G01 X 17.1346 Y 2.3210 Z -1.0000
G03 X 17.1684 Y 2.2797 Z -1.0000 I 0.3583 J 0.2587
G02 X 17.2045 Y 2.2381 Z -1.0000 I -0.6481 J -0.5989
G01 X 17.2062 Y 2.2332 Z -1.0000
G01 X 17.2080 Y 2.2286 Z -1.0000
G03 X 17.2234 Y 2.2137 Z -1.0000 I 0.0953 J 0.0836
G02 X 17.2389 Y 2.1982 Z -1.0000 I -0.0694 J -0.0847
G02 X 17.2689 Y 2.1579 Z -1.0000 I -0.4357 J -0.3553
G03 X 17.2992 Y 2.1180 Z -1.0000 I 0.3732 J 0.2521
G03 X 17.3127 Y 2.1064 Z -1.0000 I 0.0435 J 0.0370
G02 X 17.3264 Y 2.0950 Z -1.0000 I -0.0349 J -0.0560
G02 X 17.3475 Y 2.0683 Z -1.0000 I -0.1714 J -0.1572
G03 X 17.4231 Y 1.9668 Z -1.0000 I 1.1771 J 0.7978
G03 X 17.5134 Y 1.8651 Z -1.0000 I 1.2738 J 1.0399
G02 X 17.5779 Y 1.7949 Z -1.0000 I -1.4364 J -1.3855
G01 X 17.5802 Y 1.7889 Z -1.0000
G01 X 17.5821 Y 1.7828 Z -1.0000
G03 X 17.5974 Y 1.7643 Z -1.0000 I 0.1180 J 0.0820
G02 X 17.6381 Y 1.7180 Z -1.0000 I -0.4310 J -0.4201
G01 X 17.6412 Y 1.7089 Z -1.0000
G01 X 17.6437 Y 1.7025 Z -1.0000
G01 X 17.6490 Y 1.7000 Z -1.0000
G01 X 17.6604 Y 1.6954 Z -1.0000
G02 X 17.8438 Y 1.5084 Z -1.0000 I -5.1781 J -5.2616
G03 X 17.8910 Y 1.4608 Z -1.0000 I 1.0306 J 0.9752
G03 X 17.9182 Y 1.4368 Z -1.0000 I 0.2890 J 0.3005
G02 X 17.9435 Y 1.4125 Z -1.0000 I -0.1259 J -0.1560
G01 X 17.9465 Y 1.4044 Z -1.0000
G01 X 17.9491 Y 1.3974 Z -1.0000
G01 X 17.9546 Y 1.3948 Z -1.0000
G01 X 17.9584 Y 1.3924 Z -1.0000
G01 X 17.9582 Y 1.3876 Z -1.0000
G01 X 17.9588 Y 1.3809 Z -1.0000
G03 X 18.0420 Y 1.2922 Z -1.0000 I 1.4069 J 1.2347
G01 X 18.1264 Y 1.2040 Z -1.0000
G01 X 18.1471 Y 1.1790 Z -1.0000
G02 X 18.1712 Y 1.1535 Z -1.0000 I -0.7160 J -0.7019
G02 X 18.1994 Y 1.1217 Z -1.0000 I -1.0599 J -0.9688
G03 X 18.2289 Y 1.0932 Z -1.0000 I 0.1700 J 0.1464
G01 X 18.2395 Y 1.0895 Z -1.0000
G01 X 18.2489 Y 1.0866 Z -1.0000
G01 X 18.2518 Y 1.0813 Z -1.0000
G01 X 18.2545 Y 1.0743 Z -1.0000
G03 X 18.2909 Y 1.0374 Z -1.0000 I 0.3773 J 0.3368
G02 X 18.3720 Y 0.9609 Z -1.0000 I -2.2557 J -2.4733
G01 X 18.3739 Y 0.9565 Z -1.0000
G01 X 18.3751 Y 0.9534 Z -1.0000
G03 X 18.3995 Y 0.9277 Z -1.0000 I 0.3849 J 0.3408
G02 X 18.4323 Y 0.8838 Z -1.0000 I -0.1269 J -0.1291
G02 X 18.4384 Y 0.8548 Z -1.0000 I -0.0465 J -0.0248
G01 X 18.4399 Y 0.8403 Z -1.0000
G01 X 18.4436 Y 0.8376 Z -1.0000
G01 X 18.4481 Y 0.8396 Z -1.0000
G01 X 18.4502 Y 0.8450 Z -1.0000
G01 X 18.4581 Y 0.8493 Z -1.0000
G02 X 18.4825 Y 0.8237 Z -1.0000 I -0.0433 J -0.0656
G03 X 18.4974 Y 0.8051 Z -1.0000 I 0.0748 J 0.0444
G03 X 18.5165 Y 0.7915 Z -1.0000 I 0.0570 J 0.0600
G02 X 18.5373 Y 0.7797 Z -1.0000 I -0.1423 J -0.2755
G01 X 18.5418 Y 0.7758 Z -1.0000
G01 X 18.5462 Y 0.7720 Z -1.0000
G03 X 18.5647 Y 0.7612 Z -1.0000 I 0.1307 J 0.2042
G02 X 18.5823 Y 0.7495 Z -1.0000 I -0.0473 J -0.0902
G02 X 18.5937 Y 0.7372 Z -1.0000 I -0.0409 J -0.0494
G03 X 18.6047 Y 0.7251 Z -1.0000 I 0.0588 J 0.0420
G01 X 18.6097 Y 0.7232 Z -1.0000
G01 X 18.6210 Y 0.7189 Z -1.0000
G02 X 18.7412 Y 0.6068 Z -1.0000 I -2.0913 J -2.3636
G03 X 18.8103 Y 0.5426 Z -1.0000 I 1.2010 J 1.2226
G01 X 18.8171 Y 0.5400 Z -1.0000
G01 X 18.8208 Y 0.5376 Z -1.0000
G01 X 18.8203 Y 0.5324 Z -1.0000
G01 X 18.8213 Y 0.5279 Z -1.0000
G01 X 18.8316 Y 0.5248 Z -1.0000
G01 X 18.8451 Y 0.5212 Z -1.0000
G01 X 18.8520 Y 0.5131 Z -1.0000
G01 X 18.8588 Y 0.5033 Z -1.0000
G03 X 18.8773 Y 0.4906 Z -1.0000 I 0.0602 J 0.0679
G02 X 18.8967 Y 0.4778 Z -1.0000 I -0.0494 J -0.0958
G02 X 18.9438 Y 0.4355 Z -1.0000 I -0.5160 J -0.6233
G03 X 19.1302 Y 0.2646 Z -1.0000 I 3.2147 J 3.3177
G01 X 19.1487 Y 0.2577 Z -1.0000
G02 X 19.2011 Y 0.2377 Z -1.0000 I 0.0000 J -0.0785
G02 X 19.2210 Y 0.1931 Z -1.0000 I -0.0398 J -0.0446
G01 X 19.2301 Y 0.1776 Z -1.0000
G01 X 19.2573 Y 0.1728 Z -1.0000
G01 X 19.2641 Y 0.1714 Z -1.0000
G01 X 19.2668 Y 0.1664 Z -1.0000
G01 X 19.2693 Y 0.1610 Z -1.0000
G01 X 19.2765 Y 0.1584 Z -1.0000
G01 X 19.2851 Y 0.1557 Z -1.0000
G02 X 19.3254 Y 0.1241 Z -1.0000 I -0.2743 J -0.3912
G03 X 19.3655 Y 0.0920 Z -1.0000 I 0.3964 J 0.4531
G01 X 19.3721 Y 0.0898 Z -1.0000
G01 X 19.3781 Y 0.0875 Z -1.0000
G01 X 19.3835 Y 0.0796 Z -1.0000
G01 X 19.3896 Y 0.0715 Z -1.0000
G03 X 19.4130 Y 0.0569 Z -1.0000 I 0.0849 J 0.1104
G01 X 19.4115 Y 0.0506 Z -1.0000
G02 X 12.7911 Y 0.0455 Z -1.0000 I -5.9946 J 3484.7899
G01 X 6.1787 Y 0.0495 Z -1.0000
G01 X 6.1787 Y 0.0497 Z -1.0000
G00 Z 5.0000

(End cutting path id: path632)


(Start cutting path id: path632)
(Change tool to Default tool)

G00 Z 5.0000
G00 X 9.0019 Y 4.1838

G01 Z -1.0000 F 100.0000(Penetrate)
G01 X 9.0046 Y 4.1926 Z -1.0000 F 3500.0000
G01 X 9.0115 Y 4.1979 Z -1.0000
G01 X 9.0000 Y 4.2014 Z -1.0000
G01 X 8.9828 Y 4.1924 Z -1.0000
G01 X 8.9841 Y 4.1781 Z -1.0000
G01 X 8.9957 Y 4.1753 Z -1.0000
G01 X 9.0019 Y 4.1838 Z -1.0000
G01 X 9.0019 Y 4.1838 Z -1.0000
G00 Z 5.0000

(End cutting path id: path632)


(Start cutting path id: path632)
(Change tool to Default tool)

G00 Z 5.0000
G00 X 9.4672 Y 4.3912

G01 Z -1.0000 F 100.0000(Penetrate)
G01 X 9.4670 Y 4.4047 Z -1.0000 F 3500.0000
G01 X 9.4732 Y 4.4083 Z -1.0000
G01 X 9.4977 Y 4.4123 Z -1.0000
G01 X 9.5056 Y 4.4253 Z -1.0000
G01 X 9.5031 Y 4.4298 Z -1.0000
G01 X 9.4937 Y 4.4325 Z -1.0000
G01 X 9.4866 Y 4.4352 Z -1.0000
G01 X 9.4860 Y 4.4393 Z -1.0000
G01 X 9.4832 Y 4.4482 Z -1.0000
G03 X 9.4478 Y 4.4553 Z -1.0000 I -0.0354 J -0.0844
G01 X 9.4351 Y 4.4475 Z -1.0000
G01 X 9.4388 Y 4.4375 Z -1.0000
G01 X 9.4266 Y 4.4330 Z -1.0000
G01 X 9.4116 Y 4.4278 Z -1.0000
G01 X 9.4094 Y 4.4202 Z -1.0000
G01 X 9.4084 Y 4.4110 Z -1.0000
G01 X 9.3988 Y 4.4041 Z -1.0000
G01 X 9.3888 Y 4.3900 Z -1.0000
G01 X 9.4007 Y 4.3814 Z -1.0000
G01 X 9.4176 Y 4.3822 Z -1.0000
G02 X 9.4407 Y 4.3757 Z -1.0000 I -0.0133 J -0.0919
G01 X 9.4622 Y 4.3770 Z -1.0000
G01 X 9.4672 Y 4.3912 Z -1.0000
G01 X 9.4672 Y 4.3912 Z -1.0000
G00 Z 5.0000

(End cutting path id: path632)


(Start cutting path id: path632)
(Change tool to Default tool)

G00 Z 5.0000
G00 X 9.5244 Y 4.4472

G01 Z -1.0000 F 100.0000(Penetrate)
G01 X 9.5217 Y 4.4590 Z -1.0000 F 3500.0000
G01 X 9.5055 Y 4.4591 Z -1.0000
G01 X 9.5018 Y 4.4478 Z -1.0000
G01 X 9.5133 Y 4.4401 Z -1.0000
G01 X 9.5190 Y 4.4418 Z -1.0000
G01 X 9.5244 Y 4.4472 Z -1.0000
G01 X 9.5244 Y 4.4472 Z -1.0000
G00 Z 5.0000

(End cutting path id: path632)


(Start cutting path id: path632)
(Change tool to Default tool)

G00 Z 5.0000
G00 X 9.5590 Y 4.4554

G01 Z -1.0000 F 100.0000(Penetrate)
G01 X 9.5557 Y 4.4630 Z -1.0000 F 3500.0000
G01 X 9.5529 Y 4.4619 Z -1.0000
G01 X 9.5476 Y 4.4554 Z -1.0000
G01 X 9.5472 Y 4.4502 Z -1.0000
G01 X 9.5510 Y 4.4478 Z -1.0000
G01 X 9.5567 Y 4.4501 Z -1.0000
G01 X 9.5590 Y 4.4554 Z -1.0000
G01 X 9.5590 Y 4.4554 Z -1.0000
G00 Z 5.0000

(End cutting path id: path632)


(Start cutting path id: path632)
(Change tool to Default tool)

G00 Z 5.0000
G00 X 9.9429 Y 4.5718

G01 Z -1.0000 F 100.0000(Penetrate)
G03 X 9.9604 Y 4.5833 Z -1.0000 I -0.0292 J 0.0634 F 3500.0000
G01 X 9.9635 Y 4.5902 Z -1.0000
G01 X 9.9667 Y 4.5968 Z -1.0000
G02 X 9.9845 Y 4.6065 Z -1.0000 I 0.0388 J -0.0502
G01 X 10.0055 Y 4.6139 Z -1.0000
G01 X 9.9843 Y 4.6223 Z -1.0000
G02 X 9.9658 Y 4.6333 Z -1.0000 I 0.0246 J 0.0624
G01 X 9.9582 Y 4.6442 Z -1.0000
G01 X 9.9425 Y 4.6606 Z -1.0000
G03 X 9.9101 Y 4.6647 Z -1.0000 I -0.0233 J -0.0546
G03 X 9.8559 Y 4.6494 Z -1.0000 I 0.0353 J -0.2278
G01 X 9.8491 Y 4.6390 Z -1.0000
G01 X 9.8456 Y 4.6272 Z -1.0000
G01 X 9.8379 Y 4.6220 Z -1.0000
G01 X 9.8335 Y 4.6163 Z -1.0000
G03 X 9.8389 Y 4.5947 Z -1.0000 I 0.0536 J 0.0019
G01 X 9.8628 Y 4.5740 Z -1.0000
G01 X 9.8865 Y 4.5794 Z -1.0000
G01 X 9.8956 Y 4.5821 Z -1.0000
G01 X 9.9051 Y 4.5756 Z -1.0000
G01 X 9.9182 Y 4.5677 Z -1.0000
G01 X 9.9429 Y 4.5718 Z -1.0000
G01 X 9.9429 Y 4.5718 Z -1.0000
G00 Z 5.0000

(End cutting path id: path632)


(Start cutting path id: path632)
(Change tool to Default tool)

G00 Z 5.0000
G00 X 13.5922 Y 9.8380

G01 Z -1.0000 F 100.0000(Penetrate)
G02 X 13.5881 Y 9.8587 Z -1.0000 I 0.2322 J 0.0577 F 3500.0000
G02 X 13.5860 Y 9.8777 Z -1.0000 I 0.1917 J 0.0301
G03 X 13.5826 Y 9.8945 Z -1.0000 I -0.0602 J -0.0035
G01 X 13.5792 Y 9.8969 Z -1.0000
G01 X 13.5677 Y 9.9089 Z -1.0000
G01 X 13.5803 Y 9.9307 Z -1.0000
G01 X 13.5892 Y 9.9277 Z -1.0000
G02 X 13.5964 Y 9.8881 Z -1.0000 I -0.1051 J -0.0396
G03 X 13.5986 Y 9.8659 Z -1.0000 I 0.1148 J 0.0000
G01 X 13.6035 Y 9.8521 Z -1.0000
G01 X 13.6069 Y 9.8389 Z -1.0000
G01 X 13.6040 Y 9.8282 Z -1.0000
G01 X 13.5989 Y 9.8274 Z -1.0000
G01 X 13.5923 Y 9.8380 Z -1.0000
G01 X 13.5922 Y 9.8380 Z -1.0000
G00 Z 5.0000

(End cutting path id: path632)


(Start cutting path id: path632)
(Change tool to Default tool)

G00 Z 5.0000
G00 X 13.8839 Y 9.9060

G01 Z -1.0000 F 100.0000(Penetrate)
G01 X 13.8793 Y 9.9014 Z -1.0000 F 3500.0000
G01 X 13.8833 Y 9.8913 Z -1.0000
G01 X 13.8855 Y 9.8964 Z -1.0000
G01 X 13.8839 Y 9.9060 Z -1.0000
G01 X 13.8839 Y 9.9060 Z -1.0000
G00 Z 5.0000

(End cutting path id: path632)


(Start cutting path id: path632)
(Change tool to Default tool)

G00 Z 5.0000
G00 X 13.9284 Y 9.9217

G01 Z -1.0000 F 100.0000(Penetrate)
G03 X 13.9208 Y 9.9852 Z -1.0000 I -6.4986 J -0.7428 F 3500.0000
G03 X 13.9178 Y 10.0061 Z -1.0000 I -0.6000 J -0.0745
G01 X 13.9153 Y 10.0090 Z -1.0000
G01 X 13.9104 Y 10.0083 Z -1.0000
G03 X 13.8836 Y 9.9611 Z -1.0000 I 0.0295 J -0.0481
G01 X 13.9092 Y 9.9350 Z -1.0000
G01 X 13.9131 Y 9.9323 Z -1.0000
G02 X 13.9207 Y 9.9045 Z -1.0000 I -0.1394 J -0.0526
G01 X 13.9256 Y 9.9039 Z -1.0000
G01 X 13.9284 Y 9.9217 Z -1.0000
G01 X 13.9284 Y 9.9217 Z -1.0000
G00 Z 5.0000

(End cutting path id: path632)


(Start cutting path id: path632)
(Change tool to Default tool)

G00 Z 5.0000
G00 X 13.8862 Y 9.9560

G01 Z -1.0000 F 100.0000(Penetrate)
G03 X 13.8775 Y 9.9930 Z -1.0000 I -0.0849 J -0.0005 F 3500.0000
G01 X 13.8672 Y 9.9948 Z -1.0000
G01 X 13.8552 Y 9.9550 Z -1.0000
G01 X 13.8795 Y 9.9350 Z -1.0000
G01 X 13.8834 Y 9.9379 Z -1.0000
G03 X 13.8862 Y 9.9560 Z -1.0000 I -0.0569 J 0.0182
G01 X 13.8862 Y 9.9560 Z -1.0000
G00 Z 5.0000

(End cutting path id: path632)


(Start cutting path id: path632)
(Change tool to Default tool)

G00 Z 5.0000
G00 X 13.8787 Y 10.0152

G01 Z -1.0000 F 100.0000(Penetrate)
G01 X 13.8761 Y 10.0240 Z -1.0000 F 3500.0000
G01 X 13.8711 Y 10.0266 Z -1.0000
G01 X 13.8661 Y 10.0239 Z -1.0000
G01 X 13.8635 Y 10.0152 Z -1.0000
G01 X 13.8662 Y 10.0064 Z -1.0000
G01 X 13.8711 Y 10.0037 Z -1.0000
G01 X 13.8761 Y 10.0064 Z -1.0000
G01 X 13.8787 Y 10.0152 Z -1.0000
G01 X 13.8787 Y 10.0152 Z -1.0000
G00 Z 5.0000

(End cutting path id: path632)


(Start cutting path id: path632)
(Change tool to Default tool)

G00 Z 5.0000
G00 X 13.8710 Y 10.0705

G01 Z -1.0000 F 100.0000(Penetrate)
G01 X 13.8688 Y 10.0777 Z -1.0000 F 3500.0000
G01 X 13.8644 Y 10.0800 Z -1.0000
G01 X 13.8486 Y 10.0682 Z -1.0000
G01 X 13.8543 Y 10.0460 Z -1.0000
G01 X 13.8636 Y 10.0469 Z -1.0000
G01 X 13.8710 Y 10.0705 Z -1.0000
G01 X 13.8710 Y 10.0705 Z -1.0000
G00 Z 5.0000

(End cutting path id: path632)


(Start cutting path id: path632)
(Change tool to Default tool)

G00 Z 5.0000
G00 X 13.9062 Y 10.0781

G01 Z -1.0000 F 100.0000(Penetrate)
G03 X 13.9017 Y 10.1142 Z -1.0000 I -0.5482 J -0.0495 F 3500.0000
G03 X 13.8965 Y 10.1389 Z -1.0000 I -0.2565 J -0.0403
G01 X 13.8902 Y 10.1635 Z -1.0000
G01 X 13.8811 Y 10.1442 Z -1.0000
G01 X 13.8781 Y 10.1273 Z -1.0000
G01 X 13.8831 Y 10.1207 Z -1.0000
G01 X 13.8895 Y 10.1135 Z -1.0000
G02 X 13.8940 Y 10.0792 Z -1.0000 I -0.1296 J -0.0343
G03 X 13.8975 Y 10.0453 Z -1.0000 I 0.1668 J -0.0000
G01 X 13.9017 Y 10.0419 Z -1.0000
G01 X 13.9056 Y 10.0453 Z -1.0000
G03 X 13.9061 Y 10.0781 Z -1.0000 I -0.1499 J 0.0188
G01 X 13.9062 Y 10.0781 Z -1.0000
G00 Z 5.0000

(End cutting path id: path632)


(Start cutting path id: path632)
(Change tool to Default tool)

G00 Z 5.0000
G00 X 13.8605 Y 10.1259

G01 Z -1.0000 F 100.0000(Penetrate)
G01 X 13.8570 Y 10.1383 Z -1.0000 F 3500.0000
G01 X 13.8520 Y 10.1412 Z -1.0000
G01 X 13.8477 Y 10.1376 Z -1.0000
G03 X 13.8470 Y 10.1182 Z -1.0000 I 0.0525 J -0.0115
G01 X 13.8544 Y 10.1146 Z -1.0000
G01 X 13.8605 Y 10.1259 Z -1.0000
G01 X 13.8605 Y 10.1259 Z -1.0000
G00 Z 5.0000

(End cutting path id: path632)


(Start cutting path id: path632)
(Change tool to Default tool)

G00 Z 5.0000
G00 X 13.8406 Y 10.2327

G01 Z -1.0000 F 100.0000(Penetrate)
G01 X 13.8383 Y 10.2379 Z -1.0000 F 3500.0000
G01 X 13.8325 Y 10.2403 Z -1.0000
G01 X 13.8288 Y 10.2379 Z -1.0000
G01 X 13.8291 Y 10.2327 Z -1.0000
G01 X 13.8344 Y 10.2262 Z -1.0000
G01 X 13.8372 Y 10.2251 Z -1.0000
G01 X 13.8406 Y 10.2327 Z -1.0000
G01 X 13.8406 Y 10.2327 Z -1.0000
G00 Z 5.0000

(End cutting path id: path632)


(Start cutting path id: path632)
(Change tool to Default tool)

G00 Z 5.0000
G00 X 13.8405 Y 10.3128

G01 Z -1.0000 F 100.0000(Penetrate)
G03 X 13.8370 Y 10.3503 Z -1.0000 I -0.1997 J 0.0006 F 3500.0000
G03 X 13.8261 Y 10.3891 Z -1.0000 I -0.2258 J -0.0425
G02 X 13.8151 Y 10.4281 Z -1.0000 I 0.2151 J 0.0820
G02 X 13.8062 Y 10.4934 Z -1.0000 I 0.6128 J 0.1166
G03 X 13.7952 Y 10.5548 Z -1.0000 I -0.3275 J -0.0268
G01 X 13.7868 Y 10.5632 Z -1.0000
G01 X 13.7723 Y 10.5586 Z -1.0000
G01 X 13.7643 Y 10.5367 Z -1.0000
G01 X 13.7600 Y 10.5193 Z -1.0000
G01 X 13.7528 Y 10.5150 Z -1.0000
G01 X 13.7137 Y 10.4633 Z -1.0000
G03 X 13.7834 Y 10.4078 Z -1.0000 I 0.0736 J 0.0209
G01 X 13.7891 Y 10.4032 Z -1.0000
G01 X 13.7799 Y 10.3879 Z -1.0000
G03 X 13.7978 Y 10.3226 Z -1.0000 I 0.2131 J 0.0230
G02 X 13.8155 Y 10.2821 Z -1.0000 I -1.4784 J -0.6708
G02 X 13.8211 Y 10.2672 Z -1.0000 I -0.1926 J -0.0811
G01 X 13.8310 Y 10.2669 Z -1.0000
G03 X 13.8404 Y 10.3128 Z -1.0000 I -0.1090 J 0.0463
G01 X 13.8405 Y 10.3128 Z -1.0000
G00 Z 5.0000

(End cutting path id: path632)


(Start cutting path id: path632)
(Change tool to Default tool)

G00 Z 5.0000
G00 X 13.8764 Y 10.3298

G01 Z -1.0000 F 100.0000(Penetrate)
G01 X 13.8726 Y 10.3204 Z -1.0000 F 3500.0000
G01 X 13.8761 Y 10.3069 Z -1.0000
G01 X 13.8780 Y 10.3165 Z -1.0000
G03 X 13.8764 Y 10.3298 Z -1.0000 I -0.0513 J 0.0005
G01 X 13.8764 Y 10.3298 Z -1.0000
G00 Z 5.0000

(End cutting path id: path632)


(Start cutting path id: path632)
(Change tool to Default tool)

G00 Z 5.0000
G00 X 13.6608 Y 10.1983

G01 Z -1.0000 F 100.0000(Penetrate)
G02 X 13.6768 Y 10.3636 Z -1.0000 I 4.6012 J -0.3630 F 3500.0000
G02 X 13.6916 Y 10.4654 Z -1.0000 I 1.7427 J -0.2008
G03 X 13.7061 Y 10.5586 Z -1.0000 I -2.4049 J 0.4213
G03 X 13.7224 Y 10.6925 Z -1.0000 I -4.9571 J 0.6724
G03 X 13.7212 Y 10.7242 Z -1.0000 I -0.1086 J 0.0117
G01 X 13.7157 Y 10.7287 Z -1.0000
G01 X 13.7070 Y 10.7236 Z -1.0000
G03 X 13.6844 Y 10.6716 Z -1.0000 I 0.2706 J -0.1484
G03 X 13.6790 Y 10.6462 Z -1.0000 I 0.1140 J -0.0375
G03 X 13.6616 Y 10.4463 Z -1.0000 I 7.1307 J -0.7225
G02 X 13.6585 Y 10.4197 Z -1.0000 I -0.3208 J 0.0239
G02 X 13.6548 Y 10.4042 Z -1.0000 I -0.1031 J 0.0164
G03 X 13.6518 Y 10.3886 Z -1.0000 I 0.0613 J -0.0197
G03 X 13.6467 Y 10.2783 Z -1.0000 I 3.2367 J -0.2062
G02 X 13.6428 Y 10.1679 Z -1.0000 I -10.9646 J 0.3246
G01 X 13.6419 Y 10.1602 Z -1.0000
G01 X 13.6431 Y 10.1391 Z -1.0000
G01 X 13.6493 Y 10.1376 Z -1.0000
G01 X 13.6538 Y 10.1462 Z -1.0000
G03 X 13.6607 Y 10.1983 Z -1.0000 I -0.4854 J 0.0908
G01 X 13.6608 Y 10.1983 Z -1.0000
G00 Z 5.0000

(End cutting path id: path632)


(Start cutting path id: path632)
(Change tool to Default tool)

G00 Z 5.0000
G00 X 13.5238 Y 10.2689

G01 Z -1.0000 F 100.0000(Penetrate)
G02 X 13.5020 Y 10.3458 Z -1.0000 I 0.3418 J 0.1389 F 3500.0000
G02 X 13.5024 Y 10.3945 Z -1.0000 I 0.1350 J 0.0230
G02 X 13.5093 Y 10.4130 Z -1.0000 I 0.0568 J -0.0108
G02 X 13.5238 Y 10.4311 Z -1.0000 I 0.0701 J -0.0410
G01 X 13.5414 Y 10.4476 Z -1.0000
G01 X 13.5466 Y 10.4237 Z -1.0000
G02 X 13.5574 Y 10.2764 Z -1.0000 I -0.5123 J -0.1117
G01 X 13.5351 Y 10.2556 Z -1.0000
G01 X 13.5307 Y 10.2576 Z -1.0000
G01 X 13.5238 Y 10.2689 Z -1.0000
G01 X 13.5238 Y 10.2689 Z -1.0000
G00 Z 5.0000

(End cutting path id: path632)


(Start cutting path id: path632)
(Change tool to Default tool)

G00 Z 5.0000
G00 X 13.2605 Y 10.4531

G01 Z -1.0000 F 100.0000(Penetrate)
G01 X 13.2630 Y 10.4670 Z -1.0000 F 3500.0000
G01 X 13.2681 Y 10.4731 Z -1.0000
G01 X 13.2726 Y 10.4722 Z -1.0000
G01 X 13.2757 Y 10.4625 Z -1.0000
G01 X 13.2732 Y 10.4487 Z -1.0000
G01 X 13.2681 Y 10.4426 Z -1.0000
G01 X 13.2636 Y 10.4435 Z -1.0000
G01 X 13.2605 Y 10.4531 Z -1.0000
G01 X 13.2605 Y 10.4531 Z -1.0000
G00 Z 5.0000

(End cutting path id: path632)


(Start cutting path id: path632)
(Change tool to Default tool)

G00 Z 5.0000
G00 X 13.4461 Y 10.9672

G01 Z -1.0000 F 100.0000(Penetrate)
G02 X 13.4504 Y 10.9843 Z -1.0000 I 0.4274 J -0.1000 F 3500.0000
G02 X 13.4555 Y 11.0016 Z -1.0000 I 0.6189 J -0.1713
G01 X 13.4564 Y 11.0155 Z -1.0000
G01 X 13.4527 Y 11.0187 Z -1.0000
G01 X 13.4386 Y 11.0091 Z -1.0000
G03 X 13.4286 Y 10.9558 Z -1.0000 I 0.1424 J -0.0545
G01 X 13.4354 Y 10.9520 Z -1.0000
G01 X 13.4461 Y 10.9672 Z -1.0000
G01 X 13.4461 Y 10.9672 Z -1.0000
G00 Z 5.0000

(End cutting path id: path632)


(Start cutting path id: path632)
(Change tool to Default tool)

G00 Z 5.0000
G00 X 13.3993 Y 11.2649

G01 Z -1.0000 F 100.0000(Penetrate)
G03 X 13.4112 Y 11.2899 Z -1.0000 I -0.6877 J 0.3428 F 3500.0000
G03 X 13.4174 Y 11.3049 Z -1.0000 I -0.2064 J 0.0938
G01 X 13.4231 Y 11.3074 Z -1.0000
G01 X 13.4311 Y 11.2993 Z -1.0000
G03 X 13.4407 Y 11.2807 Z -1.0000 I 0.0859 J 0.0327
G01 X 13.4452 Y 11.2783 Z -1.0000
G01 X 13.4489 Y 11.2758 Z -1.0000
G01 X 13.4514 Y 11.2630 Z -1.0000
G01 X 13.4623 Y 11.2527 Z -1.0000
G01 X 13.4795 Y 11.2645 Z -1.0000
G03 X 13.4844 Y 11.3480 Z -1.0000 I -0.1082 J 0.0483
G01 X 13.4443 Y 11.3775 Z -1.0000
G01 X 13.4389 Y 11.3803 Z -1.0000
G01 X 13.4361 Y 11.3889 Z -1.0000
G01 X 13.4395 Y 11.3970 Z -1.0000
G01 X 13.4476 Y 11.4004 Z -1.0000
G01 X 13.4560 Y 11.3974 Z -1.0000
G01 X 13.4590 Y 11.3912 Z -1.0000
G01 X 13.4614 Y 11.3880 Z -1.0000
G01 X 13.4661 Y 11.3893 Z -1.0000
G01 X 13.4713 Y 11.4012 Z -1.0000
G03 X 13.4746 Y 11.5782 Z -1.0000 I -3.3769 J 0.1526
G02 X 13.4775 Y 11.6369 Z -1.0000 I 0.5269 J 0.0038
G01 X 13.4824 Y 11.6530 Z -1.0000
G03 X 13.5040 Y 11.7221 Z -1.0000 I -0.1702 J 0.0911
G03 X 13.4969 Y 11.7791 Z -1.0000 I -0.1208 J 0.0138
G01 X 13.4941 Y 11.7990 Z -1.0000
G01 X 13.4993 Y 11.8084 Z -1.0000
G01 X 13.5066 Y 11.8184 Z -1.0000
G03 X 13.5309 Y 11.9002 Z -1.0000 I -0.9475 J 0.3258
G02 X 13.5527 Y 11.9839 Z -1.0000 I 4.5033 J -1.1314
G02 X 13.5568 Y 11.9956 Z -1.0000 I 0.0915 J -0.0248
G01 X 13.5596 Y 12.0075 Z -1.0000
G03 X 13.5624 Y 12.0643 Z -1.0000 I -0.8021 J 0.0671
G02 X 13.5671 Y 12.1210 Z -1.0000 I 0.4089 J -0.0059
G02 X 13.5806 Y 12.1826 Z -1.0000 I 0.5002 J -0.0774
G03 X 13.6060 Y 12.2767 Z -1.0000 I -2.9658 J 0.8485
G03 X 13.6422 Y 12.4268 Z -1.0000 I -7.5327 J 1.8999
G02 X 13.6568 Y 12.4878 Z -1.0000 I 4.5235 J -1.0507
G02 X 13.6639 Y 12.5146 Z -1.0000 I 0.7772 J -0.1916
G03 X 13.6715 Y 12.5413 Z -1.0000 I -10.8885 J 3.1131
G02 X 13.6867 Y 12.5947 Z -1.0000 I 214.7027 J -60.8159
G03 X 13.7031 Y 12.6618 Z -1.0000 I -0.9038 J 0.2564
G03 X 13.7146 Y 12.7302 Z -1.0000 I -0.9327 J 0.1919
G02 X 13.7178 Y 12.7471 Z -1.0000 I 0.1406 J -0.0180
G02 X 13.7221 Y 12.7600 Z -1.0000 I 0.0885 J -0.0224
G01 X 13.7172 Y 12.7762 Z -1.0000
G01 X 13.7024 Y 12.7732 Z -1.0000
G01 X 13.6983 Y 12.7621 Z -1.0000
G01 X 13.6991 Y 12.7479 Z -1.0000
G01 X 13.6988 Y 12.7346 Z -1.0000
G01 X 13.6923 Y 12.7250 Z -1.0000
G03 X 13.6729 Y 12.6962 Z -1.0000 I 0.0357 J -0.0450
G03 X 13.6340 Y 12.5260 Z -1.0000 I 1.3890 J -0.4068
G02 X 13.6233 Y 12.4734 Z -1.0000 I -0.7319 J 0.1221
G01 X 13.6192 Y 12.4650 Z -1.0000
G01 X 13.6149 Y 12.4566 Z -1.0000
G03 X 13.6048 Y 12.4121 Z -1.0000 I 0.5543 J -0.1492
G02 X 13.5948 Y 12.3672 Z -1.0000 I -0.6008 J 0.1109
G02 X 13.5817 Y 12.3243 Z -1.0000 I -0.5534 J 0.1459
G03 X 13.5476 Y 12.2116 Z -1.0000 I 1.3154 J -0.4594
G03 X 13.5323 Y 12.1320 Z -1.0000 I 0.6375 J -0.1638
G02 X 13.5268 Y 12.1070 Z -1.0000 I -0.1424 J 0.0181
G02 X 13.5170 Y 12.0834 Z -1.0000 I -0.1379 J 0.0435
G03 X 13.5092 Y 12.0595 Z -1.0000 I 0.0679 J -0.0354
G03 X 13.5050 Y 12.0036 Z -1.0000 I 0.3708 J -0.0562
G02 X 13.5005 Y 11.9574 Z -1.0000 I -0.2449 J 0.0002
G01 X 13.4958 Y 11.9559 Z -1.0000
G01 X 13.4804 Y 11.9628 Z -1.0000
G01 X 13.4744 Y 11.9571 Z -1.0000
G01 X 13.4726 Y 11.9498 Z -1.0000
G02 X 13.4592 Y 11.9285 Z -1.0000 I -0.1502 J 0.0795
G03 X 13.4476 Y 11.9065 Z -1.0000 I 0.0692 J -0.0505
G03 X 13.4399 Y 11.8735 Z -1.0000 I 0.1460 J -0.0514
G02 X 13.4131 Y 11.7595 Z -1.0000 I -0.5210 J 0.0624
G01 X 13.3987 Y 11.7579 Z -1.0000
G01 X 13.3922 Y 11.6982 Z -1.0000
G01 X 13.3901 Y 11.6313 Z -1.0000
G01 X 13.4093 Y 11.6350 Z -1.0000
G01 X 13.4252 Y 11.6346 Z -1.0000
G01 X 13.4286 Y 11.6302 Z -1.0000
G01 X 13.4256 Y 11.6247 Z -1.0000
G01 X 13.4152 Y 11.6214 Z -1.0000
G01 X 13.4117 Y 11.6180 Z -1.0000
G01 X 13.4148 Y 11.6113 Z -1.0000
G01 X 13.4212 Y 11.5989 Z -1.0000
G02 X 13.4169 Y 11.5410 Z -1.0000 I -0.2799 J -0.0084
G02 X 13.4053 Y 11.4807 Z -1.0000 I -2.5644 J 0.4625
G02 X 13.3990 Y 11.4538 Z -1.0000 I -0.4773 J 0.0978
G03 X 13.3927 Y 11.4269 Z -1.0000 I 0.4476 J -0.1188
G03 X 13.3787 Y 11.3535 Z -1.0000 I 3.3926 J -0.6872
G03 X 13.3809 Y 11.2671 Z -1.0000 I 0.2101 J -0.0379
G01 X 13.3994 Y 11.2649 Z -1.0000
G01 X 13.3993 Y 11.2649 Z -1.0000
G00 Z 5.0000

(End cutting path id: path632)


(Start cutting path id: path632)
(Change tool to Default tool)

G00 Z 5.0000
G00 X 13.3724 Y 11.4858

G01 Z -1.0000 F 100.0000(Penetrate)
G01 X 13.3669 Y 11.5072 Z -1.0000 F 3500.0000
G03 X 13.3505 Y 11.4419 Z -1.0000 I 0.1871 J -0.0818
G01 X 13.3612 Y 11.4369 Z -1.0000
G01 X 13.3666 Y 11.4467 Z -1.0000
G03 X 13.3724 Y 11.4858 Z -1.0000 I -0.2499 J 0.0570
G01 X 13.3724 Y 11.4858 Z -1.0000
G00 Z 5.0000

(End cutting path id: path632)


(Start cutting path id: path632)
(Change tool to Default tool)

G00 Z 5.0000
G00 X 13.4904 Y 11.9168

G01 Z -1.0000 F 100.0000(Penetrate)
G03 X 13.4889 Y 11.9256 Z -1.0000 I -0.0595 J -0.0059 F 3500.0000
G03 X 13.4846 Y 11.9397 Z -1.0000 I -0.1600 J -0.0405
G01 X 13.4891 Y 11.9450 Z -1.0000
G01 X 13.4949 Y 11.9352 Z -1.0000
G01 X 13.4949 Y 11.9221 Z -1.0000
G01 X 13.4904 Y 11.9168 Z -1.0000
G01 X 13.4904 Y 11.9168 Z -1.0000
G00 Z 5.0000

(End cutting path id: path632)


(Start cutting path id: path632)
(Change tool to Default tool)

G00 Z 5.0000
G00 X 13.3722 Y 12.1960

G01 Z -1.0000 F 100.0000(Penetrate)
G02 X 13.3796 Y 12.2266 Z -1.0000 I 0.1906 J -0.0299 F 3500.0000
G01 X 13.3838 Y 12.2309 Z -1.0000
G01 X 13.3878 Y 12.2352 Z -1.0000
G01 X 13.3903 Y 12.2494 Z -1.0000
G01 X 13.3951 Y 12.2604 Z -1.0000
G02 X 13.4138 Y 12.1960 Z -1.0000 I -0.0493 J -0.0493
G01 X 13.3733 Y 12.1635 Z -1.0000
G01 X 13.3704 Y 12.1663 Z -1.0000
G02 X 13.3722 Y 12.1960 Z -1.0000 I 0.1566 J 0.0053
G01 X 13.3722 Y 12.1960 Z -1.0000
G00 Z 5.0000

(End cutting path id: path632)


(Start cutting path id: path632)
(Change tool to Default tool)

G00 Z 5.0000
G00 X 13.4018 Y 12.3292

G01 Z -1.0000 F 100.0000(Penetrate)
G02 X 13.4186 Y 12.4098 Z -1.0000 I 1.4833 J -0.2683 F 3500.0000
G02 X 13.4408 Y 12.4931 Z -1.0000 I 1.6058 J -0.3820
G03 X 13.4495 Y 12.5292 Z -1.0000 I -0.3692 J 0.1088
G03 X 13.4513 Y 12.5475 Z -1.0000 I -0.0954 J 0.0184
G01 X 13.4546 Y 12.5646 Z -1.0000
G01 X 13.4624 Y 12.5753 Z -1.0000
G01 X 13.4674 Y 12.5739 Z -1.0000
G01 X 13.4690 Y 12.5553 Z -1.0000
G02 X 13.4175 Y 12.2985 Z -1.0000 I -2.8164 J 0.4307
G01 X 13.4006 Y 12.2802 Z -1.0000
G01 X 13.3970 Y 12.2828 Z -1.0000
G02 X 13.4018 Y 12.3292 Z -1.0000 I 0.3054 J -0.0076
G01 X 13.4018 Y 12.3292 Z -1.0000
G00 Z 5.0000

(End cutting path id: path632)


(Start cutting path id: path632)
(Change tool to Default tool)

G00 Z 5.0000
G00 X 13.1146 Y 12.0882

G01 Z -1.0000 F 100.0000(Penetrate)
G03 X 13.1164 Y 12.1460 Z -1.0000 I -0.1594 J 0.0340 F 3500.0000
G01 X 13.1038 Y 12.1611 Z -1.0000
G01 X 13.0751 Y 12.1465 Z -1.0000
G01 X 13.0842 Y 12.0996 Z -1.0000
G01 X 13.0875 Y 12.0901 Z -1.0000
G01 X 13.0837 Y 12.0813 Z -1.0000
G01 X 13.0803 Y 12.0723 Z -1.0000
G01 X 13.0851 Y 12.0605 Z -1.0000
G01 X 13.0985 Y 12.0596 Z -1.0000
G03 X 13.1146 Y 12.0882 Z -1.0000 I -0.0374 J 0.0400
G01 X 13.1146 Y 12.0882 Z -1.0000
G00 Z 5.0000

(End cutting path id: path632)


(Start cutting path id: path632)
(Change tool to Default tool)

G00 Z 5.0000
G00 X 12.7125 Y 11.8794

G01 Z -1.0000 F 100.0000(Penetrate)
G01 X 12.7080 Y 11.8965 Z -1.0000 F 3500.0000
G01 X 12.7125 Y 11.9137 Z -1.0000
G01 X 12.7221 Y 11.9309 Z -1.0000
G01 X 12.7247 Y 11.9137 Z -1.0000
G02 X 12.7259 Y 11.8966 Z -1.0000 I -0.1150 J -0.0171
G02 X 12.7247 Y 11.8794 Z -1.0000 I -0.1173 J 0.0000
G01 X 12.7221 Y 11.8622 Z -1.0000
G01 X 12.7125 Y 11.8794 Z -1.0000
G00 Z 5.0000

(End cutting path id: path632)


(Start cutting path id: path632)
(Change tool to Default tool)

G00 Z 5.0000
G00 X 13.8914 Y 11.9441

G01 Z -1.0000 F 100.0000(Penetrate)
G01 X 13.8876 Y 11.9346 Z -1.0000 F 3500.0000
G01 X 13.8914 Y 11.9251 Z -1.0000
G01 X 13.8933 Y 11.9346 Z -1.0000
G01 X 13.8914 Y 11.9442 Z -1.0000
G01 X 13.8914 Y 11.9441 Z -1.0000
G00 Z 5.0000

(End cutting path id: path632)


(Start cutting path id: path632)
(Change tool to Default tool)

G00 Z 5.0000
G00 X 13.9239 Y 12.0452

G01 Z -1.0000 F 100.0000(Penetrate)
G01 X 13.9235 Y 12.0605 Z -1.0000 F 3500.0000
G01 X 13.9169 Y 12.0452 Z -1.0000
G03 X 13.9116 Y 12.0297 Z -1.0000 I 0.0997 J -0.0427
G03 X 13.9099 Y 12.0185 Z -1.0000 I 0.0533 J -0.0138
G01 X 13.9169 Y 12.0185 Z -1.0000
G01 X 13.9222 Y 12.0306 Z -1.0000
G03 X 13.9239 Y 12.0452 Z -1.0000 I -0.0517 J 0.0134
G01 X 13.9239 Y 12.0452 Z -1.0000
G00 Z 5.0000

(End cutting path id: path632)


(Start cutting path id: path632)
(Change tool to Default tool)

G00 Z 5.0000
G00 X 13.9398 Y 12.1072

G01 Z -1.0000 F 100.0000(Penetrate)
G01 X 13.9370 Y 12.1135 Z -1.0000 F 3500.0000
G01 X 13.9322 Y 12.1139 Z -1.0000
G01 X 13.9269 Y 12.1079 Z -1.0000
G01 X 13.9246 Y 12.0977 Z -1.0000
G01 X 13.9275 Y 12.0914 Z -1.0000
G01 X 13.9322 Y 12.0910 Z -1.0000
G01 X 13.9376 Y 12.0970 Z -1.0000
G01 X 13.9398 Y 12.1072 Z -1.0000
G01 X 13.9398 Y 12.1072 Z -1.0000
G00 Z 5.0000

(End cutting path id: path632)


(Start cutting path id: path632)
(Change tool to Default tool)

G00 Z 5.0000
G00 X 13.9450 Y 12.1650

G01 Z -1.0000 F 100.0000(Penetrate)
G01 X 13.9404 Y 12.1604 Z -1.0000 F 3500.0000
G01 X 13.9444 Y 12.1503 Z -1.0000
G01 X 13.9466 Y 12.1554 Z -1.0000
G01 X 13.9450 Y 12.1650 Z -1.0000
G01 X 13.9450 Y 12.1650 Z -1.0000
G00 Z 5.0000

(End cutting path id: path632)


(Start cutting path id: path632)
(Change tool to Default tool)

G00 Z 5.0000
G00 X 14.0435 Y 12.1693

G01 Z -1.0000 F 100.0000(Penetrate)
G03 X 14.0815 Y 12.2803 Z -1.0000 I -0.6877 J 0.2968 F 3500.0000
G03 X 14.1124 Y 12.4383 Z -1.0000 I -1.3678 J 0.3503
G02 X 14.1182 Y 12.4639 Z -1.0000 I 0.1489 J -0.0203
G01 X 14.1234 Y 12.4722 Z -1.0000
G01 X 14.1281 Y 12.4805 Z -1.0000
G03 X 14.1304 Y 12.4990 Z -1.0000 I -0.0685 J 0.0178
G01 X 14.1247 Y 12.5002 Z -1.0000
G03 X 14.0893 Y 12.4135 Z -1.0000 I 0.7012 J -0.3370
G03 X 14.0162 Y 12.1547 Z -1.0000 I 2.4369 J -0.8274
G01 X 14.0275 Y 12.1406 Z -1.0000
G01 X 14.0301 Y 12.1422 Z -1.0000
G03 X 14.0435 Y 12.1693 Z -1.0000 I -0.2426 J 0.1372
G01 X 14.0435 Y 12.1693 Z -1.0000
G00 Z 5.0000

(End cutting path id: path632)


(Start cutting path id: path632)
(Change tool to Default tool)

G00 Z 5.0000
G00 X 14.2067 Y 12.7855

G01 Z -1.0000 F 100.0000(Penetrate)
G01 X 14.1993 Y 12.7817 Z -1.0000 F 3500.0000
G03 X 14.1932 Y 12.7699 Z -1.0000 I 0.0534 J -0.0348
G01 X 14.1919 Y 12.7627 Z -1.0000
G01 X 14.1993 Y 12.7665 Z -1.0000
G03 X 14.2053 Y 12.7783 Z -1.0000 I -0.0534 J 0.0348
G01 X 14.2067 Y 12.7855 Z -1.0000
G01 X 14.2067 Y 12.7855 Z -1.0000
G00 Z 5.0000

(End cutting path id: path632)


(Start cutting path id: path632)
(Change tool to Default tool)

G00 Z 5.0000
G00 X 14.0075 Y 12.9712

G01 Z -1.0000 F 100.0000(Penetrate)
G03 X 14.0405 Y 13.0943 Z -1.0000 I -2.1964 J 0.6550 F 3500.0000
G03 X 14.0497 Y 13.1480 Z -1.0000 I -0.4081 J 0.0974
G01 X 14.0431 Y 13.1671 Z -1.0000
G03 X 14.0335 Y 13.1439 Z -1.0000 I 0.1899 J -0.0920
G01 X 14.0318 Y 13.1345 Z -1.0000
G01 X 14.0287 Y 13.1266 Z -1.0000
G01 X 14.0200 Y 13.1203 Z -1.0000
G01 X 14.0127 Y 13.1131 Z -1.0000
G03 X 14.0085 Y 13.0913 Z -1.0000 I 0.0554 J -0.0218
G02 X 14.0064 Y 13.0675 Z -1.0000 I -0.1357 J -0.0000
G01 X 14.0032 Y 13.0613 Z -1.0000
G01 X 13.9990 Y 13.0555 Z -1.0000
G01 X 13.9960 Y 13.0467 Z -1.0000
G02 X 13.9935 Y 13.0376 Z -1.0000 I -0.0838 J 0.0181
G02 X 13.9826 Y 13.0069 Z -1.0000 I -0.8114 J 0.2716
G03 X 13.9741 Y 12.9758 Z -1.0000 I 0.1630 J -0.0612
G03 X 13.9708 Y 12.9391 Z -1.0000 I 0.2200 J -0.0386
G03 X 13.9755 Y 12.9126 Z -1.0000 I 0.0730 J -0.0007
G01 X 13.9814 Y 12.9111 Z -1.0000
G01 X 13.9896 Y 12.9220 Z -1.0000
G03 X 14.0076 Y 12.9712 Z -1.0000 I -0.3939 J 0.1720
G01 X 14.0075 Y 12.9712 Z -1.0000
G00 Z 5.0000

(End cutting path id: path632)


(Start cutting path id: path632)
(Change tool to Default tool)

G00 Z 5.0000
G00 X 14.0671 Y 13.2258

G01 Z -1.0000 F 100.0000(Penetrate)
G01 X 14.0625 Y 13.2212 Z -1.0000 F 3500.0000
G01 X 14.0665 Y 13.2112 Z -1.0000
G01 X 14.0688 Y 13.2162 Z -1.0000
G01 X 14.0671 Y 13.2258 Z -1.0000
G01 X 14.0671 Y 13.2258 Z -1.0000
G00 Z 5.0000

(End cutting path id: path632)


(Start cutting path id: path632)
(Change tool to Default tool)

G00 Z 5.0000
G00 X 13.5737 Y 13.1748

G01 Z -1.0000 F 100.0000(Penetrate)
G01 X 13.5750 Y 13.1820 Z -1.0000 F 3500.0000
G02 X 13.5811 Y 13.1939 Z -1.0000 I 0.0595 J -0.0229
G01 X 13.5885 Y 13.1977 Z -1.0000
G01 X 13.5871 Y 13.1905 Z -1.0000
G02 X 13.5811 Y 13.1786 Z -1.0000 I -0.0595 J 0.0229
G01 X 13.5737 Y 13.1748 Z -1.0000
G01 X 13.5737 Y 13.1748 Z -1.0000
G00 Z 5.0000

(End cutting path id: path632)


(Start cutting path id: path632)
(Change tool to Default tool)

G00 Z 5.0000
G00 X 13.5658 Y 12.7593

G01 Z -1.0000 F 100.0000(Penetrate)
G01 X 13.5681 Y 12.7719 Z -1.0000 F 3500.0000
G01 X 13.5725 Y 12.7773 Z -1.0000
G01 X 13.5763 Y 12.7832 Z -1.0000
G03 X 13.5798 Y 12.8331 Z -1.0000 I -0.4135 J 0.0543
G02 X 13.5829 Y 12.8844 Z -1.0000 I 0.5190 J -0.0056
G02 X 13.5884 Y 12.9114 Z -1.0000 I 0.1511 J -0.0167
G03 X 13.5943 Y 12.9454 Z -1.0000 I -0.1368 J 0.0411
G01 X 13.5903 Y 12.9496 Z -1.0000
G01 X 13.5647 Y 12.9313 Z -1.0000
G03 X 13.5587 Y 12.8577 Z -1.0000 I 0.1412 J -0.0484
G01 X 13.5590 Y 12.8468 Z -1.0000
G01 X 13.5561 Y 12.8351 Z -1.0000
G03 X 13.5377 Y 12.7677 Z -1.0000 I 0.3005 J -0.1184
G03 X 13.5408 Y 12.7384 Z -1.0000 I 0.0560 J -0.0089
G01 X 13.5544 Y 12.7348 Z -1.0000
G01 X 13.5659 Y 12.7593 Z -1.0000
G01 X 13.5658 Y 12.7593 Z -1.0000
G00 Z 5.0000

(End cutting path id: path632)


(Start cutting path id: path632)
(Change tool to Default tool)

G00 Z 5.0000
G00 X 13.8740 Y 11.2290

G01 Z -1.0000 F 100.0000(Penetrate)
G01 X 13.8710 Y 11.2362 Z -1.0000 F 3500.0000
G01 X 13.8653 Y 11.2305 Z -1.0000
G01 X 13.8635 Y 11.2244 Z -1.0000
G01 X 13.8673 Y 11.2219 Z -1.0000
G01 X 13.8741 Y 11.2291 Z -1.0000
G01 X 13.8740 Y 11.2290 Z -1.0000
G00 Z 5.0000

(End cutting path id: path632)


(Start cutting path id: path632)
(Change tool to Default tool)

G00 Z 5.0000
G00 X 13.7629 Y 10.9558

G01 Z -1.0000 F 100.0000(Penetrate)
G03 X 13.7822 Y 11.0348 Z -1.0000 I -0.6767 J 0.2066 F 3500.0000
G03 X 13.7946 Y 11.1283 Z -1.0000 I -0.9356 J 0.1715
G02 X 13.8037 Y 11.2052 Z -1.0000 I 1.0446 J -0.0858
G02 X 13.8121 Y 11.2401 Z -1.0000 I 0.2239 J -0.0352
G03 X 13.8223 Y 11.2747 Z -1.0000 I -0.6363 J 0.2055
G03 X 13.8332 Y 11.3202 Z -1.0000 I -1.0004 J 0.2644
G02 X 13.8443 Y 11.3656 Z -1.0000 I 0.8802 J -0.1922
G02 X 13.8491 Y 11.3782 Z -1.0000 I 0.0678 J -0.0185
G03 X 13.8562 Y 11.3985 Z -1.0000 I -0.0760 J 0.0377
G03 X 13.8969 Y 11.6064 Z -1.0000 I -8.1675 J 1.7079
G02 X 13.9204 Y 11.7136 Z -1.0000 I 1.5416 J -0.2818
G02 X 13.9801 Y 11.9309 Z -1.0000 I 6.3897 J -1.6374
G03 X 14.0106 Y 12.0460 Z -1.0000 I -2.2270 J 0.6523
G03 X 14.0182 Y 12.0911 Z -1.0000 I -0.3332 J 0.0793
G01 X 14.0228 Y 12.1368 Z -1.0000
G01 X 13.9969 Y 12.0719 Z -1.0000
G03 X 13.9727 Y 12.0067 Z -1.0000 I 1.2891 J -0.5149
G01 X 13.9707 Y 11.9954 Z -1.0000
G01 X 13.9682 Y 11.9845 Z -1.0000
G02 X 13.9578 Y 11.9658 Z -1.0000 I -0.0999 J 0.0437
G01 X 13.9452 Y 11.9479 Z -1.0000
G01 X 13.9363 Y 11.9696 Z -1.0000
G01 X 13.9283 Y 11.9711 Z -1.0000
G03 X 13.9127 Y 11.9446 Z -1.0000 I 0.0500 J -0.0473
G01 X 13.8930 Y 11.9009 Z -1.0000
G01 X 13.8873 Y 11.8868 Z -1.0000
G02 X 13.8817 Y 11.8196 Z -1.0000 I -0.8949 J 0.0405
G01 X 13.8778 Y 11.8086 Z -1.0000
G01 X 13.8742 Y 11.8005 Z -1.0000
G03 X 13.8675 Y 11.7667 Z -1.0000 I 0.3988 J -0.0972
G02 X 13.8611 Y 11.7325 Z -1.0000 I -0.6030 J 0.0958
G02 X 13.8475 Y 11.6751 Z -1.0000 I -1.6633 J 0.3622
G03 X 13.8351 Y 11.6175 Z -1.0000 I 0.7896 J -0.2007
G03 X 13.8305 Y 11.5797 Z -1.0000 I 0.3342 J -0.0596
G02 X 13.8250 Y 11.5424 Z -1.0000 I -0.2217 J 0.0137
G02 X 13.8162 Y 11.5186 Z -1.0000 I -0.1012 J 0.0239
G03 X 13.7871 Y 11.4459 Z -1.0000 I 0.3594 J -0.1859
G03 X 13.7796 Y 11.3929 Z -1.0000 I 0.1820 J -0.0530
G01 X 13.7766 Y 11.3776 Z -1.0000
G01 X 13.7681 Y 11.3649 Z -1.0000
G01 X 13.7598 Y 11.3521 Z -1.0000
G01 X 13.7567 Y 11.3355 Z -1.0000
G02 X 13.7553 Y 11.3178 Z -1.0000 I -0.1151 J 0.0000
G02 X 13.7521 Y 11.3056 Z -1.0000 I -0.0611 J 0.0095
G01 X 13.7516 Y 11.2963 Z -1.0000
G01 X 13.7553 Y 11.2935 Z -1.0000
G01 X 13.7609 Y 11.2966 Z -1.0000
G03 X 13.7720 Y 11.3203 Z -1.0000 I -0.0931 J 0.0581
G02 X 13.7828 Y 11.3417 Z -1.0000 I 0.0781 J -0.0260
G01 X 13.7878 Y 11.3427 Z -1.0000
G01 X 13.8046 Y 11.3105 Z -1.0000
G02 X 13.7789 Y 11.1821 Z -1.0000 I -0.4638 J 0.0260
G03 X 13.7252 Y 10.9528 Z -1.0000 I 1.0213 J -0.3605
G01 X 13.7478 Y 10.9272 Z -1.0000
G01 X 13.7523 Y 10.9298 Z -1.0000
G03 X 13.7630 Y 10.9558 Z -1.0000 I -0.1296 J 0.0688
G01 X 13.7629 Y 10.9558 Z -1.0000
G00 Z 5.0000

(End cutting path id: path632)


(Start cutting path id: path632)
(Change tool to Default tool)

G00 Z 5.0000
G00 X 13.7943 Y 10.7311

G01 Z -1.0000 F 100.0000(Penetrate)
G01 X 13.7872 Y 10.7402 Z -1.0000 F 3500.0000
G03 X 13.7801 Y 10.7060 Z -1.0000 I 0.0792 J -0.0342
G01 X 13.7872 Y 10.7020 Z -1.0000
G01 X 13.7918 Y 10.7084 Z -1.0000
G03 X 13.7943 Y 10.7311 Z -1.0000 I -0.0849 J 0.0208
G01 X 13.7943 Y 10.7311 Z -1.0000
G00 Z 5.0000

(End cutting path id: path632)


(Start cutting path id: path632)
(Change tool to Default tool)

G00 Z 5.0000
G00 X 14.3213 Y 9.4931

G01 Z -1.0000 F 100.0000(Penetrate)
G01 X 14.3259 Y 9.5004 Z -1.0000 F 3500.0000
G01 X 14.3232 Y 9.5051 Z -1.0000
G01 X 14.3175 Y 9.5114 Z -1.0000
G02 X 14.3137 Y 9.5373 Z -1.0000 I 0.0877 J 0.0259
G03 X 14.3029 Y 9.5732 Z -1.0000 I -0.0646 J 0.0000
G01 X 14.2826 Y 9.5840 Z -1.0000
G01 X 14.2711 Y 9.5868 Z -1.0000
G01 X 14.2603 Y 9.5955 Z -1.0000
G01 X 14.2317 Y 9.6062 Z -1.0000
G01 X 14.2043 Y 9.5865 Z -1.0000
G03 X 14.1984 Y 9.5655 Z -1.0000 I 0.0470 J -0.0246
G03 X 14.2010 Y 9.5388 Z -1.0000 I 0.0813 J -0.0056
G03 X 14.2156 Y 9.5132 Z -1.0000 I 0.0570 J 0.0156
G03 X 14.2425 Y 9.4959 Z -1.0000 I 0.0506 J 0.0490
G03 X 14.2962 Y 9.4856 Z -1.0000 I 0.0598 J 0.1678
G01 X 14.3213 Y 9.4932 Z -1.0000
G01 X 14.3213 Y 9.4931 Z -1.0000
G00 Z 5.0000

(End cutting path id: path632)


(Start cutting path id: path632)
(Change tool to Default tool)

G00 Z 5.0000
G00 X 15.0559 Y 9.5203

G01 Z -1.0000 F 100.0000(Penetrate)
G01 X 15.0493 Y 9.5309 Z -1.0000 F 3500.0000
G01 X 15.0570 Y 9.5382 Z -1.0000
G01 X 15.0656 Y 9.5353 Z -1.0000
G01 X 15.0720 Y 9.5267 Z -1.0000
G01 X 15.0692 Y 9.5203 Z -1.0000
G01 X 15.0559 Y 9.5203 Z -1.0000
G01 X 15.0559 Y 9.5203 Z -1.0000
G00 Z 5.0000

(End cutting path id: path632)


(Start cutting path id: path632)
(Change tool to Default tool)

G00 Z 5.0000
G00 X 15.1589 Y 9.3949

G01 Z -1.0000 F 100.0000(Penetrate)
G02 X 15.0989 Y 9.4279 Z -1.0000 I 0.0238 J 0.1144 F 3500.0000
G01 X 15.0882 Y 9.4677 Z -1.0000
G01 X 15.0877 Y 9.4846 Z -1.0000
G01 X 15.0792 Y 9.4968 Z -1.0000
G01 X 15.0788 Y 9.5028 Z -1.0000
G01 X 15.0903 Y 9.5074 Z -1.0000
G02 X 15.1203 Y 9.5025 Z -1.0000 I 0.0009 J -0.0885
G01 X 15.1242 Y 9.4955 Z -1.0000
G01 X 15.1278 Y 9.4900 Z -1.0000
G03 X 15.1526 Y 9.4893 Z -1.0000 I 0.0142 J 0.0653
G02 X 15.1791 Y 9.4866 Z -1.0000 I 0.0082 J -0.0508
G01 X 15.1924 Y 9.4742 Z -1.0000
G03 X 15.2037 Y 9.4577 Z -1.0000 I 0.0526 J 0.0239
G01 X 15.2119 Y 9.4542 Z -1.0000
G01 X 15.2205 Y 9.4513 Z -1.0000
G01 X 15.2268 Y 9.4428 Z -1.0000
G01 X 15.2336 Y 9.4348 Z -1.0000
G01 X 15.2475 Y 9.4311 Z -1.0000
G01 X 15.2630 Y 9.4282 Z -1.0000
G02 X 15.2784 Y 9.4199 Z -1.0000 I -0.0203 J -0.0555
G01 X 15.2859 Y 9.4081 Z -1.0000
G01 X 15.2832 Y 9.3972 Z -1.0000
G01 X 15.2589 Y 9.3855 Z -1.0000
G02 X 15.1590 Y 9.3949 Z -1.0000 I -0.0084 J 0.4480
G01 X 15.1589 Y 9.3949 Z -1.0000
G00 Z 5.0000

(End cutting path id: path632)


(Start cutting path id: path632)
(Change tool to Default tool)

G00 Z 5.0000
G00 X 16.4125 Y 9.1981

G01 Z -1.0000 F 100.0000(Penetrate)
G01 X 16.4092 Y 9.2066 Z -1.0000 F 3500.0000
G01 X 16.3982 Y 9.2135 Z -1.0000
G01 X 16.3852 Y 9.2200 Z -1.0000
G02 X 16.3703 Y 9.2331 Z -1.0000 I 0.0510 J 0.0729
G03 X 16.3553 Y 9.2452 Z -1.0000 I -0.0451 J -0.0407
G01 X 16.3439 Y 9.2482 Z -1.0000
G01 X 16.3326 Y 9.2514 Z -1.0000
G02 X 16.3133 Y 9.2673 Z -1.0000 I 0.0510 J 0.0819
G03 X 16.2938 Y 9.2829 Z -1.0000 I -0.0665 J -0.0628
G01 X 16.2814 Y 9.2864 Z -1.0000
G01 X 16.2703 Y 9.2892 Z -1.0000
G01 X 16.2675 Y 9.2940 Z -1.0000
G01 X 16.2652 Y 9.3006 Z -1.0000
G03 X 16.2436 Y 9.3244 Z -1.0000 I -0.1789 J -0.1409
G02 X 16.2207 Y 9.3481 Z -1.0000 I 0.2918 J 0.3053
G02 X 16.2034 Y 9.3693 Z -1.0000 I 0.2158 J 0.1931
G03 X 16.1632 Y 9.4112 Z -1.0000 I -0.1821 J -0.1344
G03 X 16.0889 Y 9.4615 Z -1.0000 I -0.3387 J -0.4206
G03 X 16.0529 Y 9.4736 Z -1.0000 I -0.0499 J -0.0887
G03 X 15.9012 Y 9.4872 Z -1.0000 I -0.2214 J -1.6186
G02 X 15.8681 Y 9.4928 Z -1.0000 I 0.0056 J 0.1321
G02 X 15.8401 Y 9.5058 Z -1.0000 I 0.0331 J 0.1082
G03 X 15.8128 Y 9.5219 Z -1.0000 I -0.2345 J -0.3664
G03 X 15.7664 Y 9.5456 Z -1.0000 I -0.5236 J -0.9668
G02 X 15.7219 Y 9.5704 Z -1.0000 I 0.1889 J 0.3920
G01 X 15.7164 Y 9.5774 Z -1.0000
G01 X 15.7107 Y 9.5832 Z -1.0000
G03 X 15.6833 Y 9.5889 Z -1.0000 I -0.0360 J -0.1028
G02 X 15.6551 Y 9.5948 Z -1.0000 I 0.0089 J 0.1129
G01 X 15.6453 Y 9.6021 Z -1.0000
G03 X 15.5811 Y 9.6306 Z -1.0000 I -0.0569 J -0.0416
G03 X 15.5024 Y 9.5872 Z -1.0000 I 0.0120 J -0.1147
G01 X 15.4678 Y 9.5717 Z -1.0000
G02 X 15.4295 Y 9.5918 Z -1.0000 I 0.0034 J 0.0530
G01 X 15.4200 Y 9.6154 Z -1.0000
G02 X 15.4240 Y 9.6496 Z -1.0000 I 0.0819 J 0.0078
G03 X 15.4336 Y 9.6846 Z -1.0000 I -0.2978 J 0.1004
G01 X 15.4323 Y 9.6890 Z -1.0000
G01 X 15.4314 Y 9.6931 Z -1.0000
G02 X 15.4389 Y 9.7077 Z -1.0000 I 0.0584 J -0.0208
G01 X 15.4451 Y 9.7238 Z -1.0000
G03 X 15.4458 Y 9.7621 Z -1.0000 I -0.1783 J 0.0226
G03 X 15.4358 Y 9.7984 Z -1.0000 I -0.1063 J -0.0096
G03 X 15.4141 Y 9.8285 Z -1.0000 I -0.0935 J -0.0447
G03 X 15.3192 Y 9.8826 Z -1.0000 I -0.1548 J -0.1612
G03 X 15.2301 Y 9.8797 Z -1.0000 I -0.0399 J -0.1434
G03 X 15.1920 Y 9.8485 Z -1.0000 I 0.0238 J -0.0679
G03 X 15.1806 Y 9.7962 Z -1.0000 I 0.0732 J -0.0434
G02 X 15.1766 Y 9.7182 Z -1.0000 I -0.2521 J -0.0264
G01 X 15.1618 Y 9.7061 Z -1.0000
G01 X 15.1496 Y 9.7038 Z -1.0000
G01 X 15.1407 Y 9.6982 Z -1.0000
G01 X 15.1319 Y 9.6945 Z -1.0000
G02 X 15.1131 Y 9.6978 Z -1.0000 I -0.0007 J 0.0514
G03 X 15.0722 Y 9.6982 Z -1.0000 I -0.0211 J -0.0556
G01 X 15.0505 Y 9.6756 Z -1.0000
G03 X 15.0390 Y 9.6084 Z -1.0000 I 0.2592 J -0.0788
G03 X 15.0463 Y 9.5765 Z -1.0000 I 0.0619 J -0.0027
G01 X 15.0485 Y 9.5630 Z -1.0000
G01 X 15.0420 Y 9.5502 Z -1.0000
G01 X 15.0143 Y 9.5371 Z -1.0000
G01 X 14.9968 Y 9.5459 Z -1.0000
G01 X 14.9905 Y 9.5508 Z -1.0000
G03 X 14.9734 Y 9.5535 Z -1.0000 I -0.0171 J -0.0528
G01 X 14.9577 Y 9.5564 Z -1.0000
G01 X 14.9548 Y 9.5606 Z -1.0000
G01 X 14.9526 Y 9.5660 Z -1.0000
G01 X 14.9453 Y 9.5702 Z -1.0000
G02 X 14.8743 Y 9.6015 Z -1.0000 I 0.0610 J 0.2346
G02 X 14.8516 Y 9.6309 Z -1.0000 I 0.0304 J 0.0469
G01 X 14.8285 Y 9.6533 Z -1.0000
G01 X 14.8057 Y 9.6447 Z -1.0000
G01 X 14.8008 Y 9.6404 Z -1.0000
G02 X 14.7797 Y 9.6338 Z -1.0000 I -0.0482 J 0.1153
G01 X 14.7565 Y 9.6120 Z -1.0000
G03 X 14.7488 Y 9.5263 Z -1.0000 I 0.2178 J -0.0627
G03 X 14.7600 Y 9.4451 Z -1.0000 I 1.1701 J 0.1192
G03 X 14.7658 Y 9.4283 Z -1.0000 I 0.0543 J 0.0094
G02 X 14.7729 Y 9.4117 Z -1.0000 I -0.0935 J -0.0499
G02 X 14.7836 Y 9.3742 Z -1.0000 I -0.4496 J -0.1492
G03 X 14.7936 Y 9.3363 Z -1.0000 I 0.9728 J 0.2364
G03 X 14.7984 Y 9.3227 Z -1.0000 I 0.1246 J 0.0355
G01 X 14.7979 Y 9.3132 Z -1.0000
G01 X 14.7915 Y 9.3093 Z -1.0000
G01 X 14.7796 Y 9.3073 Z -1.0000
G03 X 14.7638 Y 9.2998 Z -1.0000 I 0.0260 J -0.0754
G01 X 14.7483 Y 9.2962 Z -1.0000
G02 X 14.7251 Y 9.3036 Z -1.0000 I 0.0058 J 0.0583
G03 X 14.7011 Y 9.3144 Z -1.0000 I -0.0688 J -0.1211
G03 X 14.6852 Y 9.3171 Z -1.0000 I -0.0162 J -0.0477
G01 X 14.6792 Y 9.3203 Z -1.0000
G01 X 14.6801 Y 9.3246 Z -1.0000
G01 X 14.6803 Y 9.3290 Z -1.0000
G01 X 14.6686 Y 9.3332 Z -1.0000
G03 X 14.6458 Y 9.3344 Z -1.0000 I -1.5599 J -28.6707
G02 X 14.6305 Y 9.3353 Z -1.0000 I 0.1389 J 2.5902
G03 X 14.6157 Y 9.3344 Z -1.0000 I -0.0037 J -0.0649
G01 X 14.6076 Y 9.3313 Z -1.0000
G02 X 14.5632 Y 9.3183 Z -1.0000 I -0.0443 J 0.0696
G01 X 14.5375 Y 9.3313 Z -1.0000
G01 X 14.5272 Y 9.3372 Z -1.0000
G01 X 14.5126 Y 9.3340 Z -1.0000
G01 X 14.4999 Y 9.3297 Z -1.0000
G01 X 14.4969 Y 9.3325 Z -1.0000
G01 X 14.4944 Y 9.3361 Z -1.0000
G01 X 14.4887 Y 9.3356 Z -1.0000
G01 X 14.4803 Y 9.3344 Z -1.0000
G02 X 14.4448 Y 9.3478 Z -1.0000 I 0.0570 J 0.2045
G03 X 14.4091 Y 9.3650 Z -1.0000 I -51.4989 J -106.5210
G02 X 14.3959 Y 9.3714 Z -1.0000 I 6.7072 J 13.8851
G03 X 14.3822 Y 9.3762 Z -1.0000 I -0.0277 J -0.0578
G03 X 14.3672 Y 9.3778 Z -1.0000 I -0.0150 J -0.0666
G01 X 14.3547 Y 9.3807 Z -1.0000
G01 X 14.3519 Y 9.3852 Z -1.0000
G01 X 14.3454 Y 9.3909 Z -1.0000
G03 X 14.2738 Y 9.3739 Z -1.0000 I 0.0611 J -0.4167
G02 X 14.2469 Y 9.3699 Z -1.0000 I -0.0248 J 0.0744
G01 X 14.2366 Y 9.3749 Z -1.0000
G01 X 14.2266 Y 9.3826 Z -1.0000
G01 X 14.2140 Y 9.3854 Z -1.0000
G01 X 14.2015 Y 9.3878 Z -1.0000
G01 X 14.1954 Y 9.3930 Z -1.0000
G01 X 14.1892 Y 9.3980 Z -1.0000
G01 X 14.1740 Y 9.4009 Z -1.0000
G02 X 14.1405 Y 9.4113 Z -1.0000 I 0.0009 J 0.0618
G01 X 14.1305 Y 9.4300 Z -1.0000
G01 X 14.1274 Y 9.4360 Z -1.0000
G01 X 14.1115 Y 9.4433 Z -1.0000
G01 X 14.0960 Y 9.4509 Z -1.0000
G01 X 14.0924 Y 9.4583 Z -1.0000
G01 X 14.0897 Y 9.4671 Z -1.0000
G01 X 14.0786 Y 9.4784 Z -1.0000
G01 X 14.0680 Y 9.4908 Z -1.0000
G02 X 14.0474 Y 9.5380 Z -1.0000 I 0.3206 J 0.1678
G03 X 14.0277 Y 9.5866 Z -1.0000 I -0.5274 J -0.1856
G03 X 14.0113 Y 9.6164 Z -1.0000 I -0.2199 J -0.1014
G02 X 13.9961 Y 9.6467 Z -1.0000 I 0.1313 J 0.0847
G02 X 13.9730 Y 9.7195 Z -1.0000 I 0.7417 J 0.2754
G03 X 13.9523 Y 9.7933 Z -1.0000 I -2.5483 J -0.6753
G01 X 13.9488 Y 9.8012 Z -1.0000
G01 X 13.9462 Y 9.8092 Z -1.0000
G02 X 13.9464 Y 9.8336 Z -1.0000 I 0.1508 J 0.0113
G03 X 13.9445 Y 9.8549 Z -1.0000 I -0.0608 J 0.0053
G01 X 13.9397 Y 9.8586 Z -1.0000
G01 X 13.9354 Y 9.8550 Z -1.0000
G01 X 13.9356 Y 9.8369 Z -1.0000
G01 X 13.9302 Y 9.8117 Z -1.0000
G01 X 13.9057 Y 9.7964 Z -1.0000
G01 X 13.8942 Y 9.7899 Z -1.0000
G01 X 13.8862 Y 9.7746 Z -1.0000
G01 X 13.8810 Y 9.7674 Z -1.0000
G01 X 13.8766 Y 9.7689 Z -1.0000
G01 X 13.8693 Y 9.7789 Z -1.0000
G01 X 13.8598 Y 9.7822 Z -1.0000
G01 X 13.8490 Y 9.7849 Z -1.0000
G02 X 13.8119 Y 9.8076 Z -1.0000 I 0.1640 J 0.3099
G03 X 13.7431 Y 9.8360 Z -1.0000 I -0.0980 J -0.1399
G01 X 13.7208 Y 9.8234 Z -1.0000
G01 X 13.7197 Y 9.8061 Z -1.0000
G03 X 13.7408 Y 9.7403 Z -1.0000 I 0.4500 J 0.1079
G02 X 13.7470 Y 9.7250 Z -1.0000 I -4.6271 J -1.8729
G02 X 13.7548 Y 9.7053 Z -1.0000 I -5.1273 J -2.0557
G01 X 13.7626 Y 9.6857 Z -1.0000
G01 X 13.7290 Y 9.6908 Z -1.0000
G02 X 13.6960 Y 9.6970 Z -1.0000 I 0.0686 J 0.4537
G01 X 13.6928 Y 9.6990 Z -1.0000
G02 X 13.6747 Y 9.7363 Z -1.0000 I 0.0688 J 0.0564
G02 X 13.6649 Y 9.8256 Z -1.0000 I 0.4084 J 0.0899
G03 X 13.6630 Y 9.8699 Z -1.0000 I -0.5375 J -0.0007
G03 X 13.6536 Y 9.9596 Z -1.0000 I -2.2389 J -0.1881
G02 X 13.6452 Y 10.0488 Z -1.0000 I 1.5425 J 0.1909
G01 X 13.6470 Y 10.0611 Z -1.0000
G01 X 13.6469 Y 10.0721 Z -1.0000
G03 X 13.6344 Y 10.0913 Z -1.0000 I -0.0593 J -0.0247
G02 X 13.6126 Y 10.1364 Z -1.0000 I 0.0611 J 0.0574
G02 X 13.5964 Y 10.3470 Z -1.0000 I 1.4748 J 0.2191
G02 X 13.6019 Y 10.8458 Z -1.0000 I 14.9390 J 0.0846
G02 X 13.6152 Y 11.0224 Z -1.0000 I 1.8779 J -0.0521
G02 X 13.6313 Y 11.1329 Z -1.0000 I 2.4167 J -0.2965
G02 X 13.6682 Y 11.3353 Z -1.0000 I 8.1183 J -1.3767
G03 X 13.6860 Y 11.4269 Z -1.0000 I -375.0557 J 72.9710
G03 X 13.7030 Y 11.5146 Z -1.0000 I -44.1224 J 8.5733
G02 X 13.7201 Y 11.6024 Z -1.0000 I 22.0834 J -4.2547
G02 X 13.7308 Y 11.6558 Z -1.0000 I 6.8810 J -1.3541
G03 X 13.7412 Y 11.7094 Z -1.0000 I -2.8759 J 0.5873
G03 X 13.7527 Y 11.7741 Z -1.0000 I -3.9158 J 0.7242
G02 X 13.7824 Y 11.9159 Z -1.0000 I 1.7865 J -0.3004
G01 X 13.7920 Y 11.9306 Z -1.0000
G01 X 13.7995 Y 11.9400 Z -1.0000
G03 X 13.8206 Y 11.9955 Z -1.0000 I -0.5415 J 0.2383
G02 X 13.8432 Y 12.0633 Z -1.0000 I 4.8018 J -1.5604
G02 X 13.8674 Y 12.1328 Z -1.0000 I 5.0923 J -1.7349
G03 X 13.8765 Y 12.1597 Z -1.0000 I -1.0114 J 0.3580
G03 X 13.9057 Y 12.2511 Z -1.0000 I -10.3898 J 3.3719
G02 X 13.9362 Y 12.3418 Z -1.0000 I 2.4675 J -0.7769
G01 X 13.9409 Y 12.3500 Z -1.0000
G01 X 13.9454 Y 12.3579 Z -1.0000
G01 X 13.9473 Y 12.3702 Z -1.0000
G02 X 13.9572 Y 12.4157 Z -1.0000 I 0.1098 J -0.0000
G02 X 13.9949 Y 12.4747 Z -1.0000 I 0.2256 J -0.1028
G03 X 14.0059 Y 12.4952 Z -1.0000 I -0.0405 J 0.0349
G03 X 14.0839 Y 12.7930 Z -1.0000 I -9.0210 J 2.5213
G02 X 14.1222 Y 12.9454 Z -1.0000 I 12.1776 J -2.9766
G02 X 14.1557 Y 13.0715 Z -1.0000 I 8.3105 J -2.1421
G03 X 14.2244 Y 13.3441 Z -1.0000 I -6.5394 J 1.7921
G03 X 14.2400 Y 13.4379 Z -1.0000 I -0.7566 J 0.1740
G02 X 14.2439 Y 13.4722 Z -1.0000 I 2.2928 J -0.2428
G02 X 14.2493 Y 13.5134 Z -1.0000 I 2.0892 J -0.2529
G03 X 14.2501 Y 13.5472 Z -1.0000 I -0.1501 J 0.0208
G01 X 14.2462 Y 13.5492 Z -1.0000
G01 X 14.2401 Y 13.5423 Z -1.0000
G01 X 14.2374 Y 13.5295 Z -1.0000
G02 X 14.2356 Y 13.5154 Z -1.0000 I -0.0575 J 0.0000
G02 X 14.2188 Y 13.4556 Z -1.0000 I -1.1167 J 0.2819
G03 X 14.2014 Y 13.3956 Z -1.0000 I 1.5062 J -0.4695
G03 X 14.1873 Y 13.3387 Z -1.0000 I 1.3394 J -0.3600
G02 X 14.1727 Y 13.2821 Z -1.0000 I -0.8322 J 0.1851
G02 X 14.1649 Y 13.2623 Z -1.0000 I -0.1121 J 0.0331
G03 X 14.1571 Y 13.2426 Z -1.0000 I 0.0998 J -0.0504
G03 X 14.1496 Y 13.2089 Z -1.0000 I 0.2837 J -0.0810
G02 X 14.1421 Y 13.1752 Z -1.0000 I -0.3020 J 0.0496
G02 X 14.1345 Y 13.1555 Z -1.0000 I -0.1097 J 0.0310
G03 X 14.1102 Y 13.0928 Z -1.0000 I 0.3239 J -0.1617
G03 X 14.0770 Y 12.9532 Z -1.0000 I 1.5839 J -0.4503
G02 X 14.0557 Y 12.8626 Z -1.0000 I -1.1197 J 0.2154
G02 X 14.0100 Y 12.7128 Z -1.0000 I -3.0994 J 0.8634
G03 X 13.9922 Y 12.6553 Z -1.0000 I 1.4070 J -0.4671
G03 X 13.9662 Y 12.5602 Z -1.0000 I 3.8198 J -1.0978
G02 X 13.8950 Y 12.3013 Z -1.0000 I -9.7626 J 2.5458
G02 X 13.8789 Y 12.2587 Z -1.0000 I -0.2793 J 0.0808
G03 X 13.8729 Y 12.2431 Z -1.0000 I 0.1157 J -0.0537
G03 X 13.8444 Y 12.1481 Z -1.0000 I 3.9788 J -1.2436
G02 X 13.8016 Y 12.0153 Z -1.0000 I -2.0192 J 0.5787
G01 X 13.7950 Y 12.0107 Z -1.0000
G01 X 13.7902 Y 12.0165 Z -1.0000
G02 X 13.8204 Y 12.1481 Z -1.0000 I 1.5479 J -0.2870
G03 X 13.8384 Y 12.2209 Z -1.0000 I -1.3034 J 0.3595
G03 X 13.8405 Y 12.2404 Z -1.0000 I -0.0902 J 0.0196
G02 X 13.8439 Y 12.2693 Z -1.0000 I 0.1236 J -0.0001
G02 X 13.8864 Y 12.4305 Z -1.0000 I 3.9229 J -0.9486
G03 X 13.9553 Y 12.6995 Z -1.0000 I -4.7629 J 1.3616
G03 X 13.9590 Y 12.7514 Z -1.0000 I -0.1692 J 0.0383
G03 X 13.9522 Y 12.7759 Z -1.0000 I -0.0658 J -0.0050
G01 X 13.9473 Y 12.7747 Z -1.0000
G01 X 13.9447 Y 12.7700 Z -1.0000
G01 X 13.9398 Y 12.7700 Z -1.0000
G01 X 13.9341 Y 12.7691 Z -1.0000
G03 X 13.9174 Y 12.7419 Z -1.0000 I 0.1011 J -0.0806
G03 X 13.8680 Y 12.6101 Z -1.0000 I 0.9536 J -0.4324
G03 X 13.8448 Y 12.4996 Z -1.0000 I 0.6463 J -0.1937
G02 X 13.8381 Y 12.4586 Z -1.0000 I -0.5071 J 0.0621
G01 X 13.8346 Y 12.4500 Z -1.0000
G01 X 13.8306 Y 12.4405 Z -1.0000
G03 X 13.8102 Y 12.3503 Z -1.0000 I 2.5332 J -0.6199
G02 X 13.7930 Y 12.2745 Z -1.0000 I -2.0023 J 0.4150
G02 X 13.7875 Y 12.2587 Z -1.0000 I -0.0908 J 0.0224
G03 X 13.7566 Y 12.1669 Z -1.0000 I 0.4661 J -0.2083
G03 X 13.7294 Y 12.0107 Z -1.0000 I 1.3289 J -0.3115
G02 X 13.7241 Y 11.9766 Z -1.0000 I -0.4507 J 0.0525
G02 X 13.7182 Y 11.9535 Z -1.0000 I -0.2056 J 0.0399
G03 X 13.6892 Y 11.8369 Z -1.0000 I 0.8954 J -0.2850
G03 X 13.6896 Y 11.7977 Z -1.0000 I 0.1015 J -0.0185
G01 X 13.6895 Y 11.7932 Z -1.0000
G02 X 13.6771 Y 11.7488 Z -1.0000 I -0.9788 J 0.2500
G03 X 13.6651 Y 11.7040 Z -1.0000 I 0.6765 J -0.2050
G03 X 13.6496 Y 11.6305 Z -1.0000 I 1.7973 J -0.4183
G02 X 13.6301 Y 11.5362 Z -1.0000 I -3.0798 J 0.5857
G02 X 13.6026 Y 11.4192 Z -1.0000 I -4.7622 J 1.0582
G03 X 13.5969 Y 11.3884 Z -1.0000 I 0.2476 J -0.0619
G03 X 13.5883 Y 11.3029 Z -1.0000 I 1.9698 J -0.2419
G02 X 13.5736 Y 11.1947 Z -1.0000 I -0.9799 J 0.0774
G02 X 13.5468 Y 11.0872 Z -1.0000 I -0.9937 J 0.1910
G03 X 13.5396 Y 11.0523 Z -1.0000 I 0.1806 J -0.0554
G03 X 13.5327 Y 10.9575 Z -1.0000 I 1.3105 J -0.1433
G02 X 13.5257 Y 10.8629 Z -1.0000 I -1.2510 J 0.0453
G02 X 13.5195 Y 10.8392 Z -1.0000 I -0.0853 J 0.0096
G03 X 13.5090 Y 10.8120 Z -1.0000 I 0.4272 J -0.1813
G03 X 13.5057 Y 10.8001 Z -1.0000 I 0.0828 J -0.0292
G01 X 13.4952 Y 10.8030 Z -1.0000
G01 X 13.4851 Y 10.8069 Z -1.0000
G01 X 13.4704 Y 10.8045 Z -1.0000
G01 X 13.4661 Y 10.7978 Z -1.0000
G01 X 13.4687 Y 10.7946 Z -1.0000
G01 X 13.4647 Y 10.7877 Z -1.0000
G01 X 13.4567 Y 10.7758 Z -1.0000
G03 X 13.4483 Y 10.7267 Z -1.0000 I 0.2598 J -0.0701
G03 X 13.4513 Y 10.6817 Z -1.0000 I 0.1546 J -0.0120
G01 X 13.4595 Y 10.6752 Z -1.0000
G01 X 13.4669 Y 10.6705 Z -1.0000
G01 X 13.4667 Y 10.6602 Z -1.0000
G01 X 13.4627 Y 10.6447 Z -1.0000
G03 X 13.4662 Y 10.6118 Z -1.0000 I 0.1427 J -0.0016
G02 X 13.4719 Y 10.5781 Z -1.0000 I -0.3212 J -0.0716
G02 X 13.4788 Y 10.5028 Z -1.0000 I -1.5427 J -0.1789
G03 X 13.4867 Y 10.4282 Z -1.0000 I 0.9572 J 0.0644
G01 X 13.4911 Y 10.4179 Z -1.0000
G01 X 13.4953 Y 10.4085 Z -1.0000
G01 X 13.4941 Y 10.4018 Z -1.0000
G01 X 13.4918 Y 10.3944 Z -1.0000
G03 X 13.4886 Y 10.2871 Z -1.0000 I 2.9377 J -0.1420
G02 X 13.4832 Y 10.1812 Z -1.0000 I -1.3624 J 0.0160
G01 X 13.4782 Y 10.1716 Z -1.0000
G01 X 13.4697 Y 10.1543 Z -1.0000
G01 X 13.4769 Y 10.1274 Z -1.0000
G01 X 13.4775 Y 10.1180 Z -1.0000
G01 X 13.4818 Y 10.1066 Z -1.0000
G01 X 13.4878 Y 10.0938 Z -1.0000
G02 X 13.4930 Y 10.0471 Z -1.0000 I -0.3056 J -0.0578
G02 X 13.4877 Y 10.0033 Z -1.0000 I -0.1399 J -0.0051
G01 X 13.4768 Y 9.9905 Z -1.0000
G01 X 13.4621 Y 9.9871 Z -1.0000
G01 X 13.4589 Y 9.9903 Z -1.0000
G01 X 13.4540 Y 9.9936 Z -1.0000
G01 X 13.4380 Y 9.9969 Z -1.0000
G02 X 13.4206 Y 10.0764 Z -1.0000 I 0.2263 J 0.0912
G02 X 13.4221 Y 10.1290 Z -1.0000 I 0.3433 J 0.0166
G01 X 13.4265 Y 10.1324 Z -1.0000
G01 X 13.4322 Y 10.1319 Z -1.0000
G01 X 13.4372 Y 10.1324 Z -1.0000
G01 X 13.4521 Y 10.1574 Z -1.0000
G03 X 13.4033 Y 10.2372 Z -1.0000 I -0.1902 J -0.0614
G01 X 13.3909 Y 10.2338 Z -1.0000
G03 X 13.3853 Y 10.1657 Z -1.0000 I 0.2048 J -0.0512
G02 X 13.3843 Y 10.1437 Z -1.0000 I -0.0892 J -0.0072
G01 X 13.3811 Y 10.1409 Z -1.0000
G01 X 13.3769 Y 10.1430 Z -1.0000
G01 X 13.3749 Y 10.1488 Z -1.0000
G01 X 13.3731 Y 10.1563 Z -1.0000
G03 X 13.3604 Y 10.1775 Z -1.0000 I -0.1531 J -0.0775
G02 X 13.3494 Y 10.2016 Z -1.0000 I 0.0589 J 0.0413
G02 X 13.3347 Y 10.2821 Z -1.0000 I 0.6642 J 0.1627
G01 X 13.3227 Y 10.2989 Z -1.0000
G01 X 13.3051 Y 10.2963 Z -1.0000
G01 X 13.2936 Y 10.2930 Z -1.0000
G01 X 13.2839 Y 10.3000 Z -1.0000
G02 X 13.2781 Y 10.3160 Z -1.0000 I 0.0544 J 0.0288
G02 X 13.2757 Y 10.3388 Z -1.0000 I 0.1073 J 0.0228
G01 X 13.2810 Y 10.3568 Z -1.0000
G01 X 13.2910 Y 10.3622 Z -1.0000
G01 X 13.3009 Y 10.3569 Z -1.0000
G01 X 13.3062 Y 10.3393 Z -1.0000
G03 X 13.3094 Y 10.3196 Z -1.0000 I 0.0627 J 0.0000
G01 X 13.3138 Y 10.3164 Z -1.0000
G01 X 13.3181 Y 10.3204 Z -1.0000
G03 X 13.3251 Y 10.4540 Z -1.0000 I -2.2547 J 0.1841
G02 X 13.3400 Y 10.6330 Z -1.0000 I 1.4639 J -0.0321
G02 X 13.3613 Y 10.7031 Z -1.0000 I 0.2427 J -0.0353
G01 X 13.3632 Y 10.7192 Z -1.0000
G03 X 13.3535 Y 10.7417 Z -1.0000 I -0.0577 J -0.0116
G02 X 13.3407 Y 10.7770 Z -1.0000 I 0.0568 J 0.0404
G02 X 13.3398 Y 10.9232 Z -1.0000 I 1.0598 J 0.0795
G01 X 13.3333 Y 10.9613 Z -1.0000
G03 X 13.3255 Y 10.9230 Z -1.0000 I 0.2213 J -0.0654
G03 X 13.3263 Y 10.9013 Z -1.0000 I 0.0690 J -0.0081
G02 X 13.3276 Y 10.8797 Z -1.0000 I -0.0763 J -0.0152
G01 X 13.3232 Y 10.8631 Z -1.0000
G02 X 13.3157 Y 10.8469 Z -1.0000 I -4.0820 J 1.8805
G02 X 13.2961 Y 10.8049 Z -1.0000 I -13.7003 J 6.3774
G03 X 13.2750 Y 10.7349 Z -1.0000 I 0.2284 J -0.1072
G03 X 13.2791 Y 10.6913 Z -1.0000 I 0.0898 J -0.0134
G02 X 13.2970 Y 10.5916 Z -1.0000 I -0.2952 J -0.1042
G01 X 13.2807 Y 10.5803 Z -1.0000
G01 X 13.2726 Y 10.5865 Z -1.0000
G02 X 13.2575 Y 10.6115 Z -1.0000 I 0.1201 J 0.0896
G02 X 13.2328 Y 10.7143 Z -1.0000 I 0.2304 J 0.1098
G02 X 13.2479 Y 10.9613 Z -1.0000 I 1.3932 J 0.0385
G03 X 13.2547 Y 11.0296 Z -1.0000 I -0.6669 J 0.1004
G01 X 13.2519 Y 11.0472 Z -1.0000
G02 X 13.2414 Y 11.1218 Z -1.0000 I 0.1654 J 0.0613
G02 X 13.2771 Y 11.3811 Z -1.0000 I 2.1279 J -0.1609
G03 X 13.2916 Y 11.4575 Z -1.0000 I -3.4713 J 0.6946
G03 X 13.2926 Y 11.4688 Z -1.0000 I -0.0697 J 0.0124
G02 X 13.2957 Y 11.5003 Z -1.0000 I 0.1941 J -0.0028
G02 X 13.3638 Y 11.8657 Z -1.0000 I 26.3651 J -4.7243
G03 X 13.4136 Y 12.1262 Z -1.0000 I -62.1403 J 12.0261
G03 X 13.4280 Y 12.2053 Z -1.0000 I -5.8011 J 1.0975
G02 X 13.4360 Y 12.2432 Z -1.0000 I 0.5587 J -0.0985
G02 X 13.4460 Y 12.2778 Z -1.0000 I 0.4643 J -0.1149
G03 X 13.4564 Y 12.3124 Z -1.0000 I -0.6929 J 0.2274
G03 X 13.4669 Y 12.3541 Z -1.0000 I -0.9513 J 0.2608
G02 X 13.4769 Y 12.3960 Z -1.0000 I 2.4465 J -0.5616
G02 X 13.4915 Y 12.4534 Z -1.0000 I 3.9838 J -0.9867
G03 X 13.5401 Y 12.6698 Z -1.0000 I -2.9379 J 0.7729
G01 X 13.5343 Y 12.6829 Z -1.0000
G01 X 13.5314 Y 12.6880 Z -1.0000
G01 X 13.5344 Y 12.6933 Z -1.0000
G01 X 13.5425 Y 12.7096 Z -1.0000
G01 X 13.5323 Y 12.7159 Z -1.0000
G01 X 13.5246 Y 12.7095 Z -1.0000
G03 X 13.5175 Y 12.6914 Z -1.0000 I 0.0492 J -0.0296
G02 X 13.5118 Y 12.6714 Z -1.0000 I -0.1310 J 0.0267
G02 X 13.4942 Y 12.6289 Z -1.0000 I -0.6102 J 0.2276
G01 X 13.4751 Y 12.5869 Z -1.0000
G01 X 13.4746 Y 12.6220 Z -1.0000
G02 X 13.4763 Y 12.6568 Z -1.0000 I 0.2841 J 0.0036
G02 X 13.4810 Y 12.6793 Z -1.0000 I 0.1186 J -0.0131
G03 X 13.4871 Y 12.7016 Z -1.0000 I -0.3971 J 0.1207
G03 X 13.4975 Y 12.7472 Z -1.0000 I -1.4517 J 0.3544
G02 X 13.5090 Y 12.7920 Z -1.0000 I 0.5154 J -0.1085
G01 X 13.5136 Y 12.8002 Z -1.0000
G01 X 13.5178 Y 12.8083 Z -1.0000
G03 X 13.5200 Y 12.8273 Z -1.0000 I -0.0799 J 0.0190
G02 X 13.5222 Y 12.8463 Z -1.0000 I 0.0823 J -0.0000
G01 X 13.5264 Y 12.8544 Z -1.0000
G01 X 13.5309 Y 12.8626 Z -1.0000
G03 X 13.5452 Y 12.9189 Z -1.0000 I -0.8025 J 0.2335
G03 X 13.5729 Y 13.0819 Z -1.0000 I -1.8005 J 0.3903
G03 X 13.5701 Y 13.1193 Z -1.0000 I -0.0941 J 0.0117
G01 X 13.5737 Y 13.1322 Z -1.0000
G01 X 13.5894 Y 13.1375 Z -1.0000
G02 X 13.6123 Y 13.1317 Z -1.0000 I -0.0090 J -0.0837
G01 X 13.6176 Y 13.1260 Z -1.0000
G01 X 13.6267 Y 13.1228 Z -1.0000
G01 X 13.6430 Y 13.1421 Z -1.0000
G03 X 13.6531 Y 13.1670 Z -1.0000 I -0.8978 J 0.3752
G01 X 13.6541 Y 13.1708 Z -1.0000
G03 X 13.6547 Y 13.1746 Z -1.0000 I -0.5533 J 0.0956
G03 X 13.6610 Y 13.2127 Z -1.0000 I -10.3747 J 1.7197
G02 X 13.6685 Y 13.2506 Z -1.0000 I 0.6099 J -0.1017
G02 X 13.6814 Y 13.3005 Z -1.0000 I 0.9994 J -0.2316
G03 X 13.6933 Y 13.3790 Z -1.0000 I -0.3002 J 0.0857
G01 X 13.6837 Y 13.4001 Z -1.0000
G01 X 13.6623 Y 13.3983 Z -1.0000
G03 X 13.6342 Y 13.3425 Z -1.0000 I 0.0985 J -0.0846
G02 X 13.6251 Y 13.3044 Z -1.0000 I -1.6332 J 0.3735
G02 X 13.6186 Y 13.2809 Z -1.0000 I -0.5827 J 0.1477
G03 X 13.6130 Y 13.2572 Z -1.0000 I 0.2165 J -0.0638
G03 X 13.6116 Y 13.2417 Z -1.0000 I 0.0859 J -0.0155
G01 X 13.6073 Y 13.2293 Z -1.0000
G01 X 13.5960 Y 13.2219 Z -1.0000
G01 X 13.5876 Y 13.2263 Z -1.0000
G02 X 13.5837 Y 13.2553 Z -1.0000 I 0.0632 J 0.0232
G03 X 13.5823 Y 13.2885 Z -1.0000 I -0.1257 J 0.0110
G01 X 13.5770 Y 13.2929 Z -1.0000
G01 X 13.5515 Y 13.2766 Z -1.0000
G03 X 13.5352 Y 13.2031 Z -1.0000 I 0.1575 J -0.0735
G02 X 13.5327 Y 13.1807 Z -1.0000 I -0.0993 J -0.0000
G01 X 13.5287 Y 13.1752 Z -1.0000
G01 X 13.5242 Y 13.1690 Z -1.0000
G03 X 13.4900 Y 13.0067 Z -1.0000 I 4.5610 J -1.0470
G02 X 13.4739 Y 12.9307 Z -1.0000 I -2.1177 J 0.4087
G02 X 13.4678 Y 12.9108 Z -1.0000 I -0.1489 J 0.0343
G03 X 13.4618 Y 12.8908 Z -1.0000 I 0.1395 J -0.0532
G03 X 13.4478 Y 12.8230 Z -1.0000 I 1.6039 J -0.3659
G02 X 13.4332 Y 12.7553 Z -1.0000 I -1.1103 J 0.2042
G02 X 13.4204 Y 12.7123 Z -1.0000 I -0.4664 J 0.1157
G03 X 13.4070 Y 12.6696 Z -1.0000 I 0.6106 J -0.2142
G01 X 13.4055 Y 12.6584 Z -1.0000
G01 X 13.4030 Y 12.6480 Z -1.0000
G02 X 13.3918 Y 12.6322 Z -1.0000 I -0.0652 J 0.0343
G03 X 13.3474 Y 12.5689 Z -1.0000 I 0.2078 J -0.1928
G03 X 13.3368 Y 12.5252 Z -1.0000 I 0.0850 J -0.0437
G02 X 13.3347 Y 12.4941 Z -1.0000 I -0.2287 J -0.0000
G02 X 13.3294 Y 12.4717 Z -1.0000 I -0.1215 J 0.0167
G03 X 13.3236 Y 12.4492 Z -1.0000 I 0.1562 J -0.0526
G03 X 13.3147 Y 12.3923 Z -1.0000 I 1.0005 J -0.1861
G02 X 13.3027 Y 12.3155 Z -1.0000 I -1.3921 J 0.1787
G02 X 13.2666 Y 12.1328 Z -1.0000 I -7.8460 J 1.4525
G03 X 13.2268 Y 11.9293 Z -1.0000 I 7.7360 J -1.6191
G03 X 13.2076 Y 11.8084 Z -1.0000 I 2.7105 J -0.4934
G02 X 13.1979 Y 11.7398 Z -1.0000 I -9.4295 J 1.2979
G02 X 13.1876 Y 11.6711 Z -1.0000 I -7.1756 J 1.0410
G03 X 13.1782 Y 11.6023 Z -1.0000 I 1.7424 J -0.2721
G03 X 13.1778 Y 11.5871 Z -1.0000 I 0.0875 J -0.0102
G02 X 13.1777 Y 11.5719 Z -1.0000 I -0.1307 J -0.0068
G02 X 13.1704 Y 11.4726 Z -1.0000 I -5.6370 J 0.3650
G03 X 13.1557 Y 11.2339 Z -1.0000 I 5.7802 J -0.4757
G03 X 13.1491 Y 10.9537 Z -1.0000 I 7.9553 J -0.3253
G02 X 13.1394 Y 10.6496 Z -1.0000 I -5.7687 J 0.0326
G01 X 13.1307 Y 10.6382 Z -1.0000
G01 X 13.1264 Y 10.6334 Z -1.0000
G03 X 13.1232 Y 10.6062 Z -1.0000 I 0.1154 J -0.0272
G02 X 13.1203 Y 10.5785 Z -1.0000 I -0.1314 J 0.0000
G01 X 13.1158 Y 10.5722 Z -1.0000
G01 X 13.1038 Y 10.5765 Z -1.0000
G02 X 13.1013 Y 10.6149 Z -1.0000 I 0.0703 J 0.0238
G01 X 13.1008 Y 10.6251 Z -1.0000
G03 X 13.0899 Y 10.6510 Z -1.0000 I -0.1504 J -0.0481
G02 X 13.0784 Y 10.6772 Z -1.0000 I 0.1751 J 0.0925
G02 X 13.0629 Y 10.7273 Z -1.0000 I 0.6038 J 0.2144
G03 X 13.0474 Y 10.7774 Z -1.0000 I -0.6193 J -0.1638
G03 X 13.0329 Y 10.8120 Z -1.0000 I -0.3133 J -0.1110
G02 X 13.0206 Y 10.8469 Z -1.0000 I 0.1435 J 0.0700
G02 X 13.0164 Y 10.8852 Z -1.0000 I 0.1701 J 0.0383
G03 X 13.0135 Y 10.9241 Z -1.0000 I -0.2618 J 0.0000
G03 X 13.0049 Y 10.9620 Z -1.0000 I -0.2620 J -0.0394
G02 X 12.9963 Y 11.0000 Z -1.0000 I 0.2493 J 0.0762
G02 X 12.9892 Y 11.0682 Z -1.0000 I 0.7928 J 0.1175
G03 X 12.9832 Y 11.1366 Z -1.0000 I -1.2932 J -0.0787
G03 X 12.9778 Y 11.1674 Z -1.0000 I -0.2625 J -0.0300
G02 X 12.9731 Y 11.1982 Z -1.0000 I 0.1953 J 0.0454
G02 X 12.9679 Y 11.3047 Z -1.0000 I 2.2632 J 0.1644
G03 X 12.9570 Y 11.4097 Z -1.0000 I -0.6762 J -0.0175
G03 X 12.9375 Y 11.4705 Z -1.0000 I -0.2458 J -0.0452
G03 X 12.8899 Y 11.5520 Z -1.0000 I -0.4773 J -0.2241
G01 X 12.8735 Y 11.5604 Z -1.0000
G01 X 12.8669 Y 11.5668 Z -1.0000
G01 X 12.8728 Y 11.5817 Z -1.0000
G01 X 12.8798 Y 11.5918 Z -1.0000
G03 X 12.8844 Y 11.6080 Z -1.0000 I -0.0578 J 0.0254
G01 X 12.8896 Y 11.6237 Z -1.0000
G01 X 12.8983 Y 11.6337 Z -1.0000
G03 X 12.9238 Y 11.6732 Z -1.0000 I -0.0404 J 0.0541
G03 X 12.9210 Y 11.7359 Z -1.0000 I -0.1178 J 0.0262
G01 X 12.9196 Y 11.7486 Z -1.0000
G02 X 12.9260 Y 11.7899 Z -1.0000 I 0.3503 J -0.0329
G03 X 12.9367 Y 11.8809 Z -1.0000 I -0.4682 J 0.1012
G01 X 12.9284 Y 11.9038 Z -1.0000
G01 X 12.9213 Y 11.9165 Z -1.0000
G02 X 12.9133 Y 11.9505 Z -1.0000 I 0.1969 J 0.0642
G02 X 12.9137 Y 11.9823 Z -1.0000 I 0.0983 J 0.0146
G01 X 12.9203 Y 11.9903 Z -1.0000
G01 X 12.9289 Y 11.9974 Z -1.0000
G01 X 12.9325 Y 12.0099 Z -1.0000
G02 X 12.9507 Y 12.0861 Z -1.0000 I 0.1678 J -0.0000
G01 X 12.9731 Y 12.0896 Z -1.0000
G01 X 12.9784 Y 12.1029 Z -1.0000
G02 X 13.0000 Y 12.2110 Z -1.0000 I 0.2896 J -0.0017
G01 X 13.0313 Y 12.2320 Z -1.0000
G01 X 13.0365 Y 12.2348 Z -1.0000
G03 X 13.0586 Y 12.2736 Z -1.0000 I -0.3024 J 0.1976
G03 X 13.0732 Y 12.3161 Z -1.0000 I -0.1639 J 0.0802
G03 X 13.0738 Y 12.3457 Z -1.0000 I -0.0776 J 0.0164
G03 X 13.0657 Y 12.3744 Z -1.0000 I -0.1337 J -0.0224
G01 X 13.0578 Y 12.3851 Z -1.0000
G01 X 13.0403 Y 12.4257 Z -1.0000
G02 X 13.0670 Y 12.5344 Z -1.0000 I 0.3129 J -0.0192
G03 X 13.1024 Y 12.6361 Z -1.0000 I -0.5761 J 0.2574
G03 X 13.1035 Y 12.6779 Z -1.0000 I -0.0924 J 0.0235
G01 X 13.1032 Y 12.6936 Z -1.0000
G02 X 13.1150 Y 12.7510 Z -1.0000 I 0.6062 J -0.0941
G03 X 13.1345 Y 12.8633 Z -1.0000 I -0.7315 J 0.1854
G01 X 13.1275 Y 12.8803 Z -1.0000
G01 X 13.1145 Y 12.9025 Z -1.0000
G01 X 13.1224 Y 12.9080 Z -1.0000
G01 X 13.1286 Y 12.9075 Z -1.0000
G01 X 13.1380 Y 12.9144 Z -1.0000
G01 X 13.1409 Y 12.9234 Z -1.0000
G01 X 13.1370 Y 12.9287 Z -1.0000
G01 X 13.1345 Y 12.9334 Z -1.0000
G01 X 13.1405 Y 12.9428 Z -1.0000
G01 X 13.1501 Y 12.9550 Z -1.0000
G01 X 13.1539 Y 12.9723 Z -1.0000
G02 X 13.1566 Y 13.0636 Z -1.0000 I 1.5220 J -0.0004
G02 X 13.1614 Y 13.0972 Z -1.0000 I 0.2136 J -0.0129
G03 X 13.1655 Y 13.1266 Z -1.0000 I -0.1902 J 0.0421
G01 X 13.1639 Y 13.1374 Z -1.0000
G02 X 13.1519 Y 13.2329 Z -1.0000 I 0.1863 J 0.0718
G02 X 13.1846 Y 13.3119 Z -1.0000 I 0.1572 J -0.0188
G01 X 13.1914 Y 13.3275 Z -1.0000
G03 X 13.2032 Y 13.4302 Z -1.0000 I -1.2403 J 0.1946
G02 X 13.2074 Y 13.4720 Z -1.0000 I 0.7628 J -0.0562
G02 X 13.2146 Y 13.5179 Z -1.0000 I 0.9179 J -0.1186
G03 X 13.2220 Y 13.5638 Z -1.0000 I -1.5042 J 0.2687
G03 X 13.2230 Y 13.5752 Z -1.0000 I -0.0866 J 0.0128
G02 X 13.2301 Y 13.8283 Z -1.0000 I 6.5056 J -0.0562
G02 X 13.2373 Y 13.8766 Z -1.0000 I 0.2439 J -0.0116
G03 X 13.2473 Y 13.9387 Z -1.0000 I -0.3476 J 0.0883
G03 X 13.2573 Y 14.1495 Z -1.0000 I -4.0379 J 0.2967
G03 X 13.2571 Y 14.3193 Z -1.0000 I -3.8782 J 0.0810
G01 X 13.2532 Y 14.3231 Z -1.0000
G01 X 13.2476 Y 14.3253 Z -1.0000
G01 X 13.2454 Y 14.3300 Z -1.0000
G01 X 13.2482 Y 14.3334 Z -1.0000
G01 X 13.2607 Y 14.3329 Z -1.0000
G01 X 13.2710 Y 14.3353 Z -1.0000
G01 X 13.2759 Y 14.3459 Z -1.0000
G01 X 13.2706 Y 14.3560 Z -1.0000
G01 X 13.2575 Y 14.3583 Z -1.0000
G01 X 13.2414 Y 14.3644 Z -1.0000
G01 X 13.2362 Y 14.3896 Z -1.0000
G01 X 13.2437 Y 14.4020 Z -1.0000
G01 X 13.2578 Y 14.4070 Z -1.0000
G01 X 13.2711 Y 14.4119 Z -1.0000
G01 X 13.2759 Y 14.4223 Z -1.0000
G01 X 13.2721 Y 14.4337 Z -1.0000
G01 X 13.2645 Y 14.4375 Z -1.0000
G01 X 13.2585 Y 14.4437 Z -1.0000
G01 X 13.2652 Y 14.4673 Z -1.0000
G01 X 13.2720 Y 14.4890 Z -1.0000
G03 X 13.2702 Y 14.5355 Z -1.0000 I -0.2082 J 0.0153
G02 X 13.2664 Y 14.5815 Z -1.0000 I 0.3302 J 0.0505
G01 X 13.2695 Y 14.5871 Z -1.0000
G01 X 13.2732 Y 14.5926 Z -1.0000
G03 X 13.2759 Y 14.6245 Z -1.0000 I -0.1857 J 0.0319
G02 X 13.2788 Y 14.6563 Z -1.0000 I 0.1770 J 0.0000
G01 X 13.2828 Y 14.6622 Z -1.0000
G01 X 13.2868 Y 14.6681 Z -1.0000
G03 X 13.2900 Y 14.7028 Z -1.0000 I -0.1984 J 0.0357
G02 X 13.2933 Y 14.7385 Z -1.0000 I 0.2180 J -0.0020
G02 X 13.3022 Y 14.7724 Z -1.0000 I 0.2094 J -0.0368
G03 X 13.3119 Y 14.8062 Z -1.0000 I -0.2780 J 0.0984
G03 X 13.3141 Y 14.8258 Z -1.0000 I -0.0901 J 0.0202
G02 X 13.3161 Y 14.8456 Z -1.0000 I 0.1092 J -0.0007
G02 X 13.3281 Y 14.8993 Z -1.0000 I 0.8426 J -0.1612
G03 X 13.3396 Y 14.9526 Z -1.0000 I -0.6312 J 0.1633
G01 X 13.3388 Y 14.9622 Z -1.0000
G02 X 13.3391 Y 14.9966 Z -1.0000 I 0.0503 J 0.0168
G02 X 13.3666 Y 15.0407 Z -1.0000 I 0.1137 J -0.0401
G02 X 13.3799 Y 15.0518 Z -1.0000 I 0.0630 J -0.0621
G02 X 13.3922 Y 15.0581 Z -1.0000 I 0.0310 J -0.0457
G01 X 13.4103 Y 15.0847 Z -1.0000
G01 X 13.3903 Y 15.1168 Z -1.0000
G01 X 13.3784 Y 15.1269 Z -1.0000
G01 X 13.3751 Y 15.1366 Z -1.0000
G02 X 13.4062 Y 15.2395 Z -1.0000 I 0.1854 J -0.0000
G02 X 13.4812 Y 15.2959 Z -1.0000 I 0.1179 J -0.0786
G01 X 13.4920 Y 15.3024 Z -1.0000
G03 X 13.5065 Y 15.3209 Z -1.0000 I -0.0673 J 0.0679
G02 X 13.5231 Y 15.3425 Z -1.0000 I 0.1044 J -0.0630
G02 X 13.6573 Y 15.4774 Z -1.0000 I 4.2810 J -4.1244
G02 X 13.6798 Y 15.4961 Z -1.0000 I 0.1299 J -0.1335
G01 X 13.6870 Y 15.4984 Z -1.0000
G03 X 13.7292 Y 15.5119 Z -1.0000 I -0.0000 J 0.0726
G01 X 13.7361 Y 15.5334 Z -1.0000
G01 X 13.7375 Y 15.5400 Z -1.0000
G01 X 13.7507 Y 15.5500 Z -1.0000
G01 X 13.7549 Y 15.5556 Z -1.0000
G01 X 13.7522 Y 15.5589 Z -1.0000
G01 X 13.7416 Y 15.5642 Z -1.0000
G01 X 13.7377 Y 15.5766 Z -1.0000
G01 X 13.7436 Y 15.5888 Z -1.0000
G01 X 13.7555 Y 15.5932 Z -1.0000
G01 X 13.7695 Y 15.5951 Z -1.0000
G01 X 13.7719 Y 15.5984 Z -1.0000
G01 X 13.7741 Y 15.6026 Z -1.0000
G01 X 13.7873 Y 15.6091 Z -1.0000
G01 X 13.7974 Y 15.6159 Z -1.0000
G01 X 13.7978 Y 15.6219 Z -1.0000
G01 X 13.7970 Y 15.6289 Z -1.0000
G01 X 13.8026 Y 15.6358 Z -1.0000
G01 X 13.8081 Y 15.6432 Z -1.0000
G01 X 13.8075 Y 15.6544 Z -1.0000
G01 X 13.7956 Y 15.6595 Z -1.0000
G03 X 13.7561 Y 15.6331 Z -1.0000 I 0.0466 J -0.1126
G02 X 13.7353 Y 15.6168 Z -1.0000 I -0.0768 J 0.0768
G02 X 13.7152 Y 15.6085 Z -1.0000 I -0.0381 J 0.0632
G03 X 13.6946 Y 15.6008 Z -1.0000 I 0.0237 J -0.0944
G03 X 13.6804 Y 15.5908 Z -1.0000 I 0.0280 J -0.0550
G02 X 13.6672 Y 15.5787 Z -1.0000 I -0.6285 J 0.6754
G02 X 13.6529 Y 15.5663 Z -1.0000 I -0.4191 J 0.4682
G03 X 13.6400 Y 15.5528 Z -1.0000 I 0.0532 J -0.0635
G03 X 13.6253 Y 15.5299 Z -1.0000 I 0.1435 J -0.1085
G02 X 13.6100 Y 15.5082 Z -1.0000 I -0.1003 J 0.0544
G01 X 13.5992 Y 15.5008 Z -1.0000
G01 X 13.5874 Y 15.4939 Z -1.0000
G03 X 13.5572 Y 15.4659 Z -1.0000 I 0.2494 J -0.2992
G02 X 13.5277 Y 15.4408 Z -1.0000 I -0.1448 J 0.1405
G01 X 13.5209 Y 15.4406 Z -1.0000
G01 X 13.5154 Y 15.4402 Z -1.0000
G01 X 13.5087 Y 15.4300 Z -1.0000
G01 X 13.5010 Y 15.4170 Z -1.0000
G02 X 13.4816 Y 15.4016 Z -1.0000 I -0.0652 J 0.0623
G03 X 13.4665 Y 15.3884 Z -1.0000 I 0.0277 J -0.0470
G01 X 13.4673 Y 15.3835 Z -1.0000
G01 X 13.4659 Y 15.3625 Z -1.0000
G02 X 13.4087 Y 15.3580 Z -1.0000 I -0.0350 J 0.0802
G01 X 13.3999 Y 15.3667 Z -1.0000
G02 X 13.3937 Y 15.4114 Z -1.0000 I 0.1591 J 0.0447
G01 X 13.3987 Y 15.4472 Z -1.0000
G01 X 13.4093 Y 15.4619 Z -1.0000
G02 X 13.4188 Y 15.4866 Z -1.0000 I 0.0742 J -0.0145
G01 X 13.4292 Y 15.4948 Z -1.0000
G01 X 13.4406 Y 15.5017 Z -1.0000
G01 X 13.4437 Y 15.5091 Z -1.0000
G01 X 13.4469 Y 15.5167 Z -1.0000
G02 X 13.4628 Y 15.5275 Z -1.0000 I 0.0394 J -0.0407
G01 X 13.4772 Y 15.5392 Z -1.0000
G01 X 13.4820 Y 15.5536 Z -1.0000
G02 X 13.4896 Y 15.5887 Z -1.0000 I 0.0873 J -0.0006
G01 X 13.4970 Y 15.5871 Z -1.0000
G01 X 13.5086 Y 15.5899 Z -1.0000
G01 X 13.5164 Y 15.5916 Z -1.0000
G01 X 13.5200 Y 15.5868 Z -1.0000
G01 X 13.5319 Y 15.5804 Z -1.0000
G03 X 13.5626 Y 15.6141 Z -1.0000 I -0.0474 J 0.0742
G01 X 13.5748 Y 15.6377 Z -1.0000
G01 X 13.5493 Y 15.6325 Z -1.0000
G02 X 13.5237 Y 15.6282 Z -1.0000 I -0.0717 J 0.3467
G02 X 13.5069 Y 15.6269 Z -1.0000 I -0.0201 J 0.1535
G01 X 13.4933 Y 15.6221 Z -1.0000
G01 X 13.4850 Y 15.6102 Z -1.0000
G01 X 13.4678 Y 15.5856 Z -1.0000
G01 X 13.4537 Y 15.5866 Z -1.0000
G01 X 13.4460 Y 15.6109 Z -1.0000
G01 X 13.4590 Y 15.6168 Z -1.0000
G01 X 13.4633 Y 15.6181 Z -1.0000
G01 X 13.4667 Y 15.6343 Z -1.0000
G02 X 13.4705 Y 15.6554 Z -1.0000 I 0.0595 J -0.0000
G02 X 13.4857 Y 15.6847 Z -1.0000 I 0.1328 J -0.0503
G03 X 13.5014 Y 15.7138 Z -1.0000 I -0.1337 J 0.0907
G01 X 13.5048 Y 15.7310 Z -1.0000
G01 X 13.5106 Y 15.7454 Z -1.0000
G02 X 13.5348 Y 15.7624 Z -1.0000 I 0.0548 J -0.0523
G03 X 13.5613 Y 15.7786 Z -1.0000 I -0.0479 J 0.1081
G01 X 13.5684 Y 15.7897 Z -1.0000
G01 X 13.5626 Y 15.7959 Z -1.0000
G01 X 13.5399 Y 15.7847 Z -1.0000
G02 X 13.5136 Y 15.7706 Z -1.0000 I -0.0401 J 0.0433
G01 X 13.4987 Y 15.7748 Z -1.0000
G01 X 13.4947 Y 15.7889 Z -1.0000
G01 X 13.5039 Y 15.7961 Z -1.0000
G01 X 13.5152 Y 15.8002 Z -1.0000
G01 X 13.5223 Y 15.8114 Z -1.0000
G01 X 13.5154 Y 15.8236 Z -1.0000
G01 X 13.5027 Y 15.8171 Z -1.0000
G01 X 13.4982 Y 15.8121 Z -1.0000
G01 X 13.4937 Y 15.8127 Z -1.0000
G01 X 13.4877 Y 15.8353 Z -1.0000
G02 X 13.5157 Y 15.8814 Z -1.0000 I 0.1100 J -0.0352
G03 X 13.5284 Y 15.9014 Z -1.0000 I -0.0395 J 0.0391
G03 X 13.5370 Y 15.9397 Z -1.0000 I -0.1442 J 0.0527
G02 X 13.5583 Y 16.0093 Z -1.0000 I 0.1791 J -0.0167
G01 X 13.5804 Y 16.0193 Z -1.0000
G01 X 13.5859 Y 16.0210 Z -1.0000
G01 X 13.5887 Y 16.0288 Z -1.0000
G01 X 13.5926 Y 16.0365 Z -1.0000
G01 X 13.6040 Y 16.0403 Z -1.0000
G01 X 13.6164 Y 16.0431 Z -1.0000
G01 X 13.6193 Y 16.0479 Z -1.0000
G01 X 13.6166 Y 16.0528 Z -1.0000
G01 X 13.6078 Y 16.0555 Z -1.0000
G01 X 13.6005 Y 16.0642 Z -1.0000
G01 X 13.6116 Y 16.0761 Z -1.0000
G01 X 13.6235 Y 16.0827 Z -1.0000
G01 X 13.6269 Y 16.0907 Z -1.0000
G01 X 13.6294 Y 16.0987 Z -1.0000
G01 X 13.6345 Y 16.1013 Z -1.0000
G01 X 13.6392 Y 16.1042 Z -1.0000
G01 X 13.6421 Y 16.1165 Z -1.0000
G01 X 13.6452 Y 16.1286 Z -1.0000
G01 X 13.6506 Y 16.1318 Z -1.0000
G01 X 13.6549 Y 16.1350 Z -1.0000
G01 X 13.6550 Y 16.1474 Z -1.0000
G01 X 13.6565 Y 16.1582 Z -1.0000
G01 X 13.6637 Y 16.1618 Z -1.0000
G01 X 13.6896 Y 16.1667 Z -1.0000
G01 X 13.7033 Y 16.1818 Z -1.0000
G01 X 13.7126 Y 16.1960 Z -1.0000
G01 X 13.7184 Y 16.1966 Z -1.0000
G01 X 13.7245 Y 16.1966 Z -1.0000
G01 X 13.7310 Y 16.2045 Z -1.0000
G01 X 13.7320 Y 16.2159 Z -1.0000
G01 X 13.7274 Y 16.2225 Z -1.0000
G01 X 13.7235 Y 16.2295 Z -1.0000
G02 X 13.7276 Y 16.2561 Z -1.0000 I 0.0928 J -0.0006
G01 X 13.7458 Y 16.2805 Z -1.0000
G01 X 13.7580 Y 16.2763 Z -1.0000
G01 X 13.7693 Y 16.2714 Z -1.0000
G03 X 13.7936 Y 16.2931 Z -1.0000 I -0.0244 J 0.0520
G01 X 13.7985 Y 16.3085 Z -1.0000
G01 X 13.7949 Y 16.3177 Z -1.0000
G01 X 13.7871 Y 16.3197 Z -1.0000
G01 X 13.7787 Y 16.3130 Z -1.0000
G01 X 13.7694 Y 16.3027 Z -1.0000
G01 X 13.7601 Y 16.2996 Z -1.0000
G01 X 13.7514 Y 16.3069 Z -1.0000
G01 X 13.7567 Y 16.3188 Z -1.0000
G01 X 13.7592 Y 16.3241 Z -1.0000
G01 X 13.7547 Y 16.3332 Z -1.0000
G03 X 13.7147 Y 16.3562 Z -1.0000 I -0.0627 J -0.0627
G01 X 13.7050 Y 16.3464 Z -1.0000
G01 X 13.7041 Y 16.3413 Z -1.0000
G01 X 13.6993 Y 16.3386 Z -1.0000
G01 X 13.6946 Y 16.3408 Z -1.0000
G01 X 13.6923 Y 16.3493 Z -1.0000
G01 X 13.7024 Y 16.3955 Z -1.0000
G01 X 13.7075 Y 16.3924 Z -1.0000
G01 X 13.7125 Y 16.3969 Z -1.0000
G01 X 13.7310 Y 16.4083 Z -1.0000
G01 X 13.7522 Y 16.3885 Z -1.0000
G01 X 13.7584 Y 16.3847 Z -1.0000
G01 X 13.7676 Y 16.3911 Z -1.0000
G01 X 13.7681 Y 16.4063 Z -1.0000
G01 X 13.7546 Y 16.4184 Z -1.0000
G01 X 13.7382 Y 16.4371 Z -1.0000
G01 X 13.7459 Y 16.4623 Z -1.0000
G03 X 13.7586 Y 16.4830 Z -1.0000 I -0.0371 J 0.0371
G01 X 13.7564 Y 16.4943 Z -1.0000
G01 X 13.7506 Y 16.5058 Z -1.0000
G01 X 13.7520 Y 16.5113 Z -1.0000
G01 X 13.7568 Y 16.5123 Z -1.0000
G01 X 13.7638 Y 16.5063 Z -1.0000
G01 X 13.7699 Y 16.5043 Z -1.0000
G01 X 13.7789 Y 16.5122 Z -1.0000
G01 X 13.7896 Y 16.5252 Z -1.0000
G01 X 13.7990 Y 16.5285 Z -1.0000
G01 X 13.8194 Y 16.5421 Z -1.0000
G03 X 13.8224 Y 16.5841 Z -1.0000 I -0.0602 J 0.0255
G01 X 13.8236 Y 16.5956 Z -1.0000
G01 X 13.8315 Y 16.6029 Z -1.0000
G01 X 13.8429 Y 16.6094 Z -1.0000
G03 X 13.8543 Y 16.6215 Z -1.0000 I -0.0404 J 0.0494
G01 X 13.8657 Y 16.6325 Z -1.0000
G01 X 13.8753 Y 16.6353 Z -1.0000
G01 X 13.8837 Y 16.6380 Z -1.0000
G01 X 13.8863 Y 16.6429 Z -1.0000
G01 X 13.8840 Y 16.6482 Z -1.0000
G01 X 13.8782 Y 16.6505 Z -1.0000
G01 X 13.8745 Y 16.6530 Z -1.0000
G01 X 13.8749 Y 16.6583 Z -1.0000
G01 X 13.8804 Y 16.6628 Z -1.0000
G01 X 13.8860 Y 16.6623 Z -1.0000
G01 X 13.8903 Y 16.6632 Z -1.0000
G01 X 13.8972 Y 16.6779 Z -1.0000
G01 X 13.9047 Y 16.6928 Z -1.0000
G01 X 13.9109 Y 16.6946 Z -1.0000
G01 X 13.9375 Y 16.7016 Z -1.0000
G01 X 13.9427 Y 16.7300 Z -1.0000
G01 X 13.9445 Y 16.7619 Z -1.0000
G02 X 13.9870 Y 16.8148 Z -1.0000 I 0.1550 J -0.0810
G01 X 14.0045 Y 16.8338 Z -1.0000
G01 X 14.0462 Y 16.8787 Z -1.0000
G03 X 14.0826 Y 16.9237 Z -1.0000 I -0.1589 J 0.1654
G01 X 14.0812 Y 16.9354 Z -1.0000
G02 X 14.0714 Y 16.9480 Z -1.0000 I 0.0448 J 0.0448
G01 X 14.0694 Y 16.9553 Z -1.0000
G01 X 14.0662 Y 16.9603 Z -1.0000
G01 X 14.0503 Y 16.9636 Z -1.0000
G01 X 14.0367 Y 16.9690 Z -1.0000
G01 X 14.0313 Y 16.9814 Z -1.0000
G01 X 14.0348 Y 16.9977 Z -1.0000
G01 X 14.0452 Y 17.0120 Z -1.0000
G01 X 14.0630 Y 17.0193 Z -1.0000
G01 X 14.0694 Y 17.0132 Z -1.0000
G01 X 14.0741 Y 17.0064 Z -1.0000
G03 X 14.0998 Y 17.0017 Z -1.0000 I 0.0256 J 0.0683
G03 X 14.1271 Y 17.0074 Z -1.0000 I -0.0000 J 0.0690
G01 X 14.1420 Y 17.0199 Z -1.0000
G03 X 14.1517 Y 17.0385 Z -1.0000 I -0.0863 J 0.0569
G01 X 14.1520 Y 17.0447 Z -1.0000
G01 X 14.1521 Y 17.0511 Z -1.0000
G02 X 14.1599 Y 17.0690 Z -1.0000 I 0.0980 J -0.0321
G01 X 14.1621 Y 17.0855 Z -1.0000
G01 X 14.1510 Y 17.1040 Z -1.0000
G01 X 14.1412 Y 17.1221 Z -1.0000
G01 X 14.1450 Y 17.1382 Z -1.0000
G02 X 14.1597 Y 17.1515 Z -1.0000 I 0.0423 J -0.0318
G01 X 14.1746 Y 17.1563 Z -1.0000
G01 X 14.1891 Y 17.1599 Z -1.0000
G01 X 14.1915 Y 17.1636 Z -1.0000
G01 X 14.1938 Y 17.1674 Z -1.0000
G01 X 14.2030 Y 17.1696 Z -1.0000
G01 X 14.2112 Y 17.1784 Z -1.0000
G01 X 14.2011 Y 17.1974 Z -1.0000
G01 X 14.1961 Y 17.2073 Z -1.0000
G01 X 14.2007 Y 17.2156 Z -1.0000
G01 X 14.2092 Y 17.2251 Z -1.0000
G01 X 14.2094 Y 17.2347 Z -1.0000
G01 X 14.2102 Y 17.2425 Z -1.0000
G01 X 14.2165 Y 17.2460 Z -1.0000
G01 X 14.2262 Y 17.2492 Z -1.0000
G03 X 14.2392 Y 17.2631 Z -1.0000 I -0.0338 J 0.0445
G02 X 14.2517 Y 17.2794 Z -1.0000 I 0.1101 J -0.0718
G02 X 14.2935 Y 17.3234 Z -1.0000 I 0.8866 J -0.8004
G03 X 14.3333 Y 17.3750 Z -1.0000 I -0.1794 J 0.1794
G01 X 14.3285 Y 17.3833 Z -1.0000
G01 X 14.3247 Y 17.3857 Z -1.0000
G01 X 14.3250 Y 17.3909 Z -1.0000
G01 X 14.3254 Y 17.3961 Z -1.0000
G01 X 14.3216 Y 17.3985 Z -1.0000
G01 X 14.3159 Y 17.3963 Z -1.0000
G01 X 14.3135 Y 17.3909 Z -1.0000
G01 X 14.3113 Y 17.3856 Z -1.0000
G01 X 14.3059 Y 17.3833 Z -1.0000
G01 X 14.2980 Y 17.3937 Z -1.0000
G01 X 14.3141 Y 17.4142 Z -1.0000
G01 X 14.3251 Y 17.4245 Z -1.0000
G01 X 14.3259 Y 17.4334 Z -1.0000
G01 X 14.3266 Y 17.4424 Z -1.0000
G01 X 14.3367 Y 17.4521 Z -1.0000
G03 X 14.3493 Y 17.4613 Z -1.0000 I -0.0273 J 0.0509
G01 X 14.3507 Y 17.4656 Z -1.0000
G02 X 14.3532 Y 17.4920 Z -1.0000 I 0.0547 J 0.0082
G01 X 14.3613 Y 17.4958 Z -1.0000
G01 X 14.3845 Y 17.5005 Z -1.0000
G01 X 14.3828 Y 17.5165 Z -1.0000
G01 X 14.3773 Y 17.5167 Z -1.0000
G01 X 14.3723 Y 17.5112 Z -1.0000
G01 X 14.3676 Y 17.5089 Z -1.0000
G01 X 14.3583 Y 17.5151 Z -1.0000
G01 X 14.3465 Y 17.5199 Z -1.0000
G03 X 14.3197 Y 17.5094 Z -1.0000 I 0.0094 J -0.0639
G02 X 14.2824 Y 17.4925 Z -1.0000 I -0.0678 J 0.0997
G01 X 14.2754 Y 17.4979 Z -1.0000
G01 X 14.2782 Y 17.5027 Z -1.0000
G01 X 14.2883 Y 17.5055 Z -1.0000
G01 X 14.2915 Y 17.5087 Z -1.0000
G01 X 14.2883 Y 17.5150 Z -1.0000
G01 X 14.2815 Y 17.5266 Z -1.0000
G02 X 14.2834 Y 17.5531 Z -1.0000 I 0.0665 J 0.0085
G02 X 14.2946 Y 17.5775 Z -1.0000 I 0.0814 J -0.0225
G01 X 14.3025 Y 17.5817 Z -1.0000
G01 X 14.3098 Y 17.5855 Z -1.0000
G01 X 14.3136 Y 17.5970 Z -1.0000
G01 X 14.3178 Y 17.6080 Z -1.0000
G01 X 14.3275 Y 17.6123 Z -1.0000
G01 X 14.3610 Y 17.6259 Z -1.0000
G01 X 14.3746 Y 17.6582 Z -1.0000
G01 X 14.3759 Y 17.6656 Z -1.0000
G02 X 14.3834 Y 17.6830 Z -1.0000 I 0.1386 J -0.0496
G03 X 14.4006 Y 17.7255 Z -1.0000 I -0.2197 J 0.1136
G01 X 14.4005 Y 17.7398 Z -1.0000
G01 X 14.4034 Y 17.7433 Z -1.0000
G01 X 14.4097 Y 17.7408 Z -1.0000
G01 X 14.4155 Y 17.7458 Z -1.0000
G03 X 14.4196 Y 17.7587 Z -1.0000 I -0.0996 J 0.0384
G01 X 14.4204 Y 17.7657 Z -1.0000
G01 X 14.4065 Y 17.7767 Z -1.0000
G03 X 14.3722 Y 17.7542 Z -1.0000 I 0.0138 J -0.0583
G01 X 14.3789 Y 17.7954 Z -1.0000
G01 X 14.3854 Y 17.8079 Z -1.0000
G01 X 14.3913 Y 17.8107 Z -1.0000
G01 X 14.3899 Y 17.8221 Z -1.0000
G01 X 14.3913 Y 17.8303 Z -1.0000
G01 X 14.4103 Y 17.8343 Z -1.0000
G01 X 14.4236 Y 17.8410 Z -1.0000
G01 X 14.4206 Y 17.8526 Z -1.0000
G01 X 14.4147 Y 17.8584 Z -1.0000
G01 X 14.4128 Y 17.8651 Z -1.0000
G01 X 14.4251 Y 17.8605 Z -1.0000
G01 X 14.4431 Y 17.8572 Z -1.0000
G01 X 14.4543 Y 17.8738 Z -1.0000
G01 X 14.4492 Y 17.8895 Z -1.0000
G01 X 14.4341 Y 17.8988 Z -1.0000
G03 X 14.4130 Y 17.9029 Z -1.0000 I -0.1086 J -0.5046
G01 X 14.4072 Y 17.9033 Z -1.0000
G01 X 14.4028 Y 17.9053 Z -1.0000
G01 X 14.3958 Y 17.9180 Z -1.0000
G01 X 14.3880 Y 17.9293 Z -1.0000
G01 X 14.3787 Y 17.9328 Z -1.0000
G01 X 14.3697 Y 17.9354 Z -1.0000
G01 X 14.3670 Y 17.9404 Z -1.0000
G01 X 14.3692 Y 17.9458 Z -1.0000
G01 X 14.3746 Y 17.9480 Z -1.0000
G01 X 14.3793 Y 17.9509 Z -1.0000
G01 X 14.3822 Y 17.9632 Z -1.0000
G01 X 14.3793 Y 17.9756 Z -1.0000
G01 X 14.3746 Y 17.9785 Z -1.0000
G01 X 14.3699 Y 17.9815 Z -1.0000
G01 X 14.3670 Y 17.9942 Z -1.0000
G01 X 14.3699 Y 18.0048 Z -1.0000
G01 X 14.3738 Y 18.0057 Z -1.0000
G01 X 14.3826 Y 18.0088 Z -1.0000
G03 X 14.3898 Y 18.0508 Z -1.0000 I -0.1180 J 0.0420
G02 X 14.3940 Y 18.0732 Z -1.0000 I 0.0620 J 0.0000
G01 X 14.4013 Y 18.0805 Z -1.0000
G01 X 14.4066 Y 18.0919 Z -1.0000
G01 X 14.3945 Y 18.1006 Z -1.0000
G02 X 14.3769 Y 18.1030 Z -1.0000 I 0.0000 J 0.0665
G02 X 14.3557 Y 18.1113 Z -1.0000 I 0.0286 J 0.1040
G01 X 14.3460 Y 18.1222 Z -1.0000
G01 X 14.3487 Y 18.1297 Z -1.0000
G01 X 14.3548 Y 18.1387 Z -1.0000
G01 X 14.3515 Y 18.1504 Z -1.0000
G01 X 14.3504 Y 18.1577 Z -1.0000
G01 X 14.3557 Y 18.1605 Z -1.0000
G01 X 14.3651 Y 18.1535 Z -1.0000
G01 X 14.3682 Y 18.1367 Z -1.0000
G01 X 14.3717 Y 18.1211 Z -1.0000
G01 X 14.3810 Y 18.1159 Z -1.0000
G01 X 14.4080 Y 18.1261 Z -1.0000
G01 X 14.4123 Y 18.1435 Z -1.0000
G01 X 14.4124 Y 18.1591 Z -1.0000
G01 X 14.4223 Y 18.1691 Z -1.0000
G01 X 14.4298 Y 18.1765 Z -1.0000
G01 X 14.4239 Y 18.1804 Z -1.0000
G01 X 14.4203 Y 18.1960 Z -1.0000
G01 X 14.4175 Y 18.2123 Z -1.0000
G01 X 14.4135 Y 18.2151 Z -1.0000
G01 X 14.3996 Y 18.2055 Z -1.0000
G01 X 14.4017 Y 18.1839 Z -1.0000
G01 X 14.3979 Y 18.1791 Z -1.0000
G01 X 14.3795 Y 18.1909 Z -1.0000
G01 X 14.3680 Y 18.2144 Z -1.0000
G01 X 14.3746 Y 18.2189 Z -1.0000
G01 X 14.3807 Y 18.2188 Z -1.0000
G01 X 14.3869 Y 18.2261 Z -1.0000
G01 X 14.3935 Y 18.2351 Z -1.0000
G01 X 14.4021 Y 18.2380 Z -1.0000
G01 X 14.4095 Y 18.2413 Z -1.0000
G01 X 14.4127 Y 18.2495 Z -1.0000
G01 X 14.4155 Y 18.2581 Z -1.0000
G01 X 14.4208 Y 18.2609 Z -1.0000
G01 X 14.4246 Y 18.2633 Z -1.0000
G01 X 14.4242 Y 18.2685 Z -1.0000
G01 X 14.4248 Y 18.2732 Z -1.0000
G01 X 14.4323 Y 18.2761 Z -1.0000
G01 X 14.4396 Y 18.2803 Z -1.0000
G01 X 14.4411 Y 18.2914 Z -1.0000
G01 X 14.4418 Y 18.3031 Z -1.0000
G01 X 14.4469 Y 18.3067 Z -1.0000
G01 X 14.4635 Y 18.3182 Z -1.0000
G03 X 14.4673 Y 18.3620 Z -1.0000 I -0.0791 J 0.0290
G01 X 14.4691 Y 18.3653 Z -1.0000
G01 X 14.4815 Y 18.3677 Z -1.0000
G01 X 14.4928 Y 18.3716 Z -1.0000
G01 X 14.4968 Y 18.3799 Z -1.0000
G01 X 14.5001 Y 18.3906 Z -1.0000
G02 X 14.5151 Y 18.4066 Z -1.0000 I 0.0607 J -0.0418
G01 X 14.5283 Y 18.4228 Z -1.0000
G01 X 14.5297 Y 18.4358 Z -1.0000
G01 X 14.5112 Y 18.4496 Z -1.0000
G01 X 14.4968 Y 18.4347 Z -1.0000
G01 X 14.4923 Y 18.4256 Z -1.0000
G01 X 14.4796 Y 18.4213 Z -1.0000
G01 X 14.4734 Y 18.4252 Z -1.0000
G01 X 14.4747 Y 18.4309 Z -1.0000
G01 X 14.4867 Y 18.4610 Z -1.0000
G01 X 14.4663 Y 18.4828 Z -1.0000
G01 X 14.4472 Y 18.4872 Z -1.0000
G01 X 14.4701 Y 18.4979 Z -1.0000
G03 X 14.4923 Y 18.5095 Z -1.0000 I -0.1217 J 0.2596
G01 X 14.4968 Y 18.5134 Z -1.0000
G01 X 14.5013 Y 18.5173 Z -1.0000
G02 X 14.5274 Y 18.5319 Z -1.0000 I 0.2126 J -0.3493
G03 X 14.5527 Y 18.5472 Z -1.0000 I -0.0922 J 0.1806
G03 X 14.5638 Y 18.5577 Z -1.0000 I -0.0319 J 0.0449
G03 X 14.6077 Y 18.6298 Z -1.0000 I -0.2601 J 0.2078
G03 X 14.6204 Y 18.6845 Z -1.0000 I -0.1350 J 0.0603
G01 X 14.6278 Y 18.7081 Z -1.0000
G02 X 14.6668 Y 18.7565 Z -1.0000 I 0.2482 J -0.1597
G02 X 14.7138 Y 18.7996 Z -1.0000 I 0.4874 J -0.4843
G01 X 14.7272 Y 18.8069 Z -1.0000
G01 X 14.7363 Y 18.8144 Z -1.0000
G01 X 14.7370 Y 18.8244 Z -1.0000
G02 X 14.7316 Y 18.8575 Z -1.0000 I 0.0674 J 0.0279
G01 X 14.7404 Y 18.8710 Z -1.0000
G03 X 14.7537 Y 18.8811 Z -1.0000 I -0.0250 J 0.0469
G01 X 14.7563 Y 18.8877 Z -1.0000
G01 X 14.7702 Y 18.9198 Z -1.0000
G02 X 14.8085 Y 18.9370 Z -1.0000 I 0.0439 J -0.0464
G01 X 14.8268 Y 18.9434 Z -1.0000
G01 X 14.8347 Y 18.9545 Z -1.0000
G01 X 14.8420 Y 18.9653 Z -1.0000
G02 X 14.8623 Y 18.9742 Z -1.0000 I 0.0322 J -0.0453
G01 X 14.8808 Y 18.9943 Z -1.0000
G01 X 14.8682 Y 19.0172 Z -1.0000
