%
(Header)
(Generated by gcodetools from Inkscape.)
(Using default header. To add your own header create file "header" in the output dir.)
M3
(Header end.)
G21 (All units in mm)

(Start cutting path id: path37219)
(Change tool to Default tool)

G00 Z 5.0000
G00 X 35.3669 Y 1.4627

G01 Z -1.0000 F 100.0000(Penetrate)
G03 X 35.2228 Y 1.5377 Z -1.0000 I -0.1731 J -0.1566 F 3500.0000
G03 X 35.0201 Y 1.5061 Z -1.0000 I -0.0462 J -0.3693
G02 X 34.9002 Y 1.4959 Z -1.0000 I -0.0739 J 0.1595
G02 X 34.4268 Y 1.6670 Z -1.0000 I 0.8045 J 2.9666
G03 X 34.0703 Y 1.8207 Z -1.0000 I -3.7111 J -8.1187
G03 X 33.7568 Y 1.9387 Z -1.0000 I -2.4976 J -6.1592
G02 X 33.4424 Y 2.0545 Z -1.0000 I 3.0336 J 8.7180
G02 X 33.1883 Y 2.1599 Z -1.0000 I 2.2535 J 5.7899
G03 X 32.9350 Y 2.2672 Z -1.0000 I -3.6989 J -8.3850
G03 X 32.7309 Y 2.3455 Z -1.0000 I -2.1753 J -5.3614
G02 X 32.5281 Y 2.4262 Z -1.0000 I 1.2016 J 3.3157
G02 X 32.2780 Y 2.5422 Z -1.0000 I 2.2369 J 5.1522
G03 X 32.0294 Y 2.6591 Z -1.0000 I -3.1943 J -6.4683
G03 X 32.0050 Y 2.6643 Z -1.0000 I -0.0245 J -0.0547
G01 X 31.9826 Y 2.6720 Z -1.0000
G02 X 31.9105 Y 2.7375 Z -1.0000 I 0.3793 J 0.4895
G03 X 31.8332 Y 2.7946 Z -1.0000 I -0.1949 J -0.1831
G03 X 31.7219 Y 2.8299 Z -1.0000 I -0.1737 J -0.3547
G02 X 31.6072 Y 2.8622 Z -1.0000 I 0.0813 J 0.5084
G02 X 31.4891 Y 2.9257 Z -1.0000 I 0.2484 J 0.6036
G03 X 31.3710 Y 2.9854 Z -1.0000 I -0.2911 J -0.4288
G03 X 31.2726 Y 3.0023 Z -1.0000 I -0.0984 J -0.2779
G02 X 31.1737 Y 3.0222 Z -1.0000 I -0.0000 J 0.2559
G02 X 30.5645 Y 3.2991 Z -1.0000 I 4.3507 J 10.3808
G02 X 29.9157 Y 3.6849 Z -1.0000 I 2.0777 J 4.2325
G02 X 29.5634 Y 4.0087 Z -1.0000 I 1.0953 J 1.5453
G03 X 29.4714 Y 4.0919 Z -1.0000 I -0.3544 J -0.2991
G03 X 29.4179 Y 4.1085 Z -1.0000 I -0.0535 J -0.0780
G02 X 29.3686 Y 4.1205 Z -1.0000 I -0.0000 J 0.1078
G01 X 29.3567 Y 4.1400 Z -1.0000
G01 X 29.3453 Y 4.1636 Z -1.0000
G03 X 29.2799 Y 4.2007 Z -1.0000 I -0.1533 J -0.1940
G02 X 29.2137 Y 4.2373 Z -1.0000 I 0.0956 J 0.2515
G01 X 29.2031 Y 4.2585 Z -1.0000
G01 X 29.1903 Y 4.2760 Z -1.0000
G03 X 29.0471 Y 4.3086 Z -1.0000 I -0.2582 J -0.8044
G03 X 28.8984 Y 4.3063 Z -1.0000 I -0.0668 J -0.4855
G03 X 28.8243 Y 4.2708 Z -1.0000 I 0.0250 J -0.1472
G02 X 28.7403 Y 4.2396 Z -1.0000 I -0.0822 J 0.0928
G02 X 28.5399 Y 4.2751 Z -1.0000 I 0.0096 J 0.6380
G02 X 28.3556 Y 4.4181 Z -1.0000 I 0.1203 J 0.3454
G02 X 28.2812 Y 4.6644 Z -1.0000 I 0.3707 J 0.2463
G01 X 28.2703 Y 4.6815 Z -1.0000
G03 X 28.2208 Y 4.6924 Z -1.0000 I -0.0495 J -0.1069
G02 X 28.1697 Y 4.7077 Z -1.0000 I -0.0000 J 0.0930
G02 X 28.1276 Y 4.7538 Z -1.0000 I 0.0699 J 0.1060
G03 X 28.0846 Y 4.7985 Z -1.0000 I -0.1007 J -0.0539
G03 X 28.0227 Y 4.8153 Z -1.0000 I -0.0619 J -0.1056
G02 X 27.9567 Y 4.8280 Z -1.0000 I -0.0000 J 0.1786
G02 X 27.9152 Y 4.8581 Z -1.0000 I 0.0383 J 0.0963
G03 X 27.8373 Y 4.9068 Z -1.0000 I -0.1125 J -0.0934
G03 X 27.5284 Y 4.9522 Z -1.0000 I -0.3991 J -1.6399
G02 X 27.2646 Y 4.9930 Z -1.0000 I 0.0714 J 1.3359
G02 X 26.8344 Y 5.1318 Z -1.0000 I 0.9621 J 3.7170
G03 X 26.5490 Y 5.2230 Z -1.0000 I -0.8784 J -2.2574
G03 X 26.2993 Y 5.2670 Z -1.0000 I -0.4249 J -1.6827
G02 X 26.1491 Y 5.2910 Z -1.0000 I 0.1350 J 1.3266
G02 X 26.1149 Y 5.3074 Z -1.0000 I 0.0176 J 0.0806
G03 X 26.0810 Y 5.3253 Z -1.0000 I -0.0633 J -0.0784
G03 X 25.9613 Y 5.3543 Z -1.0000 I -0.3047 J -0.9966
G02 X 25.8402 Y 5.3819 Z -1.0000 I 0.2426 J 1.3453
G02 X 25.7890 Y 5.4019 Z -1.0000 I 0.0711 J 0.2575
G03 X 25.6619 Y 5.4453 Z -1.0000 I -0.2115 J -0.4110
G03 X 25.2228 Y 5.5070 Z -1.0000 I -0.9186 J -4.9490
G02 X 25.1310 Y 5.5226 Z -1.0000 I 0.0608 J 0.6353
G02 X 24.8694 Y 5.5940 Z -1.0000 I 1.2924 J 5.2480
G03 X 24.6086 Y 5.6697 Z -1.0000 I -4.2669 J -14.2177
G03 X 24.3020 Y 5.7530 Z -1.0000 I -5.4599 J -19.4810
G02 X 23.9974 Y 5.8425 Z -1.0000 I 1.4376 J 5.4571
G02 X 23.6874 Y 5.9525 Z -1.0000 I 1.8701 J 5.7620
G03 X 23.0331 Y 6.1607 Z -1.0000 I -2.0608 J -5.3428
G03 X 22.0555 Y 6.3660 Z -1.0000 I -2.9769 J -11.7487
G02 X 21.2301 Y 6.5088 Z -1.0000 I 12.3138 J 73.6242
G02 X 20.9987 Y 6.5550 Z -1.0000 I 1.0412 J 5.8227
G02 X 20.2342 Y 6.7448 Z -1.0000 I 3.1901 J 14.4807
G02 X 19.6875 Y 6.9178 Z -1.0000 I 2.0949 J 7.5707
G03 X 18.4269 Y 7.3299 Z -1.0000 I -8.2463 J -23.0934
G03 X 18.1803 Y 7.3657 Z -1.0000 I -0.2466 J -0.8297
G02 X 17.7398 Y 7.4175 Z -1.0000 I 0.0000 J 1.9004
G02 X 16.6353 Y 7.7338 Z -1.0000 I 2.9556 J 12.4045
G03 X 16.1880 Y 7.8769 Z -1.0000 I -5.1676 J -15.3850
G03 X 16.0208 Y 7.9207 Z -1.0000 I -0.6394 J -2.1033
G02 X 15.4518 Y 8.0850 Z -1.0000 I 0.9832 J 4.4709
G02 X 14.9460 Y 8.3081 Z -1.0000 I 1.3528 J 3.7533
G03 X 14.6169 Y 8.4409 Z -1.0000 I -0.8204 J -1.5582
G03 X 14.4329 Y 8.4571 Z -1.0000 I -0.1332 J -0.4584
G02 X 14.2477 Y 8.4637 Z -1.0000 I -0.0696 J 0.6496
G02 X 14.1069 Y 8.5158 Z -1.0000 I 0.0758 J 0.4216
G03 X 13.8762 Y 8.5937 Z -1.0000 I -0.3035 J -0.5178
G03 X 13.7152 Y 8.5636 Z -1.0000 I -0.0329 J -0.2694
G02 X 13.4366 Y 8.4807 Z -1.0000 I -0.3417 J 0.6385
G02 X 13.3782 Y 8.5342 Z -1.0000 I -0.0047 J 0.0535
G03 X 13.3417 Y 8.5905 Z -1.0000 I -0.0618 J 0.0000
G03 X 13.0556 Y 8.6793 Z -1.0000 I -0.5054 J -1.1232
G03 X 12.9939 Y 8.6890 Z -1.0000 I -0.2308 J -1.2790
G03 X 12.9031 Y 8.6993 Z -1.0000 I -0.3567 J -2.7171
G02 X 12.8397 Y 8.7342 Z -1.0000 I 0.0089 J 0.0912
G02 X 12.8081 Y 8.8212 Z -1.0000 I 0.1184 J 0.0922
G03 X 12.7435 Y 8.9392 Z -1.0000 I -0.1495 J -0.0052
G03 X 12.3795 Y 9.1164 Z -1.0000 I -0.7681 J -1.1154
G02 X 12.0732 Y 9.2150 Z -1.0000 I 5.6036 J 17.9226
G02 X 12.0017 Y 9.2416 Z -1.0000 I 0.3330 J 1.0044
G03 X 11.9289 Y 9.2598 Z -1.0000 I -0.0977 J -0.2362
G03 X 11.7039 Y 9.2709 Z -1.0000 I -0.2250 J -2.2932
G02 X 11.4844 Y 9.2847 Z -1.0000 I 0.0000 J 1.7465
G01 X 11.4574 Y 9.3021 Z -1.0000
G01 X 11.4351 Y 9.3206 Z -1.0000
G01 X 11.4143 Y 9.3186 Z -1.0000
G02 X 11.2375 Y 9.2937 Z -1.0000 I -0.1168 J 0.1889
G02 X 11.1658 Y 9.3883 Z -1.0000 I 0.0265 J 0.0947
G01 X 11.1555 Y 9.3995 Z -1.0000
G03 X 11.0389 Y 9.3987 Z -1.0000 I -0.0537 J -0.6605
G02 X 10.8422 Y 9.4118 Z -1.0000 I -0.0581 J 0.6095
G02 X 10.5359 Y 9.5155 Z -1.0000 I 0.3730 J 1.6057
G03 X 10.4121 Y 9.5691 Z -1.0000 I -1.6885 J -3.7326
G03 X 10.3054 Y 9.6108 Z -1.0000 I -1.1320 J -2.7390
G02 X 9.7991 Y 9.8233 Z -1.0000 I 2.1414 J 5.8096
G02 X 9.1969 Y 10.1351 Z -1.0000 I 4.0432 J 8.5469
G03 X 8.7435 Y 10.3495 Z -1.0000 I -1.7150 J -3.0402
G03 X 8.2313 Y 10.5094 Z -1.0000 I -1.4443 J -3.7261
G02 X 7.2904 Y 10.7704 Z -1.0000 I 3.2393 J 13.5053
G02 X 6.7564 Y 10.9749 Z -1.0000 I 1.4337 J 4.5425
G03 X 6.6000 Y 11.0377 Z -1.0000 I -0.7893 J -1.7399
G03 X 5.8806 Y 11.2824 Z -1.0000 I -12.8752 J -36.6718
G02 X 5.1585 Y 11.5202 Z -1.0000 I 1396.6552 J 4241.4177
G02 X 4.9434 Y 11.5912 Z -1.0000 I 123.7833 J 375.7093
G03 X 4.7279 Y 11.6610 Z -1.0000 I -6.6661 J -20.1934
G03 X 4.2674 Y 11.8064 Z -1.0000 I -29.3390 J -92.1624
G02 X 3.3492 Y 12.1396 Z -1.0000 I 3.2447 J 10.3716
G02 X 3.1411 Y 12.2734 Z -1.0000 I 0.2670 J 0.6439
G02 X 3.0710 Y 12.3579 Z -1.0000 I 0.2928 J 0.3143
G02 X 2.9343 Y 12.6000 Z -1.0000 I 2.3294 J 1.4758
G02 X 2.8398 Y 12.8562 Z -1.0000 I 1.1083 J 0.5544
G02 X 2.8281 Y 13.0281 Z -1.0000 I 0.4793 J 0.1188
G03 X 2.8266 Y 13.2016 Z -1.0000 I -0.7402 J 0.0801
G03 X 2.7929 Y 13.3067 Z -1.0000 I -0.2990 J -0.0378
G02 X 2.7725 Y 13.4068 Z -1.0000 I 0.1558 J 0.0839
G02 X 2.8132 Y 13.5287 Z -1.0000 I 0.2792 J -0.0256
G03 X 2.8762 Y 13.6548 Z -1.0000 I -0.6613 J 0.4091
G03 X 2.9745 Y 13.9414 Z -1.0000 I -3.3449 J 1.3066
G02 X 3.2730 Y 14.7085 Z -1.0000 I 4.7509 J -1.4073
G02 X 3.4926 Y 15.0024 Z -1.0000 I 0.8847 J -0.4321
G03 X 3.7044 Y 15.2540 Z -1.0000 I -0.8606 J 0.9394
G03 X 3.7716 Y 15.4374 Z -1.0000 I -0.3779 J 0.2424
G02 X 3.8081 Y 15.5832 Z -1.0000 I 0.6557 J -0.0870
G02 X 3.8759 Y 15.7149 Z -1.0000 I 0.6017 J -0.2262
G02 X 4.2473 Y 16.2409 Z -1.0000 I 11.0731 J -7.4247
G02 X 4.4168 Y 16.4430 Z -1.0000 I 1.7945 J -1.3332
G03 X 4.5450 Y 16.5995 Z -1.0000 I -1.0431 J 0.9854
G03 X 4.5593 Y 16.6444 Z -1.0000 I -0.0634 J 0.0449
G02 X 4.5696 Y 16.6920 Z -1.0000 I 0.1155 J 0.0000
G02 X 4.6440 Y 16.8315 Z -1.0000 I 1.1089 J -0.5017
G03 X 4.7547 Y 17.0291 Z -1.0000 I -2.1842 J 1.3539
G03 X 4.8483 Y 17.2370 Z -1.0000 I -2.3239 J 1.1708
G02 X 4.9031 Y 17.3391 Z -1.0000 I 0.4733 J -0.1885
G01 X 4.9283 Y 17.3522 Z -1.0000
G01 X 4.9453 Y 17.3618 Z -1.0000
G01 X 4.9453 Y 17.3799 Z -1.0000
G01 X 4.9426 Y 17.4084 Z -1.0000
G02 X 5.0773 Y 17.7256 Z -1.0000 I 4.3696 J -1.6687
G02 X 5.5161 Y 18.3761 Z -1.0000 I 2.3015 J -1.0792
G02 X 6.0732 Y 18.7981 Z -1.0000 I 1.4774 J -1.3720
G03 X 6.2108 Y 18.8859 Z -1.0000 I -0.3967 J 0.7732
G03 X 6.4313 Y 19.0771 Z -1.0000 I -1.7099 J 2.1939
G02 X 6.6483 Y 19.2743 Z -1.0000 I 3.4549 J -3.5842
G02 X 6.7781 Y 19.3741 Z -1.0000 I 1.0102 J -1.1797
G03 X 6.8950 Y 19.4811 Z -1.0000 I -0.3258 J 0.4735
G03 X 6.9528 Y 19.5851 Z -1.0000 I -0.2495 J 0.2066
G03 X 7.0347 Y 19.8559 Z -1.0000 I -4.7130 J 1.5737
G03 X 7.1309 Y 20.2407 Z -1.0000 I -9.4199 J 2.5595
G02 X 7.1554 Y 20.3141 Z -1.0000 I 0.3893 J -0.0890
G02 X 7.1857 Y 20.3636 Z -1.0000 I 0.2044 J -0.0910
G03 X 7.2190 Y 20.4122 Z -1.0000 I -0.2912 J 0.2350
G03 X 7.3532 Y 20.6555 Z -1.0000 I -7.2080 J 4.1380
G02 X 7.6979 Y 21.2315 Z -1.0000 I 5.7622 J -3.0565
G02 X 7.9679 Y 21.5722 Z -1.0000 I 2.2718 J -1.5233
G02 X 8.2325 Y 21.7805 Z -1.0000 I 0.8031 J -0.7479
G02 X 8.6000 Y 21.9283 Z -1.0000 I 0.7457 J -1.3237
G03 X 8.8319 Y 22.0143 Z -1.0000 I -0.2974 J 1.1574
G03 X 8.9380 Y 22.0953 Z -1.0000 I -0.1542 J 0.3122
G02 X 9.1331 Y 22.2540 Z -1.0000 I 0.5843 J -0.5188
G02 X 9.6352 Y 22.4958 Z -1.0000 I 1.9115 J -3.3275
G03 X 9.7347 Y 22.5573 Z -1.0000 I -0.1212 J 0.3070
G03 X 9.8321 Y 22.6728 Z -1.0000 I -0.3680 J 0.4093
G02 X 9.9193 Y 22.8021 Z -1.0000 I 2.1894 J -1.3821
G02 X 9.9569 Y 22.8463 Z -1.0000 I 0.2912 J -0.2094
G03 X 9.9916 Y 22.8903 Z -1.0000 I -0.1708 J 0.1708
G01 X 9.9981 Y 22.9133 Z -1.0000
G02 X 10.0507 Y 23.0392 Z -1.0000 I 0.1771 J 0.0000
G02 X 10.8240 Y 23.7295 Z -1.0000 I 7.1790 J -7.2641
G03 X 10.9845 Y 23.9013 Z -1.0000 I -0.5222 J 0.6485
G03 X 11.0757 Y 24.0899 Z -1.0000 I -0.5422 J 0.3786
G02 X 11.1542 Y 24.2890 Z -1.0000 I 1.2158 J -0.3645
G02 X 11.2315 Y 24.4045 Z -1.0000 I 0.4794 J -0.2376
G02 X 11.4981 Y 24.6338 Z -1.0000 I 0.9480 J -0.8324
G02 X 11.9254 Y 24.8498 Z -1.0000 I 1.2627 J -1.9674
G03 X 12.6376 Y 25.1709 Z -1.0000 I -2.4052 J 6.2860
G03 X 12.7925 Y 25.3029 Z -1.0000 I -0.2116 J 0.4050
G02 X 12.8124 Y 25.3232 Z -1.0000 I 0.0825 J -0.0614
G02 X 12.8712 Y 25.3632 Z -1.0000 I 0.3916 J -0.5115
G03 X 13.1962 Y 25.5671 Z -1.0000 I -5.7687 J 9.5576
G03 X 13.3406 Y 25.6690 Z -1.0000 I -1.2949 J 1.9877
G02 X 13.4802 Y 25.7607 Z -1.0000 I 0.7153 J -0.9370
G02 X 13.5573 Y 25.7903 Z -1.0000 I 0.1405 J -0.2511
G03 X 13.6389 Y 25.8108 Z -1.0000 I -0.3895 J 1.7220
G03 X 13.8347 Y 25.8671 Z -1.0000 I -2.7759 J 10.0245
G02 X 14.0314 Y 25.9155 Z -1.0000 I 0.5966 J -2.0013
G02 X 14.1332 Y 25.9253 Z -1.0000 I 0.1018 J -0.5218
G03 X 14.2294 Y 25.9734 Z -1.0000 I -0.0000 J 0.1202
G03 X 14.3748 Y 26.2480 Z -1.0000 I -0.8025 J 0.6010
G01 X 14.4383 Y 26.4323 Z -1.0000
G01 X 14.6101 Y 26.4477 Z -1.0000
G03 X 14.7722 Y 26.4870 Z -1.0000 I -0.0501 J 0.5596
G03 X 14.9174 Y 26.5730 Z -1.0000 I -0.2170 J 0.5321
G02 X 15.5393 Y 27.0111 Z -1.0000 I 3.5201 J -4.3367
G02 X 16.0541 Y 27.2630 Z -1.0000 I 1.6454 J -2.7107
G03 X 16.4609 Y 27.4408 Z -1.0000 I -1.6626 J 4.3567
G03 X 16.6814 Y 27.5736 Z -1.0000 I -0.6959 J 1.4053
G02 X 17.1790 Y 27.8313 Z -1.0000 I 1.1239 J -1.5605
G02 X 17.9184 Y 27.9997 Z -1.0000 I 1.1471 J -3.3301
G03 X 18.3112 Y 28.0785 Z -1.0000 I -0.2832 J 2.4299
G03 X 18.6169 Y 28.2005 Z -1.0000 I -0.4565 J 1.5880
G02 X 18.9189 Y 28.3374 Z -1.0000 I 1.4207 J -2.7321
G02 X 19.1273 Y 28.3995 Z -1.0000 I 0.4809 J -1.2334
G03 X 19.3387 Y 28.4534 Z -1.0000 I -0.5299 J 2.5191
G03 X 19.4313 Y 28.4909 Z -1.0000 I -0.1555 J 0.5173
G02 X 19.5234 Y 28.5295 Z -1.0000 I 0.2854 J -0.5520
G02 X 19.6714 Y 28.5695 Z -1.0000 I 0.4545 J -1.3893
G03 X 19.8058 Y 28.6294 Z -1.0000 I -0.0746 J 0.3479
G03 X 19.9996 Y 28.8076 Z -1.0000 I -0.6694 J 0.9225
G02 X 20.1847 Y 29.0028 Z -1.0000 I 2.1514 J -1.8547
G02 X 20.2422 Y 29.0403 Z -1.0000 I 0.1280 J -0.1335
G02 X 20.3094 Y 29.0567 Z -1.0000 I 0.0869 J -0.2106
G02 X 20.5224 Y 29.0647 Z -1.0000 I 0.1875 J -2.1572
G03 X 20.7342 Y 29.0777 Z -1.0000 I 0.0170 J 1.4547
G03 X 20.8341 Y 29.1068 Z -1.0000 I -0.0468 J 0.3463
G02 X 21.0416 Y 29.1452 Z -1.0000 I 0.1788 J -0.3865
G02 X 21.1395 Y 29.0862 Z -1.0000 I -0.0084 J -0.1247
G01 X 21.1614 Y 29.0724 Z -1.0000
G03 X 21.2273 Y 29.0772 Z -1.0000 I 0.0194 J 0.1899
G02 X 21.4101 Y 29.0473 Z -1.0000 I 0.0568 J -0.2264
G02 X 21.7669 Y 28.7311 Z -1.0000 I -0.8344 J -1.3009
G03 X 21.9405 Y 28.5309 Z -1.0000 I 4.3321 J 3.5812
G03 X 22.0955 Y 28.3697 Z -1.0000 I 2.9623 J 2.6937
G02 X 22.3783 Y 28.0441 Z -1.0000 I -1.9226 J -1.9552
G02 X 22.4122 Y 27.9412 Z -1.0000 I -0.1393 J -0.1030
G03 X 22.4231 Y 27.9054 Z -1.0000 I 0.0640 J 0.0000
G03 X 22.5044 Y 27.8045 Z -1.0000 I 0.6350 J 0.4284
G02 X 22.5742 Y 27.6991 Z -1.0000 I -0.2588 J -0.2473
G02 X 22.5966 Y 27.5910 Z -1.0000 I -0.2504 J -0.1081
G03 X 22.6079 Y 27.4787 Z -1.0000 I 0.5640 J 0.0000
G03 X 22.6264 Y 27.4441 Z -1.0000 I 0.0666 J 0.0135
G02 X 22.6462 Y 27.4092 Z -1.0000 I -0.0531 J -0.0531
G02 X 22.6854 Y 27.2082 Z -1.0000 I -1.8993 J -0.4754
G03 X 22.7352 Y 27.0086 Z -1.0000 I 0.9844 J 0.1394
G03 X 22.8915 Y 26.6404 Z -1.0000 I 3.5284 J 1.2802
G02 X 23.0611 Y 26.2757 Z -1.0000 I -9.3557 J -4.5730
G02 X 23.1338 Y 26.0919 Z -1.0000 I -2.2974 J -1.0150
G03 X 23.2393 Y 25.8519 Z -1.0000 I 1.6114 J 0.5650
G03 X 23.4807 Y 25.4428 Z -1.0000 I 4.9486 J 2.6452
G03 X 23.5752 Y 25.3236 Z -1.0000 I 0.6743 J 0.4375
G03 X 23.7217 Y 25.1918 Z -1.0000 I 0.9732 J 0.9344
G02 X 23.8692 Y 25.0603 Z -1.0000 I -0.8785 J -1.1331
G02 X 24.0136 Y 24.8928 Z -1.0000 I -1.2848 J -1.2541
G03 X 24.3122 Y 24.5794 Z -1.0000 I 1.5551 J 1.1824
G03 X 24.6092 Y 24.3925 Z -1.0000 I 0.8261 J 0.9834
G02 X 24.7381 Y 24.2923 Z -1.0000 I -0.1437 J -0.3180
G02 X 24.8376 Y 24.1066 Z -1.0000 I -0.4543 J -0.3629
G03 X 24.8819 Y 23.9975 Z -1.0000 I 0.7378 J 0.2361
G03 X 24.9294 Y 23.9222 Z -1.0000 I 0.3970 J 0.1976
G02 X 24.9783 Y 23.8477 Z -1.0000 I -0.4286 J -0.3346
G02 X 25.0076 Y 23.7786 Z -1.0000 I -0.3387 J -0.1845
G03 X 25.0421 Y 23.7131 Z -1.0000 I 0.1964 J 0.0616
G03 X 25.2058 Y 23.5263 Z -1.0000 I 1.8208 J 1.4297
G02 X 25.3901 Y 23.2896 Z -1.0000 I -0.9682 J -0.9444
G02 X 25.4969 Y 23.0522 Z -1.0000 I -0.8677 J -0.5329
G03 X 25.6714 Y 22.5364 Z -1.0000 I 8.1815 J 2.4808
G03 X 25.7236 Y 22.4463 Z -1.0000 I 0.2928 J 0.1096
G02 X 25.7510 Y 22.4036 Z -1.0000 I -0.1591 J -0.1321
G02 X 25.8205 Y 22.2442 Z -1.0000 I -2.1972 J -1.0531
G03 X 25.8909 Y 22.0849 Z -1.0000 I 1.9964 J 0.7868
G03 X 25.9412 Y 21.9984 Z -1.0000 I 0.6357 J 0.3123
G02 X 25.9975 Y 21.9151 Z -1.0000 I -9.6418 J -6.5656
G02 X 26.0717 Y 21.8032 Z -1.0000 I -16.8776 J -11.2811
G03 X 26.1458 Y 21.6912 Z -1.0000 I 33.7175 J 22.2196
G03 X 26.2655 Y 21.5113 Z -1.0000 I 83.9462 J 55.7211
G02 X 26.3852 Y 21.3313 Z -1.0000 I -82.5206 J -55.0304
G02 X 26.4562 Y 21.2239 Z -1.0000 I -29.4470 J -19.5447
G02 X 26.5205 Y 21.1129 Z -1.0000 I -0.9294 J -0.6120
G02 X 26.5957 Y 20.9474 Z -1.0000 I -1.9973 J -1.0071
G03 X 26.6713 Y 20.7824 Z -1.0000 I 1.9086 J 0.7750
G03 X 26.7199 Y 20.7051 Z -1.0000 I 0.4635 J 0.2377
G02 X 26.7506 Y 20.6121 Z -1.0000 I -0.1201 J -0.0912
G01 X 26.7183 Y 20.5708 Z -1.0000
G01 X 26.6741 Y 20.5816 Z -1.0000
G02 X 26.6204 Y 20.6594 Z -1.0000 I 0.1387 J 0.1533
G03 X 26.5724 Y 20.7523 Z -1.0000 I -0.4731 J -0.1856
G01 X 26.5526 Y 20.7630 Z -1.0000
G02 X 26.4740 Y 20.7994 Z -1.0000 I 0.0000 J 0.1031
G02 X 26.4376 Y 20.8986 Z -1.0000 I 0.1169 J 0.0992
G03 X 26.3616 Y 21.0250 Z -1.0000 I -0.1431 J -0.0000
G03 X 26.0563 Y 21.1010 Z -1.0000 I -0.3052 J -0.5749
G02 X 25.9859 Y 21.1110 Z -1.0000 I -0.0000 J 0.2538
G01 X 25.9637 Y 21.1278 Z -1.0000
G01 X 25.9417 Y 21.1466 Z -1.0000
G03 X 25.8569 Y 21.1726 Z -1.0000 I -0.1719 J -0.4099
G02 X 25.7728 Y 21.2033 Z -1.0000 I 0.0574 J 0.2882
G02 X 25.6642 Y 21.2785 Z -1.0000 I 0.3088 J 0.5617
G03 X 25.3747 Y 21.4677 Z -1.0000 I -0.8678 J -1.0116
G03 X 25.2453 Y 21.4803 Z -1.0000 I -0.0818 J -0.1698
G02 X 25.1851 Y 21.4793 Z -1.0000 I -0.0321 J 0.1232
G02 X 25.0443 Y 21.5259 Z -1.0000 I 0.1697 J 0.7484
G01 X 24.9048 Y 21.5876 Z -1.0000
G01 X 24.8308 Y 21.5210 Z -1.0000
G03 X 24.7880 Y 21.4449 Z -1.0000 I 0.0914 J -0.1016
G03 X 24.7920 Y 21.3165 Z -1.0000 I 0.2909 J -0.0553
G03 X 24.8344 Y 21.2239 Z -1.0000 I 0.2761 J 0.0704
G01 X 24.8563 Y 21.2243 Z -1.0000
G01 X 24.8757 Y 21.2249 Z -1.0000
G02 X 24.9010 Y 21.1628 Z -1.0000 I -0.1130 J -0.0822
G03 X 24.9348 Y 21.0732 Z -1.0000 I 0.2209 J 0.0321
G03 X 24.9780 Y 21.0444 Z -1.0000 I 0.0550 J 0.0358
G02 X 25.0356 Y 21.0252 Z -1.0000 I -0.0391 J -0.2130
G02 X 25.0899 Y 20.9886 Z -1.0000 I -0.1119 J -0.2244
G03 X 25.1450 Y 20.9546 Z -1.0000 I 0.1257 J 0.1420
G03 X 25.2234 Y 20.9351 Z -1.0000 I 0.1096 J 0.2734
G02 X 25.3007 Y 20.9167 Z -1.0000 I -0.0336 J -0.3129
G02 X 25.3266 Y 20.8961 Z -1.0000 I -0.0190 J -0.0506
G03 X 25.3512 Y 20.8717 Z -1.0000 I 0.0734 J 0.0492
G03 X 25.4034 Y 20.8451 Z -1.0000 I 0.1401 J 0.2110
G02 X 25.4489 Y 20.8140 Z -1.0000 I -0.0392 J -0.1060
G02 X 25.4761 Y 20.7629 Z -1.0000 I -0.0935 J -0.0827
G03 X 25.5029 Y 20.7154 Z -1.0000 I 0.1034 J 0.0270
G01 X 25.5356 Y 20.7016 Z -1.0000
G02 X 25.5710 Y 20.6898 Z -1.0000 I 0.0000 J -0.0588
G02 X 25.5967 Y 20.6557 Z -1.0000 I -0.0465 J -0.0618
G03 X 25.6197 Y 20.6257 Z -1.0000 I 0.0619 J 0.0238
G01 X 25.6391 Y 20.6250 Z -1.0000
G02 X 25.7220 Y 20.6276 Z -1.0000 I 0.0437 J -0.0707
G01 X 25.7446 Y 20.5684 Z -1.0000
G03 X 25.7417 Y 20.5337 Z -1.0000 I 0.0620 J -0.0226
G03 X 25.7595 Y 20.4885 Z -1.0000 I 0.1259 J 0.0235
G01 X 25.7916 Y 20.4699 Z -1.0000
G03 X 25.8368 Y 20.4852 Z -1.0000 I 0.0028 J 0.0662
G01 X 25.8833 Y 20.4852 Z -1.0000
G02 X 25.9285 Y 20.4096 Z -1.0000 I -0.0834 J -0.1013
G02 X 25.9269 Y 20.3794 Z -1.0000 I -0.0599 J -0.0119
G01 X 25.9189 Y 20.3789 Z -1.0000
G01 X 25.8918 Y 20.3993 Z -1.0000
G01 X 25.8689 Y 20.3861 Z -1.0000
G03 X 25.8706 Y 20.3382 Z -1.0000 I 0.0541 J -0.0221
G03 X 25.9270 Y 20.2687 Z -1.0000 I 0.1816 J 0.0898
G02 X 25.9951 Y 20.1996 Z -1.0000 I -0.2378 J -0.3023
G02 X 26.0074 Y 20.1634 Z -1.0000 I -0.0475 J -0.0362
G03 X 26.0181 Y 20.1254 Z -1.0000 I 0.0722 J -0.0000
G03 X 26.0867 Y 20.0350 Z -1.0000 I 0.5080 J 0.3138
G03 X 26.1418 Y 19.9835 Z -1.0000 I 0.3667 J 0.3373
G01 X 26.1463 Y 19.9872 Z -1.0000
G01 X 26.1423 Y 20.0160 Z -1.0000
G01 X 26.1541 Y 20.0256 Z -1.0000
G01 X 26.1919 Y 19.9944 Z -1.0000
G02 X 26.1758 Y 19.9128 Z -1.0000 I -0.1087 J -0.0209
G03 X 26.1508 Y 19.8531 Z -1.0000 I 0.1484 J -0.0972
G01 X 26.1603 Y 19.8412 Z -1.0000
G01 X 26.1782 Y 19.8277 Z -1.0000
G02 X 26.1918 Y 19.7309 Z -1.0000 I -0.3396 J -0.0968
G03 X 26.2146 Y 19.6309 Z -1.0000 I 0.2302 J 0.0000
G03 X 26.2839 Y 19.5397 Z -1.0000 I 0.2590 J 0.1249
G02 X 26.3662 Y 19.4543 Z -1.0000 I -0.4671 J -0.5323
G01 X 26.3761 Y 19.4264 Z -1.0000
G03 X 26.4332 Y 19.3109 Z -1.0000 I 0.1454 J -0.0000
G03 X 26.5337 Y 19.3059 Z -1.0000 I 0.0539 J 0.0705
G01 X 26.5509 Y 19.3023 Z -1.0000
G02 X 26.5595 Y 19.2684 Z -1.0000 I -0.0416 J -0.0286
G03 X 26.5758 Y 19.1707 Z -1.0000 I 0.1839 J -0.0194
G01 X 26.6119 Y 19.1562 Z -1.0000
G01 X 26.6379 Y 19.1504 Z -1.0000
G01 X 26.6433 Y 19.1238 Z -1.0000
G03 X 26.6429 Y 19.0758 Z -1.0000 I 0.0642 J -0.0246
G03 X 26.6841 Y 19.0109 Z -1.0000 I 0.1662 J 0.0600
G02 X 26.7309 Y 18.8973 Z -1.0000 I -0.1129 J -0.1129
G02 X 26.6834 Y 18.8361 Z -1.0000 I -0.0635 J 0.0003
G03 X 26.6369 Y 18.8085 Z -1.0000 I 0.0246 J -0.0943
G03 X 26.6220 Y 18.7707 Z -1.0000 I 0.0403 J -0.0378
G01 X 26.6092 Y 18.7617 Z -1.0000
G02 X 26.5761 Y 18.7868 Z -1.0000 I 0.0226 J 0.0641
G03 X 26.5226 Y 18.8315 Z -1.0000 I -0.1090 J -0.0763
G03 X 26.4685 Y 18.8362 Z -1.0000 I -0.0336 J -0.0733
G01 X 26.4351 Y 18.7937 Z -1.0000
G03 X 26.4662 Y 18.7215 Z -1.0000 I 0.0948 J -0.0019
G02 X 26.5088 Y 18.6638 Z -1.0000 I -0.1214 J -0.1342
G01 X 26.5101 Y 18.6274 Z -1.0000
G01 X 26.5148 Y 18.5967 Z -1.0000
G03 X 26.5583 Y 18.5667 Z -1.0000 I 0.0708 J 0.0562
G02 X 26.6084 Y 18.5366 Z -1.0000 I -0.0384 J -0.1208
G01 X 26.6220 Y 18.5046 Z -1.0000
G03 X 26.6501 Y 18.4553 Z -1.0000 I 0.0573 J 0.0000
G03 X 26.7756 Y 18.4138 Z -1.0000 I 0.1579 J 0.2672
G01 X 26.7895 Y 18.4087 Z -1.0000
G02 X 26.9029 Y 18.3267 Z -1.0000 I -1.5059 J -2.2013
G03 X 27.0231 Y 18.2653 Z -1.0000 I 0.2279 J 0.2983
G03 X 27.1948 Y 18.2392 Z -1.0000 I 0.1783 J 0.5952
G02 X 27.3701 Y 18.2244 Z -1.0000 I -0.0119 J -1.1825
G02 X 27.4155 Y 18.2039 Z -1.0000 I -0.0151 J -0.0944
G01 X 27.4531 Y 18.1936 Z -1.0000
G03 X 27.4870 Y 18.2146 Z -1.0000 I -0.0075 J 0.0499
G01 X 27.5147 Y 18.2313 Z -1.0000
G01 X 27.5333 Y 18.2203 Z -1.0000
G03 X 27.6100 Y 18.1683 Z -1.0000 I 0.0773 J 0.0314
G03 X 27.7394 Y 18.2187 Z -1.0000 I 0.0015 J 0.1874
G03 X 27.7565 Y 18.2596 Z -1.0000 I -0.0368 J 0.0394
G03 X 27.7361 Y 18.3412 Z -1.0000 I -0.1949 J -0.0053
G02 X 27.7033 Y 18.4294 Z -1.0000 I 0.3976 J 0.1983
G02 X 27.6908 Y 18.5185 Z -1.0000 I 0.3930 J 0.1006
G03 X 27.6768 Y 18.5889 Z -1.0000 I -0.2146 J -0.0060
G01 X 27.6621 Y 18.5939 Z -1.0000
G01 X 27.6450 Y 18.5939 Z -1.0000
G01 X 27.6360 Y 18.6103 Z -1.0000
G01 X 27.6439 Y 18.6350 Z -1.0000
G01 X 27.6591 Y 18.6428 Z -1.0000
G03 X 27.8140 Y 18.8059 Z -1.0000 I 0.0001 J 0.1550
G03 X 27.6386 Y 19.0363 Z -1.0000 I -0.2566 J -0.0133
G01 X 27.6215 Y 19.0562 Z -1.0000
G02 X 27.6241 Y 19.1217 Z -1.0000 I 0.1566 J 0.0267
G03 X 27.6253 Y 19.1824 Z -1.0000 I -0.1319 J 0.0331
G01 X 27.6086 Y 19.1959 Z -1.0000
G01 X 27.5868 Y 19.2082 Z -1.0000
G02 X 27.5746 Y 19.2516 Z -1.0000 I 0.0711 J 0.0435
G03 X 27.5653 Y 19.3052 Z -1.0000 I -0.1592 J 0.0000
G03 X 27.4978 Y 19.4666 Z -1.0000 I -1.5516 J -0.5546
G02 X 27.4294 Y 19.6278 Z -1.0000 I 1.6280 J 0.7854
G02 X 27.4209 Y 19.6754 Z -1.0000 I 0.1293 J 0.0476
G01 X 27.4065 Y 19.7038 Z -1.0000
G01 X 27.3764 Y 19.7078 Z -1.0000
G01 X 27.3537 Y 19.7126 Z -1.0000
G01 X 27.3489 Y 19.7350 Z -1.0000
G01 X 27.3470 Y 19.7708 Z -1.0000
G03 X 27.3166 Y 19.7982 Z -1.0000 I -0.0509 J -0.0260
G01 X 27.3105 Y 19.8316 Z -1.0000
G02 X 27.3853 Y 19.8591 Z -1.0000 I 0.0725 J -0.0818
G02 X 27.4780 Y 19.8375 Z -1.0000 I -0.0049 J -0.2314
G01 X 27.4911 Y 19.8098 Z -1.0000
G03 X 27.4963 Y 19.7681 Z -1.0000 I 0.0550 J -0.0143
G03 X 27.5575 Y 19.6892 Z -1.0000 I 0.2800 J 0.1541
G02 X 27.6282 Y 19.6120 Z -1.0000 I -0.4791 J -0.5100
G01 X 27.6360 Y 19.5894 Z -1.0000
G03 X 27.6420 Y 19.5652 Z -1.0000 I 0.0526 J -0.0000
G03 X 27.7128 Y 19.4418 Z -1.0000 I 1.5148 J 0.7881
G02 X 27.7815 Y 19.3177 Z -1.0000 I -1.0358 J -0.6539
G02 X 27.7899 Y 19.2811 Z -1.0000 I -0.0776 J -0.0372
G03 X 27.8009 Y 19.2463 Z -1.0000 I 0.0618 J 0.0004
G03 X 27.8914 Y 19.1345 Z -1.0000 I 0.7922 J 0.5482
G02 X 27.9876 Y 19.0230 Z -1.0000 I -1.2705 J -1.1949
G02 X 28.0923 Y 18.8810 Z -1.0000 I -1.9591 J -1.5529
G03 X 28.1970 Y 18.7443 Z -1.0000 I 1.3113 J 0.8964
G01 X 28.2173 Y 18.7350 Z -1.0000
G02 X 28.2620 Y 18.7122 Z -1.0000 I -0.0000 J -0.0554
G02 X 28.4519 Y 18.4124 Z -1.0000 I -2.2334 J -1.6244
G03 X 28.5719 Y 18.2321 Z -1.0000 I 1.0937 J 0.5979
G03 X 28.6254 Y 18.1954 Z -1.0000 I 0.0872 J 0.0697
G02 X 28.6677 Y 18.1688 Z -1.0000 I -0.0300 J -0.0949
G02 X 28.6961 Y 18.1205 Z -1.0000 I -0.0916 J -0.0865
G03 X 28.7231 Y 18.0671 Z -1.0000 I 0.1783 J 0.0566
G03 X 28.8121 Y 17.9607 Z -1.0000 I 0.8171 J 0.5933
G02 X 28.9083 Y 17.8475 Z -1.0000 I -0.8741 J -0.8399
G02 X 29.0449 Y 17.6500 Z -1.0000 I -2.5349 J -1.8986
G03 X 29.1218 Y 17.5453 Z -1.0000 I 0.8269 J 0.5266
G01 X 29.1403 Y 17.5366 Z -1.0000
G02 X 29.2060 Y 17.5014 Z -1.0000 I 0.0000 J -0.0788
G02 X 29.5272 Y 16.9528 Z -1.0000 I -4.7736 J -3.1638
G03 X 29.6506 Y 16.7253 Z -1.0000 I 5.0775 J 2.6062
G03 X 29.7557 Y 16.5533 Z -1.0000 I 3.0064 J 1.7196
G02 X 29.8607 Y 16.3813 Z -1.0000 I -2.8575 J -1.8630
G02 X 29.9925 Y 16.1385 Z -1.0000 I -5.5656 J -3.1768
G03 X 30.1215 Y 15.8940 Z -1.0000 I 12.2838 J 6.3253
G03 X 30.2416 Y 15.6776 Z -1.0000 I 9.7714 J 5.2816
G02 X 30.3159 Y 15.4752 Z -1.0000 I -0.5674 J -0.3233
G01 X 30.2833 Y 15.4565 Z -1.0000
G03 X 30.2300 Y 15.4870 Z -1.0000 I -0.1041 J -0.1198
G03 X 30.1941 Y 15.4867 Z -1.0000 I -0.0174 J -0.0514
G01 X 30.1663 Y 15.4879 Z -1.0000
G01 X 30.1557 Y 15.5046 Z -1.0000
G01 X 30.1438 Y 15.5288 Z -1.0000
G03 X 30.0559 Y 15.5815 Z -1.0000 I -0.2698 J -0.3506
G03 X 29.9559 Y 15.6264 Z -1.0000 I -25.9277 J -57.5206
G03 X 29.8177 Y 15.6883 Z -1.0000 I -46.1532 J -102.8672
G02 X 29.5805 Y 15.8456 Z -1.0000 I 0.3532 J 0.7900
G02 X 29.5293 Y 15.9574 Z -1.0000 I 0.1103 J 0.1182
G03 X 29.4764 Y 16.1067 Z -1.0000 I -0.2662 J -0.0104
G03 X 29.3394 Y 16.2113 Z -1.0000 I -0.2530 J -0.1893
G02 X 29.2100 Y 16.2858 Z -1.0000 I 0.1879 J 0.4762
G01 X 29.2176 Y 16.3075 Z -1.0000
G01 X 29.2216 Y 16.3154 Z -1.0000
G03 X 29.1863 Y 16.3509 Z -1.0000 I -0.1293 J -0.0931
G03 X 29.1265 Y 16.3822 Z -1.0000 I -0.1345 J -0.1840
G01 X 29.1034 Y 16.3797 Z -1.0000
G01 X 29.0837 Y 16.3857 Z -1.0000
G02 X 29.0359 Y 16.5313 Z -1.0000 I 0.6914 J 0.3079
G03 X 29.0014 Y 16.6042 Z -1.0000 I -0.1755 J -0.0385
G03 X 28.9408 Y 16.6516 Z -1.0000 I -0.1283 J -0.1014
G02 X 28.8808 Y 16.7005 Z -1.0000 I 0.0634 J 0.1391
G02 X 28.8293 Y 16.8042 Z -1.0000 I 0.2760 J 0.2018
G03 X 28.7821 Y 16.9061 Z -1.0000 I -0.3789 J -0.1135
G01 X 28.7527 Y 16.9221 Z -1.0000
G02 X 28.7220 Y 16.9326 Z -1.0000 I 0.0000 J 0.0501
G01 X 28.7115 Y 16.9541 Z -1.0000
G03 X 28.6716 Y 17.0343 Z -1.0000 I -0.1006 J -0.0000
G03 X 28.5818 Y 17.0521 Z -1.0000 I -0.0632 J -0.0837
G03 X 28.5402 Y 17.0277 Z -1.0000 I 0.0227 J -0.0863
G01 X 28.5271 Y 16.9953 Z -1.0000
G01 X 28.5135 Y 16.9653 Z -1.0000
G02 X 28.4734 Y 16.9483 Z -1.0000 I -0.0461 J 0.0527
G03 X 28.3732 Y 16.9377 Z -1.0000 I 0.1947 J -2.3208
G03 X 28.3033 Y 16.9266 Z -1.0000 I 0.1508 J -1.1815
G01 X 28.2755 Y 16.8597 Z -1.0000
G03 X 28.3900 Y 16.7992 Z -1.0000 I 0.1144 J 0.0778
G02 X 28.4237 Y 16.7879 Z -1.0000 I -0.0000 J -0.0559
G01 X 28.4350 Y 16.7651 Z -1.0000
G01 X 28.4229 Y 16.7486 Z -1.0000
G02 X 28.3869 Y 16.7496 Z -1.0000 I -0.0167 J 0.0515
G01 X 28.3639 Y 16.7410 Z -1.0000
G03 X 28.3598 Y 16.6991 Z -1.0000 I 0.0484 J -0.0259
G03 X 28.3871 Y 16.6337 Z -1.0000 I 0.3402 J 0.1036
G03 X 28.4232 Y 16.5816 Z -1.0000 I 0.2495 J 0.1348
G02 X 28.4564 Y 16.5296 Z -1.0000 I -0.1534 J -0.1342
G02 X 28.4657 Y 16.4853 Z -1.0000 I -0.1005 J -0.0443
G03 X 28.5178 Y 16.3804 Z -1.0000 I 0.1318 J 0.0000
G03 X 28.6782 Y 16.3240 Z -1.0000 I 0.1677 J 0.2209
G02 X 28.7138 Y 16.3093 Z -1.0000 I -0.0014 J -0.0539
G02 X 28.7770 Y 16.2307 Z -1.0000 I -0.2542 J -0.2692
G03 X 28.8325 Y 16.1386 Z -1.0000 I 31.9556 J 19.1797
G03 X 28.8652 Y 16.0847 Z -1.0000 I 10.7631 J 6.5023
G02 X 28.8822 Y 16.0380 Z -1.0000 I -0.1067 J -0.0652
G01 X 28.8739 Y 16.0263 Z -1.0000
G01 X 28.9871 Y 16.0033 Z -1.0000
G02 X 29.1088 Y 15.9623 Z -1.0000 I -0.0449 J -0.3347
G02 X 29.1714 Y 15.8986 Z -1.0000 I -0.0805 J -0.1418
G02 X 29.1881 Y 15.8191 Z -1.0000 I -0.1232 J -0.0673
G02 X 29.1600 Y 15.7689 Z -1.0000 I -0.0700 J 0.0062
G03 X 29.1376 Y 15.7303 Z -1.0000 I 0.0338 J -0.0454
G01 X 29.1523 Y 15.7059 Z -1.0000
G02 X 29.1909 Y 15.6780 Z -1.0000 I -0.0331 J -0.0864
G02 X 29.2031 Y 15.6436 Z -1.0000 I -0.0422 J -0.0344
G01 X 29.2199 Y 15.6175 Z -1.0000
G03 X 29.2971 Y 15.6008 Z -1.0000 I 0.0772 J 0.1694
G02 X 29.3872 Y 15.5862 Z -1.0000 I -0.0000 J -0.2863
G02 X 29.5286 Y 15.5239 Z -1.0000 I -0.2580 J -0.7776
G03 X 29.6684 Y 15.4555 Z -1.0000 I 0.7033 J 1.2598
G03 X 29.7097 Y 15.4471 Z -1.0000 I 0.0413 J 0.0973
G02 X 29.7463 Y 15.4353 Z -1.0000 I 0.0000 J -0.0626
G02 X 29.7824 Y 15.3948 Z -1.0000 I -0.0731 J -0.1017
G03 X 29.8214 Y 15.3585 Z -1.0000 I 0.0761 J 0.0426
G03 X 29.8992 Y 15.3399 Z -1.0000 I 0.0837 J 0.1779
G02 X 29.9641 Y 15.3202 Z -1.0000 I -0.0038 J -0.1295
G01 X 29.9753 Y 15.2923 Z -1.0000
G03 X 29.9449 Y 15.0437 Z -1.0000 I 0.9568 J -0.2432
G03 X 29.9782 Y 14.7711 Z -1.0000 I 1.1848 J 0.0065
G02 X 29.9895 Y 14.5545 Z -1.0000 I -0.5720 J -0.1385
G02 X 29.9374 Y 14.4663 Z -1.0000 I -0.1303 J 0.0174
G02 X 29.8480 Y 14.4108 Z -1.0000 I -0.3877 J 0.5244
G02 X 29.8113 Y 14.4014 Z -1.0000 I -0.0389 J 0.0755
G03 X 29.7040 Y 14.3589 Z -1.0000 I 0.0040 J -0.1668
G03 X 29.6641 Y 14.2696 Z -1.0000 I 0.0800 J -0.0893
G02 X 29.6148 Y 14.1444 Z -1.0000 I -0.1836 J 0.0000
G02 X 29.5014 Y 14.0951 Z -1.0000 I -0.1134 J 0.1057
G01 X 29.4871 Y 14.1077 Z -1.0000
G02 X 29.4850 Y 14.2180 Z -1.0000 I 0.4806 J 0.0643
G03 X 29.4748 Y 14.3210 Z -1.0000 I -0.2678 J 0.0255
G01 X 29.4480 Y 14.3409 Z -1.0000
G02 X 29.4023 Y 14.3500 Z -1.0000 I -0.0000 J 0.1188
G02 X 29.3396 Y 14.3860 Z -1.0000 I 0.1102 J 0.2646
G03 X 29.2767 Y 14.4218 Z -1.0000 I -0.1674 J -0.2214
G03 X 29.2262 Y 14.4321 Z -1.0000 I -0.0530 J -0.1305
G02 X 29.1870 Y 14.4474 Z -1.0000 I 0.0011 J 0.0606
G01 X 29.1724 Y 14.4800 Z -1.0000
G03 X 29.1571 Y 14.5162 Z -1.0000 I -0.0504 J 0.0000
G03 X 29.0926 Y 14.5571 Z -1.0000 I -0.1318 J -0.1363
G02 X 29.0259 Y 14.5992 Z -1.0000 I 0.0708 J 0.1861
G02 X 28.9969 Y 14.6486 Z -1.0000 I 0.0725 J 0.0759
G03 X 28.9731 Y 14.6996 Z -1.0000 I -0.1528 J -0.0400
G01 X 28.9538 Y 14.7097 Z -1.0000
G01 X 28.9364 Y 14.7194 Z -1.0000
G02 X 28.9266 Y 14.7544 Z -1.0000 I 0.0578 J 0.0350
G03 X 28.9126 Y 14.7923 Z -1.0000 I -0.0582 J -0.0000
G03 X 28.8147 Y 14.8850 Z -1.0000 I -0.4927 J -0.4220
G02 X 28.7046 Y 14.9729 Z -1.0000 I 2.2745 J 2.9651
G02 X 28.6429 Y 15.0275 Z -1.0000 I 0.8150 J 0.9834
G03 X 28.5784 Y 15.0665 Z -1.0000 I -0.1230 J -0.1303
G03 X 28.5238 Y 15.0686 Z -1.0000 I -0.0308 J -0.0892
G02 X 28.4682 Y 15.0672 Z -1.0000 I -0.0308 J 0.1177
G02 X 28.4267 Y 15.0888 Z -1.0000 I 0.0175 J 0.0842
G03 X 28.3852 Y 15.1158 Z -1.0000 I -0.0948 J -0.1007
G03 X 28.3351 Y 15.1270 Z -1.0000 I -0.0571 J -0.1368
G02 X 28.1788 Y 15.1549 Z -1.0000 I 0.0293 J 0.6177
G01 X 28.1584 Y 15.1826 Z -1.0000
G01 X 28.1435 Y 15.2138 Z -1.0000
G03 X 28.0816 Y 15.2446 Z -1.0000 I -0.1011 J -0.1252
G02 X 28.0169 Y 15.2733 Z -1.0000 I 0.0506 J 0.2016
G01 X 28.0048 Y 15.2959 Z -1.0000
G01 X 27.9955 Y 15.3113 Z -1.0000
G01 X 27.9769 Y 15.3106 Z -1.0000
G01 X 27.9650 Y 15.3150 Z -1.0000
G02 X 27.9640 Y 15.3507 Z -1.0000 I 0.0607 J 0.0195
G03 X 27.9559 Y 15.3944 Z -1.0000 I -0.0506 J 0.0132
G03 X 27.9100 Y 15.4260 Z -1.0000 I -0.0666 J -0.0478
G02 X 27.8744 Y 15.4548 Z -1.0000 I 0.0141 J 0.0538
G01 X 27.8783 Y 15.4889 Z -1.0000
G03 X 27.8944 Y 15.5304 Z -1.0000 I -0.0540 J 0.0448
G01 X 27.8815 Y 15.5549 Z -1.0000
G02 X 27.8541 Y 15.5816 Z -1.0000 I 0.0464 J 0.0750
G02 X 27.8193 Y 15.6499 Z -1.0000 I 0.2963 J 0.1941
G03 X 27.7817 Y 15.7098 Z -1.0000 I -0.1684 J -0.0640
G01 X 27.7493 Y 15.7237 Z -1.0000
G01 X 27.7162 Y 15.7374 Z -1.0000
G02 X 27.6724 Y 15.8005 Z -1.0000 I 0.1523 J 0.1525
G03 X 27.5907 Y 15.8645 Z -1.0000 I -0.1024 J -0.0466
G01 X 27.5489 Y 15.8236 Z -1.0000
G02 X 27.5485 Y 15.7716 Z -1.0000 I -0.1491 J -0.0247
G02 X 27.5315 Y 15.7279 Z -1.0000 I -0.1230 J 0.0225
G03 X 27.5245 Y 15.6906 Z -1.0000 I 0.0442 J -0.0277
G01 X 27.5439 Y 15.6622 Z -1.0000
G01 X 27.5573 Y 15.6039 Z -1.0000
G02 X 27.4935 Y 15.5828 Z -1.0000 I -0.0448 J 0.0285
G03 X 27.4464 Y 15.5842 Z -1.0000 I -0.0255 J -0.0665
G03 X 27.2755 Y 15.5134 Z -1.0000 I 0.3317 J -1.0426
G02 X 27.0598 Y 15.4549 Z -1.0000 I -0.2437 J 0.4714
G02 X 26.9520 Y 15.4962 Z -1.0000 I -0.0075 J 0.1417
G02 X 26.9427 Y 15.5613 Z -1.0000 I 0.0387 J 0.0387
G02 X 27.0095 Y 15.6008 Z -1.0000 I 0.0668 J -0.0367
G01 X 27.0286 Y 15.6307 Z -1.0000
G03 X 26.9754 Y 15.6748 Z -1.0000 I -0.0726 J -0.0334
G01 X 26.9396 Y 15.7353 Z -1.0000
G02 X 27.0042 Y 15.7851 Z -1.0000 I 0.0645 J -0.0168
G03 X 27.2361 Y 15.8258 Z -1.0000 I -0.0000 J 0.6828
G01 X 27.2533 Y 15.8751 Z -1.0000
G01 X 27.2502 Y 15.9004 Z -1.0000
G01 X 27.2687 Y 15.9242 Z -1.0000
G01 X 27.2763 Y 15.9459 Z -1.0000
G03 X 27.2461 Y 15.9868 Z -1.0000 I -0.0841 J -0.0303
G01 X 27.2389 Y 16.0131 Z -1.0000
G01 X 27.2634 Y 16.0300 Z -1.0000
G03 X 27.3022 Y 16.0467 Z -1.0000 I -0.0007 J 0.0550
G01 X 27.3031 Y 16.0710 Z -1.0000
G02 X 27.2835 Y 16.1140 Z -1.0000 I 0.0698 J 0.0579
G02 X 27.2861 Y 16.1730 Z -1.0000 I 0.1394 J 0.0232
G03 X 27.2848 Y 16.2293 Z -1.0000 I -0.0986 J 0.0258
G03 X 27.2541 Y 16.2750 Z -1.0000 I -0.0927 J -0.0291
G02 X 27.2173 Y 16.3204 Z -1.0000 I 0.0954 J 0.1150
G02 X 27.2059 Y 16.3666 Z -1.0000 I 0.0877 J 0.0462
G03 X 27.1971 Y 16.4145 Z -1.0000 I -0.1349 J 0.0000
G03 X 27.1743 Y 16.4497 Z -1.0000 I -0.0935 J -0.0355
G02 X 27.1528 Y 16.4864 Z -1.0000 I 0.0594 J 0.0594
G02 X 27.1121 Y 16.6714 Z -1.0000 I 1.6025 J 0.4496
G02 X 27.1016 Y 16.8582 Z -1.0000 I 0.8945 J 0.1441
G02 X 27.1250 Y 16.9446 Z -1.0000 I 0.2069 J -0.0098
G03 X 27.1417 Y 17.0215 Z -1.0000 I -0.1307 J 0.0685
G03 X 27.1181 Y 17.0652 Z -1.0000 I -0.0585 J -0.0033
G02 X 27.0935 Y 17.1077 Z -1.0000 I 0.0371 J 0.0499
G02 X 27.1061 Y 17.1656 Z -1.0000 I 0.0898 J 0.0108
G03 X 27.1465 Y 17.3241 Z -1.0000 I -0.2375 J 0.1450
G03 X 27.0949 Y 17.3954 Z -1.0000 I -0.0805 J -0.0039
G02 X 27.0658 Y 17.4250 Z -1.0000 I 0.0180 J 0.0469
G02 X 27.0630 Y 17.4821 Z -1.0000 I 0.0896 J 0.0330
G03 X 27.0646 Y 17.5459 Z -1.0000 I -0.1350 J 0.0352
G03 X 27.0389 Y 17.5970 Z -1.0000 I -0.1092 J -0.0229
G02 X 27.0047 Y 17.6478 Z -1.0000 I 0.1756 J 0.1553
G02 X 26.9863 Y 17.7027 Z -1.0000 I 0.1868 J 0.0929
G03 X 26.9620 Y 17.7473 Z -1.0000 I -0.0806 J -0.0150
G03 X 26.9149 Y 17.7701 Z -1.0000 I -0.0597 J -0.0633
G02 X 26.8621 Y 17.7920 Z -1.0000 I 0.0170 J 0.1159
G02 X 26.7971 Y 17.8576 Z -1.0000 I 0.1823 J 0.2458
G03 X 26.7343 Y 17.9253 Z -1.0000 I -0.3174 J -0.2312
G01 X 26.7040 Y 17.9368 Z -1.0000
G01 X 26.6762 Y 17.9500 Z -1.0000
G02 X 26.6195 Y 18.0367 Z -1.0000 I 0.3219 J 0.2725
G03 X 26.4966 Y 18.1470 Z -1.0000 I -0.1985 J -0.0975
G03 X 26.4028 Y 18.1155 Z -1.0000 I -0.0271 J -0.0745
G01 X 26.3763 Y 18.1012 Z -1.0000
G01 X 26.3494 Y 18.1161 Z -1.0000
G03 X 26.3159 Y 18.1395 Z -1.0000 I -0.0455 J -0.0293
G03 X 26.2572 Y 18.1370 Z -1.0000 I -0.0248 J -0.1092
G02 X 26.2035 Y 18.1321 Z -1.0000 I -0.0380 J 0.1198
G01 X 26.1919 Y 18.1452 Z -1.0000
G01 X 26.1801 Y 18.1648 Z -1.0000
G03 X 26.0921 Y 18.1973 Z -1.0000 I -0.1719 J -0.3297
G02 X 25.9922 Y 18.2205 Z -1.0000 I 33.7041 J 145.5474
G02 X 25.9570 Y 18.2287 Z -1.0000 I 4.1974 J 18.0697
G02 X 25.7239 Y 18.3625 Z -1.0000 I 0.1071 J 0.4566
G02 X 25.6914 Y 18.5086 Z -1.0000 I 0.1055 J 0.1001
G01 X 25.6893 Y 18.5371 Z -1.0000
G03 X 25.6388 Y 18.6121 Z -1.0000 I -0.3309 J -0.1683
G02 X 25.5889 Y 18.6872 Z -1.0000 I 0.2679 J 0.2324
G01 X 25.5868 Y 18.7172 Z -1.0000
G03 X 25.5626 Y 18.7993 Z -1.0000 I -0.0711 J 0.0237
G03 X 25.4656 Y 18.8144 Z -1.0000 I -0.0617 J -0.0769
G01 X 25.4400 Y 18.8189 Z -1.0000
G01 X 25.4343 Y 18.8412 Z -1.0000
G03 X 25.4374 Y 18.8818 Z -1.0000 I -0.0659 J 0.0253
G01 X 25.4199 Y 18.9064 Z -1.0000
G01 X 25.4030 Y 18.9322 Z -1.0000
G02 X 25.4065 Y 18.9995 Z -1.0000 I 0.1727 J 0.0249
G03 X 25.4026 Y 19.0556 Z -1.0000 I -0.0882 J 0.0221
G01 X 25.3769 Y 19.0730 Z -1.0000
G01 X 25.3469 Y 19.0883 Z -1.0000
G02 X 25.3379 Y 19.1268 Z -1.0000 I 0.0414 J 0.0300
G01 X 25.3295 Y 19.1624 Z -1.0000
G01 X 25.3053 Y 19.1718 Z -1.0000
G02 X 25.2050 Y 19.1946 Z -1.0000 I -0.0253 J 0.1206
G01 X 25.1934 Y 19.2576 Z -1.0000
G01 X 25.1900 Y 19.2741 Z -1.0000
G03 X 25.1316 Y 19.3008 Z -1.0000 I -0.1015 J -0.1450
G02 X 25.0705 Y 19.3321 Z -1.0000 I 0.0370 J 0.1474
G01 X 25.0550 Y 19.3655 Z -1.0000
G03 X 25.0443 Y 19.4003 Z -1.0000 I -0.0623 J 0.0000
G01 X 25.0243 Y 19.4110 Z -1.0000
G01 X 24.9971 Y 19.4195 Z -1.0000
G02 X 24.9245 Y 19.4801 Z -1.0000 I 0.2996 J 0.4325
G03 X 24.8482 Y 19.5379 Z -1.0000 I -0.2468 J -0.2466
G03 X 24.7090 Y 19.6009 Z -1.0000 I -0.4356 J -0.7773
G02 X 24.5749 Y 19.6719 Z -1.0000 I 0.1713 J 0.4858
G02 X 24.3646 Y 19.8544 Z -1.0000 I 1.0287 J 1.3973
G03 X 24.1407 Y 20.0304 Z -1.0000 I -0.7891 J -0.7737
G01 X 24.0814 Y 20.0230 Z -1.0000
G02 X 23.9644 Y 19.9916 Z -1.0000 I -0.0857 J 0.0857
G02 X 23.8993 Y 20.0717 Z -1.0000 I 0.0227 J 0.0849
G03 X 23.8915 Y 20.1323 Z -1.0000 I -0.4203 J -0.0236
G03 X 23.8723 Y 20.2038 Z -1.0000 I -0.5994 J -0.1224
G03 X 23.8336 Y 20.2481 Z -1.0000 I -0.0725 J -0.0242
G03 X 23.7659 Y 20.2564 Z -1.0000 I -0.0456 J -0.0923
G02 X 23.6967 Y 20.2651 Z -1.0000 I -0.0223 J 0.1015
G02 X 23.6477 Y 20.3162 Z -1.0000 I 0.0483 J 0.0954
G03 X 23.5993 Y 20.3756 Z -1.0000 I -0.1376 J -0.0627
G03 X 23.5346 Y 20.3989 Z -1.0000 I -0.0719 J -0.0983
G02 X 23.4572 Y 20.4039 Z -1.0000 I 0.4010 J 6.8340
G02 X 23.4238 Y 20.4066 Z -1.0000 I 0.1042 J 1.4870
G01 X 23.3988 Y 20.3958 Z -1.0000
G03 X 23.3485 Y 20.3098 Z -1.0000 I 0.2996 J -0.2332
G03 X 23.3249 Y 20.2222 Z -1.0000 I 0.3096 J -0.1301
G01 X 23.3357 Y 20.2099 Z -1.0000
G01 X 23.3558 Y 20.2007 Z -1.0000
G01 X 23.3650 Y 20.1759 Z -1.0000
G01 X 23.3530 Y 20.1593 Z -1.0000
G02 X 23.3179 Y 20.1600 Z -1.0000 I -0.0166 J 0.0490
G03 X 23.2488 Y 20.1311 Z -1.0000 I -0.0194 J -0.0506
G03 X 23.2082 Y 19.9103 Z -1.0000 I 0.4466 J -0.1962
G02 X 23.1939 Y 19.8289 Z -1.0000 I -0.1856 J -0.0094
G01 X 23.1662 Y 19.8105 Z -1.0000
G01 X 23.1330 Y 19.7966 Z -1.0000
G01 X 23.1192 Y 19.7629 Z -1.0000
G02 X 23.0625 Y 19.6213 Z -1.0000 I -0.2053 J -0.0000
G02 X 22.9303 Y 19.5647 Z -1.0000 I -0.1322 J 0.1259
G01 X 22.9137 Y 19.5550 Z -1.0000
G03 X 22.9041 Y 19.5186 Z -1.0000 I 0.0640 J -0.0364
G01 X 22.8909 Y 19.4856 Z -1.0000
G01 X 22.8602 Y 19.4725 Z -1.0000
G01 X 22.8254 Y 19.4579 Z -1.0000
G03 X 22.7718 Y 19.3831 Z -1.0000 I 0.2070 J -0.2048
G03 X 22.7533 Y 19.2980 Z -1.0000 I 0.1584 J -0.0790
G03 X 22.7766 Y 19.2443 Z -1.0000 I 0.0798 J 0.0028
G02 X 22.8022 Y 19.1922 Z -1.0000 I -0.0636 J -0.0636
G02 X 22.7903 Y 19.1378 Z -1.0000 I -0.0821 J -0.0106
G03 X 22.7750 Y 19.0810 Z -1.0000 I 0.0859 J -0.0537
G03 X 22.7938 Y 19.0231 Z -1.0000 I 0.1089 J 0.0033
G02 X 22.8330 Y 18.8534 Z -1.0000 I -0.1986 J -0.1352
G01 X 22.7655 Y 18.8274 Z -1.0000
G03 X 22.6062 Y 18.8718 Z -1.0000 I -0.1292 J -0.1557
G03 X 22.4411 Y 18.7787 Z -1.0000 I 0.0395 J -0.2629
G02 X 22.3763 Y 18.7488 Z -1.0000 I -0.0637 J 0.0528
G02 X 22.2475 Y 18.7813 Z -1.0000 I 0.0038 J 0.2867
G03 X 22.0531 Y 18.8289 Z -1.0000 I -0.1942 J -0.3723
G03 X 21.9515 Y 18.7811 Z -1.0000 I 0.0001 J -0.1322
G03 X 21.9373 Y 18.7463 Z -1.0000 I 0.0481 J -0.0399
G01 X 21.9477 Y 18.7350 Z -1.0000
G01 X 21.9704 Y 18.7042 Z -1.0000
G01 X 21.9284 Y 18.6726 Z -1.0000
G01 X 21.9147 Y 18.6585 Z -1.0000
G01 X 21.9289 Y 18.6304 Z -1.0000
G02 X 21.9635 Y 18.5836 Z -1.0000 I -0.0626 J -0.0825
G02 X 21.9632 Y 18.5370 Z -1.0000 I -0.0621 J -0.0228
G01 X 21.9752 Y 18.5115 Z -1.0000
G03 X 22.0549 Y 18.5058 Z -1.0000 I 0.0507 J 0.1489
G02 X 22.1527 Y 18.5101 Z -1.0000 I 0.0637 J -0.3396
G01 X 22.1665 Y 18.4948 Z -1.0000
G01 X 22.1544 Y 18.4731 Z -1.0000
G02 X 22.0974 Y 18.4521 Z -1.0000 I -0.0804 J 0.1302
G01 X 22.0867 Y 18.4313 Z -1.0000
G03 X 22.1303 Y 18.3865 Z -1.0000 I 0.0926 J 0.0465
G02 X 22.1977 Y 18.3250 Z -1.0000 I -0.0883 J -0.1644
G01 X 22.1956 Y 18.2876 Z -1.0000
G03 X 22.1793 Y 18.2434 Z -1.0000 I 0.0546 J -0.0453
G03 X 22.1942 Y 18.2009 Z -1.0000 I 0.0649 J -0.0010
G01 X 22.1828 Y 18.1469 Z -1.0000
G02 X 22.1096 Y 18.1589 Z -1.0000 I -0.0282 J 0.0569
G03 X 22.0696 Y 18.1766 Z -1.0000 I -0.0429 J -0.0429
G03 X 21.5484 Y 18.1848 Z -1.0000 I -0.3962 J -8.5739
G02 X 21.0306 Y 18.1949 Z -1.0000 I -0.1101 J 7.6184
G01 X 20.9978 Y 18.2144 Z -1.0000
G01 X 20.9757 Y 18.2208 Z -1.0000
G03 X 20.9396 Y 18.1861 Z -1.0000 I 0.0356 J -0.0731
G02 X 20.8942 Y 18.1377 Z -1.0000 I -0.1127 J 0.0603
G02 X 20.8335 Y 18.1205 Z -1.0000 I -0.0606 J 0.0980
G03 X 20.7691 Y 18.1057 Z -1.0000 I 0.0000 J -0.1474
G03 X 20.7069 Y 18.0590 Z -1.0000 I 0.0892 J -0.1837
G02 X 20.5814 Y 17.9978 Z -1.0000 I -0.1390 J 0.1258
G02 X 20.3264 Y 18.0316 Z -1.0000 I -0.0457 J 0.6343
G02 X 20.2441 Y 18.0827 Z -1.0000 I 0.0731 J 0.2096
G02 X 20.1775 Y 18.1776 Z -1.0000 I 0.2227 J 0.2272
G03 X 20.1261 Y 18.2893 Z -1.0000 I -25.6536 J -11.7324
G03 X 20.1129 Y 18.3172 Z -1.0000 I -1.5766 J -0.7294
G01 X 20.1187 Y 18.3291 Z -1.0000
G02 X 20.1624 Y 18.3284 Z -1.0000 I 0.0204 J -0.0899
G03 X 20.2119 Y 18.3348 Z -1.0000 I 0.0168 J 0.0644
G03 X 20.2413 Y 18.3729 Z -1.0000 I -0.0303 J 0.0537
G02 X 20.2660 Y 18.4119 Z -1.0000 I 0.0735 J -0.0193
G01 X 20.2900 Y 18.4136 Z -1.0000
G01 X 20.3121 Y 18.4236 Z -1.0000
G03 X 20.3251 Y 18.6225 Z -1.0000 I -0.9755 J 0.1637
G02 X 20.3355 Y 18.7442 Z -1.0000 I 0.5041 J 0.0182
G01 X 20.3520 Y 18.7513 Z -1.0000
G02 X 20.3731 Y 18.7251 Z -1.0000 I -0.0265 J -0.0429
G02 X 20.3843 Y 18.6597 Z -1.0000 I -0.1862 J -0.0655
G03 X 20.3987 Y 18.5978 Z -1.0000 I 0.1399 J -0.0000
G03 X 20.4278 Y 18.5712 Z -1.0000 I 0.0485 J 0.0239
G01 X 20.4751 Y 18.5874 Z -1.0000
G03 X 20.5072 Y 18.7021 Z -1.0000 I -0.1891 J 0.1147
G02 X 20.5188 Y 18.7520 Z -1.0000 I 0.1134 J 0.0000
G02 X 20.5683 Y 18.8268 Z -1.0000 I 0.3122 J -0.1530
G03 X 20.6071 Y 18.9037 Z -1.0000 I -0.1330 J 0.1154
G03 X 20.6106 Y 19.0154 Z -1.0000 I -0.2895 J 0.0649
G02 X 20.6137 Y 19.1208 Z -1.0000 I 0.2786 J 0.0446
G01 X 20.6408 Y 19.1523 Z -1.0000
G03 X 20.6759 Y 19.1828 Z -1.0000 I -0.0243 J 0.0633
G03 X 20.7098 Y 19.2775 Z -1.0000 I -0.2775 J 0.1531
G02 X 20.7463 Y 19.3727 Z -1.0000 I 0.2795 J -0.0524
G02 X 20.8041 Y 19.4324 Z -1.0000 I 0.1609 J -0.0978
G03 X 20.8608 Y 19.4887 Z -1.0000 I -0.1098 J 0.1676
G03 X 20.8699 Y 19.5310 Z -1.0000 I -0.0486 J 0.0325
G02 X 20.9153 Y 19.6905 Z -1.0000 I 0.1897 J 0.0322
G02 X 21.0133 Y 19.6936 Z -1.0000 I 0.0504 J -0.0445
G01 X 21.0317 Y 19.6885 Z -1.0000
G01 X 21.0543 Y 19.7041 Z -1.0000
G02 X 21.2115 Y 19.8129 Z -1.0000 I 0.2288 J -0.1625
G02 X 21.5265 Y 19.8286 Z -1.0000 I 0.1945 J -0.7377
G03 X 21.6202 Y 19.8339 Z -1.0000 I 0.0347 J 0.2169
G01 X 21.6324 Y 19.8581 Z -1.0000
G02 X 21.6153 Y 19.9080 Z -1.0000 I 0.6947 J 0.2667
G01 X 21.6134 Y 19.9205 Z -1.0000
G01 X 21.6076 Y 19.9276 Z -1.0000
G03 X 21.5519 Y 19.9334 Z -1.0000 I -0.0557 J -0.2673
G02 X 21.5016 Y 19.9595 Z -1.0000 I 0.0000 J 0.0617
G01 X 21.4982 Y 20.0096 Z -1.0000
G01 X 21.4964 Y 20.0220 Z -1.0000
G03 X 21.4379 Y 20.0720 Z -1.0000 I -0.2882 J -0.2781
G03 X 21.2861 Y 20.1117 Z -1.0000 I -0.1295 J -0.1849
G03 X 21.1780 Y 20.0461 Z -1.0000 I 0.0145 J -0.1457
G02 X 21.1522 Y 20.0227 Z -1.0000 I -0.0575 J 0.0376
G02 X 21.1012 Y 20.0061 Z -1.0000 I -0.0752 J 0.1446
G02 X 21.0449 Y 19.9978 Z -1.0000 I -2.1693 J 14.5865
G02 X 20.8990 Y 19.9769 Z -1.0000 I -8.5320 J 58.9290
G03 X 20.7707 Y 19.9408 Z -1.0000 I 0.0709 J -0.4986
G01 X 20.7530 Y 19.9140 Z -1.0000
G01 X 20.7387 Y 19.8863 Z -1.0000
G02 X 20.6934 Y 19.8719 Z -1.0000 I -0.0453 J 0.0642
G03 X 20.6392 Y 19.8622 Z -1.0000 I 0.0000 J -0.1556
G01 X 20.6160 Y 19.8432 Z -1.0000
G02 X 20.5256 Y 19.8017 Z -1.0000 I -0.0763 J 0.0472
G01 X 20.4901 Y 19.8632 Z -1.0000
G01 X 20.4863 Y 19.8897 Z -1.0000
G01 X 20.4601 Y 19.9027 Z -1.0000
G01 X 20.4292 Y 19.8883 Z -1.0000
G03 X 20.4145 Y 19.8489 Z -1.0000 I 0.0472 J -0.0400
G01 X 20.4031 Y 19.8335 Z -1.0000
G01 X 20.3858 Y 19.8399 Z -1.0000
G01 X 20.3539 Y 19.8484 Z -1.0000
G03 X 20.2460 Y 19.7665 Z -1.0000 I 0.1910 J -0.3638
G02 X 20.1342 Y 19.6782 Z -1.0000 I -0.3565 J 0.3362
G01 X 20.1004 Y 19.6826 Z -1.0000
G01 X 20.0891 Y 19.7175 Z -1.0000
G02 X 20.1147 Y 19.7714 Z -1.0000 I 0.1051 J -0.0170
G03 X 20.1488 Y 19.8320 Z -1.0000 I -0.1218 J 0.1085
G03 X 20.1739 Y 19.9641 Z -1.0000 I -0.5826 J 0.1789
G01 X 20.1845 Y 20.1024 Z -1.0000
G01 X 20.0693 Y 20.1024 Z -1.0000
G02 X 19.9638 Y 20.1121 Z -1.0000 I -0.0000 J 0.5795
G01 X 19.9541 Y 20.1238 Z -1.0000
G01 X 19.9442 Y 20.1359 Z -1.0000
G03 X 19.8081 Y 20.1545 Z -1.0000 I -0.1974 J -0.9376
G02 X 19.6778 Y 20.1785 Z -1.0000 I 0.0362 J 0.5620
G01 X 19.6622 Y 20.1997 Z -1.0000
G03 X 19.6559 Y 20.2330 Z -1.0000 I -0.0912 J -0.0000
G03 X 19.6391 Y 20.2586 Z -1.0000 I -0.0697 J -0.0273
G01 X 19.6248 Y 20.2606 Z -1.0000
G01 X 19.6161 Y 20.2458 Z -1.0000
G01 X 19.6041 Y 20.2219 Z -1.0000
G02 X 19.5682 Y 20.2100 Z -1.0000 I -0.0359 J 0.0480
G01 X 19.5397 Y 20.2208 Z -1.0000
G01 X 19.5373 Y 20.2375 Z -1.0000
G01 X 19.5371 Y 20.2592 Z -1.0000
G03 X 19.5083 Y 20.2826 Z -1.0000 I -0.0500 J -0.0320
G02 X 19.4347 Y 20.3941 Z -1.0000 I 0.0412 J 0.1073
G02 X 19.5162 Y 20.4964 Z -1.0000 I 0.1099 J -0.0040
G01 X 19.5242 Y 20.5119 Z -1.0000
G01 X 19.5027 Y 20.5325 Z -1.0000
G01 X 19.4353 Y 20.5542 Z -1.0000
G01 X 19.5057 Y 20.6202 Z -1.0000
G03 X 19.5599 Y 20.6903 Z -1.0000 I -0.1920 J 0.2047
G01 X 19.5628 Y 20.7247 Z -1.0000
G01 X 19.5694 Y 20.7489 Z -1.0000
G02 X 19.6078 Y 20.7631 Z -1.0000 I 0.0385 J -0.0452
G03 X 19.6542 Y 20.7820 Z -1.0000 I 0.0000 J 0.0662
G03 X 19.7175 Y 20.8706 Z -1.0000 I -0.2190 J 0.2232
G03 X 19.7488 Y 20.9656 Z -1.0000 I -0.3597 J 0.1715
G01 X 19.7385 Y 20.9782 Z -1.0000
G02 X 19.6509 Y 21.0697 Z -1.0000 I 0.0000 J 0.0877
G02 X 19.7467 Y 21.1634 Z -1.0000 I 0.0979 J -0.0043
G01 X 19.7763 Y 21.1782 Z -1.0000
G03 X 19.8544 Y 21.3017 Z -1.0000 I -0.5931 J 0.4620
G03 X 19.8939 Y 21.4207 Z -1.0000 I -0.3821 J 0.1927
G01 X 19.8785 Y 21.4391 Z -1.0000
G01 X 19.8546 Y 21.4539 Z -1.0000
G01 X 19.8529 Y 21.4905 Z -1.0000
G01 X 19.8463 Y 21.5156 Z -1.0000
G01 X 19.8167 Y 21.5205 Z -1.0000
G02 X 19.7643 Y 21.5176 Z -1.0000 I -0.0307 J 0.0801
G02 X 19.7050 Y 21.5496 Z -1.0000 I 0.0358 J 0.1373
G03 X 19.5947 Y 21.5839 Z -1.0000 I -0.0921 J -0.1017
G01 X 19.5699 Y 21.5315 Z -1.0000
G01 X 19.5714 Y 21.5104 Z -1.0000
G01 X 19.5565 Y 21.5006 Z -1.0000
G01 X 19.5351 Y 21.4894 Z -1.0000
G03 X 19.5239 Y 21.4537 Z -1.0000 I 0.0514 J -0.0357
G02 X 19.5085 Y 21.4175 Z -1.0000 I -0.0503 J 0.0000
G02 X 19.4437 Y 21.3764 Z -1.0000 I -0.1329 J 0.1378
G03 X 19.3903 Y 21.3301 Z -1.0000 I 0.0365 J -0.0960
G03 X 19.3768 Y 21.2554 Z -1.0000 I 0.1038 J -0.0575
G02 X 19.3726 Y 21.1751 Z -1.0000 I -0.2031 J -0.0299
G01 X 19.3500 Y 21.1495 Z -1.0000
G01 X 19.3274 Y 21.1263 Z -1.0000
G03 X 19.3280 Y 21.0869 Z -1.0000 I 0.0540 J -0.0189
G02 X 19.3287 Y 21.0516 Z -1.0000 I -0.0486 J -0.0187
G01 X 19.3121 Y 21.0396 Z -1.0000
G01 X 19.2897 Y 21.0281 Z -1.0000
G03 X 19.2781 Y 20.9917 Z -1.0000 I 0.0512 J -0.0363
G01 X 19.2905 Y 20.9660 Z -1.0000
G01 X 19.3119 Y 20.9647 Z -1.0000
G01 X 19.3390 Y 20.9391 Z -1.0000
G02 X 19.2276 Y 20.8092 Z -1.0000 I -0.3572 J 0.1935
G03 X 19.1987 Y 20.7716 Z -1.0000 I 0.0544 J -0.0716
G03 X 19.1701 Y 20.6684 Z -1.0000 I 0.4248 J -0.1735
G03 X 19.1798 Y 20.5724 Z -1.0000 I 0.1898 J -0.0294
G03 X 19.2233 Y 20.5245 Z -1.0000 I 0.0810 J 0.0299
G01 X 19.2457 Y 20.5007 Z -1.0000
G01 X 19.2379 Y 20.4886 Z -1.0000
G03 X 19.2040 Y 20.4750 Z -1.0000 I 0.0019 J -0.0535
G01 X 19.2013 Y 20.4558 Z -1.0000
G01 X 19.2027 Y 20.4348 Z -1.0000
G01 X 19.1877 Y 20.4251 Z -1.0000
G01 X 19.1673 Y 20.4130 Z -1.0000
G03 X 19.1552 Y 20.3661 Z -1.0000 I 0.0849 J -0.0469
G02 X 19.1257 Y 20.2395 Z -1.0000 I -0.2870 J 0.0000
G02 X 19.0784 Y 20.2100 Z -1.0000 I -0.0473 J 0.0233
G03 X 19.0139 Y 20.1693 Z -1.0000 I 0.0000 J -0.0713
G03 X 19.0186 Y 20.0843 Z -1.0000 I 0.0804 J -0.0382
G01 X 19.0169 Y 20.0669 Z -1.0000
G01 X 18.9927 Y 20.0563 Z -1.0000
G03 X 18.8631 Y 20.0104 Z -1.0000 I -0.0000 J -0.2059
G03 X 18.8172 Y 19.9142 Z -1.0000 I 0.0780 J -0.0963
G02 X 18.7883 Y 19.8654 Z -1.0000 I -0.0557 J 0.0000
G02 X 18.6011 Y 19.7952 Z -1.0000 I -0.3343 J 0.6073
G03 X 18.5006 Y 19.7627 Z -1.0000 I 0.1130 J -0.5207
G03 X 18.4691 Y 19.7375 Z -1.0000 I 0.0311 J -0.0712
G01 X 18.4469 Y 19.7279 Z -1.0000
G01 X 18.4277 Y 19.7426 Z -1.0000
G01 X 18.4058 Y 19.7588 Z -1.0000
G01 X 18.3698 Y 19.7475 Z -1.0000
G02 X 18.3254 Y 19.7337 Z -1.0000 I -0.0389 J 0.0468
G02 X 18.2329 Y 19.7600 Z -1.0000 I 0.0237 J 0.2592
G03 X 18.0905 Y 19.7850 Z -1.0000 I -0.1132 J -0.2269
G01 X 18.0693 Y 19.7411 Z -1.0000
G01 X 18.0699 Y 19.7275 Z -1.0000
G01 X 18.0614 Y 19.7249 Z -1.0000
G03 X 17.8186 Y 19.8271 Z -1.0000 I -0.5299 J -0.9185
G03 X 17.7385 Y 19.8157 Z -1.0000 I -0.0271 J -0.0963
G02 X 17.6713 Y 19.7995 Z -1.0000 I -0.0579 J 0.0927
G01 X 17.6495 Y 19.8233 Z -1.0000
G02 X 17.6604 Y 19.8591 Z -1.0000 I 0.0643 J -0.0000
G02 X 17.6879 Y 19.8805 Z -1.0000 I 0.0462 J -0.0310
G01 X 17.6864 Y 19.9032 Z -1.0000
G03 X 17.5727 Y 19.9052 Z -1.0000 I -0.0621 J -0.2901
G02 X 17.3182 Y 19.9089 Z -1.0000 I -0.1177 J 0.6666
G01 X 17.2951 Y 19.9625 Z -1.0000
G01 X 17.2903 Y 19.9757 Z -1.0000
G03 X 17.2105 Y 19.9919 Z -1.0000 I -0.0989 J -0.2845
G02 X 17.1118 Y 19.9986 Z -1.0000 I 0.8603 J 13.3574
G02 X 17.0744 Y 20.0017 Z -1.0000 I 0.1309 J 1.8227
G02 X 17.0416 Y 20.0146 Z -1.0000 I 0.0058 J 0.0629
G02 X 16.9388 Y 20.1064 Z -1.0000 I 0.5913 J 0.7646
G01 X 16.8407 Y 20.2077 Z -1.0000
G01 X 16.9182 Y 20.2372 Z -1.0000
G03 X 16.9858 Y 20.2768 Z -1.0000 I -0.0841 J 0.2212
G03 X 17.0157 Y 20.3186 Z -1.0000 I -0.0655 J 0.0785
G01 X 17.0431 Y 20.3420 Z -1.0000
G01 X 17.0814 Y 20.3326 Z -1.0000
G03 X 17.1158 Y 20.3187 Z -1.0000 I 0.0391 J 0.0472
G01 X 17.1271 Y 20.3291 Z -1.0000
G01 X 17.1398 Y 20.3508 Z -1.0000
G02 X 17.1886 Y 20.3636 Z -1.0000 I 0.0487 J -0.0868
G03 X 17.2397 Y 20.3739 Z -1.0000 I -0.0000 J 0.1323
G01 X 17.2500 Y 20.3894 Z -1.0000
G01 X 17.2612 Y 20.4044 Z -1.0000
G02 X 17.3499 Y 20.4189 Z -1.0000 I 0.1022 J -0.3454
G03 X 17.5370 Y 20.4465 Z -1.0000 I -0.0333 J 0.8760
G01 X 17.5704 Y 20.4763 Z -1.0000
G01 X 17.5958 Y 20.5030 Z -1.0000
G02 X 17.6639 Y 20.5172 Z -1.0000 I 0.0680 J -0.1554
G03 X 17.7212 Y 20.5377 Z -1.0000 I 0.0000 J 0.0907
G03 X 17.7417 Y 20.5807 Z -1.0000 I -0.0351 J 0.0430
G02 X 17.7930 Y 20.7138 Z -1.0000 I 0.1980 J 0.0000
G02 X 17.8888 Y 20.7429 Z -1.0000 I 0.0722 J -0.0656
G01 X 17.9267 Y 20.7508 Z -1.0000
G01 X 17.9294 Y 20.7740 Z -1.0000
G01 X 17.9222 Y 20.8003 Z -1.0000
G01 X 17.9347 Y 20.8075 Z -1.0000
G03 X 17.9819 Y 20.8023 Z -1.0000 I 0.0334 J 0.0870
G03 X 18.0491 Y 20.8246 Z -1.0000 I -0.0309 J 0.2061
G02 X 18.1126 Y 20.8363 Z -1.0000 I 0.0500 J -0.0934
G02 X 18.1722 Y 20.8088 Z -1.0000 I -0.0139 J -0.1087
G03 X 18.2330 Y 20.7761 Z -1.0000 I 0.0969 J 0.1070
G03 X 18.2926 Y 20.7777 Z -1.0000 I 0.0270 J 0.1044
G03 X 18.3572 Y 20.8431 Z -1.0000 I -0.0299 J 0.0942
G01 X 18.3255 Y 20.8859 Z -1.0000
G01 X 18.2780 Y 20.9390 Z -1.0000
G02 X 18.3404 Y 21.0198 Z -1.0000 I 0.0975 J -0.0108
G03 X 18.3689 Y 21.0449 Z -1.0000 I -0.0195 J 0.0510
G01 X 18.3710 Y 21.0768 Z -1.0000
G02 X 18.3879 Y 21.2421 Z -1.0000 I 0.1744 J 0.0657
G02 X 18.5222 Y 21.3161 Z -1.0000 I 0.1343 J -0.0849
G03 X 18.5583 Y 21.3272 Z -1.0000 I -0.0000 J 0.0645
G03 X 18.5791 Y 21.3545 Z -1.0000 I -0.0300 J 0.0445
G01 X 18.5993 Y 21.3677 Z -1.0000
G02 X 18.6455 Y 21.3488 Z -1.0000 I -0.0072 J -0.0836
G03 X 18.6947 Y 21.3306 Z -1.0000 I 0.0507 J 0.0614
G01 X 18.7253 Y 21.3473 Z -1.0000
G03 X 18.7403 Y 21.3900 Z -1.0000 I -0.0898 J 0.0555
G01 X 18.7340 Y 21.4185 Z -1.0000
G01 X 18.7372 Y 21.4302 Z -1.0000
G01 X 18.7591 Y 21.4318 Z -1.0000
G03 X 18.8489 Y 21.4571 Z -1.0000 I 0.0271 J 0.0760
G03 X 18.9260 Y 21.6386 Z -1.0000 I -0.2803 J 0.2262
G02 X 18.9622 Y 21.7907 Z -1.0000 I 0.7106 J -0.0888
G01 X 18.9864 Y 21.8078 Z -1.0000
G03 X 19.0181 Y 21.8187 Z -1.0000 I -0.0000 J 0.0515
G03 X 19.0425 Y 21.8517 Z -1.0000 I -0.0475 J 0.0606
G01 X 19.0352 Y 21.8755 Z -1.0000
G03 X 18.9969 Y 21.8837 Z -1.0000 I -0.0288 J -0.0412
G01 X 18.9587 Y 21.8921 Z -1.0000
G01 X 18.9515 Y 21.9162 Z -1.0000
G01 X 18.9453 Y 21.9487 Z -1.0000
G03 X 18.8929 Y 21.9798 Z -1.0000 I -0.0783 J -0.0721
G03 X 18.7600 Y 21.9769 Z -1.0000 I -0.0612 J -0.2438
G01 X 18.7249 Y 21.9298 Z -1.0000
G01 X 18.7341 Y 21.9128 Z -1.0000
G01 X 18.7511 Y 21.9125 Z -1.0000
G01 X 18.7768 Y 21.9159 Z -1.0000
G02 X 18.8335 Y 21.8876 Z -1.0000 I -0.0545 J -0.1804
G01 X 18.8503 Y 21.8493 Z -1.0000
G01 X 18.8249 Y 21.8119 Z -1.0000
G02 X 18.7055 Y 21.7956 Z -1.0000 I -0.0817 J 0.1527
G02 X 18.6635 Y 21.8479 Z -1.0000 I 0.0117 J 0.0524
G01 X 18.6534 Y 21.8572 Z -1.0000
G01 X 18.6266 Y 21.8446 Z -1.0000
G02 X 18.4093 Y 21.7564 Z -1.0000 I -0.2131 J 0.2131
G02 X 18.1859 Y 21.8508 Z -1.0000 I 0.0045 J 0.3223
G03 X 18.1372 Y 21.8734 Z -1.0000 I -0.0551 J -0.0551
G03 X 18.0267 Y 21.8641 Z -1.0000 I -0.0276 J -0.3320
G02 X 17.9106 Y 21.8345 Z -1.0000 I -6.2522 J 24.3379
G02 X 17.8415 Y 21.8174 Z -1.0000 I -2.0899 J 8.2993
G03 X 17.7828 Y 21.7925 Z -1.0000 I 0.0457 J -0.1891
G01 X 17.7724 Y 21.7735 Z -1.0000
G03 X 17.7913 Y 21.7208 Z -1.0000 I 0.0828 J -0.0000
G01 X 17.8253 Y 21.7093 Z -1.0000
G01 X 17.8522 Y 21.7027 Z -1.0000
G01 X 17.8646 Y 21.6758 Z -1.0000
G01 X 17.8474 Y 21.6499 Z -1.0000
G02 X 17.7558 Y 21.6293 Z -1.0000 I -0.1014 J 0.2370
G02 X 17.6715 Y 21.6394 Z -1.0000 I -0.0102 J 0.2705
G01 X 17.6654 Y 21.6550 Z -1.0000
G01 X 17.6594 Y 21.6712 Z -1.0000
G03 X 17.5712 Y 21.6849 Z -1.0000 I -0.0882 J -0.2785
G03 X 17.4880 Y 21.6647 Z -1.0000 I 0.0000 J -0.1812
G01 X 17.4772 Y 21.6363 Z -1.0000
G02 X 17.4939 Y 21.5872 Z -1.0000 I -0.6521 J -0.2503
G02 X 17.4980 Y 21.5671 Z -1.0000 I -0.1049 J -0.0316
G01 X 17.5028 Y 21.5660 Z -1.0000
G03 X 17.5245 Y 21.6081 Z -1.0000 I -0.2012 J 0.1302
G01 X 17.5403 Y 21.6089 Z -1.0000
G02 X 17.5617 Y 21.5370 Z -1.0000 I -0.1734 J -0.0909
G02 X 17.5550 Y 21.4559 Z -1.0000 I -0.2264 J -0.0221
G01 X 17.5392 Y 21.4530 Z -1.0000
G01 X 17.5137 Y 21.4562 Z -1.0000
G03 X 17.4852 Y 21.4088 Z -1.0000 I 0.0520 J -0.0635
G02 X 17.4480 Y 21.3389 Z -1.0000 I -0.1354 J 0.0271
G02 X 17.3936 Y 21.3161 Z -1.0000 I -0.0544 J 0.0537
G03 X 17.1661 Y 21.2732 Z -1.0000 I -0.0000 J -0.6246
G03 X 17.1301 Y 21.2131 Z -1.0000 I 0.0209 J -0.0533
G02 X 17.1184 Y 21.1283 Z -1.0000 I -0.1665 J -0.0201
G01 X 17.0926 Y 21.1232 Z -1.0000
G03 X 17.0178 Y 21.1387 Z -1.0000 I -0.0492 J -0.0492
G01 X 16.9938 Y 21.0839 Z -1.0000
G02 X 16.9709 Y 20.9992 Z -1.0000 I -0.0696 J -0.0267
G02 X 16.8238 Y 20.9474 Z -1.0000 I -0.1470 J 0.1830
G03 X 16.7374 Y 20.9363 Z -1.0000 I -0.0000 J -0.3424
G01 X 16.7135 Y 20.9186 Z -1.0000
G02 X 16.6246 Y 20.8710 Z -1.0000 I -0.0856 J 0.0529
G02 X 16.5740 Y 20.9232 Z -1.0000 I 0.0017 J 0.0523
G01 X 16.5216 Y 20.9678 Z -1.0000
G03 X 16.4400 Y 20.9013 Z -1.0000 I 0.0170 J -0.1043
G02 X 16.4122 Y 20.8699 Z -1.0000 I -0.0558 J 0.0213
G02 X 16.3522 Y 20.8548 Z -1.0000 I -0.0609 J 0.1148
G03 X 16.2349 Y 20.8186 Z -1.0000 I 0.0014 J -0.2130
G03 X 16.2113 Y 20.7602 Z -1.0000 I 0.0313 J -0.0466
G01 X 16.2002 Y 20.7335 Z -1.0000
G02 X 16.1438 Y 20.7170 Z -1.0000 I -0.0564 J 0.0880
G03 X 16.0297 Y 20.6775 Z -1.0000 I 0.0000 J -0.1848
G03 X 15.9902 Y 20.5963 Z -1.0000 I 0.0638 J -0.0812
G01 X 15.9764 Y 20.5618 Z -1.0000
G01 X 15.9441 Y 20.5480 Z -1.0000
G03 X 15.9090 Y 20.5370 Z -1.0000 I -0.0000 J -0.0616
G01 X 15.8980 Y 20.5160 Z -1.0000
G01 X 15.8882 Y 20.4882 Z -1.0000
G02 X 15.7786 Y 20.3671 Z -1.0000 I -1.0631 J 0.8519
G03 X 15.6698 Y 20.2437 Z -1.0000 I 0.7947 J -0.8107
G03 X 15.6376 Y 20.1816 Z -1.0000 I 0.1630 J -0.1240
G02 X 15.6114 Y 20.1312 Z -1.0000 I -0.1589 J 0.0505
G01 X 15.5986 Y 20.1303 Z -1.0000
G01 X 15.5841 Y 20.1301 Z -1.0000
G03 X 15.5394 Y 20.0666 Z -1.0000 I 0.2116 J -0.1964
G03 X 15.5080 Y 19.9873 Z -1.0000 I 0.3750 J -0.1946
G01 X 15.5123 Y 19.9709 Z -1.0000
G02 X 15.5163 Y 19.8932 Z -1.0000 I -0.0411 J -0.0411
G02 X 15.4072 Y 19.8412 Z -1.0000 I -0.1091 J 0.0885
G03 X 15.3581 Y 19.8230 Z -1.0000 I 0.0000 J -0.0752
G03 X 15.2538 Y 19.7091 Z -1.0000 I 0.4264 J -0.4949
G02 X 15.1494 Y 19.5875 Z -1.0000 I -0.7498 J 0.5385
G02 X 15.0599 Y 19.5195 Z -1.0000 I -0.3177 J 0.3250
G03 X 14.9667 Y 19.4559 Z -1.0000 I 0.3886 J -0.6693
G03 X 14.9362 Y 19.4211 Z -1.0000 I 0.0811 J -0.1020
G02 X 14.9056 Y 19.3910 Z -1.0000 I -0.0737 J 0.0444
G02 X 14.8656 Y 19.3803 Z -1.0000 I -0.0400 J 0.0692
G03 X 14.8294 Y 19.3652 Z -1.0000 I 0.0000 J -0.0508
G03 X 14.7823 Y 19.2958 Z -1.0000 I 0.1655 J -0.1630
G02 X 14.6185 Y 19.0209 Z -1.0000 I -1.1992 J 0.5283
G02 X 14.5383 Y 18.9812 Z -1.0000 I -0.0809 J 0.0628
G03 X 14.4999 Y 18.9653 Z -1.0000 I 0.0004 J -0.0552
G03 X 14.4835 Y 18.9271 Z -1.0000 I 0.0388 J -0.0393
G02 X 14.4715 Y 18.8774 Z -1.0000 I -0.1186 J 0.0023
G02 X 14.4219 Y 18.8005 Z -1.0000 I -0.3416 J 0.1664
G02 X 14.3587 Y 18.7555 Z -1.0000 I -0.1171 J 0.0975
G01 X 14.3200 Y 18.7620 Z -1.0000
G01 X 14.2806 Y 18.7707 Z -1.0000
G03 X 14.2250 Y 18.7368 Z -1.0000 I 0.0293 J -0.1107
G03 X 14.2024 Y 18.6522 Z -1.0000 I 0.0711 J -0.0643
G03 X 14.2521 Y 18.6121 Z -1.0000 I 0.0497 J 0.0108
G03 X 14.2880 Y 18.6218 Z -1.0000 I 0.0000 J 0.0712
G03 X 14.3309 Y 18.6582 Z -1.0000 I -0.0818 J 0.1398
G02 X 14.5215 Y 18.7534 Z -1.0000 I 0.2033 J -0.1687
G02 X 14.6074 Y 18.6715 Z -1.0000 I 0.0039 J -0.0819
G01 X 14.6199 Y 18.6557 Z -1.0000
G03 X 14.6663 Y 18.6574 Z -1.0000 I 0.0202 J 0.0842
G02 X 14.7192 Y 18.6599 Z -1.0000 I 0.0312 J -0.0983
G01 X 14.7475 Y 18.6400 Z -1.0000
G01 X 14.7409 Y 18.6228 Z -1.0000
G02 X 14.6732 Y 18.6180 Z -1.0000 I -0.0448 J 0.1515
G01 X 14.6305 Y 18.5891 Z -1.0000
G03 X 14.6529 Y 18.5328 Z -1.0000 I 0.0512 J -0.0122
G02 X 14.7004 Y 18.4756 Z -1.0000 I -0.0694 J -0.1059
G02 X 14.6979 Y 18.4246 Z -1.0000 I -0.0550 J -0.0229
G02 X 14.6595 Y 18.3783 Z -1.0000 I -0.1325 J 0.0709
G02 X 14.6253 Y 18.3663 Z -1.0000 I -0.0342 J 0.0426
G01 X 14.5939 Y 18.3532 Z -1.0000
G03 X 14.5690 Y 18.3095 Z -1.0000 I 0.0688 J -0.0682
G02 X 14.5390 Y 18.2737 Z -1.0000 I -0.0528 J 0.0138
G02 X 14.4579 Y 18.2585 Z -1.0000 I -0.0710 J 0.1546
G03 X 14.3725 Y 18.2527 Z -1.0000 I -0.0202 J -0.3342
G01 X 14.3616 Y 18.2394 Z -1.0000
G01 X 14.3517 Y 18.2279 Z -1.0000
G02 X 14.3078 Y 18.2313 Z -1.0000 I -0.0147 J 0.0973
G01 X 14.3009 Y 18.2262 Z -1.0000
G01 X 14.3078 Y 18.2134 Z -1.0000
G02 X 14.3602 Y 18.1308 Z -1.0000 I -0.0629 J -0.0978
G01 X 14.3241 Y 18.0897 Z -1.0000
G03 X 14.2871 Y 18.0741 Z -1.0000 I 0.0000 J -0.0517
G03 X 14.0523 Y 17.8108 Z -1.0000 I 2.8547 J -2.7815
G02 X 13.9480 Y 17.7031 Z -1.0000 I -0.6764 J 0.5513
G02 X 13.9136 Y 17.6903 Z -1.0000 I -0.0345 J 0.0397
G03 X 13.8785 Y 17.6804 Z -1.0000 I 0.0000 J -0.0673
G03 X 13.8484 Y 17.6505 Z -1.0000 I 0.0475 J -0.0779
G02 X 13.8162 Y 17.6205 Z -1.0000 I -0.0712 J 0.0440
G02 X 13.6935 Y 17.5689 Z -1.0000 I -0.3576 J 0.6786
G03 X 13.5822 Y 17.5072 Z -1.0000 I 0.1008 J -0.3136
G03 X 13.5278 Y 17.4293 Z -1.0000 I 0.1181 J -0.1402
G02 X 13.4763 Y 17.3448 Z -1.0000 I -0.2337 J 0.0845
G02 X 13.3586 Y 17.2470 Z -1.0000 I -0.4349 J 0.4036
G03 X 13.2838 Y 17.1706 Z -1.0000 I 0.1245 J -0.1968
G01 X 13.2996 Y 17.1493 Z -1.0000
G02 X 13.3521 Y 17.1415 Z -1.0000 I 0.0169 J -0.0673
G01 X 13.3699 Y 17.1072 Z -1.0000
G01 X 13.3417 Y 17.0741 Z -1.0000
G02 X 13.1851 Y 17.0629 Z -1.0000 I -0.1123 J 0.4689
G03 X 13.0244 Y 17.0516 Z -1.0000 I -0.0458 J -0.4952
G01 X 12.9882 Y 17.0162 Z -1.0000
G02 X 12.9623 Y 16.9648 Z -1.0000 I -0.1324 J 0.0346
G01 X 12.9368 Y 16.9525 Z -1.0000
G03 X 12.7959 Y 16.8902 Z -1.0000 I 0.0018 J -0.1948
G03 X 12.6977 Y 16.6947 Z -1.0000 I 0.2877 J -0.2669
G03 X 12.7023 Y 16.6454 Z -1.0000 I 0.0895 J -0.0165
G01 X 12.7253 Y 16.6231 Z -1.0000
G01 X 12.7497 Y 16.6307 Z -1.0000
G03 X 12.7678 Y 16.6814 Z -1.0000 I -0.0768 J 0.0560
G01 X 12.7762 Y 16.6837 Z -1.0000
G02 X 12.7918 Y 16.6455 Z -1.0000 I -0.0847 J -0.0568
G03 X 12.8251 Y 16.5579 Z -1.0000 I 0.2585 J 0.0480
G01 X 12.8515 Y 16.5464 Z -1.0000
G01 X 12.8717 Y 16.5411 Z -1.0000
G01 X 12.8739 Y 16.5268 Z -1.0000
G03 X 12.9065 Y 16.3409 Z -1.0000 I 0.1207 J -0.0746
G03 X 13.0949 Y 16.3519 Z -1.0000 I 0.0881 J 0.1113
G01 X 13.1018 Y 16.3733 Z -1.0000
G03 X 13.0832 Y 16.4241 Z -1.0000 I -0.1404 J -0.0226
G02 X 13.0704 Y 16.4771 Z -1.0000 I 0.0782 J 0.0470
G02 X 13.0916 Y 16.5533 Z -1.0000 I 0.1919 J -0.0125
G01 X 13.1177 Y 16.5728 Z -1.0000
G01 X 13.1320 Y 16.5610 Z -1.0000
G03 X 13.1455 Y 16.5050 Z -1.0000 I 0.1266 J 0.0008
G01 X 13.1668 Y 16.4919 Z -1.0000
G01 X 13.1844 Y 16.5048 Z -1.0000
G03 X 13.1855 Y 16.5513 Z -1.0000 I -0.0802 J 0.0253
G02 X 13.1878 Y 16.6017 Z -1.0000 I 0.0825 J 0.0216
G01 X 13.2127 Y 16.6272 Z -1.0000
G03 X 13.2419 Y 16.6528 Z -1.0000 I -0.0201 J 0.0523
G03 X 13.2554 Y 16.7060 Z -1.0000 I -0.0981 J 0.0532
G02 X 13.2735 Y 16.7503 Z -1.0000 I 0.0631 J -0.0000
G02 X 13.3168 Y 16.7684 Z -1.0000 I 0.0433 J -0.0427
G03 X 13.3642 Y 16.7826 Z -1.0000 I 0.0000 J 0.0862
G01 X 13.3783 Y 16.8088 Z -1.0000
G02 X 13.4674 Y 16.8971 Z -1.0000 I 0.0883 J 0.0000
G02 X 13.8285 Y 16.8049 Z -1.0000 I -0.0067 J -0.7793
G03 X 13.8906 Y 16.7841 Z -1.0000 I 0.0922 J 0.1723
G01 X 13.9136 Y 16.7916 Z -1.0000
G01 X 13.9195 Y 16.7893 Z -1.0000
G02 X 13.9144 Y 16.7598 Z -1.0000 I -0.0773 J -0.0018
G01 X 13.9196 Y 16.7245 Z -1.0000
G01 X 13.9553 Y 16.7070 Z -1.0000
G02 X 14.1036 Y 16.6276 Z -1.0000 I -0.0000 J -0.1783
G02 X 14.0806 Y 16.5192 Z -1.0000 I -0.0644 J -0.0430
G01 X 14.0758 Y 16.5033 Z -1.0000
G01 X 14.0927 Y 16.4923 Z -1.0000
G02 X 14.1331 Y 16.4786 Z -1.0000 I -0.0006 J -0.0677
G01 X 14.1465 Y 16.4515 Z -1.0000
G01 X 14.1623 Y 16.4215 Z -1.0000
G03 X 14.3065 Y 16.3413 Z -1.0000 I 0.4899 J 0.7114
G02 X 14.4579 Y 16.2597 Z -1.0000 I -0.4158 J -0.9522
G02 X 14.5336 Y 16.1934 Z -1.0000 I -0.1944 J -0.2984
G03 X 14.6040 Y 16.1370 Z -1.0000 I 0.1854 J 0.1593
G01 X 14.6374 Y 16.1381 Z -1.0000
G02 X 14.6752 Y 16.1449 Z -1.0000 I 0.0276 J -0.0447
G02 X 14.7921 Y 16.1076 Z -1.0000 I -0.1034 J -0.5256
G01 X 14.9101 Y 16.0544 Z -1.0000
G01 X 14.7676 Y 15.9198 Z -1.0000
G03 X 14.6445 Y 15.7929 Z -1.0000 I 1.3827 J -1.4638
G01 X 14.6480 Y 15.7851 Z -1.0000
G01 X 14.6558 Y 15.7760 Z -1.0000
G02 X 14.6381 Y 15.7237 Z -1.0000 I -0.1650 J 0.0266
G02 X 14.5975 Y 15.6751 Z -1.0000 I -0.1366 J 0.0731
G02 X 14.5602 Y 15.6622 Z -1.0000 I -0.0373 J 0.0472
G01 X 14.5336 Y 15.6303 Z -1.0000
G03 X 14.5789 Y 15.5596 Z -1.0000 I 0.1087 J 0.0198
G02 X 14.6145 Y 15.5158 Z -1.0000 I -0.0590 J -0.0843
G01 X 14.6073 Y 15.4932 Z -1.0000
G01 X 14.6031 Y 15.4173 Z -1.0000
G03 X 14.7836 Y 15.3549 Z -1.0000 I 0.1805 J 0.2302
G02 X 14.8663 Y 15.3424 Z -1.0000 I 0.0000 J -0.2802
G02 X 14.9386 Y 15.3071 Z -1.0000 I -0.0766 J -0.2479
G03 X 15.0074 Y 15.2740 Z -1.0000 I 0.1345 J 0.1920
G01 X 15.0376 Y 15.2781 Z -1.0000
G01 X 15.0581 Y 15.2788 Z -1.0000
G01 X 15.0683 Y 15.2618 Z -1.0000
G01 X 15.0837 Y 15.2427 Z -1.0000
G03 X 15.1989 Y 15.2334 Z -1.0000 I 0.0923 J 0.4242
G02 X 15.4029 Y 15.2133 Z -1.0000 I 0.0359 J -0.6807
G02 X 15.4459 Y 15.1706 Z -1.0000 I -0.0147 J -0.0578
G03 X 15.4753 Y 15.1264 Z -1.0000 I 0.0789 J 0.0206
G03 X 15.5263 Y 15.1091 Z -1.0000 I 0.0510 J 0.0667
G02 X 15.5790 Y 15.0975 Z -1.0000 I -0.0000 J -0.1248
G01 X 15.5907 Y 15.0792 Z -1.0000
G01 X 15.6014 Y 15.0557 Z -1.0000
G03 X 15.6763 Y 15.0050 Z -1.0000 I 0.2507 J 0.2892
G02 X 15.7521 Y 14.9508 Z -1.0000 I -0.1498 J -0.2897
G02 X 15.8033 Y 14.8833 Z -1.0000 I -0.1866 J -0.1948
G03 X 15.8553 Y 14.8176 Z -1.0000 I 0.2089 J 0.1118
G03 X 15.9317 Y 14.7699 Z -1.0000 I 0.1810 J 0.2048
G02 X 16.0057 Y 14.7207 Z -1.0000 I -0.0884 J -0.2135
G02 X 16.0580 Y 14.6449 Z -1.0000 I -0.1740 J -0.1759
G03 X 16.1032 Y 14.5650 Z -1.0000 I 0.4280 J 0.1895
G01 X 16.1206 Y 14.5560 Z -1.0000
G01 X 16.1350 Y 14.5472 Z -1.0000
G02 X 16.1438 Y 14.5114 Z -1.0000 I -0.0687 J -0.0358
G03 X 16.1551 Y 14.4735 Z -1.0000 I 0.0694 J 0.0000
G03 X 16.1896 Y 14.4412 Z -1.0000 I 0.0829 J 0.0541
G01 X 16.2138 Y 14.4067 Z -1.0000
G02 X 16.2089 Y 14.3230 Z -1.0000 I -0.1891 J -0.0308
G03 X 16.1955 Y 14.2297 Z -1.0000 I 0.3333 J -0.0956
G03 X 16.2073 Y 14.0783 Z -1.0000 I 0.9006 J -0.0058
G02 X 16.2079 Y 13.8815 Z -1.0000 I -0.6101 J -0.1001
G02 X 16.1694 Y 13.8390 Z -1.0000 I -0.0517 J 0.0082
G01 X 16.1366 Y 13.8108 Z -1.0000
G01 X 16.1417 Y 13.7749 Z -1.0000
G02 X 16.1357 Y 13.6808 Z -1.0000 I -0.0528 J -0.0438
G02 X 16.0046 Y 13.6470 Z -1.0000 I -0.0966 J 0.1037
G03 X 15.9449 Y 13.6453 Z -1.0000 I -0.0267 J -0.1065
G01 X 15.9287 Y 13.6232 Z -1.0000
G02 X 15.9186 Y 13.5850 Z -1.0000 I -0.0773 J 0.0000
G02 X 15.8826 Y 13.5420 Z -1.0000 I -0.1356 J 0.0770
G03 X 15.8500 Y 13.4974 Z -1.0000 I 0.0718 J -0.0865
G03 X 15.8365 Y 13.4271 Z -1.0000 I 0.1752 J -0.0703
G02 X 15.8125 Y 13.3795 Z -1.0000 I -0.0593 J 0.0000
G02 X 15.7542 Y 13.3662 Z -1.0000 I -0.0443 J 0.0598
G03 X 15.6342 Y 13.3448 Z -1.0000 I -0.0320 J -0.1675
G03 X 15.5907 Y 13.2676 Z -1.0000 I 0.0465 J -0.0771
G01 X 15.5783 Y 13.2470 Z -1.0000
G02 X 15.5296 Y 13.2347 Z -1.0000 I -0.0488 J 0.0905
G02 X 15.4881 Y 13.2519 Z -1.0000 I -0.0000 J 0.0586
G01 X 15.4758 Y 13.2885 Z -1.0000
G03 X 15.4706 Y 13.3336 Z -1.0000 I -0.0911 J 0.0123
G01 X 15.4524 Y 13.3495 Z -1.0000
G01 X 15.4330 Y 13.3421 Z -1.0000
G03 X 15.4205 Y 13.3034 Z -1.0000 I 0.0582 J -0.0402
G02 X 15.3809 Y 13.2109 Z -1.0000 I -0.1345 J 0.0029
G02 X 15.2892 Y 13.1728 Z -1.0000 I -0.0924 J 0.0928
G03 X 15.2091 Y 13.1635 Z -1.0000 I 0.0021 J -0.3707
G03 X 15.1613 Y 13.1437 Z -1.0000 I 0.0339 J -0.1492
G02 X 15.1201 Y 13.1343 Z -1.0000 I -0.0338 J 0.0534
G01 X 15.0916 Y 13.1519 Z -1.0000
G01 X 15.0824 Y 13.1497 Z -1.0000
G03 X 15.0835 Y 13.0888 Z -1.0000 I 0.2099 J -0.0269
G02 X 15.0813 Y 13.0033 Z -1.0000 I -0.2257 J -0.0369
G01 X 15.0610 Y 12.9854 Z -1.0000
G03 X 15.0221 Y 12.9819 Z -1.0000 I 1.3944 J -15.6832
G02 X 14.9761 Y 12.9777 Z -1.0000 I -6.2696 J 68.5902
G01 X 14.9483 Y 12.9594 Z -1.0000
G03 X 14.9406 Y 12.9121 Z -1.0000 I 0.0645 J -0.0349
G03 X 14.9729 Y 12.8522 Z -1.0000 I 0.1052 J 0.0181
G01 X 14.9982 Y 12.8583 Z -1.0000
G01 X 15.0379 Y 12.8807 Z -1.0000
G02 X 15.0816 Y 12.8415 Z -1.0000 I -0.0115 J -0.0568
G03 X 15.1136 Y 12.8085 Z -1.0000 I 0.0489 J 0.0155
G03 X 15.2045 Y 12.7985 Z -1.0000 I 0.0672 J 0.1922
G03 X 15.2839 Y 12.8264 Z -1.0000 I -0.0222 J 0.1899
G01 X 15.2931 Y 12.8541 Z -1.0000
G02 X 15.3084 Y 12.9429 Z -1.0000 I 0.0822 J 0.0315
G02 X 15.4083 Y 12.9889 Z -1.0000 I 0.0999 J -0.0854
G03 X 15.4574 Y 13.0021 Z -1.0000 I -0.0000 J 0.0982
G03 X 15.5044 Y 13.0446 Z -1.0000 I -0.0758 J 0.1310
G02 X 15.5790 Y 13.0954 Z -1.0000 I 0.1075 J -0.0776
G01 X 15.6043 Y 13.0702 Z -1.0000
G01 X 15.6182 Y 13.0222 Z -1.0000
G03 X 15.6740 Y 13.0039 Z -1.0000 I 0.0472 J 0.0496
G02 X 15.7606 Y 13.0040 Z -1.0000 I 0.0435 J -0.3443
G02 X 15.8075 Y 12.9872 Z -1.0000 I -0.0141 J -0.1129
G01 X 15.8208 Y 12.9679 Z -1.0000
G01 X 15.8134 Y 12.9586 Z -1.0000
G03 X 15.7475 Y 12.8919 Z -1.0000 I 0.0008 J -0.0667
G03 X 15.8134 Y 12.7941 Z -1.0000 I 0.1056 J 0.0000
G01 X 15.8248 Y 12.7754 Z -1.0000
G01 X 15.8095 Y 12.7489 Z -1.0000
G03 X 15.7882 Y 12.6843 Z -1.0000 I 0.0325 J -0.0465
G01 X 15.8371 Y 12.6667 Z -1.0000
G01 X 15.8592 Y 12.6645 Z -1.0000
G02 X 15.9106 Y 12.5980 Z -1.0000 I -0.1784 J -0.1911
G03 X 15.9471 Y 12.5537 Z -1.0000 I 0.1324 J 0.0718
G01 X 15.9582 Y 12.5587 Z -1.0000
G01 X 15.9704 Y 12.5640 Z -1.0000
G02 X 16.0208 Y 12.5045 Z -1.0000 I -0.1663 J -0.1917
G02 X 16.0754 Y 12.4028 Z -1.0000 I -0.9081 J -0.5537
G01 X 16.0785 Y 12.3816 Z -1.0000
G03 X 16.0960 Y 12.2927 Z -1.0000 I 0.1314 J -0.0203
G01 X 16.1437 Y 12.2733 Z -1.0000
G01 X 16.1852 Y 12.2411 Z -1.0000
G02 X 16.1432 Y 12.1350 Z -1.0000 I -0.1565 J 0.0006
G01 X 16.0812 Y 12.0685 Z -1.0000
G01 X 16.1586 Y 12.0491 Z -1.0000
G02 X 16.2188 Y 12.0031 Z -1.0000 I -0.0234 J -0.0931
G01 X 16.2081 Y 11.9613 Z -1.0000
G01 X 16.1933 Y 11.9388 Z -1.0000
G03 X 16.1963 Y 11.8827 Z -1.0000 I 0.1385 J -0.0208
G02 X 16.1915 Y 11.8374 Z -1.0000 I -0.0622 J -0.0163
G01 X 16.1652 Y 11.8213 Z -1.0000
G03 X 16.1257 Y 11.8101 Z -1.0000 I -0.0000 J -0.0757
G03 X 16.1026 Y 11.7828 Z -1.0000 I 0.0298 J -0.0485
G01 X 16.0917 Y 11.7734 Z -1.0000
G01 X 16.0847 Y 11.7785 Z -1.0000
G01 X 16.0695 Y 11.7961 Z -1.0000
G03 X 15.9994 Y 11.7968 Z -1.0000 I -0.0370 J -0.1726
G01 X 15.9751 Y 11.7761 Z -1.0000
G01 X 15.9845 Y 11.7558 Z -1.0000
G02 X 16.0402 Y 11.7183 Z -1.0000 I -0.0494 J -0.1334
G02 X 16.0847 Y 11.6460 Z -1.0000 I -0.1677 J -0.1530
G03 X 16.1223 Y 11.5657 Z -1.0000 I 0.5500 J 0.2091
G03 X 16.1415 Y 11.5453 Z -1.0000 I 0.0511 J 0.0289
G02 X 16.1604 Y 11.5249 Z -1.0000 I -0.0309 J -0.0476
G02 X 16.1874 Y 11.4613 Z -1.0000 I -0.3073 J -0.1679
G02 X 16.1774 Y 11.4073 Z -1.0000 I -0.0561 J -0.0175
G02 X 16.0917 Y 11.3403 Z -1.0000 I -0.1809 J 0.1431
G02 X 15.9726 Y 11.3001 Z -1.0000 I -0.2602 J 0.5742
G02 X 15.8930 Y 11.2947 Z -1.0000 I -0.0568 J 0.2472
G03 X 15.8179 Y 11.2890 Z -1.0000 I -0.0204 J -0.2293
G01 X 15.7914 Y 11.2697 Z -1.0000
G01 X 15.7943 Y 11.2502 Z -1.0000
G03 X 15.8285 Y 11.2374 Z -1.0000 I 0.0342 J 0.0393
G02 X 15.8818 Y 11.2281 Z -1.0000 I 0.0000 J -0.1580
G02 X 15.9175 Y 11.2055 Z -1.0000 I -0.0325 J -0.0909
G03 X 15.9530 Y 11.1905 Z -1.0000 I 0.0363 J 0.0363
G03 X 16.0288 Y 11.2038 Z -1.0000 I 0.0031 J 0.2047
G02 X 16.3510 Y 11.2602 Z -1.0000 I 0.3077 J -0.8093
G02 X 16.5028 Y 11.1958 Z -1.0000 I -0.0037 J -0.2199
G01 X 16.5468 Y 11.1901 Z -1.0000
G03 X 16.5739 Y 11.2374 Z -1.0000 I -0.0276 J 0.0472
G02 X 16.5886 Y 11.2841 Z -1.0000 I 0.0819 J -0.0000
G01 X 16.6167 Y 11.2988 Z -1.0000
G03 X 16.6770 Y 11.3412 Z -1.0000 I 0.0000 J 0.0640
G03 X 16.6699 Y 11.4470 Z -1.0000 I -0.1248 J 0.0447
G02 X 16.6561 Y 11.4994 Z -1.0000 I 0.1092 J 0.0567
G02 X 16.6659 Y 11.5600 Z -1.0000 I 0.1584 J 0.0056
G01 X 16.6898 Y 11.5665 Z -1.0000
G02 X 16.7403 Y 11.4989 Z -1.0000 I -0.1117 J -0.1361
G02 X 16.7797 Y 11.3734 Z -1.0000 I -0.6381 J -0.2691
G02 X 16.8008 Y 11.2136 Z -1.0000 I -1.0183 J -0.2160
G03 X 16.8225 Y 11.0566 Z -1.0000 I 0.9452 J 0.0507
G03 X 16.8454 Y 11.0151 Z -1.0000 I 0.0831 J 0.0187
G02 X 16.8851 Y 10.9291 Z -1.0000 I -0.0969 J -0.0969
G02 X 16.8582 Y 10.8558 Z -1.0000 I -0.0930 J -0.0075
G03 X 16.8442 Y 10.8289 Z -1.0000 I 0.0355 J -0.0355
G03 X 16.8351 Y 10.7227 Z -1.0000 I 0.6130 J -0.1062
G02 X 16.8200 Y 10.6237 Z -1.0000 I -0.3318 J -0.0000
G01 X 16.7967 Y 10.5999 Z -1.0000
G01 X 16.7796 Y 10.6074 Z -1.0000
G01 X 16.7789 Y 10.6407 Z -1.0000
G01 X 16.7776 Y 10.6680 Z -1.0000
G01 X 16.7634 Y 10.6721 Z -1.0000
G01 X 16.7435 Y 10.6417 Z -1.0000
G03 X 16.7407 Y 10.5134 Z -1.0000 I 0.5312 J -0.0761
G02 X 16.7342 Y 10.3949 Z -1.0000 I -0.3898 J -0.0381
G01 X 16.7121 Y 10.3770 Z -1.0000
G01 X 16.6798 Y 10.3639 Z -1.0000
G03 X 16.6516 Y 10.3184 Z -1.0000 I 0.0763 J -0.0787
G02 X 16.5750 Y 10.2568 Z -1.0000 I -0.0846 J 0.0269
G02 X 16.4509 Y 10.3003 Z -1.0000 I -0.0142 J 0.1582
G03 X 16.3631 Y 10.3525 Z -1.0000 I -0.1564 J -0.1633
G03 X 16.2933 Y 10.3506 Z -1.0000 I -0.0322 J -0.1009
G03 X 16.1491 Y 10.2581 Z -1.0000 I 0.1481 J -0.3895
G01 X 16.1630 Y 10.2224 Z -1.0000
G01 X 16.1676 Y 10.2142 Z -1.0000
G02 X 16.1418 Y 10.1840 Z -1.0000 I -0.0868 J 0.0479
G03 X 16.0997 Y 10.1414 Z -1.0000 I 0.1444 J -0.1852
G03 X 16.0343 Y 10.0433 Z -1.0000 I 0.7221 J -0.5523
G02 X 15.9678 Y 9.9453 Z -1.0000 I -0.7030 J 0.4055
G02 X 15.8441 Y 9.8030 Z -1.0000 I -1.6125 J 1.2756
G03 X 15.7039 Y 9.5734 Z -1.0000 I 0.4614 J -0.4394
G01 X 15.7443 Y 9.5166 Z -1.0000
G01 X 15.7631 Y 9.5047 Z -1.0000
G02 X 15.7750 Y 9.4514 Z -1.0000 I -0.1131 J -0.0533
G01 X 15.7584 Y 9.4214 Z -1.0000
G01 X 15.7303 Y 9.4233 Z -1.0000
G03 X 15.6678 Y 9.4257 Z -1.0000 I -0.0328 J -0.0395
G03 X 15.6350 Y 9.3560 Z -1.0000 I 0.0450 J -0.0637
G02 X 15.6275 Y 9.2903 Z -1.0000 I -0.1722 J -0.0134
G02 X 15.5961 Y 9.2331 Z -1.0000 I -0.1610 J 0.0512
G03 X 15.5698 Y 9.1747 Z -1.0000 I 0.0908 J -0.0759
G03 X 15.5674 Y 9.0411 Z -1.0000 I 0.5088 J -0.0759
G02 X 15.5445 Y 8.9460 Z -1.0000 I -0.1423 J -0.0160
G01 X 15.4964 Y 8.9339 Z -1.0000
G03 X 15.4489 Y 8.9458 Z -1.0000 I -0.0475 J -0.0888
G01 X 15.4370 Y 8.9339 Z -1.0000
G01 X 15.4471 Y 8.9121 Z -1.0000
G01 X 15.4754 Y 8.9016 Z -1.0000
G01 X 15.4829 Y 8.8924 Z -1.0000
G01 X 15.4699 Y 8.8733 Z -1.0000
G03 X 15.4514 Y 8.7638 Z -1.0000 I 0.0399 J -0.0630
G03 X 15.8598 Y 8.3836 Z -1.0000 I 1.4731 J 1.1728
G02 X 16.0326 Y 8.2579 Z -1.0000 I -2.1881 J -3.1917
G02 X 16.1981 Y 8.1231 Z -1.0000 I -2.3598 J -3.0646
G03 X 16.8366 Y 7.7801 Z -1.0000 I 1.0913 J 1.2661
G03 X 17.4070 Y 7.7828 Z -1.0000 I 0.2805 J 0.9965
G01 X 17.4382 Y 7.8094 Z -1.0000
G03 X 17.4484 Y 7.8706 Z -1.0000 I -0.1031 J 0.0487
G02 X 17.4619 Y 7.9291 Z -1.0000 I 0.0905 J 0.0100
G02 X 17.5053 Y 7.9609 Z -1.0000 I 0.0619 J -0.0390
G01 X 17.5702 Y 7.9778 Z -1.0000
G01 X 17.5076 Y 8.0482 Z -1.0000
G02 X 17.4727 Y 8.1710 Z -1.0000 I 0.1095 J 0.0974
G02 X 17.5445 Y 8.2577 Z -1.0000 I 0.1122 J -0.0197
G03 X 17.6073 Y 8.3191 Z -1.0000 I -0.0392 J 0.1030
G03 X 17.6223 Y 8.4488 Z -1.0000 I -0.2252 J 0.0918
G01 X 17.6305 Y 8.4618 Z -1.0000
G02 X 17.6988 Y 8.4719 Z -1.0000 I 0.0683 J -0.2269
G03 X 17.7528 Y 8.4898 Z -1.0000 I 0.0000 J 0.0903
G01 X 17.7611 Y 8.5183 Z -1.0000
G01 X 17.7701 Y 8.5410 Z -1.0000
G02 X 17.8190 Y 8.5458 Z -1.0000 I 0.0311 J -0.0656
G03 X 17.8910 Y 8.5831 Z -1.0000 I 0.0149 J 0.0594
G03 X 17.8787 Y 8.6998 Z -1.0000 I -0.1197 J 0.0464
G03 X 17.7456 Y 8.7825 Z -1.0000 I -0.1555 J -0.1019
G03 X 17.6174 Y 8.7315 Z -1.0000 I -0.0173 J -0.1430
G02 X 17.4901 Y 8.6803 Z -1.0000 I -0.1110 J 0.0921
G02 X 17.4095 Y 8.7551 Z -1.0000 I 0.0105 J 0.0921
G02 X 17.4700 Y 8.9378 Z -1.0000 I 0.1946 J 0.0369
G02 X 17.6518 Y 8.9781 Z -1.0000 I 0.1257 J -0.1366
G02 X 17.7007 Y 8.9519 Z -1.0000 I -0.0457 J -0.1441
G01 X 17.7109 Y 8.9307 Z -1.0000
G01 X 17.7212 Y 8.9124 Z -1.0000
G03 X 17.7579 Y 8.9020 Z -1.0000 I 0.0368 J 0.0603
G02 X 17.7966 Y 8.8898 Z -1.0000 I -0.0000 J -0.0668
G02 X 17.8226 Y 8.8563 Z -1.0000 I -0.0422 J -0.0596
G01 X 17.8522 Y 8.8289 Z -1.0000
G03 X 17.9609 Y 8.8153 Z -1.0000 I 0.0956 J 0.3225
G02 X 18.0766 Y 8.8069 Z -1.0000 I 0.0204 J -0.5211
G02 X 18.1152 Y 8.7866 Z -1.0000 I -0.0134 J -0.0723
G03 X 18.1514 Y 8.7666 Z -1.0000 I 0.0527 J 0.0527
G03 X 18.1909 Y 8.7695 Z -1.0000 I 0.0151 J 0.0665
G01 X 18.2241 Y 8.7504 Z -1.0000
G01 X 18.2020 Y 8.7020 Z -1.0000
G01 X 18.1860 Y 8.6791 Z -1.0000
G01 X 18.1912 Y 8.6496 Z -1.0000
G01 X 18.1854 Y 8.6346 Z -1.0000
G02 X 18.1303 Y 8.6321 Z -1.0000 I -0.0328 J 0.1143
G03 X 18.0654 Y 8.6278 Z -1.0000 I -0.0241 J -0.1262
G01 X 18.0489 Y 8.6049 Z -1.0000
G02 X 18.0382 Y 8.5695 Z -1.0000 I -0.0639 J 0.0000
G02 X 18.0105 Y 8.5473 Z -1.0000 I -0.0487 J 0.0325
G01 X 17.9884 Y 8.5212 Z -1.0000
G03 X 17.9702 Y 8.3503 Z -1.0000 I 0.8810 J -0.1800
G03 X 17.9805 Y 8.1895 Z -1.0000 I 1.0928 J -0.0109
G01 X 17.9933 Y 8.1835 Z -1.0000
G01 X 18.0094 Y 8.1832 Z -1.0000
G01 X 18.0182 Y 8.1664 Z -1.0000
G01 X 18.0051 Y 8.1469 Z -1.0000
G02 X 17.9395 Y 8.1339 Z -1.0000 I -0.0656 J 0.1585
G03 X 17.8847 Y 8.1206 Z -1.0000 I -0.0000 J -0.1196
G01 X 17.8799 Y 8.1031 Z -1.0000
G01 X 17.8761 Y 8.0851 Z -1.0000
G02 X 17.8356 Y 8.0724 Z -1.0000 I -0.0405 J 0.0584
G01 X 17.7947 Y 8.0445 Z -1.0000
G03 X 17.8005 Y 7.9833 Z -1.0000 I 0.0632 J -0.0249
G01 X 17.8373 Y 7.9627 Z -1.0000
G03 X 18.0228 Y 7.9796 Z -1.0000 I 0.0144 J 0.8661
G02 X 18.2191 Y 8.0080 Z -1.0000 I 0.3556 J -1.7656
G02 X 18.5505 Y 8.0265 Z -1.0000 I 0.4461 J -5.0229
G03 X 18.8769 Y 8.0488 Z -1.0000 I -0.0803 J 3.5607
G03 X 18.9177 Y 8.0686 Z -1.0000 I -0.0079 J 0.0685
G01 X 18.9259 Y 8.0922 Z -1.0000
G01 X 18.9136 Y 8.1031 Z -1.0000
G01 X 18.8940 Y 8.1138 Z -1.0000
G01 X 18.8938 Y 8.1336 Z -1.0000
G01 X 18.9203 Y 8.1493 Z -1.0000
G02 X 19.2014 Y 8.1498 Z -1.0000 I 0.1452 J -2.7563
G02 X 19.6282 Y 8.0730 Z -1.0000 I -0.0832 J -1.6881
G02 X 19.8302 Y 7.9508 Z -1.0000 I -0.1512 J -0.4777
G03 X 19.8796 Y 7.9054 Z -1.0000 I 0.5949 J 0.5988
G03 X 19.9820 Y 7.8222 Z -1.0000 I 2.1100 J 2.4918
G02 X 20.0619 Y 7.7343 Z -1.0000 I -0.2148 J -0.2756
G01 X 20.0664 Y 7.6897 Z -1.0000
G02 X 20.0391 Y 7.6598 Z -1.0000 I -0.0518 J 0.0199
G01 X 20.0081 Y 7.6609 Z -1.0000
G01 X 20.0018 Y 7.6561 Z -1.0000
G03 X 20.0187 Y 7.6244 Z -1.0000 I 0.0842 J 0.0246
G02 X 20.0634 Y 7.5623 Z -1.0000 I -0.4054 J -0.3385
G02 X 20.1554 Y 7.4018 Z -1.0000 I -2.6337 J -1.6170
G03 X 20.4897 Y 7.0621 Z -1.0000 I 0.7435 J 0.3972
G03 X 21.0136 Y 6.9253 Z -1.0000 I 0.5281 J 0.9511
G03 X 21.3512 Y 6.9803 Z -1.0000 I 0.0040 J 1.0404
G03 X 21.5306 Y 7.1003 Z -1.0000 I -0.1329 J 0.3926
G03 X 21.5512 Y 7.1554 Z -1.0000 I -0.0632 J 0.0551
G01 X 21.5306 Y 7.1858 Z -1.0000
G01 X 21.5202 Y 7.2001 Z -1.0000
G01 X 21.5291 Y 7.2099 Z -1.0000
G01 X 21.5522 Y 7.2283 Z -1.0000
G03 X 21.5458 Y 7.2718 Z -1.0000 I -0.0530 J 0.0143
G02 X 21.5340 Y 7.3292 Z -1.0000 I 0.0713 J 0.0446
G02 X 21.5647 Y 7.3937 Z -1.0000 I 0.1231 J -0.0191
G03 X 21.6065 Y 7.4609 Z -1.0000 I -0.1643 J 0.1487
G03 X 21.6170 Y 7.5260 Z -1.0000 I -0.1427 J 0.0564
G02 X 21.6042 Y 7.9413 Z -1.0000 I 8.0752 J 0.4575
G02 X 21.6145 Y 8.0110 Z -1.0000 I 0.2315 J 0.0012
G01 X 21.6050 Y 8.0416 Z -1.0000
G03 X 21.5442 Y 8.0668 Z -1.0000 I -0.0745 J -0.0938
G02 X 21.4695 Y 8.0852 Z -1.0000 I 0.0342 J 0.3000
G01 X 21.4597 Y 8.0994 Z -1.0000
G01 X 21.4533 Y 8.1198 Z -1.0000
G03 X 21.3962 Y 8.1904 Z -1.0000 I -0.5292 J -0.3691
G03 X 21.3240 Y 8.2348 Z -1.0000 I -0.1165 J -0.1085
G03 X 21.2113 Y 8.2440 Z -1.0000 I -0.0788 J -0.2722
G03 X 21.0392 Y 8.1826 Z -1.0000 I 0.0495 J -0.4106
G03 X 20.9988 Y 8.1091 Z -1.0000 I 0.0466 J -0.0735
G01 X 20.9906 Y 8.0839 Z -1.0000
G02 X 20.9468 Y 8.0378 Z -1.0000 I -0.1985 J 0.1447
G02 X 20.9209 Y 8.0257 Z -1.0000 I -0.0372 J 0.0459
G01 X 20.9166 Y 8.0319 Z -1.0000
G01 X 20.9226 Y 8.0643 Z -1.0000
G01 X 20.9069 Y 8.0876 Z -1.0000
G01 X 20.8819 Y 8.0880 Z -1.0000
G03 X 20.8570 Y 8.0590 Z -1.0000 I 0.0284 J -0.0494
G02 X 20.7682 Y 8.0194 Z -1.0000 I -0.0642 J 0.0246
G02 X 20.6773 Y 8.1278 Z -1.0000 I 0.0520 J 0.1359
G02 X 20.6783 Y 8.1880 Z -1.0000 I 0.1450 J 0.0279
G01 X 20.6967 Y 8.2139 Z -1.0000
G01 X 20.7052 Y 8.2338 Z -1.0000
G01 X 20.6871 Y 8.2597 Z -1.0000
G01 X 20.6692 Y 8.2912 Z -1.0000
G02 X 20.6853 Y 8.3499 Z -1.0000 I 0.1074 J 0.0021
G03 X 20.7073 Y 8.4823 Z -1.0000 I -0.1501 J 0.0930
G03 X 20.6433 Y 8.5333 Z -1.0000 I -0.0640 J -0.0146
G01 X 20.6172 Y 8.5513 Z -1.0000
G02 X 20.5989 Y 8.6485 Z -1.0000 I 0.2548 J 0.0984
G03 X 20.5390 Y 8.7904 Z -1.0000 I -0.2000 J -0.0008
G03 X 20.4304 Y 8.8141 Z -1.0000 I -0.0732 J -0.0744
G02 X 19.9646 Y 8.7465 Z -1.0000 I -0.3972 J 1.0985
G02 X 19.5239 Y 8.8674 Z -1.0000 I 0.0646 J 1.0995
G03 X 19.4131 Y 8.9051 Z -1.0000 I -0.1821 J -0.3526
G03 X 19.2975 Y 8.9087 Z -1.0000 I -0.0696 J -0.3808
G02 X 19.1874 Y 8.9126 Z -1.0000 I -0.0426 J 0.3550
G02 X 19.1521 Y 8.9367 Z -1.0000 I 0.0102 J 0.0529
G01 X 19.1335 Y 8.9499 Z -1.0000
G01 X 19.1249 Y 8.9432 Z -1.0000
G02 X 18.9411 Y 8.7953 Z -1.0000 I -0.1530 J 0.0020
G02 X 18.6525 Y 9.0400 Z -1.0000 I 0.0790 J 0.3857
G03 X 18.5798 Y 9.0991 Z -1.0000 I -0.0877 J -0.0337
G03 X 18.3330 Y 9.0916 Z -1.0000 I -0.1039 J -0.6432
G02 X 18.2348 Y 9.0870 Z -1.0000 I -0.0622 J 0.2766
G01 X 18.2236 Y 9.1056 Z -1.0000
G02 X 18.2470 Y 9.1375 Z -1.0000 I 0.0700 J -0.0268
G01 X 18.2768 Y 9.1479 Z -1.0000
G03 X 18.3121 Y 9.1550 Z -1.0000 I 0.0000 J 0.0909
G03 X 18.5321 Y 9.2554 Z -1.0000 I -1.5922 J 3.7790
G02 X 18.7518 Y 9.3572 Z -1.0000 I 2.2365 J -4.5399
G02 X 18.7796 Y 9.3630 Z -1.0000 I 0.0279 J -0.0641
G03 X 18.9418 Y 9.4235 Z -1.0000 I 0.0000 J 0.2475
G03 X 18.9559 Y 9.5159 Z -1.0000 I -0.0472 J 0.0545
G01 X 18.9563 Y 9.5356 Z -1.0000
G02 X 18.9843 Y 9.5578 Z -1.0000 I 0.0494 J -0.0336
G02 X 19.0210 Y 9.5593 Z -1.0000 I 0.0206 J -0.0535
G01 X 19.0392 Y 9.5417 Z -1.0000
G03 X 19.1876 Y 9.4798 Z -1.0000 I 0.1012 J 0.0337
G03 X 19.3088 Y 9.6746 Z -1.0000 I -0.0961 J 0.1949
G01 X 19.2977 Y 9.6851 Z -1.0000
G03 X 19.2650 Y 9.6722 Z -1.0000 I 0.0031 J -0.0561
G02 X 19.2172 Y 9.6539 Z -1.0000 I -0.0509 J 0.0614
G02 X 19.1037 Y 9.6659 Z -1.0000 I -0.0155 J 0.3960
G03 X 18.9853 Y 9.6919 Z -1.0000 I -0.4404 J -1.7272
G03 X 18.8478 Y 9.7130 Z -1.0000 I -0.4254 J -2.3156
G02 X 18.6172 Y 9.7810 Z -1.0000 I 0.0898 J 0.7295
G02 X 18.4770 Y 9.8926 Z -1.0000 I 0.1779 J 0.3672
G02 X 18.3980 Y 10.0255 Z -1.0000 I 0.4308 J 0.3462
G02 X 18.3628 Y 10.1657 Z -1.0000 I 0.4455 J 0.1864
G02 X 18.3794 Y 10.3022 Z -1.0000 I 0.3183 J 0.0306
G02 X 18.4445 Y 10.3987 Z -1.0000 I 0.2166 J -0.0760
G03 X 18.5334 Y 10.4862 Z -1.0000 I -0.7123 J 0.8117
G01 X 18.5406 Y 10.5049 Z -1.0000
G01 X 18.5471 Y 10.5244 Z -1.0000
G02 X 18.6327 Y 10.6278 Z -1.0000 I 1.1111 J -0.8331
G03 X 18.7154 Y 10.7325 Z -1.0000 I -0.6894 J 0.6296
G03 X 18.7249 Y 10.7634 Z -1.0000 I -0.0455 J 0.0309
G02 X 18.7330 Y 10.7955 Z -1.0000 I 0.0677 J -0.0000
G02 X 18.8165 Y 10.9332 Z -1.0000 I 1.4064 J -0.7585
G03 X 18.8913 Y 11.0749 Z -1.0000 I -0.6077 J 0.4116
G03 X 18.9282 Y 11.2155 Z -1.0000 I -0.5623 J 0.2224
G02 X 18.9663 Y 11.3501 Z -1.0000 I 0.4958 J -0.0676
G02 X 19.0071 Y 11.3941 Z -1.0000 I 0.0843 J -0.0372
G03 X 19.0443 Y 11.4343 Z -1.0000 I -0.0396 J 0.0739
G03 X 19.0470 Y 11.4851 Z -1.0000 I -0.0661 J 0.0290
G01 X 19.0533 Y 11.5262 Z -1.0000
G01 X 19.0890 Y 11.5447 Z -1.0000
G03 X 19.1443 Y 11.5534 Z -1.0000 I -0.0000 J 0.1796
G01 X 19.1602 Y 11.5678 Z -1.0000
G02 X 19.2583 Y 11.6885 Z -1.0000 I 0.2720 J -0.1209
G02 X 19.3843 Y 11.7291 Z -1.0000 I 0.1260 J -0.1750
G01 X 19.3941 Y 11.7223 Z -1.0000
G02 X 19.4009 Y 11.6844 Z -1.0000 I -0.1015 J -0.0379
G01 X 19.4178 Y 11.6689 Z -1.0000
G03 X 19.4929 Y 11.6921 Z -1.0000 I -0.0152 J 0.1819
G03 X 19.5733 Y 11.7513 Z -1.0000 I -0.2117 J 0.3720
G01 X 19.5851 Y 11.7782 Z -1.0000
G02 X 19.5951 Y 11.8081 Z -1.0000 I 0.0507 J -0.0003
G02 X 19.7219 Y 11.9626 Z -1.0000 I 1.6343 J -1.2123
G03 X 19.8498 Y 12.1179 Z -1.0000 I -1.5682 J 1.4219
G03 X 19.8716 Y 12.1631 Z -1.0000 I -0.1055 J 0.0788
G01 X 19.8346 Y 12.1933 Z -1.0000
G03 X 19.6707 Y 12.0635 Z -1.0000 I 0.2230 J -0.4497
G02 X 19.5662 Y 11.9567 Z -1.0000 I -0.6887 J 0.5697
G02 X 19.5326 Y 11.9442 Z -1.0000 I -0.0336 J 0.0389
G01 X 19.4903 Y 11.9891 Z -1.0000
G02 X 19.5392 Y 12.0560 Z -1.0000 I 0.0763 J -0.0045
G03 X 19.5750 Y 12.0809 Z -1.0000 I -0.0326 J 0.0852
G01 X 19.5858 Y 12.1088 Z -1.0000
G02 X 19.7236 Y 12.3563 Z -1.0000 I 0.2993 J -0.0045
G02 X 19.9069 Y 12.3147 Z -1.0000 I 0.0712 J -0.1110
G01 X 19.9290 Y 12.3030 Z -1.0000
G03 X 20.0308 Y 12.3210 Z -1.0000 I -0.0214 J 0.4197
G03 X 20.1215 Y 12.3581 Z -1.0000 I -0.1571 J 0.5119
G01 X 20.1232 Y 12.3691 Z -1.0000
G02 X 20.1325 Y 12.4583 Z -1.0000 I 0.0408 J 0.0408
G02 X 20.3672 Y 12.5280 Z -1.0000 I 0.2347 J -0.3606
G03 X 20.4041 Y 12.5389 Z -1.0000 I 0.0000 J 0.0681
G01 X 20.4149 Y 12.5587 Z -1.0000
G01 X 20.4242 Y 12.5802 Z -1.0000
G01 X 20.4479 Y 12.5895 Z -1.0000
G03 X 20.4775 Y 12.5975 Z -1.0000 I -0.0000 J 0.0588
G03 X 20.5269 Y 12.6356 Z -1.0000 I -0.1225 J 0.2100
G02 X 20.5793 Y 12.6664 Z -1.0000 I 0.0859 J -0.0859
G02 X 20.6875 Y 12.6817 Z -1.0000 I 0.1083 J -0.3774
G03 X 20.7965 Y 12.6951 Z -1.0000 I 0.0000 J 0.4475
G03 X 20.8405 Y 12.7201 Z -1.0000 I -0.0231 J 0.0921
G02 X 20.8857 Y 12.7427 Z -1.0000 I 0.0567 J -0.0567
G02 X 21.1616 Y 12.7664 Z -1.0000 I 0.3436 J -2.3790
G03 X 21.9096 Y 12.7946 Z -1.0000 I -1.1240 J 39.8545
G03 X 21.9513 Y 12.8036 Z -1.0000 I -0.0061 J 0.1291
G02 X 21.9672 Y 12.8080 Z -1.0000 I 0.0283 J -0.0706
G02 X 22.0337 Y 12.8172 Z -1.0000 I 0.2096 J -1.2703
G03 X 22.0961 Y 12.8360 Z -1.0000 I -0.0199 J 0.1789
G03 X 22.2089 Y 12.9073 Z -1.0000 I -0.3464 J 0.6734
G02 X 22.3226 Y 12.9781 Z -1.0000 I 0.4312 J -0.5653
G02 X 22.4126 Y 13.0090 Z -1.0000 I 0.1605 J -0.3216
G01 X 22.5079 Y 13.0280 Z -1.0000
G01 X 22.5011 Y 12.8408 Z -1.0000
G02 X 22.4826 Y 12.6755 Z -1.0000 I -1.0971 J 0.0394
G01 X 22.4687 Y 12.6694 Z -1.0000
G01 X 22.4533 Y 12.6666 Z -1.0000
G01 X 22.4429 Y 12.6366 Z -1.0000
G02 X 22.4272 Y 12.5988 Z -1.0000 I -0.0535 J 0.0000
G02 X 22.3643 Y 12.5580 Z -1.0000 I -0.1267 J 0.1268
G03 X 22.3085 Y 12.5204 Z -1.0000 I 0.0522 J -0.1373
G01 X 22.3061 Y 12.4950 Z -1.0000
G02 X 22.2941 Y 12.3936 Z -1.0000 I -0.0698 J -0.0432
G02 X 22.1762 Y 12.3660 Z -1.0000 I -0.0814 J 0.0819
G01 X 22.1457 Y 12.3654 Z -1.0000
G01 X 22.1215 Y 12.3456 Z -1.0000
G01 X 22.1251 Y 12.3330 Z -1.0000
G01 X 22.1494 Y 12.3319 Z -1.0000
G02 X 22.1869 Y 12.3357 Z -1.0000 I 0.0256 J -0.0667
G01 X 22.1966 Y 12.3239 Z -1.0000
G02 X 22.1653 Y 12.2274 Z -1.0000 I -0.1737 J 0.0031
G01 X 22.1352 Y 12.2361 Z -1.0000
G01 X 22.1272 Y 12.2400 Z -1.0000
G03 X 22.1021 Y 12.2125 Z -1.0000 I 0.0515 J -0.0721
G03 X 22.0834 Y 12.1566 Z -1.0000 I 0.1253 J -0.0730
G03 X 22.0888 Y 12.1003 Z -1.0000 I 0.1329 J -0.0158
G02 X 22.0850 Y 12.0493 Z -1.0000 I -0.0656 J -0.0208
G02 X 22.0318 Y 11.9833 Z -1.0000 I -0.1708 J 0.0833
G03 X 21.9796 Y 11.9200 Z -1.0000 I 0.1190 J -0.1513
G01 X 21.9810 Y 11.8844 Z -1.0000
G02 X 21.9776 Y 11.7845 Z -1.0000 I -0.0768 J -0.0475
G02 X 21.8701 Y 11.7291 Z -1.0000 I -0.1076 J 0.0768
G01 X 21.8531 Y 11.7228 Z -1.0000
G03 X 21.7636 Y 11.6384 Z -1.0000 I 0.7819 J -0.9171
G02 X 21.5854 Y 11.5001 Z -1.0000 I -0.5521 J 0.5276
G02 X 21.4059 Y 11.4375 Z -1.0000 I -0.2659 J 0.4735
G03 X 21.2870 Y 11.4064 Z -1.0000 I 0.1019 J -0.6333
G01 X 21.2753 Y 11.3896 Z -1.0000
G02 X 21.1962 Y 11.2852 Z -1.0000 I -0.1084 J 0.0000
G02 X 21.0015 Y 11.3125 Z -1.0000 I -0.0662 J 0.2352
G03 X 20.8790 Y 11.3207 Z -1.0000 I -0.0690 J -0.1116
G03 X 20.7492 Y 11.1998 Z -1.0000 I 0.1118 J -0.2503
G03 X 20.7405 Y 11.1639 Z -1.0000 I 0.0650 J -0.0348
G01 X 20.7498 Y 11.1587 Z -1.0000
G01 X 20.7739 Y 11.1623 Z -1.0000
G01 X 20.7836 Y 11.1496 Z -1.0000
G01 X 20.7748 Y 11.1256 Z -1.0000
G02 X 20.7452 Y 11.1042 Z -1.0000 I -0.0581 J 0.0491
G01 X 20.7426 Y 11.0948 Z -1.0000
G01 X 20.7587 Y 11.0862 Z -1.0000
G01 X 20.7814 Y 11.0671 Z -1.0000
G02 X 20.7741 Y 11.0146 Z -1.0000 I -0.0757 J -0.0162
G02 X 20.6476 Y 10.8360 Z -1.0000 I -0.7490 J 0.3961
G02 X 20.5685 Y 10.7919 Z -1.0000 I -0.1066 J 0.0984
G03 X 20.4823 Y 10.7574 Z -1.0000 I 0.0464 J -0.2410
G03 X 20.4568 Y 10.7202 Z -1.0000 I 0.0312 J -0.0486
G02 X 20.4029 Y 10.5882 Z -1.0000 I -0.3729 J 0.0752
G02 X 20.3537 Y 10.5615 Z -1.0000 I -0.0493 J 0.0320
G03 X 20.2035 Y 10.4702 Z -1.0000 I 0.0000 J -0.1692
G03 X 20.2392 Y 10.3410 Z -1.0000 I 0.0875 J -0.0454
G01 X 20.2378 Y 10.3162 Z -1.0000
G02 X 20.1076 Y 10.2787 Z -1.0000 I -0.1803 J 0.3812
G03 X 20.0520 Y 10.2513 Z -1.0000 I 0.0111 J -0.0924
G03 X 20.0330 Y 10.2022 Z -1.0000 I 0.0480 J -0.0468
G02 X 20.0272 Y 10.1435 Z -1.0000 I -0.2253 J -0.0073
G01 X 20.0177 Y 10.1367 Z -1.0000
G03 X 19.9161 Y 10.1235 Z -1.0000 I -0.0229 J -0.2209
G01 X 19.8925 Y 10.0893 Z -1.0000
G02 X 19.8831 Y 10.0506 Z -1.0000 I -0.0838 J -0.0000
G02 X 19.8281 Y 9.9655 Z -1.0000 I -0.4818 J 0.2506
G03 X 19.7892 Y 9.8839 Z -1.0000 I 0.1614 J -0.1269
G03 X 19.7997 Y 9.8401 Z -1.0000 I 0.0496 J -0.0112
G01 X 19.8070 Y 9.8013 Z -1.0000
G02 X 19.7719 Y 9.7569 Z -1.0000 I -0.0793 J 0.0264
G03 X 19.7218 Y 9.7095 Z -1.0000 I 0.0925 J -0.1481
G03 X 19.7081 Y 9.6665 Z -1.0000 I 0.0609 J -0.0430
G03 X 19.7648 Y 9.5530 Z -1.0000 I 0.1420 J 0.0000
G03 X 19.9009 Y 9.5217 Z -1.0000 I 0.1032 J 0.1374
G02 X 19.9386 Y 9.5233 Z -1.0000 I 0.0245 J -0.1267
G02 X 20.0564 Y 9.5056 Z -1.0000 I -0.1308 J -1.2705
G03 X 20.2958 Y 9.5168 Z -1.0000 I 0.0971 J 0.4888
G03 X 20.3534 Y 9.5942 Z -1.0000 I -0.0230 J 0.0773
G02 X 20.3636 Y 9.6610 Z -1.0000 I 0.2251 J -0.0000
G01 X 20.3814 Y 9.6840 Z -1.0000
G02 X 20.4632 Y 9.6830 Z -1.0000 I 0.0401 J -0.0648
G02 X 20.5071 Y 9.6018 Z -1.0000 I -0.0530 J -0.0811
G01 X 20.5245 Y 9.5765 Z -1.0000
G01 X 20.5591 Y 9.5821 Z -1.0000
G02 X 20.5857 Y 9.5950 Z -1.0000 I 0.0410 J -0.0505
G01 X 20.5900 Y 9.5891 Z -1.0000
G01 X 20.5893 Y 9.5609 Z -1.0000
G03 X 20.6192 Y 9.5346 Z -1.0000 I 0.0504 J 0.0271
G01 X 20.6582 Y 9.5527 Z -1.0000
G03 X 20.6495 Y 9.6222 Z -1.0000 I -0.0751 J 0.0260
G02 X 20.6332 Y 9.7018 Z -1.0000 I 0.0922 J 0.0604
G01 X 20.6690 Y 9.7318 Z -1.0000
G03 X 20.7346 Y 9.7450 Z -1.0000 I -0.0000 J 0.1693
G03 X 20.8517 Y 9.8086 Z -1.0000 I -0.2601 J 0.6188
G02 X 20.9670 Y 9.8782 Z -1.0000 I 0.7024 J -1.0337
G02 X 20.9961 Y 9.8855 Z -1.0000 I 0.0291 J -0.0547
G03 X 21.1970 Y 9.9330 Z -1.0000 I 0.0000 J 0.4479
G03 X 21.2446 Y 10.0102 Z -1.0000 I -0.0387 J 0.0771
G01 X 21.2510 Y 10.0288 Z -1.0000
G02 X 21.3609 Y 10.1587 Z -1.0000 I 1.7703 J -1.3877
G02 X 21.4880 Y 10.2536 Z -1.0000 I 0.3123 J -0.2854
G02 X 21.5802 Y 10.2654 Z -1.0000 I 0.0637 J -0.1307
G03 X 21.6566 Y 10.2675 Z -1.0000 I 0.0336 J 0.1680
G01 X 21.6673 Y 10.2879 Z -1.0000
G03 X 21.6445 Y 10.3178 Z -1.0000 I -0.0591 J -0.0214
G01 X 21.6171 Y 10.3233 Z -1.0000
G01 X 21.5925 Y 10.3280 Z -1.0000
G01 X 21.5826 Y 10.3467 Z -1.0000
G01 X 21.5963 Y 10.3617 Z -1.0000
G02 X 21.7101 Y 10.3574 Z -1.0000 I 0.0394 J -0.4700
G03 X 21.8286 Y 10.3592 Z -1.0000 I 0.0542 J 0.3388
G03 X 21.8758 Y 10.3890 Z -1.0000 I -0.0143 J 0.0747
G02 X 21.9236 Y 10.4232 Z -1.0000 I 0.0755 J -0.0552
G02 X 22.0785 Y 10.4517 Z -1.0000 I 0.1984 J -0.6416
G03 X 22.4095 Y 10.5374 Z -1.0000 I -0.0590 J 0.9100
G03 X 22.4737 Y 10.6387 Z -1.0000 I -0.0479 J 0.1013
G02 X 22.4859 Y 10.7029 Z -1.0000 I 0.1740 J 0.0000
G01 X 22.5040 Y 10.7151 Z -1.0000
G01 X 22.5266 Y 10.7267 Z -1.0000
G03 X 22.5771 Y 10.8175 Z -1.0000 I -0.3776 J 0.2697
G02 X 22.7133 Y 10.9964 Z -1.0000 I 0.4117 J -0.1720
G02 X 22.8773 Y 11.0531 Z -1.0000 I 0.1640 J -0.2089
G03 X 22.9526 Y 11.0659 Z -1.0000 I -0.0000 J 0.2284
G01 X 22.9653 Y 11.0839 Z -1.0000
G01 X 22.9778 Y 11.1021 Z -1.0000
G02 X 23.0442 Y 11.1146 Z -1.0000 I 0.0664 J -0.1705
G03 X 23.0911 Y 11.1373 Z -1.0000 I 0.0000 J 0.0599
G01 X 23.0990 Y 11.1837 Z -1.0000
G02 X 23.0819 Y 11.2540 Z -1.0000 I 0.3536 J 0.1234
G02 X 23.0771 Y 11.3364 Z -1.0000 I 0.4840 J 0.0694
G03 X 23.0679 Y 11.4001 Z -1.0000 I -0.1911 J 0.0050
G01 X 23.0549 Y 11.4049 Z -1.0000
G01 X 23.0422 Y 11.4090 Z -1.0000
G02 X 23.0352 Y 11.4519 Z -1.0000 I 0.0857 J 0.0360
G01 X 23.0626 Y 11.4896 Z -1.0000
G02 X 23.1870 Y 11.5140 Z -1.0000 I 0.1244 J -0.3039
G03 X 23.3086 Y 11.5395 Z -1.0000 I 0.0000 J 0.3036
G01 X 23.3341 Y 11.5784 Z -1.0000
G02 X 23.3504 Y 11.6301 Z -1.0000 I 0.0898 J -0.0000
G02 X 23.3895 Y 11.6572 Z -1.0000 I 0.0566 J -0.0399
G03 X 23.4619 Y 11.7222 Z -1.0000 I -0.0268 J 0.1026
G03 X 23.5042 Y 11.9596 Z -1.0000 I -0.6095 J 0.2312
G02 X 23.5743 Y 12.1370 Z -1.0000 I 0.2535 J 0.0024
G02 X 23.7801 Y 12.2487 Z -1.0000 I 0.2761 J -0.2635
G02 X 23.9281 Y 12.2584 Z -1.0000 I 0.1141 J -0.6084
G02 X 23.9793 Y 12.2377 Z -1.0000 I -0.0047 J -0.0856
G03 X 24.0314 Y 12.2109 Z -1.0000 I 0.0820 J 0.0952
G03 X 24.3629 Y 12.1437 Z -1.0000 I 0.9976 J 4.0703
G02 X 24.6938 Y 12.0703 Z -1.0000 I -0.4597 J -2.8554
G02 X 24.8622 Y 12.0018 Z -1.0000 I -0.2274 J -0.8000
G03 X 25.0122 Y 11.9342 Z -1.0000 I 0.5413 J 1.0007
G01 X 25.0241 Y 11.9425 Z -1.0000
G02 X 25.0758 Y 12.0051 Z -1.0000 I 0.0637 J -0.0000
G02 X 25.1932 Y 11.9749 Z -1.0000 I 0.0267 J -0.1396
G03 X 25.2375 Y 11.9534 Z -1.0000 I 0.0658 J 0.0793
G01 X 25.2686 Y 11.9588 Z -1.0000
G01 X 25.2876 Y 11.9552 Z -1.0000
G02 X 25.3006 Y 11.9163 Z -1.0000 I -0.0515 J -0.0389
G02 X 25.2850 Y 11.8767 Z -1.0000 I -0.0578 J 0.0000
G01 X 25.2577 Y 11.8705 Z -1.0000
G03 X 25.2188 Y 11.8748 Z -1.0000 I -0.0276 J -0.0718
G01 X 25.1992 Y 11.8619 Z -1.0000
G03 X 25.2423 Y 11.7844 Z -1.0000 I 0.0433 J -0.0267
G03 X 25.3841 Y 11.8611 Z -1.0000 I 0.0007 J 0.1682
G03 X 25.4369 Y 12.0431 Z -1.0000 I -0.2754 J 0.1785
G03 X 25.3815 Y 12.0979 Z -1.0000 I -0.0554 J -0.0006
G01 X 25.3685 Y 12.1092 Z -1.0000
G02 X 25.3701 Y 12.1775 Z -1.0000 I 0.2053 J 0.0294
G03 X 25.3736 Y 12.2561 Z -1.0000 I -0.2659 J 0.0510
G03 X 25.3533 Y 12.3420 Z -1.0000 I -0.3401 J -0.0349
G02 X 25.3343 Y 12.4268 Z -1.0000 I 0.2918 J 0.1102
G02 X 25.3420 Y 12.4808 Z -1.0000 I 0.1225 J 0.0100
G01 X 25.3729 Y 12.5030 Z -1.0000
G02 X 25.4389 Y 12.4848 Z -1.0000 I 0.0046 J -0.1118
G03 X 25.6290 Y 12.4295 Z -1.0000 I 0.1856 J 0.2833
G03 X 25.7137 Y 12.4885 Z -1.0000 I -0.0012 J 0.0920
G01 X 25.7385 Y 12.5142 Z -1.0000
G02 X 25.8061 Y 12.5281 Z -1.0000 I 0.0676 J -0.1576
G03 X 25.8651 Y 12.5506 Z -1.0000 I -0.0000 J 0.0890
G03 X 25.9014 Y 12.6126 Z -1.0000 I -0.0764 J 0.0862
G02 X 25.9797 Y 12.7992 Z -1.0000 I 0.5334 J -0.1141
G02 X 26.0383 Y 12.8200 Z -1.0000 I 0.0431 J -0.0285
G03 X 26.0858 Y 12.8193 Z -1.0000 I 0.0249 J 0.0783
G01 X 26.0996 Y 12.8375 Z -1.0000
G03 X 26.0261 Y 13.0063 Z -1.0000 I -0.2307 J -0.0000
G03 X 25.9203 Y 13.0044 Z -1.0000 I -0.0519 J -0.0557
G01 X 25.9180 Y 12.9876 Z -1.0000
G03 X 25.9459 Y 12.9583 Z -1.0000 I 0.0700 J 0.0388
G02 X 25.9722 Y 12.9288 Z -1.0000 I -0.0365 J -0.0590
G01 X 25.9688 Y 12.9096 Z -1.0000
G02 X 25.8278 Y 12.9058 Z -1.0000 I -0.0725 J 0.0725
G02 X 25.6563 Y 13.1905 Z -1.0000 I 0.3804 J 0.4232
G03 X 25.6286 Y 13.2674 Z -1.0000 I -0.3961 J -0.0994
G03 X 25.5606 Y 13.3905 Z -1.0000 I -1.0874 J -0.5206
G02 X 25.4940 Y 13.5128 Z -1.0000 I 0.9148 J 0.5775
G02 X 25.4850 Y 13.5534 Z -1.0000 I 0.0876 J 0.0406
G01 X 25.4696 Y 13.5869 Z -1.0000
G03 X 25.3711 Y 13.6507 Z -1.0000 I -0.2898 J -0.3394
G02 X 25.2638 Y 13.7132 Z -1.0000 I 0.3158 J 0.6655
G02 X 25.2087 Y 13.7646 Z -1.0000 I 0.1560 J 0.2223
G03 X 25.1513 Y 13.8064 Z -1.0000 I -0.1073 J -0.0869
G03 X 25.0461 Y 13.8277 Z -1.0000 I -0.1142 J -0.2944
G02 X 24.9409 Y 13.8396 Z -1.0000 I 0.0179 J 0.6248
G01 X 24.9319 Y 13.8506 Z -1.0000
G01 X 24.9229 Y 13.8631 Z -1.0000
G03 X 24.7706 Y 13.9050 Z -1.0000 I -0.4441 J -1.3187
G03 X 24.4581 Y 13.9535 Z -1.0000 I -0.5812 J -2.7094
G01 X 24.4336 Y 13.9378 Z -1.0000
G02 X 24.2979 Y 13.8607 Z -1.0000 I -0.1113 J 0.0380
G02 X 24.1944 Y 13.9884 Z -1.0000 I 0.0271 J 0.1277
G01 X 24.1789 Y 14.0018 Z -1.0000
G03 X 24.0855 Y 13.9716 Z -1.0000 I 0.0471 J -0.3058
G03 X 23.9186 Y 13.8532 Z -1.0000 I 0.3202 J -0.6280
G01 X 23.9225 Y 13.8158 Z -1.0000
G01 X 23.9242 Y 13.7979 Z -1.0000
G02 X 23.8731 Y 13.7702 Z -1.0000 I -0.0798 J 0.0864
G02 X 23.7919 Y 13.7672 Z -1.0000 I -0.0477 J 0.1902
G02 X 23.7518 Y 13.7911 Z -1.0000 I 0.0111 J 0.0641
G03 X 23.7090 Y 13.8149 Z -1.0000 I -0.0496 J -0.0388
G03 X 23.4109 Y 13.8283 Z -1.0000 I -0.2538 J -2.3302
G02 X 23.1036 Y 13.8227 Z -1.0000 I -3.6274 J 191.5774
G02 X 22.9220 Y 13.8197 Z -1.0000 I -2.3981 J 138.3802
G03 X 22.7499 Y 13.7984 Z -1.0000 I 0.0121 J -0.8055
G03 X 22.7051 Y 13.7688 Z -1.0000 I 0.0177 J -0.0753
G02 X 22.6628 Y 13.7377 Z -1.0000 I -0.0705 J 0.0515
G02 X 22.5948 Y 13.7313 Z -1.0000 I -0.0473 J 0.1392
G02 X 22.5468 Y 13.7636 Z -1.0000 I 0.0094 J 0.0659
G02 X 22.5281 Y 13.8455 Z -1.0000 I 0.1210 J 0.0708
G03 X 22.5239 Y 13.9452 Z -1.0000 I -0.4070 J 0.0329
G03 X 22.5045 Y 13.9875 Z -1.0000 I -0.0878 J -0.0146
G01 X 22.4962 Y 14.0257 Z -1.0000
G02 X 22.5346 Y 14.0989 Z -1.0000 I 0.1834 J -0.0495
G01 X 22.5966 Y 14.1720 Z -1.0000
G01 X 22.6538 Y 14.1047 Z -1.0000
G03 X 22.7152 Y 14.0697 Z -1.0000 I 0.0790 J 0.0672
G03 X 22.7768 Y 14.0835 Z -1.0000 I 0.0141 J 0.0816
G02 X 22.8308 Y 14.0912 Z -1.0000 I 0.0347 J -0.0495
G02 X 22.8723 Y 14.0512 Z -1.0000 I -0.0216 J -0.0641
G02 X 22.8909 Y 13.9729 Z -1.0000 I -0.2888 J -0.1098
G02 X 22.8849 Y 13.9281 Z -1.0000 I -0.0969 J -0.0099
G01 X 22.8952 Y 13.9040 Z -1.0000
G03 X 22.9703 Y 13.8923 Z -1.0000 I 0.0612 J 0.1461
G03 X 23.0717 Y 13.9061 Z -1.0000 I -0.0953 J 1.0749
G03 X 23.1189 Y 13.9199 Z -1.0000 I -0.0447 J 0.2412
G02 X 23.3188 Y 13.9822 Z -1.0000 I 0.4798 J -1.1873
G02 X 23.4569 Y 13.9956 Z -1.0000 I 0.1230 J -0.5490
G03 X 23.5030 Y 13.9965 Z -1.0000 I 0.0138 J 0.5099
G03 X 23.7545 Y 14.0145 Z -1.0000 I -0.9694 J 15.2978
G02 X 23.9980 Y 14.0190 Z -1.0000 I 0.1587 J -1.9862
G01 X 24.0255 Y 14.0030 Z -1.0000
G01 X 24.0484 Y 13.9857 Z -1.0000
G01 X 24.0741 Y 13.9893 Z -1.0000
G01 X 24.0896 Y 14.0105 Z -1.0000
G01 X 24.0856 Y 14.0359 Z -1.0000
G01 X 24.0894 Y 14.0525 Z -1.0000
G02 X 24.1311 Y 14.0645 Z -1.0000 I 0.0417 J -0.0665
G03 X 24.1812 Y 14.0777 Z -1.0000 I -0.0000 J 0.1016
G01 X 24.1944 Y 14.1003 Z -1.0000
G01 X 24.2025 Y 14.1165 Z -1.0000
G01 X 24.2150 Y 14.1156 Z -1.0000
G01 X 24.2359 Y 14.1107 Z -1.0000
G03 X 24.2841 Y 14.1388 Z -1.0000 I -0.0436 J 0.1301
G02 X 24.3379 Y 14.1707 Z -1.0000 I 0.1063 J -0.1180
G02 X 24.4379 Y 14.1927 Z -1.0000 I 0.1406 J -0.4017
G01 X 24.4548 Y 14.2286 Z -1.0000
G03 X 24.3912 Y 14.2618 Z -1.0000 I -0.0625 J -0.0423
G02 X 24.2273 Y 14.3119 Z -1.0000 I -0.0040 J 0.2799
G01 X 24.2212 Y 14.3801 Z -1.0000
G02 X 24.2610 Y 14.3960 Z -1.0000 I 0.0383 J -0.0383
G02 X 24.3866 Y 14.3757 Z -1.0000 I -0.0127 J -0.4786
G03 X 24.5178 Y 14.3425 Z -1.0000 I 0.4374 J 1.4494
G03 X 24.5632 Y 14.3393 Z -1.0000 I 0.0346 J 0.1673
G03 X 24.9311 Y 14.3692 Z -1.0000 I -0.6500 J 10.2825
G03 X 25.0770 Y 14.3903 Z -1.0000 I -0.1621 J 1.6326
G02 X 25.1608 Y 14.3799 Z -1.0000 I 0.0258 J -0.1352
G02 X 25.2135 Y 14.3268 Z -1.0000 I -0.0455 J -0.0978
G02 X 25.2275 Y 14.2512 Z -1.0000 I -0.1449 J -0.0660
G01 X 25.2067 Y 14.2150 Z -1.0000
G01 X 25.2081 Y 14.2052 Z -1.0000
G03 X 25.2415 Y 14.2038 Z -1.0000 I 0.0193 J 0.0598
G02 X 25.3142 Y 14.2032 Z -1.0000 I 0.0350 J -0.1515
G02 X 25.3605 Y 14.1740 Z -1.0000 I -0.0213 J -0.0852
G01 X 25.3687 Y 14.1408 Z -1.0000
G01 X 25.3505 Y 14.1259 Z -1.0000
G03 X 25.3119 Y 14.1147 Z -1.0000 I 0.0000 J -0.0718
G01 X 25.3006 Y 14.0941 Z -1.0000
G01 X 25.3128 Y 14.0830 Z -1.0000
G03 X 25.3697 Y 14.1004 Z -1.0000 I -0.0132 J 0.1446
G02 X 25.6254 Y 14.1648 Z -1.0000 I 0.2502 J -0.4542
G02 X 25.6880 Y 14.0970 Z -1.0000 I -0.0007 J -0.0634
G01 X 25.7033 Y 14.0646 Z -1.0000
G03 X 25.7682 Y 14.0395 Z -1.0000 I 0.0808 J 0.1125
G02 X 25.8305 Y 14.0072 Z -1.0000 I -0.0113 J -0.0982
G02 X 25.8714 Y 13.9243 Z -1.0000 I -0.1280 J -0.1147
G03 X 25.9099 Y 13.8409 Z -1.0000 I 0.1848 J 0.0347
G03 X 25.9570 Y 13.8182 Z -1.0000 I 0.0475 J 0.0383
G01 X 25.9834 Y 13.8065 Z -1.0000
G01 X 25.9814 Y 13.7915 Z -1.0000
G01 X 25.9781 Y 13.7715 Z -1.0000
G03 X 26.0189 Y 13.7456 Z -1.0000 I 0.0594 J 0.0485
G02 X 26.1303 Y 13.6640 Z -1.0000 I -0.0446 J -0.1778
G02 X 26.1498 Y 13.5335 Z -1.0000 I -0.1427 J -0.0881
G03 X 26.1926 Y 13.3514 Z -1.0000 I 0.1936 J -0.0506
G03 X 26.3008 Y 13.3603 Z -1.0000 I 0.0509 J 0.0443
G01 X 26.3221 Y 13.3757 Z -1.0000
G01 X 26.3480 Y 13.3715 Z -1.0000
G01 X 26.3639 Y 13.3504 Z -1.0000
G01 X 26.3607 Y 13.3270 Z -1.0000
G01 X 26.3570 Y 13.3035 Z -1.0000
G01 X 26.3712 Y 13.2839 Z -1.0000
G01 X 26.3929 Y 13.2867 Z -1.0000
G03 X 26.4530 Y 13.3694 Z -1.0000 I -0.2739 J 0.2625
G03 X 26.4780 Y 13.4708 Z -1.0000 I -0.1838 J 0.0990
G03 X 26.4507 Y 13.5682 Z -1.0000 I -0.1959 J -0.0023
G03 X 26.3711 Y 13.6449 Z -1.0000 I -0.1781 J -0.1052
G01 X 26.3296 Y 13.6338 Z -1.0000
G01 X 26.3069 Y 13.6171 Z -1.0000
G01 X 26.2802 Y 13.6212 Z -1.0000
G01 X 26.2699 Y 13.6430 Z -1.0000
G02 X 26.2888 Y 13.6865 Z -1.0000 I 0.0849 J -0.0112
G03 X 26.2993 Y 13.7296 Z -1.0000 I -0.0389 J 0.0323
G03 X 26.2691 Y 13.7759 Z -1.0000 I -0.0764 J -0.0169
G02 X 26.2329 Y 13.8114 Z -1.0000 I 0.1038 J 0.1420
G01 X 26.2365 Y 13.8187 Z -1.0000
G01 X 26.2407 Y 13.8268 Z -1.0000
G03 X 26.1969 Y 13.8756 Z -1.0000 I -0.2185 J -0.1524
G02 X 26.1488 Y 13.9331 Z -1.0000 I 0.1541 J 0.1777
G01 X 26.1512 Y 13.9524 Z -1.0000
G01 X 26.1486 Y 13.9630 Z -1.0000
G03 X 26.0892 Y 13.9723 Z -1.0000 I -0.0594 J -0.1850
G02 X 26.0274 Y 13.9924 Z -1.0000 I 0.0000 J 0.1051
G01 X 26.0072 Y 14.0320 Z -1.0000
G02 X 26.0178 Y 14.0857 Z -1.0000 I 0.1415 J -0.0000
G02 X 26.0401 Y 14.1119 Z -1.0000 I 0.0515 J -0.0211
G01 X 26.0578 Y 14.1372 Z -1.0000
G03 X 26.0544 Y 14.1804 Z -1.0000 I -0.0750 J 0.0157
G02 X 26.0521 Y 14.2231 Z -1.0000 I 0.0648 J 0.0249
G01 X 26.0734 Y 14.2518 Z -1.0000
G01 X 26.0791 Y 14.2993 Z -1.0000
G03 X 25.8924 Y 14.4359 Z -1.0000 I -0.5097 J -0.5009
G02 X 25.7514 Y 14.5152 Z -1.0000 I 0.8453 J 1.6679
G01 X 25.7358 Y 14.5331 Z -1.0000
G01 X 25.7200 Y 14.5475 Z -1.0000
G03 X 25.6667 Y 14.5562 Z -1.0000 I -0.0533 J -0.1600
G02 X 25.6195 Y 14.5678 Z -1.0000 I -0.0000 J 0.1013
G01 X 25.6078 Y 14.5872 Z -1.0000
G01 X 25.5766 Y 14.6167 Z -1.0000
G03 X 25.3361 Y 14.5731 Z -1.0000 I 0.0498 J -0.9582
G02 X 25.2861 Y 14.5732 Z -1.0000 I -0.0248 J 0.0781
G01 X 25.2605 Y 14.5975 Z -1.0000
G03 X 25.1594 Y 14.6544 Z -1.0000 I -0.0849 J -0.0326
G03 X 25.0854 Y 14.5659 Z -1.0000 I 0.0160 J -0.0886
G01 X 25.0340 Y 14.5239 Z -1.0000
G02 X 24.9252 Y 14.5987 Z -1.0000 I 0.0340 J 0.1660
G01 X 24.8950 Y 14.6188 Z -1.0000
G03 X 24.6026 Y 14.6544 Z -1.0000 I -0.5022 J -2.9081
G02 X 24.2502 Y 14.6889 Z -1.0000 I 0.4754 J 6.6695
G02 X 24.0176 Y 14.7274 Z -1.0000 I 0.3669 J 2.9401
G02 X 23.9659 Y 14.7559 Z -1.0000 I 0.0202 J 0.0977
G02 X 23.9485 Y 14.7993 Z -1.0000 I 0.0450 J 0.0433
G02 X 23.9874 Y 14.8621 Z -1.0000 I 0.0703 J 0.0000
G02 X 24.0974 Y 14.8736 Z -1.0000 I 0.0702 J -0.1408
G03 X 24.1583 Y 14.8725 Z -1.0000 I 0.0325 J 0.1245
G03 X 24.2617 Y 14.9107 Z -1.0000 I -0.0926 J 0.4096
G02 X 24.3678 Y 14.9473 Z -1.0000 I 0.1716 J -0.3256
G02 X 24.6091 Y 14.9736 Z -1.0000 I 0.3058 J -1.6918
G03 X 24.8549 Y 14.9836 Z -1.0000 I -1.5346 J 40.6841
G03 X 24.8703 Y 14.9850 Z -1.0000 I -0.0067 J 0.1520
G01 X 24.8721 Y 14.9901 Z -1.0000
G03 X 24.8404 Y 15.0159 Z -1.0000 I -0.1230 J -0.1188
G01 X 24.8299 Y 15.0411 Z -1.0000
G01 X 24.8512 Y 15.0660 Z -1.0000
G02 X 24.9012 Y 15.0697 Z -1.0000 I 0.0312 J -0.0812
G01 X 24.9316 Y 15.0481 Z -1.0000
G01 X 24.9549 Y 15.0409 Z -1.0000
G03 X 24.9910 Y 15.0744 Z -1.0000 I -0.0305 J 0.0692
