%
(Header)
(Generated by gcodetools from Inkscape.)
(Using default header. To add your own header create file "header" in the output dir.)
M3
(Header end.)
G21 (All units in mm)

(Start cutting path id: path43647)
(Change tool to Default tool)

G00 Z 5.0000
G00 X 10.5706 Y 0.2918

G01 Z -1.0000 F 100.0000(Penetrate)
G01 X 10.5673 Y 0.2989 Z -1.0000 F 3500.0000
G03 X 10.4616 Y 0.3074 Z -1.0000 I -0.1209 J -0.8449
G01 X 10.3837 Y 0.3019 Z -1.0000
G01 X 10.2312 Y 0.2974 Z -1.0000
G02 X 10.0597 Y 0.3051 Z -1.0000 I 0.0513 J 3.0416
G02 X 10.0281 Y 0.3124 Z -1.0000 I 0.0078 J 0.1057
G03 X 10.0020 Y 0.3180 Z -1.0000 I -0.0295 J -0.0736
G01 X 9.9975 Y 0.3137 Z -1.0000
G01 X 9.9826 Y 0.2998 Z -1.0000
G01 X 9.9616 Y 0.3159 Z -1.0000
G01 X 9.9546 Y 0.3219 Z -1.0000
G01 X 9.9417 Y 0.3194 Z -1.0000
G02 X 9.9255 Y 0.3122 Z -1.0000 I -0.0338 J 0.0542
G02 X 9.9034 Y 0.3084 Z -1.0000 I -0.0285 J 0.0999
G03 X 9.8809 Y 0.3056 Z -1.0000 I 0.0110 J -0.1764
G03 X 9.8528 Y 0.2986 Z -1.0000 I 0.0546 J -0.2820
G01 X 9.8413 Y 0.3015 Z -1.0000
G01 X 9.8452 Y 0.3113 Z -1.0000
G01 X 9.8372 Y 0.3207 Z -1.0000
G01 X 9.8194 Y 0.3208 Z -1.0000
G01 X 9.8059 Y 0.3093 Z -1.0000
G01 X 9.7932 Y 0.3017 Z -1.0000
G01 X 9.7746 Y 0.3087 Z -1.0000
G03 X 9.7534 Y 0.3203 Z -1.0000 I -0.0346 J -0.0382
G01 X 9.7394 Y 0.3182 Z -1.0000
G02 X 9.6753 Y 0.2996 Z -1.0000 I -0.0650 J 0.1039
G02 X 9.6219 Y 0.3173 Z -1.0000 I -0.0007 J 0.0873
G01 X 9.6119 Y 0.3199 Z -1.0000
G01 X 9.6079 Y 0.3154 Z -1.0000
G01 X 9.5858 Y 0.2930 Z -1.0000
G01 X 9.5464 Y 0.3146 Z -1.0000
G03 X 9.4929 Y 0.3409 Z -1.0000 I -0.0477 J -0.0295
G03 X 9.4297 Y 0.3022 Z -1.0000 I 0.0090 J -0.0856
G01 X 9.4037 Y 0.2899 Z -1.0000
G01 X 9.3718 Y 0.3085 Z -1.0000
G01 X 9.3624 Y 0.3129 Z -1.0000
G01 X 9.3421 Y 0.3062 Z -1.0000
G01 X 9.3219 Y 0.3013 Z -1.0000
G01 X 9.3069 Y 0.3091 Z -1.0000
G01 X 9.2927 Y 0.3178 Z -1.0000
G01 X 9.2806 Y 0.3148 Z -1.0000
G01 X 9.2674 Y 0.3099 Z -1.0000
G01 X 9.2515 Y 0.3145 Z -1.0000
G01 X 9.2191 Y 0.3210 Z -1.0000
G01 X 9.2073 Y 0.3071 Z -1.0000
G01 X 9.2024 Y 0.2991 Z -1.0000
G01 X 9.1934 Y 0.3000 Z -1.0000
G01 X 9.1782 Y 0.3080 Z -1.0000
G03 X 9.1379 Y 0.3173 Z -1.0000 I -0.0819 J -0.2618
G03 X 9.1001 Y 0.3158 Z -1.0000 I -0.0151 J -0.0982
G01 X 9.0853 Y 0.3049 Z -1.0000
G01 X 9.0738 Y 0.2958 Z -1.0000
G01 X 9.0656 Y 0.2985 Z -1.0000
G01 X 9.0542 Y 0.3053 Z -1.0000
G03 X 8.9475 Y 0.3100 Z -1.0000 I -0.0977 J -1.0111
G02 X 8.8423 Y 0.3178 Z -1.0000 I -0.0056 J 0.6315
G01 X 8.8225 Y 0.3299 Z -1.0000
G01 X 8.8094 Y 0.3353 Z -1.0000
G01 X 8.7980 Y 0.3258 Z -1.0000
G01 X 8.7865 Y 0.3143 Z -1.0000
G01 X 8.7751 Y 0.3173 Z -1.0000
G01 X 8.7593 Y 0.3275 Z -1.0000
G01 X 8.7378 Y 0.3277 Z -1.0000
G01 X 8.7234 Y 0.3284 Z -1.0000
G01 X 8.7217 Y 0.3336 Z -1.0000
G01 X 8.7234 Y 0.3444 Z -1.0000
G01 X 8.7172 Y 0.3531 Z -1.0000
G03 X 8.6655 Y 0.3607 Z -1.0000 I -0.0347 J -0.0561
G01 X 8.6560 Y 0.3368 Z -1.0000
G01 X 8.6502 Y 0.3274 Z -1.0000
G02 X 8.5318 Y 0.3472 Z -1.0000 I 0.0610 J 0.7286
G03 X 8.4997 Y 0.3499 Z -1.0000 I -0.0242 J -0.0958
G01 X 8.4922 Y 0.3440 Z -1.0000
G01 X 8.4859 Y 0.3412 Z -1.0000
G02 X 8.4638 Y 0.3562 Z -1.0000 I 0.0278 J 0.0649
G01 X 8.4369 Y 0.3694 Z -1.0000
G01 X 8.4321 Y 0.3602 Z -1.0000
G01 X 8.4281 Y 0.3452 Z -1.0000
G01 X 8.4021 Y 0.3504 Z -1.0000
G02 X 8.3825 Y 0.3763 Z -1.0000 I 0.0498 J 0.0580
G01 X 8.3846 Y 0.3881 Z -1.0000
G01 X 8.3897 Y 0.3994 Z -1.0000
G01 X 8.3855 Y 0.4073 Z -1.0000
G01 X 8.3754 Y 0.4089 Z -1.0000
G01 X 8.3672 Y 0.4030 Z -1.0000
G01 X 8.3582 Y 0.3954 Z -1.0000
G02 X 8.3386 Y 0.3917 Z -1.0000 I -0.0195 J 0.0493
G01 X 8.3225 Y 0.3862 Z -1.0000
G01 X 8.3170 Y 0.3750 Z -1.0000
G01 X 8.3131 Y 0.3622 Z -1.0000
G01 X 8.3059 Y 0.3583 Z -1.0000
G01 X 8.2980 Y 0.3615 Z -1.0000
G01 X 8.2948 Y 0.3692 Z -1.0000
G01 X 8.2904 Y 0.3736 Z -1.0000
G03 X 8.2663 Y 0.3692 Z -1.0000 I -0.0003 J -0.0665
G01 X 8.2435 Y 0.3675 Z -1.0000
G01 X 8.2417 Y 0.3727 Z -1.0000
G03 X 8.2135 Y 0.3785 Z -1.0000 I -0.0329 J -0.0892
G02 X 8.1779 Y 0.3805 Z -1.0000 I 0.1718 J 3.3650
G02 X 8.1127 Y 0.3847 Z -1.0000 I 0.7712 J 12.5039
G01 X 8.0608 Y 0.3808 Z -1.0000
G01 X 8.0636 Y 0.3735 Z -1.0000
G01 X 8.0564 Y 0.3658 Z -1.0000
G01 X 8.0439 Y 0.3664 Z -1.0000
G01 X 8.0388 Y 0.3747 Z -1.0000
G01 X 8.0266 Y 0.3915 Z -1.0000
G03 X 7.9849 Y 0.3922 Z -1.0000 I -0.0220 J -0.0679
G02 X 7.9522 Y 0.3877 Z -1.0000 I -0.0319 J 0.1119
G01 X 7.9437 Y 0.3925 Z -1.0000
G01 X 7.9351 Y 0.3988 Z -1.0000
G03 X 7.9018 Y 0.4027 Z -1.0000 I -0.0326 J -0.1354
G01 X 7.8831 Y 0.3974 Z -1.0000
G01 X 7.8830 Y 0.3912 Z -1.0000
G01 X 7.8719 Y 0.3861 Z -1.0000
G03 X 7.8438 Y 0.3905 Z -1.0000 I -0.0504 J -0.2266
G03 X 7.7705 Y 0.3959 Z -1.0000 I -0.1509 J -1.5635
G02 X 7.6979 Y 0.4025 Z -1.0000 I 0.0431 J 0.8712
G01 X 7.6840 Y 0.4075 Z -1.0000
G01 X 7.6703 Y 0.4113 Z -1.0000
G03 X 7.6351 Y 0.4071 Z -1.0000 I 0.0014 J -0.1611
G02 X 7.5737 Y 0.3998 Z -1.0000 I -0.0629 J 0.2675
G01 X 7.5520 Y 0.4067 Z -1.0000
G01 X 7.5380 Y 0.4096 Z -1.0000
G03 X 7.5091 Y 0.3975 Z -1.0000 I 0.0179 J -0.0835
G02 X 7.4808 Y 0.3864 Z -1.0000 I -0.0404 J 0.0616
G01 X 7.4678 Y 0.3906 Z -1.0000
G01 X 7.4400 Y 0.3996 Z -1.0000
G01 X 7.4267 Y 0.3839 Z -1.0000
G01 X 7.4218 Y 0.3797 Z -1.0000
G01 X 7.4102 Y 0.3867 Z -1.0000
G01 X 7.3941 Y 0.3971 Z -1.0000
G01 X 7.3837 Y 0.3930 Z -1.0000
G01 X 7.3720 Y 0.3849 Z -1.0000
G01 X 7.3584 Y 0.3871 Z -1.0000
G01 X 7.3424 Y 0.3931 Z -1.0000
G03 X 7.3154 Y 0.3942 Z -1.0000 I -0.0178 J -0.1074
G01 X 7.3112 Y 0.3981 Z -1.0000
G01 X 7.3154 Y 0.4046 Z -1.0000
G01 X 7.3262 Y 0.4156 Z -1.0000
G01 X 7.3229 Y 0.4222 Z -1.0000
G01 X 7.3042 Y 0.4212 Z -1.0000
G03 X 7.2806 Y 0.4070 Z -1.0000 I 0.0235 J -0.0660
G01 X 7.2577 Y 0.3962 Z -1.0000
G01 X 7.2371 Y 0.4005 Z -1.0000
G01 X 7.2160 Y 0.4052 Z -1.0000
G01 X 7.2112 Y 0.3972 Z -1.0000
G01 X 7.2114 Y 0.3848 Z -1.0000
G01 X 7.2053 Y 0.3806 Z -1.0000
G01 X 7.1968 Y 0.3844 Z -1.0000
G01 X 7.1930 Y 0.3945 Z -1.0000
G01 X 7.1865 Y 0.4019 Z -1.0000
G03 X 7.0946 Y 0.4084 Z -1.0000 I -0.0920 J -0.6510
G02 X 6.9983 Y 0.4145 Z -1.0000 I -0.0000 J 0.7614
G01 X 6.9782 Y 0.4232 Z -1.0000
G01 X 6.9599 Y 0.4323 Z -1.0000
G01 X 6.9475 Y 0.4302 Z -1.0000
G01 X 6.9434 Y 0.4223 Z -1.0000
G01 X 6.9484 Y 0.4138 Z -1.0000
G01 X 6.9556 Y 0.4038 Z -1.0000
G01 X 6.9536 Y 0.3915 Z -1.0000
G01 X 6.9453 Y 0.3881 Z -1.0000
G01 X 6.9350 Y 0.3958 Z -1.0000
G01 X 6.9151 Y 0.4080 Z -1.0000
G01 X 6.9037 Y 0.3970 Z -1.0000
G01 X 6.8977 Y 0.3911 Z -1.0000
G01 X 6.8779 Y 0.3970 Z -1.0000
G03 X 6.8501 Y 0.4078 Z -1.0000 I -0.0397 J -0.0605
G03 X 6.7471 Y 0.4188 Z -1.0000 I -0.1436 J -0.8618
G02 X 6.6424 Y 0.4258 Z -1.0000 I 0.1208 J 2.5831
G02 X 6.6073 Y 0.4311 Z -1.0000 I 0.0251 J 0.2872
G03 X 6.5733 Y 0.4332 Z -1.0000 I -0.0244 J -0.1150
G03 X 6.5496 Y 0.4262 Z -1.0000 I 0.0050 J -0.0600
G01 X 6.5285 Y 0.4208 Z -1.0000
G01 X 6.5193 Y 0.4258 Z -1.0000
G01 X 6.5101 Y 0.4324 Z -1.0000
G01 X 6.4949 Y 0.4312 Z -1.0000
G01 X 6.4788 Y 0.4298 Z -1.0000
G01 X 6.4627 Y 0.4374 Z -1.0000
G01 X 6.4515 Y 0.4412 Z -1.0000
G01 X 6.4474 Y 0.4370 Z -1.0000
G01 X 6.4436 Y 0.4306 Z -1.0000
G01 X 6.4362 Y 0.4308 Z -1.0000
G01 X 6.4331 Y 0.4386 Z -1.0000
G01 X 6.4432 Y 0.4560 Z -1.0000
G01 X 6.4520 Y 0.4720 Z -1.0000
G01 X 6.4482 Y 0.4787 Z -1.0000
G01 X 6.4364 Y 0.4780 Z -1.0000
G01 X 6.4216 Y 0.4664 Z -1.0000
G02 X 6.3764 Y 0.4386 Z -1.0000 I -0.0606 J 0.0478
G01 X 6.3515 Y 0.4522 Z -1.0000
G01 X 6.3424 Y 0.4661 Z -1.0000
G01 X 6.3335 Y 0.4697 Z -1.0000
G01 X 6.3302 Y 0.4659 Z -1.0000
G01 X 6.3353 Y 0.4540 Z -1.0000
G01 X 6.3404 Y 0.4395 Z -1.0000
G01 X 6.3351 Y 0.4301 Z -1.0000
G01 X 6.3233 Y 0.4298 Z -1.0000
G02 X 6.3013 Y 0.4486 Z -1.0000 I 0.0344 J 0.0626
G01 X 6.2811 Y 0.4630 Z -1.0000
G01 X 6.2702 Y 0.4592 Z -1.0000
G01 X 6.2568 Y 0.4514 Z -1.0000
G02 X 6.2179 Y 0.4560 Z -1.0000 I -0.0067 J 0.1098
G03 X 6.1773 Y 0.4628 Z -1.0000 I -0.0462 J -0.1512
G01 X 6.1628 Y 0.4578 Z -1.0000
G01 X 6.1519 Y 0.4559 Z -1.0000
G01 X 6.1425 Y 0.4650 Z -1.0000
G01 X 6.1314 Y 0.4760 Z -1.0000
G01 X 6.1078 Y 0.4780 Z -1.0000
G01 X 6.0872 Y 0.4813 Z -1.0000
G01 X 6.0801 Y 0.4934 Z -1.0000
G01 X 6.0760 Y 0.5099 Z -1.0000
G01 X 6.0690 Y 0.5141 Z -1.0000
G01 X 6.0611 Y 0.5108 Z -1.0000
G01 X 6.0579 Y 0.5030 Z -1.0000
G01 X 6.0536 Y 0.4961 Z -1.0000
G01 X 6.0356 Y 0.4918 Z -1.0000
G01 X 6.0173 Y 0.4879 Z -1.0000
G01 X 6.0134 Y 0.4817 Z -1.0000
G01 X 6.0012 Y 0.4726 Z -1.0000
G02 X 5.9336 Y 0.5047 Z -1.0000 I 0.0637 J 0.2208
G03 X 5.9024 Y 0.5218 Z -1.0000 I -0.0946 J -0.1359
G03 X 5.8668 Y 0.5324 Z -1.0000 I -0.0695 J -0.1675
G02 X 5.8309 Y 0.5421 Z -1.0000 I 0.0473 J 0.2473
G02 X 5.8160 Y 0.5503 Z -1.0000 I 0.0172 J 0.0493
G01 X 5.8046 Y 0.5522 Z -1.0000
G01 X 5.7953 Y 0.5432 Z -1.0000
G01 X 5.7859 Y 0.5288 Z -1.0000
G01 X 5.7773 Y 0.5252 Z -1.0000
G01 X 5.7720 Y 0.5292 Z -1.0000
G01 X 5.7726 Y 0.5419 Z -1.0000
G01 X 5.7703 Y 0.5527 Z -1.0000
G01 X 5.7563 Y 0.5586 Z -1.0000
G01 X 5.7431 Y 0.5517 Z -1.0000
G01 X 5.7407 Y 0.5364 Z -1.0000
G01 X 5.7336 Y 0.5243 Z -1.0000
G01 X 5.7195 Y 0.5320 Z -1.0000
G01 X 5.7086 Y 0.5421 Z -1.0000
G01 X 5.6839 Y 0.5426 Z -1.0000
G01 X 5.6580 Y 0.5447 Z -1.0000
G02 X 5.6284 Y 0.5665 Z -1.0000 I 0.0322 J 0.0750
G02 X 5.6043 Y 0.5986 Z -1.0000 I 0.2248 J 0.1933
G01 X 5.6016 Y 0.6078 Z -1.0000
G01 X 5.5988 Y 0.6113 Z -1.0000
G01 X 5.5933 Y 0.6097 Z -1.0000
G01 X 5.5869 Y 0.6005 Z -1.0000
G01 X 5.5849 Y 0.5911 Z -1.0000
G01 X 5.5766 Y 0.5848 Z -1.0000
G02 X 5.5432 Y 0.6026 Z -1.0000 I 0.0230 J 0.0838
G01 X 5.5322 Y 0.6291 Z -1.0000
G01 X 5.5460 Y 0.6366 Z -1.0000
G01 X 5.5608 Y 0.6370 Z -1.0000
G01 X 5.5680 Y 0.6501 Z -1.0000
G01 X 5.5633 Y 0.6598 Z -1.0000
G01 X 5.5571 Y 0.6588 Z -1.0000
G01 X 5.5495 Y 0.6532 Z -1.0000
G01 X 5.5461 Y 0.6557 Z -1.0000
G01 X 5.5404 Y 0.6625 Z -1.0000
G03 X 5.5098 Y 0.6624 Z -1.0000 I -0.0150 J -0.0815
G03 X 5.4798 Y 0.6462 Z -1.0000 I 0.0106 J -0.0557
G01 X 5.4792 Y 0.6309 Z -1.0000
G01 X 5.4882 Y 0.6139 Z -1.0000
G01 X 5.4863 Y 0.6065 Z -1.0000
G01 X 5.4735 Y 0.6096 Z -1.0000
G02 X 5.4649 Y 0.6735 Z -1.0000 I 0.1758 J 0.0561
G01 X 5.4581 Y 0.7162 Z -1.0000
G01 X 5.4499 Y 0.7125 Z -1.0000
G01 X 5.4422 Y 0.7188 Z -1.0000
G01 X 5.4314 Y 0.7287 Z -1.0000
G03 X 5.4033 Y 0.7298 Z -1.0000 I -0.0163 J -0.0577
G02 X 5.3757 Y 0.7317 Z -1.0000 I -0.0103 J 0.0519
G01 X 5.3633 Y 0.7437 Z -1.0000
G01 X 5.3615 Y 0.7612 Z -1.0000
G01 X 5.3672 Y 0.7679 Z -1.0000
G01 X 5.3718 Y 0.7811 Z -1.0000
G01 X 5.3512 Y 0.7922 Z -1.0000
G01 X 5.3364 Y 0.8059 Z -1.0000
G01 X 5.3484 Y 0.8258 Z -1.0000
G01 X 5.3317 Y 0.8298 Z -1.0000
G02 X 5.2948 Y 0.8289 Z -1.0000 I -0.0221 J 0.1397
G01 X 5.2900 Y 0.8342 Z -1.0000
G01 X 5.2687 Y 0.8558 Z -1.0000
G03 X 5.2177 Y 0.8350 Z -1.0000 I -0.0008 J -0.0709
G01 X 5.2100 Y 0.8328 Z -1.0000
G02 X 5.1769 Y 0.8449 Z -1.0000 I 0.0362 J 0.1507
G03 X 5.1418 Y 0.8567 Z -1.0000 I -0.0595 J -0.1191
G03 X 5.0789 Y 0.8632 Z -1.0000 I -0.0714 J -0.3832
G02 X 5.0230 Y 0.8702 Z -1.0000 I 0.0060 J 0.2745
G01 X 5.0194 Y 0.8769 Z -1.0000
G01 X 5.0166 Y 0.8843 Z -1.0000
G03 X 4.9929 Y 0.8907 Z -1.0000 I -0.0262 J -0.0504
G02 X 4.9618 Y 0.8930 Z -1.0000 I 0.0231 J 0.5198
G02 X 4.9116 Y 0.8991 Z -1.0000 I 0.1603 J 1.5319
G03 X 4.8436 Y 0.9058 Z -1.0000 I -0.1137 J -0.8058
G03 X 4.5944 Y 0.9169 Z -1.0000 I -0.6082 J -10.8279
G01 X 4.5249 Y 0.9236 Z -1.0000
G01 X 4.5405 Y 0.9306 Z -1.0000
G01 X 4.5444 Y 0.9384 Z -1.0000
G01 X 4.5400 Y 0.9435 Z -1.0000
G01 X 4.5213 Y 0.9421 Z -1.0000
G02 X 4.4984 Y 0.9399 Z -1.0000 I -0.0168 J 0.0533
G02 X 4.4656 Y 0.9483 Z -1.0000 I 0.0127 J 0.1173
G03 X 4.4342 Y 0.9545 Z -1.0000 I -0.0309 J -0.0745
G01 X 4.4164 Y 0.9480 Z -1.0000
G01 X 4.4038 Y 0.9428 Z -1.0000
G01 X 4.3997 Y 0.9466 Z -1.0000
G01 X 4.4031 Y 0.9556 Z -1.0000
G01 X 4.4108 Y 0.9591 Z -1.0000
G01 X 4.4186 Y 0.9624 Z -1.0000
G01 X 4.4219 Y 0.9707 Z -1.0000
G01 X 4.4176 Y 0.9772 Z -1.0000
G01 X 4.4025 Y 0.9790 Z -1.0000
G01 X 4.3891 Y 0.9817 Z -1.0000
G01 X 4.3858 Y 0.9896 Z -1.0000
G01 X 4.3824 Y 0.9985 Z -1.0000
G01 X 4.3675 Y 1.0035 Z -1.0000
G01 X 4.3498 Y 1.0085 Z -1.0000
G01 X 4.3400 Y 1.0202 Z -1.0000
G01 X 4.3312 Y 1.0334 Z -1.0000
G01 X 4.3221 Y 1.0369 Z -1.0000
G01 X 4.3080 Y 1.0220 Z -1.0000
G01 X 4.3240 Y 1.0009 Z -1.0000
G01 X 4.3280 Y 0.9954 Z -1.0000
G01 X 4.3240 Y 0.9882 Z -1.0000
G01 X 4.3145 Y 0.9868 Z -1.0000
G01 X 4.3107 Y 0.9917 Z -1.0000
G01 X 4.3068 Y 0.9997 Z -1.0000
G01 X 4.2959 Y 1.0035 Z -1.0000
G01 X 4.2879 Y 1.0095 Z -1.0000
G02 X 4.2855 Y 1.0397 Z -1.0000 I 0.0732 J 0.0210
G01 X 4.2799 Y 1.0521 Z -1.0000
G01 X 4.2695 Y 1.0506 Z -1.0000
G01 X 4.2489 Y 1.0396 Z -1.0000
G01 X 4.2307 Y 1.0469 Z -1.0000
G02 X 4.2173 Y 1.0682 Z -1.0000 I 0.0649 J 0.0556
G01 X 4.2186 Y 1.0747 Z -1.0000
G01 X 4.2200 Y 1.0811 Z -1.0000
G03 X 4.2097 Y 1.0991 Z -1.0000 I -0.0570 J -0.0207
G01 X 4.2060 Y 1.1162 Z -1.0000
G01 X 4.2204 Y 1.1383 Z -1.0000
G01 X 4.2220 Y 1.1526 Z -1.0000
G01 X 4.2030 Y 1.1604 Z -1.0000
G01 X 4.1916 Y 1.1622 Z -1.0000
G01 X 4.1829 Y 1.1702 Z -1.0000
G01 X 4.1845 Y 1.1767 Z -1.0000
G01 X 4.2032 Y 1.1816 Z -1.0000
G01 X 4.2209 Y 1.1891 Z -1.0000
G01 X 4.2248 Y 1.2040 Z -1.0000
G01 X 4.2275 Y 1.2169 Z -1.0000
G01 X 4.2370 Y 1.2195 Z -1.0000
G01 X 4.2508 Y 1.2187 Z -1.0000
G01 X 4.2550 Y 1.2241 Z -1.0000
G01 X 4.2507 Y 1.2319 Z -1.0000
G03 X 4.2300 Y 1.2395 Z -1.0000 I -0.0290 J -0.0471
G01 X 4.2113 Y 1.2477 Z -1.0000
G01 X 4.2078 Y 1.2572 Z -1.0000
G01 X 4.1965 Y 1.2759 Z -1.0000
G03 X 4.1568 Y 1.2716 Z -1.0000 I -0.0145 J -0.0513
G01 X 4.1446 Y 1.2724 Z -1.0000
G01 X 4.1408 Y 1.2828 Z -1.0000
G02 X 4.1503 Y 1.3028 Z -1.0000 I 0.0570 J -0.0149
G01 X 4.1619 Y 1.3116 Z -1.0000
G01 X 4.1712 Y 1.3194 Z -1.0000
G01 X 4.1711 Y 1.3269 Z -1.0000
G01 X 4.1637 Y 1.3318 Z -1.0000
G01 X 4.1489 Y 1.3301 Z -1.0000
G01 X 4.1369 Y 1.3301 Z -1.0000
G01 X 4.1326 Y 1.3362 Z -1.0000
G01 X 4.1279 Y 1.3440 Z -1.0000
G01 X 4.1076 Y 1.3493 Z -1.0000
G01 X 4.1017 Y 1.3534 Z -1.0000
G01 X 4.1040 Y 1.3585 Z -1.0000
G01 X 4.1108 Y 1.3669 Z -1.0000
G01 X 4.1067 Y 1.3741 Z -1.0000
G01 X 4.0861 Y 1.3993 Z -1.0000
G01 X 4.0996 Y 1.4153 Z -1.0000
G01 X 4.1038 Y 1.4197 Z -1.0000
G01 X 4.0987 Y 1.4385 Z -1.0000
G01 X 4.0949 Y 1.4606 Z -1.0000
G01 X 4.1054 Y 1.4828 Z -1.0000
G02 X 4.1252 Y 1.4985 Z -1.0000 I 0.0578 J -0.0523
G01 X 4.1333 Y 1.4983 Z -1.0000
G01 X 4.1481 Y 1.5049 Z -1.0000
G01 X 4.1397 Y 1.5323 Z -1.0000
G01 X 4.1111 Y 1.5441 Z -1.0000
G01 X 4.0992 Y 1.5322 Z -1.0000
G01 X 4.0953 Y 1.5194 Z -1.0000
G01 X 4.0881 Y 1.5155 Z -1.0000
G01 X 4.0801 Y 1.5186 Z -1.0000
G01 X 4.0769 Y 1.5258 Z -1.0000
G01 X 4.0733 Y 1.5333 Z -1.0000
G01 X 4.0575 Y 1.5412 Z -1.0000
G01 X 4.0668 Y 1.5476 Z -1.0000
G01 X 4.0909 Y 1.5559 Z -1.0000
G03 X 4.1086 Y 1.5773 Z -1.0000 I -0.0309 J 0.0435
G01 X 4.1079 Y 1.5998 Z -1.0000
G01 X 4.0870 Y 1.6177 Z -1.0000
G02 X 4.0649 Y 1.6311 Z -1.0000 I 0.0206 J 0.0590
G01 X 4.0656 Y 1.6378 Z -1.0000
G01 X 4.0731 Y 1.6485 Z -1.0000
G03 X 4.0750 Y 1.6828 Z -1.0000 I -0.1114 J 0.0233
G01 X 4.0602 Y 1.7102 Z -1.0000
G03 X 4.0102 Y 1.7353 Z -1.0000 I -0.0819 J -0.1012
G03 X 3.9487 Y 1.7488 Z -1.0000 I -0.2475 J -0.9800
G03 X 3.9267 Y 1.7509 Z -1.0000 I -0.0231 J -0.1236
G02 X 3.8345 Y 1.7653 Z -1.0000 I 0.0030 J 0.3227
G01 X 3.8210 Y 1.7836 Z -1.0000
G01 X 3.8168 Y 1.8006 Z -1.0000
G01 X 3.8099 Y 1.8048 Z -1.0000
G01 X 3.8026 Y 1.8087 Z -1.0000
G01 X 3.7987 Y 1.8215 Z -1.0000
G01 X 3.8026 Y 1.8344 Z -1.0000
G01 X 3.8099 Y 1.8382 Z -1.0000
G01 X 3.8171 Y 1.8343 Z -1.0000
G01 X 3.8210 Y 1.8215 Z -1.0000
G01 X 3.8249 Y 1.8087 Z -1.0000
G01 X 3.8321 Y 1.8048 Z -1.0000
G01 X 3.8390 Y 1.8091 Z -1.0000
G01 X 3.8432 Y 1.8271 Z -1.0000
G01 X 3.8390 Y 1.8451 Z -1.0000
G01 X 3.8321 Y 1.8494 Z -1.0000
G01 X 3.8252 Y 1.8536 Z -1.0000
G01 X 3.8210 Y 1.8716 Z -1.0000
G01 X 3.8160 Y 1.8891 Z -1.0000
G01 X 3.8071 Y 1.8942 Z -1.0000
G01 X 3.8046 Y 1.8983 Z -1.0000
G01 X 3.8154 Y 1.9118 Z -1.0000
G01 X 3.8182 Y 1.9216 Z -1.0000
G01 X 3.8099 Y 1.9269 Z -1.0000
G02 X 3.7615 Y 1.9305 Z -1.0000 I -0.0123 J 0.1626
G01 X 3.7542 Y 1.9396 Z -1.0000
G01 X 3.7584 Y 1.9458 Z -1.0000
G01 X 3.7700 Y 1.9459 Z -1.0000
G01 X 3.7830 Y 1.9460 Z -1.0000
G01 X 3.7914 Y 1.9544 Z -1.0000
G01 X 3.8005 Y 1.9645 Z -1.0000
G02 X 3.8301 Y 1.9738 Z -1.0000 I 0.0437 J -0.0868
G02 X 3.8545 Y 1.9717 Z -1.0000 I 0.0077 J -0.0532
G01 X 3.8578 Y 1.9647 Z -1.0000
G01 X 3.8613 Y 1.9595 Z -1.0000
G03 X 3.8880 Y 1.9641 Z -1.0000 I 0.0016 J 0.0713
G03 X 3.9070 Y 1.9760 Z -1.0000 I -0.0197 J 0.0525
G01 X 3.9056 Y 1.9810 Z -1.0000
G01 X 3.8937 Y 1.9894 Z -1.0000
G01 X 3.8878 Y 2.0116 Z -1.0000
G03 X 3.8833 Y 2.0341 Z -1.0000 I -0.0592 J 0.0000
G01 X 3.8766 Y 2.0386 Z -1.0000
G01 X 3.8694 Y 2.0347 Z -1.0000
G01 X 3.8655 Y 2.0219 Z -1.0000
G01 X 3.8463 Y 2.0012 Z -1.0000
G02 X 3.7876 Y 2.0163 Z -1.0000 I -0.0068 J 0.0955
G01 X 3.7865 Y 2.0225 Z -1.0000
G01 X 3.7960 Y 2.0272 Z -1.0000
G01 X 3.8111 Y 2.0391 Z -1.0000
G01 X 3.8060 Y 2.0659 Z -1.0000
G01 X 3.7803 Y 2.0758 Z -1.0000
G01 X 3.7653 Y 2.0573 Z -1.0000
G01 X 3.7600 Y 2.0494 Z -1.0000
G02 X 3.7320 Y 2.0441 Z -1.0000 I -0.0280 J 0.0706
G02 X 3.7033 Y 2.0488 Z -1.0000 I 0.0000 J 0.0893
G01 X 3.6986 Y 2.0554 Z -1.0000
G03 X 3.6667 Y 2.1045 Z -1.0000 I -0.0539 J 0.0000
G03 X 3.5990 Y 2.1001 Z -1.0000 I -0.0297 J -0.0661
G01 X 3.5932 Y 2.1017 Z -1.0000
G02 X 3.5850 Y 2.1272 Z -1.0000 I 0.0720 J 0.0373
G01 X 3.5987 Y 2.1566 Z -1.0000
G01 X 3.6389 Y 2.1603 Z -1.0000
G03 X 3.7518 Y 2.1330 Z -1.0000 I 0.1648 J 0.4335
G01 X 3.7834 Y 2.1441 Z -1.0000
G01 X 3.8100 Y 2.1551 Z -1.0000
G01 X 3.8210 Y 2.1442 Z -1.0000
G01 X 3.8266 Y 2.1331 Z -1.0000
G01 X 3.8432 Y 2.1276 Z -1.0000
G01 X 3.8542 Y 2.1385 Z -1.0000
G01 X 3.8432 Y 2.1584 Z -1.0000
G01 X 3.8304 Y 2.1815 Z -1.0000
G01 X 3.8432 Y 2.1943 Z -1.0000
G01 X 3.8613 Y 2.1986 Z -1.0000
G01 X 3.8655 Y 2.2055 Z -1.0000
G01 X 3.8613 Y 2.2124 Z -1.0000
G01 X 3.8439 Y 2.2166 Z -1.0000
G03 X 3.8244 Y 2.2129 Z -1.0000 I 0.0000 J -0.0537
G01 X 3.8154 Y 2.2055 Z -1.0000
G01 X 3.8067 Y 2.1976 Z -1.0000
G01 X 3.7925 Y 2.1943 Z -1.0000
G01 X 3.7803 Y 2.1981 Z -1.0000
G01 X 3.7765 Y 2.2055 Z -1.0000
G01 X 3.7807 Y 2.2123 Z -1.0000
G01 X 3.7987 Y 2.2166 Z -1.0000
G01 X 3.8167 Y 2.2208 Z -1.0000
G01 X 3.8210 Y 2.2277 Z -1.0000
G01 X 3.8168 Y 2.2346 Z -1.0000
G01 X 3.7987 Y 2.2388 Z -1.0000
G01 X 3.7805 Y 2.2428 Z -1.0000
G01 X 3.7765 Y 2.2489 Z -1.0000
G01 X 3.7803 Y 2.2543 Z -1.0000
G01 X 3.7960 Y 2.2551 Z -1.0000
G03 X 3.8957 Y 2.2434 Z -1.0000 I 0.1244 J 0.6277
G01 X 3.8983 Y 2.2512 Z -1.0000
G01 X 3.8983 Y 2.2561 Z -1.0000
G01 X 3.9091 Y 2.2588 Z -1.0000
G01 X 3.9328 Y 2.2396 Z -1.0000
G01 X 3.9223 Y 2.2201 Z -1.0000
G01 X 3.9195 Y 2.2068 Z -1.0000
G01 X 3.9518 Y 2.1966 Z -1.0000
G02 X 3.9908 Y 2.1862 Z -1.0000 I 0.0040 J -0.0637
G01 X 4.0018 Y 2.1638 Z -1.0000
G03 X 4.0061 Y 2.1342 Z -1.0000 I 0.0675 J -0.0053
G01 X 4.0157 Y 2.1276 Z -1.0000
G01 X 4.0277 Y 2.1323 Z -1.0000
G01 X 4.0324 Y 2.1432 Z -1.0000
G01 X 4.0376 Y 2.1528 Z -1.0000
G01 X 4.0519 Y 2.1560 Z -1.0000
G01 X 4.0575 Y 2.1579 Z -1.0000
G01 X 4.0485 Y 2.1662 Z -1.0000
G02 X 4.0436 Y 2.1904 Z -1.0000 I 0.0567 J 0.0242
G03 X 4.0405 Y 2.2174 Z -1.0000 I -0.1205 J 0.0000
G03 X 4.0324 Y 2.2390 Z -1.0000 I -0.0849 J -0.0195
G01 X 4.0271 Y 2.2583 Z -1.0000
G01 X 4.0311 Y 2.2659 Z -1.0000
G01 X 4.0386 Y 2.2648 Z -1.0000
G02 X 4.0551 Y 2.2378 Z -1.0000 I -0.0770 J -0.0657
G03 X 4.0740 Y 2.2085 Z -1.0000 I 0.0908 J 0.0376
G03 X 4.0966 Y 2.1933 Z -1.0000 I 0.0440 J 0.0409
G01 X 4.1152 Y 2.1784 Z -1.0000
G01 X 4.1182 Y 2.1608 Z -1.0000
G01 X 4.1241 Y 2.1493 Z -1.0000
G01 X 4.1450 Y 2.1506 Z -1.0000
G02 X 4.2053 Y 2.1517 Z -1.0000 I 0.0313 J -0.0585
G01 X 4.2327 Y 2.1079 Z -1.0000
G02 X 4.2279 Y 2.0861 Z -1.0000 I -0.0511 J 0.0000
G01 X 4.2188 Y 2.0784 Z -1.0000
G03 X 4.2050 Y 2.0743 Z -1.0000 I 0.2313 J -0.8041
G03 X 4.1660 Y 2.0623 Z -1.0000 I 10.7869 J -35.2035
G01 X 4.1645 Y 2.0586 Z -1.0000
G01 X 4.1695 Y 2.0562 Z -1.0000
G03 X 4.2117 Y 2.0635 Z -1.0000 I -0.0956 J 0.6773
G03 X 4.2280 Y 2.0683 Z -1.0000 I -0.0208 J 0.1012
G01 X 4.2382 Y 2.0663 Z -1.0000
G01 X 4.2435 Y 2.0537 Z -1.0000
G02 X 4.2295 Y 2.0074 Z -1.0000 I -0.0884 J 0.0015
G01 X 4.2051 Y 1.9941 Z -1.0000
G01 X 4.2107 Y 2.0110 Z -1.0000
G01 X 4.2074 Y 2.0280 Z -1.0000
G01 X 4.1750 Y 2.0301 Z -1.0000
G02 X 4.1408 Y 2.0209 Z -1.0000 I -0.0633 J 0.1673
G01 X 4.1311 Y 2.0228 Z -1.0000
G01 X 4.1282 Y 2.0116 Z -1.0000
G01 X 4.1387 Y 1.9994 Z -1.0000
G03 X 4.1698 Y 1.9878 Z -1.0000 I 0.0506 J 0.0883
G02 X 4.2006 Y 1.9745 Z -1.0000 I -0.0151 J -0.0771
G02 X 4.2272 Y 1.9465 Z -1.0000 I -0.0607 J -0.0845
G03 X 4.2654 Y 1.9091 Z -1.0000 I 0.1018 J 0.0658
G01 X 4.2773 Y 1.9157 Z -1.0000
G01 X 4.2736 Y 1.9267 Z -1.0000
G03 X 4.2469 Y 1.9565 Z -1.0000 I -0.1755 J -0.1307
G01 X 4.2416 Y 1.9712 Z -1.0000
G01 X 4.2497 Y 1.9767 Z -1.0000
G02 X 4.2817 Y 1.9664 Z -1.0000 I -0.0547 J -0.2268
G02 X 4.2967 Y 1.9578 Z -1.0000 I -0.0226 J -0.0564
G01 X 4.3053 Y 1.9579 Z -1.0000
G01 X 4.3106 Y 1.9695 Z -1.0000
G01 X 4.3357 Y 1.9869 Z -1.0000
G02 X 4.3890 Y 1.9405 Z -1.0000 I -0.0345 J -0.0935
G01 X 4.4059 Y 1.9236 Z -1.0000
G01 X 4.4140 Y 1.9271 Z -1.0000
G01 X 4.4149 Y 1.9475 Z -1.0000
G01 X 4.4092 Y 1.9561 Z -1.0000
G01 X 4.4055 Y 1.9638 Z -1.0000
G01 X 4.4116 Y 1.9783 Z -1.0000
G01 X 4.4161 Y 1.9900 Z -1.0000
G01 X 4.4122 Y 1.9940 Z -1.0000
G01 X 4.4045 Y 1.9989 Z -1.0000
G02 X 4.3997 Y 2.0211 Z -1.0000 I 0.0479 J 0.0222
G03 X 4.3950 Y 2.0462 Z -1.0000 I -0.0702 J -0.0000
G03 X 4.3829 Y 2.0649 Z -1.0000 I -0.0499 J -0.0191
G01 X 4.3835 Y 2.0832 Z -1.0000
G01 X 4.4103 Y 2.0888 Z -1.0000
G01 X 4.4243 Y 2.0783 Z -1.0000
G01 X 4.4257 Y 2.0658 Z -1.0000
G01 X 4.4386 Y 2.0442 Z -1.0000
G01 X 4.4714 Y 2.0598 Z -1.0000
G01 X 4.4795 Y 2.0650 Z -1.0000
G02 X 4.5015 Y 2.0636 Z -1.0000 I 0.0074 J -0.0562
G01 X 4.5152 Y 2.0682 Z -1.0000
G01 X 4.5197 Y 2.0869 Z -1.0000
G01 X 4.5282 Y 2.1009 Z -1.0000
G01 X 4.5443 Y 2.0942 Z -1.0000
G01 X 4.5658 Y 2.0792 Z -1.0000
G01 X 4.5777 Y 2.0896 Z -1.0000
G01 X 4.5903 Y 2.1005 Z -1.0000
G01 X 4.6086 Y 2.0852 Z -1.0000
G01 X 4.6065 Y 2.0766 Z -1.0000
G01 X 4.5954 Y 2.0720 Z -1.0000
G01 X 4.5828 Y 2.0600 Z -1.0000
G01 X 4.5936 Y 2.0322 Z -1.0000
G01 X 4.6198 Y 2.0259 Z -1.0000
G01 X 4.6307 Y 2.0441 Z -1.0000
G01 X 4.6362 Y 2.0630 Z -1.0000
G01 X 4.6572 Y 2.0720 Z -1.0000
G03 X 4.6844 Y 2.0766 Z -1.0000 I -0.0000 J 0.0826
G01 X 4.6890 Y 2.0831 Z -1.0000
G01 X 4.6858 Y 2.0910 Z -1.0000
G01 X 4.6779 Y 2.0942 Z -1.0000
G01 X 4.6700 Y 2.0975 Z -1.0000
G01 X 4.6668 Y 2.1054 Z -1.0000
G01 X 4.6706 Y 2.1126 Z -1.0000
G01 X 4.6835 Y 2.1165 Z -1.0000
G01 X 4.6953 Y 2.1116 Z -1.0000
G01 X 4.7002 Y 2.0998 Z -1.0000
G01 X 4.7040 Y 2.0870 Z -1.0000
G01 X 4.7113 Y 2.0831 Z -1.0000
G01 X 4.7254 Y 2.1031 Z -1.0000
G03 X 4.6918 Y 2.1379 Z -1.0000 I -0.0553 J -0.0196
G01 X 4.6862 Y 2.1454 Z -1.0000
G03 X 4.7093 Y 2.1453 Z -1.0000 I 0.0119 J 0.0631
G01 X 4.7175 Y 2.1508 Z -1.0000
G01 X 4.7339 Y 2.1555 Z -1.0000
G01 X 4.7414 Y 2.1387 Z -1.0000
G03 X 4.7404 Y 2.1183 Z -1.0000 I 0.0491 J -0.0128
G01 X 4.7457 Y 2.1102 Z -1.0000
G01 X 4.7514 Y 2.1119 Z -1.0000
G01 X 4.7558 Y 2.1325 Z -1.0000
G01 X 4.7631 Y 2.1536 Z -1.0000
G01 X 4.7781 Y 2.1609 Z -1.0000
G01 X 4.7949 Y 2.1555 Z -1.0000
G01 X 4.8003 Y 2.1449 Z -1.0000
G01 X 4.8133 Y 2.1271 Z -1.0000
G01 X 4.8376 Y 2.1330 Z -1.0000
G02 X 4.8676 Y 2.1480 Z -1.0000 I 0.0373 J -0.0373
G01 X 4.8782 Y 2.1387 Z -1.0000
G01 X 4.8743 Y 2.1315 Z -1.0000
G01 X 4.8615 Y 2.1276 Z -1.0000
G01 X 4.8489 Y 2.1234 Z -1.0000
G01 X 4.8448 Y 2.1152 Z -1.0000
G01 X 4.8499 Y 2.1094 Z -1.0000
G03 X 4.8754 Y 2.1105 Z -1.0000 I 0.0098 J 0.0639
G01 X 4.9011 Y 2.1275 Z -1.0000
G01 X 4.9007 Y 2.1440 Z -1.0000
G01 X 4.8980 Y 2.1556 Z -1.0000
G01 X 4.9047 Y 2.1609 Z -1.0000
G01 X 4.9188 Y 2.1649 Z -1.0000
G01 X 4.9227 Y 2.1719 Z -1.0000
G01 X 4.9266 Y 2.1747 Z -1.0000
G02 X 4.9442 Y 2.1645 Z -1.0000 I -0.0181 J -0.0519
G01 X 4.9508 Y 2.1465 Z -1.0000
G01 X 4.9377 Y 2.1241 Z -1.0000
G01 X 4.9372 Y 2.1011 Z -1.0000
G03 X 4.9839 Y 2.0845 Z -1.0000 I 0.0450 J 0.0524
G01 X 4.9951 Y 2.0929 Z -1.0000
G01 X 4.9912 Y 2.1045 Z -1.0000
G02 X 5.0201 Y 2.1215 Z -1.0000 I 0.0400 J -0.0350
G02 X 5.0485 Y 2.1197 Z -1.0000 I 0.0110 J -0.0516
G01 X 5.0561 Y 2.1089 Z -1.0000
G02 X 5.0468 Y 2.0789 Z -1.0000 I -0.0542 J 0.0005
G02 X 5.0173 Y 2.0518 Z -1.0000 I -0.0729 J 0.0495
G01 X 5.0138 Y 2.0439 Z -1.0000
G01 X 5.0201 Y 2.0388 Z -1.0000
G03 X 5.0539 Y 2.0460 Z -1.0000 I 0.0010 J 0.0777
G01 X 5.0604 Y 2.0575 Z -1.0000
G01 X 5.0804 Y 2.0890 Z -1.0000
G02 X 5.1492 Y 2.0877 Z -1.0000 I 0.0325 J -0.0958
G01 X 5.1620 Y 2.0887 Z -1.0000
G01 X 5.1676 Y 2.0985 Z -1.0000
G01 X 5.1606 Y 2.1094 Z -1.0000
G03 X 5.1286 Y 2.1164 Z -1.0000 I -0.0320 J -0.0696
G01 X 5.1111 Y 2.1294 Z -1.0000
G01 X 5.1203 Y 2.1447 Z -1.0000
G03 X 5.1505 Y 2.1525 Z -1.0000 I -0.0813 J 0.3801
G03 X 5.1759 Y 2.1614 Z -1.0000 I -0.0828 J 0.2766
G01 X 5.1928 Y 2.1594 Z -1.0000
G01 X 5.2009 Y 2.1433 Z -1.0000
G01 X 5.2060 Y 2.1241 Z -1.0000
G01 X 5.2128 Y 2.1224 Z -1.0000
G01 X 5.2195 Y 2.1315 Z -1.0000
G01 X 5.2187 Y 2.1453 Z -1.0000
G01 X 5.2186 Y 2.1569 Z -1.0000
G01 X 5.2243 Y 2.1609 Z -1.0000
G01 X 5.2550 Y 2.1481 Z -1.0000
G01 X 5.2677 Y 2.1172 Z -1.0000
G01 X 5.2713 Y 2.1088 Z -1.0000
G01 X 5.2800 Y 2.1052 Z -1.0000
G01 X 5.2861 Y 2.1096 Z -1.0000
G01 X 5.2858 Y 2.1224 Z -1.0000
G01 X 5.2967 Y 2.1434 Z -1.0000
G01 X 5.3330 Y 2.1344 Z -1.0000
G01 X 5.3660 Y 2.1221 Z -1.0000
G01 X 5.3790 Y 2.1354 Z -1.0000
G01 X 5.3851 Y 2.1389 Z -1.0000
G02 X 5.4179 Y 2.1131 Z -1.0000 I -0.0700 J -0.1226
G03 X 5.4590 Y 2.0768 Z -1.0000 I 0.2189 J 0.2065
G01 X 5.4743 Y 2.0718 Z -1.0000
G01 X 5.4775 Y 2.0774 Z -1.0000
G03 X 5.4551 Y 2.1052 Z -1.0000 I -0.1004 J -0.0576
G01 X 5.4299 Y 2.1386 Z -1.0000
G01 X 5.4403 Y 2.1360 Z -1.0000
G02 X 5.4554 Y 2.1247 Z -1.0000 I -0.0332 J -0.0606
G01 X 5.4688 Y 2.1203 Z -1.0000
G01 X 5.4827 Y 2.1284 Z -1.0000
G02 X 5.4983 Y 2.1423 Z -1.0000 I 0.0416 J -0.0310
G02 X 5.5265 Y 2.1537 Z -1.0000 I 0.0544 J -0.0944
G03 X 5.5509 Y 2.1663 Z -1.0000 I -0.0144 J 0.0579
G01 X 5.5578 Y 2.1806 Z -1.0000
G01 X 5.5614 Y 2.1832 Z -1.0000
G01 X 5.5670 Y 2.1784 Z -1.0000
G01 X 5.5754 Y 2.1721 Z -1.0000
G01 X 5.5831 Y 2.1770 Z -1.0000
G01 X 5.5853 Y 2.1961 Z -1.0000
G01 X 5.5781 Y 2.2123 Z -1.0000
G01 X 5.5813 Y 2.2186 Z -1.0000
G02 X 5.6169 Y 2.2107 Z -1.0000 I -0.0043 J -0.1032
G02 X 5.6513 Y 2.1899 Z -1.0000 I -0.0531 J -0.1266
G01 X 5.6572 Y 2.1773 Z -1.0000
G01 X 5.6700 Y 2.1654 Z -1.0000
G01 X 5.6974 Y 2.1802 Z -1.0000
G01 X 5.7058 Y 2.1806 Z -1.0000
G01 X 5.7125 Y 2.1635 Z -1.0000
G01 X 5.7260 Y 2.1388 Z -1.0000
G01 X 5.7422 Y 2.1441 Z -1.0000
G01 X 5.7509 Y 2.1575 Z -1.0000
G01 X 5.7586 Y 2.1608 Z -1.0000
G01 X 5.7649 Y 2.1572 Z -1.0000
G01 X 5.7685 Y 2.1441 Z -1.0000
G01 X 5.7727 Y 2.1315 Z -1.0000
G01 X 5.7809 Y 2.1274 Z -1.0000
G01 X 5.7876 Y 2.1319 Z -1.0000
G01 X 5.7886 Y 2.1468 Z -1.0000
G01 X 5.7897 Y 2.1646 Z -1.0000
G02 X 5.8030 Y 2.1847 Z -1.0000 I 0.0515 J -0.0195
G01 X 5.8234 Y 2.1936 Z -1.0000
G02 X 5.8530 Y 2.1871 Z -1.0000 I 0.0028 J -0.0581
G03 X 5.8970 Y 2.1817 Z -1.0000 I 0.0294 J 0.0567
G01 X 5.9028 Y 2.1989 Z -1.0000
G01 X 5.8971 Y 2.2133 Z -1.0000
G01 X 5.9015 Y 2.2216 Z -1.0000
G01 X 5.9088 Y 2.2211 Z -1.0000
G01 X 5.9132 Y 2.2115 Z -1.0000
G01 X 5.9239 Y 2.1981 Z -1.0000
G01 X 5.9410 Y 2.2053 Z -1.0000
G01 X 5.9505 Y 2.2117 Z -1.0000
G02 X 6.0029 Y 2.2164 Z -1.0000 I 0.0524 J -0.2903
G03 X 6.0511 Y 2.2232 Z -1.0000 I 0.0000 J 0.1748
G01 X 6.0579 Y 2.2322 Z -1.0000
G01 X 6.0539 Y 2.2452 Z -1.0000
G01 X 6.0440 Y 2.2529 Z -1.0000
G01 X 6.0371 Y 2.2596 Z -1.0000
G01 X 6.0386 Y 2.2670 Z -1.0000
G01 X 6.0472 Y 2.2702 Z -1.0000
G01 X 6.0586 Y 2.2646 Z -1.0000
G01 X 6.0720 Y 2.2584 Z -1.0000
G03 X 6.1268 Y 2.2586 Z -1.0000 I 0.0259 J 0.2973
G02 X 6.1720 Y 2.2569 Z -1.0000 I 0.0162 J -0.1675
G01 X 6.1750 Y 2.2502 Z -1.0000
G01 X 6.1928 Y 2.2510 Z -1.0000
G01 X 6.2033 Y 2.2631 Z -1.0000
G01 X 6.1998 Y 2.2696 Z -1.0000
G01 X 6.1941 Y 2.2826 Z -1.0000
G01 X 6.2149 Y 2.2943 Z -1.0000
G03 X 6.2401 Y 2.3007 Z -1.0000 I 0.0000 J 0.0526
G01 X 6.2434 Y 2.3099 Z -1.0000
G01 X 6.2450 Y 2.3216 Z -1.0000
G01 X 6.2590 Y 2.3311 Z -1.0000
G01 X 6.2750 Y 2.3297 Z -1.0000
G01 X 6.2804 Y 2.3211 Z -1.0000
G01 X 6.2845 Y 2.3095 Z -1.0000
G01 X 6.2928 Y 2.3054 Z -1.0000
G01 X 6.2988 Y 2.3097 Z -1.0000
G01 X 6.2987 Y 2.3221 Z -1.0000
G01 X 6.3006 Y 2.3331 Z -1.0000
G01 X 6.3129 Y 2.3388 Z -1.0000
G01 X 6.3281 Y 2.3339 Z -1.0000
G01 X 6.3321 Y 2.3249 Z -1.0000
G01 X 6.3344 Y 2.3137 Z -1.0000
G01 X 6.3416 Y 2.3083 Z -1.0000
G01 X 6.3486 Y 2.3109 Z -1.0000
G01 X 6.3528 Y 2.3238 Z -1.0000
G01 X 6.3586 Y 2.3379 Z -1.0000
G02 X 6.3804 Y 2.3520 Z -1.0000 I 0.0422 J -0.0413
G01 X 6.3969 Y 2.3635 Z -1.0000
G01 X 6.3960 Y 2.3700 Z -1.0000
G01 X 6.3870 Y 2.3798 Z -1.0000
G02 X 6.3780 Y 2.4022 Z -1.0000 I 0.0804 J 0.0450
G01 X 6.3809 Y 2.4209 Z -1.0000
G01 X 6.3957 Y 2.4313 Z -1.0000
G01 X 6.3867 Y 2.4375 Z -1.0000
G01 X 6.3670 Y 2.4441 Z -1.0000
G01 X 6.3664 Y 2.4515 Z -1.0000
G01 X 6.3719 Y 2.4852 Z -1.0000
G03 X 6.3293 Y 2.5266 Z -1.0000 I -0.0793 J -0.0392
G02 X 6.3067 Y 2.5412 Z -1.0000 I 0.0385 J 0.0841
G01 X 6.3027 Y 2.5501 Z -1.0000
G01 X 6.2990 Y 2.5578 Z -1.0000
G01 X 6.2887 Y 2.5614 Z -1.0000
G01 X 6.2769 Y 2.5655 Z -1.0000
G02 X 6.2608 Y 2.5837 Z -1.0000 I 0.0449 J 0.0563
G03 X 6.2449 Y 2.6024 Z -1.0000 I -0.0722 J -0.0451
G01 X 6.2355 Y 2.6059 Z -1.0000
G02 X 6.1590 Y 2.6382 Z -1.0000 I 0.0000 J 0.1068
G02 X 6.1248 Y 2.7195 Z -1.0000 I 0.0863 J 0.0842
G01 X 6.1222 Y 2.7263 Z -1.0000
G03 X 6.0495 Y 2.8056 Z -1.0000 I -1.7630 J -1.5413
G02 X 5.9161 Y 2.9517 Z -1.0000 I 2.9773 J 2.8542
G02 X 5.8875 Y 2.9917 Z -1.0000 I 0.1916 J 0.1668
G03 X 5.8450 Y 3.0573 Z -1.0000 I -0.6424 J -0.3702
G03 X 5.8099 Y 3.0986 Z -1.0000 I -0.2880 J -0.2092
G02 X 5.7688 Y 3.1506 Z -1.0000 I 0.2102 J 0.2082
G02 X 5.6906 Y 3.2904 Z -1.0000 I 1.4678 J 0.9128
G03 X 5.6616 Y 3.3451 Z -1.0000 I -1.2081 J -0.6041
G01 X 5.6564 Y 3.3516 Z -1.0000
G01 X 5.6518 Y 3.3583 Z -1.0000
G02 X 5.6348 Y 3.4128 Z -1.0000 I 0.7386 J 0.2616
G03 X 5.6175 Y 3.4676 Z -1.0000 I -0.7456 J -0.2044
G03 X 5.6050 Y 3.4962 Z -1.0000 I -0.2143 J -0.0763
G02 X 5.5928 Y 3.5246 Z -1.0000 I 0.1941 J 0.1008
G01 X 5.5905 Y 3.5376 Z -1.0000
G03 X 5.5814 Y 3.5946 Z -1.0000 I -0.1889 J -0.0010
G03 X 5.5456 Y 3.6769 Z -1.0000 I -0.4349 J -0.1403
G02 X 5.5371 Y 3.6969 Z -1.0000 I 0.0881 J 0.0491
G02 X 5.5348 Y 3.7125 Z -1.0000 I 0.0519 J 0.0157
G03 X 5.5327 Y 3.7286 Z -1.0000 I -0.0611 J 0.0000
G03 X 5.5007 Y 3.8379 Z -1.0000 I -2.9481 J -0.8020
G02 X 5.4145 Y 4.1344 Z -1.0000 I 7.4413 J 2.3255
G02 X 5.4029 Y 4.2008 Z -1.0000 I 0.3589 J 0.0967
G01 X 5.3973 Y 4.2131 Z -1.0000
G01 X 5.3901 Y 4.2140 Z -1.0000
G01 X 5.3841 Y 4.2163 Z -1.0000
G02 X 5.3790 Y 4.2513 Z -1.0000 I 0.1169 J 0.0350
G03 X 5.3743 Y 4.2948 Z -1.0000 I -0.2046 J 0.0000
G03 X 5.3359 Y 4.4495 Z -1.0000 I -2.6537 J -0.5774
G02 X 5.2945 Y 4.6040 Z -1.0000 I 6.9471 J 1.9448
G02 X 5.2793 Y 4.6703 Z -1.0000 I 1.2681 J 0.3249
G03 X 5.2647 Y 4.7368 Z -1.0000 I -1.8766 J -0.3781
G03 X 5.2501 Y 4.7927 Z -1.0000 I -1.3415 J -0.3203
G02 X 5.2355 Y 4.8487 Z -1.0000 I 1.2915 J 0.3664
G02 X 5.2141 Y 4.9441 Z -1.0000 I 3.7530 J 0.8920
G02 X 5.2023 Y 5.0393 Z -1.0000 I 0.5562 J 0.1174
G02 X 5.2087 Y 5.0825 Z -1.0000 I 0.1180 J 0.0046
G03 X 5.2170 Y 5.1237 Z -1.0000 I -0.1486 J 0.0514
G01 X 5.2122 Y 5.1365 Z -1.0000
G01 X 5.2062 Y 5.1560 Z -1.0000
G01 X 5.2176 Y 5.1655 Z -1.0000
G01 X 5.2303 Y 5.1695 Z -1.0000
G01 X 5.2343 Y 5.1772 Z -1.0000
G01 X 5.2300 Y 5.1837 Z -1.0000
G01 X 5.2153 Y 5.1855 Z -1.0000
G01 X 5.2007 Y 5.1887 Z -1.0000
G01 X 5.1922 Y 5.2016 Z -1.0000
G01 X 5.1956 Y 5.2124 Z -1.0000
G01 X 5.2057 Y 5.2143 Z -1.0000
G01 X 5.2159 Y 5.2183 Z -1.0000
G03 X 5.2234 Y 5.2506 Z -1.0000 I -0.0666 J 0.0326
G01 X 5.2321 Y 5.2685 Z -1.0000
G01 X 5.2440 Y 5.2670 Z -1.0000
G01 X 5.2609 Y 5.2577 Z -1.0000
G01 X 5.2706 Y 5.2644 Z -1.0000
G01 X 5.2691 Y 5.2849 Z -1.0000
G01 X 5.2556 Y 5.2996 Z -1.0000
G01 X 5.2377 Y 5.3263 Z -1.0000
G01 X 5.2508 Y 5.3476 Z -1.0000
G01 X 5.2605 Y 5.3569 Z -1.0000
G01 X 5.2608 Y 5.3710 Z -1.0000
G01 X 5.2621 Y 5.3827 Z -1.0000
G01 X 5.2721 Y 5.3881 Z -1.0000
G01 X 5.2862 Y 5.3844 Z -1.0000
G01 X 5.2900 Y 5.3780 Z -1.0000
G01 X 5.2940 Y 5.3732 Z -1.0000
G01 X 5.3122 Y 5.3737 Z -1.0000
G01 X 5.3285 Y 5.3717 Z -1.0000
G01 X 5.3345 Y 5.3616 Z -1.0000
G01 X 5.3396 Y 5.3486 Z -1.0000
G01 X 5.3512 Y 5.3436 Z -1.0000
G01 X 5.3635 Y 5.3480 Z -1.0000
G01 X 5.3680 Y 5.3575 Z -1.0000
G01 X 5.3712 Y 5.3610 Z -1.0000
G01 X 5.3764 Y 5.3586 Z -1.0000
G01 X 5.3867 Y 5.3490 Z -1.0000
G03 X 5.4068 Y 5.3419 Z -1.0000 I 0.0314 J 0.0569
G01 X 5.4207 Y 5.3480 Z -1.0000
G03 X 5.4291 Y 5.3767 Z -1.0000 I -0.0451 J 0.0288
G03 X 5.4111 Y 5.4403 Z -1.0000 I -0.1209 J 0.0000
G01 X 5.3818 Y 5.4534 Z -1.0000
G02 X 5.3237 Y 5.4561 Z -1.0000 I -0.0231 J 0.1283
G01 X 5.2954 Y 5.4774 Z -1.0000
G01 X 5.2957 Y 5.4840 Z -1.0000
G01 X 5.3067 Y 5.4923 Z -1.0000
G01 X 5.3184 Y 5.5020 Z -1.0000
G01 X 5.3234 Y 5.5197 Z -1.0000
G01 X 5.3308 Y 5.5319 Z -1.0000
G01 X 5.3532 Y 5.5351 Z -1.0000
G01 X 5.3666 Y 5.5385 Z -1.0000
G01 X 5.3672 Y 5.5464 Z -1.0000
G01 X 5.3501 Y 5.5579 Z -1.0000
G01 X 5.3373 Y 5.5580 Z -1.0000
G01 X 5.3283 Y 5.5597 Z -1.0000
G01 X 5.3234 Y 5.5710 Z -1.0000
G01 X 5.3291 Y 5.5826 Z -1.0000
G01 X 5.3428 Y 5.5861 Z -1.0000
G01 X 5.3547 Y 5.5918 Z -1.0000
G03 X 5.3624 Y 5.6218 Z -1.0000 I -0.0549 J 0.0301
G02 X 5.3655 Y 5.6599 Z -1.0000 I 0.2472 J -0.0008
G01 X 5.3707 Y 5.6734 Z -1.0000
G01 X 5.3723 Y 5.6851 Z -1.0000
G01 X 5.3629 Y 5.6992 Z -1.0000
G01 X 5.3528 Y 5.7140 Z -1.0000
G01 X 5.3530 Y 5.7283 Z -1.0000
G01 X 5.3530 Y 5.7400 Z -1.0000
G01 X 5.3468 Y 5.7442 Z -1.0000
G01 X 5.3379 Y 5.7408 Z -1.0000
G01 X 5.3345 Y 5.7331 Z -1.0000
G01 X 5.3306 Y 5.7258 Z -1.0000
G01 X 5.3178 Y 5.7219 Z -1.0000
G01 X 5.3060 Y 5.7268 Z -1.0000
G01 X 5.3011 Y 5.7386 Z -1.0000
G01 X 5.2962 Y 5.7504 Z -1.0000
G01 X 5.2844 Y 5.7553 Z -1.0000
G01 X 5.2703 Y 5.7527 Z -1.0000
G01 X 5.2677 Y 5.7489 Z -1.0000
G01 X 5.2757 Y 5.7311 Z -1.0000
G03 X 5.3134 Y 5.7083 Z -1.0000 I 0.0807 J 0.0909
G01 X 5.3282 Y 5.6937 Z -1.0000
G02 X 5.3462 Y 5.6247 Z -1.0000 I -0.2809 J -0.1101
G01 X 5.3443 Y 5.6186 Z -1.0000
G01 X 5.3353 Y 5.6127 Z -1.0000
G01 X 5.3283 Y 5.6155 Z -1.0000
G01 X 5.3234 Y 5.6350 Z -1.0000
G03 X 5.3014 Y 5.6990 Z -1.0000 I -0.1040 J -0.0000
G01 X 5.2775 Y 5.6940 Z -1.0000
G03 X 5.2763 Y 5.6885 Z -1.0000 I 0.0740 J -0.0189
G03 X 5.2747 Y 5.6783 Z -1.0000 I 0.2446 J -0.0435
G01 X 5.2621 Y 5.6619 Z -1.0000
G02 X 5.2293 Y 5.6596 Z -1.0000 I -0.0200 J 0.0483
G01 X 5.2140 Y 5.6720 Z -1.0000
G01 X 5.2149 Y 5.6893 Z -1.0000
G01 X 5.2191 Y 5.7095 Z -1.0000
G01 X 5.2102 Y 5.7226 Z -1.0000
G01 X 5.1961 Y 5.7365 Z -1.0000
G02 X 5.1841 Y 5.7672 Z -1.0000 I 0.0917 J 0.0535
G03 X 5.1722 Y 5.7976 Z -1.0000 I -0.1026 J -0.0226
G01 X 5.1607 Y 5.8074 Z -1.0000
G01 X 5.1543 Y 5.8160 Z -1.0000
G01 X 5.1589 Y 5.8308 Z -1.0000
G01 X 5.1576 Y 5.8382 Z -1.0000
G01 X 5.1425 Y 5.8404 Z -1.0000
G01 X 5.1184 Y 5.8410 Z -1.0000
G01 X 5.1119 Y 5.8497 Z -1.0000
G01 X 5.1158 Y 5.8627 Z -1.0000
G01 X 5.1230 Y 5.8666 Z -1.0000
G01 X 5.1308 Y 5.8777 Z -1.0000
G01 X 5.1147 Y 5.8892 Z -1.0000
G01 X 5.1107 Y 5.8952 Z -1.0000
G02 X 5.1258 Y 5.9164 Z -1.0000 I 0.0525 J -0.0213
G03 X 5.1460 Y 5.9459 Z -1.0000 I -0.0485 J 0.0551
G01 X 5.1460 Y 5.9706 Z -1.0000
G02 X 5.1395 Y 5.9970 Z -1.0000 I 0.1035 J 0.0394
G01 X 5.1420 Y 6.0042 Z -1.0000
G01 X 5.1417 Y 6.0092 Z -1.0000
G03 X 5.1190 Y 6.0218 Z -1.0000 I -0.0545 J -0.0713
G01 X 5.1013 Y 6.0412 Z -1.0000
G01 X 5.1110 Y 6.0505 Z -1.0000
G01 X 5.1311 Y 6.0584 Z -1.0000
G01 X 5.1261 Y 6.0770 Z -1.0000
G01 X 5.1528 Y 6.0776 Z -1.0000
G03 X 5.1857 Y 6.0719 Z -1.0000 I 0.0340 J 0.0974
G03 X 5.2128 Y 6.0769 Z -1.0000 I 0.0008 J 0.0714
G01 X 5.2146 Y 6.0831 Z -1.0000
G01 X 5.2043 Y 6.0885 Z -1.0000
G02 X 5.1259 Y 6.1039 Z -1.0000 I 0.0045 J 0.2289
G01 X 5.1119 Y 6.1243 Z -1.0000
G01 X 5.1153 Y 6.1302 Z -1.0000
G01 X 5.1286 Y 6.1336 Z -1.0000
G01 X 5.1411 Y 6.1378 Z -1.0000
G01 X 5.1453 Y 6.1461 Z -1.0000
G01 X 5.1407 Y 6.1525 Z -1.0000
G01 X 5.1244 Y 6.1531 Z -1.0000
G01 X 5.1107 Y 6.1584 Z -1.0000
G02 X 5.0968 Y 6.1962 Z -1.0000 I 0.0788 J 0.0505
G02 X 5.0948 Y 6.2442 Z -1.0000 I 0.2496 J 0.0342
G02 X 5.1010 Y 6.2734 Z -1.0000 I 0.0971 J -0.0053
G03 X 5.1093 Y 6.3025 Z -1.0000 I -0.1626 J 0.0618
G03 X 5.1111 Y 6.3264 Z -1.0000 I -0.1066 J 0.0204
G01 X 5.1070 Y 6.3315 Z -1.0000
G01 X 5.1018 Y 6.3289 Z -1.0000
G01 X 5.0955 Y 6.3283 Z -1.0000
G02 X 5.0855 Y 6.3554 Z -1.0000 I 0.0632 J 0.0388
G02 X 5.0918 Y 6.3933 Z -1.0000 I 0.0599 J 0.0096
G01 X 5.1061 Y 6.3944 Z -1.0000
G01 X 5.1180 Y 6.3863 Z -1.0000
G01 X 5.1225 Y 6.3896 Z -1.0000
G01 X 5.1138 Y 6.4183 Z -1.0000
G03 X 5.0897 Y 6.4372 Z -1.0000 I -0.0425 J -0.0294
G01 X 5.0879 Y 6.4411 Z -1.0000
G01 X 5.0924 Y 6.4444 Z -1.0000
G01 X 5.0980 Y 6.4537 Z -1.0000
G01 X 5.0834 Y 6.4636 Z -1.0000
G01 X 5.0540 Y 6.4763 Z -1.0000
G01 X 5.0538 Y 6.4918 Z -1.0000
G01 X 5.0573 Y 6.5039 Z -1.0000
G01 X 5.0475 Y 6.5187 Z -1.0000
G01 X 5.0382 Y 6.5335 Z -1.0000
G01 X 5.0423 Y 6.5469 Z -1.0000
G01 X 5.0513 Y 6.5490 Z -1.0000
G01 X 5.0563 Y 6.5421 Z -1.0000
G01 X 5.0658 Y 6.5327 Z -1.0000
G01 X 5.0853 Y 6.5426 Z -1.0000
G01 X 5.0953 Y 6.5476 Z -1.0000
G01 X 5.1004 Y 6.5426 Z -1.0000
G01 X 5.1071 Y 6.5299 Z -1.0000
G01 X 5.1258 Y 6.5245 Z -1.0000
G01 X 5.1314 Y 6.5309 Z -1.0000
G01 X 5.1274 Y 6.5445 Z -1.0000
G01 X 5.1521 Y 6.5530 Z -1.0000
G03 X 5.1989 Y 6.5630 Z -1.0000 I 0.0105 J 0.0648
G03 X 5.2267 Y 6.6023 Z -1.0000 I -0.0368 J 0.0555
G01 X 5.2206 Y 6.6266 Z -1.0000
G01 X 5.2052 Y 6.6260 Z -1.0000
G01 X 5.1960 Y 6.6269 Z -1.0000
G02 X 5.1853 Y 6.6675 Z -1.0000 I 0.1010 J 0.0482
G01 X 5.1795 Y 6.6808 Z -1.0000
G03 X 5.1564 Y 6.6980 Z -1.0000 I -0.0611 J -0.0580
G01 X 5.1425 Y 6.7122 Z -1.0000
G01 X 5.1528 Y 6.7160 Z -1.0000
G01 X 5.1564 Y 6.7235 Z -1.0000
G01 X 5.1518 Y 6.7300 Z -1.0000
G03 X 5.1230 Y 6.7346 Z -1.0000 I -0.0287 J -0.0860
G01 X 5.1008 Y 6.7491 Z -1.0000
G01 X 5.1055 Y 6.7744 Z -1.0000
G01 X 5.1394 Y 6.7877 Z -1.0000
G01 X 5.1609 Y 6.7724 Z -1.0000
G01 X 5.1837 Y 6.7591 Z -1.0000
G03 X 5.2501 Y 6.7856 Z -1.0000 I -0.0228 J 0.1536
G01 X 5.2561 Y 6.7988 Z -1.0000
G01 X 5.2477 Y 6.8087 Z -1.0000
G01 X 5.2282 Y 6.8212 Z -1.0000
G02 X 5.2155 Y 6.8482 Z -1.0000 I 0.0482 J 0.0392
G03 X 5.2069 Y 6.8702 Z -1.0000 I -0.0666 J -0.0133
G01 X 5.2021 Y 6.8702 Z -1.0000
G01 X 5.1468 Y 6.8632 Z -1.0000
G02 X 5.1296 Y 6.9391 Z -1.0000 I 0.0482 J 0.0508
G01 X 5.1392 Y 6.9484 Z -1.0000
G01 X 5.1505 Y 6.9464 Z -1.0000
G01 X 5.1855 Y 6.9492 Z -1.0000
G01 X 5.1937 Y 6.9963 Z -1.0000
G01 X 5.1945 Y 7.0063 Z -1.0000
G01 X 5.2002 Y 7.0077 Z -1.0000
G01 X 5.2043 Y 7.0097 Z -1.0000
G01 X 5.2021 Y 7.0218 Z -1.0000
G02 X 5.1941 Y 7.0449 Z -1.0000 I 0.0686 J 0.0367
G01 X 5.1954 Y 7.0593 Z -1.0000
G01 X 5.1867 Y 7.0847 Z -1.0000
G03 X 5.1264 Y 7.1018 Z -1.0000 I -0.0603 J -0.0979
G01 X 5.1156 Y 7.1055 Z -1.0000
G01 X 5.1119 Y 7.1130 Z -1.0000
G01 X 5.1157 Y 7.1203 Z -1.0000
G01 X 5.1279 Y 7.1241 Z -1.0000
G01 X 5.1421 Y 7.1208 Z -1.0000
G01 X 5.1509 Y 7.1130 Z -1.0000
G01 X 5.1597 Y 7.1055 Z -1.0000
G01 X 5.1781 Y 7.1018 Z -1.0000
G01 X 5.2060 Y 7.0862 Z -1.0000
G01 X 5.2059 Y 7.0563 Z -1.0000
G01 X 5.2073 Y 7.0505 Z -1.0000
G01 X 5.2232 Y 7.0462 Z -1.0000
G01 X 5.2398 Y 7.0398 Z -1.0000
G01 X 5.2449 Y 7.0267 Z -1.0000
G03 X 5.2514 Y 6.9897 Z -1.0000 I 0.0688 J -0.0070
G01 X 5.2677 Y 6.9794 Z -1.0000
G03 X 5.2872 Y 6.9823 Z -1.0000 I -0.0000 J 0.0680
G01 X 5.2900 Y 6.9860 Z -1.0000
G01 X 5.2882 Y 6.9920 Z -1.0000
G03 X 5.2677 Y 7.0209 Z -1.0000 I -0.3011 J -0.1918
G02 X 5.2488 Y 7.0504 Z -1.0000 I 0.1423 J 0.1119
G01 X 5.2454 Y 7.0644 Z -1.0000
G01 X 5.2420 Y 7.0761 Z -1.0000
G01 X 5.2356 Y 7.0796 Z -1.0000
G01 X 5.2136 Y 7.0988 Z -1.0000
G02 X 5.2245 Y 7.1599 Z -1.0000 I 0.0994 J 0.0138
G01 X 5.2174 Y 7.1994 Z -1.0000
G03 X 5.1521 Y 7.2243 Z -1.0000 I -0.0653 J -0.0734
G02 X 5.1208 Y 7.2344 Z -1.0000 I 0.0000 J 0.0537
G02 X 5.0942 Y 7.2660 Z -1.0000 I 0.0493 J 0.0685
G02 X 5.0708 Y 7.3523 Z -1.0000 I 0.2155 J 0.1048
G01 X 5.0862 Y 7.3689 Z -1.0000
G01 X 5.1009 Y 7.3724 Z -1.0000
G03 X 5.1191 Y 7.3856 Z -1.0000 I -0.0322 J 0.0634
G01 X 5.1205 Y 7.3978 Z -1.0000
G01 X 5.1083 Y 7.4034 Z -1.0000
G01 X 5.1049 Y 7.4057 Z -1.0000
G01 X 5.1062 Y 7.4132 Z -1.0000
G01 X 5.1153 Y 7.4208 Z -1.0000
G02 X 5.1348 Y 7.4246 Z -1.0000 I 0.0195 J -0.0492
G01 X 5.1465 Y 7.4375 Z -1.0000
G01 X 5.1314 Y 7.4576 Z -1.0000
G01 X 5.1241 Y 7.4645 Z -1.0000
G01 X 5.1265 Y 7.4684 Z -1.0000
G01 X 5.1386 Y 7.4733 Z -1.0000
G01 X 5.1396 Y 7.4804 Z -1.0000
G01 X 5.1314 Y 7.4866 Z -1.0000
G01 X 5.1223 Y 7.4853 Z -1.0000
G01 X 5.1163 Y 7.4868 Z -1.0000
G01 X 5.1119 Y 7.5032 Z -1.0000
G01 X 5.1181 Y 7.5142 Z -1.0000
G01 X 5.1289 Y 7.5134 Z -1.0000
G01 X 5.1453 Y 7.5158 Z -1.0000
G01 X 5.1473 Y 7.5414 Z -1.0000
G01 X 5.1236 Y 7.5650 Z -1.0000
G01 X 5.1119 Y 7.5574 Z -1.0000
G01 X 5.1083 Y 7.5520 Z -1.0000
G01 X 5.1007 Y 7.5525 Z -1.0000
G01 X 5.0974 Y 7.5604 Z -1.0000
G01 X 5.1062 Y 7.5763 Z -1.0000
G03 X 5.1188 Y 7.5946 Z -1.0000 I -0.0420 J 0.0421
G01 X 5.1217 Y 7.6117 Z -1.0000
G01 X 5.1189 Y 7.6140 Z -1.0000
G01 X 5.1154 Y 7.6109 Z -1.0000
G01 X 5.1067 Y 7.5961 Z -1.0000
G01 X 5.0953 Y 7.5915 Z -1.0000
G01 X 5.0831 Y 7.5877 Z -1.0000
G01 X 5.0760 Y 7.5784 Z -1.0000
G01 X 5.0597 Y 7.5757 Z -1.0000
G02 X 5.0451 Y 7.6193 Z -1.0000 I 0.0577 J 0.0436
G03 X 5.0407 Y 7.6544 Z -1.0000 I -0.1405 J 0.0000
G01 X 5.0335 Y 7.6641 Z -1.0000
G01 X 5.0273 Y 7.6732 Z -1.0000
G01 X 5.0284 Y 7.6914 Z -1.0000
G01 X 5.0262 Y 7.7047 Z -1.0000
G01 X 5.0149 Y 7.7099 Z -1.0000
G01 X 4.9975 Y 7.7250 Z -1.0000
G01 X 5.0129 Y 7.7448 Z -1.0000
G01 X 5.0288 Y 7.7423 Z -1.0000
G02 X 5.0574 Y 7.7201 Z -1.0000 I -0.0575 J -0.1037
G03 X 5.0997 Y 7.6933 Z -1.0000 I 0.0743 J 0.0705
G01 X 5.1119 Y 7.7022 Z -1.0000
G01 X 5.1086 Y 7.7108 Z -1.0000
G03 X 5.0925 Y 7.7236 Z -1.0000 I -0.0469 J -0.0424
G01 X 5.0810 Y 7.7355 Z -1.0000
G01 X 5.0823 Y 7.7436 Z -1.0000
G01 X 5.0909 Y 7.7452 Z -1.0000
G01 X 5.1057 Y 7.7333 Z -1.0000
G03 X 5.1222 Y 7.7183 Z -1.0000 I 0.0454 J 0.0332
G01 X 5.1382 Y 7.7139 Z -1.0000
G01 X 5.1523 Y 7.7093 Z -1.0000
G01 X 5.1576 Y 7.6999 Z -1.0000
G02 X 5.1587 Y 7.6860 Z -1.0000 I -1.9527 J -0.1650
G02 X 5.1604 Y 7.6639 Z -1.0000 I -4.5541 J -0.3520
G01 X 5.1682 Y 7.6471 Z -1.0000
G01 X 5.1898 Y 7.6350 Z -1.0000
G02 X 5.2507 Y 7.6052 Z -1.0000 I -0.0377 J -0.1540
G01 X 5.2602 Y 7.5791 Z -1.0000
G01 X 5.2621 Y 7.5538 Z -1.0000
G01 X 5.2719 Y 7.5469 Z -1.0000
G01 X 5.2842 Y 7.5530 Z -1.0000
G01 X 5.2912 Y 7.5720 Z -1.0000
G02 X 5.2926 Y 7.5970 Z -1.0000 I 1.6977 J -0.0827
G02 X 5.2952 Y 7.6360 Z -1.0000 I 4.0073 J -0.2546
G01 X 5.2931 Y 7.6610 Z -1.0000
G01 X 5.2848 Y 7.6517 Z -1.0000
G01 X 5.2646 Y 7.6471 Z -1.0000
G01 X 5.2582 Y 7.6528 Z -1.0000
G01 X 5.2628 Y 7.6634 Z -1.0000
G01 X 5.2694 Y 7.6749 Z -1.0000
G01 X 5.2649 Y 7.6801 Z -1.0000
G01 X 5.2499 Y 7.6900 Z -1.0000
G01 X 5.2529 Y 7.7065 Z -1.0000
G01 X 5.2605 Y 7.7080 Z -1.0000
G02 X 5.2807 Y 7.6955 Z -1.0000 I -0.0245 J -0.0621
G01 X 5.2954 Y 7.6898 Z -1.0000
G01 X 5.3011 Y 7.6954 Z -1.0000
G01 X 5.3166 Y 7.7094 Z -1.0000
G02 X 5.3563 Y 7.6895 Z -1.0000 I -0.0068 J -0.0632
G01 X 5.3672 Y 7.6929 Z -1.0000
G03 X 5.3618 Y 7.7259 Z -1.0000 I -0.0536 J 0.0081
G03 X 5.3423 Y 7.7507 Z -1.0000 I -0.0742 J -0.0384
G01 X 5.3323 Y 7.7515 Z -1.0000
G01 X 5.3213 Y 7.7509 Z -1.0000
G01 X 5.3049 Y 7.7644 Z -1.0000
G01 X 5.2899 Y 7.7727 Z -1.0000
G01 X 5.2853 Y 7.7665 Z -1.0000
G01 X 5.2677 Y 7.7663 Z -1.0000
G01 X 5.2512 Y 7.7766 Z -1.0000
G01 X 5.2454 Y 7.7923 Z -1.0000
G01 X 5.2399 Y 7.8085 Z -1.0000
G01 X 5.2244 Y 7.8192 Z -1.0000
G01 X 5.2074 Y 7.8298 Z -1.0000
G01 X 5.1978 Y 7.8469 Z -1.0000
G01 X 5.2005 Y 7.8595 Z -1.0000
G01 X 5.2105 Y 7.8625 Z -1.0000
G01 X 5.2009 Y 7.8741 Z -1.0000
G03 X 5.1719 Y 7.8872 Z -1.0000 I -0.0655 J -0.1066
G03 X 5.1397 Y 7.8927 Z -1.0000 I -0.0384 J -0.1262
G01 X 5.1554 Y 7.9053 Z -1.0000
G03 X 5.1888 Y 7.9189 Z -1.0000 I -0.0231 J 0.1038
G01 X 5.1888 Y 7.9262 Z -1.0000
G03 X 5.1722 Y 7.9330 Z -1.0000 I -0.0277 J -0.0436
G03 X 5.1431 Y 7.9363 Z -1.0000 I -0.0299 J -0.1356
G02 X 5.1160 Y 7.9412 Z -1.0000 I 0.0005 J 0.0796
G01 X 5.1052 Y 7.9504 Z -1.0000
G01 X 5.1062 Y 7.9561 Z -1.0000
G01 X 5.1281 Y 7.9573 Z -1.0000
G03 X 5.1449 Y 8.0000 Z -1.0000 I -0.0506 J 0.0445
G01 X 5.1407 Y 8.0072 Z -1.0000
G01 X 5.1299 Y 8.0077 Z -1.0000
G01 X 5.1185 Y 8.0103 Z -1.0000
G02 X 5.1025 Y 8.0365 Z -1.0000 I 0.0525 J 0.0501
G03 X 5.0856 Y 8.0631 Z -1.0000 I -0.0652 J -0.0227
G01 X 5.0705 Y 8.0678 Z -1.0000
G01 X 5.0569 Y 8.0727 Z -1.0000
G01 X 5.0472 Y 8.0950 Z -1.0000
G01 X 5.0522 Y 8.1180 Z -1.0000
G01 X 5.0658 Y 8.1256 Z -1.0000
G03 X 5.0863 Y 8.1298 Z -1.0000 I 0.0000 J 0.0519
G03 X 5.1047 Y 8.1423 Z -1.0000 I -0.0232 J 0.0541
G01 X 5.1244 Y 8.1486 Z -1.0000
G01 X 5.1374 Y 8.1367 Z -1.0000
G01 X 5.1360 Y 8.1200 Z -1.0000
G01 X 5.1275 Y 8.1145 Z -1.0000
G01 X 5.1157 Y 8.1107 Z -1.0000
G01 X 5.1119 Y 8.1033 Z -1.0000
G01 X 5.1270 Y 8.0915 Z -1.0000
G01 X 5.1564 Y 8.1145 Z -1.0000
G01 X 5.1835 Y 8.1296 Z -1.0000
G01 X 5.2029 Y 8.1117 Z -1.0000
G01 X 5.2128 Y 8.0930 Z -1.0000
G01 X 5.2343 Y 8.0828 Z -1.0000
G02 X 5.2604 Y 8.0753 Z -1.0000 I -0.0130 J -0.0947
G02 X 5.2817 Y 8.0616 Z -1.0000 I -0.0339 J -0.0755
G03 X 5.3010 Y 8.0502 Z -1.0000 I 0.0381 J 0.0426
G01 X 5.3092 Y 8.0521 Z -1.0000
G01 X 5.3105 Y 8.0593 Z -1.0000
G01 X 5.3008 Y 8.0705 Z -1.0000
G01 X 5.2950 Y 8.0813 Z -1.0000
G01 X 5.3011 Y 8.0930 Z -1.0000
G01 X 5.3077 Y 8.1038 Z -1.0000
G01 X 5.3039 Y 8.1107 Z -1.0000
G01 X 5.2991 Y 8.1226 Z -1.0000
G01 X 5.3121 Y 8.1288 Z -1.0000
G01 X 5.3277 Y 8.1204 Z -1.0000
G01 X 5.3286 Y 8.1140 Z -1.0000
G01 X 5.3338 Y 8.0988 Z -1.0000
G01 X 5.3636 Y 8.1012 Z -1.0000
G01 X 5.3721 Y 8.1116 Z -1.0000
G01 X 5.3693 Y 8.1191 Z -1.0000
G01 X 5.3607 Y 8.1291 Z -1.0000
G01 X 5.3567 Y 8.1485 Z -1.0000
G01 X 5.3512 Y 8.1646 Z -1.0000
G01 X 5.3400 Y 8.1701 Z -1.0000
G01 X 5.3304 Y 8.1772 Z -1.0000
G02 X 5.3233 Y 8.2257 Z -1.0000 I 0.1617 J 0.0485
G03 X 5.3113 Y 8.2693 Z -1.0000 I -0.0847 J 0.0000
G01 X 5.2899 Y 8.2814 Z -1.0000
G02 X 5.2612 Y 8.2860 Z -1.0000 I -0.0000 J 0.0909
G01 X 5.2566 Y 8.2925 Z -1.0000
G01 X 5.2525 Y 8.2996 Z -1.0000
G01 X 5.2377 Y 8.3036 Z -1.0000
G01 X 5.2336 Y 8.3086 Z -1.0000
G01 X 5.2405 Y 8.3200 Z -1.0000
G01 X 5.2405 Y 8.3309 Z -1.0000
G03 X 5.2120 Y 8.3411 Z -1.0000 I -0.0311 J -0.0420
G02 X 5.1739 Y 8.3457 Z -1.0000 I 0.0140 J 0.2736
G01 X 5.1605 Y 8.3511 Z -1.0000
G01 X 5.1472 Y 8.3752 Z -1.0000
G02 X 5.1607 Y 8.4383 Z -1.0000 I 0.1567 J -0.0005
G03 X 5.1659 Y 8.4564 Z -1.0000 I -0.0612 J 0.0272
G01 X 5.1653 Y 8.4717 Z -1.0000
G01 X 5.1698 Y 8.4805 Z -1.0000
G02 X 5.1953 Y 8.4849 Z -1.0000 I 0.0217 J -0.0495
G02 X 5.2686 Y 8.4686 Z -1.0000 I -0.0178 J -0.2521
G01 X 5.2749 Y 8.4543 Z -1.0000
G01 X 5.2750 Y 8.4404 Z -1.0000
G01 X 5.2866 Y 8.4243 Z -1.0000
G01 X 5.2952 Y 8.4262 Z -1.0000
G01 X 5.2993 Y 8.4513 Z -1.0000
G02 X 5.3023 Y 8.4859 Z -1.0000 I 0.0856 J 0.0100
G01 X 5.3116 Y 8.4929 Z -1.0000
G01 X 5.3147 Y 8.4981 Z -1.0000
G03 X 5.2956 Y 8.5215 Z -1.0000 I -0.0759 J -0.0426
G03 X 5.2601 Y 8.5421 Z -1.0000 I -0.0722 J -0.0840
G03 X 5.2316 Y 8.5441 Z -1.0000 I -0.0179 J -0.0509
G01 X 5.2072 Y 8.5456 Z -1.0000
G01 X 5.2009 Y 8.5543 Z -1.0000
G01 X 5.1970 Y 8.5668 Z -1.0000
G01 X 5.1894 Y 8.5708 Z -1.0000
G01 X 5.1851 Y 8.5664 Z -1.0000
G01 X 5.1894 Y 8.5492 Z -1.0000
G01 X 5.1888 Y 8.5264 Z -1.0000
G01 X 5.1687 Y 8.5151 Z -1.0000
G02 X 5.1406 Y 8.5211 Z -1.0000 I 0.0000 J 0.0686
G01 X 5.1298 Y 8.5325 Z -1.0000
G01 X 5.1194 Y 8.5436 Z -1.0000
G01 X 5.0991 Y 8.5464 Z -1.0000
G01 X 5.0787 Y 8.5489 Z -1.0000
G01 X 5.0698 Y 8.5583 Z -1.0000
G01 X 5.0739 Y 8.5657 Z -1.0000
G02 X 5.1049 Y 8.5661 Z -1.0000 I 0.0167 J -0.0752
G01 X 5.1333 Y 8.5730 Z -1.0000
G01 X 5.1453 Y 8.5974 Z -1.0000
G02 X 5.1498 Y 8.6336 Z -1.0000 I 0.1456 J -0.0000
G01 X 5.1571 Y 8.6435 Z -1.0000
G01 X 5.1606 Y 8.6520 Z -1.0000
G01 X 5.1500 Y 8.6718 Z -1.0000
G01 X 5.1403 Y 8.6929 Z -1.0000
G01 X 5.1451 Y 8.7096 Z -1.0000
G02 X 5.1841 Y 8.7303 Z -1.0000 I 0.0446 J -0.0370
G01 X 5.2009 Y 8.7150 Z -1.0000
G01 X 5.2052 Y 8.7106 Z -1.0000
G01 X 5.2215 Y 8.7145 Z -1.0000
G01 X 5.2410 Y 8.7188 Z -1.0000
G01 X 5.2548 Y 8.7127 Z -1.0000
G01 X 5.2636 Y 8.7097 Z -1.0000
G01 X 5.2677 Y 8.7144 Z -1.0000
G01 X 5.2721 Y 8.7225 Z -1.0000
G01 X 5.2816 Y 8.7236 Z -1.0000
G01 X 5.2895 Y 8.7273 Z -1.0000
G03 X 5.2971 Y 8.7697 Z -1.0000 I -0.1392 J 0.0466
G01 X 5.2930 Y 8.8065 Z -1.0000
G01 X 5.2861 Y 8.8034 Z -1.0000
G01 X 5.2713 Y 8.8150 Z -1.0000
G03 X 5.2539 Y 8.8329 Z -1.0000 I -0.0651 J -0.0456
G01 X 5.2470 Y 8.8332 Z -1.0000
G01 X 5.2434 Y 8.8664 Z -1.0000
G03 X 5.2399 Y 8.8975 Z -1.0000 I -0.0689 J 0.0081
G01 X 5.2299 Y 8.9046 Z -1.0000
G01 X 5.2187 Y 8.8979 Z -1.0000
G03 X 5.2120 Y 8.8712 Z -1.0000 I 0.0497 J -0.0267
G02 X 5.2057 Y 8.8442 Z -1.0000 I -0.0604 J -0.0000
G01 X 5.1953 Y 8.8378 Z -1.0000
G01 X 5.1852 Y 8.8444 Z -1.0000
G02 X 5.1786 Y 8.8758 Z -1.0000 I 0.0717 J 0.0314
G03 X 5.1764 Y 8.9135 Z -1.0000 I -0.3121 J 0.0000
G03 X 5.1719 Y 8.9315 Z -1.0000 I -0.0751 J -0.0091
G01 X 5.1729 Y 8.9437 Z -1.0000
G01 X 5.1822 Y 8.9491 Z -1.0000
G01 X 5.1945 Y 8.9547 Z -1.0000
G01 X 5.2029 Y 8.9733 Z -1.0000
G01 X 5.2205 Y 8.9982 Z -1.0000
G01 X 5.2343 Y 8.9899 Z -1.0000
G01 X 5.2306 Y 8.9759 Z -1.0000
G01 X 5.2225 Y 8.9693 Z -1.0000
G01 X 5.2167 Y 8.9625 Z -1.0000
G01 X 5.2181 Y 8.9461 Z -1.0000
G03 X 5.2615 Y 8.9124 Z -1.0000 I 0.0496 J 0.0190
G01 X 5.2899 Y 8.9376 Z -1.0000
G01 X 5.2860 Y 8.9427 Z -1.0000
G01 X 5.2732 Y 8.9420 Z -1.0000
G01 X 5.2619 Y 8.9433 Z -1.0000
G01 X 5.2565 Y 8.9535 Z -1.0000
G01 X 5.2607 Y 8.9672 Z -1.0000
G01 X 5.2684 Y 8.9714 Z -1.0000
G01 X 5.2741 Y 8.9759 Z -1.0000
G01 X 5.2732 Y 8.9936 Z -1.0000
G01 X 5.2750 Y 9.0094 Z -1.0000
G01 X 5.2864 Y 9.0159 Z -1.0000
G01 X 5.2901 Y 9.0219 Z -1.0000
G03 X 5.2732 Y 9.0433 Z -1.0000 I -0.0568 J -0.0272
G03 X 5.2333 Y 9.0629 Z -1.0000 I -0.0616 J -0.0752
G01 X 5.2232 Y 9.0548 Z -1.0000
G01 X 5.2193 Y 9.0420 Z -1.0000
G01 X 5.2120 Y 9.0381 Z -1.0000
G01 X 5.2051 Y 9.0423 Z -1.0000
G01 X 5.2009 Y 9.0597 Z -1.0000
G01 X 5.1937 Y 9.0761 Z -1.0000
G03 X 5.1625 Y 9.0951 Z -1.0000 I -0.0625 J -0.0677
G02 X 5.1312 Y 9.1114 Z -1.0000 I 0.0450 J 0.1248
G01 X 5.1298 Y 9.1181 Z -1.0000
G01 X 5.1297 Y 9.1240 Z -1.0000
G01 X 5.1236 Y 9.1272 Z -1.0000
G01 X 5.1162 Y 9.1315 Z -1.0000
G01 X 5.1119 Y 9.1480 Z -1.0000
G01 X 5.1046 Y 9.1630 Z -1.0000
G03 X 5.0757 Y 9.1763 Z -1.0000 I -0.0429 J -0.0548
G01 X 5.0578 Y 9.1867 Z -1.0000
G01 X 5.0592 Y 9.1951 Z -1.0000
G02 X 5.0795 Y 9.2031 Z -1.0000 I 0.0369 J -0.0645
G02 X 5.0982 Y 9.2040 Z -1.0000 I 0.0120 J -0.0523
G03 X 5.1171 Y 9.2040 Z -1.0000 I 0.0094 J 0.0764
G03 X 5.1369 Y 9.2089 Z -1.0000 I -0.0110 J 0.0872
G01 X 5.1594 Y 9.2266 Z -1.0000
G01 X 5.1551 Y 9.2358 Z -1.0000
G01 X 5.1273 Y 9.2496 Z -1.0000
G01 X 5.1191 Y 9.2752 Z -1.0000
G03 X 5.1161 Y 9.3077 Z -1.0000 I -0.0785 J 0.0092
G01 X 5.1037 Y 9.3251 Z -1.0000
G01 X 5.1048 Y 9.3443 Z -1.0000
G02 X 5.1526 Y 9.3528 Z -1.0000 I 0.0361 J -0.0637
G03 X 5.1842 Y 9.3533 Z -1.0000 I 0.0144 J 0.0890
G01 X 5.1898 Y 9.3600 Z -1.0000
G01 X 5.1939 Y 9.3660 Z -1.0000
G01 X 5.2037 Y 9.3651 Z -1.0000
G01 X 5.1981 Y 9.3793 Z -1.0000
G01 X 5.1890 Y 9.4058 Z -1.0000
G01 X 5.2002 Y 9.4165 Z -1.0000
G01 X 5.2207 Y 9.4307 Z -1.0000
G01 X 5.2151 Y 9.4563 Z -1.0000
G01 X 5.2177 Y 9.4652 Z -1.0000
G02 X 5.2706 Y 9.4680 Z -1.0000 I 0.0354 J -0.1679
G03 X 5.3392 Y 9.4675 Z -1.0000 I 0.0370 J 0.3598
G01 X 5.3457 Y 9.4745 Z -1.0000
G01 X 5.3494 Y 9.4775 Z -1.0000
G01 X 5.3577 Y 9.4720 Z -1.0000
G01 X 5.3684 Y 9.4654 Z -1.0000
G01 X 5.3752 Y 9.4692 Z -1.0000
G01 X 5.3840 Y 9.4768 Z -1.0000
G01 X 5.4067 Y 9.4766 Z -1.0000
G03 X 5.4319 Y 9.4749 Z -1.0000 I 0.0176 J 0.0696
G03 X 5.4542 Y 9.4817 Z -1.0000 I -0.0065 J 0.0606
G02 X 5.4769 Y 9.4902 Z -1.0000 I 0.0431 J -0.0804
G02 X 5.5165 Y 9.4961 Z -1.0000 I 0.0565 J -0.2455
G01 X 5.5301 Y 9.5124 Z -1.0000
G01 X 5.5129 Y 9.5277 Z -1.0000
G02 X 5.4712 Y 9.5329 Z -1.0000 I 0.0000 J 0.1698
G01 X 5.4551 Y 9.5424 Z -1.0000
G01 X 5.4395 Y 9.5516 Z -1.0000
G03 X 5.4157 Y 9.5522 Z -1.0000 I -0.0133 J -0.0534
G01 X 5.3965 Y 9.5551 Z -1.0000
G01 X 5.3901 Y 9.5657 Z -1.0000
G01 X 5.3824 Y 9.5757 Z -1.0000
G03 X 5.3361 Y 9.5798 Z -1.0000 I -0.0353 J -0.1347
G02 X 5.2621 Y 9.5907 Z -1.0000 I -0.0131 J 0.1676
G01 X 5.2454 Y 9.6151 Z -1.0000
G01 X 5.2306 Y 9.6295 Z -1.0000
G01 X 5.2083 Y 9.6139 Z -1.0000
G01 X 5.2018 Y 9.6195 Z -1.0000
G01 X 5.1969 Y 9.6348 Z -1.0000
G01 X 5.1894 Y 9.6390 Z -1.0000
G01 X 5.1851 Y 9.6433 Z -1.0000
G01 X 5.1896 Y 9.6608 Z -1.0000
G01 X 5.2181 Y 9.6752 Z -1.0000
G01 X 5.2299 Y 9.6548 Z -1.0000
G01 X 5.2318 Y 9.6438 Z -1.0000
G01 X 5.2487 Y 9.6324 Z -1.0000
G02 X 5.2711 Y 9.6218 Z -1.0000 I -0.0283 J -0.0885
G02 X 5.2846 Y 9.6090 Z -1.0000 I -0.0282 J -0.0433
G01 X 5.2980 Y 9.5998 Z -1.0000
G01 X 5.3153 Y 9.6007 Z -1.0000
G01 X 5.3247 Y 9.6154 Z -1.0000
G01 X 5.3138 Y 9.6228 Z -1.0000
G01 X 5.2760 Y 9.6312 Z -1.0000
G01 X 5.2783 Y 9.6554 Z -1.0000
G01 X 5.2863 Y 9.6561 Z -1.0000
G01 X 5.2899 Y 9.6508 Z -1.0000
G01 X 5.2948 Y 9.6439 Z -1.0000
G03 X 5.3233 Y 9.6390 Z -1.0000 I 0.0285 J 0.0808
G02 X 5.3523 Y 9.6346 Z -1.0000 I 0.0000 J -0.0973
G01 X 5.3567 Y 9.6286 Z -1.0000
G01 X 5.3764 Y 9.6041 Z -1.0000
G01 X 5.4157 Y 9.6156 Z -1.0000
G01 X 5.4298 Y 9.6235 Z -1.0000
G02 X 5.4730 Y 9.6294 Z -1.0000 I 0.0504 J -0.2092
G01 X 5.4930 Y 9.6357 Z -1.0000
G02 X 5.4719 Y 9.6437 Z -1.0000 I 0.0129 J 0.0660
G01 X 5.4680 Y 9.6505 Z -1.0000
G01 X 5.4719 Y 9.6552 Z -1.0000
G01 X 5.4875 Y 9.6544 Z -1.0000
G01 X 5.4853 Y 9.6659 Z -1.0000
G03 X 5.4624 Y 9.6798 Z -1.0000 I -0.0620 J -0.0760
G01 X 5.4450 Y 9.6835 Z -1.0000
G01 X 5.4281 Y 9.6876 Z -1.0000
G02 X 5.4122 Y 9.7003 Z -1.0000 I 0.0234 J 0.0455
G03 X 5.3968 Y 9.7133 Z -1.0000 I -0.0427 J -0.0353
G01 X 5.3858 Y 9.7153 Z -1.0000
G01 X 5.3556 Y 9.7281 Z -1.0000
G02 X 5.3404 Y 9.7797 Z -1.0000 I 0.0683 J 0.0481
G03 X 5.3312 Y 9.8234 Z -1.0000 I -0.0901 J 0.0038
G01 X 5.3079 Y 9.8456 Z -1.0000
G01 X 5.3063 Y 9.8559 Z -1.0000
G01 X 5.3312 Y 9.8660 Z -1.0000
G02 X 5.3655 Y 9.8620 Z -1.0000 I 0.0052 J -0.1042
G01 X 5.3675 Y 9.8555 Z -1.0000
G01 X 5.3670 Y 9.8451 Z -1.0000
G01 X 5.3846 Y 9.8301 Z -1.0000
G01 X 5.4095 Y 9.7993 Z -1.0000
G01 X 5.3990 Y 9.7636 Z -1.0000
G01 X 5.3935 Y 9.7503 Z -1.0000
G01 X 5.3990 Y 9.7369 Z -1.0000
G01 X 5.4075 Y 9.7352 Z -1.0000
G01 X 5.4124 Y 9.7425 Z -1.0000
G01 X 5.4233 Y 9.7557 Z -1.0000
G01 X 5.4384 Y 9.7475 Z -1.0000
G01 X 5.4453 Y 9.7418 Z -1.0000
G01 X 5.4532 Y 9.7447 Z -1.0000
G01 X 5.4645 Y 9.7516 Z -1.0000
G02 X 5.5125 Y 9.7582 Z -1.0000 I 0.0610 J -0.2669
G02 X 5.5454 Y 9.7553 Z -1.0000 I 0.0058 J -0.1218
G01 X 5.5462 Y 9.7505 Z -1.0000
G01 X 5.5463 Y 9.7388 Z -1.0000
G01 X 5.5664 Y 9.7383 Z -1.0000
G03 X 5.5938 Y 9.7766 Z -1.0000 I -0.0251 J 0.0469
G03 X 5.5800 Y 9.8219 Z -1.0000 I -0.0529 J 0.0086
G02 X 5.5638 Y 9.8484 Z -1.0000 I 0.0557 J 0.0523
G01 X 5.5640 Y 9.8667 Z -1.0000
G01 X 5.5609 Y 9.8744 Z -1.0000
G01 X 5.5488 Y 9.8742 Z -1.0000
G01 X 5.5276 Y 9.8702 Z -1.0000
G01 X 5.5123 Y 9.8785 Z -1.0000
G03 X 5.4970 Y 9.8914 Z -1.0000 I -0.0424 J -0.0350
G01 X 5.4833 Y 9.8950 Z -1.0000
G01 X 5.4734 Y 9.9004 Z -1.0000
G01 X 5.4680 Y 9.9184 Z -1.0000
G01 X 5.4606 Y 9.9324 Z -1.0000
G01 X 5.4429 Y 9.9356 Z -1.0000
G02 X 5.4184 Y 9.9334 Z -1.0000 I -0.0189 J 0.0747
G01 X 5.4029 Y 9.9385 Z -1.0000
G01 X 5.3967 Y 9.9497 Z -1.0000
G01 X 5.4030 Y 9.9718 Z -1.0000
G03 X 5.4104 Y 9.9942 Z -1.0000 I -0.0430 J 0.0266
G01 X 5.4057 Y 10.0038 Z -1.0000
G01 X 5.3954 Y 10.0134 Z -1.0000
G02 X 5.3871 Y 10.0285 Z -1.0000 I 0.0491 J 0.0370
G01 X 5.3798 Y 10.0211 Z -1.0000
G02 X 5.3745 Y 10.0002 Z -1.0000 I -0.0513 J 0.0019
G01 X 5.3651 Y 9.9914 Z -1.0000
G01 X 5.3625 Y 9.9876 Z -1.0000
G01 X 5.3651 Y 9.9849 Z -1.0000
G01 X 5.3749 Y 9.9730 Z -1.0000
G01 X 5.3623 Y 9.9618 Z -1.0000
G01 X 5.3520 Y 9.9682 Z -1.0000
G02 X 5.3456 Y 9.9952 Z -1.0000 I 0.0540 J 0.0270
G01 X 5.3367 Y 10.0197 Z -1.0000
G01 X 5.3178 Y 10.0286 Z -1.0000
G02 X 5.2944 Y 10.0331 Z -1.0000 I -0.0000 J 0.0629
G01 X 5.2899 Y 10.0397 Z -1.0000
G01 X 5.2854 Y 10.0463 Z -1.0000
G03 X 5.2593 Y 10.0512 Z -1.0000 I -0.0269 J -0.0715
G01 X 5.2469 Y 10.0575 Z -1.0000
G01 X 5.2482 Y 10.0663 Z -1.0000
G01 X 5.2585 Y 10.0889 Z -1.0000
G03 X 5.2441 Y 10.1281 Z -1.0000 I -0.0741 J -0.0049
G02 X 5.2275 Y 10.1603 Z -1.0000 I 0.0911 J 0.0673
G01 X 5.2292 Y 10.1739 Z -1.0000
G01 X 5.2273 Y 10.1801 Z -1.0000
G01 X 5.2131 Y 10.1814 Z -1.0000
G01 X 5.1959 Y 10.1820 Z -1.0000
G01 X 5.1929 Y 10.1880 Z -1.0000
G01 X 5.1999 Y 10.1974 Z -1.0000
G01 X 5.2116 Y 10.2011 Z -1.0000
G01 X 5.2207 Y 10.2068 Z -1.0000
G03 X 5.2288 Y 10.2366 Z -1.0000 I -0.0752 J 0.0364
G03 X 5.2230 Y 10.2654 Z -1.0000 I -0.0535 J 0.0042
G01 X 5.2088 Y 10.2756 Z -1.0000
G01 X 5.1894 Y 10.2831 Z -1.0000
G01 X 5.1810 Y 10.2941 Z -1.0000
G01 X 5.1850 Y 10.3011 Z -1.0000
G02 X 5.2135 Y 10.3013 Z -1.0000 I 0.0146 J -0.0660
G02 X 5.2497 Y 10.2908 Z -1.0000 I -0.0560 J -0.2625
G01 X 5.2613 Y 10.2837 Z -1.0000
G01 X 5.2699 Y 10.2830 Z -1.0000
G01 X 5.2838 Y 10.2988 Z -1.0000
G01 X 5.3205 Y 10.3227 Z -1.0000
G01 X 5.3544 Y 10.3019 Z -1.0000
G02 X 5.3631 Y 10.2736 Z -1.0000 I -0.1048 J -0.0478
G01 X 5.3617 Y 10.2593 Z -1.0000
G01 X 5.3650 Y 10.2494 Z -1.0000
G03 X 5.4067 Y 10.2313 Z -1.0000 I 0.0814 J 0.1308
G03 X 5.4695 Y 10.2245 Z -1.0000 I 0.0537 J 0.2007
G01 X 5.4791 Y 10.2345 Z -1.0000
G01 X 5.4739 Y 10.2462 Z -1.0000
G01 X 5.4597 Y 10.2521 Z -1.0000
G01 X 5.4541 Y 10.2586 Z -1.0000
G01 X 5.4616 Y 10.2769 Z -1.0000
G01 X 5.4415 Y 10.2876 Z -1.0000
G02 X 5.4173 Y 10.2878 Z -1.0000 I -0.0115 J 0.0601
G01 X 5.4074 Y 10.2948 Z -1.0000
G01 X 5.4152 Y 10.3135 Z -1.0000
G02 X 5.4614 Y 10.3074 Z -1.0000 I 0.0151 J -0.0643
G01 X 5.4864 Y 10.3031 Z -1.0000
G03 X 5.5246 Y 10.3170 Z -1.0000 I -0.0154 J 0.1017
G01 X 5.5377 Y 10.3332 Z -1.0000
G01 X 5.5328 Y 10.3402 Z -1.0000
G02 X 5.5050 Y 10.3452 Z -1.0000 I 0.0001 J 0.0802
G02 X 5.4855 Y 10.3577 Z -1.0000 I 0.0188 J 0.0509
G01 X 5.4720 Y 10.3656 Z -1.0000
G01 X 5.4680 Y 10.3626 Z -1.0000
G01 X 5.4642 Y 10.3569 Z -1.0000
G01 X 5.4559 Y 10.3575 Z -1.0000
G01 X 5.4490 Y 10.3671 Z -1.0000
G01 X 5.4493 Y 10.3860 Z -1.0000
G01 X 5.4419 Y 10.4048 Z -1.0000
G01 X 5.4239 Y 10.4020 Z -1.0000
G01 X 5.3952 Y 10.3926 Z -1.0000
G01 X 5.3790 Y 10.4134 Z -1.0000
G01 X 5.3743 Y 10.4217 Z -1.0000
G01 X 5.3634 Y 10.4226 Z -1.0000
G01 X 5.3496 Y 10.4218 Z -1.0000
G01 X 5.3405 Y 10.4285 Z -1.0000
G03 X 5.2935 Y 10.4555 Z -1.0000 I -0.0485 J -0.0300
G01 X 5.2677 Y 10.4304 Z -1.0000
G01 X 5.2413 Y 10.4067 Z -1.0000
G02 X 5.1597 Y 10.4421 Z -1.0000 I 0.0162 J 0.1493
G03 X 5.1386 Y 10.4574 Z -1.0000 I -0.1065 J -0.1243
G03 X 5.1202 Y 10.4662 Z -1.0000 I -0.0512 J -0.0836
G01 X 5.1069 Y 10.4774 Z -1.0000
G01 X 5.1008 Y 10.5013 Z -1.0000
G01 X 5.0847 Y 10.5249 Z -1.0000
G01 X 5.0646 Y 10.5155 Z -1.0000
G01 X 5.0574 Y 10.5103 Z -1.0000
G01 X 5.0431 Y 10.5154 Z -1.0000
G01 X 5.0265 Y 10.5235 Z -1.0000
G01 X 5.0173 Y 10.5210 Z -1.0000
G01 X 5.0162 Y 10.5267 Z -1.0000
G01 X 5.0143 Y 10.5349 Z -1.0000
G01 X 4.9952 Y 10.5406 Z -1.0000
G01 X 4.9744 Y 10.5338 Z -1.0000
G01 X 4.9695 Y 10.5216 Z -1.0000
G01 X 4.9659 Y 10.5072 Z -1.0000
G01 X 4.9509 Y 10.4980 Z -1.0000
G01 X 4.9429 Y 10.5019 Z -1.0000
G01 X 4.9439 Y 10.5115 Z -1.0000
G01 X 4.9457 Y 10.5234 Z -1.0000
G01 X 4.9366 Y 10.5295 Z -1.0000
G01 X 4.9205 Y 10.5370 Z -1.0000
G02 X 4.9074 Y 10.5643 Z -1.0000 I 0.0469 J 0.0393
G01 X 4.9175 Y 10.5989 Z -1.0000
G01 X 4.9523 Y 10.6110 Z -1.0000
G03 X 4.9932 Y 10.6110 Z -1.0000 I 0.0205 J 0.1505
G01 X 4.9960 Y 10.6170 Z -1.0000
G01 X 4.9866 Y 10.6246 Z -1.0000
G01 X 4.9775 Y 10.6236 Z -1.0000
G01 X 4.9692 Y 10.6236 Z -1.0000
G01 X 4.9606 Y 10.6341 Z -1.0000
G01 X 4.9501 Y 10.6437 Z -1.0000
G03 X 4.9231 Y 10.6448 Z -1.0000 I -0.0157 J -0.0552
G01 X 4.8878 Y 10.6528 Z -1.0000
G01 X 4.8838 Y 10.6742 Z -1.0000
G01 X 4.8924 Y 10.6790 Z -1.0000
G01 X 4.9123 Y 10.6738 Z -1.0000
G01 X 4.9294 Y 10.6697 Z -1.0000
G01 X 4.9338 Y 10.6743 Z -1.0000
G01 X 4.9382 Y 10.6811 Z -1.0000
G01 X 4.9529 Y 10.6830 Z -1.0000
G01 X 4.9758 Y 10.7001 Z -1.0000
G01 X 4.9582 Y 10.7260 Z -1.0000
G01 X 4.9428 Y 10.7377 Z -1.0000
G02 X 4.9310 Y 10.7726 Z -1.0000 I 0.0789 J 0.0461
G02 X 4.9372 Y 10.8053 Z -1.0000 I 0.0536 J 0.0067
G01 X 4.9504 Y 10.8078 Z -1.0000
G01 X 4.9592 Y 10.7929 Z -1.0000
G01 X 4.9557 Y 10.7794 Z -1.0000
G01 X 4.9618 Y 10.7684 Z -1.0000
G03 X 4.9957 Y 10.7846 Z -1.0000 I -0.0078 J 0.0599
G02 X 5.0305 Y 10.8056 Z -1.0000 I 0.0648 J -0.0680
G01 X 5.0563 Y 10.8051 Z -1.0000
G03 X 5.0847 Y 10.7974 Z -1.0000 I 0.0502 J 0.1302
G03 X 5.1445 Y 10.7912 Z -1.0000 I 0.0897 J 0.5694
G02 X 5.2015 Y 10.7817 Z -1.0000 I -0.0135 J -0.2559
G01 X 5.2181 Y 10.7701 Z -1.0000
G01 X 5.2366 Y 10.7598 Z -1.0000
G01 X 5.2454 Y 10.7681 Z -1.0000
G01 X 5.2404 Y 10.7804 Z -1.0000
G01 X 5.2232 Y 10.7911 Z -1.0000
G01 X 5.2076 Y 10.8028 Z -1.0000
G01 X 5.2022 Y 10.8224 Z -1.0000
G01 X 5.2086 Y 10.8272 Z -1.0000
G01 X 5.2224 Y 10.8145 Z -1.0000
G01 X 5.2432 Y 10.8211 Z -1.0000
G01 X 5.2517 Y 10.8228 Z -1.0000
G01 X 5.2566 Y 10.8155 Z -1.0000
G01 X 5.2661 Y 10.8062 Z -1.0000
G01 X 5.2853 Y 10.8161 Z -1.0000
G01 X 5.3021 Y 10.8251 Z -1.0000
G02 X 5.3311 Y 10.8185 Z -1.0000 I 0.0028 J -0.0543
G02 X 5.3565 Y 10.7974 Z -1.0000 I -0.0415 J -0.0760
G01 X 5.3660 Y 10.7759 Z -1.0000
G01 X 5.3747 Y 10.7591 Z -1.0000
G01 X 5.3864 Y 10.7568 Z -1.0000
G01 X 5.4060 Y 10.7500 Z -1.0000
G01 X 5.4066 Y 10.7221 Z -1.0000
G03 X 5.4011 Y 10.6947 Z -1.0000 I 0.0450 J -0.0233
G01 X 5.4102 Y 10.6781 Z -1.0000
G03 X 5.4519 Y 10.6640 Z -1.0000 I 0.0420 J 0.0553
G01 X 5.4584 Y 10.6779 Z -1.0000
G01 X 5.4608 Y 10.6857 Z -1.0000
G02 X 5.5031 Y 10.6918 Z -1.0000 I 0.0402 J -0.1291
G03 X 5.5562 Y 10.6982 Z -1.0000 I 0.0032 J 0.1971
G01 X 5.5721 Y 10.7098 Z -1.0000
G01 X 5.5701 Y 10.7295 Z -1.0000
G01 X 5.5523 Y 10.7305 Z -1.0000
G01 X 5.5347 Y 10.7214 Z -1.0000
G01 X 5.5158 Y 10.7209 Z -1.0000
G01 X 5.5135 Y 10.7273 Z -1.0000
G02 X 5.5337 Y 10.7441 Z -1.0000 I 0.0472 J -0.0364
G02 X 5.5723 Y 10.7607 Z -1.0000 I 0.1553 J -0.3075
G02 X 5.5894 Y 10.7641 Z -1.0000 I 0.0201 J -0.0557
G01 X 5.5737 Y 10.7803 Z -1.0000
G01 X 5.5543 Y 10.7961 Z -1.0000
G01 X 5.5641 Y 10.8005 Z -1.0000
G01 X 5.5682 Y 10.8108 Z -1.0000
G01 X 5.5621 Y 10.8184 Z -1.0000
G03 X 5.5238 Y 10.8208 Z -1.0000 I -0.0268 J -0.1198
G02 X 5.4836 Y 10.8234 Z -1.0000 I -0.0121 J 0.1254
G01 X 5.4733 Y 10.8323 Z -1.0000
G01 X 5.4631 Y 10.8415 Z -1.0000
G03 X 5.4244 Y 10.8458 Z -1.0000 I -0.0325 J -0.1179
G02 X 5.3871 Y 10.8528 Z -1.0000 I -0.0041 J 0.0806
G01 X 5.3690 Y 10.8708 Z -1.0000
G03 X 5.3542 Y 10.8902 Z -1.0000 I -0.0495 J -0.0226
G01 X 5.3449 Y 10.8908 Z -1.0000
G02 X 5.2935 Y 10.8769 Z -1.0000 I -0.0490 J 0.0793
G01 X 5.2712 Y 10.8927 Z -1.0000
G01 X 5.2508 Y 10.9090 Z -1.0000
G01 X 5.2325 Y 10.8983 Z -1.0000
G02 X 5.1761 Y 10.8633 Z -1.0000 I -0.0514 J 0.0198
G02 X 5.0697 Y 10.9130 Z -1.0000 I 0.0156 J 0.1720
G01 X 5.0684 Y 10.9187 Z -1.0000
G01 X 5.0763 Y 10.9331 Z -1.0000
G01 X 5.0780 Y 10.9561 Z -1.0000
G03 X 5.0479 Y 10.9795 Z -1.0000 I -0.0462 J -0.0282
G01 X 5.0293 Y 10.9786 Z -1.0000
G01 X 5.0229 Y 10.9689 Z -1.0000
G01 X 5.0168 Y 10.9647 Z -1.0000
G02 X 4.9900 Y 10.9816 Z -1.0000 I 0.0293 J 0.0762
G02 X 4.9667 Y 11.0132 Z -1.0000 I 0.0752 J 0.0797
G01 X 4.9683 Y 11.0260 Z -1.0000
G01 X 4.9722 Y 11.0383 Z -1.0000
G01 X 4.9666 Y 11.0474 Z -1.0000
G01 X 4.9626 Y 11.0556 Z -1.0000
G01 X 4.9688 Y 11.0660 Z -1.0000
G01 X 4.9747 Y 11.0755 Z -1.0000
G01 X 4.9711 Y 11.0818 Z -1.0000
G01 X 4.9644 Y 11.0909 Z -1.0000
G02 X 4.9625 Y 11.1612 Z -1.0000 I 0.4259 J 0.0463
G03 X 4.9613 Y 11.2325 Z -1.0000 I -0.4902 J 0.0275
G01 X 4.9553 Y 11.2423 Z -1.0000
G01 X 4.9473 Y 11.2515 Z -1.0000
G02 X 4.9421 Y 11.2722 Z -1.0000 I 0.0578 J 0.0254
G01 X 4.9355 Y 11.2873 Z -1.0000
G01 X 4.9260 Y 11.2895 Z -1.0000
G01 X 4.9169 Y 11.2917 Z -1.0000
G01 X 4.9116 Y 11.3062 Z -1.0000
G01 X 4.9065 Y 11.3250 Z -1.0000
G01 X 4.8949 Y 11.3348 Z -1.0000
G01 X 4.8864 Y 11.3492 Z -1.0000
G01 X 4.8980 Y 11.3569 Z -1.0000
G01 X 4.9173 Y 11.3570 Z -1.0000
G03 X 4.9731 Y 11.3770 Z -1.0000 I -0.0920 J 0.3454
G02 X 5.0287 Y 11.4014 Z -1.0000 I 0.9782 J -2.1487
G02 X 5.0507 Y 11.4099 Z -1.0000 I 0.1382 J -0.3255
G01 X 5.0526 Y 11.4149 Z -1.0000
G01 X 5.0451 Y 11.4196 Z -1.0000
G01 X 5.0312 Y 11.4272 Z -1.0000
G01 X 5.0418 Y 11.4350 Z -1.0000
G01 X 5.0451 Y 11.4442 Z -1.0000
G01 X 5.0411 Y 11.4497 Z -1.0000
G01 X 5.0290 Y 11.4494 Z -1.0000
G01 X 5.0199 Y 11.4503 Z -1.0000
G01 X 5.0179 Y 11.4566 Z -1.0000
G01 X 5.0092 Y 11.4811 Z -1.0000
G03 X 4.9483 Y 11.4978 Z -1.0000 I -0.0609 J -0.1030
G01 X 4.9375 Y 11.5014 Z -1.0000
G01 X 4.9338 Y 11.5089 Z -1.0000
G01 X 4.9376 Y 11.5162 Z -1.0000
G01 X 4.9499 Y 11.5200 Z -1.0000
G01 X 4.9641 Y 11.5168 Z -1.0000
G01 X 4.9728 Y 11.5089 Z -1.0000
G01 X 5.0047 Y 11.4917 Z -1.0000
G01 X 5.0229 Y 11.5105 Z -1.0000
G01 X 5.0194 Y 11.5215 Z -1.0000
G03 X 5.0034 Y 11.5383 Z -1.0000 I -0.0639 J -0.0448
G01 X 5.0028 Y 11.5469 Z -1.0000
G01 X 5.0174 Y 11.5501 Z -1.0000
G03 X 5.0392 Y 11.5821 Z -1.0000 I -0.0665 J 0.0688
G03 X 5.0514 Y 11.6242 Z -1.0000 I -0.1788 J 0.0747
G03 X 5.0503 Y 11.6471 Z -1.0000 I -0.0524 J 0.0090
G01 X 5.0533 Y 11.6514 Z -1.0000
G01 X 5.0609 Y 11.6480 Z -1.0000
G03 X 5.0781 Y 11.6261 Z -1.0000 I 0.6507 J 0.4939
G03 X 5.0920 Y 11.6098 Z -1.0000 I 0.3693 J 0.3007
G02 X 5.1049 Y 11.5929 Z -1.0000 I -0.0998 J -0.0891
G02 X 5.1125 Y 11.5779 Z -1.0000 I -0.0707 J -0.0453
G03 X 5.1414 Y 11.5484 Z -1.0000 I 0.0489 J 0.0190
G03 X 5.2260 Y 11.5314 Z -1.0000 I 0.0865 J 0.2108
G01 X 5.2414 Y 11.5271 Z -1.0000
G01 X 5.2454 Y 11.5201 Z -1.0000
G01 X 5.2603 Y 11.5060 Z -1.0000
G01 X 5.2814 Y 11.5222 Z -1.0000
G01 X 5.2882 Y 11.5253 Z -1.0000
G02 X 5.3101 Y 11.5110 Z -1.0000 I -0.0231 J -0.0595
G03 X 5.3357 Y 11.4896 Z -1.0000 I 0.1343 J 0.1343
G01 X 5.3450 Y 11.4867 Z -1.0000
G01 X 5.3539 Y 11.4836 Z -1.0000
G02 X 5.3700 Y 11.4672 Z -1.0000 I -0.0534 J -0.0685
G03 X 5.3868 Y 11.4515 Z -1.0000 I 0.0530 J 0.0396
G01 X 5.4040 Y 11.4450 Z -1.0000
G02 X 5.4235 Y 11.4422 Z -1.0000 I -0.9956 J -7.1092
G02 X 5.4430 Y 11.4394 Z -1.0000 I -0.4356 J -3.0494
G01 X 5.4550 Y 11.4444 Z -1.0000
G01 X 5.4598 Y 11.4618 Z -1.0000
G01 X 5.4658 Y 11.4770 Z -1.0000
G01 X 5.4820 Y 11.4808 Z -1.0000
G03 X 5.5617 Y 11.4675 Z -1.0000 I 0.1210 J 0.4817
G01 X 5.5826 Y 11.4723 Z -1.0000
G01 X 5.5854 Y 11.4786 Z -1.0000
G01 X 5.5785 Y 11.4932 Z -1.0000
G01 X 5.5729 Y 11.5089 Z -1.0000
G02 X 5.6137 Y 11.4893 Z -1.0000 I -0.0000 J -0.0521
G02 X 5.6346 Y 11.4313 Z -1.0000 I -0.0755 J -0.0600
G01 X 5.6391 Y 11.4286 Z -1.0000
G01 X 5.6531 Y 11.4409 Z -1.0000
G03 X 5.6625 Y 11.4650 Z -1.0000 I -0.0443 J 0.0310
G01 X 5.6575 Y 11.4754 Z -1.0000
G01 X 5.6501 Y 11.5032 Z -1.0000
G02 X 5.6906 Y 11.5368 Z -1.0000 I 0.0617 J -0.0332
G01 X 5.7140 Y 11.5634 Z -1.0000
G01 X 5.7008 Y 11.5930 Z -1.0000
G01 X 5.6903 Y 11.5932 Z -1.0000
G03 X 5.6725 Y 11.5770 Z -1.0000 I 0.0267 J -0.0474
G01 X 5.6547 Y 11.5672 Z -1.0000
G01 X 5.6332 Y 11.5749 Z -1.0000
G01 X 5.6327 Y 11.6013 Z -1.0000
G02 X 5.6783 Y 11.6202 Z -1.0000 I 0.0456 J -0.0455
G02 X 5.7255 Y 11.6109 Z -1.0000 I -0.0000 J -0.1240
G01 X 5.7438 Y 11.5933 Z -1.0000
G01 X 5.7602 Y 11.5749 Z -1.0000
G01 X 5.7788 Y 11.5723 Z -1.0000
G01 X 5.7969 Y 11.5692 Z -1.0000
G01 X 5.8122 Y 11.5500 Z -1.0000
G03 X 5.8264 Y 11.5248 Z -1.0000 I 0.0905 J 0.0344
G03 X 5.8430 Y 11.5106 Z -1.0000 I 0.0436 J 0.0340
G01 X 5.8532 Y 11.4958 Z -1.0000
G02 X 5.8501 Y 11.4651 Z -1.0000 I -0.0599 J -0.0093
G03 X 5.8433 Y 11.4305 Z -1.0000 I 0.0989 J -0.0374
G03 X 5.8481 Y 11.3910 Z -1.0000 I 0.1352 J -0.0035
G02 X 5.8500 Y 11.3543 Z -1.0000 I -0.0818 J -0.0226
G01 X 5.8389 Y 11.3360 Z -1.0000
G01 X 5.8375 Y 11.3298 Z -1.0000
G01 X 5.8436 Y 11.3271 Z -1.0000
G03 X 5.8649 Y 11.3363 Z -1.0000 I -0.0178 J 0.0701
G01 X 5.8687 Y 11.3432 Z -1.0000
G01 X 5.8725 Y 11.3492 Z -1.0000
G01 X 5.8909 Y 11.3530 Z -1.0000
G01 X 5.9073 Y 11.3472 Z -1.0000
G01 X 5.9132 Y 11.3350 Z -1.0000
G01 X 5.9185 Y 11.3282 Z -1.0000
G01 X 5.9299 Y 11.3308 Z -1.0000
G01 X 5.9422 Y 11.3467 Z -1.0000
G01 X 5.9466 Y 11.3663 Z -1.0000
G01 X 5.9533 Y 11.3787 Z -1.0000
G01 X 5.9688 Y 11.3809 Z -1.0000
G01 X 5.9858 Y 11.3810 Z -1.0000
G01 X 5.9912 Y 11.3885 Z -1.0000
G01 X 5.9945 Y 11.3922 Z -1.0000
G01 X 5.9999 Y 11.3898 Z -1.0000
G01 X 6.0099 Y 11.3834 Z -1.0000
G01 X 6.0248 Y 11.3868 Z -1.0000
G02 X 6.0420 Y 11.3942 Z -1.0000 I 0.0321 J -0.0508
G02 X 6.0662 Y 11.3973 Z -1.0000 I 0.0248 J -0.0975
G01 X 6.0858 Y 11.4029 Z -1.0000
G01 X 6.0912 Y 11.4128 Z -1.0000
G01 X 6.0969 Y 11.4234 Z -1.0000
G02 X 6.1236 Y 11.4345 Z -1.0000 I 0.0412 J -0.0612
G01 X 6.1436 Y 11.4499 Z -1.0000
G03 X 6.1498 Y 11.4877 Z -1.0000 I -0.0591 J 0.0290
G02 X 6.1519 Y 11.5308 Z -1.0000 I 0.1168 J 0.0157
G01 X 6.1646 Y 11.5498 Z -1.0000
G01 X 6.1740 Y 11.5652 Z -1.0000
G01 X 6.1691 Y 11.5770 Z -1.0000
G01 X 6.1676 Y 11.5812 Z -1.0000
G01 X 6.1709 Y 11.5829 Z -1.0000
G01 X 6.2062 Y 11.5911 Z -1.0000
G03 X 6.2248 Y 11.6349 Z -1.0000 I -0.0421 J 0.0437
G01 X 6.2406 Y 11.6503 Z -1.0000
G01 X 6.2684 Y 11.6340 Z -1.0000
G01 X 6.2758 Y 11.6297 Z -1.0000
G01 X 6.2801 Y 11.6340 Z -1.0000
G01 X 6.2844 Y 11.6494 Z -1.0000
G01 X 6.2915 Y 11.6534 Z -1.0000
G01 X 6.2988 Y 11.6496 Z -1.0000
G01 X 6.3027 Y 11.6368 Z -1.0000
G01 X 6.3083 Y 11.6256 Z -1.0000
G01 X 6.3249 Y 11.6201 Z -1.0000
G01 X 6.3433 Y 11.6161 Z -1.0000
G01 X 6.3472 Y 11.6102 Z -1.0000
G01 X 6.3504 Y 11.6024 Z -1.0000
G01 X 6.3633 Y 11.5940 Z -1.0000
G01 X 6.3711 Y 11.5963 Z -1.0000
G01 X 6.3726 Y 11.6068 Z -1.0000
G01 X 6.3758 Y 11.6109 Z -1.0000
G01 X 6.3894 Y 11.6049 Z -1.0000
G01 X 6.3994 Y 11.6058 Z -1.0000
G01 X 6.4025 Y 11.6215 Z -1.0000
G02 X 6.3923 Y 11.6590 Z -1.0000 I 1.2884 J 0.3695
G01 X 6.3917 Y 11.6635 Z -1.0000
G01 X 6.3680 Y 11.6469 Z -1.0000
G01 X 6.3553 Y 11.6429 Z -1.0000
G01 X 6.3514 Y 11.6488 Z -1.0000
G01 X 6.3447 Y 11.6615 Z -1.0000
G03 X 6.2797 Y 11.6707 Z -1.0000 I -0.0619 J -0.2026
G02 X 6.2024 Y 11.6726 Z -1.0000 I -0.0147 J 1.0041
G01 X 6.1970 Y 11.6758 Z -1.0000
G01 X 6.1916 Y 11.6796 Z -1.0000
G03 X 6.1566 Y 11.6848 Z -1.0000 I -0.0529 J -0.2348
G02 X 6.1211 Y 11.6895 Z -1.0000 I 0.0241 J 0.3219
G01 X 6.1152 Y 11.6926 Z -1.0000
G01 X 6.1122 Y 11.6985 Z -1.0000
G02 X 6.1049 Y 11.7533 Z -1.0000 I 0.7535 J 0.1280
G03 X 6.0952 Y 11.8003 Z -1.0000 I -0.2228 J -0.0214
G01 X 6.0891 Y 11.8025 Z -1.0000
G01 X 6.0792 Y 11.8016 Z -1.0000
G02 X 6.0578 Y 11.8149 Z -1.0000 I 0.0254 J 0.0648
G03 X 6.0365 Y 11.8281 Z -1.0000 I -0.0457 J -0.0505
G01 X 6.0261 Y 11.8271 Z -1.0000
G01 X 5.9946 Y 11.8240 Z -1.0000
G02 X 5.9393 Y 11.8596 Z -1.0000 I 0.0542 J 0.1451
G01 X 5.9153 Y 11.8647 Z -1.0000
G01 X 5.9020 Y 11.8454 Z -1.0000
G01 X 5.8974 Y 11.8383 Z -1.0000
G01 X 5.8894 Y 11.8398 Z -1.0000
G01 X 5.8856 Y 11.8525 Z -1.0000
G01 X 5.8958 Y 11.8715 Z -1.0000
G01 X 5.8964 Y 11.8934 Z -1.0000
G01 X 5.8688 Y 11.9017 Z -1.0000
G01 X 5.8521 Y 11.9043 Z -1.0000
G02 X 5.8266 Y 11.9283 Z -1.0000 I 0.0479 J 0.0762
G02 X 5.8135 Y 11.9600 Z -1.0000 I 0.0622 J 0.0443
G01 X 5.8181 Y 11.9793 Z -1.0000
G01 X 5.8350 Y 11.9930 Z -1.0000
G02 X 5.8615 Y 11.9986 Z -1.0000 I 0.0265 J -0.0599
G01 X 5.8848 Y 12.0047 Z -1.0000
G01 X 5.8909 Y 12.0153 Z -1.0000
G01 X 5.8958 Y 12.0271 Z -1.0000
G01 X 5.9073 Y 12.0320 Z -1.0000
G01 X 5.9162 Y 12.0370 Z -1.0000
G01 X 5.9172 Y 12.0487 Z -1.0000
G01 X 5.9185 Y 12.0600 Z -1.0000
G01 X 5.9287 Y 12.0653 Z -1.0000
G01 X 5.9426 Y 12.0614 Z -1.0000
G01 X 5.9466 Y 12.0542 Z -1.0000
G01 X 5.9509 Y 12.0474 Z -1.0000
G01 X 5.9699 Y 12.0431 Z -1.0000
G01 X 5.9883 Y 12.0368 Z -1.0000
G01 X 5.9990 Y 12.0206 Z -1.0000
G01 X 6.0084 Y 12.0088 Z -1.0000
G01 X 6.0192 Y 12.0099 Z -1.0000
G02 X 6.0692 Y 12.0228 Z -1.0000 I 0.0386 J -0.0465
G01 X 6.0912 Y 11.9961 Z -1.0000
G01 X 6.0957 Y 11.9906 Z -1.0000
G01 X 6.1149 Y 11.9911 Z -1.0000
G02 X 6.1377 Y 11.9918 Z -1.0000 I 0.0130 J -0.0497
G02 X 6.1622 Y 11.9819 Z -1.0000 I -0.0133 J -0.0680
G03 X 6.1876 Y 11.9719 Z -1.0000 I 0.0365 J 0.0558
G03 X 6.2860 Y 11.9610 Z -1.0000 I 0.1460 J 0.8673
G02 X 6.4223 Y 11.9396 Z -1.0000 I -0.0364 J -0.6774
G01 X 6.4336 Y 11.9222 Z -1.0000
G01 X 6.4368 Y 11.9093 Z -1.0000
G01 X 6.4474 Y 11.9040 Z -1.0000
G01 X 6.4585 Y 11.9087 Z -1.0000
G01 X 6.4613 Y 11.9180 Z -1.0000
G01 X 6.4630 Y 11.9282 Z -1.0000
G01 X 6.4696 Y 11.9319 Z -1.0000
G01 X 6.4769 Y 11.9280 Z -1.0000
G01 X 6.4807 Y 11.9152 Z -1.0000
G01 X 6.4851 Y 11.9023 Z -1.0000
G01 X 6.4947 Y 11.8968 Z -1.0000
G03 X 6.7551 Y 11.8791 Z -1.0000 I 0.2995 J 2.4789
G03 X 6.8021 Y 11.8921 Z -1.0000 I 0.0014 J 0.0864
G01 X 6.8120 Y 11.8946 Z -1.0000
G02 X 6.8992 Y 11.8863 Z -1.0000 I -0.0721 J -1.2242
G03 X 6.9872 Y 11.8765 Z -1.0000 I 0.3026 J 2.3216
G03 X 7.0539 Y 11.8721 Z -1.0000 I 0.1182 J 1.2847
G02 X 7.1200 Y 11.8653 Z -1.0000 I -0.0218 J -0.5335
G02 X 7.1850 Y 11.8502 Z -1.0000 I -0.0876 J -0.5250
G03 X 7.2488 Y 11.8353 Z -1.0000 I 0.1514 J 0.5055
G01 X 7.2601 Y 11.8376 Z -1.0000
G01 X 7.2674 Y 11.8380 Z -1.0000
G01 X 7.2709 Y 11.8326 Z -1.0000
G01 X 7.2756 Y 11.8261 Z -1.0000
G03 X 7.3006 Y 11.8234 Z -1.0000 I 0.0195 J 0.0631
G02 X 7.3269 Y 11.8206 Z -1.0000 I 0.0059 J -0.0691
G01 X 7.3347 Y 11.8129 Z -1.0000
G01 X 7.3425 Y 11.8078 Z -1.0000
G03 X 7.3791 Y 11.8168 Z -1.0000 I -0.0104 J 0.1211
G02 X 7.4188 Y 11.8262 Z -1.0000 I 0.0477 J -0.1142
G01 X 7.4428 Y 11.8209 Z -1.0000
G03 X 7.4669 Y 11.8145 Z -1.0000 I 0.0258 J 0.0482
G03 X 7.4953 Y 11.8192 Z -1.0000 I 0.0023 J 0.0734
G01 X 7.5193 Y 11.8188 Z -1.0000
G01 X 7.5370 Y 11.8017 Z -1.0000
G01 X 7.5516 Y 11.7889 Z -1.0000
G01 X 7.5648 Y 11.7934 Z -1.0000
G01 X 7.5785 Y 11.7991 Z -1.0000
G01 X 7.5925 Y 11.7893 Z -1.0000
G01 X 7.6092 Y 11.7712 Z -1.0000
G01 X 7.6302 Y 11.7652 Z -1.0000
G01 X 7.6408 Y 11.7693 Z -1.0000
G01 X 7.6404 Y 11.7745 Z -1.0000
G01 X 7.6390 Y 11.7988 Z -1.0000
G01 X 7.6784 Y 11.8050 Z -1.0000
G01 X 7.6946 Y 11.8047 Z -1.0000
G01 X 7.7096 Y 11.8157 Z -1.0000
G01 X 7.7258 Y 11.8233 Z -1.0000
G02 X 7.7928 Y 11.8098 Z -1.0000 I -0.0190 J -0.2682
G02 X 7.8588 Y 11.7800 Z -1.0000 I -0.1164 J -0.3455
G02 X 7.8907 Y 11.7533 Z -1.0000 I -0.0602 J -0.1042
G03 X 7.9202 Y 11.7245 Z -1.0000 I 0.1580 J 0.1329
G01 X 7.9320 Y 11.7204 Z -1.0000
G01 X 7.9575 Y 11.6941 Z -1.0000
G02 X 7.9291 Y 11.6286 Z -1.0000 I -0.0971 J 0.0031
G01 X 7.9232 Y 11.6088 Z -1.0000
G01 X 7.9345 Y 11.6026 Z -1.0000
G01 X 7.9505 Y 11.6026 Z -1.0000
G01 X 7.9666 Y 11.5903 Z -1.0000
G01 X 7.9819 Y 11.5808 Z -1.0000
G01 X 7.9975 Y 11.5850 Z -1.0000
G01 X 8.0118 Y 11.5900 Z -1.0000
G01 X 8.0192 Y 11.5846 Z -1.0000
G01 X 8.0266 Y 11.5791 Z -1.0000
G01 X 8.0405 Y 11.5838 Z -1.0000
G01 X 8.0584 Y 11.5906 Z -1.0000
G02 X 8.0983 Y 11.5860 Z -1.0000 I 0.0050 J -0.1319
G03 X 8.2152 Y 11.5669 Z -1.0000 I 0.1463 J 0.5298
G01 X 8.2280 Y 11.5791 Z -1.0000
G01 X 8.2318 Y 11.5833 Z -1.0000
G01 X 8.2501 Y 11.5815 Z -1.0000
G01 X 8.2766 Y 11.5874 Z -1.0000
G01 X 8.2770 Y 11.6064 Z -1.0000
G01 X 8.2580 Y 11.6157 Z -1.0000
G01 X 8.2384 Y 11.6115 Z -1.0000
G01 X 8.2195 Y 11.6054 Z -1.0000
G01 X 8.2108 Y 11.6100 Z -1.0000
G01 X 8.2020 Y 11.6163 Z -1.0000
G01 X 8.1853 Y 11.6156 Z -1.0000
G01 X 8.1558 Y 11.6200 Z -1.0000
G01 X 8.1374 Y 11.6482 Z -1.0000
G01 X 8.1285 Y 11.6667 Z -1.0000
G03 X 8.1089 Y 11.6812 Z -1.0000 I -0.0418 J -0.0360
G02 X 8.0826 Y 11.7066 Z -1.0000 I 0.0214 J 0.0485
G01 X 8.0805 Y 11.7400 Z -1.0000
G01 X 8.0998 Y 11.7523 Z -1.0000
G01 X 8.1269 Y 11.7344 Z -1.0000
G01 X 8.1344 Y 11.7296 Z -1.0000
G01 X 8.1386 Y 11.7332 Z -1.0000
G01 X 8.1433 Y 11.7485 Z -1.0000
G01 X 8.1545 Y 11.7575 Z -1.0000
G02 X 8.1923 Y 11.7606 Z -1.0000 I 0.0242 J -0.0633
G02 X 8.2347 Y 11.7411 Z -1.0000 I -0.0206 J -0.1008
G01 X 8.2481 Y 11.7361 Z -1.0000
G03 X 8.2820 Y 11.7385 Z -1.0000 I 0.0072 J 0.1375
G01 X 8.3084 Y 11.7350 Z -1.0000
G01 X 8.3170 Y 11.7212 Z -1.0000
G01 X 8.3216 Y 11.7053 Z -1.0000
G01 X 8.3281 Y 11.7038 Z -1.0000
G01 X 8.3467 Y 11.6989 Z -1.0000
G01 X 8.3440 Y 11.6751 Z -1.0000
G01 X 8.3338 Y 11.6539 Z -1.0000
G01 X 8.3379 Y 11.6386 Z -1.0000
G01 X 8.3455 Y 11.6223 Z -1.0000
G01 X 8.3438 Y 11.6050 Z -1.0000
G01 X 8.3474 Y 11.5942 Z -1.0000
G01 X 8.3721 Y 11.5869 Z -1.0000
G03 X 8.3967 Y 11.5929 Z -1.0000 I 0.0000 J 0.0539
G01 X 8.3988 Y 11.6007 Z -1.0000
G01 X 8.3932 Y 11.6153 Z -1.0000
G02 X 8.3882 Y 11.6563 Z -1.0000 I 0.2942 J 0.0562
G02 X 8.3944 Y 11.6903 Z -1.0000 I 0.0752 J 0.0038
G01 X 8.4065 Y 11.6982 Z -1.0000
G03 X 8.4251 Y 11.7016 Z -1.0000 I 0.0000 J 0.0529
G01 X 8.4331 Y 11.7081 Z -1.0000
G01 X 8.4602 Y 11.7223 Z -1.0000
G02 X 8.6026 Y 11.6991 Z -1.0000 I -0.0362 J -0.6728
G03 X 8.6291 Y 11.6976 Z -1.0000 I 0.0168 J 0.0607
G01 X 8.6326 Y 11.7037 Z -1.0000
G01 X 8.6369 Y 11.7113 Z -1.0000
G02 X 8.7085 Y 11.7176 Z -1.0000 I 0.0691 J -0.3782
G03 X 8.7898 Y 11.7194 Z -1.0000 I 0.0092 J 1.4322
G03 X 8.8405 Y 11.7243 Z -1.0000 I -0.0277 J 0.5492
G02 X 8.8897 Y 11.7239 Z -1.0000 I 0.0234 J -0.1630
G02 X 8.9346 Y 11.7093 Z -1.0000 I -0.0236 J -0.1489
G03 X 9.0024 Y 11.6914 Z -1.0000 I 0.0751 J 0.1473
G01 X 9.0271 Y 11.7052 Z -1.0000
G01 X 9.0375 Y 11.7136 Z -1.0000
G01 X 9.0450 Y 11.7108 Z -1.0000
G01 X 9.0461 Y 11.7020 Z -1.0000
G01 X 9.0410 Y 11.6982 Z -1.0000
G01 X 9.0337 Y 11.6938 Z -1.0000
G01 X 9.0292 Y 11.6760 Z -1.0000
G01 X 9.0335 Y 11.6580 Z -1.0000
G01 X 9.0404 Y 11.6537 Z -1.0000
G01 X 9.0476 Y 11.6576 Z -1.0000
G01 X 9.0515 Y 11.6701 Z -1.0000
G01 X 9.0577 Y 11.6795 Z -1.0000
G01 X 9.0821 Y 11.6827 Z -1.0000
G01 X 9.0988 Y 11.6838 Z -1.0000
G01 X 9.0892 Y 11.6955 Z -1.0000
G01 X 9.0940 Y 11.7177 Z -1.0000
G01 X 9.1055 Y 11.7225 Z -1.0000
G02 X 9.1625 Y 11.7029 Z -1.0000 I -0.0544 J -0.2508
G03 X 9.2230 Y 11.6812 Z -1.0000 I 0.1335 J 0.2768
G03 X 9.2564 Y 11.6800 Z -1.0000 I 0.0196 J 0.0803
G02 X 9.2907 Y 11.6823 Z -1.0000 I 0.0290 J -0.1711
G02 X 9.3353 Y 11.6776 Z -1.0000 I -0.0092 J -0.2970
G03 X 9.3786 Y 11.6767 Z -1.0000 I 0.0244 J 0.1318
G03 X 9.4159 Y 11.6892 Z -1.0000 I -0.0155 J 0.1086
G01 X 9.4456 Y 11.6948 Z -1.0000
G01 X 9.4534 Y 11.6844 Z -1.0000
G01 X 9.4565 Y 11.6798 Z -1.0000
G03 X 9.4855 Y 11.6761 Z -1.0000 I 0.0290 J 0.1128
G01 X 9.5090 Y 11.6643 Z -1.0000
G01 X 9.5050 Y 11.6501 Z -1.0000
G01 X 9.5105 Y 11.6436 Z -1.0000
G01 X 9.5247 Y 11.6482 Z -1.0000
G01 X 9.5300 Y 11.6594 Z -1.0000
G01 X 9.5412 Y 11.6720 Z -1.0000
G01 X 9.5526 Y 11.6622 Z -1.0000
G01 X 9.5634 Y 11.6662 Z -1.0000
G01 X 9.5780 Y 11.6770 Z -1.0000
G02 X 9.6422 Y 11.6850 Z -1.0000 I 0.0684 J -0.2857
G03 X 9.7103 Y 11.6883 Z -1.0000 I -0.0143 J 1.0074
G03 X 9.7441 Y 11.6933 Z -1.0000 I -0.0212 J 0.2588
G02 X 9.7686 Y 11.6943 Z -1.0000 I 0.0150 J -0.0688
G01 X 9.7708 Y 11.6896 Z -1.0000
G01 X 9.7718 Y 11.6817 Z -1.0000
G01 X 9.7885 Y 11.6722 Z -1.0000
G01 X 9.8106 Y 11.6717 Z -1.0000
G01 X 9.8213 Y 11.6792 Z -1.0000
G02 X 9.9001 Y 11.7224 Z -1.0000 I 0.0775 J -0.0479
G02 X 10.0248 Y 11.6765 Z -1.0000 I -0.0028 J -0.1999
G01 X 10.0415 Y 11.6758 Z -1.0000
G03 X 10.0688 Y 11.7071 Z -1.0000 I -0.0485 J 0.0698
G02 X 10.0895 Y 11.7360 Z -1.0000 I 0.1051 J -0.0535
G01 X 10.0981 Y 11.7370 Z -1.0000
G01 X 10.1043 Y 11.7384 Z -1.0000
G01 X 10.1087 Y 11.7525 Z -1.0000
G02 X 10.1203 Y 11.7877 Z -1.0000 I 0.0591 J -0.0000
G02 X 10.1522 Y 11.8114 Z -1.0000 I 0.0551 J -0.0407
G01 X 10.1597 Y 11.8179 Z -1.0000
G03 X 10.1700 Y 11.8445 Z -1.0000 I -0.1010 J 0.0542
G01 X 10.1680 Y 11.8712 Z -1.0000
G03 X 10.1457 Y 11.9037 Z -1.0000 I -0.0868 J -0.0356
G03 X 10.1109 Y 11.9234 Z -1.0000 I -0.0570 J -0.0602
G03 X 10.0620 Y 11.9269 Z -1.0000 I -0.0333 J -0.1200
G03 X 9.9464 Y 11.8967 Z -1.0000 I 0.0581 J -0.4590
G01 X 9.9303 Y 11.8735 Z -1.0000
G01 X 9.9259 Y 11.8711 Z -1.0000
G02 X 9.9073 Y 11.8869 Z -1.0000 I 0.0360 J 0.0614
G03 X 9.8369 Y 11.9182 Z -1.0000 I -0.0669 J -0.0556
G03 X 9.6742 Y 11.8774 Z -1.0000 I 0.0167 J -0.4119
G02 X 9.6115 Y 11.8634 Z -1.0000 I -0.0610 J 0.1263
G01 X 9.5989 Y 11.8782 Z -1.0000
G01 X 9.5937 Y 11.8967 Z -1.0000
G01 X 9.5725 Y 11.9105 Z -1.0000
G03 X 9.5463 Y 11.9113 Z -1.0000 I -0.0147 J -0.0545
G01 X 9.5367 Y 11.9031 Z -1.0000
G01 X 9.5200 Y 11.8941 Z -1.0000
G01 X 9.5077 Y 11.9093 Z -1.0000
G01 X 9.5000 Y 11.9244 Z -1.0000
G03 X 9.4688 Y 11.9371 Z -1.0000 I -0.0424 J -0.0594
G02 X 9.4298 Y 11.9431 Z -1.0000 I 2.5272 J 16.4061
G02 X 9.3893 Y 11.9495 Z -1.0000 I 3.0145 J 19.2655
G03 X 9.3516 Y 11.9494 Z -1.0000 I -0.0183 J -0.1164
G01 X 9.3394 Y 11.9412 Z -1.0000
G03 X 9.3251 Y 11.8868 Z -1.0000 I 0.0780 J -0.0495
G01 X 9.3436 Y 11.8625 Z -1.0000
G01 X 9.3485 Y 11.8552 Z -1.0000
G01 X 9.3422 Y 11.8393 Z -1.0000
G02 X 9.2904 Y 11.8142 Z -1.0000 I -0.0532 J 0.0440
G01 X 9.2558 Y 11.8375 Z -1.0000
G01 X 9.2462 Y 11.8496 Z -1.0000
G01 X 9.2310 Y 11.8542 Z -1.0000
G01 X 9.2209 Y 11.8618 Z -1.0000
G02 X 9.2167 Y 11.9043 Z -1.0000 I 0.1153 J 0.0330
G03 X 9.2122 Y 11.9432 Z -1.0000 I -0.1009 J 0.0080
G01 X 9.2028 Y 11.9477 Z -1.0000
G01 X 9.1885 Y 11.9384 Z -1.0000
G01 X 9.1850 Y 11.9301 Z -1.0000
G01 X 9.1816 Y 11.9277 Z -1.0000
G01 X 9.1675 Y 11.9369 Z -1.0000
G03 X 9.0863 Y 11.9736 Z -1.0000 I -0.0892 J -0.0892
G01 X 9.0682 Y 11.9433 Z -1.0000
G01 X 9.0664 Y 11.9370 Z -1.0000
G01 X 9.0472 Y 11.9322 Z -1.0000
G02 X 9.0216 Y 11.9362 Z -1.0000 I -0.0000 J 0.0839
G01 X 9.0125 Y 11.9433 Z -1.0000
G01 X 8.9698 Y 11.9633 Z -1.0000
G03 X 8.9140 Y 11.9294 Z -1.0000 I 0.0115 J -0.0817
G01 X 8.8959 Y 11.9189 Z -1.0000
G01 X 8.8793 Y 11.9260 Z -1.0000
G03 X 8.8605 Y 11.9448 Z -1.0000 I -0.0894 J -0.0703
G01 X 8.8484 Y 11.9505 Z -1.0000
G02 X 8.8345 Y 11.9534 Z -1.0000 I 0.3179 J 1.5198
G02 X 8.8066 Y 11.9597 Z -1.0000 I 0.6394 J 2.9235
G01 X 8.8011 Y 11.9557 Z -1.0000
G01 X 8.6883 Y 11.9531 Z -1.0000
G01 X 8.6695 Y 11.9605 Z -1.0000
G01 X 8.6584 Y 11.9781 Z -1.0000
G01 X 8.6477 Y 11.9931 Z -1.0000
G01 X 8.6334 Y 11.9946 Z -1.0000
G01 X 8.6155 Y 11.9925 Z -1.0000
G01 X 8.6009 Y 11.9988 Z -1.0000
G01 X 8.5861 Y 12.0036 Z -1.0000
G03 X 8.5494 Y 11.9951 Z -1.0000 I 0.0090 J -0.1230
G02 X 8.4513 Y 11.9750 Z -1.0000 I -0.1049 J 0.2625
G02 X 8.4094 Y 11.9917 Z -1.0000 I -0.0014 J 0.0573
G03 X 8.3508 Y 12.0144 Z -1.0000 I -0.0548 J -0.0548
G01 X 8.3149 Y 11.9871 Z -1.0000
G01 X 8.3015 Y 11.9790 Z -1.0000
G02 X 8.1834 Y 12.0075 Z -1.0000 I 0.1118 J 0.7223
G03 X 8.0914 Y 12.0228 Z -1.0000 I -0.0949 J -0.2864
G01 X 8.0657 Y 12.0086 Z -1.0000
G01 X 8.0581 Y 12.0047 Z -1.0000
G01 X 8.0383 Y 12.0103 Z -1.0000
G03 X 8.0164 Y 12.0170 Z -1.0000 I -0.0277 J -0.0516
G03 X 7.9905 Y 12.0151 Z -1.0000 I -0.0075 J -0.0762
G02 X 7.9644 Y 12.0140 Z -1.0000 I -0.0157 J 0.0620
G02 X 7.9215 Y 12.0262 Z -1.0000 I 0.0312 J 0.1905
G03 X 7.8777 Y 12.0378 Z -1.0000 I -0.0638 J -0.1526
G03 X 7.7780 Y 12.0437 Z -1.0000 I -0.0973 J -0.7992
G02 X 7.6213 Y 12.0487 Z -1.0000 I -0.0066 J 2.2506
G01 X 7.6159 Y 12.0545 Z -1.0000
G01 X 7.6117 Y 12.0589 Z -1.0000
G03 X 7.4573 Y 12.0625 Z -1.0000 I -0.1446 J -2.8656
G02 X 7.2999 Y 12.0681 Z -1.0000 I -0.0056 J 2.0755
G02 X 7.2653 Y 12.0766 Z -1.0000 I 0.0078 J 0.1058
G03 X 7.2076 Y 12.0929 Z -1.0000 I -0.0885 J -0.2033
G03 X 7.0999 Y 12.0998 Z -1.0000 I -0.1001 J -0.7137
G02 X 7.0409 Y 12.1104 Z -1.0000 I -0.0017 J 0.1603
G01 X 7.0427 Y 12.1217 Z -1.0000
G01 X 7.0458 Y 12.1260 Z -1.0000
G01 X 7.0394 Y 12.1330 Z -1.0000
G03 X 6.9753 Y 12.1439 Z -1.0000 I -0.0573 J -0.1428
G03 X 6.9407 Y 12.1287 Z -1.0000 I 0.0023 J -0.0522
G01 X 6.9321 Y 12.1242 Z -1.0000
G02 X 6.8990 Y 12.1217 Z -1.0000 I -0.0311 J 0.1873
G01 X 6.8879 Y 12.1279 Z -1.0000
G01 X 6.8900 Y 12.1361 Z -1.0000
G01 X 6.8910 Y 12.1444 Z -1.0000
G01 X 6.8733 Y 12.1518 Z -1.0000
G03 X 6.7935 Y 12.1536 Z -1.0000 I -0.0947 J -2.4778
G03 X 6.7476 Y 12.1526 Z -1.0000 I -0.0050 J -0.8389
G02 X 6.7204 Y 12.1555 Z -1.0000 I -0.0043 J 0.0886
G02 X 6.6767 Y 12.1715 Z -1.0000 I 0.0665 J 0.2482
G03 X 6.6327 Y 12.1865 Z -1.0000 I -0.0862 J -0.1818
G03 X 6.5851 Y 12.1912 Z -1.0000 I -0.0447 J -0.2082
G02 X 6.5399 Y 12.1942 Z -1.0000 I -0.0038 J 0.2834
G01 X 6.5364 Y 12.1983 Z -1.0000
G01 X 6.5328 Y 12.2024 Z -1.0000
G03 X 6.4846 Y 12.2054 Z -1.0000 I -0.0436 J -0.3177
G02 X 6.4370 Y 12.2105 Z -1.0000 I -0.0027 J 0.1981
G01 X 6.4281 Y 12.2186 Z -1.0000
G01 X 6.4300 Y 12.2278 Z -1.0000
G01 X 6.4409 Y 12.2325 Z -1.0000
G01 X 6.4552 Y 12.2358 Z -1.0000
G01 X 6.4585 Y 12.2411 Z -1.0000
G01 X 6.4241 Y 12.2717 Z -1.0000
G03 X 6.3565 Y 12.2293 Z -1.0000 I 0.0108 J -0.0922
G01 X 6.3467 Y 12.2224 Z -1.0000
G02 X 6.3092 Y 12.2192 Z -1.0000 I -0.0318 J 0.1487
G03 X 6.2742 Y 12.2156 Z -1.0000 I -0.0047 J -0.1262
G01 X 6.2693 Y 12.2093 Z -1.0000
G01 X 6.2651 Y 12.2059 Z -1.0000
G02 X 6.2446 Y 12.2152 Z -1.0000 I 0.0142 J 0.0589
G03 X 6.2187 Y 12.2290 Z -1.0000 I -0.0707 J -0.1013
G03 X 6.2000 Y 12.2325 Z -1.0000 I -0.0187 J -0.0479
G01 X 6.1844 Y 12.2366 Z -1.0000
G01 X 6.1803 Y 12.2436 Z -1.0000
G01 X 6.1845 Y 12.2505 Z -1.0000
G01 X 6.2019 Y 12.2547 Z -1.0000
G01 X 6.2206 Y 12.2702 Z -1.0000
G03 X 6.2170 Y 12.3341 Z -1.0000 I -0.1297 J 0.0248
G02 X 6.2013 Y 12.3940 Z -1.0000 I 0.6888 J 0.2130
G01 X 6.2010 Y 12.4078 Z -1.0000
G01 X 6.1989 Y 12.4179 Z -1.0000
G01 X 6.1919 Y 12.4217 Z -1.0000
G01 X 6.1831 Y 12.4184 Z -1.0000
G01 X 6.1789 Y 12.4105 Z -1.0000
G02 X 6.1775 Y 12.3994 Z -1.0000 I -2.2585 J 0.2833
G02 X 6.1761 Y 12.3892 Z -1.0000 I -2.0624 J 0.2690
G01 X 6.1635 Y 12.3728 Z -1.0000
G02 X 6.1311 Y 12.3704 Z -1.0000 I -0.0199 J 0.0474
G01 X 6.1126 Y 12.3824 Z -1.0000
G01 X 6.1103 Y 12.3968 Z -1.0000
G02 X 6.1194 Y 12.4146 Z -1.0000 I 0.0795 J -0.0293
G01 X 6.1294 Y 12.4252 Z -1.0000
G01 X 6.1155 Y 12.4270 Z -1.0000
G01 X 6.1050 Y 12.4323 Z -1.0000
G01 X 6.1061 Y 12.4515 Z -1.0000
G01 X 6.1052 Y 12.4962 Z -1.0000
G01 X 6.0712 Y 12.5128 Z -1.0000
G01 X 6.0552 Y 12.5191 Z -1.0000
G01 X 6.0490 Y 12.5405 Z -1.0000
G01 X 6.0427 Y 12.5639 Z -1.0000
G01 X 6.0245 Y 12.5740 Z -1.0000
G01 X 6.0161 Y 12.5704 Z -1.0000
G01 X 6.0285 Y 12.5555 Z -1.0000
G01 X 6.0189 Y 12.5401 Z -1.0000
G01 X 6.0064 Y 12.5399 Z -1.0000
G01 X 6.0022 Y 12.5457 Z -1.0000
G01 X 5.9906 Y 12.5564 Z -1.0000
G03 X 5.9082 Y 12.5373 Z -1.0000 I 0.0279 J -0.3080
G01 X 5.8982 Y 12.5398 Z -1.0000
G01 X 5.8883 Y 12.5602 Z -1.0000
G01 X 5.8899 Y 12.5829 Z -1.0000
G01 X 5.8980 Y 12.5887 Z -1.0000
G01 X 5.9094 Y 12.5924 Z -1.0000
G01 X 5.9132 Y 12.5998 Z -1.0000
G01 X 5.9090 Y 12.6067 Z -1.0000
G01 X 5.8918 Y 12.6110 Z -1.0000
G02 X 5.8706 Y 12.6121 Z -1.0000 I 0.0000 J 0.2050
G02 X 5.8557 Y 12.6147 Z -1.0000 I 0.0115 J 0.1103
G01 X 5.8492 Y 12.6137 Z -1.0000
G01 X 5.8542 Y 12.5990 Z -1.0000
G01 X 5.8381 Y 12.5878 Z -1.0000
G01 X 5.8325 Y 12.5813 Z -1.0000
G01 X 5.8534 Y 12.5522 Z -1.0000
G01 X 5.8353 Y 12.5330 Z -1.0000
G01 X 5.8284 Y 12.5288 Z -1.0000
G01 X 5.8242 Y 12.5108 Z -1.0000
G01 X 5.8302 Y 12.4945 Z -1.0000
G01 X 5.8436 Y 12.4883 Z -1.0000
G02 X 5.8629 Y 12.4868 Z -1.0000 I -0.0010 J -0.1322
G02 X 5.8881 Y 12.4814 Z -1.0000 I -0.0366 J -0.2356
G01 X 5.9067 Y 12.4832 Z -1.0000
G01 X 5.9132 Y 12.4935 Z -1.0000
G01 X 5.9314 Y 12.5059 Z -1.0000
G02 X 5.9679 Y 12.4717 Z -1.0000 I -0.0255 J -0.0638
G03 X 6.0025 Y 12.4247 Z -1.0000 I 0.1410 J 0.0676
G03 X 6.0357 Y 12.4088 Z -1.0000 I 0.0421 J 0.0454
G02 X 6.0575 Y 12.4004 Z -1.0000 I -0.0077 J -0.0525
G01 X 6.0662 Y 12.3883 Z -1.0000
G01 X 6.0644 Y 12.3849 Z -1.0000
G01 X 6.0604 Y 12.3861 Z -1.0000
G01 X 6.0473 Y 12.3939 Z -1.0000
G03 X 5.9955 Y 12.3934 Z -1.0000 I -0.0238 J -0.2128
G02 X 5.9423 Y 12.3952 Z -1.0000 I -0.0212 J 0.1608
G02 X 5.8854 Y 12.4156 Z -1.0000 I 0.0413 J 0.2054
G03 X 5.8332 Y 12.4370 Z -1.0000 I -0.1346 J -0.2532
G01 X 5.8262 Y 12.4333 Z -1.0000
G01 X 5.8093 Y 12.4225 Z -1.0000
G01 X 5.7795 Y 12.4385 Z -1.0000
G01 X 5.7659 Y 12.4444 Z -1.0000
G01 X 5.7521 Y 12.4369 Z -1.0000
G01 X 5.7404 Y 12.4313 Z -1.0000
G01 X 5.7313 Y 12.4379 Z -1.0000
G01 X 5.7204 Y 12.4497 Z -1.0000
G01 X 5.7057 Y 12.4504 Z -1.0000
G02 X 5.6448 Y 12.4494 Z -1.0000 I -0.0317 J 0.0823
G01 X 5.6238 Y 12.4790 Z -1.0000
G01 X 5.6207 Y 12.4824 Z -1.0000
G03 X 5.6031 Y 12.4810 Z -1.0000 I -0.0047 J -0.0521
G01 X 5.5859 Y 12.4823 Z -1.0000
G01 X 5.5756 Y 12.4931 Z -1.0000
G01 X 5.5642 Y 12.5039 Z -1.0000
G03 X 5.5198 Y 12.5107 Z -1.0000 I -0.0444 J -0.1408
G03 X 5.4616 Y 12.4903 Z -1.0000 I -0.0000 J -0.0929
G01 X 5.4512 Y 12.4556 Z -1.0000
G01 X 5.4435 Y 12.4462 Z -1.0000
G02 X 5.4114 Y 12.4598 Z -1.0000 I 0.0062 J 0.0591
G02 X 5.3905 Y 12.4850 Z -1.0000 I 0.0590 J 0.0702
G01 X 5.3931 Y 12.4923 Z -1.0000
G01 X 5.3824 Y 12.4987 Z -1.0000
G02 X 5.3602 Y 12.5033 Z -1.0000 I 0.0025 J 0.0689
G01 X 5.3512 Y 12.5107 Z -1.0000
G01 X 5.3421 Y 12.5179 Z -1.0000
G03 X 5.3181 Y 12.5219 Z -1.0000 I -0.0241 J -0.0714
G02 X 5.2950 Y 12.5263 Z -1.0000 I -0.0000 J 0.0623
G01 X 5.2878 Y 12.5340 Z -1.0000
G01 X 5.2800 Y 12.5412 Z -1.0000
G03 X 5.2284 Y 12.5487 Z -1.0000 I -0.0644 J -0.2602
G02 X 5.1736 Y 12.5543 Z -1.0000 I 0.0258 J 0.5231
G02 X 5.1342 Y 12.5635 Z -1.0000 I 0.0426 J 0.2735
G03 X 5.0414 Y 12.5878 Z -1.0000 I -0.3185 J -1.0265
G03 X 4.9354 Y 12.6062 Z -1.0000 I -0.2835 J -1.3200
G02 X 4.8805 Y 12.6194 Z -1.0000 I 0.0352 J 0.2670
G01 X 4.8705 Y 12.6291 Z -1.0000
G01 X 4.8615 Y 12.6396 Z -1.0000
G01 X 4.8440 Y 12.6443 Z -1.0000
G02 X 4.7610 Y 12.6659 Z -1.0000 I 0.0000 J 0.1702
G01 X 4.7497 Y 12.6970 Z -1.0000
G01 X 4.7485 Y 12.7086 Z -1.0000
G01 X 4.7361 Y 12.7181 Z -1.0000
G02 X 4.6536 Y 12.7533 Z -1.0000 I 0.1506 J 0.4670
G02 X 4.6298 Y 12.7755 Z -1.0000 I 0.0308 J 0.0570
G01 X 4.6184 Y 12.7837 Z -1.0000
G01 X 4.5992 Y 12.7831 Z -1.0000
G01 X 4.5836 Y 12.7843 Z -1.0000
G01 X 4.5777 Y 12.7938 Z -1.0000
G01 X 4.5669 Y 12.8048 Z -1.0000
G01 X 4.5443 Y 12.7945 Z -1.0000
G01 X 4.5230 Y 12.7891 Z -1.0000
G01 X 4.4992 Y 12.8127 Z -1.0000
G01 X 4.4851 Y 12.8270 Z -1.0000
G01 X 4.4756 Y 12.8229 Z -1.0000
G01 X 4.4521 Y 12.8137 Z -1.0000
G02 X 4.4150 Y 12.8534 Z -1.0000 I 0.0352 J 0.0701
G01 X 4.3853 Y 12.8437 Z -1.0000
G02 X 4.2969 Y 12.8313 Z -1.0000 I -0.0651 J 0.1428
G01 X 4.2921 Y 12.8576 Z -1.0000
G01 X 4.3020 Y 12.8705 Z -1.0000
G01 X 4.2988 Y 12.8845 Z -1.0000
G01 X 4.2955 Y 12.8957 Z -1.0000
G01 X 4.3009 Y 12.9005 Z -1.0000
G01 X 4.2773 Y 12.9195 Z -1.0000
G02 X 4.2406 Y 12.9408 Z -1.0000 I 0.1167 J 0.2428
G01 X 4.2294 Y 12.9527 Z -1.0000
G01 X 4.2177 Y 12.9620 Z -1.0000
G03 X 4.1864 Y 12.9671 Z -1.0000 I -0.0313 J -0.0934
G01 X 4.1628 Y 12.9589 Z -1.0000
G01 X 4.1581 Y 12.9448 Z -1.0000
G01 X 4.1571 Y 12.9278 Z -1.0000
G01 X 4.1495 Y 12.9225 Z -1.0000
G01 X 4.1302 Y 12.9371 Z -1.0000
G02 X 4.1276 Y 13.0008 Z -1.0000 I 0.1337 J 0.0374
G01 X 4.1262 Y 13.0144 Z -1.0000
G01 X 4.1172 Y 13.0042 Z -1.0000
G01 X 4.1038 Y 13.0004 Z -1.0000
G01 X 4.0918 Y 12.9966 Z -1.0000
G01 X 4.0881 Y 12.9894 Z -1.0000
G01 X 4.0835 Y 12.9833 Z -1.0000
G02 X 4.0603 Y 12.9807 Z -1.0000 I -0.0181 J 0.0581
G01 X 4.0415 Y 12.9914 Z -1.0000
G01 X 4.0324 Y 13.0196 Z -1.0000
G01 X 4.0415 Y 13.0470 Z -1.0000
G01 X 4.0597 Y 13.0561 Z -1.0000
G03 X 4.0842 Y 13.0609 Z -1.0000 I 0.0000 J 0.0652
G01 X 4.0959 Y 13.0708 Z -1.0000
G01 X 4.1273 Y 13.0931 Z -1.0000
G01 X 4.1554 Y 13.0833 Z -1.0000
G01 X 4.1710 Y 13.0722 Z -1.0000
G03 X 4.1979 Y 13.0674 Z -1.0000 I 0.0265 J 0.0710
G01 X 4.2112 Y 13.0722 Z -1.0000
G01 X 4.2108 Y 13.0779 Z -1.0000
G01 X 4.2092 Y 13.0902 Z -1.0000
G01 X 4.2256 Y 13.0941 Z -1.0000
G01 X 4.2392 Y 13.0838 Z -1.0000
G01 X 4.2442 Y 13.0688 Z -1.0000
G01 X 4.2493 Y 13.0649 Z -1.0000
G01 X 4.2616 Y 13.0728 Z -1.0000
G01 X 4.2777 Y 13.0818 Z -1.0000
G01 X 4.2896 Y 13.0756 Z -1.0000
G01 X 4.3081 Y 13.0686 Z -1.0000
G01 X 4.3295 Y 13.0895 Z -1.0000
G02 X 4.3474 Y 13.1151 Z -1.0000 I 0.0592 J -0.0224
G01 X 4.3681 Y 13.1227 Z -1.0000
G01 X 4.3784 Y 13.1178 Z -1.0000
G01 X 4.3774 Y 13.1113 Z -1.0000
G01 X 4.3915 Y 13.1071 Z -1.0000
G02 X 4.4211 Y 13.1092 Z -1.0000 I 0.0214 J -0.0930
G01 X 4.4360 Y 13.1032 Z -1.0000
G03 X 4.4510 Y 13.0948 Z -1.0000 I 0.0322 J 0.0400
G03 X 4.4887 Y 13.0844 Z -1.0000 I 0.0893 J 0.2510
G02 X 4.5569 Y 13.0611 Z -1.0000 I -0.0522 J -0.2647
G01 X 4.5730 Y 13.0423 Z -1.0000
G01 X 4.5830 Y 13.0333 Z -1.0000
G01 X 4.5946 Y 13.0377 Z -1.0000
G01 X 4.6073 Y 13.0403 Z -1.0000
G02 X 4.6295 Y 13.0165 Z -1.0000 I -0.0315 J -0.0517
G03 X 4.6785 Y 12.9660 Z -1.0000 I 0.1087 J 0.0564
G03 X 4.7574 Y 12.9450 Z -1.0000 I 0.0804 J 0.1439
G01 X 4.7840 Y 12.9308 Z -1.0000
G01 X 4.7906 Y 12.8964 Z -1.0000
G01 X 4.7913 Y 12.8876 Z -1.0000
G03 X 4.8013 Y 12.8713 Z -1.0000 I 0.0610 J 0.0261
G01 X 4.8044 Y 12.8601 Z -1.0000
G01 X 4.7989 Y 12.8550 Z -1.0000
G01 X 4.8059 Y 12.8447 Z -1.0000
G01 X 4.8142 Y 12.8343 Z -1.0000
G01 X 4.8065 Y 12.8226 Z -1.0000
G01 X 4.8226 Y 12.8113 Z -1.0000
G01 X 4.8406 Y 12.8071 Z -1.0000
G01 X 4.8448 Y 12.8002 Z -1.0000
G01 X 4.8595 Y 12.7875 Z -1.0000
G01 X 4.8822 Y 12.8058 Z -1.0000
G01 X 4.8920 Y 12.8175 Z -1.0000
G01 X 4.9095 Y 12.8225 Z -1.0000
G01 X 4.9283 Y 12.8272 Z -1.0000
G03 X 4.9500 Y 12.8441 Z -1.0000 I -0.0375 J 0.0704
G01 X 4.9775 Y 12.8562 Z -1.0000
G02 X 5.0785 Y 12.8435 Z -1.0000 I -0.0018 J -0.4236
G03 X 5.1690 Y 12.8306 Z -1.0000 I 0.1073 J 0.4284
G03 X 5.2510 Y 12.8369 Z -1.0000 I 0.0137 J 0.3583
G01 X 5.2792 Y 12.8346 Z -1.0000
G01 X 5.2786 Y 12.8187 Z -1.0000
G03 X 5.3160 Y 12.8058 Z -1.0000 I 0.0374 J 0.0478
G01 X 5.3370 Y 12.7903 Z -1.0000
G01 X 5.3314 Y 12.7557 Z -1.0000
G01 X 5.3119 Y 12.7408 Z -1.0000
G01 X 5.3010 Y 12.7446 Z -1.0000
G01 X 5.2895 Y 12.7502 Z -1.0000
G01 X 5.2785 Y 12.7641 Z -1.0000
G01 X 5.2580 Y 12.7816 Z -1.0000
G01 X 5.2455 Y 12.7717 Z -1.0000
G01 X 5.2399 Y 12.7607 Z -1.0000
G01 X 5.2260 Y 12.7572 Z -1.0000
G03 X 5.2067 Y 12.7577 Z -1.0000 I -0.0116 J -0.0776
G03 X 5.1763 Y 12.7522 Z -1.0000 I 0.0192 J -0.1930
G01 X 5.1555 Y 12.7395 Z -1.0000
G01 X 5.1531 Y 12.7261 Z -1.0000
G01 X 5.1488 Y 12.7173 Z -1.0000
G02 X 5.1202 Y 12.7155 Z -1.0000 I -0.0180 J 0.0554
G03 X 5.0825 Y 12.7179 Z -1.0000 I -0.0286 J -0.1531
G01 X 5.0740 Y 12.7128 Z -1.0000
G01 X 5.0788 Y 12.7001 Z -1.0000
G03 X 5.1545 Y 12.6891 Z -1.0000 I 0.0767 J 0.2604
G02 X 5.1891 Y 12.6833 Z -1.0000 I -0.0004 J -0.1089
G02 X 5.2101 Y 12.6701 Z -1.0000 I -0.0175 J -0.0515
G01 X 5.2238 Y 12.6665 Z -1.0000
G01 X 5.2324 Y 12.6763 Z -1.0000
G02 X 5.2404 Y 12.6979 Z -1.0000 I 0.0549 J -0.0080
G01 X 5.2520 Y 12.7075 Z -1.0000
G01 X 5.2886 Y 12.7017 Z -1.0000
G01 X 5.2968 Y 12.6714 Z -1.0000
G01 X 5.3090 Y 12.6450 Z -1.0000
G03 X 5.3573 Y 12.6502 Z -1.0000 I 0.0186 J 0.0532
G01 X 5.3642 Y 12.6588 Z -1.0000
G03 X 5.3681 Y 12.6812 Z -1.0000 I -0.0654 J 0.0228
G01 X 5.3724 Y 12.6911 Z -1.0000
G01 X 5.3778 Y 12.6905 Z -1.0000
G01 X 5.3873 Y 12.6842 Z -1.0000
G01 X 5.3950 Y 12.6877 Z -1.0000
G01 X 5.3987 Y 12.7000 Z -1.0000
G01 X 5.3957 Y 12.7111 Z -1.0000
G01 X 5.3978 Y 12.7172 Z -1.0000
G02 X 5.4248 Y 12.7222 Z -1.0000 I 0.0270 J -0.0703
G03 X 5.4587 Y 12.7275 Z -1.0000 I 0.0000 J 0.1113
G03 X 5.4803 Y 12.7400 Z -1.0000 I -0.0180 J 0.0563
G01 X 5.4991 Y 12.7457 Z -1.0000
G01 X 5.5198 Y 12.7344 Z -1.0000
G03 X 5.5422 Y 12.7163 Z -1.0000 I 0.0598 J 0.0512
G01 X 5.5629 Y 12.7111 Z -1.0000
G02 X 5.5844 Y 12.7073 Z -1.0000 I 0.0000 J -0.0627
G01 X 5.5994 Y 12.6977 Z -1.0000
G01 X 5.6089 Y 12.6935 Z -1.0000
G01 X 5.6127 Y 12.6971 Z -1.0000
G01 X 5.6097 Y 12.7081 Z -1.0000
G01 X 5.6008 Y 12.7172 Z -1.0000
G01 X 5.6001 Y 12.7384 Z -1.0000
G02 X 5.6557 Y 12.7555 Z -1.0000 I 0.0544 J -0.0779
G01 X 5.6865 Y 12.7324 Z -1.0000
G01 X 5.6758 Y 12.6896 Z -1.0000
G01 X 5.6769 Y 12.6831 Z -1.0000
G03 X 5.6995 Y 12.6777 Z -1.0000 I 0.0226 J 0.0450
G03 X 5.7304 Y 12.6824 Z -1.0000 I 0.0000 J 0.1037
G01 X 5.7351 Y 12.6888 Z -1.0000
G01 X 5.7556 Y 12.7072 Z -1.0000
G01 X 5.7868 Y 12.6832 Z -1.0000
G01 X 5.8090 Y 12.6682 Z -1.0000
G01 X 5.8316 Y 12.6841 Z -1.0000
G01 X 5.8423 Y 12.6940 Z -1.0000
G01 X 5.8664 Y 12.6945 Z -1.0000
G03 X 5.8918 Y 12.6939 Z -1.0000 I 0.0142 J 0.0567
G01 X 5.9032 Y 12.7017 Z -1.0000
G01 X 5.9147 Y 12.7083 Z -1.0000
G02 X 5.9488 Y 12.7027 Z -1.0000 I 0.0021 J -0.0946
G03 X 6.0579 Y 12.6789 Z -1.0000 I 0.1457 J 0.4052
G03 X 6.1652 Y 12.6843 Z -1.0000 I 0.0339 J 0.3970
G01 X 6.1911 Y 12.6985 Z -1.0000
G01 X 6.1989 Y 12.7205 Z -1.0000
G01 X 6.2067 Y 12.7399 Z -1.0000
G01 X 6.2276 Y 12.7468 Z -1.0000
G03 X 6.2542 Y 12.7480 Z -1.0000 I 0.0095 J 0.0884
G01 X 6.2582 Y 12.7528 Z -1.0000
G01 X 6.2616 Y 12.7588 Z -1.0000
G01 X 6.2777 Y 12.7639 Z -1.0000
G03 X 6.2971 Y 12.7660 Z -1.0000 I -0.5609 J 5.4619
G02 X 6.3194 Y 12.7683 Z -1.0000 I 21.5264 J -202.5005
G02 X 6.3417 Y 12.7696 Z -1.0000 I 0.0238 J -0.2244
G02 X 6.3837 Y 12.7687 Z -1.0000 I 0.0053 J -0.7747
G02 X 6.4196 Y 12.7584 Z -1.0000 I -0.0039 J -0.0814
G01 X 6.4361 Y 12.7393 Z -1.0000
G01 X 6.4524 Y 12.7256 Z -1.0000
G03 X 6.4887 Y 12.7294 Z -1.0000 I 0.0118 J 0.0626
G03 X 6.5288 Y 12.7494 Z -1.0000 I -0.1335 J 0.3192
G01 X 6.5378 Y 12.7580 Z -1.0000
G01 X 6.5465 Y 12.7624 Z -1.0000
G02 X 6.5695 Y 12.7557 Z -1.0000 I -0.0041 J -0.0571
G03 X 6.5949 Y 12.7470 Z -1.0000 I 0.0397 J 0.0742
G01 X 6.6150 Y 12.7478 Z -1.0000
G01 X 6.6339 Y 12.7475 Z -1.0000
G01 X 6.6486 Y 12.7377 Z -1.0000
G01 X 6.6635 Y 12.7262 Z -1.0000
G01 X 6.6818 Y 12.7221 Z -1.0000
G01 X 6.7000 Y 12.7185 Z -1.0000
G01 X 6.7090 Y 12.7108 Z -1.0000
G01 X 6.7171 Y 12.7043 Z -1.0000
G01 X 6.7251 Y 12.7051 Z -1.0000
G01 X 6.7338 Y 12.7057 Z -1.0000
G02 X 6.7622 Y 12.6886 Z -1.0000 I -0.0556 J -0.1243
G03 X 6.7920 Y 12.6714 Z -1.0000 I 0.0756 J 0.0961
G03 X 6.8169 Y 12.6665 Z -1.0000 I 0.0249 J 0.0617
G02 X 6.8420 Y 12.6627 Z -1.0000 I -0.0000 J -0.0844
G01 X 6.8555 Y 12.6545 Z -1.0000
G03 X 6.9305 Y 12.6232 Z -1.0000 I 0.0756 J 0.0756
G03 X 7.0567 Y 12.6535 Z -1.0000 I 0.0015 J 0.2714
G02 X 7.1318 Y 12.6735 Z -1.0000 I 0.0828 J -0.1606
G01 X 7.1485 Y 12.6574 Z -1.0000
G01 X 7.1518 Y 12.6529 Z -1.0000
G03 X 7.1778 Y 12.6481 Z -1.0000 I 0.0318 J 0.0999
G02 X 7.2045 Y 12.6423 Z -1.0000 I -0.0050 J -0.0871
G01 X 7.2150 Y 12.6335 Z -1.0000
G03 X 7.3173 Y 12.5915 Z -1.0000 I 0.0802 J 0.0495
G03 X 7.3822 Y 12.6739 Z -1.0000 I -0.0199 J 0.0824
G01 X 7.3926 Y 12.6835 Z -1.0000
G01 X 7.4162 Y 12.6713 Z -1.0000
G01 X 7.4326 Y 12.6598 Z -1.0000
G01 X 7.4502 Y 12.6589 Z -1.0000
G01 X 7.4690 Y 12.6593 Z -1.0000
G02 X 7.4900 Y 12.6502 Z -1.0000 I -0.0128 J -0.0584
G03 X 7.5115 Y 12.6406 Z -1.0000 I 0.0378 J 0.0552
G03 X 7.5501 Y 12.6352 Z -1.0000 I 0.0444 J 0.1778
G02 X 7.6091 Y 12.6246 Z -1.0000 I -0.0065 J -0.2048
G02 X 7.6635 Y 12.5970 Z -1.0000 I -0.0678 J -0.2011
G01 X 7.6815 Y 12.5922 Z -1.0000
G01 X 7.6938 Y 12.5998 Z -1.0000
G01 X 7.7062 Y 12.6079 Z -1.0000
G01 X 7.7242 Y 12.6041 Z -1.0000
G01 X 7.7432 Y 12.5995 Z -1.0000
G01 X 7.7585 Y 12.6070 Z -1.0000
G01 X 7.7740 Y 12.6148 Z -1.0000
G01 X 7.7938 Y 12.6110 Z -1.0000
G03 X 7.8433 Y 12.6000 Z -1.0000 I 0.0444 J 0.0830
G03 X 7.8904 Y 12.6163 Z -1.0000 I -0.0049 J 0.0904
G02 X 7.9764 Y 12.6500 Z -1.0000 I 0.1130 J -0.1614
G02 X 8.0226 Y 12.6345 Z -1.0000 I 0.0075 J -0.0541
G01 X 8.0319 Y 12.6302 Z -1.0000
G03 X 8.1501 Y 12.6220 Z -1.0000 I 0.2017 J 2.0588
G02 X 8.2382 Y 12.6105 Z -1.0000 I -0.0194 J -0.4933
G02 X 8.3170 Y 12.5848 Z -1.0000 I -0.0944 J -0.4233
G03 X 8.4720 Y 12.5496 Z -1.0000 I 0.1700 J 0.3901
G01 X 8.4888 Y 12.5786 Z -1.0000
G01 X 8.5417 Y 12.5870 Z -1.0000
G03 X 8.5986 Y 12.5904 Z -1.0000 I -0.0176 J 0.7798
G03 X 8.6181 Y 12.5944 Z -1.0000 I -0.0088 J 0.0913
G02 X 8.6573 Y 12.5969 Z -1.0000 I 0.0246 J -0.0775
G02 X 8.7445 Y 12.5714 Z -1.0000 I -0.0786 J -0.4300
G01 X 8.7547 Y 12.5722 Z -1.0000
G01 X 8.7563 Y 12.5785 Z -1.0000
G01 X 8.7664 Y 12.5783 Z -1.0000
G01 X 8.7845 Y 12.5719 Z -1.0000
G01 X 8.7960 Y 12.5783 Z -1.0000
G01 X 8.8101 Y 12.5867 Z -1.0000
G02 X 9.0650 Y 12.5942 Z -1.0000 I 0.2537 J -4.2946
G02 X 9.3215 Y 12.5856 Z -1.0000 I -0.0011 J -3.8467
G02 X 9.3512 Y 12.5750 Z -1.0000 I -0.0039 J -0.0584
G03 X 9.3780 Y 12.5641 Z -1.0000 I 0.0373 J 0.0529
G01 X 9.3930 Y 12.5681 Z -1.0000
G01 X 9.4076 Y 12.5734 Z -1.0000
G01 X 9.4226 Y 12.5679 Z -1.0000
G01 X 9.4373 Y 12.5599 Z -1.0000
G01 X 9.4433 Y 12.5613 Z -1.0000
G01 X 9.4498 Y 12.5635 Z -1.0000
G02 X 9.4762 Y 12.5567 Z -1.0000 I -0.0170 J -0.1206
G03 X 9.5030 Y 12.5523 Z -1.0000 I 0.0243 J 0.0644
G01 X 9.5249 Y 12.5584 Z -1.0000
G02 X 9.5551 Y 12.5676 Z -1.0000 I 0.0360 J -0.0641
G02 X 9.7860 Y 12.5789 Z -1.0000 I 0.3103 J -3.9549
G03 X 9.8026 Y 12.5805 Z -1.0000 I -0.0023 J 0.1166
G03 X 9.8607 Y 12.5912 Z -1.0000 I -0.2358 J 1.4370
G02 X 9.9171 Y 12.5966 Z -1.0000 I 0.0533 J -0.2602
G01 X 9.9343 Y 12.5903 Z -1.0000
G03 X 10.1415 Y 12.5110 Z -1.0000 I 0.2204 J 0.2654
G03 X 10.3781 Y 12.5734 Z -1.0000 I 0.0159 J 0.4194
G02 X 10.4811 Y 12.6005 Z -1.0000 I 0.0959 J -0.1553
