%
(Header)
(Generated by gcodetools from Inkscape.)
(Using default header. To add your own header create file "header" in the output dir.)
M3
(Header end.)
G21 (All units in mm)

(Start cutting path id: path136555)
(Change tool to Default tool)

G00 Z 5.0000
G00 X 0.3312 Y 6.8645

G01 Z -1.0000 F 100.0000(Penetrate)
G02 X 0.4413 Y 13.6611 Z -1.0000 I 209.8160 J -0.0000 F 3500.0000
G02 X 0.5551 Y 13.7704 Z -1.0000 I 0.1129 J -0.0037
G03 X 1.5240 Y 13.7657 Z -1.0000 I 1.4177 J 193.7011
G03 X 5.8839 Y 13.7581 Z -1.0000 I 9.0652 J 3912.9704
G02 X 7.5218 Y 13.7532 Z -1.0000 I -0.5684 J -466.2739
G01 X 7.5246 Y 13.7504 Z -1.0000
G01 X 7.5217 Y 13.7474 Z -1.0000
G02 X 6.2965 Y 13.7450 Z -1.0000 I -1.1472 J 263.5420
G03 X 5.0685 Y 13.7438 Z -1.0000 I -0.1547 J -507.1350
G03 X 4.2899 Y 13.7407 Z -1.0000 I 0.4166 J -196.8185
G02 X 3.5114 Y 13.7363 Z -1.0000 I -4.6178 J 760.4878
G02 X 3.4472 Y 13.7363 Z -1.0000 I -0.0412 J 8.1512
G03 X 3.3866 Y 13.7329 Z -1.0000 I -0.0026 J -0.4976
G01 X 3.3830 Y 13.7288 Z -1.0000
G01 X 3.3867 Y 13.7246 Z -1.0000
G03 X 3.4466 Y 13.7210 Z -1.0000 I 0.0599 J 0.4914
G01 X 3.3863 Y 13.7089 Z -1.0000
G01 X 3.2818 Y 13.7127 Z -1.0000
G01 X 3.2785 Y 13.7313 Z -1.0000
G03 X 3.2137 Y 13.7316 Z -1.0000 I -0.0330 J -0.1187
G01 X 3.2098 Y 13.7217 Z -1.0000
G01 X 3.2273 Y 13.7102 Z -1.0000
G01 X 3.2483 Y 13.6966 Z -1.0000
G02 X 3.2584 Y 13.6625 Z -1.0000 I -0.0522 J -0.0341
G03 X 3.2689 Y 13.6303 Z -1.0000 I 0.0547 J 0.0000
G01 X 3.2896 Y 13.6198 Z -1.0000
G03 X 3.3159 Y 13.6245 Z -1.0000 I -0.0000 J 0.0753
G01 X 3.3207 Y 13.6314 Z -1.0000
G01 X 3.3274 Y 13.6360 Z -1.0000
G02 X 3.3544 Y 13.6184 Z -1.0000 I -0.0281 J -0.0727
G03 X 3.3760 Y 13.6038 Z -1.0000 I 0.0489 J 0.0489
G01 X 3.3816 Y 13.6067 Z -1.0000
G01 X 3.4166 Y 13.6362 Z -1.0000
G01 X 3.4453 Y 13.6081 Z -1.0000
G01 X 3.4500 Y 13.6013 Z -1.0000
G03 X 3.4764 Y 13.5965 Z -1.0000 I 0.0264 J 0.0701
G02 X 3.5041 Y 13.5930 Z -1.0000 I -0.0000 J -0.1143
G01 X 3.5075 Y 13.5887 Z -1.0000
G01 X 3.5110 Y 13.5843 Z -1.0000
G03 X 3.5387 Y 13.5809 Z -1.0000 I 0.0277 J 0.1109
G02 X 3.5664 Y 13.5774 Z -1.0000 I 0.0000 J -0.1143
G01 X 3.5698 Y 13.5731 Z -1.0000
G01 X 3.5664 Y 13.5687 Z -1.0000
G02 X 3.5387 Y 13.5653 Z -1.0000 I -0.0277 J 0.1109
G02 X 3.5110 Y 13.5687 Z -1.0000 I -0.0000 J 0.1143
G01 X 3.5075 Y 13.5731 Z -1.0000
G01 X 3.5041 Y 13.5774 Z -1.0000
G03 X 3.4764 Y 13.5809 Z -1.0000 I -0.0277 J -0.1109
G01 X 3.4522 Y 13.5739 Z -1.0000
G01 X 3.4453 Y 13.5614 Z -1.0000
G01 X 3.4363 Y 13.5509 Z -1.0000
G02 X 3.3207 Y 13.5419 Z -1.0000 I -0.1156 J 0.7399
G03 X 3.2017 Y 13.5364 Z -1.0000 I 0.0000 J -1.2729
G01 X 3.1961 Y 13.5303 Z -1.0000
G01 X 3.2009 Y 13.5234 Z -1.0000
G03 X 3.2273 Y 13.5186 Z -1.0000 I 0.0264 J 0.0701
G02 X 3.2550 Y 13.5152 Z -1.0000 I -0.0000 J -0.1143
G01 X 3.2584 Y 13.5108 Z -1.0000
G01 X 3.2621 Y 13.5067 Z -1.0000
G03 X 3.3278 Y 13.5030 Z -1.0000 I 0.0658 J 0.5834
G02 X 3.4144 Y 13.4955 Z -1.0000 I 0.0000 J -0.5054
G01 X 3.4219 Y 13.4866 Z -1.0000
G01 X 3.4186 Y 13.4830 Z -1.0000
G02 X 3.3285 Y 13.4796 Z -1.0000 I -0.0901 J 1.1880
G03 X 3.2406 Y 13.4741 Z -1.0000 I 0.0000 J -0.7117
G01 X 3.2351 Y 13.4679 Z -1.0000
G01 X 3.2308 Y 13.4604 Z -1.0000
G01 X 3.2156 Y 13.4562 Z -1.0000
G01 X 3.2004 Y 13.4604 Z -1.0000
G01 X 3.1961 Y 13.4679 Z -1.0000
G01 X 3.1927 Y 13.4761 Z -1.0000
G01 X 3.1845 Y 13.4796 Z -1.0000
G01 X 3.1762 Y 13.4761 Z -1.0000
G01 X 3.1728 Y 13.4679 Z -1.0000
G01 X 3.1680 Y 13.4610 Z -1.0000
G02 X 3.1416 Y 13.4562 Z -1.0000 I -0.0264 J 0.0701
G01 X 3.1196 Y 13.4471 Z -1.0000
G01 X 3.1105 Y 13.4251 Z -1.0000
G03 X 3.1153 Y 13.3987 Z -1.0000 I 0.0751 J 0.0000
G01 X 3.1222 Y 13.3939 Z -1.0000
G01 X 3.1291 Y 13.3892 Z -1.0000
G02 X 3.1339 Y 13.3628 Z -1.0000 I -0.0702 J -0.0264
G03 X 3.1373 Y 13.3351 Z -1.0000 I 0.1143 J -0.0000
G01 X 3.1416 Y 13.3317 Z -1.0000
G01 X 3.1458 Y 13.3280 Z -1.0000
G02 X 3.1494 Y 13.2694 Z -1.0000 I -0.4684 J -0.0586
G02 X 3.1412 Y 13.2153 Z -1.0000 I -0.1812 J 0.0000
G01 X 3.1300 Y 13.2071 Z -1.0000
G01 X 3.1175 Y 13.2002 Z -1.0000
G01 X 3.1105 Y 13.1760 Z -1.0000
G01 X 3.1202 Y 13.1545 Z -1.0000
G01 X 3.1455 Y 13.1448 Z -1.0000
G01 X 3.1709 Y 13.1352 Z -1.0000
G01 X 3.1806 Y 13.1137 Z -1.0000
G02 X 3.1746 Y 13.0885 Z -1.0000 I -0.0563 J 0.0000
G01 X 3.1650 Y 13.0825 Z -1.0000
G01 X 3.1554 Y 13.0766 Z -1.0000
G03 X 3.1494 Y 13.0514 Z -1.0000 I 0.0504 J -0.0252
G02 X 3.1460 Y 13.0237 Z -1.0000 I -0.1143 J -0.0000
G01 X 3.1416 Y 13.0203 Z -1.0000
G01 X 3.1373 Y 13.0168 Z -1.0000
G03 X 3.1339 Y 12.9891 Z -1.0000 I 0.1107 J -0.0277
G02 X 3.1304 Y 12.9614 Z -1.0000 I -0.1143 J -0.0000
G01 X 3.1261 Y 12.9580 Z -1.0000
G01 X 3.1217 Y 12.9614 Z -1.0000
G02 X 3.1183 Y 12.9891 Z -1.0000 I 0.1107 J 0.0277
G02 X 3.1217 Y 13.0168 Z -1.0000 I 0.1143 J 0.0000
G01 X 3.1261 Y 13.0203 Z -1.0000
G01 X 3.1306 Y 13.0235 Z -1.0000
G03 X 3.1339 Y 13.0436 Z -1.0000 I -0.0602 J 0.0201
G01 X 3.1261 Y 13.0592 Z -1.0000
G01 X 3.1027 Y 13.0670 Z -1.0000
G01 X 3.0830 Y 13.0555 Z -1.0000
G03 X 3.0716 Y 13.0125 Z -1.0000 I 0.0754 J -0.0431
G02 X 3.0601 Y 12.9694 Z -1.0000 I -0.0868 J -0.0000
G01 X 3.0404 Y 12.9580 Z -1.0000
G01 X 3.0184 Y 12.9488 Z -1.0000
G01 X 3.0093 Y 12.9268 Z -1.0000
G01 X 3.0002 Y 12.9048 Z -1.0000
G01 X 2.9782 Y 12.8957 Z -1.0000
G01 X 2.9561 Y 12.8866 Z -1.0000
G01 X 2.9470 Y 12.8645 Z -1.0000
G01 X 2.9589 Y 12.8453 Z -1.0000
G03 X 3.0093 Y 12.8334 Z -1.0000 I 0.0504 J 0.1008
G02 X 3.0663 Y 12.8281 Z -1.0000 I -0.0000 J -0.3085
G01 X 3.0716 Y 12.8217 Z -1.0000
G01 X 3.0763 Y 12.8148 Z -1.0000
G03 X 3.1027 Y 12.8100 Z -1.0000 I 0.0264 J 0.0701
G01 X 3.1269 Y 12.8031 Z -1.0000
G01 X 3.1339 Y 12.7906 Z -1.0000
G01 X 3.1408 Y 12.7781 Z -1.0000
G01 X 3.1650 Y 12.7711 Z -1.0000
G03 X 3.1927 Y 12.7745 Z -1.0000 I 0.0000 J 0.1143
G01 X 3.1961 Y 12.7789 Z -1.0000
G01 X 3.1996 Y 12.7833 Z -1.0000
G02 X 3.2273 Y 12.7867 Z -1.0000 I 0.0277 J -0.1109
G01 X 3.2462 Y 12.7745 Z -1.0000
G02 X 3.2584 Y 12.7167 Z -1.0000 I -0.1300 J -0.0578
G03 X 3.2777 Y 12.6659 Z -1.0000 I 0.0764 J 0.0000
G03 X 3.3207 Y 12.6466 Z -1.0000 I 0.0430 J 0.0382
G02 X 3.3682 Y 12.6318 Z -1.0000 I 0.0000 J -0.0839
G01 X 3.3830 Y 12.6038 Z -1.0000
G03 X 3.3935 Y 12.5715 Z -1.0000 I 0.0549 J -0.0000
G01 X 3.4141 Y 12.5610 Z -1.0000
G03 X 3.4405 Y 12.5657 Z -1.0000 I 0.0000 J 0.0753
G01 X 3.4453 Y 12.5726 Z -1.0000
G01 X 3.4541 Y 12.5794 Z -1.0000
G02 X 3.4812 Y 12.5629 Z -1.0000 I -0.0148 J -0.0549
G03 X 3.4994 Y 12.5492 Z -1.0000 I 0.0458 J 0.0419
G01 X 3.5048 Y 12.5513 Z -1.0000
G01 X 3.5114 Y 12.5571 Z -1.0000
G02 X 3.5393 Y 12.5610 Z -1.0000 I 0.0279 J -0.0989
G01 X 3.5629 Y 12.5541 Z -1.0000
G01 X 3.5698 Y 12.5415 Z -1.0000
G01 X 3.5728 Y 12.5250 Z -1.0000
G01 X 3.5770 Y 12.5220 Z -1.0000
G02 X 3.6160 Y 12.5059 Z -1.0000 I 0.0000 J -0.0551
G02 X 3.6321 Y 12.4669 Z -1.0000 I -0.0390 J -0.0390
G01 X 3.6291 Y 12.4627 Z -1.0000
G02 X 3.6120 Y 12.4597 Z -1.0000 I -0.0171 J 0.0482
G01 X 3.6034 Y 12.4500 Z -1.0000
G01 X 3.6150 Y 12.4354 Z -1.0000
G01 X 3.6272 Y 12.4362 Z -1.0000
G01 X 3.6321 Y 12.4444 Z -1.0000
G01 X 3.6388 Y 12.4530 Z -1.0000
G02 X 3.6944 Y 12.4597 Z -1.0000 I 0.0555 J -0.2258
G02 X 3.7528 Y 12.4559 Z -1.0000 I 0.0000 J -0.4428
G01 X 3.7567 Y 12.4514 Z -1.0000
G01 X 3.7535 Y 12.4474 Z -1.0000
G01 X 3.7422 Y 12.4477 Z -1.0000
G01 X 3.7291 Y 12.4478 Z -1.0000
G01 X 3.7176 Y 12.4400 Z -1.0000
G01 X 3.7136 Y 12.4281 Z -1.0000
G01 X 3.7190 Y 12.4162 Z -1.0000
G01 X 3.7439 Y 12.4093 Z -1.0000
G01 X 3.7567 Y 12.4255 Z -1.0000
G01 X 3.7616 Y 12.4314 Z -1.0000
G02 X 3.8189 Y 12.4364 Z -1.0000 I 0.0573 J -0.3306
G02 X 3.8759 Y 12.4311 Z -1.0000 I -0.0000 J -0.3085
G01 X 3.8812 Y 12.4247 Z -1.0000
G01 X 3.9099 Y 12.3968 Z -1.0000
G01 X 3.9450 Y 12.4266 Z -1.0000
G01 X 3.9506 Y 12.4302 Z -1.0000
G01 X 3.9667 Y 12.4210 Z -1.0000
G01 X 3.9741 Y 12.4052 Z -1.0000
G01 X 3.9688 Y 12.3977 Z -1.0000
G01 X 3.9592 Y 12.3906 Z -1.0000
G01 X 3.9595 Y 12.3819 Z -1.0000
G01 X 3.9670 Y 12.3784 Z -1.0000
G01 X 3.9752 Y 12.3838 Z -1.0000
G01 X 3.9974 Y 12.3946 Z -1.0000
G01 X 4.0199 Y 12.3780 Z -1.0000
G01 X 4.0367 Y 12.3678 Z -1.0000
G01 X 4.0558 Y 12.3799 Z -1.0000
G01 X 4.0678 Y 12.3877 Z -1.0000
G01 X 4.0740 Y 12.3801 Z -1.0000
G03 X 4.1304 Y 12.3741 Z -1.0000 I 0.0564 J 0.2590
G02 X 4.1846 Y 12.3660 Z -1.0000 I 0.0000 J -0.1869
G01 X 4.1926 Y 12.3552 Z -1.0000
G01 X 4.1884 Y 12.3398 Z -1.0000
G01 X 4.1797 Y 12.3338 Z -1.0000
G01 X 4.1758 Y 12.3290 Z -1.0000
G01 X 4.1797 Y 12.3206 Z -1.0000
G01 X 4.1888 Y 12.3180 Z -1.0000
G01 X 4.1926 Y 12.3225 Z -1.0000
G01 X 4.1977 Y 12.3300 Z -1.0000
G02 X 4.2238 Y 12.3351 Z -1.0000 I 0.0261 J -0.0641
G03 X 4.2515 Y 12.3385 Z -1.0000 I 0.0000 J 0.1143
G01 X 4.2549 Y 12.3429 Z -1.0000
G01 X 4.2583 Y 12.3473 Z -1.0000
G02 X 4.2855 Y 12.3507 Z -1.0000 I 0.0272 J -0.1066
G03 X 4.3118 Y 12.3558 Z -1.0000 I -0.0000 J 0.0697
G01 X 4.3187 Y 12.3642 Z -1.0000
G01 X 4.3243 Y 12.3678 Z -1.0000
G01 X 4.3406 Y 12.3584 Z -1.0000
G01 X 4.3477 Y 12.3431 Z -1.0000
G01 X 4.3425 Y 12.3366 Z -1.0000
G01 X 4.3319 Y 12.3281 Z -1.0000
G01 X 4.3330 Y 12.3113 Z -1.0000
G01 X 4.3484 Y 12.3039 Z -1.0000
G01 X 4.3672 Y 12.3177 Z -1.0000
G01 X 4.3792 Y 12.3255 Z -1.0000
G01 X 4.3847 Y 12.3172 Z -1.0000
G03 X 4.4106 Y 12.3119 Z -1.0000 I 0.0259 J 0.0598
G02 X 4.4370 Y 12.3071 Z -1.0000 I 0.0000 J -0.0753
G01 X 4.4418 Y 12.3002 Z -1.0000
G01 X 4.4465 Y 12.2933 Z -1.0000
G03 X 4.4729 Y 12.2885 Z -1.0000 I 0.0264 J 0.0701
G02 X 4.5006 Y 12.2851 Z -1.0000 I -0.0000 J -0.1143
G01 X 4.5040 Y 12.2807 Z -1.0000
G01 X 4.5067 Y 12.2756 Z -1.0000
G01 X 4.5151 Y 12.2729 Z -1.0000
G01 X 4.5244 Y 12.2702 Z -1.0000
G01 X 4.5306 Y 12.2632 Z -1.0000
G01 X 4.5352 Y 12.2603 Z -1.0000
G01 X 4.5397 Y 12.2632 Z -1.0000
G01 X 4.5467 Y 12.2690 Z -1.0000
G02 X 4.5786 Y 12.2729 Z -1.0000 I 0.0319 J -0.1277
G01 X 4.6035 Y 12.2825 Z -1.0000
G01 X 4.6130 Y 12.3040 Z -1.0000
G02 X 4.6164 Y 12.3318 Z -1.0000 I 0.1143 J 0.0000
G01 X 4.6208 Y 12.3352 Z -1.0000
G01 X 4.6252 Y 12.3318 Z -1.0000
G02 X 4.6286 Y 12.3040 Z -1.0000 I -0.1107 J -0.0277
G01 X 4.6376 Y 12.2819 Z -1.0000
G01 X 4.6591 Y 12.2729 Z -1.0000
G03 X 4.6872 Y 12.2767 Z -1.0000 I -0.0000 J 0.1046
G01 X 4.6941 Y 12.2826 Z -1.0000
G01 X 4.6987 Y 12.2855 Z -1.0000
G01 X 4.7032 Y 12.2826 Z -1.0000
G01 X 4.7339 Y 12.2622 Z -1.0000
G01 X 4.7532 Y 12.2807 Z -1.0000
G01 X 4.7565 Y 12.2852 Z -1.0000
G02 X 4.7807 Y 12.2885 Z -1.0000 I 0.0242 J -0.0856
G02 X 4.8057 Y 12.2823 Z -1.0000 I -0.0000 J -0.0536
G02 X 4.8397 Y 12.2574 Z -1.0000 I -0.0670 J -0.1270
G03 X 4.8757 Y 12.2373 Z -1.0000 I 0.0542 J 0.0547
G03 X 4.9679 Y 12.2262 Z -1.0000 I 0.0922 J 0.3793
G02 X 5.0608 Y 12.2225 Z -1.0000 I 0.0000 J -1.1601
G01 X 5.0646 Y 12.2184 Z -1.0000
G01 X 5.0611 Y 12.2140 Z -1.0000
G02 X 5.0334 Y 12.2106 Z -1.0000 I -0.0277 J 0.1109
G03 X 5.0071 Y 12.2059 Z -1.0000 I -0.0000 J -0.0753
G01 X 5.0023 Y 12.1989 Z -1.0000
G01 X 5.0071 Y 12.1920 Z -1.0000
G03 X 5.0329 Y 12.1873 Z -1.0000 I 0.0259 J 0.0678
G01 X 5.0574 Y 12.1802 Z -1.0000
G01 X 5.0668 Y 12.1659 Z -1.0000
G01 X 5.0712 Y 12.1775 Z -1.0000
G01 X 5.0799 Y 12.2028 Z -1.0000
G01 X 5.0953 Y 12.2106 Z -1.0000
G01 X 5.1111 Y 12.2029 Z -1.0000
G01 X 5.1212 Y 12.1775 Z -1.0000
G01 X 5.1255 Y 12.1853 Z -1.0000
G02 X 5.1302 Y 12.2227 Z -1.0000 I 0.2018 J -0.0067
G01 X 5.1346 Y 12.2262 Z -1.0000
G01 X 5.1401 Y 12.2239 Z -1.0000
G01 X 5.1424 Y 12.2184 Z -1.0000
G01 X 5.1457 Y 12.2139 Z -1.0000
G03 X 5.1658 Y 12.2106 Z -1.0000 I 0.0201 J 0.0602
G01 X 5.1831 Y 12.2046 Z -1.0000
G01 X 5.1891 Y 12.1920 Z -1.0000
G01 X 5.1970 Y 12.1805 Z -1.0000
G03 X 5.2514 Y 12.1678 Z -1.0000 I 0.0720 J 0.1856
G02 X 5.3059 Y 12.1551 Z -1.0000 I -0.0174 J -0.1978
G01 X 5.3137 Y 12.1436 Z -1.0000
G01 X 5.3223 Y 12.1336 Z -1.0000
G03 X 5.4383 Y 12.1250 Z -1.0000 I 0.1159 J 0.7743
G02 X 5.5573 Y 12.1194 Z -1.0000 I -0.0000 J -1.2729
G01 X 5.5628 Y 12.1133 Z -1.0000
G01 X 5.5681 Y 12.1069 Z -1.0000
G03 X 5.6251 Y 12.1016 Z -1.0000 I 0.0570 J 0.3036
G02 X 5.6837 Y 12.0980 Z -1.0000 I 0.0000 J -0.4761
G01 X 5.6874 Y 12.0938 Z -1.0000
G01 X 5.6905 Y 12.0892 Z -1.0000
G01 X 5.7069 Y 12.0860 Z -1.0000
G01 X 5.7194 Y 12.0791 Z -1.0000
G01 X 5.7263 Y 12.0557 Z -1.0000
G03 X 5.7308 Y 12.0285 Z -1.0000 I 0.0857 J -0.0000
G01 X 5.7380 Y 12.0209 Z -1.0000
G01 X 5.7444 Y 12.0241 Z -1.0000
G03 X 5.7497 Y 12.0590 Z -1.0000 I -0.1137 J 0.0349
G02 X 5.7602 Y 12.0911 Z -1.0000 I 0.0543 J 0.0000
G01 X 5.7808 Y 12.1016 Z -1.0000
G03 X 5.8085 Y 12.1050 Z -1.0000 I -0.0000 J 0.1143
G01 X 5.8120 Y 12.1094 Z -1.0000
G01 X 5.8147 Y 12.1145 Z -1.0000
G01 X 5.8236 Y 12.1172 Z -1.0000
G01 X 5.8314 Y 12.1133 Z -1.0000
G01 X 5.8353 Y 12.1016 Z -1.0000
G01 X 5.8404 Y 12.0911 Z -1.0000
G01 X 5.8548 Y 12.0860 Z -1.0000
G01 X 5.8700 Y 12.0818 Z -1.0000
G01 X 5.8742 Y 12.0744 Z -1.0000
G01 X 5.8798 Y 12.0682 Z -1.0000
G03 X 5.9988 Y 12.0627 Z -1.0000 I 0.1190 J 1.2695
G02 X 6.1178 Y 12.0571 Z -1.0000 I -0.0000 J -1.2729
G01 X 6.1234 Y 12.0510 Z -1.0000
G01 X 6.1281 Y 12.0441 Z -1.0000
G03 X 6.1540 Y 12.0393 Z -1.0000 I 0.0259 J 0.0679
G01 X 6.1786 Y 12.0464 Z -1.0000
G01 X 6.1881 Y 12.0607 Z -1.0000
G01 X 6.1891 Y 12.0413 Z -1.0000
G01 X 6.2040 Y 12.0167 Z -1.0000
G03 X 6.2796 Y 12.0004 Z -1.0000 I 0.0756 J 0.1674
G03 X 6.3638 Y 12.0091 Z -1.0000 I -0.0000 J 0.4102
G01 X 6.3725 Y 12.0199 Z -1.0000
G01 X 6.3794 Y 12.0324 Z -1.0000
G01 X 6.4036 Y 12.0393 Z -1.0000
G01 X 6.4278 Y 12.0324 Z -1.0000
G01 X 6.4348 Y 12.0199 Z -1.0000
G01 X 6.4430 Y 12.0086 Z -1.0000
G03 X 6.4970 Y 12.0004 Z -1.0000 I 0.0540 J 0.1730
G02 X 6.5540 Y 11.9951 Z -1.0000 I -0.0000 J -0.3085
G01 X 6.5593 Y 11.9887 Z -1.0000
G01 X 6.5649 Y 11.9827 Z -1.0000
G03 X 6.7150 Y 11.9770 Z -1.0000 I 0.1501 J 2.0019
G02 X 6.8616 Y 11.9679 Z -1.0000 I -0.0000 J -1.1819
G01 X 6.8707 Y 11.9576 Z -1.0000
G01 X 6.8777 Y 11.9451 Z -1.0000
G01 X 6.9019 Y 11.9381 Z -1.0000
G03 X 6.9282 Y 11.9429 Z -1.0000 I 0.0000 J 0.0753
G01 X 6.9330 Y 11.9498 Z -1.0000
G01 X 6.9378 Y 11.9567 Z -1.0000
G02 X 6.9641 Y 11.9615 Z -1.0000 I 0.0264 J -0.0701
G02 X 6.9905 Y 11.9567 Z -1.0000 I 0.0000 J -0.0753
G01 X 6.9953 Y 11.9498 Z -1.0000
G01 X 7.0006 Y 11.9434 Z -1.0000
G03 X 7.0576 Y 11.9381 Z -1.0000 I 0.0570 J 0.3036
G02 X 7.1146 Y 11.9328 Z -1.0000 I 0.0000 J -0.3084
G01 X 7.1198 Y 11.9264 Z -1.0000
G01 X 7.1246 Y 11.9196 Z -1.0000
G03 X 7.1510 Y 11.9148 Z -1.0000 I 0.0264 J 0.0701
G02 X 7.1787 Y 11.9113 Z -1.0000 I -0.0000 J -0.1143
G01 X 7.1821 Y 11.9070 Z -1.0000
G01 X 7.2161 Y 11.8736 Z -1.0000
G03 X 7.2896 Y 11.9090 Z -1.0000 I -0.0019 J 0.0980
G02 X 7.3432 Y 11.9329 Z -1.0000 I 0.0511 J -0.0424
G01 X 7.3690 Y 11.9062 Z -1.0000
G01 X 7.3722 Y 11.9025 Z -1.0000
G03 X 7.4313 Y 11.8992 Z -1.0000 I 0.0590 J 0.5190
G02 X 7.4882 Y 11.8938 Z -1.0000 I 0.0000 J -0.3084
G01 X 7.4935 Y 11.8875 Z -1.0000
G01 X 7.4983 Y 11.8806 Z -1.0000
G03 X 7.5247 Y 11.8758 Z -1.0000 I 0.0264 J 0.0701
G02 X 7.5524 Y 11.8724 Z -1.0000 I 0.0000 J -0.1143
G01 X 7.5558 Y 11.8680 Z -1.0000
G01 X 7.5588 Y 11.8632 Z -1.0000
G01 X 7.5714 Y 11.8602 Z -1.0000
G01 X 7.5831 Y 11.8563 Z -1.0000
G01 X 7.5870 Y 11.8485 Z -1.0000
G01 X 7.5831 Y 11.8407 Z -1.0000
G01 X 7.5714 Y 11.8368 Z -1.0000
G01 X 7.5597 Y 11.8329 Z -1.0000
G01 X 7.5558 Y 11.8252 Z -1.0000
G01 X 7.5606 Y 11.8183 Z -1.0000
G03 X 7.5870 Y 11.8135 Z -1.0000 I 0.0264 J 0.0701
G01 X 7.6111 Y 11.8204 Z -1.0000
G01 X 7.6181 Y 11.8329 Z -1.0000
G01 X 7.6242 Y 11.8463 Z -1.0000
G01 X 7.6408 Y 11.8524 Z -1.0000
G02 X 7.6613 Y 11.8488 Z -1.0000 I -0.0000 J -0.0608
G01 X 7.6680 Y 11.8427 Z -1.0000
G01 X 7.6726 Y 11.8398 Z -1.0000
G01 X 7.6771 Y 11.8427 Z -1.0000
G01 X 7.6841 Y 11.8486 Z -1.0000
G02 X 7.7122 Y 11.8524 Z -1.0000 I 0.0280 J -0.1023
G01 X 7.7358 Y 11.8455 Z -1.0000
G01 X 7.7427 Y 11.8329 Z -1.0000
G01 X 7.7469 Y 11.8177 Z -1.0000
G01 X 7.7543 Y 11.8135 Z -1.0000
G01 X 7.7626 Y 11.8169 Z -1.0000
G01 X 7.7660 Y 11.8252 Z -1.0000
G01 X 7.7702 Y 11.8326 Z -1.0000
G01 X 7.7855 Y 11.8368 Z -1.0000
G01 X 7.7992 Y 11.8311 Z -1.0000
G01 X 7.8049 Y 11.8174 Z -1.0000
G01 X 7.8007 Y 11.8021 Z -1.0000
G01 X 7.7933 Y 11.7979 Z -1.0000
G01 X 7.7850 Y 11.7945 Z -1.0000
G01 X 7.7816 Y 11.7862 Z -1.0000
G01 X 7.7850 Y 11.7780 Z -1.0000
G01 X 7.7933 Y 11.7746 Z -1.0000
G01 X 7.8022 Y 11.7773 Z -1.0000
G01 X 7.8049 Y 11.7824 Z -1.0000
G01 X 7.8086 Y 11.7865 Z -1.0000
G02 X 7.8672 Y 11.7902 Z -1.0000 I 0.0587 J -0.4638
G02 X 7.9212 Y 11.7819 Z -1.0000 I -0.0000 J -0.1812
G01 X 7.9295 Y 11.7707 Z -1.0000
G01 X 7.9364 Y 11.7582 Z -1.0000
G01 X 7.9606 Y 11.7512 Z -1.0000
G01 X 7.9838 Y 11.7593 Z -1.0000
G01 X 7.9918 Y 11.7758 Z -1.0000
G01 X 7.9974 Y 11.7877 Z -1.0000
G01 X 8.0060 Y 11.7875 Z -1.0000
G01 X 8.0221 Y 11.7793 Z -1.0000
G03 X 8.0683 Y 11.7746 Z -1.0000 I 0.0462 J 0.2245
G02 X 8.1112 Y 11.7694 Z -1.0000 I -0.0000 J -0.1811
G01 X 8.1163 Y 11.7629 Z -1.0000
G01 X 8.1211 Y 11.7560 Z -1.0000
G03 X 8.1475 Y 11.7512 Z -1.0000 I 0.0264 J 0.0701
G02 X 8.1738 Y 11.7465 Z -1.0000 I 0.0000 J -0.0753
G01 X 8.1786 Y 11.7396 Z -1.0000
G01 X 8.1834 Y 11.7327 Z -1.0000
G03 X 8.2098 Y 11.7279 Z -1.0000 I 0.0264 J 0.0701
G02 X 8.2375 Y 11.7245 Z -1.0000 I -0.0000 J -0.1143
G01 X 8.2409 Y 11.7201 Z -1.0000
G01 X 8.2445 Y 11.7160 Z -1.0000
G03 X 8.3032 Y 11.7123 Z -1.0000 I 0.0587 J 0.4638
G02 X 8.3602 Y 11.7070 Z -1.0000 I 0.0000 J -0.3084
G01 X 8.3655 Y 11.7006 Z -1.0000
G01 X 8.3702 Y 11.6937 Z -1.0000
G03 X 8.3962 Y 11.6889 Z -1.0000 I 0.0259 J 0.0681
G01 X 8.4183 Y 11.6981 Z -1.0000
G01 X 8.4292 Y 11.7220 Z -1.0000
G01 X 8.4385 Y 11.7360 Z -1.0000
G01 X 8.4520 Y 11.7337 Z -1.0000
G03 X 8.4734 Y 11.7147 Z -1.0000 I 0.1215 J 0.1155
G01 X 8.4807 Y 11.7123 Z -1.0000
G01 X 8.4860 Y 11.7087 Z -1.0000
G02 X 8.4924 Y 11.6831 Z -1.0000 I -0.0917 J -0.0367
G01 X 8.4940 Y 11.6909 Z -1.0000
G01 X 8.5026 Y 11.7180 Z -1.0000
G01 X 8.5228 Y 11.7279 Z -1.0000
G01 X 8.5449 Y 11.7217 Z -1.0000
G01 X 8.5484 Y 11.7124 Z -1.0000
G03 X 8.5461 Y 11.6967 Z -1.0000 I 0.0484 J -0.0154
G03 X 8.5489 Y 11.6424 Z -1.0000 I 0.5962 J 0.0041
G03 X 8.5642 Y 11.5987 Z -1.0000 I 0.0972 J 0.0096
G01 X 8.5844 Y 11.5877 Z -1.0000
G01 X 8.6056 Y 11.5967 Z -1.0000
G01 X 8.6146 Y 11.6189 Z -1.0000
G01 X 8.6237 Y 11.6409 Z -1.0000
G01 X 8.6457 Y 11.6500 Z -1.0000
G03 X 8.6718 Y 11.6551 Z -1.0000 I 0.0000 J 0.0693
G01 X 8.6769 Y 11.6627 Z -1.0000
G01 X 8.6807 Y 11.6671 Z -1.0000
G01 X 8.6897 Y 11.6646 Z -1.0000
G01 X 8.6937 Y 11.6562 Z -1.0000
G01 X 8.6897 Y 11.6514 Z -1.0000
G01 X 8.6814 Y 11.6451 Z -1.0000
G01 X 8.6769 Y 11.6261 Z -1.0000
G01 X 8.6845 Y 11.6109 Z -1.0000
G01 X 8.7080 Y 11.6033 Z -1.0000
G02 X 8.7357 Y 11.5999 Z -1.0000 I -0.0000 J -0.1143
G01 X 8.7391 Y 11.5955 Z -1.0000
G01 X 8.7355 Y 11.5914 Z -1.0000
G02 X 8.6769 Y 11.5877 Z -1.0000 I -0.0587 J 0.4638
G03 X 8.6265 Y 11.5758 Z -1.0000 I -0.0000 J -0.1127
G01 X 8.6146 Y 11.5565 Z -1.0000
G01 X 8.6027 Y 11.5373 Z -1.0000
G02 X 8.5523 Y 11.5254 Z -1.0000 I -0.0504 J 0.1008
G03 X 8.4937 Y 11.5218 Z -1.0000 I -0.0000 J -0.4760
G01 X 8.4900 Y 11.5176 Z -1.0000
G01 X 8.4866 Y 11.5132 Z -1.0000
G02 X 8.4589 Y 11.5098 Z -1.0000 I -0.0277 J 0.1109
G03 X 8.4325 Y 11.5050 Z -1.0000 I 0.0000 J -0.0753
G01 X 8.4277 Y 11.4981 Z -1.0000
G01 X 8.4230 Y 11.4912 Z -1.0000
G02 X 8.3966 Y 11.4864 Z -1.0000 I -0.0264 J 0.0701
G01 X 8.3724 Y 11.4934 Z -1.0000
G01 X 8.3655 Y 11.5059 Z -1.0000
G01 X 8.3585 Y 11.5184 Z -1.0000
G01 X 8.3343 Y 11.5254 Z -1.0000
G02 X 8.3080 Y 11.5301 Z -1.0000 I 0.0000 J 0.0753
G01 X 8.3032 Y 11.5370 Z -1.0000
G01 X 8.2984 Y 11.5439 Z -1.0000
G03 X 8.2720 Y 11.5487 Z -1.0000 I -0.0264 J -0.0701
G03 X 8.2457 Y 11.5440 Z -1.0000 I 0.0000 J -0.0753
G01 X 8.2409 Y 11.5370 Z -1.0000
G01 X 8.2457 Y 11.5302 Z -1.0000
G03 X 8.2720 Y 11.5254 Z -1.0000 I 0.0264 J 0.0701
G01 X 8.2962 Y 11.5184 Z -1.0000
G01 X 8.3032 Y 11.5059 Z -1.0000
G01 X 8.2962 Y 11.4934 Z -1.0000
G01 X 8.2722 Y 11.4864 Z -1.0000
G02 X 8.2463 Y 11.4930 Z -1.0000 I 0.0000 J 0.0542
G01 X 8.2363 Y 11.5059 Z -1.0000
G01 X 8.2099 Y 11.5273 Z -1.0000
G01 X 8.1835 Y 11.5078 Z -1.0000
G03 X 8.1814 Y 11.4706 Z -1.0000 I 0.0879 J -0.0235
G01 X 8.1903 Y 11.4630 Z -1.0000
G01 X 8.1986 Y 11.4665 Z -1.0000
G01 X 8.2020 Y 11.4747 Z -1.0000
G01 X 8.2047 Y 11.4837 Z -1.0000
G01 X 8.2098 Y 11.4864 Z -1.0000
G01 X 8.2148 Y 11.4837 Z -1.0000
G01 X 8.2175 Y 11.4747 Z -1.0000
G01 X 8.2229 Y 11.4683 Z -1.0000
G03 X 8.2935 Y 11.4615 Z -1.0000 I 0.0802 J 0.4600
G01 X 8.3051 Y 11.4573 Z -1.0000
G03 X 8.2476 Y 11.4482 Z -1.0000 I 0.0106 J -0.2539
G01 X 8.2409 Y 11.4394 Z -1.0000
G01 X 8.2342 Y 11.4308 Z -1.0000
G02 X 8.1786 Y 11.4241 Z -1.0000 I -0.0556 J 0.2270
G03 X 8.1232 Y 11.4173 Z -1.0000 I 0.0000 J -0.2286
G01 X 8.1163 Y 11.4086 Z -1.0000
G01 X 8.1110 Y 11.3983 Z -1.0000
G01 X 8.0940 Y 11.3930 Z -1.0000
G03 X 8.0717 Y 11.3918 Z -1.0000 I 0.0000 J -0.2138
G03 X 8.0473 Y 11.3881 Z -1.0000 I 0.0272 J -0.2595
G02 X 8.0266 Y 11.3877 Z -1.0000 I -0.0115 J 0.0582
G01 X 8.0229 Y 11.3920 Z -1.0000
G01 X 8.0261 Y 11.3975 Z -1.0000
G01 X 8.0385 Y 11.4008 Z -1.0000
G01 X 8.0486 Y 11.4062 Z -1.0000
G01 X 8.0541 Y 11.4241 Z -1.0000
G01 X 8.0463 Y 11.4397 Z -1.0000
G01 X 8.0229 Y 11.4475 Z -1.0000
G01 X 7.9996 Y 11.4397 Z -1.0000
G01 X 7.9918 Y 11.4241 Z -1.0000
G01 X 7.9829 Y 11.4097 Z -1.0000
G02 X 7.9451 Y 11.4008 Z -1.0000 I -0.0378 J 0.0756
G01 X 7.9134 Y 11.3865 Z -1.0000
G01 X 7.9102 Y 11.3615 Z -1.0000
G02 X 7.9157 Y 11.3424 Z -1.0000 I -0.0451 J -0.0234
G01 X 7.9122 Y 11.3386 Z -1.0000
G01 X 7.9047 Y 11.3424 Z -1.0000
G02 X 7.8870 Y 11.3717 Z -1.0000 I 0.1250 J 0.0950
G01 X 7.8765 Y 11.3784 Z -1.0000
G01 X 7.8691 Y 11.3716 Z -1.0000
G01 X 7.8592 Y 11.3462 Z -1.0000
G01 X 7.8434 Y 11.3385 Z -1.0000
G01 X 7.8282 Y 11.3308 Z -1.0000
G01 X 7.8205 Y 11.3074 Z -1.0000
G02 X 7.8171 Y 11.2796 Z -1.0000 I -0.1143 J -0.0000
G01 X 7.8127 Y 11.2762 Z -1.0000
G01 X 7.8085 Y 11.2798 Z -1.0000
G02 X 7.8049 Y 11.3190 Z -1.0000 I 0.2157 J 0.0393
G03 X 7.7944 Y 11.3514 Z -1.0000 I -0.0549 J 0.0000
G01 X 7.7738 Y 11.3619 Z -1.0000
G03 X 7.7475 Y 11.3571 Z -1.0000 I 0.0000 J -0.0753
G01 X 7.7427 Y 11.3502 Z -1.0000
G01 X 7.7374 Y 11.3438 Z -1.0000
G02 X 7.6804 Y 11.3385 Z -1.0000 I -0.0570 J 0.3036
G03 X 7.6300 Y 11.3266 Z -1.0000 I 0.0000 J -0.1127
G01 X 7.6181 Y 11.3074 Z -1.0000
G01 X 7.6091 Y 11.2853 Z -1.0000
G01 X 7.5875 Y 11.2762 Z -1.0000
G03 X 7.5620 Y 11.2700 Z -1.0000 I 0.0000 J -0.0558
G01 X 7.5534 Y 11.2587 Z -1.0000
G01 X 7.5491 Y 11.2552 Z -1.0000
G01 X 7.5442 Y 11.2587 Z -1.0000
G01 X 7.5247 Y 11.2728 Z -1.0000
G01 X 7.5051 Y 11.2587 Z -1.0000
G01 X 7.5002 Y 11.2552 Z -1.0000
G01 X 7.4959 Y 11.2587 Z -1.0000
G01 X 7.4823 Y 11.2652 Z -1.0000
G01 X 7.4702 Y 11.2451 Z -1.0000
G01 X 7.4808 Y 11.2242 Z -1.0000
G03 X 7.5149 Y 11.2126 Z -1.0000 I 0.0360 J 0.0496
G01 X 7.5266 Y 11.2083 Z -1.0000
G01 X 7.5020 Y 11.1975 Z -1.0000
G01 X 7.4935 Y 11.1785 Z -1.0000
G01 X 7.4851 Y 11.1601 Z -1.0000
G01 X 7.4624 Y 11.1517 Z -1.0000
G01 X 7.4384 Y 11.1589 Z -1.0000
G01 X 7.4313 Y 11.1721 Z -1.0000
G01 X 7.4268 Y 11.1830 Z -1.0000
G01 X 7.4202 Y 11.1834 Z -1.0000
G01 X 7.4140 Y 11.1722 Z -1.0000
G03 X 7.4135 Y 11.1318 Z -1.0000 I 0.1731 J -0.0225
G02 X 7.4139 Y 11.0930 Z -1.0000 I -0.2085 J -0.0215
G01 X 7.4100 Y 11.0894 Z -1.0000
G01 X 7.4053 Y 11.0929 Z -1.0000
G02 X 7.3983 Y 11.1289 Z -1.0000 I 0.1841 J 0.0544
G03 X 7.3907 Y 11.1667 Z -1.0000 I -0.1885 J -0.0181
G01 X 7.3824 Y 11.1806 Z -1.0000
G01 X 7.3704 Y 11.1838 Z -1.0000
G01 X 7.3512 Y 11.1722 Z -1.0000
G02 X 7.3192 Y 11.1560 Z -1.0000 I -0.0377 J 0.0350
G01 X 7.3067 Y 11.1672 Z -1.0000
G01 X 7.3096 Y 11.1799 Z -1.0000
G01 X 7.3142 Y 11.1828 Z -1.0000
G01 X 7.3202 Y 11.1852 Z -1.0000
G03 X 7.3300 Y 11.1983 Z -1.0000 I -0.0379 J 0.0386
G01 X 7.3287 Y 11.2081 Z -1.0000
G01 X 7.3148 Y 11.2139 Z -1.0000
G01 X 7.2990 Y 11.2061 Z -1.0000
G01 X 7.2911 Y 11.1828 Z -1.0000
G02 X 7.2852 Y 11.1576 Z -1.0000 I -0.0563 J 0.0000
G01 X 7.2756 Y 11.1516 Z -1.0000
G01 X 7.2659 Y 11.1576 Z -1.0000
G02 X 7.2600 Y 11.1828 Z -1.0000 I 0.0504 J 0.0252
G03 X 7.2566 Y 11.2105 Z -1.0000 I -0.1143 J 0.0000
G01 X 7.2522 Y 11.2139 Z -1.0000
G01 X 7.2475 Y 11.2108 Z -1.0000
G01 X 7.2444 Y 11.1944 Z -1.0000
G01 X 7.2375 Y 11.1819 Z -1.0000
G01 X 7.2133 Y 11.1750 Z -1.0000
G03 X 7.1869 Y 11.1702 Z -1.0000 I -0.0000 J -0.0753
G01 X 7.1821 Y 11.1633 Z -1.0000
G01 X 7.1869 Y 11.1565 Z -1.0000
G03 X 7.2146 Y 11.1516 Z -1.0000 I 0.0276 J 0.0766
G01 X 7.2424 Y 11.1470 Z -1.0000
G01 X 7.2369 Y 11.1448 Z -1.0000
G02 X 7.1788 Y 11.1479 Z -1.0000 I 0.0104 J 0.7403
G02 X 7.1247 Y 11.1579 Z -1.0000 I 0.0296 J 0.3129
G01 X 7.1198 Y 11.1642 Z -1.0000
G01 X 7.1148 Y 11.1699 Z -1.0000
G03 X 7.0264 Y 11.1750 Z -1.0000 I -0.0883 J -0.7701
G03 X 6.9382 Y 11.1697 Z -1.0000 I 0.0000 J -0.7446
G01 X 6.9330 Y 11.1639 Z -1.0000
G01 X 6.9292 Y 11.1560 Z -1.0000
G01 X 6.9155 Y 11.1502 Z -1.0000
G01 X 6.9099 Y 11.1438 Z -1.0000
G01 X 6.9155 Y 11.1302 Z -1.0000
G02 X 6.9301 Y 11.1115 Z -1.0000 I -0.0680 J -0.0682
G01 X 6.9330 Y 11.1010 Z -1.0000
G01 X 6.9201 Y 11.0890 Z -1.0000
G01 X 6.8931 Y 11.1037 Z -1.0000
G03 X 6.8378 Y 11.1289 Z -1.0000 I -0.0504 J -0.0375
G01 X 6.8084 Y 11.0971 Z -1.0000
G02 X 6.7897 Y 11.0458 Z -1.0000 I -0.0795 J 0.0000
G02 X 6.7493 Y 11.0271 Z -1.0000 I -0.0404 J 0.0341
G01 X 6.7462 Y 11.0470 Z -1.0000
G01 X 6.7375 Y 11.0518 Z -1.0000
G01 X 6.7192 Y 11.0304 Z -1.0000
G01 X 6.6962 Y 11.0073 Z -1.0000
G01 X 6.6839 Y 11.0154 Z -1.0000
G01 X 6.6873 Y 11.0237 Z -1.0000
G01 X 6.6956 Y 11.0271 Z -1.0000
G01 X 6.7055 Y 11.0370 Z -1.0000
G01 X 6.6956 Y 11.0582 Z -1.0000
G01 X 6.6868 Y 11.0618 Z -1.0000
G01 X 6.6839 Y 11.0592 Z -1.0000
G01 X 6.6801 Y 11.0542 Z -1.0000
G02 X 6.6527 Y 11.0505 Z -1.0000 I -0.0274 J 0.0983
G03 X 6.6264 Y 11.0457 Z -1.0000 I -0.0000 J -0.0753
G01 X 6.6216 Y 11.0388 Z -1.0000
G01 X 6.6171 Y 11.0316 Z -1.0000
G01 X 6.5983 Y 11.0271 Z -1.0000
G01 X 6.5827 Y 11.0193 Z -1.0000
G01 X 6.5749 Y 10.9960 Z -1.0000
G02 X 6.5715 Y 10.9683 Z -1.0000 I -0.1143 J -0.0000
G01 X 6.5671 Y 10.9648 Z -1.0000
G01 X 6.5625 Y 10.9680 Z -1.0000
G01 X 6.5593 Y 10.9853 Z -1.0000
G01 X 6.5547 Y 10.9958 Z -1.0000
G01 X 6.5476 Y 10.9960 Z -1.0000
G01 X 6.5385 Y 10.9851 Z -1.0000
G01 X 6.5360 Y 10.9756 Z -1.0000
G01 X 6.5264 Y 10.9718 Z -1.0000
G02 X 6.5004 Y 11.0135 Z -1.0000 I 0.0919 J 0.0863
G01 X 6.4921 Y 11.0226 Z -1.0000
G01 X 6.4728 Y 11.0271 Z -1.0000
G01 X 6.4579 Y 11.0196 Z -1.0000
G01 X 6.4503 Y 10.9965 Z -1.0000
G01 X 6.4574 Y 10.9719 Z -1.0000
G01 X 6.4717 Y 10.9624 Z -1.0000
G01 X 6.4501 Y 10.9616 Z -1.0000
G03 X 6.4101 Y 10.9581 Z -1.0000 I -0.0083 J -0.1357
G01 X 6.3975 Y 10.9490 Z -1.0000
G01 X 6.3808 Y 10.9381 Z -1.0000
G01 X 6.3725 Y 10.9454 Z -1.0000
G01 X 6.3677 Y 10.9522 Z -1.0000
G03 X 6.3405 Y 10.9570 Z -1.0000 I -0.0271 J -0.0744
G01 X 6.3188 Y 10.9477 Z -1.0000
G01 X 6.3115 Y 10.9266 Z -1.0000
G01 X 6.3081 Y 10.8999 Z -1.0000
G01 X 6.3014 Y 10.9017 Z -1.0000
G03 X 6.2437 Y 10.8983 Z -1.0000 I 0.0202 J -0.8329
G03 X 6.1920 Y 10.8872 Z -1.0000 I 0.0210 J -0.2223
G01 X 6.1856 Y 10.8782 Z -1.0000
G01 X 6.1799 Y 10.8693 Z -1.0000
G02 X 6.1545 Y 10.8636 Z -1.0000 I -0.0254 J 0.0541
G01 X 6.1339 Y 10.8531 Z -1.0000
G03 X 6.1234 Y 10.8208 Z -1.0000 I 0.0444 J -0.0323
G02 X 6.1184 Y 10.7829 Z -1.0000 I -0.1482 J -0.0000
G01 X 6.1120 Y 10.7779 Z -1.0000
G03 X 6.0760 Y 10.7630 Z -1.0000 I -0.0000 J -0.0510
G03 X 6.0611 Y 10.7270 Z -1.0000 I 0.0360 J -0.0360
G01 X 6.0567 Y 10.7200 Z -1.0000
G01 X 6.0377 Y 10.7157 Z -1.0000
G01 X 6.0222 Y 10.7079 Z -1.0000
G01 X 6.0144 Y 10.6845 Z -1.0000
G02 X 6.0110 Y 10.6568 Z -1.0000 I -0.1143 J -0.0000
G01 X 6.0066 Y 10.6534 Z -1.0000
G01 X 6.0022 Y 10.6568 Z -1.0000
G02 X 5.9988 Y 10.6845 Z -1.0000 I 0.1107 J 0.0277
G01 X 5.9897 Y 10.7065 Z -1.0000
G01 X 5.9676 Y 10.7157 Z -1.0000
G01 X 5.9456 Y 10.7065 Z -1.0000
G01 X 5.9365 Y 10.6845 Z -1.0000
G01 X 5.9287 Y 10.6612 Z -1.0000
G01 X 5.9131 Y 10.6534 Z -1.0000
G01 X 5.8975 Y 10.6457 Z -1.0000
G01 X 5.8898 Y 10.6229 Z -1.0000
G03 X 5.8937 Y 10.5952 Z -1.0000 I 0.1000 J -0.0000
G01 X 5.8995 Y 10.5891 Z -1.0000
G01 X 5.9029 Y 10.5840 Z -1.0000
G01 X 5.8986 Y 10.5729 Z -1.0000
G01 X 5.8848 Y 10.5729 Z -1.0000
G01 X 5.8742 Y 10.6028 Z -1.0000
G03 X 5.8637 Y 10.6351 Z -1.0000 I -0.0549 J 0.0000
G01 X 5.8431 Y 10.6456 Z -1.0000
G01 X 5.8204 Y 10.6371 Z -1.0000
G01 X 5.8119 Y 10.6183 Z -1.0000
G01 X 5.8034 Y 10.5996 Z -1.0000
G01 X 5.7808 Y 10.5911 Z -1.0000
G01 X 5.7588 Y 10.5820 Z -1.0000
G01 X 5.7497 Y 10.5600 Z -1.0000
G01 X 5.7405 Y 10.5379 Z -1.0000
G01 X 5.7185 Y 10.5288 Z -1.0000
G01 X 5.6965 Y 10.5379 Z -1.0000
G01 X 5.6874 Y 10.5600 Z -1.0000
G03 X 5.6826 Y 10.5863 Z -1.0000 I -0.0751 J -0.0000
G01 X 5.6757 Y 10.5911 Z -1.0000
G01 X 5.6688 Y 10.5863 Z -1.0000
G03 X 5.6640 Y 10.5600 Z -1.0000 I 0.0702 J -0.0264
G01 X 5.6571 Y 10.5358 Z -1.0000
G01 X 5.6446 Y 10.5288 Z -1.0000
G01 X 5.6320 Y 10.5219 Z -1.0000
G01 X 5.6251 Y 10.4977 Z -1.0000
G01 X 5.6132 Y 10.4784 Z -1.0000
G02 X 5.5628 Y 10.4665 Z -1.0000 I -0.0504 J 0.1008
G03 X 5.5124 Y 10.4546 Z -1.0000 I -0.0000 J -0.1127
G01 X 5.5005 Y 10.4354 Z -1.0000
G01 X 5.4914 Y 10.4134 Z -1.0000
G01 X 5.4694 Y 10.4043 Z -1.0000
G02 X 5.4431 Y 10.4090 Z -1.0000 I -0.0000 J 0.0753
G01 X 5.4383 Y 10.4159 Z -1.0000
G01 X 5.4335 Y 10.4228 Z -1.0000
G03 X 5.4071 Y 10.4276 Z -1.0000 I -0.0264 J -0.0701
G01 X 5.3865 Y 10.4171 Z -1.0000
G03 X 5.3760 Y 10.3848 Z -1.0000 I 0.0444 J -0.0323
G01 X 5.3612 Y 10.3567 Z -1.0000
G02 X 5.3137 Y 10.3420 Z -1.0000 I -0.0475 J 0.0691
G02 X 5.2567 Y 10.3473 Z -1.0000 I 0.0000 J 0.3085
G01 X 5.2514 Y 10.3537 Z -1.0000
G01 X 5.2467 Y 10.3605 Z -1.0000
G03 X 5.2203 Y 10.3653 Z -1.0000 I -0.0264 J -0.0701
G03 X 5.1939 Y 10.3606 Z -1.0000 I -0.0000 J -0.0753
G01 X 5.1891 Y 10.3537 Z -1.0000
G01 X 5.1927 Y 10.3456 Z -1.0000
G01 X 5.2019 Y 10.3420 Z -1.0000
G01 X 5.2367 Y 10.3273 Z -1.0000
G02 X 5.2514 Y 10.2910 Z -1.0000 I -0.0373 J -0.0363
G01 X 5.2374 Y 10.2784 Z -1.0000
G01 X 5.2125 Y 10.2953 Z -1.0000
G03 X 5.2027 Y 10.3084 Z -1.0000 I -0.0473 J -0.0252
G01 X 5.1966 Y 10.3108 Z -1.0000
G01 X 5.1920 Y 10.3079 Z -1.0000
G01 X 5.1891 Y 10.2953 Z -1.0000
G01 X 5.1832 Y 10.2857 Z -1.0000
G02 X 5.1580 Y 10.2797 Z -1.0000 I -0.0252 J 0.0504
G01 X 5.1360 Y 10.2888 Z -1.0000
G01 X 5.1269 Y 10.3108 Z -1.0000
G02 X 5.1316 Y 10.3372 Z -1.0000 I 0.0751 J -0.0000
G01 X 5.1385 Y 10.3420 Z -1.0000
G01 X 5.1454 Y 10.3468 Z -1.0000
G03 X 5.1502 Y 10.3731 Z -1.0000 I -0.0704 J 0.0264
G03 X 5.1454 Y 10.3995 Z -1.0000 I -0.0751 J -0.0000
G01 X 5.1385 Y 10.4043 Z -1.0000
G01 X 5.1316 Y 10.3995 Z -1.0000
G03 X 5.1269 Y 10.3731 Z -1.0000 I 0.0704 J -0.0264
G02 X 5.1221 Y 10.3468 Z -1.0000 I -0.0751 J 0.0000
G01 X 5.1152 Y 10.3420 Z -1.0000
G01 X 5.1083 Y 10.3372 Z -1.0000
G03 X 5.1035 Y 10.3108 Z -1.0000 I 0.0702 J -0.0264
G03 X 5.1083 Y 10.2845 Z -1.0000 I 0.0751 J 0.0000
G01 X 5.1152 Y 10.2797 Z -1.0000
G01 X 5.1221 Y 10.2749 Z -1.0000
G02 X 5.1269 Y 10.2489 Z -1.0000 I -0.0687 J -0.0261
G01 X 5.1387 Y 10.2294 Z -1.0000
G03 X 5.1911 Y 10.2154 Z -1.0000 I 0.0575 J 0.1104
G01 X 5.1911 Y 10.2112 Z -1.0000
G03 X 5.1447 Y 10.1923 Z -1.0000 I 0.0018 J -0.0706
G03 X 5.1269 Y 10.1513 Z -1.0000 I 0.0383 J -0.0410
G03 X 5.1305 Y 10.0965 Z -1.0000 I 0.4139 J 0.0000
G01 X 5.1346 Y 10.0929 Z -1.0000
G01 X 5.1390 Y 10.0895 Z -1.0000
G02 X 5.1424 Y 10.0617 Z -1.0000 I -0.1107 J -0.0277
G02 X 5.1390 Y 10.0340 Z -1.0000 I -0.1143 J -0.0000
G01 X 5.1346 Y 10.0306 Z -1.0000
G01 X 5.1300 Y 10.0337 Z -1.0000
G01 X 5.1269 Y 10.0506 Z -1.0000
G01 X 5.1145 Y 10.0805 Z -1.0000
G01 X 5.0846 Y 10.0929 Z -1.0000
G01 X 5.0709 Y 10.0865 Z -1.0000
G01 X 5.0646 Y 10.0695 Z -1.0000
G03 X 5.0678 Y 10.0494 Z -1.0000 I 0.0636 J 0.0000
G01 X 5.0724 Y 10.0462 Z -1.0000
G01 X 5.0779 Y 10.0439 Z -1.0000
G01 X 5.0802 Y 10.0384 Z -1.0000
G01 X 5.0766 Y 10.0341 Z -1.0000
G02 X 5.0412 Y 10.0306 Z -1.0000 I -0.0354 J 0.1770
G01 X 5.0162 Y 10.0167 Z -1.0000
G03 X 5.0023 Y 9.9683 Z -1.0000 I 0.0774 J -0.0484
G02 X 4.9904 Y 9.9179 Z -1.0000 I -0.1127 J -0.0000
G01 X 4.9712 Y 9.9060 Z -1.0000
G02 X 4.9448 Y 9.9108 Z -1.0000 I -0.0000 J 0.0753
G01 X 4.9400 Y 9.9177 Z -1.0000
G01 X 4.9353 Y 9.9246 Z -1.0000
G03 X 4.9089 Y 9.9294 Z -1.0000 I -0.0264 J -0.0701
G03 X 4.8826 Y 9.9246 Z -1.0000 I -0.0000 J -0.0753
G01 X 4.8777 Y 9.9177 Z -1.0000
G01 X 4.8825 Y 9.9108 Z -1.0000
G03 X 4.9089 Y 9.9060 Z -1.0000 I 0.0264 J 0.0701
G01 X 4.9309 Y 9.8969 Z -1.0000
G01 X 4.9400 Y 9.8749 Z -1.0000
G01 X 4.9322 Y 9.8515 Z -1.0000
G01 X 4.9167 Y 9.8437 Z -1.0000
G01 X 4.9011 Y 9.8359 Z -1.0000
G01 X 4.8933 Y 9.8126 Z -1.0000
G02 X 4.8899 Y 9.7849 Z -1.0000 I -0.1143 J -0.0000
G01 X 4.8855 Y 9.7814 Z -1.0000
G01 X 4.8809 Y 9.7783 Z -1.0000
G01 X 4.8777 Y 9.7620 Z -1.0000
G01 X 4.8708 Y 9.7495 Z -1.0000
G01 X 4.8466 Y 9.7425 Z -1.0000
G03 X 4.8203 Y 9.7378 Z -1.0000 I -0.0000 J -0.0753
G01 X 4.8155 Y 9.7308 Z -1.0000
G01 X 4.8107 Y 9.7240 Z -1.0000
G02 X 4.7843 Y 9.7192 Z -1.0000 I -0.0264 J 0.0701
G01 X 4.7623 Y 9.7100 Z -1.0000
G01 X 4.7532 Y 9.6880 Z -1.0000
G01 X 4.7601 Y 9.6638 Z -1.0000
G01 X 4.7726 Y 9.6569 Z -1.0000
G01 X 4.7852 Y 9.6499 Z -1.0000
G01 X 4.7921 Y 9.6257 Z -1.0000
G01 X 4.7990 Y 9.6015 Z -1.0000
G01 X 4.8116 Y 9.5946 Z -1.0000
G01 X 4.8241 Y 9.5877 Z -1.0000
G01 X 4.8310 Y 9.5635 Z -1.0000
G01 X 4.8388 Y 9.5401 Z -1.0000
G01 X 4.8544 Y 9.5323 Z -1.0000
G01 X 4.8699 Y 9.5245 Z -1.0000
G01 X 4.8777 Y 9.5012 Z -1.0000
G01 X 4.8658 Y 9.4819 Z -1.0000
G02 X 4.8155 Y 9.4700 Z -1.0000 I -0.0504 J 0.1008
G02 X 4.7651 Y 9.4819 Z -1.0000 I -0.0000 J 0.1127
G01 X 4.7532 Y 9.5012 Z -1.0000
G03 X 4.7498 Y 9.5289 Z -1.0000 I -0.1143 J 0.0000
G01 X 4.7454 Y 9.5323 Z -1.0000
G01 X 4.7410 Y 9.5289 Z -1.0000
G03 X 4.7376 Y 9.5012 Z -1.0000 I 0.1107 J -0.0277
G03 X 4.7410 Y 9.4735 Z -1.0000 I 0.1143 J -0.0000
G01 X 4.7454 Y 9.4700 Z -1.0000
G01 X 4.7498 Y 9.4666 Z -1.0000
G02 X 4.7532 Y 9.4389 Z -1.0000 I -0.1107 J -0.0277
G01 X 4.7633 Y 9.4179 Z -1.0000
G01 X 4.7921 Y 9.4078 Z -1.0000
G01 X 4.8209 Y 9.3976 Z -1.0000
G01 X 4.8310 Y 9.3766 Z -1.0000
G01 X 4.8388 Y 9.3533 Z -1.0000
G01 X 4.8544 Y 9.3455 Z -1.0000
G01 X 4.8699 Y 9.3377 Z -1.0000
G01 X 4.8777 Y 9.3143 Z -1.0000
G01 X 4.8686 Y 9.2923 Z -1.0000
G01 X 4.8466 Y 9.2832 Z -1.0000
G01 X 4.8269 Y 9.2946 Z -1.0000
G02 X 4.8155 Y 9.3377 Z -1.0000 I 0.0754 J 0.0431
G03 X 4.8124 Y 9.3892 Z -1.0000 I -0.4397 J -0.0000
G01 X 4.8090 Y 9.3922 Z -1.0000
G01 X 4.7807 Y 9.3802 Z -1.0000
G01 X 4.7687 Y 9.3508 Z -1.0000
G01 X 4.7708 Y 9.3476 Z -1.0000
G01 X 4.7804 Y 9.3455 Z -1.0000
G01 X 4.7873 Y 9.3408 Z -1.0000
G02 X 4.7921 Y 9.3144 Z -1.0000 I -0.0702 J -0.0264
G01 X 4.7852 Y 9.2902 Z -1.0000
G01 X 4.7726 Y 9.2832 Z -1.0000
G01 X 4.7616 Y 9.2748 Z -1.0000
G03 X 4.7532 Y 9.2102 Z -1.0000 I 0.2421 J -0.0645
G02 X 4.7482 Y 9.1396 Z -1.0000 I -0.5052 J -0.0000
G01 X 4.7415 Y 9.1275 Z -1.0000
G01 X 4.7324 Y 9.1167 Z -1.0000
G01 X 4.7298 Y 9.1071 Z -1.0000
G01 X 4.7331 Y 9.0997 Z -1.0000
G01 X 4.7415 Y 9.0964 Z -1.0000
G01 X 4.7484 Y 9.0916 Z -1.0000
G02 X 4.7532 Y 9.0653 Z -1.0000 I -0.0702 J -0.0264
G02 X 4.7472 Y 9.0401 Z -1.0000 I -0.0563 J 0.0000
G01 X 4.7376 Y 9.0341 Z -1.0000
G01 X 4.7249 Y 9.0313 Z -1.0000
G01 X 4.7220 Y 9.0268 Z -1.0000
G01 X 4.7246 Y 9.0215 Z -1.0000
G01 X 4.7376 Y 9.0146 Z -1.0000
G01 X 4.7459 Y 9.0029 Z -1.0000
G01 X 4.7370 Y 8.9911 Z -1.0000
G01 X 4.7265 Y 8.9833 Z -1.0000
G01 X 4.7254 Y 8.9744 Z -1.0000
G01 X 4.7283 Y 8.9625 Z -1.0000
G02 X 4.7298 Y 8.9361 Z -1.0000 I -0.2251 J -0.0263
G03 X 4.7344 Y 8.9142 Z -1.0000 I 0.0548 J 0.0000
G01 X 4.7415 Y 8.9095 Z -1.0000
G01 X 4.7479 Y 8.9042 Z -1.0000
G02 X 4.7532 Y 8.8473 Z -1.0000 I -0.3040 J -0.0570
G03 X 4.7568 Y 8.7886 Z -1.0000 I 0.4729 J 0.0000
G01 X 4.7610 Y 8.7850 Z -1.0000
G01 X 4.7653 Y 8.7816 Z -1.0000
G02 X 4.7688 Y 8.7538 Z -1.0000 I -0.1107 J -0.0277
G02 X 4.7653 Y 8.7261 Z -1.0000 I -0.1143 J -0.0000
G01 X 4.7610 Y 8.7227 Z -1.0000
G01 X 4.7566 Y 8.7261 Z -1.0000
G02 X 4.7532 Y 8.7538 Z -1.0000 I 0.1107 J 0.0277
G01 X 4.7441 Y 8.7759 Z -1.0000
G01 X 4.7220 Y 8.7850 Z -1.0000
G01 X 4.7000 Y 8.7941 Z -1.0000
G01 X 4.6909 Y 8.8161 Z -1.0000
G03 X 4.6875 Y 8.8438 Z -1.0000 I -0.1143 J 0.0000
G01 X 4.6831 Y 8.8473 Z -1.0000
G01 X 4.6787 Y 8.8438 Z -1.0000
G03 X 4.6753 Y 8.8161 Z -1.0000 I 0.1107 J -0.0277
G03 X 4.6787 Y 8.7884 Z -1.0000 I 0.1143 J -0.0000
G01 X 4.6831 Y 8.7850 Z -1.0000
G01 X 4.6873 Y 8.7814 Z -1.0000
G02 X 4.6909 Y 8.7344 Z -1.0000 I -0.3051 J -0.0470
G02 X 4.6799 Y 8.6948 Z -1.0000 I -0.0767 J -0.0000
G01 X 4.6604 Y 8.6838 Z -1.0000
G02 X 4.6326 Y 8.6875 Z -1.0000 I 0.0000 J 0.1057
G01 X 4.6269 Y 8.6930 Z -1.0000
G01 X 4.6108 Y 8.6991 Z -1.0000
G01 X 4.5975 Y 8.6762 Z -1.0000
G01 X 4.6021 Y 8.6650 Z -1.0000
G01 X 4.6130 Y 8.6604 Z -1.0000
G01 X 4.6227 Y 8.6545 Z -1.0000
G02 X 4.6286 Y 8.6293 Z -1.0000 I -0.0504 J -0.0252
G03 X 4.6320 Y 8.6016 Z -1.0000 I 0.1143 J -0.0000
G01 X 4.6364 Y 8.5982 Z -1.0000
G01 X 4.6408 Y 8.5947 Z -1.0000
G02 X 4.6442 Y 8.5670 Z -1.0000 I -0.1107 J -0.0277
G02 X 4.6408 Y 8.5393 Z -1.0000 I -0.1143 J -0.0000
G01 X 4.6364 Y 8.5359 Z -1.0000
G01 X 4.6112 Y 8.5099 Z -1.0000
G01 X 4.6384 Y 8.4709 Z -1.0000
G01 X 4.6381 Y 8.4616 Z -1.0000
G02 X 4.5651 Y 8.4462 Z -1.0000 I -0.1008 J 0.2989
G03 X 4.5108 Y 8.4347 Z -1.0000 I 0.0203 J -0.2286
G01 X 4.5041 Y 8.4253 Z -1.0000
G01 X 4.5110 Y 8.4170 Z -1.0000
G03 X 4.5683 Y 8.4137 Z -1.0000 I 0.0424 J 0.2357
G01 X 4.6092 Y 8.4138 Z -1.0000
G03 X 4.5772 Y 8.3975 Z -1.0000 I 0.0097 J -0.0583
G01 X 4.5663 Y 8.3714 Z -1.0000
G01 X 4.5596 Y 8.3557 Z -1.0000
G01 X 4.5430 Y 8.3490 Z -1.0000
G01 X 4.5274 Y 8.3413 Z -1.0000
G01 X 4.5196 Y 8.3179 Z -1.0000
G02 X 4.5162 Y 8.2902 Z -1.0000 I -0.1143 J -0.0000
G01 X 4.5118 Y 8.2868 Z -1.0000
G01 X 4.5078 Y 8.2830 Z -1.0000
G03 X 4.5041 Y 8.1933 Z -1.0000 I 1.0754 J -0.0897
G02 X 4.4910 Y 8.1130 Z -1.0000 I -0.2542 J -0.0000
G01 X 4.4729 Y 8.0999 Z -1.0000
G01 X 4.4509 Y 8.1090 Z -1.0000
G01 X 4.4418 Y 8.1311 Z -1.0000
G03 X 4.4370 Y 8.1574 Z -1.0000 I -0.0751 J -0.0000
G01 X 4.4301 Y 8.1622 Z -1.0000
G01 X 4.4237 Y 8.1569 Z -1.0000
G03 X 4.4184 Y 8.0999 Z -1.0000 I 0.3040 J -0.0570
G03 X 4.4332 Y 8.0524 Z -1.0000 I 0.0839 J -0.0000
G01 X 4.4612 Y 8.0376 Z -1.0000
G02 X 4.4944 Y 8.0280 Z -1.0000 I -0.0000 J -0.0618
G01 X 4.5041 Y 8.0104 Z -1.0000
G01 X 4.5126 Y 7.9916 Z -1.0000
G01 X 4.5352 Y 7.9831 Z -1.0000
G01 X 4.5578 Y 7.9916 Z -1.0000
G01 X 4.5663 Y 8.0104 Z -1.0000
G02 X 4.5697 Y 8.0343 Z -1.0000 I 0.0870 J -0.0000
G01 X 4.5741 Y 8.0376 Z -1.0000
G01 X 4.5785 Y 8.0342 Z -1.0000
G02 X 4.5819 Y 8.0065 Z -1.0000 I -0.1107 J -0.0277
G01 X 4.5718 Y 7.9855 Z -1.0000
G01 X 4.5430 Y 7.9754 Z -1.0000
G03 X 4.5115 Y 7.9679 Z -1.0000 I 0.0000 J -0.0704
G01 X 4.5041 Y 7.9559 Z -1.0000
G01 X 4.4971 Y 7.9434 Z -1.0000
G01 X 4.4729 Y 7.9364 Z -1.0000
G03 X 4.4466 Y 7.9317 Z -1.0000 I -0.0000 J -0.0753
G01 X 4.4418 Y 7.9248 Z -1.0000
G01 X 4.4384 Y 7.9165 Z -1.0000
G01 X 4.4301 Y 7.9131 Z -1.0000
G01 X 4.4232 Y 7.9083 Z -1.0000
G03 X 4.4184 Y 7.8819 Z -1.0000 I 0.0702 J -0.0264
G03 X 4.4232 Y 7.8556 Z -1.0000 I 0.0751 J 0.0000
G01 X 4.4301 Y 7.8508 Z -1.0000
G01 X 4.4370 Y 7.8460 Z -1.0000
G02 X 4.4418 Y 7.8197 Z -1.0000 I -0.0702 J -0.0264
G01 X 4.4487 Y 7.7955 Z -1.0000
G01 X 4.4612 Y 7.7885 Z -1.0000
G01 X 4.4738 Y 7.7816 Z -1.0000
G01 X 4.4807 Y 7.7574 Z -1.0000
G03 X 4.4855 Y 7.7310 Z -1.0000 I 0.0751 J 0.0000
G01 X 4.4924 Y 7.7262 Z -1.0000
G01 X 4.5013 Y 7.7290 Z -1.0000
G01 X 4.5041 Y 7.7344 Z -1.0000
G01 X 4.5066 Y 7.7380 Z -1.0000
G01 X 4.5127 Y 7.7373 Z -1.0000
G01 X 4.5121 Y 7.7274 Z -1.0000
G02 X 4.4710 Y 7.7185 Z -1.0000 I -0.0415 J 0.0917
G01 X 4.4500 Y 7.7102 Z -1.0000
G01 X 4.4418 Y 7.6911 Z -1.0000
G02 X 4.4372 Y 7.6685 Z -1.0000 I -0.0574 J 0.0000
G01 X 4.4301 Y 7.6639 Z -1.0000
G01 X 4.4232 Y 7.6591 Z -1.0000
G03 X 4.4184 Y 7.6324 Z -1.0000 I 0.0720 J -0.0267
G02 X 4.4130 Y 7.6031 Z -1.0000 I -0.0820 J -0.0000
G02 X 4.3990 Y 7.5814 Z -1.0000 I -0.0579 J 0.0221
G03 X 4.3803 Y 7.5490 Z -1.0000 I 0.0510 J -0.0510
G01 X 4.3877 Y 7.5393 Z -1.0000
G01 X 4.3921 Y 7.5357 Z -1.0000
G02 X 4.3936 Y 7.5062 Z -1.0000 I -0.1178 J -0.0208
G01 X 4.3826 Y 7.4832 Z -1.0000
G01 X 4.3610 Y 7.4758 Z -1.0000
G01 X 4.3442 Y 7.4643 Z -1.0000
G03 X 4.3338 Y 7.3824 Z -1.0000 I 0.2531 J -0.0738
G02 X 4.3223 Y 7.3014 Z -1.0000 I -0.2395 J -0.0073
G01 X 4.3036 Y 7.2889 Z -1.0000
G01 X 4.2864 Y 7.2785 Z -1.0000
G01 X 4.2906 Y 7.2585 Z -1.0000
G01 X 4.3092 Y 7.2489 Z -1.0000
G01 X 4.3180 Y 7.2529 Z -1.0000
G01 X 4.3280 Y 7.2627 Z -1.0000
G02 X 4.3522 Y 7.2712 Z -1.0000 I 0.0398 J -0.0745
G03 X 4.3764 Y 7.2781 Z -1.0000 I -0.0265 J 0.1392
G01 X 4.3783 Y 7.2812 Z -1.0000
G02 X 4.3778 Y 7.3379 Z -1.0000 I 0.2359 J 0.0306
G01 X 4.3847 Y 7.3388 Z -1.0000
G01 X 4.4050 Y 7.3240 Z -1.0000
G01 X 4.4184 Y 7.3365 Z -1.0000
G01 X 4.4161 Y 7.3426 Z -1.0000
G01 X 4.4048 Y 7.3518 Z -1.0000
G01 X 4.4009 Y 7.3600 Z -1.0000
G01 X 4.4096 Y 7.3626 Z -1.0000
G03 X 4.4262 Y 7.3759 Z -1.0000 I -0.0484 J 0.0779
G01 X 4.4383 Y 7.3829 Z -1.0000
G01 X 4.4418 Y 7.3803 Z -1.0000
G01 X 4.4554 Y 7.3594 Z -1.0000
G01 X 4.4791 Y 7.3638 Z -1.0000
G01 X 4.4807 Y 7.3691 Z -1.0000
G01 X 4.4751 Y 7.3830 Z -1.0000
G01 X 4.4758 Y 7.4034 Z -1.0000
G01 X 4.4978 Y 7.4148 Z -1.0000
G01 X 4.5079 Y 7.4270 Z -1.0000
G01 X 4.4918 Y 7.4461 Z -1.0000
G01 X 4.4816 Y 7.4622 Z -1.0000
G01 X 4.4942 Y 7.4755 Z -1.0000
G01 X 4.5077 Y 7.4811 Z -1.0000
G01 X 4.5153 Y 7.4911 Z -1.0000
G02 X 4.5210 Y 7.5040 Z -1.0000 I 0.1279 J -0.0484
G02 X 4.5355 Y 7.5315 Z -1.0000 I 0.6159 J -0.3088
G01 X 4.5462 Y 7.5411 Z -1.0000
G01 X 4.5508 Y 7.5380 Z -1.0000
G01 X 4.5636 Y 7.5240 Z -1.0000
G01 X 4.5911 Y 7.5342 Z -1.0000
G03 X 4.6099 Y 7.5637 Z -1.0000 I -0.0654 J 0.0625
G01 X 4.6053 Y 7.5705 Z -1.0000
G01 X 4.5961 Y 7.5821 Z -1.0000
G01 X 4.6111 Y 7.5946 Z -1.0000
G01 X 4.6053 Y 7.6016 Z -1.0000
G01 X 4.6116 Y 7.6086 Z -1.0000
G02 X 4.6311 Y 7.6058 Z -1.0000 I 0.0017 J -0.0569
G01 X 4.6326 Y 7.6017 Z -1.0000
G01 X 4.6402 Y 7.5988 Z -1.0000
G01 X 4.6489 Y 7.6059 Z -1.0000
G01 X 4.6514 Y 7.6163 Z -1.0000
G02 X 4.6508 Y 7.6290 Z -1.0000 I 0.1451 J 0.0139
G02 X 4.6512 Y 7.6406 Z -1.0000 I 0.1222 J 0.0010
G01 X 4.6544 Y 7.6436 Z -1.0000
G01 X 4.6599 Y 7.6406 Z -1.0000
G01 X 4.6676 Y 7.6365 Z -1.0000
G01 X 4.6752 Y 7.6406 Z -1.0000
G01 X 4.6786 Y 7.6575 Z -1.0000
G01 X 4.6709 Y 7.6640 Z -1.0000
G01 X 4.6604 Y 7.6770 Z -1.0000
G01 X 4.6774 Y 7.6936 Z -1.0000
G01 X 4.6865 Y 7.6909 Z -1.0000
G01 X 4.6909 Y 7.6801 Z -1.0000
G01 X 4.6940 Y 7.6670 Z -1.0000
G01 X 4.6990 Y 7.6640 Z -1.0000
G01 X 4.7164 Y 7.6769 Z -1.0000
G01 X 4.7079 Y 7.6933 Z -1.0000
G01 X 4.6985 Y 7.7077 Z -1.0000
G01 X 4.7104 Y 7.7185 Z -1.0000
G01 X 4.7192 Y 7.7156 Z -1.0000
G01 X 4.7221 Y 7.7101 Z -1.0000
G01 X 4.7248 Y 7.7056 Z -1.0000
G01 X 4.7318 Y 7.7052 Z -1.0000
G01 X 4.7384 Y 7.7105 Z -1.0000
G01 X 4.7396 Y 7.7175 Z -1.0000
G01 X 4.7412 Y 7.7234 Z -1.0000
G01 X 4.7479 Y 7.7263 Z -1.0000
G01 X 4.7568 Y 7.7292 Z -1.0000
G03 X 4.7808 Y 7.7500 Z -1.0000 I -0.1019 J 0.1415
G03 X 4.7949 Y 7.7728 Z -1.0000 I -0.0461 J 0.0442
G01 X 4.7920 Y 7.7815 Z -1.0000
G01 X 4.7974 Y 7.7870 Z -1.0000
G01 X 4.8130 Y 7.7889 Z -1.0000
G03 X 4.8307 Y 7.8003 Z -1.0000 I -0.0207 J 0.0519
G03 X 4.8954 Y 7.8703 Z -1.0000 I -0.4950 J 0.5219
G01 X 4.8983 Y 7.8840 Z -1.0000
G01 X 4.9030 Y 7.8928 Z -1.0000
G01 X 4.9132 Y 7.8893 Z -1.0000
G01 X 4.9191 Y 7.8873 Z -1.0000
G03 X 4.9372 Y 7.8987 Z -1.0000 I -0.0200 J 0.0517
G03 X 4.9502 Y 7.9183 Z -1.0000 I -0.0350 J 0.0373
G01 X 4.9515 Y 7.9374 Z -1.0000
G02 X 4.9508 Y 7.9568 Z -1.0000 I 0.0537 J 0.0118
G01 X 4.9552 Y 7.9635 Z -1.0000
G01 X 4.9599 Y 7.9623 Z -1.0000
G01 X 4.9634 Y 7.9487 Z -1.0000
G01 X 4.9674 Y 7.9288 Z -1.0000
G01 X 4.9708 Y 7.9301 Z -1.0000
G03 X 5.0101 Y 7.9677 Z -1.0000 I -0.7524 J 0.8254
G02 X 5.0495 Y 8.0051 Z -1.0000 I 0.6953 J -0.6917
G01 X 5.0534 Y 8.0066 Z -1.0000
G01 X 5.0574 Y 8.0079 Z -1.0000
G03 X 5.0681 Y 8.0163 Z -1.0000 I -0.0435 J 0.0656
G02 X 5.0786 Y 8.0257 Z -1.0000 I 0.1216 J -0.1261
G02 X 5.1036 Y 8.0455 Z -1.0000 I 0.6323 J -0.7713
G03 X 5.1285 Y 8.0656 Z -1.0000 I -0.3871 J 0.5042
G03 X 5.1585 Y 8.0922 Z -1.0000 I -0.6542 J 0.7690
G02 X 5.1891 Y 8.1175 Z -1.0000 I 0.2496 J -0.2708
G01 X 5.1984 Y 8.1217 Z -1.0000
G01 X 5.2074 Y 8.1261 Z -1.0000
G03 X 5.2381 Y 8.1548 Z -1.0000 I -0.2370 J 0.2843
G02 X 5.2684 Y 8.1837 Z -1.0000 I 0.3135 J -0.2993
G01 X 5.2739 Y 8.1857 Z -1.0000
G01 X 5.2793 Y 8.1875 Z -1.0000
G03 X 5.2941 Y 8.2011 Z -1.0000 I -0.0646 J 0.0851
G02 X 5.3086 Y 8.2125 Z -1.0000 I 0.0402 J -0.0363
G01 X 5.3148 Y 8.2123 Z -1.0000
G01 X 5.3195 Y 8.2117 Z -1.0000
G01 X 5.3215 Y 8.2145 Z -1.0000
G01 X 5.3240 Y 8.2195 Z -1.0000
G02 X 5.3741 Y 8.2556 Z -1.0000 I 0.4775 J -0.6104
G03 X 5.4256 Y 8.2916 Z -1.0000 I -0.6809 J 1.0298
G03 X 5.4383 Y 8.3029 Z -1.0000 I -0.0540 J 0.0733
G02 X 5.5458 Y 8.3958 Z -1.0000 I 0.4722 J -0.4381
G02 X 5.5963 Y 8.4115 Z -1.0000 I 0.0505 J -0.0735
G01 X 5.6057 Y 8.4146 Z -1.0000
G01 X 5.6126 Y 8.4237 Z -1.0000
G01 X 5.6199 Y 8.4317 Z -1.0000
G01 X 5.6348 Y 8.4345 Z -1.0000
G03 X 5.6562 Y 8.4372 Z -1.0000 I 0.0042 J 0.0525
G01 X 5.6568 Y 8.4421 Z -1.0000
G01 X 5.6521 Y 8.4503 Z -1.0000
G01 X 5.6561 Y 8.4618 Z -1.0000
G01 X 5.6676 Y 8.4703 Z -1.0000
G01 X 5.6770 Y 8.4704 Z -1.0000
G01 X 5.6848 Y 8.4703 Z -1.0000
G01 X 5.6874 Y 8.4739 Z -1.0000
G01 X 5.6903 Y 8.4785 Z -1.0000
G01 X 5.7030 Y 8.4814 Z -1.0000
G01 X 5.7147 Y 8.4853 Z -1.0000
G01 X 5.7185 Y 8.4931 Z -1.0000
G01 X 5.7321 Y 8.5075 Z -1.0000
G01 X 5.7529 Y 8.4950 Z -1.0000
G01 X 5.7530 Y 8.5028 Z -1.0000
G01 X 5.7557 Y 8.5148 Z -1.0000
G01 X 5.7677 Y 8.5203 Z -1.0000
G01 X 5.7851 Y 8.5169 Z -1.0000
G01 X 5.7964 Y 8.5086 Z -1.0000
G01 X 5.8073 Y 8.4995 Z -1.0000
G01 X 5.8168 Y 8.4970 Z -1.0000
G01 X 5.8248 Y 8.4942 Z -1.0000
G01 X 5.8275 Y 8.4884 Z -1.0000
G01 X 5.8247 Y 8.4840 Z -1.0000
G01 X 5.8171 Y 8.4838 Z -1.0000
G01 X 5.8069 Y 8.4850 Z -1.0000
G01 X 5.7959 Y 8.4812 Z -1.0000
G01 X 5.7937 Y 8.4753 Z -1.0000
G01 X 5.7996 Y 8.4690 Z -1.0000
G01 X 5.8268 Y 8.4693 Z -1.0000
G03 X 5.8840 Y 8.5037 Z -1.0000 I -0.0837 J 0.2039
G01 X 5.8983 Y 8.5358 Z -1.0000
G01 X 5.8822 Y 8.5491 Z -1.0000
G01 X 5.8668 Y 8.5413 Z -1.0000
G01 X 5.8691 Y 8.5359 Z -1.0000
G01 X 5.8779 Y 8.5320 Z -1.0000
G01 X 5.8814 Y 8.5223 Z -1.0000
G01 X 5.8769 Y 8.5184 Z -1.0000
G01 X 5.8714 Y 8.5259 Z -1.0000
G01 X 5.8650 Y 8.5281 Z -1.0000
G01 X 5.8611 Y 8.5253 Z -1.0000
G01 X 5.8615 Y 8.5164 Z -1.0000
G01 X 5.8559 Y 8.5079 Z -1.0000
G02 X 5.8145 Y 8.5141 Z -1.0000 I -0.0052 J 0.1062
G01 X 5.7925 Y 8.5331 Z -1.0000
G01 X 5.7964 Y 8.5476 Z -1.0000
G01 X 5.8017 Y 8.5480 Z -1.0000
G01 X 5.8042 Y 8.5442 Z -1.0000
G01 X 5.8076 Y 8.5394 Z -1.0000
G03 X 5.8275 Y 8.5360 Z -1.0000 I 0.0200 J 0.0568
G03 X 5.8476 Y 8.5393 Z -1.0000 I 0.0000 J 0.0635
G01 X 5.8509 Y 8.5438 Z -1.0000
G01 X 5.8486 Y 8.5493 Z -1.0000
G01 X 5.8431 Y 8.5516 Z -1.0000
G01 X 5.8376 Y 8.5539 Z -1.0000
G01 X 5.8353 Y 8.5594 Z -1.0000
G01 X 5.8385 Y 8.5641 Z -1.0000
G01 X 5.8544 Y 8.5672 Z -1.0000
G03 X 5.8980 Y 8.5824 Z -1.0000 I -0.0000 J 0.0702
G01 X 5.9132 Y 8.6138 Z -1.0000
G01 X 5.9167 Y 8.6189 Z -1.0000
G01 X 5.9287 Y 8.6195 Z -1.0000
G01 X 5.9397 Y 8.6214 Z -1.0000
G01 X 5.9443 Y 8.6302 Z -1.0000
G01 X 5.9553 Y 8.6436 Z -1.0000
G01 X 5.9699 Y 8.6353 Z -1.0000
G01 X 5.9749 Y 8.6321 Z -1.0000
G01 X 5.9842 Y 8.6363 Z -1.0000
G01 X 5.9881 Y 8.6455 Z -1.0000
G01 X 5.9845 Y 8.6508 Z -1.0000
G01 X 5.9836 Y 8.6573 Z -1.0000
G02 X 6.0299 Y 8.6841 Z -1.0000 I 0.1464 J -0.1996
G03 X 6.0493 Y 8.6929 Z -1.0000 I -0.3219 J 0.7332
G03 X 6.0708 Y 8.7033 Z -1.0000 I -0.5231 J 1.1104
G02 X 6.0893 Y 8.7092 Z -1.0000 I 0.0290 J -0.0589
G01 X 6.0922 Y 8.7067 Z -1.0000
G01 X 6.1004 Y 8.7019 Z -1.0000
G03 X 6.1218 Y 8.7229 Z -1.0000 I -0.0262 J 0.0480
G02 X 6.1375 Y 8.7420 Z -1.0000 I 0.0630 J -0.0358
G01 X 6.1489 Y 8.7462 Z -1.0000
G01 X 6.1605 Y 8.7496 Z -1.0000
G01 X 6.1673 Y 8.7579 Z -1.0000
G01 X 6.1754 Y 8.7613 Z -1.0000
G01 X 6.1798 Y 8.7521 Z -1.0000
G01 X 6.1829 Y 8.7470 Z -1.0000
G01 X 6.1921 Y 8.7493 Z -1.0000
G01 X 6.2088 Y 8.7574 Z -1.0000
G01 X 6.2205 Y 8.7542 Z -1.0000
G01 X 6.2324 Y 8.7503 Z -1.0000
G01 X 6.2305 Y 8.7554 Z -1.0000
G03 X 6.2195 Y 8.7657 Z -1.0000 I -0.0482 J -0.0405
G01 X 6.2115 Y 8.7760 Z -1.0000
G01 X 6.2122 Y 8.7841 Z -1.0000
G01 X 6.2300 Y 8.7938 Z -1.0000
G01 X 6.2382 Y 8.7836 Z -1.0000
G01 X 6.2401 Y 8.7773 Z -1.0000
G01 X 6.2479 Y 8.7739 Z -1.0000
G01 X 6.2548 Y 8.7677 Z -1.0000
G02 X 6.2523 Y 8.7416 Z -1.0000 I -0.0565 J -0.0077
G01 X 6.2427 Y 8.7310 Z -1.0000
G02 X 6.2183 Y 8.7260 Z -1.0000 I -0.0228 J 0.0498
G03 X 6.1936 Y 8.7229 Z -1.0000 I -0.0023 J -0.0797
G01 X 6.1897 Y 8.7177 Z -1.0000
G01 X 6.1836 Y 8.7020 Z -1.0000
G01 X 6.1776 Y 8.7041 Z -1.0000
G01 X 6.1759 Y 8.7107 Z -1.0000
G03 X 6.1662 Y 8.7260 Z -1.0000 I -0.0959 J -0.0499
G01 X 6.1542 Y 8.7337 Z -1.0000
G01 X 6.1431 Y 8.7309 Z -1.0000
G01 X 6.1339 Y 8.7198 Z -1.0000
G01 X 6.1309 Y 8.7084 Z -1.0000
G02 X 6.1188 Y 8.6720 Z -1.0000 I -0.0648 J 0.0013
G01 X 6.0968 Y 8.6607 Z -1.0000
G01 X 6.0941 Y 8.6626 Z -1.0000
G01 X 6.0922 Y 8.6724 Z -1.0000
G01 X 6.0900 Y 8.6818 Z -1.0000
G01 X 6.0864 Y 8.6839 Z -1.0000
G01 X 6.0720 Y 8.6756 Z -1.0000
G03 X 6.0588 Y 8.6373 Z -1.0000 I 0.0870 J -0.0516
G01 X 6.0583 Y 8.6120 Z -1.0000
G01 X 6.0645 Y 8.6186 Z -1.0000
G01 X 6.0781 Y 8.6217 Z -1.0000
G01 X 6.0877 Y 8.6260 Z -1.0000
G01 X 6.0892 Y 8.6340 Z -1.0000
G01 X 6.0918 Y 8.6400 Z -1.0000
G01 X 6.1071 Y 8.6413 Z -1.0000
G03 X 6.1280 Y 8.6403 Z -1.0000 I 0.0136 J 0.0631
G01 X 6.1348 Y 8.6446 Z -1.0000
G01 X 6.1353 Y 8.6503 Z -1.0000
G01 X 6.1316 Y 8.6528 Z -1.0000
G01 X 6.1259 Y 8.6554 Z -1.0000
G01 X 6.1234 Y 8.6619 Z -1.0000
G01 X 6.1285 Y 8.6659 Z -1.0000
G01 X 6.1338 Y 8.6644 Z -1.0000
G01 X 6.1442 Y 8.6696 Z -1.0000
G01 X 6.1547 Y 8.6752 Z -1.0000
G01 X 6.1593 Y 8.6740 Z -1.0000
G01 X 6.1716 Y 8.6721 Z -1.0000
G03 X 6.2545 Y 8.7221 Z -1.0000 I -0.2873 J 0.5698
G02 X 6.2785 Y 8.7358 Z -1.0000 I 0.0818 J -0.1155
G01 X 6.2919 Y 8.7388 Z -1.0000
G03 X 6.3292 Y 8.7515 Z -1.0000 I -0.0012 J 0.0641
G01 X 6.3413 Y 8.7758 Z -1.0000
G01 X 6.3444 Y 8.7807 Z -1.0000
G02 X 6.3654 Y 8.7881 Z -1.0000 I 0.0363 J -0.0703
G03 X 6.3883 Y 8.7953 Z -1.0000 I -0.0207 J 0.1049
G03 X 6.4113 Y 8.8085 Z -1.0000 I -0.0544 J 0.1219
G02 X 6.4341 Y 8.8216 Z -1.0000 I 0.0794 J -0.1114
G01 X 6.4457 Y 8.8241 Z -1.0000
G01 X 6.4546 Y 8.8277 Z -1.0000
G01 X 6.4581 Y 8.8358 Z -1.0000
G01 X 6.4555 Y 8.8449 Z -1.0000
G01 X 6.4509 Y 8.8475 Z -1.0000
G01 X 6.4456 Y 8.8502 Z -1.0000
G02 X 6.4379 Y 8.8650 Z -1.0000 I 0.0419 J 0.0309
G01 X 6.4316 Y 8.8690 Z -1.0000
G01 X 6.4238 Y 8.8630 Z -1.0000
G02 X 6.4027 Y 8.8322 Z -1.0000 I -0.0904 J 0.0393
G01 X 6.3922 Y 8.8317 Z -1.0000
G01 X 6.3847 Y 8.8319 Z -1.0000
G01 X 6.3771 Y 8.8204 Z -1.0000
G01 X 6.3691 Y 8.8048 Z -1.0000
G01 X 6.3603 Y 8.8008 Z -1.0000
G01 X 6.3451 Y 8.7959 Z -1.0000
G03 X 6.3085 Y 8.7641 Z -1.0000 I 0.1394 J -0.1970
G01 X 6.2889 Y 8.7576 Z -1.0000
G01 X 6.2791 Y 8.7693 Z -1.0000
G01 X 6.2754 Y 8.7811 Z -1.0000
G01 X 6.2660 Y 8.7885 Z -1.0000
G01 X 6.2624 Y 8.7946 Z -1.0000
G01 X 6.2680 Y 8.8037 Z -1.0000
G02 X 6.3089 Y 8.8213 Z -1.0000 I 0.0658 J -0.0967
G01 X 6.3223 Y 8.8156 Z -1.0000
G01 X 6.3320 Y 8.8130 Z -1.0000
G01 X 6.3465 Y 8.8281 Z -1.0000
G03 X 6.3510 Y 8.8446 Z -1.0000 I -0.0468 J 0.0217
G01 X 6.3484 Y 8.8475 Z -1.0000
G01 X 6.3435 Y 8.8453 Z -1.0000
G01 X 6.3414 Y 8.8397 Z -1.0000
G01 X 6.3391 Y 8.8342 Z -1.0000
G01 X 6.3336 Y 8.8319 Z -1.0000
G01 X 6.3293 Y 8.8388 Z -1.0000
G01 X 6.3458 Y 8.8555 Z -1.0000
G01 X 6.3642 Y 8.8608 Z -1.0000
G01 X 6.3713 Y 8.8572 Z -1.0000
G01 X 6.3821 Y 8.8548 Z -1.0000
G03 X 6.4153 Y 8.8864 Z -1.0000 I -0.0729 J 0.1100
G01 X 6.4348 Y 8.8995 Z -1.0000
G01 X 6.4378 Y 8.8894 Z -1.0000
G01 X 6.4434 Y 8.8864 Z -1.0000
G01 X 6.4507 Y 8.8837 Z -1.0000
G02 X 6.4673 Y 8.8669 Z -1.0000 I -0.0689 J -0.0843
G03 X 6.4956 Y 8.8459 Z -1.0000 I 0.0529 J 0.0416
G01 X 6.5048 Y 8.8522 Z -1.0000
G01 X 6.4923 Y 8.8811 Z -1.0000
G01 X 6.4601 Y 8.8940 Z -1.0000
G01 X 6.4529 Y 8.8966 Z -1.0000
G01 X 6.4503 Y 8.9019 Z -1.0000
G01 X 6.4537 Y 8.9064 Z -1.0000
G02 X 6.4795 Y 8.9106 Z -1.0000 I 0.0290 J -0.0975
G01 X 6.4951 Y 8.9151 Z -1.0000
G01 X 6.4909 Y 8.9248 Z -1.0000
G01 X 6.5048 Y 8.9331 Z -1.0000
G03 X 6.5243 Y 8.9370 Z -1.0000 I -0.0000 J 0.0502
G01 X 6.5282 Y 8.9429 Z -1.0000
G01 X 6.5422 Y 8.9658 Z -1.0000
G02 X 6.6006 Y 8.9798 Z -1.0000 I 0.0584 J -0.1149
G01 X 6.6099 Y 8.9776 Z -1.0000
G01 X 6.6207 Y 8.9701 Z -1.0000
G01 X 6.6258 Y 8.9698 Z -1.0000
G01 X 6.6281 Y 8.9759 Z -1.0000
G01 X 6.6313 Y 8.9864 Z -1.0000
G01 X 6.6422 Y 8.9909 Z -1.0000
G01 X 6.6533 Y 8.9944 Z -1.0000
G01 X 6.6550 Y 9.0006 Z -1.0000
G01 X 6.6562 Y 9.0074 Z -1.0000
G01 X 6.6639 Y 9.0109 Z -1.0000
G01 X 6.6744 Y 9.0140 Z -1.0000
G01 X 6.6809 Y 9.0221 Z -1.0000
G01 X 6.6873 Y 9.0286 Z -1.0000
G01 X 6.6972 Y 9.0287 Z -1.0000
G01 X 6.7074 Y 9.0289 Z -1.0000
G01 X 6.7164 Y 9.0370 Z -1.0000
G01 X 6.7359 Y 9.0507 Z -1.0000
G01 X 6.7462 Y 9.0421 Z -1.0000
G01 X 6.7491 Y 9.0372 Z -1.0000
G01 X 6.7598 Y 9.0346 Z -1.0000
G01 X 6.7627 Y 9.0376 Z -1.0000
G01 X 6.7596 Y 9.0429 Z -1.0000
G01 X 6.7553 Y 9.0562 Z -1.0000
G01 X 6.7696 Y 9.0655 Z -1.0000
G01 X 6.7823 Y 9.0689 Z -1.0000
G01 X 6.7914 Y 9.0782 Z -1.0000
G01 X 6.8005 Y 9.0878 Z -1.0000
G01 X 6.8132 Y 9.0920 Z -1.0000
G03 X 6.8275 Y 9.0949 Z -1.0000 I -0.0044 J 0.0588
G03 X 6.8571 Y 9.1065 Z -1.0000 I -0.0934 J 0.2801
G02 X 6.8864 Y 9.1198 Z -1.0000 I 1.0180 J -2.2089
G02 X 6.9155 Y 9.1325 Z -1.0000 I 0.9712 J -2.1828
G03 X 6.9446 Y 9.1453 Z -1.0000 I -0.7113 J 1.6552
G03 X 6.9675 Y 9.1560 Z -1.0000 I -0.4405 J 0.9771
G02 X 6.9887 Y 9.1612 Z -1.0000 I 0.0234 J -0.0490
G01 X 6.9966 Y 9.1571 Z -1.0000
G01 X 7.0003 Y 9.1560 Z -1.0000
G01 X 7.0030 Y 9.1602 Z -1.0000
G01 X 7.0188 Y 9.1882 Z -1.0000
G02 X 7.0776 Y 9.2059 Z -1.0000 I 0.0631 J -0.1030
G01 X 7.0845 Y 9.2074 Z -1.0000
G03 X 7.1160 Y 9.2212 Z -1.0000 I -0.1717 J 0.4325
G02 X 7.1475 Y 9.2349 Z -1.0000 I 0.1779 J -0.3671
G01 X 7.1557 Y 9.2365 Z -1.0000
G03 X 7.1831 Y 9.2432 Z -1.0000 I -0.0021 J 0.0689
G03 X 7.2279 Y 9.2709 Z -1.0000 I -0.1028 J 0.2162
G01 X 7.2397 Y 9.2765 Z -1.0000
G02 X 7.2664 Y 9.2800 Z -1.0000 I 0.0301 J -0.1272
G03 X 7.2914 Y 9.2842 Z -1.0000 I -0.0021 J 0.0885
G01 X 7.2972 Y 9.2899 Z -1.0000
G01 X 7.3022 Y 9.2964 Z -1.0000
G01 X 7.3113 Y 9.2991 Z -1.0000
G01 X 7.3196 Y 9.3018 Z -1.0000
G01 X 7.3223 Y 9.3069 Z -1.0000
G01 X 7.3255 Y 9.3115 Z -1.0000
G02 X 7.3447 Y 9.3147 Z -1.0000 I 0.0192 J -0.0551
G03 X 7.3654 Y 9.3184 Z -1.0000 I -0.0000 J 0.0602
G01 X 7.3768 Y 9.3264 Z -1.0000
G01 X 7.3878 Y 9.3351 Z -1.0000
G01 X 7.4005 Y 9.3381 Z -1.0000
G01 X 7.4140 Y 9.3401 Z -1.0000
G03 X 7.4365 Y 9.3491 Z -1.0000 I -0.0410 J 0.1355
G02 X 7.5362 Y 9.3948 Z -1.0000 I 0.7433 J -1.4902
G02 X 7.5675 Y 9.4040 Z -1.0000 I 0.0569 J -0.1357
G03 X 7.5973 Y 9.4123 Z -1.0000 I -0.0269 J 0.1538
G01 X 7.6117 Y 9.4211 Z -1.0000
G01 X 7.6261 Y 9.4297 Z -1.0000
G02 X 7.6563 Y 9.4370 Z -1.0000 I 0.0497 J -0.1389
G03 X 7.6823 Y 9.4439 Z -1.0000 I -0.0140 J 0.1060
G01 X 7.6837 Y 9.4481 Z -1.0000
G01 X 7.6845 Y 9.4521 Z -1.0000
G01 X 7.6936 Y 9.4551 Z -1.0000
G03 X 7.7737 Y 9.4700 Z -1.0000 I -0.0045 J 0.2464
G01 X 7.7954 Y 9.4923 Z -1.0000
G01 X 7.7999 Y 9.4964 Z -1.0000
G01 X 7.8122 Y 9.4961 Z -1.0000
G01 X 7.8251 Y 9.4960 Z -1.0000
G01 X 7.8318 Y 9.5008 Z -1.0000
G01 X 7.8387 Y 9.5064 Z -1.0000
G02 X 7.8563 Y 9.5093 Z -1.0000 I 0.0176 J -0.0508
G01 X 7.8730 Y 9.5130 Z -1.0000
G01 X 7.8797 Y 9.5202 Z -1.0000
G01 X 7.8867 Y 9.5275 Z -1.0000
G02 X 7.9173 Y 9.5361 Z -1.0000 I 0.0495 J -0.1174
G03 X 7.9496 Y 9.5439 Z -1.0000 I -0.0292 J 0.1922
G03 X 7.9654 Y 9.5522 Z -1.0000 I -0.0175 J 0.0523
G02 X 7.9809 Y 9.5610 Z -1.0000 I 0.0407 J -0.0539
G01 X 7.9937 Y 9.5636 Z -1.0000
G01 X 8.0069 Y 9.5656 Z -1.0000
G03 X 8.0559 Y 9.5821 Z -1.0000 I -0.2181 J 0.7313
G02 X 8.1780 Y 9.6254 Z -1.0000 I 1.2683 J -3.3822
G02 X 8.1981 Y 9.6296 Z -1.0000 I 0.0290 J -0.0868
G03 X 8.2132 Y 9.6330 Z -1.0000 I -0.0062 J 0.0632
G03 X 8.2480 Y 9.6474 Z -1.0000 I -0.1246 J 0.3511
G02 X 8.2824 Y 9.6603 Z -1.0000 I 0.0947 J -0.2007
G01 X 8.2921 Y 9.6598 Z -1.0000
G01 X 8.3017 Y 9.6593 Z -1.0000
G03 X 8.3201 Y 9.6672 Z -1.0000 I -0.0182 J 0.0679
G02 X 8.3391 Y 9.6765 Z -1.0000 I 0.0540 J -0.0869
G02 X 8.3866 Y 9.6915 Z -1.0000 I 0.2002 J -0.5501
G03 X 8.4344 Y 9.7062 Z -1.0000 I -0.1858 J 0.6870
G03 X 8.4567 Y 9.7159 Z -1.0000 I -0.0543 J 0.1564
G02 X 8.4788 Y 9.7255 Z -1.0000 I 0.0841 J -0.1616
G01 X 8.4881 Y 9.7272 Z -1.0000
G01 X 8.4976 Y 9.7286 Z -1.0000
G03 X 8.5815 Y 9.7543 Z -1.0000 I -0.8071 J 2.7822
G02 X 8.6796 Y 9.7854 Z -1.0000 I 2.7131 J -8.3944
G02 X 8.7703 Y 9.8129 Z -1.0000 I 2.1944 J -7.0704
G03 X 8.8286 Y 9.8306 Z -1.0000 I -1.0328 J 3.4911
G03 X 8.8832 Y 9.8483 Z -1.0000 I -1.0447 J 3.3259
G02 X 8.9381 Y 9.8649 Z -1.0000 I 0.3228 J -0.9675
G02 X 8.9844 Y 9.8759 Z -1.0000 I 0.1925 J -0.7072
G03 X 9.0304 Y 9.8877 Z -1.0000 I -0.0943 J 0.4659
G03 X 9.0618 Y 9.8998 Z -1.0000 I -0.0725 J 0.2346
G02 X 9.0929 Y 9.9121 Z -1.0000 I 0.1182 J -0.2522
G01 X 9.1051 Y 9.9141 Z -1.0000
G03 X 9.1177 Y 9.9155 Z -1.0000 I -0.0000 J 0.0567
G03 X 9.1523 Y 9.9248 Z -1.0000 I -0.1000 J 0.4421
G02 X 9.1870 Y 9.9348 Z -1.0000 I 0.2491 J -0.8005
G02 X 9.2296 Y 9.9452 Z -1.0000 I 0.3258 J -1.2316
G03 X 9.2717 Y 9.9566 Z -1.0000 I -0.1320 J 0.5756
G01 X 9.2802 Y 9.9609 Z -1.0000
G01 X 9.2887 Y 9.9651 Z -1.0000
G02 X 9.3231 Y 9.9725 Z -1.0000 I 0.0855 J -0.3120
G03 X 9.3575 Y 9.9801 Z -1.0000 I -0.0488 J 0.3031
G03 X 9.3775 Y 9.9878 Z -1.0000 I -0.0319 J 0.1132
G02 X 9.3977 Y 9.9955 Z -1.0000 I 0.0514 J -0.1038
G02 X 9.4476 Y 10.0075 Z -1.0000 I 0.1827 J -0.6511
G03 X 9.4976 Y 10.0191 Z -1.0000 I -0.1711 J 0.8504
G01 X 9.5060 Y 10.0229 Z -1.0000
G02 X 9.5714 Y 10.0502 Z -1.0000 I 0.0988 J -0.1450
G02 X 9.6102 Y 10.0431 Z -1.0000 I 0.0103 J -0.0531
G01 X 9.6166 Y 10.0419 Z -1.0000
G01 X 9.6189 Y 10.0447 Z -1.0000
G01 X 9.6220 Y 10.0494 Z -1.0000
G02 X 9.6675 Y 10.0650 Z -1.0000 I 0.1449 J -0.3486
G03 X 9.7161 Y 10.0787 Z -1.0000 I -0.8181 J 2.9990
G03 X 9.7523 Y 10.0896 Z -1.0000 I -0.4961 J 1.7089
G02 X 9.7886 Y 10.0991 Z -1.0000 I 0.1216 J -0.3893
G02 X 9.8053 Y 10.1009 Z -1.0000 I 0.0167 J -0.0782
G03 X 9.8218 Y 10.1029 Z -1.0000 I 0.0000 J 0.0676
G03 X 9.8371 Y 10.1088 Z -1.0000 I -0.0166 J 0.0659
G02 X 9.8525 Y 10.1148 Z -1.0000 I 0.0339 J -0.0640
G02 X 9.9125 Y 10.1287 Z -1.0000 I 0.2473 J -0.9342
G03 X 9.9727 Y 10.1421 Z -1.0000 I -0.2514 J 1.2706
G03 X 9.9887 Y 10.1476 Z -1.0000 I -0.0234 J 0.0942
G02 X 10.0046 Y 10.1534 Z -1.0000 I 0.0515 J -0.1160
G02 X 10.0393 Y 10.1623 Z -1.0000 I 0.1593 J -0.5454
G03 X 10.2078 Y 10.2025 Z -1.0000 I -1.4360 J 6.4003
G03 X 10.2300 Y 10.2105 Z -1.0000 I -0.0296 J 0.1174
G02 X 10.2461 Y 10.2164 Z -1.0000 I 0.0418 J -0.0876
G02 X 10.2689 Y 10.2212 Z -1.0000 I 0.0489 J -0.1780
G03 X 10.2921 Y 10.2255 Z -1.0000 I -0.0493 J 0.3330
G03 X 10.3234 Y 10.2333 Z -1.0000 I -0.1267 J 0.5751
G02 X 10.3548 Y 10.2411 Z -1.0000 I 0.1590 J -0.5673
G02 X 10.3779 Y 10.2454 Z -1.0000 I 0.0691 J -0.3115
G03 X 10.4245 Y 10.2540 Z -1.0000 I -0.0896 J 0.6137
G03 X 10.6893 Y 10.3155 Z -1.0000 I -4.4690 J 19.8614
G02 X 10.7440 Y 10.3270 Z -1.0000 I 0.2432 J -1.0122
G02 X 10.7575 Y 10.3281 Z -1.0000 I 0.0114 J -0.0622
G01 X 10.7687 Y 10.3302 Z -1.0000
G01 X 10.7711 Y 10.3338 Z -1.0000
G01 X 10.7739 Y 10.3373 Z -1.0000
G02 X 10.8197 Y 10.3446 Z -1.0000 I 0.0819 J -0.3662
G03 X 10.8680 Y 10.3517 Z -1.0000 I -0.0498 J 0.5125
G03 X 10.9307 Y 10.3662 Z -1.0000 I -0.1698 J 0.8757
G02 X 10.9932 Y 10.3814 Z -1.0000 I 0.3615 J -1.3460
G02 X 11.0181 Y 10.3853 Z -1.0000 I 0.0431 J -0.1962
G03 X 11.0429 Y 10.3890 Z -1.0000 I -0.0223 J 0.2367
G03 X 11.0687 Y 10.3956 Z -1.0000 I -0.0509 J 0.2519
G02 X 11.0945 Y 10.4017 Z -1.0000 I 0.0554 J -0.1764
G02 X 11.1331 Y 10.4060 Z -1.0000 I 0.0618 J -0.3816
G03 X 11.1705 Y 10.4110 Z -1.0000 I -0.0154 J 0.2540
G01 X 11.1770 Y 10.4153 Z -1.0000
G01 X 11.1834 Y 10.4198 Z -1.0000
G02 X 11.2237 Y 10.4293 Z -1.0000 I 0.0983 J -0.3294
G03 X 11.3450 Y 10.4506 Z -1.0000 I -2.2708 J 13.2551
G03 X 11.3666 Y 10.4551 Z -1.0000 I -0.0765 J 0.4233
G02 X 11.4346 Y 10.4696 Z -1.0000 I 0.4004 J -1.7063
G02 X 11.5924 Y 10.4987 Z -1.0000 I 1.7834 J -9.2319
G03 X 11.7742 Y 10.5312 Z -1.0000 I -5.0373 J 28.7089
G03 X 11.9057 Y 10.5557 Z -1.0000 I -2.7438 J 15.0758
G02 X 11.9699 Y 10.5669 Z -1.0000 I 0.3974 J -2.0936
G01 X 11.9758 Y 10.5668 Z -1.0000
G01 X 11.9815 Y 10.5667 Z -1.0000
G03 X 11.9933 Y 10.5701 Z -1.0000 I -0.0121 J 0.0646
G02 X 12.0053 Y 10.5735 Z -1.0000 I 0.0251 J -0.0641
G02 X 12.0829 Y 10.5874 Z -1.0000 I 0.5358 J -2.7614
G03 X 12.1607 Y 10.6004 Z -1.0000 I -12.4156 J 74.8786
G03 X 12.2463 Y 10.6148 Z -1.0000 I -5.7610 J 34.5220
G02 X 12.3320 Y 10.6289 Z -1.0000 I 1.5226 J -8.9642
G02 X 12.4137 Y 10.6416 Z -1.0000 I 1.4492 J -9.0554
G03 X 12.4954 Y 10.6541 Z -1.0000 I -3.2894 J 21.7487
G03 X 12.5422 Y 10.6616 Z -1.0000 I -0.8473 J 5.4633
G02 X 12.5889 Y 10.6690 Z -1.0000 I 0.8193 J -5.0113
G02 X 12.6434 Y 10.6772 Z -1.0000 I 1.0512 J -6.8292
G03 X 12.6979 Y 10.6852 Z -1.0000 I -6.3605 J 43.3238
G03 X 12.8030 Y 10.7009 Z -1.0000 I -8.4157 J 56.8247
G02 X 13.0520 Y 10.7373 Z -1.0000 I 5.3574 J -35.7143
G02 X 13.0988 Y 10.7431 Z -1.0000 I 0.1791 J -1.2537
G03 X 13.1416 Y 10.7482 Z -1.0000 I -0.1788 J 1.6840
G03 X 13.1611 Y 10.7513 Z -1.0000 I -0.0483 J 0.3659
G02 X 13.1806 Y 10.7546 Z -1.0000 I 0.0712 J -0.3630
G02 X 13.2117 Y 10.7586 Z -1.0000 I 0.1829 J -1.2953
G03 X 13.2943 Y 10.7690 Z -1.0000 I -0.4003 J 3.5292
G03 X 13.5309 Y 10.8024 Z -1.0000 I -4.1005 J 29.8820
G02 X 13.6001 Y 10.8117 Z -1.0000 I 0.4573 J -3.1490
G02 X 13.6827 Y 10.8211 Z -1.0000 I 0.5467 J -4.4493
G03 X 13.7254 Y 10.8263 Z -1.0000 I -0.1398 J 1.3170
G03 X 13.7722 Y 10.8336 Z -1.0000 I -0.2033 J 1.4607
G02 X 13.8190 Y 10.8408 Z -1.0000 I 0.2389 J -1.3948
G02 X 13.8306 Y 10.8416 Z -1.0000 I 0.0116 J -0.0848
G03 X 13.8422 Y 10.8422 Z -1.0000 I 0.0007 J 0.0955
G03 X 13.9240 Y 10.8523 Z -1.0000 I -0.5515 J 4.7873
G02 X 14.0058 Y 10.8628 Z -1.0000 I 0.9215 J -6.9049
G02 X 14.0797 Y 10.8713 Z -1.0000 I 0.8052 J -6.6316
G03 X 14.1537 Y 10.8796 Z -1.0000 I -2.9001 J 26.2166
G03 X 14.3172 Y 10.8983 Z -1.0000 I -10.1539 J 89.4802
G02 X 14.5327 Y 10.9226 Z -1.0000 I 4.2928 J -37.2140
G02 X 14.6052 Y 10.9299 Z -1.0000 I 0.4608 J -4.2088
G03 X 14.6363 Y 10.9331 Z -1.0000 I -0.1285 J 1.3755
G03 X 14.7064 Y 10.9416 Z -1.0000 I -0.9151 J 7.8689
G02 X 14.7820 Y 10.9501 Z -1.0000 I 0.3532 J -2.7841
G02 X 14.9011 Y 10.9610 Z -1.0000 I 0.7074 J -7.1160
G03 X 14.9477 Y 10.9653 Z -1.0000 I -0.1865 J 2.2818
G03 X 15.0139 Y 10.9725 Z -1.0000 I -0.4597 J 4.4894
G02 X 15.1476 Y 10.9867 Z -1.0000 I 0.7706 J -6.6310
G02 X 15.2981 Y 10.9997 Z -1.0000 I 0.7779 J -8.1155
G02 X 15.3448 Y 11.0033 Z -1.0000 I 1.4906 J -19.1472
G02 X 15.4071 Y 11.0079 Z -1.0000 I 1.9614 J -26.0148
G03 X 15.4692 Y 11.0137 Z -1.0000 I -0.1116 J 1.5295
G03 X 15.5083 Y 11.0194 Z -1.0000 I -0.0726 J 0.6362
G02 X 15.5474 Y 11.0248 Z -1.0000 I 0.0872 J -0.4911
G02 X 15.6255 Y 11.0308 Z -1.0000 I 0.1972 J -2.0371
G03 X 15.7037 Y 11.0363 Z -1.0000 I -0.1911 J 3.2925
G03 X 15.7203 Y 11.0385 Z -1.0000 I -0.0132 J 0.1608
G02 X 15.7731 Y 11.0456 Z -1.0000 I 0.0894 J -0.4657
G02 X 16.0299 Y 11.0625 Z -1.0000 I 0.8479 J -10.9599
G03 X 16.1155 Y 11.0680 Z -1.0000 I -0.1908 J 3.5940
G03 X 16.1912 Y 11.0748 Z -1.0000 I -0.2434 J 3.1610
G02 X 16.2669 Y 11.0820 Z -1.0000 I 0.7164 J -7.0971
G02 X 16.3119 Y 11.0856 Z -1.0000 I 0.2092 J -2.3198
G03 X 16.3569 Y 11.0889 Z -1.0000 I -0.5262 J 7.6645
G03 X 16.4698 Y 11.0974 Z -1.0000 I -4.3574 J 58.4399
G02 X 16.5827 Y 11.1053 Z -1.0000 I 0.8241 J -10.8871
G02 X 16.6527 Y 11.1093 Z -1.0000 I 0.2468 J -3.7811
G03 X 16.7227 Y 11.1130 Z -1.0000 I -0.2479 J 5.3087
G03 X 16.9641 Y 11.1279 Z -1.0000 I -3.8276 J 63.8560
G02 X 17.3024 Y 11.1476 Z -1.0000 I 1.9092 J -29.9490
G02 X 17.4974 Y 11.1559 Z -1.0000 I 0.5229 J -9.9758
G03 X 17.6256 Y 11.1615 Z -1.0000 I -0.1876 J 5.7611
G03 X 17.6435 Y 11.1640 Z -1.0000 I -0.0059 J 0.1075
G02 X 17.6607 Y 11.1647 Z -1.0000 I 0.0109 J -0.0502
G01 X 17.6760 Y 11.1599 Z -1.0000
G01 X 17.6889 Y 11.1567 Z -1.0000
G01 X 17.6935 Y 11.1601 Z -1.0000
G01 X 17.6990 Y 11.1644 Z -1.0000
G02 X 17.8462 Y 11.1714 Z -1.0000 I 0.2074 J -2.8004
G03 X 17.9957 Y 11.1762 Z -1.0000 I -0.1550 J 7.1047
G01 X 18.0017 Y 11.1781 Z -1.0000
G01 X 18.0078 Y 11.1799 Z -1.0000
G02 X 18.2331 Y 11.1863 Z -1.0000 I 0.5487 J -15.4432
G03 X 18.4588 Y 11.1919 Z -1.0000 I -0.6302 J 30.0954
G03 X 18.5367 Y 11.1948 Z -1.0000 I -0.1215 J 4.2713
G02 X 18.7284 Y 11.2020 Z -1.0000 I 0.4596 J -9.6839
G02 X 19.1011 Y 11.2104 Z -1.0000 I 1.0054 J -36.3764
G03 X 19.2092 Y 11.2123 Z -1.0000 I -2.5507 J 144.7125
G03 X 19.3074 Y 11.2142 Z -1.0000 I -1.7780 J 96.7707
G01 X 19.7199 Y 11.2177 Z -1.0000
G03 X 20.1294 Y 11.2251 Z -1.0000 I -0.1720 J 20.9307
G01 X 20.1351 Y 11.2293 Z -1.0000
G01 X 20.1447 Y 11.2361 Z -1.0000
G01 X 20.1502 Y 11.2292 Z -1.0000
G01 X 20.1534 Y 11.2250 Z -1.0000
G03 X 20.4479 Y 11.2178 Z -1.0000 I 0.4062 J 10.7071
G02 X 21.1460 Y 11.2084 Z -1.0000 I -1.0628 J -103.9353
G02 X 21.3510 Y 11.2026 Z -1.0000 I -0.1533 J -9.0493
G03 X 21.4561 Y 11.1990 Z -1.0000 I 0.3722 J 9.3537
G03 X 21.6313 Y 11.1946 Z -1.0000 I 0.7415 J 25.9766
G02 X 21.9762 Y 11.1849 Z -1.0000 I -0.5977 J -27.3596
G02 X 22.0711 Y 11.1793 Z -1.0000 I -0.0697 J -2.0215
G03 X 22.1179 Y 11.1764 Z -1.0000 I 0.0994 J 1.2159
G03 X 22.2619 Y 11.1710 Z -1.0000 I 0.5356 J 12.4035
G02 X 22.4057 Y 11.1653 Z -1.0000 I -0.2818 J -8.9279
G02 X 22.4253 Y 11.1631 Z -1.0000 I -0.0073 J -0.1540
G03 X 22.4449 Y 11.1610 Z -1.0000 I 0.0266 J 0.1498
G03 X 22.5849 Y 11.1556 Z -1.0000 I 0.3968 J 8.6004
G02 X 22.7250 Y 11.1504 Z -1.0000 I -0.2728 J -9.1421
G02 X 22.7523 Y 11.1480 Z -1.0000 I -0.0153 J -0.3386
G03 X 22.7796 Y 11.1455 Z -1.0000 I 0.0541 J 0.4267
G03 X 22.8769 Y 11.1403 Z -1.0000 I 0.3138 J 5.0347
G02 X 22.9741 Y 11.1353 Z -1.0000 I -0.2381 J -5.5414
G02 X 23.0053 Y 11.1325 Z -1.0000 I -0.0340 J -0.5611
G03 X 23.0365 Y 11.1298 Z -1.0000 I 0.0631 J 0.5407
G03 X 23.1416 Y 11.1245 Z -1.0000 I 0.3594 J 6.1203
G02 X 23.2466 Y 11.1192 Z -1.0000 I -0.2278 J -5.4860
G02 X 23.2700 Y 11.1166 Z -1.0000 I -0.0153 J -0.2512
G03 X 23.2935 Y 11.1140 Z -1.0000 I 0.0455 J 0.2925
G03 X 23.3712 Y 11.1090 Z -1.0000 I 0.2496 J 3.3395
G02 X 23.4490 Y 11.1043 Z -1.0000 I -0.2107 J -4.1003
G02 X 23.4724 Y 11.1018 Z -1.0000 I -0.0240 J -0.3412
G03 X 23.4959 Y 11.0995 Z -1.0000 I 0.0458 J 0.3464
G03 X 23.5970 Y 11.0938 Z -1.0000 I 0.4143 J 6.4506
G02 X 23.6981 Y 11.0878 Z -1.0000 I -0.1872 J -4.0071
G02 X 23.7877 Y 11.0803 Z -1.0000 I -0.2581 J -3.5824
G03 X 23.8773 Y 11.0720 Z -1.0000 I 0.8093 J 8.3024
G03 X 23.9084 Y 11.0698 Z -1.0000 I 0.0920 J 1.0627
G02 X 23.9395 Y 11.0680 Z -1.0000 I -0.2288 J -4.1835
G02 X 24.0252 Y 11.0625 Z -1.0000 I -1.4634 J -23.5390
G03 X 24.1108 Y 11.0573 Z -1.0000 I 0.5558 J 8.4446
G03 X 24.1575 Y 11.0550 Z -1.0000 I 0.2030 J 3.6488
G02 X 24.2037 Y 11.0509 Z -1.0000 I -0.0187 J -0.4795
G02 X 24.2193 Y 11.0466 Z -1.0000 I -0.0080 J -0.0588
G01 X 24.2323 Y 11.0448 Z -1.0000
G01 X 24.2375 Y 11.0492 Z -1.0000
G01 X 24.2425 Y 11.0533 Z -1.0000
G01 X 24.2535 Y 11.0514 Z -1.0000
G03 X 24.2765 Y 11.0443 Z -1.0000 I 0.0298 J 0.0555
G03 X 24.4417 Y 11.0311 Z -1.0000 I 0.3194 J 2.9713
G02 X 24.5204 Y 11.0255 Z -1.0000 I -0.1064 J -2.0428
G02 X 24.6635 Y 11.0109 Z -1.0000 I -0.5944 J -6.5391
G03 X 24.7337 Y 11.0035 Z -1.0000 I 0.4634 J 4.0590
G03 X 24.7764 Y 10.9999 Z -1.0000 I 0.1822 J 1.8842
G02 X 24.8477 Y 10.9940 Z -1.0000 I -0.2672 J -3.6507
G02 X 24.9477 Y 10.9840 Z -1.0000 I -0.6539 J -7.0414
G03 X 24.9672 Y 10.9821 Z -1.0000 I 0.2041 J 1.9852
G03 X 25.0217 Y 10.9772 Z -1.0000 I 0.8291 J 8.9239
G02 X 25.0761 Y 10.9719 Z -1.0000 I -0.2386 J -2.7506
G02 X 25.1384 Y 10.9646 Z -1.0000 I -0.3290 J -3.0819
G03 X 25.4538 Y 10.9272 Z -1.0000 I 2.6532 J 21.0504
G03 X 25.5004 Y 10.9245 Z -1.0000 I 0.0503 J 0.4541
G02 X 25.5120 Y 10.9238 Z -1.0000 I -0.0009 J -0.1097
G02 X 25.6367 Y 10.9088 Z -1.0000 I -1.4277 J -12.4245
G03 X 25.9891 Y 10.8665 Z -1.0000 I 4.6377 J 37.1129
G03 X 26.0610 Y 10.8599 Z -1.0000 I 0.1769 J 1.5334
G02 X 26.0958 Y 10.8568 Z -1.0000 I -0.0573 J -0.8500
G01 X 26.0999 Y 10.8556 Z -1.0000
G01 X 26.1068 Y 10.8534 Z -1.0000
G03 X 26.1661 Y 10.8455 Z -1.0000 I 0.2555 J 1.6796
G02 X 26.2127 Y 10.8398 Z -1.0000 I -0.6388 J -5.4700
G02 X 26.2673 Y 10.8326 Z -1.0000 I -0.5801 J -4.6249
G03 X 26.3218 Y 10.8253 Z -1.0000 I 2.1470 J 15.6942
G03 X 26.4385 Y 10.8098 Z -1.0000 I 11.3739 J 85.3459
G02 X 26.5553 Y 10.7941 Z -1.0000 I -3.5446 J -26.7849
G02 X 26.6721 Y 10.7778 Z -1.0000 I -3.1208 J -22.8173
G03 X 26.7889 Y 10.7615 Z -1.0000 I 4.2666 J 30.1145
G03 X 26.8200 Y 10.7575 Z -1.0000 I 0.2580 J 1.8734
G02 X 26.9390 Y 10.7415 Z -1.0000 I -0.5963 J -4.8908
G02 X 27.1548 Y 10.7082 Z -1.0000 I -2.1717 J -14.8005
G03 X 27.2015 Y 10.7010 Z -1.0000 I 0.4640 J 2.8382
G03 X 27.3922 Y 10.6733 Z -1.0000 I 8.7368 J 59.5812
G02 X 27.5827 Y 10.6449 Z -1.0000 I -2.3600 J -16.4610
G02 X 27.6180 Y 10.6383 Z -1.0000 I -0.0892 J -0.5748
G03 X 27.6532 Y 10.6318 Z -1.0000 I 0.1223 J 0.5612
G03 X 27.7231 Y 10.6222 Z -1.0000 I 0.3225 J 2.1019
G02 X 27.7926 Y 10.6119 Z -1.0000 I -0.1467 J -1.2290
G02 X 27.8087 Y 10.6071 Z -1.0000 I -0.0126 J -0.0709
G03 X 27.8248 Y 10.6021 Z -1.0000 I 0.0316 J 0.0734
G03 X 27.8671 Y 10.5956 Z -1.0000 I 0.0950 J 0.4806
G02 X 27.9098 Y 10.5901 Z -1.0000 I -0.1309 J -1.1857
G02 X 27.9488 Y 10.5835 Z -1.0000 I -0.1279 J -0.8698
G03 X 28.0537 Y 10.5644 Z -1.0000 I 1.1799 J 6.1756
G03 X 28.2174 Y 10.5369 Z -1.0000 I 2.5019 J 14.4173
G02 X 28.3005 Y 10.5224 Z -1.0000 I -0.5229 J -3.2334
G02 X 28.3381 Y 10.5142 Z -1.0000 I -0.1273 J -0.6760
G03 X 28.3694 Y 10.5073 Z -1.0000 I 0.1562 J 0.6369
G03 X 28.3965 Y 10.5029 Z -1.0000 I 0.0868 J 0.4474
G02 X 28.4235 Y 10.4981 Z -1.0000 I -0.0423 J -0.3165
G02 X 28.4705 Y 10.4865 Z -1.0000 I -0.2199 J -0.9894
G03 X 28.5175 Y 10.4755 Z -1.0000 I 0.1595 J 0.5770
G03 X 28.5483 Y 10.4715 Z -1.0000 I 0.0486 J 0.2542
G02 X 28.5793 Y 10.4681 Z -1.0000 I -0.0275 J -0.3931
G02 X 28.6223 Y 10.4605 Z -1.0000 I -0.1173 J -0.7812
G03 X 28.6651 Y 10.4518 Z -1.0000 I 0.6909 J 3.3204
G03 X 28.7313 Y 10.4393 Z -1.0000 I 1.4115 J 7.2516
G02 X 28.7956 Y 10.4239 Z -1.0000 I -0.1160 J -0.6304
G01 X 28.8052 Y 10.4176 Z -1.0000
G01 X 28.8144 Y 10.4119 Z -1.0000
G01 X 28.8319 Y 10.4110 Z -1.0000
G02 X 28.8507 Y 10.4112 Z -1.0000 I 0.0100 J -0.0692
G02 X 28.9020 Y 10.4021 Z -1.0000 I -0.0675 J -0.5316
G03 X 28.9533 Y 10.3914 Z -1.0000 I 0.3332 J 1.4657
G03 X 29.0115 Y 10.3812 Z -1.0000 I 0.3742 J 1.9602
G02 X 29.0695 Y 10.3703 Z -1.0000 I -0.1639 J -1.0320
G02 X 29.0855 Y 10.3652 Z -1.0000 I -0.0188 J -0.0866
G03 X 29.1016 Y 10.3602 Z -1.0000 I 0.0316 J 0.0734
G03 X 29.1633 Y 10.3497 Z -1.0000 I 0.2226 J 1.1279
G02 X 29.2252 Y 10.3393 Z -1.0000 I -0.1591 J -1.1352
G02 X 29.2412 Y 10.3345 Z -1.0000 I -0.0164 J -0.0833
G03 X 29.2706 Y 10.3251 Z -1.0000 I 0.0733 J 0.1778
G03 X 29.3930 Y 10.2990 Z -1.0000 I 0.7193 J 3.0700
G02 X 29.4590 Y 10.2854 Z -1.0000 I -0.5097 J -2.6503
G02 X 29.4708 Y 10.2820 Z -1.0000 I -0.0200 J -0.0918
G03 X 29.4826 Y 10.2784 Z -1.0000 I 0.0409 J 0.1139
G03 X 29.4942 Y 10.2761 Z -1.0000 I 0.0320 J 0.1292
G02 X 29.5346 Y 10.2684 Z -1.0000 I -0.0651 J -0.4503
G02 X 29.6966 Y 10.2277 Z -1.0000 I -1.6341 J -6.8547
G03 X 29.7790 Y 10.2068 Z -1.0000 I 1.1701 J 4.4391
G03 X 29.8322 Y 10.1946 Z -1.0000 I 0.4482 J 1.8377
G02 X 29.8633 Y 10.1794 Z -1.0000 I -0.0149 J -0.0697
G01 X 29.8638 Y 10.1680 Z -1.0000
G01 X 29.8594 Y 10.1588 Z -1.0000
G01 X 29.8625 Y 10.1554 Z -1.0000
G01 X 29.8726 Y 10.1580 Z -1.0000
G01 X 29.8835 Y 10.1670 Z -1.0000
G01 X 29.9032 Y 10.1748 Z -1.0000
G01 X 29.9170 Y 10.1627 Z -1.0000
G01 X 29.9245 Y 10.1550 Z -1.0000
G01 X 29.9372 Y 10.1567 Z -1.0000
G01 X 29.9536 Y 10.1613 Z -1.0000
G02 X 29.9787 Y 10.1561 Z -1.0000 I -0.0010 J -0.0675
G03 X 30.0046 Y 10.1480 Z -1.0000 I 0.0596 J 0.1439
G03 X 30.0236 Y 10.1462 Z -1.0000 I 0.0163 J 0.0738
G02 X 30.0428 Y 10.1454 Z -1.0000 I 0.0043 J -0.1174
G01 X 30.0547 Y 10.1422 Z -1.0000
G03 X 30.0856 Y 10.1319 Z -1.0000 I 0.1024 J 0.2535
G03 X 30.3506 Y 10.0620 Z -1.0000 I 5.0539 J 18.6391
G03 X 30.4623 Y 10.0342 Z -1.0000 I 2.1188 J 8.2755
G03 X 30.5257 Y 10.0197 Z -1.0000 I 0.6412 J 2.6525
G02 X 30.5721 Y 10.0083 Z -1.0000 I -0.1952 J -0.8956
G02 X 30.5919 Y 10.0016 Z -1.0000 I -0.0448 J -0.1639
G03 X 30.6116 Y 9.9943 Z -1.0000 I 0.1034 J 0.2514
G03 X 30.6425 Y 9.9852 Z -1.0000 I 0.1927 J 0.5956
G02 X 30.8165 Y 9.9370 Z -1.0000 I -2.7062 J -10.1059
G02 X 30.8683 Y 9.9206 Z -1.0000 I -0.2628 J -0.9178
G03 X 30.8919 Y 9.9134 Z -1.0000 I 0.0929 J 0.2650
G03 X 30.9228 Y 9.9067 Z -1.0000 I 0.1150 J 0.4519
G02 X 30.9535 Y 9.8996 Z -1.0000 I -0.0577 J -0.3189
G02 X 31.0123 Y 9.8814 Z -1.0000 I -0.3572 J -1.2586
G03 X 31.0709 Y 9.8625 Z -1.0000 I 0.8070 J 2.4061
G03 X 31.1330 Y 9.8442 Z -1.0000 I 0.8145 J 2.6391
G02 X 31.1951 Y 9.8262 Z -1.0000 I -1.8024 J -6.3643
G02 X 31.2069 Y 9.8224 Z -1.0000 I -0.0662 J -0.2252
G03 X 31.2187 Y 9.8186 Z -1.0000 I 0.0747 J 0.2080
G03 X 31.2264 Y 9.8165 Z -1.0000 I 0.0382 J 0.1286
G02 X 31.2796 Y 9.8026 Z -1.0000 I -0.2440 J -1.0410
G02 X 31.3860 Y 9.7703 Z -1.0000 I -1.1662 J -4.0294
G03 X 31.4677 Y 9.7443 Z -1.0000 I 13.7672 J 43.2244
G03 X 31.5962 Y 9.7038 Z -1.0000 I 33.2247 J 105.0009
G02 X 31.7244 Y 9.6625 Z -1.0000 I -3.3689 J -10.6875
G02 X 31.7635 Y 9.6488 Z -1.0000 I -0.3288 J -1.0011
G03 X 31.8027 Y 9.6349 Z -1.0000 I 0.3959 J 1.0595
G03 X 31.8803 Y 9.6099 Z -1.0000 I 1.4651 J 4.4082
G02 X 31.9580 Y 9.5849 Z -1.0000 I -1.5186 J -4.8565
G02 X 31.9737 Y 9.5790 Z -1.0000 I -0.0687 J -0.2078
G03 X 32.0094 Y 9.5664 Z -1.0000 I 0.1258 J 0.2990
G03 X 32.0262 Y 9.5638 Z -1.0000 I 0.0192 J 0.0662
G01 X 32.0317 Y 9.5625 Z -1.0000
G02 X 32.0574 Y 9.5493 Z -1.0000 I -0.1574 J -0.3391
G03 X 32.0836 Y 9.5374 Z -1.0000 I 0.0862 J 0.1541
G03 X 32.1123 Y 9.5295 Z -1.0000 I 0.0628 J 0.1740
G02 X 32.1391 Y 9.5206 Z -1.0000 I -0.0197 J -0.1035
G01 X 32.1462 Y 9.5128 Z -1.0000
G01 X 32.1519 Y 9.5055 Z -1.0000
G01 X 32.1566 Y 9.5054 Z -1.0000
G01 X 32.1713 Y 9.5071 Z -1.0000
G02 X 32.3241 Y 9.4506 Z -1.0000 I -0.6642 J -2.0310
G03 X 32.3476 Y 9.4414 Z -1.0000 I 0.3146 J 0.7627
G03 X 32.3963 Y 9.4234 Z -1.0000 I 1.1687 J 3.0996
G02 X 32.4438 Y 9.4041 Z -1.0000 I -0.2150 J -0.5960
G01 X 32.4493 Y 9.3992 Z -1.0000
G01 X 32.4548 Y 9.3949 Z -1.0000
G01 X 32.4694 Y 9.3925 Z -1.0000
G01 X 32.4848 Y 9.3899 Z -1.0000
G02 X 32.5137 Y 9.3772 Z -1.0000 I -0.0636 J -0.1837
G03 X 32.5759 Y 9.3490 Z -1.0000 I 0.2329 J 0.4304
G03 X 32.6501 Y 9.3264 Z -1.0000 I 0.2204 J 0.5922
G02 X 32.6639 Y 9.3211 Z -1.0000 I -0.0121 J -0.0518
G02 X 32.6780 Y 9.3110 Z -1.0000 I -0.0379 J -0.0679
G03 X 32.6920 Y 9.3012 Z -1.0000 I 0.0454 J 0.0496
G01 X 32.7003 Y 9.2991 Z -1.0000
G01 X 32.7073 Y 9.2970 Z -1.0000
G01 X 32.7094 Y 9.2933 Z -1.0000
G01 X 32.7119 Y 9.2898 Z -1.0000
G03 X 32.7302 Y 9.2863 Z -1.0000 I 0.0219 J 0.0646
G01 X 32.7490 Y 9.2813 Z -1.0000
G01 X 32.7633 Y 9.2697 Z -1.0000
G01 X 32.7778 Y 9.2580 Z -1.0000
G03 X 32.8053 Y 9.2490 Z -1.0000 I 0.0456 J 0.0931
G02 X 32.8341 Y 9.2412 Z -1.0000 I -0.0287 J -0.1618
G02 X 32.8598 Y 9.2287 Z -1.0000 I -0.0527 J -0.1412
G03 X 32.8852 Y 9.2158 Z -1.0000 I 0.0963 J 0.1577
G01 X 32.8962 Y 9.2135 Z -1.0000
G01 X 32.9074 Y 9.2114 Z -1.0000
G02 X 32.9546 Y 9.1902 Z -1.0000 I -0.2325 J -0.5818
G03 X 33.0017 Y 9.1683 Z -1.0000 I 0.4090 J 0.8202
G01 X 33.0091 Y 9.1668 Z -1.0000
G01 X 33.0166 Y 9.1651 Z -1.0000
G02 X 33.0628 Y 9.1434 Z -1.0000 I -0.3523 J -0.8078
G03 X 33.1091 Y 9.1220 Z -1.0000 I 0.3081 J 0.6075
G01 X 33.1187 Y 9.1201 Z -1.0000
G01 X 33.1436 Y 9.1081 Z -1.0000
G01 X 33.1482 Y 9.0829 Z -1.0000
G01 X 33.1519 Y 9.0808 Z -1.0000
G01 X 33.1571 Y 9.0922 Z -1.0000
G01 X 33.1561 Y 9.0983 Z -1.0000
G01 X 33.1599 Y 9.1037 Z -1.0000
G01 X 33.1793 Y 9.0928 Z -1.0000
G03 X 33.1919 Y 9.0834 Z -1.0000 I 0.0391 J 0.0391
G01 X 33.2007 Y 9.0812 Z -1.0000
G01 X 33.2101 Y 9.0792 Z -1.0000
G02 X 33.2928 Y 9.0415 Z -1.0000 I -0.8528 J -1.9794
G03 X 33.3753 Y 9.0023 Z -1.0000 I 3.5417 J 7.3515
G03 X 33.3926 Y 8.9948 Z -1.0000 I 0.1486 J 0.3174
G02 X 33.4488 Y 8.9684 Z -1.0000 I -0.2134 J -0.5280
G01 X 33.4587 Y 8.9592 Z -1.0000
G01 X 33.4664 Y 8.9530 Z -1.0000
G03 X 33.4957 Y 8.9449 Z -1.0000 I 0.0544 J 0.1408
G02 X 33.5241 Y 8.9374 Z -1.0000 I -0.0270 J -0.1594
G01 X 33.5269 Y 8.9335 Z -1.0000
G01 X 33.5293 Y 8.9289 Z -1.0000
G03 X 33.5503 Y 8.9176 Z -1.0000 I 0.0667 J 0.0988
G01 X 33.5653 Y 8.9058 Z -1.0000
G01 X 33.5650 Y 8.8972 Z -1.0000
G01 X 33.5618 Y 8.8892 Z -1.0000
G01 X 33.5644 Y 8.8865 Z -1.0000
G01 X 33.5716 Y 8.8884 Z -1.0000
G01 X 33.5770 Y 8.8935 Z -1.0000
G01 X 33.6087 Y 8.9029 Z -1.0000
G02 X 33.7571 Y 8.8082 Z -1.0000 I -0.3039 J -0.6397
G03 X 33.8059 Y 8.7767 Z -1.0000 I 0.1555 J 0.1874
G03 X 33.8360 Y 8.7698 Z -1.0000 I 0.0301 J 0.0618
G01 X 33.8438 Y 8.7676 Z -1.0000
G01 X 33.8461 Y 8.7637 Z -1.0000
G01 X 33.8484 Y 8.7592 Z -1.0000
G03 X 33.8675 Y 8.7487 Z -1.0000 I 0.0572 J 0.0810
G02 X 33.9368 Y 8.7144 Z -1.0000 I -0.2337 J -0.5603
G02 X 33.9553 Y 8.6981 Z -1.0000 I -0.0308 J -0.0534
G01 X 33.9604 Y 8.6937 Z -1.0000
G03 X 34.0020 Y 8.6726 Z -1.0000 I 0.3607 J 0.6594
G02 X 34.0438 Y 8.6513 Z -1.0000 I -0.3128 J -0.6672
G02 X 34.0796 Y 8.6300 Z -1.0000 I -0.2788 J -0.5078
G03 X 34.1493 Y 8.5862 Z -1.0000 I 1.6910 J 2.6149
G03 X 34.2312 Y 8.5375 Z -1.0000 I 2.1754 J 3.5673
G02 X 34.2613 Y 8.5179 Z -1.0000 I -0.1745 J -0.3007
G01 X 34.2711 Y 8.5085 Z -1.0000
G01 X 34.2799 Y 8.5013 Z -1.0000
G01 X 34.2842 Y 8.5021 Z -1.0000
G01 X 34.2954 Y 8.5031 Z -1.0000
G02 X 34.3774 Y 8.4394 Z -1.0000 I -0.4210 J -0.6260
G03 X 34.3920 Y 8.4297 Z -1.0000 I 0.0419 J 0.0469
G01 X 34.4027 Y 8.4272 Z -1.0000
G01 X 34.4116 Y 8.4245 Z -1.0000
G01 X 34.4144 Y 8.4194 Z -1.0000
G01 X 34.4169 Y 8.4141 Z -1.0000
G01 X 34.4241 Y 8.4114 Z -1.0000
G01 X 34.4329 Y 8.4087 Z -1.0000
G02 X 34.4624 Y 8.3861 Z -1.0000 I -0.1511 J -0.2286
G03 X 34.4923 Y 8.3627 Z -1.0000 I 0.2303 J 0.2624
G03 X 34.5316 Y 8.3376 Z -1.0000 I 0.3036 J 0.4330
G02 X 34.5711 Y 8.3130 Z -1.0000 I -0.3385 J -0.5871
G02 X 34.5866 Y 8.3007 Z -1.0000 I -0.0691 J -0.1029
G03 X 34.6018 Y 8.2886 Z -1.0000 I 0.0826 J 0.0881
G01 X 34.6070 Y 8.2869 Z -1.0000
G01 X 34.6122 Y 8.2851 Z -1.0000
G02 X 34.6479 Y 8.2559 Z -1.0000 I -0.3799 J -0.5006
G03 X 34.6835 Y 8.2263 Z -1.0000 I 0.5195 J 0.5892
G01 X 34.6876 Y 8.2249 Z -1.0000
G01 X 34.6916 Y 8.2235 Z -1.0000
G02 X 34.7148 Y 8.2053 Z -1.0000 I -0.1987 J -0.2769
G03 X 34.7383 Y 8.1882 Z -1.0000 I 0.1161 J 0.1349
G01 X 34.7468 Y 8.1858 Z -1.0000
G01 X 34.7548 Y 8.1835 Z -1.0000
G01 X 34.7623 Y 8.1757 Z -1.0000
G03 X 34.8173 Y 8.1201 Z -1.0000 I 0.1463 J 0.0897
G01 X 34.8509 Y 8.1200 Z -1.0000
G01 X 34.8542 Y 8.1196 Z -1.0000
G01 X 34.8546 Y 8.1163 Z -1.0000
G01 X 34.8573 Y 8.0817 Z -1.0000
G03 X 34.9024 Y 8.0612 Z -1.0000 I 0.0450 J 0.0392
G01 X 34.9100 Y 8.0586 Z -1.0000
G01 X 34.9126 Y 8.0535 Z -1.0000
G01 X 34.9153 Y 8.0471 Z -1.0000
G03 X 34.9457 Y 8.0219 Z -1.0000 I 0.1997 J 0.2096
G02 X 34.9778 Y 7.9968 Z -1.0000 I -0.3114 J -0.4316
G02 X 35.0159 Y 7.9626 Z -1.0000 I -0.5411 J -0.6405
G03 X 35.0532 Y 7.9354 Z -1.0000 I 0.1205 J 0.1261
G01 X 35.0641 Y 7.9365 Z -1.0000
G01 X 35.0757 Y 7.9409 Z -1.0000
G01 X 35.0893 Y 7.9376 Z -1.0000
G01 X 35.0914 Y 7.9325 Z -1.0000
G01 X 35.0871 Y 7.9292 Z -1.0000
G03 X 35.0716 Y 7.9273 Z -1.0000 I 0.0011 J -0.0735
G01 X 35.0663 Y 7.9244 Z -1.0000
G01 X 35.0657 Y 7.9039 Z -1.0000
G01 X 35.0966 Y 7.8900 Z -1.0000
G01 X 35.1009 Y 7.8885 Z -1.0000
G02 X 35.1186 Y 7.8724 Z -1.0000 I -0.1192 J -0.1498
G03 X 35.1361 Y 7.8555 Z -1.0000 I 0.3338 J 0.3268
G03 X 35.1507 Y 7.8430 Z -1.0000 I 0.1809 J 0.1967
G02 X 35.1648 Y 7.8300 Z -1.0000 I -0.0822 J -0.1033
G02 X 35.1873 Y 7.8041 Z -1.0000 I -0.3144 J -0.2952
G03 X 35.2087 Y 7.7883 Z -1.0000 I 0.0398 J 0.0318
G01 X 35.2198 Y 7.7915 Z -1.0000
G01 X 35.2343 Y 7.7938 Z -1.0000
G01 X 35.2414 Y 7.7768 Z -1.0000
G01 X 35.2431 Y 7.7589 Z -1.0000
G01 X 35.2543 Y 7.7449 Z -1.0000
G01 X 35.2668 Y 7.7323 Z -1.0000
G01 X 35.2669 Y 7.7267 Z -1.0000
G01 X 35.2772 Y 7.7239 Z -1.0000
G01 X 35.2865 Y 7.7213 Z -1.0000
G01 X 35.2908 Y 7.7100 Z -1.0000
G01 X 35.2956 Y 7.6951 Z -1.0000
G03 X 35.3228 Y 7.6686 Z -1.0000 I 0.1065 J 0.0820
G02 X 35.3502 Y 7.6430 Z -1.0000 I -0.0946 J -0.1291
G01 X 35.3519 Y 7.6343 Z -1.0000
G01 X 35.3533 Y 7.6265 Z -1.0000
G01 X 35.3634 Y 7.6199 Z -1.0000
G01 X 35.3755 Y 7.6127 Z -1.0000
G02 X 35.3872 Y 7.5949 Z -1.0000 I -0.0422 J -0.0402
G03 X 35.3989 Y 7.5763 Z -1.0000 I 0.0584 J 0.0241
G03 X 35.4188 Y 7.5602 Z -1.0000 I 0.0639 J 0.0584
G02 X 35.4393 Y 7.5455 Z -1.0000 I -0.0706 J -0.1202
G01 X 35.4409 Y 7.5412 Z -1.0000
G01 X 35.4442 Y 7.5313 Z -1.0000
G01 X 35.4501 Y 7.5318 Z -1.0000
G01 X 35.4530 Y 7.5220 Z -1.0000
G01 X 35.4543 Y 7.5077 Z -1.0000
G01 X 35.4602 Y 7.5052 Z -1.0000
G01 X 35.4690 Y 7.5033 Z -1.0000
G01 X 35.4777 Y 7.4878 Z -1.0000
G03 X 35.4895 Y 7.4636 Z -1.0000 I 0.0595 J 0.0142
G01 X 35.4961 Y 7.4648 Z -1.0000
G01 X 35.5025 Y 7.4766 Z -1.0000
G01 X 35.5076 Y 7.4798 Z -1.0000
G01 X 35.5255 Y 7.4664 Z -1.0000
G01 X 35.5111 Y 7.4378 Z -1.0000
G01 X 35.5078 Y 7.4312 Z -1.0000
G01 X 35.5129 Y 7.4177 Z -1.0000
G03 X 35.5554 Y 7.3918 Z -1.0000 I 0.0528 J 0.0389
G01 X 35.5743 Y 7.4080 Z -1.0000
G01 X 35.5793 Y 7.4127 Z -1.0000
G01 X 35.5807 Y 7.4075 Z -1.0000
G01 X 35.5746 Y 7.3960 Z -1.0000
G01 X 35.5715 Y 7.3835 Z -1.0000
G03 X 35.5871 Y 7.3375 Z -1.0000 I 0.2056 J 0.0438
G03 X 35.6117 Y 7.2944 Z -1.0000 I 0.2880 J 0.1360
G01 X 35.6190 Y 7.2905 Z -1.0000
G01 X 35.6257 Y 7.2874 Z -1.0000
G01 X 35.6287 Y 7.2791 Z -1.0000
G01 X 35.6329 Y 7.2708 Z -1.0000
G03 X 35.6521 Y 7.2616 Z -1.0000 I 0.0332 J 0.0443
G02 X 35.6726 Y 7.2531 Z -1.0000 I -0.0198 J -0.0773
G01 X 35.6759 Y 7.2477 Z -1.0000
G01 X 35.6630 Y 7.2308 Z -1.0000
G01 X 35.6307 Y 7.2382 Z -1.0000
G01 X 35.6251 Y 7.2352 Z -1.0000
G01 X 35.6325 Y 7.2161 Z -1.0000
G01 X 35.6439 Y 7.2075 Z -1.0000
G01 X 35.6500 Y 7.2093 Z -1.0000
G01 X 35.6757 Y 7.2226 Z -1.0000
G01 X 35.7002 Y 7.2097 Z -1.0000
G01 X 35.6987 Y 7.1970 Z -1.0000
G01 X 35.6826 Y 7.1935 Z -1.0000
G01 X 35.6724 Y 7.1917 Z -1.0000
G01 X 35.6676 Y 7.1821 Z -1.0000
G01 X 35.6728 Y 7.1712 Z -1.0000
G01 X 35.6871 Y 7.1660 Z -1.0000
G01 X 35.7015 Y 7.1607 Z -1.0000
G01 X 35.7076 Y 7.1485 Z -1.0000
G03 X 35.7204 Y 7.0898 Z -1.0000 I 0.1906 J 0.0110
G01 X 35.7343 Y 7.0804 Z -1.0000
G01 X 35.7414 Y 7.0763 Z -1.0000
G01 X 35.7455 Y 7.0618 Z -1.0000
G01 X 35.7501 Y 7.0482 Z -1.0000
G01 X 35.7591 Y 7.0443 Z -1.0000
G01 X 35.7670 Y 7.0396 Z -1.0000
G01 X 35.7706 Y 7.0181 Z -1.0000
G02 X 35.7654 Y 6.9925 Z -1.0000 I -0.1089 J 0.0087
G01 X 35.7589 Y 6.9831 Z -1.0000
G01 X 35.7414 Y 6.9472 Z -1.0000
G01 X 35.7580 Y 6.9356 Z -1.0000
G01 X 35.7664 Y 6.9361 Z -1.0000
G01 X 35.7688 Y 6.9330 Z -1.0000
G01 X 35.7716 Y 6.9297 Z -1.0000
G01 X 35.7844 Y 6.9303 Z -1.0000
G01 X 35.7965 Y 6.9297 Z -1.0000
G01 X 35.8000 Y 6.9248 Z -1.0000
G01 X 35.8034 Y 6.9196 Z -1.0000
G01 X 35.8136 Y 6.9187 Z -1.0000
G01 X 35.8214 Y 6.9144 Z -1.0000
G02 X 35.8297 Y 6.8682 Z -1.0000 I -0.1701 J -0.0543
G02 X 35.8269 Y 6.8162 Z -1.0000 I -0.2645 J -0.0120
G01 X 35.8192 Y 6.7999 Z -1.0000
G01 X 35.8209 Y 6.7926 Z -1.0000
G03 X 35.8479 Y 6.7880 Z -1.0000 I 0.0235 J 0.0564
G01 X 35.8603 Y 6.7870 Z -1.0000
G01 X 35.8384 Y 6.7772 Z -1.0000
G01 X 35.8311 Y 6.7608 Z -1.0000
G01 X 35.8390 Y 6.7455 Z -1.0000
G01 X 35.8642 Y 6.7369 Z -1.0000
G01 X 35.8700 Y 6.7304 Z -1.0000
G01 X 35.8557 Y 6.7235 Z -1.0000
G01 X 35.8564 Y 6.7189 Z -1.0000
G01 X 35.8701 Y 6.7156 Z -1.0000
G01 X 35.8817 Y 6.7173 Z -1.0000
G01 X 35.8886 Y 6.7148 Z -1.0000
G01 X 35.8933 Y 6.6967 Z -1.0000
G01 X 35.8860 Y 6.6762 Z -1.0000
G02 X 35.8605 Y 6.6561 Z -1.0000 I -0.0569 J 0.0459
G01 X 35.8538 Y 6.6454 Z -1.0000
G01 X 35.8606 Y 6.6381 Z -1.0000
G01 X 35.8821 Y 6.6288 Z -1.0000
G01 X 35.8791 Y 6.6211 Z -1.0000
G03 X 35.8655 Y 6.6195 Z -1.0000 I 0.0000 J -0.0594
G01 X 35.8605 Y 6.6168 Z -1.0000
G01 X 35.8551 Y 6.5851 Z -1.0000
G01 X 35.8844 Y 6.5666 Z -1.0000
G01 X 35.8881 Y 6.5633 Z -1.0000
G01 X 35.8858 Y 6.5551 Z -1.0000
G01 X 35.8754 Y 6.5507 Z -1.0000
G01 X 35.8578 Y 6.5570 Z -1.0000
G02 X 35.8437 Y 6.5718 Z -1.0000 I 0.0332 J 0.0455
G01 X 35.8427 Y 6.5802 Z -1.0000
G01 X 35.8425 Y 6.5873 Z -1.0000
G01 X 35.8386 Y 6.5899 Z -1.0000
G01 X 35.8297 Y 6.5782 Z -1.0000
G03 X 35.8505 Y 6.5446 Z -1.0000 I 0.0651 J 0.0172
G02 X 35.8675 Y 6.5266 Z -1.0000 I -0.0793 J -0.0913
G01 X 35.8700 Y 6.5190 Z -1.0000
G01 X 35.8731 Y 6.5147 Z -1.0000
G01 X 35.8817 Y 6.5148 Z -1.0000
G01 X 35.8879 Y 6.5095 Z -1.0000
G01 X 35.8760 Y 6.4886 Z -1.0000
G01 X 35.8723 Y 6.4723 Z -1.0000
G01 X 35.8895 Y 6.4544 Z -1.0000
G01 X 35.8908 Y 6.4469 Z -1.0000
G02 X 35.8662 Y 6.4317 Z -1.0000 I -0.0468 J 0.0483
G01 X 35.8644 Y 6.4277 Z -1.0000
G01 X 35.8728 Y 6.4148 Z -1.0000
G01 X 35.8820 Y 6.3989 Z -1.0000
G01 X 35.8827 Y 6.3787 Z -1.0000
G03 X 35.8823 Y 6.3587 Z -1.0000 I 0.0547 J -0.0111
G01 X 35.8871 Y 6.3515 Z -1.0000
G01 X 35.8903 Y 6.3551 Z -1.0000
G01 X 35.8922 Y 6.3600 Z -1.0000
G02 X 35.9203 Y 6.3641 Z -1.0000 I 0.0281 J -0.0935
G03 X 35.9477 Y 6.3722 Z -1.0000 I 0.0000 J 0.0505
G01 X 35.9557 Y 6.3871 Z -1.0000
G01 X 35.9478 Y 6.4026 Z -1.0000
G03 X 35.9209 Y 6.4124 Z -1.0000 I -0.0304 J -0.0418
G02 X 35.8960 Y 6.4194 Z -1.0000 I 0.0043 J 0.0626
G01 X 35.8943 Y 6.4264 Z -1.0000
G01 X 35.9016 Y 6.4310 Z -1.0000
G01 X 35.9064 Y 6.4283 Z -1.0000
G01 X 35.9205 Y 6.4192 Z -1.0000
G01 X 35.9446 Y 6.4297 Z -1.0000
G01 X 35.9551 Y 6.4537 Z -1.0000
G01 X 35.9460 Y 6.4685 Z -1.0000
G01 X 35.9431 Y 6.4731 Z -1.0000
G01 X 35.9460 Y 6.4776 Z -1.0000
G01 X 35.9517 Y 6.4847 Z -1.0000
G03 X 35.9557 Y 6.5213 Z -1.0000 I -0.1656 J 0.0366
G02 X 35.9609 Y 6.5529 Z -1.0000 I 0.0986 J 0.0000
G01 X 35.9674 Y 6.5559 Z -1.0000
G01 X 35.9920 Y 6.5576 Z -1.0000
G01 X 36.0024 Y 6.5751 Z -1.0000
G01 X 36.0005 Y 6.5904 Z -1.0000
G01 X 35.9985 Y 6.5908 Z -1.0000
G03 X 35.9488 Y 6.5949 Z -1.0000 I -0.7620 J -8.8573
G03 X 35.9012 Y 6.5945 Z -1.0000 I -0.0213 J -0.2696
G01 X 35.8932 Y 6.5895 Z -1.0000
G01 X 35.8864 Y 6.5848 Z -1.0000
G01 X 35.8774 Y 6.5864 Z -1.0000
G01 X 35.8782 Y 6.5957 Z -1.0000
G02 X 35.9254 Y 6.6050 Z -1.0000 I 0.0499 J -0.1290
G01 X 35.9424 Y 6.6169 Z -1.0000
G03 X 35.9577 Y 6.6892 Z -1.0000 I -0.2199 J 0.0843
G03 X 35.9599 Y 6.7729 Z -1.0000 I -1.7335 J 0.0866
G03 X 35.9579 Y 6.8138 Z -1.0000 I -0.4085 J 0.0007
G03 X 35.9448 Y 6.8448 Z -1.0000 I -0.0568 J -0.0057
G01 X 35.9237 Y 6.8547 Z -1.0000
G01 X 35.9025 Y 6.8636 Z -1.0000
G01 X 35.8935 Y 6.8858 Z -1.0000
G01 X 35.9047 Y 6.9057 Z -1.0000
G02 X 35.9447 Y 6.9169 Z -1.0000 I 0.0400 J -0.0657
G03 X 35.9886 Y 6.9230 Z -1.0000 I -0.0000 J 0.1623
G01 X 35.9933 Y 6.9306 Z -1.0000
G01 X 35.9872 Y 6.9406 Z -1.0000
G01 X 35.9732 Y 6.9467 Z -1.0000
G01 X 35.9603 Y 6.9531 Z -1.0000
G01 X 35.9558 Y 6.9642 Z -1.0000
G01 X 35.9528 Y 6.9763 Z -1.0000
G01 X 35.9480 Y 6.9792 Z -1.0000
G01 X 35.9425 Y 6.9815 Z -1.0000
G01 X 35.9402 Y 6.9870 Z -1.0000
G01 X 35.9431 Y 6.9919 Z -1.0000
G01 X 35.9544 Y 6.9948 Z -1.0000
G03 X 35.9895 Y 7.0078 Z -1.0000 I 0.0000 J 0.0537
G01 X 36.0025 Y 7.0362 Z -1.0000
G01 X 36.0001 Y 7.0391 Z -1.0000
G03 X 35.9791 Y 7.0415 Z -1.0000 I -0.0210 J -0.0922
G01 X 35.9653 Y 7.0511 Z -1.0000
G02 X 35.9557 Y 7.1038 Z -1.0000 I 0.1406 J 0.0527
G02 X 35.9611 Y 7.1608 Z -1.0000 I 0.3084 J 0.0000
G01 X 35.9674 Y 7.1661 Z -1.0000
G01 X 35.9743 Y 7.1708 Z -1.0000
G03 X 35.9791 Y 7.1972 Z -1.0000 I -0.0702 J 0.0264
G01 X 35.9882 Y 7.2192 Z -1.0000
G01 X 36.0102 Y 7.2283 Z -1.0000
G01 X 36.0323 Y 7.2375 Z -1.0000
G01 X 36.0414 Y 7.2595 Z -1.0000
G01 X 36.0483 Y 7.2837 Z -1.0000
G01 X 36.0608 Y 7.2906 Z -1.0000
G01 X 36.0761 Y 7.2948 Z -1.0000
G01 X 36.0803 Y 7.3023 Z -1.0000
G01 X 36.0755 Y 7.3092 Z -1.0000
G03 X 36.0492 Y 7.3140 Z -1.0000 I -0.0264 J -0.0702
G03 X 36.0234 Y 7.3086 Z -1.0000 I -0.0000 J -0.0647
G01 X 36.0179 Y 7.3004 Z -1.0000
G01 X 36.0079 Y 7.3062 Z -1.0000
G03 X 35.9959 Y 7.3221 Z -1.0000 I -0.0500 J -0.0252
G01 X 35.9868 Y 7.3256 Z -1.0000
G01 X 35.9681 Y 7.3136 Z -1.0000
G03 X 35.9558 Y 7.2584 Z -1.0000 I 0.1206 J -0.0557
G01 X 35.9450 Y 7.2399 Z -1.0000
G02 X 35.8967 Y 7.2246 Z -1.0000 I -0.0594 J 0.1039
G02 X 35.8387 Y 7.2214 Z -1.0000 I -0.0711 J 0.7681
G01 X 35.8332 Y 7.2237 Z -1.0000
G01 X 35.8610 Y 7.2283 Z -1.0000
G01 X 35.8841 Y 7.2376 Z -1.0000
G01 X 35.8934 Y 7.2594 Z -1.0000
G01 X 35.9025 Y 7.2814 Z -1.0000
G01 X 35.9246 Y 7.2906 Z -1.0000
G01 X 35.9466 Y 7.2997 Z -1.0000
G01 X 35.9557 Y 7.3217 Z -1.0000
G01 X 35.9452 Y 7.3423 Z -1.0000
G03 X 35.9129 Y 7.3528 Z -1.0000 I -0.0323 J -0.0444
G02 X 35.8806 Y 7.3634 Z -1.0000 I 0.0000 J 0.0549
G01 X 35.8701 Y 7.3840 Z -1.0000
G01 X 35.8631 Y 7.4082 Z -1.0000
G01 X 35.8506 Y 7.4151 Z -1.0000
G01 X 35.8396 Y 7.4236 Z -1.0000
G02 X 35.8311 Y 7.4891 Z -1.0000 I 0.2489 J 0.0655
G03 X 35.8187 Y 7.5506 Z -1.0000 I -0.1586 J -0.0000
G01 X 35.8000 Y 7.5630 Z -1.0000
G01 X 35.7758 Y 7.5700 Z -1.0000
G01 X 35.7689 Y 7.5825 Z -1.0000
G01 X 35.7657 Y 7.5988 Z -1.0000
G01 X 35.7611 Y 7.6020 Z -1.0000
G01 X 35.7567 Y 7.6054 Z -1.0000
G02 X 35.7533 Y 7.6331 Z -1.0000 I 0.1108 J 0.0277
G01 X 35.7455 Y 7.6565 Z -1.0000
G01 X 35.7299 Y 7.6642 Z -1.0000
G01 X 35.7143 Y 7.6720 Z -1.0000
G01 X 35.7065 Y 7.6949 Z -1.0000
G01 X 35.6980 Y 7.7180 Z -1.0000
G01 X 35.6774 Y 7.7289 Z -1.0000
G01 X 35.7007 Y 7.7289 Z -1.0000
G03 X 35.7417 Y 7.7379 Z -1.0000 I 0.0048 J 0.0762
G01 X 35.7533 Y 7.7572 Z -1.0000
G02 X 35.7567 Y 7.7854 Z -1.0000 I 0.1178 J 0.0000
G01 X 35.7611 Y 7.7888 Z -1.0000
G01 X 35.7655 Y 7.7854 Z -1.0000
G02 X 35.7689 Y 7.7577 Z -1.0000 I -0.1108 J -0.0277
G01 X 35.7780 Y 7.7357 Z -1.0000
G01 X 35.8000 Y 7.7265 Z -1.0000
G01 X 35.8193 Y 7.7384 Z -1.0000
G03 X 35.8311 Y 7.7888 Z -1.0000 I -0.1008 J 0.0504
G03 X 35.8246 Y 7.8446 Z -1.0000 I -0.2422 J -0.0000
G01 X 35.8164 Y 7.8511 Z -1.0000
G01 X 35.8040 Y 7.8476 Z -1.0000
G01 X 35.7972 Y 7.8394 Z -1.0000
G01 X 35.7906 Y 7.8309 Z -1.0000
G01 X 35.7808 Y 7.8277 Z -1.0000
G01 X 35.7723 Y 7.8242 Z -1.0000
G01 X 35.7689 Y 7.8161 Z -1.0000
G01 X 35.7607 Y 7.8069 Z -1.0000
G01 X 35.7377 Y 7.8123 Z -1.0000
G01 X 35.7336 Y 7.8199 Z -1.0000
G01 X 35.7377 Y 7.8276 Z -1.0000
G02 X 35.7499 Y 7.8337 Z -1.0000 I 0.0321 J -0.0489
G01 X 35.7591 Y 7.8354 Z -1.0000
G01 X 35.7663 Y 7.8380 Z -1.0000
G01 X 35.7688 Y 7.8433 Z -1.0000
G01 X 35.7662 Y 7.8484 Z -1.0000
G01 X 35.7577 Y 7.8511 Z -1.0000
G01 X 35.7491 Y 7.8545 Z -1.0000
G01 X 35.7417 Y 7.8663 Z -1.0000
G01 X 35.7342 Y 7.8787 Z -1.0000
G01 X 35.7217 Y 7.8862 Z -1.0000
G01 X 35.7125 Y 7.8954 Z -1.0000
G02 X 35.7066 Y 7.9334 Z -1.0000 I 0.1178 J 0.0379
G03 X 35.6961 Y 7.9652 Z -1.0000 I -0.0537 J 0.0000
G01 X 35.6754 Y 7.9756 Z -1.0000
G02 X 35.6489 Y 7.9803 Z -1.0000 I 0.0000 J 0.0775
G01 X 35.6443 Y 7.9870 Z -1.0000
G01 X 35.6288 Y 8.0225 Z -1.0000
G03 X 35.5894 Y 8.0379 Z -1.0000 I -0.0394 J -0.0424
G01 X 35.5809 Y 8.0446 Z -1.0000
G02 X 35.5742 Y 8.1002 Z -1.0000 I 0.2275 J 0.0556
G02 X 35.5799 Y 8.1569 Z -1.0000 I 0.2869 J 0.0000
G01 X 35.5867 Y 8.1625 Z -1.0000
G01 X 35.5930 Y 8.1585 Z -1.0000
G01 X 35.5930 Y 8.1489 Z -1.0000
G03 X 35.5888 Y 8.1347 Z -1.0000 I 0.0504 J -0.0229
G03 X 35.5837 Y 8.0905 Z -1.0000 I 0.4918 J -0.0786
G03 X 35.5924 Y 8.0567 Z -1.0000 I 0.0553 J -0.0038
G01 X 35.6124 Y 8.0457 Z -1.0000
G01 X 35.6357 Y 8.0543 Z -1.0000
G01 X 35.6443 Y 8.0730 Z -1.0000
G01 X 35.6501 Y 8.0944 Z -1.0000
G01 X 35.6604 Y 8.1002 Z -1.0000
G01 X 35.6716 Y 8.1138 Z -1.0000
G01 X 35.6546 Y 8.1299 Z -1.0000
G01 X 35.6305 Y 8.1460 Z -1.0000
G01 X 35.6361 Y 8.1610 Z -1.0000
G01 X 35.6409 Y 8.1662 Z -1.0000
G03 X 35.6443 Y 8.1943 Z -1.0000 I -0.1136 J 0.0281
G01 X 35.6533 Y 8.2157 Z -1.0000
G01 X 35.6754 Y 8.2248 Z -1.0000
G01 X 35.6974 Y 8.2157 Z -1.0000
G01 X 35.7065 Y 8.1936 Z -1.0000
G02 X 35.7006 Y 8.1684 Z -1.0000 I -0.0563 J -0.0000
G01 X 35.6910 Y 8.1625 Z -1.0000
G01 X 35.6794 Y 8.1584 Z -1.0000
G01 X 35.6754 Y 8.1501 Z -1.0000
G01 X 35.6792 Y 8.1406 Z -1.0000
G01 X 35.6910 Y 8.1336 Z -1.0000
G01 X 35.7004 Y 8.1248 Z -1.0000
G02 X 35.7065 Y 8.0876 Z -1.0000 I -0.1100 J -0.0372
G03 X 35.7170 Y 8.0561 Z -1.0000 I 0.0528 J -0.0000
G01 X 35.7377 Y 8.0457 Z -1.0000
G01 X 35.7552 Y 8.0593 Z -1.0000
G03 X 35.7688 Y 8.1664 Z -1.0000 I -0.4149 J 0.1071
G03 X 35.7552 Y 8.2735 Z -1.0000 I -0.4285 J 0.0000
G01 X 35.7377 Y 8.2871 Z -1.0000
G01 X 35.7157 Y 8.2962 Z -1.0000
G01 X 35.7065 Y 8.3182 Z -1.0000
G01 X 35.7157 Y 8.3402 Z -1.0000
G01 X 35.7377 Y 8.3493 Z -1.0000
G02 X 35.7629 Y 8.3434 Z -1.0000 I -0.0000 J -0.0563
G01 X 35.7688 Y 8.3338 Z -1.0000
G01 X 35.7717 Y 8.3211 Z -1.0000
G01 X 35.7762 Y 8.3182 Z -1.0000
G01 X 35.7883 Y 8.3272 Z -1.0000
G03 X 35.7934 Y 8.3772 Z -1.0000 I -0.1340 J 0.0389
G01 X 35.7776 Y 8.3989 Z -1.0000
G03 X 35.7154 Y 8.4097 Z -1.0000 I -0.0547 J -0.1312
G01 X 35.6657 Y 8.4092 Z -1.0000
G01 X 35.6831 Y 8.4194 Z -1.0000
G01 X 35.6910 Y 8.4432 Z -1.0000
G02 X 35.6944 Y 8.4705 Z -1.0000 I 0.1106 J -0.0000
G01 X 35.6988 Y 8.4739 Z -1.0000
G01 X 35.7032 Y 8.4773 Z -1.0000
G03 X 35.7066 Y 8.5050 Z -1.0000 I -0.1108 J 0.0277
G01 X 35.6973 Y 8.5269 Z -1.0000
G01 X 35.6741 Y 8.5362 Z -1.0000
G01 X 35.6988 Y 8.5467 Z -1.0000
G03 X 35.7494 Y 8.5508 Z -1.0000 I -0.7050 J 8.9187
G01 X 35.7513 Y 8.5512 Z -1.0000
G01 X 35.7532 Y 8.5664 Z -1.0000
G01 X 35.7429 Y 8.5840 Z -1.0000
G01 X 35.7182 Y 8.5857 Z -1.0000
G01 X 35.7095 Y 8.5855 Z -1.0000
G01 X 35.7065 Y 8.5898 Z -1.0000
G01 X 35.7094 Y 8.5955 Z -1.0000
G01 X 35.7182 Y 8.5984 Z -1.0000
G01 X 35.7251 Y 8.6031 Z -1.0000
G03 X 35.7299 Y 8.6295 Z -1.0000 I -0.0702 J 0.0264
G01 X 35.7230 Y 8.6537 Z -1.0000
G01 X 35.7104 Y 8.6606 Z -1.0000
G01 X 35.6979 Y 8.6676 Z -1.0000
G01 X 35.6910 Y 8.6918 Z -1.0000
G01 X 35.7011 Y 8.7128 Z -1.0000
G01 X 35.7299 Y 8.7229 Z -1.0000
G01 X 35.7560 Y 8.7358 Z -1.0000
G03 X 35.7688 Y 8.7735 Z -1.0000 I -0.0491 J 0.0378
G02 X 35.7800 Y 8.8130 Z -1.0000 I 0.0752 J 0.0000
G01 X 35.8000 Y 8.8241 Z -1.0000
G03 X 35.8263 Y 8.8289 Z -1.0000 I -0.0000 J 0.0753
G01 X 35.8311 Y 8.8358 Z -1.0000
G01 X 35.8275 Y 8.8439 Z -1.0000
G01 X 35.8183 Y 8.8475 Z -1.0000
G01 X 35.8117 Y 8.8531 Z -1.0000
G02 X 35.8104 Y 8.8938 Z -1.0000 I 0.1471 J 0.0251
G03 X 35.8112 Y 8.9382 Z -1.0000 I -0.2550 J 0.0268
G01 X 35.8069 Y 8.9453 Z -1.0000
G01 X 35.7940 Y 8.9417 Z -1.0000
G03 X 35.7790 Y 8.8914 Z -1.0000 I 0.1248 J -0.0648
G02 X 35.7703 Y 8.8521 Z -1.0000 I -0.1773 J 0.0186
G01 X 35.7638 Y 8.8475 Z -1.0000
G01 X 35.7576 Y 8.8430 Z -1.0000
G03 X 35.7532 Y 8.8163 Z -1.0000 I 0.0788 J -0.0267
G02 X 35.7473 Y 8.7911 Z -1.0000 I -0.0563 J -0.0000
G01 X 35.7377 Y 8.7852 Z -1.0000
G01 X 35.7281 Y 8.7911 Z -1.0000
G02 X 35.7221 Y 8.8163 Z -1.0000 I 0.0504 J 0.0252
G03 X 35.7187 Y 8.8441 Z -1.0000 I -0.1143 J 0.0000
G01 X 35.7143 Y 8.8475 Z -1.0000
G01 X 35.7099 Y 8.8509 Z -1.0000
G02 X 35.7065 Y 8.8786 Z -1.0000 I 0.1108 J 0.0277
G03 X 35.7031 Y 8.9063 Z -1.0000 I -0.1143 J 0.0000
G01 X 35.6987 Y 8.9098 Z -1.0000
G01 X 35.6943 Y 8.9063 Z -1.0000
G03 X 35.6909 Y 8.8786 Z -1.0000 I 0.1108 J -0.0277
G02 X 35.6850 Y 8.8534 Z -1.0000 I -0.0563 J -0.0000
G01 X 35.6753 Y 8.8475 Z -1.0000
G01 X 35.6657 Y 8.8534 Z -1.0000
G02 X 35.6598 Y 8.8786 Z -1.0000 I 0.0504 J 0.0252
G03 X 35.6564 Y 8.9063 Z -1.0000 I -0.1143 J 0.0000
G01 X 35.6520 Y 8.9098 Z -1.0000
G01 X 35.6478 Y 8.9061 Z -1.0000
G03 X 35.6442 Y 8.8436 Z -1.0000 I 0.5314 J -0.0625
G02 X 35.6314 Y 8.7906 Z -1.0000 I -0.1167 J 0.0000
G01 X 35.6111 Y 8.7787 Z -1.0000
G01 X 35.6033 Y 8.7831 Z -1.0000
G01 X 35.6207 Y 8.7931 Z -1.0000
G01 X 35.6286 Y 8.8169 Z -1.0000
G03 X 35.6238 Y 8.8427 Z -1.0000 I -0.0726 J -0.0000
G01 X 35.6169 Y 8.8475 Z -1.0000
G01 X 35.6100 Y 8.8523 Z -1.0000
G02 X 35.6052 Y 8.8786 Z -1.0000 I 0.0702 J 0.0264
G02 X 35.6089 Y 8.9062 Z -1.0000 I 0.1059 J -0.0000
G01 X 35.6135 Y 8.9098 Z -1.0000
G01 X 35.6338 Y 8.9201 Z -1.0000
G03 X 35.6441 Y 8.9520 Z -1.0000 I -0.0441 J 0.0319
G01 X 35.6512 Y 8.9650 Z -1.0000
G01 X 35.6752 Y 8.9721 Z -1.0000
G01 X 35.6994 Y 8.9790 Z -1.0000
G01 X 35.7064 Y 8.9915 Z -1.0000
G01 X 35.7133 Y 9.0040 Z -1.0000
G01 X 35.7375 Y 9.0110 Z -1.0000
G03 X 35.7639 Y 9.0157 Z -1.0000 I -0.0000 J 0.0753
G01 X 35.7687 Y 9.0227 Z -1.0000
G01 X 35.7634 Y 9.0291 Z -1.0000
G03 X 35.7044 Y 9.0357 Z -1.0000 I -0.0660 J -0.3243
G01 X 35.6733 Y 9.0400 Z -1.0000
G01 X 35.6944 Y 9.0539 Z -1.0000
G03 X 35.7064 Y 9.1009 Z -1.0000 I -0.0865 J 0.0470
G02 X 35.7100 Y 9.1552 Z -1.0000 I 0.4069 J 0.0000
G01 X 35.7142 Y 9.1589 Z -1.0000
G01 X 35.7186 Y 9.1554 Z -1.0000
G02 X 35.7220 Y 9.1277 Z -1.0000 I -0.1108 J -0.0277
G01 X 35.7316 Y 9.1062 Z -1.0000
G01 X 35.7570 Y 9.0966 Z -1.0000
G01 X 35.7824 Y 9.1062 Z -1.0000
G01 X 35.7920 Y 9.1277 Z -1.0000
G03 X 35.7873 Y 9.1541 Z -1.0000 I -0.0753 J 0.0000
G01 X 35.7804 Y 9.1589 Z -1.0000
G01 X 35.7737 Y 9.1639 Z -1.0000
G02 X 35.7687 Y 9.2017 Z -1.0000 I 0.1387 J 0.0378
G03 X 35.7582 Y 9.2340 Z -1.0000 I -0.0549 J 0.0000
G01 X 35.7375 Y 9.2445 Z -1.0000
G03 X 35.7112 Y 9.2397 Z -1.0000 I 0.0000 J -0.0753
G01 X 35.7064 Y 9.2328 Z -1.0000
G01 X 35.7016 Y 9.2259 Z -1.0000
G02 X 35.6753 Y 9.2211 Z -1.0000 I -0.0264 J 0.0700
G01 X 35.6441 Y 9.2244 Z -1.0000
G01 X 35.6452 Y 9.2273 Z -1.0000
G02 X 35.6753 Y 9.2583 Z -1.0000 I 0.6154 J -0.5662
G03 X 35.6970 Y 9.2927 Z -1.0000 I -0.0622 J 0.0635
G03 X 35.7064 Y 9.3484 Z -1.0000 I -0.1611 J 0.0557
G03 X 35.6946 Y 9.3962 Z -1.0000 I -0.1033 J -0.0000
G01 X 35.6753 Y 9.4080 Z -1.0000
G01 X 35.6526 Y 9.4165 Z -1.0000
G01 X 35.6441 Y 9.4352 Z -1.0000
G01 X 35.6356 Y 9.4540 Z -1.0000
G01 X 35.6130 Y 9.4625 Z -1.0000
G01 X 35.5952 Y 9.4759 Z -1.0000
G02 X 35.5818 Y 9.5715 Z -1.0000 I 0.3346 J 0.0956
G02 X 35.5878 Y 9.6780 Z -1.0000 I 0.9525 J 0.0000
G01 X 35.5957 Y 9.6943 Z -1.0000
G03 X 35.6198 Y 9.7555 Z -1.0000 I -0.0584 J 0.0584
G01 X 35.5928 Y 9.7817 Z -1.0000
G01 X 35.5851 Y 9.7849 Z -1.0000
G01 X 35.5819 Y 9.7930 Z -1.0000
G02 X 35.5958 Y 9.8300 Z -1.0000 I 0.0560 J -0.0000
G01 X 35.6268 Y 9.8440 Z -1.0000
G01 X 35.6309 Y 9.8471 Z -1.0000
G01 X 35.6308 Y 9.8595 Z -1.0000
G01 X 35.6116 Y 9.8764 Z -1.0000
G01 X 35.5974 Y 9.8639 Z -1.0000
G01 X 35.5949 Y 9.8541 Z -1.0000
G01 X 35.5884 Y 9.8472 Z -1.0000
G01 X 35.5844 Y 9.8491 Z -1.0000
G02 X 35.5848 Y 9.8753 Z -1.0000 I 0.0913 J 0.0118
G01 X 35.5772 Y 9.8835 Z -1.0000
G01 X 35.5538 Y 9.8726 Z -1.0000
G02 X 35.5144 Y 9.8439 Z -1.0000 I -0.1106 J 0.1106
G02 X 35.4854 Y 9.8376 Z -1.0000 I -0.0266 J 0.0520
G01 X 35.4864 Y 9.8419 Z -1.0000
G01 X 35.5103 Y 9.8532 Z -1.0000
G01 X 35.5195 Y 9.8756 Z -1.0000
G01 X 35.5104 Y 9.8972 Z -1.0000
G01 X 35.4883 Y 9.9063 Z -1.0000
G01 X 35.4663 Y 9.9154 Z -1.0000
G01 X 35.4572 Y 9.9374 Z -1.0000
G01 X 35.4648 Y 9.9609 Z -1.0000
G01 X 35.4797 Y 9.9685 Z -1.0000
G01 X 35.4983 Y 9.9738 Z -1.0000
G01 X 35.5079 Y 9.9861 Z -1.0000
G01 X 35.5128 Y 9.9896 Z -1.0000
G01 X 35.5171 Y 9.9861 Z -1.0000
G01 X 35.5265 Y 9.9825 Z -1.0000
G01 X 35.5350 Y 9.9997 Z -1.0000
G01 X 35.5260 Y 10.0218 Z -1.0000
G01 X 35.5048 Y 10.0308 Z -1.0000
G03 X 35.4788 Y 10.0249 Z -1.0000 I 0.0000 J -0.0598
G01 X 35.4685 Y 10.0133 Z -1.0000
G01 X 35.4593 Y 10.0250 Z -1.0000
G01 X 35.4485 Y 10.0456 Z -1.0000
G01 X 35.4255 Y 10.0542 Z -1.0000
G02 X 35.3983 Y 10.0576 Z -1.0000 I -0.0000 J 0.1108
G01 X 35.3949 Y 10.0620 Z -1.0000
G01 X 35.3983 Y 10.0663 Z -1.0000
G02 X 35.4269 Y 10.0698 Z -1.0000 I 0.0286 J -0.1178
G03 X 35.4512 Y 10.0757 Z -1.0000 I 0.0000 J 0.0522
G01 X 35.4551 Y 10.0846 Z -1.0000
G01 X 35.4586 Y 10.0952 Z -1.0000
G02 X 35.4853 Y 10.1090 Z -1.0000 I 0.0469 J -0.0582
G03 X 35.5165 Y 10.1207 Z -1.0000 I -0.0537 J 0.1900
G01 X 35.5194 Y 10.1253 Z -1.0000
G01 X 35.5224 Y 10.1290 Z -1.0000
G02 X 35.5506 Y 10.1321 Z -1.0000 I 0.0281 J -0.1277
G03 X 35.5769 Y 10.1368 Z -1.0000 I -0.0000 J 0.0753
G01 X 35.5817 Y 10.1438 Z -1.0000
G01 X 35.5769 Y 10.1506 Z -1.0000
G03 X 35.5506 Y 10.1554 Z -1.0000 I -0.0264 J -0.0702
G03 X 35.5242 Y 10.1507 Z -1.0000 I -0.0000 J -0.0753
G01 X 35.5194 Y 10.1438 Z -1.0000
G01 X 35.5134 Y 10.1372 Z -1.0000
G02 X 35.4814 Y 10.1406 Z -1.0000 I -0.0072 J 0.0858
G01 X 35.4625 Y 10.1553 Z -1.0000
G01 X 35.4560 Y 10.1834 Z -1.0000
G01 X 35.4673 Y 10.2085 Z -1.0000
G01 X 35.4891 Y 10.2178 Z -1.0000
G03 X 35.5147 Y 10.2225 Z -1.0000 I -0.0000 J 0.0713
G01 X 35.5194 Y 10.2294 Z -1.0000
G01 X 35.5147 Y 10.2363 Z -1.0000
