%
(Header)
(Generated by gcodetools from Inkscape.)
(Using default header. To add your own header create file "header" in the output dir.)
M3
(Header end.)
G21 (All units in mm)

(Start cutting path id: path3879)
(Change tool to Default tool)

G00 Z5.000000
G00 X29.277734 Y0.031700

G01 Z-1.000000 F100.0(Penetrate)
G02 X29.260545 Y0.049886 Z-1.000000 I0.038572 J0.053675 F3500.000000
G02 X29.231334 Y0.104580 Z-1.000000 I0.343317 J0.218503
G03 X29.201707 Y0.148734 Z-1.000000 I-0.138440 J-0.060875
G02 X29.154754 Y0.180300 Z-1.000000 I0.044613 J0.048236
G03 X29.136554 Y0.214861 Z-1.000000 I-0.104705 J-0.033065
G03 X29.057056 Y0.348620 Z-1.000000 I-0.139097 J-0.000000
G03 X28.988388 Y0.348240 Z-1.000000 I-0.034125 J-0.037999
G02 X28.987510 Y0.391560 Z-1.000000 I0.164104 J0.002962
G03 X28.982965 Y0.433854 Z-1.000000 I-0.061591 J0.014773
G03 X28.929570 Y0.405520 Z-1.000000 I0.102481 J0.008634
G02 X28.946600 Y0.372080 Z-1.000000 I-0.053199 J-0.048150
G03 X28.900770 Y0.305850 Z-1.000000 I0.094672 J0.007290
G02 X28.911092 Y0.265482 Z-1.000000 I-0.059027 J-0.036597
G02 X28.798575 Y0.181430 Z-1.000000 I-0.039558 J0.103064
G02 X28.746967 Y0.255150 Z-1.000000 I0.049785 J0.089776
G03 X28.692067 Y0.324960 Z-1.000000 I-0.465088 J-0.365318
G02 X28.642760 Y0.379123 Z-1.000000 I0.521744 J0.524492
G02 X28.548381 Y0.499396 Z-1.000000 I2.496950 J2.056539
G03 X28.442587 Y0.635391 Z-1.000000 I-3.546911 J-2.650084
G03 X28.262564 Y0.852411 Z-1.000000 I-9.214529 J-7.460488
G03 X27.961009 Y1.181583 Z-1.000000 I-4.565461 J-3.879714
G03 X27.652088 Y1.470870 Z-1.000000 I-3.832786 J-3.783330
G03 X27.528582 Y1.577706 Z-1.000000 I-372.213656 J-430.149337
G03 X27.437891 Y1.656107 Z-1.000000 I-226.462110 J-261.879789
G02 X27.348263 Y1.735673 Z-1.000000 I2.929618 J3.390365
G02 X27.261649 Y1.816821 Z-1.000000 I2.971867 J3.258845
G03 X27.174768 Y1.897670 Z-1.000000 I-2.452289 J-2.548149
G03 X27.064208 Y1.994459 Z-1.000000 I-3.616562 J-4.019574
G02 X26.953428 Y2.091034 Z-1.000000 I4.129785 J4.849071
G02 X26.839300 Y2.195133 Z-1.000000 I4.699957 J5.267347
G03 X26.724267 Y2.295339 Z-1.000000 I-1.538397 J-1.649894
G01 X26.709753 Y2.300496 Z-1.000000
G02 X26.448124 Y2.542333 Z-1.000000 I7.119775 J7.702383
G03 X26.201435 Y2.782483 Z-1.000000 I-17.880278 J-18.120365
G03 X26.057018 Y2.917954 Z-1.000000 I-5.832403 J-6.072837
G02 X25.912149 Y3.052953 Z-1.000000 I7.912716 J8.636453
G02 X25.736716 Y3.221537 Z-1.000000 I12.141898 J12.810760
G03 X25.560825 Y3.387383 Z-1.000000 I-5.164078 J-5.300659
G02 X25.401698 Y3.516191 Z-1.000000 I2.888423 J3.445250
G03 X25.260908 Y3.635812 Z-1.000000 I-1.810127 J-1.987792
G03 X25.202839 Y3.673718 Z-1.000000 I-0.235363 J-0.297128
G02 X25.144249 Y3.710127 Z-1.000000 I0.232876 J0.440093
G02 X25.120509 Y3.733168 Z-1.000000 I0.066965 J0.092747
G03 X25.039969 Y3.799222 Z-1.000000 I-0.182255 J-0.140098
G03 X24.775761 Y3.903271 Z-1.000000 I-0.756038 J-1.532302
G03 X24.698561 Y3.926412 Z-1.000000 I-15.092090 J-50.208401
G03 X24.631688 Y3.946331 Z-1.000000 I-10.391009 J-34.762589
G03 X24.336290 Y3.956880 Z-1.000000 I-0.168105 J-0.566158
G03 X24.217978 Y3.855021 Z-1.000000 I0.035512 J-0.160888
G02 X24.199858 Y3.828773 Z-1.000000 I-0.063021 J0.024128
G02 X24.157798 Y3.801351 Z-1.000000 I-0.111612 J0.125223
G03 X24.081336 Y3.716529 Z-1.000000 I0.059444 J-0.130460
G03 X24.066458 Y3.529349 Z-1.000000 I0.367430 J-0.123386
G03 X24.124723 Y3.359060 Z-1.000000 I0.542751 J0.090592
G03 X24.416475 Y2.879337 Z-1.000000 I4.714355 J2.538537
G02 X24.537848 Y2.618435 Z-1.000000 I-0.730391 J-0.498463
G02 X24.557899 Y2.372268 Z-1.000000 I-0.627502 J-0.175013
G02 X24.490800 Y2.173241 Z-1.000000 I-0.487634 J0.053575
G01 X24.433230 Y2.164708 Z-1.000000
G02 X24.407358 Y2.206147 Z-1.000000 I0.059922 J0.066208
G02 X24.403700 Y2.267002 Z-1.000000 I0.133584 J0.038566
G03 X24.388297 Y2.454817 Z-1.000000 I-0.387012 J0.062800
G03 X24.241016 Y2.750550 Z-1.000000 I-1.141936 J-0.384167
G03 X24.171590 Y2.842387 Z-1.000000 I-0.995894 J-0.680702
G03 X24.092455 Y2.928715 Z-1.000000 I-0.959020 J-0.799683
G03 X23.819032 Y3.149562 Z-1.000000 I-1.210494 J-1.218986
G03 X23.697852 Y3.185523 Z-1.000000 I-0.121180 J-0.186197
G02 X23.637342 Y3.222123 Z-1.000000 I0.137033 J0.226556
G03 X23.531632 Y3.298388 Z-1.000000 I-0.376394 J-0.410320
G03 X22.630092 Y3.782447 Z-1.000000 I-16.679177 J-29.982728
G02 X22.487854 Y3.860227 Z-1.000000 I1.655083 J3.195632
G02 X22.362527 Y3.936696 Z-1.000000 I1.471196 J2.552116
G02 X22.237017 Y4.022794 Z-1.000000 I1.447187 J2.244189
G02 X21.981761 Y4.214173 Z-1.000000 I6.915258 J9.489274
G02 X21.554606 Y4.614266 Z-1.000000 I1.868924 J2.423410
G02 X21.183345 Y5.120222 Z-1.000000 I2.639914 J2.326307
G03 X21.139787 Y5.192252 Z-1.000000 I-218.262328 J-131.942659
G03 X21.058843 Y5.326042 Z-1.000000 I-1392.456699 J-842.254934
G02 X20.980889 Y5.461495 Z-1.000000 I3.036959 J1.837942
G02 X20.873221 Y5.665643 Z-1.000000 I6.809924 J3.722037
G03 X20.668315 Y5.968458 Z-1.000000 I-1.312951 J-0.667699
G03 X20.527414 Y6.060454 Z-1.000000 I-0.234702 J-0.205570
G02 X20.391269 Y6.136608 Z-1.000000 I0.115401 J0.366085
G02 X20.184806 Y6.357705 Z-1.000000 I0.945893 J1.090232
G02 X20.102194 Y6.504980 Z-1.000000 I0.500840 J0.377750
G02 X19.995273 Y6.837509 Z-1.000000 I2.496555 J0.986189
G02 X19.939415 Y7.147114 Z-1.000000 I2.262214 J0.567986
G02 X19.929893 Y7.424094 Z-1.000000 I1.798669 J0.200486
G02 X20.034744 Y8.007138 Z-1.000000 I2.188030 J-0.092531
G02 X20.358168 Y8.744720 Z-1.000000 I3.850509 J-1.248719
G03 X20.542786 Y9.124410 Z-1.000000 I-3.051398 J1.718420
G03 X20.697030 Y9.563827 Z-1.000000 I-3.937321 J1.628858
G01 X20.747280 Y9.736683 Z-1.000000
G02 X20.574576 Y9.895008 Z-1.000000 I0.316581 J0.452004
G02 X20.419020 Y10.162796 Z-1.000000 I1.270739 J0.917239
G03 X20.372015 Y10.252542 Z-1.000000 I-0.837084 J-0.381240
G03 X20.314725 Y10.337742 Z-1.000000 I-0.810763 J-0.483316
G02 X20.256424 Y10.422117 Z-1.000000 I0.979130 J0.738889
G02 X20.240045 Y10.456088 Z-1.000000 I0.140722 J0.088781
G03 X20.223003 Y10.485791 Z-1.000000 I-0.087564 J-0.030499
G03 X20.185266 Y10.547989 Z-1.000000 I-0.056316 J-0.000000
G02 X20.110975 Y10.626488 Z-1.000000 I0.484178 J0.432065
G03 X20.060827 Y10.689641 Z-1.000000 I-0.454936 J-0.309768
G02 X20.004165 Y10.720218 Z-1.000000 I0.119587 J0.190357
G03 X19.961644 Y10.752261 Z-1.000000 I-0.135273 J-0.135273
G03 X19.933005 Y10.759668 Z-1.000000 I-0.028639 J-0.051662
G02 X19.757918 Y10.787883 Z-1.000000 I-0.000000 J0.557352
G02 X19.271399 Y10.978591 Z-1.000000 I1.519977 J4.593586
G03 X19.163926 Y11.023838 Z-1.000000 I-0.830950 J-1.823431
G03 X19.145767 Y11.027231 Z-1.000000 I-0.018159 J-0.046904
G02 X19.071347 Y11.078681 Z-1.000000 I0.294851 J0.426534
G03 X19.013716 Y11.124744 Z-1.000000 I-0.343531 J-0.370722
G02 X18.996933 Y11.191071 Z-1.000000 I0.105928 J-0.001086
G02 X19.058127 Y11.246336 Z-1.000000 I0.107508 J-0.057529
G02 X19.199403 Y11.274211 Z-1.000000 I0.141276 J-0.344071
G03 X19.369305 Y11.318185 Z-1.000000 I-0.000000 J0.350215
G03 X19.576447 Y11.483392 Z-1.000000 I-0.387267 J0.698030
G03 X19.633177 Y11.580858 Z-1.000000 I-0.207567 J0.186056
G03 X19.655987 Y11.720682 Z-1.000000 I-0.417145 J0.139824
G01 X19.670804 Y11.750401 Z-1.000000
G03 X19.749261 Y11.743393 Z-1.000000 I0.112405 J0.336819
G03 X19.809774 Y11.735342 Z-1.000000 I0.106017 J0.565393
G02 X19.864474 Y11.722215 Z-1.000000 I-0.014535 J-0.181091
G03 X19.932544 Y11.665772 Z-1.000000 I0.097695 J0.127885
G02 X19.963324 Y11.538466 Z-1.000000 I-0.256862 J-0.062103
G03 X19.974203 Y11.304063 Z-1.000000 I0.640214 J-0.087742
G03 X20.044364 Y11.190985 Z-1.000000 I0.202115 J0.047101
G03 X20.119968 Y11.135186 Z-1.000000 I0.557753 J0.676604
G02 X20.191118 Y11.099083 Z-1.000000 I-0.000000 J-0.063034
G02 X20.243986 Y10.948004 Z-1.000000 I-0.355354 J-0.209141
G03 X20.302260 Y10.769992 Z-1.000000 I0.532182 J0.075671
G03 X20.490900 Y10.486725 Z-1.000000 I1.564880 J0.837677
G02 X20.516503 Y10.449074 Z-1.000000 I-0.204779 J-0.166781
G03 X20.578190 Y10.357085 Z-1.000000 I0.552036 J0.413942
G02 X20.730144 Y10.133308 Z-1.000000 I-0.593354 J-0.566392
G02 X20.769215 Y9.941539 Z-1.000000 I-0.390164 J-0.179357
G03 X20.775387 Y9.902517 Z-1.000000 I0.106889 J-0.003093
G03 X20.902027 Y10.190382 Z-1.000000 I-3.246528 J1.279261
G03 X20.934968 Y10.372923 Z-1.000000 I-0.800945 J0.238780
G03 X20.923537 Y10.509402 Z-1.000000 I-0.454490 J0.030652
G03 X20.743759 Y11.025405 Z-1.000000 I-2.641023 J-0.630824
G03 X20.480260 Y11.460733 Z-1.000000 I-2.134500 J-0.994579
G03 X20.252961 Y11.678888 Z-1.000000 I-0.819257 J-0.626106
G03 X20.100475 Y11.727020 Z-1.000000 I-0.152486 J-0.217478
G02 X20.075694 Y11.733451 Z-1.000000 I0.000000 J0.050959
G02 X20.048805 Y11.755770 Z-1.000000 I0.046203 J0.083021
G03 X20.021559 Y11.773982 Z-1.000000 I-0.044264 J-0.036732
G03 X19.987545 Y11.774740 Z-1.000000 I-0.018334 J-0.059194
G02 X19.895995 Y11.868510 Z-1.000000 I0.260411 J0.254222
G03 X19.940854 Y12.034620 Z-1.000000 I-0.053403 J0.110204
G03 X19.969675 Y12.093961 Z-1.000000 I-0.131768 J0.100668
G03 X19.969119 Y12.160168 Z-1.000000 I-0.124556 J0.032060
G03 X19.914265 Y12.295343 Z-1.000000 I-0.603539 J-0.166199
G02 X19.844506 Y12.429061 Z-1.000000 I3.047057 J1.674651
G02 X19.987029 Y12.305704 Z-1.000000 I-2.649579 J-2.813288
G03 X20.132839 Y12.179759 Z-1.000000 I0.739133 J0.708336
G03 X20.208945 Y12.240802 Z-1.000000 I-0.309473 J0.304168
G03 X20.519320 Y12.704665 Z-1.000000 I-19.350915 J13.283653
G02 X20.642098 Y12.888387 Z-1.000000 I8.178602 J-5.332736
G02 X20.667738 Y12.921401 Z-1.000000 I0.288111 J-0.197293
G03 X20.692648 Y12.954735 Z-1.000000 I-0.199335 J0.174936
G03 X20.726218 Y13.014021 Z-1.000000 I-0.600160 J0.378979
G02 X20.758617 Y13.074018 Z-1.000000 I1.089821 J-0.549773
G02 X20.767378 Y13.085431 Z-1.000000 I0.047491 J-0.027386
G03 X20.856005 Y13.227872 Z-1.000000 I-0.259420 J0.260204
G03 X20.856648 Y13.349245 Z-1.000000 I-0.182215 J0.061653
G03 X20.796012 Y13.474294 Z-1.000000 I-0.488273 J-0.159537
G03 X20.641511 Y13.672526 Z-1.000000 I-1.398688 J-0.930804
G03 X20.416780 Y13.893942 Z-1.000000 I-2.090166 J-1.896706
G01 X20.383262 Y13.899966 Z-1.000000
G02 X20.324302 Y13.958526 Z-1.000000 I0.136262 J0.137103
G03 X20.286192 Y14.023177 Z-1.000000 I-0.378691 J-0.179670
G03 X20.240552 Y14.075267 Z-1.000000 I-0.289902 J-0.207966
G03 X20.088530 Y13.999971 Z-1.000000 I1.098813 J-0.924247
G03 X19.972588 Y13.841818 Z-1.000000 I6.973015 J-5.233468
G02 X19.855363 Y13.688194 Z-1.000000 I-2.579370 J1.846691
G03 X19.800087 Y13.630888 Z-1.000000 I0.209134 J-0.174252
G02 X19.771258 Y13.588249 Z-1.000000 I-0.220697 J0.118152
G02 X19.789847 Y13.648648 Z-1.000000 I0.300854 J-0.127840
G03 X19.812517 Y13.702464 Z-1.000000 I-0.135425 J0.088730
G03 X19.810687 Y13.743048 Z-1.000000 I-0.076462 J0.016886
G03 X19.965900 Y13.870525 Z-1.000000 I0.000000 J0.151385
G03 X19.980597 Y14.096256 Z-1.000000 I-0.269844 J0.130913
G03 X19.927249 Y14.169351 Z-1.000000 I-0.141223 J-0.047054
G03 X19.843049 Y14.196857 Z-1.000000 I-0.084200 J-0.115125
G03 X19.710257 Y14.122020 Z-1.000000 I0.000000 J-0.155233
G03 X19.635420 Y13.853909 Z-1.000000 I0.442849 J-0.268111
G02 X19.596980 Y13.796839 Z-1.000000 I-0.325172 J0.218919
G03 X19.542755 Y13.726050 Z-1.000000 I0.405096 J-0.366470
G03 X19.254650 Y13.265059 Z-1.000000 I17.079852 J-10.994900
G02 X19.233289 Y13.231631 Z-1.000000 I-0.727272 J0.441196
G02 X18.944139 Y12.803242 Z-1.000000 I-119.262900 J80.187215
G03 X18.329891 Y11.871454 Z-1.000000 I36.369401 J-24.643581
G03 X18.054910 Y11.416297 Z-1.000000 I8.396416 J-5.383300
G03 X17.999853 Y11.302503 Z-1.000000 I0.830842 J-0.472200
G01 X18.002870 Y11.287660 Z-1.000000
G02 X17.870633 Y11.078749 Z-1.000000 I-1.990390 J0.548796
G02 X17.837510 Y10.965498 Z-1.000000 I-29.504723 J8.567953
G03 X17.892189 Y10.976395 Z-1.000000 I-0.246268 J0.196434
G02 X17.917640 Y11.040657 Z-1.000000 I0.083488 J-0.047679
G03 X17.942563 Y11.064155 Z-1.000000 I-0.081337 J0.111238
G02 X17.946660 Y11.094137 Z-1.000000 I0.049772 J-0.011905
G03 X18.058530 Y11.240684 Z-1.000000 I-2.007800 J1.648684
G03 X18.143566 Y11.371993 Z-1.000000 I-1.525967 J1.081400
G02 X18.186133 Y11.433410 Z-1.000000 I0.440302 J-0.259705
G02 X17.820770 Y10.800843 Z-1.000000 I-23.276926 J13.746926
G03 X17.531773 Y10.319841 Z-1.000000 I12.094906 J-7.594204
G03 X17.052335 Y9.463018 Z-1.000000 I37.914251 J-21.777604
G02 X16.767961 Y8.949484 Z-1.000000 I-37.881619 J20.641799
G02 X16.531186 Y8.536832 Z-1.000000 I-24.697008 J13.896588
G02 X15.944679 Y7.629302 Z-1.000000 I-10.499329 J6.142094
G02 X15.601731 Y7.229880 Z-1.000000 I-2.352982 J1.673352
G03 X15.503464 Y7.114903 Z-1.000000 I0.563336 J-0.580942
G01 X15.509701 Y7.099217 Z-1.000000
G03 X15.540814 Y7.101888 Z-1.000000 I0.010978 J0.054666
G02 X15.574300 Y7.081523 Z-1.000000 I-0.077919 J-0.000704
G03 X15.522468 Y6.995529 Z-1.000000 I0.041869 J-0.067763
G03 X15.565331 Y6.846452 Z-1.000000 I0.305850 J0.007239
G03 X15.807334 Y6.538964 Z-1.000000 I1.298475 J0.772964
G03 X16.043861 Y6.378548 Z-1.000000 I0.563529 J0.576319
G03 X16.388036 Y6.316752 Z-1.000000 I0.298297 J0.672029
G03 X16.792068 Y6.425318 Z-1.000000 I-0.065676 J1.050508
G03 X17.266398 Y6.674036 Z-1.000000 I-5.870584 J11.772459
G03 X17.341849 Y6.728025 Z-1.000000 I-0.190390 J0.345790
G02 X17.312379 Y6.603958 Z-1.000000 I-0.215447 J0.051180
G02 X17.236597 Y6.531070 Z-1.000000 I-2.625634 J2.654033
G02 X17.097306 Y6.402846 Z-1.000000 I-8.285281 J8.860635
G03 X17.056935 Y6.285790 Z-1.000000 I0.086330 J-0.095264
G03 X17.134706 Y6.185404 Z-1.000000 I0.133259 J0.022921
G02 X17.404109 Y6.054900 Z-1.000000 I-2.174017 J-4.831220
G02 X17.355962 Y6.053990 Z-1.000000 I0.047022 J0.205708
G03 X16.874186 Y6.207060 Z-1.000000 I-0.688232 J-1.331447
G03 X16.534025 Y6.168298 Z-1.000000 I-0.094697 J-0.680919
G02 X16.279191 Y6.115588 Z-1.000000 I-0.289531 J0.757412
G02 X16.049163 Y6.147538 Z-1.000000 I-0.027630 J0.645110
G02 X15.857780 Y6.273314 Z-1.000000 I0.138231 J0.418831
G02 X15.498638 Y6.766744 Z-1.000000 I2.340718 J2.081098
G03 X15.345508 Y7.022771 Z-1.000000 I-17.296077 J-10.170999
G03 X15.323375 Y7.054891 Z-1.000000 I-0.293035 J-0.178236
G02 X15.302801 Y7.087663 Z-1.000000 I0.153901 J0.119459
G02 X15.272255 Y7.157801 Z-1.000000 I0.680316 J0.338012
G03 X15.242249 Y7.228595 Z-1.000000 I-0.888064 J-0.334649
G03 X15.087468 Y7.548857 Z-1.000000 I-18.319465 J-8.656173
G03 X14.644940 Y8.324808 Z-1.000000 I-6.751190 J-3.336071
G03 X14.314979 Y8.734010 Z-1.000000 I-2.184683 J-1.423989
G03 X14.055745 Y8.863510 Z-1.000000 I-0.319924 J-0.316210
G03 X13.921856 Y8.787540 Z-1.000000 I-0.017127 J-0.125783
G03 X13.860702 Y8.504482 Z-1.000000 I0.703536 J-0.300132
G03 X13.902456 Y7.918347 Z-1.000000 I3.148136 J-0.070294
G03 X13.957186 Y7.680114 Z-1.000000 I1.968693 J0.326872
G03 X14.069275 Y7.353327 Z-1.000000 I3.824533 J1.129208
G03 X14.213849 Y7.010119 Z-1.000000 I6.956792 J2.728450
G03 X14.327019 Y6.781714 Z-1.000000 I3.191050 J1.438858
G02 X14.198805 Y6.887808 Z-1.000000 I0.484570 J0.585479
G02 X13.908560 Y7.402876 Z-1.000000 I1.558552 J1.217567
G02 X13.685630 Y8.238350 Z-1.000000 I3.954905 J1.502770
G02 X13.652659 Y8.686161 Z-1.000000 I2.615158 J0.417668
G02 X13.696010 Y9.149442 Z-1.000000 I2.842974 J-0.032362
G02 X13.736617 Y9.338542 Z-1.000000 I2.622801 J-0.464312
G02 X13.823610 Y9.653699 Z-1.000000 I7.378416 J-1.867073
G03 X13.916500 Y9.967509 Z-1.000000 I-52.009656 J15.565829
G03 X14.047942 Y10.420034 Z-1.000000 I-108.247746 J31.687449
G02 X14.275597 Y11.156906 Z-1.000000 I19.455405 J-5.607095
G02 X14.421101 Y11.551030 Z-1.000000 I5.705576 J-1.882487
G02 X14.745608 Y12.255536 Z-1.000000 I8.345951 J-3.417289
G02 X14.849826 Y12.385375 Z-1.000000 I0.369586 J-0.189911
G03 X14.874575 Y12.414234 Z-1.000000 I-0.072147 J0.086911
G01 X14.880976 Y12.437375 Z-1.000000
G02 X14.950783 Y12.369334 Z-1.000000 I-0.107327 J-0.026931
G02 X14.794848 Y12.025419 Z-1.000000 I-3.251710 J1.267052
G03 X14.534969 Y11.515124 Z-1.000000 I28.914324 J-15.046610
G03 X14.492321 Y11.418252 Z-1.000000 I0.996734 J-0.496632
G03 X14.395402 Y11.147330 Z-1.000000 I5.689896 J-2.188282
G03 X14.325251 Y10.913995 Z-1.000000 I4.145565 J-1.373560
G03 X14.139446 Y10.204843 Z-1.000000 I44.776787 J-12.110875
G03 X14.089985 Y9.986223 Z-1.000000 I4.202908 J-1.065784
G02 X14.081657 Y9.946748 Z-1.000000 I-1.532501 J0.302699
G02 X14.051135 Y9.812862 Z-1.000000 I-20.287346 J4.554467
G03 X13.992565 Y9.386135 Z-1.000000 I2.307087 J-0.534037
G03 X14.023785 Y9.209803 Z-1.000000 I0.408835 J-0.018545
G03 X14.089745 Y9.156765 Z-1.000000 I0.081784 J0.034175
G03 X14.201507 Y9.177563 Z-1.000000 I0.028543 J0.157308
G03 X14.965857 Y9.824984 Z-1.000000 I-1.685296 J2.764581
G03 X16.493840 Y11.829890 Z-1.000000 I-15.513556 J13.407931
G02 X16.696117 Y12.126510 Z-1.000000 I16.970629 J-11.355661
G02 X16.822794 Y12.303274 Z-1.000000 I6.150966 J-4.274289
G03 X16.950485 Y12.479338 Z-1.000000 I-9.897024 J7.312195
G03 X17.093839 Y12.684039 Z-1.000000 I-13.212755 J9.405550
G02 X17.235919 Y12.889654 Z-1.000000 I70.961520 J-48.882778
G02 X17.343496 Y13.044223 Z-1.000000 I40.578027 J-28.126601
G03 X17.926366 Y13.904194 Z-1.000000 I-29.833849 J20.848259
G03 X18.269983 Y14.454085 Z-1.000000 I-11.848562 J7.786259
G03 X18.545637 Y14.960603 Z-1.000000 I-6.657112 J3.951157
G03 X18.638133 Y15.195034 Z-1.000000 I-1.324062 J0.657878
G01 X18.660499 Y15.197804 Z-1.000000
G02 X18.669653 Y15.142084 Z-1.000000 I-0.066384 J-0.039517
G03 X18.646117 Y14.917821 Z-1.000000 I1.035220 J-0.222013
G03 X18.670430 Y14.775125 Z-1.000000 I0.436346 J0.000927
G03 X18.522553 Y14.734046 Z-1.000000 I-0.051438 J-0.069572
G03 X18.421575 Y14.636245 Z-1.000000 I0.092521 J-0.196556
G02 X18.367883 Y14.538742 Z-1.000000 I-1.573520 J0.802951
G03 X18.343465 Y14.484662 Z-1.000000 I0.076704 J-0.023506
G02 X18.330006 Y14.403275 Z-1.000000 I-0.187438 J-0.010810
G03 X18.266356 Y14.358588 Z-1.000000 I0.019973 J-0.076646
G03 X18.223455 Y14.307348 Z-1.000000 I0.166168 J-0.182704
G02 X18.185838 Y14.248577 Z-1.000000 I-3.681737 J2.315109
G02 X17.950343 Y13.888089 Z-1.000000 I-139.774730 J91.053099
G03 X17.714671 Y13.527717 Z-1.000000 I224.388983 J-147.000666
G03 X17.574124 Y13.311795 Z-1.000000 I80.540492 J-52.578738
G02 X17.433012 Y13.096261 Z-1.000000 I-26.942708 J17.485639
G02 X17.390617 Y13.033939 Z-1.000000 I-2.301032 J1.519721
G03 X17.115316 Y12.618582 Z-1.000000 I7.943981 J-5.564227
G03 X17.071512 Y12.524536 Z-1.000000 I0.356172 J-0.223120
G02 X17.054856 Y12.495419 Z-1.000000 I-0.077609 J0.025073
G01 X17.039482 Y12.488516 Z-1.000000
G03 X16.988071 Y12.410430 Z-1.000000 I0.035137 J-0.062982
G03 X16.924432 Y12.303014 Z-1.000000 I0.842477 J-0.571691
G02 X16.864219 Y12.191446 Z-1.000000 I-2.638239 J1.351822
G02 X16.826642 Y12.130723 Z-1.000000 I-0.820324 J0.465648
G03 X16.800452 Y12.067549 Z-1.000000 I0.143433 J-0.096479
G03 X16.792292 Y11.955777 Z-1.000000 I0.455520 J-0.089440
G03 X16.808875 Y11.776690 Z-1.000000 I2.036079 J0.098220
G03 X16.824342 Y11.722510 Z-1.000000 I0.197735 J0.027152
G02 X16.833970 Y11.686889 Z-1.000000 I-0.107824 J-0.048255
G02 X16.831042 Y11.660770 Z-1.000000 I-0.060202 J-0.006476
G03 X16.827822 Y11.634204 Z-1.000000 I0.060404 J-0.020800
G03 X16.838742 Y11.575130 Z-1.000000 I0.324142 J0.029374
G02 X16.845448 Y11.516969 Z-1.000000 I-0.175164 J-0.049664
G02 X16.834242 Y11.476150 Z-1.000000 I-0.096344 J0.004501
G02 X16.877743 Y11.439299 Z-1.000000 I0.009071 J-0.050254
G02 X16.777876 Y11.362901 Z-1.000000 I0.093620 J0.174885
G02 X16.622690 Y11.511663 Z-1.000000 I2.615901 J2.884186
G03 X16.469502 Y11.661413 Z-1.000000 I-4.286470 J-4.231658
G03 X16.257990 Y11.402815 Z-1.000000 I9.364781 J-7.202767
G02 X16.016323 Y11.075110 Z-1.000000 I-23.320102 J16.944530
G02 X15.876746 Y10.893412 Z-1.000000 I-7.308597 J5.469860
G03 X15.845468 Y10.851401 Z-1.000000 I0.743397 J-0.586114
G03 X15.790006 Y10.769920 Z-1.000000 I2.749227 J-1.930958
G02 X15.733163 Y10.689712 Z-1.000000 I-1.223556 J0.806877
G02 X15.703926 Y10.656720 Z-1.000000 I-0.233985 J0.177905
G03 X15.674510 Y10.623814 Z-1.000000 I0.217475 J-0.224007
G03 X15.592404 Y10.512646 Z-1.000000 I2.423224 J-1.875651
G02 X15.509741 Y10.403199 Z-1.000000 I-1.685911 J1.187394
G01 X15.495274 Y10.392585 Z-1.000000
G02 X15.400694 Y10.250426 Z-1.000000 I-0.747424 J0.522201
G03 X15.324163 Y10.164245 Z-1.000000 I5.735418 J-5.170280
G03 X15.284378 Y10.117467 Z-1.000000 I1.661352 J-1.453296
G02 X15.244898 Y10.070435 Z-1.000000 I-3.158589 J2.611327
G02 X15.138777 Y9.946640 Z-1.000000 I-21.693813 J18.489232
G03 X15.034886 Y9.821084 Z-1.000000 I3.044254 J-2.624728
G03 X14.910346 Y9.658901 Z-1.000000 I4.965814 J-3.942138
G02 X14.761053 Y9.462547 Z-1.000000 I-8.724034 J6.478184
G02 X14.635068 Y9.305253 Z-1.000000 I-5.723609 J4.455230
G03 X14.473426 Y9.011410 Z-1.000000 I0.698668 J-0.575715
G03 X14.487808 Y8.855798 Z-1.000000 I0.186807 J-0.061205
G02 X14.497761 Y8.831419 Z-1.000000 I-0.102061 J-0.055890
G02 X14.517008 Y8.751992 Z-1.000000 I-1.078390 J-0.303363
G03 X14.528005 Y8.722424 Z-1.000000 I0.101464 J0.020908
G03 X14.555958 Y8.682302 Z-1.000000 I0.214787 J0.119843
G02 X14.796291 Y8.334658 Z-1.000000 I-1.558308 J-1.334185
G02 X14.839833 Y8.164732 Z-1.000000 I-0.309806 J-0.169926
G01 X14.843853 Y8.151767 Z-1.000000
G02 X14.950383 Y7.981067 Z-1.000000 I-2.622677 J-1.547260
G03 X15.077727 Y7.742446 Z-1.000000 I8.767190 J4.525452
G03 X15.166019 Y7.590010 Z-1.000000 I3.661183 J2.018803
G02 X15.207746 Y7.516912 Z-1.000000 I-1.311907 J-0.797343
G02 X15.232049 Y7.466610 Z-1.000000 I-0.597782 J-0.319836
G03 X15.323232 Y7.320808 Z-1.000000 I0.527768 J0.228648
G03 X15.396291 Y7.275124 Z-1.000000 I0.109584 J0.093988
G03 X15.603089 Y7.423337 Z-1.000000 I-0.832846 J1.162097
G03 X15.758010 Y7.586387 Z-1.000000 I-2.212145 J2.256977
G02 X15.817473 Y7.655499 Z-1.000000 I0.109945 J-0.117905
G03 X15.862467 Y7.683103 Z-1.000000 I-0.089248 J0.195945
G02 X15.960903 Y7.808741 Z-1.000000 I1.190469 J-0.976174
G03 X16.046664 Y7.907075 Z-1.000000 I-0.867339 J0.843006
G03 X16.065199 Y7.942214 Z-1.000000 I-0.088474 J0.069126
G02 X16.081843 Y7.975182 Z-1.000000 I0.110818 J-0.035263
G03 X16.351727 Y8.361829 Z-1.000000 I-4.123437 J2.797780
G02 X16.386731 Y8.423333 Z-1.000000 I4.496684 J-2.518461
G02 X16.435017 Y8.505903 Z-1.000000 I8.463979 J-4.894293
G03 X16.483430 Y8.588401 Z-1.000000 I-11.520669 J6.816226
G03 X16.512887 Y8.639685 Z-1.000000 I-4.454566 J2.592759
G02 X16.542094 Y8.691115 Z-1.000000 I30.724303 J-17.414058
G02 X16.618288 Y8.824923 Z-1.000000 I205.476633 J-116.916031
G03 X16.692857 Y8.959596 Z-1.000000 I-5.447511 J3.104296
G03 X16.745567 Y9.061615 Z-1.000000 I-3.062059 J1.646692
G02 X16.797528 Y9.164037 Z-1.000000 I5.653931 J-2.803990
G02 X16.825647 Y9.215979 Z-1.000000 I1.490609 J-0.773357
G03 X16.853064 Y9.268248 Z-1.000000 I-0.837899 J0.472836
G03 X16.900667 Y9.370344 Z-1.000000 I-3.143304 J1.527731
G02 X16.950174 Y9.470307 Z-1.000000 I1.285038 J-0.574180
G01 X16.962897 Y9.484384 Z-1.000000
G03 X17.010667 Y9.584849 Z-1.000000 I-0.803508 J0.382394
G02 X17.055413 Y9.694252 Z-1.000000 I1.136433 J-0.400952
G02 X17.362620 Y10.337694 Z-1.000000 I39.702360 J-18.560554
G03 X17.595949 Y10.827410 Z-1.000000 I-27.297144 J13.306377
G03 X17.606955 Y10.862533 Z-1.000000 I-0.126729 J0.058998
G02 X17.624595 Y10.897783 Z-1.000000 I0.254708 J-0.127492
G03 X17.639458 Y10.923299 Z-1.000000 I-0.334120 J0.211715
G03 X17.740027 Y11.114226 Z-1.000000 I-17.910165 J9.555934
G02 X17.842463 Y11.304064 Z-1.000000 I6.237227 J-3.243040
G02 X17.903945 Y11.407174 Z-1.000000 I1.904346 J-1.065625
G03 X17.962341 Y11.510360 Z-1.000000 I-0.997271 J0.632498
G03 X17.968285 Y11.535478 Z-1.000000 I-0.050096 J0.025118
G01 X17.975103 Y11.555538 Z-1.000000
G02 X18.014939 Y11.612789 Z-1.000000 I0.057642 J-0.000000
G02 X18.133037 Y11.850647 Z-1.000000 I5.809402 J-2.736144
G03 X18.695274 Y12.956670 Z-1.000000 I-48.882698 J25.544990
G03 X18.709230 Y13.016403 Z-1.000000 I-0.120851 J0.059733
G02 X18.844394 Y13.325844 Z-1.000000 I16.560992 J-7.231849
G03 X18.969712 Y13.623146 Z-1.000000 I-4.776327 J2.188372
G03 X18.981257 Y13.680596 Z-1.000000 I-0.161672 J0.062373
G02 X18.992948 Y13.725355 Z-1.000000 I0.103123 J-0.003030
G01 X19.007587 Y13.730886 Z-1.000000
G03 X19.121518 Y13.988578 Z-1.000000 I-0.539198 J0.238404
G02 X19.130129 Y14.039715 Z-1.000000 I0.168287 J-0.002045
G02 X19.153058 Y14.083308 Z-1.000000 I0.144248 J-0.048044
G03 X19.257696 Y14.299246 Z-1.000000 I-0.491612 J0.371543
G03 X19.242608 Y14.426460 Z-1.000000 I-0.169931 J0.044348
G02 X19.234666 Y14.467919 Z-1.000000 I0.062571 J0.033477
G02 X19.255628 Y14.541384 Z-1.000000 I0.230771 J-0.026123
G03 X19.282188 Y14.617633 Z-1.000000 I-0.338844 J0.160782
G03 X19.310298 Y14.777686 Z-1.000000 I-1.480739 J0.342554
G03 X19.245782 Y15.067730 Z-1.000000 I-0.443299 J0.053592
G03 X18.912235 Y15.415353 Z-1.000000 I-0.995724 J-0.621572
G02 X18.624824 Y15.632676 Z-1.000000 I2.116236 J3.097456
G02 X18.385638 Y15.854828 Z-1.000000 I1.972987 J2.364102
G01 X18.387402 Y15.891934 Z-1.000000
G02 X18.440088 Y15.901298 Z-1.000000 I0.034323 J-0.040217
G03 X18.570446 Y15.891279 Z-1.000000 I0.082728 J0.223330
G03 X18.565154 Y15.972808 Z-1.000000 I-0.051739 J-0.056634
G02 X18.523994 Y16.038308 Z-1.000000 I0.071176 J0.044754
G03 X18.518166 Y16.091583 Z-1.000000 I-0.246426 J-0.000000
G03 X18.503354 Y16.131608 Z-1.000000 I-0.153066 J-0.033893
G03 X18.557383 Y16.165212 Z-1.000000 I0.050638 J0.036459
G03 X18.611054 Y16.133358 Z-1.000000 I0.293579 J0.433505
G02 X18.887815 Y15.957576 Z-1.000000 I-0.834236 J-1.619233
G02 X19.204917 Y15.676294 Z-1.000000 I-1.858030 J-2.414024
G02 X19.373025 Y15.453437 Z-1.000000 I-0.772827 J-0.757800
G02 X19.409016 Y15.317308 Z-1.000000 I-0.239443 J-0.136129
G03 X19.488566 Y15.210288 Z-1.000000 I0.052805 J0.046077
G02 X19.525639 Y15.188742 Z-1.000000 I-0.044158 J-0.118647
G02 X19.672528 Y15.056380 Z-1.000000 I-1.724705 J-2.061682
G03 X19.820238 Y14.948600 Z-1.000000 I0.456740 J0.470843
G03 X19.875780 Y14.947828 Z-1.000000 I0.028518 J0.053397
G03 X19.922010 Y14.989371 Z-1.000000 I-0.052134 J0.104510
G03 X19.964540 Y15.086474 Z-1.000000 I-0.286233 J0.183232
G03 X19.996272 Y15.328474 Z-1.000000 I-0.940712 J0.246430
G03 X19.966240 Y15.449540 Z-1.000000 I-0.254370 J0.001159
G02 X19.954750 Y15.494741 Z-1.000000 I0.085631 J0.045829
G03 X19.978784 Y15.558419 Z-1.000000 I-0.043866 J0.036418
G03 X19.976176 Y15.694005 Z-1.000000 I-0.836465 J0.051725
G03 X19.894079 Y16.200986 Z-1.000000 I-4.242469 J-0.426859
G03 X19.838935 Y16.305419 Z-1.000000 I-0.219965 J-0.049373
G02 X19.825999 Y16.327062 Z-1.000000 I0.043683 J0.040798
G02 X19.820685 Y16.359349 Z-1.000000 I0.095437 J0.032287
G03 X19.816102 Y16.392993 Z-1.000000 I-0.125782 J0.000000
G03 X19.760465 Y16.576300 Z-1.000000 I-3.861136 J-1.071828
G02 X19.704708 Y16.757817 Z-1.000000 I4.385015 J1.446271
G02 X19.903628 Y16.263278 Z-1.000000 I-6.510484 J-2.554679
G02 X19.994635 Y15.904481 Z-1.000000 I-3.524725 J-1.084968
G02 X20.068966 Y15.440023 Z-1.000000 I-5.837922 J-1.172468
G02 X20.079163 Y15.026110 Z-1.000000 I-2.176809 J-0.260710
G02 X20.015926 Y14.682353 Z-1.000000 I-1.559990 J0.109279
G03 X19.988522 Y14.580847 Z-1.000000 I1.665049 J-0.503979
G03 X19.985336 Y14.553682 Z-1.000000 I0.114231 J-0.027165
G03 X20.036865 Y14.448905 Z-1.000000 I0.132289 J-0.000000
G03 X20.224641 Y14.369249 Z-1.000000 I0.246385 J0.319659
G03 X20.269861 Y14.389139 Z-1.000000 I-0.022554 J0.051485
G03 X20.312481 Y14.468528 Z-1.000000 I-0.202700 J0.159955
G03 X20.362171 Y14.670187 Z-1.000000 I-1.304153 J0.428301
G02 X20.373261 Y14.639317 Z-1.000000 I-0.095806 J-0.034374
G02 X20.364877 Y14.534615 Z-1.000000 I-0.480023 J-0.014250
G02 X20.306101 Y14.289424 Z-1.000000 I-2.704531 J0.518679
G03 X20.391091 Y14.176224 Z-1.000000 I0.309590 J0.232491
G03 X20.779346 Y13.942096 Z-1.000000 I1.400063 J1.882747
G03 X21.140171 Y13.818185 Z-1.000000 I0.716417 J1.498866
G03 X21.207388 Y13.836748 Z-1.000000 I0.016006 J0.073022
G03 X21.282536 Y13.952051 Z-1.000000 I-0.199520 J0.212177
G03 X21.291467 Y14.027105 Z-1.000000 I-0.162895 J0.057443
G03 X21.251946 Y14.250489 Z-1.000000 I-1.547623 J-0.158620
G03 X21.130188 Y14.654176 Z-1.000000 I-4.559219 J-1.154921
G03 X21.096752 Y14.692331 Z-1.000000 I-0.064233 J-0.022561
G03 X21.065639 Y14.707474 Z-1.000000 I-0.492893 J-0.973178
G03 X20.911515 Y14.778851 Z-1.000000 I-10.607237 J-22.702032
G02 X20.597835 Y14.991036 Z-1.000000 I0.482799 J1.051690
G02 X20.471052 Y15.196739 Z-1.000000 I0.324260 J0.341777
G01 X20.479155 Y15.223994 Z-1.000000
G02 X20.521972 Y15.239619 Z-1.000000 I0.042817 J-0.050854
G03 X20.581540 Y15.247510 Z-1.000000 I-0.000000 J0.228771
G02 X20.700542 Y15.320604 Z-1.000000 I0.111587 J-0.072701
G02 X20.881503 Y15.282859 Z-1.000000 I0.025951 J-0.328244
G02 X20.918890 Y15.257483 Z-1.000000 I-0.100397 J-0.188148
G02 X20.988652 Y15.192169 Z-1.000000 I-0.617265 J-0.729211
G03 X21.058682 Y15.130754 Z-1.000000 I0.406170 J0.392507
G03 X21.106977 Y15.125147 Z-1.000000 I-0.008338 J0.352670
G03 X21.395191 Y15.154049 Z-1.000000 I-4.241675 J43.749778
G02 X21.683387 Y15.183293 Z-1.000000 I7.272816 J-70.237855
G02 X21.714211 Y15.185759 Z-1.000000 I0.079471 J-0.799497
G03 X21.727699 Y15.232773 Z-1.000000 I-0.002536 J0.063118
G02 X21.780001 Y15.278629 Z-1.000000 I0.077315 J-0.104118
G03 X21.820926 Y15.299196 Z-1.000000 I-0.044177 J0.138905
G03 X21.860601 Y15.336619 Z-1.000000 I-0.120299 J0.167281
G02 X21.903568 Y15.363859 Z-1.000000 I0.062063 J-0.050389
G02 X22.023202 Y15.376619 Z-1.000000 I0.106807 J-0.434185
G02 X22.148713 Y15.369091 Z-1.000000 I-0.057387 J-2.006825
G02 X22.137607 Y15.297349 Z-1.000000 I-0.354866 J0.114235
G03 X22.115302 Y15.239453 Z-1.000000 I0.249053 J-0.129196
G03 X22.166068 Y15.195708 Z-1.000000 I0.047602 J0.029410
G03 X22.589544 Y15.227349 Z-1.000000 I-0.035571 J3.325701
G02 X22.753635 Y15.232947 Z-1.000000 I0.108838 J-0.782594
G01 X22.760203 Y15.215379 Z-1.000000
G02 X22.617845 Y15.196819 Z-1.000000 I-0.242901 J1.858548
G03 X22.177680 Y15.118290 Z-1.000000 I0.116541 J-1.926080
G03 X22.125890 Y15.048594 Z-1.000000 I0.021001 J-0.069696
G02 X22.119011 Y15.018737 Z-1.000000 I-0.068234 J0.000000
G02 X22.084730 Y14.964024 Z-1.000000 I-0.272237 J0.132476
G03 X22.051291 Y14.909016 Z-1.000000 I0.210711 J-0.165757
G03 X22.043570 Y14.873304 Z-1.000000 I0.078729 J-0.035712
G02 X22.035842 Y14.842598 Z-1.000000 I-0.064870 J-0.000000
G03 X22.002100 Y14.798894 Z-1.000000 I0.049954 J-0.028969
G02 X21.997550 Y14.763633 Z-1.000000 I-0.148813 J0.001277
G02 X21.972130 Y14.680548 Z-1.000000 I-0.862412 J0.218429
G03 X21.948697 Y14.597090 Z-1.000000 I0.566833 J-0.204175
G03 X21.941570 Y14.531050 Z-1.000000 I0.345803 J-0.070722
G02 X21.918902 Y14.438801 Z-1.000000 I-0.211079 J0.002957
G02 X21.821644 Y14.293829 Z-1.000000 I-0.634851 J0.320796
G03 X21.763115 Y14.211414 Z-1.000000 I0.396810 J-0.343797
G03 X21.741894 Y14.154901 Z-1.000000 I0.162389 J-0.093217
G02 X21.721720 Y14.103696 Z-1.000000 I-0.152378 J0.030457
G03 X21.688584 Y14.042891 Z-1.000000 I0.081682 J-0.025089
G02 X21.685289 Y13.909511 Z-1.000000 I-0.309236 J-0.059091
G03 X21.594694 Y13.868440 Z-1.000000 I0.078680 J-0.130986
G03 X21.554586 Y13.805848 Z-1.000000 I0.447947 J-0.331184
G03 X21.920098 Y13.643069 Z-1.000000 I0.931827 J2.406216
G02 X22.401626 Y13.527028 Z-1.000000 I-7.906432 J-33.866031
G02 X22.605984 Y13.472607 Z-1.000000 I-1.530266 J-6.157213
G03 X22.747264 Y13.436331 Z-1.000000 I0.779060 J2.740902
G03 X22.861069 Y13.414027 Z-1.000000 I0.403112 J1.755329
G03 X22.966987 Y13.419712 Z-1.000000 I0.039939 J0.245414
G03 X23.034151 Y13.461667 Z-1.000000 I-0.036770 J0.133601
G03 X23.088693 Y13.529503 Z-1.000000 I-0.718135 J0.633243
G02 X23.134431 Y13.569117 Z-1.000000 I0.080116 J-0.122388
G03 X23.166386 Y13.588922 Z-1.000000 I-0.023308 J0.073292
G02 X23.182753 Y13.638189 Z-1.000000 I0.052688 J0.000000
G02 X23.216751 Y13.682317 Z-1.000000 I0.187162 J-0.109036
G03 X23.254341 Y13.724966 Z-1.000000 I-0.319448 J0.319448
G02 X23.348901 Y13.838307 Z-1.000000 I1.564409 J-1.384507
G03 X23.428330 Y13.925135 Z-1.000000 I-0.935814 J0.935814
G03 X23.498961 Y13.976011 Z-1.000000 I-0.048386 J0.120472
G03 X23.518601 Y14.005997 Z-1.000000 I-0.050709 J0.054638
G02 X23.537021 Y14.038781 Z-1.000000 I0.101131 J-0.035255
G02 X23.601881 Y14.107330 Z-1.000000 I0.525687 J-0.432437
G03 X23.892919 Y14.419912 Z-1.000000 I-1.867830 J2.030875
G03 X23.903894 Y14.486780 Z-1.000000 I-0.054345 J0.043254
G02 X23.882477 Y14.557838 Z-1.000000 I0.645412 J0.233283
G02 X23.876924 Y14.597655 Z-1.000000 I0.195504 J0.047562
G03 X23.941396 Y14.572046 Z-1.000000 I0.041736 J0.029233
G03 X24.006686 Y14.653652 Z-1.000000 I-0.052643 J0.061484
G03 X23.935764 Y14.959639 Z-1.000000 I-1.375451 J-0.157592
G02 X23.853427 Y15.195527 Z-1.000000 I20.926040 J7.436592
G02 X23.830837 Y15.265783 Z-1.000000 I1.826684 J0.626103
G03 X23.759143 Y15.398292 Z-1.000000 I-0.356341 J-0.107149
G03 X23.704619 Y15.415687 Z-1.000000 I-0.041068 J-0.034577
G02 X23.717859 Y15.454537 Z-1.000000 I0.066996 J-0.022826
G03 X23.753320 Y15.512234 Z-1.000000 I-0.073124 J0.084688
G03 X23.752529 Y15.594027 Z-1.000000 I-0.158385 J0.039369
G02 X23.734863 Y15.681247 Z-1.000000 I0.679328 J0.182998
G02 X23.771899 Y15.619097 Z-1.000000 I-0.455086 J-0.202259
G03 X23.819274 Y15.567527 Z-1.000000 I0.073216 J0.019714
G03 X23.921677 Y15.564807 Z-1.000000 I0.055289 J0.152517
G02 X24.013046 Y15.585645 Z-1.000000 I0.193324 J-0.636950
G02 X24.043877 Y15.554447 Z-1.000000 I-0.137552 J0.071835
G03 X24.015568 Y15.510237 Z-1.000000 I0.071952 J-0.077242
G02 X24.190833 Y15.119398 Z-1.000000 I-3.536097 J-1.922111
G02 X24.141704 Y15.136583 Z-1.000000 I0.109725 J0.095505
G03 X24.083288 Y15.221689 Z-1.000000 I-0.204444 J-0.077727
G03 X23.976914 Y15.164233 Z-1.000000 I0.202425 J-0.066401
G03 X23.943344 Y15.084623 Z-1.000000 I0.102314 J-0.006938
G03 X23.975889 Y15.050098 Z-1.000000 I0.062442 J0.026259
G02 X24.038772 Y15.071016 Z-1.000000 I0.039792 J-0.039792
G02 X24.256814 Y15.029063 Z-1.000000 I-0.049541 J-0.120649
G03 X24.456497 Y14.964561 Z-1.000000 I0.134748 J0.113386
G03 X24.559719 Y15.029453 Z-1.000000 I-0.051511 J0.212718
G03 X24.592174 Y15.080421 Z-1.000000 I-0.021727 J0.049652
G03 X24.546859 Y15.559242 Z-1.000000 I-3.433133 J-0.083354
G02 X24.500755 Y15.854190 Z-1.000000 I15.721284 J2.608504
G02 X24.473449 Y16.059615 Z-1.000000 I7.571280 J1.110937
G03 X24.446464 Y16.265049 Z-1.000000 I-8.574037 J-1.021765
G03 X24.429709 Y16.364211 Z-1.000000 I-2.009025 J-0.288459
G02 X24.414009 Y16.463327 Z-1.000000 I1.412426 J0.274530
G02 X24.410509 Y16.520531 Z-1.000000 I0.465721 J0.057204
G03 X24.399565 Y16.573220 Z-1.000000 I-0.132307 J0.000000
G03 X24.369349 Y16.615331 Z-1.000000 I-0.112551 J-0.048863
G02 X24.335993 Y16.656046 Z-1.000000 I0.119087 J0.131583
G02 X24.328189 Y16.684381 Z-1.000000 I0.047536 J0.028335
G03 X24.379055 Y16.670331 Z-1.000000 I0.112837 J0.112837
G03 X24.417079 Y17.124728 Z-1.000000 I-15.297591 J0.869705
G02 X24.510904 Y18.172103 Z-1.000000 I8.478179 J-0.231594
G02 X24.717317 Y19.092979 Z-1.000000 I6.753192 J-1.030148
G03 X24.763350 Y19.352771 Z-1.000000 I-1.108869 J0.330458
G01 X24.734677 Y19.376726 Z-1.000000
G02 X24.688245 Y19.373314 Z-1.000000 I-0.033435 J0.137354
G02 X24.556515 Y19.393196 Z-1.000000 I0.106134 J1.149528
G03 X24.400073 Y19.392194 Z-1.000000 I-0.075919 J-0.360030
G03 X24.311147 Y19.338166 Z-1.000000 I0.035622 J-0.158827
G02 X24.255854 Y19.297091 Z-1.000000 I-0.114393 J0.096236
G02 X24.197500 Y19.289246 Z-1.000000 I-0.043198 J0.100364
G02 X24.028318 Y19.329883 Z-1.000000 I0.126107 J0.897501
G02 X23.964955 Y19.369496 Z-1.000000 I0.054125 J0.157058
G03 X23.892009 Y19.391956 Z-1.000000 I-0.057696 J-0.057696
G03 X23.592605 Y19.298666 Z-1.000000 I0.257536 J-1.353626
G02 X23.504773 Y19.262818 Z-1.000000 I-0.669418 J1.514633
G03 X23.385124 Y19.182876 Z-1.000000 I0.874600 J-1.185283
G02 X23.573218 Y18.729407 Z-1.000000 I-1.153331 J-0.988557
G02 X23.607817 Y18.592418 Z-1.000000 I-0.253896 J-0.136989
G03 X23.616468 Y18.562135 Z-1.000000 I0.057331 J0.000000
G03 X23.657847 Y18.511988 Z-1.000000 I0.207530 J0.129101
G02 X23.728781 Y18.393601 Z-1.000000 I-0.167647 J-0.180893
G02 X23.670625 Y18.338939 Z-1.000000 I-0.021683 J0.056779
G02 X23.641227 Y18.352402 Z-1.000000 I0.010267 J0.061249
G03 X23.429181 Y18.464653 Z-1.000000 I-0.374909 J-0.451808
G03 X23.335772 Y18.440592 Z-1.000000 I-0.026321 J-0.091162
G03 X23.364232 Y18.341442 Z-1.000000 I0.309726 J0.088857
G02 X23.410833 Y18.261076 Z-1.000000 I-2.213556 J-1.337241
G02 X23.473400 Y18.145119 Z-1.000000 I-4.529061 J-2.518614
G03 X23.537686 Y18.039937 Z-1.000000 I0.821664 J0.429957
G02 X23.606090 Y17.952281 Z-1.000000 I-0.464093 J-0.308240
G03 X23.655962 Y17.863732 Z-1.000000 I0.482945 J0.213682
G03 X23.710178 Y17.803138 Z-1.000000 I0.277097 J0.193378
G02 X23.760022 Y17.742794 Z-1.000000 I-0.161886 J-0.184475
G02 X23.772728 Y17.696458 Z-1.000000 I-0.079827 J-0.046800
G03 X23.808079 Y17.541586 Z-1.000000 I0.364954 J0.001833
G03 X23.925376 Y17.375391 Z-1.000000 I0.540449 J0.256949
G02 X23.947816 Y17.338963 Z-1.000000 I-0.065435 J-0.065435
G02 X23.957706 Y17.277451 Z-1.000000 I-0.186351 J-0.061512
G03 X23.970305 Y17.218825 Z-1.000000 I0.142695 J-0.000000
G03 X23.998866 Y17.186131 Z-1.000000 I0.068147 J0.030709
G02 X24.031844 Y17.155888 Z-1.000000 I-0.064813 J-0.103775
G01 X24.040026 Y17.131391 Z-1.000000
G03 X24.064058 Y17.029973 Z-1.000000 I0.226018 J0.000000
G03 X24.130006 Y16.952202 Z-1.000000 I0.193268 J0.097041
G02 X24.036024 Y16.985042 Z-1.000000 I0.357673 J0.529655
G03 X23.942028 Y17.065778 Z-1.000000 I-0.634740 J-0.643905
G03 X23.888988 Y16.935438 Z-1.000000 I0.270867 J-0.159387
G03 X23.879950 Y16.555135 Z-1.000000 I2.492450 J-0.249491
G02 X23.883643 Y16.371876 Z-1.000000 I-2.853384 J-0.149162
G02 X23.867870 Y16.383390 Z-1.000000 I0.036140 J0.036140
G02 X23.862580 Y16.400954 Z-1.000000 I0.052642 J0.025433
G03 X23.858989 Y16.419560 Z-1.000000 I-0.166060 J-0.022397
G03 X23.853980 Y16.435254 Z-1.000000 I-0.129413 J-0.032661
G02 X23.850567 Y16.451222 Z-1.000000 I0.047851 J0.018577
G02 X23.843800 Y16.635928 Z-1.000000 I6.479852 J0.329866
G03 X23.825167 Y16.873379 Z-1.000000 I-2.118211 J-0.046761
G03 X23.791740 Y16.597221 Z-1.000000 I3.363021 J-0.231123
G02 X23.783559 Y16.347473 Z-1.000000 I-3.114578 J-0.022981
G02 X23.751360 Y16.424960 Z-1.000000 I0.329075 J0.080755
G03 X23.734716 Y16.504229 Z-1.000000 I-0.204284 J-0.001512
G03 X23.696750 Y16.551795 Z-1.000000 I-0.105898 J-0.045591
G03 X23.674487 Y16.419032 Z-1.000000 I0.423787 J0.056505
G03 X23.647360 Y16.302107 Z-1.000000 I0.108433 J-0.053436
G02 X23.602675 Y16.462640 Z-1.000000 I0.583466 J0.175222
G02 X23.611510 Y16.975484 Z-1.000000 I6.094916 J0.151503
G03 X23.600091 Y17.071605 Z-1.000000 I-0.274107 J0.016176
G03 X23.494255 Y17.058353 Z-1.000000 I-0.000106 J-0.127902
G03 X23.463860 Y16.992745 Z-1.000000 I0.055608 J-0.065608
G02 X23.457330 Y16.960976 Z-1.000000 I-0.080540 J0.000000
G03 X23.425090 Y16.825094 Z-1.000000 I0.582948 J-0.088730
G03 X23.431886 Y16.756381 Z-1.000000 I0.451820 J0.009996
G02 X23.499976 Y16.706087 Z-1.000000 I-0.136990 J-0.095927
G02 X23.389540 Y16.965014 Z-1.000000 I1.964604 J0.249542
G03 X23.381179 Y17.200468 Z-1.000000 I-4.608357 J-0.045765
G02 X23.258650 Y17.159902 Z-1.000000 I-0.011961 J0.059417
G02 X23.255550 Y17.254212 Z-1.000000 I0.186684 J0.006139
G03 X23.286976 Y17.538655 Z-1.000000 I-0.573228 J0.207289
G03 X23.184780 Y17.808874 Z-1.000000 I-0.616268 J-0.078635
G02 X23.144017 Y17.887750 Z-1.000000 I0.308790 J0.209554
G03 X23.125920 Y17.982153 Z-1.000000 I-0.085156 J-0.024039
G02 X23.102798 Y18.019200 Z-1.000000 I0.091744 J0.083000
G02 X23.074240 Y18.111360 Z-1.000000 I0.560052 J0.224049
G03 X23.046225 Y18.204773 Z-1.000000 I-0.671179 J-0.150382
G03 X23.001040 Y18.304476 Z-1.000000 I-0.810480 J-0.307216
G02 X22.954076 Y18.402948 Z-1.000000 I1.103840 J0.586886
G02 X22.949310 Y18.426377 Z-1.000000 I0.055203 J0.023429
G03 X22.925546 Y18.476716 Z-1.000000 I-0.065200 J0.000000
G03 X22.825818 Y18.528038 Z-1.000000 I-0.168271 J-0.204428
G02 X22.770131 Y18.546242 Z-1.000000 I0.140270 J0.523360
G02 X22.502267 Y18.653560 Z-1.000000 I4.736484 J12.210177
G03 X22.380087 Y18.669065 Z-1.000000 I-0.089561 J-0.216599
G03 X22.064356 Y18.592020 Z-1.000000 I0.227148 J-1.616311
G02 X21.909027 Y18.541257 Z-1.000000 I-1.171236 J3.320784
G02 X21.817373 Y18.517600 Z-1.000000 I-0.340843 J1.131176
G03 X21.726237 Y18.493094 Z-1.000000 I0.198456 J-0.919751
G03 X21.662939 Y18.467650 Z-1.000000 I0.151507 J-0.468371
G02 X21.599667 Y18.441629 Z-1.000000 I-0.243300 J0.501669
G02 X21.390534 Y18.374710 Z-1.000000 I-1.856758 J5.442423
G03 X21.188821 Y18.297273 Z-1.000000 I0.407962 J-1.364128
G03 X21.118080 Y18.245613 Z-1.000000 I0.100207 J-0.211482
G02 X21.047489 Y18.200868 Z-1.000000 I-0.121419 J0.113497
G02 X20.927392 Y18.184363 Z-1.000000 I-0.106936 J0.332927
G02 X20.490803 Y18.276898 Z-1.000000 I0.049238 J1.308514
G02 X20.385728 Y18.400779 Z-1.000000 I0.064363 J0.161094
G03 X20.364984 Y18.463982 Z-1.000000 I-0.318617 J-0.069571
G03 X20.319548 Y18.549441 Z-1.000000 I-0.637865 J-0.284322
G03 X20.130598 Y18.844205 Z-1.000000 I-12.376518 J-7.725654
G03 X20.109239 Y18.869006 Z-1.000000 I-0.106318 J-0.069966
G02 X20.099069 Y18.880444 Z-1.000000 I0.047391 J0.052379
G02 X20.061799 Y18.935806 Z-1.000000 I1.056519 J0.751474
G03 X20.019989 Y18.986887 Z-1.000000 I-0.234230 J-0.149069
G03 X19.923706 Y19.068567 Z-1.000000 I-0.704085 J-0.732369
G01 X19.821574 Y19.144817 Z-1.000000
G03 X19.821897 Y19.662624 Z-1.000000 I-5.694920 J0.067769
G02 X19.756070 Y19.860302 Z-1.000000 I0.347232 J0.214619
G02 X19.735384 Y20.515557 Z-1.000000 I5.088670 J0.488597
G02 X19.779294 Y20.377127 Z-1.000000 I-0.448544 J-0.142227
G03 X19.793730 Y20.191206 Z-1.000000 I1.230712 J0.002041
G03 X19.818504 Y20.123288 Z-1.000000 I0.183033 J0.028286
G03 X19.857473 Y20.079473 Z-1.000000 I0.139590 J0.084916
G03 X20.038144 Y20.314448 Z-1.000000 I-2.616334 J1.598050
G02 X20.158033 Y20.544710 Z-1.000000 I8.930763 J-4.503565
G02 X20.190423 Y20.597883 Z-1.000000 I0.507115 J-0.272458
G03 X20.222906 Y20.650782 Z-1.000000 I-0.507212 J0.347879
G03 X20.239843 Y20.688303 Z-1.000000 I-0.237304 J0.129703
G02 X20.256493 Y20.715956 Z-1.000000 I0.079112 J-0.028795
G02 X20.184803 Y20.522844 Z-1.000000 I-2.582524 J1.072179
G03 X19.974407 Y20.024070 Z-1.000000 I3.697512 J-1.853474
G03 X19.910910 Y19.732744 Z-1.000000 I1.185577 J-0.410987
G03 X19.913773 Y19.600863 Z-1.000000 I0.561316 J-0.053787
G03 X19.943990 Y19.496052 Z-1.000000 I0.382330 J0.053465
G03 X20.067587 Y19.287059 Z-1.000000 I0.995313 J0.447579
G03 X20.121734 Y19.260055 Z-1.000000 I0.054147 J0.040783
G03 X20.201229 Y19.304481 Z-1.000000 I0.000000 J0.093336
G03 X20.264539 Y19.492150 Z-1.000000 I-0.376070 J0.231380
G02 X20.282755 Y19.570700 Z-1.000000 I0.310103 J-0.030526
G03 X20.359509 Y19.676428 Z-1.000000 I-0.055739 J0.099590
G03 X20.335229 Y19.815938 Z-1.000000 I-0.223214 J0.033021
G02 X20.327538 Y19.858383 Z-1.000000 I0.061926 J0.033141
G02 X20.346309 Y19.898868 Z-1.000000 I0.074526 J-0.009960
G03 X20.365118 Y19.940632 Z-1.000000 I-0.055274 J0.050012
G03 X20.357989 Y20.003844 Z-1.000000 I-0.142817 J0.015901
G02 X20.369425 Y20.073907 Z-1.000000 I0.070264 J0.024496
G02 X20.427929 Y20.094174 Z-1.000000 I0.044778 J-0.034685
G03 X20.469335 Y20.085741 Z-1.000000 I0.112877 J0.448338
G03 X20.494819 Y20.083614 Z-1.000000 I0.027495 J0.175722
G02 X20.520549 Y20.043854 Z-1.000000 I-0.047213 J-0.030553
G03 X20.551350 Y19.974681 Z-1.000000 I0.093074 J0.000000
G03 X20.619919 Y19.954404 Z-1.000000 I0.055520 J0.061673
G03 X20.693461 Y19.972621 Z-1.000000 I-0.069665 J0.438786
G03 X20.772678 Y20.006384 Z-1.000000 I-0.185968 J0.546148
G03 X20.831649 Y20.057410 Z-1.000000 I-0.076721 J0.148256
G03 X20.849858 Y20.114085 Z-1.000000 I-0.079094 J0.056675
G02 X20.878349 Y20.178332 Z-1.000000 I0.086684 J-0.000000
G02 X20.952249 Y20.206825 Z-1.000000 I0.073900 J-0.081589
G03 X20.954397 Y20.066233 Z-1.000000 I0.049606 J-0.059763
G03 X20.978519 Y20.002553 Z-1.000000 I0.088554 J-0.002865
G03 X20.881558 Y19.853255 Z-1.000000 I0.052138 J-0.142411
G03 X20.894986 Y19.553351 Z-1.000000 I0.609986 J-0.122941
G03 X20.943285 Y19.496326 Z-1.000000 I0.088971 J0.026389
G02 X21.044596 Y19.568791 Z-1.000000 I0.053366 J-0.070829
G02 X21.071856 Y19.512191 Z-1.000000 I-0.584360 J-0.280788
G02 X21.092993 Y19.455588 Z-1.000000 I-185.550139 J-69.320843
G02 X21.108336 Y19.414431 Z-1.000000 I-52.240195 J-19.498464
G02 X21.122375 Y19.372905 Z-1.000000 I-0.702219 J-0.260541
G02 X21.129306 Y19.345651 Z-1.000000 I-0.281910 J-0.086202
G03 X21.152254 Y19.311070 Z-1.000000 I0.054154 J0.011033
G03 X21.240946 Y19.620720 Z-1.000000 I-1.560706 J0.275698
G03 X21.224193 Y19.715705 Z-1.000000 I-0.277638 J0.000000
G02 X21.095899 Y19.669456 Z-1.000000 I-0.055120 J0.014415
G02 X21.019683 Y19.695387 Z-1.000000 I-0.011776 J0.090359
G02 X21.024083 Y19.786327 Z-1.000000 I0.191638 J-0.009289
G03 X21.044289 Y19.852029 Z-1.000000 I-0.325688 J0.136122
G02 X21.075043 Y19.877527 Z-1.000000 I0.033345 J-0.097246
G02 X21.118759 Y19.975257 Z-1.000000 I0.053285 J0.021864
G02 X21.200873 Y20.011467 Z-1.000000 I0.084917 J-0.081357
G03 X21.337369 Y20.041774 Z-1.000000 I-0.008550 J0.361033
G02 X21.527644 Y20.140697 Z-1.000000 I0.133255 J-0.378198
G03 X21.611831 Y20.154367 Z-1.000000 I0.003286 J0.245838
G03 X21.656091 Y20.185497 Z-1.000000 I-0.032478 J0.093203
G03 X21.727791 Y20.318036 Z-1.000000 I-0.318696 J0.258070
G03 X21.755481 Y20.494606 Z-1.000000 I-0.549124 J0.176570
G02 X21.761625 Y20.546146 Z-1.000000 I0.219258 J-0.000000
G02 X21.773191 Y20.568056 Z-1.000000 I0.048969 J-0.011843
G03 X21.872544 Y20.748671 Z-1.000000 I-0.330715 J0.299554
G03 X21.920139 Y21.099326 Z-1.000000 I-1.267922 J0.350655
G02 X21.948352 Y21.181551 Z-1.000000 I0.133928 J0.000000
G01 X21.985909 Y21.183886 Z-1.000000
G03 X22.105374 Y21.358988 Z-1.000000 I-0.247444 J0.168792
G02 X22.115664 Y21.215353 Z-1.000000 I-0.758438 J0.047436
G03 X22.091980 Y21.101261 Z-1.000000 I0.978609 J-0.262649
G03 X22.085034 Y21.008740 Z-1.000000 I0.636045 J-0.094273
G03 X22.100847 Y20.914042 Z-1.000000 I0.286955 J-0.000751
G03 X22.181034 Y20.731678 Z-1.000000 I1.167276 J0.404445
G02 X22.202516 Y20.690143 Z-1.000000 I-1.167953 J-0.630406
G02 X22.237074 Y20.618477 Z-1.000000 I-3.428306 J-1.697301
G03 X22.368423 Y20.367835 Z-1.000000 I2.929621 J1.375534
G03 X22.452395 Y20.247953 Z-1.000000 I0.748846 J0.435181
G03 X22.515333 Y20.206208 Z-1.000000 I0.101525 J0.084750
G03 X22.565657 Y20.213403 Z-1.000000 I0.017482 J0.057311
G02 X22.621024 Y20.232596 Z-1.000000 I0.065835 J-0.100461
G02 X22.670836 Y20.222603 Z-1.000000 I0.007868 J-0.089929
G02 X22.792913 Y20.121588 Z-1.000000 I-0.177590 J-0.338888
G02 X22.825733 Y20.027452 Z-1.000000 I-0.118590 J-0.094136
G03 X22.868789 Y19.879380 Z-1.000000 I0.276142 J-0.000000
G03 X22.947138 Y19.836331 Z-1.000000 I0.078349 J0.049773
G03 X22.998068 Y19.903221 Z-1.000000 I-0.291739 J0.222072
G02 X23.036598 Y19.966051 Z-1.000000 I0.358877 J-0.176853
G02 X23.093028 Y20.030143 Z-1.000000 I0.430185 J-0.321864
G03 X23.148893 Y20.092770 Z-1.000000 I-0.398845 J0.412011
G02 X23.191058 Y20.172663 Z-1.000000 I0.239763 J-0.139747
G02 X23.166881 Y20.281921 Z-1.000000 I0.047676 J0.018220
G02 X23.230231 Y20.260847 Z-1.000000 I0.000000 J-0.067122
G02 X23.339391 Y20.057999 Z-1.000000 I-0.764973 J-0.542457
G03 X23.392359 Y19.930220 Z-1.000000 I2.873689 J1.116354
G03 X23.446029 Y19.816219 Z-1.000000 I2.343165 J1.033498
G02 X23.486073 Y19.708034 Z-1.000000 I-0.469440 J-0.235262
G02 X23.515725 Y19.664037 Z-1.000000 I-0.000582 J-0.060408
G02 X23.553739 Y19.633467 Z-1.000000 I-0.076912 J-0.134561
G03 X23.637799 Y19.599594 Z-1.000000 I0.076900 J0.069598
G03 X23.724893 Y19.645317 Z-1.000000 I-0.008433 J0.121876
G03 X23.734702 Y19.777519 Z-1.000000 I-0.091928 J0.073286
G03 X23.564004 Y19.923140 Z-1.000000 I-0.291446 J-0.168778
G02 X23.535548 Y19.944780 Z-1.000000 I0.022761 J0.059459
G02 X23.525534 Y19.975200 Z-1.000000 I0.041196 J0.030420
G03 X23.516022 Y20.007518 Z-1.000000 I-0.059660 J0.000000
G03 X23.481994 Y20.042750 Z-1.000000 I-0.105943 J-0.068275
G02 X23.348410 Y20.145485 Z-1.000000 I0.999978 J1.438470
G02 X23.414502 Y20.204789 Z-1.000000 I0.221252 J-0.392464
G03 X23.477854 Y20.245164 Z-1.000000 I-0.058408 J0.161534
G03 X23.573411 Y20.364488 Z-1.000000 I-0.504134 J0.501647
G02 X23.659166 Y20.464459 Z-1.000000 I0.393851 J-0.251079
G02 X23.704287 Y20.423542 Z-1.000000 I-0.119194 J-0.087162
G02 X23.722624 Y20.352453 Z-1.000000 I-0.404161 J-0.142158
G03 X23.818398 Y20.061160 Z-1.000000 I1.004247 J0.168793
G03 X24.004862 Y19.795171 Z-1.000000 I1.019361 J0.516244
G03 X24.195397 Y19.655175 Z-1.000000 I0.473319 J0.444532
G01 X24.257103 Y19.673141 Z-1.000000
G03 X24.287699 Y19.824239 Z-1.000000 I-0.189264 J0.116970
G03 X24.225533 Y19.877499 Z-1.000000 I-0.062166 J-0.009650
G03 X24.176823 Y19.846649 Z-1.000000 I0.101725 J-0.160754
G02 X24.157223 Y19.924829 Z-1.000000 I0.208198 J0.052190
G03 X24.133161 Y20.264186 Z-1.000000 I-0.979416 J0.101087
G03 X24.034208 Y20.418026 Z-1.000000 I-0.276129 J-0.068868
G02 X23.861483 Y20.591812 Z-1.000000 I0.656743 J0.825465
G02 X23.674452 Y20.875929 Z-1.000000 I1.598593 J1.255950
G02 X23.653587 Y20.925585 Z-1.000000 I0.235037 J0.127974
G02 X23.630582 Y21.019265 Z-1.000000 I0.821115 J0.251302
G02 X23.634892 Y21.133130 Z-1.000000 I0.253741 J0.047409
G02 X23.711532 Y21.323106 Z-1.000000 I0.806247 J-0.214807
G03 X23.725447 Y21.360377 Z-1.000000 I-0.117258 J0.065011
G03 X23.731362 Y21.416936 Z-1.000000 I-0.267449 J0.056559
G02 X23.776475 Y21.508591 Z-1.000000 I0.115663 J0.000000
G03 X23.829441 Y21.452437 Z-1.000000 I0.180346 J0.013526
G03 X23.839802 Y21.428866 Z-1.000000 I0.088105 J0.024665
G02 X23.832302 Y21.336606 Z-1.000000 I-0.320387 J0.025607
G03 X23.795878 Y20.988597 Z-1.000000 I0.874370 J-0.267426
G03 X23.891432 Y20.668181 Z-1.000000 I0.831757 J0.073590
G03 X23.957310 Y20.592506 Z-1.000000 I0.198309 J0.106123
G03 X24.068736 Y20.539025 Z-1.000000 I0.200954 J0.275865
G03 X24.145155 Y20.535379 Z-1.000000 I0.046448 J0.170875
G03 X24.206616 Y20.562705 Z-1.000000 I-0.023163 J0.134882
G03 X24.258436 Y20.612422 Z-1.000000 I-0.226573 J0.288019
G03 X24.277566 Y20.645605 Z-1.000000 I-0.079095 J0.067705
G02 X24.343247 Y20.557188 Z-1.000000 I-0.097883 J-0.074202
G02 X24.302276 Y20.500948 Z-1.000000 I-0.070334 J0.008195
G03 X24.226701 Y20.419185 Z-1.000000 I0.059663 J-0.130956
G03 X24.223006 Y20.283036 Z-1.000000 I0.202387 J-0.073618
G02 X24.244940 Y20.195583 Z-1.000000 I-0.882217 J-0.267743
G02 X24.268986 Y20.052454 Z-1.000000 I-2.343563 J-0.467311
G03 X24.330277 Y19.731986 Z-1.000000 I3.060764 J0.419294
G03 X24.380661 Y19.599700 Z-1.000000 I0.564206 J0.139150
G03 X24.437829 Y19.536862 Z-1.000000 I0.150501 J0.079497
G03 X24.529195 Y19.502300 Z-1.000000 I0.123420 J0.188219
G02 X24.633165 Y19.482629 Z-1.000000 I-0.169687 J-1.181471
G02 X24.722286 Y19.456850 Z-1.000000 I-0.211760 J-0.899021
G03 X24.809040 Y19.432014 Z-1.000000 I0.277462 J0.805271
G03 X24.840102 Y19.468778 Z-1.000000 I-0.065161 J0.065161
G03 X25.091875 Y20.196522 Z-1.000000 I-31.681729 J11.368159
G03 X25.288325 Y20.853011 Z-1.000000 I-10.531558 J3.509137
G03 X25.326206 Y21.077780 Z-1.000000 I-1.186942 J0.315616
G03 X25.314451 Y21.198797 Z-1.000000 I-0.356790 J0.026423
G02 X25.272826 Y21.345093 Z-1.000000 I0.168293 J0.017580
G03 X25.308423 Y21.432491 Z-1.000000 I-1.153433 J0.520733
G03 X25.319306 Y21.472601 Z-1.000000 I-0.231264 J0.084283
G02 X25.395056 Y21.520331 Z-1.000000 I0.068905 J-0.109329
G02 X25.836901 Y21.372641 Z-1.000000 I0.054883 J-0.570586
G02 X26.841802 Y20.196526 Z-1.000000 I-4.266786 J-4.663009
G02 X27.282697 Y19.499935 Z-1.000000 I-17.114717 J-11.320268
G02 X27.501918 Y19.105684 Z-1.000000 I-5.256230 J-3.180777
G03 X27.775298 Y18.617672 Z-1.000000 I6.251572 J3.181491
G03 X27.920379 Y18.423946 Z-1.000000 I1.119208 J0.686986
G02 X28.544846 Y17.552703 Z-1.000000 I-3.519672 J-3.182156
G02 X28.804950 Y16.837653 Z-1.000000 I-2.088077 J-1.164383
G02 X28.791449 Y16.271434 Z-1.000000 I-1.316367 J-0.251883
G02 X28.540200 Y15.740539 Z-1.000000 I-1.400489 J0.337889
G03 X28.448375 Y15.595441 Z-1.000000 I0.826135 J-0.624421
G01 X28.455990 Y15.579264 Z-1.000000
G03 X28.568125 Y15.597736 Z-1.000000 I0.032461 J0.152539
G03 X28.822296 Y15.796956 Z-1.000000 I-0.643316 J1.082511
G02 X28.824896 Y15.745406 Z-1.000000 I-0.061636 J-0.003109
G02 X28.577044 Y15.538502 Z-1.000000 I-0.859851 J0.778116
G02 X28.419545 Y15.493558 Z-1.000000 I-0.157499 J0.253497
G02 X28.244731 Y15.336965 Z-1.000000 I-1.107460 J1.199392
G03 X28.086959 Y15.217057 Z-1.000000 I2.946552 J-4.040736
G03 X28.012413 Y15.153016 Z-1.000000 I0.761866 J-0.962253
G02 X27.937951 Y15.088993 Z-1.000000 I-0.843044 J0.905187
G02 X27.860920 Y15.032880 Z-1.000000 I-0.724199 J0.913242
G03 X27.619382 Y14.840603 Z-1.000000 I1.026560 J-1.537409
G03 X27.466164 Y14.660733 Z-1.000000 I0.742831 J-0.787956
G03 X28.044148 Y14.233998 Z-1.000000 I3.803177 J6.110892
G03 X28.763658 Y13.908394 Z-1.000000 I4.522058 J9.034937
G03 X29.033431 Y13.805716 Z-1.000000 I2.449054 J6.028859
G03 X29.547027 Y13.629970 Z-1.000000 I7.704627 J21.677435
G02 X30.059717 Y13.452182 Z-1.000000 I-5.331744 J-16.203304
G02 X30.288266 Y13.359646 Z-1.000000 I-1.207044 J-3.309731
G02 X31.029111 Y12.892341 Z-1.000000 I-1.251963 J-2.805711
G02 X31.315277 Y12.484420 Z-1.000000 I-0.644917 J-0.756761
G02 X31.335142 Y12.386290 Z-1.000000 I-0.296534 J-0.111106
G02 X31.324777 Y12.252873 Z-1.000000 I-0.565378 J-0.023186
G02 X31.291707 Y12.125775 Z-1.000000 I-1.104405 J0.219510
G01 X31.281187 Y12.118122 Z-1.000000
G03 X31.264377 Y12.076962 Z-1.000000 I0.083992 J-0.034435
G02 X31.257948 Y12.042225 Z-1.000000 I-0.097058 J-0.000000
G03 X31.162277 Y11.917456 Z-1.000000 I1.174682 J-0.856524
G02 X31.088857 Y11.801324 Z-1.000000 I-2.260263 J1.347685
G02 X31.064847 Y11.771912 Z-1.000000 I-0.166745 J0.111615
G03 X31.044099 Y11.742197 Z-1.000000 I0.076278 J-0.075361
G03 X31.037977 Y11.714802 Z-1.000000 I0.058232 J-0.027395
G02 X30.919414 Y11.567053 Z-1.000000 I-1.136813 J0.912173
G03 X30.804768 Y11.445873 Z-1.000000 I1.910836 J-1.922629
G03 X30.741396 Y11.366892 Z-1.000000 I0.745926 J-0.663421
G02 X30.679973 Y11.286355 Z-1.000000 I-1.572776 J1.135816
G02 X30.658566 Y11.263983 Z-1.000000 I-0.140927 J0.113420
G03 X30.632687 Y11.230500 Z-1.000000 I0.073676 J-0.083689
G03 X30.388693 Y10.728853 Z-1.000000 I17.309818 J-8.729388
G03 X30.312934 Y10.429918 Z-1.000000 I0.738946 J-0.346339
G03 X30.348193 Y10.032612 Z-1.000000 I1.362653 J-0.079287
G03 X30.560183 Y9.533886 Z-1.000000 I1.587086 J0.380193
G03 X31.192401 Y8.711824 Z-1.000000 I5.035905 J3.218795
G02 X31.759092 Y8.060874 Z-1.000000 I-12.161102 J-11.159098
G02 X31.973863 Y7.765293 Z-1.000000 I-2.281037 J-1.883239
G02 X32.221566 Y7.291044 Z-1.000000 I-2.651651 J-1.686782
G02 X32.434464 Y6.663923 Z-1.000000 I-4.442184 J-1.857756
G02 X32.498742 Y6.407016 Z-1.000000 I-9.643981 J-2.549399
G02 X32.677474 Y5.634826 Z-1.000000 I-86.980866 J-20.539516
G03 X32.904682 Y4.779087 Z-1.000000 I11.828908 J2.682669
G03 X33.314618 Y3.545761 Z-1.000000 I24.999474 J7.624601
G02 X33.506459 Y2.945292 Z-1.000000 I-8.120429 J-2.925236
G02 X33.523869 Y2.797578 Z-1.000000 I-0.462766 J-0.129426
G01 X33.518069 Y2.646270 Z-1.000000
G02 X32.675761 Y4.976681 Z-1.000000 I49.761921 J18.270088
G02 X32.487974 Y5.562790 Z-1.000000 I14.434410 J4.947871
G02 X32.296081 Y6.214769 Z-1.000000 I88.663339 J26.449917
G02 X32.201130 Y6.550722 Z-1.000000 I23.546045 J6.836282
G03 X32.051696 Y7.029917 Z-1.000000 I-7.129151 J-1.960293
G03 X31.906191 Y7.394581 Z-1.000000 I-4.270064 J-1.492434
G03 X31.727292 Y7.737248 Z-1.000000 I-3.035756 J-1.366866
G03 X31.493599 Y8.084075 Z-1.000000 I-3.343756 J-2.000892
G03 X31.301825 Y8.319432 Z-1.000000 I-3.266027 J-2.465423
G03 X30.696680 Y8.991195 Z-1.000000 I-27.266518 J-23.954071
G02 X30.536337 Y9.169956 Z-1.000000 I6.045858 J5.584242
G02 X30.379326 Y9.355561 Z-1.000000 I6.358384 J5.538029
G03 X30.222509 Y9.538701 Z-1.000000 I-4.565152 J-3.750291
G01 X30.210804 Y9.544429 Z-1.000000
G03 X30.249614 Y9.362337 Z-1.000000 I0.615509 J0.131205
G02 X30.286606 Y9.269168 Z-1.000000 I-0.429082 J-0.224289
G02 X30.300274 Y9.182245 Z-1.000000 I-0.358931 J-0.100977
G03 X30.314865 Y9.104225 Z-1.000000 I0.269140 J0.009960
G02 X30.411504 Y9.123085 Z-1.000000 I-0.223952 J-0.249698
G03 X30.477688 Y9.044909 Z-1.000000 I0.312711 J0.197638
G02 X30.570126 Y9.020947 Z-1.000000 I0.016766 J-0.064125
G02 X30.667406 Y8.895665 Z-1.000000 I-0.032119 J-0.067833
G03 X30.703426 Y8.852095 Z-1.000000 I0.048024 J0.039712
G02 X30.787519 Y8.795418 Z-1.000000 I-0.067933 J-0.191520
G02 X30.870806 Y8.697733 Z-1.000000 I-0.035437 J-0.068497
G03 X30.900738 Y8.670135 Z-1.000000 I0.065272 J0.040761
G03 X30.949350 Y8.595467 Z-1.000000 I0.048856 J-0.030196
G03 X31.027016 Y8.557290 Z-1.000000 I0.078412 J0.061429
G02 X31.095096 Y8.474960 Z-1.000000 I-0.405439 J-0.335334
G03 X31.146021 Y8.399691 Z-1.000000 I0.520348 J0.297194
G02 X31.223196 Y8.320630 Z-1.000000 I-0.376192 J-0.327876
G03 X31.270508 Y8.259926 Z-1.000000 I0.302376 J0.186880
G02 X31.338076 Y8.196670 Z-1.000000 I-0.237897 J-0.210275
G03 X31.380422 Y8.131705 Z-1.000000 I0.408600 J0.220055
G03 X31.435886 Y8.041510 Z-1.000000 I0.217275 J0.115365
G02 X31.477278 Y7.988294 Z-1.000000 I-0.305610 J-0.280411
G02 X31.529306 Y7.898834 Z-1.000000 I-0.818262 J-0.535745
G03 X31.580580 Y7.808805 Z-1.000000 I1.050207 J0.538504
G03 X31.613476 Y7.765052 Z-1.000000 I0.279180 J0.175661
G02 X31.705831 Y7.595049 Z-1.000000 I-0.316736 J-0.282156
G02 X31.757358 Y7.240213 Z-1.000000 I-1.404998 J-0.385184
G03 X31.768651 Y7.199683 Z-1.000000 I0.084769 J0.001781
G01 X31.781068 Y7.199053 Z-1.000000
G03 X31.774938 Y7.147178 Z-1.000000 I0.585337 J-0.212004
G03 X31.763448 Y7.101293 Z-1.000000 I0.712548 J-0.202803
G02 X31.747741 Y7.062011 Z-1.000000 I-0.123880 J0.026751
G03 X31.731505 Y6.956826 Z-1.000000 I0.036860 J-0.048610
G02 X31.758228 Y6.872643 Z-1.000000 I-0.166812 J-0.052013
G03 X31.765227 Y6.819104 Z-1.000000 I0.208270 J-0.000000
G03 X31.778608 Y6.795843 Z-1.000000 I0.050055 J0.013315
G02 X31.792359 Y6.772198 Z-1.000000 I-0.037810 J-0.037810
G02 X31.812248 Y6.673380 Z-1.000000 I-0.699937 J-0.192285
G03 X31.834619 Y6.575387 Z-1.000000 I0.524630 J0.068219
G03 X31.858758 Y6.532892 Z-1.000000 I0.118523 J0.039223
G02 X31.795278 Y6.587812 Z-1.000000 I0.159696 J0.105341
G03 X31.772664 Y6.663457 Z-1.000000 I-0.449906 J-0.093294
G03 X31.728978 Y6.755565 Z-1.000000 I-0.714779 J-0.282603
G02 X31.687074 Y6.844142 Z-1.000000 I0.635489 J0.354838
G03 X31.610938 Y7.017362 Z-1.000000 I-1.898074 J-0.925553
G02 X31.522856 Y7.168810 Z-1.000000 I10.049492 J5.946101
G02 X31.495323 Y7.219629 Z-1.000000 I1.102490 J0.630185
G03 X31.468121 Y7.270623 Z-1.000000 I-1.581392 J-0.810813
G03 X31.443793 Y7.312569 Z-1.000000 I-1.099876 J-0.609887
G03 X31.298253 Y7.518458 Z-1.000000 I-1.535878 J-0.931306
G03 X31.105363 Y7.726320 Z-1.000000 I-1.757735 J-1.437698
G02 X31.044801 Y7.793472 Z-1.000000 I0.406768 J0.427740
G02 X30.955963 Y7.877480 Z-1.000000 I0.061681 J0.079081
G03 X30.928399 Y7.912499 Z-1.000000 I-0.112631 J-0.060297
G03 X30.836893 Y7.983739 Z-1.000000 I-0.575540 J-0.644877
G02 X30.632585 Y8.154339 Z-1.000000 I0.736567 J1.089735
G02 X30.605655 Y8.220445 Z-1.000000 I0.067669 J0.066106
G03 X30.541578 Y8.274355 Z-1.000000 I-0.055074 J0.006695
G03 X30.476085 Y8.355237 Z-1.000000 I-0.369023 J-0.231853
G02 X30.407091 Y8.434829 Z-1.000000 I0.426472 J0.439383
G03 X30.390776 Y8.511851 Z-1.000000 I-0.084472 J0.011304
G02 X30.307985 Y8.553746 Z-1.000000 I0.032193 J0.051524
G03 X30.292838 Y8.593719 Z-1.000000 I-0.124049 J-0.024148
G03 X30.215365 Y8.710895 Z-1.000000 I-1.163438 J-0.685033
G02 X30.143368 Y8.818843 Z-1.000000 I1.087219 J0.803123
G03 X30.105545 Y8.878131 Z-1.000000 I-0.318550 J-0.248171
G02 X30.057697 Y8.936443 Z-1.000000 I0.189417 J0.204212
G02 X30.036455 Y8.990527 Z-1.000000 I0.140499 J0.086396
G03 X30.017165 Y9.038830 Z-1.000000 I-0.139907 J-0.027870
G02 X29.971915 Y9.087177 Z-1.000000 I0.066907 J0.047915
G03 X29.897635 Y9.124577 Z-1.000000 I-0.041967 J-0.083311
G02 X29.800122 Y9.150678 Z-1.000000 I-0.016879 J0.132142
G02 X29.761848 Y9.227864 Z-1.000000 I0.058692 J0.077186
G01 X29.754041 Y9.245760 Z-1.000000
G03 X29.697739 Y9.337241 Z-1.000000 I-0.102699 J0.000000
G03 X29.649558 Y9.360194 Z-1.000000 I-0.048181 J-0.039093
G03 X29.600138 Y9.297654 Z-1.000000 I0.198827 J-0.157133
G02 X29.567096 Y9.257925 Z-1.000000 I-0.086382 J0.038239
G02 X29.520979 Y9.285783 Z-1.000000 I0.064172 J0.077357
G03 X29.476993 Y9.404674 Z-1.000000 I-0.141187 J0.000000
G03 X29.390026 Y9.442523 Z-1.000000 I-0.086967 J-0.080989
G03 X29.302336 Y9.375633 Z-1.000000 I0.576842 J-0.755764
G02 X29.047314 Y9.191388 Z-1.000000 I-0.847390 J0.904295
G02 X28.894777 Y9.153849 Z-1.000000 I-0.147668 J0.271356
G03 X28.864747 Y9.146846 Z-1.000000 I-0.001004 J-0.063577
G03 X28.835657 Y9.123509 Z-1.000000 I0.042415 J-0.082671
G03 X28.873657 Y9.092639 Z-1.000000 I0.036231 J0.044604
G02 X28.919059 Y9.080139 Z-1.000000 I0.000000 J-0.088704
G02 X28.908634 Y9.038107 Z-1.000000 I-0.054419 J0.020832
G03 X28.865392 Y9.026310 Z-1.000000 I-0.000000 J-0.062748
G03 X28.757366 Y8.977599 Z-1.000000 I0.573431 J-1.415831
G03 X28.667127 Y8.913961 Z-1.000000 I0.162743 J-0.326568
G03 X28.650415 Y8.874689 Z-1.000000 I0.037786 J-0.039272
G03 X28.658475 Y8.833102 Z-1.000000 I0.111319 J0.000000
G02 X28.678755 Y8.789059 Z-1.000000 I-0.052225 J-0.012145
G03 X28.731665 Y8.673699 Z-1.000000 I0.141581 J-0.002676
G03 X28.855208 Y8.448914 Z-1.000000 I0.863913 J0.328470
G03 X28.915920 Y8.403719 Z-1.000000 I0.115530 J0.004393
G03 X28.929504 Y8.363436 Z-1.000000 I0.306328 J0.080866
G02 X28.384048 Y8.871989 Z-1.000000 I11.026562 J11.826660
G03 X28.215963 Y9.013293 Z-1.000000 I-0.808204 J-0.790759
G03 X28.091521 Y9.072888 Z-1.000000 I-0.252709 J-0.367964
G02 X27.876424 Y9.167305 Z-1.000000 I0.276939 J0.923136
G02 X27.847798 Y9.217592 Z-1.000000 I0.029857 J0.050287
G03 X27.832358 Y9.356954 Z-1.000000 I-0.253148 J-0.097465
G03 X27.650940 Y9.498809 Z-1.000000 I-0.714375 J-0.726674
G03 X27.558788 Y9.524829 Z-1.000000 I-0.092152 J-0.150175
G02 X27.534713 Y9.530912 Z-1.000000 I0.000000 J0.050681
G02 X27.468968 Y9.573319 Z-1.000000 I0.238908 J0.442556
G03 X27.402938 Y9.617299 Z-1.000000 I-0.380808 J-0.500176
G03 X27.360828 Y9.635859 Z-1.000000 I-0.105622 J-0.182588
G02 X27.319907 Y9.655139 Z-1.000000 I0.050405 J0.160053
G02 X27.289868 Y9.681849 Z-1.000000 I0.072564 J0.111853
G01 X27.292885 Y9.698106 Z-1.000000
G02 X27.334318 Y9.706779 Z-1.000000 I0.034499 J-0.061506
G03 X27.388900 Y9.716342 Z-1.000000 I0.010174 J0.102482
G02 X27.420720 Y9.846667 Z-1.000000 I0.211967 J0.018355
G03 X27.482218 Y9.919927 Z-1.000000 I-0.052198 J0.020358
G03 X27.431202 Y9.967461 Z-1.000000 I-0.166367 J-0.005706
G03 X27.419898 Y9.988867 Z-1.000000 I-0.056960 J-0.016393
G02 X27.407243 Y10.010376 Z-1.000000 I0.060442 J0.050040
G02 X27.353008 Y10.160412 Z-1.000000 I2.940493 J1.147741
G03 X27.289191 Y10.303003 Z-1.000000 I-0.748483 J-0.249410
G03 X27.237676 Y10.361850 Z-1.000000 I-0.171604 J-0.098251
G02 X27.150028 Y10.464091 Z-1.000000 I0.196582 J0.257212
G02 X27.240616 Y10.430346 Z-1.000000 I-0.480027 J-0.575556
G03 X27.303767 Y10.377955 Z-1.000000 I0.259937 J0.249068
G03 X27.335226 Y10.368596 Z-1.000000 I0.031459 J0.048192
G03 X27.342426 Y10.486942 Z-1.000000 I-0.351546 J0.021379
G02 X27.332000 Y10.602478 Z-1.000000 I0.391441 J0.093561
G03 X27.401586 Y10.600293 Z-1.000000 I0.033564 J0.037086
G03 X27.385820 Y10.732556 Z-1.000000 I-0.116911 J-0.001001
G03 X27.287440 Y10.756333 Z-1.000000 I-0.074521 J-0.092924
G02 X27.187077 Y10.822203 Z-1.000000 I0.293609 J0.446853
G03 X27.109706 Y10.889483 Z-1.000000 I-0.712454 J-0.741185
G03 X26.952288 Y11.006639 Z-1.000000 I-2.325912 J-2.960898
G02 X26.582803 Y11.287402 Z-1.000000 I3.707090 J5.262040
G02 X26.154202 Y11.659775 Z-1.000000 I6.102698 J7.457053
G03 X26.053343 Y11.739416 Z-1.000000 I-0.570621 J-0.618964
G01 X26.031318 Y11.742415 Z-1.000000
G03 X25.991148 Y11.658485 Z-1.000000 I0.273005 J-0.130676
G03 X26.005587 Y11.591758 Z-1.000000 I0.082342 J-0.017107
G03 X26.235024 Y11.324756 Z-1.000000 I1.805249 J1.319183
G02 X26.479579 Y11.067071 Z-1.000000 I-4.258562 J-4.286449
G03 X26.288684 Y11.183001 Z-1.000000 I-0.509901 J-0.661260
G02 X26.159159 Y11.266386 Z-1.000000 I0.842010 J1.450217
G02 X26.003232 Y11.385893 Z-1.000000 I1.581120 J2.224446
G03 X25.725277 Y11.060268 Z-1.000000 I1.227793 J-1.048075
G02 X25.556984 Y10.734685 Z-1.000000 I-17.954575 J9.074378
G02 X25.420702 Y10.483974 Z-1.000000 I-10.763447 J5.688427
G03 X25.061281 Y9.814892 Z-1.000000 I19.892246 J-11.116899
G03 X25.048623 Y9.762747 Z-1.000000 I0.101077 J-0.052145
G03 X25.056477 Y9.730815 Z-1.000000 I0.068846 J0.000000
G03 X25.106523 Y9.652185 Z-1.000000 I0.489150 J0.256095
G02 X25.164119 Y9.575970 Z-1.000000 I-9.304928 J-7.091695
G02 X25.372033 Y9.297852 Z-1.000000 I-124.452342 J-93.254018
G03 X25.786467 Y8.802067 Z-1.000000 I4.674690 J3.486528
G03 X26.088009 Y8.531904 Z-1.000000 I1.672423 J1.563313
G03 X26.382230 Y8.350325 Z-1.000000 I1.163570 J1.556223
G03 X26.859831 Y8.145794 Z-1.000000 I1.963147 J3.924270
G02 X27.614937 Y7.869336 Z-1.000000 I-24.380895 J-67.762364
G02 X27.683108 Y7.839154 Z-1.000000 I-0.216076 J-0.580127
G03 X27.715277 Y7.829475 Z-1.000000 I0.041818 J0.080689
G03 X27.784357 Y7.828304 Z-1.000000 I0.041072 J0.384658
G02 X27.866221 Y7.811218 Z-1.000000 I0.011097 J-0.151490
G02 X28.074165 Y7.675764 Z-1.000000 I-0.624437 J-1.185957
G02 X28.574931 Y7.238861 Z-1.000000 I-4.362122 J-5.505174
G02 X28.642244 Y7.130705 Z-1.000000 I-0.178688 J-0.186235
G01 X28.630128 Y7.104299 Z-1.000000
G03 X28.486419 Y7.203958 Z-1.000000 I-0.619411 J-0.618266
G03 X28.348821 Y7.288087 Z-1.000000 I-0.642382 J-0.896073
G02 X28.286517 Y7.325135 Z-1.000000 I0.272088 J0.528492
G02 X28.250281 Y7.355137 Z-1.000000 I0.140829 J0.206971
G03 X28.179031 Y7.345337 Z-1.000000 I0.008456 J-0.061508
G02 X28.117129 Y7.308124 Z-1.000000 I-0.088046 J0.076370
G02 X28.012421 Y7.403367 Z-1.000000 I0.063391 J0.066678
G03 X27.959791 Y7.479582 Z-1.000000 I-0.052389 J-0.000000
G03 X27.824790 Y7.630066 Z-1.000000 I-1.391527 J-1.112554
G03 X27.721299 Y7.710987 Z-1.000000 I-0.389529 J-0.391539
G03 X27.588098 Y7.773365 Z-1.000000 I-0.358554 J-0.592238
G02 X27.435009 Y7.829328 Z-1.000000 I1.401418 J4.071023
G02 X27.261185 Y7.899930 Z-1.000000 I2.063019 J5.328472
G03 X27.219282 Y7.915289 Z-1.000000 I-0.175295 J-0.413403
G03 X27.065656 Y7.960700 Z-1.000000 I-1.674838 J-5.383443
G02 X26.365400 Y8.221954 Z-1.000000 I1.203623 J4.295245
G02 X25.981955 Y8.472163 Z-1.000000 I0.714480 J1.513858
G02 X25.737481 Y8.697688 Z-1.000000 I3.665288 J4.218528
G02 X25.305902 Y9.134123 Z-1.000000 I13.313869 J13.597328
G03 X25.124095 Y9.307631 Z-1.000000 I-2.015888 J-1.930303
G01 X25.093873 Y9.318955 Z-1.000000
G02 X25.020706 Y9.352770 Z-1.000000 I0.000000 J0.096066
G02 X24.986882 Y9.444721 Z-1.000000 I0.108075 J0.091951
G03 X24.840151 Y9.354621 Z-1.000000 I0.411368 J-0.405121
G03 X24.242678 Y8.276068 Z-1.000000 I24.845986 J-14.468382
G03 X24.155252 Y8.053174 Z-1.000000 I0.959472 J-0.504930
G03 X24.261941 Y7.956144 Z-1.000000 I0.268461 J0.295247
G03 X24.466726 Y7.919336 Z-1.000000 I0.170201 J0.358855
G03 X24.904558 Y8.012314 Z-1.000000 I-0.160045 J1.831010
G02 X25.297118 Y8.118729 Z-1.000000 I0.994172 J-2.890174
G02 X25.569404 Y8.145792 Z-1.000000 I0.272286 J-1.356238
G02 X25.814700 Y8.114106 Z-1.000000 I0.000000 J-0.965318
G02 X26.427846 Y7.920253 Z-1.000000 I-1.658283 J-6.311651
G02 X27.325068 Y7.557488 Z-1.000000 I-5.866712 J-15.800974
G02 X27.562804 Y7.422995 Z-1.000000 I-0.538799 J-1.229771
G03 X27.618469 Y7.387525 Z-1.000000 I0.387300 J0.546402
G01 X27.630774 Y7.384265 Z-1.000000
G02 X27.833416 Y7.244489 Z-1.000000 I-4.106087 J-5.954964
G03 X28.024416 Y7.107191 Z-1.000000 I5.470090 J7.408101
G03 X28.129299 Y7.037472 Z-1.000000 I1.515087 J2.165512
G02 X28.446566 Y6.730917 Z-1.000000 I-0.577110 J-0.914732
G02 X28.831193 Y6.005276 Z-1.000000 I-3.099424 J-2.107609
G03 X28.887588 Y5.874033 Z-1.000000 I2.356353 J0.934791
G02 X28.945073 Y5.783743 Z-1.000000 I-0.073182 J-0.097549
G02 X28.920113 Y5.728706 Z-1.000000 I-0.053467 J-0.008930
G02 X28.705200 Y5.984733 Z-1.000000 I1.848512 J1.551683
G03 X28.617928 Y6.117407 Z-1.000000 I-5.245810 J-3.355608
G03 X28.559067 Y6.200843 Z-1.000000 I-2.136062 J-1.444438
G03 X28.333176 Y6.503663 Z-1.000000 I-22.639172 J-16.652223
G03 X28.295429 Y6.549353 Z-1.000000 I-0.551645 J-0.417305
G02 X28.264691 Y6.591368 Z-1.000000 I0.190537 J0.171648
G03 X28.185332 Y6.775053 Z-1.000000 I-0.219065 J-0.000000
G03 X27.989498 Y6.849132 Z-1.000000 I-0.195834 J-0.221810
G02 X27.958361 Y6.856767 Z-1.000000 I0.000000 J0.067308
G03 X27.755150 Y6.965832 Z-1.000000 I-0.396444 J-0.804199
G03 X27.632273 Y6.985768 Z-1.000000 I-0.174856 J-0.689088
G03 X27.504758 Y6.910413 Z-1.000000 I-0.023535 J-0.064211
G03 X27.552657 Y6.719492 Z-1.000000 I0.237286 J-0.041938
G03 X27.595939 Y6.675637 Z-1.000000 I0.216275 J0.170163
G02 X27.651807 Y6.582842 Z-1.000000 I-0.668979 J-0.326689
G03 X27.698537 Y6.491607 Z-1.000000 I0.319911 J0.106270
G03 X27.736227 Y6.466077 Z-1.000000 I0.053876 J0.038952
G02 X27.776676 Y6.446289 Z-1.000000 I-0.026608 J-0.105623
G03 X27.818197 Y6.388347 Z-1.000000 I0.045893 J0.038064
G02 X27.970721 Y6.239201 Z-1.000000 I-0.090880 J-0.236739
G02 X28.012420 Y6.109632 Z-1.000000 I-0.180450 J-0.129569
G03 X28.046580 Y6.064352 Z-1.000000 I0.145137 J0.109629
G02 X28.123362 Y5.966461 Z-1.000000 I-0.186119 J-0.225043
G02 X28.259314 Y5.624466 Z-1.000000 I-2.299298 J-1.112050
G03 X28.288308 Y5.543655 Z-1.000000 I1.072283 J0.339114
G03 X28.300734 Y5.521556 Z-1.000000 I0.091012 J0.036633
G02 X28.374671 Y5.323579 Z-1.000000 I-0.301689 J-0.225464
G02 X28.319554 Y5.264282 Z-1.000000 I-0.055117 J-0.004033
G01 X28.307762 Y5.270497 Z-1.000000
G02 X28.175031 Y5.475247 Z-1.000000 I3.944551 J2.702492
G03 X28.043042 Y5.684287 Z-1.000000 I-7.810364 J-4.785304
G03 X28.003375 Y5.739143 Z-1.000000 I-0.574746 J-0.373840
G02 X27.961600 Y5.792554 Z-1.000000 I2.272121 J1.820194
G02 X27.909515 Y5.862071 Z-1.000000 I3.789213 J2.893268
G03 X27.676812 Y6.122738 Z-1.000000 I-1.485896 J-1.092288
G03 X27.351853 Y6.378614 Z-1.000000 I-1.755880 J-1.895658
G03 X26.914308 Y6.635206 Z-1.000000 I-2.486705 J-3.739029
G03 X26.795672 Y6.663853 Z-1.000000 I-0.118636 J-0.231326
G02 X26.755713 Y6.672787 Z-1.000000 I0.000000 J0.093830
G02 X26.727832 Y6.695783 Z-1.000000 I0.031135 J0.066150
G03 X26.653522 Y6.707383 Z-1.000000 I-0.013701 J-0.087830
G03 X26.625094 Y6.690751 Z-1.000000 I0.040871 J-0.102469
G02 X26.714182 Y6.631153 Z-1.000000 I-0.302695 J-0.485133
G03 X26.772618 Y6.588365 Z-1.000000 I0.345572 J0.410654
G02 X26.826172 Y6.551723 Z-1.000000 I-0.263972 J-0.327188
G03 X26.876909 Y6.503928 Z-1.000000 I0.377585 J0.349998
G02 X26.980362 Y6.442043 Z-1.000000 I-0.574301 J-0.906797
G03 X27.057845 Y6.389035 Z-1.000000 I0.555297 J0.728562
G03 X27.127397 Y6.352153 Z-1.000000 I0.336004 J0.549609
G02 X27.365401 Y6.196685 Z-1.000000 I-0.387397 J-0.852974
G02 X27.525794 Y5.994946 Z-1.000000 I-0.514081 J-0.573351
G03 X27.561404 Y5.934209 Z-1.000000 I1.154380 J0.635997
G03 X27.592934 Y5.887144 Z-1.000000 I0.722870 J0.450180
G02 X27.604778 Y5.847441 Z-1.000000 I-0.051384 J-0.036947
G03 X27.513103 Y5.876023 Z-1.000000 I-0.099449 J-0.055645
G02 X27.313031 Y5.984437 Z-1.000000 I2.117612 J3.823486
G03 X26.805130 Y6.225636 Z-1.000000 I-1.375723 J-2.241552
G03 X25.923399 Y6.470169 Z-1.000000 I-2.298267 J-6.575111
G02 X24.702400 Y6.801567 Z-1.000000 I2.137366 J10.289905
G02 X24.184226 Y7.056682 Z-1.000000 I0.699890 J2.075371
G02 X23.970968 Y7.228236 Z-1.000000 I0.868936 J1.298498
G02 X23.859218 Y7.368788 Z-1.000000 I0.465746 J0.485006
G03 X23.821983 Y7.419281 Z-1.000000 I-0.276617 J-0.165011
G01 X23.808268 Y7.425388 Z-1.000000
G02 X23.760978 Y7.497428 Z-1.000000 I0.334926 J0.219540
G03 X23.725867 Y7.561932 Z-1.000000 I-0.330214 J-0.137936
G03 X23.625478 Y7.471708 Z-1.000000 I0.702287 J-0.618451
G02 X22.841406 Y6.509459 Z-1.000000 I-6.066811 J4.142864
G02 X22.317910 Y6.118644 Z-1.000000 I-1.463369 J1.414165
G03 X22.240407 Y6.076080 Z-1.000000 I0.921351 J-1.769500
G03 X22.228940 Y6.067194 Z-1.000000 I0.027007 J-0.046692
G02 X22.067603 Y5.949061 Z-1.000000 I-0.440090 J0.431803
G02 X21.817302 Y5.858543 Z-1.000000 I-0.493869 J0.974328
G03 X21.474666 Y5.765411 Z-1.000000 I0.976888 J-4.270880
G01 X21.452093 Y5.743194 Z-1.000000
G03 X21.453992 Y5.661398 Z-1.000000 I0.114523 J-0.038260
G03 X21.591987 Y5.381093 Z-1.000000 I1.646576 J0.636490
G03 X21.753072 Y5.158099 Z-1.000000 I1.480131 J0.899525
G03 X21.966356 Y4.941170 Z-1.000000 I1.613659 J1.373236
G03 X22.094472 Y4.844068 Z-1.000000 I0.723912 J0.822057
G03 X22.259977 Y4.750849 Z-1.000000 I0.831670 J1.283050
G03 X22.437412 Y4.686748 Z-1.000000 I0.395446 J0.816995
G03 X22.694062 Y4.643447 Z-1.000000 I0.414862 J1.676674
G03 X23.099553 Y4.640440 Z-1.000000 I0.220533 J2.397171
G03 X23.421340 Y4.699557 Z-1.000000 I-0.120173 J1.559470
G02 X23.516234 Y4.723227 Z-1.000000 I0.330524 J-1.123042
G02 X23.772585 Y4.771727 Z-1.000000 I1.674830 J-8.150691
G02 X24.313461 Y4.812902 Z-1.000000 I0.485789 J-2.808272
G02 X24.742727 Y4.752967 Z-1.000000 I-0.035168 J-1.819085
G02 X25.243491 Y4.507883 Z-1.000000 I-0.363527 J-1.376904
G02 X25.935501 Y3.842130 Z-1.000000 I-2.564001 J-3.357649
G03 X26.801575 Y2.872696 Z-1.000000 I13.080075 J10.813904
G03 X27.601006 Y2.115753 Z-1.000000 I8.760386 J8.451496
G02 X28.301556 Y1.457630 Z-1.000000 I-7.610143 J-8.802661
G02 X28.700772 Y0.993550 Z-1.000000 I-3.370869 J-3.303476
G02 X28.992173 Y0.586245 Z-1.000000 I-8.166187 J-6.150287
G02 X29.125364 Y0.368262 Z-1.000000 I-2.200615 J-1.494290
G03 X29.166887 Y0.294217 Z-1.000000 I3.527036 J1.929238
G03 X29.209594 Y0.221728 Z-1.000000 I3.389885 J1.948321
G02 X29.312280 Y0.027991 Z-1.000000 I-1.686087 J-1.017756
G01 X29.304254 Y0.016223 Z-1.000000
G02 X29.277834 Y0.031663 Z-1.000000 I0.132652 J0.227271
G00 Z5.000000

(End cutting path id: path3879)


(Start cutting path id: path3879)
(Change tool to Default tool)

G00 Z5.000000

G01 Z-1.000000 F100.0(Penetrate)
G02 X28.910327 Y0.111252 Z-1.000000 I0.000498 J-0.057073
G02 X28.876766 Y0.098276 Z-1.000000 I-0.000000 J0.058586
G00 Z5.000000

(End cutting path id: path3879)


(Start cutting path id: path3879)
(Change tool to Default tool)

G00 Z5.000000

G01 Z-1.000000 F100.0(Penetrate)
G02 X29.574454 Y1.002613 Z-1.000000 I-0.058460 J-0.023211
G02 X29.557654 Y1.015884 Z-1.000000 I0.057595 J0.023164
G00 Z5.000000

(End cutting path id: path3879)


(Start cutting path id: path3879)
(Change tool to Default tool)

G00 Z5.000000

G01 Z-1.000000 F100.0(Penetrate)
G03 X29.542018 Y1.212909 Z-1.000000 I0.139173 J0.053276
G03 X29.556009 Y1.240573 Z-1.000000 I-0.103302 J0.027382
G00 Z5.000000

(End cutting path id: path3879)


(Start cutting path id: path3879)
(Change tool to Default tool)

G00 Z5.000000

G01 Z-1.000000 F100.0(Penetrate)
G03 X30.218676 Y1.377314 Z-1.000000 I0.074573 J0.046114
G00 Z5.000000

(End cutting path id: path3879)


(Start cutting path id: path3879)
(Change tool to Default tool)

G00 Z5.000000

G01 Z-1.000000 F100.0(Penetrate)
G03 X30.932182 Y0.873687 Z-1.000000 I-0.019108 J-0.056325
G02 X30.579130 Y1.184929 Z-1.000000 I3.106228 J3.523362
G03 X30.423460 Y1.315675 Z-1.000000 I-0.637345 J-0.600795
G02 X30.345797 Y1.301692 Z-1.000000 I0.019330 J0.050496
G03 X30.244438 Y1.353192 Z-1.000000 I-0.026145 J-0.083566
G02 X30.195533 Y1.342358 Z-1.000000 I-0.043781 J0.081832
G02 X30.129018 Y1.359592 Z-1.000000 I0.009630 J0.174142
G03 X30.062451 Y1.379490 Z-1.000000 I-0.094723 J-0.195588
G03 X30.026709 Y1.372962 Z-1.000000 I-0.007701 J-0.058941
G02 X29.990707 Y1.362083 Z-1.000000 I-0.045104 J0.084252
G02 X29.958699 Y1.366462 Z-1.000000 I-0.006710 J0.070126
G03 X29.927212 Y1.368848 Z-1.000000 I-0.019705 J-0.051091
G03 X29.880029 Y1.349192 Z-1.000000 I0.031076 J-0.141056
G02 X29.763912 Y1.301378 Z-1.000000 I-0.187929 J0.291482
G02 X29.669700 Y1.341619 Z-1.000000 I0.063216 J0.040644
G03 X29.638365 Y1.321709 Z-1.000000 I0.048480 J-0.025996
G03 X29.565435 Y1.225159 Z-1.000000 I0.163009 J-0.112859
G02 X29.533145 Y1.176370 Z-1.000000 I-0.095468 J0.028104
G02 X29.488795 Y1.162189 Z-1.000000 I-0.040015 J0.048700
G02 X29.348898 Y1.209776 Z-1.000000 I0.019908 J0.287956
G03 X29.309728 Y1.271469 Z-1.000000 I-0.032805 J-0.086879
G02 X29.204971 Y1.311295 Z-1.000000 I-0.000000 J0.157687
G02 X29.165000 Y1.400106 Z-1.000000 I0.079109 J0.089005
G03 X29.128960 Y1.415596 Z-1.000000 I-0.030003 J-0.069867
G02 X29.051780 Y1.477286 Z-1.000000 I0.141106 J0.176549
G03 X29.006202 Y1.530664 Z-1.000000 I-0.248350 J-0.165909
G02 X28.933800 Y1.580196 Z-1.000000 I0.084502 J0.105103
G03 X28.903883 Y1.613760 Z-1.000000 I-0.112882 J-0.070501
G03 X28.813160 Y1.662516 Z-1.000000 I-0.035131 J-0.073560
G02 X28.778990 Y1.674078 Z-1.000000 I-0.000000 J0.056271
G02 X28.759300 Y1.703676 Z-1.000000 I0.033193 J0.043431
G03 X28.740121 Y1.733914 Z-1.000000 I-0.056636 J-0.014720
G02 X28.676751 Y1.754550 Z-1.000000 I-0.000000 J0.061588
G02 X28.645650 Y1.785996 Z-1.000000 I0.054236 J0.084744
G03 X28.615808 Y1.819705 Z-1.000000 I-0.115314 J-0.072021
G02 X28.547510 Y1.868316 Z-1.000000 I0.077958 J0.089452
G03 X28.520441 Y1.901073 Z-1.000000 I-0.094717 J-0.050705
G02 X28.424020 Y1.971226 Z-1.000000 I0.187863 J0.221195
G03 X28.376681 Y2.026434 Z-1.000000 I-0.329302 J-0.234468
G01 X28.360580 Y2.032976 Z-1.000000
G02 X28.238386 Y2.072716 Z-1.000000 I-0.000000 J0.207731
G02 X28.197870 Y2.151322 Z-1.000000 I0.057886 J0.079581
G02 X28.068570 Y2.243942 Z-1.000000 I0.293756 J0.434184
G03 X27.998226 Y2.308931 Z-1.000000 I-1.265357 J-1.299063
G03 X27.921729 Y2.372579 Z-1.000000 I-1.287640 J-1.469782
G02 X27.796033 Y2.484680 Z-1.000000 I0.873907 J1.106414
G02 X27.703648 Y2.640949 Z-1.000000 I0.224060 J0.113713
G03 X27.691414 Y2.678129 Z-1.000000 I-0.062613 J0.000000
G02 X27.621838 Y2.717629 Z-1.000000 I0.037904 J0.056249
G02 X27.538998 Y2.815169 Z-1.000000 I0.088764 J0.080574
G03 X27.495768 Y2.862719 Z-1.000000 I-0.049309 J-0.044836
G02 X27.468561 Y2.880431 Z-1.000000 I0.012854 J0.049497
G03 X27.427338 Y2.966549 Z-1.000000 I-0.146067 J-0.085851
G02 X27.380819 Y3.015529 Z-1.000000 I0.153763 J0.192617
G02 X27.366248 Y3.051739 Z-1.000000 I0.066834 J0.047932
G03 X27.350199 Y3.082792 Z-1.000000 I-0.052483 J-0.007451
G03 X27.315838 Y3.099489 Z-1.000000 I-0.043657 J-0.046136
G02 X27.277872 Y3.115330 Z-1.000000 I0.012139 J0.082509
G02 X27.247338 Y3.150929 Z-1.000000 I0.065336 J0.086934
G03 X27.219838 Y3.193254 Z-1.000000 I-0.262479 J-0.140443
G03 X27.164418 Y3.257547 Z-1.000000 I-0.665527 J-0.517651
G02 X27.106905 Y3.320521 Z-1.000000 I1.426038 J1.360130
G02 X27.058156 Y3.379093 Z-1.000000 I1.178287 J1.030246
G03 X27.004904 Y3.427836 Z-1.000000 I-0.177880 J-0.140876
G03 X26.961026 Y3.442923 Z-1.000000 I-0.051448 J-0.078277
G02 X26.925854 Y3.458199 Z-1.000000 I0.004760 J0.059089
G03 X26.917108 Y3.516149 Z-1.000000 I-0.086280 J0.015486
G03 X26.904906 Y3.542093 Z-1.000000 I-0.061468 J-0.013069
G02 X26.890501 Y3.568601 Z-1.000000 I0.069310 J0.054834
G02 X26.858406 Y3.679494 Z-1.000000 I1.227793 J0.415439
G03 X26.831505 Y3.757557 Z-1.000000 I-0.424446 J-0.102601
G03 X26.769171 Y3.782136 Z-1.000000 I-0.054013 J0.000000
G03 X26.735366 Y3.820264 Z-1.000000 I-0.132231 J-0.083189
G02 X26.702424 Y3.859223 Z-1.000000 I0.086585 J0.106620
G02 X26.689826 Y3.900744 Z-1.000000 I0.086316 J0.048861
G03 X26.551056 Y3.980164 Z-1.000000 I-0.037314 J-0.034508
G02 X26.499844 Y3.983934 Z-1.000000 I0.034965 J0.824583
G02 X26.479016 Y3.987764 Z-1.000000 I0.014330 J0.136494
G03 X26.458353 Y3.990843 Z-1.000000 I-0.025248 J-0.098553
G03 X26.439516 Y3.989564 Z-1.000000 I-0.003776 J-0.083716
G01 X26.441941 Y4.035238 Z-1.000000
G03 X26.366376 Y4.080684 Z-1.000000 I-0.169161 J-0.195726
G02 X26.275316 Y4.129632 Z-1.000000 I0.152393 J0.392681
G02 X26.244264 Y4.167174 Z-1.000000 I0.054060 J0.076327
G03 X26.217867 Y4.207292 Z-1.000000 I-0.141889 J-0.064618
G02 X26.095918 Y4.267604 Z-1.000000 I0.451497 J0.898221
G03 X26.010995 Y4.309520 Z-1.000000 I-0.242027 J-0.383369
G02 X25.930181 Y4.335984 Z-1.000000 I0.031514 J0.062369
G03 X25.901507 Y4.361086 Z-1.000000 I-0.055838 J-0.034855
G03 X25.788851 Y4.431014 Z-1.000000 I-0.054639 J-0.050607
G02 X25.750027 Y4.449451 Z-1.000000 I0.047878 J0.150913
G02 X25.695261 Y4.492264 Z-1.000000 I0.226871 J0.346648
G03 X25.640375 Y4.535634 Z-1.000000 I-0.302140 J-0.325954
G03 X25.575268 Y4.572614 Z-1.000000 I-0.284028 J-0.424252
G02 X25.510574 Y4.609541 Z-1.000000 I0.211487 J0.445655
G02 X25.481098 Y4.636244 Z-1.000000 I0.078751 J0.116546
G03 X25.451992 Y4.660764 Z-1.000000 I-0.082758 J-0.068701
G03 X25.426808 Y4.667494 Z-1.000000 I-0.025184 J-0.043757
G03 X25.347008 Y4.708654 Z-1.000000 I-0.043142 J-0.107854
G02 X25.303832 Y4.716987 Z-1.000000 I0.000000 J0.116017
G02 X25.198258 Y4.790974 Z-1.000000 I0.191539 J0.348205
G03 X25.142934 Y4.823478 Z-1.000000 I-0.146988 J-0.186851
G03 X25.099768 Y4.832134 Z-1.000000 I-0.043166 J-0.103298
G02 X25.057663 Y4.840781 Z-1.000000 I-0.000000 J0.106833
G02 X25.028108 Y4.862864 Z-1.000000 I0.031019 J0.072334
G03 X24.939013 Y4.922593 Z-1.000000 I-0.145514 J-0.120742
G03 X24.467132 Y5.038244 Z-1.000000 I-1.157800 J-3.703563
G02 X24.334323 Y5.068301 Z-1.000000 I0.268029 J1.492720
G01 X24.328232 Y5.076304 Z-1.000000
G03 X24.259574 Y5.142059 Z-1.000000 I-0.065686 J0.000136
G03 X23.959457 Y5.059464 Z-1.000000 I0.031800 J-0.702099
G02 X23.924569 Y5.051381 Z-1.000000 I-0.032412 J0.060566
G03 X23.804587 Y5.056164 Z-1.000000 I0.014184 J-0.253509
G02 X23.731106 Y5.042596 Z-1.000000 I-0.077652 J0.214786
G02 X23.689621 Y5.054064 Z-1.000000 I-0.001384 J0.075764
G03 X23.583630 Y5.080904 Z-1.000000 I-0.094850 J-0.151865
G03 X23.513002 Y5.043064 Z-1.000000 I0.005985 J-0.096005
G03 X23.471937 Y5.087072 Z-1.000000 I-0.051937 J-0.000734
G02 X23.414572 Y5.233447 Z-1.000000 I0.383599 J0.084221
G03 X23.407932 Y5.351341 Z-1.000000 I-0.427624 J0.035051
G02 X23.417452 Y5.397915 Z-1.000000 I0.073610 J-0.072379
G03 X23.482820 Y5.459917 Z-1.000000 I-0.052516 J0.120826
G03 X23.383902 Y5.591875 Z-1.000000 I-0.203468 J-0.168273
G02 X23.308174 Y5.743902 Z-1.000000 I0.104682 J0.147019
G02 X23.391402 Y5.861056 Z-1.000000 I0.129114 J-0.003584
G03 X23.433032 Y5.887791 Z-1.000000 I-0.042705 J0.112278
G02 X23.520402 Y5.945066 Z-1.000000 I0.045913 J-0.107636
G02 X23.587292 Y5.974396 Z-1.000000 I0.014080 J-0.059098
G03 X23.618772 Y5.974695 Z-1.000000 I0.015283 J0.048348
G02 X23.762642 Y6.022756 Z-1.000000 I0.046981 J-0.122919
G03 X23.826656 Y6.026532 Z-1.000000 I0.019124 J0.220286
G03 X23.861242 Y6.043196 Z-1.000000 I-0.016095 J0.077628
G02 X23.950729 Y6.075280 Z-1.000000 I0.088888 J-0.107083
G02 X24.503176 Y6.040496 Z-1.000000 I-0.020340 J-4.727458
G02 X24.844463 Y5.984177 Z-1.000000 I-0.500953 J-4.097996
G02 X25.007433 Y5.935416 Z-1.000000 I-0.203715 J-0.977570
G03 X25.079484 Y5.907016 Z-1.000000 I27.850658 J70.552493
G03 X25.511690 Y5.736961 Z-1.000000 I881.654875 J2240.167335
G02 X25.943199 Y5.565261 Z-1.000000 I-21.626947 J-54.979997
G02 X26.026238 Y5.529866 Z-1.000000 I-0.830351 J-2.063159
G03 X26.109113 Y5.494059 Z-1.000000 I1.199159 J2.661663
G03 X26.396713 Y5.376547 Z-1.000000 I13.278312 J32.086668
G02 X26.684401 Y5.259226 Z-1.000000 I-15.328941 J-38.000093
G02 X26.767187 Y5.223824 Z-1.000000 I-1.311129 J-3.180533
G02 X26.849508 Y5.187317 Z-1.000000 I-94.151552 J-212.414203
G02 X27.024461 Y5.109674 Z-1.000000 I-537.863923 J-1212.230602
G02 X27.325805 Y4.971273 Z-1.000000 I-5.267192 J-11.865650
G02 X28.063849 Y4.616139 Z-1.000000 I-34.009254 J-71.622945
G03 X28.291344 Y4.508329 Z-1.000000 I4.975223 J10.204493
G03 X28.354979 Y4.482106 Z-1.000000 I0.354676 J0.770373
G02 X28.416867 Y4.453679 Z-1.000000 I-0.145884 J-0.399189
G02 X28.458587 Y4.424036 Z-1.000000 I-0.117161 J-0.209070
G03 X28.647470 Y4.267589 Z-1.000000 I2.474841 J2.795705
G03 X28.845962 Y4.124078 Z-1.000000 I2.279865 J2.944285
G02 X29.134060 Y3.892590 Z-1.000000 I-1.234647 J-1.831602
G02 X29.164982 Y3.820478 Z-1.000000 I-0.068625 J-0.072112
G01 X29.158730 Y3.809282 Z-1.000000
G02 X29.012874 Y3.825724 Z-1.000000 I0.000000 J0.349237
G02 X28.907557 Y3.889898 Z-1.000000 I0.118953 J0.313723
G03 X28.823569 Y3.954493 Z-1.000000 I-0.462467 J-0.514415
G03 X28.719296 Y4.012965 Z-1.000000 I-0.482185 J-0.737663
G03 X28.616887 Y4.048455 Z-1.000000 I-0.212400 J-0.447401
G03 X28.511501 Y4.060305 Z-1.000000 I-0.105386 J-0.462675
G02 X28.410655 Y4.067438 Z-1.000000 I-0.000000 J0.716432
G03 X28.373946 Y4.091185 Z-1.000000 I-0.023675 J-0.045255
G02 X28.269493 Y4.182665 Z-1.000000 I0.455734 J0.520473
G03 X28.185732 Y4.261342 Z-1.000000 I-0.342372 J-0.280572
G03 X28.097753 Y4.306288 Z-1.000000 I-0.191068 J-0.265421
G02 X28.003951 Y4.344470 Z-1.000000 I0.242421 J0.729869
G02 X27.923988 Y4.390748 Z-1.000000 I0.280025 J0.576076
G03 X27.741144 Y4.469660 Z-1.000000 I-0.297254 J-0.437473
G02 X27.663526 Y4.430468 Z-1.000000 I-0.013422 J0.059187
G03 X27.624275 Y4.432774 Z-1.000000 I-0.024173 J-0.076248
G03 X27.560430 Y4.410648 Z-1.000000 I0.044390 J-0.231264
G02 X27.497566 Y4.391917 Z-1.000000 I-0.080743 J0.156127
G02 X27.456492 Y4.400018 Z-1.000000 I-0.007285 J0.071243
G03 X27.423540 Y4.408549 Z-1.000000 I-0.034051 J-0.063622
G02 X27.380442 Y4.265064 Z-1.000000 I-0.258324 J0.124340
G03 X27.345174 Y4.217811 Z-1.000000 I0.093109 J-0.106282
G03 X27.337852 Y4.172444 Z-1.000000 I0.077991 J-0.035861
G02 X27.329315 Y4.135766 Z-1.000000 I-0.055942 J-0.006311
G02 X27.295938 Y4.038624 Z-1.000000 I-0.067415 J-0.000870
G02 X27.278388 Y4.020807 Z-1.000000 I-0.043370 J0.025168
G03 X27.233158 Y4.013994 Z-1.000000 I0.017992 J-0.068064
G03 X27.216072 Y3.978792 Z-1.000000 I0.037654 J-0.040024
G03 X27.195708 Y3.811756 Z-1.000000 I0.177809 J-0.038170
G03 X27.226693 Y3.732928 Z-1.000000 I0.276986 J0.063371
G03 X27.198006 Y3.647282 Z-1.000000 I0.022251 J-0.055363
G02 X27.260443 Y3.583937 Z-1.000000 I-0.014969 J-0.056831
G03 X27.342468 Y3.404526 Z-1.000000 I0.151219 J0.072387
G03 X27.395323 Y3.371839 Z-1.000000 I0.095751 J0.095751
G03 X27.456572 Y3.366416 Z-1.000000 I0.041997 J0.125749
G02 X27.499663 Y3.356416 Z-1.000000 I0.008801 J-0.059917
G03 X27.532353 Y3.271183 Z-1.000000 I0.048177 J-0.015290
G03 X27.668364 Y3.243246 Z-1.000000 I0.113419 J0.207124
G02 X27.751826 Y3.240964 Z-1.000000 I0.032546 J-0.337055
G03 X27.767348 Y3.125821 Z-1.000000 I0.073176 J-0.045221
G03 X27.866716 Y3.112584 Z-1.000000 I0.057768 J0.054073
G02 X27.935856 Y3.104984 Z-1.000000 I-0.022782 J-0.203674
G03 X27.985593 Y3.098262 Z-1.000000 I0.039286 J0.103313
G03 X28.042901 Y3.115154 Z-1.000000 I-0.014806 J0.155891
G02 X28.079335 Y3.119282 Z-1.000000 I0.023605 J-0.045493
G02 X28.216250 Y3.019055 Z-1.000000 I0.000000 J-0.164441
G02 X28.259322 Y2.921326 Z-1.000000 I-0.089336 J-0.097729
G03 X28.341652 Y2.856306 Z-1.000000 I0.507514 J0.642971
G02 X28.418053 Y2.802117 Z-1.000000 I-0.389567 J-0.630210
G02 X28.499679 Y2.756068 Z-1.000000 I-0.000000 J-0.096597
G02 X28.724849 Y2.573770 Z-1.000000 I-1.359663 J-1.909635
G03 X28.775979 Y2.530870 Z-1.000000 I0.510063 J0.555991
G02 X28.827595 Y2.514717 Z-1.000000 I-0.001084 J-0.079967
G02 X28.934853 Y2.429490 Z-1.000000 I-0.411273 J-0.627688
G03 X28.964299 Y2.409105 Z-1.000000 I0.078978 J0.082623
G03 X28.988933 Y2.403490 Z-1.000000 I0.024634 J0.051230
G02 X29.043173 Y2.370530 Z-1.000000 I-0.063301 J-0.104154
G03 X29.073652 Y2.341037 Z-1.000000 I0.149983 J0.124503
G03 X29.174330 Y2.268742 Z-1.000000 I1.021937 J1.316893
G02 X29.277745 Y2.199341 Z-1.000000 I-6.271157 J-9.456427
G02 X29.398555 Y2.116466 Z-1.000000 I-8.730146 J-12.855782
G03 X29.520402 Y2.037571 Z-1.000000 I1.315744 J1.898512
G02 X29.576568 Y1.991856 Z-1.000000 I-0.113091 J-0.109326
G03 X29.602541 Y1.957276 Z-1.000000 I0.125344 J0.067101
G02 X29.759388 Y1.868366 Z-1.000000 I-1.049604 J-1.793804
G03 X29.881751 Y1.791708 Z-1.000000 I1.037186 J1.519587
G01 X29.903055 Y1.786036 Z-1.000000
G02 X29.951815 Y1.744876 Z-1.000000 I-0.093973 J-0.111326
G03 X29.981754 Y1.711351 Z-1.000000 I0.112228 J0.070093
G02 X30.065015 Y1.662556 Z-1.000000 I-0.105801 J-0.157736
G03 X30.104290 Y1.630127 Z-1.000000 I0.112774 J0.096585
G03 X30.137255 Y1.621396 Z-1.000000 I0.032965 J0.057864
G02 X30.177347 Y1.610561 Z-1.000000 I-0.000000 J-0.079591
G02 X30.399837 Y1.468293 Z-1.000000 I-1.622213 J-2.782057
G03 X30.473681 Y1.423267 Z-1.000000 I0.397106 J0.568196
G03 X30.497597 Y1.416763 Z-1.000000 I0.026526 J0.050320
G03 X30.595927 Y1.344673 Z-1.000000 I0.308517 J0.406619
G02 X30.998885 Y1.006301 Z-1.000000 I-0.614155 J-1.140502
G02 X30.989430 Y0.845724 Z-1.000000 I-0.095062 J-0.074970
G00 Z5.000000

(End cutting path id: path3879)


(Start cutting path id: path3879)
(Change tool to Default tool)

G00 Z5.000000

G01 Z-1.000000 F100.0(Penetrate)
G02 X29.175243 Y3.761855 Z-1.000000 I0.061018 J0.064386
G00 Z5.000000

(End cutting path id: path3879)


(Start cutting path id: path3879)
(Change tool to Default tool)

G00 Z5.000000
G00 X27.677906 Y3.197573

G01 Z-1.000000 F100.0(Penetrate)
G00 Z5.000000

(End cutting path id: path3879)


(Start cutting path id: path3879)
(Change tool to Default tool)

G00 Z5.000000

G01 Z-1.000000 F100.0(Penetrate)
G02 X26.925050 Y3.985682 Z-1.000000 I0.063137 J-0.029553
G03 X26.955289 Y4.014193 Z-1.000000 I-0.056084 J0.089776
G02 X26.960587 Y4.059726 Z-1.000000 I0.069922 J0.011155
G02 X26.972040 Y4.096572 Z-1.000000 I0.170192 J-0.032697
G03 X26.976906 Y4.131301 Z-1.000000 I-0.059792 J0.026083
G03 X26.963240 Y4.162562 Z-1.000000 I-0.061355 J-0.008205
G02 X26.948489 Y4.192958 Z-1.000000 I0.054493 J0.045221
G03 X26.951987 Y4.298942 Z-1.000000 I-0.289673 J-0.000729
G03 X26.929104 Y4.344706 Z-1.000000 I-0.101810 J-0.022304
G02 X26.832721 Y4.306923 Z-1.000000 I-0.211348 J0.097086
G03 X26.772557 Y4.246162 Z-1.000000 I0.079070 J-0.059324
G03 X26.772677 Y4.209614 Z-1.000000 I0.094761 J-0.017963
G03 X26.800449 Y4.177347 Z-1.000000 I0.082363 J-0.000000
G03 X26.811857 Y4.140962 Z-1.000000 I0.295306 J0.072608
G03 X26.777487 Y4.084322 Z-1.000000 I0.048109 J-0.032565
G03 X26.788106 Y4.041146 Z-1.000000 I0.093086 J0.000000
G02 X26.831507 Y3.960282 Z-1.000000 I-0.068105 J-0.023450
G03 X26.839394 Y3.906196 Z-1.000000 I0.069593 J-0.017470
G00 Z5.000000

(End cutting path id: path3879)


(Start cutting path id: path3879)
(Change tool to Default tool)

G00 Z5.000000

G01 Z-1.000000 F100.0(Penetrate)
G00 Z5.000000

(End cutting path id: path3879)


(Start cutting path id: path3879)
(Change tool to Default tool)

G00 Z5.000000

G01 Z-1.000000 F100.0(Penetrate)
G03 X25.960221 Y4.324451 Z-1.000000 I0.062119 J-0.002556
G03 X25.968212 Y4.362600 Z-1.000000 I-0.061569 J0.002686
G00 Z5.000000

(End cutting path id: path3879)


(Start cutting path id: path3879)
(Change tool to Default tool)

G00 Z5.000000
G00 X26.558492 Y6.777117

G01 Z-1.000000 F100.0(Penetrate)
G00 Z5.000000

(End cutting path id: path3879)


(Start cutting path id: path3879)
(Change tool to Default tool)

G00 Z5.000000

G01 Z-1.000000 F100.0(Penetrate)
G03 X26.598261 Y7.020682 Z-1.000000 I0.062108 J-0.002559
G03 X26.606252 Y7.058831 Z-1.000000 I-0.061569 J0.002686
G00 Z5.000000

(End cutting path id: path3879)


(Start cutting path id: path3879)
(Change tool to Default tool)

G00 Z5.000000

G01 Z-1.000000 F100.0(Penetrate)
G03 X26.514925 Y7.127016 Z-1.000000 I-0.081021 J0.025410
G02 X26.462439 Y7.102116 Z-1.000000 I-0.108582 J-0.000000
G02 X26.439265 Y7.176256 Z-1.000000 I0.429974 J0.053886
G03 X26.431422 Y7.270512 Z-1.000000 I-0.306160 J0.021979
G03 X26.406115 Y7.313037 Z-1.000000 I-0.081606 J-0.019772
G02 X26.375629 Y7.353870 Z-1.000000 I0.088676 J0.098003
G02 X26.365805 Y7.397057 Z-1.000000 I0.090017 J0.043187
G03 X26.354729 Y7.437971 Z-1.000000 I-0.081105 J0.000000
G03 X26.325405 Y7.466217 Z-1.000000 I-0.064647 J-0.037770
G02 X26.298111 Y7.492713 Z-1.000000 I0.032549 J0.060835
G03 X26.218275 Y7.572347 Z-1.000000 I-0.139239 J-0.196378
G02 X26.133213 Y7.604071 Z-1.000000 I0.175320 J0.599980
G03 X26.056092 Y7.614687 Z-1.000000 I0.008459 J-0.092777
G02 X26.013689 Y7.602204 Z-1.000000 I-0.043871 J0.070765
G03 X25.758402 Y7.623777 Z-1.000000 I-0.012490 J-0.051187
G03 X25.655042 Y7.568367 Z-1.000000 I0.000900 J-0.056170
G03 X25.645674 Y7.545156 Z-1.000000 I0.062733 J-0.038815
G03 X25.626942 Y7.438567 Z-1.000000 I1.350680 J-0.292311
G02 X25.779965 Y7.245348 Z-1.000000 I-0.177001 J-0.397457
G03 X25.897160 Y7.169621 Z-1.000000 I0.115072 J0.217581
G02 X25.963614 Y7.159191 Z-1.000000 I-0.064302 J-0.626611
G02 X26.000769 Y7.147681 Z-1.000000 I-0.044279 J-0.208660
G03 X26.035331 Y7.144102 Z-1.000000 I0.023358 J0.056891
G03 X26.071009 Y7.160741 Z-1.000000 I-0.014316 J0.077268
G02 X26.100319 Y7.172456 Z-1.000000 I0.032960 J-0.039941
G03 X26.196149 Y7.124731 Z-1.000000 I0.118862 J0.252282
G02 X26.264964 Y7.100852 Z-1.000000 I-0.045819 J-0.243138
G02 X26.315357 Y7.062331 Z-1.000000 I-0.086391 J-0.165238
G03 X26.362899 Y7.019889 Z-1.000000 I0.247488 J0.229380
G02 X26.416807 Y6.967561 Z-1.000000 I-0.099531 J-0.076459
G03 X26.452127 Y6.998431 Z-1.000000 I-0.046276 J0.052944
G02 X26.480680 Y7.065385 Z-1.000000 I0.250202 J-0.067133
G00 Z5.000000

(End cutting path id: path3879)


(Start cutting path id: path3879)
(Change tool to Default tool)

G00 Z5.000000

G01 Z-1.000000 F100.0(Penetrate)
G02 X25.666027 Y7.470040 Z-1.000000 I0.133950 J0.035866
G02 X25.717957 Y7.507770 Z-1.000000 I0.039195 J-0.053945
G02 X25.697107 Y7.416872 Z-1.000000 I-0.116479 J0.076321
G00 Z5.000000

(End cutting path id: path3879)


(Start cutting path id: path3879)
(Change tool to Default tool)

G00 Z5.000000

G01 Z-1.000000 F100.0(Penetrate)
G03 X27.395662 Y6.920507 Z-1.000000 I-0.218707 J-0.163922
G03 X27.419580 Y6.857654 Z-1.000000 I0.099828 J0.046331
G00 Z5.000000

(End cutting path id: path3879)


(Start cutting path id: path3879)
(Change tool to Default tool)

G00 Z5.000000

G01 Z-1.000000 F100.0(Penetrate)
G00 Z5.000000

(End cutting path id: path3879)


(Start cutting path id: path3879)
(Change tool to Default tool)

G00 Z5.000000
G00 X28.691566 Y8.846805

G01 Z-1.000000 F100.0(Penetrate)
G02 X28.729774 Y8.841532 Z-1.000000 I-0.046070 J-0.074501
G00 Z5.000000

(End cutting path id: path3879)


(Start cutting path id: path3879)
(Change tool to Default tool)

G00 Z5.000000

G01 Z-1.000000 F100.0(Penetrate)
G02 X28.828124 Y9.576176 Z-1.000000 I0.185351 J-0.349936 F3500.000000
G03 X28.856220 Y9.604340 Z-1.000000 I-0.072701 J0.030496
G02 X28.865971 Y9.642874 Z-1.000000 I0.081019 J0.000000
G03 X28.917960 Y9.712240 Z-1.000000 I-0.053826 J0.032685
G03 X29.013198 Y9.790602 Z-1.000000 I0.000000 J0.073461
G03 X29.052150 Y9.937350 Z-1.000000 I-0.072614 J0.037847
G02 X29.058976 Y9.991004 Z-1.000000 I0.107826 J0.013543
G02 X29.095550 Y10.046669 Z-1.000000 I0.153319 J-0.060889
G03 X29.168741 Y10.180032 Z-1.000000 I-0.192304 J0.192304
G03 X29.146020 Y10.274030 Z-1.000000 I-0.107273 J0.023815
G03 X28.701862 Y10.390320 Z-1.000000 I-0.719978 J-4.572617
G02 X28.393843 Y10.414569 Z-1.000000 I0.501024 J8.332448
G02 X28.269642 Y10.432410 Z-1.000000 I0.133408 J1.369985
G03 X27.867993 Y10.488871 Z-1.000000 I-0.781078 J-4.099532
G03 X27.821911 Y10.473300 Z-1.000000 I-0.005461 J-0.059813
G03 X27.847641 Y10.266087 Z-1.000000 I2.172007 J0.268198
G02 X27.887147 Y10.072931 Z-1.000000 I-10.981142 J-2.346562
G02 X27.888881 Y10.055011 Z-1.000000 I-0.091713 J-0.017920
G02 X27.920451 Y10.003821 Z-1.000000 I-0.107800 J-0.038526
G03 X27.929870 Y9.957892 Z-1.000000 I0.109723 J-0.001429
G02 X27.999885 Y9.930968 Z-1.000000 I-0.059210 J-0.073149
G02 X28.019971 Y9.872781 Z-1.000000 I-0.204071 J-0.103006
G03 X28.045017 Y9.829755 Z-1.000000 I0.075391 J0.015084
G03 X28.125581 Y9.734374 Z-1.000000 I0.075473 J0.022328
G02 X28.165208 Y9.703330 Z-1.000000 I-0.044438 J-0.097537
G02 X28.177031 Y9.669324 Z-1.000000 I-0.042993 J-0.034006
G03 X28.187153 Y9.637843 Z-1.000000 I0.054018 J0.000000
G02 X28.232697 Y9.620604 Z-1.000000 I-0.000000 J-0.050428
G02 X28.253191 Y9.600114 Z-1.000000 I-0.030237 J-0.050735
G03 X28.275429 Y9.580250 Z-1.000000 I0.043036 J0.025799
G03 X28.366237 Y9.548654 Z-1.000000 I0.215620 J0.473415
G03 X28.487843 Y9.537670 Z-1.000000 I0.096626 J0.391117
G02 X28.563972 Y9.531354 Z-1.000000 I-0.022844 J-0.050637
G03 X28.755429 Y9.546454 Z-1.000000 I-0.031125 J0.394534
G00 Z5.000000

(End cutting path id: path3879)


(Start cutting path id: path3879)
(Change tool to Default tool)

G00 Z5.000000

G01 Z-1.000000 F100.0(Penetrate)
G00 Z5.000000

(End cutting path id: path3879)


(Start cutting path id: path3879)
(Change tool to Default tool)

G00 Z5.000000

G01 Z-1.000000 F100.0(Penetrate)
G00 Z5.000000

(End cutting path id: path3879)


(Start cutting path id: path3879)
(Change tool to Default tool)

G00 Z5.000000

G01 Z-1.000000 F100.0(Penetrate)
G03 X30.021772 Y9.819378 Z-1.000000 I-0.154888 J-0.077256 F3500.000000
G03 X30.024628 Y9.727471 Z-1.000000 I0.288073 J0.055761
G03 X30.061216 Y9.677345 Z-1.000000 I0.155029 J0.074743
G03 X30.057538 Y9.771061 Z-1.000000 I-0.251865 J-0.048932
G00 Z5.000000

(End cutting path id: path3879)


(Start cutting path id: path3879)
(Change tool to Default tool)

G00 Z5.000000

G01 Z-1.000000 F100.0(Penetrate)
G03 X30.156940 Y9.568912 Z-1.000000 I0.074501 J0.046070
G00 Z5.000000

(End cutting path id: path3879)


(Start cutting path id: path3879)
(Change tool to Default tool)

G00 Z5.000000

G01 Z-1.000000 F100.0(Penetrate)
G03 X30.383331 Y9.033786 Z-1.000000 I0.074573 J0.046114
G00 Z5.000000

(End cutting path id: path3879)


(Start cutting path id: path3879)
(Change tool to Default tool)

G00 Z5.000000

G01 Z-1.000000 F100.0(Penetrate)
G03 X30.538625 Y8.881614 Z-1.000000 I-0.046058 J-0.028620 F3500.000000
G00 Z5.000000

(End cutting path id: path3879)


(Start cutting path id: path3879)
(Change tool to Default tool)

G00 Z5.000000
G00 X31.799437 Y6.890308

G01 Z-1.000000 F100.0(Penetrate)
G00 Z5.000000

(End cutting path id: path3879)


(Start cutting path id: path3879)
(Change tool to Default tool)

G00 Z5.000000

G01 Z-1.000000 F100.0(Penetrate)
G02 X31.861876 Y6.767371 Z-1.000000 I0.091838 J0.035221 F3500.000000
G02 X31.887487 Y6.747051 Z-1.000000 I-0.085447 J-0.057084
G00 Z5.000000

(End cutting path id: path3879)


(Start cutting path id: path3879)
(Change tool to Default tool)

G00 Z5.000000
G00 X27.973755 Y9.900780

G01 Z-1.000000 F100.0(Penetrate)
G03 X27.978742 Y9.863856 Z-1.000000 I0.066788 J0.025333
G03 X27.973755 Y9.900790 Z-1.000000 I-0.067023 J-0.025395
G00 Z5.000000

(End cutting path id: path3879)


(Start cutting path id: path3879)
(Change tool to Default tool)

G00 Z5.000000

G01 Z-1.000000 F100.0(Penetrate)
G00 Z5.000000

(End cutting path id: path3879)


(Start cutting path id: path3879)
(Change tool to Default tool)

G00 Z5.000000

G01 Z-1.000000 F100.0(Penetrate)
G03 X27.677954 Y10.558236 Z-1.000000 I-0.046081 J-0.024667 F3500.000000
G03 X27.690124 Y10.399530 Z-1.000000 I0.660877 J0.120126
G03 X27.717901 Y10.488623 Z-1.000000 I-0.325634 J0.027156
G03 X27.702574 Y10.535217 Z-1.000000 I-0.141530 J-0.020740
G00 Z5.000000

(End cutting path id: path3879)


(Start cutting path id: path3879)
(Change tool to Default tool)

G00 Z5.000000

G01 Z-1.000000 F100.0(Penetrate)
G02 X27.536765 Y11.184801 Z-1.000000 I0.151667 J-0.233915
G03 X27.583366 Y11.218431 Z-1.000000 I-0.038849 J0.102936
G03 X27.611385 Y11.276791 Z-1.000000 I-0.108487 J0.087991
G02 X27.631622 Y11.342718 Z-1.000000 I0.401407 J-0.087148
G03 X27.675698 Y11.410479 Z-1.000000 I-0.037650 J0.058804
G03 X27.703385 Y12.087249 Z-1.000000 I-8.308534 J0.678863
G03 X27.637619 Y12.775368 Z-1.000000 I-3.623038 J0.000935
G03 X27.488093 Y13.201708 Z-1.000000 I-1.519533 J-0.293539
G03 X27.324025 Y13.479718 Z-1.000000 I-2.896667 J-1.522058
G01 X27.306014 Y13.478112 Z-1.000000
G02 X27.240224 Y13.529562 Z-1.000000 I0.469085 J0.599033
G03 X26.946444 Y13.803726 Z-1.000000 I-7.346347 J-7.577481
G03 X26.808318 Y13.917533 Z-1.000000 I-1.401858 J-1.560693
G02 X26.784477 Y13.943247 Z-1.000000 I0.060136 J0.079665
G02 X27.033126 Y13.821284 Z-1.000000 I-2.126360 J-2.979059
G03 X27.586997 Y13.427904 Z-1.000000 I3.243306 J3.979902
G03 X27.771547 Y13.367177 Z-1.000000 I0.219964 J0.357683
G02 X27.814365 Y13.356283 Z-1.000000 I-0.011263 J-0.133865
G02 X27.878670 Y13.320087 Z-1.000000 I-0.151258 J-0.343938
G03 X27.943226 Y13.282330 Z-1.000000 I0.262374 J0.374537
G03 X28.043326 Y13.241077 Z-1.000000 I0.415080 J0.865108
G02 X28.145416 Y13.203426 Z-1.000000 I-0.947335 J-2.725936
G02 X28.180357 Y13.187567 Z-1.000000 I-0.129491 J-0.331715
G03 X28.871376 Y12.875640 Z-1.000000 I3.148402 J6.053340
G03 X29.559106 Y12.655287 Z-1.000000 I2.229533 J5.775076
G03 X30.130700 Y12.536373 Z-1.000000 I1.561276 J6.071522
