%
(Header)
(Generated by gcodetools from Inkscape.)
(Using default header. To add your own header create file "header" in the output dir.)
M3
(Header end.)
G21 (All units in mm)

(Start cutting path id: path182016)
(Change tool to Default tool)

G00 Z 5.0000
G00 X 6.4652 Y 0.7086

G01 Z -1.0000 F 100.0000(Penetrate)
G02 X 3.9138 Y 1.8067 Z -1.0000 I 0.7211 J 5.1888 F 3500.0000
G02 X 1.8163 Y 4.4277 Z -1.0000 I 4.7796 J 5.9745
G02 X 1.2669 Y 6.0328 Z -1.0000 I 6.1705 J 3.0089
G02 X 1.3211 Y 6.7982 Z -1.0000 I 1.3749 J 0.2872
G03 X 1.3600 Y 6.9147 Z -1.0000 I -2.2980 J 0.8321
G03 X 1.4867 Y 7.3389 Z -1.0000 I -30.3783 J 9.3033
G02 X 2.1616 Y 8.5074 Z -1.0000 I 2.7193 J -0.7915
G02 X 3.9452 Y 9.9032 Z -1.0000 I 5.7589 J -5.5212
G02 X 4.7086 Y 10.3121 Z -1.0000 I 7.2220 J -12.5663
G02 X 5.0618 Y 10.4590 Z -1.0000 I 1.2593 J -2.5299
G03 X 5.4100 Y 10.6082 Z -1.0000 I -0.7750 J 2.2894
G03 X 5.5905 Y 10.7365 Z -1.0000 I -0.3839 J 0.7314
G02 X 5.7648 Y 10.8721 Z -1.0000 I 0.8309 J -0.8879
G02 X 5.8601 Y 10.9094 Z -1.0000 I 0.1408 J -0.2195
G03 X 5.9611 Y 10.9392 Z -1.0000 I -0.0828 J 0.4667
G03 X 6.4652 Y 11.1641 Z -1.0000 I -5.0525 J 12.0064
G02 X 6.9664 Y 11.3987 Z -1.0000 I 41.2533 J -87.4685
G02 X 7.4278 Y 11.6113 Z -1.0000 I 34.3168 J -73.8536
G03 X 7.8899 Y 11.8226 Z -1.0000 I -1071.3719 J 2343.6624
G03 X 8.1979 Y 11.9635 Z -1.0000 I -481.8458 J 1053.6579
G03 X 8.5024 Y 12.1112 Z -1.0000 I -3.1740 J 6.9349
G03 X 8.6985 Y 12.2201 Z -1.0000 I -1.5275 J 2.9804
G02 X 8.8946 Y 12.3290 Z -1.0000 I 1.7195 J -2.8650
G02 X 9.6996 Y 12.7329 Z -1.0000 I 24.5265 J -47.8810
G03 X 10.5051 Y 13.1360 Z -1.0000 I -27.1137 J 55.1896
G03 X 10.8932 Y 13.3411 Z -1.0000 I -6.6307 J 13.0117
G02 X 11.2801 Y 13.5488 Z -1.0000 I 12.0463 J -21.9797
G02 X 11.8558 Y 13.8470 Z -1.0000 I 25.4302 J -48.3923
G03 X 13.3771 Y 14.7354 Z -1.0000 I -7.0793 J 13.8685
G03 X 13.4322 Y 14.8915 Z -1.0000 I -0.0759 J 0.1145
G02 X 13.4422 Y 15.0338 Z -1.0000 I 0.1843 J 0.0585
G02 X 13.8091 Y 15.6754 Z -1.0000 I 4.6787 J -2.2496
G02 X 14.6869 Y 16.7483 Z -1.0000 I 6.0669 J -4.0680
G02 X 15.2880 Y 17.1682 Z -1.0000 I 1.4519 J -1.4385
G03 X 15.6880 Y 17.3756 Z -1.0000 I -1.9152 J 4.1833
G03 X 15.7532 Y 17.4391 Z -1.0000 I -0.0944 J 0.1621
G02 X 15.8181 Y 17.5027 Z -1.0000 I 0.1617 J -0.0999
G02 X 16.1444 Y 17.6708 Z -1.0000 I 1.5827 J -2.6719
G03 X 16.3857 Y 17.8453 Z -1.0000 I -0.2893 J 0.6540
G03 X 16.3877 Y 17.9400 Z -1.0000 I -0.0536 J 0.0485
G02 X 16.3616 Y 18.0496 Z -1.0000 I 0.0979 J 0.0812
G02 X 16.4407 Y 18.1713 Z -1.0000 I 0.2056 J -0.0471
G02 X 16.6131 Y 18.2271 Z -1.0000 I 0.1678 J -0.2241
G02 X 17.9380 Y 18.1472 Z -1.0000 I -0.2420 J -15.0261
G02 X 18.3393 Y 18.0698 Z -1.0000 I -0.2481 J -2.3668
G01 X 18.3552 Y 18.0288 Z -1.0000
G01 X 18.3700 Y 17.9937 Z -1.0000
G03 X 18.5828 Y 17.9770 Z -1.0000 I 0.1634 J 0.7175
G03 X 18.8078 Y 18.0188 Z -1.0000 I -0.0662 J 0.9828
G01 X 18.8196 Y 18.0503 Z -1.0000
G02 X 18.9037 Y 18.2639 Z -1.0000 I 0.1219 J 0.0753
G02 X 19.8188 Y 18.3239 Z -1.0000 I 0.6044 J -2.2071
G03 X 20.1389 Y 18.3265 Z -1.0000 I 0.1511 J 1.1023
G03 X 20.2518 Y 18.3905 Z -1.0000 I -0.0278 J 0.1807
G02 X 20.3568 Y 18.4797 Z -1.0000 I 0.3076 J -0.2553
G02 X 20.4440 Y 18.5035 Z -1.0000 I 0.0872 J -0.1482
G03 X 20.5406 Y 18.5300 Z -1.0000 I 0.0000 J 0.1892
G03 X 21.7313 Y 19.2685 Z -1.0000 I -18.8807 J 31.7708
G02 X 22.1034 Y 19.4805 Z -1.0000 I 2.0625 J -3.1889
G02 X 22.2062 Y 19.5046 Z -1.0000 I 0.1028 J -0.2068
G03 X 22.3018 Y 19.5258 Z -1.0000 I 0.0000 J 0.2258
G03 X 22.3418 Y 19.5680 Z -1.0000 I -0.0336 J 0.0720
G02 X 22.3831 Y 19.6173 Z -1.0000 I 0.0973 J -0.0394
G02 X 22.8680 Y 19.8999 Z -1.0000 I 4.2592 J -6.7519
G03 X 23.8666 Y 20.4546 Z -1.0000 I -18.5772 J 34.6240
G03 X 25.6596 Y 21.5039 Z -1.0000 I -64.7464 J 112.6835
G02 X 25.9152 Y 21.6177 Z -1.0000 I 0.6042 J -1.0137
G01 X 25.9484 Y 21.5932 Z -1.0000
G03 X 26.1165 Y 21.2593 Z -1.0000 I 0.4157 J -0.0000
G03 X 26.3648 Y 21.2846 Z -1.0000 I 0.1102 J 0.1487
G03 X 26.3851 Y 21.3178 Z -1.0000 I -0.0810 J 0.0724
G03 X 26.4505 Y 21.5062 Z -1.0000 I -2.6595 J 1.0287
G03 X 26.4399 Y 21.5936 Z -1.0000 I -0.1031 J 0.0318
G01 X 26.3932 Y 21.6015 Z -1.0000
G02 X 26.2825 Y 21.5660 Z -1.0000 I -0.0996 J 0.1200
G02 X 26.1843 Y 21.6165 Z -1.0000 I 0.0100 J 0.1403
G02 X 26.1381 Y 21.9469 Z -1.0000 I 0.2441 J 0.2026
G02 X 26.3470 Y 21.9860 Z -1.0000 I 0.1179 J -0.0519
G03 X 26.5462 Y 21.9557 Z -1.0000 I 0.1202 J 0.1202
G03 X 26.9018 Y 22.2768 Z -1.0000 I -0.4467 J 0.8521
G03 X 26.9648 Y 22.5296 Z -1.0000 I -0.3255 J 0.2154
G03 X 26.8645 Y 22.6653 Z -1.0000 I -0.1630 J -0.0157
G02 X 26.6921 Y 22.7862 Z -1.0000 I 0.1854 J 0.4475
G02 X 26.6759 Y 22.8718 Z -1.0000 I 0.0612 J 0.0559
G03 X 26.7036 Y 22.9853 Z -1.0000 I -0.4286 J 0.1645
G03 X 26.7185 Y 23.2525 Z -1.0000 I -2.3927 J 0.2672
G02 X 26.7846 Y 23.4767 Z -1.0000 I 0.4127 J 0.0000
G02 X 26.9495 Y 23.6096 Z -1.0000 I 0.2845 J -0.1840
G03 X 27.1444 Y 23.7218 Z -1.0000 I -0.2471 J 0.6546
G03 X 27.1805 Y 23.7979 Z -1.0000 I -0.0620 J 0.0761
G02 X 27.2113 Y 23.8768 Z -1.0000 I 0.1165 J 0.0000
G02 X 27.3153 Y 23.9443 Z -1.0000 I 0.1836 J -0.1690
G03 X 27.4481 Y 23.9946 Z -1.0000 I -0.6059 J 1.8001
G03 X 27.7581 Y 24.1312 Z -1.0000 I -4.2065 J 9.9636
G02 X 28.0716 Y 24.2196 Z -1.0000 I 0.4371 J -0.9510
G02 X 28.3691 Y 24.2039 Z -1.0000 I 0.1033 J -0.8690
G03 X 28.6672 Y 24.1715 Z -1.0000 I 0.2886 J 1.2683
G03 X 28.8069 Y 24.2071 Z -1.0000 I -0.0022 J 0.3004
G02 X 28.9468 Y 24.2585 Z -1.0000 I 0.2541 J -0.4747
G02 X 29.1392 Y 24.2792 Z -1.0000 I 0.1924 J -0.8867
G02 X 29.2803 Y 24.2227 Z -1.0000 I 0.0000 J -0.2047
G02 X 29.3368 Y 24.0910 Z -1.0000 I -0.1254 J -0.1317
G02 X 29.2941 Y 23.9251 Z -1.0000 I -0.3441 J 0.0000
G02 X 29.1681 Y 23.7847 Z -1.0000 I -0.3650 J 0.2010
G03 X 29.1705 Y 23.6880 Z -1.0000 I 0.0333 J -0.0476
G03 X 29.3206 Y 23.6889 Z -1.0000 I 0.0743 J 0.1182
G02 X 29.5326 Y 23.8177 Z -1.0000 I 2.4921 J -3.8617
G02 X 29.7692 Y 23.9452 Z -1.0000 I 2.6731 J -4.6784
G03 X 29.9658 Y 24.1092 Z -1.0000 I -0.2582 J 0.5093
G03 X 30.2686 Y 24.6032 Z -1.0000 I -2.3271 J 1.7662
G02 X 30.5395 Y 25.1292 Z -1.0000 I 10.6624 J -5.1581
G02 X 30.5793 Y 25.1712 Z -1.0000 I 0.0993 J -0.0543
G02 X 30.6808 Y 25.1052 Z -1.0000 I 0.0352 J -0.0569
G02 X 30.4879 Y 24.4979 Z -1.0000 I -1.8378 J 0.2496
G01 X 30.5065 Y 24.4644 Z -1.0000
G03 X 30.5827 Y 24.4909 Z -1.0000 I 0.0075 J 0.1013
G02 X 30.7827 Y 24.6350 Z -1.0000 I 0.7045 J -0.7672
G02 X 30.8956 Y 24.6642 Z -1.0000 I 0.1129 J -0.2040
G03 X 31.0109 Y 24.6874 Z -1.0000 I 0.0000 J 0.2978
G03 X 31.1250 Y 24.7604 Z -1.0000 I -0.1529 J 0.3643
G02 X 31.3832 Y 24.9553 Z -1.0000 I 1.1476 J -1.2520
G02 X 31.7240 Y 25.1287 Z -1.0000 I 1.2430 J -2.0220
G03 X 31.9161 Y 25.2088 Z -1.0000 I -7.9310 J 19.3010
G03 X 32.0321 Y 25.2589 Z -1.0000 I -2.9914 J 7.0783
G02 X 32.1499 Y 25.2999 Z -1.0000 I 0.3107 J -0.7027
G02 X 32.2484 Y 25.3150 Z -1.0000 I 0.1229 J -0.4741
G03 X 32.3354 Y 25.3487 Z -1.0000 I -0.0075 J 0.1481
G03 X 32.5950 Y 25.6011 Z -1.0000 I -1.4204 J 1.7206
G02 X 34.0779 Y 26.5598 Z -1.0000 I 2.4169 J -2.1123
G02 X 36.3468 Y 26.7421 Z -1.0000 I 1.5517 J -5.1026
G02 X 37.2531 Y 26.5081 Z -1.0000 I -0.5354 J -3.9454
G02 X 37.9002 Y 26.1387 Z -1.0000 I -0.9137 J -2.3521
G02 X 38.6051 Y 25.4706 Z -1.0000 I -3.2784 J -4.1648
G02 X 38.9821 Y 24.9063 Z -1.0000 I -1.9451 J -1.7075
G02 X 39.1662 Y 24.3825 Z -1.0000 I -2.0911 J -1.0295
G02 X 39.2324 Y 23.7802 Z -1.0000 I -2.7099 J -0.6023
G02 X 39.0706 Y 22.8509 Z -1.0000 I -2.7503 J 0.0000
G02 X 38.5582 Y 21.9024 Z -1.0000 I -3.3817 J 1.2140
G02 X 38.0401 Y 21.3349 Z -1.0000 I -3.2650 J 2.4608
G02 X 37.8122 Y 21.2257 Z -1.0000 I -0.2971 J 0.3275
G03 X 37.7019 Y 21.2051 Z -1.0000 I 0.3237 J -2.0373
G03 X 37.5234 Y 21.1635 Z -1.0000 I 1.1393 J -5.2926
G02 X 37.3742 Y 21.1555 Z -1.0000 I -0.0951 J 0.3790
G01 X 37.3456 Y 21.1884 Z -1.0000
G03 X 37.2270 Y 21.3487 Z -1.0000 I -0.1677 J 0.0000
G03 X 37.0034 Y 21.2929 Z -1.0000 I -0.0654 J -0.2140
G01 X 36.9950 Y 21.2489 Z -1.0000
G03 X 37.0781 Y 21.1196 Z -1.0000 I 0.4316 J 0.1860
G02 X 37.1383 Y 20.9792 Z -1.0000 I -0.1746 J -0.1580
G02 X 37.1047 Y 20.7668 Z -1.0000 I -0.4660 J -0.0351
G02 X 37.0228 Y 20.6641 Z -1.0000 I -0.2165 J 0.0888
G01 X 36.9812 Y 20.6799 Z -1.0000
G03 X 36.8880 Y 20.7199 Z -1.0000 I -0.0614 J -0.0146
G03 X 36.8066 Y 20.5782 Z -1.0000 I 0.0826 J -0.1417
G02 X 36.7685 Y 20.4667 Z -1.0000 I -0.1822 J -0.0000
G02 X 36.6911 Y 20.4287 Z -1.0000 I -0.0775 J 0.0599
G03 X 36.6024 Y 20.4019 Z -1.0000 I -0.0000 J -0.1598
G03 X 36.5756 Y 20.3517 Z -1.0000 I 0.0334 J -0.0502
G02 X 36.5487 Y 20.3015 Z -1.0000 I -0.0603 J 0.0000
G02 X 36.4600 Y 20.2747 Z -1.0000 I -0.0887 J 0.1330
G03 X 36.3696 Y 20.2496 Z -1.0000 I 0.0000 J -0.1754
G03 X 36.3445 Y 20.2052 Z -1.0000 I 0.0267 J -0.0444
G02 X 36.3182 Y 20.1537 Z -1.0000 I -0.0636 J 0.0000
G02 X 36.1328 Y 20.0523 Z -1.0000 I -0.4960 J 0.6869
G03 X 35.9236 Y 19.9634 Z -1.0000 I 1.5746 J -3.9965
G03 X 35.8055 Y 19.9029 Z -1.0000 I 0.6078 J -1.3315
G02 X 35.6899 Y 19.8371 Z -1.0000 I -20.3574 J 35.6381
G02 X 35.5359 Y 19.7501 Z -1.0000 I -36.6330 J 64.6159
G03 X 35.3830 Y 19.6614 Z -1.0000 I 3.6613 J -6.4940
G03 X 34.4810 Y 19.1219 Z -1.0000 I 134.8282 J -226.4157
G02 X 33.5747 Y 18.5999 Z -1.0000 I -14.4876 J 24.1095
G02 X 33.4991 Y 18.5805 Z -1.0000 I -0.0755 J 0.1370
G03 X 33.4000 Y 18.4837 Z -1.0000 I 0.0000 J -0.0992
G03 X 33.4927 Y 18.3125 Z -1.0000 I 0.1956 J -0.0047
G02 X 33.5614 Y 18.1467 Z -1.0000 I -0.0807 J -0.1306
G02 X 33.2835 Y 17.4254 Z -1.0000 I -2.7719 J 0.6536
G02 X 33.0420 Y 17.1323 Z -1.0000 I -0.9018 J 0.4971
G02 X 32.5724 Y 16.8311 Z -1.0000 I -1.4257 J 1.7062
G02 X 32.0364 Y 16.6578 Z -1.0000 I -0.9223 J 1.9365
G02 X 31.3105 Y 16.6001 Z -1.0000 I -0.6453 J 3.5248
G03 X 30.5837 Y 16.5939 Z -1.0000 I -0.2635 J -11.6848
G01 X 30.5496 Y 16.5700 Z -1.0000
G02 X 30.5194 Y 16.5323 Z -1.0000 I -0.0791 J 0.0324
G02 X 29.2983 Y 15.6985 Z -1.0000 I -45.7341 J 65.6590
G03 X 25.5430 Y 13.1333 Z -1.0000 I 135.0778 J -201.7776
G03 X 24.5385 Y 12.3813 Z -1.0000 I 10.5697 J -15.1665
G02 X 24.0010 Y 11.9863 Z -1.0000 I -4.8813 J 6.0792
G02 X 23.9072 Y 11.9578 Z -1.0000 I -0.0938 J 0.1397
G03 X 23.8665 Y 11.9447 Z -1.0000 I -0.0000 J -0.0699
G03 X 23.2964 Y 11.5202 Z -1.0000 I 11.2399 J -15.6910
G03 X 22.8300 Y 11.0268 Z -1.0000 I 1.3451 J -1.7388
G03 X 22.6786 Y 10.6216 Z -1.0000 I 0.7353 J -0.5055
G02 X 22.5737 Y 10.1785 Z -1.0000 I -1.8933 J 0.2142
G02 X 22.3262 Y 9.6628 Z -1.0000 I -2.8228 J 1.0375
G02 X 21.8506 Y 9.1353 Z -1.0000 I -1.6022 J 0.9663
G02 X 21.1192 Y 8.7525 Z -1.0000 I -1.5220 J 2.0181
G02 X 20.5117 Y 8.6127 Z -1.0000 I -1.0618 J 3.2246
G02 X 19.9072 Y 8.5888 Z -1.0000 I -0.4278 J 3.1685
G03 X 19.3231 Y 8.5491 Z -1.0000 I -0.1317 J -2.3793
G03 X 19.1063 Y 8.4340 Z -1.0000 I 0.0796 J -0.4116
G02 X 17.3490 Y 6.8920 Z -1.0000 I -12.6917 J 12.6917
G02 X 15.9566 Y 6.0143 Z -1.0000 I -5.4199 J 7.0553
G03 X 15.8046 Y 5.9133 Z -1.0000 I 0.3536 J -0.6964
G03 X 15.7833 Y 5.8672 Z -1.0000 I 0.0391 J -0.0461
G02 X 15.4256 Y 5.1654 Z -1.0000 I -0.8673 J 0.0000
G02 X 14.7837 Y 5.1415 Z -1.0000 I -0.3387 J 0.4665
G03 X 14.7244 Y 5.1470 Z -1.0000 I -0.0351 J -0.0567
G03 X 14.6601 Y 5.0934 Z -1.0000 I 0.0480 J -0.1230
G01 X 14.6676 Y 5.0636 Z -1.0000
G01 X 14.7125 Y 5.0633 Z -1.0000
G01 X 14.7250 Y 5.0467 Z -1.0000
G02 X 14.1937 Y 4.5465 Z -1.0000 I -9.1340 J 9.1688
G02 X 14.0191 Y 4.4206 Z -1.0000 I -0.7001 J 0.7868
G02 X 13.9080 Y 4.3820 Z -1.0000 I -0.1566 J 0.2721
G03 X 13.7988 Y 4.3399 Z -1.0000 I 0.0382 J -0.2615
G03 X 13.5213 Y 4.1222 Z -1.0000 I 1.3421 J -1.9975
G02 X 13.2754 Y 3.9648 Z -1.0000 I -0.5845 J 0.6423
G01 X 13.2126 Y 3.9915 Z -1.0000
G02 X 13.2038 Y 4.0796 Z -1.0000 I 0.1565 J 0.0600
G01 X 13.2314 Y 4.1029 Z -1.0000
G03 X 13.2859 Y 4.1214 Z -1.0000 I 0.0000 J 0.0896
G03 X 13.6718 Y 4.4407 Z -1.0000 I -4.1278 J 5.3803
G02 X 14.0559 Y 4.7722 Z -1.0000 I 10.3066 J -11.5560
G02 X 14.3971 Y 5.0462 Z -1.0000 I 7.3817 J -8.8435
G03 X 14.7020 Y 5.3288 Z -1.0000 I -1.4165 J 1.8344
G03 X 14.7225 Y 5.4071 Z -1.0000 I -0.0654 J 0.0589
G01 X 14.7374 Y 5.4501 Z -1.0000
G01 X 14.7787 Y 5.4527 Z -1.0000
G03 X 15.0690 Y 5.4514 Z -1.0000 I 0.1462 J 0.2366
G03 X 15.1190 Y 5.6588 Z -1.0000 I -0.0778 J 0.1285
G01 X 15.1238 Y 5.6865 Z -1.0000
G01 X 15.1562 Y 5.6884 Z -1.0000
G03 X 15.5937 Y 5.7284 Z -1.0000 I 0.1922 J 0.3110
G03 X 15.7236 Y 6.2022 Z -1.0000 I -0.3067 J 0.3388
G01 X 15.7359 Y 6.2274 Z -1.0000
G01 X 15.7788 Y 6.2234 Z -1.0000
G03 X 15.8523 Y 6.2224 Z -1.0000 I 0.0376 J 0.0608
G03 X 16.2651 Y 6.5064 Z -1.0000 I -1.6706 J 2.8700
G02 X 16.6774 Y 6.8336 Z -1.0000 I 22.2379 J -27.6016
G02 X 16.8791 Y 6.9863 Z -1.0000 I 5.0424 J -6.4525
G03 X 17.0354 Y 7.1452 Z -1.0000 I -0.4104 J 0.5600
G03 X 17.0374 Y 7.2099 Z -1.0000 I -0.0479 J 0.0339
G01 X 17.0421 Y 7.2336 Z -1.0000
G01 X 17.0715 Y 7.2347 Z -1.0000
G03 X 17.4055 Y 7.2521 Z -1.0000 I 0.1544 J 0.2499
G03 X 17.5337 Y 7.5919 Z -1.0000 I -0.2118 J 0.2740
G02 X 17.5594 Y 7.6467 Z -1.0000 I 0.0504 J 0.0098
G02 X 17.6892 Y 7.6777 Z -1.0000 I 0.1210 J -0.2196
G03 X 17.8002 Y 7.7388 Z -1.0000 I 0.0044 J 0.1234
G03 X 17.7866 Y 7.8444 Z -1.0000 I -0.0753 J 0.0440
G01 X 17.7859 Y 7.8892 Z -1.0000
G02 X 17.8579 Y 7.9203 Z -1.0000 I 0.0720 J -0.0677
G02 X 17.9499 Y 7.8884 Z -1.0000 I 0.0000 J -0.1485
G01 X 17.9591 Y 7.8406 Z -1.0000
G01 X 17.9689 Y 7.8322 Z -1.0000
G03 X 18.1879 Y 8.0251 Z -1.0000 I -2.1091 J 2.6152
G03 X 18.4148 Y 8.3002 Z -1.0000 I -1.0712 J 1.1144
G03 X 18.4242 Y 8.3905 Z -1.0000 I -0.0841 J 0.0544
G03 X 18.3702 Y 8.4465 Z -1.0000 I -0.0931 J -0.0357
G03 X 18.3046 Y 8.4415 Z -1.0000 I -0.0281 J -0.0657
G01 X 18.2801 Y 8.4479 Z -1.0000
G01 X 18.2810 Y 8.4842 Z -1.0000
G02 X 18.3480 Y 8.5198 Z -1.0000 I 0.0639 J -0.0395
G02 X 18.4617 Y 8.4768 Z -1.0000 I -0.0079 J -0.1930
G03 X 18.5167 Y 8.4556 Z -1.0000 I 0.0604 J 0.0746
G01 X 18.5273 Y 8.4731 Z -1.0000
G02 X 18.5104 Y 8.5462 Z -1.0000 I 0.1043 J 0.0627
G01 X 18.5356 Y 8.5694 Z -1.0000
G02 X 18.5958 Y 8.5538 Z -1.0000 I 0.0000 J -0.1245
G02 X 18.7097 Y 8.4731 Z -1.0000 I -0.3033 J -0.5486
G01 X 18.7241 Y 8.4783 Z -1.0000
G01 X 18.7157 Y 8.5116 Z -1.0000
G03 X 18.5972 Y 8.6131 Z -1.0000 I -0.2913 J -0.2204
G03 X 18.4646 Y 8.6464 Z -1.0000 I -0.1326 J -0.2470
G02 X 18.3716 Y 8.6777 Z -1.0000 I 0.0000 J 0.1539
G01 X 18.3631 Y 8.7234 Z -1.0000
G01 X 18.3321 Y 8.7617 Z -1.0000
G03 X 18.2007 Y 8.6656 Z -1.0000 I 0.0955 J -0.2683
G02 X 18.1229 Y 8.6068 Z -1.0000 I -0.1433 J 0.1088
G01 X 18.0960 Y 8.6247 Z -1.0000
G03 X 18.0613 Y 8.6734 Z -1.0000 I -0.0535 J -0.0014
G03 X 17.9588 Y 8.6762 Z -1.0000 I -0.0553 J -0.1474
G01 X 17.9368 Y 8.6962 Z -1.0000
G02 X 17.9780 Y 8.7652 Z -1.0000 I 0.1228 J -0.0265
G03 X 18.0028 Y 8.8312 Z -1.0000 I -0.0473 J 0.0554
G01 X 17.9645 Y 8.8572 Z -1.0000
G02 X 17.8580 Y 8.8711 Z -1.0000 I -0.0349 J 0.1483
G01 X 17.8380 Y 8.9246 Z -1.0000
G03 X 17.8370 Y 9.0025 Z -1.0000 I -0.0981 J 0.0377
G01 X 17.7937 Y 9.0314 Z -1.0000
G03 X 17.7314 Y 9.0085 Z -1.0000 I -0.0000 J -0.0961
G03 X 17.7085 Y 8.9588 Z -1.0000 I 0.0423 J -0.0497
G02 X 17.6352 Y 8.8929 Z -1.0000 I -0.0663 J 0.0000
G02 X 17.3039 Y 9.0018 Z -1.0000 I 0.0877 J 0.8256
G01 X 17.2905 Y 8.9897 Z -1.0000
G03 X 17.3546 Y 8.8906 Z -1.0000 I 0.3691 J 0.1684
G02 X 17.4468 Y 8.7481 Z -1.0000 I -0.4385 J -0.3846
G01 X 17.4309 Y 8.7234 Z -1.0000
G02 X 17.2054 Y 8.8547 Z -1.0000 I 0.0000 J 0.2592
G02 X 17.2103 Y 9.1122 Z -1.0000 I 0.2197 J 0.1247
G01 X 17.2050 Y 9.1698 Z -1.0000
G03 X 17.0781 Y 9.2582 Z -1.0000 I -0.2549 J -0.2307
G02 X 17.0051 Y 9.3118 Z -1.0000 I 0.0676 J 0.1686
G01 X 17.0154 Y 9.3348 Z -1.0000
G01 X 17.0290 Y 9.3662 Z -1.0000
G03 X 16.8806 Y 9.4926 Z -1.0000 I -0.4703 J -0.4016
G02 X 16.6701 Y 9.6675 Z -1.0000 I 0.4906 J 0.8046
G02 X 16.6304 Y 9.7713 Z -1.0000 I 0.1155 J 0.1038
G01 X 16.5912 Y 9.8168 Z -1.0000
G03 X 16.4956 Y 9.7917 Z -1.0000 I -0.0186 J -0.1233
G01 X 16.4682 Y 9.7933 Z -1.0000
G01 X 16.4665 Y 9.8207 Z -1.0000
G02 X 16.5920 Y 9.8645 Z -1.0000 I 0.0968 J -0.0759
G02 X 16.7074 Y 9.7630 Z -1.0000 I -0.0383 J -0.1599
G03 X 16.7990 Y 9.5971 Z -1.0000 I 0.6288 J 0.2391
G03 X 16.8525 Y 9.5705 Z -1.0000 I 0.0535 J 0.0403
G01 X 16.8762 Y 9.6007 Z -1.0000
G03 X 16.7756 Y 9.8785 Z -1.0000 I -1.3949 J -0.3479
G03 X 16.6060 Y 10.1534 Z -1.0000 I -1.4184 J -0.6853
G03 X 16.5387 Y 10.1865 Z -1.0000 I -0.0673 J -0.0517
G02 X 16.4974 Y 10.2059 Z -1.0000 I 0.0000 J 0.0537
G01 X 16.4988 Y 10.2346 Z -1.0000
G01 X 16.5064 Y 10.2819 Z -1.0000
G03 X 16.4117 Y 10.4079 Z -1.0000 I -0.3955 J -0.1987
G02 X 16.3853 Y 10.4493 Z -1.0000 I 0.0661 J 0.0713
G01 X 16.3957 Y 10.4574 Z -1.0000
G01 X 16.4130 Y 10.4702 Z -1.0000
G03 X 16.3698 Y 10.5518 Z -1.0000 I -0.2050 J -0.0563
G03 X 16.2187 Y 10.6836 Z -1.0000 I -0.5184 J -0.4420
G03 X 16.1633 Y 10.6840 Z -1.0000 I -0.0280 J -0.0438
G02 X 16.1101 Y 10.6804 Z -1.0000 I -0.0300 J 0.0486
G02 X 16.0462 Y 10.7362 Z -1.0000 I 0.0585 J 0.1314
G01 X 16.0494 Y 10.7675 Z -1.0000
G01 X 16.0794 Y 10.7715 Z -1.0000
G03 X 16.1443 Y 10.7595 Z -1.0000 I 0.0477 J 0.0772
G01 X 16.1683 Y 10.7886 Z -1.0000
G03 X 16.0663 Y 10.9927 Z -1.0000 I -0.2550 J -0.0000
G03 X 15.9110 Y 10.9816 Z -1.0000 I -0.0713 J -0.0951
G01 X 15.8834 Y 10.9868 Z -1.0000
G02 X 15.8603 Y 11.0978 Z -1.0000 I 0.2544 J 0.1110
G03 X 15.8289 Y 11.2333 Z -1.0000 I -0.3086 J -0.0000
G03 X 15.7787 Y 11.2647 Z -1.0000 I -0.0502 J -0.0245
G01 X 15.7397 Y 11.2410 Z -1.0000
G01 X 15.7415 Y 11.1930 Z -1.0000
G02 X 15.7503 Y 11.1297 Z -1.0000 I -0.0675 J -0.0417
G02 X 15.7075 Y 11.0729 Z -1.0000 I -0.0944 J 0.0267
G01 X 15.6580 Y 11.0761 Z -1.0000
G02 X 15.6293 Y 11.1364 Z -1.0000 I 0.0488 J 0.0603
G03 X 15.5274 Y 11.3108 Z -1.0000 I -0.2003 J -0.0000
G03 X 15.3271 Y 11.3068 Z -1.0000 I -0.0967 J -0.1715
G01 X 15.2930 Y 11.3129 Z -1.0000
G02 X 15.2699 Y 11.3802 Z -1.0000 I 0.0862 J 0.0673
G02 X 15.2927 Y 11.4480 Z -1.0000 I 0.1124 J 0.0000
G01 X 15.3260 Y 11.4542 Z -1.0000
G01 X 15.3696 Y 11.4567 Z -1.0000
G03 X 15.4253 Y 11.5322 Z -1.0000 I -0.1088 J 0.1386
G03 X 15.3747 Y 11.6744 Z -1.0000 I -0.1084 J 0.0416
G03 X 15.2368 Y 11.6403 Z -1.0000 I -0.0511 J -0.0891
G02 X 15.1920 Y 11.6134 Z -1.0000 I -0.0493 J 0.0312
G01 X 15.1684 Y 11.6350 Z -1.0000
G03 X 15.1372 Y 11.6821 Z -1.0000 I -0.0522 J -0.0006
G03 X 15.0709 Y 11.6780 Z -1.0000 I -0.0291 J -0.0661
G01 X 15.0540 Y 11.6891 Z -1.0000
G02 X 15.0803 Y 11.7504 Z -1.0000 I 0.1215 J -0.0158
G02 X 15.1769 Y 11.8184 Z -1.0000 I 0.1683 J -0.1366
G01 X 15.1983 Y 11.7918 Z -1.0000
G01 X 15.2023 Y 11.7618 Z -1.0000
G01 X 15.2335 Y 11.7586 Z -1.0000
G03 X 15.2844 Y 11.8236 Z -1.0000 I -0.0628 J 0.1016
G03 X 15.2762 Y 11.8912 Z -1.0000 I -0.0772 J 0.0249
G03 X 15.2249 Y 11.9349 Z -1.0000 I -0.0934 J -0.0577
G01 X 15.1884 Y 11.9276 Z -1.0000
G01 X 15.1497 Y 11.9244 Z -1.0000
G02 X 15.0062 Y 12.0573 Z -1.0000 I 0.4423 J 0.6219
G03 X 14.8903 Y 12.1521 Z -1.0000 I -0.3052 J -0.2548
G01 X 14.8617 Y 12.1356 Z -1.0000
G03 X 14.8790 Y 12.0546 Z -1.0000 I 0.1752 J -0.0049
G03 X 14.9258 Y 12.0026 Z -1.0000 I 0.1124 J 0.0542
G02 X 15.0107 Y 11.8077 Z -1.0000 I -0.0980 J -0.1586
G02 X 14.8137 Y 11.4393 Z -1.0000 I -0.7057 J 0.1404
G02 X 14.7113 Y 11.4242 Z -1.0000 I -0.0613 J 0.0613
G02 X 14.6555 Y 11.5244 Z -1.0000 I 0.0504 J 0.0937
G02 X 14.7065 Y 11.6470 Z -1.0000 I 0.2026 J -0.0123
G02 X 14.7821 Y 11.6666 Z -1.0000 I 0.0524 J -0.0467
G01 X 14.8020 Y 11.6863 Z -1.0000
G03 X 14.7436 Y 11.7804 Z -1.0000 I -0.2310 J -0.0782
G03 X 14.6105 Y 11.8601 Z -1.0000 I -0.2253 J -0.2249
G01 X 14.5654 Y 11.8343 Z -1.0000
G02 X 14.5163 Y 11.7571 Z -1.0000 I -0.1373 J 0.0331
G02 X 14.3734 Y 11.6807 Z -1.0000 I -0.2771 J 0.3464
G03 X 13.8898 Y 11.4131 Z -1.0000 I 0.4248 J -1.3384
G03 X 13.7810 Y 11.1781 Z -1.0000 I 0.1993 J -0.2350
G01 X 13.8036 Y 11.1548 Z -1.0000
G03 X 14.1147 Y 11.1672 Z -1.0000 I 0.0704 J 2.1482
G02 X 14.3970 Y 11.1472 Z -1.0000 I 0.0871 J -0.7729
G02 X 14.4484 Y 11.0807 Z -1.0000 I -0.0172 J -0.0665
G02 X 14.3927 Y 11.0124 Z -1.0000 I -0.0698 J 0.0000
G02 X 13.8452 Y 10.9566 Z -1.0000 I -0.5475 J 2.6618
G03 X 13.3150 Y 10.8836 Z -1.0000 I 0.0000 J -1.9607
G03 X 13.2420 Y 10.7872 Z -1.0000 I 0.0271 J -0.0964
G02 X 13.2047 Y 10.7077 Z -1.0000 I -0.1035 J 0.0000
G01 X 13.1496 Y 10.7102 Z -1.0000
G03 X 12.8928 Y 10.8073 Z -1.0000 I -0.2359 J -0.2359
G03 X 12.7799 Y 10.6871 Z -1.0000 I 0.0075 J -0.1202
G02 X 12.7531 Y 10.5984 Z -1.0000 I -0.1598 J -0.0000
G02 X 12.7029 Y 10.5716 Z -1.0000 I -0.0502 J 0.0334
G02 X 12.6491 Y 10.5948 Z -1.0000 I -0.0000 J 0.0740
G02 X 12.6259 Y 10.6531 Z -1.0000 I 0.0618 J 0.0583
G01 X 12.6003 Y 10.6888 Z -1.0000
G03 X 12.5407 Y 10.6820 Z -1.0000 I -0.0226 J -0.0667
G03 X 12.5143 Y 10.6294 Z -1.0000 I 0.0295 J -0.0477
G03 X 12.5506 Y 10.5706 Z -1.0000 I 0.0768 J 0.0068
G02 X 12.6034 Y 10.5018 Z -1.0000 I -0.0644 J -0.1042
G02 X 12.5937 Y 10.4278 Z -1.0000 I -0.0870 J -0.0263
G03 X 12.5753 Y 10.3427 Z -1.0000 I 0.1112 J -0.0687
G03 X 12.6237 Y 10.1907 Z -1.0000 I 0.4352 J 0.0550
G02 X 12.6695 Y 10.0316 Z -1.0000 I -0.3484 J -0.1865
G02 X 12.6559 Y 9.7271 Z -1.0000 I -1.3369 J -0.0929
G02 X 12.5511 Y 9.4811 Z -1.0000 I -0.5457 J 0.0873
G02 X 12.4211 Y 9.4165 Z -1.0000 I -0.1299 J 0.0982
G03 X 12.2620 Y 9.3787 Z -1.0000 I -0.0000 J -0.3538
G03 X 12.1917 Y 9.3009 Z -1.0000 I 0.0653 J -0.1298
G02 X 11.9889 Y 9.1438 Z -1.0000 I -0.2310 J 0.0886
G02 X 11.8558 Y 9.2624 Z -1.0000 I -0.0136 J 0.1187
G01 X 11.8216 Y 9.3052 Z -1.0000
G03 X 11.5138 Y 9.3394 Z -1.0000 I -0.3078 J -1.3669
G03 X 11.1896 Y 9.3077 Z -1.0000 I -0.0000 J -1.6725
G03 X 11.1243 Y 9.2624 Z -1.0000 I 0.0193 J -0.0975
G02 X 11.0597 Y 9.2159 Z -1.0000 I -0.0884 J 0.0547
G02 X 10.7972 Y 9.1854 Z -1.0000 I -0.2625 J 1.1149
G02 X 10.6671 Y 9.2418 Z -1.0000 I 0.0000 J 0.1783
G02 X 10.6709 Y 9.3202 Z -1.0000 I 0.0399 J 0.0374
G02 X 11.0738 Y 9.5656 Z -1.0000 I 0.8978 J -1.0206
G02 X 11.5083 Y 9.6475 Z -1.0000 I 0.4344 J -1.1115
G02 X 11.7951 Y 9.5868 Z -1.0000 I -0.0000 J -0.7081
G02 X 11.8558 Y 9.4935 Z -1.0000 I -0.0413 J -0.0933
G03 X 11.8853 Y 9.3689 Z -1.0000 I 0.2786 J -0.0000
G03 X 11.9329 Y 9.3394 Z -1.0000 I 0.0476 J 0.0238
G03 X 11.9804 Y 9.3689 Z -1.0000 I 0.0000 J 0.0532
G03 X 12.0099 Y 9.4935 Z -1.0000 I -0.2492 J 0.1246
G03 X 11.9804 Y 9.6181 Z -1.0000 I -0.2786 J -0.0000
G03 X 11.9329 Y 9.6475 Z -1.0000 I -0.0476 J -0.0238
G02 X 11.8784 Y 9.6700 Z -1.0000 I 0.0000 J 0.0770
G02 X 11.8558 Y 9.7245 Z -1.0000 I 0.0545 J 0.0545
G02 X 11.8826 Y 9.7747 Z -1.0000 I 0.0605 J 0.0000
G02 X 11.9705 Y 9.8015 Z -1.0000 I 0.0879 J -0.1308
G03 X 12.0408 Y 9.8423 Z -1.0000 I 0.0000 J 0.0810
G03 X 12.0706 Y 9.9768 Z -1.0000 I -0.2018 J 0.1153
G03 X 12.0005 Y 10.0841 Z -1.0000 I -0.1343 J -0.0111
G03 X 11.8020 Y 10.1224 Z -1.0000 I -0.1597 J -0.2947
G03 X 11.5999 Y 10.0463 Z -1.0000 I 0.0519 J -0.4443
G03 X 11.5478 Y 9.9471 Z -1.0000 I 0.0684 J -0.0992
G02 X 11.5189 Y 9.8305 Z -1.0000 I -0.2495 J -0.0000
G02 X 11.4708 Y 9.8015 Z -1.0000 I -0.0481 J 0.0254
G02 X 11.4232 Y 9.8309 Z -1.0000 I 0.0000 J 0.0532
G02 X 11.3938 Y 9.9555 Z -1.0000 I 0.2492 J 0.1246
G02 X 11.4232 Y 10.0801 Z -1.0000 I 0.2786 J 0.0000
G02 X 11.4708 Y 10.1095 Z -1.0000 I 0.0476 J -0.0238
G03 X 11.5184 Y 10.1389 Z -1.0000 I 0.0000 J 0.0532
G03 X 11.5478 Y 10.2636 Z -1.0000 I -0.2492 J 0.1246
G03 X 11.4858 Y 10.3556 Z -1.0000 I -0.0993 J 0.0000
G03 X 11.1684 Y 10.4176 Z -1.0000 I -0.3174 J -0.7819
G03 X 10.8323 Y 10.3651 Z -1.0000 I -0.0000 J -1.1036
G03 X 10.7641 Y 10.2883 Z -1.0000 I 0.0307 J -0.0959
G02 X 10.7126 Y 10.2458 Z -1.0000 I -0.0515 J 0.0099
G02 X 10.6100 Y 10.2883 Z -1.0000 I 0.0000 J 0.1452
G03 X 10.4669 Y 10.3837 Z -1.0000 I -0.3099 J -0.3099
G03 X 10.3019 Y 10.4151 Z -1.0000 I -0.1593 J -0.3868
G03 X 10.2409 Y 10.3739 Z -1.0000 I 0.0009 J -0.0672
G03 X 10.2579 Y 10.3104 Z -1.0000 I 0.0495 J -0.0208
G02 X 10.3781 Y 10.0828 Z -1.0000 I -0.1844 J -0.2429
G02 X 10.2772 Y 9.9277 Z -1.0000 I -0.1574 J -0.0079
G03 X 10.2002 Y 9.8569 Z -1.0000 I 0.0509 J -0.1325
G03 X 10.1616 Y 9.6884 Z -1.0000 I 0.3489 J -0.1685
G02 X 10.0924 Y 9.5627 Z -1.0000 I -0.1488 J 0.0000
G02 X 9.8536 Y 9.4935 Z -1.0000 I -0.2388 J 0.3774
G02 X 9.6029 Y 9.5508 Z -1.0000 I -0.0000 J 0.5768
G02 X 9.5456 Y 9.6421 Z -1.0000 I 0.0441 J 0.0913
G03 X 9.5009 Y 9.7539 Z -1.0000 I -0.1621 J -0.0000
G03 X 9.3723 Y 9.8242 Z -1.0000 I -0.1740 J -0.1656
G01 X 9.3530 Y 9.8475 Z -1.0000
G01 X 9.3723 Y 9.8680 Z -1.0000
G03 X 9.5156 Y 9.9068 Z -1.0000 I -0.0223 J 0.3668
G03 X 9.5456 Y 9.9555 Z -1.0000 I -0.0246 J 0.0488
G03 X 9.4499 Y 10.0548 Z -1.0000 I -0.0994 J 0.0000
G03 X 9.2822 Y 9.9654 Z -1.0000 I -0.0071 J -0.1886
G02 X 9.2269 Y 9.9183 Z -1.0000 I -0.1006 J 0.0622
G02 X 9.0081 Y 9.8518 Z -1.0000 I -0.4484 J 1.0819
G03 X 8.8346 Y 9.7117 Z -1.0000 I 0.0472 J -0.2360
G03 X 8.8525 Y 9.4934 Z -1.0000 I 0.2127 J -0.0924
G01 X 8.8940 Y 9.4915 Z -1.0000
G03 X 8.9283 Y 9.5897 Z -1.0000 I -0.1258 J 0.0991
G02 X 8.9811 Y 9.7495 Z -1.0000 I 0.2730 J -0.0015
G02 X 9.0835 Y 9.8014 Z -1.0000 I 0.1024 J -0.0750
G02 X 9.1790 Y 9.7429 Z -1.0000 I 0.0000 J -0.1071
G02 X 9.2375 Y 9.4988 Z -1.0000 I -0.4798 J -0.2441
G03 X 9.2987 Y 9.2466 Z -1.0000 I 0.5502 J -0.0000
G03 X 9.4108 Y 9.1627 Z -1.0000 I 0.1424 J 0.0734
G01 X 9.4125 Y 9.1426 Z -1.0000
G02 X 9.2928 Y 9.1189 Z -1.0000 I -0.1334 J 0.3589
G02 X 9.0073 Y 9.1399 Z -1.0000 I -0.0474 J 1.3078
G02 X 8.7251 Y 9.2239 Z -1.0000 I 0.2523 J 1.3632
G03 X 8.4468 Y 9.3302 Z -1.0000 I -1.8637 J -4.4606
G03 X 8.3923 Y 9.3394 Z -1.0000 I -0.0545 J -0.1569
G01 X 8.3647 Y 9.3133 Z -1.0000
G03 X 8.3702 Y 8.9736 Z -1.0000 I 2.2107 J -0.1338
G02 X 8.2682 Y 8.6709 Z -1.0000 I -0.3916 J -0.0366
G02 X 7.8321 Y 8.3882 Z -1.0000 I -0.7661 J 0.7042
G03 X 7.7363 Y 8.3151 Z -1.0000 I 0.0591 J -0.1767
G03 X 7.6974 Y 8.1867 Z -1.0000 I 0.1920 J -0.1284
G02 X 7.6372 Y 8.0885 Z -1.0000 I -0.1102 J 0.0000
G02 X 7.3701 Y 8.0198 Z -1.0000 I -0.2874 J 0.5635
G03 X 7.2152 Y 7.9956 Z -1.0000 I 0.0206 J -0.6408
G01 X 7.2161 Y 7.9759 Z -1.0000
G02 X 7.3646 Y 7.9221 Z -1.0000 I -0.0955 J -0.4962
G01 X 7.3893 Y 7.8803 Z -1.0000
G02 X 7.2937 Y 7.7231 Z -1.0000 I -0.1769 J 0.0000
G02 X 7.0282 Y 7.6936 Z -1.0000 I -0.1711 J 0.3311
G03 X 6.8818 Y 7.7002 Z -1.0000 I -0.0886 J -0.3388
G03 X 6.8202 Y 7.6589 Z -1.0000 I 0.0148 J -0.0886
G03 X 6.8301 Y 7.4544 Z -1.0000 I 0.1537 J -0.0950
G03 X 7.0703 Y 7.3302 Z -1.0000 I 0.2509 J 0.1909
G01 X 7.0863 Y 7.3000 Z -1.0000
G02 X 7.0199 Y 7.2501 Z -1.0000 I -0.0987 J 0.0620
G03 X 6.7921 Y 7.1485 Z -1.0000 I 0.2496 J -0.8657
G03 X 6.7229 Y 7.0645 Z -1.0000 I 0.0908 J -0.1454
G02 X 6.6608 Y 6.9797 Z -1.0000 I -0.1868 J 0.0717
G02 X 6.5819 Y 6.9521 Z -1.0000 I -0.0789 J 0.0989
G03 X 6.4950 Y 6.9290 Z -1.0000 I 0.0000 J -0.1752
G03 X 6.3957 Y 6.8456 Z -1.0000 I 0.1804 J -0.3155
G03 X 6.4405 Y 6.7181 Z -1.0000 I 0.0606 J -0.0503
G03 X 6.7853 Y 6.7658 Z -1.0000 I 0.1048 J 0.5118
G02 X 6.9202 Y 6.7494 Z -1.0000 I 0.0554 J -0.1071
G02 X 6.9189 Y 6.6486 Z -1.0000 I -0.0437 J -0.0498
G03 X 6.7880 Y 6.5132 Z -1.0000 I 0.5614 J -0.6741
G01 X 6.7976 Y 6.4926 Z -1.0000
G03 X 7.0460 Y 6.5564 Z -1.0000 I 0.0180 J 0.4454
G03 X 7.2584 Y 6.7708 Z -1.0000 I -0.3188 J 0.5282
G02 X 7.3360 Y 6.8470 Z -1.0000 I 0.1809 J -0.1069
G02 X 7.4431 Y 6.8751 Z -1.0000 I 0.1071 J -0.1898
G03 X 7.8989 Y 7.0587 Z -1.0000 I 0.0000 J 0.6575
G03 X 8.0824 Y 7.4898 Z -1.0000 I -0.4145 J 0.4311
G02 X 8.1078 Y 7.5556 Z -1.0000 I 0.0980 J 0.0000
G02 X 8.1979 Y 7.6173 Z -1.0000 I 0.1745 J -0.1580
G03 X 8.2840 Y 7.6819 Z -1.0000 I -0.0706 J 0.1839
G03 X 8.3134 Y 7.7690 Z -1.0000 I -0.1143 J 0.0871
G02 X 8.4386 Y 7.8821 Z -1.0000 I 0.1137 J 0.0000
G02 X 8.7755 Y 7.7222 Z -1.0000 I -0.0559 J -0.5527
G02 X 8.8711 Y 7.5473 Z -1.0000 I -0.2505 J -0.2505
G01 X 8.8259 Y 7.4912 Z -1.0000
G03 X 8.7342 Y 7.4644 Z -1.0000 I 0.0000 J -0.1704
G03 X 8.5805 Y 7.3345 Z -1.0000 I 0.4072 J -0.6375
G02 X 8.4294 Y 7.2165 Z -1.0000 I -0.4142 J 0.3749
G02 X 8.3504 Y 7.2116 Z -1.0000 I -0.0449 J 0.0841
G03 X 8.2721 Y 7.1990 Z -1.0000 I -0.0283 J -0.0738
G03 X 7.6981 Y 6.6782 Z -1.0000 I 4.7732 J -5.8369
G02 X 7.1280 Y 6.1629 Z -1.0000 I -5.1066 J 5.0770
G02 X 7.0573 Y 6.1584 Z -1.0000 I -0.0385 J 0.0475
G01 X 7.0334 Y 6.1530 Z -1.0000
G01 X 7.0331 Y 6.1208 Z -1.0000
G02 X 7.0008 Y 5.9770 Z -1.0000 I -0.0896 J -0.0554
G02 X 6.6524 Y 5.8740 Z -1.0000 I -0.3484 J 0.5373
G03 X 6.5361 Y 5.8403 Z -1.0000 I -0.0000 J -0.2176
G03 X 6.3361 Y 5.6740 Z -1.0000 I 0.5369 J -0.8492
G03 X 6.2216 Y 5.4721 Z -1.0000 I 0.3709 J -0.3437
G03 X 6.2446 Y 5.3609 Z -1.0000 I 0.1161 J -0.0339
G02 X 6.2800 Y 5.2432 Z -1.0000 I -0.1213 J -0.1006
G02 X 6.2081 Y 5.0272 Z -1.0000 I -0.5369 J 0.0587
G03 X 6.1324 Y 4.8200 Z -1.0000 I 0.5214 J -0.3080
G03 X 6.1621 Y 4.7544 Z -1.0000 I 0.0636 J -0.0107
G03 X 6.5559 Y 4.7000 Z -1.0000 I 0.2585 J 0.4182
G03 X 7.0123 Y 4.9980 Z -1.0000 I -0.2544 J 0.8879
G02 X 7.1115 Y 5.0797 Z -1.0000 I 0.2631 J -0.2184
G02 X 7.2062 Y 5.1039 Z -1.0000 I 0.0947 J -0.1735
G03 X 7.2863 Y 5.1299 Z -1.0000 I -0.0000 J 0.1363
G03 X 7.3123 Y 5.1809 Z -1.0000 I -0.0370 J 0.0510
G02 X 7.3406 Y 5.2296 Z -1.0000 I 0.0560 J 0.0000
G02 X 7.4471 Y 5.2576 Z -1.0000 I 0.1059 J -0.1862
G01 X 7.4714 Y 5.2179 Z -1.0000
G02 X 7.3508 Y 5.0678 Z -1.0000 I -0.4169 J 0.2115
G02 X 7.1126 Y 4.8975 Z -1.0000 I -1.4078 J 1.7175
G02 X 7.0407 Y 4.8757 Z -1.0000 I -0.0770 J 0.1243
G03 X 6.6235 Y 4.7026 Z -1.0000 I 0.0228 J -0.6442
G03 X 6.4652 Y 4.3382 Z -1.0000 I 0.3403 J -0.3644
G01 X 6.5006 Y 4.2922 Z -1.0000
G03 X 6.7733 Y 4.2568 Z -1.0000 I 0.2726 J 1.0323
G03 X 7.0475 Y 4.2906 Z -1.0000 I 0.0000 J 1.1309
G01 X 7.0813 Y 4.3338 Z -1.0000
G02 X 7.1082 Y 4.3840 Z -1.0000 I 0.0603 J 0.0000
G02 X 7.1968 Y 4.4108 Z -1.0000 I 0.0887 J -0.1330
G03 X 7.2855 Y 4.4377 Z -1.0000 I 0.0000 J 0.1598
G03 X 7.3123 Y 4.4879 Z -1.0000 I -0.0334 J 0.0502
G02 X 7.3362 Y 4.5410 Z -1.0000 I 0.0712 J -0.0000
G02 X 7.3988 Y 4.5649 Z -1.0000 I 0.0626 J -0.0703
G01 X 7.4254 Y 4.5368 Z -1.0000
G02 X 7.3931 Y 4.4539 Z -1.0000 I -0.1407 J 0.0071
G03 X 7.3318 Y 4.3348 Z -1.0000 I 0.2393 J -0.1986
G03 X 7.3256 Y 4.1983 Z -1.0000 I 0.3125 J -0.0825
G02 X 7.2160 Y 3.8131 Z -1.0000 I -0.4586 J -0.0777
G02 X 6.8345 Y 3.6408 Z -1.0000 I -0.3816 J 0.3361
G01 X 6.8046 Y 3.6182 Z -1.0000
G03 X 6.8121 Y 3.5632 Z -1.0000 I 0.0659 J -0.0190
G02 X 6.8128 Y 3.5016 Z -1.0000 I -0.0508 J -0.0314
G02 X 6.7396 Y 3.4395 Z -1.0000 I -0.1252 J 0.0733
G03 X 6.7047 Y 3.3380 Z -1.0000 I 0.0251 J -0.0654
G03 X 6.8503 Y 3.2557 Z -1.0000 I 0.1455 J 0.0876
G02 X 6.9390 Y 3.1771 Z -1.0000 I 0.0000 J -0.0894
G02 X 6.8695 Y 3.0968 Z -1.0000 I -0.0711 J -0.0086
G03 X 6.8117 Y 3.0639 Z -1.0000 I 0.0016 J -0.0701
G01 X 6.8244 Y 3.0247 Z -1.0000
G02 X 6.9751 Y 2.9389 Z -1.0000 I -0.2411 J -0.5978
G02 X 7.0555 Y 2.8480 Z -1.0000 I -0.1919 J -0.2508
G03 X 7.4597 Y 2.5797 Z -1.0000 I 0.4771 J 0.2802
G03 X 7.9148 Y 2.7339 Z -1.0000 I 0.0714 J 0.5379
G02 X 7.9941 Y 2.7583 Z -1.0000 I 0.0627 J -0.0627
G02 X 8.1788 Y 2.6836 Z -1.0000 I -0.0959 J -0.5030
G03 X 8.3731 Y 2.5999 Z -1.0000 I 0.3365 J 0.5136
G03 X 8.4961 Y 2.6080 Z -1.0000 I 0.0483 J 0.2028
G02 X 8.6170 Y 2.6179 Z -1.0000 I 0.0773 J -0.2015
G02 X 8.7439 Y 2.5570 Z -1.0000 I -0.0586 J -0.2844
G02 X 8.7651 Y 2.4567 Z -1.0000 I -0.0527 J -0.0635
G02 X 8.5728 Y 2.2123 Z -1.0000 I -0.6813 J 0.3381
G03 X 8.3933 Y 1.9628 Z -1.0000 I 0.4014 J -0.4781
G03 X 8.4215 Y 1.8276 Z -1.0000 I 0.1172 J -0.0461
G02 X 8.4772 Y 1.6940 Z -1.0000 I -0.1346 J -0.1346
G02 X 8.4228 Y 1.5860 Z -1.0000 I -0.1329 J -0.0007
G01 X 8.4300 Y 1.5322 Z -1.0000
G03 X 8.6883 Y 1.4845 Z -1.0000 I 0.2583 J 0.6760
G03 X 9.0277 Y 1.5208 Z -1.0000 I 0.0000 J 1.6082
G01 X 9.0450 Y 1.5615 Z -1.0000
G02 X 9.0394 Y 1.6152 Z -1.0000 I 0.0529 J 0.0327
G01 X 9.0726 Y 1.6386 Z -1.0000
G02 X 9.1328 Y 1.6165 Z -1.0000 I 0.0000 J -0.0934
G02 X 9.1865 Y 1.5423 Z -1.0000 I -0.1229 J -0.1455
G01 X 9.2127 Y 1.5247 Z -1.0000
G01 X 9.2315 Y 1.5423 Z -1.0000
G02 X 9.2697 Y 1.6043 Z -1.0000 I 0.0773 J -0.0049
G02 X 9.3961 Y 1.6386 Z -1.0000 I 0.1264 J -0.2162
G03 X 9.4977 Y 1.6703 Z -1.0000 I 0.0000 J 0.1781
G01 X 9.5071 Y 1.7156 Z -1.0000
G02 X 9.5034 Y 1.7681 Z -1.0000 I 0.0481 J 0.0297
G01 X 9.5410 Y 1.7926 Z -1.0000
G02 X 9.5971 Y 1.7668 Z -1.0000 I 0.0000 J -0.0740
G02 X 9.6238 Y 1.6963 Z -1.0000 I -0.0836 J -0.0718
G01 X 9.6457 Y 1.6700 Z -1.0000
G01 X 9.6815 Y 1.6849 Z -1.0000
G02 X 9.7543 Y 1.7377 Z -1.0000 I 0.1076 J -0.0717
G02 X 9.9481 Y 1.7595 Z -1.0000 I 0.1639 J -0.5861
G03 X 10.1328 Y 1.7878 Z -1.0000 I 0.0230 J 0.4663
G03 X 10.1973 Y 1.8515 Z -1.0000 I -0.0381 J 0.1030
G02 X 10.2552 Y 1.9190 Z -1.0000 I 0.1236 J -0.0474
G02 X 10.3362 Y 1.9309 Z -1.0000 I 0.0558 J -0.0975
G03 X 10.4191 Y 1.9349 Z -1.0000 I 0.0345 J 0.1501
G01 X 10.4500 Y 1.9686 Z -1.0000
G02 X 10.5810 Y 2.1631 Z -1.0000 I 0.3225 J -0.0758
G02 X 10.8770 Y 2.2709 Z -1.0000 I 0.3453 J -0.4876
G03 X 11.0186 Y 2.3249 Z -1.0000 I -0.0226 J 0.2721
G03 X 11.0553 Y 2.4052 Z -1.0000 I -0.0557 J 0.0741
G02 X 11.0902 Y 2.4893 Z -1.0000 I 0.1019 J 0.0069
G02 X 11.2205 Y 2.5487 Z -1.0000 I 0.1659 J -0.1910
G03 X 11.3628 Y 2.6367 Z -1.0000 I -0.0294 J 0.2065
G03 X 11.4029 Y 2.8129 Z -1.0000 I -0.2003 J 0.1383
G01 X 11.4148 Y 2.8496 Z -1.0000
G01 X 11.4515 Y 2.8616 Z -1.0000
G03 X 11.5095 Y 2.8572 Z -1.0000 I 0.0556 J 0.3532
G03 X 11.6248 Y 2.8628 Z -1.0000 I -0.0091 J 1.3922
G01 X 11.6538 Y 2.8945 Z -1.0000
G03 X 11.6248 Y 2.9477 Z -1.0000 I -0.0634 J 0.0000
G02 X 11.5845 Y 3.0007 Z -1.0000 I 0.0532 J 0.0824
G01 X 11.6010 Y 3.0236 Z -1.0000
G02 X 11.6812 Y 3.0037 Z -1.0000 I 0.0021 J -0.1633
G02 X 11.7403 Y 2.9477 Z -1.0000 I -0.0759 J -0.1394
G03 X 11.7984 Y 2.8896 Z -1.0000 I 0.1522 J 0.0940
G03 X 11.8649 Y 2.8707 Z -1.0000 I 0.0665 J 0.1076
G01 X 11.8989 Y 2.8947 Z -1.0000
G03 X 11.8932 Y 2.9496 Z -1.0000 I -0.0600 J 0.0215
G01 X 11.8972 Y 2.9916 Z -1.0000
G02 X 11.9464 Y 3.0074 Z -1.0000 I 0.0386 J -0.0355
G03 X 12.0086 Y 3.0260 Z -1.0000 I 0.0139 J 0.0669
G03 X 12.0272 Y 3.0882 Z -1.0000 I -0.0483 J 0.0483
G02 X 12.0407 Y 3.1407 Z -1.0000 I 0.0603 J 0.0125
G01 X 12.0769 Y 3.1464 Z -1.0000
G03 X 12.1330 Y 3.1463 Z -1.0000 I 0.0282 J 0.0456
G03 X 12.1914 Y 3.2164 Z -1.0000 I -0.0739 J 0.1209
G02 X 12.2557 Y 3.2837 Z -1.0000 I 0.1127 J -0.0432
G02 X 12.3504 Y 3.2859 Z -1.0000 I 0.0500 J -0.1143
G03 X 12.4123 Y 3.3055 Z -1.0000 I 0.0187 J 0.0486
G03 X 12.4334 Y 3.4096 Z -1.0000 I -0.1158 J 0.0777
G02 X 12.4505 Y 3.4947 Z -1.0000 I 0.1128 J 0.0217
G01 X 12.4942 Y 3.5014 Z -1.0000
G03 X 12.7035 Y 3.5012 Z -1.0000 I 0.1047 J 0.1281
G03 X 12.7175 Y 3.6835 Z -1.0000 I -0.0798 J 0.0978
G01 X 12.7230 Y 3.6949 Z -1.0000
G02 X 12.7710 Y 3.6808 Z -1.0000 I -0.0054 J -0.1063
G02 X 12.7843 Y 3.5493 Z -1.0000 I -0.0409 J -0.0705
G02 X 10.8162 Y 1.9399 Z -1.0000 I -20.0810 J 22.5483
G02 X 10.3444 Y 1.6103 Z -1.0000 I -5.1345 J 6.8482
G02 X 10.1424 Y 1.5022 Z -1.0000 I -0.7390 J 1.1377
G03 X 9.9606 Y 1.3912 Z -1.0000 I 0.2998 J -0.6956
G03 X 9.9306 Y 1.3277 Z -1.0000 I 0.0523 J -0.0635
G01 X 9.9063 Y 1.2881 Z -1.0000
G02 X 9.8567 Y 1.2901 Z -1.0000 I -0.0229 J 0.0451
G03 X 9.7824 Y 1.3051 Z -1.0000 I -0.0574 J -0.0929
G03 X 9.6450 Y 1.2567 Z -1.0000 I 0.0626 J -0.3973
G02 X 8.7823 Y 0.8751 Z -1.0000 I -2.2613 J 3.9453
G02 X 8.6283 Y 0.9281 Z -1.0000 I -0.0417 J 0.1289
G03 X 8.4104 Y 1.0944 Z -1.0000 I -0.3559 J -0.2405
G01 X 8.3525 Y 1.0216 Z -1.0000
G02 X 8.3545 Y 0.9706 Z -1.0000 I -0.0442 J -0.0273
G01 X 8.3134 Y 0.9455 Z -1.0000
G03 X 8.2701 Y 0.9217 Z -1.0000 I 0.0000 J -0.0513
G01 X 8.2699 Y 0.8767 Z -1.0000
G02 X 8.1669 Y 0.6701 Z -1.0000 I -0.1155 J -0.0714
G02 X 6.4652 Y 0.7086 Z -1.0000 I -0.6852 J 7.3534
G01 X 6.4652 Y 0.7086 Z -1.0000
G00 Z 5.0000

(End cutting path id: path182016)


(Start cutting path id: path182016)
(Change tool to Default tool)

G00 Z 5.0000
G00 X 7.3795 Y 0.8270

G01 Z -1.0000 F 100.0000(Penetrate)
G03 X 7.3376 Y 0.8491 Z -1.0000 I -0.0565 J -0.0565 F 3500.0000
G03 X 7.0009 Y 0.8973 Z -1.0000 I -0.7523 J -4.0539
G02 X 6.6580 Y 0.9343 Z -1.0000 I 2.6502 J 26.1577
G02 X 6.3112 Y 0.9763 Z -1.0000 I 3.0519 J 26.6342
G01 X 6.2971 Y 0.9542 Z -1.0000
G03 X 6.3497 Y 0.9152 Z -1.0000 I 0.0765 J 0.0482
G03 X 7.3385 Y 0.7391 Z -1.0000 I 1.4610 J 5.3374
G03 X 7.3795 Y 0.8270 Z -1.0000 I 0.0044 J 0.0515
G01 X 7.3795 Y 0.8270 Z -1.0000
G00 Z 5.0000

(End cutting path id: path182016)


(Start cutting path id: path182016)
(Change tool to Default tool)

G00 Z 5.0000
G00 X 9.0835 Y 1.1335

G01 Z -1.0000 F 100.0000(Penetrate)
G01 X 9.0725 Y 1.1613 Z -1.0000 F 3500.0000
G03 X 9.0065 Y 1.2151 Z -1.0000 I -0.2381 J -0.2248
G03 X 8.9540 Y 1.2187 Z -1.0000 I -0.0297 J -0.0481
G01 X 8.9295 Y 1.1811 Z -1.0000
G03 X 8.9527 Y 1.1228 Z -1.0000 I 0.0850 J -0.0000
G03 X 9.0065 Y 1.0996 Z -1.0000 I 0.0538 J 0.0508
G03 X 9.0701 Y 1.1130 Z -1.0000 I -0.0000 J 0.1576
G01 X 9.0835 Y 1.1335 Z -1.0000
G01 X 9.0835 Y 1.1335 Z -1.0000
G00 Z 5.0000

(End cutting path id: path182016)


(Start cutting path id: path182016)
(Change tool to Default tool)

G00 Z 5.0000
G00 X 9.3915 Y 1.3306

G01 Z -1.0000 F 100.0000(Penetrate)
G03 X 9.4418 Y 1.3860 Z -1.0000 I -0.0788 J 0.1220 F 3500.0000
G01 X 9.4300 Y 1.4052 Z -1.0000
G03 X 9.3571 Y 1.3916 Z -1.0000 I 0.0000 J -0.2019
G03 X 9.2375 Y 1.3306 Z -1.0000 I 0.2384 J -0.6148
G03 X 9.1873 Y 1.2752 Z -1.0000 I 0.0788 J -0.1220
G01 X 9.1990 Y 1.2559 Z -1.0000
G03 X 9.2720 Y 1.2696 Z -1.0000 I -0.0000 J 0.2019
G03 X 9.3915 Y 1.3306 Z -1.0000 I -0.2384 J 0.6148
G01 X 9.3915 Y 1.3306 Z -1.0000
G00 Z 5.0000

(End cutting path id: path182016)


(Start cutting path id: path182016)
(Change tool to Default tool)

G00 Z 5.0000
G00 X 9.1220 Y 1.7926

G01 Z -1.0000 F 100.0000(Penetrate)
G01 X 9.1268 Y 1.8404 Z -1.0000 F 3500.0000
G02 X 9.1945 Y 1.8697 Z -1.0000 I 0.0676 J -0.0636
G02 X 9.2873 Y 1.8424 Z -1.0000 I 0.0000 J -0.1720
G02 X 9.3145 Y 1.7926 Z -1.0000 I -0.0319 J -0.0498
G02 X 9.2927 Y 1.7375 Z -1.0000 I -0.0805 J 0.0000
G02 X 9.2421 Y 1.7156 Z -1.0000 I -0.0506 J 0.0476
G02 X 9.1798 Y 1.7339 Z -1.0000 I 0.0000 J 0.1154
G02 X 9.1220 Y 1.7926 Z -1.0000 I 0.1004 J 0.1565
G01 X 9.1220 Y 1.7926 Z -1.0000
G00 Z 5.0000

(End cutting path id: path182016)


(Start cutting path id: path182016)
(Change tool to Default tool)

G00 Z 5.0000
G00 X 9.9887 Y 1.6194

G01 Z -1.0000 F 100.0000(Penetrate)
G03 X 9.9815 Y 1.6875 Z -1.0000 I -0.0791 J 0.0261 F 3500.0000
G03 X 9.9325 Y 1.7156 Z -1.0000 I -0.0491 J -0.0287
G03 X 9.8886 Y 1.6910 Z -1.0000 I 0.0000 J -0.0515
G01 X 9.8887 Y 1.6441 Z -1.0000
G01 X 9.8807 Y 1.5949 Z -1.0000
G02 X 9.7585 Y 1.5353 Z -1.0000 I -0.1816 J 0.2172
G01 X 9.7517 Y 1.5214 Z -1.0000
G01 X 9.7706 Y 1.5105 Z -1.0000
G03 X 9.9327 Y 1.5545 Z -1.0000 I -0.0287 J 0.4261
G03 X 9.9887 Y 1.6194 Z -1.0000 I -0.0498 J 0.0997
G01 X 9.9887 Y 1.6194 Z -1.0000
G00 Z 5.0000

(End cutting path id: path182016)


(Start cutting path id: path182016)
(Change tool to Default tool)

G00 Z 5.0000
G00 X 11.7053 Y 2.7839

G01 Z -1.0000 F 100.0000(Penetrate)
G01 X 11.7010 Y 2.8074 Z -1.0000 F 3500.0000
G03 X 11.6531 Y 2.8053 Z -1.0000 I -0.0217 J -0.0530
G03 X 11.5125 Y 2.7005 Z -1.0000 I 0.2420 J -0.4714
G03 X 11.4411 Y 2.5841 Z -1.0000 I 0.2318 J -0.2221
G01 X 11.4549 Y 2.5535 Z -1.0000
G01 X 11.4934 Y 2.5627 Z -1.0000
G02 X 11.5961 Y 2.6756 Z -1.0000 I 2.2816 J -1.9749
G02 X 11.7053 Y 2.7839 Z -1.0000 I 2.2093 J -2.1169
G01 X 11.7053 Y 2.7839 Z -1.0000
G00 Z 5.0000

(End cutting path id: path182016)


(Start cutting path id: path182016)
(Change tool to Default tool)

G00 Z 5.0000
G00 X 12.9339 Y 3.7084

G01 Z -1.0000 F 100.0000(Penetrate)
G02 X 12.9526 Y 3.7672 Z -1.0000 I 0.1019 J -0.0000 F 3500.0000
G02 X 13.0495 Y 3.8719 Z -1.0000 I 0.4442 J -0.3139
G01 X 13.1084 Y 3.8625 Z -1.0000
G02 X 13.1182 Y 3.7627 Z -1.0000 I -0.0948 J -0.0597
G02 X 13.0033 Y 3.6566 Z -1.0000 I -0.1648 J 0.0632
G02 X 12.9339 Y 3.7084 Z -1.0000 I -0.0153 J 0.0519
G01 X 12.9339 Y 3.7084 Z -1.0000
G00 Z 5.0000

(End cutting path id: path182016)


(Start cutting path id: path182016)
(Change tool to Default tool)

G00 Z 5.0000
G00 X 10.9173 Y 8.6220

G01 Z -1.0000 F 100.0000(Penetrate)
G02 X 11.0134 Y 8.6385 Z -1.0000 I 0.0865 J -0.2162 F 3500.0000
G02 X 11.0649 Y 8.6159 Z -1.0000 I -0.0032 J -0.0772
G01 X 11.0600 Y 8.5919 Z -1.0000
G02 X 10.9638 Y 8.5754 Z -1.0000 I -0.0866 J 0.2163
G02 X 10.9124 Y 8.5980 Z -1.0000 I 0.0032 J 0.0772
G01 X 10.9173 Y 8.6220 Z -1.0000
G01 X 10.9173 Y 8.6220 Z -1.0000
G00 Z 5.0000

(End cutting path id: path182016)


(Start cutting path id: path182016)
(Change tool to Default tool)

G00 Z 5.0000
G00 X 10.1616 Y 8.7023

G01 Z -1.0000 F 100.0000(Penetrate)
G03 X 10.1120 Y 8.9817 Z -1.0000 I -0.8116 J -0.0000 F 3500.0000
G03 X 10.0269 Y 9.0700 Z -1.0000 I -0.1426 J -0.0523
G02 X 9.9959 Y 9.1251 Z -1.0000 I 0.0192 J 0.0470
G02 X 10.0461 Y 9.1883 Z -1.0000 I 0.0816 J -0.0133
G02 X 10.2012 Y 9.2479 Z -1.0000 I 1.3475 J -3.2772
G02 X 10.2386 Y 9.2571 Z -1.0000 I 0.0644 J -0.1802
G02 X 10.4740 Y 9.0454 Z -1.0000 I 0.0291 J -0.2044
G02 X 10.2095 Y 8.4376 Z -1.0000 I -0.9043 J 0.0321
G01 X 10.1847 Y 8.4454 Z -1.0000
G02 X 10.1616 Y 8.7023 Z -1.0000 I 1.4203 J 0.2570
G01 X 10.1616 Y 8.7023 Z -1.0000
G00 Z 5.0000

(End cutting path id: path182016)


(Start cutting path id: path182016)
(Change tool to Default tool)

G00 Z 5.0000
G00 X 9.7127 Y 8.2342

G01 Z -1.0000 F 100.0000(Penetrate)
G02 X 9.7710 Y 8.3440 Z -1.0000 I 0.2081 J -0.0401 F 3500.0000
G02 X 9.8807 Y 8.4022 Z -1.0000 I 0.1498 J -0.1498
G02 X 9.9678 Y 8.3755 Z -1.0000 I 0.0184 J -0.0954
G02 X 9.9945 Y 8.2885 Z -1.0000 I -0.0687 J -0.0687
G02 X 9.9362 Y 8.1787 Z -1.0000 I -0.2081 J 0.0401
G02 X 9.8265 Y 8.1205 Z -1.0000 I -0.1498 J 0.1498
G02 X 9.7394 Y 8.1472 Z -1.0000 I -0.0184 J 0.0954
G02 X 9.7127 Y 8.2342 Z -1.0000 I 0.0687 J 0.0687
G01 X 9.7127 Y 8.2342 Z -1.0000
G00 Z 5.0000

(End cutting path id: path182016)


(Start cutting path id: path182016)
(Change tool to Default tool)

G00 Z 5.0000
G00 X 9.0065 Y 8.1028

G01 Z -1.0000 F 100.0000(Penetrate)
G02 X 9.0301 Y 8.2391 Z -1.0000 I 0.4063 J -0.0000 F 3500.0000
G02 X 9.0748 Y 8.2945 Z -1.0000 I 0.1012 J -0.0361
G02 X 9.2658 Y 8.2602 Z -1.0000 I 0.0764 J -0.1236
G02 X 9.2781 Y 8.0337 Z -1.0000 I -0.1566 J -0.1221
G02 X 9.1123 Y 7.9667 Z -1.0000 I -0.1285 J 0.0794
G02 X 9.0065 Y 8.1028 Z -1.0000 I 0.0346 J 0.1361
G01 X 9.0065 Y 8.1028 Z -1.0000
G00 Z 5.0000

(End cutting path id: path182016)


(Start cutting path id: path182016)
(Change tool to Default tool)

G00 Z 5.0000
G00 X 8.9295 Y 8.4924

G01 Z -1.0000 F 100.0000(Penetrate)
G02 X 8.9563 Y 8.5425 Z -1.0000 I 0.0603 J -0.0000 F 3500.0000
G02 X 9.0450 Y 8.5694 Z -1.0000 I 0.0887 J -0.1330
G02 X 9.1337 Y 8.5426 Z -1.0000 I 0.0000 J -0.1598
G02 X 9.1605 Y 8.4924 Z -1.0000 I -0.0334 J -0.0502
G02 X 9.1337 Y 8.4422 Z -1.0000 I -0.0603 J 0.0000
G02 X 9.0450 Y 8.4154 Z -1.0000 I -0.0887 J 0.1330
G02 X 8.9563 Y 8.4422 Z -1.0000 I -0.0000 J 0.1598
G02 X 8.9295 Y 8.4924 Z -1.0000 I 0.0334 J 0.0502
G01 X 8.9295 Y 8.4924 Z -1.0000
G00 Z 5.0000

(End cutting path id: path182016)


(Start cutting path id: path182016)
(Change tool to Default tool)

G00 Z 5.0000
G00 X 8.2220 Y 8.0059

G01 Z -1.0000 F 100.0000(Penetrate)
G02 X 8.3181 Y 8.0224 Z -1.0000 I 0.0865 J -0.2162 F 3500.0000
G02 X 8.3696 Y 7.9998 Z -1.0000 I -0.0032 J -0.0772
G01 X 8.3647 Y 7.9759 Z -1.0000
G02 X 8.2685 Y 7.9594 Z -1.0000 I -0.0866 J 0.2163
G02 X 8.2171 Y 7.9819 Z -1.0000 I 0.0032 J 0.0772
G01 X 8.2220 Y 8.0059 Z -1.0000
G01 X 8.2220 Y 8.0059 Z -1.0000
G00 Z 5.0000

(End cutting path id: path182016)


(Start cutting path id: path182016)
(Change tool to Default tool)

G00 Z 5.0000
G00 X 7.6974 Y 7.8763

G01 Z -1.0000 F 100.0000(Penetrate)
G02 X 7.7246 Y 7.9261 Z -1.0000 I 0.0592 J 0.0000 F 3500.0000
G02 X 7.8174 Y 7.9533 Z -1.0000 I 0.0928 J -0.1447
G02 X 7.8850 Y 7.9241 Z -1.0000 I -0.0000 J -0.0929
G01 X 7.8899 Y 7.8763 Z -1.0000
G02 X 7.8321 Y 7.8176 Z -1.0000 I -0.1582 J 0.0978
G02 X 7.7698 Y 7.7993 Z -1.0000 I -0.0623 J 0.0971
G02 X 7.7192 Y 7.8212 Z -1.0000 I -0.0000 J 0.0695
G02 X 7.6974 Y 7.8763 Z -1.0000 I 0.0586 J 0.0551
G01 X 7.6974 Y 7.8763 Z -1.0000
G00 Z 5.0000

(End cutting path id: path182016)


(Start cutting path id: path182016)
(Change tool to Default tool)

G00 Z 5.0000
G00 X 8.4674 Y 7.4913

G01 Z -1.0000 F 100.0000(Penetrate)
G03 X 8.4449 Y 7.5457 Z -1.0000 I -0.0770 J 0.0000 F 3500.0000
G03 X 8.3904 Y 7.5683 Z -1.0000 I -0.0545 J -0.0544
G03 X 8.3360 Y 7.5457 Z -1.0000 I 0.0000 J -0.0770
G03 X 8.3134 Y 7.4913 Z -1.0000 I 0.0545 J -0.0545
G03 X 8.3360 Y 7.4368 Z -1.0000 I 0.0770 J 0.0000
G03 X 8.3904 Y 7.4143 Z -1.0000 I 0.0544 J 0.0545
G03 X 8.4449 Y 7.4368 Z -1.0000 I -0.0000 J 0.0770
G03 X 8.4674 Y 7.4913 Z -1.0000 I -0.0545 J 0.0545
G01 X 8.4674 Y 7.4913 Z -1.0000
G00 Z 5.0000

(End cutting path id: path182016)


(Start cutting path id: path182016)
(Change tool to Default tool)

G00 Z 5.0000
G00 X 8.2811 Y 9.1664

G01 Z -1.0000 F 100.0000(Penetrate)
G01 X 8.2195 Y 9.1506 Z -1.0000 F 3500.0000
G03 X 8.2186 Y 8.9511 Z -1.0000 I 0.3489 J -0.1013
G03 X 8.2623 Y 8.9138 Z -1.0000 I 0.0496 J 0.0139
G01 X 8.2988 Y 8.9418 Z -1.0000
G03 X 8.3049 Y 9.1148 Z -1.0000 I -0.7531 J 0.1133
G03 X 8.2811 Y 9.1664 Z -1.0000 I -0.0818 J -0.0064
G01 X 8.2811 Y 9.1664 Z -1.0000
G00 Z 5.0000

(End cutting path id: path182016)


(Start cutting path id: path182016)
(Change tool to Default tool)

G00 Z 5.0000
G00 X 9.5456 Y 10.3767

G01 Z -1.0000 F 100.0000(Penetrate)
G03 X 9.5104 Y 10.4387 Z -1.0000 I -0.0723 J 0.0000 F 3500.0000
G03 X 9.4305 Y 10.4456 Z -1.0000 I -0.0471 J -0.0786
G03 X 9.3585 Y 10.3869 Z -1.0000 I 0.0534 J -0.1390
G03 X 9.3580 Y 10.3325 Z -1.0000 I 0.0430 J -0.0276
G03 X 9.4729 Y 10.2849 Z -1.0000 I 0.0905 J 0.0559
G03 X 9.5456 Y 10.3767 Z -1.0000 I -0.0216 J 0.0918
G01 X 9.5456 Y 10.3767 Z -1.0000
G00 Z 5.0000

(End cutting path id: path182016)


(Start cutting path id: path182016)
(Change tool to Default tool)

G00 Z 5.0000
G00 X 10.1616 Y 10.6486

G01 Z -1.0000 F 100.0000(Penetrate)
G03 X 10.1352 Y 10.6992 Z -1.0000 I -0.0615 J -0.0000 F 3500.0000
G03 X 10.0507 Y 10.7256 Z -1.0000 I -0.0845 J -0.1218
G03 X 9.9523 Y 10.7030 Z -1.0000 I 0.0000 J -0.2251
G03 X 9.8921 Y 10.6486 Z -1.0000 I 0.0636 J -0.1309
G01 X 9.9015 Y 10.6034 Z -1.0000
G03 X 10.0031 Y 10.5716 Z -1.0000 I 0.1016 J 0.1463
G03 X 10.1320 Y 10.6013 Z -1.0000 I -0.0000 J 0.2951
G03 X 10.1616 Y 10.6486 Z -1.0000 I -0.0230 J 0.0474
G01 X 10.1616 Y 10.6486 Z -1.0000
G00 Z 5.0000

(End cutting path id: path182016)


(Start cutting path id: path182016)
(Change tool to Default tool)

G00 Z 5.0000
G00 X 10.2386 Y 9.6547

G01 Z -1.0000 F 100.0000(Penetrate)
G02 X 10.2680 Y 9.7163 Z -1.0000 I 0.0791 J -0.0000 F 3500.0000
G02 X 10.3927 Y 9.7792 Z -1.0000 I 0.2086 J -0.2581
G03 X 10.5238 Y 9.8371 Z -1.0000 I -0.1137 J 0.4348
G03 X 10.5467 Y 9.8793 Z -1.0000 I -0.0274 J 0.0421
G02 X 10.5670 Y 9.9251 Z -1.0000 I 0.0616 J 0.0000
G02 X 10.6622 Y 9.9834 Z -1.0000 I 0.2047 J -0.2271
G02 X 10.7425 Y 9.9765 Z -1.0000 I 0.0331 J -0.0862
G02 X 10.7777 Y 9.9146 Z -1.0000 I -0.0369 J -0.0619
G02 X 10.7442 Y 9.8350 Z -1.0000 I -0.1114 J -0.0000
G02 X 10.6622 Y 9.8015 Z -1.0000 I -0.0820 J 0.0838
G03 X 10.5805 Y 9.7677 Z -1.0000 I -0.0000 J -0.1155
G03 X 10.5467 Y 9.6860 Z -1.0000 I 0.0817 J -0.0817
G02 X 10.5082 Y 9.6090 Z -1.0000 I -0.0963 J -0.0000
G02 X 10.3927 Y 9.5705 Z -1.0000 I -0.1155 J 0.1540
G02 X 10.2700 Y 9.6019 Z -1.0000 I 0.0000 J 0.2557
G02 X 10.2386 Y 9.6547 Z -1.0000 I 0.0289 J 0.0529
G01 X 10.2386 Y 9.6547 Z -1.0000
G00 Z 5.0000

(End cutting path id: path182016)


(Start cutting path id: path182016)
(Change tool to Default tool)

G00 Z 5.0000
G00 X 12.1639 Y 10.5671

G01 Z -1.0000 F 100.0000(Penetrate)
G03 X 12.1456 Y 10.6293 Z -1.0000 I -0.1154 J 0.0000 F 3500.0000
G03 X 12.0868 Y 10.6871 Z -1.0000 I -0.1565 J -0.1004
G01 X 12.0391 Y 10.6823 Z -1.0000
G03 X 12.0098 Y 10.6147 Z -1.0000 I 0.0636 J -0.0676
G03 X 12.0370 Y 10.5218 Z -1.0000 I 0.1720 J 0.0000
G03 X 12.0868 Y 10.4946 Z -1.0000 I 0.0498 J 0.0319
G03 X 12.1420 Y 10.5165 Z -1.0000 I 0.0000 J 0.0805
G03 X 12.1639 Y 10.5671 Z -1.0000 I -0.0476 J 0.0506
G01 X 12.1639 Y 10.5671 Z -1.0000
G00 Z 5.0000

(End cutting path id: path182016)


(Start cutting path id: path182016)
(Change tool to Default tool)

G00 Z 5.0000
G00 X 12.3949 Y 11.0034

G01 Z -1.0000 F 100.0000(Penetrate)
G01 X 12.3817 Y 11.0205 Z -1.0000 F 3500.0000
G03 X 12.2794 Y 11.0337 Z -1.0000 I -0.1023 J -0.3907
G03 X 12.1901 Y 11.0074 Z -1.0000 I -0.0000 J -0.1645
G03 X 12.1639 Y 10.9591 Z -1.0000 I 0.0312 J -0.0483
G01 X 12.1910 Y 10.9239 Z -1.0000
G03 X 12.2794 Y 10.9288 Z -1.0000 I 0.0366 J 0.1398
G03 X 12.3829 Y 10.9814 Z -1.0000 I -0.2013 J 0.5247
G01 X 12.3949 Y 11.0034 Z -1.0000
G01 X 12.3949 Y 11.0034 Z -1.0000
G00 Z 5.0000

(End cutting path id: path182016)


(Start cutting path id: path182016)
(Change tool to Default tool)

G00 Z 5.0000
G00 X 13.2067 Y 11.5567

G01 Z -1.0000 F 100.0000(Penetrate)
G03 X 12.8475 Y 11.6025 Z -1.0000 I -0.2092 J -0.2092 F 3500.0000
G03 X 12.6259 Y 11.2150 Z -1.0000 I 0.2280 J -0.3875
G01 X 12.6416 Y 11.2047 Z -1.0000
G03 X 12.9331 Y 11.3505 Z -1.0000 I -1.3618 J 3.0874
G03 X 13.2047 Y 11.5280 Z -1.0000 I -1.1878 J 2.1134
G01 X 13.2067 Y 11.5567 Z -1.0000
G01 X 13.2067 Y 11.5567 Z -1.0000
G00 Z 5.0000

(End cutting path id: path182016)


(Start cutting path id: path182016)
(Change tool to Default tool)

G00 Z 5.0000
G00 X 13.5115 Y 11.8038

G01 Z -1.0000 F 100.0000(Penetrate)
G01 X 13.5021 Y 11.8490 Z -1.0000 F 3500.0000
G03 X 13.4005 Y 11.8808 Z -1.0000 I -0.1016 J -0.1463
G03 X 13.2716 Y 11.8511 Z -1.0000 I -0.0000 J -0.2951
G03 X 13.2420 Y 11.8038 Z -1.0000 I 0.0230 J -0.0474
G03 X 13.2684 Y 11.7532 Z -1.0000 I 0.0615 J 0.0000
G03 X 13.3529 Y 11.7267 Z -1.0000 I 0.0845 J 0.1218
G03 X 13.4513 Y 11.7494 Z -1.0000 I 0.0000 J 0.2251
G03 X 13.5115 Y 11.8038 Z -1.0000 I -0.0636 J 0.1309
G01 X 13.5115 Y 11.8038 Z -1.0000
G00 Z 5.0000

(End cutting path id: path182016)


(Start cutting path id: path182016)
(Change tool to Default tool)

G00 Z 5.0000
G00 X 13.7040 Y 11.0632

G01 Z -1.0000 F 100.0000(Penetrate)
G01 X 13.6913 Y 11.0829 Z -1.0000 F 3500.0000
G03 X 13.5500 Y 11.1330 Z -1.0000 I -0.3650 J -0.8055
G03 X 13.4239 Y 11.1372 Z -1.0000 I -0.0724 J -0.2767
G01 X 13.3960 Y 11.1035 Z -1.0000
G01 X 13.4233 Y 11.0610 Z -1.0000
G03 X 13.5500 Y 11.0337 Z -1.0000 I 0.1267 J 0.2795
G03 X 13.6907 Y 11.0470 Z -1.0000 I -0.0000 J 0.7474
G01 X 13.7040 Y 11.0632 Z -1.0000
G01 X 13.7040 Y 11.0632 Z -1.0000
G00 Z 5.0000

(End cutting path id: path182016)


(Start cutting path id: path182016)
(Change tool to Default tool)

G00 Z 5.0000
G00 X 14.0891 Y 12.4127

G01 Z -1.0000 F 100.0000(Penetrate)
G03 X 14.0766 Y 12.4611 Z -1.0000 I -0.1005 J -0.0000 F 3500.0000
G03 X 14.0195 Y 12.5392 Z -1.0000 I -0.3303 J -0.1815
G02 X 13.9643 Y 12.6201 Z -1.0000 I 0.2216 J 0.2106
G02 X 13.9131 Y 12.7664 Z -1.0000 I 0.6917 J 0.3240
G01 X 13.8970 Y 12.7658 Z -1.0000
G03 X 13.8864 Y 12.6033 Z -1.0000 I 0.8279 J -0.1357
G03 X 13.9375 Y 12.3476 Z -1.0000 I 0.7922 J 0.0253
G01 X 13.9928 Y 12.3227 Z -1.0000
G03 X 14.0712 Y 12.3716 Z -1.0000 I -0.0850 J 0.2238
G03 X 14.0891 Y 12.4127 Z -1.0000 I -0.0384 J 0.0411
G01 X 14.0891 Y 12.4127 Z -1.0000
G00 Z 5.0000

(End cutting path id: path182016)


(Start cutting path id: path182016)
(Change tool to Default tool)

G00 Z 5.0000
G00 X 14.4157 Y 12.4796

G01 Z -1.0000 F 100.0000(Penetrate)
G02 X 14.2035 Y 12.7074 Z -1.0000 I 0.8012 J 0.9588 F 3500.0000
G02 X 14.1654 Y 12.8265 Z -1.0000 I 0.1637 J 0.1181
G03 X 14.1326 Y 12.9409 Z -1.0000 I -0.2123 J 0.0011
G03 X 14.0510 Y 13.0079 Z -1.0000 I -0.1416 J -0.0893
G02 X 13.9790 Y 13.0666 Z -1.0000 I 0.0534 J 0.1390
G02 X 13.9785 Y 13.1210 Z -1.0000 I 0.0430 J 0.0276
G01 X 13.9724 Y 13.1628 Z -1.0000
G03 X 13.9011 Y 13.1899 Z -1.0000 I -0.0713 J -0.0802
G03 X 13.8313 Y 13.1120 Z -1.0000 I 0.0000 J -0.0702
G03 X 13.9218 Y 13.0016 Z -1.0000 I 0.1301 J 0.0143
G02 X 14.0194 Y 12.9265 Z -1.0000 I -0.0545 J -0.1718
G02 X 14.0566 Y 12.7895 Z -1.0000 I -0.2019 J -0.1284
G03 X 14.1006 Y 12.6475 Z -1.0000 I 0.2250 J -0.0081
G03 X 14.3122 Y 12.4440 Z -1.0000 I 0.7059 J 0.5224
G03 X 14.4068 Y 12.4313 Z -1.0000 I 0.0599 J 0.0879
G01 X 14.4157 Y 12.4796 Z -1.0000
G01 X 14.4157 Y 12.4796 Z -1.0000
G00 Z 5.0000

(End cutting path id: path182016)


(Start cutting path id: path182016)
(Change tool to Default tool)

G00 Z 5.0000
G00 X 14.4356 Y 12.2658

G01 Z -1.0000 F 100.0000(Penetrate)
G03 X 14.3775 Y 12.3239 Z -1.0000 I -0.1522 J -0.0940 F 3500.0000
G03 X 14.3110 Y 12.3428 Z -1.0000 I -0.0665 J -0.1076
G01 X 14.2765 Y 12.3191 Z -1.0000
G03 X 14.2816 Y 12.2658 Z -1.0000 I 0.0564 J -0.0215
G03 X 14.3397 Y 12.2077 Z -1.0000 I 0.1522 J 0.0941
G03 X 14.4062 Y 12.1888 Z -1.0000 I 0.0665 J 0.1075
G01 X 14.4407 Y 12.2125 Z -1.0000
G03 X 14.4356 Y 12.2658 Z -1.0000 I -0.0564 J 0.0215
G01 X 14.4356 Y 12.2658 Z -1.0000
G00 Z 5.0000

(End cutting path id: path182016)


(Start cutting path id: path182016)
(Change tool to Default tool)

G00 Z 5.0000
G00 X 14.8519 Y 12.0050

G01 Z -1.0000 F 100.0000(Penetrate)
G03 X 14.7623 Y 12.0159 Z -1.0000 I -0.0506 J -0.0420 F 3500.0000
G03 X 14.7336 Y 11.9177 Z -1.0000 I 0.0501 J -0.0680
G03 X 14.7976 Y 11.8431 Z -1.0000 I 0.1365 J 0.0524
G03 X 14.8623 Y 11.8442 Z -1.0000 I 0.0314 J 0.0550
G03 X 14.8926 Y 11.9028 Z -1.0000 I -0.0336 J 0.0545
G03 X 14.8519 Y 12.0050 Z -1.0000 I -0.1776 J -0.0115
G01 X 14.8519 Y 12.0050 Z -1.0000
G00 Z 5.0000

(End cutting path id: path182016)


(Start cutting path id: path182016)
(Change tool to Default tool)

G00 Z 5.0000
G00 X 14.3956 Y 12.7682

G01 Z -1.0000 F 100.0000(Penetrate)
G03 X 14.2967 Y 12.8543 Z -1.0000 I -0.3129 J -0.2597 F 3500.0000
G01 X 14.2629 Y 12.8503 Z -1.0000
G03 X 14.2541 Y 12.7298 Z -1.0000 I 0.0654 J -0.0654
G03 X 14.4111 Y 12.6508 Z -1.0000 I 0.1570 J 0.1166
G01 X 14.4350 Y 12.6781 Z -1.0000
G03 X 14.3956 Y 12.7682 Z -1.0000 I -0.1760 J -0.0233
G01 X 14.3956 Y 12.7682 Z -1.0000
G00 Z 5.0000

(End cutting path id: path182016)


(Start cutting path id: path182016)
(Change tool to Default tool)

G00 Z 5.0000
G00 X 15.2407 Y 11.1379

G01 Z -1.0000 F 100.0000(Penetrate)
G02 X 15.3117 Y 11.1649 Z -1.0000 I 0.0656 J -0.0655 F 3500.0000
G02 X 15.4455 Y 11.1258 Z -1.0000 I -0.0184 J -0.3110
G01 X 15.4508 Y 11.0871 Z -1.0000
G02 X 15.3798 Y 11.0601 Z -1.0000 I -0.0656 J 0.0655
G02 X 15.2461 Y 11.0992 Z -1.0000 I 0.0184 J 0.3111
G01 X 15.2407 Y 11.1379 Z -1.0000
G01 X 15.2407 Y 11.1379 Z -1.0000
G00 Z 5.0000

(End cutting path id: path182016)


(Start cutting path id: path182016)
(Change tool to Default tool)

G00 Z 5.0000
G00 X 17.3748 Y 15.6123

G01 Z -1.0000 F 100.0000(Penetrate)
G03 X 17.3491 Y 15.6784 Z -1.0000 I -0.0981 J 0.0000 F 3500.0000
G01 X 17.3093 Y 15.6840 Z -1.0000
G03 X 17.2763 Y 15.6359 Z -1.0000 I 0.0380 J -0.0615
G03 X 17.2882 Y 15.5719 Z -1.0000 I 0.0885 J -0.0167
G01 X 17.3393 Y 15.5566 Z -1.0000
G03 X 17.3748 Y 15.6123 Z -1.0000 I -0.0260 J 0.0557
G01 X 17.3748 Y 15.6123 Z -1.0000
G00 Z 5.0000

(End cutting path id: path182016)


(Start cutting path id: path182016)
(Change tool to Default tool)

G00 Z 5.0000
G00 X 16.9723 Y 16.8546

G01 Z -1.0000 F 100.0000(Penetrate)
G03 X 16.9368 Y 17.0474 Z -1.0000 I -1.3399 J -0.1470 F 3500.0000
G03 X 16.9098 Y 17.0945 Z -1.0000 I -0.1003 J -0.0261
G01 X 16.8359 Y 17.0618 Z -1.0000
G03 X 16.9296 Y 16.6745 Z -1.0000 I 1.0512 J 0.0495
G01 X 16.9614 Y 16.6776 Z -1.0000
G03 X 16.9723 Y 16.8546 Z -1.0000 I -0.5064 J 0.1202
G01 X 16.9723 Y 16.8546 Z -1.0000
G00 Z 5.0000

(End cutting path id: path182016)


(Start cutting path id: path182016)
(Change tool to Default tool)

G00 Z 5.0000
G00 X 17.4873 Y 17.7142

G01 Z -1.0000 F 100.0000(Penetrate)
G01 X 17.4856 Y 17.7416 Z -1.0000 F 3500.0000
G01 X 17.4582 Y 17.7432 Z -1.0000
G03 X 17.3362 Y 17.6094 Z -1.0000 I 0.3374 J -0.4302
G01 X 17.3525 Y 17.5794 Z -1.0000
G01 X 17.3767 Y 17.5894 Z -1.0000
G03 X 17.4873 Y 17.7142 Z -1.0000 I -0.9790 J 0.9791
G01 X 17.4873 Y 17.7142 Z -1.0000
G00 Z 5.0000

(End cutting path id: path182016)


(Start cutting path id: path182016)
(Change tool to Default tool)

G00 Z 5.0000
G00 X 19.7107 Y 17.8104

G01 Z -1.0000 F 100.0000(Penetrate)
G03 X 19.6881 Y 17.8649 Z -1.0000 I -0.0770 J -0.0000 F 3500.0000
G03 X 19.6337 Y 17.8874 Z -1.0000 I -0.0545 J -0.0545
G03 X 19.5792 Y 17.8649 Z -1.0000 I 0.0000 J -0.0770
G03 X 19.5567 Y 17.8104 Z -1.0000 I 0.0545 J -0.0545
G03 X 19.5792 Y 17.7560 Z -1.0000 I 0.0770 J 0.0000
G03 X 19.6337 Y 17.7334 Z -1.0000 I 0.0545 J 0.0544
G03 X 19.6881 Y 17.7560 Z -1.0000 I 0.0000 J 0.0770
G03 X 19.7107 Y 17.8104 Z -1.0000 I -0.0544 J 0.0545
G01 X 19.7107 Y 17.8104 Z -1.0000
G00 Z 5.0000

(End cutting path id: path182016)


(Start cutting path id: path182016)
(Change tool to Default tool)

G00 Z 5.0000
G00 X 19.9802 Y 17.7334

G01 Z -1.0000 F 100.0000(Penetrate)
G03 X 19.9221 Y 17.7915 Z -1.0000 I -0.1522 J -0.0941 F 3500.0000
G03 X 19.8556 Y 17.8104 Z -1.0000 I -0.0665 J -0.1075
G01 X 19.8212 Y 17.7867 Z -1.0000
G03 X 19.8262 Y 17.7334 Z -1.0000 I 0.0564 J -0.0216
G03 X 19.8843 Y 17.6753 Z -1.0000 I 0.1522 J 0.0940
G03 X 19.9508 Y 17.6564 Z -1.0000 I 0.0665 J 0.1076
G01 X 19.9853 Y 17.6801 Z -1.0000
G03 X 19.9802 Y 17.7334 Z -1.0000 I -0.0564 J 0.0216
G01 X 19.9802 Y 17.7334 Z -1.0000
G00 Z 5.0000

(End cutting path id: path182016)


(Start cutting path id: path182016)
(Change tool to Default tool)

G00 Z 5.0000
G00 X 20.5193 Y 17.5794

G01 Z -1.0000 F 100.0000(Penetrate)
G03 X 20.4601 Y 17.6354 Z -1.0000 I -0.1351 J -0.0835 F 3500.0000
G03 X 20.3800 Y 17.6552 Z -1.0000 I -0.0781 J -0.1434
G01 X 20.3634 Y 17.6324 Z -1.0000
G03 X 20.4038 Y 17.5794 Z -1.0000 I 0.0936 J 0.0294
G03 X 20.5030 Y 17.5501 Z -1.0000 I 0.0992 J 0.1535
G01 X 20.5193 Y 17.5794 Z -1.0000
G01 X 20.5193 Y 17.5794 Z -1.0000
G00 Z 5.0000

(End cutting path id: path182016)


(Start cutting path id: path182016)
(Change tool to Default tool)

G00 Z 5.0000
G00 X 20.4808 Y 15.2187

G01 Z -1.0000 F 100.0000(Penetrate)
G01 X 20.4715 Y 15.2410 Z -1.0000 F 3500.0000
G03 X 20.3075 Y 15.3920 Z -1.0000 I -1.9038 J -1.9038
G01 X 20.2820 Y 15.3909 Z -1.0000
G01 X 20.2809 Y 15.3654 Z -1.0000
G03 X 20.4532 Y 15.2047 Z -1.0000 I 0.7667 J 0.6492
G01 X 20.4808 Y 15.2187 Z -1.0000
G01 X 20.4808 Y 15.2187 Z -1.0000
G00 Z 5.0000

(End cutting path id: path182016)


(Start cutting path id: path182016)
(Change tool to Default tool)

G00 Z 5.0000
G00 X 21.0615 Y 14.8790

G01 Z -1.0000 F 100.0000(Penetrate)
G03 X 21.0000 Y 14.9419 Z -1.0000 I -0.1713 J -0.1059 F 3500.0000
G03 X 20.9352 Y 14.9611 Z -1.0000 I -0.0648 J -0.0996
G01 X 20.9156 Y 14.9366 Z -1.0000
G03 X 20.9590 Y 14.8534 Z -1.0000 I 0.1760 J 0.0389
G03 X 21.0411 Y 14.8288 Z -1.0000 I 0.0617 J 0.0569
G01 X 21.0615 Y 14.8790 Z -1.0000
G01 X 21.0615 Y 14.8790 Z -1.0000
G00 Z 5.0000

(End cutting path id: path182016)


(Start cutting path id: path182016)
(Change tool to Default tool)

G00 Z 5.0000
G00 X 26.3729 Y 22.1983

G01 Z -1.0000 F 100.0000(Penetrate)
G02 X 26.3561 Y 22.4650 Z -1.0000 I 0.2413 J 0.1491 F 3500.0000
G02 X 26.5479 Y 22.5825 Z -1.0000 I 0.1829 J -0.0833
G02 X 26.5987 Y 22.5683 Z -1.0000 I -0.0049 J -0.1153
G02 X 26.7370 Y 22.4783 Z -1.0000 I -0.5491 J -0.9954
G02 X 26.7876 Y 22.3729 Z -1.0000 I -0.0774 J -0.1020
G02 X 26.7309 Y 22.2497 Z -1.0000 I -0.1723 J 0.0046
G02 X 26.4975 Y 22.1401 Z -1.0000 I -0.2961 J 0.3272
G02 X 26.3729 Y 22.1983 Z -1.0000 I -0.0178 J 0.1242
G01 X 26.3729 Y 22.1983 Z -1.0000
G00 Z 5.0000

(End cutting path id: path182016)


(Start cutting path id: path182016)
(Change tool to Default tool)

G00 Z 5.0000
G00 X 35.1124 Y 23.0470

G01 Z -1.0000 F 100.0000(Penetrate)
G03 X 35.0898 Y 23.1014 Z -1.0000 I -0.0770 J 0.0000 F 3500.0000
G03 X 35.0354 Y 23.1240 Z -1.0000 I -0.0545 J -0.0544
G03 X 34.9809 Y 23.1015 Z -1.0000 I 0.0000 J -0.0770
G03 X 34.9584 Y 23.0470 Z -1.0000 I 0.0545 J -0.0545
G03 X 34.9809 Y 22.9925 Z -1.0000 I 0.0770 J -0.0000
G03 X 35.0354 Y 22.9700 Z -1.0000 I 0.0545 J 0.0545
G03 X 35.0898 Y 22.9925 Z -1.0000 I -0.0000 J 0.0770
G03 X 35.1124 Y 23.0470 Z -1.0000 I -0.0544 J 0.0545
G01 X 35.1124 Y 23.0470 Z -1.0000
G00 Z 5.0000

(End cutting path id: path182016)


(Start cutting path id: path182016)
(Change tool to Default tool)

G00 Z 5.0000
G00 X 36.3445 Y 21.0017

G01 Z -1.0000 F 100.0000(Penetrate)
G01 X 36.3335 Y 21.0295 Z -1.0000 F 3500.0000
G03 X 36.2675 Y 21.0833 Z -1.0000 I -0.2380 J -0.2247
G03 X 36.2150 Y 21.0869 Z -1.0000 I -0.0297 J -0.0481
G01 X 36.1905 Y 21.0493 Z -1.0000
G03 X 36.2137 Y 20.9910 Z -1.0000 I 0.0850 J -0.0000
G03 X 36.2675 Y 20.9678 Z -1.0000 I 0.0538 J 0.0508
G03 X 36.3311 Y 20.9812 Z -1.0000 I 0.0000 J 0.1576
G01 X 36.3445 Y 21.0017 Z -1.0000
G01 X 36.3445 Y 21.0017 Z -1.0000
G00 Z 5.0000

(End cutting path id: path182016)


(Start cutting path id: path182016)
(Change tool to Default tool)

G00 Z 5.0000
G00 X 6.6045 Y 6.4033

G01 Z -1.0000 F 100.0000(Penetrate)
G03 X 6.5357 Y 6.3996 Z -1.0000 I -0.0300 J -0.0838 F 3500.0000
G03 X 6.4649 Y 6.3357 Z -1.0000 I 0.0745 J -0.1537
G02 X 6.3958 Y 6.2804 Z -1.0000 I -0.1121 J 0.0693
G02 X 6.3268 Y 6.2880 Z -1.0000 I -0.0264 J 0.0766
G03 X 6.1002 Y 6.3140 Z -1.0000 I -0.1410 J -0.2281
G03 X 6.0032 Y 6.1790 Z -1.0000 I 0.0455 J -0.1350
G03 X 6.1712 Y 6.0232 Z -1.0000 I 0.1563 J 0.0000
G03 X 6.5556 Y 6.2206 Z -1.0000 I -0.0418 J 0.5542
G03 X 6.6276 Y 6.3592 Z -1.0000 I -0.2770 J 0.2319
G01 X 6.6045 Y 6.4033 Z -1.0000
G01 X 6.6045 Y 6.4033 Z -1.0000
G00 Z 5.0000

(End cutting path id: path182016)


(Start cutting path id: path182016)
(Change tool to Default tool)

G00 Z 5.0000
G00 X 4.3090 Y 1.8311

G01 Z -1.0000 F 100.0000(Penetrate)
G03 X 4.1186 Y 2.0016 Z -1.0000 I -1.0805 J -1.0151 F 3500.0000
G03 X 4.0526 Y 2.0237 Z -1.0000 I -0.0660 J -0.0880
G01 X 4.0409 Y 2.0000 Z -1.0000
G03 X 4.2007 Y 1.8312 Z -1.0000 I 0.9031 J 0.6955
G03 X 4.2940 Y 1.7966 Z -1.0000 I 0.0934 J 0.1086
G01 X 4.3090 Y 1.8311 Z -1.0000
G01 X 4.3090 Y 1.8311 Z -1.0000
G00 Z 5.0000

(End cutting path id: path182016)


(Start cutting path id: path182016)
(Change tool to Default tool)

G00 Z 5.0000
G00 X 5.0791 Y 1.3608

G01 Z -1.0000 F 100.0000(Penetrate)
G01 X 5.0670 Y 1.3828 Z -1.0000 F 3500.0000
G03 X 4.9596 Y 1.4370 Z -1.0000 I -0.3227 J -0.5068
G03 X 4.8965 Y 1.4361 Z -1.0000 I -0.0304 J -0.0791
G01 X 4.8871 Y 1.4067 Z -1.0000
G03 X 5.0176 Y 1.3124 Z -1.0000 I 0.1796 J 0.1110
G01 X 5.0791 Y 1.3609 Z -1.0000
G01 X 5.0791 Y 1.3608 Z -1.0000
G00 Z 5.0000

(End cutting path id: path182016)



(Footer)
M5
G00 X0.0000 Y0.0000
M2
(Using default footer. To add your own footer create file "footer" in the output dir.)
(end)
%