%
(Header)
(Generated by gcodetools from Inkscape.)
(Using default header. To add your own header create file "header" in the output dir.)
M3
(Header end.)
G21 (All units in mm)

(Start cutting path id: path183460)
(Change tool to Default tool)

G00 Z 5.0000
G00 X 36.9521 Y 25.3711

G01 Z -1.0000 F 100.0000(Penetrate)
G01 X 36.9297 Y 25.3780 Z -1.0000 F 3500.0000
G03 X 36.7623 Y 25.3776 Z -1.0000 I -0.0783 J -2.2696
G02 X 36.4648 Y 25.3855 Z -1.0000 I -0.0880 J 2.2820
G01 X 36.4454 Y 25.4068 Z -1.0000
G01 X 36.4372 Y 25.4168 Z -1.0000
G03 X 36.3573 Y 25.4247 Z -1.0000 I -0.0781 J -0.3848
G02 X 36.1518 Y 25.4331 Z -1.0000 I -0.0099 J 2.2755
G01 X 36.1273 Y 25.4445 Z -1.0000
G01 X 36.0948 Y 25.4557 Z -1.0000
G01 X 36.0871 Y 25.4395 Z -1.0000
G01 X 36.0598 Y 25.4482 Z -1.0000
G03 X 36.0203 Y 25.4652 Z -1.0000 I -0.0679 J -0.1037
G03 X 35.9277 Y 25.4794 Z -1.0000 I -0.1358 J -0.5745
G02 X 35.8362 Y 25.4930 Z -1.0000 I 0.0446 J 0.6138
G01 X 35.8183 Y 25.5042 Z -1.0000
G01 X 35.7927 Y 25.5199 Z -1.0000
G03 X 35.6284 Y 25.5443 Z -1.0000 I -0.2823 J -1.3367
G02 X 35.5809 Y 25.5541 Z -1.0000 I 0.0185 J 0.2090
G02 X 35.5298 Y 25.5771 Z -1.0000 I 0.0865 J 0.2607
G03 X 35.4783 Y 25.5988 Z -1.0000 I -0.1116 J -0.1929
G03 X 35.3922 Y 25.6156 Z -1.0000 I -0.1476 J -0.5275
G02 X 35.3047 Y 25.6296 Z -1.0000 I 0.1083 J 0.9565
G02 X 35.2463 Y 25.6459 Z -1.0000 I 0.0919 J 0.4426
G03 X 35.1893 Y 25.6613 Z -1.0000 I -0.1313 J -0.3723
G01 X 35.1773 Y 25.6591 Z -1.0000
G01 X 35.1666 Y 25.6583 Z -1.0000
G02 X 35.1446 Y 25.6733 Z -1.0000 I 0.0284 J 0.0654
G03 X 35.1210 Y 25.6887 Z -1.0000 I -0.0486 J -0.0486
G03 X 35.0906 Y 25.6943 Z -1.0000 I -0.0298 J -0.0763
G01 X 35.0777 Y 25.6878 Z -1.0000
G01 X 35.0791 Y 25.6789 Z -1.0000
G01 X 35.0792 Y 25.6746 Z -1.0000
G01 X 35.0721 Y 25.6734 Z -1.0000
G03 X 34.9087 Y 25.7190 Z -1.0000 I -0.4674 J -1.3596
G03 X 34.8657 Y 25.7181 Z -1.0000 I -0.0196 J -0.0906
G01 X 34.8434 Y 25.7187 Z -1.0000
G02 X 34.8022 Y 25.7384 Z -1.0000 I 0.0518 J 0.1611
G03 X 34.7599 Y 25.7573 Z -1.0000 I -0.0792 J -0.1200
G03 X 34.7023 Y 25.7649 Z -1.0000 I -0.0580 J -0.2188
G02 X 34.6485 Y 25.7709 Z -1.0000 I 0.0004 J 0.2469
G01 X 34.6425 Y 25.7784 Z -1.0000
G01 X 34.6331 Y 25.7902 Z -1.0000
G03 X 34.4961 Y 25.8127 Z -1.0000 I -0.2355 J -1.0077
G02 X 34.4460 Y 25.8251 Z -1.0000 I 0.0164 J 0.1724
G01 X 34.4285 Y 25.8407 Z -1.0000
G01 X 34.4102 Y 25.8542 Z -1.0000
G03 X 34.3224 Y 25.8636 Z -1.0000 I -0.0878 J -0.4074
G02 X 34.2326 Y 25.8725 Z -1.0000 I -0.0000 J 0.4552
G02 X 34.2025 Y 25.8877 Z -1.0000 I 0.0125 J 0.0623
G01 X 34.1777 Y 25.8985 Z -1.0000
G01 X 34.1627 Y 25.8912 Z -1.0000
G01 X 34.1495 Y 25.8837 Z -1.0000
G01 X 34.1367 Y 25.8904 Z -1.0000
G01 X 34.1204 Y 25.9042 Z -1.0000
G03 X 34.0800 Y 25.9149 Z -1.0000 I -0.0556 J -0.1283
G02 X 34.0375 Y 25.9240 Z -1.0000 I 0.0229 J 0.2131
G02 X 34.0047 Y 25.9390 Z -1.0000 I 0.0459 J 0.1430
G03 X 33.9716 Y 25.9534 Z -1.0000 I -0.0669 J -0.1090
G03 X 33.8713 Y 25.9756 Z -1.0000 I -0.2732 J -0.9966
G02 X 33.7754 Y 25.9982 Z -1.0000 I 0.1274 J 0.7532
G01 X 33.7691 Y 26.0067 Z -1.0000
G01 X 33.7636 Y 26.0145 Z -1.0000
G03 X 33.7375 Y 26.0180 Z -1.0000 I -0.0211 J -0.0594
G02 X 33.7060 Y 26.0169 Z -1.0000 I -0.0276 J 0.3432
G01 X 33.6987 Y 26.0184 Z -1.0000
G01 X 33.6914 Y 26.0203 Z -1.0000
G03 X 33.6258 Y 26.0271 Z -1.0000 I -0.2235 J -1.8387
G02 X 33.4691 Y 26.0522 Z -1.0000 I 0.0949 J 1.0949
G02 X 33.1494 Y 26.1391 Z -1.0000 I 1.1004 J 4.6787
G03 X 33.0712 Y 26.1594 Z -1.0000 I -0.2605 J -0.8420
G03 X 33.0050 Y 26.1696 Z -1.0000 I -0.1254 J -0.5932
G02 X 32.9442 Y 26.1817 Z -1.0000 I 0.0308 J 0.3147
G01 X 32.9381 Y 26.1898 Z -1.0000
G01 X 32.9328 Y 26.1963 Z -1.0000
G01 X 32.9120 Y 26.1952 Z -1.0000
G02 X 32.8866 Y 26.1938 Z -1.0000 I -0.0156 J 0.0496
G02 X 32.8451 Y 26.2083 Z -1.0000 I 0.0288 J 0.1489
G03 X 32.8027 Y 26.2233 Z -1.0000 I -0.0741 J -0.1421
G03 X 32.7338 Y 26.2307 Z -1.0000 I -0.0746 J -0.3706
G02 X 32.6909 Y 26.2367 Z -1.0000 I 0.0027 J 0.1747
G01 X 32.6905 Y 26.2424 Z -1.0000
G01 X 32.6992 Y 26.2530 Z -1.0000
G01 X 32.6939 Y 26.2622 Z -1.0000
G03 X 32.6698 Y 26.2667 Z -1.0000 I -0.0248 J -0.0649
G03 X 32.6272 Y 26.2627 Z -1.0000 I -0.0020 J -0.2052
G02 X 32.5850 Y 26.2601 Z -1.0000 I -0.0308 J 0.1550
G02 X 32.5534 Y 26.2681 Z -1.0000 I 0.0067 J 0.0923
G03 X 32.5219 Y 26.2801 Z -1.0000 I -0.1116 J -0.2460
G03 X 32.4310 Y 26.3061 Z -1.0000 I -0.6342 J -2.0436
G03 X 32.3282 Y 26.3289 Z -1.0000 I -0.3500 J -1.3331
G03 X 32.2436 Y 26.3403 Z -1.0000 I -0.1628 J -0.8934
G01 X 32.2279 Y 26.3474 Z -1.0000
G01 X 32.2268 Y 26.3566 Z -1.0000
G01 X 32.2243 Y 26.3647 Z -1.0000
G03 X 32.1924 Y 26.3724 Z -1.0000 I -0.0354 J -0.0768
G02 X 32.1494 Y 26.3750 Z -1.0000 I 0.0454 J 1.1113
G02 X 32.1387 Y 26.3766 Z -1.0000 I 0.0061 J 0.0765
G03 X 32.1281 Y 26.3787 Z -1.0000 I -0.0469 J -0.2092
G03 X 32.0613 Y 26.3898 Z -1.0000 I -1.0088 J -5.8742
G02 X 32.0008 Y 26.4060 Z -1.0000 I 0.0485 J 0.3024
G01 X 31.9944 Y 26.4153 Z -1.0000
G01 X 31.9893 Y 26.4227 Z -1.0000
G01 X 31.9758 Y 26.4229 Z -1.0000
G01 X 31.9569 Y 26.4208 Z -1.0000
G02 X 31.8807 Y 26.4372 Z -1.0000 I 0.0927 J 0.6189
G03 X 31.8039 Y 26.4571 Z -1.0000 I -0.5492 J -1.9592
G03 X 31.7760 Y 26.4621 Z -1.0000 I -0.0603 J -0.2526
G02 X 31.6057 Y 26.4894 Z -1.0000 I 0.3244 J 2.5755
G01 X 31.6000 Y 26.4963 Z -1.0000
G01 X 31.5959 Y 26.5025 Z -1.0000
G03 X 31.5330 Y 26.5248 Z -1.0000 I -0.2090 J -0.4904
G03 X 31.4312 Y 26.5486 Z -1.0000 I -0.3012 J -1.0560
G03 X 31.3323 Y 26.5618 Z -1.0000 I -0.1813 J -0.9820
G02 X 31.2408 Y 26.5695 Z -1.0000 I 43.3053 J 519.2512
G02 X 31.2098 Y 26.5721 Z -1.0000 I 0.4225 J 5.0547
G02 X 31.1808 Y 26.5793 Z -1.0000 I 0.0085 J 0.0963
G02 X 31.1612 Y 26.5925 Z -1.0000 I 0.0238 J 0.0567
G03 X 31.1414 Y 26.6050 Z -1.0000 I -0.0378 J -0.0378
G03 X 31.1121 Y 26.6101 Z -1.0000 I -0.0293 J -0.0818
G02 X 31.0813 Y 26.6136 Z -1.0000 I 0.0000 J 0.1367
G02 X 31.0410 Y 26.6265 Z -1.0000 I 0.0578 J 0.2499
G03 X 31.0006 Y 26.6401 Z -1.0000 I -0.1200 J -0.2909
G03 X 30.9591 Y 26.6479 Z -1.0000 I -0.0765 J -0.2926
G02 X 30.9168 Y 26.6529 Z -1.0000 I 1.1131 J 9.5809
G03 X 30.8745 Y 26.6580 Z -1.0000 I -5.0185 J -41.5946
G03 X 30.8322 Y 26.6625 Z -1.0000 I -0.1778 J -1.4757
G03 X 30.7971 Y 26.6650 Z -1.0000 I -0.0809 J -0.8843
G01 X 30.7819 Y 26.6723 Z -1.0000
G01 X 30.7830 Y 26.6807 Z -1.0000
G01 X 30.7821 Y 26.6856 Z -1.0000
G03 X 30.7583 Y 26.6858 Z -1.0000 I -0.0123 J -0.0595
G02 X 30.7192 Y 26.6851 Z -1.0000 I -0.0215 J 0.1123
G01 X 30.7126 Y 26.6929 Z -1.0000
G01 X 30.7054 Y 26.7016 Z -1.0000
G03 X 30.6351 Y 26.7088 Z -1.0000 I -0.0704 J -0.3433
G02 X 30.5635 Y 26.7146 Z -1.0000 I 0.0000 J 0.4425
G01 X 30.5576 Y 26.7215 Z -1.0000
G01 X 30.5525 Y 26.7277 Z -1.0000
G03 X 30.5295 Y 26.7269 Z -1.0000 I -0.0099 J -0.0507
G01 X 30.5073 Y 26.7274 Z -1.0000
G01 X 30.5013 Y 26.7356 Z -1.0000
G01 X 30.4828 Y 26.7613 Z -1.0000
G03 X 30.3531 Y 26.7853 Z -1.0000 I -0.1495 J -0.4461
G02 X 30.2842 Y 26.7957 Z -1.0000 I 0.0132 J 0.3200
G02 X 30.2004 Y 26.8258 Z -1.0000 I 0.1346 J 0.5069
G03 X 30.1187 Y 26.8531 Z -1.0000 I -0.1686 J -0.3684
G01 X 30.0926 Y 26.8495 Z -1.0000
G02 X 29.9802 Y 26.8214 Z -1.0000 I -0.1119 J 0.2090
G01 X 29.9519 Y 26.8498 Z -1.0000
G01 X 29.9555 Y 26.8572 Z -1.0000
G02 X 29.9836 Y 26.8747 Z -1.0000 I 0.0948 J -0.1206
G01 X 29.9880 Y 26.8841 Z -1.0000
G01 X 29.9794 Y 26.8909 Z -1.0000
G03 X 29.9456 Y 26.8867 Z -1.0000 I -0.0030 J -0.1124
G01 X 29.9278 Y 26.8761 Z -1.0000
G01 X 29.9135 Y 26.8730 Z -1.0000
G01 X 29.8947 Y 26.8882 Z -1.0000
G01 X 29.8713 Y 26.9041 Z -1.0000
G03 X 29.7817 Y 26.9091 Z -1.0000 I -0.0644 J -0.3473
G02 X 29.6598 Y 26.9171 Z -1.0000 I -0.0320 J 0.4489
G01 X 29.6566 Y 26.9347 Z -1.0000
G01 X 29.6560 Y 26.9421 Z -1.0000
G03 X 29.6210 Y 26.9502 Z -1.0000 I -0.0393 J -0.0900
G03 X 29.5646 Y 26.9516 Z -1.0000 I -0.0646 J -1.5388
G03 X 29.5400 Y 26.9506 Z -1.0000 I -0.0015 J -0.2819
G01 X 29.5205 Y 26.9542 Z -1.0000
G01 X 29.5153 Y 26.9625 Z -1.0000
G01 X 29.5199 Y 26.9719 Z -1.0000
G01 X 29.5329 Y 26.9766 Z -1.0000
G01 X 29.5362 Y 26.9809 Z -1.0000
G01 X 29.5295 Y 26.9901 Z -1.0000
G03 X 29.5076 Y 26.9978 Z -1.0000 I -0.0277 J -0.0439
G03 X 29.4782 Y 26.9958 Z -1.0000 I -0.0092 J -0.0819
G02 X 29.4507 Y 26.9950 Z -1.0000 I -0.0155 J 0.0615
G01 X 29.4386 Y 27.0034 Z -1.0000
G01 X 29.4382 Y 27.0136 Z -1.0000
G01 X 29.4465 Y 27.0186 Z -1.0000
G01 X 29.4548 Y 27.0223 Z -1.0000
G01 X 29.4547 Y 27.0277 Z -1.0000
G01 X 29.4453 Y 27.0302 Z -1.0000
G03 X 29.4249 Y 27.0196 Z -1.0000 I 0.0145 J -0.0528
G02 X 29.4026 Y 27.0088 Z -1.0000 I -0.0336 J 0.0406
G02 X 29.3718 Y 27.0081 Z -1.0000 I -0.0170 J 0.0781
G01 X 29.3652 Y 27.0170 Z -1.0000
G01 X 29.3745 Y 27.0294 Z -1.0000
G01 X 29.3741 Y 27.0370 Z -1.0000
G03 X 29.3322 Y 27.0433 Z -1.0000 I -0.0392 J -0.1192
G02 X 29.1563 Y 27.0529 Z -1.0000 I -0.0244 J 1.1680
G02 X 29.1191 Y 27.0712 Z -1.0000 I 0.0083 J 0.0638
G01 X 29.1213 Y 27.0776 Z -1.0000
G02 X 29.2088 Y 27.0829 Z -1.0000 I 0.0822 J -0.6284
G03 X 29.3109 Y 27.0846 Z -1.0000 I 0.0169 J 2.0560
G03 X 29.3885 Y 27.0903 Z -1.0000 I -0.0506 J 1.2196
G01 X 29.3888 Y 27.0959 Z -1.0000
G03 X 29.3181 Y 27.1041 Z -1.0000 I -0.0875 J -0.4485
G03 X 29.0598 Y 27.1026 Z -1.0000 I -0.1118 J -3.0243
G01 X 29.0319 Y 27.0902 Z -1.0000
G02 X 28.9835 Y 27.0709 Z -1.0000 I -0.0466 J 0.0466
G02 X 28.8948 Y 27.0939 Z -1.0000 I 0.0055 J 0.2036
G03 X 28.8574 Y 27.1076 Z -1.0000 I -0.0707 J -0.1355
G03 X 28.7687 Y 27.1221 Z -1.0000 I -0.1698 J -0.7606
G02 X 28.6812 Y 27.1370 Z -1.0000 I 0.0718 J 0.6853
G01 X 28.6637 Y 27.1470 Z -1.0000
G01 X 28.6660 Y 27.1538 Z -1.0000
G02 X 28.7054 Y 27.1543 Z -1.0000 I 0.0214 J -0.1222
G03 X 28.9204 Y 27.1294 Z -1.0000 I 0.5328 J 3.6607
G01 X 28.9234 Y 27.1355 Z -1.0000
G03 X 28.8123 Y 27.1949 Z -1.0000 I -0.1389 J -0.1262
G03 X 28.6154 Y 27.1817 Z -1.0000 I -0.0683 J -0.4556
G02 X 28.5925 Y 27.1797 Z -1.0000 I -0.0166 J 0.0577
G02 X 28.5011 Y 27.1938 Z -1.0000 I 0.1002 J 0.9536
G01 X 28.4763 Y 27.2079 Z -1.0000
G01 X 28.4800 Y 27.2169 Z -1.0000
G02 X 28.5505 Y 27.2208 Z -1.0000 I 0.2285 J -3.5406
G02 X 28.5950 Y 27.2221 Z -1.0000 I 0.0703 J -1.5767
G03 X 28.6380 Y 27.2267 Z -1.0000 I -0.0038 J 0.2393
G01 X 28.6498 Y 27.2330 Z -1.0000
G01 X 28.6479 Y 27.2381 Z -1.0000
G03 X 28.5032 Y 27.2400 Z -1.0000 I -0.1009 J -2.0899
G02 X 28.3525 Y 27.2459 Z -1.0000 I -0.0254 J 1.2864
G01 X 28.3391 Y 27.2561 Z -1.0000
G01 X 28.3438 Y 27.2655 Z -1.0000
G02 X 28.3777 Y 27.2677 Z -1.0000 I 0.0218 J -0.0720
G03 X 28.4236 Y 27.2647 Z -1.0000 I 0.0380 J 0.2284
G03 X 28.4871 Y 27.2714 Z -1.0000 I -0.0155 J 0.4505
G01 X 28.4866 Y 27.2805 Z -1.0000
G03 X 28.1983 Y 27.2936 Z -1.0000 I -0.3526 J -4.5939
G02 X 27.8453 Y 27.3047 Z -1.0000 I 0.1420 J 10.1431
G01 X 27.8391 Y 27.3112 Z -1.0000
G01 X 27.8445 Y 27.3168 Z -1.0000
G02 X 28.1103 Y 27.3252 Z -1.0000 I 0.3422 J -6.6167
G03 X 28.3806 Y 27.3337 Z -1.0000 I -0.0780 J 6.8431
G03 X 28.4237 Y 27.3411 Z -1.0000 I -0.0093 J 0.1822
G01 X 28.4308 Y 27.3525 Z -1.0000
G01 X 28.4199 Y 27.3641 Z -1.0000
G02 X 28.3761 Y 27.3776 Z -1.0000 I 0.0639 J 0.2842
G01 X 28.3671 Y 27.3852 Z -1.0000
G01 X 28.3761 Y 27.4048 Z -1.0000
G02 X 28.4375 Y 27.3965 Z -1.0000 I 0.0170 J -0.1058
G03 X 28.4711 Y 27.3887 Z -1.0000 I 0.0358 J 0.0786
G01 X 28.4902 Y 27.3952 Z -1.0000
G02 X 28.6671 Y 27.4589 Z -1.0000 I 0.1816 J -0.2266
G02 X 28.7753 Y 27.3998 Z -1.0000 I 0.0020 J -0.1248
G01 X 28.8121 Y 27.3785 Z -1.0000
G03 X 28.8784 Y 27.3968 Z -1.0000 I 0.0034 J 0.1175
G01 X 28.8774 Y 27.4043 Z -1.0000
G03 X 28.7658 Y 27.4295 Z -1.0000 I -0.2624 J -0.9042
G02 X 28.6967 Y 27.4528 Z -1.0000 I 0.0355 J 0.2186
G01 X 28.6983 Y 27.4656 Z -1.0000
G01 X 28.6982 Y 27.4740 Z -1.0000
G03 X 28.6068 Y 27.4847 Z -1.0000 I -0.1057 J -0.5051
G03 X 28.4519 Y 27.4872 Z -1.0000 I -0.1749 J -6.2111
G03 X 28.3920 Y 27.4855 Z -1.0000 I -0.0032 J -0.9860
G02 X 28.3373 Y 27.4875 Z -1.0000 I -0.0169 J 0.2923
G01 X 28.3322 Y 27.4933 Z -1.0000
G01 X 28.3572 Y 27.5299 Z -1.0000
G02 X 28.4247 Y 27.5304 Z -1.0000 I 0.0344 J -0.0857
G01 X 28.4374 Y 27.5334 Z -1.0000
G01 X 28.4448 Y 27.5524 Z -1.0000
G01 X 28.4537 Y 27.5736 Z -1.0000
G01 X 28.4765 Y 27.5835 Z -1.0000
G01 X 28.4799 Y 27.5883 Z -1.0000
G01 X 28.4730 Y 27.5951 Z -1.0000
G01 X 28.4629 Y 27.6057 Z -1.0000
G01 X 28.4683 Y 27.6154 Z -1.0000
G02 X 28.4990 Y 27.6208 Z -1.0000 I 0.0337 J -0.1009
G02 X 28.5317 Y 27.6173 Z -1.0000 I 0.0034 J -0.1212
G03 X 28.6915 Y 27.6182 Z -1.0000 I 0.0782 J 0.3121
G01 X 28.6942 Y 27.6599 Z -1.0000
G03 X 28.6683 Y 27.6651 Z -1.0000 I -0.0267 J -0.0663
G03 X 28.6097 Y 27.6609 Z -1.0000 I -0.0038 J -0.3563
G02 X 28.5504 Y 27.6527 Z -1.0000 I -0.2434 J 1.5539
G02 X 28.4730 Y 27.6448 Z -1.0000 I -0.2987 J 2.5353
G03 X 28.3961 Y 27.6352 Z -1.0000 I 0.0894 J -1.0296
G03 X 28.3533 Y 27.6253 Z -1.0000 I 0.0540 J -0.3314
G02 X 28.3106 Y 27.6149 Z -1.0000 I -0.1201 J 0.3988
G02 X 28.2406 Y 27.6040 Z -1.0000 I -0.1997 J 1.0558
G02 X 28.1966 Y 27.6065 Z -1.0000 I -0.0151 J 0.1240
G01 X 28.1947 Y 27.6149 Z -1.0000
G02 X 28.2218 Y 27.6281 Z -1.0000 I 0.0435 J -0.0548
G02 X 28.3109 Y 27.6429 Z -1.0000 I 0.1477 J -0.6127
G03 X 28.4010 Y 27.6562 Z -1.0000 I -0.0797 J 0.8539
G03 X 28.4323 Y 27.6674 Z -1.0000 I -0.0226 J 0.1119
G02 X 28.4630 Y 27.6775 Z -1.0000 I 0.0438 J -0.0817
G02 X 28.4970 Y 27.6767 Z -1.0000 I 0.0147 J -0.1026
G01 X 28.5114 Y 27.6809 Z -1.0000
G01 X 28.5116 Y 27.6905 Z -1.0000
G01 X 28.4879 Y 27.7001 Z -1.0000
G03 X 28.3841 Y 27.6888 Z -1.0000 I 0.0073 J -0.5493
G02 X 28.2768 Y 27.6692 Z -1.0000 I -0.4701 J 2.2767
G02 X 28.2440 Y 27.6667 Z -1.0000 I -0.0327 J 0.2072
G03 X 28.1556 Y 27.6463 Z -1.0000 I -0.0000 J -0.2027
G01 X 28.1351 Y 27.6138 Z -1.0000
G01 X 28.1286 Y 27.6026 Z -1.0000
G01 X 28.1051 Y 27.5962 Z -1.0000
G01 X 28.0916 Y 27.6039 Z -1.0000
G01 X 28.0927 Y 27.6174 Z -1.0000
G01 X 28.0886 Y 27.6304 Z -1.0000
G03 X 27.9953 Y 27.6439 Z -1.0000 I -0.1014 J -0.3717
G02 X 27.9244 Y 27.6529 Z -1.0000 I 0.0072 J 0.3431
G01 X 27.9131 Y 27.6631 Z -1.0000
G01 X 27.9237 Y 27.6783 Z -1.0000
G02 X 28.0625 Y 27.6670 Z -1.0000 I 0.0171 J -0.6523
G03 X 28.1342 Y 27.6587 Z -1.0000 I 0.0953 J 0.5049
G03 X 28.1590 Y 27.6626 Z -1.0000 I 0.0028 J 0.0615
G01 X 28.1624 Y 27.6726 Z -1.0000
G01 X 28.1415 Y 27.6910 Z -1.0000
G01 X 28.1427 Y 27.6992 Z -1.0000
G02 X 28.2153 Y 27.7022 Z -1.0000 I 0.0498 J -0.3296
G03 X 28.4292 Y 27.7045 Z -1.0000 I 0.0920 J 1.3444
G01 X 28.4382 Y 27.7224 Z -1.0000
G01 X 28.4295 Y 27.7275 Z -1.0000
G03 X 28.3505 Y 27.7257 Z -1.0000 I -0.0249 J -0.6568
G02 X 28.2902 Y 27.7300 Z -1.0000 I -0.0163 J 0.1981
G01 X 28.2867 Y 27.7402 Z -1.0000
G01 X 28.2854 Y 27.7545 Z -1.0000
G03 X 28.2513 Y 27.7703 Z -1.0000 I -0.0455 J -0.0535
G03 X 28.1087 Y 27.7770 Z -1.0000 I -0.1000 J -0.6046
G01 X 28.0839 Y 27.7586 Z -1.0000
G02 X 28.0447 Y 27.7219 Z -1.0000 I -0.0576 J 0.0222
G02 X 27.9616 Y 27.7204 Z -1.0000 I -0.0440 J 0.1408
G01 X 27.9502 Y 27.7221 Z -1.0000
G03 X 27.8032 Y 27.7253 Z -1.0000 I -0.2453 J -7.9515
G02 X 27.6611 Y 27.7322 Z -1.0000 I 0.0240 J 1.9683
G01 X 27.6561 Y 27.7377 Z -1.0000
G01 X 27.6611 Y 27.7429 Z -1.0000
G02 X 27.7988 Y 27.7414 Z -1.0000 I 0.0485 J -1.8422
G03 X 28.0486 Y 27.7466 Z -1.0000 I 0.0873 J 1.8021
G01 X 28.0578 Y 27.7648 Z -1.0000
G01 X 28.0476 Y 27.7708 Z -1.0000
G03 X 27.9659 Y 27.7690 Z -1.0000 I -0.0276 J -0.6003
G02 X 27.8887 Y 27.7694 Z -1.0000 I -0.0369 J 0.4060
G01 X 27.8814 Y 27.7774 Z -1.0000
G01 X 27.8995 Y 27.7969 Z -1.0000
G02 X 28.1091 Y 27.7944 Z -1.0000 I 0.0907 J -1.2145
G01 X 28.1301 Y 27.7968 Z -1.0000
G01 X 28.1405 Y 27.8051 Z -1.0000
G01 X 28.1375 Y 27.8131 Z -1.0000
G03 X 28.0409 Y 27.8371 Z -1.0000 I -0.2251 J -0.6989
G02 X 27.9367 Y 27.8625 Z -1.0000 I 0.1480 J 0.8328
G02 X 27.9123 Y 27.8773 Z -1.0000 I 0.0178 J 0.0569
G01 X 27.8878 Y 27.8901 Z -1.0000
G03 X 27.7950 Y 27.8987 Z -1.0000 I -0.0949 J -0.5188
G02 X 27.7095 Y 27.9081 Z -1.0000 I 0.0016 J 0.4118
G01 X 27.7021 Y 27.9189 Z -1.0000
G01 X 27.6956 Y 27.9324 Z -1.0000
G03 X 27.6349 Y 27.9569 Z -1.0000 I -0.1237 J -0.2185
G02 X 27.3842 Y 28.0241 Z -1.0000 I 3.9400 J 15.2181
G02 X 27.3532 Y 28.0349 Z -1.0000 I 0.0671 J 0.2426
G03 X 27.2337 Y 28.0759 Z -1.0000 I -0.3546 J -0.8382
G03 X 26.9377 Y 28.1460 Z -1.0000 I -1.3623 J -5.0939
G02 X 26.8748 Y 28.1609 Z -1.0000 I 0.2228 J 1.0789
G02 X 26.7616 Y 28.1933 Z -1.0000 I 0.9457 J 3.5211
G03 X 26.6485 Y 28.2260 Z -1.0000 I -1.3222 J -4.3568
G03 X 26.4799 Y 28.2709 Z -1.0000 I -2.6391 J -9.5809
G02 X 26.2661 Y 28.3259 Z -1.0000 I 43.5046 J 169.4903
G02 X 25.3249 Y 28.5689 Z -1.0000 I 825.1060 J 3197.7801
G03 X 24.2905 Y 28.8309 Z -1.0000 I -28.3507 J -109.7442
G03 X 23.0571 Y 29.1320 Z -1.0000 I -38.6734 J -155.7425
G02 X 22.6345 Y 29.2336 Z -1.0000 I 111.2302 J 463.6202
G02 X 22.3246 Y 29.3084 Z -1.0000 I 62.2853 J 258.5731
G03 X 22.0147 Y 29.3832 Z -1.0000 I -50.3225 J -207.8221
G03 X 21.8880 Y 29.4135 Z -1.0000 I -8.1619 J -33.9282
G02 X 21.7613 Y 29.4440 Z -1.0000 I 3.3530 J 14.1680
G02 X 20.9090 Y 29.6544 Z -1.0000 I 157.5804 J 640.2338
G03 X 19.0599 Y 30.1104 Z -1.0000 I -284.6924 J -1150.5594
G03 X 18.8242 Y 30.1667 Z -1.0000 I -4.5294 J -18.4320
G02 X 18.6061 Y 30.2182 Z -1.0000 I 7.0667 J 30.4291
G02 X 18.5276 Y 30.2378 Z -1.0000 I 0.9495 J 3.9593
G03 X 17.9608 Y 30.3567 Z -1.0000 I -1.5074 J -5.7772
G03 X 17.1480 Y 30.4579 Z -1.0000 I -1.8815 J -11.7935
G03 X 16.5202 Y 30.4862 Z -1.0000 I -0.6309 J -7.0224
G03 X 15.9578 Y 30.4584 Z -1.0000 I -0.0025 J -5.6588
G03 X 14.9608 Y 30.3295 Z -1.0000 I 1.6852 J -16.9482
G03 X 14.8739 Y 30.2856 Z -1.0000 I 0.0251 J -0.1576
G01 X 14.8590 Y 30.2760 Z -1.0000
G02 X 14.8395 Y 30.2724 Z -1.0000 I -0.0195 J 0.0509
G03 X 14.6203 Y 30.2366 Z -1.0000 I -0.0000 J -0.6877
G03 X 14.5845 Y 30.1866 Z -1.0000 I 0.0168 J -0.0499
G01 X 14.5788 Y 30.1795 Z -1.0000
G02 X 14.5281 Y 30.1738 Z -1.0000 I -0.0506 J 0.2224
G03 X 14.4779 Y 30.1676 Z -1.0000 I 0.0000 J -0.2068
G01 X 14.4718 Y 30.1597 Z -1.0000
G01 X 14.4776 Y 30.1515 Z -1.0000
G03 X 14.5125 Y 30.1456 Z -1.0000 I 0.0349 J 0.1010
G02 X 14.5482 Y 30.1382 Z -1.0000 I 0.0000 J -0.0892
G01 X 14.5615 Y 30.1243 Z -1.0000
G01 X 14.5754 Y 30.1125 Z -1.0000
G03 X 14.6299 Y 30.1105 Z -1.0000 I 0.0333 J 0.1658
G02 X 14.6593 Y 30.1096 Z -1.0000 I 0.0117 J -0.0923
G01 X 14.6598 Y 30.1047 Z -1.0000
G01 X 14.6558 Y 30.0823 Z -1.0000
G01 X 14.6900 Y 30.0752 Z -1.0000
G02 X 14.7156 Y 30.0799 Z -1.0000 I 0.0256 J -0.0675
G01 X 14.7182 Y 30.0752 Z -1.0000
G01 X 14.7205 Y 30.0669 Z -1.0000
G03 X 14.7491 Y 30.0592 Z -1.0000 I 0.0320 J 0.0618
G01 X 14.7535 Y 30.0518 Z -1.0000
G03 X 14.6963 Y 30.0206 Z -1.0000 I 0.0151 J -0.0958
G01 X 14.7044 Y 29.9968 Z -1.0000
G02 X 14.7546 Y 29.9696 Z -1.0000 I -0.0172 J -0.0915
G01 X 14.7518 Y 29.9471 Z -1.0000
G01 X 14.7497 Y 29.9398 Z -1.0000
G01 X 14.7579 Y 29.9346 Z -1.0000
G01 X 14.7741 Y 29.9292 Z -1.0000
G01 X 14.7755 Y 29.9216 Z -1.0000
G01 X 14.7776 Y 29.9162 Z -1.0000
G01 X 14.7956 Y 29.9161 Z -1.0000
G01 X 14.8178 Y 29.9123 Z -1.0000
G02 X 14.8370 Y 29.8878 Z -1.0000 I -0.0294 J -0.0430
G03 X 14.8556 Y 29.8578 Z -1.0000 I 0.0861 J 0.0325
G01 X 14.8760 Y 29.8456 Z -1.0000
G01 X 14.8181 Y 29.8374 Z -1.0000
G03 X 14.7447 Y 29.8318 Z -1.0000 I 0.0128 J -0.6518
G01 X 14.7432 Y 29.8274 Z -1.0000
G01 X 14.7531 Y 29.8229 Z -1.0000
G03 X 14.8644 Y 29.8202 Z -1.0000 I 0.0955 J 1.6239
G02 X 14.9762 Y 29.8162 Z -1.0000 I 0.0130 J -1.2113
G02 X 15.0098 Y 29.8083 Z -1.0000 I -0.0095 J -0.1155
G01 X 15.0090 Y 29.8014 Z -1.0000
G02 X 14.9226 Y 29.7934 Z -1.0000 I -0.0953 J 0.5548
G01 X 14.9178 Y 29.7800 Z -1.0000
G03 X 14.9543 Y 29.7663 Z -1.0000 I 0.0371 J 0.0434
G02 X 15.0437 Y 29.7596 Z -1.0000 I -0.0073 J -0.7036
G01 X 15.0494 Y 29.7532 Z -1.0000
G01 X 15.0443 Y 29.7472 Z -1.0000
G02 X 15.0158 Y 29.7475 Z -1.0000 I -0.0134 J 0.0799
G03 X 14.9852 Y 29.7472 Z -1.0000 I -0.0146 J -0.0772
G01 X 14.9727 Y 29.7385 Z -1.0000
G01 X 14.9733 Y 29.7287 Z -1.0000
G01 X 14.9852 Y 29.7231 Z -1.0000
G01 X 15.0021 Y 29.7181 Z -1.0000
G01 X 15.0071 Y 29.7090 Z -1.0000
G01 X 15.0124 Y 29.7003 Z -1.0000
G01 X 15.0345 Y 29.6949 Z -1.0000
G01 X 15.0496 Y 29.6804 Z -1.0000
G01 X 15.0360 Y 29.6638 Z -1.0000
G02 X 15.0021 Y 29.6649 Z -1.0000 I -0.0140 J 0.0956
G01 X 14.9974 Y 29.6719 Z -1.0000
G01 X 14.9939 Y 29.6820 Z -1.0000
G01 X 14.9750 Y 29.6916 Z -1.0000
G01 X 14.9582 Y 29.6888 Z -1.0000
G01 X 14.9539 Y 29.6787 Z -1.0000
G01 X 14.9438 Y 29.6641 Z -1.0000
G02 X 14.6549 Y 29.6321 Z -1.0000 I -0.5061 J 3.2494
G03 X 14.5355 Y 29.6217 Z -1.0000 I 0.1983 J -2.9670
G03 X 14.4437 Y 29.6094 Z -1.0000 I 0.1847 J -1.7189
G02 X 14.3518 Y 29.5971 Z -1.0000 I -0.2534 J 1.5564
G02 X 14.1831 Y 29.5825 Z -1.0000 I -0.5520 J 5.3600
G03 X 13.9616 Y 29.5595 Z -1.0000 I 0.2474 J -3.4687
G01 X 13.9416 Y 29.5496 Z -1.0000
G01 X 13.9302 Y 29.5441 Z -1.0000
G02 X 13.8525 Y 29.5399 Z -1.0000 I -0.0777 J 0.7086
G03 X 13.7756 Y 29.5341 Z -1.0000 I 0.0000 J -0.5125
G01 X 13.7590 Y 29.5258 Z -1.0000
G01 X 13.7427 Y 29.5153 Z -1.0000
G02 X 13.6661 Y 29.4911 Z -1.0000 I -0.2755 J 0.7394
G03 X 13.5888 Y 29.4666 Z -1.0000 I 0.1973 J -0.7574
G03 X 13.5391 Y 29.4435 Z -1.0000 I 0.1258 J -0.3357
G02 X 13.4892 Y 29.4212 Z -1.0000 I -0.1487 J 0.2648
G02 X 13.4310 Y 29.4064 Z -1.0000 I -0.1192 J 0.3462
G03 X 13.3764 Y 29.3899 Z -1.0000 I 0.0388 J -0.2282
G01 X 13.3636 Y 29.3765 Z -1.0000
G01 X 13.3532 Y 29.3610 Z -1.0000
G01 X 13.3426 Y 29.3568 Z -1.0000
G01 X 13.3368 Y 29.3610 Z -1.0000
G01 X 13.3379 Y 29.3709 Z -1.0000
G01 X 13.3386 Y 29.3805 Z -1.0000
G01 X 13.3317 Y 29.3850 Z -1.0000
G01 X 13.3208 Y 29.3810 Z -1.0000
G01 X 13.3168 Y 29.3723 Z -1.0000
G01 X 13.3112 Y 29.3645 Z -1.0000
G02 X 13.2570 Y 29.3525 Z -1.0000 I -0.0875 J 0.2647
G03 X 13.1078 Y 29.3234 Z -1.0000 I 0.1247 J -1.0394
G03 X 13.0255 Y 29.2897 Z -1.0000 I 0.0935 J -0.3450
G02 X 12.9938 Y 29.2755 Z -1.0000 I -0.0903 J 0.1592
G02 X 12.9744 Y 29.2723 Z -1.0000 I -0.0195 J 0.0575
G01 X 12.9563 Y 29.2675 Z -1.0000
G03 X 12.9357 Y 29.2502 Z -1.0000 I 0.0370 J -0.0649
G01 X 12.9149 Y 29.2357 Z -1.0000
G01 X 12.8917 Y 29.2348 Z -1.0000
G01 X 12.8711 Y 29.2350 Z -1.0000
G01 X 12.8661 Y 29.2287 Z -1.0000
G01 X 12.8604 Y 29.2216 Z -1.0000
G02 X 12.8106 Y 29.2159 Z -1.0000 I -0.0499 J 0.2162
G03 X 12.7578 Y 29.2110 Z -1.0000 I 0.0000 J -0.2859
G01 X 12.7477 Y 29.2040 Z -1.0000
G01 X 12.7376 Y 29.1962 Z -1.0000
G02 X 12.6307 Y 29.1684 Z -1.0000 I -0.3929 J 1.2892
G03 X 12.5215 Y 29.1426 Z -1.0000 I 0.6594 J -3.0396
G03 X 12.4787 Y 29.1296 Z -1.0000 I 0.1225 J -0.4804
G02 X 12.4361 Y 29.1169 Z -1.0000 I -0.1512 J 0.4286
G02 X 12.4153 Y 29.1141 Z -1.0000 I -0.0236 J 0.0960
G03 X 12.3952 Y 29.1107 Z -1.0000 I 0.0022 J -0.0748
G03 X 12.3801 Y 29.1030 Z -1.0000 I 0.0151 J -0.0482
G01 X 12.3647 Y 29.0961 Z -1.0000
G02 X 12.2815 Y 29.0824 Z -1.0000 I -0.1999 J 0.9535
G03 X 12.1982 Y 29.0685 Z -1.0000 I 0.1115 J -0.9256
G03 X 12.1725 Y 29.0591 Z -1.0000 I 0.0205 J -0.0958
G02 X 12.1469 Y 29.0499 Z -1.0000 I -0.0443 J 0.0829
G02 X 12.0992 Y 29.0442 Z -1.0000 I -0.0589 J 0.2893
G03 X 12.0553 Y 29.0355 Z -1.0000 I 0.0053 J -0.1416
G01 X 12.0431 Y 29.0235 Z -1.0000
G01 X 12.0306 Y 29.0124 Z -1.0000
G02 X 11.9646 Y 29.0046 Z -1.0000 I -0.0660 J 0.2747
G03 X 11.8991 Y 28.9961 Z -1.0000 I 0.0000 J -0.2558
G01 X 11.8852 Y 28.9836 Z -1.0000
G01 X 11.8724 Y 28.9717 Z -1.0000
G02 X 11.8435 Y 28.9710 Z -1.0000 I -0.0157 J 0.0518
G03 X 11.8109 Y 28.9713 Z -1.0000 I -0.0171 J -0.0681
G03 X 11.7548 Y 28.9507 Z -1.0000 I 0.0516 J -0.2266
G02 X 11.7004 Y 28.9264 Z -1.0000 I -0.2277 J 0.4369
G01 X 11.6939 Y 28.9278 Z -1.0000
G01 X 11.6870 Y 28.9302 Z -1.0000
G03 X 11.5622 Y 28.9130 Z -1.0000 I 0.2685 J -2.4073
G02 X 11.4361 Y 28.8962 Z -1.0000 I -0.3486 J 2.1280
G02 X 11.3589 Y 28.8920 Z -1.0000 I -0.0818 J 0.7888
G03 X 11.2824 Y 28.8860 Z -1.0000 I 0.0032 J -0.5357
G03 X 11.2251 Y 28.8718 Z -1.0000 I 0.0465 J -0.3095
G02 X 11.1683 Y 28.8583 Z -1.0000 I -0.0919 J 0.2623
G02 X 11.1300 Y 28.8596 Z -1.0000 I -0.0151 J 0.1188
G03 X 11.0974 Y 28.8598 Z -1.0000 I -0.0167 J -0.0840
G01 X 11.0913 Y 28.8524 Z -1.0000
G01 X 11.0969 Y 28.8422 Z -1.0000
G03 X 11.1230 Y 28.8321 Z -1.0000 I 0.0382 J 0.0596
G01 X 11.0453 Y 28.8206 Z -1.0000
G02 X 10.9481 Y 28.8233 Z -1.0000 I -0.0321 J 0.5829
G01 X 10.9427 Y 28.8321 Z -1.0000
G01 X 10.9409 Y 28.8438 Z -1.0000
G01 X 10.9284 Y 28.8497 Z -1.0000
G01 X 10.9109 Y 28.8444 Z -1.0000
G01 X 10.9000 Y 28.8307 Z -1.0000
G01 X 10.8870 Y 28.8199 Z -1.0000
G02 X 10.7879 Y 28.8097 Z -1.0000 I -0.1105 J 0.5898
G03 X 10.6876 Y 28.7972 Z -1.0000 I 0.0089 J -0.4782
G03 X 10.6536 Y 28.7782 Z -1.0000 I 0.0162 J -0.0691
G02 X 10.6241 Y 28.7564 Z -1.0000 I -0.0881 J 0.0881
G01 X 10.6151 Y 28.7577 Z -1.0000
G01 X 10.6139 Y 28.7658 Z -1.0000
G01 X 10.6269 Y 28.7798 Z -1.0000
G01 X 10.6318 Y 28.7891 Z -1.0000
G01 X 10.6265 Y 28.7948 Z -1.0000
G03 X 10.6054 Y 28.7957 Z -1.0000 I -0.0197 J -0.2286
G03 X 10.5933 Y 28.7946 Z -1.0000 I 0.0004 J -0.0709
G01 X 10.5814 Y 28.7945 Z -1.0000
G02 X 10.5510 Y 28.8021 Z -1.0000 I 0.0417 J 0.2337
G01 X 10.5426 Y 28.8124 Z -1.0000
G01 X 10.5489 Y 28.8229 Z -1.0000
G01 X 10.5493 Y 28.8281 Z -1.0000
G01 X 10.5323 Y 28.8320 Z -1.0000
G03 X 10.4966 Y 28.8250 Z -1.0000 I 0.0062 J -0.1263
G01 X 10.4944 Y 28.8187 Z -1.0000
G01 X 10.4930 Y 28.8103 Z -1.0000
G02 X 10.4617 Y 28.7917 Z -1.0000 I -0.0756 J 0.0915
G03 X 10.4222 Y 28.7759 Z -1.0000 I 6.2685 J -15.6641
G02 X 10.3940 Y 28.7645 Z -1.0000 I -14.3281 J 35.5434
G02 X 10.2849 Y 28.7409 Z -1.0000 I -0.1239 J 0.3084
G01 X 10.2463 Y 28.7579 Z -1.0000
G03 X 10.1873 Y 28.7888 Z -1.0000 I -0.0665 J -0.0552
G01 X 10.1616 Y 28.7652 Z -1.0000
G01 X 10.1574 Y 28.7554 Z -1.0000
G01 X 10.1467 Y 28.7511 Z -1.0000
G01 X 10.1392 Y 28.7553 Z -1.0000
G01 X 10.1393 Y 28.7634 Z -1.0000
G01 X 10.1367 Y 28.7708 Z -1.0000
G03 X 10.0823 Y 28.7844 Z -1.0000 I -0.0896 J -0.2423
G03 X 10.0204 Y 28.7785 Z -1.0000 I -0.0184 J -0.1348
G01 X 10.0208 Y 28.7637 Z -1.0000
G01 X 10.0210 Y 28.7586 Z -1.0000
G02 X 9.9925 Y 28.7535 Z -1.0000 I -0.0290 J 0.0804
G02 X 9.9566 Y 28.7584 Z -1.0000 I -0.0008 J 0.1297
G01 X 9.9563 Y 28.7638 Z -1.0000
G01 X 9.9658 Y 28.7743 Z -1.0000
G01 X 9.9615 Y 28.7828 Z -1.0000
G01 X 9.9411 Y 28.7844 Z -1.0000
G01 X 9.9231 Y 28.7747 Z -1.0000
G02 X 9.7912 Y 28.7167 Z -1.0000 I -0.1403 J 0.1402
G02 X 9.7390 Y 28.7668 Z -1.0000 I -0.0021 J 0.0500
G01 X 9.7341 Y 28.7733 Z -1.0000
G03 X 9.6721 Y 28.7872 Z -1.0000 I -0.1213 J -0.3969
G02 X 9.5822 Y 28.8108 Z -1.0000 I 0.0588 J 0.4072
G01 X 9.5840 Y 28.8213 Z -1.0000
G01 X 9.5893 Y 28.8263 Z -1.0000
G01 X 9.5853 Y 28.8346 Z -1.0000
G03 X 9.5083 Y 28.8520 Z -1.0000 I -0.0631 J -0.0997
G03 X 9.4551 Y 28.8192 Z -1.0000 I 0.0087 J -0.0737
G01 X 9.4430 Y 28.8143 Z -1.0000
G01 X 9.4282 Y 28.8250 Z -1.0000
G01 X 9.4083 Y 28.8403 Z -1.0000
G03 X 9.3404 Y 28.8495 Z -1.0000 I -0.0671 J -0.2412
G01 X 9.3325 Y 28.8353 Z -1.0000
G01 X 9.3587 Y 28.8201 Z -1.0000
G01 X 9.3590 Y 28.8071 Z -1.0000
G02 X 9.1094 Y 28.7966 Z -1.0000 I -0.2265 J 2.4092
G02 X 9.0214 Y 28.8106 Z -1.0000 I 0.0028 J 0.3001
G01 X 9.0233 Y 28.8239 Z -1.0000
G03 X 9.1122 Y 28.8264 Z -1.0000 I -0.7583 J 28.5086
G03 X 9.1426 Y 28.8274 Z -1.0000 I -0.1480 J 4.9807
G03 X 9.1745 Y 28.8391 Z -1.0000 I -0.0020 J 0.0547
G01 X 9.1709 Y 28.8497 Z -1.0000
G01 X 9.1570 Y 28.8641 Z -1.0000
G01 X 9.1720 Y 28.8797 Z -1.0000
G02 X 9.1967 Y 28.8814 Z -1.0000 I 0.2841 J -3.8513
G03 X 9.2582 Y 28.8856 Z -1.0000 I -6.1330 J 91.0871
G03 X 9.3174 Y 28.8947 Z -1.0000 I -0.0221 J 0.3400
G01 X 9.3343 Y 28.9042 Z -1.0000
G01 X 9.3317 Y 28.9114 Z -1.0000
G03 X 9.2174 Y 28.9152 Z -1.0000 I -0.0884 J -0.9380
G03 X 9.0914 Y 28.9041 Z -1.0000 I 0.0289 J -1.0462
G01 X 9.0802 Y 28.8948 Z -1.0000
G01 X 9.0837 Y 28.8844 Z -1.0000
G01 X 9.1048 Y 28.8779 Z -1.0000
G01 X 9.1244 Y 28.8720 Z -1.0000
G01 X 9.1263 Y 28.8638 Z -1.0000
G01 X 9.0979 Y 28.8472 Z -1.0000
G02 X 8.9961 Y 28.8586 Z -1.0000 I -0.0137 J 0.3388
G01 X 8.9863 Y 28.8769 Z -1.0000
G01 X 9.0074 Y 28.8920 Z -1.0000
G01 X 9.0293 Y 28.8973 Z -1.0000
G01 X 9.0347 Y 28.9061 Z -1.0000
G01 X 9.0285 Y 28.9140 Z -1.0000
G03 X 8.9748 Y 28.9212 Z -1.0000 I -0.0575 J -0.2274
G02 X 8.9150 Y 28.9230 Z -1.0000 I 0.0362 J 2.1946
G02 X 8.8446 Y 28.9270 Z -1.0000 I 0.1193 J 2.7243
G03 X 8.7765 Y 28.9269 Z -1.0000 I -0.0331 J -0.4929
G01 X 8.7671 Y 28.9215 Z -1.0000
G01 X 8.7576 Y 28.9163 Z -1.0000
G02 X 8.6826 Y 28.9193 Z -1.0000 I -0.0150 J 0.5717
G01 X 8.6748 Y 28.9307 Z -1.0000
G01 X 8.6896 Y 28.9444 Z -1.0000
G02 X 8.9195 Y 28.9755 Z -1.0000 I 0.3556 J -1.7626
G01 X 8.9282 Y 28.9611 Z -1.0000
G01 X 8.9335 Y 28.9405 Z -1.0000
G01 X 8.9637 Y 28.9411 Z -1.0000
G01 X 8.9708 Y 28.9515 Z -1.0000
G01 X 8.9692 Y 28.9701 Z -1.0000
G01 X 8.9549 Y 28.9814 Z -1.0000
G03 X 8.8177 Y 28.9907 Z -1.0000 I -0.1372 J -1.0049
G03 X 8.6764 Y 28.9850 Z -1.0000 I -0.0000 J -1.7264
G01 X 8.6607 Y 28.9779 Z -1.0000
G02 X 8.6221 Y 28.9609 Z -1.0000 I -0.0425 J 0.0442
G02 X 8.5347 Y 28.9699 Z -1.0000 I -0.0168 J 0.2652
G01 X 8.5242 Y 28.9837 Z -1.0000
G01 X 8.5347 Y 28.9996 Z -1.0000
G02 X 8.5775 Y 29.0149 Z -1.0000 I 0.1507 J -0.3537
G02 X 8.5981 Y 29.0181 Z -1.0000 I 0.0221 J -0.0757
G01 X 8.6027 Y 29.0134 Z -1.0000
G01 X 8.5981 Y 29.0048 Z -1.0000
G01 X 8.5983 Y 28.9974 Z -1.0000
G03 X 8.6227 Y 28.9910 Z -1.0000 I 0.0247 J 0.0438
G03 X 8.6602 Y 28.9991 Z -1.0000 I 0.0004 J 0.0886
G01 X 8.6685 Y 29.0120 Z -1.0000
G01 X 8.6774 Y 29.0231 Z -1.0000
G02 X 8.7283 Y 29.0249 Z -1.0000 I 0.0307 J -0.1426
G02 X 8.7880 Y 29.0156 Z -1.0000 I -0.2459 J -1.7599
G02 X 8.8043 Y 29.0117 Z -1.0000 I -0.0243 J -0.1391
G01 X 8.8206 Y 29.0103 Z -1.0000
G03 X 8.9064 Y 29.0246 Z -1.0000 I -0.1394 J 1.1050
G02 X 8.9870 Y 29.0356 Z -1.0000 I 0.1243 J -0.6063
G01 X 8.9924 Y 29.0306 Z -1.0000
G01 X 8.9979 Y 29.0244 Z -1.0000
G03 X 9.0875 Y 29.0193 Z -1.0000 I 0.0863 J 0.7238
G03 X 9.1577 Y 29.0264 Z -1.0000 I -0.0016 J 0.3663
G01 X 9.1589 Y 29.0336 Z -1.0000
G03 X 9.1311 Y 29.0415 Z -1.0000 I -0.0295 J -0.0506
G03 X 8.7319 Y 29.0462 Z -1.0000 I -0.3307 J -11.1752
G02 X 8.5531 Y 29.0531 Z -1.0000 I -0.0126 J 2.0067
G01 X 8.5489 Y 29.0614 Z -1.0000
G01 X 8.5615 Y 29.0692 Z -1.0000
G02 X 8.7293 Y 29.0767 Z -1.0000 I 0.1788 J -2.1154
G03 X 8.9917 Y 29.0866 Z -1.0000 I -0.0203 J 3.9998
G01 X 9.0029 Y 29.0960 Z -1.0000
G01 X 8.9727 Y 29.1346 Z -1.0000
G03 X 8.8374 Y 29.0963 Z -1.0000 I -0.0005 J -0.2565
G01 X 8.8256 Y 29.0937 Z -1.0000
G02 X 8.7930 Y 29.1017 Z -1.0000 I 0.0177 J 0.1420
G01 X 8.7937 Y 29.1091 Z -1.0000
G02 X 8.9188 Y 29.1247 Z -1.0000 I 0.1977 J -1.0799
G03 X 9.0744 Y 29.1405 Z -1.0000 I -0.1489 J 2.2410
G01 X 9.0851 Y 29.1475 Z -1.0000
G01 X 9.0790 Y 29.1604 Z -1.0000
G03 X 8.9784 Y 29.1619 Z -1.0000 I -0.0567 J -0.4178
G03 X 8.7342 Y 29.1269 Z -1.0000 I 0.3375 J -3.2165
G01 X 8.7248 Y 29.1156 Z -1.0000
G01 X 8.7189 Y 29.1094 Z -1.0000
G02 X 8.5382 Y 29.1057 Z -1.0000 I -0.1468 J 2.7644
G02 X 8.5125 Y 29.1114 Z -1.0000 I 0.0008 J 0.0638
G01 X 8.5135 Y 29.1169 Z -1.0000
G03 X 8.6738 Y 29.1319 Z -1.0000 I -0.1148 J 2.0878
G03 X 8.7056 Y 29.1424 Z -1.0000 I -0.0119 J 0.0899
G02 X 8.7370 Y 29.1535 Z -1.0000 I 0.0498 J -0.0905
G02 X 8.7867 Y 29.1570 Z -1.0000 I 0.0411 J -0.2267
G03 X 8.8361 Y 29.1591 Z -1.0000 I 0.0119 J 0.3030
G01 X 8.8470 Y 29.1644 Z -1.0000
G01 X 8.8460 Y 29.1695 Z -1.0000
G03 X 8.8258 Y 29.1737 Z -1.0000 I -0.0203 J -0.0461
G02 X 8.8009 Y 29.1793 Z -1.0000 I 0.0000 J 0.0581
G01 X 8.7952 Y 29.1883 Z -1.0000
G01 X 8.8020 Y 29.1956 Z -1.0000
G02 X 8.9044 Y 29.1960 Z -1.0000 I 0.0543 J -0.7676
G03 X 8.9859 Y 29.1974 Z -1.0000 I 0.0316 J 0.5050
G01 X 8.9873 Y 29.2042 Z -1.0000
G03 X 8.9600 Y 29.2128 Z -1.0000 I -0.0341 J -0.0600
G03 X 8.9134 Y 29.2114 Z -1.0000 I -0.0176 J -0.1788
G02 X 8.8707 Y 29.2095 Z -1.0000 I -0.0293 J 0.1789
G01 X 8.8657 Y 29.2149 Z -1.0000
G01 X 8.8709 Y 29.2215 Z -1.0000
G02 X 8.9441 Y 29.2342 Z -1.0000 I 0.1287 J -0.5236
G03 X 9.0202 Y 29.2480 Z -1.0000 I -0.0535 J 0.5125
G03 X 9.0442 Y 29.2603 Z -1.0000 I -0.0156 J 0.0601
G01 X 9.0643 Y 29.2652 Z -1.0000
G01 X 9.0855 Y 29.2515 Z -1.0000
G01 X 9.1052 Y 29.2417 Z -1.0000
G01 X 9.1254 Y 29.2520 Z -1.0000
G01 X 9.1230 Y 29.2704 Z -1.0000
G03 X 9.0761 Y 29.2919 Z -1.0000 I -0.0654 J -0.0809
G02 X 9.0121 Y 29.3091 Z -1.0000 I 0.0702 J 0.3890
G01 X 9.0065 Y 29.3170 Z -1.0000
G01 X 9.0266 Y 29.3421 Z -1.0000
G01 X 9.0666 Y 29.3305 Z -1.0000
G03 X 9.1385 Y 29.3026 Z -1.0000 I 0.0677 J 0.0677
G03 X 9.1846 Y 29.3357 Z -1.0000 I -0.0023 J 0.0517
G01 X 9.1976 Y 29.3500 Z -1.0000
G02 X 9.2299 Y 29.3583 Z -1.0000 I 0.0353 J -0.0711
G01 X 9.2360 Y 29.3636 Z -1.0000
G01 X 9.2319 Y 29.3702 Z -1.0000
G03 X 9.1970 Y 29.3736 Z -1.0000 I -0.0258 J -0.0854
G03 X 9.1492 Y 29.3618 Z -1.0000 I 0.0182 J -0.1773
G02 X 9.0894 Y 29.3513 Z -1.0000 I -0.0551 J 0.1377
G01 X 9.0770 Y 29.3641 Z -1.0000
G01 X 9.0684 Y 29.3726 Z -1.0000
G03 X 9.0246 Y 29.3636 Z -1.0000 I 0.0012 J -0.1167
G03 X 8.9752 Y 29.3382 Z -1.0000 I 0.1367 J -0.3273
G01 X 8.9615 Y 29.3246 Z -1.0000
G01 X 8.9544 Y 29.3210 Z -1.0000
G01 X 8.9504 Y 29.3252 Z -1.0000
G01 X 8.9449 Y 29.3374 Z -1.0000
G01 X 8.9310 Y 29.3428 Z -1.0000
G01 X 8.9206 Y 29.3356 Z -1.0000
G01 X 8.9183 Y 29.3090 Z -1.0000
G01 X 8.9115 Y 29.2840 Z -1.0000
G02 X 8.8801 Y 29.2654 Z -1.0000 I -0.0439 J 0.0384
G01 X 8.8572 Y 29.2691 Z -1.0000
G01 X 8.8585 Y 29.2781 Z -1.0000
G03 X 8.8842 Y 29.2917 Z -1.0000 I -0.0147 J 0.0588
G01 X 8.8857 Y 29.3023 Z -1.0000
G01 X 8.8519 Y 29.3184 Z -1.0000
G03 X 8.7036 Y 29.2785 Z -1.0000 I 0.0746 J -0.5725
G02 X 8.6186 Y 29.2616 Z -1.0000 I -0.0842 J 0.2016
G01 X 8.6068 Y 29.2788 Z -1.0000
G01 X 8.6196 Y 29.2904 Z -1.0000
G02 X 8.6534 Y 29.2916 Z -1.0000 I 0.0194 J -0.0706
G03 X 8.6895 Y 29.2921 Z -1.0000 I 0.0168 J 0.0849
G01 X 8.7136 Y 29.3055 Z -1.0000
G02 X 8.7373 Y 29.3194 Z -1.0000 I 0.0385 J -0.0385
G02 X 8.7636 Y 29.3196 Z -1.0000 I 0.0137 J -0.0483
G01 X 8.8026 Y 29.3284 Z -1.0000
G01 X 8.8036 Y 29.3532 Z -1.0000
G03 X 8.6964 Y 29.3990 Z -1.0000 I -0.1107 J -0.1108
G03 X 8.6193 Y 29.3571 Z -1.0000 I -0.0020 J -0.0882
G01 X 8.6076 Y 29.3479 Z -1.0000
G02 X 8.5753 Y 29.3428 Z -1.0000 I -0.0323 J 0.0998
G01 X 8.5716 Y 29.3567 Z -1.0000
G02 X 8.6491 Y 29.3843 Z -1.0000 I 0.1191 J -0.2118
G02 X 8.8058 Y 29.3915 Z -1.0000 I 0.1065 J -0.6118
G01 X 8.8163 Y 29.3708 Z -1.0000
G01 X 8.8240 Y 29.3527 Z -1.0000
G03 X 8.8689 Y 29.3597 Z -1.0000 I 0.0133 J 0.0627
G02 X 8.9021 Y 29.3737 Z -1.0000 I 0.0771 J -0.1356
G02 X 8.9431 Y 29.3814 Z -1.0000 I 0.0585 J -0.1998
G02 X 8.9854 Y 29.3848 Z -1.0000 I 0.3952 J -4.5926
G02 X 9.1403 Y 29.3967 Z -1.0000 I 18.8185 J -245.0541
G03 X 9.2293 Y 29.4116 Z -1.0000 I -0.0375 J 0.4959
G01 X 9.2284 Y 29.4198 Z -1.0000
G01 X 9.2181 Y 29.4309 Z -1.0000
G01 X 9.2288 Y 29.4414 Z -1.0000
G03 X 9.2966 Y 29.4489 Z -1.0000 I -0.0000 J 0.3077
G01 X 9.3122 Y 29.4602 Z -1.0000
G02 X 9.3258 Y 29.4766 Z -1.0000 I 0.0595 J -0.0356
G02 X 9.3516 Y 29.4950 Z -1.0000 I 0.1010 J -0.1145
G01 X 9.3506 Y 29.5033 Z -1.0000
G03 X 9.2909 Y 29.5114 Z -1.0000 I -0.0608 J -0.2256
G02 X 9.2141 Y 29.5185 Z -1.0000 I 0.0021 J 0.4437
G01 X 9.2108 Y 29.5259 Z -1.0000
G01 X 9.2230 Y 29.5335 Z -1.0000
G02 X 9.3577 Y 29.5400 Z -1.0000 I 0.1347 J -1.3993
G03 X 9.5634 Y 29.5573 Z -1.0000 I -0.0000 J 1.2284
G01 X 9.5744 Y 29.5767 Z -1.0000
G01 X 9.5809 Y 29.5858 Z -1.0000
G02 X 9.6212 Y 29.5752 Z -1.0000 I -0.0030 J -0.0934
G03 X 9.6622 Y 29.5571 Z -1.0000 I 0.1586 J 0.3041
G03 X 9.6791 Y 29.5541 Z -1.0000 I 0.0171 J 0.0470
G01 X 9.6912 Y 29.5699 Z -1.0000
G01 X 9.6686 Y 29.5922 Z -1.0000
G02 X 9.6446 Y 29.6029 Z -1.0000 I 0.0210 J 0.0794
G01 X 9.6404 Y 29.6107 Z -1.0000
G01 X 9.6246 Y 29.6234 Z -1.0000
G03 X 9.5600 Y 29.5930 Z -1.0000 I 0.0345 J -0.1573
G01 X 9.5427 Y 29.5855 Z -1.0000
G01 X 9.5295 Y 29.5881 Z -1.0000
G01 X 9.5187 Y 29.5890 Z -1.0000
G01 X 9.5107 Y 29.5804 Z -1.0000
G01 X 9.5000 Y 29.5720 Z -1.0000
G02 X 9.3580 Y 29.5669 Z -1.0000 I -0.1186 J 1.3436
G02 X 9.1287 Y 29.5916 Z -1.0000 I 0.0227 J 1.2877
G01 X 9.1252 Y 29.6135 Z -1.0000
G01 X 9.1471 Y 29.6190 Z -1.0000
G02 X 9.1718 Y 29.6127 Z -1.0000 I -0.0009 J -0.0550
G03 X 9.3123 Y 29.5789 Z -1.0000 I 0.1374 J 0.2626
G03 X 9.5292 Y 29.6164 Z -1.0000 I -0.0070 J 0.6869
G02 X 9.5873 Y 29.6313 Z -1.0000 I 0.1211 J -0.3514
G01 X 9.6054 Y 29.6295 Z -1.0000
G01 X 9.6213 Y 29.6289 Z -1.0000
G01 X 9.6327 Y 29.6376 Z -1.0000
G01 X 9.6266 Y 29.6483 Z -1.0000
G03 X 9.4316 Y 29.6335 Z -1.0000 I 0.0361 J -1.7709
G02 X 9.3032 Y 29.6222 Z -1.0000 I -0.1941 J 1.4754
G01 X 9.2935 Y 29.6274 Z -1.0000
G01 X 9.2958 Y 29.6334 Z -1.0000
G02 X 9.3339 Y 29.6385 Z -1.0000 I 0.0381 J -0.1373
G03 X 9.3791 Y 29.6435 Z -1.0000 I 0.0000 J 0.2107
G01 X 9.3946 Y 29.6520 Z -1.0000
G01 X 9.4105 Y 29.6600 Z -1.0000
G02 X 9.5277 Y 29.6721 Z -1.0000 I 0.1878 J -1.2423
G03 X 9.6260 Y 29.6859 Z -1.0000 I -0.0335 J 0.5943
G01 X 9.6263 Y 29.6945 Z -1.0000
G03 X 9.5906 Y 29.7005 Z -1.0000 I -0.0403 J -0.1302
G03 X 9.5290 Y 29.6979 Z -1.0000 I -0.0138 J -0.4009
G02 X 9.4800 Y 29.6988 Z -1.0000 I -0.0213 J 0.1786
G01 X 9.4767 Y 29.7061 Z -1.0000
G01 X 9.4895 Y 29.7161 Z -1.0000
G02 X 9.5246 Y 29.7213 Z -1.0000 I 0.0338 J -0.1060
G03 X 9.5626 Y 29.7237 Z -1.0000 I 0.0031 J 0.2607
G03 X 9.6404 Y 29.7370 Z -1.0000 I -0.1512 J 1.1182
G02 X 9.7183 Y 29.7496 Z -1.0000 I 0.1873 J -0.9069
G02 X 9.8216 Y 29.7584 Z -1.0000 I 0.1850 J -1.5550
G01 X 9.8250 Y 29.7692 Z -1.0000
G03 X 9.7942 Y 29.7798 Z -1.0000 I -0.0310 J -0.0399
G02 X 9.6758 Y 29.7878 Z -1.0000 I 0.0027 J 0.9172
G01 X 9.6742 Y 29.7957 Z -1.0000
G02 X 9.7026 Y 29.8043 Z -1.0000 I 0.0321 J -0.0551
G02 X 9.8010 Y 29.8031 Z -1.0000 I 0.0410 J -0.7075
G03 X 10.0089 Y 29.8084 Z -1.0000 I 0.0794 J 0.9738
G03 X 10.0709 Y 29.8390 Z -1.0000 I -0.0142 J 0.1068
G01 X 9.8671 Y 29.8383 Z -1.0000
G02 X 9.6598 Y 29.8394 Z -1.0000 I -0.0864 J 3.0095
G02 X 9.6316 Y 29.8477 Z -1.0000 I 0.0025 J 0.0611
G01 X 9.6338 Y 29.8565 Z -1.0000
G02 X 10.0322 Y 29.8655 Z -1.0000 I 0.4041 J -9.0569
G03 X 10.1708 Y 29.8754 Z -1.0000 I -0.0006 J 0.9882
G01 X 10.1749 Y 29.8859 Z -1.0000
G03 X 10.1560 Y 29.9016 Z -1.0000 I -0.0514 J -0.0425
G01 X 10.1387 Y 29.9061 Z -1.0000
G01 X 10.1241 Y 29.9109 Z -1.0000
G01 X 10.1193 Y 29.9202 Z -1.0000
G01 X 10.1142 Y 29.9292 Z -1.0000
G01 X 10.0946 Y 29.9347 Z -1.0000
G02 X 10.0716 Y 29.9398 Z -1.0000 I 0.0011 J 0.0603
G02 X 10.0418 Y 29.9578 Z -1.0000 I 0.0528 J 0.1211
G01 X 10.0375 Y 29.9668 Z -1.0000
G01 X 10.0418 Y 29.9698 Z -1.0000
G03 X 10.1456 Y 29.9482 Z -1.0000 I 0.1226 J 0.3291
G03 X 10.2179 Y 29.9604 Z -1.0000 I 0.0090 J 0.1671
G01 X 10.2175 Y 29.9682 Z -1.0000
G03 X 10.1616 Y 29.9766 Z -1.0000 I -0.0603 J -0.2098
G02 X 10.1015 Y 29.9854 Z -1.0000 I 0.0049 J 0.2448
G01 X 10.1008 Y 29.9934 Z -1.0000
G02 X 10.3949 Y 30.0548 Z -1.0000 I 0.2702 J -0.5589
G01 X 10.4239 Y 29.9807 Z -1.0000
G01 X 10.4156 Y 29.9760 Z -1.0000
G02 X 10.3153 Y 29.9543 Z -1.0000 I -0.4788 J 1.9664
G03 X 10.2105 Y 29.9237 Z -1.0000 I 0.1064 J -0.5586
G01 X 10.2080 Y 29.9113 Z -1.0000
G01 X 10.2184 Y 29.9079 Z -1.0000
G03 X 10.3083 Y 29.9254 Z -1.0000 I -0.1226 J 0.8665
G02 X 10.4002 Y 29.9447 Z -1.0000 I 0.2915 J -1.1606
G02 X 10.4442 Y 29.9484 Z -1.0000 I 0.0439 J -0.2597
G03 X 10.4765 Y 29.9567 Z -1.0000 I 0.0000 J 0.0675
G01 X 10.4808 Y 29.9685 Z -1.0000
G01 X 10.4933 Y 30.0201 Z -1.0000
G02 X 10.5934 Y 30.0695 Z -1.0000 I 0.1383 J -0.1541
G03 X 10.6327 Y 30.0814 Z -1.0000 I -0.0349 J 0.1860
G01 X 10.6337 Y 30.0866 Z -1.0000
G03 X 10.5618 Y 30.1117 Z -1.0000 I -0.0619 J -0.0619
G03 X 10.4967 Y 30.0709 Z -1.0000 I 0.0102 J -0.0887
G01 X 10.4904 Y 30.0697 Z -1.0000
G01 X 10.4857 Y 30.0787 Z -1.0000
G01 X 10.4772 Y 30.0950 Z -1.0000
G01 X 10.4511 Y 30.1034 Z -1.0000
G02 X 10.4193 Y 30.1080 Z -1.0000 I -0.0000 J 0.1118
G01 X 10.4090 Y 30.1158 Z -1.0000
G01 X 10.4190 Y 30.1380 Z -1.0000
G02 X 10.4950 Y 30.1306 Z -1.0000 I 0.0245 J -0.1427
G03 X 10.6147 Y 30.1127 Z -1.0000 I 0.1010 J 0.2656
G01 X 10.6405 Y 30.1402 Z -1.0000
G01 X 10.6485 Y 30.1532 Z -1.0000
G01 X 10.6733 Y 30.1567 Z -1.0000
G01 X 10.6991 Y 30.1589 Z -1.0000
G01 X 10.7062 Y 30.1691 Z -1.0000
G01 X 10.6978 Y 30.1796 Z -1.0000
G03 X 10.6135 Y 30.1895 Z -1.0000 I -0.0918 J -0.4184
G02 X 10.5765 Y 30.1968 Z -1.0000 I 0.0019 J 0.1064
G01 X 10.5771 Y 30.2037 Z -1.0000
G02 X 10.9260 Y 30.2464 Z -1.0000 I 0.3893 J -1.7373
G02 X 10.9874 Y 30.2131 Z -1.0000 I 0.0016 J -0.0703
G03 X 11.0385 Y 30.1875 Z -1.0000 I 0.0462 J 0.0286
G01 X 11.0596 Y 30.2196 Z -1.0000
G01 X 11.0481 Y 30.2304 Z -1.0000
G03 X 10.9243 Y 30.2564 Z -1.0000 I -0.2812 J -1.0314
G02 X 10.8072 Y 30.2846 Z -1.0000 I 0.1006 J 0.6758
G01 X 10.7987 Y 30.2987 Z -1.0000
G01 X 10.7904 Y 30.3123 Z -1.0000
G03 X 10.7038 Y 30.3298 Z -1.0000 I -0.1174 J -0.3584
G01 X 10.6369 Y 30.3403 Z -1.0000
G01 X 10.6428 Y 30.3581 Z -1.0000
G03 X 10.5714 Y 30.3978 Z -1.0000 I -0.1278 J -0.1459
G03 X 10.4738 Y 30.4254 Z -1.0000 I -0.7663 J -2.5230
G03 X 10.4587 Y 30.4273 Z -1.0000 I -0.0151 J -0.0577
G01 X 10.4473 Y 30.4314 Z -1.0000
G01 X 10.4433 Y 30.4398 Z -1.0000
G01 X 10.4379 Y 30.4479 Z -1.0000
G03 X 10.3919 Y 30.4620 Z -1.0000 I -0.0861 J -0.1998
G02 X 10.3420 Y 30.4754 Z -1.0000 I 0.0617 J 0.3288
G02 X 10.3109 Y 30.4906 Z -1.0000 I 0.0503 J 0.1422
G03 X 10.2800 Y 30.5072 Z -1.0000 I -0.1187 J -0.1851
G03 X 10.1020 Y 30.5816 Z -1.0000 I -2.6570 J -6.1021
G02 X 9.4670 Y 30.8582 Z -1.0000 I 4.4483 J 11.0803
G02 X 8.8586 Y 31.1666 Z -1.0000 I 4.9251 J 10.4676
G02 X 8.2346 Y 31.5147 Z -1.0000 I 17.0713 J 31.3418
G02 X 8.0205 Y 31.6451 Z -1.0000 I 2.1789 J 3.8164
G03 X 7.9710 Y 31.6768 Z -1.0000 I -2.3170 J -3.5689
G03 X 7.7952 Y 31.7871 Z -1.0000 I -28.2725 J -44.8941
G02 X 6.5110 Y 32.6922 Z -1.0000 I 7.4501 J 11.9333
G02 X 5.3784 Y 33.7011 Z -1.0000 I 8.1399 J 10.2777
G02 X 4.7296 Y 34.4161 Z -1.0000 I 7.0791 J 7.0763
G02 X 4.3977 Y 34.8925 Z -1.0000 I 2.7947 J 2.3005
G02 X 4.2746 Y 35.1200 Z -1.0000 I 3.4946 J 2.0388
G02 X 4.2110 Y 35.2655 Z -1.0000 I 1.3633 J 0.6826
G01 X 4.2125 Y 35.2915 Z -1.0000
G01 X 4.2243 Y 35.2916 Z -1.0000
G03 X 4.2713 Y 35.2276 Z -1.0000 I 0.2295 J 0.1192
G01 X 4.2908 Y 35.2253 Z -1.0000
G01 X 4.2936 Y 35.2334 Z -1.0000
G03 X 4.2809 Y 35.2536 Z -1.0000 I -0.0507 J -0.0178
G02 X 4.2659 Y 35.2774 Z -1.0000 I 0.0453 J 0.0453
G02 X 4.2599 Y 35.3126 Z -1.0000 I 0.0971 J 0.0346
G01 X 4.2710 Y 35.3163 Z -1.0000
G02 X 4.3381 Y 35.2118 Z -1.0000 I -0.5493 J -0.4265
G03 X 4.5571 Y 34.8495 Z -1.0000 I 3.0147 J 1.5749
G03 X 4.9059 Y 34.3925 Z -1.0000 I 5.1566 J 3.5731
G03 X 5.3446 Y 33.9110 Z -1.0000 I 6.0353 J 5.0591
G03 X 5.8471 Y 33.4417 Z -1.0000 I 6.2358 J 6.1734
G03 X 7.0118 Y 32.5174 Z -1.0000 I 11.7950 J 13.6661
G03 X 8.3023 Y 31.6529 Z -1.0000 I 11.6007 J 15.9223
G03 X 8.6741 Y 31.4377 Z -1.0000 I 4.2975 J 6.9969
G03 X 9.2671 Y 31.1277 Z -1.0000 I 9.5239 J 17.4973
G03 X 10.6654 Y 30.5387 Z -1.0000 I 5.1456 J 10.2599
G03 X 11.8448 Y 30.2374 Z -1.0000 I 2.4118 J 6.9824
G03 X 12.9838 Y 30.1249 Z -1.0000 I 1.3808 J 8.1609
G03 X 13.8135 Y 30.1798 Z -1.0000 I 0.1277 J 4.3678
G03 X 13.9835 Y 30.2206 Z -1.0000 I -0.1899 J 1.1669
G03 X 14.4577 Y 30.3857 Z -1.0000 I -2.9716 J 9.2984
G02 X 15.1256 Y 30.5909 Z -1.0000 I 1.9700 J -5.2216
G02 X 15.9031 Y 30.7325 Z -1.0000 I 1.6652 J -6.9402
G02 X 16.5433 Y 30.7742 Z -1.0000 I 0.6693 J -5.3393
G02 X 17.2114 Y 30.7396 Z -1.0000 I 0.0317 J -5.8543
G02 X 18.0901 Y 30.6149 Z -1.0000 I -1.5088 J -13.7937
G02 X 18.9158 Y 30.4419 Z -1.0000 I -2.1570 J -12.3496
G03 X 19.4465 Y 30.3125 Z -1.0000 I 61.5722 J 251.3668
G03 X 20.0779 Y 30.1598 Z -1.0000 I 86.1841 J 355.0859
G02 X 20.3807 Y 30.0868 Z -1.0000 I -70.9385 J -294.5541
G02 X 20.7751 Y 29.9912 Z -1.0000 I -120.1203 J -496.5243
G03 X 21.1695 Y 29.8956 Z -1.0000 I 119.2037 J 491.0285
G03 X 21.4723 Y 29.8225 Z -1.0000 I 70.6394 J 292.0032
G02 X 21.7752 Y 29.7495 Z -1.0000 I -264.1913 J -1097.1093
G02 X 21.9160 Y 29.7155 Z -1.0000 I -66.9399 J -277.6397
G03 X 22.2360 Y 29.6388 Z -1.0000 I 20.8692 J 86.3628
G03 X 22.8316 Y 29.4979 Z -1.0000 I 70.4323 J 296.2697
G02 X 24.3138 Y 29.1417 Z -1.0000 I -39.4986 J -167.6464
G02 X 25.1980 Y 28.9182 Z -1.0000 I -14.6669 J -59.8726
G02 X 26.3193 Y 28.6221 Z -1.0000 I -47.0683 J -180.5394
G02 X 26.7967 Y 28.4907 Z -1.0000 I -8.7824 J -32.8487
G03 X 26.9165 Y 28.4571 Z -1.0000 I 7.2368 J 25.5657
G03 X 27.3038 Y 28.3498 Z -1.0000 I 73.9649 J 266.0458
G02 X 27.7879 Y 28.2147 Z -1.0000 I -29.0505 J -105.0789
G02 X 28.5292 Y 28.0049 Z -1.0000 I -69.4797 J -246.8793
G02 X 28.9493 Y 27.8830 Z -1.0000 I -11.6582 J -40.9506
G02 X 29.5857 Y 27.6924 Z -1.0000 I -27.7941 J -93.9534
G03 X 29.9590 Y 27.5795 Z -1.0000 I 61.4489 J 202.6561
G03 X 30.0928 Y 27.5396 Z -1.0000 I 7.8104 J 25.9302
G02 X 30.2264 Y 27.4996 Z -1.0000 I -5.6530 J -19.1205
G02 X 30.3393 Y 27.4649 Z -1.0000 I -4.1237 J -13.5969
G03 X 30.8731 Y 27.2997 Z -1.0000 I 29.0018 J 92.8191
G03 X 31.0224 Y 27.2557 Z -1.0000 I 2.2220 J 7.2578
G02 X 31.0716 Y 27.2414 Z -1.0000 I -1.1148 J -3.9251
G02 X 31.2759 Y 27.1802 Z -1.0000 I -19.3818 J -65.1165
G03 X 33.9787 Y 26.4580 Z -1.0000 I 12.8907 J 42.8230
G03 X 35.7904 Y 26.1240 Z -1.0000 I 4.4178 J 18.8823
G03 X 36.2669 Y 26.0896 Z -1.0000 I 0.5127 J 3.7807
G03 X 36.6567 Y 26.1158 Z -1.0000 I 0.0242 J 2.5491
G03 X 37.0897 Y 26.2077 Z -1.0000 I -0.4857 J 3.3549
G03 X 37.4596 Y 26.3419 Z -1.0000 I -0.7256 J 2.5768
G03 X 37.9161 Y 26.5981 Z -1.0000 I -1.1932 J 2.6607
G03 X 38.0815 Y 26.7686 Z -1.0000 I -0.3395 J 0.4948
G02 X 38.1188 Y 26.8048 Z -1.0000 I 0.0960 J -0.0617
G01 X 38.1291 Y 26.7972 Z -1.0000
G01 X 38.1342 Y 26.7835 Z -1.0000
G01 X 38.1476 Y 26.7843 Z -1.0000
G01 X 38.1617 Y 26.7822 Z -1.0000
G02 X 38.1691 Y 26.7487 Z -1.0000 I -0.0459 J -0.0277
G02 X 38.1433 Y 26.6206 Z -1.0000 I -0.7296 J 0.0801
G02 X 38.0926 Y 26.4904 Z -1.0000 I -0.8041 J 0.2379
G02 X 38.0024 Y 26.3462 Z -1.0000 I -0.7327 J 0.3579
G01 X 37.9661 Y 26.3285 Z -1.0000
G01 X 37.9581 Y 26.3149 Z -1.0000
G01 X 37.9842 Y 26.2960 Z -1.0000
G01 X 37.9907 Y 26.2882 Z -1.0000
G01 X 37.9842 Y 26.2793 Z -1.0000
G03 X 37.9593 Y 26.2639 Z -1.0000 I 0.0203 J -0.0610
G01 X 37.9526 Y 26.2478 Z -1.0000
G01 X 37.9590 Y 26.2363 Z -1.0000
G01 X 37.9737 Y 26.2349 Z -1.0000
G01 X 37.9884 Y 26.2337 Z -1.0000
G01 X 37.9948 Y 26.2224 Z -1.0000
G01 X 37.9997 Y 26.2066 Z -1.0000
G01 X 38.0089 Y 26.2017 Z -1.0000
G01 X 38.0178 Y 26.1880 Z -1.0000
G01 X 37.9930 Y 26.1659 Z -1.0000
G01 X 37.9893 Y 26.1485 Z -1.0000
G01 X 38.0212 Y 26.1408 Z -1.0000
G02 X 38.0442 Y 26.1422 Z -1.0000 I 0.0150 J -0.0583
G02 X 38.0795 Y 26.1329 Z -1.0000 I -0.0196 J -0.1464
G01 X 38.0883 Y 26.1236 Z -1.0000
G01 X 38.0844 Y 26.1180 Z -1.0000
G03 X 37.9803 Y 26.0946 Z -1.0000 I 0.0081 J -0.2792
G01 X 37.9758 Y 26.0704 Z -1.0000
G01 X 37.9870 Y 26.0646 Z -1.0000
G03 X 38.0332 Y 26.0608 Z -1.0000 I 0.0462 J 0.2771
G02 X 38.0696 Y 26.0544 Z -1.0000 I 0.0000 J -0.1070
G01 X 38.0722 Y 26.0467 Z -1.0000
G01 X 38.0607 Y 26.0378 Z -1.0000
G02 X 38.0256 Y 26.0322 Z -1.0000 I -0.0364 J 0.1162
G01 X 38.0103 Y 26.0243 Z -1.0000
G01 X 38.0119 Y 26.0134 Z -1.0000
G01 X 38.0242 Y 25.9943 Z -1.0000
G01 X 38.0196 Y 25.9786 Z -1.0000
G01 X 38.0193 Y 25.9689 Z -1.0000
G01 X 38.0342 Y 25.9622 Z -1.0000
G02 X 38.0594 Y 25.9565 Z -1.0000 I 0.0000 J -0.0590
G01 X 38.0652 Y 25.9475 Z -1.0000
G01 X 38.0588 Y 25.9404 Z -1.0000
G02 X 38.0159 Y 25.9420 Z -1.0000 I -0.0161 J 0.1452
G01 X 37.9871 Y 25.9298 Z -1.0000
G01 X 37.9947 Y 25.9099 Z -1.0000
G01 X 38.0025 Y 25.8923 Z -1.0000
G01 X 37.9771 Y 25.8764 Z -1.0000
G01 X 37.9717 Y 25.8695 Z -1.0000
G01 X 37.9806 Y 25.8597 Z -1.0000
G01 X 38.0009 Y 25.8462 Z -1.0000
G01 X 37.9982 Y 25.8389 Z -1.0000
G01 X 37.9727 Y 25.8208 Z -1.0000
G01 X 37.9806 Y 25.8073 Z -1.0000
G01 X 37.9905 Y 25.8032 Z -1.0000
G01 X 37.9947 Y 25.7932 Z -1.0000
G01 X 37.9903 Y 25.7835 Z -1.0000
G01 X 37.9786 Y 25.7791 Z -1.0000
G03 X 37.9275 Y 25.7518 Z -1.0000 I -0.0000 J -0.0615
G03 X 37.8902 Y 25.6468 Z -1.0000 I 0.1889 J -0.1262
G01 X 37.8836 Y 25.6365 Z -1.0000
G02 X 37.7789 Y 25.5821 Z -1.0000 I -0.6252 J 1.0744
G03 X 37.7232 Y 25.5459 Z -1.0000 I 0.0965 J -0.2093
G01 X 37.7192 Y 25.5296 Z -1.0000
G01 X 37.7151 Y 25.5192 Z -1.0000
G01 X 37.6931 Y 25.5169 Z -1.0000
G03 X 37.6591 Y 25.5209 Z -1.0000 I -0.0324 J -0.1300
G03 X 37.6346 Y 25.5162 Z -1.0000 I 0.0008 J -0.0708
G01 X 37.6274 Y 25.5046 Z -1.0000
G01 X 37.6370 Y 25.4873 Z -1.0000
G01 X 37.6362 Y 25.4770 Z -1.0000
G02 X 37.6003 Y 25.4686 Z -1.0000 I -0.0348 J 0.0684
G03 X 37.4842 Y 25.4584 Z -1.0000 I -0.0082 J -0.5720
G01 X 37.4598 Y 25.4417 Z -1.0000
G01 X 37.4450 Y 25.4314 Z -1.0000
G02 X 37.4125 Y 25.4322 Z -1.0000 I -0.0145 J 0.0722
G03 X 37.3796 Y 25.4339 Z -1.0000 I -0.0209 J -0.0840
G01 X 37.3671 Y 25.4258 Z -1.0000
G01 X 37.3549 Y 25.4173 Z -1.0000
G02 X 37.3281 Y 25.4182 Z -1.0000 I -0.0116 J 0.0589
G03 X 37.3004 Y 25.4181 Z -1.0000 I -0.0138 J -0.0528
G03 X 37.2744 Y 25.4041 Z -1.0000 I 0.0159 J -0.0604
G02 X 37.2471 Y 25.3916 Z -1.0000 I -0.0336 J 0.0371
G02 X 37.1541 Y 25.3889 Z -1.0000 I -0.0602 J 0.4759
G02 X 37.0584 Y 25.3982 Z -1.0000 I 0.1123 J 1.6502
G02 X 37.0172 Y 25.4062 Z -1.0000 I 0.0403 J 0.3181
G03 X 36.9872 Y 25.4089 Z -1.0000 I -0.0230 J -0.0876
G01 X 36.9845 Y 25.4037 Z -1.0000
G01 X 36.9811 Y 25.3744 Z -1.0000
G01 X 36.9520 Y 25.3712 Z -1.0000
G01 X 36.9521 Y 25.3711 Z -1.0000
G00 Z 5.0000

(End cutting path id: path183460)


(Start cutting path id: path183460)
(Change tool to Default tool)

G00 Z 5.0000
G00 X 37.9666 Y 26.1086

G01 Z -1.0000 F 100.0000(Penetrate)
G01 X 37.9645 Y 26.1126 Z -1.0000 F 3500.0000
G03 X 37.9455 Y 26.1222 Z -1.0000 I -0.0548 J -0.0842
G01 X 37.9293 Y 26.1232 Z -1.0000
G01 X 37.9244 Y 26.1167 Z -1.0000
G01 X 37.9292 Y 26.1079 Z -1.0000
G01 X 37.9455 Y 26.1031 Z -1.0000
G03 X 37.9643 Y 26.1055 Z -1.0000 I -0.0000 J 0.0740
G01 X 37.9666 Y 26.1086 Z -1.0000
G01 X 37.9666 Y 26.1086 Z -1.0000
G00 Z 5.0000

(End cutting path id: path183460)


(Start cutting path id: path183460)
(Change tool to Default tool)

G00 Z 5.0000
G00 X 30.9763 Y 26.8440

G01 Z -1.0000 F 100.0000(Penetrate)
G01 X 30.9669 Y 26.8482 Z -1.0000 F 3500.0000
G01 X 30.9493 Y 26.8451 Z -1.0000
G01 X 30.9484 Y 26.8407 Z -1.0000
G01 X 30.9578 Y 26.8366 Z -1.0000
G01 X 30.9754 Y 26.8396 Z -1.0000
G01 X 30.9763 Y 26.8440 Z -1.0000
G01 X 30.9763 Y 26.8440 Z -1.0000
G00 Z 5.0000

(End cutting path id: path183460)


(Start cutting path id: path183460)
(Change tool to Default tool)

G00 Z 5.0000
G00 X 30.9622 Y 26.9004

G01 Z -1.0000 F 100.0000(Penetrate)
G01 X 30.9528 Y 26.9045 Z -1.0000 F 3500.0000
G01 X 30.9352 Y 26.9015 Z -1.0000
G01 X 30.9343 Y 26.8971 Z -1.0000
G01 X 30.9437 Y 26.8930 Z -1.0000
G01 X 30.9613 Y 26.8960 Z -1.0000
G01 X 30.9622 Y 26.9004 Z -1.0000
G01 X 30.9622 Y 26.9004 Z -1.0000
G00 Z 5.0000

(End cutting path id: path183460)


(Start cutting path id: path183460)
(Change tool to Default tool)

G00 Z 5.0000
G00 X 30.7829 Y 26.9623

G01 Z -1.0000 F 100.0000(Penetrate)
G01 X 30.7673 Y 26.9779 Z -1.0000 F 3500.0000
G03 X 30.6914 Y 26.9623 Z -1.0000 I 0.0000 J -0.1924
G01 X 30.6914 Y 26.9557 Z -1.0000
G03 X 30.7231 Y 26.9492 Z -1.0000 I 0.0331 J 0.0801
G03 X 30.7767 Y 26.9545 Z -1.0000 I 0.0039 J 0.2339
G01 X 30.7829 Y 26.9623 Z -1.0000
G01 X 30.7829 Y 26.9623 Z -1.0000
G00 Z 5.0000

(End cutting path id: path183460)


(Start cutting path id: path183460)
(Change tool to Default tool)

G00 Z 5.0000
G00 X 30.7510 Y 27.0271

G01 Z -1.0000 F 100.0000(Penetrate)
G01 X 30.7415 Y 27.0313 Z -1.0000 F 3500.0000
G01 X 30.7240 Y 27.0282 Z -1.0000
G01 X 30.7231 Y 27.0238 Z -1.0000
G01 X 30.7325 Y 27.0197 Z -1.0000
G01 X 30.7500 Y 27.0227 Z -1.0000
G01 X 30.7509 Y 27.0271 Z -1.0000
G01 X 30.7510 Y 27.0271 Z -1.0000
G00 Z 5.0000

(End cutting path id: path183460)


(Start cutting path id: path183460)
(Change tool to Default tool)

G00 Z 5.0000
G00 X 30.6491 Y 26.9623

G01 Z -1.0000 F 100.0000(Penetrate)
G01 X 30.6386 Y 26.9730 Z -1.0000 F 3500.0000
G01 X 30.6272 Y 26.9764 Z -1.0000
G01 X 30.6179 Y 26.9724 Z -1.0000
G01 X 30.6139 Y 26.9623 Z -1.0000
G01 X 30.6189 Y 26.9532 Z -1.0000
G01 X 30.6359 Y 26.9482 Z -1.0000
G01 X 30.6482 Y 26.9535 Z -1.0000
G01 X 30.6491 Y 26.9623 Z -1.0000
G01 X 30.6491 Y 26.9623 Z -1.0000
G00 Z 5.0000

(End cutting path id: path183460)


(Start cutting path id: path183460)
(Change tool to Default tool)

G00 Z 5.0000
G00 X 30.5538 Y 26.9145

G01 Z -1.0000 F 100.0000(Penetrate)
G01 X 30.5443 Y 26.9186 Z -1.0000 F 3500.0000
G01 X 30.5268 Y 26.9156 Z -1.0000
G01 X 30.5259 Y 26.9112 Z -1.0000
G01 X 30.5353 Y 26.9071 Z -1.0000
G01 X 30.5528 Y 26.9101 Z -1.0000
G01 X 30.5538 Y 26.9145 Z -1.0000
G01 X 30.5538 Y 26.9145 Z -1.0000
G00 Z 5.0000

(End cutting path id: path183460)


(Start cutting path id: path183460)
(Change tool to Default tool)

G00 Z 5.0000
G00 X 30.4346 Y 26.9856

G01 Z -1.0000 F 100.0000(Penetrate)
G01 X 30.4171 Y 26.9891 Z -1.0000 F 3500.0000
G03 X 30.3923 Y 26.9861 Z -1.0000 I -0.0010 J -0.0939
G01 X 30.4097 Y 26.9791 Z -1.0000
G01 X 30.4346 Y 26.9856 Z -1.0000
G01 X 30.4346 Y 26.9856 Z -1.0000
G00 Z 5.0000

(End cutting path id: path183460)


(Start cutting path id: path183460)
(Change tool to Default tool)

G00 Z 5.0000
G00 X 30.3005 Y 27.0266

G01 Z -1.0000 F 100.0000(Penetrate)
G03 X 30.3853 Y 27.0407 Z -1.0000 I -0.0677 J 0.6696 F 3500.0000
G01 X 30.3970 Y 27.0490 Z -1.0000
G01 X 30.3931 Y 27.0553 Z -1.0000
G03 X 30.1926 Y 27.0336 Z -1.0000 I 0.2317 J -3.0725
G03 X 30.1397 Y 27.0176 Z -1.0000 I 0.0256 J -0.1807
G01 X 30.1420 Y 27.0095 Z -1.0000
G02 X 30.2125 Y 27.0174 Z -1.0000 I 0.9513 J -8.1896
G02 X 30.3005 Y 27.0266 Z -1.0000 I 1.5218 J -14.1626
G01 X 30.3005 Y 27.0266 Z -1.0000
G00 Z 5.0000

(End cutting path id: path183460)


(Start cutting path id: path183460)
(Change tool to Default tool)

G00 Z 5.0000
G00 X 30.2547 Y 26.9764

G01 Z -1.0000 F 100.0000(Penetrate)
G01 X 30.2598 Y 26.9841 Z -1.0000 F 3500.0000
G01 X 30.2547 Y 26.9893 Z -1.0000
G03 X 30.2276 Y 26.9861 Z -1.0000 I -0.0026 J -0.0963
G03 X 30.2054 Y 26.9764 Z -1.0000 I 0.0196 J -0.0747
G01 X 30.2008 Y 26.9679 Z -1.0000
G01 X 30.2054 Y 26.9635 Z -1.0000
G03 X 30.2261 Y 26.9665 Z -1.0000 I -0.0035 J 0.0957
G03 X 30.2547 Y 26.9764 Z -1.0000 I -0.0502 J 0.1928
G01 X 30.2547 Y 26.9764 Z -1.0000
G00 Z 5.0000

(End cutting path id: path183460)


(Start cutting path id: path183460)
(Change tool to Default tool)

G00 Z 5.0000
G00 X 30.0963 Y 27.0702

G01 Z -1.0000 F 100.0000(Penetrate)
G01 X 30.0786 Y 27.0736 Z -1.0000 F 3500.0000
G01 X 30.0611 Y 27.0702 Z -1.0000
G01 X 30.0787 Y 27.0631 Z -1.0000
G01 X 30.0963 Y 27.0702 Z -1.0000
G01 X 30.0963 Y 27.0702 Z -1.0000
G00 Z 5.0000

(End cutting path id: path183460)


(Start cutting path id: path183460)
(Change tool to Default tool)

G00 Z 5.0000
G00 X 30.0352 Y 27.0277

G01 Z -1.0000 F 100.0000(Penetrate)
G01 X 29.9895 Y 27.0327 Z -1.0000 F 3500.0000
G03 X 29.9438 Y 27.0267 Z -1.0000 I -0.0000 J -0.1775
G01 X 29.9378 Y 27.0189 Z -1.0000
G01 X 29.9620 Y 26.9968 Z -1.0000
G03 X 30.0352 Y 27.0276 Z -1.0000 I -0.0119 J 0.1307
G01 X 30.0352 Y 27.0277 Z -1.0000
G00 Z 5.0000

(End cutting path id: path183460)


(Start cutting path id: path183460)
(Change tool to Default tool)

G00 Z 5.0000
G00 X 30.0118 Y 27.0843

G01 Z -1.0000 F 100.0000(Penetrate)
G01 X 29.9941 Y 27.0877 Z -1.0000 F 3500.0000
G01 X 29.9765 Y 27.0843 Z -1.0000
G01 X 29.9942 Y 27.0772 Z -1.0000
G01 X 30.0118 Y 27.0843 Z -1.0000
G01 X 30.0118 Y 27.0843 Z -1.0000
G00 Z 5.0000

(End cutting path id: path183460)


(Start cutting path id: path183460)
(Change tool to Default tool)

G00 Z 5.0000
G00 X 29.9167 Y 27.1031

G01 Z -1.0000 F 100.0000(Penetrate)
G01 X 29.9050 Y 27.1117 Z -1.0000 F 3500.0000
G03 X 29.8630 Y 27.1170 Z -1.0000 I -0.0411 J -0.1582
G01 X 29.8394 Y 27.1105 Z -1.0000
G01 X 29.8392 Y 27.1031 Z -1.0000
G03 X 29.9057 Y 27.0835 Z -1.0000 I 0.0665 J 0.1029
G01 X 29.9167 Y 27.1031 Z -1.0000
G01 X 29.9167 Y 27.1031 Z -1.0000
G00 Z 5.0000

(End cutting path id: path183460)


(Start cutting path id: path183460)
(Change tool to Default tool)

G00 Z 5.0000
G00 X 29.8777 Y 27.1510

G01 Z -1.0000 F 100.0000(Penetrate)
G01 X 29.8763 Y 27.1554 Z -1.0000 F 3500.0000
G03 X 29.8283 Y 27.1595 Z -1.0000 I -0.0480 J -0.2804
G03 X 29.7731 Y 27.1547 Z -1.0000 I -0.0000 J -0.3206
G01 X 29.7634 Y 27.1482 Z -1.0000
G01 X 29.7846 Y 27.1111 Z -1.0000
G03 X 29.8777 Y 27.1511 Z -1.0000 I -0.0034 J 0.1362
G01 X 29.8777 Y 27.1510 Z -1.0000
G00 Z 5.0000

(End cutting path id: path183460)


(Start cutting path id: path183460)
(Change tool to Default tool)

G00 Z 5.0000
G00 X 29.7690 Y 27.1058

G01 Z -1.0000 F 100.0000(Penetrate)
G03 X 29.7376 Y 27.1130 Z -1.0000 I -0.0437 J -0.1182 F 3500.0000
G01 X 29.7284 Y 27.1097 Z -1.0000
G01 X 29.7324 Y 27.0873 Z -1.0000
G03 X 29.7803 Y 27.0857 Z -1.0000 I 0.0259 J 0.0559
G01 X 29.7832 Y 27.0937 Z -1.0000
G01 X 29.7690 Y 27.1058 Z -1.0000
G01 X 29.7690 Y 27.1058 Z -1.0000
G00 Z 5.0000

(End cutting path id: path183460)


(Start cutting path id: path183460)
(Change tool to Default tool)

G00 Z 5.0000
G00 X 29.7790 Y 27.0271

G01 Z -1.0000 F 100.0000(Penetrate)
G01 X 29.7696 Y 27.0313 Z -1.0000 F 3500.0000
G01 X 29.7520 Y 27.0282 Z -1.0000
G01 X 29.7512 Y 27.0238 Z -1.0000
G01 X 29.7605 Y 27.0197 Z -1.0000
G01 X 29.7781 Y 27.0227 Z -1.0000
G01 X 29.7790 Y 27.0271 Z -1.0000
G01 X 29.7790 Y 27.0271 Z -1.0000
G00 Z 5.0000

(End cutting path id: path183460)


(Start cutting path id: path183460)
(Change tool to Default tool)

G00 Z 5.0000
G00 X 29.7021 Y 27.0560

G01 Z -1.0000 F 100.0000(Penetrate)
G01 X 29.6846 Y 27.0596 Z -1.0000 F 3500.0000
G03 X 29.6599 Y 27.0565 Z -1.0000 I -0.0010 J -0.0939
G01 X 29.6772 Y 27.0495 Z -1.0000
G01 X 29.7021 Y 27.0560 Z -1.0000
G01 X 29.7021 Y 27.0560 Z -1.0000
G00 Z 5.0000

(End cutting path id: path183460)


(Start cutting path id: path183460)
(Change tool to Default tool)

G00 Z 5.0000
G00 X 29.6690 Y 27.1423

G01 Z -1.0000 F 100.0000(Penetrate)
G03 X 29.6931 Y 27.1490 Z -1.0000 I -0.0064 J 0.0700 F 3500.0000
G01 X 29.6940 Y 27.1544 Z -1.0000
G03 X 29.5821 Y 27.2014 Z -1.0000 I -0.1135 J -0.1135
G03 X 29.0893 Y 27.1606 Z -1.0000 I -0.0271 J -2.6692
G01 X 29.0891 Y 27.1550 Z -1.0000
G03 X 29.1560 Y 27.1454 Z -1.0000 I 0.0931 J 0.4098
G03 X 29.4797 Y 27.1343 Z -1.0000 I 0.3573 J 5.7075
G03 X 29.6690 Y 27.1423 Z -1.0000 I 0.0116 J 1.9746
G01 X 29.6690 Y 27.1423 Z -1.0000
G00 Z 5.0000

(End cutting path id: path183460)


(Start cutting path id: path183460)
(Change tool to Default tool)

G00 Z 5.0000
G00 X 29.7453 Y 27.2218

G01 Z -1.0000 F 100.0000(Penetrate)
G01 X 29.7573 Y 27.2367 Z -1.0000 F 3500.0000
G02 X 29.7855 Y 27.2481 Z -1.0000 I 0.0428 J -0.0657
G01 X 29.7723 Y 27.2491 Z -1.0000
G03 X 29.6365 Y 27.2252 Z -1.0000 I 0.1231 J -1.0959
G01 X 29.6279 Y 27.2142 Z -1.0000
G01 X 29.6750 Y 27.1701 Z -1.0000
G03 X 29.7453 Y 27.2218 Z -1.0000 I -0.0052 J 0.0807
G01 X 29.7453 Y 27.2218 Z -1.0000
G00 Z 5.0000

(End cutting path id: path183460)


(Start cutting path id: path183460)
(Change tool to Default tool)

G00 Z 5.0000
G00 X 29.7227 Y 27.2948

G01 Z -1.0000 F 100.0000(Penetrate)
G01 X 29.7133 Y 27.2989 Z -1.0000 F 3500.0000
G01 X 29.6957 Y 27.2959 Z -1.0000
G01 X 29.6948 Y 27.2915 Z -1.0000
G01 X 29.7042 Y 27.2874 Z -1.0000
G01 X 29.7218 Y 27.2904 Z -1.0000
G01 X 29.7227 Y 27.2948 Z -1.0000
G01 X 29.7227 Y 27.2948 Z -1.0000
G00 Z 5.0000

(End cutting path id: path183460)


(Start cutting path id: path183460)
(Change tool to Default tool)

G00 Z 5.0000
G00 X 29.8495 Y 27.3089

G01 Z -1.0000 F 100.0000(Penetrate)
G01 X 29.8400 Y 27.3130 Z -1.0000 F 3500.0000
G01 X 29.8225 Y 27.3100 Z -1.0000
G01 X 29.8216 Y 27.3056 Z -1.0000
G01 X 29.8310 Y 27.3015 Z -1.0000
G01 X 29.8486 Y 27.3045 Z -1.0000
G01 X 29.8495 Y 27.3089 Z -1.0000
G01 X 29.8495 Y 27.3089 Z -1.0000
G00 Z 5.0000

(End cutting path id: path183460)


(Start cutting path id: path183460)
(Change tool to Default tool)

G00 Z 5.0000
G00 X 29.5927 Y 27.3004

G01 Z -1.0000 F 100.0000(Penetrate)
G01 X 29.5918 Y 27.3091 Z -1.0000 F 3500.0000
G01 X 29.5794 Y 27.3145 Z -1.0000
G01 X 29.5625 Y 27.3095 Z -1.0000
G01 X 29.5575 Y 27.3004 Z -1.0000
G01 X 29.5615 Y 27.2903 Z -1.0000
G01 X 29.5707 Y 27.2863 Z -1.0000
G01 X 29.5821 Y 27.2896 Z -1.0000
G01 X 29.5927 Y 27.3004 Z -1.0000
G01 X 29.5927 Y 27.3004 Z -1.0000
G00 Z 5.0000

(End cutting path id: path183460)


(Start cutting path id: path183460)
(Change tool to Default tool)

G00 Z 5.0000
G00 X 29.5258 Y 27.2396

G01 Z -1.0000 F 100.0000(Penetrate)
G03 X 29.5011 Y 27.2427 Z -1.0000 I -0.0246 J -0.0955 F 3500.0000
G03 X 29.4765 Y 27.2396 Z -1.0000 I -0.0000 J -0.0986
G01 X 29.5011 Y 27.2332 Z -1.0000
G01 X 29.5258 Y 27.2396 Z -1.0000
G01 X 29.5258 Y 27.2396 Z -1.0000
G00 Z 5.0000

(End cutting path id: path183460)


(Start cutting path id: path183460)
(Change tool to Default tool)

G00 Z 5.0000
G00 X 29.4518 Y 27.2021

G01 Z -1.0000 F 100.0000(Penetrate)
G01 X 29.4541 Y 27.2057 Z -1.0000 F 3500.0000
G01 X 29.4448 Y 27.2166 Z -1.0000
G01 X 29.4217 Y 27.2239 Z -1.0000
G03 X 29.1913 Y 27.2203 Z -1.0000 I -0.0548 J -3.8262
G02 X 28.9589 Y 27.2119 Z -1.0000 I -0.5370 J 11.6354
G02 X 28.8855 Y 27.2123 Z -1.0000 I -0.0303 J 1.1589
G03 X 28.8154 Y 27.2088 Z -1.0000 I -0.0150 J -0.4028
G01 X 28.8035 Y 27.2010 Z -1.0000
G01 X 28.8072 Y 27.1941 Z -1.0000
G03 X 29.1163 Y 27.1945 Z -1.0000 I 0.1460 J 6.9640
G02 X 29.4378 Y 27.2019 Z -1.0000 I 70.0548 J -3021.3812
G02 X 29.4519 Y 27.2021 Z -1.0000 I 0.0141 J -0.6102
G01 X 29.4518 Y 27.2021 Z -1.0000
G00 Z 5.0000

(End cutting path id: path183460)


(Start cutting path id: path183460)
(Change tool to Default tool)

G00 Z 5.0000
G00 X 29.4307 Y 27.3285

G01 Z -1.0000 F 100.0000(Penetrate)
G01 X 29.4266 Y 27.3384 Z -1.0000 F 3500.0000
G01 X 29.4166 Y 27.3426 Z -1.0000
G01 X 29.4067 Y 27.3385 Z -1.0000
G01 X 29.4025 Y 27.3285 Z -1.0000
G01 X 29.4066 Y 27.3186 Z -1.0000
G01 X 29.4166 Y 27.3144 Z -1.0000
G01 X 29.4266 Y 27.3185 Z -1.0000
G01 X 29.4307 Y 27.3285 Z -1.0000
G01 X 29.4307 Y 27.3285 Z -1.0000
G00 Z 5.0000

(End cutting path id: path183460)


(Start cutting path id: path183460)
(Change tool to Default tool)

G00 Z 5.0000
G00 X 29.3538 Y 27.3435

G01 Z -1.0000 F 100.0000(Penetrate)
G01 X 29.3506 Y 27.3500 Z -1.0000 F 3500.0000
G03 X 29.3089 Y 27.3487 Z -1.0000 I -0.0164 J -0.1422
G01 X 29.2896 Y 27.3368 Z -1.0000
G01 X 29.2937 Y 27.3285 Z -1.0000
G03 X 29.3413 Y 27.3343 Z -1.0000 I 0.0000 J 0.1973
G01 X 29.3538 Y 27.3435 Z -1.0000
G01 X 29.3538 Y 27.3435 Z -1.0000
G00 Z 5.0000

(End cutting path id: path183460)


(Start cutting path id: path183460)
(Change tool to Default tool)

G00 Z 5.0000
G00 X 29.3920 Y 27.4447

G01 Z -1.0000 F 100.0000(Penetrate)
G03 X 29.3462 Y 27.4519 Z -1.0000 I -0.0458 J -0.1427 F 3500.0000
G03 X 29.3004 Y 27.4447 Z -1.0000 I 0.0000 J -0.1499
G01 X 29.3004 Y 27.4372 Z -1.0000
G03 X 29.3462 Y 27.4300 Z -1.0000 I 0.0458 J 0.1427
G03 X 29.3920 Y 27.4372 Z -1.0000 I 0.0000 J 0.1499
G01 X 29.3920 Y 27.4447 Z -1.0000
G01 X 29.3920 Y 27.4447 Z -1.0000
G00 Z 5.0000

(End cutting path id: path183460)


(Start cutting path id: path183460)
(Change tool to Default tool)

G00 Z 5.0000
G00 X 29.5328 Y 27.3942

G01 Z -1.0000 F 100.0000(Penetrate)
G01 X 29.5152 Y 27.3976 Z -1.0000 F 3500.0000
G01 X 29.4976 Y 27.3942 Z -1.0000
G01 X 29.5152 Y 27.3871 Z -1.0000
G01 X 29.5328 Y 27.3942 Z -1.0000
G01 X 29.5328 Y 27.3942 Z -1.0000
G00 Z 5.0000

(End cutting path id: path183460)


(Start cutting path id: path183460)
(Change tool to Default tool)

G00 Z 5.0000
G00 X 29.5681 Y 27.0847

G01 Z -1.0000 F 100.0000(Penetrate)
G03 X 29.5434 Y 27.0878 Z -1.0000 I -0.0246 J -0.0955 F 3500.0000
G03 X 29.5188 Y 27.0847 Z -1.0000 I -0.0000 J -0.0986
G01 X 29.5434 Y 27.0783 Z -1.0000
G01 X 29.5681 Y 27.0847 Z -1.0000
G01 X 29.5681 Y 27.0847 Z -1.0000
G00 Z 5.0000

(End cutting path id: path183460)


(Start cutting path id: path183460)
(Change tool to Default tool)

G00 Z 5.0000
G00 X 29.6176 Y 26.9856

G01 Z -1.0000 F 100.0000(Penetrate)
G01 X 29.6001 Y 26.9891 Z -1.0000 F 3500.0000
G03 X 29.5754 Y 26.9861 Z -1.0000 I -0.0010 J -0.0939
G01 X 29.5927 Y 26.9791 Z -1.0000
G01 X 29.6176 Y 26.9856 Z -1.0000
G01 X 29.6176 Y 26.9856 Z -1.0000
G00 Z 5.0000

(End cutting path id: path183460)


(Start cutting path id: path183460)
(Change tool to Default tool)

G00 Z 5.0000
G00 X 29.8005 Y 26.9434

G01 Z -1.0000 F 100.0000(Penetrate)
G01 X 29.7828 Y 26.9469 Z -1.0000 F 3500.0000
G01 X 29.7653 Y 26.9434 Z -1.0000
G01 X 29.7829 Y 26.9363 Z -1.0000
G01 X 29.8005 Y 26.9434 Z -1.0000
G01 X 29.8005 Y 26.9434 Z -1.0000
G00 Z 5.0000

(End cutting path id: path183460)


(Start cutting path id: path183460)
(Change tool to Default tool)

G00 Z 5.0000
G00 X 30.2720 Y 27.1680

G01 Z -1.0000 F 100.0000(Penetrate)
G01 X 30.2626 Y 27.1721 Z -1.0000 F 3500.0000
G01 X 30.2450 Y 27.1691 Z -1.0000
G01 X 30.2442 Y 27.1647 Z -1.0000
G01 X 30.2535 Y 27.1606 Z -1.0000
G01 X 30.2711 Y 27.1636 Z -1.0000
G01 X 30.2720 Y 27.1680 Z -1.0000
G01 X 30.2720 Y 27.1680 Z -1.0000
G00 Z 5.0000

(End cutting path id: path183460)


(Start cutting path id: path183460)
(Change tool to Default tool)

G00 Z 5.0000
G00 X 29.2053 Y 27.3297

G01 Z -1.0000 F 100.0000(Penetrate)
G01 X 29.2012 Y 27.3344 Z -1.0000 F 3500.0000
G03 X 29.0680 Y 27.3473 Z -1.0000 I -0.2717 J -2.1170
G02 X 28.9309 Y 27.3582 Z -1.0000 I 0.2975 J 4.5853
G02 X 28.8779 Y 27.3653 Z -1.0000 I 0.0660 J 0.6949
G01 X 28.8590 Y 27.3526 Z -1.0000
G01 X 28.8709 Y 27.3324 Z -1.0000
G03 X 29.1622 Y 27.2869 Z -1.0000 I 0.2992 J 0.9589
G01 X 29.2054 Y 27.3297 Z -1.0000
G01 X 29.2053 Y 27.3297 Z -1.0000
G00 Z 5.0000

(End cutting path id: path183460)


(Start cutting path id: path183460)
(Change tool to Default tool)

G00 Z 5.0000
G00 X 29.1452 Y 27.3934

G01 Z -1.0000 F 100.0000(Penetrate)
G01 X 29.1358 Y 27.3975 Z -1.0000 F 3500.0000
G01 X 29.1182 Y 27.3945 Z -1.0000
G01 X 29.1173 Y 27.3901 Z -1.0000
G01 X 29.1267 Y 27.3860 Z -1.0000
G01 X 29.1443 Y 27.3890 Z -1.0000
G01 X 29.1452 Y 27.3934 Z -1.0000
G01 X 29.1452 Y 27.3934 Z -1.0000
G00 Z 5.0000

(End cutting path id: path183460)


(Start cutting path id: path183460)
(Change tool to Default tool)

G00 Z 5.0000
G00 X 29.1420 Y 27.4412

G01 Z -1.0000 F 100.0000(Penetrate)
G03 X 29.0606 Y 27.4514 Z -1.0000 I -0.0814 J -0.3198 F 3500.0000
G01 X 29.0504 Y 27.4412 Z -1.0000
G01 X 29.0567 Y 27.4336 Z -1.0000
G03 X 29.1173 Y 27.4288 Z -1.0000 I 0.0534 J 0.2857
G03 X 29.1426 Y 27.4351 Z -1.0000 I -0.0015 J 0.0596
G01 X 29.1420 Y 27.4412 Z -1.0000
G01 X 29.1420 Y 27.4412 Z -1.0000
G00 Z 5.0000

(End cutting path id: path183460)


(Start cutting path id: path183460)
(Change tool to Default tool)

G00 Z 5.0000
G00 X 29.1593 Y 27.4920

G01 Z -1.0000 F 100.0000(Penetrate)
G01 X 29.1498 Y 27.4962 Z -1.0000 F 3500.0000
G01 X 29.1323 Y 27.4931 Z -1.0000
G01 X 29.1314 Y 27.4887 Z -1.0000
G01 X 29.1408 Y 27.4846 Z -1.0000
G01 X 29.1584 Y 27.4876 Z -1.0000
G01 X 29.1593 Y 27.4920 Z -1.0000
G01 X 29.1593 Y 27.4920 Z -1.0000
G00 Z 5.0000

(End cutting path id: path183460)


(Start cutting path id: path183460)
(Change tool to Default tool)

G00 Z 5.0000
G00 X 29.0856 Y 27.3849

G01 Z -1.0000 F 100.0000(Penetrate)
G01 X 29.0743 Y 27.3943 Z -1.0000 F 3500.0000
G03 X 29.0496 Y 27.3989 Z -1.0000 I -0.0248 J -0.0630
G01 X 29.0276 Y 27.3936 Z -1.0000
G01 X 29.0222 Y 27.3849 Z -1.0000
G01 X 29.0279 Y 27.3765 Z -1.0000
G03 X 29.0583 Y 27.3708 Z -1.0000 I 0.0304 J 0.0773
G03 X 29.0834 Y 27.3769 Z -1.0000 I -0.0000 J 0.0548
G01 X 29.0856 Y 27.3849 Z -1.0000
G01 X 29.0856 Y 27.3849 Z -1.0000
G00 Z 5.0000

(End cutting path id: path183460)


(Start cutting path id: path183460)
(Change tool to Default tool)

G00 Z 5.0000
G00 X 29.0363 Y 27.4333

G01 Z -1.0000 F 100.0000(Penetrate)
G01 X 29.0227 Y 27.4504 Z -1.0000 F 3500.0000
G01 X 29.0012 Y 27.4414 Z -1.0000
G01 X 29.0021 Y 27.4325 Z -1.0000
G01 X 29.0144 Y 27.4271 Z -1.0000
G03 X 29.0337 Y 27.4298 Z -1.0000 I 0.0000 J 0.0709
G01 X 29.0363 Y 27.4333 Z -1.0000
G01 X 29.0363 Y 27.4333 Z -1.0000
G00 Z 5.0000

(End cutting path id: path183460)


(Start cutting path id: path183460)
(Change tool to Default tool)

G00 Z 5.0000
G00 X 28.9762 Y 27.4356

G01 Z -1.0000 F 100.0000(Penetrate)
G01 X 28.9667 Y 27.4398 Z -1.0000 F 3500.0000
G01 X 28.9492 Y 27.4367 Z -1.0000
G01 X 28.9483 Y 27.4323 Z -1.0000
G01 X 28.9577 Y 27.4282 Z -1.0000
G01 X 28.9752 Y 27.4312 Z -1.0000
G01 X 28.9762 Y 27.4356 Z -1.0000
G01 X 28.9762 Y 27.4356 Z -1.0000
G00 Z 5.0000

(End cutting path id: path183460)


(Start cutting path id: path183460)
(Change tool to Default tool)

G00 Z 5.0000
G00 X 28.9762 Y 27.4920

G01 Z -1.0000 F 100.0000(Penetrate)
G01 X 28.9667 Y 27.4962 Z -1.0000 F 3500.0000
G01 X 28.9492 Y 27.4931 Z -1.0000
G01 X 28.9483 Y 27.4887 Z -1.0000
G01 X 28.9577 Y 27.4846 Z -1.0000
G01 X 28.9752 Y 27.4876 Z -1.0000
G01 X 28.9762 Y 27.4920 Z -1.0000
G01 X 28.9762 Y 27.4920 Z -1.0000
G00 Z 5.0000

(End cutting path id: path183460)


(Start cutting path id: path183460)
(Change tool to Default tool)

G00 Z 5.0000
G00 X 28.9236 Y 27.5398

G01 Z -1.0000 F 100.0000(Penetrate)
G01 X 28.9176 Y 27.5478 Z -1.0000 F 3500.0000
G03 X 28.8752 Y 27.5539 Z -1.0000 I -0.0425 J -0.1453
G03 X 28.8298 Y 27.5484 Z -1.0000 I 0.0000 J -0.1905
G01 X 28.8180 Y 27.5398 Z -1.0000
G01 X 28.8209 Y 27.5322 Z -1.0000
G03 X 28.8665 Y 27.5257 Z -1.0000 I 0.0456 J 0.1568
G03 X 28.9174 Y 27.5319 Z -1.0000 I 0.0000 J 0.2138
G01 X 28.9236 Y 27.5398 Z -1.0000
G01 X 28.9236 Y 27.5398 Z -1.0000
G00 Z 5.0000

(End cutting path id: path183460)


(Start cutting path id: path183460)
(Change tool to Default tool)

G00 Z 5.0000
G00 X 28.8391 Y 27.5988

G01 Z -1.0000 F 100.0000(Penetrate)
G01 X 28.8377 Y 27.6046 Z -1.0000 F 3500.0000
G03 X 28.7617 Y 27.6042 Z -1.0000 I -0.0353 J -0.5089
G02 X 28.6630 Y 27.5979 Z -1.0000 I -0.2526 J 3.1857
G02 X 28.5961 Y 27.5963 Z -1.0000 I -0.0668 J 1.3860
G03 X 28.5347 Y 27.5907 Z -1.0000 I 0.0005 J -0.3490
G01 X 28.5292 Y 27.5842 Z -1.0000
G03 X 28.5944 Y 27.5220 Z -1.0000 I 0.0623 J 0.0000
G03 X 28.8391 Y 27.5988 Z -1.0000 I -0.0239 J 0.5045
G01 X 28.8391 Y 27.5988 Z -1.0000
G00 Z 5.0000

(End cutting path id: path183460)


(Start cutting path id: path183460)
(Change tool to Default tool)

G00 Z 5.0000
G00 X 28.8138 Y 27.4863

G01 Z -1.0000 F 100.0000(Penetrate)
G01 X 28.7969 Y 27.4933 Z -1.0000 F 3500.0000
G01 X 28.7800 Y 27.4863 Z -1.0000
G01 X 28.7800 Y 27.4764 Z -1.0000
G01 X 28.7969 Y 27.4694 Z -1.0000
G01 X 28.8138 Y 27.4764 Z -1.0000
G01 X 28.8138 Y 27.4863 Z -1.0000
G01 X 28.8138 Y 27.4863 Z -1.0000
G00 Z 5.0000

(End cutting path id: path183460)


(Start cutting path id: path183460)
(Change tool to Default tool)

G00 Z 5.0000
G00 X 28.7382 Y 27.5262

G01 Z -1.0000 F 100.0000(Penetrate)
G01 X 28.7428 Y 27.5315 Z -1.0000 F 3500.0000
G01 X 28.7362 Y 27.5414 Z -1.0000
G03 X 28.6884 Y 27.5482 Z -1.0000 I -0.0321 J -0.0552
G01 X 28.6701 Y 27.5247 Z -1.0000
G01 X 28.6757 Y 27.5169 Z -1.0000
G01 X 28.6924 Y 27.5172 Z -1.0000
G02 X 28.7151 Y 27.5237 Z -1.0000 I 0.0486 J -0.1266
G02 X 28.7382 Y 27.5262 Z -1.0000 I 0.0263 J -0.1352
G01 X 28.7382 Y 27.5262 Z -1.0000
G00 Z 5.0000

(End cutting path id: path183460)


(Start cutting path id: path183460)
(Change tool to Default tool)

G00 Z 5.0000
G00 X 28.6407 Y 27.5315

G01 Z -1.0000 F 100.0000(Penetrate)
G03 X 28.5710 Y 27.5613 Z -1.0000 I -0.0731 J -0.0744 F 3500.0000
G03 X 28.5064 Y 27.5357 Z -1.0000 I -0.0028 J -0.0873
G01 X 28.5081 Y 27.5305 Z -1.0000
G03 X 28.5715 Y 27.5257 Z -1.0000 I 0.0634 J 0.4132
G01 X 28.6407 Y 27.5315 Z -1.0000
G01 X 28.6407 Y 27.5315 Z -1.0000
G00 Z 5.0000

(End cutting path id: path183460)


(Start cutting path id: path183460)
(Change tool to Default tool)

G00 Z 5.0000
G00 X 28.6208 Y 27.3004

G01 Z -1.0000 F 100.0000(Penetrate)
G01 X 28.6201 Y 27.3100 Z -1.0000 F 3500.0000
G01 X 28.6270 Y 27.3145 Z -1.0000
G01 X 28.6377 Y 27.3102 Z -1.0000
G01 X 28.6419 Y 27.3004 Z -1.0000
G01 X 28.6395 Y 27.2887 Z -1.0000
G01 X 28.6357 Y 27.2863 Z -1.0000
G01 X 28.6307 Y 27.2883 Z -1.0000
G02 X 28.6208 Y 27.3004 Z -1.0000 I 0.0403 J 0.0429
G01 X 28.6208 Y 27.3004 Z -1.0000
G00 Z 5.0000

(End cutting path id: path183460)


(Start cutting path id: path183460)
(Change tool to Default tool)

G00 Z 5.0000
G00 X 28.7264 Y 27.2158

G01 Z -1.0000 F 100.0000(Penetrate)
G03 X 28.6829 Y 27.2287 Z -1.0000 I -0.0435 J -0.0673 F 3500.0000
G01 X 28.6701 Y 27.2158 Z -1.0000
G01 X 28.6759 Y 27.2076 Z -1.0000
G03 X 28.7088 Y 27.2020 Z -1.0000 I 0.0324 J 0.0901
G01 X 28.7268 Y 27.2082 Z -1.0000
G01 X 28.7264 Y 27.2158 Z -1.0000
G01 X 28.7264 Y 27.2158 Z -1.0000
G00 Z 5.0000

(End cutting path id: path183460)


(Start cutting path id: path183460)
(Change tool to Default tool)

G00 Z 5.0000
G00 X 28.7863 Y 27.2925

G01 Z -1.0000 F 100.0000(Penetrate)
G03 X 28.8243 Y 27.3146 Z -1.0000 I -0.0141 J 0.0680 F 3500.0000
G01 X 28.8180 Y 27.3285 Z -1.0000
G01 X 28.8040 Y 27.3343 Z -1.0000
G01 X 28.8004 Y 27.3461 Z -1.0000
G01 X 28.7947 Y 27.3567 Z -1.0000
G03 X 28.7476 Y 27.3677 Z -1.0000 I -0.0580 J -0.1414
G02 X 28.6918 Y 27.3741 Z -1.0000 I 0.0464 J 0.6537
G02 X 28.6701 Y 27.3800 Z -1.0000 I 0.0161 J 0.1019
G03 X 28.5477 Y 27.4020 Z -1.0000 I -0.1164 J -0.2965
G03 X 28.4882 Y 27.3766 Z -1.0000 I 0.0016 J -0.0864
G01 X 28.4920 Y 27.3639 Z -1.0000
G03 X 28.6060 Y 27.3539 Z -1.0000 I 0.1054 J 0.5475
G02 X 28.7095 Y 27.3480 Z -1.0000 I 0.0107 J -0.7201
G02 X 28.7506 Y 27.3350 Z -1.0000 I -0.0159 J -0.1220
G01 X 28.7511 Y 27.3241 Z -1.0000
G02 X 28.7194 Y 27.3147 Z -1.0000 I -0.0316 J 0.0484
G02 X 28.6712 Y 27.3214 Z -1.0000 I 0.0003 J 0.1788
G01 X 28.6701 Y 27.3286 Z -1.0000
G01 X 28.6684 Y 27.3349 Z -1.0000
G03 X 28.5580 Y 27.3349 Z -1.0000 I -0.0550 J -0.9865
G03 X 28.4899 Y 27.3227 Z -1.0000 I 0.0162 J -0.2874
G01 X 28.4911 Y 27.3144 Z -1.0000
G02 X 28.5672 Y 27.3071 Z -1.0000 I -0.0000 J -0.3994
G01 X 28.5880 Y 27.2956 Z -1.0000
G03 X 28.6287 Y 27.2775 Z -1.0000 I 0.0416 J 0.0389
G03 X 28.7863 Y 27.2925 Z -1.0000 I 0.0112 J 0.7184
G01 X 28.7863 Y 27.2925 Z -1.0000
G00 Z 5.0000

(End cutting path id: path183460)


(Start cutting path id: path183460)
(Change tool to Default tool)

G00 Z 5.0000
G00 X 29.0398 Y 27.2638

G01 Z -1.0000 F 100.0000(Penetrate)
G01 X 29.0427 Y 27.2695 Z -1.0000 F 3500.0000
G02 X 29.0986 Y 27.2674 Z -1.0000 I 0.0175 J -0.2779
G03 X 29.1641 Y 27.2652 Z -1.0000 I 0.0431 J 0.3126
G03 X 29.1953 Y 27.2742 Z -1.0000 I -0.0055 J 0.0777
G02 X 29.2214 Y 27.2807 Z -1.0000 I 0.0259 J -0.0484
G01 X 29.2305 Y 27.2741 Z -1.0000
G01 X 29.2619 Y 27.2502 Z -1.0000
G03 X 29.3661 Y 27.2665 Z -1.0000 I 0.0141 J 0.2515
G01 X 29.3807 Y 27.2776 Z -1.0000
G01 X 29.3810 Y 27.2868 Z -1.0000
G03 X 29.1971 Y 27.3875 Z -1.0000 I -0.1809 J -0.1120
G03 X 28.8236 Y 27.2782 Z -1.0000 I 0.0102 J -0.7276
G01 X 28.8260 Y 27.2607 Z -1.0000
G03 X 28.9293 Y 27.2475 Z -1.0000 I 0.0937 J 0.3235
G03 X 29.0366 Y 27.2569 Z -1.0000 I -0.0264 J 0.9236
G01 X 29.0398 Y 27.2637 Z -1.0000
G01 X 29.0398 Y 27.2638 Z -1.0000
G00 Z 5.0000

(End cutting path id: path183460)


(Start cutting path id: path183460)
(Change tool to Default tool)

G00 Z 5.0000
G00 X 28.9976 Y 27.1406

G01 Z -1.0000 F 100.0000(Penetrate)
G01 X 28.9800 Y 27.1440 Z -1.0000 F 3500.0000
G01 X 28.9624 Y 27.1406 Z -1.0000
G01 X 28.9800 Y 27.1335 Z -1.0000
G01 X 28.9976 Y 27.1406 Z -1.0000
G01 X 28.9976 Y 27.1406 Z -1.0000
G00 Z 5.0000

(End cutting path id: path183460)


(Start cutting path id: path183460)
(Change tool to Default tool)

G00 Z 5.0000
G00 X 29.0299 Y 27.5389

G01 Z -1.0000 F 100.0000(Penetrate)
G03 X 28.9796 Y 27.5672 Z -1.0000 I -0.0507 J -0.0314 F 3500.0000
G01 X 28.9518 Y 27.5396 Z -1.0000
G01 X 28.9577 Y 27.5327 Z -1.0000
G03 X 28.9870 Y 27.5341 Z -1.0000 I 0.0113 J 0.0729
G02 X 29.0153 Y 27.5340 Z -1.0000 I 0.0139 J -0.0552
G01 X 29.0222 Y 27.5250 Z -1.0000
G01 X 29.0258 Y 27.5156 Z -1.0000
G01 X 29.0307 Y 27.5155 Z -1.0000
G01 X 29.0343 Y 27.5244 Z -1.0000
G01 X 29.0299 Y 27.5390 Z -1.0000
G01 X 29.0299 Y 27.5389 Z -1.0000
G00 Z 5.0000

(End cutting path id: path183460)


(Start cutting path id: path183460)
(Change tool to Default tool)

G00 Z 5.0000
G00 X 28.3039 Y 27.4395

G01 Z -1.0000 F 100.0000(Penetrate)
G01 X 28.3091 Y 27.4455 Z -1.0000 F 3500.0000
G02 X 28.4588 Y 27.4598 Z -1.0000 I 0.2813 J -2.1539
G02 X 28.5745 Y 27.4555 Z -1.0000 I 0.0358 J -0.5944
G01 X 28.5786 Y 27.4435 Z -1.0000
G02 X 28.3833 Y 27.3611 Z -1.0000 I -0.1990 J 0.1990
G02 X 28.3039 Y 27.4395 Z -1.0000 I -0.0011 J 0.0784
G01 X 28.3039 Y 27.4395 Z -1.0000
G00 Z 5.0000

(End cutting path id: path183460)


(Start cutting path id: path183460)
(Change tool to Default tool)

G00 Z 5.0000
G00 X 28.2194 Y 27.4888

G01 Z -1.0000 F 100.0000(Penetrate)
G01 X 28.2219 Y 27.4921 Z -1.0000 F 3500.0000
G02 X 28.2616 Y 27.5005 Z -1.0000 I 0.0894 J -0.3261
G02 X 28.2988 Y 27.5008 Z -1.0000 I 0.0198 J -0.1355
G01 X 28.3039 Y 27.4951 Z -1.0000
G01 X 28.2988 Y 27.4885 Z -1.0000
G02 X 28.2616 Y 27.4834 Z -1.0000 I -0.0372 J 0.1349
G02 X 28.2219 Y 27.4859 Z -1.0000 I 0.0000 J 0.3161
G01 X 28.2194 Y 27.4888 Z -1.0000
G01 X 28.2194 Y 27.4888 Z -1.0000
G00 Z 5.0000

(End cutting path id: path183460)


(Start cutting path id: path183460)
(Change tool to Default tool)

G00 Z 5.0000
G00 X 28.1630 Y 27.4411

G01 Z -1.0000 F 100.0000(Penetrate)
G01 X 28.1691 Y 27.4490 Z -1.0000 F 3500.0000
G02 X 28.2185 Y 27.4552 Z -1.0000 I 0.0494 J -0.1935
G02 X 28.2709 Y 27.4496 Z -1.0000 I 0.0000 J -0.2453
G01 X 28.2827 Y 27.4411 Z -1.0000
G01 X 28.2797 Y 27.4336 Z -1.0000
G02 X 28.2272 Y 27.4270 Z -1.0000 I -0.0525 J 0.2065
G02 X 28.1693 Y 27.4333 Z -1.0000 I -0.0000 J 0.2714
G01 X 28.1630 Y 27.4411 Z -1.0000
G01 X 28.1630 Y 27.4411 Z -1.0000
G00 Z 5.0000

(End cutting path id: path183460)


(Start cutting path id: path183460)
(Change tool to Default tool)

G00 Z 5.0000
G00 X 28.1913 Y 27.2545

G01 Z -1.0000 F 100.0000(Penetrate)
G01 X 28.1961 Y 27.2605 Z -1.0000 F 3500.0000
G02 X 28.2499 Y 27.2674 Z -1.0000 I 0.0656 J -0.2998
G02 X 28.2876 Y 27.2631 Z -1.0000 I 0.0049 J -0.1271
G01 X 28.2886 Y 27.2570 Z -1.0000
G02 X 28.2123 Y 27.2338 Z -1.0000 I -0.0800 J 0.1264
G01 X 28.1913 Y 27.2545 Z -1.0000
G01 X 28.1913 Y 27.2545 Z -1.0000
G00 Z 5.0000

(End cutting path id: path183460)


(Start cutting path id: path183460)
(Change tool to Default tool)

G00 Z 5.0000
G00 X 28.3567 Y 27.1829

G01 Z -1.0000 F 100.0000(Penetrate)
G01 X 28.3743 Y 27.1863 Z -1.0000 F 3500.0000
G01 X 28.3919 Y 27.1829 Z -1.0000
G01 X 28.3743 Y 27.1758 Z -1.0000
G01 X 28.3567 Y 27.1829 Z -1.0000
G01 X 28.3567 Y 27.1829 Z -1.0000
G00 Z 5.0000

(End cutting path id: path183460)


(Start cutting path id: path183460)
(Change tool to Default tool)

G00 Z 5.0000
G00 X 27.8743 Y 27.4270

G01 Z -1.0000 F 100.0000(Penetrate)
G01 X 27.8766 Y 27.4350 Z -1.0000 F 3500.0000
G02 X 27.9051 Y 27.4413 Z -1.0000 I 0.0288 J -0.0622
G03 X 27.9446 Y 27.4429 Z -1.0000 I -0.0027 J 0.5642
G03 X 27.9729 Y 27.4463 Z -1.0000 I -0.0233 J 0.3113
G01 X 27.9834 Y 27.4451 Z -1.0000
G01 X 27.9698 Y 27.4362 Z -1.0000
G01 X 27.9658 Y 27.4260 Z -1.0000
G01 X 27.9332 Y 27.3937 Z -1.0000
G02 X 27.8743 Y 27.4270 Z -1.0000 I 0.0008 J 0.0703
G01 X 27.8743 Y 27.4270 Z -1.0000
G00 Z 5.0000

(End cutting path id: path183460)


(Start cutting path id: path183460)
(Change tool to Default tool)

G00 Z 5.0000
G00 X 27.8461 Y 27.3659

G01 Z -1.0000 F 100.0000(Penetrate)
G03 X 27.7756 Y 27.3806 Z -1.0000 I -0.1577 J -0.5830 F 3500.0000
G03 X 27.7526 Y 27.3796 Z -1.0000 I -0.0089 J -0.0612
G02 X 27.7302 Y 27.3788 Z -1.0000 I -0.0132 J 0.0559
G02 X 27.7103 Y 27.3863 Z -1.0000 I 0.0085 J 0.0526
G01 X 27.7116 Y 27.3925 Z -1.0000
G02 X 27.7839 Y 27.3986 Z -1.0000 I 0.0734 J -0.4361
G02 X 27.8751 Y 27.3952 Z -1.0000 I 0.0027 J -1.1462
G01 X 27.8847 Y 27.3908 Z -1.0000
G03 X 28.0261 Y 27.3308 Z -1.0000 I 0.1450 J 0.1450
G03 X 28.1850 Y 27.3858 Z -1.0000 I 0.0043 J 0.2449
G02 X 28.2688 Y 27.4089 Z -1.0000 I 0.0680 J -0.0837
G01 X 28.3039 Y 27.3683 Z -1.0000
G01 X 28.2981 Y 27.3613 Z -1.0000
G02 X 28.2440 Y 27.3566 Z -1.0000 I -0.0489 J 0.2507
G03 X 28.1841 Y 27.3566 Z -1.0000 I -0.0291 J -1.4332
G03 X 28.0503 Y 27.3524 Z -1.0000 I 0.1493 J -6.9487
G02 X 27.9173 Y 27.3541 Z -1.0000 I -0.0507 J 1.2317
G02 X 27.8461 Y 27.3660 Z -1.0000 I 0.0245 J 0.3662
G01 X 27.8461 Y 27.3659 Z -1.0000
G00 Z 5.0000

(End cutting path id: path183460)


(Start cutting path id: path183460)
(Change tool to Default tool)

G00 Z 5.0000
G00 X 27.7758 Y 27.4973

G01 Z -1.0000 F 100.0000(Penetrate)
G01 X 27.7775 Y 27.5027 Z -1.0000 F 3500.0000
G01 X 27.7890 Y 27.5028 Z -1.0000
G01 X 27.8021 Y 27.4903 Z -1.0000
G01 X 27.7976 Y 27.4834 Z -1.0000
G01 X 27.7862 Y 27.4867 Z -1.0000
G01 X 27.7758 Y 27.4973 Z -1.0000
G01 X 27.7758 Y 27.4973 Z -1.0000
G00 Z 5.0000

(End cutting path id: path183460)


(Start cutting path id: path183460)
(Change tool to Default tool)

G00 Z 5.0000
G00 X 27.7264 Y 27.5428

G01 Z -1.0000 F 100.0000(Penetrate)
G03 X 27.5221 Y 27.5523 Z -1.0000 I -1.3661 J -27.4031 F 3500.0000
G03 X 27.4834 Y 27.5532 Z -1.0000 I -0.0441 J -1.0403
G02 X 27.4505 Y 27.5592 Z -1.0000 I 0.0005 J 0.0952
G01 X 27.4447 Y 27.5677 Z -1.0000
G01 X 27.4513 Y 27.5753 Z -1.0000
G02 X 27.5441 Y 27.5820 Z -1.0000 I 0.0928 J -0.6424
G02 X 27.6334 Y 27.5764 Z -1.0000 I -0.0000 J -0.7176
G01 X 27.6363 Y 27.5704 Z -1.0000
G01 X 27.6710 Y 27.5086 Z -1.0000
G03 X 28.2619 Y 27.5750 Z -1.0000 I -0.0208 J 2.8513
G01 X 28.2844 Y 27.5717 Z -1.0000
G01 X 28.2858 Y 27.5619 Z -1.0000
G02 X 28.2328 Y 27.5388 Z -1.0000 I -0.0557 J 0.0557
G02 X 27.7264 Y 27.5428 Z -1.0000 I -0.2062 J 6.0471
G01 X 27.7264 Y 27.5428 Z -1.0000
G00 Z 5.0000

(End cutting path id: path183460)


(Start cutting path id: path183460)
(Change tool to Default tool)

G00 Z 5.0000
G00 X 27.6524 Y 27.6058

G01 Z -1.0000 F 100.0000(Penetrate)
G01 X 27.6508 Y 27.6205 Z -1.0000 F 3500.0000
G02 X 27.7051 Y 27.6331 Z -1.0000 I 0.0517 J -0.0995
G02 X 27.7773 Y 27.6240 Z -1.0000 I -0.0083 J -0.3553
G01 X 27.7891 Y 27.6137 Z -1.0000
G01 X 27.7761 Y 27.5935 Z -1.0000
G02 X 27.6524 Y 27.6058 Z -1.0000 I -0.0230 J 0.3980
G01 X 27.6524 Y 27.6058 Z -1.0000
G00 Z 5.0000

(End cutting path id: path183460)


(Start cutting path id: path183460)
(Change tool to Default tool)

G00 Z 5.0000
G00 X 27.5645 Y 27.6244

G01 Z -1.0000 F 100.0000(Penetrate)
G01 X 27.5749 Y 27.6323 Z -1.0000 F 3500.0000
G01 X 27.5865 Y 27.6306 Z -1.0000
G01 X 27.5903 Y 27.6184 Z -1.0000
G01 X 27.5777 Y 27.6101 Z -1.0000
G01 X 27.5654 Y 27.6155 Z -1.0000
G01 X 27.5646 Y 27.6244 Z -1.0000
G01 X 27.5645 Y 27.6244 Z -1.0000
G00 Z 5.0000

(End cutting path id: path183460)


(Start cutting path id: path183460)
(Change tool to Default tool)

G00 Z 5.0000
G00 X 27.4789 Y 27.6729

G01 Z -1.0000 F 100.0000(Penetrate)
G01 X 27.4796 Y 27.6809 Z -1.0000 F 3500.0000
G02 X 27.5628 Y 27.6905 Z -1.0000 I 0.0929 J -0.4426
G02 X 27.6809 Y 27.6884 Z -1.0000 I 0.0322 J -1.5277
G01 X 27.6895 Y 27.6833 Z -1.0000
G01 X 27.6878 Y 27.6774 Z -1.0000
G02 X 27.6652 Y 27.6711 Z -1.0000 I -0.0275 J 0.0549
G03 X 27.6348 Y 27.6686 Z -1.0000 I 0.2196 J -2.8192
G03 X 27.5752 Y 27.6632 Z -1.0000 I 1.9318 J -21.7714
G02 X 27.5164 Y 27.6634 Z -1.0000 I -0.0282 J 0.3081
G02 X 27.4789 Y 27.6728 Z -1.0000 I 0.0132 J 0.1330
G01 X 27.4789 Y 27.6729 Z -1.0000
G00 Z 5.0000

(End cutting path id: path183460)


(Start cutting path id: path183460)
(Change tool to Default tool)

G00 Z 5.0000
G00 X 27.3883 Y 27.6242

G01 Z -1.0000 F 100.0000(Penetrate)
G01 X 27.3894 Y 27.6313 Z -1.0000 F 3500.0000
G02 X 27.4376 Y 27.6379 Z -1.0000 I 0.0482 J -0.1741
G02 X 27.5065 Y 27.6328 Z -1.0000 I 0.0000 J -0.4698
G02 X 27.5292 Y 27.6242 Z -1.0000 I -0.0083 J -0.0563
G01 X 27.5281 Y 27.6171 Z -1.0000
G02 X 27.4799 Y 27.6106 Z -1.0000 I -0.0482 J 0.1741
G02 X 27.4110 Y 27.6156 Z -1.0000 I 0.0000 J 0.4699
G02 X 27.3883 Y 27.6242 Z -1.0000 I 0.0083 J 0.0563
G01 X 27.3883 Y 27.6242 Z -1.0000
G00 Z 5.0000

(End cutting path id: path183460)


(Start cutting path id: path183460)
(Change tool to Default tool)

G00 Z 5.0000
G00 X 27.3375 Y 27.7245

G01 Z -1.0000 F 100.0000(Penetrate)
G01 X 27.3377 Y 27.7302 Z -1.0000 F 3500.0000
G02 X 27.3742 Y 27.7361 Z -1.0000 I 0.0387 J -0.1230
G03 X 27.4375 Y 27.7386 Z -1.0000 I -0.0253 J 1.4698
G03 X 27.5362 Y 27.7459 Z -1.0000 I -0.2132 J 3.5314
G02 X 27.6182 Y 27.7468 Z -1.0000 I 0.0468 J -0.5308
G01 X 27.6207 Y 27.7403 Z -1.0000
G02 X 27.5209 Y 27.6951 Z -1.0000 I -0.1083 J 0.1062
G02 X 27.3375 Y 27.7245 Z -1.0000 I -0.0242 J 0.4351
G01 X 27.3375 Y 27.7245 Z -1.0000
G00 Z 5.0000

(End cutting path id: path183460)


(Start cutting path id: path183460)
(Change tool to Default tool)

G00 Z 5.0000
G00 X 27.2756 Y 27.6665

G01 Z -1.0000 F 100.0000(Penetrate)
G01 X 27.2768 Y 27.6734 Z -1.0000 F 3500.0000
G02 X 27.3320 Y 27.6793 Z -1.0000 I 0.0527 J -0.2309
G02 X 27.3808 Y 27.6728 Z -1.0000 I -0.0020 J -0.2011
G01 X 27.3813 Y 27.6665 Z -1.0000
G02 X 27.3190 Y 27.6537 Z -1.0000 I -0.0622 J 0.1448
G02 X 27.2756 Y 27.6665 Z -1.0000 I -0.0000 J 0.0800
G01 X 27.2756 Y 27.6665 Z -1.0000
G00 Z 5.0000

(End cutting path id: path183460)


(Start cutting path id: path183460)
(Change tool to Default tool)

G00 Z 5.0000
G00 X 27.2292 Y 27.5553

G01 Z -1.0000 F 100.0000(Penetrate)
G01 X 27.2402 Y 27.5730 Z -1.0000 F 3500.0000
G01 X 27.2239 Y 27.5852 Z -1.0000
G02 X 27.1722 Y 27.5864 Z -1.0000 I -0.0215 J 0.1905
G01 X 27.1687 Y 27.5940 Z -1.0000
G02 X 27.2784 Y 27.6547 Z -1.0000 I 0.1089 J -0.0673
G02 X 27.3284 Y 27.5930 Z -1.0000 I -0.0003 J -0.0514
G01 X 27.3336 Y 27.5819 Z -1.0000
G03 X 27.3742 Y 27.5680 Z -1.0000 I 0.0604 J 0.1104
G01 X 27.3909 Y 27.5582 Z -1.0000
G01 X 27.3883 Y 27.5502 Z -1.0000
G02 X 27.3526 Y 27.5438 Z -1.0000 I -0.0490 J 0.1725
G02 X 27.2686 Y 27.5413 Z -1.0000 I -0.0716 J 0.9635
G02 X 27.2289 Y 27.5484 Z -1.0000 I 0.0016 J 0.1223
G01 X 27.2291 Y 27.5554 Z -1.0000
G01 X 27.2292 Y 27.5553 Z -1.0000
G00 Z 5.0000

(End cutting path id: path183460)


(Start cutting path id: path183460)
(Change tool to Default tool)

G00 Z 5.0000
G00 X 27.2439 Y 27.5068

G01 Z -1.0000 F 100.0000(Penetrate)
G01 X 27.2615 Y 27.5102 Z -1.0000 F 3500.0000
G01 X 27.2791 Y 27.5068 Z -1.0000
G01 X 27.2615 Y 27.4997 Z -1.0000
G01 X 27.2439 Y 27.5068 Z -1.0000
G01 X 27.2439 Y 27.5068 Z -1.0000
G00 Z 5.0000

(End cutting path id: path183460)


(Start cutting path id: path183460)
(Change tool to Default tool)

G00 Z 5.0000
G00 X 27.2897 Y 27.4276

G01 Z -1.0000 F 100.0000(Penetrate)
G02 X 27.2603 Y 27.4381 Z -1.0000 I 0.0063 J 0.0642 F 3500.0000
G01 X 27.2618 Y 27.4461 Z -1.0000
G02 X 27.3118 Y 27.4525 Z -1.0000 I 0.0599 J -0.2721
G02 X 27.4731 Y 27.4535 Z -1.0000 I 0.0989 J -2.7754
G03 X 27.7636 Y 27.4630 Z -1.0000 I 0.0593 J 2.6554
G03 X 27.8179 Y 27.4836 Z -1.0000 I -0.0093 J 0.1060
G02 X 28.0175 Y 27.5563 Z -1.0000 I 0.2210 J -0.2964
G02 X 28.0785 Y 27.4988 Z -1.0000 I 0.0033 J -0.0576
G01 X 28.0718 Y 27.4900 Z -1.0000
G02 X 28.0186 Y 27.4819 Z -1.0000 I -0.0586 J 0.2076
G03 X 27.8274 Y 27.4595 Z -1.0000 I 0.0265 J -1.0520
G01 X 27.8189 Y 27.4396 Z -1.0000
G01 X 27.8019 Y 27.4084 Z -1.0000
G02 X 27.2897 Y 27.4276 Z -1.0000 I -0.0965 J 4.2646
G01 X 27.2897 Y 27.4276 Z -1.0000
G00 Z 5.0000

(End cutting path id: path183460)


(Start cutting path id: path183460)
(Change tool to Default tool)

G00 Z 5.0000
G00 X 27.1559 Y 27.4411

G01 Z -1.0000 F 100.0000(Penetrate)
G01 X 27.1569 Y 27.4498 Z -1.0000 F 3500.0000
G01 X 27.1700 Y 27.4552 Z -1.0000
G01 X 27.1830 Y 27.4498 Z -1.0000
G01 X 27.1841 Y 27.4411 Z -1.0000
G02 X 27.1744 Y 27.4289 Z -1.0000 I -0.0593 J 0.0370
G01 X 27.1700 Y 27.4270 Z -1.0000
G01 X 27.1656 Y 27.4289 Z -1.0000
G02 X 27.1559 Y 27.4411 Z -1.0000 I 0.0473 J 0.0473
G01 X 27.1559 Y 27.4411 Z -1.0000
G00 Z 5.0000

(End cutting path id: path183460)


(Start cutting path id: path183460)
(Change tool to Default tool)

G00 Z 5.0000
G00 X 27.0432 Y 27.5958

G01 Z -1.0000 F 100.0000(Penetrate)
G02 X 27.1252 Y 27.6162 Z -1.0000 I 0.1001 J -0.2274 F 3500.0000
G01 X 27.1315 Y 27.6023 Z -1.0000
G01 X 27.1222 Y 27.5972 Z -1.0000
G02 X 27.0693 Y 27.5889 Z -1.0000 I -0.1014 J 0.4733
G02 X 27.0436 Y 27.5910 Z -1.0000 I -0.0072 J 0.0722
G01 X 27.0432 Y 27.5958 Z -1.0000
G01 X 27.0432 Y 27.5958 Z -1.0000
G00 Z 5.0000

(End cutting path id: path183460)


(Start cutting path id: path183460)
(Change tool to Default tool)

G00 Z 5.0000
G00 X 27.0100 Y 27.6505

G01 Z -1.0000 F 100.0000(Penetrate)
G01 X 27.0102 Y 27.6585 Z -1.0000 F 3500.0000
G02 X 27.0452 Y 27.6699 Z -1.0000 I 0.0473 J -0.0855
G02 X 27.0978 Y 27.6712 Z -1.0000 I 0.0324 J -0.2554
G01 X 27.1129 Y 27.6646 Z -1.0000
G01 X 27.1141 Y 27.6570 Z -1.0000
G01 X 27.1059 Y 27.6522 Z -1.0000
G03 X 27.0857 Y 27.6506 Z -1.0000 I 0.0014 J -0.1456
G03 X 27.0573 Y 27.6450 Z -1.0000 I 0.0469 J -0.3123
G02 X 27.0301 Y 27.6432 Z -1.0000 I -0.0185 J 0.0735
G01 X 27.0100 Y 27.6505 Z -1.0000
G01 X 27.0100 Y 27.6505 Z -1.0000
G00 Z 5.0000

(End cutting path id: path183460)


(Start cutting path id: path183460)
(Change tool to Default tool)

G00 Z 5.0000
G00 X 26.9728 Y 27.6102

G01 Z -1.0000 F 100.0000(Penetrate)
G01 X 26.9718 Y 27.6199 Z -1.0000 F 3500.0000
G01 X 26.9782 Y 27.6243 Z -1.0000
G01 X 26.9903 Y 27.6209 Z -1.0000
G01 X 27.0010 Y 27.6102 Z -1.0000
G01 X 27.0019 Y 27.6005 Z -1.0000
G01 X 26.9956 Y 27.5961 Z -1.0000
G01 X 26.9835 Y 27.5995 Z -1.0000
G01 X 26.9728 Y 27.6102 Z -1.0000
G01 X 26.9728 Y 27.6102 Z -1.0000
G00 Z 5.0000

(End cutting path id: path183460)


(Start cutting path id: path183460)
(Change tool to Default tool)

G00 Z 5.0000
G00 X 26.9024 Y 27.6242

G01 Z -1.0000 F 100.0000(Penetrate)
G01 X 26.8929 Y 27.6328 Z -1.0000 F 3500.0000
G01 X 26.8954 Y 27.6371 Z -1.0000
G02 X 26.9156 Y 27.6344 Z -1.0000 I 0.0022 J -0.0613
G02 X 26.9376 Y 27.6242 Z -1.0000 I -0.0260 J -0.0848
G01 X 26.9356 Y 27.6174 Z -1.0000
G02 X 26.9024 Y 27.6242 Z -1.0000 I 0.0000 J 0.0841
G01 X 26.9024 Y 27.6242 Z -1.0000
G00 Z 5.0000

(End cutting path id: path183460)


(Start cutting path id: path183460)
(Change tool to Default tool)

G00 Z 5.0000
G00 X 26.8892 Y 27.5665

G01 Z -1.0000 F 100.0000(Penetrate)
G01 X 26.8891 Y 27.5765 Z -1.0000 F 3500.0000
G01 X 26.9011 Y 27.5866 Z -1.0000
G01 X 26.9266 Y 27.5846 Z -1.0000
G01 X 26.9376 Y 27.5656 Z -1.0000
G01 X 26.9204 Y 27.5487 Z -1.0000
G01 X 26.8892 Y 27.5665 Z -1.0000
G01 X 26.8892 Y 27.5665 Z -1.0000
G00 Z 5.0000

(End cutting path id: path183460)


(Start cutting path id: path183460)
(Change tool to Default tool)

G00 Z 5.0000
G00 X 26.7582 Y 27.5495

G01 Z -1.0000 F 100.0000(Penetrate)
G02 X 26.7829 Y 27.5525 Z -1.0000 I 0.0233 J -0.0887 F 3500.0000
G01 X 26.8005 Y 27.5490 Z -1.0000
G01 X 26.7756 Y 27.5425 Z -1.0000
G01 X 26.7582 Y 27.5495 Z -1.0000
G01 X 26.7582 Y 27.5495 Z -1.0000
G00 Z 5.0000

(End cutting path id: path183460)


(Start cutting path id: path183460)
(Change tool to Default tool)

G00 Z 5.0000
G00 X 26.6364 Y 27.5964

G01 Z -1.0000 F 100.0000(Penetrate)
G01 X 26.6529 Y 27.6034 Z -1.0000 F 3500.0000
G02 X 26.7062 Y 27.5978 Z -1.0000 I 0.0044 J -0.2137
G01 X 26.7083 Y 27.5904 Z -1.0000
G01 X 26.6918 Y 27.5834 Z -1.0000
G02 X 26.6385 Y 27.5890 Z -1.0000 I -0.0043 J 0.2140
G01 X 26.6364 Y 27.5964 Z -1.0000
G01 X 26.6364 Y 27.5964 Z -1.0000
G00 Z 5.0000

(End cutting path id: path183460)


(Start cutting path id: path183460)
(Change tool to Default tool)

G00 Z 5.0000
G00 X 26.6277 Y 27.6504

G01 Z -1.0000 F 100.0000(Penetrate)
G01 X 26.6333 Y 27.6610 Z -1.0000 F 3500.0000
G01 X 26.6523 Y 27.6673 Z -1.0000
G03 X 26.6770 Y 27.6684 Z -1.0000 I -0.0437 J 1.2874
G03 X 26.7756 Y 27.6739 Z -1.0000 I -0.8907 J 16.7720
G01 X 26.7789 Y 27.6620 Z -1.0000
G02 X 26.7190 Y 27.6437 Z -1.0000 I -0.0765 J 0.1435
G02 X 26.6350 Y 27.6425 Z -1.0000 I -0.0488 J 0.4762
G01 X 26.6277 Y 27.6504 Z -1.0000
G01 X 26.6277 Y 27.6504 Z -1.0000
G00 Z 5.0000

(End cutting path id: path183460)


(Start cutting path id: path183460)
(Change tool to Default tool)

G00 Z 5.0000
G00 X 26.7201 Y 27.7215

G01 Z -1.0000 F 100.0000(Penetrate)
G01 X 26.7229 Y 27.7288 Z -1.0000 F 3500.0000
G02 X 26.7768 Y 27.7393 Z -1.0000 I 0.0734 J -0.2345
G02 X 26.8113 Y 27.7301 Z -1.0000 I 0.0042 J -0.0537
G01 X 26.8088 Y 27.7176 Z -1.0000
G02 X 26.7363 Y 27.7120 Z -1.0000 I -0.0592 J 0.2963
G01 X 26.7201 Y 27.7215 Z -1.0000
G01 X 26.7201 Y 27.7215 Z -1.0000
G00 Z 5.0000

(End cutting path id: path183460)


(Start cutting path id: path183460)
(Change tool to Default tool)

G00 Z 5.0000
G00 X 26.6805 Y 27.7745

G01 Z -1.0000 F 100.0000(Penetrate)
G01 X 26.6981 Y 27.7779 Z -1.0000 F 3500.0000
G01 X 26.7157 Y 27.7745 Z -1.0000
G01 X 26.6981 Y 27.7674 Z -1.0000
G01 X 26.6805 Y 27.7745 Z -1.0000
G01 X 26.6805 Y 27.7745 Z -1.0000
G00 Z 5.0000

(End cutting path id: path183460)


(Start cutting path id: path183460)
(Change tool to Default tool)

G00 Z 5.0000
G00 X 26.7122 Y 27.8495

G01 Z -1.0000 F 100.0000(Penetrate)
G02 X 26.7345 Y 27.8593 Z -1.0000 I 0.0408 J -0.0624 F 3500.0000
G02 X 26.7674 Y 27.8635 Z -1.0000 I 0.0337 J -0.1319
G01 X 26.7695 Y 27.8568 Z -1.0000
G02 X 26.7404 Y 27.8447 Z -1.0000 I -0.0426 J 0.0609
G02 X 26.7132 Y 27.8445 Z -1.0000 I -0.0140 J 0.0761
G01 X 26.7122 Y 27.8495 Z -1.0000
G01 X 26.7122 Y 27.8495 Z -1.0000
G00 Z 5.0000

(End cutting path id: path183460)


(Start cutting path id: path183460)
(Change tool to Default tool)

G00 Z 5.0000
G00 X 26.7236 Y 27.9157

G01 Z -1.0000 F 100.0000(Penetrate)
G01 X 26.7412 Y 27.9187 Z -1.0000 F 3500.0000
G01 X 26.7506 Y 27.9146 Z -1.0000
G01 X 26.7497 Y 27.9102 Z -1.0000
G01 X 26.7322 Y 27.9072 Z -1.0000
G01 X 26.7228 Y 27.9113 Z -1.0000
G01 X 26.7237 Y 27.9157 Z -1.0000
G01 X 26.7236 Y 27.9157 Z -1.0000
G00 Z 5.0000

(End cutting path id: path183460)


(Start cutting path id: path183460)
(Change tool to Default tool)

G00 Z 5.0000
G00 X 26.7864 Y 27.7890

G01 Z -1.0000 F 100.0000(Penetrate)
G02 X 26.8111 Y 27.7920 Z -1.0000 I 0.0233 J -0.0887 F 3500.0000
G01 X 26.8287 Y 27.7885 Z -1.0000
G01 X 26.8038 Y 27.7820 Z -1.0000
G01 X 26.7864 Y 27.7890 Z -1.0000
G01 X 26.7864 Y 27.7890 Z -1.0000
G00 Z 5.0000

(End cutting path id: path183460)


(Start cutting path id: path183460)
(Change tool to Default tool)

G00 Z 5.0000
G00 X 26.8918 Y 27.7322

G01 Z -1.0000 F 100.0000(Penetrate)
G01 X 26.9094 Y 27.7357 Z -1.0000 F 3500.0000
G01 X 26.9270 Y 27.7322 Z -1.0000
G01 X 26.9094 Y 27.7251 Z -1.0000
G01 X 26.8918 Y 27.7322 Z -1.0000
G01 X 26.8918 Y 27.7322 Z -1.0000
G00 Z 5.0000

(End cutting path id: path183460)


(Start cutting path id: path183460)
(Change tool to Default tool)

G00 Z 5.0000
G00 X 26.9376 Y 27.7783

G01 Z -1.0000 F 100.0000(Penetrate)
G01 X 26.9457 Y 27.7882 Z -1.0000 F 3500.0000
G02 X 27.0560 Y 27.8016 Z -1.0000 I 0.1470 J -0.7461
G02 X 27.1521 Y 27.8015 Z -1.0000 I 0.0465 J -0.9569
G01 X 27.1724 Y 27.7956 Z -1.0000
G01 X 27.1714 Y 27.7900 Z -1.0000
G02 X 27.0939 Y 27.7834 Z -1.0000 I -0.0862 J 0.5533
G03 X 26.9968 Y 27.7785 Z -1.0000 I 0.0215 J -1.3977
G03 X 26.9669 Y 27.7726 Z -1.0000 I 0.0117 J -0.1371
G01 X 26.9434 Y 27.7712 Z -1.0000
G01 X 26.9376 Y 27.7783 Z -1.0000
G01 X 26.9376 Y 27.7783 Z -1.0000
G00 Z 5.0000

(End cutting path id: path183460)


(Start cutting path id: path183460)
(Change tool to Default tool)

G00 Z 5.0000
G00 X 26.9273 Y 27.8454

G01 Z -1.0000 F 100.0000(Penetrate)
G02 X 26.9520 Y 27.8484 Z -1.0000 I 0.0233 J -0.0887 F 3500.0000
G01 X 26.9695 Y 27.8448 Z -1.0000
G01 X 26.9446 Y 27.8383 Z -1.0000
G01 X 26.9273 Y 27.8453 Z -1.0000
G01 X 26.9273 Y 27.8454 Z -1.0000
G00 Z 5.0000

(End cutting path id: path183460)


(Start cutting path id: path183460)
(Change tool to Default tool)

G00 Z 5.0000
G00 X 27.0335 Y 27.8452

G01 Z -1.0000 F 100.0000(Penetrate)
G01 X 27.0511 Y 27.8483 Z -1.0000 F 3500.0000
G01 X 27.0605 Y 27.8441 Z -1.0000
G01 X 27.0596 Y 27.8397 Z -1.0000
G01 X 27.0420 Y 27.8367 Z -1.0000
G01 X 27.0326 Y 27.8408 Z -1.0000
G01 X 27.0335 Y 27.8452 Z -1.0000
G01 X 27.0335 Y 27.8452 Z -1.0000
G00 Z 5.0000

(End cutting path id: path183460)


(Start cutting path id: path183460)
(Change tool to Default tool)

G00 Z 5.0000
G00 X 26.9869 Y 27.7206

G01 Z -1.0000 F 100.0000(Penetrate)
G01 X 27.0116 Y 27.7321 Z -1.0000 F 3500.0000
G02 X 27.2040 Y 27.7383 Z -1.0000 I 0.1588 J -1.9548
G01 X 27.2050 Y 27.7302 Z -1.0000
G02 X 27.1207 Y 27.7165 Z -1.0000 I -0.1148 J 0.4385
G02 X 26.9895 Y 27.7141 Z -1.0000 I -0.0895 J 1.3225
G01 X 26.9869 Y 27.7207 Z -1.0000
G01 X 26.9869 Y 27.7206 Z -1.0000
G00 Z 5.0000

(End cutting path id: path183460)


(Start cutting path id: path183460)
(Change tool to Default tool)

G00 Z 5.0000
G00 X 27.1489 Y 27.6524

G01 Z -1.0000 F 100.0000(Penetrate)
G01 X 27.1528 Y 27.6625 Z -1.0000 F 3500.0000
G01 X 27.1621 Y 27.6665 Z -1.0000
G01 X 27.1735 Y 27.6631 Z -1.0000
G01 X 27.1841 Y 27.6524 Z -1.0000
G01 X 27.1832 Y 27.6436 Z -1.0000
G01 X 27.1708 Y 27.6383 Z -1.0000
G01 X 27.1538 Y 27.6433 Z -1.0000
G01 X 27.1489 Y 27.6524 Z -1.0000
G01 X 27.1489 Y 27.6524 Z -1.0000
G00 Z 5.0000

(End cutting path id: path183460)


(Start cutting path id: path183460)
(Change tool to Default tool)

G00 Z 5.0000
G00 X 27.2263 Y 27.7793

G01 Z -1.0000 F 100.0000(Penetrate)
G01 X 27.2373 Y 27.7892 Z -1.0000 F 3500.0000
G01 X 27.2553 Y 27.7933 Z -1.0000
G01 X 27.2708 Y 27.7885 Z -1.0000
G01 X 27.2756 Y 27.7793 Z -1.0000
G01 X 27.2702 Y 27.7706 Z -1.0000
G02 X 27.2466 Y 27.7652 Z -1.0000 I -0.0236 J 0.0484
G01 X 27.2281 Y 27.7710 Z -1.0000
G01 X 27.2263 Y 27.7793 Z -1.0000
G01 X 27.2263 Y 27.7793 Z -1.0000
G00 Z 5.0000

(End cutting path id: path183460)


(Start cutting path id: path183460)
(Change tool to Default tool)

G00 Z 5.0000
G00 X 27.3639 Y 27.8598

G01 Z -1.0000 F 100.0000(Penetrate)
G02 X 27.4027 Y 27.8627 Z -1.0000 I 0.0387 J -0.2590 F 3500.0000
G02 X 27.4343 Y 27.8596 Z -1.0000 I -0.0001 J -0.1648
G01 X 27.3954 Y 27.8537 Z -1.0000
G01 X 27.3639 Y 27.8598 Z -1.0000
G01 X 27.3639 Y 27.8598 Z -1.0000
G00 Z 5.0000

(End cutting path id: path183460)


(Start cutting path id: path183460)
(Change tool to Default tool)

G00 Z 5.0000
G00 X 27.4341 Y 27.7753

G01 Z -1.0000 F 100.0000(Penetrate)
G03 X 27.4675 Y 27.7857 Z -1.0000 I -0.0169 J 0.1127 F 3500.0000
G01 X 27.4728 Y 27.7943 Z -1.0000
G01 X 27.4777 Y 27.8025 Z -1.0000
G01 X 27.4966 Y 27.8074 Z -1.0000
G01 X 27.5019 Y 27.8012 Z -1.0000
G01 X 27.4931 Y 27.7867 Z -1.0000
G02 X 27.4640 Y 27.7719 Z -1.0000 I -0.0563 J 0.0745
G02 X 27.4306 Y 27.7677 Z -1.0000 I -0.0288 J 0.0946
G01 X 27.4341 Y 27.7752 Z -1.0000
G01 X 27.4341 Y 27.7753 Z -1.0000
G00 Z 5.0000

(End cutting path id: path183460)


(Start cutting path id: path183460)
(Change tool to Default tool)

G00 Z 5.0000
G00 X 27.5679 Y 27.8309

G01 Z -1.0000 F 100.0000(Penetrate)
G01 X 27.5855 Y 27.8343 Z -1.0000 F 3500.0000
G01 X 27.6031 Y 27.8309 Z -1.0000
G01 X 27.5855 Y 27.8238 Z -1.0000
G01 X 27.5679 Y 27.8309 Z -1.0000
G01 X 27.5679 Y 27.8309 Z -1.0000
G00 Z 5.0000

(End cutting path id: path183460)


(Start cutting path id: path183460)
(Change tool to Default tool)

G00 Z 5.0000
G00 X 27.5406 Y 27.8875

G01 Z -1.0000 F 100.0000(Penetrate)
G01 X 27.5582 Y 27.8905 Z -1.0000 F 3500.0000
G01 X 27.5676 Y 27.8864 Z -1.0000
G01 X 27.5667 Y 27.8820 Z -1.0000
G01 X 27.5491 Y 27.8790 Z -1.0000
G01 X 27.5397 Y 27.8831 Z -1.0000
G01 X 27.5406 Y 27.8875 Z -1.0000
G01 X 27.5406 Y 27.8875 Z -1.0000
G00 Z 5.0000

(End cutting path id: path183460)


(Start cutting path id: path183460)
(Change tool to Default tool)

G00 Z 5.0000
G00 X 27.6278 Y 27.7793

G01 Z -1.0000 F 100.0000(Penetrate)
G01 X 27.6320 Y 27.7891 Z -1.0000 F 3500.0000
G01 X 27.6427 Y 27.7933 Z -1.0000
G01 X 27.6495 Y 27.7889 Z -1.0000
G01 X 27.6489 Y 27.7793 Z -1.0000
G02 X 27.6391 Y 27.7672 Z -1.0000 I -0.0523 J 0.0326
G01 X 27.6340 Y 27.7652 Z -1.0000
G01 X 27.6302 Y 27.7676 Z -1.0000
G01 X 27.6278 Y 27.7793 Z -1.0000
G01 X 27.6278 Y 27.7793 Z -1.0000
G00 Z 5.0000

(End cutting path id: path183460)


(Start cutting path id: path183460)
(Change tool to Default tool)

G00 Z 5.0000
G00 X 27.7801 Y 27.8593

G01 Z -1.0000 F 100.0000(Penetrate)
G01 X 27.7977 Y 27.8623 Z -1.0000 F 3500.0000
G01 X 27.8071 Y 27.8582 Z -1.0000
G01 X 27.8062 Y 27.8538 Z -1.0000
G01 X 27.7886 Y 27.8508 Z -1.0000
G01 X 27.7792 Y 27.8549 Z -1.0000
G01 X 27.7801 Y 27.8593 Z -1.0000
G01 X 27.7801 Y 27.8593 Z -1.0000
G00 Z 5.0000

(End cutting path id: path183460)


(Start cutting path id: path183460)
(Change tool to Default tool)

G00 Z 5.0000
G00 X 27.8461 Y 27.6211

G01 Z -1.0000 F 100.0000(Penetrate)
G02 X 27.8060 Y 27.6474 Z -1.0000 I 0.2041 J 0.3552 F 3500.0000
G01 X 27.7991 Y 27.6560 Z -1.0000
