%
(Header)
(Generated by gcodetools from Inkscape.)
(Using default header. To add your own header create file "header" in the output dir.)
M3
(Header end.)
G21 (All units in mm)

(Start cutting path id: path187953)
(Change tool to Default tool)

G00 Z 5.0000
G00 X 22.3776 Y 0.1726

G01 Z -1.0000 F 100.0000(Penetrate)
G02 X 22.3897 Y 0.1879 Z -1.0000 I 0.1762 J -0.1261 F 3500.0000
G01 X 22.3942 Y 0.1918 Z -1.0000
G01 X 22.3971 Y 0.1957 Z -1.0000
G01 X 22.3964 Y 0.2000 Z -1.0000
G01 X 22.4022 Y 0.2016 Z -1.0000
G01 X 22.4075 Y 0.2026 Z -1.0000
G01 X 22.4095 Y 0.2084 Z -1.0000
G01 X 22.4102 Y 0.2182 Z -1.0000
G02 X 22.4182 Y 0.2374 Z -1.0000 I 0.0983 J -0.0297
G03 X 22.4268 Y 0.2565 Z -1.0000 I -0.1237 J 0.0669
G01 X 22.4272 Y 0.2626 Z -1.0000
G01 X 22.4287 Y 0.2673 Z -1.0000
G01 X 22.4369 Y 0.2724 Z -1.0000
G01 X 22.4448 Y 0.2770 Z -1.0000
G01 X 22.4452 Y 0.2803 Z -1.0000
G01 X 22.4450 Y 0.2843 Z -1.0000
G01 X 22.4505 Y 0.2913 Z -1.0000
G01 X 22.4568 Y 0.2988 Z -1.0000
G01 X 22.4585 Y 0.3052 Z -1.0000
G01 X 22.4610 Y 0.3089 Z -1.0000
G01 X 22.4672 Y 0.3091 Z -1.0000
G01 X 22.4713 Y 0.3107 Z -1.0000
G01 X 22.4719 Y 0.3187 Z -1.0000
G03 X 22.4671 Y 0.3311 Z -1.0000 I -0.0891 J -0.0276
G01 X 22.4625 Y 0.3383 Z -1.0000
G01 X 22.4632 Y 0.3450 Z -1.0000
G01 X 22.4675 Y 0.3434 Z -1.0000
G01 X 22.4692 Y 0.3396 Z -1.0000
G01 X 22.4708 Y 0.3358 Z -1.0000
G01 X 22.4746 Y 0.3342 Z -1.0000
G01 X 22.4782 Y 0.3360 Z -1.0000
G01 X 22.4798 Y 0.3409 Z -1.0000
G01 X 22.4771 Y 0.3460 Z -1.0000
G03 X 22.4462 Y 0.3638 Z -1.0000 I -0.1355 J -0.1990
G02 X 22.4192 Y 0.3841 Z -1.0000 I 0.0382 J 0.0791
G01 X 22.4123 Y 0.4015 Z -1.0000
G02 X 22.4181 Y 0.4510 Z -1.0000 I 0.1765 J 0.0041
G01 X 22.4272 Y 0.4580 Z -1.0000
G01 X 22.4298 Y 0.4597 Z -1.0000
G01 X 22.4315 Y 0.4687 Z -1.0000
G01 X 22.4372 Y 0.4751 Z -1.0000
G01 X 22.4561 Y 0.4717 Z -1.0000
G01 X 22.4735 Y 0.4700 Z -1.0000
G01 X 22.4801 Y 0.4785 Z -1.0000
G01 X 22.4870 Y 0.4756 Z -1.0000
G01 X 22.4939 Y 0.4707 Z -1.0000
G01 X 22.4997 Y 0.4732 Z -1.0000
G01 X 22.5035 Y 0.4834 Z -1.0000
G03 X 22.5038 Y 0.4995 Z -1.0000 I -0.0613 J 0.0094
G01 X 22.5051 Y 0.5142 Z -1.0000
G01 X 22.5098 Y 0.5192 Z -1.0000
G01 X 22.5156 Y 0.5237 Z -1.0000
G01 X 22.5177 Y 0.5304 Z -1.0000
G01 X 22.5205 Y 0.5364 Z -1.0000
G01 X 22.5312 Y 0.5419 Z -1.0000
G01 X 22.5420 Y 0.5473 Z -1.0000
G01 X 22.5446 Y 0.5527 Z -1.0000
G01 X 22.5472 Y 0.5576 Z -1.0000
G01 X 22.5559 Y 0.5602 Z -1.0000
G01 X 22.5624 Y 0.5564 Z -1.0000
G01 X 22.5638 Y 0.5454 Z -1.0000
G01 X 22.5653 Y 0.5379 Z -1.0000
G01 X 22.5699 Y 0.5409 Z -1.0000
G01 X 22.5731 Y 0.5391 Z -1.0000
G01 X 22.5747 Y 0.5396 Z -1.0000
G01 X 22.5759 Y 0.5454 Z -1.0000
G02 X 22.5873 Y 0.5584 Z -1.0000 I 0.0549 J -0.0363
G01 X 22.5914 Y 0.5672 Z -1.0000
G01 X 22.5876 Y 0.5712 Z -1.0000
G02 X 22.5583 Y 0.5755 Z -1.0000 I 0.0062 J 0.1432
G01 X 22.5484 Y 0.5812 Z -1.0000
G01 X 22.5634 Y 0.5834 Z -1.0000
G01 X 22.5803 Y 0.5859 Z -1.0000
G01 X 22.5902 Y 0.5893 Z -1.0000
G01 X 22.6000 Y 0.5913 Z -1.0000
G01 X 22.6037 Y 0.5983 Z -1.0000
G01 X 22.6007 Y 0.6054 Z -1.0000
G01 X 22.5953 Y 0.6065 Z -1.0000
G01 X 22.5911 Y 0.6077 Z -1.0000
G01 X 22.5901 Y 0.6135 Z -1.0000
G01 X 22.5907 Y 0.6228 Z -1.0000
G01 X 22.5875 Y 0.6274 Z -1.0000
G01 X 22.5845 Y 0.6320 Z -1.0000
G01 X 22.5852 Y 0.6421 Z -1.0000
G01 X 22.5836 Y 0.6483 Z -1.0000
G01 X 22.5769 Y 0.6501 Z -1.0000
G01 X 22.5697 Y 0.6510 Z -1.0000
G01 X 22.5682 Y 0.6552 Z -1.0000
G01 X 22.5670 Y 0.6674 Z -1.0000
G01 X 22.5603 Y 0.6673 Z -1.0000
G01 X 22.5554 Y 0.6644 Z -1.0000
G01 X 22.5484 Y 0.6667 Z -1.0000
G01 X 22.5409 Y 0.6705 Z -1.0000
G01 X 22.5372 Y 0.6695 Z -1.0000
G01 X 22.5337 Y 0.6719 Z -1.0000
G01 X 22.5317 Y 0.6764 Z -1.0000
G01 X 22.5228 Y 0.6813 Z -1.0000
G01 X 22.5145 Y 0.6863 Z -1.0000
G01 X 22.5130 Y 0.6911 Z -1.0000
G01 X 22.5127 Y 0.6973 Z -1.0000
G03 X 22.5046 Y 0.7189 Z -1.0000 I -0.1877 J -0.0572
G02 X 22.4971 Y 0.7966 Z -1.0000 I 0.1135 J 0.0502
G01 X 22.5279 Y 0.8212 Z -1.0000
G01 X 22.5437 Y 0.8168 Z -1.0000
G01 X 22.5551 Y 0.8050 Z -1.0000
G03 X 22.5656 Y 0.7907 Z -1.0000 I 0.0603 J 0.0332
G01 X 22.5756 Y 0.7836 Z -1.0000
G01 X 22.5843 Y 0.7765 Z -1.0000
G01 X 22.5872 Y 0.7675 Z -1.0000
G03 X 22.5938 Y 0.7199 Z -1.0000 I 0.1822 J 0.0008
G01 X 22.6021 Y 0.7135 Z -1.0000
G01 X 22.6098 Y 0.7168 Z -1.0000
G01 X 22.6113 Y 0.7231 Z -1.0000
G01 X 22.6128 Y 0.7304 Z -1.0000
G01 X 22.6248 Y 0.7385 Z -1.0000
G01 X 22.6374 Y 0.7457 Z -1.0000
G01 X 22.6380 Y 0.7496 Z -1.0000
G01 X 22.6344 Y 0.7515 Z -1.0000
G01 X 22.6289 Y 0.7490 Z -1.0000
G01 X 22.6148 Y 0.7430 Z -1.0000
G01 X 22.6091 Y 0.7486 Z -1.0000
G01 X 22.6110 Y 0.7521 Z -1.0000
G01 X 22.6172 Y 0.7540 Z -1.0000
G01 X 22.6231 Y 0.7561 Z -1.0000
G01 X 22.6253 Y 0.7610 Z -1.0000
G01 X 22.6279 Y 0.7661 Z -1.0000
G02 X 22.6441 Y 0.7748 Z -1.0000 I 0.0382 J -0.0519
G03 X 22.6602 Y 0.7835 Z -1.0000 I -0.0198 J 0.0554
G01 X 22.6630 Y 0.7892 Z -1.0000
G01 X 22.6655 Y 0.7952 Z -1.0000
G02 X 22.6789 Y 0.8050 Z -1.0000 I 0.0389 J -0.0393
G01 X 22.6907 Y 0.8150 Z -1.0000
G01 X 22.6919 Y 0.8226 Z -1.0000
G01 X 22.6971 Y 0.8220 Z -1.0000
G01 X 22.7058 Y 0.8151 Z -1.0000
G01 X 22.7105 Y 0.8152 Z -1.0000
G01 X 22.7157 Y 0.8161 Z -1.0000
G02 X 22.7310 Y 0.8104 Z -1.0000 I -0.0152 J -0.0644
G01 X 22.7353 Y 0.8024 Z -1.0000
G01 X 22.7250 Y 0.8043 Z -1.0000
G01 X 22.7178 Y 0.8088 Z -1.0000
G01 X 22.7113 Y 0.8094 Z -1.0000
G01 X 22.7130 Y 0.8047 Z -1.0000
G01 X 22.7183 Y 0.8008 Z -1.0000
G01 X 22.7349 Y 0.7832 Z -1.0000
G02 X 22.7345 Y 0.7494 Z -1.0000 I -0.0516 J -0.0163
G01 X 22.7399 Y 0.7512 Z -1.0000
G01 X 22.7473 Y 0.7551 Z -1.0000
G01 X 22.7522 Y 0.7520 Z -1.0000
G02 X 22.7550 Y 0.7418 Z -1.0000 I -0.0531 J -0.0203
G02 X 22.7566 Y 0.7273 Z -1.0000 I -0.1017 J -0.0183
G01 X 22.7612 Y 0.7169 Z -1.0000
G01 X 22.7717 Y 0.7126 Z -1.0000
G01 X 22.7836 Y 0.7167 Z -1.0000
G01 X 22.7881 Y 0.7284 Z -1.0000
G01 X 22.8069 Y 0.7236 Z -1.0000
G01 X 22.8191 Y 0.7188 Z -1.0000
G01 X 22.8244 Y 0.7242 Z -1.0000
G01 X 22.8297 Y 0.7276 Z -1.0000
G01 X 22.8383 Y 0.7175 Z -1.0000
G02 X 22.8434 Y 0.6969 Z -1.0000 I -0.2387 J -0.0700
G02 X 22.8453 Y 0.6832 Z -1.0000 I -0.1099 J -0.0222
G01 X 22.8488 Y 0.6770 Z -1.0000
G01 X 22.8620 Y 0.6713 Z -1.0000
G01 X 22.8758 Y 0.6660 Z -1.0000
G01 X 22.8782 Y 0.6620 Z -1.0000
G01 X 22.8761 Y 0.6588 Z -1.0000
G01 X 22.8707 Y 0.6588 Z -1.0000
G01 X 22.8635 Y 0.6558 Z -1.0000
G01 X 22.8646 Y 0.6449 Z -1.0000
G01 X 22.8690 Y 0.6338 Z -1.0000
G01 X 22.8678 Y 0.6227 Z -1.0000
G01 X 22.8664 Y 0.5953 Z -1.0000
G01 X 22.8770 Y 0.5871 Z -1.0000
G01 X 22.8811 Y 0.5882 Z -1.0000
G01 X 22.8877 Y 0.5933 Z -1.0000
G01 X 22.8941 Y 0.5959 Z -1.0000
G01 X 22.9015 Y 0.5932 Z -1.0000
G01 X 22.9087 Y 0.5911 Z -1.0000
G01 X 22.9158 Y 0.5950 Z -1.0000
G01 X 22.9155 Y 0.6007 Z -1.0000
G01 X 22.9051 Y 0.6054 Z -1.0000
G01 X 22.9004 Y 0.6090 Z -1.0000
G01 X 22.8977 Y 0.6263 Z -1.0000
G01 X 22.9049 Y 0.6448 Z -1.0000
G01 X 22.9132 Y 0.6445 Z -1.0000
G01 X 22.9210 Y 0.6365 Z -1.0000
G01 X 22.9249 Y 0.6358 Z -1.0000
G01 X 22.9284 Y 0.6348 Z -1.0000
G01 X 22.9350 Y 0.6260 Z -1.0000
G01 X 22.9410 Y 0.6237 Z -1.0000
G01 X 22.9522 Y 0.6329 Z -1.0000
G01 X 22.9586 Y 0.6489 Z -1.0000
G01 X 22.9560 Y 0.6536 Z -1.0000
G01 X 22.9500 Y 0.6578 Z -1.0000
G01 X 22.9482 Y 0.6625 Z -1.0000
G01 X 22.9499 Y 0.6652 Z -1.0000
G01 X 22.9536 Y 0.6650 Z -1.0000
G01 X 22.9569 Y 0.6654 Z -1.0000
G01 X 22.9590 Y 0.6704 Z -1.0000
G01 X 22.9539 Y 0.6759 Z -1.0000
G01 X 22.9451 Y 0.6922 Z -1.0000
G01 X 22.9384 Y 0.7068 Z -1.0000
G01 X 22.9316 Y 0.7090 Z -1.0000
G01 X 22.9142 Y 0.7132 Z -1.0000
G01 X 22.9152 Y 0.7237 Z -1.0000
G01 X 22.9208 Y 0.7390 Z -1.0000
G01 X 22.9081 Y 0.7450 Z -1.0000
G01 X 22.9031 Y 0.7461 Z -1.0000
G01 X 22.8981 Y 0.7548 Z -1.0000
G01 X 22.9028 Y 0.7568 Z -1.0000
G01 X 22.9108 Y 0.7514 Z -1.0000
G01 X 22.9206 Y 0.7450 Z -1.0000
G01 X 22.9297 Y 0.7418 Z -1.0000
G01 X 22.9406 Y 0.7490 Z -1.0000
G01 X 22.9574 Y 0.7617 Z -1.0000
G01 X 22.9644 Y 0.7565 Z -1.0000
G01 X 22.9696 Y 0.7515 Z -1.0000
G01 X 22.9773 Y 0.7570 Z -1.0000
G01 X 22.9776 Y 0.7666 Z -1.0000
G01 X 22.9729 Y 0.7709 Z -1.0000
G01 X 22.9698 Y 0.7747 Z -1.0000
G01 X 22.9727 Y 0.7861 Z -1.0000
G01 X 22.9774 Y 0.7884 Z -1.0000
G01 X 22.9804 Y 0.7848 Z -1.0000
G01 X 22.9859 Y 0.7769 Z -1.0000
G01 X 22.9948 Y 0.7794 Z -1.0000
G01 X 22.9989 Y 0.7794 Z -1.0000
G01 X 23.0000 Y 0.7731 Z -1.0000
G01 X 23.0063 Y 0.7700 Z -1.0000
G01 X 23.0155 Y 0.7672 Z -1.0000
G01 X 23.0257 Y 0.7568 Z -1.0000
G01 X 23.0317 Y 0.7378 Z -1.0000
G01 X 23.0265 Y 0.7324 Z -1.0000
G01 X 23.0223 Y 0.7292 Z -1.0000
G01 X 23.0216 Y 0.7149 Z -1.0000
G03 X 23.0310 Y 0.6889 Z -1.0000 I 0.0764 J 0.0131
G01 X 23.0396 Y 0.6839 Z -1.0000
G01 X 23.0483 Y 0.6817 Z -1.0000
G01 X 23.0506 Y 0.6779 Z -1.0000
G01 X 23.0485 Y 0.6750 Z -1.0000
G01 X 23.0425 Y 0.6750 Z -1.0000
G01 X 23.0367 Y 0.6748 Z -1.0000
G01 X 23.0344 Y 0.6711 Z -1.0000
G01 X 23.0369 Y 0.6669 Z -1.0000
G01 X 23.0465 Y 0.6645 Z -1.0000
G01 X 23.0552 Y 0.6617 Z -1.0000
G01 X 23.0578 Y 0.6555 Z -1.0000
G01 X 23.0589 Y 0.6479 Z -1.0000
G01 X 23.0613 Y 0.6461 Z -1.0000
G01 X 23.0696 Y 0.6530 Z -1.0000
G01 X 23.0666 Y 0.6731 Z -1.0000
G01 X 23.0648 Y 0.6851 Z -1.0000
G01 X 23.0696 Y 0.6892 Z -1.0000
G01 X 23.0744 Y 0.6872 Z -1.0000
G01 X 23.0747 Y 0.6838 Z -1.0000
G01 X 23.0749 Y 0.6803 Z -1.0000
G01 X 23.0789 Y 0.6784 Z -1.0000
G01 X 23.0940 Y 0.6852 Z -1.0000
G01 X 23.1053 Y 0.7080 Z -1.0000
G01 X 23.1150 Y 0.7018 Z -1.0000
G01 X 23.1241 Y 0.6885 Z -1.0000
G01 X 23.1292 Y 0.6874 Z -1.0000
G01 X 23.1423 Y 0.6821 Z -1.0000
G01 X 23.1450 Y 0.6536 Z -1.0000
G01 X 23.1456 Y 0.6437 Z -1.0000
G01 X 23.1499 Y 0.6407 Z -1.0000
G01 X 23.1557 Y 0.6430 Z -1.0000
G01 X 23.1581 Y 0.6488 Z -1.0000
G01 X 23.1608 Y 0.6542 Z -1.0000
G01 X 23.1689 Y 0.6569 Z -1.0000
G01 X 23.1776 Y 0.6548 Z -1.0000
G01 X 23.1796 Y 0.6515 Z -1.0000
G01 X 23.1815 Y 0.6480 Z -1.0000
G01 X 23.1877 Y 0.6461 Z -1.0000
G01 X 23.1927 Y 0.6545 Z -1.0000
G01 X 23.1743 Y 0.6709 Z -1.0000
G02 X 23.1558 Y 0.6815 Z -1.0000 I 0.0277 J 0.0697
G01 X 23.1528 Y 0.6877 Z -1.0000
G01 X 23.1552 Y 0.6907 Z -1.0000
G01 X 23.1603 Y 0.6896 Z -1.0000
G01 X 23.1668 Y 0.6875 Z -1.0000
G01 X 23.1706 Y 0.6903 Z -1.0000
G01 X 23.1738 Y 0.6882 Z -1.0000
G01 X 23.1772 Y 0.6819 Z -1.0000
G01 X 23.1890 Y 0.6774 Z -1.0000
G01 X 23.2013 Y 0.6735 Z -1.0000
G01 X 23.2038 Y 0.6692 Z -1.0000
G01 X 23.2053 Y 0.6634 Z -1.0000
G01 X 23.2112 Y 0.6558 Z -1.0000
G01 X 23.2151 Y 0.6636 Z -1.0000
G01 X 23.2180 Y 0.6734 Z -1.0000
G01 X 23.2301 Y 0.6784 Z -1.0000
G03 X 23.2484 Y 0.6796 Z -1.0000 I 0.0000 J 0.1390
G01 X 23.2585 Y 0.6821 Z -1.0000
G01 X 23.2593 Y 0.6767 Z -1.0000
G02 X 23.2495 Y 0.6687 Z -1.0000 I -0.0417 J 0.0417
G02 X 23.2376 Y 0.6627 Z -1.0000 I -0.0349 J 0.0543
G01 X 23.2285 Y 0.6553 Z -1.0000
G01 X 23.2250 Y 0.6430 Z -1.0000
G01 X 23.2280 Y 0.6300 Z -1.0000
G01 X 23.2328 Y 0.6255 Z -1.0000
G01 X 23.2365 Y 0.6268 Z -1.0000
G01 X 23.2370 Y 0.6318 Z -1.0000
G01 X 23.2403 Y 0.6368 Z -1.0000
G01 X 23.2516 Y 0.6323 Z -1.0000
G01 X 23.2604 Y 0.6288 Z -1.0000
G01 X 23.2731 Y 0.6327 Z -1.0000
G03 X 23.2849 Y 0.6423 Z -1.0000 I -0.0390 J 0.0597
G01 X 23.2892 Y 0.6490 Z -1.0000
G01 X 23.2968 Y 0.6529 Z -1.0000
G01 X 23.3006 Y 0.6460 Z -1.0000
G01 X 23.3027 Y 0.6411 Z -1.0000
G01 X 23.3113 Y 0.6406 Z -1.0000
G02 X 23.3347 Y 0.6444 Z -1.0000 I 0.0208 J -0.0545
G01 X 23.3366 Y 0.6395 Z -1.0000
G01 X 23.3360 Y 0.6333 Z -1.0000
G01 X 23.3410 Y 0.6326 Z -1.0000
G02 X 23.3712 Y 0.6464 Z -1.0000 I 0.0367 J -0.0407
G01 X 23.3930 Y 0.6388 Z -1.0000
G01 X 23.3903 Y 0.6352 Z -1.0000
G01 X 23.3857 Y 0.6336 Z -1.0000
G01 X 23.3840 Y 0.6300 Z -1.0000
G01 X 23.3920 Y 0.6261 Z -1.0000
G01 X 23.4005 Y 0.6425 Z -1.0000
G01 X 23.4055 Y 0.6433 Z -1.0000
G01 X 23.4105 Y 0.6416 Z -1.0000
G01 X 23.4179 Y 0.6505 Z -1.0000
G01 X 23.4308 Y 0.6462 Z -1.0000
G01 X 23.4420 Y 0.6396 Z -1.0000
G01 X 23.4451 Y 0.6433 Z -1.0000
G01 X 23.4485 Y 0.6489 Z -1.0000
G01 X 23.4562 Y 0.6446 Z -1.0000
G01 X 23.4593 Y 0.6426 Z -1.0000
G01 X 23.4625 Y 0.6446 Z -1.0000
G01 X 23.4703 Y 0.6490 Z -1.0000
G01 X 23.4755 Y 0.6433 Z -1.0000
G01 X 23.4771 Y 0.6369 Z -1.0000
G01 X 23.4800 Y 0.6352 Z -1.0000
G01 X 23.4955 Y 0.6421 Z -1.0000
G01 X 23.5023 Y 0.6601 Z -1.0000
G01 X 23.5046 Y 0.6632 Z -1.0000
G02 X 23.5221 Y 0.6666 Z -1.0000 I 0.0220 J -0.0673
G01 X 23.5442 Y 0.6747 Z -1.0000
G01 X 23.5509 Y 0.6880 Z -1.0000
G01 X 23.5540 Y 0.6937 Z -1.0000
G01 X 23.5582 Y 0.6931 Z -1.0000
G03 X 23.5660 Y 0.6848 Z -1.0000 I 0.0402 J 0.0301
G01 X 23.5692 Y 0.6837 Z -1.0000
G01 X 23.5751 Y 0.6919 Z -1.0000
G01 X 23.5601 Y 0.7113 Z -1.0000
G01 X 23.5590 Y 0.7151 Z -1.0000
G01 X 23.5662 Y 0.7246 Z -1.0000
G01 X 23.5750 Y 0.7356 Z -1.0000
G01 X 23.5773 Y 0.7454 Z -1.0000
G01 X 23.5721 Y 0.7442 Z -1.0000
G01 X 23.5660 Y 0.7413 Z -1.0000
G01 X 23.5605 Y 0.7477 Z -1.0000
G01 X 23.5617 Y 0.7589 Z -1.0000
G01 X 23.5653 Y 0.7606 Z -1.0000
G01 X 23.5704 Y 0.7607 Z -1.0000
G01 X 23.5724 Y 0.7638 Z -1.0000
G01 X 23.5687 Y 0.7687 Z -1.0000
G01 X 23.5509 Y 0.7699 Z -1.0000
G01 X 23.5554 Y 0.7797 Z -1.0000
G01 X 23.5650 Y 0.7911 Z -1.0000
G01 X 23.5651 Y 0.7954 Z -1.0000
G01 X 23.5657 Y 0.7992 Z -1.0000
G02 X 23.5892 Y 0.8148 Z -1.0000 I 0.0982 J -0.1225
G02 X 23.6159 Y 0.8250 Z -1.0000 I 0.0529 J -0.0979
G01 X 23.6239 Y 0.8232 Z -1.0000
G01 X 23.6318 Y 0.8193 Z -1.0000
G01 X 23.6389 Y 0.8198 Z -1.0000
G01 X 23.6459 Y 0.8203 Z -1.0000
G01 X 23.6529 Y 0.8164 Z -1.0000
G01 X 23.6576 Y 0.8234 Z -1.0000
G01 X 23.6600 Y 0.8344 Z -1.0000
G01 X 23.6706 Y 0.8439 Z -1.0000
G01 X 23.6810 Y 0.8549 Z -1.0000
G01 X 23.6769 Y 0.8591 Z -1.0000
G01 X 23.6682 Y 0.8567 Z -1.0000
G02 X 23.6581 Y 0.8558 Z -1.0000 I -0.0101 J 0.0573
G01 X 23.6510 Y 0.8526 Z -1.0000
G01 X 23.6478 Y 0.8440 Z -1.0000
G01 X 23.6450 Y 0.8407 Z -1.0000
G01 X 23.6402 Y 0.8426 Z -1.0000
G01 X 23.6376 Y 0.8602 Z -1.0000
G01 X 23.6479 Y 0.8638 Z -1.0000
G01 X 23.6516 Y 0.8641 Z -1.0000
G03 X 23.6723 Y 0.8854 Z -1.0000 I -0.1293 J 0.1469
G02 X 23.6936 Y 0.9073 Z -1.0000 I 0.1564 J -0.1307
G01 X 23.6996 Y 0.9096 Z -1.0000
G01 X 23.7055 Y 0.9118 Z -1.0000
G03 X 23.7158 Y 0.9235 Z -1.0000 I -0.0369 J 0.0429
G01 X 23.7206 Y 0.9364 Z -1.0000
G01 X 23.7181 Y 0.9416 Z -1.0000
G01 X 23.7104 Y 0.9574 Z -1.0000
G01 X 23.7207 Y 0.9652 Z -1.0000
G01 X 23.7253 Y 0.9660 Z -1.0000
G01 X 23.7327 Y 0.9719 Z -1.0000
G01 X 23.7332 Y 0.9795 Z -1.0000
G01 X 23.7295 Y 0.9823 Z -1.0000
G01 X 23.7326 Y 0.9836 Z -1.0000
G01 X 23.7411 Y 0.9818 Z -1.0000
G01 X 23.7442 Y 0.9767 Z -1.0000
G01 X 23.7391 Y 0.9633 Z -1.0000
G01 X 23.7328 Y 0.9496 Z -1.0000
G01 X 23.7347 Y 0.9460 Z -1.0000
G01 X 23.7422 Y 0.9213 Z -1.0000
G02 X 23.6935 Y 0.8924 Z -1.0000 I -0.0607 J 0.0468
G01 X 23.6851 Y 0.8883 Z -1.0000
G01 X 23.6809 Y 0.8807 Z -1.0000
G01 X 23.6841 Y 0.8738 Z -1.0000
G01 X 23.7113 Y 0.8767 Z -1.0000
G01 X 23.7231 Y 0.8599 Z -1.0000
G01 X 23.7244 Y 0.8571 Z -1.0000
G01 X 23.7285 Y 0.8557 Z -1.0000
G01 X 23.7321 Y 0.8575 Z -1.0000
G01 X 23.7339 Y 0.8624 Z -1.0000
G01 X 23.7365 Y 0.8675 Z -1.0000
G02 X 23.7560 Y 0.8784 Z -1.0000 I 0.0577 J -0.0798
G01 X 23.7722 Y 0.8810 Z -1.0000
G01 X 23.7752 Y 0.8767 Z -1.0000
G01 X 23.7765 Y 0.8723 Z -1.0000
G01 X 23.7801 Y 0.8722 Z -1.0000
G01 X 23.7875 Y 0.8725 Z -1.0000
G01 X 23.8001 Y 0.8583 Z -1.0000
G01 X 23.8089 Y 0.8505 Z -1.0000
G01 X 23.8180 Y 0.8775 Z -1.0000
G01 X 23.8401 Y 0.8937 Z -1.0000
G01 X 23.8527 Y 0.9030 Z -1.0000
G01 X 23.8576 Y 0.9179 Z -1.0000
G01 X 23.8604 Y 0.9329 Z -1.0000
G01 X 23.8643 Y 0.9350 Z -1.0000
G01 X 23.8681 Y 0.9368 Z -1.0000
G01 X 23.8698 Y 0.9452 Z -1.0000
G01 X 23.8711 Y 0.9558 Z -1.0000
G01 X 23.8765 Y 0.9634 Z -1.0000
G01 X 23.8823 Y 0.9709 Z -1.0000
G01 X 23.8844 Y 0.9800 Z -1.0000
G01 X 23.8863 Y 0.9883 Z -1.0000
G01 X 23.8892 Y 0.9901 Z -1.0000
G01 X 23.8998 Y 0.9826 Z -1.0000
G01 X 23.8953 Y 0.9730 Z -1.0000
G01 X 23.8920 Y 0.9700 Z -1.0000
G03 X 23.8871 Y 0.9552 Z -1.0000 I 0.0652 J -0.0299
G01 X 23.8895 Y 0.9471 Z -1.0000
G01 X 23.8956 Y 0.9495 Z -1.0000
G01 X 23.9047 Y 0.9444 Z -1.0000
G01 X 23.9336 Y 0.9348 Z -1.0000
G01 X 23.9485 Y 0.9541 Z -1.0000
G01 X 23.9454 Y 0.9592 Z -1.0000
G01 X 23.9307 Y 0.9484 Z -1.0000
G01 X 23.9093 Y 0.9563 Z -1.0000
G01 X 23.9088 Y 0.9599 Z -1.0000
G01 X 23.9161 Y 0.9684 Z -1.0000
G01 X 23.9229 Y 0.9780 Z -1.0000
G01 X 23.9238 Y 0.9914 Z -1.0000
G01 X 23.9193 Y 1.0043 Z -1.0000
G01 X 23.9161 Y 1.0062 Z -1.0000
G01 X 23.9097 Y 0.9996 Z -1.0000
G01 X 23.9167 Y 0.9874 Z -1.0000
G01 X 23.9214 Y 0.9788 Z -1.0000
G01 X 23.9166 Y 0.9740 Z -1.0000
G01 X 23.9085 Y 0.9801 Z -1.0000
G01 X 23.9082 Y 1.0034 Z -1.0000
G01 X 23.9146 Y 1.0118 Z -1.0000
G01 X 23.9265 Y 1.0137 Z -1.0000
G01 X 23.9392 Y 1.0153 Z -1.0000
G01 X 23.9475 Y 1.0238 Z -1.0000
G01 X 23.9507 Y 1.0366 Z -1.0000
G01 X 23.9487 Y 1.0444 Z -1.0000
G01 X 23.9457 Y 1.0526 Z -1.0000
G02 X 23.9438 Y 1.0808 Z -1.0000 I 0.2204 J 0.0297
G03 X 23.9401 Y 1.1044 Z -1.0000 I -0.0784 J -0.0002
G01 X 23.9356 Y 1.1065 Z -1.0000
G01 X 23.9322 Y 1.1098 Z -1.0000
G01 X 23.9396 Y 1.1181 Z -1.0000
G01 X 23.9402 Y 1.1243 Z -1.0000
G01 X 23.9298 Y 1.1267 Z -1.0000
G01 X 23.9221 Y 1.1327 Z -1.0000
G01 X 23.9148 Y 1.1394 Z -1.0000
G01 X 23.9106 Y 1.1408 Z -1.0000
G01 X 23.9060 Y 1.1416 Z -1.0000
G02 X 23.8830 Y 1.1509 Z -1.0000 I 0.1187 J 0.3276
G03 X 23.8389 Y 1.1683 Z -1.0000 I -0.2419 J -0.5471
G03 X 23.7472 Y 1.1984 Z -1.0000 I -0.8186 J -2.3361
G02 X 23.7207 Y 1.2077 Z -1.0000 I 0.0954 J 0.3139
G02 X 23.6997 Y 1.2174 Z -1.0000 I 0.0892 J 0.2228
G03 X 23.6785 Y 1.2270 Z -1.0000 I -0.1039 J -0.1999
G03 X 23.6216 Y 1.2483 Z -1.0000 I -0.5938 J -1.5026
G02 X 23.4387 Y 1.3199 Z -1.0000 I 0.9353 J 2.6560
G02 X 23.2037 Y 1.4291 Z -1.0000 I 1.9447 J 4.4944
G03 X 23.0793 Y 1.4878 Z -1.0000 I -1.4883 J -2.9946
G01 X 23.0661 Y 1.4906 Z -1.0000
G01 X 23.0476 Y 1.4973 Z -1.0000
G02 X 22.9321 Y 1.6041 Z -1.0000 I 1.1752 J 1.3875
G03 X 22.8706 Y 1.6552 Z -1.0000 I -0.2977 J -0.2954
G03 X 22.8338 Y 1.6710 Z -1.0000 I -0.0591 J -0.0867
G02 X 22.7744 Y 1.6915 Z -1.0000 I 0.0581 J 0.2657
G02 X 22.7343 Y 1.7188 Z -1.0000 I 0.0694 J 0.1448
G01 X 22.7230 Y 1.7437 Z -1.0000
G01 X 22.7332 Y 1.7542 Z -1.0000
G01 X 22.7440 Y 1.7529 Z -1.0000
G01 X 22.7539 Y 1.7491 Z -1.0000
G01 X 22.7608 Y 1.7484 Z -1.0000
G01 X 22.7634 Y 1.7518 Z -1.0000
G01 X 22.7612 Y 1.7574 Z -1.0000
G01 X 22.7562 Y 1.7596 Z -1.0000
G01 X 22.7508 Y 1.7614 Z -1.0000
G01 X 22.7490 Y 1.7650 Z -1.0000
G01 X 22.7505 Y 1.7688 Z -1.0000
G01 X 22.7544 Y 1.7704 Z -1.0000
G01 X 22.7579 Y 1.7723 Z -1.0000
G01 X 22.7598 Y 1.7785 Z -1.0000
G01 X 22.7619 Y 1.7844 Z -1.0000
G01 X 22.7665 Y 1.7867 Z -1.0000
G01 X 22.7658 Y 1.7915 Z -1.0000
G01 X 22.7629 Y 1.8022 Z -1.0000
G01 X 22.7733 Y 1.8062 Z -1.0000
G01 X 22.7790 Y 1.8065 Z -1.0000
G01 X 22.7833 Y 1.8112 Z -1.0000
G01 X 22.7916 Y 1.8151 Z -1.0000
G01 X 22.8006 Y 1.8055 Z -1.0000
G01 X 22.8059 Y 1.7945 Z -1.0000
G01 X 22.8108 Y 1.7920 Z -1.0000
G01 X 22.8228 Y 1.7832 Z -1.0000
G01 X 22.8177 Y 1.7697 Z -1.0000
G01 X 22.8171 Y 1.7652 Z -1.0000
G01 X 22.8227 Y 1.7667 Z -1.0000
G03 X 22.8366 Y 1.7769 Z -1.0000 I -0.0459 J 0.0771
G01 X 22.8431 Y 1.7898 Z -1.0000
G01 X 22.8392 Y 1.8078 Z -1.0000
G03 X 22.8281 Y 1.8266 Z -1.0000 I -0.2911 J -0.1604
G01 X 22.8237 Y 1.8321 Z -1.0000
G01 X 22.8234 Y 1.8383 Z -1.0000
G01 X 22.8292 Y 1.8394 Z -1.0000
G01 X 22.8371 Y 1.8322 Z -1.0000
G01 X 22.8372 Y 1.8289 Z -1.0000
G01 X 22.8370 Y 1.8255 Z -1.0000
G01 X 22.8402 Y 1.8216 Z -1.0000
G01 X 22.8440 Y 1.8214 Z -1.0000
G01 X 22.8457 Y 1.8243 Z -1.0000
G01 X 22.8471 Y 1.8298 Z -1.0000
G01 X 22.8534 Y 1.8381 Z -1.0000
G01 X 22.8603 Y 1.8390 Z -1.0000
G01 X 22.8727 Y 1.8269 Z -1.0000
G03 X 22.8853 Y 1.8121 Z -1.0000 I 0.0548 J 0.0337
G01 X 22.8902 Y 1.8117 Z -1.0000
G01 X 22.8924 Y 1.8064 Z -1.0000
G03 X 22.8888 Y 1.7974 Z -1.0000 I 2.2227 J -0.9072
G02 X 22.8855 Y 1.7893 Z -1.0000 I -4.9041 J 1.9787
G01 X 22.8860 Y 1.7837 Z -1.0000
G01 X 22.8904 Y 1.7812 Z -1.0000
G01 X 22.8985 Y 1.7805 Z -1.0000
G02 X 22.9065 Y 1.7782 Z -1.0000 I -0.0095 J -0.0492
G01 X 22.9123 Y 1.7792 Z -1.0000
G01 X 22.9180 Y 1.7876 Z -1.0000
G01 X 22.9238 Y 1.7986 Z -1.0000
G02 X 22.9433 Y 1.8186 Z -1.0000 I 0.1220 J -0.0998
G01 X 22.9700 Y 1.8270 Z -1.0000
G01 X 22.9864 Y 1.8143 Z -1.0000
G01 X 22.9855 Y 1.8073 Z -1.0000
G01 X 22.9802 Y 1.8055 Z -1.0000
G01 X 22.9717 Y 1.8059 Z -1.0000
G01 X 22.9695 Y 1.8032 Z -1.0000
G01 X 22.9675 Y 1.7994 Z -1.0000
G01 X 22.9614 Y 1.7975 Z -1.0000
G01 X 22.9531 Y 1.7879 Z -1.0000
G01 X 22.9660 Y 1.7679 Z -1.0000
G01 X 22.9792 Y 1.7622 Z -1.0000
G01 X 22.9915 Y 1.7616 Z -1.0000
G01 X 23.0003 Y 1.7671 Z -1.0000
G01 X 23.0046 Y 1.7806 Z -1.0000
G01 X 23.0006 Y 1.7975 Z -1.0000
G01 X 22.9978 Y 1.8029 Z -1.0000
G01 X 23.0085 Y 1.8089 Z -1.0000
G01 X 23.0109 Y 1.8120 Z -1.0000
G01 X 22.9925 Y 1.8294 Z -1.0000
G01 X 22.9988 Y 1.8490 Z -1.0000
G01 X 23.0056 Y 1.8560 Z -1.0000
G01 X 23.0072 Y 1.8608 Z -1.0000
G01 X 23.0088 Y 1.8654 Z -1.0000
G01 X 23.0139 Y 1.8690 Z -1.0000
G01 X 23.0160 Y 1.8726 Z -1.0000
G01 X 23.0120 Y 1.8806 Z -1.0000
G01 X 23.0025 Y 1.8846 Z -1.0000
G01 X 22.9840 Y 1.8803 Z -1.0000
G03 X 22.9676 Y 1.8689 Z -1.0000 I 0.0269 J -0.0561
G01 X 22.9630 Y 1.8598 Z -1.0000
G01 X 22.9578 Y 1.8526 Z -1.0000
G01 X 22.9399 Y 1.8482 Z -1.0000
G03 X 22.8959 Y 1.8401 Z -1.0000 I 0.0027 J -0.1384
G01 X 22.8887 Y 1.8299 Z -1.0000
G01 X 22.8873 Y 1.8259 Z -1.0000
G01 X 22.8839 Y 1.8244 Z -1.0000
G01 X 22.8722 Y 1.8354 Z -1.0000
G01 X 22.8816 Y 1.8575 Z -1.0000
G01 X 22.8851 Y 1.8635 Z -1.0000
G01 X 22.8834 Y 1.8674 Z -1.0000
G01 X 22.8803 Y 1.8719 Z -1.0000
G01 X 22.8810 Y 1.8800 Z -1.0000
G01 X 22.8892 Y 1.8874 Z -1.0000
G01 X 22.8941 Y 1.8836 Z -1.0000
G01 X 22.8959 Y 1.8800 Z -1.0000
G01 X 22.9017 Y 1.8782 Z -1.0000
G01 X 22.9065 Y 1.8843 Z -1.0000
G03 X 22.8939 Y 1.9105 Z -1.0000 I -0.0673 J -0.0163
G01 X 22.8852 Y 1.9153 Z -1.0000
G01 X 22.8801 Y 1.9118 Z -1.0000
G01 X 22.8688 Y 1.9023 Z -1.0000
G01 X 22.8534 Y 1.9091 Z -1.0000
G01 X 22.8476 Y 1.9090 Z -1.0000
G03 X 22.8379 Y 1.8873 Z -1.0000 I 0.0483 J -0.0344
G01 X 22.8330 Y 1.8763 Z -1.0000
G01 X 22.8294 Y 1.8756 Z -1.0000
G01 X 22.8259 Y 1.8757 Z -1.0000
G01 X 22.8242 Y 1.8731 Z -1.0000
G01 X 22.8221 Y 1.8695 Z -1.0000
G01 X 22.8135 Y 1.8674 Z -1.0000
G01 X 22.8054 Y 1.8646 Z -1.0000
G01 X 22.8027 Y 1.8593 Z -1.0000
G01 X 22.8008 Y 1.8531 Z -1.0000
G01 X 22.7970 Y 1.8512 Z -1.0000
G01 X 22.7945 Y 1.8534 Z -1.0000
G01 X 22.7954 Y 1.8633 Z -1.0000
G03 X 22.7984 Y 1.8756 Z -1.0000 I -0.0652 J 0.0224
G03 X 22.7990 Y 1.8875 Z -1.0000 I -0.0616 J 0.0091
G01 X 22.8024 Y 1.8996 Z -1.0000
G01 X 22.8038 Y 1.9163 Z -1.0000
G01 X 22.7967 Y 1.9257 Z -1.0000
G01 X 22.7920 Y 1.9233 Z -1.0000
G01 X 22.7867 Y 1.9265 Z -1.0000
G01 X 22.7809 Y 1.9189 Z -1.0000
G01 X 22.7735 Y 1.9209 Z -1.0000
G01 X 22.7682 Y 1.9283 Z -1.0000
G01 X 22.7687 Y 1.9335 Z -1.0000
G01 X 22.7633 Y 1.9357 Z -1.0000
G01 X 22.7579 Y 1.9373 Z -1.0000
G01 X 22.7543 Y 1.9484 Z -1.0000
G01 X 22.7515 Y 1.9626 Z -1.0000
G01 X 22.7462 Y 1.9676 Z -1.0000
G01 X 22.7368 Y 1.9800 Z -1.0000
G01 X 22.7436 Y 1.9938 Z -1.0000
G01 X 22.7466 Y 1.9978 Z -1.0000
G01 X 22.7460 Y 2.0021 Z -1.0000
G01 X 22.7506 Y 2.0041 Z -1.0000
G01 X 22.7550 Y 2.0055 Z -1.0000
G01 X 22.7569 Y 2.0136 Z -1.0000
G02 X 22.7556 Y 2.0260 Z -1.0000 I 205.0257 J 21.2866
G03 X 22.7549 Y 2.0328 Z -1.0000 I -1.5692 J -0.1628
G01 X 22.7526 Y 2.0377 Z -1.0000
G01 X 22.7485 Y 2.0395 Z -1.0000
G01 X 22.7454 Y 2.0372 Z -1.0000
G01 X 22.7445 Y 2.0273 Z -1.0000
G01 X 22.7432 Y 2.0184 Z -1.0000
G01 X 22.7395 Y 2.0166 Z -1.0000
G01 X 22.7348 Y 2.0154 Z -1.0000
G01 X 22.7327 Y 2.0112 Z -1.0000
G01 X 22.7273 Y 2.0125 Z -1.0000
G01 X 22.7220 Y 2.0154 Z -1.0000
G01 X 22.7167 Y 2.0125 Z -1.0000
G01 X 22.7113 Y 2.0165 Z -1.0000
G01 X 22.7091 Y 2.0265 Z -1.0000
G01 X 22.7058 Y 2.0286 Z -1.0000
G01 X 22.7020 Y 2.0270 Z -1.0000
G01 X 22.7004 Y 2.0232 Z -1.0000
G01 X 22.6985 Y 2.0197 Z -1.0000
G01 X 22.6910 Y 2.0174 Z -1.0000
G01 X 22.6883 Y 2.0143 Z -1.0000
G01 X 22.6931 Y 2.0069 Z -1.0000
G01 X 22.6877 Y 2.0017 Z -1.0000
G01 X 22.6825 Y 2.0045 Z -1.0000
G01 X 22.6770 Y 2.0179 Z -1.0000
G01 X 22.6715 Y 2.0312 Z -1.0000
G01 X 22.6662 Y 2.0340 Z -1.0000
G01 X 22.6604 Y 2.0364 Z -1.0000
G01 X 22.6560 Y 2.0441 Z -1.0000
G01 X 22.6577 Y 2.0498 Z -1.0000
G01 X 22.6642 Y 2.0514 Z -1.0000
G01 X 22.6710 Y 2.0523 Z -1.0000
G01 X 22.6724 Y 2.0561 Z -1.0000
G01 X 22.6682 Y 2.0612 Z -1.0000
G01 X 22.6609 Y 2.0629 Z -1.0000
G01 X 22.6548 Y 2.0671 Z -1.0000
G01 X 22.6577 Y 2.0745 Z -1.0000
G01 X 22.6598 Y 2.0786 Z -1.0000
G01 X 22.6569 Y 2.0859 Z -1.0000
G01 X 22.6507 Y 2.0893 Z -1.0000
G01 X 22.6464 Y 2.0874 Z -1.0000
G01 X 22.6425 Y 2.0864 Z -1.0000
G01 X 22.6331 Y 2.0954 Z -1.0000
G01 X 22.6223 Y 2.1056 Z -1.0000
G01 X 22.6137 Y 2.1065 Z -1.0000
G01 X 22.6059 Y 2.1062 Z -1.0000
G01 X 22.6037 Y 2.1091 Z -1.0000
G01 X 22.6016 Y 2.1128 Z -1.0000
G01 X 22.5951 Y 2.1148 Z -1.0000
G01 X 22.5871 Y 2.1166 Z -1.0000
G02 X 22.5695 Y 2.1269 Z -1.0000 I 0.0474 J 0.1009
G03 X 22.5522 Y 2.1379 Z -1.0000 I -0.1047 J -0.1453
G01 X 22.5481 Y 2.1390 Z -1.0000
G01 X 22.5443 Y 2.1404 Z -1.0000
G02 X 22.5358 Y 2.1498 Z -1.0000 I 0.0391 J 0.0441
G01 X 22.5266 Y 2.1589 Z -1.0000
G03 X 22.5053 Y 2.1716 Z -1.0000 I -0.0866 J -0.1205
G02 X 22.4856 Y 2.1842 Z -1.0000 I 0.0449 J 0.0918
G01 X 22.4839 Y 2.1890 Z -1.0000
G01 X 22.4767 Y 2.2002 Z -1.0000
G01 X 22.4495 Y 2.1966 Z -1.0000
G01 X 22.4394 Y 2.1933 Z -1.0000
G01 X 22.4333 Y 2.1937 Z -1.0000
G01 X 22.4279 Y 2.1938 Z -1.0000
G01 X 22.4236 Y 2.1903 Z -1.0000
G01 X 22.4194 Y 2.1861 Z -1.0000
G01 X 22.4143 Y 2.1846 Z -1.0000
G01 X 22.4027 Y 2.1989 Z -1.0000
G02 X 22.4292 Y 2.2573 Z -1.0000 I 0.1410 J -0.0289
G01 X 22.4503 Y 2.2700 Z -1.0000
G01 X 22.4616 Y 2.2626 Z -1.0000
G01 X 22.4701 Y 2.2520 Z -1.0000
G01 X 22.4894 Y 2.2488 Z -1.0000
G01 X 22.4938 Y 2.2471 Z -1.0000
G01 X 22.4961 Y 2.2410 Z -1.0000
G01 X 22.4993 Y 2.2358 Z -1.0000
G01 X 22.5109 Y 2.2338 Z -1.0000
G02 X 22.5253 Y 2.2338 Z -1.0000 I 0.0072 J -0.0683
G01 X 22.5318 Y 2.2316 Z -1.0000
G01 X 22.5363 Y 2.2318 Z -1.0000
G01 X 22.5407 Y 2.2385 Z -1.0000
G01 X 22.5456 Y 2.2452 Z -1.0000
G01 X 22.5521 Y 2.2459 Z -1.0000
G01 X 22.5604 Y 2.2452 Z -1.0000
G01 X 22.5685 Y 2.2490 Z -1.0000
G01 X 22.5765 Y 2.2529 Z -1.0000
G01 X 22.5819 Y 2.2520 Z -1.0000
G01 X 22.5858 Y 2.2516 Z -1.0000
G01 X 22.5875 Y 2.2542 Z -1.0000
G01 X 22.5925 Y 2.2574 Z -1.0000
G01 X 22.6001 Y 2.2483 Z -1.0000
G01 X 22.6050 Y 2.2426 Z -1.0000
G01 X 22.6115 Y 2.2437 Z -1.0000
G01 X 22.6200 Y 2.2460 Z -1.0000
G01 X 22.6320 Y 2.2405 Z -1.0000
G02 X 22.6437 Y 2.2300 Z -1.0000 I -0.1793 J -0.2113
G01 X 22.6472 Y 2.2260 Z -1.0000
G01 X 22.6510 Y 2.2233 Z -1.0000
G01 X 22.6557 Y 2.2233 Z -1.0000
G01 X 22.6605 Y 2.2226 Z -1.0000
G02 X 22.6867 Y 2.2020 Z -1.0000 I -0.1502 J -0.2190
G03 X 22.7129 Y 2.1806 Z -1.0000 I 0.2665 J 0.2989
G01 X 22.7172 Y 2.1792 Z -1.0000
G01 X 22.7202 Y 2.1774 Z -1.0000
G01 X 22.7220 Y 2.1711 Z -1.0000
G01 X 22.7243 Y 2.1654 Z -1.0000
G01 X 22.7301 Y 2.1630 Z -1.0000
G01 X 22.7356 Y 2.1605 Z -1.0000
G01 X 22.7383 Y 2.1536 Z -1.0000
G01 X 22.7407 Y 2.1509 Z -1.0000
G01 X 22.7450 Y 2.1526 Z -1.0000
G01 X 22.7523 Y 2.1598 Z -1.0000
G01 X 22.7604 Y 2.1643 Z -1.0000
G01 X 22.7789 Y 2.1842 Z -1.0000
G01 X 22.7722 Y 2.2055 Z -1.0000
G01 X 22.7673 Y 2.2085 Z -1.0000
G03 X 22.7463 Y 2.2165 Z -1.0000 I -0.1238 J -0.2945
G02 X 22.7144 Y 2.2330 Z -1.0000 I 0.0389 J 0.1144
G01 X 22.7161 Y 2.2383 Z -1.0000
G01 X 22.7203 Y 2.2400 Z -1.0000
G01 X 22.7219 Y 2.2437 Z -1.0000
G01 X 22.7201 Y 2.2473 Z -1.0000
G01 X 22.7138 Y 2.2491 Z -1.0000
G01 X 22.7078 Y 2.2471 Z -1.0000
G01 X 22.7057 Y 2.2431 Z -1.0000
G01 X 22.6979 Y 2.2436 Z -1.0000
G01 X 22.6896 Y 2.2474 Z -1.0000
G01 X 22.6791 Y 2.2466 Z -1.0000
G01 X 22.6713 Y 2.2475 Z -1.0000
G01 X 22.6681 Y 2.2534 Z -1.0000
G01 X 22.6786 Y 2.2781 Z -1.0000
G01 X 22.6921 Y 2.2765 Z -1.0000
G01 X 22.7006 Y 2.2726 Z -1.0000
G01 X 22.7058 Y 2.2786 Z -1.0000
G01 X 22.7098 Y 2.2844 Z -1.0000
G02 X 22.7492 Y 2.2946 Z -1.0000 I 0.0726 J -0.1976
G01 X 22.7658 Y 2.2925 Z -1.0000
G01 X 22.7761 Y 2.2828 Z -1.0000
G01 X 22.7915 Y 2.2661 Z -1.0000
G01 X 22.8033 Y 2.2657 Z -1.0000
G01 X 22.8116 Y 2.2654 Z -1.0000
G01 X 22.8131 Y 2.2595 Z -1.0000
G01 X 22.8151 Y 2.2513 Z -1.0000
G01 X 22.8250 Y 2.2513 Z -1.0000
G01 X 22.8438 Y 2.2549 Z -1.0000
G01 X 22.8572 Y 2.2439 Z -1.0000
G01 X 22.8666 Y 2.2303 Z -1.0000
G01 X 22.8788 Y 2.2228 Z -1.0000
G01 X 22.9019 Y 2.2060 Z -1.0000
G01 X 22.9011 Y 2.1934 Z -1.0000
G01 X 22.9035 Y 2.1900 Z -1.0000
G01 X 22.9082 Y 2.1916 Z -1.0000
G01 X 22.9120 Y 2.1967 Z -1.0000
G01 X 22.9151 Y 2.1829 Z -1.0000
G01 X 22.9213 Y 2.1660 Z -1.0000
G01 X 22.9245 Y 2.1704 Z -1.0000
G01 X 22.9242 Y 2.1770 Z -1.0000
G01 X 22.9247 Y 2.1822 Z -1.0000
G01 X 22.9292 Y 2.1846 Z -1.0000
G01 X 22.9387 Y 2.1941 Z -1.0000
G01 X 22.9290 Y 2.2080 Z -1.0000
G01 X 22.9241 Y 2.2154 Z -1.0000
G02 X 22.9303 Y 2.2437 Z -1.0000 I 0.0813 J -0.0028
G01 X 22.9272 Y 2.2560 Z -1.0000
G01 X 22.9158 Y 2.2666 Z -1.0000
G01 X 22.9121 Y 2.2818 Z -1.0000
G01 X 22.9146 Y 2.2856 Z -1.0000
G01 X 22.9188 Y 2.2893 Z -1.0000
G01 X 22.9209 Y 2.2983 Z -1.0000
G01 X 22.9186 Y 2.3046 Z -1.0000
G01 X 22.9148 Y 2.3052 Z -1.0000
G01 X 22.9119 Y 2.3054 Z -1.0000
G01 X 22.9110 Y 2.3084 Z -1.0000
G01 X 22.9150 Y 2.3135 Z -1.0000
G01 X 22.9246 Y 2.3171 Z -1.0000
G01 X 22.9638 Y 2.3053 Z -1.0000
G01 X 22.9758 Y 2.2703 Z -1.0000
G01 X 22.9773 Y 2.2622 Z -1.0000
G01 X 22.9876 Y 2.2505 Z -1.0000
G01 X 23.0033 Y 2.2262 Z -1.0000
G01 X 22.9951 Y 2.2202 Z -1.0000
G01 X 22.9908 Y 2.2144 Z -1.0000
G01 X 22.9884 Y 2.2085 Z -1.0000
G01 X 22.9827 Y 2.2060 Z -1.0000
G01 X 22.9765 Y 2.2079 Z -1.0000
G01 X 22.9746 Y 2.2114 Z -1.0000
G01 X 22.9691 Y 2.2158 Z -1.0000
G01 X 22.9601 Y 2.2079 Z -1.0000
G01 X 22.9599 Y 2.2000 Z -1.0000
G01 X 22.9650 Y 2.1930 Z -1.0000
G01 X 22.9716 Y 2.1859 Z -1.0000
G01 X 22.9753 Y 2.1764 Z -1.0000
G01 X 22.9958 Y 2.1577 Z -1.0000
G01 X 23.0124 Y 2.1724 Z -1.0000
G01 X 23.0232 Y 2.1683 Z -1.0000
G01 X 23.0291 Y 2.1683 Z -1.0000
G01 X 23.0299 Y 2.1780 Z -1.0000
G01 X 23.0370 Y 2.1825 Z -1.0000
G01 X 23.0438 Y 2.1795 Z -1.0000
G01 X 23.0444 Y 2.1734 Z -1.0000
G03 X 23.0403 Y 2.1633 Z -1.0000 I 0.0455 J -0.0244
G01 X 23.0395 Y 2.1565 Z -1.0000
G01 X 23.0448 Y 2.1616 Z -1.0000
G01 X 23.0595 Y 2.1758 Z -1.0000
G01 X 23.0787 Y 2.1737 Z -1.0000
G01 X 23.0885 Y 2.1706 Z -1.0000
G01 X 23.0919 Y 2.1729 Z -1.0000
G01 X 23.0982 Y 2.1760 Z -1.0000
G01 X 23.1054 Y 2.1683 Z -1.0000
G01 X 23.1105 Y 2.1606 Z -1.0000
G01 X 23.1200 Y 2.1575 Z -1.0000
G01 X 23.1267 Y 2.1535 Z -1.0000
G01 X 23.1281 Y 2.1428 Z -1.0000
G02 X 23.1229 Y 2.1292 Z -1.0000 I -0.0573 J 0.0142
G01 X 23.1181 Y 2.1240 Z -1.0000
G01 X 23.1182 Y 2.1199 Z -1.0000
G01 X 23.1238 Y 2.1214 Z -1.0000
G01 X 23.1281 Y 2.1255 Z -1.0000
G01 X 23.1322 Y 2.1276 Z -1.0000
G01 X 23.1393 Y 2.1247 Z -1.0000
G01 X 23.1409 Y 2.1191 Z -1.0000
G01 X 23.1349 Y 2.1123 Z -1.0000
G01 X 23.1261 Y 2.1041 Z -1.0000
G01 X 23.1219 Y 2.0902 Z -1.0000
G01 X 23.1236 Y 2.0809 Z -1.0000
G01 X 23.1298 Y 2.0827 Z -1.0000
G01 X 23.1344 Y 2.0728 Z -1.0000
G01 X 23.1379 Y 2.0617 Z -1.0000
G01 X 23.1477 Y 2.0563 Z -1.0000
G01 X 23.1629 Y 2.0662 Z -1.0000
G01 X 23.1579 Y 2.0885 Z -1.0000
G01 X 23.1565 Y 2.1000 Z -1.0000
G01 X 23.1683 Y 2.1072 Z -1.0000
G03 X 23.1889 Y 2.1101 Z -1.0000 I -0.0024 J 0.0905
G01 X 23.1986 Y 2.1151 Z -1.0000
G01 X 23.2081 Y 2.1208 Z -1.0000
G01 X 23.2161 Y 2.1225 Z -1.0000
G01 X 23.2214 Y 2.1256 Z -1.0000
G01 X 23.2234 Y 2.1360 Z -1.0000
G01 X 23.2272 Y 2.1414 Z -1.0000
G01 X 23.2329 Y 2.1376 Z -1.0000
G01 X 23.2384 Y 2.1393 Z -1.0000
G01 X 23.2450 Y 2.1419 Z -1.0000
G02 X 23.2641 Y 2.1381 Z -1.0000 I -0.0030 J -0.0652
G01 X 23.2864 Y 2.1375 Z -1.0000
G01 X 23.2899 Y 2.1457 Z -1.0000
G03 X 23.2810 Y 2.1601 Z -1.0000 I -0.0930 J -0.0476
G01 X 23.2737 Y 2.1678 Z -1.0000
G01 X 23.2694 Y 2.1755 Z -1.0000
G01 X 23.2713 Y 2.1857 Z -1.0000
G01 X 23.2740 Y 2.1972 Z -1.0000
G03 X 23.2702 Y 2.2261 Z -1.0000 I -0.1405 J -0.0039
G03 X 23.2536 Y 2.2533 Z -1.0000 I -0.0506 J -0.0122
G01 X 23.2404 Y 2.2518 Z -1.0000
G01 X 23.2257 Y 2.2470 Z -1.0000
G01 X 23.2167 Y 2.2595 Z -1.0000
G01 X 23.2093 Y 2.2679 Z -1.0000
G01 X 23.1952 Y 2.2624 Z -1.0000
G01 X 23.1832 Y 2.2593 Z -1.0000
G02 X 23.1484 Y 2.2812 Z -1.0000 I 0.0431 J 0.1071
G03 X 23.1184 Y 2.3066 Z -1.0000 I -0.3606 J -0.3944
G01 X 23.1143 Y 2.3081 Z -1.0000
G01 X 23.1110 Y 2.2728 Z -1.0000
G02 X 23.1056 Y 2.2437 Z -1.0000 I -0.0671 J -0.0027
G01 X 23.0984 Y 2.2434 Z -1.0000
G01 X 23.0910 Y 2.2516 Z -1.0000
G01 X 23.0822 Y 2.2543 Z -1.0000
G01 X 23.0735 Y 2.2570 Z -1.0000
G01 X 23.0658 Y 2.2656 Z -1.0000
G01 X 23.0580 Y 2.2729 Z -1.0000
G01 X 23.0483 Y 2.2739 Z -1.0000
G01 X 23.0218 Y 2.2796 Z -1.0000
G01 X 23.0154 Y 2.3006 Z -1.0000
G01 X 23.0252 Y 2.3175 Z -1.0000
G01 X 23.0311 Y 2.3171 Z -1.0000
G01 X 23.0389 Y 2.3142 Z -1.0000
G01 X 23.0539 Y 2.3225 Z -1.0000
G03 X 23.0655 Y 2.3394 Z -1.0000 I -0.0369 J 0.0377
G01 X 23.0691 Y 2.3579 Z -1.0000
G01 X 23.0634 Y 2.3762 Z -1.0000
G01 X 23.0603 Y 2.3730 Z -1.0000
G01 X 23.0595 Y 2.3639 Z -1.0000
G01 X 23.0502 Y 2.3363 Z -1.0000
G01 X 23.0264 Y 2.3314 Z -1.0000
G01 X 23.0192 Y 2.3315 Z -1.0000
G01 X 23.0120 Y 2.3267 Z -1.0000
G01 X 23.0049 Y 2.3203 Z -1.0000
G01 X 23.0000 Y 2.3189 Z -1.0000
G01 X 22.9977 Y 2.3222 Z -1.0000
G01 X 22.9979 Y 2.3329 Z -1.0000
G01 X 22.9810 Y 2.3404 Z -1.0000
G01 X 22.9710 Y 2.3489 Z -1.0000
G01 X 22.9757 Y 2.3748 Z -1.0000
G01 X 22.9736 Y 2.3805 Z -1.0000
G01 X 22.9665 Y 2.3780 Z -1.0000
G01 X 22.9623 Y 2.3757 Z -1.0000
G01 X 22.9524 Y 2.3784 Z -1.0000
G01 X 22.9413 Y 2.3817 Z -1.0000
G03 X 22.9263 Y 2.3808 Z -1.0000 I -0.0044 J -0.0511
G01 X 22.9162 Y 2.3825 Z -1.0000
G01 X 22.9138 Y 2.3885 Z -1.0000
G01 X 22.9142 Y 2.3990 Z -1.0000
G01 X 22.9105 Y 2.4071 Z -1.0000
G01 X 22.9059 Y 2.4148 Z -1.0000
G01 X 22.9058 Y 2.4192 Z -1.0000
G01 X 22.9029 Y 2.4314 Z -1.0000
G03 X 22.8684 Y 2.4571 Z -1.0000 I -0.0994 J -0.0976
G01 X 22.8577 Y 2.4585 Z -1.0000
G01 X 22.8507 Y 2.4533 Z -1.0000
G01 X 22.8377 Y 2.4468 Z -1.0000
G01 X 22.8293 Y 2.4567 Z -1.0000
G01 X 22.8347 Y 2.4625 Z -1.0000
G01 X 22.8404 Y 2.4574 Z -1.0000
G01 X 22.8504 Y 2.4817 Z -1.0000
G01 X 22.8481 Y 2.4884 Z -1.0000
G01 X 22.8425 Y 2.4910 Z -1.0000
G01 X 22.8360 Y 2.4935 Z -1.0000
G01 X 22.8304 Y 2.5015 Z -1.0000
G01 X 22.8253 Y 2.5102 Z -1.0000
G01 X 22.8212 Y 2.5122 Z -1.0000
G01 X 22.8176 Y 2.5141 Z -1.0000
G01 X 22.8164 Y 2.5179 Z -1.0000
G03 X 22.8169 Y 2.5234 Z -1.0000 I -0.3213 J 0.0317
G03 X 22.8178 Y 2.5354 Z -1.0000 I -0.9888 J 0.0807
G01 X 22.8239 Y 2.5394 Z -1.0000
G01 X 22.8292 Y 2.5432 Z -1.0000
G01 X 22.8273 Y 2.5541 Z -1.0000
G01 X 22.8226 Y 2.5606 Z -1.0000
G01 X 22.8004 Y 2.5786 Z -1.0000
G01 X 22.7893 Y 2.5925 Z -1.0000
G01 X 22.7885 Y 2.6024 Z -1.0000
G01 X 22.8045 Y 2.6174 Z -1.0000
G01 X 22.8226 Y 2.6110 Z -1.0000
G01 X 22.8293 Y 2.6084 Z -1.0000
G01 X 22.8317 Y 2.6124 Z -1.0000
G01 X 22.8407 Y 2.6148 Z -1.0000
G01 X 22.8474 Y 2.6184 Z -1.0000
G01 X 22.8490 Y 2.6271 Z -1.0000
G01 X 22.8501 Y 2.6363 Z -1.0000
G01 X 22.8561 Y 2.6402 Z -1.0000
G01 X 22.8630 Y 2.6369 Z -1.0000
G01 X 22.8697 Y 2.6201 Z -1.0000
G01 X 22.8774 Y 2.6032 Z -1.0000
G01 X 22.8894 Y 2.5958 Z -1.0000
G03 X 22.9050 Y 2.5939 Z -1.0000 I 0.0175 J 0.0819
G01 X 22.9087 Y 2.5954 Z -1.0000
G01 X 22.9141 Y 2.6229 Z -1.0000
G01 X 22.8880 Y 2.6457 Z -1.0000
G01 X 22.8829 Y 2.6538 Z -1.0000
G01 X 22.8908 Y 2.6597 Z -1.0000
G01 X 22.8960 Y 2.6627 Z -1.0000
G01 X 22.8983 Y 2.6752 Z -1.0000
G01 X 22.9074 Y 2.6956 Z -1.0000
G01 X 22.9244 Y 2.6943 Z -1.0000
G01 X 22.9291 Y 2.6841 Z -1.0000
G02 X 22.9271 Y 2.6640 Z -1.0000 I -0.0530 J -0.0048
G03 X 22.9249 Y 2.6415 Z -1.0000 I 0.0554 J -0.0166
G03 X 22.9328 Y 2.6080 Z -1.0000 I 0.1337 J 0.0136
G01 X 22.9493 Y 2.5953 Z -1.0000
G01 X 22.9720 Y 2.6040 Z -1.0000
G01 X 22.9827 Y 2.6127 Z -1.0000
G01 X 22.9906 Y 2.6148 Z -1.0000
G01 X 22.9988 Y 2.6165 Z -1.0000
G01 X 23.0066 Y 2.6215 Z -1.0000
G01 X 23.0110 Y 2.6165 Z -1.0000
G01 X 23.0124 Y 2.6063 Z -1.0000
G03 X 23.0264 Y 2.5896 Z -1.0000 I 0.0530 J 0.0303
G02 X 23.0435 Y 2.5678 Z -1.0000 I -0.0423 J -0.0507
G01 X 23.0390 Y 2.5638 Z -1.0000
G01 X 23.0255 Y 2.5631 Z -1.0000
G01 X 23.0177 Y 2.5472 Z -1.0000
G01 X 23.0200 Y 2.5418 Z -1.0000
G01 X 23.0285 Y 2.5367 Z -1.0000
G01 X 23.0368 Y 2.5315 Z -1.0000
G01 X 23.0392 Y 2.5256 Z -1.0000
G01 X 23.0408 Y 2.5196 Z -1.0000
G01 X 23.0437 Y 2.5179 Z -1.0000
G01 X 23.0596 Y 2.5077 Z -1.0000
G01 X 23.0582 Y 2.4859 Z -1.0000
G01 X 23.0547 Y 2.4826 Z -1.0000
G02 X 23.0445 Y 2.4787 Z -1.0000 I -0.0230 J 0.0445
G01 X 23.0382 Y 2.4803 Z -1.0000
G01 X 23.0367 Y 2.4861 Z -1.0000
G01 X 23.0333 Y 2.4932 Z -1.0000
G01 X 23.0255 Y 2.4907 Z -1.0000
G01 X 23.0211 Y 2.4875 Z -1.0000
G01 X 23.0139 Y 2.4881 Z -1.0000
G01 X 23.0098 Y 2.4871 Z -1.0000
G01 X 23.0091 Y 2.4826 Z -1.0000
G02 X 23.0120 Y 2.4739 Z -1.0000 I -0.1241 J -0.0475
G01 X 23.0124 Y 2.4717 Z -1.0000
G01 X 23.0205 Y 2.4694 Z -1.0000
G01 X 23.0269 Y 2.4678 Z -1.0000
G01 X 23.0286 Y 2.4649 Z -1.0000
G01 X 23.0266 Y 2.4624 Z -1.0000
G02 X 23.0124 Y 2.4604 Z -1.0000 I -0.0142 J 0.0514
G01 X 22.9985 Y 2.4627 Z -1.0000
G01 X 22.9963 Y 2.4657 Z -1.0000
G01 X 22.9855 Y 2.4613 Z -1.0000
G01 X 22.9747 Y 2.4433 Z -1.0000
G01 X 22.9795 Y 2.4371 Z -1.0000
G01 X 22.9832 Y 2.4387 Z -1.0000
G01 X 22.9875 Y 2.4455 Z -1.0000
G01 X 22.9929 Y 2.4505 Z -1.0000
G02 X 23.0110 Y 2.4522 Z -1.0000 I 0.0139 J -0.0486
G01 X 23.0253 Y 2.4457 Z -1.0000
G01 X 23.0293 Y 2.4344 Z -1.0000
G02 X 23.0259 Y 2.4189 Z -1.0000 I -0.0751 J 0.0084
G01 X 23.0216 Y 2.4111 Z -1.0000
G01 X 23.0198 Y 2.4047 Z -1.0000
G01 X 23.0231 Y 2.3994 Z -1.0000
G01 X 23.0264 Y 2.3942 Z -1.0000
G01 X 23.0245 Y 2.3877 Z -1.0000
G01 X 23.0221 Y 2.3804 Z -1.0000
G01 X 23.0254 Y 2.3712 Z -1.0000
G01 X 23.0380 Y 2.3654 Z -1.0000
G01 X 23.0474 Y 2.3729 Z -1.0000
G01 X 23.0586 Y 2.3879 Z -1.0000
G01 X 23.0789 Y 2.3941 Z -1.0000
G01 X 23.0788 Y 2.3751 Z -1.0000
G01 X 23.0811 Y 2.3637 Z -1.0000
G01 X 23.0850 Y 2.3630 Z -1.0000
G02 X 23.1083 Y 2.3816 Z -1.0000 I 0.1716 J -0.1909
G01 X 23.1138 Y 2.3833 Z -1.0000
G01 X 23.1173 Y 2.3853 Z -1.0000
G01 X 23.1223 Y 2.3972 Z -1.0000
G01 X 23.1279 Y 2.4047 Z -1.0000
G01 X 23.1341 Y 2.4042 Z -1.0000
G01 X 23.1368 Y 2.3983 Z -1.0000
G01 X 23.1338 Y 2.3942 Z -1.0000
G01 X 23.1302 Y 2.3896 Z -1.0000
G01 X 23.1329 Y 2.3805 Z -1.0000
G01 X 23.1381 Y 2.3693 Z -1.0000
G01 X 23.1381 Y 2.3587 Z -1.0000
G01 X 23.1412 Y 2.3520 Z -1.0000
G01 X 23.1601 Y 2.3475 Z -1.0000
G02 X 23.1839 Y 2.3451 Z -1.0000 I -0.0000 J -0.1205
G01 X 23.1912 Y 2.3412 Z -1.0000
G01 X 23.2007 Y 2.3388 Z -1.0000
G01 X 23.2078 Y 2.3462 Z -1.0000
G01 X 23.2124 Y 2.3534 Z -1.0000
G01 X 23.2168 Y 2.3538 Z -1.0000
G01 X 23.2191 Y 2.3494 Z -1.0000
G01 X 23.2165 Y 2.3425 Z -1.0000
G01 X 23.2162 Y 2.3377 Z -1.0000
G01 X 23.2213 Y 2.3349 Z -1.0000
G01 X 23.2313 Y 2.3322 Z -1.0000
G02 X 23.2500 Y 2.3187 Z -1.0000 I -0.0504 J -0.0895
G01 X 23.2734 Y 2.3082 Z -1.0000
G01 X 23.2814 Y 2.3154 Z -1.0000
G01 X 23.2922 Y 2.3289 Z -1.0000
G01 X 23.3053 Y 2.3208 Z -1.0000
G01 X 23.3101 Y 2.3099 Z -1.0000
G01 X 23.3136 Y 2.3080 Z -1.0000
G01 X 23.3161 Y 2.3062 Z -1.0000
G01 X 23.3159 Y 2.3006 Z -1.0000
G01 X 23.3163 Y 2.2946 Z -1.0000
G01 X 23.3214 Y 2.2900 Z -1.0000
G01 X 23.3273 Y 2.2904 Z -1.0000
G01 X 23.3298 Y 2.2947 Z -1.0000
G01 X 23.3315 Y 2.3008 Z -1.0000
G01 X 23.3346 Y 2.3026 Z -1.0000
G01 X 23.3485 Y 2.2864 Z -1.0000
G01 X 23.3288 Y 2.2660 Z -1.0000
G01 X 23.3210 Y 2.2664 Z -1.0000
G01 X 23.3167 Y 2.2698 Z -1.0000
G01 X 23.3052 Y 2.2741 Z -1.0000
G01 X 23.2976 Y 2.2637 Z -1.0000
G01 X 23.3057 Y 2.2649 Z -1.0000
G01 X 23.3144 Y 2.2669 Z -1.0000
G03 X 23.3170 Y 2.2527 Z -1.0000 I 0.1363 J 0.0178
G03 X 23.3210 Y 2.2392 Z -1.0000 I 0.1340 J 0.0321
G01 X 23.3269 Y 2.2295 Z -1.0000
G01 X 23.3316 Y 2.2277 Z -1.0000
G01 X 23.3496 Y 2.2237 Z -1.0000
G01 X 23.3493 Y 2.2205 Z -1.0000
G01 X 23.3560 Y 2.2143 Z -1.0000
G03 X 23.4062 Y 2.1883 Z -1.0000 I 0.2754 J 0.4700
G01 X 23.4141 Y 2.1880 Z -1.0000
G01 X 23.4196 Y 2.1881 Z -1.0000
G01 X 23.4235 Y 2.1851 Z -1.0000
G01 X 23.4379 Y 2.1813 Z -1.0000
G01 X 23.4482 Y 2.1987 Z -1.0000
G01 X 23.4444 Y 2.2068 Z -1.0000
G01 X 23.4366 Y 2.2082 Z -1.0000
G01 X 23.4297 Y 2.2090 Z -1.0000
G01 X 23.4283 Y 2.2131 Z -1.0000
G01 X 23.4270 Y 2.2182 Z -1.0000
G01 X 23.4197 Y 2.2204 Z -1.0000
G01 X 23.4125 Y 2.2243 Z -1.0000
G01 X 23.4082 Y 2.2421 Z -1.0000
G01 X 23.4066 Y 2.2649 Z -1.0000
G01 X 23.3921 Y 2.2515 Z -1.0000
G01 X 23.3738 Y 2.2410 Z -1.0000
G01 X 23.3674 Y 2.2461 Z -1.0000
G01 X 23.3648 Y 2.2515 Z -1.0000
G01 X 23.3574 Y 2.2542 Z -1.0000
G01 X 23.3406 Y 2.2716 Z -1.0000
G01 X 23.3594 Y 2.3048 Z -1.0000
G01 X 23.3710 Y 2.3091 Z -1.0000
G01 X 23.3770 Y 2.3070 Z -1.0000
G01 X 23.3860 Y 2.3073 Z -1.0000
G01 X 23.3906 Y 2.3225 Z -1.0000
G02 X 23.3906 Y 2.3371 Z -1.0000 I 0.0568 J 0.0075
G01 X 23.3933 Y 2.3444 Z -1.0000
G01 X 23.4035 Y 2.3472 Z -1.0000
G02 X 23.4486 Y 2.3170 Z -1.0000 I -0.0935 J -0.1881
G01 X 23.4793 Y 2.3012 Z -1.0000
G01 X 23.4825 Y 2.3180 Z -1.0000
G01 X 23.5027 Y 2.3324 Z -1.0000
G01 X 23.5079 Y 2.3369 Z -1.0000
G01 X 23.5067 Y 2.3410 Z -1.0000
G01 X 23.5154 Y 2.3444 Z -1.0000
G01 X 23.5277 Y 2.3399 Z -1.0000
G01 X 23.5301 Y 2.3342 Z -1.0000
G01 X 23.5325 Y 2.3294 Z -1.0000
G01 X 23.5423 Y 2.3281 Z -1.0000
G01 X 23.5513 Y 2.3252 Z -1.0000
G01 X 23.5558 Y 2.3139 Z -1.0000
G03 X 23.5644 Y 2.2842 Z -1.0000 I 0.0557 J -0.0000
G01 X 23.5800 Y 2.2756 Z -1.0000
G01 X 23.5848 Y 2.2739 Z -1.0000
G01 X 23.5934 Y 2.2648 Z -1.0000
G01 X 23.6026 Y 2.2568 Z -1.0000
G01 X 23.6136 Y 2.2541 Z -1.0000
G01 X 23.6278 Y 2.2472 Z -1.0000
G01 X 23.6303 Y 2.2328 Z -1.0000
G01 X 23.6270 Y 2.2308 Z -1.0000
G01 X 23.6130 Y 2.2353 Z -1.0000
G03 X 23.5846 Y 2.2416 Z -1.0000 I -0.0262 J -0.0504
G01 X 23.5768 Y 2.2339 Z -1.0000
G03 X 23.5876 Y 2.1742 Z -1.0000 I 0.1300 J -0.0073
G03 X 23.6164 Y 2.1436 Z -1.0000 I 0.0573 J 0.0252
G01 X 23.6419 Y 2.1429 Z -1.0000
G01 X 23.6438 Y 2.1556 Z -1.0000
G01 X 23.6347 Y 2.1682 Z -1.0000
G01 X 23.6357 Y 2.1751 Z -1.0000
G01 X 23.6391 Y 2.1823 Z -1.0000
G01 X 23.6378 Y 2.1868 Z -1.0000
G01 X 23.6408 Y 2.1872 Z -1.0000
G01 X 23.6447 Y 2.1820 Z -1.0000
G01 X 23.6442 Y 2.1721 Z -1.0000
G01 X 23.6455 Y 2.1663 Z -1.0000
G01 X 23.6507 Y 2.1652 Z -1.0000
G02 X 23.6609 Y 2.1689 Z -1.0000 I 0.0415 J -0.0993
G02 X 23.6733 Y 2.1721 Z -1.0000 I 0.0459 J -0.1506
G01 X 23.6842 Y 2.1767 Z -1.0000
G01 X 23.6887 Y 2.1822 Z -1.0000
G01 X 23.6931 Y 2.1872 Z -1.0000
G01 X 23.7023 Y 2.1896 Z -1.0000
G01 X 23.7087 Y 2.1932 Z -1.0000
G01 X 23.7105 Y 2.2035 Z -1.0000
G01 X 23.7123 Y 2.2126 Z -1.0000
G01 X 23.7179 Y 2.2147 Z -1.0000
G01 X 23.7259 Y 2.2148 Z -1.0000
G01 X 23.7280 Y 2.2176 Z -1.0000
G01 X 23.7347 Y 2.2178 Z -1.0000
G03 X 23.7671 Y 2.2040 Z -1.0000 I 0.0415 J 0.0522
G01 X 23.7764 Y 2.2121 Z -1.0000
G01 X 23.7863 Y 2.2194 Z -1.0000
G02 X 23.8120 Y 2.2011 Z -1.0000 I -0.0149 J -0.0481
G01 X 23.8176 Y 2.1993 Z -1.0000
G01 X 23.8245 Y 2.2051 Z -1.0000
G02 X 23.8319 Y 2.2167 Z -1.0000 I 0.0806 J -0.0433
G02 X 23.8415 Y 2.2277 Z -1.0000 I 0.0815 J -0.0610
G01 X 23.8483 Y 2.2392 Z -1.0000
G01 X 23.8486 Y 2.2515 Z -1.0000
G01 X 23.8482 Y 2.2625 Z -1.0000
G01 X 23.8512 Y 2.2649 Z -1.0000
G01 X 23.8551 Y 2.2669 Z -1.0000
G01 X 23.8572 Y 2.2734 Z -1.0000
G01 X 23.8549 Y 2.2787 Z -1.0000
G01 X 23.8505 Y 2.2797 Z -1.0000
G01 X 23.8454 Y 2.2762 Z -1.0000
G01 X 23.8438 Y 2.2716 Z -1.0000
G01 X 23.8427 Y 2.2662 Z -1.0000
G01 X 23.8398 Y 2.2617 Z -1.0000
G01 X 23.8358 Y 2.2673 Z -1.0000
G01 X 23.8331 Y 2.2711 Z -1.0000
G01 X 23.8277 Y 2.2702 Z -1.0000
G01 X 23.8209 Y 2.2629 Z -1.0000
G01 X 23.8196 Y 2.2588 Z -1.0000
G01 X 23.8118 Y 2.2403 Z -1.0000
G01 X 23.7927 Y 2.2325 Z -1.0000
G01 X 23.7888 Y 2.2309 Z -1.0000
G01 X 23.7873 Y 2.2271 Z -1.0000
G01 X 23.7857 Y 2.2233 Z -1.0000
G01 X 23.7819 Y 2.2217 Z -1.0000
G01 X 23.7783 Y 2.2236 Z -1.0000
G01 X 23.7765 Y 2.2292 Z -1.0000
G01 X 23.7742 Y 2.2354 Z -1.0000
G03 X 23.7621 Y 2.2461 Z -1.0000 I -0.0437 J -0.0374
G02 X 23.7136 Y 2.2863 Z -1.0000 I 0.1532 J 0.2339
G01 X 23.7065 Y 2.3040 Z -1.0000
G01 X 23.7045 Y 2.3065 Z -1.0000
G01 X 23.6957 Y 2.3063 Z -1.0000
G01 X 23.6892 Y 2.3086 Z -1.0000
G01 X 23.6861 Y 2.3193 Z -1.0000
G01 X 23.6908 Y 2.3322 Z -1.0000
G01 X 23.6996 Y 2.3382 Z -1.0000
G01 X 23.7047 Y 2.3458 Z -1.0000
G01 X 23.6958 Y 2.3652 Z -1.0000
G02 X 23.6822 Y 2.3845 Z -1.0000 I 0.0830 J 0.0731
G01 X 23.6797 Y 2.3941 Z -1.0000
G01 X 23.6770 Y 2.4020 Z -1.0000
G01 X 23.6716 Y 2.4047 Z -1.0000
G01 X 23.6662 Y 2.4074 Z -1.0000
G01 X 23.6635 Y 2.4155 Z -1.0000
G01 X 23.6668 Y 2.4204 Z -1.0000
G01 X 23.6742 Y 2.4196 Z -1.0000
G01 X 23.6832 Y 2.4119 Z -1.0000
G01 X 23.6850 Y 2.4070 Z -1.0000
G01 X 23.6864 Y 2.4015 Z -1.0000
G03 X 23.6955 Y 2.3889 Z -1.0000 I 0.0709 J 0.0412
G02 X 23.7054 Y 2.3765 Z -1.0000 I -0.1390 J -0.1221
G01 X 23.7076 Y 2.3727 Z -1.0000
G01 X 23.7102 Y 2.3695 Z -1.0000
G01 X 23.7206 Y 2.3650 Z -1.0000
G01 X 23.7297 Y 2.3699 Z -1.0000
G03 X 23.7358 Y 2.4190 Z -1.0000 I -0.1597 J 0.0446
G02 X 23.7419 Y 2.4479 Z -1.0000 I 0.0633 J 0.0016
G01 X 23.7516 Y 2.4521 Z -1.0000
G03 X 23.7860 Y 2.4481 Z -1.0000 I 0.0276 J 0.0870
G01 X 23.7926 Y 2.4552 Z -1.0000
G01 X 23.7981 Y 2.4643 Z -1.0000
G01 X 23.8088 Y 2.4637 Z -1.0000
G01 X 23.8112 Y 2.4584 Z -1.0000
G01 X 23.8077 Y 2.4529 Z -1.0000
G01 X 23.8016 Y 2.4463 Z -1.0000
G01 X 23.8014 Y 2.4399 Z -1.0000
G01 X 23.8006 Y 2.4336 Z -1.0000
G01 X 23.7897 Y 2.4229 Z -1.0000
G01 X 23.7841 Y 2.4128 Z -1.0000
G01 X 23.7893 Y 2.4012 Z -1.0000
G01 X 23.8009 Y 2.3820 Z -1.0000
G01 X 23.7970 Y 2.3681 Z -1.0000
G01 X 23.8087 Y 2.3668 Z -1.0000
G01 X 23.8143 Y 2.3732 Z -1.0000
G01 X 23.8168 Y 2.3842 Z -1.0000
G01 X 23.8201 Y 2.3928 Z -1.0000
G01 X 23.8264 Y 2.3950 Z -1.0000
G01 X 23.8330 Y 2.3967 Z -1.0000
G01 X 23.8358 Y 2.4024 Z -1.0000
G01 X 23.8385 Y 2.4057 Z -1.0000
G01 X 23.8449 Y 2.4040 Z -1.0000
G01 X 23.8503 Y 2.4065 Z -1.0000
G02 X 23.8472 Y 2.4165 Z -1.0000 I 0.0984 J 0.0365
G01 X 23.8466 Y 2.4209 Z -1.0000
G01 X 23.8454 Y 2.4250 Z -1.0000
G03 X 23.8334 Y 2.4411 Z -1.0000 I -0.1357 J -0.0884
G01 X 23.8257 Y 2.4573 Z -1.0000
G01 X 23.8277 Y 2.4711 Z -1.0000
G01 X 23.8260 Y 2.4775 Z -1.0000
G01 X 23.8197 Y 2.4761 Z -1.0000
G01 X 23.8172 Y 2.4842 Z -1.0000
G01 X 23.8167 Y 2.4984 Z -1.0000
G01 X 23.8124 Y 2.5017 Z -1.0000
G01 X 23.8062 Y 2.5042 Z -1.0000
G01 X 23.8007 Y 2.5129 Z -1.0000
G01 X 23.7949 Y 2.5200 Z -1.0000
G01 X 23.7856 Y 2.5212 Z -1.0000
G01 X 23.7664 Y 2.5292 Z -1.0000
G01 X 23.7693 Y 2.5490 Z -1.0000
G01 X 23.7756 Y 2.5521 Z -1.0000
G01 X 23.7791 Y 2.5505 Z -1.0000
G01 X 23.7793 Y 2.5466 Z -1.0000
G01 X 23.7753 Y 2.5429 Z -1.0000
G01 X 23.7857 Y 2.5398 Z -1.0000
G01 X 23.8012 Y 2.5425 Z -1.0000
G01 X 23.8085 Y 2.5488 Z -1.0000
G01 X 23.8141 Y 2.5515 Z -1.0000
G01 X 23.8264 Y 2.5447 Z -1.0000
G01 X 23.8475 Y 2.5716 Z -1.0000
G01 X 23.8433 Y 2.5854 Z -1.0000
G03 X 23.8106 Y 2.6009 Z -1.0000 I -0.0498 J -0.0628
G02 X 23.7954 Y 2.6068 Z -1.0000 I 0.0109 J 0.0510
G01 X 23.7906 Y 2.6124 Z -1.0000
G01 X 23.7863 Y 2.6181 Z -1.0000
G01 X 23.7802 Y 2.6201 Z -1.0000
G01 X 23.7736 Y 2.6220 Z -1.0000
G01 X 23.7634 Y 2.6305 Z -1.0000
G01 X 23.7527 Y 2.6390 Z -1.0000
G03 X 23.7386 Y 2.6443 Z -1.0000 I -0.0254 J -0.0457
G01 X 23.7294 Y 2.6510 Z -1.0000
G01 X 23.7285 Y 2.6615 Z -1.0000
G03 X 23.7320 Y 2.6750 Z -1.0000 I -0.0591 J 0.0226
G01 X 23.7309 Y 2.6782 Z -1.0000
G01 X 23.7280 Y 2.6734 Z -1.0000
G01 X 23.7227 Y 2.6739 Z -1.0000
G01 X 23.7174 Y 2.6738 Z -1.0000
G01 X 23.7151 Y 2.6669 Z -1.0000
G01 X 23.7068 Y 2.6591 Z -1.0000
G01 X 23.7007 Y 2.6603 Z -1.0000
G01 X 23.6970 Y 2.6725 Z -1.0000
G02 X 23.7001 Y 2.6916 Z -1.0000 I 0.0786 J -0.0030
G01 X 23.7049 Y 2.6998 Z -1.0000
G01 X 23.7104 Y 2.7075 Z -1.0000
G01 X 23.7121 Y 2.7148 Z -1.0000
G01 X 23.7030 Y 2.7283 Z -1.0000
G01 X 23.6917 Y 2.7232 Z -1.0000
G01 X 23.6883 Y 2.7179 Z -1.0000
G01 X 23.6787 Y 2.7109 Z -1.0000
G01 X 23.6714 Y 2.7110 Z -1.0000
G01 X 23.6688 Y 2.7148 Z -1.0000
G01 X 23.6582 Y 2.7088 Z -1.0000
G01 X 23.6579 Y 2.7007 Z -1.0000
G01 X 23.6610 Y 2.6989 Z -1.0000
G01 X 23.6609 Y 2.6953 Z -1.0000
G01 X 23.6542 Y 2.6947 Z -1.0000
G01 X 23.6494 Y 2.7082 Z -1.0000
G01 X 23.6467 Y 2.7244 Z -1.0000
G01 X 23.6398 Y 2.7355 Z -1.0000
G01 X 23.6342 Y 2.7442 Z -1.0000
G01 X 23.6277 Y 2.7453 Z -1.0000
G01 X 23.6232 Y 2.7475 Z -1.0000
G02 X 23.6217 Y 2.7671 Z -1.0000 I 0.0503 J 0.0138
G03 X 23.6210 Y 2.7904 Z -1.0000 I -0.0825 J 0.0092
G01 X 23.6165 Y 2.7967 Z -1.0000
G01 X 23.6142 Y 2.8008 Z -1.0000
G01 X 23.6169 Y 2.8044 Z -1.0000
G01 X 23.6414 Y 2.8264 Z -1.0000
G01 X 23.6368 Y 2.8430 Z -1.0000
G01 X 23.6319 Y 2.8435 Z -1.0000
G01 X 23.6205 Y 2.8366 Z -1.0000
G02 X 23.6085 Y 2.8289 Z -1.0000 I -0.0349 J 0.0408
G01 X 23.5987 Y 2.8264 Z -1.0000
G01 X 23.5809 Y 2.8217 Z -1.0000
G01 X 23.5774 Y 2.8161 Z -1.0000
G01 X 23.5753 Y 2.8094 Z -1.0000
G01 X 23.5695 Y 2.8049 Z -1.0000
G01 X 23.5632 Y 2.8004 Z -1.0000
G01 X 23.5583 Y 2.7916 Z -1.0000
G01 X 23.5473 Y 2.7822 Z -1.0000
G01 X 23.5366 Y 2.7884 Z -1.0000
G01 X 23.5362 Y 2.7954 Z -1.0000
G02 X 23.5421 Y 2.8113 Z -1.0000 I 0.0685 J -0.0165
G03 X 23.5493 Y 2.8273 Z -1.0000 I -0.1326 J 0.0686
G01 X 23.5504 Y 2.8332 Z -1.0000
G01 X 23.5568 Y 2.8424 Z -1.0000
G01 X 23.5747 Y 2.8424 Z -1.0000
G01 X 23.5805 Y 2.8425 Z -1.0000
G01 X 23.5828 Y 2.8458 Z -1.0000
G03 X 23.5720 Y 2.8783 Z -1.0000 I -0.0542 J -0.0000
G01 X 23.5611 Y 2.8749 Z -1.0000
G01 X 23.5539 Y 2.8828 Z -1.0000
G01 X 23.5455 Y 2.8873 Z -1.0000
G01 X 23.5315 Y 2.8813 Z -1.0000
G01 X 23.5112 Y 2.8778 Z -1.0000
G01 X 23.5010 Y 2.8945 Z -1.0000
G02 X 23.5051 Y 2.9168 Z -1.0000 I 0.0956 J -0.0063
G01 X 23.5098 Y 2.9225 Z -1.0000
G01 X 23.5149 Y 2.9280 Z -1.0000
G03 X 23.5205 Y 2.9454 Z -1.0000 I -0.0667 J 0.0310
G02 X 23.5270 Y 2.9627 Z -1.0000 I 0.0521 J -0.0098
G02 X 23.5423 Y 2.9820 Z -1.0000 I 0.0808 J -0.0481
G03 X 23.5569 Y 3.0001 Z -1.0000 I -0.0689 J 0.0705
G01 X 23.5569 Y 3.0053 Z -1.0000
G01 X 23.5430 Y 3.0172 Z -1.0000
G01 X 23.5275 Y 3.0189 Z -1.0000
G01 X 23.5243 Y 3.0201 Z -1.0000
G02 X 23.5171 Y 3.0318 Z -1.0000 I 0.0417 J 0.0338
G01 X 23.5083 Y 3.0412 Z -1.0000
G01 X 23.4943 Y 3.0440 Z -1.0000
G01 X 23.4821 Y 3.0464 Z -1.0000
G01 X 23.4794 Y 3.0518 Z -1.0000
G01 X 23.4779 Y 3.0589 Z -1.0000
G01 X 23.4727 Y 3.0619 Z -1.0000
G03 X 23.4317 Y 3.0622 Z -1.0000 I -0.0225 J -0.2799
G01 X 23.4255 Y 3.0587 Z -1.0000
G01 X 23.4215 Y 3.0627 Z -1.0000
G01 X 23.4180 Y 3.0678 Z -1.0000
G01 X 23.4066 Y 3.0687 Z -1.0000
G03 X 23.3920 Y 3.0647 Z -1.0000 I 0.0459 J -0.1959
G01 X 23.3878 Y 3.0629 Z -1.0000
G01 X 23.3830 Y 3.0550 Z -1.0000
G03 X 23.3870 Y 3.0321 Z -1.0000 I 0.0596 J -0.0015
G01 X 23.3980 Y 3.0237 Z -1.0000
G01 X 23.4053 Y 3.0303 Z -1.0000
G01 X 23.4122 Y 3.0236 Z -1.0000
G01 X 23.4152 Y 3.0099 Z -1.0000
G02 X 23.4106 Y 2.9843 Z -1.0000 I -0.0962 J 0.0040
G02 X 23.4004 Y 2.9598 Z -1.0000 I -0.1513 J 0.0488
G01 X 23.3949 Y 2.9538 Z -1.0000
G01 X 23.3911 Y 2.9413 Z -1.0000
G01 X 23.4036 Y 2.9345 Z -1.0000
G01 X 23.4234 Y 2.9288 Z -1.0000
G01 X 23.4322 Y 2.9092 Z -1.0000
G01 X 23.4268 Y 2.8945 Z -1.0000
G01 X 23.4150 Y 2.8891 Z -1.0000
G01 X 23.4124 Y 2.8908 Z -1.0000
G01 X 23.4107 Y 2.8998 Z -1.0000
G01 X 23.4080 Y 2.9079 Z -1.0000
G01 X 23.4026 Y 2.9106 Z -1.0000
G01 X 23.3964 Y 2.9124 Z -1.0000
G01 X 23.3945 Y 2.9160 Z -1.0000
G01 X 23.3929 Y 2.9198 Z -1.0000
G01 X 23.3891 Y 2.9214 Z -1.0000
G01 X 23.3803 Y 2.9126 Z -1.0000
G01 X 23.3895 Y 2.8908 Z -1.0000
G01 X 23.3918 Y 2.8853 Z -1.0000
G01 X 23.3895 Y 2.8813 Z -1.0000
G01 X 23.3858 Y 2.8816 Z -1.0000
G01 X 23.3836 Y 2.8862 Z -1.0000
G01 X 23.3805 Y 2.8907 Z -1.0000
G01 X 23.3705 Y 2.8914 Z -1.0000
G01 X 23.3553 Y 2.8957 Z -1.0000
G01 X 23.3514 Y 2.9110 Z -1.0000
G01 X 23.3523 Y 2.9254 Z -1.0000
G01 X 23.3483 Y 2.9303 Z -1.0000
G01 X 23.3427 Y 2.9348 Z -1.0000
G01 X 23.3404 Y 2.9421 Z -1.0000
G01 X 23.3342 Y 2.9402 Z -1.0000
G02 X 23.3273 Y 2.9304 Z -1.0000 I -0.0495 J 0.0277
G01 X 23.3209 Y 2.9252 Z -1.0000
G01 X 23.3174 Y 2.9198 Z -1.0000
G01 X 23.3189 Y 2.9111 Z -1.0000
G01 X 23.3214 Y 2.9011 Z -1.0000
G02 X 23.3185 Y 2.8813 Z -1.0000 I -0.0804 J 0.0013
G01 X 23.3177 Y 2.8624 Z -1.0000
G01 X 23.3241 Y 2.8507 Z -1.0000
G02 X 23.3334 Y 2.8395 Z -1.0000 I -0.0388 J -0.0415
G01 X 23.3353 Y 2.8329 Z -1.0000
G01 X 23.3381 Y 2.8272 Z -1.0000
G03 X 23.3595 Y 2.8138 Z -1.0000 I 0.0726 J 0.0923
G02 X 23.3813 Y 2.8006 Z -1.0000 I -0.0558 J -0.1162
G01 X 23.3837 Y 2.7956 Z -1.0000
G01 X 23.3938 Y 2.7865 Z -1.0000
G01 X 23.4081 Y 2.7980 Z -1.0000
G01 X 23.4160 Y 2.8059 Z -1.0000
G02 X 23.4443 Y 2.8089 Z -1.0000 I 0.0222 J -0.0739
G01 X 23.4540 Y 2.8149 Z -1.0000
G01 X 23.4529 Y 2.8293 Z -1.0000
G01 X 23.4495 Y 2.8492 Z -1.0000
G01 X 23.4590 Y 2.8569 Z -1.0000
G01 X 23.4626 Y 2.8550 Z -1.0000
G01 X 23.4645 Y 2.8491 Z -1.0000
G01 X 23.4726 Y 2.8236 Z -1.0000
G01 X 23.4917 Y 2.8111 Z -1.0000
G01 X 23.5049 Y 2.8003 Z -1.0000
G02 X 23.5098 Y 2.7707 Z -1.0000 I -0.0533 J -0.0240
G03 X 23.5112 Y 2.7494 Z -1.0000 I 0.0676 J -0.0063
G01 X 23.5166 Y 2.7412 Z -1.0000
G01 X 23.5236 Y 2.7335 Z -1.0000
G01 X 23.5268 Y 2.7244 Z -1.0000
G03 X 23.5283 Y 2.7143 Z -1.0000 I 0.1440 J 0.0166
G03 X 23.5320 Y 2.6965 Z -1.0000 I 0.4995 J 0.0936
G01 X 23.5312 Y 2.6816 Z -1.0000
G01 X 23.5250 Y 2.6758 Z -1.0000
G01 X 23.5162 Y 2.6708 Z -1.0000
G01 X 23.5111 Y 2.6621 Z -1.0000
G01 X 23.5067 Y 2.6553 Z -1.0000
G01 X 23.5023 Y 2.6550 Z -1.0000
G01 X 23.4990 Y 2.6597 Z -1.0000
G01 X 23.4995 Y 2.6686 Z -1.0000
G01 X 23.4978 Y 2.6740 Z -1.0000
G01 X 23.4903 Y 2.6755 Z -1.0000
G01 X 23.4790 Y 2.6709 Z -1.0000
G01 X 23.4713 Y 2.6642 Z -1.0000
G01 X 23.4667 Y 2.6643 Z -1.0000
G01 X 23.4624 Y 2.6764 Z -1.0000
G01 X 23.4591 Y 2.6853 Z -1.0000
G01 X 23.4498 Y 2.6931 Z -1.0000
G02 X 23.4214 Y 2.7132 Z -1.0000 I 0.0507 J 0.1012
G01 X 23.4161 Y 2.7259 Z -1.0000
G01 X 23.4139 Y 2.7310 Z -1.0000
G01 X 23.4084 Y 2.7331 Z -1.0000
G01 X 23.4026 Y 2.7354 Z -1.0000
G01 X 23.3990 Y 2.7420 Z -1.0000
G01 X 23.3948 Y 2.7487 Z -1.0000
G03 X 23.3784 Y 2.7574 Z -1.0000 I -0.0357 J -0.0476
G01 X 23.3630 Y 2.7661 Z -1.0000
G01 X 23.3603 Y 2.7727 Z -1.0000
G01 X 23.3571 Y 2.7788 Z -1.0000
G01 X 23.3408 Y 2.7837 Z -1.0000
G01 X 23.3344 Y 2.7866 Z -1.0000
G01 X 23.3257 Y 2.7990 Z -1.0000
G03 X 23.3174 Y 2.8118 Z -1.0000 I -0.0540 J -0.0260
G01 X 23.3132 Y 2.8138 Z -1.0000
G01 X 23.2987 Y 2.8220 Z -1.0000
G01 X 23.2956 Y 2.8436 Z -1.0000
G01 X 23.2939 Y 2.8506 Z -1.0000
G01 X 23.2888 Y 2.8513 Z -1.0000
G01 X 23.2783 Y 2.8498 Z -1.0000
G02 X 23.2504 Y 2.8621 Z -1.0000 I 0.0298 J 0.1061
G02 X 23.2254 Y 2.8871 Z -1.0000 I 0.0397 J 0.0645
G01 X 23.2291 Y 2.8969 Z -1.0000
G02 X 23.2359 Y 2.8988 Z -1.0000 I 0.0500 J -0.1681
G02 X 23.2500 Y 2.9021 Z -1.0000 I 0.1057 J -0.4158
G01 X 23.2617 Y 2.9077 Z -1.0000
G01 X 23.2669 Y 2.9158 Z -1.0000
G01 X 23.2725 Y 2.9242 Z -1.0000
G02 X 23.2999 Y 2.9412 Z -1.0000 I 0.0985 J -0.1281
G03 X 23.3239 Y 2.9655 Z -1.0000 I -0.0229 J 0.0467
G01 X 23.3188 Y 2.9809 Z -1.0000
G01 X 23.3086 Y 2.9824 Z -1.0000
G01 X 23.3001 Y 2.9771 Z -1.0000
G01 X 23.2927 Y 2.9728 Z -1.0000
G01 X 23.2872 Y 2.9753 Z -1.0000
G01 X 23.2831 Y 2.9837 Z -1.0000
G01 X 23.2817 Y 2.9926 Z -1.0000
G01 X 23.2849 Y 2.9971 Z -1.0000
G01 X 23.2950 Y 2.9968 Z -1.0000
G01 X 23.3055 Y 2.9961 Z -1.0000
G01 X 23.3085 Y 2.9998 Z -1.0000
G01 X 23.3108 Y 3.0063 Z -1.0000
G01 X 23.3179 Y 3.0113 Z -1.0000
G01 X 23.3328 Y 3.0234 Z -1.0000
G01 X 23.3335 Y 3.0370 Z -1.0000
G01 X 23.3122 Y 3.0553 Z -1.0000
G01 X 23.2899 Y 3.0501 Z -1.0000
G01 X 23.2893 Y 3.0470 Z -1.0000
G01 X 23.2919 Y 3.0453 Z -1.0000
G01 X 23.2923 Y 3.0372 Z -1.0000
G01 X 23.2753 Y 3.0285 Z -1.0000
G01 X 23.2622 Y 3.0353 Z -1.0000
G01 X 23.2617 Y 3.0408 Z -1.0000
G01 X 23.2673 Y 3.0480 Z -1.0000
G01 X 23.2750 Y 3.0609 Z -1.0000
G01 X 23.2698 Y 3.0668 Z -1.0000
G01 X 23.2735 Y 3.0742 Z -1.0000
G01 X 23.2757 Y 3.0803 Z -1.0000
G01 X 23.2707 Y 3.0856 Z -1.0000
G01 X 23.2593 Y 3.0869 Z -1.0000
G01 X 23.2561 Y 3.0844 Z -1.0000
G01 X 23.2537 Y 3.0794 Z -1.0000
G02 X 23.2468 Y 3.0689 Z -1.0000 I -0.1215 J 0.0732
G01 X 23.2404 Y 3.0659 Z -1.0000
G01 X 23.2357 Y 3.0695 Z -1.0000
G03 X 23.2199 Y 3.0991 Z -1.0000 I -0.0930 J -0.0308
G01 X 23.2092 Y 3.1034 Z -1.0000
G01 X 23.2013 Y 3.0990 Z -1.0000
G01 X 23.1975 Y 3.0893 Z -1.0000
G01 X 23.1951 Y 3.0776 Z -1.0000
G01 X 23.1908 Y 3.0708 Z -1.0000
G01 X 23.1847 Y 3.0816 Z -1.0000
G03 X 23.1827 Y 3.0974 Z -1.0000 I -0.0641 J 0.0000
G01 X 23.1796 Y 3.1016 Z -1.0000
G01 X 23.1764 Y 3.1060 Z -1.0000
G02 X 23.1708 Y 3.1369 Z -1.0000 I 0.2299 J 0.0576
G03 X 23.1651 Y 3.1667 Z -1.0000 I -0.1997 J -0.0226
G01 X 23.1621 Y 3.1691 Z -1.0000
G01 X 23.1605 Y 3.1798 Z -1.0000
G01 X 23.1604 Y 3.1880 Z -1.0000
G01 X 23.1567 Y 3.1906 Z -1.0000
G01 X 23.1528 Y 3.1875 Z -1.0000
G03 X 23.1515 Y 3.1691 Z -1.0000 I 0.0539 J -0.0131
G02 X 23.1500 Y 3.1508 Z -1.0000 I -0.0524 J -0.0049
G01 X 23.1458 Y 3.1475 Z -1.0000
G01 X 23.1385 Y 3.1487 Z -1.0000
G01 X 23.1340 Y 3.1515 Z -1.0000
G01 X 23.1297 Y 3.1549 Z -1.0000
G01 X 23.1264 Y 3.1560 Z -1.0000
G01 X 23.1105 Y 3.1645 Z -1.0000
G01 X 23.1073 Y 3.1777 Z -1.0000
G01 X 23.1040 Y 3.1843 Z -1.0000
G01 X 23.0954 Y 3.1827 Z -1.0000
G01 X 23.0870 Y 3.1776 Z -1.0000
G01 X 23.0796 Y 3.1779 Z -1.0000
G01 X 23.0499 Y 3.1781 Z -1.0000
G01 X 23.0395 Y 3.1631 Z -1.0000
G01 X 23.0314 Y 3.1616 Z -1.0000
G01 X 23.0258 Y 3.1663 Z -1.0000
G01 X 23.0233 Y 3.1754 Z -1.0000
G01 X 23.0204 Y 3.1821 Z -1.0000
G01 X 23.0154 Y 3.1831 Z -1.0000
G01 X 23.0083 Y 3.1824 Z -1.0000
G01 X 23.0045 Y 3.1848 Z -1.0000
G01 X 23.0131 Y 3.1913 Z -1.0000
G01 X 23.0173 Y 3.1959 Z -1.0000
G01 X 23.0139 Y 3.2062 Z -1.0000
G01 X 23.0040 Y 3.2112 Z -1.0000
G01 X 22.9967 Y 3.2071 Z -1.0000
G01 X 22.9921 Y 3.1948 Z -1.0000
G01 X 22.9925 Y 3.1886 Z -1.0000
G01 X 22.9933 Y 3.1823 Z -1.0000
G01 X 22.9906 Y 3.1715 Z -1.0000
G01 X 22.9860 Y 3.1690 Z -1.0000
G01 X 22.9838 Y 3.1763 Z -1.0000
G01 X 22.9754 Y 3.1861 Z -1.0000
G01 X 22.9698 Y 3.1961 Z -1.0000
G01 X 22.9714 Y 3.2128 Z -1.0000
G02 X 22.9782 Y 3.2305 Z -1.0000 I 0.2925 J -0.1034
G01 X 22.9817 Y 3.2370 Z -1.0000
G01 X 22.9817 Y 3.2522 Z -1.0000
G01 X 22.9668 Y 3.2604 Z -1.0000
G01 X 22.9476 Y 3.2500 Z -1.0000
G03 X 22.9372 Y 3.2155 Z -1.0000 I 0.0523 J -0.0345
G01 X 22.9315 Y 3.2060 Z -1.0000
G01 X 22.9184 Y 3.2057 Z -1.0000
G02 X 22.9019 Y 3.2158 Z -1.0000 I 0.0318 J 0.0700
G01 X 22.8995 Y 3.2208 Z -1.0000
G01 X 22.8972 Y 3.2260 Z -1.0000
G03 X 22.8785 Y 3.2393 Z -1.0000 I -0.0733 J -0.0837
G02 X 22.8617 Y 3.2528 Z -1.0000 I 0.0314 J 0.0561
G01 X 22.8603 Y 3.2598 Z -1.0000
G01 X 22.8542 Y 3.2564 Z -1.0000
G01 X 22.8438 Y 3.2469 Z -1.0000
G01 X 22.8347 Y 3.2443 Z -1.0000
G01 X 22.8273 Y 3.2412 Z -1.0000
G01 X 22.8242 Y 3.2335 Z -1.0000
G01 X 22.8162 Y 3.2260 Z -1.0000
G01 X 22.8051 Y 3.2348 Z -1.0000
G03 X 22.8004 Y 3.2464 Z -1.0000 I -0.0633 J -0.0189
G01 X 22.7947 Y 3.2550 Z -1.0000
G01 X 22.7895 Y 3.2692 Z -1.0000
G02 X 22.7946 Y 3.2942 Z -1.0000 I 0.0638 J 0.0001
G01 X 22.7955 Y 3.3034 Z -1.0000
G01 X 22.7911 Y 3.3130 Z -1.0000
G02 X 22.7841 Y 3.3227 Z -1.0000 I 0.0708 J 0.0583
G02 X 22.7760 Y 3.3370 Z -1.0000 I 0.1488 J 0.0931
G01 X 22.7659 Y 3.3474 Z -1.0000
G01 X 22.7479 Y 3.3518 Z -1.0000
G02 X 22.7220 Y 3.3572 Z -1.0000 I 0.0000 J 0.0661
G02 X 22.6880 Y 3.3774 Z -1.0000 I 0.0583 J 0.1366
G03 X 22.6723 Y 3.3882 Z -1.0000 I -0.0819 J -0.1027
G01 X 22.6673 Y 3.3895 Z -1.0000
G01 X 22.6501 Y 3.3975 Z -1.0000
G01 X 22.6415 Y 3.4199 Z -1.0000
G01 X 22.6397 Y 3.4254 Z -1.0000
G03 X 22.6257 Y 3.4428 Z -1.0000 I -0.1248 J -0.0862
G03 X 22.5979 Y 3.4591 Z -1.0000 I -0.0416 J -0.0389
G01 X 22.5859 Y 3.4528 Z -1.0000
G01 X 22.5825 Y 3.4502 Z -1.0000
G01 X 22.5767 Y 3.4523 Z -1.0000
G01 X 22.5695 Y 3.4563 Z -1.0000
G01 X 22.5632 Y 3.4560 Z -1.0000
G01 X 22.5572 Y 3.4565 Z -1.0000
G01 X 22.5484 Y 3.4646 Z -1.0000
G01 X 22.5394 Y 3.4722 Z -1.0000
G01 X 22.5317 Y 3.4725 Z -1.0000
G01 X 22.5228 Y 3.4737 Z -1.0000
G01 X 22.5142 Y 3.4953 Z -1.0000
G03 X 22.4841 Y 3.5146 Z -1.0000 I -0.0536 J -0.0507
G01 X 22.4815 Y 3.5182 Z -1.0000
G01 X 22.4841 Y 3.5254 Z -1.0000
G01 X 22.4853 Y 3.5322 Z -1.0000
G01 X 22.4797 Y 3.5375 Z -1.0000
G02 X 22.4387 Y 3.5575 Z -1.0000 I 0.0466 J 0.1478
G01 X 22.4316 Y 3.5705 Z -1.0000
G01 X 22.4193 Y 3.5841 Z -1.0000
G03 X 22.3823 Y 3.5776 Z -1.0000 I -0.0086 J -0.0598
G01 X 22.3593 Y 3.5779 Z -1.0000
G01 X 22.3567 Y 3.5922 Z -1.0000
G01 X 22.3603 Y 3.5991 Z -1.0000
G01 X 22.3596 Y 3.6033 Z -1.0000
G01 X 22.3240 Y 3.6219 Z -1.0000
G01 X 22.2859 Y 3.5993 Z -1.0000
G01 X 22.2805 Y 3.6001 Z -1.0000
G02 X 22.2730 Y 3.6474 Z -1.0000 I 0.2219 J 0.0595
G01 X 22.2653 Y 3.6536 Z -1.0000
G01 X 22.2489 Y 3.6432 Z -1.0000
G01 X 22.2421 Y 3.6288 Z -1.0000
G01 X 22.2440 Y 3.6252 Z -1.0000
G01 X 22.2479 Y 3.6211 Z -1.0000
G02 X 22.2516 Y 3.6009 Z -1.0000 I -0.0756 J -0.0241
G01 X 22.2475 Y 3.5821 Z -1.0000
G01 X 22.2368 Y 3.5722 Z -1.0000
G01 X 22.2216 Y 3.5690 Z -1.0000
G01 X 22.2148 Y 3.5718 Z -1.0000
G01 X 22.2078 Y 3.5760 Z -1.0000
G01 X 22.1937 Y 3.5780 Z -1.0000
G01 X 22.1713 Y 3.5892 Z -1.0000
G01 X 22.1752 Y 3.6027 Z -1.0000
G01 X 22.1795 Y 3.6075 Z -1.0000
G01 X 22.1789 Y 3.6175 Z -1.0000
G01 X 22.1836 Y 3.6349 Z -1.0000
G01 X 22.1976 Y 3.6332 Z -1.0000
G01 X 22.2049 Y 3.6334 Z -1.0000
G01 X 22.2054 Y 3.6453 Z -1.0000
G01 X 22.1964 Y 3.6555 Z -1.0000
G01 X 22.1863 Y 3.6587 Z -1.0000
G01 X 22.1759 Y 3.6617 Z -1.0000
G01 X 22.1661 Y 3.6713 Z -1.0000
G01 X 22.1562 Y 3.6819 Z -1.0000
G03 X 22.1399 Y 3.6911 Z -1.0000 I -0.0423 J -0.0561
G02 X 22.1165 Y 3.7078 Z -1.0000 I 0.0221 J 0.0557
G01 X 22.1142 Y 3.7212 Z -1.0000
G01 X 22.1137 Y 3.7319 Z -1.0000
G01 X 22.1054 Y 3.7396 Z -1.0000
G01 X 22.0884 Y 3.7389 Z -1.0000
G01 X 22.0817 Y 3.7283 Z -1.0000
G01 X 22.0762 Y 3.7206 Z -1.0000
G01 X 22.0682 Y 3.7233 Z -1.0000
G01 X 22.0642 Y 3.7264 Z -1.0000
G01 X 22.0602 Y 3.7259 Z -1.0000
G01 X 22.0565 Y 3.7264 Z -1.0000
G02 X 22.0475 Y 3.7393 Z -1.0000 I 0.0385 J 0.0366
G01 X 22.0430 Y 3.7544 Z -1.0000
G01 X 22.0453 Y 3.7590 Z -1.0000
G01 X 22.0441 Y 3.7685 Z -1.0000
G01 X 22.0150 Y 3.7683 Z -1.0000
G01 X 22.0111 Y 3.7698 Z -1.0000
G01 X 22.0115 Y 3.7741 Z -1.0000
G01 X 22.0139 Y 3.7829 Z -1.0000
G01 X 22.0090 Y 3.7911 Z -1.0000
G01 X 21.9982 Y 3.7959 Z -1.0000
G01 X 21.9886 Y 3.7954 Z -1.0000
G01 X 21.9808 Y 3.7963 Z -1.0000
G01 X 21.9757 Y 3.8031 Z -1.0000
G01 X 21.9651 Y 3.8145 Z -1.0000
G01 X 21.9578 Y 3.8092 Z -1.0000
G01 X 21.9552 Y 3.8011 Z -1.0000
G01 X 21.9503 Y 3.7986 Z -1.0000
G01 X 21.9454 Y 3.8010 Z -1.0000
G01 X 21.9436 Y 3.8072 Z -1.0000
G01 X 21.9406 Y 3.8134 Z -1.0000
G03 X 21.9198 Y 3.8238 Z -1.0000 I -0.0452 J -0.0649
G02 X 21.8978 Y 3.8344 Z -1.0000 I 0.0285 J 0.0871
G01 X 21.8902 Y 3.8434 Z -1.0000
G01 X 21.8827 Y 3.8510 Z -1.0000
G01 X 21.8682 Y 3.8534 Z -1.0000
G02 X 21.8524 Y 3.8541 Z -1.0000 I -0.0054 J 0.0537
G01 X 21.8477 Y 3.8574 Z -1.0000
G01 X 21.8392 Y 3.8611 Z -1.0000
G01 X 21.8359 Y 3.8551 Z -1.0000
G01 X 21.8344 Y 3.8470 Z -1.0000
G01 X 21.8302 Y 3.8201 Z -1.0000
G01 X 21.8395 Y 3.8024 Z -1.0000
G01 X 21.8521 Y 3.8045 Z -1.0000
G01 X 21.8646 Y 3.8101 Z -1.0000
G01 X 21.8716 Y 3.8022 Z -1.0000
G01 X 21.8736 Y 3.7968 Z -1.0000
G01 X 21.8829 Y 3.7888 Z -1.0000
G01 X 21.8907 Y 3.7806 Z -1.0000
G01 X 21.8912 Y 3.7743 Z -1.0000
G01 X 21.8919 Y 3.7704 Z -1.0000
G01 X 21.8956 Y 3.7696 Z -1.0000
G01 X 21.9043 Y 3.7666 Z -1.0000
G02 X 21.9116 Y 3.7432 Z -1.0000 I -0.0437 J -0.0266
G01 X 21.9180 Y 3.7345 Z -1.0000
G03 X 21.9489 Y 3.7287 Z -1.0000 I 0.0312 J 0.0803
G01 X 21.9642 Y 3.7243 Z -1.0000
G01 X 21.9668 Y 3.7178 Z -1.0000
G01 X 21.9698 Y 3.7108 Z -1.0000
G01 X 21.9898 Y 3.7049 Z -1.0000
G01 X 22.0085 Y 3.6865 Z -1.0000
G01 X 21.9928 Y 3.6694 Z -1.0000
G01 X 21.9862 Y 3.6715 Z -1.0000
G01 X 21.9797 Y 3.6788 Z -1.0000
G01 X 21.9731 Y 3.6833 Z -1.0000
G01 X 21.9633 Y 3.6814 Z -1.0000
G01 X 21.9518 Y 3.6784 Z -1.0000
G02 X 21.9327 Y 3.6827 Z -1.0000 I 0.0025 J 0.0566
G03 X 21.9129 Y 3.6891 Z -1.0000 I -0.0487 J -0.1158
G03 X 21.8988 Y 3.6908 Z -1.0000 I -0.0141 J -0.0597
G01 X 21.8850 Y 3.6927 Z -1.0000
G01 X 21.8758 Y 3.6975 Z -1.0000
G02 X 21.8587 Y 3.7198 Z -1.0000 I 0.0357 J 0.0452
G02 X 21.8490 Y 3.7593 Z -1.0000 I 0.1111 J 0.0482
G01 X 21.8424 Y 3.7714 Z -1.0000
G01 X 21.8220 Y 3.7656 Z -1.0000
G01 X 21.7960 Y 3.7824 Z -1.0000
G03 X 21.7825 Y 3.7954 Z -1.0000 I -0.0501 J -0.0384
G01 X 21.7767 Y 3.7962 Z -1.0000
G01 X 21.7721 Y 3.7972 Z -1.0000
G01 X 21.7682 Y 3.8054 Z -1.0000
G01 X 21.7625 Y 3.8125 Z -1.0000
G03 X 21.7383 Y 3.8169 Z -1.0000 I -0.0235 J -0.0613
G01 X 21.7167 Y 3.8209 Z -1.0000
G01 X 21.7176 Y 3.8244 Z -1.0000
G01 X 21.7127 Y 3.8283 Z -1.0000
G01 X 21.7034 Y 3.8334 Z -1.0000
G02 X 21.6885 Y 3.8496 Z -1.0000 I 0.0675 J 0.0767
G03 X 21.6730 Y 3.8639 Z -1.0000 I -0.0438 J -0.0321
G01 X 21.6582 Y 3.8681 Z -1.0000
G01 X 21.6431 Y 3.8711 Z -1.0000
G01 X 21.6383 Y 3.8759 Z -1.0000
G01 X 21.6337 Y 3.8820 Z -1.0000
G03 X 21.6156 Y 3.8930 Z -1.0000 I -0.0635 J -0.0845
G01 X 21.6026 Y 3.9062 Z -1.0000
G01 X 21.5982 Y 3.9310 Z -1.0000
G03 X 21.5980 Y 3.9573 Z -1.0000 I -0.1420 J 0.0120
G01 X 21.5953 Y 3.9597 Z -1.0000
G01 X 21.5908 Y 3.9613 Z -1.0000
G01 X 21.5832 Y 3.9691 Z -1.0000
G01 X 21.5758 Y 3.9737 Z -1.0000
G01 X 21.5691 Y 3.9715 Z -1.0000
G01 X 21.5671 Y 3.9652 Z -1.0000
G01 X 21.5714 Y 3.9592 Z -1.0000
G01 X 21.5793 Y 3.9530 Z -1.0000
G01 X 21.5808 Y 3.9492 Z -1.0000
G01 X 21.5724 Y 3.9428 Z -1.0000
G02 X 21.5211 Y 3.9655 Z -1.0000 I 0.0501 J 0.1821
G03 X 21.4960 Y 3.9798 Z -1.0000 I -0.1597 J -0.2522
G01 X 21.4899 Y 3.9812 Z -1.0000
G01 X 21.4842 Y 3.9831 Z -1.0000
G02 X 21.4700 Y 3.9957 Z -1.0000 I 0.0570 J 0.0785
G01 X 21.4556 Y 4.0033 Z -1.0000
G01 X 21.4398 Y 4.0002 Z -1.0000
G01 X 21.4241 Y 3.9967 Z -1.0000
G01 X 21.4131 Y 4.0025 Z -1.0000
G02 X 21.4047 Y 4.0152 Z -1.0000 I 0.0630 J 0.0508
G01 X 21.4033 Y 4.0208 Z -1.0000
G01 X 21.4081 Y 4.0195 Z -1.0000
G01 X 21.4185 Y 4.0188 Z -1.0000
G01 X 21.4277 Y 4.0420 Z -1.0000
G03 X 21.4255 Y 4.0641 Z -1.0000 I -0.0776 J 0.0033
G01 X 21.4214 Y 4.0673 Z -1.0000
G01 X 21.4165 Y 4.0713 Z -1.0000
G01 X 21.4184 Y 4.0820 Z -1.0000
G01 X 21.4239 Y 4.0851 Z -1.0000
G02 X 21.4437 Y 4.0827 Z -1.0000 I 0.0021 J -0.0667
G03 X 21.4631 Y 4.0802 Z -1.0000 I 0.0191 J 0.0696
G01 X 21.4668 Y 4.0829 Z -1.0000
G01 X 21.4757 Y 4.0888 Z -1.0000
G01 X 21.4986 Y 4.0808 Z -1.0000
G01 X 21.5097 Y 4.0774 Z -1.0000
G01 X 21.5186 Y 4.0811 Z -1.0000
G01 X 21.5238 Y 4.0818 Z -1.0000
G01 X 21.5271 Y 4.0761 Z -1.0000
G01 X 21.5252 Y 4.0637 Z -1.0000
G01 X 21.5217 Y 4.0593 Z -1.0000
G01 X 21.5183 Y 4.0549 Z -1.0000
G03 X 21.5163 Y 4.0407 Z -1.0000 I 0.0492 J -0.0141
G01 X 21.5135 Y 4.0274 Z -1.0000
G01 X 21.5083 Y 4.0224 Z -1.0000
G01 X 21.5037 Y 4.0114 Z -1.0000
G01 X 21.5170 Y 4.0028 Z -1.0000
G01 X 21.5257 Y 4.0052 Z -1.0000
G01 X 21.5305 Y 4.0109 Z -1.0000
G01 X 21.5345 Y 4.0128 Z -1.0000
G01 X 21.5436 Y 4.0062 Z -1.0000
G03 X 21.5671 Y 3.9889 Z -1.0000 I 0.0429 J 0.0337
G01 X 21.5786 Y 3.9929 Z -1.0000
G01 X 21.5823 Y 3.9948 Z -1.0000
G01 X 21.5887 Y 3.9923 Z -1.0000
G01 X 21.5964 Y 3.9885 Z -1.0000
G03 X 21.6218 Y 3.9855 Z -1.0000 I 0.0322 J 0.1594
G02 X 21.6466 Y 3.9816 Z -1.0000 I -0.0043 J -0.1095
G01 X 21.6540 Y 3.9766 Z -1.0000
G01 X 21.6683 Y 3.9730 Z -1.0000
G01 X 21.6785 Y 3.9878 Z -1.0000
G02 X 21.6794 Y 4.0001 Z -1.0000 I 1.5556 J -0.1032
G02 X 21.6799 Y 4.0072 Z -1.0000 I 3.1633 J -0.2350
G01 X 21.6823 Y 4.0132 Z -1.0000
G01 X 21.6898 Y 4.0196 Z -1.0000
G01 X 21.6976 Y 4.0257 Z -1.0000
G01 X 21.6992 Y 4.0299 Z -1.0000
G01 X 21.6915 Y 4.0365 Z -1.0000
G01 X 21.6795 Y 4.0266 Z -1.0000
G01 X 21.6749 Y 4.0215 Z -1.0000
G01 X 21.6689 Y 4.0211 Z -1.0000
G01 X 21.6615 Y 4.0195 Z -1.0000
G01 X 21.6493 Y 4.0115 Z -1.0000
G01 X 21.6314 Y 4.0327 Z -1.0000
G01 X 21.6257 Y 4.0425 Z -1.0000
G01 X 21.6166 Y 4.0469 Z -1.0000
G01 X 21.6086 Y 4.0517 Z -1.0000
G01 X 21.6045 Y 4.0635 Z -1.0000
G01 X 21.5979 Y 4.0779 Z -1.0000
G01 X 21.5889 Y 4.0782 Z -1.0000
G01 X 21.5811 Y 4.0785 Z -1.0000
G01 X 21.5808 Y 4.0863 Z -1.0000
G01 X 21.5800 Y 4.0947 Z -1.0000
G01 X 21.5597 Y 4.1036 Z -1.0000
G01 X 21.5416 Y 4.1019 Z -1.0000
G01 X 21.5375 Y 4.0964 Z -1.0000
G01 X 21.5261 Y 4.0997 Z -1.0000
G03 X 21.5141 Y 4.1110 Z -1.0000 I -0.0562 J -0.0471
G01 X 21.5101 Y 4.1118 Z -1.0000
G01 X 21.5068 Y 4.1123 Z -1.0000
G01 X 21.5054 Y 4.1151 Z -1.0000
G01 X 21.4955 Y 4.1360 Z -1.0000
G03 X 21.4525 Y 4.1584 Z -1.0000 I -0.0751 J -0.0918
G02 X 21.4338 Y 4.1673 Z -1.0000 I 0.0170 J 0.0599
G01 X 21.4322 Y 4.1726 Z -1.0000
G01 X 21.4325 Y 4.1788 Z -1.0000
G01 X 21.4300 Y 4.1810 Z -1.0000
G02 X 21.4248 Y 4.1819 Z -1.0000 I 0.0100 J 0.0782
G02 X 21.4194 Y 4.1830 Z -1.0000 I 0.0292 J 0.1491
G03 X 21.4140 Y 4.1842 Z -1.0000 I -0.0237 J -0.0961
G03 X 21.4090 Y 4.1850 Z -1.0000 I -0.0214 J -0.1140
G01 X 21.4056 Y 4.1874 Z -1.0000
G01 X 21.4023 Y 4.1976 Z -1.0000
G01 X 21.3971 Y 4.2064 Z -1.0000
G01 X 21.3805 Y 4.2143 Z -1.0000
G02 X 21.3620 Y 4.2218 Z -1.0000 I 0.0147 J 0.0627
G02 X 21.3400 Y 4.2387 Z -1.0000 I 0.0643 J 0.1066
G03 X 21.3187 Y 4.2571 Z -1.0000 I -0.1866 J -0.1940
G03 X 21.3049 Y 4.2660 Z -1.0000 I -0.0557 J -0.0716
G01 X 21.2926 Y 4.2751 Z -1.0000
G01 X 21.2902 Y 4.2808 Z -1.0000
G01 X 21.2846 Y 4.2855 Z -1.0000
G01 X 21.2702 Y 4.2772 Z -1.0000
G01 X 21.2556 Y 4.2729 Z -1.0000
G01 X 21.2450 Y 4.2847 Z -1.0000
G01 X 21.2344 Y 4.3051 Z -1.0000
G01 X 21.2138 Y 4.3168 Z -1.0000
G01 X 21.2002 Y 4.3222 Z -1.0000
G02 X 21.1849 Y 4.3336 Z -1.0000 I 0.0445 J 0.0763
G03 X 21.1702 Y 4.3438 Z -1.0000 I -0.0448 J -0.0485
G01 X 21.1652 Y 4.3436 Z -1.0000
G01 X 21.1635 Y 4.3518 Z -1.0000
G01 X 21.1625 Y 4.3610 Z -1.0000
G01 X 21.1539 Y 4.3683 Z -1.0000
G02 X 21.1202 Y 4.3893 Z -1.0000 I 0.0374 J 0.0979
G01 X 21.1126 Y 4.4066 Z -1.0000
G01 X 21.1079 Y 4.4109 Z -1.0000
G03 X 21.0838 Y 4.4037 Z -1.0000 I 0.0066 J -0.0661
G01 X 21.0688 Y 4.4007 Z -1.0000
G01 X 21.0533 Y 4.4064 Z -1.0000
G03 X 21.0283 Y 4.4172 Z -1.0000 I -0.0376 J -0.0528
G01 X 21.0195 Y 4.4131 Z -1.0000
G01 X 21.0177 Y 4.4089 Z -1.0000
G03 X 21.0139 Y 4.3949 Z -1.0000 I 0.1779 J -0.0560
G01 X 21.0149 Y 4.3833 Z -1.0000
G01 X 21.0212 Y 4.3779 Z -1.0000
G01 X 21.0292 Y 4.3730 Z -1.0000
G01 X 21.0319 Y 4.3659 Z -1.0000
G02 X 21.0121 Y 4.3207 Z -1.0000 I -0.0615 J -0.0000
G01 X 20.9895 Y 4.3268 Z -1.0000
G01 X 20.9866 Y 4.3333 Z -1.0000
G03 X 20.9806 Y 4.3418 Z -1.0000 I -0.0558 J -0.0331
G01 X 20.9765 Y 4.3507 Z -1.0000
G02 X 20.9743 Y 4.3794 Z -1.0000 I 0.1627 J 0.0267
G03 X 20.9626 Y 4.4306 Z -1.0000 I -0.1087 J 0.0018
G01 X 20.9410 Y 4.4451 Z -1.0000
G01 X 20.9262 Y 4.4555 Z -1.0000
G01 X 20.9242 Y 4.4816 Z -1.0000
G01 X 20.9228 Y 4.4933 Z -1.0000
G01 X 20.9144 Y 4.4989 Z -1.0000
G01 X 20.9028 Y 4.5034 Z -1.0000
G01 X 20.8982 Y 4.5107 Z -1.0000
G01 X 20.9005 Y 4.5163 Z -1.0000
G01 X 20.9089 Y 4.5177 Z -1.0000
G01 X 20.9046 Y 4.5290 Z -1.0000
G02 X 20.8896 Y 4.5448 Z -1.0000 I 0.0705 J 0.0819
G01 X 20.8840 Y 4.5557 Z -1.0000
G01 X 20.8694 Y 4.5678 Z -1.0000
G01 X 20.8486 Y 4.5593 Z -1.0000
G01 X 20.8452 Y 4.5505 Z -1.0000
G01 X 20.8479 Y 4.5405 Z -1.0000
G01 X 20.8528 Y 4.5299 Z -1.0000
G01 X 20.8543 Y 4.5194 Z -1.0000
G01 X 20.8594 Y 4.5109 Z -1.0000
G01 X 20.8765 Y 4.5077 Z -1.0000
G01 X 20.9015 Y 4.4930 Z -1.0000
G01 X 20.8951 Y 4.4615 Z -1.0000
G01 X 20.8903 Y 4.4593 Z -1.0000
G02 X 20.8525 Y 4.4575 Z -1.0000 I -0.0378 J 0.4020
G02 X 20.8158 Y 4.4619 Z -1.0000 I 0.0000 J 0.1551
G01 X 20.8019 Y 4.4699 Z -1.0000
G01 X 20.7924 Y 4.4833 Z -1.0000
G01 X 20.7897 Y 4.4954 Z -1.0000
G01 X 20.7871 Y 4.5054 Z -1.0000
G01 X 20.7830 Y 4.5072 Z -1.0000
G01 X 20.7760 Y 4.5142 Z -1.0000
G01 X 20.7880 Y 4.5338 Z -1.0000
G01 X 20.7968 Y 4.5371 Z -1.0000
G01 X 20.8089 Y 4.5354 Z -1.0000
G01 X 20.8119 Y 4.5398 Z -1.0000
G03 X 20.7924 Y 4.5535 Z -1.0000 I -0.0405 J -0.0368
G01 X 20.7754 Y 4.5707 Z -1.0000
G01 X 20.7790 Y 4.5866 Z -1.0000
G03 X 20.7880 Y 4.5972 Z -1.0000 I -0.0376 J 0.0411
G01 X 20.7898 Y 4.6032 Z -1.0000
G01 X 20.7916 Y 4.6087 Z -1.0000
G01 X 20.7965 Y 4.6127 Z -1.0000
G01 X 20.7905 Y 4.6158 Z -1.0000
G01 X 20.7842 Y 4.6191 Z -1.0000
G01 X 20.7844 Y 4.6243 Z -1.0000
G01 X 20.7857 Y 4.6298 Z -1.0000
G01 X 20.7824 Y 4.6324 Z -1.0000
G01 X 20.7755 Y 4.6342 Z -1.0000
G01 X 20.7737 Y 4.6372 Z -1.0000
G01 X 20.7624 Y 4.6642 Z -1.0000
G01 X 20.7350 Y 4.6754 Z -1.0000
G01 X 20.7281 Y 4.6769 Z -1.0000
G01 X 20.7207 Y 4.6821 Z -1.0000
G01 X 20.7122 Y 4.6873 Z -1.0000
G03 X 20.6930 Y 4.6908 Z -1.0000 I -0.0239 J -0.0759
G01 X 20.6859 Y 4.6949 Z -1.0000
G01 X 20.6822 Y 4.7066 Z -1.0000
G03 X 20.6802 Y 4.7208 Z -1.0000 I -0.0508 J -0.0000
G01 X 20.6760 Y 4.7279 Z -1.0000
G01 X 20.6735 Y 4.7342 Z -1.0000
G01 X 20.6766 Y 4.7423 Z -1.0000
G01 X 20.6811 Y 4.7605 Z -1.0000
G01 X 20.6719 Y 4.7644 Z -1.0000
G01 X 20.6669 Y 4.7638 Z -1.0000
G02 X 20.6490 Y 4.7721 Z -1.0000 I 0.0272 J 0.0820
G03 X 20.6310 Y 4.7824 Z -1.0000 I -0.2319 J -0.3852
G03 X 20.6194 Y 4.7880 Z -1.0000 I -0.0766 J -0.1418
G01 X 20.6119 Y 4.7958 Z -1.0000
G01 X 20.6094 Y 4.8123 Z -1.0000
G01 X 20.6057 Y 4.8256 Z -1.0000
G01 X 20.6000 Y 4.8247 Z -1.0000
G01 X 20.5964 Y 4.8230 Z -1.0000
G01 X 20.5840 Y 4.8305 Z -1.0000
G01 X 20.5698 Y 4.8371 Z -1.0000
G01 X 20.5563 Y 4.8339 Z -1.0000
G01 X 20.5424 Y 4.8304 Z -1.0000
G01 X 20.5507 Y 4.8445 Z -1.0000
G02 X 20.5835 Y 4.8529 Z -1.0000 I 0.0328 J -0.0598
G01 X 20.5850 Y 4.8578 Z -1.0000
G03 X 20.5550 Y 4.8718 Z -1.0000 I -0.0627 J -0.0950
G02 X 20.5207 Y 4.8852 Z -1.0000 I 0.0658 J 0.2192
G02 X 20.5026 Y 4.8972 Z -1.0000 I 0.0354 J 0.0729
G03 X 20.4849 Y 4.9094 Z -1.0000 I -0.0590 J -0.0670
G01 X 20.4742 Y 4.9120 Z -1.0000
G01 X 20.4641 Y 4.9143 Z -1.0000
G01 X 20.4605 Y 4.9182 Z -1.0000
G01 X 20.4373 Y 4.9296 Z -1.0000
G01 X 20.4186 Y 4.9032 Z -1.0000
G01 X 20.4051 Y 4.9112 Z -1.0000
G01 X 20.3989 Y 4.9332 Z -1.0000
G01 X 20.4108 Y 4.9489 Z -1.0000
G01 X 20.4188 Y 4.9624 Z -1.0000
G01 X 20.4092 Y 4.9703 Z -1.0000
G01 X 20.3976 Y 4.9654 Z -1.0000
G01 X 20.3927 Y 4.9565 Z -1.0000
G01 X 20.3887 Y 4.9470 Z -1.0000
G01 X 20.3833 Y 4.9444 Z -1.0000
G01 X 20.3773 Y 4.9427 Z -1.0000
G01 X 20.3756 Y 4.9395 Z -1.0000
G01 X 20.3750 Y 4.9347 Z -1.0000
G02 X 20.3720 Y 4.9251 Z -1.0000 I -0.0776 J 0.0192
G01 X 20.3729 Y 4.9202 Z -1.0000
G01 X 20.3774 Y 4.9191 Z -1.0000
G01 X 20.3823 Y 4.9161 Z -1.0000
G01 X 20.3784 Y 4.9068 Z -1.0000
G01 X 20.3722 Y 4.9074 Z -1.0000
G02 X 20.3618 Y 4.9269 Z -1.0000 I 0.0435 J 0.0357
G01 X 20.3623 Y 4.9318 Z -1.0000
G01 X 20.3653 Y 4.9336 Z -1.0000
G01 X 20.3678 Y 4.9354 Z -1.0000
G01 X 20.3673 Y 4.9393 Z -1.0000
G01 X 20.3666 Y 4.9448 Z -1.0000
G01 X 20.3714 Y 4.9541 Z -1.0000
G01 X 20.3769 Y 4.9641 Z -1.0000
G03 X 20.3803 Y 4.9822 Z -1.0000 I -0.0735 J 0.0233
G01 X 20.3759 Y 4.9978 Z -1.0000
G01 X 20.3598 Y 5.0109 Z -1.0000
G02 X 20.3408 Y 5.0223 Z -1.0000 I 0.0355 J 0.0805
G01 X 20.3380 Y 5.0281 Z -1.0000
G01 X 20.3352 Y 5.0339 Z -1.0000
G03 X 20.3192 Y 5.0436 Z -1.0000 I -0.0412 J -0.0504
G02 X 20.3029 Y 5.0532 Z -1.0000 I 0.0264 J 0.0635
G01 X 20.3003 Y 5.0585 Z -1.0000
G01 X 20.2924 Y 5.0712 Z -1.0000
G03 X 20.2598 Y 5.0789 Z -1.0000 I -0.0326 J -0.0648
G01 X 20.2503 Y 5.0822 Z -1.0000
G01 X 20.2418 Y 5.0930 Z -1.0000
G01 X 20.2327 Y 5.1021 Z -1.0000
G01 X 20.2167 Y 5.1041 Z -1.0000
G01 X 20.2025 Y 5.1063 Z -1.0000
G01 X 20.1981 Y 5.1134 Z -1.0000
G01 X 20.1956 Y 5.1247 Z -1.0000
G01 X 20.1882 Y 5.1347 Z -1.0000
G01 X 20.1801 Y 5.1448 Z -1.0000
G02 X 20.1720 Y 5.1638 Z -1.0000 I 0.0888 J 0.0492
G03 X 20.1645 Y 5.1832 Z -1.0000 I -0.1614 J -0.0511
G01 X 20.1590 Y 5.1919 Z -1.0000
G03 X 20.1297 Y 5.2190 Z -1.0000 I -0.1166 J -0.0971
G01 X 20.1131 Y 5.2242 Z -1.0000
G01 X 20.1090 Y 5.2256 Z -1.0000
G02 X 20.0986 Y 5.2350 Z -1.0000 I 0.0422 J 0.0570
G01 X 20.0878 Y 5.2435 Z -1.0000
G01 X 20.0789 Y 5.2457 Z -1.0000
G01 X 20.0720 Y 5.2487 Z -1.0000
G01 X 20.0690 Y 5.2561 Z -1.0000
G01 X 20.0662 Y 5.2644 Z -1.0000
G01 X 20.0583 Y 5.2700 Z -1.0000
G01 X 20.0499 Y 5.2751 Z -1.0000
G01 X 20.0475 Y 5.2811 Z -1.0000
G01 X 20.0449 Y 5.2861 Z -1.0000
G01 X 20.0367 Y 5.2888 Z -1.0000
G01 X 20.0291 Y 5.2919 Z -1.0000
G01 X 20.0260 Y 5.2995 Z -1.0000
G01 X 20.0181 Y 5.3083 Z -1.0000
G03 X 19.9777 Y 5.3049 Z -1.0000 I -0.0116 J -0.1033
G02 X 19.9599 Y 5.3025 Z -1.0000 I -0.0172 J 0.0598
G01 X 19.9536 Y 5.3052 Z -1.0000
G01 X 19.9545 Y 5.3154 Z -1.0000
G01 X 19.9735 Y 5.3189 Z -1.0000
G01 X 19.9789 Y 5.3229 Z -1.0000
G03 X 19.9751 Y 5.3456 Z -1.0000 I -0.0509 J 0.0031
G01 X 19.9644 Y 5.3588 Z -1.0000
G01 X 19.9531 Y 5.3608 Z -1.0000
G01 X 19.9467 Y 5.3630 Z -1.0000
G01 X 19.9462 Y 5.3694 Z -1.0000
G01 X 19.9495 Y 5.3802 Z -1.0000
G01 X 19.9470 Y 5.3839 Z -1.0000
G01 X 19.9433 Y 5.3875 Z -1.0000
G01 X 19.9433 Y 5.3933 Z -1.0000
G01 X 19.9429 Y 5.3990 Z -1.0000
G01 X 19.9375 Y 5.4036 Z -1.0000
G01 X 19.9327 Y 5.4088 Z -1.0000
G01 X 19.9324 Y 5.4205 Z -1.0000
G01 X 19.9308 Y 5.4341 Z -1.0000
G01 X 19.9056 Y 5.4223 Z -1.0000
G01 X 19.9064 Y 5.4049 Z -1.0000
G01 X 19.8997 Y 5.4017 Z -1.0000
G01 X 19.8906 Y 5.3998 Z -1.0000
G01 X 19.8799 Y 5.3928 Z -1.0000
G01 X 19.8701 Y 5.3901 Z -1.0000
G01 X 19.8719 Y 5.3946 Z -1.0000
G01 X 19.8758 Y 5.3963 Z -1.0000
G01 X 19.8784 Y 5.3980 Z -1.0000
G01 X 19.8780 Y 5.4019 Z -1.0000
G01 X 19.8771 Y 5.4074 Z -1.0000
G01 X 19.8810 Y 5.4154 Z -1.0000
G01 X 19.8815 Y 5.4232 Z -1.0000
G01 X 19.8777 Y 5.4254 Z -1.0000
G01 X 19.8755 Y 5.4337 Z -1.0000
G01 X 19.8724 Y 5.4426 Z -1.0000
G03 X 19.8553 Y 5.4590 Z -1.0000 I -0.0697 J -0.0553
G02 X 19.8200 Y 5.4914 Z -1.0000 I 0.1311 J 0.1780
G01 X 19.8183 Y 5.5013 Z -1.0000
G01 X 19.8188 Y 5.5082 Z -1.0000
G01 X 19.8161 Y 5.5121 Z -1.0000
G01 X 19.8127 Y 5.5162 Z -1.0000
G01 X 19.8110 Y 5.5252 Z -1.0000
G01 X 19.8087 Y 5.5334 Z -1.0000
G01 X 19.8029 Y 5.5381 Z -1.0000
G01 X 19.7970 Y 5.5427 Z -1.0000
G01 X 19.7948 Y 5.5495 Z -1.0000
G01 X 19.7902 Y 5.5527 Z -1.0000
G01 X 19.7724 Y 5.5416 Z -1.0000
G02 X 19.7558 Y 5.5288 Z -1.0000 I -0.0584 J 0.0584
G01 X 19.7507 Y 5.5288 Z -1.0000
G01 X 19.7459 Y 5.5293 Z -1.0000
G01 X 19.7407 Y 5.5250 Z -1.0000
G01 X 19.7349 Y 5.5244 Z -1.0000
G01 X 19.7291 Y 5.5375 Z -1.0000
G01 X 19.7254 Y 5.5473 Z -1.0000
G01 X 19.7210 Y 5.5486 Z -1.0000
G01 X 19.7164 Y 5.5520 Z -1.0000
G01 X 19.7224 Y 5.5634 Z -1.0000
G01 X 19.7219 Y 5.5720 Z -1.0000
G03 X 19.6939 Y 5.5817 Z -1.0000 I -0.0343 J -0.0533
G03 X 19.6696 Y 5.5802 Z -1.0000 I -0.0074 J -0.0751
G01 X 19.6656 Y 5.5752 Z -1.0000
G01 X 19.6554 Y 5.5789 Z -1.0000
G01 X 19.6434 Y 5.5851 Z -1.0000
G03 X 19.6147 Y 5.5802 Z -1.0000 I -0.0023 J -0.0735
G02 X 19.5756 Y 5.5726 Z -1.0000 I -0.0415 J 0.1083
G01 X 19.5688 Y 5.5793 Z -1.0000
G01 X 19.5707 Y 5.5882 Z -1.0000
G01 X 19.5736 Y 5.5900 Z -1.0000
G01 X 19.5773 Y 5.5915 Z -1.0000
G01 X 19.5814 Y 5.5977 Z -1.0000
G01 X 19.5803 Y 5.6019 Z -1.0000
G01 X 19.5742 Y 5.6034 Z -1.0000
G01 X 19.5413 Y 5.6106 Z -1.0000
G02 X 19.5191 Y 5.6429 Z -1.0000 I 0.0336 J 0.0469
G01 X 19.5199 Y 5.6528 Z -1.0000
G01 X 19.5291 Y 5.6659 Z -1.0000
G03 X 19.5393 Y 5.6791 Z -1.0000 I -0.0352 J 0.0378
G01 X 19.5419 Y 5.6894 Z -1.0000
G01 X 19.5438 Y 5.7001 Z -1.0000
G01 X 19.5486 Y 5.7077 Z -1.0000
G01 X 19.5489 Y 5.7115 Z -1.0000
G01 X 19.5446 Y 5.7133 Z -1.0000
G01 X 19.5340 Y 5.7133 Z -1.0000
G02 X 19.5193 Y 5.7160 Z -1.0000 I 0.0101 J 0.0934
G01 X 19.5099 Y 5.7233 Z -1.0000
G01 X 19.5078 Y 5.7353 Z -1.0000
G01 X 19.5054 Y 5.7466 Z -1.0000
G01 X 19.4959 Y 5.7523 Z -1.0000
G01 X 19.4827 Y 5.7562 Z -1.0000
G01 X 19.4786 Y 5.7610 Z -1.0000
G01 X 19.4809 Y 5.7671 Z -1.0000
G01 X 19.4855 Y 5.7666 Z -1.0000
G03 X 19.4952 Y 5.7669 Z -1.0000 I 0.0015 J 0.1264
G01 X 19.4975 Y 5.7727 Z -1.0000
G01 X 19.4848 Y 5.7783 Z -1.0000
G01 X 19.4722 Y 5.7806 Z -1.0000
G01 X 19.4630 Y 5.7866 Z -1.0000
G01 X 19.4541 Y 5.7919 Z -1.0000
G01 X 19.4452 Y 5.7918 Z -1.0000
G01 X 19.4384 Y 5.7933 Z -1.0000
G01 X 19.4325 Y 5.8037 Z -1.0000
G03 X 19.4281 Y 5.8182 Z -1.0000 I -0.0969 J -0.0213
G01 X 19.4236 Y 5.8267 Z -1.0000
G01 X 19.4178 Y 5.8294 Z -1.0000
G01 X 19.4107 Y 5.8254 Z -1.0000
G01 X 19.3982 Y 5.8197 Z -1.0000
G01 X 19.3897 Y 5.8267 Z -1.0000
G01 X 19.3852 Y 5.8353 Z -1.0000
G01 X 19.3804 Y 5.8375 Z -1.0000
G01 X 19.3470 Y 5.8024 Z -1.0000
G03 X 19.3847 Y 5.7527 Z -1.0000 I 0.0551 J 0.0027
G01 X 19.3892 Y 5.7490 Z -1.0000
G01 X 19.3913 Y 5.7409 Z -1.0000
G01 X 19.3933 Y 5.7320 Z -1.0000
G03 X 19.4026 Y 5.7170 Z -1.0000 I 0.0718 J 0.0340
G02 X 19.4108 Y 5.7022 Z -1.0000 I -0.0426 J -0.0334
G01 X 19.4108 Y 5.6945 Z -1.0000
G01 X 19.4061 Y 5.6919 Z -1.0000
G01 X 19.3916 Y 5.6982 Z -1.0000
G02 X 19.3784 Y 5.7106 Z -1.0000 I 0.0467 J 0.0632
G01 X 19.3781 Y 5.7141 Z -1.0000
G01 X 19.3789 Y 5.7183 Z -1.0000
G03 X 19.3744 Y 5.7335 Z -1.0000 I -0.0782 J -0.0150
G02 X 19.3700 Y 5.7490 Z -1.0000 I 0.0703 J 0.0284
G02 X 19.3693 Y 5.7630 Z -1.0000 I 0.0562 J 0.0097
G01 X 19.3674 Y 5.7757 Z -1.0000
G01 X 19.3612 Y 5.7825 Z -1.0000
G01 X 19.3558 Y 5.7899 Z -1.0000
G02 X 19.3526 Y 5.8229 Z -1.0000 I 0.1433 J 0.0304
G03 X 19.3498 Y 5.8557 Z -1.0000 I -0.1602 J 0.0027
G01 X 19.3453 Y 5.8611 Z -1.0000
G01 X 19.3393 Y 5.8614 Z -1.0000
G01 X 19.3374 Y 5.8589 Z -1.0000
G01 X 19.3356 Y 5.8554 Z -1.0000
G01 X 19.3297 Y 5.8537 Z -1.0000
G01 X 19.3228 Y 5.8520 Z -1.0000
G01 X 19.3139 Y 5.8456 Z -1.0000
G01 X 19.3063 Y 5.8413 Z -1.0000
G01 X 19.3024 Y 5.8430 Z -1.0000
G01 X 19.2984 Y 5.8458 Z -1.0000
G01 X 19.2934 Y 5.8451 Z -1.0000
G01 X 19.2912 Y 5.8523 Z -1.0000
G01 X 19.2843 Y 5.8812 Z -1.0000
G01 X 19.2548 Y 5.8894 Z -1.0000
G01 X 19.2443 Y 5.8883 Z -1.0000
G02 X 19.2185 Y 5.8916 Z -1.0000 I 0.0117 J 0.1981
G03 X 19.1926 Y 5.8958 Z -1.0000 I -0.0978 J -0.5153
G03 X 19.1736 Y 5.8978 Z -1.0000 I -0.0369 J -0.2668
G01 X 19.1574 Y 5.9017 Z -1.0000
G01 X 19.1545 Y 5.9061 Z -1.0000
G01 X 19.1501 Y 5.9111 Z -1.0000
G01 X 19.1408 Y 5.9080 Z -1.0000
G01 X 19.1349 Y 5.9044 Z -1.0000
G02 X 19.1168 Y 5.9006 Z -1.0000 I -0.0294 J 0.0936
G03 X 19.0982 Y 5.8974 Z -1.0000 I 0.0255 J -0.2036
G03 X 19.0885 Y 5.8943 Z -1.0000 I 0.0121 J -0.0548
G01 X 19.0794 Y 5.8929 Z -1.0000
G01 X 19.0724 Y 5.8959 Z -1.0000
G01 X 19.0649 Y 5.8989 Z -1.0000
G03 X 19.0280 Y 5.8993 Z -1.0000 I -0.0211 J -0.2756
G03 X 18.9932 Y 5.8914 Z -1.0000 I 0.0061 J -0.1085
G03 X 18.9730 Y 5.8769 Z -1.0000 I 0.0199 J -0.0490
G03 X 18.9578 Y 5.8558 Z -1.0000 I 0.1110 J -0.0956
G01 X 18.9555 Y 5.8474 Z -1.0000
G01 X 18.9528 Y 5.8420 Z -1.0000
G01 X 18.9473 Y 5.8413 Z -1.0000
G01 X 18.9413 Y 5.8458 Z -1.0000
G01 X 18.9392 Y 5.8519 Z -1.0000
G01 X 18.9369 Y 5.8571 Z -1.0000
G01 X 18.9311 Y 5.8594 Z -1.0000
G01 X 18.9253 Y 5.8617 Z -1.0000
G01 X 18.9230 Y 5.8671 Z -1.0000
G01 X 18.9213 Y 5.8741 Z -1.0000
G01 X 18.9151 Y 5.8827 Z -1.0000
G01 X 18.9122 Y 5.8896 Z -1.0000
G01 X 18.9149 Y 5.8936 Z -1.0000
G01 X 18.9182 Y 5.8987 Z -1.0000
G03 X 18.9134 Y 5.9224 Z -1.0000 I -0.0838 J -0.0046
G03 X 18.9029 Y 5.9472 Z -1.0000 I -0.2265 J -0.0814
G01 X 18.8988 Y 5.9520 Z -1.0000
G01 X 18.8970 Y 5.9560 Z -1.0000
G01 X 18.8999 Y 5.9623 Z -1.0000
G01 X 18.9024 Y 5.9692 Z -1.0000
G01 X 18.8974 Y 5.9840 Z -1.0000
G01 X 18.8861 Y 5.9867 Z -1.0000
G01 X 18.8791 Y 5.9724 Z -1.0000
G01 X 18.8819 Y 5.9132 Z -1.0000
G02 X 18.8508 Y 5.9217 Z -1.0000 I -0.0000 J 0.0613
G01 X 18.8423 Y 5.9365 Z -1.0000
G01 X 18.8325 Y 5.9503 Z -1.0000
G01 X 18.8178 Y 5.9451 Z -1.0000
G01 X 18.8168 Y 5.9403 Z -1.0000
G01 X 18.8198 Y 5.9308 Z -1.0000
G02 X 18.8237 Y 5.9210 Z -1.0000 I -0.0464 J -0.0241
G02 X 18.8285 Y 5.9003 Z -1.0000 I -0.2119 J -0.0601
G03 X 18.8340 Y 5.8800 Z -1.0000 I 0.1269 J 0.0231
G03 X 18.8406 Y 5.8667 Z -1.0000 I 0.0589 J 0.0210
G01 X 18.8462 Y 5.8538 Z -1.0000
G01 X 18.8457 Y 5.8458 Z -1.0000
G01 X 18.8449 Y 5.8377 Z -1.0000
G03 X 18.8512 Y 5.8160 Z -1.0000 I 0.1084 J 0.0195
G02 X 18.8579 Y 5.7948 Z -1.0000 I -0.1357 J -0.0549
G01 X 18.8570 Y 5.7915 Z -1.0000
G01 X 18.8420 Y 5.7911 Z -1.0000
G01 X 18.8316 Y 5.8143 Z -1.0000
G01 X 18.8299 Y 5.8200 Z -1.0000
G03 X 18.8167 Y 5.8365 Z -1.0000 I -0.1094 J -0.0734
G01 X 18.8070 Y 5.8523 Z -1.0000
G01 X 18.8086 Y 5.8588 Z -1.0000
G01 X 18.8130 Y 5.8737 Z -1.0000
G01 X 18.8014 Y 5.8876 Z -1.0000
G01 X 18.7886 Y 5.8892 Z -1.0000
G01 X 18.7799 Y 5.8838 Z -1.0000
G01 X 18.7724 Y 5.8829 Z -1.0000
G01 X 18.7685 Y 5.8879 Z -1.0000
G03 X 18.7468 Y 5.8889 Z -1.0000 I -0.0137 J -0.0576
G03 X 18.6991 Y 5.8757 Z -1.0000 I 0.0236 J -0.1779
G01 X 18.6971 Y 5.8674 Z -1.0000
G01 X 18.6878 Y 5.8615 Z -1.0000
G02 X 18.6733 Y 5.8636 Z -1.0000 I 0.0045 J 0.0820
G01 X 18.6658 Y 5.8668 Z -1.0000
G01 X 18.6584 Y 5.8692 Z -1.0000
G01 X 18.6470 Y 5.8683 Z -1.0000
G01 X 18.6373 Y 5.8698 Z -1.0000
G01 X 18.6283 Y 5.8799 Z -1.0000
G01 X 18.6258 Y 5.8933 Z -1.0000
G01 X 18.6296 Y 5.9004 Z -1.0000
G01 X 18.6362 Y 5.9073 Z -1.0000
G01 X 18.6378 Y 5.9125 Z -1.0000
G01 X 18.6396 Y 5.9169 Z -1.0000
G01 X 18.6436 Y 5.9186 Z -1.0000
G01 X 18.6404 Y 5.9275 Z -1.0000
G01 X 18.6321 Y 5.9316 Z -1.0000
G01 X 18.6269 Y 5.9291 Z -1.0000
G01 X 18.6217 Y 5.9268 Z -1.0000
G01 X 18.6113 Y 5.9318 Z -1.0000
G01 X 18.6052 Y 5.9445 Z -1.0000
G01 X 18.6103 Y 5.9485 Z -1.0000
G01 X 18.6182 Y 5.9493 Z -1.0000
G01 X 18.6231 Y 5.9556 Z -1.0000
G01 X 18.6191 Y 5.9695 Z -1.0000
G01 X 18.6086 Y 5.9694 Z -1.0000
G01 X 18.5994 Y 5.9659 Z -1.0000
G01 X 18.5888 Y 5.9707 Z -1.0000
G01 X 18.5786 Y 5.9871 Z -1.0000
G02 X 18.5714 Y 6.0224 Z -1.0000 I 0.1389 J 0.0471
G01 X 18.5564 Y 6.0450 Z -1.0000
G01 X 18.5329 Y 6.0424 Z -1.0000
G01 X 18.5258 Y 6.0395 Z -1.0000
G01 X 18.5161 Y 6.0407 Z -1.0000
G01 X 18.5191 Y 6.0477 Z -1.0000
G01 X 18.5263 Y 6.0572 Z -1.0000
G01 X 18.5184 Y 6.0670 Z -1.0000
G03 X 18.4858 Y 6.0715 Z -1.0000 I -0.0374 J -0.1510
G03 X 18.4672 Y 6.0686 Z -1.0000 I -0.0016 J -0.0509
G01 X 18.4563 Y 6.0670 Z -1.0000
G01 X 18.4521 Y 6.0696 Z -1.0000
G01 X 18.4236 Y 6.0841 Z -1.0000
G01 X 18.3989 Y 6.0658 Z -1.0000
G01 X 18.3947 Y 6.0606 Z -1.0000
G01 X 18.3879 Y 6.0586 Z -1.0000
G01 X 18.3639 Y 6.0481 Z -1.0000
G01 X 18.3602 Y 6.0285 Z -1.0000
G01 X 18.3647 Y 6.0232 Z -1.0000
G01 X 18.3735 Y 6.0208 Z -1.0000
G01 X 18.3831 Y 6.0188 Z -1.0000
G02 X 18.3959 Y 6.0110 Z -1.0000 I -0.0223 J -0.0512
G01 X 18.4032 Y 5.9998 Z -1.0000
G01 X 18.4028 Y 5.9855 Z -1.0000
G01 X 18.3943 Y 5.9741 Z -1.0000
G01 X 18.3792 Y 5.9691 Z -1.0000
G02 X 18.3612 Y 5.9701 Z -1.0000 I -0.0036 J 0.0978
G01 X 18.3527 Y 5.9730 Z -1.0000
G01 X 18.3514 Y 5.9777 Z -1.0000
G01 X 18.3565 Y 5.9795 Z -1.0000
G01 X 18.3581 Y 5.9829 Z -1.0000
G01 X 18.3559 Y 5.9854 Z -1.0000
G03 X 18.3353 Y 5.9853 Z -1.0000 I -0.0098 J -0.0916
G01 X 18.3229 Y 5.9903 Z -1.0000
G01 X 18.3276 Y 5.9990 Z -1.0000
G01 X 18.3243 Y 6.0118 Z -1.0000
G01 X 18.3179 Y 6.0259 Z -1.0000
G01 X 18.3184 Y 6.0338 Z -1.0000
G01 X 18.3174 Y 6.0405 Z -1.0000
G01 X 18.3041 Y 6.0525 Z -1.0000
G01 X 18.2805 Y 6.0582 Z -1.0000
G01 X 18.2755 Y 6.0504 Z -1.0000
G01 X 18.2750 Y 6.0443 Z -1.0000
G01 X 18.2679 Y 6.0376 Z -1.0000
G01 X 18.2623 Y 6.0386 Z -1.0000
G01 X 18.2602 Y 6.0461 Z -1.0000
G01 X 18.2585 Y 6.0550 Z -1.0000
G01 X 18.2536 Y 6.0566 Z -1.0000
G02 X 18.2442 Y 6.0538 Z -1.0000 I -0.0216 J 0.0551
G01 X 18.2367 Y 6.0530 Z -1.0000
G01 X 18.2302 Y 6.0453 Z -1.0000
G01 X 18.2401 Y 6.0341 Z -1.0000
G01 X 18.2466 Y 6.0224 Z -1.0000
G01 X 18.2330 Y 6.0057 Z -1.0000
G01 X 18.2206 Y 5.9971 Z -1.0000
G01 X 18.2182 Y 5.9914 Z -1.0000
G01 X 18.2106 Y 5.9794 Z -1.0000
G01 X 18.1996 Y 5.9827 Z -1.0000
G01 X 18.1959 Y 5.9858 Z -1.0000
G03 X 18.1773 Y 5.9909 Z -1.0000 I -0.0397 J -0.1083
G02 X 18.1499 Y 6.0059 Z -1.0000 I 0.0093 J 0.0493
G01 X 18.1410 Y 6.0297 Z -1.0000
G02 X 18.1429 Y 6.0533 Z -1.0000 I 0.2522 J -0.0085
G01 X 18.1445 Y 6.0565 Z -1.0000
G01 X 18.1478 Y 6.0581 Z -1.0000
G02 X 18.1787 Y 6.0611 Z -1.0000 I 0.0540 J -0.3967
G03 X 18.2072 Y 6.0664 Z -1.0000 I -0.0072 J 0.1199
G01 X 18.2119 Y 6.0715 Z -1.0000
G01 X 18.2207 Y 6.0788 Z -1.0000
G01 X 18.2421 Y 6.0717 Z -1.0000
G03 X 18.2530 Y 6.0652 Z -1.0000 I 0.0348 J 0.0461
G01 X 18.2596 Y 6.0638 Z -1.0000
G01 X 18.2629 Y 6.0693 Z -1.0000
G01 X 18.2487 Y 6.0840 Z -1.0000
G01 X 18.2311 Y 6.0901 Z -1.0000
G01 X 18.2212 Y 6.0875 Z -1.0000
G01 X 18.2016 Y 6.0867 Z -1.0000
G01 X 18.1981 Y 6.1016 Z -1.0000
G01 X 18.2010 Y 6.1109 Z -1.0000
G01 X 18.1993 Y 6.1209 Z -1.0000
G01 X 18.1960 Y 6.1313 Z -1.0000
G02 X 18.1944 Y 6.1471 Z -1.0000 I 0.0967 J 0.0180
G01 X 18.1885 Y 6.1577 Z -1.0000
G01 X 18.1698 Y 6.1633 Z -1.0000
G01 X 18.1497 Y 6.1677 Z -1.0000
G01 X 18.1450 Y 6.1747 Z -1.0000
G01 X 18.1382 Y 6.1919 Z -1.0000
G01 X 18.1284 Y 6.1945 Z -1.0000
G01 X 18.1241 Y 6.1961 Z -1.0000
G01 X 18.1232 Y 6.2050 Z -1.0000
G01 X 18.1200 Y 6.2133 Z -1.0000
G01 X 18.1049 Y 6.2173 Z -1.0000
G03 X 18.0837 Y 6.2144 Z -1.0000 I 0.0135 J -0.1807
G01 X 18.0798 Y 6.2124 Z -1.0000
G01 X 18.0634 Y 6.2055 Z -1.0000
G01 X 18.0568 Y 6.2121 Z -1.0000
G01 X 18.0574 Y 6.2150 Z -1.0000
G02 X 18.0624 Y 6.2256 Z -1.0000 I 0.1080 J -0.0450
G01 X 18.0603 Y 6.2326 Z -1.0000
G01 X 18.0415 Y 6.2369 Z -1.0000
G01 X 18.0332 Y 6.2394 Z -1.0000
G01 X 18.0318 Y 6.2440 Z -1.0000
G01 X 18.0282 Y 6.2518 Z -1.0000
G01 X 18.0129 Y 6.2506 Z -1.0000
G03 X 17.9761 Y 6.2245 Z -1.0000 I 0.0843 J -0.1573
G01 X 17.9734 Y 6.2142 Z -1.0000
G01 X 17.9740 Y 6.2055 Z -1.0000
G01 X 17.9710 Y 6.2012 Z -1.0000
G01 X 17.9535 Y 6.2012 Z -1.0000
G01 X 17.9434 Y 6.2186 Z -1.0000
G01 X 17.9307 Y 6.1808 Z -1.0000
G02 X 17.9242 Y 6.1584 Z -1.0000 I -0.0837 J 0.0124
G01 X 17.9192 Y 6.1552 Z -1.0000
G01 X 17.9134 Y 6.1533 Z -1.0000
G01 X 17.9115 Y 6.1495 Z -1.0000
G01 X 17.9133 Y 6.1470 Z -1.0000
G01 X 17.9171 Y 6.1473 Z -1.0000
G01 X 17.9192 Y 6.1369 Z -1.0000
G01 X 17.9198 Y 6.1262 Z -1.0000
G01 X 17.9244 Y 6.1230 Z -1.0000
G01 X 17.9311 Y 6.1210 Z -1.0000
G01 X 17.9331 Y 6.1174 Z -1.0000
G01 X 17.9223 Y 6.1176 Z -1.0000
G01 X 17.9115 Y 6.1213 Z -1.0000
G01 X 17.9061 Y 6.1202 Z -1.0000
G01 X 17.8959 Y 6.1214 Z -1.0000
G01 X 17.8955 Y 6.1311 Z -1.0000
G01 X 17.8940 Y 6.1404 Z -1.0000
G01 X 17.8726 Y 6.1453 Z -1.0000
G01 X 17.8610 Y 6.1472 Z -1.0000
G01 X 17.8578 Y 6.1522 Z -1.0000
G01 X 17.8562 Y 6.1591 Z -1.0000
G01 X 17.8537 Y 6.1607 Z -1.0000
G01 X 17.8414 Y 6.1694 Z -1.0000
G02 X 17.8282 Y 6.2333 Z -1.0000 I 0.2287 J 0.0806
G03 X 17.8158 Y 6.2807 Z -1.0000 I -0.1314 J -0.0088
G01 X 17.8015 Y 6.2898 Z -1.0000
G01 X 17.7956 Y 6.2922 Z -1.0000
G01 X 17.7932 Y 6.2976 Z -1.0000
G01 X 17.7917 Y 6.3045 Z -1.0000
G01 X 17.7879 Y 6.3086 Z -1.0000
G01 X 17.7858 Y 6.3035 Z -1.0000
G01 X 17.7844 Y 6.2984 Z -1.0000
G01 X 17.7751 Y 6.2951 Z -1.0000
G01 X 17.7677 Y 6.2993 Z -1.0000
G01 X 17.7672 Y 6.3082 Z -1.0000
G01 X 17.7679 Y 6.3304 Z -1.0000
G01 X 17.7566 Y 6.3358 Z -1.0000
G01 X 17.7270 Y 6.3359 Z -1.0000
G02 X 17.6932 Y 6.3569 Z -1.0000 I 0.0271 J 0.0816
G01 X 17.6842 Y 6.3633 Z -1.0000
G01 X 17.6769 Y 6.3651 Z -1.0000
G01 X 17.6720 Y 6.3701 Z -1.0000
G01 X 17.6690 Y 6.3787 Z -1.0000
G01 X 17.6578 Y 6.3752 Z -1.0000
G01 X 17.6556 Y 6.3815 Z -1.0000
G01 X 17.6533 Y 6.3925 Z -1.0000
G01 X 17.6395 Y 6.4038 Z -1.0000
G01 X 17.6224 Y 6.4079 Z -1.0000
G01 X 17.6175 Y 6.4046 Z -1.0000
G01 X 17.6176 Y 6.3977 Z -1.0000
G01 X 17.6246 Y 6.3891 Z -1.0000
G01 X 17.6246 Y 6.3848 Z -1.0000
G01 X 17.6148 Y 6.3813 Z -1.0000
G03 X 17.5967 Y 6.3779 Z -1.0000 I 0.0004 J -0.0522
G01 X 17.5894 Y 6.3717 Z -1.0000
G01 X 17.5838 Y 6.3683 Z -1.0000
G01 X 17.5811 Y 6.3721 Z -1.0000
G03 X 17.5562 Y 6.3780 Z -1.0000 I -0.0410 J -0.1159
G02 X 17.5338 Y 6.3846 Z -1.0000 I 0.0105 J 0.0775
G01 X 17.5318 Y 6.3894 Z -1.0000
G01 X 17.5229 Y 6.3905 Z -1.0000
G03 X 17.5119 Y 6.3829 Z -1.0000 I 0.0393 J -0.0691
G01 X 17.5067 Y 6.3771 Z -1.0000
G01 X 17.5016 Y 6.3718 Z -1.0000
G01 X 17.4973 Y 6.3704 Z -1.0000
G01 X 17.4785 Y 6.3783 Z -1.0000
G01 X 17.4707 Y 6.3973 Z -1.0000
G01 X 17.4691 Y 6.4012 Z -1.0000
G01 X 17.4653 Y 6.4027 Z -1.0000
G01 X 17.4375 Y 6.4150 Z -1.0000
G02 X 17.4137 Y 6.4592 Z -1.0000 I 0.0757 J 0.0693
G01 X 17.4081 Y 6.4717 Z -1.0000
G03 X 17.3950 Y 6.4873 Z -1.0000 I -0.0742 J -0.0491
G02 X 17.3818 Y 6.5028 Z -1.0000 I 0.0643 J 0.0684
G01 X 17.3767 Y 6.5141 Z -1.0000
G01 X 17.3719 Y 6.5243 Z -1.0000
G01 X 17.3676 Y 6.5265 Z -1.0000
G01 X 17.3508 Y 6.5340 Z -1.0000
G02 X 17.3335 Y 6.5640 Z -1.0000 I 0.0602 J 0.0546
G01 X 17.3283 Y 6.5725 Z -1.0000
G01 X 17.3223 Y 6.5749 Z -1.0000
G01 X 17.3164 Y 6.5766 Z -1.0000
G01 X 17.3146 Y 6.5798 Z -1.0000
G01 X 17.3036 Y 6.5818 Z -1.0000
G01 X 17.2938 Y 6.5824 Z -1.0000
G01 X 17.2854 Y 6.5888 Z -1.0000
G01 X 17.2769 Y 6.5940 Z -1.0000
G01 X 17.2638 Y 6.5922 Z -1.0000
G01 X 17.2493 Y 6.5907 Z -1.0000
G01 X 17.2447 Y 6.5964 Z -1.0000
G01 X 17.2407 Y 6.6070 Z -1.0000
G01 X 17.2178 Y 6.5973 Z -1.0000
G03 X 17.1946 Y 6.5622 Z -1.0000 I 0.0680 J -0.0701
G01 X 17.1842 Y 6.5546 Z -1.0000
G01 X 17.1682 Y 6.5608 Z -1.0000
G03 X 17.1601 Y 6.5673 Z -1.0000 I -0.0366 J -0.0366
G03 X 17.1436 Y 6.5770 Z -1.0000 I -0.0979 J -0.1480
G02 X 17.1284 Y 6.5878 Z -1.0000 I 0.0315 J 0.0604
G01 X 17.1187 Y 6.6006 Z -1.0000
G03 X 17.1096 Y 6.6143 Z -1.0000 I -0.0752 J -0.0399
G03 X 17.0944 Y 6.6305 Z -1.0000 I -0.1207 J -0.0980
G02 X 17.0792 Y 6.6463 Z -1.0000 I 0.1244 J 0.1348
G01 X 17.0779 Y 6.6498 Z -1.0000
G01 X 17.0764 Y 6.6529 Z -1.0000
G03 X 17.0590 Y 6.6641 Z -1.0000 I -0.0843 J -0.1119
G02 X 17.0422 Y 6.6759 Z -1.0000 I 0.0414 J 0.0767
G01 X 17.0371 Y 6.6838 Z -1.0000
G01 X 17.0326 Y 6.6912 Z -1.0000
G01 X 17.0277 Y 6.6933 Z -1.0000
G01 X 17.0221 Y 6.6951 Z -1.0000
G02 X 17.0016 Y 6.7114 Z -1.0000 I 0.1114 J 0.1600
G03 X 16.9802 Y 6.7260 Z -1.0000 I -0.0597 J -0.0649
G03 X 16.9559 Y 6.7334 Z -1.0000 I -0.0368 J -0.0765
G02 X 16.9306 Y 6.7389 Z -1.0000 I 0.0273 J 0.1862
G01 X 16.9232 Y 6.7428 Z -1.0000
G01 X 16.9160 Y 6.7460 Z -1.0000
G01 X 16.9052 Y 6.7454 Z -1.0000
G01 X 16.8959 Y 6.7469 Z -1.0000
G01 X 16.8850 Y 6.7586 Z -1.0000
G01 X 16.8734 Y 6.7696 Z -1.0000
G01 X 16.8559 Y 6.7728 Z -1.0000
G02 X 16.8385 Y 6.7741 Z -1.0000 I -0.0048 J 0.0539
G01 X 16.8357 Y 6.7776 Z -1.0000
G01 X 16.8337 Y 6.7833 Z -1.0000
G03 X 16.8089 Y 6.8110 Z -1.0000 I -0.2617 J -0.2094
G02 X 16.7901 Y 6.8394 Z -1.0000 I 0.0609 J 0.0609
G01 X 16.7902 Y 6.8570 Z -1.0000
G01 X 16.7935 Y 6.8731 Z -1.0000
G01 X 16.7904 Y 6.8762 Z -1.0000
G01 X 16.7842 Y 6.8782 Z -1.0000
G01 X 16.7809 Y 6.8829 Z -1.0000
G03 X 16.7469 Y 6.9382 Z -1.0000 I -0.1079 J -0.0284
G01 X 16.7107 Y 6.9448 Z -1.0000
G01 X 16.7058 Y 6.9403 Z -1.0000
G03 X 16.6973 Y 6.9179 Z -1.0000 I 0.1090 J -0.0542
G02 X 16.6886 Y 6.8948 Z -1.0000 I -0.1244 J 0.0336
G02 X 16.6778 Y 6.8781 Z -1.0000 I -0.0735 J 0.0360
G01 X 16.6718 Y 6.8618 Z -1.0000
G01 X 16.6776 Y 6.8385 Z -1.0000
G02 X 16.6876 Y 6.8138 Z -1.0000 I -0.1082 J -0.0581
G02 X 16.6905 Y 6.7929 Z -1.0000 I -0.0749 J -0.0211
G03 X 16.6981 Y 6.7449 Z -1.0000 I 0.1590 J 0.0005
G03 X 16.7302 Y 6.6686 Z -1.0000 I 0.4403 J 0.1408
G02 X 16.7517 Y 6.6210 Z -1.0000 I -0.3482 J -0.1852
G02 X 16.7606 Y 6.5871 Z -1.0000 I -0.1658 J -0.0617
G03 X 16.7691 Y 6.5531 Z -1.0000 I 0.1992 J 0.0318
G03 X 16.7929 Y 6.4937 Z -1.0000 I 0.6331 J 0.2188
G02 X 16.8186 Y 6.4350 Z -1.0000 I -1.8508 J -0.8457
G01 X 16.8196 Y 6.4300 Z -1.0000
G01 X 16.8206 Y 6.4251 Z -1.0000
G03 X 16.8301 Y 6.4070 Z -1.0000 I 0.1733 J 0.0789
G02 X 16.8387 Y 6.3885 Z -1.0000 I -0.0890 J -0.0526
G02 X 16.8441 Y 6.3671 Z -1.0000 I -0.1169 J -0.0409
G02 X 16.8435 Y 6.3474 Z -1.0000 I -0.0519 J -0.0084
G01 X 16.8385 Y 6.3416 Z -1.0000
G01 X 16.8248 Y 6.3419 Z -1.0000
G02 X 16.7825 Y 6.3663 Z -1.0000 I 0.0904 J 0.2050
G03 X 16.7691 Y 6.3742 Z -1.0000 I -0.0445 J -0.0608
G01 X 16.7618 Y 6.3757 Z -1.0000
G01 X 16.7427 Y 6.3842 Z -1.0000
G01 X 16.7336 Y 6.4067 Z -1.0000
G01 X 16.7318 Y 6.4117 Z -1.0000
G01 X 16.7283 Y 6.4134 Z -1.0000
G01 X 16.7123 Y 6.4239 Z -1.0000
G02 X 16.6846 Y 6.5127 Z -1.0000 I 0.3742 J 0.1652
G02 X 16.6816 Y 6.5398 Z -1.0000 I 0.1728 J 0.0324
G02 X 16.6833 Y 6.5560 Z -1.0000 I 0.0621 J 0.0019
G03 X 16.6870 Y 6.5722 Z -1.0000 I -1.4864 J 0.3507
G01 X 16.6875 Y 6.5748 Z -1.0000
G01 X 16.6883 Y 6.5774 Z -1.0000
G02 X 16.6916 Y 6.5834 Z -1.0000 I 0.0710 J -0.0350
G01 X 16.6916 Y 6.5890 Z -1.0000
G03 X 16.6713 Y 6.6151 Z -1.0000 I -0.1554 J -0.0998
G02 X 16.6493 Y 6.6417 Z -1.0000 I 0.2155 J 0.2008
G01 X 16.6473 Y 6.6479 Z -1.0000
G01 X 16.6451 Y 6.6531 Z -1.0000
G01 X 16.6363 Y 6.6583 Z -1.0000
G01 X 16.6281 Y 6.6643 Z -1.0000
G01 X 16.6222 Y 6.6775 Z -1.0000
G01 X 16.6171 Y 6.6908 Z -1.0000
G01 X 16.6129 Y 6.6932 Z -1.0000
G01 X 16.5881 Y 6.7041 Z -1.0000
G01 X 16.5774 Y 6.7314 Z -1.0000
G01 X 16.5756 Y 6.7345 Z -1.0000
G01 X 16.5693 Y 6.7362 Z -1.0000
G01 X 16.5635 Y 6.7385 Z -1.0000
G01 X 16.5612 Y 6.7436 Z -1.0000
G01 X 16.5595 Y 6.7503 Z -1.0000
G01 X 16.5535 Y 6.7575 Z -1.0000
G01 X 16.5476 Y 6.7649 Z -1.0000
G02 X 16.5421 Y 6.7810 Z -1.0000 I 0.0616 J 0.0301
G03 X 16.5370 Y 6.7975 Z -1.0000 I -0.0924 J -0.0197
G03 X 16.5239 Y 6.8250 Z -1.0000 I -0.2700 J -0.1120
G02 X 16.4853 Y 6.9318 Z -1.0000 I 0.3317 J 0.1802
G02 X 16.4936 Y 6.9777 Z -1.0000 I 0.0625 J 0.0124
G01 X 16.4946 Y 6.9842 Z -1.0000
G01 X 16.4891 Y 6.9972 Z -1.0000
G01 X 16.4825 Y 7.0189 Z -1.0000
G01 X 16.4886 Y 7.0322 Z -1.0000
G01 X 16.4924 Y 7.0427 Z -1.0000
G01 X 16.4856 Y 7.0483 Z -1.0000
G01 X 16.4778 Y 7.0537 Z -1.0000
G01 X 16.4779 Y 7.0586 Z -1.0000
G03 X 16.4678 Y 7.0714 Z -1.0000 I -0.0461 J -0.0260
G01 X 16.4593 Y 7.0844 Z -1.0000
G01 X 16.4601 Y 7.0936 Z -1.0000
G01 X 16.4580 Y 7.1064 Z -1.0000
G01 X 16.4420 Y 7.1099 Z -1.0000
G01 X 16.4323 Y 7.1152 Z -1.0000
G01 X 16.4369 Y 7.1286 Z -1.0000
G01 X 16.4434 Y 7.1378 Z -1.0000
G01 X 16.4420 Y 7.1440 Z -1.0000
G01 X 16.4346 Y 7.1487 Z -1.0000
G01 X 16.4237 Y 7.1506 Z -1.0000
G01 X 16.4131 Y 7.1528 Z -1.0000
G01 X 16.4053 Y 7.1587 Z -1.0000
G01 X 16.4052 Y 7.1646 Z -1.0000
G01 X 16.4123 Y 7.1673 Z -1.0000
G01 X 16.4165 Y 7.1732 Z -1.0000
G01 X 16.3997 Y 7.1911 Z -1.0000
G01 X 16.3967 Y 7.1956 Z -1.0000
G01 X 16.3974 Y 7.2049 Z -1.0000
G01 X 16.3976 Y 7.2130 Z -1.0000
G01 X 16.3949 Y 7.2152 Z -1.0000
G01 X 16.3910 Y 7.2171 Z -1.0000
G01 X 16.3892 Y 7.2227 Z -1.0000
G01 X 16.3868 Y 7.2289 Z -1.0000
G03 X 16.3744 Y 7.2397 Z -1.0000 I -0.0452 J -0.0394
G02 X 16.3605 Y 7.2503 Z -1.0000 I 0.0642 J 0.0982
G02 X 16.3524 Y 7.2594 Z -1.0000 I 0.0367 J 0.0411
G01 X 16.3438 Y 7.2665 Z -1.0000
G01 X 16.3335 Y 7.2679 Z -1.0000
G01 X 16.3249 Y 7.2703 Z -1.0000
G01 X 16.3201 Y 7.2788 Z -1.0000
G01 X 16.3164 Y 7.2896 Z -1.0000
G01 X 16.3114 Y 7.2939 Z -1.0000
G01 X 16.3074 Y 7.2983 Z -1.0000
G01 X 16.3063 Y 7.3124 Z -1.0000
G01 X 16.3057 Y 7.3260 Z -1.0000
G01 X 16.3029 Y 7.3282 Z -1.0000
G01 X 16.2998 Y 7.3303 Z -1.0000
G01 X 16.2976 Y 7.3414 Z -1.0000
G01 X 16.2949 Y 7.3530 Z -1.0000
G01 X 16.2882 Y 7.3601 Z -1.0000
G01 X 16.2862 Y 7.3657 Z -1.0000
G01 X 16.2890 Y 7.3680 Z -1.0000
G01 X 16.2877 Y 7.3730 Z -1.0000
G01 X 16.2846 Y 7.3809 Z -1.0000
G02 X 16.2851 Y 7.4080 Z -1.0000 I 0.1421 J 0.0106
G03 X 16.2832 Y 7.4311 Z -1.0000 I -0.0573 J 0.0069
G01 X 16.2769 Y 7.4358 Z -1.0000
G01 X 16.2683 Y 7.4386 Z -1.0000
G01 X 16.2654 Y 7.4442 Z -1.0000
G01 X 16.2609 Y 7.4498 Z -1.0000
G01 X 16.2564 Y 7.4637 Z -1.0000
G01 X 16.2535 Y 7.4790 Z -1.0000
G01 X 16.2470 Y 7.4873 Z -1.0000
G02 X 16.2297 Y 7.5057 Z -1.0000 I 0.0407 J 0.0557
G02 X 16.2135 Y 7.5394 Z -1.0000 I 0.1283 J 0.0824
G01 X 16.2092 Y 7.5472 Z -1.0000
G01 X 16.2056 Y 7.5488 Z -1.0000
G01 X 16.2027 Y 7.5507 Z -1.0000
G01 X 16.2008 Y 7.5599 Z -1.0000
G01 X 16.1983 Y 7.5665 Z -1.0000
G01 X 16.1945 Y 7.5671 Z -1.0000
G01 X 16.1916 Y 7.5722 Z -1.0000
G01 X 16.1920 Y 7.5791 Z -1.0000
G01 X 16.1892 Y 7.5812 Z -1.0000
G01 X 16.1896 Y 7.5887 Z -1.0000
G01 X 16.1913 Y 7.5965 Z -1.0000
G03 X 16.1823 Y 7.6169 Z -1.0000 I -0.0668 J -0.0173
G03 X 16.1680 Y 7.6370 Z -1.0000 I -0.2306 J -0.1497
G03 X 16.1565 Y 7.6499 Z -1.0000 I -0.1124 J -0.0882
G02 X 16.1452 Y 7.6625 Z -1.0000 I 0.1115 J 0.1115
G01 X 16.1436 Y 7.6660 Z -1.0000
G03 X 16.1322 Y 7.6898 Z -1.0000 I -0.0496 J -0.0091
G01 X 16.1251 Y 7.6874 Z -1.0000
G01 X 16.1199 Y 7.6928 Z -1.0000
G01 X 16.1138 Y 7.7031 Z -1.0000
G01 X 16.1099 Y 7.7049 Z -1.0000
G01 X 16.1065 Y 7.7069 Z -1.0000
G01 X 16.1029 Y 7.7171 Z -1.0000
G01 X 16.0989 Y 7.7262 Z -1.0000
G01 X 16.0945 Y 7.7278 Z -1.0000
G01 X 16.0903 Y 7.7294 Z -1.0000
G01 X 16.0879 Y 7.7368 Z -1.0000
G01 X 16.0856 Y 7.7463 Z -1.0000
G03 X 16.0762 Y 7.7603 Z -1.0000 I -0.0582 J -0.0292
G02 X 16.0609 Y 7.7885 Z -1.0000 I 0.0521 J 0.0464
G01 X 16.0673 Y 7.7932 Z -1.0000
G01 X 16.0702 Y 7.7933 Z -1.0000
G01 X 16.0718 Y 7.7961 Z -1.0000
G01 X 16.0695 Y 7.7995 Z -1.0000
G01 X 16.0579 Y 7.8018 Z -1.0000
G01 X 16.0477 Y 7.8045 Z -1.0000
G01 X 16.0462 Y 7.8085 Z -1.0000
G01 X 16.0459 Y 7.8156 Z -1.0000
