%
(Header)
(Generated by gcodetools from Inkscape.)
(Using default header. To add your own header create file "header" in the output dir.)
M3
(Header end.)
G21 (All units in mm)

(Start cutting path id: path361)
(Change tool to Default tool)

G00 Z 5.0000
G00 X 0.9228 Y 3.8809

G01 Z -1.0000 F 100.0000(Penetrate)
G02 X 0.9265 Y 7.4371 Z -1.0000 I 1683.6572 J 0.0000 F 3500.0000
G01 X 0.9303 Y 7.4408 Z -1.0000
G01 X 0.9368 Y 7.4389 Z -1.0000
G01 X 0.9430 Y 7.4324 Z -1.0000
G01 X 0.9499 Y 7.4274 Z -1.0000
G03 X 0.9695 Y 7.4256 Z -1.0000 I 0.0150 J 0.0577
G02 X 1.0355 Y 7.4241 Z -1.0000 I 0.0253 J -0.3367
G01 X 1.0388 Y 7.4171 Z -1.0000
G01 X 1.0398 Y 7.4110 Z -1.0000
G03 X 1.0667 Y 7.3928 Z -1.0000 I 0.0871 J 0.0996
G02 X 1.0968 Y 7.3738 Z -1.0000 I -0.0924 J -0.1803
G01 X 1.1038 Y 7.3646 Z -1.0000
G01 X 1.1097 Y 7.3573 Z -1.0000
G01 X 1.1152 Y 7.3573 Z -1.0000
G01 X 1.1518 Y 7.3580 Z -1.0000
G01 X 1.1705 Y 7.3259 Z -1.0000
G01 X 1.1729 Y 7.3162 Z -1.0000
G03 X 1.1845 Y 7.2988 Z -1.0000 I 0.0831 J 0.0427
G02 X 1.1984 Y 7.2821 Z -1.0000 I -1.1939 J -1.0089
G02 X 1.2184 Y 7.2576 Z -1.0000 I -3.2670 J -2.6840
G03 X 1.2397 Y 7.2361 Z -1.0000 I 0.1159 J 0.0938
G01 X 1.2483 Y 7.2330 Z -1.0000
G01 X 1.2552 Y 7.2298 Z -1.0000
G01 X 1.2584 Y 7.2213 Z -1.0000
G01 X 1.2702 Y 7.2016 Z -1.0000
G03 X 1.3183 Y 7.1890 Z -1.0000 I 0.0501 J 0.0929
G02 X 1.3412 Y 7.1851 Z -1.0000 I -0.0014 J -0.0781
G02 X 1.3642 Y 7.1739 Z -1.0000 I -0.0294 J -0.0898
G03 X 1.3866 Y 7.1633 Z -1.0000 I 0.0491 J 0.0739
G01 X 1.3972 Y 7.1636 Z -1.0000
G01 X 1.4062 Y 7.1625 Z -1.0000
G01 X 1.4181 Y 7.1494 Z -1.0000
G01 X 1.4446 Y 7.1302 Z -1.0000
G03 X 1.5401 Y 7.1283 Z -1.0000 I 0.0538 J 0.3127
G01 X 1.5440 Y 7.1309 Z -1.0000
G01 X 1.5461 Y 7.1377 Z -1.0000
G01 X 1.5580 Y 7.1543 Z -1.0000
G02 X 1.6291 Y 7.1657 Z -1.0000 I 0.0694 J -0.2066
G01 X 1.6922 Y 7.1651 Z -1.0000
G01 X 1.7113 Y 7.2211 Z -1.0000
G03 X 1.7268 Y 7.2772 Z -1.0000 I -0.4662 J 0.1592
G01 X 1.7266 Y 7.2923 Z -1.0000
G02 X 1.7295 Y 7.3451 Z -1.0000 I 0.0856 J 0.0217
G01 X 1.7525 Y 7.3609 Z -1.0000
G01 X 1.7580 Y 7.3638 Z -1.0000
G03 X 1.7697 Y 7.3847 Z -1.0000 I -0.0827 J 0.0601
G02 X 1.7811 Y 7.4076 Z -1.0000 I 0.1738 J -0.0720
G02 X 1.7927 Y 7.4240 Z -1.0000 I 0.1006 J -0.0588
G03 X 1.8287 Y 7.4698 Z -1.0000 I -0.6491 J 0.5481
G03 X 1.8359 Y 7.4830 Z -1.0000 I -0.0458 J 0.0336
G01 X 1.8436 Y 7.4910 Z -1.0000
G01 X 1.8547 Y 7.4913 Z -1.0000
G01 X 1.8614 Y 7.4918 Z -1.0000
G01 X 1.8624 Y 7.4956 Z -1.0000
G01 X 1.8599 Y 7.5307 Z -1.0000
G02 X 1.8909 Y 7.5612 Z -1.0000 I 0.0532 J -0.0231
G03 X 1.9114 Y 7.5751 Z -1.0000 I -0.0230 J 0.0560
G03 X 1.9284 Y 7.5999 Z -1.0000 I -0.0647 J 0.0626
G02 X 1.9426 Y 7.6279 Z -1.0000 I 0.3837 J -0.1772
G01 X 1.9465 Y 7.6326 Z -1.0000
G01 X 1.9627 Y 7.6608 Z -1.0000
G01 X 1.9526 Y 7.6726 Z -1.0000
G01 X 1.9628 Y 7.6945 Z -1.0000
G03 X 1.9817 Y 7.7175 Z -1.0000 I -0.1962 J 0.1803
G03 X 2.0015 Y 7.7475 Z -1.0000 I -0.3150 J 0.2304
G02 X 2.0239 Y 7.7742 Z -1.0000 I 0.0955 J -0.0571
G02 X 2.0544 Y 7.7937 Z -1.0000 I 0.0794 J -0.0909
G03 X 2.0872 Y 7.8106 Z -1.0000 I -0.1272 J 0.2860
G01 X 2.0940 Y 7.8173 Z -1.0000
G01 X 2.1200 Y 7.8292 Z -1.0000
G02 X 2.2133 Y 7.7984 Z -1.0000 I -0.0476 J -0.3012
G03 X 2.2464 Y 7.7859 Z -1.0000 I 0.0684 J 0.1306
G03 X 2.2892 Y 7.7796 Z -1.0000 I 0.0537 J 0.2178
G02 X 2.4054 Y 7.7628 Z -1.0000 I -0.0300 J -0.6188
G02 X 2.4349 Y 7.7442 Z -1.0000 I -0.0128 J -0.0528
G03 X 2.4517 Y 7.7285 Z -1.0000 I 0.0642 J 0.0520
G01 X 2.4635 Y 7.7242 Z -1.0000
G02 X 2.6548 Y 7.6963 Z -1.0000 I -0.1809 J -1.9116
G01 X 2.6704 Y 7.6832 Z -1.0000
G01 X 2.6770 Y 7.6756 Z -1.0000
G03 X 2.7044 Y 7.6646 Z -1.0000 I 0.0602 J 0.1107
G02 X 2.7325 Y 7.6530 Z -1.0000 I -0.0293 J -0.1100
G02 X 2.7630 Y 7.6306 Z -1.0000 I -0.0905 J -0.1552
G02 X 2.8236 Y 7.5744 Z -1.0000 I -3.1093 J -3.4136
G02 X 2.8384 Y 7.5594 Z -1.0000 I -0.2036 J -0.2156
G03 X 2.8729 Y 7.5228 Z -1.0000 I 1.3502 J 1.2413
G03 X 2.9265 Y 7.4687 Z -1.0000 I 2.9977 J 2.9116
G02 X 2.9507 Y 7.4422 Z -1.0000 I -0.2667 J -0.2686
G01 X 2.9524 Y 7.4375 Z -1.0000
G01 X 2.9611 Y 7.4194 Z -1.0000
G03 X 3.0244 Y 7.3793 Z -1.0000 I 0.2046 J 0.2528
G02 X 3.0506 Y 7.3639 Z -1.0000 I -0.0822 J -0.1709
G01 X 3.0587 Y 7.3553 Z -1.0000
G01 X 3.0671 Y 7.3486 Z -1.0000
G03 X 3.0887 Y 7.3449 Z -1.0000 I 0.0216 J 0.0617
G01 X 3.1076 Y 7.3403 Z -1.0000
G01 X 3.1123 Y 7.3327 Z -1.0000
G01 X 3.1157 Y 7.3229 Z -1.0000
G01 X 3.1262 Y 7.3152 Z -1.0000
G02 X 3.1392 Y 7.3085 Z -1.0000 I -0.0219 J -0.0580
G01 X 3.1482 Y 7.3002 Z -1.0000
G03 X 3.1869 Y 7.2773 Z -1.0000 I 0.0509 J 0.0417
G01 X 3.2117 Y 7.2883 Z -1.0000
G01 X 3.2183 Y 7.2907 Z -1.0000
G02 X 3.2592 Y 7.2735 Z -1.0000 I -0.0684 J -0.2194
G03 X 3.3033 Y 7.2572 Z -1.0000 I 0.0785 J 0.1450
G03 X 3.3608 Y 7.2518 Z -1.0000 I 0.0520 J 0.2437
G03 X 3.4186 Y 7.2579 Z -1.0000 I -0.0079 J 0.3559
G03 X 3.4479 Y 7.2682 Z -1.0000 I -0.0186 J 0.0989
G02 X 3.4850 Y 7.2812 Z -1.0000 I 0.0588 J -0.1091
G02 X 3.5940 Y 7.2943 Z -1.0000 I 0.1701 J -0.9544
G03 X 3.6488 Y 7.3068 Z -1.0000 I -0.0112 J 0.1753
G01 X 3.6609 Y 7.3214 Z -1.0000
G02 X 3.6680 Y 7.3391 Z -1.0000 I 0.0516 J -0.0103
G01 X 3.6727 Y 7.3402 Z -1.0000
G01 X 3.6799 Y 7.3395 Z -1.0000
G03 X 3.7076 Y 7.3529 Z -1.0000 I -0.0517 J 0.1423
G02 X 3.7359 Y 7.3653 Z -1.0000 I 0.0569 J -0.0920
G01 X 3.7514 Y 7.3649 Z -1.0000
G01 X 3.7641 Y 7.3645 Z -1.0000
G01 X 3.7675 Y 7.3688 Z -1.0000
G01 X 3.7702 Y 7.3730 Z -1.0000
G01 X 3.7760 Y 7.3726 Z -1.0000
G01 X 3.7850 Y 7.3688 Z -1.0000
G03 X 3.8099 Y 7.3637 Z -1.0000 I 0.0565 J 0.2159
G02 X 3.8692 Y 7.3436 Z -1.0000 I -0.0244 J -0.1693
G02 X 3.9008 Y 7.3128 Z -1.0000 I -0.0415 J -0.0739
G03 X 3.9161 Y 7.2913 Z -1.0000 I 0.1314 J 0.0777
G01 X 3.9211 Y 7.2891 Z -1.0000
G01 X 3.9249 Y 7.2867 Z -1.0000
G01 X 3.9273 Y 7.2764 Z -1.0000
G01 X 3.9401 Y 7.2470 Z -1.0000
G03 X 3.9733 Y 7.2334 Z -1.0000 I 0.0346 J 0.0370
G01 X 3.9799 Y 7.2298 Z -1.0000
G01 X 3.9834 Y 7.2191 Z -1.0000
G01 X 3.9862 Y 7.2148 Z -1.0000
G01 X 3.9904 Y 7.2160 Z -1.0000
G01 X 3.9995 Y 7.2237 Z -1.0000
G02 X 4.0300 Y 7.2329 Z -1.0000 I 0.0566 J -0.1331
G02 X 4.0606 Y 7.2327 Z -1.0000 I 0.0149 J -0.0811
G01 X 4.0761 Y 7.2240 Z -1.0000
G01 X 4.0901 Y 7.2162 Z -1.0000
G01 X 4.1015 Y 7.2191 Z -1.0000
G01 X 4.1121 Y 7.2214 Z -1.0000
G01 X 4.1223 Y 7.2136 Z -1.0000
G03 X 4.1323 Y 7.1991 Z -1.0000 I 0.0902 J 0.0515
G03 X 4.1497 Y 7.1801 Z -1.0000 I 0.1750 J 0.1440
G01 X 4.1643 Y 7.1470 Z -1.0000
G01 X 4.1510 Y 7.1332 Z -1.0000
G01 X 4.1403 Y 7.1280 Z -1.0000
G01 X 4.1351 Y 7.1124 Z -1.0000
G01 X 4.1383 Y 7.1081 Z -1.0000
G01 X 4.1491 Y 7.1084 Z -1.0000
G01 X 4.1482 Y 7.1018 Z -1.0000
G01 X 4.1476 Y 7.0938 Z -1.0000
G01 X 4.1642 Y 7.0847 Z -1.0000
G02 X 4.1945 Y 7.0777 Z -1.0000 I -0.0572 J -0.3127
G02 X 4.2092 Y 7.0718 Z -1.0000 I -0.0224 J -0.0780
G01 X 4.2148 Y 7.0623 Z -1.0000
G01 X 4.2083 Y 7.0429 Z -1.0000
G03 X 4.1992 Y 7.0212 Z -1.0000 I 0.0438 J -0.0309
G01 X 4.2020 Y 7.0071 Z -1.0000
G01 X 4.2048 Y 6.9943 Z -1.0000
G01 X 4.1990 Y 6.9853 Z -1.0000
G01 X 4.1962 Y 6.9802 Z -1.0000
G01 X 4.1990 Y 6.9774 Z -1.0000
G01 X 4.2021 Y 6.9747 Z -1.0000
G01 X 4.2002 Y 6.9703 Z -1.0000
G01 X 4.1932 Y 6.9446 Z -1.0000
G01 X 4.2203 Y 6.9312 Z -1.0000
G01 X 4.2308 Y 6.9291 Z -1.0000
G01 X 4.2419 Y 6.9175 Z -1.0000
G03 X 4.2510 Y 6.9015 Z -1.0000 I 4.5623 J 2.5818
G03 X 4.2529 Y 6.8982 Z -1.0000 I 0.2191 J 0.1250
G01 X 4.2557 Y 6.8964 Z -1.0000
G03 X 4.3025 Y 6.8929 Z -1.0000 I 0.0840 J 0.8101
G02 X 4.4015 Y 6.8762 Z -1.0000 I -0.0165 J -0.3974
G02 X 4.4499 Y 6.8483 Z -1.0000 I -0.0359 J -0.1184
G03 X 4.4671 Y 6.8355 Z -1.0000 I 0.0638 J 0.0682
G03 X 4.4922 Y 6.8239 Z -1.0000 I 0.0793 J 0.1379
G02 X 4.5148 Y 6.8116 Z -1.0000 I -0.0300 J -0.0822
G01 X 4.5186 Y 6.8039 Z -1.0000
G01 X 4.5219 Y 6.7969 Z -1.0000
G01 X 4.5309 Y 6.7936 Z -1.0000
G01 X 4.5409 Y 6.7903 Z -1.0000
G01 X 4.5480 Y 6.7810 Z -1.0000
G01 X 4.5553 Y 6.7709 Z -1.0000
G03 X 4.5737 Y 6.7604 Z -1.0000 I 0.0427 J 0.0532
G01 X 4.5832 Y 6.7509 Z -1.0000
G01 X 4.5806 Y 6.7421 Z -1.0000
G01 X 4.5698 Y 6.7302 Z -1.0000
G01 X 4.5666 Y 6.7188 Z -1.0000
G01 X 4.5632 Y 6.7076 Z -1.0000
G01 X 4.5521 Y 6.6968 Z -1.0000
G01 X 4.5337 Y 6.6644 Z -1.0000
G03 X 4.5504 Y 6.6228 Z -1.0000 I 0.0569 J -0.0014
G01 X 4.5552 Y 6.6132 Z -1.0000
G02 X 4.5594 Y 6.5622 Z -1.0000 I -0.3818 J -0.0568
G01 X 4.5658 Y 6.5299 Z -1.0000
G01 X 4.5719 Y 6.5374 Z -1.0000
G01 X 4.5768 Y 6.5356 Z -1.0000
G01 X 4.5784 Y 6.5216 Z -1.0000
G01 X 4.5725 Y 6.5046 Z -1.0000
G01 X 4.5688 Y 6.4901 Z -1.0000
G01 X 4.5732 Y 6.4840 Z -1.0000
G01 X 4.5828 Y 6.4787 Z -1.0000
G02 X 4.6076 Y 6.4569 Z -1.0000 I -0.1905 J -0.2420
G03 X 4.6320 Y 6.4383 Z -1.0000 I 0.0879 J 0.0899
G01 X 4.6392 Y 6.4384 Z -1.0000
G01 X 4.6617 Y 6.4360 Z -1.0000
G02 X 4.6972 Y 6.3825 Z -1.0000 I -0.1027 J -0.1065
G01 X 4.7040 Y 6.3725 Z -1.0000
G03 X 4.7299 Y 6.3524 Z -1.0000 I 0.1327 J 0.1446
G02 X 4.7511 Y 6.3303 Z -1.0000 I -0.0362 J -0.0558
G02 X 4.7583 Y 6.3042 Z -1.0000 I -0.0448 J -0.0263
G01 X 4.7649 Y 6.2808 Z -1.0000
G01 X 4.7764 Y 6.2744 Z -1.0000
G01 X 4.7810 Y 6.2782 Z -1.0000
G01 X 4.7785 Y 6.2838 Z -1.0000
G01 X 4.7763 Y 6.2913 Z -1.0000
G01 X 4.7865 Y 6.2995 Z -1.0000
G02 X 4.8084 Y 6.3004 Z -1.0000 I 0.0130 J -0.0485
G01 X 4.8196 Y 6.2935 Z -1.0000
G03 X 4.8298 Y 6.2829 Z -1.0000 I 0.0479 J 0.0358
G01 X 4.8356 Y 6.2806 Z -1.0000
G01 X 4.8640 Y 6.2694 Z -1.0000
G02 X 4.8894 Y 6.2359 Z -1.0000 I -0.0596 J -0.0718
G03 X 5.0098 Y 6.0934 Z -1.0000 I 0.3101 J 0.1398
G01 X 5.0793 Y 6.1084 Z -1.0000
G01 X 5.0927 Y 6.1116 Z -1.0000
G02 X 5.1690 Y 6.0543 Z -1.0000 I -0.2436 J -0.4035
G03 X 5.2164 Y 6.0154 Z -1.0000 I 0.3472 J 0.3757
G01 X 5.2230 Y 6.0152 Z -1.0000
G01 X 5.2295 Y 6.0150 Z -1.0000
G02 X 5.2584 Y 5.9903 Z -1.0000 I -0.1172 J -0.1667
G03 X 5.2880 Y 5.9667 Z -1.0000 I 0.1077 J 0.1046
G01 X 5.2988 Y 5.9658 Z -1.0000
G01 X 5.3105 Y 5.9667 Z -1.0000
G02 X 5.3345 Y 5.9581 Z -1.0000 I -0.0197 J -0.0924
G03 X 5.3580 Y 5.9492 Z -1.0000 I 0.0496 J 0.0964
G01 X 5.3656 Y 5.9505 Z -1.0000
G01 X 5.3725 Y 5.9503 Z -1.0000
G02 X 5.4063 Y 5.9228 Z -1.0000 I -0.1399 J -0.2064
G01 X 5.4306 Y 5.8906 Z -1.0000
G01 X 5.4203 Y 5.8799 Z -1.0000
G03 X 5.4328 Y 5.8354 Z -1.0000 I 0.1004 J 0.0041
G03 X 5.4464 Y 5.8197 Z -1.0000 I 0.0438 J 0.0243
G03 X 5.4698 Y 5.8074 Z -1.0000 I 0.0489 J 0.0646
G02 X 5.4918 Y 5.7951 Z -1.0000 I -0.0210 J -0.0631
G01 X 5.4983 Y 5.7833 Z -1.0000
G01 X 5.5034 Y 5.7698 Z -1.0000
G01 X 5.5130 Y 5.7609 Z -1.0000
G01 X 5.5227 Y 5.7523 Z -1.0000
G01 X 5.5255 Y 5.7437 Z -1.0000
G01 X 5.5362 Y 5.7221 Z -1.0000
G03 X 5.5993 Y 5.6875 Z -1.0000 I 0.1470 J 0.1930
G02 X 5.6357 Y 5.6717 Z -1.0000 I -0.1245 J -0.3369
G01 X 5.6417 Y 5.6662 Z -1.0000
G01 X 5.6477 Y 5.6613 Z -1.0000
G01 X 5.6616 Y 5.6588 Z -1.0000
G01 X 5.6740 Y 5.6538 Z -1.0000
G02 X 5.6927 Y 5.6288 Z -1.0000 I -0.0679 J -0.0703
G03 X 5.7104 Y 5.6003 Z -1.0000 I 0.2017 J 0.1055
G03 X 5.7342 Y 5.5718 Z -1.0000 I 0.2256 J 0.1643
G02 X 5.8132 Y 5.4776 Z -1.0000 I -0.6859 J -0.6556
G01 X 5.8211 Y 5.4533 Z -1.0000
G01 X 5.8247 Y 5.4451 Z -1.0000
G03 X 5.8525 Y 5.4235 Z -1.0000 I 0.1233 J 0.1297
G02 X 5.8805 Y 5.4012 Z -1.0000 I -0.0888 J -0.1406
G01 X 5.8890 Y 5.3874 Z -1.0000
G01 X 5.8967 Y 5.3746 Z -1.0000
G01 X 5.9052 Y 5.3711 Z -1.0000
G01 X 5.9410 Y 5.3559 Z -1.0000
G02 X 5.9825 Y 5.2912 Z -1.0000 I -0.1402 J -0.1356
G02 X 5.9887 Y 5.2709 Z -1.0000 I -0.1303 J -0.0509
G02 X 5.9929 Y 5.2450 Z -1.0000 I -0.2077 J -0.0464
G03 X 6.0087 Y 5.1952 Z -1.0000 I 0.1241 J 0.0120
G01 X 6.0334 Y 5.1741 Z -1.0000
G01 X 6.0402 Y 5.1664 Z -1.0000
G02 X 6.0449 Y 5.1310 Z -1.0000 I -0.1325 J -0.0354
G03 X 6.0485 Y 5.0944 Z -1.0000 I 0.1886 J 0.0000
G01 X 6.0536 Y 5.0870 Z -1.0000
G01 X 6.0583 Y 5.0798 Z -1.0000
G02 X 6.0576 Y 5.0566 Z -1.0000 I -0.0733 J -0.0097
G03 X 6.0580 Y 5.0324 Z -1.0000 I 0.0595 J -0.0111
G03 X 6.0689 Y 5.0053 Z -1.0000 I 0.0867 J 0.0191
G02 X 6.0822 Y 4.9784 Z -1.0000 I -0.1435 J -0.0874
G01 X 6.0848 Y 4.9640 Z -1.0000
G01 X 6.0880 Y 4.9512 Z -1.0000
G01 X 6.0945 Y 4.9457 Z -1.0000
G01 X 6.0988 Y 4.9397 Z -1.0000
G02 X 6.0940 Y 4.9084 Z -1.0000 I -0.1141 J 0.0015
G03 X 6.0957 Y 4.8699 Z -1.0000 I 0.0564 J -0.0169
G03 X 6.1318 Y 4.8128 Z -1.0000 I 0.1680 J 0.0663
G03 X 6.1587 Y 4.7921 Z -1.0000 I 0.0772 J 0.0722
G01 X 6.1734 Y 4.7903 Z -1.0000
G01 X 6.1840 Y 4.7892 Z -1.0000
G01 X 6.1859 Y 4.7841 Z -1.0000
G01 X 6.1972 Y 4.7475 Z -1.0000
G03 X 6.2725 Y 4.7239 Z -1.0000 I 0.0753 J 0.1083
G02 X 6.2897 Y 4.7210 Z -1.0000 I 0.0000 J -0.0526
G01 X 6.2926 Y 4.7169 Z -1.0000
G01 X 6.2954 Y 4.7122 Z -1.0000
G03 X 6.3146 Y 4.7050 Z -1.0000 I 0.0352 J 0.0646
G02 X 6.3551 Y 4.6802 Z -1.0000 I -0.0161 J -0.0717
G02 X 6.3758 Y 4.6310 Z -1.0000 I -0.0710 J -0.0588
G03 X 6.3879 Y 4.5609 Z -1.0000 I 0.5385 J 0.0568
G01 X 6.3958 Y 4.5481 Z -1.0000
G01 X 6.3996 Y 4.5434 Z -1.0000
G02 X 6.4143 Y 4.5141 Z -1.0000 I -0.4293 J -0.2346
G03 X 6.4315 Y 4.4893 Z -1.0000 I 0.0807 J 0.0373
G01 X 6.4437 Y 4.4841 Z -1.0000
G01 X 6.4550 Y 4.4790 Z -1.0000
G01 X 6.4644 Y 4.4604 Z -1.0000
G02 X 6.4671 Y 4.4370 Z -1.0000 I -0.1170 J -0.0257
G01 X 6.4650 Y 4.4291 Z -1.0000
G01 X 6.4667 Y 4.4250 Z -1.0000
G03 X 6.5103 Y 4.4188 Z -1.0000 I 0.0580 J 0.2546
G03 X 6.6285 Y 4.4396 Z -1.0000 I 0.0146 J 0.2632
G01 X 6.6505 Y 4.4787 Z -1.0000
G01 X 6.6724 Y 4.5147 Z -1.0000
G02 X 6.7241 Y 4.5041 Z -1.0000 I 0.0169 J -0.0490
G01 X 6.7373 Y 4.4962 Z -1.0000
G01 X 6.7427 Y 4.4974 Z -1.0000
G01 X 6.7481 Y 4.4934 Z -1.0000
G01 X 6.7523 Y 4.4884 Z -1.0000
G03 X 6.8034 Y 4.4841 Z -1.0000 I 0.0510 J 0.3037
G02 X 6.8706 Y 4.4711 Z -1.0000 I -0.0000 J -0.1797
G01 X 6.8918 Y 4.4484 Z -1.0000
G03 X 6.9052 Y 4.4273 Z -1.0000 I 0.0486 J 0.0160
G01 X 6.9246 Y 4.4173 Z -1.0000
G03 X 6.9713 Y 4.4247 Z -1.0000 I 0.0133 J 0.0663
G01 X 6.9878 Y 4.4531 Z -1.0000
G01 X 6.9909 Y 4.4650 Z -1.0000
G01 X 6.9963 Y 4.4681 Z -1.0000
G01 X 7.0004 Y 4.4706 Z -1.0000
G01 X 7.0002 Y 4.4754 Z -1.0000
G01 X 6.9997 Y 4.4813 Z -1.0000
G01 X 7.0042 Y 4.4856 Z -1.0000
G01 X 7.0102 Y 4.4905 Z -1.0000
G01 X 7.0149 Y 4.5038 Z -1.0000
G01 X 7.0200 Y 4.5172 Z -1.0000
G01 X 7.0285 Y 4.5246 Z -1.0000
G02 X 7.0872 Y 4.5442 Z -1.0000 I 0.1107 J -0.2333
G02 X 7.1613 Y 4.5519 Z -1.0000 I 0.0750 J -0.3651
G02 X 7.2237 Y 4.5456 Z -1.0000 I 0.0008 J -0.3083
G01 X 7.2389 Y 4.5360 Z -1.0000
G01 X 7.2514 Y 4.5280 Z -1.0000
G01 X 7.2594 Y 4.5240 Z -1.0000
G01 X 7.2635 Y 4.5113 Z -1.0000
G02 X 7.2622 Y 4.4817 Z -1.0000 I -0.1329 J -0.0087
G03 X 7.2635 Y 4.4535 Z -1.0000 I 0.0684 J -0.0109
G01 X 7.2741 Y 4.4358 Z -1.0000
G03 X 7.2916 Y 4.4223 Z -1.0000 I 0.0771 J 0.0824
G01 X 7.2991 Y 4.4202 Z -1.0000
G01 X 7.3048 Y 4.4175 Z -1.0000
G01 X 7.3076 Y 4.4102 Z -1.0000
G01 X 7.3144 Y 4.4108 Z -1.0000
G01 X 7.3195 Y 4.4108 Z -1.0000
G02 X 7.3304 Y 4.3849 Z -1.0000 I -0.0790 J -0.0486
G03 X 7.3434 Y 4.3530 Z -1.0000 I 0.1188 J 0.0299
G01 X 7.3518 Y 4.3482 Z -1.0000
G01 X 7.3617 Y 4.3450 Z -1.0000
G01 X 7.3685 Y 4.3362 Z -1.0000
G01 X 7.3751 Y 4.3272 Z -1.0000
G01 X 7.3833 Y 4.3243 Z -1.0000
G01 X 7.3916 Y 4.3213 Z -1.0000
G01 X 7.3982 Y 4.3123 Z -1.0000
G01 X 7.4048 Y 4.3032 Z -1.0000
G01 X 7.4131 Y 4.3002 Z -1.0000
G01 X 7.4322 Y 4.2890 Z -1.0000
G02 X 7.4433 Y 4.2474 Z -1.0000 I -0.0727 J -0.0416
G01 X 7.4458 Y 4.2395 Z -1.0000
G01 X 7.4533 Y 4.2337 Z -1.0000
G01 X 7.4521 Y 4.2290 Z -1.0000
G01 X 7.4499 Y 4.2250 Z -1.0000
G03 X 7.4664 Y 4.2040 Z -1.0000 I 0.0808 J 0.0463
G02 X 7.5295 Y 4.1193 Z -1.0000 I -0.2188 J -0.2290
G02 X 7.5472 Y 4.0462 Z -1.0000 I -0.1427 J -0.0730
G01 X 7.5492 Y 4.0395 Z -1.0000
G03 X 7.5591 Y 4.0286 Z -1.0000 I 0.0433 J 0.0292
G01 X 7.5683 Y 4.0173 Z -1.0000
G01 X 7.5711 Y 4.0056 Z -1.0000
G01 X 7.5747 Y 3.9939 Z -1.0000
G03 X 7.6031 Y 3.9576 Z -1.0000 I 0.2527 J 0.1687
G02 X 7.6329 Y 3.9218 Z -1.0000 I -0.3652 J -0.3338
G01 X 7.6351 Y 3.9153 Z -1.0000
G03 X 7.6520 Y 3.8620 Z -1.0000 I 0.0921 J 0.0000
G01 X 7.6850 Y 3.8448 Z -1.0000
G01 X 7.6960 Y 3.8419 Z -1.0000
G01 X 7.6990 Y 3.8368 Z -1.0000
G01 X 7.7021 Y 3.8322 Z -1.0000
G01 X 7.7170 Y 3.8295 Z -1.0000
G02 X 7.7348 Y 3.8289 Z -1.0000 I 0.0045 J -0.1298
G02 X 7.7629 Y 3.8247 Z -1.0000 I -0.0328 J -0.3163
G03 X 7.7893 Y 3.8253 Z -1.0000 I 0.0119 J 0.0608
G01 X 7.8102 Y 3.8361 Z -1.0000
G02 X 7.8306 Y 3.8476 Z -1.0000 I 0.0381 J -0.0439
G01 X 7.8462 Y 3.8476 Z -1.0000
G03 X 7.8668 Y 3.8435 Z -1.0000 I 0.0293 J 0.0922
G03 X 7.8933 Y 3.8434 Z -1.0000 I 0.0135 J 0.1505
G01 X 7.9016 Y 3.8488 Z -1.0000
G01 X 7.9027 Y 3.8607 Z -1.0000
G01 X 7.9013 Y 3.8742 Z -1.0000
G01 X 7.9042 Y 3.8770 Z -1.0000
G03 X 7.9107 Y 3.8777 Z -1.0000 I -0.0030 J 0.0566
G03 X 7.9436 Y 3.8837 Z -1.0000 I -0.2421 J 1.4248
G02 X 7.9736 Y 3.8836 Z -1.0000 I 0.0149 J -0.0772
G01 X 7.9856 Y 3.8754 Z -1.0000
G03 X 8.0263 Y 3.8507 Z -1.0000 I 0.0449 J 0.0280
G01 X 8.0629 Y 3.8692 Z -1.0000
G01 X 8.0695 Y 3.8739 Z -1.0000
G01 X 8.0804 Y 3.8731 Z -1.0000
G01 X 8.0926 Y 3.8720 Z -1.0000
G03 X 8.1437 Y 3.8857 Z -1.0000 I -0.0805 J 0.4032
G03 X 8.1903 Y 3.9090 Z -1.0000 I -0.0609 J 0.1804
G03 X 8.2169 Y 3.9358 Z -1.0000 I -0.0565 J 0.0826
G02 X 8.2432 Y 3.9618 Z -1.0000 I 0.0772 J -0.0518
G02 X 8.2746 Y 3.9735 Z -1.0000 I 0.0420 J -0.0642
G02 X 8.3097 Y 3.9752 Z -1.0000 I 0.0263 J -0.1911
G01 X 8.3244 Y 3.9711 Z -1.0000
G03 X 8.3391 Y 3.9662 Z -1.0000 I 0.0238 J 0.0463
G03 X 8.3772 Y 3.9617 Z -1.0000 I 0.0562 J 0.3176
G02 X 8.4125 Y 3.9518 Z -1.0000 I -0.0043 J -0.0829
G02 X 8.4605 Y 3.9166 Z -1.0000 I -0.1052 J -0.1941
G03 X 8.5308 Y 3.8687 Z -1.0000 I 0.1760 J 0.1823
G03 X 8.5993 Y 3.8530 Z -1.0000 I 0.0720 J 0.1568
G01 X 8.6143 Y 3.8495 Z -1.0000
G01 X 8.6196 Y 3.8437 Z -1.0000
G01 X 8.6677 Y 3.8198 Z -1.0000
G03 X 8.7058 Y 3.8732 Z -1.0000 I -0.0182 J 0.0533
G01 X 8.7089 Y 3.8801 Z -1.0000
G02 X 8.7260 Y 3.8912 Z -1.0000 I 0.0452 J -0.0507
G03 X 8.7430 Y 3.9032 Z -1.0000 I -0.0224 J 0.0496
G03 X 8.7536 Y 3.9201 Z -1.0000 I -0.0365 J 0.0348
G01 X 8.7657 Y 3.9349 Z -1.0000
G02 X 8.8054 Y 3.9527 Z -1.0000 I 0.0833 J -0.1322
G03 X 8.8468 Y 3.9677 Z -1.0000 I -0.0965 J 0.3311
G01 X 8.8497 Y 3.9721 Z -1.0000
G01 X 8.8528 Y 3.9754 Z -1.0000
G02 X 8.9235 Y 3.9759 Z -1.0000 I 0.0411 J -0.8029
G03 X 8.9936 Y 3.9815 Z -1.0000 I 0.0109 J 0.3013
G01 X 9.0141 Y 3.9940 Z -1.0000
G01 X 9.0226 Y 4.0166 Z -1.0000
G03 X 9.0175 Y 4.0636 Z -1.0000 I -0.1509 J 0.0074
G03 X 9.0024 Y 4.1116 Z -1.0000 I -0.6142 J -0.1667
G03 X 8.9909 Y 4.1379 Z -1.0000 I -0.1957 J -0.0701
G02 X 8.9794 Y 4.1639 Z -1.0000 I 0.1868 J 0.0979
G01 X 8.9775 Y 4.1749 Z -1.0000
G01 X 8.9736 Y 4.1837 Z -1.0000
G03 X 8.9537 Y 4.1961 Z -1.0000 I -0.0467 J -0.0523
G02 X 8.9310 Y 4.2076 Z -1.0000 I 0.0665 J 0.1610
G02 X 8.9153 Y 4.2191 Z -1.0000 I 0.0529 J 0.0886
G02 X 8.8733 Y 4.2752 Z -1.0000 I 0.1163 J 0.1306
G02 X 8.8672 Y 4.3211 Z -1.0000 I 0.0694 J 0.0327
G01 X 8.8646 Y 4.3326 Z -1.0000
G01 X 8.8503 Y 4.3450 Z -1.0000
G02 X 8.8327 Y 4.3567 Z -1.0000 I 0.0408 J 0.0804
G01 X 8.8240 Y 4.3673 Z -1.0000
G02 X 8.8068 Y 4.4235 Z -1.0000 I 0.1211 J 0.0678
G01 X 8.8182 Y 4.4359 Z -1.0000
G01 X 8.8222 Y 4.4335 Z -1.0000
G01 X 8.8219 Y 4.4283 Z -1.0000
G01 X 8.8272 Y 4.4073 Z -1.0000
G01 X 8.8571 Y 4.4076 Z -1.0000
G01 X 8.8629 Y 4.4079 Z -1.0000
G01 X 8.8683 Y 4.4020 Z -1.0000
G01 X 8.8733 Y 4.4079 Z -1.0000
G01 X 8.8772 Y 4.4106 Z -1.0000
G01 X 8.8852 Y 4.4040 Z -1.0000
G02 X 8.8942 Y 4.3842 Z -1.0000 I -0.1171 J -0.0648
G01 X 8.8937 Y 4.3801 Z -1.0000
G01 X 8.8937 Y 4.3763 Z -1.0000
G01 X 8.9017 Y 4.3663 Z -1.0000
G01 X 8.9105 Y 4.3637 Z -1.0000
G01 X 8.9168 Y 4.3688 Z -1.0000
G01 X 8.9232 Y 4.3760 Z -1.0000
G01 X 8.9300 Y 4.3757 Z -1.0000
G01 X 8.9382 Y 4.3748 Z -1.0000
G01 X 8.9529 Y 4.3834 Z -1.0000
G01 X 8.9680 Y 4.3921 Z -1.0000
G01 X 8.9795 Y 4.3917 Z -1.0000
G01 X 8.9905 Y 4.3930 Z -1.0000
G03 X 9.0370 Y 4.4313 Z -1.0000 I -0.2002 J 0.2910
G03 X 9.0700 Y 4.4758 Z -1.0000 I -0.1220 J 0.1250
G01 X 9.0679 Y 4.4907 Z -1.0000
G03 X 9.0516 Y 4.5023 Z -1.0000 I -0.0391 J -0.0376
G03 X 9.0234 Y 4.5112 Z -1.0000 I -0.0488 J -0.1054
G01 X 9.0013 Y 4.5285 Z -1.0000
G02 X 8.9927 Y 4.5789 Z -1.0000 I 0.0912 J 0.0414
G01 X 8.9896 Y 4.5963 Z -1.0000
G03 X 8.9727 Y 4.6206 Z -1.0000 I -0.0848 J -0.0407
G02 X 8.9605 Y 4.6412 Z -1.0000 I 0.0383 J 0.0367
G01 X 8.9639 Y 4.6482 Z -1.0000
G01 X 8.9700 Y 4.6554 Z -1.0000
G01 X 8.9677 Y 4.6676 Z -1.0000
G01 X 8.9723 Y 4.6939 Z -1.0000
G02 X 9.0137 Y 4.7042 Z -1.0000 I 0.0320 J -0.0402
G01 X 9.0332 Y 4.7087 Z -1.0000
G01 X 9.0318 Y 4.7176 Z -1.0000
G01 X 9.0290 Y 4.7215 Z -1.0000
G01 X 9.0318 Y 4.7267 Z -1.0000
G01 X 9.0387 Y 4.7277 Z -1.0000
G01 X 9.0414 Y 4.7242 Z -1.0000
G01 X 9.0438 Y 4.7181 Z -1.0000
G01 X 9.0494 Y 4.7157 Z -1.0000
G01 X 9.0593 Y 4.7263 Z -1.0000
G01 X 9.0474 Y 4.7420 Z -1.0000
G01 X 9.0708 Y 4.7443 Z -1.0000
G02 X 9.1004 Y 4.7357 Z -1.0000 I -0.0027 J -0.0647
G02 X 9.1307 Y 4.7097 Z -1.0000 I -0.0541 J -0.0937
G03 X 9.1587 Y 4.6793 Z -1.0000 I 0.2322 J 0.1862
G01 X 9.1663 Y 4.6761 Z -1.0000
G01 X 9.1742 Y 4.6736 Z -1.0000
G01 X 9.1852 Y 4.6637 Z -1.0000
G01 X 9.2013 Y 4.6541 Z -1.0000
G01 X 9.2052 Y 4.6597 Z -1.0000
G01 X 9.2044 Y 4.6654 Z -1.0000
G01 X 9.2074 Y 4.6677 Z -1.0000
G01 X 9.2115 Y 4.6706 Z -1.0000
G01 X 9.2138 Y 4.6857 Z -1.0000
G01 X 9.2202 Y 4.6974 Z -1.0000
G02 X 9.2476 Y 4.7062 Z -1.0000 I 0.0318 J -0.0524
G03 X 9.2734 Y 4.7145 Z -1.0000 I -0.0042 J 0.0575
G01 X 9.2770 Y 4.7241 Z -1.0000
G01 X 9.2768 Y 4.7362 Z -1.0000
G01 X 9.2814 Y 4.7396 Z -1.0000
G01 X 9.2862 Y 4.7429 Z -1.0000
G01 X 9.2862 Y 4.7516 Z -1.0000
G01 X 9.2882 Y 4.7591 Z -1.0000
G01 X 9.3011 Y 4.7636 Z -1.0000
G01 X 9.3140 Y 4.7591 Z -1.0000
G01 X 9.3160 Y 4.7516 Z -1.0000
G01 X 9.3182 Y 4.7442 Z -1.0000
G01 X 9.3342 Y 4.7387 Z -1.0000
G03 X 9.3570 Y 4.7384 Z -1.0000 I 0.0179 J 0.4315
G01 X 9.3640 Y 4.7390 Z -1.0000
G01 X 9.3699 Y 4.7375 Z -1.0000
G02 X 9.3825 Y 4.7240 Z -1.0000 I -0.0432 J -0.0527
G01 X 9.4198 Y 4.7029 Z -1.0000
G01 X 9.4460 Y 4.7197 Z -1.0000
G01 X 9.4528 Y 4.7286 Z -1.0000
G01 X 9.4622 Y 4.7317 Z -1.0000
G01 X 9.4685 Y 4.7287 Z -1.0000
G01 X 9.4689 Y 4.7236 Z -1.0000
G01 X 9.4700 Y 4.7182 Z -1.0000
G03 X 9.4884 Y 4.7106 Z -1.0000 I 0.0284 J 0.0427
G02 X 9.5099 Y 4.7034 Z -1.0000 I -0.0178 J -0.0890
G01 X 9.5129 Y 4.6987 Z -1.0000
G01 X 9.5146 Y 4.6925 Z -1.0000
G03 X 9.5268 Y 4.6763 Z -1.0000 I 0.0950 J 0.0591
G02 X 9.5559 Y 4.6209 Z -1.0000 I -0.0923 J -0.0837
G01 X 9.5450 Y 4.5988 Z -1.0000
G01 X 9.5248 Y 4.5897 Z -1.0000
G01 X 9.5435 Y 4.5823 Z -1.0000
G03 X 9.6113 Y 4.5754 Z -1.0000 I 0.0460 J 0.1165
G01 X 9.6266 Y 4.5970 Z -1.0000
G01 X 9.6285 Y 4.6076 Z -1.0000
G01 X 9.6368 Y 4.6146 Z -1.0000
G01 X 9.6468 Y 4.6217 Z -1.0000
G03 X 9.6564 Y 4.6375 Z -1.0000 I -0.0432 J 0.0370
G01 X 9.6642 Y 4.6417 Z -1.0000
G01 X 9.6726 Y 4.6326 Z -1.0000
G01 X 9.6807 Y 4.6397 Z -1.0000
G01 X 9.6850 Y 4.6474 Z -1.0000
G01 X 9.7002 Y 4.6517 Z -1.0000
G01 X 9.7149 Y 4.6429 Z -1.0000
G01 X 9.7105 Y 4.6325 Z -1.0000
G01 X 9.7044 Y 4.6253 Z -1.0000
G01 X 9.7086 Y 4.6155 Z -1.0000
G02 X 9.7245 Y 4.6033 Z -1.0000 I -0.4870 J -0.6486
G02 X 9.7373 Y 4.5929 Z -1.0000 I -0.3461 J -0.4380
G01 X 9.7510 Y 4.5854 Z -1.0000
G03 X 9.7690 Y 4.5831 Z -1.0000 I 0.0157 J 0.0502
G01 X 9.7848 Y 4.5786 Z -1.0000
G01 X 9.7976 Y 4.5639 Z -1.0000
G02 X 9.8125 Y 4.5134 Z -1.0000 I -0.1453 J -0.0701
G02 X 9.8172 Y 4.4038 Z -1.0000 I -0.6959 J -0.0852
G03 X 9.8351 Y 4.3193 Z -1.0000 I 0.1792 J -0.0062
G03 X 9.8805 Y 4.2733 Z -1.0000 I 0.0902 J 0.0438
G03 X 9.9303 Y 4.2622 Z -1.0000 I 0.0474 J 0.0951
G03 X 10.0203 Y 4.2764 Z -1.0000 I -0.0075 J 0.3382
G02 X 10.0446 Y 4.2821 Z -1.0000 I 0.0562 J -0.1853
G02 X 10.0842 Y 4.2872 Z -1.0000 I 0.0855 J -0.5114
G03 X 10.1240 Y 4.2918 Z -1.0000 I -0.0734 J 0.8068
G03 X 10.1441 Y 4.2957 Z -1.0000 I -0.0285 J 0.2018
G02 X 10.1643 Y 4.2995 Z -1.0000 I 0.0442 J -0.1801
G02 X 10.2001 Y 4.3030 Z -1.0000 I 0.0723 J -0.5518
G03 X 10.2294 Y 4.3106 Z -1.0000 I -0.0054 J 0.0814
G01 X 10.2337 Y 4.3188 Z -1.0000
G01 X 10.2508 Y 4.3388 Z -1.0000
G01 X 10.2772 Y 4.3180 Z -1.0000
G01 X 10.2845 Y 4.3073 Z -1.0000
G03 X 10.3092 Y 4.2950 Z -1.0000 I 0.0506 J 0.0705
G03 X 10.3373 Y 4.2917 Z -1.0000 I 0.0227 J 0.0722
G03 X 10.3686 Y 4.2992 Z -1.0000 I -0.0069 J 0.0982
G03 X 10.3935 Y 4.3172 Z -1.0000 I -0.0262 J 0.0625
G01 X 10.4044 Y 4.3402 Z -1.0000
G02 X 10.4572 Y 4.4899 Z -1.0000 I 0.4535 J -0.0759
G02 X 10.5153 Y 4.5371 Z -1.0000 I 0.0889 J -0.0501
G03 X 10.5632 Y 4.5654 Z -1.0000 I -0.0377 J 0.1189
G01 X 10.5756 Y 4.5942 Z -1.0000
G02 X 10.6006 Y 4.6467 Z -1.0000 I 0.0678 J 0.0000
G02 X 10.7105 Y 4.7041 Z -1.0000 I 0.1944 J -0.2385
G02 X 10.7534 Y 4.7088 Z -1.0000 I 0.0353 J -0.1236
G01 X 10.7668 Y 4.7008 Z -1.0000
G01 X 10.7725 Y 4.6992 Z -1.0000
G01 X 10.7791 Y 4.7070 Z -1.0000
G02 X 10.8053 Y 4.7435 Z -1.0000 I 0.0694 J -0.0221
G01 X 10.8302 Y 4.7445 Z -1.0000
G01 X 10.8361 Y 4.7445 Z -1.0000
G01 X 10.8422 Y 4.7518 Z -1.0000
G01 X 10.8702 Y 4.7710 Z -1.0000
G01 X 10.8982 Y 4.7518 Z -1.0000
G01 X 10.9049 Y 4.7430 Z -1.0000
G01 X 10.9148 Y 4.7398 Z -1.0000
G01 X 10.9521 Y 4.7167 Z -1.0000
G02 X 10.9752 Y 4.6179 Z -1.0000 I -0.1997 J -0.0988
G03 X 10.9774 Y 4.6000 Z -1.0000 I 0.0730 J -0.0000
G01 X 10.9818 Y 4.5916 Z -1.0000
G02 X 11.0024 Y 4.5449 Z -1.0000 I -0.0651 J -0.0566
G02 X 11.0026 Y 4.4130 Z -1.0000 I -0.5746 J -0.0670
G03 X 11.0064 Y 4.3679 Z -1.0000 I 0.1152 J -0.0130
G03 X 11.0261 Y 4.3312 Z -1.0000 I 0.0945 J 0.0272
G02 X 11.0535 Y 4.2969 Z -1.0000 I -0.4802 J -0.4110
G01 X 11.0551 Y 4.2922 Z -1.0000
G01 X 11.0571 Y 4.2881 Z -1.0000
G03 X 11.0763 Y 4.2757 Z -1.0000 I 0.0819 J 0.1051
G02 X 11.0942 Y 4.2613 Z -1.0000 I -0.0290 J -0.0545
G02 X 11.1084 Y 4.2384 Z -1.0000 I -0.0657 J -0.0564
G03 X 11.1212 Y 4.2154 Z -1.0000 I 0.1075 J 0.0452
G01 X 11.1271 Y 4.2124 Z -1.0000
G01 X 11.1322 Y 4.2097 Z -1.0000
G01 X 11.1350 Y 4.2008 Z -1.0000
G03 X 11.1440 Y 4.1713 Z -1.0000 I 0.0529 J 0.0000
G03 X 11.1942 Y 4.1124 Z -1.0000 I 0.2768 J 0.1857
G02 X 11.2071 Y 4.0943 Z -1.0000 I -0.0368 J -0.0397
G01 X 11.2056 Y 4.0864 Z -1.0000
G01 X 11.2060 Y 4.0597 Z -1.0000
G01 X 11.2444 Y 4.0497 Z -1.0000
G01 X 11.2592 Y 4.0496 Z -1.0000
G01 X 11.2629 Y 4.0449 Z -1.0000
G01 X 11.2662 Y 4.0402 Z -1.0000
G01 X 11.2773 Y 4.0401 Z -1.0000
G01 X 11.2903 Y 4.0391 Z -1.0000
G02 X 11.3098 Y 4.0240 Z -1.0000 I -0.0278 J -0.0562
G01 X 11.3283 Y 4.0111 Z -1.0000
G01 X 11.3392 Y 4.0130 Z -1.0000
G01 X 11.3508 Y 4.0143 Z -1.0000
G01 X 11.3542 Y 4.0099 Z -1.0000
G03 X 11.3727 Y 4.0088 Z -1.0000 I 0.0123 J 0.0491
G02 X 11.3943 Y 4.0081 Z -1.0000 I 0.0087 J -0.0699
G02 X 11.4347 Y 3.9972 Z -1.0000 I -0.0477 J -0.2553
G03 X 11.4750 Y 3.9843 Z -1.0000 I 0.2009 J 0.5587
G03 X 11.5061 Y 3.9771 Z -1.0000 I 0.0914 J 0.3255
G01 X 11.5257 Y 3.9783 Z -1.0000
G01 X 11.5273 Y 3.9837 Z -1.0000
G01 X 11.5281 Y 3.9900 Z -1.0000
G01 X 11.5398 Y 3.9931 Z -1.0000
G02 X 11.5624 Y 3.9898 Z -1.0000 I -0.0776 J -0.6059
G02 X 11.5705 Y 3.9880 Z -1.0000 I -0.0134 J -0.0805
G01 X 11.5786 Y 3.9872 Z -1.0000
G03 X 11.6245 Y 3.9922 Z -1.0000 I -0.0606 J 0.7760
G02 X 11.6700 Y 3.9943 Z -1.0000 I 0.0351 J -0.2589
G02 X 11.6925 Y 3.9894 Z -1.0000 I -0.0026 J -0.0654
G01 X 11.7147 Y 3.9866 Z -1.0000
G03 X 11.7729 Y 4.0007 Z -1.0000 I -0.0429 J 0.3041
G03 X 11.8300 Y 4.0236 Z -1.0000 I -0.2203 J 0.6306
G03 X 11.8618 Y 4.0413 Z -1.0000 I -0.0966 J 0.2115
G02 X 11.8934 Y 4.0582 Z -1.0000 I 0.1078 J -0.1630
G02 X 11.9152 Y 4.0638 Z -1.0000 I 0.0297 J -0.0702
G01 X 11.9311 Y 4.0730 Z -1.0000
G01 X 11.9405 Y 4.0987 Z -1.0000
G02 X 11.9487 Y 4.1277 Z -1.0000 I 0.0754 J -0.0057
G01 X 11.9645 Y 4.1450 Z -1.0000
G03 X 11.9852 Y 4.1597 Z -1.0000 I -0.1410 J 0.2199
G03 X 11.9993 Y 4.1724 Z -1.0000 I -0.0876 J 0.1111
G02 X 12.0378 Y 4.1955 Z -1.0000 I 0.0621 J -0.0600
G02 X 12.0879 Y 4.1976 Z -1.0000 I 0.0294 J -0.1038
G01 X 12.0921 Y 4.1986 Z -1.0000
G01 X 12.0939 Y 4.2024 Z -1.0000
G01 X 12.0967 Y 4.2054 Z -1.0000
G02 X 12.1339 Y 4.2056 Z -1.0000 I 0.0199 J -0.2532
G03 X 12.1701 Y 4.2068 Z -1.0000 I 0.0121 J 0.1726
G01 X 12.1738 Y 4.2112 Z -1.0000
G01 X 12.1771 Y 4.2141 Z -1.0000
G02 X 12.1958 Y 4.2087 Z -1.0000 I -0.0063 J -0.0559
G03 X 12.2180 Y 4.1982 Z -1.0000 I 0.2485 J 0.5007
G03 X 12.2399 Y 4.1892 Z -1.0000 I 0.2051 J 0.4634
G02 X 12.2586 Y 4.1772 Z -1.0000 I -0.0203 J -0.0524
G01 X 12.2697 Y 4.1605 Z -1.0000
G03 X 12.2793 Y 4.1430 Z -1.0000 I 0.0669 J 0.0255
G01 X 12.2855 Y 4.1394 Z -1.0000
G02 X 12.2936 Y 4.1382 Z -1.0000 I -0.0162 J -0.1324
G02 X 12.3017 Y 4.1364 Z -1.0000 I -0.0244 J -0.1314
G03 X 12.3097 Y 4.1347 Z -1.0000 I 0.0308 J 0.1231
G03 X 12.3176 Y 4.1334 Z -1.0000 I 0.0325 J 0.1786
G01 X 12.3231 Y 4.1302 Z -1.0000
G01 X 12.3256 Y 4.1219 Z -1.0000
G01 X 12.3285 Y 4.1125 Z -1.0000
G03 X 12.3536 Y 4.0800 Z -1.0000 I 0.2454 J 0.1636
G02 X 12.3806 Y 4.0481 Z -1.0000 I -0.6332 J -0.5636
G01 X 12.3821 Y 4.0446 Z -1.0000
G02 X 12.3827 Y 4.0406 Z -1.0000 I -0.5554 J -0.0773
G02 X 12.3856 Y 4.0177 Z -1.0000 I -5.1906 J -0.6839
G03 X 12.3914 Y 3.9962 Z -1.0000 I 0.0808 J 0.0103
G03 X 12.4011 Y 3.9811 Z -1.0000 I 0.0496 J 0.0210
G02 X 12.4104 Y 3.9662 Z -1.0000 I -0.0381 J -0.0341
G01 X 12.4135 Y 3.9500 Z -1.0000
G01 X 12.4166 Y 3.9358 Z -1.0000
G01 X 12.4215 Y 3.9327 Z -1.0000
G01 X 12.4260 Y 3.9291 Z -1.0000
G02 X 12.4295 Y 3.8992 Z -1.0000 I -0.1251 J -0.0299
G03 X 12.4346 Y 3.8678 Z -1.0000 I 0.1001 J -0.0000
G03 X 12.4465 Y 3.8477 Z -1.0000 I 0.0516 J 0.0171
G01 X 12.4561 Y 3.8267 Z -1.0000
G02 X 12.4629 Y 3.6874 Z -1.0000 I -1.3099 J -0.1342
G03 X 12.4774 Y 3.4910 Z -1.0000 I 1.2704 J -0.0050
G01 X 12.4945 Y 3.4798 Z -1.0000
G02 X 12.5378 Y 3.4782 Z -1.0000 I 0.0190 J -0.0728
G02 X 12.5889 Y 3.4474 Z -1.0000 I -0.0460 J -0.1343
G03 X 12.6095 Y 3.4323 Z -1.0000 I 0.0735 J 0.0783
G03 X 12.6366 Y 3.4204 Z -1.0000 I 0.0717 J 0.1265
G02 X 12.6649 Y 3.4105 Z -1.0000 I -0.1858 J -0.5744
G02 X 12.6732 Y 3.4065 Z -1.0000 I -0.0190 J -0.0501
G03 X 12.6815 Y 3.4025 Z -1.0000 I 0.0261 J 0.0442
G01 X 12.6894 Y 3.4005 Z -1.0000
G02 X 12.7742 Y 3.3563 Z -1.0000 I -0.0226 J -0.1469
G02 X 12.8051 Y 3.2794 Z -1.0000 I -0.0804 J -0.0769
G01 X 12.8081 Y 3.2724 Z -1.0000
G01 X 12.8155 Y 3.2694 Z -1.0000
G01 X 12.8229 Y 3.2652 Z -1.0000
G02 X 12.8408 Y 3.2275 Z -1.0000 I -0.1772 J -0.1071
G03 X 12.8842 Y 3.1478 Z -1.0000 I 0.2721 J 0.0968
G01 X 12.9132 Y 3.1336 Z -1.0000
G02 X 12.9457 Y 3.1238 Z -1.0000 I 0.0000 J -0.0588
G02 X 12.9739 Y 3.0935 Z -1.0000 I -0.0487 J -0.0737
G03 X 12.9956 Y 3.0689 Z -1.0000 I 0.0678 J 0.0381
G03 X 13.0278 Y 3.0537 Z -1.0000 I 0.0547 J 0.0742
G02 X 13.0628 Y 3.0422 Z -1.0000 I -0.0628 J -0.2491
G01 X 13.0695 Y 3.0366 Z -1.0000
G01 X 13.0756 Y 3.0305 Z -1.0000
G01 X 13.0861 Y 3.0270 Z -1.0000
G02 X 13.1260 Y 3.0063 Z -1.0000 I -0.0102 J -0.0686
G02 X 13.1407 Y 2.9698 Z -1.0000 I -0.0382 J -0.0365
G01 X 13.1469 Y 2.9561 Z -1.0000
G01 X 13.1601 Y 2.9530 Z -1.0000
G01 X 13.1913 Y 2.9470 Z -1.0000
G01 X 13.2046 Y 2.9210 Z -1.0000
G01 X 13.2080 Y 2.9118 Z -1.0000
G01 X 13.2186 Y 2.9044 Z -1.0000
G02 X 13.2587 Y 2.8798 Z -1.0000 I -0.0373 J -0.1058
G01 X 13.2685 Y 2.8568 Z -1.0000
G01 X 13.2716 Y 2.8483 Z -1.0000
G01 X 13.2845 Y 2.8379 Z -1.0000
G01 X 13.2941 Y 2.8256 Z -1.0000
G02 X 13.3005 Y 2.7717 Z -1.0000 I -0.2231 J -0.0539
G03 X 13.3055 Y 2.7155 Z -1.0000 I 0.3188 J 0.0002
G03 X 13.3151 Y 2.6901 Z -1.0000 I 0.0730 J 0.0131
G02 X 13.3393 Y 2.6108 Z -1.0000 I -0.1422 J -0.0866
G01 X 13.3195 Y 2.5902 Z -1.0000
G01 X 13.3133 Y 2.5854 Z -1.0000
G03 X 13.3085 Y 2.5463 Z -1.0000 I 0.1560 J -0.0391
G02 X 13.3051 Y 2.5056 Z -1.0000 I -0.2485 J -0.0000
G01 X 13.3013 Y 2.5023 Z -1.0000
G01 X 13.2986 Y 2.4994 Z -1.0000
G03 X 13.3032 Y 2.4830 Z -1.0000 I 0.0499 J 0.0051
G03 X 13.3136 Y 2.4681 Z -1.0000 I 0.0492 J 0.0232
G01 X 13.3184 Y 2.4675 Z -1.0000
G01 X 13.3223 Y 2.4672 Z -1.0000
G01 X 13.3245 Y 2.4620 Z -1.0000
G01 X 13.3276 Y 2.4572 Z -1.0000
G01 X 13.3355 Y 2.4569 Z -1.0000
G01 X 13.3546 Y 2.4517 Z -1.0000
G01 X 13.3566 Y 2.4306 Z -1.0000
G03 X 13.3512 Y 2.3805 Z -1.0000 I 0.0593 J -0.0317
G03 X 13.3845 Y 2.3327 Z -1.0000 I 0.0864 J 0.0246
G01 X 13.3932 Y 2.3291 Z -1.0000
G03 X 13.4219 Y 2.3267 Z -1.0000 I 0.0299 J 0.1870
G02 X 13.4496 Y 2.3233 Z -1.0000 I -0.0005 J -0.1207
G01 X 13.4565 Y 2.3184 Z -1.0000
G01 X 13.4628 Y 2.3127 Z -1.0000
G01 X 13.4710 Y 2.3114 Z -1.0000
G02 X 13.4946 Y 2.3093 Z -1.0000 I 0.0070 J -0.0565
G01 X 13.4968 Y 2.3035 Z -1.0000
G01 X 13.5000 Y 2.2942 Z -1.0000
G03 X 13.5405 Y 2.2867 Z -1.0000 I 0.0405 J 0.1046
G02 X 13.5615 Y 2.2835 Z -1.0000 I 0.0000 J -0.0717
G01 X 13.5687 Y 2.2780 Z -1.0000
G01 X 13.5756 Y 2.2731 Z -1.0000
G01 X 13.5899 Y 2.2735 Z -1.0000
G02 X 13.6318 Y 2.2717 Z -1.0000 I 0.0180 J -0.0695
G01 X 13.6442 Y 2.2543 Z -1.0000
G01 X 13.6468 Y 2.2518 Z -1.0000
G03 X 13.6741 Y 2.2554 Z -1.0000 I -0.0054 J 0.1457
G02 X 13.7549 Y 2.2649 Z -1.0000 I 0.0830 J -0.3581
G01 X 13.7640 Y 2.2558 Z -1.0000
G01 X 13.7671 Y 2.2520 Z -1.0000
G03 X 13.7960 Y 2.2489 Z -1.0000 I 0.0289 J 0.1339
G03 X 13.8234 Y 2.2535 Z -1.0000 I 0.0000 J 0.0850
G01 X 13.8279 Y 2.2598 Z -1.0000
G01 X 13.8325 Y 2.2662 Z -1.0000
G02 X 13.8595 Y 2.2707 Z -1.0000 I 0.0270 J -0.0785
G03 X 13.8875 Y 2.2779 Z -1.0000 I -0.0000 J 0.0584
G03 X 13.9134 Y 2.3002 Z -1.0000 I -0.0393 J 0.0720
G02 X 13.9368 Y 2.3287 Z -1.0000 I 0.4062 J -0.3090
G02 X 13.9742 Y 2.3690 Z -1.0000 I 0.8467 J -0.7467
G02 X 14.0149 Y 2.4007 Z -1.0000 I 0.1337 J -0.1300
G01 X 14.0349 Y 2.4039 Z -1.0000
G03 X 14.0565 Y 2.4037 Z -1.0000 I 0.0113 J 0.0560
G01 X 14.0738 Y 2.4110 Z -1.0000
G01 X 14.0882 Y 2.4162 Z -1.0000
G01 X 14.0937 Y 2.4126 Z -1.0000
G01 X 14.1113 Y 2.4079 Z -1.0000
G01 X 14.1217 Y 2.4374 Z -1.0000
G01 X 14.1248 Y 2.4473 Z -1.0000
G02 X 14.1462 Y 2.4628 Z -1.0000 I 0.0537 J -0.0518
G03 X 14.1874 Y 2.5004 Z -1.0000 I -0.0419 J 0.0873
G03 X 14.2035 Y 2.5589 Z -1.0000 I -0.0980 J 0.0584
G01 X 14.2061 Y 2.5729 Z -1.0000
G02 X 14.2203 Y 2.6020 Z -1.0000 I 0.1832 J -0.0711
G01 X 14.2310 Y 2.6304 Z -1.0000
G01 X 14.2387 Y 2.6455 Z -1.0000
G03 X 14.2502 Y 2.6618 Z -1.0000 I -0.0594 J 0.0537
G03 X 14.2587 Y 2.6835 Z -1.0000 I -0.0956 J 0.0504
G01 X 14.2701 Y 2.6991 Z -1.0000
G01 X 14.2902 Y 2.7043 Z -1.0000
G03 X 14.3127 Y 2.7052 Z -1.0000 I 0.0073 J 0.0924
G01 X 14.3154 Y 2.7085 Z -1.0000
G01 X 14.3178 Y 2.7132 Z -1.0000
G02 X 14.3438 Y 2.7300 Z -1.0000 I 0.1211 J -0.1598
G02 X 14.3721 Y 2.7379 Z -1.0000 I 0.0317 J -0.0589
G01 X 14.3938 Y 2.7326 Z -1.0000
G03 X 14.4164 Y 2.7246 Z -1.0000 I 0.0311 J 0.0524
G03 X 14.4533 Y 2.7242 Z -1.0000 I 0.0203 J 0.1449
G02 X 14.4870 Y 2.7238 Z -1.0000 I 0.0153 J -0.1347
G01 X 14.4912 Y 2.7190 Z -1.0000
G01 X 14.4937 Y 2.7140 Z -1.0000
G01 X 14.4982 Y 2.7138 Z -1.0000
G01 X 14.5026 Y 2.7124 Z -1.0000
G02 X 14.5102 Y 2.6868 Z -1.0000 I -0.0946 J -0.0422
G03 X 14.5351 Y 2.6491 Z -1.0000 I 0.0543 J 0.0087
G03 X 14.5992 Y 2.6305 Z -1.0000 I 0.0641 J 0.1012
G03 X 14.6563 Y 2.6337 Z -1.0000 I -0.0000 J 0.5115
G01 X 14.6625 Y 2.6376 Z -1.0000
G01 X 14.6843 Y 2.6517 Z -1.0000
G02 X 14.7909 Y 2.6547 Z -1.0000 I 0.0674 J -0.5067
G03 X 14.8313 Y 2.6551 Z -1.0000 I 0.0179 J 0.2345
G03 X 14.8828 Y 2.6636 Z -1.0000 I -0.0371 J 0.3846
G01 X 14.9119 Y 2.6421 Z -1.0000
G01 X 14.8874 Y 2.5967 Z -1.0000
G01 X 14.8804 Y 2.5868 Z -1.0000
G03 X 14.8782 Y 2.5402 Z -1.0000 I 0.2032 J -0.0331
G03 X 14.8838 Y 2.4911 Z -1.0000 I 0.5018 J 0.0331
G03 X 14.8902 Y 2.4676 Z -1.0000 I 0.1178 J 0.0195
G02 X 14.8942 Y 2.4455 Z -1.0000 I -0.0559 J -0.0213
G01 X 14.8898 Y 2.4335 Z -1.0000
G01 X 14.8841 Y 2.4224 Z -1.0000
G01 X 14.8856 Y 2.4172 Z -1.0000
G01 X 14.8872 Y 2.4120 Z -1.0000
G01 X 14.8827 Y 2.4026 Z -1.0000
G01 X 14.8726 Y 2.3614 Z -1.0000
G01 X 14.8957 Y 2.3428 Z -1.0000
G01 X 14.9039 Y 2.3398 Z -1.0000
G01 X 14.9074 Y 2.3328 Z -1.0000
G03 X 14.9082 Y 2.3228 Z -1.0000 I 0.3968 J 0.0264
G03 X 14.9102 Y 2.3028 Z -1.0000 I 1.1678 J 0.1073
G02 X 14.9100 Y 2.2831 Z -1.0000 I -0.0820 J -0.0090
G02 X 14.9045 Y 2.2602 Z -1.0000 I -0.1112 J 0.0146
G01 X 14.9108 Y 2.2351 Z -1.0000
G03 X 14.9519 Y 2.2168 Z -1.0000 I 0.0481 J 0.0525
G02 X 15.0142 Y 2.1982 Z -1.0000 I -0.0174 J -0.1723
G01 X 15.0265 Y 2.1780 Z -1.0000
G01 X 15.0297 Y 2.1701 Z -1.0000
G01 X 15.0371 Y 2.1669 Z -1.0000
G01 X 15.0682 Y 2.1527 Z -1.0000
G02 X 15.0824 Y 2.1141 Z -1.0000 I -0.0450 J -0.0386
G01 X 15.0799 Y 2.0993 Z -1.0000
G01 X 15.0737 Y 2.0895 Z -1.0000
G01 X 15.0703 Y 2.0665 Z -1.0000
G01 X 15.0984 Y 2.0431 Z -1.0000
G01 X 15.1109 Y 2.0354 Z -1.0000
G01 X 15.1144 Y 2.0267 Z -1.0000
G01 X 15.1205 Y 2.0174 Z -1.0000
G03 X 15.1668 Y 2.0036 Z -1.0000 I 0.0779 J 0.1766
G01 X 15.1778 Y 1.9980 Z -1.0000
G01 X 15.1799 Y 1.9908 Z -1.0000
G01 X 15.1808 Y 1.9820 Z -1.0000
G01 X 15.1874 Y 1.9745 Z -1.0000
G01 X 15.1913 Y 1.9674 Z -1.0000
G01 X 15.1869 Y 1.9559 Z -1.0000
G01 X 15.1806 Y 1.9427 Z -1.0000
G01 X 15.1815 Y 1.9305 Z -1.0000
G01 X 15.1837 Y 1.9172 Z -1.0000
G02 X 15.1774 Y 1.8462 Z -1.0000 I -0.9021 J 0.0442
G02 X 15.1629 Y 1.7785 Z -1.0000 I -0.4154 J 0.0534
G01 X 15.1534 Y 1.7669 Z -1.0000
G03 X 15.1196 Y 1.7339 Z -1.0000 I 0.0402 J -0.0750
G03 X 15.1064 Y 1.6839 Z -1.0000 I 0.0881 J -0.0499
G01 X 15.1275 Y 1.6795 Z -1.0000
G01 X 15.1466 Y 1.6755 Z -1.0000
G01 X 15.1592 Y 1.6656 Z -1.0000
G01 X 15.1701 Y 1.6628 Z -1.0000
G01 X 15.1739 Y 1.6649 Z -1.0000
G02 X 15.1944 Y 1.6488 Z -1.0000 I -0.0456 J -0.0793
G03 X 15.2194 Y 1.6259 Z -1.0000 I 0.1866 J 0.1783
G01 X 15.2257 Y 1.6236 Z -1.0000
G02 X 15.2611 Y 1.6147 Z -1.0000 I 0.0000 J -0.0743
G02 X 15.2921 Y 1.5877 Z -1.0000 I -0.0448 J -0.0827
G01 X 15.2960 Y 1.5790 Z -1.0000
G02 X 15.2981 Y 1.5612 Z -1.0000 I -0.0821 J -0.0186
G01 X 15.3016 Y 1.5489 Z -1.0000
G01 X 15.3063 Y 1.5478 Z -1.0000
G01 X 15.3356 Y 1.5498 Z -1.0000
G01 X 15.3432 Y 1.5315 Z -1.0000
G01 X 15.3549 Y 1.4963 Z -1.0000
G03 X 15.4073 Y 1.4911 Z -1.0000 I 0.0313 J 0.0497
G01 X 15.4145 Y 1.4901 Z -1.0000
G01 X 15.4181 Y 1.4830 Z -1.0000
G01 X 15.4211 Y 1.4762 Z -1.0000
G01 X 15.4261 Y 1.4757 Z -1.0000
G01 X 15.4311 Y 1.4753 Z -1.0000
G01 X 15.4341 Y 1.4687 Z -1.0000
G01 X 15.4390 Y 1.4611 Z -1.0000
G03 X 15.4720 Y 1.4517 Z -1.0000 I 0.0488 J 0.1084
G02 X 15.5238 Y 1.4380 Z -1.0000 I -0.0279 J -0.2099
G01 X 15.5276 Y 1.4292 Z -1.0000
G01 X 15.5283 Y 1.4202 Z -1.0000
G01 X 15.5388 Y 1.4092 Z -1.0000
G01 X 15.5502 Y 1.3976 Z -1.0000
G01 X 15.5540 Y 1.3838 Z -1.0000
G01 X 15.5568 Y 1.3706 Z -1.0000
G01 X 15.5610 Y 1.3679 Z -1.0000
G01 X 15.5661 Y 1.3653 Z -1.0000
G01 X 15.5723 Y 1.3520 Z -1.0000
G01 X 15.5798 Y 1.3392 Z -1.0000
G03 X 15.5974 Y 1.3281 Z -1.0000 I 0.0362 J 0.0379
G02 X 15.6159 Y 1.3177 Z -1.0000 I -0.0261 J -0.0685
G01 X 15.6228 Y 1.3086 Z -1.0000
G01 X 15.6291 Y 1.3013 Z -1.0000
G01 X 15.6370 Y 1.3007 Z -1.0000
G01 X 15.6463 Y 1.3003 Z -1.0000
G02 X 15.6798 Y 1.2805 Z -1.0000 I -0.0895 J -0.1893
G03 X 15.7149 Y 1.2625 Z -1.0000 I 0.0757 J 0.1045
G03 X 15.7590 Y 1.2542 Z -1.0000 I 0.0523 J 0.1580
G02 X 15.7986 Y 1.2383 Z -1.0000 I -0.0033 J -0.0655
G02 X 15.8354 Y 1.1880 Z -1.0000 I -0.0914 J -0.1056
G01 X 15.8501 Y 1.1697 Z -1.0000
G03 X 15.8737 Y 1.1601 Z -1.0000 I 0.0310 J 0.0424
G02 X 15.9297 Y 1.1360 Z -1.0000 I -0.0167 J -0.1160
G01 X 15.9455 Y 1.1032 Z -1.0000
G01 X 15.9498 Y 1.0844 Z -1.0000
G01 X 15.9566 Y 1.0802 Z -1.0000
G01 X 15.9649 Y 1.0760 Z -1.0000
G02 X 15.9805 Y 1.0484 Z -1.0000 I -0.0965 J -0.0724
G03 X 15.9972 Y 1.0213 Z -1.0000 I 0.0850 J 0.0338
G01 X 16.0133 Y 1.0115 Z -1.0000
G01 X 16.0269 Y 1.0023 Z -1.0000
G01 X 16.0301 Y 0.9880 Z -1.0000
G01 X 16.0379 Y 0.9550 Z -1.0000
G01 X 16.0596 Y 0.9487 Z -1.0000
G01 X 16.0701 Y 0.9562 Z -1.0000
G01 X 16.0734 Y 0.9651 Z -1.0000
G01 X 16.0815 Y 0.9731 Z -1.0000
G02 X 16.1162 Y 0.9642 Z -1.0000 I -0.0017 J -0.0786
G03 X 16.1396 Y 0.9541 Z -1.0000 I 0.0823 J 0.1571
G01 X 16.1499 Y 0.9523 Z -1.0000
G01 X 16.1668 Y 0.9420 Z -1.0000
G02 X 16.1774 Y 0.8989 Z -1.0000 I -0.0849 J -0.0436
G03 X 16.1871 Y 0.8628 Z -1.0000 I 0.0732 J 0.0004
G01 X 16.1999 Y 0.8596 Z -1.0000
G01 X 16.2055 Y 0.8582 Z -1.0000
G02 X 16.2137 Y 0.8366 Z -1.0000 I -0.0566 J -0.0339
G03 X 16.2213 Y 0.8098 Z -1.0000 I 0.1488 J 0.0278
G01 X 16.2262 Y 0.8038 Z -1.0000
G01 X 16.2300 Y 0.7985 Z -1.0000
G01 X 16.2289 Y 0.7920 Z -1.0000
G01 X 16.2368 Y 0.7894 Z -1.0000
G01 X 16.2461 Y 0.7896 Z -1.0000
G01 X 16.2492 Y 0.7853 Z -1.0000
G01 X 16.2468 Y 0.7789 Z -1.0000
G01 X 16.2412 Y 0.7765 Z -1.0000
G01 X 16.2173 Y 0.7621 Z -1.0000
G03 X 16.2037 Y 0.7053 Z -1.0000 I 0.1045 J -0.0550
G03 X 16.2112 Y 0.6696 Z -1.0000 I 0.0959 J 0.0014
G01 X 16.2229 Y 0.6595 Z -1.0000
G03 X 16.2415 Y 0.6571 Z -1.0000 I 0.0191 J 0.0751
G03 X 16.2582 Y 0.6592 Z -1.0000 I 0.0004 J 0.0642
G02 X 16.3004 Y 0.6570 Z -1.0000 I 0.0176 J -0.0678
G01 X 16.3132 Y 0.6385 Z -1.0000
G01 X 16.3160 Y 0.6350 Z -1.0000
G01 X 16.3258 Y 0.6358 Z -1.0000
G01 X 16.3318 Y 0.6330 Z -1.0000
G01 X 16.3329 Y 0.6158 Z -1.0000
G03 X 16.3315 Y 0.5914 Z -1.0000 I 0.0749 J -0.0165
G03 X 16.3373 Y 0.5724 Z -1.0000 I 0.0516 J 0.0053
G02 X 16.3431 Y 0.5537 Z -1.0000 I -0.0470 J -0.0249
G01 X 16.3411 Y 0.5393 Z -1.0000
G03 X 16.3372 Y 0.5244 Z -1.0000 I 0.0473 J -0.0201
G03 X 16.3366 Y 0.4951 Z -1.0000 I 0.1881 J -0.0189
G02 X 16.3325 Y 0.4512 Z -1.0000 I -0.1483 J -0.0085
G02 X 16.3087 Y 0.3810 Z -1.0000 I -0.4166 J 0.1021
G03 X 16.2989 Y 0.3568 Z -1.0000 I 0.4121 J -0.1813
G03 X 16.2931 Y 0.3390 Z -1.0000 I 0.2170 J -0.0808
G01 X 16.2880 Y 0.3211 Z -1.0000
G01 X 8.6054 Y 0.3211 Z -1.0000
G01 X 0.9228 Y 0.3211 Z -1.0000
G01 X 0.9228 Y 3.8809 Z -1.0000
G00 Z 5.0000

(End cutting path id: path361)


(Start cutting path id: path361)
(Change tool to Default tool)

G00 Z 5.0000
G00 X 2.1679 Y 7.8298

G01 Z -1.0000 F 100.0000(Penetrate)
G01 X 2.1778 Y 7.8315 Z -1.0000 F 3500.0000
G01 X 2.1832 Y 7.8292 Z -1.0000
G01 X 2.1727 Y 7.8250 Z -1.0000
G01 X 2.1679 Y 7.8298 Z -1.0000
G01 X 2.1679 Y 7.8298 Z -1.0000
G00 Z 5.0000

(End cutting path id: path361)


(Start cutting path id: path361)
(Change tool to Default tool)

G00 Z 5.0000
G00 X 4.6305 Y 6.8020

G01 Z -1.0000 F 100.0000(Penetrate)
G01 X 4.6331 Y 6.8059 Z -1.0000 F 3500.0000
G01 X 4.6385 Y 6.8055 Z -1.0000
G01 X 4.6453 Y 6.8000 Z -1.0000
G01 X 4.6465 Y 6.7970 Z -1.0000
G01 X 4.6385 Y 6.7935 Z -1.0000
G01 X 4.6329 Y 6.7959 Z -1.0000
G01 X 4.6305 Y 6.8020 Z -1.0000
G01 X 4.6305 Y 6.8020 Z -1.0000
G00 Z 5.0000

(End cutting path id: path361)


(Start cutting path id: path361)
(Change tool to Default tool)

G00 Z 5.0000
G00 X 4.6305 Y 6.7701

G01 Z -1.0000 F 100.0000(Penetrate)
G01 X 4.6338 Y 6.7806 Z -1.0000 F 3500.0000
G01 X 4.6385 Y 6.7816 Z -1.0000
G01 X 4.6441 Y 6.7754 Z -1.0000
G01 X 4.6465 Y 6.7651 Z -1.0000
G01 X 4.6438 Y 6.7564 Z -1.0000
G01 X 4.6385 Y 6.7536 Z -1.0000
G01 X 4.6336 Y 6.7567 Z -1.0000
G01 X 4.6305 Y 6.7701 Z -1.0000
G01 X 4.6305 Y 6.7701 Z -1.0000
G00 Z 5.0000

(End cutting path id: path361)


(Start cutting path id: path361)
(Change tool to Default tool)

G00 Z 5.0000
G00 X 8.6937 Y 4.7271

G01 Z -1.0000 F 100.0000(Penetrate)
G01 X 8.6855 Y 4.7391 Z -1.0000 F 3500.0000
G01 X 8.6878 Y 4.7494 Z -1.0000
G01 X 8.7250 Y 4.7671 Z -1.0000
G01 X 8.7410 Y 4.7499 Z -1.0000
G02 X 8.7401 Y 4.7399 Z -1.0000 I -0.8980 J 0.0718
G02 X 8.7390 Y 4.7279 Z -1.0000 I -1.3629 J 0.1242
G01 X 8.7267 Y 4.7166 Z -1.0000
G02 X 8.6937 Y 4.7271 Z -1.0000 I -0.0010 J 0.0543
G01 X 8.6937 Y 4.7271 Z -1.0000
G00 Z 5.0000

(End cutting path id: path361)


(Start cutting path id: path361)
(Change tool to Default tool)

G00 Z 5.0000
G00 X 8.9136 Y 4.7075

G01 Z -1.0000 F 100.0000(Penetrate)
G01 X 8.9104 Y 4.7116 Z -1.0000 F 3500.0000
G03 X 8.8916 Y 4.7135 Z -1.0000 I -0.0151 J -0.0552
G01 X 8.8802 Y 4.7212 Z -1.0000
G01 X 8.8795 Y 4.7499 Z -1.0000
G01 X 8.8761 Y 4.7583 Z -1.0000
G01 X 8.8548 Y 4.7639 Z -1.0000
G01 X 8.8370 Y 4.7564 Z -1.0000
G01 X 8.8342 Y 4.7426 Z -1.0000
G01 X 8.8370 Y 4.7230 Z -1.0000
G01 X 8.8320 Y 4.7147 Z -1.0000
G02 X 8.7950 Y 4.7024 Z -1.0000 I -0.0430 J 0.0676
G01 X 8.7857 Y 4.7110 Z -1.0000
G01 X 8.7929 Y 4.7343 Z -1.0000
G02 X 8.8263 Y 4.7710 Z -1.0000 I 0.1427 J -0.0967
G01 X 8.8381 Y 4.7881 Z -1.0000
G01 X 8.8366 Y 4.8017 Z -1.0000
G01 X 8.8336 Y 4.8161 Z -1.0000
G01 X 8.8406 Y 4.8325 Z -1.0000
G01 X 8.8551 Y 4.8389 Z -1.0000
G02 X 8.8808 Y 4.8302 Z -1.0000 I -0.0029 J -0.0512
G01 X 8.9025 Y 4.8119 Z -1.0000
G01 X 8.9073 Y 4.8007 Z -1.0000
G01 X 8.9179 Y 4.7922 Z -1.0000
G01 X 8.9219 Y 4.7922 Z -1.0000
G01 X 8.9321 Y 4.7905 Z -1.0000
G02 X 8.9510 Y 4.7574 Z -1.0000 I -0.0835 J -0.0698
G02 X 8.9535 Y 4.7325 Z -1.0000 I -0.0490 J -0.0176
G01 X 8.9450 Y 4.7155 Z -1.0000
G02 X 8.9209 Y 4.7018 Z -1.0000 I -0.0370 J 0.0370
G01 X 8.9136 Y 4.7075 Z -1.0000
G01 X 8.9136 Y 4.7075 Z -1.0000
G00 Z 5.0000

(End cutting path id: path361)


(Start cutting path id: path361)
(Change tool to Default tool)

G00 Z 5.0000
G00 X 8.8496 Y 4.4288

G01 Z -1.0000 F 100.0000(Penetrate)
G01 X 8.8522 Y 4.4327 Z -1.0000 F 3500.0000
G01 X 8.8576 Y 4.4323 Z -1.0000
G01 X 8.8644 Y 4.4267 Z -1.0000
G01 X 8.8656 Y 4.4238 Z -1.0000
G01 X 8.8576 Y 4.4203 Z -1.0000
G01 X 8.8521 Y 4.4227 Z -1.0000
G01 X 8.8496 Y 4.4288 Z -1.0000
G01 X 8.8496 Y 4.4288 Z -1.0000
G00 Z 5.0000

(End cutting path id: path361)


(Start cutting path id: path361)
(Change tool to Default tool)

G00 Z 5.0000
G00 X 8.9216 Y 4.3404

G01 Z -1.0000 F 100.0000(Penetrate)
G01 X 8.9192 Y 4.3461 Z -1.0000 F 3500.0000
G01 X 8.9136 Y 4.3484 Z -1.0000
G01 X 8.9079 Y 4.3461 Z -1.0000
G01 X 8.9056 Y 4.3404 Z -1.0000
G01 X 8.9079 Y 4.3347 Z -1.0000
G01 X 8.9136 Y 4.3324 Z -1.0000
G01 X 8.9192 Y 4.3347 Z -1.0000
G01 X 8.9216 Y 4.3404 Z -1.0000
G01 X 8.9216 Y 4.3404 Z -1.0000
G00 Z 5.0000

(End cutting path id: path361)


(Start cutting path id: path361)
(Change tool to Default tool)

G00 Z 5.0000
G00 X 9.0894 Y 4.3051

G01 Z -1.0000 F 100.0000(Penetrate)
G01 X 9.0732 Y 4.3281 Z -1.0000 F 3500.0000
G01 X 9.0438 Y 4.3214 Z -1.0000
G01 X 9.0428 Y 4.3164 Z -1.0000
G03 X 9.0529 Y 4.3010 Z -1.0000 I 0.0534 J 0.0238
G01 X 9.0774 Y 4.2918 Z -1.0000
G01 X 9.0894 Y 4.3051 Z -1.0000
G01 X 9.0894 Y 4.3051 Z -1.0000
G00 Z 5.0000

(End cutting path id: path361)


(Start cutting path id: path361)
(Change tool to Default tool)

G00 Z 5.0000
G00 X 9.4439 Y 4.2645

G01 Z -1.0000 F 100.0000(Penetrate)
G01 X 9.4321 Y 4.2752 Z -1.0000 F 3500.0000
G01 X 9.4250 Y 4.2698 Z -1.0000
G01 X 9.4300 Y 4.2575 Z -1.0000
G01 X 9.4420 Y 4.2525 Z -1.0000
G01 X 9.4449 Y 4.2549 Z -1.0000
G01 X 9.4439 Y 4.2645 Z -1.0000
G01 X 9.4439 Y 4.2645 Z -1.0000
G00 Z 5.0000

(End cutting path id: path361)


(Start cutting path id: path361)
(Change tool to Default tool)

G00 Z 5.0000
G00 X 9.5354 Y 4.3059

G01 Z -1.0000 F 100.0000(Penetrate)
G01 X 9.5453 Y 4.3076 Z -1.0000 F 3500.0000
G01 X 9.5507 Y 4.3053 Z -1.0000
G01 X 9.5402 Y 4.3011 Z -1.0000
G01 X 9.5354 Y 4.3059 Z -1.0000
G01 X 9.5354 Y 4.3059 Z -1.0000
G00 Z 5.0000

(End cutting path id: path361)


(Start cutting path id: path361)
(Change tool to Default tool)

G00 Z 5.0000
G00 X 9.7906 Y 4.2045

G01 Z -1.0000 F 100.0000(Penetrate)
G03 X 9.8140 Y 4.2159 Z -1.0000 I -0.0474 J 0.1278 F 3500.0000
G01 X 9.8165 Y 4.2203 Z -1.0000
G01 X 9.8098 Y 4.2329 Z -1.0000
G03 X 9.7735 Y 4.2490 Z -1.0000 I -0.0647 J -0.0972
G02 X 9.7541 Y 4.2584 Z -1.0000 I 0.0131 J 0.0519
G01 X 9.7466 Y 4.2696 Z -1.0000
G01 X 9.7400 Y 4.2809 Z -1.0000
G01 X 9.7312 Y 4.2845 Z -1.0000
G01 X 9.7250 Y 4.2874 Z -1.0000
G01 X 9.7246 Y 4.2925 Z -1.0000
G01 X 9.7233 Y 4.2970 Z -1.0000
G01 X 9.7071 Y 4.3006 Z -1.0000
G01 X 9.6952 Y 4.3074 Z -1.0000
G01 X 9.6556 Y 4.3193 Z -1.0000
G03 X 9.6084 Y 4.3189 Z -1.0000 I -0.0221 J -0.2118
G01 X 9.5987 Y 4.3125 Z -1.0000
G01 X 9.5743 Y 4.2972 Z -1.0000
G01 X 9.5628 Y 4.3105 Z -1.0000
G01 X 9.5497 Y 4.3247 Z -1.0000
G01 X 9.5190 Y 4.3057 Z -1.0000
G01 X 9.5249 Y 4.2729 Z -1.0000
G03 X 9.5819 Y 4.2584 Z -1.0000 I 0.0459 J 0.0612
G02 X 9.6269 Y 4.2510 Z -1.0000 I 0.0109 J -0.0741
G01 X 9.6407 Y 4.2284 Z -1.0000
G01 X 9.6458 Y 4.2170 Z -1.0000
G01 X 9.6627 Y 4.2082 Z -1.0000
G02 X 9.6844 Y 4.2026 Z -1.0000 I -0.0563 J -0.2616
G02 X 9.7007 Y 4.1966 Z -1.0000 I -0.0457 J -0.1501
G03 X 9.7325 Y 4.1915 Z -1.0000 I 0.0260 J 0.0610
G03 X 9.7906 Y 4.2046 Z -1.0000 I -0.0197 J 0.2228
G01 X 9.7906 Y 4.2045 Z -1.0000
G00 Z 5.0000

(End cutting path id: path361)


(Start cutting path id: path361)
(Change tool to Default tool)

G00 Z 5.0000
G00 X 8.6884 Y 4.4624

G01 Z -1.0000 F 100.0000(Penetrate)
G01 X 8.6815 Y 4.4759 Z -1.0000 F 3500.0000
G01 X 8.6671 Y 4.4829 Z -1.0000
G01 X 8.6548 Y 4.4898 Z -1.0000
G01 X 8.6524 Y 4.5009 Z -1.0000
G01 X 8.6491 Y 4.5117 Z -1.0000
G01 X 8.6398 Y 4.5171 Z -1.0000
G02 X 8.6502 Y 4.5567 Z -1.0000 I 0.0880 J -0.0020
G01 X 8.6619 Y 4.5663 Z -1.0000
G02 X 8.7001 Y 4.5720 Z -1.0000 I 0.0377 J -0.1231
G02 X 8.7659 Y 4.5541 Z -1.0000 I -0.0006 J -0.1321
G01 X 8.7750 Y 4.5285 Z -1.0000
G01 X 8.7759 Y 4.5179 Z -1.0000
G01 X 8.7857 Y 4.5105 Z -1.0000
G01 X 8.7938 Y 4.5000 Z -1.0000
G01 X 8.7857 Y 4.4842 Z -1.0000
G03 X 8.7726 Y 4.4713 Z -1.0000 I 0.0341 J -0.0476
G01 X 8.7697 Y 4.4625 Z -1.0000
G01 X 8.7676 Y 4.4541 Z -1.0000
G01 X 8.7638 Y 4.4515 Z -1.0000
G02 X 8.6989 Y 4.4519 Z -1.0000 I -0.0309 J 0.2338
G01 X 8.6884 Y 4.4624 Z -1.0000
G01 X 8.6884 Y 4.4624 Z -1.0000
G00 Z 5.0000

(End cutting path id: path361)


(Start cutting path id: path361)
(Change tool to Default tool)

G00 Z 5.0000
G00 X 11.2985 Y 8.4722

G01 Z -1.0000 F 100.0000(Penetrate)
G01 X 11.2956 Y 8.4804 Z -1.0000 F 3500.0000
G01 X 11.2970 Y 8.4845 Z -1.0000
G01 X 11.3055 Y 8.4760 Z -1.0000
G01 X 11.3036 Y 8.4708 Z -1.0000
G01 X 11.2984 Y 8.4722 Z -1.0000
G01 X 11.2985 Y 8.4722 Z -1.0000
G00 Z 5.0000

(End cutting path id: path361)


(Start cutting path id: path361)
(Change tool to Default tool)

G00 Z 5.0000
G00 X 15.3741 Y 9.3674

G01 Z -1.0000 F 100.0000(Penetrate)
G03 X 15.5329 Y 9.3925 Z -1.0000 I -0.2156 J 1.8794 F 3500.0000
G03 X 15.6733 Y 9.4278 Z -1.0000 I -0.3032 J 1.5017
G03 X 16.1081 Y 9.6217 Z -1.0000 I -0.5499 J 1.8178
G03 X 16.4649 Y 9.9078 Z -1.0000 I -0.9085 J 1.4982
G03 X 16.6288 Y 10.0966 Z -1.0000 I -1.8534 J 1.7756
G03 X 16.7211 Y 10.2336 Z -1.0000 I -0.8812 J 0.6931
G03 X 16.8790 Y 10.5753 Z -1.0000 I -1.8969 J 1.0836
G03 X 16.9726 Y 10.9301 Z -1.0000 I -1.9521 J 0.7048
G03 X 16.9960 Y 11.2792 Z -1.0000 I -1.6867 J 0.2886
G03 X 16.9445 Y 11.7239 Z -1.0000 I -2.8007 J -0.0990
G03 X 16.8732 Y 11.9933 Z -1.0000 I -2.1606 J -0.4274
G03 X 16.7573 Y 12.2853 Z -1.0000 I -2.6569 J -0.8860
G02 X 16.7292 Y 12.3474 Z -1.0000 I 3.1644 J 1.4671
G01 X 16.7286 Y 12.3506 Z -1.0000
G01 X 16.7278 Y 12.3536 Z -1.0000
G03 X 16.6886 Y 12.4231 Z -1.0000 I -3.4354 J -1.8916
G02 X 16.6494 Y 12.4925 Z -1.0000 I 3.5178 J 2.0321
G01 X 16.6487 Y 12.4955 Z -1.0000
G03 X 16.6348 Y 12.5439 Z -1.0000 I -0.0914 J -0.0000
G03 X 16.5384 Y 12.6717 Z -1.0000 I -0.7735 J -0.4830
G02 X 16.5257 Y 12.6875 Z -1.0000 I 0.1333 J 0.1204
G02 X 16.4961 Y 12.7307 Z -1.0000 I 0.9990 J 0.7160
G03 X 16.4664 Y 12.7740 Z -1.0000 I -1.0840 J -0.7090
G03 X 16.4504 Y 12.7947 Z -1.0000 I -0.2626 J -0.1874
G02 X 16.4337 Y 12.8148 Z -1.0000 I 1.2752 J 1.0791
G02 X 16.3685 Y 12.8946 Z -1.0000 I 24.8030 J 20.3308
G03 X 16.1893 Y 13.0949 Z -1.0000 I -2.2455 J -1.8285
G03 X 16.0233 Y 13.2461 Z -1.0000 I -1.4416 J -1.4155
G02 X 15.9497 Y 13.3065 Z -1.0000 I 6.9678 J 8.5560
G02 X 15.9327 Y 13.3212 Z -1.0000 I 0.3795 J 0.4579
G03 X 15.9153 Y 13.3351 Z -1.0000 I -0.1294 J -0.1452
G03 X 15.8969 Y 13.3464 Z -1.0000 I -0.1022 J -0.1452
G02 X 15.8788 Y 13.3582 Z -1.0000 I 0.0563 J 0.1059
G02 X 15.8550 Y 13.3793 Z -1.0000 I 0.1681 J 0.2130
G03 X 15.8312 Y 13.3991 Z -1.0000 I -0.1161 J -0.1161
G01 X 15.8217 Y 13.4020 Z -1.0000
G01 X 15.8126 Y 13.4043 Z -1.0000
G01 X 15.8083 Y 13.4093 Z -1.0000
G03 X 15.7452 Y 13.4901 Z -1.0000 I -0.1569 J -0.0574
G03 X 15.6418 Y 13.5219 Z -1.0000 I -0.1034 J -0.1525
G01 X 15.6366 Y 13.5236 Z -1.0000
G02 X 15.6254 Y 13.5344 Z -1.0000 I 0.0441 J 0.0571
G03 X 15.6129 Y 13.5456 Z -1.0000 I -0.0433 J -0.0358
G03 X 15.4517 Y 13.6481 Z -1.0000 I -4.0081 J -6.1270
G03 X 15.4216 Y 13.6655 Z -1.0000 I -0.3075 J -0.4978
G03 X 15.3803 Y 13.6865 Z -1.0000 I -0.4945 J -0.9183
G02 X 15.3399 Y 13.7083 Z -1.0000 I 0.2267 J 0.4699
G01 X 15.3339 Y 13.7142 Z -1.0000
G01 X 15.3279 Y 13.7192 Z -1.0000
G01 X 15.3144 Y 13.7217 Z -1.0000
G01 X 15.3012 Y 13.7241 Z -1.0000
G01 X 15.2969 Y 13.7284 Z -1.0000
G01 X 15.2902 Y 13.7360 Z -1.0000
G03 X 15.0585 Y 13.8579 Z -1.0000 I -4.8001 J -8.8392
G02 X 14.7507 Y 14.0252 Z -1.0000 I 3.0073 J 5.8995
G02 X 14.7149 Y 14.0566 Z -1.0000 I 0.0615 J 0.1063
G01 X 14.7104 Y 14.0614 Z -1.0000
G03 X 14.6559 Y 14.1080 Z -1.0000 I -2.7230 J -3.1302
G02 X 14.4897 Y 14.2887 Z -1.0000 I 0.6166 J 0.7341
G02 X 14.4546 Y 14.3928 Z -1.0000 I 0.1566 J 0.1107
G03 X 14.4513 Y 14.4205 Z -1.0000 I -0.1675 J -0.0058
G03 X 14.4358 Y 14.4848 Z -1.0000 I -0.9391 J -0.1918
G02 X 14.4105 Y 14.6461 Z -1.0000 I 0.6848 J 0.1905
G02 X 14.4225 Y 14.8102 Z -1.0000 I 0.7226 J 0.0297
G02 X 14.6693 Y 15.2210 Z -1.0000 I 0.6791 J -0.1285
G02 X 15.1424 Y 15.3872 Z -1.0000 I 0.4731 J -0.5903
G02 X 15.3038 Y 15.3668 Z -1.0000 I 0.0000 J -0.6495
G02 X 15.4837 Y 15.2997 Z -1.0000 I -0.2251 J -0.8775
G02 X 15.6966 Y 15.1436 Z -1.0000 I -0.3509 J -0.7022
G02 X 15.8452 Y 14.9264 Z -1.0000 I -0.5603 J -0.5427
G02 X 15.8875 Y 14.8104 Z -1.0000 I -0.6939 J -0.3186
G02 X 15.9074 Y 14.7006 Z -1.0000 I -0.6011 J -0.1654
G01 X 15.9095 Y 14.6766 Z -1.0000
G01 X 16.0293 Y 14.6716 Z -1.0000
G03 X 16.1492 Y 14.6677 Z -1.0000 I 0.2907 J 7.0978
G03 X 16.5000 Y 14.6603 Z -1.0000 I 1.3906 J 57.8107
G01 X 16.8508 Y 14.6540 Z -1.0000
G01 X 16.8460 Y 14.7572 Z -1.0000
G03 X 16.7980 Y 15.0623 Z -1.0000 I -1.4184 J -0.0666
G03 X 16.6831 Y 15.3575 Z -1.0000 I -1.4392 J -0.3904
G02 X 16.6387 Y 15.4438 Z -1.0000 I 13.7854 J 7.1369
G02 X 16.6259 Y 15.4697 Z -1.0000 I 1.2301 J 0.6271
G03 X 16.6118 Y 15.4932 Z -1.0000 I -0.1381 J -0.0667
G01 X 16.6070 Y 15.4956 Z -1.0000
G01 X 16.6028 Y 15.4978 Z -1.0000
G01 X 16.6007 Y 15.5040 Z -1.0000
G01 X 16.5943 Y 15.5248 Z -1.0000
G03 X 16.4895 Y 15.6674 Z -1.0000 I -2.0187 J -1.3737
G03 X 16.2549 Y 15.9259 Z -1.0000 I -2.0392 J -1.6156
G03 X 16.1592 Y 15.9855 Z -1.0000 I -0.1880 J -0.1953
G01 X 16.1478 Y 15.9923 Z -1.0000
G01 X 16.1452 Y 15.9980 Z -1.0000
G01 X 16.1341 Y 16.0180 Z -1.0000
G03 X 15.8935 Y 16.1554 Z -1.0000 I -1.8340 J -2.9324
G03 X 15.6945 Y 16.2408 Z -1.0000 I -0.6809 J -1.3117
G03 X 15.4540 Y 16.3070 Z -1.0000 I -0.6394 J -1.8539
G03 X 15.3495 Y 16.3230 Z -1.0000 I -0.2023 J -0.9738
G03 X 15.1941 Y 16.3327 Z -1.0000 I -0.2117 J -2.1434
G03 X 14.8504 Y 16.3093 Z -1.0000 I -0.0479 J -1.8357
G03 X 14.5360 Y 16.2253 Z -1.0000 I 0.2640 J -1.6178
G03 X 14.2873 Y 16.1159 Z -1.0000 I 0.8938 J -2.3699
G03 X 14.2608 Y 16.0861 Z -1.0000 I 0.0246 J -0.0486
G01 X 14.2565 Y 16.0812 Z -1.0000
G01 X 14.2479 Y 16.0789 Z -1.0000
G03 X 14.2166 Y 16.0694 Z -1.0000 I -0.0000 J -0.0561
G03 X 14.0588 Y 15.9514 Z -1.0000 I 1.1322 J -1.6792
G03 X 13.9005 Y 15.8059 Z -1.0000 I 1.2939 J -1.5661
G03 X 13.7959 Y 15.6827 Z -1.0000 I 0.8201 J -0.8022
G02 X 13.7519 Y 15.6230 Z -1.0000 I -13.3344 J 9.7931
G02 X 13.7355 Y 15.6012 Z -1.0000 I -1.7507 J 1.2979
G03 X 13.6821 Y 15.5205 Z -1.0000 I 0.5878 J -0.4472
G03 X 13.5972 Y 15.3592 Z -1.0000 I 2.2731 J -1.2996
G03 X 13.4527 Y 14.8485 Z -1.0000 I 1.3801 J -0.6663
G03 X 13.4856 Y 14.2657 Z -1.0000 I 1.8437 J -0.1881
G03 X 13.5480 Y 14.0484 Z -1.0000 I 1.7030 J 0.3713
G03 X 13.6272 Y 13.8713 Z -1.0000 I 1.2068 J 0.4330
G03 X 13.8128 Y 13.5871 Z -1.0000 I 1.8086 J 0.9785
G03 X 14.0109 Y 13.3780 Z -1.0000 I 1.1678 J 0.9086
G03 X 14.1390 Y 13.2758 Z -1.0000 I 1.3193 J 1.5204
G03 X 14.2445 Y 13.2066 Z -1.0000 I 0.7073 J 0.9635
G02 X 14.2714 Y 13.1909 Z -1.0000 I -4.7067 J -8.0889
G02 X 14.3513 Y 13.1440 Z -1.0000 I -53.6175 J -91.4470
G03 X 14.4323 Y 13.0991 Z -1.0000 I 0.9214 J 1.5689
G03 X 14.5950 Y 13.0171 Z -1.0000 I 3.2469 J 6.2353
G02 X 15.1026 Y 12.7528 Z -1.0000 I -4.8490 J -9.9322
G02 X 15.2925 Y 12.6306 Z -1.0000 I -0.8346 J -1.5063
G02 X 15.5639 Y 12.3817 Z -1.0000 I -1.0438 J -1.4102
G02 X 15.7955 Y 12.0610 Z -1.0000 I -1.5180 J -1.3404
G02 X 15.8956 Y 11.8523 Z -1.0000 I -1.2468 J -0.7267
G02 X 15.9804 Y 11.5801 Z -1.0000 I -2.0430 J -0.7856
G02 X 16.0113 Y 11.4106 Z -1.0000 I -1.4795 J -0.3569
G02 X 16.0206 Y 11.2565 Z -1.0000 I -1.2128 J -0.1505
G02 X 15.9775 Y 10.9530 Z -1.0000 I -1.1151 J 0.0033
G02 X 15.8635 Y 10.7077 Z -1.0000 I -0.8352 J 0.2390
G02 X 15.7486 Y 10.5628 Z -1.0000 I -0.9698 J 0.6512
G02 X 15.6763 Y 10.5066 Z -1.0000 I -0.2094 J 0.1950
G03 X 15.6627 Y 10.4977 Z -1.0000 I 0.0428 J -0.0797
G01 X 15.6569 Y 10.4913 Z -1.0000
G02 X 15.6118 Y 10.4517 Z -1.0000 I -0.0958 J 0.0636
G02 X 15.4099 Y 10.3699 Z -1.0000 I -0.6688 J 1.3606
G02 X 15.0876 Y 10.3251 Z -1.0000 I -0.2877 J 0.8889
G02 X 14.7845 Y 10.3930 Z -1.0000 I 0.0315 J 0.8514
G03 X 14.7544 Y 10.4031 Z -1.0000 I -0.0768 J -0.1803
G01 X 14.7477 Y 10.4020 Z -1.0000
G01 X 14.7417 Y 10.4018 Z -1.0000
G02 X 14.7244 Y 10.4138 Z -1.0000 I 0.0337 J 0.0668
G03 X 14.7065 Y 10.4267 Z -1.0000 I -0.0620 J -0.0670
G01 X 14.6957 Y 10.4295 Z -1.0000
G01 X 14.6852 Y 10.4318 Z -1.0000
G01 X 14.6789 Y 10.4375 Z -1.0000
G01 X 14.6727 Y 10.4432 Z -1.0000
G01 X 14.6630 Y 10.4455 Z -1.0000
G01 X 14.6533 Y 10.4485 Z -1.0000
G02 X 14.6224 Y 10.4734 Z -1.0000 I 0.1465 J 0.2130
G03 X 14.5919 Y 10.4991 Z -1.0000 I -0.2359 J -0.2501
G01 X 14.5848 Y 10.5014 Z -1.0000
G01 X 14.5779 Y 10.5037 Z -1.0000
G02 X 14.5640 Y 10.5163 Z -1.0000 I 0.0472 J 0.0659
G03 X 14.5496 Y 10.5289 Z -1.0000 I -0.0538 J -0.0466
G03 X 14.5335 Y 10.5366 Z -1.0000 I -0.0354 J -0.0532
G01 X 14.5189 Y 10.5452 Z -1.0000
G01 X 14.5110 Y 10.5578 Z -1.0000
G01 X 14.5043 Y 10.5709 Z -1.0000
G01 X 14.4994 Y 10.5733 Z -1.0000
G01 X 14.4937 Y 10.5753 Z -1.0000
G02 X 14.4740 Y 10.5932 Z -1.0000 I 0.1068 J 0.1376
G03 X 14.4540 Y 10.6103 Z -1.0000 I -0.0932 J -0.0885
G01 X 14.4452 Y 10.6132 Z -1.0000
G01 X 14.4381 Y 10.6162 Z -1.0000
G01 X 14.4352 Y 10.6236 Z -1.0000
G01 X 14.4322 Y 10.6328 Z -1.0000
G03 X 14.4026 Y 10.6689 Z -1.0000 I -0.2988 J -0.2151
G02 X 14.3145 Y 10.8009 Z -1.0000 I 0.3609 J 0.3365
G02 X 14.2277 Y 11.0528 Z -1.0000 I 1.2656 J 0.5766
G02 X 14.2141 Y 11.1314 Z -1.0000 I 0.6045 J 0.1450
G02 X 14.1973 Y 11.3357 Z -1.0000 I 4.0697 J 0.4373
G03 X 14.1862 Y 11.4340 Z -1.0000 I -0.8810 J -0.0502
G01 X 14.1795 Y 11.4406 Z -1.0000
G03 X 14.1674 Y 11.4416 Z -1.0000 I -0.0139 J -0.0974
G03 X 13.7839 Y 11.4480 Z -1.0000 I -1.7457 J -92.6921
G02 X 13.4004 Y 11.4539 Z -1.0000 I 3.6007 J 245.0301
G02 X 13.3065 Y 11.4557 Z -1.0000 I 0.3030 J 18.6351
G01 X 13.2126 Y 11.4576 Z -1.0000
G01 X 13.2126 Y 11.3758 Z -1.0000
G03 X 13.2673 Y 10.8840 Z -1.0000 I 2.2397 J 0.0000
G03 X 13.4196 Y 10.4559 Z -1.0000 I 1.8427 J 0.4147
G02 X 13.4434 Y 10.4062 Z -1.0000 I -1.4384 J -0.7171
G01 X 13.4443 Y 10.4018 Z -1.0000
G01 X 13.4454 Y 10.3976 Z -1.0000
G03 X 13.4763 Y 10.3446 Z -1.0000 I 1.4593 J 0.8148
G02 X 13.5068 Y 10.2916 Z -1.0000 I -1.0730 J -0.6518
G01 X 13.5082 Y 10.2857 Z -1.0000
G03 X 13.5208 Y 10.2466 Z -1.0000 I 0.0672 J -0.0000
G03 X 13.6912 Y 10.0299 Z -1.0000 I 2.4632 J 1.7617
G03 X 13.8711 Y 9.8403 Z -1.0000 I 2.0859 J 1.7998
G03 X 13.9909 Y 9.7427 Z -1.0000 I 0.6663 J 0.6955
G02 X 14.0071 Y 9.7306 Z -1.0000 I -0.1428 J -0.2086
G01 X 14.0117 Y 9.7260 Z -1.0000
G01 X 14.0163 Y 9.7216 Z -1.0000
G03 X 14.0596 Y 9.6916 Z -1.0000 I 0.8407 J 1.1690
G02 X 14.1033 Y 9.6621 Z -1.0000 I -2.1984 J -3.3045
G02 X 14.1116 Y 9.6561 Z -1.0000 I -0.0837 J -0.1222
G03 X 14.3133 Y 9.5251 Z -1.0000 I 0.7965 J 1.0058
G03 X 14.4050 Y 9.5025 Z -1.0000 I 0.0917 J 0.1754
G01 X 14.4152 Y 9.5006 Z -1.0000
G01 X 14.4236 Y 9.4953 Z -1.0000
G03 X 14.4639 Y 9.4714 Z -1.0000 I 0.0738 J 0.0783
G03 X 14.6909 Y 9.4076 Z -1.0000 I 0.8494 J 2.5891
G03 X 15.0321 Y 9.3580 Z -1.0000 I 0.4593 J 1.9577
G03 X 15.3741 Y 9.3674 Z -1.0000 I 0.1163 J 1.9774
G01 X 15.3741 Y 9.3674 Z -1.0000
G00 Z 5.0000

(End cutting path id: path361)


(Start cutting path id: path361)
(Change tool to Default tool)

G00 Z 5.0000
G00 X 14.7668 Y 5.7867

G01 Z -1.0000 F 100.0000(Penetrate)
G01 X 14.7664 Y 5.7922 Z -1.0000 F 3500.0000
G01 X 14.7703 Y 5.7947 Z -1.0000
G01 X 14.7764 Y 5.7923 Z -1.0000
G01 X 14.7788 Y 5.7867 Z -1.0000
G01 X 14.7753 Y 5.7787 Z -1.0000
G01 X 14.7725 Y 5.7798 Z -1.0000
G01 X 14.7668 Y 5.7867 Z -1.0000
G01 X 14.7668 Y 5.7867 Z -1.0000
G00 Z 5.0000

(End cutting path id: path361)


(Start cutting path id: path361)
(Change tool to Default tool)

G00 Z 5.0000
G00 X 14.6887 Y 2.6352

G01 Z -1.0000 F 100.0000(Penetrate)
G01 X 14.6834 Y 2.6375 Z -1.0000 F 3500.0000
G01 X 14.6734 Y 2.6358 Z -1.0000
G01 X 14.6782 Y 2.6310 Z -1.0000
G01 X 14.6887 Y 2.6352 Z -1.0000
G01 X 14.6887 Y 2.6352 Z -1.0000
G00 Z 5.0000

(End cutting path id: path361)


(Start cutting path id: path361)
(Change tool to Default tool)

G00 Z 5.0000
G00 X 16.0214 Y 0.9923

G01 Z -1.0000 F 100.0000(Penetrate)
G01 X 16.0217 Y 0.9977 Z -1.0000 F 3500.0000
G01 X 16.0179 Y 1.0003 Z -1.0000
G01 X 16.0118 Y 0.9978 Z -1.0000
G01 X 16.0094 Y 0.9923 Z -1.0000
G01 X 16.0129 Y 0.9843 Z -1.0000
G01 X 16.0157 Y 0.9854 Z -1.0000
G01 X 16.0214 Y 0.9923 Z -1.0000
G01 X 16.0214 Y 0.9923 Z -1.0000
G00 Z 5.0000

(End cutting path id: path361)


(Start cutting path id: path361)
(Change tool to Default tool)

G00 Z 5.0000
G00 X 16.1932 Y 0.7161

G01 Z -1.0000 F 100.0000(Penetrate)
G01 X 16.1920 Y 0.7189 Z -1.0000 F 3500.0000
G01 X 16.1852 Y 0.7246 Z -1.0000
G01 X 16.1797 Y 0.7250 Z -1.0000
G01 X 16.1772 Y 0.7211 Z -1.0000
G01 X 16.1796 Y 0.7150 Z -1.0000
G01 X 16.1852 Y 0.7126 Z -1.0000
G01 X 16.1932 Y 0.7161 Z -1.0000
G01 X 16.1932 Y 0.7161 Z -1.0000
G00 Z 5.0000

(End cutting path id: path361)


(Start cutting path id: path361)
(Change tool to Default tool)

G00 Z 5.0000
G00 X 16.2651 Y 0.7765

G01 Z -1.0000 F 100.0000(Penetrate)
G01 X 16.2675 Y 0.7821 Z -1.0000 F 3500.0000
G01 X 16.2736 Y 0.7845 Z -1.0000
G01 X 16.2775 Y 0.7820 Z -1.0000
G01 X 16.2771 Y 0.7765 Z -1.0000
G01 X 16.2716 Y 0.7697 Z -1.0000
G01 X 16.2686 Y 0.7685 Z -1.0000
G01 X 16.2651 Y 0.7765 Z -1.0000
G01 X 16.2651 Y 0.7765 Z -1.0000
G00 Z 5.0000

(End cutting path id: path361)


(Start cutting path id: path361)
(Change tool to Default tool)

G00 Z 5.0000
G00 X 16.3104 Y 0.7099

G01 Z -1.0000 F 100.0000(Penetrate)
G01 X 16.3077 Y 0.7220 Z -1.0000 F 3500.0000
G01 X 16.3171 Y 0.7286 Z -1.0000
G01 X 16.3256 Y 0.7251 Z -1.0000
G01 X 16.3291 Y 0.7166 Z -1.0000
G01 X 16.3225 Y 0.7072 Z -1.0000
G01 X 16.3104 Y 0.7099 Z -1.0000
G01 X 16.3104 Y 0.7099 Z -1.0000
G00 Z 5.0000

(End cutting path id: path361)


(Start cutting path id: path361)
(Change tool to Default tool)

G00 Z 5.0000
G00 X 16.3930 Y 0.6572

G01 Z -1.0000 F 100.0000(Penetrate)
G01 X 16.3955 Y 0.6611 Z -1.0000 F 3500.0000
G01 X 16.4010 Y 0.6607 Z -1.0000
G01 X 16.4078 Y 0.6551 Z -1.0000
G01 X 16.4090 Y 0.6522 Z -1.0000
G01 X 16.4010 Y 0.6487 Z -1.0000
G01 X 16.3954 Y 0.6511 Z -1.0000
G01 X 16.3930 Y 0.6572 Z -1.0000
G01 X 16.3930 Y 0.6572 Z -1.0000
G00 Z 5.0000

(End cutting path id: path361)


(Start cutting path id: path361)
(Change tool to Default tool)

G00 Z 5.0000
G00 X 17.4712 Y 3.1580

G01 Z -1.0000 F 100.0000(Penetrate)
G01 X 17.4714 Y 3.1659 Z -1.0000 F 3500.0000
G01 X 17.4878 Y 3.1672 Z -1.0000
G01 X 17.4958 Y 3.1603 Z -1.0000
G01 X 17.4942 Y 3.1558 Z -1.0000
G01 X 17.4825 Y 3.1542 Z -1.0000
G01 X 17.4712 Y 3.1580 Z -1.0000
G01 X 17.4712 Y 3.1580 Z -1.0000
G00 Z 5.0000

(End cutting path id: path361)


(Start cutting path id: path361)
(Change tool to Default tool)

G00 Z 5.0000
G00 X 17.3558 Y 3.2056

G01 Z -1.0000 F 100.0000(Penetrate)
G01 X 17.3562 Y 3.2111 Z -1.0000 F 3500.0000
G01 X 17.3523 Y 3.2136 Z -1.0000
G01 X 17.3462 Y 3.2112 Z -1.0000
G01 X 17.3438 Y 3.2056 Z -1.0000
G01 X 17.3473 Y 3.1976 Z -1.0000
G01 X 17.3501 Y 3.1988 Z -1.0000
G01 X 17.3558 Y 3.2056 Z -1.0000
G01 X 17.3558 Y 3.2056 Z -1.0000
G00 Z 5.0000

(End cutting path id: path361)


(Start cutting path id: path361)
(Change tool to Default tool)

G00 Z 5.0000
G00 X 18.2533 Y 3.1552

G01 Z -1.0000 F 100.0000(Penetrate)
G01 X 18.2633 Y 3.1569 Z -1.0000 F 3500.0000
G01 X 18.2686 Y 3.1546 Z -1.0000
G01 X 18.2581 Y 3.1504 Z -1.0000
G01 X 18.2533 Y 3.1552 Z -1.0000
G01 X 18.2533 Y 3.1552 Z -1.0000
G00 Z 5.0000

(End cutting path id: path361)


(Start cutting path id: path361)
(Change tool to Default tool)

G00 Z 5.0000
G00 X 20.3070 Y 2.3906

G01 Z -1.0000 F 100.0000(Penetrate)
G01 X 20.3068 Y 2.4186 Z -1.0000 F 3500.0000
G01 X 20.3009 Y 2.3939 Z -1.0000
G02 X 20.2939 Y 2.3697 Z -1.0000 I -0.2416 J 0.0570
G01 X 20.2892 Y 2.3599 Z -1.0000
G01 X 20.2866 Y 2.3506 Z -1.0000
G01 X 20.2893 Y 2.3412 Z -1.0000
G01 X 20.2989 Y 2.3422 Z -1.0000
G03 X 20.3070 Y 2.3906 Z -1.0000 I -0.1318 J 0.0471
G01 X 20.3070 Y 2.3906 Z -1.0000
G00 Z 5.0000

(End cutting path id: path361)


(Start cutting path id: path361)
(Change tool to Default tool)

G00 Z 5.0000
G00 X 20.2813 Y 2.2967

G01 Z -1.0000 F 100.0000(Penetrate)
G03 X 20.2785 Y 2.3066 Z -1.0000 I -0.2110 J -0.0537 F 3500.0000
G03 X 20.2696 Y 2.3352 Z -1.0000 I -2.0187 J -0.6170
G02 X 20.2500 Y 2.4654 Z -1.0000 I 0.3934 J 0.1258
G01 X 20.2713 Y 2.4865 Z -1.0000
G01 X 20.2780 Y 2.4823 Z -1.0000
G01 X 20.2827 Y 2.4626 Z -1.0000
G01 X 20.2975 Y 2.4449 Z -1.0000
G01 X 20.3141 Y 2.4559 Z -1.0000
G02 X 20.3242 Y 2.4862 Z -1.0000 I 0.1239 J -0.0243
G01 X 20.3318 Y 2.4930 Z -1.0000
G01 X 20.3373 Y 2.4894 Z -1.0000
G02 X 20.3379 Y 2.4177 Z -1.0000 I -0.4931 J -0.0402
G02 X 20.3168 Y 2.3004 Z -1.0000 I -0.5185 J 0.0328
G01 X 20.2984 Y 2.2867 Z -1.0000
G01 X 20.2864 Y 2.2900 Z -1.0000
G01 X 20.2813 Y 2.2967 Z -1.0000
G01 X 20.2813 Y 2.2967 Z -1.0000
G00 Z 5.0000

(End cutting path id: path361)


(Start cutting path id: path361)
(Change tool to Default tool)

G00 Z 5.0000
G00 X 20.3969 Y 2.2114

G01 Z -1.0000 F 100.0000(Penetrate)
G01 X 20.4017 Y 2.2162 Z -1.0000 F 3500.0000
G01 X 20.4034 Y 2.2062 Z -1.0000
G01 X 20.4011 Y 2.2009 Z -1.0000
G01 X 20.3969 Y 2.2114 Z -1.0000
G01 X 20.3969 Y 2.2114 Z -1.0000
G00 Z 5.0000

(End cutting path id: path361)


(Start cutting path id: path361)
(Change tool to Default tool)

G00 Z 5.0000
G00 X 20.3883 Y 2.0417

G01 Z -1.0000 F 100.0000(Penetrate)
G02 X 20.3916 Y 2.0758 Z -1.0000 I 0.1775 J 0.0000 F 3500.0000
G01 X 20.3955 Y 2.0790 Z -1.0000
G01 X 20.4128 Y 2.0607 Z -1.0000
G02 X 20.3912 Y 2.0078 Z -1.0000 I -0.0885 J 0.0053
G01 X 20.3883 Y 2.0417 Z -1.0000
G01 X 20.3883 Y 2.0417 Z -1.0000
G00 Z 5.0000

(End cutting path id: path361)


(Start cutting path id: path361)
(Change tool to Default tool)

G00 Z 5.0000
G00 X 20.2543 Y 1.9352

G01 Z -1.0000 F 100.0000(Penetrate)
G01 X 20.2580 Y 1.9492 Z -1.0000 F 3500.0000
G02 X 20.2598 Y 1.9352 Z -1.0000 I -0.0539 J -0.0140
G02 X 20.2580 Y 1.9212 Z -1.0000 I -0.0555 J 0.0000
G01 X 20.2543 Y 1.9352 Z -1.0000
G01 X 20.2543 Y 1.9352 Z -1.0000
G00 Z 5.0000

(End cutting path id: path361)


(Start cutting path id: path361)
(Change tool to Default tool)

G00 Z 5.0000
G00 X 20.3500 Y 1.7521

G01 Z -1.0000 F 100.0000(Penetrate)
G01 X 20.3559 Y 1.7593 Z -1.0000 F 3500.0000
G01 X 20.3604 Y 1.7596 Z -1.0000
G01 X 20.3642 Y 1.7749 Z -1.0000
G01 X 20.3551 Y 1.7793 Z -1.0000
G01 X 20.3405 Y 1.7559 Z -1.0000
G03 X 20.3391 Y 1.7322 Z -1.0000 I 0.0714 J -0.0162
G01 X 20.3431 Y 1.7297 Z -1.0000
G01 X 20.3485 Y 1.7352 Z -1.0000
G01 X 20.3500 Y 1.7521 Z -1.0000
G01 X 20.3500 Y 1.7521 Z -1.0000
G00 Z 5.0000

(End cutting path id: path361)


(Start cutting path id: path361)
(Change tool to Default tool)

G00 Z 5.0000
G00 X 20.3484 Y 1.7034

G01 Z -1.0000 F 100.0000(Penetrate)
G01 X 20.3449 Y 1.7114 Z -1.0000 F 3500.0000
G01 X 20.3421 Y 1.7103 Z -1.0000
G01 X 20.3364 Y 1.7034 Z -1.0000
G01 X 20.3360 Y 1.6980 Z -1.0000
G01 X 20.3399 Y 1.6954 Z -1.0000
G01 X 20.3460 Y 1.6979 Z -1.0000
G01 X 20.3484 Y 1.7034 Z -1.0000
G01 X 20.3484 Y 1.7034 Z -1.0000
G00 Z 5.0000

(End cutting path id: path361)


(Start cutting path id: path361)
(Change tool to Default tool)

G00 Z 5.0000
G00 X 20.3163 Y 1.6335

G01 Z -1.0000 F 100.0000(Penetrate)
G01 X 20.3144 Y 1.6375 Z -1.0000 F 3500.0000
G01 X 20.3084 Y 1.6395 Z -1.0000
G01 X 20.3036 Y 1.6363 Z -1.0000
G01 X 20.3005 Y 1.6215 Z -1.0000
G01 X 20.3039 Y 1.6147 Z -1.0000
G01 X 20.3084 Y 1.6155 Z -1.0000
G03 X 20.3150 Y 1.6278 Z -1.0000 I -0.0701 J 0.0457
G01 X 20.3163 Y 1.6335 Z -1.0000
G01 X 20.3163 Y 1.6335 Z -1.0000
G00 Z 5.0000

(End cutting path id: path361)


(Start cutting path id: path361)
(Change tool to Default tool)

G00 Z 5.0000
G00 X 20.2931 Y 1.5643

G01 Z -1.0000 F 100.0000(Penetrate)
G01 X 20.2979 Y 1.5691 Z -1.0000 F 3500.0000
G01 X 20.2996 Y 1.5591 Z -1.0000
G01 X 20.2973 Y 1.5538 Z -1.0000
G01 X 20.2931 Y 1.5643 Z -1.0000
G01 X 20.2931 Y 1.5643 Z -1.0000
G00 Z 5.0000

(End cutting path id: path361)


(Start cutting path id: path361)
(Change tool to Default tool)

G00 Z 5.0000
G00 X 20.4088 Y 1.5860

G01 Z -1.0000 F 100.0000(Penetrate)
G02 X 20.4063 Y 1.6514 Z -1.0000 I 30.9936 J 1.2066 F 3500.0000
G03 X 20.4053 Y 1.6774 Z -1.0000 I -5.0044 J -0.1843
G03 X 20.3998 Y 1.6987 Z -1.0000 I -0.0521 J -0.0020
G01 X 20.3923 Y 1.7033 Z -1.0000
G01 X 20.3832 Y 1.7005 Z -1.0000
G01 X 20.3803 Y 1.6948 Z -1.0000
G01 X 20.3777 Y 1.6910 Z -1.0000
G01 X 20.3723 Y 1.6913 Z -1.0000
G01 X 20.3674 Y 1.6908 Z -1.0000
G01 X 20.3643 Y 1.6833 Z -1.0000
G01 X 20.3614 Y 1.6755 Z -1.0000
G01 X 20.3571 Y 1.6748 Z -1.0000
G01 X 20.3591 Y 1.6595 Z -1.0000
G01 X 20.3683 Y 1.6398 Z -1.0000
G01 X 20.3728 Y 1.6575 Z -1.0000
G01 X 20.3805 Y 1.6572 Z -1.0000
G02 X 20.3882 Y 1.5565 Z -1.0000 I -0.6662 J -0.1018
G03 X 20.3937 Y 1.5130 Z -1.0000 I 0.1772 J 0.0003
G01 X 20.3998 Y 1.5111 Z -1.0000
G01 X 20.4062 Y 1.5229 Z -1.0000
G03 X 20.4088 Y 1.5859 Z -1.0000 I -0.4017 J 0.0479
G01 X 20.4088 Y 1.5860 Z -1.0000
G00 Z 5.0000

(End cutting path id: path361)


(Start cutting path id: path361)
(Change tool to Default tool)

G00 Z 5.0000
G00 X 20.5137 Y 1.5530

G01 Z -1.0000 F 100.0000(Penetrate)
G01 X 20.5089 Y 1.5482 Z -1.0000 F 3500.0000
G01 X 20.5131 Y 1.5377 Z -1.0000
G01 X 20.5154 Y 1.5431 Z -1.0000
G01 X 20.5137 Y 1.5530 Z -1.0000
G01 X 20.5137 Y 1.5530 Z -1.0000
G00 Z 5.0000

(End cutting path id: path361)


(Start cutting path id: path361)
(Change tool to Default tool)

G00 Z 5.0000
G00 X 20.5178 Y 1.4652

G01 Z -1.0000 F 100.0000(Penetrate)
G01 X 20.5121 Y 1.4652 Z -1.0000 F 3500.0000
G01 X 20.5082 Y 1.4556 Z -1.0000
G01 X 20.5122 Y 1.4460 Z -1.0000
G01 X 20.5178 Y 1.4460 Z -1.0000
G01 X 20.5218 Y 1.4556 Z -1.0000
G01 X 20.5178 Y 1.4652 Z -1.0000
G01 X 20.5178 Y 1.4652 Z -1.0000
G00 Z 5.0000

(End cutting path id: path361)


(Start cutting path id: path361)
(Change tool to Default tool)

G00 Z 5.0000
G00 X 20.5185 Y 1.3766

G01 Z -1.0000 F 100.0000(Penetrate)
G03 X 20.5161 Y 1.4210 Z -1.0000 I -0.1187 J 0.0158 F 3500.0000
G01 X 20.5072 Y 1.4224 Z -1.0000
G03 X 20.4864 Y 1.3508 Z -1.0000 I 0.1137 J -0.0719
G01 X 20.5071 Y 1.3392 Z -1.0000
G01 X 20.5116 Y 1.3450 Z -1.0000
G03 X 20.5185 Y 1.3766 Z -1.0000 I -0.1945 J 0.0588
G01 X 20.5185 Y 1.3766 Z -1.0000
G00 Z 5.0000

(End cutting path id: path361)


(Start cutting path id: path361)
(Change tool to Default tool)

G00 Z 5.0000
G00 X 20.5162 Y 1.2479

G01 Z -1.0000 F 100.0000(Penetrate)
G03 X 20.5128 Y 1.2685 Z -1.0000 I -0.0651 J -0.0000 F 3500.0000
G01 X 20.5082 Y 1.2719 Z -1.0000
G01 X 20.5035 Y 1.2685 Z -1.0000
G03 X 20.5002 Y 1.2479 Z -1.0000 I 0.0618 J -0.0206
G03 X 20.5035 Y 1.2273 Z -1.0000 I 0.0651 J -0.0000
G01 X 20.5082 Y 1.2240 Z -1.0000
G01 X 20.5128 Y 1.2273 Z -1.0000
G03 X 20.5162 Y 1.2479 Z -1.0000 I -0.0618 J 0.0206
G01 X 20.5162 Y 1.2479 Z -1.0000
G00 Z 5.0000

(End cutting path id: path361)


(Start cutting path id: path361)
(Change tool to Default tool)

G00 Z 5.0000
G00 X 20.5198 Y 1.1515

G01 Z -1.0000 F 100.0000(Penetrate)
G01 X 20.5208 Y 1.1581 Z -1.0000 F 3500.0000
G01 X 20.5163 Y 1.1640 Z -1.0000
G01 X 20.5113 Y 1.1635 Z -1.0000
G01 X 20.5082 Y 1.1566 Z -1.0000
G01 X 20.5130 Y 1.1494 Z -1.0000
G01 X 20.5199 Y 1.1516 Z -1.0000
G01 X 20.5198 Y 1.1515 Z -1.0000
G00 Z 5.0000

(End cutting path id: path361)


(Start cutting path id: path361)
(Change tool to Default tool)

G00 Z 5.0000
G00 X 20.6709 Y 1.1696

G01 Z -1.0000 F 100.0000(Penetrate)
G01 X 20.6752 Y 1.1803 Z -1.0000 F 3500.0000
G03 X 20.6692 Y 1.2031 Z -1.0000 I -0.0575 J -0.0029
G01 X 20.6581 Y 1.2145 Z -1.0000
G01 X 20.6521 Y 1.2121 Z -1.0000
G03 X 20.6470 Y 1.1694 Z -1.0000 I 0.0926 J -0.0327
G01 X 20.6573 Y 1.1601 Z -1.0000
G01 X 20.6603 Y 1.1611 Z -1.0000
G03 X 20.6709 Y 1.1697 Z -1.0000 I -0.0564 J 0.0801
G01 X 20.6709 Y 1.1696 Z -1.0000
G00 Z 5.0000

(End cutting path id: path361)


(Start cutting path id: path361)
(Change tool to Default tool)

G00 Z 5.0000
G00 X 20.7160 Y 1.1795

G01 Z -1.0000 F 100.0000(Penetrate)
G01 X 20.7148 Y 1.1824 Z -1.0000 F 3500.0000
G01 X 20.7080 Y 1.1880 Z -1.0000
G01 X 20.7025 Y 1.1884 Z -1.0000
G01 X 20.7000 Y 1.1845 Z -1.0000
G01 X 20.7024 Y 1.1784 Z -1.0000
G01 X 20.7080 Y 1.1760 Z -1.0000
G01 X 20.7160 Y 1.1795 Z -1.0000
G01 X 20.7160 Y 1.1795 Z -1.0000
G00 Z 5.0000

(End cutting path id: path361)


(Start cutting path id: path361)
(Change tool to Default tool)

G00 Z 5.0000
G00 X 20.6940 Y 1.1168

G01 Z -1.0000 F 100.0000(Penetrate)
G01 X 20.6967 Y 1.1268 Z -1.0000 F 3500.0000
G01 X 20.6757 Y 1.1375 Z -1.0000
G03 X 20.6453 Y 1.1356 Z -1.0000 I -0.0093 J -0.0954
G01 X 20.6316 Y 1.1276 Z -1.0000
G01 X 20.6323 Y 1.1199 Z -1.0000
G01 X 20.6500 Y 1.1135 Z -1.0000
G03 X 20.6798 Y 1.1141 Z -1.0000 I 0.0103 J 0.2662
G03 X 20.6940 Y 1.1167 Z -1.0000 I -0.0047 J 0.0635
G01 X 20.6940 Y 1.1168 Z -1.0000
G00 Z 5.0000

(End cutting path id: path361)


(Start cutting path id: path361)
(Change tool to Default tool)

G00 Z 5.0000
G00 X 20.6601 Y 1.0462

G01 Z -1.0000 F 100.0000(Penetrate)
G02 X 20.6613 Y 1.0601 Z -1.0000 I 0.0952 J -0.0007 F 3500.0000
G02 X 20.6650 Y 1.0782 Z -1.0000 I 0.1770 J -0.0275
G01 X 20.6658 Y 1.0931 Z -1.0000
G01 X 20.6622 Y 1.0961 Z -1.0000
G01 X 20.6415 Y 1.0822 Z -1.0000
G03 X 20.6411 Y 1.0443 Z -1.0000 I 0.0478 J -0.0194
G01 X 20.6522 Y 1.0375 Z -1.0000
G01 X 20.6601 Y 1.0462 Z -1.0000
G01 X 20.6601 Y 1.0462 Z -1.0000
G00 Z 5.0000

(End cutting path id: path361)


(Start cutting path id: path361)
(Change tool to Default tool)

G00 Z 5.0000
G00 X 20.7885 Y 1.0195

G01 Z -1.0000 F 100.0000(Penetrate)
G01 X 20.7840 Y 1.0300 Z -1.0000 F 3500.0000
G01 X 20.7866 Y 1.0354 Z -1.0000
G01 X 20.7919 Y 1.0348 Z -1.0000
G01 X 20.7982 Y 1.0241 Z -1.0000
G01 X 20.7954 Y 1.0180 Z -1.0000
G01 X 20.7885 Y 1.0195 Z -1.0000
G01 X 20.7885 Y 1.0195 Z -1.0000
G00 Z 5.0000

(End cutting path id: path361)


(Start cutting path id: path361)
(Change tool to Default tool)

G00 Z 5.0000
G00 X 20.8279 Y 1.0003

G01 Z -1.0000 F 100.0000(Penetrate)
G01 X 20.8303 Y 1.0058 Z -1.0000 F 3500.0000
G01 X 20.8364 Y 1.0083 Z -1.0000
G01 X 20.8403 Y 1.0057 Z -1.0000
G01 X 20.8399 Y 1.0003 Z -1.0000
G01 X 20.8343 Y 0.9934 Z -1.0000
G01 X 20.8314 Y 0.9923 Z -1.0000
G01 X 20.8279 Y 1.0003 Z -1.0000
G01 X 20.8279 Y 1.0003 Z -1.0000
G00 Z 5.0000

(End cutting path id: path361)


(Start cutting path id: path361)
(Change tool to Default tool)

G00 Z 5.0000
G00 X 20.8122 Y 0.9689

G01 Z -1.0000 F 100.0000(Penetrate)
G01 X 20.8247 Y 0.9821 Z -1.0000 F 3500.0000
G01 X 20.8280 Y 0.9633 Z -1.0000
G01 X 20.8107 Y 0.9523 Z -1.0000
G01 X 20.8081 Y 0.9552 Z -1.0000
G01 X 20.8122 Y 0.9689 Z -1.0000
G01 X 20.8122 Y 0.9689 Z -1.0000
G00 Z 5.0000

(End cutting path id: path361)


(Start cutting path id: path361)
(Change tool to Default tool)

G00 Z 5.0000
G00 X 20.8503 Y 0.9338

G01 Z -1.0000 F 100.0000(Penetrate)
G01 X 20.8603 Y 0.9355 Z -1.0000 F 3500.0000
G01 X 20.8656 Y 0.9331 Z -1.0000
G01 X 20.8551 Y 0.9289 Z -1.0000
G01 X 20.8503 Y 0.9337 Z -1.0000
G01 X 20.8503 Y 0.9338 Z -1.0000
G00 Z 5.0000

(End cutting path id: path361)


(Start cutting path id: path361)
(Change tool to Default tool)

G00 Z 5.0000
G00 X 20.8079 Y 0.9044

G01 Z -1.0000 F 100.0000(Penetrate)
G01 X 20.8143 Y 0.9097 Z -1.0000 F 3500.0000
G01 X 20.8283 Y 0.9124 Z -1.0000
G01 X 20.8408 Y 0.9094 Z -1.0000
G01 X 20.8438 Y 0.9044 Z -1.0000
G01 X 20.8406 Y 0.8996 Z -1.0000
G01 X 20.8234 Y 0.8964 Z -1.0000
G01 X 20.8091 Y 0.8999 Z -1.0000
G01 X 20.8079 Y 0.9044 Z -1.0000
G01 X 20.8079 Y 0.9044 Z -1.0000
G00 Z 5.0000

(End cutting path id: path361)


(Start cutting path id: path361)
(Change tool to Default tool)

G00 Z 5.0000
G00 X 20.7320 Y 0.8879

G01 Z -1.0000 F 100.0000(Penetrate)
G01 X 20.7338 Y 0.8943 Z -1.0000 F 3500.0000
G01 X 20.7400 Y 0.9004 Z -1.0000
G01 X 20.7449 Y 0.8999 Z -1.0000
G01 X 20.7480 Y 0.8929 Z -1.0000
G01 X 20.7451 Y 0.8832 Z -1.0000
G01 X 20.7400 Y 0.8804 Z -1.0000
G01 X 20.7342 Y 0.8827 Z -1.0000
G01 X 20.7320 Y 0.8879 Z -1.0000
G01 X 20.7320 Y 0.8879 Z -1.0000
G00 Z 5.0000

(End cutting path id: path361)


(Start cutting path id: path361)
(Change tool to Default tool)

G00 Z 5.0000
G00 X 20.7241 Y 0.9244

G01 Z -1.0000 F 100.0000(Penetrate)
G03 X 20.7227 Y 0.9402 Z -1.0000 I -0.1221 J -0.0028 F 3500.0000
G03 X 20.7186 Y 0.9603 Z -1.0000 I -0.2105 J -0.0325
G01 X 20.7135 Y 0.9803 Z -1.0000
G01 X 20.7300 Y 0.9603 Z -1.0000
G01 X 20.7454 Y 0.9588 Z -1.0000
G01 X 20.7503 Y 0.9766 Z -1.0000
G02 X 20.7449 Y 0.9990 Z -1.0000 I 0.0878 J 0.0331
G01 X 20.7472 Y 1.0038 Z -1.0000
G01 X 20.7697 Y 1.0448 Z -1.0000
G03 X 20.7457 Y 1.1256 Z -1.0000 I -0.1545 J -0.0020
G01 X 20.7484 Y 1.1363 Z -1.0000
G01 X 20.7698 Y 1.1390 Z -1.0000
G01 X 20.7905 Y 1.1186 Z -1.0000
G01 X 20.7794 Y 1.1042 Z -1.0000
G01 X 20.7704 Y 1.1001 Z -1.0000
G01 X 20.7690 Y 1.0924 Z -1.0000
G01 X 20.7752 Y 1.0839 Z -1.0000
G01 X 20.7817 Y 1.0824 Z -1.0000
G01 X 20.7882 Y 1.0811 Z -1.0000
G01 X 20.7936 Y 1.0742 Z -1.0000
G01 X 20.7925 Y 1.0676 Z -1.0000
G01 X 20.7855 Y 1.0642 Z -1.0000
G01 X 20.7598 Y 1.0428 Z -1.0000
G03 X 20.7730 Y 0.9967 Z -1.0000 I 0.0529 J -0.0098
G02 X 20.7880 Y 0.9591 Z -1.0000 I -0.0428 J -0.0389
G01 X 20.7747 Y 0.9258 Z -1.0000
G01 X 20.7693 Y 0.9242 Z -1.0000
G01 X 20.7585 Y 0.9296 Z -1.0000
G01 X 20.7483 Y 0.9318 Z -1.0000
G01 X 20.7360 Y 0.9235 Z -1.0000
G01 X 20.7283 Y 0.9200 Z -1.0000
G01 X 20.7242 Y 0.9243 Z -1.0000
G01 X 20.7241 Y 0.9244 Z -1.0000
G00 Z 5.0000

(End cutting path id: path361)


(Start cutting path id: path361)
(Change tool to Default tool)

G00 Z 5.0000
G00 X 20.6176 Y 0.8620

G01 Z -1.0000 F 100.0000(Penetrate)
G01 X 20.6059 Y 0.8785 Z -1.0000 F 3500.0000
G01 X 20.6201 Y 0.8945 Z -1.0000
G01 X 20.6279 Y 0.8914 Z -1.0000
G01 X 20.6332 Y 0.8766 Z -1.0000
G01 X 20.6332 Y 0.8573 Z -1.0000
G01 X 20.6319 Y 0.8580 Z -1.0000
G03 X 20.6176 Y 0.8620 Z -1.0000 I -0.1489 J -0.5017
G01 X 20.6176 Y 0.8620 Z -1.0000
G00 Z 5.0000

(End cutting path id: path361)


(Start cutting path id: path361)
(Change tool to Default tool)

G00 Z 5.0000
G00 X 20.6600 Y 0.7955

G01 Z -1.0000 F 100.0000(Penetrate)
G01 X 20.6634 Y 0.8130 Z -1.0000 F 3500.0000
G01 X 20.6712 Y 0.8238 Z -1.0000
G01 X 20.6809 Y 0.8483 Z -1.0000
G01 X 20.6650 Y 0.8740 Z -1.0000
G01 X 20.6607 Y 0.8800 Z -1.0000
G01 X 20.6621 Y 0.8851 Z -1.0000
G01 X 20.6831 Y 0.8849 Z -1.0000
G02 X 20.6998 Y 0.8459 Z -1.0000 I -0.0429 J -0.0415
G01 X 20.6982 Y 0.8401 Z -1.0000
G02 X 20.6880 Y 0.8273 Z -1.0000 I -0.0610 J 0.0383
G01 X 20.6794 Y 0.8140 Z -1.0000
G03 X 20.6761 Y 0.7959 Z -1.0000 I 0.0472 J -0.0180
G01 X 20.6729 Y 0.7797 Z -1.0000
G01 X 20.6681 Y 0.7765 Z -1.0000
G01 X 20.6633 Y 0.7797 Z -1.0000
G01 X 20.6601 Y 0.7955 Z -1.0000
G01 X 20.6600 Y 0.7955 Z -1.0000
G00 Z 5.0000

(End cutting path id: path361)


(Start cutting path id: path361)
(Change tool to Default tool)

G00 Z 5.0000
G00 X 20.7132 Y 0.7882

G01 Z -1.0000 F 100.0000(Penetrate)
G01 X 20.7122 Y 0.7988 Z -1.0000 F 3500.0000
G01 X 20.7163 Y 0.8047 Z -1.0000
G01 X 20.7207 Y 0.8037 Z -1.0000
G01 X 20.7239 Y 0.7930 Z -1.0000
G01 X 20.7192 Y 0.7857 Z -1.0000
G01 X 20.7131 Y 0.7883 Z -1.0000
G01 X 20.7132 Y 0.7882 Z -1.0000
G00 Z 5.0000

(End cutting path id: path361)


(Start cutting path id: path361)
(Change tool to Default tool)

G00 Z 5.0000
G00 X 20.6760 Y 0.7366

G01 Z -1.0000 F 100.0000(Penetrate)
G01 X 20.6789 Y 0.7417 Z -1.0000 F 3500.0000
G01 X 20.6885 Y 0.7446 Z -1.0000
G01 X 20.6955 Y 0.7415 Z -1.0000
G01 X 20.6960 Y 0.7366 Z -1.0000
G01 X 20.6900 Y 0.7305 Z -1.0000
G01 X 20.6835 Y 0.7286 Z -1.0000
G01 X 20.6783 Y 0.7308 Z -1.0000
G01 X 20.6760 Y 0.7366 Z -1.0000
G01 X 20.6760 Y 0.7366 Z -1.0000
G00 Z 5.0000

(End cutting path id: path361)


(Start cutting path id: path361)
(Change tool to Default tool)

G00 Z 5.0000
G00 X 20.6501 Y 0.6793

G01 Z -1.0000 F 100.0000(Penetrate)
G01 X 20.6525 Y 0.6882 Z -1.0000 F 3500.0000
G01 X 20.6614 Y 0.6906 Z -1.0000
G01 X 20.6724 Y 0.6843 Z -1.0000
G01 X 20.6739 Y 0.6781 Z -1.0000
G01 X 20.6617 Y 0.6699 Z -1.0000
G01 X 20.6501 Y 0.6793 Z -1.0000
G01 X 20.6501 Y 0.6793 Z -1.0000
G00 Z 5.0000

(End cutting path id: path361)


(Start cutting path id: path361)
(Change tool to Default tool)

G00 Z 5.0000
G00 X 20.7000 Y 0.6111

G01 Z -1.0000 F 100.0000(Penetrate)
G01 X 20.7036 Y 0.6181 Z -1.0000 F 3500.0000
G01 X 20.7160 Y 0.6226 Z -1.0000
G01 X 20.7249 Y 0.6158 Z -1.0000
G01 X 20.7193 Y 0.6057 Z -1.0000
G01 X 20.7046 Y 0.6050 Z -1.0000
G01 X 20.7000 Y 0.6111 Z -1.0000
G01 X 20.7000 Y 0.6111 Z -1.0000
G00 Z 5.0000

(End cutting path id: path361)


(Start cutting path id: path361)
(Change tool to Default tool)

G00 Z 5.0000
G00 X 20.7559 Y 0.6647

G01 Z -1.0000 F 100.0000(Penetrate)
G01 X 20.7583 Y 0.6703 Z -1.0000 F 3500.0000
G01 X 20.7639 Y 0.6727 Z -1.0000
G01 X 20.7696 Y 0.6703 Z -1.0000
G01 X 20.7719 Y 0.6647 Z -1.0000
G01 X 20.7696 Y 0.6590 Z -1.0000
G01 X 20.7639 Y 0.6567 Z -1.0000
G01 X 20.7583 Y 0.6590 Z -1.0000
G01 X 20.7559 Y 0.6647 Z -1.0000
G01 X 20.7559 Y 0.6647 Z -1.0000
G00 Z 5.0000

(End cutting path id: path361)


(Start cutting path id: path361)
(Change tool to Default tool)

G00 Z 5.0000
G00 X 20.7799 Y 0.7036

G01 Z -1.0000 F 100.0000(Penetrate)
G01 X 20.7826 Y 0.7181 Z -1.0000 F 3500.0000
G01 X 20.7879 Y 0.7246 Z -1.0000
G01 X 20.7926 Y 0.7236 Z -1.0000
G01 X 20.7959 Y 0.7135 Z -1.0000
G01 X 20.7932 Y 0.6990 Z -1.0000
G01 X 20.7879 Y 0.6926 Z -1.0000
G01 X 20.7832 Y 0.6936 Z -1.0000
G01 X 20.7799 Y 0.7036 Z -1.0000
G01 X 20.7799 Y 0.7036 Z -1.0000
G00 Z 5.0000

(End cutting path id: path361)


(Start cutting path id: path361)
(Change tool to Default tool)

G00 Z 5.0000
G00 X 20.8199 Y 0.6518

G01 Z -1.0000 F 100.0000(Penetrate)
G01 X 20.8223 Y 0.6624 Z -1.0000 F 3500.0000
G01 X 20.8279 Y 0.6687 Z -1.0000
G01 X 20.8329 Y 0.6683 Z -1.0000
G01 X 20.8359 Y 0.6617 Z -1.0000
G01 X 20.8335 Y 0.6511 Z -1.0000
G01 X 20.8279 Y 0.6448 Z -1.0000
G01 X 20.8228 Y 0.6452 Z -1.0000
G01 X 20.8199 Y 0.6518 Z -1.0000
G01 X 20.8199 Y 0.6518 Z -1.0000
G00 Z 5.0000

(End cutting path id: path361)


(Start cutting path id: path361)
(Change tool to Default tool)

G00 Z 5.0000
G00 X 20.7256 Y 0.5292

G01 Z -1.0000 F 100.0000(Penetrate)
G01 X 20.7214 Y 0.5418 Z -1.0000 F 3500.0000
G01 X 20.7242 Y 0.5449 Z -1.0000
G01 X 20.7307 Y 0.5423 Z -1.0000
G01 X 20.7372 Y 0.5325 Z -1.0000
G01 X 20.7340 Y 0.5260 Z -1.0000
G01 X 20.7256 Y 0.5292 Z -1.0000
G01 X 20.7256 Y 0.5292 Z -1.0000
G00 Z 5.0000

(End cutting path id: path361)


(Start cutting path id: path361)
(Change tool to Default tool)

G00 Z 5.0000
G00 X 20.6960 Y 0.4570

G01 Z -1.0000 F 100.0000(Penetrate)
G01 X 20.6965 Y 0.4619 Z -1.0000 F 3500.0000
G01 X 20.7035 Y 0.4650 Z -1.0000
G01 X 20.7132 Y 0.4621 Z -1.0000
G01 X 20.7160 Y 0.4570 Z -1.0000
G01 X 20.7137 Y 0.4512 Z -1.0000
G01 X 20.7085 Y 0.4490 Z -1.0000
G01 X 20.7021 Y 0.4508 Z -1.0000
G01 X 20.6960 Y 0.4570 Z -1.0000
G01 X 20.6960 Y 0.4570 Z -1.0000
G00 Z 5.0000

(End cutting path id: path361)


(Start cutting path id: path361)
(Change tool to Default tool)

G00 Z 5.0000
G00 X 20.7240 Y 0.4250

G01 Z -1.0000 F 100.0000(Penetrate)
G01 X 20.7219 Y 0.4299 Z -1.0000 F 3500.0000
G01 X 20.7255 Y 0.4329 Z -1.0000
G01 X 20.7376 Y 0.4305 Z -1.0000
G01 X 20.7439 Y 0.4250 Z -1.0000
G01 X 20.7411 Y 0.4199 Z -1.0000
G01 X 20.7239 Y 0.4250 Z -1.0000
G01 X 20.7240 Y 0.4250 Z -1.0000
G00 Z 5.0000

(End cutting path id: path361)


(Start cutting path id: path361)
(Change tool to Default tool)

G00 Z 5.0000
G00 X 20.6960 Y 0.4010

G01 Z -1.0000 F 100.0000(Penetrate)
G01 X 20.7015 Y 0.4079 Z -1.0000 F 3500.0000
G01 X 20.7045 Y 0.4090 Z -1.0000
G01 X 20.7080 Y 0.4010 Z -1.0000
G01 X 20.7056 Y 0.3955 Z -1.0000
G01 X 20.6995 Y 0.3930 Z -1.0000
G01 X 20.6956 Y 0.3956 Z -1.0000
G01 X 20.6960 Y 0.4010 Z -1.0000
G01 X 20.6960 Y 0.4010 Z -1.0000
G00 Z 5.0000

(End cutting path id: path361)


(Start cutting path id: path361)
(Change tool to Default tool)

G00 Z 5.0000
G00 X 20.6565 Y 0.3630

G01 Z -1.0000 F 100.0000(Penetrate)
G02 X 20.6538 Y 0.3943 Z -1.0000 I 0.0712 J 0.0218 F 3500.0000
G01 X 20.6614 Y 0.4009 Z -1.0000
G01 X 20.6652 Y 0.3980 Z -1.0000
G02 X 20.6681 Y 0.3770 Z -1.0000 I -0.0756 J -0.0211
G01 X 20.6626 Y 0.3618 Z -1.0000
G01 X 20.6565 Y 0.3630 Z -1.0000
G01 X 20.6565 Y 0.3630 Z -1.0000
G00 Z 5.0000

(End cutting path id: path361)


(Start cutting path id: path361)
(Change tool to Default tool)

G00 Z 5.0000
G00 X 20.6421 Y 0.3263

G01 Z -1.0000 F 100.0000(Penetrate)
G01 X 20.6521 Y 0.3282 Z -1.0000 F 3500.0000
G01 X 20.6620 Y 0.3263 Z -1.0000
G01 X 20.6520 Y 0.3223 Z -1.0000
G01 X 20.6420 Y 0.3263 Z -1.0000
G01 X 20.6421 Y 0.3263 Z -1.0000
G00 Z 5.0000

(End cutting path id: path361)


(Start cutting path id: path361)
(Change tool to Default tool)

G00 Z 5.0000
G00 X 20.6041 Y 0.3645

G01 Z -1.0000 F 100.0000(Penetrate)
G01 X 20.6064 Y 0.3746 Z -1.0000 F 3500.0000
G01 X 20.6121 Y 0.3809 Z -1.0000
G01 X 20.6168 Y 0.3799 Z -1.0000
G01 X 20.6201 Y 0.3694 Z -1.0000
G01 X 20.6170 Y 0.3560 Z -1.0000
G01 X 20.6121 Y 0.3530 Z -1.0000
G01 X 20.6068 Y 0.3557 Z -1.0000
G01 X 20.6041 Y 0.3645 Z -1.0000
G01 X 20.6041 Y 0.3645 Z -1.0000
G00 Z 5.0000

(End cutting path id: path361)


(Start cutting path id: path361)
(Change tool to Default tool)

G00 Z 5.0000
G00 X 20.6269 Y 0.3904

G01 Z -1.0000 F 100.0000(Penetrate)
G01 X 20.6189 Y 0.3968 Z -1.0000 F 3500.0000
G01 X 20.6176 Y 0.4083 Z -1.0000
G01 X 20.6166 Y 0.4203 Z -1.0000
G01 X 20.6088 Y 0.4276 Z -1.0000
G01 X 20.5978 Y 0.4407 Z -1.0000
G01 X 20.6045 Y 0.4489 Z -1.0000
G01 X 20.6317 Y 0.4360 Z -1.0000
G01 X 20.6421 Y 0.4027 Z -1.0000
G01 X 20.6405 Y 0.3859 Z -1.0000
G01 X 20.6271 Y 0.3903 Z -1.0000
G01 X 20.6269 Y 0.3904 Z -1.0000
G00 Z 5.0000

(End cutting path id: path361)


(Start cutting path id: path361)
(Change tool to Default tool)

G00 Z 5.0000
G00 X 20.5961 Y 0.4045

G01 Z -1.0000 F 100.0000(Penetrate)
G01 X 20.5990 Y 0.4142 Z -1.0000 F 3500.0000
G01 X 20.6041 Y 0.4170 Z -1.0000
G01 X 20.6099 Y 0.4147 Z -1.0000
G01 X 20.6121 Y 0.4095 Z -1.0000
G01 X 20.6102 Y 0.4031 Z -1.0000
G01 X 20.6041 Y 0.3970 Z -1.0000
G01 X 20.5992 Y 0.3975 Z -1.0000
G01 X 20.5961 Y 0.4045 Z -1.0000
G01 X 20.5961 Y 0.4045 Z -1.0000
G00 Z 5.0000

(End cutting path id: path361)


(Start cutting path id: path361)
(Change tool to Default tool)

G00 Z 5.0000
G00 X 20.6521 Y 0.4440

G01 Z -1.0000 F 100.0000(Penetrate)
G01 X 20.6545 Y 0.4547 Z -1.0000 F 3500.0000
G01 X 20.6601 Y 0.4610 Z -1.0000
G01 X 20.6651 Y 0.4605 Z -1.0000
G01 X 20.6681 Y 0.4540 Z -1.0000
G01 X 20.6657 Y 0.4433 Z -1.0000
G01 X 20.6601 Y 0.4370 Z -1.0000
G01 X 20.6550 Y 0.4374 Z -1.0000
G01 X 20.6521 Y 0.4440 Z -1.0000
G01 X 20.6521 Y 0.4440 Z -1.0000
G00 Z 5.0000

(End cutting path id: path361)


(Start cutting path id: path361)
(Change tool to Default tool)

G00 Z 5.0000
G00 X 20.6201 Y 0.4889

G01 Z -1.0000 F 100.0000(Penetrate)
G01 X 20.6224 Y 0.4946 Z -1.0000 F 3500.0000
G01 X 20.6281 Y 0.4969 Z -1.0000
G01 X 20.6338 Y 0.4946 Z -1.0000
G01 X 20.6361 Y 0.4889 Z -1.0000
G01 X 20.6338 Y 0.4833 Z -1.0000
G01 X 20.6281 Y 0.4809 Z -1.0000
G01 X 20.6224 Y 0.4833 Z -1.0000
G01 X 20.6201 Y 0.4889 Z -1.0000
G01 X 20.6201 Y 0.4889 Z -1.0000
G00 Z 5.0000

(End cutting path id: path361)


(Start cutting path id: path361)
(Change tool to Default tool)

G00 Z 5.0000
G00 X 20.6094 Y 0.5742

G01 Z -1.0000 F 100.0000(Penetrate)
G01 X 20.6061 Y 0.5803 Z -1.0000 F 3500.0000
G02 X 20.6041 Y 0.5988 Z -1.0000 I 0.0860 J 0.0185
G01 X 20.6144 Y 0.6059 Z -1.0000
G01 X 20.6266 Y 0.5902 Z -1.0000
G01 X 20.6207 Y 0.5740 Z -1.0000
G01 X 20.6095 Y 0.5742 Z -1.0000
G01 X 20.6094 Y 0.5742 Z -1.0000
G00 Z 5.0000

(End cutting path id: path361)


(Start cutting path id: path361)
(Change tool to Default tool)

G00 Z 5.0000
G00 X 20.5188 Y 0.5597

G01 Z -1.0000 F 100.0000(Penetrate)
G03 X 20.5205 Y 0.5825 Z -1.0000 I -0.0919 J 0.0182 F 3500.0000
G03 X 20.5165 Y 0.6057 Z -1.0000 I -0.0970 J -0.0047
G01 X 20.5111 Y 0.6060 Z -1.0000
G03 X 20.5042 Y 0.5787 Z -1.0000 I 0.0709 J -0.0324
G01 X 20.5105 Y 0.5578 Z -1.0000
G01 X 20.5188 Y 0.5597 Z -1.0000
G01 X 20.5188 Y 0.5597 Z -1.0000
G00 Z 5.0000

(End cutting path id: path361)


(Start cutting path id: path361)
(Change tool to Default tool)

G00 Z 5.0000
G00 X 20.5087 Y 0.6992

G01 Z -1.0000 F 100.0000(Penetrate)
G01 X 20.4973 Y 0.6948 Z -1.0000 F 3500.0000
G03 X 20.5062 Y 0.6433 Z -1.0000 I 0.1209 J -0.0055
G01 X 20.5147 Y 0.6597 Z -1.0000
G03 X 20.5137 Y 0.6894 Z -1.0000 I -0.1278 J 0.0105
G01 X 20.5087 Y 0.6992 Z -1.0000
G01 X 20.5087 Y 0.6992 Z -1.0000
G00 Z 5.0000

(End cutting path id: path361)


(Start cutting path id: path361)
(Change tool to Default tool)

G00 Z 5.0000
G00 X 20.5125 Y 0.7360

G01 Z -1.0000 F 100.0000(Penetrate)
G01 X 20.5014 Y 0.7378 Z -1.0000 F 3500.0000
G01 X 20.4976 Y 0.7238 Z -1.0000
G01 X 20.5037 Y 0.7179 Z -1.0000
G01 X 20.5102 Y 0.7194 Z -1.0000
G01 X 20.5143 Y 0.7276 Z -1.0000
G01 X 20.5126 Y 0.7360 Z -1.0000
G01 X 20.5125 Y 0.7360 Z -1.0000
G00 Z 5.0000

(End cutting path id: path361)


(Start cutting path id: path361)
(Change tool to Default tool)

G00 Z 5.0000
G00 X 20.5129 Y 0.7984

G01 Z -1.0000 F 100.0000(Penetrate)
G01 X 20.5044 Y 0.7968 Z -1.0000 F 3500.0000
G01 X 20.5045 Y 0.7789 Z -1.0000
G01 X 20.5098 Y 0.7755 Z -1.0000
G01 X 20.5142 Y 0.7791 Z -1.0000
G01 X 20.5154 Y 0.7931 Z -1.0000
G01 X 20.5130 Y 0.7984 Z -1.0000
G01 X 20.5129 Y 0.7984 Z -1.0000
G00 Z 5.0000

(End cutting path id: path361)


(Start cutting path id: path361)
(Change tool to Default tool)

G00 Z 5.0000
G00 X 20.5162 Y 0.8559

G01 Z -1.0000 F 100.0000(Penetrate)
G03 X 20.5127 Y 0.9015 Z -1.0000 I -0.3019 J -0.0000 F 3500.0000
G01 X 20.5082 Y 0.9084 Z -1.0000
G01 X 20.5040 Y 0.9065 Z -1.0000
G03 X 20.5002 Y 0.8609 Z -1.0000 I 0.2696 J -0.0456
G03 X 20.5039 Y 0.8122 Z -1.0000 I 0.3217 J 0.0000
G01 X 20.5082 Y 0.8085 Z -1.0000
G01 X 20.5125 Y 0.8121 Z -1.0000
G03 X 20.5162 Y 0.8559 Z -1.0000 I -0.2583 J 0.0438
G01 X 20.5162 Y 0.8559 Z -1.0000
G00 Z 5.0000

(End cutting path id: path361)


(Start cutting path id: path361)
(Change tool to Default tool)

G00 Z 5.0000
G00 X 20.6058 Y 0.7825

G01 Z -1.0000 F 100.0000(Penetrate)
G01 X 20.6022 Y 0.7969 Z -1.0000 F 3500.0000
G02 X 20.6046 Y 0.8205 Z -1.0000 I 0.0912 J 0.0027
G01 X 20.6112 Y 0.8329 Z -1.0000
G01 X 20.6149 Y 0.8288 Z -1.0000
G01 X 20.6217 Y 0.8309 Z -1.0000
G01 X 20.6343 Y 0.8320 Z -1.0000
G01 X 20.6395 Y 0.8185 Z -1.0000
G02 X 20.6254 Y 0.7723 Z -1.0000 I -0.3027 J 0.0673
G01 X 20.6199 Y 0.7685 Z -1.0000
G01 X 20.6142 Y 0.7709 Z -1.0000
G01 X 20.6059 Y 0.7825 Z -1.0000
G01 X 20.6058 Y 0.7825 Z -1.0000
G00 Z 5.0000

(End cutting path id: path361)


(Start cutting path id: path361)
(Change tool to Default tool)

G00 Z 5.0000
G00 X 20.3963 Y 0.7845

G01 Z -1.0000 F 100.0000(Penetrate)
G01 X 20.3928 Y 0.7925 Z -1.0000 F 3500.0000
G01 X 20.3900 Y 0.7914 Z -1.0000
G01 X 20.3843 Y 0.7845 Z -1.0000
G01 X 20.3840 Y 0.7790 Z -1.0000
G01 X 20.3878 Y 0.7765 Z -1.0000
G01 X 20.3939 Y 0.7789 Z -1.0000
G01 X 20.3963 Y 0.7845 Z -1.0000
G01 X 20.3963 Y 0.7845 Z -1.0000
G00 Z 5.0000

(End cutting path id: path361)


(Start cutting path id: path361)
(Change tool to Default tool)

G00 Z 5.0000
G00 X 20.3539 Y 0.8303

G01 Z -1.0000 F 100.0000(Penetrate)
G01 X 20.3499 Y 0.8205 Z -1.0000 F 3500.0000
G01 X 20.3536 Y 0.8064 Z -1.0000
G01 X 20.3556 Y 0.8163 Z -1.0000
G03 X 20.3539 Y 0.8303 Z -1.0000 I -0.0539 J 0.0005
G01 X 20.3539 Y 0.8303 Z -1.0000
G00 Z 5.0000

(End cutting path id: path361)


(Start cutting path id: path361)
(Change tool to Default tool)

G00 Z 5.0000
G00 X 20.2837 Y 0.8424

G01 Z -1.0000 F 100.0000(Penetrate)
G03 X 20.2812 Y 0.8693 Z -1.0000 I -0.1154 J 0.0031 F 3500.0000
G01 X 20.2774 Y 0.8724 Z -1.0000
G01 X 20.2649 Y 0.8614 Z -1.0000
G03 X 20.2674 Y 0.7929 Z -1.0000 I 0.2142 J -0.0266
G01 X 20.2715 Y 0.7725 Z -1.0000
G01 X 20.2772 Y 0.7925 Z -1.0000
G03 X 20.2813 Y 0.8127 Z -1.0000 I -0.1392 J 0.0393
G03 X 20.2837 Y 0.8424 Z -1.0000 I -0.2743 J 0.0364
G01 X 20.2837 Y 0.8424 Z -1.0000
G00 Z 5.0000

(End cutting path id: path361)


(Start cutting path id: path361)
(Change tool to Default tool)

G00 Z 5.0000
G00 X 20.3048 Y 0.9278

G01 Z -1.0000 F 100.0000(Penetrate)
G01 X 20.3070 Y 0.9396 Z -1.0000 F 3500.0000
G01 X 20.3193 Y 0.9387 Z -1.0000
G01 X 20.3236 Y 0.9262 Z -1.0000
G01 X 20.3169 Y 0.9203 Z -1.0000
G01 X 20.3105 Y 0.9221 Z -1.0000
G01 X 20.3048 Y 0.9277 Z -1.0000
G01 X 20.3048 Y 0.9278 Z -1.0000
G00 Z 5.0000

(End cutting path id: path361)


(Start cutting path id: path361)
(Change tool to Default tool)

G00 Z 5.0000
G00 X 20.2555 Y 0.9327

G01 Z -1.0000 F 100.0000(Penetrate)
G01 X 20.2524 Y 0.9402 Z -1.0000 F 3500.0000
G01 X 20.2464 Y 0.9343 Z -1.0000
G01 X 20.2445 Y 0.9278 Z -1.0000
G01 X 20.2485 Y 0.9253 Z -1.0000
G01 X 20.2556 Y 0.9327 Z -1.0000
G01 X 20.2555 Y 0.9327 Z -1.0000
G00 Z 5.0000

(End cutting path id: path361)


(Start cutting path id: path361)
(Change tool to Default tool)

G00 Z 5.0000
G00 X 20.2977 Y 0.7226

G01 Z -1.0000 F 100.0000(Penetrate)
G01 X 20.2937 Y 0.7126 Z -1.0000 F 3500.0000
G01 X 20.2977 Y 0.7026 Z -1.0000
G01 X 20.2997 Y 0.7126 Z -1.0000
G01 X 20.2977 Y 0.7225 Z -1.0000
G01 X 20.2977 Y 0.7226 Z -1.0000
G00 Z 5.0000

(End cutting path id: path361)


(Start cutting path id: path361)
(Change tool to Default tool)

G00 Z 5.0000
G00 X 20.3279 Y 0.6183

G01 Z -1.0000 F 100.0000(Penetrate)
G01 X 20.3329 Y 0.6276 Z -1.0000 F 3500.0000
G01 X 20.3431 Y 0.6227 Z -1.0000
G01 X 20.3478 Y 0.6307 Z -1.0000
G01 X 20.3514 Y 0.6455 Z -1.0000
G01 X 20.3564 Y 0.6486 Z -1.0000
G01 X 20.3616 Y 0.6514 Z -1.0000
G01 X 20.3644 Y 0.6606 Z -1.0000
G01 X 20.3567 Y 0.6668 Z -1.0000
G01 X 20.3461 Y 0.6566 Z -1.0000
G01 X 20.3397 Y 0.6435 Z -1.0000
G01 X 20.3339 Y 0.6407 Z -1.0000
G01 X 20.3271 Y 0.6480 Z -1.0000
G02 X 20.3392 Y 0.6983 Z -1.0000 I 0.1774 J -0.0160
G03 X 20.3436 Y 0.7186 Z -1.0000 I -0.0595 J 0.0237
G01 X 20.3405 Y 0.7245 Z -1.0000
G01 X 20.3304 Y 0.7204 Z -1.0000
G03 X 20.3144 Y 0.6215 Z -1.0000 I 0.5576 J -0.1411
G03 X 20.3167 Y 0.5902 Z -1.0000 I 0.1070 J -0.0078
G01 X 20.3217 Y 0.5891 Z -1.0000
G01 X 20.3286 Y 0.6045 Z -1.0000
G01 X 20.3279 Y 0.6183 Z -1.0000
G01 X 20.3279 Y 0.6183 Z -1.0000
G00 Z 5.0000

(End cutting path id: path361)


(Start cutting path id: path361)
(Change tool to Default tool)

G00 Z 5.0000
G00 X 20.3004 Y 0.5449

G01 Z -1.0000 F 100.0000(Penetrate)
G01 X 20.2888 Y 0.5598 Z -1.0000 F 3500.0000
G01 X 20.2659 Y 0.5534 Z -1.0000
G01 X 20.2659 Y 0.5308 Z -1.0000
G01 X 20.2895 Y 0.5297 Z -1.0000
G03 X 20.2987 Y 0.5396 Z -1.0000 I -0.0344 J 0.0413
G01 X 20.3004 Y 0.5449 Z -1.0000
G01 X 20.3004 Y 0.5449 Z -1.0000
G00 Z 5.0000

(End cutting path id: path361)


(Start cutting path id: path361)
(Change tool to Default tool)

G00 Z 5.0000
G00 X 20.3538 Y 0.5143

G01 Z -1.0000 F 100.0000(Penetrate)
G01 X 20.3490 Y 0.5095 Z -1.0000 F 3500.0000
G01 X 20.3532 Y 0.4990 Z -1.0000
G01 X 20.3556 Y 0.5044 Z -1.0000
G01 X 20.3539 Y 0.5143 Z -1.0000
G01 X 20.3538 Y 0.5143 Z -1.0000
G00 Z 5.0000

(End cutting path id: path361)


(Start cutting path id: path361)
(Change tool to Default tool)

G00 Z 5.0000
G00 X 20.3944 Y 0.4589

G01 Z -1.0000 F 100.0000(Penetrate)
G01 X 20.3716 Y 0.4792 Z -1.0000 F 3500.0000
G01 X 20.3564 Y 0.4668 Z -1.0000
G01 X 20.3625 Y 0.4551 Z -1.0000
G01 X 20.3823 Y 0.4489 Z -1.0000
G01 X 20.3925 Y 0.4526 Z -1.0000
G01 X 20.3944 Y 0.4589 Z -1.0000
G01 X 20.3944 Y 0.4589 Z -1.0000
G00 Z 5.0000

(End cutting path id: path361)


(Start cutting path id: path361)
(Change tool to Default tool)

G00 Z 5.0000
G00 X 20.5168 Y 0.3472

G01 Z -1.0000 F 100.0000(Penetrate)
G01 X 20.5102 Y 0.3522 Z -1.0000 F 3500.0000
G01 X 20.5014 Y 0.3446 Z -1.0000
G01 X 20.5026 Y 0.3394 Z -1.0000
G01 X 20.5078 Y 0.3382 Z -1.0000
G01 X 20.5152 Y 0.3428 Z -1.0000
G01 X 20.5168 Y 0.3472 Z -1.0000
G01 X 20.5168 Y 0.3472 Z -1.0000
G00 Z 5.0000

(End cutting path id: path361)


(Start cutting path id: path361)
(Change tool to Default tool)

G00 Z 5.0000
G00 X 20.7479 Y 0.3370

G01 Z -1.0000 F 100.0000(Penetrate)
G01 X 20.7503 Y 0.3425 Z -1.0000 F 3500.0000
G01 X 20.7564 Y 0.3450 Z -1.0000
G01 X 20.7603 Y 0.3424 Z -1.0000
G01 X 20.7599 Y 0.3370 Z -1.0000
G01 X 20.7544 Y 0.3301 Z -1.0000
G01 X 20.7514 Y 0.3290 Z -1.0000
G01 X 20.7479 Y 0.3370 Z -1.0000
G01 X 20.7479 Y 0.3370 Z -1.0000
G00 Z 5.0000

(End cutting path id: path361)


(Start cutting path id: path361)
(Change tool to Default tool)

G00 Z 5.0000
G00 X 20.8239 Y 0.3930

G01 Z -1.0000 F 100.0000(Penetrate)
G01 X 20.8223 Y 0.4010 Z -1.0000 F 3500.0000
G01 X 20.8272 Y 0.4149 Z -1.0000
G01 X 20.8318 Y 0.4156 Z -1.0000
G01 X 20.8356 Y 0.4070 Z -1.0000
G01 X 20.8304 Y 0.3925 Z -1.0000
G01 X 20.8239 Y 0.3930 Z -1.0000
G01 X 20.8239 Y 0.3930 Z -1.0000
G00 Z 5.0000

(End cutting path id: path361)


(Start cutting path id: path361)
(Change tool to Default tool)

G00 Z 5.0000
G00 X 21.1332 Y 0.6250

G01 Z -1.0000 F 100.0000(Penetrate)
G03 X 21.1223 Y 0.6383 Z -1.0000 I -0.0559 J -0.0347 F 3500.0000
G01 X 21.1175 Y 0.6398 Z -1.0000
G01 X 21.0940 Y 0.6434 Z -1.0000
G01 X 21.0795 Y 0.6586 Z -1.0000
G03 X 21.0690 Y 0.6740 Z -1.0000 I -0.0463 J -0.0203
G03 X 21.0523 Y 0.6859 Z -1.0000 I -0.0443 J -0.0440
G02 X 21.0255 Y 0.7185 Z -1.0000 I 0.0228 J 0.0463
G02 X 21.0199 Y 0.8032 Z -1.0000 I 0.2015 J 0.0557
G02 X 21.0370 Y 0.8827 Z -1.0000 I 0.5673 J -0.0800
G01 X 21.0447 Y 0.8885 Z -1.0000
G01 X 21.0487 Y 0.8855 Z -1.0000
G01 X 21.0488 Y 0.8745 Z -1.0000
G01 X 21.0386 Y 0.8091 Z -1.0000
G03 X 21.1093 Y 0.9096 Z -1.0000 I -0.2111 J 0.2235
G01 X 21.0981 Y 0.9454 Z -1.0000
G01 X 21.0983 Y 0.9547 Z -1.0000
G01 X 21.1178 Y 0.9560 Z -1.0000
G01 X 21.1216 Y 0.9485 Z -1.0000
G02 X 21.1025 Y 0.8990 Z -1.0000 I -0.2414 J 0.0644
G03 X 21.0744 Y 0.8031 Z -1.0000 I 0.2382 J -0.1220
G03 X 21.0888 Y 0.7593 Z -1.0000 I 0.0567 J -0.0056
G01 X 21.0928 Y 0.7447 Z -1.0000
G01 X 21.0800 Y 0.7313 Z -1.0000
G01 X 21.0942 Y 0.7071 Z -1.0000
G01 X 21.1031 Y 0.6992 Z -1.0000
G02 X 21.1116 Y 0.6847 Z -1.0000 I -0.0514 J -0.0400
G01 X 21.1169 Y 0.6820 Z -1.0000
G01 X 21.1215 Y 0.6867 Z -1.0000
G01 X 21.1278 Y 0.7010 Z -1.0000
G01 X 21.1354 Y 0.7047 Z -1.0000
G01 X 21.1442 Y 0.7074 Z -1.0000
G01 X 21.1493 Y 0.7141 Z -1.0000
G01 X 21.1613 Y 0.7177 Z -1.0000
G01 X 21.1715 Y 0.6967 Z -1.0000
G01 X 21.1741 Y 0.6831 Z -1.0000
G01 X 21.1795 Y 0.6767 Z -1.0000
G01 X 21.1816 Y 0.6661 Z -1.0000
G01 X 21.1681 Y 0.6613 Z -1.0000
G01 X 21.1560 Y 0.6589 Z -1.0000
G01 X 21.1529 Y 0.6501 Z -1.0000
G01 X 21.1541 Y 0.6345 Z -1.0000
G01 X 21.1501 Y 0.6217 Z -1.0000
G01 X 21.1429 Y 0.6183 Z -1.0000
G01 X 21.1333 Y 0.6250 Z -1.0000
G01 X 21.1332 Y 0.6250 Z -1.0000
G00 Z 5.0000

(End cutting path id: path361)


(Start cutting path id: path361)
(Change tool to Default tool)

G00 Z 5.0000
G00 X 21.2087 Y 0.5706

G01 Z -1.0000 F 100.0000(Penetrate)
G02 X 21.1788 Y 0.5841 Z -1.0000 I 0.0161 J 0.0758 F 3500.0000
G01 X 21.1747 Y 0.5958 Z -1.0000
G03 X 21.1783 Y 0.6129 Z -1.0000 I -0.1643 J 0.0442
G03 X 21.1800 Y 0.6288 Z -1.0000 I -0.1379 J 0.0222
G01 X 21.1851 Y 0.6338 Z -1.0000
G01 X 21.2097 Y 0.6074 Z -1.0000
G03 X 21.2581 Y 0.5989 Z -1.0000 I 0.0397 J 0.0831
G03 X 21.2971 Y 0.6065 Z -1.0000 I -0.0202 J 0.2061
G01 X 21.3081 Y 0.6138 Z -1.0000
G01 X 21.3223 Y 0.6167 Z -1.0000
G01 X 21.3298 Y 0.6028 Z -1.0000
G01 X 21.3214 Y 0.5879 Z -1.0000
G01 X 21.3033 Y 0.5826 Z -1.0000
G01 X 21.2913 Y 0.5767 Z -1.0000
G01 X 21.2941 Y 0.5717 Z -1.0000
G01 X 21.2913 Y 0.5689 Z -1.0000
G03 X 21.2794 Y 0.5681 Z -1.0000 I 0.0024 J -0.1227
G03 X 21.2633 Y 0.5656 Z -1.0000 I 0.0254 J -0.2169
G02 X 21.2474 Y 0.5648 Z -1.0000 I -0.0107 J 0.0556
G02 X 21.2087 Y 0.5707 Z -1.0000 I 0.0310 J 0.3333
G01 X 21.2087 Y 0.5706 Z -1.0000
G00 Z 5.0000

(End cutting path id: path361)


