%
(Header)
(Generated by gcodetools from Inkscape.)
(Using default header. To add your own header create file "header" in the output dir.)
M3
(Header end.)
G21 (All units in mm)

(Start cutting path id: path2)
(Change tool to Default tool)

G00 Z 5.0000
G00 X 21.7082 Y 1.0699

G01 Z -1.0000 F 100.0000(Penetrate)
G02 X 21.5312 Y 1.1309 Z -1.0000 I 0.0763 J 0.5085 F 3500.0000
G02 X 21.3239 Y 1.2873 Z -1.0000 I 0.4876 J 0.8615
G02 X 21.0457 Y 1.8441 Z -1.0000 I 0.6757 J 0.6856
G02 X 21.1735 Y 2.4016 Z -1.0000 I 0.8053 J 0.1087
G01 X 21.2214 Y 2.4738 Z -1.0000
G01 X 21.2186 Y 2.7462 Z -1.0000
G03 X 21.2096 Y 3.0160 Z -1.0000 I -5.9516 J -0.0636
G01 X 21.2024 Y 3.0320 Z -1.0000
G03 X 21.1309 Y 3.0567 Z -1.0000 I -0.0609 J -0.0604
G03 X 20.5866 Y 2.9550 Z -1.0000 I 0.5690 J -4.5543
G02 X 20.2838 Y 2.9199 Z -1.0000 I -0.2864 J 1.1454
G02 X 20.1044 Y 2.9617 Z -1.0000 I 0.0060 J 0.4315
G03 X 20.0068 Y 2.9970 Z -1.0000 I -0.2299 J -0.4831
G03 X 19.8864 Y 3.0174 Z -1.0000 I -0.1834 J -0.7184
G02 X 19.7634 Y 3.0291 Z -1.0000 I 0.5782 J 6.7498
G02 X 19.2862 Y 3.0799 Z -1.0000 I 10.1680 J 97.7109
G03 X 18.5985 Y 3.1425 Z -1.0000 I -2.1022 J -19.2823
G01 X 18.5898 Y 3.1308 Z -1.0000
G01 X 18.5855 Y 3.1172 Z -1.0000
G01 X 18.5577 Y 3.1093 Z -1.0000
G03 X 18.5252 Y 3.1035 Z -1.0000 I -0.0029 J -0.0774
G01 X 18.5199 Y 3.0938 Z -1.0000
G01 X 18.5137 Y 3.0860 Z -1.0000
G02 X 18.4506 Y 3.0903 Z -1.0000 I -0.0135 J 0.2677
G03 X 17.9772 Y 3.1411 Z -1.0000 I -0.5586 J -2.9709
G01 X 17.9397 Y 3.1047 Z -1.0000
G01 X 17.9318 Y 3.0960 Z -1.0000
G02 X 17.7781 Y 3.0875 Z -1.0000 I -0.1601 J 1.5049
G02 X 17.5390 Y 3.1013 Z -1.0000 I -0.0082 J 1.9382
G01 X 17.5242 Y 3.1180 Z -1.0000
G01 X 17.5192 Y 3.1264 Z -1.0000
G03 X 17.4531 Y 3.1569 Z -1.0000 I -0.2551 J -0.4644
G02 X 17.3855 Y 3.1901 Z -1.0000 I 0.1463 J 0.3832
G02 X 17.3019 Y 3.2494 Z -1.0000 I 0.3967 J 0.6491
G01 X 17.2218 Y 3.3146 Z -1.0000
G01 X 16.3996 Y 3.4176 Z -1.0000
G02 X 15.5776 Y 3.5210 Z -1.0000 I 83.3433 J 665.7064
G02 X 15.2928 Y 3.5575 Z -1.0000 I 10.0698 J 79.6345
G03 X 15.0089 Y 3.5839 Z -1.0000 I -0.5016 J -3.8554
G03 X 14.9465 Y 3.5769 Z -1.0000 I -0.0105 J -0.1880
G03 X 14.8854 Y 3.5584 Z -1.0000 I 0.5840 J -2.0387
G01 X 14.8798 Y 3.5556 Z -1.0000
G01 X 14.8785 Y 3.5510 Z -1.0000
G03 X 14.9378 Y 3.4237 Z -1.0000 I 2.9674 J 1.3075
G02 X 15.0276 Y 3.1548 Z -1.0000 I -0.9364 J -0.4621
G02 X 15.0344 Y 2.9108 Z -1.0000 I -0.7606 J -0.1431
G02 X 14.9667 Y 2.6710 Z -1.0000 I -0.8580 J 0.1128
G02 X 14.8556 Y 2.5099 Z -1.0000 I -0.4878 J 0.2176
G02 X 14.7460 Y 2.4262 Z -1.0000 I -0.3738 J 0.3758
G02 X 14.5618 Y 2.3410 Z -1.0000 I -0.5720 J 0.9950
G01 X 14.5570 Y 2.3308 Z -1.0000
G01 X 14.5696 Y 2.3188 Z -1.0000
G02 X 14.6810 Y 2.2733 Z -1.0000 I -0.1569 J -0.5423
G02 X 14.7171 Y 2.2392 Z -1.0000 I -0.0457 J -0.0847
G01 X 14.7177 Y 2.2318 Z -1.0000
G01 X 14.7134 Y 2.2305 Z -1.0000
G01 X 14.6978 Y 2.2344 Z -1.0000
G03 X 14.6379 Y 2.2256 Z -1.0000 I 0.0242 J -0.3733
G02 X 14.2695 Y 2.1660 Z -1.0000 I -0.6313 J 2.7352
G02 X 13.8641 Y 2.1528 Z -1.0000 I -0.3101 J 3.2982
G02 X 13.6314 Y 2.1660 Z -1.0000 I 0.1186 J 4.1616
G01 X 13.6179 Y 2.1736 Z -1.0000
G01 X 13.6054 Y 2.1849 Z -1.0000
G03 X 13.5337 Y 2.2225 Z -1.0000 I -0.4719 J -0.8118
G02 X 13.3291 Y 2.3851 Z -1.0000 I 0.2430 J 0.5158
G02 X 13.1605 Y 2.6956 Z -1.0000 I 0.8179 J 0.6453
G02 X 13.1299 Y 2.8204 Z -1.0000 I 0.7009 J 0.2379
G02 X 13.1177 Y 2.9724 Z -1.0000 I 1.0308 J 0.1594
G02 X 13.1564 Y 3.2429 Z -1.0000 I 0.9186 J 0.0065
G02 X 13.2605 Y 3.4487 Z -1.0000 I 0.6268 J -0.1881
G01 X 13.3307 Y 3.5418 Z -1.0000
G01 X 13.3260 Y 3.7519 Z -1.0000
G01 X 13.3213 Y 3.9620 Z -1.0000
G01 X 13.2788 Y 3.9796 Z -1.0000
G01 X 13.2364 Y 3.9972 Z -1.0000
G01 X 13.2028 Y 4.3312 Z -1.0000
G02 X 13.1680 Y 4.7473 Z -1.0000 I 12.4264 J 1.2486
G02 X 13.1678 Y 4.8555 Z -1.0000 I 0.8375 J 0.0560
G01 X 13.1761 Y 4.8668 Z -1.0000
G01 X 13.2013 Y 4.8681 Z -1.0000
G01 X 13.2102 Y 4.8738 Z -1.0000
G01 X 13.2054 Y 4.8908 Z -1.0000
G02 X 13.1870 Y 4.9259 Z -1.0000 I 0.0588 J 0.0532
G02 X 13.1715 Y 5.0355 Z -1.0000 I 0.6011 J 0.1407
G02 X 13.1796 Y 5.1463 Z -1.0000 I 0.4500 J 0.0229
G02 X 13.2149 Y 5.2534 Z -1.0000 I 0.4556 J -0.0907
G03 X 13.2776 Y 5.4062 Z -1.0000 I -1.4849 J 0.6985
G03 X 13.3303 Y 5.5808 Z -1.0000 I -1.8861 J 0.6650
G02 X 13.3558 Y 5.6808 Z -1.0000 I 36.0597 J -9.1247
G02 X 13.3708 Y 5.7388 Z -1.0000 I 11.0441 J -2.8273
G03 X 13.3920 Y 5.8890 Z -1.0000 I -0.6370 J 0.1666
G03 X 13.3837 Y 6.2580 Z -1.0000 I -3.8958 J 0.0972
G02 X 13.3739 Y 6.4196 Z -1.0000 I 9.1472 J 0.6382
G02 X 13.3629 Y 6.6581 Z -1.0000 I 19.7534 J 1.0279
G03 X 13.3292 Y 7.4416 Z -1.0000 I -123.0703 J -4.9081
G03 X 13.3252 Y 7.4737 Z -1.0000 I -0.2093 J -0.0097
G01 X 13.3243 Y 7.4814 Z -1.0000
G02 X 13.3150 Y 7.8276 Z -1.0000 I 79.8711 J 2.3219
G03 X 13.3002 Y 8.3115 Z -1.0000 I -43.6098 J -1.0867
G03 X 13.2853 Y 8.6509 Z -1.0000 I -21.6437 J -0.7797
G02 X 13.2788 Y 8.8104 Z -1.0000 I 7.4015 J 0.3829
G02 X 13.2533 Y 9.7128 Z -1.0000 I 237.7290 J 7.1701
G02 X 13.2165 Y 11.7791 Z -1.0000 I 121.1362 J 3.1916
G02 X 13.2314 Y 12.0672 Z -1.0000 I 2.3607 J 0.0219
G03 X 13.2414 Y 12.2748 Z -1.0000 I -1.5967 J 0.1809
G01 X 13.2274 Y 12.2942 Z -1.0000
G01 X 13.2226 Y 12.3014 Z -1.0000
G02 X 13.2296 Y 12.3558 Z -1.0000 I 0.2935 J -0.0106
G03 X 13.2351 Y 12.4074 Z -1.0000 I -0.2154 J 0.0490
G01 X 13.2290 Y 12.4135 Z -1.0000
G01 X 13.1940 Y 12.4491 Z -1.0000
G02 X 13.2309 Y 12.5137 Z -1.0000 I 0.0776 J -0.0014
G01 X 13.2384 Y 12.5252 Z -1.0000
G01 X 13.2348 Y 12.5415 Z -1.0000
G02 X 13.2142 Y 12.6094 Z -1.0000 I 0.1089 J 0.0701
G01 X 13.2334 Y 12.6289 Z -1.0000
G01 X 13.2381 Y 12.6339 Z -1.0000
G03 X 13.2318 Y 12.6644 Z -1.0000 I -0.0984 J -0.0044
G02 X 13.2240 Y 12.7007 Z -1.0000 I 0.1143 J 0.0433
G02 X 13.2249 Y 12.7837 Z -1.0000 I 0.6111 J 0.0353
G03 X 13.2288 Y 12.8804 Z -1.0000 I -1.2737 J 0.1002
G03 X 13.2258 Y 13.1558 Z -1.0000 I -10.1258 J 0.0274
G02 X 13.2275 Y 13.2708 Z -1.0000 I 1.4733 J 0.0359
G01 X 13.2322 Y 13.2753 Z -1.0000
G01 X 13.2370 Y 13.2798 Z -1.0000
G03 X 13.2421 Y 13.4638 Z -1.0000 I -3.6771 J 0.1946
G02 X 13.2553 Y 14.7700 Z -1.0000 I 97.3633 J -0.3327
G02 X 13.2844 Y 15.9760 Z -1.0000 I 83.1501 J -1.3998
G03 X 13.2982 Y 16.4540 Z -1.0000 I -96.1533 J 3.0147
G03 X 13.3304 Y 17.7227 Z -1.0000 I -669.9973 J 17.6734
G02 X 13.3525 Y 18.2177 Z -1.0000 I 12.4270 J -0.3055
G02 X 13.3692 Y 18.3228 Z -1.0000 I 0.5696 J -0.0368
G03 X 13.3821 Y 18.3769 Z -1.0000 I -1.5849 J 0.4067
G03 X 13.3905 Y 18.4192 Z -1.0000 I -0.9491 J 0.2094
G02 X 13.4010 Y 18.4608 Z -1.0000 I 0.2866 J -0.0503
G02 X 13.4380 Y 18.5619 Z -1.0000 I 1.7224 J -0.5733
G03 X 13.4702 Y 18.6615 Z -1.0000 I -0.7172 J 0.2869
G01 X 13.4674 Y 18.6795 Z -1.0000
G01 X 13.4688 Y 18.6848 Z -1.0000
G01 X 13.4764 Y 18.6847 Z -1.0000
G01 X 13.4862 Y 18.6850 Z -1.0000
G01 X 13.4890 Y 18.6939 Z -1.0000
G01 X 13.4896 Y 18.7130 Z -1.0000
G02 X 13.5062 Y 18.7356 Z -1.0000 I 0.0541 J -0.0224
G01 X 13.5125 Y 18.7469 Z -1.0000
G01 X 13.4999 Y 18.7598 Z -1.0000
G02 X 13.6123 Y 18.9384 Z -1.0000 I 1.1509 J -0.5997
G02 X 13.7212 Y 19.0711 Z -1.0000 I 1.5613 J -1.1699
G02 X 13.8000 Y 19.1476 Z -1.0000 I 0.5958 J -0.5344
G02 X 14.1770 Y 19.3935 Z -1.0000 I 1.1708 J -1.3836
G02 X 14.4262 Y 19.4528 Z -1.0000 I 0.2573 J -0.5282
G03 X 14.5029 Y 19.4586 Z -1.0000 I -0.0085 J 0.6186
G01 X 14.5078 Y 19.4641 Z -1.0000
G01 X 14.5125 Y 19.4697 Z -1.0000
G02 X 14.5732 Y 19.4747 Z -1.0000 I 0.0628 J -0.3857
G03 X 14.6385 Y 19.4774 Z -1.0000 I -0.0048 J 0.9378
G03 X 14.7695 Y 19.4895 Z -1.0000 I -0.2810 J 3.7494
G02 X 14.9005 Y 19.4987 Z -1.0000 I 0.1830 J -1.6667
G02 X 15.1195 Y 19.5003 Z -1.0000 I 0.1437 J -4.6335
G03 X 15.3320 Y 19.5037 Z -1.0000 I 0.0532 J 3.3286
G01 X 15.3388 Y 19.5108 Z -1.0000
G01 X 15.3430 Y 19.5175 Z -1.0000
G01 X 15.3517 Y 19.5170 Z -1.0000
G01 X 15.3655 Y 19.5121 Z -1.0000
G03 X 15.4171 Y 19.5080 Z -1.0000 I 0.0610 J 0.4473
G03 X 15.8273 Y 19.5115 Z -1.0000 I 0.1443 J 7.1967
G01 X 15.8390 Y 19.5237 Z -1.0000
G01 X 16.1852 Y 19.5311 Z -1.0000
G03 X 16.5312 Y 19.5371 Z -1.0000 I -0.9083 J 61.7765
G01 X 16.5353 Y 19.5382 Z -1.0000
G02 X 16.6732 Y 19.5687 Z -1.0000 I 0.1292 J -0.2567
G02 X 16.8022 Y 19.5301 Z -1.0000 I -0.0078 J -0.2608
G01 X 16.8090 Y 19.5305 Z -1.0000
G01 X 16.8099 Y 19.5363 Z -1.0000
G01 X 16.8102 Y 19.5478 Z -1.0000
G01 X 16.8220 Y 19.5540 Z -1.0000
G01 X 16.8425 Y 19.5493 Z -1.0000
G01 X 16.8551 Y 19.5379 Z -1.0000
G01 X 16.8667 Y 19.5319 Z -1.0000
G01 X 16.8871 Y 19.5400 Z -1.0000
G01 X 16.9088 Y 19.5461 Z -1.0000
G02 X 16.9377 Y 19.5324 Z -1.0000 I -0.0082 J -0.0546
G01 X 16.9626 Y 19.5219 Z -1.0000
G01 X 16.9753 Y 19.5300 Z -1.0000
G01 X 16.9900 Y 19.5431 Z -1.0000
G02 X 17.0310 Y 19.5441 Z -1.0000 I 0.0228 J -0.0902
G03 X 17.0698 Y 19.5450 Z -1.0000 I 0.0174 J 0.0876
G01 X 17.0789 Y 19.5559 Z -1.0000
G01 X 17.0833 Y 19.5582 Z -1.0000
G01 X 17.0932 Y 19.5463 Z -1.0000
G01 X 17.1033 Y 19.5330 Z -1.0000
G01 X 17.1075 Y 19.5348 Z -1.0000
G01 X 17.1352 Y 19.5610 Z -1.0000
G02 X 17.1987 Y 19.5348 Z -1.0000 I -0.0000 J -0.0902
G01 X 17.2054 Y 19.5354 Z -1.0000
G01 X 17.2069 Y 19.5463 Z -1.0000
G01 X 17.2118 Y 19.5536 Z -1.0000
G01 X 17.2298 Y 19.5472 Z -1.0000
G01 X 17.2498 Y 19.5374 Z -1.0000
G01 X 17.2541 Y 19.5426 Z -1.0000
G01 X 17.2590 Y 19.5558 Z -1.0000
G01 X 17.2870 Y 19.5602 Z -1.0000
G02 X 17.3288 Y 19.5505 Z -1.0000 I -0.0774 J -0.4318
G02 X 17.3422 Y 19.5446 Z -1.0000 I -0.0143 J -0.0507
G01 X 17.3509 Y 19.5439 Z -1.0000
G01 X 17.3548 Y 19.5498 Z -1.0000
G01 X 17.3601 Y 19.5580 Z -1.0000
G02 X 17.3892 Y 19.5655 Z -1.0000 I 0.0357 J -0.0789
G01 X 17.4033 Y 19.5614 Z -1.0000
G01 X 17.4030 Y 19.5553 Z -1.0000
G01 X 17.3938 Y 19.5425 Z -1.0000
G01 X 17.3977 Y 19.5330 Z -1.0000
G01 X 17.4099 Y 19.5330 Z -1.0000
G01 X 17.4228 Y 19.5487 Z -1.0000
G01 X 17.4365 Y 19.5565 Z -1.0000
G02 X 17.4677 Y 19.5409 Z -1.0000 I -0.0104 J -0.0598
G03 X 17.5072 Y 19.5200 Z -1.0000 I 0.0579 J 0.0617
G01 X 17.5189 Y 19.5295 Z -1.0000
G01 X 17.5127 Y 19.5420 Z -1.0000
G01 X 17.5000 Y 19.5438 Z -1.0000
G01 X 17.4833 Y 19.5434 Z -1.0000
G01 X 17.4705 Y 19.5535 Z -1.0000
G01 X 17.4811 Y 19.5707 Z -1.0000
G02 X 17.5546 Y 19.5465 Z -1.0000 I -0.0138 J -0.1655
G01 X 17.5650 Y 19.5462 Z -1.0000
G01 X 17.5702 Y 19.5550 Z -1.0000
G01 X 17.5763 Y 19.5604 Z -1.0000
G01 X 17.5963 Y 19.5521 Z -1.0000
G01 X 17.6075 Y 19.5480 Z -1.0000
G01 X 17.6098 Y 19.5518 Z -1.0000
G01 X 17.6131 Y 19.5564 Z -1.0000
G02 X 17.6414 Y 19.5444 Z -1.0000 I -0.0209 J -0.0892
G01 X 17.6598 Y 19.5396 Z -1.0000
G01 X 17.6626 Y 19.5457 Z -1.0000
G01 X 17.6599 Y 19.5603 Z -1.0000
G01 X 17.6684 Y 19.5644 Z -1.0000
G03 X 17.6960 Y 19.5606 Z -1.0000 I 0.0221 J 0.0585
G01 X 17.7153 Y 19.5686 Z -1.0000
G02 X 17.7752 Y 19.5847 Z -1.0000 I 0.0474 J -0.0570
G01 X 17.8011 Y 19.5540 Z -1.0000
G01 X 17.8053 Y 19.5449 Z -1.0000
G03 X 17.8263 Y 19.5324 Z -1.0000 I 0.0470 J 0.0549
G01 X 17.8332 Y 19.5360 Z -1.0000
G01 X 17.8301 Y 19.5491 Z -1.0000
G01 X 17.8258 Y 19.5606 Z -1.0000
G01 X 17.8297 Y 19.5628 Z -1.0000
G01 X 17.8486 Y 19.5599 Z -1.0000
G01 X 17.8657 Y 19.5714 Z -1.0000
G01 X 17.8707 Y 19.5724 Z -1.0000
G01 X 17.8726 Y 19.5669 Z -1.0000
G01 X 17.8737 Y 19.5457 Z -1.0000
G01 X 17.8874 Y 19.5325 Z -1.0000
G01 X 17.8991 Y 19.5329 Z -1.0000
G01 X 17.9009 Y 19.5389 Z -1.0000
G01 X 17.9071 Y 19.5465 Z -1.0000
G02 X 17.9323 Y 19.5277 Z -1.0000 I -0.0178 J -0.0502
G01 X 17.9533 Y 19.5152 Z -1.0000
G01 X 17.9761 Y 19.5217 Z -1.0000
G03 X 17.9920 Y 19.5436 Z -1.0000 I -0.0352 J 0.0424
G01 X 17.9908 Y 19.5582 Z -1.0000
G01 X 17.9921 Y 19.5630 Z -1.0000
G01 X 17.9993 Y 19.5629 Z -1.0000
G01 X 18.0095 Y 19.5484 Z -1.0000
G02 X 18.0083 Y 19.5220 Z -1.0000 I -0.0496 J -0.0110
G01 X 18.0084 Y 19.4994 Z -1.0000
G01 X 18.0179 Y 19.4925 Z -1.0000
G01 X 18.0270 Y 19.4967 Z -1.0000
G01 X 18.0268 Y 19.5026 Z -1.0000
G01 X 18.0239 Y 19.5131 Z -1.0000
G02 X 18.0348 Y 19.5346 Z -1.0000 I 0.0524 J -0.0131
G01 X 18.0409 Y 19.5548 Z -1.0000
G01 X 18.0308 Y 19.5718 Z -1.0000
G01 X 18.0278 Y 19.5783 Z -1.0000
G01 X 18.0318 Y 19.5810 Z -1.0000
G01 X 18.0487 Y 19.5693 Z -1.0000
G02 X 18.0596 Y 19.5427 Z -1.0000 I -0.0490 J -0.0355
G03 X 18.0703 Y 19.5153 Z -1.0000 I 0.0652 J 0.0096
G01 X 18.0873 Y 19.5017 Z -1.0000
G01 X 18.0992 Y 19.5022 Z -1.0000
G01 X 18.1009 Y 19.5081 Z -1.0000
G01 X 18.1000 Y 19.5186 Z -1.0000
G01 X 18.1069 Y 19.5233 Z -1.0000
G01 X 18.1202 Y 19.5196 Z -1.0000
G01 X 18.1318 Y 19.5079 Z -1.0000
G01 X 18.1435 Y 19.4964 Z -1.0000
G01 X 18.1575 Y 19.4926 Z -1.0000
G01 X 18.1601 Y 19.4974 Z -1.0000
G03 X 18.1387 Y 19.5209 Z -1.0000 I -0.0876 J -0.0582
G01 X 18.1037 Y 19.5493 Z -1.0000
G01 X 18.1558 Y 19.5508 Z -1.0000
G02 X 18.2058 Y 19.5462 Z -1.0000 I 0.0060 J -0.2100
G02 X 18.2283 Y 19.5353 Z -1.0000 I -0.0110 J -0.0515
G01 X 18.2438 Y 19.5338 Z -1.0000
G01 X 18.2575 Y 19.5514 Z -1.0000
G02 X 18.2701 Y 19.5746 Z -1.0000 I 0.0532 J -0.0140
G01 X 18.2800 Y 19.5760 Z -1.0000
G01 X 18.2872 Y 19.5658 Z -1.0000
G01 X 18.2850 Y 19.5531 Z -1.0000
G01 X 18.2847 Y 19.5434 Z -1.0000
G01 X 18.2924 Y 19.5387 Z -1.0000
G01 X 18.3041 Y 19.5434 Z -1.0000
G01 X 18.3087 Y 19.5541 Z -1.0000
G01 X 18.3134 Y 19.5649 Z -1.0000
G01 X 18.3250 Y 19.5695 Z -1.0000
G01 X 18.3328 Y 19.5648 Z -1.0000
G01 X 18.3324 Y 19.5552 Z -1.0000
G01 X 18.3311 Y 19.5426 Z -1.0000
G01 X 18.3416 Y 19.5297 Z -1.0000
G01 X 18.3472 Y 19.5310 Z -1.0000
G01 X 18.3472 Y 19.5386 Z -1.0000
G01 X 18.3504 Y 19.5473 Z -1.0000
G01 X 18.3769 Y 19.5481 Z -1.0000
G03 X 18.4066 Y 19.5466 Z -1.0000 I 0.0186 J 0.0734
G01 X 18.4095 Y 19.5529 Z -1.0000
G01 X 18.4182 Y 19.5674 Z -1.0000
G02 X 18.5126 Y 19.5462 Z -1.0000 I -0.0203 J -0.3116
G01 X 18.5332 Y 19.5447 Z -1.0000
G01 X 18.5395 Y 19.5526 Z -1.0000
G01 X 18.5458 Y 19.5633 Z -1.0000
G02 X 18.5703 Y 19.5696 Z -1.0000 I 0.0244 J -0.0443
G01 X 18.5943 Y 19.5628 Z -1.0000
G01 X 18.6013 Y 19.5504 Z -1.0000
G01 X 18.6057 Y 19.5446 Z -1.0000
G01 X 18.6128 Y 19.5471 Z -1.0000
G01 X 18.6361 Y 19.5594 Z -1.0000
G02 X 18.6757 Y 19.5483 Z -1.0000 I 0.0014 J -0.0712
G01 X 18.6820 Y 19.5513 Z -1.0000
G01 X 18.6787 Y 19.5716 Z -1.0000
G01 X 18.6609 Y 19.6081 Z -1.0000
G01 X 18.6912 Y 19.5735 Z -1.0000
G03 X 18.7264 Y 19.5464 Z -1.0000 I 0.0850 J 0.0743
G01 X 18.7325 Y 19.5532 Z -1.0000
G01 X 18.7313 Y 19.5658 Z -1.0000
G01 X 18.7418 Y 19.5788 Z -1.0000
G01 X 18.7581 Y 19.5789 Z -1.0000
G02 X 18.7942 Y 19.5472 Z -1.0000 I -0.0706 J -0.1168
G01 X 18.8283 Y 19.5043 Z -1.0000
G01 X 18.8207 Y 19.5440 Z -1.0000
G01 X 18.8288 Y 19.5635 Z -1.0000
G01 X 18.8520 Y 19.5654 Z -1.0000
G02 X 18.8823 Y 19.5445 Z -1.0000 I -0.0492 J -0.1041
G01 X 18.8835 Y 19.5353 Z -1.0000
G01 X 18.8849 Y 19.5283 Z -1.0000
G01 X 18.9002 Y 19.5235 Z -1.0000
G01 X 18.9187 Y 19.5180 Z -1.0000
G01 X 18.9242 Y 19.5081 Z -1.0000
G01 X 18.9289 Y 19.4973 Z -1.0000
G01 X 18.9406 Y 19.4927 Z -1.0000
G01 X 18.9451 Y 19.4988 Z -1.0000
G03 X 18.9269 Y 19.5350 Z -1.0000 I -0.1256 J -0.0404
G01 X 18.8968 Y 19.5773 Z -1.0000
G01 X 18.9334 Y 19.5773 Z -1.0000
G02 X 18.9652 Y 19.5703 Z -1.0000 I 0.0000 J -0.0748
G01 X 18.9781 Y 19.5564 Z -1.0000
G01 X 18.9749 Y 19.5467 Z -1.0000
G01 X 18.9607 Y 19.5452 Z -1.0000
G01 X 18.9536 Y 19.5417 Z -1.0000
G01 X 18.9561 Y 19.5298 Z -1.0000
G01 X 18.9746 Y 19.5171 Z -1.0000
G01 X 18.9823 Y 19.5209 Z -1.0000
G01 X 18.9916 Y 19.5296 Z -1.0000
G01 X 19.0137 Y 19.5291 Z -1.0000
G01 X 19.0127 Y 19.5384 Z -1.0000
G02 X 18.9907 Y 19.5585 Z -1.0000 I 0.0474 J 0.0739
G01 X 18.9857 Y 19.5730 Z -1.0000
G01 X 18.9916 Y 19.5768 Z -1.0000
G02 X 19.0206 Y 19.5576 Z -1.0000 I -0.0416 J -0.0943
G03 X 19.0566 Y 19.5365 Z -1.0000 I 0.0644 J 0.0685
G01 X 19.0783 Y 19.5393 Z -1.0000
G02 X 19.1019 Y 19.5510 Z -1.0000 I 0.0684 J -0.1087
G01 X 19.1165 Y 19.5534 Z -1.0000
G01 X 19.0935 Y 19.5303 Z -1.0000
G01 X 19.0818 Y 19.5168 Z -1.0000
G01 X 19.0858 Y 19.5116 Z -1.0000
G01 X 19.1090 Y 19.5085 Z -1.0000
G01 X 19.1138 Y 19.4997 Z -1.0000
G01 X 19.1183 Y 19.4894 Z -1.0000
G03 X 19.1425 Y 19.4813 Z -1.0000 I 0.0281 J 0.0438
G01 X 19.1513 Y 19.4873 Z -1.0000
G01 X 19.1477 Y 19.4982 Z -1.0000
G01 X 19.1486 Y 19.5082 Z -1.0000
G02 X 19.1838 Y 19.5159 Z -1.0000 I 0.0333 J -0.0677
G02 X 19.2443 Y 19.5101 Z -1.0000 I -0.0108 J -0.4300
G01 X 19.2571 Y 19.5035 Z -1.0000
G01 X 19.2577 Y 19.4968 Z -1.0000
G01 X 19.2500 Y 19.4926 Z -1.0000
G01 X 19.2374 Y 19.4873 Z -1.0000
G01 X 19.2320 Y 19.4740 Z -1.0000
G01 X 19.2379 Y 19.4693 Z -1.0000
G01 X 19.2566 Y 19.4799 Z -1.0000
G01 X 19.2670 Y 19.5059 Z -1.0000
G03 X 19.2547 Y 19.5450 Z -1.0000 I -0.0753 J -0.0022
G02 X 19.2460 Y 19.5711 Z -1.0000 I 0.0452 J 0.0296
G01 X 19.2527 Y 19.5761 Z -1.0000
G01 X 19.2706 Y 19.5630 Z -1.0000
G01 X 19.2739 Y 19.5496 Z -1.0000
G01 X 19.2764 Y 19.5370 Z -1.0000
G01 X 19.2859 Y 19.5316 Z -1.0000
G02 X 19.3006 Y 19.5284 Z -1.0000 I -0.0030 J -0.0500
G02 X 19.3205 Y 19.5184 Z -1.0000 I -0.0383 J -0.1012
G01 X 19.3398 Y 19.5126 Z -1.0000
G01 X 19.3580 Y 19.5175 Z -1.0000
G01 X 19.3608 Y 19.5273 Z -1.0000
G01 X 19.3464 Y 19.5404 Z -1.0000
G01 X 19.3378 Y 19.5485 Z -1.0000
G01 X 19.3406 Y 19.5531 Z -1.0000
G02 X 19.3631 Y 19.5492 Z -1.0000 I 0.0024 J -0.0529
G02 X 19.3945 Y 19.5311 Z -1.0000 I -0.0507 J -0.1241
G01 X 19.4023 Y 19.5199 Z -1.0000
G01 X 19.3990 Y 19.5167 Z -1.0000
G01 X 19.3762 Y 19.5184 Z -1.0000
G01 X 19.3641 Y 19.5101 Z -1.0000
G01 X 19.3721 Y 19.4925 Z -1.0000
G03 X 19.4220 Y 19.5003 Z -1.0000 I 0.0133 J 0.0785
G02 X 19.4594 Y 19.5067 Z -1.0000 I 0.0287 J -0.0553
G01 X 19.4823 Y 19.4918 Z -1.0000
G03 X 19.5033 Y 19.4659 Z -1.0000 I 0.1143 J 0.0714
G01 X 19.5136 Y 19.4618 Z -1.0000
G01 X 19.5187 Y 19.4659 Z -1.0000
G01 X 19.5167 Y 19.4772 Z -1.0000
G01 X 19.5176 Y 19.4868 Z -1.0000
G01 X 19.5303 Y 19.4926 Z -1.0000
G01 X 19.5506 Y 19.4876 Z -1.0000
G01 X 19.5644 Y 19.4748 Z -1.0000
G01 X 19.5627 Y 19.4695 Z -1.0000
G01 X 19.5537 Y 19.4701 Z -1.0000
G01 X 19.5496 Y 19.4679 Z -1.0000
G01 X 19.5532 Y 19.4571 Z -1.0000
G01 X 19.5709 Y 19.4507 Z -1.0000
G01 X 19.5800 Y 19.4624 Z -1.0000
G03 X 19.5722 Y 19.4901 Z -1.0000 I -0.0660 J -0.0037
G01 X 19.5552 Y 19.5083 Z -1.0000
G01 X 19.5466 Y 19.5188 Z -1.0000
G01 X 19.5495 Y 19.5231 Z -1.0000
G01 X 19.5908 Y 19.5012 Z -1.0000
G02 X 19.6040 Y 19.4402 Z -1.0000 I -0.0723 J -0.0475
G01 X 19.6096 Y 19.4331 Z -1.0000
G01 X 19.6222 Y 19.4387 Z -1.0000
G01 X 19.6465 Y 19.4551 Z -1.0000
G01 X 19.6650 Y 19.4502 Z -1.0000
G03 X 19.6863 Y 19.4354 Z -1.0000 I 0.0537 J 0.0544
G01 X 19.7062 Y 19.4310 Z -1.0000
G01 X 19.7102 Y 19.4374 Z -1.0000
G03 X 19.6916 Y 19.4613 Z -1.0000 I -0.0643 J -0.0310
G02 X 19.6711 Y 19.4861 Z -1.0000 I 0.0561 J 0.0673
G01 X 19.6745 Y 19.4920 Z -1.0000
G01 X 19.6896 Y 19.4883 Z -1.0000
G01 X 19.6939 Y 19.4810 Z -1.0000
G01 X 19.7140 Y 19.4489 Z -1.0000
G03 X 19.7930 Y 19.4315 Z -1.0000 I 0.0740 J 0.1481
G01 X 19.7956 Y 19.4364 Z -1.0000
G03 X 19.7784 Y 19.4557 Z -1.0000 I -0.0603 J -0.0364
G01 X 19.7795 Y 19.4652 Z -1.0000
G01 X 19.8075 Y 19.4685 Z -1.0000
G03 X 19.8522 Y 19.4680 Z -1.0000 I 0.0238 J 0.1308
G01 X 19.8559 Y 19.4762 Z -1.0000
G01 X 19.8586 Y 19.4806 Z -1.0000
G01 X 19.8758 Y 19.4752 Z -1.0000
G02 X 19.9005 Y 19.4541 Z -1.0000 I -0.0576 J -0.0923
G01 X 19.9012 Y 19.4459 Z -1.0000
G01 X 19.9025 Y 19.4402 Z -1.0000
G01 X 19.9161 Y 19.4362 Z -1.0000
G01 X 19.9273 Y 19.4430 Z -1.0000
G01 X 19.9285 Y 19.4605 Z -1.0000
G01 X 19.9309 Y 19.4683 Z -1.0000
G01 X 19.9384 Y 19.4679 Z -1.0000
G02 X 19.9521 Y 19.4487 Z -1.0000 I -0.0381 J -0.0415
G02 X 19.9592 Y 19.4196 Z -1.0000 I -0.0835 J -0.0359
G01 X 19.9689 Y 19.3997 Z -1.0000
G01 X 19.9841 Y 19.3969 Z -1.0000
G01 X 19.9933 Y 19.3945 Z -1.0000
G01 X 19.9940 Y 19.3851 Z -1.0000
G01 X 19.9939 Y 19.3773 Z -1.0000
G01 X 19.9994 Y 19.3759 Z -1.0000
G01 X 20.0098 Y 19.3888 Z -1.0000
G01 X 20.0086 Y 19.4014 Z -1.0000
G01 X 20.0148 Y 19.4117 Z -1.0000
G01 X 20.0428 Y 19.3990 Z -1.0000
G01 X 20.0617 Y 19.3891 Z -1.0000
G03 X 20.0959 Y 19.3892 Z -1.0000 I 0.0169 J 0.0918
G01 X 20.0977 Y 19.3936 Z -1.0000
G01 X 20.0891 Y 19.3982 Z -1.0000
G02 X 20.0579 Y 19.4066 Z -1.0000 I 0.0037 J 0.0757
G01 X 20.0554 Y 19.4156 Z -1.0000
G01 X 20.0537 Y 19.4248 Z -1.0000
G01 X 20.0349 Y 19.4310 Z -1.0000
G01 X 20.0100 Y 19.4386 Z -1.0000
G01 X 19.9946 Y 19.4580 Z -1.0000
G01 X 19.9966 Y 19.4659 Z -1.0000
G01 X 20.0037 Y 19.4657 Z -1.0000
G03 X 20.0585 Y 19.4412 Z -1.0000 I 0.0596 J 0.0601
G01 X 20.0708 Y 19.4619 Z -1.0000
G01 X 20.0698 Y 19.4725 Z -1.0000
G01 X 20.0767 Y 19.4772 Z -1.0000
G01 X 20.0900 Y 19.4735 Z -1.0000
G01 X 20.1016 Y 19.4619 Z -1.0000
G01 X 20.1020 Y 19.4515 Z -1.0000
G01 X 20.0939 Y 19.4465 Z -1.0000
G01 X 20.0855 Y 19.4415 Z -1.0000
G01 X 20.0858 Y 19.4317 Z -1.0000
G01 X 20.0971 Y 19.4237 Z -1.0000
G01 X 20.1159 Y 19.4251 Z -1.0000
G01 X 20.1306 Y 19.4453 Z -1.0000
G03 X 20.1194 Y 19.4888 Z -1.0000 I -0.0742 J 0.0041
G01 X 20.1171 Y 19.5027 Z -1.0000
G01 X 20.1237 Y 19.5081 Z -1.0000
G01 X 20.1382 Y 19.4977 Z -1.0000
G02 X 20.1412 Y 19.4562 Z -1.0000 I -0.0788 J -0.0266
G01 X 20.1451 Y 19.4503 Z -1.0000
G01 X 20.1614 Y 19.4515 Z -1.0000
G01 X 20.1744 Y 19.4486 Z -1.0000
G01 X 20.1790 Y 19.4336 Z -1.0000
G01 X 20.1839 Y 19.4152 Z -1.0000
G01 X 20.2019 Y 19.4070 Z -1.0000
G01 X 20.2156 Y 19.4156 Z -1.0000
G01 X 20.2152 Y 19.4344 Z -1.0000
G01 X 20.2141 Y 19.4538 Z -1.0000
G01 X 20.2260 Y 19.4619 Z -1.0000
G01 X 20.2354 Y 19.4698 Z -1.0000
G01 X 20.2307 Y 19.4889 Z -1.0000
G01 X 20.2481 Y 19.4852 Z -1.0000
G03 X 20.2864 Y 19.4547 Z -1.0000 I 3.2359 J 4.0372
G03 X 20.2940 Y 19.4491 Z -1.0000 I 0.1221 J 0.1554
G01 X 20.2786 Y 19.4488 Z -1.0000
G01 X 20.2584 Y 19.4488 Z -1.0000
G01 X 20.2516 Y 19.4426 Z -1.0000
G03 X 20.2510 Y 19.4102 Z -1.0000 I 0.0510 J -0.0172
G01 X 20.2641 Y 19.4004 Z -1.0000
G01 X 20.2712 Y 19.4056 Z -1.0000
G01 X 20.2697 Y 19.4178 Z -1.0000
G01 X 20.2710 Y 19.4246 Z -1.0000
G01 X 20.2803 Y 19.4255 Z -1.0000
G03 X 20.3019 Y 19.4163 Z -1.0000 I 0.2163 J 0.4799
G03 X 20.3286 Y 19.4063 Z -1.0000 I 0.2639 J 0.6630
G02 X 20.3513 Y 19.3938 Z -1.0000 I -0.0257 J -0.0731
G01 X 20.3556 Y 19.3849 Z -1.0000
G01 X 20.3598 Y 19.3758 Z -1.0000
G03 X 20.3816 Y 19.3629 Z -1.0000 I 0.0493 J 0.0586
G01 X 20.3870 Y 19.3671 Z -1.0000
G01 X 20.3789 Y 19.3847 Z -1.0000
G01 X 20.3794 Y 19.4216 Z -1.0000
G02 X 20.4292 Y 19.4372 Z -1.0000 I 0.0391 J -0.0374
G02 X 20.4708 Y 19.4197 Z -1.0000 I -0.0219 J -0.1102
G01 X 20.4873 Y 19.3974 Z -1.0000
G03 X 20.4986 Y 19.3744 Z -1.0000 I 0.0824 J 0.0264
G01 X 20.5036 Y 19.3740 Z -1.0000
G01 X 20.5060 Y 19.3817 Z -1.0000
G03 X 20.4951 Y 19.4208 Z -1.0000 I -0.2188 J -0.0398
G02 X 20.4896 Y 19.4574 Z -1.0000 I 0.0809 J 0.0308
G01 X 20.4985 Y 19.4716 Z -1.0000
G01 X 20.5056 Y 19.4695 Z -1.0000
G01 X 20.5026 Y 19.4567 Z -1.0000
G03 X 20.5160 Y 19.4324 Z -1.0000 I 0.0584 J 0.0164
G02 X 20.5358 Y 19.4068 Z -1.0000 I -0.1555 J -0.1407
G01 X 20.5421 Y 19.3926 Z -1.0000
G01 X 20.5488 Y 19.3787 Z -1.0000
G03 X 20.5758 Y 19.3465 Z -1.0000 I 0.2536 J 0.1854
G01 X 20.5899 Y 19.3421 Z -1.0000
G01 X 20.5948 Y 19.3504 Z -1.0000
G01 X 20.6010 Y 19.3672 Z -1.0000
G01 X 20.6247 Y 19.3697 Z -1.0000
G01 X 20.6309 Y 19.3778 Z -1.0000
G03 X 20.6021 Y 19.4002 Z -1.0000 I -0.0548 J -0.0405
G02 X 20.5603 Y 19.4226 Z -1.0000 I 0.0922 J 0.2226
G01 X 20.5556 Y 19.4314 Z -1.0000
G01 X 20.5771 Y 19.4580 Z -1.0000
G01 X 20.6114 Y 19.4435 Z -1.0000
G01 X 20.6099 Y 19.4385 Z -1.0000
G01 X 20.6018 Y 19.4389 Z -1.0000
G01 X 20.5951 Y 19.4379 Z -1.0000
G01 X 20.5945 Y 19.4306 Z -1.0000
G01 X 20.6074 Y 19.4244 Z -1.0000
G01 X 20.6226 Y 19.4342 Z -1.0000
G01 X 20.6421 Y 19.4467 Z -1.0000
G02 X 20.6835 Y 19.4426 Z -1.0000 I 0.0121 J -0.0878
G03 X 20.7244 Y 19.4386 Z -1.0000 I 0.0287 J 0.0823
G01 X 20.7425 Y 19.4510 Z -1.0000
G01 X 20.7605 Y 19.4658 Z -1.0000
G02 X 20.7947 Y 19.4682 Z -1.0000 I 0.0218 J -0.0661
G03 X 20.8280 Y 19.4708 Z -1.0000 I 0.0118 J 0.0647
G01 X 20.8424 Y 19.4847 Z -1.0000
G01 X 20.8563 Y 19.5009 Z -1.0000
G02 X 20.8843 Y 19.5083 Z -1.0000 I 0.0284 J -0.0505
G01 X 20.8977 Y 19.5142 Z -1.0000
G01 X 20.8968 Y 19.5216 Z -1.0000
G01 X 20.8920 Y 19.5330 Z -1.0000
G01 X 20.9016 Y 19.5443 Z -1.0000
G01 X 20.9164 Y 19.5576 Z -1.0000
G01 X 20.9159 Y 19.5719 Z -1.0000
G01 X 20.9167 Y 19.5780 Z -1.0000
G01 X 20.9229 Y 19.5786 Z -1.0000
G01 X 20.9334 Y 19.5657 Z -1.0000
G01 X 20.9321 Y 19.5532 Z -1.0000
G01 X 20.9317 Y 19.5435 Z -1.0000
G01 X 20.9395 Y 19.5388 Z -1.0000
G01 X 20.9512 Y 19.5435 Z -1.0000
G01 X 20.9558 Y 19.5542 Z -1.0000
G01 X 20.9610 Y 19.5644 Z -1.0000
G01 X 20.9772 Y 19.5696 Z -1.0000
G01 X 20.9946 Y 19.5755 Z -1.0000
G01 X 21.0075 Y 19.5927 Z -1.0000
G01 X 21.0216 Y 19.6081 Z -1.0000
G02 X 21.0544 Y 19.6158 Z -1.0000 I 0.0328 J -0.0666
G03 X 21.0896 Y 19.6210 Z -1.0000 I 0.0000 J 0.1209
G01 X 21.1013 Y 19.6300 Z -1.0000
G01 X 21.1135 Y 19.6375 Z -1.0000
G02 X 21.2214 Y 19.6394 Z -1.0000 I 0.0694 J -0.8812
G02 X 21.3694 Y 19.6246 Z -1.0000 I -0.0555 J -1.3010
G01 X 21.3713 Y 19.6157 Z -1.0000
G01 X 21.3735 Y 19.6101 Z -1.0000
G03 X 21.4112 Y 19.6229 Z -1.0000 I -0.0235 J 0.1308
G02 X 21.4529 Y 19.6378 Z -1.0000 I 0.0760 J -0.1464
G01 X 21.4630 Y 19.6339 Z -1.0000
G01 X 21.4735 Y 19.6266 Z -1.0000
G03 X 21.5021 Y 19.6229 Z -1.0000 I 0.0269 J 0.0958
G02 X 21.5316 Y 19.6205 Z -1.0000 I 0.0026 J -0.1482
G01 X 21.5405 Y 19.6157 Z -1.0000
G03 X 21.6729 Y 19.5438 Z -1.0000 I 0.1871 J 0.1865
G03 X 21.7610 Y 19.5689 Z -1.0000 I 0.0203 J 0.0958
G01 X 21.7698 Y 19.5830 Z -1.0000
G03 X 21.7782 Y 19.6221 Z -1.0000 I -0.1888 J 0.0608
G02 X 21.8116 Y 19.6900 Z -1.0000 I 0.1100 J -0.0120
G01 X 21.8599 Y 19.7004 Z -1.0000
G01 X 21.8740 Y 19.7008 Z -1.0000
G01 X 21.8791 Y 19.7085 Z -1.0000
G01 X 21.8848 Y 19.7177 Z -1.0000
G02 X 21.9099 Y 19.7234 Z -1.0000 I 0.0250 J -0.0517
G02 X 21.9356 Y 19.7183 Z -1.0000 I 0.0000 J -0.0666
G01 X 21.9407 Y 19.7106 Z -1.0000
G01 X 21.9454 Y 19.7025 Z -1.0000
G01 X 21.9637 Y 19.6978 Z -1.0000
G01 X 21.9822 Y 19.7024 Z -1.0000
G01 X 21.9868 Y 19.7102 Z -1.0000
G01 X 21.9920 Y 19.7150 Z -1.0000
G02 X 22.0287 Y 19.7067 Z -1.0000 I -0.0107 J -0.1323
G03 X 22.0677 Y 19.7010 Z -1.0000 I 0.0324 J 0.0852
G01 X 22.0864 Y 19.7109 Z -1.0000
G02 X 22.1256 Y 19.7316 Z -1.0000 I 0.0428 J -0.0336
G01 X 22.1597 Y 19.7157 Z -1.0000
G01 X 22.1669 Y 19.7130 Z -1.0000
G01 X 22.1713 Y 19.7184 Z -1.0000
G01 X 22.1791 Y 19.7281 Z -1.0000
G02 X 22.2292 Y 19.7318 Z -1.0000 I 0.0368 J -0.1595
G01 X 22.2676 Y 19.7343 Z -1.0000
G01 X 22.2562 Y 19.7442 Z -1.0000
G01 X 22.2566 Y 19.7550 Z -1.0000
G01 X 22.3070 Y 19.7725 Z -1.0000
G02 X 22.3408 Y 19.7243 Z -1.0000 I -0.0176 J -0.0482
G01 X 22.3448 Y 19.7187 Z -1.0000
G03 X 22.3704 Y 19.7147 Z -1.0000 I 0.0256 J 0.0793
G01 X 22.3900 Y 19.7211 Z -1.0000
G01 X 22.3924 Y 19.7306 Z -1.0000
G01 X 22.4066 Y 19.7199 Z -1.0000
G03 X 22.4288 Y 19.7005 Z -1.0000 I 0.0692 J 0.0568
G01 X 22.4366 Y 19.7014 Z -1.0000
G01 X 22.4663 Y 19.7061 Z -1.0000
G02 X 22.6143 Y 19.6115 Z -1.0000 I -0.3933 J -0.7782
G01 X 22.6222 Y 19.6120 Z -1.0000
G01 X 22.6242 Y 19.6213 Z -1.0000
G03 X 22.6113 Y 19.6420 Z -1.0000 I -0.0595 J -0.0227
G01 X 22.6007 Y 19.6466 Z -1.0000
G01 X 22.5919 Y 19.6515 Z -1.0000
G01 X 22.5870 Y 19.6688 Z -1.0000
G01 X 22.5808 Y 19.6878 Z -1.0000
G03 X 22.5533 Y 19.7146 Z -1.0000 I -0.0954 J -0.0702
G01 X 22.5582 Y 19.7276 Z -1.0000
G02 X 22.6269 Y 19.7065 Z -1.0000 I -0.0210 J -0.1907
G01 X 22.7178 Y 19.6585 Z -1.0000
G01 X 22.6716 Y 19.7085 Z -1.0000
G03 X 22.4373 Y 19.8739 Z -1.0000 I -0.5044 J -0.4656
G03 X 22.0777 Y 19.9626 Z -1.0000 I -0.4503 J -1.0522
G03 X 21.8698 Y 19.9684 Z -1.0000 I -0.1591 J -1.9972
G03 X 20.4556 Y 19.9231 Z -1.0000 I 2.2557 J -92.6259
G03 X 18.7624 Y 19.8380 Z -1.0000 I 3.1480 J -79.4970
G03 X 16.7931 Y 19.6998 Z -1.0000 I 6.5616 J -107.6298
G02 X 15.8881 Y 19.6296 Z -1.0000 I -20.3095 J 255.9133
G02 X 15.1965 Y 19.5788 Z -1.0000 I -11.3274 J 149.4311
G02 X 15.0957 Y 19.5747 Z -1.0000 I -0.1149 J 1.6014
G01 X 15.0926 Y 19.5778 Z -1.0000
G01 X 15.1102 Y 19.5997 Z -1.0000
G02 X 15.6543 Y 19.7008 Z -1.0000 I 1.8635 J -8.5097
G02 X 16.4242 Y 19.7950 Z -1.0000 I 1.9345 J -12.6252
G02 X 17.2394 Y 19.8459 Z -1.0000 I 1.2911 J -14.1015
G03 X 17.6855 Y 19.8637 Z -1.0000 I -1.2762 J 37.7400
G03 X 18.5782 Y 19.9071 Z -1.0000 I -6.6952 J 146.6352
G02 X 21.6365 Y 20.0370 Z -1.0000 I 8.5195 J -164.5683
G02 X 22.1786 Y 20.0265 Z -1.0000 I 0.1714 J -5.1695
G02 X 22.4753 Y 19.9625 Z -1.0000 I -0.0774 J -1.0776
G02 X 22.7563 Y 19.8133 Z -1.0000 I -0.4108 J -1.1127
G01 X 22.8409 Y 19.7525 Z -1.0000
G01 X 22.7563 Y 19.8317 Z -1.0000
G02 X 22.7207 Y 19.8742 Z -1.0000 I 0.1557 J 0.1664
G01 X 22.7255 Y 19.8792 Z -1.0000
G02 X 22.7775 Y 19.8449 Z -1.0000 I -0.3079 J -0.5235
G02 X 22.9155 Y 19.7394 Z -1.0000 I -2.7877 J -3.7888
G03 X 23.0150 Y 19.6717 Z -1.0000 I 0.5074 J 0.6388
G01 X 23.0203 Y 19.6789 Z -1.0000
G01 X 23.0246 Y 19.6886 Z -1.0000
G02 X 23.0569 Y 19.6753 Z -1.0000 I -0.0059 J -0.0603
G01 X 23.0282 Y 19.7127 Z -1.0000
G03 X 22.7408 Y 19.9099 Z -1.0000 I -0.7651 J -0.8075
G03 X 22.3562 Y 20.0323 Z -1.0000 I -0.6407 J -1.3475
G02 X 22.2698 Y 20.0530 Z -1.0000 I 0.1206 J 0.6924
G01 X 22.2701 Y 20.0588 Z -1.0000
G01 X 22.2849 Y 20.0768 Z -1.0000
G03 X 22.2890 Y 20.8831 Z -1.0000 I -22.6084 J 0.5195
G02 X 22.2788 Y 21.7010 Z -1.0000 I 1771.5973 J 22.4542
G02 X 22.2635 Y 22.9706 Z -1.0000 I 4110.2534 J 50.1668
G03 X 22.2483 Y 24.2401 Z -1.0000 I -4846.4568 J -57.5534
G03 X 22.2334 Y 25.4559 Z -1.0000 I -5532.8175 J -67.2894
G02 X 22.2188 Y 26.6716 Z -1.0000 I 1276.8699 J 15.8498
G02 X 22.2094 Y 27.5411 Z -1.0000 I 703.9574 J 8.0681
G03 X 22.1749 Y 29.1277 Z -1.0000 I -69.0397 J -0.7065
G03 X 22.1513 Y 29.2903 Z -1.0000 I -0.7397 J -0.0246
G03 X 22.0955 Y 29.4189 Z -1.0000 I -0.4434 J -0.1159
G03 X 22.0391 Y 29.4682 Z -1.0000 I -0.1107 J -0.0698
G03 X 21.9996 Y 29.4739 Z -1.0000 I -0.0294 J -0.0645
G03 X 21.8052 Y 29.4346 Z -1.0000 I 0.2506 J -1.7434
G02 X 21.6091 Y 29.3868 Z -1.0000 I -1.5384 J 5.8836
G02 X 21.4559 Y 29.3556 Z -1.0000 I -0.8019 J 3.5438
G02 X 21.0050 Y 29.2776 Z -1.0000 I -4.9714 J 27.3816
G02 X 20.7711 Y 29.2429 Z -1.0000 I -1.2042 J 7.3148
G02 X 20.3548 Y 29.2003 Z -1.0000 I -0.9363 J 7.0934
G02 X 20.0100 Y 29.1874 Z -1.0000 I -0.3530 J 4.8449
G03 X 19.8728 Y 29.1810 Z -1.0000 I 0.0026 J -1.5113
G03 X 19.8478 Y 29.1723 Z -1.0000 I 0.0051 J -0.0549
G01 X 19.8394 Y 29.1616 Z -1.0000
G01 X 19.8426 Y 29.1571 Z -1.0000
G01 X 19.8501 Y 29.1491 Z -1.0000
G02 X 19.8381 Y 29.0761 Z -1.0000 I -0.3458 J 0.0193
G03 X 19.8213 Y 28.9944 Z -1.0000 I 0.6007 J -0.1663
G03 X 19.8065 Y 28.8453 Z -1.0000 I 1.9924 J -0.2729
G02 X 19.7912 Y 28.7017 Z -1.0000 I -1.6177 J 0.1000
G01 X 19.7836 Y 28.6952 Z -1.0000
G01 X 19.7769 Y 28.6886 Z -1.0000
G03 X 19.7787 Y 28.2374 Z -1.0000 I 15.3131 J -0.1633
G02 X 19.7909 Y 27.4452 Z -1.0000 I -109.9971 J -2.0831
G02 X 19.8612 Y 21.2047 Z -1.0000 I -6646.0419 J -77.9898
G03 X 19.8778 Y 20.0638 Z -1.0000 I 153.2946 J 1.6587
G01 X 19.8823 Y 20.0533 Z -1.0000
G01 X 19.8927 Y 20.0492 Z -1.0000
G03 X 20.4426 Y 20.0765 Z -1.0000 I -1.3647 J 33.0701
G02 X 21.2791 Y 20.1058 Z -1.0000 I 1.0630 J -18.3848
G02 X 21.8253 Y 20.0935 Z -1.0000 I 0.0964 J -7.8417
G01 X 22.0099 Y 20.0829 Z -1.0000
G01 X 21.8407 Y 20.0798 Z -1.0000
G03 X 21.6714 Y 20.0762 Z -1.0000 I 0.5696 J -31.1948
G03 X 21.4098 Y 20.0696 Z -1.0000 I 2.0678 J -87.2923
G02 X 21.1482 Y 20.0635 Z -1.0000 I -1.0097 J 37.2501
G02 X 20.6634 Y 20.0546 Z -1.0000 I -2.6675 J 132.8556
G03 X 19.9407 Y 20.0302 Z -1.0000 I 0.3412 J -20.7708
G01 X 19.9374 Y 20.0174 Z -1.0000
G01 X 19.9361 Y 20.0127 Z -1.0000
G02 X 19.6113 Y 20.0068 Z -1.0000 I -0.3711 J 11.5554
G01 X 19.3064 Y 20.0119 Z -1.0000
G01 X 19.3422 Y 20.0183 Z -1.0000
G01 X 19.3331 Y 20.4673 Z -1.0000
G02 X 19.3254 Y 20.9162 Z -1.0000 I 70.8323 J 1.4344
G02 X 19.3085 Y 22.2319 Z -1.0000 I 596.2026 J 8.2941
G03 X 19.2602 Y 26.2879 Z -1.0000 I -8838.5901 J -103.3667
G03 X 19.2393 Y 27.9258 Z -1.0000 I -1429.9932 J -17.3799
G03 X 19.2206 Y 28.6100 Z -1.0000 I -24.5401 J -0.3277
G03 X 19.1993 Y 28.8952 Z -1.0000 I -4.2632 J -0.1759
G02 X 19.1875 Y 29.2481 Z -1.0000 I 2.3461 J 0.2551
G02 X 19.2198 Y 29.3908 Z -1.0000 I 0.4051 J -0.0168
G02 X 19.3724 Y 29.5823 Z -1.0000 I 0.4244 J -0.1816
G02 X 19.6555 Y 29.7082 Z -1.0000 I 0.4349 J -0.5972
G02 X 19.8627 Y 29.7458 Z -1.0000 I 0.7957 J -3.7868
G02 X 20.5711 Y 29.8490 Z -1.0000 I 6.8151 J -44.2935
G03 X 20.8096 Y 29.8824 Z -1.0000 I -7.2266 J 52.5531
G03 X 21.1790 Y 29.9354 Z -1.0000 I -17.9353 J 126.1827
G02 X 21.7831 Y 30.0108 Z -1.0000 I 2.1886 J -15.0823
G02 X 21.9399 Y 30.0150 Z -1.0000 I 0.1051 J -1.0057
G02 X 22.2034 Y 29.9672 Z -1.0000 I -0.0534 J -1.0452
G02 X 22.4280 Y 29.8598 Z -1.0000 I -0.2737 J -0.8613
G02 X 22.5361 Y 29.7691 Z -1.0000 I -0.3425 J -0.5182
G02 X 22.5985 Y 29.6801 Z -1.0000 I -0.2673 J -0.2536
G02 X 22.6354 Y 29.5765 Z -1.0000 I -0.4084 J -0.2039
G02 X 22.6626 Y 29.3954 Z -1.0000 I -1.2336 J -0.2778
G02 X 22.6710 Y 29.2106 Z -1.0000 I -2.9381 J -0.2256
G02 X 22.6683 Y 28.9876 Z -1.0000 I -4.3180 J -0.0599
G03 X 22.6648 Y 28.7469 Z -1.0000 I 5.0465 J -0.1930
G03 X 22.7178 Y 23.7323 Z -1.0000 I 2220.0998 J 20.9505
G02 X 22.7397 Y 21.8549 Z -1.0000 I -13232.3794 J -154.8698
G02 X 22.7503 Y 20.9231 Z -1.0000 I -3130.9042 J -36.1756
G01 X 22.7608 Y 19.9914 Z -1.0000
G01 X 22.8778 Y 19.9509 Z -1.0000
G02 X 23.1147 Y 19.8567 Z -1.0000 I -0.9255 J -2.6747
G02 X 23.4527 Y 19.6919 Z -1.0000 I -2.5310 J -5.6189
G03 X 23.4843 Y 19.6848 Z -1.0000 I 0.0292 J 0.0555
G01 X 23.4865 Y 19.6932 Z -1.0000
G01 X 23.4871 Y 19.7087 Z -1.0000
G01 X 23.5185 Y 19.7095 Z -1.0000
G03 X 23.5902 Y 19.6840 Z -1.0000 I 0.2054 J 0.4643
G01 X 23.6044 Y 19.6861 Z -1.0000
G01 X 23.6139 Y 19.6871 Z -1.0000
G01 X 23.6181 Y 19.6811 Z -1.0000
G01 X 23.6233 Y 19.6709 Z -1.0000
G03 X 23.6733 Y 19.6413 Z -1.0000 I 0.1896 J 0.2632
G02 X 23.7893 Y 19.5606 Z -1.0000 I -0.1873 J -0.3927
G02 X 23.9832 Y 19.3401 Z -1.0000 I -1.3099 J -1.3478
G03 X 24.0682 Y 19.2356 Z -1.0000 I 1.3751 J 1.0307
G01 X 24.0724 Y 19.2387 Z -1.0000
G03 X 24.0287 Y 19.3025 Z -1.0000 I -0.6609 J -0.4065
G03 X 23.8702 Y 19.5042 Z -1.0000 I -6.7963 J -5.1786
G02 X 23.8476 Y 19.5456 Z -1.0000 I 0.1012 J 0.0820
G01 X 23.8538 Y 19.5542 Z -1.0000
G02 X 23.8753 Y 19.5495 Z -1.0000 I 0.0000 J -0.0514
G01 X 23.8876 Y 19.5386 Z -1.0000
G01 X 23.8989 Y 19.5300 Z -1.0000
G01 X 23.9116 Y 19.5318 Z -1.0000
G01 X 23.9217 Y 19.5331 Z -1.0000
G01 X 23.9259 Y 19.5274 Z -1.0000
G01 X 23.9314 Y 19.5196 Z -1.0000
G03 X 23.9644 Y 19.5141 Z -1.0000 I 0.0329 J 0.0962
G03 X 23.9981 Y 19.5189 Z -1.0000 I -0.0000 J 0.1217
G01 X 24.0028 Y 19.5252 Z -1.0000
G01 X 24.0078 Y 19.5298 Z -1.0000
G02 X 24.0569 Y 19.5213 Z -1.0000 I -0.0175 J -0.2471
G03 X 24.1102 Y 19.5119 Z -1.0000 I 0.0762 J 0.2764
G01 X 24.1261 Y 19.5158 Z -1.0000
G01 X 24.1372 Y 19.5178 Z -1.0000
G01 X 24.1413 Y 19.5127 Z -1.0000
G01 X 24.1470 Y 19.5059 Z -1.0000
G03 X 24.2144 Y 19.4996 Z -1.0000 I 0.0711 J 0.3941
G02 X 24.3393 Y 19.4916 Z -1.0000 I -0.0104 J -1.1411
G02 X 24.5238 Y 19.4626 Z -1.0000 I -0.3009 J -2.5194
G03 X 24.6054 Y 19.4512 Z -1.0000 I 0.1493 J 0.7689
G01 X 24.6189 Y 19.4544 Z -1.0000
G01 X 24.6301 Y 19.4556 Z -1.0000
G01 X 24.6415 Y 19.4464 Z -1.0000
G01 X 24.6529 Y 19.4373 Z -1.0000
G01 X 24.6644 Y 19.4386 Z -1.0000
G01 X 24.6768 Y 19.4400 Z -1.0000
G02 X 24.6979 Y 19.4273 Z -1.0000 I -0.0181 J -0.0542
G03 X 24.7200 Y 19.4102 Z -1.0000 I 0.0975 J 0.1030
G03 X 24.7646 Y 19.3855 Z -1.0000 I 0.2516 J 0.4006
G02 X 24.8073 Y 19.3581 Z -1.0000 I -0.0951 J -0.1951
G02 X 24.9068 Y 19.2687 Z -1.0000 I -0.9589 J -1.1674
G03 X 25.0028 Y 19.1829 Z -1.0000 I 0.9480 J 0.9654
G01 X 25.0120 Y 19.1834 Z -1.0000
G01 X 25.0159 Y 19.1833 Z -1.0000
G01 X 25.0174 Y 19.1771 Z -1.0000
G03 X 25.0259 Y 19.1253 Z -1.0000 I 0.0652 J -0.0159
G01 X 25.0548 Y 19.1181 Z -1.0000
G01 X 25.0610 Y 19.1155 Z -1.0000
G01 X 25.0588 Y 19.1024 Z -1.0000
G03 X 25.0881 Y 19.0522 Z -1.0000 I 0.2171 J 0.0931
G02 X 25.2323 Y 18.7694 Z -1.0000 I -0.7047 J -0.5375
G02 X 25.3323 Y 18.2384 Z -1.0000 I -2.4592 J -0.7378
G02 X 25.3550 Y 17.8554 Z -1.0000 I -8.9557 J -0.7236
G02 X 25.3804 Y 16.9688 Z -1.0000 I -47.9966 J -1.8206
G02 X 25.4146 Y 14.7937 Z -1.0000 I -291.1733 J -5.6612
G02 X 25.4418 Y 11.8443 Z -1.0000 I -535.6341 J -6.4122
G03 X 25.4501 Y 10.6363 Z -1.0000 I 1556.7139 J 10.0750
G03 X 25.4571 Y 9.7284 Z -1.0000 I 854.5271 J 6.1935
G02 X 25.4639 Y 8.8204 Z -1.0000 I -616.2008 J -5.0592
G02 X 25.4728 Y 7.3893 Z -1.0000 I -1352.6836 J -9.1131
G03 X 25.4846 Y 5.9582 Z -1.0000 I 281.5936 J 1.6098
G03 X 25.4896 Y 5.8427 Z -1.0000 I 1.8107 J 0.0196
G03 X 25.5217 Y 5.5948 Z -1.0000 I 2.2982 J 0.1719
G03 X 25.5894 Y 5.3041 Z -1.0000 I 3.2286 J 0.5981
G02 X 25.6130 Y 5.1874 Z -1.0000 I -0.7781 J -0.2187
G02 X 25.6225 Y 5.0436 Z -1.0000 I -1.1746 J -0.1495
G02 X 25.6087 Y 4.9054 Z -1.0000 I -0.6678 J -0.0032
G02 X 25.5864 Y 4.8685 Z -1.0000 I -0.0633 J 0.0131
G01 X 25.5495 Y 4.8383 Z -1.0000
G01 X 25.5865 Y 4.8498 Z -1.0000
G01 X 25.6234 Y 4.8614 Z -1.0000
G01 X 25.6128 Y 4.6711 Z -1.0000
G02 X 25.5988 Y 4.4811 Z -1.0000 I -5.2313 J 0.2899
G02 X 25.5798 Y 4.3115 Z -1.0000 I -4.2769 J 0.3934
G03 X 25.5608 Y 4.1420 Z -1.0000 I 4.3373 J -0.5735
G03 X 25.5573 Y 4.0687 Z -1.0000 I 0.8073 J -0.0749
G02 X 25.5438 Y 4.0045 Z -1.0000 I -0.1608 J 0.0003
G01 X 25.5187 Y 3.9806 Z -1.0000
G01 X 25.4932 Y 3.9571 Z -1.0000
G03 X 25.4802 Y 3.8999 Z -1.0000 I 0.1201 J -0.0572
G03 X 25.4915 Y 3.8378 Z -1.0000 I 0.1768 J -0.0000
G03 X 25.5257 Y 3.7786 Z -1.0000 I 0.1947 J 0.0730
G01 X 25.5712 Y 3.7234 Z -1.0000
G01 X 25.6604 Y 3.7535 Z -1.0000
G02 X 25.7506 Y 3.7736 Z -1.0000 I 0.1395 J -0.4128
G02 X 25.8377 Y 3.7737 Z -1.0000 I 0.0437 J -0.3841
G03 X 25.9243 Y 3.7716 Z -1.0000 I 0.0551 J 0.4873
G03 X 25.9588 Y 3.7814 Z -1.0000 I -0.0055 J 0.0847
G01 X 25.9772 Y 3.7854 Z -1.0000
G01 X 25.9800 Y 3.7800 Z -1.0000
G01 X 25.9838 Y 3.7715 Z -1.0000
G03 X 26.0282 Y 3.7713 Z -1.0000 I 0.0227 J 0.1256
G02 X 26.0635 Y 3.7712 Z -1.0000 I 0.0174 J -0.1002
G01 X 26.0650 Y 3.7647 Z -1.0000
G01 X 26.0654 Y 3.7592 Z -1.0000
G01 X 26.0775 Y 3.7578 Z -1.0000
G02 X 26.1737 Y 3.7465 Z -1.0000 I 0.0345 J -0.1221
G02 X 26.3805 Y 3.5891 Z -1.0000 I -0.4448 J -0.7989
G02 X 26.6191 Y 3.0705 Z -1.0000 I -0.5993 J -0.5899
G02 X 26.4687 Y 2.5532 Z -1.0000 I -0.7463 J -0.0636
G02 X 26.3528 Y 2.4441 Z -1.0000 I -0.3857 J 0.2937
G02 X 26.1523 Y 2.3412 Z -1.0000 I -0.5407 J 0.8073
G01 X 26.0779 Y 2.3135 Z -1.0000
G01 X 26.1215 Y 2.2942 Z -1.0000
G01 X 26.1218 Y 2.2835 Z -1.0000
G02 X 26.0804 Y 2.2727 Z -1.0000 I -0.0439 J 0.0839
G03 X 26.0332 Y 2.2638 Z -1.0000 I 0.0040 J -0.1502
G01 X 26.0331 Y 2.2556 Z -1.0000
G01 X 26.0478 Y 2.2383 Z -1.0000
G01 X 26.0408 Y 2.2208 Z -1.0000
G02 X 25.9263 Y 2.1664 Z -1.0000 I -0.2420 J 0.3617
G02 X 25.7363 Y 2.1275 Z -1.0000 I -0.2986 J 0.9745
G02 X 25.3171 Y 2.1197 Z -1.0000 I -0.2537 J 2.3693
G01 X 25.2802 Y 2.1593 Z -1.0000
G01 X 25.2736 Y 2.1735 Z -1.0000
G01 X 25.2554 Y 2.1801 Z -1.0000
G02 X 25.2318 Y 2.1848 Z -1.0000 I -0.0000 J 0.0613
G02 X 25.1412 Y 2.2278 Z -1.0000 I 0.4102 J 0.9828
G02 X 24.7544 Y 2.6900 Z -1.0000 I 0.3780 J 0.7091
G02 X 24.7958 Y 3.2976 Z -1.0000 I 0.7806 J 0.2520
G03 X 24.8333 Y 3.4124 Z -1.0000 I -0.4114 J 0.1979
G03 X 24.8493 Y 3.5870 Z -1.0000 I -0.9441 J 0.1745
G03 X 24.8437 Y 3.7595 Z -1.0000 I -2.6652 J 0.0000
G01 X 24.8378 Y 3.7650 Z -1.0000
G01 X 24.8285 Y 3.7608 Z -1.0000
G03 X 24.7892 Y 3.7106 Z -1.0000 I 0.3638 J -0.3249
G02 X 24.6109 Y 3.5464 Z -1.0000 I -0.4415 J 0.3007
G02 X 24.3569 Y 3.4657 Z -1.0000 I -0.3186 J 0.5626
G01 X 24.2722 Y 3.4572 Z -1.0000
G01 X 24.3415 Y 3.4826 Z -1.0000
G03 X 24.4090 Y 3.5112 Z -1.0000 I -0.2605 J 0.7102
G03 X 24.4415 Y 3.5308 Z -1.0000 I -0.0876 J 0.1821
G01 X 24.4723 Y 3.5535 Z -1.0000
G01 X 24.4415 Y 3.5423 Z -1.0000
G02 X 24.4106 Y 3.5312 Z -1.0000 I -0.7654 J 2.0899
G02 X 24.3075 Y 3.4953 Z -1.0000 I -11.8396 J 33.8661
G03 X 24.2098 Y 3.4507 Z -1.0000 I 0.1847 J -0.5339
G03 X 24.1478 Y 3.4032 Z -1.0000 I 0.1495 J -0.2590
G02 X 23.8945 Y 3.2320 Z -1.0000 I -0.5692 J 0.5692
G02 X 23.5489 Y 3.1476 Z -1.0000 I -0.4279 J 1.0027
G03 X 23.3800 Y 3.1321 Z -1.0000 I 0.3760 J -5.0007
G03 X 23.3027 Y 3.1208 Z -1.0000 I 0.1190 J -1.0888
G02 X 23.2265 Y 3.1107 Z -1.0000 I -0.1433 J 0.7876
G01 X 23.2147 Y 3.1134 Z -1.0000
G01 X 23.2035 Y 3.1148 Z -1.0000
G03 X 23.1584 Y 3.0967 Z -1.0000 I 0.0734 J -0.2474
G02 X 23.0020 Y 3.0401 Z -1.0000 I -0.2941 J 0.5686
G02 X 22.7410 Y 3.0048 Z -1.0000 I -0.3451 J 1.5673
G03 X 22.5949 Y 2.9958 Z -1.0000 I 0.4030 J -7.7164
G03 X 22.4819 Y 2.9864 Z -1.0000 I 0.3369 J -4.7288
G02 X 22.3691 Y 2.9827 Z -1.0000 I -0.0851 J 0.8890
G02 X 22.1973 Y 2.9953 Z -1.0000 I 0.0642 J 2.0661
G03 X 22.0253 Y 3.0130 Z -1.0000 I -0.9084 J -7.9472
G03 X 21.9639 Y 3.0168 Z -1.0000 I -0.0935 J -1.0111
G03 X 21.9153 Y 3.0038 Z -1.0000 I -0.0028 J -0.0869
G01 X 21.8974 Y 2.9756 Z -1.0000
G03 X 21.9031 Y 2.9352 Z -1.0000 I 0.0803 J -0.0093
G03 X 21.9436 Y 2.8645 Z -1.0000 I 0.3002 J 0.1249
G03 X 21.9967 Y 2.8005 Z -1.0000 I 0.6996 J 0.5270
G01 X 22.0061 Y 2.7961 Z -1.0000
G01 X 22.0172 Y 2.7977 Z -1.0000
G03 X 22.0984 Y 2.8275 Z -1.0000 I -0.5928 J 1.7456
G02 X 22.3025 Y 2.8738 Z -1.0000 I 0.2543 J -0.6473
G02 X 22.5120 Y 2.8574 Z -1.0000 I 0.0506 J -0.6991
G02 X 23.0029 Y 2.4949 Z -1.0000 I -0.1746 J -0.7501
G02 X 23.1045 Y 1.8401 Z -1.0000 I -0.7846 J -0.4571
G02 X 22.9379 Y 1.5111 Z -1.0000 I -0.7297 J 0.1627
G02 X 22.6289 Y 1.2957 Z -1.0000 I -0.5871 J 0.5129
G01 X 22.5552 Y 1.2675 Z -1.0000
G01 X 22.6135 Y 1.2405 Z -1.0000
G01 X 22.6718 Y 1.2134 Z -1.0000
G01 X 22.5949 Y 1.2192 Z -1.0000
G03 X 22.3132 Y 1.2247 Z -1.0000 I -0.1895 J -2.4968
G03 X 22.2570 Y 1.2068 Z -1.0000 I 0.0040 J -0.1099
G01 X 22.2057 Y 1.1732 Z -1.0000
G01 X 22.2609 Y 1.1488 Z -1.0000
G01 X 22.3160 Y 1.1245 Z -1.0000
G01 X 22.2554 Y 1.0947 Z -1.0000
G02 X 22.1921 Y 1.0759 Z -1.0000 I -0.0870 J 0.1772
G02 X 21.9870 Y 1.0622 Z -1.0000 I -0.2307 J 1.9020
G02 X 21.7796 Y 1.0637 Z -1.0000 I -0.0663 J 5.0470
G02 X 21.7083 Y 1.0701 Z -1.0000 I 0.0164 J 0.5867
G01 X 21.7082 Y 1.0699 Z -1.0000
G00 Z 5.0000

(End cutting path id: path2)


(Start cutting path id: path2)
(Change tool to Default tool)

G00 Z 5.0000
G00 X 21.8176 Y 1.2805

G01 Z -1.0000 F 100.0000(Penetrate)
G01 X 21.8235 Y 1.2939 Z -1.0000 F 3500.0000
G01 X 21.8333 Y 1.2949 Z -1.0000
G01 X 21.8418 Y 1.2835 Z -1.0000
G01 X 21.8401 Y 1.2709 Z -1.0000
G01 X 21.8267 Y 1.2667 Z -1.0000
G01 X 21.8176 Y 1.2806 Z -1.0000
G01 X 21.8176 Y 1.2805 Z -1.0000
G00 Z 5.0000

(End cutting path id: path2)


(Start cutting path id: path2)
(Change tool to Default tool)

G00 Z 5.0000
G00 X 21.9059 Y 1.3532

G01 Z -1.0000 F 100.0000(Penetrate)
G03 X 21.9294 Y 1.4072 Z -1.0000 I -0.2079 J 0.1226 F 3500.0000
G01 X 21.9252 Y 1.4182 Z -1.0000
G01 X 21.9140 Y 1.4169 Z -1.0000
G03 X 21.8876 Y 1.3811 Z -1.0000 I 0.0992 J -0.1007
G01 X 21.8612 Y 1.3772 Z -1.0000
G02 X 21.8384 Y 1.4315 Z -1.0000 I 0.0572 J 0.0560
G03 X 21.8236 Y 1.5812 Z -1.0000 I -0.9675 J -0.0197
G03 X 21.7909 Y 1.6991 Z -1.0000 I -0.6337 J -0.1127
G01 X 21.7961 Y 1.7051 Z -1.0000
G02 X 21.8301 Y 1.6894 Z -1.0000 I -0.0239 J -0.0968
G02 X 21.9014 Y 1.6145 Z -1.0000 I -0.1572 J -0.2208
G02 X 21.9878 Y 1.4426 Z -1.0000 I -0.7920 J -0.5058
G01 X 22.0164 Y 1.3671 Z -1.0000
G01 X 21.9593 Y 1.3406 Z -1.0000
G03 X 21.9025 Y 1.3134 Z -1.0000 I 1.3852 J -2.9751
G03 X 21.8875 Y 1.3054 Z -1.0000 I 0.1069 J -0.2186
G01 X 21.9059 Y 1.3532 Z -1.0000
G01 X 21.9059 Y 1.3532 Z -1.0000
G00 Z 5.0000

(End cutting path id: path2)


(Start cutting path id: path2)
(Change tool to Default tool)

G00 Z 5.0000
G00 X 21.9678 Y 1.1826

G01 Z -1.0000 F 100.0000(Penetrate)
G03 X 22.1206 Y 1.2820 Z -1.0000 I -0.1453 J 0.3905 F 3500.0000
G03 X 22.2593 Y 1.4811 Z -1.0000 I -0.5282 J 0.5158
G03 X 22.3014 Y 1.6023 Z -1.0000 I -0.5313 J 0.2523
G03 X 22.3219 Y 1.7547 Z -1.0000 I -0.8237 J 0.1883
G03 X 22.2598 Y 2.1403 Z -1.0000 I -0.9710 J 0.0413
G03 X 22.0668 Y 2.4282 Z -1.0000 I -0.7160 J -0.2712
G03 X 21.7860 Y 2.5884 Z -1.0000 I -0.4770 J -0.5099
G03 X 21.5187 Y 2.5887 Z -1.0000 I -0.1341 J -0.4581
G03 X 21.3096 Y 2.4727 Z -1.0000 I 0.1506 J -0.5181
G03 X 21.1517 Y 2.2604 Z -1.0000 I 0.4402 J -0.4922
G03 X 21.0910 Y 1.7988 Z -1.0000 I 0.6978 J -0.3265
G03 X 21.3128 Y 1.3558 Z -1.0000 I 0.8589 J 0.1530
G03 X 21.6303 Y 1.1661 Z -1.0000 I 0.4884 J 0.4568
G03 X 21.9678 Y 1.1826 Z -1.0000 I 0.1428 J 0.5400
G01 X 21.9678 Y 1.1826 Z -1.0000
G00 Z 5.0000

(End cutting path id: path2)


(Start cutting path id: path2)
(Change tool to Default tool)

G00 Z 5.0000
G00 X 22.1420 Y 1.4194

G01 Z -1.0000 F 100.0000(Penetrate)
G01 X 22.1465 Y 1.4297 Z -1.0000 F 3500.0000
G01 X 22.1513 Y 1.4287 Z -1.0000
G01 X 22.1546 Y 1.4095 Z -1.0000
G01 X 22.1501 Y 1.3992 Z -1.0000
G01 X 22.1453 Y 1.4002 Z -1.0000
G01 X 22.1420 Y 1.4194 Z -1.0000
G01 X 22.1420 Y 1.4194 Z -1.0000
G00 Z 5.0000

(End cutting path id: path2)


(Start cutting path id: path2)
(Change tool to Default tool)

G00 Z 5.0000
G00 X 22.1100 Y 1.5354

G01 Z -1.0000 F 100.0000(Penetrate)
G03 X 22.1010 Y 1.5643 Z -1.0000 I -0.0508 J 0.0000 F 3500.0000
G01 X 22.0889 Y 1.5660 Z -1.0000
G01 X 22.0626 Y 1.5654 Z -1.0000
G02 X 21.9320 Y 1.6847 Z -1.0000 I 0.5766 J 0.7623
G02 X 21.8937 Y 1.7457 Z -1.0000 I 0.1510 J 0.1373
G01 X 21.9030 Y 1.7567 Z -1.0000
G01 X 21.9184 Y 1.7616 Z -1.0000
G01 X 21.9176 Y 1.7726 Z -1.0000
G01 X 21.9140 Y 1.7838 Z -1.0000
G01 X 21.9214 Y 1.7880 Z -1.0000
G03 X 21.9491 Y 1.7871 Z -1.0000 I 0.0156 J 0.0524
G01 X 21.9561 Y 1.7958 Z -1.0000
G01 X 21.9765 Y 1.8108 Z -1.0000
G02 X 22.1017 Y 1.7494 Z -1.0000 I -0.1440 J -0.4524
G02 X 22.1683 Y 1.6631 Z -1.0000 I -0.1011 J -0.1469
G02 X 22.1652 Y 1.5737 Z -1.0000 I -0.1130 J -0.0408
G02 X 22.1246 Y 1.4911 Z -1.0000 I -1.0534 J 0.4657
G01 X 22.1185 Y 1.4874 Z -1.0000
G01 X 22.1139 Y 1.4913 Z -1.0000
G02 X 22.1100 Y 1.5355 Z -1.0000 I 0.2507 J 0.0442
G01 X 22.1100 Y 1.5354 Z -1.0000
G00 Z 5.0000

(End cutting path id: path2)


(Start cutting path id: path2)
(Change tool to Default tool)

G00 Z 5.0000
G00 X 22.1093 Y 1.8451

G01 Z -1.0000 F 100.0000(Penetrate)
G03 X 22.0214 Y 1.8783 Z -1.0000 I -0.1980 J -0.3914 F 3500.0000
G03 X 21.9336 Y 1.8907 Z -1.0000 I -0.0981 J -0.3782
G01 X 21.8432 Y 1.8931 Z -1.0000
G01 X 21.8920 Y 1.9162 Z -1.0000
G01 X 21.9061 Y 1.9371 Z -1.0000
G01 X 21.8938 Y 1.9465 Z -1.0000
G01 X 21.8861 Y 1.9558 Z -1.0000
G02 X 21.9133 Y 1.9798 Z -1.0000 I 0.0502 J -0.0294
G02 X 22.1404 Y 2.0384 Z -1.0000 I 0.3024 J -0.7029
G01 X 22.1909 Y 2.0073 Z -1.0000
G02 X 22.2283 Y 1.8439 Z -1.0000 I -0.5574 J -0.2139
G01 X 22.2077 Y 1.8081 Z -1.0000
G01 X 22.1947 Y 1.8076 Z -1.0000
G02 X 22.1093 Y 1.8451 Z -1.0000 I 0.3034 J 0.8064
G01 X 22.1093 Y 1.8451 Z -1.0000
G00 Z 5.0000

(End cutting path id: path2)


(Start cutting path id: path2)
(Change tool to Default tool)

G00 Z 5.0000
G00 X 21.8455 Y 1.8364

G01 Z -1.0000 F 100.0000(Penetrate)
G01 X 21.8647 Y 1.8397 Z -1.0000 F 3500.0000
G01 X 21.8750 Y 1.8352 Z -1.0000
G01 X 21.8740 Y 1.8304 Z -1.0000
G01 X 21.8548 Y 1.8271 Z -1.0000
G01 X 21.8445 Y 1.8316 Z -1.0000
G01 X 21.8455 Y 1.8364 Z -1.0000
G01 X 21.8455 Y 1.8364 Z -1.0000
G00 Z 5.0000

(End cutting path id: path2)


(Start cutting path id: path2)
(Change tool to Default tool)

G00 Z 5.0000
G00 X 21.7121 Y 1.6990

G01 Z -1.0000 F 100.0000(Penetrate)
G01 X 21.7121 Y 1.7107 Z -1.0000 F 3500.0000
G01 X 21.7173 Y 1.7114 Z -1.0000
G02 X 21.7377 Y 1.6805 Z -1.0000 I -0.1836 J -0.1433
G01 X 21.7406 Y 1.6691 Z -1.0000
G01 X 21.7337 Y 1.6663 Z -1.0000
G02 X 21.7121 Y 1.6990 Z -1.0000 I 0.0793 J 0.0759
G01 X 21.7121 Y 1.6990 Z -1.0000
G00 Z 5.0000

(End cutting path id: path2)


(Start cutting path id: path2)
(Change tool to Default tool)

G00 Z 5.0000
G00 X 21.6329 Y 1.9087

G01 Z -1.0000 F 100.0000(Penetrate)
G01 X 21.6350 Y 1.9135 Z -1.0000 F 3500.0000
G02 X 21.6599 Y 1.9356 Z -1.0000 I 0.1966 J -0.1968
G01 X 21.6653 Y 1.9353 Z -1.0000
G01 X 21.6657 Y 1.9298 Z -1.0000
G02 X 21.6389 Y 1.9054 Z -1.0000 I -0.0860 J 0.0674
G01 X 21.6329 Y 1.9087 Z -1.0000
G01 X 21.6329 Y 1.9087 Z -1.0000
G00 Z 5.0000

(End cutting path id: path2)


(Start cutting path id: path2)
(Change tool to Default tool)

G00 Z 5.0000
G00 X 21.5269 Y 1.8458

G01 Z -1.0000 F 100.0000(Penetrate)
G01 X 21.5133 Y 1.8428 Z -1.0000 F 3500.0000
G01 X 21.5140 Y 1.8105 Z -1.0000
G01 X 21.5280 Y 1.7963 Z -1.0000
G01 X 21.5367 Y 1.8006 Z -1.0000
G03 X 21.5370 Y 1.8274 Z -1.0000 I -0.0591 J 0.0139
G01 X 21.5269 Y 1.8458 Z -1.0000
G01 X 21.5269 Y 1.8458 Z -1.0000
G00 Z 5.0000

(End cutting path id: path2)


(Start cutting path id: path2)
(Change tool to Default tool)

G00 Z 5.0000
G00 X 21.4517 Y 1.8249

G01 Z -1.0000 F 100.0000(Penetrate)
G03 X 21.4382 Y 1.8645 Z -1.0000 I -0.1136 J -0.0165 F 3500.0000
G01 X 21.4214 Y 1.8791 Z -1.0000
G01 X 21.4019 Y 1.8715 Z -1.0000
G03 X 21.3962 Y 1.8284 Z -1.0000 I 0.0603 J -0.0299
G01 X 21.4288 Y 1.8000 Z -1.0000
G01 X 21.4517 Y 1.8249 Z -1.0000
G01 X 21.4517 Y 1.8249 Z -1.0000
G00 Z 5.0000

(End cutting path id: path2)


(Start cutting path id: path2)
(Change tool to Default tool)

G00 Z 5.0000
G00 X 21.4466 Y 1.9545

G01 Z -1.0000 F 100.0000(Penetrate)
G02 X 21.2777 Y 2.0392 Z -1.0000 I 0.4820 J 1.1718 F 3500.0000
G01 X 21.2636 Y 2.0640 Z -1.0000
G01 X 21.2911 Y 2.0620 Z -1.0000
G01 X 21.3127 Y 2.0674 Z -1.0000
G03 X 21.3459 Y 2.1122 Z -1.0000 I -0.0979 J 0.1072
G01 X 21.3732 Y 2.1695 Z -1.0000
G01 X 21.4015 Y 2.1230 Z -1.0000
G03 X 21.4340 Y 2.0801 Z -1.0000 I 0.2245 J 0.1365
G03 X 21.5073 Y 2.0097 Z -1.0000 I 0.6863 J 0.6412
G01 X 21.5079 Y 1.9652 Z -1.0000
G02 X 21.4466 Y 1.9545 Z -1.0000 I -0.0392 J 0.0430
G01 X 21.4466 Y 1.9545 Z -1.0000
G00 Z 5.0000

(End cutting path id: path2)


(Start cutting path id: path2)
(Change tool to Default tool)

G00 Z 5.0000
G00 X 21.5511 Y 2.0590

G01 Z -1.0000 F 100.0000(Penetrate)
G02 X 21.4506 Y 2.1940 Z -1.0000 I 0.4913 J 0.4708 F 3500.0000
G02 X 21.3952 Y 2.3337 Z -1.0000 I 0.4724 J 0.2681
G01 X 21.3858 Y 2.3722 Z -1.0000
G01 X 21.4112 Y 2.3376 Z -1.0000
G03 X 21.4390 Y 2.3077 Z -1.0000 I 0.1409 J 0.1033
G01 X 21.4520 Y 2.3030 Z -1.0000
G01 X 21.4567 Y 2.3080 Z -1.0000
G01 X 21.4504 Y 2.3235 Z -1.0000
G01 X 21.4537 Y 2.3372 Z -1.0000
G02 X 21.5134 Y 2.3503 Z -1.0000 I 0.0644 J -0.1513
G03 X 21.5374 Y 2.3556 Z -1.0000 I -0.0019 J 0.0659
G01 X 21.5489 Y 2.3655 Z -1.0000
G01 X 21.5674 Y 2.3645 Z -1.0000
G02 X 21.5921 Y 2.2752 Z -1.0000 I -0.2378 J -0.1137
G03 X 21.6061 Y 2.1713 Z -1.0000 I 1.2885 J 0.1208
G03 X 21.6231 Y 2.0998 Z -1.0000 I 0.6156 J 0.1085
G01 X 21.6036 Y 2.0513 Z -1.0000
G01 X 21.5511 Y 2.0590 Z -1.0000
G01 X 21.5511 Y 2.0590 Z -1.0000
G00 Z 5.0000

(End cutting path id: path2)


(Start cutting path id: path2)
(Change tool to Default tool)

G00 Z 5.0000
G00 X 21.6022 Y 2.0644

G01 Z -1.0000 F 100.0000(Penetrate)
G01 X 21.5969 Y 2.0823 Z -1.0000 F 3500.0000
G01 X 21.5873 Y 2.0875 Z -1.0000
G01 X 21.5802 Y 2.0821 Z -1.0000
G01 X 21.5813 Y 2.0644 Z -1.0000
G03 X 21.5918 Y 2.0438 Z -1.0000 I 0.1063 J 0.0410
G01 X 21.5962 Y 2.0414 Z -1.0000
G01 X 21.5996 Y 2.0440 Z -1.0000
G03 X 21.6022 Y 2.0644 Z -1.0000 I -0.0787 J 0.0205
G01 X 21.6022 Y 2.0644 Z -1.0000
G00 Z 5.0000

(End cutting path id: path2)


(Start cutting path id: path2)
(Change tool to Default tool)

G00 Z 5.0000
G00 X 21.6613 Y 2.1513

G01 Z -1.0000 F 100.0000(Penetrate)
G02 X 21.6679 Y 2.4524 Z -1.0000 I 1.9786 J 0.1071 F 3500.0000
G02 X 21.6966 Y 2.5098 Z -1.0000 I 0.0893 J -0.0088
G01 X 21.7034 Y 2.5094 Z -1.0000
G01 X 21.7051 Y 2.4996 Z -1.0000
G01 X 21.7104 Y 2.4808 Z -1.0000
G03 X 21.7582 Y 2.4563 Z -1.0000 I 0.0811 J 0.0993
G02 X 21.8198 Y 2.4376 Z -1.0000 I -0.2554 J -0.9516
G02 X 21.8580 Y 2.4224 Z -1.0000 I -0.1321 J -0.3887
G01 X 21.8955 Y 2.4054 Z -1.0000
G01 X 21.8481 Y 2.3565 Z -1.0000
G03 X 21.8069 Y 2.3035 Z -1.0000 I 0.2207 J -0.2139
G03 X 21.7669 Y 2.2243 Z -1.0000 I 0.4585 J -0.2818
G02 X 21.7288 Y 2.1474 Z -1.0000 I -0.5422 J 0.2204
G01 X 21.7178 Y 2.1412 Z -1.0000
G01 X 21.7074 Y 2.1358 Z -1.0000
G03 X 21.6971 Y 2.1106 Z -1.0000 I 0.0540 J -0.0367
G01 X 21.6799 Y 2.1058 Z -1.0000
G02 X 21.6613 Y 2.1513 Z -1.0000 I 0.0564 J 0.0495
G01 X 21.6613 Y 2.1513 Z -1.0000
G00 Z 5.0000

(End cutting path id: path2)


(Start cutting path id: path2)
(Change tool to Default tool)

G00 Z 5.0000
G00 X 21.8480 Y 2.0332

G01 Z -1.0000 F 100.0000(Penetrate)
G03 X 21.8687 Y 2.0717 Z -1.0000 I -0.0619 J 0.0581 F 3500.0000
G01 X 21.8630 Y 2.0962 Z -1.0000
G01 X 21.8423 Y 2.1013 Z -1.0000
G03 X 21.7998 Y 2.0697 Z -1.0000 I 0.0427 J -0.1018
G01 X 21.7574 Y 2.0183 Z -1.0000
G01 X 21.7908 Y 2.1106 Z -1.0000
G02 X 21.8340 Y 2.1968 Z -1.0000 I 0.3885 J -0.1407
G02 X 21.9046 Y 2.2837 Z -1.0000 I 0.4661 J -0.3063
G02 X 21.9875 Y 2.3577 Z -1.0000 I 0.6629 J -0.6589
G01 X 22.0051 Y 2.3633 Z -1.0000
G01 X 22.0095 Y 2.3595 Z -1.0000
G01 X 22.0068 Y 2.3546 Z -1.0000
G01 X 22.0028 Y 2.3433 Z -1.0000
G03 X 22.0568 Y 2.2629 Z -1.0000 I 0.4651 J 0.2540
G02 X 22.1196 Y 2.1539 Z -1.0000 I -0.3046 J -0.2481
G01 X 22.1057 Y 2.1337 Z -1.0000
G03 X 21.9520 Y 2.0982 Z -1.0000 I 0.0000 J -0.3499
G03 X 21.8570 Y 2.0121 Z -1.0000 I 0.1015 J -0.2075
G01 X 21.8443 Y 1.9994 Z -1.0000
G01 X 21.8294 Y 1.9952 Z -1.0000
G01 X 21.8258 Y 2.0011 Z -1.0000
G02 X 21.8480 Y 2.0332 Z -1.0000 I 0.1170 J -0.0569
G01 X 21.8480 Y 2.0332 Z -1.0000
G00 Z 5.0000

(End cutting path id: path2)


(Start cutting path id: path2)
(Change tool to Default tool)

G00 Z 5.0000
G00 X 21.3726 Y 2.4043

G01 Z -1.0000 F 100.0000(Penetrate)
G01 X 21.3771 Y 2.4146 Z -1.0000 F 3500.0000
G01 X 21.3819 Y 2.4136 Z -1.0000
G01 X 21.3851 Y 2.3944 Z -1.0000
G01 X 21.3807 Y 2.3841 Z -1.0000
G01 X 21.3759 Y 2.3851 Z -1.0000
G01 X 21.3726 Y 2.4043 Z -1.0000
G01 X 21.3726 Y 2.4043 Z -1.0000
G00 Z 5.0000

(End cutting path id: path2)


(Start cutting path id: path2)
(Change tool to Default tool)

G00 Z 5.0000
G00 X 21.3213 Y 1.7134

G01 Z -1.0000 F 100.0000(Penetrate)
G03 X 21.3541 Y 1.7217 Z -1.0000 I -0.0645 J 0.3230 F 3500.0000
G01 X 21.3559 Y 1.7242 Z -1.0000
G03 X 21.3295 Y 1.8360 Z -1.0000 I -0.2496 J 0.0000
G03 X 21.2778 Y 1.8802 Z -1.0000 I -0.0782 J -0.0392
G02 X 21.2535 Y 1.8934 Z -1.0000 I 0.0225 J 0.0704
G01 X 21.2482 Y 1.9045 Z -1.0000
G01 X 21.2539 Y 1.9099 Z -1.0000
G02 X 21.2778 Y 1.9035 Z -1.0000 I -0.0018 J -0.0545
G03 X 21.3040 Y 1.8963 Z -1.0000 I 0.0293 J 0.0550
G01 X 21.3124 Y 1.9018 Z -1.0000
G01 X 21.3219 Y 1.9084 Z -1.0000
G02 X 21.3944 Y 1.9006 Z -1.0000 I -0.0060 J -0.4019
G03 X 21.4714 Y 1.8857 Z -1.0000 I 1.6798 J 8.4628
G03 X 21.5175 Y 1.8774 Z -1.0000 I 0.4851 J 2.5659
G02 X 21.5617 Y 1.8657 Z -1.0000 I -0.0417 J -0.2461
G01 X 21.5787 Y 1.8550 Z -1.0000
G01 X 21.5720 Y 1.7832 Z -1.0000
G02 X 21.3608 Y 1.7118 Z -1.0000 I -0.2423 J 0.3687
G01 X 21.3213 Y 1.7134 Z -1.0000
G01 X 21.3213 Y 1.7134 Z -1.0000
G00 Z 5.0000

(End cutting path id: path2)


(Start cutting path id: path2)
(Change tool to Default tool)

G00 Z 5.0000
G00 X 21.4560 Y 1.5489

G01 Z -1.0000 F 100.0000(Penetrate)
G03 X 21.4061 Y 1.5823 Z -1.0000 I -0.1010 J -0.0967 F 3500.0000
G03 X 21.3338 Y 1.5969 Z -1.0000 I -0.0772 J -0.1965
G01 X 21.2559 Y 1.5987 Z -1.0000
G01 X 21.3374 Y 1.6123 Z -1.0000
G03 X 21.4572 Y 1.6503 Z -1.0000 I -0.0727 J 0.4368
G03 X 21.5549 Y 1.7172 Z -1.0000 I -0.1713 J 0.3550
G02 X 21.6070 Y 1.7604 Z -1.0000 I 0.3916 J -0.4193
G01 X 21.6192 Y 1.7644 Z -1.0000
G01 X 21.6388 Y 1.7422 Z -1.0000
G02 X 21.6089 Y 1.6810 Z -1.0000 I -0.1040 J 0.0128
G03 X 21.5917 Y 1.6561 Z -1.0000 I 0.0592 J -0.0592
G01 X 21.5925 Y 1.6445 Z -1.0000
G01 X 21.5947 Y 1.6322 Z -1.0000
G02 X 21.5855 Y 1.6098 Z -1.0000 I -0.0620 J 0.0123
G01 X 21.5702 Y 1.6034 Z -1.0000
G01 X 21.5480 Y 1.6174 Z -1.0000
G01 X 21.5242 Y 1.6339 Z -1.0000
G01 X 21.5075 Y 1.6297 Z -1.0000
G01 X 21.5008 Y 1.6109 Z -1.0000
G03 X 21.5129 Y 1.5767 Z -1.0000 I 0.0767 J 0.0078
G02 X 21.5291 Y 1.5200 Z -1.0000 I -0.0843 J -0.0547
G01 X 21.5115 Y 1.5028 Z -1.0000
G01 X 21.5017 Y 1.5063 Z -1.0000
G02 X 21.4560 Y 1.5489 Z -1.0000 I 0.3575 J 0.4290
G01 X 21.4560 Y 1.5489 Z -1.0000
G00 Z 5.0000

(End cutting path id: path2)


(Start cutting path id: path2)
(Change tool to Default tool)

G00 Z 5.0000
G00 X 21.5250 Y 1.3639

G01 Z -1.0000 F 100.0000(Penetrate)
G03 X 21.6077 Y 1.5079 Z -1.0000 I -0.6960 J 0.4956 F 3500.0000
G03 X 21.6554 Y 1.6528 Z -1.0000 I -0.6566 J 0.2964
G01 X 21.6801 Y 1.6824 Z -1.0000
G01 X 21.7022 Y 1.6720 Z -1.0000
G03 X 21.7167 Y 1.6477 Z -1.0000 I 0.0592 J 0.0189
G01 X 21.7320 Y 1.6413 Z -1.0000
G02 X 21.8357 Y 1.5472 Z -1.0000 I 0.0000 J -0.1042
G02 X 21.7567 Y 1.3878 Z -1.0000 I -0.1674 J -0.0163
G01 X 21.7415 Y 1.3850 Z -1.0000
G02 X 21.6862 Y 1.4020 Z -1.0000 I 0.0582 J 0.2885
G03 X 21.6324 Y 1.4086 Z -1.0000 I -0.0385 J -0.0921
G03 X 21.5778 Y 1.3853 Z -1.0000 I 0.0184 J -0.1191
G03 X 21.5298 Y 1.3429 Z -1.0000 I 0.2697 J -0.3535
G01 X 21.5252 Y 1.3317 Z -1.0000
G01 X 21.5209 Y 1.3224 Z -1.0000
G01 X 21.5088 Y 1.3181 Z -1.0000
G01 X 21.5044 Y 1.3243 Z -1.0000
G02 X 21.5250 Y 1.3639 Z -1.0000 I 0.1523 J -0.0539
G01 X 21.5250 Y 1.3639 Z -1.0000
G00 Z 5.0000

(End cutting path id: path2)


(Start cutting path id: path2)
(Change tool to Default tool)

G00 Z 5.0000
G00 X 22.7241 Y 1.6933

G01 Z -1.0000 F 100.0000(Penetrate)
G01 X 22.7283 Y 1.7111 Z -1.0000 F 3500.0000
G01 X 22.7170 Y 1.7241 Z -1.0000
G03 X 22.6716 Y 1.7238 Z -1.0000 I -0.0222 J -0.0580
G01 X 22.6640 Y 1.7028 Z -1.0000
G01 X 22.6935 Y 1.6818 Z -1.0000
G01 X 22.7240 Y 1.6933 Z -1.0000
G01 X 22.7241 Y 1.6933 Z -1.0000
G00 Z 5.0000

(End cutting path id: path2)


(Start cutting path id: path2)
(Change tool to Default tool)

G00 Z 5.0000
G00 X 22.6948 Y 1.9798

G01 Z -1.0000 F 100.0000(Penetrate)
G01 X 22.6858 Y 2.0016 Z -1.0000 F 3500.0000
G01 X 22.6640 Y 2.0106 Z -1.0000
G01 X 22.6456 Y 1.9937 Z -1.0000
G01 X 22.6602 Y 1.9657 Z -1.0000
G01 X 22.6842 Y 1.9640 Z -1.0000
G01 X 22.6948 Y 1.9798 Z -1.0000
G01 X 22.6948 Y 1.9798 Z -1.0000
G00 Z 5.0000

(End cutting path id: path2)


(Start cutting path id: path2)
(Change tool to Default tool)

G00 Z 5.0000
G00 X 22.7948 Y 2.0260

G01 Z -1.0000 F 100.0000(Penetrate)
G01 X 22.7938 Y 2.0356 Z -1.0000 F 3500.0000
G01 X 22.7803 Y 2.0414 Z -1.0000
G01 X 22.7618 Y 2.0360 Z -1.0000
G01 X 22.7563 Y 2.0260 Z -1.0000
G01 X 22.7607 Y 2.0150 Z -1.0000
G01 X 22.7708 Y 2.0106 Z -1.0000
G01 X 22.7833 Y 2.0143 Z -1.0000
G01 X 22.7948 Y 2.0260 Z -1.0000
G01 X 22.7948 Y 2.0260 Z -1.0000
G00 Z 5.0000

(End cutting path id: path2)


(Start cutting path id: path2)
(Change tool to Default tool)

G00 Z 5.0000
G00 X 22.7563 Y 2.2171

G01 Z -1.0000 F 100.0000(Penetrate)
G03 X 22.7542 Y 2.2385 Z -1.0000 I -0.1067 J -0.0000 F 3500.0000
G03 X 22.7468 Y 2.2637 Z -1.0000 I -0.1574 J -0.0323
G01 X 22.7188 Y 2.2701 Z -1.0000
G01 X 22.7058 Y 2.2255 Z -1.0000
G01 X 22.7349 Y 2.1989 Z -1.0000
G01 X 22.7563 Y 2.2171 Z -1.0000
G01 X 22.7563 Y 2.2171 Z -1.0000
G00 Z 5.0000

(End cutting path id: path2)


(Start cutting path id: path2)
(Change tool to Default tool)

G00 Z 5.0000
G00 X 22.6619 Y 2.1730

G01 Z -1.0000 F 100.0000(Penetrate)
G01 X 22.6565 Y 2.1833 Z -1.0000 F 3500.0000
G01 X 22.6427 Y 2.1814 Z -1.0000
G03 X 22.6244 Y 2.1480 Z -1.0000 I 0.0331 J -0.0399
G01 X 22.6371 Y 2.1376 Z -1.0000
G01 X 22.6514 Y 2.1482 Z -1.0000
G03 X 22.6619 Y 2.1730 Z -1.0000 I -0.0527 J 0.0370
G01 X 22.6619 Y 2.1730 Z -1.0000
G00 Z 5.0000

(End cutting path id: path2)


(Start cutting path id: path2)
(Change tool to Default tool)

G00 Z 5.0000
G00 X 22.5563 Y 2.4920

G01 Z -1.0000 F 100.0000(Penetrate)
G03 X 22.5189 Y 2.5565 Z -1.0000 I -0.0743 J 0.0000 F 3500.0000
G03 X 22.4459 Y 2.5553 Z -1.0000 I -0.0355 J -0.0618
G01 X 22.4429 Y 2.5433 Z -1.0000
G03 X 22.4729 Y 2.5083 Z -1.0000 I 0.1074 J 0.0617
G03 X 22.5389 Y 2.4777 Z -1.0000 I 0.0952 J 0.1191
G01 X 22.5563 Y 2.4920 Z -1.0000
G01 X 22.5563 Y 2.4920 Z -1.0000
G00 Z 5.0000

(End cutting path id: path2)


(Start cutting path id: path2)
(Change tool to Default tool)

G00 Z 5.0000
G00 X 23.4431 Y 3.2767

G01 Z -1.0000 F 100.0000(Penetrate)
G01 X 23.5181 Y 3.3550 Z -1.0000 F 3500.0000
G01 X 23.4361 Y 3.2868 Z -1.0000
G02 X 23.3527 Y 3.2206 Z -1.0000 I -1.4572 J 1.7505
G02 X 23.2950 Y 3.1801 Z -1.0000 I -0.5985 J 0.7915
G01 X 23.2820 Y 3.1617 Z -1.0000
G01 X 23.2892 Y 3.1561 Z -1.0000
G03 X 23.3635 Y 3.2046 Z -1.0000 I -0.2422 J 0.4523
G03 X 23.4431 Y 3.2767 Z -1.0000 I -0.4651 J 0.5936
G01 X 23.4431 Y 3.2767 Z -1.0000
G00 Z 5.0000

(End cutting path id: path2)


(Start cutting path id: path2)
(Change tool to Default tool)

G00 Z 5.0000
G00 X 24.4600 Y 4.1687

G01 Z -1.0000 F 100.0000(Penetrate)
G01 X 24.4530 Y 4.1420 Z -1.0000 F 3500.0000
G01 X 24.4597 Y 4.1072 Z -1.0000
G03 X 24.4632 Y 4.1340 Z -1.0000 I -0.1029 J 0.0273
G03 X 24.4600 Y 4.1687 Z -1.0000 I -0.1796 J 0.0007
G01 X 24.4600 Y 4.1687 Z -1.0000
G00 Z 5.0000

(End cutting path id: path2)


(Start cutting path id: path2)
(Change tool to Default tool)

G00 Z 5.0000
G00 X 24.4751 Y 4.2997

G01 Z -1.0000 F 100.0000(Penetrate)
G01 X 24.4681 Y 4.2728 Z -1.0000 F 3500.0000
G01 X 24.4751 Y 4.2458 Z -1.0000
G03 X 24.4786 Y 4.2728 Z -1.0000 I -0.1023 J 0.0269
G03 X 24.4751 Y 4.2997 Z -1.0000 I -0.1058 J -0.0000
G01 X 24.4751 Y 4.2997 Z -1.0000
G00 Z 5.0000

(End cutting path id: path2)


(Start cutting path id: path2)
(Change tool to Default tool)

G00 Z 5.0000
G00 X 24.4905 Y 4.5459

G01 Z -1.0000 F 100.0000(Penetrate)
G01 X 24.4835 Y 4.5190 Z -1.0000 F 3500.0000
G01 X 24.4905 Y 4.4920 Z -1.0000
G03 X 24.4940 Y 4.5190 Z -1.0000 I -0.1023 J 0.0269
G03 X 24.4905 Y 4.5459 Z -1.0000 I -0.1058 J -0.0000
G01 X 24.4905 Y 4.5459 Z -1.0000
G00 Z 5.0000

(End cutting path id: path2)


(Start cutting path id: path2)
(Change tool to Default tool)

G00 Z 5.0000
G00 X 24.9009 Y 3.2432

G01 Z -1.0000 F 100.0000(Penetrate)
G03 X 24.9242 Y 3.3033 Z -1.0000 I -0.1108 J 0.0776 F 3500.0000
G01 X 24.9108 Y 3.3186 Z -1.0000
G01 X 24.9000 Y 3.3140 Z -1.0000
G01 X 24.8954 Y 3.3026 Z -1.0000
G01 X 24.8918 Y 3.2878 Z -1.0000
G02 X 24.8655 Y 3.2449 Z -1.0000 I -0.3092 J 0.1600
G03 X 24.8181 Y 3.1403 Z -1.0000 I 0.2394 J -0.1715
G01 X 24.8308 Y 3.0960 Z -1.0000
G01 X 24.8374 Y 3.0970 Z -1.0000
G03 X 24.8579 Y 3.1469 Z -1.0000 I -0.2361 J 0.1257
G02 X 24.8795 Y 3.2054 Z -1.0000 I 0.4507 J -0.1333
G02 X 24.9009 Y 3.2432 Z -1.0000 I 0.2086 J -0.0932
G01 X 24.9009 Y 3.2432 Z -1.0000
G00 Z 5.0000

(End cutting path id: path2)


(Start cutting path id: path2)
(Change tool to Default tool)

G00 Z 5.0000
G00 X 24.9852 Y 3.0808

G01 Z -1.0000 F 100.0000(Penetrate)
G03 X 24.9953 Y 3.1403 Z -1.0000 I -0.1073 J 0.0489 F 3500.0000
G03 X 24.9744 Y 3.2002 Z -1.0000 I -0.1297 J -0.0118
G01 X 24.9459 Y 3.2435 Z -1.0000
G01 X 24.9218 Y 3.1925 Z -1.0000
G03 X 24.8888 Y 3.0770 Z -1.0000 I 0.3344 J -0.1581
G01 X 24.9056 Y 3.0525 Z -1.0000
G03 X 24.9568 Y 3.0547 Z -1.0000 I 0.0219 J 0.0848
G01 X 24.9852 Y 3.0808 Z -1.0000
G01 X 24.9852 Y 3.0808 Z -1.0000
G00 Z 5.0000

(End cutting path id: path2)


(Start cutting path id: path2)
(Change tool to Default tool)

G00 Z 5.0000
G00 X 25.0800 Y 3.0724

G01 Z -1.0000 F 100.0000(Penetrate)
G01 X 25.0746 Y 3.0824 Z -1.0000 F 3500.0000
G01 X 25.0560 Y 3.0878 Z -1.0000
G01 X 25.0425 Y 3.0820 Z -1.0000
G01 X 25.0415 Y 3.0724 Z -1.0000
G01 X 25.0531 Y 3.0606 Z -1.0000
G01 X 25.0655 Y 3.0570 Z -1.0000
G01 X 25.0757 Y 3.0614 Z -1.0000
G01 X 25.0800 Y 3.0724 Z -1.0000
G01 X 25.0800 Y 3.0724 Z -1.0000
G00 Z 5.0000

(End cutting path id: path2)


(Start cutting path id: path2)
(Change tool to Default tool)

G00 Z 5.0000
G00 X 25.1149 Y 3.1338

G01 Z -1.0000 F 100.0000(Penetrate)
G03 X 25.0739 Y 3.1879 Z -1.0000 I -0.4113 J -0.2693 F 3500.0000
G01 X 25.0675 Y 3.1881 Z -1.0000
G03 X 25.0615 Y 3.1178 Z -1.0000 I 0.0387 J -0.0387
G03 X 25.1491 Y 3.0724 Z -1.0000 I 0.0877 J 0.0619
G01 X 25.1149 Y 3.1338 Z -1.0000
G01 X 25.1149 Y 3.1338 Z -1.0000
G00 Z 5.0000

(End cutting path id: path2)


(Start cutting path id: path2)
(Change tool to Default tool)

G00 Z 5.0000
G00 X 25.0800 Y 3.2937

G01 Z -1.0000 F 100.0000(Penetrate)
G01 X 25.0780 Y 3.2985 Z -1.0000 F 3500.0000
G03 X 25.0531 Y 3.3206 Z -1.0000 I -0.1966 J -0.1968
G01 X 25.0476 Y 3.3203 Z -1.0000
G01 X 25.0473 Y 3.3148 Z -1.0000
G03 X 25.0740 Y 3.2904 Z -1.0000 I 0.0860 J 0.0674
G01 X 25.0800 Y 3.2937 Z -1.0000
G01 X 25.0800 Y 3.2937 Z -1.0000
G00 Z 5.0000

(End cutting path id: path2)


(Start cutting path id: path2)
(Change tool to Default tool)

G00 Z 5.0000
G00 X 25.3398 Y 3.0874

G01 Z -1.0000 F 100.0000(Penetrate)
G01 X 25.3432 Y 3.1259 Z -1.0000 F 3500.0000
G03 X 25.3319 Y 3.1089 Z -1.0000 I 0.0390 J -0.0381
G03 X 25.3175 Y 3.0647 Z -1.0000 I 0.2608 J -0.1095
G01 X 25.3237 Y 3.0612 Z -1.0000
G03 X 25.3398 Y 3.0874 Z -1.0000 I -0.0492 J 0.0482
G01 X 25.3398 Y 3.0874 Z -1.0000
G00 Z 5.0000

(End cutting path id: path2)


(Start cutting path id: path2)
(Change tool to Default tool)

G00 Z 5.0000
G00 X 25.4540 Y 3.0341

G01 Z -1.0000 F 100.0000(Penetrate)
G03 X 25.4818 Y 3.0995 Z -1.0000 I -0.1036 J 0.0827 F 3500.0000
G01 X 25.4651 Y 3.1185 Z -1.0000
G03 X 25.4152 Y 3.0912 Z -1.0000 I 0.0000 J -0.0592
G03 X 25.3878 Y 2.9974 Z -1.0000 I 0.1468 J -0.0937
G01 X 25.4012 Y 2.9895 Z -1.0000
G03 X 25.4540 Y 3.0341 Z -1.0000 I -0.0858 J 0.1551
G01 X 25.4540 Y 3.0341 Z -1.0000
G00 Z 5.0000

(End cutting path id: path2)


(Start cutting path id: path2)
(Change tool to Default tool)

G00 Z 5.0000
G00 X 25.4133 Y 2.9409

G01 Z -1.0000 F 100.0000(Penetrate)
G01 X 25.4007 Y 2.9596 Z -1.0000 F 3500.0000
G01 X 25.3877 Y 2.9647 Z -1.0000
G01 X 25.3817 Y 2.9585 Z -1.0000
G03 X 25.3885 Y 2.9326 Z -1.0000 I 0.0579 J 0.0014
G01 X 25.4061 Y 2.9256 Z -1.0000
G01 X 25.4133 Y 2.9409 Z -1.0000
G01 X 25.4133 Y 2.9409 Z -1.0000
G00 Z 5.0000

(End cutting path id: path2)


(Start cutting path id: path2)
(Change tool to Default tool)

G00 Z 5.0000
G00 X 25.5284 Y 2.9349

G01 Z -1.0000 F 100.0000(Penetrate)
G03 X 25.5845 Y 2.9678 Z -1.0000 I -0.2556 J 0.5010 F 3500.0000
G01 X 25.5850 Y 2.9726 Z -1.0000
G03 X 25.4974 Y 2.9924 Z -1.0000 I -0.0594 J -0.0594
G03 X 25.4494 Y 2.9243 Z -1.0000 I 0.0243 J -0.0681
G01 X 25.4612 Y 2.9139 Z -1.0000
G03 X 25.5284 Y 2.9349 Z -1.0000 I -0.0279 J 0.2075
G01 X 25.5284 Y 2.9349 Z -1.0000
G00 Z 5.0000

(End cutting path id: path2)


(Start cutting path id: path2)
(Change tool to Default tool)

G00 Z 5.0000
G00 X 25.5234 Y 2.8213

G01 Z -1.0000 F 100.0000(Penetrate)
G01 X 25.5426 Y 2.8246 Z -1.0000 F 3500.0000
G01 X 25.5529 Y 2.8201 Z -1.0000
G01 X 25.5519 Y 2.8153 Z -1.0000
G01 X 25.5327 Y 2.8120 Z -1.0000
G01 X 25.5224 Y 2.8165 Z -1.0000
G01 X 25.5234 Y 2.8213 Z -1.0000
G01 X 25.5234 Y 2.8213 Z -1.0000
G00 Z 5.0000

(End cutting path id: path2)


(Start cutting path id: path2)
(Change tool to Default tool)

G00 Z 5.0000
G00 X 25.4357 Y 2.7075

G01 Z -1.0000 F 100.0000(Penetrate)
G01 X 25.4337 Y 2.7282 Z -1.0000 F 3500.0000
G01 X 25.4532 Y 2.7334 Z -1.0000
G01 X 25.4494 Y 2.7475 Z -1.0000
G01 X 25.4235 Y 2.7430 Z -1.0000
G01 X 25.4200 Y 2.6997 Z -1.0000
G03 X 25.4393 Y 2.6695 Z -1.0000 I 0.0946 J 0.0392
G01 X 25.4464 Y 2.6710 Z -1.0000
G01 X 25.4468 Y 2.6889 Z -1.0000
G01 X 25.4357 Y 2.7075 Z -1.0000
G01 X 25.4357 Y 2.7075 Z -1.0000
G00 Z 5.0000

(End cutting path id: path2)


(Start cutting path id: path2)
(Change tool to Default tool)

G00 Z 5.0000
G00 X 25.2612 Y 2.6848

G01 Z -1.0000 F 100.0000(Penetrate)
G01 X 25.2577 Y 2.6931 Z -1.0000 F 3500.0000
G01 X 25.2429 Y 2.6937 Z -1.0000
G03 X 25.2234 Y 2.6811 Z -1.0000 I 0.0197 J -0.0518
G01 X 25.2185 Y 2.6693 Z -1.0000
G01 X 25.2349 Y 2.6578 Z -1.0000
G01 X 25.2612 Y 2.6848 Z -1.0000
G01 X 25.2612 Y 2.6848 Z -1.0000
G00 Z 5.0000

(End cutting path id: path2)


(Start cutting path id: path2)
(Change tool to Default tool)

G00 Z 5.0000
G00 X 25.1950 Y 2.6257

G01 Z -1.0000 F 100.0000(Penetrate)
G03 X 25.1634 Y 2.6452 Z -1.0000 I -0.0576 J -0.0577 F 3500.0000
G01 X 25.1438 Y 2.6429 Z -1.0000
G01 X 25.1361 Y 2.6271 Z -1.0000
G03 X 25.1500 Y 2.5887 Z -1.0000 I 0.0879 J 0.0100
G03 X 25.1790 Y 2.5662 Z -1.0000 I 0.0470 J 0.0308
G01 X 25.2012 Y 2.5714 Z -1.0000
G01 X 25.2096 Y 2.5955 Z -1.0000
G03 X 25.1950 Y 2.6257 Z -1.0000 I -0.0505 J -0.0058
G01 X 25.1950 Y 2.6257 Z -1.0000
G00 Z 5.0000

(End cutting path id: path2)


(Start cutting path id: path2)
(Change tool to Default tool)

G00 Z 5.0000
G00 X 25.1262 Y 2.4953

G01 Z -1.0000 F 100.0000(Penetrate)
G01 X 25.1623 Y 2.5338 Z -1.0000 F 3500.0000
G01 X 25.1262 Y 2.5723 Z -1.0000
G03 X 25.0852 Y 2.5995 Z -1.0000 I -0.0790 J -0.0742
G03 X 25.0235 Y 2.6107 Z -1.0000 I -0.0617 J -0.1648
G03 X 24.9626 Y 2.6050 Z -1.0000 I -0.0000 J -0.3260
G01 X 24.9569 Y 2.5981 Z -1.0000
G03 X 24.9952 Y 2.4951 Z -1.0000 I 0.1579 J 0.0000
G03 X 25.0785 Y 2.4568 Z -1.0000 I 0.0834 J 0.0718
G01 X 25.0885 Y 2.4603 Z -1.0000
G03 X 25.1262 Y 2.4953 Z -1.0000 I -0.2343 J 0.2905
G01 X 25.1262 Y 2.4953 Z -1.0000
G00 Z 5.0000

(End cutting path id: path2)


(Start cutting path id: path2)
(Change tool to Default tool)

G00 Z 5.0000
G00 X 25.0090 Y 2.4750

G01 Z -1.0000 F 100.0000(Penetrate)
G01 X 24.9995 Y 2.4816 Z -1.0000 F 3500.0000
G01 X 24.9866 Y 2.4792 Z -1.0000
G01 X 24.9779 Y 2.4804 Z -1.0000
G01 X 24.9723 Y 2.4944 Z -1.0000
G01 X 24.9669 Y 2.5129 Z -1.0000
G01 X 24.9569 Y 2.5184 Z -1.0000
G01 X 24.9473 Y 2.5242 Z -1.0000
G02 X 24.9415 Y 2.5486 Z -1.0000 I 0.0480 J 0.0244
G01 X 24.9338 Y 2.5742 Z -1.0000
G03 X 24.9107 Y 2.5953 Z -1.0000 I -0.0531 J -0.0350
G03 X 24.8851 Y 2.6032 Z -1.0000 I -0.0330 J -0.0614
G01 X 24.8800 Y 2.5986 Z -1.0000
G03 X 24.9167 Y 2.4986 Z -1.0000 I 0.1545 J -0.0000
G03 X 24.9960 Y 2.4619 Z -1.0000 I 0.0793 J 0.0674
G01 X 25.0081 Y 2.4669 Z -1.0000
G01 X 25.0090 Y 2.4750 Z -1.0000
G01 X 25.0090 Y 2.4750 Z -1.0000
G00 Z 5.0000

(End cutting path id: path2)


(Start cutting path id: path2)
(Change tool to Default tool)

G00 Z 5.0000
G00 X 25.1724 Y 2.3509

G01 Z -1.0000 F 100.0000(Penetrate)
G01 X 25.1676 Y 2.3578 Z -1.0000 F 3500.0000
G01 X 25.1570 Y 2.3568 Z -1.0000
G01 X 25.1453 Y 2.3452 Z -1.0000
G01 X 25.1416 Y 2.3319 Z -1.0000
G01 X 25.1463 Y 2.3250 Z -1.0000
G01 X 25.1570 Y 2.3260 Z -1.0000
G01 X 25.1686 Y 2.3376 Z -1.0000
G01 X 25.1724 Y 2.3509 Z -1.0000
G01 X 25.1724 Y 2.3509 Z -1.0000
G00 Z 5.0000

(End cutting path id: path2)


(Start cutting path id: path2)
(Change tool to Default tool)

G00 Z 5.0000
G00 X 25.2600 Y 2.4179

G01 Z -1.0000 F 100.0000(Penetrate)
G01 X 25.2560 Y 2.4290 Z -1.0000 F 3500.0000
G01 X 25.2262 Y 2.4188 Z -1.0000
G03 X 25.1956 Y 2.3863 Z -1.0000 I 0.1103 J -0.1346
G01 X 25.1984 Y 2.3804 Z -1.0000
G01 X 25.2150 Y 2.3848 Z -1.0000
G03 X 25.2600 Y 2.4179 Z -1.0000 I -0.1656 J 0.2723
G01 X 25.2600 Y 2.4179 Z -1.0000
G00 Z 5.0000

(End cutting path id: path2)


(Start cutting path id: path2)
(Change tool to Default tool)

G00 Z 5.0000
G00 X 25.4181 Y 2.4684

G01 Z -1.0000 F 100.0000(Penetrate)
G01 X 25.4088 Y 2.4838 Z -1.0000 F 3500.0000
G01 X 25.3950 Y 2.4808 Z -1.0000
G03 X 25.3815 Y 2.4399 Z -1.0000 I 0.0533 J -0.0403
G01 X 25.3955 Y 2.4261 Z -1.0000
G01 X 25.4099 Y 2.4347 Z -1.0000
G03 X 25.4181 Y 2.4684 Z -1.0000 I -0.0616 J 0.0329
G01 X 25.4181 Y 2.4684 Z -1.0000
G00 Z 5.0000

(End cutting path id: path2)


(Start cutting path id: path2)
(Change tool to Default tool)

G00 Z 5.0000
G00 X 25.5347 Y 2.4024

G01 Z -1.0000 F 100.0000(Penetrate)
G03 X 25.5564 Y 2.4546 Z -1.0000 I -0.2458 J 0.1323 F 3500.0000
G01 X 25.5536 Y 2.4654 Z -1.0000
G01 X 25.5455 Y 2.4649 Z -1.0000
G03 X 25.5117 Y 2.4122 Z -1.0000 I 0.2527 J -0.1989
G01 X 25.5174 Y 2.3963 Z -1.0000
G01 X 25.5347 Y 2.4024 Z -1.0000
G01 X 25.5347 Y 2.4024 Z -1.0000
G00 Z 5.0000

(End cutting path id: path2)


(Start cutting path id: path2)
(Change tool to Default tool)

G00 Z 5.0000
G00 X 25.4865 Y 2.2974

G01 Z -1.0000 F 100.0000(Penetrate)
G01 X 25.4834 Y 2.3048 Z -1.0000 F 3500.0000
G01 X 25.4728 Y 2.3032 Z -1.0000
G01 X 25.4573 Y 2.2801 Z -1.0000
G01 X 25.4631 Y 2.2722 Z -1.0000
G01 X 25.4737 Y 2.2768 Z -1.0000
G03 X 25.4865 Y 2.2974 Z -1.0000 I -0.0473 J 0.0437
G01 X 25.4865 Y 2.2974 Z -1.0000
G00 Z 5.0000

(End cutting path id: path2)


(Start cutting path id: path2)
(Change tool to Default tool)

G00 Z 5.0000
G00 X 25.7725 Y 2.4475

G01 Z -1.0000 F 100.0000(Penetrate)
G03 X 25.7467 Y 2.5574 Z -1.0000 I -0.2466 J -0.0000 F 3500.0000
G01 X 25.7058 Y 2.5813 Z -1.0000
G01 X 25.6979 Y 2.5843 Z -1.0000
G02 X 25.5900 Y 2.6897 Z -1.0000 I 2.3584 J 2.5187
G02 X 25.5191 Y 2.7793 Z -1.0000 I 0.3919 J 0.3834
G01 X 25.5264 Y 2.7900 Z -1.0000
G03 X 25.5616 Y 2.7936 Z -1.0000 I 0.0118 J 0.0591
G01 X 25.5771 Y 2.8115 Z -1.0000
G01 X 25.5710 Y 2.8308 Z -1.0000
G01 X 25.5415 Y 2.8416 Z -1.0000
G02 X 25.4986 Y 2.8445 Z -1.0000 I -0.0000 J 0.3150
G02 X 25.4737 Y 2.8509 Z -1.0000 I 0.0154 J 0.1122
G01 X 25.4562 Y 2.8311 Z -1.0000
G03 X 25.5534 Y 2.7000 Z -1.0000 I 0.4768 J 0.2520
G02 X 25.6519 Y 2.5925 Z -1.0000 I -1.0614 J -1.0713
G02 X 25.7035 Y 2.5195 Z -1.0000 I -0.4371 J -0.3632
G03 X 25.7616 Y 2.4430 Z -1.0000 I 0.3623 J 0.2152
G01 X 25.7725 Y 2.4474 Z -1.0000
G01 X 25.7725 Y 2.4475 Z -1.0000
G00 Z 5.0000

(End cutting path id: path2)


(Start cutting path id: path2)
(Change tool to Default tool)

G00 Z 5.0000
G00 X 25.8942 Y 2.5567

G01 Z -1.0000 F 100.0000(Penetrate)
G03 X 25.9225 Y 2.6433 Z -1.0000 I -0.9936 J 0.3718 F 3500.0000
G03 X 25.9256 Y 2.6690 Z -1.0000 I -0.0824 J 0.0230
G01 X 25.8975 Y 2.6107 Z -1.0000
G02 X 25.8433 Y 2.4870 Z -1.0000 I -0.6310 J 0.2029
G02 X 25.7666 Y 2.3795 Z -1.0000 I -0.5511 J 0.3121
G01 X 25.7827 Y 2.3893 Z -1.0000
G03 X 25.8531 Y 2.4763 Z -1.0000 I -0.4336 J 0.4230
G03 X 25.8942 Y 2.5566 Z -1.0000 I -0.3274 J 0.2182
G01 X 25.8942 Y 2.5567 Z -1.0000
G00 Z 5.0000

(End cutting path id: path2)


(Start cutting path id: path2)
(Change tool to Default tool)

G00 Z 5.0000
G00 X 25.8730 Y 2.7946

G01 Z -1.0000 F 100.0000(Penetrate)
G01 X 25.8599 Y 2.8081 Z -1.0000 F 3500.0000
G03 X 25.7984 Y 2.8437 Z -1.0000 I -0.3376 J -0.5121
G01 X 25.7922 Y 2.8378 Z -1.0000
G03 X 25.8115 Y 2.8136 Z -1.0000 I 0.0547 J 0.0239
G03 X 25.8664 Y 2.7860 Z -1.0000 I 0.1092 J 0.1486
G01 X 25.8730 Y 2.7946 Z -1.0000
G01 X 25.8730 Y 2.7946 Z -1.0000
G00 Z 5.0000

(End cutting path id: path2)


(Start cutting path id: path2)
(Change tool to Default tool)

G00 Z 5.0000
G00 X 25.9377 Y 2.8916

G01 Z -1.0000 F 100.0000(Penetrate)
G01 X 25.9318 Y 2.8262 Z -1.0000 F 3500.0000
G01 X 25.9377 Y 2.7608 Z -1.0000
G03 X 25.9406 Y 2.8262 Z -1.0000 I -0.7351 J 0.0654
G03 X 25.9377 Y 2.8916 Z -1.0000 I -0.7382 J -0.0000
G01 X 25.9377 Y 2.8916 Z -1.0000
G00 Z 5.0000

(End cutting path id: path2)


(Start cutting path id: path2)
(Change tool to Default tool)

G00 Z 5.0000
G00 X 25.9026 Y 3.0918

G01 Z -1.0000 F 100.0000(Penetrate)
G03 X 25.8728 Y 3.1707 Z -1.0000 I -0.8419 J -0.2732 F 3500.0000
G03 X 25.8443 Y 3.2262 Z -1.0000 I -0.4433 J -0.1922
G03 X 25.7245 Y 3.3861 Z -1.0000 I -0.8166 J -0.4874
G03 X 25.6267 Y 3.4605 Z -1.0000 I -0.2637 J -0.2450
G01 X 25.6234 Y 3.4566 Z -1.0000
G03 X 25.6731 Y 3.4015 Z -1.0000 I 0.4305 J 0.3379
G02 X 25.8590 Y 3.1625 Z -1.0000 I -0.7582 J -0.7815
G02 X 25.9128 Y 2.9843 Z -1.0000 I -0.3569 J -0.2050
G01 X 25.9168 Y 2.9804 Z -1.0000
G01 X 25.9217 Y 2.9841 Z -1.0000
G03 X 25.9228 Y 3.0111 Z -1.0000 I -0.0611 J 0.0159
G03 X 25.9026 Y 3.0918 Z -1.0000 I -0.5943 J -0.1054
G01 X 25.9026 Y 3.0918 Z -1.0000
G00 Z 5.0000

(End cutting path id: path2)


(Start cutting path id: path2)
(Change tool to Default tool)

G00 Z 5.0000
G00 X 26.1738 Y 3.1843

G01 Z -1.0000 F 100.0000(Penetrate)
G01 X 26.1612 Y 3.1939 Z -1.0000 F 3500.0000
G01 X 26.1442 Y 3.1793 Z -1.0000
G01 X 26.1465 Y 3.1694 Z -1.0000
G01 X 26.1565 Y 3.1670 Z -1.0000
G01 X 26.1708 Y 3.1759 Z -1.0000
G01 X 26.1738 Y 3.1843 Z -1.0000
G01 X 26.1738 Y 3.1843 Z -1.0000
G00 Z 5.0000

(End cutting path id: path2)


(Start cutting path id: path2)
(Change tool to Default tool)

G00 Z 5.0000
G00 X 26.2216 Y 2.9762

G01 Z -1.0000 F 100.0000(Penetrate)
G03 X 26.2187 Y 3.0394 Z -1.0000 I -0.1107 J 0.0265 F 3500.0000
G01 X 26.1941 Y 3.0570 Z -1.0000
G01 X 26.1663 Y 3.0361 Z -1.0000
G03 X 26.1720 Y 2.9812 Z -1.0000 I 0.0700 J -0.0205
G01 X 26.2012 Y 2.9616 Z -1.0000
G01 X 26.2216 Y 2.9761 Z -1.0000
G01 X 26.2216 Y 2.9762 Z -1.0000
G00 Z 5.0000

(End cutting path id: path2)


(Start cutting path id: path2)
(Change tool to Default tool)

G00 Z 5.0000
G00 X 26.3281 Y 2.9531

G01 Z -1.0000 F 100.0000(Penetrate)
G03 X 26.3281 Y 3.0567 Z -1.0000 I -0.6400 J 0.0517 F 3500.0000
G03 X 26.3168 Y 3.0909 Z -1.0000 I -0.0768 J -0.0062
G01 X 26.3082 Y 3.0962 Z -1.0000
G01 X 26.2876 Y 3.0931 Z -1.0000
G03 X 26.2426 Y 3.0331 Z -1.0000 I 0.0253 J -0.0658
G03 X 26.2752 Y 2.9441 Z -1.0000 I 0.1123 J -0.0093
G01 X 26.3098 Y 2.9331 Z -1.0000
G01 X 26.3281 Y 2.9531 Z -1.0000
G01 X 26.3281 Y 2.9531 Z -1.0000
G00 Z 5.0000

(End cutting path id: path2)


(Start cutting path id: path2)
(Change tool to Default tool)

G00 Z 5.0000
G00 X 26.2957 Y 2.7742

G01 Z -1.0000 F 100.0000(Penetrate)
G01 X 26.2908 Y 2.7905 Z -1.0000 F 3500.0000
G01 X 26.2816 Y 2.7954 Z -1.0000
G02 X 26.2678 Y 2.7971 Z -1.0000 I 0.0000 J 0.0587
G02 X 26.2431 Y 2.8047 Z -1.0000 I 0.0484 J 0.1993
G01 X 26.2182 Y 2.7892 Z -1.0000
G03 X 26.2369 Y 2.7373 Z -1.0000 I 0.0647 J -0.0060
G01 X 26.2731 Y 2.7332 Z -1.0000
G01 X 26.2958 Y 2.7742 Z -1.0000
G01 X 26.2957 Y 2.7742 Z -1.0000
G00 Z 5.0000

(End cutting path id: path2)


(Start cutting path id: path2)
(Change tool to Default tool)

G00 Z 5.0000
G00 X 26.0341 Y 3.3657

G01 Z -1.0000 F 100.0000(Penetrate)
G01 X 26.0298 Y 3.3758 Z -1.0000 F 3500.0000
G01 X 26.0187 Y 3.3802 Z -1.0000
G01 X 26.0088 Y 3.3747 Z -1.0000
G01 X 26.0034 Y 3.3562 Z -1.0000
G01 X 26.0092 Y 3.3427 Z -1.0000
G01 X 26.0187 Y 3.3417 Z -1.0000
G01 X 26.0305 Y 3.3532 Z -1.0000
G01 X 26.0341 Y 3.3657 Z -1.0000
G01 X 26.0341 Y 3.3657 Z -1.0000
G00 Z 5.0000

(End cutting path id: path2)


(Start cutting path id: path2)
(Change tool to Default tool)

G00 Z 5.0000
G00 X 26.0495 Y 3.4639

G01 Z -1.0000 F 100.0000(Penetrate)
G03 X 26.0304 Y 3.5094 Z -1.0000 I -0.0637 J -0.0000 F 3500.0000
G01 X 26.0036 Y 3.5089 Z -1.0000
G03 X 25.9926 Y 3.4550 Z -1.0000 I 0.0383 J -0.0359
G01 X 26.0336 Y 3.4263 Z -1.0000
G01 X 26.0432 Y 3.4326 Z -1.0000
G03 X 26.0495 Y 3.4639 Z -1.0000 I -0.0737 J 0.0313
G01 X 26.0495 Y 3.4639 Z -1.0000
G00 Z 5.0000

(End cutting path id: path2)


(Start cutting path id: path2)
(Change tool to Default tool)

G00 Z 5.0000
G00 X 25.6648 Y 3.6264

G01 Z -1.0000 F 100.0000(Penetrate)
G03 X 25.6409 Y 3.6386 Z -1.0000 I -0.0716 J -0.1108 F 3500.0000
G01 X 25.6263 Y 3.6413 Z -1.0000
G01 X 25.6240 Y 3.6375 Z -1.0000
G01 X 25.6340 Y 3.6264 Z -1.0000
G03 X 25.6579 Y 3.6142 Z -1.0000 I 0.0716 J 0.1108
G01 X 25.6725 Y 3.6115 Z -1.0000
G01 X 25.6748 Y 3.6153 Z -1.0000
G01 X 25.6648 Y 3.6264 Z -1.0000
G01 X 25.6648 Y 3.6264 Z -1.0000
G00 Z 5.0000

(End cutting path id: path2)


(Start cutting path id: path2)
(Change tool to Default tool)

G00 Z 5.0000
G00 X 25.3010 Y 2.8493

G01 Z -1.0000 F 100.0000(Penetrate)
G01 X 25.2784 Y 2.8699 Z -1.0000 F 3500.0000
G01 X 25.2647 Y 2.8595 Z -1.0000
G01 X 25.2744 Y 2.8359 Z -1.0000
G01 X 25.2976 Y 2.8262 Z -1.0000
G01 X 25.3030 Y 2.8309 Z -1.0000
G01 X 25.3011 Y 2.8493 Z -1.0000
G01 X 25.3010 Y 2.8493 Z -1.0000
G00 Z 5.0000

(End cutting path id: path2)


(Start cutting path id: path2)
(Change tool to Default tool)

G00 Z 5.0000
G00 X 25.1877 Y 2.8255

G01 Z -1.0000 F 100.0000(Penetrate)
G03 X 25.1649 Y 2.8685 Z -1.0000 I -0.0520 J 0.0000 F 3500.0000
G01 X 25.1292 Y 2.8651 Z -1.0000
G01 X 25.1265 Y 2.8561 Z -1.0000
G03 X 25.1392 Y 2.8177 Z -1.0000 I 0.1794 J 0.0378
G01 X 25.1680 Y 2.8023 Z -1.0000
G01 X 25.1878 Y 2.8255 Z -1.0000
G01 X 25.1877 Y 2.8255 Z -1.0000
G00 Z 5.0000

(End cutting path id: path2)


(Start cutting path id: path2)
(Change tool to Default tool)

G00 Z 5.0000
G00 X 24.9976 Y 2.7303

G01 Z -1.0000 F 100.0000(Penetrate)
G01 X 25.0048 Y 2.7449 Z -1.0000 F 3500.0000
G03 X 24.9921 Y 2.7993 Z -1.0000 I -0.1856 J -0.0148
G03 X 24.9534 Y 2.8481 Z -1.0000 I -0.1011 J -0.0404
G03 X 24.9069 Y 2.8588 Z -1.0000 I -0.0365 J -0.0523
G01 X 24.8949 Y 2.8671 Z -1.0000
G02 X 24.8935 Y 2.9224 Z -1.0000 I 0.1494 J 0.0315
G01 X 24.8906 Y 2.9298 Z -1.0000
G01 X 24.8786 Y 2.9339 Z -1.0000
G01 X 24.8704 Y 2.9265 Z -1.0000
G03 X 24.8717 Y 2.8685 Z -1.0000 I 0.2278 J -0.0240
G03 X 24.9103 Y 2.7371 Z -1.0000 I 0.5002 J 0.0755
G01 X 24.9389 Y 2.7187 Z -1.0000
G03 X 24.9788 Y 2.7227 Z -1.0000 I -0.0012 J 0.2142
G03 X 24.9975 Y 2.7302 Z -1.0000 I -0.0103 J 0.0525
G01 X 24.9976 Y 2.7303 Z -1.0000
G00 Z 5.0000

(End cutting path id: path2)


(Start cutting path id: path2)
(Change tool to Default tool)

G00 Z 5.0000
G00 X 22.0177 Y 4.7258

G01 Z -1.0000 F 100.0000(Penetrate)
G01 X 22.0155 Y 4.7313 Z -1.0000 F 3500.0000
G03 X 22.0023 Y 4.7421 Z -1.0000 I -0.0470 J -0.0441
G01 X 21.9918 Y 4.7428 Z -1.0000
G01 X 21.9869 Y 4.7353 Z -1.0000
G01 X 21.9915 Y 4.7237 Z -1.0000
G01 X 22.0023 Y 4.7190 Z -1.0000
G01 X 22.0150 Y 4.7217 Z -1.0000
G01 X 22.0177 Y 4.7258 Z -1.0000
G01 X 22.0177 Y 4.7258 Z -1.0000
G00 Z 5.0000

(End cutting path id: path2)


(Start cutting path id: path2)
(Change tool to Default tool)

G00 Z 5.0000
G00 X 21.4907 Y 4.7139

G01 Z -1.0000 F 100.0000(Penetrate)
G01 X 21.5019 Y 4.7243 Z -1.0000 F 3500.0000
G01 X 21.5013 Y 4.7357 Z -1.0000
G01 X 21.5025 Y 4.7443 Z -1.0000
G01 X 21.5166 Y 4.7498 Z -1.0000
G01 X 21.5356 Y 4.7448 Z -1.0000
G01 X 21.5406 Y 4.7361 Z -1.0000
G01 X 21.5269 Y 4.7133 Z -1.0000
G02 X 21.4816 Y 4.7049 Z -1.0000 I -0.0362 J 0.0684
G01 X 21.4906 Y 4.7139 Z -1.0000
G01 X 21.4907 Y 4.7139 Z -1.0000
G00 Z 5.0000

(End cutting path id: path2)


(Start cutting path id: path2)
(Change tool to Default tool)

G00 Z 5.0000
G00 X 21.4637 Y 4.7644

G01 Z -1.0000 F 100.0000(Penetrate)
G01 X 21.4596 Y 4.7700 Z -1.0000 F 3500.0000
G03 X 21.4340 Y 4.7740 Z -1.0000 I -0.0256 J -0.0793
G01 X 21.4137 Y 4.7688 Z -1.0000
G01 X 21.4118 Y 4.7619 Z -1.0000
G01 X 21.4115 Y 4.7541 Z -1.0000
G01 X 21.4030 Y 4.7498 Z -1.0000
G01 X 21.3913 Y 4.7452 Z -1.0000
G01 X 21.3867 Y 4.7347 Z -1.0000
G01 X 21.3928 Y 4.7291 Z -1.0000
G03 X 21.4252 Y 4.7372 Z -1.0000 I -0.0061 J 0.0923
G03 X 21.4599 Y 4.7572 Z -1.0000 I -0.0872 J 0.1923
G01 X 21.4637 Y 4.7644 Z -1.0000
G01 X 21.4637 Y 4.7644 Z -1.0000
G00 Z 5.0000

(End cutting path id: path2)


(Start cutting path id: path2)
(Change tool to Default tool)

G00 Z 5.0000
G00 X 21.3098 Y 4.6635

G01 Z -1.0000 F 100.0000(Penetrate)
G01 X 21.3074 Y 4.6679 Z -1.0000 F 3500.0000
G03 X 21.2859 Y 4.6787 Z -1.0000 I -0.0643 J -0.1007
G01 X 21.2733 Y 4.6786 Z -1.0000
G01 X 21.2714 Y 4.6727 Z -1.0000
G01 X 21.2975 Y 4.6539 Z -1.0000
G01 X 21.3098 Y 4.6635 Z -1.0000
G01 X 21.3098 Y 4.6635 Z -1.0000
G00 Z 5.0000

(End cutting path id: path2)


(Start cutting path id: path2)
(Change tool to Default tool)

G00 Z 5.0000
G00 X 21.6716 Y 4.3038

G01 Z -1.0000 F 100.0000(Penetrate)
G01 X 21.6829 Y 4.3124 Z -1.0000 F 3500.0000
G01 X 21.6956 Y 4.3106 Z -1.0000
G01 X 21.7049 Y 4.3106 Z -1.0000
G01 X 21.7099 Y 4.3197 Z -1.0000
G01 X 21.7160 Y 4.3287 Z -1.0000
G01 X 21.7330 Y 4.3288 Z -1.0000
G01 X 21.7507 Y 4.3277 Z -1.0000
G01 X 21.7561 Y 4.3346 Z -1.0000
G01 X 21.7617 Y 4.3448 Z -1.0000
G02 X 21.7952 Y 4.3590 Z -1.0000 I 0.0621 J -0.0993
G03 X 21.8273 Y 4.3708 Z -1.0000 I -0.0391 J 0.1561
G01 X 21.8281 Y 4.3752 Z -1.0000
G01 X 21.8277 Y 4.3816 Z -1.0000
G02 X 21.8747 Y 4.4345 Z -1.0000 I 0.4662 J -0.3663
G03 X 21.9187 Y 4.4885 Z -1.0000 I -0.2430 J 0.2430
G01 X 21.9189 Y 4.5017 Z -1.0000
G01 X 21.9255 Y 4.5282 Z -1.0000
G02 X 21.9779 Y 4.5360 Z -1.0000 I 0.0361 J -0.0620
G01 X 21.9812 Y 4.5395 Z -1.0000
G01 X 21.9722 Y 4.5567 Z -1.0000
G01 X 21.9707 Y 4.5747 Z -1.0000
G01 X 21.9876 Y 4.5835 Z -1.0000
G01 X 21.9924 Y 4.5869 Z -1.0000
G03 X 21.9994 Y 4.6278 Z -1.0000 I -0.2189 J 0.0582
G03 X 21.9944 Y 4.6652 Z -1.0000 I -0.0914 J 0.0069
G01 X 21.9833 Y 4.6732 Z -1.0000
G01 X 21.9792 Y 4.6778 Z -1.0000
G01 X 21.9846 Y 4.6866 Z -1.0000
G01 X 21.9891 Y 4.7002 Z -1.0000
G03 X 21.9696 Y 4.7248 Z -1.0000 I -0.0506 J -0.0198
G02 X 21.9527 Y 4.7445 Z -1.0000 I 0.0303 J 0.0433
G01 X 21.9565 Y 4.7510 Z -1.0000
G01 X 21.9594 Y 4.7560 Z -1.0000
G01 X 21.9484 Y 4.7666 Z -1.0000
G01 X 21.9476 Y 4.7723 Z -1.0000
G01 X 21.9586 Y 4.7756 Z -1.0000
G03 X 21.9871 Y 4.7799 Z -1.0000 I 0.0070 J 0.0511
G01 X 21.9916 Y 4.7908 Z -1.0000
G01 X 21.9766 Y 4.8008 Z -1.0000
G03 X 21.9233 Y 4.7890 Z -1.0000 I 0.0038 J -0.1433
G03 X 21.8918 Y 4.7704 Z -1.0000 I 0.0592 J -0.1364
G01 X 21.8933 Y 4.7659 Z -1.0000
G01 X 21.9050 Y 4.7612 Z -1.0000
G01 X 21.9052 Y 4.7554 Z -1.0000
G01 X 21.8950 Y 4.7528 Z -1.0000
G02 X 21.8719 Y 4.7650 Z -1.0000 I 0.0176 J 0.0614
G01 X 21.8530 Y 4.7746 Z -1.0000
G01 X 21.8483 Y 4.7710 Z -1.0000
G01 X 21.8423 Y 4.7632 Z -1.0000
G02 X 21.7829 Y 4.7540 Z -1.0000 I -0.0759 J 0.2925
G02 X 21.7410 Y 4.7579 Z -1.0000 I -0.0077 J 0.1436
G01 X 21.7400 Y 4.7645 Z -1.0000
G02 X 21.7623 Y 4.7733 Z -1.0000 I 0.0339 J -0.0535
G01 X 21.7746 Y 4.7710 Z -1.0000
G01 X 21.7827 Y 4.7709 Z -1.0000
G01 X 21.7869 Y 4.7779 Z -1.0000
G01 X 21.7816 Y 4.7884 Z -1.0000
G03 X 21.7561 Y 4.8005 Z -1.0000 I -0.0446 J -0.0610
G01 X 21.7362 Y 4.8004 Z -1.0000
G01 X 21.7339 Y 4.7946 Z -1.0000
G01 X 21.7279 Y 4.7843 Z -1.0000
G02 X 21.6976 Y 4.7960 Z -1.0000 I 0.0020 J 0.0504
G01 X 21.6945 Y 4.7929 Z -1.0000
G02 X 21.7096 Y 4.7502 Z -1.0000 I -0.0501 J -0.0417
G01 X 21.6936 Y 4.7344 Z -1.0000
G01 X 21.6865 Y 4.7398 Z -1.0000
G01 X 21.6882 Y 4.7536 Z -1.0000
G01 X 21.6792 Y 4.7545 Z -1.0000
G01 X 21.6570 Y 4.7441 Z -1.0000
G02 X 21.6115 Y 4.7456 Z -1.0000 I -0.0182 J 0.1381
G01 X 21.5869 Y 4.7412 Z -1.0000
G01 X 21.5849 Y 4.7294 Z -1.0000
G02 X 21.5959 Y 4.7084 Z -1.0000 I -0.0456 J -0.0375
G01 X 21.5924 Y 4.7037 Z -1.0000
G01 X 21.5812 Y 4.7081 Z -1.0000
G02 X 21.5596 Y 4.7345 Z -1.0000 I 0.0908 J 0.0965
G01 X 21.5584 Y 4.7558 Z -1.0000
G01 X 21.5751 Y 4.7670 Z -1.0000
G01 X 21.5852 Y 4.7714 Z -1.0000
G01 X 21.5841 Y 4.7756 Z -1.0000
G01 X 21.5589 Y 4.7755 Z -1.0000
G03 X 21.4856 Y 4.7493 Z -1.0000 I 0.1200 J -0.4507
G03 X 21.4333 Y 4.7147 Z -1.0000 I 0.0831 J -0.1823
G01 X 21.4344 Y 4.7024 Z -1.0000
G01 X 21.4322 Y 4.6965 Z -1.0000
G02 X 21.3727 Y 4.7109 Z -1.0000 I 0.0412 J 0.2997
G03 X 21.3210 Y 4.7235 Z -1.0000 I -0.0887 J -0.2514
G01 X 21.3178 Y 4.7186 Z -1.0000
G01 X 21.3295 Y 4.7081 Z -1.0000
G01 X 21.3483 Y 4.7037 Z -1.0000
G01 X 21.3669 Y 4.6990 Z -1.0000
G01 X 21.3803 Y 4.6863 Z -1.0000
G01 X 21.3793 Y 4.6783 Z -1.0000
G01 X 21.3697 Y 4.6761 Z -1.0000
G01 X 21.3508 Y 4.6754 Z -1.0000
G01 X 21.3308 Y 4.6595 Z -1.0000
G03 X 21.3208 Y 4.6139 Z -1.0000 I 0.0461 J -0.0340
G01 X 21.3422 Y 4.6047 Z -1.0000
G01 X 21.3513 Y 4.6048 Z -1.0000
G01 X 21.3560 Y 4.5969 Z -1.0000
G01 X 21.3505 Y 4.5860 Z -1.0000
G01 X 21.3343 Y 4.5806 Z -1.0000
G01 X 21.3187 Y 4.5638 Z -1.0000
G03 X 21.3393 Y 4.5129 Z -1.0000 I 0.0901 J 0.0067
G02 X 21.3499 Y 4.4926 Z -1.0000 I -0.0420 J -0.0349
G01 X 21.3463 Y 4.4876 Z -1.0000
G01 X 21.3867 Y 4.4575 Z -1.0000
G02 X 21.4135 Y 4.4340 Z -1.0000 I -0.0396 J -0.0723
G01 X 21.4098 Y 4.4261 Z -1.0000
G01 X 21.4004 Y 4.4210 Z -1.0000
G01 X 21.4021 Y 4.4155 Z -1.0000
G02 X 21.4241 Y 4.4048 Z -1.0000 I -0.0479 J -0.1268
G02 X 21.4895 Y 4.3628 Z -1.0000 I -0.7119 J -1.1812
G03 X 21.5568 Y 4.3285 Z -1.0000 I 0.1678 J 0.2460
G03 X 21.6126 Y 4.3187 Z -1.0000 I 0.0565 J 0.1576
G02 X 21.6476 Y 4.3115 Z -1.0000 I -0.0004 J -0.0905
G01 X 21.6483 Y 4.3036 Z -1.0000
G01 X 21.6402 Y 4.2930 Z -1.0000
G01 X 21.6435 Y 4.2884 Z -1.0000
G01 X 21.6595 Y 4.2924 Z -1.0000
G01 X 21.6715 Y 4.3038 Z -1.0000
G01 X 21.6716 Y 4.3038 Z -1.0000
G00 Z 5.0000

(End cutting path id: path2)


(Start cutting path id: path2)
(Change tool to Default tool)

G00 Z 5.0000
G00 X 20.5634 Y 4.4752

G01 Z -1.0000 F 100.0000(Penetrate)
G03 X 20.6234 Y 4.4981 Z -1.0000 I -0.2388 J 0.7154 F 3500.0000
G01 X 20.6327 Y 4.5050 Z -1.0000
G01 X 20.6416 Y 4.5125 Z -1.0000
G02 X 20.6617 Y 4.5212 Z -1.0000 I 0.0542 J -0.0972
G01 X 20.6682 Y 4.5316 Z -1.0000
G01 X 20.6569 Y 4.5542 Z -1.0000
G01 X 20.6287 Y 4.5670 Z -1.0000
G03 X 20.5894 Y 4.5587 Z -1.0000 I -0.0049 J -0.0740
G03 X 20.5514 Y 4.5332 Z -1.0000 I 0.0987 J -0.1882
G03 X 20.5254 Y 4.5049 Z -1.0000 I 0.0960 J -0.1143
G02 X 20.5007 Y 4.4769 Z -1.0000 I -0.1414 J 0.0998
G01 X 20.4903 Y 4.4729 Z -1.0000
G01 X 20.4785 Y 4.4701 Z -1.0000
G03 X 20.4395 Y 4.4478 Z -1.0000 I 0.1633 J -0.3310
G03 X 20.4167 Y 4.4205 Z -1.0000 I 0.0336 J -0.0513
G01 X 20.4196 Y 4.4008 Z -1.0000
G01 X 20.4379 Y 4.3954 Z -1.0000
G03 X 20.4699 Y 4.4167 Z -1.0000 I -0.0209 J 0.0660
G02 X 20.5062 Y 4.4483 Z -1.0000 I 0.1187 J -0.1003
G02 X 20.5635 Y 4.4752 Z -1.0000 I 0.1423 J -0.2277
G01 X 20.5634 Y 4.4752 Z -1.0000
G00 Z 5.0000

(End cutting path id: path2)


(Start cutting path id: path2)
(Change tool to Default tool)

G00 Z 5.0000
G00 X 19.5526 Y 4.5047

G01 Z -1.0000 F 100.0000(Penetrate)
G02 X 19.5772 Y 4.5311 Z -1.0000 I 0.0794 J -0.0496 F 3500.0000
G02 X 19.6294 Y 4.5601 Z -1.0000 I 0.1499 J -0.2079
G03 X 19.7262 Y 4.6151 Z -1.0000 I -0.1705 J 0.4129
G01 X 19.7401 Y 4.6428 Z -1.0000
G01 X 19.7207 Y 4.6663 Z -1.0000
G03 X 19.6633 Y 4.6575 Z -1.0000 I -0.0164 J -0.0855
G03 X 19.6366 Y 4.6398 Z -1.0000 I 0.0814 J -0.1517
G03 X 19.5776 Y 4.5883 Z -1.0000 I 0.6372 J -0.7897
G02 X 19.5182 Y 4.5399 Z -1.0000 I -0.3669 J 0.3890
G01 X 19.5008 Y 4.5344 Z -1.0000
G01 X 19.4890 Y 4.5241 Z -1.0000
G03 X 19.4927 Y 4.4767 Z -1.0000 I 0.1090 J -0.0153
G01 X 19.5115 Y 4.4683 Z -1.0000
G03 X 19.5526 Y 4.5047 Z -1.0000 I -0.0410 J 0.0876
G01 X 19.5526 Y 4.5047 Z -1.0000
G00 Z 5.0000

(End cutting path id: path2)


(Start cutting path id: path2)
(Change tool to Default tool)

G00 Z 5.0000
G00 X 18.6783 Y 4.6300

G01 Z -1.0000 F 100.0000(Penetrate)
G01 X 18.6829 Y 4.6375 Z -1.0000 F 3500.0000
G01 X 18.7025 Y 4.6421 Z -1.0000
G03 X 18.7249 Y 4.6466 Z -1.0000 I -0.0000 J 0.0576
G03 X 18.7481 Y 4.6613 Z -1.0000 I -0.0327 J 0.0772
G02 X 18.7697 Y 4.6804 Z -1.0000 I 1.1272 J -1.2571
G02 X 18.7926 Y 4.6999 Z -1.0000 I 1.2291 J -1.4188
G01 X 18.8015 Y 4.7372 Z -1.0000
G01 X 18.7678 Y 4.7576 Z -1.0000
G03 X 18.5931 Y 4.6797 Z -1.0000 I 0.0210 J -0.2821
G03 X 18.5801 Y 4.5776 Z -1.0000 I 0.0566 J -0.0591
G01 X 18.6376 Y 4.5621 Z -1.0000
G03 X 18.6783 Y 4.6300 Z -1.0000 I -0.0363 J 0.0679
G01 X 18.6783 Y 4.6300 Z -1.0000
G00 Z 5.0000

(End cutting path id: path2)


(Start cutting path id: path2)
(Change tool to Default tool)

G00 Z 5.0000
G00 X 17.7810 Y 4.7070

G01 Z -1.0000 F 100.0000(Penetrate)
G03 X 17.8381 Y 4.7431 Z -1.0000 I -0.4785 J 0.8210 F 3500.0000
G03 X 17.8599 Y 4.7609 Z -1.0000 I -0.0928 J 0.1359
G02 X 17.8817 Y 4.7770 Z -1.0000 I 0.0720 J -0.0743
G01 X 17.8955 Y 4.7806 Z -1.0000
G01 X 17.9025 Y 4.7851 Z -1.0000
G01 X 17.9020 Y 4.7947 Z -1.0000
G01 X 17.9015 Y 4.8057 Z -1.0000
G01 X 17.9125 Y 4.8152 Z -1.0000
G01 X 17.9155 Y 4.8230 Z -1.0000
G01 X 17.8984 Y 4.8395 Z -1.0000
G01 X 17.8672 Y 4.8398 Z -1.0000
G03 X 17.7792 Y 4.7790 Z -1.0000 I 0.1798 J -0.3540
G03 X 17.7548 Y 4.7216 Z -1.0000 I 0.0507 J -0.0554
G01 X 17.7810 Y 4.7070 Z -1.0000
G01 X 17.7810 Y 4.7070 Z -1.0000
G00 Z 5.0000

(End cutting path id: path2)


(Start cutting path id: path2)
(Change tool to Default tool)

G00 Z 5.0000
G00 X 16.9282 Y 4.7998

G01 Z -1.0000 F 100.0000(Penetrate)
G03 X 17.0137 Y 4.8650 Z -1.0000 I -0.1637 J 0.3034 F 3500.0000
G03 X 17.0312 Y 4.9076 Z -1.0000 I -0.0457 J 0.0437
G01 X 17.0042 Y 4.9287 Z -1.0000
G03 X 16.9155 Y 4.8768 Z -1.0000 I 0.0496 J -0.1863
G03 X 16.8963 Y 4.8155 Z -1.0000 I 0.0511 J -0.0497
G01 X 16.9282 Y 4.7998 Z -1.0000
G01 X 16.9282 Y 4.7998 Z -1.0000
G00 Z 5.0000

(End cutting path id: path2)


(Start cutting path id: path2)
(Change tool to Default tool)

G00 Z 5.0000
G00 X 16.0982 Y 4.9037

G01 Z -1.0000 F 100.0000(Penetrate)
G03 X 16.1688 Y 4.9805 Z -1.0000 I -0.1260 J 0.1867 F 3500.0000
G01 X 16.1633 Y 5.0202 Z -1.0000
G01 X 16.1414 Y 5.0235 Z -1.0000
G03 X 16.0710 Y 4.9717 Z -1.0000 I 0.1356 J -0.2579
G03 X 16.0033 Y 4.8767 Z -1.0000 I 0.2505 J -0.2505
G01 X 16.0152 Y 4.8575 Z -1.0000
G01 X 16.0287 Y 4.8610 Z -1.0000
G03 X 16.0982 Y 4.9037 Z -1.0000 I -0.4569 J 0.8225
G01 X 16.0982 Y 4.9037 Z -1.0000
G00 Z 5.0000

(End cutting path id: path2)


(Start cutting path id: path2)
(Change tool to Default tool)

G00 Z 5.0000
G00 X 15.2435 Y 4.9714

G01 Z -1.0000 F 100.0000(Penetrate)
G03 X 15.3499 Y 5.0755 Z -1.0000 I -0.1167 J 0.2257 F 3500.0000
G01 X 15.3240 Y 5.1191 Z -1.0000
G03 X 15.1779 Y 5.0541 Z -1.0000 I -0.0000 J -0.1967
G03 X 15.1803 Y 4.9597 Z -1.0000 I 0.0510 J -0.0459
G01 X 15.1956 Y 4.9549 Z -1.0000
G03 X 15.2435 Y 4.9714 Z -1.0000 I -0.0315 J 0.1701
G01 X 15.2435 Y 4.9714 Z -1.0000
G00 Z 5.0000

(End cutting path id: path2)


(Start cutting path id: path2)
(Change tool to Default tool)

G00 Z 5.0000
G00 X 14.5300 Y 5.1378

G01 Z -1.0000 F 100.0000(Penetrate)
G03 X 14.5440 Y 5.1819 Z -1.0000 I -0.0633 J 0.0444 F 3500.0000
G01 X 14.5302 Y 5.2020 Z -1.0000
G01 X 14.5176 Y 5.2018 Z -1.0000
G01 X 14.5157 Y 5.1960 Z -1.0000
G01 X 14.5140 Y 5.1869 Z -1.0000
G01 X 14.4957 Y 5.1808 Z -1.0000
G03 X 14.4184 Y 5.1472 Z -1.0000 I -0.0000 J -0.1058
G03 X 14.3848 Y 5.0621 Z -1.0000 I 0.0911 J -0.0851
G01 X 14.4196 Y 5.0410 Z -1.0000
G03 X 14.5300 Y 5.1378 Z -1.0000 I -0.1432 J 0.2744
G01 X 14.5300 Y 5.1378 Z -1.0000
G00 Z 5.0000

(End cutting path id: path2)


(Start cutting path id: path2)
(Change tool to Default tool)

G00 Z 5.0000
G00 X 13.6866 Y 5.1843

G01 Z -1.0000 F 100.0000(Penetrate)
G03 X 13.7292 Y 5.2504 Z -1.0000 I -0.0573 J 0.0837 F 3500.0000
G01 X 13.7018 Y 5.2706 Z -1.0000
G03 X 13.6159 Y 5.2084 Z -1.0000 I 0.1610 J -0.3129
G03 X 13.6000 Y 5.1703 Z -1.0000 I 0.0375 J -0.0381
G01 X 13.6165 Y 5.1562 Z -1.0000
G03 X 13.6866 Y 5.1843 Z -1.0000 I -0.0274 J 0.1704
G01 X 13.6866 Y 5.1843 Z -1.0000
G00 Z 5.0000

(End cutting path id: path2)


(Start cutting path id: path2)
(Change tool to Default tool)

G00 Z 5.0000
G00 X 14.3000 Y 3.7957

G01 Z -1.0000 F 100.0000(Penetrate)
G01 X 14.3295 Y 3.8223 Z -1.0000 F 3500.0000
G03 X 14.3077 Y 3.8710 Z -1.0000 I -0.0531 J 0.0054
G03 X 14.1918 Y 3.9267 Z -1.0000 I -0.2117 J -0.2922
G03 X 14.0224 Y 3.9496 Z -1.0000 I -0.1694 J -0.6150
G03 X 13.9711 Y 3.9324 Z -1.0000 I -0.0000 J -0.0854
G01 X 13.9539 Y 3.8980 Z -1.0000
G03 X 13.9632 Y 3.8495 Z -1.0000 I 0.1317 J 0.0000
G03 X 13.9991 Y 3.7842 Z -1.0000 I 0.2786 J 0.1105
G01 X 14.0442 Y 3.7218 Z -1.0000
G01 X 14.1460 Y 3.7588 Z -1.0000
G02 X 14.2488 Y 3.7896 Z -1.0000 I 0.3249 J -0.8952
G02 X 14.3000 Y 3.7957 Z -1.0000 I 0.0512 J -0.2134
G01 X 14.3000 Y 3.7957 Z -1.0000
G00 Z 5.0000

(End cutting path id: path2)


(Start cutting path id: path2)
(Change tool to Default tool)

G00 Z 5.0000
G00 X 14.5471 Y 3.4373

G01 Z -1.0000 F 100.0000(Penetrate)
G03 X 14.5046 Y 3.4665 Z -1.0000 I -0.1557 J -0.1811 F 3500.0000
G01 X 14.4954 Y 3.4651 Z -1.0000
G01 X 14.4970 Y 3.4006 Z -1.0000
G03 X 14.5758 Y 3.3923 Z -1.0000 I 0.0451 J 0.0498
G01 X 14.5781 Y 3.4016 Z -1.0000
G03 X 14.5471 Y 3.4373 Z -1.0000 I -0.1367 J -0.0872
G01 X 14.5471 Y 3.4373 Z -1.0000
G00 Z 5.0000

(End cutting path id: path2)


(Start cutting path id: path2)
(Change tool to Default tool)

G00 Z 5.0000
G00 X 14.7079 Y 3.1263

G01 Z -1.0000 F 100.0000(Penetrate)
G03 X 14.7017 Y 3.1585 Z -1.0000 I -0.0870 J 0.0000 F 3500.0000
G01 X 14.6926 Y 3.1647 Z -1.0000
G01 X 14.6704 Y 3.1442 Z -1.0000
G03 X 14.6875 Y 3.0980 Z -1.0000 I 0.0586 J -0.0045
G01 X 14.6991 Y 3.0990 Z -1.0000
G01 X 14.7080 Y 3.1263 Z -1.0000
G01 X 14.7079 Y 3.1263 Z -1.0000
G00 Z 5.0000

(End cutting path id: path2)


(Start cutting path id: path2)
(Change tool to Default tool)

G00 Z 5.0000
G00 X 14.6464 Y 3.0946

G01 Z -1.0000 F 100.0000(Penetrate)
G01 X 14.6442 Y 3.1001 Z -1.0000 F 3500.0000
G03 X 14.6310 Y 3.1109 Z -1.0000 I -0.0470 J -0.0441
G01 X 14.6205 Y 3.1116 Z -1.0000
G01 X 14.6156 Y 3.1041 Z -1.0000
G01 X 14.6202 Y 3.0924 Z -1.0000
G01 X 14.6310 Y 3.0878 Z -1.0000
G01 X 14.6437 Y 3.0905 Z -1.0000
G01 X 14.6464 Y 3.0946 Z -1.0000
G01 X 14.6464 Y 3.0946 Z -1.0000
G00 Z 5.0000

(End cutting path id: path2)


(Start cutting path id: path2)
(Change tool to Default tool)

G00 Z 5.0000
G00 X 14.7233 Y 2.9262

G01 Z -1.0000 F 100.0000(Penetrate)
G03 X 14.7177 Y 2.9591 Z -1.0000 I -0.0987 J -0.0000 F 3500.0000
G01 X 14.7097 Y 2.9647 Z -1.0000
G01 X 14.6779 Y 2.9410 Z -1.0000
G01 X 14.6891 Y 2.8963 Z -1.0000
G01 X 14.7094 Y 2.8956 Z -1.0000
G01 X 14.7233 Y 2.9262 Z -1.0000
G01 X 14.7233 Y 2.9262 Z -1.0000
G00 Z 5.0000

(End cutting path id: path2)


(Start cutting path id: path2)
(Change tool to Default tool)

G00 Z 5.0000
G00 X 14.0702 Y 2.7882

G01 Z -1.0000 F 100.0000(Penetrate)
G03 X 13.9608 Y 2.8473 Z -1.0000 I -0.2477 J -0.3275 F 3500.0000
G03 X 13.8238 Y 2.8763 Z -1.0000 I -0.1749 J -0.4893
G01 X 13.8142 Y 2.8920 Z -1.0000
G01 X 13.8390 Y 2.9120 Z -1.0000
G03 X 13.8748 Y 2.9369 Z -1.0000 I -0.0098 J 0.0523
G01 X 13.8702 Y 2.9639 Z -1.0000
G01 X 13.8472 Y 2.9727 Z -1.0000
G03 X 13.8174 Y 2.9658 Z -1.0000 I -0.0021 J -0.0587
G02 X 13.7854 Y 2.9591 Z -1.0000 I -0.0274 J 0.0513
G01 X 13.7814 Y 2.9686 Z -1.0000
G03 X 13.7936 Y 2.9888 Z -1.0000 I -0.0592 J 0.0492
G01 X 13.7949 Y 3.0015 Z -1.0000
G02 X 13.8232 Y 3.0734 Z -1.0000 I 0.0716 J 0.0133
G01 X 13.8858 Y 3.0687 Z -1.0000
G01 X 13.8856 Y 3.0608 Z -1.0000
G02 X 13.8462 Y 3.0340 Z -1.0000 I -0.1306 J 0.1495
G01 X 13.8471 Y 3.0219 Z -1.0000
G03 X 13.8827 Y 3.0219 Z -1.0000 I 0.0178 J 0.0538
G02 X 13.9574 Y 3.0370 Z -1.0000 I 0.1007 J -0.3059
G02 X 14.0131 Y 3.0325 Z -1.0000 I 0.0141 J -0.1733
G02 X 14.0528 Y 3.0040 Z -1.0000 I -0.0158 J -0.0639
G02 X 14.0809 Y 2.9263 Z -1.0000 I -0.1586 J -0.1012
G02 X 14.0884 Y 2.8344 Z -1.0000 I -1.0487 J -0.1322
G02 X 14.0853 Y 2.8147 Z -1.0000 I -0.0512 J -0.0020
G01 X 14.0873 Y 2.8019 Z -1.0000
G01 X 14.1006 Y 2.7955 Z -1.0000
G01 X 14.1179 Y 2.7901 Z -1.0000
G01 X 14.1232 Y 2.7801 Z -1.0000
G01 X 14.1121 Y 2.7705 Z -1.0000
G02 X 14.0703 Y 2.7883 Z -1.0000 I 0.0142 J 0.0917
G01 X 14.0702 Y 2.7882 Z -1.0000
G00 Z 5.0000

(End cutting path id: path2)


(Start cutting path id: path2)
(Change tool to Default tool)

G00 Z 5.0000
G00 X 13.9969 Y 2.5654

G01 Z -1.0000 F 100.0000(Penetrate)
G03 X 13.9956 Y 2.6039 Z -1.0000 I -0.1074 J 0.0156 F 3500.0000
G01 X 13.9871 Y 2.6107 Z -1.0000
G01 X 13.9730 Y 2.6160 Z -1.0000
G02 X 13.8721 Y 2.7108 Z -1.0000 I 1.1723 J 1.3491
G02 X 13.8362 Y 2.7867 Z -1.0000 I 0.0905 J 0.0891
G01 X 13.8616 Y 2.8116 Z -1.0000
G02 X 13.9897 Y 2.7631 Z -1.0000 I -0.0364 J -0.2898
G02 X 14.0566 Y 2.6785 Z -1.0000 I -0.1018 J -0.1493
G02 X 14.0571 Y 2.5957 Z -1.0000 I -0.1098 J -0.0420
G02 X 14.0002 Y 2.5262 Z -1.0000 I -0.1295 J 0.0479
G01 X 13.9957 Y 2.5284 Z -1.0000
G02 X 13.9969 Y 2.5654 Z -1.0000 I 0.1646 J 0.0134
G01 X 13.9969 Y 2.5654 Z -1.0000
G00 Z 5.0000

(End cutting path id: path2)


(Start cutting path id: path2)
(Change tool to Default tool)

G00 Z 5.0000
G00 X 13.8924 Y 2.6107

G01 Z -1.0000 F 100.0000(Penetrate)
G01 X 13.8836 Y 2.6415 Z -1.0000 F 3500.0000
G01 X 13.8895 Y 2.6386 Z -1.0000
G02 X 13.9077 Y 2.6107 Z -1.0000 I -0.1495 J -0.1177
G01 X 13.9165 Y 2.5800 Z -1.0000
G01 X 13.9106 Y 2.5828 Z -1.0000
G02 X 13.8924 Y 2.6107 Z -1.0000 I 0.1495 J 0.1177
G01 X 13.8924 Y 2.6107 Z -1.0000
G00 Z 5.0000

(End cutting path id: path2)


(Start cutting path id: path2)
(Change tool to Default tool)

G00 Z 5.0000
G00 X 13.8134 Y 2.7300

G01 Z -1.0000 F 100.0000(Penetrate)
G01 X 13.8138 Y 2.7355 Z -1.0000 F 3500.0000
G01 X 13.8192 Y 2.7358 Z -1.0000
G02 X 13.8436 Y 2.7091 Z -1.0000 I -0.0674 J -0.0860
G01 X 13.8404 Y 2.7031 Z -1.0000
G01 X 13.8355 Y 2.7051 Z -1.0000
G02 X 13.8134 Y 2.7300 Z -1.0000 I 0.1968 J 0.1966
G01 X 13.8134 Y 2.7300 Z -1.0000
G00 Z 5.0000

(End cutting path id: path2)


(Start cutting path id: path2)
(Change tool to Default tool)

G00 Z 5.0000
G00 X 13.7365 Y 2.7608

G01 Z -1.0000 F 100.0000(Penetrate)
G01 X 13.7368 Y 2.7663 Z -1.0000 F 3500.0000
G01 X 13.7423 Y 2.7666 Z -1.0000
G02 X 13.7667 Y 2.7398 Z -1.0000 I -0.0674 J -0.0860
G01 X 13.7634 Y 2.7338 Z -1.0000
G01 X 13.7586 Y 2.7359 Z -1.0000
G02 X 13.7365 Y 2.7608 Z -1.0000 I 0.1968 J 0.1966
G01 X 13.7365 Y 2.7608 Z -1.0000
G00 Z 5.0000

(End cutting path id: path2)


(Start cutting path id: path2)
(Change tool to Default tool)

G00 Z 5.0000
G00 X 13.6935 Y 2.8274

G01 Z -1.0000 F 100.0000(Penetrate)
