%
(Header)
(Generated by gcodetools from Inkscape.)
(Using default header. To add your own header create file "header" in the output dir.)
M3
(Header end.)
G21 (All units in mm)

(Start cutting path id: path2)
(Change tool to Default tool)

G00 Z 5.0000
G00 X 11.8691 Y 1.0036

G01 Z -1.0000 F 100.0000(Penetrate)
G02 X 11.8294 Y 1.0267 Z -1.0000 I 0.1499 J 0.3027 F 3500.0000
G02 X 11.7933 Y 1.0550 Z -1.0000 I 0.1894 J 0.2794
G03 X 11.7587 Y 1.0856 Z -1.0000 I -2.2915 J -2.5520
G03 X 11.7417 Y 1.1001 Z -1.0000 I -0.5191 J -0.5940
G02 X 11.6775 Y 1.1758 Z -1.0000 I 0.1792 J 0.2170
G02 X 11.6600 Y 1.2409 Z -1.0000 I 0.1122 J 0.0651
G01 X 11.6565 Y 1.2586 Z -1.0000
G03 X 11.6184 Y 1.3418 Z -1.0000 I -1.1056 J -0.4559
G02 X 11.5813 Y 1.4246 Z -1.0000 I 0.8554 J 0.4320
G01 X 11.5803 Y 1.4391 Z -1.0000
G01 X 11.5795 Y 1.4508 Z -1.0000
G01 X 11.5746 Y 1.4542 Z -1.0000
G01 X 11.5688 Y 1.4576 Z -1.0000
G01 X 11.5654 Y 1.4709 Z -1.0000
G01 X 11.5624 Y 1.4859 Z -1.0000
G01 X 11.5562 Y 1.4933 Z -1.0000
G01 X 11.5511 Y 1.5004 Z -1.0000
G01 X 11.5519 Y 1.5118 Z -1.0000
G01 X 11.5506 Y 1.5215 Z -1.0000
G01 X 11.5394 Y 1.5292 Z -1.0000
G01 X 11.5331 Y 1.5359 Z -1.0000
G01 X 11.5364 Y 1.5443 Z -1.0000
G01 X 11.5423 Y 1.5630 Z -1.0000
G01 X 11.5261 Y 1.5747 Z -1.0000
G01 X 11.5213 Y 1.5790 Z -1.0000
G01 X 11.5245 Y 1.5921 Z -1.0000
G01 X 11.5289 Y 1.6081 Z -1.0000
G01 X 11.5241 Y 1.6165 Z -1.0000
G01 X 11.5206 Y 1.6240 Z -1.0000
G01 X 11.5263 Y 1.6345 Z -1.0000
G01 X 11.5320 Y 1.6552 Z -1.0000
G01 X 11.5160 Y 1.6639 Z -1.0000
G01 X 11.4923 Y 1.6582 Z -1.0000
G01 X 11.5118 Y 1.6795 Z -1.0000
G01 X 11.5186 Y 1.7005 Z -1.0000
G01 X 11.5087 Y 1.7065 Z -1.0000
G01 X 11.5009 Y 1.7120 Z -1.0000
G01 X 11.5095 Y 1.7295 Z -1.0000
G01 X 11.5110 Y 1.7438 Z -1.0000
G01 X 11.4929 Y 1.7505 Z -1.0000
G01 X 11.4727 Y 1.7537 Z -1.0000
G01 X 11.4683 Y 1.7638 Z -1.0000
G01 X 11.4661 Y 1.7766 Z -1.0000
G01 X 11.4569 Y 1.7809 Z -1.0000
G02 X 11.4263 Y 1.7847 Z -1.0000 I -0.0071 J 0.0671
G01 X 11.4192 Y 1.7950 Z -1.0000
G01 X 11.4142 Y 1.8025 Z -1.0000
G01 X 11.3986 Y 1.8037 Z -1.0000
G01 X 11.3822 Y 1.8054 Z -1.0000
G01 X 11.3735 Y 1.8160 Z -1.0000
G01 X 11.3649 Y 1.8265 Z -1.0000
G01 X 11.3481 Y 1.8282 Z -1.0000
G01 X 11.3359 Y 1.8325 Z -1.0000
G01 X 11.3313 Y 1.8503 Z -1.0000
G01 X 11.3268 Y 1.8655 Z -1.0000
G01 X 11.3164 Y 1.8674 Z -1.0000
G01 X 11.3014 Y 1.8663 Z -1.0000
G01 X 11.2926 Y 1.8758 Z -1.0000
G01 X 11.2841 Y 1.8881 Z -1.0000
G01 X 11.2720 Y 1.8903 Z -1.0000
G01 X 11.2595 Y 1.8920 Z -1.0000
G01 X 11.2511 Y 1.9025 Z -1.0000
G01 X 11.2437 Y 1.9156 Z -1.0000
G01 X 11.2367 Y 1.9188 Z -1.0000
G01 X 11.2287 Y 1.9214 Z -1.0000
G02 X 11.2159 Y 1.9338 Z -1.0000 I 0.0369 J 0.0507
G01 X 11.2045 Y 1.9402 Z -1.0000
G01 X 11.1952 Y 1.9360 Z -1.0000
G01 X 11.1875 Y 1.9360 Z -1.0000
G01 X 11.1820 Y 1.9631 Z -1.0000
G03 X 11.1611 Y 1.9834 Z -1.0000 I -0.0443 J -0.0248
G02 X 11.1381 Y 1.9985 Z -1.0000 I 0.0582 J 0.1133
G01 X 11.1353 Y 2.0046 Z -1.0000
G03 X 11.1190 Y 2.0433 Z -1.0000 I -0.0543 J -0.0000
G03 X 11.0613 Y 2.0773 Z -1.0000 I -0.0967 J -0.0983
G01 X 11.0461 Y 2.0859 Z -1.0000
G02 X 11.0315 Y 2.1047 Z -1.0000 I 0.0483 J 0.0524
G03 X 11.0174 Y 2.1247 Z -1.0000 I -0.0870 J -0.0465
G03 X 10.9957 Y 2.1438 Z -1.0000 I -0.1011 J -0.0924
G02 X 10.9751 Y 2.1627 Z -1.0000 I 0.0674 J 0.0945
G01 X 10.9718 Y 2.1717 Z -1.0000
G01 X 10.9687 Y 2.1813 Z -1.0000
G03 X 10.9494 Y 2.2034 Z -1.0000 I -0.1176 J -0.0833
G02 X 10.8797 Y 2.2837 Z -1.0000 I 0.3466 J 0.3716
G02 X 10.8685 Y 2.3190 Z -1.0000 I 0.0505 J 0.0353
G01 X 10.8668 Y 2.3253 Z -1.0000
G03 X 10.8491 Y 2.3525 Z -1.0000 I -0.2583 J -0.1492
G02 X 10.7980 Y 2.4341 Z -1.0000 I 0.5427 J 0.3962
G02 X 10.7910 Y 2.4621 Z -1.0000 I 0.0532 J 0.0282
G01 X 10.7891 Y 2.4734 Z -1.0000
G03 X 10.7785 Y 2.4977 Z -1.0000 I -0.1805 J -0.0639
G02 X 10.7699 Y 2.5219 Z -1.0000 I 0.0817 J 0.0428
G01 X 10.7709 Y 2.5343 Z -1.0000
G01 X 10.7698 Y 2.5429 Z -1.0000
G01 X 10.7619 Y 2.5469 Z -1.0000
G01 X 10.7529 Y 2.5546 Z -1.0000
G01 X 10.7580 Y 2.5707 Z -1.0000
G01 X 10.7619 Y 2.5809 Z -1.0000
G01 X 10.7566 Y 2.5943 Z -1.0000
G01 X 10.7513 Y 2.6076 Z -1.0000
G01 X 10.7552 Y 2.6179 Z -1.0000
G01 X 10.7603 Y 2.6370 Z -1.0000
G01 X 10.7480 Y 2.6441 Z -1.0000
G01 X 10.7376 Y 2.6503 Z -1.0000
G01 X 10.7437 Y 2.6619 Z -1.0000
G01 X 10.7502 Y 2.6749 Z -1.0000
G01 X 10.7372 Y 2.6849 Z -1.0000
G01 X 10.7328 Y 2.6905 Z -1.0000
G01 X 10.7415 Y 2.7046 Z -1.0000
G01 X 10.7528 Y 2.7265 Z -1.0000
G01 X 10.7437 Y 2.7362 Z -1.0000
G01 X 10.7328 Y 2.7463 Z -1.0000
G01 X 10.7415 Y 2.7644 Z -1.0000
G01 X 10.7431 Y 2.7774 Z -1.0000
G01 X 10.7265 Y 2.7808 Z -1.0000
G01 X 10.7191 Y 2.7872 Z -1.0000
G01 X 10.7351 Y 2.8112 Z -1.0000
G03 X 10.7618 Y 2.8368 Z -1.0000 I -0.1261 J 0.1580
G01 X 10.7652 Y 2.8459 Z -1.0000
G01 X 10.7590 Y 2.8513 Z -1.0000
G03 X 10.7222 Y 2.8394 Z -1.0000 I 0.0180 J -0.1191
G02 X 10.6912 Y 2.8340 Z -1.0000 I -0.0243 J 0.0477
G01 X 10.6877 Y 2.8437 Z -1.0000
G01 X 10.6888 Y 2.8599 Z -1.0000
G01 X 10.6721 Y 2.8657 Z -1.0000
G01 X 10.6532 Y 2.8687 Z -1.0000
G01 X 10.6533 Y 2.8782 Z -1.0000
G01 X 10.6520 Y 2.8880 Z -1.0000
G03 X 10.5961 Y 2.8947 Z -1.0000 I -0.0484 J -0.1685
G02 X 10.5418 Y 2.8969 Z -1.0000 I -0.0136 J 0.3237
G01 X 10.5401 Y 2.9018 Z -1.0000
G01 X 10.5474 Y 2.9129 Z -1.0000
G01 X 10.5501 Y 2.9274 Z -1.0000
G01 X 10.5447 Y 2.9360 Z -1.0000
G01 X 10.5286 Y 2.9376 Z -1.0000
G01 X 10.5131 Y 2.9399 Z -1.0000
G01 X 10.5071 Y 2.9505 Z -1.0000
G01 X 10.5011 Y 2.9611 Z -1.0000
G01 X 10.4856 Y 2.9634 Z -1.0000
G01 X 10.4692 Y 2.9646 Z -1.0000
G01 X 10.4641 Y 2.9721 Z -1.0000
G01 X 10.4602 Y 2.9836 Z -1.0000
G01 X 10.4490 Y 2.9918 Z -1.0000
G02 X 10.4355 Y 2.9991 Z -1.0000 I 0.0174 J 0.0481
G01 X 10.4275 Y 3.0080 Z -1.0000
G01 X 10.4189 Y 3.0160 Z -1.0000
G03 X 10.3956 Y 3.0243 Z -1.0000 I -0.0440 J -0.0859
G02 X 10.3739 Y 3.0340 Z -1.0000 I 0.0130 J 0.0583
G01 X 10.3651 Y 3.0461 Z -1.0000
G03 X 10.3294 Y 3.1082 Z -1.0000 I -0.1606 J -0.0510
G01 X 10.2952 Y 3.1234 Z -1.0000
G01 X 10.2706 Y 3.1353 Z -1.0000
G02 X 10.2249 Y 3.2128 Z -1.0000 I 0.2678 J 0.2102
G03 X 10.2113 Y 3.2372 Z -1.0000 I -0.1215 J -0.0517
G01 X 10.2012 Y 3.2463 Z -1.0000
G01 X 10.1913 Y 3.2548 Z -1.0000
G01 X 10.1888 Y 3.2620 Z -1.0000
G01 X 10.1860 Y 3.2695 Z -1.0000
G03 X 10.1639 Y 3.2916 Z -1.0000 I -0.1383 J -0.1159
G02 X 10.1437 Y 3.3153 Z -1.0000 I 0.0614 J 0.0730
G02 X 10.1336 Y 3.3418 Z -1.0000 I 0.0682 J 0.0413
G03 X 10.1127 Y 3.4074 Z -1.0000 I -0.2757 J -0.0514
G03 X 10.0936 Y 3.4291 Z -1.0000 I -0.0455 J -0.0209
G01 X 10.0882 Y 3.4356 Z -1.0000
G01 X 10.0855 Y 3.4501 Z -1.0000
G01 X 10.0829 Y 3.4643 Z -1.0000
G01 X 10.0784 Y 3.4689 Z -1.0000
G02 X 10.0437 Y 3.5027 Z -1.0000 I 0.0236 J 0.0590
G02 X 10.0253 Y 3.5911 Z -1.0000 I 0.2037 J 0.0885
G03 X 10.0215 Y 3.6110 Z -1.0000 I -0.0545 J -0.0000
G01 X 10.0115 Y 3.6263 Z -1.0000
G01 X 10.0042 Y 3.6404 Z -1.0000
G01 X 10.0070 Y 3.6512 Z -1.0000
G01 X 10.0108 Y 3.6621 Z -1.0000
G01 X 10.0064 Y 3.6723 Z -1.0000
G01 X 10.0034 Y 3.6824 Z -1.0000
G01 X 10.0122 Y 3.6996 Z -1.0000
G01 X 10.0157 Y 3.7116 Z -1.0000
G01 X 10.0094 Y 3.7170 Z -1.0000
G01 X 10.0000 Y 3.7267 Z -1.0000
G01 X 10.0102 Y 3.7453 Z -1.0000
G01 X 10.0295 Y 3.7585 Z -1.0000
G01 X 10.0085 Y 3.7666 Z -1.0000
G01 X 9.9874 Y 3.7747 Z -1.0000
G01 X 10.0106 Y 3.7899 Z -1.0000
G01 X 10.0234 Y 3.8104 Z -1.0000
G01 X 10.0145 Y 3.8207 Z -1.0000
G01 X 10.0102 Y 3.8262 Z -1.0000
G01 X 10.0190 Y 3.8405 Z -1.0000
G01 X 10.0253 Y 3.8568 Z -1.0000
G01 X 10.0161 Y 3.8611 Z -1.0000
G01 X 10.0054 Y 3.8670 Z -1.0000
G01 X 10.0161 Y 3.8899 Z -1.0000
G01 X 10.0188 Y 3.9054 Z -1.0000
G01 X 10.0041 Y 3.9103 Z -1.0000
G01 X 9.9810 Y 3.9107 Z -1.0000
G01 X 9.9801 Y 3.9213 Z -1.0000
G01 X 9.9848 Y 3.9370 Z -1.0000
G01 X 9.9703 Y 3.9448 Z -1.0000
G02 X 9.9431 Y 3.9438 Z -1.0000 I -0.0169 J 0.0898
G01 X 9.9354 Y 3.9487 Z -1.0000
G01 X 9.9275 Y 3.9536 Z -1.0000
G03 X 9.8935 Y 3.9527 Z -1.0000 I -0.0132 J -0.1382
G02 X 9.8697 Y 3.9537 Z -1.0000 I -0.0093 J 0.0617
G01 X 9.8682 Y 3.9587 Z -1.0000
G01 X 9.8711 Y 3.9749 Z -1.0000
G01 X 9.8575 Y 3.9839 Z -1.0000
G01 X 9.8416 Y 3.9896 Z -1.0000
G01 X 9.8360 Y 4.0016 Z -1.0000
G01 X 9.8308 Y 4.0123 Z -1.0000
G01 X 9.8198 Y 4.0143 Z -1.0000
G01 X 9.8073 Y 4.0158 Z -1.0000
G01 X 9.7991 Y 4.0266 Z -1.0000
G01 X 9.7910 Y 4.0395 Z -1.0000
G01 X 9.7784 Y 4.0441 Z -1.0000
G01 X 9.7643 Y 4.0483 Z -1.0000
G02 X 9.7409 Y 4.0685 Z -1.0000 I 0.0617 J 0.0948
G03 X 9.7184 Y 4.0915 Z -1.0000 I -0.2211 J -0.1940
G01 X 9.7104 Y 4.0965 Z -1.0000
G01 X 9.7029 Y 4.1020 Z -1.0000
G02 X 9.6546 Y 4.1673 Z -1.0000 I 1.0626 J 0.8361
G03 X 9.5728 Y 4.2809 Z -1.0000 I -3.3481 J -2.3229
G03 X 9.5472 Y 4.3113 Z -1.0000 I -0.2630 J -0.1962
G02 X 9.5291 Y 4.3344 Z -1.0000 I 0.1080 J 0.1031
G01 X 9.5262 Y 4.3444 Z -1.0000
G01 X 9.5237 Y 4.3547 Z -1.0000
G03 X 9.5068 Y 4.3825 Z -1.0000 I -0.1912 J -0.0970
G02 X 9.4649 Y 4.4540 Z -1.0000 I 0.3701 J 0.2651
G02 X 9.4574 Y 4.4878 Z -1.0000 I 0.0720 J 0.0338
G01 X 9.4544 Y 4.4984 Z -1.0000
G03 X 9.4329 Y 4.5278 Z -1.0000 I -0.1892 J -0.1157
G02 X 9.3750 Y 4.6133 Z -1.0000 I 0.3316 J 0.2869
G02 X 9.3500 Y 4.6882 Z -1.0000 I 0.2273 J 0.1175
G03 X 9.3401 Y 4.7210 Z -1.0000 I -0.1339 J -0.0226
G01 X 9.3307 Y 4.7312 Z -1.0000
G01 X 9.3249 Y 4.7388 Z -1.0000
G01 X 9.3272 Y 4.7446 Z -1.0000
G01 X 9.3361 Y 4.7638 Z -1.0000
G01 X 9.3227 Y 4.7754 Z -1.0000
G01 X 9.3183 Y 4.7798 Z -1.0000
G01 X 9.3227 Y 4.7912 Z -1.0000
G01 X 9.3302 Y 4.8108 Z -1.0000
G01 X 9.3225 Y 4.8185 Z -1.0000
G01 X 9.3188 Y 4.8231 Z -1.0000
G01 X 9.3275 Y 4.8391 Z -1.0000
G01 X 9.3327 Y 4.8608 Z -1.0000
G01 X 9.3197 Y 4.8658 Z -1.0000
G01 X 9.3138 Y 4.8654 Z -1.0000
G01 X 9.3111 Y 4.8695 Z -1.0000
G01 X 9.3139 Y 4.8770 Z -1.0000
G02 X 9.3283 Y 4.8893 Z -1.0000 I 0.0483 J -0.0421
G01 X 9.3359 Y 4.9044 Z -1.0000
G01 X 9.3262 Y 4.9149 Z -1.0000
G01 X 9.3231 Y 4.9207 Z -1.0000
G01 X 9.3348 Y 4.9329 Z -1.0000
G01 X 9.3445 Y 4.9508 Z -1.0000
G01 X 9.3326 Y 4.9599 Z -1.0000
G02 X 9.3081 Y 4.9609 Z -1.0000 I -0.0100 J 0.0531
G01 X 9.3025 Y 4.9683 Z -1.0000
G01 X 9.2974 Y 4.9758 Z -1.0000
G01 X 9.2811 Y 4.9769 Z -1.0000
G01 X 9.2627 Y 4.9774 Z -1.0000
G01 X 9.2543 Y 4.9853 Z -1.0000
G01 X 9.2460 Y 4.9947 Z -1.0000
G01 X 9.2284 Y 4.9991 Z -1.0000
G01 X 9.2113 Y 5.0025 Z -1.0000
G01 X 9.2078 Y 5.0077 Z -1.0000
G01 X 9.2046 Y 5.0130 Z -1.0000
G01 X 9.1906 Y 5.0163 Z -1.0000
G01 X 9.1791 Y 5.0219 Z -1.0000
G01 X 9.1734 Y 5.0383 Z -1.0000
G01 X 9.1703 Y 5.0547 Z -1.0000
G01 X 9.1664 Y 5.0560 Z -1.0000
G01 X 9.1320 Y 5.0611 Z -1.0000
G02 X 9.0196 Y 5.2235 Z -1.0000 I 0.6541 J 0.5726
G03 X 8.9921 Y 5.2682 Z -1.0000 I -0.3769 J -0.2017
G03 X 8.9636 Y 5.3030 Z -1.0000 I -0.2565 J -0.1809
G02 X 8.9356 Y 5.3371 Z -1.0000 I 0.2279 J 0.2157
G01 X 8.9325 Y 5.3468 Z -1.0000
G01 X 8.9297 Y 5.3565 Z -1.0000
G03 X 8.9153 Y 5.3734 Z -1.0000 I -0.0713 J -0.0462
G02 X 8.9009 Y 5.3902 Z -1.0000 I 0.0595 J 0.0654
G01 X 8.8981 Y 5.3996 Z -1.0000
G01 X 8.8952 Y 5.4083 Z -1.0000
G01 X 8.8869 Y 5.4145 Z -1.0000
G02 X 8.8472 Y 5.4490 Z -1.0000 I 0.0277 J 0.0719
G02 X 8.8293 Y 5.5184 Z -1.0000 I 0.1250 J 0.0694
G03 X 8.8129 Y 5.5911 Z -1.0000 I -0.1693 J -0.0000
G03 X 8.7694 Y 5.6444 Z -1.0000 I -0.1305 J -0.0620
G02 X 8.7096 Y 5.7166 Z -1.0000 I 0.1227 J 0.1626
G02 X 8.7065 Y 5.7716 Z -1.0000 I 0.0630 J 0.0312
G01 X 8.7069 Y 5.7820 Z -1.0000
G01 X 8.7001 Y 5.7951 Z -1.0000
G01 X 8.6936 Y 5.8083 Z -1.0000
G01 X 8.6944 Y 5.8200 Z -1.0000
G01 X 8.6941 Y 5.8301 Z -1.0000
G01 X 8.6869 Y 5.8369 Z -1.0000
G01 X 8.6797 Y 5.8439 Z -1.0000
G01 X 8.6795 Y 5.8541 Z -1.0000
G01 X 8.6781 Y 5.8635 Z -1.0000
G01 X 8.6650 Y 5.8727 Z -1.0000
G01 X 8.6457 Y 5.8788 Z -1.0000
G01 X 8.6665 Y 5.8944 Z -1.0000
G01 X 8.6872 Y 5.9101 Z -1.0000
G01 X 8.6662 Y 5.9179 Z -1.0000
G01 X 8.6452 Y 5.9257 Z -1.0000
G01 X 8.6641 Y 5.9418 Z -1.0000
G01 X 8.6717 Y 5.9607 Z -1.0000
G01 X 8.6615 Y 5.9678 Z -1.0000
G01 X 8.6524 Y 5.9760 Z -1.0000
G01 X 8.6658 Y 5.9986 Z -1.0000
G01 X 8.6765 Y 6.0198 Z -1.0000
G01 X 8.6658 Y 6.0286 Z -1.0000
G02 X 8.6439 Y 6.0282 Z -1.0000 I -0.0120 J 0.0603
G01 X 8.6400 Y 6.0328 Z -1.0000
G01 X 8.6362 Y 6.0376 Z -1.0000
G01 X 8.6185 Y 6.0381 Z -1.0000
G01 X 8.6026 Y 6.0409 Z -1.0000
G01 X 8.5969 Y 6.0509 Z -1.0000
G01 X 8.5912 Y 6.0605 Z -1.0000
G01 X 8.5754 Y 6.0625 Z -1.0000
G01 X 8.5575 Y 6.0617 Z -1.0000
G01 X 8.5539 Y 6.0659 Z -1.0000
G01 X 8.5506 Y 6.0713 Z -1.0000
G01 X 8.5367 Y 6.0747 Z -1.0000
G01 X 8.5241 Y 6.0793 Z -1.0000
G01 X 8.5195 Y 6.0892 Z -1.0000
G01 X 8.5152 Y 6.1020 Z -1.0000
G03 X 8.4743 Y 6.1492 Z -1.0000 I -0.3633 J -0.2737
G02 X 8.4098 Y 6.2218 Z -1.0000 I 0.6057 J 0.6029
G02 X 8.3717 Y 6.2789 Z -1.0000 I 0.3339 J 0.2641
G03 X 8.3425 Y 6.3274 Z -1.0000 I -0.7417 J -0.4130
G03 X 8.3173 Y 6.3629 Z -1.0000 I -0.4195 J -0.2718
G02 X 8.2912 Y 6.3978 Z -1.0000 I 0.8413 J 0.6557
G02 X 8.2757 Y 6.4210 Z -1.0000 I 0.3509 J 0.2511
G03 X 8.2588 Y 6.4407 Z -1.0000 I -0.0733 J -0.0456
G01 X 8.2483 Y 6.4447 Z -1.0000
G01 X 8.2399 Y 6.4489 Z -1.0000
G01 X 8.2356 Y 6.4621 Z -1.0000
G01 X 8.2305 Y 6.4760 Z -1.0000
G01 X 8.2141 Y 6.4877 Z -1.0000
G01 X 8.1984 Y 6.4999 Z -1.0000
G01 X 8.1925 Y 6.5187 Z -1.0000
G03 X 8.1891 Y 6.5406 Z -1.0000 I -0.0708 J 0.0000
G03 X 8.1764 Y 6.5684 Z -1.0000 I -0.1278 J -0.0415
G02 X 8.1619 Y 6.5960 Z -1.0000 I 0.2315 J 0.1395
G02 X 8.1505 Y 6.6254 Z -1.0000 I 0.2504 J 0.1138
G03 X 8.1376 Y 6.6538 Z -1.0000 I -0.1339 J -0.0432
G03 X 8.1021 Y 6.7069 Z -1.0000 I -0.5039 J -0.2987
G02 X 8.0661 Y 6.7592 Z -1.0000 I 0.6267 J 0.4707
G01 X 8.0635 Y 6.7681 Z -1.0000
G01 X 8.0612 Y 6.7771 Z -1.0000
G03 X 8.0461 Y 6.8000 Z -1.0000 I -0.1440 J -0.0786
G02 X 8.0332 Y 6.8237 Z -1.0000 I 0.0631 J 0.0496
G02 X 8.0268 Y 6.8569 Z -1.0000 I 0.1187 J 0.0403
G03 X 8.0209 Y 6.8890 Z -1.0000 I -0.1334 J -0.0076
G01 X 8.0147 Y 6.8957 Z -1.0000
G01 X 8.0092 Y 6.9020 Z -1.0000
G01 X 8.0092 Y 6.9174 Z -1.0000
G01 X 8.0088 Y 6.9312 Z -1.0000
G01 X 8.0033 Y 6.9351 Z -1.0000
G01 X 7.9999 Y 6.9390 Z -1.0000
G01 X 8.0068 Y 6.9566 Z -1.0000
G01 X 8.0122 Y 6.9735 Z -1.0000
G01 X 8.0078 Y 6.9781 Z -1.0000
G01 X 7.9976 Y 6.9864 Z -1.0000
G01 X 8.0033 Y 6.9996 Z -1.0000
G01 X 8.0090 Y 7.0129 Z -1.0000
G01 X 7.9990 Y 7.0211 Z -1.0000
G01 X 7.9880 Y 7.0335 Z -1.0000
G01 X 8.0033 Y 7.0576 Z -1.0000
G01 X 8.0081 Y 7.0718 Z -1.0000
G01 X 7.9943 Y 7.0814 Z -1.0000
G01 X 7.9748 Y 7.0871 Z -1.0000
G01 X 7.9706 Y 7.0964 Z -1.0000
G01 X 7.9666 Y 7.1053 Z -1.0000
G01 X 7.9501 Y 7.1091 Z -1.0000
G02 X 7.9289 Y 7.1104 Z -1.0000 I -0.0067 J 0.0652
G01 X 7.9217 Y 7.1156 Z -1.0000
G01 X 7.9146 Y 7.1216 Z -1.0000
G01 X 7.8995 Y 7.1244 Z -1.0000
G01 X 7.8878 Y 7.1294 Z -1.0000
G01 X 7.8828 Y 7.1416 Z -1.0000
G01 X 7.8780 Y 7.1541 Z -1.0000
G01 X 7.8673 Y 7.1588 Z -1.0000
G01 X 7.8556 Y 7.1641 Z -1.0000
G02 X 7.8411 Y 7.1885 Z -1.0000 I 0.0568 J 0.0502
G03 X 7.8268 Y 7.2157 Z -1.0000 I -0.1056 J -0.0382
G03 X 7.8039 Y 7.2405 Z -1.0000 I -0.1098 J -0.0786
G02 X 7.7703 Y 7.2770 Z -1.0000 I 0.1265 J 0.1503
G02 X 7.7085 Y 7.3748 Z -1.0000 I 0.8667 J 0.6153
G03 X 7.6736 Y 7.4291 Z -1.0000 I -0.4373 J -0.2438
G03 X 7.6443 Y 7.4616 Z -1.0000 I -0.1847 J -0.1368
G02 X 7.5806 Y 7.5303 Z -1.0000 I 0.3936 J 0.4286
G01 X 7.5730 Y 7.5521 Z -1.0000
G01 X 7.5753 Y 7.5578 Z -1.0000
G02 X 7.6032 Y 7.5830 Z -1.0000 I 0.2160 J -0.2105
G03 X 7.6264 Y 7.6103 Z -1.0000 I -0.0589 J 0.0738
G03 X 7.6333 Y 7.6362 Z -1.0000 I -0.0459 J 0.0260
G02 X 7.6366 Y 7.6636 Z -1.0000 I 0.1133 J -0.0000
G01 X 7.6419 Y 7.6708 Z -1.0000
G01 X 7.6484 Y 7.6773 Z -1.0000
G01 X 7.6505 Y 7.6847 Z -1.0000
G01 X 7.6478 Y 7.6886 Z -1.0000
G01 X 7.6420 Y 7.6880 Z -1.0000
G01 X 7.6384 Y 7.6957 Z -1.0000
G01 X 7.6461 Y 7.7061 Z -1.0000
G02 X 7.6685 Y 7.7198 Z -1.0000 I 0.0634 J -0.0789
G01 X 7.6784 Y 7.7388 Z -1.0000
G01 X 7.6627 Y 7.7497 Z -1.0000
G01 X 7.6432 Y 7.7512 Z -1.0000
G01 X 7.6417 Y 7.7565 Z -1.0000
G02 X 7.7110 Y 7.8180 Z -1.0000 I 0.2340 J -0.1942
G02 X 7.7752 Y 7.8426 Z -1.0000 I 0.0908 J -0.1409
G03 X 7.8096 Y 7.8484 Z -1.0000 I -0.2663 J 1.6800
G03 X 7.8309 Y 7.8526 Z -1.0000 I -0.1172 J 0.6528
G01 X 7.8378 Y 7.8488 Z -1.0000
G01 X 7.8360 Y 7.8392 Z -1.0000
G01 X 7.8383 Y 7.8293 Z -1.0000
G01 X 7.8577 Y 7.8303 Z -1.0000
G01 X 7.8719 Y 7.8326 Z -1.0000
G01 X 7.8793 Y 7.8265 Z -1.0000
G01 X 7.8871 Y 7.8200 Z -1.0000
G01 X 7.9056 Y 7.8218 Z -1.0000
G02 X 7.9338 Y 7.8259 Z -1.0000 I 0.0234 J -0.0616
G01 X 7.9361 Y 7.8196 Z -1.0000
G01 X 7.9393 Y 7.8114 Z -1.0000
G03 X 7.9839 Y 7.8180 Z -1.0000 I 0.0042 J 0.1266
G03 X 8.0215 Y 7.8487 Z -1.0000 I -0.0218 J 0.0650
G01 X 8.0110 Y 7.8650 Z -1.0000
G01 X 7.9987 Y 7.8672 Z -1.0000
G01 X 7.9864 Y 7.8768 Z -1.0000
G01 X 7.9747 Y 7.8854 Z -1.0000
G01 X 7.9673 Y 7.8849 Z -1.0000
G01 X 7.9595 Y 7.8842 Z -1.0000
G02 X 7.9426 Y 7.8948 Z -1.0000 I 0.0214 J 0.0530
G01 X 7.9260 Y 7.9026 Z -1.0000
G01 X 7.9131 Y 7.8989 Z -1.0000
G01 X 7.9000 Y 7.8942 Z -1.0000
G01 X 7.8868 Y 7.8990 Z -1.0000
G01 X 7.8729 Y 7.9044 Z -1.0000
G01 X 7.8531 Y 7.9006 Z -1.0000
G01 X 7.8353 Y 7.8978 Z -1.0000
G01 X 7.8278 Y 7.9036 Z -1.0000
G01 X 7.8204 Y 7.9121 Z -1.0000
G01 X 7.8056 Y 7.9160 Z -1.0000
G01 X 7.7916 Y 7.9194 Z -1.0000
G01 X 7.7881 Y 7.9252 Z -1.0000
G01 X 7.7845 Y 7.9303 Z -1.0000
G01 X 7.7688 Y 7.9319 Z -1.0000
G02 X 7.7500 Y 7.9322 Z -1.0000 I -0.0083 J 0.0630
G01 X 7.7369 Y 7.9372 Z -1.0000
G01 X 7.7236 Y 7.9423 Z -1.0000
G03 X 7.6839 Y 7.9470 Z -1.0000 I -0.0546 J -0.2960
G03 X 7.6459 Y 7.9427 Z -1.0000 I -0.0060 J -0.1188
G01 X 7.6275 Y 7.9312 Z -1.0000
G01 X 7.6193 Y 7.9154 Z -1.0000
G01 X 7.6225 Y 7.9097 Z -1.0000
G01 X 7.6330 Y 7.8935 Z -1.0000
G01 X 7.6198 Y 7.8759 Z -1.0000
G01 X 7.6118 Y 7.8684 Z -1.0000
G01 X 7.6114 Y 7.8577 Z -1.0000
G01 X 7.6118 Y 7.8455 Z -1.0000
G01 X 7.6028 Y 7.8295 Z -1.0000
G01 X 7.5958 Y 7.8154 Z -1.0000
G01 X 7.5988 Y 7.8084 Z -1.0000
G01 X 7.6018 Y 7.8015 Z -1.0000
G01 X 7.5939 Y 7.7862 Z -1.0000
G01 X 7.5860 Y 7.7699 Z -1.0000
G01 X 7.5893 Y 7.7580 Z -1.0000
G01 X 7.5917 Y 7.7479 Z -1.0000
G01 X 7.5852 Y 7.7405 Z -1.0000
G01 X 7.5771 Y 7.7321 Z -1.0000
G01 X 7.5764 Y 7.7142 Z -1.0000
G02 X 7.5779 Y 7.6948 Z -1.0000 I -0.0560 J -0.0141
G01 X 7.5741 Y 7.6886 Z -1.0000
G01 X 7.5700 Y 7.6820 Z -1.0000
G03 X 7.5688 Y 7.6322 Z -1.0000 I 0.3591 J -0.0339
G01 X 7.5666 Y 7.5804 Z -1.0000
G01 X 7.5364 Y 7.5955 Z -1.0000
G02 X 7.5214 Y 7.6406 Z -1.0000 I 0.0602 J 0.0451
G03 X 7.5052 Y 7.7111 Z -1.0000 I -0.1617 J -0.0000
G03 X 7.4379 Y 7.8131 Z -1.0000 I -0.4161 J -0.2014
G02 X 7.4154 Y 7.8447 Z -1.0000 I 0.1505 J 0.1309
G02 X 7.4011 Y 7.8773 Z -1.0000 I 0.1448 J 0.0831
G03 X 7.3890 Y 7.9112 Z -1.0000 I -0.5060 J -0.1609
G03 X 7.3790 Y 7.9332 Z -1.0000 I -0.2215 J -0.0874
G02 X 7.3591 Y 7.9819 Z -1.0000 I 0.2621 J 0.1355
G02 X 7.3571 Y 8.0042 Z -1.0000 I 0.0511 J 0.0157
G01 X 7.3539 Y 8.0148 Z -1.0000
G01 X 7.3442 Y 8.0192 Z -1.0000
G01 X 7.3396 Y 8.0237 Z -1.0000
G01 X 7.3437 Y 8.0350 Z -1.0000
G01 X 7.3519 Y 8.0550 Z -1.0000
G01 X 7.3450 Y 8.0623 Z -1.0000
G01 X 7.3349 Y 8.0705 Z -1.0000
G01 X 7.3407 Y 8.0838 Z -1.0000
G01 X 7.3465 Y 8.0970 Z -1.0000
G01 X 7.3364 Y 8.1053 Z -1.0000
G01 X 7.3291 Y 8.1137 Z -1.0000
G01 X 7.3407 Y 8.1354 Z -1.0000
G01 X 7.3470 Y 8.1536 Z -1.0000
G01 X 7.3364 Y 8.1604 Z -1.0000
G01 X 7.3187 Y 8.1600 Z -1.0000
G01 X 7.3149 Y 8.1645 Z -1.0000
G01 X 7.3110 Y 8.1701 Z -1.0000
G03 X 7.2891 Y 8.1740 Z -1.0000 I -0.0219 J -0.0594
G01 X 7.2682 Y 8.1790 Z -1.0000
G01 X 7.2633 Y 8.1870 Z -1.0000
G01 X 7.2592 Y 8.1959 Z -1.0000
G01 X 7.2482 Y 8.2001 Z -1.0000
G02 X 7.2081 Y 8.2138 Z -1.0000 I 0.0013 J 0.0700
G01 X 7.1941 Y 8.2400 Z -1.0000
G01 X 7.1917 Y 8.2463 Z -1.0000
G03 X 7.1433 Y 8.3017 Z -1.0000 I -0.9730 J -0.8015
G02 X 7.0963 Y 8.3588 Z -1.0000 I 0.4630 J 0.4291
G02 X 7.0648 Y 8.4093 Z -1.0000 I 0.3309 J 0.2414
G03 X 7.0339 Y 8.4602 Z -1.0000 I -0.4304 J -0.2268
G03 X 7.0008 Y 8.5015 Z -1.0000 I -0.3153 J -0.2191
G02 X 6.9661 Y 8.5418 Z -1.0000 I 0.5476 J 0.5055
G02 X 6.9411 Y 8.5761 Z -1.0000 I 0.3710 J 0.2964
G03 X 6.9157 Y 8.6091 Z -1.0000 I -0.2458 J -0.1627
G01 X 6.9055 Y 8.6163 Z -1.0000
G01 X 6.8970 Y 8.6235 Z -1.0000
G01 X 6.8933 Y 8.6378 Z -1.0000
G01 X 6.8897 Y 8.6532 Z -1.0000
G03 X 6.8729 Y 8.6789 Z -1.0000 I -0.1158 J -0.0573
G02 X 6.8559 Y 8.7049 Z -1.0000 I 0.0996 J 0.0835
G02 X 6.8460 Y 8.7333 Z -1.0000 I 0.1095 J 0.0540
G03 X 6.8266 Y 8.7870 Z -1.0000 I -0.2064 J -0.0442
G03 X 6.7933 Y 8.8340 Z -1.0000 I -0.1899 J -0.0994
G02 X 6.7190 Y 8.9229 Z -1.0000 I 0.7601 J 0.7104
G01 X 6.7126 Y 8.9424 Z -1.0000
G01 X 6.7100 Y 8.9546 Z -1.0000
G01 X 6.7040 Y 8.9613 Z -1.0000
G01 X 6.6982 Y 8.9682 Z -1.0000
G01 X 6.6954 Y 8.9834 Z -1.0000
G01 X 6.6921 Y 8.9968 Z -1.0000
G01 X 6.6866 Y 9.0001 Z -1.0000
G01 X 6.6800 Y 9.0033 Z -1.0000
G02 X 6.6696 Y 9.0216 Z -1.0000 I 0.0546 J 0.0430
G03 X 6.6591 Y 9.0397 Z -1.0000 I -0.0606 J -0.0231
G01 X 6.6519 Y 9.0431 Z -1.0000
G01 X 6.6473 Y 9.0471 Z -1.0000
G02 X 6.6483 Y 9.0698 Z -1.0000 I 0.0643 J 0.0088
G01 X 6.6451 Y 9.0866 Z -1.0000
G01 X 6.6347 Y 9.0903 Z -1.0000
G01 X 6.6241 Y 9.0922 Z -1.0000
G01 X 6.6219 Y 9.1002 Z -1.0000
G03 X 6.6297 Y 9.1366 Z -1.0000 I -0.0975 J 0.0400
G01 X 6.6233 Y 9.1412 Z -1.0000
G01 X 6.6169 Y 9.1467 Z -1.0000
G02 X 6.6309 Y 9.1772 Z -1.0000 I 0.0745 J -0.0157
G03 X 6.6513 Y 9.2058 Z -1.0000 I -0.4696 J 0.3582
G01 X 6.6524 Y 9.2092 Z -1.0000
G01 X 6.6180 Y 9.2185 Z -1.0000
G02 X 6.5872 Y 9.2271 Z -1.0000 I 0.0214 J 0.1348
G01 X 6.5835 Y 9.2327 Z -1.0000
G01 X 6.5800 Y 9.2368 Z -1.0000
G01 X 6.5633 Y 9.2363 Z -1.0000
G01 X 6.5311 Y 9.2451 Z -1.0000
G02 X 6.5147 Y 9.2843 Z -1.0000 I 0.0387 J 0.0392
G02 X 6.5519 Y 9.5006 Z -1.0000 I 0.6483 J -0.0000
G01 X 6.6007 Y 9.5270 Z -1.0000
G01 X 6.6288 Y 9.5377 Z -1.0000
G03 X 6.6405 Y 9.5843 Z -1.0000 I -0.0557 J 0.0388
G02 X 6.6426 Y 9.6104 Z -1.0000 I 0.0668 J 0.0078
G01 X 6.6525 Y 9.6267 Z -1.0000
G01 X 6.6635 Y 9.6432 Z -1.0000
G03 X 6.6724 Y 9.6798 Z -1.0000 I -0.1487 J 0.0556
G02 X 6.6892 Y 9.7661 Z -1.0000 I 0.6027 J -0.0727
G01 X 6.7006 Y 9.7839 Z -1.0000
G01 X 6.7082 Y 9.7959 Z -1.0000
G03 X 6.7126 Y 9.8298 Z -1.0000 I -0.1298 J 0.0339
G02 X 6.7165 Y 9.8641 Z -1.0000 I 0.1535 J 0.0000
G01 X 6.7234 Y 9.8766 Z -1.0000
G01 X 6.7261 Y 9.8869 Z -1.0000
G01 X 6.7175 Y 9.8998 Z -1.0000
G01 X 6.7102 Y 9.9155 Z -1.0000
G02 X 6.7256 Y 10.0132 Z -1.0000 I 0.5854 J -0.0421
G02 X 6.7775 Y 10.1718 Z -1.0000 I 1.0702 J -0.2625
G01 X 6.7996 Y 10.1921 Z -1.0000
G01 X 6.8155 Y 10.2007 Z -1.0000
G03 X 6.8482 Y 10.2319 Z -1.0000 I -0.1909 J 0.2333
G02 X 6.8810 Y 10.2636 Z -1.0000 I 0.2541 J -0.2296
G02 X 6.9034 Y 10.2786 Z -1.0000 I 0.0774 J -0.0914
G01 X 6.9198 Y 10.2982 Z -1.0000
G01 X 6.9126 Y 10.3080 Z -1.0000
G01 X 6.9101 Y 10.3119 Z -1.0000
G01 X 6.9195 Y 10.3231 Z -1.0000
G03 X 6.9361 Y 10.3402 Z -1.0000 I -0.0341 J 0.0499
G01 X 6.9384 Y 10.3523 Z -1.0000
G01 X 6.9389 Y 10.3650 Z -1.0000
G01 X 6.9444 Y 10.3722 Z -1.0000
G01 X 6.9500 Y 10.3856 Z -1.0000
G01 X 6.9393 Y 10.3940 Z -1.0000
G01 X 6.9349 Y 10.3984 Z -1.0000
G01 X 6.9393 Y 10.4097 Z -1.0000
G03 X 6.9507 Y 10.4266 Z -1.0000 I -0.0550 J 0.0495
G01 X 6.9535 Y 10.4388 Z -1.0000
G01 X 6.9565 Y 10.4507 Z -1.0000
G01 X 6.9666 Y 10.4630 Z -1.0000
G01 X 6.9749 Y 10.4753 Z -1.0000
G01 X 6.9749 Y 10.4890 Z -1.0000
G01 X 6.9746 Y 10.5030 Z -1.0000
G01 X 6.9821 Y 10.5160 Z -1.0000
G01 X 6.9910 Y 10.5295 Z -1.0000
G03 X 6.9980 Y 10.5547 Z -1.0000 I -0.0996 J 0.0409
G01 X 6.9955 Y 10.5737 Z -1.0000
G01 X 6.9885 Y 10.5767 Z -1.0000
G01 X 6.9944 Y 10.5932 Z -1.0000
G01 X 7.0042 Y 10.6160 Z -1.0000
G01 X 6.9965 Y 10.6220 Z -1.0000
G01 X 6.9873 Y 10.6288 Z -1.0000
G01 X 6.9965 Y 10.6455 Z -1.0000
G01 X 7.0108 Y 10.6666 Z -1.0000
G01 X 7.0030 Y 10.6810 Z -1.0000
G01 X 7.0005 Y 10.6865 Z -1.0000
G01 X 7.0094 Y 10.6986 Z -1.0000
G03 X 7.0348 Y 10.7286 Z -1.0000 I -0.0558 J 0.0729
G01 X 7.0304 Y 10.7384 Z -1.0000
G01 X 7.0094 Y 10.7434 Z -1.0000
G01 X 7.0331 Y 10.7589 Z -1.0000
G03 X 7.0531 Y 10.7765 Z -1.0000 I -0.0534 J 0.0807
G01 X 7.0568 Y 10.7865 Z -1.0000
G01 X 7.0509 Y 10.7937 Z -1.0000
G03 X 6.9843 Y 10.8015 Z -1.0000 I -0.0772 J -0.3726
G02 X 6.9480 Y 10.8104 Z -1.0000 I 0.0026 J 0.0887
G01 X 6.9359 Y 10.8250 Z -1.0000
G02 X 6.9430 Y 11.0725 Z -1.0000 I 0.4138 J 0.1120
G01 X 7.0248 Y 11.0919 Z -1.0000
G01 X 7.0593 Y 11.0950 Z -1.0000
G01 X 7.0605 Y 11.1434 Z -1.0000
G01 X 7.0592 Y 11.1517 Z -1.0000
G01 X 7.0654 Y 11.1640 Z -1.0000
G01 X 7.0716 Y 11.1765 Z -1.0000
G01 X 7.0704 Y 11.1844 Z -1.0000
G01 X 7.0691 Y 11.1929 Z -1.0000
G02 X 7.0829 Y 11.2336 Z -1.0000 I 0.2672 J -0.0679
G03 X 7.0966 Y 11.2747 Z -1.0000 I -0.2409 J 0.1033
G01 X 7.0959 Y 11.2866 Z -1.0000
G01 X 7.0948 Y 11.2984 Z -1.0000
G02 X 7.1016 Y 11.3174 Z -1.0000 I 0.0622 J -0.0117
G03 X 7.1093 Y 11.3365 Z -1.0000 I -0.0738 J 0.0409
G01 X 7.1097 Y 11.3475 Z -1.0000
G01 X 7.1100 Y 11.3583 Z -1.0000
G01 X 7.1153 Y 11.3690 Z -1.0000
G03 X 7.1338 Y 11.4137 Z -1.0000 I -0.0711 J 0.0556
G01 X 7.1241 Y 11.4417 Z -1.0000
G01 X 7.1210 Y 11.4513 Z -1.0000
G01 X 7.1289 Y 11.4707 Z -1.0000
G03 X 7.1389 Y 11.5025 Z -1.0000 I -0.0451 J 0.0316
G01 X 7.1288 Y 11.5125 Z -1.0000
G01 X 7.1214 Y 11.5183 Z -1.0000
G02 X 7.1199 Y 11.5491 Z -1.0000 I 0.0797 J 0.0194
G02 X 7.1370 Y 11.6380 Z -1.0000 I 0.8802 J -0.1231
G02 X 7.1663 Y 11.7381 Z -1.0000 I 1.1473 J -0.2818
G02 X 7.1973 Y 11.8007 Z -1.0000 I 0.2536 J -0.0866
G01 X 7.2197 Y 11.8178 Z -1.0000
G03 X 7.2467 Y 11.8304 Z -1.0000 I -0.0433 J 0.1281
G01 X 7.2527 Y 11.8379 Z -1.0000
G01 X 7.2629 Y 11.8401 Z -1.0000
G01 X 7.2719 Y 11.8173 Z -1.0000
G01 X 7.2840 Y 11.8030 Z -1.0000
G01 X 7.3045 Y 11.8120 Z -1.0000
G01 X 7.3064 Y 11.8252 Z -1.0000
G01 X 7.2987 Y 11.8308 Z -1.0000
G01 X 7.2896 Y 11.8395 Z -1.0000
G01 X 7.2977 Y 11.8505 Z -1.0000
G01 X 7.3157 Y 11.8691 Z -1.0000
G01 X 7.3050 Y 11.8825 Z -1.0000
G01 X 7.3024 Y 11.8858 Z -1.0000
G01 X 7.3093 Y 11.8982 Z -1.0000
G03 X 7.3202 Y 11.9152 Z -1.0000 I -0.0471 J 0.0424
G01 X 7.3235 Y 11.9309 Z -1.0000
G01 X 7.3264 Y 11.9467 Z -1.0000
G01 X 7.3342 Y 11.9593 Z -1.0000
G01 X 7.3382 Y 11.9691 Z -1.0000
G01 X 7.3343 Y 11.9746 Z -1.0000
G01 X 7.3296 Y 11.9808 Z -1.0000
G01 X 7.3326 Y 11.9952 Z -1.0000
G03 X 7.3384 Y 12.0118 Z -1.0000 I -0.0508 J 0.0271
G01 X 7.3370 Y 12.0192 Z -1.0000
G01 X 7.3368 Y 12.0258 Z -1.0000
G02 X 7.3495 Y 12.0418 Z -1.0000 I 0.0544 J -0.0300
G03 X 7.3632 Y 12.0587 Z -1.0000 I -0.0478 J 0.0526
G01 X 7.3665 Y 12.0712 Z -1.0000
G01 X 7.3691 Y 12.0843 Z -1.0000
G02 X 7.3799 Y 12.1043 Z -1.0000 I 0.0933 J -0.0378
G03 X 7.3894 Y 12.1235 Z -1.0000 I -0.0573 J 0.0401
G01 X 7.3884 Y 12.1314 Z -1.0000
G01 X 7.3874 Y 12.1385 Z -1.0000
G01 X 7.3922 Y 12.1448 Z -1.0000
G01 X 7.3978 Y 12.1520 Z -1.0000
G03 X 7.4009 Y 12.1707 Z -1.0000 I -0.0555 J 0.0187
G02 X 7.4040 Y 12.1895 Z -1.0000 I 0.0595 J -0.0000
G01 X 7.4095 Y 12.1965 Z -1.0000
G01 X 7.4130 Y 12.2086 Z -1.0000
G01 X 7.4009 Y 12.2137 Z -1.0000
G01 X 7.3872 Y 12.2131 Z -1.0000
G01 X 7.3837 Y 12.2174 Z -1.0000
G01 X 7.3865 Y 12.2250 Z -1.0000
G02 X 7.4009 Y 12.2373 Z -1.0000 I 0.0480 J -0.0416
G01 X 7.4161 Y 12.2585 Z -1.0000
G01 X 7.4089 Y 12.2713 Z -1.0000
G01 X 7.4064 Y 12.2764 Z -1.0000
G02 X 7.4171 Y 12.2966 Z -1.0000 I 0.0621 J -0.0202
G03 X 7.4275 Y 12.3183 Z -1.0000 I -0.0431 J 0.0339
G01 X 7.4245 Y 12.3288 Z -1.0000
G01 X 7.4225 Y 12.3387 Z -1.0000
G02 X 7.4384 Y 12.3611 Z -1.0000 I 0.0608 J -0.0262
G03 X 7.4567 Y 12.3846 Z -1.0000 I -0.0634 J 0.0684
G01 X 7.4575 Y 12.3960 Z -1.0000
G01 X 7.4561 Y 12.4084 Z -1.0000
G02 X 7.4615 Y 12.4252 Z -1.0000 I 0.0496 J -0.0068
G01 X 7.4569 Y 12.4358 Z -1.0000
G03 X 7.3880 Y 12.4455 Z -1.0000 I -0.0717 J -0.2589
G01 X 7.3364 Y 12.4461 Z -1.0000
G01 X 7.3337 Y 12.4791 Z -1.0000
G02 X 7.3621 Y 12.6967 Z -1.0000 I 0.5196 J 0.0427
G02 X 7.4277 Y 12.7429 Z -1.0000 I 0.0655 J -0.0233
G01 X 7.4409 Y 12.7470 Z -1.0000
G01 X 7.4523 Y 12.7596 Z -1.0000
G01 X 7.4573 Y 12.7790 Z -1.0000
G01 X 7.4526 Y 12.7816 Z -1.0000
G01 X 7.4460 Y 12.7861 Z -1.0000
G02 X 7.4660 Y 12.8545 Z -1.0000 I 0.3451 J -0.0638
G03 X 7.4854 Y 12.9094 Z -1.0000 I -0.5794 J 0.2354
G03 X 7.4917 Y 12.9398 Z -1.0000 I -0.1701 J 0.0513
G02 X 7.4957 Y 12.9709 Z -1.0000 I 1.8997 J -0.2243
G02 X 7.5000 Y 13.0011 Z -1.0000 I 1.8352 J -0.2472
G03 X 7.5036 Y 13.0313 Z -1.0000 I -0.4710 J 0.0714
G03 X 7.5058 Y 13.0681 Z -1.0000 I -0.6927 J 0.0601
G02 X 7.5099 Y 13.1034 Z -1.0000 I 0.2127 J -0.0072
G01 X 7.5142 Y 13.1095 Z -1.0000
G01 X 7.5242 Y 13.1307 Z -1.0000
G01 X 7.5085 Y 13.1504 Z -1.0000
G01 X 7.4972 Y 13.1669 Z -1.0000
G02 X 7.5082 Y 13.2455 Z -1.0000 I 0.2805 J 0.0007
G03 X 7.5192 Y 13.2896 Z -1.0000 I -0.5896 J 0.1704
G03 X 7.5258 Y 13.3293 Z -1.0000 I -0.4663 J 0.0981
G02 X 7.5584 Y 13.4283 Z -1.0000 I 0.2677 J -0.0331
G01 X 7.5928 Y 13.4485 Z -1.0000
G01 X 7.6012 Y 13.4513 Z -1.0000
G03 X 7.6355 Y 13.4808 Z -1.0000 I -0.2175 J 0.2880
G01 X 7.6629 Y 13.4980 Z -1.0000
G01 X 7.6620 Y 13.4862 Z -1.0000
G01 X 7.6661 Y 13.4829 Z -1.0000
G01 X 7.6955 Y 13.4960 Z -1.0000
G01 X 7.6975 Y 13.5178 Z -1.0000
G01 X 7.6965 Y 13.5254 Z -1.0000
G02 X 7.7062 Y 13.5460 Z -1.0000 I 0.0781 J -0.0242
G03 X 7.7155 Y 13.5677 Z -1.0000 I -0.0563 J 0.0369
G03 X 7.7176 Y 13.5948 Z -1.0000 I -0.0875 J 0.0203
G02 X 7.7216 Y 13.6200 Z -1.0000 I 0.0547 J 0.0042
G01 X 7.7346 Y 13.6358 Z -1.0000
G01 X 7.7477 Y 13.6517 Z -1.0000
G03 X 7.7537 Y 13.6812 Z -1.0000 I -0.0703 J 0.0296
G02 X 7.7583 Y 13.7121 Z -1.0000 I 0.1044 J 0.0000
G01 X 7.7683 Y 13.7286 Z -1.0000
G01 X 7.7778 Y 13.7452 Z -1.0000
G03 X 7.7806 Y 13.7770 Z -1.0000 I -0.0973 J 0.0246
G02 X 7.7821 Y 13.8095 Z -1.0000 I 0.1374 J 0.0099
G01 X 7.7882 Y 13.8228 Z -1.0000
G01 X 7.7940 Y 13.8353 Z -1.0000
G01 X 7.7924 Y 13.8443 Z -1.0000
G01 X 7.7911 Y 13.8535 Z -1.0000
G02 X 7.8012 Y 13.8759 Z -1.0000 I 0.0765 J -0.0212
G01 X 7.8085 Y 13.8965 Z -1.0000
G01 X 7.8043 Y 13.9051 Z -1.0000
G01 X 7.8011 Y 13.9133 Z -1.0000
G01 X 7.8120 Y 13.9326 Z -1.0000
G03 X 7.8278 Y 13.9543 Z -1.0000 I -0.0797 J 0.0748
G01 X 7.8311 Y 13.9669 Z -1.0000
G01 X 7.8339 Y 13.9794 Z -1.0000
G01 X 7.8403 Y 13.9866 Z -1.0000
G01 X 7.8453 Y 13.9937 Z -1.0000
G01 X 7.8444 Y 14.0056 Z -1.0000
G01 X 7.8441 Y 14.0180 Z -1.0000
G01 X 7.8538 Y 14.0349 Z -1.0000
G01 X 7.8505 Y 14.0506 Z -1.0000
G03 X 7.7926 Y 14.0622 Z -1.0000 I -0.0547 J -0.1225
G01 X 7.7299 Y 14.0607 Z -1.0000
G01 X 7.7247 Y 14.0931 Z -1.0000
G02 X 7.7366 Y 14.2421 Z -1.0000 I 0.3121 J 0.0499
G02 X 7.8134 Y 14.3619 Z -1.0000 I 0.2720 J -0.0898
G03 X 7.8280 Y 14.3798 Z -1.0000 I -0.0577 J 0.0618
G01 X 7.8311 Y 14.3911 Z -1.0000
G01 X 7.8327 Y 14.4034 Z -1.0000
G02 X 7.8385 Y 14.4187 Z -1.0000 I 0.0803 J -0.0213
G03 X 7.8673 Y 14.4883 Z -1.0000 I -0.5323 J 0.2615
G03 X 7.8774 Y 14.5326 Z -1.0000 I -0.2043 J 0.0698
G02 X 7.8830 Y 14.5712 Z -1.0000 I 0.7927 J -0.0946
G02 X 7.8942 Y 14.6316 Z -1.0000 I 1.9440 J -0.3288
G03 X 7.9054 Y 14.6919 Z -1.0000 I -2.1971 J 0.4423
G03 X 7.9068 Y 14.7047 Z -1.0000 I -0.0969 J 0.0168
G02 X 7.9083 Y 14.7174 Z -1.0000 I 0.0816 J -0.0033
G02 X 7.9132 Y 14.7370 Z -1.0000 I 0.1983 J -0.0397
G01 X 7.9141 Y 14.7526 Z -1.0000
G01 X 7.9096 Y 14.7563 Z -1.0000
G01 X 7.8992 Y 14.7666 Z -1.0000
G02 X 7.9093 Y 14.8467 Z -1.0000 I 0.3157 J 0.0011
G03 X 7.9181 Y 14.8811 Z -1.0000 I -9.2373 J 2.3862
G03 X 7.9268 Y 14.9155 Z -1.0000 I -9.5050 J 2.4176
G02 X 7.9371 Y 14.9493 Z -1.0000 I 0.3272 J -0.0819
G02 X 7.9567 Y 14.9974 Z -1.0000 I 0.6851 J -0.2503
G02 X 7.9842 Y 15.0387 Z -1.0000 I 0.1363 J -0.0611
G02 X 8.0186 Y 15.0632 Z -1.0000 I 0.0786 J -0.0740
G02 X 8.0595 Y 15.0805 Z -1.0000 I 0.4186 J -0.9306
G02 X 8.0806 Y 15.0879 Z -1.0000 I 0.0962 J -0.2415
G01 X 8.0895 Y 15.0861 Z -1.0000
G01 X 8.0901 Y 15.0800 Z -1.0000
G01 X 8.0890 Y 15.0649 Z -1.0000
G01 X 8.1020 Y 15.0605 Z -1.0000
G01 X 8.1229 Y 15.0814 Z -1.0000
G01 X 8.1168 Y 15.0994 Z -1.0000
G01 X 8.1038 Y 15.1284 Z -1.0000
G02 X 8.1332 Y 15.1920 Z -1.0000 I 0.1349 J -0.0239
G01 X 8.1392 Y 15.2035 Z -1.0000
G03 X 8.1456 Y 15.2396 Z -1.0000 I -0.2295 J 0.0595
G02 X 8.1536 Y 15.2750 Z -1.0000 I 0.1497 J -0.0149
G02 X 8.1676 Y 15.3014 Z -1.0000 I 0.0957 J -0.0340
G03 X 8.1808 Y 15.3280 Z -1.0000 I -0.0682 J 0.0504
G03 X 8.1885 Y 15.3727 Z -1.0000 I -0.1905 J 0.0559
G02 X 8.1972 Y 15.4161 Z -1.0000 I 0.1574 J -0.0089
G01 X 8.2104 Y 15.4348 Z -1.0000
G01 X 8.2200 Y 15.4525 Z -1.0000
G01 X 8.2152 Y 15.4792 Z -1.0000
G02 X 8.2064 Y 15.5071 Z -1.0000 I 0.0838 J 0.0418
G01 X 8.2096 Y 15.5168 Z -1.0000
G01 X 8.2158 Y 15.5266 Z -1.0000
G01 X 8.2183 Y 15.5411 Z -1.0000
G01 X 8.2220 Y 15.5550 Z -1.0000
G02 X 8.2355 Y 15.5714 Z -1.0000 I 0.0538 J -0.0306
G01 X 8.2454 Y 15.5911 Z -1.0000
G01 X 8.2377 Y 15.6013 Z -1.0000
G01 X 8.2338 Y 15.6072 Z -1.0000
G01 X 8.2420 Y 15.6210 Z -1.0000
G01 X 8.2405 Y 15.6485 Z -1.0000
G03 X 8.1875 Y 15.6588 Z -1.0000 I -0.0383 J -0.0552
G02 X 8.1348 Y 15.6682 Z -1.0000 I -0.0151 J 0.0676
G01 X 8.1186 Y 15.7033 Z -1.0000
G02 X 8.1509 Y 15.8434 Z -1.0000 I 0.7561 J -0.1002
G02 X 8.1964 Y 15.9375 Z -1.0000 I 0.3835 J -0.1273
G02 X 8.2131 Y 15.9568 Z -1.0000 I 0.0810 J -0.0531
G01 X 8.2246 Y 15.9625 Z -1.0000
G01 X 8.2432 Y 15.9795 Z -1.0000
G03 X 8.2739 Y 16.1319 Z -1.0000 I -0.8872 J 0.2581
G02 X 8.2797 Y 16.1693 Z -1.0000 I 0.4833 J -0.0555
G02 X 8.2864 Y 16.1964 Z -1.0000 I 0.2633 J -0.0512
G03 X 8.3079 Y 16.3154 Z -1.0000 I -0.4896 J 0.1496
G01 X 8.2947 Y 16.3337 Z -1.0000
G01 X 8.2837 Y 16.3429 Z -1.0000
G01 X 8.2817 Y 16.3626 Z -1.0000
G03 X 8.2868 Y 16.3869 Z -1.0000 I -1.3489 J 0.2982
G03 X 8.3009 Y 16.4578 Z -1.0000 I -11.2512 J 2.2764
G02 X 8.3206 Y 16.5265 Z -1.0000 I 0.4082 J -0.0799
G02 X 8.3487 Y 16.5825 Z -1.0000 I 0.2990 J -0.1144
G03 X 8.3810 Y 16.6370 Z -1.0000 I -1.0726 J 0.6747
G03 X 8.3876 Y 16.6519 Z -1.0000 I -0.0726 J 0.0408
G01 X 8.3954 Y 16.6617 Z -1.0000
G01 X 8.4051 Y 16.6626 Z -1.0000
G03 X 8.4179 Y 16.6596 Z -1.0000 I 0.0183 J 0.0482
G03 X 8.4507 Y 16.6578 Z -1.0000 I 0.0328 J 0.3071
G02 X 8.4783 Y 16.6514 Z -1.0000 I 0.0000 J -0.0624
G01 X 8.4866 Y 16.6402 Z -1.0000
G01 X 8.4934 Y 16.6323 Z -1.0000
G01 X 8.5055 Y 16.6345 Z -1.0000
G01 X 8.5141 Y 16.6488 Z -1.0000
G03 X 8.5114 Y 16.6778 Z -1.0000 I -0.0641 J 0.0086
G02 X 8.5075 Y 16.7082 Z -1.0000 I 0.0769 J 0.0254
G01 X 8.5145 Y 16.7284 Z -1.0000
G03 X 8.5244 Y 16.7489 Z -1.0000 I -0.0570 J 0.0399
G03 X 8.5281 Y 16.7749 Z -1.0000 I -0.0892 J 0.0260
G02 X 8.5320 Y 16.8002 Z -1.0000 I 0.0830 J -0.0000
G01 X 8.5399 Y 16.8118 Z -1.0000
G01 X 8.5484 Y 16.8236 Z -1.0000
G03 X 8.5573 Y 16.8563 Z -1.0000 I -0.1479 J 0.0578
G02 X 8.5644 Y 16.8904 Z -1.0000 I 0.3683 J -0.0590
G02 X 8.5700 Y 16.9056 Z -1.0000 I 0.0775 J -0.0200
G03 X 8.6019 Y 16.9807 Z -1.0000 I -0.6889 J 0.3368
G03 X 8.6082 Y 17.0110 Z -1.0000 I -0.1034 J 0.0376
G02 X 8.6122 Y 17.0401 Z -1.0000 I 0.2122 J -0.0141
G01 X 8.6165 Y 17.0507 Z -1.0000
G01 X 8.6197 Y 17.0610 Z -1.0000
G01 X 8.6174 Y 17.0747 Z -1.0000
G01 X 8.6169 Y 17.0878 Z -1.0000
G01 X 8.6265 Y 17.1047 Z -1.0000
G01 X 8.6351 Y 17.1199 Z -1.0000
G01 X 8.6329 Y 17.1258 Z -1.0000
G01 X 8.6203 Y 17.1554 Z -1.0000
G02 X 8.6487 Y 17.2000 Z -1.0000 I 0.0740 J -0.0158
G01 X 8.6505 Y 17.2220 Z -1.0000
G03 X 8.6130 Y 17.2378 Z -1.0000 I -0.0366 J -0.0346
G03 X 8.5670 Y 17.2352 Z -1.0000 I 0.0102 J -0.5868
G03 X 8.5332 Y 17.2301 Z -1.0000 I 0.0307 J -0.3192
G01 X 8.4995 Y 17.2232 Z -1.0000
G01 X 8.5049 Y 17.2782 Z -1.0000
G02 X 8.5165 Y 17.3368 Z -1.0000 I 0.3062 J -0.0299
G02 X 8.5722 Y 17.5020 Z -1.0000 I 2.5104 J -0.7542
G02 X 8.5838 Y 17.5216 Z -1.0000 I 0.0603 J -0.0226
G01 X 8.5987 Y 17.5326 Z -1.0000
G01 X 8.6204 Y 17.5564 Z -1.0000
G03 X 8.6452 Y 17.6688 Z -1.0000 I -0.4860 J 0.1661
G02 X 8.6516 Y 17.7113 Z -1.0000 I 0.4828 J -0.0508
G02 X 8.6570 Y 17.7290 Z -1.0000 I 0.0883 J -0.0173
G03 X 8.6680 Y 17.7610 Z -1.0000 I -0.2257 J 0.0954
G03 X 8.6936 Y 17.8656 Z -1.0000 I -2.3913 J 0.6403
G03 X 8.6959 Y 17.9044 Z -1.0000 I -0.1201 J 0.0266
G01 X 8.6886 Y 17.9155 Z -1.0000
G02 X 8.6515 Y 18.0048 Z -1.0000 I 0.0382 J 0.0682
G02 X 8.7664 Y 18.1930 Z -1.0000 I 0.3911 J -0.1097
G02 X 8.8263 Y 18.2240 Z -1.0000 I 0.0860 J -0.0927
G02 X 8.8782 Y 18.2166 Z -1.0000 I 0.0158 J -0.0748
G01 X 8.9064 Y 18.2168 Z -1.0000
G01 X 8.9087 Y 18.2337 Z -1.0000
G01 X 8.9015 Y 18.2458 Z -1.0000
G02 X 8.8980 Y 18.2690 Z -1.0000 I 0.0763 J 0.0231
G02 X 8.9092 Y 18.3270 Z -1.0000 I 0.1567 J -0.0000
G02 X 8.9452 Y 18.3872 Z -1.0000 I 0.2047 J -0.0817
G01 X 8.9534 Y 18.4014 Z -1.0000
G03 X 8.9623 Y 18.4345 Z -1.0000 I -0.1919 J 0.0692
G02 X 8.9699 Y 18.4683 Z -1.0000 I 0.3999 J -0.0720
G01 X 8.9739 Y 18.4775 Z -1.0000
G01 X 8.9783 Y 18.4866 Z -1.0000
G03 X 8.9810 Y 18.4976 Z -1.0000 I -0.0555 J 0.0198
G02 X 8.9839 Y 18.5087 Z -1.0000 I 0.0545 J -0.0082
G02 X 8.9955 Y 18.5363 Z -1.0000 I 0.3569 J -0.1336
G03 X 9.0039 Y 18.5645 Z -1.0000 I -0.0913 J 0.0427
G03 X 9.0077 Y 18.6206 Z -1.0000 I -0.3625 J 0.0524
G02 X 9.0130 Y 18.6757 Z -1.0000 I 0.2615 J 0.0026
G02 X 9.0245 Y 18.7023 Z -1.0000 I 0.0700 J -0.0144
G03 X 9.0513 Y 18.7634 Z -1.0000 I -0.1404 J 0.0982
G01 X 9.0427 Y 18.7842 Z -1.0000
G03 X 9.0006 Y 18.7960 Z -1.0000 I -0.0407 J -0.0641
G03 X 8.9486 Y 18.7824 Z -1.0000 I 0.0021 J -0.1145
G01 X 8.9226 Y 18.7867 Z -1.0000
G02 X 8.9067 Y 18.8270 Z -1.0000 I 0.0430 J 0.0403
G02 X 8.9276 Y 18.9398 Z -1.0000 I 0.3141 J -0.0000
G02 X 8.9921 Y 19.0489 Z -1.0000 I 0.3572 J -0.1375
G03 X 9.0319 Y 19.1141 Z -1.0000 I -0.1944 J 0.1637
G03 X 9.0652 Y 19.2228 Z -1.0000 I -0.5188 J 0.2182
G02 X 9.0819 Y 19.2942 Z -1.0000 I 1.0817 J -0.2146
G02 X 9.0917 Y 19.3213 Z -1.0000 I 0.1642 J -0.0441
G03 X 9.1092 Y 19.3908 Z -1.0000 I -0.1767 J 0.0814
G03 X 9.0989 Y 19.4395 Z -1.0000 I -0.0935 J 0.0057
G01 X 9.0942 Y 19.4643 Z -1.0000
G02 X 9.1098 Y 19.5470 Z -1.0000 I 0.4905 J -0.0498
G02 X 9.1611 Y 19.6797 Z -1.0000 I 0.7124 J -0.1989
G02 X 9.2069 Y 19.7406 Z -1.0000 I 0.1901 J -0.0953
G01 X 9.2422 Y 19.7664 Z -1.0000
G01 X 9.2545 Y 19.7543 Z -1.0000
G03 X 9.3132 Y 19.7675 Z -1.0000 I -0.0023 J 0.1470
G01 X 9.3244 Y 19.7768 Z -1.0000
G01 X 9.3283 Y 19.7890 Z -1.0000
G01 X 9.3307 Y 19.8032 Z -1.0000
G02 X 9.3494 Y 19.8476 Z -1.0000 I 0.4433 J -0.1604
G03 X 9.3689 Y 19.8920 Z -1.0000 I -0.5988 J 0.2888
G03 X 9.3764 Y 19.9158 Z -1.0000 I -0.1645 J 0.0650
G02 X 9.3836 Y 19.9397 Z -1.0000 I 0.2110 J -0.0505
G01 X 9.3885 Y 19.9489 Z -1.0000
G01 X 9.3931 Y 19.9581 Z -1.0000
G03 X 9.4003 Y 19.9871 Z -1.0000 I -0.2541 J 0.0786
G02 X 9.4086 Y 20.0153 Z -1.0000 I 0.1464 J -0.0278
G02 X 9.4178 Y 20.0301 Z -1.0000 I 0.0482 J -0.0196
G01 X 9.4261 Y 20.0452 Z -1.0000
G03 X 9.4399 Y 20.1059 Z -1.0000 I -0.4966 J 0.1453
G02 X 9.4531 Y 20.1663 Z -1.0000 I 0.6027 J -0.0998
G01 X 9.4582 Y 20.1732 Z -1.0000
G03 X 9.4802 Y 20.2003 Z -1.0000 I -0.0278 J 0.0450
G03 X 9.4917 Y 20.2668 Z -1.0000 I -0.1859 J 0.0665
G01 X 9.4748 Y 20.3016 Z -1.0000
G03 X 9.4301 Y 20.3152 Z -1.0000 I -0.0399 J -0.0509
G02 X 9.3604 Y 20.3217 Z -1.0000 I -0.0157 J 0.2086
G01 X 9.3471 Y 20.3373 Z -1.0000
G02 X 9.3489 Y 20.3638 Z -1.0000 I 0.0804 J 0.0078
G02 X 9.3655 Y 20.4148 Z -1.0000 I 0.3231 J -0.0765
G03 X 9.3856 Y 20.4654 Z -1.0000 I -1.6931 J 0.7044
G03 X 9.3929 Y 20.4866 Z -1.0000 I -0.2881 J 0.1099
G02 X 9.4279 Y 20.5646 Z -1.0000 I 0.3137 J -0.0942
G02 X 9.4622 Y 20.5989 Z -1.0000 I 0.0897 J -0.0554
G03 X 9.4852 Y 20.6207 Z -1.0000 I -0.0403 J 0.0652
G03 X 9.4962 Y 20.6485 Z -1.0000 I -0.0561 J 0.0385
G02 X 9.5029 Y 20.6797 Z -1.0000 I 0.3019 J -0.0482
G02 X 9.5083 Y 20.6934 Z -1.0000 I 0.0627 J -0.0169
G03 X 9.5140 Y 20.7071 Z -1.0000 I -0.0715 J 0.0379
G03 X 9.5218 Y 20.7364 Z -1.0000 I -0.3120 J 0.0977
G02 X 9.5298 Y 20.7655 Z -1.0000 I 0.2534 J -0.0542
G01 X 9.5348 Y 20.7749 Z -1.0000
G01 X 9.5394 Y 20.7843 Z -1.0000
G03 X 9.5473 Y 20.8222 Z -1.0000 I -0.3487 J 0.0921
G02 X 9.5544 Y 20.8606 Z -1.0000 I 0.5960 J -0.0904
G02 X 9.5619 Y 20.8892 Z -1.0000 I 0.3393 J -0.0743
G01 X 9.5527 Y 20.9249 Z -1.0000
G03 X 9.5074 Y 20.9412 Z -1.0000 I -0.0412 J -0.0432
G02 X 9.4693 Y 20.9521 Z -1.0000 I -0.0040 J 0.0577
G01 X 9.4631 Y 20.9734 Z -1.0000
G01 X 9.4635 Y 20.9863 Z -1.0000
G03 X 9.4516 Y 21.0100 Z -1.0000 I -0.0788 J -0.0246
G02 X 9.4363 Y 21.0338 Z -1.0000 I 0.2142 J 0.1543
G02 X 9.4100 Y 21.0832 Z -1.0000 I 0.8953 J 0.5092
G03 X 9.3286 Y 21.1608 Z -1.0000 I -0.1482 J -0.0740
G03 X 9.2616 Y 21.1487 Z -1.0000 I -0.0245 J -0.0556
G02 X 9.2329 Y 21.1263 Z -1.0000 I -0.1146 J 0.1172
G01 X 9.2166 Y 21.1210 Z -1.0000
G01 X 9.2010 Y 21.1105 Z -1.0000
G03 X 9.1917 Y 21.0717 Z -1.0000 I 0.0766 J -0.0388
G02 X 9.1912 Y 21.0589 Z -1.0000 I -0.1650 J 0.0001
G02 X 9.1874 Y 21.0171 Z -1.0000 I -1.7540 J 0.1381
G03 X 9.1864 Y 20.9758 Z -1.0000 I 0.2636 J -0.0271
G03 X 9.1907 Y 20.9553 Z -1.0000 I 0.0679 J 0.0036
G01 X 9.1832 Y 20.9411 Z -1.0000
G01 X 9.1621 Y 20.9485 Z -1.0000
G03 X 9.1452 Y 20.9662 Z -1.0000 I -0.0991 J -0.0779
G01 X 9.1388 Y 20.9685 Z -1.0000
G02 X 9.0819 Y 20.9975 Z -1.0000 I 0.0000 J 0.0702
G02 X 9.0529 Y 21.0869 Z -1.0000 I 0.1233 J 0.0894
G01 X 9.0694 Y 21.1129 Z -1.0000
G01 X 9.1038 Y 21.1110 Z -1.0000
G01 X 9.1102 Y 21.1108 Z -1.0000
G03 X 9.1264 Y 21.1237 Z -1.0000 I -0.0313 J 0.0556
G01 X 9.1433 Y 21.1356 Z -1.0000
G01 X 9.1565 Y 21.1362 Z -1.0000
G01 X 9.1669 Y 21.1387 Z -1.0000
G01 X 9.1759 Y 21.1554 Z -1.0000
G03 X 9.1769 Y 21.2118 Z -1.0000 I -0.1580 J 0.0311
G01 X 9.1638 Y 21.2316 Z -1.0000
G01 X 9.1592 Y 21.2380 Z -1.0000
G02 X 9.1562 Y 21.2650 Z -1.0000 I 0.1187 J 0.0270
G03 X 9.1336 Y 21.3245 Z -1.0000 I -0.0899 J -0.0000
G03 X 9.0835 Y 21.3471 Z -1.0000 I -0.0501 J -0.0444
G03 X 9.0287 Y 21.3350 Z -1.0000 I 0.0000 J -0.1301
G01 X 9.0083 Y 21.3122 Z -1.0000
G01 X 8.9723 Y 21.2804 Z -1.0000
G02 X 8.8843 Y 21.2873 Z -1.0000 I -0.0319 J 0.1588
G01 X 8.8693 Y 21.2962 Z -1.0000
G02 X 8.8375 Y 21.3282 Z -1.0000 I 0.2124 J 0.2422
G02 X 8.7536 Y 21.4287 Z -1.0000 I 3.3642 J 2.8951
G02 X 8.7394 Y 21.4493 Z -1.0000 I 0.1260 J 0.1021
G03 X 8.7305 Y 21.4624 Z -1.0000 I -0.0997 J -0.0580
G03 X 8.7151 Y 21.4804 Z -1.0000 I -0.2017 J -0.1580
G02 X 8.7001 Y 21.4987 Z -1.0000 I 0.1171 J 0.1109
G02 X 8.6763 Y 21.5357 Z -1.0000 I 0.4621 J 0.3239
G02 X 8.6626 Y 21.5761 Z -1.0000 I 0.0891 J 0.0526
G02 X 8.6579 Y 21.6913 Z -1.0000 I 0.7485 J 0.0886
G02 X 8.6699 Y 21.7684 Z -1.0000 I 0.3265 J -0.0115
G01 X 8.6848 Y 21.7869 Z -1.0000
G01 X 8.7007 Y 21.7902 Z -1.0000
G01 X 8.7097 Y 21.7846 Z -1.0000
G01 X 8.7172 Y 21.7837 Z -1.0000
G01 X 8.7288 Y 21.7925 Z -1.0000
G01 X 8.7499 Y 21.7751 Z -1.0000
G01 X 8.7592 Y 21.7558 Z -1.0000
G01 X 8.7598 Y 21.7751 Z -1.0000
G01 X 8.7659 Y 21.7888 Z -1.0000
G01 X 8.7800 Y 21.7945 Z -1.0000
G01 X 8.7916 Y 21.7873 Z -1.0000
G01 X 8.7964 Y 21.7609 Z -1.0000
G03 X 8.8002 Y 21.7320 Z -1.0000 I 0.0639 J -0.0061
G01 X 8.8113 Y 21.7216 Z -1.0000
G02 X 8.8435 Y 21.6928 Z -1.0000 I -0.0160 J -0.0502
G02 X 8.8675 Y 21.5949 Z -1.0000 I -0.2619 J -0.1163
G01 X 8.8694 Y 21.5895 Z -1.0000
G03 X 8.8790 Y 21.5777 Z -1.0000 I 0.0654 J 0.0439
G01 X 8.8893 Y 21.5736 Z -1.0000
G01 X 8.8973 Y 21.5782 Z -1.0000
G01 X 8.9045 Y 21.5835 Z -1.0000
G01 X 8.9097 Y 21.5814 Z -1.0000
G01 X 8.9324 Y 21.5723 Z -1.0000
G03 X 8.9674 Y 21.5965 Z -1.0000 I -0.0158 J 0.0602
G03 X 8.9838 Y 21.6432 Z -1.0000 I -0.0731 J 0.0519
G03 X 8.9725 Y 21.6841 Z -1.0000 I -0.0659 J 0.0038
G02 X 8.9560 Y 21.7159 Z -1.0000 I 0.1268 J 0.0860
G02 X 8.9451 Y 21.7565 Z -1.0000 I 0.1982 J 0.0751
G02 X 8.9412 Y 21.8018 Z -1.0000 I 0.2903 J 0.0478
G02 X 8.9444 Y 21.8310 Z -1.0000 I 0.1228 J 0.0011
G01 X 8.9410 Y 21.8478 Z -1.0000
G01 X 8.9262 Y 21.8557 Z -1.0000
G01 X 8.9175 Y 21.8607 Z -1.0000
G01 X 8.9213 Y 21.8713 Z -1.0000
G03 X 8.8936 Y 21.8930 Z -1.0000 I -0.0532 J -0.0394
G03 X 8.8637 Y 21.9005 Z -1.0000 I -0.0403 J -0.0968
G03 X 8.7995 Y 21.9024 Z -1.0000 I -0.0451 J -0.4510
G02 X 8.7399 Y 21.9051 Z -1.0000 I -0.0142 J 0.3401
G01 X 8.7346 Y 21.9112 Z -1.0000
G02 X 8.7450 Y 21.9561 Z -1.0000 I 0.1021 J 0.0000
G01 X 8.7618 Y 21.9666 Z -1.0000
G01 X 8.7665 Y 21.9691 Z -1.0000
G01 X 8.7690 Y 21.9773 Z -1.0000
G02 X 8.7849 Y 22.0314 Z -1.0000 I 0.1011 J -0.0003
G02 X 8.8862 Y 22.1610 Z -1.0000 I 0.7277 J -0.4640
G03 X 8.9393 Y 22.2220 Z -1.0000 I -0.7001 J 0.6634
G03 X 8.9589 Y 22.2520 Z -1.0000 I -0.1478 J 0.1182
G02 X 8.9705 Y 22.2711 Z -1.0000 I 0.1619 J -0.0854
G01 X 8.9758 Y 22.2763 Z -1.0000
G01 X 8.9816 Y 22.2814 Z -1.0000
G03 X 9.0154 Y 22.3206 Z -1.0000 I -1.0459 J 0.9365
G02 X 9.0970 Y 22.4014 Z -1.0000 I 0.4572 J -0.3799
G02 X 9.1676 Y 22.4447 Z -1.0000 I 0.1955 J -0.2398
G03 X 9.1941 Y 22.4580 Z -1.0000 I -0.1130 J 0.2572
G03 X 9.2078 Y 22.4676 Z -1.0000 I -0.0459 J 0.0803
G03 X 9.2532 Y 22.5146 Z -1.0000 I -0.2096 J 0.2482
G03 X 9.2929 Y 22.5755 Z -1.0000 I -0.3150 J 0.2486
G02 X 9.3675 Y 22.6702 Z -1.0000 I 0.2972 J -0.1573
G02 X 9.5263 Y 22.7816 Z -1.0000 I 0.5754 J -0.6516
G03 X 9.5700 Y 22.8056 Z -1.0000 I -7.6375 J 13.9839
G03 X 9.5865 Y 22.8147 Z -1.0000 I -0.9400 J 1.7084
G03 X 9.6134 Y 22.8339 Z -1.0000 I -0.0762 J 0.1353
G03 X 9.7793 Y 22.9862 Z -1.0000 I -4.7363 J 5.3281
G02 X 10.0298 Y 23.1889 Z -1.0000 I 1.4263 J -1.5059
G02 X 10.1107 Y 23.2142 Z -1.0000 I 0.0815 J -0.1185
G01 X 10.1237 Y 23.2164 Z -1.0000
G03 X 10.1493 Y 23.2274 Z -1.0000 I -0.0614 J 0.1787
G02 X 10.1750 Y 23.2380 Z -1.0000 I 0.0707 J -0.1361
G01 X 10.1881 Y 23.2393 Z -1.0000
G01 X 10.2138 Y 23.2438 Z -1.0000
G01 X 10.2175 Y 23.2531 Z -1.0000
G01 X 10.2241 Y 23.2896 Z -1.0000
G02 X 10.2666 Y 23.3088 Z -1.0000 I 0.0425 J -0.0374
G01 X 10.2726 Y 23.3110 Z -1.0000
G01 X 10.2748 Y 23.3157 Z -1.0000
G01 X 10.2857 Y 23.3316 Z -1.0000
G02 X 10.3789 Y 23.3556 Z -1.0000 I 0.1513 J -0.3952
G03 X 10.4277 Y 23.3782 Z -1.0000 I -0.0128 J 0.0918
G03 X 10.4857 Y 23.4508 Z -1.0000 I -0.1832 J 0.2056
G03 X 10.5354 Y 23.5653 Z -1.0000 I -0.5788 J 0.3193
G03 X 10.5628 Y 23.6874 Z -1.0000 I -0.6310 J 0.2056
G02 X 10.5879 Y 23.7752 Z -1.0000 I 0.3002 J -0.0383
G02 X 10.6550 Y 23.8884 Z -1.0000 I 0.5690 J -0.2608
G02 X 10.6914 Y 23.9207 Z -1.0000 I 0.0956 J -0.0713
G02 X 10.7626 Y 23.9499 Z -1.0000 I 0.1481 J -0.2592
G01 X 10.7776 Y 23.9598 Z -1.0000
G03 X 10.8051 Y 24.0040 Z -1.0000 I -0.1878 J 0.1475
G02 X 10.8299 Y 24.0524 Z -1.0000 I 0.9152 J -0.4389
G02 X 10.8706 Y 24.1238 Z -1.0000 I 2.0348 J -1.1135
G03 X 10.9083 Y 24.1964 Z -1.0000 I -0.6079 J 0.3613
G03 X 10.9303 Y 24.2571 Z -1.0000 I -0.4028 J 0.1801
G02 X 10.9492 Y 24.3193 Z -1.0000 I 1.4839 J -0.4178
G02 X 10.9557 Y 24.3346 Z -1.0000 I 0.0946 J -0.0310
G01 X 10.9543 Y 24.3647 Z -1.0000
G03 X 10.9205 Y 24.3888 Z -1.0000 I -0.0476 J -0.0310
G01 X 10.8925 Y 24.4101 Z -1.0000
G01 X 10.8895 Y 24.4432 Z -1.0000
G02 X 10.9031 Y 24.4739 Z -1.0000 I 0.2068 J -0.0731
G02 X 10.9358 Y 24.5293 Z -1.0000 I 0.7011 J -0.3767
G03 X 11.0250 Y 24.6862 Z -1.0000 I -1.3335 J 0.8620
G03 X 11.0750 Y 24.8102 Z -1.0000 I -0.7823 J 0.3877
G02 X 11.1455 Y 24.9616 Z -1.0000 I 0.6175 J -0.1956
G02 X 11.2182 Y 25.0360 Z -1.0000 I 0.2119 J -0.1345
G03 X 11.2342 Y 25.0466 Z -1.0000 I -1.3290 J 2.0165
G02 X 11.2633 Y 25.0661 Z -1.0000 I 15.8557 J -23.6465
G03 X 11.3303 Y 25.1281 Z -1.0000 I -0.1618 J 0.2421
G03 X 11.3904 Y 25.2275 Z -1.0000 I -0.3707 J 0.2917
G02 X 11.3969 Y 25.2400 Z -1.0000 I 0.1131 J -0.0510
G02 X 11.4109 Y 25.2619 Z -1.0000 I 0.3415 J -0.2034
G03 X 11.4648 Y 25.3743 Z -1.0000 I -0.3314 J 0.2280
G01 X 11.4535 Y 25.4039 Z -1.0000
G01 X 11.4447 Y 25.4262 Z -1.0000
G02 X 11.4809 Y 25.5055 Z -1.0000 I 0.2556 J -0.0687
G02 X 11.5175 Y 25.5582 Z -1.0000 I 1.8397 J -1.2399
G01 X 11.5222 Y 25.5631 Z -1.0000
G03 X 11.5702 Y 25.6174 Z -1.0000 I -0.1337 J 0.1665
G03 X 11.5826 Y 25.6613 Z -1.0000 I -0.0711 J 0.0439
G01 X 11.5834 Y 25.6643 Z -1.0000
G02 X 11.6181 Y 25.7235 Z -1.0000 I 2.5253 J -1.4384
G02 X 11.6771 Y 25.8023 Z -1.0000 I 0.4164 J -0.2505
G02 X 11.8071 Y 25.9288 Z -1.0000 I 1.2151 J -1.1192
G03 X 11.9108 Y 26.0384 Z -1.0000 I -0.5156 J 0.5919
G03 X 11.9914 Y 26.1654 Z -1.0000 I -0.6157 J 0.4795
G02 X 12.0221 Y 26.2199 Z -1.0000 I 0.6284 J -0.3181
G02 X 12.0614 Y 26.2778 Z -1.0000 I 0.7494 J -0.4671
G03 X 12.1014 Y 26.3353 Z -1.0000 I -0.9599 J 0.7097
G03 X 12.1204 Y 26.3681 Z -1.0000 I -0.2943 J 0.1920
G02 X 12.1383 Y 26.4015 Z -1.0000 I 0.8128 J -0.4140
G01 X 12.1419 Y 26.4063 Z -1.0000
G01 X 12.1460 Y 26.4109 Z -1.0000
G03 X 12.1712 Y 26.4450 Z -1.0000 I -1.5921 J 1.2063
G02 X 12.2023 Y 26.4807 Z -1.0000 I 0.2140 J -0.1552
G02 X 12.2848 Y 26.5539 Z -1.0000 I 0.9963 J -1.0392
G03 X 12.3432 Y 26.6035 Z -1.0000 I -1.5101 J 1.8384
G03 X 12.3633 Y 26.6228 Z -1.0000 I -0.2082 J 0.2374
G02 X 12.3828 Y 26.6427 Z -1.0000 I 0.8235 J -0.7863
G02 X 12.4267 Y 26.6859 Z -1.0000 I 3.8488 J -3.8598
G03 X 12.4691 Y 26.7305 Z -1.0000 I -0.5854 J 0.6003
G03 X 12.5105 Y 26.7806 Z -1.0000 I -0.7009 J 0.6204
G02 X 12.5502 Y 26.8322 Z -1.0000 I 26.2972 J -20.2115
G02 X 12.5570 Y 26.8408 Z -1.0000 I 0.6637 J -0.5122
G03 X 12.5637 Y 26.8495 Z -1.0000 I -0.1945 J 0.1572
G03 X 12.6143 Y 26.9183 Z -1.0000 I -20.7970 J 15.3548
G02 X 12.6913 Y 27.0013 Z -1.0000 I 0.3988 J -0.2924
G02 X 12.7829 Y 27.0628 Z -1.0000 I 0.3053 J -0.3562
G03 X 12.8483 Y 27.1119 Z -1.0000 I -0.1094 J 0.2139
G03 X 12.9428 Y 27.2324 Z -1.0000 I -0.6125 J 0.5774
G03 X 12.9755 Y 27.2848 Z -1.0000 I -1.6447 J 1.0628
G01 X 12.9765 Y 27.2884 Z -1.0000
G02 X 13.0015 Y 27.3435 Z -1.0000 I 0.0733 J -0.0000
G02 X 13.0964 Y 27.3932 Z -1.0000 I 0.1505 J -0.1720
G03 X 13.1678 Y 27.4247 Z -1.0000 I -0.0558 J 0.2231
G03 X 13.2700 Y 27.5084 Z -1.0000 I -0.3663 J 0.5520
G03 X 13.3172 Y 27.5576 Z -1.0000 I -1.1689 J 1.1685
G01 X 13.3217 Y 27.5645 Z -1.0000
G01 X 13.3262 Y 27.5712 Z -1.0000
G02 X 13.3664 Y 27.6082 Z -1.0000 I 0.6505 J -0.6652
G02 X 13.4371 Y 27.6452 Z -1.0000 I 0.1134 J -0.1305
G02 X 13.6622 Y 27.6834 Z -1.0000 I 0.3483 J -1.3689
G02 X 13.6970 Y 27.6821 Z -1.0000 I 0.0120 J -0.1381
G01 X 13.7138 Y 27.6748 Z -1.0000
G03 X 13.7302 Y 27.6657 Z -1.0000 I 0.0400 J 0.0523
G01 X 13.7450 Y 27.6628 Z -1.0000
G01 X 13.7748 Y 27.6518 Z -1.0000
G01 X 13.7853 Y 27.6294 Z -1.0000
G01 X 13.7879 Y 27.6221 Z -1.0000
G03 X 13.8051 Y 27.6051 Z -1.0000 I 0.0859 J 0.0699
G02 X 13.8228 Y 27.5878 Z -1.0000 I -0.0728 J -0.0923
G01 X 13.8306 Y 27.5743 Z -1.0000
G01 X 13.8393 Y 27.5636 Z -1.0000
G01 X 13.8538 Y 27.5593 Z -1.0000
G01 X 13.8671 Y 27.5551 Z -1.0000
G01 X 13.8713 Y 27.5470 Z -1.0000
G01 X 13.8865 Y 27.5258 Z -1.0000
G03 X 13.9894 Y 27.5066 Z -1.0000 I 0.1167 J 0.3415
G02 X 14.0553 Y 27.4992 Z -1.0000 I -0.0176 J -0.4525
G02 X 14.1122 Y 27.4835 Z -1.0000 I -0.0656 J -0.3492
G03 X 14.1684 Y 27.4636 Z -1.0000 I 0.9329 J 2.5416
G03 X 14.1961 Y 27.4548 Z -1.0000 I 0.2118 J 0.6189
G02 X 14.2211 Y 27.4444 Z -1.0000 I -0.0341 J -0.1166
G01 X 14.2241 Y 27.4392 Z -1.0000
G01 X 14.2270 Y 27.4340 Z -1.0000
G03 X 14.2513 Y 27.4224 Z -1.0000 I 0.0644 J 0.1035
G02 X 14.2773 Y 27.4107 Z -1.0000 I -0.0529 J -0.1521
G02 X 14.3072 Y 27.3910 Z -1.0000 I -0.1253 J -0.2231
G01 X 14.3359 Y 27.3738 Z -1.0000
G01 X 14.3491 Y 27.3785 Z -1.0000
G02 X 14.3718 Y 27.3303 Z -1.0000 I -0.0836 J -0.0687
G01 X 14.3782 Y 27.3180 Z -1.0000
G01 X 14.3919 Y 27.3101 Z -1.0000
G02 X 14.4403 Y 27.2883 Z -1.0000 I -0.0450 J -0.1644
G02 X 14.4676 Y 27.2605 Z -1.0000 I -0.0500 J -0.0764
G01 X 14.4759 Y 27.2521 Z -1.0000
G01 X 14.4849 Y 27.2495 Z -1.0000
G01 X 14.4937 Y 27.2466 Z -1.0000
G01 X 14.5049 Y 27.2345 Z -1.0000
G01 X 14.5167 Y 27.2218 Z -1.0000
G03 X 14.5478 Y 27.2026 Z -1.0000 I 0.1274 J 0.1718
G02 X 14.5807 Y 27.1851 Z -1.0000 I -0.3476 J -0.6926
G02 X 14.5921 Y 27.1777 Z -1.0000 I -0.0545 J -0.0968
G03 X 14.6422 Y 27.1518 Z -1.0000 I 0.1064 J 0.1443
G03 X 14.7495 Y 27.1257 Z -1.0000 I 0.2157 J 0.6519
G02 X 14.8446 Y 27.0913 Z -1.0000 I -0.0426 J -0.2662
G02 X 14.9645 Y 26.9980 Z -1.0000 I -0.3107 J -0.5233
G02 X 15.0289 Y 26.9286 Z -1.0000 I -0.9191 J -0.9179
G01 X 15.0373 Y 26.9136 Z -1.0000
G01 X 15.0463 Y 26.9033 Z -1.0000
G01 X 15.0627 Y 26.9017 Z -1.0000
G01 X 15.0809 Y 26.9025 Z -1.0000
G01 X 15.0884 Y 26.8974 Z -1.0000
G01 X 15.0961 Y 26.8916 Z -1.0000
G03 X 15.1194 Y 26.8881 Z -1.0000 I 0.0234 J 0.0777
G02 X 15.1414 Y 26.8848 Z -1.0000 I 0.0000 J -0.0747
G01 X 15.1447 Y 26.8803 Z -1.0000
G01 X 15.1477 Y 26.8742 Z -1.0000
G03 X 15.1835 Y 26.8498 Z -1.0000 I 0.1961 J 0.2493
G02 X 15.2186 Y 26.8251 Z -1.0000 I -0.1308 J -0.2233
G01 X 15.2222 Y 26.8175 Z -1.0000
G01 X 15.2244 Y 26.8132 Z -1.0000
G01 X 15.2280 Y 26.8136 Z -1.0000
G01 X 15.2339 Y 26.8150 Z -1.0000
G01 X 15.2473 Y 26.8076 Z -1.0000
G03 X 15.3310 Y 26.7484 Z -1.0000 I 0.3438 J 0.3969
G03 X 15.3849 Y 26.7291 Z -1.0000 I 0.0812 J 0.1424
G02 X 15.4208 Y 26.7206 Z -1.0000 I -0.0476 J -0.2822
G02 X 15.4445 Y 26.7109 Z -1.0000 I -0.0405 J -0.1328
G03 X 15.4678 Y 26.7005 Z -1.0000 I 0.0942 J 0.1802
G01 X 15.4768 Y 26.6989 Z -1.0000
G02 X 15.5943 Y 26.6487 Z -1.0000 I -0.0009 J -0.1647
G02 X 15.6438 Y 26.5262 Z -1.0000 I -0.1267 J -0.1225
G03 X 15.6723 Y 26.4606 Z -1.0000 I 0.0900 J -0.0000
G03 X 15.7441 Y 26.4321 Z -1.0000 I 0.0719 J 0.0766
G01 X 15.7536 Y 26.4299 Z -1.0000
G01 X 15.7658 Y 26.4214 Z -1.0000
G01 X 15.7783 Y 26.4130 Z -1.0000
G03 X 15.7944 Y 26.4083 Z -1.0000 I 0.0235 J 0.0513
G02 X 15.9562 Y 26.3663 Z -1.0000 I -0.0903 J -0.6807
G02 X 16.0512 Y 26.3070 Z -1.0000 I -0.1131 J -0.2864
G03 X 16.0845 Y 26.2796 Z -1.0000 I 0.2653 J 0.2895
G01 X 16.0917 Y 26.2773 Z -1.0000
G01 X 16.0975 Y 26.2748 Z -1.0000
G01 X 16.0998 Y 26.2691 Z -1.0000
G01 X 16.1018 Y 26.2614 Z -1.0000
G03 X 16.1212 Y 26.2294 Z -1.0000 I 0.3213 J 0.1727
G02 X 16.1358 Y 26.1976 Z -1.0000 I -0.0884 J -0.0600
G01 X 16.1341 Y 26.1823 Z -1.0000
G03 X 16.1279 Y 26.1510 Z -1.0000 I 0.0479 J -0.0256
G01 X 16.1380 Y 26.1449 Z -1.0000
G01 X 16.1461 Y 26.1426 Z -1.0000
G01 X 16.1530 Y 26.1261 Z -1.0000
G03 X 16.1601 Y 26.1055 Z -1.0000 I 0.0505 J 0.0059
G01 X 16.1730 Y 26.0932 Z -1.0000
G02 X 16.1896 Y 26.0829 Z -1.0000 I -0.0933 J -0.1705
G01 X 16.1945 Y 26.0785 Z -1.0000
G03 X 16.2431 Y 26.0513 Z -1.0000 I 0.0590 J 0.0485
G01 X 16.2634 Y 26.0690 Z -1.0000
G01 X 16.3112 Y 26.1186 Z -1.0000
G02 X 16.3996 Y 26.0740 Z -1.0000 I 0.0037 J -0.1026
G01 X 16.4068 Y 26.0675 Z -1.0000
G03 X 16.4527 Y 26.0456 Z -1.0000 I 0.2637 J 0.4940
G02 X 16.5699 Y 25.9835 Z -1.0000 I -0.2948 J -0.6983
G02 X 16.5936 Y 25.9544 Z -1.0000 I -0.0329 J -0.0508
G01 X 16.6006 Y 25.9449 Z -1.0000
G01 X 16.6099 Y 25.9418 Z -1.0000
G01 X 16.6186 Y 25.9374 Z -1.0000
G02 X 16.6424 Y 25.8989 Z -1.0000 I -0.1871 J -0.1421
G03 X 16.6671 Y 25.8618 Z -1.0000 I 0.1537 J 0.0754
G01 X 16.6800 Y 25.8558 Z -1.0000
G01 X 16.6907 Y 25.8500 Z -1.0000
G01 X 16.6935 Y 25.8288 Z -1.0000
G03 X 16.7624 Y 25.8087 Z -1.0000 I 0.0755 J 0.1307
G01 X 16.7789 Y 25.8038 Z -1.0000
G01 X 16.7818 Y 25.7973 Z -1.0000
G01 X 16.7843 Y 25.7908 Z -1.0000
G01 X 16.7963 Y 25.7869 Z -1.0000
G01 X 16.8114 Y 25.7828 Z -1.0000
G02 X 16.8415 Y 25.7604 Z -1.0000 I -0.0870 J -0.1483
G03 X 16.9556 Y 25.6827 Z -1.0000 I 0.3112 J 0.3346
G03 X 17.0421 Y 25.6646 Z -1.0000 I 0.0806 J 0.1687
G02 X 17.1063 Y 25.6476 Z -1.0000 I 0.0037 J -0.1160
G02 X 17.1959 Y 25.5704 Z -1.0000 I -0.1922 J -0.3142
G02 X 17.2687 Y 25.4601 Z -1.0000 I -0.4353 J -0.3662
G01 X 17.2611 Y 25.4410 Z -1.0000
G01 X 17.2581 Y 25.4364 Z -1.0000
G03 X 17.2642 Y 25.4050 Z -1.0000 I 0.1519 J 0.0131
G03 X 17.3258 Y 25.3311 Z -1.0000 I 0.1187 J 0.0363
G03 X 17.3976 Y 25.3359 Z -1.0000 I 0.0320 J 0.0617
G02 X 17.4165 Y 25.3449 Z -1.0000 I 0.0369 J -0.0530
G01 X 17.4250 Y 25.3438 Z -1.0000
G01 X 17.4310 Y 25.3431 Z -1.0000
G01 X 17.4336 Y 25.3468 Z -1.0000
G01 X 17.4541 Y 25.3630 Z -1.0000
G02 X 17.5756 Y 25.3134 Z -1.0000 I -0.0962 J -0.4091
G03 X 17.6016 Y 25.2992 Z -1.0000 I 0.1754 J 0.2896
G01 X 17.6057 Y 25.2986 Z -1.0000
G01 X 17.6324 Y 25.2921 Z -1.0000
G02 X 17.7175 Y 25.2099 Z -1.0000 I -0.3781 J -0.4767
G03 X 17.8180 Y 25.1112 Z -1.0000 I 0.6019 J 0.5125
G03 X 17.8534 Y 25.0984 Z -1.0000 I 0.0359 J 0.0437
G02 X 17.8840 Y 25.0942 Z -1.0000 I -0.0010 J -0.1227
G02 X 17.9020 Y 25.0855 Z -1.0000 I -0.0135 J -0.0507
G03 X 17.9195 Y 25.0751 Z -1.0000 I 0.0578 J 0.0770
G01 X 17.9296 Y 25.0728 Z -1.0000
G01 X 17.9553 Y 25.0648 Z -1.0000
G02 X 18.0498 Y 24.9891 Z -1.0000 I -0.5205 J -0.7476
G03 X 18.0976 Y 24.9553 Z -1.0000 I 0.1593 J 0.1740
G03 X 18.1690 Y 24.9252 Z -1.0000 I 0.1949 J 0.3634
G02 X 18.3052 Y 24.8616 Z -1.0000 I -0.1701 J -0.5418
G02 X 18.3465 Y 24.8116 Z -1.0000 I -0.0572 J -0.0893
G03 X 18.3754 Y 24.7637 Z -1.0000 I 0.1582 J 0.0630
G01 X 18.3954 Y 24.7545 Z -1.0000
G01 X 18.4013 Y 24.7518 Z -1.0000
G02 X 18.4145 Y 24.7330 Z -1.0000 I -0.0742 J -0.0656
G03 X 18.4283 Y 24.7153 Z -1.0000 I 0.0570 J 0.0303
G01 X 18.4383 Y 24.7115 Z -1.0000
G01 X 18.4499 Y 24.7087 Z -1.0000
G02 X 18.4889 Y 24.6857 Z -1.0000 I -0.1695 J -0.3321
G03 X 18.5277 Y 24.6616 Z -1.0000 I 0.3388 J 0.5017
G01 X 18.5342 Y 24.6598 Z -1.0000
G01 X 18.5406 Y 24.6582 Z -1.0000
G02 X 18.5724 Y 24.6386 Z -1.0000 I -0.2087 J -0.3754
G01 X 18.6038 Y 24.6224 Z -1.0000
G01 X 18.6250 Y 24.6135 Z -1.0000
G03 X 18.6469 Y 24.6020 Z -1.0000 I 0.0705 J 0.1081
G01 X 18.6594 Y 24.5996 Z -1.0000
G01 X 18.6698 Y 24.5968 Z -1.0000
G01 X 18.6726 Y 24.5920 Z -1.0000
G01 X 18.6758 Y 24.5870 Z -1.0000
G03 X 18.7027 Y 24.5787 Z -1.0000 I 0.0495 J 0.1119
G02 X 18.7295 Y 24.5703 Z -1.0000 I -0.0217 J -0.1160
G01 X 18.7328 Y 24.5651 Z -1.0000
G01 X 18.7357 Y 24.5613 Z -1.0000
G01 X 18.7447 Y 24.5617 Z -1.0000
G01 X 18.7730 Y 24.5596 Z -1.0000
G02 X 18.8561 Y 24.4988 Z -1.0000 I -0.2152 J -0.3817
G02 X 18.9851 Y 24.3630 Z -1.0000 I -1.0260 J -1.1037
G01 X 18.9938 Y 24.3345 Z -1.0000
G01 X 18.9945 Y 24.3211 Z -1.0000
G03 X 19.0000 Y 24.3064 Z -1.0000 I 0.0536 J 0.0116
G01 X 19.0041 Y 24.2926 Z -1.0000
G01 X 19.0020 Y 24.2864 Z -1.0000
G01 X 18.9985 Y 24.2379 Z -1.0000
G03 X 19.0641 Y 24.2032 Z -1.0000 I 0.0695 J 0.0519
G01 X 19.0684 Y 24.1961 Z -1.0000
G01 X 19.0608 Y 24.1895 Z -1.0000
G01 X 19.0631 Y 24.1839 Z -1.0000
G03 X 19.0796 Y 24.1806 Z -1.0000 I 0.0180 J 0.0472
G03 X 19.1062 Y 24.1826 Z -1.0000 I 0.0039 J 0.1258
G02 X 19.1330 Y 24.1873 Z -1.0000 I 0.4092 J -2.2339
G02 X 19.1478 Y 24.1897 Z -1.0000 I 0.1097 J -0.6424
G03 X 19.1618 Y 24.1934 Z -1.0000 I -0.0097 J 0.0652
G01 X 19.1686 Y 24.1978 Z -1.0000
G01 X 19.1866 Y 24.2039 Z -1.0000
G02 X 19.2783 Y 24.1829 Z -1.0000 I -0.0698 J -0.5145
G02 X 19.4027 Y 24.1207 Z -1.0000 I -0.1469 J -0.4500
G02 X 19.4749 Y 24.0453 Z -1.0000 I -0.1527 J -0.2183
G03 X 19.5039 Y 24.0030 Z -1.0000 I 0.6202 J 0.3941
G01 X 19.5092 Y 23.9987 Z -1.0000
G01 X 19.5132 Y 23.9941 Z -1.0000
G02 X 19.5158 Y 23.9748 Z -1.0000 I -0.0691 J -0.0193
G01 X 19.5217 Y 23.9577 Z -1.0000
G01 X 19.5395 Y 23.9441 Z -1.0000
G03 X 19.5885 Y 23.9325 Z -1.0000 I 0.0617 J 0.1502
G01 X 19.6082 Y 23.9387 Z -1.0000
G01 X 19.6200 Y 23.9417 Z -1.0000
G01 X 19.6324 Y 23.9337 Z -1.0000
G01 X 19.6448 Y 23.9234 Z -1.0000
G01 X 19.6530 Y 23.9238 Z -1.0000
G01 X 19.6617 Y 23.9247 Z -1.0000
G01 X 19.6760 Y 23.9158 Z -1.0000
G01 X 19.6909 Y 23.9070 Z -1.0000
G01 X 19.7060 Y 23.9072 Z -1.0000
G01 X 19.7180 Y 23.9064 Z -1.0000
G01 X 19.7223 Y 23.8994 Z -1.0000
G01 X 19.7265 Y 23.8888 Z -1.0000
G03 X 19.7482 Y 23.8712 Z -1.0000 I 0.0697 J 0.0635
G02 X 19.7706 Y 23.8540 Z -1.0000 I -0.0616 J -0.1041
G01 X 19.7740 Y 23.8462 Z -1.0000
G01 X 19.7854 Y 23.8260 Z -1.0000
G03 X 19.8514 Y 23.7996 Z -1.0000 I 0.1146 J 0.1902
G02 X 19.8981 Y 23.7873 Z -1.0000 I -0.1373 J -0.6160
G02 X 19.9116 Y 23.7813 Z -1.0000 I -0.0179 J -0.0587
G03 X 19.9248 Y 23.7742 Z -1.0000 I 0.0889 J 0.1503
G03 X 19.9461 Y 23.7648 Z -1.0000 I 0.1618 J 0.3363
G02 X 19.9978 Y 23.7373 Z -1.0000 I -0.1098 J -0.2696
G02 X 20.0461 Y 23.6980 Z -1.0000 I -0.1824 J -0.2733
G02 X 20.0792 Y 23.6590 Z -1.0000 I -0.2011 J -0.2040
G01 X 20.0837 Y 23.6446 Z -1.0000
G01 X 20.0866 Y 23.6299 Z -1.0000
G01 X 20.0923 Y 23.6230 Z -1.0000
G01 X 20.1036 Y 23.6009 Z -1.0000
G01 X 20.0892 Y 23.5817 Z -1.0000
G01 X 20.0708 Y 23.5558 Z -1.0000
G03 X 20.0857 Y 23.4849 Z -1.0000 I 0.1501 J -0.0054
G02 X 20.0974 Y 23.4464 Z -1.0000 I -0.1144 J -0.0556
G01 X 20.0934 Y 23.4280 Z -1.0000
G03 X 20.0778 Y 23.3745 Z -1.0000 I 0.0875 J -0.0546
G01 X 20.0925 Y 23.3457 Z -1.0000
G02 X 20.1062 Y 23.3321 Z -1.0000 I -0.0316 J -0.0453
G01 X 20.1095 Y 23.3214 Z -1.0000
G01 X 20.1147 Y 23.3141 Z -1.0000
G03 X 20.1449 Y 23.3090 Z -1.0000 I 0.0302 J 0.0858
G02 X 20.1781 Y 23.3033 Z -1.0000 I 0.0000 J -0.0999
G02 X 20.2058 Y 23.2875 Z -1.0000 I -0.0296 J -0.0837
G03 X 20.2434 Y 23.2701 Z -1.0000 I 0.0504 J 0.0598
G03 X 20.2854 Y 23.2743 Z -1.0000 I 0.0132 J 0.0800
G01 X 20.3013 Y 23.2870 Z -1.0000
G01 X 20.3074 Y 23.3070 Z -1.0000
G03 X 20.3040 Y 23.3299 Z -1.0000 I -0.0784 J 0.0000
G01 X 20.2968 Y 23.3420 Z -1.0000
G01 X 20.2928 Y 23.3519 Z -1.0000
G01 X 20.2971 Y 23.3595 Z -1.0000
G01 X 20.3049 Y 23.3867 Z -1.0000
G03 X 20.2667 Y 23.4217 Z -1.0000 I -0.0636 J -0.0311
G03 X 20.2425 Y 23.4287 Z -1.0000 I -0.0557 J -0.1459
G03 X 20.2149 Y 23.4323 Z -1.0000 I -0.0371 J -0.1807
G02 X 20.1935 Y 23.4380 Z -1.0000 I 0.0028 J 0.0533
G01 X 20.1910 Y 23.4445 Z -1.0000
G01 X 20.1897 Y 23.4706 Z -1.0000
G01 X 20.1729 Y 23.4811 Z -1.0000
G01 X 20.1631 Y 23.4846 Z -1.0000
G01 X 20.1551 Y 23.4961 Z -1.0000
G03 X 20.1479 Y 23.5099 Z -1.0000 I -0.0585 J -0.0219
G01 X 20.1404 Y 23.5173 Z -1.0000
G01 X 20.1402 Y 23.5284 Z -1.0000
G02 X 20.1784 Y 23.5445 Z -1.0000 I 0.0543 J -0.0759
G02 X 20.2073 Y 23.5440 Z -1.0000 I 0.0132 J -0.0749
G02 X 20.2343 Y 23.5327 Z -1.0000 I -0.0162 J -0.0766
G03 X 20.2610 Y 23.5183 Z -1.0000 I 0.0912 J 0.1378
G01 X 20.2747 Y 23.5155 Z -1.0000
G01 X 20.2874 Y 23.5119 Z -1.0000
G01 X 20.3005 Y 23.4995 Z -1.0000
G03 X 20.3657 Y 23.4402 Z -1.0000 I 0.1655 J 0.1165
G01 X 20.3849 Y 23.4513 Z -1.0000
G01 X 20.4086 Y 23.4398 Z -1.0000
G03 X 20.4336 Y 23.4268 Z -1.0000 I 0.0626 J 0.0896
G03 X 20.4709 Y 23.4170 Z -1.0000 I 0.0696 J 0.1900
G02 X 20.5097 Y 23.4108 Z -1.0000 I -3.4997 J -21.9244
G03 X 20.5397 Y 23.4060 Z -1.0000 I 1.5254 J 9.4489
G02 X 20.5685 Y 23.3981 Z -1.0000 I -0.0207 J -0.1313
G02 X 20.6012 Y 23.3813 Z -1.0000 I -0.0754 J -0.1880
G02 X 20.7043 Y 23.2971 Z -1.0000 I -0.2925 J -0.4634
G02 X 20.7204 Y 23.2569 Z -1.0000 I -0.0420 J -0.0402
G01 X 20.7238 Y 23.2436 Z -1.0000
G01 X 20.7296 Y 23.2401 Z -1.0000
G02 X 20.7792 Y 23.2217 Z -1.0000 I 0.0000 J -0.0758
G02 X 20.7980 Y 23.1810 Z -1.0000 I -0.0355 J -0.0411
G01 X 20.8011 Y 23.1771 Z -1.0000
G01 X 20.8057 Y 23.1789 Z -1.0000
G01 X 20.8129 Y 23.1813 Z -1.0000
G01 X 20.8235 Y 23.1718 Z -1.0000
G01 X 20.8358 Y 23.1584 Z -1.0000
G01 X 20.8457 Y 23.1574 Z -1.0000
G01 X 20.8569 Y 23.1581 Z -1.0000
G01 X 20.8687 Y 23.1516 Z -1.0000
G03 X 20.9537 Y 23.0928 Z -1.0000 I 0.2349 J 0.2488
G03 X 21.0109 Y 23.0824 Z -1.0000 I 0.0472 J 0.0970
G01 X 21.0184 Y 23.0798 Z -1.0000
G01 X 21.0216 Y 23.0726 Z -1.0000
G01 X 21.0264 Y 23.0660 Z -1.0000
G03 X 21.0742 Y 23.0558 Z -1.0000 I 0.0759 J 0.2380
G02 X 21.2124 Y 23.0068 Z -1.0000 I -0.0365 J -0.3224
G02 X 21.3115 Y 22.9042 Z -1.0000 I -0.1653 J -0.2588
G01 X 21.3184 Y 22.8804 Z -1.0000
G02 X 21.3132 Y 22.8434 Z -1.0000 I -0.1120 J -0.0031
G02 X 21.2956 Y 22.8145 Z -1.0000 I -0.0677 J 0.0214
G01 X 21.2780 Y 22.8084 Z -1.0000
G01 X 21.2576 Y 22.8054 Z -1.0000
G01 X 21.2437 Y 22.7933 Z -1.0000
G01 X 21.2305 Y 22.7793 Z -1.0000
G01 X 21.2189 Y 22.7756 Z -1.0000
G01 X 21.2077 Y 22.7715 Z -1.0000
G03 X 21.1938 Y 22.7542 Z -1.0000 I 0.0383 J -0.0452
G02 X 21.1799 Y 22.7358 Z -1.0000 I -0.0660 J 0.0354
G01 X 21.1665 Y 22.7278 Z -1.0000
G01 X 21.1492 Y 22.7026 Z -1.0000
G03 X 21.1707 Y 22.6565 Z -1.0000 I 0.0686 J 0.0040
G02 X 21.1849 Y 22.6357 Z -1.0000 I -0.0396 J -0.0421
G01 X 21.1875 Y 22.6142 Z -1.0000
G01 X 21.1902 Y 22.5925 Z -1.0000
G03 X 21.2066 Y 22.5668 Z -1.0000 I 0.0765 J 0.0310
G03 X 21.2626 Y 22.5281 Z -1.0000 I 0.1189 J 0.1121
G03 X 21.3393 Y 22.5115 Z -1.0000 I 0.0835 J 0.2003
G02 X 21.4043 Y 22.5079 Z -1.0000 I -0.0396 J -1.2921
G02 X 21.4239 Y 22.5047 Z -1.0000 I -0.0101 J -0.1247
G01 X 21.4373 Y 22.5076 Z -1.0000
G01 X 21.4433 Y 22.5200 Z -1.0000
G03 X 21.4401 Y 22.5390 Z -1.0000 I -0.0582 J 0.0000
G03 X 21.4306 Y 22.5567 Z -1.0000 I -0.0607 J -0.0209
G02 X 21.4209 Y 22.5744 Z -1.0000 I 0.0575 J 0.0431
G01 X 21.4177 Y 22.5911 Z -1.0000
G01 X 21.4140 Y 22.6076 Z -1.0000
G03 X 21.3962 Y 22.6376 Z -1.0000 I -0.1552 J -0.0716
G02 X 21.3791 Y 22.6665 Z -1.0000 I 0.1342 J 0.0990
G01 X 21.3795 Y 22.6736 Z -1.0000
G01 X 21.3858 Y 22.6778 Z -1.0000
G02 X 21.4287 Y 22.6810 Z -1.0000 I 0.0429 J -0.2805
G03 X 21.4997 Y 22.6912 Z -1.0000 I -0.0007 J 0.2570
G01 X 21.5032 Y 22.7027 Z -1.0000
G01 X 21.4998 Y 22.7128 Z -1.0000
G01 X 21.5041 Y 22.7200 Z -1.0000
G02 X 21.5550 Y 22.7385 Z -1.0000 I 0.0700 J -0.1132
G02 X 21.5898 Y 22.7324 Z -1.0000 I 0.0081 J -0.0560
G03 X 21.6046 Y 22.7260 Z -1.0000 I 0.0479 J 0.0902
G03 X 21.6248 Y 22.7205 Z -1.0000 I 0.0525 J 0.1529
G02 X 21.6851 Y 22.7049 Z -1.0000 I -0.1287 J -0.6235
G01 X 21.6960 Y 22.6983 Z -1.0000
G01 X 21.7060 Y 22.6925 Z -1.0000
G03 X 21.7269 Y 22.6895 Z -1.0000 I 0.0210 J 0.0734
G02 X 21.8465 Y 22.6485 Z -1.0000 I -0.0000 J -0.1949
G02 X 21.8903 Y 22.5626 Z -1.0000 I -0.0696 J -0.0896
G01 X 21.8933 Y 22.5547 Z -1.0000
G01 X 21.8993 Y 22.5519 Z -1.0000
G01 X 21.9050 Y 22.5489 Z -1.0000
G01 X 21.9079 Y 22.5397 Z -1.0000
G01 X 21.9109 Y 22.5296 Z -1.0000
G01 X 21.9187 Y 22.5236 Z -1.0000
G01 X 21.9230 Y 22.5174 Z -1.0000
G01 X 21.9187 Y 22.5015 Z -1.0000
G03 X 21.9100 Y 22.4827 Z -1.0000 I 0.0885 J -0.0521
G01 X 21.9079 Y 22.4701 Z -1.0000
G01 X 21.9031 Y 22.4631 Z -1.0000
G01 X 21.8873 Y 22.4621 Z -1.0000
G03 X 21.8393 Y 22.4564 Z -1.0000 I -0.0165 J -0.0656
G03 X 21.8027 Y 22.4176 Z -1.0000 I 0.0383 J -0.0729
G01 X 21.8017 Y 22.3980 Z -1.0000
G03 X 21.8173 Y 22.3750 Z -1.0000 I 0.0499 J 0.0171
G03 X 21.8428 Y 22.3568 Z -1.0000 I 0.1123 J 0.1306
G01 X 21.8533 Y 22.3540 Z -1.0000
G01 X 21.8612 Y 22.3502 Z -1.0000
G01 X 21.8649 Y 22.3398 Z -1.0000
G01 X 21.8695 Y 22.3371 Z -1.0000
G03 X 21.8922 Y 22.3542 Z -1.0000 I -0.0412 J 0.0782
G02 X 21.9219 Y 22.3772 Z -1.0000 I 0.0918 J -0.0877
G02 X 21.9459 Y 22.3842 Z -1.0000 I 0.0273 J -0.0488
G03 X 21.9720 Y 22.3876 Z -1.0000 I -0.0112 J 0.1898
G03 X 21.9884 Y 22.3926 Z -1.0000 I -0.0167 J 0.0831
G01 X 22.0027 Y 22.3943 Z -1.0000
G01 X 22.0109 Y 22.3887 Z -1.0000
G01 X 22.0191 Y 22.3837 Z -1.0000
G01 X 22.0338 Y 22.3866 Z -1.0000
G02 X 22.0507 Y 22.3931 Z -1.0000 I 0.0336 J -0.0623
G02 X 22.0887 Y 22.4000 Z -1.0000 I 0.0774 J -0.3190
G03 X 22.1616 Y 22.4152 Z -1.0000 I -0.0526 J 0.4346
G01 X 22.1765 Y 22.4263 Z -1.0000
G01 X 22.1846 Y 22.4298 Z -1.0000
G02 X 22.2496 Y 22.4129 Z -1.0000 I -0.0822 J -0.4510
G03 X 22.3169 Y 22.3910 Z -1.0000 I 0.9799 J 2.8966
G03 X 22.3553 Y 22.3799 Z -1.0000 I 0.2910 J 0.9304
G02 X 22.4429 Y 22.3427 Z -1.0000 I -0.0887 J -0.3304
G02 X 22.5237 Y 22.2786 Z -1.0000 I -0.2070 J -0.3443
G03 X 22.5517 Y 22.2525 Z -1.0000 I 0.2856 J 0.2782
G01 X 22.5568 Y 22.2507 Z -1.0000
G01 X 22.5621 Y 22.2491 Z -1.0000
G02 X 22.6003 Y 22.2227 Z -1.0000 I -0.3760 J -0.5847
G02 X 22.6370 Y 22.1835 Z -1.0000 I -0.0896 J -0.1207
G02 X 22.6527 Y 22.1414 Z -1.0000 I -0.0881 J -0.0568
G03 X 22.6758 Y 22.0849 Z -1.0000 I 0.1235 J 0.0176
G01 X 22.7054 Y 22.0700 Z -1.0000
G01 X 22.7139 Y 22.0671 Z -1.0000
G01 X 22.7167 Y 22.0614 Z -1.0000
G01 X 22.7201 Y 22.0562 Z -1.0000
G01 X 22.7363 Y 22.0528 Z -1.0000
G02 X 22.7549 Y 22.0495 Z -1.0000 I -0.0000 J -0.0542
G02 X 22.7772 Y 22.0379 Z -1.0000 I -0.0329 J -0.0902
G03 X 22.8001 Y 22.0281 Z -1.0000 I 0.0343 J 0.0489
G03 X 22.8587 Y 22.0221 Z -1.0000 I 0.0630 J 0.3263
G02 X 22.9462 Y 21.9959 Z -1.0000 I -0.0022 J -0.1667
G02 X 23.0111 Y 21.9248 Z -1.0000 I -0.0997 J -0.1560
G02 X 23.0201 Y 21.8920 Z -1.0000 I -0.0732 J -0.0378
G02 X 23.0222 Y 21.7430 Z -1.0000 I -1.5821 J -0.0965
G02 X 23.0085 Y 21.5529 Z -1.0000 I -2.4780 J 0.0822
G02 X 22.9923 Y 21.4720 Z -1.0000 I -0.4643 J 0.0513
G03 X 22.9779 Y 21.4202 Z -1.0000 I 1.5153 J -0.4484
G03 X 22.9677 Y 21.3774 Z -1.0000 I 1.0186 J -0.2640
G02 X 22.9584 Y 21.3344 Z -1.0000 I -7.8272 J 1.6872
G02 X 22.9373 Y 21.2397 Z -1.0000 I -37.1793 J 8.2282
G03 X 22.9168 Y 21.1449 Z -1.0000 I 6.0801 J -1.3618
G03 X 22.9069 Y 21.0934 Z -1.0000 I 1.7639 J -0.3663
G02 X 22.8923 Y 21.0448 Z -1.0000 I -0.2191 J 0.0392
G02 X 22.8768 Y 21.0235 Z -1.0000 I -0.0546 J 0.0235
G03 X 22.8341 Y 20.9600 Z -1.0000 I 0.0980 J -0.1121
G03 X 22.8069 Y 20.8206 Z -1.0000 I 0.4839 J -0.1668
G02 X 22.8007 Y 20.7638 Z -1.0000 I -0.5255 J 0.0282
G02 X 22.7947 Y 20.7459 Z -1.0000 I -0.0568 J 0.0093
G03 X 22.7886 Y 20.7281 Z -1.0000 I 0.0515 J -0.0274
G03 X 22.7856 Y 20.6910 Z -1.0000 I 0.2239 J -0.0371
G02 X 22.7826 Y 20.6535 Z -1.0000 I -0.2363 J 0.0000
G02 X 22.7728 Y 20.6108 Z -1.0000 I -0.3237 J 0.0520
G03 X 22.7631 Y 20.5387 Z -1.0000 I 0.2175 J -0.0660
G03 X 22.7763 Y 20.4814 Z -1.0000 I 0.1481 J 0.0040
G03 X 22.8057 Y 20.4484 Z -1.0000 I 0.0675 J 0.0306
G03 X 22.8603 Y 20.4312 Z -1.0000 I 0.0636 J 0.1065
G02 X 22.9821 Y 20.4125 Z -1.0000 I -0.0562 J -0.7714
G02 X 23.0835 Y 20.3785 Z -1.0000 I -0.1341 J -0.5671
G03 X 23.1113 Y 20.3707 Z -1.0000 I 0.0406 J 0.0915
G03 X 23.2070 Y 20.3625 Z -1.0000 I 0.1428 J 1.1113
G02 X 23.3210 Y 20.3485 Z -1.0000 I -0.0304 J -0.7195
G02 X 23.4015 Y 20.3227 Z -1.0000 I -0.0780 J -0.3807
G02 X 23.4448 Y 20.2884 Z -1.0000 I -0.0455 J -0.1020
G01 X 23.4488 Y 20.2607 Z -1.0000
G02 X 23.4387 Y 20.2405 Z -1.0000 I -0.1017 J 0.0383
G01 X 23.4314 Y 20.2333 Z -1.0000
G01 X 23.4269 Y 20.2202 Z -1.0000
G01 X 23.4395 Y 20.2115 Z -1.0000
G01 X 23.4534 Y 20.2081 Z -1.0000
G01 X 23.4567 Y 20.2027 Z -1.0000
G01 X 23.4600 Y 20.1960 Z -1.0000
G03 X 23.4804 Y 20.1845 Z -1.0000 I 0.0516 J 0.0676
G03 X 23.5061 Y 20.1790 Z -1.0000 I 0.0294 J 0.0743
G03 X 23.5772 Y 20.1800 Z -1.0000 I 0.0272 J 0.5835
G03 X 23.5978 Y 20.1847 Z -1.0000 I -0.0052 J 0.0701
G03 X 23.6543 Y 20.2105 Z -1.0000 I -0.2231 J 0.5640
G02 X 23.7116 Y 20.2310 Z -1.0000 I 0.1029 J -0.1981
G02 X 23.7673 Y 20.2341 Z -1.0000 I 0.0383 J -0.1833
G02 X 23.8238 Y 20.2260 Z -1.0000 I -0.0509 J -0.5536
G02 X 23.8493 Y 20.2180 Z -1.0000 I -0.0238 J -0.1210
G02 X 23.9198 Y 20.1761 Z -1.0000 I -0.1318 J -0.3022
G01 X 23.9300 Y 20.1553 Z -1.0000
G01 X 23.9344 Y 20.1496 Z -1.0000
G03 X 23.9741 Y 20.1438 Z -1.0000 I 0.0463 J 0.1780
G02 X 24.0177 Y 20.1403 Z -1.0000 I -0.0167 J -0.4718
G01 X 24.0267 Y 20.1370 Z -1.0000
G01 X 24.0341 Y 20.1361 Z -1.0000
G01 X 24.0414 Y 20.1419 Z -1.0000
G01 X 24.0768 Y 20.1572 Z -1.0000
G02 X 24.1941 Y 20.1107 Z -1.0000 I -0.0720 J -0.3527
G03 X 24.2833 Y 20.0676 Z -1.0000 I 0.2527 J 0.4092
G03 X 24.3430 Y 20.0569 Z -1.0000 I 0.0614 J 0.1698
G02 X 24.4432 Y 20.0435 Z -1.0000 I -0.0040 J -0.4127
G02 X 24.4841 Y 20.0200 Z -1.0000 I -0.0226 J -0.0867
G03 X 24.5000 Y 20.0071 Z -1.0000 I 0.0668 J 0.0660
G01 X 24.5073 Y 20.0049 Z -1.0000
G01 X 24.5183 Y 20.0010 Z -1.0000
G02 X 24.5928 Y 19.9352 Z -1.0000 I -0.7959 J -0.9753
G03 X 24.6330 Y 19.9147 Z -1.0000 I 0.0542 J 0.0566
G03 X 24.7774 Y 19.9017 Z -1.0000 I 0.1444 J 0.7965
G02 X 24.8811 Y 19.8714 Z -1.0000 I 0.0000 J -0.1925
G01 X 24.8980 Y 19.8246 Z -1.0000
G01 X 24.8965 Y 19.8094 Z -1.0000
G03 X 24.9025 Y 19.7846 Z -1.0000 I 0.1029 J 0.0118
G03 X 24.9328 Y 19.7353 Z -1.0000 I 0.1451 J 0.0550
G01 X 24.9477 Y 19.7349 Z -1.0000
G01 X 24.9526 Y 19.7362 Z -1.0000
G02 X 24.9852 Y 19.7248 Z -1.0000 I -0.0627 J -0.2298
G03 X 25.0465 Y 19.7048 Z -1.0000 I 0.1351 J 0.3104
G03 X 25.1603 Y 19.6857 Z -1.0000 I 0.2359 J 1.0565
G02 X 25.2328 Y 19.6745 Z -1.0000 I -0.1088 J -0.9516
G02 X 25.2636 Y 19.6657 Z -1.0000 I -0.0339 J -0.1757
G03 X 25.2939 Y 19.6547 Z -1.0000 I 0.2743 J 0.7098
G03 X 25.3324 Y 19.6424 Z -1.0000 I 0.3633 J 1.0733
G02 X 25.3674 Y 19.6248 Z -1.0000 I -0.0320 J -0.1074
G02 X 25.4271 Y 19.5718 Z -1.0000 I -0.2797 J -0.3747
G03 X 25.4860 Y 19.5170 Z -1.0000 I 0.4671 J 0.4429
G03 X 25.5254 Y 19.4912 Z -1.0000 I 0.1384 J 0.1688
G02 X 25.5759 Y 19.4474 Z -1.0000 I -0.0631 J -0.1239
G02 X 25.5950 Y 19.3924 Z -1.0000 I -0.0860 J -0.0605
G03 X 25.6030 Y 19.3428 Z -1.0000 I 0.2387 J 0.0129
G01 X 25.6114 Y 19.3320 Z -1.0000
G01 X 25.6220 Y 19.3226 Z -1.0000
G01 X 25.6250 Y 19.3137 Z -1.0000
G03 X 25.6419 Y 19.2751 Z -1.0000 I 0.0524 J 0.0000
G03 X 25.7425 Y 19.2058 Z -1.0000 I 0.2966 J 0.3233
G02 X 25.8069 Y 19.1560 Z -1.0000 I -0.0939 J -0.1879
G02 X 25.8471 Y 19.0859 Z -1.0000 I -0.1559 J -0.1361
G02 X 25.8512 Y 19.0575 Z -1.0000 I -0.0758 J -0.0254
G02 X 25.8446 Y 19.0214 Z -1.0000 I -0.1278 J 0.0050
G03 X 25.8283 Y 18.9330 Z -1.0000 I 0.2950 J -0.0999
G03 X 25.8392 Y 18.8778 Z -1.0000 I 0.1220 J -0.0045
G02 X 25.8411 Y 18.7826 Z -1.0000 I -0.1089 J -0.0497
G01 X 25.7974 Y 18.7759 Z -1.0000
G03 X 25.7821 Y 18.7882 Z -1.0000 I -0.0391 J -0.0328
G03 X 25.7574 Y 18.7969 Z -1.0000 I -0.0417 J -0.0791
G01 X 25.7338 Y 18.7942 Z -1.0000
G01 X 25.7137 Y 18.7775 Z -1.0000
G03 X 25.6850 Y 18.7197 Z -1.0000 I 0.1855 J -0.1280
G03 X 25.6642 Y 18.6265 Z -1.0000 I 0.4671 J -0.1531
G02 X 25.6572 Y 18.5957 Z -1.0000 I -0.1562 J 0.0196
G02 X 25.6460 Y 18.5728 Z -1.0000 I -0.0954 J 0.0322
G01 X 25.6395 Y 18.5387 Z -1.0000
G03 X 25.6677 Y 18.4675 Z -1.0000 I 0.2169 J 0.0447
G01 X 25.6931 Y 18.4261 Z -1.0000
G01 X 25.6763 Y 18.3548 Z -1.0000
G02 X 25.6363 Y 18.2584 Z -1.0000 I -0.3175 J 0.0750
G01 X 25.6115 Y 18.2499 Z -1.0000
G01 X 25.5810 Y 18.2494 Z -1.0000
G03 X 25.5169 Y 18.2103 Z -1.0000 I 0.0960 J -0.2293
G03 X 25.4787 Y 18.1702 Z -1.0000 I 0.1616 J -0.1922
G03 X 25.4639 Y 18.1407 Z -1.0000 I 0.0710 J -0.0540
G03 X 25.4405 Y 18.0413 Z -1.0000 I 1.0510 J -0.3003
G03 X 25.4357 Y 17.9897 Z -1.0000 I 0.2758 J -0.0516
G01 X 25.4329 Y 17.9768 Z -1.0000
G02 X 25.4064 Y 17.9242 Z -1.0000 I -0.5680 J 0.2535
G03 X 25.3810 Y 17.8729 Z -1.0000 I 0.4592 J -0.2595
G01 X 25.3820 Y 17.8674 Z -1.0000
G01 X 25.3769 Y 17.8625 Z -1.0000
G01 X 25.3708 Y 17.8586 Z -1.0000
G01 X 25.3669 Y 17.8403 Z -1.0000
G01 X 25.3626 Y 17.8242 Z -1.0000
G01 X 25.3561 Y 17.8219 Z -1.0000
G01 X 25.3502 Y 17.8288 Z -1.0000
G02 X 25.3476 Y 17.8670 Z -1.0000 I 0.1544 J 0.0294
G03 X 25.3194 Y 18.0218 Z -1.0000 I -0.3389 J 0.0181
G01 X 25.2752 Y 18.0314 Z -1.0000
G02 X 25.2641 Y 18.0220 Z -1.0000 I -0.1916 J 0.2169
G02 X 25.2258 Y 17.9920 Z -1.0000 I -1.7065 J 2.1394
G03 X 25.1889 Y 17.9606 Z -1.0000 I 0.2955 J -0.3843
G03 X 25.1545 Y 17.9249 Z -1.0000 I 0.3502 J -0.3718
G02 X 25.1215 Y 17.8875 Z -1.0000 I -3.0518 J 2.6659
G02 X 25.0606 Y 17.8200 Z -1.0000 I -10.3042 J 9.2270
G01 X 24.9995 Y 17.7527 Z -1.0000
G01 X 24.9947 Y 17.6827 Z -1.0000
G02 X 24.9801 Y 17.6105 Z -1.0000 I -0.2812 J 0.0192
G02 X 24.9368 Y 17.5141 Z -1.0000 I -0.5474 J 0.1879
G02 X 24.8614 Y 17.4066 Z -1.0000 I -0.5808 J 0.3275
G01 X 24.8390 Y 17.4004 Z -1.0000
G01 X 24.8326 Y 17.4062 Z -1.0000
G02 X 24.8223 Y 17.4394 Z -1.0000 I 0.1548 J 0.0659
G03 X 24.8095 Y 17.4684 Z -1.0000 I -0.0703 J -0.0138
G01 X 24.7957 Y 17.4753 Z -1.0000
G03 X 24.7769 Y 17.4733 Z -1.0000 I 0.0000 J -0.0869
G01 X 24.7706 Y 17.4698 Z -1.0000
G01 X 24.7644 Y 17.4655 Z -1.0000
G02 X 24.7188 Y 17.4455 Z -1.0000 I -0.3917 J 0.8318
G03 X 24.6084 Y 17.3812 Z -1.0000 I 0.1702 J -0.4188
G03 X 24.5538 Y 17.3150 Z -1.0000 I 0.1266 J -0.1599
G02 X 24.5354 Y 17.2827 Z -1.0000 I -0.4091 J 0.2128
G02 X 24.5256 Y 17.2701 Z -1.0000 I -0.0677 J 0.0425
G03 X 24.5159 Y 17.2575 Z -1.0000 I 0.0550 J -0.0524
G03 X 24.4965 Y 17.2228 Z -1.0000 I 0.4105 J -0.2525
G02 X 24.4764 Y 17.1885 Z -1.0000 I -0.2862 J 0.1444
G02 X 24.4532 Y 17.1583 Z -1.0000 I -0.2506 J 0.1683
G01 X 24.4416 Y 17.1179 Z -1.0000
G01 X 24.4628 Y 17.0968 Z -1.0000
G01 X 24.4717 Y 17.0756 Z -1.0000
G02 X 24.3989 Y 17.0102 Z -1.0000 I -0.1959 J 0.1447
G03 X 24.3663 Y 16.9881 Z -1.0000 I 0.1505 J -0.2569
G03 X 24.3532 Y 16.9746 Z -1.0000 I 0.0414 J -0.0530
G01 X 24.3402 Y 16.9627 Z -1.0000
G01 X 24.3274 Y 16.9591 Z -1.0000
G01 X 24.3137 Y 16.9561 Z -1.0000
G03 X 24.2627 Y 16.9288 Z -1.0000 I 0.2322 J -0.4969
G02 X 24.2114 Y 16.9021 Z -1.0000 I -0.2418 J 0.4010
G02 X 24.1908 Y 16.8968 Z -1.0000 I -0.0259 J 0.0581
G01 X 24.1727 Y 16.8901 Z -1.0000
G01 X 24.1615 Y 16.8754 Z -1.0000
G02 X 24.1520 Y 16.8589 Z -1.0000 I -0.0566 J 0.0216
G01 X 24.1457 Y 16.8559 Z -1.0000
G01 X 24.1393 Y 16.8527 Z -1.0000
G03 X 24.1231 Y 16.8260 Z -1.0000 I 0.1219 J -0.0923
G02 X 24.1059 Y 16.7983 Z -1.0000 I -0.1296 J 0.0614
G02 X 24.0753 Y 16.7657 Z -1.0000 I -0.2115 J 0.1677
G01 X 24.0474 Y 16.7354 Z -1.0000
G01 X 24.0405 Y 16.7204 Z -1.0000
G03 X 24.0293 Y 16.7044 Z -1.0000 I 0.0943 J -0.0784
G03 X 24.0112 Y 16.6709 Z -1.0000 I 0.4068 J -0.2408
G02 X 23.9931 Y 16.6373 Z -1.0000 I -0.4150 J 0.2017
G02 X 23.9751 Y 16.6099 Z -1.0000 I -0.3012 J 0.1786
G03 X 23.9598 Y 16.5819 Z -1.0000 I 0.1009 J -0.0734
G03 X 23.9557 Y 16.5604 Z -1.0000 I 0.0550 J -0.0215
G01 X 23.9619 Y 16.5437 Z -1.0000
G01 X 23.9751 Y 16.5377 Z -1.0000
G03 X 24.0383 Y 16.5482 Z -1.0000 I -0.0012 J 0.2018
G03 X 24.1579 Y 16.5992 Z -1.0000 I -0.2651 J 0.7876
G02 X 24.3035 Y 16.6723 Z -1.0000 I 2.3560 J -4.5120
G01 X 24.3152 Y 16.6750 Z -1.0000
G01 X 24.3241 Y 16.6783 Z -1.0000
G01 X 24.3312 Y 16.6881 Z -1.0000
G01 X 24.3382 Y 16.6981 Z -1.0000
G01 X 24.3460 Y 16.7010 Z -1.0000
G01 X 24.3759 Y 16.7142 Z -1.0000
G03 X 24.4068 Y 16.7678 Z -1.0000 I -0.1067 J 0.0972
G02 X 24.4151 Y 16.7841 Z -1.0000 I 0.0549 J -0.0176
G01 X 24.4209 Y 16.7871 Z -1.0000
G01 X 24.4263 Y 16.7897 Z -1.0000
G01 X 24.4289 Y 16.7971 Z -1.0000
G01 X 24.4317 Y 16.8061 Z -1.0000
G02 X 24.4793 Y 16.8724 Z -1.0000 I 1.0022 J -0.6706
G03 X 24.5281 Y 16.9387 Z -1.0000 I -1.3779 J 1.0632
G03 X 24.5430 Y 16.9635 Z -1.0000 I -0.1759 J 0.1229
G02 X 24.5582 Y 16.9879 Z -1.0000 I 0.1561 J -0.0803
G02 X 24.5827 Y 17.0169 Z -1.0000 I 0.2447 J -0.1818
G03 X 24.6023 Y 17.0436 Z -1.0000 I -0.0929 J 0.0889
G01 X 24.6008 Y 17.0497 Z -1.0000
G01 X 24.5956 Y 17.0566 Z -1.0000
G02 X 24.5925 Y 17.0801 Z -1.0000 I 0.0873 J 0.0236
G01 X 24.5850 Y 17.0979 Z -1.0000
G01 X 24.5666 Y 17.1054 Z -1.0000
G01 X 24.5408 Y 17.1093 Z -1.0000
G01 X 24.5552 Y 17.1428 Z -1.0000
G02 X 24.5910 Y 17.1571 Z -1.0000 I 0.0358 J -0.0377
G03 X 24.6382 Y 17.1707 Z -1.0000 I 0.0000 J 0.0887
G03 X 24.7366 Y 17.2485 Z -1.0000 I -0.3080 J 0.4903
G03 X 24.7453 Y 17.2599 Z -1.0000 I -0.0356 J 0.0362
G01 X 24.7473 Y 17.2677 Z -1.0000
G01 X 24.7498 Y 17.2753 Z -1.0000
G02 X 24.7760 Y 17.3067 Z -1.0000 I 0.2670 J -0.1959
G02 X 24.8070 Y 17.3287 Z -1.0000 I 0.0707 J -0.0666
G01 X 24.8292 Y 17.3305 Z -1.0000
G01 X 24.8382 Y 17.3092 Z -1.0000
G02 X 24.7648 Y 17.2157 Z -1.0000 I -0.3368 J 0.1888
G03 X 24.7080 Y 17.1532 Z -1.0000 I 0.3534 J -0.3788
G03 X 24.6848 Y 17.1119 Z -1.0000 I 0.1294 J -0.0997
G01 X 24.6770 Y 17.0997 Z -1.0000
G01 X 24.6702 Y 17.0969 Z -1.0000
G01 X 24.6643 Y 17.0937 Z -1.0000
G01 X 24.6613 Y 17.0836 Z -1.0000
G01 X 24.6590 Y 17.0709 Z -1.0000
G02 X 24.6448 Y 17.0380 Z -1.0000 I -0.2677 J 0.0967
G03 X 24.6306 Y 17.0049 Z -1.0000 I 0.2385 J -0.1221
G03 X 24.6225 Y 16.9750 Z -1.0000 I 0.1913 J -0.0673
G01 X 24.6253 Y 16.9501 Z -1.0000
G01 X 24.6373 Y 16.9403 Z -1.0000
G03 X 24.7101 Y 16.9468 Z -1.0000 I 0.0250 J 0.1304
G01 X 24.7301 Y 16.9760 Z -1.0000
G01 X 24.7327 Y 16.9823 Z -1.0000
G01 X 24.7393 Y 16.9850 Z -1.0000
G03 X 24.8038 Y 17.0117 Z -1.0000 I 0.0000 J 0.0914
G03 X 24.9110 Y 17.1561 Z -1.0000 I -0.4283 J 0.4298
G02 X 24.9575 Y 17.2099 Z -1.0000 I 0.1413 J -0.0753
G01 X 24.9759 Y 17.2038 Z -1.0000
G02 X 24.9797 Y 17.1916 Z -1.0000 I -2.8330 J -0.8880
G03 X 24.9837 Y 17.1786 Z -1.0000 I 8.9085 J 2.7501
G01 X 24.9907 Y 17.1698 Z -1.0000
G01 X 25.0054 Y 17.1657 Z -1.0000
G03 X 25.0685 Y 17.1823 Z -1.0000 I -0.0000 J 0.1280
G03 X 25.1732 Y 17.2607 Z -1.0000 I -0.2539 J 0.4485
G02 X 25.2499 Y 17.3182 Z -1.0000 I 0.2637 J -0.2720
G01 X 25.2667 Y 17.3138 Z -1.0000
G02 X 25.2846 Y 17.2393 Z -1.0000 I -0.1064 J -0.0650
G02 X 25.2551 Y 17.1614 Z -1.0000 I -0.1472 J 0.0112
G01 X 25.2512 Y 17.1519 Z -1.0000
G03 X 25.2385 Y 17.0331 Z -1.0000 I 2.6605 J -0.3437
G02 X 25.2272 Y 16.9138 Z -1.0000 I -5.1718 J 0.4320
G01 X 25.2253 Y 16.9083 Z -1.0000
G01 X 25.2245 Y 16.9030 Z -1.0000
G03 X 25.2338 Y 16.8752 Z -1.0000 I 0.1955 J 0.0500
G03 X 25.2495 Y 16.8537 Z -1.0000 I 0.0534 J 0.0224
G01 X 25.2653 Y 16.8482 Z -1.0000
G03 X 25.3081 Y 16.8604 Z -1.0000 I -0.0042 J 0.0962
G03 X 25.3740 Y 16.9091 Z -1.0000 I -0.1593 J 0.2848
G01 X 25.4252 Y 16.9579 Z -1.0000
G01 X 25.4345 Y 16.9220 Z -1.0000
G02 X 25.4395 Y 16.7618 Z -1.0000 I -0.3525 J -0.0913
G02 X 25.3922 Y 16.7023 Z -1.0000 I -0.0806 J 0.0155
G02 X 25.3662 Y 16.6940 Z -1.0000 I -0.0503 J 0.1135
G01 X 25.3556 Y 16.6950 Z -1.0000
G01 X 25.3030 Y 16.6818 Z -1.0000
G03 X 25.2484 Y 16.5709 Z -1.0000 I 0.1857 J -0.1602
G03 X 25.2448 Y 16.5417 Z -1.0000 I 0.1793 J -0.0372
G03 X 25.2422 Y 16.4331 Z -1.0000 I 2.6815 J -0.1175
G03 X 25.2485 Y 16.3268 Z -1.0000 I 0.8661 J -0.0019
G01 X 25.2575 Y 16.3071 Z -1.0000
G01 X 25.2749 Y 16.2976 Z -1.0000
G01 X 25.2995 Y 16.2998 Z -1.0000
G03 X 25.3234 Y 16.3130 Z -1.0000 I -0.0328 J 0.0881
G03 X 25.3441 Y 16.3336 Z -1.0000 I -0.0654 J 0.0865
G02 X 25.3626 Y 16.3575 Z -1.0000 I 1.9186 J -1.4648
G02 X 25.3846 Y 16.3853 Z -1.0000 I 2.7160 J -2.1278
G03 X 25.4040 Y 16.4145 Z -1.0000 I -0.1543 J 0.1234
G03 X 25.4266 Y 16.4628 Z -1.0000 I -0.3989 J 0.2163
G01 X 25.4582 Y 16.4886 Z -1.0000
G01 X 25.4846 Y 16.4732 Z -1.0000
G02 X 25.4919 Y 16.4180 Z -1.0000 I -0.1292 J -0.0451
G02 X 25.4722 Y 16.3054 Z -1.0000 I -0.5733 J 0.0422
G03 X 25.4606 Y 16.2578 Z -1.0000 I 0.7025 J -0.1970
G03 X 25.4573 Y 16.2343 Z -1.0000 I 0.1729 J -0.0362
G02 X 25.4388 Y 16.1841 Z -1.0000 I -0.0961 J 0.0070
G02 X 25.4046 Y 16.1627 Z -1.0000 I -0.0443 J 0.0326
G03 X 25.3785 Y 16.1538 Z -1.0000 I 0.0181 J -0.0968
G03 X 25.3617 Y 16.1410 Z -1.0000 I 0.0259 J -0.0514
G02 X 25.3456 Y 16.1276 Z -1.0000 I -0.0550 J 0.0495
G01 X 25.3353 Y 16.1247 Z -1.0000
G01 X 25.3271 Y 16.1213 Z -1.0000
G01 X 25.3237 Y 16.1132 Z -1.0000
G01 X 25.3204 Y 16.1030 Z -1.0000
G02 X 25.2683 Y 16.0379 Z -1.0000 I -0.8392 J 0.6177
G03 X 25.1844 Y 15.9162 Z -1.0000 I 0.5050 J -0.4381
G03 X 25.1777 Y 15.8693 Z -1.0000 I 0.0604 J -0.0324
G02 X 25.1796 Y 15.8419 Z -1.0000 I -0.0962 J -0.0204
G02 X 25.1712 Y 15.7790 Z -1.0000 I -0.5138 J 0.0365
G03 X 25.1545 Y 15.5676 Z -1.0000 I 0.9054 J -0.1782
G03 X 25.1810 Y 15.5065 Z -1.0000 I 0.0909 J 0.0033
G01 X 25.2222 Y 15.4946 Z -1.0000
G03 X 25.3065 Y 15.5345 Z -1.0000 I -0.0460 J 0.2063
G02 X 25.3551 Y 15.5692 Z -1.0000 I 0.4173 J -0.5321
G02 X 25.3726 Y 15.5775 Z -1.0000 I 0.0389 J -0.0598
G01 X 25.3858 Y 15.5748 Z -1.0000
G01 X 25.3941 Y 15.5593 Z -1.0000
G02 X 25.3854 Y 15.4079 Z -1.0000 I -0.4403 J -0.0506
G02 X 25.3500 Y 15.3703 Z -1.0000 I -0.0502 J 0.0117
G03 X 25.3369 Y 15.3655 Z -1.0000 I 0.0353 J -0.1186
G03 X 25.3217 Y 15.3583 Z -1.0000 I 0.0742 J -0.1747
G02 X 25.3063 Y 15.3523 Z -1.0000 I -0.0320 J 0.0596
G02 X 25.2900 Y 15.3503 Z -1.0000 I -0.0163 J 0.0645
G01 X 25.2600 Y 15.3365 Z -1.0000
G03 X 25.1935 Y 15.2384 Z -1.0000 I 0.3863 J -0.3332
G03 X 25.1805 Y 15.1979 Z -1.0000 I 0.1125 J -0.0584
G03 X 25.1733 Y 15.0968 Z -1.0000 I 0.7143 J -0.1020
G03 X 25.1822 Y 14.9994 Z -1.0000 I 0.5298 J -0.0007
G01 X 25.1944 Y 14.9832 Z -1.0000
G01 X 25.2152 Y 14.9800 Z -1.0000
G03 X 25.2460 Y 14.9913 Z -1.0000 I -0.0128 J 0.0820
G03 X 25.2751 Y 15.0116 Z -1.0000 I -0.1628 J 0.2641
G03 X 25.2946 Y 15.0296 Z -1.0000 I -0.1064 J 0.1352
G02 X 25.3342 Y 15.0489 Z -1.0000 I 0.0449 J -0.0418
G01 X 25.3462 Y 15.0341 Z -1.0000
G03 X 25.3421 Y 15.0189 Z -1.0000 I 0.2642 J -0.0796
G03 X 25.3363 Y 14.9932 Z -1.0000 I 0.9360 J -0.2247
G02 X 25.3298 Y 14.9678 Z -1.0000 I -0.2933 J 0.0620
G02 X 25.3232 Y 14.9502 Z -1.0000 I -0.1431 J 0.0436
G03 X 25.3158 Y 14.9328 Z -1.0000 I 0.3818 J -0.1728
G03 X 25.3076 Y 14.9112 Z -1.0000 I 0.6348 J -0.2535
G01 X 25.2955 Y 14.8931 Z -1.0000
G02 X 25.2657 Y 14.8728 Z -1.0000 I -0.0847 J 0.0924
G03 X 25.2352 Y 14.8518 Z -1.0000 I 0.0537 J -0.1104
G03 X 25.1895 Y 14.8011 Z -1.0000 I 0.2870 J -0.3051
G02 X 25.1471 Y 14.7461 Z -1.0000 I -7.0733 J 5.4058
G02 X 25.1119 Y 14.7012 Z -1.0000 I -4.9471 J 3.8423
G03 X 25.0722 Y 14.6324 Z -1.0000 I 0.2154 J -0.1705
G03 X 25.0517 Y 14.5501 Z -1.0000 I 0.2908 J -0.1159
G02 X 25.0431 Y 14.5049 Z -1.0000 I -0.2793 J 0.0296
G02 X 25.0260 Y 14.4571 Z -1.0000 I -0.3336 J 0.0923
G03 X 25.0078 Y 14.4098 Z -1.0000 I 0.4821 J -0.2131
G01 X 25.0053 Y 14.3947 Z -1.0000
G01 X 25.0025 Y 14.3806 Z -1.0000
G01 X 24.9967 Y 14.3737 Z -1.0000
G03 X 24.9699 Y 14.3243 Z -1.0000 I 0.0295 J -0.0480
G03 X 25.0001 Y 14.2382 Z -1.0000 I 0.1482 J 0.0036
G03 X 25.0454 Y 14.2151 Z -1.0000 I 0.0466 J 0.0354
G03 X 25.0914 Y 14.2360 Z -1.0000 I 0.0014 J 0.0581
G01 X 25.1034 Y 14.2463 Z -1.0000
G01 X 25.1128 Y 14.2489 Z -1.0000
G01 X 25.1219 Y 14.2521 Z -1.0000
G03 X 25.1394 Y 14.2702 Z -1.0000 I -0.0635 J 0.0790
G02 X 25.1578 Y 14.2860 Z -1.0000 I 0.0450 J -0.0338
G01 X 25.1759 Y 14.2897 Z -1.0000
G01 X 25.1877 Y 14.2810 Z -1.0000
G02 X 25.1914 Y 14.2514 Z -1.0000 I -0.0535 J -0.0217
G02 X 25.1844 Y 14.2155 Z -1.0000 I -0.3292 J 0.0458
G02 X 25.1782 Y 14.1996 Z -1.0000 I -0.0658 J 0.0167
G03 X 25.1712 Y 14.1838 Z -1.0000 I 0.0873 J -0.0478
G03 X 25.1650 Y 14.1613 Z -1.0000 I 0.1841 J -0.0626
G02 X 25.1414 Y 14.1230 Z -1.0000 I -0.0650 J 0.0137
G02 X 25.0886 Y 14.1005 Z -1.0000 I -0.0671 J 0.0843
G03 X 25.0332 Y 14.0724 Z -1.0000 I 0.0125 J -0.0933
G03 X 24.9605 Y 13.9668 Z -1.0000 I 0.2880 J -0.2759
G03 X 24.9417 Y 13.9100 Z -1.0000 I 0.2237 J -0.1057
G03 X 24.9387 Y 13.8586 Z -1.0000 I 0.1797 J -0.0362
G03 X 24.9618 Y 13.7745 Z -1.0000 I 0.2356 J 0.0196
G01 X 24.9874 Y 13.7588 Z -1.0000
G03 X 25.0542 Y 13.7874 Z -1.0000 I -0.0013 J 0.0954
G03 X 25.1590 Y 13.9339 Z -1.0000 I -0.4181 J 0.4097
G02 X 25.1815 Y 13.9612 Z -1.0000 I 0.0712 J -0.0358
G01 X 25.1925 Y 13.9597 Z -1.0000
G02 X 25.2115 Y 13.8978 Z -1.0000 I -0.0759 J -0.0572
G02 X 25.1866 Y 13.8415 Z -1.0000 I -0.0854 J 0.0042
G01 X 25.1799 Y 13.8314 Z -1.0000
G01 X 25.1775 Y 13.8183 Z -1.0000
G01 X 25.1741 Y 13.8057 Z -1.0000
G02 X 25.1603 Y 13.7886 Z -1.0000 I -0.0609 J 0.0351
G03 X 25.1471 Y 13.7712 Z -1.0000 I 0.0393 J -0.0434
G01 X 25.1430 Y 13.7539 Z -1.0000
G02 X 25.1097 Y 13.6390 Z -1.0000 I -0.2144 J 0.0000
G01 X 25.0570 Y 13.6183 Z -1.0000
G01 X 25.0338 Y 13.6129 Z -1.0000
G03 X 24.9667 Y 13.5397 Z -1.0000 I 0.2907 J -0.3341
G02 X 24.9490 Y 13.5165 Z -1.0000 I -0.7119 J 0.5210
G02 X 24.9301 Y 13.4932 Z -1.0000 I -0.6714 J 0.5264
G03 X 24.9129 Y 13.4694 Z -1.0000 I 0.1515 J -0.1276
G01 X 24.9107 Y 13.4616 Z -1.0000
G01 X 24.9081 Y 13.4540 Z -1.0000
G02 X 24.8810 Y 13.4218 Z -1.0000 I -0.2853 J 0.2123
G03 X 24.8578 Y 13.3872 Z -1.0000 I 0.0902 J -0.0855
G03 X 24.8403 Y 13.3314 Z -1.0000 I 0.2246 J -0.1010
G03 X 24.8308 Y 13.2723 Z -1.0000 I 1.1018 J -0.2067
G03 X 24.8307 Y 13.2594 Z -1.0000 I 0.0523 J -0.0069
G02 X 24.8271 Y 13.1940 Z -1.0000 I -0.1945 J -0.0220
G02 X 24.8061 Y 13.1505 Z -1.0000 I -0.1050 J 0.0239
G01 X 24.8014 Y 13.1392 Z -1.0000
G03 X 24.7963 Y 13.0616 Z -1.0000 I 0.8933 J -0.0984
G03 X 24.8014 Y 12.9861 Z -1.0000 I 0.4191 J -0.0092
G01 X 24.8108 Y 12.9708 Z -1.0000
G03 X 24.8577 Y 12.9583 Z -1.0000 I 0.0395 J 0.0539
G03 X 24.9034 Y 12.9812 Z -1.0000 I -0.0082 J 0.0735
G02 X 24.9236 Y 12.9983 Z -1.0000 I 0.0856 J -0.0804
G01 X 24.9334 Y 13.0013 Z -1.0000
G01 X 24.9425 Y 13.0046 Z -1.0000
G01 X 24.9534 Y 13.0179 Z -1.0000
G02 X 24.9942 Y 13.0607 Z -1.0000 I 0.0977 J -0.0523
G02 X 25.0350 Y 13.0667 Z -1.0000 I 0.0277 J -0.0462
G01 X 25.0483 Y 13.0568 Z -1.0000
G01 X 25.0522 Y 13.0379 Z -1.0000
G02 X 25.0286 Y 12.9342 Z -1.0000 I -0.5404 J 0.0688
G01 X 25.0142 Y 12.9238 Z -1.0000
G01 X 25.0085 Y 12.9206 Z -1.0000
G01 X 25.0052 Y 12.9088 Z -1.0000
G01 X 24.9950 Y 12.8881 Z -1.0000
G02 X 24.9154 Y 12.8375 Z -1.0000 I -0.2801 J 0.3526
G03 X 24.8630 Y 12.7993 Z -1.0000 I 0.0861 J -0.1731
G03 X 24.8055 Y 12.7247 Z -1.0000 I 0.2925 J -0.2850
G03 X 24.7889 Y 12.6838 Z -1.0000 I 0.1219 J -0.0732
G03 X 24.7806 Y 12.6176 Z -1.0000 I 0.3152 J -0.0735
G03 X 24.7927 Y 12.5083 Z -1.0000 I 0.4144 J -0.0095
G01 X 24.8126 Y 12.4883 Z -1.0000
G03 X 24.9255 Y 12.5252 Z -1.0000 I 0.0271 J 0.1082
G03 X 24.9923 Y 12.7044 Z -1.0000 I -0.2224 J 0.1849
G01 X 25.0109 Y 12.7420 Z -1.0000
G01 X 25.0469 Y 12.7475 Z -1.0000
G03 X 25.0585 Y 12.7439 Z -1.0000 I 0.0326 J 0.0856
G01 X 25.0649 Y 12.7432 Z -1.0000
G01 X 25.0698 Y 12.7407 Z -1.0000
G02 X 25.0810 Y 12.7221 Z -1.0000 I -0.0771 J -0.0589
G02 X 25.0859 Y 12.6631 Z -1.0000 I -0.0795 J -0.0362
G02 X 25.0407 Y 12.5727 Z -1.0000 I -0.2458 J 0.0663
G03 X 24.9947 Y 12.4895 Z -1.0000 I 0.2393 J -0.1868
G03 X 24.9794 Y 12.4038 Z -1.0000 I 0.2397 J -0.0871
G01 X 24.9630 Y 12.3682 Z -1.0000
G02 X 24.9183 Y 12.3510 Z -1.0000 I -0.0462 J 0.0534
G03 X 24.8772 Y 12.3420 Z -1.0000 I 0.0023 J -0.1088
G03 X 24.8469 Y 12.3200 Z -1.0000 I 0.0344 J -0.0793
G03 X 24.7932 Y 12.2549 Z -1.0000 I 0.9299 J -0.8222
G01 X 24.7901 Y 12.2462 Z -1.0000
G01 X 24.7881 Y 12.2407 Z -1.0000
G02 X 24.7691 Y 12.2201 Z -1.0000 I -0.1590 J 0.1275
G03 X 24.7507 Y 12.1985 Z -1.0000 I 0.0908 J -0.0958
G03 X 24.7327 Y 12.1665 Z -1.0000 I 0.1838 J -0.1250
G02 X 24.7150 Y 12.1360 Z -1.0000 I -0.1758 J 0.0814
G01 X 24.7085 Y 12.1325 Z -1.0000
G01 X 24.7034 Y 12.1287 Z -1.0000
G03 X 24.6982 Y 12.1003 Z -1.0000 I 0.1045 J -0.0338
G02 X 24.6917 Y 12.0652 Z -1.0000 I -0.1358 J 0.0070
G02 X 24.6688 Y 12.0098 Z -1.0000 I -0.3690 J 0.1203
G03 X 24.6633 Y 11.9944 Z -1.0000 I 0.0559 J -0.0286
G03 X 24.6612 Y 11.9746 Z -1.0000 I 0.0920 J -0.0198
G02 X 24.6592 Y 11.9546 Z -1.0000 I -0.1044 J -0.0000
G02 X 24.6445 Y 11.8893 Z -1.0000 I -1.1530 J 0.2253
G03 X 24.6352 Y 11.8110 Z -1.0000 I 0.2913 J -0.0745
G03 X 24.6461 Y 11.7645 Z -1.0000 I 0.1103 J 0.0014
G01 X 24.6791 Y 11.7443 Z -1.0000
G03 X 24.7495 Y 11.7670 Z -1.0000 I -0.0031 J 0.1308
G03 X 24.7792 Y 11.7901 Z -1.0000 I -0.1626 J 0.2392
G01 X 24.7816 Y 11.7955 Z -1.0000
G01 X 24.7836 Y 11.8015 Z -1.0000
G02 X 24.8074 Y 11.8312 Z -1.0000 I 0.3034 J -0.2197
G03 X 24.8303 Y 11.8613 Z -1.0000 I -0.1770 J 0.1581
G01 X 24.8333 Y 11.8715 Z -1.0000
G01 X 24.8413 Y 11.8808 Z -1.0000
G01 X 24.8544 Y 11.8748 Z -1.0000
G01 X 24.8602 Y 11.8733 Z -1.0000
G03 X 24.8915 Y 11.8962 Z -1.0000 I -0.0875 J 0.1520
G02 X 24.9274 Y 11.9137 Z -1.0000 I 0.0470 J -0.0512
G01 X 24.9416 Y 11.9043 Z -1.0000
G03 X 24.9498 Y 11.8862 Z -1.0000 I 0.0548 J 0.0139
G01 X 24.9568 Y 11.8823 Z -1.0000
G01 X 24.9474 Y 11.8740 Z -1.0000
G01 X 24.9361 Y 11.8616 Z -1.0000
G03 X 24.9335 Y 11.8272 Z -1.0000 I 0.0785 J -0.0233
G02 X 24.9344 Y 11.7920 Z -1.0000 I -0.1573 J -0.0217
G01 X 24.9302 Y 11.7882 Z -1.0000
G01 X 24.9240 Y 11.7833 Z -1.0000
G03 X 24.9016 Y 11.6690 Z -1.0000 I 1.3344 J -0.3205
G03 X 24.9032 Y 11.6171 Z -1.0000 I 0.1428 J -0.0218
G03 X 24.9207 Y 11.5800 Z -1.0000 I 0.0880 J 0.0188
G02 X 24.9482 Y 11.5224 Z -1.0000 I -0.1127 J -0.0893
G02 X 24.9446 Y 11.4741 Z -1.0000 I -0.0809 J -0.0183
G03 X 24.9380 Y 11.4568 Z -1.0000 I 2.0211 J -0.7872
G03 X 24.8972 Y 11.3494 Z -1.0000 I 125.7647 J -47.7490
G02 X 24.8549 Y 11.2428 Z -1.0000 I -3.4230 J 1.2963
G01 X 24.8492 Y 11.2336 Z -1.0000
G01 X 24.8440 Y 11.2246 Z -1.0000
G01 X 24.8419 Y 11.2116 Z -1.0000
G01 X 24.8256 Y 11.1750 Z -1.0000
G02 X 24.7423 Y 11.1213 Z -1.0000 I -0.2031 J 0.2239
G03 X 24.6806 Y 11.0760 Z -1.0000 I 0.0669 J -0.1558
G03 X 24.6609 Y 11.0267 Z -1.0000 I 0.0622 J -0.0534
G01 X 24.6584 Y 11.0190 Z -1.0000
G02 X 24.6353 Y 10.9886 Z -1.0000 I -0.2750 J 0.1849
G03 X 24.6176 Y 10.9590 Z -1.0000 I 0.0784 J -0.0670
G01 X 24.6194 Y 10.9478 Z -1.0000
G01 X 24.6215 Y 10.9384 Z -1.0000
G01 X 24.6153 Y 10.9314 Z -1.0000
G01 X 24.6021 Y 10.9291 Z -1.0000
G01 X 24.5925 Y 10.9320 Z -1.0000
G01 X 24.5885 Y 10.9304 Z -1.0000
G01 X 24.5885 Y 10.9166 Z -1.0000
G01 X 24.5887 Y 10.8959 Z -1.0000
G02 X 24.5759 Y 10.8602 Z -1.0000 I -0.1479 J 0.0331
G03 X 24.5601 Y 10.8247 Z -1.0000 I 0.3247 J -0.1649
G01 X 24.5580 Y 10.8130 Z -1.0000
G01 X 24.5552 Y 10.8021 Z -1.0000
G01 X 24.5451 Y 10.7901 Z -1.0000
G01 X 24.5354 Y 10.7778 Z -1.0000
G01 X 24.5322 Y 10.7639 Z -1.0000
G01 X 24.5296 Y 10.7503 Z -1.0000
G01 X 24.5250 Y 10.7456 Z -1.0000
G01 X 24.5194 Y 10.7409 Z -1.0000
G03 X 24.4862 Y 10.6825 Z -1.0000 I 0.8513 J -0.5227
G02 X 24.4075 Y 10.5634 Z -1.0000 I -0.6317 J 0.3317
G01 X 24.3775 Y 10.5491 Z -1.0000
G01 X 24.3704 Y 10.5523 Z -1.0000
G02 X 24.3593 Y 10.5690 Z -1.0000 I 0.0468 J 0.0430
G03 X 24.3062 Y 10.6181 Z -1.0000 I -0.0852 J -0.0388
G01 X 24.2556 Y 10.6069 Z -1.0000
G02 X 24.2427 Y 10.5960 Z -1.0000 I -0.0704 J 0.0704
G02 X 24.2233 Y 10.5841 Z -1.0000 I -0.1054 J 0.1488
G03 X 24.1490 Y 10.5081 Z -1.0000 I 0.0837 J -0.1564
G03 X 24.1156 Y 10.3722 Z -1.0000 I 0.2737 J -0.1392
G02 X 24.1056 Y 10.3060 Z -1.0000 I -0.2419 J 0.0026
G02 X 24.0824 Y 10.2603 Z -1.0000 I -0.1362 J 0.0404
G02 X 24.0022 Y 10.1832 Z -1.0000 I -0.2886 J 0.2201
G02 X 23.9359 Y 10.1575 Z -1.0000 I -0.0851 J 0.1214
G01 X 23.9113 Y 10.1615 Z -1.0000
G01 X 23.9043 Y 10.1728 Z -1.0000
G02 X 23.9066 Y 10.1917 Z -1.0000 I 0.0842 J -0.0009
G02 X 23.9206 Y 10.2403 Z -1.0000 I 0.5860 J -0.1423
G03 X 23.9448 Y 10.3725 Z -1.0000 I -0.4487 J 0.1502
G03 X 23.9274 Y 10.4168 Z -1.0000 I -0.0595 J 0.0023
G01 X 23.9031 Y 10.4260 Z -1.0000
G03 X 23.8431 Y 10.4118 Z -1.0000 I 0.0110 J -0.1805
G03 X 23.8198 Y 10.3998 Z -1.0000 I 0.0757 J -0.1759
G03 X 23.7464 Y 10.3534 Z -1.0000 I 1.0708 J -1.7728
G02 X 23.7034 Y 10.3282 Z -1.0000 I -0.2536 J 0.3826
G01 X 23.6923 Y 10.3255 Z -1.0000
G01 X 23.6833 Y 10.3225 Z -1.0000
G01 X 23.6804 Y 10.3169 Z -1.0000
G01 X 23.6774 Y 10.3113 Z -1.0000
G01 X 23.6671 Y 10.3083 Z -1.0000
G01 X 23.6528 Y 10.3040 Z -1.0000
G03 X 23.6109 Y 10.2717 Z -1.0000 I 0.1822 J -0.2796
G02 X 23.5932 Y 10.2595 Z -1.0000 I -0.0533 J 0.0584
G01 X 23.5812 Y 10.2566 Z -1.0000
G01 X 23.5704 Y 10.2532 Z -1.0000
G01 X 23.5630 Y 10.2437 Z -1.0000
G01 X 23.5560 Y 10.2338 Z -1.0000
G01 X 23.5477 Y 10.2308 Z -1.0000
G01 X 23.5231 Y 10.2200 Z -1.0000
G03 X 23.4847 Y 10.1620 Z -1.0000 I 0.1647 J -0.1507
G03 X 23.4769 Y 10.1399 Z -1.0000 I 0.1230 J -0.0561
G03 X 23.4713 Y 10.1103 Z -1.0000 I 0.2173 J -0.0566
G02 X 23.4658 Y 10.0806 Z -1.0000 I -0.2431 J 0.0294
G02 X 23.4457 Y 10.0073 Z -1.0000 I -1.5091 J 0.3752
G03 X 23.4292 Y 9.9349 Z -1.0000 I 0.5157 J -0.1553
G01 X 23.4319 Y 9.9191 Z -1.0000
G02 X 23.4374 Y 9.9030 Z -1.0000 I -0.0462 J -0.0247
G02 X 23.4419 Y 9.8598 Z -1.0000 I -0.3440 J -0.0580
G02 X 23.4338 Y 9.8201 Z -1.0000 I -0.0842 J -0.0034
G02 X 23.4050 Y 9.7824 Z -1.0000 I -0.1041 J 0.0496
G02 X 23.3647 Y 9.7534 Z -1.0000 I -0.1826 J 0.2117
G01 X 23.3485 Y 9.7490 Z -1.0000
G03 X 23.1873 Y 9.7171 Z -1.0000 I 0.0006 J -0.4255
G03 X 23.1555 Y 9.6697 Z -1.0000 I 0.0195 J -0.0474
G01 X 23.1532 Y 9.6653 Z -1.0000
G01 X 23.1459 Y 9.6630 Z -1.0000
G01 X 23.1367 Y 9.6611 Z -1.0000
G03 X 23.0491 Y 9.6214 Z -1.0000 I 0.9693 J -2.2571
G02 X 22.9616 Y 9.5806 Z -1.0000 I -2.3719 J 4.9761
G02 X 22.9318 Y 9.5680 Z -1.0000 I -0.2540 J 0.5578
G03 X 22.9028 Y 9.5544 Z -1.0000 I 0.0886 J -0.2257
G03 X 22.8903 Y 9.5450 Z -1.0000 I 0.0283 J -0.0510
G01 X 22.8779 Y 9.5364 Z -1.0000
G01 X 22.8669 Y 9.5339 Z -1.0000
G01 X 22.8553 Y 9.5322 Z -1.0000
G03 X 22.8267 Y 9.5219 Z -1.0000 I 0.0763 J -0.2559
G02 X 22.7983 Y 9.5102 Z -1.0000 I -0.5610 J 1.3208
G02 X 22.7597 Y 9.4952 Z -1.0000 I -0.8781 J 2.1970
G03 X 22.7211 Y 9.4802 Z -1.0000 I 1.4198 J -3.7319
G03 X 22.6823 Y 9.4647 Z -1.0000 I 1.2473 J -3.1789
G02 X 22.6429 Y 9.4508 Z -1.0000 I -0.1620 J 0.3964
G02 X 22.5661 Y 9.4299 Z -1.0000 I -0.4637 J 1.5512
G03 X 22.4900 Y 9.4089 Z -1.0000 I 0.3366 J -1.3664
G01 X 22.4844 Y 9.4048 Z -1.0000
G01 X 22.4788 Y 9.4006 Z -1.0000
G02 X 22.4032 Y 9.3750 Z -1.0000 I -0.5313 J 1.4451
G03 X 22.3280 Y 9.3483 Z -1.0000 I 0.2888 J -0.9321
G01 X 22.3143 Y 9.3393 Z -1.0000
G01 X 22.3013 Y 9.3302 Z -1.0000
G01 X 22.2886 Y 9.3274 Z -1.0000
G03 X 22.2086 Y 9.3146 Z -1.0000 I 0.0000 J -0.2566
G03 X 22.1536 Y 9.2830 Z -1.0000 I 0.0489 J -0.1489
G01 X 22.1445 Y 9.2780 Z -1.0000
G01 X 22.1303 Y 9.2758 Z -1.0000
G01 X 22.1159 Y 9.2732 Z -1.0000
G03 X 22.0783 Y 9.2563 Z -1.0000 I 0.1153 J -0.3065
G02 X 22.0405 Y 9.2385 Z -1.0000 I -0.2164 J 0.4098
G02 X 22.0026 Y 9.2246 Z -1.0000 I -0.1677 J 0.4016
G03 X 21.9641 Y 9.2119 Z -1.0000 I 0.3750 J -1.1923
G03 X 21.9554 Y 9.2080 Z -1.0000 I 0.0205 J -0.0583
G01 X 21.9467 Y 9.2044 Z -1.0000
G02 X 21.9339 Y 9.2016 Z -1.0000 I -0.0248 J 0.0831
G03 X 21.9210 Y 9.1987 Z -1.0000 I 0.0106 J -0.0761
G03 X 21.7831 Y 9.1535 Z -1.0000 I 3.1106 J -9.7248
G02 X 21.6449 Y 9.1092 Z -1.0000 I -1.7272 J 5.1470
G02 X 21.5809 Y 9.0916 Z -1.0000 I -0.3319 J 1.0845
G03 X 21.4397 Y 9.0431 Z -1.0000 I 0.1912 J -0.7864
G01 X 21.4182 Y 9.0183 Z -1.0000
G01 X 21.4093 Y 8.9876 Z -1.0000
G01 X 21.4140 Y 9.0220 Z -1.0000
G02 X 21.4193 Y 9.0563 Z -1.0000 I 0.9762 J -0.1341
G02 X 21.4233 Y 9.0758 Z -1.0000 I 0.3328 J -0.0577
G01 X 21.4218 Y 9.0903 Z -1.0000
G01 X 21.4141 Y 9.0952 Z -1.0000
G01 X 21.4034 Y 9.0919 Z -1.0000
G01 X 21.4002 Y 9.0859 Z -1.0000
G01 X 21.3960 Y 9.0810 Z -1.0000
G02 X 21.3593 Y 9.0794 Z -1.0000 I -0.0256 J 0.1634
G02 X 21.3232 Y 9.0890 Z -1.0000 I 0.0070 J 0.0991
G01 X 21.3089 Y 9.1037 Z -1.0000
G01 X 21.3096 Y 9.1254 Z -1.0000
G01 X 21.3215 Y 9.1280 Z -1.0000
G03 X 21.3864 Y 9.1087 Z -1.0000 I 0.0562 J 0.0706
G01 X 21.4260 Y 9.1381 Z -1.0000
G03 X 21.4295 Y 9.1635 Z -1.0000 I -0.0467 J 0.0194
G01 X 21.4209 Y 9.1801 Z -1.0000
G03 X 21.3541 Y 9.2188 Z -1.0000 I -0.1221 J -0.1339
G01 X 21.3332 Y 9.2082 Z -1.0000
G01 X 21.3224 Y 9.2019 Z -1.0000
G01 X 21.3142 Y 9.2119 Z -1.0000
G01 X 21.3097 Y 9.2192 Z -1.0000
G01 X 21.2980 Y 9.2202 Z -1.0000
G01 X 21.2845 Y 9.2207 Z -1.0000
G01 X 21.2765 Y 9.2288 Z -1.0000
G01 X 21.2695 Y 9.2372 Z -1.0000
G01 X 21.2625 Y 9.2371 Z -1.0000
G01 X 21.2556 Y 9.2370 Z -1.0000
G01 X 21.2487 Y 9.2452 Z -1.0000
G01 X 21.2211 Y 9.2562 Z -1.0000
G01 X 21.1977 Y 9.2210 Z -1.0000
G02 X 21.1942 Y 9.2005 Z -1.0000 I -0.0830 J 0.0036
G01 X 21.1878 Y 9.1882 Z -1.0000
G03 X 21.1609 Y 9.1232 Z -1.0000 I 0.1003 J -0.0795
G01 X 21.1783 Y 9.1038 Z -1.0000
G01 X 21.1822 Y 9.1005 Z -1.0000
G01 X 21.1810 Y 9.0887 Z -1.0000
G03 X 21.1755 Y 9.0735 Z -1.0000 I 0.2467 J -0.0981
G03 X 21.1733 Y 9.0651 Z -1.0000 I 0.0640 J -0.0210
G01 X 21.1704 Y 9.0570 Z -1.0000
G02 X 21.1571 Y 9.0347 Z -1.0000 I -0.2373 J 0.1261
G03 X 21.1391 Y 8.9698 Z -1.0000 I 0.0907 J -0.0602
G01 X 21.1608 Y 8.9489 Z -1.0000
G01 X 21.1637 Y 8.9459 Z -1.0000
G01 X 21.1602 Y 8.9331 Z -1.0000
G03 X 21.1537 Y 8.9167 Z -1.0000 I 0.0646 J -0.0349
G03 X 21.1518 Y 8.9008 Z -1.0000 I 0.0584 J -0.0153
G02 X 21.1506 Y 8.8845 Z -1.0000 I -0.1124 J -0.0002
G02 X 21.1461 Y 8.8607 Z -1.0000 I -0.2650 J 0.0382
G01 X 21.1551 Y 8.8440 Z -1.0000
G01 X 21.1767 Y 8.8500 Z -1.0000
G01 X 21.1869 Y 8.8513 Z -1.0000
G01 X 21.1888 Y 8.8414 Z -1.0000
G01 X 21.1779 Y 8.8189 Z -1.0000
G01 X 21.1810 Y 8.8184 Z -1.0000
G03 X 21.2132 Y 8.8160 Z -1.0000 I 0.1332 J 1.6240
G02 X 21.2439 Y 8.8103 Z -1.0000 I -0.0080 J -0.1287
G01 X 21.2605 Y 8.8012 Z -1.0000
G03 X 21.2767 Y 8.7899 Z -1.0000 I 0.0642 J 0.0751
G03 X 21.3028 Y 8.7776 Z -1.0000 I 0.1064 J 0.1908
G02 X 21.3281 Y 8.7642 Z -1.0000 I -0.0493 J -0.1245
G02 X 21.3490 Y 8.7465 Z -1.0000 I -0.0678 J -0.1011
G01 X 21.3593 Y 8.7234 Z -1.0000
G02 X 21.3575 Y 8.6461 Z -1.0000 I -0.3574 J -0.0303
G02 X 21.3318 Y 8.4780 Z -1.0000 I -4.2033 J 0.5548
G02 X 21.3216 Y 8.4391 Z -1.0000 I -0.2322 J 0.0402
G01 X 21.3077 Y 8.4245 Z -1.0000
G01 X 21.2990 Y 8.4298 Z -1.0000
G01 X 21.2895 Y 8.4507 Z -1.0000
G01 X 21.2796 Y 8.4496 Z -1.0000
G01 X 21.2746 Y 8.4474 Z -1.0000
G01 X 21.2715 Y 8.4511 Z -1.0000
G01 X 21.2552 Y 8.4743 Z -1.0000
G01 X 21.2184 Y 8.4706 Z -1.0000
G01 X 21.2104 Y 8.4698 Z -1.0000
G01 X 21.2019 Y 8.4767 Z -1.0000
G01 X 21.1938 Y 8.4815 Z -1.0000
G01 X 21.1840 Y 8.4778 Z -1.0000
G01 X 21.1679 Y 8.4737 Z -1.0000
G01 X 21.1595 Y 8.4849 Z -1.0000
G01 X 21.1542 Y 8.4953 Z -1.0000
G01 X 21.1423 Y 8.4972 Z -1.0000
G01 X 21.1310 Y 8.4999 Z -1.0000
G01 X 21.1251 Y 8.5138 Z -1.0000
G01 X 21.1135 Y 8.5303 Z -1.0000
G01 X 21.0924 Y 8.5256 Z -1.0000
G01 X 21.0859 Y 8.5246 Z -1.0000
G01 X 21.0821 Y 8.5308 Z -1.0000
G01 X 21.0766 Y 8.5393 Z -1.0000
G01 X 21.0598 Y 8.5408 Z -1.0000
G02 X 21.0384 Y 8.5395 Z -1.0000 I -0.0140 J 0.0558
G01 X 21.0253 Y 8.5452 Z -1.0000
G01 X 21.0045 Y 8.5431 Z -1.0000
G03 X 20.9920 Y 8.5040 Z -1.0000 I 0.0441 J -0.0357
G03 X 20.9976 Y 8.4749 Z -1.0000 I 0.1163 J 0.0073
G01 X 21.0037 Y 8.4688 Z -1.0000
G01 X 21.0066 Y 8.4634 Z -1.0000
G02 X 20.9960 Y 8.4412 Z -1.0000 I -0.0680 J 0.0188
G01 X 20.9878 Y 8.4204 Z -1.0000
G01 X 20.9925 Y 8.4140 Z -1.0000
G01 X 20.9968 Y 8.4077 Z -1.0000
G01 X 20.9883 Y 8.3883 Z -1.0000
G03 X 20.9770 Y 8.3624 Z -1.0000 I 0.0436 J -0.0343
G01 X 20.9832 Y 8.3552 Z -1.0000
