%
(Header)
(Generated by gcodetools from Inkscape.)
(Using default header. To add your own header create file "header" in the output dir.)
M3
(Header end.)
G21 (All units in mm)

(Start cutting path id: path2)
(Change tool to Default tool)

G00 Z5.000000
G00 X25.474914 Y0.487861

G01 Z-1.000000 F100.0(Penetrate)
G03 X25.543120 Y0.595711 Z-1.000000 I-0.277018 J0.250684 F3500.000000
G03 X25.564914 Y0.705391 Z-1.000000 I-0.265093 J0.109680
G02 X25.603159 Y0.785223 Z-1.000000 I0.102444 J-0.000000
G02 X25.711747 Y0.823469 Z-1.000000 I0.108588 J-0.135031
G03 X25.794794 Y0.849890 Z-1.000000 I0.000000 J0.143729
G03 X25.727653 Y0.913783 Z-1.000000 I-0.071123 J-0.071123
G03 X25.474141 Y0.887729 Z-1.000000 I-0.011901 J-1.130583
G02 X24.682352 Y0.776105 Z-1.000000 I-1.136573 J5.198103
G02 X24.119354 Y0.799769 Z-1.000000 I-0.171188 J2.636324
G02 X23.942605 Y0.890530 Z-1.000000 I0.046064 J0.307187
G02 X23.879057 Y1.047159 Z-1.000000 I0.161251 J0.156629
G02 X23.912247 Y1.225328 Z-1.000000 I0.494816 J-0.000000
G02 X23.960627 Y1.258514 Z-1.000000 I0.048380 J-0.018673
G03 X24.009018 Y1.291700 Z-1.000000 I0.000000 J0.051875
G03 X24.042197 Y1.469701 Z-1.000000 I-0.460891 J0.178001
G03 X24.003053 Y1.650661 Z-1.000000 I-0.437851 J0.000000
G03 X23.933432 Y1.709331 Z-1.000000 I-0.096404 J-0.043755
G02 X23.854044 Y1.760454 Z-1.000000 I0.038382 J0.146804
G02 X23.824667 Y1.843201 Z-1.000000 I0.101850 J0.082747
G03 X23.800939 Y1.938092 Z-1.000000 I-0.201602 J-0.000000
G03 X23.715902 Y2.047059 Z-1.000000 I-0.355041 J-0.189406
G02 X23.624717 Y2.153292 Z-1.000000 I0.374141 J0.413393
G02 X23.607137 Y2.211837 Z-1.000000 I0.088692 J0.058545
G03 X23.543983 Y2.282920 Z-1.000000 I-0.071581 J0.000000
G03 X22.471904 Y2.346415 Z-1.000000 I-1.074980 J-9.068030
G02 X20.663996 Y2.396933 Z-1.000000 I0.010409 J32.747664
G02 X19.474072 Y2.513129 Z-1.000000 I0.794550 J14.287667
G02 X16.862230 Y3.034219 Z-1.000000 I3.196918 J22.829987
G02 X14.352323 Y3.846723 Z-1.000000 I5.699467 J21.889152
G02 X13.053936 Y4.422843 Z-1.000000 I5.582005 J14.331166
G02 X12.458737 Y4.793912 Z-1.000000 I1.677529 J3.353658
G03 X11.376894 Y5.573489 Z-1.000000 I-15.127859 J-19.852958
G03 X11.261274 Y5.609109 Z-1.000000 I-0.115620 J-0.169836
G02 X11.221791 Y5.622958 Z-1.000000 I0.000000 J0.063204
G01 X11.207944 Y5.651769 Z-1.000000
G03 X11.046775 Y5.789631 Z-1.000000 I-0.669385 J-0.782563
G02 X10.889878 Y5.890507 Z-1.000000 I1.253702 J2.122386
G02 X10.815650 Y5.950908 Z-1.000000 I0.371330 J0.532149
G03 X10.742999 Y6.013811 Z-1.000000 I-0.764015 J-0.809007
G03 X10.423689 Y6.261701 Z-1.000000 I-12.221421 J-15.412958
G02 X9.284874 Y7.239083 Z-1.000000 I7.648888 J10.064396
G02 X9.195793 Y7.449152 Z-1.000000 I0.203150 J0.210069
G03 X9.175625 Y7.492335 Z-1.000000 I-0.056315 J-0.000000
G03 X9.120113 Y7.512502 Z-1.000000 I-0.055512 J-0.066318
G02 X9.064985 Y7.538841 Z-1.000000 I0.000000 J0.070861
G02 X9.010312 Y7.648458 Z-1.000000 I0.221603 J0.178970
G03 X8.956282 Y7.758894 Z-1.000000 I-0.287254 J-0.072102
G03 X8.903901 Y7.784414 Z-1.000000 I-0.052381 J-0.040997
G02 X8.850340 Y7.811894 Z-1.000000 I0.000000 J0.065937
G02 X8.744296 Y8.006702 Z-1.000000 I0.727134 J0.522085
G03 X8.645011 Y8.193050 Z-1.000000 I-0.854356 J-0.335570
G02 X8.497474 Y8.420407 Z-1.000000 I0.948078 J0.486747
G02 X8.472033 Y8.659330 Z-1.000000 I0.750471 J0.200727
G02 X8.514254 Y8.761351 Z-1.000000 I0.163862 J-0.008067
G03 X8.576579 Y8.861535 Z-1.000000 I-0.245567 J0.222246
G03 X8.597584 Y8.971514 Z-1.000000 I-0.277413 J0.109979
G02 X8.639797 Y9.047378 Z-1.000000 I0.089276 J0.000000
G02 X8.787923 Y9.089592 Z-1.000000 I0.148126 J-0.238772
G03 X8.918856 Y9.149008 Z-1.000000 I0.000000 J0.173974
G03 X8.978262 Y9.307122 Z-1.000000 I-0.180714 J0.158114
G02 X9.032655 Y9.470281 Z-1.000000 I0.271902 J0.000000
G02 X9.141409 Y9.524652 Z-1.000000 I0.108754 J-0.081579
G03 X9.250172 Y9.579033 Z-1.000000 I-0.000000 J0.135955
G03 X9.304556 Y9.742182 Z-1.000000 I-0.217528 J0.163149
G02 X9.337946 Y9.926322 Z-1.000000 I0.524441 J-0.000000
G02 X9.386126 Y9.959711 Z-1.000000 I0.048180 J-0.018067
G03 X9.435467 Y9.991943 Z-1.000000 I0.000000 J0.053882
G03 X9.467696 Y10.145602 Z-1.000000 I-0.350188 J0.153659
G02 X9.478089 Y10.329848 Z-1.000000 I1.638354 J-0.000000
G02 X9.500016 Y10.431110 Z-1.000000 I0.512806 J-0.058037
G01 X9.491287 Y10.453649 Z-1.000000
G02 X9.436046 Y10.715444 Z-1.000000 I1.215075 J0.147468
G03 X9.462817 Y11.063534 Z-1.000000 I-12.427805 J1.130875
G03 X9.467696 Y11.218943 Z-1.000000 I-2.472649 J0.155409
G02 X9.504441 Y11.308101 Z-1.000000 I0.126539 J-0.000000
G02 X9.636879 Y11.237745 Z-1.000000 I-0.117345 J-0.186795
G02 X9.773650 Y10.947251 Z-1.000000 I-1.727884 J-0.990971
G03 X9.889817 Y10.639698 Z-1.000000 I85.987022 J32.302726
G03 X9.931835 Y10.530721 Z-1.000000 I10.773816 J4.091460
G02 X9.966625 Y10.421248 Z-1.000000 I-0.819436 J-0.320678
G02 X9.967515 Y10.386385 Z-1.000000 I-0.078668 J-0.019451
G03 X10.040455 Y10.284557 Z-1.000000 I0.308851 J0.221240
G02 X10.103896 Y10.210595 Z-1.000000 I-0.184857 J-0.222752
G02 X10.120295 Y10.151326 Z-1.000000 I-0.098907 J-0.059269
G03 X10.137795 Y10.091222 Z-1.000000 I0.111965 J-0.000000
G03 X10.256251 Y9.937653 Z-1.000000 I0.906504 J0.576766
G02 X10.376316 Y9.784723 Z-1.000000 I-0.871816 J-0.808061
G02 X10.392207 Y9.731832 Z-1.000000 I-0.080078 J-0.052891
G03 X10.467314 Y9.529919 Z-1.000000 I0.308958 J-0.000000
G03 X11.440723 Y8.517470 Z-1.000000 I9.939395 J8.581970
G03 X13.384554 Y6.887245 Z-1.000000 I16.143755 J17.275329
G03 X13.792388 Y6.751141 Z-1.000000 I0.407834 J0.542983
G01 X13.815340 Y6.744806 Z-1.000000
G02 X14.184826 Y6.516648 Z-1.000000 I-7.635017 J-12.777635
G03 X16.103589 Y5.544040 Z-1.000000 I5.873880 J9.209028
G03 X18.603956 Y4.800010 Z-1.000000 I5.816453 J14.973263
G03 X20.762772 Y4.518588 Z-1.000000 I2.872708 J13.615854
G03 X22.943099 Y4.577113 Z-1.000000 I0.716532 J13.948664
G03 X25.316243 Y5.101191 Z-1.000000 I-1.135891 J10.778671
G03 X27.183429 Y6.028119 Z-1.000000 I-2.581703 J7.544612
G03 X28.481451 Y7.298489 Z-1.000000 I-2.787736 J4.146740
G03 X28.936127 Y8.517751 Z-1.000000 I-2.097349 J1.476531
G03 X28.903550 Y10.018208 Z-1.000000 I-6.125836 J0.617581
G03 X28.564016 Y11.085975 Z-1.000000 I-3.396286 J-0.492101
G02 X28.457567 Y11.317430 Z-1.000000 I2.782776 J1.420038
G02 X28.447177 Y11.369996 Z-1.000000 I0.127778 J0.052566
G03 X28.391661 Y11.594806 Z-1.000000 I-0.482939 J0.000000
G03 X27.863602 Y12.479526 Z-1.000000 I-8.461803 J-4.450610
G02 X27.588728 Y12.909181 Z-1.000000 I9.249995 J6.220488
G02 X27.577058 Y12.950840 Z-1.000000 I0.068522 J0.041659
G03 X27.565242 Y12.988106 Z-1.000000 I-0.064676 J0.000000
G03 X27.532398 Y13.014190 Z-1.000000 I-0.060846 J-0.042897
G02 X27.495200 Y13.041991 Z-1.000000 I0.034692 J0.085203
G02 X27.083743 Y13.576142 Z-1.000000 I15.104662 J12.060694
G03 X26.673078 Y14.111630 Z-1.000000 I-17.699900 J-13.148805
G03 X26.638963 Y14.138094 Z-1.000000 I-0.070777 J-0.056020
G02 X26.612129 Y14.165313 Z-1.000000 I0.021347 J0.047882
G02 X26.598173 Y14.233264 Z-1.000000 I0.158446 J0.067951
G03 X26.574967 Y14.287100 Z-1.000000 I-0.074050 J-0.000000
G03 X26.516603 Y14.310304 Z-1.000000 I-0.058364 J-0.061798
G02 X26.457439 Y14.332718 Z-1.000000 I0.000000 J0.089293
G02 X26.435033 Y14.382454 Z-1.000000 I0.043999 J0.049736
G03 X26.414268 Y14.446503 Z-1.000000 I-0.109160 J0.000000
G03 X26.188750 Y14.722344 Z-1.000000 I-2.474649 J-1.793075
G02 X25.748223 Y15.231026 Z-1.000000 I8.264751 J7.602505
G02 X25.728061 Y15.287685 Z-1.000000 I0.069530 J0.056659
G03 X25.711403 Y15.329757 Z-1.000000 I-0.061460 J-0.000000
G03 X25.629781 Y15.392336 Z-1.000000 I-0.231408 J-0.217309
G02 X25.569967 Y15.465038 Z-1.000000 I0.058282 J0.108906
G02 X25.554161 Y15.638971 Z-1.000000 I0.406537 J0.124630
G02 X25.646056 Y15.761480 Z-1.000000 I0.151133 J-0.017647
G02 X25.809157 Y15.746748 Z-1.000000 I0.067739 J-0.160269
G03 X25.941188 Y15.689136 Z-1.000000 I0.235306 J0.359159
G03 X26.002768 Y15.698778 Z-1.000000 I0.019330 J0.078008
G02 X26.066058 Y15.713568 Z-1.000000 I0.053669 J-0.086849
G02 X26.181902 Y15.681818 Z-1.000000 I-0.032856 J-0.347088
G03 X26.682016 Y15.512291 Z-1.000000 I0.991720 J2.103176
G03 X27.242834 Y15.452329 Z-1.000000 I0.560818 J2.592674
G03 X27.991763 Y15.527072 Z-1.000000 I0.000000 J3.789543
G03 X28.066506 Y15.618387 Z-1.000000 I-0.018410 J0.091315
G01 X28.080150 Y15.648845 Z-1.000000
G02 X28.144836 Y15.688277 Z-1.000000 I0.140043 J-0.156961
G02 X28.490895 Y15.626713 Z-1.000000 I0.121963 J-0.317832
G02 X30.188469 Y13.901212 Z-1.000000 I-10.627551 J-12.153346
G02 X31.129431 Y12.663009 Z-1.000000 I-11.340013 J-9.594383
G02 X31.625101 Y11.789811 Z-1.000000 I-5.119245 J-3.483220
G02 X32.167893 Y9.226442 Z-1.000000 I-5.291244 J-2.459572
G02 X31.519520 Y5.855530 Z-1.000000 I-10.013128 J0.178150
G02 X30.823573 Y4.404590 Z-1.000000 I-8.864246 J3.359379
G02 X30.110538 Y3.462970 Z-1.000000 I-4.400442 J2.591425
G03 X29.879203 Y3.208677 Z-1.000000 I4.799431 J-4.598500
G03 X29.690039 Y2.976013 Z-1.000000 I3.826935 J-3.304664
G02 X29.495253 Y2.750695 Z-1.000000 I-1.976944 J1.512203
G02 X29.361061 Y2.638582 Z-1.000000 I-0.614323 J0.598936
G03 X29.231497 Y2.537976 Z-1.000000 I0.691685 J-1.024501
G01 X29.231058 Y2.523035 Z-1.000000
G02 X29.234692 Y2.194902 Z-1.000000 I-0.165925 J-0.165925
G02 X28.697718 Y1.965480 Z-1.000000 I-0.536974 J0.513699
G03 X28.444122 Y1.859787 Z-1.000000 I0.000000 J-0.357083
G03 X28.338415 Y1.603004 Z-1.000000 I0.259037 J-0.256783
G02 X28.320366 Y1.548479 Z-1.000000 I-0.091386 J0.000000
G03 X28.210592 Y1.503860 Z-1.000000 I-0.000000 J-0.115944
G03 X27.708555 Y1.054578 Z-1.000000 I5.441813 J-6.585935
G02 X27.460577 Y0.846559 Z-1.000000 I-1.577293 J1.628464
G02 X27.389246 Y0.823452 Z-1.000000 I-0.071331 J0.098546
G03 X27.343286 Y0.732962 Z-1.000000 I0.070716 J-0.035916
G02 X27.341591 Y0.686431 Z-1.000000 I-0.055434 J-0.021277
G03 X27.264315 Y0.690900 Z-1.000000 I-0.042871 J-0.069373
G03 X27.227846 Y0.667212 Z-1.000000 I0.006843 J-0.050452
G02 X27.187900 Y0.630977 Z-1.000000 I-0.082885 J0.051237
G02 X27.054372 Y0.582062 Z-1.000000 I-0.298411 J0.607896
G03 X26.919830 Y0.531169 Z-1.000000 I0.151743 J-0.604438
G03 X26.832444 Y0.467273 Z-1.000000 I0.162045 J-0.313321
G02 X26.739251 Y0.422921 Z-1.000000 I-0.109049 J0.109049
G02 X26.069230 Y0.388383 Z-1.000000 I-0.670022 J6.481857
G02 X25.492841 Y0.436273 Z-1.000000 I-0.000000 J3.492571
G01 X25.474908 Y0.487833 Z-1.000000
G00 Z5.000000

(End cutting path id: path2)


(Start cutting path id: path2)
(Change tool to Default tool)

G00 Z5.000000
G00 X28.365612 Y15.397963

G01 Z-1.000000 F100.0(Penetrate)
G03 X28.323839 Y15.437492 Z-1.000000 I-0.095393 J-0.058971 F3500.000000
G03 X28.267232 Y15.451513 Z-1.000000 I-0.055118 J-0.101252
G03 X28.284032 Y15.397963 Z-1.000000 I0.066075 J0.020734
G03 X28.354081 Y15.377298 Z-1.000000 I0.070049 J0.108388
G00 Z5.000000

(End cutting path id: path2)


(Start cutting path id: path2)
(Change tool to Default tool)

G00 Z5.000000

G01 Z-1.000000 F100.0(Penetrate)
G03 X28.229658 Y15.642683 Z-1.000000 I-0.168065 J-0.158672
G03 X28.191661 Y15.577492 Z-1.000000 I0.060022 J-0.000000
G03 X28.229658 Y15.561113 Z-1.000000 I0.037997 J0.035882
G03 X28.274574 Y15.570576 Z-1.000000 I0.000000 J0.111324
G00 Z5.000000

(End cutting path id: path2)


(Start cutting path id: path2)
(Change tool to Default tool)

G00 Z5.000000

G01 Z-1.000000 F100.0(Penetrate)
G03 X28.124214 Y15.501135 Z-1.000000 I-0.038575 J-0.038575 F3500.000000
G03 X28.056312 Y15.489503 Z-1.000000 I-0.006772 J-0.164468
G03 X28.089172 Y15.456643 Z-1.000000 I0.038579 J0.038574
G03 X28.157081 Y15.468272 Z-1.000000 I0.006866 J0.164005
G00 Z5.000000

(End cutting path id: path2)


(Start cutting path id: path2)
(Change tool to Default tool)

G00 Z5.000000

G01 Z-1.000000 F100.0(Penetrate)
G02 X28.004317 Y15.713487 Z-1.000000 I-0.121719 J-0.196896
G02 X27.957741 Y15.669878 Z-1.000000 I-0.044916 J0.101860
G02 X27.919740 Y15.686262 Z-1.000000 I0.000000 J0.052262
G02 X27.903361 Y15.727468 Z-1.000000 I0.043644 J0.041206
G00 Z5.000000

(End cutting path id: path2)


(Start cutting path id: path2)
(Change tool to Default tool)

G00 Z5.000000
G00 X25.052794 Y15.934489

G01 Z-1.000000 F100.0(Penetrate)
G02 X25.030302 Y16.001079 Z-1.000000 I0.132345 J0.081795 F3500.000000
G02 X25.118244 Y15.934270 Z-1.000000 I-0.085768 J-0.063585
G00 Z5.000000

(End cutting path id: path2)


(Start cutting path id: path2)
(Change tool to Default tool)

G00 Z5.000000

G01 Z-1.000000 F100.0(Penetrate)
G02 X23.262098 Y16.631089 Z-1.000000 I0.408998 J0.874302 F3500.000000
G02 X23.775870 Y16.472168 Z-1.000000 I-0.847902 J-2.733429
G02 X23.824678 Y16.391209 Z-1.000000 I-0.042741 J-0.080959
G02 X23.516922 Y16.457519 Z-1.000000 I0.271890 J1.261956
G00 Z5.000000

(End cutting path id: path2)


(Start cutting path id: path2)
(Change tool to Default tool)

G00 Z5.000000
G00 X17.108446 Y20.616135

G01 Z-1.000000 F100.0(Penetrate)
G02 X17.434659 Y20.704821 Z-1.000000 I0.437962 J-0.966656 F3500.000000
G02 X17.431549 Y20.639938 Z-1.000000 I-0.038371 J0.043503
G02 X17.217211 Y20.599975 Z-1.000000 I-0.708697 J3.206260
G02 X17.110733 Y20.599779 Z-1.000000 I-0.053892 J0.354001
G00 Z5.000000

(End cutting path id: path2)


(Start cutting path id: path2)
(Change tool to Default tool)

G00 Z5.000000

G01 Z-1.000000 F100.0(Penetrate)
G02 X16.879653 Y20.602747 Z-1.000000 I0.054380 J0.000000 F3500.000000
G02 X16.918105 Y20.618675 Z-1.000000 I0.038452 J-0.038452
G02 X16.956557 Y20.602747 Z-1.000000 I-0.000000 J-0.054380
G02 X16.972485 Y20.564295 Z-1.000000 I-0.038452 J-0.038452
G02 X16.956557 Y20.525843 Z-1.000000 I-0.054380 J0.000000
G02 X16.918105 Y20.509915 Z-1.000000 I-0.038452 J0.038452
G02 X16.879653 Y20.525843 Z-1.000000 I0.000000 J0.054380
G02 X16.863725 Y20.564295 Z-1.000000 I0.038452 J0.038452
G00 Z5.000000

(End cutting path id: path2)


(Start cutting path id: path2)
(Change tool to Default tool)

G00 Z5.000000

G01 Z-1.000000 F100.0(Penetrate)
G02 X16.352029 Y21.116927 Z-1.000000 I0.449662 J0.082853 F3500.000000
G02 X16.663452 Y21.301470 Z-1.000000 I0.370632 J-0.270415
G02 X16.787150 Y21.270224 Z-1.000000 I0.022370 J-0.171917
G02 X16.894578 Y21.134937 Z-1.000000 I-0.185622 J-0.257694
G02 X16.956723 Y20.764897 Z-1.000000 I-0.761306 J-0.318094
G02 X16.863728 Y20.645869 Z-1.000000 I-0.133447 J0.008418
G03 X16.771447 Y20.599287 Z-1.000000 I0.098115 J-0.309070
G02 X16.632603 Y20.481959 Z-1.000000 I-0.235726 J0.339315
G02 X16.420522 Y20.518776 Z-1.000000 I-0.071736 J0.216019
G02 X16.271739 Y20.764575 Z-1.000000 I0.250056 J0.319289
G00 Z5.000000

(End cutting path id: path2)


(Start cutting path id: path2)
(Change tool to Default tool)

G00 Z5.000000

G01 Z-1.000000 F100.0(Penetrate)
G03 X16.063627 Y20.797631 Z-1.000000 I-0.133079 J0.034793 F3500.000000
G03 X16.008711 Y20.766980 Z-1.000000 I0.046685 J-0.075543
G03 X15.993606 Y20.697036 Z-1.000000 I0.154387 J-0.069944
G03 X16.063766 Y20.727516 Z-1.000000 I-0.029381 J0.067633
G00 Z5.000000

(End cutting path id: path2)


(Start cutting path id: path2)
(Change tool to Default tool)

G00 Z5.000000

G01 Z-1.000000 F100.0(Penetrate)
G03 X18.304147 Y22.479616 Z-1.000000 I-0.271857 J3.540632 F3500.000000
G03 X18.470179 Y22.531158 Z-1.000000 I-0.135725 J0.730406
G03 X18.866520 Y22.810787 Z-1.000000 I-0.505509 J1.137196
G03 X19.207778 Y23.306846 Z-1.000000 I-1.389621 J1.321386
G03 X19.495416 Y24.132875 Z-1.000000 I-3.600848 J1.716973
G03 X19.937567 Y26.491979 Z-1.000000 I-29.280091 J6.708762
G02 X20.015560 Y27.008223 Z-1.000000 I55.619884 J-8.138951
G02 X20.049847 Y27.212547 Z-1.000000 I8.772532 J-1.367040
G03 X20.020571 Y27.361334 Z-1.000000 I-0.205202 J0.036897
G03 X19.920142 Y27.416481 Z-1.000000 I-0.100429 J-0.063873
G03 X19.668908 Y27.330288 Z-1.000000 I-0.000000 J-0.409243
G03 X19.582990 Y27.154280 Z-1.000000 I0.136610 J-0.175661
G02 X19.574930 Y27.063910 Z-1.000000 I-0.501914 J-0.000780
G02 X19.502300 Y26.709509 Z-1.000000 I-7.848325 J1.423774
G03 X19.422772 Y26.355733 Z-1.000000 I47.812395 J-10.933916
G03 X19.286043 Y25.730625 Z-1.000000 I149.676059 J-33.065983
G02 X18.905999 Y24.115391 Z-1.000000 I-45.478555 J9.848195
G02 X18.781493 Y23.745666 Z-1.000000 I-2.492841 J0.633646
G02 X18.267073 Y22.968631 Z-1.000000 I-2.344273 J0.993179
G02 X17.536920 Y22.459163 Z-1.000000 I-1.670278 J1.615839
G03 X17.408847 Y22.375498 Z-1.000000 I0.191618 J-0.433185
G02 X17.548360 Y22.387214 Z-1.000000 I0.217690 J-0.572651
G02 X17.927247 Y22.430274 Z-1.000000 I0.778522 J-5.161759
G00 Z5.000000

(End cutting path id: path2)


(Start cutting path id: path2)
(Change tool to Default tool)

G00 Z5.000000
G00 X18.262587 Y27.647606

G01 Z-1.000000 F100.0(Penetrate)
G02 X18.375204 Y27.826936 Z-1.000000 I0.346941 J-0.092849 F3500.000000
G02 X18.613757 Y27.949938 Z-1.000000 I0.376445 J-0.437259
G02 X18.905878 Y28.001975 Z-1.000000 I0.545648 J-2.217148
G02 X19.534031 Y28.052740 Z-1.000000 I1.142671 J-10.227458
G03 X20.168441 Y31.823023 Z-1.000000 I-31.002083 J0.889006
G03 X19.959078 Y33.806419 Z-1.000000 I-19.147779 J-1.018445
G03 X19.510907 Y35.949920 Z-1.000000 I-22.116527 J-3.505599
G03 X19.065870 Y37.232513 Z-1.000000 I-8.328091 J-2.171195
G02 X18.996113 Y37.396386 Z-1.000000 I7.772147 J3.405221
G02 X18.807370 Y37.857911 Z-1.000000 I61.464793 J25.405659
G03 X18.351352 Y38.791341 Z-1.000000 I-6.886003 J-2.785987
G03 X18.225406 Y38.863987 Z-1.000000 I-0.125946 J-0.072853
G03 X18.164450 Y38.844255 Z-1.000000 I0.000000 J-0.104021
G03 X18.093304 Y38.768450 Z-1.000000 I0.160466 J-0.221891
G03 X18.077644 Y38.671783 Z-1.000000 I0.105798 J-0.066741
G03 X18.182234 Y38.407510 Z-1.000000 I1.023109 J0.252080
G02 X18.510730 Y37.726760 Z-1.000000 I-5.273128 J-2.964181
G02 X18.985985 Y36.435783 Z-1.000000 I-18.555383 J-7.563867
G02 X19.459482 Y34.646199 Z-1.000000 I-14.721659 J-4.852565
G02 X19.751688 Y32.637197 Z-1.000000 I-18.275241 J-3.683853
G02 X19.890547 Y29.528040 Z-1.000000 I-34.204275 J-3.085286
G02 X19.748988 Y28.649034 Z-1.000000 I-2.811997 J0.001955
G03 X18.053630 Y28.283109 Z-1.000000 I0.010868 J-4.023692
G03 X17.785442 Y28.034477 Z-1.000000 I0.116886 J-0.395036
G03 X17.777361 Y27.641401 Z-1.000000 I0.546717 J-0.207861
G03 X17.978606 Y27.455864 Z-1.000000 I0.268919 J0.089776
G03 X18.147397 Y27.485957 Z-1.000000 I0.050472 J0.205324
G03 X18.262628 Y27.647637 Z-1.000000 I-0.158668 J0.234987
G00 Z5.000000

(End cutting path id: path2)


(Start cutting path id: path2)
(Change tool to Default tool)

G00 Z5.000000
G00 X15.993606 Y37.014983

G01 Z-1.000000 F100.0(Penetrate)
G03 X15.983962 Y37.141323 Z-1.000000 I-0.832361 J0.000000 F3500.000000
G03 X15.925916 Y37.014983 Z-1.000000 I0.867059 J-0.298743
G03 X15.923788 Y36.898747 Z-1.000000 I0.336195 J-0.064293
G03 X15.993606 Y37.014983 Z-1.000000 I-0.338008 J0.116459
G00 Z5.000000

(End cutting path id: path2)


(Start cutting path id: path2)
(Change tool to Default tool)

G00 Z5.000000

G01 Z-1.000000 F100.0(Penetrate)
G03 X15.015919 Y38.233512 Z-1.000000 I-0.070126 J-0.173326 F3500.000000
G03 X14.920588 Y38.221897 Z-1.000000 I-0.004452 J-0.360498
G03 X14.987528 Y38.194812 Z-1.000000 I0.070121 J0.173296
G03 X15.082865 Y38.206432 Z-1.000000 I0.004458 J0.360362
G00 Z5.000000

(End cutting path id: path2)


(Start cutting path id: path2)
(Change tool to Default tool)

G00 Z5.000000

G01 Z-1.000000 F100.0(Penetrate)
G03 X14.784300 Y38.333746 Z-1.000000 I-0.081471 J-0.000000 F3500.000000
G03 X14.742813 Y38.374544 Z-1.000000 I-0.110503 J-0.070874
G03 X14.688433 Y38.323371 Z-1.000000 I0.044946 J-0.047763
G03 X14.707652 Y38.257808 Z-1.000000 I0.121439 J0.000000
G03 X14.781753 Y38.254030 Z-1.000000 I0.000000 J0.056820
G00 Z5.000000

(End cutting path id: path2)


(Start cutting path id: path2)
(Change tool to Default tool)

G00 Z5.000000

G01 Z-1.000000 F100.0(Penetrate)
G03 X14.617661 Y38.494120 Z-1.000000 I-0.052265 J-0.000000 F3500.000000
G03 X14.576455 Y38.510500 Z-1.000000 I-0.041206 J-0.043641
G03 X14.590433 Y38.409540 Z-1.000000 I0.196660 J0.121507
G03 X14.634045 Y38.456118 Z-1.000000 I-0.101870 J0.044918
G00 Z5.000000

(End cutting path id: path2)


(Start cutting path id: path2)
(Change tool to Default tool)

G00 Z5.000000
G00 X5.987237 Y38.761880

G01 Z-1.000000 F100.0(Penetrate)
G03 X5.905667 Y38.782412 Z-1.000000 I-0.015407 J-0.061207
G03 X5.830885 Y38.711523 Z-1.000000 I0.498812 J-0.601093
G03 X5.905667 Y38.673647 Z-1.000000 I0.072575 J0.288356
G03 X5.962419 Y38.698471 Z-1.000000 I0.000000 J0.077285
G03 X5.987237 Y38.761880 Z-1.000000 I-0.068596 J0.063409
G00 Z5.000000

(End cutting path id: path2)


(Start cutting path id: path2)
(Change tool to Default tool)

G00 Z5.000000
G00 X4.029469 Y35.330569

G01 Z-1.000000 F100.0(Penetrate)
G03 X3.385625 Y35.574904 Z-1.000000 I-1.405977 J-2.734412 F3500.000000
G03 X2.819460 Y35.640158 Z-1.000000 I-0.521982 J-2.040133
G02 X2.430319 Y35.664323 Z-1.000000 I-0.049322 J2.351147
G02 X2.507310 Y36.186265 Z-1.000000 I1.128600 J0.000000
G02 X2.776711 Y36.498351 Z-1.000000 I0.702146 J-0.333791
G03 X2.806837 Y36.533452 Z-1.000000 I-0.048059 J0.071728
G03 X2.880876 Y36.720692 Z-1.000000 I-1.482221 J0.694357
G02 X2.960419 Y36.908218 Z-1.000000 I1.124754 J-0.366456
G02 X3.160669 Y37.248584 Z-1.000000 I3.928372 J-2.082116
G03 X3.367509 Y37.584447 Z-1.000000 I-6.824975 J4.434772
G03 X3.379764 Y37.624450 Z-1.000000 I-0.079107 J0.046112
G02 X3.594470 Y38.207110 Z-1.000000 I1.097772 J-0.073633
G02 X4.449767 Y39.064021 Z-1.000000 I3.355187 J-2.493569
G03 X4.530939 Y39.148192 Z-1.000000 I-0.216148 J0.289670
G03 X4.640392 Y39.339833 Z-1.000000 I-1.058681 J0.731728
G01 X4.734682 Y39.543767 Z-1.000000
G02 X7.420087 Y39.496901 Z-1.000000 I-0.000000 J-17.670424
G02 X7.348284 Y39.406534 Z-1.000000 I-0.103027 J0.103052
G02 X7.289165 Y39.435002 Z-1.000000 I-0.005804 J0.063566
G03 X7.112346 Y39.367024 Z-1.000000 I0.103989 J-0.270494
G02 X6.979934 Y39.237166 Z-1.000000 I-0.674053 J0.554875
G02 X6.923293 Y39.217472 Z-1.000000 I-0.056641 J0.071604
G03 X6.878033 Y39.196798 Z-1.000000 I-0.000000 J-0.059878
G03 X6.857353 Y39.141337 Z-1.000000 I0.064027 J-0.055461
G02 X6.710380 Y38.820622 Z-1.000000 I-0.423410 J0.000000
G02 X6.314750 Y38.673648 Z-1.000000 I-0.395630 J0.459001
G03 X6.175714 Y38.648062 Z-1.000000 I0.000000 J-0.390553
G03 X6.093863 Y38.589500 Z-1.000000 I0.070466 J-0.184971
G02 X6.026708 Y38.553045 Z-1.000000 I-0.079111 J0.065651
G02 X5.977755 Y38.575904 Z-1.000000 I-0.005977 J0.051045
G03 X5.782616 Y38.474730 Z-1.000000 I0.226048 J-0.435983
G02 X5.621071 Y38.322742 Z-1.000000 I-0.825940 J0.716026
G02 X5.511388 Y38.267131 Z-1.000000 I-0.204199 J0.266781
G03 X5.431270 Y38.199622 Z-1.000000 I0.036550 J-0.124672
G03 X5.389027 Y38.017394 Z-1.000000 I0.371926 J-0.182229
G02 X5.340828 Y37.851730 Z-1.000000 I-0.308801 J0.000000
G02 X5.253071 Y37.803529 Z-1.000000 I-0.087757 J0.055787
G03 X5.165597 Y37.755047 Z-1.000000 I-0.000000 J-0.103153
G03 X5.117115 Y37.585999 Z-1.000000 I0.270476 J-0.169048
G02 X5.083724 Y37.401858 Z-1.000000 I-0.524445 J-0.000000
G02 X5.035545 Y37.368469 Z-1.000000 I-0.048180 J0.018067
G03 X4.953975 Y37.100504 Z-1.000000 I0.766245 J-0.233250
G02 X4.911072 Y36.853377 Z-1.000000 I-0.733187 J-0.000000
G02 X4.820434 Y36.727496 Z-1.000000 I-0.264000 J0.094514
G03 X4.742115 Y36.596263 Z-1.000000 I0.131928 J-0.167720
G03 X4.698073 Y36.022440 Z-1.000000 I2.981570 J-0.517445
G02 X4.665929 Y35.438630 Z-1.000000 I-3.968035 J-0.074313
G02 X4.605653 Y35.307800 Z-1.000000 I-0.239383 J0.030988
G02 X4.417286 Y35.228559 Z-1.000000 I-0.178848 J0.161638
G02 X4.029470 Y35.330569 Z-1.000000 I0.036654 J0.927543
G01 X4.029469 Y35.330569 Z-1.000000
G00 Z5.000000

(End cutting path id: path2)


(Start cutting path id: path2)
(Change tool to Default tool)

G00 Z5.000000

G01 Z-1.000000 F100.0(Penetrate)
G02 X2.746027 Y35.063645 Z-1.000000 I0.270945 J-0.040313 F3500.000000
G02 X2.890406 Y35.048809 Z-1.000000 I0.063072 J-0.096142
G02 X2.910456 Y34.870218 Z-1.000000 I-0.101860 J-0.101856
G02 X2.707427 Y34.758112 Z-1.000000 I-0.203029 J0.127793
G02 X2.645356 Y34.790357 Z-1.000000 I-0.000000 J0.075864
G02 X2.625337 Y34.874919 Z-1.000000 I0.095817 J0.067335
G00 Z5.000000

(End cutting path id: path2)


(Start cutting path id: path2)
(Change tool to Default tool)

G00 Z5.000000
G00 X0.879581 Y24.185260

G01 Z-1.000000 F100.0(Penetrate)
G02 X0.895513 Y24.221594 Z-1.000000 I0.054497 J-0.002237 F3500.000000
G02 X0.924078 Y24.150220 Z-1.000000 I-0.152766 J-0.061130
G02 X0.908141 Y24.113887 Z-1.000000 I-0.054499 J0.002244
G02 X0.879581 Y24.185267 Z-1.000000 I0.152809 J0.061138
G00 Z5.000000

(End cutting path id: path2)


(Start cutting path id: path2)
(Change tool to Default tool)

G00 Z5.000000

G01 Z-1.000000 F100.0(Penetrate)
G03 X1.265192 Y22.603528 Z-1.000000 I-6.462268 J-1.966853 F3500.000000
G03 X1.206369 Y22.788495 Z-1.000000 I-47.879873 J-15.124806
G02 X1.193073 Y22.921129 Z-1.000000 I0.304709 J0.097529
G02 X1.398463 Y22.542866 Z-1.000000 I-0.981914 J-0.683100
G02 X1.340147 Y22.467681 Z-1.000000 I-0.058316 J-0.014976
G02 X1.286237 Y22.535661 Z-1.000000 I0.133259 J0.105682
G00 Z5.000000

(End cutting path id: path2)


(Start cutting path id: path2)
(Change tool to Default tool)

G00 Z5.000000

G01 Z-1.000000 F100.0(Penetrate)
G03 X1.389410 Y22.217625 Z-1.000000 I-2.442483 J-0.699135 F3500.000000
G03 X1.347459 Y22.292252 Z-1.000000 I-0.291130 J-0.114551
G02 X1.346424 Y22.378784 Z-1.000000 I0.057898 J0.043965
G02 X1.621189 Y21.990312 Z-1.000000 I-0.668717 J-0.607172
G02 X1.561290 Y21.775991 Z-1.000000 I-0.220243 J-0.053977
G02 X1.467750 Y21.986540 Z-1.000000 I1.447463 J0.643016
G00 Z5.000000

(End cutting path id: path2)


(Start cutting path id: path2)
(Change tool to Default tool)

G00 Z5.000000
G00 X1.751521 Y21.209526

G01 Z-1.000000 F100.0(Penetrate)
G02 X1.684105 Y21.466283 Z-1.000000 I1.114990 J0.429986 F3500.000000
G03 X1.812366 Y21.245666 Z-1.000000 I7.533623 J3.147738
G03 X1.893452 Y21.076319 Z-1.000000 I4.223213 J1.918057
G02 X1.955602 Y20.906932 Z-1.000000 I-0.701189 J-0.353368
G02 X1.952402 Y20.831782 Z-1.000000 I-0.132733 J-0.031992
G02 X1.751525 Y21.209526 Z-1.000000 I3.058722 J1.626528
G00 Z5.000000

(End cutting path id: path2)


(Start cutting path id: path2)
(Change tool to Default tool)

G00 Z5.000000

G01 Z-1.000000 F100.0(Penetrate)
G03 X2.165392 Y20.263324 Z-1.000000 I-0.964393 J-0.311576 F3500.000000
G03 X2.086109 Y20.432949 Z-1.000000 I-3.267917 J-1.424088
G02 X2.026548 Y20.601765 Z-1.000000 I0.646061 J0.322855
G02 X2.032689 Y20.677669 Z-1.000000 I0.127673 J0.027871
G03 X2.088247 Y20.551999 Z-1.000000 I0.300723 J0.012558
G03 X2.142759 Y20.459811 Z-1.000000 I0.317782 J0.125699
G02 X2.329445 Y20.136911 Z-1.000000 I-0.863438 J-0.714619
G02 X2.244875 Y20.093325 Z-1.000000 I-0.000000 J0.055811
G02 X2.200698 Y20.170021 Z-1.000000 I0.157594 J0.141846
G00 Z5.000000

(End cutting path id: path2)


(Start cutting path id: path2)
(Change tool to Default tool)

G00 Z5.000000

G01 Z-1.000000 F100.0(Penetrate)
G02 X2.363839 Y19.979763 Z-1.000000 I0.054497 J-0.002237 F3500.000000
G02 X2.392404 Y19.908389 Z-1.000000 I-0.152766 J-0.061130
G02 X2.376467 Y19.872056 Z-1.000000 I-0.054499 J0.002244
G02 X2.347907 Y19.943436 Z-1.000000 I0.152809 J0.061138
G00 Z5.000000

(End cutting path id: path2)


(Start cutting path id: path2)
(Change tool to Default tool)

G00 Z5.000000

G01 Z-1.000000 F100.0(Penetrate)
G02 X2.512153 Y19.590733 Z-1.000000 I0.116896 J0.072226 F3500.000000
G02 X2.579936 Y19.560561 Z-1.000000 I-0.117230 J-0.117463
G00 Z5.000000

(End cutting path id: path2)


(Start cutting path id: path2)
(Change tool to Default tool)

G00 Z5.000000
G00 X4.899588 Y17.171160

G01 Z-1.000000 F100.0(Penetrate)
G02 X4.420075 Y17.447162 Z-1.000000 I0.388589 J1.229658 F3500.000000
G02 X4.301382 Y17.715712 Z-1.000000 I0.244458 J0.268550
G03 X4.284221 Y17.776130 Z-1.000000 I-0.114935 J0.000000
G03 X4.151830 Y17.957740 Z-1.000000 I-1.252287 J-0.773838
G02 X4.010623 Y18.139024 Z-1.000000 I1.962727 J1.674456
G02 X3.866322 Y18.360039 Z-1.000000 I2.774779 J1.969274
G03 X3.727241 Y18.585078 Z-1.000000 I-8.143128 J-4.877202
G03 X3.516064 Y18.909489 Z-1.000000 I-17.109570 J-10.906627
G02 X3.311004 Y19.233931 Z-1.000000 I6.966471 J4.630094
G03 X3.215402 Y19.422268 Z-1.000000 I-1.380313 J-0.767586
G02 X2.629298 Y20.409107 Z-1.000000 I6.305155 J4.412229
G02 X2.443153 Y20.975894 Z-1.000000 I1.861706 J0.925385
G02 X2.453445 Y21.057446 Z-1.000000 I0.137333 J0.024093
G02 X2.493163 Y21.086510 Z-1.000000 I0.045577 J-0.020614
G03 X2.561129 Y21.094631 Z-1.000000 I-2.249928 J19.119276
G03 X2.615524 Y21.101330 Z-1.000000 I-1.785069 J14.717986
G01 X2.646887 Y21.128419 Z-1.000000
G03 X2.669904 Y21.298466 Z-1.000000 I-0.616648 J0.170047
G02 X2.700248 Y21.475733 Z-1.000000 I0.532962 J-0.000000
G02 X2.770596 Y21.583974 Z-1.000000 I0.258991 J-0.091343
G02 X3.517594 Y22.165760 Z-1.000000 I3.409794 J-3.607634
G02 X4.713575 Y22.818933 Z-1.000000 I5.515881 J-8.678223
G03 X4.935013 Y23.033514 Z-1.000000 I-0.196381 J0.424203
G03 X4.931818 Y23.253934 Z-1.000000 I-0.213547 J0.107138
G03 X4.818252 Y23.416748 Z-1.000000 I-0.761503 J-0.410147
G03 X4.717763 Y23.495985 Z-1.000000 I-0.269160 J-0.238014
G03 X4.402494 Y23.532499 Z-1.000000 I-0.204239 J-0.384140
G03 X3.575901 Y23.194593 Z-1.000000 I0.878982 J-3.330155
G02 X3.131047 Y22.943691 Z-1.000000 I-27.906199 J48.958314
G02 X2.988326 Y22.866693 Z-1.000000 I-2.770773 J4.965073
G03 X2.851953 Y22.780896 Z-1.000000 I0.459450 J-0.881568
G03 X2.608595 Y22.582382 Z-1.000000 I2.264853 J-3.024903
G02 X2.332572 Y21.549678 Z-1.000000 I-2.066481 J0.004571
G02 X2.283937 Y21.501093 Z-1.000000 I-0.060531 J0.011958
G02 X2.190782 Y21.554378 Z-1.000000 I-0.015805 J0.080441
G02 X1.801381 Y22.875557 Z-1.000000 I12.741548 J4.473385
G02 X1.446909 Y24.414986 Z-1.000000 I82.723272 J19.858533
G02 X1.363686 Y24.860516 Z-1.000000 I6.839007 J1.508039
G03 X1.298031 Y25.267855 Z-1.000000 I-27.142098 J-4.165786
G03 X1.253475 Y25.513105 Z-1.000000 I-9.911424 J-1.674008
G02 X0.997151 Y28.061012 Z-1.000000 I13.700016 J2.665091
G02 X1.206905 Y31.060114 Z-1.000000 I19.236362 J0.161518
G03 X1.259492 Y31.413620 Z-1.000000 I-445.617725 J66.470207
G03 X1.338213 Y31.945114 Z-1.000000 I-1130.720338 J167.744881
G02 X1.428079 Y32.474331 Z-1.000000 I12.413949 J-1.835767
G02 X1.505197 Y32.815233 Z-1.000000 I5.221012 J-1.001909
G03 X1.588748 Y33.154801 Z-1.000000 I-11.986879 J3.129429
G03 X1.608605 Y33.262603 Z-1.000000 I-1.187535 J0.274477
G02 X1.927058 Y34.642145 Z-1.000000 I7.829779 J-1.080897
G02 X2.066643 Y34.660905 Z-1.000000 I0.074325 J-0.024346
G03 X2.108678 Y34.626696 Z-1.000000 I0.075551 J0.049906
G03 X2.275321 Y34.577757 Z-1.000000 I0.344195 J0.863825
G02 X2.447457 Y34.530556 Z-1.000000 I-0.225959 J-1.161515
G02 X2.679808 Y34.433249 Z-1.000000 I-0.792775 J-2.219074
G03 X2.912030 Y34.341225 Z-1.000000 I0.747179 J1.546472
G03 X3.030403 Y34.323061 Z-1.000000 I0.118373 J0.376641
G02 X3.142374 Y34.304121 Z-1.000000 I0.000000 J-0.340441
G02 X3.186546 Y34.268679 Z-1.000000 I-0.027845 J-0.079952
G03 X3.233092 Y34.237491 Z-1.000000 I0.057567 J0.035587
G03 X3.516050 Y34.214297 Z-1.000000 I0.282958 J1.714412
G03 X3.787231 Y34.239010 Z-1.000000 I0.000000 J1.500217
G01 X3.811944 Y34.268679 Z-1.000000
G03 X3.534213 Y34.323061 Z-1.000000 I-0.253177 J-1.292982
G02 X3.311717 Y34.361027 Z-1.000000 I0.000000 J0.670947
G03 X3.319218 Y34.495713 Z-1.000000 I-1.189533 J0.456584
G03 X3.322502 Y34.517847 Z-1.000000 I-0.072949 J0.022134
G02 X3.404072 Y34.540590 Z-1.000000 I0.071753 J-0.257372
G03 X3.465682 Y34.560554 Z-1.000000 I0.000000 J0.105050
G02 X3.689576 Y34.646430 Z-1.000000 I0.140648 J-0.613127
G03 X3.893506 Y34.639145 Z-1.000000 I0.251220 J4.174490
G03 X4.029466 Y34.642590 Z-1.000000 I0.020991 J1.856203
G03 X4.088268 Y34.671209 Z-1.000000 I-0.005314 J0.085637
G02 X4.124636 Y34.757291 Z-1.000000 I0.046521 J-0.035434
G02 X4.227224 Y34.738216 Z-1.000000 I0.001874 J-0.275321
G03 X4.643858 Y34.571983 Z-1.000000 I1.117042 J3.230723
G02 X5.023204 Y34.454523 Z-1.000000 I-0.530573 J-2.384819
G02 X5.133300 Y34.375564 Z-1.000000 I-0.105910 J-0.263909
G02 X5.284725 Y34.010446 Z-1.000000 I-0.484609 J-0.414942
G02 X5.171500 Y33.888004 Z-1.000000 I-0.113225 J-0.008870
G03 X5.117120 Y33.813381 Z-1.000000 I0.077244 J-0.056289
G02 X5.086970 Y33.764469 Z-1.000000 I-0.054750 J-0.000000
G02 X4.899590 Y33.703974 Z-1.000000 I-0.288907 J0.574421
G03 X4.722014 Y33.635118 Z-1.000000 I0.071681 J-0.448270
G03 X4.682061 Y33.561067 Z-1.000000 I0.048648 J-0.074051
G02 X4.651426 Y33.483576 Z-1.000000 I-0.113324 J-0.000000
G02 X4.580741 Y33.452945 Z-1.000000 I-0.070685 J0.066241
G03 X4.515415 Y33.399138 Z-1.000000 I-0.000000 J-0.066559
G03 X4.387918 Y32.465130 Z-1.000000 I8.104489 J-1.582009
G02 X4.354658 Y32.215827 Z-1.000000 I-2.319051 J0.182520
G02 X4.327698 Y32.146356 Z-1.000000 I-0.200680 J0.037912
G03 X4.300170 Y32.076732 Z-1.000000 I0.180709 J-0.111704
G03 X4.241588 Y31.720227 Z-1.000000 I4.848846 J-0.979840
G02 X4.188811 Y31.360433 Z-1.000000 I-9.367637 J1.190337
G02 X4.140777 Y31.114500 Z-1.000000 I-4.417392 J0.735120
G03 X4.033676 Y30.231859 Z-1.000000 I4.340136 J-0.974458
G03 X4.083157 Y28.323437 Z-1.000000 I20.501993 J-0.423280
G03 X4.174197 Y27.384952 Z-1.000000 I19.412440 J1.409500
G01 X4.199982 Y27.362111 Z-1.000000
G02 X4.247002 Y27.046693 Z-1.000000 I-1.969795 J-0.293652
G03 X4.268268 Y26.740025 Z-1.000000 I2.221803 J0.000000
G03 X4.298162 Y26.679612 Z-1.000000 I0.105783 J0.014742
G02 X4.331659 Y26.618966 Z-1.000000 I-0.090390 J-0.089500
G02 X4.436852 Y26.084124 Z-1.000000 I-7.668276 J-1.785966
G03 X4.544780 Y25.547281 Z-1.000000 I6.965193 J1.121033
G03 X4.603225 Y25.395953 Z-1.000000 I0.601975 J0.145539
G02 X4.658965 Y25.245710 Z-1.000000 I-0.487882 J-0.266464
G02 X4.682065 Y25.027165 Z-1.000000 I-1.022243 J-0.218545
G03 X4.712026 Y24.823322 Z-1.000000 I0.708409 J0.000000
G03 X4.758295 Y24.773472 Z-1.000000 I0.073916 J0.022209
G02 X4.811591 Y24.725096 Z-1.000000 I-0.035596 J-0.092762
G02 X4.871600 Y24.546583 Z-1.000000 I-0.608811 J-0.304002
G03 X4.923348 Y24.353949 Z-1.000000 I1.274028 J0.238981
G03 X5.014958 Y24.140616 Z-1.000000 I1.655801 J0.584701
G02 X5.093097 Y23.933440 Z-1.000000 I-0.889929 J-0.453970
G02 X5.083588 Y23.871368 Z-1.000000 I-0.077830 J-0.019841
G01 X5.086885 Y23.851397 Z-1.000000
G02 X5.272405 Y23.668143 Z-1.000000 I-0.503078 J-0.450532
G03 X5.378440 Y23.485320 Z-1.000000 I0.923447 J0.413428
G02 X5.443414 Y23.418358 Z-1.000000 I-0.111276 J-0.061925
G03 X5.465995 Y23.326422 Z-1.000000 I0.198444 J0.000000
G03 X5.565774 Y23.184304 Z-1.000000 I0.591610 J0.309275
G02 X5.637798 Y23.063442 Z-1.000000 I-0.254397 J-0.233493
G03 X5.571003 Y22.946690 Z-1.000000 I0.025188 J-0.070577
G03 X5.646624 Y22.818489 Z-1.000000 I0.186715 J0.023733
G02 X5.683758 Y22.743558 Z-1.000000 I-0.053522 J-0.073192
G02 X5.643224 Y22.641264 Z-1.000000 I-0.156943 J0.003012
G03 X5.642465 Y22.558656 Z-1.000000 I0.046113 J-0.041731
G03 X5.815942 Y22.443219 Z-1.000000 I0.298194 J0.260055
G02 X6.091653 Y22.289716 Z-1.000000 I-0.267049 J-0.804012
G02 X6.150423 Y22.164141 Z-1.000000 I-0.104775 J-0.125575
G02 X6.081445 Y22.106106 Z-1.000000 I-0.058903 J0.000000
G02 X5.978212 Y22.194041 Z-1.000000 I0.022797 J0.131327
G03 X5.878512 Y22.194874 Z-1.000000 I-0.001092 J-0.129453
G02 X5.965950 Y22.120257 Z-1.000000 I-0.001217 J-0.139118
G03 X6.005512 Y22.029961 Z-1.000000 I0.081273 J0.000000
G03 X6.123238 Y21.914159 Z-1.000000 I0.580033 J0.471925
G02 X6.240349 Y21.798062 Z-1.000000 I-0.445976 J-0.566985
G02 X6.259195 Y21.744375 Z-1.000000 I-0.067046 J-0.053687
G03 X6.400695 Y21.412772 Z-1.000000 I0.459303 J0.000000
G03 X6.752807 Y21.271286 Z-1.000000 I0.352112 J0.367402
G02 X6.789990 Y21.257888 Z-1.000000 I0.000000 J-0.058297
G02 X6.841107 Y21.198156 Z-1.000000 I-0.147088 J-0.177610
G03 X6.898749 Y21.141915 Z-1.000000 I0.134036 J0.079715
G03 X7.148235 Y21.025588 Z-1.000000 I0.892243 J1.587894
G02 X7.390383 Y20.905147 Z-1.000000 I-0.473833 J-1.256284
G02 X7.442009 Y20.840405 Z-1.000000 I-0.067115 J-0.106473
G03 X7.598389 Y20.648087 Z-1.000000 I0.345985 J0.121593
G03 X7.899100 Y20.564318 Z-1.000000 I0.300711 J0.497859
G02 X8.127969 Y20.529700 Z-1.000000 I0.000000 J-0.773875
G01 X8.162584 Y20.482748 Z-1.000000
G03 X8.815173 Y20.401178 Z-1.000000 I0.614340 J4.915267
G02 X8.791748 Y21.229732 Z-1.000000 I0.175955 J3.627964
G02 X7.758770 Y21.674846 Z-1.000000 I1.614439 J5.167818
G02 X6.975861 Y22.249521 Z-1.000000 I1.946782 J3.472834
G02 X6.857405 Y22.523818 Z-1.000000 I0.258352 J0.274297
G03 X6.843487 Y22.562550 Z-1.000000 I-0.060851 J0.000000
G02 X6.637212 Y22.792535 Z-1.000000 I1.430471 J1.170090
G03 X6.495346 Y22.993868 Z-1.000000 I-1.717068 J-1.059251
G02 X6.422343 Y23.086444 Z-1.000000 I0.112990 J0.060346
G03 X6.405547 Y23.153467 Z-1.000000 I-0.142122 J-0.000000
G03 X6.350293 Y23.221157 Z-1.000000 I-0.200350 J-0.107145
G02 X5.880711 Y23.938662 Z-1.000000 I0.930878 J1.121643
G02 X5.218085 Y27.144595 Z-1.000000 I20.411377 J5.890217
G02 X5.089605 Y28.928211 Z-1.000000 I16.199621 J2.063351
G02 X5.171605 Y29.857665 Z-1.000000 I4.445351 J0.076158
G03 X5.213617 Y30.109517 Z-1.000000 I-4.505091 J0.880930
G03 X5.281522 Y30.652262 Z-1.000000 I-20.828679 J2.881588
G02 X5.405554 Y31.552689 Z-1.000000 I17.769360 J-1.988938
G02 X5.548664 Y32.283736 Z-1.000000 I11.855241 J-1.941257
G02 X5.850590 Y33.526963 Z-1.000000 I44.807713 J-10.223561
G02 X5.926975 Y33.752061 Z-1.000000 I1.536324 J-0.395830
G03 X5.969968 Y33.862071 Z-1.000000 I-1.839995 J0.782492
G03 X6.111479 Y34.268695 Z-1.000000 I-24.991696 J8.925430
G02 X6.444541 Y35.179692 Z-1.000000 I19.372271 J-6.566152
G02 X6.656089 Y35.655447 Z-1.000000 I5.486082 J-2.154515
G02 X7.062456 Y36.380142 Z-1.000000 I7.673158 J-3.826387
G02 X7.501578 Y37.005456 Z-1.000000 I6.146151 J-3.849242
G02 X8.151535 Y37.753801 Z-1.000000 I7.770082 J-6.092091
G02 X8.268326 Y37.803553 Z-1.000000 I0.116791 J-0.112204
G01 X8.300380 Y37.815269 Z-1.000000
G03 X8.461683 Y37.966701 Z-1.000000 I-1.347188 J1.596640
G02 X8.625615 Y38.111982 Z-1.000000 I0.969678 J-0.929035
G02 X8.679213 Y38.129848 Z-1.000000 I0.053598 J-0.071463
G03 X8.732808 Y38.147712 Z-1.000000 I0.000000 J0.089326
G03 X8.896743 Y38.292995 Z-1.000000 I-0.805570 J1.074127
G02 X9.058780 Y38.442715 Z-1.000000 I1.308901 J-1.254040
G02 X9.096439 Y38.456143 Z-1.000000 I0.037659 J-0.046095
G03 X9.137012 Y38.466154 Z-1.000000 I-0.000000 J0.087217
G03 X9.398963 Y38.615119 Z-1.000000 I-2.110485 J4.016049
G02 X9.664474 Y38.761155 Z-1.000000 I1.671357 J-2.724345
G02 X9.957200 Y38.888531 Z-1.000000 I1.560385 J-3.185911
G03 X10.254680 Y39.006686 Z-1.000000 I-4.515887 J11.803232
G03 X10.365069 Y39.056542 Z-1.000000 I-0.689204 J1.673133
G02 X11.047138 Y39.295973 Z-1.000000 I1.333027 J-2.706192
G02 X11.826772 Y39.379567 Z-1.000000 I0.765906 J-3.465767
G02 X13.302871 Y39.216594 Z-1.000000 I-0.027157 J-7.012235
G02 X13.716136 Y38.964887 Z-1.000000 I-0.159589 J-0.727132
G03 X13.787333 Y38.912599 Z-1.000000 I0.140304 J0.116427
G03 X13.896021 Y38.891202 Z-1.000000 I0.108688 J0.265346
G02 X14.006939 Y38.867459 Z-1.000000 I0.000000 J-0.270954
G02 X14.199031 Y38.755246 Z-1.000000 I-0.426607 J-0.950809
G03 X14.392953 Y38.649933 Z-1.000000 I0.475741 J0.644828
G03 X14.549487 Y38.623583 Z-1.000000 I0.145825 J0.388154
G03 X14.646656 Y38.640336 Z-1.000000 I-0.008812 J0.341284
G01 X14.647167 Y38.655480 Z-1.000000
G02 X14.340883 Y38.873204 Z-1.000000 I0.301720 J0.748740
G02 X14.253417 Y39.106317 Z-1.000000 I0.266910 J0.233113
G03 X14.220886 Y39.182247 Z-1.000000 I-0.104879 J0.000000
G03 X14.076674 Y39.274729 Z-1.000000 I-0.311224 J-0.326629
G02 X13.909234 Y39.359129 Z-1.000000 I0.396236 J0.994374
G02 X13.802644 Y39.444474 Z-1.000000 I0.298925 J0.482572
G02 X15.233601 Y39.543791 Z-1.000000 I1.411809 J-20.341314
G03 X16.134670 Y38.833945 Z-1.000000 I6.212672 J-5.876446
G03 X16.102463 Y38.741650 Z-1.000000 I0.116410 J-0.092388
G02 X16.086281 Y38.689826 Z-1.000000 I-0.091264 J0.000059
G03 X15.974753 Y38.614573 Z-1.000000 I0.000000 J-0.084689
G03 X15.802502 Y37.875602 Z-1.000000 I4.643790 J-1.472007
G03 X15.928642 Y37.354136 Z-1.000000 I0.700270 J-0.106597
G03 X16.326121 Y37.150963 Z-1.000000 I0.397479 J0.287219
G03 X16.478250 Y37.201540 Z-1.000000 I-0.000000 J0.254083
G03 X16.526180 Y37.300515 Z-1.000000 I-0.071583 J0.095758
G02 X16.594477 Y37.556391 Z-1.000000 I0.466370 J0.012572
G02 X17.060729 Y38.175112 Z-1.000000 I3.406905 J-2.082315
G03 X17.225258 Y38.381884 Z-1.000000 I-1.374809 J1.262785
G03 X17.244193 Y38.442546 Z-1.000000 I-0.089028 J0.061075
G02 X17.259700 Y38.495213 Z-1.000000 I0.098468 J-0.000377
G03 X17.529435 Y38.770900 Z-1.000000 I-2.422983 J2.249942
G02 X18.147273 Y39.486370 Z-1.000000 I6.187362 J-4.718546
G02 X18.283521 Y39.543791 Z-1.000000 I0.136248 J-0.132933
G02 X18.381646 Y39.490804 Z-1.000000 I-0.000000 J-0.117351
G02 X18.879814 Y38.634738 Z-1.000000 I-7.740860 J-5.077601
G02 X20.532336 Y33.286715 Z-1.000000 I-14.402866 J-7.379763
G02 X20.454273 Y26.192901 Z-1.000000 I-25.789427 J-3.263540
G02 X19.828549 Y23.151196 Z-1.000000 I-27.936636 J4.161769
G02 X19.242220 Y21.597585 Z-1.000000 I-7.809304 J2.059767
G02 X19.030913 Y21.274478 Z-1.000000 I-1.500397 J0.750588
G02 X18.799614 Y21.066188 Z-1.000000 I-0.837921 J0.697912
G02 X18.537279 Y20.917025 Z-1.000000 I-1.152566 J1.721770
G01 X18.500952 Y20.924081 Z-1.000000
G02 X18.541312 Y20.985921 Z-1.000000 I0.071142 J-0.046427
G03 X18.820009 Y21.175350 Z-1.000000 I-0.223283 J0.628235
G03 X19.142402 Y21.673541 Z-1.000000 I-1.556710 J1.360800
G03 X19.760731 Y23.451910 Z-1.000000 I-8.950278 J4.108639
G03 X20.368831 Y26.709535 Z-1.000000 I-29.642662 J7.218961
G03 X20.571018 Y29.258942 Z-1.000000 I-24.838436 J3.252596
G03 X20.507803 Y31.658338 Z-1.000000 I-22.057149 J0.619407
G01 X20.493714 Y31.657988 Z-1.000000
G03 X20.492553 Y31.168896 Z-1.000000 I8.496427 J-0.264715
G02 X20.413171 Y28.355027 Z-1.000000 I-25.782965 J-0.680691
G02 X20.022729 Y25.507835 Z-1.000000 I-26.788769 J2.223238
G02 X19.419105 Y23.269287 Z-1.000000 I-15.477212 J2.972768
G02 X19.011210 Y22.620864 Z-1.000000 I-1.623729 J0.568912
G02 X18.640251 Y22.377033 Z-1.000000 I-0.776900 J0.777858
G02 X17.754061 Y22.121370 Z-1.000000 I-1.752375 J4.410450
G03 X17.061404 Y21.965762 Z-1.000000 I1.730336 J-9.321634
G03 X16.605465 Y21.817750 Z-1.000000 I1.104964 J-4.180008
G01 X16.156810 Y21.644062 Z-1.000000
G02 X16.102342 Y20.350066 Z-1.000000 I-4.579333 J-0.000000
G02 X15.872654 Y20.154480 Z-1.000000 I-0.244273 J0.293043
G03 X15.757624 Y20.052860 Z-1.000000 I0.051161 J-0.173828
G03 X15.678577 Y19.707793 Z-1.000000 I0.884019 J-0.384095
G03 X15.683885 Y19.334931 Z-1.000000 I3.401646 J-0.138042
G03 X15.747114 Y19.324424 Z-1.000000 I-0.005157 J0.122420
G03 X15.966466 Y19.422285 Z-1.000000 I-1.502422 J3.662400
G02 X16.186648 Y19.516456 Z-1.000000 I1.136939 J-2.353793
G02 X16.251974 Y19.529205 Z-1.000000 I0.070805 J-0.189067
G03 X16.302402 Y19.548129 Z-1.000000 I-0.002207 J0.082533
G02 X16.335882 Y19.623887 Z-1.000000 I0.054380 J-0.000000
G02 X16.374334 Y19.639815 Z-1.000000 I0.038452 J-0.038452
G02 X16.470376 Y19.526749 Z-1.000000 I0.000000 J-0.097324
G02 X16.304894 Y19.216154 Z-1.000000 I-0.540504 J0.088594
G02 X16.169196 Y19.118252 Z-1.000000 I-0.444548 J0.473174
G02 X15.796833 Y18.941381 Z-1.000000 I-1.874836 J3.466661
G03 X15.413277 Y18.781335 Z-1.000000 I19.014686 J-46.108922
G03 X15.227280 Y18.700925 Z-1.000000 I4.592332 J-10.877920
G02 X15.041228 Y18.620639 Z-1.000000 I-4.414593 J9.974572
G02 X14.672398 Y18.467562 Z-1.000000 I-16.495212 J39.223231
G03 X14.312291 Y18.305042 Z-1.000000 I2.126582 J-5.192233
G03 X14.274915 Y18.271039 Z-1.000000 I0.040655 J-0.082231
G02 X14.238170 Y18.241712 Z-1.000000 I-0.059344 J0.036672
G02 X14.142996 Y18.225869 Z-1.000000 I-0.095174 J0.277944
G03 X14.042414 Y18.209681 Z-1.000000 I-0.000000 J-0.320570
G03 X13.731570 Y18.089913 Z-1.000000 I1.075268 J-3.253999
G02 X13.507596 Y18.033678 Z-1.000000 I-0.275398 J0.622722
G01 X13.492065 Y18.071773 Z-1.000000
G03 X13.536460 Y18.137662 Z-1.000000 I-0.092701 J0.110361
G02 X13.079675 Y18.082317 Z-1.000000 I-0.560408 J2.006732
G02 X12.990699 Y18.124883 Z-1.000000 I-0.005920 J0.101904
G02 X12.907410 Y17.950298 Z-1.000000 I-0.123179 J-0.039624
G02 X12.493771 Y17.844354 Z-1.000000 I-0.415267 J0.760871
G03 X12.128714 Y17.821028 Z-1.000000 I0.005561 J-2.955317
G02 X11.611427 Y17.682044 Z-1.000000 I-0.501715 J2.224294
G02 X11.244061 Y17.718102 Z-1.000000 I0.000000 J1.889412
G03 X10.721491 Y17.829984 Z-1.000000 I-0.381778 J-2.732206
G03 X10.287756 Y17.809643 Z-1.000000 I0.241124 J-9.775903
G01 X10.286431 Y17.799874 Z-1.000000
G02 X10.319488 Y17.768700 Z-1.000000 I-0.018713 J-0.052957
G02 X10.337891 Y17.677513 Z-1.000000 I-0.216716 J-0.091187
G02 X10.291929 Y17.619239 Z-1.000000 I-0.059923 J0.000000
G02 X9.902831 Y17.573280 Z-1.000000 I-0.389098 J1.624116
G02 X9.491147 Y17.596660 Z-1.000000 I0.000000 J3.636167
G03 X9.179928 Y17.529480 Z-1.000000 I0.188334 J-0.580597
G02 X9.026593 Y17.451649 Z-1.000000 I-0.209746 J0.223264
G03 X8.959371 Y17.554324 Z-1.000000 I-0.112873 J-0.000000
G02 X8.869570 Y17.685620 Z-1.000000 I0.188784 J0.091385
G03 X8.855418 Y17.794416 Z-1.000000 I-0.425265 J0.000000
G03 X8.810780 Y17.907808 Z-1.000000 I-0.507527 J-0.134310
G02 X8.776574 Y18.013530 Z-1.000000 I0.276043 J0.147707
G02 X8.855460 Y18.018614 Z-1.000000 I-0.034544 J-0.063208
G03 X8.970375 Y18.023014 Z-1.000000 I-0.004857 J0.126963
G02 X9.067175 Y18.086211 Z-1.000000 I0.303284 J-0.358810
G02 X9.325498 Y18.196763 Z-1.000000 I1.219204 J-2.491794
G03 X9.579590 Y18.312792 Z-1.000000 I-0.648823 J1.757090
G03 X9.697958 Y18.401697 Z-1.000000 I-0.253540 J0.460814
G02 X9.815254 Y18.486838 Z-1.000000 I0.326666 J-0.326666
G02 X9.936597 Y18.523029 Z-1.000000 I0.159826 J-0.314359
G03 X10.059549 Y18.557157 Z-1.000000 I-0.043711 J0.396022
G03 X10.172512 Y18.631742 Z-1.000000 I-0.187005 J0.406064
G02 X10.279329 Y18.696718 Z-1.000000 I0.223169 J-0.246588
G02 X10.332481 Y18.691492 Z-1.000000 I0.021240 J-0.056877
G03 X10.384665 Y18.688242 Z-1.000000 I0.029127 J0.047114
G03 X10.499055 Y18.767742 Z-1.000000 I-0.163714 J0.357609
G02 X10.621855 Y18.849396 Z-1.000000 I0.264264 J-0.264264
G02 X10.769867 Y18.878491 Z-1.000000 I0.148012 J-0.361929
G03 X10.914384 Y18.908533 Z-1.000000 I0.000000 J0.362626
G03 X11.000993 Y18.978924 Z-1.000000 I-0.082615 J0.190125
G02 X11.086852 Y19.059315 Z-1.000000 I0.238648 J-0.168834
G02 X11.271639 Y19.144853 Z-1.000000 I0.458040 J-0.747139
G03 X11.460622 Y19.225927 Z-1.000000 I-0.363988 J1.109253
G03 X11.533931 Y19.285908 Z-1.000000 I-0.117377 J0.218248
G02 X11.603739 Y19.334346 Z-1.000000 I0.121910 J-0.101171
G02 X11.670033 Y19.333308 Z-1.000000 I0.031728 J-0.091106
G03 X11.737009 Y19.335341 Z-1.000000 I0.031062 J0.080953
G03 X11.856395 Y19.418118 Z-1.000000 I-0.168792 J0.370924
G02 X11.978827 Y19.508237 Z-1.000000 I0.357609 J-0.357609
G02 X12.071471 Y19.531088 Z-1.000000 I0.092644 J-0.176375
G03 X12.163815 Y19.551884 Z-1.000000 I0.000000 J0.215421
G03 X12.239889 Y19.610988 Z-1.000000 I-0.095689 J0.201674
G02 X12.319083 Y19.671373 Z-1.000000 I0.170497 J-0.141480
G02 X12.627225 Y19.786188 Z-1.000000 I0.995798 J-2.201638
G03 X12.929544 Y19.895446 Z-1.000000 I-0.785717 J2.646986
G02 X13.029819 Y19.966147 Z-1.000000 I0.065569 J-0.126354
G03 X13.093618 Y19.983921 Z-1.000000 I0.000000 J0.123391
G02 X13.365198 Y20.151169 Z-1.000000 I0.737336 J-1.378535
G03 X13.611275 Y20.251090 Z-1.000000 I-0.747168 J2.193023
G03 X13.705088 Y20.312451 Z-1.000000 I-0.177014 J0.373028
G02 X13.939813 Y20.453872 Z-1.000000 I0.521744 J-0.600465
G02 X14.674884 Y20.687632 Z-1.000000 I2.273512 J-5.876567
G03 X14.888812 Y20.759230 Z-1.000000 I-0.361425 J1.435300
G01 X14.906010 Y20.785152 Z-1.000000
G02 X14.945026 Y20.839251 Z-1.000000 I0.057014 J0.000000
G02 X15.301412 Y20.916699 Z-1.000000 I0.538073 J-1.617298
G02 X15.380948 Y20.892792 Z-1.000000 I0.011446 J-0.106174
G02 X15.511550 Y20.742828 Z-1.000000 I-0.390873 J-0.472261
G03 X15.627581 Y20.577477 Z-1.000000 I1.474190 J0.911091
G03 X15.834292 Y21.108211 Z-1.000000 I-0.468654 J0.468464
G03 X15.530698 Y21.752415 Z-1.000000 I-1.048332 J-0.100409
G03 X15.426339 Y21.709455 Z-1.000000 I0.117349 J-0.285179
G02 X15.344030 Y21.668492 Z-1.000000 I-0.128255 J0.154534
G02 X15.289692 Y21.677335 Z-1.000000 I-0.016478 J0.070113
G03 X15.269292 Y21.618895 Z-1.000000 I0.069920 J-0.024401
G02 X15.187022 Y21.556615 Z-1.000000 I-0.048173 J0.063630
G03 X15.103331 Y21.562110 Z-1.000000 I-0.056118 J-0.214652
G02 X14.809760 Y21.363213 Z-1.000000 I-1.160597 J1.821188
G02 X13.716023 Y20.900106 Z-1.000000 I-11.872038 J26.515529
G02 X11.697446 Y20.119803 Z-1.000000 I-35.785630 J89.573250
G03 X11.399962 Y20.004057 Z-1.000000 I4.166879 J-11.149654
G03 X11.167809 Y19.905509 Z-1.000000 I2.786390 J-6.886712
G02 X10.936006 Y19.808978 Z-1.000000 I-2.142564 J4.818414
G02 X10.904116 Y19.802997 Z-1.000000 I-0.031890 J0.082030
G03 X10.867992 Y19.795700 Z-1.000000 I0.000000 J-0.093061
G03 X10.283502 Y19.541592 Z-1.000000 I10.805338 J-25.653348
G02 X10.087843 Y19.480273 Z-1.000000 I-0.356689 J0.795322
G02 X9.808265 Y19.452252 Z-1.000000 I-0.302458 J1.608998
G03 X9.545257 Y19.406920 Z-1.000000 I0.011850 J-0.854370
G03 X9.438100 Y19.326529 Z-1.000000 I0.069303 J-0.203991
G02 X9.267614 Y19.201796 Z-1.000000 I-0.268436 J0.188022
G01 X9.223045 Y19.259179 Z-1.000000
G03 X9.144675 Y19.313559 Z-1.000000 I-0.071718 J-0.103351
G03 X9.067596 Y19.259321 Z-1.000000 I0.000000 J-0.081887
G03 X9.100675 Y19.190901 Z-1.000000 I0.050115 J-0.017977
G02 X9.111700 Y19.076524 Z-1.000000 I-0.020144 J-0.059662
G02 X8.749890 Y18.991087 Z-1.000000 I-0.326219 J0.572663
G02 X8.787980 Y19.046587 Z-1.000000 I0.096060 J-0.065922
G02 X8.624224 Y19.048762 Z-1.000000 I-0.337208 J1.663354
G02 X8.516069 Y19.041557 Z-1.000000 I-0.123325 J1.035864
G03 X8.475826 Y19.020634 Z-1.000000 I0.000742 J-0.050589
G02 X8.511782 Y18.946714 Z-1.000000 I-0.036345 J-0.057367
G02 X8.434500 Y18.892224 Z-1.000000 I-0.060023 J0.097105
G02 X8.374038 Y18.909447 Z-1.000000 I0.000168 J0.115325
G03 X8.320565 Y18.917215 Z-1.000000 I-0.035693 J-0.057769
G03 X8.273637 Y18.882197 Z-1.000000 I0.020867 J-0.076918
G02 X8.219208 Y18.837260 Z-1.000000 I-0.093466 J0.057779
G02 X7.831106 Y18.714019 Z-1.000000 I-1.298954 J3.417849
G03 X7.431268 Y18.602687 Z-1.000000 I2.613692 J-10.160453
G03 X7.319704 Y18.560653 Z-1.000000 I0.248445 J-0.828480
G02 X7.209903 Y18.513223 Z-1.000000 I-1.157458 J2.528743
G02 X6.966174 Y18.416896 Z-1.000000 I-5.005189 J12.307687
G03 X6.723965 Y18.317411 Z-1.000000 I2.023648 J-5.271433
G03 X6.571902 Y18.244164 Z-1.000000 I0.941567 J-2.149180
G02 X6.433331 Y18.183576 Z-1.000000 I-0.485380 J0.921360
G03 X6.174751 Y18.085654 Z-1.000000 I1.207041 J-2.827753
G02 X5.923927 Y17.966943 Z-1.000000 I-1.396625 J2.626585
G02 X5.859333 Y17.954004 Z-1.000000 I-0.064594 J0.154764
G03 X5.797465 Y17.939631 Z-1.000000 I0.000000 J-0.140337
G03 X5.726049 Y17.888544 Z-1.000000 I0.118265 J-0.240789
G02 X5.299810 Y17.648252 Z-1.000000 I-0.643784 J0.643784
G02 X5.126235 Y17.740957 Z-1.000000 I-0.035182 J0.142975
G03 X4.801571 Y17.966515 Z-1.000000 I-0.321923 J-0.116934
G03 X4.573347 Y17.736457 Z-1.000000 I0.001841 J-0.230058
G03 X4.589274 Y17.698005 Z-1.000000 I0.054380 J-0.000000
G03 X4.627727 Y17.682077 Z-1.000000 I0.038452 J0.038452
G02 X4.676316 Y17.667998 Z-1.000000 I0.000000 J-0.090884
G02 X4.778177 Y17.586907 Z-1.000000 I-0.322022 J-0.509023
G03 X5.097297 Y17.376546 Z-1.000000 I0.684090 J0.690540
G03 X5.482932 Y17.301399 Z-1.000000 I0.385634 J0.951910
G03 X5.778982 Y17.352487 Z-1.000000 I0.000000 J0.883342
G03 X6.015074 Y17.490694 Z-1.000000 I-0.245482 J0.690098
G02 X6.235734 Y17.670508 Z-1.000000 I2.776367 J-3.181730
G02 X6.265427 Y17.681033 Z-1.000000 I0.031308 J-0.041180
G03 X6.295153 Y17.691436 Z-1.000000 I-0.001635 J0.052342
G03 X6.482957 Y17.843685 Z-1.000000 I-1.848940 J2.472683
G02 X6.676004 Y17.990906 Z-1.000000 I1.163174 J-1.325056
G02 X6.830216 Y18.072514 Z-1.000000 I0.501280 J-0.760749
G03 X6.986593 Y18.150006 Z-1.000000 I-0.480344 J1.165845
G03 X7.065226 Y18.210008 Z-1.000000 I-0.204433 J0.349439
G02 X7.143345 Y18.264924 Z-1.000000 I0.207552 J-0.212224
G02 X7.210246 Y18.280278 Z-1.000000 I0.066901 J-0.138079
G03 X7.274223 Y18.294257 Z-1.000000 I-0.000000 J0.153388
G03 X7.301526 Y18.322178 Z-1.000000 I-0.022736 J0.049543
G02 X7.330939 Y18.352306 Z-1.000000 I0.054257 J-0.023549
G02 X7.727521 Y18.519313 Z-1.000000 I2.590111 J-5.596194
G03 X8.130943 Y18.683540 Z-1.000000 I-3.379519 J8.879372
G03 X8.252716 Y18.747283 Z-1.000000 I-0.376655 J0.867739
G02 X8.352660 Y18.709244 Z-1.000000 I0.035448 J-0.057180
G02 X8.463548 Y18.036862 Z-1.000000 I-2.619093 J-0.777270
G02 X8.460084 Y17.576362 Z-1.000000 I-5.012112 J-0.192564
G03 X8.385528 Y17.532519 Z-1.000000 I0.039162 J-0.051116
G02 X8.319953 Y17.415368 Z-1.000000 I-0.145400 J0.004459
G02 X8.219832 Y17.423754 Z-1.000000 I-0.044707 J0.068108
G02 X8.179814 Y17.340304 Z-1.000000 I-0.070796 J-0.024978
G02 X8.124814 Y17.382410 Z-1.000000 I0.035074 J0.056750
G02 X8.130202 Y17.580366 Z-1.000000 I0.752031 J0.078581
G03 X8.141211 Y17.764541 Z-1.000000 I-0.922995 J0.147588
G02 X8.053842 Y17.902813 Z-1.000000 I0.199684 J0.109389
G03 X8.162602 Y17.981543 Z-1.000000 I-0.051183 J0.050791
G03 X7.965447 Y18.270591 Z-1.000000 I-0.310463 J0.000000
G03 X7.505735 Y18.239038 Z-1.000000 I-0.196528 J-0.501343
G02 X7.317584 Y18.157203 Z-1.000000 I-0.500257 J0.892959
G02 X7.251696 Y18.157688 Z-1.000000 I-0.032206 J0.100589
G03 X7.202232 Y18.154834 Z-1.000000 I-0.021184 J-0.062912
G02 X7.099304 Y17.984023 Z-1.000000 I-0.161015 J0.000000
G02 X6.765786 Y17.899604 Z-1.000000 I-0.333518 J0.616616
G03 X6.705041 Y17.878970 Z-1.000000 I-0.000000 J-0.099734
G03 X6.659558 Y17.818034 Z-1.000000 I0.085364 J-0.111157
G02 X6.613490 Y17.757936 Z-1.000000 I-0.124629 J0.047830
G02 X6.547505 Y17.736464 Z-1.000000 I-0.065985 J0.090650
G03 X6.439812 Y17.703198 Z-1.000000 I0.000000 J-0.190953
G03 X5.999459 Y17.362172 Z-1.000000 I2.629372 J-3.850018
G02 X5.513045 Y17.130008 Z-1.000000 I-0.657155 J0.751195
G02 X4.899653 Y17.171212 Z-1.000000 I-0.222140 J1.279378
G01 X4.899588 Y17.171160 Z-1.000000
G00 Z5.000000

(End cutting path id: path2)


(Start cutting path id: path2)
(Change tool to Default tool)

G00 Z5.000000

G01 Z-1.000000 F100.0(Penetrate)
G02 X7.229662 Y17.155518 Z-1.000000 I0.091141 J0.075648 F3500.000000
G02 X7.413611 Y17.246966 Z-1.000000 I0.183949 J-0.139283
G03 X7.482362 Y17.261038 Z-1.000000 I-0.000000 J0.174983
G03 X7.543848 Y17.302626 Z-1.000000 I-0.076850 J0.179864
G02 X7.764593 Y17.421214 Z-1.000000 I0.307328 J-0.307328
G01 X7.809615 Y17.356646 Z-1.000000
G03 X7.804510 Y17.314644 Z-1.000000 I0.042931 J-0.026529
G03 X7.836235 Y17.274156 Z-1.000000 I0.070803 J0.022806
G02 X7.866938 Y17.233436 Z-1.000000 I-0.036956 J-0.059800
G02 X7.860555 Y17.187936 Z-1.000000 I-0.054934 J-0.015492
G02 X7.823005 Y17.160625 Z-1.000000 I-0.052151 J0.032233
G02 X7.778095 Y17.167716 Z-1.000000 I-0.014000 J0.057093
G03 X7.727465 Y17.125456 Z-1.000000 I0.033374 J-0.039995
G02 X7.550780 Y16.902055 Z-1.000000 I-0.229577 J0.000000
G02 X7.232941 Y17.008371 Z-1.000000 I-0.073235 J0.309319
G00 Z5.000000

(End cutting path id: path2)


(Start cutting path id: path2)
(Change tool to Default tool)

G00 Z5.000000

G01 Z-1.000000 F100.0(Penetrate)
G03 X8.189496 Y17.169351 Z-1.000000 I-0.556652 J0.815987 F3500.000000
G03 X8.298491 Y17.248760 Z-1.000000 I-12.303059 J17.001440
G02 X8.250250 Y17.154097 Z-1.000000 I-0.323546 J0.253755
G02 X8.201197 Y17.138200 Z-1.000000 I-0.049053 J0.067736
G02 X8.167788 Y17.145375 Z-1.000000 I-0.000000 J0.081368
G00 Z5.000000

(End cutting path id: path2)


(Start cutting path id: path2)
(Change tool to Default tool)

G00 Z5.000000

G01 Z-1.000000 F100.0(Penetrate)
G02 X8.998497 Y17.260644 Z-1.000000 I0.054497 J-0.002237 F3500.000000
G02 X9.027062 Y17.189270 Z-1.000000 I-0.152766 J-0.061130
G02 X9.011125 Y17.152937 Z-1.000000 I-0.054499 J0.002244
G02 X8.982565 Y17.224317 Z-1.000000 I0.152809 J0.061138
G00 Z5.000000

(End cutting path id: path2)


(Start cutting path id: path2)
(Change tool to Default tool)

G00 Z5.000000

G01 Z-1.000000 F100.0(Penetrate)
G02 X9.459905 Y17.508109 Z-1.000000 I-0.121719 J-0.196896
G02 X9.413329 Y17.464500 Z-1.000000 I-0.044916 J0.101860
G02 X9.375328 Y17.480884 Z-1.000000 I-0.000000 J0.052262
G02 X9.358949 Y17.522090 Z-1.000000 I0.043644 J0.041206
G00 Z5.000000

(End cutting path id: path2)


(Start cutting path id: path2)
(Change tool to Default tool)

G00 Z5.000000

G01 Z-1.000000 F100.0(Penetrate)
G03 X8.231727 Y18.008325 Z-1.000000 I0.635151 J-0.122360
G03 X8.243406 Y17.885964 Z-1.000000 I0.646845 J0.000000
G03 X8.266971 Y18.008326 Z-1.000000 I-0.635415 J0.122362
G03 X8.255297 Y18.130685 Z-1.000000 I-0.647052 J-0.000000
G00 Z5.000000

(End cutting path id: path2)


(Start cutting path id: path2)
(Change tool to Default tool)

G00 Z5.000000

G01 Z-1.000000 F100.0(Penetrate)
G02 X7.951273 Y18.172396 Z-1.000000 I0.257276 J0.111680 F3500.000000
G02 X8.039814 Y18.080549 Z-1.000000 I-0.145234 J-0.083334
G00 Z5.000000

(End cutting path id: path2)


(Start cutting path id: path2)
(Change tool to Default tool)

G00 Z5.000000

G01 Z-1.000000 F100.0(Penetrate)
G03 X8.146607 Y18.481830 Z-1.000000 I-0.054380 J-0.000000 F3500.000000
G03 X8.108155 Y18.497758 Z-1.000000 I-0.038452 J-0.038452
G03 X8.069702 Y18.481830 Z-1.000000 I-0.000000 J-0.054380
G03 X8.053775 Y18.443378 Z-1.000000 I0.038452 J-0.038452
G03 X8.069702 Y18.404926 Z-1.000000 I0.054380 J0.000000
G03 X8.108155 Y18.388998 Z-1.000000 I0.038452 J0.038452
G03 X8.146607 Y18.404926 Z-1.000000 I-0.000000 J0.054380
G03 X8.162535 Y18.443378 Z-1.000000 I-0.038452 J0.038452
G00 Z5.000000

(End cutting path id: path2)


(Start cutting path id: path2)
(Change tool to Default tool)

G00 Z5.000000

G01 Z-1.000000 F100.0(Penetrate)
G02 X9.600657 Y19.399122 Z-1.000000 I0.193387 J-0.160474 F3500.000000
G02 X9.702779 Y19.422260 Z-1.000000 I0.102122 J-0.213789
G02 X9.576905 Y19.284572 Z-1.000000 I-0.240759 J0.220101
G02 X9.519556 Y19.295367 Z-1.000000 I-0.018327 J0.060364
G00 Z5.000000

(End cutting path id: path2)


(Start cutting path id: path2)
(Change tool to Default tool)

G00 Z5.000000

G01 Z-1.000000 F100.0(Penetrate)
G03 X10.462546 Y19.785653 Z-1.000000 I-0.001860 J-0.205366
G03 X10.419402 Y19.748557 Z-1.000000 I0.036926 J-0.086584
G03 X10.555358 Y19.748557 Z-1.000000 I-0.000000 J0.215104
G00 Z5.000000

(End cutting path id: path2)


(Start cutting path id: path2)
(Change tool to Default tool)

G00 Z5.000000
G00 X11.534246 Y20.183616

G01 Z-1.000000 F100.0(Penetrate)
G03 X11.518318 Y20.222068 Z-1.000000 I-0.054380 J-0.000000 F3500.000000
G03 X11.479866 Y20.237996 Z-1.000000 I-0.038452 J-0.038452
G03 X11.441414 Y20.222068 Z-1.000000 I-0.000000 J-0.054380
G03 X11.425486 Y20.183616 Z-1.000000 I0.038452 J-0.038452
G03 X11.441414 Y20.145164 Z-1.000000 I0.054380 J0.000000
G03 X11.479866 Y20.129236 Z-1.000000 I0.038452 J0.038452
G03 X11.518318 Y20.145164 Z-1.000000 I-0.000000 J0.054380
G03 X11.534246 Y20.183616 Z-1.000000 I-0.038452 J0.038452
G00 Z5.000000

(End cutting path id: path2)


(Start cutting path id: path2)
(Change tool to Default tool)

G00 Z5.000000

G01 Z-1.000000 F100.0(Penetrate)
G03 X11.397204 Y21.523550 Z-1.000000 I-0.608566 J5.689519 F3500.000000
G03 X12.485939 Y21.895311 Z-1.000000 I-2.398013 J8.802903
G03 X13.281767 Y22.266048 Z-1.000000 I-3.829757 J9.260527
G03 X14.144603 Y22.758358 Z-1.000000 I-5.922004 J11.381341
G03 X14.780703 Y23.211631 Z-1.000000 I-3.338792 J5.358457
G03 X15.376406 Y23.756544 Z-1.000000 I-4.246633 J5.240523
G03 X16.508269 Y25.417172 Z-1.000000 I-4.220704 J4.092823
G03 X17.336007 Y28.069070 Z-1.000000 I-10.228155 J4.647650
G03 X17.499974 Y29.910145 Z-1.000000 I-10.145211 J1.831376
G03 X17.332307 Y31.930223 Z-1.000000 I-12.393423 J-0.011660
G02 X17.237914 Y32.501308 Z-1.000000 I424.569228 J70.468943
G02 X17.220457 Y32.610006 Z-1.000000 I13.967695 J2.299024
G03 X16.881312 Y33.997948 Z-1.000000 I-8.383045 J-1.312997
G03 X16.179622 Y35.709805 Z-1.000000 I-13.487188 J-4.528659
G03 X15.328055 Y37.226744 Z-1.000000 I-13.612426 J-6.644141
G03 X14.722918 Y37.987543 Z-1.000000 I-3.984816 J-2.548449
G03 X13.503230 Y38.818773 Z-1.000000 I-2.684443 J-2.628503
G03 X12.074742 Y39.108707 Z-1.000000 I-1.428488 J-3.374070
G03 X11.780314 Y38.993543 Z-1.000000 I0.000000 J-0.433948
G03 X11.779646 Y38.836157 Z-1.000000 I0.072968 J-0.079004
G02 X11.900010 Y38.702620 Z-1.000000 I-0.742087 J-0.789895
G02 X11.914923 Y38.658399 Z-1.000000 I-0.058106 J-0.044221
G03 X11.930877 Y38.615477 Z-1.000000 I0.065714 J-0.000000
G03 X12.050879 Y38.500785 Z-1.000000 I0.653878 J0.564022
G02 X12.166037 Y38.383738 Z-1.000000 I-0.400612 J-0.509321
G02 X12.186836 Y38.322033 Z-1.000000 I-0.081131 J-0.061705
G03 X12.206990 Y38.264075 Z-1.000000 I0.093413 J0.000000
G03 X12.268406 Y38.218922 Z-1.000000 I0.113076 J0.089459
G02 X12.329195 Y38.173331 Z-1.000000 I-0.049744 J-0.129648
G02 X12.349976 Y38.111673 Z-1.000000 I-0.081079 J-0.061658
G03 X12.366311 Y38.041334 Z-1.000000 I0.159611 J0.000000
G03 X12.450931 Y37.906032 Z-1.000000 I0.699794 J0.343552
G02 X12.531723 Y37.766531 Z-1.000000 I-0.467643 J-0.363981
G02 X12.626434 Y37.477234 Z-1.000000 I-1.954805 J-0.800122
G03 X12.716712 Y37.186813 Z-1.000000 I2.584178 J0.644054
G03 X12.762577 Y37.113892 Z-1.000000 I0.200123 J0.074987
G02 X12.796739 Y37.040122 Z-1.000000 I-0.090342 J-0.086631
G02 X12.797687 Y36.774002 Z-1.000000 I-1.334178 J-0.137817
G03 X12.810850 Y36.534373 Z-1.000000 I0.795850 J-0.076458
G01 X12.855157 Y36.498350 Z-1.000000
G03 X12.926608 Y36.517863 Z-1.000000 I0.000000 J0.140577
G03 X12.970339 Y36.566328 Z-1.000000 I-0.055503 J0.094043
G02 X12.971439 Y36.512776 Z-1.000000 I-0.199302 J-0.004121
G03 X12.976521 Y36.398382 Z-1.000000 I0.196264 J-0.048591
G03 X13.074394 Y36.213673 Z-1.000000 I0.637037 J0.219265
G02 X13.195427 Y36.030023 Z-1.000000 I-1.460936 J-1.094524
G02 X13.241564 Y35.923326 Z-1.000000 I-0.441676 J-0.254311
G03 X13.288049 Y35.817532 Z-1.000000 I0.461410 J0.139632
G03 X13.370237 Y35.705796 Z-1.000000 I0.597638 J0.353499
G02 X13.453876 Y35.593837 Z-1.000000 I-0.560971 J-0.506292
G02 X13.559073 Y35.397106 Z-1.000000 I-1.642505 J-1.004783
G02 X13.599821 Y35.227403 Z-1.000000 I-0.403795 J-0.186700
G03 X13.521681 Y35.165334 Z-1.000000 I-0.000000 J-0.050601
G03 X13.518933 Y35.098002 Z-1.000000 I0.072848 J-0.036696
G02 X13.555901 Y35.002235 Z-1.000000 I-2.867046 J-1.161761
G02 X13.613753 Y34.839686 Z-1.000000 I-8.195523 J-3.008379
G03 X13.739704 Y34.612956 Z-1.000000 I0.703717 J0.242573
G03 X13.834613 Y34.567774 Z-1.000000 I0.094909 J0.077092
G02 X13.985961 Y34.241479 Z-1.000000 I-1.633693 J-0.757789
G03 X14.078016 Y33.917274 Z-1.000000 I8.715840 J2.299622
G03 X14.114396 Y33.819348 Z-1.000000 I0.828625 J0.252113
G02 X14.138133 Y33.721023 Z-1.000000 I-0.259571 J-0.114692
G02 X14.130096 Y33.547436 Z-1.000000 I-0.835772 J-0.048284
G03 X14.128365 Y33.375277 Z-1.000000 I0.609600 J-0.092219
G03 X14.170986 Y33.235404 Z-1.000000 I0.439377 J0.057455
G02 X14.215368 Y33.092989 Z-1.000000 I-0.422183 J-0.209691
G02 X14.304284 Y32.310902 Z-1.000000 I-12.984984 J-1.872372
G03 X14.375585 Y31.522906 Z-1.000000 I56.065195 J4.675763
G03 X14.444909 Y30.869768 Z-1.000000 I38.569902 J3.763566
G02 X14.516013 Y29.366197 Z-1.000000 I-11.175917 J-1.281979
G02 X14.413299 Y29.265486 Z-1.000000 I-0.102714 J0.002024
G01 X14.389633 Y29.245676 Z-1.000000
G03 X14.347669 Y28.898404 Z-1.000000 I3.040988 J-0.543645
G02 X14.225205 Y28.177676 Z-1.000000 I-3.489807 J0.222208
G02 X14.084983 Y27.960307 Z-1.000000 I-0.421602 J0.118059
G03 X14.061852 Y27.927070 Z-1.000000 I0.049745 J-0.059288
G03 X13.958614 Y27.606821 Z-1.000000 I5.035272 J-1.799967
G02 X13.725016 Y26.977340 Z-1.000000 I-4.306335 J1.239982
G02 X13.646583 Y26.927041 Z-1.000000 I-0.078433 J0.036002
G03 X13.600763 Y26.863911 Z-1.000000 I0.065662 J-0.047658
G02 X13.582107 Y26.809115 Z-1.000000 I-0.089803 J0.000000
G02 X13.443691 Y26.659977 Z-1.000000 I-0.878907 J0.676921
G03 X13.306394 Y26.505140 Z-1.000000 I0.604278 J-0.674117
G03 X13.200949 Y26.313330 Z-1.000000 I0.829808 J-0.581064
G02 X13.002806 Y25.979427 Z-1.000000 I-1.273727 J0.530106
G01 X12.948174 Y25.998652 Z-1.000000
G03 X12.771431 Y25.889021 Z-1.000000 I0.201012 J-0.324055
G03 X12.689555 Y25.718290 Z-1.000000 I1.172678 J-0.667369
G03 X12.676261 Y25.648591 Z-1.000000 I0.176066 J-0.069699
G02 X12.559607 Y25.418729 Z-1.000000 I-0.284793 J-0.000000
G02 X12.317969 Y25.386508 Z-1.000000 I-0.150381 J0.205585
G03 X12.257726 Y25.372009 Z-1.000000 I-0.019583 J-0.051037
G03 X12.144697 Y25.193684 Z-1.000000 I0.472044 J-0.424182
G02 X12.034000 Y24.995525 Z-1.000000 I-0.939173 J0.394651
G02 X11.984512 Y24.969823 Z-1.000000 I-0.050000 J0.035777
G03 X11.928710 Y24.948577 Z-1.000000 I0.000715 J-0.085783
G03 X11.797456 Y24.806006 Z-1.000000 I0.595160 J-0.679617
G02 X11.679077 Y24.698770 Z-1.000000 I-0.326256 J0.241200
G03 X11.465611 Y24.655146 Z-1.000000 I0.097725 J-0.306038
G02 X11.330297 Y24.550833 Z-1.000000 I-0.600890 J0.639552
G02 X11.272408 Y24.534211 Z-1.000000 I-0.057889 J0.092491
G03 X11.223991 Y24.518155 Z-1.000000 I0.000000 J-0.081027
G02 X11.099173 Y24.409691 Z-1.000000 I-0.162337 J0.230834
G03 X11.016779 Y24.360890 Z-1.000000 I0.043978 J-0.168209
G03 X10.990408 Y24.294584 Z-1.000000 I0.070174 J-0.066306
G02 X10.975056 Y24.220861 Z-1.000000 I-0.184684 J-0.000000
G02 X10.908692 Y24.194842 Z-1.000000 I-0.141156 J0.811830
G02 X10.772875 Y24.179174 Z-1.000000 I-1.173702 J9.577512
G03 X9.838153 Y24.036100 Z-1.000000 I1.155693 J-10.675165
G03 X9.685226 Y23.963296 Z-1.000000 I0.067064 J-0.337885
G02 X9.360029 Y23.802025 Z-1.000000 I-0.503389 J0.606557
G02 X7.893830 Y23.547560 Z-1.000000 I-2.994883 J12.904902
G02 X7.347317 Y23.515037 Z-1.000000 I-0.562284 J4.840484
G01 X7.304687 Y23.545660 Z-1.000000
G03 X7.264620 Y23.583744 Z-1.000000 I-0.055811 J-0.018598
G03 X7.074120 Y23.609710 Z-1.000000 I-0.190500 J-0.685823
G03 X6.901976 Y23.566463 Z-1.000000 I0.000000 J-0.364230
G03 X6.845970 Y23.487350 Z-1.000000 I0.051337 J-0.095723
G02 X6.721383 Y23.555330 Z-1.000000 I0.105552 J0.193443
G03 X6.634940 Y23.638310 Z-1.000000 I-0.177782 J-0.098684
G03 X6.677311 Y23.223613 Z-1.000000 I0.572185 J-0.088015
G03 X7.401164 Y22.329359 Z-1.000000 I4.003068 J2.500190
G03 X7.882136 Y21.918084 Z-1.000000 I3.624536 J3.751895
G03 X8.244092 Y21.692872 Z-1.000000 I1.426543 J1.889238
G03 X9.223830 Y21.381705 Z-1.000000 I1.460733 J2.901273
G03 X10.501824 Y21.354825 Z-1.000000 I0.743758 J4.967366
G01 X10.501841 Y21.354826 Z-1.000000
G00 Z5.000000

(End cutting path id: path2)


(Start cutting path id: path2)
(Change tool to Default tool)

G00 Z5.000000
G00 X11.602224 Y18.261865

G01 Z-1.000000 F100.0(Penetrate)
G03 X11.534243 Y18.275066 Z-1.000000 I-0.067981 J-0.168444 F3500.000000
G03 X11.466268 Y18.261865 Z-1.000000 I0.000000 J-0.181610
G03 X11.534248 Y18.234435 Z-1.000000 I0.067979 J0.168486
G03 X11.602227 Y18.247632 Z-1.000000 I0.000000 J0.181677
G00 Z5.000000

(End cutting path id: path2)


(Start cutting path id: path2)
(Change tool to Default tool)

G00 Z5.000000

G01 Z-1.000000 F100.0(Penetrate)
G02 X12.169941 Y17.676002 Z-1.000000 I0.135931 J0.000000 F3500.000000
G02 X12.521563 Y17.699367 Z-1.000000 I0.219074 J-0.639370
G03 X12.638517 Y17.703031 Z-1.000000 I0.050606 J0.253039
G02 X12.715002 Y17.768557 Z-1.000000 I0.034506 J-0.063688
G03 X12.816686 Y17.769311 Z-1.000000 I0.049684 J0.156506
G03 X13.023330 Y17.871496 Z-1.000000 I-0.267252 J0.800488
G02 X13.281787 Y17.989989 Z-1.000000 I0.482071 J-0.710372
G02 X13.237979 Y17.899546 Z-1.000000 I-0.071213 J0.119026
G03 X13.153104 Y17.882973 Z-1.000000 I-0.000000 J-0.225625
G03 X13.061236 Y17.827786 Z-1.000000 I0.130333 J-0.321018
G02 X12.622871 Y17.581874 Z-1.000000 I-0.876445 J1.048685
G02 X12.483135 Y17.632164 Z-1.000000 I-0.038244 J0.113017
G03 X12.360839 Y17.688851 Z-1.000000 I-0.104115 J-0.064353
G03 X12.312904 Y17.606594 Z-1.000000 I0.009070 J-0.060381
G02 X12.223554 Y17.556924 Z-1.000000 I-0.052420 J0.094266
G02 X12.104045 Y17.490686 Z-1.000000 I-0.000915 J0.104531
G02 X12.078064 Y17.547404 Z-1.000000 I0.048919 J0.056718
G00 Z5.000000

(End cutting path id: path2)


(Start cutting path id: path2)
(Change tool to Default tool)

G00 Z5.000000

G01 Z-1.000000 F100.0(Penetrate)
G02 X11.782560 Y17.338299 Z-1.000000 I0.431163 J-0.754207 F3500.000000
G02 X11.860541 Y17.351680 Z-1.000000 I0.077416 J-0.217249
G02 X11.759128 Y17.272030 Z-1.000000 I-0.300971 J0.383233
G02 X11.649130 Y17.250220 Z-1.000000 I-0.105211 J0.242332
G00 Z5.000000

(End cutting path id: path2)


(Start cutting path id: path2)
(Change tool to Default tool)

G00 Z5.000000

G01 Z-1.000000 F100.0(Penetrate)
G02 X11.224336 Y17.284971 Z-1.000000 I0.052262 J0.000000 F3500.000000
G02 X11.265542 Y17.301350 Z-1.000000 I0.041206 J-0.043644
G02 X11.251564 Y17.200393 Z-1.000000 I-0.196630 J0.121488
G02 X11.207952 Y17.246970 Z-1.000000 I0.101860 J0.044916
G00 Z5.000000

(End cutting path id: path2)


(Start cutting path id: path2)
(Change tool to Default tool)

G00 Z5.000000

G01 Z-1.000000 F100.0(Penetrate)
G02 X11.297321 Y17.212469 Z-1.000000 I0.140915 J0.000000 F3500.000000
G02 X11.457001 Y17.179190 Z-1.000000 I0.054441 J-0.138513
G02 X11.344138 Y17.093820 Z-1.000000 I-0.356590 J0.471410
G02 X11.228036 Y17.062994 Z-1.000000 I-0.148909 J0.326787
G00 Z5.000000

(End cutting path id: path2)


(Start cutting path id: path2)
(Change tool to Default tool)

G00 Z5.000000

G01 Z-1.000000 F100.0(Penetrate)
G02 X10.814439 Y17.640482 Z-1.000000 I0.075156 J-0.000000 F3500.000000
G02 X10.990422 Y17.682025 Z-1.000000 I0.175983 J-0.351981
G02 X11.166408 Y17.640479 Z-1.000000 I-0.000000 J-0.393511
G02 X11.207952 Y17.573260 Z-1.000000 I-0.033610 J-0.067219
G02 X11.166405 Y17.506038 Z-1.000000 I-0.075156 J-0.000000
G02 X10.990422 Y17.464495 Z-1.000000 I-0.175983 J0.351981
G02 X10.814436 Y17.506041 Z-1.000000 I0.000000 J0.393511
G02 X10.772892 Y17.573260 Z-1.000000 I0.033610 J0.067219
G00 Z5.000000

(End cutting path id: path2)


(Start cutting path id: path2)
(Change tool to Default tool)

G00 Z5.000000

G01 Z-1.000000 F100.0(Penetrate)
G02 X10.697566 Y16.890437 Z-1.000000 I0.338870 J-0.469566 F3500.000000
G02 X10.854466 Y16.939923 Z-1.000000 I0.348418 J-0.831217
G02 X10.742523 Y16.833154 Z-1.000000 I-0.698045 J1.266064
G02 X10.609745 Y16.786460 Z-1.000000 I-0.463198 J1.105008
G00 Z5.000000

(End cutting path id: path2)


(Start cutting path id: path2)
(Change tool to Default tool)

G00 Z5.000000

G01 Z-1.000000 F100.0(Penetrate)
G02 X12.051130 Y15.843556 Z-1.000000 I0.035581 J0.035581 F3500.000000
G02 X12.063158 Y15.944934 Z-1.000000 I0.370963 J0.007389
G02 X12.117500 Y16.015938 Z-1.000000 I0.111742 J-0.029223
G02 X12.247582 Y16.050550 Z-1.000000 I0.130082 J-0.227138
G03 X12.367019 Y16.087919 Z-1.000000 I0.000000 J0.209555
G03 X12.404386 Y16.159315 Z-1.000000 I-0.049524 J0.071396
G02 X12.435767 Y16.236705 Z-1.000000 I0.111117 J0.000000
G02 X12.509942 Y16.268080 Z-1.000000 I0.074175 J-0.071992
G03 X12.605459 Y16.286078 Z-1.000000 I-0.000000 J0.262460
G03 X12.649107 Y16.322460 Z-1.000000 I-0.032636 J0.083527
G03 X12.597937 Y16.376840 Z-1.000000 I-0.047769 J-0.044921
G02 X12.709448 Y16.517502 Z-1.000000 I0.181727 J-0.144069
G02 X12.891989 Y16.523189 Z-1.000000 I0.109556 J-0.584062
G02 X12.946646 Y16.488142 Z-1.000000 I-0.009223 J-0.074526
G03 X13.000960 Y16.456119 Z-1.000000 I0.057582 J0.035591
G03 X13.185412 Y16.476592 Z-1.000000 I0.028325 J0.585949
G02 X13.369089 Y16.512597 Z-1.000000 I0.328725 J-1.190454
G03 X13.478443 Y16.549802 Z-1.000000 I-0.209803 J0.401227
G02 X13.701530 Y16.675868 Z-1.000000 I0.437433 J-0.513660
G02 X14.166332 Y16.780287 Z-1.000000 I0.740872 J-2.211165
G03 X14.426556 Y16.827043 Z-1.000000 I-0.264871 J2.221673
G03 X14.492627 Y16.859067 Z-1.000000 I-0.040491 J0.167711
G02 X14.557221 Y16.896109 Z-1.000000 I0.159092 J-0.202586
G02 X14.688452 Y16.936287 Z-1.000000 I0.320930 J-0.813822
G03 X14.823920 Y16.968521 Z-1.000000 I-1.004347 J4.521679
G03 X15.250471 Y17.078969 Z-1.000000 I-11.453230 J45.111396
G02 X15.678767 Y17.171129 Z-1.000000 I1.211956 J-4.591053
G02 X15.875949 Y17.183631 Z-1.000000 I0.159377 J-0.952450
G03 X16.069667 Y17.201409 Z-1.000000 I0.029237 J0.745731
G03 X16.256959 Y17.269721 Z-1.000000 I-0.172745 J0.764525
G02 X16.736836 Y17.374995 Z-1.000000 I0.436768 J-0.844587
G02 X16.863749 Y17.242191 Z-1.000000 I-0.006027 J-0.132804
G02 X16.857323 Y17.198960 Z-1.000000 I-0.148619 J0.000000
G01 X16.848729 Y17.192591 Z-1.000000
G03 X14.507692 Y16.944628 Z-1.000000 I0.000000 J-11.174940
G03 X13.818335 Y16.543346 Z-1.000000 I0.268760 J-1.254458
G02 X13.651618 Y16.418013 Z-1.000000 I-0.394694 J0.351470
G02 X13.470119 Y16.376854 Z-1.000000 I-0.181499 J0.379597
G03 X13.401964 Y16.362324 Z-1.000000 I0.000000 J-0.167106
G03 X13.374209 Y16.334014 Z-1.000000 I0.022063 J-0.049391
G02 X13.186798 Y16.152341 Z-1.000000 I-0.308232 J0.130466
G02 X12.641857 Y16.050555 Z-1.000000 I-0.544941 J1.407850
G03 X12.534834 Y16.028873 Z-1.000000 I0.000000 J-0.274976
G01 X12.513153 Y15.996175 Z-1.000000
G02 X12.411047 Y15.941795 Z-1.000000 I-0.081704 J0.153419
G03 X12.318803 Y15.920787 Z-1.000000 I0.000000 J-0.213018
G03 X12.241241 Y15.860225 Z-1.000000 I0.099831 J-0.207803
G02 X12.135941 Y15.791061 Z-1.000000 I-0.165677 J0.137498
G02 X12.065881 Y15.808995 Z-1.000000 I-0.019894 J0.068096
G00 Z5.000000

(End cutting path id: path2)


(Start cutting path id: path2)
(Change tool to Default tool)

G00 Z5.000000

G01 Z-1.000000 F100.0(Penetrate)
G03 X13.165717 Y18.220686 Z-1.000000 I-0.067981 J-0.168443 F3500.000000
G03 X13.097741 Y18.207485 Z-1.000000 I-0.000000 J-0.181618
G03 X13.165721 Y18.180055 Z-1.000000 I0.067979 J0.168486
G03 X13.233700 Y18.193252 Z-1.000000 I-0.000000 J0.181677
G00 Z5.000000

(End cutting path id: path2)


(Start cutting path id: path2)
(Change tool to Default tool)

G00 Z5.000000
G00 X8.543212 Y15.996169

G01 Z-1.000000 F100.0(Penetrate)
G02 X8.628410 Y16.035737 Z-1.000000 I0.184025 J-0.284730 F3500.000000
G02 X8.706359 Y16.045899 Z-1.000000 I0.069269 J-0.227305
G02 X8.679169 Y15.996169 Z-1.000000 I-0.066458 J0.036344
G02 X8.550992 Y15.969796 Z-1.000000 I-0.128177 J0.298299
G00 Z5.000000

(End cutting path id: path2)


(Start cutting path id: path2)
(Change tool to Default tool)

G00 Z5.000000
G00 X42.016113 Y5.734981

G01 Z-1.000000 F100.0(Penetrate)
G03 X42.047663 Y5.909086 Z-1.000000 I-1.833709 J0.422201 F3500.000000
G03 X42.053613 Y6.016992 Z-1.000000 I-0.694981 J0.092439
G02 X42.140110 Y6.370640 Z-1.000000 I0.702991 J0.015462
G02 X42.328682 Y6.518376 Z-1.000000 I0.266834 J-0.146376
G02 X42.470908 Y6.535039 Z-1.000000 I0.128798 J-0.484048
G03 X42.400538 Y6.444515 Z-1.000000 I0.553899 J-0.690757
G03 X42.260328 Y6.293244 Z-1.000000 I2.477067 J-2.436555
G02 X42.463233 Y6.132068 Z-1.000000 I0.026145 J-0.169328
G02 X42.466982 Y6.055082 Z-1.000000 I-0.033031 J-0.040193
G03 X42.445539 Y6.007974 Z-1.000000 I0.052190 J-0.052190
G03 X42.511174 Y6.006897 Z-1.000000 I0.000000 J0.077961
G03 X42.547492 Y6.057802 Z-1.000000 I-0.071526 J0.089439
G02 X42.579551 Y6.094069 Z-1.000000 I0.061306 J-0.021889
G02 X42.639040 Y5.926928 Z-1.000000 I-0.092382 J-0.099836
G02 X42.473708 Y5.826678 Z-1.000000 I-0.165332 J0.086208
G03 X42.424514 Y5.812580 Z-1.000000 I-0.000000 J-0.092882
G03 X42.307683 Y5.723003 Z-1.000000 I0.407007 J-0.651813
G02 X42.188609 Y5.633489 Z-1.000000 I-0.482797 J0.518274
G02 X42.086328 Y5.590543 Z-1.000000 I-0.201617 J0.336907
G02 X42.016158 Y5.735005 Z-1.000000 I0.160946 J0.078177
G00 Z5.000000

(End cutting path id: path2)


(Start cutting path id: path2)
(Change tool to Default tool)

G00 Z5.000000

G01 Z-1.000000 F100.0(Penetrate)
G02 X42.820105 Y6.788252 Z-1.000000 I0.080086 J-0.049508 F3500.000000
G02 X42.902528 Y6.804705 Z-1.000000 I0.080555 J-0.188865
G02 X42.796166 Y6.716711 Z-1.000000 I-0.116752 J0.180652
G00 Z5.000000

(End cutting path id: path2)


(Start cutting path id: path2)
(Change tool to Default tool)

G00 Z5.000000

G01 Z-1.000000 F100.0(Penetrate)
G02 X42.481176 Y3.863290 Z-1.000000 I0.061130 J-0.152766 F3500.000000
G02 X42.517509 Y3.847353 Z-1.000000 I-0.002244 J-0.054499
G02 X42.446129 Y3.818793 Z-1.000000 I-0.061138 J0.152809
G02 X42.409795 Y3.834725 Z-1.000000 I0.002237 J0.054497
G00 Z5.000000

(End cutting path id: path2)


(Start cutting path id: path2)
(Change tool to Default tool)

G00 Z5.000000

G01 Z-1.000000 F100.0(Penetrate)
G02 X42.172497 Y3.793568 Z-1.000000 I0.208393 J-0.000000 F3500.000000
G02 X42.260320 Y3.736134 Z-1.000000 I-0.086017 J-0.059691
G02 X42.244347 Y3.666675 Z-1.000000 I-0.159004 J0.000000
G02 X42.205940 Y3.624160 Z-1.000000 I-0.092415 J0.044879
G02 X42.151560 Y3.702520 Z-1.000000 I0.103346 J0.071711
G00 Z5.000000

(End cutting path id: path2)


(Start cutting path id: path2)
(Change tool to Default tool)

G00 Z5.000000

G01 Z-1.000000 F100.0(Penetrate)
G02 X41.623557 Y3.676765 Z-1.000000 I0.295778 J0.006592 F3500.000000
G02 X41.690892 Y3.896077 Z-1.000000 I2.322172 J-0.592980
G03 X41.755384 Y4.116076 Z-1.000000 I-1.780373 J0.641364
G03 X41.770082 Y4.242831 Z-1.000000 I-0.571214 J0.130465
G02 X41.879157 Y5.089036 Z-1.000000 I3.508848 J-0.022155
G02 X42.073232 Y5.429783 Z-1.000000 I0.718284 J-0.183462
G02 X42.150732 Y5.483655 Z-1.000000 I0.188513 J-0.188513
G02 X42.227337 Y5.500363 Z-1.000000 I0.076605 J-0.167259
G03 X42.306760 Y5.516135 Z-1.000000 I-0.000000 J0.207865
G03 X42.549338 Y5.633501 Z-1.000000 I-0.879436 J2.127026
G02 X42.788506 Y5.765370 Z-1.000000 I12.517266 J-22.419461
G02 X43.046295 Y5.904076 Z-1.000000 I14.158746 J-26.005538
G02 X43.187839 Y5.372473 Z-1.000000 I-4.062112 J0.541360
G02 X43.074608 Y5.038112 Z-1.000000 I-2.194128 J0.556685
G03 X43.035362 Y4.927080 Z-1.000000 I0.834702 J-0.357490
G03 X42.990758 Y4.740794 Z-1.000000 I2.313570 J-0.652441
G02 X42.943811 Y4.555844 Z-1.000000 I-1.752736 J0.346477
G02 X42.906038 Y4.468882 Z-1.000000 I-0.420829 J0.131107
G03 X42.863088 Y4.383423 Z-1.000000 I0.805389 J-0.458290
G03 X42.797706 Y4.222376 Z-1.000000 I2.799918 J-1.230517
G02 X42.736868 Y4.122341 Z-1.000000 I-0.291647 J0.108852
G03 X42.640816 Y4.165139 Z-1.000000 I-0.056866 J-0.021113
G03 X42.597846 Y4.100446 Z-1.000000 I0.013001 J-0.055252
G02 X42.569993 Y4.046589 Z-1.000000 I-0.049761 J-0.008396
G02 X42.437082 Y4.022976 Z-1.000000 I-0.108585 J0.225329
G03 X42.293767 Y4.003358 Z-1.000000 I-0.030406 J-0.311170
G03 X42.260339 Y3.954566 Z-1.000000 I0.018896 J-0.048792
G02 X42.235863 Y3.893368 Z-1.000000 I-0.088746 J-0.000000
G02 X42.178769 Y3.868896 Z-1.000000 I-0.057094 J0.054366
G02 X42.118558 Y3.890526 Z-1.000000 I0.000000 J0.094618
G02 X42.096359 Y3.936876 Z-1.000000 I0.038856 J0.047101
G03 X42.041979 Y3.923276 Z-1.000000 I0.015333 J-0.061296
G02 X41.987878 Y3.894075 Z-1.000000 I-0.054101 J0.035515
G02 X41.932395 Y3.923276 Z-1.000000 I-0.000000 J0.067310
G03 X41.908695 Y3.864856 Z-1.000000 I0.086863 J-0.035238
G02 X41.861982 Y3.645744 Z-1.000000 I-0.257862 J-0.059561
G02 X41.723540 Y3.619827 Z-1.000000 I-0.083452 J0.063059
G03 X41.643880 Y3.583717 Z-1.000000 I0.029822 J-0.065844
G00 Z5.000000

(End cutting path id: path2)


(Start cutting path id: path2)
(Change tool to Default tool)

G00 Z5.000000

G01 Z-1.000000 F100.0(Penetrate)
G02 X41.684652 Y3.360096 Z-1.000000 I0.079164 J-0.046508
G02 X41.757703 Y3.326983 Z-1.000000 I-0.006707 J-0.111933
G02 X41.702368 Y3.221313 Z-1.000000 I-0.727212 J0.603125
G03 X41.621332 Y3.252316 Z-1.000000 I-1.757272 J-4.160136
G00 Z5.000000

(End cutting path id: path2)


(Start cutting path id: path2)
(Change tool to Default tool)

G00 Z5.000000
G00 X44.789109 Y16.539998

G01 Z-1.000000 F100.0(Penetrate)
G02 X44.827067 Y16.586575 Z-1.000000 I0.196630 J-0.121488 F3500.000000
G02 X44.870679 Y16.539998 Z-1.000000 I-0.101860 J-0.044916
G02 X44.854295 Y16.501997 Z-1.000000 I-0.052262 J-0.000000
G02 X44.813089 Y16.485618 Z-1.000000 I-0.041206 J0.043644
G00 Z5.000000

(End cutting path id: path2)


(Footer)
M5
G00 X0.0000 Y0.0000
M2
(Using default footer. To add your own footer create file "footer" in the output dir.)
(end)
%