%
(Header)
(Generated by gcodetools from Inkscape.)
(Using default header. To add your own header create file "header" in the output dir.)
M3
(Header end.)
G21 (All units in mm)

(Start cutting path id: path159)
(Change tool to Default tool)

G00 X48.659354 Y0.533476


(End cutting path id: path159)


(Start cutting path id: path159)
(Change tool to Default tool)

G00 X48.878571 Y0.533476


(End cutting path id: path159)


(Start cutting path id: path159)
(Change tool to Default tool)


G01 X49.090284 Y0.587870 Z-1.000000 F3500.000000
G02 X49.327282 Y0.550846 Z-1.000000 I-0.000000 J-0.777035
G02 X49.077139 Y0.520563 Z-1.000000 I-0.018539 J0.698502

(End cutting path id: path159)


(Start cutting path id: path159)
(Change tool to Default tool)

G00 X47.080303 Y0.608886


(End cutting path id: path159)


(Start cutting path id: path159)
(Change tool to Default tool)

G00 X45.326563 Y2.412472


(End cutting path id: path159)


(Start cutting path id: path159)
(Change tool to Default tool)

G00 X45.326563 Y3.901032

G02 X45.737596 Y3.894232 Z-1.000000 I-0.026735 J-1.614429
G02 X45.348421 Y3.875238 Z-1.000000 I0.001872 J1.627967

(End cutting path id: path159)


(Start cutting path id: path159)
(Change tool to Default tool)

G00 X44.874427 Y4.149394


(End cutting path id: path159)


(Start cutting path id: path159)
(Change tool to Default tool)

G00 X44.285278 Y4.603133


(End cutting path id: path159)


(Start cutting path id: path159)
(Change tool to Default tool)

G00 X43.956454 Y3.836902

G02 X44.150558 Y3.952775 Z-1.000000 I0.225961 J-0.517762
G02 X43.956454 Y3.836902 Z-1.000000 I-0.056859 J1.193313

(End cutting path id: path159)


(Start cutting path id: path159)
(Change tool to Default tool)

G00 X43.627627 Y3.839102


(End cutting path id: path159)


(Start cutting path id: path159)
(Change tool to Default tool)

G00 X43.243997 Y3.885072

G02 X43.476439 Y4.016324 Z-1.000000 I0.098158 J-0.215427
G02 X43.264091 Y3.859275 Z-1.000000 I-0.002975 J0.630813

(End cutting path id: path159)


(Start cutting path id: path159)
(Change tool to Default tool)

G00 X42.997377 Y3.893872


(End cutting path id: path159)


(Start cutting path id: path159)
(Change tool to Default tool)

G00 X42.750757 Y3.907752

G02 X42.953533 Y4.113086 Z-1.000000 I0.143014 J-0.141230
G02 X42.777124 Y3.885756 Z-1.000000 I-0.156650 J0.215224

(End cutting path id: path159)


(Start cutting path id: path159)
(Change tool to Default tool)

G00 X41.928692 Y4.222704


(End cutting path id: path159)


(Start cutting path id: path159)
(Change tool to Default tool)

G00 X41.757284 Y4.017184

G02 X41.711080 Y4.224395 Z-1.000000 I0.378264 J0.193103 F3500.000000
G02 X41.775631 Y4.018481 Z-1.000000 I-0.455662 J0.026122

(End cutting path id: path159)


(Start cutting path id: path159)
(Change tool to Default tool)

G00 X41.490257 Y3.997612


(End cutting path id: path159)


(Start cutting path id: path159)
(Change tool to Default tool)

G00 X40.727322 Y4.090254


(End cutting path id: path159)


(Start cutting path id: path159)
(Change tool to Default tool)


G02 X40.630983 Y4.268982 Z-1.000000 I0.373548 J-0.143355 F3500.000000

(End cutting path id: path159)


(Start cutting path id: path159)
(Change tool to Default tool)

G00 X40.376114 Y4.090282


(End cutting path id: path159)


(Start cutting path id: path159)
(Change tool to Default tool)

G00 X40.086517 Y4.069042


(End cutting path id: path159)


(Start cutting path id: path159)
(Change tool to Default tool)

G00 X39.935915 Y2.770419


(End cutting path id: path159)


(Start cutting path id: path159)
(Change tool to Default tool)

G00 X39.791321 Y2.523782


(End cutting path id: path159)


(Start cutting path id: path159)
(Change tool to Default tool)

G00 X41.545061 Y2.737299


(End cutting path id: path159)


(Start cutting path id: path159)
(Change tool to Default tool)

G00 X42.038300 Y2.684979


(End cutting path id: path159)


(Start cutting path id: path159)
(Change tool to Default tool)

G00 X42.750757 Y2.770419


(End cutting path id: path159)


(Start cutting path id: path159)
(Change tool to Default tool)

G00 X43.057692 Y4.792780

G02 X43.275313 Y4.817380 Z-1.000000 I0.008709 J-0.077042
G02 X43.070407 Y4.744968 Z-1.000000 I0.000000 J0.128643

(End cutting path id: path159)


(Start cutting path id: path159)
(Change tool to Default tool)

G00 X42.558942 Y5.209213


(End cutting path id: path159)


(Start cutting path id: path159)
(Change tool to Default tool)

G00 X39.188473 Y5.340360


(End cutting path id: path159)


(Start cutting path id: path159)
(Change tool to Default tool)

G00 X38.476016 Y5.209213


(End cutting path id: path159)


(Start cutting path id: path159)
(Change tool to Default tool)

G00 X38.571922 Y4.642663


(End cutting path id: path159)


(Start cutting path id: path159)
(Change tool to Default tool)

G00 X37.736155 Y4.606333


(End cutting path id: path159)


(Start cutting path id: path159)
(Change tool to Default tool)

G00 X37.643675 Y4.314944


(End cutting path id: path159)


(Start cutting path id: path159)
(Change tool to Default tool)

G00 X36.996297 Y3.565083


(End cutting path id: path159)


(Start cutting path id: path159)
(Change tool to Default tool)



(End cutting path id: path159)


(Start cutting path id: path159)
(Change tool to Default tool)

G00 X37.917694 Y3.218872


(End cutting path id: path159)


(Start cutting path id: path159)
(Change tool to Default tool)

G00 X36.146830 Y4.770780


(End cutting path id: path159)


(Start cutting path id: path159)
(Change tool to Default tool)

G00 X35.571382 Y4.693143

G03 X35.627032 Y4.921493 Z-1.000000 I-0.185340 J0.118338
G02 X35.823229 Y4.752154 Z-1.000000 I0.000000 J-0.150756
G02 X35.571375 Y4.693151 Z-1.000000 I0.212725 J0.698454

(End cutting path id: path159)


(Start cutting path id: path159)
(Change tool to Default tool)

G00 X34.173872 Y3.345863


(End cutting path id: path159)


(Start cutting path id: path159)
(Change tool to Default tool)

G00 X33.862171 Y3.218872


(End cutting path id: path159)


(Start cutting path id: path159)
(Change tool to Default tool)

G00 X33.201094 Y3.491763


(End cutting path id: path159)


(Start cutting path id: path159)
(Change tool to Default tool)

G00 X32.968563 Y3.400043


(End cutting path id: path159)


(Start cutting path id: path159)
(Change tool to Default tool)

G00 X33.270700 Y3.867832


(End cutting path id: path159)


(Start cutting path id: path159)
(Change tool to Default tool)

G00 X30.997840 Y3.478013


(End cutting path id: path159)


(Start cutting path id: path159)
(Change tool to Default tool)

G00 X30.200554 Y3.291042


(End cutting path id: path159)


(Start cutting path id: path159)
(Change tool to Default tool)

G00 X29.791861 Y3.122872


(End cutting path id: path159)


(Start cutting path id: path159)
(Change tool to Default tool)

G00 X29.460695 Y3.565083


(End cutting path id: path159)


(Start cutting path id: path159)
(Change tool to Default tool)

G00 X28.748238 Y3.071852


(End cutting path id: path159)


(Start cutting path id: path159)
(Change tool to Default tool)

G00 X28.582753 Y3.363922

G03 X28.755393 Y3.529945 Z-1.000000 I0.051737 J0.134815
G02 X29.002114 Y3.619872 Z-1.000000 I0.153043 J-0.526509
G02 X29.082619 Y3.435778 Z-1.000000 I0.000000 J-0.109650
G02 X28.651071 Y3.240247 Z-1.000000 I-0.447611 J0.413911

(End cutting path id: path159)


(Start cutting path id: path159)
(Change tool to Default tool)

G00 X28.104373 Y3.219192

G03 X28.176133 Y3.500158 Z-1.000000 I-0.212257 J0.212281
G02 X28.592563 Y3.673881 Z-1.000000 I0.267016 J-0.647010
G02 X28.362043 Y3.215388 Z-1.000000 I-0.551285 J0.277116
G02 X28.104384 Y3.219188 Z-1.000000 I0.009781 J0.662749

(End cutting path id: path159)


(Start cutting path id: path159)
(Change tool to Default tool)

G00 X27.706402 Y3.072746

G02 X27.455582 Y3.129196 Z-1.000000 I0.076112 J0.400301
G03 X27.443510 Y3.389897 Z-1.000000 I-0.111265 J0.111265
G03 X27.476755 Y3.600529 Z-1.000000 I-0.155661 J0.186343
G03 X27.699465 Y3.499930 Z-1.000000 I0.027998 J0.083160
G02 X27.955138 Y3.383315 Z-1.000000 I0.000000 J-0.082729
G03 X27.873317 Y3.178294 Z-1.000000 I0.053148 J-0.015388
G01 X28.074787 Y3.128202 Z-1.000000
G02 X27.775461 Y3.030862 Z-1.000000 I-0.170889 J0.637626

(End cutting path id: path159)


(Start cutting path id: path159)
(Change tool to Default tool)

G00 X27.107631 Y3.635953


(End cutting path id: path159)


(Start cutting path id: path159)
(Change tool to Default tool)

G00 X26.541917 Y3.687473


(End cutting path id: path159)


(Start cutting path id: path159)
(Change tool to Default tool)

G00 X26.199835 Y3.479013

G02 X26.407750 Y3.604862 Z-1.000000 I0.234860 J-0.438924
G02 X26.211138 Y3.470484 Z-1.000000 I-0.234860 J0.438924

(End cutting path id: path159)


(Start cutting path id: path159)
(Change tool to Default tool)

G00 X26.090886 Y3.289802


(End cutting path id: path159)


(Start cutting path id: path159)
(Change tool to Default tool)


G02 X25.908641 Y3.387303 Z-1.000000 I0.177848 J0.111074 F3500.000000
G02 X26.030912 Y3.851527 Z-1.000000 I0.301828 J0.078923
G02 X26.250616 Y3.719175 Z-1.000000 I-0.096157 J-0.096157
G02 X26.112803 Y3.539538 Z-1.000000 I-0.325787 J0.107253
G03 X26.004238 Y3.314017 Z-1.000000 I0.153033 J-0.073669

(End cutting path id: path159)


(Start cutting path id: path159)
(Change tool to Default tool)

G00 X25.706595 Y3.277332


(End cutting path id: path159)


(Start cutting path id: path159)
(Change tool to Default tool)

G00 X25.361119 Y3.403592

G02 X25.147469 Y3.537513 Z-1.000000 I-0.049889 J0.282892
G03 X25.193343 Y3.776375 Z-1.000000 I-0.740645 J0.211583
G02 X24.966736 Y3.784305 Z-1.000000 I-0.107455 J0.304093
G02 X24.720535 Y3.690986 Z-1.000000 I-0.061060 J0.061060
G02 X24.254119 Y3.434597 Z-1.000000 I-1.021311 J0.847611
G03 X23.985786 Y3.460065 Z-1.000000 I0.021509 J-0.310191
G03 X24.172278 Y3.617339 Z-1.000000 I0.015972 J0.068865
G01 X24.080966 Y3.798011 Z-1.000000
G03 X24.251580 Y4.044030 Z-1.000000 I-0.404882 J0.665737
G02 X24.338369 Y4.295860 Z-1.000000 I1.201697 J-0.460179
G03 X24.419427 Y4.502792 Z-1.000000 I-0.601830 J0.355086
G03 X24.474121 Y4.921585 Z-1.000000 I-2.466279 J0.535064
G02 X24.539842 Y5.337402 Z-1.000000 I1.903771 J-0.087794
G02 X24.681189 Y5.677335 Z-1.000000 I1.405708 J-0.385153
G03 X24.867008 Y6.004704 Z-1.000000 I-36.891751 J21.156676
G03 X24.972398 Y6.195708 Z-1.000000 I-12.447461 J6.992691
G02 X25.084674 Y6.378495 Z-1.000000 I1.737862 J-0.941593
G02 X25.222598 Y6.882628 Z-1.000000 I4.914805 J-1.018447
G03 X25.322780 Y7.266845 Z-1.000000 I-7.013988 J2.034023
G03 X25.406457 Y7.675423 Z-1.000000 I-7.853351 J1.821225
G02 X25.781668 Y9.536064 Z-1.000000 I40.889033 J-7.277406
G03 X25.943666 Y9.710072 Z-1.000000 I-0.097598 J0.029994
G03 X25.929418 Y10.059639 Z-1.000000 I-21.416563 J6.388019
G03 X26.007700 Y10.333434 Z-1.000000 I-48.146587 J13.913915
G02 X26.085788 Y10.607290 Z-1.000000 I64.800475 J-18.329293
G02 X26.310769 Y11.387824 Z-1.000000 I521.794042 J-149.979174
G01 X26.536334 Y12.168193 Z-1.000000
G01 X26.416066 Y12.730532 Z-1.000000
G02 X26.303712 Y13.294052 Z-1.000000 I20.203108 J4.321035
G03 X26.215137 Y13.852115 Z-1.000000 I-2.465742 J-0.212319
G03 X26.065423 Y14.311672 Z-1.000000 I-3.495198 J-0.884494
G03 X26.239325 Y13.976049 Z-1.000000 I2.098817 J0.091574
G03 X26.342436 Y14.166480 Z-1.000000 I-1.954791 J0.146470
G03 X26.231029 Y14.555755 Z-1.000000 I-1.054963 J-0.091342
G02 X26.052825 Y14.652781 Z-1.000000 I0.001031 J0.084269
G03 X26.278485 Y14.776864 Z-1.000000 I-0.100227 J0.263168
G03 X26.364254 Y14.561412 Z-1.000000 I0.084589 J-0.047152
G02 X26.576440 Y14.728722 Z-1.000000 I0.513712 J-0.445560
G02 X26.791956 Y14.738957 Z-1.000000 I-0.146860 J-0.162227
G03 X26.958259 Y14.567188 Z-1.000000 I0.136834 J0.132480
G01 X27.160329 Y14.405673 Z-1.000000
G03 X27.373698 Y14.893251 Z-1.000000 I-1.694227 J1.031885
G02 X27.581300 Y15.440575 Z-1.000000 I3.331272 J-0.950530
G03 X27.765646 Y15.569636 Z-1.000000 I-0.019398 J0.136593
G02 X27.818376 Y15.878011 Z-1.000000 I0.494765 J-0.225389
G02 X27.865678 Y16.096362 Z-1.000000 I0.197892 J0.062812
G03 X28.065009 Y16.559772 Z-1.000000 I-3.824632 J1.550965
G03 X28.140233 Y16.950787 Z-1.000000 I-1.922792 J0.572654
G03 X28.178735 Y17.810706 Z-1.000000 I-9.338087 J0.848923
G03 X28.173545 Y18.675961 Z-1.000000 I-89.686896 J-0.105301
G02 X28.201900 Y18.916375 Z-1.000000 I0.050809 J-0.003366
G03 X28.553987 Y18.816743 Z-1.000000 I0.414462 J0.774437
G02 X28.286851 Y19.025412 Z-1.000000 I0.000000 J0.178889
G02 X28.150780 Y19.704958 Z-1.000000 I1.949064 J0.743672
G03 X28.065901 Y20.807321 Z-1.000000 I-11.990564 J-0.368792
G03 X27.945980 Y21.362328 Z-1.000000 I-3.139973 J-0.387998
G02 X27.871620 Y22.129589 Z-1.000000 I9.058252 J0.877851
G03 X27.822848 Y22.714238 Z-1.000000 I-5.728264 J-0.183499
G03 X27.743699 Y23.075427 Z-1.000000 I-2.256263 J-0.305158
G02 X27.313437 Y24.611772 Z-1.000000 I31.836334 J9.744370
G02 X27.456297 Y24.381877 Z-1.000000 I-1.887902 J-0.821475
G03 X27.539416 Y24.199196 Z-1.000000 I0.812416 J0.259398
G02 X27.543789 Y24.521650 Z-1.000000 I0.305589 J0.175388
G02 X27.767403 Y24.514039 Z-1.000000 I-0.096586 J-0.116129
G03 X27.847893 Y24.322967 Z-1.000000 I1.078960 J0.454411
G01 X27.624871 Y24.472940 Z-1.000000
G02 X27.726165 Y24.165244 Z-1.000000 I-0.209250 J-0.103484
G01 X27.597281 Y24.000699 Z-1.000000
G03 X27.861295 Y23.958629 Z-1.000000 I0.204846 J1.659102
G03 X27.915815 Y23.737919 Z-1.000000 I0.246579 J-0.078254
G02 X28.087905 Y23.567478 Z-1.000000 I-0.112790 J-0.159268
G02 X28.213250 Y23.226667 Z-1.000000 I-1.096835 J-0.596854
G02 X28.363198 Y22.253373 Z-1.000000 I-8.987186 J-1.882785
G03 X28.562664 Y20.853072 Z-1.000000 I16.648054 J1.657080
G03 X28.679117 Y20.553729 Z-1.000000 I0.848243 J0.157667
G02 X28.631370 Y20.354700 Z-1.000000 I-0.072212 J0.077698
G03 X28.483182 Y20.517831 Z-1.000000 I-0.062827 J-0.057299
G03 X28.617458 Y20.225610 Z-1.000000 I0.495314 J0.227602
G02 X28.683078 Y19.580207 Z-1.000000 I-12.239618 J-1.244469
G02 X28.683367 Y19.015601 Z-1.000000 I-5.526913 J-0.285129
G02 X28.725548 Y18.316007 Z-1.000000 I-8.577548 J-1.217158
G03 X28.779569 Y17.809459 Z-1.000000 I10.430417 J0.856203
G02 X29.023060 Y17.823719 Z-1.000000 I0.291078 J-0.667208
G01 X29.149555 Y17.990974 Z-1.000000
G02 X29.187908 Y18.254289 Z-1.000000 I0.176529 J0.109097
G02 X29.915390 Y19.178314 Z-1.000000 I4.975575 J-3.168866
G03 X30.073228 Y19.383359 Z-1.000000 I-1.602236 J1.233338
G03 X30.255274 Y19.537309 Z-1.000000 I-0.057650 J0.050891
G03 X30.429146 Y19.649368 Z-1.000000 I0.000000 J0.137010
G03 X30.642793 Y19.839457 Z-1.000000 I-0.910027 J1.237917
G02 X30.845407 Y20.025446 Z-1.000000 I1.295996 J-1.208488
G02 X31.106160 Y20.188979 Z-1.000000 I0.194219 J-0.161752
G03 X31.271284 Y20.314829 Z-1.000000 I-0.300880 J0.227549
G01 X31.079634 Y20.255804 Z-1.000000
G02 X30.878388 Y20.079775 Z-1.000000 I-0.337765 J0.281503
G02 X31.063819 Y20.335192 Z-1.000000 I0.137372 J-0.112585
G02 X30.563358 Y19.877225 Z-1.000000 I-3.134766 J2.418547
G03 X30.756744 Y20.182337 Z-1.000000 I-1.806979 J1.544589
G03 X30.796973 Y20.454943 Z-1.000000 I-0.758301 J0.290956
G02 X31.000757 Y21.044755 Z-1.000000 I4.832149 J-0.999442
G03 X31.115731 Y21.490791 Z-1.000000 I-4.820237 J1.480344
G03 X30.549318 Y20.783398 Z-1.000000 I2.856916 J-2.111402
G02 X30.387879 Y20.423542 Z-1.000000 I-7.316011 J3.065965
G03 X30.192604 Y20.136286 Z-1.000000 I0.297999 J-0.380437
G03 X30.227209 Y19.897827 Z-1.000000 I0.292037 J-0.079360
G02 X30.157989 Y20.115345 Z-1.000000 I1.026247 J0.145401
G03 X30.152088 Y20.380281 Z-1.000000 I-1.119759 J0.107592
G03 X30.307218 Y20.543654 Z-1.000000 I0.099906 J0.186673
G02 X30.370515 Y20.949118 Z-1.000000 I0.381663 J0.134892
G02 X30.810777 Y21.520228 Z-1.000000 I1.802872 J-0.934560
G03 X30.835597 Y21.810855 Z-1.000000 I-0.152056 J0.012986
G02 X30.583554 Y21.787695 Z-1.000000 I-0.035826 J0.178484
G02 X30.382598 Y21.679253 Z-1.000000 I-0.098726 J0.057443
G03 X30.448459 Y21.913298 Z-1.000000 I-0.137536 J0.027896
G03 X30.694952 Y21.871628 Z-1.000000 I0.021969 J0.102012
G02 X30.935422 Y21.787488 Z-1.000000 I-0.047645 J-0.136172
G03 X31.092076 Y21.651316 Z-1.000000 I0.093550 J0.107616
G03 X31.250381 Y21.834541 Z-1.000000 I-0.058910 J0.185628
G03 X31.662140 Y22.815210 Z-1.000000 I-8.963574 J3.930381
G03 X31.864548 Y23.287830 Z-1.000000 I-2.370893 J1.436096
G03 X31.955830 Y23.610433 Z-1.000000 I-1.050635 J0.471497
G03 X31.841138 Y23.973299 Z-1.000000 I-1.448131 J-0.614354
G03 X31.717089 Y24.160705 Z-1.000000 I-1.720248 J-1.003925
G03 X31.203515 Y24.678785 Z-1.000000 I-2.096815 J-1.564984
G03 X30.611521 Y25.000994 Z-1.000000 I-1.351490 J-1.778150
G02 X30.419687 Y25.138325 Z-1.000000 I0.035759 J0.049950
G02 X30.090861 Y25.212755 Z-1.000000 I0.042619 J0.545370
G03 X29.871209 Y25.302398 Z-1.000000 I-0.640268 J-1.254921
G02 X29.628996 Y25.355152 Z-1.000000 I0.000000 J0.206024
G03 X29.470619 Y25.542421 Z-1.000000 I-0.049862 J-0.044968
G02 X30.046565 Y25.470635 Z-1.000000 I-0.523722 J-2.452246
G01 X30.275157 Y25.449805 Z-1.000000
G03 X30.428032 Y25.268150 Z-1.000000 I0.214400 J0.014058
G03 X30.917450 Y25.157917 Z-1.000000 I0.489418 J1.031351
G02 X31.514342 Y24.918869 Z-1.000000 I0.000000 J-0.864730
G02 X32.080763 Y24.048128 Z-1.000000 I-1.557848 J-1.632987
G03 X32.408549 Y24.068818 Z-1.000000 I-0.000000 J0.251155
G03 X32.697844 Y24.742431 Z-1.000000 I-1.945827 J1.234597
G03 X32.649444 Y25.215120 Z-1.000000 I-0.675860 J0.169619
G03 X32.391270 Y25.377132 Z-1.000000 I-0.258174 J-0.124701
G02 X32.118799 Y25.124125 Z-1.000000 I-0.210319 J0.000000
G02 X31.816685 Y25.224602 Z-1.000000 I-0.067624 J0.301104
G02 X31.821385 Y25.571822 Z-1.000000 I0.290851 J-0.003952
G02 X32.038709 Y25.482962 Z-1.000000 I-0.012347 J-0.062237
G03 X31.844571 Y25.348662 Z-1.000000 I0.033377 J-0.068802
G03 X32.206841 Y25.411082 Z-1.000000 I-0.071596 J0.415472
G02 X32.437954 Y25.451267 Z-1.000000 I0.138411 J-0.111350
G02 X32.732745 Y25.089384 Z-1.000000 I-0.367060 J-0.600019
G02 X32.962879 Y25.134470 Z-1.000000 I0.245186 J-0.077826
G03 X33.196794 Y25.334491 Z-1.000000 I-0.357091 J0.544930
G02 X33.358335 Y25.651335 Z-1.000000 I2.307470 J-1.219498
G03 X33.469016 Y25.873883 Z-1.000000 I-0.844293 J0.558693
G03 X33.644549 Y26.010675 Z-1.000000 I0.096279 J0.179878
G03 X33.887425 Y26.128119 Z-1.000000 I-0.037983 J0.108960
G03 X33.752382 Y26.319643 Z-1.000000 I-0.403348 J0.154749
G01 X33.762717 Y26.601892 Z-1.000000
G02 X34.016997 Y26.335921 Z-1.000000 I-0.564900 J-0.601368
G02 X34.091549 Y26.116949 Z-1.000000 I-0.110962 J0.009042
G02 X34.108939 Y25.897217 Z-1.000000 I-0.117101 J0.002802
G03 X34.019269 Y25.296175 Z-1.000000 I3.337393 J-0.497914
G03 X34.046432 Y24.776018 Z-1.000000 I5.495911 J0.026215
G02 X34.169709 Y24.339284 Z-1.000000 I-2.665083 J-0.642615
G03 X34.334318 Y23.786838 Z-1.000000 I1.608835 J0.178627
G02 X34.529338 Y23.708582 Z-1.000000 I0.015893 J-0.085389
G02 X34.269837 Y23.662075 Z-1.000000 I0.104622 J0.308980
G02 X34.099959 Y24.116583 Z-1.000000 I1.629586 J0.609077
G03 X34.036405 Y24.471297 Z-1.000000 I-8.531099 J-1.345462
G03 X33.970514 Y24.761269 Z-1.000000 I-5.765582 J-1.157656
G03 X33.870092 Y24.950979 Z-1.000000 I-0.440990 J-0.112003
G02 X33.651932 Y24.938644 Z-1.000000 I-0.005951 J0.061265
G03 X33.865287 Y25.435778 Z-1.000000 I-1.789428 J1.000819
G02 X33.496385 Y25.222586 Z-1.000000 I-88.314034 J74.040685
G03 X33.308982 Y24.977537 Z-1.000000 I2.482713 J-2.092854
G03 X33.155047 Y24.729347 Z-1.000000 I2.393182 J-1.656159
G02 X33.013102 Y24.472890 Z-1.000000 I-227.688349 J125.854208
G02 X32.693950 Y23.897364 Z-1.000000 I-1175.799267 J651.652730
G03 X32.378585 Y23.319841 Z-1.000000 I42.615860 J-23.645915
G03 X32.222778 Y23.020494 Z-1.000000 I11.292325 J-6.067746
G03 X32.138296 Y22.734942 Z-1.000000 I0.746444 J-0.376111
G02 X32.286401 Y22.549451 Z-1.000000 I-0.807015 J-1.080661
G03 X32.575129 Y22.324447 Z-1.000000 I0.222579 J0.210350
G03 X33.123325 Y22.501811 Z-1.000000 I-1.432650 J3.815796
G03 X33.394914 Y22.715729 Z-1.000000 I-0.561769 J1.629620
G02 X33.640457 Y22.829607 Z-1.000000 I1.167503 J-2.195710
G03 X33.931951 Y22.783416 Z-1.000000 I0.447441 J2.909218
G02 X34.125107 Y22.726949 Z-1.000000 I-0.033944 J-0.474705
G02 X34.367537 Y22.676060 Z-1.000000 I0.015122 J-0.082524
G02 X34.215387 Y22.814340 Z-1.000000 I0.048424 J0.024173
G02 X34.167137 Y23.054089 Z-1.000000 I0.341774 J0.133965
G02 X34.356092 Y22.921083 Z-1.000000 I-0.604304 J-0.858624
G03 X34.572286 Y22.730819 Z-1.000000 I1.022882 J0.944322
G02 X34.802165 Y22.641091 Z-1.000000 I-0.039874 J-0.274083
G02 X34.542281 Y22.544102 Z-1.000000 I-0.240374 J0.449222
G03 X34.337080 Y22.503008 Z-1.000000 I0.344983 J-1.316662
G02 X34.077277 Y22.529678 Z-1.000000 I0.011551 J0.112506
G02 X33.736256 Y22.549376 Z-1.000000 I-0.160904 J0.721396
G03 X33.512048 Y22.478906 Z-1.000000 I-0.007711 J-0.367370
G03 X33.029626 Y22.034070 Z-1.000000 I1.687111 J-2.313675
G02 X32.647055 Y21.705243 Z-1.000000 I-2.568392 J2.988272
G03 X32.390953 Y21.504399 Z-1.000000 I2.533967 J-3.494827
G02 X32.196230 Y21.299113 Z-1.000000 I-1.261644 J1.049585
G02 X31.857550 Y20.965743 Z-1.000000 I-13.087914 J12.957657
G03 X31.532892 Y20.628883 Z-1.000000 I4.127141 J-4.302528
G02 X31.395617 Y20.270892 Z-1.000000 I-3.574107 J1.378261
G02 X31.241829 Y20.046928 Z-1.000000 I-0.769425 J0.363554
G02 X31.038919 Y19.897118 Z-1.000000 I-0.530637 J0.506400
G03 X30.816598 Y19.771125 Z-1.000000 I1.090779 J-2.183882
G03 X31.038523 Y19.750009 Z-1.000000 I-0.010815 J0.053096
G02 X31.261382 Y19.939747 Z-1.000000 I0.826844 J-0.971164
G01 X31.455348 Y20.054189 Z-1.000000
G02 X31.319090 Y19.806108 Z-1.000000 I-0.411624 J0.187538
G03 X30.193779 Y18.979903 Z-1.000000 I0.766948 J-2.140356
G03 X29.816737 Y17.846962 Z-1.000000 I1.513619 J-1.132941
G02 X29.265777 Y16.964694 Z-1.000000 I-11.280087 J7.044256
G03 X28.383086 Y15.390737 Z-1.000000 I6.259824 J-4.545060
G03 X28.172606 Y14.336718 Z-1.000000 I2.533855 J-1.054019
G03 X28.074870 Y14.092313 Z-1.000000 I0.101626 J-0.101626
G03 X28.248481 Y13.965919 Z-1.000000 I0.094218 J0.018147
G03 X28.462931 Y14.640452 Z-1.000000 I-1.281555 J0.778791
G03 X28.587089 Y14.838049 Z-1.000000 I-0.516011 J0.058531
G02 X28.644119 Y15.041133 Z-1.000000 I0.067884 J-0.019073
G03 X28.694641 Y14.792824 Z-1.000000 I0.175359 J-0.035070
G03 X28.951790 Y15.018865 Z-1.000000 I-1.213775 J1.091618
G02 X29.173962 Y15.173932 Z-1.000000 I0.311909 J-0.210196
G02 X29.354347 Y14.972776 Z-1.000000 I-0.261261 J-0.139818
G02 X29.323207 Y14.771791 Z-1.000000 I-0.617881 J-0.007171
G03 X29.325007 Y14.524911 Z-1.000000 I0.066881 J0.000490
G03 X29.296912 Y14.229905 Z-1.000000 I0.981253 J-0.429061
G03 X29.110327 Y14.118648 Z-1.000000 I-0.020628 J-0.059255
G03 X28.665766 Y14.087458 Z-1.000000 I0.065611 J-0.488143
G03 X28.706866 Y13.890538 Z-1.000000 I0.068336 J0.014263
G03 X28.574714 Y13.613943 Z-1.000000 I0.580219 J-0.475223
G03 X28.868681 Y13.685682 Z-1.000000 I-0.233460 J0.327968
G02 X29.063720 Y13.875912 Z-1.000000 I0.298282 J-0.305822
G02 X28.896701 Y13.484418 Z-1.000000 I-1.497771 J0.841169
G03 X28.655080 Y13.212287 Z-1.000000 I0.285643 J-0.339286
G02 X28.408147 Y12.866996 Z-1.000000 I-1.070329 J0.902445
G03 X28.233160 Y12.677839 Z-1.000000 I0.280894 J-0.435370
G02 X28.254619 Y12.471021 Z-1.000000 I-0.168700 J-0.090284
G03 X28.062083 Y12.098224 Z-1.000000 I0.694379 J-0.340758
G02 X28.003901 Y11.768110 Z-1.000000 I-1.004560 J0.006868
G02 X27.841984 Y11.480100 Z-1.000000 I-0.919475 J0.327402
G02 X27.622447 Y10.685800 Z-1.000000 I-3.174069 J0.873636
G03 X27.559997 Y10.345097 Z-1.000000 I1.354184 J-0.248208
G02 X27.511230 Y9.968304 Z-1.000000 I-1.692477 J0.027498
G03 X27.394124 Y9.783728 Z-1.000000 I0.130191 J-0.034057
G02 X27.451187 Y9.526349 Z-1.000000 I-0.663624 J-0.055088
G02 X27.383814 Y9.305709 Z-1.000000 I-1.495597 J0.336079
G03 X27.244337 Y8.878668 Z-1.000000 I2.976711 J-0.807709
G02 X27.119777 Y8.197584 Z-1.000000 I-11.709076 J1.789479
G02 X26.964072 Y7.564533 Z-1.000000 I-10.266619 J2.189503
G03 X26.902633 Y7.317752 Z-1.000000 I4.338779 J-1.211235
G02 X26.860686 Y7.045739 Z-1.000000 I-2.169193 J0.241789
G02 X26.726036 Y6.305244 Z-1.000000 I-64.654734 J11.374165
G03 X26.587329 Y5.565344 Z-1.000000 I1246.918846 J-234.139641
G03 X26.500371 Y5.099547 Z-1.000000 I506.783040 J-94.850130
G02 X26.411323 Y4.634251 Z-1.000000 I-46.698185 J8.695876
G02 X26.317185 Y4.294473 Z-1.000000 I-3461.509135 J983.398401
G02 X26.215260 Y4.087804 Z-1.000000 I-0.614774 J0.174726
G02 X25.938024 Y3.784629 Z-1.000000 I-1.630004 J1.212198
G02 X25.646516 Y3.572332 Z-1.000000 I-1.211019 J1.356586
G02 X25.470726 Y3.317054 Z-1.000000 I-0.114183 J0.038057

(End cutting path id: path159)


(Start cutting path id: path159)
(Change tool to Default tool)

G00 X25.405171 Y3.948690


(End cutting path id: path159)


(Start cutting path id: path159)
(Change tool to Default tool)

G00 X24.747519 Y3.619883


(End cutting path id: path159)


(Start cutting path id: path159)
(Change tool to Default tool)

G00 X24.535885 Y3.592483


(End cutting path id: path159)


(Start cutting path id: path159)
(Change tool to Default tool)

G00 X24.515341 Y3.817369

G03 X24.337086 Y3.612711 Z-1.000000 I0.546299 J-0.322308
G03 X24.515341 Y3.817368 Z-1.000000 I-0.995878 J0.731620

(End cutting path id: path159)


(Start cutting path id: path159)
(Change tool to Default tool)

G00 X23.590982 Y3.793433


(End cutting path id: path159)


(Start cutting path id: path159)
(Change tool to Default tool)

G00 X22.884172 Y2.468972


(End cutting path id: path159)


(Start cutting path id: path159)
(Change tool to Default tool)

G00 X21.682577 Y2.845990


(End cutting path id: path159)


(Start cutting path id: path159)
(Change tool to Default tool)

G00 X21.576448 Y3.099256


(End cutting path id: path159)


(Start cutting path id: path159)
(Change tool to Default tool)

G00 X21.200424 Y3.233182

G03 X21.373602 Y3.428248 Z-1.000000 I-0.842279 J0.922176 F3500.000000
G03 X21.126686 Y3.263717 Z-1.000000 I4.739239 J-5.755753
G03 X20.958969 Y3.090097 Z-1.000000 I1.064946 J-1.196556
G03 X21.200424 Y3.233182 Z-1.000000 I-0.989213 J1.428659

(End cutting path id: path159)


(Start cutting path id: path159)
(Change tool to Default tool)

G00 X20.978420 Y3.016193

G02 X21.030750 Y3.314703 Z-1.000000 I0.167916 J-0.029438
G03 X21.146023 Y3.480072 Z-1.000000 I0.028826 J0.046656
G02 X21.356156 Y3.581195 Z-1.000000 I0.029773 J-0.074719
G03 X21.486495 Y3.811122 Z-1.000000 I-0.833421 J0.472420
G02 X21.570063 Y4.050947 Z-1.000000 I1.963189 J-0.549613
G02 X21.522897 Y4.318655 Z-1.000000 I0.708946 J0.093213
G03 X21.530531 Y4.524249 Z-1.000000 I-1.164358 J0.146171
G03 X21.484657 Y5.072215 Z-1.000000 I-8.357302 J-0.423737
G02 X21.426368 Y5.620707 Z-1.000000 I26.228010 J3.064622
G02 X21.412537 Y5.825775 Z-1.000000 I3.643004 J0.348709
G01 X21.360957 Y6.031292 Z-1.000000
G03 X21.310687 Y6.277916 Z-1.000000 I-0.612802 J-0.068139
G02 X21.232040 Y6.646767 Z-1.000000 I2.182450 J0.658156
G03 X21.330597 Y7.442509 Z-1.000000 I-9.081879 J0.812410
G02 X21.361663 Y7.700647 Z-1.000000 I1.143320 J-0.006654
G02 X21.593202 Y7.642924 Z-1.000000 I0.000000 J-0.259379
G02 X21.742164 Y7.343299 Z-1.000000 I-0.479798 J-0.425379
G03 X21.789184 Y8.250874 Z-1.000000 I-4.321872 J-0.137357
G02 X21.724984 Y8.581577 Z-1.000000 I3.624935 J0.875297
G02 X21.707834 Y8.801977 Z-1.000000 I1.588192 J0.234450
G03 X21.685674 Y9.020991 Z-1.000000 I-1.200109 J-0.010798
G03 X21.600875 Y9.350021 Z-1.000000 I-2.801246 J-0.546508
G02 X21.500716 Y9.677093 Z-1.000000 I11.118725 J3.583743
G03 X21.403571 Y9.947523 Z-1.000000 I-0.301362 J-0.065651
G03 X21.104053 Y10.268896 Z-1.000000 I-2.326560 J-1.868077
G02 X20.821413 Y10.584223 Z-1.000000 I1.547177 J1.671132
G02 X20.645628 Y10.736744 Z-1.000000 I-0.033605 J0.105885
G02 X20.286038 Y11.022231 Z-1.000000 I1.409847 J2.145006
G03 X19.921257 Y11.329413 Z-1.000000 I-2.709778 J-2.847697
G03 X19.725437 Y11.438922 Z-1.000000 I-0.519044 J-0.698304
G02 X19.534428 Y11.537666 Z-1.000000 I0.414270 J1.035469
G02 X19.352944 Y11.622956 Z-1.000000 I-0.046404 J0.075085
G02 X19.272566 Y11.864277 Z-1.000000 I0.322074 J0.241321
G02 X19.358840 Y12.097743 Z-1.000000 I0.359028 J-0.000000
G03 X19.597617 Y12.069979 Z-1.000000 I0.839545 J1.536120
G03 X19.911037 Y11.929156 Z-1.000000 I6.382070 J13.784933
G02 X20.202561 Y11.776368 Z-1.000000 I-0.916830 J-2.103853
G02 X21.070660 Y11.417028 Z-1.000000 I-0.000000 J-1.335580
G02 X21.128992 Y11.052676 Z-1.000000 I-0.155509 J-0.211742
G03 X21.064912 Y11.438772 Z-1.000000 I-1.588556 J-0.428433
G03 X20.608137 Y12.175097 Z-1.000000 I-4.343512 J-2.184631
G03 X19.892591 Y12.998709 Z-1.000000 I-6.162084 J-4.630922
G03 X19.391126 Y13.435380 Z-1.000000 I-3.446129 J-3.451200
G03 X18.822303 Y13.809342 Z-1.000000 I-3.086219 J-4.074769
G02 X18.117517 Y14.218460 Z-1.000000 I18.237347 J32.229009
G02 X17.770808 Y14.435289 Z-1.000000 I4.769576 J8.012159
G03 X16.904755 Y14.760693 Z-1.000000 I-1.155862 J-1.761103
G03 X15.951059 Y14.688046 Z-1.000000 I-0.309745 J-2.230036
G02 X15.285355 Y14.596375 Z-1.000000 I-0.629629 J2.109324
G02 X14.335144 Y14.714526 Z-1.000000 I0.073250 J4.469141
G03 X14.009970 Y14.780524 Z-1.000000 I-1.234748 J-5.249597
G03 X14.401494 Y14.192471 Z-1.000000 I1.171973 J0.832046
G02 X14.788975 Y13.875114 Z-1.000000 I-0.913896 J-1.511060
G03 X14.522996 Y14.065019 Z-1.000000 I-0.551780 J-0.209791
G03 X14.307811 Y14.142338 Z-1.000000 I-0.215185 J-0.260779
G02 X14.527031 Y13.346941 Z-1.000000 I-1.664729 J-0.860865
G02 X14.472388 Y12.801715 Z-1.000000 I-1.252820 J-0.149793
G03 X14.422537 Y12.596877 Z-1.000000 I1.252382 J-0.413276
G03 X14.397628 Y12.334555 Z-1.000000 I2.032715 J-0.325360
G02 X14.360826 Y12.132773 Z-1.000000 I-0.686500 J0.020961
G02 X14.317318 Y12.339068 Z-1.000000 I0.421023 J0.014965
G03 X14.347348 Y12.642048 Z-1.000000 I-0.481128 J0.047705
G02 X14.401158 Y12.943598 Z-1.000000 I0.600476 J-0.107172
G03 X14.415188 Y13.185291 Z-1.000000 I-0.121304 J0.007046
G03 X14.265321 Y13.868320 Z-1.000000 I-6.350576 J-1.475534
G03 X14.169407 Y14.108413 Z-1.000000 I-2.044271 J-0.677455
G03 X14.026202 Y14.376083 Z-1.000000 I-2.686724 J-1.265270
G02 X13.880762 Y14.640550 Z-1.000000 I3.266560 J1.968624
G03 X13.681250 Y14.745188 Z-1.000000 I-0.164382 J-0.571176
G03 X13.438949 Y14.567073 Z-1.000000 I0.148764 J-0.202375
G03 X13.348549 Y14.073834 Z-1.000000 I4.540172 J-0.832107
G02 X13.282730 Y13.792472 Z-1.000000 I-1.228594 J0.139026
G02 X13.207651 Y13.996090 Z-1.000000 I0.406930 J0.046229
G03 X13.181991 Y14.232576 Z-1.000000 I-0.213570 J-0.023174
G03 X13.248004 Y14.503246 Z-1.000000 I-0.266797 J0.261960
G02 X13.235224 Y14.741492 Z-1.000000 I0.136705 J-0.013311
G02 X13.421832 Y14.816322 Z-1.000000 I0.043940 J-0.109582
G03 X13.204116 Y14.929317 Z-1.000000 I-0.165940 J-0.207071
G03 X12.755956 Y14.792172 Z-1.000000 I0.169341 J-1.354185
G02 X11.997493 Y14.500227 Z-1.000000 I-1.803962 J3.555432
G02 X12.074056 Y14.874669 Z-1.000000 I0.749679 J-0.168276
G02 X12.324508 Y15.070203 Z-1.000000 I0.524743 J-0.413957
G01 X12.365198 Y15.277291 Z-1.000000
G02 X12.665944 Y15.521614 Z-1.000000 I0.785643 J-0.659816
G02 X12.956582 Y15.598071 Z-1.000000 I0.304968 J-0.568646
G02 X13.367794 Y15.537204 Z-1.000000 I0.027417 J-1.234257
G02 X13.582789 Y15.420935 Z-1.000000 I-0.212640 J-0.650103
G02 X13.609110 Y15.214818 Z-1.000000 I-0.559238 J0.013484
G02 X13.727774 Y14.999083 Z-1.000000 I-0.058439 J-0.184139
G03 X14.168046 Y14.987726 Z-1.000000 I-0.047254 J0.883875
G02 X14.389855 Y15.079954 Z-1.000000 I0.509586 J-0.912712
G02 X14.473071 Y14.885768 Z-1.000000 I-0.492494 J-0.003619
G01 X14.615394 Y15.061602 Z-1.000000
G03 X14.914344 Y14.857819 Z-1.000000 I0.322384 J0.240524
G02 X15.123984 Y14.921588 Z-1.000000 I0.042806 J-0.026457
G01 X15.326252 Y14.870182 Z-1.000000
G02 X15.183746 Y15.102463 Z-1.000000 I0.129105 J0.169971
G02 X14.952288 Y14.938545 Z-1.000000 I-0.118712 J0.118712
G03 X14.931753 Y15.148710 Z-1.000000 I-0.118616 J0.045517
G02 X14.694862 Y15.151454 Z-1.000000 I0.029789 J0.174993
G03 X14.736537 Y15.377668 Z-1.000000 I-0.056064 J0.061333
G02 X14.593451 Y15.621027 Z-1.000000 I0.362159 J0.335786
G01 X14.811506 Y15.632030 Z-1.000000
G03 X14.868620 Y15.425217 Z-1.000000 I0.063005 J0.038938
G03 X15.121657 Y15.348006 Z-1.000000 I0.085649 J0.199667
G03 X15.440884 Y15.418607 Z-1.000000 I0.000000 J0.757008
G02 X15.701184 Y15.752083 Z-1.000000 I1.739877 J-1.476470
G01 X15.916688 Y15.825193 Z-1.000000
G03 X15.808621 Y15.585149 Z-1.000000 I0.055498 J-0.038872
G01 X15.993012 Y15.493099 Z-1.000000
G01 X16.225997 Y15.265807 Z-1.000000
G03 X16.142307 Y15.530065 Z-1.000000 I-0.578443 J-0.148065
G03 X16.918042 Y15.647302 Z-1.000000 I0.028427 J5.581057
G03 X17.131926 Y15.657866 Z-1.000000 I0.031725 J0.078687
G02 X17.309360 Y15.525254 Z-1.000000 I-0.004960 J-0.128147
G03 X16.946853 Y15.538471 Z-1.000000 I-0.790976 J-2.093564
G03 X16.621402 Y15.556466 Z-1.000000 I-0.237701 J-1.347009
G02 X16.977236 Y15.314664 Z-1.000000 I-0.061717 J-0.827359
G03 X17.040955 Y15.122177 Z-1.000000 I0.074671 J-0.019531
G02 X17.269354 Y15.282607 Z-1.000000 I0.153953 J-0.282014
G03 X17.454056 Y15.201667 Z-1.000000 I0.027046 J0.052359
G03 X17.683317 Y15.828289 Z-1.000000 I-7.990660 J1.313512
G01 X17.714970 Y16.171600 Z-1.000000
G01 X17.386643 Y16.321557 Z-1.000000
G02 X17.099795 Y16.502921 Z-1.000000 I0.522376 J1.143724
G02 X17.042105 Y16.730952 Z-1.000000 I0.273409 J0.042390
G02 X17.178914 Y17.078777 Z-1.000000 I0.507446 J-0.133293
G03 X17.434397 Y17.162465 Z-1.000000 I0.023906 J0.091426
G02 X17.420404 Y17.410656 Z-1.000000 I0.127913 J0.068458
G03 X17.611097 Y17.223541 Z-1.000000 I0.071500 J-0.038268
G01 X17.749877 Y17.369513 Z-1.000000
G02 X17.971942 Y17.444017 Z-1.000000 I-0.005991 J-0.082666
G03 X17.869443 Y17.226370 Z-1.000000 I-0.000000 J-0.068817
G03 X17.868691 Y16.866696 Z-1.000000 I0.435815 J0.000000
G02 X18.209013 Y16.770435 Z-1.000000 I-0.000000 J-0.712149
G02 X18.375649 Y16.636989 Z-1.000000 I-0.156355 J-0.366007
G02 X18.296425 Y16.431381 Z-1.000000 I-0.216385 J-0.216385
G02 X18.321023 Y16.193533 Z-1.000000 I-0.090742 J-0.012276
G02 X18.129866 Y16.264414 Z-1.000000 I0.013243 J0.107876
G03 X17.906392 Y16.390747 Z-1.000000 I-0.547357 J-0.707411
G03 X18.064448 Y16.230268 Z-1.000000 I1.717292 J2.474502
G01 X18.259350 Y16.115273 Z-1.000000
G01 X18.105551 Y15.975321 Z-1.000000
G01 X17.951752 Y15.835370 Z-1.000000
G02 X18.285246 Y15.965647 Z-1.000000 I0.232823 J-0.481145
G03 X18.527198 Y15.898790 Z-1.000000 I0.075252 J0.248207
G03 X18.617269 Y16.079114 Z-1.000000 I0.008099 J0.062281
G01 X18.661273 Y15.866029 Z-1.000000
G01 X18.891965 Y15.923351 Z-1.000000
G02 X19.128873 Y15.858455 Z-1.000000 I-0.407144 J-0.958272
G02 X19.293768 Y15.645658 Z-1.000000 I-0.266677 J-0.376934
G01 X19.130043 Y15.521508 Z-1.000000
G03 X19.361401 Y15.534368 Z-1.000000 I-0.010820 J0.194781
G02 X19.582179 Y15.407869 Z-1.000000 I-0.073982 J-0.129113
G02 X19.804266 Y15.196602 Z-1.000000 I-0.136691 J-0.168585
G03 X20.044035 Y14.923839 Z-1.000000 I0.531142 J0.466904
G03 X20.060397 Y14.688018 Z-1.000000 I0.071887 J0.025126
G03 X20.297223 Y14.598326 Z-1.000000 I0.084032 J0.051929
G02 X20.529097 Y14.452099 Z-1.000000 I0.000000 J-0.148628
G02 X20.423544 Y14.273846 Z-1.000000 I-0.165329 J-0.022479
G03 X20.632287 Y14.363837 Z-1.000000 I-0.307620 J0.285091
G03 X20.646382 Y14.036697 Z-1.000000 I1.436502 J-0.194140
G02 X20.537388 Y13.741075 Z-1.000000 I-0.313438 J0.115571
G01 X20.434268 Y13.923055 Z-1.000000
G03 X20.452902 Y13.605319 Z-1.000000 I0.287196 J0.027693
G02 X20.672800 Y13.457218 Z-1.000000 I-0.098648 J-0.130722
G01 X20.646056 Y13.666491 Z-1.000000
G03 X20.794455 Y13.921402 Z-1.000000 I-0.213865 J0.200916
G02 X20.959300 Y13.782215 Z-1.000000 I-0.000000 J-0.051982
G03 X20.941635 Y13.465081 Z-1.000000 I0.624619 J-0.179540
G02 X21.197777 Y13.390021 Z-1.000000 I0.031750 J-0.119093
G01 X21.396874 Y13.457201 Z-1.000000
G01 X21.212645 Y13.597451 Z-1.000000
G02 X21.178650 Y13.846126 Z-1.000000 I0.465769 J0.305193
G03 X21.500903 Y13.866334 Z-1.000000 I0.143671 J0.483388
G02 X21.355659 Y14.402035 Z-1.000000 I2.191061 J0.944928
G03 X21.248092 Y14.826050 Z-1.000000 I-22.432070 J-5.465084
G03 X21.131092 Y15.107174 Z-1.000000 I-0.393497 J-0.345114
G03 X21.301508 Y15.256752 Z-1.000000 I0.021724 J0.056622
G02 X21.054896 Y15.353005 Z-1.000000 I-0.028414 J0.251618
G01 X20.940275 Y15.551071 Z-1.000000
G01 X20.718059 Y15.868548 Z-1.000000
G02 X20.749573 Y15.597803 Z-1.000000 I-0.213412 J-0.048403
G03 X20.632379 Y15.767920 Z-1.000000 I-0.142649 J0.012104
G02 X20.393297 Y15.757533 Z-1.000000 I0.079489 J0.469167
G03 X20.026306 Y15.643202 Z-1.000000 I0.005240 J-0.194076
G03 X20.228183 Y15.098855 Z-1.000000 I0.876278 J0.015369
G02 X19.979539 Y15.054060 Z-1.000000 I-0.026066 J0.099495
G03 X20.079782 Y15.580765 Z-1.000000 I-1.620978 J0.485474
G03 X20.041088 Y15.857188 Z-1.000000 I-0.746082 J0.036482
G03 X19.812034 Y15.991992 Z-1.000000 I-0.311204 J-0.765673
G02 X19.447493 Y16.049795 Z-1.000000 I0.052401 J0.759104
G01 X19.815121 Y16.054518 Z-1.000000
G01 X19.634924 Y16.155830 Z-1.000000
G01 X19.486688 Y16.308321 Z-1.000000
G02 X19.181583 Y16.360153 Z-1.000000 I-0.030936 J0.707957
G03 X19.064306 Y16.597436 Z-1.000000 I-0.202013 J-0.080797
G03 X19.321787 Y16.518230 Z-1.000000 I0.256424 J0.339059
G02 X19.538842 Y16.646073 Z-1.000000 I-0.000000 J-0.315617
G03 X19.766049 Y16.528490 Z-1.000000 I0.323034 J0.470429
G03 X20.011734 Y16.519310 Z-1.000000 I0.020241 J0.109817
G03 X20.032134 Y16.797970 Z-1.000000 I-0.417673 J0.000000
G02 X19.639981 Y16.940132 Z-1.000000 I-0.000000 J0.595757
G02 X19.515741 Y17.168428 Z-1.000000 I0.175564 J0.243497
G02 X19.862981 Y16.997701 Z-1.000000 I-0.571885 J-1.163149
G01 X20.020403 Y16.855023 Z-1.000000
G02 X19.993233 Y17.172807 Z-1.000000 I0.608059 J0.083981
G02 X20.108229 Y17.455767 Z-1.000000 I1.530624 J-0.262827
G02 X19.801514 Y17.567233 Z-1.000000 I-1.399794 J6.035122
G01 X19.809925 Y17.767763 Z-1.000000
G01 X20.024009 Y17.854621 Z-1.000000
G03 X20.280992 Y17.979734 Z-1.000000 I-0.217595 J0.198380
G03 X20.340064 Y18.250977 Z-1.000000 I-0.059915 J0.059915
G03 X19.998981 Y18.440222 Z-1.000000 I-0.574966 J-0.634285
G03 X19.650735 Y18.539093 Z-1.000000 I-867.840700 J-3056.358036
G01 X19.494105 Y18.710450 Z-1.000000
G02 X18.972717 Y18.703161 Z-1.000000 I-0.011845 J2.946518
G02 X18.626325 Y18.797446 Z-1.000000 I0.214454 J1.471328
G02 X18.219798 Y18.821984 Z-1.000000 I-0.379613 J2.596753
G02 X17.956395 Y18.849048 Z-1.000000 I-0.036674 J0.938402
G02 X17.793566 Y19.010259 Z-1.000000 I0.262017 J0.224367
G02 X18.789389 Y19.022400 Z-1.000000 I-0.127772 J-9.216299
G02 X19.531053 Y18.909956 Z-1.000000 I-0.853286 J-8.130331
G02 X19.777423 Y18.870050 Z-1.000000 I-0.028117 J-0.113270
G02 X19.970233 Y18.999255 Z-1.000000 I0.374364 J-0.093966
G02 X19.761156 Y19.036513 Z-1.000000 I-0.501325 J0.538078
G01 X19.674356 Y19.219443 Z-1.000000
G03 X19.746221 Y19.467531 Z-1.000000 I-0.204569 J0.134034
G03 X19.677540 Y19.717634 Z-1.000000 I-0.666948 J-0.048668
G02 X19.430229 Y20.368335 Z-1.000000 I3.119644 J1.558026
G02 X19.411038 Y20.706587 Z-1.000000 I0.797535 J0.214919
G03 X19.400988 Y20.943998 Z-1.000000 I-0.615038 J0.092883
G02 X19.210669 Y21.050720 Z-1.000000 I-0.047864 J0.077444
G02 X19.385738 Y21.383379 Z-1.000000 I0.483893 J-0.042263
G03 X19.433215 Y21.066578 Z-1.000000 I0.907732 J-0.145996
G02 X19.560532 Y20.787241 Z-1.000000 I-1.617806 J-0.667732
G03 X19.627650 Y20.527447 Z-1.000000 I18.553386 J4.654674
G02 X19.704662 Y20.185389 Z-1.000000 I-8.032746 J-1.691432
G03 X19.764002 Y19.992537 Z-1.000000 I0.831718 J0.150360
G03 X19.906742 Y19.831785 Z-1.000000 I0.108022 J-0.000000
G02 X20.172227 Y19.836041 Z-1.000000 I0.058541 J-0.109385
G02 X20.416871 Y19.633223 Z-1.000000 I-0.431095 J-0.768956
G03 X20.131430 Y19.506905 Z-1.000000 I-0.070413 J-0.388258
G03 X20.191513 Y19.227531 Z-1.000000 I0.908939 J0.688294
G02 X20.352114 Y18.973649 Z-1.000000 I-0.329903 J-0.208682
G03 X20.066849 Y18.929299 Z-1.000000 I0.006082 J-0.184551
G03 X20.198760 Y18.743705 Z-1.000000 I0.994476 J71.295703
G03 X20.431678 Y18.740918 Z-1.000000 I5.584590 J457.037571
G02 X20.596091 Y18.516789 Z-1.000000 I-0.085312 J-0.062586
G03 X20.462324 Y18.262236 Z-1.000000 I1.212071 J-0.636892
G03 X20.633374 Y18.441994 Z-1.000000 I-0.447306 J0.425641
G03 X20.679416 Y18.679641 Z-1.000000 I-0.655161 J0.250216
G02 X20.585533 Y18.953152 Z-1.000000 I0.308146 J0.201901
G03 X20.582208 Y19.257070 Z-1.000000 I-0.308311 J0.061659
G02 X20.365134 Y19.305646 Z-1.000000 I0.031943 J0.051680
G01 X20.565374 Y19.377304 Z-1.000000
G03 X20.712627 Y19.859416 Z-1.000000 I-0.379437 J0.379437
G03 X20.402579 Y20.212358 Z-1.000000 I-0.457417 J-0.089171
G03 X20.378274 Y20.439686 Z-1.000000 I-0.217721 J0.056940
G02 X20.304359 Y20.657478 Z-1.000000 I0.064937 J0.016226
G03 X20.258059 Y20.947601 Z-1.000000 I-1.457956 J-0.232970
G02 X20.189319 Y21.186847 Z-1.000000 I2.775348 J0.926912
G03 X20.018962 Y21.610096 Z-1.000000 I-0.391136 J-0.042024
G03 X19.552182 Y21.844342 Z-1.000000 I-0.759103 J-0.930461
G02 X19.341924 Y21.605351 Z-1.000000 I-0.148659 J0.000785
G02 X19.268678 Y21.826137 Z-1.000000 I0.776446 J0.126441
G02 X19.239680 Y22.082381 Z-1.000000 I0.287734 J0.120786
G03 X19.184870 Y22.280665 Z-1.000000 I-0.074948 J-0.020715
G03 X18.822819 Y22.406505 Z-1.000000 I0.016986 J-0.884339
G02 X18.516080 Y22.322352 Z-1.000000 I-0.880255 J2.607421
G03 X18.809539 Y22.514505 Z-1.000000 I-0.118113 J0.533915
G03 X18.558192 Y22.528589 Z-1.000000 I0.261739 J-1.106458
G03 X18.359573 Y22.582039 Z-1.000000 I-0.041744 J-0.045333
G02 X17.917002 Y22.752253 Z-1.000000 I0.705490 J1.289579
G03 X17.584620 Y22.940272 Z-1.000000 I-0.464702 J-0.433702
G03 X17.179921 Y22.909125 Z-1.000000 I-0.149490 J-0.702395
G01 X17.372280 Y23.079071 Z-1.000000
G02 X16.975882 Y23.240864 Z-1.000000 I0.079393 J0.741610
G02 X17.261435 Y23.235961 Z-1.000000 I-0.376430 J-1.448007
G03 X17.500262 Y23.141081 Z-1.000000 I1.227471 J2.741688
G02 X17.938647 Y22.910869 Z-1.000000 I-2.077071 J-3.538113
G03 X18.397862 Y22.718618 Z-1.000000 I0.649675 J0.907258
G03 X18.742217 Y22.771672 Z-1.000000 I0.093291 J0.538558
G01 X18.952092 Y22.815737 Z-1.000000
G03 X18.770963 Y23.022261 Z-1.000000 I-0.771914 J-0.835861
G02 X18.607153 Y23.146187 Z-1.000000 I0.574625 J0.929784
G02 X18.856073 Y23.027052 Z-1.000000 I-0.902525 J-1.543965
G03 X19.055174 Y22.892830 Z-1.000000 I0.898800 J1.118472
G03 X19.559167 Y23.035719 Z-1.000000 I0.010905 J0.690347
G03 X19.759107 Y23.237344 Z-1.000000 I-0.221427 J0.419524
G02 X19.926145 Y23.404112 Z-1.000000 I0.064546 J-0.064650
G03 X19.774026 Y23.602995 Z-1.000000 I-0.130447 J-0.369307
G02 X19.987551 Y23.652695 Z-1.000000 I0.001687 J-0.302904
G02 X20.179707 Y23.536585 Z-1.000000 I-0.131413 J-0.080130
G03 X20.267017 Y23.181866 Z-1.000000 I1.222173 J0.300837
G02 X20.387729 Y22.723672 Z-1.000000 I-1.630388 J-0.674525
G02 X20.418982 Y21.951825 Z-1.000000 I-4.654595 J-0.575029
G03 X20.439918 Y21.572054 Z-1.000000 I1.961078 J-0.082355
G03 X20.590873 Y20.830567 Z-1.000000 I7.677909 J1.176996
G03 X20.787339 Y20.097758 Z-1.000000 I29.694528 J7.568355
G02 X20.913961 Y20.255465 Z-1.000000 I0.261546 J-0.068411
G02 X20.862745 Y20.480668 Z-1.000000 I0.138874 J0.249358
G02 X20.960200 Y20.755024 Z-1.000000 I0.354244 J-0.000000
G03 X20.996357 Y20.524329 Z-1.000000 I0.256792 J-0.158714
G03 X21.176699 Y20.337311 Z-1.000000 I0.289839 J0.099031
G03 X20.909827 Y20.068555 Z-1.000000 I0.092656 J-0.355961
G03 X20.858011 Y19.715745 Z-1.000000 I0.470813 J-0.249357
G02 X20.921881 Y19.389709 Z-1.000000 I-65.478811 J-12.826819
G02 X21.018771 Y19.180887 Z-1.000000 I-0.050575 J-0.013842
G03 X21.218294 Y18.553945 Z-1.000000 I4.491684 J1.429442
G03 X21.455246 Y18.233402 Z-1.000000 I0.888931 J0.409266
G02 X21.738900 Y18.170306 Z-1.000000 I-0.123294 J-0.357641
G02 X21.957169 Y18.008776 Z-1.000000 I-0.022970 J-0.127278
G03 X22.167644 Y17.754154 Z-1.000000 I4.233585 J3.499646
G01 X22.236395 Y17.560160 Z-1.000000
G02 X22.706397 Y17.033128 Z-1.000000 I-2.826733 J-2.292032
G02 X23.248106 Y15.979482 Z-1.000000 I-9.981812 J-5.798003
G02 X23.308902 Y15.696705 Z-1.000000 I-0.627231 J-0.282777
G02 X23.381652 Y15.493370 Z-1.000000 I-0.252344 J-0.100234
G03 X23.426545 Y15.011990 Z-1.000000 I4.245189 J0.153123
G03 X23.489182 Y14.781949 Z-1.000000 I1.019185 J0.153959
G03 X23.658903 Y14.632593 Z-1.000000 I0.241872 J0.274870
G03 X23.807266 Y14.435040 Z-1.000000 I0.120728 J0.000000
G02 X24.117258 Y14.438626 Z-1.000000 I0.927037 J-1.439114
G03 X24.066701 Y14.153541 Z-1.000000 I0.636733 J0.044762
G02 X24.263664 Y14.051685 Z-1.000000 I0.057077 J-0.068772
G02 X23.851982 Y14.172633 Z-1.000000 I0.566600 J0.904075
G03 X23.568698 Y14.338879 Z-1.000000 I-0.393898 J-0.346723
G01 X23.366747 Y14.429545 Z-1.000000
G03 X23.367445 Y14.940795 Z-1.000000 I-1.142619 J0.260887
G03 X23.067796 Y15.964403 Z-1.000000 I-5.597690 J-1.082993
G01 X22.931156 Y16.134092 Z-1.000000
G03 X22.483129 Y17.188567 Z-1.000000 I-3.371761 J-0.930999
G03 X22.248239 Y17.320811 Z-1.000000 I-0.234890 J-0.142482
G03 X22.001751 Y17.626410 Z-1.000000 I-1.004795 J-0.851365
G02 X21.806278 Y17.788800 Z-1.000000 I7.114929 J8.763239
G03 X21.639951 Y17.904614 Z-1.000000 I-0.117718 J-0.124447
G03 X21.537496 Y18.116434 Z-1.000000 I-0.105925 J0.113695
G03 X21.349861 Y18.034402 Z-1.000000 I0.125205 J-0.153092
G02 X21.116741 Y17.594869 Z-1.000000 I-0.833539 J0.160505
G02 X20.883431 Y17.567666 Z-1.000000 I-0.133836 J0.133751
G02 X20.912531 Y17.869957 Z-1.000000 I0.257996 J-0.024843
G03 X21.248465 Y17.951751 Z-1.000000 I-2.157352 J2.700970
G02 X21.048185 Y18.099920 Z-1.000000 I0.050859 J0.067558
G02 X20.816185 Y18.254497 Z-1.000000 I0.151561 J0.209718
G03 X20.803630 Y18.011647 Z-1.000000 I0.213509 J0.061457
G03 X20.604391 Y18.048956 Z-1.000000 I-0.081286 J-0.089816
G03 X20.410231 Y17.778093 Z-1.000000 I0.301367 J-0.244033
G02 X20.734081 Y17.448114 Z-1.000000 I-0.180977 J-0.471595
G02 X20.439401 Y17.389485 Z-1.000000 I0.000000 J0.378607
G03 X20.181919 Y17.322321 Z-1.000000 I0.118031 J-0.307579
G03 X20.216908 Y17.124929 Z-1.000000 I0.176485 J-0.070514
G02 X20.180078 Y16.797370 Z-1.000000 I-0.235225 J0.013629
G02 X20.251755 Y16.583681 Z-1.000000 I-0.117261 J-0.141300
G03 X20.288018 Y16.357440 Z-1.000000 I0.082940 J0.021295
G02 X20.376088 Y16.548058 Z-1.000000 I0.189691 J-0.063613
G03 X20.412627 Y16.304371 Z-1.000000 I0.429870 J-0.094432
G02 X20.722581 Y16.171693 Z-1.000000 I-0.000000 J-0.422419
G03 X20.774522 Y15.697784 Z-1.000000 I0.218621 J-0.135128
G03 X21.192096 Y15.512348 Z-1.000000 I0.417574 J0.377439
G02 X21.419525 Y15.390435 Z-1.000000 I0.000000 J-0.273091
G02 X21.541437 Y14.986811 Z-1.000000 I-0.607200 J-0.403624
G03 X21.580875 Y14.771827 Z-1.000000 I0.605680 J-0.000000
G03 X21.821439 Y14.614789 Z-1.000000 I0.162440 J0.231915
G02 X22.010142 Y14.720559 Z-1.000000 I-0.000000 J-0.080030
G02 X21.905528 Y14.499660 Z-1.000000 I-0.083316 J-0.000000
G03 X21.795514 Y14.294606 Z-1.000000 I0.174599 J-0.070158
G03 X21.635756 Y14.513747 Z-1.000000 I-0.092287 J0.003598
G02 X21.567974 Y14.302517 Z-1.000000 I-0.173619 J-0.092914
G02 X21.817888 Y14.177632 Z-1.000000 I0.077341 J-0.724338
G03 X22.019665 Y14.189530 Z-1.000000 I-0.103669 J0.193706
G02 X21.894772 Y14.366252 Z-1.000000 I0.064576 J-0.000427
G02 X22.073812 Y14.493053 Z-1.000000 I0.153458 J-0.041990
G02 X22.089435 Y14.717698 Z-1.000000 I0.178808 J0.107293
G02 X22.557010 Y12.936556 Z-1.000000 I-23.741075 J-5.217737
G03 X22.649278 Y12.306910 Z-1.000000 I49.845471 J6.982778
G03 X22.770844 Y11.539045 Z-1.000000 I74.078510 J11.334286
G02 X22.888747 Y10.770972 Z-1.000000 I-38.831759 J-6.353960
G03 X22.938630 Y10.313627 Z-1.000000 I2.218793 J0.109297
G03 X23.157299 Y9.237261 Z-1.000000 I30.023853 J5.539096
G02 X23.411645 Y7.922091 Z-1.000000 I-23.883101 J-5.301024
G02 X23.510980 Y7.095453 Z-1.000000 I-9.324993 J-1.539851
G02 X23.559373 Y6.332273 Z-1.000000 I-31.234280 J-2.363678
G02 X23.568930 Y5.962699 Z-1.000000 I-7.307892 J-0.373890
G03 X23.605721 Y5.629358 Z-1.000000 I1.536873 J0.000926
G03 X23.610778 Y5.381629 Z-1.000000 I0.052808 J-0.072224
G03 X23.669400 Y5.110956 Z-1.000000 I0.925767 J0.058817
G02 X23.730303 Y4.858315 Z-1.000000 I-0.962375 J-0.365656
G01 X23.570246 Y4.986748 Z-1.000000
G03 X23.465302 Y4.671763 Z-1.000000 I0.907815 J-0.477433
G03 X23.439129 Y4.330159 Z-1.000000 I2.050722 J-0.328924
G02 X23.481266 Y4.078513 Z-1.000000 I-0.174835 J-0.079663
G03 X23.318802 Y3.846471 Z-1.000000 I0.711721 J-0.711721
G02 X23.049194 Y3.815638 Z-1.000000 I-0.113286 J0.089111
G03 X22.911559 Y3.666046 Z-1.000000 I0.216979 J-0.090820
G02 X22.750880 Y3.385816 Z-1.000000 I-1.025277 J0.587884
G03 X22.609972 Y3.192440 Z-1.000000 I0.991463 J-0.870480
G02 X22.500011 Y2.927913 Z-1.000000 I-0.447959 J0.112417
G01 X22.349654 Y3.085471 Z-1.000000
G02 X22.130721 Y3.044817 Z-1.000000 I-0.249162 J0.174495
G02 X21.922962 Y2.980598 Z-1.000000 I-0.069463 J0.042931
G03 X21.738374 Y3.058061 Z-1.000000 I-0.008058 J-0.077616
G02 X21.513344 Y3.188511 Z-1.000000 I-0.408472 J1.526147
G02 X21.353898 Y3.009988 Z-1.000000 I-0.063793 J0.000434
G02 X21.100987 Y2.976141 Z-1.000000 I-0.066263 J-0.000000

(End cutting path id: path159)


(Start cutting path id: path159)
(Change tool to Default tool)

G00 X20.666335 Y3.169692

G02 X20.746915 Y3.366642 Z-1.000000 I0.315853 J-0.014268 F3500.000000
G02 X20.678895 Y3.162660 Z-1.000000 I-0.541454 J0.550216

(End cutting path id: path159)


(Start cutting path id: path159)
(Change tool to Default tool)

G00 X20.106274 Y3.712133


(End cutting path id: path159)


(Start cutting path id: path159)
(Change tool to Default tool)

G00 X19.484599 Y2.965003


(End cutting path id: path159)


(Start cutting path id: path159)
(Change tool to Default tool)

G00 X18.763505 Y2.957703

G02 X18.486812 Y3.007661 Z-1.000000 I0.288667 J2.389994 F3500.000000
G03 X18.627624 Y3.154053 Z-1.000000 I-0.063855 J0.089974
G02 X18.757500 Y3.384437 Z-1.000000 I0.381699 J-0.063378
G02 X19.075121 Y3.537656 Z-1.000000 I0.447708 J-0.522270
G02 X19.287706 Y3.558736 Z-1.000000 I0.056124 J-0.020048
G03 X19.247454 Y3.344317 Z-1.000000 I0.205188 J-0.170279
G02 X19.419260 Y3.469972 Z-1.000000 I0.170175 J-0.091077
G03 X19.627799 Y3.600626 Z-1.000000 I-0.196243 J0.221420
G03 X19.867488 Y3.532157 Z-1.000000 I0.366316 J0.248459
G02 X19.840339 Y3.194240 Z-1.000000 I-0.264713 J-0.000000
G02 X19.632564 Y3.290708 Z-1.000000 I-0.058371 J0.146270
G01 X19.458899 Y3.181458 Z-1.000000
G02 X19.372669 Y2.993672 Z-1.000000 I-0.112940 J-0.000000
G03 X19.120858 Y2.942801 Z-1.000000 I0.052949 J-0.487303
G02 X18.763510 Y2.957701 Z-1.000000 I0.150429 J3.614347

(End cutting path id: path159)


(Start cutting path id: path159)
(Change tool to Default tool)

G00 X17.540743 Y3.202972


(End cutting path id: path159)


(Start cutting path id: path159)
(Change tool to Default tool)

G00 X17.301220 Y3.152792


(End cutting path id: path159)


(Start cutting path id: path159)
(Change tool to Default tool)

G00 X15.133679 Y1.569291


(End cutting path id: path159)


(Start cutting path id: path159)
(Change tool to Default tool)

G00 X14.636113 Y1.427720


(End cutting path id: path159)


(Start cutting path id: path159)
(Change tool to Default tool)

G00 X13.310530 Y3.164092


(End cutting path id: path159)


(Start cutting path id: path159)
(Change tool to Default tool)

G00 X12.882371 Y3.258582

G02 X13.017163 Y3.477098 Z-1.000000 I0.244519 J-0.000000 F3500.000000
G02 X13.244516 Y3.440404 Z-1.000000 I0.088267 J-0.175780
G02 X12.983185 Y3.184813 Z-1.000000 I-0.373756 J0.243665

(End cutting path id: path159)


(Start cutting path id: path159)
(Change tool to Default tool)

G00 X10.816793 Y3.489873

G02 X11.036010 Y3.545473 Z-1.000000 I0.025292 J-0.099718
G02 X10.786100 Y3.415853 Z-1.000000 I-0.127477 J0.306591

(End cutting path id: path159)


(Start cutting path id: path159)
(Change tool to Default tool)

G00 X10.388772 Y3.345842

G01 X10.598481 Y3.378707 Z-1.000000
G02 X10.388772 Y3.295732 Z-1.000000 I-0.095037 J0.363795

(End cutting path id: path159)


(Start cutting path id: path159)
(Change tool to Default tool)

G00 X9.032366 Y2.834119


(End cutting path id: path159)


(Start cutting path id: path159)
(Change tool to Default tool)

G00 X10.966802 Y1.674333

G01 X11.097685 Y1.860560 Z-1.000000
G02 X10.982783 Y1.665681 Z-1.000000 I-0.194957 J0.147493

(End cutting path id: path159)


(Start cutting path id: path159)
(Change tool to Default tool)

G00 X5.569538 Y2.134427

G01 X5.787551 Y2.164976 Z-1.000000
G02 X5.990285 Y2.275455 Z-1.000000 I0.068507 J-0.260738
G01 X6.162920 Y2.173668 Z-1.000000
G02 X5.643625 Y2.093418 Z-1.000000 I-0.426777 J2.063143

(End cutting path id: path159)


(Start cutting path id: path159)
(Change tool to Default tool)

G00 X5.264565 Y2.467072

G02 X5.516076 Y2.633413 Z-1.000000 I0.193353 J-0.292362
G02 X5.311008 Y2.432380 Z-1.000000 I-0.235427 J0.213058

(End cutting path id: path159)


(Start cutting path id: path159)
(Change tool to Default tool)

G00 X0.660998 Y1.484237


(End cutting path id: path159)


(Start cutting path id: path159)
(Change tool to Default tool)

G00 X-1.914808 Y1.318111


(End cutting path id: path159)


(Start cutting path id: path159)
(Change tool to Default tool)

G00 X7.794220 Y7.675412


(End cutting path id: path159)


(Start cutting path id: path159)
(Change tool to Default tool)

G00 X7.871297 Y7.965499


(End cutting path id: path159)


(Start cutting path id: path159)
(Change tool to Default tool)

G00 X7.986079 Y8.344041


(End cutting path id: path159)


(Start cutting path id: path159)
(Change tool to Default tool)

G00 X8.059588 Y9.004410


(End cutting path id: path159)


(Start cutting path id: path159)
(Change tool to Default tool)

G00 X8.462127 Y9.419766

G03 X8.534000 Y9.628600 Z-1.000000 I-0.208239 J0.188454 F3500.000000
G02 X8.387954 Y9.783098 Z-1.000000 I0.020418 J0.078092
G02 X8.191405 Y9.900577 Z-1.000000 I0.001625 J0.283649
G02 X8.009000 Y10.036218 Z-1.000000 I0.369988 J0.688015
G01 X7.822136 Y10.126669 Z-1.000000
G02 X7.760219 Y10.317133 Z-1.000000 I0.269447 J0.107700
G03 X7.965312 Y10.319724 Z-1.000000 I-0.056705 J0.083091
G03 X8.095820 Y10.120869 Z-1.000000 I0.251953 J0.018978
G02 X8.309627 Y10.029246 Z-1.000000 I-0.443482 J-1.005304
G03 X8.717245 Y9.891823 Z-1.000000 I0.464570 J0.704746
G03 X8.717241 Y10.183790 Z-1.000000 I-0.595468 J-0.344381
G03 X8.708148 Y10.421878 Z-1.000000 I-0.135882 J0.061187
G03 X8.580229 Y10.607537 Z-1.000000 I-0.194873 J-0.134265
G03 X8.735821 Y10.816921 Z-1.000000 I0.020696 J0.628359
G02 X8.864991 Y11.057628 Z-1.000000 I0.466406 J-0.254868
G01 X8.851145 Y10.847214 Z-1.000000
G03 X9.056401 Y10.806114 Z-1.000000 I0.169567 J0.986877
G03 X8.939102 Y10.573789 Z-1.000000 I0.160725 J-0.172523
G03 X8.985829 Y10.171549 Z-1.000000 I2.494091 J0.490024
G02 X9.048451 Y9.701096 Z-1.000000 I-0.403441 J-0.161240
G01 X8.858160 Y9.572507 Z-1.000000
G03 X8.555632 Y9.431947 Z-1.000000 I0.100327 J-0.297134

(End cutting path id: path159)


(Start cutting path id: path159)
(Change tool to Default tool)

G00 X7.442126 Y9.983996


(End cutting path id: path159)


(Start cutting path id: path159)
(Change tool to Default tool)

G00 X7.533394 Y10.374530


(End cutting path id: path159)


(Start cutting path id: path159)
(Change tool to Default tool)

G00 X7.237523 Y10.525240


(End cutting path id: path159)


(Start cutting path id: path159)
(Change tool to Default tool)

G00 X6.943682 Y10.278620


(End cutting path id: path159)


(Start cutting path id: path159)
(Change tool to Default tool)

G00 X7.774252 Y10.781803

G02 X7.782932 Y10.983564 Z-1.000000 I0.350261 J-0.015066
G02 X7.844364 Y10.750913 Z-1.000000 I-0.182575 J0.026468

(End cutting path id: path159)


(Start cutting path id: path159)
(Change tool to Default tool)

G00 X8.337937 Y11.269666


(End cutting path id: path159)


(Start cutting path id: path159)
(Change tool to Default tool)

G00 X8.736961 Y11.155884

G03 X8.854869 Y11.362278 Z-1.000000 I-0.031505 J0.082099
G02 X8.908601 Y11.578192 Z-1.000000 I0.146386 J0.000000
G03 X8.930000 Y11.318488 Z-1.000000 I0.491658 J-0.213899
G02 X8.840925 Y11.113466 Z-1.000000 I-0.350504 J0.208415

(End cutting path id: path159)


(Start cutting path id: path159)
(Change tool to Default tool)

G00 X9.038954 Y11.155490

G02 X9.016289 Y11.576830 Z-1.000000 I1.981454 J0.317866 F3500.000000
G03 X9.184049 Y11.752317 Z-1.000000 I0.000000 J0.109084
G02 X9.149730 Y11.975883 Z-1.000000 I0.000000 J0.065825
G02 X9.271272 Y12.145670 Z-1.000000 I0.263861 J-0.060487
G03 X9.621593 Y12.420727 Z-1.000000 I-1.134032 J1.138529
G02 X9.783039 Y12.694676 Z-1.000000 I3.813916 J-2.063096
G02 X9.754091 Y12.391790 Z-1.000000 I-4.173504 J0.600530
G02 X9.652071 Y12.140745 Z-1.000000 I-0.762051 J0.163432
G03 X9.415498 Y11.970071 Z-1.000000 I0.101927 J-0.292395
G03 X9.291370 Y11.782818 Z-1.000000 I0.511722 J-0.473982
G02 X9.180927 Y11.586496 Z-1.000000 I-1.157688 J0.522047
G02 X9.132022 Y11.269523 Z-1.000000 I-0.476408 J-0.100081

(End cutting path id: path159)


(Start cutting path id: path159)
(Change tool to Default tool)

G00 X9.046067 Y10.963675


(End cutting path id: path159)


(Start cutting path id: path159)
(Change tool to Default tool)

G00 X9.374893 Y11.624595


(End cutting path id: path159)


(Start cutting path id: path159)
(Change tool to Default tool)

G00 X8.881654 Y11.811798

G02 X9.075677 Y11.909893 Z-1.000000 I0.073337 J-0.137039
G02 X8.892960 Y11.799209 Z-1.000000 I-0.052251 J0.626957

(End cutting path id: path159)


(Start cutting path id: path159)
(Change tool to Default tool)

G00 X8.839246 Y12.036367


(End cutting path id: path159)


(Start cutting path id: path159)
(Change tool to Default tool)

G00 X9.045026 Y12.197997


(End cutting path id: path159)


(Start cutting path id: path159)
(Change tool to Default tool)


G02 X9.064311 Y12.440139 Z-1.000000 I0.059467 J0.160770 F3500.000000
G03 X9.300314 Y12.369685 Z-1.000000 I0.050814 J0.194268

(End cutting path id: path159)


(Start cutting path id: path159)
(Change tool to Default tool)

G00 X9.169377 Y12.648064

G02 X9.287189 Y12.956125 Z-1.000000 I0.459254 J-0.175633
G02 X9.220255 Y12.660912 Z-1.000000 I-0.336437 J0.118582

(End cutting path id: path159)


(Start cutting path id: path159)
(Change tool to Default tool)

G00 X9.485250 Y12.555742

G02 X9.536492 Y12.833200 Z-1.000000 I0.818459 J-0.007695 F3500.000000
G02 X9.530059 Y12.539960 Z-1.000000 I-0.488982 J0.120765

(End cutting path id: path159)


(Start cutting path id: path159)
(Change tool to Default tool)

G00 X9.625079 Y13.097103

G02 X9.593321 Y13.302620 Z-1.000000 I0.137492 J0.021246
G02 X9.734120 Y13.457292 Z-1.000000 I0.132263 J-0.000000
G03 X9.976680 Y13.678110 Z-1.000000 I-0.186551 J0.291296
G03 X10.135048 Y13.809716 Z-1.000000 I0.007444 J0.208848
G03 X10.364486 Y13.719216 Z-1.000000 I0.058680 J0.063506
G02 X10.581049 Y14.114945 Z-1.000000 I0.554219 J-0.319704
G03 X10.740324 Y14.298064 Z-1.000000 I-0.258107 J0.385327
G02 X10.436505 Y14.468361 Z-1.000000 I-0.000000 J0.379759
G02 X10.770531 Y14.437812 Z-1.000000 I-0.523276 J-0.972816
G03 X10.972374 Y14.451152 Z-1.000000 I-0.012166 J0.184033
G01 X11.157626 Y14.565107 Z-1.000000
G03 X11.119582 Y14.786302 Z-1.000000 I-0.679490 J-0.002998
G02 X11.442789 Y14.786632 Z-1.000000 I0.000724 J-0.710045
G02 X11.688247 Y14.635568 Z-1.000000 I-0.395716 J-0.917932
G02 X11.617787 Y14.399433 Z-1.000000 I-0.120005 J0.092249
G03 X11.521877 Y14.192957 Z-1.000000 I0.256035 J-0.118928
G03 X11.315797 Y14.189998 Z-1.000000 I-0.101972 J-0.025590
G03 X11.148591 Y14.071485 Z-1.000000 I0.101784 J-0.148480
G01 X11.146551 Y13.867588 Z-1.000000
G03 X10.806983 Y13.942613 Z-1.000000 I-0.178018 J-0.781610
G02 X10.512049 Y13.589580 Z-1.000000 I-0.474433 J0.240960
G02 X10.208186 Y13.459233 Z-1.000000 I-0.537391 J0.833400
G01 X10.139031 Y13.649116 Z-1.000000
G02 X10.010311 Y13.115495 Z-1.000000 I-0.609874 J-0.063969
G02 X9.790649 Y12.991463 Z-1.000000 I-0.219662 J0.132495

(End cutting path id: path159)


(Start cutting path id: path159)
(Change tool to Default tool)

G00 X9.740256 Y14.096658

G03 X9.939064 Y14.210836 Z-1.000000 I-0.020796 J0.094957
G02 X9.740256 Y14.096666 Z-1.000000 I-0.038604 J0.149567

(End cutting path id: path159)


(Start cutting path id: path159)
(Change tool to Default tool)

G00 X9.400042 Y14.365184


(End cutting path id: path159)


(Start cutting path id: path159)
(Change tool to Default tool)

G00 X8.991263 Y14.141558

G02 X9.205913 Y14.196288 Z-1.000000 I0.131082 J-0.514077
G02 X8.995300 Y14.122205 Z-1.000000 I-0.054660 J0.297917

(End cutting path id: path159)


(Start cutting path id: path159)
(Change tool to Default tool)


G02 X8.965115 Y14.362584 Z-1.000000 I0.594883 J-0.551934

(End cutting path id: path159)


(Start cutting path id: path159)
(Change tool to Default tool)

G00 X8.761769 Y14.124958


(End cutting path id: path159)


(Start cutting path id: path159)
(Change tool to Default tool)

G00 X8.922757 Y15.225145

G03 X8.947874 Y15.430232 Z-1.000000 I-0.109525 J0.059960
G03 X9.236901 Y15.378734 Z-1.000000 I0.183883 J0.124162
G03 X9.470323 Y15.628548 Z-1.000000 I-0.114283 J0.340744
G02 X9.347491 Y15.385572 Z-1.000000 I-1.652652 J1.526088
G02 X9.082495 Y15.236544 Z-1.000000 I-0.621752 J0.795459

(End cutting path id: path159)


(Start cutting path id: path159)
(Change tool to Default tool)

G00 X9.178294 Y15.673719

G02 X8.931674 Y15.762709 Z-1.000000 I0.143648 J0.398140
G03 X8.667752 Y15.823679 Z-1.000000 I-0.257948 J-1.116479
G02 X8.423872 Y15.893489 Z-1.000000 I0.041999 J0.146594
G02 X8.867374 Y15.876929 Z-1.000000 I-0.095128 J-2.548011
G03 X9.209941 Y15.825622 Z-1.000000 I0.613921 J2.929742
G02 X9.452005 Y15.801092 Z-1.000000 I0.011188 J-0.076230
G01 X9.349012 Y15.627655 Z-1.000000

(End cutting path id: path159)


(Start cutting path id: path159)
(Change tool to Default tool)

G00 X8.799447 Y15.731655


(End cutting path id: path159)


(Start cutting path id: path159)
(Change tool to Default tool)

G00 X8.963865 Y16.444101

G02 X9.183083 Y16.444101 Z-1.000000 I-0.000000 J-0.498093
G02 X8.963865 Y16.444101 Z-1.000000 I0.021021 J0.074862

(End cutting path id: path159)


(Start cutting path id: path159)
(Change tool to Default tool)

G00 X8.717246 Y16.471501


(End cutting path id: path159)


(Start cutting path id: path159)
(Change tool to Default tool)

G00 X8.940790 Y17.024182


(End cutting path id: path159)


(Start cutting path id: path159)
(Change tool to Default tool)

G00 X9.594111 Y17.814227

G03 X9.795145 Y17.903797 Z-1.000000 I-0.222528 J0.964390
G02 X9.634377 Y17.780893 Z-1.000000 I-0.216215 J0.269808

(End cutting path id: path159)


(Start cutting path id: path159)
(Change tool to Default tool)

G00 X9.922937 Y17.945374


(End cutting path id: path159)


(Start cutting path id: path159)
(Change tool to Default tool)

G00 X10.175812 Y18.009504


(End cutting path id: path159)


(Start cutting path id: path159)
(Change tool to Default tool)

G00 X9.758524 Y18.170450

G02 X10.036964 Y18.111041 Z-1.000000 I-0.205448 J-0.533458
G02 X9.758524 Y18.170450 Z-1.000000 I0.508887 J1.887792

(End cutting path id: path159)


(Start cutting path id: path159)
(Change tool to Default tool)

G00 X8.831416 Y18.053734

G02 X9.279099 Y18.323463 Z-1.000000 I0.947342 J-1.065968 F3500.000000
G02 X9.140142 Y18.123090 Z-1.000000 I-0.772701 J1.354356
G02 X8.841960 Y18.033167 Z-1.000000 I-0.773392 J2.025192

(End cutting path id: path159)


(Start cutting path id: path159)
(Change tool to Default tool)

G00 X7.227252 Y17.687331


(End cutting path id: path159)


(Start cutting path id: path159)
(Change tool to Default tool)

G00 X9.922942 Y16.506272

G03 X9.443863 Y16.571302 Z-1.000000 I-0.430507 J-3.171874
G02 X9.191815 Y16.609540 Z-1.000000 I0.030399 J1.050180
G02 X9.459370 Y16.662852 Z-1.000000 I0.044739 J-0.631478
G03 X9.680212 Y16.669652 Z-1.000000 I-0.001559 J0.050599
G03 X9.953529 Y16.573400 Z-1.000000 I0.284032 J0.405485
G02 X10.175314 Y16.532102 Z-1.000000 I-0.000000 J-0.256631
G02 X9.922942 Y16.506252 Z-1.000000 I0.017845 J0.668879

(End cutting path id: path159)


(Start cutting path id: path159)
(Change tool to Default tool)

G00 X9.876786 Y15.950873


(End cutting path id: path159)


(Start cutting path id: path159)
(Change tool to Default tool)

G00 X9.708315 Y15.682357

G01 X9.582688 Y15.852276 Z-1.000000 F3500.000000
G03 X9.841970 Y15.776101 Z-1.000000 I0.465129 J1.463703
G02 X10.042204 Y15.711038 Z-1.000000 I-0.016333 J-0.145375
G01 X9.974350 Y15.516283 Z-1.000000
G02 X9.708318 Y15.682350 Z-1.000000 I0.276946 J0.443799

(End cutting path id: path159)


(Start cutting path id: path159)
(Change tool to Default tool)

G00 X10.361372 Y15.375425


(End cutting path id: path159)


(Start cutting path id: path159)
(Change tool to Default tool)

G00 X10.275939 Y15.153485


(End cutting path id: path159)


(Start cutting path id: path159)
(Change tool to Default tool)

G00 X10.540139 Y14.837826


(End cutting path id: path159)


(Start cutting path id: path159)
(Change tool to Default tool)

G00 X10.909416 Y15.179315

G02 X10.652885 Y15.266527 Z-1.000000 I0.064095 J0.609429 F3500.000000
G02 X10.529989 Y15.567431 Z-1.000000 I0.356329 J0.116328
G03 X10.784673 Y15.745336 Z-1.000000 I-0.453073 J0.729910
G03 X10.896955 Y15.526299 Z-1.000000 I0.048586 J-0.040319
G01 X11.073828 Y15.396437 Z-1.000000
G01 X11.272301 Y15.423461 Z-1.000000
G02 X11.263094 Y15.199458 Z-1.000000 I-0.116772 J0.043198
G02 X10.909415 Y15.179315 Z-1.000000 I-0.238598 J1.074291

(End cutting path id: path159)


(Start cutting path id: path159)
(Change tool to Default tool)

G00 X11.402655 Y15.457635


(End cutting path id: path159)


(Start cutting path id: path159)
(Change tool to Default tool)


G02 X11.534869 Y15.661756 Z-1.000000 I0.070305 J0.070305 F3500.000000
G03 X11.740606 Y15.772755 Z-1.000000 I-0.022609 J0.049524
G02 X12.012934 Y16.071831 Z-1.000000 I0.586855 J-0.260846
G02 X12.311783 Y16.093597 Z-1.000000 I0.172596 J-0.307255
G02 X12.651778 Y16.154247 Z-1.000000 I0.114942 J-1.019402
G03 X12.869631 Y16.176083 Z-1.000000 I0.059589 J0.503155
G03 X12.615451 Y16.283507 Z-1.000000 I-0.002755 J-0.219298
G02 X12.425320 Y16.409140 Z-1.000000 I0.165768 J0.043359
G02 X12.666671 Y16.610411 Z-1.000000 I0.333786 J-0.350681
G03 X12.882373 Y16.444139 Z-1.000000 I0.470185 J0.353947
G01 X13.019135 Y16.279322 Z-1.000000
G02 X12.995395 Y16.051929 Z-1.000000 I-0.253756 J0.096531
G01 X12.811320 Y15.967516 Z-1.000000
G02 X12.637129 Y15.755726 Z-1.000000 I-0.210860 J0.254338
G02 X12.374074 Y15.779616 Z-1.000000 I0.010347 J0.113912
G03 X12.068418 Y15.918807 Z-1.000000 I-0.338810 J-0.338810
G03 X12.024144 Y15.652105 Z-1.000000 I0.204223 J0.000000
G03 X12.238417 Y15.569086 Z-1.000000 I0.230203 J0.276125
G02 X11.976203 Y15.573460 Z-1.000000 I-0.031180 J0.916196
G03 X11.729407 Y15.605361 Z-1.000000 I-0.257799 J-1.023811

(End cutting path id: path159)


(Start cutting path id: path159)
(Change tool to Default tool)

G00 X11.265644 Y15.676819


(End cutting path id: path159)


(Start cutting path id: path159)
(Change tool to Default tool)

G00 X11.002763 Y15.766185

G02 X10.948423 Y16.005989 Z-1.000000 I0.075623 J0.048545
G02 X11.216488 Y16.110603 Z-1.000000 I0.055483 J-0.142170
G03 X11.156373 Y15.916208 Z-1.000000 I0.248938 J-0.334140
G01 X11.002744 Y15.766185 Z-1.000000

(End cutting path id: path159)


(Start cutting path id: path159)
(Change tool to Default tool)

G00 X11.128638 Y16.276468

G03 X10.827218 Y16.448188 Z-1.000000 I-0.567561 J-2.769589
G02 X10.513499 Y16.496404 Z-1.000000 I0.140640 J1.959807
G02 X10.706443 Y16.617838 Z-1.000000 I-0.004864 J-0.090710
G03 X11.388964 Y16.502263 Z-1.000000 I0.792255 J4.678712
G03 X11.273276 Y16.307143 Z-1.000000 I0.084958 J-0.111504

(End cutting path id: path159)


(Start cutting path id: path159)
(Change tool to Default tool)

G00 X11.868497 Y16.210288

G02 X11.669108 Y16.349494 Z-1.000000 I0.093018 J0.133228
G02 X11.732934 Y16.670324 Z-1.000000 I0.324843 J-0.062569
G02 X11.935311 Y16.572506 Z-1.000000 I0.053574 J-0.147420
G03 X12.224730 Y16.609786 Z-1.000000 I-0.018170 J0.141062
G01 X11.821180 Y16.377406 Z-1.000000
G01 X11.954282 Y16.218438 Z-1.000000

(End cutting path id: path159)


(Start cutting path id: path159)
(Change tool to Default tool)

G00 X11.939158 Y15.698726


(End cutting path id: path159)


(Start cutting path id: path159)
(Change tool to Default tool)

G00 X12.663156 Y16.061996


(End cutting path id: path159)


(Start cutting path id: path159)
(Change tool to Default tool)

G00 X13.266004 Y15.812735


(End cutting path id: path159)


(Start cutting path id: path159)
(Change tool to Default tool)

G00 X12.663156 Y15.320632


(End cutting path id: path159)


(Start cutting path id: path159)
(Change tool to Default tool)

G00 X12.897117 Y14.728349


(End cutting path id: path159)


(Start cutting path id: path159)
(Change tool to Default tool)

G00 X12.663156 Y14.547490


(End cutting path id: path159)


(Start cutting path id: path159)
(Change tool to Default tool)

G00 X12.428059 Y14.306734


(End cutting path id: path159)


(Start cutting path id: path159)
(Change tool to Default tool)

G00 X11.957885 Y13.887050


(End cutting path id: path159)


(Start cutting path id: path159)
(Change tool to Default tool)

G00 X11.293046 Y13.629095

G02 X11.512849 Y13.743776 Z-1.000000 I0.085354 J-0.130272
G02 X11.296662 Y13.625260 Z-1.000000 I-0.000000 J2.077224

(End cutting path id: path159)


(Start cutting path id: path159)
(Change tool to Default tool)

G00 X10.789531 Y13.576925


(End cutting path id: path159)


(Start cutting path id: path159)
(Change tool to Default tool)

G00 X10.782262 Y13.271828

G02 X11.001450 Y13.291248 Z-1.000000 I0.042917 J-0.111832
G02 X10.782270 Y13.271820 Z-1.000000 I0.052614 J0.091497

(End cutting path id: path159)


(Start cutting path id: path159)
(Change tool to Default tool)

G00 X11.159559 Y13.117113


(End cutting path id: path159)


(Start cutting path id: path159)
(Change tool to Default tool)

G00 X11.020703 Y12.799619


(End cutting path id: path159)


(Start cutting path id: path159)
(Change tool to Default tool)

G00 X10.913742 Y12.310949


(End cutting path id: path159)


(Start cutting path id: path159)
(Change tool to Default tool)

G00 X11.402655 Y12.111297


(End cutting path id: path159)


(Start cutting path id: path159)
(Change tool to Default tool)

G00 X11.611100 Y12.229090

G03 X11.737974 Y12.600203 Z-1.000000 I-0.194898 J0.194898
G03 X11.608170 Y12.890458 Z-1.000000 I-0.499283 J-0.049131
G02 X11.406069 Y13.174399 Z-1.000000 I1.021828 J0.727336
G01 X11.208218 Y13.304861 Z-1.000000
G03 X11.479673 Y13.185786 Z-1.000000 I0.657843 J0.272468
G03 X11.698037 Y12.918820 Z-1.000000 I2.442835 J1.775323
G02 X11.874106 Y12.688605 Z-1.000000 I-1.190084 J-1.092617
G02 X11.698781 Y12.220835 Z-1.000000 I-0.674320 J0.010447

(End cutting path id: path159)


(Start cutting path id: path159)
(Change tool to Default tool)

G00 X11.567068 Y11.840518


(End cutting path id: path159)


(Start cutting path id: path159)
(Change tool to Default tool)

G00 X11.516590 Y11.598525


(End cutting path id: path159)


(Start cutting path id: path159)
(Change tool to Default tool)

G00 X12.032905 Y12.333719


(End cutting path id: path159)


(Start cutting path id: path159)
(Change tool to Default tool)

G00 X12.308125 Y12.774158

G02 X12.549924 Y12.999857 Z-1.000000 I0.534661 J-0.330428 F3500.000000
G02 X12.318404 Y12.761279 Z-1.000000 I-0.567755 J1.063627

(End cutting path id: path159)


(Start cutting path id: path159)
(Change tool to Default tool)

G00 X12.801811 Y12.988773

G03 X13.074480 Y13.221002 Z-1.000000 I-0.616182 J0.802594
G02 X12.876643 Y12.968165 Z-1.000000 I-0.411934 J0.301681

(End cutting path id: path159)


(Start cutting path id: path159)
(Change tool to Default tool)

G00 X13.102430 Y12.895529


(End cutting path id: path159)


(Start cutting path id: path159)
(Change tool to Default tool)

G00 X12.961257 Y12.306349

G01 X12.846290 Y12.482550 Z-1.000000
G02 X13.030952 Y12.267085 Z-1.000000 I-0.134488 J-0.098719

(End cutting path id: path159)


(Start cutting path id: path159)
(Change tool to Default tool)

G00 X13.221883 Y13.566885


(End cutting path id: path159)


(Start cutting path id: path159)
(Change tool to Default tool)

G00 X13.893627 Y15.103575

G03 X13.967727 Y15.308761 Z-1.000000 I-2.045156 J0.854552 F3500.000000
G02 X13.767001 Y15.236227 Z-1.000000 I-0.053315 J0.007903
G03 X13.783600 Y15.516767 Z-1.000000 I-0.113094 J0.113094
G03 X13.995759 Y15.562618 Z-1.000000 I0.019362 J0.046817
G01 X14.146017 Y15.402819 Z-1.000000
G02 X14.315780 Y15.512419 Z-1.000000 I0.096749 J-0.208519
G02 X14.226933 Y15.316401 Z-1.000000 I-0.320376 J0.289922
G01 X14.433324 Y15.327406 Z-1.000000
G02 X14.229386 Y15.094099 Z-1.000000 I-0.702561 J0.408334
G02 X13.934734 Y14.939943 Z-1.000000 I-0.574279 J0.738998

(End cutting path id: path159)


(Start cutting path id: path159)
(Change tool to Default tool)

G00 X14.380359 Y15.649449


(End cutting path id: path159)


(Start cutting path id: path159)
(Change tool to Default tool)

G00 X14.307287 Y16.008913


(End cutting path id: path159)


(Start cutting path id: path159)
(Change tool to Default tool)



(End cutting path id: path159)


(Start cutting path id: path159)
(Change tool to Default tool)

G00 X14.536871 Y16.192660

G02 X14.685915 Y16.440170 Z-1.000000 I0.187294 J-0.112763
G03 X14.605354 Y16.237352 Z-1.000000 I0.275653 J-0.340037
G02 X14.579740 Y16.005645 Z-1.000000 I-0.084445 J0.037319

(End cutting path id: path159)


(Start cutting path id: path159)
(Change tool to Default tool)

G00 X14.746566 Y16.238598

G02 X15.010637 Y16.253574 Z-1.000000 I-0.000000 J-0.341056
G03 X14.794521 Y16.217048 Z-1.000000 I0.010940 J-0.067557

(End cutting path id: path159)


(Start cutting path id: path159)
(Change tool to Default tool)



(End cutting path id: path159)


(Start cutting path id: path159)
(Change tool to Default tool)

G00 X14.864982 Y16.444982

G02 X15.278483 Y16.685121 Z-1.000000 I0.490166 J-0.844079
G02 X15.471256 Y16.763523 Z-1.000000 I0.072207 J-0.072207
G02 X15.218571 Y16.579161 Z-1.000000 I-0.186178 J0.413354
G03 X14.956283 Y16.463651 Z-1.000000 I0.178391 J-0.405374

(End cutting path id: path159)


(Start cutting path id: path159)
(Change tool to Default tool)

G00 X15.184162 Y16.389311


(End cutting path id: path159)


(Start cutting path id: path159)
(Change tool to Default tool)

G00 X15.348575 Y16.121148


(End cutting path id: path159)


(Start cutting path id: path159)
(Change tool to Default tool)

G00 X15.622597 Y16.391011


(End cutting path id: path159)


(Start cutting path id: path159)
(Change tool to Default tool)


G02 X15.636436 Y16.687754 Z-1.000000 I0.122189 J0.000000 F3500.000000

(End cutting path id: path159)


(Start cutting path id: path159)
(Change tool to Default tool)

G00 X15.846141 Y16.695322


(End cutting path id: path159)


(Start cutting path id: path159)
(Change tool to Default tool)

G00 X16.039141 Y16.794972

G02 X16.248167 Y16.885569 Z-1.000000 I0.022193 J-0.084891
G02 X16.053070 Y16.747996 Z-1.000000 I0.000000 J0.156424

(End cutting path id: path159)


(Start cutting path id: path159)
(Change tool to Default tool)


G02 X16.242794 Y16.646007 Z-1.000000 I0.126958 J-0.196442 F3500.000000

(End cutting path id: path159)


(Start cutting path id: path159)
(Change tool to Default tool)


G02 X16.419433 Y16.783063 Z-1.000000 I0.045530 J-0.054863

(End cutting path id: path159)


(Start cutting path id: path159)
(Change tool to Default tool)


G02 X16.622514 Y16.868614 Z-1.000000 I0.090006 J-0.000000 F3500.000000

(End cutting path id: path159)


(Start cutting path id: path159)
(Change tool to Default tool)

G00 X16.700892 Y16.644612

G02 X16.862968 Y16.766927 Z-1.000000 I0.008604 J-0.097670
G02 X16.700888 Y16.644612 Z-1.000000 I-0.011047 J0.217658

(End cutting path id: path159)


(Start cutting path id: path159)
(Change tool to Default tool)

G00 X16.962411 Y16.877922

G01 X17.014169 Y17.076115 Z-1.000000
G02 X17.023179 Y16.852137 Z-1.000000 I-0.477974 J0.000000

(End cutting path id: path159)


(Start cutting path id: path159)
(Change tool to Default tool)

G00 X17.320688 Y16.707676


(End cutting path id: path159)


(Start cutting path id: path159)
(Change tool to Default tool)


G01 X17.342420 Y16.926104 Z-1.000000 F3500.000000

(End cutting path id: path159)


(Start cutting path id: path159)
(Change tool to Default tool)

G00 X17.540741 Y17.046969


(End cutting path id: path159)


(Start cutting path id: path159)
(Change tool to Default tool)

G00 X17.869576 Y16.937412


(End cutting path id: path159)


(Start cutting path id: path159)
(Change tool to Default tool)

G00 X18.157299 Y16.829502

G02 X18.175179 Y17.160545 Z-1.000000 I0.307151 J-0.016589
G02 X18.088212 Y17.374600 Z-1.000000 I0.054666 J0.231614
G03 X18.467250 Y17.458098 Z-1.000000 I0.444847 J4.360287
G02 X18.691102 Y17.414094 Z-1.000000 I-0.035939 J-0.774196
G02 X18.851893 Y17.191864 Z-1.000000 I-0.330925 J-0.241968
G02 X18.633919 Y17.121566 Z-1.000000 I-0.071930 J0.086676
G01 X18.623378 Y17.352800 Z-1.000000
G03 X18.386843 Y17.191643 Z-1.000000 I0.777205 J-1.140729
G03 X18.256287 Y17.007317 Z-1.000000 I0.474425 J-0.474428
G01 X18.323124 Y16.805663 Z-1.000000

(End cutting path id: path159)


(Start cutting path id: path159)
(Change tool to Default tool)

G00 X18.502734 Y16.643882

G02 X18.532234 Y16.849398 Z-1.000000 I0.115574 J-0.016589
G02 X18.743561 Y16.814928 Z-1.000000 I-0.020105 J-0.054836
G03 X18.724995 Y16.597893 Z-1.000000 I0.048077 J-0.018712
G02 X18.502733 Y16.643928 Z-1.000000 I0.110238 J0.148196

(End cutting path id: path159)


(Start cutting path id: path159)
(Change tool to Default tool)

G00 X18.397680 Y16.252618


(End cutting path id: path159)


(Start cutting path id: path159)
(Change tool to Default tool)

G00 X18.965664 Y16.447382


(End cutting path id: path159)


(Start cutting path id: path159)
(Change tool to Default tool)

G00 X19.130072 Y15.761696


(End cutting path id: path159)


(Start cutting path id: path159)
(Change tool to Default tool)

G00 X18.636832 Y15.646223


(End cutting path id: path159)


(Start cutting path id: path159)
(Change tool to Default tool)

G00 X18.021425 Y15.008922


(End cutting path id: path159)


(Start cutting path id: path159)
(Change tool to Default tool)

G00 X17.799924 Y14.833091


(End cutting path id: path159)


(Start cutting path id: path159)
(Change tool to Default tool)

G00 X18.619076 Y14.518250

G03 X18.471206 Y14.681650 Z-1.000000 I-0.076347 J-0.058886
G03 X18.625040 Y14.475013 Z-1.000000 I0.073224 J0.101921

(End cutting path id: path159)


(Start cutting path id: path159)
(Change tool to Default tool)

G00 X18.762095 Y14.196287


(End cutting path id: path159)


(Start cutting path id: path159)
(Change tool to Default tool)

G00 X19.404094 Y14.799981


(End cutting path id: path159)


(Start cutting path id: path159)
(Change tool to Default tool)

G00 X19.832094 Y14.262147

G03 X19.276256 Y14.692166 Z-1.000000 I-2.129982 J-2.178947 F3500.000000
G03 X18.875537 Y14.839295 Z-1.000000 I-0.580811 J-0.962628
G03 X18.705336 Y14.998195 Z-1.000000 I-0.085465 J-0.053542
G01 X18.536356 Y15.107055 Z-1.000000
G02 X18.864020 Y15.011720 Z-1.000000 I-0.722924 J-1.348897
G02 X19.034161 Y15.130477 Z-1.000000 I0.044680 J-0.024792
G02 X18.747580 Y15.389264 Z-1.000000 I1.132256 J1.423539
G03 X18.458346 Y15.601742 Z-1.000000 I-0.885200 J-0.901873
G03 X18.101454 Y15.734820 Z-1.000000 I-0.671301 J-1.255213
G03 X17.866607 Y15.671320 Z-1.000000 I0.031849 J-0.117783
G02 X17.974887 Y15.498748 Z-1.000000 I-0.641653 J-0.149732
G03 X18.085588 Y15.293231 Z-1.000000 I0.067118 J0.036149
G03 X18.410001 Y14.941337 Z-1.000000 I1.656122 J1.899859
G02 X18.658688 Y14.773820 Z-1.000000 I-2.582891 J-4.102788
G03 X18.948387 Y14.553503 Z-1.000000 I0.605839 J0.683474
G03 X19.364556 Y14.332633 Z-1.000000 I3.090842 J5.321326
G02 X19.781894 Y14.117008 Z-1.000000 I-3.745100 J-7.760265

(End cutting path id: path159)


(Start cutting path id: path159)
(Change tool to Default tool)

G00 X20.285643 Y13.892824

G03 X20.078283 Y14.014702 Z-1.000000 I-0.053061 J-0.053061
G03 X20.216450 Y13.866620 Z-1.000000 I0.033870 J0.039327

(End cutting path id: path159)


(Start cutting path id: path159)
(Change tool to Default tool)

G00 X20.006940 Y13.594297


(End cutting path id: path159)


(Start cutting path id: path159)
(Change tool to Default tool)

G00 X20.445375 Y13.317038


(End cutting path id: path159)


(Start cutting path id: path159)
(Change tool to Default tool)

G00 X20.938614 Y12.799632


(End cutting path id: path159)


(Start cutting path id: path159)
(Change tool to Default tool)

G00 X21.241619 Y13.058027

G02 X20.992027 Y13.156597 Z-1.000000 I0.068823 J0.377833
G02 X21.195383 Y13.073908 Z-1.000000 I0.105002 J-0.196183

(End cutting path id: path159)


(Start cutting path id: path159)
(Change tool to Default tool)

G00 X21.399843 Y12.971797


(End cutting path id: path159)


(Start cutting path id: path159)
(Change tool to Default tool)

G00 X21.294843 Y13.265468


(End cutting path id: path159)


(Start cutting path id: path159)
(Change tool to Default tool)

G00 X21.553361 Y13.629780


(End cutting path id: path159)


(Start cutting path id: path159)
(Change tool to Default tool)

G00 X21.829334 Y13.522992

G02 X21.774000 Y13.760403 Z-1.000000 I0.357773 J0.191483
G03 X21.486677 Y13.732548 Z-1.000000 I0.009599 J-0.220001
G03 X21.466709 Y13.512414 Z-1.000000 I0.213931 J-0.130378
G03 X21.829330 Y13.522984 Z-1.000000 I-0.016934 J0.580566

(End cutting path id: path159)


(Start cutting path id: path159)
(Change tool to Default tool)

G00 X22.062104 Y13.484687


(End cutting path id: path159)


(Start cutting path id: path159)
(Change tool to Default tool)


G03 X22.144308 Y13.731307 Z-1.000000 I-0.104789 J0.064138
G03 X21.909298 Y13.704187 Z-1.000000 I0.045065 J-0.076742

(End cutting path id: path159)


(Start cutting path id: path159)
(Change tool to Default tool)

G00 X22.235411 Y13.607997


(End cutting path id: path159)


(Start cutting path id: path159)
(Change tool to Default tool)

G00 X22.253919 Y13.287008


(End cutting path id: path159)


(Start cutting path id: path159)
(Change tool to Default tool)

G00 X22.126042 Y13.128457


(End cutting path id: path159)


(Start cutting path id: path159)
(Change tool to Default tool)

G00 X21.994546 Y12.703734

G01 X21.974686 Y12.906016 Z-1.000000
G03 X21.839116 Y13.067520 Z-1.000000 I-0.116779 J-0.089188
G03 X21.790935 Y13.296885 Z-1.000000 I-0.152737 J0.048467
G03 X21.546534 Y13.354269 Z-1.000000 I-0.108790 J-0.060885
G01 X21.550498 Y13.109665 Z-1.000000
G03 X21.646708 Y12.830937 Z-1.000000 I0.427820 J0.147677
G02 X21.789755 Y12.668716 Z-1.000000 I-0.605161 J-0.677813
G01 X21.925109 Y12.492307 Z-1.000000
G03 X21.994559 Y12.703736 Z-1.000000 I-1.100162 J0.361382

(End cutting path id: path159)


(Start cutting path id: path159)
(Change tool to Default tool)

G00 X21.737065 Y12.887963


(End cutting path id: path159)


(Start cutting path id: path159)
(Change tool to Default tool)

G00 X21.743313 Y12.289263


(End cutting path id: path159)


(Start cutting path id: path159)
(Change tool to Default tool)

G00 X21.322245 Y12.087170

G03 X21.338771 Y11.862592 Z-1.000000 I1.003823 J0.277147
G03 X21.322245 Y12.087174 Z-1.000000 I-1.250376 J-0.202131

(End cutting path id: path159)


(Start cutting path id: path159)
(Change tool to Default tool)

G00 X21.493458 Y11.526351


(End cutting path id: path159)


(Start cutting path id: path159)
(Change tool to Default tool)

G00 X20.715070 Y11.278822


(End cutting path id: path159)


(Start cutting path id: path159)
(Change tool to Default tool)

G00 X20.465194 Y11.265122


(End cutting path id: path159)


(Start cutting path id: path159)
(Change tool to Default tool)


G03 X20.375824 Y11.517849 Z-1.000000 I-0.152149 J-0.137692 F3500.000000
G03 X20.549776 Y11.352787 Z-1.000000 I0.371116 J0.562288

(End cutting path id: path159)


(Start cutting path id: path159)
(Change tool to Default tool)

G00 X20.143951 Y11.621341


(End cutting path id: path159)


(Start cutting path id: path159)
(Change tool to Default tool)

G00 X20.036230 Y11.798940


(End cutting path id: path159)


(Start cutting path id: path159)
(Change tool to Default tool)

G00 X19.907379 Y11.578411


(End cutting path id: path159)


(Start cutting path id: path159)
(Change tool to Default tool)

G00 X19.676584 Y11.924600

G03 X19.455726 Y12.027472 Z-1.000000 I-0.219066 J-0.181800 F3500.000000
G02 X19.662238 Y11.804597 Z-1.000000 I-0.264727 J-0.423884

(End cutting path id: path159)


(Start cutting path id: path159)
(Change tool to Default tool)

G00 X19.221412 Y12.205910


(End cutting path id: path159)


(Start cutting path id: path159)
(Change tool to Default tool)

G00 X18.801246 Y12.196697


(End cutting path id: path159)


(Start cutting path id: path159)
(Change tool to Default tool)

G00 X16.869391 Y12.370019

G02 X16.959636 Y12.548684 Z-1.000000 I0.126070 J0.000000
G03 X17.067372 Y12.804426 Z-1.000000 I-0.045830 J0.049451
G03 X16.860758 Y12.799454 Z-1.000000 I-0.098347 J-0.208598
G02 X16.639295 Y12.707786 Z-1.000000 I-0.585583 J1.101375
G02 X17.184521 Y13.005463 Z-1.000000 I0.647749 J-1.307284
G03 X17.424906 Y12.938210 Z-1.000000 I0.000000 J0.140344
G02 X17.737389 Y13.092730 Z-1.000000 I0.162272 J-0.997253
G02 X18.313258 Y12.924096 Z-1.000000 I-0.218290 J-1.813027
G02 X18.965667 Y12.499527 Z-1.000000 I-1.336291 J-2.766936
G03 X18.763954 Y12.515275 Z-1.000000 I-0.134939 J-0.084275
G03 X18.540373 Y12.498133 Z-1.000000 I-0.076310 J-0.134333
G02 X18.201694 Y12.628550 Z-1.000000 I0.000000 J0.504965
G02 X18.173053 Y12.830276 Z-1.000000 I0.106747 J0.118052
G02 X17.789317 Y12.821206 Z-1.000000 I-0.021462 J1.266000
G03 X17.467560 Y12.779321 Z-1.000000 I-0.096422 J-0.516099
G03 X17.177132 Y12.530308 Z-1.000000 I0.313240 J-0.659209
G02 X17.024965 Y12.370447 Z-1.000000 I-0.559384 J0.380109

(End cutting path id: path159)


(Start cutting path id: path159)
(Change tool to Default tool)

G00 X14.586021 Y11.861468

G01 X14.453723 Y12.032360 Z-1.000000 F3500.000000
G01 X14.610517 Y11.883309 Z-1.000000
G02 X14.744862 Y11.734615 Z-1.000000 I-0.909572 J-0.956837
G02 X14.586021 Y11.861468 Z-1.000000 I0.909517 J0.956823

(End cutting path id: path159)


(Start cutting path id: path159)
(Change tool to Default tool)

G00 X15.612238 Y15.162362

G02 X15.390020 Y15.165220 Z-1.000000 I-0.073733 J0.042262
G03 X15.612243 Y15.162320 Z-1.000000 I0.013514 J1.043317

(End cutting path id: path159)


(Start cutting path id: path159)
(Change tool to Default tool)

G00 X15.936575 Y15.107122


(End cutting path id: path159)


(Start cutting path id: path159)
(Change tool to Default tool)

G00 X16.225440 Y15.019202


(End cutting path id: path159)


(Start cutting path id: path159)
(Change tool to Default tool)

G00 X16.526864 Y15.074012


(End cutting path id: path159)


(Start cutting path id: path159)
(Change tool to Default tool)

G00 X16.686710 Y15.252122

G03 X16.937898 Y15.232552 Z-1.000000 I0.006644 J0.063577
G03 X16.656159 Y15.348025 Z-1.000000 I-0.235376 J-0.574280
G02 X16.366767 Y15.334325 Z-1.000000 I0.075422 J0.394347
G03 X16.565836 Y15.188464 Z-1.000000 I0.265691 J0.224950

(End cutting path id: path159)


(Start cutting path id: path159)
(Change tool to Default tool)

G00 X16.663875 Y15.789695

G02 X16.554186 Y16.026034 Z-1.000000 I0.121288 J0.023303
G03 X16.696670 Y15.874181 Z-1.000000 I0.106509 J0.078049

(End cutting path id: path159)


(Start cutting path id: path159)
(Change tool to Default tool)

G00 X16.389853 Y15.899303

G02 X16.066984 Y15.893630 Z-1.000000 I-0.161217 J0.260808
G02 X15.951420 Y16.057867 Z-1.000000 I0.058924 J0.164237
G03 X16.168284 Y16.247477 Z-1.000000 I-0.093533 J0.174774
G02 X16.409757 Y16.251995 Z-1.000000 I-0.195938 J-0.891281
G01 X16.158540 Y16.033074 Z-1.000000
G02 X16.480132 Y15.907693 Z-1.000000 I-0.051039 J-0.283566

(End cutting path id: path159)


(Start cutting path id: path159)
(Change tool to Default tool)

G00 X16.620036 Y17.112802


(End cutting path id: path159)


(Start cutting path id: path159)
(Change tool to Default tool)

G00 X16.370039 Y17.348511

G02 X16.596229 Y17.407523 Z-1.000000 I-0.008951 J-0.248134
G02 X16.370040 Y17.348511 Z-1.000000 I0.027038 J0.111371

(End cutting path id: path159)


(Start cutting path id: path159)
(Change tool to Default tool)

G00 X16.554271 Y17.788621

G03 X16.157654 Y17.990989 Z-1.000000 I-0.323658 J-0.634331
G03 X15.775071 Y17.949937 Z-1.000000 I-0.008172 J-1.727102
G02 X15.564190 Y17.871039 Z-1.000000 I-0.030684 J0.202390
G03 X15.677404 Y18.118964 Z-1.000000 I-0.036174 J0.070085
G03 X15.874836 Y18.073576 Z-1.000000 I-0.000000 J0.088141
G02 X16.102140 Y18.208334 Z-1.000000 I0.224367 J-0.531467
G01 X16.307657 Y18.225344 Z-1.000000
G01 X16.298257 Y18.501609 Z-1.000000
G02 X16.341171 Y18.744855 Z-1.000000 I0.596381 J0.020194
G02 X16.820453 Y18.940824 Z-1.000000 I0.504024 J-1.158689
G02 X16.831539 Y18.688456 Z-1.000000 I-0.396230 J0.000000
G02 X16.709657 Y18.500485 Z-1.000000 I-0.042381 J0.032382
G03 X16.417230 Y18.531505 Z-1.000000 I-0.088348 J-0.832982
G01 X16.427145 Y18.328616 Z-1.000000
G01 X16.551650 Y18.168921 Z-1.000000
G02 X16.598250 Y17.918757 Z-1.000000 I-1.947977 J-0.362865
G02 X16.599462 Y17.664184 Z-1.000000 I-2.269095 J-0.138097

(End cutting path id: path159)


(Start cutting path id: path159)
(Change tool to Default tool)

G00 X16.755216 Y18.289193

G03 X16.933520 Y18.452173 Z-1.000000 I-0.159289 J0.529718
G02 X16.799980 Y18.283334 Z-1.000000 I-0.444989 J0.407982

(End cutting path id: path159)


(Start cutting path id: path159)
(Change tool to Default tool)

G00 X16.526871 Y18.691174


(End cutting path id: path159)


(Start cutting path id: path159)
(Change tool to Default tool)

G00 X16.800886 Y18.800700


(End cutting path id: path159)


(Start cutting path id: path159)
(Change tool to Default tool)


G01 X16.988017 Y18.885800 Z-1.000000
G01 X16.937896 Y18.686828 Z-1.000000

(End cutting path id: path159)


(Start cutting path id: path159)
(Change tool to Default tool)


G02 X17.149243 Y18.680232 Z-1.000000 I-0.122567 J-0.198292

(End cutting path id: path159)


(Start cutting path id: path159)
(Change tool to Default tool)


G02 X17.307829 Y18.917300 Z-1.000000 I0.697573 J-0.697573

(End cutting path id: path159)


(Start cutting path id: path159)
(Change tool to Default tool)


G01 X17.523868 Y18.996103 Z-1.000000

(End cutting path id: path159)


(Start cutting path id: path159)
(Change tool to Default tool)


G03 X17.722426 Y18.939378 Z-1.000000 I0.302019 J0.000000

(End cutting path id: path159)


(Start cutting path id: path159)
(Change tool to Default tool)

G00 X17.376332 Y18.526678


(End cutting path id: path159)


(Start cutting path id: path159)
(Change tool to Default tool)

G00 X18.110693 Y18.974014


(End cutting path id: path159)


(Start cutting path id: path159)
(Change tool to Default tool)

G00 X16.853437 Y19.626402


(End cutting path id: path159)


(Start cutting path id: path159)
(Change tool to Default tool)

G00 X15.875018 Y19.066376


(End cutting path id: path159)


(Start cutting path id: path159)
(Change tool to Default tool)

G00 X15.759603 Y18.581478

G02 X15.957453 Y18.612426 Z-1.000000 I-0.000378 J-0.054095
G01 X15.759604 Y18.581478 Z-1.000000

(End cutting path id: path159)


(Start cutting path id: path159)
(Change tool to Default tool)


G02 X15.531010 Y18.582101 Z-1.000000 I0.042409 J0.068630 F3500.000000

(End cutting path id: path159)


(Start cutting path id: path159)
(Change tool to Default tool)

G00 X15.458179 Y18.197850


(End cutting path id: path159)


(Start cutting path id: path159)
(Change tool to Default tool)

G00 X15.238961 Y18.310693


(End cutting path id: path159)


(Start cutting path id: path159)
(Change tool to Default tool)

G00 X15.156515 Y18.033824

G02 X15.351797 Y18.113654 Z-1.000000 I0.069001 J-0.168788
G02 X15.156512 Y18.033834 Z-1.000000 I0.002818 J0.081084

(End cutting path id: path159)


(Start cutting path id: path159)
(Change tool to Default tool)

G00 X15.293766 Y17.759417


(End cutting path id: path159)


(Start cutting path id: path159)
(Change tool to Default tool)

G00 X15.458184 Y17.419811

G02 X15.275166 Y17.509721 Z-1.000000 I0.046659 J0.089013
G02 X15.504652 Y17.436854 Z-1.000000 I-0.145972 J-0.199614

(End cutting path id: path159)


(Start cutting path id: path159)
(Change tool to Default tool)


G02 X15.654098 Y17.575757 Z-1.000000 I0.096057 J0.036863 F3500.000000

(End cutting path id: path159)


(Start cutting path id: path159)
(Change tool to Default tool)


G01 X15.852090 Y17.527711 Z-1.000000

(End cutting path id: path159)


(Start cutting path id: path159)
(Change tool to Default tool)


G02 X16.162244 Y17.569719 Z-1.000000 I0.000000 J-0.597613
G02 X15.910320 Y17.546581 Z-1.000000 I1.533380 J2.782507

(End cutting path id: path159)


(Start cutting path id: path159)
(Change tool to Default tool)

G00 X15.864047 Y17.120002

G02 X15.992527 Y17.301370 Z-1.000000 I0.089234 J-0.201852
G02 X16.251466 Y17.339361 Z-1.000000 I0.033682 J-0.077652
G01 X16.445934 Y17.103743 Z-1.000000
G01 X16.193276 Y17.138373 Z-1.000000
G03 X15.955584 Y17.138387 Z-1.000000 I-0.118895 J-0.867561

(End cutting path id: path159)


(Start cutting path id: path159)
(Change tool to Default tool)

G00 X15.667125 Y17.084452


(End cutting path id: path159)


(Start cutting path id: path159)
(Change tool to Default tool)

G00 X14.903146 Y17.384991

G02 X14.996496 Y17.630131 Z-1.000000 I0.100060 J-0.038103
G02 X14.965732 Y17.367719 Z-1.000000 I-0.332436 J0.122960

(End cutting path id: path159)


(Start cutting path id: path159)
(Change tool to Default tool)

G00 X14.636113 Y18.031724


(End cutting path id: path159)


(Start cutting path id: path159)
(Change tool to Default tool)

G00 X14.197678 Y17.782337


(End cutting path id: path159)


(Start cutting path id: path159)
(Change tool to Default tool)

G00 X14.115472 Y18.118374

G03 X13.731529 Y18.248030 Z-1.000000 I-19.091394 J-55.901010 F3500.000000
G03 X13.485222 Y18.575139 Z-1.000000 I-2.027738 J-1.661136
G02 X13.278532 Y18.793180 Z-1.000000 I2.509125 J2.585488
G03 X13.142695 Y18.968215 Z-1.000000 I-0.737235 J-0.642013
G02 X13.439133 Y18.745904 Z-1.000000 I-4.242812 J-4.830048
G03 X13.769256 Y18.429074 Z-1.000000 I6.085632 J6.010560
G02 X14.193474 Y18.297673 Z-1.000000 I-0.040817 J-0.844108
G02 X14.361563 Y18.173203 Z-1.000000 I0.079230 J-0.220846
G02 X14.520516 Y17.987806 Z-1.000000 I-0.187070 J-0.115631
G02 X14.115474 Y18.118369 Z-1.000000 I39.556973 J117.068133

(End cutting path id: path159)


(Start cutting path id: path159)
(Change tool to Default tool)

G00 X13.894001 Y18.475473


(End cutting path id: path159)


(Start cutting path id: path159)
(Change tool to Default tool)

G00 X13.535878 Y19.006213

G01 X13.403015 Y19.156925 Z-1.000000 F3500.000000
G01 X13.553727 Y19.024062 Z-1.000000
G02 X13.695627 Y18.874131 Z-1.000000 I-0.756329 J-0.857932
G02 X13.535878 Y19.006213 Z-1.000000 I2.225032 J2.225555

(End cutting path id: path159)


(Start cutting path id: path159)
(Change tool to Default tool)

G00 X12.909775 Y19.129516


(End cutting path id: path159)


(Start cutting path id: path159)
(Change tool to Default tool)

G00 X12.635753 Y19.403538


(End cutting path id: path159)


(Start cutting path id: path159)
(Change tool to Default tool)

G00 X12.827569 Y19.677562


(End cutting path id: path159)


(Start cutting path id: path159)
(Change tool to Default tool)

G00 X12.488467 Y19.879410


(End cutting path id: path159)


(Start cutting path id: path159)
(Change tool to Default tool)

G00 X12.155341 Y19.604262

G02 X12.448383 Y19.479196 Z-1.000000 I-0.747756 J-1.179099
G02 X12.155341 Y19.604265 Z-1.000000 I0.775426 J1.514232

(End cutting path id: path159)


(Start cutting path id: path159)
(Change tool to Default tool)

G00 X12.264911 Y18.971906


(End cutting path id: path159)


(Start cutting path id: path159)
(Change tool to Default tool)

G00 X12.068961 Y18.471873


(End cutting path id: path159)


(Start cutting path id: path159)
(Change tool to Default tool)

G00 X11.676677 Y18.444473


(End cutting path id: path159)


(Start cutting path id: path159)
(Change tool to Default tool)

G00 X11.786286 Y18.197850


(End cutting path id: path159)


(Start cutting path id: path159)
(Change tool to Default tool)

G00 X11.488385 Y18.839440


(End cutting path id: path159)


(Start cutting path id: path159)
(Change tool to Default tool)

G00 X11.293046 Y19.129516


(End cutting path id: path159)


(Start cutting path id: path159)
(Change tool to Default tool)

G00 X11.108489 Y19.282185


(End cutting path id: path159)


(Start cutting path id: path159)
(Change tool to Default tool)


G01 X11.116070 Y19.507055 Z-1.000000 F3500.000000

(End cutting path id: path159)


(Start cutting path id: path159)
(Change tool to Default tool)

G00 X11.183438 Y19.982218


(End cutting path id: path159)


(Start cutting path id: path159)
(Change tool to Default tool)

G00 X11.392379 Y19.989018


(End cutting path id: path159)


(Start cutting path id: path159)
(Change tool to Default tool)

G00 X10.945743 Y20.074888


(End cutting path id: path159)


(Start cutting path id: path159)
(Change tool to Default tool)

G00 X10.584916 Y19.819140


(End cutting path id: path159)


(Start cutting path id: path159)
(Change tool to Default tool)

G00 X10.429877 Y19.496118


(End cutting path id: path159)


(Start cutting path id: path159)
(Change tool to Default tool)

G00 X10.251763 Y20.115988


(End cutting path id: path159)


(Start cutting path id: path159)
(Change tool to Default tool)

G00 X11.100683 Y17.486361

G03 X10.885880 Y17.610458 Z-1.000000 I-0.085162 J-0.032675
G02 X10.717485 Y17.739564 Z-1.000000 I-0.031988 J0.051764
G02 X10.923471 Y17.715930 Z-1.000000 I-0.190661 J-0.407273
G02 X11.096374 Y17.890790 Z-1.000000 I0.061089 J-0.083036
G03 X11.146879 Y17.618045 Z-1.000000 I0.268763 J-0.067454

(End cutting path id: path159)


(Start cutting path id: path159)
(Change tool to Default tool)

G00 X11.430062 Y17.266261


(End cutting path id: path159)


(Start cutting path id: path159)
(Change tool to Default tool)

G00 X12.005508 Y17.208221


(End cutting path id: path159)


(Start cutting path id: path159)
(Change tool to Default tool)

G00 X11.987240 Y17.467201


(End cutting path id: path159)


(Start cutting path id: path159)
(Change tool to Default tool)

G00 X12.443943 Y17.317851


(End cutting path id: path159)


(Start cutting path id: path159)
(Change tool to Default tool)

G00 X12.767523 Y17.354811


(End cutting path id: path159)


(Start cutting path id: path159)
(Change tool to Default tool)


G02 X12.942047 Y17.590221 Z-1.000000 I0.169278 J-0.261921 F3500.000000

(End cutting path id: path159)


(Start cutting path id: path159)
(Change tool to Default tool)

G00 X13.160727 Y17.298231


(End cutting path id: path159)


(Start cutting path id: path159)
(Change tool to Default tool)


G02 X13.348219 Y17.430670 Z-1.000000 I0.054162 J-0.038282

(End cutting path id: path159)


(Start cutting path id: path159)
(Change tool to Default tool)


G02 X13.384746 Y17.654842 Z-1.000000 I0.091244 J0.056393 F3500.000000
G02 X13.609409 Y17.690146 Z-1.000000 I0.122950 J-0.075996
G02 X13.400809 Y17.598731 Z-1.000000 I-0.010570 J0.110739

(End cutting path id: path159)


(Start cutting path id: path159)
(Change tool to Default tool)

G00 X13.625899 Y17.369991

G03 X13.871989 Y17.467901 Z-1.000000 I-0.093677 J0.527783
G02 X14.146087 Y17.523611 Z-1.000000 I0.045788 J-0.225273
G02 X14.402747 Y17.661410 Z-1.000000 I0.071915 J-0.134387
G02 X14.557071 Y17.483803 Z-1.000000 I-0.057253 J-0.070620
G03 X14.266291 Y17.385368 Z-1.000000 I0.336416 J-4.895132
G03 X13.962406 Y17.352299 Z-1.000000 I1.941783 J-19.256613
G02 X13.671417 Y17.343018 Z-1.000000 I-0.200348 J1.715160

(End cutting path id: path159)


(Start cutting path id: path159)
(Change tool to Default tool)

G00 X13.841680 Y17.705061

G02 X14.088074 Y17.716651 Z-1.000000 I0.003880 J-0.082543
G02 X13.850922 Y17.676911 Z-1.000000 I-0.017537 J0.212382

(End cutting path id: path159)


(Start cutting path id: path159)
(Change tool to Default tool)

G00 X12.713542 Y17.069092


(End cutting path id: path159)


(Start cutting path id: path159)
(Change tool to Default tool)

G00 X12.424124 Y16.910002


(End cutting path id: path159)


(Start cutting path id: path159)
(Change tool to Default tool)


