%
(Header)
(Generated by gcodetools from Inkscape.)
(Using default header. To add your own header create file "header" in the output dir.)
M3
(Header end.)
G21 (All units in mm)

(Start cutting path id: path159)
(Change tool to Default tool)

G00 Z5.000000
G00 X48.659354 Y0.533476

G01 Z-1.000000 F100.0(Penetrate)
G02 X48.727791 Y0.545211 Z-1.000000 I0.061639 J-0.154039 F3500.000000
G02 X48.764396 Y0.529176 Z-1.000000 I-0.002253 J-0.054940
G01 X48.760896 Y0.512122 Z-1.000000
G02 X48.692466 Y0.500396 Z-1.000000 I-0.061604 J0.153974
G02 X48.655853 Y0.516446 Z-1.000000 I0.002235 J0.054884
G01 X48.659356 Y0.533506 Z-1.000000
G01 X48.659354 Y0.533476 Z-1.000000
G00 Z5.000000

(End cutting path id: path159)


(Start cutting path id: path159)
(Change tool to Default tool)

G00 Z5.000000
G00 X48.878571 Y0.533476

G01 Z-1.000000 F100.0(Penetrate)
G02 X48.947008 Y0.545211 Z-1.000000 I0.061639 J-0.154039 F3500.000000
G02 X48.983613 Y0.529176 Z-1.000000 I-0.002253 J-0.054940
G01 X48.980113 Y0.512122 Z-1.000000
G02 X48.911683 Y0.500396 Z-1.000000 I-0.061604 J0.153974
G02 X48.875070 Y0.516446 Z-1.000000 I0.002235 J0.054884
G01 X48.878573 Y0.533506 Z-1.000000
G01 X48.878571 Y0.533476 Z-1.000000
G00 Z5.000000

(End cutting path id: path159)


(Start cutting path id: path159)
(Change tool to Default tool)

G00 Z5.000000
G00 X49.053260 Y0.550846

G01 Z-1.000000 F100.0(Penetrate)
G01 X49.090284 Y0.587870 Z-1.000000 F3500.000000
G02 X49.327282 Y0.550846 Z-1.000000 I-0.000000 J-0.777035
G01 X49.331227 Y0.525947 Z-1.000000
G02 X49.258782 Y0.501506 Z-1.000000 I-0.075892 J0.105360
G02 X49.077139 Y0.520563 Z-1.000000 I-0.018539 J0.698502
G01 X49.053265 Y0.550846 Z-1.000000
G01 X49.053260 Y0.550846 Z-1.000000
G00 Z5.000000

(End cutting path id: path159)


(Start cutting path id: path159)
(Change tool to Default tool)

G00 Z5.000000
G00 X47.080303 Y0.608886

G01 Z-1.000000 F100.0(Penetrate)
G01 X47.097744 Y0.635642 Z-1.000000 F3500.000000
G01 X47.135103 Y0.633056 Z-1.000000
G02 X47.182048 Y0.594798 Z-1.000000 I-0.122660 J-0.198443
G01 X47.189913 Y0.575016 Z-1.000000
G01 X47.180378 Y0.560388 Z-1.000000
G02 X47.135103 Y0.550846 Z-1.000000 I-0.045275 J0.102637
G02 X47.096811 Y0.567355 Z-1.000000 I-0.000000 J0.052663
G02 X47.080303 Y0.608886 Z-1.000000 I0.043988 J0.041531
G01 X47.080303 Y0.608886 Z-1.000000
G00 Z5.000000

(End cutting path id: path159)


(Start cutting path id: path159)
(Change tool to Default tool)

G00 Z5.000000
G00 X45.326563 Y2.412472

G01 Z-1.000000 F100.0(Penetrate)
G01 X45.345863 Y2.437480 Z-1.000000 F3500.000000
G02 X45.408773 Y2.434012 Z-1.000000 I0.026066 J-0.099495
G02 X45.482451 Y2.396597 Z-1.000000 I-0.143355 J-0.373548
G01 X45.490983 Y2.380932 Z-1.000000
G01 X45.481599 Y2.368773 Z-1.000000
G02 X45.408773 Y2.359392 Z-1.000000 I-0.072826 J0.277985
G02 X45.345284 Y2.378109 Z-1.000000 I-0.000000 J0.117039
G01 X45.326563 Y2.412482 Z-1.000000
G01 X45.326563 Y2.412472 Z-1.000000
G00 Z5.000000

(End cutting path id: path159)


(Start cutting path id: path159)
(Change tool to Default tool)

G00 Z5.000000
G00 X45.326563 Y3.901032

G01 Z-1.000000 F100.0(Penetrate)
G01 X45.369310 Y3.943077 Z-1.000000 F3500.000000
G02 X45.737596 Y3.894232 Z-1.000000 I-0.026735 J-1.614429
G01 X45.738386 Y3.873164 Z-1.000000
G02 X45.614286 Y3.853072 Z-1.000000 I-0.123657 J0.370471
G02 X45.348421 Y3.875238 Z-1.000000 I0.001872 J1.627967
G01 X45.326563 Y3.901042 Z-1.000000
G01 X45.326563 Y3.901032 Z-1.000000
G00 Z5.000000

(End cutting path id: path159)


(Start cutting path id: path159)
(Change tool to Default tool)

G00 Z5.000000
G00 X44.874427 Y4.149394

G01 Z-1.000000 F100.0(Penetrate)
G02 X44.942932 Y4.162691 Z-1.000000 I0.068505 J-0.169819 F3500.000000
G02 X45.011438 Y4.149394 Z-1.000000 I-0.000000 J-0.183125
G01 X45.011440 Y4.135060 Z-1.000000
G02 X44.942928 Y4.121754 Z-1.000000 I-0.068512 J0.169731
G02 X44.874418 Y4.135055 Z-1.000000 I0.000000 J0.183095
G01 X44.874418 Y4.149394 Z-1.000000
G01 X44.874427 Y4.149394 Z-1.000000
G00 Z5.000000

(End cutting path id: path159)


(Start cutting path id: path159)
(Change tool to Default tool)

G00 Z5.000000
G00 X44.285278 Y4.603133

G01 Z-1.000000 F100.0(Penetrate)
G02 X44.298270 Y4.647455 Z-1.000000 I0.082098 J-0.000000 F3500.000000
G02 X44.340078 Y4.688573 Z-1.000000 I0.111378 J-0.071433
G01 X44.374092 Y4.685135 Z-1.000000
G02 X44.394888 Y4.637003 Z-1.000000 I-0.045301 J-0.048132
G02 X44.375521 Y4.570937 Z-1.000000 I-0.122368 J-0.000000
G01 X44.340078 Y4.551563 Z-1.000000
G02 X44.300837 Y4.567125 Z-1.000000 I0.000000 J0.057257
G01 X44.285278 Y4.603133 Z-1.000000
G01 X44.285278 Y4.603133 Z-1.000000
G00 Z5.000000

(End cutting path id: path159)


(Start cutting path id: path159)
(Change tool to Default tool)

G00 Z5.000000
G00 X43.956454 Y3.836902

G01 Z-1.000000 F100.0(Penetrate)
G02 X43.844343 Y3.883711 Z-1.000000 I0.060064 J0.301520 F3500.000000
G01 X43.846845 Y3.910992 Z-1.000000
G02 X44.150558 Y3.952775 Z-1.000000 I0.225961 J-0.517762
G02 X44.271858 Y3.851932 Z-1.000000 I-0.020584 J-0.148134
G01 X44.246713 Y3.815235 Z-1.000000
G02 X43.956454 Y3.836902 Z-1.000000 I-0.056859 J1.193313
G01 X43.956454 Y3.836902 Z-1.000000
G00 Z5.000000

(End cutting path id: path159)


(Start cutting path id: path159)
(Change tool to Default tool)

G00 Z5.000000
G00 X43.627627 Y3.839102

G01 Z-1.000000 F100.0(Penetrate)
G02 X43.643677 Y3.877848 Z-1.000000 I0.054793 J0.000000 F3500.000000
G02 X43.682437 Y3.893902 Z-1.000000 I0.038760 J-0.038763
G02 X43.721186 Y3.877851 Z-1.000000 I0.000000 J-0.054800
G02 X43.737237 Y3.839102 Z-1.000000 I-0.038749 J-0.038749
G02 X43.721187 Y3.800347 Z-1.000000 I-0.054817 J-0.000000
G02 X43.682437 Y3.784292 Z-1.000000 I-0.038750 J0.038738
G02 X43.643685 Y3.800341 Z-1.000000 I0.000000 J0.054810
G02 X43.627627 Y3.839102 Z-1.000000 I0.038752 J0.038761
G01 X43.627627 Y3.839102 Z-1.000000
G00 Z5.000000

(End cutting path id: path159)


(Start cutting path id: path159)
(Change tool to Default tool)

G00 Z5.000000
G00 X43.243997 Y3.885072

G01 Z-1.000000 F100.0(Penetrate)
G01 X43.261057 Y3.920102 Z-1.000000 F3500.000000
G02 X43.384499 Y3.995097 Z-1.000000 I0.376832 J-0.481176
G02 X43.476439 Y4.016324 Z-1.000000 I0.098158 J-0.215427
G01 X43.487086 Y3.997797 Z-1.000000
G03 X43.481080 Y3.943789 Z-1.000000 I0.053947 J-0.033337
G03 X43.524696 Y3.888612 Z-1.000000 I0.100579 J0.034677
G01 X43.523135 Y3.862937 Z-1.000000
G02 X43.422109 Y3.839932 Z-1.000000 I-0.102151 J0.215267
G02 X43.264091 Y3.859275 Z-1.000000 I-0.002975 J0.630813
G01 X43.243995 Y3.885102 Z-1.000000
G01 X43.243997 Y3.885072 Z-1.000000
G00 Z5.000000

(End cutting path id: path159)


(Start cutting path id: path159)
(Change tool to Default tool)

G00 Z5.000000
G00 X42.997377 Y3.893872

G01 Z-1.000000 F100.0(Penetrate)
G02 X43.040224 Y3.932575 Z-1.000000 I0.088082 J-0.054445 F3500.000000
G02 X43.110220 Y3.948672 Z-1.000000 I0.069996 J-0.144135
G02 X43.170368 Y3.929845 Z-1.000000 I0.000000 J-0.105494
G01 X43.189190 Y3.893872 Z-1.000000
G01 X43.168091 Y3.860171 Z-1.000000
G02 X43.076347 Y3.839072 Z-1.000000 I-0.091744 J0.188919
G02 X43.004077 Y3.861690 Z-1.000000 I-0.000000 J0.126767
G01 X42.997377 Y3.893872 Z-1.000000
G01 X42.997377 Y3.893872 Z-1.000000
G00 Z5.000000

(End cutting path id: path159)


(Start cutting path id: path159)
(Change tool to Default tool)

G00 Z5.000000
G00 X42.750757 Y3.907752

G01 Z-1.000000 F100.0(Penetrate)
G02 X42.810519 Y4.053321 Z-1.000000 I0.207170 J-0.000000 F3500.000000
G02 X42.953533 Y4.113086 Z-1.000000 I0.143014 J-0.141230
G01 X42.986828 Y4.065107 Z-1.000000
G02 X42.886043 Y3.932414 Z-1.000000 I-0.271035 J0.101240
G02 X42.777124 Y3.885756 Z-1.000000 I-0.156650 J0.215224
G01 X42.750754 Y3.907754 Z-1.000000
G01 X42.750757 Y3.907752 Z-1.000000
G00 Z5.000000

(End cutting path id: path159)


(Start cutting path id: path159)
(Change tool to Default tool)

G00 Z5.000000
G00 X41.928692 Y4.222704

G01 Z-1.000000 F100.0(Penetrate)
G02 X41.945200 Y4.261002 Z-1.000000 I0.052678 J0.000000 F3500.000000
G02 X41.986732 Y4.277514 Z-1.000000 I0.041532 J-0.043975
G01 X42.013486 Y4.260073 Z-1.000000
G01 X42.010902 Y4.222704 Z-1.000000
G02 X41.972643 Y4.175767 Z-1.000000 I-0.198292 J0.122567
G01 X41.952862 Y4.167904 Z-1.000000
G01 X41.938232 Y4.177440 Z-1.000000
G02 X41.928692 Y4.222704 Z-1.000000 I0.102605 J0.045264
G01 X41.928692 Y4.222704 Z-1.000000
G00 Z5.000000

(End cutting path id: path159)


(Start cutting path id: path159)
(Change tool to Default tool)

G00 Z5.000000
G00 X41.757284 Y4.017184

G01 Z-1.000000 F100.0(Penetrate)
G02 X41.711080 Y4.224395 Z-1.000000 I0.378264 J0.193103 F3500.000000
G02 X41.765984 Y4.277505 Z-1.000000 I0.054904 J-0.001825
G01 X41.788667 Y4.259716 Z-1.000000
G02 X41.799604 Y4.140532 Z-1.000000 I-0.391007 J-0.095975
G02 X41.775631 Y4.018481 Z-1.000000 I-0.455662 J0.026122
G01 X41.757304 Y4.017184 Z-1.000000
G01 X41.757284 Y4.017184 Z-1.000000
G00 Z5.000000

(End cutting path id: path159)


(Start cutting path id: path159)
(Change tool to Default tool)

G00 Z5.000000
G00 X41.490257 Y3.997612

G01 Z-1.000000 F100.0(Penetrate)
G02 X41.506220 Y4.035582 Z-1.000000 I0.053141 J-0.000000 F3500.000000
G02 X41.572467 Y4.078102 Z-1.000000 I0.135758 J-0.138649
G02 X41.629635 Y4.073215 Z-1.000000 I0.023548 J-0.061357
G02 X41.654677 Y4.029162 Z-1.000000 I-0.026228 J-0.044053
G02 X41.630855 Y3.972497 Z-1.000000 I-0.079304 J-0.000000
G02 X41.572467 Y3.948672 Z-1.000000 I-0.058388 J0.059632
G02 X41.507998 Y3.966406 Z-1.000000 I0.000000 J0.126048
G01 X41.490257 Y3.997612 Z-1.000000
G01 X41.490257 Y3.997612 Z-1.000000
G00 Z5.000000

(End cutting path id: path159)


(Start cutting path id: path159)
(Change tool to Default tool)

G00 Z5.000000
G00 X40.727322 Y4.090254

G01 Z-1.000000 F100.0(Penetrate)
G02 X40.743372 Y4.126867 Z-1.000000 I0.054884 J-0.002235 F3500.000000
G01 X40.760432 Y4.123364 Z-1.000000
G02 X40.772163 Y4.054923 Z-1.000000 I-0.153994 J-0.061621
G02 X40.756132 Y4.018323 Z-1.000000 I-0.054959 J0.002262
G01 X40.739078 Y4.021823 Z-1.000000
G02 X40.727352 Y4.090253 Z-1.000000 I0.153974 J0.061604
G01 X40.727322 Y4.090254 Z-1.000000
G00 Z5.000000

(End cutting path id: path159)


(Start cutting path id: path159)
(Change tool to Default tool)

G00 Z5.000000
G00 X40.593568 Y4.195304

G01 Z-1.000000 F100.0(Penetrate)
G02 X40.630983 Y4.268982 Z-1.000000 I0.373548 J-0.143355 F3500.000000
G01 X40.646648 Y4.277514 Z-1.000000
G01 X40.658807 Y4.268130 Z-1.000000
G02 X40.668188 Y4.195304 Z-1.000000 I-0.277985 J-0.072826
G02 X40.649471 Y4.131810 Z-1.000000 I-0.117054 J0.000000
G01 X40.615108 Y4.113094 Z-1.000000
G01 X40.590100 Y4.132394 Z-1.000000
G02 X40.593568 Y4.195304 Z-1.000000 I0.099495 J0.026066
G01 X40.593568 Y4.195304 Z-1.000000
G00 Z5.000000

(End cutting path id: path159)


(Start cutting path id: path159)
(Change tool to Default tool)

G00 Z5.000000
G00 X40.376114 Y4.090282

G01 Z-1.000000 F100.0(Penetrate)
G02 X40.414977 Y4.136907 Z-1.000000 I0.087840 J-0.033708 F3500.000000
G01 X40.443534 Y4.131382 Z-1.000000
G03 X40.480251 Y4.088162 Z-1.000000 I0.361168 J0.269618
G03 X40.527244 Y4.044582 Z-1.000000 I0.412995 J0.398214
G01 X40.525601 Y4.021942 Z-1.000000
G02 X40.459824 Y4.003482 Z-1.000000 I-0.065777 J0.107963
G02 X40.387505 Y4.034208 Z-1.000000 I0.000000 J0.100471
G02 X40.376114 Y4.090282 Z-1.000000 I0.038349 J0.036985
G01 X40.376114 Y4.090282 Z-1.000000
G00 Z5.000000

(End cutting path id: path159)


(Start cutting path id: path159)
(Change tool to Default tool)

G00 Z5.000000
G00 X40.086517 Y4.069042

G01 Z-1.000000 F100.0(Penetrate)
G02 X40.181685 Y4.096885 Z-1.000000 I0.108249 J-0.193433 F3500.000000
G02 X40.232242 Y4.077642 Z-1.000000 I0.003891 J-0.065814
G01 X40.228419 Y4.050090 Z-1.000000
G02 X40.133242 Y4.022242 Z-1.000000 I-0.108273 J0.193479
G02 X40.082690 Y4.041470 Z-1.000000 I-0.003887 J0.065847
G01 X40.086512 Y4.069022 Z-1.000000
G01 X40.086517 Y4.069042 Z-1.000000
G00 Z5.000000

(End cutting path id: path159)


(Start cutting path id: path159)
(Change tool to Default tool)

G00 Z5.000000
G00 X39.935915 Y2.770419

G01 Z-1.000000 F100.0(Penetrate)
G02 X39.973330 Y2.844097 Z-1.000000 I0.373548 J-0.143355 F3500.000000
G01 X39.988995 Y2.852629 Z-1.000000
G01 X40.001154 Y2.843245 Z-1.000000
G02 X40.010535 Y2.770419 Z-1.000000 I-0.277985 J-0.072826
G02 X39.991818 Y2.706930 Z-1.000000 I-0.117039 J0.000000
G01 X39.957445 Y2.688209 Z-1.000000
G01 X39.932437 Y2.707509 Z-1.000000
G02 X39.935905 Y2.770419 Z-1.000000 I0.099495 J0.026066
G01 X39.935915 Y2.770419 Z-1.000000
G00 Z5.000000

(End cutting path id: path159)


(Start cutting path id: path159)
(Change tool to Default tool)

G00 Z5.000000
G00 X39.791321 Y2.523782

G01 Z-1.000000 F100.0(Penetrate)
G02 X39.908980 Y2.558492 Z-1.000000 I0.117659 J-0.182064 F3500.000000
G01 X39.928332 Y2.523782 Z-1.000000
G02 X39.884855 Y2.486398 Z-1.000000 I-0.080702 J0.049883
G02 X39.801788 Y2.469812 Z-1.000000 I-0.081199 J0.190357
G01 X39.777083 Y2.490375 Z-1.000000
G01 X39.791318 Y2.523782 Z-1.000000
G01 X39.791321 Y2.523782 Z-1.000000
G00 Z5.000000

(End cutting path id: path159)


(Start cutting path id: path159)
(Change tool to Default tool)

G00 Z5.000000
G00 X41.545061 Y2.737299

G01 Z-1.000000 F100.0(Penetrate)
G02 X41.489295 Y2.779338 Z-1.000000 I0.025622 J0.091995 F3500.000000
G01 X41.499951 Y2.810789 Z-1.000000
G02 X41.583689 Y2.814822 Z-1.000000 I0.047979 J-0.124847
G02 X41.657373 Y2.767159 Z-1.000000 I-0.039250 J-0.141465
G02 X41.706328 Y2.698826 Z-1.000000 I-0.455071 J-0.377724
G01 X41.702483 Y2.693669 Z-1.000000
G02 X41.682091 Y2.699219 Z-1.000000 I0.580876 J2.174413
G02 X41.545060 Y2.737299 Z-1.000000 I30.819474 J111.170309
G01 X41.545061 Y2.737299 Z-1.000000
G00 Z5.000000

(End cutting path id: path159)


(Start cutting path id: path159)
(Change tool to Default tool)

G00 Z5.000000
G00 X42.038300 Y2.684979

G01 Z-1.000000 F100.0(Penetrate)
G02 X42.093559 Y2.754663 Z-1.000000 I0.071567 J-0.000000 F3500.000000
G02 X42.167849 Y2.715299 Z-1.000000 I0.014575 J-0.062278
G02 X42.162907 Y2.658407 Z-1.000000 I-0.060894 J-0.023371
G02 X42.118789 Y2.633409 Z-1.000000 I-0.044118 J0.026431
G02 X42.056530 Y2.651644 Z-1.000000 I-0.000000 J0.115399
G01 X42.038299 Y2.684979 Z-1.000000
G01 X42.038300 Y2.684979 Z-1.000000
G00 Z5.000000

(End cutting path id: path159)


(Start cutting path id: path159)
(Change tool to Default tool)

G00 Z5.000000
G00 X42.750757 Y2.770419

G01 Z-1.000000 F100.0(Penetrate)
G02 X42.768491 Y2.834888 Z-1.000000 I0.126048 J0.000000 F3500.000000
G01 X42.799697 Y2.852629 Z-1.000000
G02 X42.837667 Y2.836666 Z-1.000000 I-0.000000 J-0.053141
G02 X42.880187 Y2.770419 Z-1.000000 I-0.138649 J-0.135758
G02 X42.875303 Y2.713254 Z-1.000000 I-0.061350 J-0.023550
G02 X42.831247 Y2.688209 Z-1.000000 I-0.044056 J0.026227
G02 X42.774582 Y2.712031 Z-1.000000 I0.000000 J0.079304
G02 X42.750757 Y2.770419 Z-1.000000 I0.059632 J0.058388
G01 X42.750757 Y2.770419 Z-1.000000
G00 Z5.000000

(End cutting path id: path159)


(Start cutting path id: path159)
(Change tool to Default tool)

G00 Z5.000000
G00 X43.057692 Y4.792780

G01 Z-1.000000 F100.0(Penetrate)
G02 X43.189071 Y4.894422 Z-1.000000 I0.149348 J-0.057314 F3500.000000
G02 X43.275313 Y4.817380 Z-1.000000 I0.008709 J-0.077042
G02 X43.242750 Y4.748529 Z-1.000000 I-0.089071 J0.000000
G02 X43.151766 Y4.715973 Z-1.000000 I-0.090984 J0.110858
G02 X43.070407 Y4.744968 Z-1.000000 I0.000000 J0.128643
G01 X43.057696 Y4.792783 Z-1.000000
G01 X43.057692 Y4.792780 Z-1.000000
G00 Z5.000000

(End cutting path id: path159)


(Start cutting path id: path159)
(Change tool to Default tool)

G00 Z5.000000
G00 X42.558942 Y5.209213

G01 Z-1.000000 F100.0(Penetrate)
G02 X42.600060 Y5.251021 Z-1.000000 I0.112551 J-0.069570 F3500.000000
G02 X42.644382 Y5.264013 Z-1.000000 I0.044322 J-0.069106
G01 X42.680390 Y5.248454 Z-1.000000
G02 X42.695952 Y5.209213 Z-1.000000 I-0.041696 J-0.039241
G01 X42.676583 Y5.173780 Z-1.000000
G02 X42.610512 Y5.154413 Z-1.000000 I-0.066071 J0.103016
G02 X42.562378 Y5.175211 Z-1.000000 I0.000000 J0.066098
G01 X42.558942 Y5.209213 Z-1.000000
G01 X42.558942 Y5.209213 Z-1.000000
G00 Z5.000000

(End cutting path id: path159)


(Start cutting path id: path159)
(Change tool to Default tool)

G00 Z5.000000
G00 X39.188473 Y5.340360

G01 Z-1.000000 F100.0(Penetrate)
G01 X39.197010 Y5.356036 Z-1.000000 F3500.000000
G02 X39.270683 Y5.393450 Z-1.000000 I0.216864 J-0.335789
G02 X39.333569 Y5.396935 Z-1.000000 I0.036863 J-0.096057
G01 X39.352893 Y5.371910 Z-1.000000
G01 X39.334175 Y5.337545 Z-1.000000
G02 X39.270683 Y5.318830 Z-1.000000 I-0.063492 J0.098343
G02 X39.197851 Y5.328216 Z-1.000000 I0.000000 J0.287250
G01 X39.188473 Y5.340370 Z-1.000000
G01 X39.188473 Y5.340360 Z-1.000000
G00 Z5.000000

(End cutting path id: path159)


(Start cutting path id: path159)
(Change tool to Default tool)

G00 Z5.000000
G00 X38.476016 Y5.209213

G01 Z-1.000000 F100.0(Penetrate)
G02 X38.561872 Y5.249965 Z-1.000000 I0.198045 J-0.306421 F3500.000000
G02 X38.640429 Y5.262343 Z-1.000000 I0.078557 J-0.243098
G01 X38.659156 Y5.243616 Z-1.000000
G01 X38.640429 Y5.209213 Z-1.000000
G02 X38.554574 Y5.168461 Z-1.000000 I-0.198045 J0.306421
G02 X38.476016 Y5.156083 Z-1.000000 I-0.078558 J0.243098
G01 X38.457289 Y5.174810 Z-1.000000
G01 X38.476016 Y5.209213 Z-1.000000
G01 X38.476016 Y5.209213 Z-1.000000
G00 Z5.000000

(End cutting path id: path159)


(Start cutting path id: path159)
(Change tool to Default tool)

G00 Z5.000000
G00 X38.571922 Y4.642663

G01 Z-1.000000 F100.0(Penetrate)
G02 X38.640427 Y4.655960 Z-1.000000 I0.068505 J-0.169819 F3500.000000
G02 X38.708933 Y4.642663 Z-1.000000 I-0.000000 J-0.183125
G01 X38.708935 Y4.628329 Z-1.000000
G02 X38.640423 Y4.615023 Z-1.000000 I-0.068512 J0.169731
G02 X38.571922 Y4.628323 Z-1.000000 I0.000000 J0.183055
G01 X38.571923 Y4.642663 Z-1.000000
G01 X38.571922 Y4.642663 Z-1.000000
G00 Z5.000000

(End cutting path id: path159)


(Start cutting path id: path159)
(Change tool to Default tool)

G00 Z5.000000
G00 X37.736155 Y4.606333

G01 Z-1.000000 F100.0(Penetrate)
G01 X37.733558 Y4.643672 Z-1.000000 F3500.000000
G01 X37.760325 Y4.661133 Z-1.000000
G02 X37.801856 Y4.644625 Z-1.000000 I-0.000000 J-0.060496
G02 X37.818365 Y4.606333 Z-1.000000 I-0.036153 J-0.038292
G02 X37.808826 Y4.561061 Z-1.000000 I-0.112196 J-0.000000
G01 X37.794195 Y4.551523 Z-1.000000
G01 X37.774416 Y4.559385 Z-1.000000
G02 X37.736155 Y4.606333 Z-1.000000 I0.159986 J0.169446
G01 X37.736155 Y4.606333 Z-1.000000
G00 Z5.000000

(End cutting path id: path159)


(Start cutting path id: path159)
(Change tool to Default tool)

G00 Z5.000000
G00 X37.643675 Y4.314944

G01 Z-1.000000 F100.0(Penetrate)
G02 X37.712116 Y4.326675 Z-1.000000 I0.061621 J-0.153994 F3500.000000
G02 X37.748716 Y4.310644 Z-1.000000 I-0.002262 J-0.054959
G01 X37.745216 Y4.293590 Z-1.000000
G02 X37.676786 Y4.281864 Z-1.000000 I-0.061604 J0.153974
G02 X37.640173 Y4.297914 Z-1.000000 I0.002235 J0.054884
G01 X37.643676 Y4.314974 Z-1.000000
G01 X37.643675 Y4.314944 Z-1.000000
G00 Z5.000000

(End cutting path id: path159)


(Start cutting path id: path159)
(Change tool to Default tool)

G00 Z5.000000
G00 X36.996297 Y3.565083

G01 Z-1.000000 F100.0(Penetrate)
G02 X37.012806 Y3.603375 Z-1.000000 I0.052663 J-0.000000 F3500.000000
G02 X37.054337 Y3.619883 Z-1.000000 I0.041531 J-0.043988
G01 X37.081093 Y3.602442 Z-1.000000
G01 X37.078507 Y3.565083 Z-1.000000
G02 X37.040249 Y3.518138 Z-1.000000 I-0.198443 J0.122660
G01 X37.020467 Y3.510273 Z-1.000000
G01 X37.005839 Y3.519808 Z-1.000000
G02 X36.996297 Y3.565083 Z-1.000000 I0.102637 J0.045275
G01 X36.996297 Y3.565083 Z-1.000000
G00 Z5.000000

(End cutting path id: path159)


(Start cutting path id: path159)
(Change tool to Default tool)

G00 Z5.000000
G00 X36.859286 Y3.510273

G01 Z-1.000000 F100.0(Penetrate)
G02 X36.897544 Y3.557218 Z-1.000000 I0.198443 J-0.122660 F3500.000000
G01 X36.917326 Y3.565083 Z-1.000000
G01 X36.931954 Y3.555548 Z-1.000000
G02 X36.941496 Y3.510273 Z-1.000000 I-0.102637 J-0.045275
G02 X36.924987 Y3.471981 Z-1.000000 I-0.052663 J-0.000000
G02 X36.883456 Y3.455473 Z-1.000000 I-0.041531 J0.043988
G01 X36.856700 Y3.472914 Z-1.000000
G01 X36.859286 Y3.510273 Z-1.000000
G01 X36.859286 Y3.510273 Z-1.000000
G00 Z5.000000

(End cutting path id: path159)


(Start cutting path id: path159)
(Change tool to Default tool)

G00 Z5.000000
G00 X37.917694 Y3.218872

G01 Z-1.000000 F100.0(Penetrate)
G02 X37.986135 Y3.230603 Z-1.000000 I0.061621 J-0.153994 F3500.000000
G02 X38.022736 Y3.214572 Z-1.000000 I-0.002262 J-0.054962
G01 X38.019236 Y3.197518 Z-1.000000
G02 X37.950806 Y3.185792 Z-1.000000 I-0.061604 J0.153974
G02 X37.914193 Y3.201842 Z-1.000000 I0.002235 J0.054884
G01 X37.917696 Y3.218902 Z-1.000000
G01 X37.917694 Y3.218872 Z-1.000000
G00 Z5.000000

(End cutting path id: path159)


(Start cutting path id: path159)
(Change tool to Default tool)

G00 Z5.000000
G00 X36.146830 Y4.770780

G01 Z-1.000000 F100.0(Penetrate)
G02 X36.189832 Y4.809197 Z-1.000000 I0.086335 J-0.053365 F3500.000000
G02 X36.262908 Y4.825580 Z-1.000000 I0.073076 J-0.154779
G02 X36.308331 Y4.805076 Z-1.000000 I0.000000 J-0.060565
G01 X36.311238 Y4.770780 Z-1.000000
G02 X36.268235 Y4.732363 Z-1.000000 I-0.086336 J0.053366
G02 X36.195161 Y4.715980 Z-1.000000 I-0.073074 J0.154776
G02 X36.149731 Y4.736483 Z-1.000000 I-0.000000 J0.060583
G01 X36.146821 Y4.770780 Z-1.000000
G01 X36.146830 Y4.770780 Z-1.000000
G00 Z5.000000

(End cutting path id: path159)


(Start cutting path id: path159)
(Change tool to Default tool)

G00 Z5.000000
G00 X35.571382 Y4.693143

G01 Z-1.000000 F100.0(Penetrate)
G02 X35.517286 Y4.748077 Z-1.000000 I0.066184 J0.119276 F3500.000000
G01 X35.530282 Y4.769973 Z-1.000000
G03 X35.592478 Y4.804395 Z-1.000000 I-0.000628 J0.074535
G03 X35.627032 Y4.921493 Z-1.000000 I-0.185340 J0.118338
G02 X35.649912 Y4.995384 Z-1.000000 I0.133153 J-0.000742
G01 X35.676762 Y4.994973 Z-1.000000
G02 X35.705717 Y4.915758 Z-1.000000 I-0.167864 J-0.106259
G02 X35.697462 Y4.844261 Z-1.000000 I-0.143256 J-0.019684
G03 X35.703964 Y4.794609 Z-1.000000 I0.049066 J-0.018826
G03 X35.750622 Y4.770791 Z-1.000000 I0.046658 J0.033791
G02 X35.823229 Y4.752154 Z-1.000000 I0.000000 J-0.150756
G02 X35.900206 Y4.688581 Z-1.000000 I-0.128759 J-0.234295
G01 X35.900578 Y4.639966 Z-1.000000
G02 X35.838406 Y4.611751 Z-1.000000 I-0.059042 J0.047494
G02 X35.712879 Y4.633141 Z-1.000000 I0.021093 J0.502796
G02 X35.571375 Y4.693151 Z-1.000000 I0.212725 J0.698454
G01 X35.571382 Y4.693143 Z-1.000000
G00 Z5.000000

(End cutting path id: path159)


(Start cutting path id: path159)
(Change tool to Default tool)

G00 Z5.000000
G00 X34.173872 Y3.345863

G01 Z-1.000000 F100.0(Penetrate)
G02 X34.215232 Y3.387227 Z-1.000000 I0.108330 J-0.066960 F3500.000000
G02 X34.262552 Y3.400673 Z-1.000000 I0.047320 J-0.076540
G01 X34.287070 Y3.383791 Z-1.000000
G01 X34.283482 Y3.345863 Z-1.000000
G02 X34.242121 Y3.304505 Z-1.000000 I-0.108287 J0.066934
G02 X34.194802 Y3.291063 Z-1.000000 I-0.047319 J0.076566
G01 X34.170282 Y3.307945 Z-1.000000
G01 X34.173872 Y3.345863 Z-1.000000
G01 X34.173872 Y3.345863 Z-1.000000
G00 Z5.000000

(End cutting path id: path159)


(Start cutting path id: path159)
(Change tool to Default tool)

G00 Z5.000000
G00 X33.862171 Y3.218872

G01 Z-1.000000 F100.0(Penetrate)
G02 X33.930612 Y3.230603 Z-1.000000 I0.061621 J-0.153994 F3500.000000
G02 X33.967212 Y3.214572 Z-1.000000 I-0.002262 J-0.054959
G01 X33.963712 Y3.197518 Z-1.000000
G02 X33.895282 Y3.185792 Z-1.000000 I-0.061604 J0.153974
G02 X33.858669 Y3.201842 Z-1.000000 I0.002235 J0.054884
G01 X33.862172 Y3.218902 Z-1.000000
G01 X33.862171 Y3.218872 Z-1.000000
G00 Z5.000000

(End cutting path id: path159)


(Start cutting path id: path159)
(Change tool to Default tool)

G00 Z5.000000
G00 X33.201094 Y3.491763

G01 Z-1.000000 F100.0(Penetrate)
G02 X33.269599 Y3.505060 Z-1.000000 I0.068505 J-0.169819 F3500.000000
G02 X33.338105 Y3.491763 Z-1.000000 I-0.000000 J-0.183125
G01 X33.338107 Y3.477429 Z-1.000000
G02 X33.269595 Y3.464123 Z-1.000000 I-0.068512 J0.169731
G02 X33.201094 Y3.477423 Z-1.000000 I0.000000 J0.183055
G01 X33.201095 Y3.491763 Z-1.000000
G01 X33.201094 Y3.491763 Z-1.000000
G00 Z5.000000

(End cutting path id: path159)


(Start cutting path id: path159)
(Change tool to Default tool)

G00 Z5.000000
G00 X32.968563 Y3.400043

G01 Z-1.000000 F100.0(Penetrate)
G01 X32.975272 Y3.420927 Z-1.000000 F3500.000000
G02 X33.020133 Y3.421583 Z-1.000000 I0.023249 J-0.055677
G02 X33.071254 Y3.372953 Z-1.000000 I-0.032919 J-0.085791
G01 X33.053613 Y3.345863 Z-1.000000
G02 X33.009253 Y3.358790 Z-1.000000 I0.000000 J0.082575
G02 X32.968563 Y3.400043 Z-1.000000 I0.069719 J0.109462
G01 X32.968563 Y3.400043 Z-1.000000
G00 Z5.000000

(End cutting path id: path159)


(Start cutting path id: path159)
(Change tool to Default tool)

G00 Z5.000000
G00 X33.270700 Y3.867832

G01 Z-1.000000 F100.0(Penetrate)
G02 X33.341055 Y3.929072 Z-1.000000 I0.222787 J-0.184912 F3500.000000
G01 X33.365110 Y3.926282 Z-1.000000
G02 X33.371408 Y3.840501 Z-1.000000 I-0.046539 J-0.046539
G02 X33.259661 Y3.784300 Z-1.000000 I-0.111747 J0.082995
G01 X33.242666 Y3.803690 Z-1.000000
G02 X33.270701 Y3.867830 Z-1.000000 I0.125281 J-0.016562
G01 X33.270700 Y3.867832 Z-1.000000
G00 Z5.000000

(End cutting path id: path159)


(Start cutting path id: path159)
(Change tool to Default tool)

G00 Z5.000000
G00 X30.997840 Y3.478013

G01 Z-1.000000 F100.0(Penetrate)
G02 X31.104592 Y3.530349 Z-1.000000 I0.200926 J-0.274797 F3500.000000
G02 X31.155389 Y3.523363 Z-1.000000 I0.017513 J-0.060835
G01 X31.160762 Y3.495564 Z-1.000000
G02 X31.101189 Y3.449863 Z-1.000000 I-0.108910 J0.080289
G02 X31.004006 Y3.444639 Z-1.000000 I-0.056485 J0.144239
G01 X30.997840 Y3.478003 Z-1.000000
G01 X30.997840 Y3.478013 Z-1.000000
G00 Z5.000000

(End cutting path id: path159)


(Start cutting path id: path159)
(Change tool to Default tool)

G00 Z5.000000
G00 X30.200554 Y3.291042

G01 Z-1.000000 F100.0(Penetrate)
G02 X30.265395 Y3.390334 Z-1.000000 I0.600403 J-0.321264 F3500.000000
G01 X30.286614 Y3.400651 Z-1.000000
G01 X30.295144 Y3.389348 Z-1.000000
G02 X30.255354 Y3.291042 Z-1.000000 I-0.478691 J0.136545
G02 X30.190515 Y3.191752 Z-1.000000 I-0.600861 J0.321562
G01 X30.169294 Y3.181433 Z-1.000000
G01 X30.160764 Y3.192736 Z-1.000000
G02 X30.200554 Y3.291042 Z-1.000000 I0.478691 J-0.136545
G01 X30.200554 Y3.291042 Z-1.000000
G00 Z5.000000

(End cutting path id: path159)


(Start cutting path id: path159)
(Change tool to Default tool)

G00 Z5.000000
G00 X29.791861 Y3.122872

G01 Z-1.000000 F100.0(Penetrate)
G02 X29.785550 Y3.167923 Z-1.000000 I0.048061 J0.029700 F3500.000000
G02 X29.816031 Y3.208312 Z-1.000000 I0.067103 J-0.018945
G01 X29.850704 Y3.205048 Z-1.000000
G02 X29.871731 Y3.157292 Z-1.000000 I-0.043717 J-0.047756
G02 X29.839261 Y3.107943 Z-1.000000 I-0.053737 J0.000000
G01 X29.791861 Y3.122872 Z-1.000000
G01 X29.791861 Y3.122872 Z-1.000000
G00 Z5.000000

(End cutting path id: path159)


(Start cutting path id: path159)
(Change tool to Default tool)

G00 Z5.000000
G00 X29.460695 Y3.565083

G01 Z-1.000000 F100.0(Penetrate)
G02 X29.498954 Y3.612020 Z-1.000000 I0.198292 J-0.122567 F3500.000000
G01 X29.518735 Y3.619883 Z-1.000000
G01 X29.533365 Y3.610347 Z-1.000000
G02 X29.542905 Y3.565083 Z-1.000000 I-0.102605 J-0.045264
G02 X29.526397 Y3.526785 Z-1.000000 I-0.052678 J0.000000
G02 X29.484865 Y3.510273 Z-1.000000 I-0.041532 J0.043975
G01 X29.458111 Y3.527714 Z-1.000000
G01 X29.460695 Y3.565083 Z-1.000000
G01 X29.460695 Y3.565083 Z-1.000000
G00 Z5.000000

(End cutting path id: path159)


(Start cutting path id: path159)
(Change tool to Default tool)

G00 Z5.000000
G00 X28.748238 Y3.071852

G01 Z-1.000000 F100.0(Penetrate)
G02 X28.786496 Y3.118797 Z-1.000000 I0.198443 J-0.122660 F3500.000000
G01 X28.806278 Y3.126662 Z-1.000000
G01 X28.820906 Y3.117127 Z-1.000000
G02 X28.830448 Y3.071852 Z-1.000000 I-0.102637 J-0.045275
G02 X28.813939 Y3.033560 Z-1.000000 I-0.052663 J-0.000000
G02 X28.772408 Y3.017052 Z-1.000000 I-0.041531 J0.043988
G01 X28.745652 Y3.034493 Z-1.000000
G01 X28.748238 Y3.071852 Z-1.000000
G01 X28.748238 Y3.071852 Z-1.000000
G00 Z5.000000

(End cutting path id: path159)


(Start cutting path id: path159)
(Change tool to Default tool)

G00 Z5.000000
G00 X28.582753 Y3.363922

G01 Z-1.000000 F100.0(Penetrate)
G03 X28.638285 Y3.488711 Z-1.000000 I-0.355737 J0.233055 F3500.000000
G01 X28.626793 Y3.531232 Z-1.000000
G01 X28.630748 Y3.542561 Z-1.000000
G02 X28.675863 Y3.536832 Z-1.000000 I0.010850 J-0.095067
G03 X28.755393 Y3.529945 Z-1.000000 I0.051737 J0.134815
G03 X28.800737 Y3.561332 Z-1.000000 I-0.013259 J0.067602
G02 X28.849071 Y3.598080 Z-1.000000 I0.071939 J-0.044459
G02 X29.002114 Y3.619872 Z-1.000000 I0.153043 J-0.526509
G02 X29.082619 Y3.435778 Z-1.000000 I0.000000 J-0.109650
G02 X28.651071 Y3.240247 Z-1.000000 I-0.447611 J0.413911
G02 X28.579634 Y3.281133 Z-1.000000 I-0.002104 J0.079174
G02 X28.582761 Y3.363926 Z-1.000000 I0.070262 J0.038802
G01 X28.582753 Y3.363922 Z-1.000000
G00 Z5.000000

(End cutting path id: path159)


(Start cutting path id: path159)
(Change tool to Default tool)

G00 Z5.000000
G00 X28.104373 Y3.219192

G01 Z-1.000000 F100.0(Penetrate)
G01 X28.068145 Y3.260402 Z-1.000000 F3500.000000
G02 X28.090673 Y3.326358 Z-1.000000 I0.078451 J0.010030
G03 X28.176133 Y3.500158 Z-1.000000 I-0.212257 J0.212281
G01 X28.117993 Y3.537660 Z-1.000000
G01 X28.080654 Y3.535063 Z-1.000000
G01 X28.063193 Y3.561830 Z-1.000000
G02 X28.112684 Y3.612499 Z-1.000000 I0.050683 J0.000000
G02 X28.200204 Y3.565030 Z-1.000000 I0.002354 J-0.100076
G03 X28.241564 Y3.523666 Z-1.000000 I0.108330 J0.066960
G03 X28.288884 Y3.510220 Z-1.000000 I0.047320 J0.076540
G01 X28.314999 Y3.526214 Z-1.000000
G01 X28.313664 Y3.558790 Z-1.000000
G01 X28.333792 Y3.620997 Z-1.000000
G02 X28.592563 Y3.673881 Z-1.000000 I0.267016 J-0.647010
G02 X28.692277 Y3.514332 Z-1.000000 I0.001338 J-0.110098
G02 X28.362043 Y3.215388 Z-1.000000 I-0.551285 J0.277116
G02 X28.262367 Y3.197678 Z-1.000000 I-0.095733 J0.249449
G02 X28.104384 Y3.219188 Z-1.000000 I0.009781 J0.662749
G01 X28.104373 Y3.219192 Z-1.000000
G00 Z5.000000

(End cutting path id: path159)


(Start cutting path id: path159)
(Change tool to Default tool)

G00 Z5.000000
G00 X27.706402 Y3.072746

G01 Z-1.000000 F100.0(Penetrate)
G03 X27.666097 Y3.103515 Z-1.000000 I-0.060389 J-0.037321 F3500.000000
G03 X27.622092 Y3.097616 Z-1.000000 I-0.015399 J-0.052209
G02 X27.571529 Y3.088266 Z-1.000000 I-0.037308 J0.060362
G02 X27.455582 Y3.129196 Z-1.000000 I0.076112 J0.400301
G02 X27.390007 Y3.199172 Z-1.000000 I0.070566 J0.131842
G01 X27.399642 Y3.252300 Z-1.000000
G03 X27.443510 Y3.389897 Z-1.000000 I-0.111265 J0.111265
G03 X27.364422 Y3.459807 Z-1.000000 I-0.082877 J-0.014068
G01 X27.342069 Y3.475876 Z-1.000000
G01 X27.350722 Y3.495247 Z-1.000000
G03 X27.423379 Y3.537707 Z-1.000000 I-0.089563 J0.236654
G03 X27.476755 Y3.600529 Z-1.000000 I-0.155661 J0.186343
G02 X27.531903 Y3.654844 Z-1.000000 I0.129927 J-0.076765
G02 X27.606775 Y3.674699 Z-1.000000 I0.074872 J-0.131243
G01 X27.639955 Y3.649804 Z-1.000000
G02 X27.629165 Y3.597819 Z-1.000000 I-0.054356 J-0.015830
G03 X27.608329 Y3.533141 Z-1.000000 I0.070309 J-0.058345
G01 X27.636165 Y3.497102 Z-1.000000
G03 X27.699465 Y3.499930 Z-1.000000 I0.027998 J0.083160
G03 X27.779937 Y3.560282 Z-1.000000 I-0.088973 J0.202461
G01 X27.811175 Y3.571121 Z-1.000000
G01 X27.822757 Y3.551382 Z-1.000000
G03 X27.828947 Y3.482163 Z-1.000000 I0.086365 J-0.027164
G01 X27.873087 Y3.455472 Z-1.000000
G02 X27.955138 Y3.383315 Z-1.000000 I0.000000 J-0.082729
G02 X27.897877 Y3.263104 Z-1.000000 I-0.121853 J-0.015700
G03 X27.867241 Y3.222764 Z-1.000000 I0.037041 J-0.059934
G03 X27.873317 Y3.178294 Z-1.000000 I0.053148 J-0.015388
G01 X27.865666 Y3.160040 Z-1.000000
G02 X27.810417 Y3.163994 Z-1.000000 I-0.021117 J0.092891
G03 X27.763060 Y3.161403 Z-1.000000 I-0.020785 J-0.054179
G01 X27.755997 Y3.135964 Z-1.000000
G03 X27.884193 Y3.060480 Z-1.000000 I0.135703 J0.083867
G03 X27.953568 Y3.126664 Z-1.000000 I0.003118 J0.066184
G01 X27.972671 Y3.162358 Z-1.000000
G02 X28.035778 Y3.181464 Z-1.000000 I0.063107 J-0.094665
G01 X28.074787 Y3.128202 Z-1.000000
G02 X27.994678 Y3.051593 Z-1.000000 I-0.109970 J0.034805
G02 X27.775461 Y3.030862 Z-1.000000 I-0.170889 J0.637626
G02 X27.706403 Y3.072753 Z-1.000000 I0.006503 J0.088587
G01 X27.706402 Y3.072746 Z-1.000000
G00 Z5.000000

(End cutting path id: path159)


(Start cutting path id: path159)
(Change tool to Default tool)

G00 Z5.000000
G00 X27.107631 Y3.635953

G01 Z-1.000000 F100.0(Penetrate)
G02 X27.151607 Y3.703592 Z-1.000000 I0.178602 J-0.068004 F3500.000000
G01 X27.175731 Y3.703543 Z-1.000000
G01 X27.182286 Y3.672911 Z-1.000000
G02 X27.138311 Y3.605273 Z-1.000000 I-0.178565 J0.067980
G01 X27.114186 Y3.605319 Z-1.000000
G01 X27.107631 Y3.635953 Z-1.000000
G01 X27.107631 Y3.635953 Z-1.000000
G00 Z5.000000

(End cutting path id: path159)


(Start cutting path id: path159)
(Change tool to Default tool)

G00 Z5.000000
G00 X26.541917 Y3.687473

G01 Z-1.000000 F100.0(Penetrate)
G02 X26.571983 Y3.784912 Z-1.000000 I0.223669 J-0.015659 F3500.000000
G01 X26.601027 Y3.788662 Z-1.000000
G02 X26.620597 Y3.736309 Z-1.000000 I-0.047643 J-0.047643
G02 X26.590527 Y3.638867 Z-1.000000 I-0.223716 J0.015676
G01 X26.561490 Y3.635118 Z-1.000000
G02 X26.541917 Y3.687477 Z-1.000000 I0.047646 J0.047649
G01 X26.541917 Y3.687473 Z-1.000000
G00 Z5.000000

(End cutting path id: path159)


(Start cutting path id: path159)
(Change tool to Default tool)

G00 Z5.000000
G00 X26.199835 Y3.479013

G01 Z-1.000000 F100.0(Penetrate)
G01 X26.210152 Y3.500232 Z-1.000000 F3500.000000
G02 X26.309444 Y3.565073 Z-1.000000 I0.420585 J-0.535608
G02 X26.407750 Y3.604862 Z-1.000000 I0.234860 J-0.438924
G01 X26.419053 Y3.596333 Z-1.000000
G01 X26.408736 Y3.575114 Z-1.000000
G02 X26.309444 Y3.510273 Z-1.000000 I-0.420585 J0.535608
G02 X26.211138 Y3.470484 Z-1.000000 I-0.234860 J0.438924
G01 X26.199835 Y3.479013 Z-1.000000
G01 X26.199835 Y3.479013 Z-1.000000
G00 Z5.000000

(End cutting path id: path159)


(Start cutting path id: path159)
(Change tool to Default tool)

G00 Z5.000000
G00 X26.090886 Y3.289802

G01 Z-1.000000 F100.0(Penetrate)
G02 X26.085637 Y3.351637 Z-1.000000 I0.069156 J0.037011 F3500.000000
G01 X26.116356 Y3.366142 Z-1.000000
G02 X26.178765 Y3.319628 Z-1.000000 I-0.051530 J-0.134265
G02 X26.199826 Y3.257766 Z-1.000000 I-0.080324 J-0.061862
G01 X26.163606 Y3.230662 Z-1.000000
G02 X26.090878 Y3.289796 Z-1.000000 I0.034209 J0.116364
G01 X26.090886 Y3.289802 Z-1.000000
G00 Z5.000000

(End cutting path id: path159)


(Start cutting path id: path159)
(Change tool to Default tool)

G00 Z5.000000
G00 X25.940118 Y3.288502

G01 Z-1.000000 F100.0(Penetrate)
G02 X25.908641 Y3.387303 Z-1.000000 I0.177848 J0.111074 F3500.000000
G01 X25.931718 Y3.431698 Z-1.000000
G03 X25.965082 Y3.477868 Z-1.000000 I-0.039246 J0.063500
G03 X25.964118 Y3.567450 Z-1.000000 I-0.179595 J0.042863
G02 X26.030912 Y3.851527 Z-1.000000 I0.301828 J0.078923
G02 X26.217606 Y3.857856 Z-1.000000 I0.096304 J-0.084061
G02 X26.250616 Y3.719175 Z-1.000000 I-0.096157 J-0.096157
G02 X26.112803 Y3.539538 Z-1.000000 I-0.325787 J0.107253
G03 X26.015937 Y3.429032 Z-1.000000 I0.150390 J-0.229534
G03 X26.004238 Y3.314017 Z-1.000000 I0.153033 J-0.073669
G01 X25.983839 Y3.274166 Z-1.000000
G01 X25.940118 Y3.288507 Z-1.000000
G01 X25.940118 Y3.288502 Z-1.000000
G00 Z5.000000

(End cutting path id: path159)


(Start cutting path id: path159)
(Change tool to Default tool)

G00 Z5.000000
G00 X25.706595 Y3.277332

G01 Z-1.000000 F100.0(Penetrate)
G02 X25.717287 Y3.321345 Z-1.000000 I0.095939 J-0.000000 F3500.000000
G02 X25.786075 Y3.431278 Z-1.000000 I0.698986 J-0.360890
G01 X25.819649 Y3.441218 Z-1.000000
G01 X25.834265 Y3.413498 Z-1.000000
G02 X25.750403 Y3.260008 Z-1.000000 I-0.338590 J0.085341
G01 X25.706595 Y3.277333 Z-1.000000
G01 X25.706595 Y3.277332 Z-1.000000
G00 Z5.000000

(End cutting path id: path159)


(Start cutting path id: path159)
(Change tool to Default tool)

G00 Z5.000000
G00 X25.361119 Y3.403592

G01 Z-1.000000 F100.0(Penetrate)
G02 X25.361742 Y3.492280 Z-1.000000 I0.165079 J0.043186 F3500.000000
G02 X25.397289 Y3.534385 Z-1.000000 I0.063530 J-0.017577
G01 X25.395187 Y3.543273 Z-1.000000
G03 X25.275006 Y3.531185 Z-1.000000 I0.021422 J-0.816426
G02 X25.147469 Y3.537513 Z-1.000000 I-0.049889 J0.282892
G01 X25.134563 Y3.570615 Z-1.000000
G03 X25.168054 Y3.646445 Z-1.000000 I-0.256995 J0.158814
G03 X25.193343 Y3.776375 Z-1.000000 I-0.740645 J0.211583
G03 X25.176166 Y3.844295 Z-1.000000 I-0.100492 J0.010718
G01 X25.144713 Y3.847195 Z-1.000000
G02 X25.074191 Y3.802732 Z-1.000000 I-0.133357 J0.133357
G02 X24.966736 Y3.784305 Z-1.000000 I-0.107455 J0.304093
G03 X24.859624 Y3.765049 Z-1.000000 I-0.000000 J-0.307535
G03 X24.783599 Y3.716255 Z-1.000000 I0.073788 J-0.198590
G02 X24.720535 Y3.690986 Z-1.000000 I-0.061060 J0.061060
G02 X24.671893 Y3.718855 Z-1.000000 I0.001364 J0.058765
G01 X24.624845 Y3.740841 Z-1.000000
G03 X24.555733 Y3.702135 Z-1.000000 I0.015702 J-0.109094
G02 X24.254119 Y3.434597 Z-1.000000 I-1.021311 J0.847611
G01 X24.204112 Y3.475205 Z-1.000000
G01 X24.162854 Y3.530989 Z-1.000000
G03 X23.985786 Y3.460065 Z-1.000000 I0.021509 J-0.310191
G02 X23.916653 Y3.426878 Z-1.000000 I-0.100893 J0.121576
G01 X23.898046 Y3.442055 Z-1.000000
G02 X23.964555 Y3.575475 Z-1.000000 I0.167079 J0.000000
G02 X24.118346 Y3.608111 Z-1.000000 I0.111845 J-0.148379
G03 X24.172278 Y3.617339 Z-1.000000 I0.015972 J0.068865
G03 X24.213426 Y3.668621 Z-1.000000 I-0.054836 J0.086149
G01 X24.206783 Y3.702563 Z-1.000000
G01 X24.179176 Y3.706491 Z-1.000000
G01 X24.139520 Y3.710259 Z-1.000000
G02 X24.112936 Y3.767371 Z-1.000000 I0.055768 J0.060702
G03 X24.097462 Y3.801554 Z-1.000000 I-0.050325 J-0.002187
G01 X24.080966 Y3.798011 Z-1.000000
G02 X24.003158 Y3.739620 Z-1.000000 I-0.087225 J0.035194
G01 X23.952849 Y3.785121 Z-1.000000
G02 X23.972114 Y3.829892 Z-1.000000 I0.061654 J0.000000
G02 X24.117065 Y3.940597 Z-1.000000 I0.593514 J-0.626864
G03 X24.251580 Y4.044030 Z-1.000000 I-0.404882 J0.665737
G01 X24.251849 Y4.069895 Z-1.000000
G01 X24.244970 Y4.102192 Z-1.000000
G02 X24.338369 Y4.295860 Z-1.000000 I1.201697 J-0.460179
G03 X24.419427 Y4.502792 Z-1.000000 I-0.601830 J0.355086
G03 X24.474121 Y4.921585 Z-1.000000 I-2.466279 J0.535064
G02 X24.539842 Y5.337402 Z-1.000000 I1.903771 J-0.087794
G02 X24.681189 Y5.677335 Z-1.000000 I1.405708 J-0.385153
G03 X24.867008 Y6.004704 Z-1.000000 I-36.891751 J21.156676
G03 X24.972398 Y6.195708 Z-1.000000 I-12.447461 J6.992691
G02 X25.084674 Y6.378495 Z-1.000000 I1.737862 J-0.941593
G02 X25.117778 Y6.405905 Z-1.000000 I0.065292 J-0.045161
G01 X25.139599 Y6.430351 Z-1.000000
G01 X25.135558 Y6.462575 Z-1.000000
G02 X25.128402 Y6.503122 Z-1.000000 I0.047324 J0.029257
G02 X25.222598 Y6.882628 Z-1.000000 I4.914805 J-1.018447
G03 X25.322780 Y7.266845 Z-1.000000 I-7.013988 J2.034023
G03 X25.406457 Y7.675423 Z-1.000000 I-7.853351 J1.821225
G02 X25.781668 Y9.536064 Z-1.000000 I40.889033 J-7.277406
G01 X25.826743 Y9.538772 Z-1.000000
G01 X25.874323 Y9.524849 Z-1.000000
G03 X25.949982 Y9.634332 Z-1.000000 I-0.135137 J0.174271
G03 X25.943666 Y9.710072 Z-1.000000 I-0.097598 J0.029994
G01 X25.904392 Y9.725302 Z-1.000000
G01 X25.868928 Y9.745047 Z-1.000000
G02 X25.875602 Y9.876359 Z-1.000000 I0.272687 J0.051966
G03 X25.929418 Y10.059639 Z-1.000000 I-21.416563 J6.388019
G03 X26.007700 Y10.333434 Z-1.000000 I-48.146587 J13.913915
G02 X26.085788 Y10.607290 Z-1.000000 I64.800475 J-18.329293
G02 X26.310769 Y11.387824 Z-1.000000 I521.794042 J-149.979174
G01 X26.536334 Y12.168193 Z-1.000000
G01 X26.416066 Y12.730532 Z-1.000000
G02 X26.303712 Y13.294052 Z-1.000000 I20.203108 J4.321035
G02 X26.281643 Y13.457284 Z-1.000000 I1.670229 J0.308923
G03 X26.215137 Y13.852115 Z-1.000000 I-2.465742 J-0.212319
G03 X26.065423 Y14.311672 Z-1.000000 I-3.495198 J-0.884494
G02 X26.059806 Y14.391336 Z-1.000000 I0.120862 J0.048552
G02 X26.101423 Y14.457724 Z-1.000000 I0.121396 J-0.029862
G01 X26.146581 Y14.458350 Z-1.000000
G02 X26.177593 Y14.397994 Z-1.000000 I-0.050100 J-0.063888
G03 X26.239325 Y13.976049 Z-1.000000 I2.098817 J0.091574
G03 X26.318036 Y13.840909 Z-1.000000 I0.273924 J0.069052
G01 X26.344258 Y13.850975 Z-1.000000
G03 X26.342436 Y14.166480 Z-1.000000 I-1.954791 J0.146470
G03 X26.231029 Y14.555755 Z-1.000000 I-1.054963 J-0.091342
G03 X26.103919 Y14.634734 Z-1.000000 I-0.128882 J-0.065648
G02 X26.052825 Y14.652781 Z-1.000000 I0.001031 J0.084269
G01 X26.035409 Y14.688654 Z-1.000000
G01 X26.054178 Y14.714434 Z-1.000000
G02 X26.110549 Y14.712904 Z-1.000000 I0.026018 J-0.080625
G03 X26.179580 Y14.712817 Z-1.000000 I0.034629 J0.090241
G03 X26.278485 Y14.776864 Z-1.000000 I-0.100227 J0.263168
G02 X26.371281 Y14.826358 Z-1.000000 I0.127716 J-0.127716
G02 X26.433524 Y14.807414 Z-1.000000 I0.013364 J-0.067817
G02 X26.458314 Y14.745172 Z-1.000000 I-0.059924 J-0.059924
G02 X26.430024 Y14.679406 Z-1.000000 I-0.096741 J0.002647
G03 X26.376508 Y14.608564 Z-1.000000 I0.227473 J-0.227473
G03 X26.364254 Y14.561412 Z-1.000000 I0.084589 J-0.047152
G01 X26.380449 Y14.552569 Z-1.000000
G03 X26.466590 Y14.627182 Z-1.000000 I-0.216823 J0.337357
G02 X26.576440 Y14.728722 Z-1.000000 I0.513712 J-0.445560
G02 X26.626436 Y14.745177 Z-1.000000 I0.049996 J-0.067729
G03 X26.672447 Y14.761720 Z-1.000000 I0.000000 J0.072256
G03 X26.709386 Y14.813677 Z-1.000000 I-0.078233 J0.094730
G01 X26.735573 Y14.820080 Z-1.000000
G02 X26.791956 Y14.738957 Z-1.000000 I-0.146860 J-0.162227
G03 X26.869609 Y14.618971 Z-1.000000 I0.342820 J0.136745
G03 X26.958259 Y14.567188 Z-1.000000 I0.136834 J0.132480
G02 X27.041694 Y14.515406 Z-1.000000 I-0.042076 J-0.160905
G02 X27.085773 Y14.420514 Z-1.000000 I-0.142456 J-0.123857
G01 X27.160329 Y14.405673 Z-1.000000
G03 X27.373698 Y14.893251 Z-1.000000 I-1.694227 J1.031885
G02 X27.581300 Y15.440575 Z-1.000000 I3.331272 J-0.950530
G02 X27.665862 Y15.502538 Z-1.000000 I0.100185 J-0.048040
G03 X27.765646 Y15.569636 Z-1.000000 I-0.019398 J0.136593
G01 X27.735542 Y15.622037 Z-1.000000
G01 X27.715364 Y15.643551 Z-1.000000
G02 X27.744342 Y15.759048 Z-1.000000 I0.328749 J-0.021098
G02 X27.818376 Y15.878011 Z-1.000000 I0.494765 J-0.225389
G01 X27.856468 Y15.896058 Z-1.000000
G01 X27.879376 Y15.915670 Z-1.000000
G03 X27.872848 Y16.001055 Z-1.000000 I-0.184739 J0.028818
G02 X27.865678 Y16.096362 Z-1.000000 I0.197892 J0.062812
G02 X27.894898 Y16.140272 Z-1.000000 I0.062481 J-0.009901
G03 X27.934184 Y16.186798 Z-1.000000 I-0.051514 J0.083347
G03 X28.065009 Y16.559772 Z-1.000000 I-3.824632 J1.550965
G03 X28.140233 Y16.950787 Z-1.000000 I-1.922792 J0.572654
G03 X28.178735 Y17.810706 Z-1.000000 I-9.338087 J0.848923
G03 X28.173545 Y18.675961 Z-1.000000 I-89.686896 J-0.105301
G03 X28.168735 Y18.724825 Z-1.000000 I-0.281546 J-0.003047
G02 X28.163884 Y18.773531 Z-1.000000 I0.292116 J0.053690
G02 X28.166235 Y18.871124 Z-1.000000 I1.194561 J0.020046
G02 X28.201900 Y18.916375 Z-1.000000 I0.050809 J-0.003366
G02 X28.285890 Y18.908394 Z-1.000000 I0.032470 J-0.104238
G03 X28.553987 Y18.816743 Z-1.000000 I0.414462 J0.774437
G01 X28.581987 Y18.858354 Z-1.000000
G03 X28.540468 Y18.893418 Z-1.000000 I-0.074408 J-0.045994
G03 X28.453987 Y18.910294 Z-1.000000 I-0.086481 J-0.213141
G02 X28.286851 Y19.025412 Z-1.000000 I0.000000 J0.178889
G02 X28.150780 Y19.704958 Z-1.000000 I1.949064 J0.743672
G03 X28.065901 Y20.807321 Z-1.000000 I-11.990564 J-0.368792
G03 X27.945980 Y21.362328 Z-1.000000 I-3.139973 J-0.387998
G02 X27.909390 Y21.543172 Z-1.000000 I0.856277 J0.267373
G02 X27.871620 Y22.129589 Z-1.000000 I9.058252 J0.877851
G03 X27.822848 Y22.714238 Z-1.000000 I-5.728264 J-0.183499
G03 X27.743699 Y23.075427 Z-1.000000 I-2.256263 J-0.305158
G02 X27.313437 Y24.611772 Z-1.000000 I31.836334 J9.744370
G01 X27.348107 Y24.630542 Z-1.000000
G02 X27.382868 Y24.577113 Z-1.000000 I-0.141695 J-0.130209
G02 X27.456297 Y24.381877 Z-1.000000 I-1.887902 J-0.821475
G03 X27.539416 Y24.199196 Z-1.000000 I0.812416 J0.259398
G03 X27.595394 Y24.152419 Z-1.000000 I0.096328 J0.058391
G01 X27.617292 Y24.169103 Z-1.000000
G03 X27.583334 Y24.275353 Z-1.000000 I-0.264357 J-0.025938
G02 X27.543789 Y24.521650 Z-1.000000 I0.305589 J0.175388
G02 X27.652074 Y24.609949 Z-1.000000 I0.108285 J-0.022247
G02 X27.719698 Y24.585502 Z-1.000000 I-0.000000 J-0.105754
G02 X27.767403 Y24.514039 Z-1.000000 I-0.096586 J-0.116129
G03 X27.801654 Y24.420037 Z-1.000000 I0.971711 J0.300816
G03 X27.847893 Y24.322967 Z-1.000000 I1.078960 J0.454411
G01 X27.828525 Y24.283618 Z-1.000000
G02 X27.761513 Y24.308527 Z-1.000000 I-0.011830 J0.070768
G01 X27.624871 Y24.472940 Z-1.000000
G01 X27.705601 Y24.309716 Z-1.000000
G02 X27.726165 Y24.165244 Z-1.000000 I-0.209250 J-0.103484
G02 X27.664401 Y24.078739 Z-1.000000 I-0.121915 J0.021744
G03 X27.590913 Y24.018849 Z-1.000000 I0.131004 J-0.235779
G01 X27.597281 Y24.000699 Z-1.000000
G02 X27.651968 Y23.989805 Z-1.000000 I-0.532427 J-2.815324
G02 X27.706889 Y23.977679 Z-1.000000 I-0.527546 J-2.519900
G03 X27.762118 Y23.967884 Z-1.000000 I0.120497 J0.518826
G03 X27.861295 Y23.958629 Z-1.000000 I0.204846 J1.659102
G02 X27.918146 Y23.923049 Z-1.000000 I-0.004509 J-0.070414
G02 X27.926455 Y23.843804 Z-1.000000 I-0.086550 J-0.049134
G03 X27.915815 Y23.737919 Z-1.000000 I0.246579 J-0.078254
G03 X27.948495 Y23.638288 Z-1.000000 I0.250131 J0.026870
G03 X27.988557 Y23.608328 Z-1.000000 I0.055315 J0.032201
G01 X28.008835 Y23.623478 Z-1.000000
G01 X28.029277 Y23.633452 Z-1.000000
G02 X28.087905 Y23.567478 Z-1.000000 I-0.112790 J-0.159268
G02 X28.213250 Y23.226667 Z-1.000000 I-1.096835 J-0.596854
G02 X28.363198 Y22.253373 Z-1.000000 I-8.987186 J-1.882785
G03 X28.562664 Y20.853072 Z-1.000000 I16.648054 J1.657080
G03 X28.679117 Y20.553729 Z-1.000000 I0.848243 J0.157667
G02 X28.705284 Y20.452893 Z-1.000000 I-0.147427 J-0.092070
G02 X28.670217 Y20.377691 Z-1.000000 I-0.110093 J0.005560
G02 X28.631370 Y20.354700 Z-1.000000 I-0.072212 J0.077698
G01 X28.624737 Y20.362621 Z-1.000000
G03 X28.606137 Y20.515006 Z-1.000000 I-0.116487 J0.063110
G03 X28.483182 Y20.517831 Z-1.000000 I-0.062827 J-0.057299
G03 X28.465847 Y20.421101 Z-1.000000 I0.060818 J-0.060818
G03 X28.617458 Y20.225610 Z-1.000000 I0.495314 J0.227602
G02 X28.636322 Y20.190659 Z-1.000000 I-0.032649 J-0.040189
G02 X28.683078 Y19.580207 Z-1.000000 I-12.239618 J-1.244469
G02 X28.683367 Y19.015601 Z-1.000000 I-5.526913 J-0.285129
G01 X28.653738 Y19.000050 Z-1.000000
G01 X28.632770 Y18.991347 Z-1.000000
G03 X28.638008 Y18.933000 Z-1.000000 I0.090670 J-0.021270
G02 X28.668663 Y18.824389 Z-1.000000 I-0.387122 J-0.167894
G02 X28.725548 Y18.316007 Z-1.000000 I-8.577548 J-1.217158
G03 X28.779569 Y17.809459 Z-1.000000 I10.430417 J0.856203
G03 X28.796608 Y17.774894 Z-1.000000 I0.059406 J0.007802
G01 X28.828964 Y17.763509 Z-1.000000
G03 X28.923898 Y17.788744 Z-1.000000 I-0.035405 J0.324377
G02 X29.023060 Y17.823719 Z-1.000000 I0.291078 J-0.667208
G02 X29.056825 Y17.825064 Z-1.000000 I0.019793 J-0.072420
G01 X29.075555 Y17.836287 Z-1.000000
G03 X29.084225 Y17.912274 Z-1.000000 I-0.192341 J0.060435
G02 X29.104196 Y17.975099 Z-1.000000 I0.087463 J0.006784
G01 X29.149555 Y17.990974 Z-1.000000
G01 X29.183955 Y18.002648 Z-1.000000
G01 X29.186415 Y18.033714 Z-1.000000
G02 X29.187908 Y18.254289 Z-1.000000 I0.176529 J0.109097
G02 X29.915390 Y19.178314 Z-1.000000 I4.975575 J-3.168866
G03 X29.984224 Y19.258168 Z-1.000000 I-0.685685 J0.660653
G03 X30.073228 Y19.383359 Z-1.000000 I-1.602236 J1.233338
G02 X30.164742 Y19.480291 Z-1.000000 I0.317223 J-0.207826
G01 X30.206464 Y19.482039 Z-1.000000
G01 X30.236025 Y19.486418 Z-1.000000
G03 X30.255274 Y19.537309 Z-1.000000 I-0.057650 J0.050891
G02 X30.281310 Y19.596708 Z-1.000000 I0.080776 J0.000000
G02 X30.347994 Y19.622749 Z-1.000000 I0.066684 J-0.072360
G03 X30.429146 Y19.649368 Z-1.000000 I0.000000 J0.137010
G03 X30.642793 Y19.839457 Z-1.000000 I-0.910027 J1.237917
G02 X30.845407 Y20.025446 Z-1.000000 I1.295996 J-1.208488
G01 X30.877527 Y20.023509 Z-1.000000
G01 X30.908824 Y20.020705 Z-1.000000
G03 X31.019339 Y20.121929 Z-1.000000 I-0.317750 J0.457856
G02 X31.106160 Y20.188979 Z-1.000000 I0.194219 J-0.161752
G01 X31.130319 Y20.174019 Z-1.000000
G01 X31.152578 Y20.158353 Z-1.000000
G03 X31.212609 Y20.201419 Z-1.000000 I-0.039380 J0.118266
G03 X31.271284 Y20.314829 Z-1.000000 I-0.300880 J0.227549
G03 X31.289869 Y20.444813 Z-1.000000 I-0.380132 J0.120672
G01 X31.270142 Y20.454149 Z-1.000000
G03 X31.234739 Y20.401753 Z-1.000000 I0.063126 J-0.080811
G02 X31.166942 Y20.262808 Z-1.000000 I-0.430982 J0.124281
G01 X31.128542 Y20.255222 Z-1.000000
G01 X31.079634 Y20.255804 Z-1.000000
G03 X30.968025 Y20.161262 Z-1.000000 I0.214380 J-0.366230
G02 X30.878388 Y20.079775 Z-1.000000 I-0.337765 J0.281503
G01 X30.861690 Y20.088572 Z-1.000000
G02 X30.926447 Y20.270164 Z-1.000000 I0.285819 J0.000417
G02 X31.063819 Y20.335192 Z-1.000000 I0.137372 J-0.112585
G03 X31.108359 Y20.352736 Z-1.000000 I0.000000 J0.065308
G03 X31.151969 Y20.417402 Z-1.000000 I-0.118189 J0.126745
G01 X31.111650 Y20.450880 Z-1.000000
G03 X30.906853 Y20.266690 Z-1.000000 I0.400270 J-0.651003
G02 X30.563358 Y19.877225 Z-1.000000 I-3.134766 J2.418547
G01 X30.529302 Y19.891391 Z-1.000000
G02 X30.542307 Y19.937847 Z-1.000000 I0.089475 J0.000000
G02 X30.581552 Y19.977391 Z-1.000000 I0.101957 J-0.061940
G03 X30.627317 Y20.016610 Z-1.000000 I-0.102611 J0.166049
G03 X30.756744 Y20.182337 Z-1.000000 I-1.806979 J1.544589
G03 X30.818330 Y20.297515 Z-1.000000 I-0.417481 J0.297284
G01 X30.804784 Y20.308700 Z-1.000000
G01 X30.773013 Y20.314468 Z-1.000000
G01 X30.766604 Y20.358090 Z-1.000000
G03 X30.796973 Y20.454943 Z-1.000000 I-0.758301 J0.290956
G03 X30.803324 Y20.507326 Z-1.000000 I-0.212839 J0.052383
G01 X30.820897 Y20.529364 Z-1.000000
G02 X30.866594 Y20.521776 Z-1.000000 I0.013593 J-0.059527
G01 X30.891468 Y20.521065 Z-1.000000
G01 X30.895884 Y20.537646 Z-1.000000
G02 X30.885635 Y20.595677 Z-1.000000 I0.067781 J0.041892
G02 X31.000757 Y21.044755 Z-1.000000 I4.832149 J-0.999442
G03 X31.115731 Y21.490791 Z-1.000000 I-4.820237 J1.480344
G01 X31.102999 Y21.532588 Z-1.000000
G03 X30.968782 Y21.521729 Z-1.000000 I-0.062374 J-0.063955
G03 X30.549318 Y20.783398 Z-1.000000 I2.856916 J-2.111402
G02 X30.387879 Y20.423542 Z-1.000000 I-7.316011 J3.065965
G02 X30.360948 Y20.389995 Z-1.000000 I-0.085141 J0.040768
G03 X30.192604 Y20.136286 Z-1.000000 I0.297999 J-0.380437
G03 X30.227209 Y19.897827 Z-1.000000 I0.292037 J-0.079360
G01 X30.228223 Y19.860650 Z-1.000000
G01 X30.196729 Y19.841947 Z-1.000000
G01 X30.163487 Y19.870812 Z-1.000000
G02 X30.157989 Y20.115345 Z-1.000000 I1.026247 J0.145401
G03 X30.152088 Y20.380281 Z-1.000000 I-1.119759 J0.107592
G03 X30.103029 Y20.504721 Z-1.000000 I-0.284178 J-0.040143
G01 X30.102915 Y20.548742 Z-1.000000
G01 X30.139669 Y20.557611 Z-1.000000
G03 X30.307218 Y20.543654 Z-1.000000 I0.099906 J0.186673
G03 X30.348236 Y20.627931 Z-1.000000 I-0.021022 J0.062352
G02 X30.370515 Y20.949118 Z-1.000000 I0.381663 J0.134892
G02 X30.810777 Y21.520228 Z-1.000000 I1.802872 J-0.934560
G03 X30.890193 Y21.680433 Z-1.000000 I-0.163779 J0.180975
G03 X30.835597 Y21.810855 Z-1.000000 I-0.152056 J0.012986
G03 X30.764297 Y21.838184 Z-1.000000 I-0.075979 J-0.091554
G01 X30.721376 Y21.815355 Z-1.000000
G02 X30.674455 Y21.782724 Z-1.000000 I-0.061044 J0.037727
G02 X30.583554 Y21.787695 Z-1.000000 I-0.035826 J0.178484
G03 X30.496482 Y21.783786 Z-1.000000 I-0.038219 J-0.120399
G03 X30.425419 Y21.721415 Z-1.000000 I0.057557 J-0.137246
G02 X30.382598 Y21.679253 Z-1.000000 I-0.098726 J0.057443
G01 X30.366549 Y21.688375 Z-1.000000
G02 X30.380606 Y21.745144 Z-1.000000 I0.110291 J0.002814
G02 X30.423419 Y21.789826 Z-1.000000 I0.107804 J-0.060442
G03 X30.454980 Y21.835110 Z-1.000000 I-0.036520 J0.059092
G03 X30.448459 Y21.913298 Z-1.000000 I-0.137536 J0.027896
G01 X30.461935 Y21.932039 Z-1.000000
G02 X30.514479 Y21.910498 Z-1.000000 I-0.003542 J-0.083495
G03 X30.617215 Y21.857815 Z-1.000000 I0.149707 J0.165426
G03 X30.694952 Y21.871628 Z-1.000000 I0.021969 J0.102012
G02 X30.843140 Y21.888541 Z-1.000000 I0.091591 J-0.144845
G02 X30.935422 Y21.787488 Z-1.000000 I-0.047645 J-0.136172
G03 X30.997547 Y21.686290 Z-1.000000 I0.191991 J0.048194
G03 X31.092076 Y21.651316 Z-1.000000 I0.093550 J0.107616
G03 X31.141948 Y21.672881 Z-1.000000 I-0.000477 J0.069555
G01 X31.138596 Y21.700126 Z-1.000000
G01 X31.124479 Y21.740125 Z-1.000000
G02 X31.166036 Y21.780846 Z-1.000000 I0.061069 J-0.020757
G03 X31.250381 Y21.834541 Z-1.000000 I-0.058910 J0.185628
G03 X31.335590 Y21.964952 Z-1.000000 I-0.347731 J0.320248
G03 X31.662140 Y22.815210 Z-1.000000 I-8.963574 J3.930381
G03 X31.650475 Y22.914697 Z-1.000000 I-0.112362 J0.037253
G01 X31.646965 Y22.950141 Z-1.000000
G01 X31.669465 Y22.965777 Z-1.000000
G01 X31.706515 Y22.986652 Z-1.000000
G03 X31.864548 Y23.287830 Z-1.000000 I-2.370893 J1.436096
G03 X31.955830 Y23.610433 Z-1.000000 I-1.050635 J0.471497
G03 X31.930648 Y23.794771 Z-1.000000 I-0.351648 J0.045851
G03 X31.841138 Y23.973299 Z-1.000000 I-1.448131 J-0.614354
G03 X31.717089 Y24.160705 Z-1.000000 I-1.720248 J-1.003925
G03 X31.203515 Y24.678785 Z-1.000000 I-2.096815 J-1.564984
G03 X30.611521 Y25.000994 Z-1.000000 I-1.351490 J-1.778150
G02 X30.445359 Y25.088375 Z-1.000000 I0.233409 J0.645523
G02 X30.419687 Y25.138325 Z-1.000000 I0.035759 J0.049950
G03 X30.403464 Y25.197237 Z-1.000000 I-0.115077 J0.000000
G03 X30.355567 Y25.245915 Z-1.000000 I-0.123461 J-0.073577
G01 X30.329759 Y25.239278 Z-1.000000
G03 X30.326447 Y25.194345 Z-1.000000 I0.046034 J-0.025982
G01 X30.296834 Y25.154670 Z-1.000000
G02 X30.090861 Y25.212755 Z-1.000000 I0.042619 J0.545370
G03 X29.871209 Y25.302398 Z-1.000000 I-0.640268 J-1.254921
G03 X29.740509 Y25.322364 Z-1.000000 I-0.130700 J-0.417804
G02 X29.628996 Y25.355152 Z-1.000000 I0.000000 J0.206024
G02 X29.570219 Y25.431973 Z-1.000000 I0.077241 J0.119995
G03 X29.519611 Y25.520251 Z-1.000000 I-0.229096 J-0.072692
G03 X29.470619 Y25.542421 Z-1.000000 I-0.049862 J-0.044968
G01 X29.458249 Y25.558101 Z-1.000000
G02 X29.481649 Y25.591291 Z-1.000000 I0.051827 J-0.011696
G02 X29.596990 Y25.611931 Z-1.000000 I0.082958 J-0.130990
G02 X30.046565 Y25.470635 Z-1.000000 I-0.523722 J-2.452246
G03 X30.232883 Y25.424103 Z-1.000000 I0.243156 J0.577331
G01 X30.275157 Y25.449805 Z-1.000000
G01 X30.292785 Y25.460996 Z-1.000000
G01 X30.305747 Y25.448205 Z-1.000000
G03 X30.428032 Y25.268150 Z-1.000000 I0.214400 J0.014058
G03 X30.917450 Y25.157917 Z-1.000000 I0.489418 J1.031351
G02 X31.514342 Y24.918869 Z-1.000000 I0.000000 J-0.864730
G02 X32.080763 Y24.048128 Z-1.000000 I-1.557848 J-1.632987
G03 X32.131630 Y23.975600 Z-1.000000 I0.157972 J0.056690
G03 X32.196479 Y23.952218 Z-1.000000 I0.064849 J0.078238
G03 X32.408549 Y24.068818 Z-1.000000 I-0.000000 J0.251155
G03 X32.697844 Y24.742431 Z-1.000000 I-1.945827 J1.234597
G03 X32.649444 Y25.215120 Z-1.000000 I-0.675860 J0.169619
G03 X32.391270 Y25.377132 Z-1.000000 I-0.258174 J-0.124701
G03 X32.301889 Y25.358275 Z-1.000000 I-0.000000 J-0.221257
G01 X32.283031 Y25.329332 Z-1.000000
G02 X32.118799 Y25.124125 Z-1.000000 I-0.210319 J0.000000
G02 X31.816685 Y25.224602 Z-1.000000 I-0.067624 J0.301104
G02 X31.756092 Y25.392108 Z-1.000000 I0.191756 J0.164077
G02 X31.821385 Y25.571822 Z-1.000000 I0.290851 J-0.003952
G02 X31.862284 Y25.593464 Z-1.000000 I0.046003 J-0.037471
G01 X31.875825 Y25.576522 Z-1.000000
G03 X31.884429 Y25.518070 Z-1.000000 I0.064104 J-0.020424
G01 X31.924405 Y25.505622 Z-1.000000
G02 X31.997087 Y25.511835 Z-1.000000 I0.047098 J-0.122741
G02 X32.038709 Y25.482962 Z-1.000000 I-0.012347 J-0.062237
G01 X32.043959 Y25.448116 Z-1.000000
G01 X32.026759 Y25.437042 Z-1.000000
G03 X31.887664 Y25.417464 Z-1.000000 I-0.039179 J-0.225540
G03 X31.844571 Y25.348662 Z-1.000000 I0.033377 J-0.068802
G03 X31.949954 Y25.259886 Z-1.000000 I0.090085 J0.000000
G03 X32.206841 Y25.411082 Z-1.000000 I-0.071596 J0.415472
G02 X32.437954 Y25.451267 Z-1.000000 I0.138411 J-0.111350
G02 X32.732745 Y25.089384 Z-1.000000 I-0.367060 J-0.600019
G03 X32.831863 Y24.999145 Z-1.000000 I0.134786 J0.048492
G03 X32.911700 Y25.043374 Z-1.000000 I0.016537 J0.064320
G02 X32.962879 Y25.134470 Z-1.000000 I0.245186 J-0.077826
G02 X33.079806 Y25.236452 Z-1.000000 I0.427868 J-0.372545
G03 X33.196794 Y25.334491 Z-1.000000 I-0.357091 J0.544930
G03 X33.214680 Y25.379541 Z-1.000000 I-0.047791 J0.045050
G02 X33.227306 Y25.430451 Z-1.000000 I0.108955 J0.000000
G02 X33.358335 Y25.651335 Z-1.000000 I2.307470 J-1.219498
G03 X33.469016 Y25.873883 Z-1.000000 I-0.844293 J0.558693
G03 X33.473323 Y25.978035 Z-1.000000 I-0.167929 J0.059110
G02 X33.490315 Y26.029740 Z-1.000000 I0.048538 J0.012693
G01 X33.543473 Y26.034765 Z-1.000000
G03 X33.644549 Y26.010675 Z-1.000000 I0.096279 J0.179878
G03 X33.812116 Y26.041065 Z-1.000000 I-0.012895 J0.548275
G03 X33.887425 Y26.128119 Z-1.000000 I-0.037983 J0.108960
G01 X33.837996 Y26.174906 Z-1.000000
G02 X33.745646 Y26.184502 Z-1.000000 I-0.033009 J0.131512
G01 X33.728387 Y26.228256 Z-1.000000
G03 X33.752382 Y26.319643 Z-1.000000 I-0.403348 J0.154749
G03 X33.762717 Y26.459810 Z-1.000000 I-0.945345 J0.140167
G01 X33.762717 Y26.601892 Z-1.000000
G01 X33.899728 Y26.473177 Z-1.000000
G02 X34.016997 Y26.335921 Z-1.000000 I-0.564900 J-0.601368
G02 X34.036739 Y26.271809 Z-1.000000 I-0.094235 J-0.064112
G03 X34.056224 Y26.218642 Z-1.000000 I0.082278 J0.000000
G03 X34.098249 Y26.199159 Z-1.000000 I0.042025 J0.035583
G01 X34.116835 Y26.178997 Z-1.000000
G02 X34.091549 Y26.116949 Z-1.000000 I-0.110962 J0.009042
G03 X34.078811 Y26.060796 Z-1.000000 I0.048950 J-0.040626
G01 X34.112239 Y26.034739 Z-1.000000
G01 X34.156917 Y25.988980 Z-1.000000
G02 X34.108939 Y25.897217 Z-1.000000 I-0.117101 J0.002802
G03 X34.056170 Y25.809935 Z-1.000000 I0.078092 J-0.106805
G03 X34.019269 Y25.296175 Z-1.000000 I3.337393 J-0.497914
G03 X34.046432 Y24.776018 Z-1.000000 I5.495911 J0.026215
G03 X34.076159 Y24.727282 Z-1.000000 I0.065551 J0.006549
G02 X34.110070 Y24.679390 Z-1.000000 I-0.043083 J-0.066457
G02 X34.169709 Y24.339284 Z-1.000000 I-2.665083 J-0.642615
G03 X34.334318 Y23.786838 Z-1.000000 I1.608835 J0.178627
G03 X34.487745 Y23.711005 Z-1.000000 I0.127306 J0.064443
G02 X34.529338 Y23.708582 Z-1.000000 I0.015893 J-0.085389
G01 X34.529945 Y23.697945 Z-1.000000
G03 X34.454373 Y23.653889 Z-1.000000 I0.157020 J-0.356191
G03 X34.415636 Y23.612755 Z-1.000000 I0.096955 J-0.130113
G01 X34.378474 Y23.599945 Z-1.000000
G02 X34.269837 Y23.662075 Z-1.000000 I0.104622 J0.308980
G02 X34.188824 Y23.778523 Z-1.000000 I0.187374 J0.216760
G02 X34.099959 Y24.116583 Z-1.000000 I1.629586 J0.609077
G03 X34.036405 Y24.471297 Z-1.000000 I-8.531099 J-1.345462
G03 X33.970514 Y24.761269 Z-1.000000 I-5.765582 J-1.157656
G03 X33.870092 Y24.950979 Z-1.000000 I-0.440990 J-0.112003
G01 X33.800583 Y24.953084 Z-1.000000
G02 X33.709907 Y24.910278 Z-1.000000 I-0.105040 J0.105065
G02 X33.651932 Y24.938644 Z-1.000000 I-0.005951 J0.061265
G02 X33.609492 Y25.023611 Z-1.000000 I0.399436 J0.252596
G02 X33.599952 Y25.075655 Z-1.000000 I0.137189 J0.052044
G01 X33.613400 Y25.084050 Z-1.000000
G02 X33.650152 Y25.051115 Z-1.000000 I-0.039761 J-0.081343
G01 X33.699621 Y25.052452 Z-1.000000
G03 X33.865287 Y25.435778 Z-1.000000 I-1.789428 J1.000819
G03 X33.863213 Y25.586572 Z-1.000000 I-0.228805 J0.072264
G01 X33.809687 Y25.596300 Z-1.000000
G02 X33.695598 Y25.459555 Z-1.000000 I-28.696818 J23.826432
G02 X33.496385 Y25.222586 Z-1.000000 I-88.314034 J74.040685
G03 X33.308982 Y24.977537 Z-1.000000 I2.482713 J-2.092854
G03 X33.155047 Y24.729347 Z-1.000000 I2.393182 J-1.656159
G02 X33.013102 Y24.472890 Z-1.000000 I-227.688349 J125.854208
G02 X32.693950 Y23.897364 Z-1.000000 I-1175.799267 J651.652730
G03 X32.378585 Y23.319841 Z-1.000000 I42.615860 J-23.645915
G03 X32.222778 Y23.020494 Z-1.000000 I11.292325 J-6.067746
G03 X32.138296 Y22.734942 Z-1.000000 I0.746444 J-0.376111
G03 X32.180968 Y22.636864 Z-1.000000 I0.107197 J-0.011683
G02 X32.286401 Y22.549451 Z-1.000000 I-0.807015 J-1.080661
G02 X32.426545 Y22.411273 Z-1.000000 I-1.885892 J-2.052894
G03 X32.575129 Y22.324447 Z-1.000000 I0.222579 J0.210350
G03 X32.737636 Y22.333813 Z-1.000000 I0.066200 J0.265871
G03 X33.123325 Y22.501811 Z-1.000000 I-1.432650 J3.815796
G01 X33.118736 Y22.523782 Z-1.000000
G02 X33.068406 Y22.544532 Z-1.000000 I0.004103 J0.081365
G02 X33.050226 Y22.585292 Z-1.000000 I0.036603 J0.040760
G01 X33.066630 Y22.613910 Z-1.000000
G01 X33.098446 Y22.613532 Z-1.000000
G03 X33.147454 Y22.608080 Z-1.000000 I0.030254 J0.048952
G03 X33.394914 Y22.715729 Z-1.000000 I-0.561769 J1.629620
G02 X33.640457 Y22.829607 Z-1.000000 I1.167503 J-2.195710
G01 X33.666674 Y22.824216 Z-1.000000
G03 X33.694484 Y22.810124 Z-1.000000 I0.035426 J0.035426
G03 X33.931951 Y22.783416 Z-1.000000 I0.447441 J2.909218
G02 X34.125107 Y22.726949 Z-1.000000 I-0.033944 J-0.474705
G02 X34.158525 Y22.660390 Z-1.000000 I-0.031106 J-0.057287
G01 X34.177414 Y22.633741 Z-1.000000
G01 X34.217975 Y22.648660 Z-1.000000
G02 X34.296672 Y22.695882 Z-1.000000 I0.102225 J-0.081175
G02 X34.367537 Y22.676060 Z-1.000000 I0.015122 J-0.082524
G01 X34.377359 Y22.679908 Z-1.000000
G01 X34.370337 Y22.704770 Z-1.000000
G03 X34.292173 Y22.767509 Z-1.000000 I-0.163503 J-0.123641
G03 X34.240357 Y22.764290 Z-1.000000 I-0.022901 J-0.050016
G01 X34.217498 Y22.770791 Z-1.000000
G02 X34.215387 Y22.814340 Z-1.000000 I0.048424 J0.024173
G03 X34.230077 Y22.896303 Z-1.000000 I-0.206752 J0.079355
G03 X34.213987 Y22.934525 Z-1.000000 I-0.054981 J-0.000648
G02 X34.188574 Y22.973357 Z-1.000000 I0.080248 J0.080248
G02 X34.167137 Y23.054089 Z-1.000000 I0.341774 J0.133965
G01 X34.188918 Y23.067499 Z-1.000000
G02 X34.356092 Y22.921083 Z-1.000000 I-0.604304 J-0.858624
G03 X34.572286 Y22.730819 Z-1.000000 I1.022882 J0.944322
G03 X34.690152 Y22.683567 Z-1.000000 I0.156836 J0.220587
G02 X34.802165 Y22.641091 Z-1.000000 I-0.039874 J-0.274083
G02 X34.844916 Y22.582068 Z-1.000000 I-0.056204 J-0.085703
G01 X34.835936 Y22.566483 Z-1.000000
G01 X34.815076 Y22.574068 Z-1.000000
G03 X34.753671 Y22.608776 Z-1.000000 I-0.067114 J-0.047066
G03 X34.646491 Y22.585838 Z-1.000000 I-0.013787 J-0.197458
G02 X34.542281 Y22.544102 Z-1.000000 I-0.240374 J0.449222
G01 X34.529912 Y22.553508 Z-1.000000
G01 X34.516685 Y22.563716 Z-1.000000
G03 X34.337080 Y22.503008 Z-1.000000 I0.344983 J-1.316662
G02 X34.161654 Y22.477079 Z-1.000000 I-0.138687 J0.331906
G02 X34.077277 Y22.529678 Z-1.000000 I0.011551 J0.112506
G03 X33.997788 Y22.614060 Z-1.000000 I-0.250751 J-0.156581
G03 X33.927582 Y22.636076 Z-1.000000 I-0.068999 J-0.097081
G01 X33.905130 Y22.618068 Z-1.000000
G01 X33.916762 Y22.589636 Z-1.000000
G01 X33.912800 Y22.566937 Z-1.000000
G02 X33.736256 Y22.549376 Z-1.000000 I-0.160904 J0.721396
G03 X33.512048 Y22.478906 Z-1.000000 I-0.007711 J-0.367370
G03 X33.029626 Y22.034070 Z-1.000000 I1.687111 J-2.313675
G02 X32.902442 Y21.907020 Z-1.000000 I-0.910239 J0.784018
G02 X32.647055 Y21.705243 Z-1.000000 I-2.568392 J2.988272
G03 X32.390953 Y21.504399 Z-1.000000 I2.533967 J-3.494827
G03 X32.291616 Y21.404178 Z-1.000000 I0.524442 J-0.619162
G02 X32.196230 Y21.299113 Z-1.000000 I-1.261644 J1.049585
G02 X31.857550 Y20.965743 Z-1.000000 I-13.087914 J12.957657
G03 X31.532892 Y20.628883 Z-1.000000 I4.127141 J-4.302528
G03 X31.515492 Y20.581754 Z-1.000000 I0.051335 J-0.045729
G02 X31.506258 Y20.529165 Z-1.000000 I-0.138290 J-0.002822
G02 X31.395617 Y20.270892 Z-1.000000 I-3.574107 J1.378261
G02 X31.241829 Y20.046928 Z-1.000000 I-0.769425 J0.363554
G02 X31.038919 Y19.897118 Z-1.000000 I-0.530637 J0.506400
G03 X30.816598 Y19.771125 Z-1.000000 I1.090779 J-2.183882
G01 X30.803214 Y19.746709 Z-1.000000
G01 X30.813043 Y19.737761 Z-1.000000
G01 X30.839274 Y19.750109 Z-1.000000
G01 X30.876473 Y19.761557 Z-1.000000
G02 X30.942483 Y19.730439 Z-1.000000 I-0.027368 J-0.143625
G03 X30.998746 Y19.716319 Z-1.000000 I0.042866 J0.051651
G03 X31.038523 Y19.750009 Z-1.000000 I-0.010815 J0.053096
G02 X31.082678 Y19.812391 Z-1.000000 I0.144462 J-0.055434
G02 X31.261382 Y19.939747 Z-1.000000 I0.826844 J-0.971164
G01 X31.455348 Y20.054189 Z-1.000000
G01 X31.394988 Y19.921708 Z-1.000000
G02 X31.319090 Y19.806108 Z-1.000000 I-0.411624 J0.187538
G02 X31.247035 Y19.757839 Z-1.000000 I-0.132095 J0.119273
G03 X30.193779 Y18.979903 Z-1.000000 I0.766948 J-2.140356
G03 X29.816737 Y17.846962 Z-1.000000 I1.513619 J-1.132941
G02 X29.784370 Y17.734025 Z-1.000000 I-0.213215 J0.000000
G02 X29.265777 Y16.964694 Z-1.000000 I-11.280087 J7.044256
G03 X28.383086 Y15.390737 Z-1.000000 I6.259824 J-4.545060
G03 X28.172606 Y14.336718 Z-1.000000 I2.533855 J-1.054019
G02 X28.154508 Y14.226485 Z-1.000000 I-0.344767 J-0.000000
G02 X28.112666 Y14.159051 Z-1.000000 I-0.164982 J0.055673
G03 X28.074870 Y14.092313 Z-1.000000 I0.101626 J-0.101626
G03 X28.072266 Y13.997601 Z-1.000000 I0.212766 J-0.053241
G03 X28.248481 Y13.965919 Z-1.000000 I0.094218 J0.018147
G03 X28.462931 Y14.640452 Z-1.000000 I-1.281555 J0.778791
G02 X28.517825 Y14.746081 Z-1.000000 I0.149071 J-0.010391
G01 X28.574989 Y14.731412 Z-1.000000
G01 X28.585876 Y14.732911 Z-1.000000
G03 X28.587089 Y14.838049 Z-1.000000 I-0.516011 J0.058531
G02 X28.601496 Y14.994374 Z-1.000000 I0.431915 J0.039020
G02 X28.644119 Y15.041133 Z-1.000000 I0.067884 J-0.019073
G01 X28.678638 Y15.023691 Z-1.000000
G02 X28.683059 Y14.899711 Z-1.000000 I-0.258946 J-0.071304
G03 X28.694641 Y14.792824 Z-1.000000 I0.175359 J-0.035070
G01 X28.736019 Y14.778943 Z-1.000000
G03 X28.811821 Y14.839529 Z-1.000000 I-0.145097 J0.259253
G03 X28.951790 Y15.018865 Z-1.000000 I-1.213775 J1.091618
G02 X29.173962 Y15.173932 Z-1.000000 I0.311909 J-0.210196
G02 X29.319307 Y15.109155 Z-1.000000 I0.030954 J-0.125996
G02 X29.354347 Y14.972776 Z-1.000000 I-0.261261 J-0.139818
G02 X29.323207 Y14.771791 Z-1.000000 I-0.617881 J-0.007171
G03 X29.293302 Y14.581307 Z-1.000000 I0.563991 J-0.186134
G03 X29.325007 Y14.524911 Z-1.000000 I0.066881 J0.000490
G02 X29.360896 Y14.471760 Z-1.000000 I-0.041036 J-0.066400
G02 X29.349837 Y14.380711 Z-1.000000 I-0.157293 J-0.027091
G03 X29.296912 Y14.229905 Z-1.000000 I0.981253 J-0.429061
G03 X29.274627 Y14.101158 Z-1.000000 I0.690853 J-0.185881
G01 X29.250946 Y14.069967 Z-1.000000
G01 X29.219097 Y14.080778 Z-1.000000
G03 X29.163941 Y14.124530 Z-1.000000 I-0.090298 J-0.057192
G03 X29.110327 Y14.118648 Z-1.000000 I-0.020628 J-0.059255
G02 X29.067634 Y14.113699 Z-1.000000 I-0.026628 J0.043085
G01 X29.049397 Y14.139028 Z-1.000000
G03 X28.948431 Y14.227331 Z-1.000000 I-0.089097 J0.000000
G03 X28.665766 Y14.087458 Z-1.000000 I0.065611 J-0.488143
G03 X28.623090 Y13.944354 Z-1.000000 I0.111023 J-0.111024
G03 X28.706866 Y13.890538 Z-1.000000 I0.068336 J0.014263
G01 X28.754184 Y13.870965 Z-1.000000
G01 X28.747966 Y13.825468 Z-1.000000
G03 X28.646957 Y13.719323 Z-1.000000 I0.661849 J-0.730955
G03 X28.574714 Y13.613943 Z-1.000000 I0.580219 J-0.475223
G03 X28.580310 Y13.551309 Z-1.000000 I0.048109 J-0.027269
G03 X28.646564 Y13.527573 Z-1.000000 I0.053248 J0.044295
G03 X28.765406 Y13.578341 Z-1.000000 I-0.056870 J0.297610
G03 X28.868681 Y13.685682 Z-1.000000 I-0.233460 J0.327968
G02 X28.967018 Y13.805085 Z-1.000000 I0.595089 J-0.389905
G02 X29.063720 Y13.875912 Z-1.000000 I0.298282 J-0.305822
G01 X29.092659 Y13.856057 Z-1.000000
G02 X29.042260 Y13.702685 Z-1.000000 I-0.415022 J0.051413
G02 X28.896701 Y13.484418 Z-1.000000 I-1.497771 J0.841169
G02 X28.761673 Y13.344552 Z-1.000000 I-0.742660 J0.581863
G03 X28.655080 Y13.212287 Z-1.000000 I0.285643 J-0.339286
G01 X28.679463 Y13.188793 Z-1.000000
G01 X28.719473 Y13.140955 Z-1.000000
G02 X28.408147 Y12.866996 Z-1.000000 I-1.070329 J0.902445
G03 X28.233160 Y12.677839 Z-1.000000 I0.280894 J-0.435370
G03 X28.232903 Y12.542520 Z-1.000000 I0.125720 J-0.067899
G02 X28.254619 Y12.471021 Z-1.000000 I-0.168700 J-0.090284
G01 X28.240803 Y12.462400 Z-1.000000
G03 X28.141171 Y12.433697 Z-1.000000 I-0.036799 J-0.059538
G03 X28.062083 Y12.098224 Z-1.000000 I0.694379 J-0.340758
G02 X28.003901 Y11.768110 Z-1.000000 I-1.004560 J0.006868
G02 X27.841984 Y11.480100 Z-1.000000 I-0.919475 J0.327402
G03 X27.813887 Y11.426430 Z-1.000000 I0.118396 J-0.096173
G01 X27.824124 Y11.418540 Z-1.000000
G01 X27.893917 Y11.365507 Z-1.000000
G02 X27.622447 Y10.685800 Z-1.000000 I-3.174069 J0.873636
G03 X27.582379 Y10.571197 Z-1.000000 I0.346530 J-0.185463
G03 X27.559997 Y10.345097 Z-1.000000 I1.354184 J-0.248208
G02 X27.511230 Y9.968304 Z-1.000000 I-1.692477 J0.027498
G01 X27.462347 Y9.948322 Z-1.000000
G01 X27.430581 Y9.943756 Z-1.000000
G03 X27.389217 Y9.866912 Z-1.000000 I0.137729 J-0.123694
G03 X27.394124 Y9.783728 Z-1.000000 I0.130191 J-0.034057
G01 X27.431967 Y9.757919 Z-1.000000
G01 X27.465103 Y9.727420 Z-1.000000
G02 X27.451187 Y9.526349 Z-1.000000 I-0.663624 J-0.055088
G02 X27.383814 Y9.305709 Z-1.000000 I-1.495597 J0.336079
G02 X27.348784 Y9.263647 Z-1.000000 I-0.080399 J0.031339
G03 X27.316587 Y9.220501 Z-1.000000 I0.038527 J-0.062337
G03 X27.244337 Y8.878668 Z-1.000000 I2.976711 J-0.807709
G02 X27.119777 Y8.197584 Z-1.000000 I-11.709076 J1.789479
G02 X26.964072 Y7.564533 Z-1.000000 I-10.266619 J2.189503
G03 X26.902633 Y7.317752 Z-1.000000 I4.338779 J-1.211235
G03 X26.880262 Y7.182114 Z-1.000000 I1.284023 J-0.281436
G02 X26.860686 Y7.045739 Z-1.000000 I-2.169193 J0.241789
G02 X26.726036 Y6.305244 Z-1.000000 I-64.654734 J11.374165
G03 X26.587329 Y5.565344 Z-1.000000 I1246.918846 J-234.139641
G03 X26.500371 Y5.099547 Z-1.000000 I506.783040 J-94.850130
G02 X26.411323 Y4.634251 Z-1.000000 I-46.698185 J8.695876
G02 X26.398035 Y4.578906 Z-1.000000 I-0.672136 J0.132110
G03 X26.382430 Y4.524098 Z-1.000000 I48.041869 J-13.708013
G02 X26.317185 Y4.294473 Z-1.000000 I-3461.509135 J983.398401
G02 X26.215260 Y4.087804 Z-1.000000 I-0.614774 J0.174726
G02 X25.938024 Y3.784629 Z-1.000000 I-1.630004 J1.212198
G02 X25.646516 Y3.572332 Z-1.000000 I-1.211019 J1.356586
G01 X25.606276 Y3.590194 Z-1.000000
G01 X25.543568 Y3.614449 Z-1.000000
G03 X25.487114 Y3.503754 Z-1.000000 I0.080299 J-0.110695
G03 X25.511626 Y3.438112 Z-1.000000 I0.100151 J-0.000000
G01 X25.549024 Y3.432414 Z-1.000000
G01 X25.578761 Y3.430012 Z-1.000000
G01 X25.587154 Y3.399334 Z-1.000000
G02 X25.470726 Y3.317054 Z-1.000000 I-0.114183 J0.038057
G02 X25.360849 Y3.403534 Z-1.000000 I0.002159 J0.115786
G01 X25.361119 Y3.403592 Z-1.000000
G00 Z5.000000

(End cutting path id: path159)


(Start cutting path id: path159)
(Change tool to Default tool)

G00 Z5.000000
G00 X25.405171 Y3.948690

G01 Z-1.000000 F100.0(Penetrate)
G03 X25.482261 Y4.048493 Z-1.000000 I-0.601115 J0.543985 F3500.000000
G01 X25.476961 Y4.058299 Z-1.000000
G01 X25.453450 Y4.049536 Z-1.000000
G03 X25.350364 Y3.948690 Z-1.000000 I0.776031 J-0.896380
G03 X25.273274 Y3.848889 Z-1.000000 I0.600556 J-0.543569
G01 X25.278574 Y3.839082 Z-1.000000
G01 X25.302085 Y3.847845 Z-1.000000
G03 X25.405171 Y3.948690 Z-1.000000 I-0.776072 J0.896429
G01 X25.405171 Y3.948690 Z-1.000000
G00 Z5.000000

(End cutting path id: path159)


(Start cutting path id: path159)
(Change tool to Default tool)

G00 Z5.000000
G00 X24.747519 Y3.619883

G01 Z-1.000000 F100.0(Penetrate)
G02 X24.788880 Y3.661241 Z-1.000000 I0.108287 J-0.066934 F3500.000000
G02 X24.836199 Y3.674683 Z-1.000000 I0.047319 J-0.076566
G01 X24.860719 Y3.657801 Z-1.000000
G01 X24.857129 Y3.619883 Z-1.000000
G02 X24.815768 Y3.578525 Z-1.000000 I-0.108287 J0.066934
G02 X24.768449 Y3.565083 Z-1.000000 I-0.047319 J0.076566
G01 X24.743929 Y3.581965 Z-1.000000
G01 X24.747519 Y3.619883 Z-1.000000
G01 X24.747519 Y3.619883 Z-1.000000
G00 Z5.000000

(End cutting path id: path159)


(Start cutting path id: path159)
(Change tool to Default tool)

G00 Z5.000000
G00 X24.535885 Y3.592483

G01 Z-1.000000 F100.0(Penetrate)
G02 X24.579362 Y3.657331 Z-1.000000 I0.163940 J-0.062914 F3500.000000
G02 X24.623085 Y3.674693 Z-1.000000 I0.043723 J-0.046372
G01 X24.639078 Y3.656068 Z-1.000000
G02 X24.610515 Y3.592483 Z-1.000000 I-0.128976 J0.019729
G02 X24.539314 Y3.516626 Z-1.000000 I-0.656221 J0.544601
G01 X24.523315 Y3.510273 Z-1.000000
G01 X24.516274 Y3.518469 Z-1.000000
G02 X24.535885 Y3.592483 Z-1.000000 I0.352004 J-0.053666
G01 X24.535885 Y3.592483 Z-1.000000
G00 Z5.000000

(End cutting path id: path159)


(Start cutting path id: path159)
(Change tool to Default tool)

G00 Z5.000000
G00 X24.515341 Y3.817369

G01 Z-1.000000 F100.0(Penetrate)
G01 X24.489587 Y3.843154 Z-1.000000 F3500.000000
G03 X24.400508 Y3.760189 Z-1.000000 I0.095554 J-0.191900
G03 X24.337086 Y3.612711 Z-1.000000 I0.546299 J-0.322308
G01 X24.353888 Y3.597598 Z-1.000000
G03 X24.405701 Y3.637900 Z-1.000000 I-0.045207 J0.111577
G03 X24.515341 Y3.817368 Z-1.000000 I-0.995878 J0.731620
G01 X24.515341 Y3.817369 Z-1.000000
G00 Z5.000000

(End cutting path id: path159)


(Start cutting path id: path159)
(Change tool to Default tool)

G00 Z5.000000
G00 X23.590982 Y3.793433

G01 Z-1.000000 F100.0(Penetrate)
G01 X23.597946 Y3.819483 Z-1.000000 F3500.000000
G02 X23.675602 Y3.839103 Z-1.000000 I0.077656 J-0.143875
G02 X23.770054 Y3.820716 Z-1.000000 I0.000000 J-0.251783
G01 X23.788445 Y3.793433 Z-1.000000
G01 X23.771378 Y3.764828 Z-1.000000
G02 X23.703825 Y3.747763 Z-1.000000 I-0.067553 J0.125173
G02 X23.627493 Y3.762623 Z-1.000000 I-0.000000 J0.203476
G02 X23.590982 Y3.793433 Z-1.000000 I0.028802 J0.071170
G01 X23.590982 Y3.793433 Z-1.000000
G00 Z5.000000

(End cutting path id: path159)


(Start cutting path id: path159)
(Change tool to Default tool)

G00 Z5.000000
G00 X22.884172 Y2.468972

G01 Z-1.000000 F100.0(Penetrate)
G02 X22.922430 Y2.515917 Z-1.000000 I0.198443 J-0.122660 F3500.000000
G01 X22.942212 Y2.523782 Z-1.000000
G01 X22.956840 Y2.514247 Z-1.000000
G02 X22.966382 Y2.468972 Z-1.000000 I-0.102637 J-0.045275
G02 X22.949873 Y2.430680 Z-1.000000 I-0.052663 J-0.000000
G02 X22.908342 Y2.414172 Z-1.000000 I-0.041531 J0.043988
G01 X22.881586 Y2.431613 Z-1.000000
G01 X22.884172 Y2.468972 Z-1.000000
G01 X22.884172 Y2.468972 Z-1.000000
G00 Z5.000000

(End cutting path id: path159)


(Start cutting path id: path159)
(Change tool to Default tool)

G00 Z5.000000
G00 X21.682577 Y2.845990

G01 Z-1.000000 F100.0(Penetrate)
G01 X21.682710 Y2.885496 Z-1.000000 F3500.000000
G02 X21.733597 Y2.927370 Z-1.000000 I0.088192 J-0.055319
G02 X21.797050 Y2.931983 Z-1.000000 I0.039351 J-0.102568
G01 X21.815487 Y2.908940 Z-1.000000
G02 X21.760980 Y2.822807 Z-1.000000 I-0.095308 J0.000000
G02 X21.682578 Y2.845980 Z-1.000000 I-0.026248 J0.055411
G01 X21.682577 Y2.845990 Z-1.000000
G00 Z5.000000

(End cutting path id: path159)


(Start cutting path id: path159)
(Change tool to Default tool)

G00 Z5.000000
G00 X21.576448 Y3.099256

G01 Z-1.000000 F100.0(Penetrate)
G02 X21.613863 Y3.172934 Z-1.000000 I0.373548 J-0.143355 F3500.000000
G01 X21.629528 Y3.181466 Z-1.000000
G01 X21.641687 Y3.172082 Z-1.000000
G02 X21.651068 Y3.099256 Z-1.000000 I-0.277985 J-0.072826
G02 X21.632351 Y3.035762 Z-1.000000 I-0.117054 J0.000000
G01 X21.597988 Y3.017046 Z-1.000000
G01 X21.572980 Y3.036346 Z-1.000000
G02 X21.576448 Y3.099256 Z-1.000000 I0.099495 J0.026066
G01 X21.576448 Y3.099256 Z-1.000000
G00 Z5.000000

(End cutting path id: path159)


(Start cutting path id: path159)
(Change tool to Default tool)

G00 Z5.000000
G00 X21.200424 Y3.233182

G01 Z-1.000000 F100.0(Penetrate)
G03 X21.373602 Y3.428248 Z-1.000000 I-0.842279 J0.922176 F3500.000000
G01 X21.359604 Y3.455489 Z-1.000000
G01 X21.344246 Y3.449980 Z-1.000000
G03 X21.126686 Y3.263717 Z-1.000000 I4.739239 J-5.755753
G03 X20.958969 Y3.090097 Z-1.000000 I1.064946 J-1.196556
G01 X20.967506 Y3.071901 Z-1.000000
G03 X21.017710 Y3.087565 Z-1.000000 I0.000065 J0.088076
G03 X21.200424 Y3.233182 Z-1.000000 I-0.989213 J1.428659
G01 X21.200424 Y3.233182 Z-1.000000
G00 Z5.000000

(End cutting path id: path159)


(Start cutting path id: path159)
(Change tool to Default tool)

G00 Z5.000000
G00 X20.978420 Y3.016193

G01 Z-1.000000 F100.0(Penetrate)
G02 X20.923910 Y3.184980 Z-1.000000 I0.132531 J0.135996 F3500.000000
G02 X21.030750 Y3.314703 Z-1.000000 I0.167916 J-0.029438
G03 X21.080311 Y3.361989 Z-1.000000 I-0.031860 J0.083009
G03 X21.081940 Y3.431395 Z-1.000000 I-0.083614 J0.036685
G02 X21.080635 Y3.478375 Z-1.000000 I0.066047 J0.025343
G01 X21.099240 Y3.485235 Z-1.000000
G03 X21.146023 Y3.480072 Z-1.000000 I0.028826 J0.046656
G03 X21.222411 Y3.527895 Z-1.000000 I-0.065908 J0.190193
G02 X21.300949 Y3.579609 Z-1.000000 I0.164821 J-0.164821
G02 X21.356156 Y3.581195 Z-1.000000 I0.029773 J-0.074719
G01 X21.397400 Y3.597035 Z-1.000000
G03 X21.486495 Y3.811122 Z-1.000000 I-0.833421 J0.472420
G02 X21.570063 Y4.050947 Z-1.000000 I1.963189 J-0.549613
G02 X21.603787 Y4.090383 Z-1.000000 I0.078451 J-0.032949
G03 X21.646010 Y4.173901 Z-1.000000 I-0.047141 J0.076264
G03 X21.593037 Y4.222748 Z-1.000000 I-0.052973 J-0.004300
G01 X21.566281 Y4.205307 Z-1.000000
G01 X21.568867 Y4.167948 Z-1.000000
G01 X21.573110 Y4.129659 Z-1.000000
G01 X21.549917 Y4.113138 Z-1.000000
G01 X21.523429 Y4.136371 Z-1.000000
G02 X21.522897 Y4.318655 Z-1.000000 I0.708946 J0.093213
G03 X21.530531 Y4.524249 Z-1.000000 I-1.164358 J0.146171
G03 X21.484657 Y5.072215 Z-1.000000 I-8.357302 J-0.423737
G02 X21.426368 Y5.620707 Z-1.000000 I26.228010 J3.064622
G02 X21.412537 Y5.825775 Z-1.000000 I3.643004 J0.348709
G03 X21.385818 Y6.011906 Z-1.000000 I-0.907864 J-0.035340
G01 X21.360957 Y6.031292 Z-1.000000
G01 X21.336615 Y6.047130 Z-1.000000
G02 X21.330597 Y6.099802 Z-1.000000 I0.081131 J0.035950
G03 X21.333251 Y6.167762 Z-1.000000 I-0.223851 J0.042774
G03 X21.310687 Y6.277916 Z-1.000000 I-0.612802 J-0.068139
G02 X21.232040 Y6.646767 Z-1.000000 I2.182450 J0.658156
G01 X21.261087 Y6.665475 Z-1.000000
G01 X21.294482 Y6.682188 Z-1.000000
G03 X21.330597 Y7.442509 Z-1.000000 I-9.081879 J0.812410
G02 X21.361663 Y7.700647 Z-1.000000 I1.143320 J-0.006654
G01 X21.399117 Y7.730232 Z-1.000000
G02 X21.593202 Y7.642924 Z-1.000000 I0.000000 J-0.259379
G02 X21.742164 Y7.343299 Z-1.000000 I-0.479798 J-0.425379
G03 X21.790239 Y7.221259 Z-1.000000 I0.363571 J0.072731
G01 X21.822164 Y7.213715 Z-1.000000
G03 X21.907812 Y7.373249 Z-1.000000 I-0.095057 J0.153791
G03 X21.789184 Y8.250874 Z-1.000000 I-4.321872 J-0.137357
G02 X21.724984 Y8.581577 Z-1.000000 I3.624935 J0.875297
G02 X21.707834 Y8.801977 Z-1.000000 I1.588192 J0.234450
G03 X21.685674 Y9.020991 Z-1.000000 I-1.200109 J-0.010798
G03 X21.600875 Y9.350021 Z-1.000000 I-2.801246 J-0.546508
G02 X21.500716 Y9.677093 Z-1.000000 I11.118725 J3.583743
G02 X21.464434 Y9.820069 Z-1.000000 I2.083538 J0.604819
G03 X21.403571 Y9.947523 Z-1.000000 I-0.301362 J-0.065651
G03 X21.104053 Y10.268896 Z-1.000000 I-2.326560 J-1.868077
G02 X20.821413 Y10.584223 Z-1.000000 I1.547177 J1.671132
G02 X20.810350 Y10.665282 Z-1.000000 I0.068298 J0.050605
G01 X20.798090 Y10.712348 Z-1.000000
G03 X20.740250 Y10.723692 Z-1.000000 I-0.039278 J-0.047142
G02 X20.645628 Y10.736744 Z-1.000000 I-0.033605 J0.105885
G02 X20.286038 Y11.022231 Z-1.000000 I1.409847 J2.145006
G03 X19.921257 Y11.329413 Z-1.000000 I-2.709778 J-2.847697
G03 X19.725437 Y11.438922 Z-1.000000 I-0.519044 J-0.698304
G02 X19.534428 Y11.537666 Z-1.000000 I0.414270 J1.035469
G01 X19.513706 Y11.575728 Z-1.000000
G01 X19.498908 Y11.601272 Z-1.000000
G01 X19.469986 Y11.600798 Z-1.000000
G02 X19.352944 Y11.622956 Z-1.000000 I-0.046404 J0.075085
G02 X19.272566 Y11.864277 Z-1.000000 I0.322074 J0.241321
G02 X19.358840 Y12.097743 Z-1.000000 I0.359028 J-0.000000
G02 X19.493543 Y12.122438 Z-1.000000 I0.082573 J-0.070679
G03 X19.597617 Y12.069979 Z-1.000000 I0.839545 J1.536120
G03 X19.911037 Y11.929156 Z-1.000000 I6.382070 J13.784933
G02 X20.202561 Y11.776368 Z-1.000000 I-0.916830 J-2.103853
G01 X20.226162 Y11.733991 Z-1.000000
G03 X20.242502 Y11.692496 Z-1.000000 I0.060857 J0.000000
G03 X20.280082 Y11.676151 Z-1.000000 I0.037580 J0.035028
G02 X21.070660 Y11.417028 Z-1.000000 I-0.000000 J-1.335580
G02 X21.128992 Y11.052676 Z-1.000000 I-0.155509 J-0.211742
G01 X21.132485 Y11.048378 Z-1.000000
G03 X21.164802 Y11.068386 Z-1.000000 I-0.054496 J0.124128
G03 X21.183598 Y11.127917 Z-1.000000 I-0.037117 J0.044452
G03 X21.064912 Y11.438772 Z-1.000000 I-1.588556 J-0.428433
G03 X20.608137 Y12.175097 Z-1.000000 I-4.343512 J-2.184631
G03 X19.892591 Y12.998709 Z-1.000000 I-6.162084 J-4.630922
G03 X19.391126 Y13.435380 Z-1.000000 I-3.446129 J-3.451200
G03 X18.822303 Y13.809342 Z-1.000000 I-3.086219 J-4.074769
G02 X18.117517 Y14.218460 Z-1.000000 I18.237347 J32.229009
G02 X17.770808 Y14.435289 Z-1.000000 I4.769576 J8.012159
G03 X16.904755 Y14.760693 Z-1.000000 I-1.155862 J-1.761103
G03 X15.951059 Y14.688046 Z-1.000000 I-0.309745 J-2.230036
G02 X15.285355 Y14.596375 Z-1.000000 I-0.629629 J2.109324
G02 X14.335144 Y14.714526 Z-1.000000 I0.073250 J4.469141
G03 X14.009970 Y14.780524 Z-1.000000 I-1.234748 J-5.249597
G01 X13.988794 Y14.773786 Z-1.000000
G03 X13.973341 Y14.590284 Z-1.000000 I0.100898 J-0.100898
G03 X14.401494 Y14.192471 Z-1.000000 I1.171973 J0.832046
G02 X14.788975 Y13.875114 Z-1.000000 I-0.913896 J-1.511060
G02 X14.800062 Y13.757952 Z-1.000000 I-0.071849 J-0.065905
G01 X14.758486 Y13.747999 Z-1.000000
G02 X14.699065 Y13.819492 Z-1.000000 I0.074613 J0.122453
G03 X14.522996 Y14.065019 Z-1.000000 I-0.551780 J-0.209791
G03 X14.307811 Y14.142338 Z-1.000000 I-0.215185 J-0.260779
G01 X14.287775 Y14.119143 Z-1.000000
G03 X14.330871 Y13.985309 Z-1.000000 I0.421765 J0.061958
G02 X14.527031 Y13.346941 Z-1.000000 I-1.664729 J-0.860865
G02 X14.472388 Y12.801715 Z-1.000000 I-1.252820 J-0.149793
G03 X14.422537 Y12.596877 Z-1.000000 I1.252382 J-0.413276
G03 X14.397628 Y12.334555 Z-1.000000 I2.032715 J-0.325360
G02 X14.360826 Y12.132773 Z-1.000000 I-0.686500 J0.020961
G01 X14.325018 Y12.122697 Z-1.000000
G02 X14.294126 Y12.185486 Z-1.000000 I0.054537 J0.065826
G02 X14.317318 Y12.339068 Z-1.000000 I0.421023 J0.014965
G03 X14.353596 Y12.503520 Z-1.000000 I-0.673732 J0.234852
G03 X14.347348 Y12.642048 Z-1.000000 I-0.481128 J0.047705
G02 X14.346514 Y12.778511 Z-1.000000 I0.368819 J0.070488
G02 X14.401158 Y12.943598 Z-1.000000 I0.600476 J-0.107172
G03 X14.442996 Y13.100637 Z-1.000000 I-0.361812 J0.180487
G03 X14.415188 Y13.185291 Z-1.000000 I-0.121304 J0.007046
G02 X14.388728 Y13.246653 Z-1.000000 I0.091250 J0.075734
G01 X14.405388 Y13.265471 Z-1.000000
G01 X14.427156 Y13.292877 Z-1.000000
G03 X14.265321 Y13.868320 Z-1.000000 I-6.350576 J-1.475534
G03 X14.169407 Y14.108413 Z-1.000000 I-2.044271 J-0.677455
G03 X14.026202 Y14.376083 Z-1.000000 I-2.686724 J-1.265270
G02 X13.880762 Y14.640550 Z-1.000000 I3.266560 J1.968624
G02 X13.868815 Y14.691208 Z-1.000000 I0.101426 J0.050658
G01 X13.845632 Y14.722004 Z-1.000000
G03 X13.681250 Y14.745188 Z-1.000000 I-0.164382 J-0.571176
G03 X13.530274 Y14.695668 Z-1.000000 I0.000000 J-0.254904
G03 X13.438949 Y14.567073 Z-1.000000 I0.148764 J-0.202375
G03 X13.394879 Y14.386742 Z-1.000000 I1.519524 J-0.466901
G03 X13.348549 Y14.073834 Z-1.000000 I4.540172 J-0.832107
G02 X13.282730 Y13.792472 Z-1.000000 I-1.228594 J0.139026
G02 X13.234621 Y13.758709 Z-1.000000 I-0.048109 J0.017393
G02 X13.183536 Y13.804319 Z-1.000000 I0.000000 J0.051414
G02 X13.207651 Y13.996090 Z-1.000000 I0.406930 J0.046229
G03 X13.224325 Y14.126029 Z-1.000000 I-0.262180 J0.099682
G03 X13.181991 Y14.232576 Z-1.000000 I-0.213570 J-0.023174
G02 X13.114607 Y14.376055 Z-1.000000 I0.304133 J0.230397
G01 X13.143551 Y14.396872 Z-1.000000
G01 X13.176669 Y14.400880 Z-1.000000
G03 X13.248004 Y14.503246 Z-1.000000 I-0.266797 J0.261960
G03 X13.261685 Y14.604669 Z-1.000000 I-0.153205 J0.072300
G01 X13.224914 Y14.635579 Z-1.000000
G01 X13.200360 Y14.662640 Z-1.000000
G02 X13.235224 Y14.741492 Z-1.000000 I0.136705 J-0.013311
G02 X13.339646 Y14.814207 Z-1.000000 I0.209670 J-0.189760
G02 X13.421832 Y14.816322 Z-1.000000 I0.043940 J-0.109582
G01 X13.434053 Y14.828430 Z-1.000000
G03 X13.402982 Y14.873082 Z-1.000000 I-0.091089 J-0.030248
G03 X13.204116 Y14.929317 Z-1.000000 I-0.165940 J-0.207071
G03 X12.755956 Y14.792172 Z-1.000000 I0.169341 J-1.354185
G02 X11.997493 Y14.500227 Z-1.000000 I-1.803962 J3.555432
G02 X11.927603 Y14.567073 Z-1.000000 I-0.014805 J0.054481
G02 X12.074056 Y14.874669 Z-1.000000 I0.749679 J-0.168276
G02 X12.324508 Y15.070203 Z-1.000000 I0.524743 J-0.413957
G03 X12.442459 Y15.176546 Z-1.000000 I-0.106557 J0.236773
G01 X12.409068 Y15.215754 Z-1.000000
G01 X12.365198 Y15.277291 Z-1.000000
G02 X12.665944 Y15.521614 Z-1.000000 I0.785643 J-0.659816
G02 X12.956582 Y15.598071 Z-1.000000 I0.304968 J-0.568646
G02 X13.367794 Y15.537204 Z-1.000000 I0.027417 J-1.234257
G02 X13.582789 Y15.420935 Z-1.000000 I-0.212640 J-0.650103
G02 X13.624347 Y15.331688 Z-1.000000 I-0.069376 J-0.086604
G02 X13.609110 Y15.214818 Z-1.000000 I-0.559238 J0.013484
G02 X13.579937 Y15.146466 Z-1.000000 I-0.215843 J0.051720
G01 X13.580869 Y15.097198 Z-1.000000
G03 X13.649607 Y15.046616 Z-1.000000 I0.108942 J0.076048
G02 X13.727774 Y14.999083 Z-1.000000 I-0.058439 J-0.184139
G01 X13.731817 Y14.964406 Z-1.000000
G03 X13.783832 Y14.876705 Z-1.000000 I0.048944 J-0.030247
G03 X14.168046 Y14.987726 Z-1.000000 I-0.047254 J0.883875
G02 X14.389855 Y15.079954 Z-1.000000 I0.509586 J-0.912712
G01 X14.417711 Y15.059226 Z-1.000000
G01 X14.434365 Y15.046685 Z-1.000000
G03 X14.471671 Y15.074016 Z-1.000000 I-0.017129 J0.062506
G01 X14.505154 Y15.064272 Z-1.000000
G02 X14.473071 Y14.885768 Z-1.000000 I-0.492494 J-0.003619
G03 X14.448253 Y14.764914 Z-1.000000 I0.360092 J-0.136921
G01 X14.467171 Y14.745190 Z-1.000000
G03 X14.534012 Y14.790593 Z-1.000000 I0.000000 J0.071903
G03 X14.583023 Y15.037395 Z-1.000000 I-0.648194 J0.256987
G01 X14.615394 Y15.061602 Z-1.000000
G02 X14.697203 Y15.005505 Z-1.000000 I-0.041321 J-0.147961
G03 X14.914344 Y14.857819 Z-1.000000 I0.322384 J0.240524
G03 X15.047676 Y14.910495 Z-1.000000 I0.031364 J0.115693
G02 X15.123984 Y14.921588 Z-1.000000 I0.042806 J-0.026457
G02 X15.190492 Y14.783056 Z-1.000000 I-0.133024 J-0.149094
G01 X15.206051 Y14.753457 Z-1.000000
G01 X15.221912 Y14.758886 Z-1.000000
G02 X15.259639 Y14.838399 Z-1.000000 I0.228605 J-0.059762
G01 X15.291902 Y14.854796 Z-1.000000
G01 X15.326252 Y14.870182 Z-1.000000
G03 X15.370712 Y14.943106 Z-1.000000 I-0.176944 J0.157894
G01 X15.362122 Y14.988934 Z-1.000000
G01 X15.320022 Y14.998956 Z-1.000000
G02 X15.254151 Y15.008346 Z-1.000000 I-0.024502 J0.063853
G02 X15.183746 Y15.102463 Z-1.000000 I0.129105 J0.169971
G03 X15.116782 Y15.216291 Z-1.000000 I-0.368128 J-0.139956
G03 X15.069181 Y15.238427 Z-1.000000 I-0.047601 J-0.040112
G01 X15.049780 Y15.218016 Z-1.000000
G03 X15.073281 Y15.157747 Z-1.000000 I0.102353 J0.005196
G02 X15.095669 Y15.079136 Z-1.000000 I-0.077950 J-0.064693
G02 X15.049501 Y14.986335 Z-1.000000 I-0.161335 J0.022379
G02 X14.952288 Y14.938545 Z-1.000000 I-0.118712 J0.118712
G02 X14.838542 Y14.959095 Z-1.000000 I-0.024479 J0.189580
G02 X14.803905 Y14.988433 Z-1.000000 I0.049261 J0.093275
G01 X14.809692 Y14.996955 Z-1.000000
G03 X14.885088 Y15.003128 Z-1.000000 I0.029378 J0.104699
G03 X14.933002 Y15.054545 Z-1.000000 I-0.039724 J0.085051
G03 X14.931753 Y15.148710 Z-1.000000 I-0.118616 J0.045517
G03 X14.879502 Y15.183614 Z-1.000000 I-0.052251 J-0.021658
G03 X14.831371 Y15.162815 Z-1.000000 I0.000000 J-0.066091
G01 X14.827932 Y15.128804 Z-1.000000
G01 X14.801669 Y15.089826 Z-1.000000
G02 X14.694862 Y15.151454 Z-1.000000 I0.029789 J0.174993
G02 X14.672284 Y15.226043 Z-1.000000 I0.077214 J0.064084
G02 X14.710722 Y15.302166 Z-1.000000 I0.119512 J-0.012581
G03 X14.736537 Y15.377668 Z-1.000000 I-0.056064 J0.061333
G03 X14.676742 Y15.498514 Z-1.000000 I-0.233772 J-0.040454
G02 X14.593451 Y15.621027 Z-1.000000 I0.362159 J0.335786
G01 X14.599932 Y15.658926 Z-1.000000
G01 X14.635616 Y15.663951 Z-1.000000
G02 X14.723365 Y15.590636 Z-1.000000 I-0.146051 J-0.263974
G03 X14.765995 Y15.565705 Z-1.000000 I0.054684 J0.044593
G01 X14.779325 Y15.580936 Z-1.000000
G01 X14.811506 Y15.632030 Z-1.000000
G02 X14.875155 Y15.594636 Z-1.000000 I0.008379 J-0.058604
G02 X14.877446 Y15.532535 Z-1.000000 I-0.089639 J-0.034400
G01 X14.850385 Y15.512426 Z-1.000000
G01 X14.825039 Y15.495156 Z-1.000000
G01 X14.828485 Y15.456726 Z-1.000000
G03 X14.868620 Y15.425217 Z-1.000000 I0.063005 J0.038938
G01 X14.910135 Y15.430216 Z-1.000000
G01 X14.951666 Y15.435209 Z-1.000000
G02 X14.991785 Y15.403706 Z-1.000000 I-0.022921 J-0.070488
G03 X15.036008 Y15.365601 Z-1.000000 I0.082418 J0.050936
G03 X15.121657 Y15.348006 Z-1.000000 I0.085649 J0.199667
G03 X15.440884 Y15.418607 Z-1.000000 I0.000000 J0.757008
G03 X15.512552 Y15.529800 Z-1.000000 I-0.052264 J0.112379
G02 X15.526959 Y15.568471 Z-1.000000 I0.060659 J-0.000579
G02 X15.701184 Y15.752083 Z-1.000000 I1.739877 J-1.476470
G02 X15.867097 Y15.851898 Z-1.000000 I0.312007 J-0.330823
G01 X15.916688 Y15.825193 Z-1.000000
G02 X15.922921 Y15.757539 Z-1.000000 I-0.201527 J-0.052681
G01 X15.911488 Y15.753273 Z-1.000000
G01 X15.881642 Y15.755681 Z-1.000000
G03 X15.800003 Y15.672943 Z-1.000000 I0.203552 J-0.282496
G03 X15.808621 Y15.585149 Z-1.000000 I0.055498 J-0.038872
G03 X15.905592 Y15.571759 Z-1.000000 I0.057729 J0.060243
G02 X15.955358 Y15.576003 Z-1.000000 I0.029838 J-0.055985
G01 X15.961962 Y15.553109 Z-1.000000
G01 X15.957266 Y15.509008 Z-1.000000
G01 X15.993012 Y15.493099 Z-1.000000
G02 X16.078266 Y15.480972 Z-1.000000 I0.028166 J-0.107728
G02 X16.160847 Y15.392880 Z-1.000000 I-0.112253 J-0.187983
G01 X16.225997 Y15.265807 Z-1.000000
G01 X16.190917 Y15.402818 Z-1.000000
G03 X16.142307 Y15.530065 Z-1.000000 I-0.578443 J-0.148065
G03 X16.101637 Y15.574656 Z-1.000000 I-0.104071 J-0.054078
G01 X16.104503 Y15.592567 Z-1.000000
G02 X16.232333 Y15.608536 Z-1.000000 I0.125278 J-0.483205
G03 X16.918042 Y15.647302 Z-1.000000 I0.028427 J5.581057
G03 X17.005536 Y15.700246 Z-1.000000 I-0.014568 J0.122843
G01 X17.031181 Y15.710760 Z-1.000000
G01 X17.046636 Y15.692246 Z-1.000000
G01 X17.069803 Y15.658388 Z-1.000000
G03 X17.131926 Y15.657866 Z-1.000000 I0.031725 J0.078687
G02 X17.184762 Y15.653469 Z-1.000000 I0.021860 J-0.056976
G01 X17.200436 Y15.617536 Z-1.000000
G03 X17.210280 Y15.564755 Z-1.000000 I0.067186 J-0.014777
G03 X17.250256 Y15.542306 Z-1.000000 I0.041877 J0.027754
G02 X17.309360 Y15.525254 Z-1.000000 I-0.004960 J-0.128147
G02 X17.387267 Y15.463246 Z-1.000000 I-0.167353 J-0.290208
G01 X17.386154 Y15.435261 Z-1.000000
G01 X17.348907 Y15.428086 Z-1.000000
G03 X16.946853 Y15.538471 Z-1.000000 I-0.790976 J-2.093564
G03 X16.621402 Y15.556466 Z-1.000000 I-0.237701 J-1.347009
G03 X16.559136 Y15.492201 Z-1.000000 I0.004272 J-0.066436
G03 X16.617202 Y15.427560 Z-1.000000 I0.062734 J-0.002047
G02 X16.977236 Y15.314664 Z-1.000000 I-0.061717 J-0.827359
G02 X17.031494 Y15.182997 Z-1.000000 I-0.060075 J-0.101769
G03 X17.040955 Y15.122177 Z-1.000000 I0.074671 J-0.019531
G01 X17.077674 Y15.110017 Z-1.000000
G03 X17.122238 Y15.150317 Z-1.000000 I-0.029854 J0.077803
G03 X17.124924 Y15.203767 Z-1.000000 I-0.059053 J0.029760
G01 X17.139810 Y15.244250 Z-1.000000
G02 X17.269354 Y15.282607 Z-1.000000 I0.153953 J-0.282014
G02 X17.387622 Y15.264201 Z-1.000000 I0.019891 J-0.261369
G01 X17.398726 Y15.230247 Z-1.000000
G01 X17.405903 Y15.204330 Z-1.000000
G03 X17.454056 Y15.201667 Z-1.000000 I0.027046 J0.052359
G02 X17.550635 Y15.233520 Z-1.000000 I0.381322 J-0.993817
G02 X17.586357 Y15.238387 Z-1.000000 I0.035722 J-0.128675
G01 X17.610325 Y15.258737 Z-1.000000
G03 X17.683317 Y15.828289 Z-1.000000 I-7.990660 J1.313512
G01 X17.714970 Y16.171600 Z-1.000000
G01 X17.386643 Y16.321557 Z-1.000000
G02 X17.099795 Y16.502921 Z-1.000000 I0.522376 J1.143724
G02 X17.035834 Y16.616544 Z-1.000000 I0.119450 J0.142055
G02 X17.042105 Y16.730952 Z-1.000000 I0.273409 J0.042390
G01 X17.071534 Y16.748836 Z-1.000000
G01 X17.093768 Y16.750305 Z-1.000000
G01 X17.094424 Y16.757136 Z-1.000000
G02 X17.054868 Y16.853918 Z-1.000000 I0.044561 J0.074687
G02 X17.178914 Y17.078777 Z-1.000000 I0.507446 J-0.133293
G02 X17.242878 Y17.116497 Z-1.000000 I0.095961 J-0.089632
G02 X17.327425 Y17.116097 Z-1.000000 I0.041493 J-0.165145
G03 X17.434397 Y17.162465 Z-1.000000 I0.023906 J0.091426
G03 X17.434822 Y17.314090 Z-1.000000 I-0.140492 J0.076207
G02 X17.420404 Y17.410656 Z-1.000000 I0.127913 J0.068458
G02 X17.470212 Y17.493337 Z-1.000000 I0.139140 J-0.027477
G02 X17.507152 Y17.504783 Z-1.000000 I0.032761 J-0.040398
G01 X17.514872 Y17.489737 Z-1.000000
G01 X17.519405 Y17.455019 Z-1.000000
G01 X17.559152 Y17.446917 Z-1.000000
G01 X17.606318 Y17.423407 Z-1.000000
G02 X17.595392 Y17.320662 Z-1.000000 I-0.132068 J-0.037908
G03 X17.611097 Y17.223541 Z-1.000000 I0.071500 J-0.038268
G03 X17.707766 Y17.214107 Z-1.000000 I0.054394 J0.057375
G01 X17.729327 Y17.248001 Z-1.000000
G01 X17.714266 Y17.265297 Z-1.000000
G02 X17.668930 Y17.285886 Z-1.000000 I0.000709 J0.061768
G01 X17.660836 Y17.325047 Z-1.000000
G02 X17.689152 Y17.363562 Z-1.000000 I0.073825 J-0.024608
G01 X17.717846 Y17.366147 Z-1.000000
G01 X17.749877 Y17.369513 Z-1.000000
G03 X17.832572 Y17.454117 Z-1.000000 I-0.253333 J0.330335
G02 X17.904856 Y17.487577 Z-1.000000 I0.066343 J-0.048514
G02 X17.971942 Y17.444017 Z-1.000000 I-0.005991 J-0.082666
G02 X17.989782 Y17.312468 Z-1.000000 I-0.167634 J-0.089718
G02 X17.931822 Y17.266124 Z-1.000000 I-0.057960 J0.013072
G03 X17.869443 Y17.226370 Z-1.000000 I-0.000000 J-0.068817
G03 X17.829687 Y17.046906 Z-1.000000 I0.385184 J-0.179464
G03 X17.868691 Y16.866696 Z-1.000000 I0.435815 J0.000000
G03 X17.929247 Y16.827689 Z-1.000000 I0.060556 J0.027501
G02 X18.209013 Y16.770435 Z-1.000000 I-0.000000 J-0.712149
G02 X18.375649 Y16.636989 Z-1.000000 I-0.156355 J-0.366007
G01 X18.363013 Y16.582454 Z-1.000000
G02 X18.280579 Y16.586109 Z-1.000000 I-0.038139 J0.071261
G01 X18.229062 Y16.579066 Z-1.000000
G01 X18.230719 Y16.529149 Z-1.000000
G02 X18.296425 Y16.431381 Z-1.000000 I-0.216385 J-0.216385
G02 X18.341826 Y16.264914 Z-1.000000 I-0.605221 J-0.254490
G02 X18.321023 Y16.193533 Z-1.000000 I-0.090742 J-0.012276
G01 X18.282076 Y16.194214 Z-1.000000
G03 X18.211507 Y16.262647 Z-1.000000 I-0.288940 J-0.227360
G01 X18.198366 Y16.256014 Z-1.000000
G01 X18.183109 Y16.242516 Z-1.000000
G02 X18.129866 Y16.264414 Z-1.000000 I0.013243 J0.107876
G03 X17.906392 Y16.390747 Z-1.000000 I-0.547357 J-0.707411
G01 X17.869545 Y16.365532 Z-1.000000
G01 X17.877712 Y16.349923 Z-1.000000
G03 X18.064448 Y16.230268 Z-1.000000 I1.717292 J2.474502
G01 X18.259350 Y16.115273 Z-1.000000
G01 X18.105551 Y15.975321 Z-1.000000
G01 X17.951752 Y15.835370 Z-1.000000
G01 X18.119406 Y15.916490 Z-1.000000
G02 X18.285246 Y15.965647 Z-1.000000 I0.232823 J-0.481145
G02 X18.366025 Y15.947650 Z-1.000000 I0.015339 J-0.121438
G03 X18.448447 Y15.909923 Z-1.000000 I0.180208 J0.284805
G03 X18.527198 Y15.898790 Z-1.000000 I0.075252 J0.248207
G01 X18.537381 Y15.918509 Z-1.000000
G03 X18.472388 Y15.978220 Z-1.000000 I-0.163727 J-0.112983
G01 X18.466539 Y16.032843 Z-1.000000
G02 X18.568298 Y16.064520 Z-1.000000 I0.085333 J-0.094837
G03 X18.617269 Y16.079114 Z-1.000000 I0.008099 J0.062281
G03 X18.640658 Y16.126530 Z-1.000000 I-0.043768 J0.051066
G01 X18.655195 Y16.133012 Z-1.000000
G02 X18.688688 Y16.087830 Z-1.000000 I-0.070017 J-0.086909
G02 X18.704121 Y15.982270 Z-1.000000 I-0.209888 J-0.084595
G02 X18.671138 Y15.899195 Z-1.000000 I-0.158184 J0.014719
G01 X18.661273 Y15.866029 Z-1.000000
G01 X18.674538 Y15.859245 Z-1.000000
G02 X18.731052 Y15.862310 Z-1.000000 I0.031158 J-0.051949
G02 X18.800465 Y15.801255 Z-1.000000 I-0.067767 J-0.147027
G01 X18.818921 Y15.800468 Z-1.000000
G01 X18.825365 Y15.834365 Z-1.000000
G02 X18.825048 Y15.917067 Z-1.000000 I0.152086 J0.041935
G01 X18.850155 Y15.927035 Z-1.000000
G01 X18.891965 Y15.923351 Z-1.000000
G01 X18.910825 Y15.951125 Z-1.000000
G01 X18.934571 Y15.966836 Z-1.000000
G02 X19.128873 Y15.858455 Z-1.000000 I-0.407144 J-0.958272
G02 X19.293768 Y15.645658 Z-1.000000 I-0.266677 J-0.376934
G02 X19.239652 Y15.567178 Z-1.000000 I-0.054116 J-0.020582
G03 X19.148311 Y15.548910 Z-1.000000 I0.000000 J-0.237486
G01 X19.130043 Y15.521508 Z-1.000000
G03 X19.209156 Y15.446668 Z-1.000000 I0.074956 J0.000000
G03 X19.361401 Y15.534368 Z-1.000000 I-0.010820 J0.194781
G02 X19.511100 Y15.570160 Z-1.000000 I0.093867 J-0.061645
G02 X19.582179 Y15.407869 Z-1.000000 I-0.073982 J-0.129113
G03 X19.587473 Y15.365696 Z-1.000000 I0.060651 J-0.013805
G01 X19.609579 Y15.354459 Z-1.000000
G02 X19.728134 Y15.322623 Z-1.000000 I0.023532 J-0.149030
G02 X19.804266 Y15.196602 Z-1.000000 I-0.136691 J-0.168585
G03 X19.867458 Y15.068813 Z-1.000000 I0.269975 J0.053985
G03 X20.044035 Y14.923839 Z-1.000000 I0.531142 J0.466904
G02 X20.141896 Y14.831862 Z-1.000000 I-0.148169 J-0.255696
G01 X20.125655 Y14.801184 Z-1.000000
G03 X20.035687 Y14.773299 Z-1.000000 I0.001618 J-0.164301
G01 X20.021732 Y14.731414 Z-1.000000
G03 X20.060397 Y14.688018 Z-1.000000 I0.071887 J0.025126
G03 X20.131775 Y14.678064 Z-1.000000 I0.051072 J0.105339
G02 X20.208424 Y14.672155 Z-1.000000 I0.026776 J-0.152752
G02 X20.252633 Y14.636964 Z-1.000000 I-0.026873 J-0.079124
G03 X20.297223 Y14.598326 Z-1.000000 I0.084032 J0.051929
G03 X20.381824 Y14.580704 Z-1.000000 I0.084601 J0.194263
G02 X20.529097 Y14.452099 Z-1.000000 I0.000000 J-0.148628
G02 X20.423544 Y14.273846 Z-1.000000 I-0.165329 J-0.022479
G03 X20.379035 Y14.228788 Z-1.000000 I0.027516 J-0.071692
G03 X20.374754 Y14.141907 Z-1.000000 I0.135862 J-0.050241
G01 X20.420625 Y14.114600 Z-1.000000
G03 X20.533111 Y14.180847 Z-1.000000 I-0.054306 J0.220835
G03 X20.632287 Y14.363837 Z-1.000000 I-0.307620 J0.285091
G03 X20.596051 Y14.431619 Z-1.000000 I-0.055470 J0.013922
G02 X20.563374 Y14.464754 Z-1.000000 I0.018023 J0.050455
G01 X20.571631 Y14.503109 Z-1.000000
G02 X20.672787 Y14.491023 Z-1.000000 I0.046133 J-0.043247
G02 X20.682872 Y14.306683 Z-1.000000 I-0.180689 J-0.102332
G03 X20.659415 Y14.221995 Z-1.000000 I0.297980 J-0.128129
G03 X20.646382 Y14.036697 Z-1.000000 I1.436502 J-0.194140
G02 X20.614597 Y13.861715 Z-1.000000 I-0.514908 J0.003155
G02 X20.537388 Y13.741075 Z-1.000000 I-0.313438 J0.115571
G01 X20.481395 Y13.731113 Z-1.000000
G01 X20.457248 Y13.778145 Z-1.000000
G03 X20.459206 Y13.901760 Z-1.000000 I-0.352512 J0.067406
G01 X20.434268 Y13.923055 Z-1.000000
G01 X20.407782 Y13.901087 Z-1.000000
G03 X20.400768 Y13.744941 Z-1.000000 I0.546298 J-0.102772
G03 X20.452902 Y13.605319 Z-1.000000 I0.287196 J0.027693
G03 X20.527550 Y13.566826 Z-1.000000 I0.074648 J0.053134
G02 X20.615709 Y13.537295 Z-1.000000 I0.000000 J-0.146354
G02 X20.672800 Y13.457218 Z-1.000000 I-0.098648 J-0.130722
G01 X20.695287 Y13.444830 Z-1.000000
G01 X20.713900 Y13.467688 Z-1.000000
G03 X20.698337 Y13.576658 Z-1.000000 I-0.295341 J0.013416
G03 X20.660440 Y13.624182 Z-1.000000 I-0.085265 J-0.029121
G01 X20.646056 Y13.666491 Z-1.000000
G02 X20.723290 Y13.790223 Z-1.000000 I0.349867 J-0.132417
G03 X20.794455 Y13.921402 Z-1.000000 I-0.213865 J0.200916
G03 X20.775510 Y14.003659 Z-1.000000 I-0.091183 J0.022309
G02 X20.745757 Y14.068780 Z-1.000000 I0.105533 J0.087574
G01 X20.761600 Y14.087469 Z-1.000000
G02 X20.866072 Y14.017339 Z-1.000000 I-0.000000 J-0.112881
G02 X20.853320 Y13.863306 Z-1.000000 I-0.157610 J-0.064496
G01 X20.858014 Y13.833244 Z-1.000000
G03 X20.911640 Y13.813446 Z-1.000000 I0.053626 J0.062727
G02 X20.959300 Y13.782215 Z-1.000000 I-0.000000 J-0.051982
G02 X20.965330 Y13.690136 Z-1.000000 I-0.124998 J-0.054422
G03 X20.941635 Y13.465081 Z-1.000000 I0.624619 J-0.179540
G01 X20.982290 Y13.448561 Z-1.000000
G02 X21.046229 Y13.462515 Z-1.000000 I0.044329 J-0.049657
G01 X21.071170 Y13.421161 Z-1.000000
G03 X21.069039 Y13.359835 Z-1.000000 I0.199628 J-0.037635
G01 X21.078570 Y13.358231 Z-1.000000
G02 X21.121868 Y13.394044 Z-1.000000 I0.060639 J-0.029233
G02 X21.197777 Y13.390021 Z-1.000000 I0.031750 J-0.119093
G01 X21.236405 Y13.398456 Z-1.000000
G01 X21.240997 Y13.434201 Z-1.000000
G01 X21.246708 Y13.448812 Z-1.000000
G01 X21.270367 Y13.443501 Z-1.000000
G03 X21.368615 Y13.410927 Z-1.000000 I0.084821 J0.091380
G01 X21.396874 Y13.457201 Z-1.000000
G03 X21.350952 Y13.518491 Z-1.000000 I-0.130915 J-0.050240
G03 X21.288985 Y13.539411 Z-1.000000 I-0.061967 J-0.081315
G02 X21.231884 Y13.558654 Z-1.000000 I0.000000 J0.094341
G01 X21.212645 Y13.597451 Z-1.000000
G01 X21.230828 Y13.622877 Z-1.000000
G01 X21.273135 Y13.618111 Z-1.000000
G01 X21.285370 Y13.627722 Z-1.000000
G03 X21.237665 Y13.727173 Z-1.000000 I-0.395980 J-0.128777
G02 X21.178650 Y13.846126 Z-1.000000 I0.465769 J0.305193
G01 X21.190875 Y13.859004 Z-1.000000
G03 X21.500903 Y13.866334 Z-1.000000 I0.143671 J0.483388
G03 X21.596271 Y14.000684 Z-1.000000 I-0.046948 J0.134350
G01 X21.584805 Y14.012547 Z-1.000000
