%
(Header)
(Generated by gcodetools from Inkscape.)
(Using default header. To add your own header create file "header" in the output dir.)
M3
(Header end.)
G21 (All units in mm)

(Start cutting path id: path13559)
(Change tool to Default tool)

G00 Z5.000000
G00 X18.370496 Y7.118776

G01 Z-1.000000 F100.0(Penetrate)
G02 X18.553271 Y7.287066 Z-1.000000 I4.845116 J-5.078745 F3500.000000
G02 X18.842540 Y7.538219 Z-1.000000 I11.085131 J-12.475292
G03 X19.119070 Y7.799803 Z-1.000000 I-2.276077 J2.683082
G03 X19.252076 Y7.969930 Z-1.000000 I-0.821511 J0.779317
G02 X19.668829 Y8.434631 Z-1.000000 I1.621156 J-1.034657
G02 X19.748386 Y8.368604 Z-1.000000 I0.033041 J-0.041132
G02 X19.686126 Y8.293957 Z-1.000000 I-0.211761 J0.113335
G02 X19.564301 Y8.222204 Z-1.000000 I-0.316270 J0.397676
G03 X19.448193 Y8.143281 Z-1.000000 I0.132448 J-0.319719
G03 X19.304083 Y7.953590 Z-1.000000 I0.715494 J-0.693155
G02 X19.159379 Y7.757970 Z-1.000000 I-0.982332 J0.575319
G02 X18.797583 Y7.403269 Z-1.000000 I-3.632460 J3.343255
G02 X18.392367 Y7.091437 Z-1.000000 I-2.483000 J2.807382
G01 X18.370496 Y7.118776 Z-1.000000
G01 X18.370496 Y7.118776 Z-1.000000
G00 Z5.000000

(End cutting path id: path13559)


(Start cutting path id: path13559)
(Change tool to Default tool)

G00 Z5.000000
G00 X20.185526 Y8.749425

G01 Z-1.000000 F100.0(Penetrate)
G02 X20.306788 Y8.902861 Z-1.000000 I0.496037 J-0.267387 F3500.000000
G02 X20.595844 Y9.114847 Z-1.000000 I1.259125 J-1.413831
G03 X21.247989 Y9.632722 Z-1.000000 I-1.606778 J2.692920
G03 X22.323818 Y10.909459 Z-1.000000 I-9.079693 J8.742547
G03 X22.575745 Y11.349572 Z-1.000000 I-1.795316 J1.319823
G03 X22.685262 Y11.750602 Z-1.000000 I-1.375789 J0.591184
G02 X22.811656 Y12.182029 Z-1.000000 I1.420135 J-0.181824
G02 X23.167911 Y12.768798 Z-1.000000 I3.016041 J-1.429647
G03 X23.801926 Y13.656075 Z-1.000000 I-15.390544 J11.667664
G03 X23.832714 Y13.756998 Z-1.000000 I-0.150017 J0.100923
G02 X23.848416 Y13.815664 Z-1.000000 I0.117447 J0.000000
G02 X24.140827 Y14.291354 Z-1.000000 I8.599641 J-4.958565
G03 X24.433073 Y14.769973 Z-1.000000 I-7.541978 J4.933686
G03 X24.503169 Y14.928532 Z-1.000000 I-0.748683 J0.425752
G02 X24.699716 Y15.404538 Z-1.000000 I3.217600 J-1.049994
G02 X24.956149 Y15.825313 Z-1.000000 I2.766101 J-1.397218
G03 X25.070979 Y16.018804 Z-1.000000 I-0.999194 J0.723801
G03 X25.091496 Y16.109641 Z-1.000000 I-0.190821 J0.090837
G02 X25.164743 Y16.494895 Z-1.000000 I1.049783 J-0.000000
G02 X25.359299 Y16.788462 Z-1.000000 I0.787604 J-0.310719
G03 X25.446825 Y16.926462 Z-1.000000 I-0.251509 J0.256274
G01 X25.417429 Y16.955094 Z-1.000000
G01 X25.401477 Y16.966029 Z-1.000000
G02 X25.417084 Y17.004324 Z-1.000000 I0.053865 J0.000375
G02 X25.498096 Y17.060686 Z-1.000000 I0.193691 J-0.191997
G01 X25.536004 Y17.058264 Z-1.000000
G01 X25.568052 Y17.058438 Z-1.000000
G03 X25.602374 Y17.100354 Z-1.000000 I-0.046070 J0.072734
G01 X25.562128 Y17.158414 Z-1.000000
G03 X25.386359 Y17.098654 Z-1.000000 I0.002317 J-0.295183
G02 X25.294246 Y17.047085 Z-1.000000 I-0.232930 J0.308007
G02 X25.217772 Y17.032644 Z-1.000000 I-0.076474 J0.195277
G03 X25.158002 Y17.011084 Z-1.000000 I-0.000000 J-0.093628
G03 X25.136452 Y16.965214 Z-1.000000 I0.038042 J-0.045870
G02 X25.120779 Y16.913457 Z-1.000000 I-0.093297 J0.000000
G01 X25.091492 Y16.897784 Z-1.000000
G01 X25.062201 Y16.882108 Z-1.000000
G03 X25.046532 Y16.830354 Z-1.000000 I0.077634 J-0.051754
G02 X25.033660 Y16.775765 Z-1.000000 I-0.122189 J-0.000000
G01 X25.012812 Y16.762834 Z-1.000000
G01 X24.985955 Y16.749979 Z-1.000000
G03 X24.821747 Y16.526822 Z-1.000000 I2.331975 J-1.887952
G02 X24.660196 Y16.294247 Z-1.000000 I-6.226468 J4.152642
G02 X24.608204 Y16.231481 Z-1.000000 I-0.502579 J0.363388
G03 X24.564811 Y16.166964 Z-1.000000 I0.171462 J-0.162176
G03 X24.552004 Y16.107840 Z-1.000000 I0.130077 J-0.059124
G02 X24.530184 Y16.065440 Z-1.000000 I-0.052105 J0.000000
G02 X24.462094 Y16.043620 Z-1.000000 I-0.068090 J0.095327
G03 X24.389358 Y16.026449 Z-1.000000 I-0.000000 J-0.162637
G01 X24.372184 Y15.998660 Z-1.000000
G01 X24.353094 Y15.972700 Z-1.000000
G02 X24.226075 Y15.953030 Z-1.000000 I-0.129012 J0.413151
G03 X24.082297 Y15.938808 Z-1.000000 I0.003574 J-0.769990
G03 X23.900140 Y15.889490 Z-1.000000 I0.251531 J-1.290101
G01 X23.720314 Y15.826620 Z-1.000000
G01 X23.685884 Y15.955385 Z-1.000000
G03 X23.588156 Y16.090626 Z-1.000000 I-0.226099 J-0.060453
G03 X23.371987 Y16.161294 Z-1.000000 I-0.238488 J-0.363562
G03 X23.269367 Y16.122937 Z-1.000000 I-0.007041 J-0.137615
G01 X23.281987 Y16.074614 Z-1.000000
G01 X23.286653 Y16.061560 Z-1.000000
G01 X23.263257 Y16.048844 Z-1.000000
G02 X23.177459 Y16.060807 Z-1.000000 I-0.012231 J0.225928
G01 X23.150866 Y16.087444 Z-1.000000
G01 X23.124065 Y16.109151 Z-1.000000
G03 X23.025897 Y16.102364 Z-1.000000 I-0.031233 J-0.261590
G03 X22.989760 Y16.069183 Z-1.000000 I0.013342 J-0.050800
G01 X23.003417 Y16.039234 Z-1.000000
G01 X23.023256 Y16.016361 Z-1.000000
G01 X23.012217 Y16.001834 Z-1.000000
G03 X22.951075 Y15.981843 Z-1.000000 I0.004621 J-0.117630
G01 X22.933547 Y15.948904 Z-1.000000
G01 X22.916316 Y15.924206 Z-1.000000
G02 X22.867327 Y15.924544 Z-1.000000 I-0.024044 J0.065369
G03 X22.805180 Y15.924222 Z-1.000000 I-0.030661 J-0.079876
G03 X22.676262 Y15.848934 Z-1.000000 I0.181762 J-0.459255
G02 X22.546281 Y15.756393 Z-1.000000 I-0.815808 J1.008307
G02 X22.429493 Y15.695207 Z-1.000000 I-0.467881 J0.751014
G02 X22.340083 Y15.703649 Z-1.000000 I-0.037017 J0.085641
G02 X22.278455 Y15.797716 Z-1.000000 I0.082145 J0.121038
G03 X22.218976 Y15.845263 Z-1.000000 I-0.057342 J-0.010756
G03 X22.169283 Y15.793716 Z-1.000000 I0.001889 J-0.051547
G02 X22.098361 Y15.736245 Z-1.000000 I-0.058747 J0.000000
G02 X21.972836 Y15.835336 Z-1.000000 I0.037369 J0.176388
G03 X21.870708 Y15.947725 Z-1.000000 I-0.236317 J-0.112145
G03 X21.630540 Y16.039903 Z-1.000000 I-0.385066 J-0.644315
G02 X21.379141 Y16.108810 Z-1.000000 I0.343835 J1.747497
G01 X21.360066 Y16.135813 Z-1.000000
G01 X21.375422 Y16.163147 Z-1.000000
G02 X21.430156 Y16.178503 Z-1.000000 I0.054734 J-0.089864
G03 X21.471829 Y16.194344 Z-1.000000 I0.000000 J0.062734
G01 X21.475396 Y16.218713 Z-1.000000
G03 X21.365777 Y16.284335 Z-1.000000 I-0.118181 J-0.073049
G03 X20.798113 Y16.260513 Z-1.000000 I-0.169279 J-2.741639
G03 X20.458531 Y16.175745 Z-1.000000 I0.256513 J-1.750164
G01 X20.454505 Y16.137522 Z-1.000000
G02 X20.425079 Y15.910170 Z-1.000000 I-0.066145 J-0.107019
G02 X19.505994 Y15.848084 Z-1.000000 I-0.592892 J1.942996
G03 X19.344222 Y15.851720 Z-1.000000 I-0.093898 J-0.577189
G03 X19.271942 Y15.820804 Z-1.000000 I0.016071 J-0.137526
G02 X19.204550 Y15.788209 Z-1.000000 I-0.099654 J0.120076
G02 X19.156987 Y15.796504 Z-1.000000 I-0.013425 J0.063531
G02 X19.148528 Y15.882280 Z-1.000000 I0.028500 J0.046116
G02 X19.331292 Y15.958934 Z-1.000000 I0.195405 J-0.209694
G03 X19.372451 Y15.972310 Z-1.000000 I-0.003588 J0.081051
G01 X19.370382 Y15.984784 Z-1.000000
G03 X19.042994 Y15.972986 Z-1.000000 I-0.144022 J-0.551812
G03 X19.002329 Y15.859808 Z-1.000000 I0.024711 J-0.072773
G02 X18.968248 Y15.751460 Z-1.000000 I-0.063840 J-0.039453
G02 X18.779501 Y15.763558 Z-1.000000 I-0.082517 J0.191035
G01 X18.771963 Y15.789188 Z-1.000000
G02 X18.821811 Y15.848188 Z-1.000000 I0.146265 J-0.073019
G01 X18.835366 Y15.886132 Z-1.000000
G01 X18.806141 Y15.908758 Z-1.000000
G02 X18.723566 Y15.924699 Z-1.000000 I-0.000000 J0.221842
G01 X18.707631 Y15.948258 Z-1.000000
G01 X18.736351 Y15.990967 Z-1.000000
G02 X19.157196 Y16.131371 Z-1.000000 I1.292517 J-3.173260
G03 X19.359338 Y16.185196 Z-1.000000 I-8.858918 J33.676600
G03 X19.494370 Y16.222231 Z-1.000000 I-4.094940 J15.195049
G02 X19.630136 Y16.255893 Z-1.000000 I0.643919 J-2.306419
G02 X19.809066 Y16.290581 Z-1.000000 I0.865482 J-3.985604
G03 X19.977791 Y16.341897 Z-1.000000 I-0.118025 J0.691101
G03 X20.069317 Y16.407237 Z-1.000000 I-0.116539 J0.260017
G02 X20.160007 Y16.469515 Z-1.000000 I0.186677 J-0.174671
G02 X20.281493 Y16.493187 Z-1.000000 I0.121486 J-0.299895
G03 X20.408285 Y16.512134 Z-1.000000 I-0.000000 J0.433713
G03 X20.570587 Y16.581557 Z-1.000000 I-0.240457 J0.786592
G02 X20.715367 Y16.623758 Z-1.000000 I0.163279 J-0.290716
G02 X20.772891 Y16.592797 Z-1.000000 I0.003471 J-0.062469
G01 X20.801921 Y16.576735 Z-1.000000
G01 X20.819221 Y16.594297 Z-1.000000
G02 X20.901068 Y16.684393 Z-1.000000 I0.092299 J-0.001624
G02 X21.016536 Y16.616777 Z-1.000000 I0.012630 J-0.110832
G01 X21.043776 Y16.603692 Z-1.000000
G03 X21.088906 Y16.637387 Z-1.000000 I-0.021679 J0.076107
G02 X21.146709 Y16.686840 Z-1.000000 I0.109575 J-0.069567
G02 X21.205582 Y16.688127 Z-1.000000 I0.031009 J-0.071287
G03 X21.268871 Y16.686837 Z-1.000000 I0.033434 J0.087167
G03 X21.359929 Y16.740277 Z-1.000000 I-0.082845 J0.245460
G02 X21.453405 Y16.790264 Z-1.000000 I0.146906 J-0.162321
G02 X21.558684 Y16.790297 Z-1.000000 I0.052704 J-0.209427
G03 X21.821710 Y16.801716 Z-1.000000 I0.112330 J0.447560
G03 X22.149703 Y16.994500 Z-1.000000 I-0.314721 J0.910860
G02 X22.251813 Y17.053238 Z-1.000000 I0.190156 J-0.212445
G02 X22.405549 Y17.077570 Z-1.000000 I0.153736 J-0.473506
G03 X22.559011 Y17.094752 Z-1.000000 I0.000000 J0.693914
G03 X22.595157 Y17.120560 Z-1.000000 I-0.012700 J0.056004
G02 X22.628466 Y17.143588 Z-1.000000 I0.042964 J-0.026541
G02 X22.687097 Y17.138470 Z-1.000000 I0.020398 J-0.104719
G03 X22.737450 Y17.146967 Z-1.000000 I0.017984 J0.046867
G03 X22.797374 Y17.231500 Z-1.000000 I-0.133273 J0.157983
G02 X22.857786 Y17.333775 Z-1.000000 I0.327769 J-0.124629
G02 X22.921629 Y17.377894 Z-1.000000 I0.114065 J-0.096806
G03 X23.105098 Y17.477610 Z-1.000000 I-0.226486 J0.635360
G03 X23.483728 Y17.808114 Z-1.000000 I-2.373801 J3.101587
G03 X23.552532 Y17.961392 Z-1.000000 I-0.165057 J0.166172
G03 X23.495498 Y18.021657 Z-1.000000 I-0.057034 J0.003145
G01 X23.459964 Y18.063637 Z-1.000000
G02 X23.520468 Y18.170708 Z-1.000000 I0.177646 J-0.029754
G03 X23.580722 Y18.259153 Z-1.000000 I-0.133080 J0.155409
G03 X23.582318 Y18.349286 Z-1.000000 I-0.137164 J0.047509
G03 X23.516856 Y18.413344 Z-1.000000 I-0.091614 J-0.028145
G03 X23.445701 Y18.388036 Z-1.000000 I-0.017781 J-0.062689
G02 X23.370537 Y18.292114 Z-1.000000 I-0.929813 J0.651189
G02 X23.281704 Y18.200423 Z-1.000000 I-0.938983 J0.820833
G02 X23.197137 Y18.179840 Z-1.000000 I-0.060626 J0.065071
G02 X23.104694 Y18.249893 Z-1.000000 I0.042524 J0.152136
G03 X23.007901 Y18.350523 Z-1.000000 I-0.273891 J-0.166582
G03 X22.938124 Y18.360284 Z-1.000000 I-0.045088 J-0.068030
G02 X22.872921 Y18.366747 Z-1.000000 I-0.025088 J0.079034
G02 X22.832602 Y18.418614 Z-1.000000 I0.040325 J0.072951
G02 X22.857713 Y18.588118 Z-1.000000 I0.211417 J0.055291
G02 X22.957208 Y18.621887 Z-1.000000 I0.070054 J-0.042946
G01 X22.999900 Y18.630732 Z-1.000000
G03 X23.023458 Y18.686787 Z-1.000000 I-0.054911 J0.056055
G02 X23.052576 Y18.756422 Z-1.000000 I0.097823 J-0.000000
G02 X23.165036 Y18.826467 Z-1.000000 I0.211661 J-0.214527
G02 X23.284422 Y18.813265 Z-1.000000 I0.045873 J-0.131581
G02 X23.320837 Y18.729717 Z-1.000000 I-0.042326 J-0.068158
G01 X23.292277 Y18.583609 Z-1.000000
G01 X23.399878 Y18.717240 Z-1.000000
G03 X23.481741 Y18.854914 Z-1.000000 I-0.442511 J0.356297
G03 X23.482608 Y18.915680 Z-1.000000 I-0.075473 J0.031466
G01 X23.487593 Y18.944453 Z-1.000000
G01 X23.510338 Y18.947980 Z-1.000000
G02 X23.547674 Y18.906957 Z-1.000000 I-0.052977 J-0.085718
G02 X23.562938 Y18.841700 Z-1.000000 I-0.131862 J-0.065257
G01 X23.582115 Y18.814225 Z-1.000000
G01 X23.616888 Y18.821880 Z-1.000000
G02 X23.695994 Y18.833367 Z-1.000000 I0.047248 J-0.047248
G02 X23.765132 Y18.741470 Z-1.000000 I-0.065937 J-0.121564
G03 X23.806082 Y18.615225 Z-1.000000 I0.666031 J0.146274
G03 X23.834422 Y18.582531 Z-1.000000 I0.066450 J0.028970
G01 X23.851647 Y18.550291 Z-1.000000
G02 X23.829322 Y18.439825 Z-1.000000 I-0.345910 J0.012418
G03 X23.809204 Y18.327010 Z-1.000000 I0.288389 J-0.109629
G03 X23.831022 Y18.275077 Z-1.000000 I0.074549 J0.000770
G01 X23.863145 Y18.263470 Z-1.000000
G01 X23.877652 Y18.279377 Z-1.000000
G02 X23.895059 Y18.317566 Z-1.000000 I0.050596 J0.000000
G02 X23.969932 Y18.359587 Z-1.000000 I0.138974 J-0.159911
G03 X24.018026 Y18.401840 Z-1.000000 I-0.024103 J0.075931
G01 X24.011882 Y18.449517 Z-1.000000
G02 X24.000332 Y18.508365 Z-1.000000 I0.048227 J0.040023
G02 X24.062902 Y18.611513 Z-1.000000 I0.241886 J-0.076178
G02 X24.155652 Y18.676439 Z-1.000000 I0.230334 J-0.230334
G01 X24.179870 Y18.666013 Z-1.000000
G03 X24.276265 Y18.610108 Z-1.000000 I0.079844 J0.026615
G03 X24.466222 Y18.723463 Z-1.000000 I-0.065203 J0.325106
G02 X24.524313 Y18.772597 Z-1.000000 I0.167196 J-0.138771
G02 X24.573804 Y18.785923 Z-1.000000 I0.049491 J-0.085235
G03 X24.624648 Y18.799969 Z-1.000000 I-0.000000 J0.099045
G03 X24.799264 Y18.920793 Z-1.000000 I-0.823686 J1.376991
G02 X24.953545 Y19.010269 Z-1.000000 I0.381498 J-0.480054
G01 X24.973695 Y18.990383 Z-1.000000
G03 X25.009525 Y18.907807 Z-1.000000 I0.060001 J-0.023026
G03 X25.139594 Y18.923043 Z-1.000000 I0.051162 J0.126046
G03 X25.279566 Y19.126090 Z-1.000000 I-0.209475 J0.294172
G03 X25.226854 Y19.257661 Z-1.000000 I-0.115428 J0.030100
G02 X25.189691 Y19.401981 Z-1.000000 I0.056551 J0.091507
G02 X25.366394 Y19.505230 Z-1.000000 I0.176703 J-0.099583
G01 X25.389612 Y19.488664 Z-1.000000
G02 X25.406184 Y19.389543 Z-1.000000 I-0.288144 J-0.099121
G03 X25.484243 Y19.326198 Z-1.000000 I0.064732 J0.000000
G03 X25.629421 Y19.436513 Z-1.000000 I-0.043844 J0.208387
G02 X25.783387 Y19.612248 Z-1.000000 I0.434718 J-0.225555
G01 X25.855862 Y19.594937 Z-1.000000
G02 X25.868236 Y19.505937 Z-1.000000 I-0.114512 J-0.061281
G02 X25.808982 Y19.380332 Z-1.000000 I-0.303125 J0.066219
G02 X25.707879 Y19.267323 Z-1.000000 I-0.941839 J0.740876
G01 X25.683089 Y19.256380 Z-1.000000
G03 X25.511420 Y19.186773 Z-1.000000 I0.015366 J-0.284392
G03 X25.451139 Y19.054348 Z-1.000000 I0.115316 J-0.132425
G02 X25.426904 Y18.976214 Z-1.000000 I-0.138070 J0.000000
G02 X25.252129 Y18.764410 Z-1.000000 I-1.282478 J0.880254
G03 X25.060941 Y18.555947 Z-1.000000 I2.792944 J-2.753400
G03 X24.909928 Y18.363152 Z-1.000000 I2.236714 J-1.907522
G02 X24.751892 Y18.185601 Z-1.000000 I-0.925627 J0.664780
G02 X24.662370 Y18.137568 Z-1.000000 I-0.140189 J0.153839
G03 X24.575894 Y18.092346 Z-1.000000 I0.050840 J-0.202514
G03 X24.529498 Y18.021565 Z-1.000000 I0.103259 J-0.118281
G02 X24.488622 Y17.948659 Z-1.000000 I-0.196966 J0.062519
G01 X24.451578 Y17.931755 Z-1.000000
G01 X24.428342 Y17.920910 Z-1.000000
G01 X24.429048 Y17.904865 Z-1.000000
G03 X24.532555 Y17.898495 Z-1.000000 I0.055356 J0.055356
G03 X24.986839 Y18.339994 Z-1.000000 I-1.796467 J2.302956
G02 X25.119437 Y18.488191 Z-1.000000 I1.968570 J-1.627941
G02 X25.213780 Y18.574593 Z-1.000000 I0.760713 J-0.735922
G03 X25.310917 Y18.658479 Z-1.000000 I-1.286945 J1.588429
G03 X25.507013 Y18.844333 Z-1.000000 I-6.150790 J6.686109
G02 X25.705871 Y19.026661 Z-1.000000 I3.002202 J-3.074778
G02 X25.845528 Y19.135688 Z-1.000000 I1.208994 J-1.404687
G01 X25.990622 Y19.238186 Z-1.000000
G01 X25.990622 Y19.137936 Z-1.000000
G03 X26.012462 Y19.090413 Z-1.000000 I0.062625 J-0.000000
G01 X26.044572 Y19.091636 Z-1.000000
G02 X26.153952 Y19.130991 Z-1.000000 I0.096486 J-0.096486
G01 X26.186707 Y19.078146 Z-1.000000
G02 X26.147292 Y19.030410 Z-1.000000 I-0.090810 J0.034840
G02 X26.078380 Y19.010716 Z-1.000000 I-0.068912 J0.110721
G03 X26.003561 Y18.997030 Z-1.000000 I-0.000000 J-0.211360
G03 X25.970754 Y18.969976 Z-1.000000 I0.023379 J-0.061769
G01 X25.937659 Y18.948931 Z-1.000000
G02 X25.844470 Y18.955296 Z-1.000000 I-0.029492 J0.253572
G01 X25.803929 Y18.942688 Z-1.000000
G01 X25.803430 Y18.908086 Z-1.000000
G02 X25.841377 Y18.833349 Z-1.000000 I-0.150498 J-0.123417
G02 X25.834490 Y18.787898 Z-1.000000 I-0.056721 J-0.014652
G02 X25.768275 Y18.766935 Z-1.000000 I-0.045287 J0.027989
G02 X25.707652 Y18.842128 Z-1.000000 I0.040473 J0.094665
G01 X25.694839 Y18.847369 Z-1.000000
G01 X25.682052 Y18.824458 Z-1.000000
G03 X25.752169 Y18.676111 Z-1.000000 I0.173148 J-0.008905
G03 X25.855799 Y18.696088 Z-1.000000 I0.042621 J0.057683
G02 X26.100888 Y18.931634 Z-1.000000 I0.580524 J-0.358762
G02 X26.238738 Y18.912233 Z-1.000000 I0.056261 J-0.099681
G01 X26.244682 Y18.895938 Z-1.000000
G02 X26.228678 Y18.774692 Z-1.000000 I-1.042918 J0.075979
G02 X26.169362 Y18.698447 Z-1.000000 I-0.104458 J0.020070
G01 X26.125497 Y18.726332 Z-1.000000
G01 X26.101254 Y18.745568 Z-1.000000
G03 X26.018893 Y18.701452 Z-1.000000 I0.040928 J-0.175348
G03 X25.923596 Y18.592813 Z-1.000000 I0.513258 J-0.546338
G03 X25.827827 Y18.435802 Z-1.000000 I0.985572 J-0.708866
G02 X25.736689 Y18.274989 Z-1.000000 I-1.881531 J0.960091
G02 X25.685645 Y18.208682 Z-1.000000 I-0.367311 J0.229961
G03 X25.651983 Y18.141499 Z-1.000000 I0.096435 J-0.090343
G03 X25.657515 Y18.050648 Z-1.000000 I0.190837 J-0.033974
G03 X25.721006 Y17.963616 Z-1.000000 I0.157767 J0.048418
G01 X25.775588 Y17.968468 Z-1.000000
G03 X25.798100 Y18.021675 Z-1.000000 I-0.054370 J0.054370
G03 X25.777188 Y18.073310 Z-1.000000 I-0.071533 J0.001082
G02 X25.757015 Y18.177501 Z-1.000000 I0.067025 J0.067025
G02 X25.969834 Y18.525305 Z-1.000000 I1.287319 J-0.548686
G02 X26.056470 Y18.580820 Z-1.000000 I0.131304 J-0.109552
G01 X26.094186 Y18.558955 Z-1.000000
G02 X26.094435 Y18.501845 Z-1.000000 I-0.111012 J-0.029040
G01 X26.078116 Y18.495235 Z-1.000000
G01 X26.047223 Y18.490242 Z-1.000000
G03 X25.946525 Y18.337949 Z-1.000000 I0.623760 J-0.521877
G01 X25.957014 Y18.295116 Z-1.000000
G01 X25.996115 Y18.302639 Z-1.000000
G02 X26.055308 Y18.375631 Z-1.000000 I0.361490 J-0.232656
G01 X26.064295 Y18.370069 Z-1.000000
G03 X26.102377 Y18.300115 Z-1.000000 I0.051942 J-0.017066
G03 X26.192970 Y18.336349 Z-1.000000 I0.020799 J0.079366
G02 X26.229419 Y18.365499 Z-1.000000 I0.059071 J-0.036498
G02 X26.319254 Y18.379879 Z-1.000000 I0.086033 J-0.249673
G01 X26.347848 Y18.355550 Z-1.000000
G01 X26.331124 Y18.312909 Z-1.000000
G03 X26.273873 Y18.245370 Z-1.000000 I0.122408 J-0.161797
G01 X26.278804 Y18.213189 Z-1.000000
G01 X26.311527 Y18.208893 Z-1.000000
G03 X26.395119 Y18.280159 Z-1.000000 I-0.150177 J0.260807
G02 X26.482131 Y18.315776 Z-1.000000 I0.076027 J-0.061640
G01 X26.518631 Y18.266209 Z-1.000000
G03 X26.571398 Y18.129093 Z-1.000000 I0.136647 J-0.026125
G03 X26.867326 Y18.002687 Z-1.000000 I0.402412 J0.532480
G02 X27.046902 Y17.972256 Z-1.000000 I-1.893720 J-11.720205
G02 X27.176407 Y17.947877 Z-1.000000 I-1.091910 J-6.156470
G03 X27.265859 Y17.949789 Z-1.000000 I0.040410 J0.202832
G01 X27.274907 Y17.971887 Z-1.000000
G03 X27.233492 Y18.002539 Z-1.000000 I-0.059083 J-0.036525
G03 X27.085710 Y18.021647 Z-1.000000 I-0.147782 J-0.561913
G02 X27.037763 Y18.086121 Z-1.000000 I0.000000 J0.050066
G02 X27.132220 Y18.176413 Z-1.000000 I0.126812 J-0.038109
G03 X27.257166 Y18.244496 Z-1.000000 I-0.069710 J0.276625
G03 X27.276710 Y18.311282 Z-1.000000 I-0.046555 J0.049876
G01 X27.290597 Y18.326203 Z-1.000000
G02 X27.331000 Y18.301482 Z-1.000000 I-0.011621 J-0.064370
G03 X27.411724 Y18.240340 Z-1.000000 I0.150181 J0.114421
G01 X27.460176 Y18.250382 Z-1.000000
G02 X27.519121 Y18.280114 Z-1.000000 I0.074601 J-0.074601
G02 X27.688808 Y18.284682 Z-1.000000 I0.103465 J-0.689499
G03 X27.857381 Y18.291117 Z-1.000000 I0.060271 J0.632300
G03 X27.919261 Y18.324542 Z-1.000000 I-0.018839 J0.108869
G02 X28.041850 Y18.365278 Z-1.000000 I0.098702 J-0.092203
G02 X28.103627 Y18.291412 Z-1.000000 I-0.013273 J-0.073866
G03 X28.122080 Y18.219963 Z-1.000000 I0.147550 J0.000000
G01 X28.153397 Y18.201502 Z-1.000000
G01 X28.176006 Y18.219677 Z-1.000000
G03 X28.170707 Y18.280172 Z-1.000000 I-0.099076 J0.021802
G02 X28.099566 Y18.595036 Z-1.000000 I0.887025 J0.365886
G01 X28.152287 Y18.626297 Z-1.000000
G02 X28.179547 Y18.593000 Z-1.000000 I-0.034771 J-0.056273
G02 X28.193537 Y18.514952 Z-1.000000 I-0.210708 J-0.078048
G03 X28.216788 Y18.462926 Z-1.000000 I0.069833 J-0.000000
G01 X28.260657 Y18.454852 Z-1.000000
G03 X28.332664 Y18.574518 Z-1.000000 I-0.040658 J0.105963
G03 X28.225027 Y18.747673 Z-1.000000 I-0.240069 J-0.029200
G02 X28.201183 Y18.783556 Z-1.000000 I0.029962 J0.045774
G02 X28.206957 Y18.845953 Z-1.000000 I0.113852 J0.020929
G03 X28.208281 Y18.911250 Z-1.000000 I-0.089900 J0.034484
G03 X28.146077 Y19.026168 Z-1.000000 I-0.365056 J-0.123306
G02 X28.049983 Y19.261646 Z-1.000000 I0.362871 J0.285426
G01 X28.114867 Y19.312955 Z-1.000000
G02 X28.148901 Y19.279192 Z-1.000000 I-0.018807 J-0.052993
G02 X28.159297 Y19.190879 Z-1.000000 I-0.181831 J-0.066174
G03 X28.176552 Y19.142313 Z-1.000000 I0.058205 J-0.006668
G01 X28.210417 Y19.140939 Z-1.000000
G03 X28.242405 Y19.203357 Z-1.000000 I-0.056904 J0.068568
G03 X28.227157 Y19.382899 Z-1.000000 I-0.586700 J0.040592
G02 X28.186553 Y19.573561 Z-1.000000 I3.299512 J0.802338
G02 X28.171817 Y19.685058 Z-1.000000 I1.112865 J0.203799
G03 X28.115392 Y19.797182 Z-1.000000 I-0.166714 J-0.013638
G03 X28.037765 Y19.802620 Z-1.000000 I-0.042390 J-0.048337
G02 X27.912462 Y19.760715 Z-1.000000 I-0.142277 J0.217144
G01 X27.878836 Y19.792210 Z-1.000000
G02 X27.897211 Y19.841571 Z-1.000000 I0.075490 J-0.000000
G02 X27.957506 Y19.883240 Z-1.000000 I0.110606 J-0.095591
G03 X28.034599 Y19.915558 Z-1.000000 I-0.315383 J0.860443
G03 X28.148571 Y19.973780 Z-1.000000 I-0.922607 J1.946702
G02 X28.264414 Y20.026142 Z-1.000000 I0.394497 J-0.718440
G02 X28.399362 Y20.064450 Z-1.000000 I0.339494 J-0.939095
G02 X28.518521 Y20.054362 Z-1.000000 I0.042726 J-0.204118
G02 X28.587385 Y19.990390 Z-1.000000 I-0.047227 J-0.119890
G01 X28.637005 Y19.887359 Z-1.000000
G01 X28.640005 Y19.991164 Z-1.000000
G02 X28.664661 Y20.053801 Z-1.000000 I0.099232 J-0.002890
G01 X28.699245 Y20.058594 Z-1.000000
G03 X28.758181 Y20.031065 Z-1.000000 I0.129085 J0.199501
G03 X28.822876 Y20.020404 Z-1.000000 I0.071194 J0.230413
G02 X29.209679 Y19.947187 Z-1.000000 I-0.033622 J-1.235972
G02 X29.272441 Y19.857756 Z-1.000000 I-0.032336 J-0.089431
G01 X29.288695 Y19.836172 Z-1.000000
G03 X29.404099 Y19.819916 Z-1.000000 I0.115404 J0.401514
G02 X29.527504 Y19.799995 Z-1.000000 I-0.000000 J-0.392196
G02 X29.601052 Y19.754626 Z-1.000000 I-0.058970 J-0.177894
G03 X29.666342 Y19.707448 Z-1.000000 I0.179127 J0.179127
G01 X29.687942 Y19.710926 Z-1.000000
G01 X29.712517 Y19.718634 Z-1.000000
G02 X29.836372 Y19.684296 Z-1.000000 I-0.122346 J-0.681840
G03 X30.034491 Y19.736699 Z-1.000000 I0.062505 J0.164401
G03 X30.182003 Y20.102803 Z-1.000000 I-0.503080 J0.415473
G03 X30.185212 Y20.354781 Z-1.000000 I-1.995151 J0.151421
G01 X30.167833 Y20.384182 Z-1.000000
G02 X30.121447 Y20.555039 Z-1.000000 I0.068133 J0.110223
G02 X30.320972 Y20.673401 Z-1.000000 I0.196628 J-0.104108
G01 X30.330395 Y20.660423 Z-1.000000
G02 X30.307742 Y20.630891 Z-1.000000 I-0.051455 J0.016015
G03 X30.268046 Y20.586133 Z-1.000000 I0.057578 J-0.091049
G01 X30.272942 Y20.557741 Z-1.000000
G03 X30.372863 Y20.554618 Z-1.000000 I0.051623 J0.051623
G03 X30.441313 Y20.706286 Z-1.000000 I-0.133805 J0.151668
G03 X30.420522 Y20.756376 Z-1.000000 I-0.070734 J-0.000000
G03 X30.351403 Y20.795936 Z-1.000000 I-0.107709 J-0.108027
G02 X30.277816 Y20.832877 Z-1.000000 I0.050078 J0.191519
G02 X30.258333 Y20.870406 Z-1.000000 I0.032595 J0.040743
G01 X30.246353 Y20.875510 Z-1.000000
G03 X30.212553 Y20.831446 Z-1.000000 I0.085615 J-0.100668
G01 X30.195955 Y20.833996 Z-1.000000
G02 X30.193853 Y20.966315 Z-1.000000 I0.539093 J0.074742
G02 X30.234821 Y21.177434 Z-1.000000 I1.249145 J-0.132865
G01 X30.262113 Y21.206083 Z-1.000000
G01 X30.287825 Y21.234401 Z-1.000000
G03 X30.306453 Y21.397148 Z-1.000000 I-0.701607 J0.162747
G01 X30.358706 Y21.435274 Z-1.000000
G02 X30.422855 Y21.359848 Z-1.000000 I-0.028628 J-0.089340
G03 X30.462682 Y21.229269 Z-1.000000 I0.460359 J0.069049
G01 X30.484305 Y21.230413 Z-1.000000
G01 X30.511915 Y21.235012 Z-1.000000
G02 X30.572375 Y21.118692 Z-1.000000 I-0.275138 J-0.216881
G03 X30.645594 Y20.930709 Z-1.000000 I1.203898 J0.360665
G03 X30.722247 Y20.809801 Z-1.000000 I0.569798 J0.276487
G01 X30.813497 Y20.696576 Z-1.000000
G01 X30.782767 Y20.824716 Z-1.000000
G03 X30.740195 Y20.947530 Z-1.000000 I-0.643726 J-0.154355
G03 X30.668763 Y21.071977 Z-1.000000 I-0.732520 J-0.337738
G02 X30.600691 Y21.197416 Z-1.000000 I0.519281 J0.362989
G02 X30.557518 Y21.347041 Z-1.000000 I0.699217 J0.282792
G01 X30.590984 Y21.366204 Z-1.000000
G02 X30.660877 Y21.258531 Z-1.000000 I-0.147540 J-0.172293
G01 X30.676530 Y21.259423 Z-1.000000
G03 X30.680747 Y21.370922 Z-1.000000 I-0.401752 J0.071025
G03 X30.614058 Y21.668925 Z-1.000000 I-1.260863 J-0.125699
G01 X30.577065 Y21.663139 Z-1.000000
G01 X30.572265 Y21.505791 Z-1.000000
G01 X30.504965 Y21.685617 Z-1.000000
G02 X30.453866 Y21.868981 Z-1.000000 I1.034157 J0.386999
G02 X30.416405 Y22.157661 Z-1.000000 I2.536115 J0.475869
G03 X30.376803 Y22.435675 Z-1.000000 I-2.034548 J-0.147984
G01 X30.350805 Y22.464864 Z-1.000000
G02 X30.283123 Y22.549097 Z-1.000000 I0.032181 J0.095166
G02 X30.335235 Y22.607226 Z-1.000000 I0.052112 J0.005705
G01 X30.359432 Y22.598025 Z-1.000000
G02 X30.423715 Y22.528556 Z-1.000000 I-0.323225 J-0.363571
G03 X30.467141 Y22.500145 Z-1.000000 I0.061598 J0.046759
G01 X30.484865 Y22.513776 Z-1.000000
G03 X30.471599 Y22.572281 Z-1.000000 I-0.123460 J0.002762
G03 X30.407625 Y22.666453 Z-1.000000 I-0.396726 J-0.200691
G02 X30.368237 Y22.745012 Z-1.000000 I0.127752 J0.113206
G01 X30.385145 Y22.774891 Z-1.000000
G01 X30.407348 Y22.827667 Z-1.000000
G01 X30.348335 Y22.853511 Z-1.000000
G01 X30.297231 Y22.879560 Z-1.000000
G02 X30.263505 Y23.108981 Z-1.000000 I0.633236 J0.210278
G03 X30.255021 Y23.391605 Z-1.000000 I-2.408379 J0.069142
G03 X30.225345 Y23.538127 Z-1.000000 I-0.671471 J-0.059730
G02 X30.195233 Y23.683114 Z-1.000000 I0.665303 J0.213797
G02 X30.200885 Y23.785388 Z-1.000000 I0.332614 J0.032911
G01 X30.192819 Y23.815786 Z-1.000000
G01 X30.175035 Y23.814398 Z-1.000000
G03 X30.140807 Y23.735665 Z-1.000000 I0.223485 J-0.143963
G03 X30.111305 Y23.562606 Z-1.000000 I1.077576 J-0.272743
G02 X30.086237 Y23.387931 Z-1.000000 I-1.667118 J0.150114
G02 X30.067165 Y23.339384 Z-1.000000 I-0.143645 J0.028412
G03 X30.050455 Y23.290838 Z-1.000000 I0.099087 J-0.061256
G03 X30.044925 Y23.136907 Z-1.000000 I1.043588 J-0.114554
G02 X30.023068 Y22.986788 Z-1.000000 I-0.417578 J-0.015853
G02 X29.905617 Y22.726164 Z-1.000000 I-1.407861 J0.477681
G02 X29.724349 Y22.504495 Z-1.000000 I-0.753050 J0.430849
G01 X29.677095 Y22.525917 Z-1.000000
G01 X29.662579 Y22.535022 Z-1.000000
G03 X29.616525 Y22.496627 Z-1.000000 I0.053904 J-0.111476
G01 X29.560103 Y22.504520 Z-1.000000
G02 X29.567875 Y22.628510 Z-1.000000 I0.144217 J0.053200
G03 X29.613054 Y22.757517 Z-1.000000 I-0.429529 J0.222837
G03 X29.608705 Y22.835047 Z-1.000000 I-0.153250 J0.030291
G02 X29.639076 Y22.916884 Z-1.000000 I0.067614 J0.021462
G02 X29.711074 Y22.898197 Z-1.000000 I0.027045 J-0.043843
G01 X29.748086 Y22.887772 Z-1.000000
G03 X29.807364 Y22.952247 Z-1.000000 I-0.069001 J0.122926
G03 X29.835106 Y23.064222 Z-1.000000 I-0.285934 J0.130265
G01 X29.815564 Y23.093065 Z-1.000000
G01 X29.782802 Y23.148986 Z-1.000000
G02 X29.834434 Y23.191675 Z-1.000000 I0.051632 J-0.009881
G03 X29.887252 Y23.234173 Z-1.000000 I0.000000 J0.054070
G01 X29.855854 Y23.289435 Z-1.000000
G01 X29.825501 Y23.318068 Z-1.000000
G02 X29.782374 Y23.474024 Z-1.000000 I0.691133 J0.275061
G02 X29.785116 Y23.634356 Z-1.000000 I0.447083 J0.072544
G02 X29.832794 Y23.729338 Z-1.000000 I0.195325 J-0.038590
G03 X29.885874 Y23.817667 Z-1.000000 I-0.197736 J0.178940
G03 X29.881144 Y23.863191 Z-1.000000 I-0.049462 J0.017869
G02 X29.868237 Y23.910980 Z-1.000000 I0.073618 J0.045521
G02 X29.883744 Y23.962981 Z-1.000000 I0.104090 J-0.002728
G03 X29.905626 Y24.018379 Z-1.000000 I-0.143464 J0.088687
G03 X29.932014 Y24.202723 Z-1.000000 I-1.616736 J0.325493
G03 X29.905141 Y24.365323 Z-1.000000 I-0.332463 J0.028574
G03 X29.825057 Y24.446546 Z-1.000000 I-0.146315 J-0.064171
G03 X29.713565 Y24.476001 Z-1.000000 I-0.141918 J-0.311448
G01 X29.687367 Y24.458836 Z-1.000000
G02 X29.579675 Y24.396401 Z-1.000000 I-0.089178 J0.029726
G02 X29.497254 Y24.497026 Z-1.000000 I0.020214 J0.100625
G01 X29.481347 Y24.512220 Z-1.000000
G03 X29.340562 Y24.489826 Z-1.000000 I0.029237 J-0.637544
G02 X29.186511 Y24.470291 Z-1.000000 I-0.144734 J0.524164
G02 X29.095133 Y24.494026 Z-1.000000 I0.003445 J0.201023
G03 X28.889617 Y24.526503 Z-1.000000 I-0.149459 J-0.279285
G03 X28.455483 Y24.378947 Z-1.000000 I0.271987 J-1.512656
G03 X28.373010 Y24.299574 Z-1.000000 I0.092227 J-0.178362
G03 X28.378093 Y24.242372 Z-1.000000 I0.043978 J-0.024919
G02 X28.419783 Y24.169261 Z-1.000000 I-0.186537 J-0.154811
G02 X28.438603 Y24.073334 Z-1.000000 I-0.307864 J-0.110209
G03 X28.571197 Y23.712898 Z-1.000000 I0.632011 J0.027893
G03 X28.809710 Y23.596226 Z-1.000000 I0.238513 J0.185459
G01 X28.835748 Y23.575976 Z-1.000000
G01 X28.825920 Y23.532416 Z-1.000000
G03 X28.808800 Y23.475002 Z-1.000000 I0.058780 J-0.048786
G03 X28.837420 Y23.431264 Z-1.000000 I0.057766 J0.006566
G02 X28.871590 Y23.383103 Z-1.000000 I-0.035622 J-0.061476
G02 X28.863840 Y23.292765 Z-1.000000 I-0.164522 J-0.031387
G02 X28.738804 Y23.187552 Z-1.000000 I-0.156206 J0.058733
G02 X28.627374 Y23.247805 Z-1.000000 I-0.018731 J0.098523
G01 X28.606642 Y23.252930 Z-1.000000
G03 X28.573424 Y23.202845 Z-1.000000 I0.067147 J-0.080593
G02 X28.530600 Y23.117993 Z-1.000000 I-0.265207 J0.080616
G01 X28.498154 Y23.101693 Z-1.000000
G01 X28.479272 Y23.118387 Z-1.000000
G02 X28.488454 Y23.180363 Z-1.000000 I0.116580 J0.014396
G03 X28.538154 Y23.419143 Z-1.000000 I-0.532460 J0.235389
G03 X28.486354 Y23.543185 Z-1.000000 I-0.176885 J-0.001030
G01 X28.461808 Y23.548577 Z-1.000000
G03 X28.408604 Y23.514535 Z-1.000000 I0.050871 J-0.138103
G02 X28.315142 Y23.500241 Z-1.000000 I-0.056459 J0.056459
G02 X28.273931 Y23.584965 Z-1.000000 I0.036744 J0.070257
G02 X28.309835 Y23.699948 Z-1.000000 I0.498142 J-0.092449
G02 X28.342811 Y23.738476 Z-1.000000 I0.081976 J-0.036787
G01 X28.354800 Y23.785234 Z-1.000000
G03 X28.155521 Y24.087723 Z-1.000000 I-1.768261 J-0.948041
G03 X28.050866 Y24.148182 Z-1.000000 I-0.129325 J-0.103053
G03 X27.805021 Y24.140603 Z-1.000000 I-0.102163 J-0.677161
G03 X27.110271 Y23.860161 Z-1.000000 I0.458507 J-2.136667
G03 X26.409199 Y23.273390 Z-1.000000 I1.717169 J-2.763869
G03 X26.365048 Y23.195685 Z-1.000000 I0.154828 J-0.139368
G03 X26.370889 Y23.149759 Z-1.000000 I0.053386 J-0.016544
G01 X26.373378 Y23.116839 Z-1.000000
G01 X26.350459 Y23.101689 Z-1.000000
G03 X26.282253 Y23.073308 Z-1.000000 I-0.000000 J-0.096148
G03 X25.910344 Y22.658711 Z-1.000000 I3.876019 J-3.851040
G02 X25.683936 Y22.405658 Z-1.000000 I-2.657246 J2.149638
G02 X25.420981 Y22.163616 Z-1.000000 I-2.692877 J2.661695
G03 X25.356812 Y22.062343 Z-1.000000 I0.126420 J-0.151068
G03 X25.379871 Y22.006268 Z-1.000000 I0.048743 J-0.012735
G02 X25.460327 Y21.947997 Z-1.000000 I-0.276054 J-0.465835
G02 X25.759439 Y21.674247 Z-1.000000 I-5.939059 J-6.789571
G03 X26.062948 Y21.408053 Z-1.000000 I3.199462 J3.341844
G03 X26.179191 Y21.337338 Z-1.000000 I0.328954 J0.409840
G02 X26.283788 Y21.267417 Z-1.000000 I-0.148259 J-0.334983
G02 X26.305383 Y21.216972 Z-1.000000 I-0.048122 J-0.050445
G03 X26.372857 Y20.921337 Z-1.000000 I0.681395 J-0.000000
G03 X26.480239 Y20.853863 Z-1.000000 I0.107382 J0.051710
G01 X26.494749 Y20.833247 Z-1.000000
G02 X26.446699 Y20.760303 Z-1.000000 I-0.174194 J0.062449
G03 X26.379458 Y20.653717 Z-1.000000 I0.168377 J-0.180726
G03 X26.359549 Y20.483317 Z-1.000000 I0.436564 J-0.137369
G02 X26.348134 Y20.316320 Z-1.000000 I-0.594548 J-0.043249
G01 X26.316619 Y20.280909 Z-1.000000
G01 X26.279848 Y20.288993 Z-1.000000
G02 X26.260429 Y20.334149 Z-1.000000 I0.042792 J0.045156
G01 X26.234978 Y20.359285 Z-1.000000
G03 X26.148038 Y20.332749 Z-1.000000 I0.002020 J-0.162307
G01 X26.110393 Y20.358820 Z-1.000000
G02 X26.179338 Y20.472273 Z-1.000000 I0.202601 J-0.045444
G03 X26.263578 Y20.587534 Z-1.000000 I-0.193231 J0.229640
G01 X26.246768 Y20.635851 Z-1.000000
G02 X26.196064 Y20.693504 Z-1.000000 I0.056363 J0.100693
G02 X26.170518 Y20.825541 Z-1.000000 I0.328457 J0.132037
G03 X26.083462 Y21.092433 Z-1.000000 I-0.452639 J0.000000
G03 X25.844583 Y21.271998 Z-1.000000 I-0.414270 J-0.302436
G02 X25.785405 Y21.314282 Z-1.000000 I0.046412 J0.127507
G02 X25.765913 Y21.369468 Z-1.000000 I0.068374 J0.055186
G01 X25.725935 Y21.413462 Z-1.000000
G03 X25.633919 Y21.382118 Z-1.000000 I-0.011276 J-0.117634
G01 X25.608172 Y21.384761 Z-1.000000
G02 X25.599319 Y21.431208 Z-1.000000 I0.046797 J0.032987
G01 X25.585422 Y21.472268 Z-1.000000
G01 X25.549239 Y21.471768 Z-1.000000
G02 X25.413512 Y21.394460 Z-1.000000 I-0.268075 J0.312850
G01 X25.390845 Y21.418038 Z-1.000000
G03 X25.394024 Y21.483796 Z-1.000000 I-0.098239 J0.037705
G03 X25.360165 Y21.528927 Z-1.000000 I-0.074460 J-0.020596
G01 X25.338162 Y21.573769 Z-1.000000
G02 X25.376095 Y21.680156 Z-1.000000 I0.238653 J-0.025137
G03 X25.395709 Y21.792290 Z-1.000000 I-0.120302 J0.078825
G01 X25.341575 Y21.825153 Z-1.000000
G02 X25.240670 Y21.819168 Z-1.000000 I-0.066290 J0.264023
G02 X25.204053 Y21.842753 Z-1.000000 I0.006437 J0.050211
G01 X25.142990 Y21.856245 Z-1.000000
G03 X24.401186 Y21.314047 Z-1.000000 I5.175319 J-7.859113
G03 X24.139781 Y21.098881 Z-1.000000 I12.274935 J-15.179174
G03 X23.771407 Y20.786440 Z-1.000000 I25.520427 J-30.462468
G02 X23.179984 Y20.305451 Z-1.000000 I-9.293068 J10.822637
G02 X22.834136 Y20.064918 Z-1.000000 I-2.657463 J3.452101
G03 X22.633044 Y19.925886 Z-1.000000 I1.423080 J-2.273241
G01 X22.620592 Y19.902405 Z-1.000000
G01 X22.631438 Y19.879085 Z-1.000000
G03 X22.845371 Y19.733226 Z-1.000000 I1.664742 J2.211872
G02 X23.058130 Y19.582569 Z-1.000000 I-1.058405 J-1.720247
G02 X23.096315 Y19.530004 Z-1.000000 I-0.078988 J-0.097531
G03 X23.133925 Y19.476399 Z-1.000000 I0.125838 J0.048294
G03 X23.361775 Y19.300159 Z-1.000000 I1.707373 J1.971945
G02 X23.589988 Y19.124197 Z-1.000000 I-1.522710 J-2.210841
G02 X23.626421 Y19.072438 Z-1.000000 I-0.084450 J-0.098146
G01 X23.601903 Y19.029298 Z-1.000000
G02 X23.539431 Y19.057438 Z-1.000000 I-0.010403 J0.060322
G03 X23.503738 Y19.097582 Z-1.000000 I-0.132533 J-0.081900
G03 X23.345713 Y19.211161 Z-1.000000 I-1.272149 J-1.603245
G02 X23.185826 Y19.324565 Z-1.000000 I1.292428 J1.991596
G02 X23.001079 Y19.477656 Z-1.000000 I2.174582 J2.812256
G03 X22.820986 Y19.636899 Z-1.000000 I-46.952098 J-52.918091
G03 X22.759704 Y19.690358 Z-1.000000 I-5.363945 J-6.087057
G03 X22.548740 Y19.771413 Z-1.000000 I-0.218079 J-0.252532
G03 X22.146905 Y19.703428 Z-1.000000 I-0.023137 J-1.084790
G03 X21.459750 Y19.428833 Z-1.000000 I5.461132 J-14.663149
G03 X20.798209 Y19.127124 Z-1.000000 I5.935623 J-13.890867
G02 X20.390190 Y18.939254 Z-1.000000 I-4.796208 J9.879477
G02 X20.225014 Y18.877279 Z-1.000000 I-0.676803 J1.552716
G03 X20.064038 Y18.818287 Z-1.000000 I0.583277 J-1.840758
G01 X20.056427 Y18.806859 Z-1.000000
G01 X20.060819 Y18.791293 Z-1.000000
G03 X20.164968 Y18.629920 Z-1.000000 I3.539981 J2.170388
G02 X20.253369 Y18.462093 Z-1.000000 I-0.705693 J-0.478912
G02 X20.302244 Y18.279510 Z-1.000000 I-0.788584 J-0.308926
G02 X20.341014 Y17.934537 Z-1.000000 I-4.539617 J-0.684850
G01 X20.328064 Y17.931697 Z-1.000000
G02 X20.289872 Y18.045282 Z-1.000000 I1.686292 J0.630211
G02 X20.235034 Y18.242258 Z-1.000000 I5.009914 J1.500885
G03 X20.161199 Y18.427404 Z-1.000000 I-0.759105 J-0.195430
G03 X20.051256 Y18.573181 Z-1.000000 I-0.575125 J-0.319405
G03 X19.902170 Y18.658417 Z-1.000000 I-0.230948 J-0.230948
G03 X19.661532 Y18.674083 Z-1.000000 I-0.161416 J-0.623459
G03 X19.407766 Y18.630080 Z-1.000000 I0.327704 J-2.643590
G03 X19.269693 Y18.586433 Z-1.000000 I0.183751 J-0.821497
G02 X19.134339 Y18.545178 Z-1.000000 I-0.280915 J0.678991
G02 X19.081986 Y18.548493 Z-1.000000 I-0.020012 J0.099020
G03 X19.030428 Y18.548890 Z-1.000000 I-0.026383 J-0.078234
G03 X18.845964 Y18.472893 Z-1.000000 I0.376148 J-1.174873
G02 X18.674125 Y18.397962 Z-1.000000 I-0.703855 J1.379653
G01 X18.662780 Y18.405893 Z-1.000000
G01 X18.652421 Y18.412255 Z-1.000000
G03 X18.533782 Y18.340493 Z-1.000000 I0.419590 J-0.827627
G02 X18.400541 Y18.256570 Z-1.000000 I-0.806098 J1.132079
G02 X18.286521 Y18.203675 Z-1.000000 I-0.428689 J0.774737
G03 X18.184782 Y18.147312 Z-1.000000 I0.145398 J-0.382457
G01 X18.168258 Y18.114055 Z-1.000000
G01 X18.152918 Y18.091716 Z-1.000000
G02 X18.110148 Y18.091695 Z-1.000000 I-0.021413 J0.055654
G03 X18.053479 Y18.091642 Z-1.000000 I-0.028265 J-0.073684
G03 X17.761735 Y17.957282 Z-1.000000 I0.912048 J-2.364308
G02 X17.470233 Y17.802930 Z-1.000000 I-9.772264 J18.103008
G02 X17.325324 Y17.730664 Z-1.000000 I-2.282305 J4.395097
G03 X17.205436 Y17.644236 Z-1.000000 I0.179753 J-0.375707
G03 X17.179215 Y17.579323 Z-1.000000 I0.067238 J-0.064913
G02 X17.168539 Y17.499652 Z-1.000000 I-0.302624 J-0.000000
G02 X17.066824 Y17.167443 Z-1.000000 I-5.457942 J1.489429
G03 X16.968004 Y16.834756 Z-1.000000 I4.204102 J-1.429789
G03 X16.954433 Y16.726600 Z-1.000000 I0.424195 J-0.108156
G03 X16.994233 Y16.664614 Z-1.000000 I0.068170 J0.000000
G03 X17.123020 Y16.649440 Z-1.000000 I0.087921 J0.192098
G02 X17.291982 Y16.680514 Z-1.000000 I1.300472 J-6.596266
G02 X17.538868 Y16.720440 Z-1.000000 I2.398760 J-14.049721
G03 X18.055193 Y16.822478 Z-1.000000 I-0.913116 J5.977831
G03 X18.104028 Y16.857928 Z-1.000000 I-0.018793 J0.077251
G02 X18.199784 Y16.901817 Z-1.000000 I0.080831 J-0.049952
G02 X18.258172 Y16.833408 Z-1.000000 I-0.010880 J-0.068409
G01 X18.283963 Y16.803337 Z-1.000000
G03 X18.403984 Y16.810928 Z-1.000000 I0.042723 J0.277118
G02 X18.560003 Y16.822242 Z-1.000000 I0.104961 J-0.365992
G01 X18.571262 Y16.788288 Z-1.000000
G02 X18.352940 Y16.653631 Z-1.000000 I-0.407187 J0.415868
G02 X17.718694 Y16.495801 Z-1.000000 I-1.226216 J3.574305
G03 X17.382619 Y16.437044 Z-1.000000 I1.690855 J-10.661757
G03 X17.218956 Y16.400271 Z-1.000000 I0.490230 J-2.564424
G02 X16.823754 Y16.348810 Z-1.000000 I-0.404648 J1.564320
G01 X16.774607 Y16.397671 Z-1.000000
G02 X16.785515 Y16.432004 Z-1.000000 I0.059484 J-0.000000
G02 X16.842047 Y16.493091 Z-1.000000 I0.259344 J-0.183303
G03 X16.902123 Y16.611856 Z-1.000000 I-0.106677 J0.128539
G03 X16.853287 Y16.684890 Z-1.000000 I-0.072660 J0.004259
G01 X16.830718 Y16.720301 Z-1.000000
G02 X16.877947 Y16.924658 Z-1.000000 I0.839053 J-0.086276
G03 X17.085520 Y17.557856 Z-1.000000 I-8.941975 J3.281952
G01 X17.074102 Y17.602238 Z-1.000000
G03 X16.916092 Y17.638335 Z-1.000000 I-0.107742 J-0.107742
G03 X16.318107 Y17.338041 Z-1.000000 I0.856841 J-2.451789
G02 X16.194531 Y17.271209 Z-1.000000 I-0.398853 J0.589831
G02 X16.125630 Y17.257351 Z-1.000000 I-0.068901 J0.164361
G03 X16.064779 Y17.239470 Z-1.000000 I0.000000 J-0.112482
G03 X16.028510 Y17.194881 Z-1.000000 I0.049978 J-0.077697
G02 X15.991922 Y17.156987 Z-1.000000 I-0.062912 J0.024132
G02 X15.928301 Y17.152351 Z-1.000000 I-0.038608 J0.090970
G03 X15.869816 Y17.137935 Z-1.000000 I-0.015968 J-0.061063
G03 X15.800612 Y17.035976 Z-1.000000 I0.177971 J-0.195261
G02 X15.727779 Y16.920825 Z-1.000000 I-0.316096 J0.119323
G02 X15.621253 Y16.849895 Z-1.000000 I-0.214616 J0.206861
G03 X15.494574 Y16.797296 Z-1.000000 I1.104321 J-2.838473
G03 X15.313520 Y16.713916 Z-1.000000 I2.599433 J-5.882769
G02 X15.130614 Y16.641046 Z-1.000000 I-0.627010 J1.307836
G02 X15.043781 Y16.627146 Z-1.000000 I-0.088648 J0.275603
G03 X14.915742 Y16.563750 Z-1.000000 I0.001022 J-0.163059
G03 X14.875541 Y16.409282 Z-1.000000 I0.161076 J-0.124386
G03 X14.937551 Y16.310467 Z-1.000000 I0.144039 J0.021526
G03 X15.064657 Y16.280373 Z-1.000000 I0.102835 J0.150863
G02 X15.227624 Y16.284156 Z-1.000000 I0.098597 J-0.735301
G02 X15.309192 Y16.259043 Z-1.000000 I-0.017613 J-0.202232
G03 X15.391550 Y16.238121 Z-1.000000 I0.080280 J0.143458
G03 X15.753545 Y16.264643 Z-1.000000 I-0.037928 J3.001352
G03 X16.105690 Y16.347006 Z-1.000000 I-0.251692 J1.870085
G03 X16.279648 Y16.442341 Z-1.000000 I-0.181689 J0.537911
G02 X16.449459 Y16.546768 Z-1.000000 I0.498356 J-0.620111
G02 X16.605562 Y16.590134 Z-1.000000 I0.217050 J-0.478659
G02 X16.718955 Y16.562319 Z-1.000000 I0.019379 J-0.166036
G02 X16.745285 Y16.495094 Z-1.000000 I-0.035946 J-0.052848
G02 X16.643506 Y16.330388 Z-1.000000 I-0.294020 J0.067888
G02 X16.470841 Y16.268269 Z-1.000000 I-0.172665 J0.208909
G03 X16.367167 Y16.256005 Z-1.000000 I0.000000 J-0.444327
G03 X16.277288 Y16.221819 Z-1.000000 I0.087915 J-0.366385
G02 X16.186819 Y16.185863 Z-1.000000 I-0.203509 J0.380255
G02 X15.931830 Y16.127989 Z-1.000000 I-0.815891 J3.004103
G03 X15.674892 Y16.073267 Z-1.000000 I0.825651 J-4.507244
G03 X15.313520 Y15.977638 Z-1.000000 I2.187878 J-8.998404
G02 X13.803034 Y15.686418 Z-1.000000 I-2.398153 J8.375756
G02 X13.036020 Y15.744377 Z-1.000000 I-0.221946 J2.167032
G03 X12.641490 Y15.780170 Z-1.000000 I-0.306485 J-1.185981
G03 X11.926325 Y15.664407 Z-1.000000 I0.294455 J-4.086055
G02 X11.138855 Y15.509900 Z-1.000000 I-1.789749 J7.037745
G02 X9.963694 Y15.390905 Z-1.000000 I-2.171341 J15.581314
G03 X9.560344 Y15.354666 Z-1.000000 I0.488750 J-7.702825
G03 X9.199433 Y15.301985 Z-1.000000 I0.724369 J-6.225137
G02 X7.954051 Y15.175962 Z-1.000000 I-1.481548 J8.424361
G02 X7.590852 Y15.257555 Z-1.000000 I-0.020886 J0.756188
G03 X7.185801 Y15.368745 Z-1.000000 I-0.474442 J-0.934961
G03 X6.839216 Y15.307415 Z-1.000000 I-0.048727 J-0.734606
G03 X6.754475 Y15.252301 Z-1.000000 I0.128281 J-0.289943
G01 X6.760542 Y15.236045 Z-1.000000
G02 X6.816609 Y15.180951 Z-1.000000 I-0.001297 J-0.057396
G02 X6.769232 Y15.019506 Z-1.000000 I-0.262817 J-0.010548
G02 X6.678228 Y14.963571 Z-1.000000 I-0.110085 J0.077106
G01 X6.644294 Y15.001586 Z-1.000000
G01 X6.619319 Y15.046629 Z-1.000000
G03 X6.406338 Y15.075846 Z-1.000000 I-0.193594 J-0.620357
G03 X6.219646 Y14.993274 Z-1.000000 I0.008097 J-0.270645
G03 X6.230758 Y14.893988 Z-1.000000 I0.046652 J-0.045044
G02 X6.292759 Y14.806361 Z-1.000000 I-0.080321 J-0.122579
G02 X6.276127 Y14.709247 Z-1.000000 I-0.119904 J-0.029447
G03 X6.256596 Y14.524394 Z-1.000000 I0.170059 J-0.111427
G03 X6.372633 Y14.460064 Z-1.000000 I0.096589 J0.037408
G02 X6.451571 Y14.445222 Z-1.000000 I0.020599 J-0.107782
G01 X6.472410 Y14.397444 Z-1.000000
G02 X6.433868 Y14.336812 Z-1.000000 I-0.095481 J0.018128
G02 X6.335841 Y14.298714 Z-1.000000 I-0.122006 J0.168764
G03 X6.241327 Y14.258097 Z-1.000000 I0.020792 J-0.178654
G03 X6.201356 Y14.186322 Z-1.000000 I0.073438 J-0.087915
G02 X6.159998 Y14.122945 Z-1.000000 I-0.088554 J0.012605
G02 X6.063716 Y14.100832 Z-1.000000 I-0.080413 J0.129457
G03 X5.965234 Y14.085840 Z-1.000000 I-0.020572 J-0.195826
G01 X5.940085 Y14.047622 Z-1.000000
G03 X5.964250 Y14.003010 Z-1.000000 I0.053262 J0.000000
G03 X6.063331 Y13.967242 Z-1.000000 I0.125406 J0.192269
G02 X6.179194 Y13.874506 Z-1.000000 I-0.016021 J-0.138763
G02 X6.123207 Y13.795669 Z-1.000000 I-0.055986 J-0.019539
G03 X6.038115 Y13.776073 Z-1.000000 I0.000000 J-0.194550
G03 X5.941725 Y13.707399 Z-1.000000 I0.156305 J-0.321371
G02 X5.857303 Y13.652212 Z-1.000000 I-0.173972 J0.173965
G01 X5.826680 Y13.662439 Z-1.000000
G03 X5.668492 Y13.750880 Z-1.000000 I-0.158637 J-0.098052
G03 X5.580433 Y13.663033 Z-1.000000 I-0.000212 J-0.087847
G03 X5.593627 Y13.628042 Z-1.000000 I0.052996 J-0.000000
G03 X5.654357 Y13.578943 Z-1.000000 I0.173597 J0.152612
G02 X5.682211 Y13.527360 Z-1.000000 I-0.026719 J-0.047740
G02 X5.643118 Y13.419357 Z-1.000000 I-0.209499 J0.014754
G02 X5.545744 Y13.333511 Z-1.000000 I-0.237148 J0.170846
G02 X5.465067 Y13.322407 Z-1.000000 I-0.055007 J0.101018
G03 X5.260634 Y13.282201 Z-1.000000 I-0.057106 J-0.249476
G03 X5.175824 Y13.118776 Z-1.000000 I0.115052 J-0.163425
G03 X5.193051 Y13.048642 Z-1.000000 I0.151376 J-0.000000
G01 X5.221495 Y13.031416 Z-1.000000
G02 X5.283050 Y12.966041 Z-1.000000 I0.000000 J-0.061667
G02 X5.195763 Y12.604329 Z-1.000000 I-1.056992 J0.063682
G03 X5.139522 Y12.468375 Z-1.000000 I3.184280 J-1.396868
G03 X5.112242 Y12.389681 Z-1.000000 I1.038363 J-0.404036
G02 X5.068990 Y12.343344 Z-1.000000 I-0.069022 J0.021071
G02 X4.976616 Y12.337831 Z-1.000000 I-0.054926 J0.143674
G03 X4.867941 Y12.341956 Z-1.000000 I-0.064111 J-0.255429
G03 X4.721461 Y12.293981 Z-1.000000 I0.089353 J-0.520425
G02 X4.590661 Y12.278153 Z-1.000000 I-0.087608 J0.175617
G02 X4.546433 Y12.333471 Z-1.000000 I0.012480 J0.055318
G03 X4.510280 Y12.400636 Z-1.000000 I-0.080465 J0.000000
G03 X4.417016 Y12.418851 Z-1.000000 I-0.068769 J-0.104238
G02 X4.337141 Y12.455308 Z-1.000000 I-0.014702 J0.073518
G01 X4.363109 Y12.513651 Z-1.000000
G03 X4.575331 Y12.620124 Z-1.000000 I-0.103398 J0.470832
G03 X4.578189 Y12.699955 Z-1.000000 I-0.035728 J0.041246
G01 X4.567564 Y12.729267 Z-1.000000
G02 X4.589333 Y12.823703 Z-1.000000 I0.354165 J-0.031911
G03 X4.527014 Y13.099824 Z-1.000000 I-0.239471 J0.091046
G03 X4.137491 Y13.256202 Z-1.000000 I-0.389523 J-0.406943
G03 X3.746840 Y13.156666 Z-1.000000 I0.000000 J-0.816367
G03 X3.647303 Y12.989064 Z-1.000000 I0.091338 J-0.167602
G03 X3.659179 Y12.955419 Z-1.000000 I0.053595 J0.000000
G03 X3.808008 Y12.789793 Z-1.000000 I1.624728 J1.310269
G02 X3.937808 Y12.625489 Z-1.000000 I-0.635396 J-0.635382
G01 X3.937767 Y12.579017 Z-1.000000
G01 X3.908814 Y12.572641 Z-1.000000
G02 X3.854408 Y12.634077 Z-1.000000 I0.087192 J0.132022
G03 X3.716265 Y12.707176 Z-1.000000 I-0.120094 J-0.059874
G03 X3.594145 Y12.598747 Z-1.000000 I0.019706 J-0.145178
G02 X3.528783 Y12.488640 Z-1.000000 I-0.222584 J0.057678
G02 X3.411461 Y12.427564 Z-1.000000 I-0.167759 J0.179030
G01 X3.265173 Y12.396834 Z-1.000000
G01 X3.444999 Y12.332674 Z-1.000000
G03 X3.724185 Y12.289608 Z-1.000000 I0.251763 J0.705627
G03 X3.804344 Y12.345834 Z-1.000000 I-0.003295 J0.089950
G01 X3.835630 Y12.360852 Z-1.000000
G02 X3.874633 Y12.324724 Z-1.000000 I-0.017380 J-0.057880
G02 X3.886986 Y12.226418 Z-1.000000 I-0.191892 J-0.074042
G02 X3.847929 Y12.099942 Z-1.000000 I-0.364546 J0.043307
G03 X3.790831 Y11.907577 Z-1.000000 I0.465565 J-0.242846
G03 X3.823072 Y11.842579 Z-1.000000 I0.068334 J-0.006600
G03 X3.929948 Y11.846885 Z-1.000000 I0.050249 J0.081303
G03 X4.098140 Y12.044871 Z-1.000000 I-0.334051 J0.454216
G02 X4.250092 Y12.247639 Z-1.000000 I0.661803 J-0.337627
G01 X4.312100 Y12.246738 Z-1.000000
G01 X4.316777 Y12.220199 Z-1.000000
G02 X4.280871 Y12.179828 Z-1.000000 I-0.085536 J0.039922
G03 X4.255528 Y12.098357 Z-1.000000 I0.034184 J-0.055311
G03 X4.341277 Y12.042376 Z-1.000000 I0.085750 J0.037684
G03 X4.393863 Y12.056632 Z-1.000000 I0.000000 J0.104115
G03 X4.456520 Y12.109806 Z-1.000000 I-0.119708 J0.204559
G01 X4.519380 Y12.112519 Z-1.000000
G02 X4.550595 Y12.014516 Z-1.000000 I-0.080708 J-0.079679
G02 X4.488855 Y11.881778 Z-1.000000 I-0.267827 J0.043848
G02 X4.366607 Y11.799788 Z-1.000000 I-0.208358 J0.178531
G03 X4.248287 Y11.721503 Z-1.000000 I0.084900 J-0.256874
G03 X4.217126 Y11.629697 Z-1.000000 I0.094910 J-0.083407
G02 X4.194246 Y11.533758 Z-1.000000 I-0.166191 J-0.011064
G02 X4.132930 Y11.487537 Z-1.000000 I-0.086854 J0.051439
G03 X4.080761 Y11.437909 Z-1.000000 I0.018835 J-0.072033
G03 X4.071265 Y11.292110 Z-1.000000 I0.292357 J-0.092251
G03 X4.157958 Y10.997273 Z-1.000000 I1.373145 J0.243595
G03 X4.208840 Y10.963411 Z-1.000000 I0.050881 J0.021296
G03 X4.454917 Y11.054927 Z-1.000000 I0.000000 J0.376599
G03 X4.546433 Y11.254815 Z-1.000000 I-0.172539 J0.199888
G02 X4.618514 Y11.360297 Z-1.000000 I0.113221 J-0.000000
G02 X4.725316 Y11.324585 Z-1.000000 I0.031967 J-0.081960
G01 X4.759409 Y11.310009 Z-1.000000
G03 X4.841302 Y11.349215 Z-1.000000 I-0.040114 J0.188920
G01 X4.855507 Y11.380618 Z-1.000000
G01 X4.839712 Y11.391675 Z-1.000000
G01 X4.821830 Y11.407947 Z-1.000000
G02 X4.858788 Y11.477915 Z-1.000000 I0.145743 J-0.032238
G02 X5.012940 Y11.569422 Z-1.000000 I0.235654 J-0.221386
G01 X5.040959 Y11.525365 Z-1.000000
G01 X5.068228 Y11.473990 Z-1.000000
G03 X5.207794 Y11.541745 Z-1.000000 I-0.021862 J0.222654
G02 X5.402017 Y11.695576 Z-1.000000 I0.658456 J-0.631825
G02 X5.521286 Y11.726979 Z-1.000000 I0.115023 J-0.194661
G01 X5.528208 Y11.717280 Z-1.000000
G01 X5.510396 Y11.693259 Z-1.000000
G03 X5.360870 Y11.528341 Z-1.000000 I0.281675 J-0.405630
G03 X5.310697 Y11.335531 Z-1.000000 I0.345391 J-0.192810
G02 X5.264272 Y11.259673 Z-1.000000 I-0.085188 J0.000000
G02 X5.198306 Y11.278101 Z-1.000000 I-0.022989 J0.044989
G03 X5.117819 Y11.309313 Z-1.000000 I-0.060888 J-0.037630
G03 X4.791282 Y11.162224 Z-1.000000 I0.337302 J-1.184809
G02 X4.534712 Y11.012002 Z-1.000000 I-2.032904 J3.177868
G02 X4.397040 Y10.951798 Z-1.000000 I-0.453826 J0.850276
G03 X3.791172 Y10.589118 Z-1.000000 I0.568454 J-1.637022
G03 X3.647306 Y10.260909 Z-1.000000 I0.302449 J-0.328209
G01 X3.624333 Y10.236157 Z-1.000000
G02 X3.512437 Y10.250839 Z-1.000000 I-0.020635 J0.276482
G02 X3.426095 Y10.331361 Z-1.000000 I0.048190 J0.138225
G01 X3.457480 Y10.378972 Z-1.000000
G03 X3.525983 Y10.404213 Z-1.000000 I-0.000000 J0.105580
G03 X3.777847 Y10.652144 Z-1.000000 I-1.605374 J1.882734
G01 X4.018303 Y10.925316 Z-1.000000
G01 X3.903015 Y11.135426 Z-1.000000
G03 X3.656734 Y11.324661 Z-1.000000 I-0.338597 J-0.185788
G03 X3.033067 Y11.349572 Z-1.000000 I-0.372826 J-1.514571
G03 X2.580187 Y11.232083 Z-1.000000 I0.408189 J-2.505019
G03 X2.443880 Y11.137077 Z-1.000000 I0.108580 J-0.301066
G02 X2.333514 Y11.050070 Z-1.000000 I-0.265800 J0.223658
G01 X2.292657 Y11.061417 Z-1.000000
G02 X2.241680 Y11.244340 Z-1.000000 I0.277347 J0.175856
G02 X2.306374 Y11.698711 Z-1.000000 I1.917912 J-0.041284
G03 X2.316452 Y11.891105 Z-1.000000 I-0.448500 J0.119955
G03 X2.238939 Y12.125616 Z-1.000000 I-0.753702 J-0.119057
G02 X2.206973 Y12.389737 Z-1.000000 I0.333438 J0.174350
G02 X2.318162 Y12.448088 Z-1.000000 I0.081401 J-0.019998
G02 X2.406693 Y12.385767 Z-1.000000 I-0.077751 J-0.204493
G02 X2.433480 Y12.313218 Z-1.000000 I-0.084852 J-0.072549
G03 X2.465429 Y12.254142 Z-1.000000 I0.070592 J0.000000
G03 X2.572652 Y12.222188 Z-1.000000 I0.107223 J0.163918
G03 X2.707069 Y12.239863 Z-1.000000 I0.000000 J0.519938
G03 X2.831152 Y12.291378 Z-1.000000 I-0.131935 J0.492989
G02 X2.955115 Y12.349008 Z-1.000000 I0.380458 J-0.656227
G02 X3.175263 Y12.415008 Z-1.000000 I0.724326 J-2.015892
G03 X3.369012 Y12.497637 Z-1.000000 I-0.150538 J0.621455
G03 X3.414012 Y12.567563 Z-1.000000 I-0.053654 J0.083971
G03 X3.360003 Y12.848439 Z-1.000000 I-0.435169 J0.061953
G03 X3.199239 Y12.941497 Z-1.000000 I-0.160764 J-0.092336
G02 X3.121412 Y12.956338 Z-1.000000 I-0.000000 J0.211493
G02 X3.085247 Y12.986617 Z-1.000000 I0.027571 J0.069666
G03 X3.048716 Y13.010453 Z-1.000000 I-0.043637 J-0.026966
G03 X2.951912 Y13.005277 Z-1.000000 I-0.035116 J-0.251065
G02 X2.848654 Y12.997215 Z-1.000000 I-0.075391 J0.300308
G02 X2.763602 Y13.022277 Z-1.000000 I0.020443 J0.226227
G03 X2.679655 Y13.042321 Z-1.000000 I-0.081425 J-0.155204
G03 X2.568349 Y13.019477 Z-1.000000 I0.004374 J-0.303892
G02 X2.454629 Y12.977580 Z-1.000000 I-0.612073 J1.486067
G02 X2.380029 Y12.958057 Z-1.000000 I-0.201690 J0.618389
G03 X2.311448 Y12.929067 Z-1.000000 I0.035866 J-0.180459
G03 X2.177724 Y12.818594 Z-1.000000 I0.568017 J-0.823740
G01 X2.051279 Y12.694360 Z-1.000000
G01 X2.036287 Y12.800286 Z-1.000000
G02 X2.048111 Y12.900374 Z-1.000000 I0.195457 J0.027653
G02 X2.169290 Y13.137460 Z-1.000000 I1.281485 J-0.505483
G03 X2.545263 Y13.851031 Z-1.000000 I-4.030589 J2.579508
G03 X2.613235 Y14.185872 Z-1.000000 I-0.790754 J0.334841
G02 X2.654201 Y14.412189 Z-1.000000 I0.645629 J-0.000000
G02 X2.752215 Y14.557192 Z-1.000000 I0.350158 J-0.131060
G02 X2.897234 Y14.675392 Z-1.000000 I1.120826 J-1.227081
G02 X3.010715 Y14.744703 Z-1.000000 I0.493202 J-0.679946
G03 X3.128300 Y14.808675 Z-1.000000 I-1.034507 J2.041560
G03 X3.309378 Y14.918688 Z-1.000000 I-2.891647 J4.963565
G02 X4.247739 Y15.448751 Z-1.000000 I5.745107 J-9.074858
G02 X4.685986 Y15.607606 Z-1.000000 I0.899258 J-1.796912
G03 X4.902209 Y15.685077 Z-1.000000 I-0.234539 J0.995074
G03 X5.056407 Y15.789566 Z-1.000000 I-0.296510 J0.603596
G02 X5.469597 Y16.049597 Z-1.000000 I0.951553 J-1.053725
G02 X5.895782 Y16.133533 Z-1.000000 I0.426185 J-1.040009
G03 X6.080605 Y16.171346 Z-1.000000 I0.000000 J0.470593
G03 X6.135825 Y16.236041 Z-1.000000 I-0.037575 J0.087986
G03 X6.126008 Y16.451085 Z-1.000000 I-0.363229 J0.091165
G03 X5.971233 Y16.705604 Z-1.000000 I-0.676737 J-0.237210
G02 X5.880153 Y16.858120 Z-1.000000 I0.299963 J0.282587
G02 X5.885722 Y16.962683 Z-1.000000 I0.135869 J0.045194
G03 X5.899041 Y17.064770 Z-1.000000 I-0.159660 J0.072743
G03 X5.856931 Y17.132395 Z-1.000000 I-0.103570 J-0.017570
G02 X5.666132 Y17.334610 Z-1.000000 I0.431770 J0.598515
G02 X5.559078 Y17.600305 Z-1.000000 I0.660930 J0.420719
G02 X5.585629 Y17.718517 Z-1.000000 I0.145588 J0.029388
G02 X5.802288 Y17.926240 Z-1.000000 I0.730557 J-0.545136
G02 X6.077272 Y18.100606 Z-1.000000 I2.713377 J-3.975113
G02 X6.117754 Y18.111620 Z-1.000000 I0.040483 J-0.068890
G03 X6.153039 Y18.125973 Z-1.000000 I0.000000 J0.050548
G03 X6.209508 Y18.201070 Z-1.000000 I-0.214644 J0.220181
G02 X6.423374 Y18.396018 Z-1.000000 I0.382278 J-0.204590
G02 X7.094514 Y18.574114 Z-1.000000 I0.969611 J-2.300289
G03 X7.565062 Y18.739734 Z-1.000000 I-0.137509 J1.141935
G03 X7.854833 Y19.047640 Z-1.000000 I-0.436856 J0.701430
G02 X7.951784 Y19.183624 Z-1.000000 I0.598434 J-0.324109
G02 X8.162914 Y19.383431 Z-1.000000 I1.519041 J-1.393667
G03 X8.388428 Y19.571979 Z-1.000000 I-10.282056 J12.527116
G03 X8.779478 Y19.908499 Z-1.000000 I-32.374228 J38.015605
G02 X9.745861 Y20.723416 Z-1.000000 I27.310940 J-31.406657
G02 X10.154692 Y21.032882 Z-1.000000 I4.334337 J-5.301253
G03 X10.464998 Y21.269060 Z-1.000000 I-2.788929 J3.986211
G01 X10.480627 Y21.302253 Z-1.000000
G01 X10.494966 Y21.335048 Z-1.000000
G02 X10.588709 Y21.402233 Z-1.000000 I0.315062 J-0.340615
G03 X10.988160 Y21.649399 Z-1.000000 I-1.969132 J3.628727
G03 X11.490764 Y22.034077 Z-1.000000 I-4.299069 J6.137661
G02 X11.642138 Y22.148743 Z-1.000000 I1.288550 J-1.543796
G02 X11.671064 Y22.157708 Z-1.000000 I0.028926 J-0.042186
G03 X11.700545 Y22.166305 Z-1.000000 I0.000000 J0.054846
G03 X12.047260 Y22.397508 Z-1.000000 I-5.431087 J8.520108
G02 X13.334706 Y23.220842 Z-1.000000 I10.986388 J-15.761129
G02 X13.559027 Y23.281621 Z-1.000000 I0.224321 J-0.383573
G03 X13.589076 Y23.290572 Z-1.000000 I-0.000000 J0.054916
G03 X13.755983 Y23.410366 Z-1.000000 I-1.291656 J1.975809
G02 X13.928504 Y23.525022 Z-1.000000 I0.805642 J-1.025115
G02 X14.369366 Y23.751089 Z-1.000000 I3.621844 J-6.520192
G03 X15.274300 Y24.188246 Z-1.000000 I-22.757389 J48.263951
G03 X15.700343 Y24.409590 Z-1.000000 I-5.400421 J10.915447
G02 X16.001211 Y24.563125 Z-1.000000 I2.993039 J-5.493617
G02 X16.262300 Y24.677489 Z-1.000000 I1.916492 J-4.020072
G03 X16.524813 Y24.788163 Z-1.000000 I-2.916840 J7.285251
G03 X16.572235 Y24.814828 Z-1.000000 I-0.116072 J0.261930
G02 X16.629931 Y24.845521 Z-1.000000 I0.157774 J-0.227010
G02 X17.935045 Y25.344074 Z-1.000000 I45.760613 J-117.834652
G02 X18.310296 Y25.476323 Z-1.000000 I3.407499 J-9.070134
G02 X18.361178 Y25.484490 Z-1.000000 I0.050882 J-0.154418
G03 X18.412211 Y25.492115 Z-1.000000 I0.000000 J0.174578
G03 X18.706717 Y25.590109 Z-1.000000 I-1.846951 J6.042308
G02 X19.000774 Y25.693049 Z-1.000000 I5.833371 J-16.192049
G02 X19.157235 Y25.743258 Z-1.000000 I1.540891 J-4.532835
G03 X19.314580 Y25.790792 Z-1.000000 I-560.692896 J1866.381199
G03 X19.764148 Y25.926634 Z-1.000000 R22371.593065
G02 X21.253570 Y26.333003 Z-1.000000 I8.241983 J-27.275771
G02 X22.191801 Y26.518817 Z-1.000000 I2.591710 J-10.624719
G03 X22.506277 Y26.568300 Z-1.000000 I-5.579649 J36.484198
G03 X22.753757 Y26.609717 Z-1.000000 I-3.685338 J22.781036
G02 X23.145378 Y26.667847 Z-1.000000 I1.411579 J-8.161537
G02 X23.810235 Y26.740812 Z-1.000000 I2.910760 J-23.457303
G03 X24.304659 Y26.788988 Z-1.000000 I-11.955920 J125.264055
G03 X24.552018 Y26.814572 Z-1.000000 I-3.108186 J31.259724
G02 X24.799393 Y26.839975 Z-1.000000 I2.875260 J-26.781867
G02 X25.248844 Y26.882872 Z-1.000000 I8.595142 J-87.679740
G03 X25.698327 Y26.925464 Z-1.000000 I-11.078206 J119.303507
G03 X26.033060 Y26.958682 Z-1.000000 I-6.338248 J65.573003
G02 X26.705952 Y26.968591 Z-1.000000 I0.393445 J-3.865761
G01 X26.721170 Y26.909012 Z-1.000000
G03 X26.700838 Y26.847833 Z-1.000000 I0.027809 J-0.043211
G01 X26.754380 Y26.820032 Z-1.000000
G03 X26.817344 Y26.853992 Z-1.000000 I-0.038258 J0.146279
G01 X26.821080 Y26.880152 Z-1.000000
G01 X26.842920 Y26.920390 Z-1.000000
G02 X27.361798 Y26.892432 Z-1.000000 I0.077165 J-3.396840
G03 X27.856604 Y26.830297 Z-1.000000 I5.952715 J45.402725
G03 X27.991189 Y26.816872 Z-1.000000 I0.402008 J3.348763
G02 X28.688447 Y26.676821 Z-1.000000 I-0.237869 J-2.989966
G02 X29.452276 Y26.337464 Z-1.000000 I-1.291765 J-3.936814
G03 X29.657705 Y26.228417 Z-1.000000 I1.853371 J3.243458
G03 X29.811928 Y26.160672 Z-1.000000 I0.864759 J1.759229
G02 X29.970367 Y26.065432 Z-1.000000 I-0.197681 J-0.508267
G01 X29.955645 Y26.036754 Z-1.000000
G03 X29.860875 Y26.027787 Z-1.000000 I-0.034354 J-0.142207
G03 X29.697145 Y25.919551 Z-1.000000 I0.256921 J-0.566602
G03 X29.559331 Y25.769800 Z-1.000000 I0.816677 J-0.889867
G03 X29.542189 Y25.719718 Z-1.000000 I0.064588 J-0.050082
G02 X29.522367 Y25.675768 Z-1.000000 I-0.058634 J-0.000000
G02 X29.427623 Y25.618540 Z-1.000000 I-0.204607 J0.231698
G03 X29.334136 Y25.553272 Z-1.000000 I0.083159 J-0.218700
G03 X29.243112 Y25.406109 Z-1.000000 I0.406832 J-0.353368
G02 X29.154488 Y25.250999 Z-1.000000 I-0.654513 J0.271093
G02 X29.020086 Y25.109989 Z-1.000000 I-0.672859 J0.506768
G03 X28.894291 Y24.978285 Z-1.000000 I0.508274 J-0.611395
G01 X28.892555 Y24.941402 Z-1.000000
G01 X28.894804 Y24.913057 Z-1.000000
G01 X28.875305 Y24.900062 Z-1.000000
G01 X28.841987 Y24.886268 Z-1.000000
G03 X28.805895 Y24.830712 Z-1.000000 I0.112521 J-0.112601
G01 X28.821577 Y24.796415 Z-1.000000
G03 X28.924716 Y24.787782 Z-1.000000 I0.067592 J0.187087
G02 X29.489964 Y24.835423 Z-1.000000 I0.531021 J-2.923319
G02 X29.658364 Y24.779382 Z-1.000000 I-0.003354 J-0.291114
G03 X29.789998 Y24.773501 Z-1.000000 I0.070240 J0.096055
G03 X29.826925 Y24.880907 Z-1.000000 I-0.045612 J0.075733
G01 X29.831822 Y24.924780 Z-1.000000
G01 X29.869745 Y24.945057 Z-1.000000
G03 X29.963176 Y25.018080 Z-1.000000 I0.000000 J0.096282
G03 X29.925405 Y25.168642 Z-1.000000 I-0.160099 J0.039856
G02 X29.874766 Y25.272539 Z-1.000000 I0.153926 J0.139313
G01 X29.901845 Y25.304709 Z-1.000000
G01 X29.931254 Y25.289155 Z-1.000000
G02 X29.946805 Y25.238689 Z-1.000000 I-0.074111 J-0.050466
G01 X29.966661 Y25.201550 Z-1.000000
G01 X30.009575 Y25.196759 Z-1.000000
G03 X30.143505 Y25.361769 Z-1.000000 I-0.076292 J0.198778
G03 X30.064695 Y25.540008 Z-1.000000 I-0.176750 J0.028391
G03 X29.967753 Y25.550255 Z-1.000000 I-0.058467 J-0.089448
G03 X29.935556 Y25.490168 Z-1.000000 I0.018814 J-0.048751
G01 X29.925761 Y25.456463 Z-1.000000
G02 X29.885046 Y25.439588 Z-1.000000 I-0.040714 J0.040678
G01 X29.862091 Y25.464258 Z-1.000000
G02 X29.896286 Y25.595472 Z-1.000000 I0.371659 J-0.026795
G02 X29.998799 Y25.725011 Z-1.000000 I0.325952 J-0.152616
G01 X30.036710 Y25.706674 Z-1.000000
G01 X30.051064 Y25.684806 Z-1.000000
G01 X30.081980 Y25.687044 Z-1.000000
G01 X30.117796 Y25.686966 Z-1.000000
G02 X30.155610 Y25.641114 Z-1.000000 I-0.049532 J-0.079368
G03 X30.198398 Y25.595310 Z-1.000000 I0.077931 J0.029912
G03 X30.267684 Y25.589104 Z-1.000000 I0.043272 J0.093231
G02 X30.336795 Y25.592092 Z-1.000000 I0.041477 J-0.158605
G01 X30.351394 Y25.574784 Z-1.000000
G01 X30.365592 Y25.547177 Z-1.000000
G03 X30.538052 Y25.441284 Z-1.000000 I0.839660 J1.174118
G03 X30.714963 Y25.379437 Z-1.000000 I0.301482 J0.578436
G01 X30.758347 Y25.398424 Z-1.000000
G03 X30.739756 Y25.591833 Z-1.000000 I-0.136680 J0.084460
G03 X30.471495 Y25.709326 Z-1.000000 I-0.268260 J-0.247500
G02 X30.435710 Y25.720032 Z-1.000000 I0.000000 J0.065158
G02 X30.290449 Y25.828297 Z-1.000000 I0.842409 J1.281859
G02 X30.244711 Y25.894881 Z-1.000000 I0.097762 J0.116157
G01 X30.261479 Y25.912157 Z-1.000000
G02 X30.370122 Y25.869379 Z-1.000000 I-0.240990 J-0.771393
G02 X30.462548 Y25.815667 Z-1.000000 I-0.292908 J-0.610404
G03 X30.554886 Y25.766013 Z-1.000000 I0.266687 J0.385258
G03 X30.615652 Y25.754287 Z-1.000000 I0.060766 J0.151580
G02 X30.675076 Y25.739495 Z-1.000000 I-0.000000 J-0.126763
G02 X30.827432 Y25.641896 Z-1.000000 I-0.518852 J-0.977659
G03 X30.978011 Y25.539057 Z-1.000000 I1.054387 J1.382199
G03 X31.012080 Y25.529505 Z-1.000000 I0.034069 J0.055979
G03 X31.056120 Y25.553595 Z-1.000000 I0.000000 J0.052301
G03 X31.184866 Y25.799244 Z-1.000000 I-1.344082 J0.861003
G02 X31.225188 Y25.856521 Z-1.000000 I0.149719 J-0.062568
G02 X31.368982 Y25.967308 Z-1.000000 I0.734618 J-0.804772
G02 X31.484777 Y26.024342 Z-1.000000 I0.303864 J-0.470865
G01 X31.495180 Y26.012268 Z-1.000000
G01 X31.500496 Y26.008120 Z-1.000000
G03 X31.571520 Y26.081458 Z-1.000000 I-0.526327 J0.580778
G02 X31.684809 Y26.198160 Z-1.000000 I0.936398 J-0.795672
G02 X31.795773 Y26.283762 Z-1.000000 I0.610769 J-0.677005
G03 X31.913598 Y26.361713 Z-1.000000 I-8.876695 J13.545349
G03 X32.200382 Y26.553984 Z-1.000000 I-54.138753 J81.061369
G02 X33.016838 Y27.028919 Z-1.000000 I4.027401 J-5.984221
G02 X33.790562 Y27.344487 Z-1.000000 I2.512987 J-5.055139
G02 X34.154128 Y27.445048 Z-1.000000 I1.341200 J-4.141452
G02 X34.712171 Y27.556888 Z-1.000000 I2.225878 J-9.658215
G02 X35.499370 Y27.627962 Z-1.000000 I0.842314 J-4.934298
G02 X36.650673 Y27.578238 Z-1.000000 I0.117165 J-10.640545
G02 X37.132331 Y27.392117 Z-1.000000 I-0.093624 J-0.958582
G02 X37.403445 Y27.017612 Z-1.000000 I-0.461176 J-0.619245
G02 X37.432731 Y26.826290 Z-1.000000 I-0.540464 J-0.180631
G01 X37.399345 Y26.799538 Z-1.000000
G01 X37.361418 Y26.786099 Z-1.000000
G03 X37.329425 Y26.714488 Z-1.000000 I0.114474 J-0.094095
G02 X37.291735 Y26.653036 Z-1.000000 I-0.091980 J0.014130
G02 X37.227205 Y26.641058 Z-1.000000 I-0.045008 J0.062659
G01 X37.172228 Y26.596320 Z-1.000000
G03 X37.246555 Y26.263026 Z-1.000000 I1.018102 J0.052111
G02 X37.469452 Y25.626629 Z-1.000000 I-6.148551 J-2.510754
G02 X37.496563 Y25.413177 Z-1.000000 I-0.648732 J-0.190845
G01 X37.476809 Y25.408358 Z-1.000000
G02 X37.254484 Y25.844215 Z-1.000000 I5.321791 J2.989202
G03 X37.125136 Y26.080337 Z-1.000000 I-1.760333 J-0.810825
G03 X37.027801 Y26.197347 Z-1.000000 I-0.521156 J-0.334536
G02 X36.937144 Y26.312803 Z-1.000000 I0.333028 J0.354818
G02 X36.915003 Y26.397005 Z-1.000000 I0.149042 J0.084202
G01 X36.937488 Y26.421938 Z-1.000000
G01 X36.978763 Y26.403605 Z-1.000000
G01 X37.034967 Y26.399595 Z-1.000000
G03 X37.042453 Y26.468785 Z-1.000000 I-0.040280 J0.039358
G03 X36.924093 Y26.544150 Z-1.000000 I-0.138087 J-0.086239
G03 X36.815722 Y26.496465 Z-1.000000 I-0.014045 J-0.115065
G01 X36.781551 Y26.480086 Z-1.000000
G02 X36.734732 Y26.501065 Z-1.000000 I0.004073 J0.071823
G03 X36.550133 Y26.565895 Z-1.000000 I-0.159806 J-0.159806
G03 X36.465435 Y26.471335 Z-1.000000 I0.010437 J-0.094560
G03 X36.470499 Y26.435482 Z-1.000000 I0.129451 J0.000000
G03 X36.509275 Y26.319228 Z-1.000000 I1.425605 J0.410910
G03 X36.645054 Y26.215679 Z-1.000000 I0.151220 J0.057494
G03 X36.735170 Y26.297568 Z-1.000000 I0.007852 J0.081889
G02 X36.756519 Y26.361594 Z-1.000000 I0.106682 J0.000000
G01 X36.791370 Y26.372468 Z-1.000000
G02 X36.823889 Y26.338441 Z-1.000000 I-0.015966 J-0.047811
G02 X36.833970 Y26.222613 Z-1.000000 I-0.295813 J-0.084100
G03 X36.825552 Y26.091303 Z-1.000000 I1.651572 J-0.171800
G03 X36.825070 Y25.859602 Z-1.000000 I5.192695 J-0.126659
G02 X36.809258 Y25.638858 Z-1.000000 I-1.205675 J-0.024576
G02 X36.781980 Y25.598141 Z-1.000000 I-0.058399 J0.009628
G02 X36.632199 Y25.616106 Z-1.000000 I-0.063620 J0.102945
G02 X36.452874 Y25.931829 Z-1.000000 I0.499122 J0.492281
G02 X36.444466 Y26.037379 Z-1.000000 I0.294179 J0.076546
G02 X36.468534 Y26.095255 Z-1.000000 I0.106066 J-0.010167
G01 X36.469068 Y26.141004 Z-1.000000
G03 X36.350528 Y26.244389 Z-1.000000 I-0.336728 J-0.266439
G03 X36.183489 Y26.301181 Z-1.000000 I-0.219862 J-0.372621
G03 X36.008884 Y26.286419 Z-1.000000 I-0.052111 J-0.423629
G03 X35.855548 Y26.200708 Z-1.000000 I0.116226 J-0.387938
G03 X35.718286 Y26.027233 Z-1.000000 I0.427492 J-0.479296
G01 X35.607031 Y25.821779 Z-1.000000
G01 X35.630091 Y26.030444 Z-1.000000
G03 X35.598575 Y26.197504 Z-1.000000 I-0.289126 J0.031959
G03 X35.508573 Y26.262157 Z-1.000000 I-0.109459 J-0.057404
G03 X35.375384 Y26.256221 Z-1.000000 I-0.052149 J-0.327074
G03 X35.306023 Y26.211057 Z-1.000000 I0.031251 J-0.123838
G02 X35.250345 Y26.178590 Z-1.000000 I-0.068567 J0.053611
G01 X35.211023 Y26.196827 Z-1.000000
G03 X35.163245 Y26.233818 Z-1.000000 I-0.073286 J-0.045306
G03 X35.066689 Y26.241567 Z-1.000000 I-0.065565 J-0.211539
G03 X34.995390 Y26.195118 Z-1.000000 I0.014070 J-0.099545
G03 X34.959382 Y26.069047 Z-1.000000 I0.202700 J-0.126071
G02 X34.949710 Y25.916072 Z-1.000000 I-1.214546 J-0.000000
G01 X34.936902 Y25.891936 Z-1.000000
G02 X34.867159 Y25.889616 Z-1.000000 I-0.036283 J0.041267
G02 X34.691548 Y26.080286 Z-1.000000 I0.461699 J0.601437
G03 X34.604065 Y26.189612 Z-1.000000 I-0.575521 J-0.370872
G01 X34.569920 Y26.203917 Z-1.000000
G01 X34.559497 Y26.187342 Z-1.000000
G03 X34.667160 Y26.001612 Z-1.000000 I1.253072 J0.602308
G03 X34.813765 Y25.813413 Z-1.000000 I1.661504 J1.143089
G01 X34.844937 Y25.799308 Z-1.000000
G01 X34.863347 Y25.783730 Z-1.000000
G02 X34.860017 Y25.709398 Z-1.000000 I-0.175193 J-0.029394
G02 X34.798769 Y25.639969 Z-1.000000 I-0.099449 J0.026001
G01 X34.757077 Y25.668188 Z-1.000000
G01 X34.741119 Y25.694483 Z-1.000000
G03 X34.700877 Y25.697438 Z-1.000000 I-0.023552 J-0.045257
G02 X34.650207 Y25.704501 Z-1.000000 I-0.018413 J0.053191
G02 X34.380041 Y25.921786 Z-1.000000 I1.481862 J2.119105
G03 X33.830021 Y26.339256 Z-1.000000 I-2.461019 J-2.671347
G03 X33.652203 Y26.372088 Z-1.000000 I-0.131050 J-0.211821
G02 X33.561510 Y26.376907 Z-1.000000 I-0.035587 J0.186086
G02 X33.525310 Y26.410598 Z-1.000000 I0.016385 J0.053899
G01 X33.534450 Y26.437496 Z-1.000000
G01 X33.575390 Y26.441248 Z-1.000000
G01 X33.610093 Y26.444748 Z-1.000000
G01 X33.615080 Y26.466548 Z-1.000000
G01 X33.621723 Y26.502516 Z-1.000000
G02 X33.721032 Y26.547428 Z-1.000000 I0.146749 J-0.192240
G03 X33.850497 Y26.588591 Z-1.000000 I-0.120948 J0.604580
G03 X33.888735 Y26.621978 Z-1.000000 I-0.034935 J0.078602
G01 X33.882845 Y26.639934 Z-1.000000
G03 X33.843385 Y26.640268 Z-1.000000 I-0.020155 J-0.049981
G02 X33.793563 Y26.640830 Z-1.000000 I-0.024202 J0.063075
G01 X33.779815 Y26.666348 Z-1.000000
G01 X33.768837 Y26.704651 Z-1.000000
G03 X33.723085 Y26.726978 Z-1.000000 I-0.052137 J-0.048799
G03 X33.655642 Y26.732933 Z-1.000000 I-4.513522 J-50.729251
G03 X33.593950 Y26.738218 Z-1.000000 I-1.380720 J-15.755710
G01 X33.573269 Y26.760610 Z-1.000000
G02 X33.593573 Y26.817298 Z-1.000000 I0.088109 J0.000421
G01 X33.583734 Y26.834238 Z-1.000000
G03 X33.465999 Y26.794818 Z-1.000000 I0.072734 J-0.412762
G02 X33.273404 Y26.713840 Z-1.000000 I-0.644599 J1.263573
G02 X33.179314 Y26.698448 Z-1.000000 I-0.094090 J0.279884
G03 X33.091559 Y26.675477 Z-1.000000 I0.000000 J-0.179110
G03 X32.975219 Y26.583741 Z-1.000000 I0.234096 J-0.416520
G03 X32.927552 Y26.470632 Z-1.000000 I0.131789 J-0.122138
G01 X32.967419 Y26.428709 Z-1.000000
G01 X32.996494 Y26.406026 Z-1.000000
G01 X32.982689 Y26.367839 Z-1.000000
G03 X32.947810 Y26.291546 Z-1.000000 I0.050668 J-0.069284
G03 X33.016419 Y25.956232 Z-1.000000 I1.423931 J0.116678
G01 X33.133387 Y25.605491 Z-1.000000
G01 X32.934058 Y25.377628 Z-1.000000
G03 X32.645245 Y24.940692 Z-1.000000 I1.468433 J-1.284550
G03 X32.620208 Y24.726964 Z-1.000000 I0.296625 J-0.143078
G03 X32.754444 Y24.540252 Z-1.000000 I0.283592 J0.062278
G03 X33.078160 Y24.452257 Z-1.000000 I0.317859 J0.529896
G03 X33.231529 Y24.492752 Z-1.000000 I-0.003111 J0.322465
G03 X33.374680 Y24.616844 Z-1.000000 I-0.223044 J0.401915
G03 X33.486092 Y24.783903 Z-1.000000 I-1.313789 J0.996850
G03 X33.498311 Y24.829174 Z-1.000000 I-0.077755 J0.045271
G02 X33.568536 Y24.925914 Z-1.000000 I0.101746 J-0.000000
G02 X33.813006 Y24.931704 Z-1.000000 I0.131890 J-0.404789
G01 X33.970354 Y24.888564 Z-1.000000
G01 X33.849500 Y24.846594 Z-1.000000
G03 X33.743760 Y24.785394 Z-1.000000 I0.105839 J-0.304814
G03 X33.636195 Y24.661341 Z-1.000000 I0.382174 J-0.440040
G02 X33.543018 Y24.518530 Z-1.000000 I-14.077553 J9.083156
G02 X33.452683 Y24.383184 Z-1.000000 I-12.705751 J8.382415
G03 X33.403599 Y24.158619 Z-1.000000 I0.257662 J-0.173965
G03 X33.532403 Y23.899901 Z-1.000000 I0.484895 J0.079986
G03 X33.731566 Y23.808517 Z-1.000000 I0.213906 J0.203466
G03 X33.981968 Y23.877421 Z-1.000000 I0.020710 J0.414179
G03 X34.411597 Y24.403425 Z-1.000000 I-0.638774 J0.960194
G03 X34.352116 Y24.788231 Z-1.000000 I-0.351180 J0.142717
G01 X34.352267 Y24.826949 Z-1.000000
G02 X34.403216 Y24.848831 Z-1.000000 I0.047306 J-0.039891
G03 X34.508856 Y24.851968 Z-1.000000 I0.035303 J0.591478
G03 X34.633461 Y24.876231 Z-1.000000 I-0.102845 J0.860258
G02 X34.695842 Y24.846128 Z-1.000000 I0.013879 J-0.050924
G02 X34.691961 Y24.739958 Z-1.000000 I-0.114108 J-0.048985
G03 X34.714277 Y24.619584 Z-1.000000 I0.088407 J-0.045866
G03 X34.887353 Y24.566640 Z-1.000000 I0.144451 J0.162847
G02 X35.092152 Y24.568175 Z-1.000000 I0.108536 J-0.818141
G02 X35.164995 Y24.534030 Z-1.000000 I-0.014851 J-0.126454
G03 X35.235933 Y24.487698 Z-1.000000 I0.161989 J0.170545
G03 X35.339565 Y24.460740 Z-1.000000 I0.145437 J0.346421
G02 X35.455423 Y24.410587 Z-1.000000 I-0.023956 J-0.214236
G02 X35.535410 Y24.293870 Z-1.000000 I-0.175655 J-0.206146
G01 X35.564236 Y24.276399 Z-1.000000
G03 X35.817119 Y24.335380 Z-1.000000 I-0.227740 J1.548058
G02 X36.085229 Y24.404033 Z-1.000000 I0.693154 J-2.149129
G02 X36.206828 Y24.410070 Z-1.000000 I0.082260 J-0.429213
G03 X36.295151 Y24.425882 Z-1.000000 I0.015254 J0.169377
G01 X36.308452 Y24.458480 Z-1.000000
G02 X36.354802 Y24.620848 Z-1.000000 I0.134466 J0.049415
G02 X36.644134 Y24.720356 Z-1.000000 I0.289333 J-0.370883
G03 X36.733080 Y24.737941 Z-1.000000 I-0.000000 J0.233735
G03 X36.860633 Y24.809446 Z-1.000000 I-0.231353 J0.562217
G02 X37.026762 Y24.885402 Z-1.000000 I0.267888 J-0.366261
G02 X37.285900 Y24.907306 Z-1.000000 I0.206257 J-0.896329
G01 X37.309600 Y24.844789 Z-1.000000
G02 X37.080746 Y24.703443 Z-1.000000 I-0.417670 J0.420308
G03 X37.028615 Y24.665426 Z-1.000000 I0.034130 J-0.101553
G01 X37.027206 Y24.630763 Z-1.000000
G01 X37.021977 Y24.604006 Z-1.000000
G02 X36.965276 Y24.585493 Z-1.000000 I-0.056701 J0.077572
G03 X36.883686 Y24.570564 Z-1.000000 I0.000000 J-0.230424
G03 X36.847897 Y24.541053 Z-1.000000 I0.025521 J-0.067406
G01 X36.854276 Y24.522881 Z-1.000000
G03 X36.901437 Y24.521973 Z-1.000000 I0.024938 J0.070026
G01 X36.917076 Y24.517194 Z-1.000000
G01 X36.915007 Y24.504993 Z-1.000000
G02 X36.540836 Y24.368964 Z-1.000000 I-0.503252 J0.801652
G01 X36.510399 Y24.449303 Z-1.000000
G01 X36.531414 Y24.480467 Z-1.000000
G01 X36.519799 Y24.494893 Z-1.000000
G03 X36.302523 Y24.409003 Z-1.000000 I-0.003658 J-0.308516
G03 X36.301245 Y24.285183 Z-1.000000 I0.060006 J-0.062536
G03 X36.533299 Y24.204183 Z-1.000000 I0.199961 J0.199961
G03 X36.917729 Y24.355583 Z-1.000000 I-0.090702 J0.794075
G02 X37.146739 Y24.432908 Z-1.000000 I0.234783 J-0.317559
G02 X37.287423 Y24.360983 Z-1.000000 I0.002467 J-0.168725
G03 X37.353079 Y24.300894 Z-1.000000 I0.168112 J0.117771
G01 X37.384973 Y24.304793 Z-1.000000
G01 X37.389019 Y24.301577 Z-1.000000
G02 X37.284139 Y24.135920 Z-1.000000 I-3.221894 J1.923801
G02 X36.925521 Y23.743824 Z-1.000000 I-1.473747 J0.987870
G02 X36.558022 Y23.549157 Z-1.000000 I-0.683064 J0.845288
G01 X36.443005 Y23.514257 Z-1.000000
G01 X36.566635 Y23.510357 Z-1.000000
G01 X36.589042 Y23.436703 Z-1.000000
G02 X36.343534 Y23.350399 Z-1.000000 I-0.270616 J0.377470
G03 X36.227287 Y23.312875 Z-1.000000 I0.013022 J-0.239165
G01 X36.236419 Y23.281709 Z-1.000000
G02 X36.286457 Y23.268233 Z-1.000000 I0.000000 J-0.099635
G02 X36.367542 Y23.205549 Z-1.000000 I-0.195623 J-0.336835
G01 X36.377530 Y23.171923 Z-1.000000
G01 X36.358442 Y23.161429 Z-1.000000
G03 X36.274914 Y23.165043 Z-1.000000 I-0.047233 J-0.124609
G03 X35.959301 Y23.048446 Z-1.000000 I0.587800 J-2.076563
G03 X35.690032 Y22.905928 Z-1.000000 I1.162345 J-2.521732
G01 X35.692051 Y22.887638 Z-1.000000
G03 X35.738222 Y22.887766 Z-1.000000 I0.022896 J0.068555
G03 X35.926961 Y22.967528 Z-1.000000 I-0.458822 J1.348885
G01 X35.946410 Y22.945961 Z-1.000000
G02 X35.859711 Y22.863738 Z-1.000000 I-0.213583 J0.138389
G02 X35.566036 Y22.720114 Z-1.000000 I-1.215339 J2.113009
G02 X35.467664 Y22.703611 Z-1.000000 I-0.085822 J0.210130
G03 X35.368033 Y22.688718 Z-1.000000 I-0.013903 J-0.247692
G03 X34.936918 Y22.508236 Z-1.000000 I1.851370 J-5.027484
G02 X34.506352 Y22.316918 Z-1.000000 I-4.570617 J9.706130
G02 X34.378350 Y22.274591 Z-1.000000 I-0.338946 J0.810303
G02 X34.311264 Y22.282460 Z-1.000000 I-0.023069 J0.093227
G01 X34.305180 Y22.312321 Z-1.000000
G02 X34.373541 Y22.361175 Z-1.000000 I0.126915 J-0.105336
G02 X34.490204 Y22.382581 Z-1.000000 I0.116663 J-0.307205
G03 X34.607316 Y22.399795 Z-1.000000 I0.000000 J0.406976
G03 X34.645814 Y22.429341 Z-1.000000 I-0.019680 J0.065498
G01 X34.637057 Y22.449968 Z-1.000000
G03 X34.547314 Y22.450781 Z-1.000000 I-0.046824 J-0.215146
G02 X34.511454 Y22.454646 Z-1.000000 I-0.011759 J0.059188
G01 X34.511394 Y22.466431 Z-1.000000
G03 X34.596105 Y22.516293 Z-1.000000 I-0.181391 J0.405051
G03 X34.663384 Y22.580310 Z-1.000000 I-0.237348 J0.316808
G02 X34.735299 Y22.635817 Z-1.000000 I0.159643 J-0.132491
G02 X34.976519 Y22.726427 Z-1.000000 I0.705670 J-1.512237
G03 X35.457410 Y22.911595 Z-1.000000 I-0.839852 J2.898178
G01 X35.442726 Y22.953391 Z-1.000000
G02 X35.349020 Y22.948070 Z-1.000000 I-0.062739 J0.277118
G01 X35.319051 Y22.967011 Z-1.000000
G01 X35.289061 Y22.986321 Z-1.000000
G03 X35.195376 Y22.982781 Z-1.000000 I-0.036189 J-0.283735
G01 X35.186647 Y22.996539 Z-1.000000
G02 X35.242086 Y23.045231 Z-1.000000 I0.143211 J-0.107148
G03 X35.358148 Y23.132783 Z-1.000000 I-0.267619 J0.475468
G01 X35.358224 Y23.160107 Z-1.000000
G03 X35.267276 Y23.187607 Z-1.000000 I-0.071143 J-0.071143
G03 X35.124191 Y23.113117 Z-1.000000 I0.057084 J-0.284317
G02 X35.037713 Y23.039781 Z-1.000000 I-0.669590 J0.701932
G02 X34.944365 Y22.977866 Z-1.000000 I-0.568825 J0.756273
G02 X34.875548 Y22.973962 Z-1.000000 I-0.038253 J0.065826
G02 X34.841793 Y23.022826 Z-1.000000 I0.022690 J0.051765
G01 X34.828558 Y23.041674 Z-1.000000
G01 X34.814113 Y23.034446 Z-1.000000
G02 X34.735484 Y22.929554 Z-1.000000 I-0.163918 J0.040960
G02 X34.546203 Y22.877787 Z-1.000000 I-0.191096 J0.326793
G03 X34.412377 Y22.859929 Z-1.000000 I0.002543 J-0.529428
G03 X34.374963 Y22.832137 Z-1.000000 I0.016248 J-0.060952
G02 X34.337373 Y22.804761 Z-1.000000 I-0.052295 J0.032312
G02 X34.192484 Y22.787177 Z-1.000000 I-0.144888 J0.588125
G03 X34.057071 Y22.767899 Z-1.000000 I-0.000000 J-0.485239
G01 X34.037789 Y22.742217 Z-1.000000
G01 X34.020188 Y22.714232 Z-1.000000
G02 X33.936637 Y22.693607 Z-1.000000 I-0.091150 J0.189701
G01 X33.924029 Y22.672938 Z-1.000000
G03 X33.965287 Y22.632637 Z-1.000000 I0.074510 J0.035011
G02 X34.042173 Y22.571671 Z-1.000000 I-0.078669 J-0.178176
G01 X34.035997 Y22.538797 Z-1.000000
G02 X33.752386 Y22.457925 Z-1.000000 I-0.284682 J0.460621
G02 X33.237113 Y22.537197 Z-1.000000 I-0.003348 J1.692534
G03 X33.154495 Y22.543770 Z-1.000000 I-0.055481 J-0.174838
G03 X33.117318 Y22.519257 Z-1.000000 I0.007826 J-0.052318
G01 X33.122689 Y22.491590 Z-1.000000
G03 X33.180968 Y22.472477 Z-1.000000 I0.058279 J0.079296
G02 X33.256226 Y22.455170 Z-1.000000 I0.000000 J-0.172277
G01 X33.273538 Y22.427517 Z-1.000000
G01 X33.257430 Y22.398665 Z-1.000000
G02 X33.200598 Y22.382557 Z-1.000000 I-0.056832 J0.092200
G01 X33.173551 Y22.361006 Z-1.000000
G03 X33.184818 Y22.313687 Z-1.000000 I0.053510 J-0.012260
G01 X33.179184 Y22.289711 Z-1.000000
G02 X33.127508 Y22.288337 Z-1.000000 I-0.027510 J0.062192
G03 X33.016545 Y22.315548 Z-1.000000 I-0.165724 J-0.435951
G01 X32.986221 Y22.305027 Z-1.000000
G01 X32.958680 Y22.300254 Z-1.000000
G02 X32.861479 Y22.364097 Z-1.000000 I0.179674 J0.379471
G03 X32.803482 Y22.401612 Z-1.000000 I-0.156599 J-0.178511
G01 X32.796419 Y22.393797 Z-1.000000
G01 X32.791966 Y22.358988 Z-1.000000
G02 X32.740459 Y22.337597 Z-1.000000 I-0.051507 J0.051317
G02 X32.663924 Y22.355796 Z-1.000000 I0.000000 J0.170031
G02 X32.628963 Y22.393797 Z-1.000000 I0.032978 J0.065423
G01 X32.613361 Y22.405718 Z-1.000000
G01 X32.602743 Y22.396897 Z-1.000000
G03 X32.682092 Y22.252810 Z-1.000000 I0.152027 J-0.010171
G03 X33.055699 Y22.151062 Z-1.000000 I0.402771 J0.742136
G01 X33.251063 Y22.144262 Z-1.000000
G01 X33.048759 Y22.116162 Z-1.000000
G02 X32.692061 Y22.143406 Z-1.000000 I-0.115751 J0.833204
G02 X32.584245 Y22.255033 Z-1.000000 I0.045345 J0.151678
G03 X32.548319 Y22.316739 Z-1.000000 I-0.128857 J-0.033711
G01 X32.517395 Y22.320133 Z-1.000000
G01 X32.478321 Y22.316920 Z-1.000000
G02 X32.418955 Y22.360563 Z-1.000000 I0.057817 J0.140844
G03 X32.356458 Y22.412720 Z-1.000000 I-0.172359 J-0.143008
G03 X32.300059 Y22.427503 Z-1.000000 I-0.056399 J-0.100190
G02 X32.248876 Y22.445198 Z-1.000000 I-0.000000 J0.082870
G02 X32.209399 Y22.498703 Z-1.000000 I0.077146 J0.098236
G01 X32.177999 Y22.526472 Z-1.000000
G01 X32.147569 Y22.514083 Z-1.000000
G03 X32.147754 Y22.335149 Z-1.000000 I0.144519 J-0.089318
G03 X32.302562 Y22.264454 Z-1.000000 I0.130567 J0.081068
G02 X32.342563 Y22.265802 Z-1.000000 I0.025368 J-0.158563
G01 X32.343182 Y22.260754 Z-1.000000
G01 X32.314780 Y22.230152 Z-1.000000
G03 X32.317882 Y22.166154 Z-1.000000 I0.101537 J-0.027152
G01 X32.307208 Y22.144677 Z-1.000000
G01 X32.270432 Y22.151994 Z-1.000000
G03 X32.214776 Y22.171236 Z-1.000000 I-0.054188 J-0.066627
G01 X32.194582 Y22.150694 Z-1.000000
G03 X32.212153 Y22.096812 Z-1.000000 I0.091401 J0.000000
G03 X32.288822 Y22.021559 Z-1.000000 I0.265331 J0.193641
G02 X32.442599 Y21.875734 Z-1.000000 I-0.415408 J-0.592055
G01 X32.427651 Y21.844477 Z-1.000000
G02 X32.326750 Y21.856269 Z-1.000000 I-0.005375 J0.391593
G02 X32.225347 Y21.895367 Z-1.000000 I0.109268 J0.434439
G01 X32.192410 Y21.894337 Z-1.000000
G01 X32.188847 Y21.872887 Z-1.000000
G02 X32.203414 Y21.820316 Z-1.000000 I-0.051665 J-0.042620
G01 X32.177607 Y21.798097 Z-1.000000
G01 X32.149958 Y21.752284 Z-1.000000
G03 X32.236447 Y21.686384 Z-1.000000 I0.114168 J0.060131
G02 X32.330027 Y21.627605 Z-1.000000 I-0.035090 J-0.159748
G02 X32.364414 Y21.523303 Z-1.000000 I-0.127069 J-0.099712
G02 X32.340128 Y21.420718 Z-1.000000 I-0.259504 J0.007269
G01 X32.311304 Y21.409493 Z-1.000000
G03 X32.133877 Y21.462676 Z-1.000000 I-0.354089 J-0.858739
G01 X32.122420 Y21.446083 Z-1.000000
G01 X32.097782 Y21.410139 Z-1.000000
G02 X31.794673 Y21.507273 Z-1.000000 I0.233247 J1.249344
G01 X31.741338 Y21.497720 Z-1.000000
G01 X31.747503 Y21.459653 Z-1.000000
G02 X31.923475 Y21.335564 Z-1.000000 I-0.336369 J-0.663825
G01 X31.920561 Y21.295383 Z-1.000000
G01 X31.920139 Y21.278351 Z-1.000000
G01 X31.951521 Y21.271143 Z-1.000000
G02 X32.033666 Y21.263154 Z-1.000000 I0.028586 J-0.132374
G02 X32.097630 Y21.208223 Z-1.000000 I-0.055880 J-0.129777
G02 X32.107979 Y21.117192 Z-1.000000 I-0.090258 J-0.056364
G02 X32.048470 Y21.065563 Z-1.000000 I-0.074389 J0.025633
G01 X32.046470 Y21.053452 Z-1.000000
G03 X32.093430 Y21.039963 Z-1.000000 I0.051293 J0.090082
G02 X32.208206 Y21.003798 Z-1.000000 I-0.009638 J-0.230799
G02 X32.239538 Y20.946583 Z-1.000000 I-0.036573 J-0.057215
G03 X32.253997 Y20.867380 Z-1.000000 I0.224160 J-0.000000
G03 X32.282528 Y20.832752 Z-1.000000 I0.065139 J0.024603
G02 X32.305636 Y20.799473 Z-1.000000 I-0.026679 J-0.043186
G02 X32.300698 Y20.741492 Z-1.000000 I-0.102766 J-0.020450
G02 X32.179049 Y20.658747 Z-1.000000 I-0.120392 J0.046202
G02 X31.871748 Y20.745692 Z-1.000000 I0.005924 J0.607477
G01 X31.860927 Y20.739228 Z-1.000000
G03 X31.873648 Y20.705882 Z-1.000000 I0.057233 J0.002734
G02 X31.907782 Y20.550447 Z-1.000000 I-0.137740 J-0.111713
G02 X31.823288 Y20.507877 Z-1.000000 I-0.060758 J0.015456
G03 X31.678955 Y20.537113 Z-1.000000 I-0.148844 J-0.363918
G01 X31.666320 Y20.509677 Z-1.000000
G02 X31.695077 Y20.423151 Z-1.000000 I-0.088412 J-0.077425
G01 X31.658020 Y20.402860 Z-1.000000
G01 X31.607547 Y20.394480 Z-1.000000
G01 X31.610110 Y20.351470 Z-1.000000
G02 X31.677758 Y20.264769 Z-1.000000 I-0.172830 J-0.204589
G01 X31.666310 Y20.236828 Z-1.000000
G03 X31.626100 Y20.205778 Z-1.000000 I0.026703 J-0.076142
G03 X31.610110 Y20.153438 Z-1.000000 I0.077669 J-0.052340
G02 X31.595797 Y20.104055 Z-1.000000 I-0.092344 J-0.000000
G01 X31.569810 Y20.089748 Z-1.000000
G02 X31.410537 Y20.163723 Z-1.000000 I0.000000 J0.208450
G02 X31.227841 Y20.494791 Z-1.000000 I0.738360 J0.623398
G03 X31.192305 Y20.570568 Z-1.000000 I-0.304849 J-0.096741
G01 X31.178331 Y20.572081 Z-1.000000
G01 X31.172536 Y20.550519 Z-1.000000
G03 X31.225611 Y20.394577 Z-1.000000 I1.174771 J0.312836
G02 X31.271902 Y20.239974 Z-1.000000 I-0.711685 J-0.297324
G01 X31.261221 Y20.205404 Z-1.000000
G01 X31.256055 Y20.177743 Z-1.000000
G03 X31.291411 Y20.137184 Z-1.000000 I0.083038 J0.036696
G02 X31.324387 Y20.087293 Z-1.000000 I-0.037452 J-0.060598
G02 X31.321791 Y19.937324 Z-1.000000 I-0.442964 J-0.067340
G02 X31.249748 Y19.824324 Z-1.000000 I-0.176614 J0.033135
G01 X31.189253 Y19.842484 Z-1.000000
G01 X31.135736 Y19.862513 Z-1.000000
G03 X31.104593 Y19.797524 Z-1.000000 I0.028462 J-0.053596
G02 X31.094282 Y19.711436 Z-1.000000 I-0.140421 J-0.026844
G01 X31.053403 Y19.685132 Z-1.000000
G03 X30.999932 Y19.665929 Z-1.000000 I0.000000 J-0.084048
G03 X30.980723 Y19.625192 Z-1.000000 I0.033592 J-0.040737
G03 X30.999303 Y19.583823 Z-1.000000 I0.055346 J0.000000
G03 X31.048153 Y19.565252 Z-1.000000 I0.048851 J0.054965
G03 X31.102842 Y19.578005 Z-1.000000 I-0.000000 J0.123635
G01 X31.115593 Y19.598512 Z-1.000000
G01 X31.129395 Y19.613886 Z-1.000000
G02 X31.205503 Y19.608212 Z-1.000000 I0.022648 J-0.209501
G02 X31.269384 Y19.564600 Z-1.000000 I-0.029076 J-0.111179
G02 X31.295413 Y19.484519 Z-1.000000 I-0.110172 J-0.080081
G02 X31.274171 Y19.393763 Z-1.000000 I-0.204495 J-0.000000
G02 X31.205503 Y19.302969 Z-1.000000 I-0.273368 J0.135385
G02 X31.141522 Y19.280055 Z-1.000000 I-0.059727 J0.065990
G01 X31.115573 Y19.307269 Z-1.000000
G03 X31.078981 Y19.356525 Z-1.000000 I-0.051462 J-0.000012
G03 X30.826692 Y19.394459 Z-1.000000 I-0.257060 J-0.851712
G03 X30.727959 Y19.348460 Z-1.000000 I-0.000697 J-0.127465
G01 X30.746272 Y19.297689 Z-1.000000
G02 X31.047217 Y19.208275 Z-1.000000 I-0.279229 J-1.490974
G02 X31.385855 Y19.032928 Z-1.000000 I-0.855856 J-2.067538
G03 X31.553662 Y18.940431 Z-1.000000 I0.862790 J1.366792
G01 X31.573062 Y18.943768 Z-1.000000
G01 X31.583352 Y18.941061 Z-1.000000
G02 X31.600482 Y18.845168 Z-1.000000 I-0.499117 J-0.138638
G01 X31.610082 Y18.728778 Z-1.000000
G01 X31.487037 Y18.851824 Z-1.000000
G03 X30.966704 Y19.141163 Z-1.000000 I-0.767262 J-0.767264
G03 X30.679708 Y19.040497 Z-1.000000 I-0.064438 J-0.275730
G02 X30.589501 Y18.945987 Z-1.000000 I-0.537569 J0.422787
G02 X30.533748 Y18.914258 Z-1.000000 I-0.107927 J0.124800
G03 X30.525638 Y18.801076 Z-1.000000 I0.019422 J-0.058273
G03 X30.968954 Y18.696056 Z-1.000000 I0.443756 J0.885015
G02 X31.386763 Y18.603616 Z-1.000000 I-0.000453 J-0.992470
G02 X31.627115 Y18.390193 Z-1.000000 I-0.235996 J-0.507824
G01 X31.617332 Y18.376186 Z-1.000000
G02 X31.429744 Y18.430683 Z-1.000000 I0.243876 J1.189561
G03 X31.201521 Y18.499423 Z-1.000000 I-0.600456 J-1.580347
G03 X31.058874 Y18.514403 Z-1.000000 I-0.134848 J-0.597411
G01 X30.913248 Y18.512503 Z-1.000000
G01 X31.089325 Y18.357027 Z-1.000000
G02 X31.102236 Y18.292463 Z-1.000000 I-0.036002 J-0.040772
G01 X31.047945 Y18.271957 Z-1.000000
G03 X30.442678 Y18.377090 Z-1.000000 I-0.533573 J-1.276989
G03 X30.306340 Y18.233497 Z-1.000000 I0.007449 J-0.143593
G03 X30.317959 Y18.189499 Z-1.000000 I0.089118 J0.000000
G03 X30.497405 Y17.896949 Z-1.000000 I4.408384 J2.502740
G03 X30.807091 Y17.571011 Z-1.000000 I1.072441 J0.708876
G03 X31.148759 Y17.416839 Z-1.000000 I0.530190 J0.719299
G02 X31.285804 Y17.373305 Z-1.000000 I-0.159775 J-0.740437
G02 X31.319999 Y17.343919 Z-1.000000 I-0.029208 J-0.068578
G01 X31.305149 Y17.319974 Z-1.000000
G02 X31.059177 Y17.368249 Z-1.000000 I0.115731 J1.240450
G03 X30.854892 Y17.402947 Z-1.000000 I-0.238694 J-0.786613
G03 X30.802652 Y17.378999 Z-1.000000 I-0.002647 J-0.063178
G02 X30.758583 Y17.325964 Z-1.000000 I-1.122337 J0.887763
G02 X30.618166 Y17.167550 Z-1.000000 I-10.185011 J8.886502
G01 X30.476477 Y17.010203 Z-1.000000
G01 X30.616191 Y17.210124 Z-1.000000
G03 X30.708733 Y17.470241 Z-1.000000 I-0.427081 J0.298462
G03 X30.643511 Y17.580339 Z-1.000000 I-0.111631 J0.008238
G02 X30.549960 Y17.643670 Z-1.000000 I0.140462 J0.308249
G02 X30.531119 Y17.687730 Z-1.000000 I0.042098 J0.044060
G03 X30.516252 Y17.738745 Z-1.000000 I-0.094956 J-0.000000
G03 X30.346751 Y17.977154 Z-1.000000 I-2.425738 J-1.545152
G01 X30.162383 Y18.210397 Z-1.000000
G01 X29.953382 Y18.180937 Z-1.000000
G03 X29.738002 Y18.065193 Z-1.000000 I0.049358 J-0.350112
G03 X29.746136 Y17.946833 Z-1.000000 I0.062326 J-0.055176
G01 X29.924206 Y17.794106 Z-1.000000
G01 X29.692895 Y17.907916 Z-1.000000
G03 X29.412535 Y17.991461 Z-1.000000 I-0.387032 J-0.786616
G03 X29.344581 Y17.950616 Z-1.000000 I-0.007835 J-0.063915
G03 X29.322668 Y17.728150 Z-1.000000 I0.393757 J-0.151098
G03 X29.395971 Y17.651295 Z-1.000000 I0.093832 J0.016110
G01 X29.397292 Y17.637333 Z-1.000000
G02 X29.304651 Y17.611905 Z-1.000000 I-0.137126 J0.318111
G02 X29.180319 Y17.624385 Z-1.000000 I-0.035378 J0.273127
G01 X29.164626 Y17.659695 Z-1.000000
G03 X29.199686 Y17.864071 Z-1.000000 I-0.408099 J0.175203
G03 X29.142926 Y17.989295 Z-1.000000 I-0.194808 J-0.012824
G03 X29.097884 Y18.011413 Z-1.000000 I-0.054920 J-0.054920
G03 X28.952123 Y18.013755 Z-1.000000 I-0.083343 J-0.649984
G01 X28.800297 Y17.999245 Z-1.000000
G01 X28.810587 Y17.751984 Z-1.000000
G02 X28.800604 Y17.569810 Z-1.000000 I-0.947574 J-0.039432
G01 X28.782307 Y17.566006 Z-1.000000
G01 X28.748730 Y17.585895 Z-1.000000
G01 X28.724477 Y17.569506 Z-1.000000
G01 X28.703329 Y17.564955 Z-1.000000
G02 X28.646147 Y17.654336 Z-1.000000 I0.222108 J0.205078
G03 X28.563752 Y17.762039 Z-1.000000 I-0.243331 J-0.100785
G03 X28.461408 Y17.796945 Z-1.000000 I-0.102344 J-0.132583
G02 X28.348630 Y17.814839 Z-1.000000 I0.000000 J0.364345
G01 X28.320444 Y17.842825 Z-1.000000
G01 X28.293125 Y17.860865 Z-1.000000
G03 X28.182178 Y17.831585 Z-1.000000 I0.026410 J-0.324904
G03 X28.115259 Y17.746476 Z-1.000000 I0.050402 J-0.108493
G03 X28.152608 Y17.683220 Z-1.000000 I0.054009 J-0.010765
G02 X28.208063 Y17.630239 Z-1.000000 I-0.026379 J-0.083123
G02 X28.218668 Y17.503879 Z-1.000000 I-0.223713 J-0.082401
G03 X28.224088 Y17.367999 Z-1.000000 I0.299101 J-0.056118
G03 X28.275468 Y17.294693 Z-1.000000 I0.127320 J0.034579
G02 X28.346379 Y17.224793 Z-1.000000 I-0.174518 J-0.247960
G02 X28.392337 Y17.133610 Z-1.000000 I-0.258136 J-0.187278
G02 X28.368581 Y17.056060 Z-1.000000 I-0.068158 J-0.021535
G02 X28.184266 Y16.968675 Z-1.000000 I-0.280855 J0.354315
G01 X28.062758 Y16.942115 Z-1.000000
G01 X28.070158 Y17.209348 Z-1.000000
G03 X27.981340 Y17.541907 Z-1.000000 I-0.604118 J0.016795
G03 X27.777469 Y17.687027 Z-1.000000 I-0.272405 J-0.166924
G03 X27.654754 Y17.685629 Z-1.000000 I-0.058339 J-0.265669
G03 X27.599541 Y17.643677 Z-1.000000 I0.020548 J-0.084351
G02 X27.552439 Y17.593496 Z-1.000000 I-0.124544 J0.069705
G01 X27.521371 Y17.593187 Z-1.000000
G01 X27.494847 Y17.589718 Z-1.000000
G03 X27.461821 Y17.530177 Z-1.000000 I0.099776 J-0.094273
G02 X27.418045 Y17.468819 Z-1.000000 I-0.102454 J0.026801
G02 X27.310601 Y17.429530 Z-1.000000 I-0.135164 J0.203077
G03 X27.224016 Y17.381410 Z-1.000000 I0.014672 J-0.128359
G03 X27.196970 Y17.286130 Z-1.000000 I0.101223 J-0.080211
G02 X27.190251 Y17.191696 Z-1.000000 I-0.251655 J-0.029549
G01 X27.169830 Y17.183568 Z-1.000000
G01 X27.136491 Y17.180328 Z-1.000000
G03 X27.076070 Y17.096658 Z-1.000000 I0.178470 J-0.192530
G02 X27.001737 Y17.027360 Z-1.000000 I-0.120763 J0.055022
G02 X26.855953 Y17.014448 Z-1.000000 I-0.096302 J0.257852
G02 X26.688915 Y17.051019 Z-1.000000 I0.442242 J2.419677
G02 X26.581294 Y17.084668 Z-1.000000 I0.264988 J1.036458
G02 X26.523939 Y17.137086 Z-1.000000 I0.036069 J0.097054
G02 X26.530604 Y17.190768 Z-1.000000 I0.045279 J0.021633
G02 X26.593932 Y17.240468 Z-1.000000 I0.146729 J-0.121767
G02 X26.667707 Y17.257458 Z-1.000000 I0.073775 J-0.151677
G03 X26.740559 Y17.273428 Z-1.000000 I0.000000 J0.174155
G03 X26.781997 Y17.310098 Z-1.000000 I-0.040092 J0.087053
G01 X26.809891 Y17.316296 Z-1.000000
G02 X26.850637 Y17.265138 Z-1.000000 I-0.057251 J-0.087405
G01 X26.906236 Y17.241673 Z-1.000000
G03 X26.934597 Y17.302408 Z-1.000000 I-0.020713 J0.046661
G02 X26.953301 Y17.363069 Z-1.000000 I0.055808 J0.016007
G01 X27.004747 Y17.360698 Z-1.000000
G01 X27.038999 Y17.353721 Z-1.000000
G01 X27.051087 Y17.379398 Z-1.000000
G02 X27.072679 Y17.485781 Z-1.000000 I0.106442 J0.033779
G01 X27.137817 Y17.480750 Z-1.000000
G01 X27.171159 Y17.471275 Z-1.000000
G03 X27.275793 Y17.549770 Z-1.000000 I-0.163357 J0.326740
G03 X27.379541 Y17.668509 Z-1.000000 I-1.974701 J1.830076
G01 X27.384159 Y17.681384 Z-1.000000
G01 X27.376909 Y17.688601 Z-1.000000
G03 X26.904534 Y17.679284 Z-1.000000 I0.071472 J-15.603175
G03 X26.433003 Y17.636994 Z-1.000000 I0.152346 J-4.348612
G03 X26.321681 Y17.594844 Z-1.000000 I0.039442 J-0.272247
G02 X26.215455 Y17.537244 Z-1.000000 I-0.398760 J0.608646
G02 X26.167615 Y17.527204 Z-1.000000 I-0.047840 J0.108955
G03 X26.120436 Y17.515764 Z-1.000000 I0.000000 J-0.103001
G03 X25.983632 Y17.432394 Z-1.000000 I0.513463 J-0.996487
G03 X25.882309 Y17.323721 Z-1.000000 I0.215168 J-0.302188
G03 X25.863753 Y17.236340 Z-1.000000 I0.114413 J-0.069957
G02 X25.857020 Y17.140867 Z-1.000000 I-0.237962 J-0.031193
G02 X25.814763 Y17.060078 Z-1.000000 I-0.209930 J0.058359
G03 X25.780243 Y16.862521 Z-1.000000 I0.155359 J-0.128941
G03 X25.922108 Y16.762942 Z-1.000000 I0.141866 J0.051265
G02 X25.975402 Y16.747838 Z-1.000000 I-0.000000 J-0.101573
G01 X25.990508 Y16.720782 Z-1.000000
G01 X25.974678 Y16.694700 Z-1.000000
G02 X25.911838 Y16.679852 Z-1.000000 I-0.060771 J0.116796
G03 X25.591435 Y16.626975 Z-1.000000 I-0.014211 J-0.911053
G03 X25.395781 Y16.495694 Z-1.000000 I0.161107 J-0.451543
G03 X25.292803 Y16.321241 Z-1.000000 I0.382605 J-0.343469
G03 X25.203659 Y15.943730 Z-1.000000 I1.780328 J-0.619678
G02 X25.147762 Y15.747561 Z-1.000000 I-0.682400 J0.088398
G02 X25.068901 Y15.647061 Z-1.000000 I-0.245682 J0.111592
G03 X24.707129 Y15.215898 Z-1.000000 I0.849895 J-1.080470
G03 X24.667923 Y14.898798 Z-1.000000 I0.390485 J-0.209253
G02 X24.670840 Y14.804930 Z-1.000000 I-0.213689 J-0.053619
G01 X24.646693 Y14.784857 Z-1.000000
G01 X24.615017 Y14.766696 Z-1.000000
G03 X24.596863 Y14.699757 Z-1.000000 I0.114339 J-0.066939
G02 X24.578104 Y14.627544 Z-1.000000 I-0.148367 J-0.000000
G02 X24.536553 Y14.591509 Z-1.000000 I-0.070437 J0.039245
G03 X24.471189 Y14.542132 Z-1.000000 I0.052993 J-0.138103
G03 X24.048779 Y13.940827 Z-1.000000 I9.522755 J-7.138648
G03 X23.987665 Y13.819275 Z-1.000000 I0.492951 J-0.323986
G03 X23.943676 Y13.653132 Z-1.000000 I0.883691 J-0.322866
G02 X23.901431 Y13.496726 Z-1.000000 I-0.829147 J0.140046
G01 X23.878876 Y13.481121 Z-1.000000
G03 X23.757097 Y13.424009 Z-1.000000 I0.000000 J-0.158390
G03 X22.947313 Y12.361001 Z-1.000000 I12.021798 J-9.997974
G03 X22.841077 Y12.142567 Z-1.000000 I0.643175 J-0.447863
G03 X22.794755 Y11.862686 Z-1.000000 I1.022263 J-0.312962
G02 X22.736869 Y11.393980 Z-1.000000 I-2.568985 J0.079347
G02 X22.650490 Y11.201547 Z-1.000000 I-0.501258 J0.109401
G03 X22.627677 Y11.146696 Z-1.000000 I0.103175 J-0.075081
G03 X22.635440 Y11.107847 Z-1.000000 I0.056051 J-0.009000
G01 X22.633863 Y11.071520 Z-1.000000
G02 X22.459484 Y10.871735 Z-1.000000 I-1.378952 J1.027599
G03 X22.275030 Y10.668426 Z-1.000000 I1.659799 J-1.691200
G03 X22.259129 Y10.623393 Z-1.000000 I0.055819 J-0.045033
G02 X22.242892 Y10.578293 Z-1.000000 I-0.070753 J0.000000
G02 X21.978151 Y10.283746 Z-1.000000 I-3.721576 J3.078729
G03 X21.700248 Y9.992984 Z-1.000000 I13.872654 J-13.537326
G03 X21.561867 Y9.839054 Z-1.000000 I3.748058 J-3.508618
G02 X21.417228 Y9.692407 Z-1.000000 I-1.174445 J1.013711
G02 X21.190976 Y9.509884 Z-1.000000 I-2.052109 J2.312265
G03 X20.968738 Y9.330697 Z-1.000000 I1.803414 J-2.464114
G01 X20.955390 Y9.301027 Z-1.000000
G01 X20.941631 Y9.272105 Z-1.000000
G02 X20.741847 Y9.127393 Z-1.000000 I-1.394119 J1.714411
G03 X20.536422 Y8.980152 Z-1.000000 I1.345035 J-2.093468
G03 X20.370955 Y8.831916 Z-1.000000 I1.197443 J-1.503099
G02 X20.211080 Y8.721764 Z-1.000000 I-0.374135 J0.371924
G01 X20.185420 Y8.749456 Z-1.000000
G01 X20.185526 Y8.749425 Z-1.000000
G00 Z5.000000

(End cutting path id: path13559)


(Start cutting path id: path13559)
(Change tool to Default tool)

G00 Z5.000000
G00 X24.424247 Y12.492056

G01 Z-1.000000 F100.0(Penetrate)
G02 X24.435154 Y12.548246 Z-1.000000 I0.150193 J-0.000000 F3500.000000
G01 X24.446917 Y12.548246 Z-1.000000
G02 X24.457825 Y12.492051 Z-1.000000 I-0.139292 J-0.056195
G02 X24.446917 Y12.435855 Z-1.000000 I-0.150209 J0.000000
G01 X24.435152 Y12.435856 Z-1.000000
G02 X24.424247 Y12.492055 Z-1.000000 I0.139358 J0.056199
G01 X24.424247 Y12.492056 Z-1.000000
G00 Z5.000000

(End cutting path id: path13559)


(Start cutting path id: path13559)
(Change tool to Default tool)

G00 Z5.000000
G00 X24.425947 Y12.739316

G01 Z-1.000000 F100.0(Penetrate)
G02 X24.437218 Y12.795377 Z-1.000000 I0.154551 J-0.001908 F3500.000000
G01 X24.448337 Y12.794656 Z-1.000000
G02 X24.457941 Y12.715856 Z-1.000000 I-0.288164 J-0.075104
G02 X24.446637 Y12.659787 Z-1.000000 I-0.154204 J0.001914
G01 X24.435515 Y12.660508 Z-1.000000
G02 X24.425917 Y12.739317 Z-1.000000 I0.288379 J0.075111
G01 X24.425947 Y12.739316 Z-1.000000
G00 Z5.000000

(End cutting path id: path13559)


(Start cutting path id: path13559)
(Change tool to Default tool)

G00 Z5.000000
G00 X23.475118 Y15.748925

G01 Z-1.000000 F100.0(Penetrate)
G02 X23.439503 Y15.821222 Z-1.000000 I0.133157 J0.110518 F3500.000000
G02 X23.444148 Y15.885700 Z-1.000000 I0.108560 J0.024585
G03 X23.447156 Y15.937837 Z-1.000000 I-0.080233 J0.030785
G01 X23.426698 Y15.953710 Z-1.000000
G01 X23.395477 Y15.966039 Z-1.000000
G01 X23.383148 Y15.994460 Z-1.000000
G02 X23.461862 Y16.039344 Z-1.000000 I0.052154 J0.000000
G02 X23.584134 Y15.875527 Z-1.000000 I-0.135179 J-0.228436
G02 X23.553989 Y15.748213 Z-1.000000 I-0.137820 J-0.034593
G02 X23.475118 Y15.748930 Z-1.000000 I-0.039132 J0.033698
G01 X23.475118 Y15.748925 Z-1.000000
G00 Z5.000000

(End cutting path id: path13559)


(Start cutting path id: path13559)
(Change tool to Default tool)

G00 Z5.000000
G00 X24.102453 Y17.170843

G01 Z-1.000000 F100.0(Penetrate)
G01 X24.090430 Y17.185474 Z-1.000000 F3500.000000
G03 X23.967583 Y17.197493 Z-1.000000 I-0.122847 J-0.621783
G03 X23.862503 Y17.137908 Z-1.000000 I0.000000 J-0.122449
G01 X23.888913 Y17.065991 Z-1.000000
G03 X24.043327 Y17.075932 Z-1.000000 I0.065189 J0.191640
G03 X24.102457 Y17.170844 Z-1.000000 I-0.046607 J0.094912
G01 X24.102453 Y17.170843 Z-1.000000
G00 Z5.000000

(End cutting path id: path13559)


(Start cutting path id: path13559)
(Change tool to Default tool)

G00 Z5.000000
G00 X24.228893 Y17.524381

G01 Z-1.000000 F100.0(Penetrate)
G01 X24.221385 Y17.556200 Z-1.000000 F3500.000000
G01 X24.189553 Y17.563721 Z-1.000000
G03 X24.140928 Y17.533670 Z-1.000000 I0.039365 J-0.118060
G03 X24.110883 Y17.485051 Z-1.000000 I0.087887 J-0.087905
G01 X24.118391 Y17.453232 Z-1.000000
G01 X24.150223 Y17.445711 Z-1.000000
G03 X24.198848 Y17.475762 Z-1.000000 I-0.039365 J0.118060
G03 X24.228893 Y17.524381 Z-1.000000 I-0.087887 J0.087905
G01 X24.228893 Y17.524381 Z-1.000000
G00 Z5.000000

(End cutting path id: path13559)


(Start cutting path id: path13559)
(Change tool to Default tool)

G00 Z5.000000
G00 X23.683598 Y18.299872

G01 Z-1.000000 F100.0(Penetrate)
G01 X23.669608 Y18.302742 Z-1.000000 F3500.000000
G01 X23.656438 Y18.272712 Z-1.000000
G03 X23.666061 Y18.216567 Z-1.000000 I0.135286 J-0.005709
G01 X23.680048 Y18.213712 Z-1.000000
G01 X23.693213 Y18.243737 Z-1.000000
G03 X23.683548 Y18.299882 Z-1.000000 I-0.135566 J0.005567
G01 X23.683598 Y18.299872 Z-1.000000
G00 Z5.000000

(End cutting path id: path13559)


(Start cutting path id: path13559)
(Change tool to Default tool)

G00 Z5.000000
G00 X23.879100 Y19.013397

G01 Z-1.000000 F100.0(Penetrate)
G02 X23.891350 Y19.079038 Z-1.000000 I0.164065 J0.003346 F3500.000000
G02 X23.943670 Y19.170745 Z-1.000000 I0.379439 J-0.155697
G02 X23.991729 Y19.202674 Z-1.000000 I0.069619 J-0.052655
G01 X24.011100 Y19.187935 Z-1.000000
G02 X23.998847 Y19.122285 Z-1.000000 I-0.164074 J-0.003345
G02 X23.946530 Y19.030587 Z-1.000000 I-0.379474 J0.155730
G02 X23.898473 Y18.998664 Z-1.000000 I-0.069599 J0.052641
G01 X23.879100 Y19.013407 Z-1.000000
G01 X23.879100 Y19.013397 Z-1.000000
G00 Z5.000000

(End cutting path id: path13559)


(Start cutting path id: path13559)
(Change tool to Default tool)

G00 Z5.000000
G00 X24.102453 Y18.960493

G01 Z-1.000000 F100.0(Penetrate)
G02 X24.113479 Y18.999305 Z-1.000000 I0.073820 J0.000000 F3500.000000
G02 X24.147413 Y19.033233 Z-1.000000 I0.088816 J-0.054896
G01 X24.178505 Y19.036187 Z-1.000000
G01 X24.192373 Y19.016063 Z-1.000000
G02 X24.181347 Y18.977251 Z-1.000000 I-0.073820 J0.000000
G02 X24.147413 Y18.943323 Z-1.000000 I-0.088816 J0.054896
G01 X24.116321 Y18.940369 Z-1.000000
G01 X24.102453 Y18.960493 Z-1.000000
G01 X24.102453 Y18.960493 Z-1.000000
G00 Z5.000000

(End cutting path id: path13559)


(Start cutting path id: path13559)
(Change tool to Default tool)

G00 Z5.000000
G00 X24.282279 Y19.142967

G01 Z-1.000000 F100.0(Penetrate)
G02 X24.292939 Y19.179331 Z-1.000000 I0.067352 J0.000000 F3500.000000
G02 X24.327239 Y19.213057 Z-1.000000 I0.091337 J-0.058586
G01 X24.355152 Y19.210229 Z-1.000000
G02 X24.372199 Y19.170757 Z-1.000000 I-0.037174 J-0.039472
G02 X24.356310 Y19.116558 Z-1.000000 I-0.100387 J0.000000
G01 X24.327239 Y19.100667 Z-1.000000
G01 X24.295040 Y19.113435 Z-1.000000
G01 X24.282279 Y19.142967 Z-1.000000
G01 X24.282279 Y19.142967 Z-1.000000
G00 Z5.000000

(End cutting path id: path13559)


(Start cutting path id: path13559)
(Change tool to Default tool)

G00 Z5.000000
G00 X24.289562 Y19.465219

G01 Z-1.000000 F100.0(Penetrate)
G02 X24.331994 Y19.544763 Z-1.000000 I0.130286 J-0.018410 F3500.000000
G02 X24.424871 Y19.586585 Z-1.000000 I0.112171 J-0.125066
G02 X24.502659 Y19.563717 Z-1.000000 I0.011930 J-0.103154
G02 X24.520781 Y19.507915 Z-1.000000 I-0.034488 J-0.042044
G02 X24.485941 Y19.429129 Z-1.000000 I-0.260537 J0.068115
G01 X24.460541 Y19.415355 Z-1.000000
G03 X24.425335 Y19.410866 Z-1.000000 I-0.000000 J-0.140303
G03 X24.349438 Y19.386545 Z-1.000000 I0.177163 J-0.683442
G01 X24.306917 Y19.398636 Z-1.000000
G02 X24.289568 Y19.465215 Z-1.000000 I0.071079 J0.054071
G01 X24.289562 Y19.465219 Z-1.000000
G00 Z5.000000

(End cutting path id: path13559)


(Start cutting path id: path13559)
(Change tool to Default tool)

G00 Z5.000000
G00 X24.686888 Y19.387569

G01 Z-1.000000 F100.0(Penetrate)
G02 X24.700327 Y19.447511 Z-1.000000 I0.140401 J-0.000000 F3500.000000
G02 X24.731848 Y19.482789 Z-1.000000 I0.075278 J-0.035541
G01 X24.760000 Y19.480394 Z-1.000000
G01 X24.776808 Y19.443139 Z-1.000000
G02 X24.763369 Y19.383197 Z-1.000000 I-0.140401 J-0.000000
G02 X24.731848 Y19.347919 Z-1.000000 I-0.075278 J0.035541
G01 X24.703696 Y19.350314 Z-1.000000
G01 X24.686888 Y19.387569 Z-1.000000
G01 X24.686888 Y19.387569 Z-1.000000
G00 Z5.000000

(End cutting path id: path13559)


(Start cutting path id: path13559)
(Change tool to Default tool)

G00 Z5.000000
G00 X24.900431 Y19.940793

G01 Z-1.000000 F100.0(Penetrate)
G02 X24.834651 Y19.971307 Z-1.000000 I0.051590 J0.197373 F3500.000000
G01 X24.821761 Y19.996133 Z-1.000000
G02 X24.890115 Y20.156149 Z-1.000000 I0.221474 J-0.000000
G02 X25.060403 Y20.224498 Z-1.000000 I0.170288 J-0.177957
G03 X25.123526 Y20.238169 Z-1.000000 I0.000000 J0.152563
G03 X25.158783 Y20.269208 Z-1.000000 I-0.033392 J0.073473
G02 X25.192708 Y20.307227 Z-1.000000 I0.124545 J-0.076986
G02 X25.277230 Y20.362528 Z-1.000000 I0.355701 J-0.451416
G01 X25.310847 Y20.353682 Z-1.000000
G01 X25.312680 Y20.306578 Z-1.000000
G02 X25.076081 Y19.941112 Z-1.000000 I-2.200831 J1.165478
G02 X25.007493 Y19.915021 Z-1.000000 I-0.055801 J0.043492
G02 X24.979276 Y19.921028 Z-1.000000 I0.101134 J0.544377
G02 X24.900437 Y19.940801 Z-1.000000 I0.954624 J3.973249
