%
(Header)
(Generated by gcodetools from Inkscape.)
(Using default header. To add your own header create file "header" in the output dir.)
M3
(Header end.)
G21 (All units in mm)

(Start cutting path id: path2)
(Change tool to Default tool)

G00 Z5.000000
G00 X13.552848 Y1.185651

G01 Z-1.000000 F100.0(Penetrate)
G02 X13.820143 Y1.257439 Z-1.000000 I0.438507 J-1.099214 F3500.000000
G02 X14.180724 Y1.277451 Z-1.000000 I0.291490 J-1.993652
G03 X14.546588 Y1.278055 Z-1.000000 I0.174523 J5.095148
G03 X15.009310 Y1.308611 Z-1.000000 I-0.306463 J8.159707
G00 Z5.000000

(End cutting path id: path2)


(Start cutting path id: path2)
(Change tool to Default tool)

G00 Z5.000000

G01 Z-1.000000 F100.0(Penetrate)
G02 X12.283571 Y1.451433 Z-1.000000 I0.059096 J0.421724 F3500.000000
G02 X12.244773 Y1.522336 Z-1.000000 I0.045388 J0.070903
G02 X12.318857 Y1.619296 Z-1.000000 I0.100491 J0.000000
G02 X12.898810 Y1.700462 Z-1.000000 I0.608190 J-2.233128
G03 X13.764961 Y1.812862 Z-1.000000 I-0.045646 J3.745215
G03 X13.866786 Y1.943402 Z-1.000000 I-0.032764 J0.130540
G03 X13.579009 Y2.025542 Z-1.000000 I-0.447062 J-1.566373
G02 X12.268895 Y2.196167 Z-1.000000 I4.147830 J36.963354
G02 X12.018512 Y2.257022 Z-1.000000 I0.207683 J1.400020
G02 X12.026912 Y2.358423 Z-1.000000 I0.106707 J-0.008838
G03 X12.097698 Y2.440468 Z-1.000000 I-0.521465 J0.521465
G03 X12.122362 Y2.487072 Z-1.000000 I-0.140216 J0.104033
G02 X12.236762 Y2.556615 Z-1.000000 I0.099396 J-0.034643
G02 X13.369705 Y2.307430 Z-1.000000 I-1.126262 J-7.820778
G03 X14.020343 Y2.223684 Z-1.000000 I0.581604 J1.949249
G03 X14.850677 Y2.357720 Z-1.000000 I-0.113480 J3.341903
G03 X14.861291 Y2.467577 Z-1.000000 I-0.016789 J0.057063
G03 X14.437962 Y2.571938 Z-1.000000 I-0.427638 J-0.823893
G02 X13.768195 Y2.598941 Z-1.000000 I0.042380 J9.370857
G02 X13.657482 Y2.631338 Z-1.000000 I0.021166 J0.277707
G03 X13.552098 Y2.686186 Z-1.000000 I-2.088073 J-3.883344
G03 X13.250436 Y2.836268 Z-1.000000 I-15.965694 J-31.712474
G02 X13.025238 Y2.980311 Z-1.000000 I0.526970 J1.071929
G03 X12.757946 Y3.046048 Z-1.000000 I-0.291434 J-2.488473
G02 X11.755299 Y3.119037 Z-1.000000 I0.061919 J7.773728
G02 X11.709831 Y3.190907 Z-1.000000 I0.007623 J0.055140
G02 X11.745616 Y3.231712 Z-1.000000 I0.064246 J-0.020249
G02 X12.084872 Y3.365745 Z-1.000000 I1.285883 J-2.758372
G02 X12.443223 Y3.440752 Z-1.000000 I0.518867 J-1.585395
G02 X12.683285 Y3.423595 Z-1.000000 I0.069364 J-0.717513
G02 X12.919314 Y3.353033 Z-1.000000 I-0.567690 J-2.328947
G02 X12.988694 Y3.314903 Z-1.000000 I-0.082988 J-0.233190
G03 X13.058835 Y3.280994 Z-1.000000 I0.113457 J0.145187
G03 X13.302103 Y3.239093 Z-1.000000 I0.435104 J1.798998
G02 X13.547723 Y3.199859 Z-1.000000 I-0.236369 J-2.268237
G02 X13.639496 Y3.166133 Z-1.000000 I-0.074455 J-0.344325
G03 X13.731751 Y3.132578 Z-1.000000 I0.163058 J0.304708
G03 X14.336386 Y3.020267 Z-1.000000 I2.778169 J13.272787
G02 X14.928756 Y2.887226 Z-1.000000 I-0.812126 J-5.001298
G02 X15.063576 Y2.810474 Z-1.000000 I-0.091709 J-0.317880
G03 X15.186916 Y2.713040 Z-1.000000 I0.629403 J0.669966
G03 X15.231703 Y2.699602 Z-1.000000 I0.044787 J0.067915
G02 X15.276954 Y2.686070 Z-1.000000 I-0.000000 J-0.082427
G02 X15.478346 Y2.537603 Z-1.000000 I-1.269862 J-1.933361
G03 X15.719200 Y2.481217 Z-1.000000 I0.177415 J0.215235
G03 X15.828886 Y2.619473 Z-1.000000 I-0.032290 J0.138256
G03 X15.792013 Y2.767371 Z-1.000000 I-0.315046 J-0.000000
G03 X15.730646 Y2.804245 Z-1.000000 I-0.061367 J-0.032627
G02 X15.641743 Y2.824122 Z-1.000000 I0.000000 J0.208751
G02 X15.569423 Y2.880135 Z-1.000000 I0.089630 J0.190419
G03 X15.223987 Y3.150703 Z-1.000000 I-0.796356 J-0.660921
G03 X14.689564 Y3.306060 Z-1.000000 I-0.725418 J-1.498533
G02 X14.356420 Y3.387593 Z-1.000000 I0.157704 J1.365755
G02 X13.433406 Y3.786177 Z-1.000000 I4.218306 J11.036495
G03 X12.939977 Y3.994125 Z-1.000000 I-2.269653 J-4.696154
G03 X12.711939 Y4.047487 Z-1.000000 I-0.339805 J-0.938191
G03 X12.470470 Y4.029137 Z-1.000000 I-0.072526 J-0.643566
G03 X11.858940 Y3.817018 Z-1.000000 I1.207570 J-4.468934
G02 X11.744630 Y3.825459 Z-1.000000 I-0.049000 J0.114652
G01 X11.736791 Y3.892128 Z-1.000000
G03 X11.833186 Y3.998671 Z-1.000000 I-1.017154 J1.017154
G03 X11.858878 Y4.041421 Z-1.000000 I-0.134216 J0.109755
G02 X11.888587 Y4.079913 Z-1.000000 I0.087013 J-0.036447
G02 X12.192437 Y4.296496 Z-1.000000 I3.376895 J-4.416113
G02 X12.518703 Y4.462680 Z-1.000000 I0.885045 J-1.334225
G02 X12.741828 Y4.501099 Z-1.000000 I0.213650 J-0.573684
G02 X13.148093 Y4.432893 Z-1.000000 I-0.021328 J-1.371099
G02 X13.713935 Y4.182033 Z-1.000000 I-0.964813 J-2.939824
G03 X14.204335 Y3.951664 Z-1.000000 I1.712626 J3.008616
G03 X14.677779 Y3.818328 Z-1.000000 I1.007250 J2.669283
G02 X15.130020 Y3.681706 Z-1.000000 I-0.420977 J-2.210310
G02 X15.504214 Y3.470323 Z-1.000000 I-0.722681 J-1.716196
G03 X15.860370 Y3.338419 Z-1.000000 I0.411668 J0.564771
G03 X15.976963 Y3.432653 Z-1.000000 I0.008649 J0.108544
G02 X16.132493 Y3.748970 Z-1.000000 I0.546924 J-0.072522
G02 X16.632363 Y4.092349 Z-1.000000 I1.158487 J-1.150923
G03 X16.843991 Y4.194670 Z-1.000000 I-1.346174 J3.054273
G03 X16.875345 Y4.220574 Z-1.000000 I-0.046640 J0.088380
G02 X16.906268 Y4.247676 Z-1.000000 I0.091811 J-0.073561
G02 X17.470491 Y4.580549 Z-1.000000 I15.440241 J-25.526772
G03 X18.036255 Y4.913142 Z-1.000000 I-17.367467 J30.190809
G03 X18.355013 Y5.111804 Z-1.000000 I-5.874129 J9.780224
G02 X18.693651 Y5.258588 Z-1.000000 I0.610661 J-0.944810
G01 X18.743140 Y5.208524 Z-1.000000
G03 X18.946329 Y5.135984 Z-1.000000 I0.120604 J0.337799
G02 X19.153123 Y5.142286 Z-1.000000 I0.129888 J-0.866086
G02 X18.929022 Y5.026644 Z-1.000000 I-0.374756 J1.046840
G03 X18.687359 Y4.970013 Z-1.000000 I0.177641 J-1.301995
G03 X18.344897 Y4.829968 Z-1.000000 I0.931458 J-2.766505
G02 X18.005985 Y4.679396 Z-1.000000 I-2.413426 J4.975518
G02 X17.926313 Y4.660559 Z-1.000000 I-0.101168 J0.249984
G03 X17.846673 Y4.642542 Z-1.000000 I0.023368 J-0.288312
G03 X17.686351 Y4.569019 Z-1.000000 I0.477082 J-1.251875
G03 X17.908724 Y4.426056 Z-1.000000 I0.005471 J0.443359
G02 X18.170011 Y4.511025 Z-1.000000 I1.000720 J-2.633086
G02 X18.132830 Y4.400170 Z-1.000000 I-0.125331 J0.000000
G02 X17.738674 Y4.170384 Z-1.000000 I-1.226666 J1.651180
G02 X17.634011 Y4.124126 Z-1.000000 I-46.273196 J104.555337
G02 X17.450898 Y4.043368 Z-1.000000 I-138.479106 J313.744119
G03 X17.630019 Y4.034950 Z-1.000000 I-0.213105 J1.302446
G03 X17.775318 Y4.093617 Z-1.000000 I-0.284278 J0.913323
G02 X17.847872 Y4.104172 Z-1.000000 I0.052136 J-0.103738
G03 X17.729561 Y3.995645 Z-1.000000 I0.330596 J-0.609963
G03 X17.993213 Y3.931908 Z-1.000000 I0.161224 J0.161224
G03 X18.421379 Y4.325649 Z-1.000000 I-0.487219 J0.959487
G03 X18.350149 Y4.326849 Z-1.000000 I-0.002145 J-0.127670
G02 X18.240000 Y4.280873 Z-1.000000 I-0.293863 J0.549102
G02 X18.173785 Y4.272399 Z-1.000000 I-0.057476 J0.186173
G02 X18.523525 Y4.473800 Z-1.000000 I2.489785 J-4.323545
G02 X18.940581 Y4.659518 Z-1.000000 I4.161404 J-8.783902
G02 X18.962054 Y4.503586 Z-1.000000 I-0.062628 J-0.076807
G02 X18.624211 Y4.375602 Z-1.000000 I-0.354084 J0.424787
G03 X18.574896 Y4.358456 Z-1.000000 I0.002549 J-0.086823
G03 X18.442241 Y4.240161 Z-1.000000 I0.601358 J-0.807886
G02 X18.306201 Y4.119279 Z-1.000000 I-0.736993 J0.692421
G02 X18.035062 Y3.939304 Z-1.000000 I-1.920815 J2.599544
G03 X17.755034 Y3.769900 Z-1.000000 I9.932493 J-16.734774
G03 X17.615318 Y3.680530 Z-1.000000 I2.620548 J-4.250699
G02 X17.077378 Y3.375253 Z-1.000000 I-2.461545 J3.710979
G02 X16.875351 Y3.326119 Z-1.000000 I-0.217359 J0.453820
G03 X16.519046 Y3.190774 Z-1.000000 I0.017565 J-0.582913
G03 X16.564029 Y3.066134 Z-1.000000 I0.045209 J-0.054121
G03 X16.640041 Y3.078914 Z-1.000000 I0.000731 J0.228085
G03 X16.694837 Y3.111874 Z-1.000000 I-0.051799 J0.148145
G02 X16.750291 Y3.147966 Z-1.000000 I0.133052 J-0.143781
G02 X16.953835 Y3.223601 Z-1.000000 I0.835349 J-1.936347
G03 X17.159751 Y3.297656 Z-1.000000 I-0.800908 J2.550299
G03 X17.364409 Y3.390541 Z-1.000000 I-1.061683 J2.611167
G02 X17.562991 Y3.474974 Z-1.000000 I0.758912 J-1.509168
G02 X17.555197 Y3.277267 Z-1.000000 I-0.084324 J-0.084324
G02 X16.851791 Y3.118199 Z-1.000000 I-0.703406 J1.475709
G03 X16.786937 Y3.100083 Z-1.000000 I0.000000 J-0.125141
G03 X16.553283 Y2.937305 Z-1.000000 I1.159499 J-1.913453
G03 X16.144095 Y2.574151 Z-1.000000 I3.172545 J-3.986812
G01 X16.155910 Y2.544529 Z-1.000000
G03 X16.228192 Y2.562340 Z-1.000000 I0.002859 J0.143974
G02 X16.325960 Y2.647289 Z-1.000000 I0.060237 J-0.090371
G02 X16.386737 Y2.629575 Z-1.000000 I-0.000000 J-0.113120
G03 X16.620320 Y2.623449 Z-1.000000 I-0.109925 J0.907167
G02 X16.846897 Y2.673212 Z-1.000000 I0.314599 J-0.891701
G02 X16.793217 Y2.594969 Z-1.000000 I-0.063603 J0.099859
G03 X16.592907 Y2.536972 Z-1.000000 I-0.000000 J-0.374914
G03 X16.183557 Y2.209635 Z-1.000000 I1.265488 J-2.002176
G02 X16.104770 Y2.149419 Z-1.000000 I-0.264754 J0.264754
G02 X15.991339 Y2.099639 Z-1.000000 I-0.290148 J0.507023
G02 X15.922653 Y2.113173 Z-1.000000 I-0.022011 J0.069353
G02 X15.905739 Y2.171219 Z-1.000000 I0.034811 J0.041630
G03 X15.901736 Y2.252595 Z-1.000000 I-0.111263 J0.035314
G03 X15.795796 Y2.261812 Z-1.000000 I0.000000 J-0.112158
G03 X15.640322 Y2.171061 Z-1.000000 I-0.031183 J-0.050447
G03 X15.567573 Y1.772725 Z-1.000000 I1.083241 J-0.403645
G02 X15.508841 Y1.688271 Z-1.000000 I-0.090685 J0.000416
G02 X14.964163 Y1.545548 Z-1.000000 I-0.957331 J2.542793
G02 X14.283772 Y1.492309 Z-1.000000 I-0.697407 J4.538526
G02 X14.233045 Y1.542848 Z-1.000000 I-0.000187 J0.050539
G02 X14.252031 Y1.604261 Z-1.000000 I0.108814 J-0.000000
G02 X14.311525 Y1.657652 Z-1.000000 I0.138968 J-0.095008
G02 X14.620012 Y1.784925 Z-1.000000 I0.786964 J-1.469967
G02 X15.423389 Y1.990712 Z-1.000000 I2.953690 J-9.859922
G03 X15.538114 Y2.045046 Z-1.000000 I-0.057689 J0.270098
G03 X15.567277 Y2.105679 Z-1.000000 I-0.048451 J0.060633
G03 X15.453350 Y2.195155 Z-1.000000 I-0.092100 J-0.000000
G03 X13.971426 Y1.716382 Z-1.000000 I2.522501 J-10.340638
G02 X13.204793 Y1.438884 Z-1.000000 I-3.993778 J9.835724
G02 X12.924966 Y1.382455 Z-1.000000 I-0.395604 J1.239744
G02 X12.663689 Y1.372469 Z-1.000000 I-0.228716 J2.561049
G02 X12.454059 Y1.388455 Z-1.000000 I0.020995 J1.657742
G01 X12.454065 Y1.388362 Z-1.000000
G00 Z5.000000

(End cutting path id: path2)


(Start cutting path id: path2)
(Change tool to Default tool)

G00 Z5.000000
G00 X12.955058 Y4.126713

G01 Z-1.000000 F100.0(Penetrate)
G03 X12.854336 Y4.109703 Z-1.000000 I0.012320 J-0.072971
G03 X12.944832 Y4.097902 Z-1.000000 I-0.039347 J0.118042
G00 Z5.000000

(End cutting path id: path2)


(Start cutting path id: path2)
(Change tool to Default tool)

G00 Z5.000000
G00 X10.810251 Y3.922232

G01 Z-1.000000 F100.0(Penetrate)
G02 X11.193105 Y4.078137 Z-1.000000 I0.415083 J-0.471279 F3500.000000
G02 X11.329120 Y3.948932 Z-1.000000 I0.006639 J-0.129205
G02 X11.058785 Y3.903032 Z-1.000000 I-0.249323 J1.468178
G02 X10.813527 Y3.912462 Z-1.000000 I0.000000 J3.194203
G00 Z5.000000

(End cutting path id: path2)


(Start cutting path id: path2)
(Change tool to Default tool)

G00 Z5.000000
G00 X8.729000 Y3.847797

G01 Z-1.000000 F100.0(Penetrate)
G03 X8.521683 Y3.922197 Z-1.000000 I-0.337915 J-0.941609
G03 X8.284924 Y3.918457 Z-1.000000 I-0.106172 J-0.774733
G03 X8.179936 Y3.864307 Z-1.000000 I0.032495 J-0.191854
G03 X8.387253 Y3.789907 Z-1.000000 I0.167748 J0.467469
G03 X8.680005 Y3.823242 Z-1.000000 I-0.158745 J2.696304
G03 X8.729000 Y3.847797 Z-1.000000 I-0.015670 J0.092422
G00 Z5.000000

(End cutting path id: path2)


(Start cutting path id: path2)
(Change tool to Default tool)

G00 Z5.000000
G00 X6.602488 Y3.470535

G01 Z-1.000000 F100.0(Penetrate)
G02 X6.855504 Y3.589094 Z-1.000000 I0.539797 J-1.152005
G03 X6.988876 Y3.684450 Z-1.000000 I-0.050889 J0.212126
G02 X6.512059 Y3.847364 Z-1.000000 I0.000000 J1.018942
G02 X6.410759 Y4.008741 Z-1.000000 I0.077892 J0.161377
G03 X6.332274 Y4.060001 Z-1.000000 I-0.060485 J-0.092602
G02 X6.253789 Y4.449017 Z-1.000000 I1.753120 J0.353692
G02 X6.274478 Y4.834120 Z-1.000000 I3.594510 J-0.000000
G02 X6.311580 Y4.985328 Z-1.000000 I0.582464 J-0.062764
G03 X6.351882 Y5.136445 Z-1.000000 I-0.644006 J0.252681
G03 X6.391685 Y5.525045 Z-1.000000 I-4.269139 J0.633621
G02 X6.423884 Y5.916320 Z-1.000000 I7.746021 J-0.440467
G02 X6.465611 Y6.210645 Z-1.000000 I4.421988 J-0.476800
G03 X6.558762 Y7.523976 Z-1.000000 I-6.278438 J1.105280
G03 X6.361577 Y9.396946 Z-1.000000 I-13.037488 J-0.425713
G02 X6.259968 Y10.090684 Z-1.000000 I10.880999 J1.947997
G02 X6.245053 Y10.417244 Z-1.000000 I2.387557 J0.272669
G02 X6.275937 Y10.836626 Z-1.000000 I4.116942 J-0.092352
G02 X6.382663 Y11.516027 Z-1.000000 I10.929102 J-1.368749
G03 X6.447687 Y11.882807 Z-1.000000 I-15.799916 J2.990191
G03 X6.456207 Y11.960773 Z-1.000000 I-0.703519 J0.116333
G02 X6.514768 Y12.382245 Z-1.000000 I2.525289 J-0.136067
G02 X6.627692 Y12.719456 Z-1.000000 I1.722626 J-0.389354
G03 X6.665624 Y12.826770 Z-1.000000 I-0.616710 J0.278344
G03 X6.696039 Y12.981071 Z-1.000000 I-1.249586 J0.326464
G02 X6.721470 Y13.137283 Z-1.000000 I2.833801 J-0.381166
G02 X6.798395 Y13.515983 Z-1.000000 I16.737674 J-3.202733
G03 X6.861417 Y13.896366 Z-1.000000 I-3.965233 J0.852376
G03 X6.911815 Y14.483959 Z-1.000000 I-9.424997 J1.104331
G02 X6.972726 Y15.069042 Z-1.000000 I5.965062 J-0.325299
G02 X7.067337 Y15.492574 Z-1.000000 I3.213298 J-0.495470
G03 X7.379488 Y16.582657 Z-1.000000 I-70.881809 J20.887094
G03 X7.460174 Y16.905295 Z-1.000000 I-6.124384 J1.703017
G03 X7.617409 Y18.127590 Z-1.000000 I-6.621800 J1.473083
G03 X7.509533 Y18.239531 Z-1.000000 I-0.107876 J0.003991
G01 X7.486899 Y18.252470 Z-1.000000
G02 X7.471025 Y18.304931 Z-1.000000 I0.100039 J0.058903
G03 X7.463586 Y18.369804 Z-1.000000 I-0.556343 J-0.030934
G03 X7.432129 Y18.527751 Z-1.000000 I-3.335004 J-0.582097
G02 X7.435113 Y18.675521 Z-1.000000 I0.302686 J0.067802
G02 X7.508472 Y18.813849 Z-1.000000 I0.336302 J-0.089733
G02 X7.615730 Y18.884856 Z-1.000000 I0.181137 J-0.157100
G03 X7.704987 Y18.833088 Z-1.000000 I0.076036 J0.048093
G02 X7.851878 Y19.050234 Z-1.000000 I0.239036 J-0.005533
G02 X7.980447 Y18.970221 Z-1.000000 I0.039387 J-0.080013
G02 X7.968698 Y18.932462 Z-1.000000 I-0.066550 J0.000000
G02 X7.927270 Y18.893041 Z-1.000000 I-0.114612 J0.078968
G03 X7.898179 Y18.854495 Z-1.000000 I0.035018 J-0.056679
G03 X7.904197 Y18.811471 Z-1.000000 I0.051887 J-0.014676
G02 X7.846321 Y18.762761 Z-1.000000 I-0.053182 J0.063191
G03 X7.823229 Y18.684581 Z-1.000000 I0.054935 J-0.016226
G02 X7.864336 Y18.559454 Z-1.000000 I-0.138253 J-0.114735
G02 X7.799942 Y18.282672 Z-1.000000 I-0.834986 J0.048380
G03 X7.803494 Y18.207352 Z-1.000000 I0.080462 J-0.033949
G03 X7.892906 Y18.109850 Z-1.000000 I0.236731 J0.127341
G03 X8.026906 Y18.068414 Z-1.000000 I0.139010 J0.212156
G03 X8.211683 Y18.103550 Z-1.000000 I0.009009 J0.456049
G03 X8.382736 Y18.199695 Z-1.000000 I-0.325949 J0.780135
G03 X8.431526 Y18.263290 Z-1.000000 I-0.082940 J0.114145
G02 X8.499206 Y18.294228 Z-1.000000 I0.049614 J-0.019039
G02 X8.533557 Y18.226410 Z-1.000000 I-0.018854 J-0.052159
G03 X8.479026 Y17.923274 Z-1.000000 I1.367433 J-0.402457
G02 X8.525159 Y17.545749 Z-1.000000 I-1.703719 J-0.000000
G02 X8.344959 Y16.774446 Z-1.000000 I-9.986725 J1.926501
G03 X8.311090 Y16.588607 Z-1.000000 I1.033945 J-0.284442
G03 X8.241080 Y15.649501 Z-1.000000 I26.539832 J-2.450705
G02 X8.159638 Y14.712234 Z-1.000000 I-15.693065 J0.891436
G02 X8.087855 Y14.341427 Z-1.000000 I-2.516067 J0.294725
G03 X8.000264 Y13.972484 Z-1.000000 I5.588557 J-1.521648
G03 X7.854090 Y13.190321 Z-1.000000 I24.994252 J-5.075799
G02 X7.714977 Y12.406429 Z-1.000000 I-60.535399 J10.338551
G02 X7.618042 Y11.908552 Z-1.000000 I-24.517776 J4.515138
G03 X7.545688 Y11.408178 Z-1.000000 I4.209515 J-0.864116
G03 X7.484697 Y10.338862 Z-1.000000 I19.217142 J-1.632487
G02 X7.449088 Y9.266269 Z-1.000000 I-134.667224 J3.933969
G02 X7.422427 Y8.664382 Z-1.000000 I-42.421596 J1.577537
G03 X7.396482 Y8.062621 Z-1.000000 I36.366873 J-1.869425
G03 X7.396343 Y7.915538 Z-1.000000 I2.169989 J-0.075587
G02 X7.387292 Y7.769648 Z-1.000000 I-0.770516 J-0.025424
G02 X7.292879 Y7.261501 Z-1.000000 I-9.524973 J1.506889
G03 X7.058936 Y5.942854 Z-1.000000 I18.756086 J-4.007622
G03 X7.013652 Y5.289549 Z-1.000000 I4.540724 J-0.642964
G03 X7.201396 Y4.573975 Z-1.000000 I1.470204 J0.003319
G03 X7.647901 Y4.158090 Z-1.000000 I0.872460 J0.489064
G03 X8.102671 Y3.987712 Z-1.000000 I1.270742 J2.699717
G03 X8.199149 Y4.001369 Z-1.000000 I0.032849 J0.115544
G02 X8.394470 Y4.056315 Z-1.000000 I0.191766 J-0.307051
G02 X8.451354 Y3.998869 Z-1.000000 I-0.000564 J-0.057446
G03 X8.463121 Y3.966233 Z-1.000000 I0.051145 J-0.000000
G01 X8.479018 Y3.965489 Z-1.000000
G02 X8.806037 Y3.922699 Z-1.000000 I-0.382282 J-2.926942
G03 X9.107265 Y3.869927 Z-1.000000 I0.607241 J2.580114
G03 X9.367007 Y3.857499 Z-1.000000 I0.221257 J1.903660
G03 X9.523635 Y3.874626 Z-1.000000 I-0.017908 J0.888517
G02 X9.023029 Y4.151172 Z-1.000000 I0.292580 J1.168552
G02 X8.551830 Y4.740100 Z-1.000000 I1.411950 J1.612664
G02 X8.450512 Y5.141360 Z-1.000000 I0.733067 J0.398520
G02 X8.554150 Y5.446460 Z-1.000000 I0.505802 J-0.001661
G03 X8.584391 Y5.502477 Z-1.000000 I-0.162314 J0.123800
G03 X8.600195 Y5.577268 Z-1.000000 I-0.277612 J0.097725
G02 X8.650644 Y6.003093 Z-1.000000 I5.353389 J-0.418330
G02 X8.740037 Y6.455818 Z-1.000000 I6.145428 J-0.978268
G01 X8.796761 Y6.469882 Z-1.000000
G02 X8.832401 Y6.350108 Z-1.000000 I-0.113139 J-0.098855
G03 X8.812601 Y6.178838 Z-1.000000 I3.471147 J-0.488070
G03 X8.812124 Y6.126659 Z-1.000000 I0.319719 J-0.029014
G03 X8.857245 Y5.609434 Z-1.000000 I17.484775 J1.264718
G03 X8.885172 Y5.411745 Z-1.000000 I2.578975 J0.263513
G03 X9.000914 Y5.065579 Z-1.000000 I1.253104 J0.226548
G03 X9.146457 Y4.892855 Z-1.000000 I0.435529 J0.219309
G02 X9.181059 Y4.856813 Z-1.000000 I-0.088439 J-0.119538
G02 X9.277265 Y4.700091 Z-1.000000 I-1.666364 J-1.130799
G03 X9.543200 Y4.387704 Z-1.000000 I0.902006 J0.498489
G03 X10.034125 Y4.106390 Z-1.000000 I1.209913 J1.542421
G02 X10.119408 Y4.011891 Z-1.000000 I-0.052464 J-0.133079
G01 X10.076455 Y3.955255 Z-1.000000
G03 X9.983698 Y3.939473 Z-1.000000 I0.000000 J-0.280483
G03 X9.946823 Y3.909825 Z-1.000000 I0.023452 J-0.066924
G02 X9.882569 Y3.868051 Z-1.000000 I-0.076404 J0.047217
G02 X8.739132 Y3.744932 Z-1.000000 I-2.736397 J20.042327
G03 X8.062468 Y3.669836 Z-1.000000 I0.845603 J-10.705523
G03 X7.666510 Y3.591341 Z-1.000000 I0.535320 J-3.738295
G02 X6.713130 Y3.416706 Z-1.000000 I-1.758496 J6.910422
G02 X6.602487 Y3.470431 Z-1.000000 I-0.012965 J0.114093
G01 X6.602488 Y3.470535 Z-1.000000
G00 Z5.000000

(End cutting path id: path2)


(Start cutting path id: path2)
(Change tool to Default tool)

G00 Z5.000000

G01 Z-1.000000 F100.0(Penetrate)
G02 X5.995384 Y3.583717 Z-1.000000 I0.058857 J-0.147127 F3500.000000
G02 X6.030327 Y3.568414 Z-1.000000 I-0.002148 J-0.052452
G02 X5.961653 Y3.540934 Z-1.000000 I-0.058820 J0.147022
G02 X5.926699 Y3.556260 Z-1.000000 I0.002150 J0.052427
G00 Z5.000000

(End cutting path id: path2)


(Start cutting path id: path2)
(Change tool to Default tool)

G00 Z5.000000
G00 X2.098910 Y3.280717

G01 Z-1.000000 F100.0(Penetrate)
G02 X2.026312 Y3.319804 Z-1.000000 I0.010477 J0.106422 F3500.000000
G03 X2.473675 Y3.332485 Z-1.000000 I0.460443 J5.875545
G03 X2.442723 Y3.371722 Z-1.000000 I-0.061582 J-0.056989
G03 X2.297461 Y3.402187 Z-1.000000 I-0.263107 J-0.892996
G02 X1.658593 Y3.532826 Z-1.000000 I0.552484 J4.329306
G02 X1.503566 Y3.627458 Z-1.000000 I0.092412 J0.325688
G02 X1.323216 Y3.986405 Z-1.000000 I0.521120 J0.486614
G02 X1.224865 Y5.158784 Z-1.000000 I6.016880 J1.095073
G03 X1.118223 Y6.319685 Z-1.000000 I-5.601282 J0.070809
G03 X0.914647 Y6.722448 Z-1.000000 I-0.823395 J-0.163355
G02 X0.824602 Y6.877160 Z-1.000000 I0.312546 J0.285466
G02 X0.843366 Y6.941920 Z-1.000000 I0.057115 J0.018550
G03 X0.927106 Y7.152742 Z-1.000000 I-0.151096 J0.182059
G03 X0.520243 Y9.580076 Z-1.000000 I-27.644141 J-3.385875
G02 X0.383263 Y10.475611 Z-1.000000 I7.578089 J1.617378
G02 X0.348901 Y11.411381 Z-1.000000 I8.242406 J0.771182
G03 X0.327969 Y12.610641 Z-1.000000 I-16.063777 J0.319436
G03 X0.229291 Y13.592372 Z-1.000000 I-10.856097 J-0.595371
G02 X-0.058904 Y17.442907 Z-1.000000 I26.979311 J3.955332
G02 X0.213441 Y17.716302 Z-1.000000 I0.272346 J0.001047
G02 X0.288049 Y17.695713 Z-1.000000 I0.000000 J-0.145472
G02 X0.621973 Y17.472239 Z-1.000000 I-2.010908 J-3.365996
G02 X1.076997 Y17.047840 Z-1.000000 I-1.701824 J-2.280760
G02 X1.317181 Y16.664498 Z-1.000000 I-1.140024 J-0.981198
G03 X1.388218 Y16.534777 Z-1.000000 I0.736783 J0.319164
G03 X1.434907 Y16.489905 Z-1.000000 I0.127584 J0.086024
G02 X1.474293 Y16.444282 Z-1.000000 I-0.052735 J-0.085336
G02 X1.492397 Y16.356553 Z-1.000000 I-0.203499 J-0.087729
G03 X1.509581 Y16.265574 Z-1.000000 I0.249436 J-0.000000
G03 X1.557801 Y16.189591 Z-1.000000 I0.219405 J0.085947
G02 X1.700238 Y15.955553 Z-1.000000 I-0.475369 J-0.449674
G02 X1.906009 Y15.191961 Z-1.000000 I-5.147532 J-1.796672
G03 X2.020175 Y14.651199 Z-1.000000 I15.570716 J3.004862
G03 X2.060763 Y14.517342 Z-1.000000 I0.989910 J0.227079
G02 X2.097144 Y14.383082 Z-1.000000 I-0.659803 J-0.250847
G02 X2.136237 Y14.066660 Z-1.000000 I-3.657312 J-0.612479
G03 X2.174578 Y13.751374 Z-1.000000 I3.853025 J0.308581
G03 X2.198076 Y13.688535 Z-1.000000 I0.170216 J0.027838
G02 X2.221367 Y13.625517 Z-1.000000 I-0.144125 J-0.089079
G02 X2.278071 Y13.174667 Z-1.000000 I-7.659419 J-1.192333
G02 X2.286758 Y12.721487 Z-1.000000 I-2.946757 J-0.283156
G02 X2.226297 Y12.274711 Z-1.000000 I-2.924008 J0.168216
G03 X2.087831 Y11.302391 Z-1.000000 I6.855128 J-1.472242
G03 X2.039265 Y9.658249 Z-1.000000 I19.616409 J-1.402238
G03 X2.072389 Y8.151776 Z-1.000000 I77.799497 J0.957037
G03 X2.088704 Y8.097623 Z-1.000000 I0.109550 J0.003470
G02 X2.105288 Y8.043506 Z-1.000000 I-0.095005 J-0.058712
G02 X2.141083 Y6.825614 Z-1.000000 I-51.705422 J-2.129171
G03 X2.178948 Y5.606835 Z-1.000000 I45.331543 J0.798389
G03 X2.199617 Y5.511298 Z-1.000000 I0.291047 J0.012962
G02 X2.212047 Y5.422850 Z-1.000000 I-0.172967 J-0.069405
G02 X2.183494 Y5.354329 Z-1.000000 I-0.128061 J0.013154
G03 X2.147381 Y5.282285 Z-1.000000 I0.141120 J-0.115812
G03 X2.093041 Y4.988043 Z-1.000000 I2.442991 J-0.603300
G02 X2.038528 Y4.697519 Z-1.000000 I-2.354150 J0.291352
G02 X2.009514 Y4.657936 Z-1.000000 I-0.063391 J0.016040
G03 X1.982784 Y4.618516 Z-1.000000 I0.030622 J-0.049537
G03 X1.963306 Y4.395973 Z-1.000000 I1.261596 J-0.222543
G03 X2.176292 Y3.808399 Z-1.000000 I0.916976 J0.000000
G03 X2.704505 Y3.507920 Z-1.000000 I0.665584 J0.555520
G02 X2.878344 Y3.476663 Z-1.000000 I-0.746150 J-4.648855
G02 X3.258401 Y3.397564 Z-1.000000 I-4.443532 J-22.302931
G03 X3.639654 Y3.345256 Z-1.000000 I0.527860 J2.431793
G03 X4.030476 Y3.351994 Z-1.000000 I0.151276 J2.563203
G03 X4.194277 Y3.426535 Z-1.000000 I-0.025641 J0.273588
G01 X4.170865 Y3.485609 Z-1.000000
G02 X3.865763 Y3.614459 Z-1.000000 I0.002603 J0.431812
G02 X3.655689 Y4.008852 Z-1.000000 I0.560137 J0.551502
G02 X3.624201 Y4.329815 Z-1.000000 I1.530320 J0.312158
G02 X3.658299 Y4.471923 Z-1.000000 I0.320711 J-0.001808
G03 X3.714834 Y4.613902 Z-1.000000 I-0.791310 J0.397340
G03 X3.818498 Y5.003813 Z-1.000000 I-5.909203 J1.779781
G03 X3.873607 Y5.553397 Z-1.000000 I-2.120780 J0.490214
G03 X3.779292 Y6.440695 Z-1.000000 I-5.678599 J-0.154943
G02 X3.531440 Y8.347597 Z-1.000000 I17.111332 J3.193618
G02 X3.465146 Y10.678857 Z-1.000000 I25.534597 J1.892703
G02 X3.488871 Y10.990927 Z-1.000000 I2.665310 J-0.045691
G02 X3.603333 Y11.699156 Z-1.000000 I13.877438 J-1.879479
G03 X3.875113 Y13.275295 Z-1.000000 I-52.066716 J9.789557
G03 X3.899255 Y13.584864 Z-1.000000 I-1.972669 J0.309569
G03 X3.877737 Y13.664250 Z-1.000000 I-0.157196 J0.000000
G03 X3.774533 Y13.798021 Z-1.000000 I-0.572440 J-0.334939
G02 X3.582527 Y14.085256 Z-1.000000 I0.628893 J0.628184
G02 X3.448887 Y14.582078 Z-1.000000 I1.820245 J0.756013
G03 X3.378829 Y14.826512 Z-1.000000 I-0.859038 J-0.113956
G03 X3.243054 Y15.035211 Z-1.000000 I-0.756447 J-0.343612
G02 X3.057204 Y15.378785 Z-1.000000 I0.636392 J0.566297
G02 X2.885314 Y16.355904 Z-1.000000 I5.304256 J1.436781
G03 X2.743754 Y16.801776 Z-1.000000 I-1.050770 J-0.088200
G03 X2.265403 Y17.411248 Z-1.000000 I-2.493953 J-1.464954
G03 X1.259325 Y18.259484 Z-1.000000 I-6.505967 J-6.695845
G03 X0.559342 Y18.655024 Z-1.000000 I-2.053065 J-2.816146
G01 X0.131999 Y18.835063 Z-1.000000
G02 X0.477449 Y20.076932 Z-1.000000 I-0.370612 J-1.642934
G02 X0.571340 Y20.035142 Z-1.000000 I-0.181160 J-0.533386
G02 X0.606794 Y19.979456 Z-1.000000 I-0.034025 J-0.060792
G02 X0.580051 Y19.916614 Z-1.000000 I-0.074363 J-0.005465
G03 X0.500900 Y19.741757 Z-1.000000 I0.140034 J-0.168731
G03 X0.589826 Y19.566871 Z-1.000000 I0.229020 J0.006401
G03 X1.078900 Y19.279043 Z-1.000000 I1.380773 J1.786766
G03 X1.727851 Y19.077727 Z-1.000000 I1.278313 J2.974075
G02 X2.028993 Y18.984792 Z-1.000000 I-0.296079 J-1.493772
G02 X2.329566 Y18.821195 Z-1.000000 I-0.704110 J-1.651556
G03 X2.621749 Y18.634881 Z-1.000000 I3.695403 J5.472983
G03 X2.748150 Y18.569479 Z-1.000000 I0.574045 J0.954593
G02 X3.228287 Y18.254560 Z-1.000000 I-0.694378 J-1.582153
G02 X3.323703 Y18.036031 Z-1.000000 I-0.202540 J-0.218529
G03 X3.343787 Y17.953230 Z-1.000000 I0.180722 J0.000000
G03 X3.428349 Y17.833004 Z-1.000000 I0.478178 J0.246476
G02 X3.518573 Y17.715002 Z-1.000000 I-0.559796 J-0.521513
G02 X3.532995 Y17.664425 Z-1.000000 I-0.081475 J-0.050577
G03 X3.629295 Y17.439161 Z-1.000000 I0.311617 J0.000000
G03 X3.996181 Y17.221686 Z-1.000000 I0.652610 J0.682759
G02 X4.084017 Y17.168073 Z-1.000000 I-0.065265 J-0.205683
G02 X4.108548 Y17.108566 Z-1.000000 I-0.059910 J-0.059507
G03 X4.129504 Y17.040262 Z-1.000000 I0.121791 J-0.000000
G03 X4.249514 Y16.900466 Z-1.000000 I0.670505 J0.454195
G02 X4.342299 Y16.747399 Z-1.000000 I-0.221332 J-0.238822
G02 X4.412836 Y16.302222 Z-1.000000 I-1.991850 J-0.543781
G02 X4.408140 Y15.836384 Z-1.000000 I-4.023688 J-0.192377
G02 X4.348028 Y15.349662 Z-1.000000 I-4.454912 J0.303122
G03 X4.252364 Y14.592350 Z-1.000000 I7.202251 J-1.294498
G03 X4.280631 Y14.434043 Z-1.000000 I0.323896 J-0.023841
G03 X4.436603 Y14.311793 Z-1.000000 I0.195643 J0.088987
G03 X4.724329 Y14.350713 Z-1.000000 I0.085159 J0.453439
G03 X4.960109 Y14.612427 Z-1.000000 I-0.206970 J0.423527
G03 X5.304364 Y15.937797 Z-1.000000 I-6.690565 J2.445217
G03 X5.395882 Y17.552505 Z-1.000000 I-7.901255 J1.257771
G03 X5.218571 Y17.858936 Z-1.000000 I-0.383005 J-0.017104
G02 X4.991656 Y18.152926 Z-1.000000 I0.292822 J0.460580
G02 X5.042074 Y18.409583 Z-1.000000 I0.257812 J0.082636
G03 X5.050981 Y18.469473 Z-1.000000 I-0.044337 J0.037202
G03 X5.003061 Y18.501143 Z-1.000000 I-0.047921 J-0.020419
G03 X4.929122 Y18.477778 Z-1.000000 I0.000000 J-0.128671
G01 X4.922274 Y18.444423 Z-1.000000
G02 X4.837895 Y18.405183 Z-1.000000 I-0.056526 J0.121548
G02 X4.735501 Y18.442939 Z-1.000000 I0.038182 J0.261269
G02 X4.694492 Y18.495353 Z-1.000000 I0.052318 J0.083185
G03 X4.752774 Y18.601243 Z-1.000000 I-0.085108 J0.035721
G02 X4.798878 Y18.733284 Z-1.000000 I0.121292 J0.031719
G02 X5.074326 Y18.842237 Z-1.000000 I0.337276 J-0.450020
G03 X5.223545 Y18.885412 Z-1.000000 I-0.050044 J0.452404
G02 X5.414597 Y18.972057 Z-1.000000 I0.170221 J-0.589298
G02 X5.408265 Y18.569651 Z-1.000000 I-1.790314 J0.913352
G02 X5.365047 Y18.527774 Z-1.000000 I-0.117011 J0.077519
G03 X5.331665 Y18.483996 Z-1.000000 I0.040463 J-0.065470
G03 X5.311976 Y18.347111 Z-1.000000 I0.465986 J-0.136885
G03 X5.439751 Y18.126645 Z-1.000000 I0.254086 J-0.000000
G03 X5.828812 Y18.051002 Z-1.000000 I0.305585 J0.533378
G03 X6.178982 Y18.277879 Z-1.000000 I-0.066703 J0.486622
G03 X6.231700 Y18.697613 Z-1.000000 I-0.428513 J0.266997
G02 X6.241522 Y18.780615 Z-1.000000 I0.096577 J0.030653
G02 X6.302587 Y18.815088 Z-1.000000 I0.061065 J-0.036847
G03 X6.392730 Y18.833115 Z-1.000000 I0.000000 J0.234387
G02 X6.541566 Y18.880218 Z-1.000000 I0.049944 J-0.325831
G03 X6.648974 Y18.883508 Z-1.000000 I0.046332 J0.242319
G02 X6.777020 Y18.972058 Z-1.000000 I0.083038 J-0.148740
G02 X6.834897 Y18.918054 Z-1.000000 I0.000000 J-0.058017
G02 X6.791580 Y18.762081 Z-1.000000 I-0.242034 J-0.016783
G03 X6.721721 Y18.626303 Z-1.000000 I0.461857 J-0.323489
G03 X6.690496 Y18.475743 Z-1.000000 I0.539121 J-0.190325
G03 X6.680498 Y18.317955 Z-1.000000 I12.420281 J-0.866198
G03 X6.647213 Y17.716307 Z-1.000000 I180.953119 J-10.312641
G02 X6.472751 Y16.556791 Z-1.000000 I-6.124474 J0.328612
G02 X6.032159 Y15.257126 Z-1.000000 I-8.149816 J2.038310
G03 X5.705801 Y14.378808 Z-1.000000 I8.138238 J-3.523731
G03 X5.435299 Y13.347337 Z-1.000000 I10.963171 J-3.426285
G02 X5.355869 Y12.981374 Z-1.000000 I-49.606553 J10.575166
G02 X5.279255 Y12.640976 Z-1.000000 I-42.998351 J9.498846
G03 X5.026325 Y11.115171 Z-1.000000 I12.350528 J-2.831197
G03 X4.918871 Y9.161498 Z-1.000000 I20.171341 J-2.089230
G02 X4.895812 Y7.644963 Z-1.000000 I-89.028473 J0.595264
G02 X4.876660 Y7.382516 Z-1.000000 I-2.678804 J0.063559
G03 X4.847705 Y7.120583 Z-1.000000 I11.013885 J-1.350098
G03 X4.814788 Y6.754640 Z-1.000000 I21.472122 J-2.115871
G02 X4.667117 Y5.287766 Z-1.000000 I-38.393063 J3.124192
G02 X4.610657 Y5.054143 Z-1.000000 I-1.016477 J0.122020
G03 X4.562750 Y4.867214 Z-1.000000 I0.872389 J-0.323181
G03 X4.535815 Y4.548634 Z-1.000000 I2.526251 J-0.374019
G03 X4.578081 Y4.243148 Z-1.000000 I0.972537 J-0.021108
G03 X4.698022 Y4.018024 Z-1.000000 I0.636390 J0.194540
G03 X4.886935 Y3.838400 Z-1.000000 I0.791063 J0.642817
G03 X5.076522 Y3.740907 Z-1.000000 I0.402715 J0.550045
G02 X5.284451 Y3.668275 Z-1.000000 I-1.905714 J-5.789597
G02 X5.566508 Y3.559747 Z-1.000000 I-3.974480 J-10.750146
G02 X5.733358 Y3.454251 Z-1.000000 I-0.201086 J-0.502726
G01 X5.723477 Y3.414354 Z-1.000000
G02 X5.598637 Y3.389546 Z-1.000000 I-0.252071 J0.941967
G02 X5.466328 Y3.380524 Z-1.000000 I-0.137926 J1.048038
G03 X5.339027 Y3.364253 Z-1.000000 I0.002829 J-0.528247
G03 X5.283198 Y3.333984 Z-1.000000 I0.031878 J-0.125420
G02 X4.868364 Y3.167929 Z-1.000000 I-0.425325 J0.461343
G02 X2.098910 Y3.280724 Z-1.000000 I-0.403715 J24.143070
G01 X2.098910 Y3.280717 Z-1.000000
G00 Z5.000000

(End cutting path id: path2)


(Start cutting path id: path2)
(Change tool to Default tool)

G00 Z5.000000

G01 Z-1.000000 F100.0(Penetrate)
G02 X1.255611 Y3.461261 Z-1.000000 I0.005836 J-1.534777
G02 X1.413913 Y3.432120 Z-1.000000 I-0.137524 J-1.191610
G02 X1.257861 Y3.402198 Z-1.000000 I0.006283 J1.416372
G02 X1.073813 Y3.432118 Z-1.000000 I0.230902 J2.001353
G00 Z5.000000

(End cutting path id: path2)


(Start cutting path id: path2)
(Change tool to Default tool)

G00 Z5.000000

G01 Z-1.000000 F100.0(Penetrate)
G02 X0.149080 Y3.662286 Z-1.000000 I0.051242 J0.196092 F3500.000000
G02 X0.312050 Y3.665912 Z-1.000000 I-0.057740 J-0.328363
G02 X0.223565 Y3.625162 Z-1.000000 I-0.052902 J0.114874
G00 Z5.000000

(End cutting path id: path2)


(Start cutting path id: path2)
(Change tool to Default tool)

G00 Z5.000000
G00 X8.899377 Y7.336160

G01 Z-1.000000 F100.0(Penetrate)
G02 X8.933977 Y7.590832 Z-1.000000 I6.198927 J-0.712504 F3500.000000
G02 X8.955906 Y7.696449 Z-1.000000 I1.085851 J-0.170369
G03 X9.030428 Y8.249464 Z-1.000000 I-2.258648 J0.585896
G03 X8.977290 Y9.213816 Z-1.000000 I-6.989472 J0.098501
G03 X8.924462 Y9.632326 Z-1.000000 I-151.843580 J-18.954314
G03 X8.850410 Y10.207952 Z-1.000000 I-287.310404 J-36.668987
G02 X8.798148 Y10.784658 Z-1.000000 I7.446014 J0.965488
G02 X8.790726 Y11.359058 Z-1.000000 I7.378976 J0.382597
G02 X8.833862 Y11.957786 Z-1.000000 I6.530455 J-0.169576
G02 X8.976627 Y12.928748 Z-1.000000 I17.340211 J-2.053632
G03 X9.115595 Y13.723227 Z-1.000000 I-427.702433 J75.222106
G03 X9.185976 Y14.132177 Z-1.000000 I-113.227587 J19.697161
G03 X9.290872 Y15.196930 Z-1.000000 I-7.494347 J1.275859
G03 X9.241263 Y16.122379 Z-1.000000 I-5.701983 J0.158401
G02 X9.205793 Y17.316636 Z-1.000000 I5.638012 J0.765106
G02 X9.356408 Y17.644659 Z-1.000000 I0.517810 J-0.039168
G01 X9.380550 Y17.644986 Z-1.000000
G02 X9.444439 Y17.561299 Z-1.000000 I-0.226322 J-0.239012
G03 X9.520940 Y17.491113 Z-1.000000 I0.138409 J0.074077
G03 X9.618728 Y17.486509 Z-1.000000 I0.055041 J0.128260
G02 X9.917565 Y17.528918 Z-1.000000 I0.272737 J-0.847768
G02 X9.968722 Y17.476239 Z-1.000000 I-0.001545 J-0.052679
G03 X9.985094 Y17.418734 Z-1.000000 I0.109177 J0.000000
G02 X10.099654 Y17.232309 Z-1.000000 I-0.607844 J-0.304390
G03 X10.141112 Y17.062860 Z-1.000000 I6.808586 J1.576028
G03 X10.157014 Y17.009936 Z-1.000000 I0.678390 J0.174980
G02 X10.284730 Y16.510804 Z-1.000000 I-3.024888 J-1.039904
G02 X10.338016 Y15.954758 Z-1.000000 I-3.706328 J-0.635753
G02 X10.290063 Y15.083391 Z-1.000000 I-5.733174 J-0.121499
G02 X9.942335 Y12.954904 Z-1.000000 I-34.718950 J4.579355
G03 X9.862769 Y12.410846 Z-1.000000 I5.680275 J-1.108562
G03 X9.680806 Y10.286432 Z-1.000000 I86.612835 J-8.488650
G02 X9.576970 Y9.305569 Z-1.000000 I-15.241471 J1.117572
G02 X9.474090 Y8.795227 Z-1.000000 I-4.217293 J0.584616
G03 X9.415392 Y8.531582 Z-1.000000 I3.181501 J-0.846689
G03 X9.370921 Y8.221876 Z-1.000000 I4.347902 J-0.782365
G02 X9.315108 Y7.919853 Z-1.000000 I-2.023198 J0.217713
G02 X9.267254 Y7.829453 Z-1.000000 I-0.218208 J0.057645
G03 X9.214412 Y7.740488 Z-1.000000 I0.218772 J-0.190116
G03 X9.159777 Y7.540855 Z-1.000000 I1.086687 J-0.404694
G02 X9.096175 Y7.346660 Z-1.000000 I-0.727161 J0.130645
G02 X8.996208 Y7.206728 Z-1.000000 I-0.469963 J0.230067
G01 X8.869993 Y7.080518 Z-1.000000
G00 Z5.000000

(End cutting path id: path2)


(Start cutting path id: path2)
(Change tool to Default tool)

G00 Z5.000000

G01 Z-1.000000 F100.0(Penetrate)
G02 X10.892729 Y8.370194 Z-1.000000 I0.422416 J0.000000 F3500.000000
G02 X11.065706 Y8.453468 Z-1.000000 I0.168581 J-0.128885
G01 X11.083958 Y8.431635 Z-1.000000
G02 X11.054426 Y8.382298 Z-1.000000 I-0.076142 J0.012069
G03 X10.978027 Y8.305262 Z-1.000000 I0.234681 J-0.309143
G03 X10.962856 Y8.259561 Z-1.000000 I0.061250 J-0.045701
G02 X10.948803 Y8.212937 Z-1.000000 I-0.084372 J0.000000
G02 X10.884376 Y8.141196 Z-1.000000 I-0.275718 J0.182811
G02 X10.819128 Y8.104252 Z-1.000000 I-0.135644 J0.163478
G00 Z5.000000

(End cutting path id: path2)


(Start cutting path id: path2)
(Change tool to Default tool)

G00 Z5.000000

G01 Z-1.000000 F100.0(Penetrate)
G02 X10.888305 Y6.867025 Z-1.000000 I0.091678 J0.035168 F3500.000000
G02 X10.962850 Y6.806961 Z-1.000000 I-0.093856 J-0.060612
G02 X10.953859 Y6.737392 Z-1.000000 I-0.273653 J-0.000000
G02 X10.891610 Y6.806961 Z-1.000000 I0.320555 J0.207007
G00 Z5.000000

(End cutting path id: path2)


(Start cutting path id: path2)
(Change tool to Default tool)

G00 Z5.000000

G01 Z-1.000000 F100.0(Penetrate)
G03 X12.252988 Y7.566099 Z-1.000000 I-0.040754 J0.064467 F3500.000000
G03 X12.233474 Y7.624036 Z-1.000000 I-0.068153 J0.009300
G03 X12.169004 Y7.649766 Z-1.000000 I-0.062190 J-0.062190
G03 X12.090599 Y7.620336 Z-1.000000 I0.003320 J-0.127998
G03 X12.090037 Y7.520996 Z-1.000000 I0.041419 J-0.049906
G03 X12.218176 Y7.511994 Z-1.000000 I0.070193 J0.082654
G00 Z5.000000

(End cutting path id: path2)


(Start cutting path id: path2)
(Change tool to Default tool)

G00 Z5.000000

G01 Z-1.000000 F100.0(Penetrate)
G03 X12.942028 Y7.661182 Z-1.000000 I-0.107111 J0.000000 F3500.000000
G03 X12.872653 Y7.617967 Z-1.000000 I0.152581 J-0.161639
G03 X12.935377 Y7.581413 Z-1.000000 I0.000000 J0.057751
G03 X12.951133 Y7.617967 Z-1.000000 I-0.034524 J0.036554
G00 Z5.000000

(End cutting path id: path2)


(Start cutting path id: path2)
(Change tool to Default tool)

G00 Z5.000000

G01 Z-1.000000 F100.0(Penetrate)
G03 X12.951809 Y9.415299 Z-1.000000 I-0.070351 J0.000000 F3500.000000
G03 X12.855528 Y9.326793 Z-1.000000 I0.011642 J-0.109288
G03 X12.873770 Y9.267291 Z-1.000000 I0.065200 J-0.012559
G03 X12.933298 Y9.249023 Z-1.000000 I0.046979 J0.046965
G03 X13.005609 Y9.287387 Z-1.000000 I-0.026398 J0.137088
G03 X13.029618 Y9.345343 Z-1.000000 I-0.057948 J0.057956
G00 Z5.000000

(End cutting path id: path2)


(Start cutting path id: path2)
(Change tool to Default tool)

G00 Z5.000000

G01 Z-1.000000 F100.0(Penetrate)
G03 X11.830861 Y9.835490 Z-1.000000 I-0.251702 J-0.000000 F3500.000000
G02 X11.760623 Y9.837900 Z-1.000000 I-0.028357 J0.045874
G02 X11.722070 Y9.866996 Z-1.000000 I0.018098 J0.064069
G03 X11.777781 Y9.936263 Z-1.000000 I0.000000 J0.054741
G03 X11.819990 Y10.001376 Z-1.000000 I-0.132487 J0.132120
G03 X11.819367 Y10.044204 Z-1.000000 I-0.053767 J0.020636
G02 X11.818750 Y10.209384 Z-1.000000 I0.306451 J-0.037276
G03 X11.879283 Y10.317744 Z-1.000000 I-0.548063 J0.377252
G03 X11.956820 Y10.521883 Z-1.000000 I-1.883822 J0.832315
G02 X12.111320 Y10.851887 Z-1.000000 I1.360171 J-0.435633
G02 X12.440990 Y11.284317 Z-1.000000 I2.684877 J-1.704977
G02 X12.575374 Y11.258317 Z-1.000000 I0.059296 J-0.053812
G02 X12.558683 Y10.966561 Z-1.000000 I-0.342272 J-0.126774
G03 X12.563611 Y10.755373 Z-1.000000 I0.199314 J-0.101000
G03 X12.719417 Y10.683004 Z-1.000000 I0.128558 J0.072873
G02 X12.826823 Y10.662937 Z-1.000000 I0.027847 J-0.148426
G01 X12.839484 Y10.608584 Z-1.000000
G02 X12.757100 Y10.515086 Z-1.000000 I-0.323737 J0.202208
G02 X12.636956 Y10.443293 Z-1.000000 I-0.304329 J0.372865
G03 X12.281820 Y10.227779 Z-1.000000 I0.522542 J-1.261438
G03 X12.218617 Y10.092236 Z-1.000000 I0.113740 J-0.135543
G02 X12.204210 Y10.047428 Z-1.000000 I-0.076884 J-0.000000
G02 X12.113971 Y9.946326 Z-1.000000 I-0.517886 J0.371419
G03 X12.026263 Y9.844104 Z-1.000000 I0.359273 J-0.397000
G03 X12.009325 Y9.787655 Z-1.000000 I0.085595 J-0.056449
G02 X11.993490 Y9.731123 Z-1.000000 I-0.108828 J-0.000000
G02 X11.930845 Y9.658550 Z-1.000000 I-0.248049 J0.150791
G02 X11.852355 Y9.733720 Z-1.000000 I0.070382 J0.073496
G00 Z5.000000

(End cutting path id: path2)


(Start cutting path id: path2)
(Change tool to Default tool)

G00 Z5.000000

G01 Z-1.000000 F100.0(Penetrate)
G02 X11.672953 Y9.335233 Z-1.000000 I0.105769 J-0.103792 F3500.000000
G02 X11.570768 Y9.160292 Z-1.000000 I-0.538931 J0.383738
G02 X11.499968 Y9.135378 Z-1.000000 I-0.070800 J0.088140
G02 X11.568938 Y9.290894 Z-1.000000 I0.396461 J-0.175829
G00 Z5.000000

(End cutting path id: path2)


(Start cutting path id: path2)
(Change tool to Default tool)

G00 Z5.000000
G00 X10.648921 Y10.495571

G01 Z-1.000000 F100.0(Penetrate)
G02 X10.707055 Y11.119708 Z-1.000000 I3.379506 J0.000000 F3500.000000
G02 X10.865241 Y11.646713 Z-1.000000 I2.559063 J-0.480887
G03 X10.898581 Y11.781620 Z-1.000000 I-0.414682 J0.174053
G03 X10.915531 Y12.222266 Z-1.000000 I-4.511440 J0.394192
G02 X10.932177 Y12.665390 Z-1.000000 I4.643422 J0.047444
G02 X10.993871 Y13.138040 Z-1.000000 I5.340140 J-0.456686
G03 X11.062609 Y13.610548 Z-1.000000 I-7.877232 J1.387189
G03 X11.099287 Y14.053692 Z-1.000000 I-6.897323 J0.793968
G02 X11.135463 Y14.496915 Z-1.000000 I7.184781 J-0.363337
G02 X11.201493 Y14.959671 Z-1.000000 I7.906256 J-0.892043
G03 X11.263220 Y15.422796 Z-1.000000 I-5.961295 J1.030216
G03 X11.306416 Y16.074139 Z-1.000000 I-11.751454 J1.106446
G03 X11.260005 Y16.921458 Z-1.000000 I-4.550558 J0.175681
G03 X11.114824 Y17.359010 Z-1.000000 I-1.329374 J-0.198230
G02 X10.973942 Y17.782230 Z-1.000000 I1.152289 J0.618634
G02 X10.957293 Y18.401496 Z-1.000000 I2.494263 J0.376914
G02 X11.043443 Y18.683752 Z-1.000000 I0.739171 J-0.071333
G02 X11.159074 Y18.774166 Z-1.000000 I0.161569 J-0.087484
G03 X11.305176 Y18.837110 Z-1.000000 I-0.129554 J0.501749
G03 X11.330714 Y18.881984 Z-1.000000 I-0.029043 J0.046233
G01 X11.346373 Y18.891018 Z-1.000000
G02 X11.387484 Y18.851024 Z-1.000000 I-0.051042 J-0.093594
G02 X11.420003 Y18.749685 Z-1.000000 I-0.214333 J-0.124665
G02 X11.463174 Y18.050043 Z-1.000000 I-10.708820 J-1.011936
G03 X11.497048 Y17.347934 Z-1.000000 I18.326022 J0.532282
G03 X11.514134 Y17.294665 Z-1.000000 I0.115982 J0.007827
G03 X11.656673 Y17.226193 Z-1.000000 I0.124753 J0.077101
G03 X11.860279 Y17.336965 Z-1.000000 I-0.038211 J0.312740
G03 X11.928403 Y17.433722 Z-1.000000 I-0.551895 J0.460936
G03 X12.006257 Y17.585499 Z-1.000000 I-1.288090 J0.756582
G02 X12.194802 Y17.429572 Z-1.000000 I-1.022980 J-0.432512
G03 X12.179624 Y17.366526 Z-1.000000 I0.061528 J-0.037901
G03 X12.142667 Y16.797030 Z-1.000000 I20.437115 J-1.612206
G02 X12.042438 Y15.567094 Z-1.000000 I-20.249296 J1.031086
G02 X11.846566 Y14.158343 Z-1.000000 I-26.765969 J3.003536
G02 X11.677168 Y13.266233 Z-1.000000 I-19.399009 J3.221432
G02 X11.505186 Y12.562492 Z-1.000000 I-12.239473 J2.618232
G03 X11.379113 Y12.090738 Z-1.000000 I31.404099 J-8.645254
G03 X11.349201 Y11.960778 Z-1.000000 I2.354094 J-0.610247
G02 X11.311020 Y11.836277 Z-1.000000 I-0.647038 J0.130325
G02 X11.273651 Y11.780263 Z-1.000000 I-0.162800 J0.068137
G03 X11.239110 Y11.724528 Z-1.000000 I0.104237 J-0.103169
G03 X11.224461 Y11.636375 Z-1.000000 I0.257909 J-0.088153
G02 X11.205150 Y11.561503 Z-1.000000 I-0.154803 J-0.000000
G01 X11.172421 Y11.542195 Z-1.000000
G03 X11.149541 Y11.358758 Z-1.000000 I0.568305 J-0.070909
G02 X11.112704 Y10.939341 Z-1.000000 I-0.856465 J-0.136103
G02 X10.953678 Y10.792114 Z-1.000000 I-0.217159 J0.075063
G03 X10.883074 Y10.747942 Z-1.000000 I0.035269 J-0.134886
G03 X10.858198 Y10.680676 Z-1.000000 I0.078507 J-0.067266
G03 X10.878464 Y10.630550 Z-1.000000 I0.072122 J0.000000
G02 X10.962838 Y10.583246 Z-1.000000 I-0.033955 J-0.041021
G02 X10.934547 Y10.532048 Z-1.000000 I-0.060472 J-0.000000
G02 X10.805869 Y10.484576 Z-1.000000 I-0.176952 J0.281517
G02 X10.664149 Y10.479218 Z-1.000000 I-0.095582 J0.651273
G00 Z5.000000

(End cutting path id: path2)


(Start cutting path id: path2)
(Change tool to Default tool)

G00 Z5.000000

G01 Z-1.000000 F100.0(Penetrate)
G03 X10.956911 Y11.362793 Z-1.000000 I-0.062920 J-0.068172
G03 X10.881473 Y11.339529 Z-1.000000 I0.000000 J-0.133944
G03 X10.858211 Y11.295523 Z-1.000000 I0.029994 J-0.044006
G03 X10.878698 Y11.248739 Z-1.000000 I0.063663 J0.000000
G03 X10.931101 Y11.228253 Z-1.000000 I0.052403 J0.056782
G03 X10.991239 Y11.246799 Z-1.000000 I-0.000000 J0.106778
G03 X11.029801 Y11.295523 Z-1.000000 I-0.058635 J0.086027
G00 Z5.000000

(End cutting path id: path2)


(Start cutting path id: path2)
(Change tool to Default tool)

G00 Z5.000000

G01 Z-1.000000 F100.0(Penetrate)
G02 X12.140512 Y12.191673 Z-1.000000 I1.363848 J-0.191578 F3500.000000
G02 X12.325754 Y12.725814 Z-1.000000 I8.435203 J-2.626163
G03 X12.696999 Y14.117245 Z-1.000000 I-6.410147 J2.455519
G03 X12.846785 Y16.046320 Z-1.000000 I-12.241687 J1.920879
G02 X12.920219 Y17.014343 Z-1.000000 I6.361533 J0.004213
G02 X13.006522 Y17.088426 Z-1.000000 I0.086303 J-0.013228
G01 X13.033664 Y17.105586 Z-1.000000
G03 X13.082712 Y17.248904 Z-1.000000 I-0.604125 J0.286801
G02 X13.144360 Y17.387062 Z-1.000000 I0.365538 J-0.080274
G02 X13.230758 Y17.454879 Z-1.000000 I0.160199 J-0.115149
G03 X13.281495 Y17.489900 Z-1.000000 I-0.052640 J0.130526
G02 X13.233323 Y17.526047 Z-1.000000 I0.002750 J0.056870
G02 X13.223248 Y17.572699 Z-1.000000 I0.044702 J0.034068
G03 X13.214578 Y17.631564 Z-1.000000 I-0.079760 J0.018323
G03 X13.116058 Y17.760667 Z-1.000000 I-0.529726 J-0.302097
G02 X13.029908 Y17.892568 Z-1.000000 I0.271248 J0.271248
G02 X13.024368 Y17.995832 Z-1.000000 I0.153997 J0.060043
G03 X13.045111 Y18.110313 Z-1.000000 I-0.659017 J0.178526
G03 X13.084298 Y18.631951 Z-1.000000 I-13.737598 J1.294310
G02 X13.119733 Y19.154549 Z-1.000000 I22.396888 J-1.256136
G02 X13.139478 Y19.325626 Z-1.000000 I2.416399 J-0.192212
G02 X13.288549 Y19.562180 Z-1.000000 I0.345270 J-0.052334
G02 X13.572299 Y19.619581 Z-1.000000 I0.210330 J-0.309695
G02 X13.658697 Y19.559360 Z-1.000000 I-0.025829 J-0.129143
G02 X13.652219 Y19.489447 Z-1.000000 I-0.049883 J-0.030635
G03 X13.594344 Y19.343101 Z-1.000000 I0.166088 J-0.150300
G03 X13.601519 Y16.617516 Z-1.000000 I67.176318 J-1.185958
G02 X13.566759 Y15.681709 Z-1.000000 I-7.801311 J-0.178774
G02 X13.425560 Y14.812373 Z-1.000000 I-6.869089 J0.669554
G03 X13.317499 Y14.277923 Z-1.000000 I10.476748 J-2.396463
G03 X13.158225 Y13.292698 Z-1.000000 I35.468785 J-6.239445
G02 X12.814145 Y12.343514 Z-1.000000 I-2.497155 J0.368265
G02 X12.260459 Y11.825498 Z-1.000000 I-1.214343 J0.743046
G02 X12.141376 Y11.839762 Z-1.000000 I-0.049156 J0.093830
G02 X12.091653 Y11.973850 Z-1.000000 I0.099428 J0.113134
G01 X12.091646 Y11.973853 Z-1.000000
G00 Z5.000000

(End cutting path id: path2)


(Start cutting path id: path2)
(Change tool to Default tool)

G00 Z5.000000
G00 X12.219413 Y17.673977

G01 Z-1.000000 F100.0(Penetrate)
G02 X12.235240 Y17.753278 Z-1.000000 I0.197610 J0.001791 F3500.000000
G02 X12.270933 Y17.794792 Z-1.000000 I0.083299 J-0.035517
G02 X12.270933 Y17.663985 Z-1.000000 I-0.206958 J-0.000000
G00 Z5.000000

(End cutting path id: path2)


(Start cutting path id: path2)
(Change tool to Default tool)

G00 Z5.000000

G01 Z-1.000000 F100.0(Penetrate)
G03 X12.266974 Y18.369295 Z-1.000000 I-2.206326 J-0.013704 F3500.000000
G03 X12.238453 Y18.553475 Z-1.000000 I-1.754469 J-0.177388
G03 X12.195620 Y18.617745 Z-1.000000 I-0.101562 J-0.021278
G02 X12.119183 Y18.697365 Z-1.000000 I0.209872 J0.098687
G02 X12.148438 Y18.905924 Z-1.000000 I0.648292 J0.015394
G02 X12.222332 Y19.028102 Z-1.000000 I0.284990 J-0.088929
G02 X12.159002 Y19.337415 Z-1.000000 I0.124989 J0.144111
G02 X12.173228 Y19.463451 Z-1.000000 I0.200414 J0.041200
G02 X12.260461 Y19.560994 Z-1.000000 I0.200098 J-0.091170
G02 X12.401425 Y19.599932 Z-1.000000 I0.140964 J-0.235695
G02 X12.544028 Y19.525116 Z-1.000000 I0.000000 J-0.173311
G02 X12.553264 Y19.380097 Z-1.000000 I-0.116113 J-0.080199
G03 X12.499075 Y19.218867 Z-1.000000 I0.495657 J-0.256309
G03 X12.448094 Y18.771936 Z-1.000000 I3.846621 J-0.665157
G02 X12.406821 Y18.321808 Z-1.000000 I-6.351074 J0.355390
G02 X12.376804 Y18.213373 Z-1.000000 I-0.391349 J0.049960
G03 X12.333073 Y18.107899 Z-1.000000 I2.587498 J-1.134615
G03 X12.305174 Y18.030243 Z-1.000000 I1.375944 J-0.538167
G02 X12.278134 Y18.161050 Z-1.000000 I0.648892 J0.134139
G00 Z5.000000

(End cutting path id: path2)


(Start cutting path id: path2)
(Change tool to Default tool)

G00 Z5.000000

G01 Z-1.000000 F100.0(Penetrate)
G02 X11.404512 Y19.547608 Z-1.000000 I0.045944 J-0.043263
G02 X11.467587 Y19.529120 Z-1.000000 I0.000000 J-0.116841
G02 X11.471227 Y19.457823 Z-1.000000 I-0.054672 J-0.000000
G02 X11.394528 Y19.455376 Z-1.000000 I0.000000 J0.078386
G02 X11.355282 Y19.495288 Z-1.000000 I0.068198 J0.106313
G00 Z5.000000

(End cutting path id: path2)


(Start cutting path id: path2)
(Change tool to Default tool)

G00 Z5.000000
G00 X9.742377 Y18.926971

G01 Z-1.000000 F100.0(Penetrate)
G02 X9.783111 Y19.140289 Z-1.000000 I0.244327 J0.063893 F3500.000000
G02 X9.967476 Y19.233668 Z-1.000000 I0.184365 J-0.135313
G02 X10.098425 Y19.151345 Z-1.000000 I0.000000 J-0.145311
G02 X10.081483 Y18.996647 Z-1.000000 I-0.132554 J-0.063760
G02 X9.985484 Y18.918660 Z-1.000000 I-0.220756 J0.173664
G03 X9.847623 Y18.905427 Z-1.000000 I0.031960 J-0.125023
G02 X9.787718 Y18.884006 Z-1.000000 I-0.047608 J0.038662
G02 X9.742377 Y18.926967 Z-1.000000 I0.011855 J0.057919
G00 Z5.000000

(End cutting path id: path2)


(Start cutting path id: path2)
(Change tool to Default tool)

G00 Z5.000000

G01 Z-1.000000 F100.0(Penetrate)
G03 X9.739071 Y18.531779 Z-1.000000 I-0.057764 J-0.003645 F3500.000000
G03 X9.670481 Y18.553466 Z-1.000000 I-0.068590 J-0.097623
G02 X9.762109 Y18.622171 Z-1.000000 I0.062165 J-0.062163
G02 X9.795609 Y18.492643 Z-1.000000 I-0.071583 J-0.087610
G00 Z5.000000

(End cutting path id: path2)


(Start cutting path id: path2)
(Change tool to Default tool)

G00 Z5.000000

G01 Z-1.000000 F100.0(Penetrate)
G02 X8.536314 Y18.605273 Z-1.000000 I0.151285 J0.148982 F3500.000000
G02 X8.647567 Y18.794571 Z-1.000000 I0.285781 J-0.040615
G03 X8.669217 Y18.841225 Z-1.000000 I-0.033228 J0.043770
G02 X8.609079 Y18.997683 Z-1.000000 I0.001232 J0.070871
G02 X9.090745 Y19.129020 Z-1.000000 I0.481666 J-0.817565
G02 X9.104272 Y19.023138 Z-1.000000 I-0.091543 J-0.011695
G02 X9.011527 Y18.966006 Z-1.000000 I-0.144551 J0.130811
G03 X8.950600 Y18.926258 Z-1.000000 I0.115518 J-0.022701
G02 X8.951566 Y18.847324 Z-1.000000 I-0.145678 J-0.041256
G03 X8.869937 Y18.769368 Z-1.000000 I0.074226 J-0.062883
G02 X8.842181 Y18.685475 Z-1.000000 I-0.140662 J0.000000
G02 X8.768606 Y18.632999 Z-1.000000 I-0.118077 J0.087736
G03 X8.690546 Y18.580933 Z-1.000000 I0.051204 J-0.161316
G03 X8.650879 Y18.493698 Z-1.000000 I0.134803 J-0.113933
G02 X8.621224 Y18.427536 Z-1.000000 I-0.134592 J0.020601
G00 Z5.000000

(End cutting path id: path2)


(Start cutting path id: path2)
(Change tool to Default tool)

G00 Z5.000000
G00 X5.193159 Y18.271143

G01 Z-1.000000 F100.0(Penetrate)
G03 X5.158208 Y18.286471 Z-1.000000 I-0.037106 J-0.037100 F3500.000000
G03 X5.092873 Y18.275243 Z-1.000000 I-0.006493 J-0.157928
G03 X5.124485 Y18.243633 Z-1.000000 I0.037113 J0.037114
G03 X5.189818 Y18.254822 Z-1.000000 I0.006584 J0.157889
G00 Z5.000000

(End cutting path id: path2)


(Start cutting path id: path2)
(Change tool to Default tool)

G00 Z5.000000

G01 Z-1.000000 F100.0(Penetrate)
G02 X3.961059 Y19.045713 Z-1.000000 I0.080281 J0.080261 F3500.000000
G02 X3.951578 Y19.095852 Z-1.000000 I0.127838 J0.050139
G02 X4.013494 Y19.088052 Z-1.000000 I-0.009799 J-0.077640
G02 X4.054021 Y19.026139 Z-1.000000 I-0.127974 J-0.127989
G02 X3.986460 Y19.006902 Z-1.000000 I0.007528 J0.059562
G00 Z5.000000

(End cutting path id: path2)


(Start cutting path id: path2)
(Change tool to Default tool)

G00 Z5.000000

G01 Z-1.000000 F100.0(Penetrate)
G03 X3.138245 Y19.070806 Z-1.000000 I-1.148152 J-1.949791 F3500.000000
G03 X2.944360 Y19.162436 Z-1.000000 I-2.030639 J-4.045791
G02 X2.765103 Y19.260564 Z-1.000000 I0.499754 J1.125731
G01 X2.748149 Y19.292087 Z-1.000000
G02 X2.859373 Y19.463950 Z-1.000000 I0.188394 J0.000000
G02 X2.996691 Y19.403695 Z-1.000000 I0.041411 J-0.092225
G03 X3.109788 Y19.374265 Z-1.000000 I0.040694 J0.156406
G02 X3.193388 Y19.365017 Z-1.000000 I0.029735 J-0.113688
G02 X3.303490 Y19.274365 Z-1.000000 I-0.154878 J-0.300298
G03 X3.411876 Y19.162841 Z-1.000000 I0.600123 J0.474807
G03 X3.493752 Y19.114800 Z-1.000000 I0.183213 J0.218457
G02 X3.562748 Y19.064413 Z-1.000000 I-0.057463 J-0.151117
G02 X3.585317 Y18.999855 Z-1.000000 I-0.081048 J-0.064558
G02 X3.517630 Y18.931827 Z-1.000000 I-0.068029 J0.000000
G02 X3.271379 Y18.998255 Z-1.000000 I-0.002418 J0.480680
G00 Z5.000000

(End cutting path id: path2)


(Start cutting path id: path2)
(Change tool to Default tool)

G00 Z5.000000

G01 Z-1.000000 F100.0(Penetrate)
G02 X1.380072 Y19.674934 Z-1.000000 I0.683703 J1.651713 F3500.000000
G02 X1.335428 Y19.761278 Z-1.000000 I0.061176 J0.086344
G02 X1.431961 Y19.844366 Z-1.000000 I0.084024 J0.000000
G02 X2.238000 Y19.625417 Z-1.000000 I-0.538005 J-3.573764
G02 X2.304469 Y19.571755 Z-1.000000 I-0.054097 J-0.135005
G02 X2.329565 Y19.489685 Z-1.000000 I-0.121644 J-0.082070
G02 X2.291747 Y19.428981 Z-1.000000 I-0.067628 J0.000000
G02 X2.133354 Y19.393335 Z-1.000000 I-0.153603 J0.312797
G02 X1.941153 Y19.415515 Z-1.000000 I0.013336 J0.959431
G02 X1.729816 Y19.481855 Z-1.000000 I0.269064 J1.226933
G00 Z5.000000

(End cutting path id: path2)


(Start cutting path id: path2)
(Change tool to Default tool)

G00 Z5.000000
G00 X15.228111 Y20.226785

G01 Z-1.000000 F100.0(Penetrate)
G02 X15.158634 Y20.383477 Z-1.000000 I0.203089 J0.183798 F3500.000000
G02 X15.259754 Y20.421365 Z-1.000000 I0.000000 J-0.095652
G02 X15.440407 Y20.283696 Z-1.000000 I-0.900274 J-1.368725
G02 X15.318961 Y20.163888 Z-1.000000 I0.011908 J0.419723
G02 X15.228107 Y20.226810 Z-1.000000 I0.089243 J0.225912
G00 Z5.000000

(End cutting path id: path2)


(Start cutting path id: path2)
(Change tool to Default tool)

G00 Z5.000000

G01 Z-1.000000 F100.0(Penetrate)
G03 X15.635655 Y20.671996 Z-1.000000 I-25.674398 J-14.637797 F3500.000000
G03 X15.512300 Y20.881848 Z-1.000000 I-22.936769 J-13.341527
G02 X15.469164 Y20.999823 Z-1.000000 I0.292825 J0.173940
G02 X15.905856 Y20.593941 Z-1.000000 I-1.321185 J-1.725919
G02 X15.985871 Y20.354603 Z-1.000000 I-0.317944 J-0.239338
G02 X15.763398 Y20.450183 Z-1.000000 I0.129904 J0.302364
G00 Z5.000000

(End cutting path id: path2)


(Start cutting path id: path2)
(Change tool to Default tool)

G00 Z5.000000

G01 Z-1.000000 F100.0(Penetrate)
G02 X15.796883 Y21.456573 Z-1.000000 I0.181435 J0.181435 F3500.000000
G02 X15.921406 Y21.378916 Z-1.000000 I-0.359946 J-0.361474
G00 Z5.000000

(End cutting path id: path2)


(Start cutting path id: path2)
(Change tool to Default tool)

G00 Z5.000000
G00 X17.921568 Y21.494053

G01 Z-1.000000 F100.0(Penetrate)
G02 X17.832840 Y21.721995 Z-1.000000 I2.032850 J0.922537 F3500.000000
G02 X17.818321 Y21.809433 Z-1.000000 I0.278443 J0.091161
G03 X17.801877 Y21.896371 Z-1.000000 I-0.255178 J-0.003243
G03 X17.640444 Y22.280340 Z-1.000000 I-5.292675 J-1.999285
G02 X17.522326 Y22.682905 Z-1.000000 I1.277984 J0.593590
G02 X17.770991 Y22.497521 Z-1.000000 I-3.004229 J-2.853917
G02 X17.990864 Y22.216084 Z-1.000000 I-4.991108 J-4.125909
G03 X18.212811 Y21.938048 Z-1.000000 I3.761399 J2.774999
G03 X18.298248 Y21.859727 Z-1.000000 I0.375681 J0.324052
G02 X18.494821 Y21.650275 Z-1.000000 I-0.439989 J-0.609905
G02 X18.549694 Y21.459999 Z-1.000000 I-0.302464 J-0.190276
G02 X18.483656 Y21.402304 Z-1.000000 I-0.058222 J0.000000
G02 X18.298543 Y21.494029 Z-1.000000 I0.043379 J0.320199
G02 X18.211828 Y21.396932 Z-1.000000 I-0.122654 J0.000000
G02 X18.129708 Y21.325847 Z-1.000000 I-0.198457 J0.146290
G02 X18.045585 Y21.333790 Z-1.000000 I-0.036072 J0.067405
G02 X17.921565 Y21.494056 Z-1.000000 I0.276349 J0.341968
G00 Z5.000000

(End cutting path id: path2)


(Start cutting path id: path2)
(Change tool to Default tool)

G00 Z5.000000

G01 Z-1.000000 F100.0(Penetrate)
G02 X18.053414 Y23.508398 Z-1.000000 I0.128473 J0.169857 F3500.000000
G01 X18.062379 Y23.524153 Z-1.000000
G02 X18.111472 Y23.509631 Z-1.000000 I0.000000 J-0.090243
G02 X18.183432 Y23.445663 Z-1.000000 I-0.173562 J-0.267706
G02 X18.108032 Y23.447363 Z-1.000000 I0.002525 J0.112278
G00 Z5.000000

(End cutting path id: path2)


(Start cutting path id: path2)
(Change tool to Default tool)

G00 Z5.000000

G01 Z-1.000000 F100.0(Penetrate)
G02 X17.960823 Y23.668285 Z-1.000000 I0.000000 J-0.085927
G02 X18.000306 Y23.628800 Z-1.000000 I-0.063892 J-0.103372
G02 X17.935149 Y23.589310 Z-1.000000 I-0.000000 J0.085915
G02 X17.895656 Y23.628800 Z-1.000000 I0.063904 J0.103403
G00 Z5.000000

(End cutting path id: path2)


(Start cutting path id: path2)
(Change tool to Default tool)

G00 Z5.000000

G01 Z-1.000000 F100.0(Penetrate)
G02 X17.433550 Y24.015648 Z-1.000000 I0.317504 J0.208024 F3500.000000
G02 X17.623049 Y23.845094 Z-1.000000 I-0.283173 J-0.458174
G02 X17.477664 Y23.923018 Z-1.000000 I1.191284 J0.971387
G00 Z5.000000

(End cutting path id: path2)


(Start cutting path id: path2)
(Change tool to Default tool)

G00 Z5.000000

G01 Z-1.000000 F100.0(Penetrate)
G02 X18.816474 Y23.476985 Z-1.000000 I0.112549 J0.069568 F3500.000000
G02 X18.881639 Y23.447933 Z-1.000000 I-0.112780 J-0.113013
G00 Z5.000000

(End cutting path id: path2)


(Start cutting path id: path2)
(Change tool to Default tool)

G00 Z5.000000

G01 Z-1.000000 F100.0(Penetrate)
G02 X19.001890 Y23.855585 Z-1.000000 I1.097330 J0.718987 F3500.000000
G02 X18.886683 Y24.360679 Z-1.000000 I2.759114 J0.895016
G02 X19.205502 Y23.674414 Z-1.000000 I-3.846401 J-1.786896
G02 X19.197680 Y23.545945 Z-1.000000 I-0.198574 J-0.052382
G00 Z5.000000

(End cutting path id: path2)


(Start cutting path id: path2)
(Change tool to Default tool)

G00 Z5.000000
G00 X20.642614 Y23.300885

G01 Z-1.000000 F100.0(Penetrate)
G02 X20.578094 Y23.337482 Z-1.000000 I0.026110 J0.121203 F3500.000000
G02 X20.445034 Y23.512535 Z-1.000000 I0.796335 J0.743404
G03 X20.318647 Y23.702163 Z-1.000000 I-2.490164 J-1.522759
G03 X20.095484 Y23.995060 Z-1.000000 I-6.174273 J-4.472819
G02 X19.883580 Y24.292145 Z-1.000000 I2.560446 J2.050421
G02 X19.831089 Y24.413120 Z-1.000000 I0.362031 J0.228962
G03 X19.787594 Y24.536933 Z-1.000000 I-0.766258 J-0.199638
G03 X19.760849 Y24.570089 Z-1.000000 I-0.076201 J-0.034101
G02 X19.596029 Y24.756031 Z-1.000000 I0.350307 J0.476534
G02 X19.543834 Y24.954788 Z-1.000000 I0.352333 J0.198757
G03 X19.526544 Y25.020592 Z-1.000000 I-0.133864 J-0.000000
G03 X19.465344 Y25.093843 Z-1.000000 I-0.229490 J-0.129542
G02 X19.399555 Y25.164945 Z-1.000000 I0.236024 J0.284375
G02 X19.386864 Y25.204896 Z-1.000000 I0.056537 J0.039951
G02 X19.825948 Y24.779905 Z-1.000000 I-2.419826 J-2.500021
G03 X20.192358 Y24.389418 Z-1.000000 I1.772568 J1.296121
G02 X20.215853 Y24.544488 Z-1.000000 I56.716217 J16.300986
G02 X20.187147 Y24.645620 Z-1.000000 I41.272326 J11.769516
G02 X20.374429 Y24.575820 Z-1.000000 I-0.209798 J-0.562944
G02 X20.564700 Y24.392473 Z-1.000000 I-0.846692 J-1.069067
G02 X20.590295 Y24.323098 Z-1.000000 I-0.081221 J-0.069375
G03 X20.608732 Y24.246914 Z-1.000000 I0.166621 J0.000000
G03 X20.776768 Y23.960411 Z-1.000000 I2.659662 J1.367384
G02 X20.962552 Y23.502352 Z-1.000000 I-1.033047 J-0.685699
G02 X20.883309 Y23.389967 Z-1.000000 I-0.094329 J-0.017618
G03 X20.791573 Y23.361913 Z-1.000000 I0.054417 J-0.341954
G03 X20.752501 Y23.329067 Z-1.000000 I0.041393 J-0.088902
G02 X20.713899 Y23.302278 Z-1.000000 I-0.055362 J0.038568
G02 X20.642618 Y23.300887 Z-1.000000 I-0.038591 J0.150492
G00 Z5.000000

(End cutting path id: path2)


(Start cutting path id: path2)
(Change tool to Default tool)

G00 Z5.000000

G01 Z-1.000000 F100.0(Penetrate)
G02 X21.716364 Y24.264537 Z-1.000000 I111.431237 J80.130573 F3500.000000
G02 X21.552145 Y24.497468 Z-1.000000 I23.891791 J17.018357
G03 X21.382228 Y24.725787 Z-1.000000 I-3.819604 J-2.665192
G03 X21.198965 Y24.942948 Z-1.000000 I-3.638552 J-2.884684
G02 X21.025294 Y25.161242 Z-1.000000 I1.744926 J1.566465
G02 X21.007210 Y25.215835 Z-1.000000 I0.081555 J0.057308
G03 X20.925055 Y25.443303 Z-1.000000 I-0.384993 J-0.010479
G03 X20.823721 Y25.449360 Z-1.000000 I-0.053354 J-0.041921
G03 X20.808155 Y25.346460 Z-1.000000 I0.062008 J-0.062008
G03 X21.100778 Y24.923794 Z-1.000000 I1.892635 J0.997694
G02 X21.130192 Y24.855201 Z-1.000000 I-0.088494 J-0.078551
G02 X21.159575 Y24.729990 Z-1.000000 I-0.071492 J-0.113047
G02 X21.023295 Y24.682817 Z-1.000000 I-0.076010 J0.076010
G02 X20.911339 Y24.845304 Z-1.000000 I0.123056 J0.204601
G03 X20.903966 Y24.884466 Z-1.000000 I-2.683653 J-0.484998
G03 X20.900969 Y24.897624 Z-1.000000 I-0.216986 J-0.042498
G02 X20.898603 Y24.910872 Z-1.000000 I0.095705 J0.023926
G02 X20.880379 Y25.087306 Z-1.000000 I15.932477 J1.734851
G03 X20.841075 Y25.250168 Z-1.000000 I-0.600408 J-0.058724
G03 X20.793669 Y25.306834 Z-1.000000 I-0.109045 J-0.043063
G03 X20.768169 Y25.190223 Z-1.000000 I0.120994 J-0.026459
G02 X20.817257 Y25.037712 Z-1.000000 I-0.222301 J-0.155706
G02 X20.770769 Y24.969225 Z-1.000000 I-0.072436 J-0.000853
G02 X20.724808 Y24.967259 Z-1.000000 I-0.025910 J0.067511
G03 X20.537786 Y25.283694 Z-1.000000 I-1.808276 J-1.090047
G02 X20.355670 Y25.605064 Z-1.000000 I0.817529 J0.675567
G01 X20.401124 Y25.669392 Z-1.000000
G03 X20.455519 Y25.692689 Z-1.000000 I0.000000 J0.075149
G03 X20.500874 Y25.774038 Z-1.000000 I-0.134739 J0.128441
G03 X20.503707 Y25.859768 Z-1.000000 I-0.187864 J0.049120
G02 X20.433394 Y25.931004 Z-1.000000 I0.041660 J0.037754
G02 X20.503783 Y25.989081 Z-1.000000 I0.059153 J0.000000
G02 X20.857687 Y25.848914 Z-1.000000 I-0.195478 J-1.010425
G03 X21.018217 Y25.783623 Z-1.000000 I0.262975 J0.416581
G02 X20.996206 Y26.125974 Z-1.000000 I1.060870 J0.315978
G02 X21.384296 Y25.931944 Z-1.000000 I-0.302358 J-0.828288
G02 X21.479813 Y25.690060 Z-1.000000 I-0.259157 J-0.242139
G03 X21.497851 Y25.640712 Z-1.000000 I0.076667 J0.000053
G03 X21.641053 Y25.498700 Z-1.000000 I0.863868 J0.727902
G02 X21.788534 Y25.353730 Z-1.000000 I-0.777325 J-0.938293
G02 X21.889587 Y25.208975 Z-1.000000 I-0.673943 J-0.578127
G03 X21.981230 Y25.055425 Z-1.000000 I2.762383 J1.544555
G03 X22.266926 Y24.615490 Z-1.000000 I23.019254 J14.636060
G02 X22.548701 Y24.173224 Z-1.000000 I-11.935817 J-7.915410
G02 X22.742442 Y23.838085 Z-1.000000 I-6.657769 J-4.072363
G02 X22.796044 Y23.418277 Z-1.000000 I-0.510615 J-0.278522
G02 X22.598518 Y23.263334 Z-1.000000 I-0.198530 J0.049714
G02 X22.463132 Y23.317220 Z-1.000000 I-0.000956 J0.194618
G02 X22.075288 Y23.763132 Z-1.000000 I2.211310 J2.314972
G00 Z5.000000

(End cutting path id: path2)


(Start cutting path id: path2)
(Change tool to Default tool)

G00 Z5.000000
G00 X23.134910 Y24.418437

G01 Z-1.000000 F100.0(Penetrate)
G02 X22.792786 Y24.788715 Z-1.000000 I1.775210 J1.983428 F3500.000000
G02 X22.498682 Y25.253516 Z-1.000000 I2.520398 J1.920236
G02 X22.438518 Y25.395848 Z-1.000000 I0.888135 J0.459297
G03 X22.394492 Y25.601226 Z-1.000000 I-1.424811 J-0.387921
G02 X22.334054 Y25.794971 Z-1.000000 I1.004384 J0.419614
G02 X22.339292 Y25.861458 Z-1.000000 I0.114985 J0.024390
G03 X22.339060 Y25.919308 Z-1.000000 I-0.074569 J0.028626
G03 X22.297052 Y25.968870 Z-1.000000 I-0.093704 J-0.036837
G02 X22.237626 Y26.017625 Z-1.000000 I0.134015 J0.223938
G02 X22.181498 Y26.096463 Z-1.000000 I0.306708 J0.277760
G03 X22.126441 Y26.178115 Z-1.000000 I-0.471746 J-0.258706
G03 X21.937604 Y26.395041 Z-1.000000 I-3.550630 J-2.900213
G02 X21.750291 Y26.610143 Z-1.000000 I3.352082 J3.108134
G01 X21.741392 Y26.635092 Z-1.000000
G02 X21.865793 Y26.663532 Z-1.000000 I0.111787 J-0.488920
G02 X22.070401 Y26.585232 Z-1.000000 I0.000000 J-0.306483
G02 X22.087806 Y26.464456 Z-1.000000 I-0.063476 J-0.070789
G03 X22.149496 Y26.318276 Z-1.000000 I0.330086 J0.139301
G02 X22.236134 Y26.215591 Z-1.000000 I-1.324451 J-1.205367
G02 X22.431677 Y25.957172 Z-1.000000 I-8.209425 J-6.415177
G03 X22.632075 Y25.703754 Z-1.000000 I3.534067 J2.588736
G03 X22.733972 Y25.602597 Z-1.000000 I0.658488 J0.561401
G02 X22.812758 Y25.504516 Z-1.000000 I-0.208468 J-0.248140
G03 X22.887242 Y25.371997 Z-1.000000 I0.110439 J0.101251
G02 X22.972362 Y25.324112 Z-1.000000 I-0.048679 J-0.186127
G02 X22.997152 Y25.265618 Z-1.000000 I-0.056614 J-0.058494
G03 X23.020038 Y25.196727 Z-1.000000 I0.115129 J-0.000000
G03 X23.347419 Y24.796619 Z-1.000000 I4.678192 J3.493850
G02 X23.643213 Y24.400609 Z-1.000000 I-2.083438 J-1.864671
G02 X23.642933 Y24.317887 Z-1.000000 I-0.066640 J-0.041136
G02 X23.478706 Y24.246937 Z-1.000000 I-0.133612 J0.083728
G02 X23.134914 Y24.418439 Z-1.000000 I0.141198 J0.713379
G01 X23.134910 Y24.418437 Z-1.000000
G00 Z5.000000

(End cutting path id: path2)


(Start cutting path id: path2)
(Change tool to Default tool)

G00 Z5.000000

G01 Z-1.000000 F100.0(Penetrate)
G02 X23.877953 Y24.003745 Z-1.000000 I0.124229 J-0.041410 F3500.000000
G02 X23.929187 Y24.035408 Z-1.000000 I0.092712 J-0.092736
G02 X23.959557 Y23.973278 Z-1.000000 I-0.056682 J-0.027705
G02 X23.883275 Y23.909977 Z-1.000000 I-0.094499 J0.036266
G00 Z5.000000

(End cutting path id: path2)


(Start cutting path id: path2)
(Change tool to Default tool)

G00 Z5.000000

G01 Z-1.000000 F100.0(Penetrate)
G02 X24.025821 Y25.725988 Z-1.000000 I5.679273 J3.768795 F3500.000000
G02 X23.816470 Y26.208161 Z-1.000000 I3.268611 J1.705711
G03 X23.765999 Y26.272387 Z-1.000000 I-0.119667 J-0.042095
G03 X23.695883 Y26.286641 Z-1.000000 I-0.053091 J-0.081576
G02 X23.626318 Y26.310077 Z-1.000000 I-0.013363 J0.075296
G02 X23.428881 Y26.575997 Z-1.000000 I1.144045 J1.055671
G02 X23.273671 Y26.877797 Z-1.000000 I2.563876 J1.509368
G01 X23.279918 Y26.911415 Z-1.000000
G02 X23.423887 Y26.918917 Z-1.000000 I0.076148 J-0.076148
G02 X23.520378 Y26.716462 Z-1.000000 I-0.164147 J-0.202455
G03 X23.801721 Y26.061372 Z-1.000000 I0.903340 J-0.000000
G03 X24.260198 Y26.014001 Z-1.000000 I0.259976 J0.273808
G03 X24.322180 Y25.923979 Z-1.000000 I0.099991 J0.000000
G03 X24.475278 Y25.726184 Z-1.000000 I1.531921 J1.027595
G02 X24.768923 Y25.382286 Z-1.000000 I-8.536891 J-7.586732
G02 X25.073928 Y24.996303 Z-1.000000 I-10.450017 J-8.571136
G02 X25.068156 Y24.846888 Z-1.000000 I-0.093561 J-0.071204
G02 X24.816285 Y24.707103 Z-1.000000 I-0.325824 J0.290275
G02 X24.699174 Y24.742478 Z-1.000000 I-0.023182 J0.134792
G02 X24.389258 Y25.110551 Z-1.000000 I1.453144 J1.538052
G00 Z5.000000

(End cutting path id: path2)


(Start cutting path id: path2)
(Change tool to Default tool)

G00 Z5.000000

G01 Z-1.000000 F100.0(Penetrate)
G02 X23.831371 Y26.602344 Z-1.000000 I0.260855 J0.253052 F3500.000000
G02 X24.161129 Y26.292765 Z-1.000000 I-1.382510 J-1.524037
G02 X23.918147 Y26.455276 Z-1.000000 I6.012415 J6.237667
G00 Z5.000000

(End cutting path id: path2)


(Start cutting path id: path2)
(Change tool to Default tool)

G00 Z5.000000

G01 Z-1.000000 F100.0(Penetrate)
G02 X23.619246 Y26.968132 Z-1.000000 I0.202333 J-0.044794
G02 X23.752146 Y26.929222 Z-1.000000 I-0.054291 J-0.185401
G02 X23.769609 Y26.863276 Z-1.000000 I-0.055117 J-0.049880
G02 X23.623732 Y26.854327 Z-1.000000 I0.038828 J0.518726
G00 Z5.000000

(End cutting path id: path2)


(Start cutting path id: path2)
(Change tool to Default tool)

G00 Z5.000000

G01 Z-1.000000 F100.0(Penetrate)
G02 X23.556936 Y27.170999 Z-1.000000 I0.000000 J-0.057752
G02 X23.572697 Y27.134440 Z-1.000000 I-0.034520 J-0.036559
G02 X23.563592 Y27.091225 Z-1.000000 I-0.107111 J0.000000
G02 X23.494217 Y27.134440 Z-1.000000 I0.152780 J0.161799
G00 Z5.000000

(End cutting path id: path2)


(Start cutting path id: path2)
(Change tool to Default tool)

G00 Z5.000000

G01 Z-1.000000 F100.0(Penetrate)
G02 X23.711677 Y27.272490 Z-1.000000 I0.187864 J0.049120 F3500.000000
G02 X23.781990 Y27.186760 Z-1.000000 I-0.189905 J-0.086058
G02 X23.772934 Y27.091213 Z-1.000000 I-0.508576 J0.000000
G02 X23.714510 Y27.186760 Z-1.000000 I0.547321 J0.248028
G00 Z5.000000

(End cutting path id: path2)


(Start cutting path id: path2)
(Change tool to Default tool)

G00 Z5.000000

G01 Z-1.000000 F100.0(Penetrate)
G02 X22.941319 Y26.931415 Z-1.000000 I0.065756 J0.025231 F3500.000000
G02 X23.035922 Y26.802083 Z-1.000000 I-0.200886 J-0.127032
G02 X22.923070 Y26.854148 Z-1.000000 I0.160293 J0.148619
G00 Z5.000000

(End cutting path id: path2)


(Start cutting path id: path2)
(Change tool to Default tool)

G00 Z5.000000

G01 Z-1.000000 F100.0(Penetrate)
G02 X22.606019 Y26.015584 Z-1.000000 I0.529141 J0.506953 F3500.000000
G02 X22.666267 Y26.016625 Z-1.000000 I-0.000000 J-0.071913
G02 X22.787853 Y25.878689 Z-1.000000 I-0.601996 J-0.653192
G02 X22.884241 Y25.729650 Z-1.000000 I-1.618377 J-1.152342
G02 X22.709372 Y25.878689 Z-1.000000 I2.339769 J2.538827
G00 Z5.000000

(End cutting path id: path2)


(Start cutting path id: path2)
(Change tool to Default tool)

G00 Z5.000000

G01 Z-1.000000 F100.0(Penetrate)
G02 X21.756996 Y25.552842 Z-1.000000 I0.365513 J0.330789 F3500.000000
G02 X21.741400 Y25.616119 Z-1.000000 I0.120567 J0.063277
G02 X21.846046 Y25.564749 Z-1.000000 I-0.117104 J-0.238563
G02 X21.874564 Y25.464988 Z-1.000000 I-0.092800 J-0.080486
G00 Z5.000000

(End cutting path id: path2)


(Start cutting path id: path2)
(Change tool to Default tool)

G00 Z5.000000
G00 X19.966654 Y21.527963

G01 Z-1.000000 F100.0(Penetrate)
G02 X19.921477 Y21.636507 Z-1.000000 I0.535216 J0.286437 F3500.000000
G02 X19.910094 Y21.712487 Z-1.000000 I0.247893 J0.075980
G03 X19.836295 Y21.795786 Z-1.000000 I-0.083910 J0.000000
G03 X19.670767 Y21.741537 Z-1.000000 I-0.024771 J-0.204076
G02 X19.572714 Y21.689049 Z-1.000000 I-0.146622 J0.156072
G03 X19.449454 Y21.987492 Z-1.000000 I-0.449337 J-0.000000
G03 X18.779232 Y22.697045 Z-1.000000 I-3.986919 J-3.094608
G02 X18.271474 Y23.171070 Z-1.000000 I6.713614 J7.700332
G02 X18.325407 Y23.191289 Z-1.000000 I0.016973 J-0.051024
G02 X18.539952 Y23.016779 Z-1.000000 I-1.012140 J-1.463472
G03 X18.894730 Y22.721911 Z-1.000000 I2.367350 J2.487469
G03 X19.456636 Y22.353705 Z-1.000000 I4.268130 J5.900595
G03 X19.958029 Y22.123155 Z-1.000000 I1.366508 J2.311353
G02 X20.165606 Y22.216079 Z-1.000000 I0.129111 J-0.372335
G02 X20.288651 Y22.179823 Z-1.000000 I-0.000000 J-0.226920
G02 X20.348022 Y22.098352 Z-1.000000 I-0.075985 J-0.117742
G02 X20.346010 Y21.945744 Z-1.000000 I-0.271410 J-0.072739
G03 X20.231445 Y21.887531 Z-1.000000 I-0.010729 J-0.061395
G03 X20.149164 Y21.709569 Z-1.000000 I0.440481 J-0.311658
G02 X20.039203 Y21.517125 Z-1.000000 I-0.404352 J0.103407
G00 Z5.000000

(End cutting path id: path2)


(Start cutting path id: path2)
(Change tool to Default tool)

G00 Z5.000000
G00 X20.863405 Y19.288295

G01 Z-1.000000 F100.0(Penetrate)
G03 X20.866244 Y19.437969 Z-1.000000 I-0.585636 J0.085974 F3500.000000
G03 X20.799585 Y19.315241 Z-1.000000 I0.548118 J-0.150048
G00 Z5.000000

(End cutting path id: path2)


(Start cutting path id: path2)
(Change tool to Default tool)

G00 Z5.000000
G00 X22.997148 Y18.119189

G01 Z-1.000000 F100.0(Penetrate)
G03 X22.973314 Y18.202919 Z-1.000000 I-0.158989 J0.000000 F3500.000000
G03 X22.913404 Y18.147212 Z-1.000000 I0.074362 J-0.074362
G03 X22.922548 Y18.065147 Z-1.000000 I0.161609 J-0.023534
G03 X22.997148 Y18.119187 Z-1.000000 I-0.047932 J0.066167
G00 Z5.000000

(End cutting path id: path2)


(Start cutting path id: path2)
(Change tool to Default tool)

G00 Z5.000000
G00 X23.221466 Y20.345537

G01 Z-1.000000 F100.0(Penetrate)
G02 X23.123502 Y20.470250 Z-1.000000 I0.771904 J0.707172 F3500.000000
G02 X23.002505 Y20.672556 Z-1.000000 I1.920732 J1.286110
G03 X22.889177 Y20.880551 Z-1.000000 I-9.590397 J-5.090550
G03 X22.841619 Y20.960332 Z-1.000000 I-1.460673 J-0.816650
G02 X22.465719 Y21.814393 Z-1.000000 I2.624470 J1.664869
G02 X22.572966 Y21.954469 Z-1.000000 I0.107247 J0.028982
G03 X22.609101 Y21.969879 Z-1.000000 I-0.000000 J0.050072
G03 X22.650856 Y22.035669 Z-1.000000 I-0.142179 J0.136381
G03 X22.650233 Y22.078497 Z-1.000000 I-0.053767 J0.020636
G02 X22.757127 Y22.132109 Z-1.000000 I0.038500 J-0.289156
G02 X22.813306 Y22.091591 Z-1.000000 I-0.048573 J-0.126552
G03 X22.920293 Y21.900622 Z-1.000000 I0.574007 J0.375111
G02 X23.021277 Y21.766700 Z-1.000000 I-0.338429 J-0.360228
G02 X23.052210 Y21.644482 Z-1.000000 I-0.248257 J-0.127857
G03 X23.071490 Y21.512584 Z-1.000000 I0.534868 J0.010824
G03 X23.256094 Y20.908000 Z-1.000000 I11.584846 J3.206853
G02 X23.439147 Y20.308316 Z-1.000000 I-11.277693 J-3.770295
G02 X23.433415 Y20.267043 Z-1.000000 I-0.050621 J-0.014004
G02 X23.370707 Y20.245204 Z-1.000000 I-0.044590 J0.027086
G02 X23.221483 Y20.345523 Z-1.000000 I0.132866 J0.358783
G00 Z5.000000

(End cutting path id: path2)


(Start cutting path id: path2)
(Change tool to Default tool)

G00 Z5.000000
G00 X26.356685 Y19.037753

G01 Z-1.000000 F100.0(Penetrate)
G02 X26.243365 Y19.531134 Z-1.000000 I2.040659 J0.728402 F3500.000000
G02 X26.161184 Y20.829520 Z-1.000000 I14.226486 J1.552259
G03 X26.115266 Y21.820325 Z-1.000000 I-17.354579 J-0.307810
G03 X26.057152 Y22.216079 Z-1.000000 I-2.814677 J-0.211176
G02 X25.971786 Y22.608722 Z-1.000000 I74.542596 J16.412136
G02 X25.873835 Y23.070044 Z-1.000000 I103.428074 J22.201669
G03 X25.761534 Y23.524161 Z-1.000000 I-6.461513 J-1.356961
G03 X25.723990 Y23.595353 Z-1.000000 I-0.187911 J-0.053601
G02 X25.689237 Y23.666497 Z-1.000000 I0.128994 J0.107072
G02 X25.649230 Y23.936067 Z-1.000000 I1.940211 J0.425703
G02 X25.675431 Y24.184693 Z-1.000000 I0.682213 J0.053800
G02 X25.747820 Y24.267885 Z-1.000000 I0.127522 J-0.037872
G02 X25.927020 Y24.248904 Z-1.000000 I0.073515 J-0.161349
G02 X26.052940 Y24.041382 Z-1.000000 I-0.191762 J-0.258321
G03 X26.102975 Y23.823550 Z-1.000000 I1.642373 J0.262582
G03 X26.138760 Y23.756924 Z-1.000000 I0.182341 J0.055013
G02 X26.172919 Y23.689923 Z-1.000000 I-0.131842 J-0.109423
G02 X26.219660 Y23.440390 Z-1.000000 I-1.892535 J-0.483646
G03 X26.262418 Y23.186600 Z-1.000000 I2.732598 J0.329885
G03 X26.330422 Y22.929971 Z-1.000000 I2.861090 J0.620834
G02 X26.375923 Y22.671473 Z-1.000000 I-0.964678 J-0.303057
G02 X26.374272 Y21.935834 Z-1.000000 I-7.934912 J-0.350013
G03 X26.324866 Y19.790045 Z-1.000000 I41.947193 J-2.039281
G03 X26.380572 Y19.453326 Z-1.000000 I1.061792 J0.002693
G02 X26.434903 Y19.225627 Z-1.000000 I-1.220000 J-0.411437
G02 X26.440412 Y19.038275 Z-1.000000 I-0.816835 J-0.117774
G00 Z5.000000

(End cutting path id: path2)


(Start cutting path id: path2)
(Change tool to Default tool)

G00 Z5.000000

G01 Z-1.000000 F100.0(Penetrate)
G02 X26.511656 Y18.662833 Z-1.000000 I0.127296 J0.078674 F3500.000000
G02 X26.596281 Y18.598559 Z-1.000000 I-0.082529 J-0.061177
G00 Z5.000000

(End cutting path id: path2)


(Start cutting path id: path2)
(Change tool to Default tool)

G00 Z5.000000

G01 Z-1.000000 F100.0(Penetrate)
G02 X27.309299 Y19.567468 Z-1.000000 I0.337887 J-0.004842 F3500.000000
G02 X27.367788 Y19.675333 Z-1.000000 I0.384193 J-0.138537
G03 X27.427805 Y19.782537 Z-1.000000 I-0.358247 J0.270962
G03 X27.444608 Y19.871545 Z-1.000000 I-0.227340 J0.089008
G02 X27.468897 Y19.941894 Z-1.000000 I0.114020 J-0.000000
G02 X27.518808 Y19.966185 Z-1.000000 I0.049911 J-0.039130
G03 X27.591996 Y19.972704 Z-1.000000 I0.000000 J0.414120
G03 X27.688858 Y19.996725 Z-1.000000 I-0.134881 J0.751184
G02 X27.669198 Y19.924735 Z-1.000000 I-0.113390 J0.030965
G03 X27.584108 Y19.821302 Z-1.000000 I0.285292 J-0.321415
G02 X27.616219 Y19.593534 Z-1.000000 I-0.115527 J-0.115527
G02 X27.359529 Y19.369182 Z-1.000000 I-0.433880 J0.237399
G02 X27.289289 Y19.457672 Z-1.000000 I0.094117 J0.074697
G00 Z5.000000

(End cutting path id: path2)


(Start cutting path id: path2)
(Change tool to Default tool)

G00 Z5.000000

G01 Z-1.000000 F100.0(Penetrate)
G02 X27.885557 Y18.802162 Z-1.000000 I0.045874 J0.028357 F3500.000000
G02 X27.914653 Y18.840715 Z-1.000000 I0.064069 J-0.018098
G02 X27.967833 Y18.792005 Z-1.000000 I-0.041734 J-0.045597
G02 X27.936833 Y18.744889 Z-1.000000 I-0.051304 J0.000000
G00 Z5.000000

(End cutting path id: path2)


(Start cutting path id: path2)
(Change tool to Default tool)

G00 Z5.000000

G01 Z-1.000000 F100.0(Penetrate)
G02 X28.092258 Y18.954854 Z-1.000000 I0.418639 J0.000000 F3500.000000
G02 X28.127339 Y18.999787 Z-1.000000 I0.078282 J-0.024957
G03 X28.120939 Y19.107521 Z-1.000000 I-0.117515 J-0.006976
G02 X28.100086 Y19.162363 Z-1.000000 I0.069801 J0.057926
G03 X28.177169 Y19.308236 Z-1.000000 I-0.224658 J0.103987
G02 X28.194179 Y19.432406 Z-1.000000 I0.461704 J0.000000
G02 X28.414579 Y20.158484 Z-1.000000 I16.301283 J-4.551734
G03 X28.730681 Y21.353756 Z-1.000000 I-10.031591 J3.292391
G03 X28.805073 Y22.085277 Z-1.000000 I-3.659920 J0.741739
G02 X28.888892 Y22.674193 Z-1.000000 I2.153108 J-0.006023
G02 X28.980532 Y22.695438 Z-1.000000 I0.051731 J-0.014873
G02 X29.193359 Y22.232438 Z-1.000000 I-0.629702 J-0.569870
G02 X29.142638 Y21.417450 Z-1.000000 I-2.163482 J-0.274427
G02 X28.903002 Y20.671715 Z-1.000000 I-6.281870 J1.607259
G02 X28.512317 Y19.798852 Z-1.000000 I-9.006414 J3.507318
G03 X28.351906 Y19.444121 Z-1.000000 I3.801411 J-1.932654
G03 X28.334138 Y19.351491 Z-1.000000 I0.232574 J-0.092630
G02 X28.318769 Y19.260971 Z-1.000000 I-0.274263 J0.000000
G02 X28.282038 Y19.202503 Z-1.000000 I-0.146350 J0.051170
G03 X28.245574 Y19.142827 Z-1.000000 I0.105354 J-0.105354
G03 X28.209938 Y18.978671 Z-1.000000 I0.818502 J-0.263630
G02 X28.130925 Y18.805098 Z-1.000000 I-0.309277 J0.036017
G00 Z5.000000

(End cutting path id: path2)


(Start cutting path id: path2)
(Change tool to Default tool)

G00 Z5.000000

G01 Z-1.000000 F100.0(Penetrate)
G02 X27.938841 Y18.257542 Z-1.000000 I0.433921 J-0.208649 F3500.000000
G02 X27.955946 Y18.203150 Z-1.000000 I-0.080805 J0.000000
G02 X27.863740 Y18.075286 Z-1.000000 I-0.891460 J0.545676
G00 Z5.000000

(End cutting path id: path2)


(Start cutting path id: path2)
(Change tool to Default tool)

G00 Z5.000000
G00 X27.470764 Y16.826817

G01 Z-1.000000 F100.0(Penetrate)
G02 X27.507290 Y16.871630 Z-1.000000 I0.189369 J-0.117056 F3500.000000
G02 X27.549244 Y16.826817 Z-1.000000 I-0.098025 J-0.043213
G02 X27.533483 Y16.790258 Z-1.000000 I-0.050281 J-0.000000
G02 X27.493834 Y16.774497 Z-1.000000 I-0.039649 J0.041990
G00 Z5.000000

(End cutting path id: path2)


(Start cutting path id: path2)
(Change tool to Default tool)

G00 Z5.000000

G01 Z-1.000000 F100.0(Penetrate)
G03 X26.483991 Y16.387427 Z-1.000000 I-0.053332 J-0.000000 F3500.000000
G03 X26.400606 Y16.433616 Z-1.000000 I-0.156512 J-0.184191
G02 X26.203388 Y16.600357 Z-1.000000 I0.101643 J0.320225
G02 X26.173053 Y16.876707 Z-1.000000 I0.346314 J0.177854
G03 X26.167716 Y16.975828 Z-1.000000 I-0.157583 J0.041219
G03 X26.042821 Y17.219144 Z-1.000000 I-1.155870 J-0.439600
G02 X25.914643 Y17.468748 Z-1.000000 I1.059414 J0.701749
G02 X25.828188 Y17.782884 Z-1.000000 I1.601431 J0.609703
G03 X25.763743 Y18.106960 Z-1.000000 I-7.089132 J-1.241271
G03 X25.714783 Y18.291864 Z-1.000000 I-2.358176 J-0.525485
G02 X25.526545 Y19.025827 Z-1.000000 I7.637883 J2.349994
G02 X25.406861 Y19.783070 Z-1.000000 I8.011556 J1.654323
G03 X25.337419 Y20.304298 Z-1.000000 I-11.582800 J-1.277917
G03 X25.276046 Y20.620238 Z-1.000000 I-4.315309 J-0.674336
G02 X24.997908 Y21.870588 Z-1.000000 I63.271937 J14.730829
G02 X24.985353 Y21.990628 Z-1.000000 I0.564263 J0.119694
G03 X24.968311 Y22.095728 Z-1.000000 I-0.331366 J0.000200
G03 X24.937123 Y22.135116 Z-1.000000 I-0.069949 J-0.023344
G02 X24.902964 Y22.174928 Z-1.000000 I0.045502 J0.073601
G02 X24.852593 Y22.334416 Z-1.000000 I0.809553 J0.343379
G03 X24.806020 Y22.500114 Z-1.000000 I-1.329642 J-0.284332
G03 X24.747277 Y22.634673 Z-1.000000 I-0.933452 J-0.327404
G02 X24.643616 Y22.887237 Z-1.000000 I1.253559 J0.662058
G02 X24.488695 Y23.491731 Z-1.000000 I7.089545 J2.139023
G02 X24.506143 Y23.590684 Z-1.000000 I0.131442 J0.027838
G02 X24.565045 Y23.614116 Z-1.000000 I0.045372 J-0.028305
G03 X24.766219 Y23.665832 Z-1.000000 I0.054073 J0.206795
G03 X24.775008 Y23.813282 Z-1.000000 I-0.074386 J0.078421
G01 X24.770407 Y23.852552 Z-1.000000
G02 X25.098808 Y23.627390 Z-1.000000 I-0.053996 J-0.367908
G02 X25.397898 Y22.213450 Z-1.000000 I-4.998326 J-1.795897
G03 X25.459613 Y21.776040 Z-1.000000 I3.233288 J0.233134
G03 X25.522064 Y21.626134 Z-1.000000 I0.428714 J0.090640
G02 X25.682755 Y21.223067 Z-1.000000 I-0.904816 J-0.594289
G02 X25.728409 Y20.476350 Z-1.000000 I-3.167118 J-0.568389
G03 X25.719655 Y20.280052 Z-1.000000 I8.939066 J-0.497001
G03 X25.704649 Y19.769990 Z-1.000000 I60.962083 J-2.048713
G03 X25.741615 Y19.272307 Z-1.000000 I2.514209 J-0.063468
G03 X25.839935 Y18.998226 Z-1.000000 I0.843174 J0.147793
G02 X25.953126 Y18.724095 Z-1.000000 I-1.045708 J-0.592216
G02 X26.119978 Y17.977928 Z-1.000000 I-7.702280 J-2.114060
G02 X26.238698 Y17.218395 Z-1.000000 I-22.217283 J-3.861759
G02 X26.245556 Y17.073704 Z-1.000000 I-0.792499 J-0.110069
G03 X26.288961 Y16.851424 Z-1.000000 I0.483880 J-0.020890
G03 X26.471682 Y16.579191 Z-1.000000 I0.922677 J0.421858
G03 X26.644691 Y16.483367 Z-1.000000 I0.235279 J0.220701
G03 X26.727115 Y16.528941 Z-1.000000 I0.014122 J0.071782
G03 X26.743746 Y16.762923 Z-1.000000 I-0.376021 J0.144310
G03 X26.590065 Y17.129051 Z-1.000000 I-1.125125 J-0.256951
G02 X26.565490 Y17.201002 Z-1.000000 I0.133881 J0.085900
G02 X26.553205 Y17.547635 Z-1.000000 I3.299948 J0.290486
G03 X26.558334 Y17.899456 Z-1.000000 I-71.080548 J1.212245
G03 X26.559205 Y18.043336 Z-1.000000 I-11.886945 J0.143880
G02 X26.613447 Y18.103673 Z-1.000000 I0.060715 J-0.000032
G02 X26.681200 Y18.056416 Z-1.000000 I0.006710 J-0.062578
G03 X26.728384 Y17.944006 Z-1.000000 I0.391842 J0.098369
G01 X26.761200 Y17.925609 Z-1.000000
G02 X26.840710 Y17.755559 Z-1.000000 I-0.575533 J-0.269110
G03 X26.984815 Y17.173617 Z-1.000000 I5.372830 J1.021645
G02 X27.106513 Y17.023037 Z-1.000000 I-0.324596 J-0.212983
G03 X27.158513 Y16.916680 Z-1.000000 I0.347782 J0.104147
G03 X27.252643 Y16.817703 Z-1.000000 I0.393775 J0.280244
G03 X27.100622 Y16.639277 Z-1.000000 I0.094867 J-0.377876
G03 X26.951724 Y16.508375 Z-1.000000 I0.460267 J-0.673674
G02 X26.806494 Y16.376861 Z-1.000000 I-0.684225 J0.609642
G02 X26.742081 Y16.355916 Z-1.000000 I-0.064413 J0.088572
G03 X26.669629 Y16.348642 Z-1.000000 I0.000000 J-0.364481
G03 X26.585516 Y16.324156 Z-1.000000 I0.104813 J-0.516753
G02 X26.522439 Y16.321011 Z-1.000000 I-0.036338 J0.094682
G00 Z5.000000

(End cutting path id: path2)


(Start cutting path id: path2)
(Change tool to Default tool)

G00 Z5.000000
G00 X25.626264 Y15.508487

G01 Z-1.000000 F100.0(Penetrate)
G02 X25.525428 Y15.550152 Z-1.000000 I0.033523 J0.223984 F3500.000000
G02 X25.447723 Y15.640126 Z-1.000000 I0.159213 J0.216044
G03 X25.379934 Y15.749439 Z-1.000000 I-0.858963 J-0.457000
G03 X25.234997 Y15.937329 Z-1.000000 I-2.694890 J-1.928969
G02 X24.836386 Y16.661090 Z-1.000000 I1.688079 J1.401358
G02 X24.596517 Y17.903556 Z-1.000000 I4.894140 J1.589242
G03 X24.504130 Y18.570582 Z-1.000000 I-4.790721 J-0.323633
G03 X24.227790 Y19.652261 Z-1.000000 I-12.912209 J-2.722582
G02 X24.032252 Y20.379720 Z-1.000000 I12.085154 J3.638443
G02 X23.968058 Y20.748001 Z-1.000000 I3.024674 J0.716961
G03 X23.878727 Y21.198650 Z-1.000000 I-2.743545 J-0.309667
G03 X23.714572 Y21.632922 Z-1.000000 I-2.710825 J-0.776532
G02 X23.553692 Y22.278255 Z-1.000000 I1.515432 J0.720513
G02 X23.670902 Y22.606581 Z-1.000000 I0.460592 J0.020657
G03 X23.756630 Y22.718945 Z-1.000000 I-0.668365 J0.598815
G03 X23.798712 Y22.804721 Z-1.000000 I-0.344450 J0.222197
G02 X23.882622 Y22.873201 Z-1.000000 I0.098176 J-0.034650
G01 X23.938958 Y22.824121 Z-1.000000
G03 X23.951227 Y22.754633 Z-1.000000 I0.202913 J0.000000
G03 X24.067978 Y22.470142 Z-1.000000 I3.621551 J1.320029
G02 X24.169746 Y22.181312 Z-1.000000 I-1.539243 J-0.704687
G02 X24.221023 Y21.866209 Z-1.000000 I-1.783386 J-0.451938
G03 X24.271666 Y21.551800 Z-1.000000 I1.864272 J0.139004
G03 X24.351631 Y21.343778 Z-1.000000 I0.888235 J0.222062
G02 X24.650210 Y20.708114 Z-1.000000 I-6.220638 J-3.309864
G02 X24.774822 Y20.312115 Z-1.000000 I-2.277985 J-0.934435
G03 X24.836477 Y20.070358 Z-1.000000 I4.162216 J0.932741
G03 X24.930450 Y19.768758 Z-1.000000 I6.575890 J1.883491
G02 X25.078708 Y19.131331 Z-1.000000 I-3.214284 J-1.083560
G02 X25.142240 Y18.172482 Z-1.000000 I-7.249886 J-0.961896
G03 X25.212504 Y17.645838 Z-1.000000 I2.015062 J0.000837
G03 X25.487303 Y16.900251 Z-1.000000 I4.350018 J1.179841
G02 X25.586842 Y16.627652 Z-1.000000 I-1.438862 J-0.679870
G02 X25.613294 Y16.424373 Z-1.000000 I-0.767854 J-0.203279
G03 X25.645886 Y16.229618 Z-1.000000 I0.598188 J-0.000000
G03 X25.717940 Y16.120455 Z-1.000000 I0.248195 J0.085462
G02 X25.804317 Y16.017643 Z-1.000000 I-0.331081 J-0.365848
G02 X25.822586 Y15.954380 Z-1.000000 I-0.100403 J-0.063263
G01 X25.849834 Y15.917945 Z-1.000000
G03 X25.953394 Y15.915840 Z-1.000000 I0.055641 J0.188839
G02 X26.027361 Y15.867592 Z-1.000000 I0.014648 J-0.058365
G02 X25.997854 Y15.655168 Z-1.000000 I-0.349831 J-0.059669
G02 X25.893437 Y15.506206 Z-1.000000 I-0.495586 J0.236312
G02 X25.827804 Y15.482512 Z-1.000000 I-0.057560 J0.056692
G02 X25.744243 Y15.492077 Z-1.000000 I0.290620 J2.908730
G02 X25.626255 Y15.508482 Z-1.000000 I0.778004 J6.027990
G00 Z5.000000

(End cutting path id: path2)


(Start cutting path id: path2)
(Change tool to Default tool)

G00 Z5.000000

G01 Z-1.000000 F100.0(Penetrate)
G02 X24.642968 Y14.453059 Z-1.000000 I0.326903 J0.401699 F3500.000000
G02 X24.510970 Y14.629245 Z-1.000000 I1.838472 J1.514912
G03 X24.381190 Y14.808078 Z-1.000000 I-2.947565 J-2.002560
G03 X24.288188 Y14.917022 Z-1.000000 I-1.184310 J-0.916836
G02 X23.554081 Y15.942826 Z-1.000000 I3.457320 J3.249777
G02 X23.186935 Y16.992511 Z-1.000000 I3.257448 J1.728403
G03 X22.791883 Y18.310882 Z-1.000000 I-6.391474 J-1.196839
G03 X22.283600 Y19.146118 Z-1.000000 I-3.026331 J-1.269400
G02 X22.181768 Y19.301928 Z-1.000000 I0.610200 J0.509988
G02 X22.159980 Y19.394652 Z-1.000000 I0.186411 J0.092724
G03 X22.139725 Y19.475027 Z-1.000000 I-0.169597 J0.000000
G01 X22.105820 Y19.495283 Z-1.000000
G02 X22.108520 Y19.601614 Z-1.000000 I0.192437 J-0.004913
G03 X22.036810 Y19.675664 Z-1.000000 I-0.047726 J-0.046220
G02 X21.931868 Y19.685868 Z-1.000000 I-0.038179 J0.152086
G02 X21.873583 Y19.752424 Z-1.000000 I0.047061 J0.100011
G03 X21.828132 Y19.856244 Z-1.000000 I-0.514006 J-0.163166
G03 X21.659358 Y20.128377 Z-1.000000 I-3.739402 J-2.130736
G02 X21.499092 Y20.401190 Z-1.000000 I2.145825 J1.444056
G02 X21.479742 Y20.482022 Z-1.000000 I0.159152 J0.080832
G03 X21.467334 Y20.566610 Z-1.000000 I-0.294534 J0.000000
G03 X21.320525 Y21.013075 Z-1.000000 I-8.530007 J-2.557515
G02 X21.164663 Y21.672939 Z-1.000000 I2.851982 J1.021986
G02 X21.222465 Y21.827578 Z-1.000000 I0.178320 J0.021468
G02 X21.299518 Y21.865946 Z-1.000000 I0.106892 J-0.118111
G01 X21.322772 Y21.846708 Z-1.000000
G03 X21.409382 Y21.861678 Z-1.000000 I-0.020489 J0.118580
G02 X21.503887 Y21.898368 Z-1.000000 I0.088882 J-0.088882
G02 X21.690447 Y21.849088 Z-1.000000 I-0.020371 J-0.454886
G02 X21.829369 Y21.709962 Z-1.000000 I-0.144464 J-0.283174
G02 X21.944472 Y21.349343 Z-1.000000 I-1.050504 J-0.533982
G03 X22.073184 Y20.928361 Z-1.000000 I1.466010 J0.218053
G03 X22.383863 Y20.429846 Z-1.000000 I2.380858 J1.137706
G03 X23.003678 Y19.800743 Z-1.000000 I3.181189 J2.514339
G03 X23.273961 Y19.704568 Z-1.000000 I0.270283 J0.331704
G02 X23.341172 Y19.678603 Z-1.000000 I0.000000 J-0.099972
G02 X23.515907 Y19.484833 Z-1.000000 I-0.881217 J-0.970319
G02 X23.657420 Y19.222097 Z-1.000000 I-0.861197 J-0.633332
G02 X23.985836 Y18.213363 Z-1.000000 I-12.671273 J-4.683240
G02 X24.028998 Y18.001195 Z-1.000000 I-1.394004 J-0.394062
G02 X24.101724 Y17.297711 Z-1.000000 I-15.333381 J-1.940658
G03 X24.174432 Y16.597486 Z-1.000000 I15.042614 J1.208059
G03 X24.198444 Y16.539027 Z-1.000000 I0.120589 J0.015372
G02 X24.229486 Y16.482477 Z-1.000000 I-0.171026 J-0.130676
G02 X24.275204 Y16.329735 Z-1.000000 I-1.232401 J-0.452089
G03 X24.418963 Y15.924699 Z-1.000000 I1.890376 J0.442921
G03 X24.757508 Y15.336297 Z-1.000000 I4.357005 J2.115263
G02 X24.917697 Y15.070695 Z-1.000000 I-2.598914 J-1.748559
G02 X24.933055 Y15.009682 Z-1.000000 I-0.113517 J-0.061013
G03 X24.952345 Y14.952637 Z-1.000000 I0.093993 J-0.000000
G03 X25.090024 Y14.804123 Z-1.000000 I0.844905 J0.645191
G02 X25.191696 Y14.603552 Z-1.000000 I-0.204827 J-0.229885
G02 X25.125894 Y14.429067 Z-1.000000 I-0.210783 J-0.020159
G02 X24.904309 Y14.325890 Z-1.000000 I-0.267295 J0.284521
G02 X24.715715 Y14.380707 Z-1.000000 I-0.029511 J0.250301
G01 X24.715759 Y14.380711 Z-1.000000
G00 Z5.000000

(End cutting path id: path2)


(Start cutting path id: path2)
(Change tool to Default tool)

G00 Z5.000000

G01 Z-1.000000 F100.0(Penetrate)
G02 X23.378820 Y13.389164 Z-1.000000 I0.541530 J1.043357 F3500.000000
G02 X22.995332 Y13.823332 Z-1.000000 I2.432591 J2.535081
G03 X22.792859 Y14.087093 Z-1.000000 I-9.705279 J-7.240535
G03 X22.726703 Y14.163501 Z-1.000000 I-0.877932 J-0.693296
G02 X22.295381 Y14.663099 Z-1.000000 I5.139561 J4.873168
G02 X22.264626 Y14.752078 Z-1.000000 I0.113338 J0.088979
G01 X22.257516 Y14.776604 Z-1.000000
G03 X22.042254 Y15.103393 Z-1.000000 I-9.093496 J-5.755770
G02 X21.821207 Y15.428840 Z-1.000000 I40.283719 J27.598899
G02 X21.767558 Y15.511354 Z-1.000000 I2.534753 J1.706749
G03 X21.714560 Y15.594305 Z-1.000000 I-5.149605 J-3.231697
G03 X21.511757 Y15.904666 Z-1.000000 I-71.907705 J-46.766159
G02 X21.010196 Y16.766367 Z-1.000000 I7.745426 J5.085110
G02 X20.956552 Y16.988806 Z-1.000000 I0.434353 J0.222439
G03 X20.934765 Y17.118971 Z-1.000000 I-0.399734 J-0.000000
G01 X20.904232 Y17.140749 Z-1.000000
G02 X20.851912 Y17.217969 Z-1.000000 I0.087215 J0.059085
G03 X20.837361 Y17.291110 Z-1.000000 I-0.191093 J-0.000000
G03 X20.751529 Y17.460254 Z-1.000000 I-1.141726 J-0.473015
G02 X20.678435 Y17.627782 Z-1.000000 I0.580399 J0.352944
G02 X20.681939 Y17.705555 Z-1.000000 I0.118512 J0.033626
G03 X20.680418 Y17.746764 Z-1.000000 I-0.049059 J0.018822
G02 X20.551878 Y17.787229 Z-1.000000 I-0.039149 J0.063354
G02 X20.175791 Y18.893573 Z-1.000000 I7.327662 J3.108037
G03 X20.109578 Y19.098224 Z-1.000000 I-1.774458 J-0.461072
G03 X20.022864 Y19.285995 Z-1.000000 I-1.579953 J-0.615726
G02 X19.788061 Y19.918246 Z-1.000000 I2.157411 J1.160936
G02 X19.686857 Y20.806373 Z-1.000000 I4.202055 J0.928664
G02 X19.777872 Y21.163277 Z-1.000000 I0.718864 J0.006738
G02 X19.962421 Y21.300430 Z-1.000000 I0.244640 J-0.136442
G03 X20.173169 Y21.413753 Z-1.000000 I-0.093805 J0.427079
G03 X20.212791 Y21.543457 Z-1.000000 I-0.097834 J0.100790
G02 X20.224429 Y21.588072 Z-1.000000 I0.050573 J0.010633
G01 X20.263281 Y21.601287 Z-1.000000
G03 X20.312315 Y21.608122 Z-1.000000 I0.014734 J0.073608
G02 X20.410591 Y21.713087 Z-1.000000 I0.138175 J-0.144812
G02 X20.460971 Y21.645187 Z-1.000000 I-0.050031 J-0.037127
G03 X20.446656 Y21.493849 Z-1.000000 I0.342710 J-0.108764
G03 X20.561342 Y20.803540 Z-1.000000 I7.564150 J0.902010
G03 X20.604634 Y20.686652 Z-1.000000 I0.424429 J0.090734
G03 X20.642102 Y20.655291 Z-1.000000 I0.058558 J0.031899
G02 X20.694942 Y20.465297 Z-1.000000 I-0.564204 J-0.156932
G03 X20.713112 Y20.296558 Z-1.000000 I0.792600 J0.000000
G03 X20.773422 Y20.105077 Z-1.000000 I1.084055 J0.236202
G02 X20.833054 Y19.913455 Z-1.000000 I-0.985257 J-0.411700
G02 X20.851912 Y19.732426 Z-1.000000 I-0.859492 J-0.181029
G03 X20.876810 Y19.578855 Z-1.000000 I0.486074 J-0.000000
G01 X20.909102 Y19.560696 Z-1.000000
G02 X20.965188 Y19.538841 Z-1.000000 I0.011946 J-0.052238
G02 X21.143073 Y19.220785 Z-1.000000 I-1.617784 J-1.113579
G03 X21.247092 Y19.036027 Z-1.000000 I1.013730 J0.449071
G03 X21.434710 Y18.802201 Z-1.000000 I1.819137 J1.267459
G02 X21.835918 Y18.225125 Z-1.000000 I-1.902814 J-1.750922
G02 X22.321164 Y17.062273 Z-1.000000 I-7.405254 J-3.772808
G03 X22.455895 Y16.703512 Z-1.000000 I4.570590 J1.511785
G03 X22.510441 Y16.613408 Z-1.000000 I0.335162 J0.141334
G02 X22.565366 Y16.526063 Z-1.000000 I-0.310991 J-0.256501
G02 X22.578571 Y16.466028 Z-1.000000 I-0.129867 J-0.060035
G03 X22.593744 Y16.406332 Z-1.000000 I0.125021 J-0.000000
G03 X22.704288 Y16.234695 Z-1.000000 I1.206725 J0.655785
G02 X22.818008 Y16.060900 Z-1.000000 I-1.236244 J-0.933019
G02 X22.992015 Y15.723075 Z-1.000000 I-4.516300 J-2.539984
G03 X23.412866 Y14.926179 Z-1.000000 I8.695433 J4.082592
G03 X23.795081 Y14.361244 Z-1.000000 I4.740062 J2.795195
G02 X23.929043 Y14.171249 Z-1.000000 I-2.155383 J-1.661944
G02 X23.938969 Y14.137457 Z-1.000000 I-0.052557 J-0.033792
G03 X23.945708 Y14.101739 Z-1.000000 I0.098020 J-0.000000
G03 X24.042110 Y13.873876 Z-1.000000 I4.227581 J1.654231
G03 X24.232984 Y13.611876 Z-1.000000 I0.734647 J0.334683
G03 X24.370634 Y13.574488 Z-1.000000 I0.105281 J0.115525
G01 X24.401051 Y13.536948 Z-1.000000
G02 X24.247487 Y13.296838 Z-1.000000 I-0.862990 J0.382769
G02 X23.974313 Y13.143849 Z-1.000000 I-0.353011 J0.309949
G02 X23.651193 Y13.194003 Z-1.000000 I-0.087079 J0.504930
G00 Z5.000000

(End cutting path id: path2)


(Start cutting path id: path2)
(Change tool to Default tool)

G00 Z5.000000
G00 X21.988480 Y10.770425

G01 Z-1.000000 F100.0(Penetrate)
G03 X22.495282 Y11.329834 Z-1.000000 I-4.684052 J4.752836 F3500.000000
G02 X22.400988 Y11.419692 Z-1.000000 I0.018739 J0.121290
G02 X22.369272 Y11.509047 Z-1.000000 I0.110013 J0.089355
G03 X22.338258 Y11.612481 Z-1.000000 I-0.187989 J-0.000000
G03 X22.156193 Y11.832427 Z-1.000000 I-1.097547 J-0.723192
G02 X21.958416 Y12.051842 Z-1.000000 I1.543554 J1.590176
G02 X21.705062 Y12.405518 Z-1.000000 I3.776933 J2.973170
G03 X21.464183 Y12.769821 Z-1.000000 I-23.263787 J-15.120313
G03 X21.370746 Y12.902586 Z-1.000000 I-3.180726 J-2.139274
G02 X21.278448 Y13.036035 Z-1.000000 I2.222140 J1.635562
G02 X21.133021 Y13.268847 Z-1.000000 I6.641394 J4.310387
G03 X20.745177 Y13.891411 Z-1.000000 I-19.487130 J-11.707958
G03 X20.119628 Y14.838537 Z-1.000000 I-45.739072 J-29.529200
G02 X20.042360 Y14.974786 Z-1.000000 I0.830159 J0.560825
G02 X19.966619 Y15.165556 Z-1.000000 I1.558254 J0.729091
G03 X19.888798 Y15.343547 Z-1.000000 I-0.983435 J-0.323966
G01 X19.857868 Y15.361767 Z-1.000000
G02 X19.779418 Y15.518136 Z-1.000000 I0.528133 J0.264940
G03 X19.731325 Y15.664759 Z-1.000000 I-0.749394 J-0.164605
G03 X19.696778 Y15.704354 Z-1.000000 I-0.081330 J-0.036093
G02 X19.664072 Y15.742929 Z-1.000000 I0.043072 J0.069670
G02 X19.648218 Y15.822681 Z-1.000000 I0.195944 J0.080405
G03 X19.628715 Y15.904328 Z-1.000000 I-0.182907 J-0.000538
G03 X19.530491 Y16.056747 Z-1.000000 I-0.762359 J-0.383432
G03 X19.404004 Y16.137640 Z-1.000000 I-0.184115 J-0.148552
G03 X19.291762 Y16.116707 Z-1.000000 I-0.033326 J-0.132688
G03 X19.211569 Y16.013180 Z-1.000000 I0.129084 J-0.182812
G03 X19.193802 Y15.858148 Z-1.000000 I0.297197 J-0.112594
G03 X19.563974 Y14.560690 Z-1.000000 I4.660041 J0.628001
G03 X20.305413 Y13.381510 Z-1.000000 I4.572115 J2.052142
G02 X21.037269 Y12.236388 Z-1.000000 I-3.944701 J-3.327514
G02 X21.217873 Y11.426236 Z-1.000000 I-1.744510 J-0.814104
G03 X21.236291 Y11.288247 Z-1.000000 I0.534300 J0.001094
G03 X21.305663 Y11.100648 Z-1.000000 I1.064302 J0.286938
G02 X21.349493 Y10.913635 Z-1.000000 I-0.406733 J-0.193969
G02 X21.312763 Y10.641047 Z-1.000000 I-0.923989 J-0.014265
G02 X21.228270 Y10.366388 Z-1.000000 I-9.096616 J2.648064
G02 X21.193510 Y10.273355 Z-1.000000 I-1.074858 J0.348587
G03 X21.202912 Y10.213745 Z-1.000000 I0.052457 J-0.022272
G03 X21.272910 Y10.181795 Z-1.000000 I0.069998 J0.060702
G03 X21.376035 Y10.218761 Z-1.000000 I-0.000000 J0.162327
G03 X21.988464 Y10.770429 Z-1.000000 I-5.838054 J7.096840
G01 X21.988480 Y10.770425 Z-1.000000
G00 Z5.000000

(End cutting path id: path2)


(Start cutting path id: path2)
(Change tool to Default tool)

G00 Z5.000000

G01 Z-1.000000 F100.0(Penetrate)
G03 X20.953416 Y10.097426 Z-1.000000 I-0.481361 J0.092018 F3500.000000
G03 X20.574060 Y11.018959 Z-1.000000 I-7.385553 J-2.501468
G03 X20.039779 Y11.934972 Z-1.000000 I-6.481321 J-3.166524
G03 X19.799802 Y12.146822 Z-1.000000 I-0.541902 J-0.372006
G02 X19.669364 Y12.317291 Z-1.000000 I0.115651 J0.223632
G02 X19.726962 Y12.484002 Z-1.000000 I0.166164 J0.035897
G03 X19.780931 Y12.612276 Z-1.000000 I-0.096271 J0.115995
G03 X19.681312 Y13.042527 Z-1.000000 I-1.512988 J-0.123655
G02 X19.573402 Y13.364445 Z-1.000000 I3.159754 J1.238227
G02 X19.286054 Y14.452089 Z-1.000000 I35.859196 J10.055525
G03 X18.938840 Y15.811368 Z-1.000000 I-98.616383 J-24.466536
G03 X18.829928 Y16.187683 Z-1.000000 I-7.662818 J-2.013841
G02 X18.772462 Y16.413965 Z-1.000000 I1.927549 J0.609950
G02 X18.758988 Y16.554682 Z-1.000000 I0.728039 J0.140717
G03 X18.742185 Y16.694507 Z-1.000000 I-0.590154 J0.000000
G03 X18.654342 Y16.983780 Z-1.000000 I-2.641991 J-0.644309
G02 X18.563007 Y17.272472 Z-1.000000 I3.229648 J1.180578
G02 X18.549142 Y17.375463 Z-1.000000 I0.391433 J0.105124
G03 X18.536214 Y17.479071 Z-1.000000 I-0.440140 J-0.002309
G03 X18.360857 Y18.134885 Z-1.000000 I-18.052073 J-4.475567
G02 X18.178451 Y18.790259 Z-1.000000 I40.520393 J11.630825
G02 X18.128062 Y18.998215 Z-1.000000 I4.026346 J1.085699
G03 X18.079220 Y19.206539 Z-1.000000 I-5.729635 J-1.233432
G03 X18.028572 Y19.390292 Z-1.000000 I-4.527001 J-1.148929
G02 X17.991192 Y19.575563 Z-1.000000 I1.003652 J0.298903
G02 X17.974142 Y19.888890 Z-1.000000 I2.870518 J0.313327
G02 X18.014968 Y20.183324 Z-1.000000 I1.082121 J0.000000
G02 X18.085199 Y20.281658 Z-1.000000 I0.172088 J-0.048659
G03 X18.193647 Y20.361809 Z-1.000000 I-1.257064 J1.814308
G03 X18.259383 Y20.418807 Z-1.000000 I-0.569213 J0.722883
G02 X18.331611 Y20.458446 Z-1.000000 I0.110694 J-0.116076
G02 X18.577117 Y20.497297 Z-1.000000 I0.350117 J-1.417316
G02 X18.788604 Y20.457318 Z-1.000000 I0.030151 J-0.419865
G02 X18.867634 Y20.358618 Z-1.000000 I-0.062578 J-0.131096
G03 X18.914063 Y20.205520 Z-1.000000 I1.122194 J0.256728
G03 X18.992698 Y20.030334 Z-1.000000 I1.549815 J0.590422
G02 X19.060908 Y19.852346 Z-1.000000 I-0.744189 J-0.387260
G02 X19.134213 Y19.480943 Z-1.000000 I-3.203621 J-0.825242
G03 X19.203496 Y19.110323 Z-1.000000 I3.959305 J0.548362
G03 X19.238267 Y19.040516 Z-1.000000 I0.166361 J0.039301
G02 X19.836990 Y17.917681 Z-1.000000 I-2.437341 J-2.020694
G02 X19.713711 Y17.432720 Z-1.000000 I-0.469418 J-0.138822
G01 X19.713453 Y17.410707 Z-1.000000
G03 X19.771801 Y17.371840 Z-1.000000 I0.115605 J0.110319
G02 X19.831720 Y17.320943 Z-1.000000 I-0.042470 J-0.110716
G02 X19.857771 Y17.224711 Z-1.000000 I-0.164713 J-0.096232
G03 X19.904482 Y16.942920 Z-1.000000 I0.873320 J0.000000
G03 X20.121201 Y16.451965 Z-1.000000 I2.917854 J0.994696
G02 X20.196488 Y16.311830 Z-1.000000 I-7.067175 J-3.887084
G02 X20.375103 Y15.967977 Z-1.000000 I-42.398749 J-22.242464
G03 X20.563396 Y15.641512 Z-1.000000 I3.484689 J1.792309
G02 X20.770792 Y15.366962 Z-1.000000 I-1.796365 J-1.220368
G03 X20.918777 Y15.123117 Z-1.000000 I1.666237 J0.844383
G03 X21.136453 Y14.856813 Z-1.000000 I2.207234 J1.582067
G02 X21.362809 Y14.599156 Z-1.000000 I-4.517464 J-4.196917
G01 X21.373656 Y14.571164 Z-1.000000
G03 X21.558268 Y14.345066 Z-1.000000 I2.860093 J2.335333
G02 X21.728576 Y14.145798 Z-1.000000 I-1.949040 J-1.838189
G02 X21.741398 Y14.108256 Z-1.000000 I-0.048547 J-0.037542
G03 X21.752004 Y14.068805 Z-1.000000 I0.078674 J-0.000000
G03 X21.943941 Y13.758801 Z-1.000000 I5.419274 J3.140885
G02 X22.126611 Y13.442403 Z-1.000000 I-2.547713 J-1.681838
G02 X22.238235 Y13.170322 Z-1.000000 I-1.769268 J-0.884795
G03 X22.342347 Y12.893736 Z-1.000000 I3.114997 J1.014652
G03 X22.532761 Y12.483533 Z-1.000000 I7.054508 J3.025371
G02 X22.705843 Y12.071387 Z-1.000000 I-3.008986 J-1.506047
G02 X22.735535 Y11.893681 Z-1.000000 I-0.516931 J-0.177706
G03 X22.778668 Y11.761721 Z-1.000000 I0.223424 J-0.000000
G03 X22.853262 Y11.732838 Z-1.000000 I0.059850 J0.043806
G01 X22.970989 Y11.756718 Z-1.000000
G03 X22.757821 Y11.570342 Z-1.000000 I0.250788 J-0.337529
G03 X22.734249 Y11.496572 Z-1.000000 I0.109955 J-0.075785
G02 X22.661061 Y11.104962 Z-1.000000 I-1.181008 J0.018076
G02 X22.422634 Y10.654161 Z-1.000000 I-1.813225 J0.670554
G02 X22.297059 Y10.527862 Z-1.000000 I-0.444911 J0.316783
G02 X22.127194 Y10.441227 Z-1.000000 I-0.366099 J0.507965
G03 X21.951821 Y10.356135 Z-1.000000 I0.230310 J-0.697936
G03 X21.528678 Y10.045037 Z-1.000000 I2.945813 J-4.450086
G02 X21.052356 Y9.777890 Z-1.000000 I-1.006829 J1.236957
G02 X20.970603 Y9.848201 Z-1.000000 I-0.020681 J0.058637
G01 X20.970601 Y9.848193 Z-1.000000
G00 Z5.000000

(End cutting path id: path2)


(Start cutting path id: path2)
(Change tool to Default tool)

G00 Z5.000000
G00 X19.909671 Y6.912108

G01 Z-1.000000 F100.0(Penetrate)
G02 X19.872171 Y6.999147 Z-1.000000 I0.129298 J0.107306 F3500.000000
G02 X19.873481 Y7.209978 Z-1.000000 I0.825414 J0.100289
G03 X19.833511 Y7.510911 Z-1.000000 I-0.573624 J0.076932
G03 X19.625360 Y7.801098 Z-1.000000 I-0.738519 J-0.309993
G02 X19.428832 Y8.064290 Z-1.000000 I0.532456 J0.602559
G02 X19.315681 Y8.466308 Z-1.000000 I1.178497 J0.548631
G03 X19.251317 Y8.755077 Z-1.000000 I-1.385508 J-0.157259
G03 X19.125012 Y9.031083 Z-1.000000 I-1.390737 J-0.469522
G02 X18.988475 Y9.302780 Z-1.000000 I1.954628 J1.152423
G02 X18.964452 Y9.412332 Z-1.000000 I0.284373 J0.119768
G03 X18.943176 Y9.522298 Z-1.000000 I-0.355618 J-0.011764
G03 X18.872882 Y9.663847 Z-1.000000 I-0.665813 J-0.242416
G03 X18.586939 Y10.073617 Z-1.000000 I-5.738787 J-3.699940
G03 X18.495666 Y10.164345 Z-1.000000 I-0.361723 J-0.272624
G02 X18.426448 Y10.236212 Z-1.000000 I0.182126 J0.244680
G02 X18.294792 Y10.456507 Z-1.000000 I1.662533 J1.143077
G03 X18.145948 Y10.694317 Z-1.000000 I-1.483185 J-0.762832
G03 X17.421764 Y11.620676 Z-1.000000 I-23.438497 J-17.576873
G02 X16.949117 Y12.232968 Z-1.000000 I11.449240 J9.326591
G02 X16.928183 Y12.295936 Z-1.000000 I0.087739 J0.064132
G03 X16.916047 Y12.339321 Z-1.000000 I-0.086955 J-0.000934
G03 X16.804205 Y12.505228 Z-1.000000 I-1.475615 J-0.874095
G02 X16.525814 Y12.950059 Z-1.000000 I2.263391 J1.726039
G02 X16.300613 Y13.504304 Z-1.000000 I3.303451 J1.665134
G03 X16.225851 Y13.709894 Z-1.000000 I-2.384141 J-0.750597
G03 X16.138130 Y13.896726 Z-1.000000 I-2.055270 J-0.850975
G02 X15.465138 Y15.993192 Z-1.000000 I5.600771 J2.954172
G02 X15.520991 Y18.410850 Z-1.000000 I7.567947 J1.034637
G03 X15.579799 Y18.858535 Z-1.000000 I-4.317781 J0.794891
G01 X15.559661 Y18.898277 Z-1.000000
G02 X15.517750 Y18.971936 Z-1.000000 I0.046481 J0.075200
G02 X15.550861 Y19.403721 Z-1.000000 I2.307086 J0.040245
G02 X15.602919 Y19.515207 Z-1.000000 I0.230247 J-0.039616
G02 X15.672878 Y19.547609 Z-1.000000 I0.069959 J-0.059324
G02 X15.729273 Y19.508425 Z-1.000000 I0.000000 J-0.060175
G02 X15.760288 Y19.312774 Z-1.000000 I-0.469308 J-0.174679
