%
(Header)
(Generated by gcodetools from Inkscape.)
(Using default header. To add your own header create file "header" in the output dir.)
M3
(Header end.)
G21 (All units in mm)

(Start cutting path id: text5608)
(Change tool to Default tool)

G00 Z 5.0000
G00 X 3.9592 Y 35.3442

G01 Z -1.0000 F 100.0000(Penetrate)
G01 X 1.8729 Y 35.3442 Z -1.0000 F 3500.0000
G01 X 1.4810 Y 34.1801 Z -1.0000
G01 X 0.2438 Y 34.1801 Z -1.0000
G01 X 2.2648 Y 39.8434 Z -1.0000
G01 X 3.6018 Y 39.8434 Z -1.0000
G01 X 5.6074 Y 34.1801 Z -1.0000
G01 X 4.3242 Y 34.1801 Z -1.0000
G01 X 3.9592 Y 35.3442 Z -1.0000
G00 Z 5.0000

(End cutting path id: text5608)


(Start cutting path id: text5608)
(Change tool to Default tool)

G00 Z 5.0000
G00 X 3.6287 Y 36.3201

G01 Z -1.0000 F 100.0000(Penetrate)
G01 X 2.9218 Y 38.5486 Z -1.0000 F 3500.0000
G01 X 2.1918 Y 36.3201 Z -1.0000
G01 X 3.6287 Y 36.3201 Z -1.0000
G00 Z 5.0000

(End cutting path id: text5608)


(Start cutting path id: text5608)
(Change tool to Default tool)

G00 Z 5.0000
G00 X 6.2337 Y 39.8434

G01 Z -1.0000 F 100.0000(Penetrate)
G01 X 7.4094 Y 39.8434 Z -1.0000 F 3500.0000
G01 X 7.4094 Y 34.1801 Z -1.0000
G01 X 6.2337 Y 34.1801 Z -1.0000
G01 X 6.2337 Y 39.8434 Z -1.0000
G00 Z 5.0000

(End cutting path id: text5608)


(Start cutting path id: text5608)
(Change tool to Default tool)

G00 Z 5.0000
G00 X 10.9173 Y 36.4008

G01 Z -1.0000 F 100.0000(Penetrate)
G01 X 9.6955 Y 36.4008 Z -1.0000 F 3500.0000
G01 X 9.6955 Y 34.1801 Z -1.0000
G01 X 8.5390 Y 34.1801 Z -1.0000
G01 X 8.5390 Y 39.8434 Z -1.0000
G01 X 11.3169 Y 39.8434 Z -1.0000
G02 X 11.9038 Y 39.7911 Z -1.0000 I -0.0821 J -4.2423
G02 X 12.2313 Y 39.6974 Z -1.0000 I -0.2237 J -1.4009
G02 X 12.5300 Y 39.5299 Z -1.0000 I -0.5672 J -1.3612
G02 X 12.7769 Y 39.3016 Z -1.0000 I -0.8348 J -1.1508
G02 X 12.9421 Y 39.0747 Z -1.0000 I -1.3437 J -1.1518
G02 X 13.0689 Y 38.8252 Z -1.0000 I -1.5000 J -0.9193
G02 X 13.1470 Y 38.5581 Z -1.0000 I -1.2167 J -0.5010
G02 X 13.1765 Y 38.2297 Z -1.0000 I -1.8182 J -0.3284
G02 X 13.1272 Y 37.8383 Z -1.0000 I -1.5779 J 0.0000
G02 X 12.9728 Y 37.4344 Z -1.0000 I -1.8368 J 0.4703
G02 X 12.7112 Y 37.1138 Z -1.0000 I -0.9166 J 0.4810
G02 X 12.3005 Y 36.8849 Z -1.0000 I -0.8460 J 1.0353
G02 X 12.6498 Y 36.6792 Z -1.0000 I -0.5056 J -1.2579
G02 X 12.8537 Y 36.4354 Z -1.0000 I -0.5258 J -0.6471
G02 X 12.9651 Y 36.1329 Z -1.0000 I -0.8368 J -0.4798
G02 X 13.0189 Y 35.5517 Z -1.0000 I -3.1087 J -0.5812
G01 X 13.0189 Y 35.1713 Z -1.0000
G03 X 13.0302 Y 34.7845 Z -1.0000 I 6.6349 J 0.0000
G03 X 13.0497 Y 34.6450 Z -1.0000 I 0.8782 J 0.0513
G03 X 13.1312 Y 34.4509 Z -1.0000 I 0.5445 J 0.1146
G03 X 13.2648 Y 34.3222 Z -1.0000 I 0.3598 J 0.2399
G01 X 13.2648 Y 34.1801 Z -1.0000
G01 X 11.9624 Y 34.1801 Z -1.0000
G02 X 11.9115 Y 34.3690 Z -1.0000 I 6.2014 J 1.7718
G02 X 11.8855 Y 34.4836 Z -1.0000 I 2.2525 J 0.5703
G02 X 11.8502 Y 34.7229 Z -1.0000 I 2.6643 J 0.5157
G02 X 11.8356 Y 34.9715 Z -1.0000 I 2.8610 J 0.2929
G01 X 11.8279 Y 35.4979 Z -1.0000
G03 X 11.7546 Y 36.0107 Z -1.0000 I -2.0314 J -0.0288
G03 X 11.6281 Y 36.2202 Z -1.0000 I -0.4370 J -0.1209
G03 X 11.4148 Y 36.3386 Z -1.0000 I -0.3310 J -0.3451
G03 X 10.9173 Y 36.4008 Z -1.0000 I -0.4975 J -1.9583
G01 X 10.9173 Y 36.4008 Z -1.0000
G00 Z 5.0000

(End cutting path id: text5608)


(Start cutting path id: text5608)
(Change tool to Default tool)

G00 Z 5.0000
G00 X 11.6358 Y 37.4305

G01 Z -1.0000 F 100.0000(Penetrate)
G03 X 11.8836 Y 37.6598 Z -1.0000 I -0.2241 J 0.4908 F 3500.0000
G03 X 11.9893 Y 38.0683 Z -1.0000 I -0.7371 J 0.4085
G03 X 11.8839 Y 38.5190 Z -1.0000 I -1.0169 J 0.0000
G03 X 11.6473 Y 38.7599 Z -1.0000 I -0.4851 J -0.2398
G03 X 11.4473 Y 38.8274 Z -1.0000 I -0.3176 J -0.6107
G03 X 11.0710 Y 38.8598 Z -1.0000 I -0.3763 J -2.1710
G01 X 9.6955 Y 38.8598 Z -1.0000
G01 X 9.6955 Y 37.3383 Z -1.0000
G01 X 11.0364 Y 37.3383 Z -1.0000
G03 X 11.4294 Y 37.3684 Z -1.0000 I -0.0000 J 2.5845
G03 X 11.6358 Y 37.4305 Z -1.0000 I -0.1175 J 0.7640
G01 X 11.6358 Y 37.4305 Z -1.0000
G00 Z 5.0000

(End cutting path id: text5608)


(Start cutting path id: text5608)
(Change tool to Default tool)

G00 Z 5.0000
G00 X 16.5998 Y 36.2164

G01 Z -1.0000 F 100.0000(Penetrate)
G01 X 15.3972 Y 36.2164 Z -1.0000 F 3500.0000
G01 X 15.3972 Y 34.1801 Z -1.0000
G01 X 14.2215 Y 34.1801 Z -1.0000
G01 X 14.2215 Y 39.8434 Z -1.0000
G01 X 16.6882 Y 39.8434 Z -1.0000
G02 X 17.4941 Y 39.7168 Z -1.0000 I 0.0000 J -2.6290
G02 X 18.0483 Y 39.4054 Z -1.0000 I -0.4895 J -1.5200
G02 X 18.4021 Y 38.8972 Z -1.0000 I -0.8170 J -0.9460
G02 X 18.5555 Y 38.0491 Z -1.0000 I -2.2680 J -0.8481
G02 X 18.3947 Y 37.1225 Z -1.0000 I -2.7511 J 0.0000
G02 X 18.0483 Y 36.6314 Z -1.0000 I -1.0579 J 0.3784
G02 X 17.4962 Y 36.3423 Z -1.0000 I -0.9770 J 1.1941
G02 X 16.5998 Y 36.2164 Z -1.0000 I -0.8964 J 3.1291
G01 X 16.5998 Y 36.2164 Z -1.0000
G00 Z 5.0000

(End cutting path id: text5608)


(Start cutting path id: text5608)
(Change tool to Default tool)

G00 Z 5.0000
G00 X 17.1531 Y 37.3959

G01 Z -1.0000 F 100.0000(Penetrate)
G03 X 17.3126 Y 37.6316 Z -1.0000 I -0.3776 J 0.4275 F 3500.0000
G03 X 17.3836 Y 38.0414 Z -1.0000 I -1.1475 J 0.4098
G03 X 17.3104 Y 38.4482 Z -1.0000 I -1.1668 J 0.0000
G03 X 17.1493 Y 38.6715 Z -1.0000 I -0.4857 J -0.1807
G03 X 16.8985 Y 38.8032 Z -1.0000 I -0.4479 J -0.5484
G03 X 16.4999 Y 38.8598 Z -1.0000 I -0.3986 J -1.3748
G01 X 15.3972 Y 38.8598 Z -1.0000
G01 X 15.3972 Y 37.1923 Z -1.0000
G01 X 16.4999 Y 37.1923 Z -1.0000
G03 X 16.8962 Y 37.2526 Z -1.0000 I -0.0000 J 1.3313
G03 X 17.1531 Y 37.3959 Z -1.0000 I -0.2135 J 0.6847
G01 X 17.1531 Y 37.3959 Z -1.0000
G00 Z 5.0000

(End cutting path id: text5608)


(Start cutting path id: text5608)
(Change tool to Default tool)

G00 Z 5.0000
G00 X 19.4430 Y 39.8434

G01 Z -1.0000 F 100.0000(Penetrate)
G01 X 20.6264 Y 39.8434 Z -1.0000 F 3500.0000
G01 X 20.6264 Y 35.1982 Z -1.0000
G01 X 23.4312 Y 35.1982 Z -1.0000
G01 X 23.4312 Y 34.1801 Z -1.0000
G01 X 19.4430 Y 34.1801 Z -1.0000
G01 X 19.4430 Y 39.8434 Z -1.0000
G00 Z 5.0000

(End cutting path id: text5608)


(Start cutting path id: text5608)
(Change tool to Default tool)

G00 Z 5.0000
G00 X 27.2349 Y 36.3201

G01 Z -1.0000 F 100.0000(Penetrate)
G01 X 26.5279 Y 38.5486 Z -1.0000 F 3500.0000
G01 X 25.7979 Y 36.3201 Z -1.0000
G01 X 27.2349 Y 36.3201 Z -1.0000
G00 Z 5.0000

(End cutting path id: text5608)


(Start cutting path id: text5608)
(Change tool to Default tool)

G00 Z 5.0000
G00 X 27.5653 Y 35.3442

G01 Z -1.0000 F 100.0000(Penetrate)
G01 X 25.4790 Y 35.3442 Z -1.0000 F 3500.0000
G01 X 25.0871 Y 34.1801 Z -1.0000
G01 X 23.8500 Y 34.1801 Z -1.0000
G01 X 25.8709 Y 39.8434 Z -1.0000
G01 X 27.2080 Y 39.8434 Z -1.0000
G01 X 29.2136 Y 34.1801 Z -1.0000
G01 X 27.9303 Y 34.1801 Z -1.0000
G01 X 27.5653 Y 35.3442 Z -1.0000
G00 Z 5.0000

(End cutting path id: text5608)


(Start cutting path id: text5608)
(Change tool to Default tool)

G00 Z 5.0000
G00 X 34.5119 Y 34.1801

G01 Z -1.0000 F 100.0000(Penetrate)
G01 X 33.3285 Y 34.1801 Z -1.0000 F 3500.0000
G01 X 31.0156 Y 38.2028 Z -1.0000
G01 X 31.0156 Y 34.1801 Z -1.0000
G01 X 29.9129 Y 34.1801 Z -1.0000
G01 X 29.9129 Y 39.8434 Z -1.0000
G01 X 31.1539 Y 39.8434 Z -1.0000
G01 X 33.4092 Y 35.8898 Z -1.0000
G01 X 33.4092 Y 39.8434 Z -1.0000
G01 X 34.5119 Y 39.8434 Z -1.0000
G01 X 34.5119 Y 34.1801 Z -1.0000
G00 Z 5.0000

(End cutting path id: text5608)


(Start cutting path id: text5608)
(Change tool to Default tool)

G00 Z 5.0000
G00 X 39.5567 Y 36.6544

G01 Z -1.0000 F 100.0000(Penetrate)
G01 X 36.8057 Y 36.6544 Z -1.0000 F 3500.0000
G01 X 36.8057 Y 35.1982 Z -1.0000
G01 X 39.9409 Y 35.1982 Z -1.0000
G01 X 39.9409 Y 34.1801 Z -1.0000
G01 X 35.6492 Y 34.1801 Z -1.0000
G01 X 35.6492 Y 39.8434 Z -1.0000
G01 X 39.8026 Y 39.8434 Z -1.0000
G01 X 39.8026 Y 38.8406 Z -1.0000
G01 X 36.8057 Y 38.8406 Z -1.0000
G01 X 36.8057 Y 37.6380 Z -1.0000
G01 X 39.5567 Y 37.6380 Z -1.0000
G01 X 39.5567 Y 36.6544 Z -1.0000
G00 Z 5.0000

(End cutting path id: text5608)



(Footer)
M5
G00 X0.0000 Y0.0000
M2
(Using default footer. To add your own footer create file "footer" in the output dir.)
(end)
%