%
(Header)
(Generated by gcodetools from Inkscape.)
(Using default header. To add your own header create file "header" in the output dir.)
M3
(Header end.)
G21 (All units in mm)

(Start cutting path id: text74362)
(Change tool to Default tool)

G00 Z 5.0000
G00 X 5.8940 Y 32.8388

G01 Z -1.0000 F 100.0000(Penetrate)
G01 X 2.6855 Y 32.8388 Z -1.0000 F 3500.0000
G01 X 2.0827 Y 31.0484 Z -1.0000
G01 X 0.1801 Y 31.0484 Z -1.0000
G01 X 3.2882 Y 39.7581 Z -1.0000
G01 X 5.3445 Y 39.7581 Z -1.0000
G01 X 8.4289 Y 31.0484 Z -1.0000
G01 X 6.4554 Y 31.0484 Z -1.0000
G01 X 5.8940 Y 32.8388 Z -1.0000
G00 Z 5.0000

(End cutting path id: text74362)


(Start cutting path id: text74362)
(Change tool to Default tool)

G00 Z 5.0000
G00 X 5.3858 Y 34.3396

G01 Z -1.0000 F 100.0000(Penetrate)
G01 X 4.2986 Y 37.7668 Z -1.0000 F 3500.0000
G01 X 3.1759 Y 34.3396 Z -1.0000
G01 X 5.3858 Y 34.3396 Z -1.0000
G00 Z 5.0000

(End cutting path id: text74362)


(Start cutting path id: text74362)
(Change tool to Default tool)

G00 Z 5.0000
G00 X 13.2329 Y 34.1801

G01 Z -1.0000 F 100.0000(Penetrate)
G01 X 11.3834 Y 34.1801 Z -1.0000 F 3500.0000
G01 X 11.3834 Y 31.0484 Z -1.0000
G01 X 9.5753 Y 31.0484 Z -1.0000
G01 X 9.5753 Y 39.7581 Z -1.0000
G01 X 13.3688 Y 39.7581 Z -1.0000
G02 X 14.6082 Y 39.5635 Z -1.0000 I -0.0000 J -4.0432
G02 X 15.4606 Y 39.0845 Z -1.0000 I -0.7528 J -2.3376
G02 X 16.0047 Y 38.3029 Z -1.0000 I -1.2565 J -1.4549
G02 X 16.2406 Y 36.9987 Z -1.0000 I -3.4880 J -1.3043
G02 X 15.9933 Y 35.5736 Z -1.0000 I -4.2310 J 0.0000
G02 X 15.4606 Y 34.8183 Z -1.0000 I -1.6269 J 0.5820
G02 X 14.6115 Y 34.3737 Z -1.0000 I -1.5025 J 1.8364
G02 X 13.2329 Y 34.1801 Z -1.0000 I -1.3786 J 4.8123
G01 X 13.2329 Y 34.1801 Z -1.0000
G00 Z 5.0000

(End cutting path id: text74362)


(Start cutting path id: text74362)
(Change tool to Default tool)

G00 Z 5.0000
G00 X 14.0838 Y 35.9941

G01 Z -1.0000 F 100.0000(Penetrate)
G03 X 14.3292 Y 36.3565 Z -1.0000 I -0.5807 J 0.6574 F 3500.0000
G03 X 14.4383 Y 36.9868 Z -1.0000 I -1.7648 J 0.6303
G03 X 14.3258 Y 37.6124 Z -1.0000 I -1.7944 J 0.0000
G03 X 14.0779 Y 37.9559 Z -1.0000 I -0.7470 J -0.2778
G03 X 13.6923 Y 38.1584 Z -1.0000 I -0.6888 J -0.8435
G03 X 13.0793 Y 38.2454 Z -1.0000 I -0.6130 J -2.1143
G01 X 11.3834 Y 38.2454 Z -1.0000
G01 X 11.3834 Y 35.6810 Z -1.0000
G01 X 13.0793 Y 35.6810 Z -1.0000
G03 X 13.6887 Y 35.7737 Z -1.0000 I -0.0000 J 2.0475
G03 X 14.0838 Y 35.9941 Z -1.0000 I -0.3283 J 1.0530
G01 X 14.0838 Y 35.9941 Z -1.0000
G00 Z 5.0000

(End cutting path id: text74362)


(Start cutting path id: text74362)
(Change tool to Default tool)

G00 Z 5.0000
G00 X 21.3045 Y 34.1801

G01 Z -1.0000 F 100.0000(Penetrate)
G01 X 19.4550 Y 34.1801 Z -1.0000 F 3500.0000
G01 X 19.4550 Y 31.0484 Z -1.0000
G01 X 17.6469 Y 31.0484 Z -1.0000
G01 X 17.6469 Y 39.7581 Z -1.0000
G01 X 21.4404 Y 39.7581 Z -1.0000
G02 X 22.6798 Y 39.5635 Z -1.0000 I 0.0000 J -4.0432
G02 X 23.5322 Y 39.0845 Z -1.0000 I -0.7528 J -2.3376
G02 X 24.0763 Y 38.3029 Z -1.0000 I -1.2565 J -1.4549
G02 X 24.3122 Y 36.9987 Z -1.0000 I -3.4880 J -1.3043
G02 X 24.0649 Y 35.5736 Z -1.0000 I -4.2310 J 0.0000
G02 X 23.5322 Y 34.8183 Z -1.0000 I -1.6269 J 0.5820
G02 X 22.6831 Y 34.3737 Z -1.0000 I -1.5025 J 1.8364
G02 X 21.3045 Y 34.1801 Z -1.0000 I -1.3786 J 4.8123
G01 X 21.3045 Y 34.1801 Z -1.0000
G00 Z 5.0000

(End cutting path id: text74362)


(Start cutting path id: text74362)
(Change tool to Default tool)

G00 Z 5.0000
G00 X 22.1554 Y 35.9941

G01 Z -1.0000 F 100.0000(Penetrate)
G03 X 22.4008 Y 36.3565 Z -1.0000 I -0.5807 J 0.6574 F 3500.0000
G03 X 22.5099 Y 36.9868 Z -1.0000 I -1.7648 J 0.6303
G03 X 22.3974 Y 37.6124 Z -1.0000 I -1.7944 J 0.0000
G03 X 22.1495 Y 37.9559 Z -1.0000 I -0.7470 J -0.2778
G03 X 21.7639 Y 38.1584 Z -1.0000 I -0.6888 J -0.8435
G03 X 21.1509 Y 38.2454 Z -1.0000 I -0.6130 J -2.1143
G01 X 19.4550 Y 38.2454 Z -1.0000
G01 X 19.4550 Y 35.6810 Z -1.0000
G01 X 21.1509 Y 35.6810 Z -1.0000
G03 X 21.7603 Y 35.7737 Z -1.0000 I -0.0000 J 2.0475
G03 X 22.1554 Y 35.9941 Z -1.0000 I -0.3283 J 1.0530
G01 X 22.1554 Y 35.9941 Z -1.0000
G00 Z 5.0000

(End cutting path id: text74362)


(Start cutting path id: text74362)
(Change tool to Default tool)

G00 Z 5.0000
G00 X 25.6771 Y 39.7581

G01 Z -1.0000 F 100.0000(Penetrate)
G01 X 27.4971 Y 39.7581 Z -1.0000 F 3500.0000
G01 X 27.4971 Y 32.6142 Z -1.0000
G01 X 31.8106 Y 32.6142 Z -1.0000
G01 X 31.8106 Y 31.0484 Z -1.0000
G01 X 25.6771 Y 31.0484 Z -1.0000
G01 X 25.6771 Y 39.7581 Z -1.0000
G00 Z 5.0000

(End cutting path id: text74362)


(Start cutting path id: text74362)
(Change tool to Default tool)

G00 Z 5.0000
G00 X 39.1318 Y 34.8537

G01 Z -1.0000 F 100.0000(Penetrate)
G01 X 34.9010 Y 34.8537 Z -1.0000 F 3500.0000
G01 X 34.9010 Y 32.6142 Z -1.0000
G01 X 39.7227 Y 32.6142 Z -1.0000
G01 X 39.7227 Y 31.0484 Z -1.0000
G01 X 33.1224 Y 31.0484 Z -1.0000
G01 X 33.1224 Y 39.7581 Z -1.0000
G01 X 39.5099 Y 39.7581 Z -1.0000
G01 X 39.5099 Y 38.2159 Z -1.0000
G01 X 34.9010 Y 38.2159 Z -1.0000
G01 X 34.9010 Y 36.3664 Z -1.0000
G01 X 39.1318 Y 36.3664 Z -1.0000
G01 X 39.1318 Y 34.8537 Z -1.0000
G00 Z 5.0000

(End cutting path id: text74362)



(Footer)
M5
G00 X0.0000 Y0.0000
M2
(Using default footer. To add your own footer create file "footer" in the output dir.)
(end)
%