%
(Header)
(Generated by gcodetools from Inkscape.)
(Using default header. To add your own header create file "header" in the output dir.)
M3
(Header end.)
G21 (All units in mm)

(Start cutting path id: path46)
(Change tool to Default tool)

G00 Z 5.0000
G00 X 2.5860 Y 28.2699

G01 Z -1.0000 F 100.0000(Penetrate)
G01 X 0.1382 Y 28.2699 Z -1.0000 F 3500.0000
G01 X 0.1382 Y 33.6710 Z -1.0000
G01 X 2.7618 Y 33.6710 Z -1.0000
G02 X 3.6674 Y 33.4861 Z -1.0000 I -0.0367 J -2.4895
G02 X 4.1689 Y 33.0957 Z -1.0000 I -0.4456 J -1.0899
G02 X 4.3504 Y 32.7293 Z -1.0000 I -1.0000 J -0.7234
G02 X 4.4181 Y 32.2712 Z -1.0000 I -1.5157 J -0.4581
G02 X 4.3463 Y 31.8025 Z -1.0000 I -1.5677 J 0.0000
G02 X 4.1689 Y 31.4761 Z -1.0000 I -0.9178 J 0.2876
G02 X 4.0134 Y 31.3278 Z -1.0000 I -0.7012 J 0.5792
G02 X 3.7585 Y 31.1683 Z -1.0000 I -1.0681 J 1.4241
G02 X 4.1302 Y 30.9651 Z -1.0000 I -0.4759 J -1.3116
G02 X 4.3814 Y 30.6920 Z -1.0000 I -0.6505 J -0.8506
G02 X 4.5349 Y 30.3483 Z -1.0000 I -1.0044 J -0.6546
G02 X 4.5940 Y 29.9005 Z -1.0000 I -1.6677 J -0.4478
G02 X 4.5304 Y 29.4389 Z -1.0000 I -1.7070 J 0.0000
G02 X 4.3521 Y 29.0394 Z -1.0000 I -1.4492 J 0.4070
G02 X 4.1775 Y 28.8054 Z -1.0000 I -1.3223 J 0.8049
G02 X 3.9674 Y 28.6143 Z -1.0000 I -1.0861 J 0.9831
G02 X 3.6912 Y 28.4516 Z -1.0000 I -0.8265 J 1.0866
G02 X 3.3518 Y 28.3432 Z -1.0000 I -0.6802 J 1.5443
G02 X 2.9980 Y 28.2896 Z -1.0000 I -0.6638 J 3.1867
G02 X 2.5860 Y 28.2699 Z -1.0000 I -0.4120 J 4.3060
G01 X 2.5860 Y 28.2699 Z -1.0000
G00 Z 5.0000

(End cutting path id: path46)


(Start cutting path id: path46)
(Change tool to Default tool)

G00 Z 5.0000
G00 X 2.5603 Y 30.6480

G01 Z -1.0000 F 100.0000(Penetrate)
G01 X 1.2155 Y 30.6480 Z -1.0000 F 3500.0000
G01 X 1.2155 Y 29.2080 Z -1.0000
G01 X 2.5420 Y 29.2080 Z -1.0000
G03 X 2.8906 Y 29.2377 Z -1.0000 I -0.0000 J 2.0545
G03 X 3.0953 Y 29.3032 Z -1.0000 I -0.1315 J 0.7636
G03 X 3.3467 Y 29.5463 Z -1.0000 I -0.2498 J 0.5100
G03 X 3.4544 Y 29.9774 Z -1.0000 I -0.8096 J 0.4312
G03 X 3.3552 Y 30.3349 Z -1.0000 I -0.6936 J 0.0000
G03 X 3.1063 Y 30.5564 Z -1.0000 I -0.4798 J -0.2885
G03 X 2.9061 Y 30.6174 Z -1.0000 I -0.3343 J -0.7381
G03 X 2.5603 Y 30.6480 Z -1.0000 I -0.3690 J -2.1994
G01 X 2.5603 Y 30.6480 Z -1.0000
G00 Z 5.0000

(End cutting path id: path46)


(Start cutting path id: path46)
(Change tool to Default tool)

G00 Z 5.0000
G00 X 3.1209 Y 31.6776

G01 Z -1.0000 F 100.0000(Penetrate)
G03 X 3.2738 Y 31.8475 Z -1.0000 I -0.2005 J 0.3342 F 3500.0000
G03 X 3.3408 Y 32.1503 Z -1.0000 I -0.6511 J 0.3028
G03 X 3.2539 Y 32.4696 Z -1.0000 I -0.6296 J 0.0000
G03 X 3.0477 Y 32.6487 Z -1.0000 I -0.3698 J -0.2175
G03 X 2.7907 Y 32.7077 Z -1.0000 I -0.4353 J -1.3059
G03 X 2.4027 Y 32.7329 Z -1.0000 I -0.3880 J -2.9689
G01 X 1.2155 Y 32.7329 Z -1.0000
G01 X 1.2155 Y 31.5421 Z -1.0000
G01 X 2.5420 Y 31.5421 Z -1.0000
G03 X 2.8863 Y 31.5818 Z -1.0000 I 0.0000 J 1.5101
G03 X 3.1209 Y 31.6776 Z -1.0000 I -0.1841 J 0.7862
G01 X 3.1209 Y 31.6776 Z -1.0000
G00 Z 5.0000

(End cutting path id: path46)


(Start cutting path id: path43)
(Change tool to Default tool)

G00 Z 5.0000
G00 X 2.5860 Y 34.2734

G01 Z -1.0000 F 100.0000(Penetrate)
G01 X 0.1382 Y 34.2734 Z -1.0000 F 3500.0000
G01 X 0.1382 Y 39.6745 Z -1.0000
G01 X 2.7618 Y 39.6745 Z -1.0000
G02 X 3.6674 Y 39.4896 Z -1.0000 I -0.0367 J -2.4895
G02 X 4.1689 Y 39.0992 Z -1.0000 I -0.4456 J -1.0899
G02 X 4.3504 Y 38.7328 Z -1.0000 I -1.0000 J -0.7234
G02 X 4.4181 Y 38.2747 Z -1.0000 I -1.5157 J -0.4581
G02 X 4.3463 Y 37.8059 Z -1.0000 I -1.5677 J -0.0000
G02 X 4.1689 Y 37.4796 Z -1.0000 I -0.9178 J 0.2876
G02 X 4.0134 Y 37.3312 Z -1.0000 I -0.7012 J 0.5792
G02 X 3.7585 Y 37.1718 Z -1.0000 I -1.0681 J 1.4241
G02 X 4.1302 Y 36.9685 Z -1.0000 I -0.4759 J -1.3116
G02 X 4.3814 Y 36.6954 Z -1.0000 I -0.6505 J -0.8506
G02 X 4.5349 Y 36.3518 Z -1.0000 I -1.0044 J -0.6546
G02 X 4.5940 Y 35.9040 Z -1.0000 I -1.6677 J -0.4478
G02 X 4.5304 Y 35.4424 Z -1.0000 I -1.7070 J 0.0000
G02 X 4.3521 Y 35.0429 Z -1.0000 I -1.4492 J 0.4070
G02 X 4.1775 Y 34.8089 Z -1.0000 I -1.3223 J 0.8049
G02 X 3.9674 Y 34.6178 Z -1.0000 I -1.0861 J 0.9831
G02 X 3.6912 Y 34.4551 Z -1.0000 I -0.8265 J 1.0866
G02 X 3.3518 Y 34.3467 Z -1.0000 I -0.6802 J 1.5443
G02 X 2.9980 Y 34.2931 Z -1.0000 I -0.6639 J 3.1865
G02 X 2.5860 Y 34.2734 Z -1.0000 I -0.4120 J 4.3057
G01 X 2.5860 Y 34.2734 Z -1.0000
G00 Z 5.0000

(End cutting path id: path43)


(Start cutting path id: path43)
(Change tool to Default tool)

G00 Z 5.0000
G00 X 2.5603 Y 36.6515

G01 Z -1.0000 F 100.0000(Penetrate)
G01 X 1.2155 Y 36.6515 Z -1.0000 F 3500.0000
G01 X 1.2155 Y 35.2114 Z -1.0000
G01 X 2.5420 Y 35.2114 Z -1.0000
G03 X 2.8906 Y 35.2412 Z -1.0000 I -0.0000 J 2.0545
G03 X 3.0953 Y 35.3067 Z -1.0000 I -0.1315 J 0.7636
G03 X 3.3467 Y 35.5497 Z -1.0000 I -0.2498 J 0.5100
G03 X 3.4544 Y 35.9809 Z -1.0000 I -0.8096 J 0.4312
G03 X 3.3552 Y 36.3383 Z -1.0000 I -0.6936 J 0.0000
G03 X 3.1063 Y 36.5599 Z -1.0000 I -0.4798 J -0.2885
G03 X 2.9061 Y 36.6209 Z -1.0000 I -0.3343 J -0.7381
G03 X 2.5603 Y 36.6515 Z -1.0000 I -0.3690 J -2.1994
G01 X 2.5603 Y 36.6515 Z -1.0000
G00 Z 5.0000

(End cutting path id: path43)


(Start cutting path id: path43)
(Change tool to Default tool)

G00 Z 5.0000
G00 X 3.1209 Y 37.6811

G01 Z -1.0000 F 100.0000(Penetrate)
G03 X 3.2738 Y 37.8510 Z -1.0000 I -0.2005 J 0.3342 F 3500.0000
G03 X 3.3408 Y 38.1538 Z -1.0000 I -0.6511 J 0.3028
G03 X 3.2539 Y 38.4730 Z -1.0000 I -0.6296 J 0.0000
G03 X 3.0477 Y 38.6521 Z -1.0000 I -0.3698 J -0.2175
G03 X 2.7907 Y 38.7112 Z -1.0000 I -0.4353 J -1.3059
G03 X 2.4027 Y 38.7364 Z -1.0000 I -0.3880 J -2.9689
G01 X 1.2155 Y 38.7364 Z -1.0000
G01 X 1.2155 Y 37.5455 Z -1.0000
G01 X 2.5420 Y 37.5455 Z -1.0000
G03 X 2.8863 Y 37.5853 Z -1.0000 I -0.0000 J 1.5101
G03 X 3.1209 Y 37.6811 Z -1.0000 I -0.1841 J 0.7862
G01 X 3.1209 Y 37.6811 Z -1.0000
G00 Z 5.0000

(End cutting path id: path43)


(Start cutting path id: path43)
(Change tool to Default tool)

G00 Z 5.0000
G00 X 8.3864 Y 36.3144

G01 Z -1.0000 F 100.0000(Penetrate)
G01 X 7.7122 Y 38.4396 Z -1.0000 F 3500.0000
G01 X 7.0160 Y 36.3144 Z -1.0000
G01 X 8.3864 Y 36.3144 Z -1.0000
G00 Z 5.0000

(End cutting path id: path43)


(Start cutting path id: path43)
(Change tool to Default tool)

G00 Z 5.0000
G00 X 8.7016 Y 35.3836

G01 Z -1.0000 F 100.0000(Penetrate)
G01 X 6.7119 Y 35.3836 Z -1.0000 F 3500.0000
G01 X 6.3381 Y 34.2734 Z -1.0000
G01 X 5.1582 Y 34.2734 Z -1.0000
G01 X 7.0856 Y 39.6745 Z -1.0000
G01 X 8.3608 Y 39.6745 Z -1.0000
G01 X 10.2735 Y 34.2734 Z -1.0000
G01 X 9.0497 Y 34.2734 Z -1.0000
G01 X 8.7016 Y 35.3836 Z -1.0000
G00 Z 5.0000

(End cutting path id: path43)


(Start cutting path id: path43)
(Change tool to Default tool)

G00 Z 5.0000
G00 X 12.9191 Y 35.0539

G01 Z -1.0000 F 100.0000(Penetrate)
G03 X 13.3139 Y 35.0805 Z -1.0000 I 0.0000 J 2.9386 F 3500.0000
G03 X 13.5677 Y 35.1418 Z -1.0000 I -0.1718 J 1.2669
G03 X 13.9163 Y 35.3979 Z -1.0000 I -0.2532 J 0.7100
G03 X 14.0404 Y 35.7684 Z -1.0000 I -0.4912 J 0.3705
G03 X 13.9788 Y 36.0018 Z -1.0000 I -0.4736 J -0.0000
G03 X 13.8058 Y 36.1825 Z -1.0000 I -0.4426 J -0.2507
G03 X 13.5603 Y 36.2978 Z -1.0000 I -0.6531 J -1.0717
G03 X 13.0693 Y 36.4353 Z -1.0000 I -1.4389 J -4.1917
G01 X 12.4977 Y 36.5635 Z -1.0000
G02 X 11.6758 Y 36.8016 Z -1.0000 I 1.5855 J 7.0129
G02 X 11.3325 Y 36.9776 Z -1.0000 I 0.4895 J 1.3775
G02 X 10.9446 Y 37.4347 Z -1.0000 I 0.6423 J 0.9383
G02 X 10.7865 Y 38.1465 Z -1.0000 I 1.5239 J 0.7118
G02 X 10.9255 Y 38.8106 Z -1.0000 I 1.6562 J -0.0000
G02 X 11.3142 Y 39.3520 Z -1.0000 I 1.4643 J -0.6409
G02 X 11.8983 Y 39.6859 Z -1.0000 I 1.0425 J -1.1459
G02 X 12.8641 Y 39.8320 Z -1.0000 I 0.9658 J -3.1186
G02 X 13.6763 Y 39.7081 Z -1.0000 I -0.0000 J -2.7242
G02 X 14.3188 Y 39.3777 Z -1.0000 I -0.6281 J -2.0110
G02 X 14.7611 Y 38.8420 Z -1.0000 I -0.8732 J -1.1713
G02 X 14.9527 Y 38.0659 Z -1.0000 I -1.7424 J -0.8420
G01 X 13.8681 Y 38.0659 Z -1.0000
G03 X 13.7357 Y 38.4862 Z -1.0000 I -0.9061 J -0.0545
G03 X 13.4431 Y 38.7584 Z -1.0000 I -0.6362 J -0.3905
G03 X 13.1698 Y 38.8549 Z -1.0000 I -0.4905 J -0.9546
G03 X 12.7872 Y 38.8940 Z -1.0000 I -0.3826 J -1.8510
G03 X 12.3671 Y 38.8417 Z -1.0000 I 0.0000 J -1.7149
G03 X 12.0910 Y 38.7181 Z -1.0000 I 0.2146 J -0.8496
G03 X 11.9000 Y 38.5055 Z -1.0000 I 0.3306 J -0.4890
G03 X 11.8308 Y 38.2271 Z -1.0000 I 0.5254 J -0.2784
G03 X 11.8992 Y 37.9778 Z -1.0000 I 0.4886 J 0.0000
G03 X 12.0873 Y 37.7947 Z -1.0000 I 0.4333 J 0.2571
G03 X 12.2598 Y 37.7186 Z -1.0000 I 0.4370 J 0.7563
G03 X 12.7908 Y 37.5712 Z -1.0000 I 2.2592 J 7.1109
G01 X 13.7216 Y 37.3477 Z -1.0000
G02 X 14.3105 Y 37.1536 Z -1.0000 I -0.8688 J -3.6271
G02 X 14.6449 Y 36.9556 Z -1.0000 I -0.5728 J -1.3490
G02 X 14.9913 Y 36.5079 Z -1.0000 I -0.7218 J -0.9161
G02 X 15.1286 Y 35.8527 Z -1.0000 I -1.4941 J -0.6552
G02 X 14.9810 Y 35.1800 Z -1.0000 I -1.6058 J 0.0000
G02 X 14.5607 Y 34.6215 Z -1.0000 I -1.5023 J 0.6930
G02 X 13.9421 Y 34.2801 Z -1.0000 I -1.1174 J 1.2939
G02 X 12.9631 Y 34.1341 Z -1.0000 I -0.9790 J 3.2093
G02 X 11.9575 Y 34.2766 Z -1.0000 I 0.0000 J 3.6199
G02 X 11.3032 Y 34.6142 Z -1.0000 I 0.5284 J 1.8271
G02 X 10.8643 Y 35.1775 Z -1.0000 I 0.9612 J 1.2015
G02 X 10.6986 Y 35.9406 Z -1.0000 I 1.6743 J 0.7631
G01 X 11.7759 Y 35.9406 Z -1.0000
G03 X 11.8638 Y 35.5866 Z -1.0000 I 1.7112 J 0.2372
G03 X 11.9774 Y 35.3873 Z -1.0000 I 0.6415 J 0.2337
G03 X 12.3022 Y 35.1599 Z -1.0000 I 0.5724 J 0.4718
G03 X 12.9191 Y 35.0539 Z -1.0000 I 0.6169 J 1.7422
G01 X 12.9191 Y 35.0539 Z -1.0000
G00 Z 5.0000

(End cutting path id: path43)


(Start cutting path id: path46)
(Change tool to Default tool)

G00 Z 5.0000
G00 X 14.3298 Y 33.6710

G01 Z -1.0000 F 100.0000(Penetrate)
G01 X 14.3298 Y 32.7146 Z -1.0000 F 3500.0000
G01 X 12.7139 Y 32.7146 Z -1.0000
G01 X 12.7139 Y 28.2699 Z -1.0000
G01 X 11.5780 Y 28.2699 Z -1.0000
G01 X 11.5780 Y 32.7146 Z -1.0000
G01 X 9.9547 Y 32.7146 Z -1.0000
G01 X 9.9547 Y 33.6710 Z -1.0000
G01 X 14.3298 Y 33.6710 Z -1.0000
G00 Z 5.0000

(End cutting path id: path46)


(Start cutting path id: path43)
(Change tool to Default tool)

G00 Z 5.0000
G00 X 19.7236 Y 36.6332

G01 Z -1.0000 F 100.0000(Penetrate)
G01 X 17.1000 Y 36.6332 Z -1.0000 F 3500.0000
G01 X 17.1000 Y 35.2444 Z -1.0000
G01 X 20.0900 Y 35.2444 Z -1.0000
G01 X 20.0900 Y 34.2734 Z -1.0000
G01 X 15.9971 Y 34.2734 Z -1.0000
G01 X 15.9971 Y 39.6745 Z -1.0000
G01 X 19.9581 Y 39.6745 Z -1.0000
G01 X 19.9581 Y 38.7181 Z -1.0000
G01 X 17.1000 Y 38.7181 Z -1.0000
G01 X 17.1000 Y 37.5712 Z -1.0000
G01 X 19.7236 Y 37.5712 Z -1.0000
G01 X 19.7236 Y 36.6332 Z -1.0000
G00 Z 5.0000

(End cutting path id: path43)


(Start cutting path id: path43)
(Change tool to Default tool)

G00 Z 5.0000
G00 X 23.4098 Y 36.6515

G01 Z -1.0000 F 100.0000(Penetrate)
G01 X 22.0650 Y 36.6515 Z -1.0000 F 3500.0000
G01 X 22.0650 Y 35.2114 Z -1.0000
G01 X 23.3915 Y 35.2114 Z -1.0000
G03 X 23.7401 Y 35.2412 Z -1.0000 I -0.0000 J 2.0545
G03 X 23.9448 Y 35.3067 Z -1.0000 I -0.1315 J 0.7637
G03 X 24.1962 Y 35.5497 Z -1.0000 I -0.2498 J 0.5100
G03 X 24.3039 Y 35.9809 Z -1.0000 I -0.8096 J 0.4312
G03 X 24.2047 Y 36.3383 Z -1.0000 I -0.6936 J -0.0000
G03 X 23.9558 Y 36.5599 Z -1.0000 I -0.4798 J -0.2885
G03 X 23.7556 Y 36.6209 Z -1.0000 I -0.3343 J -0.7381
G03 X 23.4098 Y 36.6515 Z -1.0000 I -0.3690 J -2.1994
G01 X 23.4098 Y 36.6515 Z -1.0000
G00 Z 5.0000

(End cutting path id: path43)


(Start cutting path id: path43)
(Change tool to Default tool)

G00 Z 5.0000
G00 X 23.9704 Y 37.6811

G01 Z -1.0000 F 100.0000(Penetrate)
G03 X 24.1233 Y 37.8510 Z -1.0000 I -0.2005 J 0.3342 F 3500.0000
G03 X 24.1903 Y 38.1538 Z -1.0000 I -0.6511 J 0.3028
G03 X 24.1033 Y 38.4730 Z -1.0000 I -0.6296 J 0.0000
G03 X 23.8971 Y 38.6521 Z -1.0000 I -0.3698 J -0.2175
G03 X 23.6402 Y 38.7112 Z -1.0000 I -0.4353 J -1.3059
G03 X 23.2522 Y 38.7364 Z -1.0000 I -0.3880 J -2.9689
G01 X 22.0650 Y 38.7364 Z -1.0000
G01 X 22.0650 Y 37.5455 Z -1.0000
G01 X 23.3915 Y 37.5455 Z -1.0000
G03 X 23.7358 Y 37.5853 Z -1.0000 I 0.0000 J 1.5101
G03 X 23.9704 Y 37.6811 Z -1.0000 I -0.1841 J 0.7862
G01 X 23.9704 Y 37.6811 Z -1.0000
G00 Z 5.0000

(End cutting path id: path43)


(Start cutting path id: path43)
(Change tool to Default tool)

G00 Z 5.0000
G00 X 23.4354 Y 34.2734

G01 Z -1.0000 F 100.0000(Penetrate)
G01 X 20.9877 Y 34.2734 Z -1.0000 F 3500.0000
G01 X 20.9877 Y 39.6745 Z -1.0000
G01 X 23.6113 Y 39.6745 Z -1.0000
G02 X 24.5168 Y 39.4896 Z -1.0000 I -0.0367 J -2.4895
G02 X 25.0184 Y 39.0992 Z -1.0000 I -0.4456 J -1.0899
G02 X 25.1999 Y 38.7328 Z -1.0000 I -1.0000 J -0.7234
G02 X 25.2676 Y 38.2747 Z -1.0000 I -1.5157 J -0.4581
G02 X 25.1958 Y 37.8059 Z -1.0000 I -1.5677 J -0.0000
G02 X 25.0184 Y 37.4796 Z -1.0000 I -0.9178 J 0.2876
G02 X 24.8629 Y 37.3312 Z -1.0000 I -0.7012 J 0.5792
G02 X 24.6080 Y 37.1718 Z -1.0000 I -1.0681 J 1.4241
G02 X 24.9797 Y 36.9685 Z -1.0000 I -0.4759 J -1.3116
G02 X 25.2309 Y 36.6954 Z -1.0000 I -0.6505 J -0.8506
G02 X 25.3844 Y 36.3518 Z -1.0000 I -1.0044 J -0.6546
G02 X 25.4434 Y 35.9040 Z -1.0000 I -1.6677 J -0.4478
G02 X 25.3799 Y 35.4424 Z -1.0000 I -1.7069 J -0.0000
G02 X 25.2016 Y 35.0429 Z -1.0000 I -1.4492 J 0.4070
G02 X 25.0270 Y 34.8089 Z -1.0000 I -1.3223 J 0.8049
G02 X 24.8169 Y 34.6178 Z -1.0000 I -1.0861 J 0.9831
G02 X 24.5407 Y 34.4551 Z -1.0000 I -0.8265 J 1.0866
G02 X 24.2013 Y 34.3467 Z -1.0000 I -0.6802 J 1.5443
G02 X 23.8475 Y 34.2931 Z -1.0000 I -0.6639 J 3.1865
G02 X 23.4354 Y 34.2734 Z -1.0000 I -0.4120 J 4.3057
G01 X 23.4354 Y 34.2734 Z -1.0000
G00 Z 5.0000

(End cutting path id: path43)


(Start cutting path id: path43)
(Change tool to Default tool)

G00 Z 5.0000
G00 X 29.2359 Y 36.3144

G01 Z -1.0000 F 100.0000(Penetrate)
G01 X 28.5617 Y 38.4396 Z -1.0000 F 3500.0000
G01 X 27.8655 Y 36.3144 Z -1.0000
G01 X 29.2359 Y 36.3144 Z -1.0000
G00 Z 5.0000

(End cutting path id: path43)


(Start cutting path id: path43)
(Change tool to Default tool)

G00 Z 5.0000
G00 X 29.5511 Y 35.3836

G01 Z -1.0000 F 100.0000(Penetrate)
G01 X 27.5614 Y 35.3836 Z -1.0000 F 3500.0000
G01 X 27.1876 Y 34.2734 Z -1.0000
G01 X 26.0077 Y 34.2734 Z -1.0000
G01 X 27.9351 Y 39.6745 Z -1.0000
G01 X 29.2103 Y 39.6745 Z -1.0000
G01 X 31.1230 Y 34.2734 Z -1.0000
G01 X 29.8992 Y 34.2734 Z -1.0000
G01 X 29.5511 Y 35.3836 Z -1.0000
G00 Z 5.0000

(End cutting path id: path43)


(Start cutting path id: path43)
(Change tool to Default tool)

G00 Z 5.0000
G00 X 31.8082 Y 39.6745

G01 Z -1.0000 F 100.0000(Penetrate)
G01 X 32.9368 Y 39.6745 Z -1.0000 F 3500.0000
G01 X 32.9368 Y 35.2444 Z -1.0000
G01 X 35.6117 Y 35.2444 Z -1.0000
G01 X 35.6117 Y 34.2734 Z -1.0000
G01 X 31.8082 Y 34.2734 Z -1.0000
G01 X 31.8082 Y 39.6745 Z -1.0000
G00 Z 5.0000

(End cutting path id: path43)


(Start cutting path id: path43)
(Change tool to Default tool)

G00 Z 5.0000
G00 X 36.3922 Y 39.6745

G01 Z -1.0000 F 100.0000(Penetrate)
G01 X 37.5208 Y 39.6745 Z -1.0000 F 3500.0000
G01 X 37.5208 Y 35.2444 Z -1.0000
G01 X 40.1957 Y 35.2444 Z -1.0000
G01 X 40.1957 Y 34.2734 Z -1.0000
G01 X 36.3922 Y 34.2734 Z -1.0000
G01 X 36.3922 Y 39.6745 Z -1.0000
G00 Z 5.0000

(End cutting path id: path43)


(Start cutting path id: path46)
(Change tool to Default tool)

G00 Z 5.0000
G00 X 8.3864 Y 30.3109

G01 Z -1.0000 F 100.0000(Penetrate)
G01 X 7.7122 Y 32.4361 Z -1.0000 F 3500.0000
G01 X 7.0160 Y 30.3109 Z -1.0000
G01 X 8.3864 Y 30.3109 Z -1.0000
G00 Z 5.0000

(End cutting path id: path46)


(Start cutting path id: path46)
(Change tool to Default tool)

G00 Z 5.0000
G00 X 8.7016 Y 29.3802

G01 Z -1.0000 F 100.0000(Penetrate)
G01 X 6.7119 Y 29.3802 Z -1.0000 F 3500.0000
G01 X 6.3381 Y 28.2699 Z -1.0000
G01 X 5.1582 Y 28.2699 Z -1.0000
G01 X 7.0856 Y 33.6710 Z -1.0000
G01 X 8.3608 Y 33.6710 Z -1.0000
G01 X 10.2735 Y 28.2699 Z -1.0000
G01 X 9.0497 Y 28.2699 Z -1.0000
G01 X 8.7016 Y 29.3802 Z -1.0000
G00 Z 5.0000

(End cutting path id: path46)



(Footer)
M5
G00 X0.0000 Y0.0000
M2
(Using default footer. To add your own footer create file "footer" in the output dir.)
(end)
%