%
(Header)
(Generated by gcodetools from Inkscape.)
(Using default header. To add your own header create file "header" in the output dir.)
M3
(Header end.)
G21 (All units in mm)

(Start cutting path id: path47)
(Change tool to Default tool)

G00 Z5.000000
G00 X3.793831 Y14.489615

G01 Z-1.000000 F100.0(Penetrate)
G01 X6.358038 Y14.489615 Z-1.000000 F3500.000000
G01 X6.358038 Y10.848950 Z-1.000000
G02 X5.763622 Y10.683882 Z-1.000000 I-2.474257 J7.757111
G02 X5.159715 Y10.564602 Z-1.000000 I-1.871713 J7.887924
G02 X4.548250 Y10.495434 Z-1.000000 I-1.084187 J6.847152
G02 X3.748132 Y10.468122 Z-1.000000 I-0.800118 J11.706390
G02 X2.179138 Y10.758292 Z-1.000000 I0.000000 J4.386988
G02 X1.122994 Y11.473494 Z-1.000000 I1.002648 J2.618025
G02 X0.467058 Y12.585810 Z-1.000000 I2.240577 J2.070836
G02 X0.193787 Y14.281427 Z-1.000000 I5.123914 J1.695617
G02 X0.320824 Y15.412508 Z-1.000000 I5.098823 J0.000000
G02 X0.655851 Y16.312482 Z-1.000000 I3.539192 J-0.805166
G02 X1.222179 Y17.076018 Z-1.000000 I2.824092 J-1.502879
G02 X1.986192 Y17.637745 Z-1.000000 I2.246621 J-2.255229
G02 X2.891260 Y17.972051 Z-1.000000 I1.703752 J-3.220279
G02 X4.042635 Y18.099810 Z-1.000000 I1.151375 J-5.124251
G02 X5.207587 Y17.986014 Z-1.000000 I-0.000000 J-6.019825
G02 X6.256485 Y17.663133 Z-1.000000 I-1.024125 J-5.192074
G01 X5.901050 Y16.850711 Z-1.000000
G03 X4.900139 Y17.176712 Z-1.000000 I-2.199606 J-5.053851
G03 X3.986781 Y17.277233 Z-1.000000 I-0.913358 J-4.099234
G03 X2.761250 Y17.048223 Z-1.000000 I-0.000000 J-3.393671
G03 X1.915105 Y16.474966 Z-1.000000 I0.823593 J-2.126747
G03 X1.384854 Y15.587695 Z-1.000000 I1.809353 J-1.683387
G03 X1.168693 Y14.281427 Z-1.000000 I3.838827 J-1.306268
G03 X1.385061 Y12.894227 Z-1.000000 I4.555058 J0.000000
G03 X1.884640 Y12.042189 Z-1.000000 I2.147284 J0.686547
G03 X2.698773 Y11.501487 Z-1.000000 I1.544389 J1.442112
G03 X3.966471 Y11.275466 Z-1.000000 I1.267698 J3.442095
G03 X4.707342 Y11.320475 Z-1.000000 I-0.000000 J6.120132
G03 X5.423752 Y11.453184 Z-1.000000 I-0.713893 J5.853897
G01 X5.423752 Y13.656883 Z-1.000000
G01 X3.793831 Y13.656883 Z-1.000000
G01 X3.793831 Y14.489615 Z-1.000000
G00 Z5.000000

(End cutting path id: path47)


(Start cutting path id: path47)
(Change tool to Default tool)

G00 Z5.000000
G00 X8.927322 Y10.569680

G01 Z-1.000000 F100.0(Penetrate)
G01 X8.013347 Y10.569680 Z-1.000000 F3500.000000
G01 X8.013347 Y18.470483 Z-1.000000
G01 X8.927322 Y18.470483 Z-1.000000
G01 X8.927322 Y10.569680 Z-1.000000
G00 Z5.000000

(End cutting path id: path47)


(Start cutting path id: path47)
(Change tool to Default tool)

G00 Z5.000000
G00 X11.329044 Y13.367458

G01 Z-1.000000 F100.0(Penetrate)
G03 X11.456638 Y12.358918 Z-1.000000 I4.049690 J0.000000 F3500.000000
G03 X11.740333 Y11.768002 Z-1.000000 I1.630670 J0.419315
G03 X12.233173 Y11.379649 Z-1.000000 I1.008353 J0.772756
G03 X12.964043 Y11.224695 Z-1.000000 I0.730870 J1.646165
G03 X13.685198 Y11.378757 Z-1.000000 I-0.000000 J1.764869
G03 X14.177599 Y11.768002 Z-1.000000 I-0.522459 J1.166989
G03 X14.464961 Y12.359812 Z-1.000000 I-1.336059 J1.014414
G03 X14.593965 Y13.367458 Z-1.000000 I-3.870840 J1.007646
G03 X14.462173 Y14.372385 Z-1.000000 I-3.897239 J-0.000000
G03 X14.172521 Y14.946603 Z-1.000000 I-1.516172 J-0.404638
G03 X13.681653 Y15.327043 Z-1.000000 I-0.995254 J-0.777246
G03 X12.948811 Y15.479755 Z-1.000000 I-0.732842 J-1.682046
G03 X11.864151 Y14.944648 Z-1.000000 I-0.000000 J-1.366854
G03 X11.329044 Y13.367458 Z-1.000000 I2.056773 J-1.577190
G01 X11.329044 Y13.367458 Z-1.000000
G00 Z5.000000

(End cutting path id: path47)


(Start cutting path id: path47)
(Change tool to Default tool)

G00 Z5.000000
G00 X15.538405 Y13.367458

G01 Z-1.000000 F100.0(Penetrate)
G02 X15.335097 Y12.079632 Z-1.000000 I-4.180421 J0.000000 F3500.000000
G02 X14.847847 Y11.234850 Z-1.000000 I-2.225230 J0.720550
G02 X14.060739 Y10.685021 Z-1.000000 I-1.579070 J1.422210
G02 X12.938655 Y10.468127 Z-1.000000 I-1.122084 J2.794066
G02 X12.208094 Y10.562021 Z-1.000000 I-0.000000 J2.889083
G02 X11.598159 Y10.818484 Z-1.000000 I0.589520 J2.255553
G02 X11.090676 Y11.242955 Z-1.000000 I1.152720 J1.893751
G02 X10.699417 Y11.834011 Z-1.000000 I1.905667 J1.686516
G02 X10.471334 Y12.513727 Z-1.000000 I2.674798 J1.275671
G02 X10.384604 Y13.367458 Z-1.000000 I4.158504 J0.853731
G02 X10.585784 Y14.651107 Z-1.000000 I4.195819 J0.000000
G02 X11.065007 Y15.484832 Z-1.000000 I2.188125 J-0.703138
G02 X11.842700 Y16.029109 Z-1.000000 I1.545680 J-1.380808
G02 X12.974199 Y16.246478 Z-1.000000 I1.131499 J-2.836289
G02 X14.055307 Y16.030690 Z-1.000000 I0.000000 J-2.816097
G02 X14.842769 Y15.469599 Z-1.000000 I-0.831647 J-2.000299
G02 X15.336505 Y14.620238 Z-1.000000 I-1.775512 J-1.600296
G02 X15.538405 Y13.367458 Z-1.000000 I-3.785772 J-1.252780
G01 X15.538405 Y13.367458 Z-1.000000
G00 Z5.000000

(End cutting path id: path47)


(Start cutting path id: path47)
(Change tool to Default tool)

G00 Z5.000000
G00 X18.112766 Y10.569680

G01 Z-1.000000 F100.0(Penetrate)
G01 X16.000469 Y16.144925 Z-1.000000 F3500.000000
G01 X16.980453 Y16.144925 Z-1.000000
G01 X18.163542 Y12.859694 Z-1.000000
G02 X18.490356 Y11.863096 Z-1.000000 I-21.294948 J-7.535138
G02 X18.610374 Y11.382102 Z-1.000000 I-4.830632 J-1.460810
G01 X18.650994 Y11.382102 Z-1.000000
G02 X18.666556 Y11.448032 Z-1.000000 I6.553164 J-1.511963
G02 X18.686534 Y11.529353 Z-1.000000 I9.989810 J-2.411107
G02 X18.712374 Y11.615536 Z-1.000000 I8.255746 J-2.428329
G02 X18.742384 Y11.712148 Z-1.000000 I10.404850 J-3.179030
G02 X18.774115 Y11.813304 Z-1.000000 I4.072028 J-1.221773
G02 X19.118129 Y12.859694 Z-1.000000 I436.146650 J-142.809023
G01 X20.306296 Y16.144925 Z-1.000000
G01 X21.281202 Y16.144925 Z-1.000000
G01 X19.163828 Y10.569680 Z-1.000000
G01 X18.112766 Y10.569680 Z-1.000000
G00 Z5.000000

(End cutting path id: path47)


(Start cutting path id: path47)
(Change tool to Default tool)

G00 Z5.000000
G00 X24.535977 Y10.468127

G01 Z-1.000000 F100.0(Penetrate)
G02 X23.374501 Y10.683476 Z-1.000000 I0.000000 J3.239864 F3500.000000
G02 X22.565854 Y11.224695 Z-1.000000 I0.788101 J2.052235
G02 X22.061395 Y12.067699 Z-1.000000 I1.709140 J1.595198
G02 X21.854985 Y13.316681 Z-1.000000 I3.675575 J1.248982
G02 X22.048454 Y14.586719 Z-1.000000 I4.265349 J0.000000
G02 X22.520155 Y15.449289 Z-1.000000 I2.384591 J-0.743765
G02 X23.287442 Y16.028279 Z-1.000000 I1.625655 J-1.356439
G02 X24.317639 Y16.246478 Z-1.000000 I1.030197 J-2.322866
G02 X25.285628 Y16.057442 Z-1.000000 I0.000000 J-2.572887
G02 X25.993259 Y15.566074 Z-1.000000 I-0.738561 J-1.818843
G02 X26.437681 Y14.820225 Z-1.000000 I-1.536182 J-1.420681
G02 X26.617808 Y13.733047 Z-1.000000 I-3.190825 J-1.087178
G01 X26.617808 Y13.179585 Z-1.000000
G01 X22.799425 Y13.179585 Z-1.000000
G03 X22.957523 Y12.284208 Z-1.000000 I3.081099 J0.082388
G03 X23.281801 Y11.737536 Z-1.000000 I1.428471 J0.477834
G03 X23.800978 Y11.387543 Z-1.000000 I1.008118 J0.935366
G03 X24.576598 Y11.245005 Z-1.000000 I0.775620 J2.038999
G03 X25.021554 Y11.264947 Z-1.000000 I-0.000000 J4.974076
G03 X25.424563 Y11.321165 Z-1.000000 I-0.371374 J4.134879
G03 X25.818503 Y11.425609 Z-1.000000 I-0.682035 J3.367646
G03 X26.363926 Y11.630901 Z-1.000000 I-2.200130 J6.672522
G01 X26.363926 Y10.828634 Z-1.000000
G02 X25.894866 Y10.653127 Z-1.000000 I-2.106137 J4.914317
G02 X25.495650 Y10.549364 Z-1.000000 I-1.110490 J3.452615
G02 X25.087133 Y10.491411 Z-1.000000 I-0.716853 J3.584360
G02 X24.535977 Y10.468124 Z-1.000000 I-0.551156 J6.510705
G01 X24.535977 Y10.468127 Z-1.000000
G00 Z5.000000

(End cutting path id: path47)


(Start cutting path id: path47)
(Change tool to Default tool)

G00 Z5.000000
G00 X24.307483 Y15.500065

G01 Z-1.000000 F100.0(Penetrate)
G03 X23.704837 Y15.382161 Z-1.000000 I-0.000000 J-1.599105 F3500.000000
G03 X23.271645 Y15.078621 Z-1.000000 I0.447157 J-1.099036
G03 X22.986598 Y14.615030 Z-1.000000 I1.106269 J-0.999639
G03 X22.819736 Y13.905687 Z-1.000000 I2.494537 J-0.961097
G01 X25.658135 Y13.905687 Z-1.000000
G03 X25.543083 Y14.647880 Z-1.000000 I-2.675728 J-0.034766
G03 X25.297622 Y15.093854 Z-1.000000 I-1.176384 J-0.356938
G03 X24.894272 Y15.384377 Z-1.000000 I-0.808689 J-0.697492
G03 X24.307483 Y15.500065 Z-1.000000 I-0.586789 J-1.430299
G01 X24.307483 Y15.500065 Z-1.000000
G00 Z5.000000

(End cutting path id: path47)


(Start cutting path id: path46)
(Change tool to Default tool)

G00 Z5.000000
G00 X20.387547 Y23.466877

G01 Z-1.000000 F100.0(Penetrate)
G02 X19.226071 Y23.682226 Z-1.000000 I0.000000 J3.239864 F3500.000000
G02 X18.417424 Y24.223445 Z-1.000000 I0.788101 J2.052235
G02 X17.912965 Y25.066450 Z-1.000000 I1.709145 J1.595201
G02 X17.706555 Y26.315431 Z-1.000000 I3.675573 J1.248981
G02 X17.900024 Y27.585470 Z-1.000000 I4.265352 J0.000000
G02 X18.371725 Y28.448039 Z-1.000000 I2.384585 J-0.743763
G02 X19.139012 Y29.027029 Z-1.000000 I1.625655 J-1.356439
G02 X20.169209 Y29.245228 Z-1.000000 I1.030197 J-2.322866
G02 X21.137199 Y29.056192 Z-1.000000 I0.000000 J-2.572893
G02 X21.844829 Y28.564825 Z-1.000000 I-0.738558 J-1.818838
G02 X22.289251 Y27.818975 Z-1.000000 I-1.536187 J-1.420683
G02 X22.469378 Y26.731798 Z-1.000000 I-3.190822 J-1.087177
G01 X22.469378 Y26.178335 Z-1.000000
G01 X18.650995 Y26.178335 Z-1.000000
G03 X18.809093 Y25.282958 Z-1.000000 I3.081099 J0.082388
G03 X19.133371 Y24.736286 Z-1.000000 I1.428471 J0.477834
G03 X19.652548 Y24.386294 Z-1.000000 I1.008117 J0.935367
G03 X20.428168 Y24.243756 Z-1.000000 I0.775620 J2.039004
G03 X20.873124 Y24.263698 Z-1.000000 I-0.000000 J4.974081
G03 X21.276134 Y24.319916 Z-1.000000 I-0.371376 J4.134904
G03 X21.670073 Y24.424360 Z-1.000000 I-0.682036 J3.367642
G03 X22.215496 Y24.629652 Z-1.000000 I-2.200140 J6.672547
G01 X22.215496 Y23.827385 Z-1.000000
G02 X21.746436 Y23.651879 Z-1.000000 I-2.106168 J4.914413
G02 X21.347220 Y23.548115 Z-1.000000 I-1.110514 J3.452689
G02 X20.938703 Y23.490162 Z-1.000000 I-0.716853 J3.584360
G02 X20.387547 Y23.466875 Z-1.000000 I-0.551156 J6.510705
G01 X20.387547 Y23.466877 Z-1.000000
G00 Z5.000000

(End cutting path id: path46)


(Start cutting path id: path46)
(Change tool to Default tool)

G00 Z5.000000
G00 X16.665640 Y25.106954

G01 Z-1.000000 F100.0(Penetrate)
G02 X16.505697 Y24.405670 Z-1.000000 I-1.617395 J-0.000000 F3500.000000
G02 X16.081712 Y23.893399 Z-1.000000 I-1.245625 J0.599359
G02 X15.455467 Y23.596550 Z-1.000000 I-1.092368 J1.495504
G02 X14.441635 Y23.466877 Z-1.000000 I-1.013832 J3.898423
G02 X13.366651 Y23.573321 Z-1.000000 I-0.000000 J5.481365
G02 X12.689850 Y23.817234 Z-1.000000 I0.476777 J2.383884
G01 X12.689850 Y24.649967 Z-1.000000
G03 X13.632603 Y24.306083 Z-1.000000 I2.138587 J4.398689
G03 X14.461946 Y24.203135 Z-1.000000 I0.829343 J3.289102
G03 X15.129156 Y24.276376 Z-1.000000 I-0.000000 J3.075687
G03 X15.467318 Y24.426551 Z-1.000000 I-0.202748 J0.912368
G03 X15.699906 Y24.692440 Z-1.000000 I-0.439189 J0.618857
G03 X15.782131 Y25.025712 Z-1.000000 I-0.634292 J0.333272
G03 X15.707488 Y25.318437 Z-1.000000 I-0.611305 J0.000000
G03 X15.477473 Y25.584252 Z-1.000000 I-0.726639 J-0.396348
G03 X15.159807 Y25.780265 Z-1.000000 I-1.148269 J-1.505515
G03 X14.406092 Y26.107248 Z-1.000000 I-4.023891 J-8.243122
G02 X13.632367 Y26.437555 Z-1.000000 I4.447604 J11.489619
G02 X13.299167 Y26.625167 Z-1.000000 I1.078719 J2.305497
G02 X13.008307 Y26.870200 Z-1.000000 I1.061335 J1.554974
G02 X12.826946 Y27.112620 Z-1.000000 I0.856892 J0.830116
G02 X12.721354 Y27.392387 Z-1.000000 I0.941502 J0.515159
G02 X12.679695 Y27.767636 Z-1.000000 I1.669218 J0.375249
G02 X12.827667 Y28.376645 Z-1.000000 I1.327234 J0.000000
G02 X13.238235 Y28.849172 Z-1.000000 I1.176441 J-0.607552
G02 X13.834699 Y29.126180 Z-1.000000 I1.050724 J-1.481788
G02 X14.771681 Y29.245228 Z-1.000000 I0.936982 J-3.627797
G02 X15.700193 Y29.148144 Z-1.000000 I-0.000000 J-4.488698
G02 X16.548854 Y28.869483 Z-1.000000 I-0.850014 J-4.020339
G01 X16.239118 Y28.143381 Z-1.000000
G03 X15.375806 Y28.422501 Z-1.000000 I-2.085040 J-4.974315
G03 X14.710750 Y28.498815 Z-1.000000 I-0.665056 J-2.859744
G03 X14.158542 Y28.440987 Z-1.000000 I-0.000000 J-2.665479
G03 X13.847551 Y28.316020 Z-1.000000 I0.201217 J-0.950190
G03 X13.628264 Y28.095843 Z-1.000000 I0.331662 J-0.549610
G03 X13.553049 Y27.823490 Z-1.000000 I0.455487 J-0.272353
G03 X13.617640 Y27.549875 Z-1.000000 I0.611823 J-0.000000
G03 X13.806930 Y27.315726 Z-1.000000 I0.627681 J0.313839
G03 X14.078581 Y27.149177 Z-1.000000 I0.873383 J1.119721
G03 X14.990020 Y26.762263 Z-1.000000 I5.810461 J12.420520
G02 X15.671469 Y26.475767 Z-1.000000 I-3.099271 J-8.325504
G02 X16.015702 Y26.279888 Z-1.000000 I-1.085292 J-2.307674
G02 X16.319971 Y26.027841 Z-1.000000 I-1.057608 J-1.586411
G02 X16.508233 Y25.777202 Z-1.000000 I-0.857242 J-0.839924
G02 X16.621682 Y25.486397 Z-1.000000 I-0.965510 J-0.544197
G02 X16.665640 Y25.106954 Z-1.000000 I-1.615690 J-0.379443
G01 X16.665640 Y25.106954 Z-1.000000
G00 Z5.000000

(End cutting path id: path46)


(Start cutting path id: path46)
(Change tool to Default tool)

G00 Z5.000000
G00 X20.159053 Y28.498815

G01 Z-1.000000 F100.0(Penetrate)
G03 X19.556408 Y28.380911 Z-1.000000 I0.000000 J-1.599104 F3500.000000
G03 X19.123216 Y28.077371 Z-1.000000 I0.447156 J-1.099032
G03 X18.838168 Y27.613781 Z-1.000000 I1.106261 J-0.999636
G03 X18.671306 Y26.904437 Z-1.000000 I2.494531 J-0.961097
G01 X21.509705 Y26.904437 Z-1.000000
G03 X21.394654 Y27.646630 Z-1.000000 I-2.675736 J-0.034766
G03 X21.149193 Y28.092604 Z-1.000000 I-1.176385 J-0.356937
G03 X20.745843 Y28.383127 Z-1.000000 I-0.808691 J-0.697496
G03 X20.159053 Y28.498815 Z-1.000000 I-0.586790 J-1.430301
G01 X20.159053 Y28.498815 Z-1.000000
G00 Z5.000000

(End cutting path id: path46)


(Start cutting path id: path46)
(Change tool to Default tool)

G00 Z5.000000
G00 X26.369004 Y28.478505

G01 Z-1.000000 F100.0(Penetrate)
G03 X25.598513 Y28.331861 Z-1.000000 I0.000000 J-2.097461 F3500.000000
G03 X25.160527 Y28.001207 Z-1.000000 I0.377208 J-0.955057
G03 X24.917447 Y27.482382 Z-1.000000 I1.063610 J-0.814680
G03 X24.794937 Y26.386518 Z-1.000000 I4.840063 J-1.095864
G01 X24.794937 Y26.345898 Z-1.000000
G03 X24.918206 Y25.244633 Z-1.000000 I4.980899 J0.000000
G03 X25.165605 Y24.710899 Z-1.000000 I1.369010 J0.310366
G03 X25.614452 Y24.372096 Z-1.000000 I0.842499 J0.649426
G03 X26.389315 Y24.223446 Z-1.000000 I0.774863 J1.945228
G03 X27.057734 Y24.378665 Z-1.000000 I-0.000000 J1.516813
G03 X27.506395 Y24.771831 Z-1.000000 I-0.505173 J1.029055
G03 X27.761680 Y25.360362 Z-1.000000 I-1.481744 J0.992362
G03 X27.877063 Y26.366209 Z-1.000000 I-4.326516 J1.005847
G03 X27.759443 Y27.385197 Z-1.000000 I-4.472742 J-0.000000
G03 X27.506395 Y27.950432 Z-1.000000 I-1.587472 J-0.371428
G03 X27.056777 Y28.326630 Z-1.000000 I-0.926085 J-0.650040
G03 X26.369004 Y28.478506 Z-1.000000 I-0.687773 J-1.481359
G01 X26.369004 Y28.478505 Z-1.000000
G00 Z5.000000

(End cutting path id: path46)


(Start cutting path id: path46)
(Change tool to Default tool)

G00 Z5.000000
G00 X26.521334 Y29.235073

G01 Z-1.000000 F100.0(Penetrate)
G02 X27.519593 Y29.021785 Z-1.000000 I-0.000000 J-2.442731 F3500.000000
G02 X28.222342 Y28.473427 Z-1.000000 I-0.761189 J-1.699988
G02 X28.641373 Y27.654171 Z-1.000000 I-1.842596 J-1.459237
G02 X28.821503 Y26.356053 Z-1.000000 I-4.587417 J-1.298118
G02 X28.637575 Y25.039791 Z-1.000000 I-4.801820 J0.000000
G02 X28.212187 Y24.218367 Z-1.000000 I-2.237063 J0.637642
G02 X27.503530 Y23.675313 Z-1.000000 I-1.485234 J1.204245
G02 X26.521334 Y23.466877 Z-1.000000 I-0.982196 J2.209943
G02 X25.969788 Y23.522032 Z-1.000000 I0.000000 J2.785304
G02 X25.515961 Y23.669983 Z-1.000000 I0.409018 J2.024637
G02 X25.116037 Y23.923075 Z-1.000000 I0.743908 J1.618002
G02 X24.794937 Y24.274221 Z-1.000000 I1.156156 J1.379615
G01 X24.723847 Y24.274221 Z-1.000000
G02 X24.564217 Y23.665543 Z-1.000000 I-82.924999 J21.422341
G02 X24.535975 Y23.568430 Z-1.000000 I-2.137943 J0.569091
G01 X23.880962 Y23.568430 Z-1.000000
G01 X23.880962 Y31.469233 Z-1.000000
G01 X24.794937 Y31.469233 Z-1.000000
G01 X24.794937 Y29.549886 Z-1.000000
G02 X24.782261 Y28.976673 Z-1.000000 I-12.966368 J-0.000000
G02 X24.744157 Y28.402340 Z-1.000000 I-13.055202 J0.577705
G01 X24.794937 Y28.402340 Z-1.000000
G02 X25.484344 Y28.998042 Z-1.000000 I1.450191 J-0.981532
G02 X26.521334 Y29.235073 Z-1.000000 I1.036990 J-2.149856
G01 X26.521334 Y29.235073 Z-1.000000
G00 Z5.000000

(End cutting path id: path46)


(Start cutting path id: path46)
(Change tool to Default tool)

G00 Z5.000000
G00 X31.837618 Y24.203135

G01 Z-1.000000 F100.0(Penetrate)
G03 X32.556916 Y24.322659 Z-1.000000 I-0.000000 J2.224138 F3500.000000
G03 X33.041018 Y24.614423 Z-1.000000 I-0.432223 J1.264655
G03 X33.354686 Y25.086078 Z-1.000000 I-0.859038 J0.911420
G03 X33.482773 Y25.792435 Z-1.000000 I-1.883618 J0.706357
G01 X33.482773 Y26.295121 Z-1.000000
G01 X32.660195 Y26.259581 Z-1.000000
G03 X31.725312 Y26.141597 Z-1.000000 I0.197229 J-5.325700
G03 X31.258768 Y25.954923 Z-1.000000 I0.321952 J-1.480981
G03 X30.945659 Y25.616811 Z-1.000000 I0.450814 J-0.731510
G03 X30.822091 Y25.106958 Z-1.000000 I0.990063 J-0.509853
G03 X30.898469 Y24.704690 Z-1.000000 I1.097521 J-0.000000
G03 X31.086128 Y24.436710 Z-1.000000 I0.651892 J0.256806
G03 X31.381125 Y24.272445 Z-1.000000 I0.539113 J0.621153
G03 X31.837618 Y24.203139 Z-1.000000 I0.456493 J1.468719
G01 X31.837618 Y24.203135 Z-1.000000
G00 Z5.000000

(End cutting path id: path46)


(Start cutting path id: path46)
(Change tool to Default tool)

G00 Z5.000000
G00 X33.721422 Y23.568430

G01 Z-1.000000 F100.0(Penetrate)
G01 X33.543704 Y24.360541 Z-1.000000 F3500.000000
G01 X33.503084 Y24.360541 Z-1.000000
G02 X33.047015 Y23.888580 Z-1.000000 I-2.681008 J2.134396
G02 X32.670352 Y23.649672 Z-1.000000 I-1.027653 J1.203822
G02 X32.247631 Y23.520745 Z-1.000000 I-0.736283 J1.656638
G02 X31.629436 Y23.466877 Z-1.000000 I-0.618195 J3.520279
G02 X30.856139 Y23.592834 Z-1.000000 I0.000000 J2.436752
G02 X30.339716 Y23.898476 Z-1.000000 I0.453645 J1.355599
G02 X30.007339 Y24.389043 Z-1.000000 I0.884065 J0.956869
G02 X29.872574 Y25.117109 Z-1.000000 I1.899305 J0.728066
G02 X30.470852 Y26.232650 Z-1.000000 I1.339150 J-0.000000
G02 X32.548488 Y26.894282 Z-1.000000 I2.198213 J-3.309879
G01 X33.492929 Y26.929822 Z-1.000000
G01 X33.492929 Y27.259868 Z-1.000000
G03 X33.406540 Y27.861007 Z-1.000000 I-2.134718 J0.000000
G03 X33.218737 Y28.194153 Z-1.000000 I-0.812242 J-0.238375
G03 X32.902368 Y28.404110 Z-1.000000 I-0.565792 J-0.509215
G03 X32.340305 Y28.498811 Z-1.000000 I-0.562063 J-1.620618
G03 X31.904094 Y28.464654 Z-1.000000 I-0.000000 J-2.802431
G03 X31.502495 Y28.366793 Z-1.000000 I0.389300 J-2.470571
G03 X31.115746 Y28.224270 Z-1.000000 I2.403734 J-7.118726
G03 X30.766238 Y28.072290 Z-1.000000 I2.385858 J-5.964640
G01 X30.486968 Y28.757771 Z-1.000000
G02 X30.919014 Y28.953740 Z-1.000000 I1.804106 J-3.403201
G02 X31.406020 Y29.108128 Z-1.000000 I1.591177 J-4.173954
G02 X31.907524 Y29.204040 Z-1.000000 I1.038435 J-4.070666
G02 X32.391082 Y29.235069 Z-1.000000 I0.483558 J-3.752407
G02 X33.347796 Y29.095865 Z-1.000000 I0.000000 J-3.357241
G02 X33.894062 Y28.788237 Z-1.000000 I-0.402307 J-1.353215
G02 X34.233894 Y28.273762 Z-1.000000 I-0.836419 J-0.921962
G02 X34.386593 Y27.366498 Z-1.000000 I-2.618905 J-0.907264
G01 X34.386593 Y23.568426 Z-1.000000
G01 X33.721422 Y23.568430 Z-1.000000
G00 Z5.000000

(End cutting path id: path46)


(Start cutting path id: path46)
(Change tool to Default tool)

G00 Z5.000000
G00 X37.026964 Y23.568430

G01 Z-1.000000 F100.0(Penetrate)
G01 X36.112989 Y23.568430 Z-1.000000 F3500.000000
G01 X36.112989 Y31.469233 Z-1.000000
G01 X37.026964 Y31.469233 Z-1.000000
G01 X37.026964 Y23.568430 Z-1.000000
G00 Z5.000000

(End cutting path id: path46)


(Start cutting path id: path46)
(Change tool to Default tool)

G00 Z5.000000
G00 X39.707956 Y23.568430

G01 Z-1.000000 F100.0(Penetrate)
G01 X38.793982 Y23.568430 Z-1.000000 F3500.000000
G01 X38.793982 Y31.469233 Z-1.000000
G01 X39.707956 Y31.469233 Z-1.000000
G01 X39.707956 Y23.568430 Z-1.000000
G00 Z5.000000

(End cutting path id: path46)


(Start cutting path id: path46)
(Change tool to Default tool)

G00 Z5.000000
G00 X10.643563 Y23.568430

G01 Z-1.000000 F100.0(Penetrate)
G01 X10.465846 Y24.360541 Z-1.000000 F3500.000000
G01 X10.425226 Y24.360541 Z-1.000000
G02 X9.969157 Y23.888580 Z-1.000000 I-2.681002 J2.134391
G02 X9.592493 Y23.649672 Z-1.000000 I-1.027653 J1.203823
G02 X9.169773 Y23.520745 Z-1.000000 I-0.736282 J1.656635
G02 X8.551578 Y23.466877 Z-1.000000 I-0.618195 J3.520277
G02 X7.778281 Y23.592834 Z-1.000000 I-0.000000 J2.436752
G02 X7.261858 Y23.898476 Z-1.000000 I0.453645 J1.355597
G02 X6.929480 Y24.389043 Z-1.000000 I0.884064 J0.956870
G02 X6.794715 Y25.117109 Z-1.000000 I1.899303 J0.728066
G02 X7.392994 Y26.232650 Z-1.000000 I1.339150 J0.000000
G02 X9.470630 Y26.894282 Z-1.000000 I2.198213 J-3.309881
G01 X10.415070 Y26.929822 Z-1.000000
G01 X10.415070 Y27.259868 Z-1.000000
G03 X10.328681 Y27.861007 Z-1.000000 I-2.134718 J0.000000
G03 X10.140878 Y28.194153 Z-1.000000 I-0.812242 J-0.238375
G03 X9.824510 Y28.404110 Z-1.000000 I-0.565791 J-0.509212
G03 X9.262447 Y28.498811 Z-1.000000 I-0.562063 J-1.620615
G03 X8.826235 Y28.464654 Z-1.000000 I-0.000000 J-2.802434
G03 X8.424637 Y28.366793 Z-1.000000 I0.389299 J-2.470564
G03 X8.037888 Y28.224270 Z-1.000000 I2.403739 J-7.118742
G03 X7.688380 Y28.072290 Z-1.000000 I2.385864 J-5.964660
G01 X7.409110 Y28.757771 Z-1.000000
G02 X7.841155 Y28.953740 Z-1.000000 I1.804102 J-3.403191
G02 X8.328162 Y29.108128 Z-1.000000 I1.591176 J-4.173953
G02 X8.829666 Y29.204040 Z-1.000000 I1.038433 J-4.070654
G02 X9.313223 Y29.235069 Z-1.000000 I0.483558 J-3.752405
G02 X10.269938 Y29.095865 Z-1.000000 I0.000000 J-3.357245
G02 X10.816204 Y28.788237 Z-1.000000 I-0.402307 J-1.353215
G02 X11.156036 Y28.273762 Z-1.000000 I-0.836419 J-0.921962
G02 X11.308735 Y27.366498 Z-1.000000 I-2.618905 J-0.907264
G01 X11.308735 Y23.568430 Z-1.000000
G01 X10.643563 Y23.568430 Z-1.000000
G00 Z5.000000

(End cutting path id: path46)


(Start cutting path id: path46)
(Change tool to Default tool)

G00 Z5.000000
G00 X8.759760 Y24.203135

G01 Z-1.000000 F100.0(Penetrate)
G03 X9.479058 Y24.322659 Z-1.000000 I-0.000000 J2.224138 F3500.000000
G03 X9.963160 Y24.614423 Z-1.000000 I-0.432223 J1.264654
G03 X10.276827 Y25.086077 Z-1.000000 I-0.859038 J0.911419
G03 X10.404914 Y25.792435 Z-1.000000 I-1.883621 J0.706358
G01 X10.404914 Y26.295121 Z-1.000000
G01 X9.582337 Y26.259581 Z-1.000000
G03 X8.647454 Y26.141597 Z-1.000000 I0.197229 J-5.325705
G03 X8.180909 Y25.954923 Z-1.000000 I0.321953 J-1.480984
G03 X7.867801 Y25.616811 Z-1.000000 I0.450814 J-0.731509
G03 X7.744232 Y25.106958 Z-1.000000 I0.990063 J-0.509853
G03 X7.820611 Y24.704690 Z-1.000000 I1.097521 J0.000000
G03 X8.008270 Y24.436710 Z-1.000000 I0.651892 J0.256806
G03 X8.303266 Y24.272445 Z-1.000000 I0.539112 J0.621152
G03 X8.759760 Y24.203139 Z-1.000000 I0.456494 J1.468721
G01 X8.759760 Y24.203135 Z-1.000000
G00 Z5.000000

(End cutting path id: path46)


(Start cutting path id: path46)
(Change tool to Default tool)

G00 Z5.000000
G00 X1.503817 Y27.051689

G01 Z-1.000000 F100.0(Penetrate)
G01 X1.503817 Y24.360541 Z-1.000000 F3500.000000
G01 X3.001720 Y24.360541 Z-1.000000
G03 X3.856945 Y24.470121 Z-1.000000 I-0.000000 J3.392130
G03 X4.326983 Y24.705821 Z-1.000000 I-0.318073 J1.220836
G03 X4.631776 Y25.112046 Z-1.000000 I-0.635302 J0.794129
G03 X4.758582 Y25.751814 Z-1.000000 I-1.550496 J0.639768
G03 X4.626499 Y26.347584 Z-1.000000 I-1.409679 J0.000000
G03 X4.301595 Y26.731798 Z-1.000000 I-0.868627 J-0.405059
G03 X3.812602 Y26.950156 Z-1.000000 I-0.809914 J-1.157021
G03 X2.930633 Y27.051689 Z-1.000000 I-0.881969 J-3.779869
G01 X1.503817 Y27.051689 Z-1.000000
G00 Z5.000000

(End cutting path id: path46)


(Start cutting path id: path46)
(Change tool to Default tool)

G00 Z5.000000
G00 X1.503817 Y27.833645

G01 Z-1.000000 F100.0(Penetrate)
G01 X2.874779 Y27.833645 Z-1.000000 F3500.000000
G03 X3.719031 Y27.925415 Z-1.000000 I-0.000000 J3.929280
G03 X4.144188 Y28.112915 Z-1.000000 I-0.252760 J1.148909
G03 X4.419828 Y28.454617 Z-1.000000 I-0.461193 J0.654056
G03 X4.540244 Y29.047200 Z-1.000000 I-1.397887 J0.592583
G03 X4.413737 Y29.585879 Z-1.000000 I-1.210127 J0.000000
G03 X4.103567 Y29.925631 Z-1.000000 I-0.749022 J-0.372346
G03 X3.646536 Y30.105893 Z-1.000000 I-0.718661 J-1.152568
G03 X2.732605 Y30.194746 Z-1.000000 I-0.913931 J-4.655871
G01 X1.503817 Y30.194746 Z-1.000000
G01 X1.503817 Y27.833645 Z-1.000000
G00 Z5.000000

(End cutting path id: path46)


(Start cutting path id: path46)
(Change tool to Default tool)

G00 Z5.000000
G00 X0.569532 Y30.991935

G01 Z-1.000000 F100.0(Penetrate)
G01 X2.686906 Y30.991935 Z-1.000000 F3500.000000
G02 X4.134164 Y30.843331 Z-1.000000 I0.000000 J-7.121755
G02 X4.839824 Y30.545103 Z-1.000000 I-0.401292 J-1.933499
G02 X5.313029 Y30.000394 Z-1.000000 I-0.750210 J-1.129626
G02 X5.504995 Y29.153830 Z-1.000000 I-1.770676 J-0.846564
G02 X5.404675 Y28.530124 Z-1.000000 I-1.989004 J0.000000
G02 X5.144482 Y28.062139 Z-1.000000 I-1.356909 J0.448096
G02 X4.729842 Y27.728973 Z-1.000000 I-1.063346 J0.898780
G02 X4.093412 Y27.508676 Z-1.000000 I-1.039979 J1.975004
G01 X4.093412 Y27.457896 Z-1.000000
G02 X4.893552 Y27.205660 Z-1.000000 I-0.525433 J-3.061996
G02 X5.352666 Y26.863812 Z-1.000000 I-0.617063 J-1.307961
G02 X5.643449 Y26.372355 Z-1.000000 I-1.045168 J-0.950153
G02 X5.758877 Y25.680723 Z-1.000000 I-2.014377 J-0.691632
G02 X5.569290 Y24.775159 Z-1.000000 I-2.257517 J-0.000000
G02 X5.078473 Y24.126966 Z-1.000000 I-1.597000 J0.699340
G02 X4.338342 Y23.735319 Z-1.000000 I-1.332875 J1.623684
G02 X3.179437 Y23.568426 Z-1.000000 I-1.158905 J3.940279
G01 X0.569532 Y23.568426 Z-1.000000
G01 X0.569532 Y30.991935 Z-1.000000
G00 Z5.000000

(End cutting path id: path46)


(Footer)
M5
G00 X0.0000 Y0.0000
M2
(Using default footer. To add your own footer create file "footer" in the output dir.)
(end)
%