%
(Header)
(Generated by gcodetools from Inkscape.)
(Using default header. To add your own header create file "header" in the output dir.)
M3
(Header end.)
G21 (All units in mm)

(Start cutting path id: text8393)
(Change tool to Default tool)

G00 Z 5.0000
G00 X 2.0986 Y 35.2308

G01 Z -1.0000 F 100.0000(Penetrate)
G01 X 0.4052 Y 35.2308 Z -1.0000 F 3500.0000
G01 X 0.4052 Y 38.9674 Z -1.0000
G01 X 2.2203 Y 38.9674 Z -1.0000
G02 X 2.8467 Y 38.8395 Z -1.0000 I -0.0254 J -1.7223
G02 X 3.1937 Y 38.5694 Z -1.0000 I -0.3083 J -0.7540
G02 X 3.3193 Y 38.3160 Z -1.0000 I -0.6919 J -0.5005
G02 X 3.3661 Y 37.9990 Z -1.0000 I -1.0486 J -0.3169
G02 X 3.3165 Y 37.6747 Z -1.0000 I -1.0846 J 0.0000
G02 X 3.1937 Y 37.4489 Z -1.0000 I -0.6349 J 0.1990
G02 X 3.0861 Y 37.3463 Z -1.0000 I -0.4851 J 0.4007
G02 X 2.9098 Y 37.2360 Z -1.0000 I -0.7389 J 0.9852
G02 X 3.1669 Y 37.0954 Z -1.0000 I -0.3292 J -0.9074
G02 X 3.3407 Y 36.9064 Z -1.0000 I -0.4500 J -0.5885
G02 X 3.4469 Y 36.6687 Z -1.0000 I -0.6949 J -0.4529
G02 X 3.4878 Y 36.3589 Z -1.0000 I -1.1538 J -0.3098
G02 X 3.4438 Y 36.0396 Z -1.0000 I -1.1809 J 0.0000
G02 X 3.3205 Y 35.7631 Z -1.0000 I -1.0026 J 0.2816
G02 X 3.1996 Y 35.6013 Z -1.0000 I -0.9148 J 0.5568
G02 X 3.0543 Y 35.4691 Z -1.0000 I -0.7514 J 0.6801
G02 X 2.8632 Y 35.3565 Z -1.0000 I -0.5718 J 0.7518
G02 X 2.6284 Y 35.2815 Z -1.0000 I -0.4706 J 1.0684
G02 X 2.3836 Y 35.2444 Z -1.0000 I -0.4593 J 2.2045
G02 X 2.0986 Y 35.2308 Z -1.0000 I -0.2851 J 2.9788
G01 X 2.0986 Y 35.2308 Z -1.0000
G00 Z 5.0000

(End cutting path id: text8393)


(Start cutting path id: text8393)
(Change tool to Default tool)

G00 Z 5.0000
G00 X 2.0808 Y 36.8760

G01 Z -1.0000 F 100.0000(Penetrate)
G01 X 1.1505 Y 36.8760 Z -1.0000 F 3500.0000
G01 X 1.1505 Y 35.8797 Z -1.0000
G01 X 2.0682 Y 35.8797 Z -1.0000
G03 X 2.3094 Y 35.9004 Z -1.0000 I -0.0000 J 1.4214
G03 X 2.4509 Y 35.9457 Z -1.0000 I -0.0910 J 0.5283
G03 X 2.6249 Y 36.1138 Z -1.0000 I -0.1728 J 0.3528
G03 X 2.6994 Y 36.4121 Z -1.0000 I -0.5601 J 0.2983
G03 X 2.6308 Y 36.6594 Z -1.0000 I -0.4799 J -0.0000
G03 X 2.4586 Y 36.8126 Z -1.0000 I -0.3319 J -0.1996
G03 X 2.3201 Y 36.8548 Z -1.0000 I -0.2312 J -0.5107
G03 X 2.0808 Y 36.8760 Z -1.0000 I -0.2553 J -1.5216
G01 X 2.0808 Y 36.8760 Z -1.0000
G00 Z 5.0000

(End cutting path id: text8393)


(Start cutting path id: text8393)
(Change tool to Default tool)

G00 Z 5.0000
G00 X 2.4687 Y 37.5884

G01 Z -1.0000 F 100.0000(Penetrate)
G03 X 2.5745 Y 37.7059 Z -1.0000 I -0.1387 J 0.2312 F 3500.0000
G03 X 2.6208 Y 37.9154 Z -1.0000 I -0.4505 J 0.2095
G03 X 2.5607 Y 38.1362 Z -1.0000 I -0.4356 J -0.0000
G03 X 2.4180 Y 38.2602 Z -1.0000 I -0.2559 J -0.1505
G03 X 2.2402 Y 38.3010 Z -1.0000 I -0.3012 J -0.9035
G03 X 1.9718 Y 38.3185 Z -1.0000 I -0.2684 J -2.0540
G01 X 1.1505 Y 38.3185 Z -1.0000
G01 X 1.1505 Y 37.4946 Z -1.0000
G01 X 2.0682 Y 37.4946 Z -1.0000
G03 X 2.3064 Y 37.5221 Z -1.0000 I 0.0000 J 1.0447
G03 X 2.4687 Y 37.5884 Z -1.0000 I -0.1274 J 0.5439
G01 X 2.4687 Y 37.5884 Z -1.0000
G00 Z 5.0000

(End cutting path id: text8393)


(Start cutting path id: text8393)
(Change tool to Default tool)

G00 Z 5.0000
G00 X 6.1115 Y 36.6428

G01 Z -1.0000 F 100.0000(Penetrate)
G01 X 5.6451 Y 38.1131 Z -1.0000 F 3500.0000
G01 X 5.1634 Y 36.6428 Z -1.0000
G01 X 6.1115 Y 36.6428 Z -1.0000
G00 Z 5.0000

(End cutting path id: text8393)


(Start cutting path id: text8393)
(Change tool to Default tool)

G00 Z 5.0000
G00 X 6.3296 Y 35.9989

G01 Z -1.0000 F 100.0000(Penetrate)
G01 X 4.9530 Y 35.9989 Z -1.0000 F 3500.0000
G01 X 4.6945 Y 35.2308 Z -1.0000
G01 X 3.8782 Y 35.2308 Z -1.0000
G01 X 5.2116 Y 38.9674 Z -1.0000
G01 X 6.0938 Y 38.9674 Z -1.0000
G01 X 7.4171 Y 35.2308 Z -1.0000
G01 X 6.5704 Y 35.2308 Z -1.0000
G01 X 6.3296 Y 35.9989 Z -1.0000
G00 Z 5.0000

(End cutting path id: text8393)


(Start cutting path id: text8393)
(Change tool to Default tool)

G00 Z 5.0000
G00 X 9.2474 Y 35.7707

G01 Z -1.0000 F 100.0000(Penetrate)
G03 X 9.5206 Y 35.7892 Z -1.0000 I -0.0000 J 2.0330 F 3500.0000
G03 X 9.6961 Y 35.8316 Z -1.0000 I -0.1188 J 0.8765
G03 X 9.9373 Y 36.0087 Z -1.0000 I -0.1752 J 0.4912
G03 X 10.0231 Y 36.2651 Z -1.0000 I -0.3398 J 0.2563
G03 X 9.9806 Y 36.4265 Z -1.0000 I -0.3277 J -0.0000
G03 X 9.8609 Y 36.5515 Z -1.0000 I -0.3062 J -0.1734
G03 X 9.6910 Y 36.6313 Z -1.0000 I -0.4518 J -0.7414
G03 X 9.3513 Y 36.7265 Z -1.0000 I -0.9955 J -2.8999
G01 X 8.9559 Y 36.8152 Z -1.0000
G02 X 8.3872 Y 36.9798 Z -1.0000 I 1.0969 J 4.8517
G02 X 8.1497 Y 37.1016 Z -1.0000 I 0.3386 J 0.9530
G02 X 7.8813 Y 37.4179 Z -1.0000 I 0.4444 J 0.6492
G02 X 7.7720 Y 37.9103 Z -1.0000 I 1.0543 J 0.4924
G02 X 7.8681 Y 38.3697 Z -1.0000 I 1.1458 J 0.0000
G02 X 8.1370 Y 38.7443 Z -1.0000 I 1.0131 J -0.4434
G02 X 8.5412 Y 38.9753 Z -1.0000 I 0.7212 J -0.7928
G02 X 9.2094 Y 39.0764 Z -1.0000 I 0.6682 J -2.1575
G02 X 9.7713 Y 38.9907 Z -1.0000 I 0.0000 J -1.8847
G02 X 10.2158 Y 38.7621 Z -1.0000 I -0.4345 J -1.3912
G02 X 10.5217 Y 38.3915 Z -1.0000 I -0.6041 J -0.8104
G02 X 10.6543 Y 37.8545 Z -1.0000 I -1.2054 J -0.5825
G01 X 9.9040 Y 37.8545 Z -1.0000
G03 X 9.8123 Y 38.1453 Z -1.0000 I -0.6269 J -0.0377
G03 X 9.6099 Y 38.3337 Z -1.0000 I -0.4402 J -0.2702
G03 X 9.4208 Y 38.4004 Z -1.0000 I -0.3394 J -0.6604
G03 X 9.1561 Y 38.4275 Z -1.0000 I -0.2647 J -1.2806
G03 X 8.8655 Y 38.3913 Z -1.0000 I 0.0000 J -1.1864
G03 X 8.6745 Y 38.3058 Z -1.0000 I 0.1485 J -0.5878
G03 X 8.5424 Y 38.1587 Z -1.0000 I 0.2287 J -0.3383
G03 X 8.4945 Y 37.9661 Z -1.0000 I 0.3635 J -0.1926
G03 X 8.5418 Y 37.7936 Z -1.0000 I 0.3380 J 0.0000
G03 X 8.6719 Y 37.6670 Z -1.0000 I 0.2998 J 0.1778
G03 X 8.7913 Y 37.6143 Z -1.0000 I 0.3023 J 0.5232
G03 X 9.1587 Y 37.5123 Z -1.0000 I 1.5630 J 4.9196
G01 X 9.8026 Y 37.3577 Z -1.0000
G02 X 10.2100 Y 37.2234 Z -1.0000 I -0.6010 J -2.5093
G02 X 10.4414 Y 37.0864 Z -1.0000 I -0.3963 J -0.9333
G02 X 10.6810 Y 36.7767 Z -1.0000 I -0.4994 J -0.6338
G02 X 10.7760 Y 36.3234 Z -1.0000 I -1.0337 J -0.4533
G02 X 10.6739 Y 35.8580 Z -1.0000 I -1.1109 J -0.0000
G02 X 10.3831 Y 35.4716 Z -1.0000 I -1.0393 J 0.4795
G02 X 9.9551 Y 35.2355 Z -1.0000 I -0.7731 J 0.8951
G02 X 9.2778 Y 35.1344 Z -1.0000 I -0.6773 J 2.2203
G02 X 8.5821 Y 35.2330 Z -1.0000 I -0.0000 J 2.5044
G02 X 8.1294 Y 35.4665 Z -1.0000 I 0.3655 J 1.2641
G02 X 7.8258 Y 35.8563 Z -1.0000 I 0.6650 J 0.8312
G02 X 7.7112 Y 36.3842 Z -1.0000 I 1.1583 J 0.5280
G01 X 8.4565 Y 36.3842 Z -1.0000
G03 X 8.5173 Y 36.1393 Z -1.0000 I 1.1839 J 0.1641
G03 X 8.5959 Y 36.0014 Z -1.0000 I 0.4438 J 0.1617
G03 X 8.8206 Y 35.8441 Z -1.0000 I 0.3960 J 0.3264
G03 X 9.2474 Y 35.7707 Z -1.0000 I 0.4268 J 1.2053
G01 X 9.2474 Y 35.7707 Z -1.0000
G00 Z 5.0000

(End cutting path id: text8393)


(Start cutting path id: text8393)
(Change tool to Default tool)

G00 Z 5.0000
G00 X 13.9550 Y 36.8633

G01 Z -1.0000 F 100.0000(Penetrate)
G01 X 12.1399 Y 36.8633 Z -1.0000 F 3500.0000
G01 X 12.1399 Y 35.9026 Z -1.0000
G01 X 14.2085 Y 35.9026 Z -1.0000
G01 X 14.2085 Y 35.2308 Z -1.0000
G01 X 11.3768 Y 35.2308 Z -1.0000
G01 X 11.3768 Y 38.9674 Z -1.0000
G01 X 14.1172 Y 38.9674 Z -1.0000
G01 X 14.1172 Y 38.3058 Z -1.0000
G01 X 12.1399 Y 38.3058 Z -1.0000
G01 X 12.1399 Y 37.5123 Z -1.0000
G01 X 13.9550 Y 37.5123 Z -1.0000
G01 X 13.9550 Y 36.8633 Z -1.0000
G00 Z 5.0000

(End cutting path id: text8393)


(Start cutting path id: text8393)
(Change tool to Default tool)

G00 Z 5.0000
G00 X 16.5052 Y 36.8760

G01 Z -1.0000 F 100.0000(Penetrate)
G01 X 15.5749 Y 36.8760 Z -1.0000 F 3500.0000
G01 X 15.5749 Y 35.8797 Z -1.0000
G01 X 16.4925 Y 35.8797 Z -1.0000
G03 X 16.7337 Y 35.9004 Z -1.0000 I 0.0000 J 1.4214
G03 X 16.8753 Y 35.9457 Z -1.0000 I -0.0910 J 0.5283
G03 X 17.0493 Y 36.1138 Z -1.0000 I -0.1728 J 0.3528
G03 X 17.1238 Y 36.4121 Z -1.0000 I -0.5601 J 0.2983
G03 X 17.0551 Y 36.6594 Z -1.0000 I -0.4799 J -0.0000
G03 X 16.8829 Y 36.8126 Z -1.0000 I -0.3319 J -0.1996
G03 X 16.7444 Y 36.8548 Z -1.0000 I -0.2312 J -0.5107
G03 X 16.5052 Y 36.8760 Z -1.0000 I -0.2553 J -1.5216
G01 X 16.5052 Y 36.8760 Z -1.0000
G00 Z 5.0000

(End cutting path id: text8393)


(Start cutting path id: text8393)
(Change tool to Default tool)

G00 Z 5.0000
G00 X 16.8931 Y 37.5884

G01 Z -1.0000 F 100.0000(Penetrate)
G03 X 16.9988 Y 37.7059 Z -1.0000 I -0.1387 J 0.2312 F 3500.0000
G03 X 17.0452 Y 37.9154 Z -1.0000 I -0.4505 J 0.2095
G03 X 16.9850 Y 38.1362 Z -1.0000 I -0.4356 J 0.0000
G03 X 16.8424 Y 38.2602 Z -1.0000 I -0.2559 J -0.1505
G03 X 16.6646 Y 38.3010 Z -1.0000 I -0.3012 J -0.9035
G03 X 16.3962 Y 38.3185 Z -1.0000 I -0.2684 J -2.0540
G01 X 15.5749 Y 38.3185 Z -1.0000
G01 X 15.5749 Y 37.4946 Z -1.0000
G01 X 16.4925 Y 37.4946 Z -1.0000
G03 X 16.7307 Y 37.5221 Z -1.0000 I -0.0000 J 1.0447
G03 X 16.8931 Y 37.5884 Z -1.0000 I -0.1274 J 0.5439
G01 X 16.8931 Y 37.5884 Z -1.0000
G00 Z 5.0000

(End cutting path id: text8393)


(Start cutting path id: text8393)
(Change tool to Default tool)

G00 Z 5.0000
G00 X 16.5230 Y 35.2308

G01 Z -1.0000 F 100.0000(Penetrate)
G01 X 14.8295 Y 35.2308 Z -1.0000 F 3500.0000
G01 X 14.8295 Y 38.9674 Z -1.0000
G01 X 16.6446 Y 38.9674 Z -1.0000
G02 X 17.2711 Y 38.8395 Z -1.0000 I -0.0254 J -1.7223
G02 X 17.6181 Y 38.5694 Z -1.0000 I -0.3083 J -0.7540
G02 X 17.7436 Y 38.3160 Z -1.0000 I -0.6919 J -0.5005
G02 X 17.7905 Y 37.9990 Z -1.0000 I -1.0486 J -0.3169
G02 X 17.7408 Y 37.6747 Z -1.0000 I -1.0846 J -0.0000
G02 X 17.6181 Y 37.4489 Z -1.0000 I -0.6349 J 0.1990
G02 X 17.5105 Y 37.3463 Z -1.0000 I -0.4851 J 0.4007
G02 X 17.3342 Y 37.2360 Z -1.0000 I -0.7389 J 0.9852
G02 X 17.5913 Y 37.0954 Z -1.0000 I -0.3292 J -0.9074
G02 X 17.7651 Y 36.9064 Z -1.0000 I -0.4500 J -0.5885
G02 X 17.8713 Y 36.6687 Z -1.0000 I -0.6949 J -0.4529
G02 X 17.9122 Y 36.3589 Z -1.0000 I -1.1538 J -0.3098
G02 X 17.8682 Y 36.0396 Z -1.0000 I -1.1809 J 0.0000
G02 X 17.7448 Y 35.7631 Z -1.0000 I -1.0026 J 0.2816
G02 X 17.6240 Y 35.6013 Z -1.0000 I -0.9148 J 0.5569
G02 X 17.4787 Y 35.4691 Z -1.0000 I -0.7514 J 0.6801
G02 X 17.2876 Y 35.3565 Z -1.0000 I -0.5718 J 0.7518
G02 X 17.0528 Y 35.2815 Z -1.0000 I -0.4706 J 1.0684
G02 X 16.8080 Y 35.2444 Z -1.0000 I -0.4593 J 2.2045
G02 X 16.5230 Y 35.2308 Z -1.0000 I -0.2851 J 2.9788
G01 X 16.5230 Y 35.2308 Z -1.0000
G00 Z 5.0000

(End cutting path id: text8393)


(Start cutting path id: text8393)
(Change tool to Default tool)

G00 Z 5.0000
G00 X 20.5359 Y 36.6428

G01 Z -1.0000 F 100.0000(Penetrate)
G01 X 20.0695 Y 38.1131 Z -1.0000 F 3500.0000
G01 X 19.5878 Y 36.6428 Z -1.0000
G01 X 20.5359 Y 36.6428 Z -1.0000
G00 Z 5.0000

(End cutting path id: text8393)


(Start cutting path id: text8393)
(Change tool to Default tool)

G00 Z 5.0000
G00 X 20.7539 Y 35.9989

G01 Z -1.0000 F 100.0000(Penetrate)
G01 X 19.3774 Y 35.9989 Z -1.0000 F 3500.0000
G01 X 19.1188 Y 35.2308 Z -1.0000
G01 X 18.3025 Y 35.2308 Z -1.0000
G01 X 19.6360 Y 38.9674 Z -1.0000
G01 X 20.5182 Y 38.9674 Z -1.0000
G01 X 21.8415 Y 35.2308 Z -1.0000
G01 X 20.9948 Y 35.2308 Z -1.0000
G01 X 20.7539 Y 35.9989 Z -1.0000
G00 Z 5.0000

(End cutting path id: text8393)


(Start cutting path id: text8393)
(Change tool to Default tool)

G00 Z 5.0000
G00 X 22.3155 Y 38.9674

G01 Z -1.0000 F 100.0000(Penetrate)
G01 X 23.0963 Y 38.9674 Z -1.0000 F 3500.0000
G01 X 23.0963 Y 35.9026 Z -1.0000
G01 X 24.9469 Y 35.9026 Z -1.0000
G01 X 24.9469 Y 35.2308 Z -1.0000
G01 X 22.3155 Y 35.2308 Z -1.0000
G01 X 22.3155 Y 38.9674 Z -1.0000
G00 Z 5.0000

(End cutting path id: text8393)


(Start cutting path id: text8393)
(Change tool to Default tool)

G00 Z 5.0000
G00 X 25.4869 Y 38.9674

G01 Z -1.0000 F 100.0000(Penetrate)
G01 X 26.2676 Y 38.9674 Z -1.0000 F 3500.0000
G01 X 26.2676 Y 35.9026 Z -1.0000
G01 X 28.1182 Y 35.9026 Z -1.0000
G01 X 28.1182 Y 35.2308 Z -1.0000
G01 X 25.4869 Y 35.2308 Z -1.0000
G01 X 25.4869 Y 38.9674 Z -1.0000
G00 Z 5.0000

(End cutting path id: text8393)


(Start cutting path id: text8393)
(Change tool to Default tool)

G00 Z 5.0000
G00 X 31.6977 Y 36.8760

G01 Z -1.0000 F 100.0000(Penetrate)
G01 X 30.7673 Y 36.8760 Z -1.0000 F 3500.0000
G01 X 30.7673 Y 35.8797 Z -1.0000
G01 X 31.6850 Y 35.8797 Z -1.0000
G03 X 31.9262 Y 35.9004 Z -1.0000 I -0.0000 J 1.4214
G03 X 32.0678 Y 35.9457 Z -1.0000 I -0.0910 J 0.5283
G03 X 32.2418 Y 36.1138 Z -1.0000 I -0.1728 J 0.3528
G03 X 32.3162 Y 36.4121 Z -1.0000 I -0.5601 J 0.2983
G03 X 32.2476 Y 36.6594 Z -1.0000 I -0.4799 J 0.0000
G03 X 32.0754 Y 36.8126 Z -1.0000 I -0.3319 J -0.1996
G03 X 31.9369 Y 36.8548 Z -1.0000 I -0.2312 J -0.5107
G03 X 31.6977 Y 36.8760 Z -1.0000 I -0.2553 J -1.5216
G01 X 31.6977 Y 36.8760 Z -1.0000
G00 Z 5.0000

(End cutting path id: text8393)


(Start cutting path id: text8393)
(Change tool to Default tool)

G00 Z 5.0000
G00 X 32.0856 Y 37.5884

G01 Z -1.0000 F 100.0000(Penetrate)
G03 X 32.1913 Y 37.7059 Z -1.0000 I -0.1387 J 0.2312 F 3500.0000
G03 X 32.2377 Y 37.9154 Z -1.0000 I -0.4505 J 0.2095
G03 X 32.1775 Y 38.1362 Z -1.0000 I -0.4356 J 0.0000
G03 X 32.0348 Y 38.2602 Z -1.0000 I -0.2559 J -0.1505
G03 X 31.8571 Y 38.3010 Z -1.0000 I -0.3012 J -0.9035
G03 X 31.5887 Y 38.3185 Z -1.0000 I -0.2684 J -2.0539
G01 X 30.7673 Y 38.3185 Z -1.0000
G01 X 30.7673 Y 37.4946 Z -1.0000
G01 X 31.6850 Y 37.4946 Z -1.0000
G03 X 31.9232 Y 37.5221 Z -1.0000 I -0.0000 J 1.0447
G03 X 32.0856 Y 37.5884 Z -1.0000 I -0.1274 J 0.5439
G01 X 32.0856 Y 37.5884 Z -1.0000
G00 Z 5.0000

(End cutting path id: text8393)


(Start cutting path id: text8393)
(Change tool to Default tool)

G00 Z 5.0000
G00 X 31.7154 Y 35.2308

G01 Z -1.0000 F 100.0000(Penetrate)
G01 X 30.0220 Y 35.2308 Z -1.0000 F 3500.0000
G01 X 30.0220 Y 38.9674 Z -1.0000
G01 X 31.8371 Y 38.9674 Z -1.0000
G02 X 32.4636 Y 38.8395 Z -1.0000 I -0.0254 J -1.7224
G02 X 32.8106 Y 38.5694 Z -1.0000 I -0.3083 J -0.7540
G02 X 32.9361 Y 38.3160 Z -1.0000 I -0.6919 J -0.5005
G02 X 32.9830 Y 37.9990 Z -1.0000 I -1.0486 J -0.3169
G02 X 32.9333 Y 37.6747 Z -1.0000 I -1.0846 J -0.0000
G02 X 32.8106 Y 37.4489 Z -1.0000 I -0.6349 J 0.1990
G02 X 32.7030 Y 37.3463 Z -1.0000 I -0.4851 J 0.4007
G02 X 32.5267 Y 37.2360 Z -1.0000 I -0.7389 J 0.9852
G02 X 32.7838 Y 37.0954 Z -1.0000 I -0.3292 J -0.9074
G02 X 32.9576 Y 36.9064 Z -1.0000 I -0.4500 J -0.5885
G02 X 33.0638 Y 36.6687 Z -1.0000 I -0.6949 J -0.4529
G02 X 33.1046 Y 36.3589 Z -1.0000 I -1.1538 J -0.3098
G02 X 33.0607 Y 36.0396 Z -1.0000 I -1.1809 J -0.0000
G02 X 32.9373 Y 35.7631 Z -1.0000 I -1.0026 J 0.2816
G02 X 32.8165 Y 35.6013 Z -1.0000 I -0.9148 J 0.5568
G02 X 32.6711 Y 35.4691 Z -1.0000 I -0.7514 J 0.6801
G02 X 32.4801 Y 35.3565 Z -1.0000 I -0.5718 J 0.7518
G02 X 32.2453 Y 35.2815 Z -1.0000 I -0.4706 J 1.0684
G02 X 32.0005 Y 35.2444 Z -1.0000 I -0.4593 J 2.2045
G02 X 31.7154 Y 35.2308 Z -1.0000 I -0.2851 J 2.9788
G01 X 31.7154 Y 35.2308 Z -1.0000
G00 Z 5.0000

(End cutting path id: text8393)


(Start cutting path id: text8393)
(Change tool to Default tool)

G00 Z 5.0000
G00 X 35.7284 Y 36.6428

G01 Z -1.0000 F 100.0000(Penetrate)
G01 X 35.2620 Y 38.1131 Z -1.0000 F 3500.0000
G01 X 34.7803 Y 36.6428 Z -1.0000
G01 X 35.7284 Y 36.6428 Z -1.0000
G00 Z 5.0000

(End cutting path id: text8393)


(Start cutting path id: text8393)
(Change tool to Default tool)

G00 Z 5.0000
G00 X 35.9464 Y 35.9989

G01 Z -1.0000 F 100.0000(Penetrate)
G01 X 34.5699 Y 35.9989 Z -1.0000 F 3500.0000
G01 X 34.3113 Y 35.2308 Z -1.0000
G01 X 33.4950 Y 35.2308 Z -1.0000
G01 X 34.8285 Y 38.9674 Z -1.0000
G01 X 35.7107 Y 38.9674 Z -1.0000
G01 X 37.0340 Y 35.2308 Z -1.0000
G01 X 36.1872 Y 35.2308 Z -1.0000
G01 X 35.9464 Y 35.9989 Z -1.0000
G00 Z 5.0000

(End cutting path id: text8393)


(Start cutting path id: text8393)
(Change tool to Default tool)

G00 Z 5.0000
G00 X 39.8402 Y 38.9674

G01 Z -1.0000 F 100.0000(Penetrate)
G01 X 39.8402 Y 38.3058 Z -1.0000 F 3500.0000
G01 X 38.7223 Y 38.3058 Z -1.0000
G01 X 38.7223 Y 35.2308 Z -1.0000
G01 X 37.9364 Y 35.2308 Z -1.0000
G01 X 37.9364 Y 38.3058 Z -1.0000
G01 X 36.8134 Y 38.3058 Z -1.0000
G01 X 36.8134 Y 38.9674 Z -1.0000
G01 X 39.8402 Y 38.9674 Z -1.0000
G00 Z 5.0000

(End cutting path id: text8393)



(Footer)
M5
G00 X0.0000 Y0.0000
M2
(Using default footer. To add your own footer create file "footer" in the output dir.)
(end)
%