%
(Header)
(Generated by gcodetools from Inkscape.)
(Using default header. To add your own header create file "header" in the output dir.)
M3
(Header end.)
G21 (All units in mm)

(Start cutting path id: text1058)
(Change tool to Default tool)

G00 Z 5.0000
G00 X 3.5937 Y 32.6953

G01 Z -1.0000 F 100.0000(Penetrate)
G01 X 0.5818 Y 32.6953 Z -1.0000 F 3500.0000
G01 X 0.5818 Y 39.3413 Z -1.0000
G01 X 3.8101 Y 39.3413 Z -1.0000
G02 X 4.9243 Y 39.1138 Z -1.0000 I -0.0452 J -3.0634
G02 X 5.5415 Y 38.6335 Z -1.0000 I -0.5483 J -1.3411
G02 X 5.7648 Y 38.1827 Z -1.0000 I -1.2306 J -0.8902
G02 X 5.8481 Y 37.6190 Z -1.0000 I -1.8651 J -0.5637
G02 X 5.7598 Y 37.0421 Z -1.0000 I -1.9291 J 0.0000
G02 X 5.5415 Y 36.6406 Z -1.0000 I -1.1293 J 0.3539
G02 X 5.3502 Y 36.4580 Z -1.0000 I -0.8628 J 0.7128
G02 X 5.0365 Y 36.2618 Z -1.0000 I -1.3143 J 1.7524
G02 X 5.4938 Y 36.0117 Z -1.0000 I -0.5856 J -1.6139
G02 X 5.8030 Y 35.6757 Z -1.0000 I -0.8004 J -1.0467
G02 X 5.9918 Y 35.2528 Z -1.0000 I -1.2360 J -0.8055
G02 X 6.0645 Y 34.7018 Z -1.0000 I -2.0521 J -0.5510
G02 X 5.9863 Y 34.1338 Z -1.0000 I -2.1004 J -0.0000
G02 X 5.7669 Y 33.6422 Z -1.0000 I -1.7832 J 0.5008
G02 X 5.5520 Y 33.3543 Z -1.0000 I -1.6271 J 0.9904
G02 X 5.2935 Y 33.1192 Z -1.0000 I -1.3364 J 1.2097
G02 X 4.9537 Y 32.9189 Z -1.0000 I -1.0170 J 1.3371
G02 X 4.5360 Y 32.7855 Z -1.0000 I -0.8370 J 1.9002
G02 X 4.1007 Y 32.7195 Z -1.0000 I -0.8169 J 3.9210
G02 X 3.5937 Y 32.6953 Z -1.0000 I -0.5070 J 5.2982
G01 X 3.5937 Y 32.6953 Z -1.0000
G00 Z 5.0000

(End cutting path id: text1058)


(Start cutting path id: text1058)
(Change tool to Default tool)

G00 Z 5.0000
G00 X 3.5621 Y 35.6216

G01 Z -1.0000 F 100.0000(Penetrate)
G01 X 1.9074 Y 35.6216 Z -1.0000 F 3500.0000
G01 X 1.9074 Y 33.8496 Z -1.0000
G01 X 3.5396 Y 33.8496 Z -1.0000
G03 X 3.9686 Y 33.8862 Z -1.0000 I 0.0000 J 2.5281
G03 X 4.2204 Y 33.9668 Z -1.0000 I -0.1618 J 0.9397
G03 X 4.5298 Y 34.2659 Z -1.0000 I -0.3074 J 0.6275
G03 X 4.6623 Y 34.7964 Z -1.0000 I -0.9962 J 0.5306
G03 X 4.5402 Y 35.2362 Z -1.0000 I -0.8535 J -0.0000
G03 X 4.2339 Y 35.5088 Z -1.0000 I -0.5904 J -0.3550
G03 X 3.9876 Y 35.5839 Z -1.0000 I -0.4113 J -0.9083
G03 X 3.5621 Y 35.6216 Z -1.0000 I -0.4541 J -2.7064
G01 X 3.5621 Y 35.6216 Z -1.0000
G00 Z 5.0000

(End cutting path id: text1058)


(Start cutting path id: text1058)
(Change tool to Default tool)

G00 Z 5.0000
G00 X 4.2520 Y 36.8885

G01 Z -1.0000 F 100.0000(Penetrate)
G03 X 4.4401 Y 37.0975 Z -1.0000 I -0.2467 J 0.4112 F 3500.0000
G03 X 4.5225 Y 37.4702 Z -1.0000 I -0.8012 J 0.3727
G03 X 4.4155 Y 37.8630 Z -1.0000 I -0.7748 J 0.0000
G03 X 4.1618 Y 38.0834 Z -1.0000 I -0.4551 J -0.2677
G03 X 3.8456 Y 38.1560 Z -1.0000 I -0.5356 J -1.6069
G03 X 3.3682 Y 38.1871 Z -1.0000 I -0.4774 J -3.6532
G01 X 1.9074 Y 38.1871 Z -1.0000
G01 X 1.9074 Y 36.7217 Z -1.0000
G01 X 3.5396 Y 36.7217 Z -1.0000
G03 X 3.9632 Y 36.7707 Z -1.0000 I 0.0000 J 1.8581
G03 X 4.2520 Y 36.8885 Z -1.0000 I -0.2265 J 0.9674
G01 X 4.2520 Y 36.8885 Z -1.0000
G00 Z 5.0000

(End cutting path id: text1058)


(Start cutting path id: text1058)
(Change tool to Default tool)

G00 Z 5.0000
G00 X 10.7312 Y 35.2067

G01 Z -1.0000 F 100.0000(Penetrate)
G01 X 9.9015 Y 37.8219 Z -1.0000 F 3500.0000
G01 X 9.0449 Y 35.2067 Z -1.0000
G01 X 10.7312 Y 35.2067 Z -1.0000
G00 Z 5.0000

(End cutting path id: text1058)


(Start cutting path id: text1058)
(Change tool to Default tool)

G00 Z 5.0000
G00 X 11.1189 Y 34.0615

G01 Z -1.0000 F 100.0000(Penetrate)
G01 X 8.6706 Y 34.0615 Z -1.0000 F 3500.0000
G01 X 8.2107 Y 32.6953 Z -1.0000
G01 X 6.7589 Y 32.6953 Z -1.0000
G01 X 9.1305 Y 39.3413 Z -1.0000
G01 X 10.6996 Y 39.3413 Z -1.0000
G01 X 13.0532 Y 32.6953 Z -1.0000
G01 X 11.5473 Y 32.6953 Z -1.0000
G01 X 11.1189 Y 34.0615 Z -1.0000
G00 Z 5.0000

(End cutting path id: text1058)


(Start cutting path id: text1058)
(Change tool to Default tool)

G00 Z 5.0000
G00 X 19.2709 Y 32.6953

G01 Z -1.0000 F 100.0000(Penetrate)
G01 X 17.8822 Y 32.6953 Z -1.0000 F 3500.0000
G01 X 15.1679 Y 37.4161 Z -1.0000
G01 X 15.1679 Y 32.6953 Z -1.0000
G01 X 13.8738 Y 32.6953 Z -1.0000
G01 X 13.8738 Y 39.3413 Z -1.0000
G01 X 15.3302 Y 39.3413 Z -1.0000
G01 X 17.9769 Y 34.7018 Z -1.0000
G01 X 17.9769 Y 39.3413 Z -1.0000
G01 X 19.2709 Y 39.3413 Z -1.0000
G01 X 19.2709 Y 32.6953 Z -1.0000
G00 Z 5.0000

(End cutting path id: text1058)


(Start cutting path id: text1058)
(Change tool to Default tool)

G00 Z 5.0000
G00 X 24.4561 Y 34.0615

G01 Z -1.0000 F 100.0000(Penetrate)
G01 X 22.0078 Y 34.0615 Z -1.0000 F 3500.0000
G01 X 21.5479 Y 32.6953 Z -1.0000
G01 X 20.0960 Y 32.6953 Z -1.0000
G01 X 22.4677 Y 39.3413 Z -1.0000
G01 X 24.0367 Y 39.3413 Z -1.0000
G01 X 26.3904 Y 32.6953 Z -1.0000
G01 X 24.8844 Y 32.6953 Z -1.0000
G01 X 24.4561 Y 34.0615 Z -1.0000
G00 Z 5.0000

(End cutting path id: text1058)


(Start cutting path id: text1058)
(Change tool to Default tool)

G00 Z 5.0000
G00 X 24.0683 Y 35.2067

G01 Z -1.0000 F 100.0000(Penetrate)
G01 X 23.2387 Y 37.8219 Z -1.0000 F 3500.0000
G01 X 22.3820 Y 35.2067 Z -1.0000
G01 X 24.0683 Y 35.2067 Z -1.0000
G00 Z 5.0000

(End cutting path id: text1058)


(Start cutting path id: text1058)
(Change tool to Default tool)

G00 Z 5.0000
G00 X 32.6080 Y 32.6953

G01 Z -1.0000 F 100.0000(Penetrate)
G01 X 31.2193 Y 32.6953 Z -1.0000 F 3500.0000
G01 X 28.5050 Y 37.4161 Z -1.0000
G01 X 28.5050 Y 32.6953 Z -1.0000
G01 X 27.2110 Y 32.6953 Z -1.0000
G01 X 27.2110 Y 39.3413 Z -1.0000
G01 X 28.6673 Y 39.3413 Z -1.0000
G01 X 31.3140 Y 34.7018 Z -1.0000
G01 X 31.3140 Y 39.3413 Z -1.0000
G01 X 32.6080 Y 39.3413 Z -1.0000
G01 X 32.6080 Y 32.6953 Z -1.0000
G00 Z 5.0000

(End cutting path id: text1058)


(Start cutting path id: text1058)
(Change tool to Default tool)

G00 Z 5.0000
G00 X 37.7932 Y 34.0615

G01 Z -1.0000 F 100.0000(Penetrate)
G01 X 35.3449 Y 34.0615 Z -1.0000 F 3500.0000
G01 X 34.8850 Y 32.6953 Z -1.0000
G01 X 33.4332 Y 32.6953 Z -1.0000
G01 X 35.8048 Y 39.3413 Z -1.0000
G01 X 37.3739 Y 39.3413 Z -1.0000
G01 X 39.7275 Y 32.6953 Z -1.0000
G01 X 38.2216 Y 32.6953 Z -1.0000
G01 X 37.7932 Y 34.0615 Z -1.0000
G00 Z 5.0000

(End cutting path id: text1058)


(Start cutting path id: text1058)
(Change tool to Default tool)

G00 Z 5.0000
G00 X 37.4055 Y 35.2067

G01 Z -1.0000 F 100.0000(Penetrate)
G01 X 36.5758 Y 37.8219 Z -1.0000 F 3500.0000
G01 X 35.7191 Y 35.2067 Z -1.0000
G01 X 37.4055 Y 35.2067 Z -1.0000
G00 Z 5.0000

(End cutting path id: text1058)



(Footer)
M5
G00 X0.0000 Y0.0000
M2
(Using default footer. To add your own footer create file "footer" in the output dir.)
(end)
%