%
(Header)
(Generated by gcodetools from Inkscape.)
(Using default header. To add your own header create file "header" in the output dir.)
M3
(Header end.)
G21 (All units in mm)

(Start cutting path id: text8393)
(Change tool to Default tool)

G00 Z 5.0000
G00 X 1.8183 Y 36.3972

G01 Z -1.0000 F 100.0000(Penetrate)
G01 X 0.4052 Y 36.3972 Z -1.0000 F 3500.0000
G01 X 0.4052 Y 39.5155 Z -1.0000
G01 X 1.9199 Y 39.5155 Z -1.0000
G02 X 2.4427 Y 39.4087 Z -1.0000 I -0.0212 J -1.4373
G02 X 2.7323 Y 39.1833 Z -1.0000 I -0.2573 J -0.6293
G02 X 2.8370 Y 38.9718 Z -1.0000 I -0.5774 J -0.4177
G02 X 2.8761 Y 38.7073 Z -1.0000 I -0.8751 J -0.2645
G02 X 2.8347 Y 38.4367 Z -1.0000 I -0.9051 J 0.0000
G02 X 2.7323 Y 38.2483 Z -1.0000 I -0.5299 J 0.1660
G02 X 2.6425 Y 38.1626 Z -1.0000 I -0.4048 J 0.3344
G02 X 2.4953 Y 38.0706 Z -1.0000 I -0.6167 J 0.8222
G02 X 2.7099 Y 37.9532 Z -1.0000 I -0.2747 J -0.7572
G02 X 2.8550 Y 37.7955 Z -1.0000 I -0.3755 J -0.4911
G02 X 2.9435 Y 37.5971 Z -1.0000 I -0.5799 J -0.3779
G02 X 2.9777 Y 37.3386 Z -1.0000 I -0.9628 J -0.2585
G02 X 2.9409 Y 37.0721 Z -1.0000 I -0.9855 J -0.0000
G02 X 2.8380 Y 36.8414 Z -1.0000 I -0.8367 J 0.2350
G02 X 2.7372 Y 36.7064 Z -1.0000 I -0.7634 J 0.4647
G02 X 2.6159 Y 36.5960 Z -1.0000 I -0.6270 J 0.5676
G02 X 2.4565 Y 36.5021 Z -1.0000 I -0.4771 J 0.6274
G02 X 2.2605 Y 36.4395 Z -1.0000 I -0.3927 J 0.8916
G02 X 2.0562 Y 36.4085 Z -1.0000 I -0.3833 J 1.8397
G02 X 1.8183 Y 36.3972 Z -1.0000 I -0.2379 J 2.4859
G01 X 1.8183 Y 36.3972 Z -1.0000
G00 Z 5.0000

(End cutting path id: text8393)


(Start cutting path id: text8393)
(Change tool to Default tool)

G00 Z 5.0000
G00 X 1.8035 Y 37.7702

G01 Z -1.0000 F 100.0000(Penetrate)
G01 X 1.0271 Y 37.7702 Z -1.0000 F 3500.0000
G01 X 1.0271 Y 36.9388 Z -1.0000
G01 X 1.7930 Y 36.9388 Z -1.0000
G03 X 1.9942 Y 36.9560 Z -1.0000 I -0.0000 J 1.1862
G03 X 2.1124 Y 36.9938 Z -1.0000 I -0.0759 J 0.4409
G03 X 2.2576 Y 37.1341 Z -1.0000 I -0.1442 J 0.2944
G03 X 2.3197 Y 37.3830 Z -1.0000 I -0.4674 J 0.2489
G03 X 2.2625 Y 37.5894 Z -1.0000 I -0.4005 J 0.0000
G03 X 2.1187 Y 37.7173 Z -1.0000 I -0.2770 J -0.1665
G03 X 2.0032 Y 37.7525 Z -1.0000 I -0.1930 J -0.4262
G03 X 1.8035 Y 37.7702 Z -1.0000 I -0.2131 J -1.2698
G01 X 1.8035 Y 37.7702 Z -1.0000
G00 Z 5.0000

(End cutting path id: text8393)


(Start cutting path id: text8393)
(Change tool to Default tool)

G00 Z 5.0000
G00 X 2.1272 Y 38.3646

G01 Z -1.0000 F 100.0000(Penetrate)
G03 X 2.2155 Y 38.4627 Z -1.0000 I -0.1158 J 0.1930 F 3500.0000
G03 X 2.2541 Y 38.6375 Z -1.0000 I -0.3759 J 0.1748
G03 X 2.2040 Y 38.8218 Z -1.0000 I -0.3635 J -0.0000
G03 X 2.0849 Y 38.9252 Z -1.0000 I -0.2135 J -0.1256
G03 X 1.9366 Y 38.9593 Z -1.0000 I -0.2513 J -0.7540
G03 X 1.7126 Y 38.9739 Z -1.0000 I -0.2240 J -1.7141
G01 X 1.0271 Y 38.9739 Z -1.0000
G01 X 1.0271 Y 38.2863 Z -1.0000
G01 X 1.7930 Y 38.2863 Z -1.0000
G03 X 1.9917 Y 38.3093 Z -1.0000 I 0.0000 J 0.8718
G03 X 2.1272 Y 38.3646 Z -1.0000 I -0.1063 J 0.4539
G01 X 2.1272 Y 38.3646 Z -1.0000
G00 Z 5.0000

(End cutting path id: text8393)


(Start cutting path id: text8393)
(Change tool to Default tool)

G00 Z 5.0000
G00 X 5.1672 Y 37.5755

G01 Z -1.0000 F 100.0000(Penetrate)
G01 X 4.7780 Y 38.8025 Z -1.0000 F 3500.0000
G01 X 4.3760 Y 37.5755 Z -1.0000
G01 X 5.1672 Y 37.5755 Z -1.0000
G00 Z 5.0000

(End cutting path id: text8393)


(Start cutting path id: text8393)
(Change tool to Default tool)

G00 Z 5.0000
G00 X 5.3492 Y 37.0382

G01 Z -1.0000 F 100.0000(Penetrate)
G01 X 4.2004 Y 37.0382 Z -1.0000 F 3500.0000
G01 X 3.9846 Y 36.3972 Z -1.0000
G01 X 3.3034 Y 36.3972 Z -1.0000
G01 X 4.4162 Y 39.5155 Z -1.0000
G01 X 5.1524 Y 39.5155 Z -1.0000
G01 X 6.2567 Y 36.3972 Z -1.0000
G01 X 5.5501 Y 36.3972 Z -1.0000
G01 X 5.3492 Y 37.0382 Z -1.0000
G00 Z 5.0000

(End cutting path id: text8393)


(Start cutting path id: text8393)
(Change tool to Default tool)

G00 Z 5.0000
G00 X 7.7841 Y 36.8478

G01 Z -1.0000 F 100.0000(Penetrate)
G03 X 8.0121 Y 36.8632 Z -1.0000 I -0.0000 J 1.6966 F 3500.0000
G03 X 8.1586 Y 36.8986 Z -1.0000 I -0.0992 J 0.7315
G03 X 8.3598 Y 37.0464 Z -1.0000 I -0.1462 J 0.4099
G03 X 8.4315 Y 37.2603 Z -1.0000 I -0.2836 J 0.2139
G03 X 8.3960 Y 37.3951 Z -1.0000 I -0.2734 J -0.0000
G03 X 8.2961 Y 37.4994 Z -1.0000 I -0.2555 J -0.1447
G03 X 8.1543 Y 37.5659 Z -1.0000 I -0.3770 J -0.6187
G03 X 7.8709 Y 37.6453 Z -1.0000 I -0.8308 J -2.4201
G01 X 7.5408 Y 37.7194 Z -1.0000
G02 X 7.0663 Y 37.8568 Z -1.0000 I 0.9154 J 4.0489
G02 X 6.8681 Y 37.9584 Z -1.0000 I 0.2826 J 0.7953
G02 X 6.6441 Y 38.2223 Z -1.0000 I 0.3708 J 0.5417
G02 X 6.5529 Y 38.6333 Z -1.0000 I 0.8798 J 0.4110
G02 X 6.6331 Y 39.0167 Z -1.0000 I 0.9562 J -0.0000
G02 X 6.8575 Y 39.3293 Z -1.0000 I 0.8454 J -0.3700
G02 X 7.1948 Y 39.5221 Z -1.0000 I 0.6019 J -0.6616
G02 X 7.7524 Y 39.6064 Z -1.0000 I 0.5576 J -1.8005
G02 X 8.2213 Y 39.5349 Z -1.0000 I 0.0000 J -1.5728
G02 X 8.5923 Y 39.3441 Z -1.0000 I -0.3626 J -1.1610
G02 X 8.8476 Y 39.0349 Z -1.0000 I -0.5041 J -0.6763
G02 X 8.9582 Y 38.5868 Z -1.0000 I -1.0059 J -0.4861
G01 X 8.3321 Y 38.5868 Z -1.0000
G03 X 8.2556 Y 38.8294 Z -1.0000 I -0.5231 J -0.0315
G03 X 8.0867 Y 38.9866 Z -1.0000 I -0.3673 J -0.2254
G03 X 7.9289 Y 39.0423 Z -1.0000 I -0.2832 J -0.5511
G03 X 7.7080 Y 39.0649 Z -1.0000 I -0.2209 J -1.0687
G03 X 7.4655 Y 39.0347 Z -1.0000 I 0.0000 J -0.9901
G03 X 7.3060 Y 38.9633 Z -1.0000 I 0.1239 J -0.4905
G03 X 7.1958 Y 38.8406 Z -1.0000 I 0.1909 J -0.2823
G03 X 7.1558 Y 38.6798 Z -1.0000 I 0.3033 J -0.1607
G03 X 7.1953 Y 38.5359 Z -1.0000 I 0.2821 J 0.0000
G03 X 7.3039 Y 38.4302 Z -1.0000 I 0.2502 J 0.1484
G03 X 7.4035 Y 38.3862 Z -1.0000 I 0.2523 J 0.4367
G03 X 7.7101 Y 38.3012 Z -1.0000 I 1.3043 J 4.1054
G01 X 8.2474 Y 38.1721 Z -1.0000
G02 X 8.5874 Y 38.0601 Z -1.0000 I -0.5016 J -2.0941
G02 X 8.7805 Y 37.9457 Z -1.0000 I -0.3307 J -0.7789
G02 X 8.9805 Y 37.6873 Z -1.0000 I -0.4167 J -0.5289
G02 X 9.0598 Y 37.3090 Z -1.0000 I -0.8626 J -0.3783
G02 X 8.9745 Y 36.9206 Z -1.0000 I -0.9271 J 0.0000
G02 X 8.7319 Y 36.5982 Z -1.0000 I -0.8673 J 0.4001
G02 X 8.3747 Y 36.4011 Z -1.0000 I -0.6451 J 0.7470
G02 X 7.8095 Y 36.3168 Z -1.0000 I -0.5652 J 1.8529
G02 X 7.2289 Y 36.3991 Z -1.0000 I 0.0000 J 2.0899
G02 X 6.8512 Y 36.5939 Z -1.0000 I 0.3051 J 1.0549
G02 X 6.5978 Y 36.9192 Z -1.0000 I 0.5549 J 0.6937
G02 X 6.5021 Y 37.3597 Z -1.0000 I 0.9666 J 0.4406
G01 X 7.1241 Y 37.3597 Z -1.0000
G03 X 7.1749 Y 37.1553 Z -1.0000 I 0.9880 J 0.1369
G03 X 7.2404 Y 37.0403 Z -1.0000 I 0.3704 J 0.1349
G03 X 7.4280 Y 36.9090 Z -1.0000 I 0.3305 J 0.2724
G03 X 7.7841 Y 36.8478 Z -1.0000 I 0.3562 J 1.0059
G01 X 7.7841 Y 36.8478 Z -1.0000
G00 Z 5.0000

(End cutting path id: text8393)


(Start cutting path id: text8393)
(Change tool to Default tool)

G00 Z 5.0000
G00 X 11.7127 Y 37.7596

G01 Z -1.0000 F 100.0000(Penetrate)
G01 X 10.1979 Y 37.7596 Z -1.0000 F 3500.0000
G01 X 10.1979 Y 36.9578 Z -1.0000
G01 X 11.9242 Y 36.9578 Z -1.0000
G01 X 11.9242 Y 36.3972 Z -1.0000
G01 X 9.5612 Y 36.3972 Z -1.0000
G01 X 9.5612 Y 39.5155 Z -1.0000
G01 X 11.8481 Y 39.5155 Z -1.0000
G01 X 11.8481 Y 38.9633 Z -1.0000
G01 X 10.1979 Y 38.9633 Z -1.0000
G01 X 10.1979 Y 38.3012 Z -1.0000
G01 X 11.7127 Y 38.3012 Z -1.0000
G01 X 11.7127 Y 37.7596 Z -1.0000
G00 Z 5.0000

(End cutting path id: text8393)


(Start cutting path id: text8393)
(Change tool to Default tool)

G00 Z 5.0000
G00 X 13.8409 Y 37.7702

G01 Z -1.0000 F 100.0000(Penetrate)
G01 X 13.0645 Y 37.7702 Z -1.0000 F 3500.0000
G01 X 13.0645 Y 36.9388 Z -1.0000
G01 X 13.8303 Y 36.9388 Z -1.0000
G03 X 14.0316 Y 36.9560 Z -1.0000 I 0.0000 J 1.1862
G03 X 14.1498 Y 36.9938 Z -1.0000 I -0.0759 J 0.4409
G03 X 14.2949 Y 37.1341 Z -1.0000 I -0.1442 J 0.2944
G03 X 14.3571 Y 37.3830 Z -1.0000 I -0.4674 J 0.2489
G03 X 14.2998 Y 37.5894 Z -1.0000 I -0.4005 J -0.0000
G03 X 14.1561 Y 37.7173 Z -1.0000 I -0.2770 J -0.1665
G03 X 14.0405 Y 37.7525 Z -1.0000 I -0.1930 J -0.4262
G03 X 13.8409 Y 37.7702 Z -1.0000 I -0.2131 J -1.2698
G01 X 13.8409 Y 37.7702 Z -1.0000
G00 Z 5.0000

(End cutting path id: text8393)


(Start cutting path id: text8393)
(Change tool to Default tool)

G00 Z 5.0000
G00 X 14.1646 Y 38.3646

G01 Z -1.0000 F 100.0000(Penetrate)
G03 X 14.2528 Y 38.4627 Z -1.0000 I -0.1158 J 0.1930 F 3500.0000
G03 X 14.2915 Y 38.6375 Z -1.0000 I -0.3759 J 0.1748
G03 X 14.2413 Y 38.8218 Z -1.0000 I -0.3635 J -0.0000
G03 X 14.1222 Y 38.9252 Z -1.0000 I -0.2135 J -0.1256
G03 X 13.9739 Y 38.9593 Z -1.0000 I -0.2513 J -0.7540
G03 X 13.7499 Y 38.9739 Z -1.0000 I -0.2240 J -1.7141
G01 X 13.0645 Y 38.9739 Z -1.0000
G01 X 13.0645 Y 38.2863 Z -1.0000
G01 X 13.8303 Y 38.2863 Z -1.0000
G03 X 14.0291 Y 38.3093 Z -1.0000 I 0.0000 J 0.8718
G03 X 14.1646 Y 38.3646 Z -1.0000 I -0.1063 J 0.4539
G01 X 14.1646 Y 38.3646 Z -1.0000
G00 Z 5.0000

(End cutting path id: text8393)


(Start cutting path id: text8393)
(Change tool to Default tool)

G00 Z 5.0000
G00 X 13.8557 Y 36.3972

G01 Z -1.0000 F 100.0000(Penetrate)
G01 X 12.4425 Y 36.3972 Z -1.0000 F 3500.0000
G01 X 12.4425 Y 39.5155 Z -1.0000
G01 X 13.9572 Y 39.5155 Z -1.0000
G02 X 14.4800 Y 39.4087 Z -1.0000 I -0.0212 J -1.4373
G02 X 14.7696 Y 39.1833 Z -1.0000 I -0.2573 J -0.6293
G02 X 14.8744 Y 38.9718 Z -1.0000 I -0.5774 J -0.4177
G02 X 14.9135 Y 38.7073 Z -1.0000 I -0.8751 J -0.2645
G02 X 14.8720 Y 38.4367 Z -1.0000 I -0.9051 J -0.0000
G02 X 14.7696 Y 38.2483 Z -1.0000 I -0.5299 J 0.1660
G02 X 14.6798 Y 38.1626 Z -1.0000 I -0.4048 J 0.3344
G02 X 14.5327 Y 38.0706 Z -1.0000 I -0.6167 J 0.8222
G02 X 14.7472 Y 37.9532 Z -1.0000 I -0.2747 J -0.7572
G02 X 14.8923 Y 37.7955 Z -1.0000 I -0.3755 J -0.4911
G02 X 14.9809 Y 37.5971 Z -1.0000 I -0.5799 J -0.3779
G02 X 15.0150 Y 37.3386 Z -1.0000 I -0.9628 J -0.2585
G02 X 14.9783 Y 37.0721 Z -1.0000 I -0.9855 J 0.0000
G02 X 14.8754 Y 36.8414 Z -1.0000 I -0.8367 J 0.2350
G02 X 14.7746 Y 36.7064 Z -1.0000 I -0.7634 J 0.4647
G02 X 14.6532 Y 36.5960 Z -1.0000 I -0.6270 J 0.5676
G02 X 14.4938 Y 36.5021 Z -1.0000 I -0.4771 J 0.6274
G02 X 14.2978 Y 36.4395 Z -1.0000 I -0.3927 J 0.8916
G02 X 14.0936 Y 36.4085 Z -1.0000 I -0.3833 J 1.8397
G02 X 13.8557 Y 36.3972 Z -1.0000 I -0.2379 J 2.4859
G01 X 13.8557 Y 36.3972 Z -1.0000
G00 Z 5.0000

(End cutting path id: text8393)


(Start cutting path id: text8393)
(Change tool to Default tool)

G00 Z 5.0000
G00 X 17.2046 Y 37.5755

G01 Z -1.0000 F 100.0000(Penetrate)
G01 X 16.8153 Y 38.8025 Z -1.0000 F 3500.0000
G01 X 16.4134 Y 37.5755 Z -1.0000
G01 X 17.2046 Y 37.5755 Z -1.0000
G00 Z 5.0000

(End cutting path id: text8393)


(Start cutting path id: text8393)
(Change tool to Default tool)

G00 Z 5.0000
G00 X 17.3865 Y 37.0382

G01 Z -1.0000 F 100.0000(Penetrate)
G01 X 16.2378 Y 37.0382 Z -1.0000 F 3500.0000
G01 X 16.0220 Y 36.3972 Z -1.0000
G01 X 15.3408 Y 36.3972 Z -1.0000
G01 X 16.4536 Y 39.5155 Z -1.0000
G01 X 17.1898 Y 39.5155 Z -1.0000
G01 X 18.2941 Y 36.3972 Z -1.0000
G01 X 17.5875 Y 36.3972 Z -1.0000
G01 X 17.3865 Y 37.0382 Z -1.0000
G00 Z 5.0000

(End cutting path id: text8393)


(Start cutting path id: text8393)
(Change tool to Default tool)

G00 Z 5.0000
G00 X 18.6897 Y 39.5155

G01 Z -1.0000 F 100.0000(Penetrate)
G01 X 19.3413 Y 39.5155 Z -1.0000 F 3500.0000
G01 X 19.3413 Y 36.9578 Z -1.0000
G01 X 20.8856 Y 36.9578 Z -1.0000
G01 X 20.8856 Y 36.3972 Z -1.0000
G01 X 18.6897 Y 36.3972 Z -1.0000
G01 X 18.6897 Y 39.5155 Z -1.0000
G00 Z 5.0000

(End cutting path id: text8393)


(Start cutting path id: text8393)
(Change tool to Default tool)

G00 Z 5.0000
G00 X 21.3362 Y 39.5155

G01 Z -1.0000 F 100.0000(Penetrate)
G01 X 21.9878 Y 39.5155 Z -1.0000 F 3500.0000
G01 X 21.9878 Y 36.9578 Z -1.0000
G01 X 23.5321 Y 36.9578 Z -1.0000
G01 X 23.5321 Y 36.3972 Z -1.0000
G01 X 21.3362 Y 36.3972 Z -1.0000
G01 X 21.3362 Y 39.5155 Z -1.0000
G00 Z 5.0000

(End cutting path id: text8393)


(Start cutting path id: text8393)
(Change tool to Default tool)

G00 Z 5.0000
G00 X 27.0227 Y 36.4733

G01 Z -1.0000 F 100.0000(Penetrate)
G02 X 26.7520 Y 36.3595 Z -1.0000 I -0.5043 J 0.8204 F 3500.0000
G02 X 26.3881 Y 36.3147 Z -1.0000 I -0.3639 J 1.4556
G02 X 25.8188 Y 36.4301 Z -1.0000 I 0.0000 J 1.4614
G02 X 25.3726 Y 36.7441 Z -1.0000 I 0.5024 J 1.1878
G02 X 25.0791 Y 37.2234 Z -1.0000 I 0.9595 J 0.9172
G02 X 24.9601 Y 37.9246 Z -1.0000 I 2.0064 J 0.7012
G02 X 25.0788 Y 38.6360 Z -1.0000 I 2.1914 J 0.0000
G02 X 25.3769 Y 39.1389 Z -1.0000 I 1.3621 J -0.4675
G02 X 25.8490 Y 39.4704 Z -1.0000 I 0.9802 J -0.8940
G02 X 26.4790 Y 39.5959 Z -1.0000 I 0.6301 J -1.5197
G02 X 27.0418 Y 39.5088 Z -1.0000 I -0.0000 J -1.8618
G02 X 27.4331 Y 39.2933 Z -1.0000 I -0.3464 J -1.0926
G02 X 27.7167 Y 38.9505 Z -1.0000 I -0.7658 J -0.9222
G02 X 27.8478 Y 38.5423 Z -1.0000 I -0.9743 J -0.5379
G01 X 27.2068 Y 38.5423 Z -1.0000
G03 X 27.0744 Y 38.8134 Z -1.0000 I -0.6540 J -0.1516
G03 X 26.8450 Y 38.9887 Z -1.0000 I -0.4773 J -0.3868
G03 X 26.6804 Y 39.0399 Z -1.0000 I -0.3174 J -0.7309
G03 X 26.4875 Y 39.0585 Z -1.0000 I -0.1929 J -0.9877
G03 X 26.1456 Y 38.9835 Z -1.0000 I 0.0000 J -0.8171
G03 X 25.8677 Y 38.7729 Z -1.0000 I 0.3393 J -0.7364
G03 X 25.7017 Y 38.4618 Z -1.0000 I 0.6296 J -0.5356
G03 X 25.6265 Y 37.9182 Z -1.0000 I 1.9262 J -0.5435
G03 X 25.7110 Y 37.3801 Z -1.0000 I 1.7552 J 0.0000
G03 X 25.8888 Y 37.1038 Z -1.0000 I 0.6082 J 0.1959
G03 X 26.1744 Y 36.9247 Z -1.0000 I 0.6377 J 0.6998
G03 X 26.4854 Y 36.8647 Z -1.0000 I 0.3110 J 0.7762
G03 X 26.7932 Y 36.9171 Z -1.0000 I 0.0000 J 0.9309
G03 X 27.0227 Y 37.0530 Z -1.0000 I -0.2246 J 0.6411
G03 X 27.1877 Y 37.2674 Z -1.0000 I -0.5166 J 0.5682
G03 X 27.2808 Y 37.5501 Z -1.0000 I -0.8252 J 0.4284
G01 X 26.5594 Y 37.5501 Z -1.0000
G01 X 26.5594 Y 38.0706 Z -1.0000
G01 X 27.8584 Y 38.0706 Z -1.0000
G01 X 27.8584 Y 36.3972 Z -1.0000
G01 X 27.4268 Y 36.3972 Z -1.0000
G01 X 27.3612 Y 36.7864 Z -1.0000
G02 X 27.1614 Y 36.5778 Z -1.0000 I -1.8188 J 1.5417
G02 X 27.0227 Y 36.4733 Z -1.0000 I -0.5850 J 0.6324
G01 X 27.0227 Y 36.4733 Z -1.0000
G00 Z 5.0000

(End cutting path id: text8393)


(Start cutting path id: text8393)
(Change tool to Default tool)

G00 Z 5.0000
G00 X 28.4803 Y 39.5155

G01 Z -1.0000 F 100.0000(Penetrate)
G01 X 29.1319 Y 39.5155 Z -1.0000 F 3500.0000
G01 X 29.1319 Y 36.9578 Z -1.0000
G01 X 30.6763 Y 36.9578 Z -1.0000
G01 X 30.6763 Y 36.3972 Z -1.0000
G01 X 28.4803 Y 36.3972 Z -1.0000
G01 X 28.4803 Y 39.5155 Z -1.0000
G00 Z 5.0000

(End cutting path id: text8393)


(Start cutting path id: text8393)
(Change tool to Default tool)

G00 Z 5.0000
G00 X 32.5062 Y 36.3104

G01 Z -1.0000 F 100.0000(Penetrate)
G02 X 31.8832 Y 36.4181 Z -1.0000 I 0.0000 J 1.8571 F 3500.0000
G02 X 31.4844 Y 36.6743 Z -1.0000 I 0.3502 J 0.9835
G02 X 31.1496 Y 37.1807 Z -1.0000 I 0.9085 J 0.9645
G02 X 31.0105 Y 37.9606 Z -1.0000 I 2.1166 J 0.7798
G02 X 31.1521 Y 38.7546 Z -1.0000 I 2.2968 J -0.0000
G02 X 31.4844 Y 39.2468 Z -1.0000 I 1.1685 J -0.4305
G02 X 31.8832 Y 39.5030 Z -1.0000 I 0.7490 J -0.7273
G02 X 32.5062 Y 39.6107 Z -1.0000 I 0.6230 J -1.7495
G02 X 33.1292 Y 39.5030 Z -1.0000 I 0.0000 J -1.8571
G02 X 33.5280 Y 39.2468 Z -1.0000 I -0.3502 J -0.9835
G02 X 33.8587 Y 38.7550 Z -1.0000 I -0.8378 J -0.9204
G02 X 33.9997 Y 37.9606 Z -1.0000 I -2.1660 J -0.7944
G02 X 33.8612 Y 37.1803 Z -1.0000 I -2.2658 J 0.0000
G02 X 33.5280 Y 36.6743 Z -1.0000 I -1.2436 J 0.4561
G02 X 33.1292 Y 36.4181 Z -1.0000 I -0.7490 J 0.7273
G02 X 32.5062 Y 36.3104 Z -1.0000 I -0.6230 J 1.7495
G01 X 32.5062 Y 36.3104 Z -1.0000
G00 Z 5.0000

(End cutting path id: text8393)


(Start cutting path id: text8393)
(Change tool to Default tool)

G00 Z 5.0000
G00 X 33.1218 Y 37.1482

G01 Z -1.0000 F 100.0000(Penetrate)
G03 X 33.2794 Y 37.4577 Z -1.0000 I -0.6877 J 0.5451 F 3500.0000
G03 X 33.3482 Y 37.9606 Z -1.0000 I -1.8045 J 0.5028
G03 X 33.2790 Y 38.4609 Z -1.0000 I -1.8437 J 0.0000
G03 X 33.1197 Y 38.7708 Z -1.0000 I -0.8442 J -0.2380
G03 X 32.8555 Y 38.9807 Z -1.0000 I -0.5746 J -0.4521
G03 X 32.5062 Y 39.0585 Z -1.0000 I -0.3493 J -0.7449
G03 X 32.1559 Y 38.9815 Z -1.0000 I -0.0000 J -0.8348
G03 X 31.8884 Y 38.7729 Z -1.0000 I 0.3131 J -0.6773
G03 X 31.7277 Y 38.4626 Z -1.0000 I 0.6798 J -0.5489
G03 X 31.6579 Y 37.9606 Z -1.0000 I 1.7688 J -0.5021
G03 X 31.7277 Y 37.4585 Z -1.0000 I 1.8387 J -0.0000
G03 X 31.8884 Y 37.1482 Z -1.0000 I 0.8405 J 0.2386
G03 X 32.1559 Y 36.9397 Z -1.0000 I 0.5805 J 0.4687
G03 X 32.5062 Y 36.8626 Z -1.0000 I 0.3503 J 0.7577
G03 X 32.8562 Y 36.9398 Z -1.0000 I -0.0000 J 0.8317
G03 X 33.1218 Y 37.1482 Z -1.0000 I -0.3105 J 0.6692
G01 X 33.1218 Y 37.1482 Z -1.0000
G00 Z 5.0000

(End cutting path id: text8393)


(Start cutting path id: text8393)
(Change tool to Default tool)

G00 Z 5.0000
G00 X 34.2663 Y 39.5155

G01 Z -1.0000 F 100.0000(Penetrate)
G01 X 34.9623 Y 39.5155 Z -1.0000 F 3500.0000
G01 X 35.6393 Y 37.1482 Z -1.0000
G01 X 36.3226 Y 39.5155 Z -1.0000
G01 X 36.9996 Y 39.5155 Z -1.0000
G01 X 35.9355 Y 36.3972 Z -1.0000
G01 X 35.3198 Y 36.3972 Z -1.0000
G01 X 34.2663 Y 39.5155 Z -1.0000
G00 Z 5.0000

(End cutting path id: text8393)


(Start cutting path id: text8393)
(Change tool to Default tool)

G00 Z 5.0000
G00 X 39.5572 Y 37.7596

G01 Z -1.0000 F 100.0000(Penetrate)
G01 X 38.0425 Y 37.7596 Z -1.0000 F 3500.0000
G01 X 38.0425 Y 36.9578 Z -1.0000
G01 X 39.7688 Y 36.9578 Z -1.0000
G01 X 39.7688 Y 36.3972 Z -1.0000
G01 X 37.4057 Y 36.3972 Z -1.0000
G01 X 37.4057 Y 39.5155 Z -1.0000
G01 X 39.6926 Y 39.5155 Z -1.0000
G01 X 39.6926 Y 38.9633 Z -1.0000
G01 X 38.0425 Y 38.9633 Z -1.0000
G01 X 38.0425 Y 38.3012 Z -1.0000
G01 X 39.5572 Y 38.3012 Z -1.0000
G01 X 39.5572 Y 37.7596 Z -1.0000
G00 Z 5.0000

(End cutting path id: text8393)



(Footer)
M5
G00 X0.0000 Y0.0000
M2
(Using default footer. To add your own footer create file "footer" in the output dir.)
(end)
%