%
(Header)
(Generated by gcodetools from Inkscape.)
(Using default header. To add your own header create file "header" in the output dir.)
M3
(Header end.)
G21 (All units in mm)

(Start cutting path id: path333)
(Change tool to Default tool)

G00 Z 5.0000
G00 X 3.3059 Y 28.4610

G01 Z -1.0000 F 100.0000(Penetrate)
G02 X 2.8394 Y 28.2648 Z -1.0000 I -0.8690 J 1.4136 F 3500.0000
G02 X 2.2124 Y 28.1876 Z -1.0000 I -0.6270 J 2.5081
G02 X 1.2315 Y 28.3865 Z -1.0000 I -0.0000 J 2.5182
G02 X 0.4627 Y 28.9276 Z -1.0000 I 0.8656 J 2.0467
G02 X -0.0431 Y 29.7535 Z -1.0000 I 1.6533 J 1.5804
G02 X -0.2482 Y 30.9617 Z -1.0000 I 3.4573 J 1.2082
G02 X -0.0437 Y 32.1874 Z -1.0000 I 3.7760 J 0.0000
G02 X 0.4699 Y 33.0540 Z -1.0000 I 2.3470 J -0.8055
G02 X 1.2835 Y 33.6253 Z -1.0000 I 1.6890 J -1.5404
G02 X 2.3691 Y 33.8414 Z -1.0000 I 1.0857 J -2.6187
G02 X 3.3387 Y 33.6914 Z -1.0000 I 0.0000 J -3.2080
G02 X 4.0131 Y 33.3201 Z -1.0000 I -0.5969 J -1.8826
G02 X 4.5018 Y 32.7294 Z -1.0000 I -1.3196 J -1.5891
G02 X 4.7276 Y 32.0261 Z -1.0000 I -1.6788 J -0.9269
G01 X 3.6231 Y 32.0261 Z -1.0000
G03 X 3.3949 Y 32.4932 Z -1.0000 I -1.1269 J -0.2612
G03 X 2.9997 Y 32.7952 Z -1.0000 I -0.8224 J -0.6665
G03 X 2.7160 Y 32.8834 Z -1.0000 I -0.5468 J -1.2594
G03 X 2.3837 Y 32.9155 Z -1.0000 I -0.3323 J -1.7019
G03 X 1.7945 Y 32.7863 Z -1.0000 I -0.0000 J -1.4080
G03 X 1.3156 Y 32.4234 Z -1.0000 I 0.5846 J -1.2688
G03 X 1.0297 Y 31.8873 Z -1.0000 I 1.0849 J -0.9230
G03 X 0.9001 Y 30.9507 Z -1.0000 I 3.3190 J -0.9365
G03 X 1.0457 Y 30.0235 Z -1.0000 I 3.0244 J 0.0000
G03 X 1.3521 Y 29.5473 Z -1.0000 I 1.0479 J 0.3375
G03 X 1.8441 Y 29.2388 Z -1.0000 I 1.0989 J 1.2058
G03 X 2.3801 Y 29.1354 Z -1.0000 I 0.5359 J 1.3374
G03 X 2.9105 Y 29.2256 Z -1.0000 I 0.0000 J 1.6040
G03 X 3.3059 Y 29.4598 Z -1.0000 I -0.3871 J 1.1047
G03 X 3.5903 Y 29.8292 Z -1.0000 I -0.8901 J 0.9791
G03 X 3.7507 Y 30.3165 Z -1.0000 I -1.4220 J 0.7382
G01 X 2.5076 Y 30.3165 Z -1.0000
G01 X 2.5076 Y 31.2132 Z -1.0000
G01 X 4.7458 Y 31.2132 Z -1.0000
G01 X 4.7458 Y 28.3298 Z -1.0000
G01 X 4.0022 Y 28.3298 Z -1.0000
G01 X 3.8892 Y 29.0005 Z -1.0000
G02 X 3.5449 Y 28.6410 Z -1.0000 I -3.1340 J 2.6564
G02 X 3.3059 Y 28.4610 Z -1.0000 I -1.0079 J 1.0897
G01 X 3.3059 Y 28.4610 Z -1.0000
G00 Z 5.0000

(End cutting path id: path333)


(Start cutting path id: path333)
(Change tool to Default tool)

G00 Z 5.0000
G00 X 5.8175 Y 33.7029

G01 Z -1.0000 F 100.0000(Penetrate)
G01 X 6.9403 Y 33.7029 Z -1.0000 F 3500.0000
G01 X 6.9403 Y 29.2958 Z -1.0000
G01 X 9.6013 Y 29.2958 Z -1.0000
G01 X 9.6013 Y 28.3298 Z -1.0000
G01 X 5.8175 Y 28.3298 Z -1.0000
G01 X 5.8175 Y 33.7029 Z -1.0000
G00 Z 5.0000

(End cutting path id: path333)


(Start cutting path id: path332)
(Change tool to Default tool)

G00 Z 5.0000
G00 X 8.5478 Y 35.4067

G01 Z -1.0000 F 100.0000(Penetrate)
G01 X 6.5685 Y 35.4067 Z -1.0000 F 3500.0000
G01 X 6.1966 Y 34.3022 Z -1.0000
G01 X 5.0229 Y 34.3022 Z -1.0000
G01 X 6.9403 Y 39.6753 Z -1.0000
G01 X 8.2088 Y 39.6753 Z -1.0000
G01 X 10.1116 Y 34.3022 Z -1.0000
G01 X 8.8941 Y 34.3022 Z -1.0000
G01 X 8.5478 Y 35.4067 Z -1.0000
G00 Z 5.0000

(End cutting path id: path332)


(Start cutting path id: path332)
(Change tool to Default tool)

G00 Z 5.0000
G00 X 8.2343 Y 36.3326

G01 Z -1.0000 F 100.0000(Penetrate)
G01 X 7.5636 Y 38.4468 Z -1.0000 F 3500.0000
G01 X 6.8710 Y 36.3326 Z -1.0000
G01 X 8.2343 Y 36.3326 Z -1.0000
G00 Z 5.0000

(End cutting path id: path332)


(Start cutting path id: path332)
(Change tool to Default tool)

G00 Z 5.0000
G00 X 12.7435 Y 35.0786

G01 Z -1.0000 F 100.0000(Penetrate)
G03 X 13.1363 Y 35.1051 Z -1.0000 I 0.0000 J 2.9233 F 3500.0000
G03 X 13.3887 Y 35.1661 Z -1.0000 I -0.1709 J 1.2604
G03 X 13.7355 Y 35.4208 Z -1.0000 I -0.2519 J 0.7063
G03 X 13.8590 Y 35.7894 Z -1.0000 I -0.4886 J 0.3686
G03 X 13.7978 Y 36.0216 Z -1.0000 I -0.4711 J 0.0000
G03 X 13.6257 Y 36.2014 Z -1.0000 I -0.4403 J -0.2494
G03 X 13.3814 Y 36.3161 Z -1.0000 I -0.6497 J -1.0661
G03 X 12.8930 Y 36.4529 Z -1.0000 I -1.4315 J -4.1699
G01 X 12.3243 Y 36.5805 Z -1.0000
G02 X 11.5067 Y 36.8172 Z -1.0000 I 1.5773 J 6.9765
G02 X 11.1651 Y 36.9924 Z -1.0000 I 0.4869 J 1.3703
G02 X 10.7792 Y 37.4471 Z -1.0000 I 0.6390 J 0.9334
G02 X 10.6220 Y 38.1552 Z -1.0000 I 1.5160 J 0.7081
G02 X 10.7602 Y 38.8158 Z -1.0000 I 1.6476 J 0.0000
G02 X 11.1469 Y 39.3545 Z -1.0000 I 1.4567 J -0.6376
G02 X 11.7280 Y 39.6867 Z -1.0000 I 1.0371 J -1.1400
G02 X 12.6888 Y 39.8320 Z -1.0000 I 0.9608 J -3.1024
G02 X 13.4968 Y 39.7088 Z -1.0000 I -0.0000 J -2.7101
G02 X 14.1360 Y 39.3800 Z -1.0000 I -0.6249 J -2.0005
G02 X 14.5760 Y 38.8471 Z -1.0000 I -0.8686 J -1.1653
G02 X 14.7666 Y 38.0750 Z -1.0000 I -1.7333 J -0.8376
G01 X 13.6876 Y 38.0750 Z -1.0000
G03 X 13.5559 Y 38.4932 Z -1.0000 I -0.9014 J -0.0542
G03 X 13.2648 Y 38.7640 Z -1.0000 I -0.6329 J -0.3885
G03 X 12.9929 Y 38.8599 Z -1.0000 I -0.4880 J -0.9496
G03 X 12.6123 Y 38.8988 Z -1.0000 I -0.3806 J -1.8414
G03 X 12.1944 Y 38.8469 Z -1.0000 I 0.0000 J -1.7060
G03 X 11.9197 Y 38.7239 Z -1.0000 I 0.2135 J -0.8452
G03 X 11.7297 Y 38.5123 Z -1.0000 I 0.3289 J -0.4864
G03 X 11.6609 Y 38.2354 Z -1.0000 I 0.5227 J -0.2769
G03 X 11.7289 Y 37.9874 Z -1.0000 I 0.4861 J -0.0000
G03 X 11.9160 Y 37.8053 Z -1.0000 I 0.4311 J 0.2557
G03 X 12.0876 Y 37.7295 Z -1.0000 I 0.4347 J 0.7524
G03 X 12.6159 Y 37.5829 Z -1.0000 I 2.2475 J 7.0740
G01 X 13.5418 Y 37.3605 Z -1.0000
G02 X 14.1277 Y 37.1675 Z -1.0000 I -0.8643 J -3.6083
G02 X 14.4604 Y 36.9705 Z -1.0000 I -0.5698 J -1.3421
G02 X 14.8050 Y 36.5251 Z -1.0000 I -0.7181 J -0.9114
G02 X 14.9416 Y 35.8733 Z -1.0000 I -1.4863 J -0.6518
G02 X 14.7947 Y 35.2041 Z -1.0000 I -1.5975 J 0.0000
G02 X 14.3766 Y 34.6485 Z -1.0000 I -1.4945 J 0.6894
G02 X 13.7612 Y 34.3089 Z -1.0000 I -1.1116 J 1.2872
G02 X 12.7873 Y 34.1637 Z -1.0000 I -0.9739 J 3.1927
G02 X 11.7868 Y 34.3054 Z -1.0000 I -0.0000 J 3.6012
G02 X 11.1360 Y 34.6412 Z -1.0000 I 0.5256 J 1.8177
G02 X 10.6993 Y 35.2016 Z -1.0000 I 0.9562 J 1.1953
G02 X 10.5345 Y 35.9608 Z -1.0000 I 1.6656 J 0.7592
G01 X 11.6062 Y 35.9608 Z -1.0000
G03 X 11.6937 Y 35.6085 Z -1.0000 I 1.7023 J 0.2359
G03 X 11.8067 Y 35.4103 Z -1.0000 I 0.6382 J 0.2324
G03 X 12.1298 Y 35.1841 Z -1.0000 I 0.5694 J 0.4693
G03 X 12.7435 Y 35.0786 Z -1.0000 I 0.6137 J 1.7332
G01 X 12.7435 Y 35.0786 Z -1.0000
G00 Z 5.0000

(End cutting path id: path332)


(Start cutting path id: path333)
(Change tool to Default tool)

G00 Z 5.0000
G00 X 15.7873 Y 33.7029

G01 Z -1.0000 F 100.0000(Penetrate)
G01 X 16.9866 Y 33.7029 Z -1.0000 F 3500.0000
G01 X 18.1531 Y 29.6239 Z -1.0000
G01 X 19.3305 Y 33.7029 Z -1.0000
G01 X 20.4970 Y 33.7029 Z -1.0000
G01 X 18.6634 Y 28.3298 Z -1.0000
G01 X 17.6026 Y 28.3298 Z -1.0000
G01 X 15.7873 Y 33.7029 Z -1.0000
G00 Z 5.0000

(End cutting path id: path333)


(Start cutting path id: path333)
(Change tool to Default tool)

G00 Z 5.0000
G00 X 13.8152 Y 29.6239

G01 Z -1.0000 F 100.0000(Penetrate)
G03 X 14.0868 Y 30.1572 Z -1.0000 I -1.1850 J 0.9392 F 3500.0000
G03 X 14.2053 Y 31.0236 Z -1.0000 I -3.1094 J 0.8664
G03 X 14.0860 Y 31.8858 Z -1.0000 I -3.1768 J -0.0000
G03 X 13.8116 Y 32.4198 Z -1.0000 I -1.4546 J -0.4102
G03 X 13.3564 Y 32.7814 Z -1.0000 I -0.9901 J -0.7790
G03 X 12.7544 Y 32.9155 Z -1.0000 I -0.6019 J -1.2835
G03 X 12.1508 Y 32.7827 Z -1.0000 I -0.0000 J -1.4384
G03 X 11.6900 Y 32.4234 Z -1.0000 I 0.5395 J -1.1670
G03 X 11.4131 Y 31.8888 Z -1.0000 I 1.1713 J -0.9457
G03 X 11.2927 Y 31.0236 Z -1.0000 I 3.0478 J -0.8651
G03 X 11.4131 Y 30.1585 Z -1.0000 I 3.1682 J -0.0000
G03 X 11.6900 Y 29.6239 Z -1.0000 I 1.4483 J 0.4111
G03 X 12.1508 Y 29.2645 Z -1.0000 I 1.0003 J 0.8077
G03 X 12.7544 Y 29.1317 Z -1.0000 I 0.6036 J 1.3056
G03 X 13.3576 Y 29.2648 Z -1.0000 I -0.0000 J 1.4331
G03 X 13.8152 Y 29.6239 Z -1.0000 I -0.5349 J 1.1531
G01 X 13.8152 Y 29.6239 Z -1.0000
G00 Z 5.0000

(End cutting path id: path333)


(Start cutting path id: path333)
(Change tool to Default tool)

G00 Z 5.0000
G00 X 12.7544 Y 28.1803

G01 Z -1.0000 F 100.0000(Penetrate)
G02 X 11.6810 Y 28.3658 Z -1.0000 I 0.0000 J 3.1999 F 3500.0000
G02 X 10.9938 Y 28.8073 Z -1.0000 I 0.6035 J 1.6947
G02 X 10.4169 Y 29.6800 Z -1.0000 I 1.5655 J 1.6619
G02 X 10.1773 Y 31.0236 Z -1.0000 I 3.6471 J 1.3437
G02 X 10.4213 Y 32.3918 Z -1.0000 I 3.9576 J -0.0000
G02 X 10.9938 Y 33.2399 Z -1.0000 I 2.0134 J -0.7418
G02 X 11.6810 Y 33.6815 Z -1.0000 I 1.2907 J -1.2531
G02 X 12.7544 Y 33.8669 Z -1.0000 I 1.0735 J -3.0145
G02 X 13.8279 Y 33.6815 Z -1.0000 I 0.0000 J -3.1999
G02 X 14.5151 Y 33.2399 Z -1.0000 I -0.6035 J -1.6947
G02 X 15.0849 Y 32.3925 Z -1.0000 I -1.4437 J -1.5859
G02 X 15.3280 Y 31.0236 Z -1.0000 I -3.7322 J -1.3689
G02 X 15.0892 Y 29.6793 Z -1.0000 I -3.9042 J 0.0000
G02 X 14.5151 Y 28.8073 Z -1.0000 I -2.1428 J 0.7859
G02 X 13.8279 Y 28.3658 Z -1.0000 I -1.2907 J 1.2531
G02 X 12.7544 Y 28.1803 Z -1.0000 I -1.0735 J 3.0145
G01 X 12.7544 Y 28.1803 Z -1.0000
G00 Z 5.0000

(End cutting path id: path333)


(Start cutting path id: path332)
(Change tool to Default tool)

G00 Z 5.0000
G00 X 19.5127 Y 36.6497

G01 Z -1.0000 F 100.0000(Penetrate)
G01 X 16.9027 Y 36.6497 Z -1.0000 F 3500.0000
G01 X 16.9027 Y 35.2682 Z -1.0000
G01 X 19.8773 Y 35.2682 Z -1.0000
G01 X 19.8773 Y 34.3022 Z -1.0000
G01 X 15.8055 Y 34.3022 Z -1.0000
G01 X 15.8055 Y 39.6753 Z -1.0000
G01 X 19.7460 Y 39.6753 Z -1.0000
G01 X 19.7460 Y 38.7239 Z -1.0000
G01 X 16.9027 Y 38.7239 Z -1.0000
G01 X 16.9027 Y 37.5829 Z -1.0000
G01 X 19.5127 Y 37.5829 Z -1.0000
G01 X 19.5127 Y 36.6497 Z -1.0000
G00 Z 5.0000

(End cutting path id: path332)


(Start cutting path id: path332)
(Change tool to Default tool)

G00 Z 5.0000
G00 X 23.1799 Y 36.6679

G01 Z -1.0000 F 100.0000(Penetrate)
G01 X 21.8421 Y 36.6679 Z -1.0000 F 3500.0000
G01 X 21.8421 Y 35.2354 Z -1.0000
G01 X 23.1616 Y 35.2354 Z -1.0000
G03 X 23.5085 Y 35.2650 Z -1.0000 I 0.0000 J 2.0439
G03 X 23.7121 Y 35.3301 Z -1.0000 I -0.1308 J 0.7597
G03 X 23.9622 Y 35.5719 Z -1.0000 I -0.2485 J 0.5073
G03 X 24.0693 Y 36.0009 Z -1.0000 I -0.8054 J 0.4289
G03 X 23.9706 Y 36.3564 Z -1.0000 I -0.6900 J -0.0000
G03 X 23.7230 Y 36.5768 Z -1.0000 I -0.4773 J -0.2870
G03 X 23.5239 Y 36.6375 Z -1.0000 I -0.3325 J -0.7343
G03 X 23.1799 Y 36.6679 Z -1.0000 I -0.3671 J -2.1880
G01 X 23.1799 Y 36.6679 Z -1.0000
G00 Z 5.0000

(End cutting path id: path332)


(Start cutting path id: path332)
(Change tool to Default tool)

G00 Z 5.0000
G00 X 23.7376 Y 37.6923

G01 Z -1.0000 F 100.0000(Penetrate)
G03 X 23.8897 Y 37.8612 Z -1.0000 I -0.1995 J 0.3325 F 3500.0000
G03 X 23.9563 Y 38.1625 Z -1.0000 I -0.6478 J 0.3013
G03 X 23.8698 Y 38.4801 Z -1.0000 I -0.6264 J -0.0000
G03 X 23.6647 Y 38.6583 Z -1.0000 I -0.3679 J -0.2164
G03 X 23.4091 Y 38.7170 Z -1.0000 I -0.4330 J -1.2991
G03 X 23.0231 Y 38.7421 Z -1.0000 I -0.3860 J -2.9535
G01 X 21.8421 Y 38.7421 Z -1.0000
G01 X 21.8421 Y 37.5574 Z -1.0000
G01 X 23.1616 Y 37.5574 Z -1.0000
G03 X 23.5042 Y 37.5970 Z -1.0000 I 0.0000 J 1.5023
G03 X 23.7376 Y 37.6923 Z -1.0000 I -0.1831 J 0.7821
G01 X 23.7376 Y 37.6923 Z -1.0000
G00 Z 5.0000

(End cutting path id: path332)


(Start cutting path id: path332)
(Change tool to Default tool)

G00 Z 5.0000
G00 X 23.2054 Y 34.3022

G01 Z -1.0000 F 100.0000(Penetrate)
G01 X 20.7704 Y 34.3022 Z -1.0000 F 3500.0000
G01 X 20.7704 Y 39.6753 Z -1.0000
G01 X 23.3804 Y 39.6753 Z -1.0000
G02 X 24.2812 Y 39.4913 Z -1.0000 I -0.0366 J -2.4766
G02 X 24.7801 Y 39.1030 Z -1.0000 I -0.4433 J -1.0843
G02 X 24.9607 Y 38.7385 Z -1.0000 I -0.9949 J -0.7197
G02 X 25.0280 Y 38.2828 Z -1.0000 I -1.5079 J -0.4557
G02 X 24.9567 Y 37.8164 Z -1.0000 I -1.5596 J 0.0000
G02 X 24.7801 Y 37.4918 Z -1.0000 I -0.9130 J 0.2861
G02 X 24.6255 Y 37.3442 Z -1.0000 I -0.6975 J 0.5762
G02 X 24.3719 Y 37.1856 Z -1.0000 I -1.0625 J 1.4167
G02 X 24.7416 Y 36.9834 Z -1.0000 I -0.4734 J -1.3048
G02 X 24.9916 Y 36.7117 Z -1.0000 I -0.6471 J -0.8462
G02 X 25.1442 Y 36.3698 Z -1.0000 I -0.9992 J -0.6512
G02 X 25.2030 Y 35.9243 Z -1.0000 I -1.6591 J -0.4455
G02 X 25.1397 Y 35.4652 Z -1.0000 I -1.6981 J -0.0000
G02 X 24.9624 Y 35.0677 Z -1.0000 I -1.4417 J 0.4049
G02 X 24.7887 Y 34.8349 Z -1.0000 I -1.3155 J 0.8007
G02 X 24.5796 Y 34.6448 Z -1.0000 I -1.0805 J 0.9780
G02 X 24.3049 Y 34.4829 Z -1.0000 I -0.8222 J 1.0810
G02 X 23.9672 Y 34.3751 Z -1.0000 I -0.6767 J 1.5363
G02 X 23.6153 Y 34.3217 Z -1.0000 I -0.6604 J 3.1700
G02 X 23.2054 Y 34.3022 Z -1.0000 I -0.4099 J 4.2834
G01 X 23.2054 Y 34.3022 Z -1.0000
G00 Z 5.0000

(End cutting path id: path332)


(Start cutting path id: path333)
(Change tool to Default tool)

G00 Z 5.0000
G00 X 24.9041 Y 30.6773

G01 Z -1.0000 F 100.0000(Penetrate)
G01 X 22.2941 Y 30.6773 Z -1.0000 F 3500.0000
G01 X 22.2941 Y 29.2958 Z -1.0000
G01 X 25.2686 Y 29.2958 Z -1.0000
G01 X 25.2686 Y 28.3298 Z -1.0000
G01 X 21.1969 Y 28.3298 Z -1.0000
G01 X 21.1969 Y 33.7029 Z -1.0000
G01 X 25.1374 Y 33.7029 Z -1.0000
G01 X 25.1374 Y 32.7515 Z -1.0000
G01 X 22.2941 Y 32.7515 Z -1.0000
G01 X 22.2941 Y 31.6105 Z -1.0000
G01 X 24.9041 Y 31.6105 Z -1.0000
G01 X 24.9041 Y 30.6773 Z -1.0000
G00 Z 5.0000

(End cutting path id: path333)


(Start cutting path id: path332)
(Change tool to Default tool)

G00 Z 5.0000
G00 X 29.2893 Y 35.4067

G01 Z -1.0000 F 100.0000(Penetrate)
G01 X 27.3099 Y 35.4067 Z -1.0000 F 3500.0000
G01 X 26.9381 Y 34.3022 Z -1.0000
G01 X 25.7644 Y 34.3022 Z -1.0000
G01 X 27.6818 Y 39.6753 Z -1.0000
G01 X 28.9503 Y 39.6753 Z -1.0000
G01 X 30.8531 Y 34.3022 Z -1.0000
G01 X 29.6356 Y 34.3022 Z -1.0000
G01 X 29.2893 Y 35.4067 Z -1.0000
G00 Z 5.0000

(End cutting path id: path332)


(Start cutting path id: path332)
(Change tool to Default tool)

G00 Z 5.0000
G00 X 28.9758 Y 36.3326

G01 Z -1.0000 F 100.0000(Penetrate)
G01 X 28.3051 Y 38.4468 Z -1.0000 F 3500.0000
G01 X 27.6125 Y 36.3326 Z -1.0000
G01 X 28.9758 Y 36.3326 Z -1.0000
G00 Z 5.0000

(End cutting path id: path332)


(Start cutting path id: path332)
(Change tool to Default tool)

G00 Z 5.0000
G00 X 31.5348 Y 39.6753

G01 Z -1.0000 F 100.0000(Penetrate)
G01 X 32.6575 Y 39.6753 Z -1.0000 F 3500.0000
G01 X 32.6575 Y 35.2682 Z -1.0000
G01 X 35.3186 Y 35.2682 Z -1.0000
G01 X 35.3186 Y 34.3022 Z -1.0000
G01 X 31.5348 Y 34.3022 Z -1.0000
G01 X 31.5348 Y 39.6753 Z -1.0000
G00 Z 5.0000

(End cutting path id: path332)


(Start cutting path id: path332)
(Change tool to Default tool)

G00 Z 5.0000
G00 X 36.0950 Y 39.6753

G01 Z -1.0000 F 100.0000(Penetrate)
G01 X 37.2177 Y 39.6753 Z -1.0000 F 3500.0000
G01 X 37.2177 Y 35.2682 Z -1.0000
G01 X 39.8788 Y 35.2682 Z -1.0000
G01 X 39.8788 Y 34.3022 Z -1.0000
G01 X 36.0950 Y 34.3022 Z -1.0000
G01 X 36.0950 Y 39.6753 Z -1.0000
G00 Z 5.0000

(End cutting path id: path332)


(Start cutting path id: path332)
(Change tool to Default tool)

G00 Z 5.0000
G00 X 2.9961 Y 37.6923

G01 Z -1.0000 F 100.0000(Penetrate)
G03 X 3.1482 Y 37.8612 Z -1.0000 I -0.1995 J 0.3325 F 3500.0000
G03 X 3.2148 Y 38.1625 Z -1.0000 I -0.6478 J 0.3013
G03 X 3.1283 Y 38.4801 Z -1.0000 I -0.6264 J 0.0000
G03 X 2.9232 Y 38.6583 Z -1.0000 I -0.3679 J -0.2164
G03 X 2.6676 Y 38.7170 Z -1.0000 I -0.4330 J -1.2991
G03 X 2.2816 Y 38.7421 Z -1.0000 I -0.3860 J -2.9535
G01 X 1.1006 Y 38.7421 Z -1.0000
G01 X 1.1006 Y 37.5574 Z -1.0000
G01 X 2.4202 Y 37.5574 Z -1.0000
G03 X 2.7627 Y 37.5970 Z -1.0000 I 0.0000 J 1.5023
G03 X 2.9961 Y 37.6923 Z -1.0000 I -0.1831 J 0.7821
G01 X 2.9961 Y 37.6923 Z -1.0000
G00 Z 5.0000

(End cutting path id: path332)


(Start cutting path id: path332)
(Change tool to Default tool)

G00 Z 5.0000
G00 X 2.4384 Y 36.6679

G01 Z -1.0000 F 100.0000(Penetrate)
G01 X 1.1006 Y 36.6679 Z -1.0000 F 3500.0000
G01 X 1.1006 Y 35.2354 Z -1.0000
G01 X 2.4202 Y 35.2354 Z -1.0000
G03 X 2.7670 Y 35.2650 Z -1.0000 I 0.0000 J 2.0439
G03 X 2.9706 Y 35.3301 Z -1.0000 I -0.1308 J 0.7597
G03 X 3.2207 Y 35.5719 Z -1.0000 I -0.2485 J 0.5073
G03 X 3.3278 Y 36.0009 Z -1.0000 I -0.8054 J 0.4289
G03 X 3.2292 Y 36.3564 Z -1.0000 I -0.6900 J 0.0000
G03 X 2.9815 Y 36.5768 Z -1.0000 I -0.4773 J -0.2870
G03 X 2.7824 Y 36.6375 Z -1.0000 I -0.3325 J -0.7343
G03 X 2.4384 Y 36.6679 Z -1.0000 I -0.3671 J -2.1880
G01 X 2.4384 Y 36.6679 Z -1.0000
G00 Z 5.0000

(End cutting path id: path332)


(Start cutting path id: path332)
(Change tool to Default tool)

G00 Z 5.0000
G00 X 2.4639 Y 34.3022

G01 Z -1.0000 F 100.0000(Penetrate)
G01 X 0.0289 Y 34.3022 Z -1.0000 F 3500.0000
G01 X 0.0289 Y 39.6753 Z -1.0000
G01 X 2.6389 Y 39.6753 Z -1.0000
G02 X 3.5397 Y 39.4913 Z -1.0000 I -0.0366 J -2.4766
G02 X 4.0386 Y 39.1030 Z -1.0000 I -0.4433 J -1.0843
G02 X 4.2192 Y 38.7385 Z -1.0000 I -0.9949 J -0.7197
G02 X 4.2865 Y 38.2828 Z -1.0000 I -1.5079 J -0.4557
G02 X 4.2152 Y 37.8164 Z -1.0000 I -1.5596 J 0.0000
G02 X 4.0386 Y 37.4918 Z -1.0000 I -0.9130 J 0.2861
G02 X 3.8840 Y 37.3442 Z -1.0000 I -0.6976 J 0.5762
G02 X 3.6304 Y 37.1856 Z -1.0000 I -1.0625 J 1.4167
G02 X 4.0001 Y 36.9834 Z -1.0000 I -0.4734 J -1.3048
G02 X 4.2501 Y 36.7117 Z -1.0000 I -0.6471 J -0.8462
G02 X 4.4027 Y 36.3698 Z -1.0000 I -0.9992 J -0.6512
G02 X 4.4615 Y 35.9243 Z -1.0000 I -1.6591 J -0.4455
G02 X 4.3982 Y 35.4652 Z -1.0000 I -1.6981 J 0.0000
G02 X 4.2209 Y 35.0677 Z -1.0000 I -1.4417 J 0.4049
G02 X 4.0472 Y 34.8349 Z -1.0000 I -1.3155 J 0.8007
G02 X 3.8382 Y 34.6448 Z -1.0000 I -1.0805 J 0.9780
G02 X 3.5635 Y 34.4829 Z -1.0000 I -0.8222 J 1.0810
G02 X 3.2258 Y 34.3751 Z -1.0000 I -0.6767 J 1.5363
G02 X 2.8738 Y 34.3217 Z -1.0000 I -0.6604 J 3.1700
G02 X 2.4639 Y 34.3022 Z -1.0000 I -0.4099 J 4.2834
G01 X 2.4639 Y 34.3022 Z -1.0000
G00 Z 5.0000

(End cutting path id: path332)



(Footer)
M5
G00 X0.0000 Y0.0000
M2
(Using default footer. To add your own footer create file "footer" in the output dir.)
(end)
%