%
(Header)
(Generated by gcodetools from Inkscape.)
(Using default header. To add your own header create file "header" in the output dir.)
M3
(Header end.)
G21 (All units in mm)

(Start cutting path id: text7650)
(Change tool to Default tool)

G00 Z 5.0000
G00 X 2.4989 Y 0.2193

G01 Z -1.0000 F 100.0000(Penetrate)
G01 X 0.1844 Y 0.2193 Z -1.0000 F 3500.0000
G01 X 0.1844 Y 5.3264 Z -1.0000
G01 X 2.6652 Y 5.3264 Z -1.0000
G02 X 3.5214 Y 5.1515 Z -1.0000 I -0.0347 J -2.3540
G02 X 3.9957 Y 4.7824 Z -1.0000 I -0.4214 J -1.0306
G02 X 4.1672 Y 4.4360 Z -1.0000 I -0.9456 J -0.6841
G02 X 4.2313 Y 4.0028 Z -1.0000 I -1.4332 J -0.4332
G02 X 4.1634 Y 3.5595 Z -1.0000 I -1.4824 J 0.0000
G02 X 3.9957 Y 3.2509 Z -1.0000 I -0.8678 J 0.2719
G02 X 3.8486 Y 3.1107 Z -1.0000 I -0.6630 J 0.5477
G02 X 3.6076 Y 2.9599 Z -1.0000 I -1.0100 J 1.3466
G02 X 3.9590 Y 2.7677 Z -1.0000 I -0.4500 J -1.2402
G02 X 4.1966 Y 2.5095 Z -1.0000 I -0.6151 J -0.8043
G02 X 4.3417 Y 2.1845 Z -1.0000 I -0.9498 J -0.6190
G02 X 4.3976 Y 1.7611 Z -1.0000 I -1.5769 J -0.4234
G02 X 4.3374 Y 1.3247 Z -1.0000 I -1.6140 J 0.0000
G02 X 4.1689 Y 0.9469 Z -1.0000 I -1.3703 J 0.3849
G02 X 4.0038 Y 0.7256 Z -1.0000 I -1.2503 J 0.7611
G02 X 3.8051 Y 0.5449 Z -1.0000 I -1.0270 J 0.9296
G02 X 3.5440 Y 0.3911 Z -1.0000 I -0.7815 J 1.0275
G02 X 3.2230 Y 0.2885 Z -1.0000 I -0.6432 J 1.4602
G02 X 2.8885 Y 0.2378 Z -1.0000 I -0.6277 J 3.0129
G02 X 2.4989 Y 0.2192 Z -1.0000 I -0.3896 J 4.0711
G01 X 2.4989 Y 0.2193 Z -1.0000
G00 Z 5.0000

(End cutting path id: text7650)


(Start cutting path id: text7650)
(Change tool to Default tool)

G00 Z 5.0000
G00 X 2.4746 Y 2.4679

G01 Z -1.0000 F 100.0000(Penetrate)
G01 X 1.2030 Y 2.4679 Z -1.0000 F 3500.0000
G01 X 1.2030 Y 1.1062 Z -1.0000
G01 X 2.4573 Y 1.1062 Z -1.0000
G03 X 2.7869 Y 1.1344 Z -1.0000 I -0.0000 J 1.9426
G03 X 2.9805 Y 1.1963 Z -1.0000 I -0.1243 J 0.7221
G03 X 3.2182 Y 1.4261 Z -1.0000 I -0.2362 J 0.4822
G03 X 3.3200 Y 1.8339 Z -1.0000 I -0.7655 J 0.4077
G03 X 3.2262 Y 2.1718 Z -1.0000 I -0.6559 J -0.0000
G03 X 2.9909 Y 2.3813 Z -1.0000 I -0.4537 J -0.2728
G03 X 2.8016 Y 2.4390 Z -1.0000 I -0.3161 J -0.6980
G03 X 2.4746 Y 2.4679 Z -1.0000 I -0.3490 J -2.0799
G01 X 2.4746 Y 2.4679 Z -1.0000
G00 Z 5.0000

(End cutting path id: text7650)


(Start cutting path id: text7650)
(Change tool to Default tool)

G00 Z 5.0000
G00 X 3.0047 Y 3.4415

G01 Z -1.0000 F 100.0000(Penetrate)
G03 X 3.1493 Y 3.6021 Z -1.0000 I -0.1896 J 0.3160 F 3500.0000
G03 X 3.2126 Y 3.8885 Z -1.0000 I -0.6157 J 0.2864
G03 X 3.1304 Y 4.1903 Z -1.0000 I -0.5954 J 0.0000
G03 X 2.9354 Y 4.3597 Z -1.0000 I -0.3497 J -0.2057
G03 X 2.6925 Y 4.4155 Z -1.0000 I -0.4116 J -1.2348
G03 X 2.3256 Y 4.4394 Z -1.0000 I -0.3669 J -2.8073
G01 X 1.2030 Y 4.4394 Z -1.0000
G01 X 1.2030 Y 3.3133 Z -1.0000
G01 X 2.4573 Y 3.3133 Z -1.0000
G03 X 2.7829 Y 3.3509 Z -1.0000 I 0.0000 J 1.4279
G03 X 3.0047 Y 3.4415 Z -1.0000 I -0.1741 J 0.7434
G01 X 3.0047 Y 3.4415 Z -1.0000
G00 Z 5.0000

(End cutting path id: text7650)


(Start cutting path id: text7650)
(Change tool to Default tool)

G00 Z 5.0000
G00 X 7.9836 Y 2.1491

G01 Z -1.0000 F 100.0000(Penetrate)
G01 X 7.3461 Y 4.1587 Z -1.0000 F 3500.0000
G01 X 6.6878 Y 2.1491 Z -1.0000
G01 X 7.9836 Y 2.1491 Z -1.0000
G00 Z 5.0000

(End cutting path id: text7650)


(Start cutting path id: text7650)
(Change tool to Default tool)

G00 Z 5.0000
G00 X 8.2816 Y 1.2691

G01 Z -1.0000 F 100.0000(Penetrate)
G01 X 6.4002 Y 1.2691 Z -1.0000 F 3500.0000
G01 X 6.0468 Y 0.2193 Z -1.0000
G01 X 4.9311 Y 0.2193 Z -1.0000
G01 X 6.7536 Y 5.3264 Z -1.0000
G01 X 7.9594 Y 5.3264 Z -1.0000
G01 X 9.7680 Y 0.2193 Z -1.0000
G01 X 8.6108 Y 0.2193 Z -1.0000
G01 X 8.2816 Y 1.2691 Z -1.0000
G00 Z 5.0000

(End cutting path id: text7650)


(Start cutting path id: text7650)
(Change tool to Default tool)

G00 Z 5.0000
G00 X 14.0193 Y 0.6004

G01 Z -1.0000 F 100.0000(Penetrate)
G02 X 13.3914 Y 0.2220 Z -1.0000 I -1.2534 J 1.3696 F 3500.0000
G02 X 12.5572 Y 0.0772 Z -1.0000 I -0.8342 J 2.3314
G02 X 11.5444 Y 0.2759 Z -1.0000 I 0.0000 J 2.6810
G02 X 10.8248 Y 0.7840 Z -1.0000 I 0.7378 J 1.8084
G02 X 10.3784 Y 1.5643 Z -1.0000 I 1.6399 J 1.4559
G02 X 10.1942 Y 2.7312 Z -1.0000 I 3.6034 J 1.1669
G02 X 10.4055 Y 3.9817 Z -1.0000 I 3.8057 J 0.0000
G02 X 10.9114 Y 4.7928 Z -1.0000 I 2.0421 J -0.7105
G02 X 11.6063 Y 5.2526 Z -1.0000 I 1.4460 J -1.4301
G02 X 12.4983 Y 5.4234 Z -1.0000 I 0.8919 J -2.2446
G02 X 13.6584 Y 5.1751 Z -1.0000 I 0.0000 J -2.8349
G02 X 14.3831 Y 4.5780 Z -1.0000 I -0.7267 J -1.6203
G02 X 14.6430 Y 4.0797 Z -1.0000 I -1.8438 J -1.2786
G02 X 14.7365 Y 3.6251 Z -1.0000 I -1.4344 J -0.5320
G01 X 13.6694 Y 3.6251 Z -1.0000
G03 X 13.5362 Y 3.9766 Z -1.0000 I -2.0962 J -0.5933
G03 X 13.4026 Y 4.1795 Z -1.0000 I -0.8204 J -0.3948
G03 X 13.0670 Y 4.4140 Z -1.0000 I -0.6428 J -0.5625
G03 X 12.5398 Y 4.5121 Z -1.0000 I -0.5272 J -1.3674
G03 X 12.0222 Y 4.3871 Z -1.0000 I -0.0000 J -1.1338
G03 X 11.6217 Y 4.0409 Z -1.0000 I 0.5114 J -0.9966
G03 X 11.3886 Y 3.5400 Z -1.0000 I 1.2035 J -0.8648
G03 X 11.2856 Y 2.7139 Z -1.0000 I 3.2618 J -0.8261
G03 X 11.3959 Y 1.8942 Z -1.0000 I 3.0999 J 0.0000
G03 X 11.6390 Y 1.4250 Z -1.0000 I 1.2202 J 0.3346
G03 X 12.0477 Y 1.1098 Z -1.0000 I 0.9205 J 0.7708
G03 X 12.5433 Y 0.9988 Z -1.0000 I 0.4956 J 1.0517
G03 X 13.0542 Y 1.1038 Z -1.0000 I -0.0000 J 1.2955
G03 X 13.3991 Y 1.3661 Z -1.0000 I -0.3526 J 0.8216
G03 X 13.5322 Y 1.5790 Z -1.0000 I -0.7426 J 0.6123
G03 X 13.6694 Y 1.9586 Z -1.0000 I -2.2631 J 1.0323
G01 X 14.7261 Y 1.9586 Z -1.0000
G02 X 14.4688 Y 1.1877 Z -1.0000 I -2.5527 J 0.4237
G02 X 14.0193 Y 0.6004 Z -1.0000 I -1.9014 J 0.9895
G01 X 14.0193 Y 0.6004 Z -1.0000
G00 Z 5.0000

(End cutting path id: text7650)


(Start cutting path id: text7650)
(Change tool to Default tool)

G00 Z 5.0000
G00 X 20.0654 Y 0.2193

G01 Z -1.0000 F 100.0000(Penetrate)
G01 X 18.6933 Y 0.2193 Z -1.0000 F 3500.0000
G01 X 17.1168 Y 2.4506 Z -1.0000
G01 X 16.6075 Y 1.9274 Z -1.0000
G01 X 16.6075 Y 0.2193 Z -1.0000
G01 X 15.5577 Y 0.2193 Z -1.0000
G01 X 15.5577 Y 5.3264 Z -1.0000
G01 X 16.6075 Y 5.3264 Z -1.0000
G01 X 16.6075 Y 3.2232 Z -1.0000
G01 X 18.5790 Y 5.3264 Z -1.0000
G01 X 19.9580 Y 5.3264 Z -1.0000
G01 X 17.8652 Y 3.2232 Z -1.0000
G01 X 20.0654 Y 0.2193 Z -1.0000
G00 Z 5.0000

(End cutting path id: text7650)


(Start cutting path id: text7650)
(Change tool to Default tool)

G00 Z 5.0000
G00 X 22.8337 Y 2.0556

G01 Z -1.0000 F 100.0000(Penetrate)
G01 X 21.7493 Y 2.0556 Z -1.0000 F 3500.0000
G01 X 21.7493 Y 0.2193 Z -1.0000
G01 X 20.6890 Y 0.2193 Z -1.0000
G01 X 20.6890 Y 5.3264 Z -1.0000
G01 X 22.9134 Y 5.3264 Z -1.0000
G02 X 23.6402 Y 5.2122 Z -1.0000 I -0.0000 J -2.3708
G02 X 24.1400 Y 4.9314 Z -1.0000 I -0.4414 J -1.3707
G02 X 24.4590 Y 4.4731 Z -1.0000 I -0.7368 J -0.8531
G02 X 24.5973 Y 3.7083 Z -1.0000 I -2.0452 J -0.7648
G02 X 24.4524 Y 2.8727 Z -1.0000 I -2.4809 J 0.0000
G02 X 24.1400 Y 2.4298 Z -1.0000 I -0.9540 J 0.3413
G02 X 23.6421 Y 2.1691 Z -1.0000 I -0.8810 J 1.0768
G02 X 22.8337 Y 2.0556 Z -1.0000 I -0.8084 J 2.8218
G01 X 22.8337 Y 2.0556 Z -1.0000
G00 Z 5.0000

(End cutting path id: text7650)


(Start cutting path id: text7650)
(Change tool to Default tool)

G00 Z 5.0000
G00 X 23.3327 Y 3.1193

G01 Z -1.0000 F 100.0000(Penetrate)
G03 X 23.4765 Y 3.3318 Z -1.0000 I -0.3405 J 0.3855 F 3500.0000
G03 X 23.5406 Y 3.7014 Z -1.0000 I -1.0348 J 0.3696
G03 X 23.4746 Y 4.0682 Z -1.0000 I -1.0522 J -0.0000
G03 X 23.3292 Y 4.2696 Z -1.0000 I -0.4380 J -0.1629
G03 X 23.1031 Y 4.3883 Z -1.0000 I -0.4039 J -0.4946
G03 X 22.7437 Y 4.4394 Z -1.0000 I -0.3595 J -1.2398
G01 X 21.7493 Y 4.4394 Z -1.0000
G01 X 21.7493 Y 2.9357 Z -1.0000
G01 X 22.7437 Y 2.9357 Z -1.0000
G03 X 23.1010 Y 2.9901 Z -1.0000 I -0.0000 J 1.2006
G03 X 23.3327 Y 3.1193 Z -1.0000 I -0.1925 J 0.6174
G01 X 23.3327 Y 3.1193 Z -1.0000
G00 Z 5.0000

(End cutting path id: text7650)


(Start cutting path id: text7650)
(Change tool to Default tool)

G00 Z 5.0000
G00 X 27.5667 Y 2.1491

G01 Z -1.0000 F 100.0000(Penetrate)
G01 X 26.9291 Y 4.1587 Z -1.0000 F 3500.0000
G01 X 26.2708 Y 2.1491 Z -1.0000
G01 X 27.5667 Y 2.1491 Z -1.0000
G00 Z 5.0000

(End cutting path id: text7650)


(Start cutting path id: text7650)
(Change tool to Default tool)

G00 Z 5.0000
G00 X 27.8646 Y 1.2691

G01 Z -1.0000 F 100.0000(Penetrate)
G01 X 25.9832 Y 1.2691 Z -1.0000 F 3500.0000
G01 X 25.6298 Y 0.2193 Z -1.0000
G01 X 24.5142 Y 0.2193 Z -1.0000
G01 X 26.3366 Y 5.3264 Z -1.0000
G01 X 27.5424 Y 5.3264 Z -1.0000
G01 X 29.3510 Y 0.2193 Z -1.0000
G01 X 28.1938 Y 0.2193 Z -1.0000
G01 X 27.8646 Y 1.2691 Z -1.0000
G00 Z 5.0000

(End cutting path id: text7650)


(Start cutting path id: text7650)
(Change tool to Default tool)

G00 Z 5.0000
G00 X 33.6023 Y 0.6004

G01 Z -1.0000 F 100.0000(Penetrate)
G02 X 32.9744 Y 0.2220 Z -1.0000 I -1.2534 J 1.3696 F 3500.0000
G02 X 32.1402 Y 0.0772 Z -1.0000 I -0.8342 J 2.3314
G02 X 31.1274 Y 0.2759 Z -1.0000 I 0.0000 J 2.6810
G02 X 30.4078 Y 0.7840 Z -1.0000 I 0.7378 J 1.8084
G02 X 29.9614 Y 1.5643 Z -1.0000 I 1.6399 J 1.4559
G02 X 29.7772 Y 2.7312 Z -1.0000 I 3.6034 J 1.1669
G02 X 29.9885 Y 3.9817 Z -1.0000 I 3.8057 J 0.0000
G02 X 30.4944 Y 4.7928 Z -1.0000 I 2.0421 J -0.7105
G02 X 31.1893 Y 5.2526 Z -1.0000 I 1.4460 J -1.4301
G02 X 32.0813 Y 5.4234 Z -1.0000 I 0.8919 J -2.2446
G02 X 33.2414 Y 5.1751 Z -1.0000 I 0.0000 J -2.8349
G02 X 33.9661 Y 4.5780 Z -1.0000 I -0.7267 J -1.6203
G02 X 34.2260 Y 4.0797 Z -1.0000 I -1.8439 J -1.2786
G02 X 34.3195 Y 3.6251 Z -1.0000 I -1.4344 J -0.5320
G01 X 33.2524 Y 3.6251 Z -1.0000
G03 X 33.1192 Y 3.9766 Z -1.0000 I -2.0963 J -0.5933
G03 X 32.9856 Y 4.1795 Z -1.0000 I -0.8204 J -0.3948
G03 X 32.6500 Y 4.4140 Z -1.0000 I -0.6428 J -0.5625
G03 X 32.1229 Y 4.5121 Z -1.0000 I -0.5272 J -1.3674
G03 X 31.6052 Y 4.3871 Z -1.0000 I -0.0000 J -1.1338
G03 X 31.2047 Y 4.0409 Z -1.0000 I 0.5114 J -0.9966
G03 X 30.9716 Y 3.5400 Z -1.0000 I 1.2035 J -0.8648
G03 X 30.8686 Y 2.7139 Z -1.0000 I 3.2618 J -0.8261
G03 X 30.9789 Y 1.8942 Z -1.0000 I 3.0999 J -0.0000
G03 X 31.2220 Y 1.4250 Z -1.0000 I 1.2202 J 0.3346
G03 X 31.6307 Y 1.1098 Z -1.0000 I 0.9205 J 0.7708
G03 X 32.1263 Y 0.9988 Z -1.0000 I 0.4956 J 1.0517
G03 X 32.6372 Y 1.1038 Z -1.0000 I 0.0000 J 1.2955
G03 X 32.9821 Y 1.3661 Z -1.0000 I -0.3526 J 0.8216
G03 X 33.1152 Y 1.5790 Z -1.0000 I -0.7426 J 0.6123
G03 X 33.2524 Y 1.9586 Z -1.0000 I -2.2631 J 1.0323
G01 X 34.3091 Y 1.9586 Z -1.0000
G02 X 34.0518 Y 1.1877 Z -1.0000 I -2.5527 J 0.4237
G02 X 33.6023 Y 0.6004 Z -1.0000 I -1.9014 J 0.9895
G01 X 33.6023 Y 0.6004 Z -1.0000
G00 Z 5.0000

(End cutting path id: text7650)


(Start cutting path id: text7650)
(Change tool to Default tool)

G00 Z 5.0000
G00 X 39.6484 Y 0.2193

G01 Z -1.0000 F 100.0000(Penetrate)
G01 X 38.2763 Y 0.2193 Z -1.0000 F 3500.0000
G01 X 36.6999 Y 2.4506 Z -1.0000
G01 X 36.1905 Y 1.9274 Z -1.0000
G01 X 36.1905 Y 0.2193 Z -1.0000
G01 X 35.1407 Y 0.2193 Z -1.0000
G01 X 35.1407 Y 5.3264 Z -1.0000
G01 X 36.1905 Y 5.3264 Z -1.0000
G01 X 36.1905 Y 3.2232 Z -1.0000
G01 X 38.1620 Y 5.3264 Z -1.0000
G01 X 39.5410 Y 5.3264 Z -1.0000
G01 X 37.4482 Y 3.2232 Z -1.0000
G01 X 39.6484 Y 0.2193 Z -1.0000
G00 Z 5.0000

(End cutting path id: text7650)



(Footer)
M5
G00 X0.0000 Y0.0000
M2
(Using default footer. To add your own footer create file "footer" in the output dir.)
(end)
%