%
(Header)
(Generated by gcodetools from Inkscape.)
(Using default header. To add your own header create file "header" in the output dir.)
M3
(Header end.)
G21 (All units in mm)

(Start cutting path id: text5147)
(Change tool to Default tool)

G00 Z 5.0000
G00 X 5.1885 Y 29.3684

G01 Z -1.0000 F 100.0000(Penetrate)
G01 X 0.4707 Y 29.3684 Z -1.0000 F 3500.0000
G01 X 0.4707 Y 39.7787 Z -1.0000
G01 X 5.5275 Y 39.7787 Z -1.0000
G02 X 7.2728 Y 39.4222 Z -1.0000 I -0.0708 J -4.7985
G02 X 8.2396 Y 38.6698 Z -1.0000 I -0.8589 J -2.1008
G02 X 8.5893 Y 37.9637 Z -1.0000 I -1.9275 J -1.3944
G02 X 8.7198 Y 37.0807 Z -1.0000 I -2.9215 J -0.8829
G02 X 8.5816 Y 36.1772 Z -1.0000 I -3.0217 J -0.0000
G02 X 8.2396 Y 35.5482 Z -1.0000 I -1.7690 J 0.5543
G02 X 7.9399 Y 35.2622 Z -1.0000 I -1.3515 J 1.1164
G02 X 7.4486 Y 34.9549 Z -1.0000 I -2.0587 J 2.7449
G02 X 8.1649 Y 34.5631 Z -1.0000 I -0.9172 J -2.5280
G02 X 8.6492 Y 34.0368 Z -1.0000 I -1.2537 J -1.6395
G02 X 8.9450 Y 33.3744 Z -1.0000 I -1.9360 J -1.2617
G02 X 9.0588 Y 32.5112 Z -1.0000 I -3.2144 J -0.8631
G02 X 8.9363 Y 31.6216 Z -1.0000 I -3.2901 J -0.0000
G02 X 8.5927 Y 30.8515 Z -1.0000 I -2.7933 J 0.7845
G02 X 8.2561 Y 30.4006 Z -1.0000 I -2.5487 J 1.5514
G02 X 7.8511 Y 30.0323 Z -1.0000 I -2.0934 J 1.8949
G02 X 7.3189 Y 29.7186 Z -1.0000 I -1.5929 J 2.0944
G02 X 6.6646 Y 29.5096 Z -1.0000 I -1.3111 J 2.9765
G02 X 5.9827 Y 29.4063 Z -1.0000 I -1.2795 J 6.1418
G02 X 5.1885 Y 29.3684 Z -1.0000 I -0.7942 J 8.2990
G01 X 5.1885 Y 29.3684 Z -1.0000
G00 Z 5.0000

(End cutting path id: text5147)


(Start cutting path id: text5147)
(Change tool to Default tool)

G00 Z 5.0000
G00 X 5.1391 Y 33.9520

G01 Z -1.0000 F 100.0000(Penetrate)
G01 X 2.5471 Y 33.9520 Z -1.0000 F 3500.0000
G01 X 2.5471 Y 31.1764 Z -1.0000
G01 X 5.1038 Y 31.1764 Z -1.0000
G03 X 5.7757 Y 31.2338 Z -1.0000 I 0.0000 J 3.9600
G03 X 6.1702 Y 31.3600 Z -1.0000 I -0.2534 J 1.4719
G03 X 6.6548 Y 31.8285 Z -1.0000 I -0.4815 J 0.9830
G03 X 6.8624 Y 32.6596 Z -1.0000 I -1.5604 J 0.8311
G03 X 6.6712 Y 33.3485 Z -1.0000 I -1.3369 J 0.0000
G03 X 6.1914 Y 33.7754 Z -1.0000 I -0.9247 J -0.5560
G03 X 5.8056 Y 33.8930 Z -1.0000 I -0.6443 J -1.4227
G03 X 5.1391 Y 33.9520 Z -1.0000 I -0.7113 J -4.2392
G01 X 5.1391 Y 33.9520 Z -1.0000
G00 Z 5.0000

(End cutting path id: text5147)


(Start cutting path id: text5147)
(Change tool to Default tool)

G00 Z 5.0000
G00 X 6.2197 Y 35.9366

G01 Z -1.0000 F 100.0000(Penetrate)
G03 X 6.5143 Y 36.2640 Z -1.0000 I -0.3865 J 0.6442 F 3500.0000
G03 X 6.6434 Y 36.8477 Z -1.0000 I -1.2550 J 0.5837
G03 X 6.4759 Y 37.4630 Z -1.0000 I -1.2136 J 0.0000
G03 X 6.0784 Y 37.8082 Z -1.0000 I -0.7128 J -0.4193
G03 X 5.5832 Y 37.9220 Z -1.0000 I -0.8390 J -2.5171
G03 X 4.8354 Y 37.9706 Z -1.0000 I -0.7478 J -5.7223
G01 X 2.5471 Y 37.9706 Z -1.0000
G01 X 2.5471 Y 35.6753 Z -1.0000
G01 X 5.1038 Y 35.6753 Z -1.0000
G03 X 5.7674 Y 35.7520 Z -1.0000 I 0.0000 J 2.9106
G03 X 6.2197 Y 35.9366 Z -1.0000 I -0.3548 J 1.5153
G01 X 6.2197 Y 35.9366 Z -1.0000
G00 Z 5.0000

(End cutting path id: text5147)


(Start cutting path id: text5147)
(Change tool to Default tool)

G00 Z 5.0000
G00 X 18.1272 Y 33.9167

G01 Z -1.0000 F 100.0000(Penetrate)
G01 X 13.0704 Y 33.9167 Z -1.0000 F 3500.0000
G01 X 13.0704 Y 31.2400 Z -1.0000
G01 X 18.8335 Y 31.2400 Z -1.0000
G01 X 18.8335 Y 29.3684 Z -1.0000
G01 X 10.9445 Y 29.3684 Z -1.0000
G01 X 10.9445 Y 39.7787 Z -1.0000
G01 X 18.5792 Y 39.7787 Z -1.0000
G01 X 18.5792 Y 37.9353 Z -1.0000
G01 X 13.0704 Y 37.9353 Z -1.0000
G01 X 13.0704 Y 35.7247 Z -1.0000
G01 X 18.1272 Y 35.7247 Z -1.0000
G01 X 18.1272 Y 33.9167 Z -1.0000
G00 Z 5.0000

(End cutting path id: text5147)


(Start cutting path id: text5147)
(Change tool to Default tool)

G00 Z 5.0000
G00 X 26.0161 Y 33.3023

G01 Z -1.0000 F 100.0000(Penetrate)
G01 X 24.7166 Y 37.3986 Z -1.0000 F 3500.0000
G01 X 23.3747 Y 33.3023 Z -1.0000
G01 X 26.0161 Y 33.3023 Z -1.0000
G00 Z 5.0000

(End cutting path id: text5147)


(Start cutting path id: text5147)
(Change tool to Default tool)

G00 Z 5.0000
G00 X 26.6235 Y 31.5084

G01 Z -1.0000 F 100.0000(Penetrate)
G01 X 22.7885 Y 31.5084 Z -1.0000 F 3500.0000
G01 X 22.0681 Y 29.3684 Z -1.0000
G01 X 19.7940 Y 29.3684 Z -1.0000
G01 X 23.5089 Y 39.7787 Z -1.0000
G01 X 25.9667 Y 39.7787 Z -1.0000
G01 X 29.6534 Y 29.3684 Z -1.0000
G01 X 27.2945 Y 29.3684 Z -1.0000
G01 X 26.6235 Y 31.5084 Z -1.0000
G00 Z 5.0000

(End cutting path id: text5147)


(Start cutting path id: text5147)
(Change tool to Default tool)

G00 Z 5.0000
G00 X 35.3953 Y 33.4506

G01 Z -1.0000 F 100.0000(Penetrate)
G01 X 33.1493 Y 33.4506 Z -1.0000 F 3500.0000
G01 X 33.1493 Y 29.3684 Z -1.0000
G01 X 31.0235 Y 29.3684 Z -1.0000
G01 X 31.0235 Y 39.7787 Z -1.0000
G01 X 36.1298 Y 39.7787 Z -1.0000
G02 X 37.2086 Y 39.6826 Z -1.0000 I -0.1509 J -7.7981
G02 X 37.8107 Y 39.5103 Z -1.0000 I -0.4112 J -2.5752
G02 X 38.3597 Y 39.2023 Z -1.0000 I -1.0425 J -2.5021
G02 X 38.8135 Y 38.7828 Z -1.0000 I -1.5344 J -2.1155
G02 X 39.1172 Y 38.3657 Z -1.0000 I -2.4700 J -2.1171
G02 X 39.3503 Y 37.9071 Z -1.0000 I -2.7573 J -1.6899
G02 X 39.4940 Y 37.4161 Z -1.0000 I -2.2365 J -0.9209
G02 X 39.5481 Y 36.8124 Z -1.0000 I -3.3422 J -0.6037
G02 X 39.4574 Y 36.0929 Z -1.0000 I -2.9005 J -0.0000
G02 X 39.1737 Y 35.3504 Z -1.0000 I -3.3765 J 0.8645
G02 X 38.6929 Y 34.7612 Z -1.0000 I -1.6848 J 0.8841
G02 X 37.9378 Y 34.3405 Z -1.0000 I -1.5551 J 1.9031
G02 X 38.5798 Y 33.9623 Z -1.0000 I -0.9295 J -2.3123
G02 X 38.9548 Y 33.5141 Z -1.0000 I -0.9665 J -1.1895
G02 X 39.1595 Y 32.9581 Z -1.0000 I -1.5382 J -0.8819
G02 X 39.2585 Y 31.8897 Z -1.0000 I -5.7143 J -1.0683
G01 X 39.2585 Y 31.1905 Z -1.0000
G03 X 39.2792 Y 30.4795 Z -1.0000 I 12.1976 J 0.0000
G03 X 39.3150 Y 30.2230 Z -1.0000 I 1.6144 J 0.0943
G03 X 39.4648 Y 29.8663 Z -1.0000 I 1.0010 J 0.2107
G03 X 39.7105 Y 29.6297 Z -1.0000 I 0.6614 J 0.4409
G01 X 39.7105 Y 29.3684 Z -1.0000
G01 X 37.3163 Y 29.3684 Z -1.0000
G02 X 37.2227 Y 29.7157 Z -1.0000 I 11.3957 J 3.2560
G02 X 37.1750 Y 29.9263 Z -1.0000 I 4.1392 J 1.0479
G02 X 37.1101 Y 30.3663 Z -1.0000 I 4.8974 J 0.9479
G02 X 37.0832 Y 30.8233 Z -1.0000 I 5.2591 J 0.5383
G01 X 37.0691 Y 31.7909 Z -1.0000
G03 X 36.9343 Y 32.7335 Z -1.0000 I -3.7343 J -0.0530
G03 X 36.7018 Y 33.1186 Z -1.0000 I -0.8034 J -0.2222
G03 X 36.3098 Y 33.3362 Z -1.0000 I -0.6085 J -0.6344
G03 X 35.3953 Y 33.4506 Z -1.0000 I -0.9145 J -3.5998
G01 X 35.3953 Y 33.4506 Z -1.0000
G00 Z 5.0000

(End cutting path id: text5147)


(Start cutting path id: text5147)
(Change tool to Default tool)

G00 Z 5.0000
G00 X 36.7160 Y 35.3433

G01 Z -1.0000 F 100.0000(Penetrate)
G03 X 37.1715 Y 35.7648 Z -1.0000 I -0.4119 J 0.9022 F 3500.0000
G03 X 37.3657 Y 36.5157 Z -1.0000 I -1.3550 J 0.7510
G03 X 37.1721 Y 37.3442 Z -1.0000 I -1.8693 J -0.0000
G03 X 36.7371 Y 37.7870 Z -1.0000 I -0.8916 J -0.4409
G03 X 36.3695 Y 37.9111 Z -1.0000 I -0.5838 J -1.1227
G03 X 35.6778 Y 37.9706 Z -1.0000 I -0.6917 J -3.9907
G01 X 33.1493 Y 37.9706 Z -1.0000
G01 X 33.1493 Y 35.1738 Z -1.0000
G01 X 35.6142 Y 35.1738 Z -1.0000
G03 X 36.3366 Y 35.2291 Z -1.0000 I -0.0000 J 4.7507
G03 X 36.7160 Y 35.3433 Z -1.0000 I -0.2161 J 1.4044
G01 X 36.7160 Y 35.3433 Z -1.0000
G00 Z 5.0000

(End cutting path id: text5147)



(Footer)
M5
G00 X0.0000 Y0.0000
M2
(Using default footer. To add your own footer create file "footer" in the output dir.)
(end)
%