%
(Header)
(Generated by gcodetools from Inkscape.)
(Using default header. To add your own header create file "header" in the output dir.)
M3
(Header end.)
G21 (All units in mm)

(Start cutting path id: text46)
(Change tool to Default tool)

G00 Z5.000000
G00 X9.420975 Y1.969517

G01 Z-1.000000 F100.0(Penetrate)
G01 X3.508066 Y1.969517 Z-1.000000 F3500.000000
G01 X3.508066 Y15.016864 Z-1.000000
G01 X9.845855 Y15.016864 Z-1.000000
G02 X12.033296 Y14.570172 Z-1.000000 I-0.088776 J-6.014004
G02 X13.244892 Y13.627154 Z-1.000000 I-1.076473 J-2.632902
G02 X13.683238 Y12.742137 Z-1.000000 I-2.415812 J-1.747607
G02 X13.846805 Y11.635530 Z-1.000000 I-3.661567 J-1.106607
G02 X13.673521 Y10.503058 Z-1.000000 I-3.787201 J0.000000
G02 X13.244892 Y9.714720 Z-1.000000 I-2.217052 J0.694744
G02 X12.869280 Y9.356340 Z-1.000000 I-1.693840 J1.399257
G02 X12.253506 Y8.971180 Z-1.000000 I-2.580138 J3.440181
G02 X13.151306 Y8.480181 Z-1.000000 I-1.149571 J-3.168332
G02 X13.758289 Y7.820464 Z-1.000000 I-1.571330 J-2.054817
G02 X14.128976 Y6.990270 Z-1.000000 I-2.426434 J-1.581272
G02 X14.271685 Y5.908506 Z-1.000000 I-4.028641 J-1.081764
G02 X14.118090 Y4.793561 Z-1.000000 I-4.123473 J0.000000
G02 X13.687475 Y3.828365 Z-1.000000 I-3.500835 J0.983214
G02 X13.265603 Y3.263195 Z-1.000000 I-3.194296 J1.944352
G02 X12.758051 Y2.801573 Z-1.000000 I-2.623659 J2.374864
G02 X12.090999 Y2.408433 Z-1.000000 I-1.996459 J2.624972
G02 X11.270972 Y2.146550 Z-1.000000 I-1.643199 J3.730505
G02 X10.416316 Y2.017032 Z-1.000000 I-1.603658 J7.697564
G02 X9.420975 Y1.969517 Z-1.000000 I-0.995341 J10.401328
G01 X9.420975 Y1.969517 Z-1.000000
G00 Z5.000000

(End cutting path id: text46)


(Start cutting path id: text46)
(Change tool to Default tool)

G00 Z5.000000
G00 X9.359013 Y7.714244

G01 Z-1.000000 F100.0(Penetrate)
G01 X6.110454 Y7.714244 Z-1.000000 F3500.000000
G01 X6.110454 Y4.235542 Z-1.000000
G01 X9.314755 Y4.235542 Z-1.000000
G03 X10.156941 Y4.307518 Z-1.000000 I0.000000 J4.963137
G03 X10.651356 Y4.465685 Z-1.000000 I-0.317637 J1.844739
G03 X11.258729 Y5.052785 Z-1.000000 I-0.603419 J1.231978
G03 X11.518818 Y6.094391 Z-1.000000 I-1.955670 J1.041606
G03 X11.279237 Y6.957793 Z-1.000000 I-1.675555 J0.000000
G03 X10.677911 Y7.492953 Z-1.000000 I-1.158975 J-0.696852
G03 X10.194360 Y7.640269 Z-1.000000 I-0.807448 J-1.783113
G03 X9.359013 Y7.714244 Z-1.000000 I-0.891457 J-5.313100
G01 X9.359013 Y7.714244 Z-1.000000
G00 Z5.000000

(End cutting path id: text46)


(Start cutting path id: text46)
(Change tool to Default tool)

G00 Z5.000000
G00 X10.713317 Y10.201561

G01 Z-1.000000 F100.0(Penetrate)
G03 X11.082604 Y10.611838 Z-1.000000 I-0.484406 J0.807344 F3500.000000
G03 X11.244417 Y11.343425 Z-1.000000 I-1.572910 J0.731587
G03 X11.034418 Y12.114607 Z-1.000000 I-1.521008 J0.000000
G03 X10.536284 Y12.547251 Z-1.000000 I-0.893375 J-0.525514
G03 X9.915624 Y12.689859 Z-1.000000 I-1.051553 J-3.154660
G03 X8.978392 Y12.750839 Z-1.000000 I-0.937232 J-7.171868
G01 X6.110454 Y12.750839 Z-1.000000
G01 X6.110454 Y9.874050 Z-1.000000
G01 X9.314755 Y9.874050 Z-1.000000
G03 X10.146502 Y9.970138 Z-1.000000 I0.000000 J3.647878
G03 X10.713317 Y10.201561 Z-1.000000 I-0.444725 J1.899098
G01 X10.713317 Y10.201561 Z-1.000000
G00 Z5.000000

(End cutting path id: text46)


(Start cutting path id: text46)
(Change tool to Default tool)

G00 Z5.000000
G00 X25.637217 Y7.669986

G01 Z-1.000000 F100.0(Penetrate)
G01 X19.299428 Y7.669986 Z-1.000000 F3500.000000
G01 X19.299428 Y4.315207 Z-1.000000
G01 X26.522383 Y4.315207 Z-1.000000
G01 X26.522383 Y1.969517 Z-1.000000
G01 X16.635079 Y1.969517 Z-1.000000
G01 X16.635079 Y15.016864 Z-1.000000
G01 X26.203723 Y15.016864 Z-1.000000
G01 X26.203723 Y12.706581 Z-1.000000
G01 X19.299428 Y12.706581 Z-1.000000
G01 X19.299428 Y9.936011 Z-1.000000
G01 X25.637217 Y9.936011 Z-1.000000
G01 X25.637217 Y7.669986 Z-1.000000
G00 Z5.000000

(End cutting path id: text46)


(Start cutting path id: text46)
(Change tool to Default tool)

G00 Z5.000000
G00 X34.267586 Y1.969517

G01 Z-1.000000 F100.0(Penetrate)
G01 X28.646781 Y1.969517 Z-1.000000 F3500.000000
G01 X28.646781 Y15.016864 Z-1.000000
G01 X34.267586 Y15.016864 Z-1.000000
G02 X35.467672 Y14.924253 Z-1.000000 I-0.140797 J-9.646404
G02 X36.285764 Y14.733611 Z-1.000000 I-0.653067 J-4.653105
G02 X37.518134 Y14.093450 Z-1.000000 I-1.352003 J-4.109026
G02 X38.507531 Y13.078351 Z-1.000000 I-2.692636 J-3.614182
G02 X39.082480 Y12.057938 Z-1.000000 I-4.922528 J-3.445769
G02 X39.436955 Y10.971655 Z-1.000000 I-5.232394 J-2.308407
G02 X39.626441 Y9.832334 Z-1.000000 I-11.164493 J-2.442239
G02 X39.684802 Y8.811850 Z-1.000000 I-8.892773 J-1.020484
G02 X39.389944 Y6.288597 Z-1.000000 I-10.943840 J0.000000
G02 X38.640306 Y4.403723 Z-1.000000 I-6.789459 J1.608747
G02 X36.839997 Y2.637275 Z-1.000000 I-4.117143 J2.395430
G02 X34.267586 Y1.969517 Z-1.000000 I-2.572411 J4.620987
G01 X34.267586 Y1.969517 Z-1.000000
G00 Z5.000000

(End cutting path id: text46)


(Start cutting path id: text46)
(Change tool to Default tool)

G00 Z5.000000
G00 X36.294616 Y11.688640

G01 Z-1.000000 F100.0(Penetrate)
G03 X35.471940 Y12.410277 Z-1.000000 I-1.513183 J-0.895300 F3500.000000
G03 X33.807299 Y12.750839 Z-1.000000 I-1.664641 J-3.898035
G01 X31.293428 Y12.750839 Z-1.000000
G01 X31.293428 Y4.235542 Z-1.000000
G01 X33.807299 Y4.235542 Z-1.000000
G03 X35.395213 Y4.740316 Z-1.000000 I-0.000000 J2.750010
G03 X36.498204 Y6.138649 Z-1.000000 I-1.814215 J2.565216
G03 X36.796281 Y7.205771 Z-1.000000 I-4.834457 J1.925589
G03 X36.914232 Y8.625965 Z-1.000000 I-8.490946 J1.420194
G03 X36.720008 Y10.565456 Z-1.000000 I-9.780857 J0.000000
G03 X36.294616 Y11.688640 Z-1.000000 I-3.639761 J-0.736367
G01 X36.294616 Y11.688640 Z-1.000000
G00 Z5.000000

(End cutting path id: text46)


(Footer)
M5
G00 X0.0000 Y0.0000
M2
(Using default footer. To add your own footer create file "footer" in the output dir.)
(end)
%