%
(Header)
(Generated by gcodetools from Inkscape.)
(Using default header. To add your own header create file "header" in the output dir.)
M3
(Header end.)
G21 (All units in mm)

(Start cutting path id: text5608)
(Change tool to Default tool)

G00 Z 5.0000
G00 X 3.3596 Y 33.2915

G01 Z -1.0000 F 100.0000(Penetrate)
G01 X 0.3750 Y 33.2915 Z -1.0000 F 3500.0000
G01 X 0.3750 Y 39.8774 Z -1.0000
G01 X 3.5741 Y 39.8774 Z -1.0000
G02 X 4.6783 Y 39.6519 Z -1.0000 I -0.0448 J -3.0357
G02 X 5.2898 Y 39.1759 Z -1.0000 I -0.5434 J -1.3290
G02 X 5.5111 Y 38.7292 Z -1.0000 I -1.2194 J -0.8821
G02 X 5.5937 Y 38.1706 Z -1.0000 I -1.8483 J -0.5586
G02 X 5.5062 Y 37.5990 Z -1.0000 I -1.9117 J 0.0000
G02 X 5.2898 Y 37.2011 Z -1.0000 I -1.1191 J 0.3507
G02 X 5.1002 Y 37.0202 Z -1.0000 I -0.8550 J 0.7063
G02 X 4.7894 Y 36.8257 Z -1.0000 I -1.3024 J 1.7365
G02 X 5.2426 Y 36.5779 Z -1.0000 I -0.5803 J -1.5993
G02 X 5.5490 Y 36.2449 Z -1.0000 I -0.7932 J -1.0372
G02 X 5.7361 Y 35.8258 Z -1.0000 I -1.2248 J -0.7982
G02 X 5.8081 Y 35.2798 Z -1.0000 I -2.0335 J -0.5460
G02 X 5.7306 Y 34.7170 Z -1.0000 I -2.0814 J -0.0000
G02 X 5.5133 Y 34.2298 Z -1.0000 I -1.7671 J 0.4963
G02 X 5.3003 Y 33.9445 Z -1.0000 I -1.6124 J 0.9815
G02 X 5.0441 Y 33.7115 Z -1.0000 I -1.3244 J 1.1988
G02 X 4.7074 Y 33.5130 Z -1.0000 I -1.0078 J 1.3250
G02 X 4.2935 Y 33.3809 Z -1.0000 I -0.8294 J 1.8831
G02 X 3.8621 Y 33.3155 Z -1.0000 I -0.8095 J 3.8855
G02 X 3.3596 Y 33.2915 Z -1.0000 I -0.5024 J 5.2503
G01 X 3.3596 Y 33.2915 Z -1.0000
G00 Z 5.0000

(End cutting path id: text5608)


(Start cutting path id: text5608)
(Change tool to Default tool)

G00 Z 5.0000
G00 X 3.3284 Y 36.1913

G01 Z -1.0000 F 100.0000(Penetrate)
G01 X 1.6886 Y 36.1913 Z -1.0000 F 3500.0000
G01 X 1.6886 Y 34.4353 Z -1.0000
G01 X 3.3060 Y 34.4353 Z -1.0000
G03 X 3.7311 Y 34.4716 Z -1.0000 I -0.0000 J 2.5053
G03 X 3.9807 Y 34.5515 Z -1.0000 I -0.1603 J 0.9312
G03 X 4.2873 Y 34.8478 Z -1.0000 I -0.3046 J 0.6219
G03 X 4.4186 Y 35.3736 Z -1.0000 I -0.9872 J 0.5258
G03 X 4.2976 Y 35.8094 Z -1.0000 I -0.8458 J -0.0000
G03 X 3.9941 Y 36.0796 Z -1.0000 I -0.5850 J -0.3518
G03 X 3.7500 Y 36.1539 Z -1.0000 I -0.4076 J -0.9001
G03 X 3.3284 Y 36.1913 Z -1.0000 I -0.4500 J -2.6819
G01 X 3.3284 Y 36.1913 Z -1.0000
G00 Z 5.0000

(End cutting path id: text5608)


(Start cutting path id: text5608)
(Change tool to Default tool)

G00 Z 5.0000
G00 X 4.0120 Y 37.4468

G01 Z -1.0000 F 100.0000(Penetrate)
G03 X 4.1984 Y 37.6539 Z -1.0000 I -0.2445 J 0.4075 F 3500.0000
G03 X 4.2801 Y 38.0232 Z -1.0000 I -0.7940 J 0.3693
G03 X 4.1741 Y 38.4124 Z -1.0000 I -0.7678 J 0.0000
G03 X 3.9226 Y 38.6308 Z -1.0000 I -0.4510 J -0.2653
G03 X 3.6093 Y 38.7028 Z -1.0000 I -0.5308 J -1.5924
G03 X 3.1362 Y 38.7336 Z -1.0000 I -0.4731 J -3.6202
G01 X 1.6886 Y 38.7336 Z -1.0000
G01 X 1.6886 Y 37.2815 Z -1.0000
G01 X 3.3060 Y 37.2815 Z -1.0000
G03 X 3.7259 Y 37.3300 Z -1.0000 I 0.0000 J 1.8413
G03 X 4.0120 Y 37.4468 Z -1.0000 I -0.2245 J 0.9586
G01 X 4.0120 Y 37.4468 Z -1.0000
G00 Z 5.0000

(End cutting path id: text5608)


(Start cutting path id: text5608)
(Change tool to Default tool)

G00 Z 5.0000
G00 X 6.8537 Y 39.8774

G01 Z -1.0000 F 100.0000(Penetrate)
G01 X 8.2209 Y 39.8774 Z -1.0000 F 3500.0000
G01 X 8.2209 Y 33.2915 Z -1.0000
G01 X 6.8537 Y 33.2915 Z -1.0000
G01 X 6.8537 Y 39.8774 Z -1.0000
G00 Z 5.0000

(End cutting path id: text5608)


(Start cutting path id: text5608)
(Change tool to Default tool)

G00 Z 5.0000
G00 X 14.1500 Y 33.7830

G01 Z -1.0000 F 100.0000(Penetrate)
G02 X 13.3403 Y 33.2950 Z -1.0000 I -1.6164 J 1.7662 F 3500.0000
G02 X 12.2645 Y 33.1083 Z -1.0000 I -1.0758 J 3.0065
G02 X 10.9584 Y 33.3645 Z -1.0000 I 0.0000 J 3.4574
G02 X 10.0305 Y 34.0198 Z -1.0000 I 0.9515 J 2.3320
G02 X 9.4549 Y 35.0260 Z -1.0000 I 2.1147 J 1.8774
G02 X 9.2173 Y 36.5308 Z -1.0000 I 4.6468 J 1.5049
G02 X 9.4898 Y 38.1434 Z -1.0000 I 4.9077 J 0.0000
G02 X 10.1422 Y 39.1893 Z -1.0000 I 2.6335 J -0.9162
G02 X 11.0383 Y 39.7824 Z -1.0000 I 1.8646 J -1.8442
G02 X 12.1885 Y 40.0025 Z -1.0000 I 1.1502 J -2.8945
G02 X 13.6846 Y 39.6824 Z -1.0000 I -0.0000 J -3.6557
G02 X 14.6192 Y 38.9123 Z -1.0000 I -0.9372 J -2.0895
G02 X 14.9543 Y 38.2698 Z -1.0000 I -2.3778 J -1.6488
G02 X 15.0749 Y 37.6836 Z -1.0000 I -1.8498 J -0.6861
G01 X 13.6988 Y 37.6836 Z -1.0000
G03 X 13.5270 Y 38.1368 Z -1.0000 I -2.7032 J -0.7651
G03 X 13.3547 Y 38.3985 Z -1.0000 I -1.0579 J -0.5091
G03 X 12.9220 Y 38.7009 Z -1.0000 I -0.8290 J -0.7254
G03 X 12.2422 Y 38.8274 Z -1.0000 I -0.6798 J -1.7633
G03 X 11.5746 Y 38.6661 Z -1.0000 I 0.0000 J -1.4621
G03 X 11.0581 Y 38.2198 Z -1.0000 I 0.6595 J -1.2851
G03 X 10.7575 Y 37.5738 Z -1.0000 I 1.5520 J -1.1152
G03 X 10.6247 Y 36.5085 Z -1.0000 I 4.2064 J -1.0653
G03 X 10.7670 Y 35.4514 Z -1.0000 I 3.9975 J -0.0000
G03 X 11.0805 Y 34.8464 Z -1.0000 I 1.5735 J 0.4314
G03 X 11.6075 Y 34.4399 Z -1.0000 I 1.1870 J 0.9940
G03 X 12.2466 Y 34.2968 Z -1.0000 I 0.6392 J 1.3563
G03 X 12.9055 Y 34.4322 Z -1.0000 I 0.0000 J 1.6706
G03 X 13.3502 Y 34.7704 Z -1.0000 I -0.4547 J 1.0595
G03 X 13.5219 Y 35.0450 Z -1.0000 I -0.9577 J 0.7896
G03 X 13.6988 Y 35.5345 Z -1.0000 I -2.9184 J 1.3312
G01 X 15.0615 Y 35.5345 Z -1.0000
G02 X 14.7297 Y 34.5404 Z -1.0000 I -3.2918 J 0.5464
G02 X 14.1500 Y 33.7830 Z -1.0000 I -2.4519 J 1.2760
G01 X 14.1500 Y 33.7830 Z -1.0000
G00 Z 5.0000

(End cutting path id: text5608)


(Start cutting path id: text5608)
(Change tool to Default tool)

G00 Z 5.0000
G00 X 21.4285 Y 39.8774

G01 Z -1.0000 F 100.0000(Penetrate)
G01 X 19.2258 Y 35.7668 Z -1.0000 F 3500.0000
G01 X 19.2258 Y 33.2915 Z -1.0000
G01 X 17.8496 Y 33.2915 Z -1.0000
G01 X 17.8496 Y 35.7668 Z -1.0000
G01 X 15.5709 Y 39.8774 Z -1.0000
G01 X 17.1928 Y 39.8774 Z -1.0000
G01 X 18.5600 Y 37.0089 Z -1.0000
G01 X 19.8692 Y 39.8774 Z -1.0000
G01 X 21.4285 Y 39.8774 Z -1.0000
G00 Z 5.0000

(End cutting path id: text5608)


(Start cutting path id: text5608)
(Change tool to Default tool)

G00 Z 5.0000
G00 X 28.8232 Y 39.8774

G01 Z -1.0000 F 100.0000(Penetrate)
G01 X 30.1993 Y 39.8774 Z -1.0000 F 3500.0000
G01 X 30.1993 Y 34.4755 Z -1.0000
G01 X 33.4610 Y 34.4755 Z -1.0000
G01 X 33.4610 Y 33.2915 Z -1.0000
G01 X 28.8232 Y 33.2915 Z -1.0000
G01 X 28.8232 Y 39.8774 Z -1.0000
G00 Z 5.0000

(End cutting path id: text5608)


(Start cutting path id: text5608)
(Change tool to Default tool)

G00 Z 5.0000
G00 X 26.8617 Y 33.7830

G01 Z -1.0000 F 100.0000(Penetrate)
G02 X 26.0519 Y 33.2950 Z -1.0000 I -1.6164 J 1.7662 F 3500.0000
G02 X 24.9762 Y 33.1083 Z -1.0000 I -1.0758 J 3.0065
G02 X 23.6701 Y 33.3645 Z -1.0000 I -0.0000 J 3.4574
G02 X 22.7421 Y 34.0198 Z -1.0000 I 0.9515 J 2.3320
G02 X 22.1665 Y 35.0260 Z -1.0000 I 2.1147 J 1.8774
G02 X 21.9289 Y 36.5308 Z -1.0000 I 4.6468 J 1.5049
G02 X 22.2014 Y 38.1434 Z -1.0000 I 4.9077 J 0.0000
G02 X 22.8538 Y 39.1893 Z -1.0000 I 2.6335 J -0.9162
G02 X 23.7500 Y 39.7824 Z -1.0000 I 1.8646 J -1.8442
G02 X 24.9002 Y 40.0025 Z -1.0000 I 1.1502 J -2.8945
G02 X 26.3963 Y 39.6824 Z -1.0000 I 0.0000 J -3.6557
G02 X 27.3308 Y 38.9123 Z -1.0000 I -0.9372 J -2.0895
G02 X 27.6660 Y 38.2697 Z -1.0000 I -2.3778 J -1.6488
G02 X 27.7866 Y 37.6836 Z -1.0000 I -1.8498 J -0.6861
G01 X 26.4104 Y 37.6836 Z -1.0000
G03 X 26.2387 Y 38.1368 Z -1.0000 I -2.7033 J -0.7651
G03 X 26.0664 Y 38.3985 Z -1.0000 I -1.0579 J -0.5091
G03 X 25.6337 Y 38.7009 Z -1.0000 I -0.8290 J -0.7254
G03 X 24.9538 Y 38.8274 Z -1.0000 I -0.6798 J -1.7633
G03 X 24.2863 Y 38.6661 Z -1.0000 I 0.0000 J -1.4621
G03 X 23.7698 Y 38.2198 Z -1.0000 I 0.6595 J -1.2851
G03 X 23.4692 Y 37.5738 Z -1.0000 I 1.5520 J -1.1152
G03 X 23.3364 Y 36.5085 Z -1.0000 I 4.2064 J -1.0653
G03 X 23.4787 Y 35.4514 Z -1.0000 I 3.9975 J 0.0000
G03 X 23.7921 Y 34.8464 Z -1.0000 I 1.5735 J 0.4314
G03 X 24.3191 Y 34.4399 Z -1.0000 I 1.1870 J 0.9940
G03 X 24.9583 Y 34.2968 Z -1.0000 I 0.6392 J 1.3563
G03 X 25.6171 Y 34.4322 Z -1.0000 I 0.0000 J 1.6706
G03 X 26.0619 Y 34.7704 Z -1.0000 I -0.4547 J 1.0595
G03 X 26.2335 Y 35.0450 Z -1.0000 I -0.9577 J 0.7896
G03 X 26.4104 Y 35.5345 Z -1.0000 I -2.9184 J 1.3312
G01 X 27.7732 Y 35.5345 Z -1.0000
G02 X 27.4414 Y 34.5404 Z -1.0000 I -3.2918 J 0.5464
G02 X 26.8617 Y 33.7830 Z -1.0000 I -2.4519 J 1.2760
G01 X 26.8617 Y 33.7830 Z -1.0000
G00 Z 5.0000

(End cutting path id: text5608)


(Start cutting path id: text5608)
(Change tool to Default tool)

G00 Z 5.0000
G00 X 38.9970 Y 36.1689

G01 Z -1.0000 F 100.0000(Penetrate)
G01 X 35.7978 Y 36.1689 Z -1.0000 F 3500.0000
G01 X 35.7978 Y 34.4755 Z -1.0000
G01 X 39.4438 Y 34.4755 Z -1.0000
G01 X 39.4438 Y 33.2915 Z -1.0000
G01 X 34.4529 Y 33.2915 Z -1.0000
G01 X 34.4529 Y 39.8774 Z -1.0000
G01 X 39.2829 Y 39.8774 Z -1.0000
G01 X 39.2829 Y 38.7113 Z -1.0000
G01 X 35.7978 Y 38.7113 Z -1.0000
G01 X 35.7978 Y 37.3128 Z -1.0000
G01 X 38.9970 Y 37.3128 Z -1.0000
G01 X 38.9970 Y 36.1689 Z -1.0000
G00 Z 5.0000

(End cutting path id: text5608)



(Footer)
M5
G00 X0.0000 Y0.0000
M2
(Using default footer. To add your own footer create file "footer" in the output dir.)
(end)
%