%
(Header)
(Generated by gcodetools from Inkscape.)
(Using default header. To add your own header create file "header" in the output dir.)
M3
(Header end.)
G21 (All units in mm)

(Start cutting path id: text77122)
(Change tool to Default tool)

G00 Z 5.0000
G00 X 5.7156 Y 0.1013

G01 Z -1.0000 F 100.0000(Penetrate)
G01 X 0.1705 Y 0.1013 Z -1.0000 F 3500.0000
G01 X 0.1705 Y 12.3369 Z -1.0000
G01 X 6.1140 Y 12.3369 Z -1.0000
G02 X 8.1654 Y 11.9180 Z -1.0000 I -0.0832 J -5.6398
G02 X 9.3016 Y 11.0336 Z -1.0000 I -1.0095 J -2.4691
G02 X 9.7127 Y 10.2037 Z -1.0000 I -2.2655 J -1.6389
G02 X 9.8661 Y 9.1659 Z -1.0000 I -3.4338 J -1.0378
G02 X 9.7036 Y 8.1039 Z -1.0000 I -3.5516 J 0.0000
G02 X 9.3016 Y 7.3646 Z -1.0000 I -2.0791 J 0.6515
G02 X 8.9494 Y 7.0285 Z -1.0000 I -1.5885 J 1.3122
G02 X 8.3719 Y 6.6673 Z -1.0000 I -2.4196 J 3.2262
G02 X 9.2138 Y 6.2069 Z -1.0000 I -1.0781 J -2.9712
G02 X 9.7831 Y 5.5882 Z -1.0000 I -1.4736 J -1.9270
G02 X 10.1307 Y 4.8097 Z -1.0000 I -2.2755 J -1.4829
G02 X 10.2645 Y 3.7952 Z -1.0000 I -3.7780 J -1.0145
G02 X 10.1205 Y 2.7496 Z -1.0000 I -3.8669 J 0.0000
G02 X 9.7166 Y 1.8445 Z -1.0000 I -3.2830 J 0.9220
G02 X 9.3210 Y 1.3145 Z -1.0000 I -2.9956 J 1.8234
G02 X 8.8450 Y 0.8815 Z -1.0000 I -2.4604 J 2.2271
G02 X 8.2195 Y 0.5129 Z -1.0000 I -1.8723 J 2.4617
G02 X 7.4505 Y 0.2673 Z -1.0000 I -1.5410 J 3.4984
G02 X 6.6490 Y 0.1458 Z -1.0000 I -1.5039 J 7.2187
G02 X 5.7156 Y 0.1013 Z -1.0000 I -0.9334 J 9.7542
G01 X 5.7156 Y 0.1013 Z -1.0000
G00 Z 5.0000

(End cutting path id: text77122)


(Start cutting path id: text77122)
(Change tool to Default tool)

G00 Z 5.0000
G00 X 5.6575 Y 5.4886

G01 Z -1.0000 F 100.0000(Penetrate)
G01 X 2.6110 Y 5.4886 Z -1.0000 F 3500.0000
G01 X 2.6110 Y 2.2263 Z -1.0000
G01 X 5.6160 Y 2.2263 Z -1.0000
G03 X 6.4058 Y 2.2938 Z -1.0000 I -0.0000 J 4.6543
G03 X 6.8694 Y 2.4421 Z -1.0000 I -0.2979 J 1.7300
G03 X 7.4390 Y 2.9927 Z -1.0000 I -0.5659 J 1.1553
G03 X 7.6829 Y 3.9695 Z -1.0000 I -1.8340 J 0.9768
G03 X 7.4582 Y 4.7792 Z -1.0000 I -1.5713 J 0.0000
G03 X 6.8943 Y 5.2811 Z -1.0000 I -1.0869 J -0.6535
G03 X 6.4409 Y 5.4192 Z -1.0000 I -0.7572 J -1.6722
G03 X 5.6575 Y 5.4886 Z -1.0000 I -0.8360 J -4.9826
G01 X 5.6575 Y 5.4886 Z -1.0000
G00 Z 5.0000

(End cutting path id: text77122)


(Start cutting path id: text77122)
(Change tool to Default tool)

G00 Z 5.0000
G00 X 6.9275 Y 7.8212

G01 Z -1.0000 F 100.0000(Penetrate)
G03 X 7.2738 Y 8.2059 Z -1.0000 I -0.4543 J 0.7571 F 3500.0000
G03 X 7.4256 Y 8.8920 Z -1.0000 I -1.4751 J 0.6861
G03 X 7.2286 Y 9.6152 Z -1.0000 I -1.4264 J -0.0000
G03 X 6.7615 Y 10.0209 Z -1.0000 I -0.8378 J -0.4928
G03 X 6.1795 Y 10.1547 Z -1.0000 I -0.9861 J -2.9584
G03 X 5.3005 Y 10.2118 Z -1.0000 I -0.8789 J -6.7257
G01 X 2.6110 Y 10.2118 Z -1.0000
G01 X 2.6110 Y 7.5140 Z -1.0000
G01 X 5.6160 Y 7.5140 Z -1.0000
G03 X 6.3960 Y 7.6041 Z -1.0000 I -0.0000 J 3.4209
G03 X 6.9275 Y 7.8212 Z -1.0000 I -0.4171 J 1.7810
G01 X 6.9275 Y 7.8212 Z -1.0000
G00 Z 5.0000

(End cutting path id: text77122)


(Start cutting path id: text77122)
(Change tool to Default tool)

G00 Z 5.0000
G00 X 12.2069 Y 12.3369

G01 Z -1.0000 F 100.0000(Penetrate)
G01 X 14.7470 Y 12.3369 Z -1.0000 F 3500.0000
G01 X 14.7470 Y 0.1013 Z -1.0000
G01 X 12.2069 Y 0.1013 Z -1.0000
G01 X 12.2069 Y 12.3369 Z -1.0000
G00 Z 5.0000

(End cutting path id: text77122)


(Start cutting path id: text77122)
(Change tool to Default tool)

G00 Z 5.0000
G00 X 22.3258 Y 4.8992

G01 Z -1.0000 F 100.0000(Penetrate)
G01 X 19.6861 Y 4.8992 Z -1.0000 F 3500.0000
G01 X 19.6861 Y 0.1013 Z -1.0000
G01 X 17.1875 Y 0.1013 Z -1.0000
G01 X 17.1875 Y 12.3369 Z -1.0000
G01 X 23.1891 Y 12.3369 Z -1.0000
G02 X 24.4571 Y 12.2240 Z -1.0000 I -0.1774 J -9.1653
G02 X 25.1648 Y 12.0215 Z -1.0000 I -0.4832 J -3.0267
G02 X 25.8100 Y 11.6595 Z -1.0000 I -1.2253 J -2.9408
G02 X 26.3435 Y 11.1665 Z -1.0000 I -1.8035 J -2.4864
G02 X 26.7004 Y 10.6762 Z -1.0000 I -2.9031 J -2.4884
G02 X 26.9744 Y 10.1371 Z -1.0000 I -3.2407 J -1.9862
G02 X 27.1432 Y 9.5601 Z -1.0000 I -2.6287 J -1.0824
G02 X 27.2068 Y 8.8505 Z -1.0000 I -3.9282 J -0.7096
G02 X 27.1003 Y 8.0049 Z -1.0000 I -3.4091 J 0.0000
G02 X 26.7669 Y 7.1322 Z -1.0000 I -3.9685 J 1.0161
G02 X 26.2017 Y 6.4396 Z -1.0000 I -1.9802 J 1.0391
G02 X 25.3142 Y 5.9451 Z -1.0000 I -1.8277 J 2.2367
G02 X 26.0688 Y 5.5007 Z -1.0000 I -1.0924 J -2.7178
G02 X 26.5095 Y 4.9739 Z -1.0000 I -1.1359 J -1.3981
G02 X 26.7501 Y 4.3204 Z -1.0000 I -1.8079 J -1.0365
G02 X 26.8665 Y 3.0647 Z -1.0000 I -6.7163 J -1.2557
G01 X 26.8665 Y 2.2429 Z -1.0000
G03 X 26.8908 Y 1.4072 Z -1.0000 I 14.3356 J 0.0000
G03 X 26.9329 Y 1.1057 Z -1.0000 I 1.8974 J 0.1108
G03 X 27.1090 Y 0.6865 Z -1.0000 I 1.1765 J 0.2477
G03 X 27.3977 Y 0.4084 Z -1.0000 I 0.7774 J 0.5182
G01 X 27.3977 Y 0.1013 Z -1.0000
G01 X 24.5837 Y 0.1013 Z -1.0000
G02 X 24.4737 Y 0.5095 Z -1.0000 I 13.3981 J 3.8280
G02 X 24.4177 Y 0.7570 Z -1.0000 I 4.8665 J 1.2320
G02 X 24.3413 Y 1.2741 Z -1.0000 I 5.7564 J 1.1141
G02 X 24.3098 Y 1.8113 Z -1.0000 I 6.1815 J 0.6328
G01 X 24.2932 Y 2.9485 Z -1.0000
G03 X 24.1348 Y 4.0564 Z -1.0000 I -4.3890 J -0.0622
G03 X 23.8615 Y 4.5091 Z -1.0000 I -0.9443 J -0.2612
G03 X 23.4007 Y 4.7648 Z -1.0000 I -0.7152 J -0.7456
G03 X 22.3258 Y 4.8992 Z -1.0000 I -1.0749 J -4.2310
G01 X 22.3258 Y 4.8992 Z -1.0000
G00 Z 5.0000

(End cutting path id: text77122)


(Start cutting path id: text77122)
(Change tool to Default tool)

G00 Z 5.0000
G00 X 23.8781 Y 7.1239

G01 Z -1.0000 F 100.0000(Penetrate)
G03 X 24.4136 Y 7.6192 Z -1.0000 I -0.4841 J 1.0604 F 3500.0000
G03 X 24.6418 Y 8.5018 Z -1.0000 I -1.5926 J 0.8826
G03 X 24.4142 Y 9.4756 Z -1.0000 I -2.1970 J -0.0000
G03 X 23.9030 Y 9.9960 Z -1.0000 I -1.0480 J -0.5182
G03 X 23.4709 Y 10.1419 Z -1.0000 I -0.6862 J -1.3195
G03 X 22.6579 Y 10.2118 Z -1.0000 I -0.8130 J -4.6904
G01 X 19.6861 Y 10.2118 Z -1.0000
G01 X 19.6861 Y 6.9247 Z -1.0000
G01 X 22.5832 Y 6.9247 Z -1.0000
G03 X 23.4322 Y 6.9896 Z -1.0000 I 0.0000 J 5.5837
G03 X 23.8781 Y 7.1239 Z -1.0000 I -0.2539 J 1.6507
G01 X 23.8781 Y 7.1239 Z -1.0000
G00 Z 5.0000

(End cutting path id: text77122)


(Start cutting path id: text77122)
(Change tool to Default tool)

G00 Z 5.0000
G00 X 36.5786 Y 9.2157

G01 Z -1.0000 F 100.0000(Penetrate)
G03 X 35.8071 Y 9.8925 Z -1.0000 I -1.4190 J -0.8396 F 3500.0000
G03 X 34.2460 Y 10.2118 Z -1.0000 I -1.5611 J -3.6555
G01 X 31.8886 Y 10.2118 Z -1.0000
G01 X 31.8886 Y 2.2263 Z -1.0000
G01 X 34.2460 Y 2.2263 Z -1.0000
G03 X 35.7352 Y 2.6997 Z -1.0000 I 0.0000 J 2.5789
G03 X 36.7695 Y 4.0110 Z -1.0000 I -1.7013 J 2.4056
G03 X 37.0491 Y 5.0118 Z -1.0000 I -4.5337 J 1.8058
G03 X 37.1597 Y 6.3436 Z -1.0000 I -7.9627 J 1.3318
G03 X 36.9775 Y 8.1624 Z -1.0000 I -9.1724 J 0.0000
G03 X 36.5786 Y 9.2157 Z -1.0000 I -3.4133 J -0.6906
G01 X 36.5786 Y 9.2157 Z -1.0000
G00 Z 5.0000

(End cutting path id: text77122)


(Start cutting path id: text77122)
(Change tool to Default tool)

G00 Z 5.0000
G00 X 34.6777 Y 0.1013

G01 Z -1.0000 F 100.0000(Penetrate)
G01 X 29.4066 Y 0.1013 Z -1.0000 F 3500.0000
G01 X 29.4066 Y 12.3369 Z -1.0000
G01 X 34.6777 Y 12.3369 Z -1.0000
G02 X 35.8031 Y 12.2500 Z -1.0000 I -0.1320 J -9.0464
G02 X 36.5703 Y 12.0713 Z -1.0000 I -0.6124 J -4.3637
G02 X 37.7260 Y 11.4709 Z -1.0000 I -1.2679 J -3.8534
G02 X 38.6539 Y 10.5190 Z -1.0000 I -2.5251 J -3.3893
G02 X 39.1930 Y 9.5621 Z -1.0000 I -4.6163 J -3.2314
G02 X 39.5255 Y 8.5434 Z -1.0000 I -4.9069 J -2.1648
G02 X 39.7032 Y 7.4749 Z -1.0000 I -10.4700 J -2.2903
G02 X 39.7579 Y 6.5179 Z -1.0000 I -8.3396 J -0.9570
G02 X 39.4814 Y 4.1516 Z -1.0000 I -10.2630 J 0.0000
G02 X 38.7784 Y 2.3840 Z -1.0000 I -6.3671 J 1.5087
G02 X 37.0901 Y 0.7275 Z -1.0000 I -3.8610 J 2.2464
G02 X 34.6777 Y 0.1013 Z -1.0000 I -2.4124 J 4.3335
G01 X 34.6777 Y 0.1013 Z -1.0000
G00 Z 5.0000

(End cutting path id: text77122)



(Footer)
M5
G00 X0.0000 Y0.0000
M2
(Using default footer. To add your own footer create file "footer" in the output dir.)
(end)
%