%
(Header)
(Generated by gcodetools from Inkscape.)
(Using default header. To add your own header create file "header" in the output dir.)
M3
(Header end.)
G21 (All units in mm)

(Start cutting path id: text1034)
(Change tool to Default tool)

G00 Z5.000000
G00 X5.916218 Y21.679064

G01 Z-1.000000 F100.0(Penetrate)
G01 X0.397944 Y21.679064 Z-1.000000 F3500.000000
G01 X0.397944 Y33.855614 Z-1.000000
G01 X6.312741 Y33.855614 Z-1.000000
G02 X8.354189 Y33.438736 Z-1.000000 I-0.082844 J-5.612598
G02 X9.484922 Y32.558655 Z-1.000000 I-1.004628 J-2.457179
G02 X9.894012 Y31.732705 Z-1.000000 I-2.254572 J-1.630967
G02 X10.046663 Y30.699955 Z-1.000000 I-3.417188 J-1.032751
G02 X9.884944 Y29.643065 Z-1.000000 I-3.534436 J0.000000
G02 X9.484922 Y28.907342 Z-1.000000 I-2.069084 J0.648377
G02 X9.134379 Y28.572881 Z-1.000000 I-1.580794 J1.305873
G02 X8.559703 Y28.213427 Z-1.000000 I-2.407944 J3.210591
G02 X9.397582 Y27.755198 Z-1.000000 I-1.072844 J-2.956866
G02 X9.964054 Y27.139511 Z-1.000000 I-1.466457 J-1.917674
G02 X10.310000 Y26.364725 Z-1.000000 I-2.264495 J-1.475737
G02 X10.443185 Y25.355159 Z-1.000000 I-3.759767 J-1.009566
G02 X10.299841 Y24.314628 Z-1.000000 I-3.848268 J0.000000
G02 X9.897967 Y23.413850 Z-1.000000 I-3.267191 J0.917593
G02 X9.504250 Y22.886400 Z-1.000000 I-2.981118 J1.814595
G02 X9.030573 Y22.455587 Z-1.000000 I-2.448560 J2.216369
G02 X8.408042 Y22.088686 Z-1.000000 I-1.863209 J2.449775
G02 X7.642744 Y21.844282 Z-1.000000 I-1.533526 J3.481524
G02 X6.845129 Y21.723408 Z-1.000000 I-1.496630 J7.183813
G02 X5.916218 Y21.679064 Z-1.000000 I-0.928910 J9.707099
G01 X5.916218 Y21.679064 Z-1.000000
G00 Z5.000000

(End cutting path id: text1034)


(Start cutting path id: text1034)
(Change tool to Default tool)

G00 Z5.000000
G00 X5.858392 Y27.040381

G01 Z-1.000000 F100.0(Penetrate)
G01 X2.826646 Y27.040381 Z-1.000000 F3500.000000
G01 X2.826646 Y23.793851 Z-1.000000
G01 X5.817088 Y23.793851 Z-1.000000
G03 X6.603065 Y23.861024 Z-1.000000 I-0.000000 J4.631888
G03 X7.064482 Y24.008634 Z-1.000000 I-0.296437 J1.721616
G03 X7.631319 Y24.556551 Z-1.000000 I-0.563146 J1.149755
G03 X7.874049 Y25.528638 Z-1.000000 I-1.825144 J0.972087
G03 X7.650458 Y26.334416 Z-1.000000 I-1.563727 J0.000000
G03 X7.089265 Y26.833859 Z-1.000000 I-1.081624 J-0.650344
G03 X6.637986 Y26.971343 Z-1.000000 I-0.753559 J-1.664113
G03 X5.858392 Y27.040381 Z-1.000000 I-0.831965 J-4.958518
G01 X5.858392 Y27.040381 Z-1.000000
G00 Z5.000000

(End cutting path id: text1034)


(Start cutting path id: text1034)
(Change tool to Default tool)

G00 Z5.000000
G00 X7.122308 Y29.361691

G01 Z-1.000000 F100.0(Penetrate)
G03 X7.466948 Y29.744585 Z-1.000000 I-0.452076 J0.753460 F3500.000000
G03 X7.617961 Y30.427345 Z-1.000000 I-1.467933 J0.682760
G03 X7.421978 Y31.147057 Z-1.000000 I-1.419494 J0.000000
G03 X6.957090 Y31.550826 Z-1.000000 I-0.833749 J-0.490441
G03 X6.377854 Y31.683916 Z-1.000000 I-0.981371 J-2.944114
G03 X5.503174 Y31.740827 Z-1.000000 I-0.874680 J-6.693200
G01 X2.826646 Y31.740827 Z-1.000000
G01 X2.826646 Y29.056038 Z-1.000000
G01 X5.817088 Y29.056038 Z-1.000000
G03 X6.593323 Y29.145713 Z-1.000000 I-0.000000 J3.404409
G03 X7.122308 Y29.361691 Z-1.000000 I-0.415044 J1.772350
G01 X7.122308 Y29.361691 Z-1.000000
G00 Z5.000000

(End cutting path id: text1034)


(Start cutting path id: text1034)
(Change tool to Default tool)

G00 Z5.000000
G00 X12.376233 Y33.855614

G01 Z-1.000000 F100.0(Penetrate)
G01 X14.904065 Y33.855614 Z-1.000000 F3500.000000
G01 X14.904065 Y21.679064 Z-1.000000
G01 X12.376233 Y21.679064 Z-1.000000
G01 X12.376233 Y33.855614 Z-1.000000
G00 Z5.000000

(End cutting path id: text1034)


(Start cutting path id: text1034)
(Change tool to Default tool)

G00 Z5.000000
G00 X22.446257 Y26.453858

G01 Z-1.000000 F100.0(Penetrate)
G01 X19.819294 Y26.453858 Z-1.000000 F3500.000000
G01 X19.819294 Y21.679064 Z-1.000000
G01 X17.332767 Y21.679064 Z-1.000000
G01 X17.332767 Y33.855614 Z-1.000000
G01 X23.305390 Y33.855614 Z-1.000000
G02 X24.567225 Y33.743217 Z-1.000000 I-0.176541 J-9.121174
G02 X25.271481 Y33.541700 Z-1.000000 I-0.480921 J-3.012082
G02 X25.913630 Y33.181526 Z-1.000000 I-1.219420 J-2.926609
G02 X26.444527 Y32.690829 Z-1.000000 I-1.794787 J-2.474366
G02 X26.799716 Y32.202899 Z-1.000000 I-2.889073 J-2.476350
G02 X27.072355 Y31.666479 Z-1.000000 I-3.225054 J-1.976648
G02 X27.240388 Y31.092221 Z-1.000000 I-2.616012 J-1.077182
G02 X27.303660 Y30.386041 Z-1.000000 I-3.909212 J-0.706180
G02 X27.197642 Y29.544547 Z-1.000000 I-3.392607 J0.000000
G02 X26.865833 Y28.676037 Z-1.000000 I-3.949322 J1.011179
G02 X26.303374 Y27.986820 Z-1.000000 I-1.970662 J1.034109
G02 X25.420177 Y27.494730 Z-1.000000 I-1.818911 J2.225941
G02 X26.171173 Y27.052430 Z-1.000000 I-1.087166 J-2.704654
G02 X26.609745 Y26.528206 Z-1.000000 I-1.130438 J-1.391308
G02 X26.849156 Y25.877796 Z-1.000000 I-1.799203 J-1.031542
G02 X26.964963 Y24.628201 Z-1.000000 I-6.683886 J-1.249595
G01 X26.964963 Y23.810373 Z-1.000000
G03 X26.989226 Y22.978687 Z-1.000000 I14.266274 J0.000000
G03 X27.031053 Y22.678631 Z-1.000000 I1.888182 J0.110264
G03 X27.206335 Y22.261434 Z-1.000000 I1.170803 J0.246484
G03 X27.493662 Y21.984717 Z-1.000000 I0.773606 J0.515737
G01 X27.493662 Y21.679064 Z-1.000000
G01 X24.693221 Y21.679064 Z-1.000000
G02 X24.583777 Y22.085352 Z-1.000000 I13.332763 J3.809385
G02 X24.528003 Y22.331674 Z-1.000000 I4.842823 J1.226033
G02 X24.452024 Y22.846249 Z-1.000000 I5.728457 J1.108726
G02 X24.420612 Y23.380807 Z-1.000000 I6.151541 J0.629682
G01 X24.404092 Y24.512549 Z-1.000000
G03 X24.246449 Y25.615115 Z-1.000000 I-4.367810 J-0.061948
G03 X23.974526 Y26.065596 Z-1.000000 I-0.939694 J-0.259915
G03 X23.515963 Y26.320101 Z-1.000000 I-0.711734 J-0.742021
G03 X22.446261 Y26.453858 Z-1.000000 I-1.069702 J-4.210530
G01 X22.446257 Y26.453858 Z-1.000000
G00 Z5.000000

(End cutting path id: text1034)


(Start cutting path id: text1034)
(Change tool to Default tool)

G00 Z5.000000
G00 X23.991043 Y28.667776

G01 Z-1.000000 F100.0(Penetrate)
G03 X24.523918 Y29.160720 Z-1.000000 I-0.481752 J1.055268 F3500.000000
G03 X24.751045 Y30.039083 Z-1.000000 I-1.584872 J0.878363
G03 X24.524556 Y31.008152 Z-1.000000 I-2.186403 J0.000000
G03 X24.015826 Y31.526044 Z-1.000000 I-1.042931 J-0.515672
G03 X23.585767 Y31.671226 Z-1.000000 I-0.682835 J-1.313143
G03 X22.776693 Y31.740827 Z-1.000000 I-0.809074 J-4.667735
G01 X19.819294 Y31.740827 Z-1.000000
G01 X19.819294 Y28.469515 Z-1.000000
G01 X22.702345 Y28.469515 Z-1.000000
G03 X23.547285 Y28.534130 Z-1.000000 I0.000000 J5.556732
G03 X23.991043 Y28.667776 Z-1.000000 I-0.252720 J1.642683
G01 X23.991043 Y28.667776 Z-1.000000
G00 Z5.000000

(End cutting path id: text1034)


(Start cutting path id: text1034)
(Change tool to Default tool)

G00 Z5.000000
G00 X36.630202 Y30.749520

G01 Z-1.000000 F100.0(Penetrate)
G03 X35.862432 Y31.422994 Z-1.000000 I-1.412191 J-0.835546 F3500.000000
G03 X34.308892 Y31.740827 Z-1.000000 I-1.553540 J-3.637874
G01 X31.962800 Y31.740827 Z-1.000000
G01 X31.962800 Y23.793851 Z-1.000000
G01 X34.308892 Y23.793851 Z-1.000000
G03 X35.790826 Y24.264936 Z-1.000000 I0.000000 J2.566470
G03 X36.820203 Y25.569943 Z-1.000000 I-1.693134 J2.394012
G03 X37.098385 Y26.565843 Z-1.000000 I-4.511795 J1.797069
G03 X37.208464 Y27.891252 Z-1.000000 I-7.924268 J1.325409
G03 X37.027203 Y29.701299 Z-1.000000 I-9.128068 J0.000000
G03 X36.630202 Y30.749520 Z-1.000000 I-3.396840 J-0.687222
G01 X36.630202 Y30.749520 Z-1.000000
G00 Z5.000000

(End cutting path id: text1034)


(Start cutting path id: text1034)
(Change tool to Default tool)

G00 Z5.000000
G00 X34.738459 Y21.679064

G01 Z-1.000000 F100.0(Penetrate)
G01 X29.492794 Y21.679064 Z-1.000000 F3500.000000
G01 X29.492794 Y33.855614 Z-1.000000
G01 X34.738459 Y33.855614 Z-1.000000
G02 X35.858450 Y33.769183 Z-1.000000 I-0.131430 J-9.002795
G02 X36.621941 Y33.591266 Z-1.000000 I-0.609494 J-4.342643
G02 X37.772061 Y32.993830 Z-1.000000 I-1.261766 J-3.834779
G02 X38.695424 Y32.046480 Z-1.000000 I-2.512927 J-3.372966
G02 X39.232001 Y31.094170 Z-1.000000 I-4.593992 J-3.215797
G02 X39.562818 Y30.080388 Z-1.000000 I-4.883175 J-2.154344
G02 X39.739657 Y29.017106 Z-1.000000 I-10.419394 J-2.279243
G02 X39.794123 Y28.064731 Z-1.000000 I-8.299267 J-0.952375
G02 X39.518945 Y25.709883 Z-1.000000 I-10.213433 J-0.000000
G02 X38.819338 Y23.950808 Z-1.000000 I-6.336324 J1.501378
G02 X37.139185 Y22.302255 Z-1.000000 I-3.842358 J2.235554
G02 X34.738459 Y21.679064 Z-1.000000 I-2.400726 J4.312577
G01 X34.738459 Y21.679064 Z-1.000000
G00 Z5.000000

(End cutting path id: text1034)


(Footer)
M5
G00 X0.0000 Y0.0000
M2
(Using default footer. To add your own footer create file "footer" in the output dir.)
(end)
%