%
(Header)
(Generated by gcodetools from Inkscape.)
(Using default header. To add your own header create file "header" in the output dir.)
M3
(Header end.)
G21 (All units in mm)

(Start cutting path id: text33032)
(Change tool to Default tool)

G00 Z 5.0000
G00 X 3.9350 Y 31.8177

G01 Z -1.0000 F 100.0000(Penetrate)
G01 X 0.6770 Y 31.8177 Z -1.0000 F 3500.0000
G01 X 0.6770 Y 39.0067 Z -1.0000
G01 X 4.1691 Y 39.0067 Z -1.0000
G02 X 5.3743 Y 38.7606 Z -1.0000 I -0.0489 J -3.3136
G02 X 6.0419 Y 38.2410 Z -1.0000 I -0.5931 J -1.4507
G02 X 6.2834 Y 37.7533 Z -1.0000 I -1.3311 J -0.9629
G02 X 6.3735 Y 37.1436 Z -1.0000 I -2.0175 J -0.6097
G02 X 6.2781 Y 36.5196 Z -1.0000 I -2.0867 J -0.0000
G02 X 6.0419 Y 36.0853 Z -1.0000 I -1.2216 J 0.3828
G02 X 5.8349 Y 35.8878 Z -1.0000 I -0.9333 J 0.7710
G02 X 5.4957 Y 35.6756 Z -1.0000 I -1.4216 J 1.8955
G02 X 5.9903 Y 35.4050 Z -1.0000 I -0.6334 J -1.7457
G02 X 6.3248 Y 35.0415 Z -1.0000 I -0.8658 J -1.1322
G02 X 6.5290 Y 34.5841 Z -1.0000 I -1.3369 J -0.8713
G02 X 6.6076 Y 33.9881 Z -1.0000 I -2.2197 J -0.5960
G02 X 6.5230 Y 33.3738 Z -1.0000 I -2.2720 J -0.0000
G02 X 6.2858 Y 32.8419 Z -1.0000 I -1.9289 J 0.5417
G02 X 6.0533 Y 32.5305 Z -1.0000 I -1.7600 J 1.0713
G02 X 5.7737 Y 32.2762 Z -1.0000 I -1.4456 J 1.3085
G02 X 5.4061 Y 32.0596 Z -1.0000 I -1.1000 J 1.4463
G02 X 4.9543 Y 31.9153 Z -1.0000 I -0.9054 J 2.0555
G02 X 4.4834 Y 31.8439 Z -1.0000 I -0.8836 J 4.2413
G02 X 3.9350 Y 31.8177 Z -1.0000 I -0.5484 J 5.7310
G01 X 3.9350 Y 31.8177 Z -1.0000
G00 Z 5.0000

(End cutting path id: text33032)


(Start cutting path id: text33032)
(Change tool to Default tool)

G00 Z 5.0000
G00 X 3.9008 Y 34.9830

G01 Z -1.0000 F 100.0000(Penetrate)
G01 X 2.1109 Y 34.9830 Z -1.0000 F 3500.0000
G01 X 2.1109 Y 33.0663 Z -1.0000
G01 X 3.8764 Y 33.0663 Z -1.0000
G03 X 4.3405 Y 33.1060 Z -1.0000 I -0.0000 J 2.7346
G03 X 4.6129 Y 33.1931 Z -1.0000 I -0.1750 J 1.0164
G03 X 4.9475 Y 33.5166 Z -1.0000 I -0.3325 J 0.6788
G03 X 5.0908 Y 34.0905 Z -1.0000 I -1.0776 J 0.5739
G03 X 4.9588 Y 34.5662 Z -1.0000 I -0.9232 J -0.0000
G03 X 4.6275 Y 34.8611 Z -1.0000 I -0.6386 J -0.3840
G03 X 4.3611 Y 34.9423 Z -1.0000 I -0.4449 J -0.9825
G03 X 3.9008 Y 34.9830 Z -1.0000 I -0.4912 J -2.9275
G01 X 3.9008 Y 34.9830 Z -1.0000
G00 Z 5.0000

(End cutting path id: text33032)


(Start cutting path id: text33032)
(Change tool to Default tool)

G00 Z 5.0000
G00 X 4.6470 Y 36.3535

G01 Z -1.0000 F 100.0000(Penetrate)
G03 X 4.8505 Y 36.5796 Z -1.0000 I -0.2669 J 0.4448 F 3500.0000
G03 X 4.9397 Y 36.9827 Z -1.0000 I -0.8667 J 0.4031
G03 X 4.8239 Y 37.4076 Z -1.0000 I -0.8381 J 0.0000
G03 X 4.5495 Y 37.6460 Z -1.0000 I -0.4922 J -0.2896
G03 X 4.2075 Y 37.7245 Z -1.0000 I -0.5794 J -1.7382
G03 X 3.6911 Y 37.7581 Z -1.0000 I -0.5164 J -3.9516
G01 X 2.1109 Y 37.7581 Z -1.0000
G01 X 2.1109 Y 36.1731 Z -1.0000
G01 X 3.8764 Y 36.1731 Z -1.0000
G03 X 4.3347 Y 36.2260 Z -1.0000 I -0.0000 J 2.0099
G03 X 4.6470 Y 36.3535 Z -1.0000 I -0.2450 J 1.0464
G01 X 4.6470 Y 36.3535 Z -1.0000
G00 Z 5.0000

(End cutting path id: text33032)


(Start cutting path id: text33032)
(Change tool to Default tool)

G00 Z 5.0000
G00 X 11.0459 Y 31.6178

G01 Z -1.0000 F 100.0000(Penetrate)
G02 X 9.6096 Y 31.8659 Z -1.0000 I 0.0000 J 4.2813 F 3500.0000
G02 X 8.6902 Y 32.4566 Z -1.0000 I 0.8074 J 2.2674
G02 X 7.9183 Y 33.6242 Z -1.0000 I 2.0945 J 2.2236
G02 X 7.5977 Y 35.4220 Z -1.0000 I 4.8797 J 1.7978
G02 X 7.9242 Y 37.2525 Z -1.0000 I 5.2950 J -0.0000
G02 X 8.6902 Y 38.3873 Z -1.0000 I 2.6938 J -0.9925
G02 X 9.6096 Y 38.9781 Z -1.0000 I 1.7268 J -1.6767
G02 X 11.0459 Y 39.2262 Z -1.0000 I 1.4363 J -4.0332
G02 X 12.4821 Y 38.9781 Z -1.0000 I 0.0000 J -4.2813
G02 X 13.4015 Y 38.3873 Z -1.0000 I -0.8074 J -2.2674
G02 X 14.1639 Y 37.2535 Z -1.0000 I -1.9316 J -2.1219
G02 X 14.4892 Y 35.4220 Z -1.0000 I -4.9935 J -1.8315
G02 X 14.1697 Y 33.6233 Z -1.0000 I -5.2236 J 0.0000
G02 X 13.4015 Y 32.4566 Z -1.0000 I -2.8669 J 1.0515
G02 X 12.4821 Y 31.8659 Z -1.0000 I -1.7269 J 1.6767
G02 X 11.0459 Y 31.6178 Z -1.0000 I -1.4363 J 4.0332
G01 X 11.0459 Y 31.6178 Z -1.0000
G00 Z 5.0000

(End cutting path id: text33032)


(Start cutting path id: text33032)
(Change tool to Default tool)

G00 Z 5.0000
G00 X 12.4651 Y 33.5491

G01 Z -1.0000 F 100.0000(Penetrate)
G03 X 12.8285 Y 34.2627 Z -1.0000 I -1.5855 J 1.2567 F 3500.0000
G03 X 12.9870 Y 35.4220 Z -1.0000 I -4.1602 J 1.1592
G03 X 12.8274 Y 36.5755 Z -1.0000 I -4.2505 J -0.0000
G03 X 12.4602 Y 37.2899 Z -1.0000 I -1.9462 J -0.5488
G03 X 11.8512 Y 37.7737 Z -1.0000 I -1.3247 J -1.0422
G03 X 11.0459 Y 37.9532 Z -1.0000 I -0.8054 J -1.7173
G03 X 10.2382 Y 37.7756 Z -1.0000 I 0.0000 J -1.9245
G03 X 9.6217 Y 37.2948 Z -1.0000 I 0.7219 J -1.5614
G03 X 9.2512 Y 36.5795 Z -1.0000 I 1.5672 J -1.2654
G03 X 9.0901 Y 35.4220 Z -1.0000 I 4.0778 J -1.1575
G03 X 9.2512 Y 34.2645 Z -1.0000 I 4.2389 J 0.0000
G03 X 9.6217 Y 33.5491 Z -1.0000 I 1.9377 J 0.5500
G03 X 10.2382 Y 33.0684 Z -1.0000 I 1.3384 J 1.0806
G03 X 11.0459 Y 32.8907 Z -1.0000 I 0.8076 J 1.7469
G03 X 11.8528 Y 33.0688 Z -1.0000 I 0.0000 J 1.9175
G03 X 12.4651 Y 33.5491 Z -1.0000 I -0.7157 J 1.5428
G01 X 12.4651 Y 33.5491 Z -1.0000
G00 Z 5.0000

(End cutting path id: text33032)


(Start cutting path id: text33032)
(Change tool to Default tool)

G00 Z 5.0000
G00 X 20.8587 Y 39.0067

G01 Z -1.0000 F 100.0000(Penetrate)
G01 X 20.8587 Y 37.7337 Z -1.0000 F 3500.0000
G01 X 18.7079 Y 37.7337 Z -1.0000
G01 X 18.7079 Y 31.8177 Z -1.0000
G01 X 17.1960 Y 31.8177 Z -1.0000
G01 X 17.1960 Y 37.7337 Z -1.0000
G01 X 15.0354 Y 37.7337 Z -1.0000
G01 X 15.0354 Y 39.0067 Z -1.0000
G01 X 20.8587 Y 39.0067 Z -1.0000
G00 Z 5.0000

(End cutting path id: text33032)


(Start cutting path id: text33032)
(Change tool to Default tool)

G00 Z 5.0000
G00 X 26.9601 Y 39.0067

G01 Z -1.0000 F 100.0000(Penetrate)
G01 X 26.9601 Y 37.7337 Z -1.0000 F 3500.0000
G01 X 24.8092 Y 37.7337 Z -1.0000
G01 X 24.8092 Y 31.8177 Z -1.0000
G01 X 23.2973 Y 31.8177 Z -1.0000
G01 X 23.2973 Y 37.7337 Z -1.0000
G01 X 21.1367 Y 37.7337 Z -1.0000
G01 X 21.1367 Y 39.0067 Z -1.0000
G01 X 26.9601 Y 39.0067 Z -1.0000
G00 Z 5.0000

(End cutting path id: text33032)


(Start cutting path id: text33032)
(Change tool to Default tool)

G00 Z 5.0000
G00 X 27.8380 Y 39.0067

G01 Z -1.0000 F 100.0000(Penetrate)
G01 X 29.3401 Y 39.0067 Z -1.0000 F 3500.0000
G01 X 29.3401 Y 33.1102 Z -1.0000
G01 X 32.9005 Y 33.1102 Z -1.0000
G01 X 32.9005 Y 31.8177 Z -1.0000
G01 X 27.8380 Y 31.8177 Z -1.0000
G01 X 27.8380 Y 39.0067 Z -1.0000
G00 Z 5.0000

(End cutting path id: text33032)


(Start cutting path id: text33032)
(Change tool to Default tool)

G00 Z 5.0000
G00 X 38.9433 Y 34.9586

G01 Z -1.0000 F 100.0000(Penetrate)
G01 X 35.4512 Y 34.9586 Z -1.0000 F 3500.0000
G01 X 35.4512 Y 33.1102 Z -1.0000
G01 X 39.4310 Y 33.1102 Z -1.0000
G01 X 39.4310 Y 31.8177 Z -1.0000
G01 X 33.9832 Y 31.8177 Z -1.0000
G01 X 33.9832 Y 39.0067 Z -1.0000
G01 X 39.2554 Y 39.0067 Z -1.0000
G01 X 39.2554 Y 37.7337 Z -1.0000
G01 X 35.4512 Y 37.7337 Z -1.0000
G01 X 35.4512 Y 36.2072 Z -1.0000
G01 X 38.9433 Y 36.2072 Z -1.0000
G01 X 38.9433 Y 34.9586 Z -1.0000
G00 Z 5.0000

(End cutting path id: text33032)



(Footer)
M5
G00 X0.0000 Y0.0000
M2
(Using default footer. To add your own footer create file "footer" in the output dir.)
(end)
%