%
(Header)
(Generated by gcodetools from Inkscape.)
(Using default header. To add your own header create file "header" in the output dir.)
M3
(Header end.)
G21 (All units in mm)

(Start cutting path id: text471)
(Change tool to Default tool)

G00 Z5.000000
G00 X0.132003 Y26.193447

G01 Z-1.000000 F100.0(Penetrate)
G01 X3.178485 Y26.193447 Z-1.000000 F3500.000000
G02 X5.260802 Y25.979636 Z-1.000000 I-0.000000 J-10.246805
G02 X6.276107 Y25.550545 Z-1.000000 I-0.577380 J-2.781923
G02 X6.956955 Y24.766816 Z-1.000000 I-1.079403 J-1.625308
G02 X7.233156 Y23.548779 Z-1.000000 I-2.547651 J-1.218037
G02 X7.088815 Y22.651390 Z-1.000000 I-2.861786 J0.000000
G02 X6.714450 Y21.978051 Z-1.000000 I-1.952326 J0.644722
G02 X6.117866 Y21.498692 Z-1.000000 I-1.529944 J1.293167
G02 X5.202167 Y21.181728 Z-1.000000 I-1.496325 J2.841643
G01 X5.202167 Y21.108668 Z-1.000000
G02 X6.353411 Y20.745752 Z-1.000000 I-0.755993 J-4.405608
G02 X7.013984 Y20.253900 Z-1.000000 I-0.887830 J-1.881897
G02 X7.432363 Y19.546790 Z-1.000000 I-1.503791 J-1.367083
G02 X7.598441 Y18.551669 Z-1.000000 I-2.898290 J-0.995121
G02 X7.325664 Y17.248741 Z-1.000000 I-3.248120 J0.000000
G02 X6.619476 Y16.316120 Z-1.000000 I-2.297769 J1.006212
G02 X5.554574 Y15.752618 Z-1.000000 I-1.917743 J2.336161
G02 X3.887139 Y15.512492 Z-1.000000 I-1.667435 J5.669283
G01 X0.132003 Y15.512492 Z-1.000000
G01 X0.132003 Y26.193447 Z-1.000000
G00 Z5.000000

(End cutting path id: text471)


(Start cutting path id: text471)
(Change tool to Default tool)

G00 Z5.000000
G00 X1.476254 Y21.649294

G01 Z-1.000000 F100.0(Penetrate)
G01 X3.448796 Y21.649294 Z-1.000000 F3500.000000
G03 X4.663508 Y21.781333 Z-1.000000 I-0.000000 J5.653459
G03 X5.275225 Y22.051108 Z-1.000000 I-0.363671 J1.653053
G03 X5.671816 Y22.542750 Z-1.000000 I-0.663565 J0.941056
G03 X5.845070 Y23.395359 Z-1.000000 I-2.011283 J0.852609
G03 X5.663052 Y24.170412 Z-1.000000 I-1.741136 J0.000000
G03 X5.216779 Y24.659248 Z-1.000000 I-1.077693 J-0.535732
G03 X4.559202 Y24.918609 Z-1.000000 I-1.034010 J-1.658321
G03 X3.244236 Y25.046450 Z-1.000000 I-1.314966 J-6.698896
G01 X1.476254 Y25.046450 Z-1.000000
G01 X1.476254 Y21.649294 Z-1.000000
G00 Z5.000000

(End cutting path id: text471)


(Start cutting path id: text471)
(Change tool to Default tool)

G00 Z5.000000
G00 X1.476254 Y20.524214

G01 Z-1.000000 F100.0(Penetrate)
G01 X1.476254 Y16.652186 Z-1.000000 F3500.000000
G01 X3.631439 Y16.652186 Z-1.000000
G03 X4.861939 Y16.809850 Z-1.000000 I-0.000000 J4.880607
G03 X5.538230 Y17.148975 Z-1.000000 I-0.457644 J1.756542
G03 X5.976768 Y17.733452 Z-1.000000 I-0.914074 J1.142593
G03 X6.159216 Y18.653952 Z-1.000000 I-2.230858 J0.920500
G03 X5.969175 Y19.511147 Z-1.000000 I-2.028247 J-0.000000
G03 X5.501702 Y20.063954 Z-1.000000 I-1.249779 J-0.582799
G03 X4.798138 Y20.378128 Z-1.000000 I-1.165307 J-1.664723
G03 X3.529159 Y20.524214 Z-1.000000 I-1.268979 J-5.438480
G01 X1.476254 Y20.524214 Z-1.000000
G00 Z5.000000

(End cutting path id: text471)


(Start cutting path id: text471)
(Change tool to Default tool)

G00 Z5.000000
G00 X10.586478 Y19.537943

G01 Z-1.000000 F100.0(Penetrate)
G03 X10.770060 Y18.086854 Z-1.000000 I5.826714 J0.000000 F3500.000000
G03 X11.178240 Y17.236643 Z-1.000000 I2.346211 J0.603311
G03 X11.887340 Y16.677880 Z-1.000000 I1.450822 J1.111846
G03 X12.938917 Y16.454932 Z-1.000000 I1.051577 J2.368507
G03 X13.976516 Y16.676597 Z-1.000000 I-0.000000 J2.539296
G03 X14.684983 Y17.236643 Z-1.000000 I-0.751714 J1.679064
G03 X15.098440 Y18.088139 Z-1.000000 I-1.922322 J1.459540
G03 X15.284051 Y19.537943 Z-1.000000 I-5.569373 J1.449804
G03 X15.094429 Y20.983834 Z-1.000000 I-5.607361 J0.000000
G03 X14.677677 Y21.810020 Z-1.000000 I-2.181470 J-0.582193
G03 X13.971415 Y22.357397 Z-1.000000 I-1.431974 J-1.118306
G03 X12.917000 Y22.577119 Z-1.000000 I-1.054415 J-2.420135
G03 X11.356391 Y21.807206 Z-1.000000 I0.000000 J-1.966630
G03 X10.586478 Y19.537943 Z-1.000000 I2.959290 J-2.269263
G01 X10.586478 Y19.537943 Z-1.000000
G00 Z5.000000

(End cutting path id: text471)


(Start cutting path id: text471)
(Change tool to Default tool)

G00 Z5.000000
G00 X16.642914 Y19.537943

G01 Z-1.000000 F100.0(Penetrate)
G02 X16.350393 Y17.685018 Z-1.000000 I-6.014790 J0.000000 F3500.000000
G02 X15.649337 Y16.469543 Z-1.000000 I-3.201667 J1.036730
G02 X14.516846 Y15.678448 Z-1.000000 I-2.271967 J2.046276
G02 X12.902389 Y15.366381 Z-1.000000 I-1.614457 J4.020106
G02 X11.851256 Y15.501476 Z-1.000000 I-0.000000 J4.156822
G02 X10.973681 Y15.870475 Z-1.000000 I0.848200 J3.245289
G02 X10.243514 Y16.481204 Z-1.000000 I1.658529 J2.724725
G02 X9.680569 Y17.331618 Z-1.000000 I2.741875 J2.426560
G02 X9.352403 Y18.309594 Z-1.000000 I3.848491 J1.835435
G02 X9.227615 Y19.537943 Z-1.000000 I5.983249 J1.228349
G02 X9.517073 Y21.384860 Z-1.000000 I6.036951 J-0.000000
G02 X10.206581 Y22.584425 Z-1.000000 I3.148275 J-1.011676
G02 X11.325526 Y23.367532 Z-1.000000 I2.223923 J-1.986703
G02 X12.953529 Y23.680282 Z-1.000000 I1.628003 J-4.080860
G02 X14.509030 Y23.369806 Z-1.000000 I0.000000 J-4.051811
G02 X15.642031 Y22.562508 Z-1.000000 I-1.196573 J-2.878031
G02 X16.352420 Y21.340446 Z-1.000000 I-2.554605 J-2.302507
G02 X16.642914 Y19.537943 Z-1.000000 I-5.446977 J-1.802503
G01 X16.642914 Y19.537943 Z-1.000000
G00 Z5.000000

(End cutting path id: text471)


(Start cutting path id: text471)
(Change tool to Default tool)

G00 Z5.000000
G00 X21.406237 Y16.440321

G01 Z-1.000000 F100.0(Penetrate)
G03 X21.661133 Y16.451181 Z-1.000000 I-0.000000 J2.996783 F3500.000000
G03 X22.005306 Y16.491461 Z-1.000000 I-0.470232 J5.508438
G03 X22.345457 Y16.555029 Z-1.000000 I-0.690889 J4.638816
G03 X22.524011 Y16.608352 Z-1.000000 I-0.298996 J1.326798
G01 X22.524011 Y15.600164 Z-1.000000
G02 X22.336895 Y15.534238 Z-1.000000 I-0.527882 J1.199775
G02 X21.954166 Y15.446744 Z-1.000000 I-1.334516 J4.956767
G02 X21.572145 Y15.386688 Z-1.000000 I-0.762126 J3.602903
G02 X21.179760 Y15.366384 Z-1.000000 I-0.392385 J3.781300
G02 X19.533957 Y16.073021 Z-1.000000 I-0.000000 J2.269908
G02 X18.827320 Y17.843020 Z-1.000000 I1.863445 J1.769999
G01 X18.827320 Y22.511371 Z-1.000000
G01 X17.694935 Y22.511371 Z-1.000000
G01 X17.694935 Y23.139662 Z-1.000000
G01 X18.841932 Y23.665674 Z-1.000000
G01 X19.367943 Y25.375210 Z-1.000000
G01 X20.149655 Y25.375210 Z-1.000000
G01 X20.149655 Y23.534171 Z-1.000000
G01 X22.465566 Y23.534171 Z-1.000000
G01 X22.465566 Y22.511371 Z-1.000000
G01 X20.149655 Y22.511371 Z-1.000000
G01 X20.149655 Y17.879549 Z-1.000000
G03 X20.248555 Y17.222901 Z-1.000000 I2.229360 J0.000000
G03 X20.478412 Y16.812915 Z-1.000000 I1.067347 J0.328977
G03 X20.861314 Y16.545650 Z-1.000000 I0.768630 J0.693273
G03 X21.406237 Y16.440324 Z-1.000000 I0.544923 J1.356966
G01 X21.406237 Y16.440321 Z-1.000000
G00 Z5.000000

(End cutting path id: text471)


(Start cutting path id: text471)
(Change tool to Default tool)

G00 Z5.000000
G00 X26.805159 Y16.440321

G01 Z-1.000000 F100.0(Penetrate)
G03 X27.060055 Y16.451181 Z-1.000000 I-0.000000 J2.996783 F3500.000000
G03 X27.404228 Y16.491461 Z-1.000000 I-0.470232 J5.508438
G03 X27.744379 Y16.555029 Z-1.000000 I-0.690889 J4.638816
G03 X27.922933 Y16.608352 Z-1.000000 I-0.298996 J1.326798
G01 X27.922933 Y15.600164 Z-1.000000
G02 X27.735817 Y15.534238 Z-1.000000 I-0.527882 J1.199775
G02 X27.353088 Y15.446744 Z-1.000000 I-1.334516 J4.956767
G02 X26.971066 Y15.386688 Z-1.000000 I-0.762130 J3.602930
G02 X26.578682 Y15.366384 Z-1.000000 I-0.392384 J3.781291
G02 X24.932879 Y16.073021 Z-1.000000 I0.000000 J2.269908
G02 X24.226242 Y17.843020 Z-1.000000 I1.863445 J1.769999
G01 X24.226242 Y22.511371 Z-1.000000
G01 X23.093857 Y22.511371 Z-1.000000
G01 X23.093857 Y23.139662 Z-1.000000
G01 X24.240854 Y23.665674 Z-1.000000
G01 X24.766865 Y25.375210 Z-1.000000
G01 X25.548576 Y25.375210 Z-1.000000
G01 X25.548576 Y23.534171 Z-1.000000
G01 X27.864487 Y23.534171 Z-1.000000
G01 X27.864487 Y22.511371 Z-1.000000
G01 X25.548576 Y22.511371 Z-1.000000
G01 X25.548576 Y17.879549 Z-1.000000
G03 X25.647476 Y17.222901 Z-1.000000 I2.229353 J-0.000000
G03 X25.877334 Y16.812915 Z-1.000000 I1.067346 J0.328977
G03 X26.260236 Y16.545650 Z-1.000000 I0.768630 J0.693273
G03 X26.805159 Y16.440324 Z-1.000000 I0.544923 J1.356966
G01 X26.805159 Y16.440321 Z-1.000000
G00 Z5.000000

(End cutting path id: text471)


(Start cutting path id: text471)
(Change tool to Default tool)

G00 Z5.000000
G00 X30.837913 Y15.512495

G01 Z-1.000000 F100.0(Penetrate)
G01 X29.522884 Y15.512495 Z-1.000000 F3500.000000
G01 X29.522884 Y26.880184 Z-1.000000
G01 X30.837913 Y26.880184 Z-1.000000
G01 X30.837913 Y15.512495 Z-1.000000
G00 Z5.000000

(End cutting path id: text471)


(Start cutting path id: text471)
(Change tool to Default tool)

G00 Z5.000000
G00 X36.792070 Y15.366381

G01 Z-1.000000 F100.0(Penetrate)
G02 X35.120936 Y15.676225 Z-1.000000 I-0.000000 J4.661523 F3500.000000
G02 X33.957454 Y16.454932 Z-1.000000 I1.133919 J2.952757
G02 X33.231637 Y17.667849 Z-1.000000 I2.459117 J2.295176
G02 X32.934654 Y19.464886 Z-1.000000 I5.288423 J1.797037
G02 X33.213018 Y21.292218 Z-1.000000 I6.136988 J0.000000
G02 X33.891702 Y22.533285 Z-1.000000 I3.430948 J-1.070129
G02 X34.995675 Y23.366336 Z-1.000000 I2.338994 J-1.951646
G02 X36.477925 Y23.680282 Z-1.000000 I1.482250 J-3.342143
G02 X37.870670 Y23.408297 Z-1.000000 I-0.000000 J-3.701881
G02 X38.888810 Y22.701317 Z-1.000000 I-1.062641 J-2.616952
G02 X39.528245 Y21.628187 Z-1.000000 I-2.210267 J-2.044081
G02 X39.787413 Y20.063954 Z-1.000000 I-4.590959 J-1.564233
G01 X39.787413 Y19.267631 Z-1.000000
G01 X34.293517 Y19.267631 Z-1.000000
G03 X34.520988 Y17.979361 Z-1.000000 I4.433085 J0.118536
G03 X34.987559 Y17.192809 Z-1.000000 I2.055283 J0.687506
G03 X35.734552 Y16.689239 Z-1.000000 I1.450482 J1.345808
G03 X36.850516 Y16.484155 Z-1.000000 I1.115964 J2.933721
G03 X37.490719 Y16.512849 Z-1.000000 I0.000000 J7.156267
G03 X38.070570 Y16.593741 Z-1.000000 I-0.534336 J5.948924
G03 X38.637370 Y16.744016 Z-1.000000 I-0.981382 J4.845587
G03 X39.422127 Y17.039389 Z-1.000000 I-3.165694 J9.600886
G01 X39.422127 Y15.885086 Z-1.000000
G02 X38.747243 Y15.632567 Z-1.000000 I-3.030343 J7.070822
G02 X38.172850 Y15.483272 Z-1.000000 I-1.597797 J4.967699
G02 X37.585075 Y15.399887 Z-1.000000 I-1.031409 J5.157062
G02 X36.792070 Y15.366381 Z-1.000000 I-0.793005 J9.367409
G01 X36.792070 Y15.366381 Z-1.000000
G00 Z5.000000

(End cutting path id: text471)


(Start cutting path id: text471)
(Change tool to Default tool)

G00 Z5.000000
G00 X36.463313 Y22.606342

G01 Z-1.000000 F100.0(Penetrate)
G03 X35.596225 Y22.436701 Z-1.000000 I0.000000 J-2.300796 F3500.000000
G03 X34.972948 Y21.999968 Z-1.000000 I0.643369 J-1.581292
G03 X34.562820 Y21.332952 Z-1.000000 I1.591696 J-1.438282
G03 X34.322739 Y20.312348 Z-1.000000 I3.589134 J-1.382827
G01 X38.406633 Y20.312348 Z-1.000000
G03 X38.241101 Y21.380216 Z-1.000000 I-3.849743 J-0.049992
G03 X37.887927 Y22.021885 Z-1.000000 I-1.692559 J-0.513555
G03 X37.307586 Y22.439889 Z-1.000000 I-1.163546 J-1.003558
G03 X36.463313 Y22.606342 Z-1.000000 I-0.844273 J-2.057916
G01 X36.463313 Y22.606342 Z-1.000000
G00 Z5.000000

(End cutting path id: text471)


(Footer)
M5
G00 X0.0000 Y0.0000
M2
(Using default footer. To add your own footer create file "footer" in the output dir.)
(end)
%