%
(Header)
(Generated by gcodetools from Inkscape.)
(Using default header. To add your own header create file "header" in the output dir.)
M3
(Header end.)
G21 (All units in mm)

(Start cutting path id: text51986)
(Change tool to Default tool)

G00 Z 5.0000
G00 X 4.8333 Y 29.9497

G01 Z -1.0000 F 100.0000(Penetrate)
G01 X 0.4842 Y 29.9497 Z -1.0000 F 3500.0000
G01 X 0.4842 Y 39.5463 Z -1.0000
G01 X 5.1458 Y 39.5463 Z -1.0000
G02 X 6.7547 Y 39.2177 Z -1.0000 I -0.0653 J -4.4234
G02 X 7.6459 Y 38.5241 Z -1.0000 I -0.7918 J -1.9366
G02 X 7.9683 Y 37.8732 Z -1.0000 I -1.7769 J -1.2854
G02 X 8.0886 Y 37.0592 Z -1.0000 I -2.6932 J -0.8139
G02 X 7.9611 Y 36.2263 Z -1.0000 I -2.7856 J -0.0000
G02 X 7.6459 Y 35.6464 Z -1.0000 I -1.6307 J 0.5110
G02 X 7.3696 Y 35.3829 Z -1.0000 I -1.2459 J 1.0292
G02 X 6.9167 Y 35.0996 Z -1.0000 I -1.8978 J 2.5303
G02 X 7.5770 Y 34.7384 Z -1.0000 I -0.8455 J -2.3304
G02 X 8.0235 Y 34.2532 Z -1.0000 I -1.1557 J -1.5114
G02 X 8.2961 Y 33.6426 Z -1.0000 I -1.7847 J -1.1631
G02 X 8.4011 Y 32.8469 Z -1.0000 I -2.9632 J -0.7957
G02 X 8.2881 Y 32.0268 Z -1.0000 I -3.0329 J -0.0000
G02 X 7.9714 Y 31.3169 Z -1.0000 I -2.5749 J 0.7232
G02 X 7.6611 Y 30.9012 Z -1.0000 I -2.3495 J 1.4301
G02 X 7.2878 Y 30.5617 Z -1.0000 I -1.9298 J 1.7468
G02 X 6.7971 Y 30.2725 Z -1.0000 I -1.4684 J 1.9307
G02 X 6.1940 Y 30.0799 Z -1.0000 I -1.2086 J 2.7439
G02 X 5.5654 Y 29.9846 Z -1.0000 I -1.1795 J 5.6617
G02 X 4.8333 Y 29.9497 Z -1.0000 I -0.7321 J 7.6504
G01 X 4.8333 Y 29.9497 Z -1.0000
G00 Z 5.0000

(End cutting path id: text51986)


(Start cutting path id: text51986)
(Change tool to Default tool)

G00 Z 5.0000
G00 X 4.7877 Y 34.1751

G01 Z -1.0000 F 100.0000(Penetrate)
G01 X 2.3983 Y 34.1751 Z -1.0000 F 3500.0000
G01 X 2.3983 Y 31.6164 Z -1.0000
G01 X 4.7552 Y 31.6164 Z -1.0000
G03 X 5.3746 Y 31.6693 Z -1.0000 I -0.0000 J 3.6505
G03 X 5.7383 Y 31.7857 Z -1.0000 I -0.2336 J 1.3568
G03 X 6.1850 Y 32.2175 Z -1.0000 I -0.4438 J 0.9061
G03 X 6.3763 Y 32.9836 Z -1.0000 I -1.4384 J 0.7661
G03 X 6.2001 Y 33.6187 Z -1.0000 I -1.2324 J 0.0000
G03 X 5.7578 Y 34.0123 Z -1.0000 I -0.8525 J -0.5125
G03 X 5.4021 Y 34.1206 Z -1.0000 I -0.5939 J -1.3115
G03 X 4.7877 Y 34.1751 Z -1.0000 I -0.6557 J -3.9079
G01 X 4.7877 Y 34.1751 Z -1.0000
G00 Z 5.0000

(End cutting path id: text51986)


(Start cutting path id: text51986)
(Change tool to Default tool)

G00 Z 5.0000
G00 X 5.7838 Y 36.0045

G01 Z -1.0000 F 100.0000(Penetrate)
G03 X 6.0555 Y 36.3063 Z -1.0000 I -0.3563 J 0.5938 F 3500.0000
G03 X 6.1745 Y 36.8444 Z -1.0000 I -1.1569 J 0.5381
G03 X 6.0200 Y 37.4116 Z -1.0000 I -1.1187 J -0.0000
G03 X 5.6536 Y 37.7298 Z -1.0000 I -0.6571 J -0.3865
G03 X 5.1971 Y 37.8347 Z -1.0000 I -0.7734 J -2.3203
G03 X 4.5078 Y 37.8796 Z -1.0000 I -0.6894 J -5.2751
G01 X 2.3983 Y 37.8796 Z -1.0000
G01 X 2.3983 Y 35.7636 Z -1.0000
G01 X 4.7552 Y 35.7636 Z -1.0000
G03 X 5.3669 Y 35.8343 Z -1.0000 I 0.0000 J 2.6831
G03 X 5.7838 Y 36.0045 Z -1.0000 I -0.3271 J 1.3968
G01 X 5.7838 Y 36.0045 Z -1.0000
G00 Z 5.0000

(End cutting path id: text51986)


(Start cutting path id: text51986)
(Change tool to Default tool)

G00 Z 5.0000
G00 X 14.3257 Y 29.6827

G01 Z -1.0000 F 100.0000(Penetrate)
G02 X 12.4084 Y 30.0139 Z -1.0000 I -0.0000 J 5.7152 F 3500.0000
G02 X 11.1811 Y 30.8026 Z -1.0000 I 1.0779 J 3.0268
G02 X 10.1508 Y 32.3611 Z -1.0000 I 2.7960 J 2.9683
G02 X 9.7227 Y 34.7610 Z -1.0000 I 6.5140 J 2.3999
G02 X 10.1586 Y 37.2046 Z -1.0000 I 7.0684 J 0.0000
G02 X 11.1811 Y 38.7195 Z -1.0000 I 3.5960 J -1.3249
G02 X 12.4084 Y 39.5081 Z -1.0000 I 2.3052 J -2.2382
G02 X 14.3257 Y 39.8393 Z -1.0000 I 1.9173 J -5.3840
G02 X 16.2430 Y 39.5081 Z -1.0000 I -0.0000 J -5.7152
G02 X 17.4704 Y 38.7195 Z -1.0000 I -1.0779 J -3.0268
G02 X 18.4880 Y 37.2059 Z -1.0000 I -2.5785 J -2.8325
G02 X 18.9222 Y 34.7610 Z -1.0000 I -6.6659 J -2.4449
G02 X 18.4958 Y 32.3599 Z -1.0000 I -6.9730 J 0.0000
G02 X 17.4704 Y 30.8026 Z -1.0000 I -3.8271 J 1.4037
G02 X 16.2430 Y 30.0139 Z -1.0000 I -2.3052 J 2.2382
G02 X 14.3257 Y 29.6827 Z -1.0000 I -1.9173 J 5.3840
G01 X 14.3257 Y 29.6827 Z -1.0000
G00 Z 5.0000

(End cutting path id: text51986)


(Start cutting path id: text51986)
(Change tool to Default tool)

G00 Z 5.0000
G00 X 16.2203 Y 32.2609

G01 Z -1.0000 F 100.0000(Penetrate)
G03 X 16.7054 Y 33.2135 Z -1.0000 I -2.1165 J 1.6775 F 3500.0000
G03 X 16.9170 Y 34.7610 Z -1.0000 I -5.5535 J 1.5475
G03 X 16.7040 Y 36.3009 Z -1.0000 I -5.6740 J 0.0000
G03 X 16.2138 Y 37.2546 Z -1.0000 I -2.5979 J -0.7326
G03 X 15.4008 Y 37.9004 Z -1.0000 I -1.7683 J -1.3913
G03 X 14.3257 Y 38.1400 Z -1.0000 I -1.0751 J -2.2925
G03 X 13.2476 Y 37.9028 Z -1.0000 I 0.0000 J -2.5691
G03 X 12.4246 Y 37.2611 Z -1.0000 I 0.9636 J -2.0843
G03 X 11.9300 Y 36.3062 Z -1.0000 I 2.0921 J -1.6891
G03 X 11.7150 Y 34.7610 Z -1.0000 I 5.4435 J -1.5452
G03 X 11.9300 Y 33.2158 Z -1.0000 I 5.6585 J -0.0000
G03 X 12.4246 Y 32.2609 Z -1.0000 I 2.5867 J 0.7342
G03 X 13.2476 Y 31.6192 Z -1.0000 I 1.7866 J 1.4425
G03 X 14.3257 Y 31.3820 Z -1.0000 I 1.0781 J 2.3319
G03 X 15.4029 Y 31.6197 Z -1.0000 I -0.0000 J 2.5597
G03 X 16.2203 Y 32.2609 Z -1.0000 I -0.9554 J 2.0595
G01 X 16.2203 Y 32.2609 Z -1.0000
G00 Z 5.0000

(End cutting path id: text51986)


(Start cutting path id: text51986)
(Change tool to Default tool)

G00 Z 5.0000
G00 X 29.7884 Y 39.5463

G01 Z -1.0000 F 100.0000(Penetrate)
G01 X 31.8262 Y 39.5463 Z -1.0000 F 3500.0000
G01 X 29.1243 Y 29.9497 Z -1.0000
G01 X 27.2102 Y 29.9497 Z -1.0000
G01 X 26.0513 Y 35.5618 Z -1.0000
G01 X 25.7128 Y 37.4173 Z -1.0000
G01 X 25.3742 Y 35.5618 Z -1.0000
G01 X 24.2153 Y 29.9497 Z -1.0000
G01 X 22.3533 Y 29.9497 Z -1.0000
G01 X 19.6319 Y 39.5463 Z -1.0000
G01 X 21.7608 Y 39.5463 Z -1.0000
G01 X 23.0304 Y 34.0514 Z -1.0000
G01 X 23.3038 Y 32.5214 Z -1.0000
G01 X 23.5838 Y 34.0188 Z -1.0000
G01 X 24.6646 Y 39.5463 Z -1.0000
G01 X 26.7805 Y 39.5463 Z -1.0000
G01 X 27.9199 Y 34.0514 Z -1.0000
G01 X 28.2128 Y 32.5214 Z -1.0000
G01 X 28.5058 Y 33.9928 Z -1.0000
G01 X 29.7884 Y 39.5463 Z -1.0000
G00 Z 5.0000

(End cutting path id: text51986)


(Start cutting path id: text51986)
(Change tool to Default tool)

G00 Z 5.0000
G00 X 33.0372 Y 39.5463

G01 Z -1.0000 F 100.0000(Penetrate)
G01 X 35.0425 Y 39.5463 Z -1.0000 F 3500.0000
G01 X 35.0425 Y 31.6750 Z -1.0000
G01 X 39.7952 Y 31.6750 Z -1.0000
G01 X 39.7952 Y 29.9497 Z -1.0000
G01 X 33.0372 Y 29.9497 Z -1.0000
G01 X 33.0372 Y 39.5463 Z -1.0000
G00 Z 5.0000

(End cutting path id: text51986)



(Footer)
M5
G00 X0.0000 Y0.0000
M2
(Using default footer. To add your own footer create file "footer" in the output dir.)
(end)
%