%
(Header)
(Generated by gcodetools from Inkscape.)
(Using default header. To add your own header create file "header" in the output dir.)
M3
(Header end.)
G21 (All units in mm)

(Start cutting path id: text24148)
(Change tool to Default tool)

G00 Z 5.0000
G00 X 4.6844 Y 29.6500

G01 Z -1.0000 F 100.0000(Penetrate)
G01 X 0.2760 Y 29.6500 Z -1.0000 F 3500.0000
G01 X 0.2760 Y 39.3774 Z -1.0000
G01 X 5.0011 Y 39.3774 Z -1.0000
G02 X 6.6320 Y 39.0444 Z -1.0000 I -0.0662 J -4.4837
G02 X 7.5353 Y 38.3413 Z -1.0000 I -0.8026 J -1.9630
G02 X 7.8621 Y 37.6815 Z -1.0000 I -1.8011 J -1.3029
G02 X 7.9841 Y 36.8565 Z -1.0000 I -2.7299 J -0.8250
G02 X 7.8549 Y 36.0122 Z -1.0000 I -2.8236 J 0.0000
G02 X 7.5353 Y 35.4244 Z -1.0000 I -1.6529 J 0.5180
G02 X 7.2553 Y 35.1572 Z -1.0000 I -1.2628 J 1.0432
G02 X 6.7962 Y 34.8701 Z -1.0000 I -1.9236 J 2.5648
G02 X 7.4655 Y 34.5040 Z -1.0000 I -0.8571 J -2.3622
G02 X 7.9181 Y 34.0122 Z -1.0000 I -1.1715 J -1.5320
G02 X 8.1944 Y 33.3932 Z -1.0000 I -1.8090 J -1.1789
G02 X 8.3008 Y 32.5867 Z -1.0000 I -3.0036 J -0.8065
G02 X 8.1863 Y 31.7554 Z -1.0000 I -3.0743 J -0.0000
G02 X 7.8653 Y 31.0358 Z -1.0000 I -2.6101 J 0.7330
G02 X 7.5507 Y 30.6145 Z -1.0000 I -2.3815 J 1.4496
G02 X 7.1723 Y 30.2703 Z -1.0000 I -1.9561 J 1.7706
G02 X 6.6750 Y 29.9772 Z -1.0000 I -1.4885 J 1.9570
G02 X 6.0636 Y 29.7820 Z -1.0000 I -1.2251 J 2.7813
G02 X 5.4265 Y 29.6854 Z -1.0000 I -1.1956 J 5.7389
G02 X 4.6844 Y 29.6500 Z -1.0000 I -0.7421 J 7.7547
G01 X 4.6844 Y 29.6500 Z -1.0000
G00 Z 5.0000

(End cutting path id: text24148)


(Start cutting path id: text24148)
(Change tool to Default tool)

G00 Z 5.0000
G00 X 4.6382 Y 33.9330

G01 Z -1.0000 F 100.0000(Penetrate)
G01 X 2.2162 Y 33.9330 Z -1.0000 F 3500.0000
G01 X 2.2162 Y 31.3394 Z -1.0000
G01 X 4.6052 Y 31.3394 Z -1.0000
G03 X 5.2331 Y 31.3931 Z -1.0000 I 0.0000 J 3.7003
G03 X 5.6017 Y 31.5110 Z -1.0000 I -0.2368 J 1.3753
G03 X 6.0545 Y 31.9487 Z -1.0000 I -0.4499 J 0.9185
G03 X 6.2484 Y 32.7253 Z -1.0000 I -1.4581 J 0.7766
G03 X 6.0698 Y 33.3690 Z -1.0000 I -1.2492 J 0.0000
G03 X 5.6215 Y 33.7680 Z -1.0000 I -0.8641 J -0.5195
G03 X 5.2610 Y 33.8778 Z -1.0000 I -0.6020 J -1.3294
G03 X 4.6382 Y 33.9330 Z -1.0000 I -0.6646 J -3.9612
G01 X 4.6382 Y 33.9330 Z -1.0000
G00 Z 5.0000

(End cutting path id: text24148)


(Start cutting path id: text24148)
(Change tool to Default tool)

G00 Z 5.0000
G00 X 5.6479 Y 35.7874

G01 Z -1.0000 F 100.0000(Penetrate)
G03 X 5.9232 Y 36.0933 Z -1.0000 I -0.3611 J 0.6019 F 3500.0000
G03 X 6.0438 Y 36.6387 Z -1.0000 I -1.1727 J 0.5454
G03 X 5.8873 Y 37.2137 Z -1.0000 I -1.1340 J 0.0000
G03 X 5.5159 Y 37.5362 Z -1.0000 I -0.6661 J -0.3918
G03 X 5.0532 Y 37.6425 Z -1.0000 I -0.7840 J -2.3520
G03 X 4.3544 Y 37.6880 Z -1.0000 I -0.6988 J -5.3470
G01 X 2.2162 Y 37.6880 Z -1.0000
G01 X 2.2162 Y 35.5432 Z -1.0000
G01 X 4.6052 Y 35.5432 Z -1.0000
G03 X 5.2253 Y 35.6149 Z -1.0000 I -0.0000 J 2.7197
G03 X 5.6479 Y 35.7874 Z -1.0000 I -0.3316 J 1.4159
G01 X 5.6479 Y 35.7874 Z -1.0000
G00 Z 5.0000

(End cutting path id: text24148)


(Start cutting path id: text24148)
(Change tool to Default tool)

G00 Z 5.0000
G00 X 14.3063 Y 29.3794

G01 Z -1.0000 F 100.0000(Penetrate)
G02 X 12.3628 Y 29.7151 Z -1.0000 I 0.0000 J 5.7931 F 3500.0000
G02 X 11.1188 Y 30.5145 Z -1.0000 I 1.0926 J 3.0681
G02 X 10.0744 Y 32.0943 Z -1.0000 I 2.8341 J 3.0088
G02 X 9.6405 Y 34.5269 Z -1.0000 I 6.6028 J 2.4326
G02 X 10.0823 Y 37.0038 Z -1.0000 I 7.1648 J 0.0000
G02 X 11.1188 Y 38.5393 Z -1.0000 I 3.6451 J -1.3429
G02 X 12.3628 Y 39.3387 Z -1.0000 I 2.3366 J -2.2687
G02 X 14.3063 Y 39.6744 Z -1.0000 I 1.9434 J -5.4574
G02 X 16.2497 Y 39.3387 Z -1.0000 I -0.0000 J -5.7931
G02 X 17.4937 Y 38.5393 Z -1.0000 I -1.0926 J -3.0681
G02 X 18.5253 Y 37.0051 Z -1.0000 I -2.6137 J -2.8712
G02 X 18.9654 Y 34.5269 Z -1.0000 I -6.7567 J -2.4782
G02 X 18.5331 Y 32.0931 Z -1.0000 I -7.0681 J 0.0000
G02 X 17.4937 Y 30.5145 Z -1.0000 I -3.8793 J 1.4228
G02 X 16.2497 Y 29.7151 Z -1.0000 I -2.3366 J 2.2687
G02 X 14.3063 Y 29.3794 Z -1.0000 I -1.9434 J 5.4574
G01 X 14.3063 Y 29.3794 Z -1.0000
G00 Z 5.0000

(End cutting path id: text24148)


(Start cutting path id: text24148)
(Change tool to Default tool)

G00 Z 5.0000
G00 X 16.2267 Y 31.9928

G01 Z -1.0000 F 100.0000(Penetrate)
G03 X 16.7183 Y 32.9584 Z -1.0000 I -2.1454 J 1.7004 F 3500.0000
G03 X 16.9328 Y 34.5269 Z -1.0000 I -5.6292 J 1.5686
G03 X 16.7169 Y 36.0878 Z -1.0000 I -5.7514 J 0.0000
G03 X 16.2201 Y 37.0545 Z -1.0000 I -2.6334 J -0.7426
G03 X 15.3960 Y 37.7091 Z -1.0000 I -1.7924 J -1.4102
G03 X 14.3063 Y 37.9520 Z -1.0000 I -1.0898 J -2.3237
G03 X 13.2134 Y 37.7116 Z -1.0000 I 0.0000 J -2.6041
G03 X 12.3792 Y 37.0611 Z -1.0000 I 0.9768 J -2.1127
G03 X 11.8779 Y 36.0931 Z -1.0000 I 2.1206 J -1.7122
G03 X 11.6599 Y 34.5269 Z -1.0000 I 5.5177 J -1.5662
G03 X 11.8779 Y 32.9607 Z -1.0000 I 5.7357 J -0.0000
G03 X 12.3792 Y 31.9928 Z -1.0000 I 2.6219 J 0.7442
G03 X 13.2134 Y 31.3422 Z -1.0000 I 1.8110 J 1.4622
G03 X 14.3063 Y 31.1018 Z -1.0000 I 1.0928 J 2.3637
G03 X 15.3981 Y 31.3428 Z -1.0000 I 0.0000 J 2.5946
G03 X 16.2267 Y 31.9928 Z -1.0000 I -0.9685 J 2.0876
G01 X 16.2267 Y 31.9928 Z -1.0000
G00 Z 5.0000

(End cutting path id: text24148)


(Start cutting path id: text24148)
(Change tool to Default tool)

G00 Z 5.0000
G00 X 24.8190 Y 29.3794

G01 Z -1.0000 F 100.0000(Penetrate)
G02 X 22.8756 Y 29.7151 Z -1.0000 I 0.0000 J 5.7931 F 3500.0000
G02 X 21.6315 Y 30.5145 Z -1.0000 I 1.0926 J 3.0681
G02 X 20.5871 Y 32.0943 Z -1.0000 I 2.8341 J 3.0088
G02 X 20.1533 Y 34.5269 Z -1.0000 I 6.6028 J 2.4326
G02 X 20.5950 Y 37.0038 Z -1.0000 I 7.1648 J 0.0000
G02 X 21.6315 Y 38.5393 Z -1.0000 I 3.6451 J -1.3429
G02 X 22.8756 Y 39.3387 Z -1.0000 I 2.3366 J -2.2687
G02 X 24.8190 Y 39.6744 Z -1.0000 I 1.9434 J -5.4574
G02 X 26.7625 Y 39.3387 Z -1.0000 I -0.0000 J -5.7931
G02 X 28.0065 Y 38.5393 Z -1.0000 I -1.0926 J -3.0681
G02 X 29.0381 Y 37.0051 Z -1.0000 I -2.6137 J -2.8712
G02 X 29.4782 Y 34.5269 Z -1.0000 I -6.7567 J -2.4782
G02 X 29.0459 Y 32.0931 Z -1.0000 I -7.0681 J -0.0000
G02 X 28.0065 Y 30.5145 Z -1.0000 I -3.8793 J 1.4228
G02 X 26.7625 Y 29.7151 Z -1.0000 I -2.3366 J 2.2687
G02 X 24.8190 Y 29.3794 Z -1.0000 I -1.9434 J 5.4574
G01 X 24.8190 Y 29.3794 Z -1.0000
G00 Z 5.0000

(End cutting path id: text24148)


(Start cutting path id: text24148)
(Change tool to Default tool)

G00 Z 5.0000
G00 X 26.7395 Y 31.9928

G01 Z -1.0000 F 100.0000(Penetrate)
G03 X 27.2311 Y 32.9584 Z -1.0000 I -2.1454 J 1.7004 F 3500.0000
G03 X 27.4456 Y 34.5269 Z -1.0000 I -5.6292 J 1.5686
G03 X 27.2297 Y 36.0878 Z -1.0000 I -5.7514 J 0.0000
G03 X 26.7329 Y 37.0545 Z -1.0000 I -2.6334 J -0.7426
G03 X 25.9088 Y 37.7091 Z -1.0000 I -1.7924 J -1.4102
G03 X 24.8190 Y 37.9520 Z -1.0000 I -1.0898 J -2.3237
G03 X 23.7262 Y 37.7116 Z -1.0000 I -0.0000 J -2.6041
G03 X 22.8920 Y 37.0611 Z -1.0000 I 0.9768 J -2.1127
G03 X 22.3907 Y 36.0931 Z -1.0000 I 2.1206 J -1.7122
G03 X 22.1727 Y 34.5269 Z -1.0000 I 5.5177 J -1.5662
G03 X 22.3907 Y 32.9607 Z -1.0000 I 5.7357 J -0.0000
G03 X 22.8920 Y 31.9928 Z -1.0000 I 2.6219 J 0.7442
G03 X 23.7262 Y 31.3422 Z -1.0000 I 1.8110 J 1.4622
G03 X 24.8190 Y 31.1018 Z -1.0000 I 1.0928 J 2.3637
G03 X 25.9109 Y 31.3428 Z -1.0000 I 0.0000 J 2.5946
G03 X 26.7395 Y 31.9928 Z -1.0000 I -0.9685 J 2.0876
G01 X 26.7395 Y 31.9928 Z -1.0000
G00 Z 5.0000

(End cutting path id: text24148)


(Start cutting path id: text24148)
(Change tool to Default tool)

G00 Z 5.0000
G00 X 39.6478 Y 29.6500

G01 Z -1.0000 F 100.0000(Penetrate)
G01 X 37.0345 Y 29.6500 Z -1.0000 F 3500.0000
G01 X 34.0318 Y 33.9000 Z -1.0000
G01 X 33.0616 Y 32.9035 Z -1.0000
G01 X 33.0616 Y 29.6500 Z -1.0000
G01 X 31.0620 Y 29.6500 Z -1.0000
G01 X 31.0620 Y 39.3774 Z -1.0000
G01 X 33.0616 Y 39.3774 Z -1.0000
G01 X 33.0616 Y 35.3716 Z -1.0000
G01 X 36.8167 Y 39.3774 Z -1.0000
G01 X 39.4432 Y 39.3774 Z -1.0000
G01 X 35.4572 Y 35.3716 Z -1.0000
G01 X 39.6478 Y 29.6500 Z -1.0000
G00 Z 5.0000

(End cutting path id: text24148)



(Footer)
M5
G00 X0.0000 Y0.0000
M2
(Using default footer. To add your own footer create file "footer" in the output dir.)
(end)
%