%
(Header)
(Generated by gcodetools from Inkscape.)
(Using default header. To add your own header create file "header" in the output dir.)
M3
(Header end.)
G21 (All units in mm)

(Start cutting path id: text46)
(Change tool to Default tool)

G00 Z5.000000
G00 X5.116437 Y27.655904

G01 Z-1.000000 F100.0(Penetrate)
G01 X0.249594 Y27.655904 Z-1.000000 F3500.000000
G01 X0.249594 Y38.395016 Z-1.000000
G01 X5.466150 Y38.395016 Z-1.000000
G02 X7.266605 Y38.027350 Z-1.000000 I-0.073064 J-4.950031
G02 X8.263856 Y37.251162 Z-1.000000 I-0.886032 J-2.167109
G02 X8.624653 Y36.522716 Z-1.000000 I-1.988421 J-1.438432
G02 X8.759284 Y35.611881 Z-1.000000 I-3.013791 J-0.910835
G02 X8.616656 Y34.679757 Z-1.000000 I-3.117200 J0.000000
G02 X8.263856 Y34.030885 Z-1.000000 I-1.824828 J0.571836
G02 X7.954695 Y33.735907 Z-1.000000 I-1.394181 J1.151714
G02 X7.447859 Y33.418887 Z-1.000000 I-2.123686 J2.831580
G02 X8.186827 Y33.014752 Z-1.000000 I-0.946198 J-2.607814
G02 X8.686426 Y32.471747 Z-1.000000 I-1.293342 J-1.691293
G02 X8.991534 Y31.788424 Z-1.000000 I-1.997172 J-1.301528
G02 X9.108997 Y30.898037 Z-1.000000 I-3.315923 J-0.890387
G02 X8.982574 Y29.980340 Z-1.000000 I-3.393982 J-0.000000
G02 X8.628141 Y29.185899 Z-1.000000 I-2.881493 J0.809270
G02 X8.280903 Y28.720715 Z-1.000000 I-2.629198 J1.600384
G02 X7.863143 Y28.340759 Z-1.000000 I-2.159513 J1.954733
G02 X7.314101 Y28.017170 Z-1.000000 I-1.643261 J2.160587
G02 X6.639147 Y27.801618 Z-1.000000 I-1.352501 J3.070544
G02 X5.935690 Y27.695013 Z-1.000000 I-1.319952 J6.335766
G02 X5.116437 Y27.655904 Z-1.000000 I-0.819253 J8.561182
G01 X5.116437 Y27.655904 Z-1.000000
G00 Z5.000000

(End cutting path id: text46)


(Start cutting path id: text46)
(Change tool to Default tool)

G00 Z5.000000
G00 X5.065437 Y32.384319

G01 Z-1.000000 F100.0(Penetrate)
G01 X2.391588 Y32.384319 Z-1.000000 F3500.000000
G01 X2.391588 Y29.521041 Z-1.000000
G01 X5.029009 Y29.521041 Z-1.000000
G03 X5.722201 Y29.580284 Z-1.000000 I-0.000000 J4.085093
G03 X6.129148 Y29.710469 Z-1.000000 I-0.261443 J1.518379
G03 X6.629070 Y30.193704 Z-1.000000 I-0.496667 J1.014027
G03 X6.843146 Y31.051037 Z-1.000000 I-1.609686 J0.857332
G03 X6.645950 Y31.761693 Z-1.000000 I-1.379129 J0.000000
G03 X6.151005 Y32.202176 Z-1.000000 I-0.953937 J-0.573570
G03 X5.753000 Y32.323430 Z-1.000000 I-0.664602 J-1.467662
G03 X5.065437 Y32.384319 Z-1.000000 I-0.733751 J-4.373158
G01 X5.065437 Y32.384319 Z-1.000000
G00 Z5.000000

(End cutting path id: text46)


(Start cutting path id: text46)
(Change tool to Default tool)

G00 Z5.000000
G00 X6.180148 Y34.431598

G01 Z-1.000000 F100.0(Penetrate)
G03 X6.484103 Y34.769292 Z-1.000000 I-0.398708 J0.664514 F3500.000000
G03 X6.617290 Y35.371453 Z-1.000000 I-1.294645 J0.602161
G03 X6.444442 Y36.006203 Z-1.000000 I-1.251923 J0.000000
G03 X6.034434 Y36.362307 Z-1.000000 I-0.735325 J-0.432544
G03 X5.523576 Y36.479686 Z-1.000000 I-0.865520 J-2.596562
G03 X4.752152 Y36.529878 Z-1.000000 I-0.771424 J-5.903073
G01 X2.391588 Y36.529878 Z-1.000000
G01 X2.391588 Y34.162028 Z-1.000000
G01 X5.029009 Y34.162028 Z-1.000000
G03 X5.713610 Y34.241117 Z-1.000000 I0.000000 J3.002520
G03 X6.180148 Y34.431598 Z-1.000000 I-0.366048 J1.563124
G01 X6.180148 Y34.431598 Z-1.000000
G00 Z5.000000

(End cutting path id: text46)


(Start cutting path id: text46)
(Change tool to Default tool)

G00 Z5.000000
G00 X15.738978 Y27.357190

G01 Z-1.000000 F100.0(Penetrate)
G02 X13.593428 Y27.727814 Z-1.000000 I0.000000 J6.395623 F3500.000000
G02 X12.219988 Y28.610330 Z-1.000000 I1.206194 J3.387160
G02 X11.066970 Y30.354445 Z-1.000000 I3.128882 J3.321657
G02 X10.587993 Y33.040031 Z-1.000000 I7.289449 J2.685586
G02 X11.075695 Y35.774538 Z-1.000000 I7.909936 J-0.000000
G02 X12.219988 Y37.469732 Z-1.000000 I4.024155 J-1.482583
G02 X13.593428 Y38.352248 Z-1.000000 I2.579634 J-2.504645
G02 X15.738978 Y38.722872 Z-1.000000 I2.145550 J-6.025003
G02 X17.884528 Y38.352248 Z-1.000000 I0.000000 J-6.395625
G02 X19.257967 Y37.469732 Z-1.000000 I-1.206193 J-3.387156
G02 X20.396763 Y35.775977 Z-1.000000 I-2.885480 J-3.169765
G02 X20.882677 Y33.040031 Z-1.000000 I-7.459439 J-2.735946
G02 X20.405460 Y30.353053 Z-1.000000 I-7.803145 J0.000000
G02 X19.257967 Y28.610330 Z-1.000000 I-4.282703 J1.570795
G02 X17.884527 Y27.727814 Z-1.000000 I-2.579633 J2.504640
G02 X15.738978 Y27.357190 Z-1.000000 I-2.145549 J6.024997
G01 X15.738978 Y27.357190 Z-1.000000
G00 Z5.000000

(End cutting path id: text46)


(Start cutting path id: text46)
(Change tool to Default tool)

G00 Z5.000000
G00 X17.859114 Y30.242325

G01 Z-1.000000 F100.0(Penetrate)
G03 X18.401929 Y31.308340 Z-1.000000 I-2.368470 J1.877234 F3500.000000
G03 X18.638684 Y33.040031 Z-1.000000 I-6.214659 J1.731691
G03 X18.400365 Y34.763285 Z-1.000000 I-6.349488 J0.000000
G03 X17.851829 Y35.830452 Z-1.000000 I-2.907239 J-0.819796
G03 X16.942064 Y36.553211 Z-1.000000 I-1.978837 J-1.556878
G03 X15.738978 Y36.821306 Z-1.000000 I-1.203086 J-2.565404
G03 X14.532517 Y36.555911 Z-1.000000 I0.000000 J-2.874926
G03 X13.611555 Y35.837737 Z-1.000000 I1.078352 J-2.332435
G03 X13.058069 Y34.769143 Z-1.000000 I2.341126 J-1.890241
G03 X12.817415 Y33.040031 Z-1.000000 I6.091555 J-1.729112
G03 X13.058069 Y31.310919 Z-1.000000 I6.332209 J-0.000000
G03 X13.611555 Y30.242325 Z-1.000000 I2.894612 J0.821647
G03 X14.532517 Y29.524151 Z-1.000000 I1.999314 J1.614261
G03 X15.738978 Y29.258756 Z-1.000000 I1.206461 J2.609530
G03 X16.944415 Y29.524753 Z-1.000000 I0.000000 J2.864382
G03 X17.859114 Y30.242325 Z-1.000000 I-1.069178 J2.304671
G01 X17.859114 Y30.242325 Z-1.000000
G00 Z5.000000

(End cutting path id: text46)


(Start cutting path id: text46)
(Change tool to Default tool)

G00 Z5.000000
G00 X28.255798 Y31.714035

G01 Z-1.000000 F100.0(Penetrate)
G01 X26.915230 Y35.939737 Z-1.000000 F3500.000000
G01 X25.530949 Y31.714035 Z-1.000000
G01 X28.255798 Y31.714035 Z-1.000000
G00 Z5.000000

(End cutting path id: text46)


(Start cutting path id: text46)
(Change tool to Default tool)

G00 Z5.000000
G00 X28.882368 Y29.863469

G01 Z-1.000000 F100.0(Penetrate)
G01 X24.926236 Y29.863469 Z-1.000000 F3500.000000
G01 X24.183095 Y27.655904 Z-1.000000
G01 X21.837102 Y27.655904 Z-1.000000
G01 X25.669377 Y38.395016 Z-1.000000
G01 X28.204798 Y38.395016 Z-1.000000
G01 X32.007930 Y27.655904 Z-1.000000
G01 X29.574508 Y27.655904 Z-1.000000
G01 X28.882368 Y29.863469 Z-1.000000
G00 Z5.000000

(End cutting path id: text46)


(Start cutting path id: text46)
(Change tool to Default tool)

G00 Z5.000000
G00 X40.073192 Y38.395016

G01 Z-1.000000 F100.0(Penetrate)
G01 X40.073192 Y36.493450 Z-1.000000 F3500.000000
G01 X36.860201 Y36.493450 Z-1.000000
G01 X36.860201 Y27.655904 Z-1.000000
G01 X34.601636 Y27.655904 Z-1.000000
G01 X34.601636 Y36.493450 Z-1.000000
G01 X31.374074 Y36.493450 Z-1.000000
G01 X31.374074 Y38.395016 Z-1.000000
G01 X40.073192 Y38.395016 Z-1.000000
G00 Z5.000000

(End cutting path id: text46)


(Footer)
M5
G00 X0.0000 Y0.0000
M2
(Using default footer. To add your own footer create file "footer" in the output dir.)
(end)
%