%
(Header)
(Generated by gcodetools from Inkscape.)
(Using default header. To add your own header create file "header" in the output dir.)
M3
(Header end.)
G21 (All units in mm)

(Start cutting path id: text46)
(Change tool to Default tool)

G00 Z5.000000
G00 X0.485011 Y29.553208

G01 Z-1.000000 F100.0(Penetrate)
G01 X4.287021 Y29.553208 Z-1.000000 F3500.000000
G02 X6.885753 Y29.286371 Z-1.000000 I0.000000 J-12.787992
G02 X8.152854 Y28.750865 Z-1.000000 I-0.720570 J-3.471838
G02 X9.002552 Y27.772772 Z-1.000000 I-1.347095 J-2.028385
G02 X9.347250 Y26.252662 Z-1.000000 I-3.179466 J-1.520110
G02 X9.167114 Y25.132719 Z-1.000000 I-3.571513 J-0.000000
G02 X8.699906 Y24.292393 Z-1.000000 I-2.436499 J0.804611
G02 X7.955368 Y23.694152 Z-1.000000 I-1.909370 J1.613871
G02 X6.812577 Y23.298582 Z-1.000000 I-1.867411 J3.546367
G01 X6.812577 Y23.207412 Z-1.000000
G02 X8.249329 Y22.754493 Z-1.000000 I-0.943474 J-5.498185
G02 X9.073725 Y22.140661 Z-1.000000 I-1.108011 J-2.348605
G02 X9.595862 Y21.258188 Z-1.000000 I-1.876732 J-1.706119
G02 X9.803127 Y20.016277 Z-1.000000 I-3.617065 J-1.241911
G02 X9.462701 Y18.390224 Z-1.000000 I-4.053654 J0.000000
G02 X8.581378 Y17.226312 Z-1.000000 I-2.867616 J1.255753
G02 X7.252381 Y16.523061 Z-1.000000 I-2.393344 J2.915529
G02 X5.171422 Y16.223384 Z-1.000000 I-2.080959 J7.075263
G01 X0.485011 Y16.223384 Z-1.000000
G01 X0.485011 Y29.553208 Z-1.000000
G00 Z5.000000

(End cutting path id: text46)


(Start cutting path id: text46)
(Change tool to Default tool)

G00 Z5.000000
G00 X2.162637 Y23.882104

G01 Z-1.000000 F100.0(Penetrate)
G01 X4.624370 Y23.882104 Z-1.000000 F3500.000000
G03 X6.140330 Y24.046889 Z-1.000000 I-0.000000 J7.055514
G03 X6.903752 Y24.383568 Z-1.000000 I-0.453862 J2.063010
G03 X7.398699 Y24.997137 Z-1.000000 I-0.828129 J1.174438
G03 X7.614920 Y26.061194 Z-1.000000 I-2.510083 J1.064057
G03 X7.387761 Y27.028458 Z-1.000000 I-2.172934 J0.000000
G03 X6.830812 Y27.638526 Z-1.000000 I-1.344961 J-0.668593
G03 X6.010156 Y27.962209 Z-1.000000 I-1.290445 J-2.069582
G03 X4.369079 Y28.121755 Z-1.000000 I-1.641077 J-8.360206
G01 X2.162637 Y28.121755 Z-1.000000
G01 X2.162637 Y23.882104 Z-1.000000
G00 Z5.000000

(End cutting path id: text46)


(Start cutting path id: text46)
(Change tool to Default tool)

G00 Z5.000000
G00 X2.162637 Y22.478005

G01 Z-1.000000 F100.0(Penetrate)
G01 X2.162637 Y17.645714 Z-1.000000 F3500.000000
G01 X4.852308 Y17.645714 Z-1.000000
G03 X6.387972 Y17.842478 Z-1.000000 I0.000000 J6.091005
G03 X7.231984 Y18.265706 Z-1.000000 I-0.571139 J2.192165
G03 X7.779278 Y18.995134 Z-1.000000 I-1.140767 J1.425958
G03 X8.006974 Y20.143917 Z-1.000000 I-2.784109 J1.148783
G03 X7.769803 Y21.213697 Z-1.000000 I-2.531253 J0.000000
G03 X7.186396 Y21.903600 Z-1.000000 I-1.559726 J-0.727333
G03 X6.308348 Y22.295690 Z-1.000000 I-1.454303 J-2.077573
G03 X4.724663 Y22.478005 Z-1.000000 I-1.583686 J-6.787217
G01 X2.162637 Y22.478005 Z-1.000000
G00 Z5.000000

(End cutting path id: text46)


(Start cutting path id: text46)
(Change tool to Default tool)

G00 Z5.000000
G00 X13.532197 Y21.247138

G01 Z-1.000000 F100.0(Penetrate)
G03 X13.761308 Y19.436179 Z-1.000000 I7.271727 J0.000000 F3500.000000
G03 X14.270717 Y18.375116 Z-1.000000 I2.928069 J0.752932
G03 X15.155673 Y17.677780 Z-1.000000 I1.810624 J1.387580
G03 X16.468041 Y17.399540 Z-1.000000 I1.312368 J2.955893
G03 X17.762965 Y17.676179 Z-1.000000 I0.000000 J3.169038
G03 X18.647131 Y18.375116 Z-1.000000 I-0.938140 J2.095472
G03 X19.163125 Y19.437783 Z-1.000000 I-2.399057 J1.821505
G03 X19.394768 Y21.247138 Z-1.000000 I-6.950574 J1.809355
G03 X19.158120 Y23.051611 Z-1.000000 I-6.997988 J-0.000000
G03 X18.638013 Y24.082690 Z-1.000000 I-2.722468 J-0.726575
G03 X17.756598 Y24.765817 Z-1.000000 I-1.787102 J-1.395642
G03 X16.440689 Y25.040030 Z-1.000000 I-1.315909 J-3.020326
G03 X14.493048 Y24.079179 Z-1.000000 I-0.000000 J-2.454355
G03 X13.532197 Y21.247138 Z-1.000000 I3.693194 J-2.832041
G01 X13.532197 Y21.247138 Z-1.000000
G00 Z5.000000

(End cutting path id: text46)


(Start cutting path id: text46)
(Change tool to Default tool)

G00 Z5.000000
G00 X21.090629 Y21.247138

G01 Z-1.000000 F100.0(Penetrate)
G02 X20.725563 Y18.934688 Z-1.000000 I-7.506453 J-0.000000 F3500.000000
G02 X19.850645 Y17.417776 Z-1.000000 I-3.995680 J1.293839
G02 X18.437296 Y16.430489 Z-1.000000 I-2.835416 J2.553752
G02 X16.422454 Y16.041029 Z-1.000000 I-2.014842 J5.017089
G02 X15.110641 Y16.209627 Z-1.000000 I-0.000000 J5.187714
G02 X14.015426 Y16.670138 Z-1.000000 I1.058557 J4.050134
G02 X13.104178 Y17.432328 Z-1.000000 I2.069842 J3.400455
G02 X12.401623 Y18.493644 Z-1.000000 I3.421856 J3.028343
G02 X11.992071 Y19.714159 Z-1.000000 I4.802925 J2.290626
G02 X11.836336 Y21.247138 Z-1.000000 I7.467091 J1.532979
G02 X12.197580 Y23.552091 Z-1.000000 I7.534119 J0.000000
G02 X13.058085 Y25.049148 Z-1.000000 I3.929048 J-1.262572
G02 X14.454529 Y26.026465 Z-1.000000 I2.775457 J-2.479409
G02 X16.486276 Y26.416777 Z-1.000000 I2.031747 J-5.092913
G02 X18.427542 Y26.029303 Z-1.000000 I0.000000 J-5.056662
G02 X19.841527 Y25.021795 Z-1.000000 I-1.493322 J-3.591781
G02 X20.728092 Y23.496661 Z-1.000000 I-3.188147 J-2.873529
G02 X21.090629 Y21.247138 Z-1.000000 I-6.797827 J-2.249523
G01 X21.090629 Y21.247138 Z-1.000000
G00 Z5.000000

(End cutting path id: text46)


(Start cutting path id: text46)
(Change tool to Default tool)

G00 Z5.000000
G00 X31.685198 Y16.223379

G01 Z-1.000000 F100.0(Penetrate)
G01 X29.971102 Y21.858013 Z-1.000000 F3500.000000
G02 X29.759050 Y22.567186 Z-1.000000 I9.995052 J3.374945
G02 X29.278170 Y24.511214 Z-1.000000 I74.714377 J19.513027
G01 X29.205230 Y24.511214 Z-1.000000
G02 X28.791339 Y22.741658 Z-1.000000 I-50.412328 J10.858028
G02 X28.530533 Y21.839777 Z-1.000000 I-13.343632 J3.370062
G01 X26.734379 Y16.223379 Z-1.000000
G01 X24.874403 Y16.223379 Z-1.000000
G01 X22.130027 Y26.234427 Z-1.000000
G01 X23.825887 Y26.234427 Z-1.000000
G02 X24.773596 Y22.541695 Z-1.000000 I-13272.525911 J-3408.396610
G02 X25.266457 Y20.618028 Z-1.000000 I-3601.308011 J-923.691881
G02 X25.728562 Y18.686876 Z-1.000000 I-47.762381 J-12.449911
G02 X25.859096 Y17.901005 Z-1.000000 I-7.762028 J-1.693059
G01 X25.932036 Y17.901005 Z-1.000000
G01 X26.059681 Y18.466291 Z-1.000000
G02 X26.367171 Y19.763419 Z-1.000000 I33.793439 J-7.325864
G02 X26.606733 Y20.590676 Z-1.000000 I13.976764 J-3.599167
G01 X28.384651 Y26.234427 Z-1.000000
G01 X30.171687 Y26.234427 Z-1.000000
G01 X31.894900 Y20.590676 Z-1.000000
G02 X31.985227 Y20.271326 Z-1.000000 I-60.489307 J-17.281630
G02 X32.086368 Y19.906861 Z-1.000000 I-78.686045 J-22.032070
G02 X32.191555 Y19.550086 Z-1.000000 I-15.070742 J-4.637174
G02 X32.286954 Y19.195694 Z-1.000000 I-14.774729 J-4.167240
G02 X32.374332 Y18.848320 Z-1.000000 I-15.915647 J-4.188086
G02 X32.451069 Y18.511879 Z-1.000000 I-14.852655 J-3.564624
G02 X32.518033 Y18.182574 Z-1.000000 I-9.085720 J-2.019043
G02 X32.560480 Y17.919240 Z-1.000000 I-5.766427 J-1.064578
G01 X32.642540 Y17.919240 Z-1.000000
G02 X32.759716 Y18.605628 Z-1.000000 I6.754633 J-0.799913
G02 X33.308119 Y20.891554 Z-1.000000 I75.650840 J-16.940206
G01 X34.712219 Y26.234427 Z-1.000000
G01 X36.389844 Y26.234427 Z-1.000000
G01 X33.608998 Y16.223379 Z-1.000000
G01 X31.685198 Y16.223379 Z-1.000000
G00 Z5.000000

(End cutting path id: text46)


(Start cutting path id: text46)
(Change tool to Default tool)

G00 Z5.000000
G00 X39.827153 Y16.223379

G01 Z-1.000000 F100.0(Penetrate)
G01 X38.185998 Y16.223379 Z-1.000000 F3500.000000
G01 X38.185998 Y30.410255 Z-1.000000
G01 X39.827153 Y30.410255 Z-1.000000
G01 X39.827153 Y16.223379 Z-1.000000
G00 Z5.000000

(End cutting path id: text46)


(Footer)
M5
G00 X0.0000 Y0.0000
M2
(Using default footer. To add your own footer create file "footer" in the output dir.)
(end)
%