%
(Header)
(Generated by gcodetools from Inkscape.)
(Using default header. To add your own header create file "header" in the output dir.)
M3
(Header end.)
G21 (All units in mm)

(Start cutting path id: text75607)
(Change tool to Default tool)

G00 Z 5.0000
G00 X 3.2876 Y 0.8295

G01 Z -1.0000 F 100.0000(Penetrate)
G01 X 0.8558 Y 0.8295 Z -1.0000 F 3500.0000
G01 X 0.8558 Y 6.1953 Z -1.0000
G01 X 3.4623 Y 6.1953 Z -1.0000
G02 X 4.3619 Y 6.0116 Z -1.0000 I -0.0365 J -2.4733
G02 X 4.8602 Y 5.6238 Z -1.0000 I -0.4427 J -1.0828
G02 X 5.0405 Y 5.2598 Z -1.0000 I -0.9935 J -0.7187
G02 X 5.1077 Y 4.8047 Z -1.0000 I -1.5059 J -0.4551
G02 X 5.0365 Y 4.3390 Z -1.0000 I -1.5575 J 0.0000
G02 X 4.8602 Y 4.0148 Z -1.0000 I -0.9118 J 0.2857
G02 X 4.7057 Y 3.8674 Z -1.0000 I -0.6966 J 0.5755
G02 X 4.4525 Y 3.7090 Z -1.0000 I -1.0611 J 1.4148
G02 X 4.8217 Y 3.5070 Z -1.0000 I -0.4728 J -1.3030
G02 X 5.0713 Y 3.2357 Z -1.0000 I -0.6462 J -0.8451
G02 X 5.2238 Y 2.8943 Z -1.0000 I -0.9979 J -0.6503
G02 X 5.2825 Y 2.4494 Z -1.0000 I -1.6568 J -0.4449
G02 X 5.2193 Y 1.9909 Z -1.0000 I -1.6958 J -0.0000
G02 X 5.0422 Y 1.5939 Z -1.0000 I -1.4398 J 0.4044
G02 X 4.8687 Y 1.3615 Z -1.0000 I -1.3137 J 0.7996
G02 X 4.6600 Y 1.1717 Z -1.0000 I -1.0790 J 0.9767
G02 X 4.3856 Y 1.0100 Z -1.0000 I -0.8211 J 1.0795
G02 X 4.0484 Y 0.9023 Z -1.0000 I -0.6758 J 1.5342
G02 X 3.6969 Y 0.8490 Z -1.0000 I -0.6595 J 3.1656
G02 X 3.2876 Y 0.8295 Z -1.0000 I -0.4093 J 4.2774
G01 X 3.2876 Y 0.8295 Z -1.0000
G00 Z 5.0000

(End cutting path id: text75607)


(Start cutting path id: text75607)
(Change tool to Default tool)

G00 Z 5.0000
G00 X 3.2621 Y 3.1920

G01 Z -1.0000 F 100.0000(Penetrate)
G01 X 1.9261 Y 3.1920 Z -1.0000 F 3500.0000
G01 X 1.9261 Y 1.7614 Z -1.0000
G01 X 3.2439 Y 1.7614 Z -1.0000
G03 X 3.5902 Y 1.7910 Z -1.0000 I 0.0000 J 2.0411
G03 X 3.7936 Y 1.8560 Z -1.0000 I -0.1306 J 0.7587
G03 X 4.0434 Y 2.0975 Z -1.0000 I -0.2482 J 0.5067
G03 X 4.1503 Y 2.5259 Z -1.0000 I -0.8043 J 0.4284
G03 X 4.0518 Y 2.8809 Z -1.0000 I -0.6891 J -0.0000
G03 X 3.8045 Y 3.1010 Z -1.0000 I -0.4766 J -0.2866
G03 X 3.6056 Y 3.1616 Z -1.0000 I -0.3321 J -0.7333
G03 X 3.2621 Y 3.1920 Z -1.0000 I -0.3666 J -2.1851
G01 X 3.2621 Y 3.1920 Z -1.0000
G00 Z 5.0000

(End cutting path id: text75607)


(Start cutting path id: text75607)
(Change tool to Default tool)

G00 Z 5.0000
G00 X 3.8191 Y 4.2150

G01 Z -1.0000 F 100.0000(Penetrate)
G03 X 3.9709 Y 4.3837 Z -1.0000 I -0.1992 J 0.3320 F 3500.0000
G03 X 4.0375 Y 4.6846 Z -1.0000 I -0.6469 J 0.3009
G03 X 3.9511 Y 5.0017 Z -1.0000 I -0.6255 J 0.0000
G03 X 3.7462 Y 5.1797 Z -1.0000 I -0.3674 J -0.2161
G03 X 3.4910 Y 5.2383 Z -1.0000 I -0.4325 J -1.2973
G03 X 3.1056 Y 5.2634 Z -1.0000 I -0.3854 J -2.9494
G01 X 1.9261 Y 5.2634 Z -1.0000
G01 X 1.9261 Y 4.0803 Z -1.0000
G01 X 3.2439 Y 4.0803 Z -1.0000
G03 X 3.5859 Y 4.1198 Z -1.0000 I 0.0000 J 1.5002
G03 X 3.8191 Y 4.2150 Z -1.0000 I -0.1829 J 0.7810
G01 X 3.8191 Y 4.2150 Z -1.0000
G00 Z 5.0000

(End cutting path id: text75607)


(Start cutting path id: text75607)
(Change tool to Default tool)

G00 Z 5.0000
G00 X 8.5005 Y 2.9336

G01 Z -1.0000 F 100.0000(Penetrate)
G01 X 7.3429 Y 2.9336 Z -1.0000 F 3500.0000
G01 X 7.3429 Y 0.8295 Z -1.0000
G01 X 6.2472 Y 0.8295 Z -1.0000
G01 X 6.2472 Y 6.1953 Z -1.0000
G01 X 8.8791 Y 6.1953 Z -1.0000
G02 X 9.4352 Y 6.1458 Z -1.0000 I -0.0778 J -4.0194
G02 X 9.7455 Y 6.0570 Z -1.0000 I -0.2119 J -1.3273
G02 X 10.0285 Y 5.8983 Z -1.0000 I -0.5374 J -1.2897
G02 X 10.2624 Y 5.6820 Z -1.0000 I -0.7909 J -1.0904
G02 X 10.4190 Y 5.4670 Z -1.0000 I -1.2731 J -1.0912
G02 X 10.5391 Y 5.2306 Z -1.0000 I -1.4212 J -0.8710
G02 X 10.6131 Y 4.9776 Z -1.0000 I -1.1528 J -0.4747
G02 X 10.6410 Y 4.6664 Z -1.0000 I -1.7227 J -0.3112
G02 X 10.5943 Y 4.2956 Z -1.0000 I -1.4950 J -0.0000
G02 X 10.4481 Y 3.9128 Z -1.0000 I -1.7403 J 0.4456
G02 X 10.2002 Y 3.6091 Z -1.0000 I -0.8684 J 0.4557
G02 X 9.8110 Y 3.3923 Z -1.0000 I -0.8015 J 0.9809
G02 X 10.1420 Y 3.1974 Z -1.0000 I -0.4791 J -1.1919
G02 X 10.3352 Y 2.9663 Z -1.0000 I -0.4982 J -0.6131
G02 X 10.4407 Y 2.6797 Z -1.0000 I -0.7929 J -0.4546
G02 X 10.4918 Y 2.1291 Z -1.0000 I -2.9454 J -0.5507
G01 X 10.4918 Y 1.7687 Z -1.0000
G03 X 10.5025 Y 1.4022 Z -1.0000 I 6.2876 J 0.0000
G03 X 10.5209 Y 1.2699 Z -1.0000 I 0.8322 J 0.0486
G03 X 10.5981 Y 1.0861 Z -1.0000 I 0.5159 J 0.1086
G03 X 10.7248 Y 0.9642 Z -1.0000 I 0.3409 J 0.2273
G01 X 10.7248 Y 0.8295 Z -1.0000
G01 X 9.4907 Y 0.8295 Z -1.0000
G02 X 9.4425 Y 1.0085 Z -1.0000 I 5.8754 J 1.6787
G02 X 9.4179 Y 1.1171 Z -1.0000 I 2.1341 J 0.5403
G02 X 9.3844 Y 1.3438 Z -1.0000 I 2.5243 J 0.4886
G02 X 9.3706 Y 1.5794 Z -1.0000 I 2.7107 J 0.2775
G01 X 9.3633 Y 2.0781 Z -1.0000
G03 X 9.2938 Y 2.5640 Z -1.0000 I -1.9248 J -0.0273
G03 X 9.1740 Y 2.7625 Z -1.0000 I -0.4141 J -0.1145
G03 X 8.9719 Y 2.8746 Z -1.0000 I -0.3136 J -0.3270
G03 X 8.5005 Y 2.9336 Z -1.0000 I -0.4714 J -1.8554
G01 X 8.5005 Y 2.9336 Z -1.0000
G00 Z 5.0000

(End cutting path id: text75607)


(Start cutting path id: text75607)
(Change tool to Default tool)

G00 Z 5.0000
G00 X 9.1813 Y 3.9092

G01 Z -1.0000 F 100.0000(Penetrate)
G03 X 9.4161 Y 4.1264 Z -1.0000 I -0.2123 J 0.4650 F 3500.0000
G03 X 9.5162 Y 4.5135 Z -1.0000 I -0.6984 J 0.3871
G03 X 9.4164 Y 4.9405 Z -1.0000 I -0.9635 J 0.0000
G03 X 9.1922 Y 5.1687 Z -1.0000 I -0.4596 J -0.2272
G03 X 9.0027 Y 5.2327 Z -1.0000 I -0.3009 J -0.5787
G03 X 8.6461 Y 5.2634 Z -1.0000 I -0.3565 J -2.0569
G01 X 7.3429 Y 5.2634 Z -1.0000
G01 X 7.3429 Y 3.8218 Z -1.0000
G01 X 8.6134 Y 3.8218 Z -1.0000
G03 X 8.9857 Y 3.8503 Z -1.0000 I 0.0000 J 2.4486
G03 X 9.1813 Y 3.9092 Z -1.0000 I -0.1114 J 0.7239
G01 X 9.1813 Y 3.9092 Z -1.0000
G00 Z 5.0000

(End cutting path id: text75607)


(Start cutting path id: text75607)
(Change tool to Default tool)

G00 Z 5.0000
G00 X 13.9792 Y 0.6802

G01 Z -1.0000 F 100.0000(Penetrate)
G02 X 12.9072 Y 0.8654 Z -1.0000 I 0.0000 J 3.1956 F 3500.0000
G02 X 12.2209 Y 1.3064 Z -1.0000 I 0.6027 J 1.6924
G02 X 11.6448 Y 2.1778 Z -1.0000 I 1.5634 J 1.6597
G02 X 11.4055 Y 3.5197 Z -1.0000 I 3.6422 J 1.3419
G02 X 11.6492 Y 4.8860 Z -1.0000 I 3.9522 J -0.0000
G02 X 12.2209 Y 5.7330 Z -1.0000 I 2.0107 J -0.7408
G02 X 12.9072 Y 6.1739 Z -1.0000 I 1.2889 J -1.2515
G02 X 13.9792 Y 6.3591 Z -1.0000 I 1.0720 J -3.0104
G02 X 15.0512 Y 6.1739 Z -1.0000 I -0.0000 J -3.1956
G02 X 15.7375 Y 5.7330 Z -1.0000 I -0.6027 J -1.6924
G02 X 16.3065 Y 4.8867 Z -1.0000 I -1.4417 J -1.5838
G02 X 16.5493 Y 3.5197 Z -1.0000 I -3.7271 J -1.3670
G02 X 16.3108 Y 2.1771 Z -1.0000 I -3.8989 J -0.0000
G02 X 15.7375 Y 1.3064 Z -1.0000 I -2.1399 J 0.7849
G02 X 15.0512 Y 0.8654 Z -1.0000 I -1.2889 J 1.2515
G02 X 13.9792 Y 0.6802 Z -1.0000 I -1.0720 J 3.0104
G01 X 13.9792 Y 0.6802 Z -1.0000
G00 Z 5.0000

(End cutting path id: text75607)


(Start cutting path id: text75607)
(Change tool to Default tool)

G00 Z 5.0000
G00 X 15.0385 Y 2.1218

G01 Z -1.0000 F 100.0000(Penetrate)
G03 X 15.3098 Y 2.6544 Z -1.0000 I -1.1834 J 0.9380 F 3500.0000
G03 X 15.4281 Y 3.5197 Z -1.0000 I -3.1052 J 0.8652
G03 X 15.3090 Y 4.3807 Z -1.0000 I -3.1725 J 0.0000
G03 X 15.0349 Y 4.9139 Z -1.0000 I -1.4526 J -0.4096
G03 X 14.5803 Y 5.2750 Z -1.0000 I -0.9887 J -0.7779
G03 X 13.9792 Y 5.4090 Z -1.0000 I -0.6011 J -1.2818
G03 X 13.3764 Y 5.2764 Z -1.0000 I -0.0000 J -1.4365
G03 X 12.9162 Y 4.9176 Z -1.0000 I 0.5388 J -1.1654
G03 X 12.6397 Y 4.3836 Z -1.0000 I 1.1698 J -0.9445
G03 X 12.5194 Y 3.5197 Z -1.0000 I 3.0437 J -0.8640
G03 X 12.6397 Y 2.6557 Z -1.0000 I 3.1639 J -0.0000
G03 X 12.9162 Y 2.1218 Z -1.0000 I 1.4463 J 0.4105
G03 X 13.3764 Y 1.7629 Z -1.0000 I 0.9990 J 0.8066
G03 X 13.9792 Y 1.6303 Z -1.0000 I 0.6028 J 1.3039
G03 X 14.5815 Y 1.7632 Z -1.0000 I -0.0000 J 1.4312
G03 X 15.0385 Y 2.1218 Z -1.0000 I -0.5342 J 1.1515
G01 X 15.0385 Y 2.1218 Z -1.0000
G00 Z 5.0000

(End cutting path id: text75607)


(Start cutting path id: text75607)
(Change tool to Default tool)

G00 Z 5.0000
G00 X 21.1907 Y 1.2299

G01 Z -1.0000 F 100.0000(Penetrate)
G02 X 20.5310 Y 0.8323 Z -1.0000 I -1.3169 J 1.4390 F 3500.0000
G02 X 19.6545 Y 0.6802 Z -1.0000 I -0.8765 J 2.4495
G02 X 18.5904 Y 0.8889 Z -1.0000 I 0.0000 J 2.8169
G02 X 17.8343 Y 1.4228 Z -1.0000 I 0.7752 J 1.9000
G02 X 17.3654 Y 2.2426 Z -1.0000 I 1.7229 J 1.5296
G02 X 17.1718 Y 3.4687 Z -1.0000 I 3.7860 J 1.2261
G02 X 17.3938 Y 4.7825 Z -1.0000 I 3.9985 J 0.0000
G02 X 17.9253 Y 5.6347 Z -1.0000 I 2.1456 J -0.7465
G02 X 18.6555 Y 6.1179 Z -1.0000 I 1.5192 J -1.5025
G02 X 19.5926 Y 6.2972 Z -1.0000 I 0.9371 J -2.3583
G02 X 20.8115 Y 6.0364 Z -1.0000 I -0.0000 J -2.9785
G02 X 21.5729 Y 5.4090 Z -1.0000 I -0.7636 J -1.7024
G02 X 21.8460 Y 4.8855 Z -1.0000 I -1.9373 J -1.3434
G02 X 21.9442 Y 4.4079 Z -1.0000 I -1.5071 J -0.5590
G01 X 20.8230 Y 4.4079 Z -1.0000
G03 X 20.6831 Y 4.7772 Z -1.0000 I -2.2025 J -0.6233
G03 X 20.5427 Y 4.9904 Z -1.0000 I -0.8619 J -0.4148
G03 X 20.1902 Y 5.2368 Z -1.0000 I -0.6754 J -0.5910
G03 X 19.6363 Y 5.3398 Z -1.0000 I -0.5539 J -1.4366
G03 X 19.0924 Y 5.2084 Z -1.0000 I -0.0000 J -1.1912
G03 X 18.6716 Y 4.8447 Z -1.0000 I 0.5374 J -1.0471
G03 X 18.4267 Y 4.3185 Z -1.0000 I 1.2645 J -0.9086
G03 X 18.3185 Y 3.4505 Z -1.0000 I 3.4271 J -0.8680
G03 X 18.4344 Y 2.5893 Z -1.0000 I 3.2569 J 0.0000
G03 X 18.6898 Y 2.0963 Z -1.0000 I 1.2820 J 0.3515
G03 X 19.1192 Y 1.7651 Z -1.0000 I 0.9671 J 0.8099
G03 X 19.6399 Y 1.6485 Z -1.0000 I 0.5207 J 1.1050
G03 X 20.1767 Y 1.7589 Z -1.0000 I -0.0000 J 1.3611
G03 X 20.5391 Y 2.0344 Z -1.0000 I -0.3704 J 0.8632
G03 X 20.6789 Y 2.2581 Z -1.0000 I -0.7802 J 0.6434
G03 X 20.8230 Y 2.6569 Z -1.0000 I -2.3778 J 1.0846
G01 X 21.9333 Y 2.6569 Z -1.0000
G02 X 21.6630 Y 1.8470 Z -1.0000 I -2.6820 J 0.4451
G02 X 21.1907 Y 1.2299 Z -1.0000 I -1.9977 J 1.0396
G01 X 21.1907 Y 1.2299 Z -1.0000
G00 Z 5.0000

(End cutting path id: text75607)


(Start cutting path id: text75607)
(Change tool to Default tool)

G00 Z 5.0000
G00 X 26.5747 Y 1.2299

G01 Z -1.0000 F 100.0000(Penetrate)
G02 X 25.9150 Y 0.8323 Z -1.0000 I -1.3169 J 1.4390 F 3500.0000
G02 X 25.0385 Y 0.6802 Z -1.0000 I -0.8765 J 2.4495
G02 X 23.9744 Y 0.8889 Z -1.0000 I -0.0000 J 2.8169
G02 X 23.2184 Y 1.4228 Z -1.0000 I 0.7752 J 1.9000
G02 X 22.7494 Y 2.2426 Z -1.0000 I 1.7229 J 1.5296
G02 X 22.5558 Y 3.4687 Z -1.0000 I 3.7860 J 1.2261
G02 X 22.7778 Y 4.7825 Z -1.0000 I 3.9985 J 0.0000
G02 X 23.3094 Y 5.6347 Z -1.0000 I 2.1456 J -0.7465
G02 X 24.0395 Y 6.1179 Z -1.0000 I 1.5192 J -1.5025
G02 X 24.9766 Y 6.2972 Z -1.0000 I 0.9371 J -2.3583
G02 X 26.1956 Y 6.0364 Z -1.0000 I 0.0000 J -2.9785
G02 X 26.9570 Y 5.4090 Z -1.0000 I -0.7636 J -1.7024
G02 X 27.2300 Y 4.8855 Z -1.0000 I -1.9373 J -1.3434
G02 X 27.3283 Y 4.4079 Z -1.0000 I -1.5071 J -0.5590
G01 X 26.2071 Y 4.4079 Z -1.0000
G03 X 26.0672 Y 4.7772 Z -1.0000 I -2.2025 J -0.6233
G03 X 25.9268 Y 4.9904 Z -1.0000 I -0.8619 J -0.4148
G03 X 25.5742 Y 5.2368 Z -1.0000 I -0.6754 J -0.5910
G03 X 25.0203 Y 5.3398 Z -1.0000 I -0.5539 J -1.4366
G03 X 24.4764 Y 5.2084 Z -1.0000 I -0.0000 J -1.1912
G03 X 24.0556 Y 4.8447 Z -1.0000 I 0.5374 J -1.0471
G03 X 23.8107 Y 4.3185 Z -1.0000 I 1.2645 J -0.9086
G03 X 23.7025 Y 3.4505 Z -1.0000 I 3.4271 J -0.8680
G03 X 23.8185 Y 2.5893 Z -1.0000 I 3.2569 J -0.0000
G03 X 24.0738 Y 2.0963 Z -1.0000 I 1.2820 J 0.3515
G03 X 24.5032 Y 1.7651 Z -1.0000 I 0.9671 J 0.8099
G03 X 25.0240 Y 1.6485 Z -1.0000 I 0.5207 J 1.1050
G03 X 25.5608 Y 1.7589 Z -1.0000 I 0.0000 J 1.3611
G03 X 25.9231 Y 2.0344 Z -1.0000 I -0.3704 J 0.8632
G03 X 26.0630 Y 2.2581 Z -1.0000 I -0.7802 J 0.6434
G03 X 26.2071 Y 2.6569 Z -1.0000 I -2.3778 J 1.0846
G01 X 27.3174 Y 2.6569 Z -1.0000
G02 X 27.0470 Y 1.8470 Z -1.0000 I -2.6820 J 0.4451
G02 X 26.5747 Y 1.2299 Z -1.0000 I -1.9977 J 1.0396
G01 X 26.5747 Y 1.2299 Z -1.0000
G00 Z 5.0000

(End cutting path id: text75607)


(Start cutting path id: text75607)
(Change tool to Default tool)

G00 Z 5.0000
G00 X 30.5463 Y 0.6802

G01 Z -1.0000 F 100.0000(Penetrate)
G02 X 29.4743 Y 0.8654 Z -1.0000 I -0.0000 J 3.1956 F 3500.0000
G02 X 28.7881 Y 1.3064 Z -1.0000 I 0.6027 J 1.6924
G02 X 28.2120 Y 2.1778 Z -1.0000 I 1.5634 J 1.6597
G02 X 27.9726 Y 3.5197 Z -1.0000 I 3.6422 J 1.3419
G02 X 28.2163 Y 4.8860 Z -1.0000 I 3.9522 J 0.0000
G02 X 28.7881 Y 5.7330 Z -1.0000 I 2.0107 J -0.7408
G02 X 29.4743 Y 6.1739 Z -1.0000 I 1.2889 J -1.2515
G02 X 30.5463 Y 6.3591 Z -1.0000 I 1.0720 J -3.0104
G02 X 31.6184 Y 6.1739 Z -1.0000 I 0.0000 J -3.1956
G02 X 32.3046 Y 5.7330 Z -1.0000 I -0.6027 J -1.6924
G02 X 32.8736 Y 4.8867 Z -1.0000 I -1.4417 J -1.5838
G02 X 33.1164 Y 3.5197 Z -1.0000 I -3.7271 J -1.3670
G02 X 32.8780 Y 2.1771 Z -1.0000 I -3.8989 J -0.0000
G02 X 32.3046 Y 1.3064 Z -1.0000 I -2.1399 J 0.7849
G02 X 31.6184 Y 0.8654 Z -1.0000 I -1.2889 J 1.2515
G02 X 30.5463 Y 0.6802 Z -1.0000 I -1.0720 J 3.0104
G01 X 30.5463 Y 0.6802 Z -1.0000
G00 Z 5.0000

(End cutting path id: text75607)


(Start cutting path id: text75607)
(Change tool to Default tool)

G00 Z 5.0000
G00 X 31.6057 Y 2.1218

G01 Z -1.0000 F 100.0000(Penetrate)
G03 X 31.8769 Y 2.6544 Z -1.0000 I -1.1834 J 0.9380 F 3500.0000
G03 X 31.9952 Y 3.5197 Z -1.0000 I -3.1052 J 0.8652
G03 X 31.8761 Y 4.3807 Z -1.0000 I -3.1725 J 0.0000
G03 X 31.6020 Y 4.9139 Z -1.0000 I -1.4526 J -0.4096
G03 X 31.1475 Y 5.2750 Z -1.0000 I -0.9887 J -0.7779
G03 X 30.5463 Y 5.4090 Z -1.0000 I -0.6011 J -1.2818
G03 X 29.9435 Y 5.2764 Z -1.0000 I 0.0000 J -1.4365
G03 X 29.4834 Y 4.9176 Z -1.0000 I 0.5388 J -1.1654
G03 X 29.2068 Y 4.3836 Z -1.0000 I 1.1698 J -0.9445
G03 X 29.0866 Y 3.5197 Z -1.0000 I 3.0437 J -0.8640
G03 X 29.2068 Y 2.6557 Z -1.0000 I 3.1639 J -0.0000
G03 X 29.4834 Y 2.1218 Z -1.0000 I 1.4463 J 0.4105
G03 X 29.9435 Y 1.7629 Z -1.0000 I 0.9990 J 0.8066
G03 X 30.5463 Y 1.6303 Z -1.0000 I 0.6028 J 1.3039
G03 X 31.1486 Y 1.7632 Z -1.0000 I 0.0000 J 1.4312
G03 X 31.6057 Y 2.1218 Z -1.0000 I -0.5342 J 1.1515
G01 X 31.6057 Y 2.1218 Z -1.0000
G00 Z 5.0000

(End cutting path id: text75607)


(Start cutting path id: text75607)
(Change tool to Default tool)

G00 Z 5.0000
G00 X 33.9719 Y 6.1953

G01 Z -1.0000 F 100.0000(Penetrate)
G01 X 35.0931 Y 6.1953 Z -1.0000 F 3500.0000
G01 X 35.0931 Y 1.7942 Z -1.0000
G01 X 37.7505 Y 1.7942 Z -1.0000
G01 X 37.7505 Y 0.8295 Z -1.0000
G01 X 33.9719 Y 0.8295 Z -1.0000
G01 X 33.9719 Y 6.1953 Z -1.0000
G00 Z 5.0000

(End cutting path id: text75607)


(Start cutting path id: text75607)
(Change tool to Default tool)

G00 Z 5.0000
G00 X 38.4386 Y 6.1953

G01 Z -1.0000 F 100.0000(Penetrate)
G01 X 39.5525 Y 6.1953 Z -1.0000 F 3500.0000
G01 X 39.5525 Y 0.8295 Z -1.0000
G01 X 38.4386 Y 0.8295 Z -1.0000
G01 X 38.4386 Y 6.1953 Z -1.0000
G00 Z 5.0000

(End cutting path id: text75607)



(Footer)
M5
G00 X0.0000 Y0.0000
M2
(Using default footer. To add your own footer create file "footer" in the output dir.)
(end)
%