%
(Header)
(Generated by gcodetools from Inkscape.)
(Using default header. To add your own header create file "header" in the output dir.)
M3
(Header end.)
G21 (All units in mm)

(Start cutting path id: text88994)
(Change tool to Default tool)

G00 Z 5.0000
G00 X 10.7980 Y 29.2926

G01 Z -1.0000 F 100.0000(Penetrate)
G01 X 6.1953 Y 29.2926 Z -1.0000 F 3500.0000
G01 X 6.1953 Y 39.4488 Z -1.0000
G01 X 11.1287 Y 39.4488 Z -1.0000
G02 X 12.8314 Y 39.1011 Z -1.0000 I -0.0691 J -4.6813
G02 X 13.7745 Y 38.3670 Z -1.0000 I -0.8379 J -2.0495
G02 X 14.1157 Y 37.6781 Z -1.0000 I -1.8805 J -1.3603
G02 X 14.2431 Y 36.8167 Z -1.0000 I -2.8502 J -0.8614
G02 X 14.1082 Y 35.9352 Z -1.0000 I -2.9480 J -0.0000
G02 X 13.7745 Y 35.3215 Z -1.0000 I -1.7258 J 0.5408
G02 X 13.4821 Y 35.0426 Z -1.0000 I -1.3185 J 1.0892
G02 X 13.0028 Y 34.7428 Z -1.0000 I -2.0084 J 2.6779
G02 X 13.7017 Y 34.3606 Z -1.0000 I -0.8948 J -2.4662
G02 X 14.1742 Y 33.8470 Z -1.0000 I -1.2231 J -1.5995
G02 X 14.4627 Y 33.2008 Z -1.0000 I -1.8888 J -1.2309
G02 X 14.5738 Y 32.3588 Z -1.0000 I -3.1359 J -0.8421
G02 X 14.4542 Y 31.4909 Z -1.0000 I -3.2097 J -0.0000
G02 X 14.1190 Y 30.7396 Z -1.0000 I -2.7251 J 0.7653
G02 X 13.7906 Y 30.2996 Z -1.0000 I -2.4865 J 1.5135
G02 X 13.3956 Y 29.9403 Z -1.0000 I -2.0423 J 1.8486
G02 X 12.8763 Y 29.6343 Z -1.0000 I -1.5541 J 2.0433
G02 X 12.2380 Y 29.4304 Z -1.0000 I -1.2791 J 2.9039
G02 X 11.5727 Y 29.3296 Z -1.0000 I -1.2483 J 5.9918
G02 X 10.7980 Y 29.2926 Z -1.0000 I -0.7748 J 8.0964
G01 X 10.7980 Y 29.2926 Z -1.0000
G00 Z 5.0000

(End cutting path id: text88994)


(Start cutting path id: text88994)
(Change tool to Default tool)

G00 Z 5.0000
G00 X 10.7497 Y 33.7644

G01 Z -1.0000 F 100.0000(Penetrate)
G01 X 8.2210 Y 33.7644 Z -1.0000 F 3500.0000
G01 X 8.2210 Y 31.0565 Z -1.0000
G01 X 10.7153 Y 31.0565 Z -1.0000
G03 X 11.3708 Y 31.1125 Z -1.0000 I -0.0000 J 3.8633
G03 X 11.7557 Y 31.2357 Z -1.0000 I -0.2472 J 1.4360
G03 X 12.2285 Y 31.6927 Z -1.0000 I -0.4697 J 0.9590
G03 X 12.4309 Y 32.5035 Z -1.0000 I -1.5223 J 0.8108
G03 X 12.2445 Y 33.1755 Z -1.0000 I -1.3043 J 0.0000
G03 X 11.7764 Y 33.5921 Z -1.0000 I -0.9022 J -0.5424
G03 X 11.4000 Y 33.7068 Z -1.0000 I -0.6285 J -1.3880
G03 X 10.7497 Y 33.7644 Z -1.0000 I -0.6939 J -4.1358
G01 X 10.7497 Y 33.7644 Z -1.0000
G00 Z 5.0000

(End cutting path id: text88994)


(Start cutting path id: text88994)
(Change tool to Default tool)

G00 Z 5.0000
G00 X 11.8039 Y 35.7005

G01 Z -1.0000 F 100.0000(Penetrate)
G03 X 12.0914 Y 36.0199 Z -1.0000 I -0.3771 J 0.6284 F 3500.0000
G03 X 12.2173 Y 36.5893 Z -1.0000 I -1.2244 J 0.5695
G03 X 12.0539 Y 37.1896 Z -1.0000 I -1.1840 J -0.0000
G03 X 11.6661 Y 37.5264 Z -1.0000 I -0.6954 J -0.4091
G03 X 11.1830 Y 37.6374 Z -1.0000 I -0.8185 J -2.4556
G03 X 10.4535 Y 37.6849 Z -1.0000 I -0.7295 J -5.5826
G01 X 8.2210 Y 37.6849 Z -1.0000
G01 X 8.2210 Y 35.4456 Z -1.0000
G01 X 10.7153 Y 35.4456 Z -1.0000
G03 X 11.3627 Y 35.5204 Z -1.0000 I 0.0000 J 2.8395
G03 X 11.8039 Y 35.7005 Z -1.0000 I -0.3462 J 1.4783
G01 X 11.8039 Y 35.7005 Z -1.0000
G00 Z 5.0000

(End cutting path id: text88994)


(Start cutting path id: text88994)
(Change tool to Default tool)

G00 Z 5.0000
G00 X 22.3597 Y 33.2062

G01 Z -1.0000 F 100.0000(Penetrate)
G01 X 22.3597 Y 39.4488 Z -1.0000 F 3500.0000
G01 X 24.5163 Y 39.4488 Z -1.0000
G01 X 24.5163 Y 33.2062 Z -1.0000
G02 X 24.3604 Y 31.6276 Z -1.0000 I -8.0710 J -0.0000
G02 X 24.0133 Y 30.6844 Z -1.0000 I -3.1765 J 0.6336
G02 X 22.7764 Y 29.5454 Z -1.0000 I -2.3899 J 1.3543
G02 X 20.4373 Y 29.0308 Z -1.0000 I -2.3390 J 5.0582
G02 X 18.0969 Y 29.5449 Z -1.0000 I 0.0000 J 5.5851
G02 X 16.8544 Y 30.6844 Z -1.0000 I 1.1585 J 2.5101
G02 X 16.5074 Y 31.6276 Z -1.0000 I 2.8294 J 1.5767
G02 X 16.3515 Y 33.2062 Z -1.0000 I 7.9151 J 1.5787
G01 X 16.3515 Y 39.4488 Z -1.0000
G01 X 18.5081 Y 39.4488 Z -1.0000
G01 X 18.5081 Y 33.2062 Z -1.0000
G03 X 18.5908 Y 32.1790 Z -1.0000 I 6.4176 J -0.0000
G03 X 18.7561 Y 31.6766 Z -1.0000 I 1.6680 J 0.2705
G03 X 19.3155 Y 31.0910 Z -1.0000 I 1.1122 J 0.5023
G03 X 20.4373 Y 30.8222 Z -1.0000 I 1.1219 J 2.2075
G03 X 21.5527 Y 31.0904 Z -1.0000 I 0.0000 J 2.4539
G03 X 22.1117 Y 31.6766 Z -1.0000 I -0.5561 J 1.0898
G03 X 22.2769 Y 32.1790 Z -1.0000 I -1.5027 J 0.7728
G03 X 22.3597 Y 33.2062 Z -1.0000 I -6.3349 J 1.0273
G01 X 22.3597 Y 33.2062 Z -1.0000
G00 Z 5.0000

(End cutting path id: text88994)


(Start cutting path id: text88994)
(Change tool to Default tool)

G00 Z 5.0000
G00 X 30.2283 Y 30.7602

G01 Z -1.0000 F 100.0000(Penetrate)
G03 X 30.9707 Y 30.8103 Z -1.0000 I 0.0000 J 5.5257 F 3500.0000
G03 X 31.4479 Y 30.9256 Z -1.0000 I -0.3230 J 2.3823
G03 X 32.1034 Y 31.4071 Z -1.0000 I -0.4761 J 1.3351
G03 X 32.3367 Y 32.1038 Z -1.0000 I -0.9236 J 0.6968
G03 X 32.2210 Y 32.5427 Z -1.0000 I -0.8906 J -0.0000
G03 X 31.8957 Y 32.8824 Z -1.0000 I -0.8322 J -0.4714
G03 X 31.4339 Y 33.0992 Z -1.0000 I -1.2280 J -2.0152
G03 X 30.5108 Y 33.3578 Z -1.0000 I -2.7057 J -7.8820
G01 X 29.4359 Y 33.5990 Z -1.0000
G02 X 27.8904 Y 34.0466 Z -1.0000 I 2.9814 J 13.1869
G02 X 27.2448 Y 34.3776 Z -1.0000 I 0.9204 J 2.5902
G02 X 26.5154 Y 35.2371 Z -1.0000 I 1.2078 J 1.7644
G02 X 26.2182 Y 36.5756 Z -1.0000 I 2.8656 J 1.3385
G02 X 26.4795 Y 37.8243 Z -1.0000 I 3.1143 J -0.0000
G02 X 27.2104 Y 38.8424 Z -1.0000 I 2.7535 J -1.2052
G02 X 28.3089 Y 39.4703 Z -1.0000 I 1.9602 J -2.1547
G02 X 30.1249 Y 39.7450 Z -1.0000 I 1.8161 J -5.8641
G02 X 31.6522 Y 39.5121 Z -1.0000 I 0.0000 J -5.1226
G02 X 32.8603 Y 38.8907 Z -1.0000 I -1.1811 J -3.7814
G02 X 33.6920 Y 37.8834 Z -1.0000 I -1.6419 J -2.2025
G02 X 34.0523 Y 36.4240 Z -1.0000 I -3.2763 J -1.5833
G01 X 32.0128 Y 36.4240 Z -1.0000
G03 X 31.7638 Y 37.2143 Z -1.0000 I -1.7038 J -0.1025
G03 X 31.2136 Y 37.7262 Z -1.0000 I -1.1963 J -0.7343
G03 X 30.6997 Y 37.9076 Z -1.0000 I -0.9224 J -1.7949
G03 X 29.9802 Y 37.9811 Z -1.0000 I -0.7195 J -3.4806
G03 X 29.1904 Y 37.8829 Z -1.0000 I -0.0000 J -3.2247
G03 X 28.6711 Y 37.6504 Z -1.0000 I 0.4036 J -1.5976
G03 X 28.3120 Y 37.2506 Z -1.0000 I 0.6216 J -0.9194
G03 X 28.1819 Y 36.7271 Z -1.0000 I 0.9879 J -0.5235
G03 X 28.3105 Y 36.2584 Z -1.0000 I 0.9188 J -0.0000
G03 X 28.6642 Y 35.9141 Z -1.0000 I 0.8149 J 0.4834
G03 X 28.9886 Y 35.7709 Z -1.0000 I 0.8217 J 1.4222
G03 X 29.9871 Y 35.4938 Z -1.0000 I 4.2482 J 13.3712
G01 X 31.7372 Y 35.0735 Z -1.0000
G02 X 32.8446 Y 34.7086 Z -1.0000 I -1.6336 J -6.8203
G02 X 33.4736 Y 34.3362 Z -1.0000 I -1.0771 J -2.5367
G02 X 34.1248 Y 33.4943 Z -1.0000 I -1.3573 J -1.7227
G02 X 34.3831 Y 32.2623 Z -1.0000 I -2.8094 J -1.2320
G02 X 34.1054 Y 30.9975 Z -1.0000 I -3.0195 J 0.0000
G02 X 33.3151 Y 29.9472 Z -1.0000 I -2.8249 J 1.3031
G02 X 32.1519 Y 29.3053 Z -1.0000 I -2.1012 J 2.4329
G02 X 30.3110 Y 29.0308 Z -1.0000 I -1.8409 J 6.0348
G02 X 28.4200 Y 29.2987 Z -1.0000 I 0.0000 J 6.8068
G02 X 27.1897 Y 29.9334 Z -1.0000 I 0.9936 J 3.4357
G02 X 26.3644 Y 30.9927 Z -1.0000 I 1.8074 J 2.2592
G02 X 26.0528 Y 32.4277 Z -1.0000 I 3.1482 J 1.4350
G01 X 28.0786 Y 32.4277 Z -1.0000
G03 X 28.2440 Y 31.7619 Z -1.0000 I 3.2177 J 0.4460
G03 X 28.4575 Y 31.3872 Z -1.0000 I 1.2063 J 0.4394
G03 X 29.0683 Y 30.9595 Z -1.0000 I 1.0763 J 0.8871
G03 X 30.2283 Y 30.7602 Z -1.0000 I 1.1600 J 3.2761
G01 X 30.2283 Y 30.7602 Z -1.0000
G00 Z 5.0000

(End cutting path id: text88994)



(Footer)
M5
G00 X0.0000 Y0.0000
M2
(Using default footer. To add your own footer create file "footer" in the output dir.)
(end)
%