%
(Header)
(Generated by gcodetools from Inkscape.)
(Using default header. To add your own header create file "header" in the output dir.)
M3
(Header end.)
G21 (All units in mm)

(Start cutting path id: text5608)
(Change tool to Default tool)

G00 Z 5.0000
G00 X 5.3509 Y 0.9155

G01 Z -1.0000 F 100.0000(Penetrate)
G02 X 4.5298 Y 0.4206 Z -1.0000 I -1.6390 J 1.7910 F 3500.0000
G02 X 3.4390 Y 0.2313 Z -1.0000 I -1.0908 J 3.0486
G02 X 2.1146 Y 0.4911 Z -1.0000 I 0.0000 J 3.5058
G02 X 1.1736 Y 1.1556 Z -1.0000 I 0.9648 J 2.3647
G02 X 0.5900 Y 2.1759 Z -1.0000 I 2.1443 J 1.9037
G02 X 0.3490 Y 3.7018 Z -1.0000 I 4.7120 J 1.5259
G02 X 0.6254 Y 5.3370 Z -1.0000 I 4.9764 J 0.0000
G02 X 1.2869 Y 6.3976 Z -1.0000 I 2.6704 J -0.9290
G02 X 2.1956 Y 6.9989 Z -1.0000 I 1.8908 J -1.8700
G02 X 3.3620 Y 7.2222 Z -1.0000 I 1.1663 J -2.9351
G02 X 4.8790 Y 6.8975 Z -1.0000 I -0.0000 J -3.7070
G02 X 5.8266 Y 6.1167 Z -1.0000 I -0.9503 J -2.1187
G02 X 6.1665 Y 5.4651 Z -1.0000 I -2.4111 J -1.6719
G02 X 6.2888 Y 4.8708 Z -1.0000 I -1.8757 J -0.6957
G01 X 4.8933 Y 4.8708 Z -1.0000
G03 X 4.7192 Y 5.3303 Z -1.0000 I -2.7411 J -0.7758
G03 X 4.5445 Y 5.5957 Z -1.0000 I -1.0727 J -0.5162
G03 X 4.1057 Y 5.9023 Z -1.0000 I -0.8406 J -0.7355
G03 X 3.4163 Y 6.0306 Z -1.0000 I -0.6894 J -1.7880
G03 X 2.7394 Y 5.8671 Z -1.0000 I 0.0000 J -1.4825
G03 X 2.2157 Y 5.4144 Z -1.0000 I 0.6688 J -1.3032
G03 X 1.9109 Y 4.7594 Z -1.0000 I 1.5738 J -1.1308
G03 X 1.7762 Y 3.6792 Z -1.0000 I 4.2653 J -1.0802
G03 X 1.9205 Y 2.6073 Z -1.0000 I 4.0535 J 0.0000
G03 X 2.2383 Y 1.9938 Z -1.0000 I 1.5955 J 0.4375
G03 X 2.7727 Y 1.5816 Z -1.0000 I 1.2037 J 1.0079
G03 X 3.4209 Y 1.4365 Z -1.0000 I 0.6481 J 1.3753
G03 X 4.0889 Y 1.5738 Z -1.0000 I 0.0000 J 1.6941
G03 X 4.5399 Y 1.9168 Z -1.0000 I -0.4610 J 1.0743
G03 X 4.7140 Y 2.1951 Z -1.0000 I -0.9711 J 0.8007
G03 X 4.8933 Y 2.6915 Z -1.0000 I -2.9593 J 1.3499
G01 X 6.2752 Y 2.6915 Z -1.0000
G02 X 5.9387 Y 1.6835 Z -1.0000 I -3.3380 J 0.5540
G02 X 5.3509 Y 0.9155 Z -1.0000 I -2.4863 J 1.2939
G01 X 5.3509 Y 0.9155 Z -1.0000
G00 Z 5.0000

(End cutting path id: text5608)


(Start cutting path id: text5608)
(Change tool to Default tool)

G00 Z 5.0000
G00 X 10.8602 Y 2.9407

G01 Z -1.0000 F 100.0000(Penetrate)
G01 X 10.0266 Y 5.5685 Z -1.0000 F 3500.0000
G01 X 9.1658 Y 2.9407 Z -1.0000
G01 X 10.8602 Y 2.9407 Z -1.0000
G00 Z 5.0000

(End cutting path id: text5608)


(Start cutting path id: text5608)
(Change tool to Default tool)

G00 Z 5.0000
G00 X 11.2499 Y 1.7899

G01 Z -1.0000 F 100.0000(Penetrate)
G01 X 8.7897 Y 1.7899 Z -1.0000 F 3500.0000
G01 X 8.3276 Y 0.4171 Z -1.0000
G01 X 6.8687 Y 0.4171 Z -1.0000
G01 X 9.2518 Y 7.0953 Z -1.0000
G01 X 10.8285 Y 7.0953 Z -1.0000
G01 X 13.1935 Y 0.4171 Z -1.0000
G01 X 11.6803 Y 0.4171 Z -1.0000
G01 X 11.2499 Y 1.7899 Z -1.0000
G00 Z 5.0000

(End cutting path id: text5608)


(Start cutting path id: text5608)
(Change tool to Default tool)

G00 Z 5.0000
G00 X 16.8770 Y 3.0358

G01 Z -1.0000 F 100.0000(Penetrate)
G01 X 15.4362 Y 3.0358 Z -1.0000 F 3500.0000
G01 X 15.4362 Y 0.4171 Z -1.0000
G01 X 14.0725 Y 0.4171 Z -1.0000
G01 X 14.0725 Y 7.0953 Z -1.0000
G01 X 17.3482 Y 7.0953 Z -1.0000
G02 X 18.0402 Y 7.0337 Z -1.0000 I -0.0968 J -5.0024
G02 X 18.4265 Y 6.9232 Z -1.0000 I -0.2638 J -1.6519
G02 X 18.7787 Y 6.7256 Z -1.0000 I -0.6688 J -1.6051
G02 X 19.0698 Y 6.4565 Z -1.0000 I -0.9843 J -1.3571
G02 X 19.2646 Y 6.1889 Z -1.0000 I -1.5845 J -1.3582
G02 X 19.4142 Y 5.8947 Z -1.0000 I -1.7688 J -1.0841
G02 X 19.5063 Y 5.5797 Z -1.0000 I -1.4348 J -0.5908
G02 X 19.5410 Y 5.1924 Z -1.0000 I -2.1440 J -0.3873
G02 X 19.4829 Y 4.7309 Z -1.0000 I -1.8607 J 0.0000
G02 X 19.3009 Y 4.2546 Z -1.0000 I -2.1660 J 0.5546
G02 X 18.9924 Y 3.8766 Z -1.0000 I -1.0808 J 0.5672
G02 X 18.5080 Y 3.6067 Z -1.0000 I -0.9976 J 1.2208
G02 X 18.9199 Y 3.3641 Z -1.0000 I -0.5963 J -1.4834
G02 X 19.1604 Y 3.0766 Z -1.0000 I -0.6200 J -0.7631
G02 X 19.2918 Y 2.7199 Z -1.0000 I -0.9868 J -0.5657
G02 X 19.3553 Y 2.0345 Z -1.0000 I -3.6658 J -0.6853
G01 X 19.3553 Y 1.5860 Z -1.0000
G03 X 19.3686 Y 1.1299 Z -1.0000 I 7.8237 J 0.0000
G03 X 19.3915 Y 0.9653 Z -1.0000 I 1.0355 J 0.0605
G03 X 19.4877 Y 0.7365 Z -1.0000 I 0.6421 J 0.1352
G03 X 19.6452 Y 0.5847 Z -1.0000 I 0.4243 J 0.2829
G01 X 19.6452 Y 0.4171 Z -1.0000
G01 X 18.1093 Y 0.4171 Z -1.0000
G02 X 18.0493 Y 0.6399 Z -1.0000 I 7.3101 J 2.0886
G02 X 18.0187 Y 0.7750 Z -1.0000 I 2.6551 J 0.6722
G02 X 17.9770 Y 1.0572 Z -1.0000 I 3.1416 J 0.6081
G02 X 17.9598 Y 1.3504 Z -1.0000 I 3.3736 J 0.3453
G01 X 17.9507 Y 1.9711 Z -1.0000
G03 X 17.8642 Y 2.5758 Z -1.0000 I -2.3962 J -0.0341
G03 X 17.7151 Y 2.8229 Z -1.0000 I -0.5154 J -0.1426
G03 X 17.4636 Y 2.9625 Z -1.0000 I -0.3904 J -0.4070
G03 X 16.8770 Y 3.0358 Z -1.0000 I -0.5867 J -2.3093
G01 X 16.8770 Y 3.0358 Z -1.0000
G00 Z 5.0000

(End cutting path id: text5608)


(Start cutting path id: text5608)
(Change tool to Default tool)

G00 Z 5.0000
G00 X 17.7242 Y 4.2500

G01 Z -1.0000 F 100.0000(Penetrate)
G03 X 18.0165 Y 4.5204 Z -1.0000 I -0.2642 J 0.5788 F 3500.0000
G03 X 18.1410 Y 5.0021 Z -1.0000 I -0.8692 J 0.4817
G03 X 18.0168 Y 5.5336 Z -1.0000 I -1.1991 J 0.0000
G03 X 17.7378 Y 5.8177 Z -1.0000 I -0.5720 J -0.2828
G03 X 17.5019 Y 5.8973 Z -1.0000 I -0.3745 J -0.7202
G03 X 17.0582 Y 5.9355 Z -1.0000 I -0.4437 J -2.5600
G01 X 15.4362 Y 5.9355 Z -1.0000
G01 X 15.4362 Y 4.1413 Z -1.0000
G01 X 17.0174 Y 4.1413 Z -1.0000
G03 X 17.4808 Y 4.1768 Z -1.0000 I 0.0000 J 3.0476
G03 X 17.7242 Y 4.2500 Z -1.0000 I -0.1386 J 0.9009
G01 X 17.7242 Y 4.2500 Z -1.0000
G00 Z 5.0000

(End cutting path id: text5608)


(Start cutting path id: text5608)
(Change tool to Default tool)

G00 Z 5.0000
G00 X 23.5779 Y 3.0358

G01 Z -1.0000 F 100.0000(Penetrate)
G01 X 22.1371 Y 3.0358 Z -1.0000 F 3500.0000
G01 X 22.1371 Y 0.4171 Z -1.0000
G01 X 20.7734 Y 0.4171 Z -1.0000
G01 X 20.7734 Y 7.0953 Z -1.0000
G01 X 24.0491 Y 7.0953 Z -1.0000
G02 X 24.7411 Y 7.0337 Z -1.0000 I -0.0968 J -5.0024
G02 X 25.1274 Y 6.9232 Z -1.0000 I -0.2638 J -1.6519
G02 X 25.4795 Y 6.7256 Z -1.0000 I -0.6688 J -1.6051
G02 X 25.7707 Y 6.4565 Z -1.0000 I -0.9843 J -1.3571
G02 X 25.9655 Y 6.1889 Z -1.0000 I -1.5845 J -1.3582
G02 X 26.1150 Y 5.8947 Z -1.0000 I -1.7688 J -1.0841
G02 X 26.2072 Y 5.5797 Z -1.0000 I -1.4348 J -0.5908
G02 X 26.2419 Y 5.1924 Z -1.0000 I -2.1440 J -0.3873
G02 X 26.1838 Y 4.7309 Z -1.0000 I -1.8607 J -0.0000
G02 X 26.0018 Y 4.2546 Z -1.0000 I -2.1660 J 0.5546
G02 X 25.6933 Y 3.8766 Z -1.0000 I -1.0808 J 0.5672
G02 X 25.2089 Y 3.6067 Z -1.0000 I -0.9976 J 1.2208
G02 X 25.6208 Y 3.3641 Z -1.0000 I -0.5963 J -1.4834
G02 X 25.8613 Y 3.0766 Z -1.0000 I -0.6200 J -0.7631
G02 X 25.9926 Y 2.7199 Z -1.0000 I -0.9868 J -0.5657
G02 X 26.0561 Y 2.0345 Z -1.0000 I -3.6658 J -0.6853
G01 X 26.0561 Y 1.5860 Z -1.0000
G03 X 26.0695 Y 1.1299 Z -1.0000 I 7.8237 J 0.0000
G03 X 26.0924 Y 0.9653 Z -1.0000 I 1.0355 J 0.0605
G03 X 26.1885 Y 0.7365 Z -1.0000 I 0.6421 J 0.1352
G03 X 26.3461 Y 0.5847 Z -1.0000 I 0.4243 J 0.2829
G01 X 26.3461 Y 0.4171 Z -1.0000
G01 X 24.8102 Y 0.4171 Z -1.0000
G02 X 24.7502 Y 0.6399 Z -1.0000 I 7.3101 J 2.0886
G02 X 24.7196 Y 0.7750 Z -1.0000 I 2.6551 J 0.6722
G02 X 24.6779 Y 1.0572 Z -1.0000 I 3.1416 J 0.6081
G02 X 24.6607 Y 1.3504 Z -1.0000 I 3.3736 J 0.3453
G01 X 24.6516 Y 1.9711 Z -1.0000
G03 X 24.5652 Y 2.5758 Z -1.0000 I -2.3954 J -0.0339
G03 X 24.4160 Y 2.8229 Z -1.0000 I -0.5153 J -0.1425
G03 X 24.1645 Y 2.9625 Z -1.0000 I -0.3904 J -0.4070
G03 X 23.5779 Y 3.0358 Z -1.0000 I -0.5867 J -2.3093
G01 X 23.5779 Y 3.0358 Z -1.0000
G00 Z 5.0000

(End cutting path id: text5608)


(Start cutting path id: text5608)
(Change tool to Default tool)

G00 Z 5.0000
G00 X 24.4251 Y 4.2501

G01 Z -1.0000 F 100.0000(Penetrate)
G03 X 24.7174 Y 4.5204 Z -1.0000 I -0.2642 J 0.5788 F 3500.0000
G03 X 24.8419 Y 5.0021 Z -1.0000 I -0.8692 J 0.4817
G03 X 24.7177 Y 5.5336 Z -1.0000 I -1.1991 J -0.0000
G03 X 24.4387 Y 5.8177 Z -1.0000 I -0.5720 J -0.2828
G03 X 24.2028 Y 5.8973 Z -1.0000 I -0.3745 J -0.7202
G03 X 23.7591 Y 5.9355 Z -1.0000 I -0.4437 J -2.5600
G01 X 22.1371 Y 5.9355 Z -1.0000
G01 X 22.1371 Y 4.1413 Z -1.0000
G01 X 23.7183 Y 4.1413 Z -1.0000
G03 X 24.1817 Y 4.1768 Z -1.0000 I 0.0000 J 3.0476
G03 X 24.4251 Y 4.2501 Z -1.0000 I -0.1386 J 0.9009
G01 X 24.4251 Y 4.2501 Z -1.0000
G00 Z 5.0000

(End cutting path id: text5608)


(Start cutting path id: text5608)
(Change tool to Default tool)

G00 Z 5.0000
G00 X 30.3965 Y 0.2313

G01 Z -1.0000 F 100.0000(Penetrate)
G02 X 29.0623 Y 0.4618 Z -1.0000 I -0.0000 J 3.9772 F 3500.0000
G02 X 28.2082 Y 1.0106 Z -1.0000 I 0.7501 J 2.1063
G02 X 27.4912 Y 2.0952 Z -1.0000 I 1.9457 J 2.0656
G02 X 27.1933 Y 3.7653 Z -1.0000 I 4.5330 J 1.6701
G02 X 27.4966 Y 5.4658 Z -1.0000 I 4.9189 J 0.0000
G02 X 28.2082 Y 6.5199 Z -1.0000 I 2.5025 J -0.9220
G02 X 29.0623 Y 7.0687 Z -1.0000 I 1.6042 J -1.5575
G02 X 30.3965 Y 7.2992 Z -1.0000 I 1.3342 J -3.7467
G02 X 31.7308 Y 7.0687 Z -1.0000 I -0.0000 J -3.9772
G02 X 32.5849 Y 6.5199 Z -1.0000 I -0.7501 J -2.1063
G02 X 33.2930 Y 5.4666 Z -1.0000 I -1.7944 J -1.9712
G02 X 33.5952 Y 3.7653 Z -1.0000 I -4.6387 J -1.7014
G02 X 33.2984 Y 2.0943 Z -1.0000 I -4.8525 J 0.0000
G02 X 32.5849 Y 1.0106 Z -1.0000 I -2.6632 J 0.9768
G02 X 31.7308 Y 0.4618 Z -1.0000 I -1.6042 J 1.5575
G02 X 30.3965 Y 0.2313 Z -1.0000 I -1.3342 J 3.7467
G01 X 30.3965 Y 0.2313 Z -1.0000
G00 Z 5.0000

(End cutting path id: text5608)


(Start cutting path id: text5608)
(Change tool to Default tool)

G00 Z 5.0000
G00 X 31.7150 Y 2.0255

G01 Z -1.0000 F 100.0000(Penetrate)
G03 X 32.0525 Y 2.6884 Z -1.0000 I -1.4729 J 1.1674 F 3500.0000
G03 X 32.1998 Y 3.7653 Z -1.0000 I -3.8647 J 1.0769
G03 X 32.0516 Y 4.8369 Z -1.0000 I -3.9485 J 0.0000
G03 X 31.7104 Y 5.5005 Z -1.0000 I -1.8079 J -0.5098
G03 X 31.1447 Y 5.9500 Z -1.0000 I -1.2306 J -0.9682
G03 X 30.3965 Y 6.1167 Z -1.0000 I -0.7482 J -1.5953
G03 X 29.6463 Y 5.9517 Z -1.0000 I 0.0000 J -1.7878
G03 X 29.0736 Y 5.5051 Z -1.0000 I 0.6706 J -1.4504
G03 X 28.7294 Y 4.8405 Z -1.0000 I 1.4559 J -1.1755
G03 X 28.5797 Y 3.7653 Z -1.0000 I 3.7881 J -1.0753
G03 X 28.7294 Y 2.6900 Z -1.0000 I 3.9377 J -0.0000
G03 X 29.0736 Y 2.0255 Z -1.0000 I 1.8000 J 0.5110
G03 X 29.6463 Y 1.5789 Z -1.0000 I 1.2433 J 1.0038
G03 X 30.3965 Y 1.4138 Z -1.0000 I 0.7502 J 1.6228
G03 X 31.1462 Y 1.5793 Z -1.0000 I 0.0000 J 1.7812
G03 X 31.7150 Y 2.0255 Z -1.0000 I -0.6649 J 1.4332
G01 X 31.7150 Y 2.0255 Z -1.0000
G00 Z 5.0000

(End cutting path id: text5608)


(Start cutting path id: text5608)
(Change tool to Default tool)

G00 Z 5.0000
G00 X 39.5123 Y 7.0953

G01 Z -1.0000 F 100.0000(Penetrate)
G01 X 39.5123 Y 5.9128 Z -1.0000 F 3500.0000
G01 X 37.5142 Y 5.9128 Z -1.0000
G01 X 37.5142 Y 0.4171 Z -1.0000
G01 X 36.1097 Y 0.4171 Z -1.0000
G01 X 36.1097 Y 5.9128 Z -1.0000
G01 X 34.1026 Y 5.9128 Z -1.0000
G01 X 34.1026 Y 7.0953 Z -1.0000
G01 X 39.5123 Y 7.0953 Z -1.0000
G00 Z 5.0000

(End cutting path id: text5608)



(Footer)
M5
G00 X0.0000 Y0.0000
M2
(Using default footer. To add your own footer create file "footer" in the output dir.)
(end)
%