%
(Header)
(Generated by gcodetools from Inkscape.)
(Using default header. To add your own header create file "header" in the output dir.)
M3
(Header end.)
G21 (All units in mm)

(Start cutting path id: text636)
(Change tool to Default tool)

G00 Z5.000000
G00 X8.947994 Y35.516064

G01 Z-1.000000 F100.0(Penetrate)
G02 X12.178203 Y34.982699 Z-1.000000 I-0.000000 J-10.048199 F3500.000000
G02 X14.292838 Y33.701533 Z-1.000000 I-1.842241 J-5.426466
G02 X15.791318 Y31.692764 Z-1.000000 I-5.182470 J-5.429256
G02 X16.403619 Y29.578721 Z-1.000000 I-5.152873 J-2.638148
G01 X14.008932 Y29.578721 Z-1.000000
G03 X13.367322 Y31.187674 Z-1.000000 I-5.604063 J-1.302354
G03 X12.379557 Y32.356064 Z-1.000000 I-3.871560 J-2.271315
G03 X11.057448 Y33.073909 Z-1.000000 I-2.384738 J-2.815715
G03 X8.972682 Y33.380596 Z-1.000000 I-2.084766 J-6.932476
G03 X6.525453 Y32.870407 Z-1.000000 I0.000000 J-6.124419
G03 X4.640025 Y31.492002 Z-1.000000 I2.136144 J-4.900566
G03 X3.514136 Y29.421937 Z-1.000000 I4.050661 J-3.544329
G03 X2.998306 Y25.727470 Z-1.000000 I12.972301 J-3.694467
G03 X3.425473 Y22.684463 Z-1.000000 I11.052332 J0.000000
G03 X4.479556 Y20.555439 Z-1.000000 I6.350814 J1.818849
G03 X6.254880 Y19.146718 Z-1.000000 I3.617204 J2.735511
G03 X8.923307 Y18.580439 Z-1.000000 I2.668427 J6.003961
G03 X11.335266 Y19.154380 Z-1.000000 I-0.000000 J5.355042
G03 X13.058463 Y20.666533 Z-1.000000 I-2.062371 J4.088131
G03 X13.670345 Y21.825183 Z-1.000000 I-4.710231 J3.228361
G03 X14.181744 Y23.554970 Z-1.000000 I-10.086093 J3.922369
G01 X16.576432 Y23.554970 Z-1.000000
G02 X15.852463 Y20.876233 Z-1.000000 I-9.084932 J1.018140
G02 X14.453307 Y18.753251 Z-1.000000 I-7.019826 J3.103882
G02 X12.008360 Y17.072103 Z-1.000000 I-4.955395 J4.588332
G02 X8.627057 Y16.420283 Z-1.000000 I-3.381303 J8.444315
G02 X5.664202 Y16.937982 Z-1.000000 I-0.000000 J8.737232
G02 X3.319244 Y18.333564 Z-1.000000 I2.438820 J6.765759
G02 X1.351477 Y21.247948 Z-1.000000 I4.801064 J5.363139
G02 X0.492525 Y26.147158 Z-1.000000 I13.542359 J4.899210
G02 X1.089957 Y29.943858 Z-1.000000 I12.362787 J0.000000
G02 X2.615650 Y32.726377 Z-1.000000 I8.020583 J-2.588256
G02 X5.276483 Y34.743169 Z-1.000000 I5.568202 J-4.582680
G02 X8.947994 Y35.516064 Z-1.000000 I3.671511 J-8.334006
G01 X8.947994 Y35.516064 Z-1.000000
G00 Z5.000000

(End cutting path id: text636)


(Start cutting path id: text636)
(Change tool to Default tool)

G00 Z5.000000
G00 X8.454244 Y35.516064

G01 Z-1.000000 F100.0(Penetrate)
G01 X8.454244 Y35.516064 Z-1.000000 F3500.000000
G00 Z5.000000

(End cutting path id: text636)


(Start cutting path id: text636)
(Change tool to Default tool)

G00 Z5.000000
G00 X24.513463 Y30.430439

G01 Z-1.000000 F100.0(Penetrate)
G01 X24.513463 Y30.430439 Z-1.000000 F3500.000000
G00 Z5.000000

(End cutting path id: text636)


(Start cutting path id: text636)
(Change tool to Default tool)

G00 Z5.000000
G00 X26.352682 Y24.900439

G01 Z-1.000000 F100.0(Penetrate)
G03 X27.017104 Y25.138466 Z-1.000000 I-0.211014 J1.635356 F3500.000000
G03 X27.377213 Y25.542314 Z-1.000000 I-0.514547 J0.821297
G03 X27.478353 Y25.849656 Z-1.000000 I-0.996455 J0.498228
G03 X27.525338 Y26.394033 Z-1.000000 I-3.130171 J0.544377
G03 X27.289771 Y27.398675 Z-1.000000 I-2.260075 J-0.000000
G03 X26.710651 Y28.035752 Z-1.000000 I-1.409338 J-0.699370
G03 X25.860598 Y28.392446 Z-1.000000 I-1.425746 J-2.206515
G03 X24.402370 Y28.554189 Z-1.000000 I-1.458228 J-6.492592
G03 X22.805459 Y28.261003 Z-1.000000 I-0.000000 J-4.495583
G03 X21.933620 Y27.616064 Z-1.000000 I0.712439 J-1.874839
G03 X21.628284 Y27.055345 Z-1.000000 I1.507203 J-1.184233
G03 X21.402838 Y26.073095 Z-1.000000 I4.516022 J-1.553514
G01 X19.329088 Y26.073095 Z-1.000000
G02 X19.842093 Y28.259753 Z-1.000000 I5.509838 J-0.139140
G02 X20.909088 Y29.467627 Z-1.000000 I2.572818 J-1.197530
G02 X22.514281 Y30.171850 Z-1.000000 I3.163310 J-5.028853
G02 X24.451745 Y30.430439 Z-1.000000 I1.937464 J-7.128879
G02 X26.711257 Y30.169027 Z-1.000000 I0.000000 J-9.895718
G02 X28.241276 Y29.541689 Z-1.000000 I-1.194236 J-5.092089
G02 X29.280545 Y28.426655 Z-1.000000 I-1.503490 J-2.443172
G02 X29.685495 Y26.776689 Z-1.000000 I-3.158908 J-1.649966
G01 X29.685495 Y19.160595 Z-1.000000
G03 X29.725695 Y18.826842 Z-1.000000 I1.405558 J0.000000
G03 X29.821276 Y18.605126 Z-1.000000 I0.704304 J0.172163
G03 X30.006083 Y18.466077 Z-1.000000 I0.308632 J0.217858
G03 X30.426120 Y18.395283 Z-1.000000 I0.420037 J1.210700
G03 X30.574154 Y18.398023 Z-1.000000 I-0.000000 J4.000864
G03 X30.759401 Y18.407623 Z-1.000000 I-0.232358 J6.275580
G03 X30.944236 Y18.434384 Z-1.000000 I-1.100352 J8.251794
G03 X31.154401 Y18.469343 Z-1.000000 I-1.672475 J10.703624
G01 X31.154401 Y16.827624 Z-1.000000
G02 X30.633298 Y16.692198 Z-1.000000 I-3.076660 J10.768299
G02 X30.364401 Y16.642468 Z-1.000000 I-0.659225 J2.812696
G02 X30.092044 Y16.617137 Z-1.000000 I-0.432038 J3.168388
G02 X29.623776 Y16.605438 Z-1.000000 I-0.468268 J9.365677
G02 X28.605174 Y16.841102 Z-1.000000 I-0.000000 J2.319169
G02 X27.957370 Y17.420125 Z-1.000000 I0.703476 J1.438928
G02 X27.747599 Y17.874743 Z-1.000000 I1.649457 J1.036802
G02 X27.574713 Y18.642157 Z-1.000000 I4.589544 J1.437132
G02 X26.806198 Y17.860477 Z-1.000000 I-3.505386 J2.677725
G02 X25.624401 Y17.099188 Z-1.000000 I-4.501042 J5.689315
G02 X24.311452 Y16.616498 Z-1.000000 I-2.609854 J5.071978
G02 X22.822370 Y16.444969 Z-1.000000 I-1.489082 J6.377765
G02 X21.105313 Y16.751544 Z-1.000000 I-0.000000 J4.961708
G02 X19.810494 Y17.555907 Z-1.000000 I1.311413 J3.555386
G02 X18.958074 Y18.809656 Z-1.000000 I2.596236 J2.681826
G02 X18.650182 Y20.357938 Z-1.000000 I3.738939 J1.548282
G02 X18.977855 Y22.049218 Z-1.000000 I4.528593 J-0.000000
G02 X19.798151 Y23.209344 Z-1.000000 I2.857581 J-1.150455
G02 X21.050499 Y23.990222 Z-1.000000 I2.969777 J-3.368158
G02 X22.810026 Y24.456063 Z-1.000000 I2.612198 J-6.310654
G01 X26.352682 Y24.900439 Z-1.000000
G00 Z5.000000

(End cutting path id: text636)


(Start cutting path id: text636)
(Change tool to Default tool)

G00 Z5.000000
G00 X20.970807 Y20.407314

G01 Z-1.000000 F100.0(Penetrate)
G03 X21.162570 Y19.537430 Z-1.000000 I2.068880 J-0.000000 F3500.000000
G03 X21.674401 Y18.889033 Z-1.000000 I1.614330 J0.748104
G03 X22.429344 Y18.481474 Z-1.000000 I1.541763 J1.952899
G03 X23.340807 Y18.333564 Z-1.000000 I0.911463 J2.734388
G03 X24.482019 Y18.468116 Z-1.000000 I0.000000 J4.906895
G03 X25.612057 Y18.876689 Z-1.000000 I-1.247901 J5.218495
G03 X26.963842 Y20.090378 Z-1.000000 I-1.444871 J2.968914
G03 X27.463620 Y21.826845 Z-1.000000 I-2.766770 J1.736467
G01 X27.463620 Y23.616689 Z-1.000000
G02 X27.039126 Y23.396411 Z-1.000000 I-1.459722 J2.293848
G02 X26.414401 Y23.184658 Z-1.000000 I-1.969448 J4.782950
G02 X25.768142 Y23.034493 Z-1.000000 I-2.486845 J9.236825
G02 X25.155338 Y22.937783 Z-1.000000 I-1.609283 J8.207348
G01 X23.809870 Y22.764970 Z-1.000000
G03 X22.627709 Y22.522945 Z-1.000000 I1.133410 J-8.544208
G03 X21.995338 Y22.258877 Z-1.000000 I0.746834 J-2.677678
G03 X21.256156 Y21.512381 Z-1.000000 I0.952902 J-1.682782
G03 X20.970807 Y20.407314 Z-1.000000 I1.997109 J-1.105067
G01 X20.970807 Y20.407314 Z-1.000000
G00 Z5.000000

(End cutting path id: text636)


(Start cutting path id: text636)
(Change tool to Default tool)

G00 Z5.000000
G00 X33.388618 Y30.109502

G01 Z-1.000000 F100.0(Penetrate)
G01 X35.499400 Y30.109502 Z-1.000000 F3500.000000
G01 X35.499400 Y27.825908 Z-1.000000
G02 X35.846101 Y28.433405 Z-1.000000 I2.214798 J-0.861312
G02 X36.770806 Y29.442939 Z-1.000000 I7.156314 J-5.626720
G02 X37.879952 Y30.163141 Z-1.000000 I2.484155 J-2.611548
G02 X39.103775 Y30.405752 Z-1.000000 I1.223823 J-2.965416
G02 X39.165420 Y30.403940 Z-1.000000 I-0.000000 J-1.049751
G02 X39.313619 Y30.393408 Z-1.000000 I-0.357775 J-6.082065
G02 X39.461646 Y30.380020 Z-1.000000 I-0.874781 J-10.497161
G02 X39.819712 Y30.344033 Z-1.000000 I-5.995995 J-61.458858
G01 X39.819712 Y27.998720 Z-1.000000
G03 X39.621533 Y28.030486 Z-1.000000 I-0.700551 J-3.736396
G03 X39.449400 Y28.048090 Z-1.000000 I-0.373369 J-2.800544
G03 X39.288800 Y28.057029 Z-1.000000 I-0.291645 J-3.792549
G03 X39.091431 Y28.060430 Z-1.000000 I-0.197369 J-5.725457
G03 X37.558130 Y27.750793 Z-1.000000 I0.000000 J-3.951227
G03 X36.511587 Y26.974180 Z-1.000000 I1.064262 J-2.527623
G03 X35.843211 Y25.815573 Z-1.000000 I2.944654 J-2.470800
G03 X35.610494 Y24.493086 Z-1.000000 I3.641373 J-1.322488
G01 X35.610494 Y16.889336 Z-1.000000
G01 X33.388618 Y16.889336 Z-1.000000
G01 X33.388618 Y30.109502 Z-1.000000
G00 Z5.000000

(End cutting path id: text636)


(Footer)
M5
G00 X0.0000 Y0.0000
M2
(Using default footer. To add your own footer create file "footer" in the output dir.)
(end)
%