%
(Header)
(Generated by gcodetools from Inkscape.)
(Using default header. To add your own header create file "header" in the output dir.)
M3
(Header end.)
G21 (All units in mm)

(Start cutting path id: text174012)
(Change tool to Default tool)

G00 Z 5.0000
G00 X 13.1815 Y 30.0811

G01 Z -1.0000 F 100.0000(Penetrate)
G02 X 11.9328 Y 29.3285 Z -1.0000 I -2.4926 J 2.7237 F 3500.0000
G02 X 10.2738 Y 29.0406 Z -1.0000 I -1.6589 J 4.6362
G02 X 8.2597 Y 29.4357 Z -1.0000 I 0.0000 J 5.3316
G02 X 6.8287 Y 30.4462 Z -1.0000 I 1.4673 J 3.5962
G02 X 5.9411 Y 31.9979 Z -1.0000 I 3.2611 J 2.8952
G02 X 5.5747 Y 34.3185 Z -1.0000 I 7.1659 J 2.3206
G02 X 5.9949 Y 36.8053 Z -1.0000 I 7.5681 J -0.0000
G02 X 7.0010 Y 38.4182 Z -1.0000 I 4.0610 J -1.4128
G02 X 8.3830 Y 39.3327 Z -1.0000 I 2.8755 J -2.8439
G02 X 10.1567 Y 39.6722 Z -1.0000 I 1.7737 J -4.4636
G02 X 12.4638 Y 39.1785 Z -1.0000 I -0.0000 J -5.6375
G02 X 13.9050 Y 37.9910 Z -1.0000 I -1.4452 J -3.2221
G02 X 14.4218 Y 37.0001 Z -1.0000 I -3.6667 J -2.5426
G02 X 14.6078 Y 36.0962 Z -1.0000 I -2.8525 J -1.0580
G01 X 12.4856 Y 36.0962 Z -1.0000
G03 X 12.2208 Y 36.7951 Z -1.0000 I -4.1686 J -1.1798
G03 X 11.9550 Y 37.1986 Z -1.0000 I -1.6314 J -0.7851
G03 X 11.2877 Y 37.6650 Z -1.0000 I -1.2784 J -1.1186
G03 X 10.2394 Y 37.8601 Z -1.0000 I -1.0484 J -2.7192
G03 X 9.2099 Y 37.6113 Z -1.0000 I -0.0000 J -2.2546
G03 X 8.4135 Y 36.9230 Z -1.0000 I 1.0171 J -1.9818
G03 X 7.9499 Y 35.9269 Z -1.0000 I 2.3934 J -1.7197
G03 X 7.7451 Y 34.2841 Z -1.0000 I 6.4866 J -1.6428
G03 X 7.9646 Y 32.6540 Z -1.0000 I 6.1645 J 0.0000
G03 X 8.4479 Y 31.7209 Z -1.0000 I 2.4265 J 0.6653
G03 X 9.2606 Y 31.0940 Z -1.0000 I 1.8305 J 1.5329
G03 X 10.2463 Y 30.8734 Z -1.0000 I 0.9856 J 2.0915
G03 X 11.2623 Y 31.0822 Z -1.0000 I 0.0000 J 2.5763
G03 X 11.9481 Y 31.6038 Z -1.0000 I -0.7011 J 1.6338
G03 X 12.2128 Y 32.0271 Z -1.0000 I -1.4768 J 1.2177
G03 X 12.4856 Y 32.7820 Z -1.0000 I -4.5005 J 2.0529
G01 X 14.5871 Y 32.7820 Z -1.0000
G02 X 14.0754 Y 31.2491 Z -1.0000 I -5.0763 J 0.8425
G02 X 13.1815 Y 30.0811 Z -1.0000 I -3.7811 J 1.9677
G01 X 13.1815 Y 30.0811 Z -1.0000
G00 Z 5.0000

(End cutting path id: text174012)


(Start cutting path id: text174012)
(Change tool to Default tool)

G00 Z 5.0000
G00 X 21.5600 Y 33.1610

G01 Z -1.0000 F 100.0000(Penetrate)
G01 X 20.2922 Y 37.1573 Z -1.0000 F 3500.0000
G01 X 18.9830 Y 33.1610 Z -1.0000
G01 X 21.5600 Y 33.1610 Z -1.0000
G00 Z 5.0000

(End cutting path id: text174012)


(Start cutting path id: text174012)
(Change tool to Default tool)

G00 Z 5.0000
G00 X 22.1525 Y 31.4109

G01 Z -1.0000 F 100.0000(Penetrate)
G01 X 18.4111 Y 31.4109 Z -1.0000 F 3500.0000
G01 X 17.7083 Y 29.3231 Z -1.0000
G01 X 15.4897 Y 29.3231 Z -1.0000
G01 X 19.1139 Y 39.4793 Z -1.0000
G01 X 21.5117 Y 39.4793 Z -1.0000
G01 X 25.1084 Y 29.3231 Z -1.0000
G01 X 22.8071 Y 29.3231 Z -1.0000
G01 X 22.1525 Y 31.4109 Z -1.0000
G00 Z 5.0000

(End cutting path id: text174012)


(Start cutting path id: text174012)
(Change tool to Default tool)

G00 Z 5.0000
G00 X 30.7101 Y 33.3057

G01 Z -1.0000 F 100.0000(Penetrate)
G01 X 28.5190 Y 33.3057 Z -1.0000 F 3500.0000
G01 X 28.5190 Y 29.3231 Z -1.0000
G01 X 26.4451 Y 29.3231 Z -1.0000
G01 X 26.4451 Y 39.4793 Z -1.0000
G01 X 31.4267 Y 39.4793 Z -1.0000
G02 X 32.4792 Y 39.3855 Z -1.0000 I -0.1472 J -7.6077
G02 X 33.0666 Y 39.2174 Z -1.0000 I -0.4011 J -2.5123
G02 X 33.6022 Y 38.9170 Z -1.0000 I -1.0171 J -2.4410
G02 X 34.0450 Y 38.5078 Z -1.0000 I -1.4970 J -2.0638
G02 X 34.3412 Y 38.1008 Z -1.0000 I -2.4097 J -2.0655
G02 X 34.5686 Y 37.6534 Z -1.0000 I -2.6899 J -1.6487
G02 X 34.7088 Y 37.1744 Z -1.0000 I -2.1819 J -0.8984
G02 X 34.7616 Y 36.5854 Z -1.0000 I -3.2606 J -0.5890
G02 X 34.6731 Y 35.8835 Z -1.0000 I -2.8297 J 0.0000
G02 X 34.3964 Y 35.1591 Z -1.0000 I -3.2940 J 0.8434
G02 X 33.9272 Y 34.5843 Z -1.0000 I -1.6437 J 0.8625
G02 X 33.1906 Y 34.1738 Z -1.0000 I -1.5171 J 1.8566
G02 X 33.8170 Y 33.8049 Z -1.0000 I -0.9068 J -2.2559
G02 X 34.1828 Y 33.3677 Z -1.0000 I -0.9429 J -1.1605
G02 X 34.3825 Y 32.8252 Z -1.0000 I -1.5007 J -0.8604
G02 X 34.4791 Y 31.7829 Z -1.0000 I -5.5748 J -1.0423
G01 X 34.4791 Y 31.1008 Z -1.0000
G03 X 34.4993 Y 30.4071 Z -1.0000 I 11.9000 J -0.0000
G03 X 34.5342 Y 30.1569 Z -1.0000 I 1.5750 J 0.0920
G03 X 34.6804 Y 29.8089 Z -1.0000 I 0.9765 J 0.2056
G03 X 34.9200 Y 29.5781 Z -1.0000 I 0.6452 J 0.4302
G01 X 34.9200 Y 29.3231 Z -1.0000
G01 X 32.5843 Y 29.3231 Z -1.0000
G02 X 32.4930 Y 29.6620 Z -1.0000 I 11.1237 J 3.1781
G02 X 32.4464 Y 29.8675 Z -1.0000 I 4.0405 J 1.0229
G02 X 32.3831 Y 30.2967 Z -1.0000 I 4.7780 J 0.9248
G02 X 32.3569 Y 30.7425 Z -1.0000 I 5.1309 J 0.5252
G01 X 32.3431 Y 31.6865 Z -1.0000
G03 X 32.2116 Y 32.6061 Z -1.0000 I -3.6431 J -0.0517
G03 X 31.9848 Y 32.9818 Z -1.0000 I -0.7838 J -0.2168
G03 X 31.6023 Y 33.1941 Z -1.0000 I -0.5936 J -0.6189
G03 X 30.7101 Y 33.3057 Z -1.0000 I -0.8922 J -3.5119
G01 X 30.7101 Y 33.3057 Z -1.0000
G00 Z 5.0000

(End cutting path id: text174012)


(Start cutting path id: text174012)
(Change tool to Default tool)

G00 Z 5.0000
G00 X 31.9986 Y 35.1522

G01 Z -1.0000 F 100.0000(Penetrate)
G03 X 32.4430 Y 35.5634 Z -1.0000 I -0.4018 J 0.8802 F 3500.0000
G03 X 32.6325 Y 36.2960 Z -1.0000 I -1.3219 J 0.7326
G03 X 32.4436 Y 37.1043 Z -1.0000 I -1.8236 J 0.0000
G03 X 32.0193 Y 37.5362 Z -1.0000 I -0.8699 J -0.4301
G03 X 31.6606 Y 37.6573 Z -1.0000 I -0.5695 J -1.0953
G03 X 30.9857 Y 37.7154 Z -1.0000 I -0.6748 J -3.8932
G01 X 28.5190 Y 37.7154 Z -1.0000
G01 X 28.5190 Y 34.9869 Z -1.0000
G01 X 30.9237 Y 34.9869 Z -1.0000
G03 X 31.6285 Y 35.0408 Z -1.0000 I 0.0000 J 4.6347
G03 X 31.9986 Y 35.1522 Z -1.0000 I -0.2108 J 1.3701
G01 X 31.9986 Y 35.1522 Z -1.0000
G00 Z 5.0000

(End cutting path id: text174012)



(Footer)
M5
G00 X0.0000 Y0.0000
M2
(Using default footer. To add your own footer create file "footer" in the output dir.)
(end)
%