%
(Header)
(Generated by gcodetools from Inkscape.)
(Using default header. To add your own header create file "header" in the output dir.)
M3
(Header end.)
G21 (All units in mm)

(Start cutting path id: text166068)
(Change tool to Default tool)

G00 Z 5.0000
G00 X 8.3502 Y 30.1302

G01 Z -1.0000 F 100.0000(Penetrate)
G02 X 7.1015 Y 29.3777 Z -1.0000 I -2.4926 J 2.7237 F 3500.0000
G02 X 5.4426 Y 29.0898 Z -1.0000 I -1.6589 J 4.6362
G02 X 3.4285 Y 29.4849 Z -1.0000 I 0.0000 J 5.3316
G02 X 1.9975 Y 30.4954 Z -1.0000 I 1.4673 J 3.5962
G02 X 1.1099 Y 32.0471 Z -1.0000 I 3.2611 J 2.8952
G02 X 0.7435 Y 34.3677 Z -1.0000 I 7.1659 J 2.3206
G02 X 1.1637 Y 36.8544 Z -1.0000 I 7.5681 J -0.0000
G02 X 2.1697 Y 38.4674 Z -1.0000 I 4.0610 J -1.4128
G02 X 3.5517 Y 39.3819 Z -1.0000 I 2.8755 J -2.8439
G02 X 5.3254 Y 39.7214 Z -1.0000 I 1.7737 J -4.4636
G02 X 7.6326 Y 39.2277 Z -1.0000 I -0.0000 J -5.6375
G02 X 9.0737 Y 38.0402 Z -1.0000 I -1.4452 J -3.2221
G02 X 9.5905 Y 37.0493 Z -1.0000 I -3.6667 J -2.5426
G02 X 9.7765 Y 36.1454 Z -1.0000 I -2.8525 J -1.0580
G01 X 7.6543 Y 36.1454 Z -1.0000
G03 X 7.3895 Y 36.8443 Z -1.0000 I -4.1687 J -1.1798
G03 X 7.1238 Y 37.2478 Z -1.0000 I -1.6314 J -0.7851
G03 X 6.4565 Y 37.7142 Z -1.0000 I -1.2784 J -1.1186
G03 X 5.4081 Y 37.9092 Z -1.0000 I -1.0484 J -2.7192
G03 X 4.3787 Y 37.6605 Z -1.0000 I -0.0000 J -2.2546
G03 X 3.5822 Y 36.9722 Z -1.0000 I 1.0171 J -1.9818
G03 X 3.1187 Y 35.9761 Z -1.0000 I 2.3934 J -1.7197
G03 X 2.9139 Y 34.3332 Z -1.0000 I 6.4866 J -1.6428
G03 X 3.1333 Y 32.7031 Z -1.0000 I 6.1645 J 0.0000
G03 X 3.6167 Y 31.7701 Z -1.0000 I 2.4265 J 0.6653
G03 X 4.4294 Y 31.1432 Z -1.0000 I 1.8305 J 1.5329
G03 X 5.4150 Y 30.9226 Z -1.0000 I 0.9856 J 2.0915
G03 X 6.4310 Y 31.1314 Z -1.0000 I -0.0000 J 2.5763
G03 X 7.1169 Y 31.6530 Z -1.0000 I -0.7011 J 1.6338
G03 X 7.3816 Y 32.0763 Z -1.0000 I -1.4768 J 1.2177
G03 X 7.6543 Y 32.8312 Z -1.0000 I -4.5005 J 2.0529
G01 X 9.7558 Y 32.8312 Z -1.0000
G02 X 9.2442 Y 31.2982 Z -1.0000 I -5.0763 J 0.8425
G02 X 8.3502 Y 30.1302 Z -1.0000 I -3.7811 J 1.9677
G01 X 8.3502 Y 30.1302 Z -1.0000
G00 Z 5.0000

(End cutting path id: text166068)


(Start cutting path id: text166068)
(Change tool to Default tool)

G00 Z 5.0000
G00 X 16.7287 Y 33.2101

G01 Z -1.0000 F 100.0000(Penetrate)
G01 X 15.4609 Y 37.2064 Z -1.0000 F 3500.0000
G01 X 14.1518 Y 33.2101 Z -1.0000
G01 X 16.7287 Y 33.2101 Z -1.0000
G00 Z 5.0000

(End cutting path id: text166068)


(Start cutting path id: text166068)
(Change tool to Default tool)

G00 Z 5.0000
G00 X 17.3212 Y 31.4600

G01 Z -1.0000 F 100.0000(Penetrate)
G01 X 13.5799 Y 31.4600 Z -1.0000 F 3500.0000
G01 X 12.8771 Y 29.3723 Z -1.0000
G01 X 10.6584 Y 29.3723 Z -1.0000
G01 X 14.2827 Y 39.5284 Z -1.0000
G01 X 16.6805 Y 39.5284 Z -1.0000
G01 X 20.2771 Y 29.3723 Z -1.0000
G01 X 17.9758 Y 29.3723 Z -1.0000
G01 X 17.3212 Y 31.4600 Z -1.0000
G00 Z 5.0000

(End cutting path id: text166068)


(Start cutting path id: text166068)
(Change tool to Default tool)

G00 Z 5.0000
G00 X 30.5642 Y 29.3723

G01 Z -1.0000 F 100.0000(Penetrate)
G01 X 27.8357 Y 29.3723 Z -1.0000 F 3500.0000
G01 X 24.7006 Y 33.8096 Z -1.0000
G01 X 23.6878 Y 32.7692 Z -1.0000
G01 X 23.6878 Y 29.3723 Z -1.0000
G01 X 21.6001 Y 29.3723 Z -1.0000
G01 X 21.6001 Y 39.5284 Z -1.0000
G01 X 23.6878 Y 39.5284 Z -1.0000
G01 X 23.6878 Y 35.3461 Z -1.0000
G01 X 27.6083 Y 39.5284 Z -1.0000
G01 X 30.3506 Y 39.5284 Z -1.0000
G01 X 26.1889 Y 35.3461 Z -1.0000
G01 X 30.5642 Y 29.3723 Z -1.0000
G00 Z 5.0000

(End cutting path id: text166068)


(Start cutting path id: text166068)
(Change tool to Default tool)

G00 Z 5.0000
G00 X 38.8255 Y 33.8096

G01 Z -1.0000 F 100.0000(Penetrate)
G01 X 33.8921 Y 33.8096 Z -1.0000 F 3500.0000
G01 X 33.8921 Y 31.1982 Z -1.0000
G01 X 39.5145 Y 31.1982 Z -1.0000
G01 X 39.5145 Y 29.3723 Z -1.0000
G01 X 31.8182 Y 29.3723 Z -1.0000
G01 X 31.8182 Y 39.5284 Z -1.0000
G01 X 39.2665 Y 39.5284 Z -1.0000
G01 X 39.2665 Y 37.7301 Z -1.0000
G01 X 33.8921 Y 37.7301 Z -1.0000
G01 X 33.8921 Y 35.5735 Z -1.0000
G01 X 38.8255 Y 35.5735 Z -1.0000
G01 X 38.8255 Y 33.8096 Z -1.0000
G00 Z 5.0000

(End cutting path id: text166068)



(Footer)
M5
G00 X0.0000 Y0.0000
M2
(Using default footer. To add your own footer create file "footer" in the output dir.)
(end)
%