%
(Header)
(Generated by gcodetools from Inkscape.)
(Using default header. To add your own header create file "header" in the output dir.)
M3
(Header end.)
G21 (All units in mm)

(Start cutting path id: text51051)
(Change tool to Default tool)

G00 Z 5.0000
G00 X 3.8518 Y 35.4609

G01 Z -1.0000 F 100.0000(Penetrate)
G02 X 3.2750 Y 35.1134 Z -1.0000 I -1.1512 J 1.2579 F 3500.0000
G02 X 2.5088 Y 34.9804 Z -1.0000 I -0.7662 J 2.1413
G02 X 1.5786 Y 35.1629 Z -1.0000 I 0.0000 J 2.4624
G02 X 0.9177 Y 35.6296 Z -1.0000 I 0.6777 J 1.6609
G02 X 0.5078 Y 36.3462 Z -1.0000 I 1.5061 J 1.3371
G02 X 0.3386 Y 37.4180 Z -1.0000 I 3.3096 J 1.0718
G02 X 0.5326 Y 38.5665 Z -1.0000 I 3.4953 J 0.0000
G02 X 0.9973 Y 39.3114 Z -1.0000 I 1.8756 J -0.6525
G02 X 1.6355 Y 39.7338 Z -1.0000 I 1.3280 J -1.3134
G02 X 2.4547 Y 39.8906 Z -1.0000 I 0.8192 J -2.0615
G02 X 3.5203 Y 39.6626 Z -1.0000 I -0.0000 J -2.6037
G02 X 4.1859 Y 39.1141 Z -1.0000 I -0.6675 J -1.4881
G02 X 4.4246 Y 38.6565 Z -1.0000 I -1.6935 J -1.1743
G02 X 4.5105 Y 38.2390 Z -1.0000 I -1.3174 J -0.4886
G01 X 3.5303 Y 38.2390 Z -1.0000
G03 X 3.4080 Y 38.5618 Z -1.0000 I -1.9253 J -0.5449
G03 X 3.2853 Y 38.7482 Z -1.0000 I -0.7535 J -0.3626
G03 X 2.9771 Y 38.9636 Z -1.0000 I -0.5904 J -0.5166
G03 X 2.4929 Y 39.0537 Z -1.0000 I -0.4842 J -1.2559
G03 X 2.0175 Y 38.9388 Z -1.0000 I 0.0000 J -1.0413
G03 X 1.6496 Y 38.6209 Z -1.0000 I 0.4697 J -0.9153
G03 X 1.4355 Y 38.1608 Z -1.0000 I 1.1054 J -0.7942
G03 X 1.3410 Y 37.4021 Z -1.0000 I 2.9958 J -0.7587
G03 X 1.4423 Y 36.6492 Z -1.0000 I 2.8471 J -0.0000
G03 X 1.6656 Y 36.2183 Z -1.0000 I 1.1207 J 0.3073
G03 X 2.0409 Y 35.9288 Z -1.0000 I 0.8454 J 0.7080
G03 X 2.4961 Y 35.8269 Z -1.0000 I 0.4552 J 0.9660
G03 X 2.9654 Y 35.9233 Z -1.0000 I 0.0000 J 1.1899
G03 X 3.2821 Y 36.1642 Z -1.0000 I -0.3238 J 0.7546
G03 X 3.4044 Y 36.3597 Z -1.0000 I -0.6821 J 0.5624
G03 X 3.5303 Y 36.7084 Z -1.0000 I -2.0786 J 0.9481
G01 X 4.5009 Y 36.7084 Z -1.0000
G02 X 4.2646 Y 36.0004 Z -1.0000 I -2.3445 J 0.3891
G02 X 3.8518 Y 35.4609 Z -1.0000 I -1.7463 J 0.9088
G01 X 3.8518 Y 35.4609 Z -1.0000
G00 Z 5.0000

(End cutting path id: text51051)


(Start cutting path id: text51051)
(Change tool to Default tool)

G00 Z 5.0000
G00 X 8.5137 Y 37.1602

G01 Z -1.0000 F 100.0000(Penetrate)
G01 X 6.2352 Y 37.1602 Z -1.0000 F 3500.0000
G01 X 6.2352 Y 35.9542 Z -1.0000
G01 X 8.8320 Y 35.9542 Z -1.0000
G01 X 8.8320 Y 35.1109 Z -1.0000
G01 X 5.2774 Y 35.1109 Z -1.0000
G01 X 5.2774 Y 39.8015 Z -1.0000
G01 X 8.7174 Y 39.8015 Z -1.0000
G01 X 8.7174 Y 38.9709 Z -1.0000
G01 X 6.2352 Y 38.9709 Z -1.0000
G01 X 6.2352 Y 37.9749 Z -1.0000
G01 X 8.5137 Y 37.9749 Z -1.0000
G01 X 8.5137 Y 37.1602 Z -1.0000
G00 Z 5.0000

(End cutting path id: text51051)


(Start cutting path id: text51051)
(Change tool to Default tool)

G00 Z 5.0000
G00 X 9.5957 Y 39.8015

G01 Z -1.0000 F 100.0000(Penetrate)
G01 X 10.5758 Y 39.8015 Z -1.0000 F 3500.0000
G01 X 10.5758 Y 35.9542 Z -1.0000
G01 X 12.8989 Y 35.9542 Z -1.0000
G01 X 12.8989 Y 35.1109 Z -1.0000
G01 X 9.5957 Y 35.1109 Z -1.0000
G01 X 9.5957 Y 39.8015 Z -1.0000
G00 Z 5.0000

(End cutting path id: text51051)


(Start cutting path id: text51051)
(Change tool to Default tool)

G00 Z 5.0000
G00 X 13.5767 Y 39.8015

G01 Z -1.0000 F 100.0000(Penetrate)
G01 X 14.5568 Y 39.8015 Z -1.0000 F 3500.0000
G01 X 14.5568 Y 35.9542 Z -1.0000
G01 X 16.8798 Y 35.9542 Z -1.0000
G01 X 16.8798 Y 35.1109 Z -1.0000
G01 X 13.5767 Y 35.1109 Z -1.0000
G01 X 13.5767 Y 39.8015 Z -1.0000
G00 Z 5.0000

(End cutting path id: text51051)


(Start cutting path id: text51051)
(Change tool to Default tool)

G00 Z 5.0000
G00 X 19.5497 Y 36.7975

G01 Z -1.0000 F 100.0000(Penetrate)
G01 X 18.5537 Y 36.7975 Z -1.0000 F 3500.0000
G01 X 18.5537 Y 35.1109 Z -1.0000
G01 X 17.5799 Y 35.1109 Z -1.0000
G01 X 17.5799 Y 39.8015 Z -1.0000
G01 X 19.6229 Y 39.8015 Z -1.0000
G02 X 20.2904 Y 39.6967 Z -1.0000 I 0.0000 J -2.1775
G02 X 20.7495 Y 39.4387 Z -1.0000 I -0.4054 J -1.2589
G02 X 21.0425 Y 39.0178 Z -1.0000 I -0.6767 J -0.7835
G02 X 21.1695 Y 38.3154 Z -1.0000 I -1.8784 J -0.7024
G02 X 21.0364 Y 37.5479 Z -1.0000 I -2.2786 J 0.0000
G02 X 20.7495 Y 37.1412 Z -1.0000 I -0.8762 J 0.3134
G02 X 20.2922 Y 36.9017 Z -1.0000 I -0.8092 J 0.9890
G02 X 19.5497 Y 36.7975 Z -1.0000 I -0.7424 J 2.5917
G01 X 19.5497 Y 36.7975 Z -1.0000
G00 Z 5.0000

(End cutting path id: text51051)


(Start cutting path id: text51051)
(Change tool to Default tool)

G00 Z 5.0000
G00 X 20.0080 Y 37.7744

G01 Z -1.0000 F 100.0000(Penetrate)
G03 X 20.1401 Y 37.9696 Z -1.0000 I -0.3128 J 0.3541 F 3500.0000
G03 X 20.1989 Y 38.3090 Z -1.0000 I -0.9504 J 0.3394
G03 X 20.1383 Y 38.6459 Z -1.0000 I -0.9664 J -0.0000
G03 X 20.0048 Y 38.8309 Z -1.0000 I -0.4023 J -0.1496
G03 X 19.7972 Y 38.9400 Z -1.0000 I -0.3710 J -0.4542
G03 X 19.4670 Y 38.9869 Z -1.0000 I -0.3301 J -1.1387
G01 X 18.5537 Y 38.9869 Z -1.0000
G01 X 18.5537 Y 37.6058 Z -1.0000
G01 X 19.4670 Y 37.6058 Z -1.0000
G03 X 19.7952 Y 37.6557 Z -1.0000 I -0.0000 J 1.1026
G03 X 20.0080 Y 37.7744 Z -1.0000 I -0.1768 J 0.5671
G01 X 20.0080 Y 37.7744 Z -1.0000
G00 Z 5.0000

(End cutting path id: text51051)


(Start cutting path id: text51051)
(Change tool to Default tool)

G00 Z 5.0000
G00 X 24.7018 Y 35.1109

G01 Z -1.0000 F 100.0000(Penetrate)
G01 X 24.7018 Y 37.2048 Z -1.0000 F 3500.0000
G01 X 22.8688 Y 37.2048 Z -1.0000
G01 X 22.8688 Y 35.1109 Z -1.0000
G01 X 21.8982 Y 35.1109 Z -1.0000
G01 X 21.8982 Y 39.8015 Z -1.0000
G01 X 22.8688 Y 39.8015 Z -1.0000
G01 X 22.8688 Y 38.0131 Z -1.0000
G01 X 24.7018 Y 38.0131 Z -1.0000
G01 X 24.7018 Y 39.8015 Z -1.0000
G01 X 25.6756 Y 39.8015 Z -1.0000
G01 X 25.6756 Y 35.1109 Z -1.0000
G01 X 24.7018 Y 35.1109 Z -1.0000
G00 Z 5.0000

(End cutting path id: text51051)


(Start cutting path id: text51051)
(Change tool to Default tool)

G00 Z 5.0000
G00 X 28.6860 Y 34.9804

G01 Z -1.0000 F 100.0000(Penetrate)
G02 X 27.7488 Y 35.1423 Z -1.0000 I 0.0000 J 2.7935 F 3500.0000
G02 X 27.1489 Y 35.5278 Z -1.0000 I 0.5268 J 1.4794
G02 X 26.6453 Y 36.2895 Z -1.0000 I 1.3666 J 1.4508
G02 X 26.4361 Y 37.4626 Z -1.0000 I 3.1839 J 1.1730
G02 X 26.6491 Y 38.6569 Z -1.0000 I 3.4549 J -0.0000
G02 X 27.1489 Y 39.3974 Z -1.0000 I 1.7577 J -0.6476
G02 X 27.7488 Y 39.7828 Z -1.0000 I 1.1267 J -1.0940
G02 X 28.6860 Y 39.9447 Z -1.0000 I 0.9371 J -2.6316
G02 X 29.6231 Y 39.7828 Z -1.0000 I 0.0000 J -2.7935
G02 X 30.2230 Y 39.3974 Z -1.0000 I -0.5268 J -1.4794
G02 X 30.7204 Y 38.6576 Z -1.0000 I -1.2603 J -1.3845
G02 X 30.9326 Y 37.4626 Z -1.0000 I -3.2581 J -1.1950
G02 X 30.7242 Y 36.2889 Z -1.0000 I -3.4083 J -0.0000
G02 X 30.2230 Y 35.5278 Z -1.0000 I -1.8706 J 0.6861
G02 X 29.6231 Y 35.1423 Z -1.0000 I -1.1267 J 1.0940
G02 X 28.6860 Y 34.9804 Z -1.0000 I -0.9371 J 2.6316
G01 X 28.6860 Y 34.9804 Z -1.0000
G00 Z 5.0000

(End cutting path id: text51051)


(Start cutting path id: text51051)
(Change tool to Default tool)

G00 Z 5.0000
G00 X 29.6120 Y 36.2406

G01 Z -1.0000 F 100.0000(Penetrate)
G03 X 29.8491 Y 36.7062 Z -1.0000 I -1.0345 J 0.8199 F 3500.0000
G03 X 29.9525 Y 37.4626 Z -1.0000 I -2.7144 J 0.7564
G03 X 29.8484 Y 38.2152 Z -1.0000 I -2.7733 J 0.0000
G03 X 29.6088 Y 38.6814 Z -1.0000 I -1.2698 J -0.3581
G03 X 29.2114 Y 38.9970 Z -1.0000 I -0.8643 J -0.6800
G03 X 28.6860 Y 39.1141 Z -1.0000 I -0.5255 J -1.1205
G03 X 28.1590 Y 38.9982 Z -1.0000 I 0.0000 J -1.2557
G03 X 27.7567 Y 38.6845 Z -1.0000 I 0.4710 J -1.0188
G03 X 27.5150 Y 38.2178 Z -1.0000 I 1.0226 J -0.8256
G03 X 27.4099 Y 37.4626 Z -1.0000 I 2.6607 J -0.7552
G03 X 27.5150 Y 36.7073 Z -1.0000 I 2.7658 J 0.0000
G03 X 27.7567 Y 36.2406 Z -1.0000 I 1.2643 J 0.3589
G03 X 28.1590 Y 35.9269 Z -1.0000 I 0.8733 J 0.7051
G03 X 28.6860 Y 35.8110 Z -1.0000 I 0.5270 J 1.1398
G03 X 29.2125 Y 35.9272 Z -1.0000 I 0.0000 J 1.2511
G03 X 29.6120 Y 36.2406 Z -1.0000 I -0.4670 J 1.0066
G01 X 29.6120 Y 36.2406 Z -1.0000
G00 Z 5.0000

(End cutting path id: text51051)


(Start cutting path id: text51051)
(Change tool to Default tool)

G00 Z 5.0000
G00 X 35.4737 Y 35.1109

G01 Z -1.0000 F 100.0000(Penetrate)
G01 X 34.4935 Y 35.1109 Z -1.0000 F 3500.0000
G01 X 32.5778 Y 38.4427 Z -1.0000
G01 X 32.5778 Y 35.1109 Z -1.0000
G01 X 31.6645 Y 35.1109 Z -1.0000
G01 X 31.6645 Y 39.8015 Z -1.0000
G01 X 32.6924 Y 39.8015 Z -1.0000
G01 X 34.5604 Y 36.5270 Z -1.0000
G01 X 34.5604 Y 39.8015 Z -1.0000
G01 X 35.4737 Y 39.8015 Z -1.0000
G01 X 35.4737 Y 35.1109 Z -1.0000
G00 Z 5.0000

(End cutting path id: text51051)


(Start cutting path id: text51051)
(Change tool to Default tool)

G00 Z 5.0000
G00 X 39.6520 Y 37.1602

G01 Z -1.0000 F 100.0000(Penetrate)
G01 X 37.3735 Y 37.1602 Z -1.0000 F 3500.0000
G01 X 37.3735 Y 35.9542 Z -1.0000
G01 X 39.9702 Y 35.9542 Z -1.0000
G01 X 39.9702 Y 35.1109 Z -1.0000
G01 X 36.4156 Y 35.1109 Z -1.0000
G01 X 36.4156 Y 39.8015 Z -1.0000
G01 X 39.8556 Y 39.8015 Z -1.0000
G01 X 39.8556 Y 38.9709 Z -1.0000
G01 X 37.3735 Y 38.9709 Z -1.0000
G01 X 37.3735 Y 37.9749 Z -1.0000
G01 X 39.6520 Y 37.9749 Z -1.0000
G01 X 39.6520 Y 37.1602 Z -1.0000
G00 Z 5.0000

(End cutting path id: text51051)



(Footer)
M5
G00 X0.0000 Y0.0000
M2
(Using default footer. To add your own footer create file "footer" in the output dir.)
(end)
%