%
(Header)
(Generated by gcodetools from Inkscape.)
(Using default header. To add your own header create file "header" in the output dir.)
M3
(Header end.)
G21 (All units in mm)

(Start cutting path id: text46)
(Change tool to Default tool)

G00 Z5.000000
G00 X7.199382 Y30.407934

G01 Z-1.000000 F100.0(Penetrate)
G02 X6.056110 Y29.718930 Z-1.000000 I-2.282102 J2.493689 F3500.000000
G02 X4.537258 Y29.455374 Z-1.000000 I-1.518852 J4.244741
G02 X2.693237 Y29.817081 Z-1.000000 I-0.000000 J4.881367
G02 X1.383083 Y30.742277 Z-1.000000 I1.343358 J3.292546
G02 X0.570416 Y32.162911 Z-1.000000 I2.985685 J2.650705
G02 X0.234963 Y34.287570 Z-1.000000 I6.560758 J2.124658
G02 X0.619693 Y36.564315 Z-1.000000 I6.928997 J-0.000000
G02 X1.540792 Y38.041038 Z-1.000000 I3.718117 J-1.293530
G02 X2.806057 Y38.878315 Z-1.000000 I2.632647 J-2.603717
G02 X4.430016 Y39.189157 Z-1.000000 I1.623959 J-4.086666
G02 X6.542320 Y38.737135 Z-1.000000 I-0.000000 J-5.161420
G02 X7.861758 Y37.649920 Z-1.000000 I-1.323183 J-2.950047
G02 X8.334928 Y36.742688 Z-1.000000 I-3.357093 J-2.327911
G02 X8.505210 Y35.915124 Z-1.000000 I-2.611626 J-0.968676
G01 X6.562238 Y35.915124 Z-1.000000
G03 X6.319791 Y36.555023 Z-1.000000 I-3.816640 J-1.080181
G03 X6.076495 Y36.924460 Z-1.000000 I-1.493611 J-0.718800
G03 X5.465542 Y37.351442 Z-1.000000 I-1.170410 J-1.024109
G03 X4.505716 Y37.530061 Z-1.000000 I-0.959826 J-2.489549
G03 X3.563208 Y37.302330 Z-1.000000 I0.000000 J-2.064236
G03 X2.834004 Y36.672126 Z-1.000000 I0.931194 J-1.814459
G03 X2.409600 Y35.760120 Z-1.000000 I2.191255 J-1.574457
G03 X2.222094 Y34.256028 Z-1.000000 I5.938839 J-1.504092
G03 X2.422997 Y32.763570 Z-1.000000 I5.643984 J0.000000
G03 X2.865545 Y31.909322 Z-1.000000 I2.221570 J0.609140
G03 X3.609615 Y31.335379 Z-1.000000 I1.675931 J1.403422
G03 X4.512025 Y31.133395 Z-1.000000 I0.902410 J1.914870
G03 X5.442232 Y31.324564 Z-1.000000 I0.000000 J2.358728
G03 X6.070187 Y31.802080 Z-1.000000 I-0.641931 J1.495822
G03 X6.312517 Y32.189683 Z-1.000000 I-1.352094 J1.114884
G03 X6.562238 Y32.880808 Z-1.000000 I-4.120456 J1.879506
G01 X8.486285 Y32.880808 Z-1.000000
G02 X8.017822 Y31.477324 Z-1.000000 I-4.647635 J0.771392
G02 X7.199382 Y30.407934 Z-1.000000 I-3.461809 J1.801554
G01 X7.199382 Y30.407934 Z-1.000000
G00 Z5.000000

(End cutting path id: text46)


(Start cutting path id: text46)
(Change tool to Default tool)

G00 Z5.000000
G00 X15.513787 Y29.714016

G01 Z-1.000000 F100.0(Penetrate)
G01 X15.513787 Y33.864910 Z-1.000000 F3500.000000
G01 X11.880177 Y33.864910 Z-1.000000
G01 X11.880177 Y29.714016 Z-1.000000
G01 X9.956131 Y29.714016 Z-1.000000
G01 X9.956131 Y39.012524 Z-1.000000
G01 X11.880177 Y39.012524 Z-1.000000
G01 X11.880177 Y35.467231 Z-1.000000
G01 X15.513787 Y35.467231 Z-1.000000
G01 X15.513787 Y39.012524 Z-1.000000
G01 X17.444142 Y39.012524 Z-1.000000
G01 X17.444142 Y29.714016 Z-1.000000
G01 X15.513787 Y29.714016 Z-1.000000
G00 Z5.000000

(End cutting path id: text46)


(Start cutting path id: text46)
(Change tool to Default tool)

G00 Z5.000000
G00 X24.200385 Y33.227767

G01 Z-1.000000 F100.0(Penetrate)
G01 X23.039648 Y36.886610 Z-1.000000 F3500.000000
G01 X21.841062 Y33.227767 Z-1.000000
G01 X24.200385 Y33.227767 Z-1.000000
G00 Z5.000000

(End cutting path id: text46)


(Start cutting path id: text46)
(Change tool to Default tool)

G00 Z5.000000
G00 X24.742903 Y31.625446

G01 Z-1.000000 F100.0(Penetrate)
G01 X21.317469 Y31.625446 Z-1.000000 F3500.000000
G01 X20.674017 Y29.714016 Z-1.000000
G01 X18.642728 Y29.714016 Z-1.000000
G01 X21.960920 Y39.012524 Z-1.000000
G01 X24.156226 Y39.012524 Z-1.000000
G01 X27.449185 Y29.714016 Z-1.000000
G01 X25.342196 Y29.714016 Z-1.000000
G01 X24.742903 Y31.625446 Z-1.000000
G00 Z5.000000

(End cutting path id: text46)


(Start cutting path id: text46)
(Change tool to Default tool)

G00 Z5.000000
G00 X28.477446 Y39.012524

G01 Z-1.000000 F100.0(Penetrate)
G01 X30.407801 Y39.012524 Z-1.000000 F3500.000000
G01 X30.407801 Y29.714016 Z-1.000000
G01 X28.477446 Y29.714016 Z-1.000000
G01 X28.477446 Y39.012524 Z-1.000000
G00 Z5.000000

(End cutting path id: text46)


(Start cutting path id: text46)
(Change tool to Default tool)

G00 Z5.000000
G00 X36.167324 Y33.360242

G01 Z-1.000000 F100.0(Penetrate)
G01 X34.161269 Y33.360242 Z-1.000000 F3500.000000
G01 X34.161269 Y29.714016 Z-1.000000
G01 X32.262456 Y29.714016 Z-1.000000
G01 X32.262456 Y39.012524 Z-1.000000
G01 X36.823393 Y39.012524 Z-1.000000
G02 X37.786982 Y38.926692 Z-1.000000 I-0.134812 J-6.965285
G02 X38.324780 Y38.772806 Z-1.000000 I-0.367250 J-2.300141
G02 X38.815151 Y38.497762 Z-1.000000 I-0.931199 J-2.234876
G02 X39.220565 Y38.123046 Z-1.000000 I-1.370575 J-1.889529
G02 X39.491802 Y37.750443 Z-1.000000 I-2.206215 J-1.891042
G02 X39.700000 Y37.340811 Z-1.000000 I-2.462785 J-1.509450
G02 X39.828317 Y36.902285 Z-1.000000 I-1.997690 J-0.822579
G02 X39.876634 Y36.363017 Z-1.000000 I-2.985231 J-0.539268
G02 X39.795675 Y35.720418 Z-1.000000 I-2.590727 J0.000000
G02 X39.542291 Y35.057188 Z-1.000000 I-3.015865 J0.772179
G02 X39.112775 Y34.530874 Z-1.000000 I-1.504877 J0.789687
G02 X38.438330 Y34.155094 Z-1.000000 I-1.388995 J1.699819
G02 X39.011821 Y33.817336 Z-1.000000 I-0.830200 J-2.065377
G02 X39.346732 Y33.417017 Z-1.000000 I-0.863246 J-1.062457
G02 X39.529556 Y32.920338 Z-1.000000 I-1.373943 J-0.787727
G02 X39.617991 Y31.966097 Z-1.000000 I-5.104082 J-0.954241
G01 X39.617991 Y31.341570 Z-1.000000
G03 X39.636520 Y30.706461 Z-1.000000 I10.894084 J0.000000
G03 X39.668461 Y30.477326 Z-1.000000 I1.441867 J0.084202
G03 X39.802314 Y30.158738 Z-1.000000 I0.894073 J0.188225
G03 X40.021729 Y29.947425 Z-1.000000 I0.590757 J0.393838
G01 X40.021729 Y29.714016 Z-1.000000
G01 X37.883195 Y29.714016 Z-1.000000
G02 X37.799620 Y30.024275 Z-1.000000 I10.181758 J2.909077
G02 X37.757028 Y30.212376 Z-1.000000 I3.698276 J0.936273
G02 X37.699007 Y30.605326 Z-1.000000 I4.374441 J0.846664
G02 X37.675020 Y31.013536 Z-1.000000 I4.697514 J0.480845
G01 X37.662403 Y31.877780 Z-1.000000
G03 X37.542020 Y32.719745 Z-1.000000 I-3.335465 J-0.047313
G03 X37.334369 Y33.063750 Z-1.000000 I-0.717589 J-0.198482
G03 X36.984192 Y33.258100 Z-1.000000 I-0.543508 J-0.566636
G03 X36.167324 Y33.360242 Z-1.000000 I-0.816868 J-3.215334
G01 X36.167324 Y33.360242 Z-1.000000
G00 Z5.000000

(End cutting path id: text46)


(Start cutting path id: text46)
(Change tool to Default tool)

G00 Z5.000000
G00 X37.346986 Y35.050880

G01 Z-1.000000 F100.0(Penetrate)
G03 X37.753911 Y35.427312 Z-1.000000 I-0.367886 J0.805846 F3500.000000
G03 X37.927354 Y36.098066 Z-1.000000 I-1.210273 J0.670753
G03 X37.754398 Y36.838086 Z-1.000000 I-1.669626 J-0.000000
G03 X37.365911 Y37.233569 Z-1.000000 I-0.796425 J-0.393788
G03 X37.037500 Y37.344436 Z-1.000000 I-0.521442 J-1.002775
G03 X36.419658 Y37.397586 Z-1.000000 I-0.617842 J-3.564474
G01 X34.161269 Y37.397586 Z-1.000000
G01 X34.161269 Y34.899479 Z-1.000000
G01 X36.362883 Y34.899479 Z-1.000000
G03 X37.008114 Y34.948822 Z-1.000000 I0.000000 J4.243343
G03 X37.346986 Y35.050880 Z-1.000000 I-0.192989 J1.254426
G01 X37.346986 Y35.050880 Z-1.000000
G00 Z5.000000

(End cutting path id: text46)


(Footer)
M5
G00 X0.0000 Y0.0000
M2
(Using default footer. To add your own footer create file "footer" in the output dir.)
(end)
%