%
(Header)
(Generated by gcodetools from Inkscape.)
(Using default header. To add your own header create file "header" in the output dir.)
M3
(Header end.)
G21 (All units in mm)

(Start cutting path id: text83260)
(Change tool to Default tool)

G00 Z 5.0000
G00 X 6.6289 Y 1.8118

G01 Z -1.0000 F 100.0000(Penetrate)
G02 X 5.6447 Y 1.2187 Z -1.0000 I -1.9644 J 2.1466 F 3500.0000
G02 X 4.3373 Y 0.9918 Z -1.0000 I -1.3074 J 3.6539
G02 X 2.7500 Y 1.3032 Z -1.0000 I 0.0000 J 4.2019
G02 X 1.6222 Y 2.0996 Z -1.0000 I 1.1564 J 2.8342
G02 X 0.9227 Y 3.3224 Z -1.0000 I 2.5701 J 2.2817
G02 X 0.6339 Y 5.1513 Z -1.0000 I 5.6475 J 1.8289
G02 X 0.9651 Y 7.1112 Z -1.0000 I 5.9645 J -0.0000
G02 X 1.7580 Y 8.3823 Z -1.0000 I 3.2006 J -1.1135
G02 X 2.8471 Y 9.1031 Z -1.0000 I 2.2662 J -2.2413
G02 X 4.2450 Y 9.3706 Z -1.0000 I 1.3979 J -3.5178
G02 X 6.0633 Y 8.9815 Z -1.0000 I -0.0000 J -4.4430
G02 X 7.1990 Y 8.0457 Z -1.0000 I -1.1390 J -2.5394
G02 X 7.6063 Y 7.2647 Z -1.0000 I -2.8898 J -2.0039
G02 X 7.7529 Y 6.5523 Z -1.0000 I -2.2481 J -0.8338
G01 X 6.0804 Y 6.5523 Z -1.0000
G03 X 5.8717 Y 7.1032 Z -1.0000 I -3.2854 J -0.9298
G03 X 5.6623 Y 7.4212 Z -1.0000 I -1.2857 J -0.6187
G03 X 5.1364 Y 7.7887 Z -1.0000 I -1.0075 J -0.8816
G03 X 4.3102 Y 7.9425 Z -1.0000 I -0.8262 J -2.1430
G03 X 3.4988 Y 7.7464 Z -1.0000 I 0.0000 J -1.7769
G03 X 2.8711 Y 7.2040 Z -1.0000 I 0.8016 J -1.5619
G03 X 2.5058 Y 6.4189 Z -1.0000 I 1.8862 J -1.3553
G03 X 2.3444 Y 5.1242 Z -1.0000 I 5.1121 J -1.2947
G03 X 2.5174 Y 3.8395 Z -1.0000 I 4.8583 J 0.0000
G03 X 2.8983 Y 3.1042 Z -1.0000 I 1.9123 J 0.5243
G03 X 3.5388 Y 2.6101 Z -1.0000 I 1.4426 J 1.2081
G03 X 4.3156 Y 2.4362 Z -1.0000 I 0.7768 J 1.6483
G03 X 5.1163 Y 2.6008 Z -1.0000 I 0.0000 J 2.0304
G03 X 5.6569 Y 3.0118 Z -1.0000 I -0.5526 J 1.2876
G03 X 5.8655 Y 3.3455 Z -1.0000 I -1.1639 J 0.9597
G03 X 6.0804 Y 3.9404 Z -1.0000 I -3.5469 J 1.6179
G01 X 7.7366 Y 3.9404 Z -1.0000
G02 X 7.3334 Y 2.7323 Z -1.0000 I -4.0007 J 0.6640
G02 X 6.6289 Y 1.8118 Z -1.0000 I -2.9799 J 1.5508
G01 X 6.6289 Y 1.8118 Z -1.0000
G00 Z 5.0000

(End cutting path id: text83260)


(Start cutting path id: text83260)
(Change tool to Default tool)

G00 Z 5.0000
G00 X 9.0127 Y 9.2186

G01 Z -1.0000 F 100.0000(Penetrate)
G01 X 10.6852 Y 9.2186 Z -1.0000 F 3500.0000
G01 X 10.6852 Y 2.6534 Z -1.0000
G01 X 14.6493 Y 2.6534 Z -1.0000
G01 X 14.6493 Y 1.2144 Z -1.0000
G01 X 9.0127 Y 1.2144 Z -1.0000
G01 X 9.0127 Y 9.2186 Z -1.0000
G00 Z 5.0000

(End cutting path id: text83260)


(Start cutting path id: text83260)
(Change tool to Default tool)

G00 Z 5.0000
G00 X 19.3465 Y 0.9918

G01 Z -1.0000 F 100.0000(Penetrate)
G02 X 17.7473 Y 1.2680 Z -1.0000 I 0.0000 J 4.7668 F 3500.0000
G02 X 16.7237 Y 1.9258 Z -1.0000 I 0.8990 J 2.5245
G02 X 15.8643 Y 3.2257 Z -1.0000 I 2.3320 J 2.4757
G02 X 15.5073 Y 5.2274 Z -1.0000 I 5.4330 J 2.0016
G02 X 15.8708 Y 7.2655 Z -1.0000 I 5.8955 J 0.0000
G02 X 16.7237 Y 8.5289 Z -1.0000 I 2.9993 J -1.1050
G02 X 17.7473 Y 9.1867 Z -1.0000 I 1.9227 J -1.8668
G02 X 19.3465 Y 9.4629 Z -1.0000 I 1.5991 J -4.4906
G02 X 20.9456 Y 9.1867 Z -1.0000 I -0.0000 J -4.7668
G02 X 21.9692 Y 8.5289 Z -1.0000 I -0.8990 J -2.5245
G02 X 22.8180 Y 7.2665 Z -1.0000 I -2.1506 J -2.3625
G02 X 23.1802 Y 5.2274 Z -1.0000 I -5.5597 J -2.0392
G02 X 22.8245 Y 3.2247 Z -1.0000 I -5.8159 J -0.0000
G02 X 21.9692 Y 1.9258 Z -1.0000 I -3.1920 J 1.1708
G02 X 20.9456 Y 1.2680 Z -1.0000 I -1.9227 J 1.8668
G02 X 19.3465 Y 0.9918 Z -1.0000 I -1.5991 J 4.4906
G01 X 19.3465 Y 0.9918 Z -1.0000
G00 Z 5.0000

(End cutting path id: text83260)


(Start cutting path id: text83260)
(Change tool to Default tool)

G00 Z 5.0000
G00 X 20.9266 Y 3.1422

G01 Z -1.0000 F 100.0000(Penetrate)
G03 X 21.3312 Y 3.9367 Z -1.0000 I -1.7653 J 1.3992 F 3500.0000
G03 X 21.5077 Y 5.2274 Z -1.0000 I -4.6320 J 1.2907
G03 X 21.3301 Y 6.5118 Z -1.0000 I -4.7324 J -0.0000
G03 X 20.9212 Y 7.3071 Z -1.0000 I -2.1668 J -0.6110
G03 X 20.2431 Y 7.8458 Z -1.0000 I -1.4749 J -1.1604
G03 X 19.3465 Y 8.0457 Z -1.0000 I -0.8967 J -1.9121
G03 X 18.4472 Y 7.8478 Z -1.0000 I 0.0000 J -2.1428
G03 X 17.7608 Y 7.3126 Z -1.0000 I 0.8037 J -1.7384
G03 X 17.3483 Y 6.5161 Z -1.0000 I 1.7449 J -1.4088
G03 X 17.1689 Y 5.2274 Z -1.0000 I 4.5402 J -1.2888
G03 X 17.3483 Y 3.9386 Z -1.0000 I 4.7196 J -0.0000
G03 X 17.7608 Y 3.1422 Z -1.0000 I 2.1574 J 0.6124
G03 X 18.4472 Y 2.6069 Z -1.0000 I 1.4901 J 1.2032
G03 X 19.3465 Y 2.4091 Z -1.0000 I 0.8992 J 1.9450
G03 X 20.2449 Y 2.6073 Z -1.0000 I -0.0000 J 2.1349
G03 X 20.9266 Y 3.1422 Z -1.0000 I -0.7969 J 1.7177
G01 X 20.9266 Y 3.1422 Z -1.0000
G00 Z 5.0000

(End cutting path id: text83260)


(Start cutting path id: text83260)
(Change tool to Default tool)

G00 Z 5.0000
G00 X 30.1037 Y 1.8118

G01 Z -1.0000 F 100.0000(Penetrate)
G02 X 29.1196 Y 1.2187 Z -1.0000 I -1.9644 J 2.1466 F 3500.0000
G02 X 27.8122 Y 0.9918 Z -1.0000 I -1.3074 J 3.6539
G02 X 26.2248 Y 1.3032 Z -1.0000 I -0.0000 J 4.2019
G02 X 25.0971 Y 2.0996 Z -1.0000 I 1.1564 J 2.8342
G02 X 24.3975 Y 3.3224 Z -1.0000 I 2.5701 J 2.2817
G02 X 24.1088 Y 5.1513 Z -1.0000 I 5.6475 J 1.8289
G02 X 24.4399 Y 7.1112 Z -1.0000 I 5.9645 J 0.0000
G02 X 25.2328 Y 8.3823 Z -1.0000 I 3.2006 J -1.1135
G02 X 26.3220 Y 9.1031 Z -1.0000 I 2.2662 J -2.2413
G02 X 27.7199 Y 9.3706 Z -1.0000 I 1.3979 J -3.5178
G02 X 29.5381 Y 8.9815 Z -1.0000 I -0.0000 J -4.4430
G02 X 30.6739 Y 8.0457 Z -1.0000 I -1.1390 J -2.5394
G02 X 31.0812 Y 7.2647 Z -1.0000 I -2.8898 J -2.0039
G02 X 31.2278 Y 6.5523 Z -1.0000 I -2.2481 J -0.8338
G01 X 29.5553 Y 6.5523 Z -1.0000
G03 X 29.3466 Y 7.1032 Z -1.0000 I -3.2854 J -0.9298
G03 X 29.1371 Y 7.4212 Z -1.0000 I -1.2857 J -0.6187
G03 X 28.6112 Y 7.7887 Z -1.0000 I -1.0075 J -0.8816
G03 X 27.7850 Y 7.9425 Z -1.0000 I -0.8262 J -2.1430
G03 X 26.9737 Y 7.7464 Z -1.0000 I -0.0000 J -1.7769
G03 X 26.3460 Y 7.2040 Z -1.0000 I 0.8016 J -1.5619
G03 X 25.9807 Y 6.4189 Z -1.0000 I 1.8862 J -1.3553
G03 X 25.8193 Y 5.1242 Z -1.0000 I 5.1122 J -1.2947
G03 X 25.9922 Y 3.8395 Z -1.0000 I 4.8583 J -0.0000
G03 X 26.3732 Y 3.1042 Z -1.0000 I 1.9123 J 0.5243
G03 X 27.0137 Y 2.6101 Z -1.0000 I 1.4426 J 1.2081
G03 X 27.7904 Y 2.4362 Z -1.0000 I 0.7768 J 1.6483
G03 X 28.5912 Y 2.6008 Z -1.0000 I -0.0000 J 2.0304
G03 X 29.1317 Y 3.0118 Z -1.0000 I -0.5526 J 1.2876
G03 X 29.3403 Y 3.3455 Z -1.0000 I -1.1639 J 0.9597
G03 X 29.5553 Y 3.9404 Z -1.0000 I -3.5469 J 1.6179
G01 X 31.2115 Y 3.9404 Z -1.0000
G02 X 30.8082 Y 2.7323 Z -1.0000 I -4.0007 J 0.6640
G02 X 30.1037 Y 1.8118 Z -1.0000 I -2.9799 J 1.5508
G01 X 30.1037 Y 1.8118 Z -1.0000
G00 Z 5.0000

(End cutting path id: text83260)


(Start cutting path id: text83260)
(Change tool to Default tool)

G00 Z 5.0000
G00 X 39.5795 Y 1.2144

G01 Z -1.0000 F 100.0000(Penetrate)
G01 X 37.4291 Y 1.2144 Z -1.0000 F 3500.0000
G01 X 34.9583 Y 4.7115 Z -1.0000
G01 X 34.1601 Y 3.8915 Z -1.0000
G01 X 34.1601 Y 1.2144 Z -1.0000
G01 X 32.5147 Y 1.2144 Z -1.0000
G01 X 32.5147 Y 9.2186 Z -1.0000
G01 X 34.1601 Y 9.2186 Z -1.0000
G01 X 34.1601 Y 5.9224 Z -1.0000
G01 X 37.2499 Y 9.2186 Z -1.0000
G01 X 39.4111 Y 9.2186 Z -1.0000
G01 X 36.1313 Y 5.9224 Z -1.0000
G01 X 39.5795 Y 1.2144 Z -1.0000
G00 Z 5.0000

(End cutting path id: text83260)



(Footer)
M5
G00 X0.0000 Y0.0000
M2
(Using default footer. To add your own footer create file "footer" in the output dir.)
(end)
%