%
(Header)
(Generated by gcodetools from Inkscape.)
(Using default header. To add your own header create file "header" in the output dir.)
M3
(Header end.)
G21 (All units in mm)

(Start cutting path id: text140911)
(Change tool to Default tool)

G00 Z 5.0000
G00 X 6.1144 Y 31.9767

G01 Z -1.0000 F 100.0000(Penetrate)
G02 X 5.1261 Y 31.3810 Z -1.0000 I -1.9729 J 2.1558 F 3500.0000
G02 X 3.8130 Y 31.1532 Z -1.0000 I -1.3131 J 3.6696
G02 X 2.2188 Y 31.4659 Z -1.0000 I 0.0000 J 4.2200
G02 X 1.0862 Y 32.2657 Z -1.0000 I 1.1613 J 2.8464
G02 X 0.3836 Y 33.4939 Z -1.0000 I 2.5811 J 2.2916
G02 X 0.0936 Y 35.3307 Z -1.0000 I 5.6718 J 1.8368
G02 X 0.4262 Y 37.2989 Z -1.0000 I 5.9902 J -0.0000
G02 X 1.2225 Y 38.5756 Z -1.0000 I 3.2143 J -1.1183
G02 X 2.3164 Y 39.2994 Z -1.0000 I 2.2759 J -2.2509
G02 X 3.7203 Y 39.5681 Z -1.0000 I 1.4039 J -3.5330
G02 X 5.5464 Y 39.1773 Z -1.0000 I -0.0000 J -4.4621
G02 X 6.6870 Y 38.2374 Z -1.0000 I -1.1439 J -2.5503
G02 X 7.0961 Y 37.4531 Z -1.0000 I -2.9022 J -2.0125
G02 X 7.2433 Y 36.7377 Z -1.0000 I -2.2578 J -0.8374
G01 X 5.5636 Y 36.7377 Z -1.0000
G03 X 5.3540 Y 37.2909 Z -1.0000 I -3.2995 J -0.9338
G03 X 5.1437 Y 37.6103 Z -1.0000 I -1.2912 J -0.6214
G03 X 4.6155 Y 37.9794 Z -1.0000 I -1.0118 J -0.8853
G03 X 3.7857 Y 38.1338 Z -1.0000 I -0.8298 J -2.1522
G03 X 2.9709 Y 37.9369 Z -1.0000 I 0.0000 J -1.7845
G03 X 2.3405 Y 37.3921 Z -1.0000 I 0.8050 J -1.5686
G03 X 1.9736 Y 36.6037 Z -1.0000 I 1.8944 J -1.3611
G03 X 1.8115 Y 35.3034 Z -1.0000 I 5.1342 J -1.3003
G03 X 1.9852 Y 34.0132 Z -1.0000 I 4.8793 J 0.0000
G03 X 2.3678 Y 33.2747 Z -1.0000 I 1.9206 J 0.5266
G03 X 3.0110 Y 32.7785 Z -1.0000 I 1.4489 J 1.2133
G03 X 3.7912 Y 32.6039 Z -1.0000 I 0.7801 J 1.6554
G03 X 4.5953 Y 32.7691 Z -1.0000 I 0.0000 J 2.0391
G03 X 5.1382 Y 33.1819 Z -1.0000 I -0.5550 J 1.2931
G03 X 5.3477 Y 33.5170 Z -1.0000 I -1.1689 J 0.9638
G03 X 5.5636 Y 34.1145 Z -1.0000 I -3.5622 J 1.6248
G01 X 7.2270 Y 34.1145 Z -1.0000
G02 X 6.8220 Y 32.9012 Z -1.0000 I -4.0179 J 0.6669
G02 X 6.1144 Y 31.9767 Z -1.0000 I -2.9928 J 1.5575
G01 X 6.1144 Y 31.9767 Z -1.0000
G00 Z 5.0000

(End cutting path id: text140911)


(Start cutting path id: text140911)
(Change tool to Default tool)

G00 Z 5.0000
G00 X 12.0643 Y 31.1532

G01 Z -1.0000 F 100.0000(Penetrate)
G02 X 10.4583 Y 31.4306 Z -1.0000 I 0.0000 J 4.7874 F 3500.0000
G02 X 9.4302 Y 32.0912 Z -1.0000 I 0.9029 J 2.5354
G02 X 8.5671 Y 33.3968 Z -1.0000 I 2.3421 J 2.4864
G02 X 8.2086 Y 35.4070 Z -1.0000 I 5.4564 J 2.0103
G02 X 8.5737 Y 37.4539 Z -1.0000 I 5.9209 J 0.0000
G02 X 9.4302 Y 38.7228 Z -1.0000 I 3.0122 J -1.1098
G02 X 10.4583 Y 39.3834 Z -1.0000 I 1.9310 J -1.8748
G02 X 12.0643 Y 39.6608 Z -1.0000 I 1.6060 J -4.5099
G02 X 13.6703 Y 39.3834 Z -1.0000 I -0.0000 J -4.7874
G02 X 14.6984 Y 38.7228 Z -1.0000 I -0.9029 J -2.5354
G02 X 15.5508 Y 37.4550 Z -1.0000 I -2.1599 J -2.3727
G02 X 15.9146 Y 35.4070 Z -1.0000 I -5.5837 J -2.0480
G02 X 15.5573 Y 33.3957 Z -1.0000 I -5.8410 J -0.0000
G02 X 14.6984 Y 32.0912 Z -1.0000 I -3.2058 J 1.1758
G02 X 13.6703 Y 31.4306 Z -1.0000 I -1.9310 J 1.8748
G02 X 12.0643 Y 31.1532 Z -1.0000 I -1.6060 J 4.5099
G01 X 12.0643 Y 31.1532 Z -1.0000
G00 Z 5.0000

(End cutting path id: text140911)


(Start cutting path id: text140911)
(Change tool to Default tool)

G00 Z 5.0000
G00 X 13.6513 Y 33.3128

G01 Z -1.0000 F 100.0000(Penetrate)
G03 X 14.0576 Y 34.1108 Z -1.0000 I -1.7729 J 1.4052 F 3500.0000
G03 X 14.2348 Y 35.4070 Z -1.0000 I -4.6519 J 1.2962
G03 X 14.0565 Y 36.6969 Z -1.0000 I -4.7528 J 0.0000
G03 X 13.6459 Y 37.4957 Z -1.0000 I -2.1762 J -0.6136
G03 X 12.9649 Y 38.0368 Z -1.0000 I -1.4812 J -1.1654
G03 X 12.0643 Y 38.2374 Z -1.0000 I -0.9006 J -1.9203
G03 X 11.1612 Y 38.0388 Z -1.0000 I 0.0000 J -2.1520
G03 X 10.4719 Y 37.5012 Z -1.0000 I 0.8072 J -1.7459
G03 X 10.0576 Y 36.7013 Z -1.0000 I 1.7524 J -1.4149
G03 X 9.8774 Y 35.4070 Z -1.0000 I 4.5598 J -1.2943
G03 X 10.0576 Y 34.1127 Z -1.0000 I 4.7399 J 0.0000
G03 X 10.4719 Y 33.3128 Z -1.0000 I 2.1667 J 0.6150
G03 X 11.1612 Y 32.7752 Z -1.0000 I 1.4966 J 1.2083
G03 X 12.0643 Y 32.5766 Z -1.0000 I 0.9031 J 1.9533
G03 X 12.9666 Y 32.7757 Z -1.0000 I 0.0000 J 2.1441
G03 X 13.6513 Y 33.3128 Z -1.0000 I -0.8003 J 1.7251
G01 X 13.6513 Y 33.3128 Z -1.0000
G00 Z 5.0000

(End cutting path id: text140911)


(Start cutting path id: text140911)
(Change tool to Default tool)

G00 Z 5.0000
G00 X 21.9517 Y 34.4744

G01 Z -1.0000 F 100.0000(Penetrate)
G01 X 21.9517 Y 39.4154 Z -1.0000 F 3500.0000
G01 X 23.6587 Y 39.4154 Z -1.0000
G01 X 23.6587 Y 34.4744 Z -1.0000
G02 X 23.5353 Y 33.2249 Z -1.0000 I -6.3882 J 0.0000
G02 X 23.2606 Y 32.4784 Z -1.0000 I -2.5142 J 0.5015
G02 X 22.2815 Y 31.5769 Z -1.0000 I -1.8916 J 1.0719
G02 X 20.4302 Y 31.1696 Z -1.0000 I -1.8514 J 4.0036
G02 X 18.5777 Y 31.5764 Z -1.0000 I -0.0000 J 4.4206
G02 X 17.5943 Y 32.4784 Z -1.0000 I 0.9170 J 1.9868
G02 X 17.3196 Y 33.2249 Z -1.0000 I 2.2395 J 1.2479
G02 X 17.1962 Y 34.4744 Z -1.0000 I 6.2648 J 1.2495
G01 X 17.1962 Y 39.4154 Z -1.0000
G01 X 18.9031 Y 39.4154 Z -1.0000
G01 X 18.9031 Y 34.4744 Z -1.0000
G03 X 18.9686 Y 33.6614 Z -1.0000 I 5.0796 J -0.0000
G03 X 19.0995 Y 33.2637 Z -1.0000 I 1.3203 J 0.2141
G03 X 19.5422 Y 32.8002 Z -1.0000 I 0.8803 J 0.3976
G03 X 20.4302 Y 32.5875 Z -1.0000 I 0.8880 J 1.7473
G03 X 21.3130 Y 32.7997 Z -1.0000 I -0.0000 J 1.9422
G03 X 21.7554 Y 33.2637 Z -1.0000 I -0.4402 J 0.8626
G03 X 21.8862 Y 33.6614 Z -1.0000 I -1.1894 J 0.6117
G03 X 21.9517 Y 34.4744 Z -1.0000 I -5.0141 J 0.8131
G01 X 21.9517 Y 34.4744 Z -1.0000
G00 Z 5.0000

(End cutting path id: text140911)


(Start cutting path id: text140911)
(Change tool to Default tool)

G00 Z 5.0000
G00 X 30.9338 Y 31.9767

G01 Z -1.0000 F 100.0000(Penetrate)
G02 X 29.9454 Y 31.3810 Z -1.0000 I -1.9729 J 2.1558 F 3500.0000
G02 X 28.6324 Y 31.1532 Z -1.0000 I -1.3131 J 3.6696
G02 X 27.0382 Y 31.4659 Z -1.0000 I 0.0000 J 4.2200
G02 X 25.9056 Y 32.2657 Z -1.0000 I 1.1613 J 2.8464
G02 X 25.2030 Y 33.4939 Z -1.0000 I 2.5811 J 2.2916
G02 X 24.9130 Y 35.3307 Z -1.0000 I 5.6718 J 1.8368
G02 X 25.2456 Y 37.2989 Z -1.0000 I 5.9902 J 0.0000
G02 X 26.0419 Y 38.5756 Z -1.0000 I 3.2143 J -1.1183
G02 X 27.1358 Y 39.2994 Z -1.0000 I 2.2759 J -2.2509
G02 X 28.5397 Y 39.5681 Z -1.0000 I 1.4039 J -3.5330
G02 X 30.3658 Y 39.1773 Z -1.0000 I 0.0000 J -4.4621
G02 X 31.5064 Y 38.2374 Z -1.0000 I -1.1439 J -2.5503
G02 X 31.9155 Y 37.4531 Z -1.0000 I -2.9022 J -2.0125
G02 X 32.0627 Y 36.7377 Z -1.0000 I -2.2578 J -0.8374
G01 X 30.3830 Y 36.7377 Z -1.0000
G03 X 30.1734 Y 37.2909 Z -1.0000 I -3.2995 J -0.9338
G03 X 29.9631 Y 37.6103 Z -1.0000 I -1.2912 J -0.6214
G03 X 29.4349 Y 37.9794 Z -1.0000 I -1.0118 J -0.8853
G03 X 28.6051 Y 38.1338 Z -1.0000 I -0.8298 J -2.1522
G03 X 27.7903 Y 37.9369 Z -1.0000 I 0.0000 J -1.7845
G03 X 27.1599 Y 37.3921 Z -1.0000 I 0.8050 J -1.5686
G03 X 26.7930 Y 36.6037 Z -1.0000 I 1.8944 J -1.3611
G03 X 26.6309 Y 35.3034 Z -1.0000 I 5.1342 J -1.3003
G03 X 26.8046 Y 34.0132 Z -1.0000 I 4.8793 J 0.0000
G03 X 27.1872 Y 33.2747 Z -1.0000 I 1.9206 J 0.5266
G03 X 27.8304 Y 32.7785 Z -1.0000 I 1.4489 J 1.2133
G03 X 28.6106 Y 32.6039 Z -1.0000 I 0.7801 J 1.6554
G03 X 29.4147 Y 32.7691 Z -1.0000 I 0.0000 J 2.0391
G03 X 29.9576 Y 33.1819 Z -1.0000 I -0.5550 J 1.2931
G03 X 30.1671 Y 33.5170 Z -1.0000 I -1.1689 J 0.9638
G03 X 30.3830 Y 34.1145 Z -1.0000 I -3.5622 J 1.6249
G01 X 32.0463 Y 34.1145 Z -1.0000
G02 X 31.6414 Y 32.9012 Z -1.0000 I -4.0179 J 0.6669
G02 X 30.9338 Y 31.9767 Z -1.0000 I -2.9928 J 1.5575
G01 X 30.9338 Y 31.9767 Z -1.0000
G00 Z 5.0000

(End cutting path id: text140911)


(Start cutting path id: text140911)
(Change tool to Default tool)

G00 Z 5.0000
G00 X 38.1217 Y 31.3768

G01 Z -1.0000 F 100.0000(Penetrate)
G01 X 38.1217 Y 34.9653 Z -1.0000 F 3500.0000
G01 X 34.9804 Y 34.9653 Z -1.0000
G01 X 34.9804 Y 31.3768 Z -1.0000
G01 X 33.3170 Y 31.3768 Z -1.0000
G01 X 33.3170 Y 39.4154 Z -1.0000
G01 X 34.9804 Y 39.4154 Z -1.0000
G01 X 34.9804 Y 36.3505 Z -1.0000
G01 X 38.1217 Y 36.3505 Z -1.0000
G01 X 38.1217 Y 39.4154 Z -1.0000
G01 X 39.7905 Y 39.4154 Z -1.0000
G01 X 39.7905 Y 31.3768 Z -1.0000
G01 X 38.1217 Y 31.3768 Z -1.0000
G00 Z 5.0000

(End cutting path id: text140911)



(Footer)
M5
G00 X0.0000 Y0.0000
M2
(Using default footer. To add your own footer create file "footer" in the output dir.)
(end)
%