%
(Header)
(Generated by gcodetools from Inkscape.)
(Using default header. To add your own header create file "header" in the output dir.)
M3
(Header end.)
G21 (All units in mm)

(Start cutting path id: text5608)
(Change tool to Default tool)

G00 Z 5.0000
G00 X 8.3679 Y 29.4158

G01 Z -1.0000 F 100.0000(Penetrate)
G02 X 7.0176 Y 28.6021 Z -1.0000 I -2.6952 J 2.9451 F 3500.0000
G02 X 5.2238 Y 28.2908 Z -1.0000 I -1.7938 J 5.0132
G02 X 3.0459 Y 28.7180 Z -1.0000 I -0.0000 J 5.7651
G02 X 1.4986 Y 29.8107 Z -1.0000 I 1.5866 J 3.8886
G02 X 0.5388 Y 31.4885 Z -1.0000 I 3.5262 J 3.1306
G02 X 0.1426 Y 33.9978 Z -1.0000 I 7.7485 J 2.5093
G02 X 0.5970 Y 36.6867 Z -1.0000 I 8.1834 J 0.0000
G02 X 1.6849 Y 38.4308 Z -1.0000 I 4.3912 J -1.5277
G02 X 3.1792 Y 39.4196 Z -1.0000 I 3.1093 J -3.0751
G02 X 5.0971 Y 39.7867 Z -1.0000 I 1.9180 J -4.8265
G02 X 7.5918 Y 39.2529 Z -1.0000 I 0.0000 J -6.0958
G02 X 9.1502 Y 37.9688 Z -1.0000 I -1.5627 J -3.4841
G02 X 9.7090 Y 36.8974 Z -1.0000 I -3.9648 J -2.7493
G02 X 9.9101 Y 35.9200 Z -1.0000 I -3.0844 J -1.1440
G01 X 7.6154 Y 35.9200 Z -1.0000
G03 X 7.3290 Y 36.6757 Z -1.0000 I -4.5076 J -1.2757
G03 X 7.0417 Y 37.1121 Z -1.0000 I -1.7640 J -0.8489
G03 X 6.3201 Y 37.6163 Z -1.0000 I -1.3823 J -1.2095
G03 X 5.1865 Y 37.8273 Z -1.0000 I -1.1336 J -2.9402
G03 X 4.0734 Y 37.5583 Z -1.0000 I -0.0000 J -2.4379
G03 X 3.2122 Y 36.8140 Z -1.0000 I 1.0998 J -2.1429
G03 X 2.7110 Y 35.7369 Z -1.0000 I 2.5880 J -1.8595
G03 X 2.4895 Y 33.9605 Z -1.0000 I 7.0140 J -1.7764
G03 X 2.7268 Y 32.1979 Z -1.0000 I 6.6658 J -0.0000
G03 X 3.2494 Y 31.1890 Z -1.0000 I 2.6238 J 0.7194
G03 X 4.1282 Y 30.5111 Z -1.0000 I 1.9793 J 1.6575
G03 X 5.1940 Y 30.2726 Z -1.0000 I 1.0658 J 2.2615
G03 X 6.2926 Y 30.4984 Z -1.0000 I -0.0000 J 2.7857
G03 X 7.0342 Y 31.0623 Z -1.0000 I -0.7581 J 1.7666
G03 X 7.3204 Y 31.5201 Z -1.0000 I -1.5969 J 1.3167
G03 X 7.6154 Y 32.3364 Z -1.0000 I -4.8664 J 2.2198
G01 X 9.8877 Y 32.3364 Z -1.0000
G02 X 9.3345 Y 30.6788 Z -1.0000 I -5.4890 J 0.9110
G02 X 8.3679 Y 29.4158 Z -1.0000 I -4.0885 J 2.1277
G01 X 8.3679 Y 29.4158 Z -1.0000
G00 Z 5.0000

(End cutting path id: text5608)


(Start cutting path id: text5608)
(Change tool to Default tool)

G00 Z 5.0000
G00 X 16.4962 Y 28.2908

G01 Z -1.0000 F 100.0000(Penetrate)
G02 X 14.3022 Y 28.6698 Z -1.0000 I 0.0000 J 6.5402 F 3500.0000
G02 X 12.8977 Y 29.5723 Z -1.0000 I 1.2335 J 3.4637
G02 X 11.7186 Y 31.3558 Z -1.0000 I 3.1996 J 3.3967
G02 X 11.2288 Y 34.1021 Z -1.0000 I 7.4542 J 2.7463
G02 X 11.7275 Y 36.8984 Z -1.0000 I 8.0887 J -0.0000
G02 X 12.8977 Y 38.6319 Z -1.0000 I 4.1151 J -1.5161
G02 X 14.3022 Y 39.5344 Z -1.0000 I 2.6379 J -2.5613
G02 X 16.4962 Y 39.9134 Z -1.0000 I 2.1941 J -6.1612
G02 X 18.6903 Y 39.5344 Z -1.0000 I 0.0000 J -6.5402
G02 X 20.0948 Y 38.6319 Z -1.0000 I -1.2335 J -3.4637
G02 X 21.2593 Y 36.8999 Z -1.0000 I -2.9507 J -3.2414
G02 X 21.7562 Y 34.1021 Z -1.0000 I -7.6281 J -2.7978
G02 X 21.2682 Y 31.3544 Z -1.0000 I -7.9795 J 0.0000
G02 X 20.0948 Y 29.5723 Z -1.0000 I -4.3795 J 1.6063
G02 X 18.6903 Y 28.6698 Z -1.0000 I -2.6379 J 2.5613
G02 X 16.4962 Y 28.2908 Z -1.0000 I -2.1941 J 6.1612
G01 X 16.4962 Y 28.2908 Z -1.0000
G00 Z 5.0000

(End cutting path id: text5608)


(Start cutting path id: text5608)
(Change tool to Default tool)

G00 Z 5.0000
G00 X 18.6643 Y 31.2411

G01 Z -1.0000 F 100.0000(Penetrate)
G03 X 19.2194 Y 32.3313 Z -1.0000 I -2.4220 J 1.9197 F 3500.0000
G03 X 19.4615 Y 34.1021 Z -1.0000 I -6.3552 J 1.7708
G03 X 19.2178 Y 35.8643 Z -1.0000 I -6.4930 J 0.0000
G03 X 18.6568 Y 36.9556 Z -1.0000 I -2.9730 J -0.8383
G03 X 17.7265 Y 37.6947 Z -1.0000 I -2.0236 J -1.5921
G03 X 16.4962 Y 37.9688 Z -1.0000 I -1.2303 J -2.6234
G03 X 15.2625 Y 37.6975 Z -1.0000 I -0.0000 J -2.9399
G03 X 14.3207 Y 36.9630 Z -1.0000 I 1.1027 J -2.3852
G03 X 13.7547 Y 35.8703 Z -1.0000 I 2.3940 J -1.9330
G03 X 13.5086 Y 34.1021 Z -1.0000 I 6.2293 J -1.7682
G03 X 13.7547 Y 32.3339 Z -1.0000 I 6.4753 J -0.0000
G03 X 14.3207 Y 31.2411 Z -1.0000 I 2.9600 J 0.8402
G03 X 15.2625 Y 30.5067 Z -1.0000 I 2.0445 J 1.6507
G03 X 16.4962 Y 30.2353 Z -1.0000 I 1.2337 J 2.6685
G03 X 17.7289 Y 30.5074 Z -1.0000 I -0.0000 J 2.9291
G03 X 18.6643 Y 31.2411 Z -1.0000 I -1.0933 J 2.3568
G01 X 18.6643 Y 31.2411 Z -1.0000
G00 Z 5.0000

(End cutting path id: text5608)


(Start cutting path id: text5608)
(Change tool to Default tool)

G00 Z 5.0000
G00 X 34.1909 Y 39.5781

G01 Z -1.0000 F 100.0000(Penetrate)
G01 X 36.5229 Y 39.5781 Z -1.0000 F 3500.0000
G01 X 33.4310 Y 28.5963 Z -1.0000
G01 X 31.2406 Y 28.5963 Z -1.0000
G01 X 29.9144 Y 35.0185 Z -1.0000
G01 X 29.5270 Y 37.1419 Z -1.0000
G01 X 29.1395 Y 35.0185 Z -1.0000
G01 X 27.8134 Y 28.5963 Z -1.0000
G01 X 25.6826 Y 28.5963 Z -1.0000
G01 X 22.5683 Y 39.5781 Z -1.0000
G01 X 25.0046 Y 39.5781 Z -1.0000
G01 X 26.4574 Y 33.2900 Z -1.0000
G01 X 26.7703 Y 31.5392 Z -1.0000
G01 X 27.0907 Y 33.2527 Z -1.0000
G01 X 28.3275 Y 39.5781 Z -1.0000
G01 X 30.7488 Y 39.5781 Z -1.0000
G01 X 32.0527 Y 33.2900 Z -1.0000
G01 X 32.3879 Y 31.5392 Z -1.0000
G01 X 32.7232 Y 33.2229 Z -1.0000
G01 X 34.1909 Y 39.5781 Z -1.0000
G00 Z 5.0000

(End cutting path id: text5608)



(Footer)
M5
G00 X0.0000 Y0.0000
M2
(Using default footer. To add your own footer create file "footer" in the output dir.)
(end)
%