%
(Header)
(Generated by gcodetools from Inkscape.)
(Using default header. To add your own header create file "header" in the output dir.)
M3
(Header end.)
G21 (All units in mm)

(Start cutting path id: text144839)
(Change tool to Default tool)

G00 Z 5.0000
G00 X 13.2364 Y 28.9995

G01 Z -1.0000 F 100.0000(Penetrate)
G02 X 11.9877 Y 28.2469 Z -1.0000 I -2.4926 J 2.7237 F 3500.0000
G02 X 10.3288 Y 27.9590 Z -1.0000 I -1.6589 J 4.6362
G02 X 8.3147 Y 28.3541 Z -1.0000 I 0.0000 J 5.3316
G02 X 6.8837 Y 29.3646 Z -1.0000 I 1.4673 J 3.5962
G02 X 5.9960 Y 30.9163 Z -1.0000 I 3.2611 J 2.8952
G02 X 5.6296 Y 33.2369 Z -1.0000 I 7.1659 J 2.3206
G02 X 6.0499 Y 35.7236 Z -1.0000 I 7.5681 J -0.0000
G02 X 7.0559 Y 37.3366 Z -1.0000 I 4.0610 J -1.4128
G02 X 8.4379 Y 38.2511 Z -1.0000 I 2.8755 J -2.8439
G02 X 10.2116 Y 38.5906 Z -1.0000 I 1.7737 J -4.4636
G02 X 12.5188 Y 38.0969 Z -1.0000 I -0.0000 J -5.6375
G02 X 13.9599 Y 36.9094 Z -1.0000 I -1.4452 J -3.2221
G02 X 14.4767 Y 35.9185 Z -1.0000 I -3.6667 J -2.5426
G02 X 14.6627 Y 35.0146 Z -1.0000 I -2.8525 J -1.0580
G01 X 12.5405 Y 35.0146 Z -1.0000
G03 X 12.2757 Y 35.7135 Z -1.0000 I -4.1687 J -1.1798
G03 X 12.0100 Y 36.1170 Z -1.0000 I -1.6314 J -0.7851
G03 X 11.3427 Y 36.5834 Z -1.0000 I -1.2784 J -1.1186
G03 X 10.2943 Y 36.7785 Z -1.0000 I -1.0484 J -2.7192
G03 X 9.2649 Y 36.5297 Z -1.0000 I 0.0000 J -2.2546
G03 X 8.4684 Y 35.8414 Z -1.0000 I 1.0171 J -1.9818
G03 X 8.0049 Y 34.8453 Z -1.0000 I 2.3934 J -1.7197
G03 X 7.8001 Y 33.2025 Z -1.0000 I 6.4866 J -1.6428
G03 X 8.0195 Y 31.5724 Z -1.0000 I 6.1645 J -0.0000
G03 X 8.5029 Y 30.6393 Z -1.0000 I 2.4265 J 0.6653
G03 X 9.3156 Y 30.0124 Z -1.0000 I 1.8305 J 1.5329
G03 X 10.3012 Y 29.7918 Z -1.0000 I 0.9856 J 2.0915
G03 X 11.3172 Y 30.0006 Z -1.0000 I 0.0000 J 2.5763
G03 X 12.0031 Y 30.5222 Z -1.0000 I -0.7011 J 1.6338
G03 X 12.2678 Y 30.9455 Z -1.0000 I -1.4768 J 1.2177
G03 X 12.5405 Y 31.7004 Z -1.0000 I -4.5005 J 2.0529
G01 X 14.6420 Y 31.7004 Z -1.0000
G02 X 14.1303 Y 30.1675 Z -1.0000 I -5.0763 J 0.8425
G02 X 13.2364 Y 28.9995 Z -1.0000 I -3.7811 J 1.9677
G01 X 13.2364 Y 28.9995 Z -1.0000
G00 Z 5.0000

(End cutting path id: text144839)


(Start cutting path id: text144839)
(Change tool to Default tool)

G00 Z 5.0000
G00 X 22.2694 Y 32.1552

G01 Z -1.0000 F 100.0000(Penetrate)
G01 X 22.2694 Y 38.3977 Z -1.0000 F 3500.0000
G01 X 24.4261 Y 38.3977 Z -1.0000
G01 X 24.4261 Y 32.1552 Z -1.0000
G02 X 24.2702 Y 30.5765 Z -1.0000 I -8.0710 J 0.0000
G02 X 23.9231 Y 29.6333 Z -1.0000 I -3.1765 J 0.6336
G02 X 22.6861 Y 28.4943 Z -1.0000 I -2.3899 J 1.3543
G02 X 20.3471 Y 27.9797 Z -1.0000 I -2.3390 J 5.0582
G02 X 18.0066 Y 28.4938 Z -1.0000 I 0.0000 J 5.5851
G02 X 16.7642 Y 29.6333 Z -1.0000 I 1.1585 J 2.5101
G02 X 16.4171 Y 30.5765 Z -1.0000 I 2.8294 J 1.5767
G02 X 16.2612 Y 32.1552 Z -1.0000 I 7.9151 J 1.5787
G01 X 16.2612 Y 38.3977 Z -1.0000
G01 X 18.4178 Y 38.3977 Z -1.0000
G01 X 18.4178 Y 32.1552 Z -1.0000
G03 X 18.5006 Y 31.1279 Z -1.0000 I 6.4176 J 0.0000
G03 X 18.6659 Y 30.6255 Z -1.0000 I 1.6680 J 0.2705
G03 X 19.2252 Y 30.0399 Z -1.0000 I 1.1122 J 0.5023
G03 X 20.3471 Y 29.7712 Z -1.0000 I 1.1219 J 2.2075
G03 X 21.4624 Y 30.0393 Z -1.0000 I 0.0000 J 2.4539
G03 X 22.0214 Y 30.6255 Z -1.0000 I -0.5561 J 1.0898
G03 X 22.1867 Y 31.1279 Z -1.0000 I -1.5027 J 0.7728
G03 X 22.2694 Y 32.1552 Z -1.0000 I -6.3349 J 1.0273
G01 X 22.2694 Y 32.1552 Z -1.0000
G00 Z 5.0000

(End cutting path id: text144839)


(Start cutting path id: text144839)
(Change tool to Default tool)

G00 Z 5.0000
G00 X 30.7650 Y 31.8933

G01 Z -1.0000 F 100.0000(Penetrate)
G01 X 28.6084 Y 31.8933 Z -1.0000 F 3500.0000
G01 X 28.6084 Y 28.2415 Z -1.0000
G01 X 26.5000 Y 28.2415 Z -1.0000
G01 X 26.5000 Y 38.3977 Z -1.0000
G01 X 30.9235 Y 38.3977 Z -1.0000
G02 X 32.3687 Y 38.1707 Z -1.0000 I 0.0000 J -4.7146
G02 X 33.3626 Y 37.6122 Z -1.0000 I -0.8778 J -2.7258
G02 X 33.9971 Y 36.7008 Z -1.0000 I -1.4651 J -1.6965
G02 X 34.2722 Y 35.1799 Z -1.0000 I -4.0672 J -1.5209
G02 X 33.9839 Y 33.5182 Z -1.0000 I -4.9336 J 0.0000
G02 X 33.3626 Y 32.6375 Z -1.0000 I -1.8971 J 0.6786
G02 X 32.3726 Y 32.1190 Z -1.0000 I -1.7520 J 2.1414
G02 X 30.7650 Y 31.8933 Z -1.0000 I -1.6075 J 5.6114
G01 X 30.7650 Y 31.8933 Z -1.0000
G00 Z 5.0000

(End cutting path id: text144839)


(Start cutting path id: text144839)
(Change tool to Default tool)

G00 Z 5.0000
G00 X 31.7572 Y 34.0086

G01 Z -1.0000 F 100.0000(Penetrate)
G03 X 32.0433 Y 34.4312 Z -1.0000 I -0.6772 J 0.7666 F 3500.0000
G03 X 32.1706 Y 35.1662 Z -1.0000 I -2.0579 J 0.7350
G03 X 32.0394 Y 35.8956 Z -1.0000 I -2.0924 J -0.0000
G03 X 31.7503 Y 36.2962 Z -1.0000 I -0.8710 J -0.3240
G03 X 31.3007 Y 36.5322 Z -1.0000 I -0.8032 J -0.9835
G03 X 30.5859 Y 36.6338 Z -1.0000 I -0.7148 J -2.4655
G01 X 28.6084 Y 36.6338 Z -1.0000
G01 X 28.6084 Y 33.6434 Z -1.0000
G01 X 30.5859 Y 33.6434 Z -1.0000
G03 X 31.2965 Y 33.7516 Z -1.0000 I -0.0000 J 2.3875
G03 X 31.7572 Y 34.0086 Z -1.0000 I -0.3828 J 1.2278
G01 X 31.7572 Y 34.0086 Z -1.0000
G00 Z 5.0000

(End cutting path id: text144839)



(Footer)
M5
G00 X0.0000 Y0.0000
M2
(Using default footer. To add your own footer create file "footer" in the output dir.)
(end)
%