%
(Header)
(Generated by gcodetools from Inkscape.)
(Using default header. To add your own header create file "header" in the output dir.)
M3
(Header end.)
G21 (All units in mm)

(Start cutting path id: path180502)
(Change tool to Default tool)

G00 Z 5.0000
G00 X 6.3477 Y 30.3419

G01 Z -1.0000 F 100.0000(Penetrate)
G01 X 6.3477 Y 29.0554 Z -1.0000 F 3500.0000
G01 X 4.1739 Y 29.0554 Z -1.0000
G01 X 4.1739 Y 23.0762 Z -1.0000
G01 X 2.6459 Y 23.0762 Z -1.0000
G01 X 2.6459 Y 29.0554 Z -1.0000
G01 X 0.4622 Y 29.0554 Z -1.0000
G01 X 0.4622 Y 30.3419 Z -1.0000
G01 X 6.3477 Y 30.3419 Z -1.0000
G00 Z 5.0000

(End cutting path id: path180502)


(Start cutting path id: path180501)
(Change tool to Default tool)

G00 Z 5.0000
G00 X 4.1986 Y 32.1618

G01 Z -1.0000 F 100.0000(Penetrate)
G01 X 1.0685 Y 32.1618 Z -1.0000 F 3500.0000
G01 X 1.0685 Y 39.4275 Z -1.0000
G01 X 4.1986 Y 39.4275 Z -1.0000
G02 X 4.8669 Y 39.3759 Z -1.0000 I -0.0784 J -5.3719
G02 X 5.3225 Y 39.2698 Z -1.0000 I -0.3637 J -2.5912
G02 X 6.0087 Y 38.9133 Z -1.0000 I -0.7529 J -2.2882
G02 X 6.5597 Y 38.3480 Z -1.0000 I -1.4995 J -2.0126
G02 X 6.8799 Y 37.7798 Z -1.0000 I -2.7412 J -1.9189
G02 X 7.0773 Y 37.1748 Z -1.0000 I -2.9138 J -1.2855
G02 X 7.1828 Y 36.5404 Z -1.0000 I -6.2172 J -1.3600
G02 X 7.2153 Y 35.9721 Z -1.0000 I -4.9521 J -0.5683
G02 X 7.0511 Y 34.5670 Z -1.0000 I -6.0943 J -0.0000
G02 X 6.6336 Y 33.5173 Z -1.0000 I -3.7809 J 0.8959
G02 X 5.6311 Y 32.5337 Z -1.0000 I -2.2927 J 1.3339
G02 X 4.1986 Y 32.1618 Z -1.0000 I -1.4325 J 2.5733
G01 X 4.1986 Y 32.1618 Z -1.0000
G00 Z 5.0000

(End cutting path id: path180501)


(Start cutting path id: path180501)
(Change tool to Default tool)

G00 Z 5.0000
G00 X 5.3274 Y 37.5741

G01 Z -1.0000 F 100.0000(Penetrate)
G03 X 4.8693 Y 37.9760 Z -1.0000 I -0.8427 J -0.4986 F 3500.0000
G03 X 3.9423 Y 38.1656 Z -1.0000 I -0.9270 J -2.1707
G01 X 2.5424 Y 38.1656 Z -1.0000
G01 X 2.5424 Y 33.4237 Z -1.0000
G01 X 3.9423 Y 33.4237 Z -1.0000
G03 X 4.8265 Y 33.7048 Z -1.0000 I -0.0000 J 1.5314
G03 X 5.4408 Y 34.4835 Z -1.0000 I -1.0103 J 1.4285
G03 X 5.6068 Y 35.0777 Z -1.0000 I -2.6922 J 1.0723
G03 X 5.6724 Y 35.8686 Z -1.0000 I -4.7284 J 0.7909
G03 X 5.5643 Y 36.9486 Z -1.0000 I -5.4467 J 0.0000
G03 X 5.3274 Y 37.5741 Z -1.0000 I -2.0269 J -0.4101
G01 X 5.3274 Y 37.5741 Z -1.0000
G00 Z 5.0000

(End cutting path id: path180501)


(Start cutting path id: path180501)
(Change tool to Default tool)

G00 Z 5.0000
G00 X 8.2406 Y 39.4275

G01 Z -1.0000 F 100.0000(Penetrate)
G01 X 9.7489 Y 39.4275 Z -1.0000 F 3500.0000
G01 X 9.7489 Y 32.1618 Z -1.0000
G01 X 8.2406 Y 32.1618 Z -1.0000
G01 X 8.2406 Y 39.4275 Z -1.0000
G00 Z 5.0000

(End cutting path id: path180501)


(Start cutting path id: path180501)
(Change tool to Default tool)

G00 Z 5.0000
G00 X 18.3357 Y 39.4275

G01 Z -1.0000 F 100.0000(Penetrate)
G01 X 19.8440 Y 39.4275 Z -1.0000 F 3500.0000
G01 X 19.8440 Y 32.1618 Z -1.0000
G01 X 18.3357 Y 32.1618 Z -1.0000
G01 X 18.3357 Y 39.4275 Z -1.0000
G00 Z 5.0000

(End cutting path id: path180501)


(Start cutting path id: path180501)
(Change tool to Default tool)

G00 Z 5.0000
G00 X 17.0393 Y 32.1618

G01 Z -1.0000 F 100.0000(Penetrate)
G01 X 15.5211 Y 32.1618 Z -1.0000 F 3500.0000
G01 X 12.5537 Y 37.3227 Z -1.0000
G01 X 12.5537 Y 32.1618 Z -1.0000
G01 X 11.1390 Y 32.1618 Z -1.0000
G01 X 11.1390 Y 39.4275 Z -1.0000
G01 X 12.7311 Y 39.4275 Z -1.0000
G01 X 15.6246 Y 34.3553 Z -1.0000
G01 X 15.6246 Y 39.4275 Z -1.0000
G01 X 17.0393 Y 39.4275 Z -1.0000
G01 X 17.0393 Y 32.1618 Z -1.0000
G00 Z 5.0000

(End cutting path id: path180501)


(Start cutting path id: path180502)
(Change tool to Default tool)

G00 Z 5.0000
G00 X 21.0714 Y 30.3419

G01 Z -1.0000 F 100.0000(Penetrate)
G01 X 22.5896 Y 30.3419 Z -1.0000 F 3500.0000
G01 X 22.5896 Y 24.3825 Z -1.0000
G01 X 26.1880 Y 24.3825 Z -1.0000
G01 X 26.1880 Y 23.0762 Z -1.0000
G01 X 21.0714 Y 23.0762 Z -1.0000
G01 X 21.0714 Y 30.3419 Z -1.0000
G00 Z 5.0000

(End cutting path id: path180502)


(Start cutting path id: path180502)
(Change tool to Default tool)

G00 Z 5.0000
G00 X 17.8181 Y 27.6604

G01 Z -1.0000 F 100.0000(Penetrate)
G03 X 18.0238 Y 27.8889 Z -1.0000 I -0.2698 J 0.4496 F 3500.0000
G03 X 18.1139 Y 28.2963 Z -1.0000 I -0.8759 J 0.4074
G03 X 17.9969 Y 28.7257 Z -1.0000 I -0.8470 J -0.0000
G03 X 17.7195 Y 28.9667 Z -1.0000 I -0.4975 J -0.2926
G03 X 17.3739 Y 29.0461 Z -1.0000 I -0.5856 J -1.7568
G03 X 16.8520 Y 29.0800 Z -1.0000 I -0.5219 J -3.9938
G01 X 15.2549 Y 29.0800 Z -1.0000
G01 X 15.2549 Y 27.4780 Z -1.0000
G01 X 17.0393 Y 27.4780 Z -1.0000
G03 X 17.5025 Y 27.5315 Z -1.0000 I 0.0000 J 2.0314
G03 X 17.8181 Y 27.6604 Z -1.0000 I -0.2477 J 1.0576
G01 X 17.8181 Y 27.6604 Z -1.0000
G00 Z 5.0000

(End cutting path id: path180502)


(Start cutting path id: path180502)
(Change tool to Default tool)

G00 Z 5.0000
G00 X 17.0639 Y 26.2753

G01 Z -1.0000 F 100.0000(Penetrate)
G01 X 15.2549 Y 26.2753 Z -1.0000 F 3500.0000
G01 X 15.2549 Y 24.3381 Z -1.0000
G01 X 17.0393 Y 24.3381 Z -1.0000
G03 X 17.5083 Y 24.3782 Z -1.0000 I -0.0000 J 2.7638
G03 X 17.7836 Y 24.4663 Z -1.0000 I -0.1769 J 1.0273
G03 X 18.1218 Y 24.7932 Z -1.0000 I -0.3360 J 0.6861
G03 X 18.2667 Y 25.3732 Z -1.0000 I -1.0891 J 0.5800
G03 X 18.1333 Y 25.8540 Z -1.0000 I -0.9331 J 0.0000
G03 X 17.7984 Y 26.1521 Z -1.0000 I -0.6454 J -0.3881
G03 X 17.5291 Y 26.2341 Z -1.0000 I -0.4496 J -0.9930
G03 X 17.0639 Y 26.2753 Z -1.0000 I -0.4964 J -2.9587
G01 X 17.0639 Y 26.2753 Z -1.0000
G00 Z 5.0000

(End cutting path id: path180502)


(Start cutting path id: path180502)
(Change tool to Default tool)

G00 Z 5.0000
G00 X 17.0984 Y 23.0762

G01 Z -1.0000 F 100.0000(Penetrate)
G01 X 13.8057 Y 23.0762 Z -1.0000 F 3500.0000
G01 X 13.8057 Y 30.3419 Z -1.0000
G01 X 17.3350 Y 30.3419 Z -1.0000
G02 X 18.5532 Y 30.0932 Z -1.0000 I -0.0494 J -3.3490
G02 X 19.2279 Y 29.5680 Z -1.0000 I -0.5995 J -1.4662
G02 X 19.4720 Y 29.0752 Z -1.0000 I -1.3453 J -0.9732
G02 X 19.5631 Y 28.4589 Z -1.0000 I -2.0390 J -0.6162
G02 X 19.4666 Y 27.8283 Z -1.0000 I -2.1090 J 0.0000
G02 X 19.2279 Y 27.3893 Z -1.0000 I -1.2346 J 0.3869
G02 X 19.0187 Y 27.1897 Z -1.0000 I -0.9433 J 0.7792
G02 X 18.6758 Y 26.9752 Z -1.0000 I -1.4368 J 1.9158
G02 X 19.1758 Y 26.7018 Z -1.0000 I -0.6402 J -1.7644
G02 X 19.5138 Y 26.3344 Z -1.0000 I -0.8750 J -1.1443
G02 X 19.7202 Y 25.8721 Z -1.0000 I -1.3512 J -0.8806
G02 X 19.7997 Y 25.2697 Z -1.0000 I -2.2434 J -0.6024
G02 X 19.7141 Y 24.6488 Z -1.0000 I -2.2963 J -0.0000
G02 X 19.4743 Y 24.1113 Z -1.0000 I -1.9495 J 0.5475
G02 X 19.2394 Y 23.7966 Z -1.0000 I -1.7788 J 1.0828
G02 X 18.9568 Y 23.5396 Z -1.0000 I -1.4611 J 1.3225
G02 X 18.5853 Y 23.3206 Z -1.0000 I -1.1118 J 1.4618
G02 X 18.1287 Y 23.1748 Z -1.0000 I -0.9151 J 2.0774
G02 X 17.6527 Y 23.1027 Z -1.0000 I -0.8930 J 4.2868
G02 X 17.0984 Y 23.0762 Z -1.0000 I -0.5543 J 5.7925
G01 X 17.0984 Y 23.0762 Z -1.0000
G00 Z 5.0000

(End cutting path id: path180502)


(Start cutting path id: path180502)
(Change tool to Default tool)

G00 Z 5.0000
G00 X 10.7446 Y 24.5698

G01 Z -1.0000 F 100.0000(Penetrate)
G01 X 8.0681 Y 24.5698 Z -1.0000 F 3500.0000
G01 X 7.5653 Y 23.0762 Z -1.0000
G01 X 5.9781 Y 23.0762 Z -1.0000
G01 X 8.5708 Y 30.3419 Z -1.0000
G01 X 10.2862 Y 30.3419 Z -1.0000
G01 X 12.8593 Y 23.0762 Z -1.0000
G01 X 11.2129 Y 23.0762 Z -1.0000
G01 X 10.7446 Y 24.5698 Z -1.0000
G00 Z 5.0000

(End cutting path id: path180502)


(Start cutting path id: path180502)
(Change tool to Default tool)

G00 Z 5.0000
G00 X 10.3207 Y 25.8218

G01 Z -1.0000 F 100.0000(Penetrate)
G01 X 9.4137 Y 28.6808 Z -1.0000 F 3500.0000
G01 X 8.4772 Y 25.8218 Z -1.0000
G01 X 10.3207 Y 25.8218 Z -1.0000
G00 Z 5.0000

(End cutting path id: path180502)


(Start cutting path id: path180501)
(Change tool to Default tool)

G00 Z 5.0000
G00 X 27.1344 Y 32.1618

G01 Z -1.0000 F 100.0000(Penetrate)
G01 X 25.6162 Y 32.1618 Z -1.0000 F 3500.0000
G01 X 22.6488 Y 37.3227 Z -1.0000
G01 X 22.6488 Y 32.1618 Z -1.0000
G01 X 21.2341 Y 32.1618 Z -1.0000
G01 X 21.2341 Y 39.4275 Z -1.0000
G01 X 22.8262 Y 39.4275 Z -1.0000
G01 X 25.7197 Y 34.3553 Z -1.0000
G01 X 25.7197 Y 39.4275 Z -1.0000
G01 X 27.1344 Y 39.4275 Z -1.0000
G01 X 27.1344 Y 32.1618 Z -1.0000
G00 Z 5.0000

(End cutting path id: path180501)


(Start cutting path id: path180501)
(Change tool to Default tool)

G00 Z 5.0000
G00 X 33.0051 Y 32.3392

G01 Z -1.0000 F 100.0000(Penetrate)
G02 X 32.3742 Y 32.0739 Z -1.0000 I -1.1751 J 1.9115 F 3500.0000
G02 X 31.5263 Y 31.9696 Z -1.0000 I -0.8479 J 3.3916
G02 X 30.2000 Y 32.2385 Z -1.0000 I 0.0000 J 3.4051
G02 X 29.1603 Y 32.9702 Z -1.0000 I 1.1705 J 2.7677
G02 X 28.4764 Y 34.0870 Z -1.0000 I 2.2357 J 2.1371
G02 X 28.1991 Y 35.7207 Z -1.0000 I 4.6751 J 1.6338
G02 X 28.4756 Y 37.3782 Z -1.0000 I 5.1060 J 0.0000
G02 X 29.1702 Y 38.5501 Z -1.0000 I 3.1737 J -1.0892
G02 X 30.2702 Y 39.3226 Z -1.0000 I 2.2839 J -2.0830
G02 X 31.7383 Y 39.6148 Z -1.0000 I 1.4681 J -3.5410
G02 X 33.0494 Y 39.4119 Z -1.0000 I 0.0000 J -4.3380
G02 X 33.9614 Y 38.9099 Z -1.0000 I -0.8072 J -2.5457
G02 X 34.6222 Y 38.1111 Z -1.0000 I -1.7844 J -2.1488
G02 X 34.9275 Y 37.1601 Z -1.0000 I -2.2701 J -1.2534
G01 X 33.4340 Y 37.1601 Z -1.0000
G03 X 33.1254 Y 37.7917 Z -1.0000 I -1.5238 J -0.3532
G03 X 32.5911 Y 38.2001 Z -1.0000 I -1.1121 J -0.9013
G03 X 32.2074 Y 38.3193 Z -1.0000 I -0.7395 J -1.7030
G03 X 31.7580 Y 38.3628 Z -1.0000 I -0.4494 J -2.3014
G03 X 30.9613 Y 38.1881 Z -1.0000 I -0.0000 J -1.9039
G03 X 30.3138 Y 37.6973 Z -1.0000 I 0.7905 J -1.7158
G03 X 29.9271 Y 36.9724 Z -1.0000 I 1.4670 J -1.2481
G03 X 29.7518 Y 35.7059 Z -1.0000 I 4.4881 J -1.2664
G03 X 29.9487 Y 34.4521 Z -1.0000 I 4.0897 J 0.0000
G03 X 30.3630 Y 33.8082 Z -1.0000 I 1.4171 J 0.4564
G03 X 31.0284 Y 33.3909 Z -1.0000 I 1.4859 J 1.6306
G03 X 31.7531 Y 33.2512 Z -1.0000 I 0.7247 J 1.8085
G03 X 32.4703 Y 33.3732 Z -1.0000 I -0.0000 J 2.1690
G03 X 33.0051 Y 33.6899 Z -1.0000 I -0.5234 J 1.4938
G03 X 33.3896 Y 34.1894 Z -1.0000 I -1.2036 J 1.3240
G03 X 33.6065 Y 34.8482 Z -1.0000 I -1.9228 J 0.9982
G01 X 31.9256 Y 34.8482 Z -1.0000
G01 X 31.9256 Y 36.0608 Z -1.0000
G01 X 34.9522 Y 36.0608 Z -1.0000
G01 X 34.9522 Y 32.1618 Z -1.0000
G01 X 33.9466 Y 32.1618 Z -1.0000
G01 X 33.7938 Y 33.0688 Z -1.0000
G02 X 33.3283 Y 32.5826 Z -1.0000 I -4.2379 J 3.5921
G02 X 33.0051 Y 32.3392 Z -1.0000 I -1.3630 J 1.4735
G01 X 33.0051 Y 32.3392 Z -1.0000
G00 Z 5.0000

(End cutting path id: path180501)


(Start cutting path id: path180502)
(Change tool to Default tool)

G00 Z 5.0000
G00 X 32.2953 Y 26.2506

G01 Z -1.0000 F 100.0000(Penetrate)
G01 X 28.7660 Y 26.2506 Z -1.0000 F 3500.0000
G01 X 28.7660 Y 24.3825 Z -1.0000
G01 X 32.7882 Y 24.3825 Z -1.0000
G01 X 32.7882 Y 23.0762 Z -1.0000
G01 X 27.2823 Y 23.0762 Z -1.0000
G01 X 27.2823 Y 30.3419 Z -1.0000
G01 X 32.6108 Y 30.3419 Z -1.0000
G01 X 32.6108 Y 29.0554 Z -1.0000
G01 X 28.7660 Y 29.0554 Z -1.0000
G01 X 28.7660 Y 27.5125 Z -1.0000
G01 X 32.2953 Y 27.5125 Z -1.0000
G01 X 32.2953 Y 26.2506 Z -1.0000
G00 Z 5.0000

(End cutting path id: path180502)



(Footer)
M5
G00 X0.0000 Y0.0000
M2
(Using default footer. To add your own footer create file "footer" in the output dir.)
(end)
%