%
(Header)
(Generated by gcodetools from Inkscape.)
(Using default header. To add your own header create file "header" in the output dir.)
M3
(Header end.)
G21 (All units in mm)

(Start cutting path id: path653)
(Change tool to Default tool)

G00 Z5.000000
G00 X3.528130 Y7.933975

G01 Z-1.000000 F100.0(Penetrate)
G01 X2.316949 Y7.933975 Z-1.000000 F3500.000000
G01 X2.316949 Y16.444976 Z-1.000000
G01 X-0.674995 Y16.444976 Z-1.000000
G01 X-0.674995 Y17.505578 Z-1.000000
G01 X6.500433 Y17.505578 Z-1.000000
G01 X6.500433 Y16.444976 Z-1.000000
G01 X3.528130 Y16.444976 Z-1.000000
G01 X3.528130 Y7.933975 Z-1.000000
G00 Z5.000000

(End cutting path id: path653)


(Start cutting path id: path653)
(Change tool to Default tool)

G00 Z5.000000
G00 X9.276329 Y8.752341

G01 Z-1.000000 F100.0(Penetrate)
G03 X10.203765 Y8.906451 Z-1.000000 I-0.000000 J2.867720 F3500.000000
G03 X10.827950 Y9.282642 Z-1.000000 I-0.557294 J1.630602
G03 X11.232381 Y9.890776 Z-1.000000 I-1.107612 J1.175150
G03 X11.397532 Y10.801528 Z-1.000000 I-2.428673 J0.910752
G01 X11.397532 Y11.449673 Z-1.000000
G01 X10.336930 Y11.403843 Z-1.000000
G03 X9.131524 Y11.251715 Z-1.000000 I0.254340 J-6.866948
G03 X8.529979 Y11.011027 Z-1.000000 I0.415123 J-1.909562
G03 X8.126269 Y10.575078 Z-1.000000 I0.581263 J-0.943181
G03 X7.966944 Y9.917691 Z-1.000000 I1.276553 J-0.657387
G03 X8.065423 Y9.399021 Z-1.000000 I1.415102 J0.000000
G03 X8.307384 Y9.053497 Z-1.000000 I0.840530 J0.331118
G03 X8.687742 Y8.841700 Z-1.000000 I0.695112 J0.800891
G03 X9.276329 Y8.752339 Z-1.000000 I0.588587 J1.893717
G01 X9.276329 Y8.752341 Z-1.000000
G00 Z5.000000

(End cutting path id: path653)


(Start cutting path id: path653)
(Change tool to Default tool)

G00 Z5.000000
G00 X11.705237 Y7.933975

G01 Z-1.000000 F100.0(Penetrate)
G01 X11.476095 Y8.955295 Z-1.000000 F3500.000000
G01 X11.423715 Y8.955295 Z-1.000000
G02 X10.835676 Y8.346765 Z-1.000000 I-3.456790 J2.752009
G02 X10.350019 Y8.038726 Z-1.000000 I-1.325014 J1.552161
G02 X9.804979 Y7.872493 Z-1.000000 I-0.949335 J2.136006
G02 X9.007900 Y7.803037 Z-1.000000 I-0.797079 J4.538927
G02 X8.010838 Y7.965442 Z-1.000000 I-0.000000 J3.141863
G02 X7.344981 Y8.359525 Z-1.000000 I0.584913 J1.747859
G02 X6.916425 Y8.992045 Z-1.000000 I1.139884 J1.233755
G02 X6.742664 Y9.930787 Z-1.000000 I2.448892 J0.938742
G02 X7.514063 Y11.369126 Z-1.000000 I1.726652 J-0.000000
G02 X10.192893 Y12.222210 Z-1.000000 I2.834297 J-4.267642
G01 X11.410621 Y12.268040 Z-1.000000
G01 X11.410621 Y12.693590 Z-1.000000
G03 X11.299234 Y13.468677 Z-1.000000 I-2.752422 J0.000000
G03 X11.057087 Y13.898224 Z-1.000000 I-1.047282 J-0.307354
G03 X10.649173 Y14.168936 Z-1.000000 I-0.729511 J-0.656561
G03 X9.924469 Y14.291039 Z-1.000000 I-0.724704 J-2.089564
G03 X9.362034 Y14.246998 Z-1.000000 I-0.000000 J-3.613344
G03 X8.844227 Y14.120819 Z-1.000000 I0.501949 J-3.185448
G03 X8.345566 Y13.937055 Z-1.000000 I3.099260 J-9.178578
G03 X7.894923 Y13.741098 Z-1.000000 I3.076221 J-7.690564
G01 X7.534847 Y14.624931 Z-1.000000
G02 X8.091911 Y14.877607 Z-1.000000 I2.326141 J-4.387942
G02 X8.719840 Y15.076669 Z-1.000000 I2.051599 J-5.381727
G02 X9.366461 Y15.200335 Z-1.000000 I1.338918 J-5.248561
G02 X9.989943 Y15.240342 Z-1.000000 I0.623482 J-4.838224
G02 X11.223497 Y15.060858 Z-1.000000 I-0.000000 J-4.328713
G02 X11.927833 Y14.664213 Z-1.000000 I-0.518720 J-1.744788
G02 X12.365999 Y14.000867 Z-1.000000 I-1.078449 J-1.188744
G02 X12.562884 Y12.831074 Z-1.000000 I-3.376726 J-1.169793
G01 X12.562884 Y7.933975 Z-1.000000
G01 X11.705237 Y7.933975 Z-1.000000
G00 Z5.000000

(End cutting path id: path653)


(Start cutting path id: path653)
(Change tool to Default tool)

G00 Z5.000000
G00 X17.996832 Y14.264851

G01 Z-1.000000 F100.0(Penetrate)
G03 X17.003387 Y14.075773 Z-1.000000 I-0.000000 J-2.704395 F3500.000000
G03 X16.438664 Y13.649440 Z-1.000000 I0.486358 J-1.231417
G03 X16.125245 Y12.980485 Z-1.000000 I1.371380 J-1.050419
G03 X15.967285 Y11.567518 Z-1.000000 I6.240598 J-1.412967
G01 X15.967285 Y11.515138 Z-1.000000
G03 X16.126224 Y10.095205 Z-1.000000 I6.422199 J-0.000000
G03 X16.445211 Y9.407028 Z-1.000000 I1.765153 J0.400175
G03 X17.023939 Y8.970187 Z-1.000000 I1.086288 J0.837346
G03 X18.023020 Y8.778523 Z-1.000000 I0.999081 J2.508109
G03 X18.884856 Y8.978657 Z-1.000000 I0.000000 J1.955724
G03 X19.463343 Y9.485591 Z-1.000000 I-0.651352 J1.326827
G03 X19.792497 Y10.244422 Z-1.000000 I-1.910516 J1.279518
G03 X19.941268 Y11.541325 Z-1.000000 I-5.578465 J1.296903
G03 X19.789613 Y12.855172 Z-1.000000 I-5.767011 J-0.000000
G03 X19.463343 Y13.583966 Z-1.000000 I-2.046831 J-0.478905
G03 X18.883621 Y14.069023 Z-1.000000 I-1.194064 J-0.838142
G03 X17.996832 Y14.264846 Z-1.000000 I-0.886789 J-1.910007
G01 X17.996832 Y14.264851 Z-1.000000
G00 Z5.000000

(End cutting path id: path653)


(Start cutting path id: path653)
(Change tool to Default tool)

G00 Z5.000000
G00 X18.193240 Y15.240342

G01 Z-1.000000 F100.0(Penetrate)
G02 X19.480359 Y14.965336 Z-1.000000 I0.000000 J-3.149574 F3500.000000
G02 X20.386459 Y14.258304 Z-1.000000 I-0.981449 J-2.191905
G02 X20.926743 Y13.201984 Z-1.000000 I-2.375778 J-1.881488
G02 X21.158996 Y11.528236 Z-1.000000 I-5.914858 J-1.673748
G02 X20.921846 Y9.831096 Z-1.000000 I-6.191283 J-0.000000
G02 X20.373365 Y8.771981 Z-1.000000 I-2.884390 J0.822154
G02 X19.459649 Y8.071787 Z-1.000000 I-1.915005 J1.552709
G02 X18.193240 Y7.803037 Z-1.000000 I-1.266409 J2.849422
G02 X17.482096 Y7.874151 Z-1.000000 I0.000000 J3.591277
G02 X16.896949 Y8.064914 Z-1.000000 I0.527371 J2.610488
G02 X16.381300 Y8.391243 Z-1.000000 I0.959172 J2.086201
G02 X15.967285 Y8.843998 Z-1.000000 I1.490706 J1.778827
G01 X15.875625 Y8.843998 Z-1.000000
G02 X15.669803 Y8.059189 Z-1.000000 I-106.900006 J27.615879
G02 X15.633388 Y7.933975 Z-1.000000 I-2.756095 J0.733639
G01 X14.788839 Y7.933975 Z-1.000000
G01 X14.788839 Y18.120989 Z-1.000000
G01 X15.967285 Y18.120989 Z-1.000000
G01 X15.967285 Y15.646252 Z-1.000000
G02 X15.950941 Y14.907171 Z-1.000000 I-16.719388 J0.000000
G02 X15.901815 Y14.166647 Z-1.000000 I-16.833875 J0.744870
G01 X15.967285 Y14.166647 Z-1.000000
G02 X16.856182 Y14.934723 Z-1.000000 I1.869823 J-1.265552
G02 X18.193240 Y15.240342 Z-1.000000 I1.337058 J-2.771952
G01 X18.193240 Y15.240342 Z-1.000000
G00 Z5.000000

(End cutting path id: path653)


(Start cutting path id: path652)
(Change tool to Default tool)

G00 Z5.000000
G00 X18.474757 Y24.694100

G01 Z-1.000000 F100.0(Penetrate)
G01 X18.474757 Y29.290041 Z-1.000000 F3500.000000
G03 X18.352432 Y30.119502 Z-1.000000 I-2.873365 J-0.000000
G03 X18.081941 Y30.592879 Z-1.000000 I-1.163282 J-0.350739
G03 X17.636213 Y30.892068 Z-1.000000 I-0.808282 J-0.722554
G03 X16.864213 Y31.024976 Z-1.000000 I-0.772000 J-2.175637
G03 X15.846702 Y30.837194 Z-1.000000 I-0.000000 J-2.850628
G03 X15.253670 Y30.409565 Z-1.000000 I0.508051 J-1.329580
G03 X14.919010 Y29.742603 Z-1.000000 I1.323380 J-1.081471
G03 X14.756104 Y28.419300 Z-1.000000 I5.293216 J-1.323303
G01 X14.756104 Y24.694100 Z-1.000000
G01 X13.577658 Y24.694100 Z-1.000000
G01 X13.577658 Y31.882623 Z-1.000000
G01 X14.526961 Y31.882623 Z-1.000000
G01 X14.703728 Y30.900584 Z-1.000000
G01 X14.769198 Y30.900584 Z-1.000000
G02 X15.163980 Y31.362502 Z-1.000000 I1.776051 J-1.118254
G02 X15.705408 Y31.718950 Z-1.000000 I1.571982 J-1.798348
G02 X16.325690 Y31.935948 Z-1.000000 I1.222362 J-2.499050
G02 X17.034433 Y32.013561 Z-1.000000 I0.708743 J-3.197219
G02 X18.275102 Y31.816054 Z-1.000000 I0.000000 J-3.995474
G02 X18.998511 Y31.371963 Z-1.000000 I-0.566411 J-1.733913
G02 X19.440679 Y30.647757 Z-1.000000 I-1.276402 J-1.276401
G02 X19.640109 Y29.375151 Z-1.000000 I-3.960666 J-1.272606
G01 X19.640109 Y24.694100 Z-1.000000
G01 X18.474757 Y24.694100 Z-1.000000
G00 Z5.000000

(End cutting path id: path652)


(Start cutting path id: path652)
(Change tool to Default tool)

G00 Z5.000000
G00 X23.044510 Y24.694100

G01 Z-1.000000 F100.0(Penetrate)
G01 X21.866064 Y24.694100 Z-1.000000 F3500.000000
G01 X21.866064 Y31.882623 Z-1.000000
G01 X23.044510 Y31.882623 Z-1.000000
G01 X23.044510 Y24.694100 Z-1.000000
G00 Z5.000000

(End cutting path id: path652)


(Start cutting path id: path652)
(Change tool to Default tool)

G00 Z5.000000
G00 X30.219939 Y24.694100

G01 Z-1.000000 F100.0(Penetrate)
G01 X30.219939 Y29.290041 Z-1.000000 F3500.000000
G03 X30.097614 Y30.119502 Z-1.000000 I-2.873365 J-0.000000
G03 X29.827123 Y30.592879 Z-1.000000 I-1.163282 J-0.350739
G03 X29.381395 Y30.892068 Z-1.000000 I-0.808282 J-0.722554
G03 X28.609395 Y31.024976 Z-1.000000 I-0.772000 J-2.175637
G03 X27.591884 Y30.837194 Z-1.000000 I-0.000000 J-2.850628
G03 X26.998852 Y30.409565 Z-1.000000 I0.508051 J-1.329580
G03 X26.664192 Y29.742603 Z-1.000000 I1.323380 J-1.081471
G03 X26.501286 Y28.419300 Z-1.000000 I5.293216 J-1.323303
G01 X26.501286 Y24.694100 Z-1.000000
G01 X25.322840 Y24.694100 Z-1.000000
G01 X25.322840 Y31.882623 Z-1.000000
G01 X26.272144 Y31.882623 Z-1.000000
G01 X26.448910 Y30.900584 Z-1.000000
G01 X26.514380 Y30.900584 Z-1.000000
G02 X26.909162 Y31.362502 Z-1.000000 I1.776051 J-1.118254
G02 X27.450590 Y31.718950 Z-1.000000 I1.571982 J-1.798348
G02 X28.070872 Y31.935948 Z-1.000000 I1.222362 J-2.499050
G02 X28.779615 Y32.013561 Z-1.000000 I0.708743 J-3.197219
G02 X30.020284 Y31.816054 Z-1.000000 I-0.000000 J-3.995474
G02 X30.743693 Y31.371963 Z-1.000000 I-0.566411 J-1.733913
G02 X31.185861 Y30.647757 Z-1.000000 I-1.276402 J-1.276401
G02 X31.385291 Y29.375151 Z-1.000000 I-3.960666 J-1.272606
G01 X31.385291 Y24.694100 Z-1.000000
G01 X30.219939 Y24.694100 Z-1.000000
G00 Z5.000000

(End cutting path id: path652)


(Start cutting path id: path652)
(Change tool to Default tool)

G00 Z5.000000
G00 X36.347860 Y25.525560

G01 Z-1.000000 F100.0(Penetrate)
G03 X37.351245 Y25.704913 Z-1.000000 I-0.000000 J2.896387 F3500.000000
G03 X37.925669 Y26.108236 Z-1.000000 I-0.475769 J1.288318
G03 X38.262692 Y26.756176 Z-1.000000 I-1.269262 J1.071821
G03 X38.423235 Y27.993750 Z-1.000000 I-4.689754 J1.237574
G01 X38.423235 Y28.275268 Z-1.000000
G03 X38.260946 Y29.660920 Z-1.000000 I-5.996614 J0.000000
G03 X37.925669 Y30.370283 Z-1.000000 I-1.845310 J-0.438261
G03 X37.329964 Y30.827125 Z-1.000000 I-1.133916 J-0.861776
G03 X36.321672 Y31.024976 Z-1.000000 I-1.008292 J-2.470316
G03 X35.519953 Y30.830990 Z-1.000000 I-0.000000 J-1.753692
G03 X34.920631 Y30.304814 Z-1.000000 I0.749477 J-1.458073
G03 X34.581512 Y29.543988 Z-1.000000 I1.881542 J-1.294640
G03 X34.429611 Y28.262174 Z-1.000000 I5.332337 J-1.281814
G03 X34.578921 Y26.972683 Z-1.000000 I5.642890 J0.000000
G03 X34.907537 Y26.226081 Z-1.000000 I2.169295 J0.509192
G03 X35.494978 Y25.721967 Z-1.000000 I1.254638 J0.867693
G03 X36.347860 Y25.525560 Z-1.000000 I0.852882 J1.753589
G01 X36.347860 Y25.525560 Z-1.000000
G00 Z5.000000

(End cutting path id: path652)


(Start cutting path id: path652)
(Change tool to Default tool)

G00 Z5.000000
G00 X38.410141 Y24.759570

G01 Z-1.000000 F100.0(Penetrate)
G01 X38.449421 Y25.643404 Z-1.000000 F3500.000000
G01 X38.397041 Y25.643404 Z-1.000000
G02 X37.506857 Y24.870162 Z-1.000000 I-1.878809 J1.263926
G02 X36.171087 Y24.563162 Z-1.000000 I-1.335770 J2.752497
G02 X34.904677 Y24.831913 Z-1.000000 I-0.000000 J3.118171
G02 X33.990962 Y25.532107 Z-1.000000 I1.001289 J2.252898
G02 X33.446579 Y26.589819 Z-1.000000 I2.355630 J1.881343
G02 X33.211878 Y28.275268 Z-1.000000 I5.934480 J1.685449
G02 X33.444669 Y29.929802 Z-1.000000 I5.996089 J-0.000000
G02 X33.997508 Y31.011882 Z-1.000000 I3.048234 J-0.875090
G02 X34.921675 Y31.740900 Z-1.000000 I1.992895 J-1.576081
G02 X36.157993 Y32.013561 Z-1.000000 I1.236318 J-2.666567
G02 X37.465869 Y31.714498 Z-1.000000 I-0.000000 J-3.009360
G02 X38.410135 Y30.926772 Z-1.000000 I-1.098739 J-2.276905
G01 X38.482155 Y30.926772 Z-1.000000
G01 X38.639281 Y31.882623 Z-1.000000
G01 X39.575492 Y31.882623 Z-1.000000
G01 X39.575492 Y24.576256 Z-1.000000
G02 X39.337707 Y23.130259 Z-1.000000 I-4.515525 J-0.000000
G02 X38.789861 Y22.252098 Z-1.000000 I-2.134045 J0.721367
G02 X37.910368 Y21.715423 Z-1.000000 I-1.548239 J1.548239
G02 X36.360952 Y21.473014 Z-1.000000 I-1.549416 J4.830532
G02 X34.818886 Y21.608596 Z-1.000000 I0.000000 J8.837255
G02 X33.774917 Y21.931298 Z-1.000000 I0.768351 J4.335700
G01 X33.774917 Y23.018088 Z-1.000000
G03 X34.863729 Y22.619138 Z-1.000000 I1.939913 J3.609137
G03 X36.426421 Y22.455052 Z-1.000000 I1.562692 J7.359181
G03 X37.279033 Y22.608130 Z-1.000000 I-0.000000 J2.450970
G03 X37.873291 Y22.991900 Z-1.000000 I-0.568599 J1.532444
G03 X38.255173 Y23.592937 Z-1.000000 I-1.156895 J1.156895
G03 X38.410139 Y24.478052 Z-1.000000 I-2.450256 J0.885115
G01 X38.410141 Y24.759570 Z-1.000000
G00 Z5.000000

(End cutting path id: path652)


(Start cutting path id: path653)
(Change tool to Default tool)

G00 Z5.000000
G00 X29.257541 Y14.291038

G01 Z-1.000000 F100.0(Penetrate)
G03 X28.480511 Y14.139016 Z-1.000000 I-0.000000 J-2.061832 F3500.000000
G03 X27.921969 Y13.747644 Z-1.000000 I0.576547 J-1.417056
G03 X27.554438 Y13.149906 Z-1.000000 I1.426379 J-1.288898
G03 X27.339293 Y12.235304 Z-1.000000 I3.216352 J-1.239199
G01 X30.999023 Y12.235304 Z-1.000000
G03 X30.850685 Y13.192260 Z-1.000000 I-3.449863 J-0.044790
G03 X30.534191 Y13.767284 Z-1.000000 I-1.516759 J-0.460214
G03 X30.014126 Y14.141874 Z-1.000000 I-1.042696 J-0.899324
G03 X29.257541 Y14.291038 Z-1.000000 I-0.756585 J-1.844176
G01 X29.257541 Y14.291038 Z-1.000000
G00 Z5.000000

(End cutting path id: path653)


(Start cutting path id: path653)
(Change tool to Default tool)

G00 Z5.000000
G00 X29.552153 Y7.803037

G01 Z-1.000000 F100.0(Penetrate)
G02 X28.054587 Y8.080700 Z-1.000000 I0.000000 J4.177370 F3500.000000
G02 X27.011946 Y8.778528 Z-1.000000 I1.016149 J2.646081
G02 X26.361514 Y9.865469 Z-1.000000 I2.203709 J2.056794
G02 X26.095377 Y11.475861 Z-1.000000 I4.739157 J1.610392
G02 X26.344829 Y13.113402 Z-1.000000 I5.499585 J0.000000
G02 X26.953024 Y14.225569 Z-1.000000 I3.074601 J-0.958983
G02 X27.942335 Y14.972098 Z-1.000000 I2.096059 J-1.748941
G02 X29.270635 Y15.253436 Z-1.000000 I1.328300 J-2.995019
G02 X30.518726 Y15.009700 Z-1.000000 I0.000000 J-3.317393
G02 X31.431120 Y14.376148 Z-1.000000 I-0.952273 J-2.345149
G02 X32.004142 Y13.414476 Z-1.000000 I-1.980703 J-1.831779
G02 X32.236392 Y12.012709 Z-1.000000 I-4.114126 J-1.401767
G01 X32.236392 Y11.299094 Z-1.000000
G01 X27.313105 Y11.299094 Z-1.000000
G03 X27.516948 Y10.144628 Z-1.000000 I3.972580 J0.106204
G03 X27.935063 Y9.439768 Z-1.000000 I1.841797 J0.616095
G03 X28.604472 Y8.988499 Z-1.000000 I1.299832 J1.206029
G03 X29.604528 Y8.804716 Z-1.000000 I1.000056 J2.629012
G03 X30.178239 Y8.830429 Z-1.000000 I-0.000000 J6.413279
G03 X30.697865 Y8.902916 Z-1.000000 I-0.478838 J5.331270
G03 X31.205796 Y9.037583 Z-1.000000 I-0.879466 J4.342345
G03 X31.909045 Y9.302278 Z-1.000000 I-2.836924 J8.603787
G01 X31.909045 Y8.267864 Z-1.000000
G02 X31.304256 Y8.041572 Z-1.000000 I-2.715566 J6.336320
G02 X30.789521 Y7.907784 Z-1.000000 I-1.431818 J4.451664
G02 X30.262795 Y7.833059 Z-1.000000 I-0.924282 J4.621393
G02 X29.552153 Y7.803033 Z-1.000000 I-0.710642 J8.394434
G01 X29.552153 Y7.803037 Z-1.000000
G00 Z5.000000

(End cutting path id: path653)


(Start cutting path id: path653)
(Change tool to Default tool)

G00 Z5.000000
G00 X24.216410 Y7.933975

G01 Z-1.000000 F100.0(Penetrate)
G01 X23.037964 Y7.933975 Z-1.000000 F3500.000000
G01 X23.037964 Y18.120989 Z-1.000000
G01 X24.216410 Y18.120989 Z-1.000000
G01 X24.216410 Y7.933975 Z-1.000000
G00 Z5.000000

(End cutting path id: path653)


(Start cutting path id: path652)
(Change tool to Default tool)

G00 Z5.000000
G00 X11.299328 Y24.694100

G01 Z-1.000000 F100.0(Penetrate)
G01 X10.120882 Y24.694100 Z-1.000000 F3500.000000
G01 X10.120882 Y31.882623 Z-1.000000
G01 X11.299328 Y31.882623 Z-1.000000
G01 X11.299328 Y24.694100 Z-1.000000
G00 Z5.000000

(End cutting path id: path652)


(Start cutting path id: path652)
(Change tool to Default tool)

G00 Z5.000000
G00 X8.163352 Y29.571559

G01 Z-1.000000 F100.0(Penetrate)
G02 X7.780636 Y27.363558 Z-1.000000 I-6.560658 J-0.000000 F3500.000000
G02 X6.867061 Y25.944563 Z-1.000000 I-3.503926 J1.252306
G02 X5.426633 Y25.065989 Z-1.000000 I-2.664200 J2.747891
G02 X3.161502 Y24.694100 Z-1.000000 I-2.265131 J6.712375
G01 X0.496904 Y24.694100 Z-1.000000
G01 X0.496904 Y34.265703 Z-1.000000
G01 X3.443020 Y34.265703 Z-1.000000
G02 X5.528242 Y33.907463 Z-1.000000 I0.000000 J-6.247883
G02 X6.919436 Y33.034881 Z-1.000000 I-1.256224 J-3.548163
G02 X7.799955 Y31.658386 Z-1.000000 I-2.576976 J-2.618318
G02 X8.163352 Y29.571559 Z-1.000000 I-5.810165 J-2.086827
G01 X8.163352 Y29.571559 Z-1.000000
G00 Z5.000000

(End cutting path id: path652)


(Start cutting path id: path652)
(Change tool to Default tool)

G00 Z5.000000
G00 X6.893248 Y29.532279

G01 Z-1.000000 F100.0(Penetrate)
G03 X6.619771 Y31.248433 Z-1.000000 I-5.521426 J0.000000 F3500.000000
G03 X5.989773 Y32.295081 Z-1.000000 I-2.593361 J-0.848066
G03 X4.970138 Y32.951726 Z-1.000000 I-1.862249 J-1.771727
G03 X3.272800 Y33.237836 Z-1.000000 I-1.697338 J-4.891645
G01 X1.701538 Y33.237836 Z-1.000000
G01 X1.701538 Y25.728514 Z-1.000000
G01 X3.004376 Y25.728514 Z-1.000000
G03 X5.766855 Y26.854908 Z-1.000000 I0.000000 J3.950684
G03 X6.893249 Y29.532277 Z-1.000000 I-2.618774 J2.677369
G01 X6.893248 Y29.532279 Z-1.000000
G00 Z5.000000

(End cutting path id: path652)


(Start cutting path id: path652)
(Change tool to Default tool)

G00 Z5.000000
G00 X10.029225 Y33.827059

G01 Z-1.000000 F100.0(Penetrate)
G02 X10.090479 Y34.192594 Z-1.000000 I1.121305 J-0.000000 F3500.000000
G02 X10.225633 Y34.396642 Z-1.000000 I0.462255 J-0.159398
G02 X10.446447 Y34.525709 Z-1.000000 I0.450370 J-0.517090
G02 X10.723199 Y34.573408 Z-1.000000 I0.276752 J-0.779005
G02 X10.980898 Y34.527279 Z-1.000000 I0.000000 J-0.742870
G02 X11.201124 Y34.396642 Z-1.000000 I-0.246528 J-0.666539
G02 X11.346021 Y34.189856 Z-1.000000 I-0.318193 J-0.377118
G02 X11.410626 Y33.827059 Z-1.000000 I-0.986351 J-0.362796
G02 X11.346983 Y33.469670 Z-1.000000 I-1.035293 J0.000000
G02 X11.201124 Y33.257477 Z-1.000000 I-0.488863 J0.179812
G02 X10.979879 Y33.121701 Z-1.000000 I-0.475061 J0.525959
G02 X10.723199 Y33.074163 Z-1.000000 I-0.256680 J0.669202
G02 X10.447506 Y33.123333 Z-1.000000 I-0.000000 J0.797481
G02 X10.225633 Y33.257477 Z-1.000000 I0.236312 J0.641418
G02 X10.089559 Y33.467009 Z-1.000000 I0.352950 J0.378162
G02 X10.029225 Y33.827059 Z-1.000000 I1.044143 J0.360050
G01 X10.029225 Y33.827059 Z-1.000000
G00 Z5.000000

(End cutting path id: path652)


(Start cutting path id: path652)
(Change tool to Default tool)

G00 Z5.000000
G00 X21.774407 Y33.827059

G01 Z-1.000000 F100.0(Penetrate)
G02 X21.835661 Y34.192594 Z-1.000000 I1.121305 J0.000000 F3500.000000
G02 X21.970815 Y34.396642 Z-1.000000 I0.462255 J-0.159398
G02 X22.191629 Y34.525709 Z-1.000000 I0.450370 J-0.517090
G02 X22.468381 Y34.573408 Z-1.000000 I0.276752 J-0.779005
G02 X22.726080 Y34.527279 Z-1.000000 I0.000000 J-0.742870
G02 X22.946306 Y34.396642 Z-1.000000 I-0.246528 J-0.666539
G02 X23.091203 Y34.189856 Z-1.000000 I-0.318193 J-0.377118
G02 X23.155808 Y33.827059 Z-1.000000 I-0.986351 J-0.362796
G02 X23.092165 Y33.469670 Z-1.000000 I-1.035293 J0.000000
G02 X22.946306 Y33.257477 Z-1.000000 I-0.488863 J0.179812
G02 X22.725061 Y33.121701 Z-1.000000 I-0.475061 J0.525959
G02 X22.468381 Y33.074163 Z-1.000000 I-0.256680 J0.669202
G02 X22.192688 Y33.123333 Z-1.000000 I-0.000000 J0.797481
G02 X21.970815 Y33.257477 Z-1.000000 I0.236312 J0.641418
G02 X21.834741 Y33.467009 Z-1.000000 I0.352950 J0.378162
G02 X21.774407 Y33.827059 Z-1.000000 I1.044143 J0.360050
G01 X21.774407 Y33.827059 Z-1.000000
G00 Z5.000000

(End cutting path id: path652)


(Footer)
M5
G00 X0.0000 Y0.0000
M2
(Using default footer. To add your own footer create file "footer" in the output dir.)
(end)
%