%
(Header)
(Generated by gcodetools from Inkscape.)
(Using default header. To add your own header create file "header" in the output dir.)
M3
(Header end.)
G21 (All units in mm)

(Start cutting path id: text71276)
(Change tool to Default tool)

G00 Z5.000000
G00 X5.923778 Y25.831041

G01 Z-1.000000 F100.0(Penetrate)
G01 X0.138581 Y25.831041 Z-1.000000 F3500.000000
G01 X0.138581 Y39.259987 Z-1.000000
G01 X5.923778 Y39.259987 Z-1.000000
G02 X7.158964 Y39.164666 Z-1.000000 I-0.144945 J-9.928754
G02 X8.000983 Y38.968450 Z-1.000000 I-0.672181 J-4.789289
G02 X9.269396 Y38.309566 Z-1.000000 I-1.391542 J-4.229197
G02 X10.287730 Y37.264777 Z-1.000000 I-2.771391 J-3.719888
G02 X10.879495 Y36.214520 Z-1.000000 I-5.066509 J-3.546556
G02 X11.244338 Y35.096467 Z-1.000000 I-5.385440 J-2.375931
G02 X11.439365 Y33.923824 Z-1.000000 I-11.491076 J-2.513670
G02 X11.499433 Y32.873494 Z-1.000000 I-9.152889 J-1.050330
G02 X11.195952 Y30.276443 Z-1.000000 I-11.263912 J0.000000
G02 X10.424388 Y28.336442 Z-1.000000 I-6.988025 J1.655798
G02 X8.571426 Y26.518329 Z-1.000000 I-4.237558 J2.465487
G02 X5.923778 Y25.831041 Z-1.000000 I-2.647647 J4.756136
G01 X5.923778 Y25.831041 Z-1.000000
G00 Z5.000000

(End cutting path id: text71276)


(Start cutting path id: text71276)
(Change tool to Default tool)

G00 Z5.000000
G00 X8.010093 Y35.834422

G01 Z-1.000000 F100.0(Penetrate)
G03 X7.163356 Y36.577165 Z-1.000000 I-1.557440 J-0.921485 F3500.000000
G03 X5.450030 Y36.927687 Z-1.000000 I-1.713326 J-4.012039
G01 X2.862635 Y36.927687 Z-1.000000
G01 X2.862635 Y28.163341 Z-1.000000
G01 X5.450030 Y28.163341 Z-1.000000
G03 X7.084385 Y28.682878 Z-1.000000 I-0.000000 J2.830439
G03 X8.219636 Y30.122109 Z-1.000000 I-1.867276 J2.640241
G03 X8.526431 Y31.220441 Z-1.000000 I-4.975849 J1.981906
G03 X8.647832 Y32.682172 Z-1.000000 I-8.739287 J1.461731
G03 X8.447928 Y34.678388 Z-1.000000 I-10.066912 J-0.000000
G03 X8.010093 Y35.834422 Z-1.000000 I-3.746213 J-0.757904
G01 X8.010093 Y35.834422 Z-1.000000
G00 Z5.000000

(End cutting path id: text71276)


(Start cutting path id: text71276)
(Change tool to Default tool)

G00 Z5.000000
G00 X19.553156 Y25.457509

G01 Z-1.000000 F100.0(Penetrate)
G02 X16.870209 Y25.920963 Z-1.000000 I0.000000 J7.997543 F3500.000000
G02 X15.152762 Y27.024523 Z-1.000000 I1.508311 J4.235547
G02 X13.710947 Y29.205488 Z-1.000000 I3.912576 J4.153635
G02 X13.112000 Y32.563735 Z-1.000000 I9.115245 J3.358247
G02 X13.721857 Y35.983156 Z-1.000000 I9.891145 J0.000000
G02 X15.152762 Y38.102948 Z-1.000000 I5.032088 J-1.853927
G02 X16.870209 Y39.206507 Z-1.000000 I3.225758 J-3.131987
G02 X19.553156 Y39.669962 Z-1.000000 I2.682947 J-7.534089
G02 X22.236104 Y39.206507 Z-1.000000 I-0.000000 J-7.997546
G02 X23.953550 Y38.102948 Z-1.000000 I-1.508309 J-4.235543
G02 X25.377581 Y35.984957 Z-1.000000 I-3.608209 J-3.963698
G02 X25.985202 Y32.563735 Z-1.000000 I-9.327813 J-3.421221
G02 X25.388456 Y29.203747 Z-1.000000 I-9.757609 J-0.000000
G02 X23.953550 Y27.024523 Z-1.000000 I-5.355396 J1.964233
G02 X22.236104 Y25.920964 Z-1.000000 I-3.225756 J3.131983
G02 X19.553156 Y25.457509 Z-1.000000 I-2.682948 J7.534091
G01 X19.553156 Y25.457509 Z-1.000000
G00 Z5.000000

(End cutting path id: text71276)


(Start cutting path id: text71276)
(Change tool to Default tool)

G00 Z5.000000
G00 X22.204325 Y29.065285

G01 Z-1.000000 F100.0(Penetrate)
G03 X22.883099 Y30.398307 Z-1.000000 I-2.961706 J2.347427 F3500.000000
G03 X23.179154 Y32.563735 Z-1.000000 I-7.771255 J2.165429
G03 X22.881144 Y34.718615 Z-1.000000 I-7.939851 J0.000000
G03 X22.195215 Y36.053075 Z-1.000000 I-3.635417 J-1.025131
G03 X21.057580 Y36.956865 Z-1.000000 I-2.474479 J-1.946834
G03 X19.553156 Y37.292109 Z-1.000000 I-1.504424 J-3.207964
G03 X18.044512 Y36.960240 Z-1.000000 I0.000000 J-3.595009
G03 X16.892877 Y36.062185 Z-1.000000 I1.348446 J-2.916638
G03 X16.200758 Y34.725939 Z-1.000000 I2.927508 J-2.363692
G03 X15.899827 Y32.563735 Z-1.000000 I7.617303 J-2.162204
G03 X16.200758 Y30.401531 Z-1.000000 I7.918235 J0.000000
G03 X16.892877 Y29.065285 Z-1.000000 I3.619629 J1.027447
G03 X18.044512 Y28.167231 Z-1.000000 I2.500080 J2.018583
G03 X19.553156 Y27.835362 Z-1.000000 I1.508644 J3.263142
G03 X21.060520 Y28.167983 Z-1.000000 I0.000000 J3.581830
G03 X22.204325 Y29.065285 Z-1.000000 I-1.336976 J2.881928
G01 X22.204325 Y29.065285 Z-1.000000
G00 Z5.000000

(End cutting path id: text71276)


(Start cutting path id: text71276)
(Change tool to Default tool)

G00 Z5.000000
G00 X36.362114 Y26.159021

G01 Z-1.000000 F100.0(Penetrate)
G02 X35.196070 Y25.668651 Z-1.000000 I-2.171860 J3.532893 F3500.000000
G02 X33.628950 Y25.475730 Z-1.000000 I-1.567120 J6.268479
G02 X31.177495 Y25.972798 Z-1.000000 I-0.000000 J6.293612
G02 X29.255887 Y27.325171 Z-1.000000 I2.163388 J5.115401
G02 X27.991758 Y29.389239 Z-1.000000 I4.132177 J3.949873
G02 X27.479331 Y32.408856 Z-1.000000 I8.640754 J3.019617
G02 X27.990408 Y35.472373 Z-1.000000 I9.437261 J-0.000000
G02 X29.274109 Y37.638310 Z-1.000000 I5.865920 J-2.013217
G02 X31.307323 Y39.066013 Z-1.000000 I4.221260 J-3.849944
G02 X34.020703 Y39.606188 Z-1.000000 I2.713380 J-6.544771
G02 X36.444025 Y39.231202 Z-1.000000 I-0.000000 J-8.017770
G02 X38.129560 Y38.303380 Z-1.000000 I-1.491884 J-4.705174
G02 X39.350881 Y36.826980 Z-1.000000 I-3.298061 J-3.971608
G02 X39.915227 Y35.069136 Z-1.000000 I-4.195785 J-2.316546
G01 X37.154731 Y35.069136 Z-1.000000
G03 X36.584393 Y36.236632 Z-1.000000 I-2.816463 J-0.652822
G03 X35.596828 Y36.991461 Z-1.000000 I-2.055506 J-1.665836
G03 X34.887738 Y37.211774 Z-1.000000 I-1.366739 J-3.147643
G03 X34.057146 Y37.292109 Z-1.000000 I-0.830592 J-4.253635
G03 X32.584592 Y36.969183 Z-1.000000 I-0.000000 J-3.518915
G03 X31.387755 Y36.062185 Z-1.000000 I1.461128 J-3.171190
G03 X30.673076 Y34.722226 Z-1.000000 I2.711420 J-2.306730
G03 X30.349153 Y32.381524 Z-1.000000 I8.295120 J-2.340701
G03 X30.713126 Y30.064205 Z-1.000000 I7.558875 J-0.000000
G03 X31.478861 Y28.873964 Z-1.000000 I2.619119 J0.843561
G03 X32.708635 Y28.102841 Z-1.000000 I2.746413 J3.013763
G03 X34.048035 Y27.844472 Z-1.000000 I1.339400 J3.342572
G03 X35.373698 Y28.070002 Z-1.000000 I0.000000 J4.008882
G03 X36.362114 Y28.655311 Z-1.000000 I-0.967391 J2.760868
G03 X37.072669 Y29.578613 Z-1.000000 I-2.224643 J2.447108
G03 X37.473601 Y30.796289 Z-1.000000 I-3.553877 J1.844992
G01 X34.366904 Y30.796289 Z-1.000000
G01 X34.366904 Y33.037484 Z-1.000000
G01 X39.960780 Y33.037484 Z-1.000000
G01 X39.960780 Y25.831041 Z-1.000000
G01 X38.102228 Y25.831041 Z-1.000000
G01 X37.819801 Y27.507382 Z-1.000000
G02 X36.959418 Y26.608872 Z-1.000000 I-7.832770 J6.639203
G02 X36.362114 Y26.159021 Z-1.000000 I-2.519110 J2.723362
G01 X36.362114 Y26.159021 Z-1.000000
G00 Z5.000000

(End cutting path id: text71276)


(Footer)
M5
G00 X0.0000 Y0.0000
M2
(Using default footer. To add your own footer create file "footer" in the output dir.)
(end)
%