%
(Header)
(Generated by gcodetools from Inkscape.)
(Using default header. To add your own header create file "header" in the output dir.)
M3
(Header end.)
G21 (All units in mm)

(Start cutting path id: text222527)
(Change tool to Default tool)

G00 Z 5.0000
G00 X 4.1003 Y 0.5260

G01 Z -1.0000 F 100.0000(Penetrate)
G01 X 0.6130 Y 0.5260 Z -1.0000 F 3500.0000
G01 X 0.6130 Y 8.6211 Z -1.0000
G01 X 4.1003 Y 8.6211 Z -1.0000
G02 X 4.8449 Y 8.5636 Z -1.0000 I -0.0873 J -5.9849
G02 X 5.3525 Y 8.4453 Z -1.0000 I -0.4052 J -2.8869
G02 X 6.1171 Y 8.0481 Z -1.0000 I -0.8388 J -2.5494
G02 X 6.7309 Y 7.4183 Z -1.0000 I -1.6706 J -2.2424
G02 X 7.0876 Y 6.7852 Z -1.0000 I -3.0541 J -2.1379
G02 X 7.3076 Y 6.1113 Z -1.0000 I -3.2464 J -1.4322
G02 X 7.4251 Y 5.4044 Z -1.0000 I -6.9269 J -1.5153
G02 X 7.4613 Y 4.7712 Z -1.0000 I -5.5174 J -0.6331
G02 X 7.2784 Y 3.2057 Z -1.0000 I -6.7900 J 0.0000
G02 X 6.8133 Y 2.0363 Z -1.0000 I -4.2124 J 0.9981
G02 X 5.6963 Y 0.9403 Z -1.0000 I -2.5544 J 1.4862
G02 X 4.1003 Y 0.5260 Z -1.0000 I -1.5960 J 2.8670
G01 X 4.1003 Y 0.5260 Z -1.0000
G00 Z 5.0000

(End cutting path id: text222527)


(Start cutting path id: text222527)
(Change tool to Default tool)

G00 Z 5.0000
G00 X 5.3579 Y 6.5561

G01 Z -1.0000 F 100.0000(Penetrate)
G03 X 4.8475 Y 7.0038 Z -1.0000 I -0.9388 J -0.5555 F 3500.0000
G03 X 3.8147 Y 7.2151 Z -1.0000 I -1.0328 J -2.4185
G01 X 2.2550 Y 7.2151 Z -1.0000
G01 X 2.2550 Y 1.9319 Z -1.0000
G01 X 3.8147 Y 1.9319 Z -1.0000
G03 X 4.7999 Y 2.2451 Z -1.0000 I 0.0000 J 1.7062
G03 X 5.4843 Y 3.1127 Z -1.0000 I -1.1256 J 1.5916
G03 X 5.6692 Y 3.7748 Z -1.0000 I -2.9995 J 1.1947
G03 X 5.7424 Y 4.6559 Z -1.0000 I -5.2681 J 0.8811
G03 X 5.6219 Y 5.8592 Z -1.0000 I -6.0684 J -0.0000
G03 X 5.3579 Y 6.5561 Z -1.0000 I -2.2582 J -0.4569
G01 X 5.3579 Y 6.5561 Z -1.0000
G00 Z 5.0000

(End cutting path id: text222527)


(Start cutting path id: text222527)
(Change tool to Default tool)

G00 Z 5.0000
G00 X 12.3162 Y 0.3008

G01 Z -1.0000 F 100.0000(Penetrate)
G02 X 10.6989 Y 0.5802 Z -1.0000 I -0.0000 J 4.8210 F 3500.0000
G02 X 9.6636 Y 1.2454 Z -1.0000 I 0.9092 J 2.5532
G02 X 8.7945 Y 2.5601 Z -1.0000 I 2.3585 J 2.5038
G02 X 8.4334 Y 4.5845 Z -1.0000 I 5.4947 J 2.0244
G02 X 8.8010 Y 6.6458 Z -1.0000 I 5.9624 J 0.0000
G02 X 9.6636 Y 7.9236 Z -1.0000 I 3.0334 J -1.1176
G02 X 10.6989 Y 8.5888 Z -1.0000 I 1.9445 J -1.8880
G02 X 12.3162 Y 8.8682 Z -1.0000 I 1.6173 J -4.5416
G02 X 13.9335 Y 8.5888 Z -1.0000 I 0.0000 J -4.8210
G02 X 14.9688 Y 7.9236 Z -1.0000 I -0.9092 J -2.5532
G02 X 15.8272 Y 6.6469 Z -1.0000 I -2.1751 J -2.3893
G02 X 16.1935 Y 4.5845 Z -1.0000 I -5.6229 J -2.0623
G02 X 15.8337 Y 2.5591 Z -1.0000 I -5.8819 J 0.0000
G02 X 14.9688 Y 1.2454 Z -1.0000 I -3.2283 J 1.1841
G02 X 13.9335 Y 0.5802 Z -1.0000 I -1.9445 J 1.8880
G02 X 12.3162 Y 0.3008 Z -1.0000 I -1.6173 J 4.5416
G01 X 12.3162 Y 0.3008 Z -1.0000
G00 Z 5.0000

(End cutting path id: text222527)


(Start cutting path id: text222527)
(Change tool to Default tool)

G00 Z 5.0000
G00 X 13.9143 Y 2.4756

G01 Z -1.0000 F 100.0000(Penetrate)
G03 X 14.3235 Y 3.2792 Z -1.0000 I -1.7853 J 1.4150 F 3500.0000
G03 X 14.5020 Y 4.5845 Z -1.0000 I -4.6846 J 1.3053
G03 X 14.3223 Y 5.8835 Z -1.0000 I -4.7862 J -0.0000
G03 X 13.9088 Y 6.6879 Z -1.0000 I -2.1914 J -0.6180
G03 X 13.2231 Y 7.2327 Z -1.0000 I -1.4916 J -1.1736
G03 X 12.3162 Y 7.4348 Z -1.0000 I -0.9069 J -1.9338
G03 X 11.4068 Y 7.2348 Z -1.0000 I -0.0000 J -2.1671
G03 X 10.7125 Y 6.6934 Z -1.0000 I 0.8129 J -1.7582
G03 X 10.2953 Y 5.8879 Z -1.0000 I 1.7647 J -1.4248
G03 X 10.1139 Y 4.5845 Z -1.0000 I 4.5918 J -1.3034
G03 X 10.2953 Y 3.2811 Z -1.0000 I 4.7732 J -0.0000
G03 X 10.7125 Y 2.4756 Z -1.0000 I 2.1819 J 0.6194
G03 X 11.4068 Y 1.9343 Z -1.0000 I 1.5071 J 1.2168
G03 X 12.3162 Y 1.7342 Z -1.0000 I 0.9094 J 1.9670
G03 X 13.2248 Y 1.9347 Z -1.0000 I -0.0000 J 2.1591
G03 X 13.9143 Y 2.4756 Z -1.0000 I -0.8059 J 1.7372
G01 X 13.9143 Y 2.4756 Z -1.0000
G00 Z 5.0000

(End cutting path id: text222527)


(Start cutting path id: text222527)
(Change tool to Default tool)

G00 Z 5.0000
G00 X 24.0304 Y 0.5260

G01 Z -1.0000 F 100.0000(Penetrate)
G01 X 22.3389 Y 0.5260 Z -1.0000 F 3500.0000
G01 X 19.0328 Y 6.2760 Z -1.0000
G01 X 19.0328 Y 0.5260 Z -1.0000
G01 X 17.4566 Y 0.5260 Z -1.0000
G01 X 17.4566 Y 8.6211 Z -1.0000
G01 X 19.2305 Y 8.6211 Z -1.0000
G01 X 22.4542 Y 2.9699 Z -1.0000
G01 X 22.4542 Y 8.6211 Z -1.0000
G01 X 24.0304 Y 8.6211 Z -1.0000
G01 X 24.0304 Y 0.5260 Z -1.0000
G00 Z 5.0000

(End cutting path id: text222527)


(Start cutting path id: text222527)
(Change tool to Default tool)

G00 Z 5.0000
G00 X 30.3955 Y 3.6454

G01 Z -1.0000 F 100.0000(Penetrate)
G01 X 30.3955 Y 8.6211 Z -1.0000 F 3500.0000
G01 X 32.1145 Y 8.6211 Z -1.0000
G01 X 32.1145 Y 3.6454 Z -1.0000
G02 X 31.9902 Y 2.3871 Z -1.0000 I -6.4331 J -0.0000
G02 X 31.7136 Y 1.6354 Z -1.0000 I -2.5318 J 0.5050
G02 X 30.7276 Y 0.7275 Z -1.0000 I -1.9049 J 1.0795
G02 X 28.8633 Y 0.3173 Z -1.0000 I -1.8644 J 4.0317
G02 X 26.9978 Y 0.7270 Z -1.0000 I 0.0000 J 4.4516
G02 X 26.0075 Y 1.6354 Z -1.0000 I 0.9234 J 2.0007
G02 X 25.7308 Y 2.3871 Z -1.0000 I 2.2552 J 1.2567
G02 X 25.6066 Y 3.6454 Z -1.0000 I 6.3088 J 1.2583
G01 X 25.6066 Y 8.6211 Z -1.0000
G01 X 27.3255 Y 8.6211 Z -1.0000
G01 X 27.3255 Y 3.6454 Z -1.0000
G03 X 27.3915 Y 2.8266 Z -1.0000 I 5.1152 J 0.0000
G03 X 27.5232 Y 2.4262 Z -1.0000 I 1.3295 J 0.2156
G03 X 27.9691 Y 1.9594 Z -1.0000 I 0.8865 J 0.4004
G03 X 28.8633 Y 1.7452 Z -1.0000 I 0.8942 J 1.7595
G03 X 29.7523 Y 1.9589 Z -1.0000 I 0.0000 J 1.9559
G03 X 30.1978 Y 2.4262 Z -1.0000 I -0.4433 J 0.8687
G03 X 30.3295 Y 2.8266 Z -1.0000 I -1.1978 J 0.6160
G03 X 30.3955 Y 3.6454 Z -1.0000 I -5.0493 J 0.8188
G01 X 30.3955 Y 3.6454 Z -1.0000
G00 Z 5.0000

(End cutting path id: text222527)


(Start cutting path id: text222527)
(Change tool to Default tool)

G00 Z 5.0000
G00 X 39.6109 Y 8.6211

G01 Z -1.0000 F 100.0000(Penetrate)
G01 X 39.6109 Y 7.1877 Z -1.0000 F 3500.0000
G01 X 37.1890 Y 7.1877 Z -1.0000
G01 X 37.1890 Y 0.5260 Z -1.0000
G01 X 35.4865 Y 0.5260 Z -1.0000
G01 X 35.4865 Y 7.1877 Z -1.0000
G01 X 33.0536 Y 7.1877 Z -1.0000
G01 X 33.0536 Y 8.6211 Z -1.0000
G01 X 39.6109 Y 8.6211 Z -1.0000
G00 Z 5.0000

(End cutting path id: text222527)



(Footer)
M5
G00 X0.0000 Y0.0000
M2
(Using default footer. To add your own footer create file "footer" in the output dir.)
(end)
%