%
(Header)
(Generated by gcodetools from Inkscape.)
(Using default header. To add your own header create file "header" in the output dir.)
M3
(Header end.)
G21 (All units in mm)

(Start cutting path id: text181)
(Change tool to Default tool)

G00 Z5.000000
G00 X0.817690 Y34.318182

G01 Z-1.000000 F100.0(Penetrate)
G01 X10.649815 Y34.318182 Z-1.000000 F3500.000000
G01 X10.649815 Y32.665724 Z-1.000000
G01 X2.598672 Y32.665724 Z-1.000000
G01 X2.598672 Y28.571300 Z-1.000000
G01 X10.043914 Y28.571300 Z-1.000000
G01 X10.043914 Y27.010646 Z-1.000000
G01 X2.598672 Y27.010646 Z-1.000000
G01 X2.598672 Y22.438845 Z-1.000000
G01 X10.787520 Y22.438845 Z-1.000000
G01 X10.787520 Y20.832289 Z-1.000000
G01 X0.817690 Y20.832289 Z-1.000000
G01 X0.817690 Y34.318182 Z-1.000000
G00 Z5.000000

(End cutting path id: text181)


(Start cutting path id: text181)
(Change tool to Default tool)

G00 Z5.000000
G00 X5.802605 Y34.318182

G01 Z-1.000000 F100.0(Penetrate)
G01 X5.802605 Y34.318182 Z-1.000000 F3500.000000
G00 Z5.000000

(End cutting path id: text181)


(Start cutting path id: text181)
(Change tool to Default tool)

G00 Z5.000000
G00 X18.710138 Y34.685395

G01 Z-1.000000 F100.0(Penetrate)
G01 X18.710138 Y34.685395 Z-1.000000 F3500.000000
G00 Z5.000000

(End cutting path id: text181)


(Start cutting path id: text181)
(Change tool to Default tool)

G00 Z5.000000
G00 X19.013089 Y34.667034

G01 Z-1.000000 F100.0(Penetrate)
G02 X20.862678 Y34.462894 Z-1.000000 I0.000000 J-8.481052 F3500.000000
G02 X22.299644 Y33.932609 Z-1.000000 I-1.253163 J-5.607904
G02 X23.844982 Y32.539221 Z-1.000000 I-1.953511 J-3.720165
G02 X24.759970 Y30.232939 Z-1.000000 I-4.974919 J-3.308382
G01 X22.951447 Y30.232939 Z-1.000000
G03 X22.401371 Y31.557955 Z-1.000000 I-4.054897 J-0.906686
G03 X21.583579 Y32.381134 Z-1.000000 I-2.292684 J-1.459871
G03 X20.488257 Y32.866226 Z-1.000000 I-2.023626 J-3.090133
G03 X18.967187 Y33.060478 Z-1.000000 I-1.521070 J-5.858176
G03 X17.254578 Y32.696796 Z-1.000000 I0.000000 J-4.214254
G03 X15.809156 Y31.655889 Z-1.000000 I1.772637 J-3.985536
G03 X14.925059 Y30.099835 Z-1.000000 I3.024072 J-2.747360
G03 X14.533091 Y27.469662 Z-1.000000 I8.628480 J-2.630173
G03 X14.838616 Y25.160383 Z-1.000000 I8.879978 J-0.000000
G03 X15.588828 Y23.549664 Z-1.000000 I4.989126 J1.343675
G03 X16.878704 Y22.494242 Z-1.000000 I2.526127 J1.771369
G03 X19.031449 Y22.044091 Z-1.000000 I2.152745 J4.922434
G03 X20.747959 Y22.335446 Z-1.000000 I-0.000000 J5.202066
G03 X22.051775 Y23.099828 Z-1.000000 I-1.293468 J3.700443
G03 X22.886473 Y24.332967 Z-1.000000 I-1.987238 J2.244207
G03 X23.281938 Y26.533269 Z-1.000000 I-6.360397 J2.278858
G01 X19.058990 Y26.533269 Z-1.000000
G01 X19.058990 Y28.048022 Z-1.000000
G01 X24.980298 Y28.048022 Z-1.000000
G01 X24.980298 Y20.832289 Z-1.000000
G01 X23.805217 Y20.832289 Z-1.000000
G01 X23.364561 Y22.567370 Z-1.000000
G02 X22.385004 Y21.614672 Z-1.000000 I-8.284640 J7.538270
G02 X21.721284 Y21.153600 Z-1.000000 I-2.555232 J2.970041
G02 X20.466642 Y20.672110 Z-1.000000 I-2.244685 J3.973700
G02 X18.664236 Y20.474256 Z-1.000000 I-1.802406 J8.110825
G02 X16.424432 Y20.881821 Z-1.000000 I-0.000000 J6.358284
G02 X14.542272 Y22.025731 Z-1.000000 I2.096425 J5.569788
G02 X13.203483 Y24.191628 Z-1.000000 I4.290320 J4.148659
G02 X12.660306 Y27.368678 Z-1.000000 I9.019722 J3.177050
G02 X13.187557 Y30.550999 Z-1.000000 I9.867366 J-0.000000
G02 X14.496370 Y32.757527 Z-1.000000 I5.908067 J-2.012969
G02 X16.468097 Y34.151172 Z-1.000000 I4.172078 J-3.811032
G02 X19.013089 Y34.667034 Z-1.000000 I2.544992 J-6.019885
G01 X19.013089 Y34.667034 Z-1.000000
G00 Z5.000000

(End cutting path id: text181)


(Start cutting path id: text181)
(Change tool to Default tool)

G00 Z5.000000
G00 X33.334391 Y34.685395

G01 Z-1.000000 F100.0(Penetrate)
G01 X33.334391 Y34.685395 Z-1.000000 F3500.000000
G00 Z5.000000

(End cutting path id: text181)


(Start cutting path id: text181)
(Change tool to Default tool)

G00 Z5.000000
G00 X33.637342 Y34.667034

G01 Z-1.000000 F100.0(Penetrate)
G02 X35.486932 Y34.462894 Z-1.000000 I0.000000 J-8.481056 F3500.000000
G02 X36.923897 Y33.932609 Z-1.000000 I-1.253161 J-5.607895
G02 X38.469235 Y32.539221 Z-1.000000 I-1.953512 J-3.720167
G02 X39.384224 Y30.232939 Z-1.000000 I-4.974921 J-3.308385
G01 X37.575700 Y30.232939 Z-1.000000
G03 X37.025625 Y31.557955 Z-1.000000 I-4.054889 J-0.906682
G03 X36.207832 Y32.381134 Z-1.000000 I-2.292683 J-1.459871
G03 X35.112511 Y32.866226 Z-1.000000 I-2.023623 J-3.090126
G03 X33.591440 Y33.060478 Z-1.000000 I-1.521071 J-5.858180
G03 X31.878831 Y32.696796 Z-1.000000 I-0.000000 J-4.214254
G03 X30.433409 Y31.655889 Z-1.000000 I1.772637 J-3.985536
G03 X29.549313 Y30.099835 Z-1.000000 I3.024073 J-2.747359
G03 X29.157345 Y27.469662 Z-1.000000 I8.628487 J-2.630173
G03 X29.462870 Y25.160383 Z-1.000000 I8.879978 J0.000000
G03 X30.213082 Y23.549664 Z-1.000000 I4.989126 J1.343675
G03 X31.502958 Y22.494242 Z-1.000000 I2.526127 J1.771369
G03 X33.655702 Y22.044091 Z-1.000000 I2.152744 J4.922430
G03 X35.372213 Y22.335446 Z-1.000000 I0.000000 J5.202070
G03 X36.676029 Y23.099828 Z-1.000000 I-1.293467 J3.700442
G03 X37.510727 Y24.332967 Z-1.000000 I-1.987238 J2.244207
G03 X37.906192 Y26.533269 Z-1.000000 I-6.360397 J2.278858
G01 X33.683243 Y26.533269 Z-1.000000
G01 X33.683243 Y28.048022 Z-1.000000
G01 X39.604551 Y28.048022 Z-1.000000
G01 X39.604551 Y20.832289 Z-1.000000
G01 X38.429470 Y20.832289 Z-1.000000
G01 X37.988815 Y22.567370 Z-1.000000
G02 X37.009257 Y21.614672 Z-1.000000 I-8.284656 J7.538293
G02 X36.345537 Y21.153600 Z-1.000000 I-2.555235 J2.970046
G02 X35.090895 Y20.672110 Z-1.000000 I-2.244683 J3.973693
G02 X33.288490 Y20.474256 Z-1.000000 I-1.802405 J8.110822
G02 X31.048685 Y20.881821 Z-1.000000 I0.000000 J6.358288
G02 X29.166525 Y22.025731 Z-1.000000 I2.096424 J5.569787
G02 X27.827736 Y24.191628 Z-1.000000 I4.290320 J4.148659
G02 X27.284559 Y27.368678 Z-1.000000 I9.019722 J3.177050
G02 X27.811810 Y30.550999 Z-1.000000 I9.867366 J-0.000000
G02 X29.120623 Y32.757527 Z-1.000000 I5.908067 J-2.012969
G02 X31.092351 Y34.151172 Z-1.000000 I4.172081 J-3.811037
G02 X33.637342 Y34.667034 Z-1.000000 I2.544991 J-6.019883
G01 X33.637342 Y34.667034 Z-1.000000
G00 Z5.000000

(End cutting path id: text181)


(Footer)
M5
G00 X0.0000 Y0.0000
M2
(Using default footer. To add your own footer create file "footer" in the output dir.)
(end)
%