%
(Header)
(Generated by gcodetools from Inkscape.)
(Using default header. To add your own header create file "header" in the output dir.)
M3
(Header end.)
G21 (All units in mm)

(Start cutting path id: text46)
(Change tool to Default tool)

G00 Z5.000000
G00 X3.992852 Y34.754535

G01 Z-1.000000 F100.0(Penetrate)
G01 X1.361849 Y34.754535 Z-1.000000 F3500.000000
G01 X1.361849 Y33.361868 Z-1.000000
G01 X4.360310 Y33.361868 Z-1.000000
G01 X4.360310 Y32.388103 Z-1.000000
G01 X0.255799 Y32.388103 Z-1.000000
G01 X0.255799 Y37.804441 Z-1.000000
G01 X4.228025 Y37.804441 Z-1.000000
G01 X4.228025 Y36.845374 Z-1.000000
G01 X1.361849 Y36.845374 Z-1.000000
G01 X1.361849 Y35.695229 Z-1.000000
G01 X3.992852 Y35.695229 Z-1.000000
G01 X3.992852 Y34.754535 Z-1.000000
G00 Z5.000000

(End cutting path id: text46)


(Start cutting path id: text46)
(Change tool to Default tool)

G00 Z5.000000
G00 X5.242210 Y37.804441

G01 Z-1.000000 F100.0(Penetrate)
G01 X6.373983 Y37.804441 Z-1.000000 F3500.000000
G01 X6.373983 Y33.361868 Z-1.000000
G01 X9.056430 Y33.361868 Z-1.000000
G01 X9.056430 Y32.388103 Z-1.000000
G01 X5.242210 Y32.388103 Z-1.000000
G01 X5.242210 Y37.804441 Z-1.000000
G00 Z5.000000

(End cutting path id: text46)


(Start cutting path id: text46)
(Change tool to Default tool)

G00 Z5.000000
G00 X13.609240 Y34.754535

G01 Z-1.000000 F100.0(Penetrate)
G01 X10.978237 Y34.754535 Z-1.000000 F3500.000000
G01 X10.978237 Y33.361868 Z-1.000000
G01 X13.976698 Y33.361868 Z-1.000000
G01 X13.976698 Y32.388103 Z-1.000000
G01 X9.872187 Y32.388103 Z-1.000000
G01 X9.872187 Y37.804441 Z-1.000000
G01 X13.844413 Y37.804441 Z-1.000000
G01 X13.844413 Y36.845374 Z-1.000000
G01 X10.978237 Y36.845374 Z-1.000000
G01 X10.978237 Y35.695229 Z-1.000000
G01 X13.609240 Y35.695229 Z-1.000000
G01 X13.609240 Y34.754535 Z-1.000000
G00 Z5.000000

(End cutting path id: text46)


(Start cutting path id: text46)
(Change tool to Default tool)

G00 Z5.000000
G00 X17.158889 Y34.335633

G01 Z-1.000000 F100.0(Penetrate)
G01 X16.008744 Y34.335633 Z-1.000000 F3500.000000
G01 X16.008744 Y32.388103 Z-1.000000
G01 X14.884321 Y32.388103 Z-1.000000
G01 X14.884321 Y37.804441 Z-1.000000
G01 X17.243405 Y37.804441 Z-1.000000
G02 X18.014131 Y37.683401 Z-1.000000 I0.000000 J-2.514345
G02 X18.544208 Y37.385538 Z-1.000000 I-0.468138 J-1.453691
G02 X18.882565 Y36.899499 Z-1.000000 I-0.781373 J-0.904747
G02 X19.029253 Y36.088409 Z-1.000000 I-2.169052 J-0.811090
G02 X18.875514 Y35.202197 Z-1.000000 I-2.631108 J0.000000
G02 X18.544208 Y34.732488 Z-1.000000 I-1.011729 J0.361919
G02 X18.016193 Y34.456008 Z-1.000000 I-0.934372 J1.142010
G02 X17.158889 Y34.335633 Z-1.000000 I-0.857304 J2.992628
G01 X17.158889 Y34.335633 Z-1.000000
G00 Z5.000000

(End cutting path id: text46)


(Start cutting path id: text46)
(Change tool to Default tool)

G00 Z5.000000
G00 X17.688030 Y35.463730

G01 Z-1.000000 F100.0(Penetrate)
G03 X17.840612 Y35.689099 Z-1.000000 I-0.361144 J0.408842 F3500.000000
G03 X17.908505 Y36.081060 Z-1.000000 I-1.097493 J0.391962
G03 X17.838500 Y36.470077 Z-1.000000 I-1.115885 J-0.000000
G03 X17.684355 Y36.683692 Z-1.000000 I-0.464530 J-0.172783
G03 X17.444578 Y36.809595 Z-1.000000 I-0.428363 J-0.524527
G03 X17.063350 Y36.863747 Z-1.000000 I-0.381228 J-1.314847
G01 X16.008744 Y36.863747 Z-1.000000
G01 X16.008744 Y35.268977 Z-1.000000
G01 X17.063350 Y35.268977 Z-1.000000
G03 X17.442314 Y35.326681 Z-1.000000 I0.000000 J1.273248
G03 X17.688030 Y35.463730 Z-1.000000 I-0.204150 J0.654820
G01 X17.688030 Y35.463730 Z-1.000000
G00 Z5.000000

(End cutting path id: text46)


(Start cutting path id: text46)
(Change tool to Default tool)

G00 Z5.000000
G00 X23.108043 Y32.388103

G01 Z-1.000000 F100.0(Penetrate)
G01 X23.108043 Y34.805979 Z-1.000000 F3500.000000
G01 X20.991482 Y34.805979 Z-1.000000
G01 X20.991482 Y32.388103 Z-1.000000
G01 X19.870734 Y32.388103 Z-1.000000
G01 X19.870734 Y37.804441 Z-1.000000
G01 X20.991482 Y37.804441 Z-1.000000
G01 X20.991482 Y35.739324 Z-1.000000
G01 X23.108043 Y35.739324 Z-1.000000
G01 X23.108043 Y37.804441 Z-1.000000
G01 X24.232466 Y37.804441 Z-1.000000
G01 X24.232466 Y32.388103 Z-1.000000
G01 X23.108043 Y32.388103 Z-1.000000
G00 Z5.000000

(End cutting path id: text46)


(Start cutting path id: text46)
(Change tool to Default tool)

G00 Z5.000000
G00 X28.167945 Y34.434846

G01 Z-1.000000 F100.0(Penetrate)
G01 X27.491821 Y36.566106 Z-1.000000 F3500.000000
G01 X26.793650 Y34.434846 Z-1.000000
G01 X28.167945 Y34.434846 Z-1.000000
G00 Z5.000000

(End cutting path id: text46)


(Start cutting path id: text46)
(Change tool to Default tool)

G00 Z5.000000
G00 X28.483959 Y33.501502

G01 Z-1.000000 F100.0(Penetrate)
G01 X26.488660 Y33.501502 Z-1.000000 F3500.000000
G01 X26.113852 Y32.388103 Z-1.000000
G01 X24.930636 Y32.388103 Z-1.000000
G01 X26.863467 Y37.804441 Z-1.000000
G01 X28.142223 Y37.804441 Z-1.000000
G01 X30.060356 Y32.388103 Z-1.000000
G01 X28.833045 Y32.388103 Z-1.000000
G01 X28.483959 Y33.501502 Z-1.000000
G00 Z5.000000

(End cutting path id: text46)


(Start cutting path id: text46)
(Change tool to Default tool)

G00 Z5.000000
G00 X35.127609 Y32.388103

G01 Z-1.000000 F100.0(Penetrate)
G01 X33.995837 Y32.388103 Z-1.000000 F3500.000000
G01 X31.783737 Y36.235393 Z-1.000000
G01 X31.783737 Y32.388103 Z-1.000000
G01 X30.729131 Y32.388103 Z-1.000000
G01 X30.729131 Y37.804441 Z-1.000000
G01 X31.916022 Y37.804441 Z-1.000000
G01 X34.073003 Y34.023293 Z-1.000000
G01 X34.073003 Y37.804441 Z-1.000000
G01 X35.127609 Y37.804441 Z-1.000000
G01 X35.127609 Y32.388103 Z-1.000000
G00 Z5.000000

(End cutting path id: text46)


(Start cutting path id: text46)
(Change tool to Default tool)

G00 Z5.000000
G00 X40.117696 Y37.804441

G01 Z-1.000000 F100.0(Penetrate)
G01 X40.117696 Y36.845374 Z-1.000000 F3500.000000
G01 X38.497204 Y36.845374 Z-1.000000
G01 X38.497204 Y32.388103 Z-1.000000
G01 X37.358083 Y32.388103 Z-1.000000
G01 X37.358083 Y36.845374 Z-1.000000
G01 X35.730241 Y36.845374 Z-1.000000
G01 X35.730241 Y37.804441 Z-1.000000
G01 X40.117696 Y37.804441 Z-1.000000
G00 Z5.000000

(End cutting path id: text46)


(Footer)
M5
G00 X0.0000 Y0.0000
M2
(Using default footer. To add your own footer create file "footer" in the output dir.)
(end)
%