%
(Header)
(Generated by gcodetools from Inkscape.)
(Using default header. To add your own header create file "header" in the output dir.)
M3
(Header end.)
G21 (All units in mm)

(Start cutting path id: path239321)
(Change tool to Default tool)

G00 Z 5.0000
G00 X 3.9309 Y 26.4384

G01 Z -1.0000 F 100.0000(Penetrate)
G01 X 3.9309 Y 29.0890 Z -1.0000 F 3500.0000
G01 X 1.6106 Y 29.0890 Z -1.0000
G01 X 1.6106 Y 26.4384 Z -1.0000
G01 X 0.3820 Y 26.4384 Z -1.0000
G01 X 0.3820 Y 32.3760 Z -1.0000
G01 X 1.6106 Y 32.3760 Z -1.0000
G01 X 1.6106 Y 30.1121 Z -1.0000
G01 X 3.9309 Y 30.1121 Z -1.0000
G01 X 3.9309 Y 32.3760 Z -1.0000
G01 X 5.1635 Y 32.3760 Z -1.0000
G01 X 5.1635 Y 26.4384 Z -1.0000
G01 X 3.9309 Y 26.4384 Z -1.0000
G00 Z 5.0000

(End cutting path id: path239321)


(Start cutting path id: path239321)
(Change tool to Default tool)

G00 Z 5.0000
G00 X 11.1413 Y 32.3760

G01 Z -1.0000 F 100.0000(Penetrate)
G01 X 9.1555 Y 28.6700 Z -1.0000 F 3500.0000
G01 X 9.1555 Y 26.4384 Z -1.0000
G01 X 7.9148 Y 26.4384 Z -1.0000
G01 X 7.9148 Y 28.6700 Z -1.0000
G01 X 5.8604 Y 32.3760 Z -1.0000
G01 X 7.3226 Y 32.3760 Z -1.0000
G01 X 8.5552 Y 29.7899 Z -1.0000
G01 X 9.7355 Y 32.3760 Z -1.0000
G01 X 11.1413 Y 32.3760 Z -1.0000
G00 Z 5.0000

(End cutting path id: path239321)


(Start cutting path id: path239320)
(Change tool to Default tool)

G00 Z 5.0000
G00 X 10.2431 Y 36.1915

G01 Z -1.0000 F 100.0000(Penetrate)
G01 X 8.9621 Y 36.1915 Z -1.0000 F 3500.0000
G01 X 8.9621 Y 33.8632 Z -1.0000
G01 X 7.7496 Y 33.8632 Z -1.0000
G01 X 7.7496 Y 39.8007 Z -1.0000
G01 X 10.6620 Y 39.8007 Z -1.0000
G02 X 11.2773 Y 39.7459 Z -1.0000 I -0.0861 J -4.4477
G02 X 11.6207 Y 39.6477 Z -1.0000 I -0.2345 J -1.4688
G02 X 11.9338 Y 39.4720 Z -1.0000 I -0.5946 J -1.4271
G02 X 12.1927 Y 39.2327 Z -1.0000 I -0.8752 J -1.2066
G02 X 12.3659 Y 38.9948 Z -1.0000 I -1.4088 J -1.2075
G02 X 12.4988 Y 38.7333 Z -1.0000 I -1.5726 J -0.9638
G02 X 12.5808 Y 38.4532 Z -1.0000 I -1.2756 J -0.5253
G02 X 12.6116 Y 38.1089 Z -1.0000 I -1.9062 J -0.3443
G02 X 12.5599 Y 37.6985 Z -1.0000 I -1.6543 J 0.0000
G02 X 12.3981 Y 37.2750 Z -1.0000 I -1.9258 J 0.4931
G02 X 12.1239 Y 36.9390 Z -1.0000 I -0.9609 J 0.5043
G02 X 11.6932 Y 36.6990 Z -1.0000 I -0.8869 J 1.0854
G02 X 12.0594 Y 36.4833 Z -1.0000 I -0.5301 J -1.3188
G02 X 12.2733 Y 36.2277 Z -1.0000 I -0.5512 J -0.6784
G02 X 12.3900 Y 35.9106 Z -1.0000 I -0.8773 J -0.5030
G02 X 12.4465 Y 35.3012 Z -1.0000 I -3.2592 J -0.6093
G01 X 12.4465 Y 34.9024 Z -1.0000
G03 X 12.4583 Y 34.4969 Z -1.0000 I 6.9559 J 0.0000
G03 X 12.4787 Y 34.3506 Z -1.0000 I 0.9206 J 0.0538
G03 X 12.5642 Y 34.1471 Z -1.0000 I 0.5709 J 0.1202
G03 X 12.7043 Y 34.0122 Z -1.0000 I 0.3772 J 0.2515
G01 X 12.7043 Y 33.8632 Z -1.0000
G01 X 11.3387 Y 33.8632 Z -1.0000
G02 X 11.2854 Y 34.0613 Z -1.0000 I 6.5024 J 1.8578
G02 X 11.2582 Y 34.1814 Z -1.0000 I 2.3619 J 0.5979
G02 X 11.2211 Y 34.4323 Z -1.0000 I 2.7933 J 0.5406
G02 X 11.2058 Y 34.6930 Z -1.0000 I 2.9996 J 0.3070
G01 X 11.1977 Y 35.2448 Z -1.0000
G03 X 11.1209 Y 35.7825 Z -1.0000 I -2.1296 J -0.0300
G03 X 10.9883 Y 36.0021 Z -1.0000 I -0.4582 J -0.1267
G03 X 10.7647 Y 36.1262 Z -1.0000 I -0.3471 J -0.3618
G03 X 10.2431 Y 36.1915 Z -1.0000 I -0.5216 J -2.0531
G01 X 10.2431 Y 36.1915 Z -1.0000
G00 Z 5.0000

(End cutting path id: path239320)


(Start cutting path id: path239320)
(Change tool to Default tool)

G00 Z 5.0000
G00 X 10.9963 Y 37.2710

G01 Z -1.0000 F 100.0000(Penetrate)
G03 X 11.2562 Y 37.5114 Z -1.0000 I -0.2349 J 0.5146 F 3500.0000
G03 X 11.3669 Y 37.9397 Z -1.0000 I -0.7728 J 0.4283
G03 X 11.2565 Y 38.4122 Z -1.0000 I -1.0661 J -0.0000
G03 X 11.0084 Y 38.6648 Z -1.0000 I -0.5086 J -0.2515
G03 X 10.7987 Y 38.7356 Z -1.0000 I -0.3330 J -0.6403
G03 X 10.4042 Y 38.7695 Z -1.0000 I -0.3945 J -2.2761
G01 X 8.9621 Y 38.7695 Z -1.0000
G01 X 8.9621 Y 37.1743 Z -1.0000
G01 X 10.3679 Y 37.1743 Z -1.0000
G03 X 10.7799 Y 37.2058 Z -1.0000 I -0.0000 J 2.7096
G03 X 10.9963 Y 37.2710 Z -1.0000 I -0.1232 J 0.8010
G01 X 10.9963 Y 37.2710 Z -1.0000
G00 Z 5.0000

(End cutting path id: path239320)


(Start cutting path id: path239320)
(Change tool to Default tool)

G00 Z 5.0000
G00 X 5.3327 Y 39.8007

G01 Z -1.0000 F 100.0000(Penetrate)
G01 X 6.5653 Y 39.8007 Z -1.0000 F 3500.0000
G01 X 6.5653 Y 33.8632 Z -1.0000
G01 X 5.3327 Y 33.8632 Z -1.0000
G01 X 5.3327 Y 39.8007 Z -1.0000
G00 Z 5.0000

(End cutting path id: path239320)


(Start cutting path id: path239320)
(Change tool to Default tool)

G00 Z 5.0000
G00 X 4.5996 Y 38.7494

G01 Z -1.0000 F 100.0000(Penetrate)
G01 X 1.6227 Y 38.7494 Z -1.0000 F 3500.0000
G01 X 1.6227 Y 37.3838 Z -1.0000
G01 X 4.2290 Y 37.3838 Z -1.0000
G01 X 4.2290 Y 36.3526 Z -1.0000
G01 X 1.6227 Y 36.3526 Z -1.0000
G01 X 1.6227 Y 33.8632 Z -1.0000
G01 X 0.3901 Y 33.8632 Z -1.0000
G01 X 0.3901 Y 39.7927 Z -1.0000
G01 X 4.5996 Y 39.7927 Z -1.0000
G01 X 4.5996 Y 38.7494 Z -1.0000
G00 Z 5.0000

(End cutting path id: path239320)


(Start cutting path id: path239321)
(Change tool to Default tool)

G00 Z 5.0000
G00 X 15.3307 Y 30.8614

G01 Z -1.0000 F 100.0000(Penetrate)
G03 X 14.9563 Y 31.1898 Z -1.0000 I -0.6886 J -0.4074 F 3500.0000
G03 X 14.1987 Y 31.3447 Z -1.0000 I -0.7575 J -1.7739
G01 X 13.0547 Y 31.3447 Z -1.0000
G01 X 13.0547 Y 27.4696 Z -1.0000
G01 X 14.1987 Y 27.4696 Z -1.0000
G03 X 14.9214 Y 27.6993 Z -1.0000 I 0.0000 J 1.2515
G03 X 15.4233 Y 28.3357 Z -1.0000 I -0.8256 J 1.1674
G03 X 15.5590 Y 28.8213 Z -1.0000 I -2.2001 J 0.8763
G03 X 15.6126 Y 29.4676 Z -1.0000 I -3.8640 J 0.6463
G03 X 15.5243 Y 30.3502 Z -1.0000 I -4.4510 J -0.0000
G03 X 15.3307 Y 30.8614 Z -1.0000 I -1.6564 J -0.3351
G01 X 15.3307 Y 30.8614 Z -1.0000
G00 Z 5.0000

(End cutting path id: path239321)


(Start cutting path id: path239321)
(Change tool to Default tool)

G00 Z 5.0000
G00 X 14.4082 Y 26.4384

G01 Z -1.0000 F 100.0000(Penetrate)
G01 X 11.8503 Y 26.4384 Z -1.0000 F 3500.0000
G01 X 11.8503 Y 32.3760 Z -1.0000
G01 X 14.4082 Y 32.3760 Z -1.0000
G02 X 14.9543 Y 32.3338 Z -1.0000 I -0.0641 J -4.3902
G02 X 15.3266 Y 32.2471 Z -1.0000 I -0.2972 J -2.1177
G02 X 15.8875 Y 31.9557 Z -1.0000 I -0.6153 J -1.8699
G02 X 16.3377 Y 31.4938 Z -1.0000 I -1.2254 J -1.6447
G02 X 16.5994 Y 31.0294 Z -1.0000 I -2.2401 J -1.5681
G02 X 16.7607 Y 30.5351 Z -1.0000 I -2.3811 J -1.0505
G02 X 16.8469 Y 30.0166 Z -1.0000 I -5.0807 J -1.1114
G02 X 16.8735 Y 29.5522 Z -1.0000 I -4.0469 J -0.4644
G02 X 16.7393 Y 28.4039 Z -1.0000 I -4.9803 J -0.0000
G02 X 16.3981 Y 27.5462 Z -1.0000 I -3.0897 J 0.7321
G02 X 15.5789 Y 26.7423 Z -1.0000 I -1.8736 J 1.0901
G02 X 14.4082 Y 26.4384 Z -1.0000 I -1.1706 J 2.1029
G01 X 14.4082 Y 26.4384 Z -1.0000
G00 Z 5.0000

(End cutting path id: path239321)


(Start cutting path id: path239321)
(Change tool to Default tool)

G00 Z 5.0000
G00 X 20.3297 Y 28.7667

G01 Z -1.0000 F 100.0000(Penetrate)
G01 X 19.0487 Y 28.7667 Z -1.0000 F 3500.0000
G01 X 19.0487 Y 26.4384 Z -1.0000
G01 X 17.8362 Y 26.4384 Z -1.0000
G01 X 17.8362 Y 32.3760 Z -1.0000
G01 X 20.7486 Y 32.3760 Z -1.0000
G02 X 21.3639 Y 32.3211 Z -1.0000 I -0.0861 J -4.4477
G02 X 21.7073 Y 32.2229 Z -1.0000 I -0.2345 J -1.4688
G02 X 22.0204 Y 32.0473 Z -1.0000 I -0.5946 J -1.4271
G02 X 22.2793 Y 31.8080 Z -1.0000 I -0.8752 J -1.2066
G02 X 22.4525 Y 31.5701 Z -1.0000 I -1.4088 J -1.2075
G02 X 22.5854 Y 31.3085 Z -1.0000 I -1.5726 J -0.9639
G02 X 22.6674 Y 31.0285 Z -1.0000 I -1.2756 J -0.5253
G02 X 22.6982 Y 30.6841 Z -1.0000 I -1.9062 J -0.3443
G02 X 22.6465 Y 30.2738 Z -1.0000 I -1.6543 J -0.0000
G02 X 22.4847 Y 29.8503 Z -1.0000 I -1.9258 J 0.4931
G02 X 22.2105 Y 29.5142 Z -1.0000 I -0.9609 J 0.5043
G02 X 21.7798 Y 29.2742 Z -1.0000 I -0.8869 J 1.0854
G02 X 22.1460 Y 29.0586 Z -1.0000 I -0.5301 J -1.3188
G02 X 22.3599 Y 28.8029 Z -1.0000 I -0.5512 J -0.6784
G02 X 22.4766 Y 28.4858 Z -1.0000 I -0.8773 J -0.5030
G02 X 22.5331 Y 27.8765 Z -1.0000 I -3.2592 J -0.6093
G01 X 22.5331 Y 27.4777 Z -1.0000
G03 X 22.5449 Y 27.0721 Z -1.0000 I 6.9581 J -0.0000
G03 X 22.5653 Y 26.9258 Z -1.0000 I 0.9209 J 0.0538
G03 X 22.6508 Y 26.7224 Z -1.0000 I 0.5709 J 0.1202
G03 X 22.7909 Y 26.5874 Z -1.0000 I 0.3772 J 0.2515
G01 X 22.7909 Y 26.4384 Z -1.0000
G01 X 21.4253 Y 26.4384 Z -1.0000
G02 X 21.3720 Y 26.6365 Z -1.0000 I 6.5038 J 1.8581
G02 X 21.3448 Y 26.7566 Z -1.0000 I 2.3624 J 0.5980
G02 X 21.3077 Y 27.0075 Z -1.0000 I 2.7933 J 0.5407
G02 X 21.2924 Y 27.2682 Z -1.0000 I 2.9996 J 0.3071
G01 X 21.2843 Y 27.8201 Z -1.0000
G03 X 21.2074 Y 28.3577 Z -1.0000 I -2.1305 J -0.0304
G03 X 21.0748 Y 28.5774 Z -1.0000 I -0.4583 J -0.1268
G03 X 20.8512 Y 28.7015 Z -1.0000 I -0.3471 J -0.3618
G03 X 20.3296 Y 28.7667 Z -1.0000 I -0.5216 J -2.0531
G01 X 20.3297 Y 28.7667 Z -1.0000
G00 Z 5.0000

(End cutting path id: path239321)


(Start cutting path id: path239321)
(Change tool to Default tool)

G00 Z 5.0000
G00 X 21.0829 Y 29.8463

G01 Z -1.0000 F 100.0000(Penetrate)
G03 X 21.3428 Y 30.0866 Z -1.0000 I -0.2349 J 0.5146 F 3500.0000
G03 X 21.4535 Y 30.5149 Z -1.0000 I -0.7728 J 0.4283
G03 X 21.3431 Y 30.9875 Z -1.0000 I -1.0661 J 0.0000
G03 X 21.0950 Y 31.2400 Z -1.0000 I -0.5086 J -0.2515
G03 X 20.8853 Y 31.3108 Z -1.0000 I -0.3330 J -0.6403
G03 X 20.4908 Y 31.3447 Z -1.0000 I -0.3945 J -2.2761
G01 X 19.0487 Y 31.3447 Z -1.0000
G01 X 19.0487 Y 29.7496 Z -1.0000
G01 X 20.4545 Y 29.7496 Z -1.0000
G03 X 20.8665 Y 29.7811 Z -1.0000 I 0.0000 J 2.7095
G03 X 21.0829 Y 29.8463 Z -1.0000 I -0.1232 J 0.8010
G01 X 21.0829 Y 29.8463 Z -1.0000
G00 Z 5.0000

(End cutting path id: path239321)


(Start cutting path id: path239321)
(Change tool to Default tool)

G00 Z 5.0000
G00 X 26.8956 Y 28.6821

G01 Z -1.0000 F 100.0000(Penetrate)
G01 X 26.1544 Y 31.0185 Z -1.0000 F 3500.0000
G01 X 25.3891 Y 28.6821 Z -1.0000
G01 X 26.8956 Y 28.6821 Z -1.0000
G00 Z 5.0000

(End cutting path id: path239321)


(Start cutting path id: path239321)
(Change tool to Default tool)

G00 Z 5.0000
G00 X 27.2420 Y 27.6589

G01 Z -1.0000 F 100.0000(Penetrate)
G01 X 25.0547 Y 27.6589 Z -1.0000 F 3500.0000
G01 X 24.6439 Y 26.4384 Z -1.0000
G01 X 23.3468 Y 26.4384 Z -1.0000
G01 X 25.4656 Y 32.3760 Z -1.0000
G01 X 26.8674 Y 32.3760 Z -1.0000
G01 X 28.9701 Y 26.4384 Z -1.0000
G01 X 27.6247 Y 26.4384 Z -1.0000
G01 X 27.2420 Y 27.6589 Z -1.0000
G00 Z 5.0000

(End cutting path id: path239321)


(Start cutting path id: path239321)
(Change tool to Default tool)

G00 Z 5.0000
G00 X 34.5250 Y 26.4384

G01 Z -1.0000 F 100.0000(Penetrate)
G01 X 33.2843 Y 26.4384 Z -1.0000 F 3500.0000
G01 X 30.8594 Y 30.6559 Z -1.0000
G01 X 30.8594 Y 26.4384 Z -1.0000
G01 X 29.7033 Y 26.4384 Z -1.0000
G01 X 29.7033 Y 32.3760 Z -1.0000
G01 X 31.0044 Y 32.3760 Z -1.0000
G01 X 33.3689 Y 28.2309 Z -1.0000
G01 X 33.3689 Y 32.3760 Z -1.0000
G01 X 34.5250 Y 32.3760 Z -1.0000
G01 X 34.5250 Y 26.4384 Z -1.0000
G00 Z 5.0000

(End cutting path id: path239321)


(Start cutting path id: path239321)
(Change tool to Default tool)

G00 Z 5.0000
G00 X 39.9953 Y 32.3760

G01 Z -1.0000 F 100.0000(Penetrate)
G01 X 39.9953 Y 31.3246 Z -1.0000 F 3500.0000
G01 X 38.2189 Y 31.3246 Z -1.0000
G01 X 38.2189 Y 26.4384 Z -1.0000
G01 X 36.9701 Y 26.4384 Z -1.0000
G01 X 36.9701 Y 31.3246 Z -1.0000
G01 X 35.1856 Y 31.3246 Z -1.0000
G01 X 35.1856 Y 32.3760 Z -1.0000
G01 X 39.9953 Y 32.3760 Z -1.0000
G00 Z 5.0000

(End cutting path id: path239321)


(Start cutting path id: path239320)
(Change tool to Default tool)

G00 Z 5.0000
G00 X 17.8120 Y 36.4573

G01 Z -1.0000 F 100.0000(Penetrate)
G01 X 14.9279 Y 36.4573 Z -1.0000 F 3500.0000
G01 X 14.9279 Y 34.9306 Z -1.0000
G01 X 18.2149 Y 34.9306 Z -1.0000
G01 X 18.2149 Y 33.8632 Z -1.0000
G01 X 13.7154 Y 33.8632 Z -1.0000
G01 X 13.7154 Y 39.8007 Z -1.0000
G01 X 18.0698 Y 39.8007 Z -1.0000
G01 X 18.0698 Y 38.7494 Z -1.0000
G01 X 14.9279 Y 38.7494 Z -1.0000
G01 X 14.9279 Y 37.4885 Z -1.0000
G01 X 17.8120 Y 37.4885 Z -1.0000
G01 X 17.8120 Y 36.4573 Z -1.0000
G00 Z 5.0000

(End cutting path id: path239320)



(Footer)
M5
G00 X0.0000 Y0.0000
M2
(Using default footer. To add your own footer create file "footer" in the output dir.)
(end)
%