%
(Header)
(Generated by gcodetools from Inkscape.)
(Using default header. To add your own header create file "header" in the output dir.)
M3
(Header end.)
G21 (All units in mm)

(Start cutting path id: text242981)
(Change tool to Default tool)

G00 Z 5.0000
G00 X 8.0761 Y 8.7597

G01 Z -1.0000 F 100.0000(Penetrate)
G01 X 2.9843 Y 8.7597 Z -1.0000 F 3500.0000
G01 X 2.9843 Y 6.4239 Z -1.0000
G01 X 7.4422 Y 6.4239 Z -1.0000
G01 X 7.4422 Y 4.6600 Z -1.0000
G01 X 2.9843 Y 4.6600 Z -1.0000
G01 X 2.9843 Y 0.4019 Z -1.0000
G01 X 0.8759 Y 0.4019 Z -1.0000
G01 X 0.8759 Y 10.5442 Z -1.0000
G01 X 8.0761 Y 10.5442 Z -1.0000
G01 X 8.0761 Y 8.7597 Z -1.0000
G00 Z 5.0000

(End cutting path id: text242981)


(Start cutting path id: text242981)
(Change tool to Default tool)

G00 Z 5.0000
G00 X 15.9930 Y 2.8479

G01 Z -1.0000 F 100.0000(Penetrate)
G03 X 16.5063 Y 3.8561 Z -1.0000 I -2.2399 J 1.7753 F 3500.0000
G03 X 16.7302 Y 5.4937 Z -1.0000 I -5.8773 J 1.6377
G03 X 16.5048 Y 7.1234 Z -1.0000 I -6.0048 J -0.0000
G03 X 15.9861 Y 8.1327 Z -1.0000 I -2.7494 J -0.7753
G03 X 15.1257 Y 8.8162 Z -1.0000 I -1.8714 J -1.4724
G03 X 13.9879 Y 9.0697 Z -1.0000 I -1.1378 J -2.4261
G03 X 12.8469 Y 8.8188 Z -1.0000 I -0.0000 J -2.7189
G03 X 11.9760 Y 8.1396 Z -1.0000 I 1.0198 J -2.2058
G03 X 11.4525 Y 7.1290 Z -1.0000 I 2.2140 J -1.7876
G03 X 11.2249 Y 5.4937 Z -1.0000 I 5.7609 J -1.6352
G03 X 11.4525 Y 3.8585 Z -1.0000 I 5.9885 J 0.0000
G03 X 11.9760 Y 2.8479 Z -1.0000 I 2.7375 J 0.7770
G03 X 12.8469 Y 2.1687 Z -1.0000 I 1.8908 J 1.5266
G03 X 13.9879 Y 1.9177 Z -1.0000 I 1.1410 J 2.4679
G03 X 15.1279 Y 2.1693 Z -1.0000 I -0.0000 J 2.7089
G03 X 15.9930 Y 2.8479 Z -1.0000 I -1.0111 J 2.1796
G01 X 15.9930 Y 2.8479 Z -1.0000
G00 Z 5.0000

(End cutting path id: text242981)


(Start cutting path id: text242981)
(Change tool to Default tool)

G00 Z 5.0000
G00 X 13.9879 Y 0.1194

G01 Z -1.0000 F 100.0000(Penetrate)
G02 X 11.9588 Y 0.4699 Z -1.0000 I -0.0000 J 6.0484 F 3500.0000
G02 X 10.6599 Y 1.3045 Z -1.0000 I 1.1407 J 3.2033
G02 X 9.5695 Y 2.9539 Z -1.0000 I 2.9590 J 3.1413
G02 X 9.1165 Y 5.4937 Z -1.0000 I 6.8937 J 2.5398
G02 X 9.5778 Y 8.0798 Z -1.0000 I 7.4805 J -0.0000
G02 X 10.6599 Y 9.6830 Z -1.0000 I 3.8057 J -1.4021
G02 X 11.9588 Y 10.5176 Z -1.0000 I 2.4396 J -2.3687
G02 X 13.9879 Y 10.8681 Z -1.0000 I 2.0291 J -5.6979
G02 X 16.0170 Y 10.5176 Z -1.0000 I 0.0000 J -6.0484
G02 X 17.3159 Y 9.6830 Z -1.0000 I -1.1407 J -3.2033
G02 X 18.3928 Y 8.0812 Z -1.0000 I -2.7288 J -2.9977
G02 X 18.8524 Y 5.4937 Z -1.0000 I -7.0545 J -2.5874
G02 X 18.4011 Y 2.9526 Z -1.0000 I -7.3796 J 0.0000
G02 X 17.3159 Y 1.3045 Z -1.0000 I -4.0502 J 1.4855
G02 X 16.0170 Y 0.4699 Z -1.0000 I -2.4396 J 2.3687
G02 X 13.9879 Y 0.1194 Z -1.0000 I -2.0291 J 5.6979
G01 X 13.9879 Y 0.1194 Z -1.0000
G00 Z 5.0000

(End cutting path id: text242981)


(Start cutting path id: text242981)
(Change tool to Default tool)

G00 Z 5.0000
G00 X 24.7848 Y 4.3844

G01 Z -1.0000 F 100.0000(Penetrate)
G01 X 22.5937 Y 4.3844 Z -1.0000 F 3500.0000
G01 X 22.5937 Y 0.4019 Z -1.0000
G01 X 20.5198 Y 0.4019 Z -1.0000
G01 X 20.5198 Y 10.5580 Z -1.0000
G01 X 25.5014 Y 10.5580 Z -1.0000
G02 X 26.5539 Y 10.4643 Z -1.0000 I -0.1472 J -7.6077
G02 X 27.1413 Y 10.2962 Z -1.0000 I -0.4011 J -2.5123
G02 X 27.6769 Y 9.9958 Z -1.0000 I -1.0171 J -2.4410
G02 X 28.1197 Y 9.5865 Z -1.0000 I -1.4970 J -2.0638
G02 X 28.4159 Y 9.1795 Z -1.0000 I -2.4097 J -2.0654
G02 X 28.6433 Y 8.7321 Z -1.0000 I -2.6899 J -1.6487
G02 X 28.7835 Y 8.2532 Z -1.0000 I -2.1819 J -0.8984
G02 X 28.8363 Y 7.6641 Z -1.0000 I -3.2606 J -0.5890
G02 X 28.7478 Y 6.9623 Z -1.0000 I -2.8297 J 0.0000
G02 X 28.4711 Y 6.2379 Z -1.0000 I -3.2940 J 0.8434
G02 X 28.0019 Y 5.6630 Z -1.0000 I -1.6437 J 0.8625
G02 X 27.2653 Y 5.2526 Z -1.0000 I -1.5171 J 1.8566
G02 X 27.8917 Y 4.8837 Z -1.0000 I -0.9068 J -2.2559
G02 X 28.2575 Y 4.4464 Z -1.0000 I -0.9429 J -1.1605
G02 X 28.4572 Y 3.9039 Z -1.0000 I -1.5007 J -0.8604
G02 X 28.5538 Y 2.8617 Z -1.0000 I -5.5748 J -1.0423
G01 X 28.5538 Y 2.1796 Z -1.0000
G03 X 28.5740 Y 1.4859 Z -1.0000 I 11.9000 J 0.0000
G03 X 28.6089 Y 1.2356 Z -1.0000 I 1.5750 J 0.0920
G03 X 28.7551 Y 0.8876 Z -1.0000 I 0.9765 J 0.2056
G03 X 28.9947 Y 0.6568 Z -1.0000 I 0.6452 J 0.4302
G01 X 28.9947 Y 0.4019 Z -1.0000
G01 X 26.6590 Y 0.4019 Z -1.0000
G02 X 26.5677 Y 0.7408 Z -1.0000 I 11.1232 J 3.1780
G02 X 26.5212 Y 0.9462 Z -1.0000 I 4.0402 J 1.0228
G02 X 26.4578 Y 1.3754 Z -1.0000 I 4.7781 J 0.9248
G02 X 26.4316 Y 1.8213 Z -1.0000 I 5.1309 J 0.5252
G01 X 26.4178 Y 2.7652 Z -1.0000
G03 X 26.2863 Y 3.6848 Z -1.0000 I -3.6431 J -0.0517
G03 X 26.0595 Y 4.0606 Z -1.0000 I -0.7838 J -0.2168
G03 X 25.6770 Y 4.2729 Z -1.0000 I -0.5936 J -0.6189
G03 X 24.7848 Y 4.3844 Z -1.0000 I -0.8922 J -3.5119
G01 X 24.7848 Y 4.3844 Z -1.0000
G00 Z 5.0000

(End cutting path id: text242981)


(Start cutting path id: text242981)
(Change tool to Default tool)

G00 Z 5.0000
G00 X 26.0733 Y 6.2310

G01 Z -1.0000 F 100.0000(Penetrate)
G03 X 26.5177 Y 6.6421 Z -1.0000 I -0.4018 J 0.8802 F 3500.0000
G03 X 26.7072 Y 7.3748 Z -1.0000 I -1.3219 J 0.7326
G03 X 26.5183 Y 8.1830 Z -1.0000 I -1.8236 J -0.0000
G03 X 26.0940 Y 8.6150 Z -1.0000 I -0.8699 J -0.4301
G03 X 25.7353 Y 8.7361 Z -1.0000 I -0.5695 J -1.0953
G03 X 25.0604 Y 8.7941 Z -1.0000 I -0.6748 J -3.8932
G01 X 22.5937 Y 8.7941 Z -1.0000
G01 X 22.5937 Y 6.0656 Z -1.0000
G01 X 24.9984 Y 6.0656 Z -1.0000
G03 X 25.7032 Y 6.1195 Z -1.0000 I 0.0000 J 4.6347
G03 X 26.0733 Y 6.2310 Z -1.0000 I -0.2108 J 1.3701
G01 X 26.0733 Y 6.2310 Z -1.0000
G00 Z 5.0000

(End cutting path id: text242981)


(Start cutting path id: text242981)
(Change tool to Default tool)

G00 Z 5.0000
G00 X 39.6607 Y 0.4019

G01 Z -1.0000 F 100.0000(Penetrate)
G01 X 36.9322 Y 0.4019 Z -1.0000 F 3500.0000
G01 X 33.7972 Y 4.8392 Z -1.0000
G01 X 32.7843 Y 3.7988 Z -1.0000
G01 X 32.7843 Y 0.4019 Z -1.0000
G01 X 30.6966 Y 0.4019 Z -1.0000
G01 X 30.6966 Y 10.5580 Z -1.0000
G01 X 32.7843 Y 10.5580 Z -1.0000
G01 X 32.7843 Y 6.3757 Z -1.0000
G01 X 36.7048 Y 10.5580 Z -1.0000
G01 X 39.4471 Y 10.5580 Z -1.0000
G01 X 35.2855 Y 6.3757 Z -1.0000
G01 X 39.6607 Y 0.4019 Z -1.0000
G00 Z 5.0000

(End cutting path id: text242981)



(Footer)
M5
G00 X0.0000 Y0.0000
M2
(Using default footer. To add your own footer create file "footer" in the output dir.)
(end)
%