%
(Header)
(Generated by gcodetools from Inkscape.)
(Using default header. To add your own header create file "header" in the output dir.)
M3
(Header end.)
G21 (All units in mm)

(Start cutting path id: text4852)
(Change tool to Default tool)

G00 Z 5.0000
G00 X 5.0488 Y 37.8296

G01 Z -1.0000 F 100.0000(Penetrate)
G01 X 1.6711 Y 37.8296 Z -1.0000 F 3500.0000
G01 X 1.6711 Y 36.2802 Z -1.0000
G01 X 4.6283 Y 36.2802 Z -1.0000
G01 X 4.6283 Y 35.1101 Z -1.0000
G01 X 1.6711 Y 35.1101 Z -1.0000
G01 X 1.6711 Y 32.2855 Z -1.0000
G01 X 0.2725 Y 32.2855 Z -1.0000
G01 X 0.2725 Y 39.0134 Z -1.0000
G01 X 5.0488 Y 39.0134 Z -1.0000
G01 X 5.0488 Y 37.8296 Z -1.0000
G00 Z 5.0000

(End cutting path id: text4852)


(Start cutting path id: text4852)
(Change tool to Default tool)

G00 Z 5.0000
G00 X 8.8515 Y 34.9273

G01 Z -1.0000 F 100.0000(Penetrate)
G01 X 7.3980 Y 34.9273 Z -1.0000 F 3500.0000
G01 X 7.3980 Y 32.2855 Z -1.0000
G01 X 6.0223 Y 32.2855 Z -1.0000
G01 X 6.0223 Y 39.0225 Z -1.0000
G01 X 9.3268 Y 39.0225 Z -1.0000
G02 X 10.0250 Y 38.9603 Z -1.0000 I -0.0977 J -5.0466
G02 X 10.4146 Y 38.8488 Z -1.0000 I -0.2661 J -1.6665
G02 X 10.7699 Y 38.6496 Z -1.0000 I -0.6747 J -1.6192
G02 X 11.0637 Y 38.3781 Z -1.0000 I -0.9930 J -1.3690
G02 X 11.2602 Y 38.1081 Z -1.0000 I -1.5985 J -1.3701
G02 X 11.4110 Y 37.8113 Z -1.0000 I -1.7844 J -1.0937
G02 X 11.5040 Y 37.4936 Z -1.0000 I -1.4474 J -0.5960
G02 X 11.5390 Y 37.1029 Z -1.0000 I -2.1629 J -0.3907
G02 X 11.4803 Y 36.6373 Z -1.0000 I -1.8771 J -0.0000
G02 X 11.2968 Y 36.1568 Z -1.0000 I -2.1851 J 0.5595
G02 X 10.9856 Y 35.7754 Z -1.0000 I -1.0903 J 0.5722
G02 X 10.4969 Y 35.5032 Z -1.0000 I -1.0064 J 1.2316
G02 X 10.9124 Y 35.2585 Z -1.0000 I -0.6015 J -1.4964
G02 X 11.1551 Y 34.9684 Z -1.0000 I -0.6254 J -0.7698
G02 X 11.2875 Y 34.6085 Z -1.0000 I -0.9955 J -0.5707
G02 X 11.3516 Y 33.9172 Z -1.0000 I -3.6981 J -0.6914
G01 X 11.3516 Y 33.4647 Z -1.0000
G03 X 11.3650 Y 33.0045 Z -1.0000 I 7.8946 J 0.0000
G03 X 11.3882 Y 32.8385 Z -1.0000 I 1.0449 J 0.0610
G03 X 11.4852 Y 32.6077 Z -1.0000 I 0.6478 J 0.1364
G03 X 11.6441 Y 32.4546 Z -1.0000 I 0.4280 J 0.2853
G01 X 11.6441 Y 32.2855 Z -1.0000
G01 X 10.0947 Y 32.2855 Z -1.0000
G02 X 10.0341 Y 32.5103 Z -1.0000 I 7.3775 J 2.1078
G02 X 10.0033 Y 32.6465 Z -1.0000 I 2.6797 J 0.6784
G02 X 9.9612 Y 32.9312 Z -1.0000 I 3.1695 J 0.6134
G02 X 9.9439 Y 33.2270 Z -1.0000 I 3.4035 J 0.3484
G01 X 9.9347 Y 33.8532 Z -1.0000
G03 X 9.8475 Y 34.4632 Z -1.0000 I -2.4166 J -0.0343
G03 X 9.6971 Y 34.7125 Z -1.0000 I -0.5199 J -0.1438
G03 X 9.4433 Y 34.8533 Z -1.0000 I -0.3938 J -0.4105
G03 X 8.8515 Y 34.9273 Z -1.0000 I -0.5918 J -2.3296
G01 X 8.8515 Y 34.9273 Z -1.0000
G00 Z 5.0000

(End cutting path id: text4852)


(Start cutting path id: text4852)
(Change tool to Default tool)

G00 Z 5.0000
G00 X 9.7062 Y 36.1522

G01 Z -1.0000 F 100.0000(Penetrate)
G03 X 10.0010 Y 36.4249 Z -1.0000 I -0.2665 J 0.5839 F 3500.0000
G03 X 10.1267 Y 36.9109 Z -1.0000 I -0.8769 J 0.4860
G03 X 10.0014 Y 37.4471 Z -1.0000 I -1.2097 J 0.0000
G03 X 9.7199 Y 37.7336 Z -1.0000 I -0.5770 J -0.2853
G03 X 9.4820 Y 37.8139 Z -1.0000 I -0.3778 J -0.7265
G03 X 9.0343 Y 37.8525 Z -1.0000 I -0.4476 J -2.5826
G01 X 7.3980 Y 37.8525 Z -1.0000
G01 X 7.3980 Y 36.0425 Z -1.0000
G01 X 8.9932 Y 36.0425 Z -1.0000
G03 X 9.4607 Y 36.0782 Z -1.0000 I 0.0000 J 3.0744
G03 X 9.7062 Y 36.1522 Z -1.0000 I -0.1398 J 0.9089
G01 X 9.7062 Y 36.1522 Z -1.0000
G00 Z 5.0000

(End cutting path id: text4852)


(Start cutting path id: text4852)
(Change tool to Default tool)

G00 Z 5.0000
G00 X 12.6405 Y 39.0225

G01 Z -1.0000 F 100.0000(Penetrate)
G01 X 14.0391 Y 39.0225 Z -1.0000 F 3500.0000
G01 X 14.0391 Y 32.2855 Z -1.0000
G01 X 12.6405 Y 32.2855 Z -1.0000
G01 X 12.6405 Y 39.0225 Z -1.0000
G00 Z 5.0000

(End cutting path id: text4852)


(Start cutting path id: text4852)
(Change tool to Default tool)

G00 Z 5.0000
G00 X 17.7962 Y 33.2590

G01 Z -1.0000 F 100.0000(Penetrate)
G03 X 18.2887 Y 33.2922 Z -1.0000 I -0.0000 J 3.6654 F 3500.0000
G03 X 18.6051 Y 33.3687 Z -1.0000 I -0.2143 J 1.5803
G03 X 19.0400 Y 33.6881 Z -1.0000 I -0.3158 J 0.8857
G03 X 19.1948 Y 34.1503 Z -1.0000 I -0.6127 J 0.4622
G03 X 19.1180 Y 34.4414 Z -1.0000 I -0.5907 J -0.0000
G03 X 18.9022 Y 34.6667 Z -1.0000 I -0.5521 J -0.3127
G03 X 18.5959 Y 34.8106 Z -1.0000 I -0.8146 J -1.3368
G03 X 17.9835 Y 34.9821 Z -1.0000 I -1.7949 J -5.2285
G01 X 17.2705 Y 35.1421 Z -1.0000
G02 X 16.2453 Y 35.4390 Z -1.0000 I 1.9777 J 8.7475
G02 X 15.8171 Y 35.6586 Z -1.0000 I 0.6105 J 1.7182
G02 X 15.3332 Y 36.2287 Z -1.0000 I 0.8012 J 1.1704
G02 X 15.1361 Y 37.1166 Z -1.0000 I 1.9009 J 0.8879
G02 X 15.3094 Y 37.9449 Z -1.0000 I 2.0659 J 0.0000
G02 X 15.7942 Y 38.6203 Z -1.0000 I 1.8265 J -0.7995
G02 X 16.5229 Y 39.0368 Z -1.0000 I 1.3003 J -1.4293
G02 X 17.7276 Y 39.2191 Z -1.0000 I 1.2047 J -3.8900
G02 X 18.7407 Y 39.0645 Z -1.0000 I -0.0000 J -3.3981
G02 X 19.5421 Y 38.6523 Z -1.0000 I -0.7835 J -2.5084
G02 X 20.0938 Y 37.9842 Z -1.0000 I -1.0891 J -1.4611
G02 X 20.3328 Y 37.0160 Z -1.0000 I -2.1733 J -1.0502
G01 X 18.9799 Y 37.0160 Z -1.0000
G03 X 18.8147 Y 37.5403 Z -1.0000 I -1.1302 J -0.0680
G03 X 18.4497 Y 37.8799 Z -1.0000 I -0.7936 J -0.4871
G03 X 18.1089 Y 38.0002 Z -1.0000 I -0.6119 J -1.1907
G03 X 17.6316 Y 38.0490 Z -1.0000 I -0.4772 J -2.3088
G03 X 17.1077 Y 37.9838 Z -1.0000 I 0.0000 J -2.1391
G03 X 16.7632 Y 37.8296 Z -1.0000 I 0.2677 J -1.0598
G03 X 16.5250 Y 37.5644 Z -1.0000 I 0.4123 J -0.6099
G03 X 16.4387 Y 37.2171 Z -1.0000 I 0.6554 J -0.3472
G03 X 16.5240 Y 36.9062 Z -1.0000 I 0.6095 J 0.0000
G03 X 16.7586 Y 36.6778 Z -1.0000 I 0.5405 J 0.3207
G03 X 16.9738 Y 36.5828 Z -1.0000 I 0.5451 J 0.9434
G03 X 17.6362 Y 36.3990 Z -1.0000 I 2.8180 J 8.8698
G01 X 18.7971 Y 36.1202 Z -1.0000
G02 X 19.5317 Y 35.8781 Z -1.0000 I -1.0837 J -4.5243
G02 X 19.9489 Y 35.6311 Z -1.0000 I -0.7145 J -1.6827
G02 X 20.3809 Y 35.0727 Z -1.0000 I -0.9004 J -1.1428
G02 X 20.5522 Y 34.2554 Z -1.0000 I -1.8636 J -0.8173
G02 X 20.3680 Y 33.4164 Z -1.0000 I -2.0030 J 0.0000
G02 X 19.8438 Y 32.7197 Z -1.0000 I -1.8739 J 0.8644
G02 X 19.0722 Y 32.2939 Z -1.0000 I -1.3938 J 1.6139
G02 X 17.8510 Y 32.1118 Z -1.0000 I -1.2212 J 4.0032
G02 X 16.5966 Y 32.2895 Z -1.0000 I -0.0000 J 4.5153
G02 X 15.7805 Y 32.7105 Z -1.0000 I 0.6591 J 2.2791
G02 X 15.2331 Y 33.4132 Z -1.0000 I 1.1989 J 1.4987
G02 X 15.0264 Y 34.3651 Z -1.0000 I 2.0884 J 0.9519
G01 X 16.3701 Y 34.3651 Z -1.0000
G03 X 16.4798 Y 33.9235 Z -1.0000 I 2.1345 J 0.2959
G03 X 16.6215 Y 33.6749 Z -1.0000 I 0.8002 J 0.2915
G03 X 17.0267 Y 33.3912 Z -1.0000 I 0.7140 J 0.5884
G03 X 17.7962 Y 33.2590 Z -1.0000 I 0.7695 J 2.1732
G01 X 17.7962 Y 33.2590 Z -1.0000
G00 Z 5.0000

(End cutting path id: text4852)


(Start cutting path id: text4852)
(Change tool to Default tool)

G00 Z 5.0000
G00 X 24.6703 Y 32.2855

G01 Z -1.0000 F 100.0000(Penetrate)
G01 X 21.6172 Y 32.2855 Z -1.0000 F 3500.0000
G01 X 21.6172 Y 39.0225 Z -1.0000
G01 X 24.8897 Y 39.0225 Z -1.0000
G02 X 26.0192 Y 38.7919 Z -1.0000 I -0.0458 J -3.1053
G02 X 26.6448 Y 38.3049 Z -1.0000 I -0.5558 J -1.3595
G02 X 26.8712 Y 37.8480 Z -1.0000 I -1.2474 J -0.9024
G02 X 26.9556 Y 37.2766 Z -1.0000 I -1.8907 J -0.5714
G02 X 26.8662 Y 36.6918 Z -1.0000 I -1.9555 J 0.0000
G02 X 26.6448 Y 36.2847 Z -1.0000 I -1.1448 J 0.3587
G02 X 26.4509 Y 36.0997 Z -1.0000 I -0.8746 J 0.7225
G02 X 26.1329 Y 35.9008 Z -1.0000 I -1.3323 J 1.7764
G02 X 26.5965 Y 35.6473 Z -1.0000 I -0.5936 J -1.6360
G02 X 26.9099 Y 35.3066 Z -1.0000 I -0.8114 J -1.0610
G02 X 27.1013 Y 34.8780 Z -1.0000 I -1.2529 J -0.8165
G02 X 27.1750 Y 34.3194 Z -1.0000 I -2.0802 J -0.5586
G02 X 27.0957 Y 33.7437 Z -1.0000 I -2.1292 J 0.0000
G02 X 26.8734 Y 33.2453 Z -1.0000 I -1.8077 J 0.5077
G02 X 26.6555 Y 32.9535 Z -1.0000 I -1.6494 J 1.0040
G02 X 26.3934 Y 32.7151 Z -1.0000 I -1.3547 J 1.2263
G02 X 26.0490 Y 32.5121 Z -1.0000 I -1.0309 J 1.3554
G02 X 25.6256 Y 32.3769 Z -1.0000 I -0.8485 J 1.9263
G02 X 25.1843 Y 32.3100 Z -1.0000 I -0.8281 J 3.9747
G02 X 24.6703 Y 32.2855 Z -1.0000 I -0.5139 J 5.3708
G01 X 24.6703 Y 32.2855 Z -1.0000
G00 Z 5.0000

(End cutting path id: text4852)


(Start cutting path id: text4852)
(Change tool to Default tool)

G00 Z 5.0000
G00 X 24.6383 Y 35.2518

G01 Z -1.0000 F 100.0000(Penetrate)
G01 X 22.9609 Y 35.2518 Z -1.0000 F 3500.0000
G01 X 22.9609 Y 33.4555 Z -1.0000
G01 X 24.6155 Y 33.4555 Z -1.0000
G03 X 25.0504 Y 33.4927 Z -1.0000 I 0.0000 J 2.5627
G03 X 25.3056 Y 33.5744 Z -1.0000 I -0.1640 J 0.9525
G03 X 25.6193 Y 33.8775 Z -1.0000 I -0.3116 J 0.6361
G03 X 25.7536 Y 34.4154 Z -1.0000 I -1.0098 J 0.5378
G03 X 25.6299 Y 34.8612 Z -1.0000 I -0.8652 J 0.0000
G03 X 25.3194 Y 35.1375 Z -1.0000 I -0.5984 J -0.3598
G03 X 25.0697 Y 35.2136 Z -1.0000 I -0.4169 J -0.9207
G03 X 24.6383 Y 35.2518 Z -1.0000 I -0.4603 J -2.7435
G01 X 24.6383 Y 35.2518 Z -1.0000
G00 Z 5.0000

(End cutting path id: text4852)


(Start cutting path id: text4852)
(Change tool to Default tool)

G00 Z 5.0000
G00 X 25.3376 Y 36.5361

G01 Z -1.0000 F 100.0000(Penetrate)
G03 X 25.5283 Y 36.7480 Z -1.0000 I -0.2501 J 0.4169 F 3500.0000
G03 X 25.6119 Y 37.1257 Z -1.0000 I -0.8122 J 0.3778
G03 X 25.5034 Y 37.5239 Z -1.0000 I -0.7854 J -0.0000
G03 X 25.2462 Y 37.7473 Z -1.0000 I -0.4613 J -0.2714
G03 X 24.9257 Y 37.8210 Z -1.0000 I -0.5430 J -1.6290
G03 X 24.4418 Y 37.8525 Z -1.0000 I -0.4839 J -3.7033
G01 X 22.9609 Y 37.8525 Z -1.0000
G01 X 22.9609 Y 36.3670 Z -1.0000
G01 X 24.6155 Y 36.3670 Z -1.0000
G03 X 25.0450 Y 36.4166 Z -1.0000 I 0.0000 J 1.8836
G03 X 25.3376 Y 36.5361 Z -1.0000 I -0.2296 J 0.9806
G01 X 25.3376 Y 36.5361 Z -1.0000
G00 Z 5.0000

(End cutting path id: text4852)


(Start cutting path id: text4852)
(Change tool to Default tool)

G00 Z 5.0000
G00 X 33.0437 Y 35.2289

G01 Z -1.0000 F 100.0000(Penetrate)
G01 X 29.7711 Y 35.2289 Z -1.0000 F 3500.0000
G01 X 29.7711 Y 33.4967 Z -1.0000
G01 X 33.5007 Y 33.4967 Z -1.0000
G01 X 33.5007 Y 32.2855 Z -1.0000
G01 X 28.3954 Y 32.2855 Z -1.0000
G01 X 28.3954 Y 39.0225 Z -1.0000
G01 X 33.3362 Y 39.0225 Z -1.0000
G01 X 33.3362 Y 37.8296 Z -1.0000
G01 X 29.7711 Y 37.8296 Z -1.0000
G01 X 29.7711 Y 36.3990 Z -1.0000
G01 X 33.0437 Y 36.3990 Z -1.0000
G01 X 33.0437 Y 35.2289 Z -1.0000
G00 Z 5.0000

(End cutting path id: text4852)


(Start cutting path id: text4852)
(Change tool to Default tool)

G00 Z 5.0000
G00 X 39.2871 Y 35.2289

G01 Z -1.0000 F 100.0000(Penetrate)
G01 X 36.0146 Y 35.2289 Z -1.0000 F 3500.0000
G01 X 36.0146 Y 33.4967 Z -1.0000
G01 X 39.7442 Y 33.4967 Z -1.0000
G01 X 39.7442 Y 32.2855 Z -1.0000
G01 X 34.6388 Y 32.2855 Z -1.0000
G01 X 34.6388 Y 39.0225 Z -1.0000
G01 X 39.5796 Y 39.0225 Z -1.0000
G01 X 39.5796 Y 37.8296 Z -1.0000
G01 X 36.0145 Y 37.8296 Z -1.0000
G01 X 36.0145 Y 36.3990 Z -1.0000
G01 X 39.2871 Y 36.3990 Z -1.0000
G01 X 39.2871 Y 35.2289 Z -1.0000
G00 Z 5.0000

(End cutting path id: text4852)



(Footer)
M5
G00 X0.0000 Y0.0000
M2
(Using default footer. To add your own footer create file "footer" in the output dir.)
(end)
%