%
(Header)
(Generated by gcodetools from Inkscape.)
(Using default header. To add your own header create file "header" in the output dir.)
M3
(Header end.)
G21 (All units in mm)

(Start cutting path id: text34909)
(Change tool to Default tool)

G00 Z 5.0000
G00 X 6.3425 Y 30.7806

G01 Z -1.0000 F 100.0000(Penetrate)
G02 X 5.5658 Y 30.4540 Z -1.0000 I -1.4465 J 2.3530 F 3500.0000
G02 X 4.5221 Y 30.3255 Z -1.0000 I -1.0438 J 4.1750
G02 X 2.8893 Y 30.6566 Z -1.0000 I -0.0000 J 4.1917
G02 X 1.6095 Y 31.5573 Z -1.0000 I 1.4409 J 3.4070
G02 X 0.7675 Y 32.9320 Z -1.0000 I 2.7522 J 2.6307
G02 X 0.4262 Y 34.9432 Z -1.0000 I 5.7550 J 2.0112
G02 X 0.7666 Y 36.9836 Z -1.0000 I 6.2855 J 0.0000
G02 X 1.6216 Y 38.4262 Z -1.0000 I 3.9069 J -1.3409
G02 X 2.9758 Y 39.3771 Z -1.0000 I 2.8115 J -2.5642
G02 X 4.7830 Y 39.7368 Z -1.0000 I 1.8072 J -4.3590
G02 X 6.3970 Y 39.4871 Z -1.0000 I 0.0000 J -5.3401
G02 X 7.5196 Y 38.8691 Z -1.0000 I -0.9936 J -3.1338
G02 X 8.3331 Y 37.8858 Z -1.0000 I -2.1966 J -2.6452
G02 X 8.7090 Y 36.7150 Z -1.0000 I -2.7945 J -1.5429
G01 X 6.8704 Y 36.7150 Z -1.0000
G03 X 6.4905 Y 37.4926 Z -1.0000 I -1.8759 J -0.4348
G03 X 5.8328 Y 37.9954 Z -1.0000 I -1.3690 J -1.1095
G03 X 5.3605 Y 38.1421 Z -1.0000 I -0.9103 J -2.0964
G03 X 4.8073 Y 38.1956 Z -1.0000 I -0.5532 J -2.8331
G03 X 3.8265 Y 37.9805 Z -1.0000 I 0.0000 J -2.3437
G03 X 3.0294 Y 37.3764 Z -1.0000 I 0.9732 J -2.1121
G03 X 2.5534 Y 36.4840 Z -1.0000 I 1.8059 J -1.5364
G03 X 2.3376 Y 34.9250 Z -1.0000 I 5.5248 J -1.5590
G03 X 2.5801 Y 33.3816 Z -1.0000 I 5.0345 J 0.0000
G03 X 3.0901 Y 32.5888 Z -1.0000 I 1.7444 J 0.5618
G03 X 3.9091 Y 32.0752 Z -1.0000 I 1.8292 J 2.0073
G03 X 4.8012 Y 31.9032 Z -1.0000 I 0.8921 J 2.2263
G03 X 5.6842 Y 32.0534 Z -1.0000 I -0.0000 J 2.6700
G03 X 6.3425 Y 32.4432 Z -1.0000 I -0.6443 J 1.8388
G03 X 6.8157 Y 33.0582 Z -1.0000 I -1.4817 J 1.6299
G03 X 7.0828 Y 33.8692 Z -1.0000 I -2.3670 J 1.2288
G01 X 5.0136 Y 33.8692 Z -1.0000
G01 X 5.0136 Y 35.3619 Z -1.0000
G01 X 8.7393 Y 35.3619 Z -1.0000
G01 X 8.7393 Y 30.5622 Z -1.0000
G01 X 7.5014 Y 30.5622 Z -1.0000
G01 X 7.3133 Y 31.6787 Z -1.0000
G02 X 6.7403 Y 31.0802 Z -1.0000 I -5.2169 J 4.4219
G02 X 6.3425 Y 30.7806 Z -1.0000 I -1.6778 J 1.8138
G01 X 6.3425 Y 30.7806 Z -1.0000
G00 Z 5.0000

(End cutting path id: text34909)


(Start cutting path id: text34909)
(Change tool to Default tool)

G00 Z 5.0000
G00 X 12.1616 Y 37.1762

G01 Z -1.0000 F 100.0000(Penetrate)
G01 X 12.1616 Y 30.5622 Z -1.0000 F 3500.0000
G01 X 10.4080 Y 30.5622 Z -1.0000
G01 X 10.4080 Y 37.1762 Z -1.0000
G01 X 12.1616 Y 37.1762 Z -1.0000
G00 Z 5.0000

(End cutting path id: text34909)


(Start cutting path id: text34909)
(Change tool to Default tool)

G00 Z 5.0000
G00 X 12.1616 Y 39.5609

G01 Z -1.0000 F 100.0000(Penetrate)
G01 X 12.1616 Y 37.9650 Z -1.0000 F 3500.0000
G01 X 10.4080 Y 37.9650 Z -1.0000
G01 X 10.4080 Y 39.5609 Z -1.0000
G01 X 12.1616 Y 39.5609 Z -1.0000
G00 Z 5.0000

(End cutting path id: text34909)


(Start cutting path id: text34909)
(Change tool to Default tool)

G00 Z 5.0000
G00 X 17.1616 Y 35.5803

G01 Z -1.0000 F 100.0000(Penetrate)
G03 X 16.2449 Y 35.3698 Z -1.0000 I 0.0000 J -2.1011 F 3500.0000
G03 X 15.7599 Y 34.9007 Z -1.0000 I 0.4718 J -0.9732
G03 X 15.6254 Y 34.5023 Z -1.0000 I 1.1912 J -0.6240
G03 X 15.5596 Y 33.7235 Z -1.0000 I 4.5779 J -0.7787
G01 X 15.5596 Y 30.5622 Z -1.0000
G01 X 13.8181 Y 30.5622 Z -1.0000
G01 X 13.8181 Y 37.1762 Z -1.0000
G01 X 15.4686 Y 37.1762 Z -1.0000
G01 X 15.4686 Y 36.0233 Z -1.0000
G02 X 15.9022 Y 36.6559 Z -1.0000 I 5.8163 J -3.5218
G02 X 16.1664 Y 36.9274 Z -1.0000 I 1.3132 J -1.0136
G02 X 16.6938 Y 37.2185 Z -1.0000 I 1.0094 J -1.2052
G02 X 17.4286 Y 37.3340 Z -1.0000 I 0.7347 J -2.2810
G02 X 17.4769 Y 37.3321 Z -1.0000 I -0.0000 J -0.6302
G02 X 17.5074 Y 37.3279 Z -1.0000 I -0.0196 J -0.2548
G02 X 17.5438 Y 37.3272 Z -1.0000 I 0.0000 J -0.9102
G02 X 17.6591 Y 37.3218 Z -1.0000 I -0.3660 J -9.1468
G01 X 17.6591 Y 35.5500 Z -1.0000
G03 X 17.4951 Y 35.5659 Z -1.0000 I -0.6614 J -5.9523
G03 X 17.3679 Y 35.5743 Z -1.0000 I -0.2978 J -3.5740
G03 X 17.2404 Y 35.5792 Z -1.0000 I -0.3337 J -7.0056
G03 X 17.1616 Y 35.5803 Z -1.0000 I -0.0789 J -2.6802
G01 X 17.1616 Y 35.5803 Z -1.0000
G00 Z 5.0000

(End cutting path id: text34909)


(Start cutting path id: text34909)
(Change tool to Default tool)

G00 Z 5.0000
G00 X 18.9213 Y 36.4602

G01 Z -1.0000 F 100.0000(Penetrate)
G02 X 19.7410 Y 37.0584 Z -1.0000 I 1.4698 J -1.1534 F 3500.0000
G02 X 21.2756 Y 37.3340 Z -1.0000 I 1.5346 J -4.1350
G02 X 22.3337 Y 37.2173 Z -1.0000 I 0.0000 J -4.8557
G02 X 23.2052 Y 36.9031 Z -1.0000 I -0.8014 J -3.5892
G02 X 23.7950 Y 36.3170 Z -1.0000 I -0.6198 J -1.2135
G02 X 24.0487 Y 35.2769 Z -1.0000 I -2.0054 J -1.0401
G01 X 24.0487 Y 32.2430 Z -1.0000
G03 X 24.0512 Y 31.9275 Z -1.0000 I 19.8721 J 0.0000
G03 X 24.0608 Y 31.4784 Z -1.0000 I 40.2695 J 0.6394
G03 X 24.1063 Y 31.1480 Z -1.0000 I 2.0019 J 0.1072
G03 X 24.1640 Y 31.0172 Z -1.0000 I 0.3593 J 0.0804
G03 X 24.2629 Y 30.9126 Z -1.0000 I 0.4026 J 0.2818
G03 X 24.4188 Y 30.8170 Z -1.0000 I 0.4895 J 0.6231
G01 X 24.4188 Y 30.5622 Z -1.0000
G01 X 22.5378 Y 30.5622 Z -1.0000
G02 X 22.4685 Y 30.7651 Z -1.0000 I 2.1529 J 0.8481
G02 X 22.4285 Y 30.9384 Z -1.0000 I 1.5283 J 0.4437
G02 X 22.4026 Y 31.1149 Z -1.0000 I 3.5083 J 0.6049
G02 X 22.3800 Y 31.3388 Z -1.0000 I 5.6251 J 0.6818
G02 X 21.9970 Y 30.9815 Z -1.0000 I -2.5632 J 2.3629
G02 X 21.5548 Y 30.6774 Z -1.0000 I -2.2893 J 2.8564
G02 X 20.9737 Y 30.4412 Z -1.0000 I -1.1499 J 1.9960
G02 X 20.2926 Y 30.3558 Z -1.0000 I -0.6810 J 2.6728
G02 X 19.4471 Y 30.4968 Z -1.0000 I 0.0000 J 2.6070
G02 X 18.8060 Y 30.8656 Z -1.0000 I 0.6295 J 1.8361
G02 X 18.3901 Y 31.4564 Z -1.0000 I 1.0380 J 1.1724
G02 X 18.2235 Y 32.3219 Z -1.0000 I 2.1637 J 0.8655
G02 X 18.4897 Y 33.3882 Z -1.0000 I 2.2683 J -0.0000
G02 X 19.1640 Y 34.0876 Z -1.0000 I 1.5641 J -0.8331
G02 X 19.7035 Y 34.3144 Z -1.0000 I 1.1725 J -2.0340
G02 X 20.6810 Y 34.5124 Z -1.0000 I 1.8382 J -6.5650
G01 X 21.2696 Y 34.5852 Z -1.0000
G03 X 21.7430 Y 34.6673 Z -1.0000 I -0.6574 J 5.1933
G03 X 21.9552 Y 34.7369 Z -1.0000 I -0.2444 J 1.1046
G03 X 22.2340 Y 34.9551 Z -1.0000 I -0.2687 J 0.6304
G03 X 22.3254 Y 35.2284 Z -1.0000 I -0.3629 J 0.2733
G03 X 22.2399 Y 35.5836 Z -1.0000 I -0.7808 J -0.0000
G03 X 22.0402 Y 35.7866 Z -1.0000 I -0.4225 J -0.2159
G03 X 21.7478 Y 35.8939 Z -1.0000 I -0.4728 J -0.8366
G03 X 21.2149 Y 35.9444 Z -1.0000 I -0.5328 J -2.7871
G03 X 20.6470 Y 35.8480 Z -1.0000 I -0.0000 J -1.7207
G03 X 20.3472 Y 35.6410 Z -1.0000 I 0.2271 J -0.6496
G03 X 20.2050 Y 35.3987 Z -1.0000 I 0.7282 J -0.5904
G03 X 20.1045 Y 35.0342 Z -1.0000 I 1.5770 J -0.6308
G01 X 18.4358 Y 35.0342 Z -1.0000
G02 X 18.5995 Y 35.8609 Z -1.0000 I 3.1798 J -0.2001
G02 X 18.9213 Y 36.4602 Z -1.0000 I 1.9652 J -0.6690
G01 X 18.9213 Y 36.4602 Z -1.0000
G00 Z 5.0000

(End cutting path id: text34909)


(Start cutting path id: text34909)
(Change tool to Default tool)

G00 Z 5.0000
G00 X 20.2077 Y 31.8121

G01 Z -1.0000 F 100.0000(Penetrate)
G03 X 20.4699 Y 31.6664 Z -1.0000 I 0.5261 J 0.6377 F 3500.0000
G03 X 20.8023 Y 31.6119 Z -1.0000 I 0.3324 J 0.9870
G03 X 21.3344 Y 31.6948 Z -1.0000 I 0.0000 J 1.7481
G03 X 21.8278 Y 31.9396 Z -1.0000 I -0.5566 J 1.7420
G03 X 22.1548 Y 32.3459 Z -1.0000 I -0.5233 J 0.7559
G03 X 22.3193 Y 33.1350 Z -1.0000 I -2.0312 J 0.8351
G01 X 22.3193 Y 33.7782 Z -1.0000
G02 X 22.1515 Y 33.6829 Z -1.0000 I -1.1299 J 1.7946
G02 X 21.9856 Y 33.6083 Z -1.0000 I -0.8551 J 1.6797
G02 X 21.8192 Y 33.5565 Z -1.0000 I -0.5678 J 1.5330
G02 X 21.5305 Y 33.4930 Z -1.0000 I -1.1571 J 4.5676
G01 X 21.1421 Y 33.4201 Z -1.0000
G03 X 20.6074 Y 33.2923 Z -1.0000 I 0.8184 J -4.6037
G03 X 20.3594 Y 33.1835 Z -1.0000 I 0.3284 J -1.0862
G03 X 20.0696 Y 32.8836 Z -1.0000 I 0.3993 J -0.6757
G03 X 19.9589 Y 32.4493 Z -1.0000 I 0.7963 J -0.4344
G03 X 20.0353 Y 32.0436 Z -1.0000 I 1.1153 J 0.0000
G03 X 20.2077 Y 31.8121 Z -1.0000 I 0.5078 J 0.1983
G01 X 20.2077 Y 31.8121 Z -1.0000
G00 Z 5.0000

(End cutting path id: text34909)


(Start cutting path id: text34909)
(Change tool to Default tool)

G00 Z 5.0000
G00 X 28.6846 Y 39.5609

G01 Z -1.0000 F 100.0000(Penetrate)
G01 X 28.6846 Y 38.1531 Z -1.0000 F 3500.0000
G03 X 28.5385 Y 38.1658 Z -1.0000 I -0.2424 J -1.9393
G03 X 28.1930 Y 38.1774 Z -1.0000 I -0.5362 J -10.8571
G03 X 27.8784 Y 38.1339 Z -1.0000 I -0.0329 J -0.9222
G03 X 27.7198 Y 38.0257 Z -1.0000 I 0.1031 J -0.3215
G03 X 27.6244 Y 37.8566 Z -1.0000 I 0.4569 J -0.3691
G03 X 27.5923 Y 37.6738 Z -1.0000 I 0.5050 J -0.1828
G01 X 27.5923 Y 37.1155 Z -1.0000
G01 X 28.7270 Y 37.1155 Z -1.0000
G01 X 28.7270 Y 35.8959 Z -1.0000
G01 X 27.5923 Y 35.8959 Z -1.0000
G01 X 27.5923 Y 30.5622 Z -1.0000
G01 X 25.8690 Y 30.5622 Z -1.0000
G01 X 25.8690 Y 35.8959 Z -1.0000
G01 X 24.9042 Y 35.8959 Z -1.0000
G01 X 24.9042 Y 37.1155 Z -1.0000
G01 X 25.8508 Y 37.1155 Z -1.0000
G01 X 25.8508 Y 37.5403 Z -1.0000
G02 X 25.9733 Y 38.5554 Z -1.0000 I 4.2690 J -0.0000
G02 X 26.2088 Y 39.0026 Z -1.0000 I 1.0134 J -0.2481
G02 X 26.7013 Y 39.3862 Z -1.0000 I 0.7799 J -0.4934
G02 X 28.0231 Y 39.5973 Z -1.0000 I 1.3219 J -4.0330
G02 X 28.1868 Y 39.5939 Z -1.0000 I 0.0000 J -4.0136
G02 X 28.3205 Y 39.5852 Z -1.0000 I -0.1095 J -2.6839
G02 X 28.4539 Y 39.5777 Z -1.0000 I -0.2870 J -6.3128
G02 X 28.6846 Y 39.5609 Z -1.0000 I -1.2594 J -18.8915
G01 X 28.6846 Y 39.5609 Z -1.0000
G00 Z 5.0000

(End cutting path id: text34909)


(Start cutting path id: text34909)
(Change tool to Default tool)

G00 Z 5.0000
G00 X 32.8229 Y 39.5609

G01 Z -1.0000 F 100.0000(Penetrate)
G01 X 32.8229 Y 38.1531 Z -1.0000 F 3500.0000
G03 X 32.6769 Y 38.1658 Z -1.0000 I -0.2424 J -1.9393
G03 X 32.3314 Y 38.1774 Z -1.0000 I -0.5362 J -10.8571
G03 X 32.0168 Y 38.1339 Z -1.0000 I -0.0329 J -0.9222
G03 X 31.8581 Y 38.0257 Z -1.0000 I 0.1031 J -0.3215
G03 X 31.7627 Y 37.8566 Z -1.0000 I 0.4569 J -0.3691
G03 X 31.7306 Y 37.6738 Z -1.0000 I 0.5050 J -0.1828
G01 X 31.7306 Y 37.1155 Z -1.0000
G01 X 32.8653 Y 37.1155 Z -1.0000
G01 X 32.8653 Y 35.8959 Z -1.0000
G01 X 31.7306 Y 35.8959 Z -1.0000
G01 X 31.7306 Y 30.5622 Z -1.0000
G01 X 30.0074 Y 30.5622 Z -1.0000
G01 X 30.0074 Y 35.8959 Z -1.0000
G01 X 29.0426 Y 35.8959 Z -1.0000
G01 X 29.0426 Y 37.1155 Z -1.0000
G01 X 29.9892 Y 37.1155 Z -1.0000
G01 X 29.9892 Y 37.5403 Z -1.0000
G02 X 30.1116 Y 38.5554 Z -1.0000 I 4.2690 J -0.0000
G02 X 30.3472 Y 39.0026 Z -1.0000 I 1.0134 J -0.2481
G02 X 30.8396 Y 39.3862 Z -1.0000 I 0.7799 J -0.4934
G02 X 32.1615 Y 39.5973 Z -1.0000 I 1.3219 J -4.0330
G02 X 32.3252 Y 39.5939 Z -1.0000 I 0.0000 J -4.0136
G02 X 32.4588 Y 39.5852 Z -1.0000 I -0.1095 J -2.6839
G02 X 32.5922 Y 39.5777 Z -1.0000 I -0.2870 J -6.3128
G02 X 32.8229 Y 39.5609 Z -1.0000 I -1.2594 J -18.8915
G01 X 32.8229 Y 39.5609 Z -1.0000
G00 Z 5.0000

(End cutting path id: text34909)


(Start cutting path id: text34909)
(Change tool to Default tool)

G00 Z 5.0000
G00 X 37.8107 Y 34.5306

G01 Z -1.0000 F 100.0000(Penetrate)
G03 X 37.6663 Y 35.1682 Z -1.0000 I -2.0375 J -0.1262 F 3500.0000
G03 X 37.3920 Y 35.5682 Z -1.0000 I -1.0416 J -0.4203
G03 X 36.9830 Y 35.8301 Z -1.0000 I -0.8530 J -0.8819
G03 X 36.4697 Y 35.9262 Z -1.0000 I -0.5133 J -1.3224
G03 X 35.9171 Y 35.8191 Z -1.0000 I -0.0000 J -1.4796
G03 X 35.5352 Y 35.5500 Z -1.0000 I 0.3807 J -0.9456
G03 X 35.2833 Y 35.1396 Z -1.0000 I 1.0990 J -0.9572
G03 X 35.1226 Y 34.5306 Z -1.0000 I 2.3112 J -0.9355
G01 X 37.8107 Y 34.5306 Z -1.0000
G00 Z 5.0000

(End cutting path id: text34909)


(Start cutting path id: text34909)
(Change tool to Default tool)

G00 Z 5.0000
G00 X 39.5219 Y 32.5039

G01 Z -1.0000 F 100.0000(Penetrate)
G02 X 39.3574 Y 31.9593 Z -1.0000 I -1.5752 J 0.1786 F 3500.0000
G02 X 38.9090 Y 31.3085 Z -1.0000 I -2.7222 J 1.3956
G02 X 37.9356 Y 30.6179 Z -1.0000 I -1.9499 J 1.7169
G02 X 36.5304 Y 30.3437 Z -1.0000 I -1.4052 J 3.4645
G02 X 35.3448 Y 30.5534 Z -1.0000 I -0.0000 J 3.4567
G02 X 34.3034 Y 31.1568 Z -1.0000 I 1.1848 J 3.2449
G02 X 33.6378 Y 32.1090 Z -1.0000 I 1.4539 J 1.7252
G02 X 33.3386 Y 33.8024 Z -1.0000 I 4.6436 J 1.6934
G02 X 33.5977 Y 35.4164 Z -1.0000 I 5.1576 J 0.0000
G02 X 34.2064 Y 36.4359 Z -1.0000 I 2.5843 J -0.8515
G02 X 35.1871 Y 37.1024 Z -1.0000 I 2.0369 J -1.9425
G02 X 36.4697 Y 37.3522 Z -1.0000 I 1.2826 J -3.1683
G02 X 37.2765 Y 37.2691 Z -1.0000 I -0.0000 J -3.9587
G02 X 37.9563 Y 37.0427 Z -1.0000 I -0.6298 J -3.0255
G02 X 38.5472 Y 36.6524 Z -1.0000 I -1.0310 J -2.2036
G02 X 39.0486 Y 36.0658 Z -1.0000 I -1.9263 J -2.1536
G02 X 39.3610 Y 35.4481 Z -1.0000 I -2.5193 J -1.6622
G02 X 39.5522 Y 34.7005 Z -1.0000 I -3.5202 J -1.2986
G02 X 39.5951 Y 34.2438 Z -1.0000 I -4.3659 J -0.6404
G02 X 39.6068 Y 33.3898 Z -1.0000 I -15.2867 J -0.6369
G01 X 35.0801 Y 33.3898 Z -1.0000
G03 X 35.2896 Y 32.4903 Z -1.0000 I 2.4154 J 0.0884
G03 X 35.7051 Y 31.9942 Z -1.0000 I 1.0831 J 0.4851
G03 X 36.0845 Y 31.8136 Z -1.0000 I 0.7383 J 1.0624
G03 X 36.5668 Y 31.7454 Z -1.0000 I 0.4823 J 1.6703
G03 X 37.0679 Y 31.8305 Z -1.0000 I -0.0000 J 1.5182
G03 X 37.4345 Y 32.0488 Z -1.0000 I -0.3532 J 1.0101
G03 X 37.5947 Y 32.2290 Z -1.0000 I -0.7254 J 0.8060
G03 X 37.7561 Y 32.5039 Z -1.0000 I -1.5483 J 1.0942
G01 X 39.5219 Y 32.5039 Z -1.0000
G00 Z 5.0000

(End cutting path id: text34909)



(Footer)
M5
G00 X0.0000 Y0.0000
M2
(Using default footer. To add your own footer create file "footer" in the output dir.)
(end)
%