%
(Header)
(Generated by gcodetools from Inkscape.)
(Using default header. To add your own header create file "header" in the output dir.)
M3
(Header end.)
G21 (All units in mm)

(Start cutting path id: path1967)
(Change tool to Default tool)

G00 Z2.000000
G00 X7.054749 Y21.987137

G01 Z-1.000000 F100.0(Penetrate)
G01 X7.054749 Y20.937171 Z-1.000000 F3500.000000
G01 X4.084845 Y20.937171 Z-1.000000
G01 X4.084845 Y13.173424 Z-1.000000
G01 X2.872885 Y13.173424 Z-1.000000
G01 X2.872885 Y20.937171 Z-1.000000
G01 X-0.097018 Y20.937171 Z-1.000000
G01 X-0.097018 Y21.987137 Z-1.000000
G01 X7.054749 Y21.987137 Z-1.000000
G00 Z2.000000

(End cutting path id: path1967)


(Start cutting path id: path1967)
(Change tool to Default tool)

G00 Z2.000000
G00 X7.582731 Y19.599215

G01 Z-1.000000 F100.0(Penetrate)
G01 X8.608698 Y19.599215 Z-1.000000 F3500.000000
G01 X8.608698 Y18.489251 Z-1.000000
G02 X8.777215 Y18.784531 Z-1.000000 I1.076523 J-0.418648
G02 X9.226678 Y19.275225 Z-1.000000 I3.478397 J-2.734924
G02 X9.765789 Y19.625287 Z-1.000000 I1.207447 J-1.269367
G02 X10.360641 Y19.743210 Z-1.000000 I0.594852 J-1.441371
G02 X10.390604 Y19.742329 Z-1.000000 I-0.000000 J-0.510238
G02 X10.462637 Y19.737210 Z-1.000000 I-0.173893 J-2.956058
G02 X10.534590 Y19.730702 Z-1.000000 I-0.425061 J-5.100727
G02 X10.708629 Y19.713210 Z-1.000000 I-2.913381 J-29.861183
G01 X10.708629 Y18.573247 Z-1.000000
G03 X10.612299 Y18.588689 Z-1.000000 I-0.340606 J-1.816563
G03 X10.528635 Y18.597247 Z-1.000000 I-0.181524 J-1.361384
G03 X10.450571 Y18.601593 Z-1.000000 I-0.141766 J-1.842955
G03 X10.354641 Y18.603247 Z-1.000000 I-0.095930 J-2.781888
G03 X9.609364 Y18.452745 Z-1.000000 I-0.000000 J-1.920533
G03 X9.100682 Y18.075264 Z-1.000000 I0.517295 J-1.228576
G03 X8.775810 Y17.512111 Z-1.000000 I1.431280 J-1.200959
G03 X8.662696 Y16.869304 Z-1.000000 I1.769921 J-0.642807
G01 X8.662696 Y13.173424 Z-1.000000
G01 X7.582731 Y13.173424 Z-1.000000
G01 X7.582731 Y19.599215 Z-1.000000
G00 Z2.000000

(End cutting path id: path1967)


(Start cutting path id: path1967)
(Change tool to Default tool)

G00 Z2.000000
G00 X12.724564 Y19.599215

G01 Z-1.000000 F100.0(Penetrate)
G01 X12.724564 Y15.333354 Z-1.000000 F3500.000000
G03 X12.770803 Y14.852286 Z-1.000000 I2.525607 J0.000000
G03 X12.880558 Y14.529380 Z-1.000000 I1.234712 J0.239570
G03 X13.274185 Y14.124321 Z-1.000000 I0.834694 J0.417347
G03 X13.954523 Y13.953399 Z-1.000000 I0.680338 J1.268548
G03 X14.893380 Y14.233953 Z-1.000000 I-0.000000 J1.711193
G03 X15.490473 Y14.961366 Z-1.000000 I-0.865998 J1.319616
G03 X15.643322 Y15.515006 Z-1.000000 I-2.206298 J0.907035
G03 X15.712466 Y16.443317 Z-1.000000 I-6.197092 J0.928311
G01 X15.712466 Y19.599215 Z-1.000000
G01 X16.792431 Y19.599215 Z-1.000000
G01 X16.792431 Y13.173424 Z-1.000000
G01 X15.772464 Y13.173424 Z-1.000000
G01 X15.784464 Y14.121393 Z-1.000000
G02 X15.545408 Y13.780191 Z-1.000000 I-2.004958 J1.150385
G02 X15.262481 Y13.503413 Z-1.000000 I-1.593832 J1.346246
G02 X14.595978 Y13.135706 Z-1.000000 I-1.343628 J1.647546
G02 X13.762530 Y12.999430 Z-1.000000 I-0.833448 J2.480501
G02 X12.555272 Y13.279508 Z-1.000000 I0.000000 J2.741937
G02 X11.890591 Y13.917400 Z-1.000000 I0.667100 J1.360360
G02 X11.702053 Y14.430265 Z-1.000000 I1.606771 J0.881764
G02 X11.620600 Y15.231357 Z-1.000000 I3.898650 J0.801092
G01 X11.620600 Y19.599215 Z-1.000000
G01 X12.724564 Y19.599215 Z-1.000000
G00 Z2.000000

(End cutting path id: path1967)


(Start cutting path id: path1967)
(Change tool to Default tool)

G00 Z2.000000
G00 X14.206515 Y19.755210

G01 Z-1.000000 F100.0(Penetrate)
G01 X14.206515 Y19.755210 Z-1.000000 F3500.000000
G00 Z2.000000

(End cutting path id: path1967)


(Start cutting path id: path1967)
(Change tool to Default tool)

G00 Z2.000000
G00 X18.694370 Y21.393156

G01 Z-1.000000 F100.0(Penetrate)
G01 X19.786334 Y21.393156 Z-1.000000 F3500.000000
G01 X19.786334 Y19.599215 Z-1.000000
G01 X20.812301 Y19.599215 Z-1.000000
G01 X20.812301 Y18.717243 Z-1.000000
G01 X19.786334 Y18.717243 Z-1.000000
G01 X19.786334 Y14.523380 Z-1.000000
G03 X19.856269 Y14.230614 Z-1.000000 I0.647762 J0.000000
G03 X20.014327 Y14.073395 Z-1.000000 I0.316964 J0.160595
G03 X20.145866 Y14.029921 Z-1.000000 I0.197672 J0.377362
G03 X20.434313 Y14.007395 Z-1.000000 I0.288447 J1.835512
G01 X20.602308 Y14.007395 Z-1.000000
G03 X20.692237 Y14.014246 Z-1.000000 I-0.316760 J4.751396
G03 X20.812301 Y14.025395 Z-1.000000 I-0.726946 J8.480753
G01 X20.812301 Y13.173423 Z-1.000000
G02 X20.624669 Y13.127510 Z-1.000000 I-0.632621 J2.178957
G02 X20.422314 Y13.095423 Z-1.000000 I-0.500602 J2.502929
G02 X20.223928 Y13.077907 Z-1.000000 I-0.368047 J3.036300
G02 X19.990328 Y13.071423 Z-1.000000 I-0.233600 J4.204672
G02 X19.299308 Y13.196500 Z-1.000000 I-0.000000 J1.971395
G02 X18.964361 Y13.455411 Z-1.000000 I0.251134 J0.670998
G02 X18.772490 Y13.869801 Z-1.000000 I1.097380 J0.759725
G02 X18.694370 Y14.463378 Z-1.000000 I2.216023 J0.593577
G01 X18.694370 Y18.717239 Z-1.000000
G01 X17.824398 Y18.717239 Z-1.000000
G01 X17.824398 Y19.599211 Z-1.000000
G01 X18.694370 Y19.599211 Z-1.000000
G01 X18.694370 Y21.393156 Z-1.000000
G00 Z2.000000

(End cutting path id: path1967)


(Start cutting path id: path1967)
(Change tool to Default tool)

G00 Z2.000000
G00 X21.892264 Y22.017136

G01 Z-1.000000 F100.0(Penetrate)
G01 X22.972229 Y22.017136 Z-1.000000 F3500.000000
G01 X22.972229 Y18.729243 Z-1.000000
G02 X23.381569 Y19.187361 Z-1.000000 I3.983790 J-3.147683
G02 X23.662206 Y19.413221 Z-1.000000 I1.228984 J-1.239763
G02 X24.213133 Y19.658217 Z-1.000000 I1.027046 J-1.567595
G02 X24.964164 Y19.755210 Z-1.000000 I0.751031 J-2.859188
G02 X26.181067 Y19.459846 Z-1.000000 I-0.000000 J-2.654510
G02 X26.860102 Y18.777241 Z-1.000000 I-0.719420 J-1.394702
G02 X27.046251 Y18.223268 Z-1.000000 I-1.817652 J-0.919038
G02 X27.130093 Y17.295290 Z-1.000000 I-5.093569 J-0.927978
G01 X27.130093 Y13.173424 Z-1.000000
G01 X26.020130 Y13.173424 Z-1.000000
G01 X26.020130 Y17.223292 Z-1.000000
G03 X25.960508 Y17.916066 Z-1.000000 I-4.054597 J-0.000000
G03 X25.840135 Y18.261258 Z-1.000000 I-1.104300 J-0.191498
G03 X25.450863 Y18.627129 Z-1.000000 I-0.769057 J-0.428224
G03 X24.736171 Y18.789241 Z-1.000000 I-0.714692 J-1.494356
G03 X24.106470 Y18.673827 Z-1.000000 I-0.000000 J-1.775534
G03 X23.518211 Y18.327256 Z-1.000000 I0.716228 J-1.888237
G03 X23.155335 Y17.780347 Z-1.000000 I0.759848 J-0.898001
G03 X22.972229 Y16.581313 Z-1.000000 I3.834274 J-1.199034
G01 X22.972229 Y13.173424 Z-1.000000
G01 X21.892264 Y13.173424 Z-1.000000
G01 X21.892264 Y22.017136 Z-1.000000
G00 Z2.000000

(End cutting path id: path1967)


(Start cutting path id: path1966)
(Change tool to Default tool)

G00 Z2.000000
G00 X16.696434 Y29.416737

G01 Z-1.000000 F100.0(Penetrate)
G03 X17.621791 Y29.654807 Z-1.000000 I-0.000000 J1.917423 F3500.000000
G03 X18.166387 Y30.226710 Z-1.000000 I-0.632125 J1.147190
G03 X18.461938 Y31.067478 Z-1.000000 I-3.346984 J1.648878
G03 X18.568373 Y32.038651 Z-1.000000 I-4.377536 J0.971173
G03 X18.482700 Y32.918014 Z-1.000000 I-4.555774 J-0.000000
G03 X18.280383 Y33.502604 Z-1.000000 I-2.191350 J-0.431084
G03 X17.670020 Y34.137756 Z-1.000000 I-1.365149 J-0.701022
G03 X16.708434 Y34.390575 Z-1.000000 I-0.961586 J-1.702267
G03 X15.840165 Y34.176508 Z-1.000000 I0.000000 J-1.867912
G03 X15.268481 Y33.634599 Z-1.000000 I0.673677 J-1.283194
G03 X14.944090 Y32.844073 Z-1.000000 I2.497814 J-1.486793
G03 X14.818496 Y31.810659 Z-1.000000 I4.188778 J-1.033415
G03 X14.946281 Y30.822957 Z-1.000000 I3.881053 J0.000000
G03 X15.268481 Y30.100714 Z-1.000000 I2.366683 J0.622811
G03 X15.825157 Y29.614638 Z-1.000000 I1.152770 J0.758401
G03 X16.696434 Y29.416737 Z-1.000000 I0.871277 J1.818982
G01 X16.696434 Y29.416737 Z-1.000000
G00 Z2.000000

(End cutting path id: path1966)


(Start cutting path id: path1966)
(Change tool to Default tool)

G00 Z2.000000
G00 X16.702434 Y35.302545

G01 Z-1.000000 F100.0(Penetrate)
G01 X16.702434 Y35.302545 Z-1.000000 F3500.000000
G00 Z2.000000

(End cutting path id: path1966)


(Start cutting path id: path1966)
(Change tool to Default tool)

G00 Z2.000000
G00 X16.738434 Y35.332544

G01 Z-1.000000 F100.0(Penetrate)
G02 X17.891882 Y35.113361 Z-1.000000 I-0.000000 J-3.144594 F3500.000000
G02 X18.838366 Y34.504571 Z-1.000000 I-1.059711 J-2.687674
G02 X19.440049 Y33.567758 Z-1.000000 I-1.679400 J-1.740248
G02 X19.696338 Y32.068650 Z-1.000000 I-4.256209 J-1.499108
G02 X19.482576 Y30.585617 Z-1.000000 I-5.251363 J0.000000
G02 X18.940362 Y29.500734 Z-1.000000 I-3.300613 J0.971677
G02 X18.034870 Y28.784741 Z-1.000000 I-1.792643 J1.336526
G02 X16.594439 Y28.486767 Z-1.000000 I-1.440431 J3.332593
G02 X15.380749 Y28.733709 Z-1.000000 I0.000000 J3.106038
G02 X14.488507 Y29.380738 Z-1.000000 I0.961081 J2.264022
G02 X13.933682 Y30.364697 Z-1.000000 I2.141387 J1.855867
G02 X13.708533 Y31.792659 Z-1.000000 I4.415703 J1.427963
G02 X13.946674 Y33.324582 Z-1.000000 I5.046367 J-0.000000
G02 X14.530506 Y34.372575 Z-1.000000 I2.879034 J-0.917273
G02 X15.473560 Y35.069466 Z-1.000000 I1.985049 J-1.699698
G02 X16.738434 Y35.332544 Z-1.000000 I1.264874 J-2.909211
G01 X16.738434 Y35.332544 Z-1.000000
G00 Z2.000000

(End cutting path id: path1966)


(Start cutting path id: path1966)
(Change tool to Default tool)

G00 Z2.000000
G00 X22.060261 Y35.146550

G01 Z-1.000000 F100.0(Penetrate)
G01 X22.060261 Y30.880689 Z-1.000000 F3500.000000
G03 X22.106501 Y30.399621 Z-1.000000 I2.525590 J-0.000000
G03 X22.216256 Y30.076715 Z-1.000000 I1.234705 J0.239570
G03 X22.609882 Y29.671656 Z-1.000000 I0.834692 J0.417345
G03 X23.290221 Y29.500734 Z-1.000000 I0.680339 J1.268549
G03 X24.229077 Y29.781287 Z-1.000000 I0.000000 J1.711192
G03 X24.826171 Y30.508701 Z-1.000000 I-0.866000 J1.319618
G03 X24.979020 Y31.062342 Z-1.000000 I-2.206311 J0.907036
G03 X25.048163 Y31.990653 Z-1.000000 I-6.197125 J0.928311
G01 X25.048163 Y35.146550 Z-1.000000
G01 X26.128128 Y35.146550 Z-1.000000
G01 X26.128128 Y28.720759 Z-1.000000
G01 X25.108161 Y28.720759 Z-1.000000
G01 X25.120161 Y29.668728 Z-1.000000
G02 X24.881105 Y29.327526 Z-1.000000 I-2.004949 J1.150380
G02 X24.598178 Y29.050749 Z-1.000000 I-1.593818 J1.346237
G02 X23.931674 Y28.683041 Z-1.000000 I-1.343629 J1.647544
G02 X23.098227 Y28.546765 Z-1.000000 I-0.833447 J2.480496
G02 X21.890970 Y28.826843 Z-1.000000 I-0.000000 J2.741936
G02 X21.226288 Y29.464735 Z-1.000000 I0.667101 J1.360363
G02 X21.037750 Y29.977600 Z-1.000000 I1.606771 J0.881764
G02 X20.956297 Y30.778692 Z-1.000000 I3.898652 J0.801092
G01 X20.956297 Y35.146550 Z-1.000000
G01 X22.060261 Y35.146550 Z-1.000000
G00 Z2.000000

(End cutting path id: path1966)


(Start cutting path id: path1966)
(Change tool to Default tool)

G00 Z2.000000
G00 X23.542212 Y35.302545

G01 Z-1.000000 F100.0(Penetrate)
G01 X23.542212 Y35.302545 Z-1.000000 F3500.000000
G00 Z2.000000

(End cutting path id: path1966)


(Start cutting path id: path1966)
(Change tool to Default tool)

G00 Z2.000000
G00 X27.814072 Y35.146550

G01 Z-1.000000 F100.0(Penetrate)
G01 X28.840039 Y35.146550 Z-1.000000 F3500.000000
G01 X28.840039 Y34.234580 Z-1.000000
G02 X29.339786 Y34.743342 Z-1.000000 I2.876359 J-2.325567
G02 X29.806007 Y35.044553 Z-1.000000 I1.439699 J-1.716973
G02 X30.330917 Y35.225243 Z-1.000000 I1.025158 J-2.125329
G02 X30.939971 Y35.290545 Z-1.000000 I0.609054 J-2.807591
G02 X32.129815 Y35.001545 Z-1.000000 I-0.000000 J-2.593855
G02 X32.787910 Y34.336576 Z-1.000000 I-0.694638 J-1.345588
G02 X32.968431 Y33.794686 Z-1.000000 I-1.743823 J-0.881936
G02 X33.051902 Y32.842625 Z-1.000000 I-5.387788 J-0.952061
G01 X33.051902 Y28.720759 Z-1.000000
G01 X31.953937 Y28.720759 Z-1.000000
G01 X31.953937 Y32.770627 Z-1.000000
G03 X31.901516 Y33.346604 Z-1.000000 I-3.190508 J-0.000000
G03 X31.779943 Y33.718597 Z-1.000000 I-1.436855 J-0.263726
G03 X31.383253 Y34.145827 Z-1.000000 I-0.886882 J-0.425702
G03 X30.735977 Y34.318577 Z-1.000000 I-0.647276 J-1.126259
G03 X30.355620 Y34.295120 Z-1.000000 I-0.000000 J-3.095550
G03 X30.105998 Y34.240579 Z-1.000000 I0.170993 J-1.381086
G03 X29.700956 Y34.048892 Z-1.000000 I0.418818 J-1.408754
G03 X29.326023 Y33.712596 Z-1.000000 I1.040764 J-1.537493
G03 X29.095578 Y33.374399 Z-1.000000 I1.476844 J-1.253924
G03 X28.972035 Y33.052618 Z-1.000000 I1.211095 J-0.649586
G03 X28.919312 Y32.713733 Z-1.000000 I2.266421 J-0.526151
G03 X28.894035 Y32.086649 Z-1.000000 I7.765941 J-0.627084
G01 X28.894035 Y28.720759 Z-1.000000
G01 X27.814072 Y28.720759 Z-1.000000
G01 X27.814072 Y35.146550 Z-1.000000
G00 Z2.000000

(End cutting path id: path1966)


(Start cutting path id: path1966)
(Change tool to Default tool)

G00 Z2.000000
G00 X30.351990 Y35.302545

G01 Z-1.000000 F100.0(Penetrate)
G01 X30.351990 Y35.302545 Z-1.000000 F3500.000000
G00 Z2.000000

(End cutting path id: path1966)


(Start cutting path id: path1966)
(Change tool to Default tool)

G00 Z2.000000
G00 X35.331827 Y31.858657

G01 Z-1.000000 F100.0(Penetrate)
G03 X35.456106 Y30.862541 Z-1.000000 I4.054166 J0.000000 F3500.000000
G03 X35.769812 Y30.130713 Z-1.000000 I2.472469 J0.626701
G03 X36.318447 Y29.635104 Z-1.000000 I1.154479 J0.726526
G03 X37.173767 Y29.434736 Z-1.000000 I0.855320 J1.725388
G03 X37.841678 Y29.598558 Z-1.000000 I-0.000000 J1.443463
G03 X38.403726 Y30.076715 Z-1.000000 I-0.769014 J1.473343
G03 X38.740677 Y30.774372 Z-1.000000 I-1.611069 J1.208304
G03 X38.889711 Y31.930655 Z-1.000000 I-4.410996 J1.156283
G03 X38.732232 Y33.090436 Z-1.000000 I-4.349457 J0.000000
G03 X38.391727 Y33.730596 Z-1.000000 I-1.608833 J-0.445111
G03 X37.824131 Y34.168395 Z-1.000000 I-1.305423 J-1.105614
G03 X37.161767 Y34.318577 Z-1.000000 I-0.662364 J-1.385556
G03 X36.423998 Y34.153659 Z-1.000000 I0.000000 J-1.732677
G03 X35.835810 Y33.694597 Z-1.000000 I0.718665 J-1.527164
G03 X35.487728 Y33.015521 Z-1.000000 I1.452840 J-1.173446
G03 X35.331827 Y31.858657 Z-1.000000 I4.214295 J-1.156864
G01 X35.331827 Y31.858657 Z-1.000000
G00 Z2.000000

(End cutting path id: path1966)


(Start cutting path id: path1966)
(Change tool to Default tool)

G00 Z2.000000
G00 X36.957774 Y35.260546

G01 Z-1.000000 F100.0(Penetrate)
G02 X37.670304 Y35.172004 Z-1.000000 I-0.000000 J-2.911257 F3500.000000
G02 X38.193733 Y34.948556 Z-1.000000 I-0.447673 J-1.773472
G02 X38.458334 Y34.742071 Z-1.000000 I-0.856312 J-1.370101
G02 X38.847712 Y34.318577 Z-1.000000 I-3.293196 J-3.418653
G01 X38.847712 Y37.564471 Z-1.000000
G01 X39.885678 Y37.564471 Z-1.000000
G01 X39.885678 Y28.720759 Z-1.000000
G01 X38.913710 Y28.720759 Z-1.000000
G01 X38.913710 Y29.614730 Z-1.000000
G02 X38.478562 Y29.083541 Z-1.000000 I-2.427542 J1.544802
G02 X38.019739 Y28.756758 Z-1.000000 I-1.340780 J1.397036
G02 X37.486511 Y28.564333 Z-1.000000 I-1.022635 J1.998788
G02 X36.837777 Y28.492767 Z-1.000000 I-0.648734 J2.904567
G02 X35.865110 Y28.715725 Z-1.000000 I-0.000000 J2.233137
G02 X34.977838 Y29.392737 Z-1.000000 I1.216672 J2.514458
G02 X34.417262 Y30.382854 Z-1.000000 I2.169203 J1.881889
G02 X34.191864 Y31.798659 Z-1.000000 I4.333880 J1.415805
G02 X34.385131 Y33.141983 Z-1.000000 I4.765090 J0.000000
G02 X34.905840 Y34.228580 Z-1.000000 I3.603673 J-1.058856
G02 X35.772535 Y34.979287 Z-1.000000 I1.916809 J-1.337309
G02 X36.957774 Y35.260546 Z-1.000000 I1.185239 J-2.356696
G01 X36.957774 Y35.260546 Z-1.000000
G00 Z2.000000

(End cutting path id: path1966)


(Start cutting path id: path1966)
(Change tool to Default tool)

G00 Z2.000000
G00 X10.084650 Y35.146550

G01 Z-1.000000 F100.0(Penetrate)
G01 X11.110617 Y35.146550 Z-1.000000 F3500.000000
G01 X11.110617 Y34.036586 Z-1.000000
G02 X11.279134 Y34.331867 Z-1.000000 I1.076527 J-0.418650
G02 X11.728596 Y34.822561 Z-1.000000 I3.478396 J-2.734918
G02 X12.267708 Y35.172622 Z-1.000000 I1.207447 J-1.269367
G02 X12.862560 Y35.290545 Z-1.000000 I0.594852 J-1.441374
G02 X12.892523 Y35.289665 Z-1.000000 I0.000000 J-0.510238
G02 X12.964556 Y35.284545 Z-1.000000 I-0.173893 J-2.956058
G02 X13.036509 Y35.278038 Z-1.000000 I-0.425182 J-5.102183
G02 X13.210548 Y35.260546 Z-1.000000 I-2.914089 J-29.869681
G01 X13.210548 Y34.120583 Z-1.000000
G03 X13.114218 Y34.136025 Z-1.000000 I-0.340616 J-1.816722
G03 X13.030554 Y34.144582 Z-1.000000 I-0.181533 J-1.361507
G03 X12.952490 Y34.148929 Z-1.000000 I-0.141766 J-1.842955
G03 X12.856560 Y34.150582 Z-1.000000 I-0.095930 J-2.781888
G03 X12.111283 Y34.000080 Z-1.000000 I-0.000000 J-1.920535
G03 X11.602601 Y33.622600 Z-1.000000 I0.517294 J-1.228573
G03 X11.277729 Y33.059447 Z-1.000000 I1.431278 J-1.200959
G03 X11.164615 Y32.416639 Z-1.000000 I1.769923 J-0.642808
G01 X11.164615 Y28.720759 Z-1.000000
G01 X10.084650 Y28.720759 Z-1.000000
G01 X10.084650 Y35.146550 Z-1.000000
G00 Z2.000000

(End cutting path id: path1966)


(Start cutting path id: path1966)
(Change tool to Default tool)

G00 Z2.000000
G00 X4.450833 Y37.762465

G01 Z-1.000000 F100.0(Penetrate)
G02 X5.659634 Y37.629048 Z-1.000000 I-0.000000 J-5.542799 F3500.000000
G02 X6.598764 Y37.282480 Z-1.000000 I-0.819005 J-3.665047
G02 X7.608720 Y36.371831 Z-1.000000 I-1.276719 J-2.431316
G02 X8.206711 Y34.864559 Z-1.000000 I-3.251363 J-2.162197
G01 X7.024750 Y34.864559 Z-1.000000
G03 X6.665248 Y35.730524 Z-1.000000 I-2.650078 J-0.592564
G03 X6.130779 Y36.268513 Z-1.000000 I-1.498385 J-0.954100
G03 X5.414931 Y36.585546 Z-1.000000 I-1.322541 J-2.019555
G03 X4.420834 Y36.712499 Z-1.000000 I-0.994096 J-3.828614
G03 X3.301558 Y36.474815 Z-1.000000 I-0.000000 J-2.754227
G03 X2.356902 Y35.794529 Z-1.000000 I1.158508 J-2.604750
G03 X1.779100 Y34.777569 Z-1.000000 I1.976384 J-1.795538
G03 X1.522929 Y33.058618 Z-1.000000 I5.639150 J-1.718951
G03 X1.722605 Y31.549388 Z-1.000000 I5.803512 J0.000000
G03 X2.212906 Y30.496702 Z-1.000000 I3.260647 J0.878160
G03 X3.055906 Y29.806930 Z-1.000000 I1.650951 J1.157679
G03 X4.462833 Y29.512734 Z-1.000000 I1.406927 J3.217061
G03 X5.584659 Y29.703149 Z-1.000000 I0.000000 J3.399815
G03 X6.436769 Y30.202711 Z-1.000000 I-0.845346 J2.418426
G03 X6.982286 Y31.008630 Z-1.000000 I-1.298759 J1.466702
G03 X7.240742 Y32.446638 Z-1.000000 I-4.156840 J1.489349
G01 X4.480832 Y32.446638 Z-1.000000
G01 X4.480832 Y33.436606 Z-1.000000
G01 X8.350706 Y33.436606 Z-1.000000
G01 X8.350706 Y28.720759 Z-1.000000
G01 X7.582731 Y28.720759 Z-1.000000
G01 X7.294741 Y29.854722 Z-1.000000
G02 X6.654551 Y29.232086 Z-1.000000 I-5.414421 J4.926638
G02 X6.220776 Y28.930753 Z-1.000000 I-1.669968 J1.941069
G02 X5.400804 Y28.616075 Z-1.000000 I-1.467014 J2.597009
G02 X4.222841 Y28.486767 Z-1.000000 I-1.177963 J5.300828
G02 X2.759016 Y28.753131 Z-1.000000 I0.000000 J4.155462
G02 X1.528929 Y29.500734 Z-1.000000 I1.370119 J3.640140
G02 X0.653962 Y30.916257 Z-1.000000 I2.803941 J2.711358
G02 X0.298969 Y32.992620 Z-1.000000 I5.894845 J2.076363
G02 X0.643554 Y35.072428 Z-1.000000 I6.448820 J0.000000
G02 X1.498930 Y36.514505 Z-1.000000 I3.861220 J-1.315578
G02 X2.787553 Y37.425322 Z-1.000000 I2.726664 J-2.490703
G02 X4.450833 Y37.762465 Z-1.000000 I1.663280 J-3.934298
G01 X4.450833 Y37.762465 Z-1.000000
G00 Z2.000000

(End cutting path id: path1966)


(Start cutting path id: path1966)
(Change tool to Default tool)

G00 Z2.000000
G00 X4.252840 Y37.774465

G01 Z-1.000000 F100.0(Penetrate)
G01 X4.252840 Y37.774465 Z-1.000000 F3500.000000
G00 Z2.000000

(End cutting path id: path1966)


(Footer)
M5
G00 X0.0000 Y0.0000
M2
(Using default footer. To add your own footer create file "footer" in the output dir.)
(end)
%