%
(Header)
(Generated by gcodetools from Inkscape.)
(Using default header. To add your own header create file "header" in the output dir.)
M3
(Header end.)
G21 (All units in mm)

(Start cutting path id: path3)
(Change tool to Default tool)

G00 Z2.000000
G00 X25.448959 Y48.061331

G01 Z-1.000000 F100.0(Penetrate)
G01 X25.448959 Y46.054163 Z-1.000000 F400.000000
G01 X19.771541 Y46.054163 Z-1.000000
G01 X19.771541 Y31.212590 Z-1.000000
G01 X17.454696 Y31.212590 Z-1.000000
G01 X17.454696 Y46.054163 Z-1.000000
G01 X11.777278 Y46.054163 Z-1.000000
G01 X11.777278 Y48.061331 Z-1.000000
G01 X25.448959 Y48.061331 Z-1.000000
G00 Z2.000000

(End cutting path id: path3)


(Start cutting path id: path3)
(Change tool to Default tool)

G00 Z2.000000
G00 X26.458278 Y43.496457

G01 Z-1.000000 F100.0(Penetrate)
G01 X28.419568 Y43.496457 Z-1.000000 F400.000000
G01 X28.419568 Y41.374594 Z-1.000000
G02 X28.741714 Y41.939067 Z-1.000000 I2.057935 J-0.800307
G02 X29.600930 Y42.877103 Z-1.000000 I6.649461 J-5.228202
G02 X30.631523 Y43.546298 Z-1.000000 I2.308216 J-2.426586
G02 X31.768671 Y43.771726 Z-1.000000 I1.137148 J-2.755399
G02 X31.825951 Y43.770043 Z-1.000000 I-0.000000 J-0.975403
G02 X31.963653 Y43.760256 Z-1.000000 I-0.332423 J-5.650959
G02 X32.101196 Y43.747816 Z-1.000000 I-0.812738 J-9.752432
G02 X32.433904 Y43.714376 Z-1.000000 I-5.570897 J-57.099388
G01 X32.433904 Y41.535166 Z-1.000000
G03 X32.249760 Y41.564686 Z-1.000000 I-0.651051 J-3.472139
G03 X32.089818 Y41.581046 Z-1.000000 I-0.347009 J-2.602459
G03 X31.940593 Y41.589355 Z-1.000000 I-0.270990 J-3.522730
G03 X31.757201 Y41.592516 Z-1.000000 I-0.183392 J-5.318148
G03 X30.332493 Y41.304809 Z-1.000000 I0.000000 J-3.671388
G03 X29.360069 Y40.583197 Z-1.000000 I0.988889 J-2.348610
G03 X28.739029 Y39.506646 Z-1.000000 I2.736107 J-2.295812
G03 X28.522794 Y38.277822 Z-1.000000 I3.383477 J-1.228824
G01 X28.522794 Y31.212591 Z-1.000000
G01 X26.458278 Y31.212591 Z-1.000000
G01 X26.458278 Y43.496457 Z-1.000000
G00 Z2.000000

(End cutting path id: path3)


(Start cutting path id: path3)
(Change tool to Default tool)

G00 Z2.000000
G00 X36.287666 Y43.496457

G01 Z-1.000000 F100.0(Penetrate)
G01 X36.287666 Y35.341621 Z-1.000000 F400.000000
G03 X36.376060 Y34.421986 Z-1.000000 I4.828048 J-0.000000
G03 X36.585874 Y33.804704 Z-1.000000 I2.360320 J0.457973
G03 X37.338350 Y33.030373 Z-1.000000 I1.595641 J0.797820
G03 X38.638920 Y32.703629 Z-1.000000 I1.300570 J2.425021
G03 X40.433686 Y33.239949 Z-1.000000 I0.000000 J3.271202
G03 X41.575120 Y34.630510 Z-1.000000 I-1.655487 J2.522648
G03 X41.867314 Y35.688878 Z-1.000000 I-4.217691 J1.733936
G03 X41.999492 Y37.463484 Z-1.000000 I-11.846713 J1.774606
G01 X41.999492 Y43.496457 Z-1.000000
G01 X44.064008 Y43.496457 Z-1.000000
G01 X44.064008 Y31.212590 Z-1.000000
G01 X42.114188 Y31.212590 Z-1.000000
G01 X42.137128 Y33.024776 Z-1.000000
G02 X41.680136 Y32.372517 Z-1.000000 I-3.832782 J2.199137
G02 X41.139278 Y31.843414 Z-1.000000 I-3.046841 J2.573546
G02 X39.865157 Y31.140485 Z-1.000000 I-2.568546 J3.149524
G02 X38.271896 Y30.879973 Z-1.000000 I-1.593261 J4.741845
G02 X35.964042 Y31.415385 Z-1.000000 I-0.000000 J5.241623
G02 X34.693402 Y32.634812 Z-1.000000 I1.275264 J2.600538
G02 X34.332983 Y33.615230 Z-1.000000 I3.071578 J1.685624
G02 X34.177273 Y35.146639 Z-1.000000 I7.452853 J1.531409
G01 X34.177273 Y43.496457 Z-1.000000
G01 X36.287666 Y43.496457 Z-1.000000
G00 Z2.000000

(End cutting path id: path3)


(Start cutting path id: path3)
(Change tool to Default tool)

G00 Z2.000000
G00 X39.120640 Y43.794665

G01 Z-1.000000 F100.0(Penetrate)
G01 X39.120640 Y43.794665 Z-1.000000 F400.000000
G00 Z2.000000

(End cutting path id: path3)


(Start cutting path id: path3)
(Change tool to Default tool)

G00 Z2.000000
G00 X47.699849 Y46.925847

G01 Z-1.000000 F100.0(Penetrate)
G01 X49.787303 Y46.925847 Z-1.000000 F400.000000
G01 X49.787303 Y43.496457 Z-1.000000
G01 X51.748593 Y43.496457 Z-1.000000
G01 X51.748593 Y41.810436 Z-1.000000
G01 X49.787303 Y41.810436 Z-1.000000
G01 X49.787303 Y33.793234 Z-1.000000
G03 X49.920995 Y33.233566 Z-1.000000 I1.238300 J-0.000000
G03 X50.223145 Y32.933019 Z-1.000000 I0.605924 J0.307001
G03 X50.474600 Y32.849916 Z-1.000000 I0.377877 J0.721406
G03 X51.026012 Y32.806855 Z-1.000000 I0.551412 J3.509008
G01 X51.347159 Y32.806855 Z-1.000000
G03 X51.519066 Y32.819952 Z-1.000000 I-0.605608 J9.083744
G03 X51.748593 Y32.841265 Z-1.000000 I-1.389954 J16.215480
G01 X51.748593 Y31.212592 Z-1.000000
G02 X51.389906 Y31.124825 Z-1.000000 I-1.209342 J4.165510
G02 X51.003073 Y31.063488 Z-1.000000 I-0.956973 J4.784865
G02 X50.623830 Y31.030003 Z-1.000000 I-0.703574 J5.804239
G02 X50.177267 Y31.017608 Z-1.000000 I-0.446563 J8.037811
G02 X48.856279 Y31.256712 Z-1.000000 I-0.000000 J3.768620
G02 X48.215977 Y31.751658 Z-1.000000 I0.480080 J1.282715
G02 X47.849187 Y32.543827 Z-1.000000 I2.097810 J1.452328
G02 X47.699849 Y33.678539 Z-1.000000 I4.236266 J1.134712
G01 X47.699849 Y41.810436 Z-1.000000
G01 X46.036767 Y41.810436 Z-1.000000
G01 X46.036767 Y43.496457 Z-1.000000
G01 X47.699849 Y43.496457 Z-1.000000
G01 X47.699849 Y46.925847 Z-1.000000
G00 Z2.000000

(End cutting path id: path3)


(Start cutting path id: path3)
(Change tool to Default tool)

G00 Z2.000000
G00 X53.813110 Y48.118678

G01 Z-1.000000 F100.0(Penetrate)
G01 X55.877626 Y48.118678 Z-1.000000 F400.000000
G01 X55.877626 Y41.833375 Z-1.000000
G02 X56.660142 Y42.709136 Z-1.000000 I7.615623 J-6.017283
G02 X57.196622 Y43.140902 Z-1.000000 I2.349385 J-2.369993
G02 X58.249802 Y43.609249 Z-1.000000 I1.963352 J-2.996696
G02 X59.685510 Y43.794665 Z-1.000000 I1.435708 J-5.465768
G02 X62.011805 Y43.230033 Z-1.000000 I0.000000 J-5.074505
G02 X63.309882 Y41.925132 Z-1.000000 I-1.375276 J-2.666179
G02 X63.665734 Y40.866127 Z-1.000000 I-3.474727 J-1.756884
G02 X63.826011 Y39.092157 Z-1.000000 I-9.737126 J-1.773970
G01 X63.826011 Y31.212590 Z-1.000000
G01 X61.704148 Y31.212590 Z-1.000000
G01 X61.704148 Y38.954523 Z-1.000000
G03 X61.590171 Y40.278865 Z-1.000000 I-7.751012 J-0.000000
G03 X61.360062 Y40.938752 Z-1.000000 I-2.111043 J-0.366077
G03 X60.615910 Y41.638170 Z-1.000000 I-1.470169 J-0.818617
G03 X59.249668 Y41.948071 Z-1.000000 I-1.366242 J-2.856686
G03 X58.045900 Y41.727439 Z-1.000000 I0.000000 J-3.394202
G03 X56.921353 Y41.064917 Z-1.000000 I1.369180 J-3.609656
G03 X56.227660 Y40.019418 Z-1.000000 I1.452563 J-1.716665
G03 X55.877626 Y37.727283 Z-1.000000 I7.329796 J-2.292135
G01 X55.877626 Y31.212590 Z-1.000000
G01 X53.813110 Y31.212590 Z-1.000000
G01 X53.813110 Y48.118678 Z-1.000000
G00 Z2.000000

(End cutting path id: path3)


(Start cutting path id: path2)
(Change tool to Default tool)

G00 Z2.000000
G00 X43.880494 Y61.905055

G01 Z-1.000000 F100.0(Penetrate)
G03 X45.649453 Y62.360162 Z-1.000000 I0.000000 J3.665439 F400.000000
G03 X46.690529 Y63.453442 Z-1.000000 I-1.208401 J2.193024
G03 X47.255520 Y65.060697 Z-1.000000 I-6.398250 J3.152081
G03 X47.458988 Y66.917240 Z-1.000000 I-8.368293 J1.856543
G03 X47.295210 Y68.598274 Z-1.000000 I-8.709027 J0.000000
G03 X46.908450 Y69.715806 Z-1.000000 I-4.189087 J-0.824083
G03 X45.741649 Y70.929995 Z-1.000000 I-2.609687 J-1.340110
G03 X43.903433 Y71.413296 Z-1.000000 I-1.838216 J-3.254139
G03 X42.243606 Y71.004075 Z-1.000000 I0.000000 J-3.570798
G03 X41.150746 Y69.968136 Z-1.000000 I1.287834 J-2.453019
G03 X40.530623 Y68.456927 Z-1.000000 I4.774945 J-2.842229
G03 X40.290531 Y66.481398 Z-1.000000 I8.007475 J-1.975529
G03 X40.534812 Y64.593258 Z-1.000000 I7.419210 J0.000000
G03 X41.150746 Y63.212582 Z-1.000000 I4.524266 J1.190597
G03 X42.214916 Y62.283374 Z-1.000000 I2.203695 J1.449797
G03 X43.880494 Y61.905055 Z-1.000000 I1.665578 J3.477257
G01 X43.880494 Y61.905055 Z-1.000000
G00 Z2.000000

(End cutting path id: path2)


(Start cutting path id: path2)
(Change tool to Default tool)

G00 Z2.000000
G00 X43.891964 Y73.156663

G01 Z-1.000000 F100.0(Penetrate)
G01 X43.891964 Y73.156663 Z-1.000000 F400.000000
G00 Z2.000000

(End cutting path id: path2)


(Start cutting path id: path2)
(Change tool to Default tool)

G00 Z2.000000
G00 X43.960784 Y73.214013

G01 Z-1.000000 F100.0(Penetrate)
G02 X46.165772 Y72.795012 Z-1.000000 I0.000000 J-6.011363 F400.000000
G02 X47.975120 Y71.631218 Z-1.000000 I-2.025799 J-5.137896
G02 X49.125327 Y69.840359 Z-1.000000 I-3.210431 J-3.326747
G02 X49.615262 Y66.974588 Z-1.000000 I-8.136391 J-2.865771
G02 X49.206625 Y64.139547 Z-1.000000 I-10.038784 J-0.000000
G02 X48.170102 Y62.065629 Z-1.000000 I-6.309626 J1.857506
G02 X46.439116 Y60.696900 Z-1.000000 I-3.426909 J2.554973
G02 X43.685515 Y60.127278 Z-1.000000 I-2.753601 J6.370757
G02 X41.365364 Y60.599345 Z-1.000000 I0.000000 J5.937657
G02 X39.659710 Y61.836238 Z-1.000000 I1.837250 J4.328017
G02 X38.599078 Y63.717224 Z-1.000000 I4.093584 J3.547772
G02 X38.168671 Y66.446990 Z-1.000000 I8.441277 J2.729766
G02 X38.623914 Y69.375491 Z-1.000000 I9.646892 J0.000000
G02 X39.739996 Y71.378888 Z-1.000000 I5.503709 J-1.753506
G02 X41.542786 Y72.711100 Z-1.000000 I3.794722 J-3.249231
G02 X43.960784 Y73.214013 Z-1.000000 I2.417998 J-5.561396
G01 X43.960784 Y73.214013 Z-1.000000
G00 Z2.000000

(End cutting path id: path2)


(Start cutting path id: path2)
(Change tool to Default tool)

G00 Z2.000000
G00 X54.134256 Y72.858455

G01 Z-1.000000 F100.0(Penetrate)
G01 X54.134256 Y64.703619 Z-1.000000 F400.000000
G03 X54.222650 Y63.783984 Z-1.000000 I4.828048 J0.000000
G03 X54.432464 Y63.166702 Z-1.000000 I2.360320 J0.457973
G03 X55.184940 Y62.392371 Z-1.000000 I1.595641 J0.797820
G03 X56.485510 Y62.065627 Z-1.000000 I1.300570 J2.425021
G03 X58.280276 Y62.601947 Z-1.000000 I0.000000 J3.271202
G03 X59.421710 Y63.992508 Z-1.000000 I-1.655487 J2.522648
G03 X59.713904 Y65.050876 Z-1.000000 I-4.217691 J1.733936
G03 X59.846082 Y66.825482 Z-1.000000 I-11.846713 J1.774606
G01 X59.846082 Y72.858455 Z-1.000000
G01 X61.910598 Y72.858455 Z-1.000000
G01 X61.910598 Y60.574588 Z-1.000000
G01 X59.960778 Y60.574588 Z-1.000000
G01 X59.983718 Y62.386774 Z-1.000000
G02 X59.526726 Y61.734515 Z-1.000000 I-3.832782 J2.199137
G02 X58.985868 Y61.205412 Z-1.000000 I-3.046841 J2.573546
G02 X57.711747 Y60.502483 Z-1.000000 I-2.568546 J3.149524
G02 X56.118486 Y60.241971 Z-1.000000 I-1.593261 J4.741845
G02 X53.810632 Y60.777383 Z-1.000000 I-0.000000 J5.241623
G02 X52.539992 Y61.996810 Z-1.000000 I1.275264 J2.600538
G02 X52.179573 Y62.977228 Z-1.000000 I3.071578 J1.685624
G02 X52.023863 Y64.508637 Z-1.000000 I7.452853 J1.531409
G01 X52.023863 Y72.858455 Z-1.000000
G01 X54.134256 Y72.858455 Z-1.000000
G00 Z2.000000

(End cutting path id: path2)


(Start cutting path id: path2)
(Change tool to Default tool)

G00 Z2.000000
G00 X56.967230 Y73.156663

G01 Z-1.000000 F100.0(Penetrate)
G01 X56.967230 Y73.156663 Z-1.000000 F400.000000
G00 Z2.000000

(End cutting path id: path2)


(Start cutting path id: path2)
(Change tool to Default tool)

G00 Z2.000000
G00 X65.133534 Y72.858455

G01 Z-1.000000 F100.0(Penetrate)
G01 X67.094823 Y72.858455 Z-1.000000 F400.000000
G01 X67.094823 Y71.115087 Z-1.000000
G02 X68.050166 Y72.087662 Z-1.000000 I5.498591 J-4.445672
G02 X68.941418 Y72.663473 Z-1.000000 I2.752197 J-3.282252
G02 X69.944862 Y73.008890 Z-1.000000 I1.959741 J-4.062875
G02 X71.109159 Y73.133724 Z-1.000000 I1.164297 J-5.367121
G02 X73.383727 Y72.581256 Z-1.000000 I0.000000 J-4.958550
G02 X74.641775 Y71.310069 Z-1.000000 I-1.327906 J-2.572298
G02 X74.986866 Y70.274164 Z-1.000000 I-3.333596 J-1.685954
G02 X75.146434 Y68.454155 Z-1.000000 I-10.299605 J-1.820009
G01 X75.146434 Y60.574588 Z-1.000000
G01 X73.047510 Y60.574588 Z-1.000000
G01 X73.047510 Y68.316521 Z-1.000000
G03 X72.947300 Y69.417587 Z-1.000000 I-6.099113 J0.000000
G03 X72.714893 Y70.128707 Z-1.000000 I-2.746760 J-0.504153
G03 X71.956559 Y70.945422 Z-1.000000 I-1.695409 J-0.813796
G03 X70.719195 Y71.275660 Z-1.000000 I-1.237364 J-2.153013
G03 X69.992084 Y71.230820 Z-1.000000 I0.000000 J-5.917660
G03 X69.514894 Y71.126556 Z-1.000000 I0.326878 J-2.640170
G03 X68.740597 Y70.760117 Z-1.000000 I0.800636 J-2.693045
G03 X68.023855 Y70.117237 Z-1.000000 I1.989584 J-2.939157
G03 X67.583324 Y69.470723 Z-1.000000 I2.823210 J-2.397066
G03 X67.347153 Y68.855589 Z-1.000000 I2.315186 J-1.241781
G03 X67.246368 Y68.207760 Z-1.000000 I4.332745 J-1.005816
G03 X67.198049 Y67.008995 Z-1.000000 I14.846232 J-1.198765
G01 X67.198049 Y60.574588 Z-1.000000
G01 X65.133534 Y60.574588 Z-1.000000
G01 X65.133534 Y72.858455 Z-1.000000
G00 Z2.000000

(End cutting path id: path2)


(Start cutting path id: path2)
(Change tool to Default tool)

G00 Z2.000000
G00 X69.985145 Y73.156663

G01 Z-1.000000 F100.0(Penetrate)
G01 X69.985145 Y73.156663 Z-1.000000 F400.000000
G00 Z2.000000

(End cutting path id: path2)


(Start cutting path id: path2)
(Change tool to Default tool)

G00 Z2.000000
G00 X79.504857 Y66.573152

G01 Z-1.000000 F100.0(Penetrate)
G03 X79.742435 Y64.668927 Z-1.000000 I7.750131 J-0.000000 F400.000000
G03 X80.342133 Y63.269928 Z-1.000000 I4.726488 J1.198034
G03 X81.390931 Y62.322496 Z-1.000000 I2.206962 J1.388864
G03 X83.026003 Y61.939462 Z-1.000000 I1.635072 J3.298334
G03 X84.302816 Y62.252633 Z-1.000000 I-0.000000 J2.759400
G03 X85.377257 Y63.166702 Z-1.000000 I-1.470087 J2.816521
G03 X86.021388 Y64.500378 Z-1.000000 I-3.079803 J2.309853
G03 X86.306289 Y66.710787 Z-1.000000 I-8.432301 J2.210409
G03 X86.005245 Y68.927884 Z-1.000000 I-8.314647 J0.000000
G03 X85.354318 Y70.151646 Z-1.000000 I-3.075526 J-0.850896
G03 X84.269272 Y70.988565 Z-1.000000 I-2.495511 J-2.113545
G03 X83.003064 Y71.275660 Z-1.000000 I-1.266208 J-2.648701
G03 X81.592707 Y70.960393 Z-1.000000 I0.000000 J-3.312275
G03 X80.468298 Y70.082829 Z-1.000000 I1.373835 J-2.919398
G03 X79.802886 Y68.784672 Z-1.000000 I2.777319 J-2.243220
G03 X79.504857 Y66.573152 Z-1.000000 I8.056250 J-2.211520
G01 X79.504857 Y66.573152 Z-1.000000
G00 Z2.000000

(End cutting path id: path2)


(Start cutting path id: path2)
(Change tool to Default tool)

G00 Z2.000000
G00 X82.613100 Y73.076377

G01 Z-1.000000 F100.0(Penetrate)
G02 X83.975209 Y72.907115 Z-1.000000 I-0.000000 J-5.565315 F400.000000
G02 X84.975823 Y72.479962 Z-1.000000 I-0.855796 J-3.390271
G02 X85.481648 Y72.085233 Z-1.000000 I-1.636970 J-2.619155
G02 X86.226002 Y71.275661 Z-1.000000 I-6.295445 J-6.535271
G01 X86.226002 Y77.480677 Z-1.000000
G01 X88.210231 Y77.480677 Z-1.000000
G01 X88.210231 Y60.574589 Z-1.000000
G01 X86.352167 Y60.574589 Z-1.000000
G01 X86.352167 Y62.283549 Z-1.000000
G02 X85.520317 Y61.268100 Z-1.000000 I-4.640595 J2.953103
G02 X84.643207 Y60.643406 Z-1.000000 I-2.563087 J2.670629
G02 X83.623862 Y60.275556 Z-1.000000 I-1.954923 J3.820991
G02 X82.383709 Y60.138747 Z-1.000000 I-1.240153 J5.552506
G02 X80.524310 Y60.564965 Z-1.000000 I-0.000000 J4.268977
G02 X78.828155 Y61.859176 Z-1.000000 I2.325854 J4.806766
G02 X77.756530 Y63.751933 Z-1.000000 I4.146750 J3.597513
G02 X77.325646 Y66.458458 Z-1.000000 I8.284858 J2.706525
G02 X77.695106 Y69.026425 Z-1.000000 I9.109180 J0.000000
G02 X78.690520 Y71.103618 Z-1.000000 I6.888962 J-2.024164
G02 X80.347338 Y72.538708 Z-1.000000 I3.664267 J-2.556467
G02 X82.613100 Y73.076377 Z-1.000000 I2.265762 J-4.505178
G01 X82.613100 Y73.076377 Z-1.000000
G00 Z2.000000

(End cutting path id: path2)


(Start cutting path id: path2)
(Change tool to Default tool)

G00 Z2.000000
G00 X31.241071 Y72.858457

G01 Z-1.000000 F100.0(Penetrate)
G01 X33.202361 Y72.858457 Z-1.000000 F400.000000
G01 X33.202361 Y70.736594 Z-1.000000
G02 X33.524507 Y71.301067 Z-1.000000 I2.057935 J-0.800307
G02 X34.383723 Y72.239103 Z-1.000000 I6.649461 J-5.228202
G02 X35.414316 Y72.908298 Z-1.000000 I2.308216 J-2.426586
G02 X36.551464 Y73.133726 Z-1.000000 I1.137148 J-2.755399
G02 X36.608744 Y73.132043 Z-1.000000 I-0.000000 J-0.975403
G02 X36.746446 Y73.122256 Z-1.000000 I-0.332423 J-5.650959
G02 X36.883989 Y73.109816 Z-1.000000 I-0.812738 J-9.752432
G02 X37.216697 Y73.076376 Z-1.000000 I-5.570897 J-57.099388
G01 X37.216697 Y70.897166 Z-1.000000
G03 X37.032553 Y70.926686 Z-1.000000 I-0.651051 J-3.472139
G03 X36.872611 Y70.943046 Z-1.000000 I-0.347009 J-2.602459
G03 X36.723386 Y70.951355 Z-1.000000 I-0.270990 J-3.522730
G03 X36.539994 Y70.954516 Z-1.000000 I-0.183392 J-5.318148
G03 X35.115286 Y70.666809 Z-1.000000 I-0.000000 J-3.671388
G03 X34.142862 Y69.945197 Z-1.000000 I0.988889 J-2.348610
G03 X33.521822 Y68.868646 Z-1.000000 I2.736107 J-2.295812
G03 X33.305587 Y67.639822 Z-1.000000 I3.383477 J-1.228824
G01 X33.305587 Y60.574591 Z-1.000000
G01 X31.241071 Y60.574591 Z-1.000000
G01 X31.241071 Y72.858457 Z-1.000000
G00 Z2.000000

(End cutting path id: path2)


(Start cutting path id: path2)
(Change tool to Default tool)

G00 Z2.000000
G00 X20.471183 Y77.859172

G01 Z-1.000000 F100.0(Penetrate)
G02 X22.781987 Y77.604127 Z-1.000000 I0.000000 J-10.595886 F400.000000
G02 X24.577275 Y76.941609 Z-1.000000 I-1.565653 J-7.006294
G02 X26.507958 Y75.200766 Z-1.000000 I-2.440640 J-4.647827
G02 X27.651109 Y72.319388 Z-1.000000 I-6.215472 J-4.133365
G01 X25.391611 Y72.319388 Z-1.000000
G03 X24.704369 Y73.974811 Z-1.000000 I-5.066025 J-1.132775
G03 X23.682651 Y75.003259 Z-1.000000 I-2.864388 J-1.823905
G03 X22.314200 Y75.609314 Z-1.000000 I-2.528236 J-3.860686
G03 X20.413835 Y75.852004 Z-1.000000 I-1.900365 J-7.318975
G03 X18.274170 Y75.397635 Z-1.000000 I0.000000 J-5.265121
G03 X16.468316 Y74.097166 Z-1.000000 I2.214664 J-4.979375
G03 X15.363761 Y72.153094 Z-1.000000 I3.778160 J-3.432443
G03 X14.874052 Y68.867060 Z-1.000000 I10.780088 J-3.286034
G03 X15.255763 Y65.981940 Z-1.000000 I11.094290 J-0.000000
G03 X16.193048 Y63.969570 Z-1.000000 I6.233221 J1.678736
G03 X17.804569 Y62.650967 Z-1.000000 I3.156042 J2.213079
G03 X20.494122 Y62.088567 Z-1.000000 I2.689553 J6.149894
G03 X22.638661 Y62.452574 Z-1.000000 I0.000000 J6.499252
G03 X24.267597 Y63.407563 Z-1.000000 I-1.616008 J4.623186
G03 X25.310436 Y64.948197 Z-1.000000 I-2.482771 J2.803821
G03 X25.804514 Y67.697167 Z-1.000000 I-7.946420 J2.847113
G01 X20.528530 Y67.697167 Z-1.000000
G01 X20.528530 Y69.589640 Z-1.000000
G01 X27.926378 Y69.589640 Z-1.000000
G01 X27.926378 Y60.574589 Z-1.000000
G01 X26.458278 Y60.574589 Z-1.000000
G01 X25.907740 Y62.742330 Z-1.000000
G02 X24.683920 Y61.552067 Z-1.000000 I-10.350487 J9.418005
G02 X23.854694 Y60.976022 Z-1.000000 I-3.192405 J3.710652
G02 X22.287195 Y60.374468 Z-1.000000 I-2.804416 J4.964574
G02 X20.035340 Y60.127277 Z-1.000000 I-2.251855 J10.133351
G02 X17.237018 Y60.636473 Z-1.000000 I-0.000000 J7.943789
G02 X14.885521 Y62.065628 Z-1.000000 I2.619191 J6.958678
G02 X13.212891 Y64.771614 Z-1.000000 I5.360154 J5.183169
G02 X12.534267 Y68.740895 Z-1.000000 I11.268886 J3.969281
G02 X13.192994 Y72.716760 Z-1.000000 I12.327892 J-0.000000
G02 X14.828173 Y75.473509 Z-1.000000 I7.381300 J-2.514924
G02 X17.291571 Y77.214673 Z-1.000000 I5.212431 J-4.761354
G02 X20.471183 Y77.859172 Z-1.000000 I3.179612 J-7.521004
G01 X20.471183 Y77.859172 Z-1.000000
G00 Z2.000000

(End cutting path id: path2)


(Start cutting path id: path2)
(Change tool to Default tool)

G00 Z2.000000
G00 X20.092688 Y77.882112

G01 Z-1.000000 F100.0(Penetrate)
G01 X20.092688 Y77.882112 Z-1.000000 F400.000000
G00 Z2.000000

(End cutting path id: path2)


(Footer)
M5
G00 X0.0000 Y0.0000
M2
(Using default footer. To add your own footer create file "footer" in the output dir.)
(end)
%