%
(Header)
(Generated by gcodetools from Inkscape.)
(Using default header. To add your own header create file "header" in the output dir.)
M3
(Header end.)
G21 (All units in mm)

(Start cutting path id: path70941)
(Change tool to Default tool)

G00 Z 5.0000
G00 X 3.3415 Y 23.7883

G01 Z -1.0000 F 100.0000(Penetrate)
G01 X 0.1128 Y 23.7883 Z -1.0000 F 3500.0000
G01 X 0.1128 Y 31.2829 Z -1.0000
G01 X 3.3415 Y 31.2829 Z -1.0000
G02 X 4.0308 Y 31.2297 Z -1.0000 I -0.0809 J -5.5412
G02 X 4.5008 Y 31.1202 Z -1.0000 I -0.3751 J -2.6729
G02 X 5.2087 Y 30.7525 Z -1.0000 I -0.7766 J -2.3603
G02 X 5.7770 Y 30.1694 Z -1.0000 I -1.5467 J -2.0760
G02 X 6.1072 Y 29.5833 Z -1.0000 I -2.8276 J -1.9793
G02 X 6.3109 Y 28.9593 Z -1.0000 I -3.0056 J -1.3260
G02 X 6.4197 Y 28.3048 Z -1.0000 I -6.4130 J -1.4029
G02 X 6.4532 Y 27.7187 Z -1.0000 I -5.1082 J -0.5862
G02 X 6.2839 Y 26.2693 Z -1.0000 I -6.2863 J 0.0000
G02 X 5.8533 Y 25.1866 Z -1.0000 I -3.9000 J 0.9241
G02 X 4.8191 Y 24.1719 Z -1.0000 I -2.3649 J 1.3760
G02 X 3.3415 Y 23.7883 Z -1.0000 I -1.4776 J 2.6544
G01 X 3.3415 Y 23.7883 Z -1.0000
G00 Z 5.0000

(End cutting path id: path70941)


(Start cutting path id: path70941)
(Change tool to Default tool)

G00 Z 5.0000
G00 X 4.5059 Y 29.3711

G01 Z -1.0000 F 100.0000(Penetrate)
G03 X 4.0333 Y 29.7857 Z -1.0000 I -0.8692 J -0.5143 F 3500.0000
G03 X 3.0771 Y 29.9813 Z -1.0000 I -0.9562 J -2.2391
G01 X 1.6331 Y 29.9813 Z -1.0000
G01 X 1.6331 Y 25.0900 Z -1.0000
G01 X 3.0771 Y 25.0900 Z -1.0000
G03 X 3.9892 Y 25.3799 Z -1.0000 I 0.0000 J 1.5796
G03 X 4.6228 Y 26.1831 Z -1.0000 I -1.0421 J 1.4735
G03 X 4.7940 Y 26.7961 Z -1.0000 I -2.7770 J 1.1061
G03 X 4.8618 Y 27.6119 Z -1.0000 I -4.8773 J 0.8158
G03 X 4.7502 Y 28.7260 Z -1.0000 I -5.6183 J -0.0000
G03 X 4.5059 Y 29.3711 Z -1.0000 I -2.0907 J -0.4230
G01 X 4.5059 Y 29.3711 Z -1.0000
G00 Z 5.0000

(End cutting path id: path70941)


(Start cutting path id: path70940)
(Change tool to Default tool)

G00 Z 5.0000
G00 X 4.5821 Y 32.1188

G01 Z -1.0000 F 100.0000(Penetrate)
G01 X 4.5821 Y 35.4644 Z -1.0000 F 3500.0000
G01 X 1.6534 Y 35.4644 Z -1.0000
G01 X 1.6534 Y 32.1188 Z -1.0000
G01 X 0.1027 Y 32.1188 Z -1.0000
G01 X 0.1027 Y 39.6134 Z -1.0000
G01 X 1.6534 Y 39.6134 Z -1.0000
G01 X 1.6534 Y 36.7559 Z -1.0000
G01 X 4.5821 Y 36.7559 Z -1.0000
G01 X 4.5821 Y 39.6134 Z -1.0000
G01 X 6.1380 Y 39.6134 Z -1.0000
G01 X 6.1380 Y 32.1188 Z -1.0000
G01 X 4.5821 Y 32.1188 Z -1.0000
G00 Z 5.0000

(End cutting path id: path70940)


(Start cutting path id: path70940)
(Change tool to Default tool)

G00 Z 5.0000
G00 X 11.5835 Y 34.9509

G01 Z -1.0000 F 100.0000(Penetrate)
G01 X 10.6480 Y 37.8999 Z -1.0000 F 3500.0000
G01 X 9.6819 Y 34.9509 Z -1.0000
G01 X 11.5835 Y 34.9509 Z -1.0000
G00 Z 5.0000

(End cutting path id: path70940)


(Start cutting path id: path70940)
(Change tool to Default tool)

G00 Z 5.0000
G00 X 12.0208 Y 33.6594

G01 Z -1.0000 F 100.0000(Penetrate)
G01 X 9.2599 Y 33.6594 Z -1.0000 F 3500.0000
G01 X 8.7413 Y 32.1188 Z -1.0000
G01 X 7.1040 Y 32.1188 Z -1.0000
G01 X 9.7785 Y 39.6134 Z -1.0000
G01 X 11.5479 Y 39.6134 Z -1.0000
G01 X 14.2020 Y 32.1188 Z -1.0000
G01 X 12.5038 Y 32.1188 Z -1.0000
G01 X 12.0208 Y 33.6594 Z -1.0000
G00 Z 5.0000

(End cutting path id: path70940)


(Start cutting path id: path70941)
(Change tool to Default tool)

G00 Z 5.0000
G00 X 15.0308 Y 31.2829

G01 Z -1.0000 F 100.0000(Penetrate)
G01 X 16.5867 Y 31.2829 Z -1.0000 F 3500.0000
G01 X 16.5867 Y 23.7883 Z -1.0000
G01 X 15.0308 Y 23.7883 Z -1.0000
G01 X 15.0308 Y 31.2829 Z -1.0000
G00 Z 5.0000

(End cutting path id: path70941)


(Start cutting path id: path70941)
(Change tool to Default tool)

G00 Z 5.0000
G00 X 11.7666 Y 28.0898

G01 Z -1.0000 F 100.0000(Penetrate)
G03 X 12.0945 Y 28.3932 Z -1.0000 I -0.2965 J 0.6495 F 3500.0000
G03 X 12.2343 Y 28.9339 Z -1.0000 I -0.9755 J 0.5406
G03 X 12.0949 Y 29.5303 Z -1.0000 I -1.3457 J -0.0000
G03 X 11.7818 Y 29.8491 Z -1.0000 I -0.6419 J -0.3174
G03 X 11.5171 Y 29.9384 Z -1.0000 I -0.4203 J -0.8082
G03 X 11.0191 Y 29.9813 Z -1.0000 I -0.4980 J -2.8730
G01 X 9.1989 Y 29.9813 Z -1.0000
G01 X 9.1989 Y 27.9678 Z -1.0000
G01 X 10.9734 Y 27.9678 Z -1.0000
G03 X 11.4934 Y 28.0076 Z -1.0000 I -0.0000 J 3.4201
G03 X 11.7666 Y 28.0898 Z -1.0000 I -0.1555 J 1.0111
G01 X 11.7666 Y 28.0898 Z -1.0000
G00 Z 5.0000

(End cutting path id: path70941)


(Start cutting path id: path70941)
(Change tool to Default tool)

G00 Z 5.0000
G00 X 10.8157 Y 26.7272

G01 Z -1.0000 F 100.0000(Penetrate)
G01 X 9.1989 Y 26.7272 Z -1.0000 F 3500.0000
G01 X 9.1989 Y 23.7883 Z -1.0000
G01 X 7.6684 Y 23.7883 Z -1.0000
G01 X 7.6684 Y 31.2829 Z -1.0000
G01 X 11.3445 Y 31.2829 Z -1.0000
G02 X 12.1212 Y 31.2137 Z -1.0000 I -0.1087 J -5.6140
G02 X 12.5547 Y 31.0897 Z -1.0000 I -0.2960 J -1.8539
G02 X 12.9499 Y 30.8680 Z -1.0000 I -0.7505 J -1.8013
G02 X 13.2767 Y 30.5660 Z -1.0000 I -1.1047 J -1.5230
G02 X 13.4953 Y 30.2657 Z -1.0000 I -1.7782 J -1.5242
G02 X 13.6631 Y 29.9355 Z -1.0000 I -1.9850 J -1.2166
G02 X 13.7665 Y 29.5821 Z -1.0000 I -1.6101 J -0.6630
G02 X 13.8054 Y 29.1474 Z -1.0000 I -2.4061 J -0.4346
G02 X 13.7402 Y 28.6295 Z -1.0000 I -2.0881 J -0.0000
G02 X 13.5360 Y 28.0949 Z -1.0000 I -2.4308 J 0.6224
G02 X 13.1898 Y 27.6707 Z -1.0000 I -1.2129 J 0.6365
G02 X 12.6462 Y 27.3678 Z -1.0000 I -1.1195 J 1.3701
G02 X 13.1084 Y 27.0956 Z -1.0000 I -0.6691 J -1.6647
G02 X 13.3783 Y 26.7729 Z -1.0000 I -0.6958 J -0.8563
G02 X 13.5257 Y 26.3726 Z -1.0000 I -1.1074 J -0.6349
G02 X 13.5970 Y 25.6035 Z -1.0000 I -4.1139 J -0.7691
G01 X 13.5970 Y 25.1001 Z -1.0000
G03 X 13.6119 Y 24.5882 Z -1.0000 I 8.7804 J -0.0000
G03 X 13.6377 Y 24.4036 Z -1.0000 I 1.1621 J 0.0679
G03 X 13.7455 Y 24.1468 Z -1.0000 I 0.7206 J 0.1517
G03 X 13.9224 Y 23.9765 Z -1.0000 I 0.4761 J 0.3174
G01 X 13.9224 Y 23.7883 Z -1.0000
G01 X 12.1987 Y 23.7883 Z -1.0000
G02 X 12.1314 Y 24.0384 Z -1.0000 I 8.2098 J 2.3455
G02 X 12.0970 Y 24.1900 Z -1.0000 I 2.9820 J 0.7549
G02 X 12.0503 Y 24.5067 Z -1.0000 I 3.5264 J 0.6825
G02 X 12.0309 Y 24.8357 Z -1.0000 I 3.7868 J 0.3876
G01 X 12.0208 Y 25.5323 Z -1.0000
G03 X 11.9237 Y 26.2109 Z -1.0000 I -2.6884 J -0.0381
G03 X 11.7564 Y 26.4882 Z -1.0000 I -0.5784 J -0.1600
G03 X 11.4741 Y 26.6449 Z -1.0000 I -0.4381 J -0.4567
G03 X 10.8157 Y 26.7272 Z -1.0000 I -0.6584 J -2.5916
G01 X 10.8157 Y 26.7272 Z -1.0000
G00 Z 5.0000

(End cutting path id: path70941)


(Start cutting path id: path70941)
(Change tool to Default tool)

G00 Z 5.0000
G00 X 23.2627 Y 27.0628

G01 Z -1.0000 F 100.0000(Penetrate)
G01 X 19.6221 Y 27.0628 Z -1.0000 F 3500.0000
G01 X 19.6221 Y 25.1357 Z -1.0000
G01 X 23.7711 Y 25.1357 Z -1.0000
G01 X 23.7711 Y 23.7883 Z -1.0000
G01 X 18.0917 Y 23.7883 Z -1.0000
G01 X 18.0917 Y 31.2829 Z -1.0000
G01 X 23.5881 Y 31.2829 Z -1.0000
G01 X 23.5881 Y 29.9559 Z -1.0000
G01 X 19.6221 Y 29.9559 Z -1.0000
G01 X 19.6221 Y 28.3644 Z -1.0000
G01 X 23.2627 Y 28.3644 Z -1.0000
G01 X 23.2627 Y 27.0628 Z -1.0000
G00 Z 5.0000

(End cutting path id: path70941)


(Start cutting path id: path70941)
(Change tool to Default tool)

G00 Z 5.0000
G00 X 28.1743 Y 26.7272

G01 Z -1.0000 F 100.0000(Penetrate)
G01 X 26.5574 Y 26.7272 Z -1.0000 F 3500.0000
G01 X 26.5574 Y 23.7883 Z -1.0000
G01 X 25.0270 Y 23.7883 Z -1.0000
G01 X 25.0270 Y 31.2829 Z -1.0000
G01 X 28.7031 Y 31.2829 Z -1.0000
G02 X 29.4797 Y 31.2137 Z -1.0000 I -0.1087 J -5.6140
G02 X 29.9132 Y 31.0897 Z -1.0000 I -0.2960 J -1.8539
G02 X 30.3084 Y 30.8680 Z -1.0000 I -0.7505 J -1.8013
G02 X 30.6352 Y 30.5660 Z -1.0000 I -1.1047 J -1.5230
G02 X 30.8538 Y 30.2657 Z -1.0000 I -1.7782 J -1.5242
G02 X 31.0216 Y 29.9355 Z -1.0000 I -1.9850 J -1.2166
G02 X 31.1251 Y 29.5821 Z -1.0000 I -1.6101 J -0.6630
G02 X 31.1640 Y 29.1474 Z -1.0000 I -2.4061 J -0.4346
G02 X 31.0987 Y 28.6295 Z -1.0000 I -2.0881 J 0.0000
G02 X 30.8945 Y 28.0949 Z -1.0000 I -2.4308 J 0.6224
G02 X 30.5483 Y 27.6707 Z -1.0000 I -1.2129 J 0.6365
G02 X 30.0047 Y 27.3678 Z -1.0000 I -1.1195 J 1.3701
G02 X 30.4670 Y 27.0956 Z -1.0000 I -0.6691 J -1.6647
G02 X 30.7369 Y 26.7729 Z -1.0000 I -0.6958 J -0.8563
G02 X 30.8843 Y 26.3726 Z -1.0000 I -1.1074 J -0.6349
G02 X 30.9555 Y 25.6035 Z -1.0000 I -4.1139 J -0.7691
G01 X 30.9555 Y 25.1001 Z -1.0000
G03 X 30.9705 Y 24.5882 Z -1.0000 I 8.7804 J -0.0000
G03 X 30.9962 Y 24.4036 Z -1.0000 I 1.1621 J 0.0679
G03 X 31.1041 Y 24.1468 Z -1.0000 I 0.7207 J 0.1517
G03 X 31.2809 Y 23.9765 Z -1.0000 I 0.4762 J 0.3174
G01 X 31.2809 Y 23.7883 Z -1.0000
G01 X 29.5573 Y 23.7883 Z -1.0000
G02 X 29.4899 Y 24.0384 Z -1.0000 I 8.2104 J 2.3457
G02 X 29.4556 Y 24.1900 Z -1.0000 I 2.9822 J 0.7550
G02 X 29.4088 Y 24.5067 Z -1.0000 I 3.5264 J 0.6825
G02 X 29.3895 Y 24.8357 Z -1.0000 I 3.7868 J 0.3876
G01 X 29.3793 Y 25.5323 Z -1.0000
G03 X 29.2823 Y 26.2109 Z -1.0000 I -2.6884 J -0.0381
G03 X 29.1149 Y 26.4882 Z -1.0000 I -0.5784 J -0.1600
G03 X 28.8327 Y 26.6449 Z -1.0000 I -0.4381 J -0.4567
G03 X 28.1743 Y 26.7272 Z -1.0000 I -0.6584 J -2.5916
G01 X 28.1743 Y 26.7272 Z -1.0000
G00 Z 5.0000

(End cutting path id: path70941)


(Start cutting path id: path70941)
(Change tool to Default tool)

G00 Z 5.0000
G00 X 29.1251 Y 28.0898

G01 Z -1.0000 F 100.0000(Penetrate)
G03 X 29.4531 Y 28.3932 Z -1.0000 I -0.2965 J 0.6495 F 3500.0000
G03 X 29.5929 Y 28.9339 Z -1.0000 I -0.9755 J 0.5406
G03 X 29.4535 Y 29.5303 Z -1.0000 I -1.3457 J -0.0000
G03 X 29.1404 Y 29.8491 Z -1.0000 I -0.6419 J -0.3174
G03 X 28.8757 Y 29.9384 Z -1.0000 I -0.4203 J -0.8082
G03 X 28.3777 Y 29.9813 Z -1.0000 I -0.4980 J -2.8730
G01 X 26.5574 Y 29.9813 Z -1.0000
G01 X 26.5574 Y 27.9678 Z -1.0000
G01 X 28.3319 Y 27.9678 Z -1.0000
G03 X 28.8520 Y 28.0076 Z -1.0000 I -0.0000 J 3.4201
G03 X 29.1251 Y 28.0898 Z -1.0000 I -0.1555 J 1.0111
G01 X 29.1251 Y 28.0898 Z -1.0000
G00 Z 5.0000

(End cutting path id: path70941)


(Start cutting path id: path70940)
(Change tool to Default tool)

G00 Z 5.0000
G00 X 21.2288 Y 35.0577

G01 Z -1.0000 F 100.0000(Penetrate)
G01 X 19.6120 Y 35.0577 Z -1.0000 F 3500.0000
G01 X 19.6120 Y 32.1188 Z -1.0000
G01 X 18.0815 Y 32.1188 Z -1.0000
G01 X 18.0815 Y 39.6134 Z -1.0000
G01 X 21.7576 Y 39.6134 Z -1.0000
G02 X 22.5343 Y 39.5442 Z -1.0000 I -0.1087 J -5.6140
G02 X 22.9678 Y 39.4202 Z -1.0000 I -0.2960 J -1.8539
G02 X 23.3630 Y 39.1985 Z -1.0000 I -0.7505 J -1.8013
G02 X 23.6898 Y 38.8965 Z -1.0000 I -1.1047 J -1.5230
G02 X 23.9084 Y 38.5962 Z -1.0000 I -1.7782 J -1.5242
G02 X 24.0762 Y 38.2660 Z -1.0000 I -1.9850 J -1.2166
G02 X 24.1796 Y 37.9125 Z -1.0000 I -1.6101 J -0.6630
G02 X 24.2185 Y 37.4779 Z -1.0000 I -2.4061 J -0.4346
G02 X 24.1533 Y 36.9600 Z -1.0000 I -2.0881 J -0.0000
G02 X 23.9491 Y 36.4254 Z -1.0000 I -2.4308 J 0.6224
G02 X 23.6029 Y 36.0012 Z -1.0000 I -1.2129 J 0.6365
G02 X 23.0593 Y 35.6983 Z -1.0000 I -1.1195 J 1.3701
G02 X 23.5215 Y 35.4261 Z -1.0000 I -0.6691 J -1.6647
G02 X 23.7914 Y 35.1034 Z -1.0000 I -0.6958 J -0.8563
G02 X 23.9388 Y 34.7031 Z -1.0000 I -1.1074 J -0.6349
G02 X 24.0101 Y 33.9340 Z -1.0000 I -4.1139 J -0.7691
G01 X 24.0101 Y 33.4306 Z -1.0000
G03 X 24.0250 Y 32.9187 Z -1.0000 I 8.7803 J 0.0000
G03 X 24.0508 Y 32.7340 Z -1.0000 I 1.1621 J 0.0679
G03 X 24.1586 Y 32.4773 Z -1.0000 I 0.7206 J 0.1517
G03 X 24.3355 Y 32.3069 Z -1.0000 I 0.4761 J 0.3174
G01 X 24.3355 Y 32.1188 Z -1.0000
G01 X 22.6118 Y 32.1188 Z -1.0000
G02 X 22.5445 Y 32.3689 Z -1.0000 I 8.2066 J 2.3447
G02 X 22.5101 Y 32.5205 Z -1.0000 I 2.9809 J 0.7546
G02 X 22.4634 Y 32.8372 Z -1.0000 I 3.5258 J 0.6824
G02 X 22.4440 Y 33.1662 Z -1.0000 I 3.7862 J 0.3876
G01 X 22.4339 Y 33.8628 Z -1.0000
G03 X 22.3368 Y 34.5414 Z -1.0000 I -2.6884 J -0.0381
G03 X 22.1695 Y 34.8187 Z -1.0000 I -0.5784 J -0.1600
G03 X 21.8872 Y 34.9753 Z -1.0000 I -0.4381 J -0.4567
G03 X 21.2288 Y 35.0577 Z -1.0000 I -0.6584 J -2.5916
G01 X 21.2288 Y 35.0577 Z -1.0000
G00 Z 5.0000

(End cutting path id: path70940)


(Start cutting path id: path70940)
(Change tool to Default tool)

G00 Z 5.0000
G00 X 22.1796 Y 36.4203

G01 Z -1.0000 F 100.0000(Penetrate)
G03 X 22.5076 Y 36.7237 Z -1.0000 I -0.2965 J 0.6495 F 3500.0000
G03 X 22.6474 Y 37.2643 Z -1.0000 I -0.9755 J 0.5406
G03 X 22.5080 Y 37.8608 Z -1.0000 I -1.3457 J 0.0000
G03 X 22.1949 Y 38.1796 Z -1.0000 I -0.6419 J -0.3174
G03 X 21.9302 Y 38.2689 Z -1.0000 I -0.4203 J -0.8082
G03 X 21.4322 Y 38.3118 Z -1.0000 I -0.4980 J -2.8730
G01 X 19.6120 Y 38.3118 Z -1.0000
G01 X 19.6120 Y 36.2983 Z -1.0000
G01 X 21.3865 Y 36.2983 Z -1.0000
G03 X 21.9065 Y 36.3381 Z -1.0000 I -0.0000 J 3.4201
G03 X 22.1796 Y 36.4203 Z -1.0000 I -0.1555 J 1.0111
G01 X 22.1796 Y 36.4203 Z -1.0000
G00 Z 5.0000

(End cutting path id: path70940)


(Start cutting path id: path70940)
(Change tool to Default tool)

G00 Z 5.0000
G00 X 15.0308 Y 39.6134

G01 Z -1.0000 F 100.0000(Penetrate)
G01 X 16.5867 Y 39.6134 Z -1.0000 F 3500.0000
G01 X 16.5867 Y 32.1188 Z -1.0000
G01 X 15.0308 Y 32.1188 Z -1.0000
G01 X 15.0308 Y 39.6134 Z -1.0000
G00 Z 5.0000

(End cutting path id: path70940)



(Footer)
M5
G00 X0.0000 Y0.0000
M2
(Using default footer. To add your own footer create file "footer" in the output dir.)
(end)
%