%
(Header)
(Generated by gcodetools from Inkscape.)
(Using default header. To add your own header create file "header" in the output dir.)
M3
(Header end.)
G21 (All units in mm)

(Start cutting path id: text77878)
(Change tool to Default tool)

G00 Z 5.0000
G00 X 3.8452 Y 33.8773

G01 Z -1.0000 F 100.0000(Penetrate)
G01 X 3.8452 Y 36.4261 Z -1.0000 F 3500.0000
G01 X 1.6141 Y 36.4261 Z -1.0000
G01 X 1.6141 Y 33.8773 Z -1.0000
G01 X 0.4326 Y 33.8773 Z -1.0000
G01 X 0.4326 Y 39.5870 Z -1.0000
G01 X 1.6141 Y 39.5870 Z -1.0000
G01 X 1.6141 Y 37.4100 Z -1.0000
G01 X 3.8452 Y 37.4100 Z -1.0000
G01 X 3.8452 Y 39.5870 Z -1.0000
G01 X 5.0306 Y 39.5870 Z -1.0000
G01 X 5.0306 Y 33.8773 Z -1.0000
G01 X 3.8452 Y 33.8773 Z -1.0000
G00 Z 5.0000

(End cutting path id: text77878)


(Start cutting path id: text77878)
(Change tool to Default tool)

G00 Z 5.0000
G00 X 9.1792 Y 36.0349

G01 Z -1.0000 F 100.0000(Penetrate)
G01 X 8.4664 Y 38.2816 Z -1.0000 F 3500.0000
G01 X 7.7304 Y 36.0349 Z -1.0000
G01 X 9.1792 Y 36.0349 Z -1.0000
G00 Z 5.0000

(End cutting path id: text77878)


(Start cutting path id: text77878)
(Change tool to Default tool)

G00 Z 5.0000
G00 X 9.5123 Y 35.0510

G01 Z -1.0000 F 100.0000(Penetrate)
G01 X 7.4089 Y 35.0510 Z -1.0000 F 3500.0000
G01 X 7.0138 Y 33.8773 Z -1.0000
G01 X 5.7665 Y 33.8773 Z -1.0000
G01 X 7.8040 Y 39.5870 Z -1.0000
G01 X 9.1520 Y 39.5870 Z -1.0000
G01 X 11.1741 Y 33.8773 Z -1.0000
G01 X 9.8803 Y 33.8773 Z -1.0000
G01 X 9.5123 Y 35.0510 Z -1.0000
G00 Z 5.0000

(End cutting path id: text77878)


(Start cutting path id: text77878)
(Change tool to Default tool)

G00 Z 5.0000
G00 X 16.5157 Y 33.8773

G01 Z -1.0000 F 100.0000(Penetrate)
G01 X 15.3226 Y 33.8773 Z -1.0000 F 3500.0000
G01 X 12.9908 Y 37.9329 Z -1.0000
G01 X 12.9908 Y 33.8773 Z -1.0000
G01 X 11.8790 Y 33.8773 Z -1.0000
G01 X 11.8790 Y 39.5870 Z -1.0000
G01 X 13.1302 Y 39.5870 Z -1.0000
G01 X 15.4040 Y 35.6011 Z -1.0000
G01 X 15.4040 Y 39.5870 Z -1.0000
G01 X 16.5157 Y 39.5870 Z -1.0000
G01 X 16.5157 Y 33.8773 Z -1.0000
G00 Z 5.0000

(End cutting path id: text77878)


(Start cutting path id: text77878)
(Change tool to Default tool)

G00 Z 5.0000
G00 X 20.0871 Y 33.8773

G01 Z -1.0000 F 100.0000(Penetrate)
G01 X 17.6274 Y 33.8773 Z -1.0000 F 3500.0000
G01 X 17.6274 Y 39.5870 Z -1.0000
G01 X 20.0871 Y 39.5870 Z -1.0000
G02 X 20.6123 Y 39.5464 Z -1.0000 I -0.0616 J -4.2214
G02 X 20.9703 Y 39.4630 Z -1.0000 I -0.2858 J -2.0363
G02 X 21.5096 Y 39.1829 Z -1.0000 I -0.5916 J -1.7981
G02 X 21.9426 Y 38.7386 Z -1.0000 I -1.1783 J -1.5816
G02 X 22.1942 Y 38.2921 Z -1.0000 I -2.1542 J -1.5079
G02 X 22.3493 Y 37.8167 Z -1.0000 I -2.2898 J -1.0102
G02 X 22.4322 Y 37.3182 Z -1.0000 I -4.8857 J -1.0687
G02 X 22.4578 Y 36.8716 Z -1.0000 I -3.8915 J -0.4466
G02 X 22.3287 Y 35.7674 Z -1.0000 I -4.7891 J -0.0000
G02 X 22.0007 Y 34.9425 Z -1.0000 I -2.9711 J 0.7040
G02 X 21.2129 Y 34.1695 Z -1.0000 I -1.8017 J 1.0483
G02 X 20.0871 Y 33.8773 Z -1.0000 I -1.1257 J 2.0222
G01 X 20.0871 Y 33.8773 Z -1.0000
G00 Z 5.0000

(End cutting path id: text77878)


(Start cutting path id: text77878)
(Change tool to Default tool)

G00 Z 5.0000
G00 X 20.9742 Y 38.1305

G01 Z -1.0000 F 100.0000(Penetrate)
G03 X 20.6142 Y 38.4463 Z -1.0000 I -0.6622 J -0.3918 F 3500.0000
G03 X 19.8857 Y 38.5953 Z -1.0000 I -0.7285 J -1.7058
G01 X 18.7856 Y 38.5953 Z -1.0000
G01 X 18.7856 Y 34.8689 Z -1.0000
G01 X 19.8857 Y 34.8689 Z -1.0000
G03 X 20.5806 Y 35.0898 Z -1.0000 I 0.0000 J 1.2034
G03 X 21.0633 Y 35.7018 Z -1.0000 I -0.7939 J 1.1226
G03 X 21.1937 Y 36.1687 Z -1.0000 I -2.1156 J 0.8427
G03 X 21.2453 Y 36.7902 Z -1.0000 I -3.7157 J 0.6215
G03 X 21.1604 Y 37.6390 Z -1.0000 I -4.2802 J -0.0000
G03 X 20.9742 Y 38.1305 Z -1.0000 I -1.5928 J -0.3222
G01 X 20.9742 Y 38.1305 Z -1.0000
G00 Z 5.0000

(End cutting path id: text77878)


(Start cutting path id: text77878)
(Change tool to Default tool)

G00 Z 5.0000
G00 X 25.9362 Y 36.3913

G01 Z -1.0000 F 100.0000(Penetrate)
G01 X 24.5146 Y 36.3913 Z -1.0000 F 3500.0000
G01 X 24.5146 Y 34.8689 Z -1.0000
G01 X 25.9169 Y 34.8689 Z -1.0000
G03 X 26.2854 Y 34.9004 Z -1.0000 I -0.0000 J 2.1719
G03 X 26.5018 Y 34.9697 Z -1.0000 I -0.1390 J 0.8073
G03 X 26.7676 Y 35.2266 Z -1.0000 I -0.2641 J 0.5391
G03 X 26.8814 Y 35.6824 Z -1.0000 I -0.8558 J 0.4558
G03 X 26.7766 Y 36.0602 Z -1.0000 I -0.7332 J 0.0000
G03 X 26.5134 Y 36.2944 Z -1.0000 I -0.5072 J -0.3049
G03 X 26.3018 Y 36.3589 Z -1.0000 I -0.3533 J -0.7803
G03 X 25.9362 Y 36.3913 Z -1.0000 I -0.3901 J -2.3251
G01 X 25.9362 Y 36.3913 Z -1.0000
G00 Z 5.0000

(End cutting path id: text77878)


(Start cutting path id: text77878)
(Change tool to Default tool)

G00 Z 5.0000
G00 X 26.5289 Y 37.4797

G01 Z -1.0000 F 100.0000(Penetrate)
G03 X 26.6905 Y 37.6593 Z -1.0000 I -0.2120 J 0.3533 F 3500.0000
G03 X 26.7613 Y 37.9794 Z -1.0000 I -0.6883 J 0.3201
G03 X 26.6694 Y 38.3169 Z -1.0000 I -0.6656 J -0.0000
G03 X 26.4514 Y 38.5062 Z -1.0000 I -0.3909 J -0.2300
G03 X 26.1798 Y 38.5686 Z -1.0000 I -0.4602 J -1.3805
G03 X 25.7697 Y 38.5953 Z -1.0000 I -0.4101 J -3.1385
G01 X 24.5146 Y 38.5953 Z -1.0000
G01 X 24.5146 Y 37.3364 Z -1.0000
G01 X 25.9169 Y 37.3364 Z -1.0000
G03 X 26.2809 Y 37.3785 Z -1.0000 I -0.0000 J 1.5963
G03 X 26.5289 Y 37.4797 Z -1.0000 I -0.1946 J 0.8311
G01 X 26.5289 Y 37.4797 Z -1.0000
G00 Z 5.0000

(End cutting path id: text77878)


(Start cutting path id: text77878)
(Change tool to Default tool)

G00 Z 5.0000
G00 X 25.9634 Y 33.8773

G01 Z -1.0000 F 100.0000(Penetrate)
G01 X 23.3758 Y 33.8773 Z -1.0000 F 3500.0000
G01 X 23.3758 Y 39.5870 Z -1.0000
G01 X 26.1493 Y 39.5870 Z -1.0000
G02 X 27.1065 Y 39.3915 Z -1.0000 I -0.0388 J -2.6318
G02 X 27.6367 Y 38.9788 Z -1.0000 I -0.4711 J -1.1522
G02 X 27.8286 Y 38.5915 Z -1.0000 I -1.0572 J -0.7648
G02 X 27.9001 Y 38.1073 Z -1.0000 I -1.6023 J -0.4843
G02 X 27.8243 Y 37.6117 Z -1.0000 I -1.6573 J -0.0000
G02 X 27.6367 Y 37.2667 Z -1.0000 I -0.9702 J 0.3040
G02 X 27.4724 Y 37.1099 Z -1.0000 I -0.7412 J 0.6123
G02 X 27.2029 Y 36.9413 Z -1.0000 I -1.1291 J 1.5055
G02 X 27.5958 Y 36.7264 Z -1.0000 I -0.5031 J -1.3865
G02 X 27.8614 Y 36.4377 Z -1.0000 I -0.6876 J -0.8992
G02 X 28.0236 Y 36.0744 Z -1.0000 I -1.0618 J -0.6920
G02 X 28.0861 Y 35.6011 Z -1.0000 I -1.7630 J -0.4734
G02 X 28.0189 Y 35.1131 Z -1.0000 I -1.8045 J 0.0000
G02 X 27.8304 Y 34.6908 Z -1.0000 I -1.5320 J 0.4303
G02 X 27.6458 Y 34.4434 Z -1.0000 I -1.3979 J 0.8509
G02 X 27.4237 Y 34.2414 Z -1.0000 I -1.1481 J 1.0393
G02 X 27.1318 Y 34.0694 Z -1.0000 I -0.8737 J 1.1487
G02 X 26.7729 Y 33.9548 Z -1.0000 I -0.7191 J 1.6325
G02 X 26.3989 Y 33.8981 Z -1.0000 I -0.7018 J 3.3685
G02 X 25.9634 Y 33.8773 Z -1.0000 I -0.4356 J 4.5517
G01 X 25.9634 Y 33.8773 Z -1.0000
G00 Z 5.0000

(End cutting path id: text77878)


(Start cutting path id: text77878)
(Change tool to Default tool)

G00 Z 5.0000
G00 X 32.0952 Y 36.0349

G01 Z -1.0000 F 100.0000(Penetrate)
G01 X 31.3825 Y 38.2816 Z -1.0000 F 3500.0000
G01 X 30.6465 Y 36.0349 Z -1.0000
G01 X 32.0952 Y 36.0349 Z -1.0000
G00 Z 5.0000

(End cutting path id: text77878)


(Start cutting path id: text77878)
(Change tool to Default tool)

G00 Z 5.0000
G00 X 32.4284 Y 35.0510

G01 Z -1.0000 F 100.0000(Penetrate)
G01 X 30.3250 Y 35.0510 Z -1.0000 F 3500.0000
G01 X 29.9299 Y 33.8773 Z -1.0000
G01 X 28.6826 Y 33.8773 Z -1.0000
G01 X 30.7201 Y 39.5870 Z -1.0000
G01 X 32.0681 Y 39.5870 Z -1.0000
G01 X 34.0901 Y 33.8773 Z -1.0000
G01 X 32.7963 Y 33.8773 Z -1.0000
G01 X 32.4284 Y 35.0510 Z -1.0000
G00 Z 5.0000

(End cutting path id: text77878)


(Start cutting path id: text77878)
(Change tool to Default tool)

G00 Z 5.0000
G00 X 38.3162 Y 34.0168

G01 Z -1.0000 F 100.0000(Penetrate)
G02 X 37.8204 Y 33.8083 Z -1.0000 I -0.9234 J 1.5021 F 3500.0000
G02 X 37.1541 Y 33.7262 Z -1.0000 I -0.6663 J 2.6652
G02 X 36.1118 Y 33.9376 Z -1.0000 I 0.0000 J 2.6759
G02 X 35.2948 Y 34.5126 Z -1.0000 I 0.9198 J 2.1749
G02 X 34.7573 Y 35.3902 Z -1.0000 I 1.7569 J 1.6794
G02 X 34.5395 Y 36.6740 Z -1.0000 I 3.6738 J 1.2839
G02 X 34.7567 Y 37.9766 Z -1.0000 I 4.0125 J -0.0000
G02 X 35.3025 Y 38.8975 Z -1.0000 I 2.4940 J -0.8560
G02 X 36.1670 Y 39.5045 Z -1.0000 I 1.7948 J -1.6369
G02 X 37.3207 Y 39.7342 Z -1.0000 I 1.1537 J -2.7827
G02 X 38.3510 Y 39.5747 Z -1.0000 I 0.0000 J -3.4090
G02 X 39.0677 Y 39.1802 Z -1.0000 I -0.6343 J -2.0005
G02 X 39.5869 Y 38.5525 Z -1.0000 I -1.4023 J -1.6886
G02 X 39.8269 Y 37.8051 Z -1.0000 I -1.7839 J -0.9849
G01 X 38.6532 Y 37.8051 Z -1.0000
G03 X 38.4107 Y 38.3015 Z -1.0000 I -1.1975 J -0.2776
G03 X 37.9908 Y 38.6224 Z -1.0000 I -0.8739 J -0.7083
G03 X 37.6893 Y 38.7161 Z -1.0000 I -0.5811 J -1.3383
G03 X 37.3362 Y 38.7503 Z -1.0000 I -0.3531 J -1.8085
G03 X 36.7101 Y 38.6130 Z -1.0000 I 0.0000 J -1.4962
G03 X 36.2012 Y 38.2273 Z -1.0000 I 0.6212 J -1.3483
G03 X 35.8974 Y 37.6576 Z -1.0000 I 1.1528 J -0.9808
G03 X 35.7596 Y 36.6624 Z -1.0000 I 3.5269 J -0.9952
G03 X 35.9144 Y 35.6771 Z -1.0000 I 3.2138 J -0.0000
G03 X 36.2400 Y 35.1711 Z -1.0000 I 1.1136 J 0.3587
G03 X 36.7628 Y 34.8432 Z -1.0000 I 1.1677 J 1.2814
G03 X 37.3323 Y 34.7334 Z -1.0000 I 0.5695 J 1.4212
G03 X 37.8959 Y 34.8293 Z -1.0000 I 0.0000 J 1.7045
G03 X 38.3162 Y 35.0781 Z -1.0000 I -0.4113 J 1.1738
G03 X 38.6183 Y 35.4707 Z -1.0000 I -0.9459 J 1.0404
G03 X 38.7888 Y 35.9884 Z -1.0000 I -1.5110 J 0.7844
G01 X 37.4679 Y 35.9884 Z -1.0000
G01 X 37.4679 Y 36.9413 Z -1.0000
G01 X 39.8462 Y 36.9413 Z -1.0000
G01 X 39.8462 Y 33.8773 Z -1.0000
G01 X 39.0560 Y 33.8773 Z -1.0000
G01 X 38.9360 Y 34.5900 Z -1.0000
G02 X 38.5701 Y 34.2080 Z -1.0000 I -3.3303 J 2.8228
G02 X 38.3162 Y 34.0168 Z -1.0000 I -1.0711 J 1.1579
G01 X 38.3162 Y 34.0168 Z -1.0000
G00 Z 5.0000

(End cutting path id: text77878)



(Footer)
M5
G00 X0.0000 Y0.0000
M2
(Using default footer. To add your own footer create file "footer" in the output dir.)
(end)
%