%
(Header)
(Generated by gcodetools from Inkscape.)
(Using default header. To add your own header create file "header" in the output dir.)
M3
(Header end.)
G21 (All units in mm)

(Start cutting path id: text174745)
(Change tool to Default tool)

G00 Z 5.0000
G00 X 5.3608 Y 31.2957

G01 Z -1.0000 F 100.0000(Penetrate)
G01 X 5.3608 Y 34.9377 Z -1.0000 F 3500.0000
G01 X 2.1727 Y 34.9377 Z -1.0000
G01 X 2.1727 Y 31.2957 Z -1.0000
G01 X 0.4845 Y 31.2957 Z -1.0000
G01 X 0.4845 Y 39.4543 Z -1.0000
G01 X 2.1727 Y 39.4543 Z -1.0000
G01 X 2.1727 Y 36.3436 Z -1.0000
G01 X 5.3608 Y 36.3436 Z -1.0000
G01 X 5.3608 Y 39.4543 Z -1.0000
G01 X 7.0545 Y 39.4543 Z -1.0000
G01 X 7.0545 Y 31.2957 Z -1.0000
G01 X 5.3608 Y 31.2957 Z -1.0000
G00 Z 5.0000

(End cutting path id: text174745)


(Start cutting path id: text174745)
(Change tool to Default tool)

G00 Z 5.0000
G00 X 12.2906 Y 31.0688

G01 Z -1.0000 F 100.0000(Penetrate)
G02 X 10.6606 Y 31.3504 Z -1.0000 I -0.0000 J 4.8588 F 3500.0000
G02 X 9.6172 Y 32.0208 Z -1.0000 I 0.9163 J 2.5732
G02 X 8.7412 Y 33.3458 Z -1.0000 I 2.3770 J 2.5235
G02 X 8.3774 Y 35.3861 Z -1.0000 I 5.5378 J 2.0402
G02 X 8.7479 Y 37.4635 Z -1.0000 I 6.0092 J 0.0000
G02 X 9.6172 Y 38.7513 Z -1.0000 I 3.0572 J -1.1263
G02 X 10.6606 Y 39.4218 Z -1.0000 I 1.9598 J -1.9028
G02 X 12.2906 Y 39.7033 Z -1.0000 I 1.6300 J -4.5772
G02 X 13.9206 Y 39.4218 Z -1.0000 I -0.0000 J -4.8588
G02 X 14.9640 Y 38.7513 Z -1.0000 I -0.9163 J -2.5732
G02 X 15.8291 Y 37.4646 Z -1.0000 I -2.1921 J -2.4081
G02 X 16.1983 Y 35.3861 Z -1.0000 I -5.6670 J -2.0785
G02 X 15.8357 Y 33.3448 Z -1.0000 I -5.9281 J 0.0000
G02 X 14.9640 Y 32.0208 Z -1.0000 I -3.2536 J 1.1933
G02 X 13.9206 Y 31.3504 Z -1.0000 I -1.9598 J 1.9028
G02 X 12.2906 Y 31.0688 Z -1.0000 I -1.6300 J 4.5772
G01 X 12.2906 Y 31.0688 Z -1.0000
G00 Z 5.0000

(End cutting path id: text174745)


(Start cutting path id: text174745)
(Change tool to Default tool)

G00 Z 5.0000
G00 X 13.9013 Y 33.2606

G01 Z -1.0000 F 100.0000(Penetrate)
G03 X 14.3136 Y 34.0705 Z -1.0000 I -1.7993 J 1.4261 F 3500.0000
G03 X 14.4935 Y 35.3861 Z -1.0000 I -4.7213 J 1.3156
G03 X 14.3124 Y 36.6952 Z -1.0000 I -4.8237 J 0.0000
G03 X 13.8957 Y 37.5060 Z -1.0000 I -2.2086 J -0.6228
G03 X 13.2046 Y 38.0550 Z -1.0000 I -1.5033 J -1.1828
G03 X 12.2906 Y 38.2587 Z -1.0000 I -0.9140 J -1.9489
G03 X 11.3740 Y 38.0571 Z -1.0000 I 0.0000 J -2.1841
G03 X 10.6744 Y 37.5115 Z -1.0000 I 0.8192 J -1.7720
G03 X 10.2539 Y 36.6997 Z -1.0000 I 1.7786 J -1.4360
G03 X 10.0711 Y 35.3861 Z -1.0000 I 4.6278 J -1.3136
G03 X 10.2539 Y 34.0725 Z -1.0000 I 4.8106 J -0.0000
G03 X 10.6744 Y 33.2606 Z -1.0000 I 2.1990 J 0.6242
G03 X 11.3740 Y 32.7150 Z -1.0000 I 1.5189 J 1.2264
G03 X 12.2906 Y 32.5134 Z -1.0000 I 0.9166 J 1.9825
G03 X 13.2064 Y 32.7155 Z -1.0000 I -0.0000 J 2.1761
G03 X 13.9013 Y 33.2606 Z -1.0000 I -0.8123 J 1.7509
G01 X 13.9013 Y 33.2606 Z -1.0000
G00 Z 5.0000

(End cutting path id: text174745)


(Start cutting path id: text174745)
(Change tool to Default tool)

G00 Z 5.0000
G00 X 20.9639 Y 34.4949

G01 Z -1.0000 F 100.0000(Penetrate)
G01 X 19.2037 Y 34.4949 Z -1.0000 F 3500.0000
G01 X 19.2037 Y 31.2957 Z -1.0000
G01 X 17.5377 Y 31.2957 Z -1.0000
G01 X 17.5377 Y 39.4543 Z -1.0000
G01 X 21.5395 Y 39.4543 Z -1.0000
G02 X 22.3850 Y 39.3790 Z -1.0000 I -0.1183 J -6.1114
G02 X 22.8568 Y 39.2439 Z -1.0000 I -0.3222 J -2.0182
G02 X 23.2871 Y 39.0026 Z -1.0000 I -0.8170 J -1.9609
G02 X 23.6428 Y 38.6738 Z -1.0000 I -1.2025 J -1.6579
G02 X 23.8808 Y 38.3469 Z -1.0000 I -1.9357 J -1.6592
G02 X 24.0634 Y 37.9875 Z -1.0000 I -2.1608 J -1.3244
G02 X 24.1760 Y 37.6027 Z -1.0000 I -1.7528 J -0.7217
G02 X 24.2184 Y 37.1296 Z -1.0000 I -2.6193 J -0.4732
G02 X 24.1474 Y 36.5658 Z -1.0000 I -2.2731 J 0.0000
G02 X 23.9251 Y 35.9838 Z -1.0000 I -2.6461 J 0.6775
G02 X 23.5482 Y 35.5221 Z -1.0000 I -1.3204 J 0.6929
G02 X 22.9564 Y 35.1923 Z -1.0000 I -1.2187 J 1.4914
G02 X 23.4596 Y 34.8960 Z -1.0000 I -0.7284 J -1.8122
G02 X 23.7535 Y 34.5448 Z -1.0000 I -0.7574 J -0.9322
G02 X 23.9139 Y 34.1090 Z -1.0000 I -1.2055 J -0.6912
G02 X 23.9915 Y 33.2717 Z -1.0000 I -4.4783 J -0.8373
G01 X 23.9915 Y 32.7238 Z -1.0000
G03 X 24.0077 Y 32.1665 Z -1.0000 I 9.5590 J 0.0000
G03 X 24.0358 Y 31.9655 Z -1.0000 I 1.2652 J 0.0739
G03 X 24.1532 Y 31.6859 Z -1.0000 I 0.7845 J 0.1652
G03 X 24.3457 Y 31.5005 Z -1.0000 I 0.5183 J 0.3456
G01 X 24.3457 Y 31.2957 Z -1.0000
G01 X 22.4694 Y 31.2957 Z -1.0000
G02 X 22.3960 Y 31.5680 Z -1.0000 I 8.9329 J 2.5523
G02 X 22.3587 Y 31.7330 Z -1.0000 I 3.2446 J 0.8214
G02 X 22.3078 Y 32.0778 Z -1.0000 I 3.8384 J 0.7429
G02 X 22.2867 Y 32.4359 Z -1.0000 I 4.1219 J 0.4220
G01 X 22.2756 Y 33.1942 Z -1.0000
G03 X 22.1700 Y 33.9330 Z -1.0000 I -2.9265 J -0.0415
G03 X 21.9878 Y 34.2348 Z -1.0000 I -0.6296 J -0.1741
G03 X 21.6806 Y 34.4053 Z -1.0000 I -0.4769 J -0.4972
G03 X 20.9639 Y 34.4949 Z -1.0000 I -0.7167 J -2.8211
G01 X 20.9639 Y 34.4949 Z -1.0000
G00 Z 5.0000

(End cutting path id: text174745)


(Start cutting path id: text174745)
(Change tool to Default tool)

G00 Z 5.0000
G00 X 21.9989 Y 35.9783

G01 Z -1.0000 F 100.0000(Penetrate)
G03 X 22.3559 Y 36.3086 Z -1.0000 I -0.3228 J 0.7070 F 3500.0000
G03 X 22.5081 Y 36.8971 Z -1.0000 I -1.0619 J 0.5885
G03 X 22.3564 Y 37.5464 Z -1.0000 I -1.4649 J -0.0000
G03 X 22.0155 Y 37.8934 Z -1.0000 I -0.6988 J -0.3455
G03 X 21.7274 Y 37.9907 Z -1.0000 I -0.4575 J -0.8798
G03 X 21.1853 Y 38.0373 Z -1.0000 I -0.5421 J -3.1275
G01 X 19.2037 Y 38.0373 Z -1.0000
G01 X 19.2037 Y 35.8455 Z -1.0000
G01 X 21.1354 Y 35.8455 Z -1.0000
G03 X 21.7016 Y 35.8888 Z -1.0000 I -0.0000 J 3.7231
G03 X 21.9989 Y 35.9783 Z -1.0000 I -0.1693 J 1.1006
G01 X 21.9989 Y 35.9783 Z -1.0000
G00 Z 5.0000

(End cutting path id: text174745)


(Start cutting path id: text174745)
(Change tool to Default tool)

G00 Z 5.0000
G00 X 28.6464 Y 32.4747

G01 Z -1.0000 F 100.0000(Penetrate)
G03 X 29.2428 Y 32.5149 Z -1.0000 I -0.0000 J 4.4388 F 3500.0000
G03 X 29.6261 Y 32.6075 Z -1.0000 I -0.2595 J 1.9137
G03 X 30.1526 Y 32.9943 Z -1.0000 I -0.3824 J 1.0725
G03 X 30.3401 Y 33.5540 Z -1.0000 I -0.7419 J 0.5597
G03 X 30.2472 Y 33.9066 Z -1.0000 I -0.7154 J 0.0000
G03 X 29.9858 Y 34.1794 Z -1.0000 I -0.6685 J -0.3786
G03 X 29.6149 Y 34.3536 Z -1.0000 I -0.9865 J -1.6188
G03 X 28.8733 Y 34.5614 Z -1.0000 I -2.1736 J -6.3317
G01 X 28.0099 Y 34.7551 Z -1.0000
G02 X 26.7684 Y 35.1146 Z -1.0000 I 2.3950 J 10.5932
G02 X 26.2497 Y 35.3805 Z -1.0000 I 0.7394 J 2.0807
G02 X 25.6638 Y 36.0710 Z -1.0000 I 0.9703 J 1.4173
G02 X 25.4250 Y 37.1462 Z -1.0000 I 2.3019 J 1.0752
G02 X 25.6350 Y 38.1493 Z -1.0000 I 2.5017 J 0.0000
G02 X 26.2221 Y 38.9672 Z -1.0000 I 2.2119 J -0.9681
G02 X 27.1045 Y 39.4715 Z -1.0000 I 1.5747 J -1.7309
G02 X 28.5634 Y 39.6923 Z -1.0000 I 1.4589 J -4.7107
G02 X 29.7902 Y 39.5051 Z -1.0000 I 0.0000 J -4.1151
G02 X 30.7607 Y 39.0059 Z -1.0000 I -0.9488 J -3.0376
G02 X 31.4288 Y 38.1968 Z -1.0000 I -1.3190 J -1.7693
G02 X 31.7183 Y 37.0244 Z -1.0000 I -2.6319 J -1.2718
G01 X 30.0799 Y 37.0244 Z -1.0000
G03 X 29.8799 Y 37.6593 Z -1.0000 I -1.3687 J -0.0823
G03 X 29.4379 Y 38.0705 Z -1.0000 I -0.9610 J -0.5898
G03 X 29.0251 Y 38.2162 Z -1.0000 I -0.7410 J -1.4419
G03 X 28.4471 Y 38.2753 Z -1.0000 I -0.5779 J -2.7960
G03 X 27.8126 Y 38.1964 Z -1.0000 I 0.0000 J -2.5904
G03 X 27.3955 Y 38.0096 Z -1.0000 I 0.3242 J -1.2834
G03 X 27.1070 Y 37.6885 Z -1.0000 I 0.4993 J -0.7386
G03 X 27.0025 Y 37.2680 Z -1.0000 I 0.7936 J -0.4205
G03 X 27.1058 Y 36.8914 Z -1.0000 I 0.7381 J 0.0000
G03 X 27.3899 Y 36.6148 Z -1.0000 I 0.6546 J 0.3883
G03 X 27.6505 Y 36.4998 Z -1.0000 I 0.6601 J 1.1424
G03 X 28.4527 Y 36.2772 Z -1.0000 I 3.4126 J 10.7413
G01 X 29.8585 Y 35.9396 Z -1.0000
G02 X 30.7481 Y 35.6464 Z -1.0000 I -1.3123 J -5.4788
G02 X 31.2534 Y 35.3473 Z -1.0000 I -0.8653 J -2.0378
G02 X 31.7765 Y 34.6710 Z -1.0000 I -1.0903 J -1.3839
G02 X 31.9840 Y 33.6813 Z -1.0000 I -2.2569 J -0.9897
G02 X 31.7609 Y 32.6653 Z -1.0000 I -2.4256 J 0.0000
G02 X 31.1260 Y 31.8216 Z -1.0000 I -2.2693 J 1.0468
G02 X 30.1916 Y 31.3059 Z -1.0000 I -1.6879 J 1.9544
G02 X 28.7128 Y 31.0854 Z -1.0000 I -1.4788 J 4.8478
G02 X 27.1938 Y 31.3006 Z -1.0000 I 0.0000 J 5.4680
G02 X 26.2055 Y 31.8105 Z -1.0000 I 0.7981 J 2.7600
G02 X 25.5425 Y 32.6614 Z -1.0000 I 1.4519 J 1.8149
G02 X 25.2922 Y 33.8141 Z -1.0000 I 2.5290 J 1.1527
G01 X 26.9195 Y 33.8141 Z -1.0000
G03 X 27.0524 Y 33.2793 Z -1.0000 I 2.5849 J 0.3583
G03 X 27.2239 Y 32.9784 Z -1.0000 I 0.9690 J 0.3530
G03 X 27.7145 Y 32.6348 Z -1.0000 I 0.8646 J 0.7126
G03 X 28.6464 Y 32.4747 Z -1.0000 I 0.9318 J 2.6317
G01 X 28.6464 Y 32.4747 Z -1.0000
G00 Z 5.0000

(End cutting path id: text174745)


(Start cutting path id: text174745)
(Change tool to Default tool)

G00 Z 5.0000
G00 X 38.9248 Y 34.8602

G01 Z -1.0000 F 100.0000(Penetrate)
G01 X 34.9618 Y 34.8602 Z -1.0000 F 3500.0000
G01 X 34.9618 Y 32.7625 Z -1.0000
G01 X 39.4783 Y 32.7625 Z -1.0000
G01 X 39.4783 Y 31.2957 Z -1.0000
G01 X 33.2958 Y 31.2957 Z -1.0000
G01 X 33.2958 Y 39.4543 Z -1.0000
G01 X 39.2790 Y 39.4543 Z -1.0000
G01 X 39.2790 Y 38.0096 Z -1.0000
G01 X 34.9618 Y 38.0096 Z -1.0000
G01 X 34.9618 Y 36.2772 Z -1.0000
G01 X 38.9248 Y 36.2772 Z -1.0000
G01 X 38.9248 Y 34.8602 Z -1.0000
G00 Z 5.0000

(End cutting path id: text174745)



(Footer)
M5
G00 X0.0000 Y0.0000
M2
(Using default footer. To add your own footer create file "footer" in the output dir.)
(end)
%