%
(Header)
(Generated by gcodetools from Inkscape.)
(Using default header. To add your own header create file "header" in the output dir.)
M3
(Header end.)
G21 (All units in mm)

(Start cutting path id: text1)
(Change tool to Default tool)

G00 Z 5.0000
G00 X 11.2717 Y 100.0449

G01 Z -1.0000 F 100.0000(Penetrate)
G01 X 11.2717 Y 107.6710 Z -1.0000 F 400.0000
G01 X 4.5960 Y 107.6710 Z -1.0000
G01 X 4.5960 Y 100.0449 Z -1.0000
G01 X 1.0611 Y 100.0449 Z -1.0000
G01 X 1.0611 Y 117.1283 Z -1.0000
G01 X 4.5960 Y 117.1283 Z -1.0000
G01 X 4.5960 Y 110.6148 Z -1.0000
G01 X 11.2717 Y 110.6148 Z -1.0000
G01 X 11.2717 Y 117.1283 Z -1.0000
G01 X 14.8182 Y 117.1283 Z -1.0000
G01 X 14.8182 Y 100.0449 Z -1.0000
G01 X 11.2717 Y 100.0449 Z -1.0000
G00 Z 5.0000

(End cutting path id: text1)


(Start cutting path id: text1)
(Change tool to Default tool)

G00 Z 5.0000
G00 X 25.7822 Y 99.5697

G01 Z -1.0000 F 100.0000(Penetrate)
G02 X 22.3692 Y 100.1593 Z -1.0000 I 0.0000 J 10.1739 F 400.0000
G02 X 20.1843 Y 101.5632 Z -1.0000 I 1.9188 J 5.3882
G02 X 18.3501 Y 104.3376 Z -1.0000 I 4.9773 J 5.2840
G02 X 17.5882 Y 108.6098 Z -1.0000 I 11.5958 J 4.2721
G02 X 18.3640 Y 112.9598 Z -1.0000 I 12.5829 J -0.0000
G02 X 20.1843 Y 115.6564 Z -1.0000 I 6.4015 J -2.3584
G02 X 22.3692 Y 117.0603 Z -1.0000 I 4.1036 J -3.9843
G02 X 25.7822 Y 117.6499 Z -1.0000 I 3.4131 J -9.5844
G02 X 29.1953 Y 117.0603 Z -1.0000 I 0.0000 J -10.1740
G02 X 31.3801 Y 115.6564 Z -1.0000 I -1.9188 J -5.3882
G02 X 33.1917 Y 112.9620 Z -1.0000 I -4.5901 J -5.0424
G02 X 33.9647 Y 108.6098 Z -1.0000 I -11.8662 J -4.3523
G02 X 33.2055 Y 104.3354 Z -1.0000 I -12.4130 J 0.0000
G02 X 31.3801 Y 101.5632 Z -1.0000 I -6.8128 J 2.4988
G02 X 29.1953 Y 100.1593 Z -1.0000 I -4.1036 J 3.9843
G02 X 25.7822 Y 99.5697 Z -1.0000 I -3.4131 J 9.5844
G01 X 25.7822 Y 99.5697 Z -1.0000
G00 Z 5.0000

(End cutting path id: text1)


(Start cutting path id: text1)
(Change tool to Default tool)

G00 Z 5.0000
G00 X 29.1549 Y 104.1593

G01 Z -1.0000 F 100.0000(Penetrate)
G03 X 30.0184 Y 105.8551 Z -1.0000 I -3.7677 J 2.9862 F 400.0000
G03 X 30.3950 Y 108.6098 Z -1.0000 I -9.8861 J 2.7547
G03 X 30.0159 Y 111.3511 Z -1.0000 I -10.1006 J 0.0000
G03 X 29.1433 Y 113.0487 Z -1.0000 I -4.6247 J -1.3041
G03 X 27.6961 Y 114.1984 Z -1.0000 I -3.1479 J -2.4766
G03 X 25.7822 Y 114.6249 Z -1.0000 I -1.9138 J -4.0810
G03 X 23.8630 Y 114.2027 Z -1.0000 I -0.0000 J -4.5733
G03 X 22.3980 Y 113.0603 Z -1.0000 I 1.7154 J -3.7104
G03 X 21.5175 Y 111.3604 Z -1.0000 I 3.7242 J -3.0069
G03 X 21.1347 Y 108.6098 Z -1.0000 I 9.6902 J -2.7506
G03 X 21.5175 Y 105.8592 Z -1.0000 I 10.0731 J 0.0000
G03 X 22.3980 Y 104.1593 Z -1.0000 I 4.6047 J 1.3071
G03 X 23.8630 Y 103.0168 Z -1.0000 I 3.1804 J 2.5679
G03 X 25.7822 Y 102.5947 Z -1.0000 I 1.9192 J 4.1512
G03 X 27.6998 Y 103.0178 Z -1.0000 I -0.0000 J 4.5566
G03 X 29.1549 Y 104.1593 Z -1.0000 I -1.7008 J 3.6662
G01 X 29.1549 Y 104.1593 Z -1.0000
G00 Z 5.0000

(End cutting path id: text1)


(Start cutting path id: text1)
(Change tool to Default tool)

G00 Z 5.0000
G00 X 43.9435 Y 106.7438

G01 Z -1.0000 F 100.0000(Penetrate)
G01 X 40.2579 Y 106.7438 Z -1.0000 F 400.0000
G01 X 40.2579 Y 100.0449 Z -1.0000
G01 X 36.7694 Y 100.0449 Z -1.0000
G01 X 36.7694 Y 117.1283 Z -1.0000
G01 X 45.1489 Y 117.1283 Z -1.0000
G02 X 46.9192 Y 116.9706 Z -1.0000 I -0.2477 J -12.7968
G02 X 47.9072 Y 116.6879 Z -1.0000 I -0.6747 J -4.2259
G02 X 48.8082 Y 116.1826 Z -1.0000 I -1.7108 J -4.1060
G02 X 49.5530 Y 115.4942 Z -1.0000 I -2.5181 J -3.4715
G02 X 50.0513 Y 114.8096 Z -1.0000 I -4.0533 J -3.4743
G02 X 50.4338 Y 114.0570 Z -1.0000 I -4.5247 J -2.7732
G02 X 50.6696 Y 113.2513 Z -1.0000 I -3.6702 J -1.5113
G02 X 50.7583 Y 112.2606 Z -1.0000 I -5.4846 J -0.9908
G02 X 50.6096 Y 111.0800 Z -1.0000 I -4.7598 J 0.0000
G02 X 50.1441 Y 109.8615 Z -1.0000 I -5.5408 J 1.4187
G02 X 49.3550 Y 108.8945 Z -1.0000 I -2.7648 J 1.4508
G02 X 48.1159 Y 108.2041 Z -1.0000 I -2.5519 J 3.1230
G02 X 49.1695 Y 107.5836 Z -1.0000 I -1.5253 J -3.7946
G02 X 49.7848 Y 106.8481 Z -1.0000 I -1.5860 J -1.9520
G02 X 50.1207 Y 105.9356 Z -1.0000 I -2.5242 J -1.4472
G02 X 50.2832 Y 104.1825 Z -1.0000 I -9.3773 J -1.7532
G01 X 50.2832 Y 103.0351 Z -1.0000
G03 X 50.3172 Y 101.8682 Z -1.0000 I 20.0159 J -0.0000
G03 X 50.3759 Y 101.4473 Z -1.0000 I 2.6492 J 0.1547
G03 X 50.6218 Y 100.8619 Z -1.0000 I 1.6426 J 0.3458
G03 X 51.0249 Y 100.4737 Z -1.0000 I 1.0854 J 0.7236
G01 X 51.0249 Y 100.0449 Z -1.0000
G01 X 47.0960 Y 100.0449 Z -1.0000
G02 X 46.9424 Y 100.6149 Z -1.0000 I 18.7061 J 5.3446
G02 X 46.8642 Y 100.9605 Z -1.0000 I 6.7946 J 1.7201
G02 X 46.7576 Y 101.6824 Z -1.0000 I 8.0368 J 1.5555
G02 X 46.7135 Y 102.4324 Z -1.0000 I 8.6304 J 0.8834
G01 X 46.6903 Y 104.0202 Z -1.0000
G03 X 46.4691 Y 105.5671 Z -1.0000 I -6.1280 J -0.0869
G03 X 46.0876 Y 106.1991 Z -1.0000 I -1.3184 J -0.3647
G03 X 45.4443 Y 106.5562 Z -1.0000 I -0.9985 J -1.0410
G03 X 43.9435 Y 106.7438 Z -1.0000 I -1.5008 J -5.9073
G01 X 43.9435 Y 106.7438 Z -1.0000
G00 Z 5.0000

(End cutting path id: text1)


(Start cutting path id: text1)
(Change tool to Default tool)

G00 Z 5.0000
G00 X 46.1108 Y 109.8499

G01 Z -1.0000 F 100.0000(Penetrate)
G03 X 46.8584 Y 110.5415 Z -1.0000 I -0.6759 J 1.4805 F 400.0000
G03 X 47.1771 Y 111.7738 Z -1.0000 I -2.2235 J 1.2323
G03 X 46.8593 Y 113.1334 Z -1.0000 I -3.0675 J 0.0000
G03 X 46.1456 Y 113.8600 Z -1.0000 I -1.4632 J -0.7235
G03 X 45.5422 Y 114.0637 Z -1.0000 I -0.9580 J -1.8423
G03 X 44.4071 Y 114.1613 Z -1.0000 I -1.1351 J -6.5487
G01 X 40.2579 Y 114.1613 Z -1.0000
G01 X 40.2579 Y 109.5717 Z -1.0000
G01 X 44.3028 Y 109.5717 Z -1.0000
G03 X 45.4882 Y 109.6624 Z -1.0000 I 0.0000 J 7.7960
G03 X 46.1108 Y 109.8499 Z -1.0000 I -0.3546 J 2.3047
G01 X 46.1108 Y 109.8499 Z -1.0000
G00 Z 5.0000

(End cutting path id: text1)


(Start cutting path id: text1)
(Change tool to Default tool)

G00 Z 5.0000
G00 X 60.0302 Y 102.5135

G01 Z -1.0000 F 100.0000(Penetrate)
G03 X 61.2791 Y 102.5978 Z -1.0000 I 0.0000 J 9.2946 F 400.0000
G03 X 62.0816 Y 102.7917 Z -1.0000 I -0.5434 J 4.0073
G03 X 63.1842 Y 103.6016 Z -1.0000 I -0.8008 J 2.2458
G03 X 63.5767 Y 104.7736 Z -1.0000 I -1.5536 J 1.1720
G03 X 63.3822 Y 105.5118 Z -1.0000 I -1.4980 J 0.0000
G03 X 62.8350 Y 106.0832 Z -1.0000 I -1.3999 J -0.7929
G03 X 62.0582 Y 106.4479 Z -1.0000 I -2.0656 J -3.3897
G03 X 60.5054 Y 106.8829 Z -1.0000 I -4.5513 J -13.2581
G01 X 58.6974 Y 107.2885 Z -1.0000
G02 X 56.0978 Y 108.0414 Z -1.0000 I 5.0149 J 22.1815
G02 X 55.0118 Y 108.5982 Z -1.0000 I 1.5482 J 4.3569
G02 X 53.7848 Y 110.0440 Z -1.0000 I 2.0317 J 2.9678
G02 X 53.2849 Y 112.2954 Z -1.0000 I 4.8201 J 2.2514
G02 X 53.7245 Y 114.3958 Z -1.0000 I 5.2385 J 0.0000
G02 X 54.9539 Y 116.1084 Z -1.0000 I 4.6316 J -2.0272
G02 X 56.8016 Y 117.1645 Z -1.0000 I 3.2972 J -3.6244
G02 X 59.8564 Y 117.6267 Z -1.0000 I 3.0548 J -9.8639
G02 X 62.4253 Y 117.2348 Z -1.0000 I 0.0000 J -8.6167
G02 X 64.4575 Y 116.1895 Z -1.0000 I -1.9867 J -6.3606
G02 X 65.8564 Y 114.4953 Z -1.0000 I -2.7618 J -3.7048
G02 X 66.4626 Y 112.0404 Z -1.0000 I -5.5110 J -2.6632
G01 X 63.0320 Y 112.0404 Z -1.0000
G03 X 62.6130 Y 113.3698 Z -1.0000 I -2.8659 J -0.1724
G03 X 61.6876 Y 114.2309 Z -1.0000 I -2.0124 J -1.2351
G03 X 60.8232 Y 114.5359 Z -1.0000 I -1.5516 J -3.0192
G03 X 59.6130 Y 114.6597 Z -1.0000 I -1.2102 J -5.8546
G03 X 58.2844 Y 114.4945 Z -1.0000 I 0.0000 J -5.4242
G03 X 57.4109 Y 114.1034 Z -1.0000 I 0.6789 J -2.6873
G03 X 56.8069 Y 113.4308 Z -1.0000 I 1.0456 J -1.5466
G03 X 56.5880 Y 112.5503 Z -1.0000 I 1.6618 J -0.8805
G03 X 56.8043 Y 111.7618 Z -1.0000 I 1.5455 J 0.0000
G03 X 57.3993 Y 111.1827 Z -1.0000 I 1.3707 J 0.8131
G03 X 57.9449 Y 110.9418 Z -1.0000 I 1.3822 J 2.3922
G03 X 59.6246 Y 110.4758 Z -1.0000 I 7.1457 J 22.4915
G01 X 62.5684 Y 109.7688 Z -1.0000
G02 X 64.4311 Y 109.1550 Z -1.0000 I -2.7479 J -11.4723
G02 X 65.4890 Y 108.5287 Z -1.0000 I -1.8118 J -4.2670
G02 X 66.5844 Y 107.1125 Z -1.0000 I -2.2831 J -2.8977
G02 X 67.0189 Y 105.0401 Z -1.0000 I -4.7257 J -2.0724
G02 X 66.5518 Y 102.9126 Z -1.0000 I -5.0790 J 0.0000
G02 X 65.2225 Y 101.1459 Z -1.0000 I -4.7517 J 2.1920
G02 X 63.2658 Y 100.0663 Z -1.0000 I -3.5344 J 4.0924
G02 X 60.1693 Y 99.6045 Z -1.0000 I -3.0965 J 10.1510
G02 X 56.9886 Y 100.0552 Z -1.0000 I -0.0000 J 11.4497
G02 X 54.9191 Y 101.1228 Z -1.0000 I 1.6712 J 5.7792
G02 X 53.5309 Y 102.9045 Z -1.0000 I 3.0402 J 3.8002
G02 X 53.0068 Y 105.3183 Z -1.0000 I 5.2956 J 2.4137
G01 X 56.4142 Y 105.3183 Z -1.0000
G03 X 56.6924 Y 104.1984 Z -1.0000 I 5.4125 J 0.7502
G03 X 57.0516 Y 103.5682 Z -1.0000 I 2.0291 J 0.7391
G03 X 58.0790 Y 102.8488 Z -1.0000 I 1.8105 J 1.4921
G03 X 60.0302 Y 102.5135 Z -1.0000 I 1.9512 J 5.5106
G01 X 60.0302 Y 102.5135 Z -1.0000
G00 Z 5.0000

(End cutting path id: text1)


(Start cutting path id: text1)
(Change tool to Default tool)

G00 Z 5.0000
G00 X 81.5526 Y 107.5088

G01 Z -1.0000 F 100.0000(Penetrate)
G01 X 73.2542 Y 107.5088 Z -1.0000 F 400.0000
G01 X 73.2542 Y 103.1162 Z -1.0000
G01 X 82.7115 Y 103.1162 Z -1.0000
G01 X 82.7115 Y 100.0449 Z -1.0000
G01 X 69.7657 Y 100.0449 Z -1.0000
G01 X 69.7657 Y 117.1283 Z -1.0000
G01 X 82.2943 Y 117.1283 Z -1.0000
G01 X 82.2943 Y 114.1034 Z -1.0000
G01 X 73.2542 Y 114.1034 Z -1.0000
G01 X 73.2542 Y 110.4758 Z -1.0000
G01 X 81.5526 Y 110.4758 Z -1.0000
G01 X 81.5526 Y 107.5088 Z -1.0000
G00 Z 5.0000

(End cutting path id: text1)



(Footer)
M5
G00 X0.0000 Y0.0000
M2
(Using default footer. To add your own footer create file "footer" in the output dir.)
(end)
%