%
(Header)
(Generated by gcodetools from Inkscape.)
(Using default header. To add your own header create file "header" in the output dir.)
M3
(Header end.)
G21 (All units in mm)

(Start cutting path id: path174913)
(Change tool to Default tool)

G00 Z 5.0000
G00 X 4.0781 Y 20.9385

G01 Z -1.0000 F 100.0000(Penetrate)
G01 X 0.3042 Y 20.9385 Z -1.0000 F 3500.0000
G01 X 0.3042 Y 29.6987 Z -1.0000
G01 X 4.0781 Y 29.6987 Z -1.0000
G02 X 4.8838 Y 29.6365 Z -1.0000 I -0.0946 J -6.4771
G02 X 5.4331 Y 29.5085 Z -1.0000 I -0.4385 J -3.1243
G02 X 6.2605 Y 29.0787 Z -1.0000 I -0.9078 J -2.7589
G02 X 6.9248 Y 28.3972 Z -1.0000 I -1.8079 J -2.4266
G02 X 7.3109 Y 27.7120 Z -1.0000 I -3.3051 J -2.3135
G02 X 7.5489 Y 26.9827 Z -1.0000 I -3.5131 J -1.5499
G02 X 7.6761 Y 26.2177 Z -1.0000 I -7.4960 J -1.6398
G02 X 7.7153 Y 25.5326 Z -1.0000 I -5.9707 J -0.6852
G02 X 7.5173 Y 23.8384 Z -1.0000 I -7.3478 J -0.0000
G02 X 7.0140 Y 22.5729 Z -1.0000 I -4.5585 J 1.0801
G02 X 5.8052 Y 21.3869 Z -1.0000 I -2.7643 J 1.6083
G02 X 4.0781 Y 20.9385 Z -1.0000 I -1.7271 J 3.1026
G01 X 4.0781 Y 20.9385 Z -1.0000
G00 Z 5.0000

(End cutting path id: path174913)


(Start cutting path id: path174913)
(Change tool to Default tool)

G00 Z 5.0000
G00 X 5.4390 Y 27.4641

G01 Z -1.0000 F 100.0000(Penetrate)
G03 X 4.8867 Y 27.9486 Z -1.0000 I -1.0160 J -0.6011 F 3500.0000
G03 X 3.7690 Y 28.1773 Z -1.0000 I -1.1177 J -2.6172
G01 X 2.0812 Y 28.1773 Z -1.0000
G01 X 2.0812 Y 22.4600 Z -1.0000
G01 X 3.7690 Y 22.4600 Z -1.0000
G03 X 4.8352 Y 22.7989 Z -1.0000 I -0.0000 J 1.8464
G03 X 5.5757 Y 23.7377 Z -1.0000 I -1.2181 J 1.7223
G03 X 5.7759 Y 24.4542 Z -1.0000 I -3.2459 J 1.2929
G03 X 5.8551 Y 25.4078 Z -1.0000 I -5.7009 J 0.9535
G03 X 5.7247 Y 26.7100 Z -1.0000 I -6.5670 J 0.0000
G03 X 5.4390 Y 27.4641 Z -1.0000 I -2.4438 J -0.4944
G01 X 5.4390 Y 27.4641 Z -1.0000
G00 Z 5.0000

(End cutting path id: path174913)


(Start cutting path id: path174912)
(Change tool to Default tool)

G00 Z 5.0000
G00 X 5.5282 Y 30.6757

G01 Z -1.0000 F 100.0000(Penetrate)
G01 X 5.5282 Y 34.5863 Z -1.0000 F 3500.0000
G01 X 2.1050 Y 34.5863 Z -1.0000
G01 X 2.1050 Y 30.6757 Z -1.0000
G01 X 0.2923 Y 30.6757 Z -1.0000
G01 X 0.2923 Y 39.4359 Z -1.0000
G01 X 2.1050 Y 39.4359 Z -1.0000
G01 X 2.1050 Y 36.0959 Z -1.0000
G01 X 5.5282 Y 36.0959 Z -1.0000
G01 X 5.5282 Y 39.4359 Z -1.0000
G01 X 7.3468 Y 39.4359 Z -1.0000
G01 X 7.3468 Y 30.6757 Z -1.0000
G01 X 5.5282 Y 30.6757 Z -1.0000
G00 Z 5.0000

(End cutting path id: path174912)


(Start cutting path id: path174912)
(Change tool to Default tool)

G00 Z 5.0000
G00 X 12.9690 Y 30.4321

G01 Z -1.0000 F 100.0000(Penetrate)
G02 X 11.2188 Y 30.7344 Z -1.0000 I -0.0000 J 5.2171 F 3500.0000
G02 X 10.0985 Y 31.4543 Z -1.0000 I 0.9839 J 2.7630
G02 X 9.1579 Y 32.8770 Z -1.0000 I 2.5523 J 2.7096
G02 X 8.7672 Y 35.0677 Z -1.0000 I 5.9462 J 2.1907
G02 X 9.1650 Y 37.2983 Z -1.0000 I 6.4523 J 0.0000
G02 X 10.0985 Y 38.6811 Z -1.0000 I 3.2826 J -1.2094
G02 X 11.2188 Y 39.4010 Z -1.0000 I 2.1043 J -2.0431
G02 X 12.9690 Y 39.7033 Z -1.0000 I 1.7502 J -4.9147
G02 X 14.7192 Y 39.4010 Z -1.0000 I -0.0000 J -5.2171
G02 X 15.8395 Y 38.6811 Z -1.0000 I -0.9839 J -2.7630
G02 X 16.7684 Y 37.2995 Z -1.0000 I -2.3538 J -2.5857
G02 X 17.1648 Y 35.0677 Z -1.0000 I -6.0849 J -2.2318
G02 X 16.7755 Y 32.8759 Z -1.0000 I -6.3652 J -0.0000
G02 X 15.8395 Y 31.4543 Z -1.0000 I -3.4935 J 1.2813
G02 X 14.7192 Y 30.7344 Z -1.0000 I -2.1043 J 2.0431
G02 X 12.9690 Y 30.4321 Z -1.0000 I -1.7502 J 4.9147
G01 X 12.9690 Y 30.4321 Z -1.0000
G00 Z 5.0000

(End cutting path id: path174912)


(Start cutting path id: path174912)
(Change tool to Default tool)

G00 Z 5.0000
G00 X 14.6984 Y 32.7855

G01 Z -1.0000 F 100.0000(Penetrate)
G03 X 15.1412 Y 33.6551 Z -1.0000 I -1.9320 J 1.5313 F 3500.0000
G03 X 15.3343 Y 35.0677 Z -1.0000 I -5.0695 J 1.4126
G03 X 15.1399 Y 36.4734 Z -1.0000 I -5.1794 J 0.0000
G03 X 14.6925 Y 37.3439 Z -1.0000 I -2.3715 J -0.6687
G03 X 13.9504 Y 37.9335 Z -1.0000 I -1.6142 J -1.2700
G03 X 12.9690 Y 38.1522 Z -1.0000 I -0.9814 J -2.0927
G03 X 11.9848 Y 37.9357 Z -1.0000 I 0.0000 J -2.3451
G03 X 11.2336 Y 37.3499 Z -1.0000 I 0.8796 J -1.9026
G03 X 10.7821 Y 36.4782 Z -1.0000 I 1.9097 J -1.5419
G03 X 10.5858 Y 35.0677 Z -1.0000 I 4.9690 J -1.4105
G03 X 10.7821 Y 33.6572 Z -1.0000 I 5.1653 J 0.0000
G03 X 11.2336 Y 32.7855 Z -1.0000 I 2.3612 J 0.6702
G03 X 11.9848 Y 32.1997 Z -1.0000 I 1.6309 J 1.3168
G03 X 12.9690 Y 31.9832 Z -1.0000 I 0.9841 J 2.1287
G03 X 13.9523 Y 32.2002 Z -1.0000 I -0.0000 J 2.3365
G03 X 14.6984 Y 32.7855 Z -1.0000 I -0.8722 J 1.8800
G01 X 14.6984 Y 32.7855 Z -1.0000
G00 Z 5.0000

(End cutting path id: path174912)


(Start cutting path id: path174913)
(Change tool to Default tool)

G00 Z 5.0000
G00 X 14.6984 Y 23.0483

G01 Z -1.0000 F 100.0000(Penetrate)
G03 X 15.1412 Y 23.9179 Z -1.0000 I -1.9320 J 1.5313 F 3500.0000
G03 X 15.3343 Y 25.3305 Z -1.0000 I -5.0695 J 1.4126
G03 X 15.1399 Y 26.7362 Z -1.0000 I -5.1794 J 0.0000
G03 X 14.6925 Y 27.6067 Z -1.0000 I -2.3715 J -0.6687
G03 X 13.9504 Y 28.1963 Z -1.0000 I -1.6142 J -1.2700
G03 X 12.9690 Y 28.4150 Z -1.0000 I -0.9814 J -2.0927
G03 X 11.9848 Y 28.1985 Z -1.0000 I 0.0000 J -2.3451
G03 X 11.2336 Y 27.6127 Z -1.0000 I 0.8796 J -1.9026
G03 X 10.7821 Y 26.7410 Z -1.0000 I 1.9097 J -1.5419
G03 X 10.5858 Y 25.3305 Z -1.0000 I 4.9690 J -1.4105
G03 X 10.7821 Y 23.9200 Z -1.0000 I 5.1653 J -0.0000
G03 X 11.2336 Y 23.0483 Z -1.0000 I 2.3612 J 0.6702
G03 X 11.9848 Y 22.4625 Z -1.0000 I 1.6309 J 1.3168
G03 X 12.9690 Y 22.2460 Z -1.0000 I 0.9841 J 2.1287
G03 X 13.9523 Y 22.4630 Z -1.0000 I 0.0000 J 2.3365
G03 X 14.6984 Y 23.0483 Z -1.0000 I -0.8722 J 1.8800
G01 X 14.6984 Y 23.0483 Z -1.0000
G00 Z 5.0000

(End cutting path id: path174913)


(Start cutting path id: path174913)
(Change tool to Default tool)

G00 Z 5.0000
G00 X 12.9690 Y 20.6949

G01 Z -1.0000 F 100.0000(Penetrate)
G02 X 11.2188 Y 20.9972 Z -1.0000 I -0.0000 J 5.2171 F 3500.0000
G02 X 10.0985 Y 21.7171 Z -1.0000 I 0.9839 J 2.7630
G02 X 9.1579 Y 23.1398 Z -1.0000 I 2.5523 J 2.7096
G02 X 8.7672 Y 25.3305 Z -1.0000 I 5.9462 J 2.1907
G02 X 9.1650 Y 27.5611 Z -1.0000 I 6.4523 J -0.0000
G02 X 10.0985 Y 28.9439 Z -1.0000 I 3.2826 J -1.2094
G02 X 11.2188 Y 29.6638 Z -1.0000 I 2.1043 J -2.0431
G02 X 12.9690 Y 29.9661 Z -1.0000 I 1.7502 J -4.9147
G02 X 14.7192 Y 29.6638 Z -1.0000 I -0.0000 J -5.2171
G02 X 15.8395 Y 28.9439 Z -1.0000 I -0.9839 J -2.7630
G02 X 16.7684 Y 27.5623 Z -1.0000 I -2.3538 J -2.5857
G02 X 17.1648 Y 25.3305 Z -1.0000 I -6.0849 J -2.2318
G02 X 16.7755 Y 23.1387 Z -1.0000 I -6.3652 J -0.0000
G02 X 15.8395 Y 21.7171 Z -1.0000 I -3.4935 J 1.2813
G02 X 14.7192 Y 20.9972 Z -1.0000 I -2.1043 J 2.0431
G02 X 12.9690 Y 20.6949 Z -1.0000 I -1.7502 J 4.9147
G01 X 12.9690 Y 20.6949 Z -1.0000
G00 Z 5.0000

(End cutting path id: path174913)


(Start cutting path id: path174913)
(Change tool to Default tool)

G00 Z 5.0000
G00 X 23.9340 Y 21.1525

G01 Z -1.0000 F 100.0000(Penetrate)
G02 X 23.1734 Y 20.8326 Z -1.0000 I -1.4168 J 2.3046 F 3500.0000
G02 X 22.1511 Y 20.7068 Z -1.0000 I -1.0223 J 4.0891
G02 X 20.5519 Y 21.0310 Z -1.0000 I -0.0000 J 4.1055
G02 X 19.2984 Y 21.9132 Z -1.0000 I 1.4112 J 3.3369
G02 X 18.4738 Y 23.2597 Z -1.0000 I 2.6956 J 2.5766
G02 X 18.1395 Y 25.2295 Z -1.0000 I 5.6367 J 1.9698
G02 X 18.4729 Y 27.2279 Z -1.0000 I 6.1562 J 0.0000
G02 X 19.3103 Y 28.6408 Z -1.0000 I 3.8265 J -1.3133
G02 X 20.6366 Y 29.5722 Z -1.0000 I 2.7537 J -2.5115
G02 X 22.4066 Y 29.9245 Z -1.0000 I 1.7700 J -4.2694
G02 X 23.9875 Y 29.6799 Z -1.0000 I 0.0000 J -5.2303
G02 X 25.0870 Y 29.0747 Z -1.0000 I -0.9732 J -3.0693
G02 X 25.8837 Y 28.1116 Z -1.0000 I -2.1514 J -2.5908
G02 X 26.2518 Y 26.9649 Z -1.0000 I -2.7370 J -1.5112
G01 X 24.4511 Y 26.9649 Z -1.0000
G03 X 24.0790 Y 27.7265 Z -1.0000 I -1.8373 J -0.4259
G03 X 23.4348 Y 28.2189 Z -1.0000 I -1.3409 J -1.0867
G03 X 22.9722 Y 28.3626 Z -1.0000 I -0.8916 J -2.0533
G03 X 22.4304 Y 28.4150 Z -1.0000 I -0.5418 J -2.7748
G03 X 21.4698 Y 28.2043 Z -1.0000 I -0.0000 J -2.2955
G03 X 20.6891 Y 27.6127 Z -1.0000 I 0.9531 J -2.0687
G03 X 20.2229 Y 26.7386 Z -1.0000 I 1.7687 J -1.5048
G03 X 20.0116 Y 25.2116 Z -1.0000 I 5.4112 J -1.5269
G03 X 20.2490 Y 23.7000 Z -1.0000 I 4.9309 J -0.0000
G03 X 20.7485 Y 22.9235 Z -1.0000 I 1.7085 J 0.5503
G03 X 21.5507 Y 22.4205 Z -1.0000 I 1.7916 J 1.9660
G03 X 22.4245 Y 22.2520 Z -1.0000 I 0.8737 J 2.1805
G03 X 23.2892 Y 22.3991 Z -1.0000 I -0.0000 J 2.6151
G03 X 23.9340 Y 22.7809 Z -1.0000 I -0.6311 J 1.8010
G03 X 24.3975 Y 23.3832 Z -1.0000 I -1.4512 J 1.5963
G03 X 24.6591 Y 24.1775 Z -1.0000 I -2.3183 J 1.2036
G01 X 22.6325 Y 24.1775 Z -1.0000
G01 X 22.6325 Y 25.6395 Z -1.0000
G01 X 26.2816 Y 25.6395 Z -1.0000
G01 X 26.2816 Y 20.9385 Z -1.0000
G01 X 25.0692 Y 20.9385 Z -1.0000
G01 X 24.8849 Y 22.0321 Z -1.0000
G02 X 24.3237 Y 21.4459 Z -1.0000 I -5.1096 J 4.3310
G02 X 23.9340 Y 21.1525 Z -1.0000 I -1.6433 J 1.7765
G01 X 23.9340 Y 21.1525 Z -1.0000
G00 Z 5.0000

(End cutting path id: path174913)


(Start cutting path id: path174912)
(Change tool to Default tool)

G00 Z 5.0000
G00 X 24.9265 Y 39.4359

G01 Z -1.0000 F 100.0000(Penetrate)
G01 X 24.9265 Y 37.8847 Z -1.0000 F 3500.0000
G01 X 22.3056 Y 37.8847 Z -1.0000
G01 X 22.3056 Y 30.6757 Z -1.0000
G01 X 20.4632 Y 30.6757 Z -1.0000
G01 X 20.4632 Y 37.8847 Z -1.0000
G01 X 17.8304 Y 37.8847 Z -1.0000
G01 X 17.8304 Y 39.4359 Z -1.0000
G01 X 24.9265 Y 39.4359 Z -1.0000
G00 Z 5.0000

(End cutting path id: path174912)



(Footer)
M5
G00 X0.0000 Y0.0000
M2
(Using default footer. To add your own footer create file "footer" in the output dir.)
(end)
%