%
(Header)
(Generated by gcodetools from Inkscape.)
(Using default header. To add your own header create file "header" in the output dir.)
M3
(Header end.)
G21 (All units in mm)

(Start cutting path id: text5608)
(Change tool to Default tool)

G00 Z5.000000
G00 X5.329390 Y29.951891

G01 Z-1.000000 F100.0(Penetrate)
G01 X5.329390 Y33.632418 Z-1.000000 F3500.000000
G01 X2.107531 Y33.632418 Z-1.000000
G01 X2.107531 Y29.951891 Z-1.000000
G01 X0.401512 Y29.951891 Z-1.000000
G01 X0.401512 Y38.196718 Z-1.000000
G01 X2.107531 Y38.196718 Z-1.000000
G01 X2.107531 Y35.053168 Z-1.000000
G01 X5.329390 Y35.053168 Z-1.000000
G01 X5.329390 Y38.196718 Z-1.000000
G01 X7.041003 Y38.196718 Z-1.000000
G01 X7.041003 Y29.951891 Z-1.000000
G01 X5.329390 Y29.951891 Z-1.000000
G00 Z5.000000

(End cutting path id: text5608)


(Start cutting path id: text5608)
(Change tool to Default tool)

G00 Z5.000000
G00 X12.332459 Y29.722557

G01 Z-1.000000 F100.0(Penetrate)
G02 X10.685239 Y30.007099 Z-1.000000 I0.000000 J4.910164 F3500.000000
G02 X9.630796 Y30.684640 Z-1.000000 I0.926042 J2.600454
G02 X8.745580 Y32.023664 Z-1.000000 I2.402164 J2.550164
G02 X8.377851 Y34.085492 Z-1.000000 I5.596388 J2.061827
G02 X8.752278 Y36.184877 Z-1.000000 I6.072760 J-0.000000
G02 X9.630796 Y37.486343 Z-1.000000 I3.089497 J-1.138236
G02 X10.685239 Y38.163884 Z-1.000000 I1.980485 J-1.922913
G02 X12.332459 Y38.448426 Z-1.000000 I1.647220 J-4.625623
G02 X13.979680 Y38.163884 Z-1.000000 I0.000000 J-4.910170
G02 X15.034123 Y37.486343 Z-1.000000 I-0.926041 J-2.600454
G02 X15.908420 Y36.185983 Z-1.000000 I-2.215294 J-2.433548
G02 X16.281474 Y34.085492 Z-1.000000 I-5.726903 J-2.100491
G02 X15.915097 Y32.022596 Z-1.000000 I-5.990779 J0.000000
G02 X15.034123 Y30.684640 Z-1.000000 I-3.287997 J1.205959
G02 X13.979680 Y30.007099 Z-1.000000 I-1.980485 J1.922913
G02 X12.332459 Y29.722557 Z-1.000000 I-1.647221 J4.625626
G01 X12.332459 Y29.722557 Z-1.000000
G00 Z5.000000

(End cutting path id: text5608)


(Start cutting path id: text5608)
(Change tool to Default tool)

G00 Z5.000000
G00 X13.960169 Y31.937586

G01 Z-1.000000 F100.0(Penetrate)
G03 X14.376909 Y32.756006 Z-1.000000 I-1.818365 J1.441225 F3500.000000
G03 X14.558675 Y34.085492 Z-1.000000 I-4.771229 J1.329485
G03 X14.375709 Y35.408500 Z-1.000000 I-4.874743 J-0.000000
G03 X13.954576 Y36.227804 Z-1.000000 I-2.231998 J-0.629389
G03 X13.256115 Y36.782695 Z-1.000000 I-1.519228 J-1.195275
G03 X12.332459 Y36.988521 Z-1.000000 I-0.923656 J-1.969560
G03 X11.406213 Y36.784767 Z-1.000000 I-0.000000 J-2.207188
G03 X10.699156 Y36.233398 Z-1.000000 I0.827892 J-1.790698
G03 X10.274223 Y35.412997 Z-1.000000 I1.797371 J-1.451211
G03 X10.089464 Y34.085492 Z-1.000000 I4.676718 J-1.327506
G03 X10.274223 Y32.757986 Z-1.000000 I4.861477 J0.000000
G03 X10.699156 Y31.937586 Z-1.000000 I2.222304 J0.630810
G03 X11.406213 Y31.386216 Z-1.000000 I1.534949 J1.239329
G03 X12.332459 Y31.182462 Z-1.000000 I0.926246 J2.003434
G03 X13.257920 Y31.386678 Z-1.000000 I0.000000 J2.199098
G03 X13.960169 Y31.937586 Z-1.000000 I-0.820849 J1.769384
G01 X13.960169 Y31.937586 Z-1.000000
G00 Z5.000000

(End cutting path id: text5608)


(Start cutting path id: text5608)
(Change tool to Default tool)

G00 Z5.000000
G00 X22.473486 Y33.129002

G01 Z-1.000000 F100.0(Penetrate)
G01 X22.473486 Y38.196718 Z-1.000000 F3500.000000
G01 X24.224254 Y38.196718 Z-1.000000
G01 X24.224254 Y33.129002 Z-1.000000
G02 X24.097692 Y31.847411 Z-1.000000 I-6.552071 J0.000000
G02 X23.815928 Y31.081779 Z-1.000000 I-2.578674 J0.514326
G02 X22.811754 Y30.157126 Z-1.000000 I-1.940165 J1.099427
G02 X20.912898 Y29.739338 Z-1.000000 I-1.898856 J4.106277
G02 X19.012886 Y30.156651 Z-1.000000 I0.000000 J4.534006
G02 X18.004275 Y31.081779 Z-1.000000 I0.940497 J2.037744
G02 X17.722511 Y31.847411 Z-1.000000 I2.296911 J1.279958
G02 X17.595949 Y33.129002 Z-1.000000 I6.425509 J1.281591
G01 X17.595949 Y38.196718 Z-1.000000
G01 X19.346717 Y38.196718 Z-1.000000
G01 X19.346717 Y33.129002 Z-1.000000
G03 X19.413896 Y32.295052 Z-1.000000 I5.209880 J-0.000000
G03 X19.548083 Y31.887244 Z-1.000000 I1.354123 J0.219587
G03 X20.002159 Y31.411790 Z-1.000000 I0.902929 J0.407774
G03 X20.912898 Y31.193649 Z-1.000000 I0.910739 J1.792100
G03 X21.818349 Y31.411319 Z-1.000000 I-0.000000 J1.992061
G03 X22.272120 Y31.887244 Z-1.000000 I-0.451475 J0.884746
G03 X22.406307 Y32.295052 Z-1.000000 I-1.219936 J0.627395
G03 X22.473486 Y33.129002 Z-1.000000 I-5.142701 J0.833951
G01 X22.473486 Y33.129002 Z-1.000000
G00 Z5.000000

(End cutting path id: text5608)


(Start cutting path id: text5608)
(Change tool to Default tool)

G00 Z5.000000
G00 X28.861268 Y31.143308

G01 Z-1.000000 F100.0(Penetrate)
G03 X29.463992 Y31.183984 Z-1.000000 I0.000000 J4.485768 F3500.000000
G03 X29.851318 Y31.277552 Z-1.000000 I-0.262236 J1.933991
G03 X30.383457 Y31.668413 Z-1.000000 I-0.386495 J1.083865
G03 X30.572880 Y32.234041 Z-1.000000 I-0.749787 J0.565628
G03 X30.478991 Y32.590329 Z-1.000000 I-0.722961 J-0.000000
G03 X30.214896 Y32.866107 Z-1.000000 I-0.675610 J-0.382646
G03 X29.840016 Y33.042127 Z-1.000000 I-0.996888 J-1.635917
G03 X29.090601 Y33.252059 Z-1.000000 I-2.196545 J-6.398634
G01 X28.218015 Y33.447832 Z-1.000000
G02 X26.963377 Y33.811176 Z-1.000000 I2.420317 J10.705255
G02 X26.439280 Y34.079898 Z-1.000000 I0.747187 J2.102705
G02 X25.847099 Y34.777649 Z-1.000000 I0.980527 J1.432339
G02 X25.605847 Y35.864227 Z-1.000000 I2.326294 J1.086577
G02 X25.817979 Y36.877944 Z-1.000000 I2.528193 J-0.000000
G02 X26.411312 Y37.704490 Z-1.000000 I2.235306 J-0.978371
G02 X27.303060 Y38.214174 Z-1.000000 I1.591319 J-1.749236
G02 X28.777365 Y38.437239 Z-1.000000 I1.474305 J-4.760543
G02 X30.017202 Y38.248117 Z-1.000000 I0.000000 J-4.158601
G02 X30.997987 Y37.743644 Z-1.000000 I-0.958813 J-3.069747
G02 X31.673100 Y36.925959 Z-1.000000 I-1.332901 J-1.788038
G02 X31.965663 Y35.741169 Z-1.000000 I-2.659743 J-1.285294
G01 X30.309986 Y35.741169 Z-1.000000
G03 X30.107794 Y36.382792 Z-1.000000 I-1.383148 J-0.083197
G03 X29.661139 Y36.798342 Z-1.000000 I-0.971205 J-0.596084
G03 X29.243957 Y36.945570 Z-1.000000 I-0.748812 J-1.457146
G03 X28.659901 Y37.005302 Z-1.000000 I-0.584056 J-2.825571
G03 X28.018700 Y36.925560 Z-1.000000 I0.000000 J-2.617829
G03 X27.597135 Y36.736813 Z-1.000000 I0.327655 J-1.296968
G03 X27.305621 Y36.412235 Z-1.000000 I0.504613 J-0.746406
G03 X27.199996 Y35.987284 Z-1.000000 I0.802021 J-0.424952
G03 X27.304379 Y35.606731 Z-1.000000 I0.745885 J-0.000000
G03 X27.591542 Y35.327250 Z-1.000000 I0.661507 J0.392420
G03 X27.854862 Y35.210991 Z-1.000000 I0.667060 J1.154528
G03 X28.665495 Y34.986046 Z-1.000000 I3.448692 J10.854901
G01 X30.086245 Y34.644842 Z-1.000000
G02 X30.985227 Y34.348611 Z-1.000000 I-1.326178 J-5.536796
G02 X31.495809 Y34.046337 Z-1.000000 I-0.874405 J-2.059347
G02 X32.024480 Y33.362878 Z-1.000000 I-1.101854 J-1.398507
G02 X32.234152 Y32.362692 Z-1.000000 I-2.280726 J-1.000186
G02 X32.008733 Y31.335904 Z-1.000000 I-2.451228 J-0.000000
G02 X31.367158 Y30.483274 Z-1.000000 I-2.293261 J1.057904
G02 X30.422841 Y29.962207 Z-1.000000 I-1.705760 J1.975092
G02 X28.928390 Y29.739338 Z-1.000000 I-1.494451 J4.899102
G02 X27.393304 Y29.956842 Z-1.000000 I-0.000000 J5.525857
G02 X26.394532 Y30.472087 Z-1.000000 I0.806577 J2.789158
G02 X25.724571 Y31.332012 Z-1.000000 I1.467257 J1.834072
G02 X25.471603 Y32.496936 Z-1.000000 I2.555770 J1.164924
G01 X27.116094 Y32.496936 Z-1.000000
G03 X27.250373 Y31.956470 Z-1.000000 I2.612214 J0.362093
G03 X27.423737 Y31.652317 Z-1.000000 I0.979270 J0.356688
G03 X27.919569 Y31.305107 Z-1.000000 I0.873763 J0.720135
G03 X28.861268 Y31.143308 Z-1.000000 I0.941699 J2.659524
G01 X28.861268 Y31.143308 Z-1.000000
G00 Z5.000000

(End cutting path id: text5608)


(Start cutting path id: text5608)
(Change tool to Default tool)

G00 Z5.000000
G00 X39.248407 Y33.554109

G01 Z-1.000000 F100.0(Penetrate)
G01 X35.243457 Y33.554109 Z-1.000000 F3500.000000
G01 X35.243457 Y31.434170 Z-1.000000
G01 X39.807758 Y31.434170 Z-1.000000
G01 X39.807758 Y29.951891 Z-1.000000
G01 X33.559812 Y29.951891 Z-1.000000
G01 X33.559812 Y38.196718 Z-1.000000
G01 X39.606391 Y38.196718 Z-1.000000
G01 X39.606391 Y36.736813 Z-1.000000
G01 X35.243457 Y36.736813 Z-1.000000
G01 X35.243457 Y34.986046 Z-1.000000
G01 X39.248407 Y34.986046 Z-1.000000
G01 X39.248407 Y33.554109 Z-1.000000
G00 Z5.000000

(End cutting path id: text5608)


(Footer)
M5
G00 X0.0000 Y0.0000
M2
(Using default footer. To add your own footer create file "footer" in the output dir.)
(end)
%