%
(Header)
(Generated by gcodetools from Inkscape.)
(Using default header. To add your own header create file "header" in the output dir.)
M3
(Header end.)
G21 (All units in mm)

(Start cutting path id: text70939)
(Change tool to Default tool)

G00 Z 5.0000
G00 X 4.7922 Y 0.4227

G01 Z -1.0000 F 100.0000(Penetrate)
G01 X 3.4340 Y 0.4227 Z -1.0000 F 3500.0000
G01 X 1.8734 Y 2.6315 Z -1.0000
G01 X 1.3692 Y 2.1136 Z -1.0000
G01 X 1.3692 Y 0.4227 Z -1.0000
G01 X 0.3299 Y 0.4227 Z -1.0000
G01 X 0.3299 Y 5.4784 Z -1.0000
G01 X 1.3692 Y 5.4784 Z -1.0000
G01 X 1.3692 Y 3.3964 Z -1.0000
G01 X 3.3208 Y 5.4784 Z -1.0000
G01 X 4.6859 Y 5.4784 Z -1.0000
G01 X 2.6142 Y 3.3964 Z -1.0000
G01 X 4.7922 Y 0.4227 Z -1.0000
G00 Z 5.0000

(End cutting path id: text70939)


(Start cutting path id: text70939)
(Change tool to Default tool)

G00 Z 5.0000
G00 X 8.9047 Y 2.6315

G01 Z -1.0000 F 100.0000(Penetrate)
G01 X 6.4489 Y 2.6315 Z -1.0000 F 3500.0000
G01 X 6.4489 Y 1.3316 Z -1.0000
G01 X 9.2476 Y 1.3316 Z -1.0000
G01 X 9.2476 Y 0.4227 Z -1.0000
G01 X 5.4165 Y 0.4227 Z -1.0000
G01 X 5.4165 Y 5.4784 Z -1.0000
G01 X 9.1242 Y 5.4784 Z -1.0000
G01 X 9.1242 Y 4.5832 Z -1.0000
G01 X 6.4489 Y 4.5832 Z -1.0000
G01 X 6.4489 Y 3.5096 Z -1.0000
G01 X 8.9047 Y 3.5096 Z -1.0000
G01 X 8.9047 Y 2.6315 Z -1.0000
G00 Z 5.0000

(End cutting path id: text70939)


(Start cutting path id: text70939)
(Change tool to Default tool)

G00 Z 5.0000
G00 X 14.1524 Y 5.4784

G01 Z -1.0000 F 100.0000(Penetrate)
G01 X 12.4614 Y 2.3229 Z -1.0000 F 3500.0000
G01 X 12.4614 Y 0.4227 Z -1.0000
G01 X 11.4050 Y 0.4227 Z -1.0000
G01 X 11.4050 Y 2.3229 Z -1.0000
G01 X 9.6558 Y 5.4784 Z -1.0000
G01 X 10.9008 Y 5.4784 Z -1.0000
G01 X 11.9504 Y 3.2764 Z -1.0000
G01 X 12.9554 Y 5.4784 Z -1.0000
G01 X 14.1524 Y 5.4784 Z -1.0000
G00 Z 5.0000

(End cutting path id: text70939)


(Start cutting path id: text70939)
(Change tool to Default tool)

G00 Z 5.0000
G00 X 17.5651 Y 3.6125

G01 Z -1.0000 F 100.0000(Penetrate)
G03 X 17.7082 Y 3.7715 Z -1.0000 I -0.1877 J 0.3128 F 3500.0000
G03 X 17.7709 Y 4.0549 Z -1.0000 I -0.6095 J 0.2835
G03 X 17.6895 Y 4.3538 Z -1.0000 I -0.5894 J -0.0000
G03 X 17.4965 Y 4.5214 Z -1.0000 I -0.3462 J -0.2036
G03 X 17.2560 Y 4.5767 Z -1.0000 I -0.4075 J -1.2223
G03 X 16.8929 Y 4.6003 Z -1.0000 I -0.3632 J -2.7789
G01 X 15.7816 Y 4.6003 Z -1.0000
G01 X 15.7816 Y 3.4856 Z -1.0000
G01 X 17.0232 Y 3.4856 Z -1.0000
G03 X 17.3455 Y 3.5228 Z -1.0000 I 0.0000 J 1.4135
G03 X 17.5651 Y 3.6125 Z -1.0000 I -0.1723 J 0.7359
G01 X 17.5651 Y 3.6125 Z -1.0000
G00 Z 5.0000

(End cutting path id: text70939)


(Start cutting path id: text70939)
(Change tool to Default tool)

G00 Z 5.0000
G00 X 17.0403 Y 2.6487

G01 Z -1.0000 F 100.0000(Penetrate)
G01 X 15.7816 Y 2.6487 Z -1.0000 F 3500.0000
G01 X 15.7816 Y 1.3008 Z -1.0000
G01 X 17.0232 Y 1.3008 Z -1.0000
G03 X 17.3495 Y 1.3286 Z -1.0000 I 0.0000 J 1.9231
G03 X 17.5411 Y 1.3899 Z -1.0000 I -0.1231 J 0.7148
G03 X 17.7765 Y 1.6174 Z -1.0000 I -0.2338 J 0.4774
G03 X 17.8772 Y 2.0210 Z -1.0000 I -0.7578 J 0.4036
G03 X 17.7844 Y 2.3556 Z -1.0000 I -0.6493 J 0.0000
G03 X 17.5514 Y 2.5630 Z -1.0000 I -0.4491 J -0.2700
G03 X 17.3640 Y 2.6200 Z -1.0000 I -0.3129 J -0.6909
G03 X 17.0403 Y 2.6487 Z -1.0000 I -0.3454 J -2.0587
G01 X 17.0403 Y 2.6487 Z -1.0000
G00 Z 5.0000

(End cutting path id: text70939)


(Start cutting path id: text70939)
(Change tool to Default tool)

G00 Z 5.0000
G00 X 17.0644 Y 0.4227

G01 Z -1.0000 F 100.0000(Penetrate)
G01 X 14.7732 Y 0.4227 Z -1.0000 F 3500.0000
G01 X 14.7732 Y 5.4784 Z -1.0000
G01 X 17.2290 Y 5.4784 Z -1.0000
G02 X 18.0766 Y 5.3053 Z -1.0000 I -0.0344 J -2.3303
G02 X 18.5461 Y 4.9399 Z -1.0000 I -0.4171 J -1.0202
G02 X 18.7159 Y 4.5969 Z -1.0000 I -0.9361 J -0.6772
G02 X 18.7793 Y 4.1681 Z -1.0000 I -1.4188 J -0.4288
G02 X 18.7122 Y 3.7293 Z -1.0000 I -1.4675 J 0.0000
G02 X 18.5461 Y 3.4239 Z -1.0000 I -0.8591 J 0.2692
G02 X 18.4005 Y 3.2850 Z -1.0000 I -0.6563 J 0.5422
G02 X 18.1619 Y 3.1357 Z -1.0000 I -0.9998 J 1.3330
G02 X 18.5098 Y 2.9455 Z -1.0000 I -0.4454 J -1.2277
G02 X 18.7450 Y 2.6899 Z -1.0000 I -0.6089 J -0.7962
G02 X 18.8886 Y 2.3682 Z -1.0000 I -0.9402 J -0.6127
G02 X 18.9439 Y 1.9490 Z -1.0000 I -1.5610 J -0.4192
G02 X 18.8844 Y 1.5170 Z -1.0000 I -1.5978 J -0.0000
G02 X 18.7176 Y 1.1430 Z -1.0000 I -1.3565 J 0.3810
G02 X 18.5541 Y 0.9240 Z -1.0000 I -1.2377 J 0.7534
G02 X 18.3574 Y 0.7451 Z -1.0000 I -1.0166 J 0.9202
G02 X 18.0990 Y 0.5928 Z -1.0000 I -0.7736 J 1.0171
G02 X 17.7812 Y 0.4913 Z -1.0000 I -0.6367 J 1.4455
G02 X 17.4500 Y 0.4411 Z -1.0000 I -0.6214 J 2.9826
G02 X 17.0644 Y 0.4227 Z -1.0000 I -0.3857 J 4.0302
G01 X 17.0644 Y 0.4227 Z -1.0000
G00 Z 5.0000

(End cutting path id: text70939)


(Start cutting path id: text70939)
(Change tool to Default tool)

G00 Z 5.0000
G00 X 22.0651 Y 0.2821

G01 Z -1.0000 F 100.0000(Penetrate)
G02 X 21.0551 Y 0.4566 Z -1.0000 I 0.0000 J 3.0109 F 3500.0000
G02 X 20.4085 Y 0.8720 Z -1.0000 I 0.5678 J 1.5946
G02 X 19.8657 Y 1.6931 Z -1.0000 I 1.4730 J 1.5637
G02 X 19.6402 Y 2.9574 Z -1.0000 I 3.4317 J 1.2643
G02 X 19.8698 Y 4.2447 Z -1.0000 I 3.7238 J 0.0000
G02 X 20.4085 Y 5.0428 Z -1.0000 I 1.8945 J -0.6980
G02 X 21.0551 Y 5.4582 Z -1.0000 I 1.2144 J -1.1791
G02 X 22.0651 Y 5.6327 Z -1.0000 I 1.0101 J -2.8364
G02 X 23.0752 Y 5.4582 Z -1.0000 I -0.0000 J -3.0109
G02 X 23.7218 Y 5.0428 Z -1.0000 I -0.5678 J -1.5946
G02 X 24.2579 Y 4.2454 Z -1.0000 I -1.3584 J -1.4922
G02 X 24.4866 Y 2.9574 Z -1.0000 I -3.5117 J -1.2880
G02 X 24.2620 Y 1.6924 Z -1.0000 I -3.6735 J -0.0000
G02 X 23.7218 Y 0.8720 Z -1.0000 I -2.0162 J 0.7395
G02 X 23.0752 Y 0.4566 Z -1.0000 I -1.2144 J 1.1791
G02 X 22.0651 Y 0.2821 Z -1.0000 I -1.0101 J 2.8364
G01 X 22.0651 Y 0.2821 Z -1.0000
G00 Z 5.0000

(End cutting path id: text70939)


(Start cutting path id: text70939)
(Change tool to Default tool)

G00 Z 5.0000
G00 X 23.0632 Y 1.6403

G01 Z -1.0000 F 100.0000(Penetrate)
G03 X 23.3188 Y 2.1422 Z -1.0000 I -1.1150 J 0.8837 F 3500.0000
G03 X 23.4302 Y 2.9574 Z -1.0000 I -2.9257 J 0.8152
G03 X 23.3180 Y 3.7686 Z -1.0000 I -2.9891 J 0.0000
G03 X 23.0598 Y 4.2710 Z -1.0000 I -1.3686 J -0.3859
G03 X 22.6315 Y 4.6113 Z -1.0000 I -0.9316 J -0.7329
G03 X 22.0651 Y 4.7375 Z -1.0000 I -0.5664 J -1.2077
G03 X 21.4972 Y 4.6126 Z -1.0000 I 0.0000 J -1.3534
G03 X 21.0636 Y 4.2745 Z -1.0000 I 0.5077 J -1.0980
G03 X 20.8030 Y 3.7714 Z -1.0000 I 1.1021 J -0.8899
G03 X 20.6897 Y 2.9574 Z -1.0000 I 2.8677 J -0.8140
G03 X 20.8030 Y 2.1434 Z -1.0000 I 2.9810 J -0.0000
G03 X 21.0636 Y 1.6403 Z -1.0000 I 1.3627 J 0.3868
G03 X 21.4972 Y 1.3022 Z -1.0000 I 0.9412 J 0.7599
G03 X 22.0651 Y 1.1773 Z -1.0000 I 0.5680 J 1.2285
G03 X 22.6326 Y 1.3025 Z -1.0000 I 0.0000 J 1.3485
G03 X 23.0632 Y 1.6403 Z -1.0000 I -0.5033 J 1.0850
G01 X 23.0632 Y 1.6403 Z -1.0000
G00 Z 5.0000

(End cutting path id: text70939)


(Start cutting path id: text70939)
(Change tool to Default tool)

G00 Z 5.0000
G00 X 27.9577 Y 2.3331

G01 Z -1.0000 F 100.0000(Penetrate)
G01 X 27.3266 Y 4.3225 Z -1.0000 F 3500.0000
G01 X 26.6749 Y 2.3331 Z -1.0000
G01 X 27.9577 Y 2.3331 Z -1.0000
G00 Z 5.0000

(End cutting path id: text70939)


(Start cutting path id: text70939)
(Change tool to Default tool)

G00 Z 5.0000
G00 X 28.2527 Y 1.4620

G01 Z -1.0000 F 100.0000(Penetrate)
G01 X 26.3902 Y 1.4620 Z -1.0000 F 3500.0000
G01 X 26.0404 Y 0.4227 Z -1.0000
G01 X 24.9359 Y 0.4227 Z -1.0000
G01 X 26.7401 Y 5.4784 Z -1.0000
G01 X 27.9337 Y 5.4784 Z -1.0000
G01 X 29.7241 Y 0.4227 Z -1.0000
G01 X 28.5785 Y 0.4227 Z -1.0000
G01 X 28.2527 Y 1.4620 Z -1.0000
G00 Z 5.0000

(End cutting path id: text70939)


(Start cutting path id: text70939)
(Change tool to Default tool)

G00 Z 5.0000
G00 X 32.5126 Y 2.4052

G01 Z -1.0000 F 100.0000(Penetrate)
G01 X 31.4219 Y 2.4052 Z -1.0000 F 3500.0000
G01 X 31.4219 Y 0.4227 Z -1.0000
G01 X 30.3895 Y 0.4227 Z -1.0000
G01 X 30.3895 Y 5.4784 Z -1.0000
G01 X 32.8693 Y 5.4784 Z -1.0000
G02 X 33.3932 Y 5.4317 Z -1.0000 I -0.0733 J -3.7871
G02 X 33.6856 Y 5.3480 Z -1.0000 I -0.1997 J -1.2506
G02 X 33.9522 Y 5.1985 Z -1.0000 I -0.5063 J -1.2151
G02 X 34.1726 Y 4.9947 Z -1.0000 I -0.7452 J -1.0273
G02 X 34.3201 Y 4.7922 Z -1.0000 I -1.1995 J -1.0282
G02 X 34.4333 Y 4.5694 Z -1.0000 I -1.3390 J -0.8207
G02 X 34.5031 Y 4.3310 Z -1.0000 I -1.0861 J -0.4472
G02 X 34.5293 Y 4.0378 Z -1.0000 I -1.6230 J -0.2932
G02 X 34.4853 Y 3.6884 Z -1.0000 I -1.4086 J 0.0000
G02 X 34.3476 Y 3.3278 Z -1.0000 I -1.6397 J 0.4198
G02 X 34.1140 Y 3.0417 Z -1.0000 I -0.8182 J 0.4294
G02 X 33.7473 Y 2.8373 Z -1.0000 I -0.7552 J 0.9242
G02 X 34.0591 Y 2.6537 Z -1.0000 I -0.4514 J -1.1230
G02 X 34.2412 Y 2.4360 Z -1.0000 I -0.4694 J -0.5777
G02 X 34.3406 Y 2.1660 Z -1.0000 I -0.7470 J -0.4283
G02 X 34.3887 Y 1.6472 Z -1.0000 I -2.7751 J -0.5188
G01 X 34.3887 Y 1.3076 Z -1.0000
G03 X 34.3988 Y 0.9623 Z -1.0000 I 5.9234 J -0.0000
G03 X 34.4162 Y 0.8377 Z -1.0000 I 0.7840 J 0.0458
G03 X 34.4889 Y 0.6645 Z -1.0000 I 0.4861 J 0.1023
G03 X 34.6082 Y 0.5496 Z -1.0000 I 0.3212 J 0.2141
G01 X 34.6082 Y 0.4227 Z -1.0000
G01 X 33.4455 Y 0.4227 Z -1.0000
G02 X 33.4001 Y 0.5914 Z -1.0000 I 5.5356 J 1.5817
G02 X 33.3769 Y 0.6937 Z -1.0000 I 2.0107 J 0.5091
G02 X 33.3454 Y 0.9073 Z -1.0000 I 2.3783 J 0.4603
G02 X 33.3323 Y 1.1293 Z -1.0000 I 2.5540 J 0.2614
G01 X 33.3254 Y 1.5992 Z -1.0000
G03 X 33.2599 Y 2.0569 Z -1.0000 I -1.8141 J -0.0259
G03 X 33.1471 Y 2.2440 Z -1.0000 I -0.3902 J -0.1079
G03 X 32.9567 Y 2.3496 Z -1.0000 I -0.2955 J -0.3081
G03 X 32.5125 Y 2.4052 Z -1.0000 I -0.4441 J -1.7482
G01 X 32.5126 Y 2.4052 Z -1.0000
G00 Z 5.0000

(End cutting path id: text70939)


(Start cutting path id: text70939)
(Change tool to Default tool)

G00 Z 5.0000
G00 X 33.1540 Y 3.3244

G01 Z -1.0000 F 100.0000(Penetrate)
G03 X 33.3752 Y 3.5291 Z -1.0000 I -0.2000 J 0.4381 F 3500.0000
G03 X 33.4695 Y 3.8937 Z -1.0000 I -0.6580 J 0.3647
G03 X 33.3755 Y 4.2961 Z -1.0000 I -0.9078 J 0.0000
G03 X 33.1642 Y 4.5111 Z -1.0000 I -0.4330 J -0.2141
G03 X 32.9857 Y 4.5714 Z -1.0000 I -0.2835 J -0.5452
G03 X 32.6498 Y 4.6003 Z -1.0000 I -0.3359 J -1.9380
G01 X 31.4219 Y 4.6003 Z -1.0000
G01 X 31.4219 Y 3.2421 Z -1.0000
G01 X 32.6189 Y 3.2421 Z -1.0000
G03 X 32.9697 Y 3.2689 Z -1.0000 I 0.0000 J 2.3071
G03 X 33.1540 Y 3.3244 Z -1.0000 I -0.1049 J 0.6820
G01 X 33.1540 Y 3.3244 Z -1.0000
G00 Z 5.0000

(End cutting path id: text70939)


(Start cutting path id: text70939)
(Change tool to Default tool)

G00 Z 5.0000
G00 X 38.4017 Y 4.1887

G01 Z -1.0000 F 100.0000(Penetrate)
G03 X 38.0829 Y 4.4683 Z -1.0000 I -0.5863 J -0.3469 F 3500.0000
G03 X 37.4379 Y 4.6003 Z -1.0000 I -0.6450 J -1.5104
G01 X 36.4638 Y 4.6003 Z -1.0000
G01 X 36.4638 Y 1.3008 Z -1.0000
G01 X 37.4379 Y 1.3008 Z -1.0000
G03 X 38.0532 Y 1.4963 Z -1.0000 I -0.0000 J 1.0656
G03 X 38.4806 Y 2.0382 Z -1.0000 I -0.7030 J 0.9940
G03 X 38.5961 Y 2.4517 Z -1.0000 I -1.8733 J 0.7461
G03 X 38.6418 Y 3.0020 Z -1.0000 I -3.2901 J 0.5503
G03 X 38.5665 Y 3.7535 Z -1.0000 I -3.7899 J -0.0000
G03 X 38.4017 Y 4.1887 Z -1.0000 I -1.4104 J -0.2853
G01 X 38.4017 Y 4.1887 Z -1.0000
G00 Z 5.0000

(End cutting path id: text70939)


(Start cutting path id: text70939)
(Change tool to Default tool)

G00 Z 5.0000
G00 X 37.6162 Y 0.4227

G01 Z -1.0000 F 100.0000(Penetrate)
G01 X 35.4383 Y 0.4227 Z -1.0000 F 3500.0000
G01 X 35.4383 Y 5.4784 Z -1.0000
G01 X 37.6162 Y 5.4784 Z -1.0000
G02 X 38.0813 Y 5.4424 Z -1.0000 I -0.0549 J -3.7405
G02 X 38.3983 Y 5.3686 Z -1.0000 I -0.2532 J -1.8042
G02 X 38.8758 Y 5.1205 Z -1.0000 I -0.5239 J -1.5922
G02 X 39.2592 Y 4.7272 Z -1.0000 I -1.0434 J -1.4004
G02 X 39.4819 Y 4.3318 Z -1.0000 I -1.9074 J -1.3352
G02 X 39.6193 Y 3.9109 Z -1.0000 I -2.0275 J -0.8945
G02 X 39.6927 Y 3.4694 Z -1.0000 I -4.3260 J -0.9463
G02 X 39.7153 Y 3.0740 Z -1.0000 I -3.4457 J -0.3954
G02 X 39.6011 Y 2.0963 Z -1.0000 I -4.2406 J 0.0000
G02 X 39.3106 Y 1.3659 Z -1.0000 I -2.6308 J 0.6234
G02 X 38.6130 Y 0.6814 Z -1.0000 I -1.5953 J 0.9282
G02 X 37.6162 Y 0.4227 Z -1.0000 I -0.9968 J 1.7906
G01 X 37.6162 Y 0.4227 Z -1.0000
G00 Z 5.0000

(End cutting path id: text70939)



(Footer)
M5
G00 X0.0000 Y0.0000
M2
(Using default footer. To add your own footer create file "footer" in the output dir.)
(end)
%