%
(Header)
(Generated by gcodetools from Inkscape.)
(Using default header. To add your own header create file "header" in the output dir.)
M3
(Header end.)
G21 (All units in mm)

(Start cutting path id: text975)
(Change tool to Default tool)

G00 Z5.000000
G00 X9.535862 Y15.008558

G01 Z-1.000000 F100.0(Penetrate)
G01 X7.698599 Y15.008558 Z-1.000000 F3500.000000
G01 X3.304407 Y20.918280 Z-1.000000
G01 X2.042876 Y19.809149 Z-1.000000
G01 X2.042876 Y15.008558 Z-1.000000
G01 X0.485013 Y15.008558 Z-1.000000
G01 X0.485013 Y27.386802 Z-1.000000
G01 X2.042876 Y27.386802 Z-1.000000
G01 X2.042876 Y21.282346 Z-1.000000
G01 X3.109674 Y22.459211 Z-1.000000
G01 X7.520799 Y27.386802 Z-1.000000
G01 X9.341129 Y27.386802 Z-1.000000
G01 X4.438939 Y21.993545 Z-1.000000
G01 X9.535862 Y15.008558 Z-1.000000
G00 Z5.000000

(End cutting path id: text975)


(Start cutting path id: text975)
(Change tool to Default tool)

G00 Z5.000000
G00 X17.342114 Y15.008558

G01 Z-1.000000 F100.0(Penetrate)
G01 X17.342114 Y20.952147 Z-1.000000 F3500.000000
G03 X17.183921 Y22.024827 Z-1.000000 I-3.715917 J0.000000
G03 X16.834115 Y22.637011 Z-1.000000 I-1.504390 J-0.453585
G03 X16.257688 Y23.023930 Z-1.000000 I-1.045292 J-0.934427
G03 X15.259318 Y23.195810 Z-1.000000 I-0.998370 J-2.813587
G03 X13.943447 Y22.952966 Z-1.000000 I-0.000000 J-3.686503
G03 X13.176522 Y22.399944 Z-1.000000 I0.657026 J-1.719448
G03 X12.743731 Y21.537412 Z-1.000000 I1.711426 J-1.398587
G03 X12.533056 Y19.826083 Z-1.000000 I6.845310 J-1.711329
G01 X12.533056 Y15.008558 Z-1.000000
G01 X11.009059 Y15.008558 Z-1.000000
G01 X11.009059 Y24.304941 Z-1.000000
G01 X12.236724 Y24.304941 Z-1.000000
G01 X12.465323 Y23.034943 Z-1.000000
G01 X12.549993 Y23.034943 Z-1.000000
G02 X13.060535 Y23.632308 Z-1.000000 I2.296836 J-1.446155
G02 X13.760724 Y24.093275 Z-1.000000 I2.032930 J-2.325671
G02 X14.562888 Y24.373903 Z-1.000000 I1.580789 J-3.231839
G02 X15.479454 Y24.474274 Z-1.000000 I0.916566 J-4.134733
G02 X17.083918 Y24.218853 Z-1.000000 I-0.000000 J-5.167044
G02 X18.019449 Y23.644542 Z-1.000000 I-0.732498 J-2.242340
G02 X18.591272 Y22.707981 Z-1.000000 I-1.650676 J-1.650676
G02 X18.849181 Y21.062214 Z-1.000000 I-5.122027 J-1.645767
G01 X18.849181 Y15.008558 Z-1.000000
G01 X17.342114 Y15.008558 Z-1.000000
G00 Z5.000000

(End cutting path id: text975)


(Start cutting path id: text975)
(Change tool to Default tool)

G00 Z5.000000
G00 X23.251836 Y15.008558

G01 Z-1.000000 F100.0(Penetrate)
G01 X21.727839 Y15.008558 Z-1.000000 F3500.000000
G01 X21.727839 Y24.304941 Z-1.000000
G01 X23.251836 Y24.304941 Z-1.000000
G01 X23.251836 Y15.008558 Z-1.000000
G00 Z5.000000

(End cutting path id: text975)


(Start cutting path id: text975)
(Change tool to Default tool)

G00 Z5.000000
G00 X30.482356 Y23.119610

G01 Z-1.000000 F100.0(Penetrate)
G01 X28.137094 Y23.119610 Z-1.000000 F3500.000000
G01 X28.137094 Y15.008558 Z-1.000000
G01 X26.613097 Y15.008558 Z-1.000000
G01 X26.613097 Y23.119610 Z-1.000000
G01 X24.987500 Y23.119610 Z-1.000000
G01 X24.987500 Y23.830808 Z-1.000000
G01 X26.613097 Y24.355741 Z-1.000000
G01 X26.613097 Y24.889140 Z-1.000000
G02 X26.841532 Y26.497009 Z-1.000000 I5.772807 J-0.000000
G02 X27.349696 Y27.429135 Z-1.000000 I2.369359 J-0.687115
G02 X28.210259 Y28.020311 Z-1.000000 I1.601481 J-1.409303
G02 X29.635691 Y28.275800 Z-1.000000 I1.425432 J-3.848666
G02 X30.512107 Y28.200245 Z-1.000000 I-0.000000 J-5.120869
G02 X31.439088 Y27.962534 Z-1.000000 I-1.037230 J-5.971085
G01 X31.032689 Y26.768736 Z-1.000000
G03 X30.236903 Y26.969416 Z-1.000000 I-1.939053 J-6.011056
G03 X29.652625 Y27.022736 Z-1.000000 I-0.584278 J-3.174570
G03 X28.956968 Y26.875108 Z-1.000000 I0.000000 J-1.712857
G03 X28.509627 Y26.514737 Z-1.000000 I0.453903 J-1.021282
G03 X28.258339 Y25.967046 Z-1.000000 I1.207530 J-0.885523
G03 X28.137094 Y24.906073 Z-1.000000 I4.581470 J-1.060973
G01 X28.137094 Y24.304941 Z-1.000000
G01 X30.482356 Y24.304941 Z-1.000000
G01 X30.482356 Y23.119610 Z-1.000000
G00 Z5.000000

(End cutting path id: text975)


(Start cutting path id: text975)
(Change tool to Default tool)

G00 Z5.000000
G00 X35.740146 Y23.229676

G01 Z-1.000000 F100.0(Penetrate)
G03 X34.735271 Y23.033078 Z-1.000000 I0.000000 J-2.666413 F3500.000000
G03 X34.012949 Y22.526944 Z-1.000000 I0.745606 J-1.832575
G03 X33.537649 Y21.753934 Z-1.000000 I1.844636 J-1.666838
G03 X33.259417 Y20.571148 Z-1.000000 I4.159489 J-1.602574
G01 X37.992275 Y20.571148 Z-1.000000
G03 X37.800440 Y21.808708 Z-1.000000 I-4.461480 J-0.057930
G03 X37.391143 Y22.552344 Z-1.000000 I-1.961516 J-0.595161
G03 X36.718581 Y23.036773 Z-1.000000 I-1.348444 J-1.163033
G03 X35.740146 Y23.229676 Z-1.000000 I-0.978435 J-2.384935
G01 X35.740146 Y23.229676 Z-1.000000
G00 Z5.000000

(End cutting path id: text975)


(Start cutting path id: text975)
(Change tool to Default tool)

G00 Z5.000000
G00 X36.121145 Y14.839225

G01 Z-1.000000 F100.0(Penetrate)
G02 X34.184454 Y15.198306 Z-1.000000 I-0.000000 J5.402275 F3500.000000
G02 X32.836085 Y16.100756 Z-1.000000 I1.314110 J3.421978
G02 X31.994930 Y17.506415 Z-1.000000 I2.849893 J2.659899
G02 X31.650754 Y19.589016 Z-1.000000 I6.128796 J2.082601
G02 X31.973352 Y21.706727 Z-1.000000 I7.112209 J-0.000000
G02 X32.759885 Y23.145010 Z-1.000000 I3.976157 J-1.240182
G02 X34.039288 Y24.110440 Z-1.000000 I2.710678 J-2.261775
G02 X35.757079 Y24.474274 Z-1.000000 I1.717791 J-3.873236
G02 X37.371143 Y24.159068 Z-1.000000 I0.000000 J-4.290142
G02 X38.551074 Y23.339743 Z-1.000000 I-1.231502 J-3.032804
G02 X39.292121 Y22.096083 Z-1.000000 I-2.561498 J-2.368903
G02 X39.592472 Y20.283282 Z-1.000000 I-5.320499 J-1.812801
G01 X39.592472 Y19.360417 Z-1.000000
G01 X33.225551 Y19.360417 Z-1.000000
G03 X33.489167 Y17.867431 Z-1.000000 I5.137478 J0.137355
G03 X34.029883 Y16.955888 Z-1.000000 I2.381870 J0.796753
G03 X34.895579 Y16.372296 Z-1.000000 I1.680974 J1.559666
G03 X36.188879 Y16.134623 Z-1.000000 I1.293300 J3.399913
G03 X36.930815 Y16.167877 Z-1.000000 I0.000000 J8.293454
G03 X37.602809 Y16.261623 Z-1.000000 I-0.619247 J6.894264
G03 X38.259680 Y16.435778 Z-1.000000 I-1.137332 J5.615598
G03 X39.169140 Y16.778088 Z-1.000000 I-3.668737 J11.126516
G01 X39.169140 Y15.440357 Z-1.000000
G02 X38.387010 Y15.147711 Z-1.000000 I-3.511866 J8.194373
G02 X37.721342 Y14.974692 Z-1.000000 I-1.851679 J5.757051
G02 X37.040165 Y14.878056 Z-1.000000 I-1.195309 J5.976516
G02 X36.121145 Y14.839225 Z-1.000000 I-0.919020 J10.855876
G01 X36.121145 Y14.839225 Z-1.000000
G00 Z5.000000

(End cutting path id: text975)


(Start cutting path id: text975)
(Change tool to Default tool)

G00 Z5.000000
G00 X21.609306 Y26.819536

G01 Z-1.000000 F100.0(Penetrate)
G02 X21.688521 Y27.292256 Z-1.000000 I1.450106 J-0.000000 F3500.000000
G02 X21.863305 Y27.556135 Z-1.000000 I0.597801 J-0.206138
G02 X22.148868 Y27.723048 Z-1.000000 I0.582431 J-0.668718
G02 X22.506771 Y27.784734 Z-1.000000 I0.357903 J-1.007434
G02 X22.840033 Y27.725078 Z-1.000000 I-0.000000 J-0.960699
G02 X23.124836 Y27.556135 Z-1.000000 I-0.318818 J-0.861991
G02 X23.312220 Y27.288714 Z-1.000000 I-0.411497 J-0.487699
G02 X23.395769 Y26.819536 Z-1.000000 I-1.275577 J-0.469178
G02 X23.313465 Y26.357351 Z-1.000000 I-1.338870 J0.000000
G02 X23.124836 Y26.082937 Z-1.000000 I-0.632213 J0.232538
G02 X22.838716 Y25.907348 Z-1.000000 I-0.614363 J0.680187
G02 X22.506771 Y25.845871 Z-1.000000 I-0.331945 J0.865429
G02 X22.150237 Y25.909459 Z-1.000000 I0.000000 J1.031325
G02 X21.863305 Y26.082937 Z-1.000000 I0.305605 J0.829501
G02 X21.687332 Y26.353910 Z-1.000000 I0.456448 J0.489049
G02 X21.609306 Y26.819536 Z-1.000000 I1.350318 J0.465626
G01 X21.609306 Y26.819536 Z-1.000000
G00 Z5.000000

(End cutting path id: text975)


(Footer)
M5
G00 X0.0000 Y0.0000
M2
(Using default footer. To add your own footer create file "footer" in the output dir.)
(end)
%