%
(Header)
(Generated by gcodetools from Inkscape.)
(Using default header. To add your own header create file "header" in the output dir.)
M3
(Header end.)
G21 (All units in mm)

(Start cutting path id: text59028)
(Change tool to Default tool)

G00 Z 5.0000
G00 X 0.3647 Y 39.5928

G01 Z -1.0000 F 100.0000(Penetrate)
G01 X 1.8747 Y 39.5928 Z -1.0000 F 3500.0000
G01 X 1.8747 Y 33.6657 Z -1.0000
G01 X 5.4535 Y 33.6657 Z -1.0000
G01 X 5.4535 Y 32.3666 Z -1.0000
G01 X 0.3647 Y 32.3666 Z -1.0000
G01 X 0.3647 Y 39.5928 Z -1.0000
G00 Z 5.0000

(End cutting path id: text59028)


(Start cutting path id: text59028)
(Change tool to Default tool)

G00 Z 5.0000
G00 X 10.3069 Y 35.0973

G01 Z -1.0000 F 100.0000(Penetrate)
G01 X 9.4049 Y 37.9407 Z -1.0000 F 3500.0000
G01 X 8.4734 Y 35.0973 Z -1.0000
G01 X 10.3069 Y 35.0973 Z -1.0000
G00 Z 5.0000

(End cutting path id: text59028)


(Start cutting path id: text59028)
(Change tool to Default tool)

G00 Z 5.0000
G00 X 10.7286 Y 33.8520

G01 Z -1.0000 F 100.0000(Penetrate)
G01 X 8.0665 Y 33.8520 Z -1.0000 F 3500.0000
G01 X 7.5664 Y 32.3666 Z -1.0000
G01 X 5.9878 Y 32.3666 Z -1.0000
G01 X 8.5666 Y 39.5928 Z -1.0000
G01 X 10.2726 Y 39.5928 Z -1.0000
G01 X 12.8317 Y 32.3666 Z -1.0000
G01 X 11.1943 Y 32.3666 Z -1.0000
G01 X 10.7286 Y 33.8520 Z -1.0000
G00 Z 5.0000

(End cutting path id: text59028)


(Start cutting path id: text59028)
(Change tool to Default tool)

G00 Z 5.0000
G00 X 16.8174 Y 34.9649

G01 Z -1.0000 F 100.0000(Penetrate)
G01 X 15.2830 Y 34.9649 Z -1.0000 F 3500.0000
G01 X 15.2830 Y 32.3666 Z -1.0000
G01 X 13.7828 Y 32.3666 Z -1.0000
G01 X 13.7828 Y 39.5928 Z -1.0000
G01 X 16.9302 Y 39.5928 Z -1.0000
G02 X 17.9585 Y 39.4314 Z -1.0000 I 0.0000 J -3.3545
G02 X 18.6657 Y 39.0340 Z -1.0000 I -0.6246 J -1.9395
G02 X 19.1171 Y 38.3855 Z -1.0000 I -1.0425 J -1.2071
G02 X 19.3128 Y 37.3034 Z -1.0000 I -2.8939 J -1.0821
G02 X 19.1077 Y 36.1210 Z -1.0000 I -3.5103 J -0.0000
G02 X 18.6657 Y 35.4944 Z -1.0000 I -1.3498 J 0.4829
G02 X 17.9612 Y 35.1255 Z -1.0000 I -1.2466 J 1.5236
G02 X 16.8174 Y 34.9649 Z -1.0000 I -1.1438 J 3.9926
G01 X 16.8174 Y 34.9649 Z -1.0000
G00 Z 5.0000

(End cutting path id: text59028)


(Start cutting path id: text59028)
(Change tool to Default tool)

G00 Z 5.0000
G00 X 17.5234 Y 36.4700

G01 Z -1.0000 F 100.0000(Penetrate)
G03 X 17.7270 Y 36.7706 Z -1.0000 I -0.4818 J 0.5455 F 3500.0000
G03 X 17.8176 Y 37.2936 Z -1.0000 I -1.4642 J 0.5229
G03 X 17.7242 Y 37.8126 Z -1.0000 I -1.4888 J -0.0000
G03 X 17.5185 Y 38.0976 Z -1.0000 I -0.6198 J -0.2305
G03 X 17.1986 Y 38.2656 Z -1.0000 I -0.5715 J -0.6998
G03 X 16.6900 Y 38.3378 Z -1.0000 I -0.5086 J -1.7542
G01 X 15.2830 Y 38.3378 Z -1.0000
G01 X 15.2830 Y 36.2101 Z -1.0000
G01 X 16.6900 Y 36.2101 Z -1.0000
G03 X 17.1956 Y 36.2871 Z -1.0000 I 0.0000 J 1.6987
G03 X 17.5234 Y 36.4700 Z -1.0000 I -0.2724 J 0.8736
G01 X 17.5234 Y 36.4700 Z -1.0000
G00 Z 5.0000

(End cutting path id: text59028)


(Start cutting path id: text59028)
(Change tool to Default tool)

G00 Z 5.0000
G00 X 25.6959 Y 39.5928

G01 Z -1.0000 F 100.0000(Penetrate)
G01 X 25.6959 Y 38.3133 Z -1.0000 F 3500.0000
G01 X 23.5339 Y 38.3133 Z -1.0000
G01 X 23.5339 Y 32.3666 Z -1.0000
G01 X 22.0141 Y 32.3666 Z -1.0000
G01 X 22.0141 Y 38.3133 Z -1.0000
G01 X 19.8423 Y 38.3133 Z -1.0000
G01 X 19.8423 Y 39.5928 Z -1.0000
G01 X 25.6959 Y 39.5928 Z -1.0000
G00 Z 5.0000

(End cutting path id: text59028)


(Start cutting path id: text59028)
(Change tool to Default tool)

G00 Z 5.0000
G00 X 31.0249 Y 34.1070

G01 Z -1.0000 F 100.0000(Penetrate)
G03 X 31.3901 Y 34.8243 Z -1.0000 I -1.5937 J 1.2632 F 3500.0000
G03 X 31.5494 Y 35.9895 Z -1.0000 I -4.1818 J 1.1652
G03 X 31.3891 Y 37.1491 Z -1.0000 I -4.2725 J -0.0000
G03 X 31.0200 Y 37.8672 Z -1.0000 I -1.9563 J -0.5516
G03 X 30.4078 Y 38.3535 Z -1.0000 I -1.3315 J -1.0476
G03 X 29.5982 Y 38.5339 Z -1.0000 I -0.8095 J -1.7262
G03 X 28.7864 Y 38.3553 Z -1.0000 I 0.0000 J -1.9345
G03 X 28.1667 Y 37.8721 Z -1.0000 I 0.7256 J -1.5695
G03 X 27.7943 Y 37.1530 Z -1.0000 I 1.5753 J -1.2719
G03 X 27.6323 Y 35.9895 Z -1.0000 I 4.0990 J -1.1635
G03 X 27.7943 Y 34.8260 Z -1.0000 I 4.2609 J 0.0000
G03 X 28.1667 Y 34.1070 Z -1.0000 I 1.9478 J 0.5529
G03 X 28.7864 Y 33.6237 Z -1.0000 I 1.3453 J 1.0862
G03 X 29.5982 Y 33.4451 Z -1.0000 I 0.8118 J 1.7559
G03 X 30.4094 Y 33.6241 Z -1.0000 I -0.0000 J 1.9274
G03 X 31.0249 Y 34.1070 Z -1.0000 I -0.7194 J 1.5508
G01 X 31.0249 Y 34.1070 Z -1.0000
G00 Z 5.0000

(End cutting path id: text59028)


(Start cutting path id: text59028)
(Change tool to Default tool)

G00 Z 5.0000
G00 X 29.5982 Y 32.1656

G01 Z -1.0000 F 100.0000(Penetrate)
G02 X 28.1545 Y 32.4150 Z -1.0000 I 0.0000 J 4.3036 F 3500.0000
G02 X 27.2303 Y 33.0088 Z -1.0000 I 0.8116 J 2.2792
G02 X 26.4545 Y 34.1824 Z -1.0000 I 2.1054 J 2.2351
G02 X 26.1322 Y 35.9895 Z -1.0000 I 4.9050 J 1.8071
G02 X 26.4603 Y 37.8295 Z -1.0000 I 5.3225 J -0.0000
G02 X 27.2303 Y 38.9702 Z -1.0000 I 2.7078 J -0.9976
G02 X 28.1545 Y 39.5641 Z -1.0000 I 1.7358 J -1.6854
G02 X 29.5982 Y 39.8135 Z -1.0000 I 1.4437 J -4.0542
G02 X 31.0420 Y 39.5641 Z -1.0000 I 0.0000 J -4.3036
G02 X 31.9661 Y 38.9702 Z -1.0000 I -0.8116 J -2.2792
G02 X 32.7324 Y 37.8305 Z -1.0000 I -1.9416 J -2.1329
G02 X 33.0594 Y 35.9895 Z -1.0000 I -5.0194 J -1.8410
G02 X 32.7383 Y 34.1815 Z -1.0000 I -5.2507 J -0.0000
G02 X 31.9661 Y 33.0088 Z -1.0000 I -2.8818 J 1.0570
G02 X 31.0420 Y 32.4150 Z -1.0000 I -1.7358 J 1.6854
G02 X 29.5982 Y 32.1656 Z -1.0000 I -1.4437 J 4.0542
G01 X 29.5982 Y 32.1656 Z -1.0000
G00 Z 5.0000

(End cutting path id: text59028)


(Start cutting path id: text59028)
(Change tool to Default tool)

G00 Z 5.0000
G00 X 37.2804 Y 34.9649

G01 Z -1.0000 F 100.0000(Penetrate)
G01 X 35.7460 Y 34.9649 Z -1.0000 F 3500.0000
G01 X 35.7460 Y 32.3666 Z -1.0000
G01 X 34.2458 Y 32.3666 Z -1.0000
G01 X 34.2458 Y 39.5928 Z -1.0000
G01 X 37.3932 Y 39.5928 Z -1.0000
G02 X 38.4215 Y 39.4314 Z -1.0000 I -0.0000 J -3.3545
G02 X 39.1287 Y 39.0340 Z -1.0000 I -0.6246 J -1.9395
G02 X 39.5801 Y 38.3855 Z -1.0000 I -1.0425 J -1.2071
G02 X 39.7758 Y 37.3034 Z -1.0000 I -2.8939 J -1.0821
G02 X 39.5707 Y 36.1210 Z -1.0000 I -3.5103 J 0.0000
G02 X 39.1287 Y 35.4944 Z -1.0000 I -1.3498 J 0.4829
G02 X 38.4242 Y 35.1255 Z -1.0000 I -1.2466 J 1.5236
G02 X 37.2804 Y 34.9649 Z -1.0000 I -1.1438 J 3.9926
G01 X 37.2804 Y 34.9649 Z -1.0000
G00 Z 5.0000

(End cutting path id: text59028)


(Start cutting path id: text59028)
(Change tool to Default tool)

G00 Z 5.0000
G00 X 37.9864 Y 36.4700

G01 Z -1.0000 F 100.0000(Penetrate)
G03 X 38.1900 Y 36.7706 Z -1.0000 I -0.4818 J 0.5455 F 3500.0000
G03 X 38.2805 Y 37.2936 Z -1.0000 I -1.4642 J 0.5229
G03 X 38.1872 Y 37.8126 Z -1.0000 I -1.4888 J -0.0000
G03 X 37.9815 Y 38.0976 Z -1.0000 I -0.6198 J -0.2305
G03 X 37.6616 Y 38.2656 Z -1.0000 I -0.5715 J -0.6998
G03 X 37.1530 Y 38.3378 Z -1.0000 I -0.5086 J -1.7542
G01 X 35.7460 Y 38.3378 Z -1.0000
G01 X 35.7460 Y 36.2101 Z -1.0000
G01 X 37.1530 Y 36.2101 Z -1.0000
G03 X 37.6586 Y 36.2871 Z -1.0000 I 0.0000 J 1.6987
G03 X 37.9864 Y 36.4700 Z -1.0000 I -0.2724 J 0.8736
G01 X 37.9864 Y 36.4700 Z -1.0000
G00 Z 5.0000

(End cutting path id: text59028)



(Footer)
M5
G00 X0.0000 Y0.0000
M2
(Using default footer. To add your own footer create file "footer" in the output dir.)
(end)
%