%
(Header)
(Generated by gcodetools from Inkscape.)
(Using default header. To add your own header create file "header" in the output dir.)
M3
(Header end.)
G21 (All units in mm)

(Start cutting path id: text2355)
(Change tool to Default tool)

G00 Z 5.0000
G00 X 1.2583 Y 34.8279

G01 Z -1.0000 F 100.0000(Penetrate)
G01 X 0.3493 Y 34.8279 Z -1.0000 F 3500.0000
G01 X 0.3493 Y 39.4965 Z -1.0000
G01 X 1.7683 Y 39.4965 Z -1.0000
G01 X 2.6171 Y 35.8256 Z -1.0000
G01 X 3.4596 Y 39.4965 Z -1.0000
G01 X 4.8627 Y 39.4965 Z -1.0000
G01 X 4.8627 Y 34.8279 Z -1.0000
G01 X 3.9537 Y 34.8279 Z -1.0000
G01 X 3.9537 Y 37.9857 Z -1.0000
G02 X 3.9543 Y 38.1219 Z -1.0000 I 16.3294 J 0.0000
G02 X 3.9569 Y 38.3658 Z -1.0000 I 52.3695 J -0.4368
G03 X 3.9595 Y 38.6128 Z -1.0000 I -55.0153 J 0.7059
G03 X 3.9600 Y 38.7458 Z -1.0000 I -15.9491 J 0.1330
G01 X 3.0764 Y 34.8279 Z -1.0000
G01 X 2.1293 Y 34.8279 Z -1.0000
G01 X 1.2520 Y 38.7458 Z -1.0000
G03 X 1.2526 Y 38.6128 Z -1.0000 I 15.9497 J 0.0000
G03 X 1.2552 Y 38.3658 Z -1.0000 I 55.0179 J 0.4589
G02 X 1.2578 Y 38.1219 Z -1.0000 I -52.3669 J -0.6807
G02 X 1.2583 Y 37.9857 Z -1.0000 I -16.3289 J -0.1362
G01 X 1.2583 Y 34.8279 Z -1.0000
G00 Z 5.0000

(End cutting path id: text2355)


(Start cutting path id: text2355)
(Change tool to Default tool)

G00 Z 5.0000
G00 X 5.6925 Y 39.4965

G01 Z -1.0000 F 100.0000(Penetrate)
G01 X 6.6617 Y 39.4965 Z -1.0000 F 3500.0000
G01 X 6.6617 Y 34.8279 Z -1.0000
G01 X 5.6925 Y 34.8279 Z -1.0000
G01 X 5.6925 Y 39.4965 Z -1.0000
G00 Z 5.0000

(End cutting path id: text2355)


(Start cutting path id: text2355)
(Change tool to Default tool)

G00 Z 5.0000
G00 X 10.8647 Y 35.1763

G01 Z -1.0000 F 100.0000(Penetrate)
G02 X 10.2907 Y 34.8304 Z -1.0000 I -1.1458 J 1.2520 F 3500.0000
G02 X 9.5281 Y 34.6980 Z -1.0000 I -0.7626 J 2.1312
G02 X 8.6023 Y 34.8796 Z -1.0000 I 0.0000 J 2.4508
G02 X 7.9445 Y 35.3442 Z -1.0000 I 0.6745 J 1.6531
G02 X 7.5365 Y 36.0574 Z -1.0000 I 1.4991 J 1.3309
G02 X 7.3680 Y 37.1242 Z -1.0000 I 3.2940 J 1.0667
G02 X 7.5612 Y 38.2673 Z -1.0000 I 3.4789 J -0.0000
G02 X 8.0237 Y 39.0087 Z -1.0000 I 1.8668 J -0.6495
G02 X 8.6589 Y 39.4291 Z -1.0000 I 1.3218 J -1.3073
G02 X 9.4743 Y 39.5852 Z -1.0000 I 0.8154 J -2.0518
G02 X 10.5348 Y 39.3582 Z -1.0000 I -0.0000 J -2.5914
G02 X 11.1973 Y 38.8124 Z -1.0000 I -0.6643 J -1.4812
G02 X 11.4349 Y 38.3569 Z -1.0000 I -1.6855 J -1.1688
G02 X 11.5204 Y 37.9413 Z -1.0000 I -1.3112 J -0.4864
G01 X 10.5448 Y 37.9413 Z -1.0000
G03 X 10.4231 Y 38.2626 Z -1.0000 I -1.9163 J -0.5423
G03 X 10.3010 Y 38.4481 Z -1.0000 I -0.7499 J -0.3609
G03 X 9.9942 Y 38.6625 Z -1.0000 I -0.5876 J -0.5142
G03 X 9.5123 Y 38.7522 Z -1.0000 I -0.4819 J -1.2500
G03 X 9.0391 Y 38.6378 Z -1.0000 I -0.0000 J -1.0364
G03 X 8.6730 Y 38.3214 Z -1.0000 I 0.4675 J -0.9110
G03 X 8.4599 Y 37.8635 Z -1.0000 I 1.1002 J -0.7905
G03 X 8.3657 Y 37.1083 Z -1.0000 I 2.9818 J -0.7552
G03 X 8.4666 Y 36.3590 Z -1.0000 I 2.8337 J 0.0000
G03 X 8.6888 Y 35.9301 Z -1.0000 I 1.1154 J 0.3058
G03 X 9.0624 Y 35.6420 Z -1.0000 I 0.8415 J 0.7046
G03 X 9.5155 Y 35.5405 Z -1.0000 I 0.4531 J 0.9614
G03 X 9.9825 Y 35.6365 Z -1.0000 I 0.0000 J 1.1843
G03 X 10.2978 Y 35.8763 Z -1.0000 I -0.3223 J 0.7510
G03 X 10.4195 Y 36.0709 Z -1.0000 I -0.6789 J 0.5598
G03 X 10.5448 Y 36.4179 Z -1.0000 I -2.0688 J 0.9437
G01 X 11.5109 Y 36.4179 Z -1.0000
G02 X 11.2757 Y 35.7132 Z -1.0000 I -2.3335 J 0.3873
G02 X 10.8647 Y 35.1763 Z -1.0000 I -1.7381 J 0.9045
G01 X 10.8647 Y 35.1763 Z -1.0000
G00 Z 5.0000

(End cutting path id: text2355)


(Start cutting path id: text2355)
(Change tool to Default tool)

G00 Z 5.0000
G00 X 14.2379 Y 36.6586

G01 Z -1.0000 F 100.0000(Penetrate)
G01 X 13.2307 Y 36.6586 Z -1.0000 F 3500.0000
G01 X 13.2307 Y 34.8279 Z -1.0000
G01 X 12.2774 Y 34.8279 Z -1.0000
G01 X 12.2774 Y 39.4965 Z -1.0000
G01 X 14.5673 Y 39.4965 Z -1.0000
G02 X 15.0511 Y 39.4534 Z -1.0000 I -0.0677 J -3.4971
G02 X 15.3211 Y 39.3761 Z -1.0000 I -0.1844 J -1.1549
G02 X 15.5673 Y 39.2380 Z -1.0000 I -0.4675 J -1.1221
G02 X 15.7709 Y 39.0499 Z -1.0000 I -0.6881 J -0.9487
G02 X 15.9071 Y 38.8628 Z -1.0000 I -1.1077 J -0.9495
G02 X 16.0116 Y 38.6572 Z -1.0000 I -1.2365 J -0.7579
G02 X 16.0760 Y 38.4370 Z -1.0000 I -1.0029 J -0.4130
G02 X 16.1003 Y 38.1662 Z -1.0000 I -1.4987 J -0.2708
G02 X 16.0596 Y 37.8436 Z -1.0000 I -1.3008 J -0.0000
G02 X 15.9324 Y 37.5106 Z -1.0000 I -1.5142 J 0.3877
G02 X 15.7168 Y 37.2463 Z -1.0000 I -0.7556 J 0.3965
G02 X 15.3781 Y 37.0577 Z -1.0000 I -0.6974 J 0.8534
G02 X 15.6661 Y 36.8881 Z -1.0000 I -0.4168 J -1.0370
G02 X 15.8342 Y 36.6871 Z -1.0000 I -0.4334 J -0.5334
G02 X 15.9260 Y 36.4377 Z -1.0000 I -0.6898 J -0.3955
G02 X 15.9704 Y 35.9586 Z -1.0000 I -2.5626 J -0.4791
G01 X 15.9704 Y 35.6451 Z -1.0000
G03 X 15.9797 Y 35.3262 Z -1.0000 I 5.4697 J 0.0000
G03 X 15.9958 Y 35.2111 Z -1.0000 I 0.7239 J 0.0423
G03 X 16.0630 Y 35.0512 Z -1.0000 I 0.4489 J 0.0945
G03 X 16.1731 Y 34.9451 Z -1.0000 I 0.2966 J 0.1977
G01 X 16.1731 Y 34.8279 Z -1.0000
G01 X 15.0994 Y 34.8279 Z -1.0000
G02 X 15.0575 Y 34.9837 Z -1.0000 I 5.1117 J 1.4605
G02 X 15.0361 Y 35.0781 Z -1.0000 I 1.8567 J 0.4700
G02 X 15.0069 Y 35.2754 Z -1.0000 I 2.1963 J 0.4251
G02 X 14.9949 Y 35.4804 Z -1.0000 I 2.3585 J 0.2414
G01 X 14.9886 Y 35.9143 Z -1.0000
G03 X 14.9281 Y 36.3370 Z -1.0000 I -1.6748 J -0.0239
G03 X 14.8239 Y 36.5097 Z -1.0000 I -0.3603 J -0.0997
G03 X 14.6480 Y 36.6073 Z -1.0000 I -0.2729 J -0.2845
G03 X 14.2379 Y 36.6586 Z -1.0000 I -0.4101 J -1.6144
G01 X 14.2379 Y 36.6586 Z -1.0000
G00 Z 5.0000

(End cutting path id: text2355)


(Start cutting path id: text2355)
(Change tool to Default tool)

G00 Z 5.0000
G00 X 14.8302 Y 37.5074

G01 Z -1.0000 F 100.0000(Penetrate)
G03 X 15.0345 Y 37.6964 Z -1.0000 I -0.1847 J 0.4046 F 3500.0000
G03 X 15.1216 Y 38.0332 Z -1.0000 I -0.6077 J 0.3368
G03 X 15.0347 Y 38.4047 Z -1.0000 I -0.8383 J 0.0000
G03 X 14.8397 Y 38.6033 Z -1.0000 I -0.3999 J -0.1977
G03 X 14.6748 Y 38.6590 Z -1.0000 I -0.2618 J -0.5035
G03 X 14.3646 Y 38.6857 Z -1.0000 I -0.3102 J -1.7896
G01 X 13.2307 Y 38.6857 Z -1.0000
G01 X 13.2307 Y 37.4314 Z -1.0000
G01 X 14.3361 Y 37.4314 Z -1.0000
G03 X 14.6601 Y 37.4562 Z -1.0000 I 0.0000 J 2.1305
G03 X 14.8302 Y 37.5074 Z -1.0000 I -0.0969 J 0.6298
G01 X 14.8302 Y 37.5074 Z -1.0000
G00 Z 5.0000

(End cutting path id: text2355)


(Start cutting path id: text2355)
(Change tool to Default tool)

G00 Z 5.0000
G00 X 19.0047 Y 34.6980

G01 Z -1.0000 F 100.0000(Penetrate)
G02 X 18.0720 Y 34.8592 Z -1.0000 I -0.0000 J 2.7804 F 3500.0000
G02 X 17.4749 Y 35.2428 Z -1.0000 I 0.5244 J 1.4725
G02 X 16.9736 Y 36.0010 Z -1.0000 I 1.3602 J 1.4440
G02 X 16.7654 Y 37.1685 Z -1.0000 I 3.1689 J 1.1675
G02 X 16.9774 Y 38.3573 Z -1.0000 I 3.4387 J 0.0000
G02 X 17.4749 Y 39.0942 Z -1.0000 I 1.7494 J -0.6445
G02 X 18.0720 Y 39.4779 Z -1.0000 I 1.1214 J -1.0888
G02 X 19.0047 Y 39.6390 Z -1.0000 I 0.9327 J -2.6192
G02 X 19.9374 Y 39.4779 Z -1.0000 I 0.0000 J -2.7804
G02 X 20.5345 Y 39.0942 Z -1.0000 I -0.5244 J -1.4725
G02 X 21.0296 Y 38.3579 Z -1.0000 I -1.2544 J -1.3780
G02 X 21.2408 Y 37.1685 Z -1.0000 I -3.2428 J -1.1894
G02 X 21.0333 Y 36.0004 Z -1.0000 I -3.3922 J 0.0000
G02 X 20.5345 Y 35.2428 Z -1.0000 I -1.8618 J 0.6829
G02 X 19.9374 Y 34.8592 Z -1.0000 I -1.1214 J 1.0888
G02 X 19.0047 Y 34.6980 Z -1.0000 I -0.9327 J 2.6192
G01 X 19.0047 Y 34.6980 Z -1.0000
G00 Z 5.0000

(End cutting path id: text2355)


(Start cutting path id: text2355)
(Change tool to Default tool)

G00 Z 5.0000
G00 X 19.9264 Y 35.9523

G01 Z -1.0000 F 100.0000(Penetrate)
G03 X 20.1623 Y 36.4157 Z -1.0000 I -1.0296 J 0.8161 F 3500.0000
G03 X 20.2653 Y 37.1685 Z -1.0000 I -2.7017 J 0.7528
G03 X 20.1617 Y 37.9177 Z -1.0000 I -2.7603 J -0.0000
G03 X 19.9232 Y 38.3816 Z -1.0000 I -1.2639 J -0.3564
G03 X 19.5277 Y 38.6958 Z -1.0000 I -0.8603 J -0.6768
G03 X 19.0047 Y 38.8124 Z -1.0000 I -0.5230 J -1.1153
G03 X 18.4802 Y 38.6970 Z -1.0000 I 0.0000 J -1.2498
G03 X 18.0798 Y 38.3848 Z -1.0000 I 0.4688 J -1.0140
G03 X 17.8392 Y 37.9202 Z -1.0000 I 1.0178 J -0.8217
G03 X 17.7346 Y 37.1685 Z -1.0000 I 2.6482 J -0.7517
G03 X 17.8392 Y 36.4168 Z -1.0000 I 2.7528 J 0.0000
G03 X 18.0798 Y 35.9523 Z -1.0000 I 1.2584 J 0.3572
G03 X 18.4802 Y 35.6401 Z -1.0000 I 0.8692 J 0.7018
G03 X 19.0047 Y 35.5247 Z -1.0000 I 0.5245 J 1.1344
G03 X 19.5287 Y 35.6403 Z -1.0000 I -0.0000 J 1.2452
G03 X 19.9264 Y 35.9523 Z -1.0000 I -0.4648 J 1.0019
G01 X 19.9264 Y 35.9523 Z -1.0000
G00 Z 5.0000

(End cutting path id: text2355)


(Start cutting path id: text2355)
(Change tool to Default tool)

G00 Z 5.0000
G00 X 26.5270 Y 39.4965

G01 Z -1.0000 F 100.0000(Penetrate)
G01 X 27.5184 Y 39.4965 Z -1.0000 F 3500.0000
G01 X 26.2039 Y 34.8279 Z -1.0000
G01 X 25.2728 Y 34.8279 Z -1.0000
G01 X 24.7090 Y 37.5581 Z -1.0000
G01 X 24.5443 Y 38.4608 Z -1.0000
G01 X 24.3796 Y 37.5581 Z -1.0000
G01 X 23.8158 Y 34.8279 Z -1.0000
G01 X 22.9100 Y 34.8279 Z -1.0000
G01 X 21.5860 Y 39.4965 Z -1.0000
G01 X 22.6217 Y 39.4965 Z -1.0000
G01 X 23.2394 Y 36.8233 Z -1.0000
G01 X 23.3724 Y 36.0790 Z -1.0000
G01 X 23.5086 Y 36.8075 Z -1.0000
G01 X 24.0344 Y 39.4965 Z -1.0000
G01 X 25.0637 Y 39.4965 Z -1.0000
G01 X 25.6180 Y 36.8233 Z -1.0000
G01 X 25.7605 Y 36.0790 Z -1.0000
G01 X 25.9031 Y 36.7948 Z -1.0000
G01 X 26.5270 Y 39.4965 Z -1.0000
G00 Z 5.0000

(End cutting path id: text2355)


(Start cutting path id: text2355)
(Change tool to Default tool)

G00 Z 5.0000
G00 X 30.2137 Y 36.5921

G01 Z -1.0000 F 100.0000(Penetrate)
G01 X 29.6310 Y 38.4291 Z -1.0000 F 3500.0000
G01 X 29.0292 Y 36.5921 Z -1.0000
G01 X 30.2137 Y 36.5921 Z -1.0000
G00 Z 5.0000

(End cutting path id: text2355)


(Start cutting path id: text2355)
(Change tool to Default tool)

G00 Z 5.0000
G00 X 30.4861 Y 35.7876

G01 Z -1.0000 F 100.0000(Penetrate)
G01 X 28.7663 Y 35.7876 Z -1.0000 F 3500.0000
G01 X 28.4432 Y 34.8279 Z -1.0000
G01 X 27.4234 Y 34.8279 Z -1.0000
G01 X 29.0894 Y 39.4965 Z -1.0000
G01 X 30.1916 Y 39.4965 Z -1.0000
G01 X 31.8449 Y 34.8279 Z -1.0000
G01 X 30.7870 Y 34.8279 Z -1.0000
G01 X 30.4861 Y 35.7876 Z -1.0000
G00 Z 5.0000

(End cutting path id: text2355)


(Start cutting path id: text2355)
(Change tool to Default tool)

G00 Z 5.0000
G00 X 31.6137 Y 39.4965

G01 Z -1.0000 F 100.0000(Penetrate)
G01 X 32.6557 Y 39.4965 Z -1.0000 F 3500.0000
G01 X 33.6693 Y 35.9523 Z -1.0000
G01 X 34.6923 Y 39.4965 Z -1.0000
G01 X 35.7058 Y 39.4965 Z -1.0000
G01 X 34.1127 Y 34.8279 Z -1.0000
G01 X 33.1910 Y 34.8279 Z -1.0000
G01 X 31.6137 Y 39.4965 Z -1.0000
G00 Z 5.0000

(End cutting path id: text2355)


(Start cutting path id: text2355)
(Change tool to Default tool)

G00 Z 5.0000
G00 X 39.5351 Y 36.8676

G01 Z -1.0000 F 100.0000(Penetrate)
G01 X 37.2673 Y 36.8676 Z -1.0000 F 3500.0000
G01 X 37.2673 Y 35.6672 Z -1.0000
G01 X 39.8518 Y 35.6672 Z -1.0000
G01 X 39.8518 Y 34.8279 Z -1.0000
G01 X 36.3140 Y 34.8279 Z -1.0000
G01 X 36.3140 Y 39.4965 Z -1.0000
G01 X 39.7378 Y 39.4965 Z -1.0000
G01 X 39.7378 Y 38.6698 Z -1.0000
G01 X 37.2673 Y 38.6698 Z -1.0000
G01 X 37.2673 Y 37.6785 Z -1.0000
G01 X 39.5351 Y 37.6785 Z -1.0000
G01 X 39.5351 Y 36.8676 Z -1.0000
G00 Z 5.0000

(End cutting path id: text2355)



(Footer)
M5
G00 X0.0000 Y0.0000
M2
(Using default footer. To add your own footer create file "footer" in the output dir.)
(end)
%