%
(Header)
(Generated by gcodetools from Inkscape.)
(Using default header. To add your own header create file "header" in the output dir.)
M3
(Header end.)
G21 (All units in mm)

(Start cutting path id: text198479)
(Change tool to Default tool)

G00 Z 5.0000
G00 X 2.1264 Y 31.7614

G01 Z -1.0000 F 100.0000(Penetrate)
G01 X 0.5878 Y 31.7614 Z -1.0000 F 3500.0000
G01 X 0.5878 Y 39.6634 Z -1.0000
G01 X 2.9895 Y 39.6634 Z -1.0000
G01 X 4.4262 Y 33.4501 Z -1.0000
G01 X 5.8523 Y 39.6634 Z -1.0000
G01 X 8.2272 Y 39.6634 Z -1.0000
G01 X 8.2272 Y 31.7614 Z -1.0000
G01 X 6.6886 Y 31.7614 Z -1.0000
G01 X 6.6886 Y 37.1063 Z -1.0000
G02 X 6.6895 Y 37.3368 Z -1.0000 I 27.6680 J 0.0000
G02 X 6.6939 Y 37.7496 Z -1.0000 I 88.7330 J -0.7393
G03 X 6.6984 Y 38.1677 Z -1.0000 I -93.2160 J 1.1949
G03 X 6.6993 Y 38.3929 Z -1.0000 I -27.0236 J 0.2252
G01 X 5.2036 Y 31.7614 Z -1.0000
G01 X 3.6007 Y 31.7614 Z -1.0000
G01 X 2.1157 Y 38.3929 Z -1.0000
G03 X 2.1166 Y 38.1677 Z -1.0000 I 27.0246 J -0.0000
G03 X 2.1210 Y 37.7496 Z -1.0000 I 93.2204 J 0.7767
G02 X 2.1254 Y 37.3368 Z -1.0000 I -88.7286 J -1.1521
G02 X 2.1264 Y 37.1063 Z -1.0000 I -27.6670 J -0.2305
G01 X 2.1264 Y 31.7614 Z -1.0000
G00 Z 5.0000

(End cutting path id: text198479)


(Start cutting path id: text198479)
(Change tool to Default tool)

G00 Z 5.0000
G00 X 13.2558 Y 31.5416

G01 Z -1.0000 F 100.0000(Penetrate)
G02 X 11.6770 Y 31.8143 Z -1.0000 I 0.0000 J 4.7061 F 3500.0000
G02 X 10.6664 Y 32.4636 Z -1.0000 I 0.8875 J 2.4924
G02 X 9.8180 Y 33.7470 Z -1.0000 I 2.3023 J 2.4442
G02 X 9.4656 Y 35.7231 Z -1.0000 I 5.3638 J 1.9761
G02 X 9.8244 Y 37.7352 Z -1.0000 I 5.8203 J -0.0000
G02 X 10.6664 Y 38.9826 Z -1.0000 I 2.9611 J -1.0909
G02 X 11.6770 Y 39.6320 Z -1.0000 I 1.8982 J -1.8430
G02 X 13.2558 Y 39.9047 Z -1.0000 I 1.5787 J -4.4333
G02 X 14.8345 Y 39.6320 Z -1.0000 I -0.0000 J -4.7061
G02 X 15.8451 Y 38.9826 Z -1.0000 I -0.8875 J -2.4924
G02 X 16.6831 Y 37.7363 Z -1.0000 I -2.1232 J -2.3324
G02 X 17.0406 Y 35.7231 Z -1.0000 I -5.4888 J -2.0132
G02 X 16.6895 Y 33.7460 Z -1.0000 I -5.7417 J -0.0000
G02 X 15.8451 Y 32.4636 Z -1.0000 I -3.1513 J 1.1558
G02 X 14.8345 Y 31.8143 Z -1.0000 I -1.8982 J 1.8430
G02 X 13.2558 Y 31.5416 Z -1.0000 I -1.5787 J 4.4333
G01 X 13.2558 Y 31.5416 Z -1.0000
G00 Z 5.0000

(End cutting path id: text198479)


(Start cutting path id: text198479)
(Change tool to Default tool)

G00 Z 5.0000
G00 X 14.8158 Y 33.6645

G01 Z -1.0000 F 100.0000(Penetrate)
G03 X 15.2153 Y 34.4489 Z -1.0000 I -1.7428 J 1.3813 F 3500.0000
G03 X 15.3895 Y 35.7231 Z -1.0000 I -4.5729 J 1.2742
G03 X 15.2141 Y 36.9911 Z -1.0000 I -4.6721 J 0.0000
G03 X 14.8105 Y 37.7764 Z -1.0000 I -2.1392 J -0.6032
G03 X 14.1411 Y 38.3082 Z -1.0000 I -1.4561 J -1.1456
G03 X 13.2558 Y 38.5055 Z -1.0000 I -0.8853 J -1.8877
G03 X 12.3681 Y 38.3102 Z -1.0000 I 0.0000 J -2.1154
G03 X 11.6904 Y 37.7817 Z -1.0000 I 0.7935 J -1.7163
G03 X 11.2831 Y 36.9954 Z -1.0000 I 1.7227 J -1.3909
G03 X 11.1060 Y 35.7231 Z -1.0000 I 4.4823 J -1.2723
G03 X 11.2831 Y 34.4508 Z -1.0000 I 4.6594 J 0.0000
G03 X 11.6904 Y 33.6645 Z -1.0000 I 2.1299 J 0.6046
G03 X 12.3681 Y 33.1361 Z -1.0000 I 1.4711 J 1.1878
G03 X 13.2558 Y 32.9408 Z -1.0000 I 0.8877 J 1.9202
G03 X 14.1428 Y 33.1365 Z -1.0000 I -0.0000 J 2.1077
G03 X 14.8158 Y 33.6645 Z -1.0000 I -0.7867 J 1.6958
G01 X 14.8158 Y 33.6645 Z -1.0000
G00 Z 5.0000

(End cutting path id: text198479)


(Start cutting path id: text198479)
(Change tool to Default tool)

G00 Z 5.0000
G00 X 22.9753 Y 34.8064

G01 Z -1.0000 F 100.0000(Penetrate)
G01 X 22.9753 Y 39.6634 Z -1.0000 F 3500.0000
G01 X 24.6532 Y 39.6634 Z -1.0000
G01 X 24.6532 Y 34.8064 Z -1.0000
G02 X 24.5319 Y 33.5781 Z -1.0000 I -6.2797 J -0.0000
G02 X 24.2619 Y 32.8443 Z -1.0000 I -2.4715 J 0.4929
G02 X 23.2995 Y 31.9581 Z -1.0000 I -1.8595 J 1.0537
G02 X 21.4795 Y 31.5576 Z -1.0000 I -1.8199 J 3.9356
G02 X 19.6585 Y 31.9576 Z -1.0000 I 0.0000 J 4.3455
G02 X 18.6918 Y 32.8443 Z -1.0000 I 0.9014 J 1.9530
G02 X 18.4218 Y 33.5781 Z -1.0000 I 2.2014 J 1.2268
G02 X 18.3005 Y 34.8064 Z -1.0000 I 6.1584 J 1.2283
G01 X 18.3005 Y 39.6634 Z -1.0000
G01 X 19.9785 Y 39.6634 Z -1.0000
G01 X 19.9785 Y 34.8064 Z -1.0000
G03 X 20.0429 Y 34.0071 Z -1.0000 I 4.9933 J 0.0000
G03 X 20.1715 Y 33.6163 Z -1.0000 I 1.2978 J 0.2105
G03 X 20.6067 Y 33.1606 Z -1.0000 I 0.8654 J 0.3908
G03 X 21.4795 Y 32.9515 Z -1.0000 I 0.8729 J 1.7176
G03 X 22.3474 Y 33.1601 Z -1.0000 I 0.0000 J 1.9093
G03 X 22.7823 Y 33.6163 Z -1.0000 I -0.4327 J 0.8480
G03 X 22.9109 Y 34.0071 Z -1.0000 I -1.1692 J 0.6013
G03 X 22.9753 Y 34.8064 Z -1.0000 I -4.9289 J 0.7993
G01 X 22.9753 Y 34.8064 Z -1.0000
G00 Z 5.0000

(End cutting path id: text198479)


(Start cutting path id: text198479)
(Change tool to Default tool)

G00 Z 5.0000
G00 X 29.0975 Y 32.9032

G01 Z -1.0000 F 100.0000(Penetrate)
G03 X 29.6752 Y 32.9422 Z -1.0000 I -0.0000 J 4.2993 F 3500.0000
G03 X 30.0464 Y 33.0319 Z -1.0000 I -0.2513 J 1.8536
G03 X 30.5564 Y 33.4065 Z -1.0000 I -0.3704 J 1.0388
G03 X 30.7380 Y 33.9486 Z -1.0000 I -0.7186 J 0.5421
G03 X 30.6480 Y 34.2901 Z -1.0000 I -0.6929 J 0.0000
G03 X 30.3949 Y 34.5544 Z -1.0000 I -0.6475 J -0.3667
G03 X 30.0356 Y 34.7231 Z -1.0000 I -0.9555 J -1.5679
G03 X 29.3173 Y 34.9243 Z -1.0000 I -2.1052 J -6.1326
G01 X 28.4810 Y 35.1120 Z -1.0000
G02 X 27.2785 Y 35.4602 Z -1.0000 I 2.3197 J 10.2602
G02 X 26.7762 Y 35.7178 Z -1.0000 I 0.7161 J 2.0153
G02 X 26.2086 Y 36.3865 Z -1.0000 I 0.9398 J 1.3728
G02 X 25.9774 Y 37.4279 Z -1.0000 I 2.2296 J 1.0414
G02 X 26.1807 Y 38.3995 Z -1.0000 I 2.4231 J -0.0000
G02 X 26.7494 Y 39.1917 Z -1.0000 I 2.1424 J -0.9377
G02 X 27.6041 Y 39.6802 Z -1.0000 I 1.5252 J -1.6765
G02 X 29.0171 Y 39.8940 Z -1.0000 I 1.4130 J -4.5626
G02 X 30.2054 Y 39.7127 Z -1.0000 I -0.0000 J -3.9857
G02 X 31.1454 Y 39.2292 Z -1.0000 I -0.9190 J -2.9421
G02 X 31.7925 Y 38.4455 Z -1.0000 I -1.2775 J -1.7137
G02 X 32.0729 Y 37.3100 Z -1.0000 I -2.5492 J -1.2319
G01 X 30.4860 Y 37.3100 Z -1.0000
G03 X 30.2922 Y 37.9249 Z -1.0000 I -1.3257 J -0.0797
G03 X 29.8641 Y 38.3232 Z -1.0000 I -0.9308 J -0.5713
G03 X 29.4643 Y 38.4643 Z -1.0000 I -0.7177 J -1.3966
G03 X 28.9045 Y 38.5216 Z -1.0000 I -0.5598 J -2.7081
G03 X 28.2900 Y 38.4451 Z -1.0000 I -0.0000 J -2.5090
G03 X 27.8859 Y 38.2642 Z -1.0000 I 0.3140 J -1.2431
G03 X 27.6065 Y 37.9531 Z -1.0000 I 0.4836 J -0.7154
G03 X 27.5053 Y 37.5459 Z -1.0000 I 0.7687 J -0.4073
G03 X 27.6053 Y 37.1811 Z -1.0000 I 0.7149 J 0.0000
G03 X 27.8806 Y 36.9133 Z -1.0000 I 0.6340 J 0.3761
G03 X 28.1329 Y 36.8018 Z -1.0000 I 0.6393 J 1.1065
G03 X 28.9099 Y 36.5862 Z -1.0000 I 3.3053 J 10.4037
G01 X 30.2716 Y 36.2592 Z -1.0000
G02 X 31.1332 Y 35.9753 Z -1.0000 I -1.2710 J -5.3066
G02 X 31.6225 Y 35.6856 Z -1.0000 I -0.8381 J -1.9737
G02 X 32.1292 Y 35.0305 Z -1.0000 I -1.0560 J -1.3404
G02 X 32.3302 Y 34.0719 Z -1.0000 I -2.1859 J -0.9586
G02 X 32.1141 Y 33.0878 Z -1.0000 I -2.3493 J -0.0000
G02 X 31.4992 Y 32.2707 Z -1.0000 I -2.1979 J 1.0139
G02 X 30.5942 Y 31.7712 Z -1.0000 I -1.6348 J 1.8930
G02 X 29.1618 Y 31.5576 Z -1.0000 I -1.4323 J 4.6955
G02 X 27.6906 Y 31.7661 Z -1.0000 I 0.0000 J 5.2961
G02 X 26.7333 Y 32.2599 Z -1.0000 I 0.7730 J 2.6732
G02 X 26.0912 Y 33.0841 Z -1.0000 I 1.4063 J 1.7578
G02 X 25.8487 Y 34.2006 Z -1.0000 I 2.4495 J 1.1165
G01 X 27.4249 Y 34.2006 Z -1.0000
G03 X 27.5536 Y 33.6826 Z -1.0000 I 2.5035 J 0.3470
G03 X 27.7197 Y 33.3911 Z -1.0000 I 0.9385 J 0.3419
G03 X 28.1950 Y 33.0583 Z -1.0000 I 0.8374 J 0.6902
G03 X 29.0975 Y 32.9032 Z -1.0000 I 0.9026 J 2.5490
G01 X 29.0975 Y 32.9032 Z -1.0000
G00 Z 5.0000

(End cutting path id: text198479)


(Start cutting path id: text198479)
(Change tool to Default tool)

G00 Z 5.0000
G00 X 39.0529 Y 35.2138

G01 Z -1.0000 F 100.0000(Penetrate)
G01 X 35.2144 Y 35.2138 Z -1.0000 F 3500.0000
G01 X 35.2144 Y 33.1820 Z -1.0000
G01 X 39.5890 Y 33.1820 Z -1.0000
G01 X 39.5890 Y 31.7614 Z -1.0000
G01 X 33.6007 Y 31.7614 Z -1.0000
G01 X 33.6007 Y 39.6634 Z -1.0000
G01 X 39.3960 Y 39.6634 Z -1.0000
G01 X 39.3960 Y 38.2642 Z -1.0000
G01 X 35.2144 Y 38.2642 Z -1.0000
G01 X 35.2144 Y 36.5862 Z -1.0000
G01 X 39.0529 Y 36.5862 Z -1.0000
G01 X 39.0529 Y 35.2138 Z -1.0000
G00 Z 5.0000

(End cutting path id: text198479)



(Footer)
M5
G00 X0.0000 Y0.0000
M2
(Using default footer. To add your own footer create file "footer" in the output dir.)
(end)
%