%
(Header)
(Generated by gcodetools from Inkscape.)
(Using default header. To add your own header create file "header" in the output dir.)
M3
(Header end.)
G21 (All units in mm)

(Start cutting path id: text20284)
(Change tool to Default tool)

G00 Z 5.0000
G00 X 1.1107 Y 0.2490

G01 Z -1.0000 F 100.0000(Penetrate)
G01 X 0.3162 Y 0.2490 Z -1.0000 F 3500.0000
G01 X 0.3162 Y 4.3295 Z -1.0000
G01 X 1.5564 Y 4.3295 Z -1.0000
G01 X 2.2983 Y 1.1210 Z -1.0000
G01 X 3.0347 Y 4.3295 Z -1.0000
G01 X 4.2611 Y 4.3295 Z -1.0000
G01 X 4.2611 Y 0.2490 Z -1.0000
G01 X 3.4666 Y 0.2490 Z -1.0000
G01 X 3.4666 Y 3.0090 Z -1.0000
G02 X 3.4671 Y 3.1280 Z -1.0000 I 14.2760 J -0.0000
G02 X 3.4693 Y 3.3412 Z -1.0000 I 45.7842 J -0.3818
G03 X 3.4716 Y 3.5571 Z -1.0000 I -48.0978 J 0.6170
G03 X 3.4721 Y 3.6734 Z -1.0000 I -13.9435 J 0.1163
G01 X 2.6997 Y 0.2490 Z -1.0000
G01 X 1.8720 Y 0.2490 Z -1.0000
G01 X 1.1052 Y 3.6734 Z -1.0000
G03 X 1.1057 Y 3.5571 Z -1.0000 I 13.9440 J -0.0000
G03 X 1.1080 Y 3.3412 Z -1.0000 I 48.1001 J 0.4011
G02 X 1.1102 Y 3.1280 Z -1.0000 I -45.7819 J -0.5949
G02 X 1.1107 Y 3.0090 Z -1.0000 I -14.2755 J -0.1190
G01 X 1.1107 Y 0.2490 Z -1.0000
G00 Z 5.0000

(End cutting path id: text20284)


(Start cutting path id: text20284)
(Change tool to Default tool)

G00 Z 5.0000
G00 X 6.8578 Y 0.1355

G01 Z -1.0000 F 100.0000(Penetrate)
G02 X 6.0425 Y 0.2763 Z -1.0000 I 0.0000 J 2.4301 F 3500.0000
G02 X 5.5207 Y 0.6116 Z -1.0000 I 0.4583 J 1.2870
G02 X 5.0826 Y 1.2743 Z -1.0000 I 1.1889 J 1.2621
G02 X 4.9006 Y 2.2948 Z -1.0000 I 2.7698 J 1.0204
G02 X 5.0859 Y 3.3338 Z -1.0000 I 3.0055 J 0.0000
G02 X 5.5207 Y 3.9779 Z -1.0000 I 1.5290 J -0.5633
G02 X 6.0425 Y 4.3132 Z -1.0000 I 0.9802 J -0.9517
G02 X 6.8578 Y 4.4541 Z -1.0000 I 0.8152 J -2.2893
G02 X 7.6730 Y 4.3132 Z -1.0000 I 0.0000 J -2.4301
G02 X 8.1949 Y 3.9779 Z -1.0000 I -0.4583 J -1.2870
G02 X 8.6276 Y 3.3343 Z -1.0000 I -1.0964 J -1.2044
G02 X 8.8122 Y 2.2948 Z -1.0000 I -2.8343 J -1.0396
G02 X 8.6309 Y 1.2738 Z -1.0000 I -2.9649 J 0.0000
G02 X 8.1949 Y 0.6116 Z -1.0000 I -1.6273 J 0.5968
G02 X 7.6730 Y 0.2763 Z -1.0000 I -0.9802 J 0.9517
G02 X 6.8578 Y 0.1355 Z -1.0000 I -0.8152 J 2.2893
G01 X 6.8578 Y 0.1355 Z -1.0000
G00 Z 5.0000

(End cutting path id: text20284)


(Start cutting path id: text20284)
(Change tool to Default tool)

G00 Z 5.0000
G00 X 7.6634 Y 1.2317

G01 Z -1.0000 F 100.0000(Penetrate)
G03 X 7.8696 Y 1.6368 Z -1.0000 I -0.8999 J 0.7133 F 3500.0000
G03 X 7.9596 Y 2.2948 Z -1.0000 I -2.3614 J 0.6580
G03 X 7.8690 Y 2.9495 Z -1.0000 I -2.4126 J 0.0000
G03 X 7.6606 Y 3.3550 Z -1.0000 I -1.1047 J -0.3115
G03 X 7.3149 Y 3.6297 Z -1.0000 I -0.7519 J -0.5916
G03 X 6.8578 Y 3.7315 Z -1.0000 I -0.4571 J -0.9748
G03 X 6.3994 Y 3.6307 Z -1.0000 I 0.0000 J -1.0924
G03 X 6.0494 Y 3.3578 Z -1.0000 I 0.4097 J -0.8862
G03 X 5.8391 Y 2.9518 Z -1.0000 I 0.8896 J -0.7182
G03 X 5.7477 Y 2.2948 Z -1.0000 I 2.3146 J -0.6570
G03 X 5.8391 Y 1.6378 Z -1.0000 I 2.4060 J -0.0000
G03 X 6.0494 Y 1.2317 Z -1.0000 I 1.0999 J 0.3122
G03 X 6.3994 Y 0.9588 Z -1.0000 I 0.7597 J 0.6134
G03 X 6.8578 Y 0.8580 Z -1.0000 I 0.4584 J 0.9915
G03 X 7.3158 Y 0.9591 Z -1.0000 I -0.0000 J 1.0884
G03 X 7.6634 Y 1.2317 Z -1.0000 I -0.4063 J 0.8757
G01 X 7.6634 Y 1.2317 Z -1.0000
G00 Z 5.0000

(End cutting path id: text20284)


(Start cutting path id: text20284)
(Change tool to Default tool)

G00 Z 5.0000
G00 X 12.4276 Y 4.3295

G01 Z -1.0000 F 100.0000(Penetrate)
G01 X 12.4276 Y 3.6069 Z -1.0000 F 3500.0000
G01 X 11.2068 Y 3.6069 Z -1.0000
G01 X 11.2068 Y 0.2490 Z -1.0000
G01 X 10.3486 Y 0.2490 Z -1.0000
G01 X 10.3486 Y 3.6069 Z -1.0000
G01 X 9.1223 Y 3.6069 Z -1.0000
G01 X 9.1223 Y 4.3295 Z -1.0000
G01 X 12.4276 Y 4.3295 Z -1.0000
G00 Z 5.0000

(End cutting path id: text20284)


(Start cutting path id: text20284)
(Change tool to Default tool)

G00 Z 5.0000
G00 X 15.4368 Y 1.2317

G01 Z -1.0000 F 100.0000(Penetrate)
G03 X 15.6431 Y 1.6368 Z -1.0000 I -0.8999 J 0.7133 F 3500.0000
G03 X 15.7330 Y 2.2948 Z -1.0000 I -2.3614 J 0.6580
G03 X 15.6425 Y 2.9495 Z -1.0000 I -2.4126 J 0.0000
G03 X 15.4340 Y 3.3550 Z -1.0000 I -1.1047 J -0.3115
G03 X 15.0884 Y 3.6297 Z -1.0000 I -0.7519 J -0.5916
G03 X 14.6312 Y 3.7315 Z -1.0000 I -0.4571 J -0.9748
G03 X 14.1728 Y 3.6307 Z -1.0000 I 0.0000 J -1.0924
G03 X 13.8229 Y 3.3578 Z -1.0000 I 0.4097 J -0.8862
G03 X 13.6126 Y 2.9518 Z -1.0000 I 0.8896 J -0.7182
G03 X 13.5211 Y 2.2948 Z -1.0000 I 2.3146 J -0.6570
G03 X 13.6126 Y 1.6378 Z -1.0000 I 2.4060 J 0.0000
G03 X 13.8229 Y 1.2317 Z -1.0000 I 1.0999 J 0.3122
G03 X 14.1728 Y 0.9588 Z -1.0000 I 0.7597 J 0.6134
G03 X 14.6312 Y 0.8580 Z -1.0000 I 0.4584 J 0.9915
G03 X 15.0893 Y 0.9591 Z -1.0000 I -0.0000 J 1.0884
G03 X 15.4368 Y 1.2317 Z -1.0000 I -0.4063 J 0.8757
G01 X 15.4368 Y 1.2317 Z -1.0000
G00 Z 5.0000

(End cutting path id: text20284)


(Start cutting path id: text20284)
(Change tool to Default tool)

G00 Z 5.0000
G00 X 14.6312 Y 0.1355

G01 Z -1.0000 F 100.0000(Penetrate)
G02 X 13.8160 Y 0.2763 Z -1.0000 I 0.0000 J 2.4301 F 3500.0000
G02 X 13.2941 Y 0.6116 Z -1.0000 I 0.4583 J 1.2870
G02 X 12.8560 Y 1.2743 Z -1.0000 I 1.1889 J 1.2621
G02 X 12.6740 Y 2.2948 Z -1.0000 I 2.7698 J 1.0204
G02 X 12.8593 Y 3.3338 Z -1.0000 I 3.0055 J -0.0000
G02 X 13.2941 Y 3.9779 Z -1.0000 I 1.5290 J -0.5633
G02 X 13.8160 Y 4.3132 Z -1.0000 I 0.9802 J -0.9517
G02 X 14.6312 Y 4.4541 Z -1.0000 I 0.8152 J -2.2893
G02 X 15.4465 Y 4.3132 Z -1.0000 I -0.0000 J -2.4301
G02 X 15.9683 Y 3.9779 Z -1.0000 I -0.4583 J -1.2870
G02 X 16.4010 Y 3.3343 Z -1.0000 I -1.0964 J -1.2044
G02 X 16.5857 Y 2.2948 Z -1.0000 I -2.8343 J -1.0396
G02 X 16.4043 Y 1.2738 Z -1.0000 I -2.9649 J 0.0000
G02 X 15.9683 Y 0.6116 Z -1.0000 I -1.6273 J 0.5968
G02 X 15.4465 Y 0.2763 Z -1.0000 I -0.9802 J 0.9517
G02 X 14.6312 Y 0.1355 Z -1.0000 I -0.8152 J 2.2893
G01 X 14.6312 Y 0.1355 Z -1.0000
G00 Z 5.0000

(End cutting path id: text20284)


(Start cutting path id: text20284)
(Change tool to Default tool)

G00 Z 5.0000
G00 X 18.9692 Y 1.8491

G01 Z -1.0000 F 100.0000(Penetrate)
G01 X 18.0889 Y 1.8491 Z -1.0000 F 3500.0000
G01 X 18.0889 Y 0.2490 Z -1.0000
G01 X 17.2556 Y 0.2490 Z -1.0000
G01 X 17.2556 Y 4.3295 Z -1.0000
G01 X 19.2571 Y 4.3295 Z -1.0000
G02 X 19.6800 Y 4.2918 Z -1.0000 I -0.0591 J -3.0564
G02 X 19.9160 Y 4.2243 Z -1.0000 I -0.1612 J -1.0093
G02 X 20.1312 Y 4.1036 Z -1.0000 I -0.4086 J -0.9807
G02 X 20.3091 Y 3.9391 Z -1.0000 I -0.6015 J -0.8292
G02 X 20.4281 Y 3.7756 Z -1.0000 I -0.9682 J -0.8299
G02 X 20.5195 Y 3.5959 Z -1.0000 I -1.0808 J -0.6624
G02 X 20.5758 Y 3.4034 Z -1.0000 I -0.8767 J -0.3610
G02 X 20.5970 Y 3.1668 Z -1.0000 I -1.3101 J -0.2366
G02 X 20.5614 Y 2.8848 Z -1.0000 I -1.1369 J -0.0000
G02 X 20.4502 Y 2.5937 Z -1.0000 I -1.3235 J 0.3389
G02 X 20.2618 Y 2.3628 Z -1.0000 I -0.6604 J 0.3465
G02 X 19.9658 Y 2.1979 Z -1.0000 I -0.6095 J 0.7459
G02 X 20.2175 Y 2.0496 Z -1.0000 I -0.3643 J -0.9064
G02 X 20.3644 Y 1.8740 Z -1.0000 I -0.3788 J -0.4662
G02 X 20.4447 Y 1.6560 Z -1.0000 I -0.6029 J -0.3457
G02 X 20.4835 Y 1.2373 Z -1.0000 I -2.2399 J -0.4188
G01 X 20.4835 Y 0.9632 Z -1.0000
G03 X 20.4916 Y 0.6845 Z -1.0000 I 4.7803 J 0.0000
G03 X 20.5056 Y 0.5839 Z -1.0000 I 0.6327 J 0.0369
G03 X 20.5644 Y 0.4441 Z -1.0000 I 0.3924 J 0.0826
G03 X 20.6606 Y 0.3514 Z -1.0000 I 0.2592 J 0.1728
G01 X 20.6606 Y 0.2490 Z -1.0000
G01 X 19.7222 Y 0.2490 Z -1.0000
G02 X 19.6855 Y 0.3851 Z -1.0000 I 4.4669 J 1.2764
G02 X 19.6668 Y 0.4677 Z -1.0000 I 1.6225 J 0.4108
G02 X 19.6413 Y 0.6401 Z -1.0000 I 1.9198 J 0.3716
G02 X 19.6308 Y 0.8192 Z -1.0000 I 2.0615 J 0.2110
G01 X 19.6253 Y 1.1985 Z -1.0000
G03 X 19.5725 Y 1.5680 Z -1.0000 I -1.4631 J -0.0206
G03 X 19.4814 Y 1.7189 Z -1.0000 I -0.3149 J -0.0871
G03 X 19.3277 Y 1.8042 Z -1.0000 I -0.2385 J -0.2487
G03 X 18.9692 Y 1.8491 Z -1.0000 I -0.3585 J -1.4110
G01 X 18.9692 Y 1.8491 Z -1.0000
G00 Z 5.0000

(End cutting path id: text20284)


(Start cutting path id: text20284)
(Change tool to Default tool)

G00 Z 5.0000
G00 X 19.4869 Y 2.5910

G01 Z -1.0000 F 100.0000(Penetrate)
G03 X 19.6654 Y 2.7562 Z -1.0000 I -0.1614 J 0.3536 F 3500.0000
G03 X 19.7416 Y 3.0505 Z -1.0000 I -0.5311 J 0.2944
G03 X 19.6657 Y 3.3753 Z -1.0000 I -0.7327 J -0.0000
G03 X 19.4952 Y 3.5488 Z -1.0000 I -0.3495 J -0.1728
G03 X 19.3511 Y 3.5975 Z -1.0000 I -0.2288 J -0.4400
G03 X 19.0799 Y 3.6208 Z -1.0000 I -0.2711 J -1.5641
G01 X 18.0889 Y 3.6208 Z -1.0000
G01 X 18.0889 Y 2.5245 Z -1.0000
G01 X 19.0550 Y 2.5245 Z -1.0000
G03 X 19.3382 Y 2.5462 Z -1.0000 I -0.0000 J 1.8621
G03 X 19.4869 Y 2.5910 Z -1.0000 I -0.0847 J 0.5505
G01 X 19.4869 Y 2.5910 Z -1.0000
G00 Z 5.0000

(End cutting path id: text20284)


(Start cutting path id: text20284)
(Change tool to Default tool)

G00 Z 5.0000
G00 X 24.2096 Y 0.5535

G01 Z -1.0000 F 100.0000(Penetrate)
G02 X 23.7079 Y 0.2511 Z -1.0000 I -1.0015 J 1.0943 F 3500.0000
G02 X 23.0414 Y 0.1355 Z -1.0000 I -0.6665 J 1.8627
G02 X 22.2322 Y 0.2942 Z -1.0000 I 0.0000 J 2.1421
G02 X 21.6572 Y 0.7002 Z -1.0000 I 0.5895 J 1.4449
G02 X 21.3006 Y 1.3236 Z -1.0000 I 1.3102 J 1.1632
G02 X 21.1534 Y 2.2560 Z -1.0000 I 2.8791 J 0.9324
G02 X 21.3222 Y 3.2551 Z -1.0000 I 3.0407 J 0.0000
G02 X 21.7264 Y 3.9032 Z -1.0000 I 1.6316 J -0.5676
G02 X 22.2817 Y 4.2706 Z -1.0000 I 1.1553 J -1.1426
G02 X 22.9943 Y 4.4070 Z -1.0000 I 0.7127 J -1.7934
G02 X 23.9213 Y 4.2086 Z -1.0000 I -0.0000 J -2.2650
G02 X 24.5003 Y 3.7315 Z -1.0000 I -0.5807 J -1.2946
G02 X 24.7080 Y 3.3334 Z -1.0000 I -1.4732 J -1.0216
G02 X 24.7827 Y 2.9702 Z -1.0000 I -1.1461 J -0.4251
G01 X 23.9300 Y 2.9702 Z -1.0000
G03 X 23.8236 Y 3.2510 Z -1.0000 I -1.6749 J -0.4740
G03 X 23.7169 Y 3.4132 Z -1.0000 I -0.6555 J -0.3154
G03 X 23.4488 Y 3.6005 Z -1.0000 I -0.5136 J -0.4494
G03 X 23.0276 Y 3.6789 Z -1.0000 I -0.4212 J -1.0925
G03 X 22.6140 Y 3.5790 Z -1.0000 I -0.0000 J -0.9059
G03 X 22.2940 Y 3.3024 Z -1.0000 I 0.4086 J -0.7963
G03 X 22.1077 Y 2.9022 Z -1.0000 I 0.9616 J -0.6909
G03 X 22.0254 Y 2.2422 Z -1.0000 I 2.6062 J -0.6600
G03 X 22.1136 Y 1.5872 Z -1.0000 I 2.4768 J -0.0000
G03 X 22.3078 Y 1.2123 Z -1.0000 I 0.9749 J 0.2673
G03 X 22.6343 Y 0.9605 Z -1.0000 I 0.7355 J 0.6159
G03 X 23.0303 Y 0.8718 Z -1.0000 I 0.3960 J 0.8403
G03 X 23.4385 Y 0.9557 Z -1.0000 I 0.0000 J 1.0351
G03 X 23.7141 Y 1.1653 Z -1.0000 I -0.2817 J 0.6564
G03 X 23.8204 Y 1.3354 Z -1.0000 I -0.5933 J 0.4892
G03 X 23.9300 Y 1.6387 Z -1.0000 I -1.8082 J 0.8248
G01 X 24.7744 Y 1.6387 Z -1.0000
G02 X 24.5688 Y 1.0228 Z -1.0000 I -2.0395 J 0.3385
G02 X 24.2096 Y 0.5535 Z -1.0000 I -1.5192 J 0.7906
G01 X 24.2096 Y 0.5535 Z -1.0000
G00 Z 5.0000

(End cutting path id: text20284)


(Start cutting path id: text20284)
(Change tool to Default tool)

G00 Z 5.0000
G00 X 28.7192 Y 4.3295

G01 Z -1.0000 F 100.0000(Penetrate)
G01 X 27.3545 Y 1.7826 Z -1.0000 F 3500.0000
G01 X 27.3545 Y 0.2490 Z -1.0000
G01 X 26.5018 Y 0.2490 Z -1.0000
G01 X 26.5018 Y 1.7826 Z -1.0000
G01 X 25.0900 Y 4.3295 Z -1.0000
G01 X 26.0949 Y 4.3295 Z -1.0000
G01 X 26.9420 Y 2.5522 Z -1.0000
G01 X 27.7531 Y 4.3295 Z -1.0000
G01 X 28.7192 Y 4.3295 Z -1.0000
G00 Z 5.0000

(End cutting path id: text20284)


(Start cutting path id: text20284)
(Change tool to Default tool)

G00 Z 5.0000
G00 X 33.3008 Y 4.3295

G01 Z -1.0000 F 100.0000(Penetrate)
G01 X 34.1535 Y 4.3295 Z -1.0000 F 3500.0000
G01 X 34.1535 Y 0.9826 Z -1.0000
G01 X 36.1743 Y 0.9826 Z -1.0000
G01 X 36.1743 Y 0.2490 Z -1.0000
G01 X 33.3008 Y 0.2490 Z -1.0000
G01 X 33.3008 Y 4.3295 Z -1.0000
G00 Z 5.0000

(End cutting path id: text20284)


(Start cutting path id: text20284)
(Change tool to Default tool)

G00 Z 5.0000
G00 X 32.0855 Y 0.5535

G01 Z -1.0000 F 100.0000(Penetrate)
G02 X 31.5838 Y 0.2511 Z -1.0000 I -1.0015 J 1.0943 F 3500.0000
G02 X 30.9173 Y 0.1355 Z -1.0000 I -0.6665 J 1.8627
G02 X 30.1081 Y 0.2942 Z -1.0000 I 0.0000 J 2.1421
G02 X 29.5331 Y 0.7002 Z -1.0000 I 0.5895 J 1.4449
G02 X 29.1765 Y 1.3236 Z -1.0000 I 1.3102 J 1.1632
G02 X 29.0293 Y 2.2560 Z -1.0000 I 2.8791 J 0.9324
G02 X 29.1981 Y 3.2551 Z -1.0000 I 3.0407 J -0.0000
G02 X 29.6023 Y 3.9032 Z -1.0000 I 1.6316 J -0.5676
G02 X 30.1576 Y 4.2706 Z -1.0000 I 1.1553 J -1.1426
G02 X 30.8702 Y 4.4070 Z -1.0000 I 0.7127 J -1.7934
G02 X 31.7972 Y 4.2086 Z -1.0000 I 0.0000 J -2.2650
G02 X 32.3762 Y 3.7315 Z -1.0000 I -0.5807 J -1.2946
G02 X 32.5838 Y 3.3334 Z -1.0000 I -1.4732 J -1.0216
G02 X 32.6586 Y 2.9702 Z -1.0000 I -1.1461 J -0.4251
G01 X 31.8059 Y 2.9702 Z -1.0000
G03 X 31.6995 Y 3.2510 Z -1.0000 I -1.6749 J -0.4740
G03 X 31.5928 Y 3.4132 Z -1.0000 I -0.6555 J -0.3154
G03 X 31.3246 Y 3.6005 Z -1.0000 I -0.5136 J -0.4494
G03 X 30.9034 Y 3.6789 Z -1.0000 I -0.4212 J -1.0925
G03 X 30.4898 Y 3.5790 Z -1.0000 I 0.0000 J -0.9059
G03 X 30.1698 Y 3.3024 Z -1.0000 I 0.4086 J -0.7963
G03 X 29.9836 Y 2.9022 Z -1.0000 I 0.9616 J -0.6909
G03 X 29.9013 Y 2.2422 Z -1.0000 I 2.6062 J -0.6600
G03 X 29.9895 Y 1.5872 Z -1.0000 I 2.4768 J -0.0000
G03 X 30.1837 Y 1.2123 Z -1.0000 I 0.9749 J 0.2673
G03 X 30.5102 Y 0.9605 Z -1.0000 I 0.7355 J 0.6159
G03 X 30.9062 Y 0.8718 Z -1.0000 I 0.3960 J 0.8403
G03 X 31.3144 Y 0.9557 Z -1.0000 I 0.0000 J 1.0351
G03 X 31.5900 Y 1.1653 Z -1.0000 I -0.2817 J 0.6564
G03 X 31.6963 Y 1.3354 Z -1.0000 I -0.5933 J 0.4892
G03 X 31.8059 Y 1.6387 Z -1.0000 I -1.8082 J 0.8248
G01 X 32.6503 Y 1.6387 Z -1.0000
G02 X 32.4447 Y 1.0228 Z -1.0000 I -2.0395 J 0.3385
G02 X 32.0855 Y 0.5535 Z -1.0000 I -1.5192 J 0.7906
G01 X 32.0855 Y 0.5535 Z -1.0000
G00 Z 5.0000

(End cutting path id: text20284)


(Start cutting path id: text20284)
(Change tool to Default tool)

G00 Z 5.0000
G00 X 39.6043 Y 2.0318

G01 Z -1.0000 F 100.0000(Penetrate)
G01 X 37.6222 Y 2.0318 Z -1.0000 F 3500.0000
G01 X 37.6222 Y 0.9826 Z -1.0000
G01 X 39.8811 Y 0.9826 Z -1.0000
G01 X 39.8811 Y 0.2490 Z -1.0000
G01 X 36.7889 Y 0.2490 Z -1.0000
G01 X 36.7889 Y 4.3295 Z -1.0000
G01 X 39.7815 Y 4.3295 Z -1.0000
G01 X 39.7815 Y 3.6069 Z -1.0000
G01 X 37.6222 Y 3.6069 Z -1.0000
G01 X 37.6222 Y 2.7405 Z -1.0000
G01 X 39.6043 Y 2.7405 Z -1.0000
G01 X 39.6043 Y 2.0318 Z -1.0000
G00 Z 5.0000

(End cutting path id: text20284)



(Footer)
M5
G00 X0.0000 Y0.0000
M2
(Using default footer. To add your own footer create file "footer" in the output dir.)
(end)
%