%
(Header)
(Generated by gcodetools from Inkscape.)
(Using default header. To add your own header create file "header" in the output dir.)
M3
(Header end.)
G21 (All units in mm)

(Start cutting path id: text70939)
(Change tool to Default tool)

G00 Z 5.0000
G00 X 3.0277 Y 32.7934

G01 Z -1.0000 F 100.0000(Penetrate)
G02 X 1.6971 Y 33.0233 Z -1.0000 I -0.0000 J 3.9664 F 3500.0000
G02 X 0.8453 Y 33.5706 Z -1.0000 I 0.7481 J 2.1006
G02 X 0.1302 Y 34.6523 Z -1.0000 I 1.9405 J 2.0600
G02 X -0.1668 Y 36.3178 Z -1.0000 I 4.5208 J 1.6655
G02 X 0.1356 Y 38.0137 Z -1.0000 I 4.9056 J -0.0000
G02 X 0.8453 Y 39.0650 Z -1.0000 I 2.4957 J -0.9195
G02 X 1.6971 Y 39.6123 Z -1.0000 I 1.5998 J -1.5533
G02 X 3.0277 Y 39.8422 Z -1.0000 I 1.3306 J -3.7366
G02 X 4.3583 Y 39.6123 Z -1.0000 I -0.0000 J -3.9664
G02 X 5.2101 Y 39.0650 Z -1.0000 I -0.7481 J -2.1006
G02 X 5.9164 Y 38.0146 Z -1.0000 I -1.7895 J -1.9658
G02 X 6.2177 Y 36.3178 Z -1.0000 I -4.6262 J -1.6968
G02 X 5.9218 Y 34.6514 Z -1.0000 I -4.8393 J 0.0000
G02 X 5.2101 Y 33.5706 Z -1.0000 I -2.6560 J 0.9742
G02 X 4.3583 Y 33.0233 Z -1.0000 I -1.5998 J 1.5533
G02 X 3.0277 Y 32.7934 Z -1.0000 I -1.3306 J 3.7366
G01 X 3.0277 Y 32.7934 Z -1.0000
G00 Z 5.0000

(End cutting path id: text70939)


(Start cutting path id: text70939)
(Change tool to Default tool)

G00 Z 5.0000
G00 X 4.3426 Y 34.5827

G01 Z -1.0000 F 100.0000(Penetrate)
G03 X 4.6792 Y 35.2439 Z -1.0000 I -1.4689 J 1.1642 F 3500.0000
G03 X 4.8260 Y 36.3178 Z -1.0000 I -3.8542 J 1.0740
G03 X 4.6782 Y 37.3865 Z -1.0000 I -3.9378 J -0.0000
G03 X 4.3381 Y 38.0484 Z -1.0000 I -1.8030 J -0.5084
G03 X 3.7738 Y 38.4966 Z -1.0000 I -1.2272 J -0.9655
G03 X 3.0277 Y 38.6629 Z -1.0000 I -0.7461 J -1.5910
G03 X 2.2795 Y 38.4983 Z -1.0000 I 0.0000 J -1.7830
G03 X 1.7083 Y 38.0529 Z -1.0000 I 0.6688 J -1.4465
G03 X 1.3651 Y 37.3902 Z -1.0000 I 1.4519 J -1.1723
G03 X 1.2158 Y 36.3178 Z -1.0000 I 3.7778 J -1.0724
G03 X 1.3651 Y 35.2455 Z -1.0000 I 3.9271 J 0.0000
G03 X 1.7083 Y 34.5827 Z -1.0000 I 1.7952 J 0.5096
G03 X 2.2795 Y 34.1373 Z -1.0000 I 1.2399 J 1.0011
G03 X 3.0277 Y 33.9728 Z -1.0000 I 0.7482 J 1.6184
G03 X 3.7753 Y 34.1377 Z -1.0000 I 0.0000 J 1.7764
G03 X 4.3426 Y 34.5827 Z -1.0000 I -0.6631 J 1.4293
G01 X 4.3426 Y 34.5827 Z -1.0000
G00 Z 5.0000

(End cutting path id: text70939)


(Start cutting path id: text70939)
(Change tool to Default tool)

G00 Z 5.0000
G00 X 10.1081 Y 35.5904

G01 Z -1.0000 F 100.0000(Penetrate)
G01 X 8.6712 Y 35.5904 Z -1.0000 F 3500.0000
G01 X 8.6712 Y 32.9787 Z -1.0000
G01 X 7.3112 Y 32.9787 Z -1.0000
G01 X 7.3112 Y 39.6389 Z -1.0000
G01 X 10.5780 Y 39.6389 Z -1.0000
G02 X 11.2682 Y 39.5774 Z -1.0000 I -0.0966 J -4.9890
G02 X 11.6534 Y 39.4672 Z -1.0000 I -0.2630 J -1.6475
G02 X 12.0046 Y 39.2702 Z -1.0000 I -0.6670 J -1.6008
G02 X 12.2950 Y 39.0018 Z -1.0000 I -0.9817 J -1.3534
G02 X 12.4893 Y 38.7349 Z -1.0000 I -1.5802 J -1.3545
G02 X 12.6384 Y 38.4415 Z -1.0000 I -1.7640 J -1.0812
G02 X 12.7303 Y 38.1274 Z -1.0000 I -1.4309 J -0.5892
G02 X 12.7649 Y 37.7411 Z -1.0000 I -2.1382 J -0.3863
G02 X 12.7069 Y 37.2809 Z -1.0000 I -1.8556 J 0.0000
G02 X 12.5255 Y 36.8058 Z -1.0000 I -2.1602 J 0.5531
G02 X 12.2178 Y 36.4288 Z -1.0000 I -1.0779 J 0.5656
G02 X 11.7347 Y 36.1597 Z -1.0000 I -0.9949 J 1.2175
G02 X 12.1455 Y 35.9177 Z -1.0000 I -0.5946 J -1.4794
G02 X 12.3854 Y 35.6310 Z -1.0000 I -0.6183 J -0.7610
G02 X 12.5163 Y 35.2753 Z -1.0000 I -0.9841 J -0.5642
G02 X 12.5797 Y 34.5918 Z -1.0000 I -3.6559 J -0.6835
G01 X 12.5797 Y 34.1445 Z -1.0000
G03 X 12.5929 Y 33.6895 Z -1.0000 I 7.8030 J -0.0000
G03 X 12.6158 Y 33.5254 Z -1.0000 I 1.0327 J 0.0603
G03 X 12.7117 Y 33.2972 Z -1.0000 I 0.6404 J 0.1348
G03 X 12.8689 Y 33.1459 Z -1.0000 I 0.4231 J 0.2821
G01 X 12.8689 Y 32.9787 Z -1.0000
G01 X 11.3371 Y 32.9787 Z -1.0000
G02 X 11.2772 Y 33.2009 Z -1.0000 I 7.2932 J 2.0838
G02 X 11.2467 Y 33.3357 Z -1.0000 I 2.6491 J 0.6707
G02 X 11.2052 Y 33.6171 Z -1.0000 I 3.1332 J 0.6064
G02 X 11.1880 Y 33.9095 Z -1.0000 I 3.3646 J 0.3444
G01 X 11.1790 Y 34.5285 Z -1.0000
G03 X 11.0927 Y 35.1316 Z -1.0000 I -2.3892 J -0.0340
G03 X 10.9440 Y 35.3780 Z -1.0000 I -0.5140 J -0.1422
G03 X 10.6932 Y 35.5172 Z -1.0000 I -0.3893 J -0.4059
G03 X 10.1081 Y 35.5904 Z -1.0000 I -0.5851 J -2.3030
G01 X 10.1081 Y 35.5904 Z -1.0000
G00 Z 5.0000

(End cutting path id: text70939)


(Start cutting path id: text70939)
(Change tool to Default tool)

G00 Z 5.0000
G00 X 10.9530 Y 36.8013

G01 Z -1.0000 F 100.0000(Penetrate)
G03 X 11.2445 Y 37.0709 Z -1.0000 I -0.2635 J 0.5772 F 3500.0000
G03 X 11.3687 Y 37.5514 Z -1.0000 I -0.8669 J 0.4804
G03 X 11.2449 Y 38.0814 Z -1.0000 I -1.1959 J 0.0000
G03 X 10.9666 Y 38.3647 Z -1.0000 I -0.5704 J -0.2821
G03 X 10.7314 Y 38.4441 Z -1.0000 I -0.3735 J -0.7183
G03 X 10.2888 Y 38.4821 Z -1.0000 I -0.4425 J -2.5531
G01 X 8.6712 Y 38.4821 Z -1.0000
G01 X 8.6712 Y 36.6928 Z -1.0000
G01 X 10.2482 Y 36.6928 Z -1.0000
G03 X 10.7103 Y 36.7282 Z -1.0000 I -0.0000 J 3.0393
G03 X 10.9530 Y 36.8013 Z -1.0000 I -0.1382 J 0.8985
G01 X 10.9530 Y 36.8013 Z -1.0000
G00 Z 5.0000

(End cutting path id: text70939)


(Start cutting path id: text70939)
(Change tool to Default tool)

G00 Z 5.0000
G00 X 17.4731 Y 35.4955

G01 Z -1.0000 F 100.0000(Penetrate)
G01 X 16.6417 Y 38.1162 Z -1.0000 F 3500.0000
G01 X 15.7832 Y 35.4955 Z -1.0000
G01 X 17.4731 Y 35.4955 Z -1.0000
G00 Z 5.0000

(End cutting path id: text70939)


(Start cutting path id: text70939)
(Change tool to Default tool)

G00 Z 5.0000
G00 X 17.8617 Y 34.3478

G01 Z -1.0000 F 100.0000(Penetrate)
G01 X 15.4082 Y 34.3478 Z -1.0000 F 3500.0000
G01 X 14.9473 Y 32.9787 Z -1.0000
G01 X 13.4924 Y 32.9787 Z -1.0000
G01 X 15.8691 Y 39.6389 Z -1.0000
G01 X 17.4415 Y 39.6389 Z -1.0000
G01 X 19.8001 Y 32.9787 Z -1.0000
G01 X 18.2910 Y 32.9787 Z -1.0000
G01 X 17.8617 Y 34.3478 Z -1.0000
G00 Z 5.0000

(End cutting path id: text70939)


(Start cutting path id: text70939)
(Change tool to Default tool)

G00 Z 5.0000
G00 X 26.0311 Y 32.9787

G01 Z -1.0000 F 100.0000(Penetrate)
G01 X 24.6394 Y 32.9787 Z -1.0000 F 3500.0000
G01 X 21.9193 Y 37.7095 Z -1.0000
G01 X 21.9193 Y 32.9787 Z -1.0000
G01 X 20.6225 Y 32.9787 Z -1.0000
G01 X 20.6225 Y 39.6389 Z -1.0000
G01 X 22.0819 Y 39.6389 Z -1.0000
G01 X 24.7343 Y 34.9894 Z -1.0000
G01 X 24.7343 Y 39.6389 Z -1.0000
G01 X 26.0311 Y 39.6389 Z -1.0000
G01 X 26.0311 Y 32.9787 Z -1.0000
G00 Z 5.0000

(End cutting path id: text70939)


(Start cutting path id: text70939)
(Change tool to Default tool)

G00 Z 5.0000
G00 X 31.4125 Y 33.1414

G01 Z -1.0000 F 100.0000(Penetrate)
G02 X 30.8342 Y 32.8982 Z -1.0000 I -1.0771 J 1.7522 F 3500.0000
G02 X 30.0570 Y 32.8025 Z -1.0000 I -0.7772 J 3.1089
G02 X 28.8412 Y 33.0490 Z -1.0000 I -0.0000 J 3.1214
G02 X 27.8881 Y 33.7197 Z -1.0000 I 1.0729 J 2.5370
G02 X 27.2612 Y 34.7434 Z -1.0000 I 2.0494 J 1.9590
G02 X 27.0070 Y 36.2410 Z -1.0000 I 4.2854 J 1.4976
G02 X 27.2605 Y 37.7604 Z -1.0000 I 4.6805 J 0.0000
G02 X 27.8972 Y 38.8346 Z -1.0000 I 2.9092 J -0.9985
G02 X 28.9055 Y 39.5427 Z -1.0000 I 2.0936 J -1.9094
G02 X 30.2513 Y 39.8106 Z -1.0000 I 1.3457 J -3.2459
G02 X 31.4531 Y 39.6246 Z -1.0000 I -0.0000 J -3.9765
G02 X 32.2891 Y 39.1644 Z -1.0000 I -0.7399 J -2.3336
G02 X 32.8948 Y 38.4322 Z -1.0000 I -1.6357 J -1.9697
G02 X 33.1747 Y 37.5604 Z -1.0000 I -2.0809 J -1.1489
G01 X 31.8056 Y 37.5604 Z -1.0000
G03 X 31.5227 Y 38.1394 Z -1.0000 I -1.3968 J -0.3238
G03 X 31.0330 Y 38.5138 Z -1.0000 I -1.0194 J -0.8262
G03 X 30.6813 Y 38.6230 Z -1.0000 I -0.6778 J -1.5611
G03 X 30.2693 Y 38.6629 Z -1.0000 I -0.4119 J -2.1096
G03 X 29.5390 Y 38.5027 Z -1.0000 I -0.0000 J -1.7452
G03 X 28.9454 Y 38.0529 Z -1.0000 I 0.7247 J -1.5728
G03 X 28.5910 Y 37.3883 Z -1.0000 I 1.3447 J -1.1440
G03 X 28.4303 Y 36.2274 Z -1.0000 I 4.1140 J -1.1609
G03 X 28.6109 Y 35.0782 Z -1.0000 I 3.7489 J 0.0000
G03 X 28.9906 Y 34.4879 Z -1.0000 I 1.2990 J 0.4184
G03 X 29.6005 Y 34.1054 Z -1.0000 I 1.3621 J 1.4947
G03 X 30.2648 Y 33.9773 Z -1.0000 I 0.6643 J 1.6578
G03 X 30.9223 Y 34.0891 Z -1.0000 I 0.0000 J 1.9882
G03 X 31.4125 Y 34.3794 Z -1.0000 I -0.4798 J 1.3693
G03 X 31.7649 Y 34.8373 Z -1.0000 I -1.1033 J 1.2137
G03 X 31.9638 Y 35.4412 Z -1.0000 I -1.7626 J 0.9150
G01 X 30.4230 Y 35.4412 Z -1.0000
G01 X 30.4230 Y 36.5528 Z -1.0000
G01 X 33.1973 Y 36.5528 Z -1.0000
G01 X 33.1973 Y 32.9787 Z -1.0000
G01 X 32.2755 Y 32.9787 Z -1.0000
G01 X 32.1355 Y 33.8101 Z -1.0000
G02 X 31.7087 Y 33.3645 Z -1.0000 I -3.8847 J 3.2928
G02 X 31.4125 Y 33.1414 Z -1.0000 I -1.2494 J 1.3507
G01 X 31.4125 Y 33.1414 Z -1.0000
G00 Z 5.0000

(End cutting path id: text70939)


(Start cutting path id: text70939)
(Change tool to Default tool)

G00 Z 5.0000
G00 X 39.1616 Y 35.8886

G01 Z -1.0000 F 100.0000(Penetrate)
G01 X 35.9264 Y 35.8886 Z -1.0000 F 3500.0000
G01 X 35.9264 Y 34.1761 Z -1.0000
G01 X 39.6135 Y 34.1761 Z -1.0000
G01 X 39.6135 Y 32.9787 Z -1.0000
G01 X 34.5664 Y 32.9787 Z -1.0000
G01 X 34.5664 Y 39.6389 Z -1.0000
G01 X 39.4508 Y 39.6389 Z -1.0000
G01 X 39.4508 Y 38.4596 Z -1.0000
G01 X 35.9264 Y 38.4596 Z -1.0000
G01 X 35.9264 Y 37.0453 Z -1.0000
G01 X 39.1616 Y 37.0453 Z -1.0000
G01 X 39.1616 Y 35.8886 Z -1.0000
G00 Z 5.0000

(End cutting path id: text70939)



(Footer)
M5
G00 X0.0000 Y0.0000
M2
(Using default footer. To add your own footer create file "footer" in the output dir.)
(end)
%