%
(Header)
(Generated by gcodetools from Inkscape.)
(Using default header. To add your own header create file "header" in the output dir.)
M3
(Header end.)
G21 (All units in mm)

(Start cutting path id: text24474)
(Change tool to Default tool)

G00 Z 5.0000
G00 X 10.7970 Y 31.3754

G01 Z -1.0000 F 100.0000(Penetrate)
G02 X 9.1555 Y 31.6589 Z -1.0000 I -0.0000 J 4.8929 F 3500.0000
G02 X 8.1048 Y 32.3341 Z -1.0000 I 0.9228 J 2.5913
G02 X 7.2227 Y 33.6684 Z -1.0000 I 2.3937 J 2.5412
G02 X 6.8563 Y 35.7230 Z -1.0000 I 5.5767 J 2.0546
G02 X 7.2294 Y 37.8150 Z -1.0000 I 6.0514 J 0.0000
G02 X 8.1048 Y 39.1119 Z -1.0000 I 3.0787 J -1.1342
G02 X 9.1555 Y 39.7871 Z -1.0000 I 1.9735 J -1.9162
G02 X 10.7970 Y 40.0706 Z -1.0000 I 1.6414 J -4.6094
G02 X 12.4384 Y 39.7871 Z -1.0000 I -0.0000 J -4.8929
G02 X 13.4892 Y 39.1119 Z -1.0000 I -0.9228 J -2.5913
G02 X 14.3604 Y 37.8161 Z -1.0000 I -2.2075 J -2.4250
G02 X 14.7321 Y 35.7230 Z -1.0000 I -5.7068 J -2.0931
G02 X 14.3670 Y 33.6673 Z -1.0000 I -5.9698 J 0.0000
G02 X 13.4892 Y 32.3341 Z -1.0000 I -3.2765 J 1.2017
G02 X 12.4384 Y 31.6589 Z -1.0000 I -1.9735 J 1.9162
G02 X 10.7970 Y 31.3754 Z -1.0000 I -1.6414 J 4.6094
G01 X 10.7970 Y 31.3754 Z -1.0000
G00 Z 5.0000

(End cutting path id: text24474)


(Start cutting path id: text24474)
(Change tool to Default tool)

G00 Z 5.0000
G00 X 12.4190 Y 33.5826

G01 Z -1.0000 F 100.0000(Penetrate)
G03 X 12.8343 Y 34.3982 Z -1.0000 I -1.8120 J 1.4362 F 3500.0000
G03 X 13.0154 Y 35.7230 Z -1.0000 I -4.7545 J 1.3248
G03 X 12.8331 Y 37.0414 Z -1.0000 I -4.8576 J 0.0000
G03 X 12.4134 Y 37.8578 Z -1.0000 I -2.2242 J -0.6272
G03 X 11.7174 Y 38.4107 Z -1.0000 I -1.5139 J -1.1911
G03 X 10.7970 Y 38.6158 Z -1.0000 I -0.9204 J -1.9626
G03 X 9.8740 Y 38.4128 Z -1.0000 I -0.0000 J -2.1994
G03 X 9.1694 Y 37.8634 Z -1.0000 I 0.8250 J -1.7844
G03 X 8.7460 Y 37.0458 Z -1.0000 I 1.7911 J -1.4461
G03 X 8.5619 Y 35.7230 Z -1.0000 I 4.6603 J -1.3228
G03 X 8.7460 Y 34.4002 Z -1.0000 I 4.8444 J -0.0000
G03 X 9.1694 Y 33.5826 Z -1.0000 I 2.2145 J 0.6286
G03 X 9.8740 Y 33.0332 Z -1.0000 I 1.5296 J 1.2350
G03 X 10.7970 Y 32.8302 Z -1.0000 I 0.9230 J 1.9964
G03 X 11.7192 Y 33.0337 Z -1.0000 I 0.0000 J 2.1914
G03 X 12.4190 Y 33.5826 Z -1.0000 I -0.8180 J 1.7632
G01 X 12.4190 Y 33.5826 Z -1.0000
G00 Z 5.0000

(End cutting path id: text24474)


(Start cutting path id: text24474)
(Change tool to Default tool)

G00 Z 5.0000
G00 X 15.4344 Y 39.8198

G01 Z -1.0000 F 100.0000(Penetrate)
G01 X 17.2683 Y 39.8198 Z -1.0000 F 3500.0000
G01 X 19.0519 Y 33.5826 Z -1.0000
G01 X 20.8523 Y 39.8198 Z -1.0000
G01 X 22.6359 Y 39.8198 Z -1.0000
G01 X 19.8322 Y 31.6039 Z -1.0000
G01 X 18.2102 Y 31.6039 Z -1.0000
G01 X 15.4344 Y 39.8198 Z -1.0000
G00 Z 5.0000

(End cutting path id: text24474)


(Start cutting path id: text24474)
(Change tool to Default tool)

G00 Z 5.0000
G00 X 29.3747 Y 35.1935

G01 Z -1.0000 F 100.0000(Penetrate)
G01 X 25.3838 Y 35.1935 Z -1.0000 F 3500.0000
G01 X 25.3838 Y 33.0810 Z -1.0000
G01 X 29.9321 Y 33.0810 Z -1.0000
G01 X 29.9321 Y 31.6039 Z -1.0000
G01 X 23.7061 Y 31.6039 Z -1.0000
G01 X 23.7061 Y 39.8198 Z -1.0000
G01 X 29.7314 Y 39.8198 Z -1.0000
G01 X 29.7314 Y 38.3650 Z -1.0000
G01 X 25.3838 Y 38.3650 Z -1.0000
G01 X 25.3838 Y 36.6204 Z -1.0000
G01 X 29.3747 Y 36.6204 Z -1.0000
G01 X 29.3747 Y 35.1935 Z -1.0000
G00 Z 5.0000

(End cutting path id: text24474)


(Start cutting path id: text24474)
(Change tool to Default tool)

G00 Z 5.0000
G00 X 37.9139 Y 31.6039

G01 Z -1.0000 F 100.0000(Penetrate)
G01 X 36.1971 Y 31.6039 Z -1.0000 F 3500.0000
G01 X 32.8417 Y 37.4398 Z -1.0000
G01 X 32.8417 Y 31.6039 Z -1.0000
G01 X 31.2420 Y 31.6039 Z -1.0000
G01 X 31.2420 Y 39.8198 Z -1.0000
G01 X 33.0423 Y 39.8198 Z -1.0000
G01 X 36.3142 Y 34.0843 Z -1.0000
G01 X 36.3142 Y 39.8198 Z -1.0000
G01 X 37.9139 Y 39.8198 Z -1.0000
G01 X 37.9139 Y 31.6039 Z -1.0000
G00 Z 5.0000

(End cutting path id: text24474)



(Footer)
M5
G00 X0.0000 Y0.0000
M2
(Using default footer. To add your own footer create file "footer" in the output dir.)
(end)
%