%
(Header)
(Generated by gcodetools from Inkscape.)
(Using default header. To add your own header create file "header" in the output dir.)
M3
(Header end.)
G21 (All units in mm)

(Start cutting path id: path361)
(Change tool to Default tool)

G00 Z 5.0000
G00 X 1.5508 Y 26.9942

G01 Z -1.0000 F 100.0000(Penetrate)
G01 X 0.4654 Y 26.9942 Z -1.0000 F 3500.0000
G01 X 0.4654 Y 32.5688 Z -1.0000
G01 X 2.1597 Y 32.5688 Z -1.0000
G01 X 3.1733 Y 28.1855 Z -1.0000
G01 X 4.1793 Y 32.5688 Z -1.0000
G01 X 5.8547 Y 32.5688 Z -1.0000
G01 X 5.8547 Y 26.9942 Z -1.0000
G01 X 4.7693 Y 26.9942 Z -1.0000
G01 X 4.7693 Y 30.7648 Z -1.0000
G02 X 4.7699 Y 30.9275 Z -1.0000 I 19.5255 J -0.0000
G02 X 4.7730 Y 31.2187 Z -1.0000 I 62.6194 J -0.5216
G03 X 4.7762 Y 31.5137 Z -1.0000 I -65.7830 J 0.8429
G03 X 4.7768 Y 31.6725 Z -1.0000 I -19.0707 J 0.1588
G01 X 3.7216 Y 26.9942 Z -1.0000
G01 X 2.5908 Y 26.9942 Z -1.0000
G01 X 1.5432 Y 31.6725 Z -1.0000
G03 X 1.5439 Y 31.5137 Z -1.0000 I 19.0714 J -0.0000
G03 X 1.5470 Y 31.2187 Z -1.0000 I 65.7861 J 0.5479
G02 X 1.5501 Y 30.9275 Z -1.0000 I -62.6163 J -0.8128
G02 X 1.5508 Y 30.7648 Z -1.0000 I -19.5248 J -0.1626
G01 X 1.5508 Y 26.9942 Z -1.0000
G00 Z 5.0000

(End cutting path id: path361)


(Start cutting path id: path360)
(Change tool to Default tool)

G00 Z 5.0000
G00 X 2.8518 Y 35.9696

G01 Z -1.0000 F 100.0000(Penetrate)
G01 X 1.6680 Y 35.9696 Z -1.0000 F 3500.0000
G01 X 1.6680 Y 33.9652 Z -1.0000
G01 X 0.5107 Y 33.9652 Z -1.0000
G01 X 0.5107 Y 39.5398 Z -1.0000
G01 X 2.9388 Y 39.5398 Z -1.0000
G02 X 3.7320 Y 39.4152 Z -1.0000 I -0.0000 J -2.5878
G02 X 4.2776 Y 39.1087 Z -1.0000 I -0.4818 J -1.4962
G02 X 4.6258 Y 38.6084 Z -1.0000 I -0.8042 J -0.9312
G02 X 4.7768 Y 37.7736 Z -1.0000 I -2.2324 J -0.8348
G02 X 4.6186 Y 36.8615 Z -1.0000 I -2.7080 J 0.0000
G02 X 4.2776 Y 36.3781 Z -1.0000 I -1.0413 J 0.3725
G02 X 3.7342 Y 36.0935 Z -1.0000 I -0.9617 J 1.1754
G02 X 2.8518 Y 35.9696 Z -1.0000 I -0.8824 J 3.0801
G01 X 2.8518 Y 35.9696 Z -1.0000
G00 Z 5.0000

(End cutting path id: path360)


(Start cutting path id: path360)
(Change tool to Default tool)

G00 Z 5.0000
G00 X 3.3964 Y 37.1307

G01 Z -1.0000 F 100.0000(Penetrate)
G03 X 3.5534 Y 37.3626 Z -1.0000 I -0.3717 J 0.4208 F 3500.0000
G03 X 3.6233 Y 37.7661 Z -1.0000 I -1.1296 J 0.4034
G03 X 3.5513 Y 38.1664 Z -1.0000 I -1.1485 J -0.0000
G03 X 3.3926 Y 38.3863 Z -1.0000 I -0.4781 J -0.1778
G03 X 3.1458 Y 38.5159 Z -1.0000 I -0.4409 J -0.5399
G03 X 2.7535 Y 38.5716 Z -1.0000 I -0.3924 J -1.3533
G01 X 1.6680 Y 38.5716 Z -1.0000
G01 X 1.6680 Y 36.9302 Z -1.0000
G01 X 2.7535 Y 36.9302 Z -1.0000
G03 X 3.1435 Y 36.9896 Z -1.0000 I 0.0000 J 1.3105
G03 X 3.3964 Y 37.1307 Z -1.0000 I -0.2101 J 0.6740
G01 X 3.3964 Y 37.1307 Z -1.0000
G00 Z 5.0000

(End cutting path id: path360)


(Start cutting path id: path360)
(Change tool to Default tool)

G00 Z 5.0000
G00 X 8.0180 Y 36.0717

G01 Z -1.0000 F 100.0000(Penetrate)
G01 X 7.3221 Y 38.2653 Z -1.0000 F 3500.0000
G01 X 6.6035 Y 36.0717 Z -1.0000
G01 X 8.0180 Y 36.0717 Z -1.0000
G00 Z 5.0000

(End cutting path id: path360)


(Start cutting path id: path360)
(Change tool to Default tool)

G00 Z 5.0000
G00 X 8.3432 Y 35.1111

G01 Z -1.0000 F 100.0000(Penetrate)
G01 X 6.2896 Y 35.1111 Z -1.0000 F 3500.0000
G01 X 5.9039 Y 33.9652 Z -1.0000
G01 X 4.6861 Y 33.9652 Z -1.0000
G01 X 6.6754 Y 39.5398 Z -1.0000
G01 X 7.9915 Y 39.5398 Z -1.0000
G01 X 9.9657 Y 33.9652 Z -1.0000
G01 X 8.7025 Y 33.9652 Z -1.0000
G01 X 8.3432 Y 35.1111 Z -1.0000
G00 Z 5.0000

(End cutting path id: path360)


(Start cutting path id: path360)
(Change tool to Default tool)

G00 Z 5.0000
G00 X 13.0405 Y 36.1511

G01 Z -1.0000 F 100.0000(Penetrate)
G01 X 11.8378 Y 36.1511 Z -1.0000 F 3500.0000
G01 X 11.8378 Y 33.9652 Z -1.0000
G01 X 10.6994 Y 33.9652 Z -1.0000
G01 X 10.6994 Y 39.5398 Z -1.0000
G01 X 13.4338 Y 39.5398 Z -1.0000
G02 X 14.0115 Y 39.4883 Z -1.0000 I -0.0808 J -4.1758
G02 X 14.3339 Y 39.3961 Z -1.0000 I -0.2202 J -1.3790
G02 X 14.6279 Y 39.2312 Z -1.0000 I -0.5583 J -1.3399
G02 X 14.8709 Y 39.0065 Z -1.0000 I -0.8217 J -1.1328
G02 X 15.0336 Y 38.7832 Z -1.0000 I -1.3227 J -1.1337
G02 X 15.1584 Y 38.5376 Z -1.0000 I -1.4765 J -0.9050
G02 X 15.2353 Y 38.2747 Z -1.0000 I -1.1977 J -0.4932
G02 X 15.2643 Y 37.9514 Z -1.0000 I -1.7897 J -0.3233
G02 X 15.2157 Y 37.5661 Z -1.0000 I -1.5532 J 0.0000
G02 X 15.0638 Y 37.1685 Z -1.0000 I -1.8081 J 0.4629
G02 X 14.8063 Y 36.8530 Z -1.0000 I -0.9022 J 0.4734
G02 X 14.4020 Y 36.6277 Z -1.0000 I -0.8327 J 1.0191
G02 X 14.7458 Y 36.4252 Z -1.0000 I -0.4977 J -1.2382
G02 X 14.9466 Y 36.1852 Z -1.0000 I -0.5175 J -0.6370
G02 X 15.0562 Y 35.8874 Z -1.0000 I -0.8237 J -0.4723
G02 X 15.1092 Y 35.3153 Z -1.0000 I -3.0600 J -0.5721
G01 X 15.1092 Y 34.9409 Z -1.0000
G03 X 15.1203 Y 34.5601 Z -1.0000 I 6.5308 J 0.0000
G03 X 15.1395 Y 34.4228 Z -1.0000 I 0.8644 J 0.0505
G03 X 15.2197 Y 34.2318 Z -1.0000 I 0.5360 J 0.1128
G03 X 15.3513 Y 34.1051 Z -1.0000 I 0.3542 J 0.2361
G01 X 15.3513 Y 33.9652 Z -1.0000
G01 X 14.0692 Y 33.9652 Z -1.0000
G02 X 14.0191 Y 34.1512 Z -1.0000 I 6.1022 J 1.7436
G02 X 13.9935 Y 34.2639 Z -1.0000 I 2.2165 J 0.5611
G02 X 13.9587 Y 34.4995 Z -1.0000 I 2.6233 J 0.5077
G02 X 13.9444 Y 34.7442 Z -1.0000 I 2.8170 J 0.2884
G01 X 13.9368 Y 35.2624 Z -1.0000
G03 X 13.8646 Y 35.7672 Z -1.0000 I -1.9995 J -0.0282
G03 X 13.7401 Y 35.9734 Z -1.0000 I -0.4302 J -0.1190
G03 X 13.5302 Y 36.0899 Z -1.0000 I -0.3258 J -0.3397
G03 X 13.0405 Y 36.1511 Z -1.0000 I -0.4897 J -1.9277
G01 X 13.0405 Y 36.1511 Z -1.0000
G00 Z 5.0000

(End cutting path id: path360)


(Start cutting path id: path360)
(Change tool to Default tool)

G00 Z 5.0000
G00 X 13.7477 Y 37.1647

G01 Z -1.0000 F 100.0000(Penetrate)
G03 X 13.9917 Y 37.3904 Z -1.0000 I -0.2206 J 0.4831 F 3500.0000
G03 X 14.0956 Y 37.7925 Z -1.0000 I -0.7256 J 0.4021
G03 X 13.9919 Y 38.2362 Z -1.0000 I -1.0010 J 0.0000
G03 X 13.7590 Y 38.4733 Z -1.0000 I -0.4775 J -0.2361
G03 X 13.5622 Y 38.5398 Z -1.0000 I -0.3126 J -0.6012
G03 X 13.1917 Y 38.5716 Z -1.0000 I -0.3704 J -2.1370
G01 X 11.8378 Y 38.5716 Z -1.0000
G01 X 11.8378 Y 37.0739 Z -1.0000
G01 X 13.1577 Y 37.0739 Z -1.0000
G03 X 13.5445 Y 37.1035 Z -1.0000 I -0.0000 J 2.5440
G03 X 13.7477 Y 37.1647 Z -1.0000 I -0.1157 J 0.7520
G01 X 13.7477 Y 37.1647 Z -1.0000
G00 Z 5.0000

(End cutting path id: path360)


(Start cutting path id: path361)
(Change tool to Default tool)

G00 Z 5.0000
G00 X 16.1530 Y 32.5688

G01 Z -1.0000 F 100.0000(Penetrate)
G01 X 16.1530 Y 31.5817 Z -1.0000 F 3500.0000
G01 X 14.4852 Y 31.5817 Z -1.0000
G01 X 14.4852 Y 26.9942 Z -1.0000
G01 X 13.3128 Y 26.9942 Z -1.0000
G01 X 13.3128 Y 31.5817 Z -1.0000
G01 X 11.6373 Y 31.5817 Z -1.0000
G01 X 11.6373 Y 32.5688 Z -1.0000
G01 X 16.1530 Y 32.5688 Z -1.0000
G00 Z 5.0000

(End cutting path id: path361)


(Start cutting path id: path360)
(Change tool to Default tool)

G00 Z 5.0000
G00 X 21.2058 Y 33.9652

G01 Z -1.0000 F 100.0000(Penetrate)
G01 X 19.7081 Y 33.9652 Z -1.0000 F 3500.0000
G01 X 17.9873 Y 36.4008 Z -1.0000
G01 X 17.4314 Y 35.8297 Z -1.0000
G01 X 17.4314 Y 33.9652 Z -1.0000
G01 X 16.2854 Y 33.9652 Z -1.0000
G01 X 16.2854 Y 39.5398 Z -1.0000
G01 X 17.4314 Y 39.5398 Z -1.0000
G01 X 17.4314 Y 37.2441 Z -1.0000
G01 X 19.5833 Y 39.5398 Z -1.0000
G01 X 21.0885 Y 39.5398 Z -1.0000
G01 X 18.8042 Y 37.2441 Z -1.0000
G01 X 21.2058 Y 33.9652 Z -1.0000
G00 Z 5.0000

(End cutting path id: path360)


(Start cutting path id: path361)
(Change tool to Default tool)

G00 Z 5.0000
G00 X 20.7141 Y 29.4298

G01 Z -1.0000 F 100.0000(Penetrate)
G01 X 18.0062 Y 29.4298 Z -1.0000 F 3500.0000
G01 X 18.0062 Y 27.9964 Z -1.0000
G01 X 21.0923 Y 27.9964 Z -1.0000
G01 X 21.0923 Y 26.9942 Z -1.0000
G01 X 16.8678 Y 26.9942 Z -1.0000
G01 X 16.8678 Y 32.5688 Z -1.0000
G01 X 20.9562 Y 32.5688 Z -1.0000
G01 X 20.9562 Y 31.5817 Z -1.0000
G01 X 18.0062 Y 31.5817 Z -1.0000
G01 X 18.0062 Y 30.3980 Z -1.0000
G01 X 20.7141 Y 30.3980 Z -1.0000
G01 X 20.7141 Y 29.4298 Z -1.0000
G00 Z 5.0000

(End cutting path id: path361)


(Start cutting path id: path361)
(Change tool to Default tool)

G00 Z 5.0000
G00 X 24.3675 Y 29.1802

G01 Z -1.0000 F 100.0000(Penetrate)
G01 X 23.1648 Y 29.1802 Z -1.0000 F 3500.0000
G01 X 23.1648 Y 26.9942 Z -1.0000
G01 X 22.0265 Y 26.9942 Z -1.0000
G01 X 22.0265 Y 32.5688 Z -1.0000
G01 X 24.7608 Y 32.5688 Z -1.0000
G02 X 25.3385 Y 32.5174 Z -1.0000 I -0.0808 J -4.1758
G02 X 25.6610 Y 32.4251 Z -1.0000 I -0.2202 J -1.3790
G02 X 25.9549 Y 32.2602 Z -1.0000 I -0.5583 J -1.3399
G02 X 26.1980 Y 32.0356 Z -1.0000 I -0.8217 J -1.1328
G02 X 26.3606 Y 31.8122 Z -1.0000 I -1.3227 J -1.1337
G02 X 26.4854 Y 31.5666 Z -1.0000 I -1.4765 J -0.9050
G02 X 26.5624 Y 31.3037 Z -1.0000 I -1.1977 J -0.4932
G02 X 26.5913 Y 30.9804 Z -1.0000 I -1.7897 J -0.3233
G02 X 26.5428 Y 30.5952 Z -1.0000 I -1.5532 J -0.0000
G02 X 26.3909 Y 30.1975 Z -1.0000 I -1.8081 J 0.4629
G02 X 26.1334 Y 29.8820 Z -1.0000 I -0.9022 J 0.4734
G02 X 25.7290 Y 29.6567 Z -1.0000 I -0.8327 J 1.0191
G02 X 26.0729 Y 29.4542 Z -1.0000 I -0.4977 J -1.2382
G02 X 26.2736 Y 29.2142 Z -1.0000 I -0.5175 J -0.6370
G02 X 26.3832 Y 28.9165 Z -1.0000 I -0.8237 J -0.4723
G02 X 26.4363 Y 28.3444 Z -1.0000 I -3.0600 J -0.5721
G01 X 26.4363 Y 27.9699 Z -1.0000
G03 X 26.4474 Y 27.5892 Z -1.0000 I 6.5308 J 0.0000
G03 X 26.4665 Y 27.4518 Z -1.0000 I 0.8644 J 0.0505
G03 X 26.5468 Y 27.2608 Z -1.0000 I 0.5360 J 0.1128
G03 X 26.6783 Y 27.1341 Z -1.0000 I 0.3542 J 0.2361
G01 X 26.6783 Y 26.9942 Z -1.0000
G01 X 25.3962 Y 26.9942 Z -1.0000
G02 X 25.3461 Y 27.1802 Z -1.0000 I 6.1024 J 1.7436
G02 X 25.3206 Y 27.2930 Z -1.0000 I 2.2165 J 0.5611
G02 X 25.2858 Y 27.5286 Z -1.0000 I 2.6233 J 0.5077
G02 X 25.2714 Y 27.7733 Z -1.0000 I 2.8171 J 0.2884
G01 X 25.2638 Y 28.2914 Z -1.0000
G03 X 25.1916 Y 28.7962 Z -1.0000 I -2.0002 J -0.0285
G03 X 25.0671 Y 29.0024 Z -1.0000 I -0.4303 J -0.1190
G03 X 24.8572 Y 29.1189 Z -1.0000 I -0.3258 J -0.3397
G03 X 24.3675 Y 29.1802 Z -1.0000 I -0.4897 J -1.9277
G01 X 24.3675 Y 29.1802 Z -1.0000
G00 Z 5.0000

(End cutting path id: path361)


(Start cutting path id: path361)
(Change tool to Default tool)

G00 Z 5.0000
G00 X 25.0748 Y 30.1938

G01 Z -1.0000 F 100.0000(Penetrate)
G03 X 25.3187 Y 30.4194 Z -1.0000 I -0.2206 J 0.4831 F 3500.0000
G03 X 25.4227 Y 30.8216 Z -1.0000 I -0.7256 J 0.4021
G03 X 25.3190 Y 31.2652 Z -1.0000 I -1.0010 J -0.0000
G03 X 25.0861 Y 31.5023 Z -1.0000 I -0.4775 J -0.2361
G03 X 24.8892 Y 31.5688 Z -1.0000 I -0.3126 J -0.6012
G03 X 24.5188 Y 31.6007 Z -1.0000 I -0.3704 J -2.1370
G01 X 23.1648 Y 31.6007 Z -1.0000
G01 X 23.1648 Y 30.1030 Z -1.0000
G01 X 24.4848 Y 30.1030 Z -1.0000
G03 X 24.8716 Y 30.1326 Z -1.0000 I 0.0000 J 2.5440
G03 X 25.0748 Y 30.1938 Z -1.0000 I -0.1157 J 0.7520
G01 X 25.0748 Y 30.1938 Z -1.0000
G00 Z 5.0000

(End cutting path id: path361)


(Start cutting path id: path360)
(Change tool to Default tool)

G00 Z 5.0000
G00 X 28.5201 Y 33.9652

G01 Z -1.0000 F 100.0000(Penetrate)
G01 X 27.3553 Y 33.9652 Z -1.0000 F 3500.0000
G01 X 25.0785 Y 37.9249 Z -1.0000
G01 X 25.0785 Y 33.9652 Z -1.0000
G01 X 23.9931 Y 33.9652 Z -1.0000
G01 X 23.9931 Y 39.5398 Z -1.0000
G01 X 25.2147 Y 39.5398 Z -1.0000
G01 X 27.4347 Y 35.6481 Z -1.0000
G01 X 27.4347 Y 39.5398 Z -1.0000
G01 X 28.5201 Y 39.5398 Z -1.0000
G01 X 28.5201 Y 33.9652 Z -1.0000
G00 Z 5.0000

(End cutting path id: path360)


(Start cutting path id: path360)
(Change tool to Default tool)

G00 Z 5.0000
G00 X 33.0245 Y 34.1013

G01 Z -1.0000 F 100.0000(Penetrate)
G02 X 32.5404 Y 33.8977 Z -1.0000 I -0.9016 J 1.4666 F 3500.0000
G02 X 31.8899 Y 33.8177 Z -1.0000 I -0.6505 J 2.6022
G02 X 30.8722 Y 34.0240 Z -1.0000 I 0.0000 J 2.6126
G02 X 30.0745 Y 34.5854 Z -1.0000 I 0.8981 J 2.1235
G02 X 29.5498 Y 35.4422 Z -1.0000 I 1.7154 J 1.6397
G02 X 29.3371 Y 36.6957 Z -1.0000 I 3.5870 J 1.2535
G02 X 29.5492 Y 37.9675 Z -1.0000 I 3.9176 J 0.0000
G02 X 30.0821 Y 38.8666 Z -1.0000 I 2.4351 J -0.8357
G02 X 30.9261 Y 39.4593 Z -1.0000 I 1.7523 J -1.5982
G02 X 32.0525 Y 39.6835 Z -1.0000 I 1.1264 J -2.7169
G02 X 33.0585 Y 39.5279 Z -1.0000 I -0.0000 J -3.3283
G02 X 33.7582 Y 39.1427 Z -1.0000 I -0.6193 J -1.9532
G02 X 34.2652 Y 38.5298 Z -1.0000 I -1.3691 J -1.6487
G02 X 34.4995 Y 37.8001 Z -1.0000 I -1.7418 J -0.9616
G01 X 33.3535 Y 37.8001 Z -1.0000
G03 X 33.1168 Y 38.2847 Z -1.0000 I -1.1692 J -0.2710
G03 X 32.7068 Y 38.5981 Z -1.0000 I -0.8533 J -0.6915
G03 X 32.4124 Y 38.6895 Z -1.0000 I -0.5674 J -1.3067
G03 X 32.0676 Y 38.7229 Z -1.0000 I -0.3448 J -1.7658
G03 X 31.4564 Y 38.5888 Z -1.0000 I 0.0000 J -1.4608
G03 X 30.9595 Y 38.2123 Z -1.0000 I 0.6065 J -1.3164
G03 X 30.6628 Y 37.6561 Z -1.0000 I 1.1256 J -0.9576
G03 X 30.5284 Y 36.6844 Z -1.0000 I 3.4435 J -0.9717
G03 X 30.6795 Y 35.7224 Z -1.0000 I 3.1379 J 0.0000
G03 X 30.9973 Y 35.2283 Z -1.0000 I 1.0873 J 0.3502
G03 X 31.5079 Y 34.9082 Z -1.0000 I 1.1401 J 1.2511
G03 X 32.0639 Y 34.8010 Z -1.0000 I 0.5560 J 1.3876
G03 X 32.6142 Y 34.8946 Z -1.0000 I 0.0000 J 1.6642
G03 X 33.0245 Y 35.1376 Z -1.0000 I -0.4016 J 1.1461
G03 X 33.3195 Y 35.5209 Z -1.0000 I -0.9235 J 1.0158
G03 X 33.4859 Y 36.0263 Z -1.0000 I -1.4753 J 0.7659
G01 X 32.1962 Y 36.0263 Z -1.0000
G01 X 32.1962 Y 36.9567 Z -1.0000
G01 X 34.5184 Y 36.9567 Z -1.0000
G01 X 34.5184 Y 33.9652 Z -1.0000
G01 X 33.7468 Y 33.9652 Z -1.0000
G01 X 33.6296 Y 34.6610 Z -1.0000
G02 X 33.2724 Y 34.2880 Z -1.0000 I -3.2516 J 2.7561
G02 X 33.0245 Y 34.1013 Z -1.0000 I -1.0457 J 1.1305
G01 X 33.0245 Y 34.1013 Z -1.0000
G00 Z 5.0000

(End cutting path id: path360)


(Start cutting path id: path360)
(Change tool to Default tool)

G00 Z 5.0000
G00 X 21.7693 Y 39.5398

G01 Z -1.0000 F 100.0000(Penetrate)
G01 X 22.9266 Y 39.5398 Z -1.0000 F 3500.0000
G01 X 22.9266 Y 33.9652 Z -1.0000
G01 X 21.7693 Y 33.9652 Z -1.0000
G01 X 21.7693 Y 39.5398 Z -1.0000
G00 Z 5.0000

(End cutting path id: path360)


(Start cutting path id: path361)
(Change tool to Default tool)

G00 Z 5.0000
G00 X 10.8167 Y 29.4298

G01 Z -1.0000 F 100.0000(Penetrate)
G01 X 8.1088 Y 29.4298 Z -1.0000 F 3500.0000
G01 X 8.1088 Y 27.9964 Z -1.0000
G01 X 11.1949 Y 27.9964 Z -1.0000
G01 X 11.1949 Y 26.9942 Z -1.0000
G01 X 6.9704 Y 26.9942 Z -1.0000
G01 X 6.9704 Y 32.5688 Z -1.0000
G01 X 11.0587 Y 32.5688 Z -1.0000
G01 X 11.0587 Y 31.5817 Z -1.0000
G01 X 8.1088 Y 31.5817 Z -1.0000
G01 X 8.1088 Y 30.3980 Z -1.0000
G01 X 10.8167 Y 30.3980 Z -1.0000
G01 X 10.8167 Y 29.4298 Z -1.0000
G00 Z 5.0000

(End cutting path id: path361)



(Footer)
M5
G00 X0.0000 Y0.0000
M2
(Using default footer. To add your own footer create file "footer" in the output dir.)
(end)
%