%
(Header)
(Generated by gcodetools from Inkscape.)
(Using default header. To add your own header create file "header" in the output dir.)
M3
(Header end.)
G21 (All units in mm)

(Start cutting path id: text46)
(Change tool to Default tool)

G00 Z5.000000
G00 X6.273308 Y22.663331

G01 Z-1.000000 F100.0(Penetrate)
G02 X6.006695 Y21.407824 Z-1.000000 I-3.089454 J-0.000000 F3500.000000
G02 X5.327144 Y20.536007 Z-1.000000 I-2.093684 J0.931202
G02 X4.304595 Y20.022725 Z-1.000000 I-1.805032 J2.320755
G02 X2.661805 Y19.800101 Z-1.000000 I-1.642791 J5.949937
G01 X1.622879 Y19.800101 Z-1.000000
G01 X1.622879 Y16.281359 Z-1.000000
G01 X0.485008 Y16.281359 Z-1.000000
G01 X0.485008 Y25.322487 Z-1.000000
G01 X2.878247 Y25.322487 Z-1.000000
G02 X5.402444 Y24.451622 Z-1.000000 I0.000000 J-4.093617
G02 X6.273308 Y22.663331 Z-1.000000 I-1.400666 J-1.788291
G01 X6.273308 Y22.663331 Z-1.000000
G00 Z5.000000

(End cutting path id: text46)


(Start cutting path id: text46)
(Change tool to Default tool)

G00 Z5.000000
G00 X10.602166 Y22.286102

G01 Z-1.000000 F100.0(Penetrate)
G03 X9.868200 Y22.142506 Z-1.000000 I-0.000000 J-1.947565 F3500.000000
G03 X9.340613 Y21.772824 Z-1.000000 I0.544593 J-1.338521
G03 X8.993451 Y21.208214 Z-1.000000 I1.347329 J-1.217466
G03 X8.790230 Y20.344301 Z-1.000000 I3.038103 J-1.170524
G01 X12.247131 Y20.344301 Z-1.000000
G03 X12.107012 Y21.248221 Z-1.000000 I-3.258745 J-0.042328
G03 X11.808062 Y21.791376 Z-1.000000 I-1.432716 J-0.434712
G03 X11.316819 Y22.145205 Z-1.000000 I-0.984910 J-0.849487
G03 X10.602166 Y22.286102 Z-1.000000 I-0.714653 J-1.741969
G01 X10.602166 Y22.286102 Z-1.000000
G00 Z5.000000

(End cutting path id: text46)


(Start cutting path id: text46)
(Change tool to Default tool)

G00 Z5.000000
G00 X10.880449 Y16.157677

G01 Z-1.000000 F100.0(Penetrate)
G02 X9.465880 Y16.419952 Z-1.000000 I0.000000 J3.945849 F3500.000000
G02 X8.481025 Y17.079105 Z-1.000000 I0.959832 J2.499428
G02 X7.866642 Y18.105806 Z-1.000000 I2.081577 J1.942804
G02 X7.615254 Y19.626947 Z-1.000000 I4.476502 J1.521141
G02 X7.850881 Y21.173733 Z-1.000000 I5.194791 J0.000000
G02 X8.425369 Y22.224262 Z-1.000000 I2.904203 J-0.905835
G02 X9.359851 Y22.929416 Z-1.000000 I1.979891 J-1.652013
G02 X10.614534 Y23.195162 Z-1.000000 I1.254683 J-2.829034
G02 X11.793454 Y22.964934 Z-1.000000 I-0.000000 J-3.133539
G02 X12.655281 Y22.366495 Z-1.000000 I-0.899495 J-2.215175
G02 X13.196545 Y21.458121 Z-1.000000 I-1.870925 J-1.730255
G02 X13.415923 Y20.134042 Z-1.000000 I-3.886118 J-1.324079
G01 X13.415923 Y19.459977 Z-1.000000
G01 X8.765493 Y19.459977 Z-1.000000
G03 X8.958040 Y18.369493 Z-1.000000 I3.752460 J0.100332
G03 X9.352981 Y17.703698 Z-1.000000 I1.739736 J0.581954
G03 X9.985290 Y17.277440 Z-1.000000 I1.227793 J1.139189
G03 X10.929922 Y17.103842 Z-1.000000 I0.944632 J2.483311
G03 X11.471836 Y17.128130 Z-1.000000 I0.000000 J6.057675
G03 X11.962664 Y17.196602 Z-1.000000 I-0.452302 J5.035696
G03 X12.442445 Y17.323808 Z-1.000000 I-0.830822 J4.101986
G03 X13.106719 Y17.573831 Z-1.000000 I-2.679874 J8.127484
G01 X13.106719 Y16.596746 Z-1.000000
G02 X12.535448 Y16.382996 Z-1.000000 I-2.565110 J5.985268
G02 X12.049241 Y16.256621 Z-1.000000 I-1.352491 J4.205012
G02 X11.551705 Y16.186035 Z-1.000000 I-0.873062 J4.365105
G02 X10.880449 Y16.157671 Z-1.000000 I-0.671256 J7.928843
G01 X10.880449 Y16.157677 Z-1.000000
G00 Z5.000000

(End cutting path id: text46)


(Start cutting path id: text46)
(Change tool to Default tool)

G00 Z5.000000
G00 X18.301348 Y23.195162

G01 Z-1.000000 F100.0(Penetrate)
G02 X18.750577 Y23.174312 Z-1.000000 I0.000000 J-4.849993 F3500.000000
G02 X19.099094 Y23.120952 Z-1.000000 I-0.276127 J-2.968318
G01 X18.963045 Y22.094395 Z-1.000000
G03 X18.583450 Y22.160087 Z-1.000000 I-0.794682 J-3.462428
G03 X18.227139 Y22.180975 Z-1.000000 I-0.356311 J-3.028542
G03 X17.711026 Y22.106122 Z-1.000000 I-0.000000 J-1.816733
G03 X17.225318 Y21.884139 Z-1.000000 I0.541187 J-1.826507
G03 X16.824658 Y21.536617 Z-1.000000 I1.041048 J-1.604952
G03 X16.507964 Y21.061656 Z-1.000000 I1.670206 J-1.456722
G03 X16.317080 Y20.525940 Z-1.000000 I2.100897 J-1.050446
G03 X16.248233 Y19.905233 Z-1.000000 I2.763630 J-0.620707
G01 X16.248233 Y16.281361 Z-1.000000
G01 X15.135098 Y16.281361 Z-1.000000
G01 X15.135098 Y23.071483 Z-1.000000
G01 X16.050342 Y23.071483 Z-1.000000
G01 X16.174024 Y21.828482 Z-1.000000
G01 X16.223494 Y21.828482 Z-1.000000
G02 X16.672920 Y22.445815 Z-1.000000 I3.147771 J-1.819353
G02 X17.144922 Y22.848856 Z-1.000000 I1.782728 J-1.609856
G02 X17.702790 Y23.107465 Z-1.000000 I1.176273 J-1.806426
G02 X18.301346 Y23.195164 Z-1.000000 I0.598556 J-1.998753
G01 X18.301348 Y23.195162 Z-1.000000
G00 Z5.000000

(End cutting path id: text46)


(Start cutting path id: text46)
(Change tool to Default tool)

G00 Z5.000000
G00 X24.788451 Y18.155136

G01 Z-1.000000 F100.0(Penetrate)
G02 X24.593656 Y17.301038 Z-1.000000 I-1.969834 J0.000000 F3500.000000
G02 X24.077281 Y16.677140 Z-1.000000 I-1.517054 J0.729963
G02 X23.314575 Y16.315607 Z-1.000000 I-1.330397 J1.821376
G02 X22.079823 Y16.157677 Z-1.000000 I-1.234752 J4.747915
G02 X20.770594 Y16.287316 Z-1.000000 I-0.000000 J6.675781
G02 X19.946315 Y16.584379 Z-1.000000 I0.580668 J2.903336
G01 X19.946315 Y17.598568 Z-1.000000
G03 X21.094497 Y17.179750 Z-1.000000 I2.604591 J5.357168
G03 X22.104559 Y17.054369 Z-1.000000 I1.010062 J4.005814
G03 X22.917158 Y17.143570 Z-1.000000 I-0.000000 J3.745893
G03 X23.329007 Y17.326469 Z-1.000000 I-0.246928 J1.111173
G03 X23.612278 Y17.650297 Z-1.000000 I-0.534889 J0.753709
G03 X23.712420 Y18.056190 Z-1.000000 I-0.772506 J0.405893
G03 X23.621512 Y18.412702 Z-1.000000 I-0.744515 J-0.000000
G03 X23.341376 Y18.736439 Z-1.000000 I-0.884972 J-0.482711
G03 X22.954489 Y18.975165 Z-1.000000 I-1.398475 J-1.833555
G03 X22.036534 Y19.373400 Z-1.000000 I-4.900685 J-10.039263
G02 X21.094211 Y19.775682 Z-1.000000 I5.416734 J13.993215
G02 X20.688404 Y20.004176 Z-1.000000 I1.313781 J2.807887
G02 X20.334165 Y20.302603 Z-1.000000 I1.292591 J1.893791
G02 X20.113285 Y20.597848 Z-1.000000 I1.043603 J1.010989
G02 X19.984683 Y20.938577 Z-1.000000 I1.146649 J0.627415
G02 X19.933946 Y21.395595 Z-1.000000 I2.032934 J0.457018
G02 X20.114162 Y22.137310 Z-1.000000 I1.616446 J0.000000
G02 X20.614195 Y22.712804 Z-1.000000 I1.432795 J-0.739942
G02 X21.340632 Y23.050173 Z-1.000000 I1.279681 J-1.804680
G02 X22.481788 Y23.195162 Z-1.000000 I1.141156 J-4.418325
G02 X23.612628 Y23.076923 Z-1.000000 I0.000000 J-5.466808
G02 X24.646217 Y22.737540 Z-1.000000 I-1.035238 J-4.896398
G01 X24.268988 Y21.853217 Z-1.000000
G03 X23.217555 Y22.193159 Z-1.000000 I-2.539383 J-6.058255
G03 X22.407579 Y22.286102 Z-1.000000 I-0.809976 J-3.482902
G03 X21.735042 Y22.215673 Z-1.000000 I-0.000000 J-3.246296
G03 X21.356285 Y22.063475 Z-1.000000 I0.245063 J-1.157243
G03 X21.089213 Y21.795320 Z-1.000000 I0.403930 J-0.669373
G03 X20.997608 Y21.463619 Z-1.000000 I0.554741 J-0.331701
G03 X21.076274 Y21.130384 Z-1.000000 I0.745134 J-0.000000
G03 X21.306813 Y20.845211 Z-1.000000 I0.764463 J0.382233
G03 X21.637658 Y20.642370 Z-1.000000 I1.063697 J1.363715
G03 X22.747704 Y20.171146 Z-1.000000 I7.076598 J15.127037
G02 X23.577645 Y19.822221 Z-1.000000 I-3.774650 J-10.139749
G02 X23.996888 Y19.583659 Z-1.000000 I-1.321790 J-2.810546
G02 X24.367459 Y19.276689 Z-1.000000 I-1.288062 J-1.932093
G02 X24.596744 Y18.971434 Z-1.000000 I-1.044034 J-1.022941
G02 X24.734914 Y18.617261 Z-1.000000 I-1.175896 J-0.662780
G02 X24.788451 Y18.155136 Z-1.000000 I-1.967753 J-0.462125
G01 X24.788451 Y18.155136 Z-1.000000
G00 Z5.000000

(End cutting path id: text46)


(Start cutting path id: text46)
(Change tool to Default tool)

G00 Z5.000000
G00 X27.206426 Y19.688788

G01 Z-1.000000 F100.0(Penetrate)
G03 X27.361823 Y18.460482 Z-1.000000 I4.932139 J0.000000 F3500.000000
G03 X27.707337 Y17.740802 Z-1.000000 I1.986002 J0.510686
G03 X28.307569 Y17.267825 Z-1.000000 I1.228078 J0.941143
G03 X29.197700 Y17.079105 Z-1.000000 I0.890131 J2.004872
G03 X30.075999 Y17.266739 Z-1.000000 I0.000000 J2.149441
G03 X30.675696 Y17.740802 Z-1.000000 I-0.636305 J1.421280
G03 X31.025676 Y18.461570 Z-1.000000 I-1.627192 J1.235461
G03 X31.182791 Y19.688788 Z-1.000000 I-4.714310 J1.227218
G03 X31.022281 Y20.912695 Z-1.000000 I-4.746471 J-0.000000
G03 X30.669512 Y21.612037 Z-1.000000 I-1.846546 J-0.492809
G03 X30.071680 Y22.075377 Z-1.000000 I-1.212127 J-0.946613
G03 X29.179148 Y22.261366 Z-1.000000 I-0.892532 J-2.048574
G03 X27.858136 Y21.609656 Z-1.000000 I0.000000 J-1.664697
G03 X27.206426 Y19.688788 Z-1.000000 I2.504957 J-1.920868
G01 X27.206426 Y19.688788 Z-1.000000
G00 Z5.000000

(End cutting path id: text46)


(Start cutting path id: text46)
(Change tool to Default tool)

G00 Z5.000000
G00 X32.333030 Y19.688788

G01 Z-1.000000 F100.0(Penetrate)
G02 X32.085420 Y18.120339 Z-1.000000 I-5.091352 J0.000000 F3500.000000
G02 X31.491995 Y17.091473 Z-1.000000 I-2.710124 J0.877564
G02 X30.533373 Y16.421833 Z-1.000000 I-1.923156 J1.732115
G02 X29.166780 Y16.157677 Z-1.000000 I-1.366593 J3.402908
G02 X28.277026 Y16.272031 Z-1.000000 I-0.000000 J3.518627
G02 X27.534182 Y16.584379 Z-1.000000 I0.717981 J2.747057
G02 X26.916117 Y17.101344 Z-1.000000 I1.403892 J2.306397
G02 X26.439600 Y17.821195 Z-1.000000 I2.320917 J2.054011
G02 X26.161816 Y18.649025 Z-1.000000 I3.257650 J1.553647
G02 X26.056187 Y19.688788 Z-1.000000 I5.064654 J1.039763
G02 X26.301205 Y21.252152 Z-1.000000 I5.110113 J0.000000
G02 X26.884854 Y22.267550 Z-1.000000 I2.664927 J-0.856355
G02 X27.832010 Y22.930428 Z-1.000000 I1.882489 J-1.681691
G02 X29.210069 Y23.195162 Z-1.000000 I1.378059 J-3.454335
G02 X30.526757 Y22.932353 Z-1.000000 I0.000000 J-3.429747
G02 X31.485811 Y22.248998 Z-1.000000 I-1.012864 J-2.436172
G02 X32.087135 Y21.214556 Z-1.000000 I-2.162407 J-1.949010
G02 X32.333030 Y19.688788 Z-1.000000 I-4.610716 J-1.525768
G01 X32.333030 Y19.688788 Z-1.000000
G00 Z5.000000

(End cutting path id: text46)


(Start cutting path id: text46)
(Change tool to Default tool)

G00 Z5.000000
G00 X38.721186 Y16.281359

G01 Z-1.000000 F100.0(Penetrate)
G01 X38.721186 Y20.622584 Z-1.000000 F3500.000000
G03 X38.605641 Y21.406075 Z-1.000000 I-2.714124 J-0.000000
G03 X38.350141 Y21.853217 Z-1.000000 I-1.098814 J-0.331301
G03 X37.929116 Y22.135824 Z-1.000000 I-0.763487 J-0.682512
G03 X37.199902 Y22.261366 Z-1.000000 I-0.729214 J-2.055058
G03 X36.238783 Y22.083992 Z-1.000000 I-0.000000 J-2.692641
G03 X35.678618 Y21.680062 Z-1.000000 I0.479894 J-1.255892
G03 X35.362505 Y21.050065 Z-1.000000 I1.250031 J-1.021534
G03 X35.208627 Y19.800101 Z-1.000000 I4.999848 J-1.249964
G01 X35.208627 Y16.281359 Z-1.000000
G01 X34.095493 Y16.281359 Z-1.000000
G01 X34.095493 Y23.071481 Z-1.000000
G01 X34.992185 Y23.071481 Z-1.000000
G01 X35.159155 Y22.143868 Z-1.000000
G01 X35.220995 Y22.143868 Z-1.000000
G02 X35.593897 Y22.580186 Z-1.000000 I1.677623 J-1.056280
G02 X36.105318 Y22.916879 Z-1.000000 I1.484862 J-1.698679
G02 X36.691223 Y23.121850 Z-1.000000 I1.154616 J-2.360557
G02 X37.360687 Y23.195162 Z-1.000000 I0.669464 J-3.020035
G02 X38.532596 Y23.008601 Z-1.000000 I0.000000 J-3.774038
G02 X39.215912 Y22.589122 Z-1.000000 I-0.535019 J-1.637814
G02 X39.633574 Y21.905053 Z-1.000000 I-1.205661 J-1.205661
G02 X39.821952 Y20.702977 Z-1.000000 I-3.741156 J-1.202076
G01 X39.821952 Y16.281359 Z-1.000000
G01 X38.721186 Y16.281359 Z-1.000000
G00 Z5.000000

(End cutting path id: text46)


(Start cutting path id: text46)
(Change tool to Default tool)

G00 Z5.000000
G00 X1.622879 Y20.777186

G01 Z-1.000000 F100.0(Penetrate)
G01 X2.531939 Y20.777186 Z-1.000000 F3500.000000
G03 X3.834392 Y20.919718 Z-1.000000 I-0.000000 J6.022176
G03 X4.486109 Y21.210072 Z-1.000000 I-0.386207 J1.743446
G03 X4.911817 Y21.741179 Z-1.000000 I-0.753658 J1.040260
G03 X5.092149 Y22.613859 Z-1.000000 I-2.021414 J0.872680
G03 X4.928745 Y23.405354 Z-1.000000 I-1.998627 J-0.000000
G03 X4.529397 Y23.918700 Z-1.000000 I-1.188529 J-0.512588
G03 X3.919310 Y24.212412 Z-1.000000 I-1.004273 J-1.305554
G03 X2.773118 Y24.351586 Z-1.000000 I-1.146192 J-4.650262
G01 X1.622879 Y24.351586 Z-1.000000
G01 X1.622879 Y20.777186 Z-1.000000
G00 Z5.000000

(End cutting path id: text46)


(Footer)
M5
G00 X0.0000 Y0.0000
M2
(Using default footer. To add your own footer create file "footer" in the output dir.)
(end)
%