%
(Header)
(Generated by gcodetools from Inkscape.)
(Using default header. To add your own header create file "header" in the output dir.)
M3
(Header end.)
G21 (All units in mm)

(Start cutting path id: text35259)
(Change tool to Default tool)

G00 Z 5.0000
G00 X 6.1440 Y 35.5842

G01 Z -1.0000 F 100.0000(Penetrate)
G01 X 4.8956 Y 35.5842 Z -1.0000 F 3500.0000
G01 X 4.8956 Y 33.4703 Z -1.0000
G01 X 3.6752 Y 33.4703 Z -1.0000
G01 X 3.6752 Y 39.3491 Z -1.0000
G01 X 6.2357 Y 39.3491 Z -1.0000
G02 X 7.0722 Y 39.2178 Z -1.0000 I -0.0000 J -2.7290
G02 X 7.6476 Y 38.8945 Z -1.0000 I -0.5081 J -1.5778
G02 X 8.0148 Y 38.3669 Z -1.0000 I -0.8481 J -0.9820
G02 X 8.1740 Y 37.4866 Z -1.0000 I -2.3543 J -0.8803
G02 X 8.0072 Y 36.5247 Z -1.0000 I -2.8558 J -0.0000
G02 X 7.6476 Y 36.0149 Z -1.0000 I -1.0981 J 0.3928
G02 X 7.0745 Y 35.7148 Z -1.0000 I -1.0142 J 1.2395
G02 X 6.1440 Y 35.5842 Z -1.0000 I -0.9305 J 3.2481
G01 X 6.1440 Y 35.5842 Z -1.0000
G00 Z 5.0000

(End cutting path id: text35259)


(Start cutting path id: text35259)
(Change tool to Default tool)

G00 Z 5.0000
G00 X 6.7183 Y 36.8086

G01 Z -1.0000 F 100.0000(Penetrate)
G03 X 6.8839 Y 37.0532 Z -1.0000 I -0.3920 J 0.4437 F 3500.0000
G03 X 6.9576 Y 37.4786 Z -1.0000 I -1.1912 J 0.4254
G03 X 6.8816 Y 37.9008 Z -1.0000 I -1.2112 J -0.0000
G03 X 6.7143 Y 38.1327 Z -1.0000 I -0.5042 J -0.1875
G03 X 6.4541 Y 38.2694 Z -1.0000 I -0.4649 J -0.5693
G03 X 6.0403 Y 38.3281 Z -1.0000 I -0.4138 J -1.4271
G01 X 4.8956 Y 38.3281 Z -1.0000
G01 X 4.8956 Y 36.5972 Z -1.0000
G01 X 6.0403 Y 36.5972 Z -1.0000
G03 X 6.4516 Y 36.6598 Z -1.0000 I 0.0000 J 1.3820
G03 X 6.7183 Y 36.8086 Z -1.0000 I -0.2216 J 0.7107
G01 X 6.7183 Y 36.8086 Z -1.0000
G00 Z 5.0000

(End cutting path id: text35259)


(Start cutting path id: text35259)
(Change tool to Default tool)

G00 Z 5.0000
G00 X 13.1874 Y 36.0388

G01 Z -1.0000 F 100.0000(Penetrate)
G01 X 10.3317 Y 36.0388 Z -1.0000 F 3500.0000
G01 X 10.3317 Y 34.5272 Z -1.0000
G01 X 13.5862 Y 34.5272 Z -1.0000
G01 X 13.5862 Y 33.4703 Z -1.0000
G01 X 9.1312 Y 33.4703 Z -1.0000
G01 X 9.1312 Y 39.3491 Z -1.0000
G01 X 13.4426 Y 39.3491 Z -1.0000
G01 X 13.4426 Y 38.3082 Z -1.0000
G01 X 10.3317 Y 38.3082 Z -1.0000
G01 X 10.3317 Y 37.0598 Z -1.0000
G01 X 13.1874 Y 37.0598 Z -1.0000
G01 X 13.1874 Y 36.0388 Z -1.0000
G00 Z 5.0000

(End cutting path id: text35259)


(Start cutting path id: text35259)
(Change tool to Default tool)

G00 Z 5.0000
G00 X 17.0401 Y 35.7756

G01 Z -1.0000 F 100.0000(Penetrate)
G01 X 15.7718 Y 35.7756 Z -1.0000 F 3500.0000
G01 X 15.7718 Y 33.4703 Z -1.0000
G01 X 14.5713 Y 33.4703 Z -1.0000
G01 X 14.5713 Y 39.3491 Z -1.0000
G01 X 17.4549 Y 39.3491 Z -1.0000
G02 X 18.0641 Y 39.2949 Z -1.0000 I -0.0852 J -4.4037
G02 X 18.4041 Y 39.1976 Z -1.0000 I -0.2322 J -1.4542
G02 X 18.7141 Y 39.0237 Z -1.0000 I -0.5887 J -1.4130
G02 X 18.9705 Y 38.7868 Z -1.0000 I -0.8665 J -1.1946
G02 X 19.1419 Y 38.5512 Z -1.0000 I -1.3948 J -1.1956
G02 X 19.2736 Y 38.2922 Z -1.0000 I -1.5570 J -0.9543
G02 X 19.3547 Y 38.0150 Z -1.0000 I -1.2630 J -0.5201
G02 X 19.3853 Y 37.6740 Z -1.0000 I -1.8873 J -0.3409
G02 X 19.3341 Y 37.2678 Z -1.0000 I -1.6379 J -0.0000
G02 X 19.1739 Y 36.8485 Z -1.0000 I -1.9067 J 0.4882
G02 X 18.9023 Y 36.5157 Z -1.0000 I -0.9514 J 0.4993
G02 X 18.4759 Y 36.2781 Z -1.0000 I -0.8782 J 1.0747
G02 X 18.8385 Y 36.0646 Z -1.0000 I -0.5249 J -1.3058
G02 X 19.0502 Y 35.8115 Z -1.0000 I -0.5458 J -0.6717
G02 X 19.1658 Y 35.4975 Z -1.0000 I -0.8686 J -0.4980
G02 X 19.2217 Y 34.8942 Z -1.0000 I -3.2269 J -0.6033
G01 X 19.2217 Y 34.4993 Z -1.0000
G03 X 19.2334 Y 34.0978 Z -1.0000 I 6.8873 J 0.0000
G03 X 19.2536 Y 33.9529 Z -1.0000 I 0.9116 J 0.0532
G03 X 19.3383 Y 33.7515 Z -1.0000 I 0.5653 J 0.1190
G03 X 19.4770 Y 33.6179 Z -1.0000 I 0.3735 J 0.2490
G01 X 19.4770 Y 33.4703 Z -1.0000
G01 X 18.1249 Y 33.4703 Z -1.0000
G02 X 18.0721 Y 33.6665 Z -1.0000 I 6.4372 J 1.8392
G02 X 18.0452 Y 33.7854 Z -1.0000 I 2.3381 J 0.5919
G02 X 18.0085 Y 34.0339 Z -1.0000 I 2.7656 J 0.5353
G02 X 17.9933 Y 34.2919 Z -1.0000 I 2.9699 J 0.3040
G01 X 17.9853 Y 34.8383 Z -1.0000
G03 X 17.9092 Y 35.3707 Z -1.0000 I -2.1087 J -0.0298
G03 X 17.7780 Y 35.5881 Z -1.0000 I -0.4537 J -0.1255
G03 X 17.5566 Y 35.7110 Z -1.0000 I -0.3436 J -0.3582
G03 X 17.0401 Y 35.7756 Z -1.0000 I -0.5164 J -2.0328
G01 X 17.0401 Y 35.7756 Z -1.0000
G00 Z 5.0000

(End cutting path id: text35259)


(Start cutting path id: text35259)
(Change tool to Default tool)

G00 Z 5.0000
G00 X 17.7859 Y 36.8445

G01 Z -1.0000 F 100.0000(Penetrate)
G03 X 18.0432 Y 37.0825 Z -1.0000 I -0.2326 J 0.5095 F 3500.0000
G03 X 18.1529 Y 37.5065 Z -1.0000 I -0.7652 J 0.4241
G03 X 18.0435 Y 37.9744 Z -1.0000 I -1.0556 J 0.0000
G03 X 17.7979 Y 38.2244 Z -1.0000 I -0.5035 J -0.2490
G03 X 17.5903 Y 38.2945 Z -1.0000 I -0.3297 J -0.6340
G03 X 17.1996 Y 38.3281 Z -1.0000 I -0.3906 J -2.2536
G01 X 15.7718 Y 38.3281 Z -1.0000
G01 X 15.7718 Y 36.7487 Z -1.0000
G01 X 17.1637 Y 36.7487 Z -1.0000
G03 X 17.5717 Y 36.7799 Z -1.0000 I 0.0000 J 2.6828
G03 X 17.7859 Y 36.8445 Z -1.0000 I -0.1220 J 0.7931
G01 X 17.7859 Y 36.8445 Z -1.0000
G00 Z 5.0000

(End cutting path id: text35259)


(Start cutting path id: text35259)
(Change tool to Default tool)

G00 Z 5.0000
G00 X 22.5759 Y 34.3199

G01 Z -1.0000 F 100.0000(Penetrate)
G03 X 23.0057 Y 34.3489 Z -1.0000 I 0.0000 J 3.1985 F 3500.0000
G03 X 23.2819 Y 34.4156 Z -1.0000 I -0.1870 J 1.3790
G03 X 23.6613 Y 34.6943 Z -1.0000 I -0.2756 J 0.7728
G03 X 23.7963 Y 35.0976 Z -1.0000 I -0.5346 J 0.4033
G03 X 23.7294 Y 35.3516 Z -1.0000 I -0.5155 J 0.0000
G03 X 23.5411 Y 35.5483 Z -1.0000 I -0.4817 J -0.2728
G03 X 23.2738 Y 35.6738 Z -1.0000 I -0.7108 J -1.1665
G03 X 22.7394 Y 35.8235 Z -1.0000 I -1.5662 J -4.5624
G01 X 22.1173 Y 35.9630 Z -1.0000
G02 X 21.2227 Y 36.2221 Z -1.0000 I 1.7258 J 7.6332
G02 X 20.8490 Y 36.4137 Z -1.0000 I 0.5328 J 1.4993
G02 X 20.4267 Y 36.9112 Z -1.0000 I 0.6991 J 1.0213
G02 X 20.2547 Y 37.6860 Z -1.0000 I 1.6587 J 0.7748
G02 X 20.4060 Y 38.4088 Z -1.0000 I 1.8027 J 0.0000
G02 X 20.8290 Y 38.9982 Z -1.0000 I 1.5938 J -0.6976
G02 X 21.4649 Y 39.3616 Z -1.0000 I 1.1347 J -1.2473
G02 X 22.5161 Y 39.5206 Z -1.0000 I 1.0512 J -3.3944
G02 X 23.4001 Y 39.3858 Z -1.0000 I -0.0000 J -2.9652
G02 X 24.0995 Y 39.0261 Z -1.0000 I -0.6837 J -2.1888
G02 X 24.5808 Y 38.4431 Z -1.0000 I -0.9504 J -1.2749
G02 X 24.7894 Y 37.5983 Z -1.0000 I -1.8965 J -0.9165
G01 X 23.6089 Y 37.5983 Z -1.0000
G03 X 23.4647 Y 38.0558 Z -1.0000 I -0.9862 J -0.0593
G03 X 23.1463 Y 38.3521 Z -1.0000 I -0.6925 J -0.4250
G03 X 22.8488 Y 38.4570 Z -1.0000 I -0.5339 J -1.0390
G03 X 22.4323 Y 38.4996 Z -1.0000 I -0.4164 J -2.0147
G03 X 21.9751 Y 38.4428 Z -1.0000 I 0.0000 J -1.8666
G03 X 21.6746 Y 38.3082 Z -1.0000 I 0.2336 J -0.9248
G03 X 21.4667 Y 38.0768 Z -1.0000 I 0.3598 J -0.5322
G03 X 21.3914 Y 37.7738 Z -1.0000 I 0.5719 J -0.3030
G03 X 21.4658 Y 37.5024 Z -1.0000 I 0.5318 J -0.0000
G03 X 21.6706 Y 37.3031 Z -1.0000 I 0.4717 J 0.2798
G03 X 21.8583 Y 37.2202 Z -1.0000 I 0.4756 J 0.8232
G03 X 22.4363 Y 37.0598 Z -1.0000 I 2.4590 J 7.7399
G01 X 23.4494 Y 36.8166 Z -1.0000
G02 X 24.0904 Y 36.6053 Z -1.0000 I -0.9456 J -3.9479
G02 X 24.4544 Y 36.3898 Z -1.0000 I -0.6235 J -1.4684
G02 X 24.8314 Y 35.9025 Z -1.0000 I -0.7857 J -0.9972
G02 X 24.9809 Y 35.1893 Z -1.0000 I -1.6262 J -0.7132
G02 X 24.8202 Y 34.4572 Z -1.0000 I -1.7478 J -0.0000
G02 X 24.3627 Y 33.8492 Z -1.0000 I -1.6352 J 0.7543
G02 X 23.6894 Y 33.4777 Z -1.0000 I -1.2163 J 1.4083
G02 X 22.6238 Y 33.3188 Z -1.0000 I -1.0656 J 3.4932
G02 X 21.5292 Y 33.4739 Z -1.0000 I -0.0000 J 3.9401
G02 X 20.8171 Y 33.8413 Z -1.0000 I 0.5751 J 1.9888
G02 X 20.3394 Y 34.4544 Z -1.0000 I 1.0462 J 1.3077
G02 X 20.1590 Y 35.2850 Z -1.0000 I 1.8223 J 0.8306
G01 X 21.3316 Y 35.2850 Z -1.0000
G03 X 21.4273 Y 34.8997 Z -1.0000 I 1.8626 J 0.2582
G03 X 21.5509 Y 34.6828 Z -1.0000 I 0.6983 J 0.2543
G03 X 21.9045 Y 34.4352 Z -1.0000 I 0.6230 J 0.5135
G03 X 22.5759 Y 34.3199 Z -1.0000 I 0.6715 J 1.8963
G01 X 22.5759 Y 34.3199 Z -1.0000
G00 Z 5.0000

(End cutting path id: text35259)


(Start cutting path id: text35259)
(Change tool to Default tool)

G00 Z 5.0000
G00 X 28.4906 Y 33.3068

G01 Z -1.0000 F 100.0000(Penetrate)
G02 X 27.3161 Y 33.5097 Z -1.0000 I -0.0000 J 3.5011 F 3500.0000
G02 X 26.5643 Y 33.9928 Z -1.0000 I 0.6603 J 1.8542
G02 X 25.9331 Y 34.9476 Z -1.0000 I 1.7128 J 1.8183
G02 X 25.6709 Y 36.4177 Z -1.0000 I 3.9904 J 1.4701
G02 X 25.9378 Y 37.9146 Z -1.0000 I 4.3301 J -0.0000
G02 X 26.5643 Y 38.8426 Z -1.0000 I 2.2029 J -0.8116
G02 X 27.3161 Y 39.3257 Z -1.0000 I 1.4121 J -1.3711
G02 X 28.4906 Y 39.5286 Z -1.0000 I 1.1745 J -3.2982
G02 X 29.6651 Y 39.3257 Z -1.0000 I -0.0000 J -3.5011
G02 X 30.4170 Y 38.8426 Z -1.0000 I -0.6603 J -1.8542
G02 X 31.0404 Y 37.9154 Z -1.0000 I -1.5796 J -1.7352
G02 X 31.3064 Y 36.4177 Z -1.0000 I -4.0834 J -1.4977
G02 X 31.0451 Y 34.9468 Z -1.0000 I -4.2716 J -0.0000
G02 X 30.4170 Y 33.9928 Z -1.0000 I -2.3444 J 0.8599
G02 X 29.6651 Y 33.5097 Z -1.0000 I -1.4121 J 1.3711
G02 X 28.4906 Y 33.3068 Z -1.0000 I -1.1745 J 3.2982
G01 X 28.4906 Y 33.3068 Z -1.0000
G00 Z 5.0000

(End cutting path id: text35259)


(Start cutting path id: text35259)
(Change tool to Default tool)

G00 Z 5.0000
G00 X 29.6512 Y 34.8862

G01 Z -1.0000 F 100.0000(Penetrate)
G03 X 29.9484 Y 35.4698 Z -1.0000 I -1.2965 J 1.0276 F 3500.0000
G03 X 30.0780 Y 36.4177 Z -1.0000 I -3.4020 J 0.9480
G03 X 29.9475 Y 37.3611 Z -1.0000 I -3.4758 J -0.0000
G03 X 29.6472 Y 37.9453 Z -1.0000 I -1.5915 J -0.4488
G03 X 29.1492 Y 38.3409 Z -1.0000 I -1.0833 J -0.8523
G03 X 28.4906 Y 38.4877 Z -1.0000 I -0.6586 J -1.4044
G03 X 27.8302 Y 38.3424 Z -1.0000 I -0.0000 J -1.5738
G03 X 27.3260 Y 37.9492 Z -1.0000 I 0.5903 J -1.2768
G03 X 27.0230 Y 37.3643 Z -1.0000 I 1.2816 J -1.0348
G03 X 26.8913 Y 36.4177 Z -1.0000 I 3.3346 J -0.9466
G03 X 27.0230 Y 35.4712 Z -1.0000 I 3.4664 J -0.0000
G03 X 27.3260 Y 34.8862 Z -1.0000 I 1.5846 J 0.4498
G03 X 27.8302 Y 34.4931 Z -1.0000 I 1.0945 J 0.8837
G03 X 28.4906 Y 34.3478 Z -1.0000 I 0.6604 J 1.4285
G03 X 29.1505 Y 34.4934 Z -1.0000 I 0.0000 J 1.5680
G03 X 29.6512 Y 34.8862 Z -1.0000 I -0.5853 J 1.2616
G01 X 29.6512 Y 34.8862 Z -1.0000
G00 Z 5.0000

(End cutting path id: text35259)


(Start cutting path id: text35259)
(Change tool to Default tool)

G00 Z 5.0000
G00 X 36.9977 Y 33.4703

G01 Z -1.0000 F 100.0000(Penetrate)
G01 X 35.7693 Y 33.4703 Z -1.0000 F 3500.0000
G01 X 33.3684 Y 37.6461 Z -1.0000
G01 X 33.3684 Y 33.4703 Z -1.0000
G01 X 32.2237 Y 33.4703 Z -1.0000
G01 X 32.2237 Y 39.3491 Z -1.0000
G01 X 33.5119 Y 39.3491 Z -1.0000
G01 X 35.8531 Y 35.2451 Z -1.0000
G01 X 35.8531 Y 39.3491 Z -1.0000
G01 X 36.9977 Y 39.3491 Z -1.0000
G01 X 36.9977 Y 33.4703 Z -1.0000
G00 Z 5.0000

(End cutting path id: text35259)



(Footer)
M5
G00 X0.0000 Y0.0000
M2
(Using default footer. To add your own footer create file "footer" in the output dir.)
(end)
%