%
(Header)
(Generated by gcodetools from Inkscape.)
(Using default header. To add your own header create file "header" in the output dir.)
M3
(Header end.)
G21 (All units in mm)

(Start cutting path id: text43581)
(Change tool to Default tool)

G00 Z 5.0000
G00 X 4.8303 Y 32.7742

G01 Z -1.0000 F 100.0000(Penetrate)
G01 X 2.6737 Y 32.7742 Z -1.0000 F 3500.0000
G01 X 2.6737 Y 29.1224 Z -1.0000
G01 X 0.5653 Y 29.1224 Z -1.0000
G01 X 0.5653 Y 39.2786 Z -1.0000
G01 X 4.9888 Y 39.2786 Z -1.0000
G02 X 6.4340 Y 39.0516 Z -1.0000 I 0.0000 J -4.7146
G02 X 7.4279 Y 38.4931 Z -1.0000 I -0.8778 J -2.7258
G02 X 8.0624 Y 37.5817 Z -1.0000 I -1.4651 J -1.6965
G02 X 8.3374 Y 36.0608 Z -1.0000 I -4.0672 J -1.5209
G02 X 8.0491 Y 34.3991 Z -1.0000 I -4.9336 J -0.0000
G02 X 7.4279 Y 33.5184 Z -1.0000 I -1.8971 J 0.6786
G02 X 6.4378 Y 32.9999 Z -1.0000 I -1.7520 J 2.1414
G02 X 4.8303 Y 32.7742 Z -1.0000 I -1.6075 J 5.6114
G01 X 4.8303 Y 32.7742 Z -1.0000
G00 Z 5.0000

(End cutting path id: text43581)


(Start cutting path id: text43581)
(Change tool to Default tool)

G00 Z 5.0000
G00 X 5.8225 Y 34.8895

G01 Z -1.0000 F 100.0000(Penetrate)
G03 X 6.1086 Y 35.3121 Z -1.0000 I -0.6772 J 0.7666 F 3500.0000
G03 X 6.2359 Y 36.0471 Z -1.0000 I -2.0579 J 0.7350
G03 X 6.1046 Y 36.7765 Z -1.0000 I -2.0924 J 0.0000
G03 X 5.8156 Y 37.1770 Z -1.0000 I -0.8710 J -0.3240
G03 X 5.3660 Y 37.4131 Z -1.0000 I -0.8032 J -0.9835
G03 X 4.6512 Y 37.5147 Z -1.0000 I -0.7148 J -2.4655
G01 X 2.6737 Y 37.5147 Z -1.0000
G01 X 2.6737 Y 34.5243 Z -1.0000
G01 X 4.6512 Y 34.5243 Z -1.0000
G03 X 5.3617 Y 34.6325 Z -1.0000 I 0.0000 J 2.3875
G03 X 5.8225 Y 34.8895 Z -1.0000 I -0.3828 J 1.2278
G01 X 5.8225 Y 34.8895 Z -1.0000
G00 Z 5.0000

(End cutting path id: text43581)


(Start cutting path id: text43581)
(Change tool to Default tool)

G00 Z 5.0000
G00 X 9.7637 Y 39.2786

G01 Z -1.0000 F 100.0000(Penetrate)
G01 X 11.8721 Y 39.2786 Z -1.0000 F 3500.0000
G01 X 11.8721 Y 29.1224 Z -1.0000
G01 X 9.7637 Y 29.1224 Z -1.0000
G01 X 9.7637 Y 39.2786 Z -1.0000
G00 Z 5.0000

(End cutting path id: text43581)


(Start cutting path id: text43581)
(Change tool to Default tool)

G00 Z 5.0000
G00 X 21.0360 Y 29.1224

G01 Z -1.0000 F 100.0000(Penetrate)
G01 X 13.1330 Y 29.1224 Z -1.0000 F 3500.0000
G01 X 13.1330 Y 30.9139 Z -1.0000
G01 X 18.3764 Y 37.4802 Z -1.0000
G01 X 13.2639 Y 37.4802 Z -1.0000
G01 X 13.2639 Y 39.2786 Z -1.0000
G01 X 21.0222 Y 39.2786 Z -1.0000
G01 X 21.0222 Y 37.5767 Z -1.0000
G01 X 15.7099 Y 30.9139 Z -1.0000
G01 X 21.0360 Y 30.9139 Z -1.0000
G01 X 21.0360 Y 29.1224 Z -1.0000
G00 Z 5.0000

(End cutting path id: text43581)


(Start cutting path id: text43581)
(Change tool to Default tool)

G00 Z 5.0000
G00 X 29.6556 Y 29.1224

G01 Z -1.0000 F 100.0000(Penetrate)
G01 X 21.7526 Y 29.1224 Z -1.0000 F 3500.0000
G01 X 21.7526 Y 30.9139 Z -1.0000
G01 X 26.9960 Y 37.4802 Z -1.0000
G01 X 21.8835 Y 37.4802 Z -1.0000
G01 X 21.8835 Y 39.2786 Z -1.0000
G01 X 29.6419 Y 39.2786 Z -1.0000
G01 X 29.6419 Y 37.5767 Z -1.0000
G01 X 24.3295 Y 30.9139 Z -1.0000
G01 X 29.6556 Y 30.9139 Z -1.0000
G01 X 29.6556 Y 29.1224 Z -1.0000
G00 Z 5.0000

(End cutting path id: text43581)


(Start cutting path id: text43581)
(Change tool to Default tool)

G00 Z 5.0000
G00 X 37.0350 Y 31.2101

G01 Z -1.0000 F 100.0000(Penetrate)
G01 X 33.2937 Y 31.2101 Z -1.0000 F 3500.0000
G01 X 32.5909 Y 29.1224 Z -1.0000
G01 X 30.3722 Y 29.1224 Z -1.0000
G01 X 33.9965 Y 39.2786 Z -1.0000
G01 X 36.3942 Y 39.2786 Z -1.0000
G01 X 39.9909 Y 29.1224 Z -1.0000
G01 X 37.6896 Y 29.1224 Z -1.0000
G01 X 37.0350 Y 31.2101 Z -1.0000
G00 Z 5.0000

(End cutting path id: text43581)


(Start cutting path id: text43581)
(Change tool to Default tool)

G00 Z 5.0000
G00 X 36.4425 Y 32.9603

G01 Z -1.0000 F 100.0000(Penetrate)
G01 X 35.1747 Y 36.9566 Z -1.0000 F 3500.0000
G01 X 33.8655 Y 32.9603 Z -1.0000
G01 X 36.4425 Y 32.9603 Z -1.0000
G00 Z 5.0000

(End cutting path id: text43581)



(Footer)
M5
G00 X0.0000 Y0.0000
M2
(Using default footer. To add your own footer create file "footer" in the output dir.)
(end)
%