%
(Header)
(Generated by gcodetools from Inkscape.)
(Using default header. To add your own header create file "header" in the output dir.)
M3
(Header end.)
G21 (All units in mm)

(Start cutting path id: path65453)
(Change tool to Default tool)

G00 Z 5.0000
G00 X 11.7482 Y 28.5734

G01 Z -1.0000 F 100.0000(Penetrate)
G01 X 10.5800 Y 28.5734 Z -1.0000 F 3500.0000
G01 X 10.5800 Y 26.5954 Z -1.0000
G01 X 9.4379 Y 26.5954 Z -1.0000
G01 X 9.4379 Y 32.0967 Z -1.0000
G01 X 11.8340 Y 32.0967 Z -1.0000
G02 X 12.6168 Y 31.9737 Z -1.0000 I -0.0000 J -2.5538
G02 X 13.1552 Y 31.6712 Z -1.0000 I -0.4755 J -1.4765
G02 X 13.4989 Y 31.1775 Z -1.0000 I -0.7936 J -0.9189
G02 X 13.6479 Y 30.3537 Z -1.0000 I -2.2031 J -0.8238
G02 X 13.4917 Y 29.4536 Z -1.0000 I -2.6724 J -0.0000
G02 X 13.1552 Y 28.9765 Z -1.0000 I -1.0276 J 0.3676
G02 X 12.6189 Y 28.6957 Z -1.0000 I -0.9490 J 1.1599
G02 X 11.7482 Y 28.5734 Z -1.0000 I -0.8708 J 3.0396
G01 X 11.7482 Y 28.5734 Z -1.0000
G00 Z 5.0000

(End cutting path id: path65453)


(Start cutting path id: path65453)
(Change tool to Default tool)

G00 Z 5.0000
G00 X 12.2856 Y 29.7192

G01 Z -1.0000 F 100.0000(Penetrate)
G03 X 12.4406 Y 29.9481 Z -1.0000 I -0.3668 J 0.4153 F 3500.0000
G03 X 12.5096 Y 30.3463 Z -1.0000 I -1.1147 J 0.3981
G03 X 12.4384 Y 30.7414 Z -1.0000 I -1.1334 J 0.0000
G03 X 12.2819 Y 30.9583 Z -1.0000 I -0.4718 J -0.1755
G03 X 12.0383 Y 31.0862 Z -1.0000 I -0.4351 J -0.5328
G03 X 11.6511 Y 31.1412 Z -1.0000 I -0.3872 J -1.3355
G01 X 10.5800 Y 31.1412 Z -1.0000
G01 X 10.5800 Y 29.5214 Z -1.0000
G01 X 11.6511 Y 29.5214 Z -1.0000
G03 X 12.0360 Y 29.5800 Z -1.0000 I 0.0000 J 1.2932
G03 X 12.2856 Y 29.7192 Z -1.0000 I -0.2074 J 0.6651
G01 X 12.2856 Y 29.7192 Z -1.0000
G00 Z 5.0000

(End cutting path id: path65453)


(Start cutting path id: path65453)
(Change tool to Default tool)

G00 Z 5.0000
G00 X 14.5100 Y 32.0967

G01 Z -1.0000 F 100.0000(Penetrate)
G01 X 15.6596 Y 32.0967 Z -1.0000 F 3500.0000
G01 X 15.6596 Y 27.5844 Z -1.0000
G01 X 18.3841 Y 27.5844 Z -1.0000
G01 X 18.3841 Y 26.5954 Z -1.0000
G01 X 14.5100 Y 26.5954 Z -1.0000
G01 X 14.5100 Y 32.0967 Z -1.0000
G00 Z 5.0000

(End cutting path id: path65453)


(Start cutting path id: path65452)
(Change tool to Default tool)

G00 Z 5.0000
G00 X 16.9434 Y 33.3216

G01 Z -1.0000 F 100.0000(Penetrate)
G02 X 15.8443 Y 33.5115 Z -1.0000 I 0.0000 J 3.2763 F 3500.0000
G02 X 15.1408 Y 33.9635 Z -1.0000 I 0.6179 J 1.7351
G02 X 14.5501 Y 34.8570 Z -1.0000 I 1.6028 J 1.7016
G02 X 14.3048 Y 36.2327 Z -1.0000 I 3.7342 J 1.3757
G02 X 14.5546 Y 37.6335 Z -1.0000 I 4.0520 J -0.0000
G02 X 15.1408 Y 38.5019 Z -1.0000 I 2.0614 J -0.7595
G02 X 15.8443 Y 38.9540 Z -1.0000 I 1.3215 J -1.2831
G02 X 16.9434 Y 39.1439 Z -1.0000 I 1.0991 J -3.0864
G02 X 18.0425 Y 38.9540 Z -1.0000 I 0.0000 J -3.2763
G02 X 18.7461 Y 38.5019 Z -1.0000 I -0.6179 J -1.7351
G02 X 19.3295 Y 37.6343 Z -1.0000 I -1.4781 J -1.6238
G02 X 19.5784 Y 36.2327 Z -1.0000 I -3.8212 J -1.4015
G02 X 19.3339 Y 34.8563 Z -1.0000 I -3.9973 J -0.0000
G02 X 18.7461 Y 33.9635 Z -1.0000 I -2.1939 J 0.8047
G02 X 18.0425 Y 33.5115 Z -1.0000 I -1.3215 J 1.2830
G02 X 16.9434 Y 33.3216 Z -1.0000 I -1.0991 J 3.0864
G01 X 16.9434 Y 33.3216 Z -1.0000
G00 Z 5.0000

(End cutting path id: path65452)


(Start cutting path id: path65452)
(Change tool to Default tool)

G00 Z 5.0000
G00 X 18.0295 Y 34.7996

G01 Z -1.0000 F 100.0000(Penetrate)
G03 X 18.3076 Y 35.3456 Z -1.0000 I -1.2133 J 0.9616 F 3500.0000
G03 X 18.4289 Y 36.2327 Z -1.0000 I -3.1836 J 0.8871
G03 X 18.3068 Y 37.1155 Z -1.0000 I -3.2526 J -0.0000
G03 X 18.0258 Y 37.6622 Z -1.0000 I -1.4893 J -0.4200
G03 X 17.5597 Y 38.0324 Z -1.0000 I -1.0137 J -0.7975
G03 X 16.9434 Y 38.1698 Z -1.0000 I -0.6163 J -1.3142
G03 X 16.3254 Y 38.0338 Z -1.0000 I -0.0000 J -1.4727
G03 X 15.8536 Y 37.6659 Z -1.0000 I 0.5524 J -1.1948
G03 X 15.5701 Y 37.1185 Z -1.0000 I 1.1993 J -0.9683
G03 X 15.4468 Y 36.2327 Z -1.0000 I 3.1205 J -0.8858
G03 X 15.5701 Y 35.3470 Z -1.0000 I 3.2438 J -0.0000
G03 X 15.8536 Y 34.7996 Z -1.0000 I 1.4828 J 0.4209
G03 X 16.3254 Y 34.4317 Z -1.0000 I 1.0242 J 0.8269
G03 X 16.9434 Y 34.2957 Z -1.0000 I 0.6180 J 1.3368
G03 X 17.5610 Y 34.4320 Z -1.0000 I 0.0000 J 1.4673
G03 X 18.0295 Y 34.7996 Z -1.0000 I -0.5477 J 1.1806
G01 X 18.0295 Y 34.7996 Z -1.0000
G00 Z 5.0000

(End cutting path id: path65452)


(Start cutting path id: path65452)
(Change tool to Default tool)

G00 Z 5.0000
G00 X 12.2856 Y 36.5985

G01 Z -1.0000 F 100.0000(Penetrate)
G03 X 12.4406 Y 36.8274 Z -1.0000 I -0.3668 J 0.4153 F 3500.0000
G03 X 12.5096 Y 37.2255 Z -1.0000 I -1.1147 J 0.3981
G03 X 12.4384 Y 37.6206 Z -1.0000 I -1.1334 J -0.0000
G03 X 12.2819 Y 37.8376 Z -1.0000 I -0.4718 J -0.1755
G03 X 12.0383 Y 37.9655 Z -1.0000 I -0.4351 J -0.5328
G03 X 11.6511 Y 38.0205 Z -1.0000 I -0.3872 J -1.3355
G01 X 10.5800 Y 38.0205 Z -1.0000
G01 X 10.5800 Y 36.4007 Z -1.0000
G01 X 11.6511 Y 36.4007 Z -1.0000
G03 X 12.0360 Y 36.4593 Z -1.0000 I -0.0000 J 1.2932
G03 X 12.2856 Y 36.5985 Z -1.0000 I -0.2074 J 0.6651
G01 X 12.2856 Y 36.5985 Z -1.0000
G00 Z 5.0000

(End cutting path id: path65452)


(Start cutting path id: path65452)
(Change tool to Default tool)

G00 Z 5.0000
G00 X 11.7482 Y 35.4527

G01 Z -1.0000 F 100.0000(Penetrate)
G01 X 10.5800 Y 35.4527 Z -1.0000 F 3500.0000
G01 X 10.5800 Y 33.4746 Z -1.0000
G01 X 9.4379 Y 33.4746 Z -1.0000
G01 X 9.4379 Y 38.9759 Z -1.0000
G01 X 11.8340 Y 38.9759 Z -1.0000
G02 X 12.6168 Y 38.8530 Z -1.0000 I -0.0000 J -2.5538
G02 X 13.1552 Y 38.5504 Z -1.0000 I -0.4755 J -1.4765
G02 X 13.4989 Y 38.0568 Z -1.0000 I -0.7936 J -0.9189
G02 X 13.6479 Y 37.2330 Z -1.0000 I -2.2031 J -0.8238
G02 X 13.4917 Y 36.3329 Z -1.0000 I -2.6724 J 0.0000
G02 X 13.1552 Y 35.8558 Z -1.0000 I -1.0276 J 0.3676
G02 X 12.6189 Y 35.5750 Z -1.0000 I -0.9490 J 1.1599
G02 X 11.7482 Y 35.4527 Z -1.0000 I -0.8708 J 3.0396
G01 X 11.7482 Y 35.4527 Z -1.0000
G00 Z 5.0000

(End cutting path id: path65452)


(Start cutting path id: path65453)
(Change tool to Default tool)

G00 Z 5.0000
G00 X 22.0790 Y 28.6742

G01 Z -1.0000 F 100.0000(Penetrate)
G01 X 21.3923 Y 30.8389 Z -1.0000 F 3500.0000
G01 X 20.6831 Y 28.6742 Z -1.0000
G01 X 22.0790 Y 28.6742 Z -1.0000
G00 Z 5.0000

(End cutting path id: path65453)


(Start cutting path id: path65453)
(Change tool to Default tool)

G00 Z 5.0000
G00 X 22.4000 Y 27.7262

G01 Z -1.0000 F 100.0000(Penetrate)
G01 X 20.3734 Y 27.7262 Z -1.0000 F 3500.0000
G01 X 19.9927 Y 26.5954 Z -1.0000
G01 X 18.7909 Y 26.5954 Z -1.0000
G01 X 20.7541 Y 32.0967 Z -1.0000
G01 X 22.0529 Y 32.0967 Z -1.0000
G01 X 24.0011 Y 26.5954 Z -1.0000
G01 X 22.7545 Y 26.5954 Z -1.0000
G01 X 22.4000 Y 27.7262 Z -1.0000
G00 Z 5.0000

(End cutting path id: path65453)


(Start cutting path id: path65453)
(Change tool to Default tool)

G00 Z 5.0000
G00 X 29.1478 Y 26.5954

G01 Z -1.0000 F 100.0000(Penetrate)
G01 X 27.9983 Y 26.5954 Z -1.0000 F 3500.0000
G01 X 25.7515 Y 30.5030 Z -1.0000
G01 X 25.7515 Y 26.5954 Z -1.0000
G01 X 24.6804 Y 26.5954 Z -1.0000
G01 X 24.6804 Y 32.0967 Z -1.0000
G01 X 25.8859 Y 32.0967 Z -1.0000
G01 X 28.0767 Y 28.2562 Z -1.0000
G01 X 28.0767 Y 32.0967 Z -1.0000
G01 X 29.1478 Y 32.0967 Z -1.0000
G01 X 29.1478 Y 26.5954 Z -1.0000
G00 Z 5.0000

(End cutting path id: path65453)


(Start cutting path id: path65453)
(Change tool to Default tool)

G00 Z 5.0000
G00 X 34.2162 Y 32.0967

G01 Z -1.0000 F 100.0000(Penetrate)
G01 X 34.2162 Y 31.1226 Z -1.0000 F 3500.0000
G01 X 32.5703 Y 31.1226 Z -1.0000
G01 X 32.5703 Y 26.5954 Z -1.0000
G01 X 31.4133 Y 26.5954 Z -1.0000
G01 X 31.4133 Y 31.1226 Z -1.0000
G01 X 29.7599 Y 31.1226 Z -1.0000
G01 X 29.7599 Y 32.0967 Z -1.0000
G01 X 34.2162 Y 32.0967 Z -1.0000
G00 Z 5.0000

(End cutting path id: path65453)


(Start cutting path id: path65452)
(Change tool to Default tool)

G00 Z 5.0000
G00 X 37.2617 Y 33.4746

G01 Z -1.0000 F 100.0000(Penetrate)
G01 X 34.8917 Y 33.4746 Z -1.0000 F 3500.0000
G01 X 34.8917 Y 38.9759 Z -1.0000
G01 X 37.2617 Y 38.9759 Z -1.0000
G02 X 37.7677 Y 38.9369 Z -1.0000 I -0.0593 J -4.0671
G02 X 38.1127 Y 38.8565 Z -1.0000 I -0.2753 J -1.9619
G02 X 38.6323 Y 38.5866 Z -1.0000 I -0.5701 J -1.7325
G02 X 39.0495 Y 38.1586 Z -1.0000 I -1.1353 J -1.5239
G02 X 39.2919 Y 37.7283 Z -1.0000 I -2.0755 J -1.4529
G02 X 39.4413 Y 37.2703 Z -1.0000 I -2.2062 J -0.9733
G02 X 39.5212 Y 36.7899 Z -1.0000 I -4.7074 J -1.0298
G02 X 39.5458 Y 36.3596 Z -1.0000 I -3.7496 J -0.4303
G02 X 39.4215 Y 35.2957 Z -1.0000 I -4.6144 J 0.0000
G02 X 39.1054 Y 34.5010 Z -1.0000 I -2.8627 J 0.6783
G02 X 38.3463 Y 33.7562 Z -1.0000 I -1.7360 J 1.0100
G02 X 37.2617 Y 33.4746 Z -1.0000 I -1.0846 J 1.9484
G01 X 37.2617 Y 33.4746 Z -1.0000
G00 Z 5.0000

(End cutting path id: path65452)


(Start cutting path id: path65452)
(Change tool to Default tool)

G00 Z 5.0000
G00 X 38.1164 Y 37.5726

G01 Z -1.0000 F 100.0000(Penetrate)
G03 X 37.7695 Y 37.8769 Z -1.0000 I -0.6380 J -0.3775 F 3500.0000
G03 X 37.0676 Y 38.0205 Z -1.0000 I -0.7019 J -1.6436
G01 X 36.0077 Y 38.0205 Z -1.0000
G01 X 36.0077 Y 34.4301 Z -1.0000
G01 X 37.0676 Y 34.4301 Z -1.0000
G03 X 37.7372 Y 34.6429 Z -1.0000 I -0.0000 J 1.1595
G03 X 38.2022 Y 35.2325 Z -1.0000 I -0.7650 J 1.0816
G03 X 38.3279 Y 35.6824 Z -1.0000 I -2.0384 J 0.8119
G03 X 38.3776 Y 36.2813 Z -1.0000 I -3.5801 J 0.5988
G03 X 38.2958 Y 37.0990 Z -1.0000 I -4.1240 J 0.0000
G03 X 38.1164 Y 37.5726 Z -1.0000 I -1.5347 J -0.3105
G01 X 38.1164 Y 37.5726 Z -1.0000
G00 Z 5.0000

(End cutting path id: path65452)


(Start cutting path id: path65452)
(Change tool to Default tool)

G00 Z 5.0000
G00 X 33.6228 Y 35.8782

G01 Z -1.0000 F 100.0000(Penetrate)
G01 X 30.9505 Y 35.8782 Z -1.0000 F 3500.0000
G01 X 30.9505 Y 34.4637 Z -1.0000
G01 X 33.9960 Y 34.4637 Z -1.0000
G01 X 33.9960 Y 33.4746 Z -1.0000
G01 X 29.8271 Y 33.4746 Z -1.0000
G01 X 29.8271 Y 38.9759 Z -1.0000
G01 X 33.8616 Y 38.9759 Z -1.0000
G01 X 33.8616 Y 38.0018 Z -1.0000
G01 X 30.9505 Y 38.0018 Z -1.0000
G01 X 30.9505 Y 36.8336 Z -1.0000
G01 X 33.6228 Y 36.8336 Z -1.0000
G01 X 33.6228 Y 35.8782 Z -1.0000
G00 Z 5.0000

(End cutting path id: path65452)


(Start cutting path id: path65452)
(Change tool to Default tool)

G00 Z 5.0000
G00 X 29.1217 Y 38.9759

G01 Z -1.0000 F 100.0000(Penetrate)
G01 X 29.1217 Y 38.0018 Z -1.0000 F 3500.0000
G01 X 27.4758 Y 38.0018 Z -1.0000
G01 X 27.4758 Y 33.4746 Z -1.0000
G01 X 26.3188 Y 33.4746 Z -1.0000
G01 X 26.3188 Y 38.0018 Z -1.0000
G01 X 24.6654 Y 38.0018 Z -1.0000
G01 X 24.6654 Y 38.9759 Z -1.0000
G01 X 29.1217 Y 38.9759 Z -1.0000
G00 Z 5.0000

(End cutting path id: path65452)


(Start cutting path id: path65452)
(Change tool to Default tool)

G00 Z 5.0000
G00 X 24.4527 Y 38.9759

G01 Z -1.0000 F 100.0000(Penetrate)
G01 X 24.4527 Y 38.0018 Z -1.0000 F 3500.0000
G01 X 22.8068 Y 38.0018 Z -1.0000
G01 X 22.8068 Y 33.4746 Z -1.0000
G01 X 21.6498 Y 33.4746 Z -1.0000
G01 X 21.6498 Y 38.0018 Z -1.0000
G01 X 19.9964 Y 38.0018 Z -1.0000
G01 X 19.9964 Y 38.9759 Z -1.0000
G01 X 24.4527 Y 38.9759 Z -1.0000
G00 Z 5.0000

(End cutting path id: path65452)



(Footer)
M5
G00 X0.0000 Y0.0000
M2
(Using default footer. To add your own footer create file "footer" in the output dir.)
(end)
%