%
(Header)
(Generated by gcodetools from Inkscape.)
(Using default header. To add your own header create file "header" in the output dir.)
M3
(Header end.)
G21 (All units in mm)

(Start cutting path id: text66164)
(Change tool to Default tool)

G00 Z 5.0000
G00 X 1.7313 Y 1.6858

G01 Z -1.0000 F 100.0000(Penetrate)
G01 X 0.9380 Y 1.6858 Z -1.0000 F 3500.0000
G01 X 0.9380 Y 0.2438 Z -1.0000
G01 X 0.1871 Y 0.2438 Z -1.0000
G01 X 0.1871 Y 3.9210 Z -1.0000
G01 X 1.9908 Y 3.9210 Z -1.0000
G02 X 2.3718 Y 3.8871 Z -1.0000 I -0.0534 J -2.7553
G02 X 2.5845 Y 3.8262 Z -1.0000 I -0.1453 J -0.9098
G02 X 2.7784 Y 3.7175 Z -1.0000 I -0.3683 J -0.8839
G02 X 2.9387 Y 3.5693 Z -1.0000 I -0.5420 J -0.7473
G02 X 3.0460 Y 3.4219 Z -1.0000 I -0.8725 J -0.7478
G02 X 3.1283 Y 3.2599 Z -1.0000 I -0.9739 J -0.5969
G02 X 3.1791 Y 3.0865 Z -1.0000 I -0.7900 J -0.3253
G02 X 3.1982 Y 2.8733 Z -1.0000 I -1.1806 J -0.2133
G02 X 3.1662 Y 2.6191 Z -1.0000 I -1.0245 J -0.0000
G02 X 3.0660 Y 2.3569 Z -1.0000 I -1.1927 J 0.3054
G02 X 2.8961 Y 2.1487 Z -1.0000 I -0.5951 J 0.3123
G02 X 2.6294 Y 2.0001 Z -1.0000 I -0.5493 J 0.6722
G02 X 2.8562 Y 1.8665 Z -1.0000 I -0.3283 J -0.8168
G02 X 2.9886 Y 1.7082 Z -1.0000 I -0.3414 J -0.4202
G02 X 3.0609 Y 1.5118 Z -1.0000 I -0.5433 J -0.3115
G02 X 3.0959 Y 1.1344 Z -1.0000 I -2.0185 J -0.3774
G01 X 3.0959 Y 0.8875 Z -1.0000
G03 X 3.1032 Y 0.6363 Z -1.0000 I 4.3084 J 0.0000
G03 X 3.1159 Y 0.5457 Z -1.0000 I 0.5702 J 0.0333
G03 X 3.1688 Y 0.4197 Z -1.0000 I 0.3536 J 0.0744
G03 X 3.2556 Y 0.3361 Z -1.0000 I 0.2336 J 0.1557
G01 X 3.2556 Y 0.2438 Z -1.0000
G01 X 2.4099 Y 0.2438 Z -1.0000
G02 X 2.3768 Y 0.3665 Z -1.0000 I 4.0261 J 1.1504
G02 X 2.3600 Y 0.4409 Z -1.0000 I 1.4625 J 0.3702
G02 X 2.3370 Y 0.5963 Z -1.0000 I 1.7300 J 0.3348
G02 X 2.3275 Y 0.7577 Z -1.0000 I 1.8577 J 0.1902
G01 X 2.3226 Y 1.0995 Z -1.0000
G03 X 2.2749 Y 1.4325 Z -1.0000 I -1.3190 J -0.0187
G03 X 2.1928 Y 1.5685 Z -1.0000 I -0.2838 J -0.0785
G03 X 2.0543 Y 1.6454 Z -1.0000 I -0.2149 J -0.2241
G03 X 1.7313 Y 1.6858 Z -1.0000 I -0.3230 J -1.2715
G01 X 1.7313 Y 1.6858 Z -1.0000
G00 Z 5.0000

(End cutting path id: text66164)


(Start cutting path id: text66164)
(Change tool to Default tool)

G00 Z 5.0000
G00 X 2.1978 Y 2.3544

G01 Z -1.0000 F 100.0000(Penetrate)
G03 X 2.3587 Y 2.5032 Z -1.0000 I -0.1455 J 0.3187 F 3500.0000
G03 X 2.4273 Y 2.7685 Z -1.0000 I -0.4786 J 0.2653
G03 X 2.3589 Y 3.0611 Z -1.0000 I -0.6603 J -0.0000
G03 X 2.2053 Y 3.2175 Z -1.0000 I -0.3150 J -0.1557
G03 X 2.0754 Y 3.2614 Z -1.0000 I -0.2062 J -0.3966
G03 X 1.8311 Y 3.2824 Z -1.0000 I -0.2443 J -1.4097
G01 X 0.9380 Y 3.2824 Z -1.0000
G01 X 0.9380 Y 2.2945 Z -1.0000
G01 X 1.8086 Y 2.2945 Z -1.0000
G03 X 2.0638 Y 2.3140 Z -1.0000 I -0.0000 J 1.6782
G03 X 2.1978 Y 2.3544 Z -1.0000 I -0.0763 J 0.4961
G01 X 2.1978 Y 2.3544 Z -1.0000
G00 Z 5.0000

(End cutting path id: text66164)


(Start cutting path id: text66164)
(Change tool to Default tool)

G00 Z 5.0000
G00 X 6.4189 Y 1.8504

G01 Z -1.0000 F 100.0000(Penetrate)
G01 X 4.6327 Y 1.8504 Z -1.0000 F 3500.0000
G01 X 4.6327 Y 0.9049 Z -1.0000
G01 X 6.6683 Y 0.9049 Z -1.0000
G01 X 6.6683 Y 0.2438 Z -1.0000
G01 X 3.8817 Y 0.2438 Z -1.0000
G01 X 3.8817 Y 3.9210 Z -1.0000
G01 X 6.5785 Y 3.9210 Z -1.0000
G01 X 6.5785 Y 3.2699 Z -1.0000
G01 X 4.6327 Y 3.2699 Z -1.0000
G01 X 4.6327 Y 2.4891 Z -1.0000
G01 X 6.4189 Y 2.4891 Z -1.0000
G01 X 6.4189 Y 1.8504 Z -1.0000
G00 Z 5.0000

(End cutting path id: text66164)


(Start cutting path id: text66164)
(Change tool to Default tool)

G00 Z 5.0000
G00 X 9.8741 Y 3.2699

G01 Z -1.0000 F 100.0000(Penetrate)
G01 X 8.0305 Y 3.2699 Z -1.0000 F 3500.0000
G01 X 8.0305 Y 2.4242 Z -1.0000
G01 X 9.6445 Y 2.4242 Z -1.0000
G01 X 9.6445 Y 1.7856 Z -1.0000
G01 X 8.0305 Y 1.7856 Z -1.0000
G01 X 8.0305 Y 0.2438 Z -1.0000
G01 X 7.2671 Y 0.2438 Z -1.0000
G01 X 7.2671 Y 3.9161 Z -1.0000
G01 X 9.8741 Y 3.9161 Z -1.0000
G01 X 9.8741 Y 3.2699 Z -1.0000
G00 Z 5.0000

(End cutting path id: text66164)


(Start cutting path id: text66164)
(Change tool to Default tool)

G00 Z 5.0000
G00 X 11.9497 Y 1.6858

G01 Z -1.0000 F 100.0000(Penetrate)
G01 X 11.1563 Y 1.6858 Z -1.0000 F 3500.0000
G01 X 11.1563 Y 0.2438 Z -1.0000
G01 X 10.4054 Y 0.2438 Z -1.0000
G01 X 10.4054 Y 3.9210 Z -1.0000
G01 X 12.2091 Y 3.9210 Z -1.0000
G02 X 12.5902 Y 3.8871 Z -1.0000 I -0.0534 J -2.7553
G02 X 12.8029 Y 3.8262 Z -1.0000 I -0.1453 J -0.9098
G02 X 12.9968 Y 3.7175 Z -1.0000 I -0.3683 J -0.8839
G02 X 13.1571 Y 3.5693 Z -1.0000 I -0.5420 J -0.7473
G02 X 13.2644 Y 3.4219 Z -1.0000 I -0.8725 J -0.7478
G02 X 13.3467 Y 3.2599 Z -1.0000 I -0.9739 J -0.5969
G02 X 13.3974 Y 3.0865 Z -1.0000 I -0.7900 J -0.3253
G02 X 13.4166 Y 2.8733 Z -1.0000 I -1.1806 J -0.2133
G02 X 13.3845 Y 2.6191 Z -1.0000 I -1.0245 J 0.0000
G02 X 13.2843 Y 2.3569 Z -1.0000 I -1.1927 J 0.3054
G02 X 13.1145 Y 2.1487 Z -1.0000 I -0.5951 J 0.3123
G02 X 12.8478 Y 2.0001 Z -1.0000 I -0.5493 J 0.6722
G02 X 13.0746 Y 1.8665 Z -1.0000 I -0.3283 J -0.8168
G02 X 13.2070 Y 1.7082 Z -1.0000 I -0.3414 J -0.4202
G02 X 13.2793 Y 1.5118 Z -1.0000 I -0.5433 J -0.3115
G02 X 13.3143 Y 1.1344 Z -1.0000 I -2.0185 J -0.3774
G01 X 13.3143 Y 0.8875 Z -1.0000
G03 X 13.3216 Y 0.6363 Z -1.0000 I 4.3080 J 0.0000
G03 X 13.3342 Y 0.5457 Z -1.0000 I 0.5702 J 0.0333
G03 X 13.3872 Y 0.4197 Z -1.0000 I 0.3536 J 0.0745
G03 X 13.4739 Y 0.3361 Z -1.0000 I 0.2336 J 0.1558
G01 X 13.4739 Y 0.2438 Z -1.0000
G01 X 12.6282 Y 0.2438 Z -1.0000
G02 X 12.5952 Y 0.3665 Z -1.0000 I 4.0262 J 1.1505
G02 X 12.5783 Y 0.4409 Z -1.0000 I 1.4624 J 0.3703
G02 X 12.5554 Y 0.5963 Z -1.0000 I 1.7295 J 0.3348
G02 X 12.5459 Y 0.7577 Z -1.0000 I 1.8572 J 0.1901
G01 X 12.5409 Y 1.0995 Z -1.0000
G03 X 12.4933 Y 1.4325 Z -1.0000 I -1.3192 J -0.0188
G03 X 12.4112 Y 1.5685 Z -1.0000 I -0.2838 J -0.0785
G03 X 12.2727 Y 1.6454 Z -1.0000 I -0.2149 J -0.2241
G03 X 11.9496 Y 1.6858 Z -1.0000 I -0.3230 J -1.2715
G01 X 11.9497 Y 1.6858 Z -1.0000
G00 Z 5.0000

(End cutting path id: text66164)


(Start cutting path id: text66164)
(Change tool to Default tool)

G00 Z 5.0000
G00 X 12.4162 Y 2.3544

G01 Z -1.0000 F 100.0000(Penetrate)
G03 X 12.5771 Y 2.5032 Z -1.0000 I -0.1455 J 0.3187 F 3500.0000
G03 X 12.6457 Y 2.7685 Z -1.0000 I -0.4786 J 0.2653
G03 X 12.5773 Y 3.0611 Z -1.0000 I -0.6603 J -0.0000
G03 X 12.4237 Y 3.2175 Z -1.0000 I -0.3150 J -0.1557
G03 X 12.2938 Y 3.2614 Z -1.0000 I -0.2062 J -0.3966
G03 X 12.0495 Y 3.2824 Z -1.0000 I -0.2443 J -1.4097
G01 X 11.1563 Y 3.2824 Z -1.0000
G01 X 11.1563 Y 2.2945 Z -1.0000
G01 X 12.0270 Y 2.2945 Z -1.0000
G03 X 12.2822 Y 2.3140 Z -1.0000 I 0.0000 J 1.6782
G03 X 12.4162 Y 2.3544 Z -1.0000 I -0.0763 J 0.4961
G01 X 12.4162 Y 2.3544 Z -1.0000
G00 Z 5.0000

(End cutting path id: text66164)


(Start cutting path id: text66164)
(Change tool to Default tool)

G00 Z 5.0000
G00 X 14.0178 Y 3.9210

G01 Z -1.0000 F 100.0000(Penetrate)
G01 X 14.7812 Y 3.9210 Z -1.0000 F 3500.0000
G01 X 14.7812 Y 0.2438 Z -1.0000
G01 X 14.0178 Y 0.2438 Z -1.0000
G01 X 14.0178 Y 3.9210 Z -1.0000
G00 Z 5.0000

(End cutting path id: text66164)


(Start cutting path id: text66164)
(Change tool to Default tool)

G00 Z 5.0000
G00 X 17.7524 Y 0.3336

G01 Z -1.0000 F 100.0000(Penetrate)
G02 X 17.4331 Y 0.1994 Z -1.0000 I -0.5947 J 0.9674 F 3500.0000
G02 X 17.0040 Y 0.1465 Z -1.0000 I -0.4291 J 1.7165
G02 X 16.3327 Y 0.2826 Z -1.0000 I 0.0000 J 1.7234
G02 X 15.8065 Y 0.6530 Z -1.0000 I 0.5924 J 1.4007
G02 X 15.4603 Y 1.2182 Z -1.0000 I 1.1315 J 1.0816
G02 X 15.3200 Y 2.0450 Z -1.0000 I 2.3661 J 0.8269
G02 X 15.4600 Y 2.8839 Z -1.0000 I 2.5842 J -0.0000
G02 X 15.8115 Y 3.4770 Z -1.0000 I 1.6062 J -0.5513
G02 X 16.3682 Y 3.8679 Z -1.0000 I 1.1559 J -1.0542
G02 X 17.1112 Y 4.0158 Z -1.0000 I 0.7430 J -1.7921
G02 X 17.7748 Y 3.9132 Z -1.0000 I -0.0000 J -2.1955
G02 X 18.2364 Y 3.6591 Z -1.0000 I -0.4085 J -1.2884
G02 X 18.5708 Y 3.2548 Z -1.0000 I -0.9031 J -1.0875
G02 X 18.7253 Y 2.7735 Z -1.0000 I -1.1489 J -0.6343
G01 X 17.9694 Y 2.7735 Z -1.0000
G03 X 17.8132 Y 3.0932 Z -1.0000 I -0.7712 J -0.1788
G03 X 17.5428 Y 3.2999 Z -1.0000 I -0.5629 J -0.4562
G03 X 17.3486 Y 3.3602 Z -1.0000 I -0.3743 J -0.8619
G03 X 17.1212 Y 3.3822 Z -1.0000 I -0.2274 J -1.1647
G03 X 16.7180 Y 3.2938 Z -1.0000 I -0.0000 J -0.9636
G03 X 16.3903 Y 3.0454 Z -1.0000 I 0.4001 J -0.8684
G03 X 16.1946 Y 2.6785 Z -1.0000 I 0.7425 J -0.6316
G03 X 16.1059 Y 2.0375 Z -1.0000 I 2.2714 J -0.6409
G03 X 16.2055 Y 1.4030 Z -1.0000 I 2.0698 J -0.0000
G03 X 16.4152 Y 1.0771 Z -1.0000 I 0.7172 J 0.2310
G03 X 16.7520 Y 0.8659 Z -1.0000 I 0.7520 J 0.8253
G03 X 17.1187 Y 0.7952 Z -1.0000 I 0.3668 J 0.9153
G03 X 17.4817 Y 0.8569 Z -1.0000 I -0.0000 J 1.0977
G03 X 17.7524 Y 1.0172 Z -1.0000 I -0.2649 J 0.7560
G03 X 17.9469 Y 1.2700 Z -1.0000 I -0.6092 J 0.6701
G03 X 18.0567 Y 1.6035 Z -1.0000 I -0.9731 J 0.5052
G01 X 17.2060 Y 1.6035 Z -1.0000
G01 X 17.2060 Y 2.2172 Z -1.0000
G01 X 18.7378 Y 2.2172 Z -1.0000
G01 X 18.7378 Y 0.2438 Z -1.0000
G01 X 18.2289 Y 0.2438 Z -1.0000
G01 X 18.1515 Y 0.7029 Z -1.0000
G02 X 17.9159 Y 0.4568 Z -1.0000 I -2.1448 J 1.8180
G02 X 17.7524 Y 0.3336 Z -1.0000 I -0.6898 J 0.7457
G01 X 17.7524 Y 0.3336 Z -1.0000
G00 Z 5.0000

(End cutting path id: text66164)


(Start cutting path id: text66164)
(Change tool to Default tool)

G00 Z 5.0000
G00 X 22.0308 Y 1.8504

G01 Z -1.0000 F 100.0000(Penetrate)
G01 X 20.2446 Y 1.8504 Z -1.0000 F 3500.0000
G01 X 20.2446 Y 0.9049 Z -1.0000
G01 X 22.2803 Y 0.9049 Z -1.0000
G01 X 22.2803 Y 0.2438 Z -1.0000
G01 X 19.4937 Y 0.2438 Z -1.0000
G01 X 19.4937 Y 3.9210 Z -1.0000
G01 X 22.1905 Y 3.9210 Z -1.0000
G01 X 22.1905 Y 3.2699 Z -1.0000
G01 X 20.2446 Y 3.2699 Z -1.0000
G01 X 20.2446 Y 2.4891 Z -1.0000
G01 X 22.0308 Y 2.4891 Z -1.0000
G01 X 22.0308 Y 1.8504 Z -1.0000
G00 Z 5.0000

(End cutting path id: text66164)


(Start cutting path id: text66164)
(Change tool to Default tool)

G00 Z 5.0000
G00 X 24.4407 Y 1.6858

G01 Z -1.0000 F 100.0000(Penetrate)
G01 X 23.6474 Y 1.6858 Z -1.0000 F 3500.0000
G01 X 23.6474 Y 0.2438 Z -1.0000
G01 X 22.8965 Y 0.2438 Z -1.0000
G01 X 22.8965 Y 3.9210 Z -1.0000
G01 X 24.7002 Y 3.9210 Z -1.0000
G02 X 25.0812 Y 3.8871 Z -1.0000 I -0.0534 J -2.7553
G02 X 25.2939 Y 3.8262 Z -1.0000 I -0.1453 J -0.9098
G02 X 25.4878 Y 3.7175 Z -1.0000 I -0.3683 J -0.8839
G02 X 25.6482 Y 3.5693 Z -1.0000 I -0.5420 J -0.7473
G02 X 25.7554 Y 3.4219 Z -1.0000 I -0.8725 J -0.7478
G02 X 25.8378 Y 3.2599 Z -1.0000 I -0.9739 J -0.5969
G02 X 25.8885 Y 3.0865 Z -1.0000 I -0.7900 J -0.3253
G02 X 25.9076 Y 2.8733 Z -1.0000 I -1.1806 J -0.2133
G02 X 25.8756 Y 2.6191 Z -1.0000 I -1.0245 J 0.0000
G02 X 25.7754 Y 2.3569 Z -1.0000 I -1.1927 J 0.3054
G02 X 25.6055 Y 2.1487 Z -1.0000 I -0.5951 J 0.3123
G02 X 25.3388 Y 2.0001 Z -1.0000 I -0.5493 J 0.6722
G02 X 25.5656 Y 1.8665 Z -1.0000 I -0.3283 J -0.8168
G02 X 25.6980 Y 1.7082 Z -1.0000 I -0.3414 J -0.4202
G02 X 25.7703 Y 1.5118 Z -1.0000 I -0.5433 J -0.3115
G02 X 25.8053 Y 1.1344 Z -1.0000 I -2.0185 J -0.3774
G01 X 25.8053 Y 0.8875 Z -1.0000
G03 X 25.8126 Y 0.6363 Z -1.0000 I 4.3080 J -0.0000
G03 X 25.8253 Y 0.5457 Z -1.0000 I 0.5702 J 0.0333
G03 X 25.8782 Y 0.4197 Z -1.0000 I 0.3536 J 0.0745
G03 X 25.9650 Y 0.3361 Z -1.0000 I 0.2336 J 0.1558
G01 X 25.9650 Y 0.2438 Z -1.0000
G01 X 25.1193 Y 0.2438 Z -1.0000
G02 X 25.0862 Y 0.3665 Z -1.0000 I 4.0199 J 1.1487
G02 X 25.0694 Y 0.4409 Z -1.0000 I 1.4600 J 0.3696
G02 X 25.0464 Y 0.5963 Z -1.0000 I 1.7295 J 0.3348
G02 X 25.0370 Y 0.7577 Z -1.0000 I 1.8572 J 0.1901
G01 X 25.0320 Y 1.0995 Z -1.0000
G03 X 24.9843 Y 1.4325 Z -1.0000 I -1.3192 J -0.0188
G03 X 24.9022 Y 1.5685 Z -1.0000 I -0.2838 J -0.0785
G03 X 24.7637 Y 1.6454 Z -1.0000 I -0.2149 J -0.2241
G03 X 24.4407 Y 1.6858 Z -1.0000 I -0.3230 J -1.2715
G01 X 24.4407 Y 1.6858 Z -1.0000
G00 Z 5.0000

(End cutting path id: text66164)


(Start cutting path id: text66164)
(Change tool to Default tool)

G00 Z 5.0000
G00 X 24.9072 Y 2.3544

G01 Z -1.0000 F 100.0000(Penetrate)
G03 X 25.0681 Y 2.5032 Z -1.0000 I -0.1455 J 0.3187 F 3500.0000
G03 X 25.1367 Y 2.7685 Z -1.0000 I -0.4786 J 0.2653
G03 X 25.0683 Y 3.0611 Z -1.0000 I -0.6603 J 0.0000
G03 X 24.9147 Y 3.2175 Z -1.0000 I -0.3150 J -0.1557
G03 X 24.7848 Y 3.2614 Z -1.0000 I -0.2062 J -0.3966
G03 X 24.5405 Y 3.2824 Z -1.0000 I -0.2443 J -1.4097
G01 X 23.6474 Y 3.2824 Z -1.0000
G01 X 23.6474 Y 2.2945 Z -1.0000
G01 X 24.5180 Y 2.2945 Z -1.0000
G03 X 24.7732 Y 2.3140 Z -1.0000 I 0.0000 J 1.6782
G03 X 24.9072 Y 2.3544 Z -1.0000 I -0.0763 J 0.4961
G01 X 24.9072 Y 2.3544 Z -1.0000
G00 Z 5.0000

(End cutting path id: text66164)


(Start cutting path id: text66164)
(Change tool to Default tool)

G00 Z 5.0000
G00 X 28.5071 Y 1.6334

G01 Z -1.0000 F 100.0000(Penetrate)
G01 X 28.0481 Y 3.0803 Z -1.0000 F 3500.0000
G01 X 27.5741 Y 1.6334 Z -1.0000
G01 X 28.5071 Y 1.6334 Z -1.0000
G00 Z 5.0000

(End cutting path id: text66164)


(Start cutting path id: text66164)
(Change tool to Default tool)

G00 Z 5.0000
G00 X 28.7216 Y 0.9997

G01 Z -1.0000 F 100.0000(Penetrate)
G01 X 27.3670 Y 0.9997 Z -1.0000 F 3500.0000
G01 X 27.1126 Y 0.2438 Z -1.0000
G01 X 26.3093 Y 0.2438 Z -1.0000
G01 X 27.6215 Y 3.9210 Z -1.0000
G01 X 28.4896 Y 3.9210 Z -1.0000
G01 X 29.7919 Y 0.2438 Z -1.0000
G01 X 28.9586 Y 0.2438 Z -1.0000
G01 X 28.7216 Y 0.9997 Z -1.0000
G00 Z 5.0000

(End cutting path id: text66164)


(Start cutting path id: text66164)
(Change tool to Default tool)

G00 Z 5.0000
G00 X 32.5535 Y 3.9210

G01 Z -1.0000 F 100.0000(Penetrate)
G01 X 32.5535 Y 3.2699 Z -1.0000 F 3500.0000
G01 X 31.4534 Y 3.2699 Z -1.0000
G01 X 31.4534 Y 0.2438 Z -1.0000
G01 X 30.6800 Y 0.2438 Z -1.0000
G01 X 30.6800 Y 3.2699 Z -1.0000
G01 X 29.5748 Y 3.2699 Z -1.0000
G01 X 29.5748 Y 3.9210 Z -1.0000
G01 X 32.5535 Y 3.9210 Z -1.0000
G00 Z 5.0000

(End cutting path id: text66164)


(Start cutting path id: text66164)
(Change tool to Default tool)

G00 Z 5.0000
G00 X 35.2653 Y 1.1295

G01 Z -1.0000 F 100.0000(Penetrate)
G03 X 35.4512 Y 1.4945 Z -1.0000 I -0.8110 J 0.6428 F 3500.0000
G03 X 35.5322 Y 2.0874 Z -1.0000 I -2.1280 J 0.5930
G03 X 35.4506 Y 2.6775 Z -1.0000 I -2.1741 J -0.0000
G03 X 35.2628 Y 3.0429 Z -1.0000 I -0.9955 J -0.2807
G03 X 34.9513 Y 3.2904 Z -1.0000 I -0.6776 J -0.5331
G03 X 34.5393 Y 3.3822 Z -1.0000 I -0.4120 J -0.8784
G03 X 34.1262 Y 3.2913 Z -1.0000 I -0.0000 J -0.9844
G03 X 33.8109 Y 3.0454 Z -1.0000 I 0.3692 J -0.7987
G03 X 33.6213 Y 2.6795 Z -1.0000 I 0.8016 J -0.6472
G03 X 33.5389 Y 2.0874 Z -1.0000 I 2.0858 J -0.5921
G03 X 33.6213 Y 1.4954 Z -1.0000 I 2.1682 J -0.0000
G03 X 33.8109 Y 1.1295 Z -1.0000 I 0.9912 J 0.2813
G03 X 34.1262 Y 0.8835 Z -1.0000 I 0.6846 J 0.5527
G03 X 34.5393 Y 0.7927 Z -1.0000 I 0.4131 J 0.8935
G03 X 34.9521 Y 0.8837 Z -1.0000 I 0.0000 J 0.9808
G03 X 35.2653 Y 1.1295 Z -1.0000 I -0.3661 J 0.7891
G01 X 35.2653 Y 1.1295 Z -1.0000
G00 Z 5.0000

(End cutting path id: text66164)


(Start cutting path id: text66164)
(Change tool to Default tool)

G00 Z 5.0000
G00 X 34.5393 Y 0.1415

G01 Z -1.0000 F 100.0000(Penetrate)
G02 X 33.8047 Y 0.2685 Z -1.0000 I 0.0000 J 2.1899 F 3500.0000
G02 X 33.3344 Y 0.5706 Z -1.0000 I 0.4130 J 1.1598
G02 X 32.9396 Y 1.1678 Z -1.0000 I 1.0714 J 1.1374
G02 X 32.7756 Y 2.0874 Z -1.0000 I 2.4960 J 0.9196
G02 X 32.9426 Y 3.0238 Z -1.0000 I 2.7085 J -0.0000
G02 X 33.3344 Y 3.6042 Z -1.0000 I 1.3779 J -0.5077
G02 X 33.8047 Y 3.9064 Z -1.0000 I 0.8833 J -0.8576
G02 X 34.5393 Y 4.0333 Z -1.0000 I 0.7347 J -2.0630
G02 X 35.2740 Y 3.9064 Z -1.0000 I -0.0000 J -2.1899
G02 X 35.7443 Y 3.6042 Z -1.0000 I -0.4130 J -1.1598
G02 X 36.1342 Y 3.0242 Z -1.0000 I -0.9880 J -1.0854
G02 X 36.3006 Y 2.0874 Z -1.0000 I -2.5542 J -0.9368
G02 X 36.1372 Y 1.1674 Z -1.0000 I -2.6719 J 0.0000
G02 X 35.7443 Y 0.5706 Z -1.0000 I -1.4665 J 0.5379
G02 X 35.2740 Y 0.2685 Z -1.0000 I -0.8833 J 0.8576
G02 X 34.5393 Y 0.1415 Z -1.0000 I -0.7347 J 2.0630
G01 X 34.5393 Y 0.1415 Z -1.0000
G00 Z 5.0000

(End cutting path id: text66164)


(Start cutting path id: text66164)
(Change tool to Default tool)

G00 Z 5.0000
G00 X 38.4485 Y 1.6858

G01 Z -1.0000 F 100.0000(Penetrate)
G01 X 37.6552 Y 1.6858 Z -1.0000 F 3500.0000
G01 X 37.6552 Y 0.2438 Z -1.0000
G01 X 36.9043 Y 0.2438 Z -1.0000
G01 X 36.9043 Y 3.9210 Z -1.0000
G01 X 38.7080 Y 3.9210 Z -1.0000
G02 X 39.0891 Y 3.8871 Z -1.0000 I -0.0534 J -2.7553
G02 X 39.3017 Y 3.8262 Z -1.0000 I -0.1453 J -0.9098
G02 X 39.4957 Y 3.7175 Z -1.0000 I -0.3683 J -0.8839
G02 X 39.6560 Y 3.5693 Z -1.0000 I -0.5420 J -0.7473
G02 X 39.7632 Y 3.4219 Z -1.0000 I -0.8725 J -0.7478
G02 X 39.8456 Y 3.2599 Z -1.0000 I -0.9739 J -0.5969
G02 X 39.8963 Y 3.0865 Z -1.0000 I -0.7900 J -0.3253
G02 X 39.9154 Y 2.8733 Z -1.0000 I -1.1806 J -0.2133
G02 X 39.8834 Y 2.6191 Z -1.0000 I -1.0245 J 0.0000
G02 X 39.7832 Y 2.3569 Z -1.0000 I -1.1927 J 0.3054
G02 X 39.6134 Y 2.1487 Z -1.0000 I -0.5951 J 0.3123
G02 X 39.3466 Y 2.0001 Z -1.0000 I -0.5493 J 0.6722
G02 X 39.5734 Y 1.8665 Z -1.0000 I -0.3283 J -0.8168
G02 X 39.7059 Y 1.7082 Z -1.0000 I -0.3414 J -0.4202
G02 X 39.7782 Y 1.5118 Z -1.0000 I -0.5433 J -0.3115
G02 X 39.8132 Y 1.1344 Z -1.0000 I -2.0185 J -0.3774
G01 X 39.8132 Y 0.8875 Z -1.0000
G03 X 39.8205 Y 0.6363 Z -1.0000 I 4.3080 J -0.0000
G03 X 39.8331 Y 0.5457 Z -1.0000 I 0.5702 J 0.0333
G03 X 39.8860 Y 0.4197 Z -1.0000 I 0.3536 J 0.0745
G03 X 39.9728 Y 0.3361 Z -1.0000 I 0.2336 J 0.1558
G01 X 39.9728 Y 0.2438 Z -1.0000
G01 X 39.1271 Y 0.2438 Z -1.0000
G02 X 39.0941 Y 0.3665 Z -1.0000 I 4.0199 J 1.1487
G02 X 39.0772 Y 0.4409 Z -1.0000 I 1.4600 J 0.3696
G02 X 39.0543 Y 0.5963 Z -1.0000 I 1.7295 J 0.3348
G02 X 39.0448 Y 0.7577 Z -1.0000 I 1.8572 J 0.1901
G01 X 39.0398 Y 1.0995 Z -1.0000
G03 X 38.9922 Y 1.4325 Z -1.0000 I -1.3192 J -0.0188
G03 X 38.9101 Y 1.5685 Z -1.0000 I -0.2838 J -0.0785
G03 X 38.7716 Y 1.6454 Z -1.0000 I -0.2149 J -0.2241
G03 X 38.4485 Y 1.6858 Z -1.0000 I -0.3230 J -1.2715
G01 X 38.4485 Y 1.6858 Z -1.0000
G00 Z 5.0000

(End cutting path id: text66164)


(Start cutting path id: text66164)
(Change tool to Default tool)

G00 Z 5.0000
G00 X 38.9151 Y 2.3544

G01 Z -1.0000 F 100.0000(Penetrate)
G03 X 39.0760 Y 2.5032 Z -1.0000 I -0.1455 J 0.3187 F 3500.0000
G03 X 39.1446 Y 2.7685 Z -1.0000 I -0.4786 J 0.2653
G03 X 39.0762 Y 3.0611 Z -1.0000 I -0.6603 J 0.0000
G03 X 38.9225 Y 3.2175 Z -1.0000 I -0.3150 J -0.1557
G03 X 38.7927 Y 3.2614 Z -1.0000 I -0.2062 J -0.3966
G03 X 38.5483 Y 3.2824 Z -1.0000 I -0.2443 J -1.4097
G01 X 37.6552 Y 3.2824 Z -1.0000
G01 X 37.6552 Y 2.2945 Z -1.0000
G01 X 38.5259 Y 2.2945 Z -1.0000
G03 X 38.7810 Y 2.3140 Z -1.0000 I -0.0000 J 1.6782
G03 X 38.9151 Y 2.3544 Z -1.0000 I -0.0763 J 0.4961
G01 X 38.9151 Y 2.3544 Z -1.0000
G00 Z 5.0000

(End cutting path id: text66164)



(Footer)
M5
G00 X0.0000 Y0.0000
M2
(Using default footer. To add your own footer create file "footer" in the output dir.)
(end)
%