%
(Header)
(Generated by gcodetools from Inkscape.)
(Using default header. To add your own header create file "header" in the output dir.)
M3
(Header end.)
G21 (All units in mm)

(Start cutting path id: text67360)
(Change tool to Default tool)

G00 Z 5.0000
G00 X 3.3151 Y 35.5776

G01 Z -1.0000 F 100.0000(Penetrate)
G01 X 1.8462 Y 35.5776 Z -1.0000 F 3500.0000
G01 X 1.8462 Y 32.9078 Z -1.0000
G01 X 0.4559 Y 32.9078 Z -1.0000
G01 X 0.4559 Y 39.7164 Z -1.0000
G01 X 3.7955 Y 39.7164 Z -1.0000
G02 X 4.5011 Y 39.6535 Z -1.0000 I -0.0987 J -5.1002
G02 X 4.8949 Y 39.5408 Z -1.0000 I -0.2689 J -1.6842
G02 X 5.2539 Y 39.3394 Z -1.0000 I -0.6818 J -1.6364
G02 X 5.5508 Y 39.0651 Z -1.0000 I -1.0036 J -1.3836
G02 X 5.7494 Y 38.7922 Z -1.0000 I -1.6154 J -1.3847
G02 X 5.9018 Y 38.4923 Z -1.0000 I -1.8033 J -1.1053
G02 X 5.9958 Y 38.1712 Z -1.0000 I -1.4628 J -0.6023
G02 X 6.0312 Y 37.7763 Z -1.0000 I -2.1859 J -0.3949
G02 X 5.9719 Y 37.3058 Z -1.0000 I -1.8970 J 0.0000
G02 X 5.7864 Y 36.8202 Z -1.0000 I -2.2083 J 0.5654
G02 X 5.4719 Y 36.4348 Z -1.0000 I -1.1019 J 0.5782
G02 X 4.9780 Y 36.1596 Z -1.0000 I -1.0171 J 1.2446
G02 X 5.3979 Y 35.9123 Z -1.0000 I -0.6079 J -1.5123
G02 X 5.6432 Y 35.6192 Z -1.0000 I -0.6321 J -0.7780
G02 X 5.7770 Y 35.2555 Z -1.0000 I -1.0060 J -0.5768
G02 X 5.8418 Y 34.5568 Z -1.0000 I -3.7373 J -0.6987
G01 X 5.8418 Y 34.0995 Z -1.0000
G03 X 5.8553 Y 33.6345 Z -1.0000 I 7.9774 J -0.0000
G03 X 5.8787 Y 33.4667 Z -1.0000 I 1.0558 J 0.0617
G03 X 5.9767 Y 33.2334 Z -1.0000 I 0.6547 J 0.1378
G03 X 6.1374 Y 33.0787 Z -1.0000 I 0.4326 J 0.2884
G01 X 6.1374 Y 32.9078 Z -1.0000
G01 X 4.5715 Y 32.9078 Z -1.0000
G02 X 4.5103 Y 33.1350 Z -1.0000 I 7.4554 J 2.1301
G02 X 4.4791 Y 33.2727 Z -1.0000 I 2.7080 J 0.6856
G02 X 4.4367 Y 33.5604 Z -1.0000 I 3.2031 J 0.6199
G02 X 4.4191 Y 33.8593 Z -1.0000 I 3.4396 J 0.3521
G01 X 4.4099 Y 34.4921 Z -1.0000
G03 X 4.3217 Y 35.1086 Z -1.0000 I -2.4423 J -0.0346
G03 X 4.1697 Y 35.3605 Z -1.0000 I -0.5254 J -0.1453
G03 X 3.9133 Y 35.5028 Z -1.0000 I -0.3980 J -0.4149
G03 X 3.3151 Y 35.5776 Z -1.0000 I -0.5981 J -2.3543
G01 X 3.3151 Y 35.5776 Z -1.0000
G00 Z 5.0000

(End cutting path id: text67360)


(Start cutting path id: text67360)
(Change tool to Default tool)

G00 Z 5.0000
G00 X 4.1789 Y 36.8156

G01 Z -1.0000 F 100.0000(Penetrate)
G03 X 4.4769 Y 37.0912 Z -1.0000 I -0.2694 J 0.5901 F 3500.0000
G03 X 4.6039 Y 37.5823 Z -1.0000 I -0.8862 J 0.4911
G03 X 4.4772 Y 38.1242 Z -1.0000 I -1.2225 J -0.0000
G03 X 4.1928 Y 38.4138 Z -1.0000 I -0.5832 J -0.2883
G03 X 3.9523 Y 38.4950 Z -1.0000 I -0.3818 J -0.7343
G03 X 3.4999 Y 38.5339 Z -1.0000 I -0.4524 J -2.6100
G01 X 1.8462 Y 38.5339 Z -1.0000
G01 X 1.8462 Y 36.7047 Z -1.0000
G01 X 3.4583 Y 36.7047 Z -1.0000
G03 X 3.9308 Y 36.7408 Z -1.0000 I 0.0000 J 3.1071
G03 X 4.1789 Y 36.8156 Z -1.0000 I -0.1413 J 0.9185
G01 X 4.1789 Y 36.8156 Z -1.0000
G00 Z 5.0000

(End cutting path id: text67360)


(Start cutting path id: text67360)
(Change tool to Default tool)

G00 Z 5.0000
G00 X 11.9945 Y 35.8825

G01 Z -1.0000 F 100.0000(Penetrate)
G01 X 8.6872 Y 35.8825 Z -1.0000 F 3500.0000
G01 X 8.6872 Y 34.1318 Z -1.0000
G01 X 12.4564 Y 34.1318 Z -1.0000
G01 X 12.4564 Y 32.9078 Z -1.0000
G01 X 7.2968 Y 32.9078 Z -1.0000
G01 X 7.2968 Y 39.7164 Z -1.0000
G01 X 12.2901 Y 39.7164 Z -1.0000
G01 X 12.2901 Y 38.5108 Z -1.0000
G01 X 8.6872 Y 38.5108 Z -1.0000
G01 X 8.6872 Y 37.0650 Z -1.0000
G01 X 11.9945 Y 37.0650 Z -1.0000
G01 X 11.9945 Y 35.8825 Z -1.0000
G00 Z 5.0000

(End cutting path id: text67360)


(Start cutting path id: text67360)
(Change tool to Default tool)

G00 Z 5.0000
G00 X 14.8675 Y 32.9078

G01 Z -1.0000 F 100.0000(Penetrate)
G01 X 13.5419 Y 32.9078 Z -1.0000 F 3500.0000
G01 X 13.5419 Y 39.7164 Z -1.0000
G01 X 15.6112 Y 39.7164 Z -1.0000
G01 X 16.8491 Y 34.3628 Z -1.0000
G01 X 18.0778 Y 39.7164 Z -1.0000
G01 X 20.1241 Y 39.7164 Z -1.0000
G01 X 20.1241 Y 32.9078 Z -1.0000
G01 X 18.7984 Y 32.9078 Z -1.0000
G01 X 18.7984 Y 37.5130 Z -1.0000
G02 X 18.7992 Y 37.7117 Z -1.0000 I 23.9339 J 0.0000
G02 X 18.8030 Y 38.0673 Z -1.0000 I 76.7576 J -0.6370
G03 X 18.8068 Y 38.4276 Z -1.0000 I -80.6355 J 1.0295
G03 X 18.8076 Y 38.6216 Z -1.0000 I -23.3765 J 0.1940
G01 X 17.5189 Y 32.9078 Z -1.0000
G01 X 16.1378 Y 32.9078 Z -1.0000
G01 X 14.8583 Y 38.6216 Z -1.0000
G03 X 14.8591 Y 38.4276 Z -1.0000 I 23.3773 J 0.0000
G03 X 14.8629 Y 38.0673 Z -1.0000 I 80.6393 J 0.6692
G02 X 14.8667 Y 37.7117 Z -1.0000 I -76.7538 J -0.9927
G02 X 14.8675 Y 37.5130 Z -1.0000 I -23.9331 J -0.1986
G01 X 14.8675 Y 32.9078 Z -1.0000
G00 Z 5.0000

(End cutting path id: text67360)


(Start cutting path id: text67360)
(Change tool to Default tool)

G00 Z 5.0000
G00 X 24.4568 Y 32.7184

G01 Z -1.0000 F 100.0000(Penetrate)
G02 X 23.0966 Y 32.9534 Z -1.0000 I 0.0000 J 4.0548 F 3500.0000
G02 X 22.2258 Y 33.5129 Z -1.0000 I 0.7647 J 2.1475
G02 X 21.4948 Y 34.6187 Z -1.0000 I 1.9837 J 2.1059
G02 X 21.1911 Y 36.3213 Z -1.0000 I 4.6215 J 1.7027
G02 X 21.5003 Y 38.0550 Z -1.0000 I 5.0149 J -0.0000
G02 X 22.2258 Y 39.1297 Z -1.0000 I 2.5513 J -0.9400
G02 X 23.0966 Y 39.6893 Z -1.0000 I 1.6355 J -1.5879
G02 X 24.4568 Y 39.9242 Z -1.0000 I 1.3603 J -3.8198
G02 X 25.8171 Y 39.6893 Z -1.0000 I 0.0000 J -4.0548
G02 X 26.6879 Y 39.1297 Z -1.0000 I -0.7647 J -2.1475
G02 X 27.4099 Y 38.0559 Z -1.0000 I -1.8294 J -2.0096
G02 X 27.7179 Y 36.3213 Z -1.0000 I -4.7293 J -1.7346
G02 X 27.4154 Y 34.6178 Z -1.0000 I -4.9472 J 0.0000
G02 X 26.6879 Y 33.5129 Z -1.0000 I -2.7152 J 0.9959
G02 X 25.8171 Y 32.9534 Z -1.0000 I -1.6355 J 1.5879
G02 X 24.4568 Y 32.7184 Z -1.0000 I -1.3603 J 3.8198
G01 X 24.4568 Y 32.7184 Z -1.0000
G00 Z 5.0000

(End cutting path id: text67360)


(Start cutting path id: text67360)
(Change tool to Default tool)

G00 Z 5.0000
G00 X 25.8010 Y 34.5476

G01 Z -1.0000 F 100.0000(Penetrate)
G03 X 26.1451 Y 35.2234 Z -1.0000 I -1.5016 J 1.1902 F 3500.0000
G03 X 26.2952 Y 36.3213 Z -1.0000 I -3.9401 J 1.0979
G03 X 26.1442 Y 37.4139 Z -1.0000 I -4.0256 J -0.0000
G03 X 25.7964 Y 38.0904 Z -1.0000 I -1.8432 J -0.5198
G03 X 25.2196 Y 38.5487 Z -1.0000 I -1.2546 J -0.9871
G03 X 24.4568 Y 38.7186 Z -1.0000 I -0.7628 J -1.6265
G03 X 23.6919 Y 38.5504 Z -1.0000 I 0.0000 J -1.8227
G03 X 23.1081 Y 38.0951 Z -1.0000 I 0.6837 J -1.4788
G03 X 22.7571 Y 37.4176 Z -1.0000 I 1.4843 J -1.1984
G03 X 22.6046 Y 36.3213 Z -1.0000 I 3.8620 J -1.0963
G03 X 22.7571 Y 35.2251 Z -1.0000 I 4.0146 J -0.0000
G03 X 23.1081 Y 34.5476 Z -1.0000 I 1.8352 J 0.5209
G03 X 23.6919 Y 34.0922 Z -1.0000 I 1.2676 J 1.0234
G03 X 24.4568 Y 33.9240 Z -1.0000 I 0.7649 J 1.6544
G03 X 25.2211 Y 34.0926 Z -1.0000 I 0.0000 J 1.8160
G03 X 25.8010 Y 34.5476 Z -1.0000 I -0.6779 J 1.4612
G01 X 25.8010 Y 34.5476 Z -1.0000
G00 Z 5.0000

(End cutting path id: text67360)


(Start cutting path id: text67360)
(Change tool to Default tool)

G00 Z 5.0000
G00 X 33.7505 Y 39.7164

G01 Z -1.0000 F 100.0000(Penetrate)
G01 X 33.7505 Y 38.5108 Z -1.0000 F 3500.0000
G01 X 31.7135 Y 38.5108 Z -1.0000
G01 X 31.7135 Y 32.9078 Z -1.0000
G01 X 30.2816 Y 32.9078 Z -1.0000
G01 X 30.2816 Y 38.5108 Z -1.0000
G01 X 28.2353 Y 38.5108 Z -1.0000
G01 X 28.2353 Y 39.7164 Z -1.0000
G01 X 33.7505 Y 39.7164 Z -1.0000
G00 Z 5.0000

(End cutting path id: text67360)


(Start cutting path id: text67360)
(Change tool to Default tool)

G00 Z 5.0000
G00 X 39.3212 Y 35.8825

G01 Z -1.0000 F 100.0000(Penetrate)
G01 X 36.0139 Y 35.8825 Z -1.0000 F 3500.0000
G01 X 36.0139 Y 34.1318 Z -1.0000
G01 X 39.7831 Y 34.1318 Z -1.0000
G01 X 39.7831 Y 32.9078 Z -1.0000
G01 X 34.6235 Y 32.9078 Z -1.0000
G01 X 34.6235 Y 39.7164 Z -1.0000
G01 X 39.6168 Y 39.7164 Z -1.0000
G01 X 39.6168 Y 38.5108 Z -1.0000
G01 X 36.0139 Y 38.5108 Z -1.0000
G01 X 36.0139 Y 37.0650 Z -1.0000
G01 X 39.3212 Y 37.0650 Z -1.0000
G01 X 39.3212 Y 35.8825 Z -1.0000
G00 Z 5.0000

(End cutting path id: text67360)



(Footer)
M5
G00 X0.0000 Y0.0000
M2
(Using default footer. To add your own footer create file "footer" in the output dir.)
(end)
%