%
(Header)
(Generated by gcodetools from Inkscape.)
(Using default header. To add your own header create file "header" in the output dir.)
M3
(Header end.)
G21 (All units in mm)

(Start cutting path id: text123930)
(Change tool to Default tool)

G00 Z 5.0000
G00 X 2.7344 Y 1.3149

G01 Z -1.0000 F 100.0000(Penetrate)
G03 X 3.1165 Y 1.3407 Z -1.0000 I 0.0000 J 2.8435 F 3500.0000
G03 X 3.3620 Y 1.4000 Z -1.0000 I -0.1662 J 1.2259
G03 X 3.6993 Y 1.6478 Z -1.0000 I -0.2450 J 0.6871
G03 X 3.8194 Y 2.0064 Z -1.0000 I -0.4753 J 0.3586
G03 X 3.7599 Y 2.2322 Z -1.0000 I -0.4583 J -0.0000
G03 X 3.5925 Y 2.4070 Z -1.0000 I -0.4283 J -0.2426
G03 X 3.3548 Y 2.5186 Z -1.0000 I -0.6319 J -1.0370
G03 X 2.8798 Y 2.6517 Z -1.0000 I -1.3924 J -4.0562
G01 X 2.3266 Y 2.7758 Z -1.0000
G02 X 1.5313 Y 3.0061 Z -1.0000 I 1.5343 J 6.7861
G02 X 1.1991 Y 3.1764 Z -1.0000 I 0.4736 J 1.3329
G02 X 0.8237 Y 3.6188 Z -1.0000 I 0.6216 J 0.9080
G02 X 0.6708 Y 4.3075 Z -1.0000 I 1.4746 J 0.6888
G02 X 0.8052 Y 4.9501 Z -1.0000 I 1.6026 J 0.0000
G02 X 1.1813 Y 5.4741 Z -1.0000 I 1.4170 J -0.6202
G02 X 1.7466 Y 5.7972 Z -1.0000 I 1.0087 J -1.1088
G02 X 2.6812 Y 5.9386 Z -1.0000 I 0.9346 J -3.0177
G02 X 3.4671 Y 5.8187 Z -1.0000 I 0.0000 J -2.6362
G02 X 4.0889 Y 5.4989 Z -1.0000 I -0.6078 J -1.9459
G02 X 4.5168 Y 4.9806 Z -1.0000 I -0.8449 J -1.1334
G02 X 4.7023 Y 4.2295 Z -1.0000 I -1.6860 J -0.8148
G01 X 3.6527 Y 4.2295 Z -1.0000
G03 X 3.5246 Y 4.6363 Z -1.0000 I -0.8768 J -0.0527
G03 X 3.2414 Y 4.8997 Z -1.0000 I -0.6156 J -0.3779
G03 X 2.9770 Y 4.9930 Z -1.0000 I -0.4747 J -0.9237
G03 X 2.6067 Y 5.0309 Z -1.0000 I -0.3702 J -1.7911
G03 X 2.2003 Y 4.9803 Z -1.0000 I 0.0000 J -1.6595
G03 X 1.9330 Y 4.8607 Z -1.0000 I 0.2077 J -0.8222
G03 X 1.7483 Y 4.6549 Z -1.0000 I 0.3199 J -0.4732
G03 X 1.6813 Y 4.3855 Z -1.0000 I 0.5084 J -0.2694
G03 X 1.7475 Y 4.1443 Z -1.0000 I 0.4728 J -0.0000
G03 X 1.9295 Y 3.9671 Z -1.0000 I 0.4193 J 0.2488
G03 X 2.0964 Y 3.8934 Z -1.0000 I 0.4228 J 0.7318
G03 X 2.6103 Y 3.7509 Z -1.0000 I 2.1861 J 6.8808
G01 X 3.5109 Y 3.5346 Z -1.0000
G02 X 4.0808 Y 3.3468 Z -1.0000 I -0.8407 J -3.5098
G02 X 4.4044 Y 3.1552 Z -1.0000 I -0.5543 J -1.3054
G02 X 4.7396 Y 2.7219 Z -1.0000 I -0.6985 J -0.8865
G02 X 4.8725 Y 2.0879 Z -1.0000 I -1.4458 J -0.6340
G02 X 4.7296 Y 1.4370 Z -1.0000 I -1.5538 J 0.0000
G02 X 4.3229 Y 0.8965 Z -1.0000 I -1.4537 J 0.6706
G02 X 3.7243 Y 0.5662 Z -1.0000 I -1.0813 J 1.2520
G02 X 2.7769 Y 0.4250 Z -1.0000 I -0.9473 J 3.1056
G02 X 1.8038 Y 0.5628 Z -1.0000 I -0.0000 J 3.5028
G02 X 1.1707 Y 0.8894 Z -1.0000 I 0.5113 J 1.7681
G02 X 0.7460 Y 1.4346 Z -1.0000 I 0.9301 J 1.1626
G02 X 0.5857 Y 2.1730 Z -1.0000 I 1.6201 J 0.7384
G01 X 1.6281 Y 2.1730 Z -1.0000
G03 X 1.7132 Y 1.8304 Z -1.0000 I 1.6559 J 0.2295
G03 X 1.8231 Y 1.6376 Z -1.0000 I 0.6208 J 0.2261
G03 X 2.1374 Y 1.4175 Z -1.0000 I 0.5539 J 0.4565
G03 X 2.7344 Y 1.3149 Z -1.0000 I 0.5969 J 1.6859
G01 X 2.7344 Y 1.3149 Z -1.0000
G00 Z 5.0000

(End cutting path id: text123930)


(Start cutting path id: text123930)
(Change tool to Default tool)

G00 Z 5.0000
G00 X 8.4359 Y 2.5347

G01 Z -1.0000 F 100.0000(Penetrate)
G01 X 7.7835 Y 4.5912 Z -1.0000 F 3500.0000
G01 X 7.1098 Y 2.5347 Z -1.0000
G01 X 8.4359 Y 2.5347 Z -1.0000
G00 Z 5.0000

(End cutting path id: text123930)


(Start cutting path id: text123930)
(Change tool to Default tool)

G00 Z 5.0000
G00 X 8.7409 Y 1.6341

G01 Z -1.0000 F 100.0000(Penetrate)
G01 X 6.8155 Y 1.6341 Z -1.0000 F 3500.0000
G01 X 6.4539 Y 0.5597 Z -1.0000
G01 X 5.3121 Y 0.5597 Z -1.0000
G01 X 7.1772 Y 5.7861 Z -1.0000
G01 X 8.4111 Y 5.7861 Z -1.0000
G01 X 10.2620 Y 0.5597 Z -1.0000
G01 X 9.0777 Y 0.5597 Z -1.0000
G01 X 8.7409 Y 1.6341 Z -1.0000
G00 Z 5.0000

(End cutting path id: text123930)


(Start cutting path id: text123930)
(Change tool to Default tool)

G00 Z 5.0000
G00 X 15.1516 Y 0.5597

G01 Z -1.0000 F 100.0000(Penetrate)
G01 X 14.0595 Y 0.5597 Z -1.0000 F 3500.0000
G01 X 11.9249 Y 4.2721 Z -1.0000
G01 X 11.9249 Y 0.5597 Z -1.0000
G01 X 10.9073 Y 0.5597 Z -1.0000
G01 X 10.9073 Y 5.7861 Z -1.0000
G01 X 12.0526 Y 5.7861 Z -1.0000
G01 X 14.1339 Y 2.1375 Z -1.0000
G01 X 14.1339 Y 5.7861 Z -1.0000
G01 X 15.1516 Y 5.7861 Z -1.0000
G01 X 15.1516 Y 0.5597 Z -1.0000
G00 Z 5.0000

(End cutting path id: text123930)


(Start cutting path id: text123930)
(Change tool to Default tool)

G00 Z 5.0000
G00 X 18.4207 Y 0.5597

G01 Z -1.0000 F 100.0000(Penetrate)
G01 X 16.1692 Y 0.5597 Z -1.0000 F 3500.0000
G01 X 16.1692 Y 5.7861 Z -1.0000
G01 X 18.4207 Y 5.7861 Z -1.0000
G02 X 18.9014 Y 5.7490 Z -1.0000 I -0.0565 J -3.8647
G02 X 19.2292 Y 5.6726 Z -1.0000 I -0.2616 J -1.8642
G02 X 19.7228 Y 5.4162 Z -1.0000 I -0.5416 J -1.6460
G02 X 20.1191 Y 5.0096 Z -1.0000 I -1.0786 J -1.4477
G02 X 20.3494 Y 4.6008 Z -1.0000 I -1.9718 J -1.3803
G02 X 20.4914 Y 4.1657 Z -1.0000 I -2.0960 J -0.9247
G02 X 20.5673 Y 3.7093 Z -1.0000 I -4.4722 J -0.9783
G02 X 20.5907 Y 3.3005 Z -1.0000 I -3.5622 J -0.4088
G02 X 20.4726 Y 2.2898 Z -1.0000 I -4.3838 J -0.0000
G02 X 20.1723 Y 1.5348 Z -1.0000 I -2.7197 J 0.6444
G02 X 19.4512 Y 0.8272 Z -1.0000 I -1.6492 J 0.9595
G02 X 18.4207 Y 0.5597 Z -1.0000 I -1.0304 J 1.8510
G01 X 18.4207 Y 0.5597 Z -1.0000
G00 Z 5.0000

(End cutting path id: text123930)


(Start cutting path id: text123930)
(Change tool to Default tool)

G00 Z 5.0000
G00 X 19.2327 Y 4.4529

G01 Z -1.0000 F 100.0000(Penetrate)
G03 X 18.9032 Y 4.7420 Z -1.0000 I -0.6061 J -0.3586 F 3500.0000
G03 X 18.2363 Y 4.8784 Z -1.0000 I -0.6668 J -1.5614
G01 X 17.2294 Y 4.8784 Z -1.0000
G01 X 17.2294 Y 1.4674 Z -1.0000
G01 X 18.2363 Y 1.4674 Z -1.0000
G03 X 18.8724 Y 1.6696 Z -1.0000 I -0.0000 J 1.1016
G03 X 19.3143 Y 2.2297 Z -1.0000 I -0.7267 J 1.0276
G03 X 19.4337 Y 2.6572 Z -1.0000 I -1.9365 J 0.7713
G03 X 19.4809 Y 3.2261 Z -1.0000 I -3.4012 J 0.5689
G03 X 19.4031 Y 4.0030 Z -1.0000 I -3.9179 J -0.0000
G03 X 19.2327 Y 4.4529 Z -1.0000 I -1.4580 J -0.2950
G01 X 19.2327 Y 4.4529 Z -1.0000
G00 Z 5.0000

(End cutting path id: text123930)


(Start cutting path id: text123930)
(Change tool to Default tool)

G00 Z 5.0000
G00 X 26.4979 Y 5.7861

G01 Z -1.0000 F 100.0000(Penetrate)
G01 X 27.6077 Y 5.7861 Z -1.0000 F 3500.0000
G01 X 26.1362 Y 0.5597 Z -1.0000
G01 X 25.0938 Y 0.5597 Z -1.0000
G01 X 24.4627 Y 3.6161 Z -1.0000
G01 X 24.2783 Y 4.6267 Z -1.0000
G01 X 24.0939 Y 3.6161 Z -1.0000
G01 X 23.4628 Y 0.5597 Z -1.0000
G01 X 22.4487 Y 0.5597 Z -1.0000
G01 X 20.9666 Y 5.7861 Z -1.0000
G01 X 22.1260 Y 5.7861 Z -1.0000
G01 X 22.8174 Y 2.7935 Z -1.0000
G01 X 22.9664 Y 1.9603 Z -1.0000
G01 X 23.1188 Y 2.7758 Z -1.0000
G01 X 23.7074 Y 5.7861 Z -1.0000
G01 X 24.8598 Y 5.7861 Z -1.0000
G01 X 25.4803 Y 2.7935 Z -1.0000
G01 X 25.6398 Y 1.9603 Z -1.0000
G01 X 25.7994 Y 2.7616 Z -1.0000
G01 X 26.4979 Y 5.7861 Z -1.0000
G00 Z 5.0000

(End cutting path id: text123930)


(Start cutting path id: text123930)
(Change tool to Default tool)

G00 Z 5.0000
G00 X 28.1821 Y 5.7861

G01 Z -1.0000 F 100.0000(Penetrate)
G01 X 29.2671 Y 5.7861 Z -1.0000 F 3500.0000
G01 X 29.2671 Y 0.5597 Z -1.0000
G01 X 28.1821 Y 0.5597 Z -1.0000
G01 X 28.1821 Y 5.7861 Z -1.0000
G00 Z 5.0000

(End cutting path id: text123930)


(Start cutting path id: text123930)
(Change tool to Default tool)

G00 Z 5.0000
G00 X 33.9723 Y 0.9497

G01 Z -1.0000 F 100.0000(Penetrate)
G02 X 33.3297 Y 0.5625 Z -1.0000 I -1.2827 J 1.4016 F 3500.0000
G02 X 32.4760 Y 0.4143 Z -1.0000 I -0.8537 J 2.3858
G02 X 31.4396 Y 0.6176 Z -1.0000 I -0.0000 J 2.7437
G02 X 30.7032 Y 1.1376 Z -1.0000 I 0.7551 J 1.8506
G02 X 30.2464 Y 1.9361 Z -1.0000 I 1.6782 J 1.4899
G02 X 30.0578 Y 3.1304 Z -1.0000 I 3.6876 J 1.1942
G02 X 30.2741 Y 4.4100 Z -1.0000 I 3.8946 J -0.0000
G02 X 30.7918 Y 5.2401 Z -1.0000 I 2.0898 J -0.7271
G02 X 31.5030 Y 5.7107 Z -1.0000 I 1.4797 J -1.4635
G02 X 32.4157 Y 5.8854 Z -1.0000 I 0.9128 J -2.2970
G02 X 33.6030 Y 5.6313 Z -1.0000 I -0.0000 J -2.9011
G02 X 34.3446 Y 5.0202 Z -1.0000 I -0.7437 J -1.6581
G02 X 34.6106 Y 4.5103 Z -1.0000 I -1.8869 J -1.3084
G02 X 34.7063 Y 4.0452 Z -1.0000 I -1.4679 J -0.5445
G01 X 33.6142 Y 4.0452 Z -1.0000
G03 X 33.4779 Y 4.4048 Z -1.0000 I -2.1452 J -0.6071
G03 X 33.3412 Y 4.6125 Z -1.0000 I -0.8395 J -0.4040
G03 X 32.9978 Y 4.8525 Z -1.0000 I -0.6579 J -0.5756
G03 X 32.4583 Y 4.9529 Z -1.0000 I -0.5395 J -1.3993
G03 X 31.9285 Y 4.8249 Z -1.0000 I 0.0000 J -1.1602
G03 X 31.5187 Y 4.4706 Z -1.0000 I 0.5234 J -1.0199
G03 X 31.2801 Y 3.9580 Z -1.0000 I 1.2316 J -0.8850
G03 X 31.1747 Y 3.1126 Z -1.0000 I 3.3381 J -0.8454
G03 X 31.2877 Y 2.2738 Z -1.0000 I 3.1723 J 0.0000
G03 X 31.5364 Y 1.7936 Z -1.0000 I 1.2487 J 0.3424
G03 X 31.9546 Y 1.4710 Z -1.0000 I 0.9420 J 0.7888
G03 X 32.4618 Y 1.3575 Z -1.0000 I 0.5072 J 1.0763
G03 X 32.9847 Y 1.4649 Z -1.0000 I 0.0000 J 1.3258
G03 X 33.3376 Y 1.7333 Z -1.0000 I -0.3608 J 0.8408
G03 X 33.4738 Y 1.9512 Z -1.0000 I -0.7600 J 0.6266
G03 X 33.6142 Y 2.3397 Z -1.0000 I -2.3160 J 1.0564
G01 X 34.6957 Y 2.3397 Z -1.0000
G02 X 34.4323 Y 1.5508 Z -1.0000 I -2.6123 J 0.4336
G02 X 33.9723 Y 0.9497 Z -1.0000 I -1.9458 J 1.0126
G01 X 33.9723 Y 0.9497 Z -1.0000
G00 Z 5.0000

(End cutting path id: text123930)


(Start cutting path id: text123930)
(Change tool to Default tool)

G00 Z 5.0000
G00 X 38.6456 Y 0.5597

G01 Z -1.0000 F 100.0000(Penetrate)
G01 X 38.6456 Y 2.8928 Z -1.0000 F 3500.0000
G01 X 36.6033 Y 2.8928 Z -1.0000
G01 X 36.6033 Y 0.5597 Z -1.0000
G01 X 35.5218 Y 0.5597 Z -1.0000
G01 X 35.5218 Y 5.7861 Z -1.0000
G01 X 36.6033 Y 5.7861 Z -1.0000
G01 X 36.6033 Y 3.7934 Z -1.0000
G01 X 38.6456 Y 3.7934 Z -1.0000
G01 X 38.6456 Y 5.7861 Z -1.0000
G01 X 39.7306 Y 5.7861 Z -1.0000
G01 X 39.7306 Y 0.5597 Z -1.0000
G01 X 38.6456 Y 0.5597 Z -1.0000
G00 Z 5.0000

(End cutting path id: text123930)



(Footer)
M5
G00 X0.0000 Y0.0000
M2
(Using default footer. To add your own footer create file "footer" in the output dir.)
(end)
%