%
(Header)
(Generated by gcodetools from Inkscape.)
(Using default header. To add your own header create file "header" in the output dir.)
M3
(Header end.)
G21 (All units in mm)

(Start cutting path id: text134396)
(Change tool to Default tool)

G00 Z 5.0000
G00 X 2.7347 Y 1.2444

G01 Z -1.0000 F 100.0000(Penetrate)
G03 X 3.1408 Y 1.2719 Z -1.0000 I 0.0000 J 3.0226 F 3500.0000
G03 X 3.4018 Y 1.3349 Z -1.0000 I -0.1767 J 1.3032
G03 X 3.7604 Y 1.5983 Z -1.0000 I -0.2604 J 0.7303
G03 X 3.8880 Y 1.9794 Z -1.0000 I -0.5052 J 0.3811
G03 X 3.8248 Y 2.2195 Z -1.0000 I -0.4872 J -0.0000
G03 X 3.6468 Y 2.4053 Z -1.0000 I -0.4552 J -0.2578
G03 X 3.3942 Y 2.5239 Z -1.0000 I -0.6717 J -1.1024
G03 X 2.8892 Y 2.6654 Z -1.0000 I -1.4801 J -4.3117
G01 X 2.3013 Y 2.7973 Z -1.0000
G02 X 1.4558 Y 3.0422 Z -1.0000 I 1.6309 J 7.2136
G02 X 1.1027 Y 3.2232 Z -1.0000 I 0.5035 J 1.4169
G02 X 0.7037 Y 3.6934 Z -1.0000 I 0.6607 J 0.9652
G02 X 0.5411 Y 4.4256 Z -1.0000 I 1.5675 J 0.7322
G02 X 0.6840 Y 5.1086 Z -1.0000 I 1.7036 J 0.0000
G02 X 1.0838 Y 5.6656 Z -1.0000 I 1.5062 J -0.6593
G02 X 1.6847 Y 6.0090 Z -1.0000 I 1.0723 J -1.1787
G02 X 2.6782 Y 6.1594 Z -1.0000 I 0.9934 J -3.2078
G02 X 3.5136 Y 6.0319 Z -1.0000 I -0.0000 J -2.8022
G02 X 4.1745 Y 5.6920 Z -1.0000 I -0.6461 J -2.0685
G02 X 4.6294 Y 5.1410 Z -1.0000 I -0.8982 J -1.2048
G02 X 4.8266 Y 4.3426 Z -1.0000 I -1.7922 J -0.8661
G01 X 3.7109 Y 4.3426 Z -1.0000
G03 X 3.5747 Y 4.7750 Z -1.0000 I -0.9320 J -0.0561
G03 X 3.2737 Y 5.0550 Z -1.0000 I -0.6544 J -0.4017
G03 X 2.9926 Y 5.1542 Z -1.0000 I -0.5046 J -0.9819
G03 X 2.5990 Y 5.1945 Z -1.0000 I -0.3936 J -1.9040
G03 X 2.1670 Y 5.1407 Z -1.0000 I 0.0000 J -1.7640
G03 X 1.8829 Y 5.0135 Z -1.0000 I 0.2208 J -0.8739
G03 X 1.6865 Y 4.7948 Z -1.0000 I 0.3400 J -0.5030
G03 X 1.6153 Y 4.5085 Z -1.0000 I 0.5404 J -0.2863
G03 X 1.6856 Y 4.2521 Z -1.0000 I 0.5026 J 0.0000
G03 X 1.8791 Y 4.0637 Z -1.0000 I 0.4457 J 0.2644
G03 X 2.0566 Y 3.9854 Z -1.0000 I 0.4495 J 0.7779
G03 X 2.6028 Y 3.8338 Z -1.0000 I 2.3237 J 7.3138
G01 X 3.5601 Y 3.6039 Z -1.0000
G02 X 4.1659 Y 3.4043 Z -1.0000 I -0.8936 J -3.7309
G02 X 4.5099 Y 3.2006 Z -1.0000 I -0.5892 J -1.3877
G02 X 4.8662 Y 2.7401 Z -1.0000 I -0.7425 J -0.9424
G02 X 5.0075 Y 2.0661 Z -1.0000 I -1.5368 J -0.6740
G02 X 4.8556 Y 1.3742 Z -1.0000 I -1.6517 J -0.0000
G02 X 4.4233 Y 0.7997 Z -1.0000 I -1.5453 J 0.7128
G02 X 3.7869 Y 0.4486 Z -1.0000 I -1.1494 J 1.3309
G02 X 2.7799 Y 0.2984 Z -1.0000 I -1.0070 J 3.3012
G02 X 1.7455 Y 0.4450 Z -1.0000 I -0.0000 J 3.7235
G02 X 1.0725 Y 0.7922 Z -1.0000 I 0.5435 J 1.8794
G02 X 0.6211 Y 1.3716 Z -1.0000 I 0.9887 J 1.2359
G02 X 0.4506 Y 2.1566 Z -1.0000 I 1.7222 J 0.7850
G01 X 1.5587 Y 2.1566 Z -1.0000
G03 X 1.6492 Y 1.7924 Z -1.0000 I 1.7602 J 0.2440
G03 X 1.7660 Y 1.5874 Z -1.0000 I 0.6599 J 0.2403
G03 X 2.1002 Y 1.3535 Z -1.0000 I 0.5888 J 0.4853
G03 X 2.7347 Y 1.2444 Z -1.0000 I 0.6345 J 1.7921
G01 X 2.7347 Y 1.2444 Z -1.0000
G00 Z 5.0000

(End cutting path id: text134396)


(Start cutting path id: text134396)
(Change tool to Default tool)

G00 Z 5.0000
G00 X 9.7867 Y 0.8562

G01 Z -1.0000 F 100.0000(Penetrate)
G02 X 9.1036 Y 0.4446 Z -1.0000 I -1.3635 J 1.4899 F 3500.0000
G02 X 8.1961 Y 0.2871 Z -1.0000 I -0.9075 J 2.5361
G02 X 7.0944 Y 0.5032 Z -1.0000 I 0.0000 J 2.9165
G02 X 6.3116 Y 1.0560 Z -1.0000 I 0.8026 J 1.9672
G02 X 5.8260 Y 1.9048 Z -1.0000 I 1.7839 J 1.5837
G02 X 5.6256 Y 3.1742 Z -1.0000 I 3.9199 J 1.2694
G02 X 5.8555 Y 4.5345 Z -1.0000 I 4.1399 J 0.0000
G02 X 6.4058 Y 5.4168 Z -1.0000 I 2.2215 J -0.7729
G02 X 7.1618 Y 5.9171 Z -1.0000 I 1.5729 J -1.5557
G02 X 8.1320 Y 6.1028 Z -1.0000 I 0.9703 J -2.4417
G02 X 9.3941 Y 5.8327 Z -1.0000 I -0.0000 J -3.0838
G02 X 10.1824 Y 5.1832 Z -1.0000 I -0.7906 J -1.7626
G02 X 10.4651 Y 4.6411 Z -1.0000 I -2.0058 J -1.3909
G02 X 10.5669 Y 4.1467 Z -1.0000 I -1.5604 J -0.5788
G01 X 9.4060 Y 4.1467 Z -1.0000
G03 X 9.2611 Y 4.5290 Z -1.0000 I -2.2804 J -0.6454
G03 X 9.1158 Y 4.7497 Z -1.0000 I -0.8924 J -0.4295
G03 X 8.7508 Y 5.0048 Z -1.0000 I -0.6993 J -0.6119
G03 X 8.1773 Y 5.1115 Z -1.0000 I -0.5735 J -1.4875
G03 X 7.6142 Y 4.9755 Z -1.0000 I -0.0000 J -1.2333
G03 X 7.1785 Y 4.5989 Z -1.0000 I 0.5564 J -1.0841
G03 X 6.9249 Y 4.0540 Z -1.0000 I 1.3092 J -0.9407
G03 X 6.8129 Y 3.1554 Z -1.0000 I 3.5483 J -0.8987
G03 X 6.9329 Y 2.2637 Z -1.0000 I 3.3722 J -0.0000
G03 X 7.1973 Y 1.7533 Z -1.0000 I 1.3273 J 0.3639
G03 X 7.6419 Y 1.4104 Z -1.0000 I 1.0013 J 0.8385
G03 X 8.1810 Y 1.2897 Z -1.0000 I 0.5392 J 1.1441
G03 X 8.7368 Y 1.4039 Z -1.0000 I -0.0000 J 1.4093
G03 X 9.1120 Y 1.6892 Z -1.0000 I -0.3835 J 0.8937
G03 X 9.2568 Y 1.9208 Z -1.0000 I -0.8078 J 0.6661
G03 X 9.4060 Y 2.3337 Z -1.0000 I -2.4619 J 1.1230
G01 X 10.5556 Y 2.3337 Z -1.0000
G02 X 10.2757 Y 1.4952 Z -1.0000 I -2.7769 J 0.4609
G02 X 9.7867 Y 0.8562 Z -1.0000 I -2.0684 J 1.0764
G01 X 9.7867 Y 0.8562 Z -1.0000
G00 Z 5.0000

(End cutting path id: text134396)


(Start cutting path id: text134396)
(Change tool to Default tool)

G00 Z 5.0000
G00 X 11.3509 Y 5.9973

G01 Z -1.0000 F 100.0000(Penetrate)
G01 X 12.5042 Y 5.9973 Z -1.0000 F 3500.0000
G01 X 12.5042 Y 0.4416 Z -1.0000
G01 X 11.3509 Y 0.4416 Z -1.0000
G01 X 11.3509 Y 5.9973 Z -1.0000
G00 Z 5.0000

(End cutting path id: text134396)


(Start cutting path id: text134396)
(Change tool to Default tool)

G00 Z 5.0000
G00 X 15.6024 Y 1.2444

G01 Z -1.0000 F 100.0000(Penetrate)
G03 X 16.0085 Y 1.2719 Z -1.0000 I -0.0000 J 3.0226 F 3500.0000
G03 X 16.2695 Y 1.3349 Z -1.0000 I -0.1767 J 1.3032
G03 X 16.6281 Y 1.5983 Z -1.0000 I -0.2604 J 0.7303
G03 X 16.7557 Y 1.9794 Z -1.0000 I -0.5052 J 0.3811
G03 X 16.6925 Y 2.2195 Z -1.0000 I -0.4872 J -0.0000
G03 X 16.5145 Y 2.4053 Z -1.0000 I -0.4553 J -0.2578
G03 X 16.2619 Y 2.5239 Z -1.0000 I -0.6717 J -1.1023
G03 X 15.7569 Y 2.6654 Z -1.0000 I -1.4801 J -4.3117
G01 X 15.1690 Y 2.7973 Z -1.0000
G02 X 14.3235 Y 3.0422 Z -1.0000 I 1.6309 J 7.2136
G02 X 13.9704 Y 3.2232 Z -1.0000 I 0.5035 J 1.4169
G02 X 13.5714 Y 3.6934 Z -1.0000 I 0.6607 J 0.9652
G02 X 13.4088 Y 4.4256 Z -1.0000 I 1.5675 J 0.7322
G02 X 13.5517 Y 5.1086 Z -1.0000 I 1.7036 J -0.0000
G02 X 13.9515 Y 5.6656 Z -1.0000 I 1.5062 J -0.6593
G02 X 14.5524 Y 6.0090 Z -1.0000 I 1.0723 J -1.1787
G02 X 15.5459 Y 6.1594 Z -1.0000 I 0.9934 J -3.2078
G02 X 16.3813 Y 6.0319 Z -1.0000 I 0.0000 J -2.8022
G02 X 17.0422 Y 5.6920 Z -1.0000 I -0.6461 J -2.0685
G02 X 17.4971 Y 5.1410 Z -1.0000 I -0.8982 J -1.2048
G02 X 17.6942 Y 4.3426 Z -1.0000 I -1.7922 J -0.8661
G01 X 16.5786 Y 4.3426 Z -1.0000
G03 X 16.4424 Y 4.7750 Z -1.0000 I -0.9320 J -0.0561
G03 X 16.1414 Y 5.0550 Z -1.0000 I -0.6544 J -0.4017
G03 X 15.8603 Y 5.1542 Z -1.0000 I -0.5046 J -0.9819
G03 X 15.4667 Y 5.1945 Z -1.0000 I -0.3936 J -1.9040
G03 X 15.0346 Y 5.1407 Z -1.0000 I 0.0000 J -1.7640
G03 X 14.7506 Y 5.0135 Z -1.0000 I 0.2208 J -0.8739
G03 X 14.5542 Y 4.7948 Z -1.0000 I 0.3400 J -0.5030
G03 X 14.4830 Y 4.5085 Z -1.0000 I 0.5404 J -0.2863
G03 X 14.5533 Y 4.2521 Z -1.0000 I 0.5026 J -0.0000
G03 X 14.7468 Y 4.0637 Z -1.0000 I 0.4457 J 0.2644
G03 X 14.9243 Y 3.9854 Z -1.0000 I 0.4495 J 0.7779
G03 X 15.4705 Y 3.8338 Z -1.0000 I 2.3237 J 7.3138
G01 X 16.4278 Y 3.6039 Z -1.0000
G02 X 17.0336 Y 3.4043 Z -1.0000 I -0.8936 J -3.7309
G02 X 17.3776 Y 3.2006 Z -1.0000 I -0.5892 J -1.3877
G02 X 17.7339 Y 2.7401 Z -1.0000 I -0.7425 J -0.9424
G02 X 17.8752 Y 2.0661 Z -1.0000 I -1.5368 J -0.6740
G02 X 17.7233 Y 1.3742 Z -1.0000 I -1.6517 J -0.0000
G02 X 17.2910 Y 0.7997 Z -1.0000 I -1.5453 J 0.7128
G02 X 16.6546 Y 0.4486 Z -1.0000 I -1.1494 J 1.3309
G02 X 15.6476 Y 0.2984 Z -1.0000 I -1.0070 J 3.3012
G02 X 14.6132 Y 0.4450 Z -1.0000 I 0.0000 J 3.7235
G02 X 13.9402 Y 0.7922 Z -1.0000 I 0.5435 J 1.8794
G02 X 13.4888 Y 1.3716 Z -1.0000 I 0.9887 J 1.2359
G02 X 13.3183 Y 2.1566 Z -1.0000 I 1.7222 J 0.7850
G01 X 14.4264 Y 2.1566 Z -1.0000
G03 X 14.5169 Y 1.7924 Z -1.0000 I 1.7602 J 0.2440
G03 X 14.6337 Y 1.5874 Z -1.0000 I 0.6599 J 0.2404
G03 X 14.9679 Y 1.3535 Z -1.0000 I 0.5888 J 0.4853
G03 X 15.6024 Y 1.2445 Z -1.0000 I 0.6345 J 1.7921
G01 X 15.6024 Y 1.2444 Z -1.0000
G00 Z 5.0000

(End cutting path id: text134396)


(Start cutting path id: text134396)
(Change tool to Default tool)

G00 Z 5.0000
G00 X 20.7510 Y 1.2444

G01 Z -1.0000 F 100.0000(Penetrate)
G03 X 21.1571 Y 1.2719 Z -1.0000 I -0.0000 J 3.0226 F 3500.0000
G03 X 21.4181 Y 1.3349 Z -1.0000 I -0.1767 J 1.3032
G03 X 21.7767 Y 1.5983 Z -1.0000 I -0.2604 J 0.7303
G03 X 21.9043 Y 1.9794 Z -1.0000 I -0.5052 J 0.3811
G03 X 21.8411 Y 2.2195 Z -1.0000 I -0.4872 J -0.0000
G03 X 21.6631 Y 2.4053 Z -1.0000 I -0.4552 J -0.2578
G03 X 21.4105 Y 2.5239 Z -1.0000 I -0.6717 J -1.1024
G03 X 20.9055 Y 2.6654 Z -1.0000 I -1.4801 J -4.3117
G01 X 20.3175 Y 2.7973 Z -1.0000
G02 X 19.4721 Y 3.0422 Z -1.0000 I 1.6309 J 7.2136
G02 X 19.1190 Y 3.2232 Z -1.0000 I 0.5035 J 1.4169
G02 X 18.7199 Y 3.6934 Z -1.0000 I 0.6607 J 0.9652
G02 X 18.5574 Y 4.4256 Z -1.0000 I 1.5675 J 0.7322
G02 X 18.7003 Y 5.1086 Z -1.0000 I 1.7036 J 0.0000
G02 X 19.1001 Y 5.6656 Z -1.0000 I 1.5062 J -0.6593
G02 X 19.7010 Y 6.0090 Z -1.0000 I 1.0723 J -1.1787
G02 X 20.6944 Y 6.1594 Z -1.0000 I 0.9934 J -3.2078
G02 X 21.5299 Y 6.0319 Z -1.0000 I 0.0000 J -2.8022
G02 X 22.1908 Y 5.6920 Z -1.0000 I -0.6461 J -2.0685
G02 X 22.6457 Y 5.1410 Z -1.0000 I -0.8982 J -1.2048
G02 X 22.8428 Y 4.3426 Z -1.0000 I -1.7922 J -0.8661
G01 X 21.7272 Y 4.3426 Z -1.0000
G03 X 21.5909 Y 4.7750 Z -1.0000 I -0.9320 J -0.0561
G03 X 21.2900 Y 5.0550 Z -1.0000 I -0.6544 J -0.4017
G03 X 21.0089 Y 5.1542 Z -1.0000 I -0.5046 J -0.9819
G03 X 20.6153 Y 5.1945 Z -1.0000 I -0.3936 J -1.9040
G03 X 20.1832 Y 5.1407 Z -1.0000 I -0.0000 J -1.7640
G03 X 19.8992 Y 5.0135 Z -1.0000 I 0.2208 J -0.8739
G03 X 19.7027 Y 4.7948 Z -1.0000 I 0.3400 J -0.5030
G03 X 19.6316 Y 4.5085 Z -1.0000 I 0.5404 J -0.2863
G03 X 19.7019 Y 4.2521 Z -1.0000 I 0.5026 J -0.0000
G03 X 19.8954 Y 4.0637 Z -1.0000 I 0.4457 J 0.2644
G03 X 20.0728 Y 3.9854 Z -1.0000 I 0.4495 J 0.7779
G03 X 20.6191 Y 3.8338 Z -1.0000 I 2.3237 J 7.3138
G01 X 21.5764 Y 3.6039 Z -1.0000
G02 X 22.1822 Y 3.4043 Z -1.0000 I -0.8936 J -3.7309
G02 X 22.5262 Y 3.2006 Z -1.0000 I -0.5892 J -1.3877
G02 X 22.8825 Y 2.7401 Z -1.0000 I -0.7425 J -0.9424
G02 X 23.0238 Y 2.0661 Z -1.0000 I -1.5368 J -0.6740
G02 X 22.8719 Y 1.3742 Z -1.0000 I -1.6517 J 0.0000
G02 X 22.4395 Y 0.7997 Z -1.0000 I -1.5453 J 0.7128
G02 X 21.8032 Y 0.4486 Z -1.0000 I -1.1494 J 1.3309
G02 X 20.7962 Y 0.2984 Z -1.0000 I -1.0070 J 3.3012
G02 X 19.7618 Y 0.4450 Z -1.0000 I -0.0000 J 3.7235
G02 X 19.0888 Y 0.7922 Z -1.0000 I 0.5435 J 1.8794
G02 X 18.6374 Y 1.3716 Z -1.0000 I 0.9887 J 1.2359
G02 X 18.4669 Y 2.1566 Z -1.0000 I 1.7222 J 0.7850
G01 X 19.5750 Y 2.1566 Z -1.0000
G03 X 19.6655 Y 1.7924 Z -1.0000 I 1.7602 J 0.2440
G03 X 19.7823 Y 1.5874 Z -1.0000 I 0.6599 J 0.2404
G03 X 20.1164 Y 1.3535 Z -1.0000 I 0.5888 J 0.4853
G03 X 20.7510 Y 1.2444 Z -1.0000 I 0.6345 J 1.7921
G01 X 20.7510 Y 1.2444 Z -1.0000
G00 Z 5.0000

(End cutting path id: text134396)


(Start cutting path id: text134396)
(Change tool to Default tool)

G00 Z 5.0000
G00 X 26.3406 Y 0.2871

G01 Z -1.0000 F 100.0000(Penetrate)
G02 X 25.2306 Y 0.4788 Z -1.0000 I 0.0000 J 3.3086 F 3500.0000
G02 X 24.5201 Y 0.9354 Z -1.0000 I 0.6240 J 1.7523
G02 X 23.9236 Y 1.8377 Z -1.0000 I 1.6187 J 1.7184
G02 X 23.6758 Y 3.2270 Z -1.0000 I 3.7710 J 1.3893
G02 X 23.9281 Y 4.6416 Z -1.0000 I 4.0920 J -0.0000
G02 X 24.5201 Y 5.5186 Z -1.0000 I 2.0818 J -0.7670
G02 X 25.2306 Y 5.9752 Z -1.0000 I 1.3345 J -1.2957
G02 X 26.3406 Y 6.1669 Z -1.0000 I 1.1100 J -3.1169
G02 X 27.4505 Y 5.9752 Z -1.0000 I 0.0000 J -3.3086
G02 X 28.1610 Y 5.5186 Z -1.0000 I -0.6240 J -1.7523
G02 X 28.7502 Y 4.6424 Z -1.0000 I -1.4927 J -1.6398
G02 X 29.0015 Y 3.2270 Z -1.0000 I -3.8590 J -1.4154
G02 X 28.7547 Y 1.8369 Z -1.0000 I -4.0368 J -0.0000
G02 X 28.1610 Y 0.9354 Z -1.0000 I -2.2156 J 0.8126
G02 X 27.4505 Y 0.4788 Z -1.0000 I -1.3345 J 1.2957
G02 X 26.3406 Y 0.2871 Z -1.0000 I -1.1100 J 3.1169
G01 X 26.3406 Y 0.2871 Z -1.0000
G00 Z 5.0000

(End cutting path id: text134396)


(Start cutting path id: text134396)
(Change tool to Default tool)

G00 Z 5.0000
G00 X 27.4374 Y 1.7797

G01 Z -1.0000 F 100.0000(Penetrate)
G03 X 27.7182 Y 2.3311 Z -1.0000 I -1.2253 J 0.9711 F 3500.0000
G03 X 27.8407 Y 3.2270 Z -1.0000 I -3.2150 J 0.8959
G03 X 27.7174 Y 4.1185 Z -1.0000 I -3.2848 J -0.0000
G03 X 27.4336 Y 4.6706 Z -1.0000 I -1.5040 J -0.4241
G03 X 26.9629 Y 5.0445 Z -1.0000 I -1.0237 J -0.8054
G03 X 26.3406 Y 5.1832 Z -1.0000 I -0.6224 J -1.3272
G03 X 25.7164 Y 5.0459 Z -1.0000 I 0.0000 J -1.4873
G03 X 25.2400 Y 4.6743 Z -1.0000 I 0.5579 J -1.2066
G03 X 24.9536 Y 4.1215 Z -1.0000 I 1.2111 J -0.9779
G03 X 24.8291 Y 3.2270 Z -1.0000 I 3.1513 J -0.8945
G03 X 24.9536 Y 2.3325 Z -1.0000 I 3.2758 J 0.0000
G03 X 25.2400 Y 1.7797 Z -1.0000 I 1.4975 J 0.4251
G03 X 25.7164 Y 1.4081 Z -1.0000 I 1.0343 J 0.8351
G03 X 26.3406 Y 1.2708 Z -1.0000 I 0.6241 J 1.3500
G03 X 26.9642 Y 1.4084 Z -1.0000 I -0.0000 J 1.4818
G03 X 27.4374 Y 1.7797 Z -1.0000 I -0.5531 J 1.1923
G01 X 27.4374 Y 1.7797 Z -1.0000
G00 Z 5.0000

(End cutting path id: text134396)


(Start cutting path id: text134396)
(Change tool to Default tool)

G00 Z 5.0000
G00 X 32.2467 Y 2.6202

G01 Z -1.0000 F 100.0000(Penetrate)
G01 X 31.0482 Y 2.6202 Z -1.0000 F 3500.0000
G01 X 31.0482 Y 0.4416 Z -1.0000
G01 X 29.9137 Y 0.4416 Z -1.0000
G01 X 29.9137 Y 5.9973 Z -1.0000
G01 X 32.6387 Y 5.9973 Z -1.0000
G02 X 33.2144 Y 5.9460 Z -1.0000 I -0.0806 J -4.1617
G02 X 33.5358 Y 5.8541 Z -1.0000 I -0.2194 J -1.3743
G02 X 33.8287 Y 5.6897 Z -1.0000 I -0.5564 J -1.3353
G02 X 34.0710 Y 5.4658 Z -1.0000 I -0.8189 J -1.1289
G02 X 34.2330 Y 5.2432 Z -1.0000 I -1.3182 J -1.1298
G02 X 34.3574 Y 4.9985 Z -1.0000 I -1.4715 J -0.9019
G02 X 34.4341 Y 4.7365 Z -1.0000 I -1.1936 J -0.4915
G02 X 34.4630 Y 4.4143 Z -1.0000 I -1.7836 J -0.3222
G02 X 34.4146 Y 4.0303 Z -1.0000 I -1.5479 J 0.0000
G02 X 34.2632 Y 3.6341 Z -1.0000 I -1.8019 J 0.4614
G02 X 34.0066 Y 3.3196 Z -1.0000 I -0.8991 J 0.4718
G02 X 33.6036 Y 3.0951 Z -1.0000 I -0.8299 J 1.0156
G02 X 33.9463 Y 2.8933 Z -1.0000 I -0.4960 J -1.2340
G02 X 34.1464 Y 2.6541 Z -1.0000 I -0.5158 J -0.6348
G02 X 34.2556 Y 2.3573 Z -1.0000 I -0.8209 J -0.4706
G02 X 34.3084 Y 1.7872 Z -1.0000 I -3.0496 J -0.5701
G01 X 34.3084 Y 1.4141 Z -1.0000
G03 X 34.3195 Y 1.0346 Z -1.0000 I 6.5100 J 0.0000
G03 X 34.3386 Y 0.8977 Z -1.0000 I 0.8616 J 0.0503
G03 X 34.4186 Y 0.7073 Z -1.0000 I 0.5342 J 0.1125
G03 X 34.5496 Y 0.5811 Z -1.0000 I 0.3530 J 0.2353
G01 X 34.5496 Y 0.4416 Z -1.0000
G01 X 33.2719 Y 0.4416 Z -1.0000
G02 X 33.2220 Y 0.6270 Z -1.0000 I 6.0796 J 1.7371
G02 X 33.1965 Y 0.7394 Z -1.0000 I 2.2082 J 0.5590
G02 X 33.1619 Y 0.9742 Z -1.0000 I 2.6136 J 0.5059
G02 X 33.1475 Y 1.2181 Z -1.0000 I 2.8067 J 0.2873
G01 X 33.1400 Y 1.7344 Z -1.0000
G03 X 33.0681 Y 2.2375 Z -1.0000 I -1.9923 J -0.0281
G03 X 32.9441 Y 2.4430 Z -1.0000 I -0.4287 J -0.1186
G03 X 32.7348 Y 2.5591 Z -1.0000 I -0.3247 J -0.3386
G03 X 32.2468 Y 2.6202 Z -1.0000 I -0.4881 J -1.9211
G01 X 32.2467 Y 2.6202 Z -1.0000
G00 Z 5.0000

(End cutting path id: text134396)


(Start cutting path id: text134396)
(Change tool to Default tool)

G00 Z 5.0000
G00 X 32.9516 Y 3.6303

G01 Z -1.0000 F 100.0000(Penetrate)
G03 X 33.1947 Y 3.8552 Z -1.0000 I -0.2198 J 0.4815 F 3500.0000
G03 X 33.2983 Y 4.2560 Z -1.0000 I -0.7231 J 0.4008
G03 X 33.1950 Y 4.6981 Z -1.0000 I -0.9976 J 0.0000
G03 X 32.9629 Y 4.9344 Z -1.0000 I -0.4758 J -0.2353
G03 X 32.7666 Y 5.0006 Z -1.0000 I -0.3116 J -0.5991
G03 X 32.3975 Y 5.0324 Z -1.0000 I -0.3691 J -2.1296
G01 X 31.0482 Y 5.0324 Z -1.0000
G01 X 31.0482 Y 3.5398 Z -1.0000
G01 X 32.3636 Y 3.5398 Z -1.0000
G03 X 32.7491 Y 3.5693 Z -1.0000 I -0.0000 J 2.5353
G03 X 32.9516 Y 3.6303 Z -1.0000 I -0.1153 J 0.7495
G01 X 32.9516 Y 3.6303 Z -1.0000
G00 Z 5.0000

(End cutting path id: text134396)


(Start cutting path id: text134396)
(Change tool to Default tool)

G00 Z 5.0000
G00 X 37.4782 Y 1.2444

G01 Z -1.0000 F 100.0000(Penetrate)
G03 X 37.8844 Y 1.2719 Z -1.0000 I 0.0000 J 3.0226 F 3500.0000
G03 X 38.1454 Y 1.3349 Z -1.0000 I -0.1767 J 1.3032
G03 X 38.5039 Y 1.5983 Z -1.0000 I -0.2604 J 0.7303
G03 X 38.6316 Y 1.9794 Z -1.0000 I -0.5052 J 0.3811
G03 X 38.5683 Y 2.2195 Z -1.0000 I -0.4872 J 0.0000
G03 X 38.3904 Y 2.4053 Z -1.0000 I -0.4552 J -0.2578
G03 X 38.1378 Y 2.5239 Z -1.0000 I -0.6717 J -1.1024
G03 X 37.6328 Y 2.6654 Z -1.0000 I -1.4801 J -4.3117
G01 X 37.0448 Y 2.7973 Z -1.0000
G02 X 36.1994 Y 3.0422 Z -1.0000 I 1.6309 J 7.2136
G02 X 35.8462 Y 3.2232 Z -1.0000 I 0.5035 J 1.4169
G02 X 35.4472 Y 3.6934 Z -1.0000 I 0.6607 J 0.9652
G02 X 35.2846 Y 4.4256 Z -1.0000 I 1.5675 J 0.7322
G02 X 35.4276 Y 5.1086 Z -1.0000 I 1.7036 J 0.0000
G02 X 35.8274 Y 5.6656 Z -1.0000 I 1.5062 J -0.6593
G02 X 36.4283 Y 6.0090 Z -1.0000 I 1.0723 J -1.1787
G02 X 37.4217 Y 6.1594 Z -1.0000 I 0.9934 J -3.2078
G02 X 38.2571 Y 6.0319 Z -1.0000 I -0.0000 J -2.8022
G02 X 38.9180 Y 5.6920 Z -1.0000 I -0.6461 J -2.0685
G02 X 39.3729 Y 5.1410 Z -1.0000 I -0.8982 J -1.2048
G02 X 39.5701 Y 4.3426 Z -1.0000 I -1.7922 J -0.8661
G01 X 38.4544 Y 4.3426 Z -1.0000
G03 X 38.3182 Y 4.7750 Z -1.0000 I -0.9320 J -0.0561
G03 X 38.0172 Y 5.0550 Z -1.0000 I -0.6544 J -0.4017
G03 X 37.7361 Y 5.1542 Z -1.0000 I -0.5046 J -0.9819
G03 X 37.3426 Y 5.1945 Z -1.0000 I -0.3936 J -1.9040
G03 X 36.9105 Y 5.1407 Z -1.0000 I 0.0000 J -1.7640
G03 X 36.6264 Y 5.0135 Z -1.0000 I 0.2208 J -0.8739
G03 X 36.4300 Y 4.7948 Z -1.0000 I 0.3400 J -0.5030
G03 X 36.3588 Y 4.5085 Z -1.0000 I 0.5404 J -0.2863
G03 X 36.4292 Y 4.2521 Z -1.0000 I 0.5026 J 0.0000
G03 X 36.6227 Y 4.0637 Z -1.0000 I 0.4457 J 0.2644
G03 X 36.8001 Y 3.9854 Z -1.0000 I 0.4495 J 0.7779
G03 X 37.3463 Y 3.8338 Z -1.0000 I 2.3237 J 7.3138
G01 X 38.3037 Y 3.6039 Z -1.0000
G02 X 38.9094 Y 3.4043 Z -1.0000 I -0.8936 J -3.7309
G02 X 39.2535 Y 3.2006 Z -1.0000 I -0.5892 J -1.3877
G02 X 39.6097 Y 2.7401 Z -1.0000 I -0.7425 J -0.9424
G02 X 39.7510 Y 2.0661 Z -1.0000 I -1.5368 J -0.6740
G02 X 39.5991 Y 1.3742 Z -1.0000 I -1.6517 J 0.0000
G02 X 39.1668 Y 0.7997 Z -1.0000 I -1.5453 J 0.7128
G02 X 38.5305 Y 0.4486 Z -1.0000 I -1.1494 J 1.3309
G02 X 37.5235 Y 0.2984 Z -1.0000 I -1.0070 J 3.3012
G02 X 36.4891 Y 0.4450 Z -1.0000 I 0.0000 J 3.7235
G02 X 35.8161 Y 0.7922 Z -1.0000 I 0.5435 J 1.8794
G02 X 35.3646 Y 1.3716 Z -1.0000 I 0.9887 J 1.2359
G02 X 35.1942 Y 2.1566 Z -1.0000 I 1.7222 J 0.7850
G01 X 36.3023 Y 2.1566 Z -1.0000
G03 X 36.3928 Y 1.7924 Z -1.0000 I 1.7602 J 0.2440
G03 X 36.5096 Y 1.5874 Z -1.0000 I 0.6599 J 0.2404
G03 X 36.8437 Y 1.3535 Z -1.0000 I 0.5888 J 0.4853
G03 X 37.4782 Y 1.2445 Z -1.0000 I 0.6345 J 1.7921
G01 X 37.4782 Y 1.2444 Z -1.0000
G00 Z 5.0000

(End cutting path id: text134396)



(Footer)
M5
G00 X0.0000 Y0.0000
M2
(Using default footer. To add your own footer create file "footer" in the output dir.)
(end)
%