%
(Header)
(Generated by gcodetools from Inkscape.)
(Using default header. To add your own header create file "header" in the output dir.)
M3
(Header end.)
G21 (All units in mm)

(Start cutting path id: text136436)
(Change tool to Default tool)

G00 Z 5.0000
G00 X 4.3022 Y 31.9567

G01 Z -1.0000 F 100.0000(Penetrate)
G03 X 4.9087 Y 31.9976 Z -1.0000 I -0.0000 J 4.5138 F 3500.0000
G03 X 5.2984 Y 32.0918 Z -1.0000 I -0.2639 J 1.9461
G03 X 5.8339 Y 32.4851 Z -1.0000 I -0.3889 J 1.0906
G03 X 6.0245 Y 33.0543 Z -1.0000 I -0.7545 J 0.5692
G03 X 5.9300 Y 33.4128 Z -1.0000 I -0.7275 J -0.0000
G03 X 5.6643 Y 33.6903 Z -1.0000 I -0.6798 J -0.3850
G03 X 5.2870 Y 33.8674 Z -1.0000 I -1.0031 J -1.6461
G03 X 4.5329 Y 34.0786 Z -1.0000 I -2.2103 J -6.4386
G01 X 3.6549 Y 34.2756 Z -1.0000
G02 X 2.3924 Y 34.6413 Z -1.0000 I 2.4354 J 10.7722
G02 X 1.8650 Y 34.9117 Z -1.0000 I 0.7519 J 2.1159
G02 X 1.2692 Y 35.6138 Z -1.0000 I 0.9867 J 1.4413
G02 X 1.0264 Y 36.7071 Z -1.0000 I 2.3408 J 1.0934
G02 X 1.2399 Y 37.7272 Z -1.0000 I 2.5440 J 0.0000
G02 X 1.8369 Y 38.5589 Z -1.0000 I 2.2493 J -0.9845
G02 X 2.7342 Y 39.0718 Z -1.0000 I 1.6013 J -1.7602
G02 X 4.2177 Y 39.2962 Z -1.0000 I 1.4835 J -4.7903
G02 X 5.4653 Y 39.1059 Z -1.0000 I -0.0000 J -4.1846
G02 X 6.4522 Y 38.5983 Z -1.0000 I -0.9648 J -3.0889
G02 X 7.1316 Y 37.7755 Z -1.0000 I -1.3412 J -1.7992
G02 X 7.4260 Y 36.5833 Z -1.0000 I -2.6764 J -1.2933
G01 X 5.7599 Y 36.5833 Z -1.0000
G03 X 5.5565 Y 37.2289 Z -1.0000 I -1.3918 J -0.0837
G03 X 5.1070 Y 37.6471 Z -1.0000 I -0.9773 J -0.5998
G03 X 4.6872 Y 37.7952 Z -1.0000 I -0.7535 J -1.4663
G03 X 4.0995 Y 37.8554 Z -1.0000 I -0.5877 J -2.8432
G03 X 3.4543 Y 37.7751 Z -1.0000 I -0.0000 J -2.6342
G03 X 3.0301 Y 37.5852 Z -1.0000 I 0.3297 J -1.3051
G03 X 2.7368 Y 37.2586 Z -1.0000 I 0.5078 J -0.7511
G03 X 2.6305 Y 36.8310 Z -1.0000 I 0.8070 J -0.4276
G03 X 2.7355 Y 36.4480 Z -1.0000 I 0.7505 J 0.0000
G03 X 3.0245 Y 36.1668 Z -1.0000 I 0.6656 J 0.3949
G03 X 3.2895 Y 36.0498 Z -1.0000 I 0.6712 J 1.1617
G03 X 4.1052 Y 35.8235 Z -1.0000 I 3.4702 J 10.9227
G01 X 5.5348 Y 35.4801 Z -1.0000
G02 X 6.4394 Y 35.1821 Z -1.0000 I -1.3345 J -5.5714
G02 X 6.9532 Y 34.8779 Z -1.0000 I -0.8799 J -2.0722
G02 X 7.4851 Y 34.1902 Z -1.0000 I -1.1087 J -1.4072
G02 X 7.6961 Y 33.1837 Z -1.0000 I -2.2950 J -1.0064
G02 X 7.4693 Y 32.1505 Z -1.0000 I -2.4666 J -0.0000
G02 X 6.8237 Y 31.2926 Z -1.0000 I -2.3076 J 1.0645
G02 X 5.8735 Y 30.7682 Z -1.0000 I -1.7164 J 1.9874
G02 X 4.3697 Y 30.5440 Z -1.0000 I -1.5038 J 4.9297
G02 X 2.8250 Y 30.7628 Z -1.0000 I -0.0000 J 5.5604
G02 X 1.8200 Y 31.2813 Z -1.0000 I 0.8116 J 2.8066
G02 X 1.1459 Y 32.1466 Z -1.0000 I 1.4764 J 1.8455
G02 X 0.8913 Y 33.3188 Z -1.0000 I 2.5717 J 1.1722
G01 X 2.5461 Y 33.3188 Z -1.0000
G03 X 2.6812 Y 32.7750 Z -1.0000 I 2.6285 J 0.3643
G03 X 2.8556 Y 32.4689 Z -1.0000 I 0.9854 J 0.3589
G03 X 3.3546 Y 32.1195 Z -1.0000 I 0.8792 J 0.7246
G03 X 4.3022 Y 31.9567 Z -1.0000 I 0.9476 J 2.6761
G01 X 4.3022 Y 31.9567 Z -1.0000
G00 Z 5.0000

(End cutting path id: text136436)


(Start cutting path id: text136436)
(Change tool to Default tool)

G00 Z 5.0000
G00 X 13.9268 Y 30.7579

G01 Z -1.0000 F 100.0000(Penetrate)
G01 X 13.9268 Y 34.4614 Z -1.0000 F 3500.0000
G01 X 10.6848 Y 34.4614 Z -1.0000
G01 X 10.6848 Y 30.7579 Z -1.0000
G01 X 8.9682 Y 30.7579 Z -1.0000
G01 X 8.9682 Y 39.0542 Z -1.0000
G01 X 10.6848 Y 39.0542 Z -1.0000
G01 X 10.6848 Y 35.8910 Z -1.0000
G01 X 13.9268 Y 35.8910 Z -1.0000
G01 X 13.9268 Y 39.0542 Z -1.0000
G01 X 15.6492 Y 39.0542 Z -1.0000
G01 X 15.6492 Y 30.7579 Z -1.0000
G01 X 13.9268 Y 30.7579 Z -1.0000
G00 Z 5.0000

(End cutting path id: text136436)


(Start cutting path id: text136436)
(Change tool to Default tool)

G00 Z 5.0000
G00 X 23.0787 Y 34.3826

G01 Z -1.0000 F 100.0000(Penetrate)
G01 X 19.0487 Y 34.3826 Z -1.0000 F 3500.0000
G01 X 19.0487 Y 32.2494 Z -1.0000
G01 X 23.6416 Y 32.2494 Z -1.0000
G01 X 23.6416 Y 30.7579 Z -1.0000
G01 X 17.3546 Y 30.7579 Z -1.0000
G01 X 17.3546 Y 39.0542 Z -1.0000
G01 X 23.4389 Y 39.0542 Z -1.0000
G01 X 23.4389 Y 37.5852 Z -1.0000
G01 X 19.0487 Y 37.5852 Z -1.0000
G01 X 19.0487 Y 35.8235 Z -1.0000
G01 X 23.0787 Y 35.8235 Z -1.0000
G01 X 23.0787 Y 34.3826 Z -1.0000
G00 Z 5.0000

(End cutting path id: text136436)


(Start cutting path id: text136436)
(Change tool to Default tool)

G00 Z 5.0000
G00 X 30.7672 Y 34.3826

G01 Z -1.0000 F 100.0000(Penetrate)
G01 X 26.7372 Y 34.3826 Z -1.0000 F 3500.0000
G01 X 26.7372 Y 32.2494 Z -1.0000
G01 X 31.3301 Y 32.2494 Z -1.0000
G01 X 31.3301 Y 30.7579 Z -1.0000
G01 X 25.0431 Y 30.7579 Z -1.0000
G01 X 25.0431 Y 39.0542 Z -1.0000
G01 X 31.1274 Y 39.0542 Z -1.0000
G01 X 31.1274 Y 37.5852 Z -1.0000
G01 X 26.7372 Y 37.5852 Z -1.0000
G01 X 26.7372 Y 35.8235 Z -1.0000
G01 X 30.7672 Y 35.8235 Z -1.0000
G01 X 30.7672 Y 34.3826 Z -1.0000
G00 Z 5.0000

(End cutting path id: text136436)


(Start cutting path id: text136436)
(Change tool to Default tool)

G00 Z 5.0000
G00 X 36.2043 Y 33.7409

G01 Z -1.0000 F 100.0000(Penetrate)
G01 X 34.4426 Y 33.7409 Z -1.0000 F 3500.0000
G01 X 34.4426 Y 30.7579 Z -1.0000
G01 X 32.7203 Y 30.7579 Z -1.0000
G01 X 32.7203 Y 39.0542 Z -1.0000
G01 X 36.3338 Y 39.0542 Z -1.0000
G02 X 37.5143 Y 38.8688 Z -1.0000 I 0.0000 J -3.8513
G02 X 38.3262 Y 38.4126 Z -1.0000 I -0.7171 J -2.2267
G02 X 38.8445 Y 37.6681 Z -1.0000 I -1.1969 J -1.3858
G02 X 39.0692 Y 36.4257 Z -1.0000 I -3.3224 J -1.2424
G02 X 38.8337 Y 35.0683 Z -1.0000 I -4.0301 J 0.0000
G02 X 38.3262 Y 34.3488 Z -1.0000 I -1.5497 J 0.5544
G02 X 37.5175 Y 33.9253 Z -1.0000 I -1.4312 J 1.7493
G02 X 36.2043 Y 33.7409 Z -1.0000 I -1.3132 J 4.5839
G01 X 36.2043 Y 33.7409 Z -1.0000
G00 Z 5.0000

(End cutting path id: text136436)


(Start cutting path id: text136436)
(Change tool to Default tool)

G00 Z 5.0000
G00 X 37.0148 Y 35.4689

G01 Z -1.0000 F 100.0000(Penetrate)
G03 X 37.2485 Y 35.8141 Z -1.0000 I -0.5532 J 0.6262 F 3500.0000
G03 X 37.3525 Y 36.4145 Z -1.0000 I -1.6811 J 0.6004
G03 X 37.2453 Y 37.0103 Z -1.0000 I -1.7092 J -0.0000
G03 X 37.0092 Y 37.3375 Z -1.0000 I -0.7115 J -0.2647
G03 X 36.6419 Y 37.5304 Z -1.0000 I -0.6561 J -0.8034
G03 X 36.0580 Y 37.6133 Z -1.0000 I -0.5839 J -2.0140
G01 X 34.4426 Y 37.6133 Z -1.0000
G01 X 34.4426 Y 35.1706 Z -1.0000
G01 X 36.0580 Y 35.1706 Z -1.0000
G03 X 36.6384 Y 35.2590 Z -1.0000 I 0.0000 J 1.9503
G03 X 37.0148 Y 35.4689 Z -1.0000 I -0.3127 J 1.0030
G01 X 37.0148 Y 35.4689 Z -1.0000
G00 Z 5.0000

(End cutting path id: text136436)



(Footer)
M5
G00 X0.0000 Y0.0000
M2
(Using default footer. To add your own footer create file "footer" in the output dir.)
(end)
%