%
(Header)
(Generated by gcodetools from Inkscape.)
(Using default header. To add your own header create file "header" in the output dir.)
M3
(Header end.)
G21 (All units in mm)

(Start cutting path id: text179407)
(Change tool to Default tool)

G00 Z 5.0000
G00 X 8.0868 Y 31.1851

G01 Z -1.0000 F 100.0000(Penetrate)
G03 X 8.7908 Y 31.2326 Z -1.0000 I 0.0000 J 5.2394 F 3500.0000
G03 X 9.2432 Y 31.3419 Z -1.0000 I -0.3063 J 2.2589
G03 X 9.8647 Y 31.7985 Z -1.0000 I -0.4514 J 1.2660
G03 X 10.0860 Y 32.4591 Z -1.0000 I -0.8758 J 0.6607
G03 X 9.9763 Y 32.8753 Z -1.0000 I -0.8444 J -0.0000
G03 X 9.6678 Y 33.1974 Z -1.0000 I -0.7891 J -0.4469
G03 X 9.2300 Y 33.4030 Z -1.0000 I -1.1644 J -1.9108
G03 X 8.3546 Y 33.6482 Z -1.0000 I -2.5656 J -7.4737
G01 X 7.3354 Y 33.8768 Z -1.0000
G02 X 5.8700 Y 34.3012 Z -1.0000 I 2.8270 J 12.5039
G02 X 5.2578 Y 34.6151 Z -1.0000 I 0.8727 J 2.4560
G02 X 4.5662 Y 35.4301 Z -1.0000 I 1.1453 J 1.6730
G02 X 4.2844 Y 36.6992 Z -1.0000 I 2.7172 J 1.2691
G02 X 4.5322 Y 37.8833 Z -1.0000 I 2.9530 J 0.0000
G02 X 5.2252 Y 38.8487 Z -1.0000 I 2.6109 J -1.1428
G02 X 6.2668 Y 39.4440 Z -1.0000 I 1.8587 J -2.0431
G02 X 7.9888 Y 39.7045 Z -1.0000 I 1.7220 J -5.5604
G02 X 9.4369 Y 39.4836 Z -1.0000 I -0.0000 J -4.8573
G02 X 10.5825 Y 38.8944 Z -1.0000 I -1.1199 J -3.5855
G02 X 11.3710 Y 37.9393 Z -1.0000 I -1.5568 J -2.0885
G02 X 11.7127 Y 36.5555 Z -1.0000 I -3.1066 J -1.5012
G01 X 9.7789 Y 36.5555 Z -1.0000
G03 X 9.5427 Y 37.3049 Z -1.0000 I -1.6155 J -0.0972
G03 X 9.0210 Y 37.7903 Z -1.0000 I -1.1344 J -0.6962
G03 X 8.5338 Y 37.9623 Z -1.0000 I -0.8746 J -1.7020
G03 X 7.8516 Y 38.0320 Z -1.0000 I -0.6822 J -3.3003
G03 X 7.1026 Y 37.9389 Z -1.0000 I -0.0000 J -3.0577
G03 X 6.6102 Y 37.7184 Z -1.0000 I 0.3827 J -1.5149
G03 X 6.2697 Y 37.3393 Z -1.0000 I 0.5894 J -0.8718
G03 X 6.1464 Y 36.8430 Z -1.0000 I 0.9368 J -0.4964
G03 X 6.2683 Y 36.3985 Z -1.0000 I 0.8712 J -0.0000
G03 X 6.6037 Y 36.0720 Z -1.0000 I 0.7726 J 0.4584
G03 X 6.9113 Y 35.9362 Z -1.0000 I 0.7791 J 1.3485
G03 X 7.8581 Y 35.6735 Z -1.0000 I 4.0281 J 12.6787
G01 X 9.5176 Y 35.2750 Z -1.0000
G02 X 10.5676 Y 34.9290 Z -1.0000 I -1.5490 J -6.4671
G02 X 11.1639 Y 34.5759 Z -1.0000 I -1.0213 J -2.4054
G02 X 11.7814 Y 33.7776 Z -1.0000 I -1.2870 J -1.6335
G02 X 12.0263 Y 32.6094 Z -1.0000 I -2.6639 J -1.1682
G02 X 11.7631 Y 31.4101 Z -1.0000 I -2.8631 J 0.0000
G02 X 11.0137 Y 30.4142 Z -1.0000 I -2.6786 J 1.2356
G02 X 9.9107 Y 29.8056 Z -1.0000 I -1.9924 J 2.3069
G02 X 8.1652 Y 29.5453 Z -1.0000 I -1.7455 J 5.7222
G02 X 6.3722 Y 29.7993 Z -1.0000 I 0.0000 J 6.4543
G02 X 5.2056 Y 30.4011 Z -1.0000 I 0.9421 J 3.2578
G02 X 4.4231 Y 31.4055 Z -1.0000 I 1.7138 J 2.1422
G02 X 4.1276 Y 32.7662 Z -1.0000 I 2.9852 J 1.3606
G01 X 6.0484 Y 32.7662 Z -1.0000
G03 X 6.2052 Y 32.1349 Z -1.0000 I 3.0511 J 0.4229
G03 X 6.4077 Y 31.7797 Z -1.0000 I 1.1438 J 0.4166
G03 X 6.9868 Y 31.3741 Z -1.0000 I 1.0206 J 0.8411
G03 X 8.0868 Y 31.1851 Z -1.0000 I 1.0999 J 3.1064
G01 X 8.0868 Y 31.1851 Z -1.0000
G00 Z 5.0000

(End cutting path id: text179407)


(Start cutting path id: text179407)
(Change tool to Default tool)

G00 Z 5.0000
G00 X 13.3591 Y 39.4236

G01 Z -1.0000 F 100.0000(Penetrate)
G01 X 15.3583 Y 39.4236 Z -1.0000 F 3500.0000
G01 X 15.3583 Y 29.7935 Z -1.0000
G01 X 13.3591 Y 29.7935 Z -1.0000
G01 X 13.3591 Y 39.4236 Z -1.0000
G00 Z 5.0000

(End cutting path id: text179407)


(Start cutting path id: text179407)
(Change tool to Default tool)

G00 Z 5.0000
G00 X 25.0211 Y 29.7935

G01 Z -1.0000 F 100.0000(Penetrate)
G01 X 23.0088 Y 29.7935 Z -1.0000 F 3500.0000
G01 X 19.0758 Y 36.6339 Z -1.0000
G01 X 19.0758 Y 29.7935 Z -1.0000
G01 X 17.2007 Y 29.7935 Z -1.0000
G01 X 17.2007 Y 39.4236 Z -1.0000
G01 X 19.3110 Y 39.4236 Z -1.0000
G01 X 23.1460 Y 32.7008 Z -1.0000
G01 X 23.1460 Y 39.4236 Z -1.0000
G01 X 25.0211 Y 39.4236 Z -1.0000
G01 X 25.0211 Y 29.7935 Z -1.0000
G00 Z 5.0000

(End cutting path id: text179407)


(Start cutting path id: text179407)
(Change tool to Default tool)

G00 Z 5.0000
G00 X 35.4286 Y 29.7935

G01 Z -1.0000 F 100.0000(Penetrate)
G01 X 32.8414 Y 29.7935 Z -1.0000 F 3500.0000
G01 X 29.8688 Y 34.0010 Z -1.0000
G01 X 28.9084 Y 33.0144 Z -1.0000
G01 X 28.9084 Y 29.7935 Z -1.0000
G01 X 26.9288 Y 29.7935 Z -1.0000
G01 X 26.9288 Y 39.4236 Z -1.0000
G01 X 28.9084 Y 39.4236 Z -1.0000
G01 X 28.9084 Y 35.4579 Z -1.0000
G01 X 32.6258 Y 39.4236 Z -1.0000
G01 X 35.2261 Y 39.4236 Z -1.0000
G01 X 31.2800 Y 35.4579 Z -1.0000
G01 X 35.4286 Y 29.7935 Z -1.0000
G00 Z 5.0000

(End cutting path id: text179407)



(Footer)
M5
G00 X0.0000 Y0.0000
M2
(Using default footer. To add your own footer create file "footer" in the output dir.)
(end)
%