%
(Header)
(Generated by gcodetools from Inkscape.)
(Using default header. To add your own header create file "header" in the output dir.)
M3
(Header end.)
G21 (All units in mm)

(Start cutting path id: text179645)
(Change tool to Default tool)

G00 Z 5.0000
G00 X 1.9962 Y 35.9695

G01 Z -1.0000 F 100.0000(Penetrate)
G03 X 2.2972 Y 35.9898 Z -1.0000 I 0.0000 J 2.2401 F 3500.0000
G03 X 2.4906 Y 36.0365 Z -1.0000 I -0.1310 J 0.9658
G03 X 2.7563 Y 36.2317 Z -1.0000 I -0.1930 J 0.5413
G03 X 2.8509 Y 36.5142 Z -1.0000 I -0.3744 J 0.2825
G03 X 2.8040 Y 36.6921 Z -1.0000 I -0.3610 J -0.0000
G03 X 2.6721 Y 36.8298 Z -1.0000 I -0.3374 J -0.1911
G03 X 2.4849 Y 36.9177 Z -1.0000 I -0.4978 J -0.8170
G03 X 2.1107 Y 37.0226 Z -1.0000 I -1.0969 J -3.1954
G01 X 1.6749 Y 37.1203 Z -1.0000
G02 X 1.0484 Y 37.3018 Z -1.0000 I 1.2087 J 5.3461
G02 X 0.7866 Y 37.4360 Z -1.0000 I 0.3731 J 1.0501
G02 X 0.4909 Y 37.7844 Z -1.0000 I 0.4897 J 0.7153
G02 X 0.3704 Y 38.3271 Z -1.0000 I 1.1617 J 0.5426
G02 X 0.4764 Y 38.8333 Z -1.0000 I 1.2626 J 0.0000
G02 X 0.7727 Y 39.2461 Z -1.0000 I 1.1163 J -0.4886
G02 X 1.2180 Y 39.5006 Z -1.0000 I 0.7947 J -0.8735
G02 X 1.9543 Y 39.6120 Z -1.0000 I 0.7363 J -2.3774
G02 X 2.5734 Y 39.5175 Z -1.0000 I 0.0000 J -2.0768
G02 X 3.0632 Y 39.2656 Z -1.0000 I -0.4788 J -1.5330
G02 X 3.4004 Y 38.8573 Z -1.0000 I -0.6656 J -0.8929
G02 X 3.5465 Y 38.2656 Z -1.0000 I -1.3282 J -0.6419
G01 X 2.7196 Y 38.2656 Z -1.0000
G03 X 2.6187 Y 38.5860 Z -1.0000 I -0.6907 J -0.0415
G03 X 2.3956 Y 38.7935 Z -1.0000 I -0.4850 J -0.2977
G03 X 2.1873 Y 38.8671 Z -1.0000 I -0.3739 J -0.7277
G03 X 1.8956 Y 38.8969 Z -1.0000 I -0.2917 J -1.4111
G03 X 1.5754 Y 38.8571 Z -1.0000 I 0.0000 J -1.3073
G03 X 1.3649 Y 38.7628 Z -1.0000 I 0.1636 J -0.6477
G03 X 1.2193 Y 38.6007 Z -1.0000 I 0.2520 J -0.3727
G03 X 1.1665 Y 38.3885 Z -1.0000 I 0.4005 J -0.2122
G03 X 1.2187 Y 38.1985 Z -1.0000 I 0.3725 J 0.0000
G03 X 1.3621 Y 38.0589 Z -1.0000 I 0.3303 J 0.1960
G03 X 1.4936 Y 38.0008 Z -1.0000 I 0.3331 J 0.5766
G03 X 1.8984 Y 37.8885 Z -1.0000 I 1.7222 J 5.4207
G01 X 2.6079 Y 37.7181 Z -1.0000
G02 X 3.0568 Y 37.5702 Z -1.0000 I -0.6623 J -2.7650
G02 X 3.3118 Y 37.4192 Z -1.0000 I -0.4367 J -1.0284
G02 X 3.5758 Y 37.0779 Z -1.0000 I -0.5503 J -0.6984
G02 X 3.6805 Y 36.5784 Z -1.0000 I -1.1390 J -0.4995
G02 X 3.5680 Y 36.0657 Z -1.0000 I -1.2241 J -0.0000
G02 X 3.2476 Y 35.6399 Z -1.0000 I -1.1452 J 0.5283
G02 X 2.7760 Y 35.3797 Z -1.0000 I -0.8518 J 0.9863
G02 X 2.0297 Y 35.2684 Z -1.0000 I -0.7463 J 2.4466
G02 X 1.2631 Y 35.3770 Z -1.0000 I 0.0000 J 2.7595
G02 X 0.7643 Y 35.6343 Z -1.0000 I 0.4028 J 1.3929
G02 X 0.4297 Y 36.0637 Z -1.0000 I 0.7327 J 0.9159
G02 X 0.3034 Y 36.6455 Z -1.0000 I 1.2763 J 0.5817
G01 X 1.1246 Y 36.6455 Z -1.0000
G03 X 1.1917 Y 36.3756 Z -1.0000 I 1.3045 J 0.1808
G03 X 1.2783 Y 36.2237 Z -1.0000 I 0.4890 J 0.1781
G03 X 1.5259 Y 36.0503 Z -1.0000 I 0.4363 J 0.3596
G03 X 1.9962 Y 35.9695 Z -1.0000 I 0.4703 J 1.3281
G01 X 1.9962 Y 35.9695 Z -1.0000
G00 Z 5.0000

(End cutting path id: text179645)


(Start cutting path id: text179645)
(Change tool to Default tool)

G00 Z 5.0000
G00 X 7.9655 Y 35.3745

G01 Z -1.0000 F 100.0000(Penetrate)
G01 X 6.8594 Y 35.3745 Z -1.0000 F 3500.0000
G01 X 5.5884 Y 37.1734 Z -1.0000
G01 X 5.1778 Y 36.7516 Z -1.0000
G01 X 5.1778 Y 35.3745 Z -1.0000
G01 X 4.3314 Y 35.3745 Z -1.0000
G01 X 4.3314 Y 39.4919 Z -1.0000
G01 X 5.1778 Y 39.4919 Z -1.0000
G01 X 5.1778 Y 37.7963 Z -1.0000
G01 X 6.7672 Y 39.4919 Z -1.0000
G01 X 7.8789 Y 39.4919 Z -1.0000
G01 X 6.1917 Y 37.7963 Z -1.0000
G01 X 7.9655 Y 35.3745 Z -1.0000
G00 Z 5.0000

(End cutting path id: text179645)


(Start cutting path id: text179645)
(Change tool to Default tool)

G00 Z 5.0000
G00 X 10.8594 Y 36.2209

G01 Z -1.0000 F 100.0000(Penetrate)
G01 X 9.3426 Y 36.2209 Z -1.0000 F 3500.0000
G01 X 9.0577 Y 35.3745 Z -1.0000
G01 X 8.1582 Y 35.3745 Z -1.0000
G01 X 9.6275 Y 39.4919 Z -1.0000
G01 X 10.5996 Y 39.4919 Z -1.0000
G01 X 12.0577 Y 35.3745 Z -1.0000
G01 X 11.1248 Y 35.3745 Z -1.0000
G01 X 10.8594 Y 36.2209 Z -1.0000
G00 Z 5.0000

(End cutting path id: text179645)


(Start cutting path id: text179645)
(Change tool to Default tool)

G00 Z 5.0000
G00 X 10.6192 Y 36.9304

G01 Z -1.0000 F 100.0000(Penetrate)
G01 X 10.1052 Y 38.5505 Z -1.0000 F 3500.0000
G01 X 9.5745 Y 36.9304 Z -1.0000
G01 X 10.6192 Y 36.9304 Z -1.0000
G00 Z 5.0000

(End cutting path id: text179645)


(Start cutting path id: text179645)
(Change tool to Default tool)

G00 Z 5.0000
G00 X 15.1500 Y 39.4919

G01 Z -1.0000 F 100.0000(Penetrate)
G01 X 15.1500 Y 38.7628 Z -1.0000 F 3500.0000
G01 X 13.9181 Y 38.7628 Z -1.0000
G01 X 13.9181 Y 35.3745 Z -1.0000
G01 X 13.0522 Y 35.3745 Z -1.0000
G01 X 13.0522 Y 38.7628 Z -1.0000
G01 X 11.8147 Y 38.7628 Z -1.0000
G01 X 11.8147 Y 39.4919 Z -1.0000
G01 X 15.1500 Y 39.4919 Z -1.0000
G00 Z 5.0000

(End cutting path id: text179645)


(Start cutting path id: text179645)
(Change tool to Default tool)

G00 Z 5.0000
G00 X 18.5187 Y 37.1734

G01 Z -1.0000 F 100.0000(Penetrate)
G01 X 16.5187 Y 37.1734 Z -1.0000 F 3500.0000
G01 X 16.5187 Y 36.1147 Z -1.0000
G01 X 18.7980 Y 36.1147 Z -1.0000
G01 X 18.7980 Y 35.3745 Z -1.0000
G01 X 15.6779 Y 35.3745 Z -1.0000
G01 X 15.6779 Y 39.4919 Z -1.0000
G01 X 18.6975 Y 39.4919 Z -1.0000
G01 X 18.6975 Y 38.7628 Z -1.0000
G01 X 16.5187 Y 38.7628 Z -1.0000
G01 X 16.5187 Y 37.8885 Z -1.0000
G01 X 18.5187 Y 37.8885 Z -1.0000
G01 X 18.5187 Y 37.1734 Z -1.0000
G00 Z 5.0000

(End cutting path id: text179645)


(Start cutting path id: text179645)
(Change tool to Default tool)

G00 Z 5.0000
G00 X 21.3288 Y 37.1874

G01 Z -1.0000 F 100.0000(Penetrate)
G01 X 20.3036 Y 37.1874 Z -1.0000 F 3500.0000
G01 X 20.3036 Y 36.0896 Z -1.0000
G01 X 21.3148 Y 36.0896 Z -1.0000
G03 X 21.5806 Y 36.1123 Z -1.0000 I 0.0000 J 1.5662
G03 X 21.7366 Y 36.1622 Z -1.0000 I -0.1002 J 0.5821
G03 X 21.9283 Y 36.3475 Z -1.0000 I -0.1904 J 0.3888
G03 X 22.0104 Y 36.6762 Z -1.0000 I -0.6172 J 0.3287
G03 X 21.9348 Y 36.9487 Z -1.0000 I -0.5288 J 0.0000
G03 X 21.7450 Y 37.1175 Z -1.0000 I -0.3657 J -0.2199
G03 X 21.5924 Y 37.1640 Z -1.0000 I -0.2548 J -0.5627
G03 X 21.3288 Y 37.1874 Z -1.0000 I -0.2813 J -1.6767
G01 X 21.3288 Y 37.1874 Z -1.0000
G00 Z 5.0000

(End cutting path id: text179645)


(Start cutting path id: text179645)
(Change tool to Default tool)

G00 Z 5.0000
G00 X 21.7562 Y 37.9723

G01 Z -1.0000 F 100.0000(Penetrate)
G03 X 21.8727 Y 38.1018 Z -1.0000 I -0.1529 J 0.2548 F 3500.0000
G03 X 21.9238 Y 38.3326 Z -1.0000 I -0.4964 J 0.2309
G03 X 21.8575 Y 38.5760 Z -1.0000 I -0.4800 J 0.0000
G03 X 21.7003 Y 38.7125 Z -1.0000 I -0.2819 J -0.1658
G03 X 21.5044 Y 38.7575 Z -1.0000 I -0.3318 J -0.9955
G03 X 21.2087 Y 38.7768 Z -1.0000 I -0.2958 J -2.2632
G01 X 20.3036 Y 38.7768 Z -1.0000
G01 X 20.3036 Y 37.8690 Z -1.0000
G01 X 21.3148 Y 37.8690 Z -1.0000
G03 X 21.5773 Y 37.8993 Z -1.0000 I 0.0000 J 1.1512
G03 X 21.7562 Y 37.9723 Z -1.0000 I -0.1403 J 0.5993
G01 X 21.7562 Y 37.9723 Z -1.0000
G00 Z 5.0000

(End cutting path id: text179645)


(Start cutting path id: text179645)
(Change tool to Default tool)

G00 Z 5.0000
G00 X 21.3484 Y 35.3745

G01 Z -1.0000 F 100.0000(Penetrate)
G01 X 19.4824 Y 35.3745 Z -1.0000 F 3500.0000
G01 X 19.4824 Y 39.4919 Z -1.0000
G01 X 21.4824 Y 39.4919 Z -1.0000
G02 X 22.1727 Y 39.3509 Z -1.0000 I -0.0280 J -1.8978
G02 X 22.5551 Y 39.0533 Z -1.0000 I -0.3397 J -0.8309
G02 X 22.6934 Y 38.7740 Z -1.0000 I -0.7624 J -0.5515
G02 X 22.7450 Y 38.4248 Z -1.0000 I -1.1555 J -0.3492
G02 X 22.6903 Y 38.0674 Z -1.0000 I -1.1951 J 0.0000
G02 X 22.5551 Y 37.8187 Z -1.0000 I -0.6996 J 0.2192
G02 X 22.4365 Y 37.7056 Z -1.0000 I -0.5345 J 0.4416
G02 X 22.2422 Y 37.5840 Z -1.0000 I -0.8142 J 1.0856
G02 X 22.5255 Y 37.4291 Z -1.0000 I -0.3628 J -0.9998
G02 X 22.7171 Y 37.2209 Z -1.0000 I -0.4959 J -0.6484
G02 X 22.8341 Y 36.9589 Z -1.0000 I -0.7657 J -0.4990
G02 X 22.8791 Y 36.6175 Z -1.0000 I -1.2713 J -0.3414
G02 X 22.8306 Y 36.2657 Z -1.0000 I -1.3012 J 0.0000
G02 X 22.6947 Y 35.9611 Z -1.0000 I -1.1048 J 0.3103
G02 X 22.5616 Y 35.7828 Z -1.0000 I -1.0080 J 0.6136
G02 X 22.4014 Y 35.6371 Z -1.0000 I -0.8280 J 0.7494
G02 X 22.1909 Y 35.5130 Z -1.0000 I -0.6300 J 0.8284
G02 X 21.9322 Y 35.4304 Z -1.0000 I -0.5185 J 1.1772
G02 X 21.6625 Y 35.3895 Z -1.0000 I -0.5061 J 2.4291
G02 X 21.3484 Y 35.3745 Z -1.0000 I -0.3141 J 3.2823
G01 X 21.3484 Y 35.3745 Z -1.0000
G00 Z 5.0000

(End cutting path id: text179645)


(Start cutting path id: text179645)
(Change tool to Default tool)

G00 Z 5.0000
G00 X 25.4210 Y 35.2600

G01 Z -1.0000 F 100.0000(Penetrate)
G02 X 24.5984 Y 35.4021 Z -1.0000 I -0.0000 J 2.4521 F 3500.0000
G02 X 24.0718 Y 35.7404 Z -1.0000 I 0.4625 J 1.2986
G02 X 23.6298 Y 36.4091 Z -1.0000 I 1.1996 J 1.2735
G02 X 23.4461 Y 37.4388 Z -1.0000 I 2.7948 J 1.0297
G02 X 23.6331 Y 38.4872 Z -1.0000 I 3.0327 J -0.0000
G02 X 24.0718 Y 39.1371 Z -1.0000 I 1.5429 J -0.5684
G02 X 24.5984 Y 39.4755 Z -1.0000 I 0.9890 J -0.9603
G02 X 25.4210 Y 39.6176 Z -1.0000 I 0.8226 J -2.3100
G02 X 26.2436 Y 39.4755 Z -1.0000 I -0.0000 J -2.4521
G02 X 26.7702 Y 39.1371 Z -1.0000 I -0.4625 J -1.2986
G02 X 27.2068 Y 38.4877 Z -1.0000 I -1.1063 J -1.2153
G02 X 27.3931 Y 37.4388 Z -1.0000 I -2.8599 J -1.0490
G02 X 27.2102 Y 36.4086 Z -1.0000 I -2.9917 J -0.0000
G02 X 26.7702 Y 35.7404 Z -1.0000 I -1.6420 J 0.6022
G02 X 26.2436 Y 35.4021 Z -1.0000 I -0.9890 J 0.9603
G02 X 25.4210 Y 35.2600 Z -1.0000 I -0.8226 J 2.3100
G01 X 25.4210 Y 35.2600 Z -1.0000
G00 Z 5.0000

(End cutting path id: text179645)


(Start cutting path id: text179645)
(Change tool to Default tool)

G00 Z 5.0000
G00 X 26.2339 Y 36.3661

G01 Z -1.0000 F 100.0000(Penetrate)
G03 X 26.4420 Y 36.7748 Z -1.0000 I -0.9081 J 0.7197 F 3500.0000
G03 X 26.5328 Y 37.4388 Z -1.0000 I -2.3827 J 0.6639
G03 X 26.4414 Y 38.0995 Z -1.0000 I -2.4344 J 0.0000
G03 X 26.2311 Y 38.5086 Z -1.0000 I -1.1146 J -0.3143
G03 X 25.8823 Y 38.7857 Z -1.0000 I -0.7587 J -0.5969
G03 X 25.4210 Y 38.8885 Z -1.0000 I -0.4613 J -0.9836
G03 X 24.9585 Y 38.7868 Z -1.0000 I -0.0000 J -1.1022
G03 X 24.6054 Y 38.5114 Z -1.0000 I 0.4134 J -0.8943
G03 X 24.3932 Y 38.1017 Z -1.0000 I 0.8976 J -0.7247
G03 X 24.3009 Y 37.4388 Z -1.0000 I 2.3355 J -0.6629
G03 X 24.3932 Y 36.7758 Z -1.0000 I 2.4278 J -0.0000
G03 X 24.6054 Y 36.3661 Z -1.0000 I 1.1098 J 0.3150
G03 X 24.9585 Y 36.0908 Z -1.0000 I 0.7665 J 0.6189
G03 X 25.4210 Y 35.9890 Z -1.0000 I 0.4626 J 1.0005
G03 X 25.8832 Y 36.0910 Z -1.0000 I -0.0000 J 1.0982
G03 X 26.2339 Y 36.3661 Z -1.0000 I -0.4099 J 0.8836
G01 X 26.2339 Y 36.3661 Z -1.0000
G00 Z 5.0000

(End cutting path id: text179645)


(Start cutting path id: text179645)
(Change tool to Default tool)

G00 Z 5.0000
G00 X 30.2200 Y 36.9304

G01 Z -1.0000 F 100.0000(Penetrate)
G01 X 29.7060 Y 38.5505 Z -1.0000 F 3500.0000
G01 X 29.1753 Y 36.9304 Z -1.0000
G01 X 30.2200 Y 36.9304 Z -1.0000
G00 Z 5.0000

(End cutting path id: text179645)


(Start cutting path id: text179645)
(Change tool to Default tool)

G00 Z 5.0000
G00 X 30.4602 Y 36.2209

G01 Z -1.0000 F 100.0000(Penetrate)
G01 X 28.9434 Y 36.2209 Z -1.0000 F 3500.0000
G01 X 28.6585 Y 35.3745 Z -1.0000
G01 X 27.7590 Y 35.3745 Z -1.0000
G01 X 29.2283 Y 39.4919 Z -1.0000
G01 X 30.2004 Y 39.4919 Z -1.0000
G01 X 31.6585 Y 35.3745 Z -1.0000
G01 X 30.7256 Y 35.3745 Z -1.0000
G01 X 30.4602 Y 36.2209 Z -1.0000
G00 Z 5.0000

(End cutting path id: text179645)


(Start cutting path id: text179645)
(Change tool to Default tool)

G00 Z 5.0000
G00 X 33.9295 Y 36.9891

G01 Z -1.0000 F 100.0000(Penetrate)
G01 X 33.0412 Y 36.9891 Z -1.0000 F 3500.0000
G01 X 33.0412 Y 35.3745 Z -1.0000
G01 X 32.2004 Y 35.3745 Z -1.0000
G01 X 32.2004 Y 39.4919 Z -1.0000
G01 X 34.2200 Y 39.4919 Z -1.0000
G02 X 34.6467 Y 39.4539 Z -1.0000 I -0.0597 J -3.0842
G02 X 34.8848 Y 39.3857 Z -1.0000 I -0.1626 J -1.0185
G02 X 35.1020 Y 39.2639 Z -1.0000 I -0.4123 J -0.9896
G02 X 35.2815 Y 39.0980 Z -1.0000 I -0.6069 J -0.8367
G02 X 35.4016 Y 38.9330 Z -1.0000 I -0.9769 J -0.8373
G02 X 35.4938 Y 38.7516 Z -1.0000 I -1.0905 J -0.6684
G02 X 35.5506 Y 38.5575 Z -1.0000 I -0.8846 J -0.3642
G02 X 35.5720 Y 38.3187 Z -1.0000 I -1.3219 J -0.2388
G02 X 35.5361 Y 38.0341 Z -1.0000 I -1.1472 J -0.0000
G02 X 35.4239 Y 37.7405 Z -1.0000 I -1.3354 J 0.3419
G02 X 35.2338 Y 37.5074 Z -1.0000 I -0.6664 J 0.3497
G02 X 34.9351 Y 37.3410 Z -1.0000 I -0.6150 J 0.7527
G02 X 35.1890 Y 37.1915 Z -1.0000 I -0.3676 J -0.9145
G02 X 35.3373 Y 37.0142 Z -1.0000 I -0.3822 J -0.4705
G02 X 35.4183 Y 36.7943 Z -1.0000 I -0.6084 J -0.3488
G02 X 35.4575 Y 36.3717 Z -1.0000 I -2.2601 J -0.4225
G01 X 35.4575 Y 36.0952 Z -1.0000
G03 X 35.4657 Y 35.8140 Z -1.0000 I 4.8235 J 0.0000
G03 X 35.4798 Y 35.7125 Z -1.0000 I 0.6384 J 0.0373
G03 X 35.5391 Y 35.5714 Z -1.0000 I 0.3959 J 0.0833
G03 X 35.6362 Y 35.4779 Z -1.0000 I 0.2616 J 0.1744
G01 X 35.6362 Y 35.3745 Z -1.0000
G01 X 34.6893 Y 35.3745 Z -1.0000
G02 X 34.6523 Y 35.5119 Z -1.0000 I 4.5088 J 1.2882
G02 X 34.6334 Y 35.5952 Z -1.0000 I 1.6377 J 0.4146
G02 X 34.6077 Y 35.7692 Z -1.0000 I 1.9370 J 0.3749
G02 X 34.5971 Y 35.9499 Z -1.0000 I 2.0801 J 0.2129
G01 X 34.5915 Y 36.3326 Z -1.0000
G03 X 34.5382 Y 36.7054 Z -1.0000 I -1.4769 J -0.0209
G03 X 34.4463 Y 36.8578 Z -1.0000 I -0.3177 J -0.0879
G03 X 34.2912 Y 36.9438 Z -1.0000 I -0.2407 J -0.2509
G03 X 33.9295 Y 36.9891 Z -1.0000 I -0.3617 J -1.4237
G01 X 33.9295 Y 36.9891 Z -1.0000
G00 Z 5.0000

(End cutting path id: text179645)


(Start cutting path id: text179645)
(Change tool to Default tool)

G00 Z 5.0000
G00 X 34.4519 Y 37.7377

G01 Z -1.0000 F 100.0000(Penetrate)
G03 X 34.6321 Y 37.9043 Z -1.0000 I -0.1629 J 0.3568 F 3500.0000
G03 X 34.7089 Y 38.2014 Z -1.0000 I -0.5359 J 0.2970
G03 X 34.6323 Y 38.5290 Z -1.0000 I -0.7393 J -0.0000
G03 X 34.4602 Y 38.7042 Z -1.0000 I -0.3527 J -0.1744
G03 X 34.3148 Y 38.7532 Z -1.0000 I -0.2309 J -0.4440
G03 X 34.0412 Y 38.7768 Z -1.0000 I -0.2736 J -1.5783
G01 X 33.0412 Y 38.7768 Z -1.0000
G01 X 33.0412 Y 37.6706 Z -1.0000
G01 X 34.0161 Y 37.6706 Z -1.0000
G03 X 34.3018 Y 37.6925 Z -1.0000 I -0.0000 J 1.8789
G03 X 34.4519 Y 37.7377 Z -1.0000 I -0.0855 J 0.5555
G01 X 34.4519 Y 37.7377 Z -1.0000
G00 Z 5.0000

(End cutting path id: text179645)


(Start cutting path id: text179645)
(Change tool to Default tool)

G00 Z 5.0000
G00 X 38.7257 Y 38.4416

G01 Z -1.0000 F 100.0000(Penetrate)
G03 X 38.4660 Y 38.6693 Z -1.0000 I -0.4775 J -0.2825 F 3500.0000
G03 X 37.9407 Y 38.7768 Z -1.0000 I -0.5253 J -1.2301
G01 X 37.1474 Y 38.7768 Z -1.0000
G01 X 37.1474 Y 36.0896 Z -1.0000
G01 X 37.9407 Y 36.0896 Z -1.0000
G03 X 38.4418 Y 36.2489 Z -1.0000 I 0.0000 J 0.8678
G03 X 38.7899 Y 36.6902 Z -1.0000 I -0.5725 J 0.8095
G03 X 38.8840 Y 37.0269 Z -1.0000 I -1.5256 J 0.6077
G03 X 38.9212 Y 37.4751 Z -1.0000 I -2.6795 J 0.4482
G03 X 38.8599 Y 38.0871 Z -1.0000 I -3.0866 J -0.0000
G03 X 38.7257 Y 38.4416 Z -1.0000 I -1.1486 J -0.2324
G01 X 38.7257 Y 38.4416 Z -1.0000
G00 Z 5.0000

(End cutting path id: text179645)


(Start cutting path id: text179645)
(Change tool to Default tool)

G00 Z 5.0000
G00 X 38.0860 Y 35.3745

G01 Z -1.0000 F 100.0000(Penetrate)
G01 X 36.3122 Y 35.3745 Z -1.0000 F 3500.0000
G01 X 36.3122 Y 39.4919 Z -1.0000
G01 X 38.0860 Y 39.4919 Z -1.0000
G02 X 38.4647 Y 39.4626 Z -1.0000 I -0.0444 J -3.0442
G02 X 38.7229 Y 39.4025 Z -1.0000 I -0.2061 J -1.4684
G02 X 39.1118 Y 39.2005 Z -1.0000 I -0.4267 J -1.2967
G02 X 39.4240 Y 38.8801 Z -1.0000 I -0.8497 J -1.1405
G02 X 39.6054 Y 38.5581 Z -1.0000 I -1.5534 J -1.0874
G02 X 39.7173 Y 38.2153 Z -1.0000 I -1.6512 J -0.7285
G02 X 39.7771 Y 37.8558 Z -1.0000 I -3.5233 J -0.7707
G02 X 39.7955 Y 37.5338 Z -1.0000 I -2.8064 J -0.3220
G02 X 39.7025 Y 36.7375 Z -1.0000 I -3.4536 J 0.0000
G02 X 39.4659 Y 36.1427 Z -1.0000 I -2.1426 J 0.5077
G02 X 38.8978 Y 35.5852 Z -1.0000 I -1.2993 J 0.7559
G02 X 38.0860 Y 35.3745 Z -1.0000 I -0.8118 J 1.4583
G01 X 38.0860 Y 35.3745 Z -1.0000
G00 Z 5.0000

(End cutting path id: text179645)



(Footer)
M5
G00 X0.0000 Y0.0000
M2
(Using default footer. To add your own footer create file "footer" in the output dir.)
(end)
%