%
(Header)
(Generated by gcodetools from Inkscape.)
(Using default header. To add your own header create file "header" in the output dir.)
M3
(Header end.)
G21 (All units in mm)

(Start cutting path id: text181892)
(Change tool to Default tool)

G00 Z 5.0000
G00 X 11.7853 Y 32.7654

G01 Z -1.0000 F 100.0000(Penetrate)
G03 X 12.3478 Y 32.8033 Z -1.0000 I -0.0000 J 4.1867 F 3500.0000
G03 X 12.7093 Y 32.8907 Z -1.0000 I -0.2448 J 1.8051
G03 X 13.2060 Y 33.2555 Z -1.0000 I -0.3607 J 1.0116
G03 X 13.3828 Y 33.7834 Z -1.0000 I -0.6998 J 0.5279
G03 X 13.2952 Y 34.1159 Z -1.0000 I -0.6748 J 0.0000
G03 X 13.0487 Y 34.3733 Z -1.0000 I -0.6306 J -0.3571
G03 X 12.6988 Y 34.5376 Z -1.0000 I -0.9304 J -1.5269
G03 X 11.9993 Y 34.7335 Z -1.0000 I -2.0501 J -5.9721
G01 X 11.1849 Y 34.9162 Z -1.0000
G02 X 10.0139 Y 35.2554 Z -1.0000 I 2.2590 J 9.9916
G02 X 9.5248 Y 35.5062 Z -1.0000 I 0.6974 J 1.9625
G02 X 8.9721 Y 36.1574 Z -1.0000 I 0.9152 J 1.3368
G02 X 8.7469 Y 37.1715 Z -1.0000 I 2.1712 J 1.0141
G02 X 8.9449 Y 38.1177 Z -1.0000 I 2.3596 J 0.0000
G02 X 9.4987 Y 38.8891 Z -1.0000 I 2.0863 J -0.9131
G02 X 10.3310 Y 39.3648 Z -1.0000 I 1.4852 J -1.6326
G02 X 11.7070 Y 39.5730 Z -1.0000 I 1.3760 J -4.4432
G02 X 12.8642 Y 39.3965 Z -1.0000 I -0.0000 J -3.8814
G02 X 13.7796 Y 38.9257 Z -1.0000 I -0.8949 J -2.8651
G02 X 14.4097 Y 38.1625 Z -1.0000 I -1.2440 J -1.6688
G02 X 14.6827 Y 37.0567 Z -1.0000 I -2.4824 J -1.1996
G01 X 13.1374 Y 37.0567 Z -1.0000
G03 X 12.9487 Y 37.6555 Z -1.0000 I -1.2909 J -0.0777
G03 X 12.5318 Y 38.0434 Z -1.0000 I -0.9065 J -0.5563
G03 X 12.1425 Y 38.1808 Z -1.0000 I -0.6989 J -1.3600
G03 X 11.5973 Y 38.2366 Z -1.0000 I -0.5451 J -2.6372
G03 X 10.9989 Y 38.1621 Z -1.0000 I 0.0000 J -2.4433
G03 X 10.6054 Y 37.9860 Z -1.0000 I 0.3058 J -1.2105
G03 X 10.3333 Y 37.6830 Z -1.0000 I 0.4710 J -0.6966
G03 X 10.2348 Y 37.2864 Z -1.0000 I 0.7486 J -0.3966
G03 X 10.3322 Y 36.9312 Z -1.0000 I 0.6962 J -0.0000
G03 X 10.6002 Y 36.6704 Z -1.0000 I 0.6174 J 0.3663
G03 X 10.8460 Y 36.5619 Z -1.0000 I 0.6226 J 1.0776
G03 X 11.6026 Y 36.3519 Z -1.0000 I 3.2188 J 10.1312
G01 X 12.9286 Y 36.0335 Z -1.0000
G02 X 13.7676 Y 35.7570 Z -1.0000 I -1.2378 J -5.1677
G02 X 14.2442 Y 35.4749 Z -1.0000 I -0.8161 J -1.9221
G02 X 14.7376 Y 34.8370 Z -1.0000 I -1.0284 J -1.3053
G02 X 14.9333 Y 33.9034 Z -1.0000 I -2.1287 J -0.9335
G02 X 14.7229 Y 32.9451 Z -1.0000 I -2.2878 J -0.0000
G02 X 14.1241 Y 32.1493 Z -1.0000 I -2.1404 J 0.9874
G02 X 13.2427 Y 31.6630 Z -1.0000 I -1.5920 J 1.8434
G02 X 11.8479 Y 31.4550 Z -1.0000 I -1.3948 J 4.5725
G02 X 10.4152 Y 31.6580 Z -1.0000 I -0.0000 J 5.1575
G02 X 9.4830 Y 32.1389 Z -1.0000 I 0.7528 J 2.6032
G02 X 8.8577 Y 32.9415 Z -1.0000 I 1.3694 J 1.7118
G02 X 8.6216 Y 34.0287 Z -1.0000 I 2.3854 J 1.0873
G01 X 10.1565 Y 34.0287 Z -1.0000
G03 X 10.2818 Y 33.5243 Z -1.0000 I 2.4381 J 0.3380
G03 X 10.4436 Y 33.2404 Z -1.0000 I 0.9140 J 0.3329
G03 X 10.9064 Y 32.9164 Z -1.0000 I 0.8155 J 0.6721
G03 X 11.7853 Y 32.7654 Z -1.0000 I 0.8789 J 2.4822
G01 X 11.7853 Y 32.7654 Z -1.0000
G00 Z 5.0000

(End cutting path id: text181892)


(Start cutting path id: text181892)
(Change tool to Default tool)

G00 Z 5.0000
G00 X 22.9417 Y 31.6534

G01 Z -1.0000 F 100.0000(Penetrate)
G01 X 20.8744 Y 31.6534 Z -1.0000 F 3500.0000
G01 X 18.4990 Y 35.0154 Z -1.0000
G01 X 17.7316 Y 34.2271 Z -1.0000
G01 X 17.7316 Y 31.6534 Z -1.0000
G01 X 16.1497 Y 31.6534 Z -1.0000
G01 X 16.1497 Y 39.3485 Z -1.0000
G01 X 17.7316 Y 39.3485 Z -1.0000
G01 X 17.7316 Y 36.1796 Z -1.0000
G01 X 20.7021 Y 39.3485 Z -1.0000
G01 X 22.7799 Y 39.3485 Z -1.0000
G01 X 19.6266 Y 36.1796 Z -1.0000
G01 X 22.9417 Y 31.6534 Z -1.0000
G00 Z 5.0000

(End cutting path id: text181892)


(Start cutting path id: text181892)
(Change tool to Default tool)

G00 Z 5.0000
G00 X 29.6084 Y 32.7654

G01 Z -1.0000 F 100.0000(Penetrate)
G03 X 30.1710 Y 32.8033 Z -1.0000 I -0.0000 J 4.1867 F 3500.0000
G03 X 30.5325 Y 32.8907 Z -1.0000 I -0.2448 J 1.8051
G03 X 31.0291 Y 33.2555 Z -1.0000 I -0.3607 J 1.0116
G03 X 31.2059 Y 33.7834 Z -1.0000 I -0.6998 J 0.5279
G03 X 31.1183 Y 34.1159 Z -1.0000 I -0.6748 J 0.0000
G03 X 30.8718 Y 34.3733 Z -1.0000 I -0.6306 J -0.3571
G03 X 30.5219 Y 34.5376 Z -1.0000 I -0.9304 J -1.5269
G03 X 29.8225 Y 34.7335 Z -1.0000 I -2.0501 J -5.9721
G01 X 29.0081 Y 34.9162 Z -1.0000
G02 X 27.8371 Y 35.2554 Z -1.0000 I 2.2590 J 9.9916
G02 X 27.3479 Y 35.5062 Z -1.0000 I 0.6974 J 1.9625
G02 X 26.7952 Y 36.1574 Z -1.0000 I 0.9152 J 1.3368
G02 X 26.5700 Y 37.1715 Z -1.0000 I 2.1712 J 1.0141
G02 X 26.7680 Y 38.1177 Z -1.0000 I 2.3596 J -0.0000
G02 X 27.3218 Y 38.8891 Z -1.0000 I 2.0863 J -0.9131
G02 X 28.1541 Y 39.3648 Z -1.0000 I 1.4852 J -1.6326
G02 X 29.5301 Y 39.5730 Z -1.0000 I 1.3760 J -4.4432
G02 X 30.6873 Y 39.3965 Z -1.0000 I -0.0000 J -3.8814
G02 X 31.6027 Y 38.9257 Z -1.0000 I -0.8949 J -2.8651
G02 X 32.2328 Y 38.1625 Z -1.0000 I -1.2440 J -1.6688
G02 X 32.5059 Y 37.0567 Z -1.0000 I -2.4824 J -1.1996
G01 X 30.9606 Y 37.0567 Z -1.0000
G03 X 30.7719 Y 37.6555 Z -1.0000 I -1.2909 J -0.0777
G03 X 30.3550 Y 38.0434 Z -1.0000 I -0.9065 J -0.5563
G03 X 29.9656 Y 38.1808 Z -1.0000 I -0.6989 J -1.3600
G03 X 29.4205 Y 38.2366 Z -1.0000 I -0.5451 J -2.6372
G03 X 28.8220 Y 38.1621 Z -1.0000 I 0.0000 J -2.4433
G03 X 28.4286 Y 37.9860 Z -1.0000 I 0.3058 J -1.2105
G03 X 28.1565 Y 37.6830 Z -1.0000 I 0.4710 J -0.6966
G03 X 28.0579 Y 37.2864 Z -1.0000 I 0.7486 J -0.3966
G03 X 28.1553 Y 36.9312 Z -1.0000 I 0.6962 J 0.0000
G03 X 28.4234 Y 36.6704 Z -1.0000 I 0.6174 J 0.3663
G03 X 28.6691 Y 36.5619 Z -1.0000 I 0.6226 J 1.0776
G03 X 29.4257 Y 36.3519 Z -1.0000 I 3.2188 J 10.1312
G01 X 30.7517 Y 36.0335 Z -1.0000
G02 X 31.5908 Y 35.7570 Z -1.0000 I -1.2378 J -5.1677
G02 X 32.0673 Y 35.4749 Z -1.0000 I -0.8161 J -1.9221
G02 X 32.5608 Y 34.8370 Z -1.0000 I -1.0284 J -1.3053
G02 X 32.7565 Y 33.9034 Z -1.0000 I -2.1287 J -0.9335
G02 X 32.5461 Y 32.9451 Z -1.0000 I -2.2878 J 0.0000
G02 X 31.9473 Y 32.1493 Z -1.0000 I -2.1404 J 0.9874
G02 X 31.0659 Y 31.6630 Z -1.0000 I -1.5920 J 1.8434
G02 X 29.6711 Y 31.4550 Z -1.0000 I -1.3948 J 4.5725
G02 X 28.2383 Y 31.6580 Z -1.0000 I 0.0000 J 5.1575
G02 X 27.3061 Y 32.1389 Z -1.0000 I 0.7528 J 2.6032
G02 X 26.6808 Y 32.9415 Z -1.0000 I 1.3694 J 1.7118
G02 X 26.4447 Y 34.0287 Z -1.0000 I 2.3854 J 1.0873
G01 X 27.9796 Y 34.0287 Z -1.0000
G03 X 28.1049 Y 33.5243 Z -1.0000 I 2.4381 J 0.3380
G03 X 28.2667 Y 33.2404 Z -1.0000 I 0.9140 J 0.3329
G03 X 28.7295 Y 32.9164 Z -1.0000 I 0.8155 J 0.6721
G03 X 29.6084 Y 32.7654 Z -1.0000 I 0.8789 J 2.4822
G01 X 29.6084 Y 32.7654 Z -1.0000
G00 Z 5.0000

(End cutting path id: text181892)


(Start cutting path id: text181892)
(Change tool to Default tool)

G00 Z 5.0000
G00 X 23.7196 Y 39.3485

G01 Z -1.0000 F 100.0000(Penetrate)
G01 X 25.3171 Y 39.3485 Z -1.0000 F 3500.0000
G01 X 25.3171 Y 31.6534 Z -1.0000
G01 X 23.7196 Y 31.6534 Z -1.0000
G01 X 23.7196 Y 39.3485 Z -1.0000
G00 Z 5.0000

(End cutting path id: text181892)



(Footer)
M5
G00 X0.0000 Y0.0000
M2
(Using default footer. To add your own footer create file "footer" in the output dir.)
(end)
%