%
(Header)
(Generated by gcodetools from Inkscape.)
(Using default header. To add your own header create file "header" in the output dir.)
M3
(Header end.)
G21 (All units in mm)

(Start cutting path id: text13454)
(Change tool to Default tool)

G00 Z5.000000
G00 X1.636910 Y26.366680

G01 Z-1.000000 F100.0(Penetrate)
G03 X1.760347 Y25.644970 Z-1.000000 I3.228705 J0.180807 F3500.000000
G03 X1.990389 Y25.150474 Z-1.000000 I1.722900 J0.500744
G03 X2.727577 Y24.547512 Z-1.000000 I1.381246 J0.936598
G03 X4.081304 Y24.275764 Z-1.000000 I1.353727 J3.235962
G03 X4.743592 Y24.327392 Z-1.000000 I0.000000 J4.273716
G03 X5.303501 Y24.467481 Z-1.000000 I-0.499951 J3.187190
G03 X6.100389 Y25.030470 Z-1.000000 I-0.580879 J1.667685
G03 X6.369928 Y25.797519 Z-1.000000 I-0.956656 J0.767049
G03 X6.234252 Y26.444646 Z-1.000000 I-1.611126 J-0.000000
G03 X5.920591 Y26.822008 Z-1.000000 I-0.812630 J-0.356417
G03 X5.440520 Y27.063566 Z-1.000000 I-1.279051 J-1.944159
G03 X4.494694 Y27.343239 Z-1.000000 I-2.691138 J-7.361964
G01 X3.302453 Y27.612841 Z-1.000000
G02 X2.161462 Y27.940870 Z-1.000000 I2.253189 J9.985692
G02 X1.648892 Y28.193984 Z-1.000000 I0.786966 J2.239201
G02 X1.043010 Y28.870799 Z-1.000000 I0.972958 J1.480587
G02 X0.810130 Y29.841554 Z-1.000000 I1.906841 J0.970755
G02 X1.030489 Y30.931602 Z-1.000000 I2.806239 J-0.000000
G02 X1.630919 Y31.788682 Z-1.000000 I2.289689 J-0.965192
G02 X2.540240 Y32.323832 Z-1.000000 I1.676417 J-1.808418
G02 X3.955490 Y32.549559 Z-1.000000 I1.415250 J-4.323757
G02 X5.281218 Y32.363884 Z-1.000000 I0.000000 J-4.825722
G02 X6.304025 Y31.878549 Z-1.000000 I-0.948180 J-3.318630
G02 X6.988963 Y31.062993 Z-1.000000 I-1.122300 J-1.637951
G02 X7.274594 Y29.745695 Z-1.000000 I-2.894802 J-1.317298
G01 X6.154246 Y29.745695 Z-1.000000
G03 X5.993368 Y30.423152 Z-1.000000 I-3.242523 J-0.412185
G03 X5.770812 Y30.830096 Z-1.000000 I-1.367423 J-0.483509
G03 X5.120941 Y31.302766 Z-1.000000 I-1.170492 J-0.926216
G03 X3.919543 Y31.519079 Z-1.000000 I-1.201398 J-3.228104
G03 X2.922596 Y31.376272 Z-1.000000 I-0.000000 J-3.551288
G03 X2.403779 Y31.075733 Z-1.000000 I0.353345 J-1.208060
G03 X2.057425 Y30.583424 Z-1.000000 I1.091922 J-1.136189
G03 X1.942459 Y30.045253 Z-1.000000 I1.202147 J-0.538170
G03 X2.090716 Y29.485443 Z-1.000000 I1.131035 J0.000000
G03 X2.481664 Y29.098650 Z-1.000000 I0.886310 J0.504860
G03 X2.849777 Y28.945593 Z-1.000000 I0.924945 J1.705369
G03 X4.081304 Y28.619357 Z-1.000000 I5.686559 J18.978888
G01 X5.315484 Y28.337772 Z-1.000000
G02 X6.177656 Y28.067006 Z-1.000000 I-1.258624 J-5.515749
G02 X6.693451 Y27.780594 Z-1.000000 I-0.903926 J-2.235517
G02 X7.297347 Y27.044716 Z-1.000000 I-1.143259 J-1.553944
G02 X7.532214 Y25.989237 Z-1.000000 I-2.254201 J-1.055479
G02 X7.223337 Y24.703803 Z-1.000000 I-2.829195 J0.000000
G02 X6.465787 Y23.898321 Z-1.000000 I-1.763156 J0.899260
G02 X5.358526 Y23.439961 Z-1.000000 I-2.146040 J3.617610
G02 X3.997428 Y23.269249 Z-1.000000 I-1.361098 J5.340689
G02 X2.450510 Y23.515275 Z-1.000000 I0.000000 J4.986223
G02 X1.427219 Y24.108012 Z-1.000000 I0.881727 J2.701863
G02 X0.762190 Y25.056476 Z-1.000000 I1.708876 J1.905583
G02 X0.516563 Y26.366680 Z-1.000000 I3.143687 J1.267481
G01 X1.636910 Y26.366680 Z-1.000000
G00 Z5.000000

(End cutting path id: text13454)


(Start cutting path id: text13454)
(Change tool to Default tool)

G00 Z5.000000
G00 X4.045357 Y32.567533

G01 Z-1.000000 F100.0(Penetrate)
G01 X4.045357 Y32.567533 Z-1.000000 F3500.000000
G00 Z5.000000

(End cutting path id: text13454)


(Start cutting path id: text13454)
(Change tool to Default tool)

G00 Z5.000000
G00 X9.012031 Y32.327886

G01 Z-1.000000 F100.0(Penetrate)
G01 X10.719512 Y32.327886 Z-1.000000 F3500.000000
G01 X13.247782 Y24.886863 Z-1.000000
G01 X15.758079 Y32.327886 Z-1.000000
G01 X17.447587 Y32.327886 Z-1.000000
G01 X17.447587 Y23.526869 Z-1.000000
G01 X16.315257 Y23.526869 Z-1.000000
G01 X16.315257 Y28.721207 Z-1.000000
G02 X16.317066 Y28.990792 Z-1.000000 I20.089755 J0.000000
G02 X16.327237 Y29.613890 Z-1.000000 I107.338311 J-1.440504
G03 X16.336021 Y30.237001 Z-1.000000 I-60.738738 J1.167827
G03 X16.339217 Y30.949919 Z-1.000000 I-79.505717 J0.712918
G01 X13.828920 Y23.526869 Z-1.000000
G01 X12.648661 Y23.526869 Z-1.000000
G01 X10.120391 Y30.949919 Z-1.000000
G01 X10.120391 Y30.680317 Z-1.000000
G03 X10.122351 Y30.356811 Z-1.000000 I26.696309 J0.000000
G03 X10.132371 Y29.691775 Z-1.000000 I112.831529 J1.367390
G02 X10.147458 Y29.032708 Z-1.000000 I-75.332388 J-2.054121
G02 X10.150341 Y28.721207 Z-1.000000 I-16.824296 J-0.311501
G01 X10.150341 Y23.526869 Z-1.000000
G01 X9.012031 Y23.526869 Z-1.000000
G01 X9.012031 Y32.327886 Z-1.000000
G00 Z5.000000

(End cutting path id: text13454)


(Start cutting path id: text13454)
(Change tool to Default tool)

G00 Z5.000000
G00 X19.376741 Y32.327886

G01 Z-1.000000 F100.0(Penetrate)
G01 X25.793276 Y32.327886 Z-1.000000 F3500.000000
G01 X25.793276 Y31.249477 Z-1.000000
G01 X20.539026 Y31.249477 Z-1.000000
G01 X20.539026 Y28.577419 Z-1.000000
G01 X25.397859 Y28.577419 Z-1.000000
G01 X25.397859 Y27.558921 Z-1.000000
G01 X20.539026 Y27.558921 Z-1.000000
G01 X20.539026 Y24.575322 Z-1.000000
G01 X25.883143 Y24.575322 Z-1.000000
G01 X25.883143 Y23.526869 Z-1.000000
G01 X19.376741 Y23.526869 Z-1.000000
G01 X19.376741 Y32.327886 Z-1.000000
G00 Z5.000000

(End cutting path id: text13454)


(Start cutting path id: text13454)
(Change tool to Default tool)

G00 Z5.000000
G00 X22.629942 Y32.327886

G01 Z-1.000000 F100.0(Penetrate)
G01 X22.629942 Y32.327886 Z-1.000000 F3500.000000
G00 Z5.000000

(End cutting path id: text13454)


(Start cutting path id: text13454)
(Change tool to Default tool)

G00 Z5.000000
G00 X27.446836 Y32.327886

G01 Z-1.000000 F100.0(Penetrate)
G01 X28.639078 Y32.327886 Z-1.000000 F3500.000000
G01 X28.639078 Y24.575322 Z-1.000000
G01 X33.096502 Y24.575322 Z-1.000000
G01 X33.096502 Y23.526869 Z-1.000000
G01 X27.446836 Y23.526869 Z-1.000000
G01 X27.446836 Y32.327886 Z-1.000000
G00 Z5.000000

(End cutting path id: text13454)


(Start cutting path id: text13454)
(Change tool to Default tool)

G00 Z5.000000
G00 X34.270771 Y32.327886

G01 Z-1.000000 F100.0(Penetrate)
G01 X35.463012 Y32.327886 Z-1.000000 F3500.000000
G01 X35.463012 Y24.575322 Z-1.000000
G01 X39.920437 Y24.575322 Z-1.000000
G01 X39.920437 Y23.526869 Z-1.000000
G01 X34.270771 Y23.526869 Z-1.000000
G01 X34.270771 Y32.327886 Z-1.000000
G00 Z5.000000

(End cutting path id: text13454)


(Footer)
M5
G00 X0.0000 Y0.0000
M2
(Using default footer. To add your own footer create file "footer" in the output dir.)
(end)
%