%
(Header)
(Generated by gcodetools from Inkscape.)
(Using default header. To add your own header create file "header" in the output dir.)
M3
(Header end.)
G21 (All units in mm)

(Start cutting path id: text183159)
(Change tool to Default tool)

G00 Z 5.0000
G00 X 2.0511 Y 34.7138

G01 Z -1.0000 F 100.0000(Penetrate)
G03 X 2.3618 Y 34.7348 Z -1.0000 I -0.0000 J 2.3123 F 3500.0000
G03 X 2.5614 Y 34.7830 Z -1.0000 I -0.1352 J 0.9969
G03 X 2.8357 Y 34.9845 Z -1.0000 I -0.1992 J 0.5587
G03 X 2.9334 Y 35.2761 Z -1.0000 I -0.3865 J 0.2916
G03 X 2.8850 Y 35.4598 Z -1.0000 I -0.3727 J -0.0000
G03 X 2.7488 Y 35.6019 Z -1.0000 I -0.3483 J -0.1972
G03 X 2.5556 Y 35.6927 Z -1.0000 I -0.5139 J -0.8433
G03 X 2.1693 Y 35.8009 Z -1.0000 I -1.1323 J -3.2984
G01 X 1.7195 Y 35.9018 Z -1.0000
G02 X 1.0727 Y 36.0891 Z -1.0000 I 1.2476 J 5.5184
G02 X 0.8026 Y 36.2276 Z -1.0000 I 0.3852 J 1.0839
G02 X 0.4973 Y 36.5873 Z -1.0000 I 0.5054 J 0.7383
G02 X 0.3730 Y 37.1474 Z -1.0000 I 1.1992 J 0.5601
G02 X 0.4823 Y 37.6700 Z -1.0000 I 1.3032 J 0.0000
G02 X 0.7882 Y 38.0960 Z -1.0000 I 1.1523 J -0.5043
G02 X 1.2478 Y 38.3588 Z -1.0000 I 0.8203 J -0.9017
G02 X 2.0078 Y 38.4738 Z -1.0000 I 0.7600 J -2.4540
G02 X 2.6469 Y 38.3763 Z -1.0000 I 0.0000 J -2.1437
G02 X 3.1525 Y 38.1162 Z -1.0000 I -0.4943 J -1.5824
G02 X 3.5005 Y 37.6947 Z -1.0000 I -0.6871 J -0.9217
G02 X 3.6513 Y 37.0840 Z -1.0000 I -1.3711 J -0.6625
G01 X 2.7979 Y 37.0840 Z -1.0000
G03 X 2.6936 Y 37.4147 Z -1.0000 I -0.7130 J -0.0429
G03 X 2.4634 Y 37.6289 Z -1.0000 I -0.5006 J -0.3073
G03 X 2.2483 Y 37.7048 Z -1.0000 I -0.3860 J -0.7511
G03 X 1.9473 Y 37.7356 Z -1.0000 I -0.3011 J -1.4565
G03 X 1.6167 Y 37.6945 Z -1.0000 I 0.0000 J -1.3495
G03 X 1.3994 Y 37.5972 Z -1.0000 I 0.1689 J -0.6686
G03 X 1.2492 Y 37.4299 Z -1.0000 I 0.2601 J -0.3848
G03 X 1.1947 Y 37.2108 Z -1.0000 I 0.4134 J -0.2191
G03 X 1.2485 Y 37.0147 Z -1.0000 I 0.3845 J 0.0000
G03 X 1.3965 Y 36.8706 Z -1.0000 I 0.3410 J 0.2023
G03 X 1.5323 Y 36.8107 Z -1.0000 I 0.3439 J 0.5951
G03 X 1.9502 Y 36.6947 Z -1.0000 I 1.7777 J 5.5954
G01 X 2.6825 Y 36.5188 Z -1.0000
G02 X 3.1459 Y 36.3661 Z -1.0000 I -0.6836 J -2.8541
G02 X 3.4091 Y 36.2103 Z -1.0000 I -0.4507 J -1.0616
G02 X 3.6817 Y 35.8580 Z -1.0000 I -0.5680 J -0.7209
G02 X 3.7897 Y 35.3424 Z -1.0000 I -1.1757 J -0.5156
G02 X 3.6735 Y 34.8131 Z -1.0000 I -1.2636 J 0.0000
G02 X 3.3428 Y 34.3736 Z -1.0000 I -1.1821 J 0.5453
G02 X 2.8560 Y 34.1050 Z -1.0000 I -0.8793 J 1.0181
G02 X 2.0857 Y 33.9901 Z -1.0000 I -0.7704 J 2.5254
G02 X 1.2944 Y 34.1022 Z -1.0000 I -0.0000 J 2.8485
G02 X 0.7795 Y 34.3678 Z -1.0000 I 0.4158 J 1.4378
G02 X 0.4342 Y 34.8111 Z -1.0000 I 0.7563 J 0.9454
G02 X 0.3038 Y 35.4116 Z -1.0000 I 1.3175 J 0.6005
G01 X 1.1515 Y 35.4116 Z -1.0000
G03 X 1.2207 Y 35.1330 Z -1.0000 I 1.3465 J 0.1866
G03 X 1.3100 Y 34.9762 Z -1.0000 I 0.5048 J 0.1839
G03 X 1.5656 Y 34.7972 Z -1.0000 I 0.4504 J 0.3712
G03 X 2.0511 Y 34.7138 Z -1.0000 I 0.4854 J 1.3709
G01 X 2.0511 Y 34.7138 Z -1.0000
G00 Z 5.0000

(End cutting path id: text183159)


(Start cutting path id: text183159)
(Change tool to Default tool)

G00 Z 5.0000
G00 X 7.8841 Y 34.0997

G01 Z -1.0000 F 100.0000(Penetrate)
G01 X 6.9960 Y 34.0997 Z -1.0000 F 3500.0000
G01 X 5.2603 Y 37.1186 Z -1.0000
G01 X 5.2603 Y 34.0997 Z -1.0000
G01 X 4.4327 Y 34.0997 Z -1.0000
G01 X 4.4327 Y 38.3498 Z -1.0000
G01 X 5.3641 Y 38.3498 Z -1.0000
G01 X 7.0566 Y 35.3828 Z -1.0000
G01 X 7.0566 Y 38.3498 Z -1.0000
G01 X 7.8841 Y 38.3498 Z -1.0000
G01 X 7.8841 Y 34.0997 Z -1.0000
G00 Z 5.0000

(End cutting path id: text183159)


(Start cutting path id: text183159)
(Change tool to Default tool)

G00 Z 5.0000
G00 X 10.5916 Y 33.9815

G01 Z -1.0000 F 100.0000(Penetrate)
G02 X 9.7425 Y 34.1281 Z -1.0000 I -0.0000 J 2.5311 F 3500.0000
G02 X 9.1989 Y 34.4774 Z -1.0000 I 0.4774 J 1.3405
G02 X 8.7426 Y 35.1677 Z -1.0000 I 1.2383 J 1.3146
G02 X 8.5531 Y 36.2305 Z -1.0000 I 2.8849 J 1.0628
G02 X 8.7461 Y 37.3127 Z -1.0000 I 3.1304 J 0.0000
G02 X 9.1989 Y 37.9836 Z -1.0000 I 1.5926 J -0.5867
G02 X 9.7425 Y 38.3328 Z -1.0000 I 1.0209 J -0.9912
G02 X 10.5916 Y 38.4795 Z -1.0000 I 0.8491 J -2.3844
G02 X 11.4407 Y 38.3328 Z -1.0000 I 0.0000 J -2.5311
G02 X 11.9843 Y 37.9836 Z -1.0000 I -0.4774 J -1.3405
G02 X 12.4349 Y 37.3133 Z -1.0000 I -1.1419 J -1.2545
G02 X 12.6273 Y 36.2305 Z -1.0000 I -2.9521 J -1.0828
G02 X 12.4384 Y 35.1671 Z -1.0000 I -3.0882 J -0.0000
G02 X 11.9843 Y 34.4774 Z -1.0000 I -1.6949 J 0.6217
G02 X 11.4407 Y 34.1281 Z -1.0000 I -1.0209 J 0.9912
G02 X 10.5916 Y 33.9815 Z -1.0000 I -0.8491 J 2.3844
G01 X 10.5916 Y 33.9815 Z -1.0000
G00 Z 5.0000

(End cutting path id: text183159)


(Start cutting path id: text183159)
(Change tool to Default tool)

G00 Z 5.0000
G00 X 11.4307 Y 35.1233

G01 Z -1.0000 F 100.0000(Penetrate)
G03 X 11.6455 Y 35.5452 Z -1.0000 I -0.9373 J 0.7429 F 3500.0000
G03 X 11.7392 Y 36.2305 Z -1.0000 I -2.4595 J 0.6853
G03 X 11.6449 Y 36.9125 Z -1.0000 I -2.5129 J -0.0000
G03 X 11.4278 Y 37.3348 Z -1.0000 I -1.1506 J -0.3244
G03 X 11.0677 Y 37.6209 Z -1.0000 I -0.7831 J -0.6161
G03 X 10.5916 Y 37.7270 Z -1.0000 I -0.4761 J -1.0153
G03 X 10.1141 Y 37.6219 Z -1.0000 I 0.0000 J -1.1378
G03 X 9.7497 Y 37.3377 Z -1.0000 I 0.4268 J -0.9231
G03 X 9.5306 Y 36.9148 Z -1.0000 I 0.9265 J -0.7481
G03 X 9.4354 Y 36.2305 Z -1.0000 I 2.4108 J -0.6843
G03 X 9.5306 Y 35.5462 Z -1.0000 I 2.5060 J 0.0000
G03 X 9.7497 Y 35.1233 Z -1.0000 I 1.1456 J 0.3252
G03 X 10.1141 Y 34.8391 Z -1.0000 I 0.7912 J 0.6389
G03 X 10.5916 Y 34.7340 Z -1.0000 I 0.4775 J 1.0327
G03 X 11.0687 Y 34.8393 Z -1.0000 I 0.0000 J 1.1336
G03 X 11.4307 Y 35.1233 Z -1.0000 I -0.4231 J 0.9121
G01 X 11.4307 Y 35.1233 Z -1.0000
G00 Z 5.0000

(End cutting path id: text183159)


(Start cutting path id: text183159)
(Change tool to Default tool)

G00 Z 5.0000
G00 X 17.4396 Y 38.3498

G01 Z -1.0000 F 100.0000(Penetrate)
G01 X 18.3421 Y 38.3498 Z -1.0000 F 3500.0000
G01 X 17.1455 Y 34.0997 Z -1.0000
G01 X 16.2978 Y 34.0997 Z -1.0000
G01 X 15.7845 Y 36.5851 Z -1.0000
G01 X 15.6346 Y 37.4069 Z -1.0000
G01 X 15.4847 Y 36.5851 Z -1.0000
G01 X 14.9714 Y 34.0997 Z -1.0000
G01 X 14.1468 Y 34.0997 Z -1.0000
G01 X 12.9415 Y 38.3498 Z -1.0000
G01 X 13.8844 Y 38.3498 Z -1.0000
G01 X 14.4467 Y 35.9162 Z -1.0000
G01 X 14.5678 Y 35.2386 Z -1.0000
G01 X 14.6917 Y 35.9018 Z -1.0000
G01 X 15.1704 Y 38.3498 Z -1.0000
G01 X 16.1075 Y 38.3498 Z -1.0000
G01 X 16.6121 Y 35.9162 Z -1.0000
G01 X 16.7418 Y 35.2386 Z -1.0000
G01 X 16.8716 Y 35.8903 Z -1.0000
G01 X 17.4396 Y 38.3498 Z -1.0000
G00 Z 5.0000

(End cutting path id: text183159)


(Start cutting path id: text183159)
(Change tool to Default tool)

G00 Z 5.0000
G00 X 21.2399 Y 36.7812

G01 Z -1.0000 F 100.0000(Penetrate)
G03 X 21.3602 Y 36.9149 Z -1.0000 I -0.1578 J 0.2630 F 3500.0000
G03 X 21.4129 Y 37.1532 Z -1.0000 I -0.5124 J 0.2383
G03 X 21.3445 Y 37.4044 Z -1.0000 I -0.4955 J 0.0000
G03 X 21.1822 Y 37.5453 Z -1.0000 I -0.2910 J -0.1712
G03 X 20.9800 Y 37.5918 Z -1.0000 I -0.3425 J -1.0276
G03 X 20.6747 Y 37.6116 Z -1.0000 I -0.3053 J -2.3362
G01 X 19.7405 Y 37.6116 Z -1.0000
G01 X 19.7405 Y 36.6745 Z -1.0000
G01 X 20.7843 Y 36.6745 Z -1.0000
G03 X 21.0552 Y 36.7058 Z -1.0000 I -0.0000 J 1.1883
G03 X 21.2399 Y 36.7812 Z -1.0000 I -0.1449 J 0.6186
G01 X 21.2399 Y 36.7812 Z -1.0000
G00 Z 5.0000

(End cutting path id: text183159)


(Start cutting path id: text183159)
(Change tool to Default tool)

G00 Z 5.0000
G00 X 20.7987 Y 35.9710

G01 Z -1.0000 F 100.0000(Penetrate)
G01 X 19.7405 Y 35.9710 Z -1.0000 F 3500.0000
G01 X 19.7405 Y 34.8378 Z -1.0000
G01 X 20.7843 Y 34.8378 Z -1.0000
G03 X 21.0586 Y 34.8613 Z -1.0000 I -0.0000 J 1.6167
G03 X 21.2197 Y 34.9128 Z -1.0000 I -0.1035 J 0.6009
G03 X 21.4175 Y 35.1040 Z -1.0000 I -0.1966 J 0.4013
G03 X 21.5023 Y 35.4433 Z -1.0000 I -0.6370 J 0.3393
G03 X 21.4242 Y 35.7246 Z -1.0000 I -0.5458 J 0.0000
G03 X 21.2283 Y 35.8989 Z -1.0000 I -0.3775 J -0.2270
G03 X 21.0708 Y 35.9469 Z -1.0000 I -0.2630 J -0.5808
G03 X 20.7987 Y 35.9710 Z -1.0000 I -0.2904 J -1.7307
G01 X 20.7987 Y 35.9710 Z -1.0000
G00 Z 5.0000

(End cutting path id: text183159)


(Start cutting path id: text183159)
(Change tool to Default tool)

G00 Z 5.0000
G00 X 20.8189 Y 34.0997

G01 Z -1.0000 F 100.0000(Penetrate)
G01 X 18.8928 Y 34.0997 Z -1.0000 F 3500.0000
G01 X 18.8928 Y 38.3498 Z -1.0000
G01 X 20.9573 Y 38.3498 Z -1.0000
G02 X 21.6698 Y 38.2043 Z -1.0000 I -0.0289 J -1.9590
G02 X 22.0645 Y 37.8971 Z -1.0000 I -0.3507 J -0.8576
G02 X 22.2073 Y 37.6088 Z -1.0000 I -0.7869 J -0.5693
G02 X 22.2606 Y 37.2483 Z -1.0000 I -1.1927 J -0.3605
G02 X 22.2041 Y 36.8794 Z -1.0000 I -1.2337 J -0.0000
G02 X 22.0645 Y 36.6226 Z -1.0000 I -0.7222 J 0.2263
G02 X 21.9422 Y 36.5059 Z -1.0000 I -0.5518 J 0.4558
G02 X 21.7416 Y 36.3804 Z -1.0000 I -0.8405 J 1.1206
G02 X 22.0340 Y 36.2205 Z -1.0000 I -0.3745 J -1.0321
G02 X 22.2317 Y 36.0056 Z -1.0000 I -0.5118 J -0.6693
G02 X 22.3525 Y 35.7352 Z -1.0000 I -0.7904 J -0.5151
G02 X 22.3990 Y 35.3828 Z -1.0000 I -1.3123 J -0.3524
G02 X 22.3489 Y 35.0196 Z -1.0000 I -1.3432 J 0.0000
G02 X 22.2087 Y 34.7052 Z -1.0000 I -1.1404 J 0.3203
G02 X 22.0712 Y 34.5211 Z -1.0000 I -1.0405 J 0.6334
G02 X 21.9059 Y 34.3707 Z -1.0000 I -0.8546 J 0.7736
G02 X 21.6886 Y 34.2427 Z -1.0000 I -0.6503 J 0.8551
G02 X 21.4215 Y 34.1574 Z -1.0000 I -0.5353 J 1.2152
G02 X 21.1431 Y 34.1152 Z -1.0000 I -0.5224 J 2.5074
G02 X 20.8189 Y 34.0997 Z -1.0000 I -0.3242 J 3.3882
G01 X 20.8189 Y 34.0997 Z -1.0000
G00 Z 5.0000

(End cutting path id: text183159)


(Start cutting path id: text183159)
(Change tool to Default tool)

G00 Z 5.0000
G00 X 25.0228 Y 33.9815

G01 Z -1.0000 F 100.0000(Penetrate)
G02 X 24.1737 Y 34.1281 Z -1.0000 I -0.0000 J 2.5311 F 3500.0000
G02 X 23.6302 Y 34.4774 Z -1.0000 I 0.4774 J 1.3405
G02 X 23.1739 Y 35.1677 Z -1.0000 I 1.2383 J 1.3146
G02 X 22.9843 Y 36.2305 Z -1.0000 I 2.8849 J 1.0628
G02 X 23.1773 Y 37.3127 Z -1.0000 I 3.1304 J 0.0000
G02 X 23.6302 Y 37.9836 Z -1.0000 I 1.5926 J -0.5867
G02 X 24.1737 Y 38.3328 Z -1.0000 I 1.0209 J -0.9912
G02 X 25.0228 Y 38.4795 Z -1.0000 I 0.8491 J -2.3844
G02 X 25.8720 Y 38.3328 Z -1.0000 I 0.0000 J -2.5311
G02 X 26.4155 Y 37.9836 Z -1.0000 I -0.4774 J -1.3405
G02 X 26.8662 Y 37.3133 Z -1.0000 I -1.1419 J -1.2545
G02 X 27.0585 Y 36.2305 Z -1.0000 I -2.9521 J -1.0828
G02 X 26.8696 Y 35.1671 Z -1.0000 I -3.0882 J -0.0000
G02 X 26.4155 Y 34.4774 Z -1.0000 I -1.6949 J 0.6217
G02 X 25.8720 Y 34.1281 Z -1.0000 I -1.0209 J 0.9912
G02 X 25.0228 Y 33.9815 Z -1.0000 I -0.8491 J 2.3844
G01 X 25.0228 Y 33.9815 Z -1.0000
G00 Z 5.0000

(End cutting path id: text183159)


(Start cutting path id: text183159)
(Change tool to Default tool)

G00 Z 5.0000
G00 X 25.8619 Y 35.1233

G01 Z -1.0000 F 100.0000(Penetrate)
G03 X 26.0767 Y 35.5452 Z -1.0000 I -0.9373 J 0.7429 F 3500.0000
G03 X 26.1704 Y 36.2305 Z -1.0000 I -2.4595 J 0.6853
G03 X 26.0761 Y 36.9125 Z -1.0000 I -2.5129 J -0.0000
G03 X 25.8590 Y 37.3348 Z -1.0000 I -1.1506 J -0.3244
G03 X 25.4990 Y 37.6209 Z -1.0000 I -0.7831 J -0.6161
G03 X 25.0228 Y 37.7270 Z -1.0000 I -0.4761 J -1.0153
G03 X 24.5454 Y 37.6219 Z -1.0000 I -0.0000 J -1.1378
G03 X 24.1809 Y 37.3377 Z -1.0000 I 0.4268 J -0.9231
G03 X 23.9619 Y 36.9148 Z -1.0000 I 0.9265 J -0.7481
G03 X 23.8666 Y 36.2305 Z -1.0000 I 2.4108 J -0.6843
G03 X 23.9619 Y 35.5462 Z -1.0000 I 2.5060 J -0.0000
G03 X 24.1809 Y 35.1233 Z -1.0000 I 1.1456 J 0.3252
G03 X 24.5454 Y 34.8391 Z -1.0000 I 0.7912 J 0.6389
G03 X 25.0228 Y 34.7340 Z -1.0000 I 0.4775 J 1.0327
G03 X 25.4999 Y 34.8393 Z -1.0000 I 0.0000 J 1.1336
G03 X 25.8619 Y 35.1233 Z -1.0000 I -0.4231 J 0.9121
G01 X 25.8619 Y 35.1233 Z -1.0000
G00 Z 5.0000

(End cutting path id: text183159)


(Start cutting path id: text183159)
(Change tool to Default tool)

G00 Z 5.0000
G00 X 29.9765 Y 35.7057

G01 Z -1.0000 F 100.0000(Penetrate)
G01 X 29.4459 Y 37.3781 Z -1.0000 F 3500.0000
G01 X 28.8981 Y 35.7057 Z -1.0000
G01 X 29.9765 Y 35.7057 Z -1.0000
G00 Z 5.0000

(End cutting path id: text183159)


(Start cutting path id: text183159)
(Change tool to Default tool)

G00 Z 5.0000
G00 X 30.2244 Y 34.9733

G01 Z -1.0000 F 100.0000(Penetrate)
G01 X 28.6588 Y 34.9733 Z -1.0000 F 3500.0000
G01 X 28.3647 Y 34.0997 Z -1.0000
G01 X 27.4362 Y 34.0997 Z -1.0000
G01 X 28.9529 Y 38.3498 Z -1.0000
G01 X 29.9563 Y 38.3498 Z -1.0000
G01 X 31.4614 Y 34.0997 Z -1.0000
G01 X 30.4983 Y 34.0997 Z -1.0000
G01 X 30.2244 Y 34.9733 Z -1.0000
G00 Z 5.0000

(End cutting path id: text183159)


(Start cutting path id: text183159)
(Change tool to Default tool)

G00 Z 5.0000
G00 X 33.8056 Y 35.7663

G01 Z -1.0000 F 100.0000(Penetrate)
G01 X 32.8887 Y 35.7663 Z -1.0000 F 3500.0000
G01 X 32.8887 Y 34.0997 Z -1.0000
G01 X 32.0208 Y 34.0997 Z -1.0000
G01 X 32.0208 Y 38.3498 Z -1.0000
G01 X 34.1054 Y 38.3498 Z -1.0000
G02 X 34.5459 Y 38.3105 Z -1.0000 I -0.0616 J -3.1836
G02 X 34.7917 Y 38.2402 Z -1.0000 I -0.1679 J -1.0513
G02 X 35.0158 Y 38.1145 Z -1.0000 I -0.4256 J -1.0215
G02 X 35.2011 Y 37.9432 Z -1.0000 I -0.6264 J -0.8636
G02 X 35.3251 Y 37.7729 Z -1.0000 I -1.0084 J -0.8643
G02 X 35.4202 Y 37.5857 Z -1.0000 I -1.1257 J -0.6899
G02 X 35.4789 Y 37.3852 Z -1.0000 I -0.9130 J -0.3760
G02 X 35.5010 Y 37.1388 Z -1.0000 I -1.3644 J -0.2465
G02 X 35.4640 Y 36.8450 Z -1.0000 I -1.1841 J 0.0000
G02 X 35.3482 Y 36.5419 Z -1.0000 I -1.3785 J 0.3529
G02 X 35.1518 Y 36.3013 Z -1.0000 I -0.6878 J 0.3609
G02 X 34.8436 Y 36.1296 Z -1.0000 I -0.6349 J 0.7769
G02 X 35.1057 Y 35.9752 Z -1.0000 I -0.3795 J -0.9440
G02 X 35.2588 Y 35.7922 Z -1.0000 I -0.3946 J -0.4856
G02 X 35.3423 Y 35.5652 Z -1.0000 I -0.6280 J -0.3600
G02 X 35.3828 Y 35.1290 Z -1.0000 I -2.3329 J -0.4362
G01 X 35.3828 Y 34.8436 Z -1.0000
G03 X 35.3912 Y 34.5533 Z -1.0000 I 4.9790 J -0.0000
G03 X 35.4058 Y 34.4486 Z -1.0000 I 0.6590 J 0.0385
G03 X 35.4670 Y 34.3030 Z -1.0000 I 0.4087 J 0.0860
G03 X 35.5673 Y 34.2064 Z -1.0000 I 0.2700 J 0.1800
G01 X 35.5673 Y 34.0997 Z -1.0000
G01 X 34.5898 Y 34.0997 Z -1.0000
G02 X 34.5516 Y 34.2415 Z -1.0000 I 4.6538 J 1.3296
G02 X 34.5322 Y 34.3275 Z -1.0000 I 1.6904 J 0.4279
G02 X 34.5057 Y 34.5071 Z -1.0000 I 1.9995 J 0.3870
G02 X 34.4947 Y 34.6937 Z -1.0000 I 2.1472 J 0.2198
G01 X 34.4889 Y 35.0887 Z -1.0000
G03 X 34.4339 Y 35.4735 Z -1.0000 I -1.5245 J -0.0216
G03 X 34.3390 Y 35.6308 Z -1.0000 I -0.3280 J -0.0907
G03 X 34.1789 Y 35.7196 Z -1.0000 I -0.2484 J -0.2590
G03 X 33.8056 Y 35.7663 Z -1.0000 I -0.3734 J -1.4696
G01 X 33.8056 Y 35.7663 Z -1.0000
G00 Z 5.0000

(End cutting path id: text183159)


(Start cutting path id: text183159)
(Change tool to Default tool)

G00 Z 5.0000
G00 X 34.3448 Y 36.5390

G01 Z -1.0000 F 100.0000(Penetrate)
G03 X 34.5307 Y 36.7111 Z -1.0000 I -0.1681 J 0.3683 F 3500.0000
G03 X 34.6100 Y 37.0177 Z -1.0000 I -0.5532 J 0.3066
G03 X 34.5310 Y 37.3559 Z -1.0000 I -0.7631 J 0.0000
G03 X 34.3534 Y 37.5367 Z -1.0000 I -0.3640 J -0.1800
G03 X 34.2033 Y 37.5873 Z -1.0000 I -0.2383 J -0.4583
G03 X 33.9209 Y 37.6116 Z -1.0000 I -0.2824 J -1.6292
G01 X 32.8887 Y 37.6116 Z -1.0000
G01 X 32.8887 Y 36.4698 Z -1.0000
G01 X 33.8949 Y 36.4698 Z -1.0000
G03 X 34.1899 Y 36.4924 Z -1.0000 I -0.0000 J 1.9395
G03 X 34.3448 Y 36.5390 Z -1.0000 I -0.0882 J 0.5734
G01 X 34.3448 Y 36.5390 Z -1.0000
G00 Z 5.0000

(End cutting path id: text183159)


(Start cutting path id: text183159)
(Change tool to Default tool)

G00 Z 5.0000
G00 X 38.7563 Y 37.2656

G01 Z -1.0000 F 100.0000(Penetrate)
G03 X 38.4883 Y 37.5007 Z -1.0000 I -0.4929 J -0.2916 F 3500.0000
G03 X 37.9461 Y 37.6116 Z -1.0000 I -0.5422 J -1.2698
G01 X 37.1272 Y 37.6116 Z -1.0000
G01 X 37.1272 Y 34.8378 Z -1.0000
G01 X 37.9461 Y 34.8378 Z -1.0000
G03 X 38.4633 Y 35.0023 Z -1.0000 I 0.0000 J 0.8958
G03 X 38.8226 Y 35.4578 Z -1.0000 I -0.5910 J 0.8356
G03 X 38.9197 Y 35.8054 Z -1.0000 I -1.5748 J 0.6272
G03 X 38.9581 Y 36.2680 Z -1.0000 I -2.7659 J 0.4626
G03 X 38.8949 Y 36.8998 Z -1.0000 I -3.1860 J 0.0000
G03 X 38.7563 Y 37.2656 Z -1.0000 I -1.1856 J -0.2399
G01 X 38.7563 Y 37.2656 Z -1.0000
G00 Z 5.0000

(End cutting path id: text183159)


(Start cutting path id: text183159)
(Change tool to Default tool)

G00 Z 5.0000
G00 X 38.0960 Y 34.0997

G01 Z -1.0000 F 100.0000(Penetrate)
G01 X 36.2651 Y 34.0997 Z -1.0000 F 3500.0000
G01 X 36.2651 Y 38.3498 Z -1.0000
G01 X 38.0960 Y 38.3498 Z -1.0000
G02 X 38.4869 Y 38.3196 Z -1.0000 I -0.0459 J -3.1425
G02 X 38.7534 Y 38.2575 Z -1.0000 I -0.2128 J -1.5158
G02 X 39.1549 Y 38.0490 Z -1.0000 I -0.4404 J -1.3385
G02 X 39.4771 Y 37.7183 Z -1.0000 I -0.8771 J -1.1773
G02 X 39.6644 Y 37.3859 Z -1.0000 I -1.6035 J -1.1224
G02 X 39.7799 Y 37.0321 Z -1.0000 I -1.7044 J -0.7519
G02 X 39.8416 Y 36.6609 Z -1.0000 I -3.6369 J -0.7955
G02 X 39.8606 Y 36.3285 Z -1.0000 I -2.8969 J -0.3324
G02 X 39.7646 Y 35.5066 Z -1.0000 I -3.5649 J 0.0000
G02 X 39.5204 Y 34.8926 Z -1.0000 I -2.2116 J 0.5240
G02 X 38.9339 Y 34.3172 Z -1.0000 I -1.3411 J 0.7803
G02 X 38.0960 Y 34.0997 Z -1.0000 I -0.8379 J 1.5053
G01 X 38.0960 Y 34.0997 Z -1.0000
G00 Z 5.0000

(End cutting path id: text183159)



(Footer)
M5
G00 X0.0000 Y0.0000
M2
(Using default footer. To add your own footer create file "footer" in the output dir.)
(end)
%