%
(Header)
(Generated by gcodetools from Inkscape.)
(Using default header. To add your own header create file "header" in the output dir.)
M3
(Header end.)
G21 (All units in mm)

(Start cutting path id: text187790)
(Change tool to Default tool)

G00 Z 5.0000
G00 X 3.6963 Y 1.5865

G01 Z -1.0000 F 100.0000(Penetrate)
G03 X 4.2895 Y 1.6265 Z -1.0000 I -0.0000 J 4.4147 F 3500.0000
G03 X 4.6707 Y 1.7186 Z -1.0000 I -0.2581 J 1.9033
G03 X 5.1944 Y 2.1033 Z -1.0000 I -0.3804 J 1.0667
G03 X 5.3808 Y 2.6599 Z -1.0000 I -0.7379 J 0.5567
G03 X 5.2884 Y 3.0106 Z -1.0000 I -0.7115 J 0.0000
G03 X 5.0285 Y 3.2820 Z -1.0000 I -0.6649 J -0.3766
G03 X 4.6596 Y 3.4552 Z -1.0000 I -0.9811 J -1.6100
G03 X 3.9220 Y 3.6618 Z -1.0000 I -2.1617 J -6.2972
G01 X 3.0633 Y 3.8545 Z -1.0000
G02 X 1.8285 Y 4.2121 Z -1.0000 I 2.3819 J 10.5355
G02 X 1.3127 Y 4.4765 Z -1.0000 I 0.7353 J 2.0694
G02 X 0.7299 Y 5.1632 Z -1.0000 I 0.9650 J 1.4096
G02 X 0.4925 Y 6.2326 Z -1.0000 I 2.2894 J 1.0694
G02 X 0.7013 Y 7.2302 Z -1.0000 I 2.4881 J 0.0000
G02 X 1.2852 Y 8.0437 Z -1.0000 I 2.1999 J -0.9629
G02 X 2.1628 Y 8.5453 Z -1.0000 I 1.5661 J -1.7215
G02 X 3.6137 Y 8.7648 Z -1.0000 I 1.4509 J -4.6851
G02 X 4.8339 Y 8.5787 Z -1.0000 I -0.0000 J -4.0927
G02 X 5.7992 Y 8.0822 Z -1.0000 I -0.9436 J -3.0211
G02 X 6.4636 Y 7.2775 Z -1.0000 I -1.3118 J -1.7597
G02 X 6.7515 Y 6.1115 Z -1.0000 I -2.6176 J -1.2649
G01 X 5.1221 Y 6.1115 Z -1.0000
G03 X 4.9231 Y 6.7429 Z -1.0000 I -1.3612 J -0.0819
G03 X 4.4835 Y 7.1519 Z -1.0000 I -0.9558 J -0.5866
G03 X 4.0729 Y 7.2968 Z -1.0000 I -0.7369 J -1.4341
G03 X 3.4981 Y 7.3556 Z -1.0000 I -0.5748 J -2.7808
G03 X 2.8671 Y 7.2771 Z -1.0000 I -0.0000 J -2.5763
G03 X 2.4522 Y 7.0913 Z -1.0000 I 0.3225 J -1.2764
G03 X 2.1653 Y 6.7719 Z -1.0000 I 0.4966 J -0.7346
G03 X 2.0614 Y 6.3537 Z -1.0000 I 0.7893 J -0.4182
G03 X 2.1641 Y 5.9792 Z -1.0000 I 0.7341 J -0.0000
G03 X 2.4467 Y 5.7041 Z -1.0000 I 0.6510 J 0.3862
G03 X 2.7059 Y 5.5897 Z -1.0000 I 0.6565 J 1.1362
G03 X 3.5037 Y 5.3683 Z -1.0000 I 3.3940 J 10.6828
G01 X 4.9019 Y 5.0325 Z -1.0000
G02 X 5.7866 Y 4.7410 Z -1.0000 I -1.3052 J -5.4490
G02 X 6.2891 Y 4.4435 Z -1.0000 I -0.8605 J -2.0267
G02 X 6.8094 Y 3.7709 Z -1.0000 I -1.0844 J -1.3763
G02 X 7.0157 Y 2.7865 Z -1.0000 I -2.2446 J -0.9843
G02 X 6.7939 Y 1.7760 Z -1.0000 I -2.4124 J -0.0000
G02 X 6.1625 Y 0.9369 Z -1.0000 I -2.2569 J 1.0411
G02 X 5.2331 Y 0.4241 Z -1.0000 I -1.6787 J 1.9438
G02 X 3.7624 Y 0.2048 Z -1.0000 I -1.4708 J 4.8214
G02 X 2.2516 Y 0.4188 Z -1.0000 I -0.0000 J 5.4383
G02 X 1.2687 Y 0.9259 Z -1.0000 I 0.7938 J 2.7449
G02 X 0.6093 Y 1.7722 Z -1.0000 I 1.4440 J 1.8050
G02 X 0.3604 Y 2.9187 Z -1.0000 I 2.5153 J 1.1465
G01 X 1.9788 Y 2.9187 Z -1.0000
G03 X 2.1110 Y 2.3868 Z -1.0000 I 2.5708 J 0.3563
G03 X 2.2816 Y 2.0874 Z -1.0000 I 0.9637 J 0.3510
G03 X 2.7695 Y 1.7457 Z -1.0000 I 0.8599 J 0.7087
G03 X 3.6963 Y 1.5865 Z -1.0000 I 0.9268 J 2.6174
G01 X 3.6963 Y 1.5865 Z -1.0000
G00 Z 5.0000

(End cutting path id: text187790)


(Start cutting path id: text187790)
(Change tool to Default tool)

G00 Z 5.0000
G00 X 11.7169 Y 3.3315

G01 Z -1.0000 F 100.0000(Penetrate)
G01 X 9.9939 Y 3.3315 Z -1.0000 F 3500.0000
G01 X 9.9939 Y 0.4140 Z -1.0000
G01 X 8.3094 Y 0.4140 Z -1.0000
G01 X 8.3094 Y 8.5281 Z -1.0000
G01 X 11.8435 Y 8.5281 Z -1.0000
G02 X 12.9981 Y 8.3468 Z -1.0000 I -0.0000 J -3.7667
G02 X 13.7922 Y 7.9005 Z -1.0000 I -0.7013 J -2.1778
G02 X 14.2991 Y 7.1724 Z -1.0000 I -1.1706 J -1.3554
G02 X 14.5188 Y 5.9573 Z -1.0000 I -3.2494 J -1.2151
G02 X 14.2885 Y 4.6297 Z -1.0000 I -3.9416 J -0.0000
G02 X 13.7922 Y 3.9260 Z -1.0000 I -1.5157 J 0.5422
G02 X 13.0012 Y 3.5119 Z -1.0000 I -1.3998 J 1.7108
G02 X 11.7169 Y 3.3315 Z -1.0000 I -1.2843 J 4.4832
G01 X 11.7169 Y 3.3315 Z -1.0000
G00 Z 5.0000

(End cutting path id: text187790)


(Start cutting path id: text187790)
(Change tool to Default tool)

G00 Z 5.0000
G00 X 12.5096 Y 5.0215

G01 Z -1.0000 F 100.0000(Penetrate)
G03 X 12.7381 Y 5.3591 Z -1.0000 I -0.5410 J 0.6125 F 3500.0000
G03 X 12.8398 Y 5.9463 Z -1.0000 I -1.6441 J 0.5872
G03 X 12.7350 Y 6.5291 Z -1.0000 I -1.6717 J -0.0000
G03 X 12.5041 Y 6.8491 Z -1.0000 I -0.6959 J -0.2588
G03 X 12.1448 Y 7.0377 Z -1.0000 I -0.6417 J -0.7858
G03 X 11.5737 Y 7.1188 Z -1.0000 I -0.5711 J -1.9697
G01 X 9.9939 Y 7.1188 Z -1.0000
G01 X 9.9939 Y 4.7297 Z -1.0000
G01 X 11.5737 Y 4.7297 Z -1.0000
G03 X 12.1415 Y 4.8162 Z -1.0000 I -0.0000 J 1.9074
G03 X 12.5096 Y 5.0215 Z -1.0000 I -0.3058 J 0.9810
G01 X 12.5096 Y 5.0215 Z -1.0000
G00 Z 5.0000

(End cutting path id: text187790)


(Start cutting path id: text187790)
(Change tool to Default tool)

G00 Z 5.0000
G00 X 19.3796 Y 0.1883

G01 Z -1.0000 F 100.0000(Penetrate)
G02 X 17.7585 Y 0.4683 Z -1.0000 I 0.0000 J 4.8323 F 3500.0000
G02 X 16.7208 Y 1.1351 Z -1.0000 I 0.9114 J 2.5592
G02 X 15.8496 Y 2.4529 Z -1.0000 I 2.3641 J 2.5097
G02 X 15.4877 Y 4.4820 Z -1.0000 I 5.5077 J 2.0291
G02 X 15.8562 Y 6.5481 Z -1.0000 I 5.9765 J 0.0000
G02 X 16.7208 Y 7.8290 Z -1.0000 I 3.0405 J -1.1202
G02 X 17.7585 Y 8.4958 Z -1.0000 I 1.9491 J -1.8924
G02 X 19.3796 Y 8.7758 Z -1.0000 I 1.6211 J -4.5523
G02 X 21.0007 Y 8.4958 Z -1.0000 I -0.0000 J -4.8323
G02 X 22.0384 Y 7.8290 Z -1.0000 I -0.9114 J -2.5592
G02 X 22.8989 Y 6.5492 Z -1.0000 I -2.1802 J -2.3950
G02 X 23.2660 Y 4.4820 Z -1.0000 I -5.6361 J -2.0672
G02 X 22.9054 Y 2.4518 Z -1.0000 I -5.8958 J 0.0000
G02 X 22.0384 Y 1.1351 Z -1.0000 I -3.2359 J 1.1868
G02 X 21.0007 Y 0.4683 Z -1.0000 I -1.9491 J 1.8924
G02 X 19.3796 Y 0.1883 Z -1.0000 I -1.6211 J 4.5523
G01 X 19.3796 Y 0.1883 Z -1.0000
G00 Z 5.0000

(End cutting path id: text187790)


(Start cutting path id: text187790)
(Change tool to Default tool)

G00 Z 5.0000
G00 X 20.9815 Y 2.3682

G01 Z -1.0000 F 100.0000(Penetrate)
G03 X 21.3916 Y 3.1736 Z -1.0000 I -1.7895 J 1.4184 F 3500.0000
G03 X 21.5705 Y 4.4820 Z -1.0000 I -4.6956 J 1.3084
G03 X 21.3905 Y 5.7841 Z -1.0000 I -4.7975 J 0.0000
G03 X 20.9760 Y 6.5904 Z -1.0000 I -2.1966 J -0.6194
G03 X 20.2886 Y 7.1365 Z -1.0000 I -1.4951 J -1.1763
G03 X 19.3796 Y 7.3390 Z -1.0000 I -0.9090 J -1.9383
G03 X 18.4680 Y 7.1385 Z -1.0000 I 0.0000 J -2.1722
G03 X 17.7722 Y 6.5959 Z -1.0000 I 0.8148 J -1.7623
G03 X 17.3540 Y 5.7885 Z -1.0000 I 1.7689 J -1.4282
G03 X 17.1722 Y 4.4820 Z -1.0000 I 4.6026 J -1.3065
G03 X 17.3540 Y 3.1756 Z -1.0000 I 4.7844 J 0.0000
G03 X 17.7722 Y 2.3682 Z -1.0000 I 2.1871 J 0.6208
G03 X 18.4680 Y 1.8255 Z -1.0000 I 1.5106 J 1.2197
G03 X 19.3796 Y 1.6250 Z -1.0000 I 0.9116 J 1.9717
G03 X 20.2904 Y 1.8260 Z -1.0000 I -0.0000 J 2.1642
G03 X 20.9815 Y 2.3682 Z -1.0000 I -0.8078 J 1.7413
G01 X 20.9815 Y 2.3682 Z -1.0000
G00 Z 5.0000

(End cutting path id: text187790)


(Start cutting path id: text187790)
(Change tool to Default tool)

G00 Z 5.0000
G00 X 28.1488 Y 0.1883

G01 Z -1.0000 F 100.0000(Penetrate)
G02 X 26.5277 Y 0.4683 Z -1.0000 I -0.0000 J 4.8323 F 3500.0000
G02 X 25.4900 Y 1.1351 Z -1.0000 I 0.9114 J 2.5592
G02 X 24.6188 Y 2.4529 Z -1.0000 I 2.3641 J 2.5097
G02 X 24.2569 Y 4.4820 Z -1.0000 I 5.5077 J 2.0291
G02 X 24.6254 Y 6.5481 Z -1.0000 I 5.9765 J 0.0000
G02 X 25.4900 Y 7.8290 Z -1.0000 I 3.0405 J -1.1202
G02 X 26.5277 Y 8.4958 Z -1.0000 I 1.9491 J -1.8924
G02 X 28.1488 Y 8.7758 Z -1.0000 I 1.6211 J -4.5523
G02 X 29.7699 Y 8.4958 Z -1.0000 I -0.0000 J -4.8323
G02 X 30.8076 Y 7.8290 Z -1.0000 I -0.9114 J -2.5592
G02 X 31.6681 Y 6.5492 Z -1.0000 I -2.1802 J -2.3950
G02 X 32.0352 Y 4.4820 Z -1.0000 I -5.6361 J -2.0672
G02 X 31.6746 Y 2.4518 Z -1.0000 I -5.8958 J 0.0000
G02 X 30.8076 Y 1.1351 Z -1.0000 I -3.2359 J 1.1868
G02 X 29.7699 Y 0.4683 Z -1.0000 I -1.9491 J 1.8924
G02 X 28.1488 Y 0.1883 Z -1.0000 I -1.6211 J 4.5523
G01 X 28.1488 Y 0.1883 Z -1.0000
G00 Z 5.0000

(End cutting path id: text187790)


(Start cutting path id: text187790)
(Change tool to Default tool)

G00 Z 5.0000
G00 X 29.7507 Y 2.3682

G01 Z -1.0000 F 100.0000(Penetrate)
G03 X 30.1608 Y 3.1736 Z -1.0000 I -1.7895 J 1.4184 F 3500.0000
G03 X 30.3397 Y 4.4820 Z -1.0000 I -4.6956 J 1.3084
G03 X 30.1596 Y 5.7841 Z -1.0000 I -4.7975 J -0.0000
G03 X 29.7452 Y 6.5904 Z -1.0000 I -2.1966 J -0.6194
G03 X 29.0578 Y 7.1365 Z -1.0000 I -1.4951 J -1.1763
G03 X 28.1488 Y 7.3390 Z -1.0000 I -0.9090 J -1.9383
G03 X 27.2372 Y 7.1385 Z -1.0000 I -0.0000 J -2.1722
G03 X 26.5414 Y 6.5959 Z -1.0000 I 0.8148 J -1.7623
G03 X 26.1232 Y 5.7885 Z -1.0000 I 1.7689 J -1.4282
G03 X 25.9414 Y 4.4820 Z -1.0000 I 4.6026 J -1.3065
G03 X 26.1232 Y 3.1756 Z -1.0000 I 4.7844 J -0.0000
G03 X 26.5414 Y 2.3682 Z -1.0000 I 2.1871 J 0.6208
G03 X 27.2372 Y 1.8255 Z -1.0000 I 1.5106 J 1.2197
G03 X 28.1488 Y 1.6250 Z -1.0000 I 0.9116 J 1.9717
G03 X 29.0596 Y 1.8260 Z -1.0000 I 0.0000 J 2.1642
G03 X 29.7507 Y 2.3682 Z -1.0000 I -0.8078 J 1.7413
G01 X 29.7507 Y 2.3682 Z -1.0000
G00 Z 5.0000

(End cutting path id: text187790)


(Start cutting path id: text187790)
(Change tool to Default tool)

G00 Z 5.0000
G00 X 39.8906 Y 0.4140

G01 Z -1.0000 F 100.0000(Penetrate)
G01 X 38.1951 Y 0.4140 Z -1.0000 F 3500.0000
G01 X 34.8812 Y 6.1775 Z -1.0000
G01 X 34.8812 Y 0.4140 Z -1.0000
G01 X 33.3013 Y 0.4140 Z -1.0000
G01 X 33.3013 Y 8.5281 Z -1.0000
G01 X 35.0794 Y 8.5281 Z -1.0000
G01 X 38.3107 Y 2.8636 Z -1.0000
G01 X 38.3107 Y 8.5281 Z -1.0000
G01 X 39.8906 Y 8.5281 Z -1.0000
G01 X 39.8906 Y 0.4140 Z -1.0000
G00 Z 5.0000

(End cutting path id: text187790)



(Footer)
M5
G00 X0.0000 Y0.0000
M2
(Using default footer. To add your own footer create file "footer" in the output dir.)
(end)
%