%
(Header)
(Generated by gcodetools from Inkscape.)
(Using default header. To add your own header create file "header" in the output dir.)
M3
(Header end.)
G21 (All units in mm)

(Start cutting path id: path47)
(Change tool to Default tool)

G00 Z 5.0000
G00 X 3.1033 Y 25.6193

G01 Z -1.0000 F 100.0000(Penetrate)
G01 X 0.0942 Y 25.6193 Z -1.0000 F 3500.0000
G01 X 0.0942 Y 32.2591 Z -1.0000
G01 X 3.3195 Y 32.2591 Z -1.0000
G02 X 4.4327 Y 32.0318 Z -1.0000 I -0.0452 J -3.0605
G02 X 5.0493 Y 31.5519 Z -1.0000 I -0.5478 J -1.3399
G02 X 5.2724 Y 31.1015 Z -1.0000 I -1.2294 J -0.8894
G02 X 5.3556 Y 30.5383 Z -1.0000 I -1.8634 J -0.5632
G02 X 5.2674 Y 29.9620 Z -1.0000 I -1.9273 J 0.0000
G02 X 5.0493 Y 29.5608 Z -1.0000 I -1.1283 J 0.3536
G02 X 4.8581 Y 29.3784 Z -1.0000 I -0.8620 J 0.7121
G02 X 4.5448 Y 29.1824 Z -1.0000 I -1.3130 J 1.7507
G02 X 5.0017 Y 28.9325 Z -1.0000 I -0.5850 J -1.6124
G02 X 5.3106 Y 28.5968 Z -1.0000 I -0.7997 J -1.0457
G02 X 5.4992 Y 28.1743 Z -1.0000 I -1.2348 J -0.8047
G02 X 5.5718 Y 27.6238 Z -1.0000 I -2.0502 J -0.5505
G02 X 5.4937 Y 27.0564 Z -1.0000 I -2.0984 J 0.0000
G02 X 5.2745 Y 26.5652 Z -1.0000 I -1.7816 J 0.5004
G02 X 5.0598 Y 26.2776 Z -1.0000 I -1.6256 J 0.9895
G02 X 4.8015 Y 26.0427 Z -1.0000 I -1.3352 J 1.2086
G02 X 4.4621 Y 25.8426 Z -1.0000 I -1.0160 J 1.3358
G02 X 4.0447 Y 25.7093 Z -1.0000 I -0.8362 J 1.8985
G02 X 3.6098 Y 25.6434 Z -1.0000 I -0.8161 J 3.9174
G02 X 3.1033 Y 25.6193 Z -1.0000 I -0.5065 J 5.2934
G01 X 3.1033 Y 25.6193 Z -1.0000
G00 Z 5.0000

(End cutting path id: path47)


(Start cutting path id: path47)
(Change tool to Default tool)

G00 Z 5.0000
G00 X 3.0717 Y 28.5428

G01 Z -1.0000 F 100.0000(Penetrate)
G01 X 1.4185 Y 28.5428 Z -1.0000 F 3500.0000
G01 X 1.4185 Y 26.7724 Z -1.0000
G01 X 3.0492 Y 26.7724 Z -1.0000
G03 X 3.4778 Y 26.8091 Z -1.0000 I -0.0000 J 2.5257
G03 X 3.7294 Y 26.8896 Z -1.0000 I -0.1616 J 0.9388
G03 X 4.0385 Y 27.1883 Z -1.0000 I -0.3071 J 0.6270
G03 X 4.1709 Y 27.7184 Z -1.0000 I -0.9952 J 0.5301
G03 X 4.0490 Y 28.1578 Z -1.0000 I -0.8527 J 0.0000
G03 X 3.7429 Y 28.4301 Z -1.0000 I -0.5898 J -0.3546
G03 X 3.4969 Y 28.5051 Z -1.0000 I -0.4109 J -0.9074
G03 X 3.0717 Y 28.5428 Z -1.0000 I -0.4537 J -2.7038
G01 X 3.0717 Y 28.5428 Z -1.0000
G00 Z 5.0000

(End cutting path id: path47)


(Start cutting path id: path47)
(Change tool to Default tool)

G00 Z 5.0000
G00 X 3.7610 Y 29.8086

G01 Z -1.0000 F 100.0000(Penetrate)
G03 X 3.9489 Y 30.0174 Z -1.0000 I -0.2465 J 0.4109 F 3500.0000
G03 X 4.0312 Y 30.3897 Z -1.0000 I -0.8005 J 0.3723
G03 X 3.9244 Y 30.7821 Z -1.0000 I -0.7740 J 0.0000
G03 X 3.6709 Y 31.0023 Z -1.0000 I -0.4546 J -0.2674
G03 X 3.3550 Y 31.0749 Z -1.0000 I -0.5351 J -1.6054
G03 X 2.8780 Y 31.1059 Z -1.0000 I -0.4770 J -3.6498
G01 X 1.4185 Y 31.1059 Z -1.0000
G01 X 1.4185 Y 29.6419 Z -1.0000
G01 X 3.0492 Y 29.6419 Z -1.0000
G03 X 3.4725 Y 29.6908 Z -1.0000 I -0.0000 J 1.8564
G03 X 3.7610 Y 29.8086 Z -1.0000 I -0.2263 J 0.9665
G01 X 3.7610 Y 29.8086 Z -1.0000
G00 Z 5.0000

(End cutting path id: path47)


(Start cutting path id: path46)
(Change tool to Default tool)

G00 Z 5.0000
G00 X 2.4816 Y 33.9591

G01 Z -1.0000 F 100.0000(Penetrate)
G03 X 2.9670 Y 33.9919 Z -1.0000 I 0.0000 J 3.6125 F 3500.0000
G03 X 3.2790 Y 34.0673 Z -1.0000 I -0.2112 J 1.5575
G03 X 3.7075 Y 34.3820 Z -1.0000 I -0.3113 J 0.8729
G03 X 3.8601 Y 34.8375 Z -1.0000 I -0.6038 J 0.4555
G03 X 3.7844 Y 35.1245 Z -1.0000 I -0.5822 J -0.0000
G03 X 3.5718 Y 35.3466 Z -1.0000 I -0.5441 J -0.3082
G03 X 3.2699 Y 35.4883 Z -1.0000 I -0.8028 J -1.3175
G03 X 2.6663 Y 35.6574 Z -1.0000 I -1.7690 J -5.1530
G01 X 1.9636 Y 35.8150 Z -1.0000
G02 X 0.9532 Y 36.1077 Z -1.0000 I 1.9492 J 8.6213
G02 X 0.5311 Y 36.3241 Z -1.0000 I 0.6017 J 1.6934
G02 X 0.0542 Y 36.8860 Z -1.0000 I 0.7897 J 1.1535
G02 X -0.1401 Y 37.7611 Z -1.0000 I 1.8734 J 0.8751
G02 X 0.0308 Y 38.5774 Z -1.0000 I 2.0360 J -0.0000
G02 X 0.5086 Y 39.2431 Z -1.0000 I 1.8002 J -0.7879
G02 X 1.2268 Y 39.6535 Z -1.0000 I 1.2815 J -1.4087
G02 X 2.4141 Y 39.8332 Z -1.0000 I 1.1873 J -3.8338
G02 X 3.4125 Y 39.6809 Z -1.0000 I -0.0000 J -3.3491
G02 X 4.2024 Y 39.2746 Z -1.0000 I -0.7722 J -2.4722
G02 X 4.7461 Y 38.6161 Z -1.0000 I -1.0734 J -1.4400
G02 X 4.9817 Y 37.6620 Z -1.0000 I -2.1420 J -1.0351
G01 X 3.6483 Y 37.6620 Z -1.0000
G03 X 3.4855 Y 38.1787 Z -1.0000 I -1.1139 J -0.0670
G03 X 3.1258 Y 38.5133 Z -1.0000 I -0.7821 J -0.4800
G03 X 2.7898 Y 38.6319 Z -1.0000 I -0.6030 J -1.1735
G03 X 2.3195 Y 38.6800 Z -1.0000 I -0.4704 J -2.2755
G03 X 1.8031 Y 38.6158 Z -1.0000 I 0.0000 J -2.1082
G03 X 1.4636 Y 38.4638 Z -1.0000 I 0.2639 J -1.0445
G03 X 1.2288 Y 38.2024 Z -1.0000 I 0.4064 J -0.6011
G03 X 1.1438 Y 37.8602 Z -1.0000 I 0.6459 J -0.3422
G03 X 1.2278 Y 37.5537 Z -1.0000 I 0.6007 J 0.0000
G03 X 1.4591 Y 37.3286 Z -1.0000 I 0.5327 J 0.3160
G03 X 1.6711 Y 37.2350 Z -1.0000 I 0.5372 J 0.9298
G03 X 2.3240 Y 37.0538 Z -1.0000 I 2.7773 J 8.7418
G01 X 3.4682 Y 36.7790 Z -1.0000
G02 X 4.1921 Y 36.5405 Z -1.0000 I -1.0680 J -4.4590
G02 X 4.6033 Y 36.2970 Z -1.0000 I -0.7042 J -1.6585
G02 X 5.0291 Y 35.7466 Z -1.0000 I -0.8874 J -1.1263
G02 X 5.1979 Y 34.9412 Z -1.0000 I -1.8367 J -0.8055
G02 X 5.0164 Y 34.1142 Z -1.0000 I -1.9741 J 0.0000
G02 X 4.4997 Y 33.4276 Z -1.0000 I -1.8468 J 0.8520
G02 X 3.7392 Y 33.0080 Z -1.0000 I -1.3737 J 1.5906
G02 X 2.5357 Y 32.8285 Z -1.0000 I -1.2035 J 3.9454
G02 X 1.2994 Y 33.0036 Z -1.0000 I 0.0000 J 4.4502
G02 X 0.4951 Y 33.4186 Z -1.0000 I 0.6496 J 2.2462
G02 X -0.0445 Y 34.1111 Z -1.0000 I 1.1816 J 1.4770
G02 X -0.2482 Y 35.0493 Z -1.0000 I 2.0583 J 0.9382
G01 X 1.0762 Y 35.0493 Z -1.0000
G03 X 1.1843 Y 34.6140 Z -1.0000 I 2.1037 J 0.2916
G03 X 1.3239 Y 34.3691 Z -1.0000 I 0.7886 J 0.2873
G03 X 1.7233 Y 34.0894 Z -1.0000 I 0.7037 J 0.5799
G03 X 2.4816 Y 33.9591 Z -1.0000 I 0.7584 J 2.1418
G01 X 2.4816 Y 33.9591 Z -1.0000
G00 Z 5.0000

(End cutting path id: path46)


(Start cutting path id: path46)
(Change tool to Default tool)

G00 Z 5.0000
G00 X 9.0449 Y 35.3871

G01 Z -1.0000 F 100.0000(Penetrate)
G01 X 7.6349 Y 35.3871 Z -1.0000 F 3500.0000
G01 X 7.6349 Y 32.9997 Z -1.0000
G01 X 6.2565 Y 32.9997 Z -1.0000
G01 X 6.2565 Y 39.6395 Z -1.0000
G01 X 9.1485 Y 39.6395 Z -1.0000
G02 X 10.0933 Y 39.4911 Z -1.0000 I 0.0000 J -3.0823
G02 X 10.7431 Y 39.1260 Z -1.0000 I -0.5739 J -1.7821
G02 X 11.1579 Y 38.5301 Z -1.0000 I -0.9579 J -1.1091
G02 X 11.3378 Y 37.5358 Z -1.0000 I -2.6590 J -0.9943
G02 X 11.1493 Y 36.4494 Z -1.0000 I -3.2255 J -0.0000
G02 X 10.7431 Y 35.8736 Z -1.0000 I -1.2403 J 0.4437
G02 X 10.0959 Y 35.5347 Z -1.0000 I -1.1454 J 1.4000
G02 X 9.0449 Y 35.3871 Z -1.0000 I -1.0510 J 3.6686
G01 X 9.0449 Y 35.3871 Z -1.0000
G00 Z 5.0000

(End cutting path id: path46)


(Start cutting path id: path46)
(Change tool to Default tool)

G00 Z 5.0000
G00 X 9.6936 Y 36.7700

G01 Z -1.0000 F 100.0000(Penetrate)
G03 X 9.8806 Y 37.0463 Z -1.0000 I -0.4427 J 0.5012 F 3500.0000
G03 X 9.9638 Y 37.5268 Z -1.0000 I -1.3454 J 0.4805
G03 X 9.8780 Y 38.0037 Z -1.0000 I -1.3680 J -0.0000
G03 X 9.6891 Y 38.2656 Z -1.0000 I -0.5695 J -0.2118
G03 X 9.3951 Y 38.4199 Z -1.0000 I -0.5251 J -0.6430
G03 X 8.9278 Y 38.4863 Z -1.0000 I -0.4673 J -1.6119
G01 X 7.6349 Y 38.4863 Z -1.0000
G01 X 7.6349 Y 36.5313 Z -1.0000
G01 X 8.9278 Y 36.5313 Z -1.0000
G03 X 9.3923 Y 36.6020 Z -1.0000 I -0.0000 J 1.5609
G03 X 9.6936 Y 36.7700 Z -1.0000 I -0.2503 J 0.8027
G01 X 9.6936 Y 36.7700 Z -1.0000
G00 Z 5.0000

(End cutting path id: path46)


(Start cutting path id: path47)
(Change tool to Default tool)

G00 Z 5.0000
G00 X 13.3964 Y 32.2591

G01 Z -1.0000 F 100.0000(Penetrate)
G01 X 14.7838 Y 32.2591 Z -1.0000 F 3500.0000
G01 X 14.7838 Y 26.8130 Z -1.0000
G01 X 18.0722 Y 26.8130 Z -1.0000
G01 X 18.0722 Y 25.6193 Z -1.0000
G01 X 13.3964 Y 25.6193 Z -1.0000
G01 X 13.3964 Y 32.2591 Z -1.0000
G00 Z 5.0000

(End cutting path id: path47)


(Start cutting path id: path46)
(Change tool to Default tool)

G00 Z 5.0000
G00 X 15.3154 Y 32.8150

G01 Z -1.0000 F 100.0000(Penetrate)
G02 X 13.9888 Y 33.0441 Z -1.0000 I 0.0000 J 3.9543 F 3500.0000
G02 X 13.1396 Y 33.5898 Z -1.0000 I 0.7458 J 2.0942
G02 X 12.4267 Y 34.6681 Z -1.0000 I 1.9345 J 2.0537
G02 X 12.1306 Y 36.3286 Z -1.0000 I 4.5070 J 1.6605
G02 X 12.4321 Y 38.0193 Z -1.0000 I 4.8906 J 0.0000
G02 X 13.1396 Y 39.0674 Z -1.0000 I 2.4881 J -0.9167
G02 X 13.9888 Y 39.6130 Z -1.0000 I 1.5950 J -1.5486
G02 X 15.3154 Y 39.8422 Z -1.0000 I 1.3266 J -3.7252
G02 X 16.6419 Y 39.6130 Z -1.0000 I 0.0000 J -3.9543
G02 X 17.4911 Y 39.0674 Z -1.0000 I -0.7458 J -2.0942
G02 X 18.1952 Y 38.0202 Z -1.0000 I -1.7841 J -1.9598
G02 X 18.4956 Y 36.3286 Z -1.0000 I -4.6121 J -1.6916
G02 X 18.2006 Y 34.6673 Z -1.0000 I -4.8246 J 0.0000
G02 X 17.4911 Y 33.5898 Z -1.0000 I -2.6479 J 0.9712
G02 X 16.6419 Y 33.0441 Z -1.0000 I -1.5950 J 1.5486
G02 X 15.3154 Y 32.8150 Z -1.0000 I -1.3266 J 3.7252
G01 X 15.3154 Y 32.8150 Z -1.0000
G00 Z 5.0000

(End cutting path id: path46)


(Start cutting path id: path46)
(Change tool to Default tool)

G00 Z 5.0000
G00 X 16.6262 Y 34.5988

G01 Z -1.0000 F 100.0000(Penetrate)
G03 X 16.9618 Y 35.2579 Z -1.0000 I -1.4644 J 1.1607 F 3500.0000
G03 X 17.1082 Y 36.3286 Z -1.0000 I -3.8424 J 1.0707
G03 X 16.9609 Y 37.3940 Z -1.0000 I -3.9258 J 0.0000
G03 X 16.6217 Y 38.0539 Z -1.0000 I -1.7975 J -0.5069
G03 X 16.0592 Y 38.5007 Z -1.0000 I -1.2235 J -0.9626
G03 X 15.3154 Y 38.6665 Z -1.0000 I -0.7439 J -1.5862
G03 X 14.5694 Y 38.5024 Z -1.0000 I -0.0000 J -1.7775
G03 X 14.0000 Y 38.0584 Z -1.0000 I 0.6667 J -1.4421
G03 X 13.6578 Y 37.3977 Z -1.0000 I 1.4475 J -1.1687
G03 X 13.5090 Y 36.3286 Z -1.0000 I 3.7663 J -1.0691
G03 X 13.6578 Y 35.2595 Z -1.0000 I 3.9151 J 0.0000
G03 X 14.0000 Y 34.5988 Z -1.0000 I 1.7897 J 0.5080
G03 X 14.5694 Y 34.1548 Z -1.0000 I 1.2361 J 0.9981
G03 X 15.3154 Y 33.9907 Z -1.0000 I 0.7459 J 1.6134
G03 X 16.0607 Y 34.1551 Z -1.0000 I -0.0000 J 1.7710
G03 X 16.6262 Y 34.5988 Z -1.0000 I -0.6611 J 1.4249
G01 X 16.6262 Y 34.5988 Z -1.0000
G00 Z 5.0000

(End cutting path id: path46)


(Start cutting path id: path47)
(Change tool to Default tool)

G00 Z 5.0000
G00 X 19.0317 Y 32.2591

G01 Z -1.0000 F 100.0000(Penetrate)
G01 X 20.4191 Y 32.2591 Z -1.0000 F 3500.0000
G01 X 20.4191 Y 26.8130 Z -1.0000
G01 X 23.7075 Y 26.8130 Z -1.0000
G01 X 23.7075 Y 25.6193 Z -1.0000
G01 X 19.0317 Y 25.6193 Z -1.0000
G01 X 19.0317 Y 32.2591 Z -1.0000
G00 Z 5.0000

(End cutting path id: path47)


(Start cutting path id: path46)
(Change tool to Default tool)

G00 Z 5.0000
G00 X 22.3741 Y 35.6033

G01 Z -1.0000 F 100.0000(Penetrate)
G01 X 20.9416 Y 35.6033 Z -1.0000 F 3500.0000
G01 X 20.9416 Y 32.9997 Z -1.0000
G01 X 19.5858 Y 32.9997 Z -1.0000
G01 X 19.5858 Y 39.6395 Z -1.0000
G01 X 22.8426 Y 39.6395 Z -1.0000
G02 X 23.5307 Y 39.5782 Z -1.0000 I -0.0963 J -4.9737
G02 X 23.9147 Y 39.4683 Z -1.0000 I -0.2622 J -1.6425
G02 X 24.2649 Y 39.2719 Z -1.0000 I -0.6649 J -1.5959
G02 X 24.5544 Y 39.0043 Z -1.0000 I -0.9787 J -1.3493
G02 X 24.7481 Y 38.7383 Z -1.0000 I -1.5754 J -1.3503
G02 X 24.8967 Y 38.4458 Z -1.0000 I -1.7586 J -1.0778
G02 X 24.9883 Y 38.1326 Z -1.0000 I -1.4265 J -0.5874
G02 X 25.0228 Y 37.7475 Z -1.0000 I -2.1317 J -0.3851
G02 X 24.9650 Y 37.2887 Z -1.0000 I -1.8500 J 0.0000
G02 X 24.7841 Y 36.8151 Z -1.0000 I -2.1536 J 0.5514
G02 X 24.4774 Y 36.4393 Z -1.0000 I -1.0746 J 0.5639
G02 X 23.9958 Y 36.1709 Z -1.0000 I -0.9918 J 1.2138
G02 X 24.4053 Y 35.9297 Z -1.0000 I -0.5928 J -1.4748
G02 X 24.6445 Y 35.6439 Z -1.0000 I -0.6164 J -0.7587
G02 X 24.7750 Y 35.2892 Z -1.0000 I -0.9811 J -0.5625
G02 X 24.8382 Y 34.6078 Z -1.0000 I -3.6447 J -0.6814
G01 X 24.8382 Y 34.1618 Z -1.0000
G03 X 24.8514 Y 33.7083 Z -1.0000 I 7.7791 J -0.0000
G03 X 24.8742 Y 33.5447 Z -1.0000 I 1.0296 J 0.0601
G03 X 24.9698 Y 33.3172 Z -1.0000 I 0.6385 J 0.1344
G03 X 25.1265 Y 33.1663 Z -1.0000 I 0.4219 J 0.2812
G01 X 25.1265 Y 32.9997 Z -1.0000
G01 X 23.5994 Y 32.9997 Z -1.0000
G02 X 23.5397 Y 33.2212 Z -1.0000 I 7.2711 J 2.0774
G02 X 23.5093 Y 33.3555 Z -1.0000 I 2.6410 J 0.6686
G02 X 23.4679 Y 33.6361 Z -1.0000 I 3.1237 J 0.6046
G02 X 23.4507 Y 33.9276 Z -1.0000 I 3.3544 J 0.3434
G01 X 23.4417 Y 34.5447 Z -1.0000
G03 X 23.3558 Y 35.1460 Z -1.0000 I -2.3816 J -0.0337
G03 X 23.2075 Y 35.3916 Z -1.0000 I -0.5124 J -0.1417
G03 X 22.9574 Y 35.5304 Z -1.0000 I -0.3881 J -0.4046
G03 X 22.3741 Y 35.6033 Z -1.0000 I -0.5833 J -2.2960
G01 X 22.3741 Y 35.6033 Z -1.0000
G00 Z 5.0000

(End cutting path id: path46)


(Start cutting path id: path46)
(Change tool to Default tool)

G00 Z 5.0000
G00 X 23.2165 Y 36.8106

G01 Z -1.0000 F 100.0000(Penetrate)
G03 X 23.5071 Y 37.0794 Z -1.0000 I -0.2627 J 0.5754 F 3500.0000
G03 X 23.6309 Y 37.5583 Z -1.0000 I -0.8642 J 0.4790
G03 X 23.5074 Y 38.0868 Z -1.0000 I -1.1922 J -0.0000
G03 X 23.2300 Y 38.3692 Z -1.0000 I -0.5687 J -0.2812
G03 X 22.9955 Y 38.4483 Z -1.0000 I -0.3723 J -0.7161
G03 X 22.5543 Y 38.4863 Z -1.0000 I -0.4412 J -2.5453
G01 X 20.9416 Y 38.4863 Z -1.0000
G01 X 20.9416 Y 36.7025 Z -1.0000
G01 X 22.5138 Y 36.7025 Z -1.0000
G03 X 22.9745 Y 36.7377 Z -1.0000 I -0.0000 J 3.0301
G03 X 23.2165 Y 36.8106 Z -1.0000 I -0.1378 J 0.8957
G01 X 23.2165 Y 36.8106 Z -1.0000
G00 Z 5.0000

(End cutting path id: path46)


(Start cutting path id: path46)
(Change tool to Default tool)

G00 Z 5.0000
G00 X 31.0410 Y 39.6395

G01 Z -1.0000 F 100.0000(Penetrate)
G01 X 31.0410 Y 38.4638 Z -1.0000 F 3500.0000
G01 X 29.0545 Y 38.4638 Z -1.0000
G01 X 29.0545 Y 32.9997 Z -1.0000
G01 X 27.6581 Y 32.9997 Z -1.0000
G01 X 27.6581 Y 38.4638 Z -1.0000
G01 X 25.6625 Y 38.4638 Z -1.0000
G01 X 25.6625 Y 39.6395 Z -1.0000
G01 X 31.0410 Y 39.6395 Z -1.0000
G00 Z 5.0000

(End cutting path id: path46)


(Start cutting path id: path46)
(Change tool to Default tool)

G00 Z 5.0000
G00 X 34.2619 Y 33.9591

G01 Z -1.0000 F 100.0000(Penetrate)
G03 X 34.7473 Y 33.9919 Z -1.0000 I 0.0000 J 3.6125 F 3500.0000
G03 X 35.0592 Y 34.0673 Z -1.0000 I -0.2112 J 1.5575
G03 X 35.4877 Y 34.3820 Z -1.0000 I -0.3113 J 0.8729
G03 X 35.6403 Y 34.8375 Z -1.0000 I -0.6038 J 0.4555
G03 X 35.5647 Y 35.1245 Z -1.0000 I -0.5822 J 0.0000
G03 X 35.3520 Y 35.3466 Z -1.0000 I -0.5441 J -0.3082
G03 X 35.0501 Y 35.4883 Z -1.0000 I -0.8028 J -1.3175
G03 X 34.4466 Y 35.6574 Z -1.0000 I -1.7690 J -5.1530
G01 X 33.7438 Y 35.8150 Z -1.0000
G02 X 32.7334 Y 36.1077 Z -1.0000 I 1.9492 J 8.6213
G02 X 32.3114 Y 36.3241 Z -1.0000 I 0.6017 J 1.6934
G02 X 31.8345 Y 36.8860 Z -1.0000 I 0.7897 J 1.1535
G02 X 31.6402 Y 37.7611 Z -1.0000 I 1.8734 J 0.8751
G02 X 31.8110 Y 38.5774 Z -1.0000 I 2.0360 J 0.0000
G02 X 32.2888 Y 39.2431 Z -1.0000 I 1.8002 J -0.7879
G02 X 33.0070 Y 39.6535 Z -1.0000 I 1.2815 J -1.4087
G02 X 34.1943 Y 39.8332 Z -1.0000 I 1.1873 J -3.8338
G02 X 35.1928 Y 39.6809 Z -1.0000 I -0.0000 J -3.3491
G02 X 35.9826 Y 39.2746 Z -1.0000 I -0.7722 J -2.4722
G02 X 36.5263 Y 38.6161 Z -1.0000 I -1.0734 J -1.4400
G02 X 36.7619 Y 37.6620 Z -1.0000 I -2.1420 J -1.0351
G01 X 35.4286 Y 37.6620 Z -1.0000
G03 X 35.2657 Y 38.1787 Z -1.0000 I -1.1139 J -0.0670
G03 X 34.9060 Y 38.5133 Z -1.0000 I -0.7821 J -0.4800
G03 X 34.5701 Y 38.6319 Z -1.0000 I -0.6030 J -1.1735
G03 X 34.0997 Y 38.6800 Z -1.0000 I -0.4704 J -2.2755
G03 X 33.5833 Y 38.6158 Z -1.0000 I 0.0000 J -2.1082
G03 X 33.2438 Y 38.4638 Z -1.0000 I 0.2639 J -1.0445
G03 X 33.0090 Y 38.2024 Z -1.0000 I 0.4064 J -0.6011
G03 X 32.9240 Y 37.8602 Z -1.0000 I 0.6459 J -0.3422
G03 X 33.0080 Y 37.5537 Z -1.0000 I 0.6007 J -0.0000
G03 X 33.2393 Y 37.3286 Z -1.0000 I 0.5327 J 0.3160
G03 X 33.4514 Y 37.2350 Z -1.0000 I 0.5372 J 0.9298
G03 X 34.1042 Y 37.0538 Z -1.0000 I 2.7773 J 8.7418
G01 X 35.2484 Y 36.7790 Z -1.0000
G02 X 35.9724 Y 36.5405 Z -1.0000 I -1.0680 J -4.4590
G02 X 36.3835 Y 36.2970 Z -1.0000 I -0.7042 J -1.6585
G02 X 36.8093 Y 35.7466 Z -1.0000 I -0.8874 J -1.1263
G02 X 36.9782 Y 34.9412 Z -1.0000 I -1.8367 J -0.8055
G02 X 36.7966 Y 34.1142 Z -1.0000 I -1.9741 J 0.0000
G02 X 36.2799 Y 33.4276 Z -1.0000 I -1.8468 J 0.8520
G02 X 35.5194 Y 33.0080 Z -1.0000 I -1.3737 J 1.5906
G02 X 34.3159 Y 32.8285 Z -1.0000 I -1.2035 J 3.9454
G02 X 33.0797 Y 33.0036 Z -1.0000 I 0.0000 J 4.4502
G02 X 32.2753 Y 33.4186 Z -1.0000 I 0.6496 J 2.2462
G02 X 31.7358 Y 34.1111 Z -1.0000 I 1.1816 J 1.4770
G02 X 31.5321 Y 35.0493 Z -1.0000 I 2.0582 J 0.9382
G01 X 32.8564 Y 35.0493 Z -1.0000
G03 X 32.9646 Y 34.6140 Z -1.0000 I 2.1038 J 0.2916
G03 X 33.1042 Y 34.3691 Z -1.0000 I 0.7887 J 0.2873
G03 X 33.5035 Y 34.0894 Z -1.0000 I 0.7037 J 0.5799
G03 X 34.2619 Y 33.9591 Z -1.0000 I 0.7584 J 2.1418
G01 X 34.2619 Y 33.9591 Z -1.0000
G00 Z 5.0000

(End cutting path id: path46)


(Start cutting path id: path47)
(Change tool to Default tool)

G00 Z 5.0000
G00 X 10.6215 Y 26.9842

G01 Z -1.0000 F 100.0000(Penetrate)
G01 X 8.1755 Y 26.9842 Z -1.0000 F 3500.0000
G01 X 7.7160 Y 25.6193 Z -1.0000
G01 X 6.2655 Y 25.6193 Z -1.0000
G01 X 8.6350 Y 32.2591 Z -1.0000
G01 X 10.2026 Y 32.2591 Z -1.0000
G01 X 12.5540 Y 25.6193 Z -1.0000
G01 X 11.0495 Y 25.6193 Z -1.0000
G01 X 10.6215 Y 26.9842 Z -1.0000
G00 Z 5.0000

(End cutting path id: path47)


(Start cutting path id: path47)
(Change tool to Default tool)

G00 Z 5.0000
G00 X 10.2341 Y 28.1283

G01 Z -1.0000 F 100.0000(Penetrate)
G01 X 9.4053 Y 30.7410 Z -1.0000 F 3500.0000
G01 X 8.5494 Y 28.1283 Z -1.0000
G01 X 10.2341 Y 28.1283 Z -1.0000
G00 Z 5.0000

(End cutting path id: path47)



(Footer)
M5
G00 X0.0000 Y0.0000
M2
(Using default footer. To add your own footer create file "footer" in the output dir.)
(end)
%