%
(Header)
(Generated by gcodetools from Inkscape.)
(Using default header. To add your own header create file "header" in the output dir.)
M3
(Header end.)
G21 (All units in mm)

(Start cutting path id: path250)
(Change tool to Default tool)

G00 Z5.000000
G00 X0.966247 Y15.818077

G01 Z-1.000000 F100.0(Penetrate)
G01 X3.725085 Y15.818077 Z-1.000000 F3500.000000
G02 X5.610793 Y15.624454 Z-1.000000 I0.000000 J-9.279319
G02 X6.530234 Y15.235877 Z-1.000000 I-0.522864 J-2.519259
G02 X7.146797 Y14.526147 Z-1.000000 I-0.977488 J-1.471849
G02 X7.396919 Y13.423115 Z-1.000000 I-2.307105 J-1.103032
G02 X7.266208 Y12.610456 Z-1.000000 I-2.591581 J-0.000000
G02 X6.927189 Y12.000693 Z-1.000000 I-1.767988 J0.583847
G02 X6.386933 Y11.566594 Z-1.000000 I-1.385488 J1.171068
G02 X5.557694 Y11.279558 Z-1.000000 I-1.355044 J2.573340
G01 X5.557694 Y11.213398 Z-1.000000
G02 X6.600239 Y10.884748 Z-1.000000 I-0.684608 J-3.989625
G02 X7.198442 Y10.439336 Z-1.000000 I-0.804001 J-1.704208
G02 X7.577318 Y9.798990 Z-1.000000 I-1.361805 J-1.238004
G02 X7.727715 Y8.897827 Z-1.000000 I-2.624639 J-0.901163
G02 X7.480693 Y7.717920 Z-1.000000 I-2.941436 J0.000000
G02 X6.841182 Y6.873356 Z-1.000000 I-2.080815 J0.911207
G02 X5.876827 Y6.363058 Z-1.000000 I-1.736673 J2.115583
G02 X4.366829 Y6.145605 Z-1.000000 I-1.509998 J5.133995
G01 X0.966247 Y6.145605 Z-1.000000
G01 X0.966247 Y15.818077 Z-1.000000
G00 Z5.000000

(End cutting path id: path250)


(Start cutting path id: path250)
(Change tool to Default tool)

G00 Z5.000000
G00 X2.183576 Y11.702976

G01 Z-1.000000 F100.0(Penetrate)
G01 X3.969874 Y11.702976 Z-1.000000 F3500.000000
G03 X5.069894 Y11.822549 Z-1.000000 I-0.000000 J5.119658
G03 X5.623853 Y12.066852 Z-1.000000 I-0.329334 J1.496973
G03 X5.982999 Y12.512074 Z-1.000000 I-0.600911 J0.852202
G03 X6.139895 Y13.284181 Z-1.000000 I-1.821382 J0.772107
G03 X5.975063 Y13.986054 Z-1.000000 I-1.576739 J-0.000000
G03 X5.570926 Y14.428735 Z-1.000000 I-0.975940 J-0.485149
G03 X4.975437 Y14.663607 Z-1.000000 I-0.936380 J-1.501744
G03 X3.784628 Y14.779378 Z-1.000000 I-1.190809 J-6.066395
G01 X2.183576 Y14.779378 Z-1.000000
G01 X2.183576 Y11.702976 Z-1.000000
G00 Z5.000000

(End cutting path id: path250)


(Start cutting path id: path250)
(Change tool to Default tool)

G00 Z5.000000
G00 X2.183576 Y10.684125

G01 Z-1.000000 F100.0(Penetrate)
G01 X2.183576 Y7.177688 Z-1.000000 F3500.000000
G01 X4.135272 Y7.177688 Z-1.000000
G03 X5.249590 Y7.320465 Z-1.000000 I-0.000000 J4.419786
G03 X5.862026 Y7.627571 Z-1.000000 I-0.414434 J1.590692
G03 X6.259158 Y8.156863 Z-1.000000 I-0.827768 J1.034712
G03 X6.424379 Y8.990450 Z-1.000000 I-2.020223 J0.833587
G03 X6.252282 Y9.766710 Z-1.000000 I-1.836743 J0.000000
G03 X5.828947 Y10.267322 Z-1.000000 I-1.131778 J-0.527772
G03 X5.191813 Y10.551833 Z-1.000000 I-1.055280 J-1.507542
G03 X4.042649 Y10.684125 Z-1.000000 I-1.149164 J-4.924986
G01 X2.183576 Y10.684125 Z-1.000000
G00 Z5.000000

(End cutting path id: path250)


(Start cutting path id: path250)
(Change tool to Default tool)

G00 Z5.000000
G00 X11.637723 Y6.972595

G01 Z-1.000000 F100.0(Penetrate)
G03 X12.574934 Y7.128329 Z-1.000000 I0.000000 J2.897946 F3500.000000
G03 X13.205696 Y7.508484 Z-1.000000 I-0.563166 J1.647783
G03 X13.614389 Y8.123028 Z-1.000000 I-1.119291 J1.187537
G03 X13.781280 Y9.043377 Z-1.000000 I-2.454268 J0.920349
G01 X13.781280 Y9.698353 Z-1.000000
G01 X12.709502 Y9.652043 Z-1.000000
G03 X11.491393 Y9.498313 Z-1.000000 I0.257001 J-6.939240
G03 X10.883508 Y9.255088 Z-1.000000 I0.419493 J-1.929670
G03 X10.475543 Y8.814544 Z-1.000000 I0.587389 J-0.953121
G03 X10.314539 Y8.150229 Z-1.000000 I1.290008 J-0.664315
G03 X10.414056 Y7.626093 Z-1.000000 I1.430015 J-0.000000
G03 X10.658567 Y7.276928 Z-1.000000 I0.849384 J0.334606
G03 X11.042934 Y7.062899 Z-1.000000 I0.702439 J0.809333
G03 X11.637723 Y6.972596 Z-1.000000 I0.594789 J1.913671
G01 X11.637723 Y6.972595 Z-1.000000
G00 Z5.000000

(End cutting path id: path250)


(Start cutting path id: path250)
(Change tool to Default tool)

G00 Z5.000000
G00 X14.092229 Y6.145605

G01 Z-1.000000 F100.0(Penetrate)
G01 X13.860672 Y7.177688 Z-1.000000 F3500.000000
G01 X13.807742 Y7.177688 Z-1.000000
G02 X13.213506 Y6.562746 Z-1.000000 I-3.493220 J2.781011
G02 X12.722732 Y6.251460 Z-1.000000 I-1.338979 J1.568518
G02 X12.171947 Y6.083475 Z-1.000000 I-0.959342 J2.158522
G02 X11.366468 Y6.013287 Z-1.000000 I-0.805479 J4.586760
G02 X10.358900 Y6.177403 Z-1.000000 I-0.000000 J3.174968
G02 X9.686025 Y6.575640 Z-1.000000 I0.591078 J1.766280
G02 X9.252953 Y7.214826 Z-1.000000 I1.151894 J1.246756
G02 X9.077361 Y8.163460 Z-1.000000 I2.474698 J0.948634
G02 X9.856889 Y9.616956 Z-1.000000 I1.744848 J-0.000000
G02 X12.563950 Y10.479031 Z-1.000000 I2.864167 J-4.312618
G01 X13.794510 Y10.525341 Z-1.000000
G01 X13.794510 Y10.955376 Z-1.000000
G03 X13.681950 Y11.738631 Z-1.000000 I-2.781433 J0.000000
G03 X13.437251 Y12.172705 Z-1.000000 I-1.058320 J-0.310593
G03 X13.025038 Y12.446270 Z-1.000000 I-0.737200 J-0.663481
G03 X12.292697 Y12.569660 Z-1.000000 I-0.732341 J-2.111583
G03 X11.724334 Y12.525154 Z-1.000000 I0.000000 J-3.651422
G03 X11.201070 Y12.397646 Z-1.000000 I0.507240 J-3.219020
G03 X10.697155 Y12.211945 Z-1.000000 I3.131891 J-9.275197
G03 X10.241762 Y12.013922 Z-1.000000 I3.108633 J-7.771567
G01 X9.877889 Y12.907073 Z-1.000000
G02 X10.440824 Y13.162412 Z-1.000000 I2.350655 J-4.434181
G02 X11.075370 Y13.363572 Z-1.000000 I2.073219 J-5.438437
G02 X11.728805 Y13.488541 Z-1.000000 I1.353028 J-5.303870
G02 X12.358858 Y13.528970 Z-1.000000 I0.630053 J-4.889206
G02 X13.605412 Y13.347594 Z-1.000000 I0.000000 J-4.374329
G02 X14.317170 Y12.946769 Z-1.000000 I-0.524187 J-1.763173
G02 X14.759954 Y12.276432 Z-1.000000 I-1.089815 J-1.201273
G02 X14.958914 Y11.094312 Z-1.000000 I-3.412305 J-1.182120
G01 X14.958914 Y6.145605 Z-1.000000
G01 X14.092229 Y6.145605 Z-1.000000
G00 Z5.000000

(End cutting path id: path250)


(Start cutting path id: path250)
(Change tool to Default tool)

G00 Z5.000000
G00 X18.399191 Y6.145605

G01 Z-1.000000 F100.0(Penetrate)
G01 X17.208325 Y6.145605 Z-1.000000 F3500.000000
G01 X17.208325 Y16.439974 Z-1.000000
G01 X18.399191 Y16.439974 Z-1.000000
G01 X18.399191 Y6.145605 Z-1.000000
G00 Z5.000000

(End cutting path id: path250)


(Start cutting path id: path250)
(Change tool to Default tool)

G00 Z5.000000
G00 X21.892397 Y6.145605

G01 Z-1.000000 F100.0(Penetrate)
G01 X20.701532 Y6.145605 Z-1.000000 F3500.000000
G01 X20.701532 Y16.439974 Z-1.000000
G01 X21.892397 Y16.439974 Z-1.000000
G01 X21.892397 Y6.145605 Z-1.000000
G00 Z5.000000

(End cutting path id: path250)


(Start cutting path id: path249)
(Change tool to Default tool)

G00 Z5.000000
G00 X11.677419 Y22.950037

G01 Z-1.000000 F100.0(Penetrate)
G02 X10.361708 Y23.242482 Z-1.000000 I0.000000 J3.105916 F3500.000000
G02 X9.428007 Y24.001968 Z-1.000000 I1.049180 J2.243529
G01 X9.348616 Y24.001968 Z-1.000000
G01 X9.375080 Y23.730715 Z-1.000000
G02 X9.416420 Y23.214081 Z-1.000000 I-11.531074 J-1.182668
G02 X9.428007 Y22.811103 Z-1.000000 I-7.001790 J-0.402978
G01 X9.428007 Y19.827324 Z-1.000000
G01 X8.237141 Y19.827324 Z-1.000000
G01 X8.237141 Y30.346634 Z-1.000000
G01 X9.216297 Y30.346634 Z-1.000000
G01 X9.375079 Y29.354246 Z-1.000000
G01 X9.428006 Y29.354246 Z-1.000000
G02 X9.906310 Y29.884323 Z-1.000000 I2.514584 J-1.788149
G02 X10.407162 Y30.214315 Z-1.000000 I1.437050 J-1.636026
G02 X10.979296 Y30.406380 Z-1.000000 I1.078878 J-2.265643
G02 X11.690650 Y30.478952 Z-1.000000 I0.711354 J-3.450066
G02 X12.973598 Y30.204259 Z-1.000000 I0.000000 J-3.133342
G02 X13.887135 Y29.493180 Z-1.000000 I-0.998823 J-2.225564
G02 X14.436794 Y28.430336 Z-1.000000 I-2.347722 J-1.887697
G02 X14.674430 Y26.727726 Z-1.000000 I-5.980592 J-1.702610
G02 X14.438536 Y25.029824 Z-1.000000 I-6.228482 J-0.000000
G02 X13.887135 Y23.949041 Z-1.000000 I-3.002161 J0.850613
G02 X12.965182 Y23.227609 Z-1.000000 I-1.938924 J1.528025
G02 X11.677419 Y22.950037 Z-1.000000 I-1.287763 J2.848427
G01 X11.677419 Y22.950037 Z-1.000000
G00 Z5.000000

(End cutting path id: path249)


(Start cutting path id: path249)
(Change tool to Default tool)

G00 Z5.000000
G00 X6.450843 Y25.669179

G01 Z-1.000000 F100.0(Penetrate)
G02 X6.201227 Y24.525783 Z-1.000000 I-2.743545 J0.000000 F3500.000000
G02 X5.537846 Y23.677788 Z-1.000000 I-2.110654 J0.967676
G02 X4.548661 Y23.167852 Z-1.000000 I-1.772115 J2.223199
G02 X2.997334 Y22.950037 Z-1.000000 I-1.551327 J5.415541
G02 X1.310268 Y23.093771 Z-1.000000 I0.000000 J9.972736
G02 X0.337735 Y23.406535 Z-1.000000 I0.614155 J3.578124
G01 X0.337735 Y24.570937 Z-1.000000
G03 X0.963647 Y24.339936 Z-1.000000 I2.505317 J5.824856
G03 X1.680766 Y24.154134 Z-1.000000 I2.317049 J7.466044
G03 X2.418719 Y24.036946 Z-1.000000 I1.619287 J7.814824
G03 X3.050261 Y24.001968 Z-1.000000 I0.631542 J5.683885
G03 X4.091296 Y24.132640 Z-1.000000 I-0.000000 J4.212188
G03 X4.684393 Y24.418771 Z-1.000000 I-0.410081 J1.607778
G03 X5.084768 Y24.909413 Z-1.000000 I-0.815013 J1.073747
G03 X5.233514 Y25.563325 Z-1.000000 I-1.362974 J0.653912
G03 X5.176122 Y26.029531 Z-1.000000 I-1.922218 J0.000000
G03 X5.035037 Y26.357235 Z-1.000000 I-1.075869 J-0.268967
G03 X4.800054 Y26.630019 Z-1.000000 I-1.064880 J-0.679711
G03 X4.366829 Y26.939436 Z-1.000000 I-1.814511 J-2.082563
G03 X3.890228 Y27.181989 Z-1.000000 I-2.288365 J-3.906973
G03 X2.957638 Y27.554716 Z-1.000000 I-6.390063 J-14.635315
G02 X1.692724 Y28.157943 Z-1.000000 I2.518556 J6.909011
G02 X1.039022 Y28.705886 Z-1.000000 I1.401669 J2.336114
G02 X0.624995 Y29.434082 Z-1.000000 I1.645378 J1.417305
G02 X0.463437 Y30.426025 Z-1.000000 I2.964425 J0.991942
G02 X0.691605 Y31.446740 Z-1.000000 I2.397189 J0.000000
G02 X1.310275 Y32.225554 Z-1.000000 I1.961586 J-0.923099
G02 X2.230249 Y32.700894 Z-1.000000 I1.713717 J-2.188807
G02 X3.553071 Y32.893762 Z-1.000000 I1.322822 J-4.439966
G02 X4.971567 Y32.750912 Z-1.000000 I-0.000000 J-7.114239
G02 X6.219286 Y32.351257 Z-1.000000 I-1.197954 J-5.887508
G01 X5.842179 Y31.305942 Z-1.000000
G03 X4.575387 Y31.706535 Z-1.000000 I-2.929773 J-7.061505
G03 X3.526607 Y31.821983 Z-1.000000 I-1.048780 J-4.706064
G03 X2.703766 Y31.711095 Z-1.000000 I-0.000000 J-3.108380
G03 X2.176960 Y31.451492 Z-1.000000 I0.411704 J-1.499778
G03 X1.827221 Y31.015292 Z-1.000000 I0.714066 J-0.930836
G03 X1.693998 Y30.412793 Z-1.000000 I1.295785 J-0.602499
G03 X1.747180 Y29.950825 Z-1.000000 I2.033044 J0.000000
G03 X1.879244 Y29.618883 Z-1.000000 I1.168511 J0.272653
G03 X2.105591 Y29.342370 Z-1.000000 I1.145566 J0.706837
G03 X2.487908 Y29.049914 Z-1.000000 I1.667905 J1.784270
G03 X2.925187 Y28.820600 Z-1.000000 I1.999391 J3.281048
G03 X3.811092 Y28.461097 Z-1.000000 I5.856829 J13.161407
G02 X4.863640 Y28.015200 Z-1.000000 I-4.114087 J-11.176605
G02 X5.418760 Y27.687035 Z-1.000000 I-1.644280 J-3.415046
G02 X5.893382 Y27.268877 Z-1.000000 I-1.629882 J-2.328399
G02 X6.199438 Y26.826965 Z-1.000000 I-1.519809 J-1.379518
G02 X6.380274 Y26.326735 Z-1.000000 I-1.778140 J-0.925607
G02 X6.450843 Y25.669179 Z-1.000000 I-3.028222 J-0.657556
G01 X6.450843 Y25.669179 Z-1.000000
G00 Z5.000000

(End cutting path id: path249)


(Start cutting path id: path249)
(Change tool to Default tool)

G00 Z5.000000
G00 X11.478941 Y29.479948

G01 Z-1.000000 F100.0(Penetrate)
G03 X10.490342 Y29.294067 Z-1.000000 I-0.000000 J-2.721855 F3500.000000
G03 X9.917584 Y28.871284 Z-1.000000 I0.495137 J-1.270134
G03 X9.592015 Y28.209775 Z-1.000000 I1.414621 J-1.107094
G03 X9.428007 Y26.959284 Z-1.000000 I5.092072 J-1.303853
G01 X9.428007 Y26.727726 Z-1.000000
G03 X9.588850 Y25.305417 Z-1.000000 I6.369027 J0.000000
G03 X9.917584 Y24.590785 Z-1.000000 I1.874928 J0.429550
G03 X10.506345 Y24.133774 Z-1.000000 I1.123774 J0.839992
G03 X11.505405 Y23.935809 Z-1.000000 I0.999060 J2.421963
G03 X12.314226 Y24.133849 Z-1.000000 I0.000000 J1.750687
G03 X12.927827 Y24.676792 Z-1.000000 I-0.783022 J1.503122
G03 X13.287038 Y25.467005 Z-1.000000 I-1.971234 J1.372825
G03 X13.443869 Y26.740958 Z-1.000000 I-5.095808 J1.273953
G03 X13.284135 Y28.018321 Z-1.000000 I-5.187301 J-0.000000
G03 X12.927827 Y28.772045 Z-1.000000 I-2.108674 J-0.535755
G03 X12.318885 Y29.285727 Z-1.000000 I-1.326215 J-0.954380
G03 X11.478941 Y29.479948 Z-1.000000 I-0.839944 J-1.719137
G01 X11.478941 Y29.479948 Z-1.000000
G00 Z5.000000

(End cutting path id: path249)


(Start cutting path id: path249)
(Change tool to Default tool)

G00 Z5.000000
G00 X17.400187 Y26.727726

G01 Z-1.000000 F100.0(Penetrate)
G03 X17.566436 Y25.413647 Z-1.000000 I5.276548 J-0.000000 F3500.000000
G03 X17.936077 Y24.643712 Z-1.000000 I2.124683 J0.546348
G03 X18.578224 Y24.137707 Z-1.000000 I1.313836 J1.006865
G03 X19.530513 Y23.935809 Z-1.000000 I0.952289 J2.144876
G03 X20.470144 Y24.136545 Z-1.000000 I0.000000 J2.299537
G03 X21.111717 Y24.643712 Z-1.000000 I-0.680738 J1.520527
G03 X21.486136 Y25.414811 Z-1.000000 I-1.740816 J1.321733
G03 X21.654223 Y26.727726 Z-1.000000 I-5.043506 J1.312915
G03 X21.482505 Y28.037099 Z-1.000000 I-5.077916 J0.000000
G03 X21.105101 Y28.785277 Z-1.000000 I-1.975496 J-0.527223
G03 X20.465523 Y29.280972 Z-1.000000 I-1.296768 J-1.012714
G03 X19.510665 Y29.479948 Z-1.000000 I-0.954858 J-2.191628
G03 X18.097406 Y28.782729 Z-1.000000 I-0.000000 J-1.780944
G03 X17.400187 Y26.727726 Z-1.000000 I2.679879 J-2.055003
G01 X17.400187 Y26.727726 Z-1.000000
G00 Z5.000000

(End cutting path id: path249)


(Start cutting path id: path249)
(Change tool to Default tool)

G00 Z5.000000
G00 X22.884783 Y26.727726

G01 Z-1.000000 F100.0(Penetrate)
G02 X22.619882 Y25.049752 Z-1.000000 I-5.446879 J0.000000 F3500.000000
G02 X21.985018 Y23.949041 Z-1.000000 I-2.899366 J0.938843
G02 X20.959455 Y23.232639 Z-1.000000 I-2.057450 J1.853065
G02 X19.497433 Y22.950037 Z-1.000000 I-1.462022 J3.640531
G02 X18.545547 Y23.072376 Z-1.000000 I0.000000 J3.764340
G02 X17.750831 Y23.406535 Z-1.000000 I0.768115 J2.938878
G02 X17.089605 Y23.959601 Z-1.000000 I1.501937 J2.467465
G02 X16.579813 Y24.729719 Z-1.000000 I2.482988 J2.197445
G02 X16.282631 Y25.615356 Z-1.000000 I3.485124 J1.662137
G02 X16.169626 Y26.727726 Z-1.000000 I5.418317 J1.112370
G02 X16.431754 Y28.400260 Z-1.000000 I5.466954 J-0.000000
G02 X17.056159 Y29.486564 Z-1.000000 I2.851021 J-0.916155
G02 X18.069456 Y30.195731 Z-1.000000 I2.013947 J-1.799127
G02 X19.543745 Y30.478952 Z-1.000000 I1.474289 J-3.695550
G02 X20.952378 Y30.197791 Z-1.000000 I-0.000000 J-3.669244
G02 X21.978403 Y29.466716 Z-1.000000 I-1.083594 J-2.606291
G02 X22.621717 Y28.360040 Z-1.000000 I-2.313403 J-2.085106
G02 X22.884783 Y26.727726 Z-1.000000 I-4.932689 J-1.632314
G01 X22.884783 Y26.727726 Z-1.000000
G00 Z5.000000

(End cutting path id: path249)


(Start cutting path id: path249)
(Change tool to Default tool)

G00 Z5.000000
G00 X28.157670 Y30.478952

G01 Z-1.000000 F100.0(Penetrate)
G02 X28.638269 Y30.456647 Z-1.000000 I-0.000000 J-5.188749 F3500.000000
G02 X29.011124 Y30.399561 Z-1.000000 I-0.295410 J-3.175662
G01 X28.865573 Y29.301319 Z-1.000000
G03 X28.459471 Y29.371594 Z-1.000000 I-0.850172 J-3.704437
G03 X28.078279 Y29.393939 Z-1.000000 I-0.381192 J-3.240229
G03 X27.526126 Y29.313859 Z-1.000000 I0.000000 J-1.943599
G03 X27.006500 Y29.076375 Z-1.000000 I0.578979 J-1.954054
G03 X26.577863 Y28.704586 Z-1.000000 I1.113745 J-1.717024
G03 X26.239054 Y28.196458 Z-1.000000 I1.786841 J-1.558447
G03 X26.034840 Y27.623333 Z-1.000000 I2.247595 J-1.123799
G03 X25.961185 Y26.959282 Z-1.000000 I2.956603 J-0.664051
G01 X25.961185 Y23.082353 Z-1.000000
G01 X24.770320 Y23.082353 Z-1.000000
G01 X24.770320 Y30.346634 Z-1.000000
G01 X25.749476 Y30.346634 Z-1.000000
G01 X25.881794 Y29.016834 Z-1.000000
G01 X25.934724 Y29.016834 Z-1.000000
G02 X26.415531 Y29.677275 Z-1.000000 I3.367554 J-1.946371
G02 X26.920493 Y30.108461 Z-1.000000 I1.907206 J-1.722260
G02 X27.517317 Y30.385129 Z-1.000000 I1.258410 J-1.932559
G02 X28.157670 Y30.478952 Z-1.000000 I0.640353 J-2.138323
G01 X28.157670 Y30.478952 Z-1.000000
G00 Z5.000000

(End cutting path id: path249)


(Start cutting path id: path249)
(Change tool to Default tool)

G00 Z5.000000
G00 X32.795429 Y23.922577

G01 Z-1.000000 F100.0(Penetrate)
G03 X33.026258 Y23.932411 Z-1.000000 I-0.000000 J2.713909 F3500.000000
G03 X33.337934 Y23.968887 Z-1.000000 I-0.425832 J4.988465
G03 X33.645968 Y24.026452 Z-1.000000 I-0.625604 J4.200610
G03 X33.807664 Y24.074741 Z-1.000000 I-0.270751 J1.201466
G01 X33.807664 Y23.161745 Z-1.000000
G02 X33.638214 Y23.102040 Z-1.000000 I-0.477972 J1.086227
G02 X33.291623 Y23.022810 Z-1.000000 I-1.208197 J4.487559
G02 X32.945671 Y22.968419 Z-1.000000 I-0.690171 J3.262409
G02 X32.590335 Y22.950030 Z-1.000000 I-0.355336 J3.423921
G02 X31.099927 Y23.589947 Z-1.000000 I-0.000000 J2.055585
G02 X30.460010 Y25.192826 Z-1.000000 I1.687503 J1.602879
G01 X30.460010 Y29.420398 Z-1.000000
G01 X29.434542 Y29.420398 Z-1.000000
G01 X29.434542 Y29.989367 Z-1.000000
G01 X30.473242 Y30.465713 Z-1.000000
G01 X30.949588 Y32.013838 Z-1.000000
G01 X31.657491 Y32.013838 Z-1.000000
G01 X31.657491 Y30.346627 Z-1.000000
G01 X33.754737 Y30.346627 Z-1.000000
G01 X33.754737 Y29.420398 Z-1.000000
G01 X31.657491 Y29.420398 Z-1.000000
G01 X31.657491 Y25.225906 Z-1.000000
G03 X31.747053 Y24.631258 Z-1.000000 I2.018867 J-0.000000
G03 X31.955207 Y24.259982 Z-1.000000 I0.966572 J0.297916
G03 X32.301956 Y24.017951 Z-1.000000 I0.696058 J0.627816
G03 X32.795429 Y23.922570 Z-1.000000 I0.493473 J1.228843
G01 X32.795429 Y23.922577 Z-1.000000
G00 Z5.000000

(End cutting path id: path249)


(Start cutting path id: path249)
(Change tool to Default tool)

G00 Z5.000000
G00 X39.986934 Y25.086979

G01 Z-1.000000 F100.0(Penetrate)
G02 X39.778536 Y24.173238 Z-1.000000 I-2.107392 J-0.000000 F3500.000000
G02 X39.226104 Y23.505774 Z-1.000000 I-1.622989 J0.780935
G02 X38.410138 Y23.118995 Z-1.000000 I-1.423301 J1.948568
G02 X37.089162 Y22.950037 Z-1.000000 I-1.320976 J5.079469
G02 X35.688509 Y23.088729 Z-1.000000 I-0.000000 J7.141963
G02 X34.806670 Y23.406535 Z-1.000000 I0.621217 J3.106088
G01 X34.806670 Y24.491546 Z-1.000000
G03 X36.035032 Y24.043481 Z-1.000000 I2.786477 J5.731278
G03 X37.115626 Y23.909345 Z-1.000000 I1.080594 J4.285539
G03 X37.984970 Y24.004775 Z-1.000000 I-0.000000 J4.007470
G03 X38.425578 Y24.200446 Z-1.000000 I-0.264171 J1.188767
G03 X38.728630 Y24.546887 Z-1.000000 I-0.572241 J0.806341
G03 X38.835765 Y24.981124 Z-1.000000 I-0.826450 J0.434237
G03 X38.738508 Y25.362531 Z-1.000000 I-0.796500 J-0.000000
G03 X38.438809 Y25.708875 Z-1.000000 I-0.946772 J-0.516422
G03 X38.024906 Y25.964271 Z-1.000000 I-1.496135 J-1.961600
G03 X37.042851 Y26.390315 Z-1.000000 I-5.242928 J-10.740355
G02 X36.034724 Y26.820688 Z-1.000000 I5.794936 J14.970265
G02 X35.600581 Y27.065138 Z-1.000000 I1.405501 J3.003916
G02 X35.221605 Y27.384404 Z-1.000000 I1.382859 J2.026046
G02 X34.985300 Y27.700266 Z-1.000000 I1.116482 J1.081593
G02 X34.847719 Y28.064789 Z-1.000000 I1.226732 J0.671228
G02 X34.793439 Y28.553720 Z-1.000000 I2.174908 J0.488931
G02 X34.986240 Y29.347229 Z-1.000000 I1.729323 J0.000000
G02 X35.521190 Y29.962910 Z-1.000000 I1.532847 J-0.791612
G02 X36.298355 Y30.323838 Z-1.000000 I1.369043 J-1.930700
G02 X37.519197 Y30.478952 Z-1.000000 I1.220842 J-4.726847
G02 X38.729003 Y30.352456 Z-1.000000 I-0.000000 J-5.848552
G02 X39.834768 Y29.989374 Z-1.000000 I-1.107529 J-5.238310
G01 X39.431197 Y29.043298 Z-1.000000
G03 X38.306342 Y29.406979 Z-1.000000 I-2.716707 J-6.481289
G03 X37.439806 Y29.506412 Z-1.000000 I-0.866536 J-3.726108
G03 X36.720306 Y29.431065 Z-1.000000 I0.000000 J-3.472988
G03 X36.315100 Y29.268239 Z-1.000000 I0.262175 J-1.238051
G03 X36.029378 Y28.981358 Z-1.000000 I0.432140 J-0.716119
G03 X35.931376 Y28.626495 Z-1.000000 I0.593477 J-0.354863
G03 X36.015536 Y28.269989 Z-1.000000 I0.797171 J0.000000
G03 X36.262172 Y27.964903 Z-1.000000 I0.817843 J0.408921
G03 X36.616120 Y27.747897 Z-1.000000 I1.137974 J1.458940
G03 X37.803681 Y27.243768 Z-1.000000 I7.570727 J16.183300
G02 X38.691578 Y26.870477 Z-1.000000 I-4.038246 J-10.847834
G02 X39.140097 Y26.615256 Z-1.000000 I-1.414097 J-3.006819
G02 X39.536544 Y26.286850 Z-1.000000 I-1.378023 J-2.067028
G02 X39.781841 Y25.960280 Z-1.000000 I-1.116950 J-1.094386
G02 X39.929659 Y25.581374 Z-1.000000 I-1.258022 J-0.709064
G02 X39.986934 Y25.086979 Z-1.000000 I-2.105172 J-0.494395
G01 X39.986934 Y25.086979 Z-1.000000
G00 Z5.000000

(End cutting path id: path249)


(Footer)
M5
G00 X0.0000 Y0.0000
M2
(Using default footer. To add your own footer create file "footer" in the output dir.)
(end)
%