%
(Header)
(Generated by gcodetools from Inkscape.)
(Using default header. To add your own header create file "header" in the output dir.)
M3
(Header end.)
G21 (All units in mm)

(Start cutting path id: path7298)
(Change tool to Default tool)

G00 Z 5.0000
G00 X 3.4557 Y 22.4088

G01 Z -1.0000 F 100.0000(Penetrate)
G03 X 4.0422 Y 22.4483 Z -1.0000 I 0.0000 J 4.3647 F 3500.0000
G03 X 4.4191 Y 22.5394 Z -1.0000 I -0.2552 J 1.8818
G03 X 4.9368 Y 22.9197 Z -1.0000 I -0.3761 J 1.0546
G03 X 5.1212 Y 23.4701 Z -1.0000 I -0.7296 J 0.5504
G03 X 5.0298 Y 23.8167 Z -1.0000 I -0.7035 J -0.0000
G03 X 4.7728 Y 24.0851 Z -1.0000 I -0.6574 J -0.3723
G03 X 4.4081 Y 24.2564 Z -1.0000 I -0.9700 J -1.5918
G03 X 3.6789 Y 24.4606 Z -1.0000 I -2.1373 J -6.2260
G01 X 2.8298 Y 24.6511 Z -1.0000
G02 X 1.6090 Y 25.0046 Z -1.0000 I 2.3550 J 10.4164
G02 X 1.0991 Y 25.2661 Z -1.0000 I 0.7270 J 2.0460
G02 X 0.5229 Y 25.9450 Z -1.0000 I 0.9541 J 1.3937
G02 X 0.2881 Y 27.0023 Z -1.0000 I 2.2635 J 1.0573
G02 X 0.4946 Y 27.9887 Z -1.0000 I 2.4600 J -0.0000
G02 X 1.0719 Y 28.7929 Z -1.0000 I 2.1750 J -0.9520
G02 X 1.9396 Y 29.2888 Z -1.0000 I 1.5484 J -1.7020
G02 X 3.3741 Y 29.5059 Z -1.0000 I 1.4345 J -4.6321
G02 X 4.5805 Y 29.3219 Z -1.0000 I 0.0000 J -4.0464
G02 X 5.5348 Y 28.8310 Z -1.0000 I -0.9329 J -2.9869
G02 X 6.1917 Y 28.0354 Z -1.0000 I -1.2969 J -1.7398
G02 X 6.4764 Y 26.8826 Z -1.0000 I -2.5880 J -1.2506
G01 X 4.8654 Y 26.8826 Z -1.0000
G03 X 4.6686 Y 27.5069 Z -1.0000 I -1.3458 J -0.0810
G03 X 4.2340 Y 27.9112 Z -1.0000 I -0.9450 J -0.5800
G03 X 3.8281 Y 28.0545 Z -1.0000 I -0.7286 J -1.4178
G03 X 3.2598 Y 28.1126 Z -1.0000 I -0.5683 J -2.7493
G03 X 2.6359 Y 28.0350 Z -1.0000 I 0.0000 J -2.5472
G03 X 2.2257 Y 27.8513 Z -1.0000 I 0.3188 J -1.2620
G03 X 1.9421 Y 27.5355 Z -1.0000 I 0.4910 J -0.7263
G03 X 1.8393 Y 27.1220 Z -1.0000 I 0.7804 J -0.4135
G03 X 1.9408 Y 26.7518 Z -1.0000 I 0.7258 J -0.0000
G03 X 2.2203 Y 26.4798 Z -1.0000 I 0.6437 J 0.3818
G03 X 2.4765 Y 26.3667 Z -1.0000 I 0.6491 J 1.1234
G03 X 3.2652 Y 26.1478 Z -1.0000 I 3.3556 J 10.5620
G01 X 4.6476 Y 25.8158 Z -1.0000
G02 X 5.5224 Y 25.5276 Z -1.0000 I -1.2904 J -5.3874
G02 X 6.0192 Y 25.2335 Z -1.0000 I -0.8508 J -2.0038
G02 X 6.5336 Y 24.5684 Z -1.0000 I -1.0721 J -1.3608
G02 X 6.7376 Y 23.5952 Z -1.0000 I -2.2192 J -0.9732
G02 X 6.5183 Y 22.5962 Z -1.0000 I -2.3851 J 0.0000
G02 X 5.8940 Y 21.7665 Z -1.0000 I -2.2314 J 1.0294
G02 X 4.9752 Y 21.2595 Z -1.0000 I -1.6597 J 1.9218
G02 X 3.5210 Y 21.0427 Z -1.0000 I -1.4541 J 4.7669
G02 X 2.0274 Y 21.2543 Z -1.0000 I 0.0000 J 5.3768
G02 X 1.0555 Y 21.7557 Z -1.0000 I 0.7848 J 2.7139
G02 X 0.4037 Y 22.5924 Z -1.0000 I 1.4277 J 1.7846
G02 X 0.1575 Y 23.7259 Z -1.0000 I 2.4868 J 1.1335
G01 X 1.7576 Y 23.7259 Z -1.0000
G03 X 1.8883 Y 23.2000 Z -1.0000 I 2.5417 J 0.3523
G03 X 2.0570 Y 22.9040 Z -1.0000 I 0.9528 J 0.3471
G03 X 2.5394 Y 22.5662 Z -1.0000 I 0.8502 J 0.7007
G03 X 3.4557 Y 22.4088 Z -1.0000 I 0.9163 J 2.5878
G01 X 3.4557 Y 22.4088 Z -1.0000
G00 Z 5.0000

(End cutting path id: path7298)


(Start cutting path id: path7298)
(Change tool to Default tool)

G00 Z 5.0000
G00 X 7.8479 Y 29.2719

G01 Z -1.0000 F 100.0000(Penetrate)
G01 X 9.5133 Y 29.2719 Z -1.0000 F 3500.0000
G01 X 9.5133 Y 21.2495 Z -1.0000
G01 X 7.8479 Y 21.2495 Z -1.0000
G01 X 7.8479 Y 29.2719 Z -1.0000
G00 Z 5.0000

(End cutting path id: path7298)


(Start cutting path id: path7297)
(Change tool to Default tool)

G00 Z 5.0000
G00 X 3.4557 Y 32.4405

G01 Z -1.0000 F 100.0000(Penetrate)
G03 X 4.0422 Y 32.4801 Z -1.0000 I -0.0000 J 4.3647 F 3500.0000
G03 X 4.4191 Y 32.5711 Z -1.0000 I -0.2552 J 1.8818
G03 X 4.9368 Y 32.9515 Z -1.0000 I -0.3761 J 1.0546
G03 X 5.1212 Y 33.5018 Z -1.0000 I -0.7296 J 0.5504
G03 X 5.0298 Y 33.8485 Z -1.0000 I -0.7035 J -0.0000
G03 X 4.7728 Y 34.1168 Z -1.0000 I -0.6574 J -0.3723
G03 X 4.4081 Y 34.2881 Z -1.0000 I -0.9700 J -1.5918
G03 X 3.6789 Y 34.4924 Z -1.0000 I -2.1373 J -6.2260
G01 X 2.8298 Y 34.6829 Z -1.0000
G02 X 1.6090 Y 35.0364 Z -1.0000 I 2.3550 J 10.4164
G02 X 1.0991 Y 35.2979 Z -1.0000 I 0.7270 J 2.0460
G02 X 0.5229 Y 35.9768 Z -1.0000 I 0.9541 J 1.3937
G02 X 0.2881 Y 37.0341 Z -1.0000 I 2.2635 J 1.0573
G02 X 0.4946 Y 38.0204 Z -1.0000 I 2.4600 J -0.0000
G02 X 1.0719 Y 38.8247 Z -1.0000 I 2.1750 J -0.9520
G02 X 1.9396 Y 39.3206 Z -1.0000 I 1.5484 J -1.7020
G02 X 3.3741 Y 39.5376 Z -1.0000 I 1.4345 J -4.6321
G02 X 4.5805 Y 39.3536 Z -1.0000 I 0.0000 J -4.0464
G02 X 5.5348 Y 38.8628 Z -1.0000 I -0.9329 J -2.9869
G02 X 6.1917 Y 38.0671 Z -1.0000 I -1.2969 J -1.7398
G02 X 6.4764 Y 36.9143 Z -1.0000 I -2.5880 J -1.2506
G01 X 4.8654 Y 36.9143 Z -1.0000
G03 X 4.6686 Y 37.5386 Z -1.0000 I -1.3458 J -0.0810
G03 X 4.2340 Y 37.9430 Z -1.0000 I -0.9450 J -0.5800
G03 X 3.8281 Y 38.0862 Z -1.0000 I -0.7286 J -1.4178
G03 X 3.2598 Y 38.1443 Z -1.0000 I -0.5683 J -2.7493
G03 X 2.6359 Y 38.0668 Z -1.0000 I -0.0000 J -2.5472
G03 X 2.2257 Y 37.8831 Z -1.0000 I 0.3188 J -1.2620
G03 X 1.9421 Y 37.5673 Z -1.0000 I 0.4910 J -0.7263
G03 X 1.8393 Y 37.1538 Z -1.0000 I 0.7804 J -0.4135
G03 X 1.9408 Y 36.7835 Z -1.0000 I 0.7258 J -0.0000
G03 X 2.2203 Y 36.5116 Z -1.0000 I 0.6437 J 0.3818
G03 X 2.4765 Y 36.3985 Z -1.0000 I 0.6491 J 1.1234
G03 X 3.2652 Y 36.1796 Z -1.0000 I 3.3556 J 10.5620
G01 X 4.6476 Y 35.8476 Z -1.0000
G02 X 5.5224 Y 35.5593 Z -1.0000 I -1.2904 J -5.3874
G02 X 6.0192 Y 35.2652 Z -1.0000 I -0.8508 J -2.0038
G02 X 6.5336 Y 34.6002 Z -1.0000 I -1.0721 J -1.3608
G02 X 6.7376 Y 33.6270 Z -1.0000 I -2.2192 J -0.9732
G02 X 6.5183 Y 32.6279 Z -1.0000 I -2.3851 J 0.0000
G02 X 5.8940 Y 31.7983 Z -1.0000 I -2.2314 J 1.0294
G02 X 4.9752 Y 31.2913 Z -1.0000 I -1.6597 J 1.9218
G02 X 3.5210 Y 31.0744 Z -1.0000 I -1.4541 J 4.7669
G02 X 2.0274 Y 31.2861 Z -1.0000 I -0.0000 J 5.3768
G02 X 1.0555 Y 31.7874 Z -1.0000 I 0.7848 J 2.7139
G02 X 0.4037 Y 32.6241 Z -1.0000 I 1.4277 J 1.7846
G02 X 0.1575 Y 33.7576 Z -1.0000 I 2.4868 J 1.1335
G01 X 1.7576 Y 33.7576 Z -1.0000
G03 X 1.8883 Y 33.2317 Z -1.0000 I 2.5417 J 0.3523
G03 X 2.0570 Y 32.9358 Z -1.0000 I 0.9528 J 0.3471
G03 X 2.5394 Y 32.5980 Z -1.0000 I 0.8502 J 0.7007
G03 X 3.4557 Y 32.4405 Z -1.0000 I 0.9163 J 2.5878
G01 X 3.4557 Y 32.4405 Z -1.0000
G00 Z 5.0000

(End cutting path id: path7297)


(Start cutting path id: path7297)
(Change tool to Default tool)

G00 Z 5.0000
G00 X 13.8075 Y 39.3036

G01 Z -1.0000 F 100.0000(Penetrate)
G01 X 13.8075 Y 37.8831 Z -1.0000 F 3500.0000
G01 X 11.4073 Y 37.8831 Z -1.0000
G01 X 11.4073 Y 31.2813 Z -1.0000
G01 X 9.7201 Y 31.2813 Z -1.0000
G01 X 9.7201 Y 37.8831 Z -1.0000
G01 X 7.3091 Y 37.8831 Z -1.0000
G01 X 7.3091 Y 39.3036 Z -1.0000
G01 X 13.8075 Y 39.3036 Z -1.0000
G00 Z 5.0000

(End cutting path id: path7297)


(Start cutting path id: path7297)
(Change tool to Default tool)

G00 Z 5.0000
G00 X 19.7236 Y 33.2134

G01 Z -1.0000 F 100.0000(Penetrate)
G03 X 20.1291 Y 34.0097 Z -1.0000 I -1.7693 J 1.4023 F 3500.0000
G03 X 20.3059 Y 35.3033 Z -1.0000 I -4.6425 J 1.2936
G03 X 20.1279 Y 36.5906 Z -1.0000 I -4.7432 J 0.0000
G03 X 19.7182 Y 37.3878 Z -1.0000 I -2.1718 J -0.6124
G03 X 19.0385 Y 37.9277 Z -1.0000 I -1.4782 J -1.1630
G03 X 18.1398 Y 38.1280 Z -1.0000 I -0.8987 J -1.9164
G03 X 17.2385 Y 37.9298 Z -1.0000 I 0.0000 J -2.1476
G03 X 16.5506 Y 37.3933 Z -1.0000 I 0.8056 J -1.7424
G03 X 16.1371 Y 36.5950 Z -1.0000 I 1.7489 J -1.4121
G03 X 15.9573 Y 35.3033 Z -1.0000 I 4.5505 J -1.2917
G03 X 16.1371 Y 34.0116 Z -1.0000 I 4.7303 J 0.0000
G03 X 16.5506 Y 33.2134 Z -1.0000 I 2.1623 J 0.6138
G03 X 17.2385 Y 32.6769 Z -1.0000 I 1.4935 J 1.2059
G03 X 18.1398 Y 32.4786 Z -1.0000 I 0.9013 J 1.9494
G03 X 19.0403 Y 32.6773 Z -1.0000 I -0.0000 J 2.1398
G03 X 19.7236 Y 33.2134 Z -1.0000 I -0.7987 J 1.7216
G01 X 19.7236 Y 33.2134 Z -1.0000
G00 Z 5.0000

(End cutting path id: path7297)


(Start cutting path id: path7297)
(Change tool to Default tool)

G00 Z 5.0000
G00 X 18.1398 Y 31.0581

G01 Z -1.0000 F 100.0000(Penetrate)
G02 X 16.5370 Y 31.3350 Z -1.0000 I -0.0000 J 4.7777 F 3500.0000
G02 X 15.5110 Y 31.9942 Z -1.0000 I 0.9011 J 2.5303
G02 X 14.6497 Y 33.2971 Z -1.0000 I 2.3373 J 2.4814
G02 X 14.2919 Y 35.3033 Z -1.0000 I 5.4454 J 2.0062
G02 X 14.6562 Y 37.3461 Z -1.0000 I 5.9089 J -0.0000
G02 X 15.5110 Y 38.6124 Z -1.0000 I 3.0061 J -1.1075
G02 X 16.5370 Y 39.2717 Z -1.0000 I 1.9270 J -1.8710
G02 X 18.1398 Y 39.5485 Z -1.0000 I 1.6028 J -4.5008
G02 X 19.7426 Y 39.2717 Z -1.0000 I 0.0000 J -4.7777
G02 X 20.7686 Y 38.6124 Z -1.0000 I -0.9011 J -2.5303
G02 X 21.6193 Y 37.3471 Z -1.0000 I -2.1555 J -2.3679
G02 X 21.9823 Y 35.3033 Z -1.0000 I -5.5724 J -2.0438
G02 X 21.6258 Y 33.2961 Z -1.0000 I -5.8291 J -0.0000
G02 X 20.7686 Y 31.9942 Z -1.0000 I -3.1993 J 1.1734
G02 X 19.7426 Y 31.3350 Z -1.0000 I -1.9270 J 1.8710
G02 X 18.1398 Y 31.0581 Z -1.0000 I -1.6028 J 4.5008
G01 X 18.1398 Y 31.0581 Z -1.0000
G00 Z 5.0000

(End cutting path id: path7297)


(Start cutting path id: path7297)
(Change tool to Default tool)

G00 Z 5.0000
G00 X 26.6683 Y 34.1658

G01 Z -1.0000 F 100.0000(Penetrate)
G01 X 24.9648 Y 34.1658 Z -1.0000 F 3500.0000
G01 X 24.9648 Y 31.2813 Z -1.0000
G01 X 23.2994 Y 31.2813 Z -1.0000
G01 X 23.2994 Y 39.3036 Z -1.0000
G01 X 26.7935 Y 39.3036 Z -1.0000
G02 X 27.9351 Y 39.1243 Z -1.0000 I -0.0000 J -3.7241
G02 X 28.7202 Y 38.6832 Z -1.0000 I -0.6934 J -2.1531
G02 X 29.2213 Y 37.9633 Z -1.0000 I -1.1573 J -1.3401
G02 X 29.4386 Y 36.7619 Z -1.0000 I -3.2127 J -1.2013
G02 X 29.2109 Y 35.4493 Z -1.0000 I -3.8970 J 0.0000
G02 X 28.7202 Y 34.7536 Z -1.0000 I -1.4985 J 0.5361
G02 X 27.9381 Y 34.3441 Z -1.0000 I -1.3839 J 1.6915
G02 X 26.6683 Y 34.1658 Z -1.0000 I -1.2698 J 4.4325
G01 X 26.6683 Y 34.1658 Z -1.0000
G00 Z 5.0000

(End cutting path id: path7297)


(Start cutting path id: path7297)
(Change tool to Default tool)

G00 Z 5.0000
G00 X 27.4521 Y 35.8367

G01 Z -1.0000 F 100.0000(Penetrate)
G03 X 27.6780 Y 36.1705 Z -1.0000 I -0.5349 J 0.6056 F 3500.0000
G03 X 27.7786 Y 36.7510 Z -1.0000 I -1.6255 J 0.5806
G03 X 27.6749 Y 37.3272 Z -1.0000 I -1.6528 J 0.0000
G03 X 27.4466 Y 37.6436 Z -1.0000 I -0.6880 J -0.2559
G03 X 27.0915 Y 37.8301 Z -1.0000 I -0.6345 J -0.7769
G03 X 26.5268 Y 37.9103 Z -1.0000 I -0.5647 J -1.9475
G01 X 24.9648 Y 37.9103 Z -1.0000
G01 X 24.9648 Y 35.5482 Z -1.0000
G01 X 26.5268 Y 35.5482 Z -1.0000
G03 X 27.0881 Y 35.6337 Z -1.0000 I 0.0000 J 1.8859
G03 X 27.4521 Y 35.8367 Z -1.0000 I -0.3024 J 0.9699
G01 X 27.4521 Y 35.8367 Z -1.0000
G00 Z 5.0000

(End cutting path id: path7297)


(Start cutting path id: path7298)
(Change tool to Default tool)

G00 Z 5.0000
G00 X 26.2329 Y 21.2495

G01 Z -1.0000 F 100.0000(Penetrate)
G01 X 24.5566 Y 21.2495 Z -1.0000 F 3500.0000
G01 X 21.2802 Y 26.9479 Z -1.0000
G01 X 21.2802 Y 21.2495 Z -1.0000
G01 X 19.7181 Y 21.2495 Z -1.0000
G01 X 19.7181 Y 29.2719 Z -1.0000
G01 X 21.4761 Y 29.2719 Z -1.0000
G01 X 24.6709 Y 23.6714 Z -1.0000
G01 X 24.6709 Y 29.2719 Z -1.0000
G01 X 26.2329 Y 29.2719 Z -1.0000
G01 X 26.2329 Y 21.2495 Z -1.0000
G00 Z 5.0000

(End cutting path id: path7298)


(Start cutting path id: path7298)
(Change tool to Default tool)

G00 Z 5.0000
G00 X 15.9954 Y 21.4454

G01 Z -1.0000 F 100.0000(Penetrate)
G02 X 15.2988 Y 21.1525 Z -1.0000 I -1.2975 J 2.1105 F 3500.0000
G02 X 14.3627 Y 21.0372 Z -1.0000 I -0.9362 J 3.7448
G02 X 12.8982 Y 21.3342 Z -1.0000 I 0.0000 J 3.7598
G02 X 11.7502 Y 22.1421 Z -1.0000 I 1.2924 J 3.0559
G02 X 10.9950 Y 23.3751 Z -1.0000 I 2.4685 J 2.3596
G02 X 10.6889 Y 25.1790 Z -1.0000 I 5.1619 J 1.8039
G02 X 10.9942 Y 27.0092 Z -1.0000 I 5.6378 J -0.0000
G02 X 11.7611 Y 28.3031 Z -1.0000 I 3.5043 J -1.2027
G02 X 12.9757 Y 29.1560 Z -1.0000 I 2.5218 J -2.2999
G02 X 14.5967 Y 29.4787 Z -1.0000 I 1.6210 J -3.9098
G02 X 16.0444 Y 29.2547 Z -1.0000 I -0.0000 J -4.7898
G02 X 17.0513 Y 28.7004 Z -1.0000 I -0.8912 J -2.8108
G02 X 17.7809 Y 27.8184 Z -1.0000 I -1.9702 J -2.3726
G02 X 18.1180 Y 26.7683 Z -1.0000 I -2.5065 J -1.3839
G01 X 16.4689 Y 26.7683 Z -1.0000
G03 X 16.1282 Y 27.4657 Z -1.0000 I -1.6825 J -0.3900
G03 X 15.5382 Y 27.9167 Z -1.0000 I -1.2279 J -0.9952
G03 X 15.1146 Y 28.0483 Z -1.0000 I -0.8165 J -1.8804
G03 X 14.6185 Y 28.0963 Z -1.0000 I -0.4962 J -2.5411
G03 X 13.7388 Y 27.9033 Z -1.0000 I -0.0000 J -2.1022
G03 X 13.0238 Y 27.3615 Z -1.0000 I 0.8729 J -1.8944
G03 X 12.5968 Y 26.5610 Z -1.0000 I 1.6198 J -1.3780
G03 X 12.4033 Y 25.1627 Z -1.0000 I 4.9554 J -1.3983
G03 X 12.6208 Y 23.7784 Z -1.0000 I 4.5156 J -0.0000
G03 X 13.0782 Y 23.0673 Z -1.0000 I 1.5646 J 0.5039
G03 X 13.8129 Y 22.6067 Z -1.0000 I 1.6407 J 1.8004
G03 X 14.6130 Y 22.4523 Z -1.0000 I 0.8001 J 1.9968
G03 X 15.4050 Y 22.5870 Z -1.0000 I -0.0000 J 2.3949
G03 X 15.9954 Y 22.9367 Z -1.0000 I -0.5779 J 1.6493
G03 X 16.4199 Y 23.4883 Z -1.0000 I -1.3290 J 1.4619
G03 X 16.6594 Y 24.2157 Z -1.0000 I -2.1231 J 1.1022
G01 X 14.8035 Y 24.2157 Z -1.0000
G01 X 14.8035 Y 25.5546 Z -1.0000
G01 X 18.1452 Y 25.5546 Z -1.0000
G01 X 18.1452 Y 21.2495 Z -1.0000
G01 X 17.0350 Y 21.2495 Z -1.0000
G01 X 16.8662 Y 22.2509 Z -1.0000
G02 X 16.3523 Y 21.7142 Z -1.0000 I -4.6792 J 3.9662
G02 X 15.9954 Y 21.4454 Z -1.0000 I -1.5049 J 1.6269
G01 X 15.9954 Y 21.4454 Z -1.0000
G00 Z 5.0000

(End cutting path id: path7298)



(Footer)
M5
G00 X0.0000 Y0.0000
M2
(Using default footer. To add your own footer create file "footer" in the output dir.)
(end)
%