%
(Header)
(Generated by gcodetools from Inkscape.)
(Using default header. To add your own header create file "header" in the output dir.)
M3
(Header end.)
G21 (All units in mm)

(Start cutting path id: text19290)
(Change tool to Default tool)

G00 Z 5.0000
G00 X 2.0601 Y 35.5995

G01 Z -1.0000 F 100.0000(Penetrate)
G03 X 2.3900 Y 35.6218 Z -1.0000 I 0.0000 J 2.4558 F 3500.0000
G03 X 2.6021 Y 35.6730 Z -1.0000 I -0.1436 J 1.0588
G03 X 2.8934 Y 35.8870 Z -1.0000 I -0.2116 J 0.5934
G03 X 2.9971 Y 36.1967 Z -1.0000 I -0.4105 J 0.3097
G03 X 2.9457 Y 36.3917 Z -1.0000 I -0.3958 J -0.0000
G03 X 2.8011 Y 36.5427 Z -1.0000 I -0.3699 J -0.2095
G03 X 2.5959 Y 36.6391 Z -1.0000 I -0.5458 J -0.8956
G03 X 2.1856 Y 36.7540 Z -1.0000 I -1.2025 J -3.5030
G01 X 1.7079 Y 36.8612 Z -1.0000
G02 X 1.0210 Y 37.0601 Z -1.0000 I 1.3250 J 5.8607
G02 X 0.7341 Y 37.2072 Z -1.0000 I 0.4091 J 1.1512
G02 X 0.4099 Y 37.5892 Z -1.0000 I 0.5368 J 0.7842
G02 X 0.2778 Y 38.1841 Z -1.0000 I 1.2736 J 0.5949
G02 X 0.3940 Y 38.7390 Z -1.0000 I 1.3841 J -0.0000
G02 X 0.7188 Y 39.1915 Z -1.0000 I 1.2237 J -0.5356
G02 X 1.2070 Y 39.4706 Z -1.0000 I 0.8712 J -0.9576
G02 X 2.0141 Y 39.5927 Z -1.0000 I 0.8071 J -2.6062
G02 X 2.6929 Y 39.4891 Z -1.0000 I -0.0000 J -2.2767
G02 X 3.2298 Y 39.2130 Z -1.0000 I -0.5249 J -1.6806
G02 X 3.5994 Y 38.7653 Z -1.0000 I -0.7297 J -0.9789
G02 X 3.7596 Y 38.1167 Z -1.0000 I -1.4561 J -0.7036
G01 X 2.8532 Y 38.1167 Z -1.0000
G03 X 2.7425 Y 38.4680 Z -1.0000 I -0.7572 J -0.0455
G03 X 2.4980 Y 38.6955 Z -1.0000 I -0.5317 J -0.3263
G03 X 2.2696 Y 38.7761 Z -1.0000 I -0.4099 J -0.7977
G03 X 1.9498 Y 38.8088 Z -1.0000 I -0.3197 J -1.5469
G03 X 1.5988 Y 38.7651 Z -1.0000 I -0.0000 J -1.4332
G03 X 1.3680 Y 38.6618 Z -1.0000 I 0.1794 J -0.7100
G03 X 1.2084 Y 38.4841 Z -1.0000 I 0.2763 J -0.4086
G03 X 1.1506 Y 38.2514 Z -1.0000 I 0.4391 J -0.2326
G03 X 1.2077 Y 38.0431 Z -1.0000 I 0.4083 J -0.0000
G03 X 1.3649 Y 37.8901 Z -1.0000 I 0.3621 J 0.2148
G03 X 1.5091 Y 37.8264 Z -1.0000 I 0.3652 J 0.6321
G03 X 1.9529 Y 37.7033 Z -1.0000 I 1.8880 J 5.9426
G01 X 2.7307 Y 37.5165 Z -1.0000
G02 X 3.2228 Y 37.3543 Z -1.0000 I -0.7260 J -3.0312
G02 X 3.5024 Y 37.1888 Z -1.0000 I -0.4787 J -1.1274
G02 X 3.7918 Y 36.8147 Z -1.0000 I -0.6032 J -0.7656
G02 X 3.9066 Y 36.2671 Z -1.0000 I -1.2486 J -0.5476
G02 X 3.7832 Y 35.7050 Z -1.0000 I -1.3420 J -0.0000
G02 X 3.4319 Y 35.2382 Z -1.0000 I -1.2555 J 0.5792
G02 X 2.9150 Y 34.9529 Z -1.0000 I -0.9338 J 1.0813
G02 X 2.0968 Y 34.8309 Z -1.0000 I -0.8182 J 2.6821
G02 X 1.2564 Y 34.9500 Z -1.0000 I 0.0000 J 3.0252
G02 X 0.7096 Y 35.2321 Z -1.0000 I 0.4416 J 1.5270
G02 X 0.3428 Y 35.7029 Z -1.0000 I 0.8033 J 1.0041
G02 X 0.2044 Y 36.3406 Z -1.0000 I 1.3992 J 0.6378
G01 X 1.1046 Y 36.3406 Z -1.0000
G03 X 1.1782 Y 36.0447 Z -1.0000 I 1.4301 J 0.1982
G03 X 1.2731 Y 35.8782 Z -1.0000 I 0.5361 J 0.1953
G03 X 1.5445 Y 35.6881 Z -1.0000 I 0.4784 J 0.3942
G03 X 2.0601 Y 35.5995 Z -1.0000 I 0.5155 J 1.4560
G01 X 2.0601 Y 35.5995 Z -1.0000
G00 Z 5.0000

(End cutting path id: text19290)


(Start cutting path id: text19290)
(Change tool to Default tool)

G00 Z 5.0000
G00 X 7.2750 Y 36.6866

G01 Z -1.0000 F 100.0000(Penetrate)
G01 X 7.2750 Y 39.4610 Z -1.0000 F 3500.0000
G01 X 8.2335 Y 39.4610 Z -1.0000
G01 X 8.2335 Y 36.6866 Z -1.0000
G02 X 8.1642 Y 35.9850 Z -1.0000 I -3.5870 J 0.0000
G02 X 8.0100 Y 35.5659 Z -1.0000 I -1.4117 J 0.2816
G02 X 7.4602 Y 35.0596 Z -1.0000 I -1.0622 J 0.6019
G02 X 6.4207 Y 34.8309 Z -1.0000 I -1.0395 J 2.2480
G02 X 5.3805 Y 35.0594 Z -1.0000 I -0.0000 J 2.4822
G02 X 4.8283 Y 35.5659 Z -1.0000 I 0.5149 J 1.1156
G02 X 4.6741 Y 35.9850 Z -1.0000 I 1.2575 J 0.7007
G02 X 4.6048 Y 36.6866 Z -1.0000 I 3.5177 J 0.7016
G01 X 4.6048 Y 39.4610 Z -1.0000
G01 X 5.5633 Y 39.4610 Z -1.0000
G01 X 5.5633 Y 36.6866 Z -1.0000
G03 X 5.6000 Y 36.2301 Z -1.0000 I 2.8522 J -0.0000
G03 X 5.6735 Y 36.0068 Z -1.0000 I 0.7413 J 0.1202
G03 X 5.9221 Y 35.7465 Z -1.0000 I 0.4943 J 0.2232
G03 X 6.4207 Y 35.6271 Z -1.0000 I 0.4986 J 0.9811
G03 X 6.9164 Y 35.7463 Z -1.0000 I -0.0000 J 1.0906
G03 X 7.1648 Y 36.0068 Z -1.0000 I -0.2472 J 0.4844
G03 X 7.2383 Y 36.2301 Z -1.0000 I -0.6679 J 0.3435
G03 X 7.2750 Y 36.6866 Z -1.0000 I -2.8154 J 0.4566
G01 X 7.2750 Y 36.6866 Z -1.0000
G00 Z 5.0000

(End cutting path id: text19290)


(Start cutting path id: text19290)
(Change tool to Default tool)

G00 Z 5.0000
G00 X 11.0508 Y 36.7173

G01 Z -1.0000 F 100.0000(Penetrate)
G01 X 10.0770 Y 36.7173 Z -1.0000 F 3500.0000
G01 X 10.0770 Y 34.9473 Z -1.0000
G01 X 9.1552 Y 34.9473 Z -1.0000
G01 X 9.1552 Y 39.4610 Z -1.0000
G01 X 11.3692 Y 39.4610 Z -1.0000
G02 X 11.8370 Y 39.4193 Z -1.0000 I -0.0654 J -3.3811
G02 X 12.0980 Y 39.3446 Z -1.0000 I -0.1783 J -1.1166
G02 X 12.3361 Y 39.2111 Z -1.0000 I -0.4520 J -1.0849
G02 X 12.5329 Y 39.0292 Z -1.0000 I -0.6653 J -0.9172
G02 X 12.6645 Y 38.8484 Z -1.0000 I -1.0709 J -0.9180
G02 X 12.7656 Y 38.6495 Z -1.0000 I -1.1955 J -0.7327
G02 X 12.8279 Y 38.4366 Z -1.0000 I -0.9698 J -0.3993
G02 X 12.8513 Y 38.1749 Z -1.0000 I -1.4491 J -0.2618
G02 X 12.8120 Y 37.8629 Z -1.0000 I -1.2576 J 0.0000
G02 X 12.6890 Y 37.5410 Z -1.0000 I -1.4640 J 0.3748
G02 X 12.4806 Y 37.2855 Z -1.0000 I -0.7305 J 0.3833
G02 X 12.1532 Y 37.1031 Z -1.0000 I -0.6743 J 0.8251
G02 X 12.4315 Y 36.9391 Z -1.0000 I -0.4030 J -1.0026
G02 X 12.5941 Y 36.7448 Z -1.0000 I -0.4190 J -0.5157
G02 X 12.6829 Y 36.5037 Z -1.0000 I -0.6669 J -0.3824
G02 X 12.7258 Y 36.0405 Z -1.0000 I -2.4776 J -0.4632
G01 X 12.7258 Y 35.7373 Z -1.0000
G03 X 12.7348 Y 35.4290 Z -1.0000 I 5.2881 J -0.0000
G03 X 12.7503 Y 35.3178 Z -1.0000 I 0.6999 J 0.0409
G03 X 12.8153 Y 35.1632 Z -1.0000 I 0.4340 J 0.0914
G03 X 12.9218 Y 35.0606 Z -1.0000 I 0.2868 J 0.1912
G01 X 12.9218 Y 34.9473 Z -1.0000
G01 X 11.8837 Y 34.9473 Z -1.0000
G02 X 11.8431 Y 35.0979 Z -1.0000 I 4.9472 J 1.4134
G02 X 11.8224 Y 35.1892 Z -1.0000 I 1.7970 J 0.4550
G02 X 11.7943 Y 35.3800 Z -1.0000 I 2.1231 J 0.4110
G02 X 11.7826 Y 35.5781 Z -1.0000 I 2.2799 J 0.2334
G01 X 11.7765 Y 35.9976 Z -1.0000
G03 X 11.7181 Y 36.4063 Z -1.0000 I -1.6192 J -0.0230
G03 X 11.6173 Y 36.5733 Z -1.0000 I -0.3484 J -0.0964
G03 X 11.4473 Y 36.6677 Z -1.0000 I -0.2638 J -0.2751
G03 X 11.0508 Y 36.7173 Z -1.0000 I -0.3965 J -1.5608
G01 X 11.0508 Y 36.7173 Z -1.0000
G00 Z 5.0000

(End cutting path id: text19290)


(Start cutting path id: text19290)
(Change tool to Default tool)

G00 Z 5.0000
G00 X 11.6234 Y 37.5379

G01 Z -1.0000 F 100.0000(Penetrate)
G03 X 11.8209 Y 37.7207 Z -1.0000 I -0.1786 J 0.3912 F 3500.0000
G03 X 11.9051 Y 38.0463 Z -1.0000 I -0.5875 J 0.3256
G03 X 11.8212 Y 38.4055 Z -1.0000 I -0.8105 J -0.0000
G03 X 11.6326 Y 38.5975 Z -1.0000 I -0.3866 J -0.1912
G03 X 11.4732 Y 38.6513 Z -1.0000 I -0.2531 J -0.4868
G03 X 11.1732 Y 38.6771 Z -1.0000 I -0.2999 J -1.7303
G01 X 10.0770 Y 38.6771 Z -1.0000
G01 X 10.0770 Y 37.4644 Z -1.0000
G01 X 11.1457 Y 37.4644 Z -1.0000
G03 X 11.4589 Y 37.4884 Z -1.0000 I 0.0000 J 2.0598
G03 X 11.6234 Y 37.5379 Z -1.0000 I -0.0937 J 0.6089
G01 X 11.6234 Y 37.5379 Z -1.0000
G00 Z 5.0000

(End cutting path id: text19290)


(Start cutting path id: text19290)
(Change tool to Default tool)

G00 Z 5.0000
G00 X 16.8629 Y 38.6618

G01 Z -1.0000 F 100.0000(Penetrate)
G01 X 14.5999 Y 38.6618 Z -1.0000 F 3500.0000
G01 X 14.5999 Y 37.6237 Z -1.0000
G01 X 16.5811 Y 37.6237 Z -1.0000
G01 X 16.5811 Y 36.8397 Z -1.0000
G01 X 14.5999 Y 36.8397 Z -1.0000
G01 X 14.5999 Y 34.9473 Z -1.0000
G01 X 13.6628 Y 34.9473 Z -1.0000
G01 X 13.6628 Y 39.4549 Z -1.0000
G01 X 16.8629 Y 39.4549 Z -1.0000
G01 X 16.8629 Y 38.6618 Z -1.0000
G00 Z 5.0000

(End cutting path id: text19290)


(Start cutting path id: text19290)
(Change tool to Default tool)

G00 Z 5.0000
G00 X 19.5331 Y 36.9347

G01 Z -1.0000 F 100.0000(Penetrate)
G01 X 18.4093 Y 36.9347 Z -1.0000 F 3500.0000
G01 X 18.4093 Y 35.7312 Z -1.0000
G01 X 19.5178 Y 35.7312 Z -1.0000
G03 X 19.8092 Y 35.7561 Z -1.0000 I 0.0000 J 1.7170
G03 X 19.9802 Y 35.8108 Z -1.0000 I -0.1099 J 0.6382
G03 X 20.1903 Y 36.0139 Z -1.0000 I -0.2088 J 0.4262
G03 X 20.2803 Y 36.3743 Z -1.0000 I -0.6766 J 0.3603
G03 X 20.1974 Y 36.6730 Z -1.0000 I -0.5797 J 0.0000
G03 X 19.9894 Y 36.8581 Z -1.0000 I -0.4009 J -0.2411
G03 X 19.8221 Y 36.9091 Z -1.0000 I -0.2793 J -0.6169
G03 X 19.5331 Y 36.9347 Z -1.0000 I -0.3084 J -1.8381
G01 X 19.5331 Y 36.9347 Z -1.0000
G00 Z 5.0000

(End cutting path id: text19290)


(Start cutting path id: text19290)
(Change tool to Default tool)

G00 Z 5.0000
G00 X 20.0016 Y 37.7952

G01 Z -1.0000 F 100.0000(Penetrate)
G03 X 20.1294 Y 37.9371 Z -1.0000 I -0.1676 J 0.2793 F 3500.0000
G03 X 20.1854 Y 38.1902 Z -1.0000 I -0.5442 J 0.2531
G03 X 20.1127 Y 38.4570 Z -1.0000 I -0.5262 J -0.0000
G03 X 19.9404 Y 38.6066 Z -1.0000 I -0.3091 J -0.1818
G03 X 19.7257 Y 38.6560 Z -1.0000 I -0.3638 J -1.0914
G03 X 19.4014 Y 38.6771 Z -1.0000 I -0.3242 J -2.4811
G01 X 18.4093 Y 38.6771 Z -1.0000
G01 X 18.4093 Y 37.6819 Z -1.0000
G01 X 19.5178 Y 37.6819 Z -1.0000
G03 X 19.8056 Y 37.7151 Z -1.0000 I 0.0000 J 1.2620
G03 X 20.0016 Y 37.7952 Z -1.0000 I -0.1539 J 0.6570
G01 X 20.0016 Y 37.7952 Z -1.0000
G00 Z 5.0000

(End cutting path id: text19290)


(Start cutting path id: text19290)
(Change tool to Default tool)

G00 Z 5.0000
G00 X 19.5546 Y 34.9473

G01 Z -1.0000 F 100.0000(Penetrate)
G01 X 17.5090 Y 34.9473 Z -1.0000 F 3500.0000
G01 X 17.5090 Y 39.4610 Z -1.0000
G01 X 19.7016 Y 39.4610 Z -1.0000
G02 X 20.4583 Y 39.3065 Z -1.0000 I -0.0307 J -2.0805
G02 X 20.8774 Y 38.9802 Z -1.0000 I -0.3724 J -0.9108
G02 X 21.0291 Y 38.6741 Z -1.0000 I -0.8357 J -0.6046
G02 X 21.0857 Y 38.2912 Z -1.0000 I -1.2667 J -0.3828
G02 X 21.0257 Y 37.8995 Z -1.0000 I -1.3102 J 0.0000
G02 X 20.8774 Y 37.6267 Z -1.0000 I -0.7670 J 0.2403
G02 X 20.7475 Y 37.5028 Z -1.0000 I -0.5860 J 0.4841
G02 X 20.5345 Y 37.3695 Z -1.0000 I -0.8926 J 1.1901
G02 X 20.8451 Y 37.1996 Z -1.0000 I -0.3977 J -1.0961
G02 X 21.0551 Y 36.9714 Z -1.0000 I -0.5436 J -0.7109
G02 X 21.1833 Y 36.6842 Z -1.0000 I -0.8394 J -0.5470
G02 X 21.2327 Y 36.3100 Z -1.0000 I -1.3937 J -0.3742
G02 X 21.1795 Y 35.9243 Z -1.0000 I -1.4265 J 0.0000
G02 X 21.0306 Y 35.5904 Z -1.0000 I -1.2111 J 0.3401
G02 X 20.8846 Y 35.3948 Z -1.0000 I -1.1051 J 0.6727
G02 X 20.7090 Y 35.2351 Z -1.0000 I -0.9077 J 0.8216
G02 X 20.4783 Y 35.0991 Z -1.0000 I -0.6907 J 0.9081
G02 X 20.1946 Y 35.0085 Z -1.0000 I -0.5685 J 1.2906
G02 X 19.8989 Y 34.9637 Z -1.0000 I -0.5548 J 2.6630
G02 X 19.5546 Y 34.9473 Z -1.0000 I -0.3443 J 3.5984
G01 X 19.5546 Y 34.9473 Z -1.0000
G00 Z 5.0000

(End cutting path id: text19290)


(Start cutting path id: text19290)
(Change tool to Default tool)

G00 Z 5.0000
G00 X 24.0193 Y 34.8217

G01 Z -1.0000 F 100.0000(Penetrate)
G02 X 23.1175 Y 34.9775 Z -1.0000 I -0.0000 J 2.6881 F 3500.0000
G02 X 22.5402 Y 35.3484 Z -1.0000 I 0.5070 J 1.4236
G02 X 22.0556 Y 36.0815 Z -1.0000 I 1.3151 J 1.3961
G02 X 21.8543 Y 37.2103 Z -1.0000 I 3.0638 J 1.1288
G02 X 22.0593 Y 38.3596 Z -1.0000 I 3.3246 J -0.0000
G02 X 22.5402 Y 39.0721 Z -1.0000 I 1.6914 J -0.6231
G02 X 23.1175 Y 39.4430 Z -1.0000 I 1.0842 J -1.0527
G02 X 24.0193 Y 39.5988 Z -1.0000 I 0.9018 J -2.5323
G02 X 24.9211 Y 39.4430 Z -1.0000 I 0.0000 J -2.6881
G02 X 25.4983 Y 39.0721 Z -1.0000 I -0.5070 J -1.4236
G02 X 25.9770 Y 38.3602 Z -1.0000 I -1.2128 J -1.3323
G02 X 26.1812 Y 37.2103 Z -1.0000 I -3.1353 J -1.1499
G02 X 25.9806 Y 36.0809 Z -1.0000 I -3.2797 J 0.0000
G02 X 25.4983 Y 35.3484 Z -1.0000 I -1.8000 J 0.6602
G02 X 24.9211 Y 34.9775 Z -1.0000 I -1.0842 J 1.0527
G02 X 24.0193 Y 34.8217 Z -1.0000 I -0.9018 J 2.5324
G01 X 24.0193 Y 34.8217 Z -1.0000
G00 Z 5.0000

(End cutting path id: text19290)


(Start cutting path id: text19290)
(Change tool to Default tool)

G00 Z 5.0000
G00 X 24.9104 Y 36.0344

G01 Z -1.0000 F 100.0000(Penetrate)
G03 X 25.1385 Y 36.4824 Z -1.0000 I -0.9955 J 0.7890 F 3500.0000
G03 X 25.2381 Y 37.2103 Z -1.0000 I -2.6121 J 0.7278
G03 X 25.1379 Y 37.9346 Z -1.0000 I -2.6687 J 0.0000
G03 X 24.9073 Y 38.3831 Z -1.0000 I -1.2219 J -0.3446
G03 X 24.5250 Y 38.6869 Z -1.0000 I -0.8317 J -0.6544
G03 X 24.0193 Y 38.7996 Z -1.0000 I -0.5057 J -1.0783
G03 X 23.5122 Y 38.6880 Z -1.0000 I 0.0000 J -1.2084
G03 X 23.1251 Y 38.3862 Z -1.0000 I 0.4532 J -0.9803
G03 X 22.8925 Y 37.9370 Z -1.0000 I 0.9840 J -0.7945
G03 X 22.7913 Y 37.2103 Z -1.0000 I 2.5603 J -0.7268
G03 X 22.8925 Y 36.4835 Z -1.0000 I 2.6615 J 0.0000
G03 X 23.1251 Y 36.0344 Z -1.0000 I 1.2166 J 0.3453
G03 X 23.5122 Y 35.7325 Z -1.0000 I 0.8403 J 0.6785
G03 X 24.0193 Y 35.6210 Z -1.0000 I 0.5071 J 1.0968
G03 X 24.5259 Y 35.7328 Z -1.0000 I -0.0000 J 1.2039
G03 X 24.9104 Y 36.0344 Z -1.0000 I -0.4494 J 0.9687
G01 X 24.9104 Y 36.0344 Z -1.0000
G00 Z 5.0000

(End cutting path id: text19290)


(Start cutting path id: text19290)
(Change tool to Default tool)

G00 Z 5.0000
G00 X 29.2802 Y 36.6529

G01 Z -1.0000 F 100.0000(Penetrate)
G01 X 28.7167 Y 38.4290 Z -1.0000 F 3500.0000
G01 X 28.1349 Y 36.6529 Z -1.0000
G01 X 29.2802 Y 36.6529 Z -1.0000
G00 Z 5.0000

(End cutting path id: text19290)


(Start cutting path id: text19290)
(Change tool to Default tool)

G00 Z 5.0000
G00 X 29.5435 Y 35.8751

G01 Z -1.0000 F 100.0000(Penetrate)
G01 X 27.8808 Y 35.8751 Z -1.0000 F 3500.0000
G01 X 27.5684 Y 34.9473 Z -1.0000
G01 X 26.5824 Y 34.9473 Z -1.0000
G01 X 28.1931 Y 39.4610 Z -1.0000
G01 X 29.2588 Y 39.4610 Z -1.0000
G01 X 30.8572 Y 34.9473 Z -1.0000
G01 X 29.8345 Y 34.9473 Z -1.0000
G01 X 29.5435 Y 35.8751 Z -1.0000
G00 Z 5.0000

(End cutting path id: text19290)


(Start cutting path id: text19290)
(Change tool to Default tool)

G00 Z 5.0000
G00 X 33.3468 Y 36.7173

G01 Z -1.0000 F 100.0000(Penetrate)
G01 X 32.3730 Y 36.7173 Z -1.0000 F 3500.0000
G01 X 32.3730 Y 34.9473 Z -1.0000
G01 X 31.4513 Y 34.9473 Z -1.0000
G01 X 31.4513 Y 39.4610 Z -1.0000
G01 X 33.6653 Y 39.4610 Z -1.0000
G02 X 34.1331 Y 39.4193 Z -1.0000 I -0.0654 J -3.3811
G02 X 34.3941 Y 39.3446 Z -1.0000 I -0.1783 J -1.1166
G02 X 34.6322 Y 39.2111 Z -1.0000 I -0.4520 J -1.0849
G02 X 34.8289 Y 39.0292 Z -1.0000 I -0.6653 J -0.9172
G02 X 34.9606 Y 38.8484 Z -1.0000 I -1.0709 J -0.9180
G02 X 35.0617 Y 38.6495 Z -1.0000 I -1.1955 J -0.7327
G02 X 35.1240 Y 38.4366 Z -1.0000 I -0.9698 J -0.3993
G02 X 35.1474 Y 38.1749 Z -1.0000 I -1.4491 J -0.2618
G02 X 35.1081 Y 37.8629 Z -1.0000 I -1.2576 J 0.0000
G02 X 34.9851 Y 37.5410 Z -1.0000 I -1.4640 J 0.3748
G02 X 34.7766 Y 37.2855 Z -1.0000 I -0.7305 J 0.3833
G02 X 34.4492 Y 37.1031 Z -1.0000 I -0.6743 J 0.8251
G02 X 34.7276 Y 36.9391 Z -1.0000 I -0.4030 J -1.0026
G02 X 34.8902 Y 36.7448 Z -1.0000 I -0.4190 J -0.5157
G02 X 34.9789 Y 36.5037 Z -1.0000 I -0.6669 J -0.3824
G02 X 35.0219 Y 36.0405 Z -1.0000 I -2.4776 J -0.4632
G01 X 35.0219 Y 35.7373 Z -1.0000
G03 X 35.0309 Y 35.4290 Z -1.0000 I 5.2881 J 0.0000
G03 X 35.0464 Y 35.3178 Z -1.0000 I 0.6999 J 0.0409
G03 X 35.1113 Y 35.1632 Z -1.0000 I 0.4340 J 0.0914
G03 X 35.2179 Y 35.0606 Z -1.0000 I 0.2868 J 0.1912
G01 X 35.2179 Y 34.9473 Z -1.0000
G01 X 34.1798 Y 34.9473 Z -1.0000
G02 X 34.1392 Y 35.0979 Z -1.0000 I 4.9408 J 1.4116
G02 X 34.1185 Y 35.1892 Z -1.0000 I 1.7946 J 0.4543
G02 X 34.0904 Y 35.3800 Z -1.0000 I 2.1231 J 0.4110
G02 X 34.0787 Y 35.5781 Z -1.0000 I 2.2799 J 0.2334
G01 X 34.0726 Y 35.9976 Z -1.0000
G03 X 34.0141 Y 36.4063 Z -1.0000 I -1.6193 J -0.0231
G03 X 33.9133 Y 36.5733 Z -1.0000 I -0.3484 J -0.0964
G03 X 33.7434 Y 36.6677 Z -1.0000 I -0.2638 J -0.2751
G03 X 33.3468 Y 36.7173 Z -1.0000 I -0.3965 J -1.5608
G01 X 33.3468 Y 36.7173 Z -1.0000
G00 Z 5.0000

(End cutting path id: text19290)


(Start cutting path id: text19290)
(Change tool to Default tool)

G00 Z 5.0000
G00 X 33.9195 Y 37.5379

G01 Z -1.0000 F 100.0000(Penetrate)
G03 X 34.1170 Y 37.7207 Z -1.0000 I -0.1786 J 0.3912 F 3500.0000
G03 X 34.2012 Y 38.0463 Z -1.0000 I -0.5875 J 0.3256
G03 X 34.1172 Y 38.4055 Z -1.0000 I -0.8105 J -0.0000
G03 X 33.9287 Y 38.5975 Z -1.0000 I -0.3866 J -0.1912
G03 X 33.7692 Y 38.6513 Z -1.0000 I -0.2531 J -0.4868
G03 X 33.4693 Y 38.6771 Z -1.0000 I -0.2999 J -1.7303
G01 X 32.3730 Y 38.6771 Z -1.0000
G01 X 32.3730 Y 37.4644 Z -1.0000
G01 X 33.4418 Y 37.4644 Z -1.0000
G03 X 33.7550 Y 37.4884 Z -1.0000 I -0.0000 J 2.0598
G03 X 33.9195 Y 37.5379 Z -1.0000 I -0.0937 J 0.6089
G01 X 33.9195 Y 37.5379 Z -1.0000
G00 Z 5.0000

(End cutting path id: text19290)


(Start cutting path id: text19290)
(Change tool to Default tool)

G00 Z 5.0000
G00 X 38.6047 Y 38.3096

G01 Z -1.0000 F 100.0000(Penetrate)
G03 X 38.3201 Y 38.5593 Z -1.0000 I -0.5235 J -0.3097 F 3500.0000
G03 X 37.7442 Y 38.6771 Z -1.0000 I -0.5759 J -1.3485
G01 X 36.8745 Y 38.6771 Z -1.0000
G01 X 36.8745 Y 35.7312 Z -1.0000
G01 X 37.7442 Y 35.7312 Z -1.0000
G03 X 38.2935 Y 35.9058 Z -1.0000 I -0.0000 J 0.9514
G03 X 38.6751 Y 36.3896 Z -1.0000 I -0.6276 J 0.8874
G03 X 38.7782 Y 36.7588 Z -1.0000 I -1.6725 J 0.6662
G03 X 38.8190 Y 37.2501 Z -1.0000 I -2.9374 J 0.4913
G03 X 38.7518 Y 37.9210 Z -1.0000 I -3.3837 J 0.0000
G03 X 38.6047 Y 38.3096 Z -1.0000 I -1.2592 J -0.2547
G01 X 38.6047 Y 38.3096 Z -1.0000
G00 Z 5.0000

(End cutting path id: text19290)


(Start cutting path id: text19290)
(Change tool to Default tool)

G00 Z 5.0000
G00 X 37.9034 Y 34.9473

G01 Z -1.0000 F 100.0000(Penetrate)
G01 X 35.9589 Y 34.9473 Z -1.0000 F 3500.0000
G01 X 35.9589 Y 39.4610 Z -1.0000
G01 X 37.9034 Y 39.4610 Z -1.0000
G02 X 38.3186 Y 39.4290 Z -1.0000 I -0.0487 J -3.3372
G02 X 38.6016 Y 39.3630 Z -1.0000 I -0.2259 J -1.6098
G02 X 39.0280 Y 39.1416 Z -1.0000 I -0.4677 J -1.4215
G02 X 39.3702 Y 38.7904 Z -1.0000 I -0.9315 J -1.2503
G02 X 39.5691 Y 38.4374 Z -1.0000 I -1.7029 J -1.1921
G02 X 39.6918 Y 38.0616 Z -1.0000 I -1.8101 J -0.7986
G02 X 39.7573 Y 37.6674 Z -1.0000 I -3.8625 J -0.8449
G02 X 39.7775 Y 37.3144 Z -1.0000 I -3.0765 J -0.3530
G02 X 39.6755 Y 36.4415 Z -1.0000 I -3.7860 J -0.0000
G02 X 39.4162 Y 35.7894 Z -1.0000 I -2.3488 J 0.5565
G02 X 38.7933 Y 35.1783 Z -1.0000 I -1.4243 J 0.8287
G02 X 37.9034 Y 34.9473 Z -1.0000 I -0.8899 J 1.5986
G01 X 37.9034 Y 34.9473 Z -1.0000
G00 Z 5.0000

(End cutting path id: text19290)



(Footer)
M5
G00 X0.0000 Y0.0000
M2
(Using default footer. To add your own footer create file "footer" in the output dir.)
(end)
%