%
(Header)
(Generated by gcodetools from Inkscape.)
(Using default header. To add your own header create file "header" in the output dir.)
M3
(Header end.)
G21 (All units in mm)

(Start cutting path id: text15166)
(Change tool to Default tool)

G00 Z 5.0000
G00 X 2.5348 Y 34.6718

G01 Z -1.0000 F 100.0000(Penetrate)
G03 X 2.9559 Y 34.7002 Z -1.0000 I 0.0000 J 3.1339 F 3500.0000
G03 X 3.2265 Y 34.7656 Z -1.0000 I -0.1832 J 1.3512
G03 X 3.5983 Y 35.0387 Z -1.0000 I -0.2700 J 0.7572
G03 X 3.7306 Y 35.4339 Z -1.0000 I -0.5238 J 0.3952
G03 X 3.6650 Y 35.6828 Z -1.0000 I -0.5051 J 0.0000
G03 X 3.4805 Y 35.8754 Z -1.0000 I -0.4720 J -0.2673
G03 X 3.2186 Y 35.9984 Z -1.0000 I -0.6965 J -1.1429
G03 X 2.6950 Y 36.1451 Z -1.0000 I -1.5346 J -4.4703
G01 X 2.0854 Y 36.2819 Z -1.0000
G02 X 1.2089 Y 36.5357 Z -1.0000 I 1.6909 J 7.4791
G02 X 0.8427 Y 36.7234 Z -1.0000 I 0.5220 J 1.4690
G02 X 0.4290 Y 37.2109 Z -1.0000 I 0.6850 J 1.0007
G02 X 0.2604 Y 37.9700 Z -1.0000 I 1.6252 J 0.7591
G02 X 0.4086 Y 38.6783 Z -1.0000 I 1.7663 J -0.0000
G02 X 0.8232 Y 39.2557 Z -1.0000 I 1.5617 J -0.6835
G02 X 1.4462 Y 39.6118 Z -1.0000 I 1.1118 J -1.2221
G02 X 2.4762 Y 39.7676 Z -1.0000 I 1.0300 J -3.3259
G02 X 3.3424 Y 39.6355 Z -1.0000 I 0.0000 J -2.9054
G02 X 4.0276 Y 39.2831 Z -1.0000 I -0.6699 J -2.1446
G02 X 4.4993 Y 38.7118 Z -1.0000 I -0.9312 J -1.2492
G02 X 4.7036 Y 37.8841 Z -1.0000 I -1.8582 J -0.8980
G01 X 3.5469 Y 37.8841 Z -1.0000
G03 X 3.4057 Y 38.3323 Z -1.0000 I -0.9663 J -0.0581
G03 X 3.0936 Y 38.6227 Z -1.0000 I -0.6785 J -0.4164
G03 X 2.8022 Y 38.7255 Z -1.0000 I -0.5231 J -1.0180
G03 X 2.3941 Y 38.7672 Z -1.0000 I -0.4080 J -1.9740
G03 X 1.9462 Y 38.7115 Z -1.0000 I -0.0000 J -1.8289
G03 X 1.6516 Y 38.5797 Z -1.0000 I 0.2289 J -0.9061
G03 X 1.4480 Y 38.3529 Z -1.0000 I 0.3525 J -0.5215
G03 X 1.3742 Y 38.0560 Z -1.0000 I 0.5603 J -0.2969
G03 X 1.4471 Y 37.7901 Z -1.0000 I 0.5211 J 0.0000
G03 X 1.6477 Y 37.5949 Z -1.0000 I 0.4622 J 0.2742
G03 X 1.8317 Y 37.5137 Z -1.0000 I 0.4660 J 0.8066
G03 X 2.3980 Y 37.3565 Z -1.0000 I 2.4094 J 7.5836
G01 X 3.3906 Y 37.1181 Z -1.0000
G02 X 4.0187 Y 36.9112 Z -1.0000 I -0.9265 J -3.8682
G02 X 4.3754 Y 36.7000 Z -1.0000 I -0.6109 J -1.4387
G02 X 4.7447 Y 36.2225 Z -1.0000 I -0.7698 J -0.9770
G02 X 4.8912 Y 35.5237 Z -1.0000 I -1.5934 J -0.6988
G02 X 4.7337 Y 34.8064 Z -1.0000 I -1.7125 J 0.0000
G02 X 4.2855 Y 34.2107 Z -1.0000 I -1.6022 J 0.7391
G02 X 3.6258 Y 33.8467 Z -1.0000 I -1.1917 J 1.3799
G02 X 2.5817 Y 33.6910 Z -1.0000 I -1.0441 J 3.4227
G02 X 1.5092 Y 33.8429 Z -1.0000 I -0.0000 J 3.8606
G02 X 0.8114 Y 34.2029 Z -1.0000 I 0.5635 J 1.9486
G02 X 0.3434 Y 34.8037 Z -1.0000 I 1.0251 J 1.2814
G02 X 0.1667 Y 35.6175 Z -1.0000 I 1.7856 J 0.8139
G01 X 1.3156 Y 35.6175 Z -1.0000
G03 X 1.4094 Y 35.2399 Z -1.0000 I 1.8250 J 0.2530
G03 X 1.5305 Y 35.0274 Z -1.0000 I 0.6842 J 0.2492
G03 X 1.8769 Y 34.7849 Z -1.0000 I 0.6104 J 0.5031
G03 X 2.5348 Y 34.6718 Z -1.0000 I 0.6579 J 1.8580
G01 X 2.5348 Y 34.6718 Z -1.0000
G00 Z 5.0000

(End cutting path id: text15166)


(Start cutting path id: text15166)
(Change tool to Default tool)

G00 Z 5.0000
G00 X 9.1898 Y 36.0591

G01 Z -1.0000 F 100.0000(Penetrate)
G01 X 9.1898 Y 39.5996 Z -1.0000 F 3500.0000
G01 X 10.4130 Y 39.5996 Z -1.0000
G01 X 10.4130 Y 36.0591 Z -1.0000
G02 X 10.3246 Y 35.1637 Z -1.0000 I -4.5775 J 0.0000
G02 X 10.1277 Y 34.6288 Z -1.0000 I -1.8016 J 0.3593
G02 X 9.4262 Y 33.9828 Z -1.0000 I -1.3555 J 0.7681
G02 X 8.0996 Y 33.6910 Z -1.0000 I -1.3266 J 2.8688
G02 X 6.7721 Y 33.9825 Z -1.0000 I 0.0000 J 3.1676
G02 X 6.0675 Y 34.6288 Z -1.0000 I 0.6571 J 1.4236
G02 X 5.8706 Y 35.1637 Z -1.0000 I 1.6047 J 0.8942
G02 X 5.7822 Y 36.0591 Z -1.0000 I 4.4891 J 0.8954
G01 X 5.7822 Y 39.5996 Z -1.0000
G01 X 7.0054 Y 39.5996 Z -1.0000
G01 X 7.0054 Y 36.0591 Z -1.0000
G03 X 7.0523 Y 35.4765 Z -1.0000 I 3.6398 J 0.0000
G03 X 7.1460 Y 35.1916 Z -1.0000 I 0.9460 J 0.1534
G03 X 7.4633 Y 34.8594 Z -1.0000 I 0.6308 J 0.2849
G03 X 8.0996 Y 34.7070 Z -1.0000 I 0.6363 J 1.2520
G03 X 8.7321 Y 34.8591 Z -1.0000 I 0.0000 J 1.3917
G03 X 9.0492 Y 35.1916 Z -1.0000 I -0.3154 J 0.6181
G03 X 9.1429 Y 35.4765 Z -1.0000 I -0.8523 J 0.4383
G03 X 9.1898 Y 36.0591 Z -1.0000 I -3.5929 J 0.5826
G01 X 9.1898 Y 36.0591 Z -1.0000
G00 Z 5.0000

(End cutting path id: text15166)


(Start cutting path id: text15166)
(Change tool to Default tool)

G00 Z 5.0000
G00 X 11.4681 Y 39.5996

G01 Z -1.0000 F 100.0000(Penetrate)
G01 X 12.6639 Y 39.5996 Z -1.0000 F 3500.0000
G01 X 12.6639 Y 33.8395 Z -1.0000
G01 X 11.4681 Y 33.8395 Z -1.0000
G01 X 11.4681 Y 39.5996 Z -1.0000
G00 Z 5.0000

(End cutting path id: text15166)


(Start cutting path id: text15166)
(Change tool to Default tool)

G00 Z 5.0000
G00 X 17.9707 Y 39.5996

G01 Z -1.0000 F 100.0000(Penetrate)
G01 X 17.9707 Y 38.5797 Z -1.0000 F 3500.0000
G01 X 16.2474 Y 38.5797 Z -1.0000
G01 X 16.2474 Y 33.8395 Z -1.0000
G01 X 15.0360 Y 33.8395 Z -1.0000
G01 X 15.0360 Y 38.5797 Z -1.0000
G01 X 13.3048 Y 38.5797 Z -1.0000
G01 X 13.3048 Y 39.5996 Z -1.0000
G01 X 17.9707 Y 39.5996 Z -1.0000
G00 Z 5.0000

(End cutting path id: text15166)


(Start cutting path id: text15166)
(Change tool to Default tool)

G00 Z 5.0000
G00 X 22.7383 Y 34.2693

G01 Z -1.0000 F 100.0000(Penetrate)
G02 X 22.0301 Y 33.8425 Z -1.0000 I -1.4137 J 1.5448 F 3500.0000
G02 X 21.0892 Y 33.6792 Z -1.0000 I -0.9409 J 2.6295
G02 X 19.9469 Y 33.9033 Z -1.0000 I 0.0000 J 3.0239
G02 X 19.1353 Y 34.4764 Z -1.0000 I 0.8322 J 2.0396
G02 X 18.6318 Y 35.3565 Z -1.0000 I 1.8495 J 1.6420
G02 X 18.4240 Y 36.6726 Z -1.0000 I 4.0642 J 1.3162
G02 X 18.6624 Y 38.0830 Z -1.0000 I 4.2923 J 0.0000
G02 X 19.2330 Y 38.9978 Z -1.0000 I 2.3033 J -0.8013
G02 X 20.0168 Y 39.5165 Z -1.0000 I 1.6308 J -1.6129
G02 X 21.0228 Y 39.7090 Z -1.0000 I 1.0060 J -2.5316
G02 X 22.3313 Y 39.4290 Z -1.0000 I -0.0000 J -3.1973
G02 X 23.1486 Y 38.7555 Z -1.0000 I -0.8197 J -1.8275
G02 X 23.4417 Y 38.1935 Z -1.0000 I -2.0796 J -1.4421
G02 X 23.5472 Y 37.6809 Z -1.0000 I -1.6178 J -0.6001
G01 X 22.3436 Y 37.6809 Z -1.0000
G03 X 22.1934 Y 38.0773 Z -1.0000 I -2.3643 J -0.6691
G03 X 22.0427 Y 38.3061 Z -1.0000 I -0.9252 J -0.4453
G03 X 21.6642 Y 38.5706 Z -1.0000 I -0.7250 J -0.6344
G03 X 21.0696 Y 38.6813 Z -1.0000 I -0.5946 J -1.5422
G03 X 20.4858 Y 38.5402 Z -1.0000 I 0.0000 J -1.2787
G03 X 20.0341 Y 38.1498 Z -1.0000 I 0.5768 J -1.1240
G03 X 19.7712 Y 37.5848 Z -1.0000 I 1.3574 J -0.9753
G03 X 19.6550 Y 36.6531 Z -1.0000 I 3.6789 J -0.9317
G03 X 19.7795 Y 35.7286 Z -1.0000 I 3.4963 J -0.0000
G03 X 20.0536 Y 35.1994 Z -1.0000 I 1.3762 J 0.3773
G03 X 20.5145 Y 34.8438 Z -1.0000 I 1.0382 J 0.8694
G03 X 21.0736 Y 34.7187 Z -1.0000 I 0.5590 J 1.1862
G03 X 21.6498 Y 34.8371 Z -1.0000 I 0.0000 J 1.4612
G03 X 22.0388 Y 35.1330 Z -1.0000 I -0.3977 J 0.9266
G03 X 22.1889 Y 35.3731 Z -1.0000 I -0.8376 J 0.6906
G03 X 22.3436 Y 35.8012 Z -1.0000 I -2.5525 J 1.1643
G01 X 23.5355 Y 35.8012 Z -1.0000
G02 X 23.2453 Y 34.9318 Z -1.0000 I -2.8791 J 0.4779
G02 X 22.7383 Y 34.2693 Z -1.0000 I -2.1445 J 1.1160
G01 X 22.7383 Y 34.2693 Z -1.0000
G00 Z 5.0000

(End cutting path id: text15166)


(Start cutting path id: text15166)
(Change tool to Default tool)

G00 Z 5.0000
G00 X 27.4902 Y 36.0161

G01 Z -1.0000 F 100.0000(Penetrate)
G01 X 26.7712 Y 38.2827 Z -1.0000 F 3500.0000
G01 X 26.0287 Y 36.0161 Z -1.0000
G01 X 27.4902 Y 36.0161 Z -1.0000
G00 Z 5.0000

(End cutting path id: text15166)


(Start cutting path id: text15166)
(Change tool to Default tool)

G00 Z 5.0000
G00 X 27.8263 Y 35.0235

G01 Z -1.0000 F 100.0000(Penetrate)
G01 X 25.7043 Y 35.0235 Z -1.0000 F 3500.0000
G01 X 25.3057 Y 33.8395 Z -1.0000
G01 X 24.0474 Y 33.8395 Z -1.0000
G01 X 26.1029 Y 39.5996 Z -1.0000
G01 X 27.4629 Y 39.5996 Z -1.0000
G01 X 29.5027 Y 33.8395 Z -1.0000
G01 X 28.1975 Y 33.8395 Z -1.0000
G01 X 27.8263 Y 35.0235 Z -1.0000
G00 Z 5.0000

(End cutting path id: text15166)


(Start cutting path id: text15166)
(Change tool to Default tool)

G00 Z 5.0000
G00 X 32.3242 Y 34.6718

G01 Z -1.0000 F 100.0000(Penetrate)
G03 X 32.7453 Y 34.7002 Z -1.0000 I -0.0000 J 3.1339 F 3500.0000
G03 X 33.0159 Y 34.7656 Z -1.0000 I -0.1832 J 1.3512
G03 X 33.3877 Y 35.0387 Z -1.0000 I -0.2700 J 0.7572
G03 X 33.5200 Y 35.4339 Z -1.0000 I -0.5238 J 0.3952
G03 X 33.4544 Y 35.6828 Z -1.0000 I -0.5051 J -0.0000
G03 X 33.2699 Y 35.8754 Z -1.0000 I -0.4720 J -0.2673
G03 X 33.0080 Y 35.9984 Z -1.0000 I -0.6965 J -1.1429
G03 X 32.4844 Y 36.1451 Z -1.0000 I -1.5346 J -4.4703
G01 X 31.8748 Y 36.2819 Z -1.0000
G02 X 30.9983 Y 36.5357 Z -1.0000 I 1.6909 J 7.4791
G02 X 30.6321 Y 36.7234 Z -1.0000 I 0.5220 J 1.4690
G02 X 30.2184 Y 37.2109 Z -1.0000 I 0.6850 J 1.0007
G02 X 30.0498 Y 37.9700 Z -1.0000 I 1.6252 J 0.7591
G02 X 30.1980 Y 38.6783 Z -1.0000 I 1.7663 J 0.0000
G02 X 30.6126 Y 39.2557 Z -1.0000 I 1.5617 J -0.6835
G02 X 31.2356 Y 39.6118 Z -1.0000 I 1.1118 J -1.2221
G02 X 32.2656 Y 39.7676 Z -1.0000 I 1.0300 J -3.3259
G02 X 33.1318 Y 39.6355 Z -1.0000 I -0.0000 J -2.9054
G02 X 33.8170 Y 39.2831 Z -1.0000 I -0.6699 J -2.1446
G02 X 34.2887 Y 38.7118 Z -1.0000 I -0.9312 J -1.2492
G02 X 34.4930 Y 37.8841 Z -1.0000 I -1.8582 J -0.8980
G01 X 33.3363 Y 37.8841 Z -1.0000
G03 X 33.1951 Y 38.3323 Z -1.0000 I -0.9663 J -0.0581
G03 X 32.8830 Y 38.6227 Z -1.0000 I -0.6785 J -0.4164
G03 X 32.5916 Y 38.7255 Z -1.0000 I -0.5231 J -1.0180
G03 X 32.1835 Y 38.7672 Z -1.0000 I -0.4080 J -1.9740
G03 X 31.7356 Y 38.7115 Z -1.0000 I -0.0000 J -1.8289
G03 X 31.4410 Y 38.5797 Z -1.0000 I 0.2289 J -0.9061
G03 X 31.2374 Y 38.3529 Z -1.0000 I 0.3525 J -0.5215
G03 X 31.1636 Y 38.0560 Z -1.0000 I 0.5603 J -0.2969
G03 X 31.2365 Y 37.7901 Z -1.0000 I 0.5211 J -0.0000
G03 X 31.4371 Y 37.5949 Z -1.0000 I 0.4622 J 0.2742
G03 X 31.6211 Y 37.5137 Z -1.0000 I 0.4660 J 0.8066
G03 X 32.1874 Y 37.3565 Z -1.0000 I 2.4094 J 7.5836
G01 X 33.1800 Y 37.1181 Z -1.0000
G02 X 33.8081 Y 36.9112 Z -1.0000 I -0.9265 J -3.8682
G02 X 34.1648 Y 36.7000 Z -1.0000 I -0.6109 J -1.4387
G02 X 34.5341 Y 36.2225 Z -1.0000 I -0.7698 J -0.9770
G02 X 34.6806 Y 35.5237 Z -1.0000 I -1.5934 J -0.6988
G02 X 34.5231 Y 34.8064 Z -1.0000 I -1.7125 J 0.0000
G02 X 34.0749 Y 34.2107 Z -1.0000 I -1.6022 J 0.7391
G02 X 33.4152 Y 33.8467 Z -1.0000 I -1.1917 J 1.3799
G02 X 32.3711 Y 33.6910 Z -1.0000 I -1.0441 J 3.4227
G02 X 31.2986 Y 33.8429 Z -1.0000 I -0.0000 J 3.8606
G02 X 30.6009 Y 34.2029 Z -1.0000 I 0.5635 J 1.9486
G02 X 30.1328 Y 34.8037 Z -1.0000 I 1.0251 J 1.2814
G02 X 29.9561 Y 35.6175 Z -1.0000 I 1.7856 J 0.8139
G01 X 31.1050 Y 35.6175 Z -1.0000
G03 X 31.1988 Y 35.2399 Z -1.0000 I 1.8250 J 0.2530
G03 X 31.3199 Y 35.0274 Z -1.0000 I 0.6842 J 0.2492
G03 X 31.6663 Y 34.7849 Z -1.0000 I 0.6104 J 0.5031
G03 X 32.3242 Y 34.6718 Z -1.0000 I 0.6579 J 1.8580
G01 X 32.3242 Y 34.6718 Z -1.0000
G00 Z 5.0000

(End cutting path id: text15166)


(Start cutting path id: text15166)
(Change tool to Default tool)

G00 Z 5.0000
G00 X 39.5810 Y 36.3561

G01 Z -1.0000 F 100.0000(Penetrate)
G01 X 36.7830 Y 36.3561 Z -1.0000 F 3500.0000
G01 X 36.7830 Y 34.8750 Z -1.0000
G01 X 39.9718 Y 34.8750 Z -1.0000
G01 X 39.9718 Y 33.8395 Z -1.0000
G01 X 35.6068 Y 33.8395 Z -1.0000
G01 X 35.6068 Y 39.5996 Z -1.0000
G01 X 39.8311 Y 39.5996 Z -1.0000
G01 X 39.8311 Y 38.5797 Z -1.0000
G01 X 36.7830 Y 38.5797 Z -1.0000
G01 X 36.7830 Y 37.3565 Z -1.0000
G01 X 39.5810 Y 37.3565 Z -1.0000
G01 X 39.5810 Y 36.3561 Z -1.0000
G00 Z 5.0000

(End cutting path id: text15166)



(Footer)
M5
G00 X0.0000 Y0.0000
M2
(Using default footer. To add your own footer create file "footer" in the output dir.)
(end)
%