%
(Header)
(Generated by gcodetools from Inkscape.)
(Using default header. To add your own header create file "header" in the output dir.)
M3
(Header end.)
G21 (All units in mm)

(Start cutting path id: path77822)
(Change tool to Default tool)

G00 Z 5.0000
G00 X 4.6754 Y 21.3486

G01 Z -1.0000 F 100.0000(Penetrate)
G01 X 1.1037 Y 21.3486 Z -1.0000 F 3500.0000
G01 X 1.1037 Y 29.2297 Z -1.0000
G01 X 4.9320 Y 29.2297 Z -1.0000
G02 X 6.2533 Y 28.9598 Z -1.0000 I -0.0536 J -3.6327
G02 X 6.9851 Y 28.3902 Z -1.0000 I -0.6502 J -1.5904
G02 X 7.2499 Y 27.8556 Z -1.0000 I -1.4592 J -1.0556
G02 X 7.3487 Y 27.1872 Z -1.0000 I -2.2117 J -0.6684
G02 X 7.2440 Y 26.5032 Z -1.0000 I -2.2876 J -0.0000
G02 X 6.9851 Y 26.0270 Z -1.0000 I -1.3392 J 0.4197
G02 X 6.7583 Y 25.8105 Z -1.0000 I -1.0231 J 0.8452
G02 X 6.3863 Y 25.5778 Z -1.0000 I -1.5585 J 2.0780
G02 X 6.9286 Y 25.2813 Z -1.0000 I -0.6944 J -1.9138
G02 X 7.2953 Y 24.8828 Z -1.0000 I -0.9491 J -1.2412
G02 X 7.5192 Y 24.3813 Z -1.0000 I -1.4657 J -0.9551
G02 X 7.6054 Y 23.7279 Z -1.0000 I -2.4334 J -0.6534
G02 X 7.5126 Y 23.0544 Z -1.0000 I -2.4907 J -0.0000
G02 X 7.2525 Y 22.4714 Z -1.0000 I -2.1146 J 0.5939
G02 X 6.9977 Y 22.1300 Z -1.0000 I -1.9295 J 1.1745
G02 X 6.6911 Y 21.8512 Z -1.0000 I -1.5848 J 1.4345
G02 X 6.2881 Y 21.6137 Z -1.0000 I -1.2059 J 1.5856
G02 X 5.7928 Y 21.4555 Z -1.0000 I -0.9926 J 2.2534
G02 X 5.2766 Y 21.3773 Z -1.0000 I -0.9687 J 4.6496
G02 X 4.6754 Y 21.3486 Z -1.0000 I -0.6012 J 6.2828
G01 X 4.6754 Y 21.3486 Z -1.0000
G00 Z 5.0000

(End cutting path id: path77822)


(Start cutting path id: path77822)
(Change tool to Default tool)

G00 Z 5.0000
G00 X 4.6379 Y 24.8186

G01 Z -1.0000 F 100.0000(Penetrate)
G01 X 2.6757 Y 24.8186 Z -1.0000 F 3500.0000
G01 X 2.6757 Y 22.7173 Z -1.0000
G01 X 4.6112 Y 22.7173 Z -1.0000
G03 X 5.1199 Y 22.7608 Z -1.0000 I -0.0000 J 2.9979
G03 X 5.4185 Y 22.8564 Z -1.0000 I -0.1919 J 1.1143
G03 X 5.7854 Y 23.2110 Z -1.0000 I -0.3645 J 0.7442
G03 X 5.9425 Y 23.8402 Z -1.0000 I -1.1813 J 0.6292
G03 X 5.7978 Y 24.3617 Z -1.0000 I -1.0121 J -0.0000
G03 X 5.4346 Y 24.6849 Z -1.0000 I -0.7001 J -0.4209
G03 X 5.1425 Y 24.7739 Z -1.0000 I -0.4877 J -1.0771
G03 X 4.6379 Y 24.8186 Z -1.0000 I -0.5385 J -3.2093
G01 X 4.6379 Y 24.8186 Z -1.0000
G00 Z 5.0000

(End cutting path id: path77822)


(Start cutting path id: path77822)
(Change tool to Default tool)

G00 Z 5.0000
G00 X 5.4560 Y 26.3210

G01 Z -1.0000 F 100.0000(Penetrate)
G03 X 5.6790 Y 26.5689 Z -1.0000 I -0.2926 J 0.4877 F 3500.0000
G03 X 5.7768 Y 27.0108 Z -1.0000 I -0.9501 J 0.4419
G03 X 5.6499 Y 27.4766 Z -1.0000 I -0.9187 J 0.0000
G03 X 5.3490 Y 27.7379 Z -1.0000 I -0.5396 J -0.3174
G03 X 4.9741 Y 27.8241 Z -1.0000 I -0.6352 J -1.9055
G03 X 4.4080 Y 27.8609 Z -1.0000 I -0.5661 J -4.3321
G01 X 2.6757 Y 27.8609 Z -1.0000
G01 X 2.6757 Y 26.1232 Z -1.0000
G01 X 4.6112 Y 26.1232 Z -1.0000
G03 X 5.1136 Y 26.1812 Z -1.0000 I -0.0000 J 2.2034
G03 X 5.4560 Y 26.3210 Z -1.0000 I -0.2686 J 1.1471
G01 X 5.4560 Y 26.3210 Z -1.0000
G00 Z 5.0000

(End cutting path id: path77822)


(Start cutting path id: path77822)
(Change tool to Default tool)

G00 Z 5.0000
G00 X 14.4706 Y 24.7919

G01 Z -1.0000 F 100.0000(Penetrate)
G01 X 10.6423 Y 24.7919 Z -1.0000 F 3500.0000
G01 X 10.6423 Y 22.7655 Z -1.0000
G01 X 15.0052 Y 22.7655 Z -1.0000
G01 X 15.0052 Y 21.3486 Z -1.0000
G01 X 9.0329 Y 21.3486 Z -1.0000
G01 X 9.0329 Y 29.2297 Z -1.0000
G01 X 14.8128 Y 29.2297 Z -1.0000
G01 X 14.8128 Y 27.8342 Z -1.0000
G01 X 10.6423 Y 27.8342 Z -1.0000
G01 X 10.6423 Y 26.1606 Z -1.0000
G01 X 14.4706 Y 26.1606 Z -1.0000
G01 X 14.4706 Y 24.7919 Z -1.0000
G00 Z 5.0000

(End cutting path id: path77822)


(Start cutting path id: path77822)
(Change tool to Default tool)

G00 Z 5.0000
G00 X 20.4429 Y 24.3267

G01 Z -1.0000 F 100.0000(Penetrate)
G01 X 19.4591 Y 27.4278 Z -1.0000 F 3500.0000
G01 X 18.4432 Y 24.3267 Z -1.0000
G01 X 20.4429 Y 24.3267 Z -1.0000
G00 Z 5.0000

(End cutting path id: path77822)


(Start cutting path id: path77822)
(Change tool to Default tool)

G00 Z 5.0000
G00 X 20.9027 Y 22.9686

G01 Z -1.0000 F 100.0000(Penetrate)
G01 X 17.9994 Y 22.9686 Z -1.0000 F 3500.0000
G01 X 17.4540 Y 21.3486 Z -1.0000
G01 X 15.7324 Y 21.3486 Z -1.0000
G01 X 18.5448 Y 29.2297 Z -1.0000
G01 X 20.4054 Y 29.2297 Z -1.0000
G01 X 23.1964 Y 21.3486 Z -1.0000
G01 X 21.4106 Y 21.3486 Z -1.0000
G01 X 20.9027 Y 22.9686 Z -1.0000
G00 Z 5.0000

(End cutting path id: path77822)


(Start cutting path id: path77822)
(Change tool to Default tool)

G00 Z 5.0000
G00 X 27.5433 Y 24.4390

G01 Z -1.0000 F 100.0000(Penetrate)
G01 X 25.8431 Y 24.4390 Z -1.0000 F 3500.0000
G01 X 25.8431 Y 21.3486 Z -1.0000
G01 X 24.2337 Y 21.3486 Z -1.0000
G01 X 24.2337 Y 29.2297 Z -1.0000
G01 X 28.0994 Y 29.2297 Z -1.0000
G02 X 28.9161 Y 29.1569 Z -1.0000 I -0.1143 J -5.9035
G02 X 29.3719 Y 29.0265 Z -1.0000 I -0.3113 J -1.9495
G02 X 29.7875 Y 28.7934 Z -1.0000 I -0.7893 J -1.8942
G02 X 30.1311 Y 28.4758 Z -1.0000 I -1.1617 J -1.6015
G02 X 30.3610 Y 28.1600 Z -1.0000 I -1.8699 J -1.6028
G02 X 30.5375 Y 27.8128 Z -1.0000 I -2.0874 J -1.2794
G02 X 30.6462 Y 27.4411 Z -1.0000 I -1.6932 J -0.6972
G02 X 30.6872 Y 26.9840 Z -1.0000 I -2.5302 J -0.4571
G02 X 30.6186 Y 26.4394 Z -1.0000 I -2.1958 J 0.0000
G02 X 30.4038 Y 25.8773 Z -1.0000 I -2.5561 J 0.6545
G02 X 30.0398 Y 25.4312 Z -1.0000 I -1.2755 J 0.6693
G02 X 29.4681 Y 25.1127 Z -1.0000 I -1.1773 J 1.4407
G02 X 29.9542 Y 24.8264 Z -1.0000 I -0.7036 J -1.7505
G02 X 30.2381 Y 24.4871 Z -1.0000 I -0.7317 J -0.9005
G02 X 30.3930 Y 24.0661 Z -1.0000 I -1.1645 J -0.6676
G02 X 30.4680 Y 23.2574 Z -1.0000 I -4.3260 J -0.8088
G01 X 30.4680 Y 22.7280 Z -1.0000
G03 X 30.4837 Y 22.1897 Z -1.0000 I 9.2349 J 0.0000
G03 X 30.5107 Y 21.9955 Z -1.0000 I 1.2222 J 0.0714
G03 X 30.6242 Y 21.7255 Z -1.0000 I 0.7578 J 0.1595
G03 X 30.8102 Y 21.5464 Z -1.0000 I 0.5007 J 0.3338
G01 X 30.8102 Y 21.3486 Z -1.0000
G01 X 28.9976 Y 21.3486 Z -1.0000
G02 X 28.9268 Y 21.6115 Z -1.0000 I 8.6345 J 2.4668
G02 X 28.8907 Y 21.7710 Z -1.0000 I 3.1363 J 0.7940
G02 X 28.8415 Y 22.1040 Z -1.0000 I 3.7079 J 0.7176
G02 X 28.8212 Y 22.4500 Z -1.0000 I 3.9817 J 0.4076
G01 X 28.8105 Y 23.1825 Z -1.0000
G03 X 28.7085 Y 23.8961 Z -1.0000 I -2.8270 J -0.0401
G03 X 28.5325 Y 24.1877 Z -1.0000 I -0.6082 J -0.1682
G03 X 28.2357 Y 24.3524 Z -1.0000 I -0.4607 J -0.4803
G03 X 27.5433 Y 24.4390 Z -1.0000 I -0.6923 J -2.7252
G01 X 27.5433 Y 24.4390 Z -1.0000
G00 Z 5.0000

(End cutting path id: path77822)


(Start cutting path id: path77822)
(Change tool to Default tool)

G00 Z 5.0000
G00 X 28.5432 Y 25.8719

G01 Z -1.0000 F 100.0000(Penetrate)
G03 X 28.8880 Y 26.1910 Z -1.0000 I -0.3118 J 0.6830 F 3500.0000
G03 X 29.0350 Y 26.7595 Z -1.0000 I -1.0258 J 0.5685
G03 X 28.8885 Y 27.3867 Z -1.0000 I -1.4151 J -0.0000
G03 X 28.5592 Y 27.7219 Z -1.0000 I -0.6750 J -0.3338
G03 X 28.2808 Y 27.8158 Z -1.0000 I -0.4420 J -0.8499
G03 X 27.7572 Y 27.8609 Z -1.0000 I -0.5237 J -3.0211
G01 X 25.8431 Y 27.8609 Z -1.0000
G01 X 25.8431 Y 25.7436 Z -1.0000
G01 X 27.7091 Y 25.7436 Z -1.0000
G03 X 28.2559 Y 25.7854 Z -1.0000 I -0.0000 J 3.5965
G03 X 28.5432 Y 25.8719 Z -1.0000 I -0.1636 J 1.0632
G01 X 28.5432 Y 25.8719 Z -1.0000
G00 Z 5.0000

(End cutting path id: path77822)


(Start cutting path id: path77821)
(Change tool to Default tool)

G00 Z 5.0000
G00 X 26.3724 Y 31.2037

G01 Z -1.0000 F 100.0000(Penetrate)
G01 X 22.9772 Y 31.2037 Z -1.0000 F 3500.0000
G01 X 22.9772 Y 39.0847 Z -1.0000
G01 X 26.3724 Y 39.0847 Z -1.0000
G02 X 27.0973 Y 39.0288 Z -1.0000 I -0.0851 J -5.8269
G02 X 27.5914 Y 38.9137 Z -1.0000 I -0.3945 J -2.8107
G02 X 28.3358 Y 38.5270 Z -1.0000 I -0.8167 J -2.4820
G02 X 28.9335 Y 37.9138 Z -1.0000 I -1.6265 J -2.1831
G02 X 29.2808 Y 37.2974 Z -1.0000 I -2.9734 J -2.0814
G02 X 29.4949 Y 36.6413 Z -1.0000 I -3.1606 J -1.3944
G02 X 29.6093 Y 35.9531 Z -1.0000 I -6.7438 J -1.4752
G02 X 29.6446 Y 35.3367 Z -1.0000 I -5.3716 J -0.6164
G02 X 29.4665 Y 33.8126 Z -1.0000 I -6.6105 J -0.0000
G02 X 29.0137 Y 32.6740 Z -1.0000 I -4.1011 J 0.9717
G02 X 27.9262 Y 31.6070 Z -1.0000 I -2.4869 J 1.4469
G02 X 26.3724 Y 31.2037 Z -1.0000 I -1.5538 J 2.7912
G01 X 26.3724 Y 31.2037 Z -1.0000
G00 Z 5.0000

(End cutting path id: path77821)


(Start cutting path id: path77821)
(Change tool to Default tool)

G00 Z 5.0000
G00 X 27.5968 Y 37.0744

G01 Z -1.0000 F 100.0000(Penetrate)
G03 X 27.0999 Y 37.5103 Z -1.0000 I -0.9140 J -0.5408 F 3500.0000
G03 X 26.0943 Y 37.7160 Z -1.0000 I -1.0055 J -2.3546
G01 X 24.5759 Y 37.7160 Z -1.0000
G01 X 24.5759 Y 32.5724 Z -1.0000
G01 X 26.0943 Y 32.5724 Z -1.0000
G03 X 27.0535 Y 32.8773 Z -1.0000 I 0.0000 J 1.6611
G03 X 27.7198 Y 33.7220 Z -1.0000 I -1.0959 J 1.5495
G03 X 27.8998 Y 34.3666 Z -1.0000 I -2.9202 J 1.1631
G03 X 27.9711 Y 35.2244 Z -1.0000 I -5.1289 J 0.8579
G03 X 27.8537 Y 36.3959 Z -1.0000 I -5.9080 J -0.0000
G03 X 27.5968 Y 37.0744 Z -1.0000 I -2.1985 J -0.4448
G01 X 27.5968 Y 37.0744 Z -1.0000
G00 Z 5.0000

(End cutting path id: path77821)


(Start cutting path id: path77821)
(Change tool to Default tool)

G00 Z 5.0000
G00 X 19.6890 Y 37.0744

G01 Z -1.0000 F 100.0000(Penetrate)
G03 X 19.1920 Y 37.5103 Z -1.0000 I -0.9140 J -0.5408 F 3500.0000
G03 X 18.1865 Y 37.7160 Z -1.0000 I -1.0055 J -2.3546
G01 X 16.6681 Y 37.7160 Z -1.0000
G01 X 16.6681 Y 32.5724 Z -1.0000
G01 X 18.1865 Y 32.5724 Z -1.0000
G03 X 19.1457 Y 32.8773 Z -1.0000 I 0.0000 J 1.6611
G03 X 19.8119 Y 33.7220 Z -1.0000 I -1.0959 J 1.5495
G03 X 19.9920 Y 34.3666 Z -1.0000 I -2.9202 J 1.1631
G03 X 20.0632 Y 35.2244 Z -1.0000 I -5.1289 J 0.8579
G03 X 19.9459 Y 36.3959 Z -1.0000 I -5.9080 J -0.0000
G03 X 19.6890 Y 37.0744 Z -1.0000 I -2.1985 J -0.4448
G01 X 19.6890 Y 37.0744 Z -1.0000
G00 Z 5.0000

(End cutting path id: path77821)


(Start cutting path id: path77821)
(Change tool to Default tool)

G00 Z 5.0000
G00 X 18.4646 Y 31.2037

G01 Z -1.0000 F 100.0000(Penetrate)
G01 X 15.0694 Y 31.2037 Z -1.0000 F 3500.0000
G01 X 15.0694 Y 39.0847 Z -1.0000
G01 X 18.4646 Y 39.0847 Z -1.0000
G02 X 19.1895 Y 39.0288 Z -1.0000 I -0.0851 J -5.8269
G02 X 19.6836 Y 38.9137 Z -1.0000 I -0.3945 J -2.8107
G02 X 20.4280 Y 38.5270 Z -1.0000 I -0.8167 J -2.4820
G02 X 21.0256 Y 37.9138 Z -1.0000 I -1.6265 J -2.1831
G02 X 21.3729 Y 37.2974 Z -1.0000 I -2.9734 J -2.0814
G02 X 21.5871 Y 36.6413 Z -1.0000 I -3.1606 J -1.3944
G02 X 21.7015 Y 35.9531 Z -1.0000 I -6.7438 J -1.4752
G02 X 21.7368 Y 35.3367 Z -1.0000 I -5.3716 J -0.6164
G02 X 21.5587 Y 33.8126 Z -1.0000 I -6.6105 J -0.0000
G02 X 21.1059 Y 32.6740 Z -1.0000 I -4.1011 J 0.9717
G02 X 20.0184 Y 31.6070 Z -1.0000 I -2.4869 J 1.4469
G02 X 18.4646 Y 31.2037 Z -1.0000 I -1.5538 J 2.7912
G01 X 18.4646 Y 31.2037 Z -1.0000
G00 Z 5.0000

(End cutting path id: path77821)


(Start cutting path id: path77821)
(Change tool to Default tool)

G00 Z 5.0000
G00 X 13.2515 Y 34.6470

G01 Z -1.0000 F 100.0000(Penetrate)
G01 X 9.4232 Y 34.6470 Z -1.0000 F 3500.0000
G01 X 9.4232 Y 32.6206 Z -1.0000
G01 X 13.7862 Y 32.6206 Z -1.0000
G01 X 13.7862 Y 31.2037 Z -1.0000
G01 X 7.8139 Y 31.2037 Z -1.0000
G01 X 7.8139 Y 39.0847 Z -1.0000
G01 X 13.5937 Y 39.0847 Z -1.0000
G01 X 13.5937 Y 37.6893 Z -1.0000
G01 X 9.4232 Y 37.6893 Z -1.0000
G01 X 9.4232 Y 36.0157 Z -1.0000
G01 X 13.2515 Y 36.0157 Z -1.0000
G01 X 13.2515 Y 34.6470 Z -1.0000
G00 Z 5.0000

(End cutting path id: path77821)


(Start cutting path id: path77821)
(Change tool to Default tool)

G00 Z 5.0000
G00 X 6.8034 Y 39.0847

G01 Z -1.0000 F 100.0000(Penetrate)
G01 X 6.8034 Y 37.6893 Z -1.0000 F 3500.0000
G01 X 4.4454 Y 37.6893 Z -1.0000
G01 X 4.4454 Y 31.2037 Z -1.0000
G01 X 2.7880 Y 31.2037 Z -1.0000
G01 X 2.7880 Y 37.6893 Z -1.0000
G01 X 0.4194 Y 37.6893 Z -1.0000
G01 X 0.4194 Y 39.0847 Z -1.0000
G01 X 6.8034 Y 39.0847 Z -1.0000
G00 Z 5.0000

(End cutting path id: path77821)


(Start cutting path id: path77821)
(Change tool to Default tool)

G00 Z 5.0000
G00 X 37.2476 Y 39.0847

G01 Z -1.0000 F 100.0000(Penetrate)
G01 X 34.6117 Y 34.1658 Z -1.0000 F 3500.0000
G01 X 34.6117 Y 31.2037 Z -1.0000
G01 X 32.9649 Y 31.2037 Z -1.0000
G01 X 32.9649 Y 34.1658 Z -1.0000
G01 X 30.2381 Y 39.0847 Z -1.0000
G01 X 32.1789 Y 39.0847 Z -1.0000
G01 X 33.8150 Y 35.6521 Z -1.0000
G01 X 35.3816 Y 39.0847 Z -1.0000
G01 X 37.2476 Y 39.0847 Z -1.0000
G00 Z 5.0000

(End cutting path id: path77821)



(Footer)
M5
G00 X0.0000 Y0.0000
M2
(Using default footer. To add your own footer create file "footer" in the output dir.)
(end)
%