%
(Header)
(Generated by gcodetools from Inkscape.)
(Using default header. To add your own header create file "header" in the output dir.)
M3
(Header end.)
G21 (All units in mm)

(Start cutting path id: path111543)
(Change tool to Default tool)

G00 Z 5.0000
G00 X 3.1488 Y 28.5321

G01 Z -1.0000 F 100.0000(Penetrate)
G01 X 1.8226 Y 28.5321 Z -1.0000 F 3500.0000
G01 X 1.8226 Y 26.1217 Z -1.0000
G01 X 0.5674 Y 26.1217 Z -1.0000
G01 X 0.5674 Y 32.2685 Z -1.0000
G01 X 3.5824 Y 32.2685 Z -1.0000
G02 X 4.2194 Y 32.2118 Z -1.0000 I -0.0891 J -4.6044
G02 X 4.5749 Y 32.1101 Z -1.0000 I -0.2428 J -1.5205
G02 X 4.8991 Y 31.9283 Z -1.0000 I -0.6156 J -1.4774
G02 X 5.1671 Y 31.6806 Z -1.0000 I -0.9060 J -1.2491
G02 X 5.3464 Y 31.4342 Z -1.0000 I -1.4584 J -1.2501
G02 X 5.4840 Y 31.1635 Z -1.0000 I -1.6280 J -0.9978
G02 X 5.5689 Y 30.8736 Z -1.0000 I -1.3206 J -0.5438
G02 X 5.6008 Y 30.5171 Z -1.0000 I -1.9734 J -0.3565
G02 X 5.5473 Y 30.0923 Z -1.0000 I -1.7126 J -0.0000
G02 X 5.3798 Y 29.6539 Z -1.0000 I -1.9936 J 0.5105
G02 X 5.0959 Y 29.3059 Z -1.0000 I -0.9948 J 0.5220
G02 X 4.6500 Y 29.0575 Z -1.0000 I -0.9182 J 1.1237
G02 X 5.0291 Y 28.8342 Z -1.0000 I -0.5488 J -1.3653
G02 X 5.2505 Y 28.5696 Z -1.0000 I -0.5707 J -0.7023
G02 X 5.3714 Y 28.2413 Z -1.0000 I -0.9083 J -0.5207
G02 X 5.4298 Y 27.6105 Z -1.0000 I -3.3741 J -0.6308
G01 X 5.4298 Y 27.1976 Z -1.0000
G03 X 5.4421 Y 26.7778 Z -1.0000 I 7.2021 J 0.0000
G03 X 5.4632 Y 26.6263 Z -1.0000 I 0.9532 J 0.0557
G03 X 5.5517 Y 26.4157 Z -1.0000 I 0.5910 J 0.1244
G03 X 5.6967 Y 26.2760 Z -1.0000 I 0.3905 J 0.2604
G01 X 5.6967 Y 26.1217 Z -1.0000
G01 X 4.2830 Y 26.1217 Z -1.0000
G02 X 4.2278 Y 26.3268 Z -1.0000 I 6.7307 J 1.9231
G02 X 4.1996 Y 26.4512 Z -1.0000 I 2.4448 J 0.6189
G02 X 4.1613 Y 26.7109 Z -1.0000 I 2.8917 J 0.5597
G02 X 4.1454 Y 26.9808 Z -1.0000 I 3.1053 J 0.3179
G01 X 4.1371 Y 27.5521 Z -1.0000
G03 X 4.0575 Y 28.1087 Z -1.0000 I -2.2049 J -0.0313
G03 X 3.9202 Y 28.3361 Z -1.0000 I -0.4744 J -0.1312
G03 X 3.6887 Y 28.4646 Z -1.0000 I -0.3593 J -0.3746
G03 X 3.1488 Y 28.5321 Z -1.0000 I -0.5400 J -2.1255
G01 X 3.1488 Y 28.5321 Z -1.0000
G00 Z 5.0000

(End cutting path id: path111543)


(Start cutting path id: path111543)
(Change tool to Default tool)

G00 Z 5.0000
G00 X 3.9286 Y 29.6497

G01 Z -1.0000 F 100.0000(Penetrate)
G03 X 4.1976 Y 29.8985 Z -1.0000 I -0.2432 J 0.5327 F 3500.0000
G03 X 4.3122 Y 30.3419 Z -1.0000 I -0.8001 J 0.4434
G03 X 4.1979 Y 30.8311 Z -1.0000 I -1.1037 J 0.0000
G03 X 3.9411 Y 31.0926 Z -1.0000 I -0.5265 J -0.2603
G03 X 3.7240 Y 31.1658 Z -1.0000 I -0.3447 J -0.6629
G03 X 3.3156 Y 31.2010 Z -1.0000 I -0.4084 J -2.3563
G01 X 1.8226 Y 31.2010 Z -1.0000
G01 X 1.8226 Y 29.5496 Z -1.0000
G01 X 3.2780 Y 29.5496 Z -1.0000
G03 X 3.7046 Y 29.5822 Z -1.0000 I -0.0000 J 2.8051
G03 X 3.9286 Y 29.6497 Z -1.0000 I -0.1276 J 0.8292
G01 X 3.9286 Y 29.6497 Z -1.0000
G00 Z 5.0000

(End cutting path id: path111543)


(Start cutting path id: path111543)
(Change tool to Default tool)

G00 Z 5.0000
G00 X 9.9461 Y 28.4445

G01 Z -1.0000 F 100.0000(Penetrate)
G01 X 9.1788 Y 30.8632 Z -1.0000 F 3500.0000
G01 X 8.3865 Y 28.4445 Z -1.0000
G01 X 9.9461 Y 28.4445 Z -1.0000
G00 Z 5.0000

(End cutting path id: path111543)


(Start cutting path id: path111543)
(Change tool to Default tool)

G00 Z 5.0000
G00 X 10.3047 Y 27.3853

G01 Z -1.0000 F 100.0000(Penetrate)
G01 X 8.0403 Y 27.3853 Z -1.0000 F 3500.0000
G01 X 7.6150 Y 26.1217 Z -1.0000
G01 X 6.2722 Y 26.1217 Z -1.0000
G01 X 8.4657 Y 32.2685 Z -1.0000
G01 X 9.9169 Y 32.2685 Z -1.0000
G01 X 12.0937 Y 26.1217 Z -1.0000
G01 X 10.7009 Y 26.1217 Z -1.0000
G01 X 10.3047 Y 27.3853 Z -1.0000
G00 Z 5.0000

(End cutting path id: path111543)


(Start cutting path id: path111543)
(Change tool to Default tool)

G00 Z 5.0000
G00 X 17.2105 Y 26.5805

G01 Z -1.0000 F 100.0000(Penetrate)
G02 X 16.4548 Y 26.1250 Z -1.0000 I -1.5086 J 1.6485 F 3500.0000
G02 X 15.4507 Y 25.9508 Z -1.0000 I -1.0040 J 2.8060
G02 X 14.2317 Y 26.1899 Z -1.0000 I -0.0000 J 3.2268
G02 X 13.3656 Y 26.8015 Z -1.0000 I 0.8880 J 2.1765
G02 X 12.8284 Y 27.7406 Z -1.0000 I 1.9737 J 1.7523
G02 X 12.6067 Y 29.1451 Z -1.0000 I 4.3370 J 1.4045
G02 X 12.8610 Y 30.6501 Z -1.0000 I 4.5804 J -0.0000
G02 X 13.4699 Y 31.6263 Z -1.0000 I 2.4579 J -0.8551
G02 X 14.3063 Y 32.1798 Z -1.0000 I 1.7403 J -1.7212
G02 X 15.3798 Y 32.3853 Z -1.0000 I 1.0735 J -2.7015
G02 X 16.7762 Y 32.0865 Z -1.0000 I -0.0000 J -3.4120
G02 X 17.6484 Y 31.3678 Z -1.0000 I -0.8747 J -1.9501
G02 X 17.9612 Y 30.7681 Z -1.0000 I -2.2192 J -1.5389
G02 X 18.0737 Y 30.2210 Z -1.0000 I -1.7264 J -0.6403
G01 X 16.7893 Y 30.2210 Z -1.0000
G03 X 16.6291 Y 30.6440 Z -1.0000 I -2.5230 J -0.7141
G03 X 16.4682 Y 30.8882 Z -1.0000 I -0.9874 J -0.4752
G03 X 16.0644 Y 31.1705 Z -1.0000 I -0.7737 J -0.6770
G03 X 15.4299 Y 31.2886 Z -1.0000 I -0.6345 J -1.6457
G03 X 14.8068 Y 31.1380 Z -1.0000 I -0.0000 J -1.3646
G03 X 14.3248 Y 30.7214 Z -1.0000 I 0.6156 J -1.1995
G03 X 14.0442 Y 30.1185 Z -1.0000 I 1.4485 J -1.0408
G03 X 13.9203 Y 29.1242 Z -1.0000 I 3.9259 J -0.9943
G03 X 14.0531 Y 28.1377 Z -1.0000 I 3.7310 J -0.0000
G03 X 14.3456 Y 27.5729 Z -1.0000 I 1.4686 J 0.4027
G03 X 14.8375 Y 27.1935 Z -1.0000 I 1.1079 J 0.9277
G03 X 15.4340 Y 27.0600 Z -1.0000 I 0.5965 J 1.2658
G03 X 16.0489 Y 27.1864 Z -1.0000 I 0.0000 J 1.5592
G03 X 16.4641 Y 27.5021 Z -1.0000 I -0.4244 J 0.9888
G03 X 16.6243 Y 27.7583 Z -1.0000 I -0.8938 J 0.7370
G03 X 16.7893 Y 28.2152 Z -1.0000 I -2.7239 J 1.2425
G01 X 18.0612 Y 28.2152 Z -1.0000
G02 X 17.7516 Y 27.2874 Z -1.0000 I -3.0723 J 0.5099
G02 X 17.2105 Y 26.5805 Z -1.0000 I -2.2884 J 1.1909
G01 X 17.2105 Y 26.5805 Z -1.0000
G00 Z 5.0000

(End cutting path id: path111543)


(Start cutting path id: path111542)
(Change tool to Default tool)

G00 Z 5.0000
G00 X 16.4224 Y 33.8082

G01 Z -1.0000 F 100.0000(Penetrate)
G01 X 15.1380 Y 33.8082 Z -1.0000 F 3500.0000
G01 X 12.6275 Y 38.1743 Z -1.0000
G01 X 12.6275 Y 33.8082 Z -1.0000
G01 X 11.4307 Y 33.8082 Z -1.0000
G01 X 11.4307 Y 39.9550 Z -1.0000
G01 X 12.7776 Y 39.9550 Z -1.0000
G01 X 15.2255 Y 35.6639 Z -1.0000
G01 X 15.2255 Y 39.9550 Z -1.0000
G01 X 16.4224 Y 39.9550 Z -1.0000
G01 X 16.4224 Y 33.8082 Z -1.0000
G00 Z 5.0000

(End cutting path id: path111542)


(Start cutting path id: path111542)
(Change tool to Default tool)

G00 Z 5.0000
G00 X 22.5900 Y 33.8082

G01 Z -1.0000 F 100.0000(Penetrate)
G01 X 21.3056 Y 33.8082 Z -1.0000 F 3500.0000
G01 X 18.7952 Y 38.1743 Z -1.0000
G01 X 18.7952 Y 33.8082 Z -1.0000
G01 X 17.5983 Y 33.8082 Z -1.0000
G01 X 17.5983 Y 39.9550 Z -1.0000
G01 X 18.9453 Y 39.9550 Z -1.0000
G01 X 21.3932 Y 35.6639 Z -1.0000
G01 X 21.3932 Y 39.9550 Z -1.0000
G01 X 22.5900 Y 39.9550 Z -1.0000
G01 X 22.5900 Y 33.8082 Z -1.0000
G00 Z 5.0000

(End cutting path id: path111542)


(Start cutting path id: path111542)
(Change tool to Default tool)

G00 Z 5.0000
G00 X 28.3907 Y 34.6964

G01 Z -1.0000 F 100.0000(Penetrate)
G03 X 28.8401 Y 34.7267 Z -1.0000 I 0.0000 J 3.3443 F 3500.0000
G03 X 29.1288 Y 34.7965 Z -1.0000 I -0.1955 J 1.4419
G03 X 29.5256 Y 35.0879 Z -1.0000 I -0.2881 J 0.8081
G03 X 29.6668 Y 35.5096 Z -1.0000 I -0.5590 J 0.4217
G03 X 29.5968 Y 35.7752 Z -1.0000 I -0.5390 J 0.0000
G03 X 29.3999 Y 35.9808 Z -1.0000 I -0.5037 J -0.2853
G03 X 29.1204 Y 36.1120 Z -1.0000 I -0.7432 J -1.2196
G03 X 28.5617 Y 36.2686 Z -1.0000 I -1.6376 J -4.7704
G01 X 27.9111 Y 36.4145 Z -1.0000
G02 X 26.9758 Y 36.6854 Z -1.0000 I 1.8044 J 7.9811
G02 X 26.5850 Y 36.8857 Z -1.0000 I 0.5571 J 1.5676
G02 X 26.1435 Y 37.4059 Z -1.0000 I 0.7310 J 1.0679
G02 X 25.9637 Y 38.2160 Z -1.0000 I 1.7343 J 0.8101
G02 X 26.1218 Y 38.9718 Z -1.0000 I 1.8849 J 0.0000
G02 X 26.5642 Y 39.5880 Z -1.0000 I 1.6665 J -0.7294
G02 X 27.2290 Y 39.9680 Z -1.0000 I 1.1864 J -1.3041
G02 X 28.3282 Y 40.1343 Z -1.0000 I 1.0991 J -3.5492
G02 X 29.2525 Y 39.9933 Z -1.0000 I -0.0000 J -3.1004
G02 X 29.9837 Y 39.6172 Z -1.0000 I -0.7148 J -2.2886
G02 X 30.4870 Y 39.0076 Z -1.0000 I -0.9937 J -1.3330
G02 X 30.7051 Y 38.1243 Z -1.0000 I -1.9829 J -0.9582
G01 X 29.4708 Y 38.1243 Z -1.0000
G03 X 29.3200 Y 38.6026 Z -1.0000 I -1.0312 J -0.0620
G03 X 28.9870 Y 38.9124 Z -1.0000 I -0.7241 J -0.4444
G03 X 28.6760 Y 39.0222 Z -1.0000 I -0.5583 J -1.0864
G03 X 28.2406 Y 39.0667 Z -1.0000 I -0.4354 J -2.1066
G03 X 27.7625 Y 39.0073 Z -1.0000 I -0.0000 J -1.9517
G03 X 27.4483 Y 38.8666 Z -1.0000 I 0.2443 J -0.9669
G03 X 27.2309 Y 38.6246 Z -1.0000 I 0.3762 J -0.5565
G03 X 27.1522 Y 38.3078 Z -1.0000 I 0.5979 J -0.3168
G03 X 27.2300 Y 38.0240 Z -1.0000 I 0.5561 J 0.0000
G03 X 27.4441 Y 37.8157 Z -1.0000 I 0.4932 J 0.2926
G03 X 27.6404 Y 37.7290 Z -1.0000 I 0.4973 J 0.8607
G03 X 28.2448 Y 37.5613 Z -1.0000 I 2.5711 J 8.0927
G01 X 29.3040 Y 37.3069 Z -1.0000
G02 X 29.9742 Y 37.0861 Z -1.0000 I -0.9887 J -4.1279
G02 X 30.3548 Y 36.8607 Z -1.0000 I -0.6519 J -1.5353
G02 X 30.7490 Y 36.3512 Z -1.0000 I -0.8215 J -1.0426
G02 X 30.9053 Y 35.6055 Z -1.0000 I -1.7004 J -0.7457
G02 X 30.7373 Y 34.8400 Z -1.0000 I -1.8275 J -0.0000
G02 X 30.2589 Y 34.2043 Z -1.0000 I -1.7097 J 0.7887
G02 X 29.5549 Y 33.8159 Z -1.0000 I -1.2717 J 1.4725
G02 X 28.4407 Y 33.6497 Z -1.0000 I -1.1142 J 3.6525
G02 X 27.2963 Y 33.8119 Z -1.0000 I 0.0000 J 4.1197
G02 X 26.5517 Y 34.1960 Z -1.0000 I 0.6013 J 2.0794
G02 X 26.0522 Y 34.8371 Z -1.0000 I 1.0939 J 1.3674
G02 X 25.8636 Y 35.7056 Z -1.0000 I 1.9054 J 0.8685
G01 X 27.0896 Y 35.7056 Z -1.0000
G03 X 27.1897 Y 35.3027 Z -1.0000 I 1.9474 J 0.2699
G03 X 27.3190 Y 35.0759 Z -1.0000 I 0.7301 J 0.2659
G03 X 27.6886 Y 34.8170 Z -1.0000 I 0.6514 J 0.5369
G03 X 28.3907 Y 34.6964 Z -1.0000 I 0.7021 J 1.9828
G01 X 28.3907 Y 34.6964 Z -1.0000
G00 Z 5.0000

(End cutting path id: path111542)


(Start cutting path id: path111543)
(Change tool to Default tool)

G00 Z 5.0000
G00 X 29.4875 Y 28.8073

G01 Z -1.0000 F 100.0000(Penetrate)
G01 X 26.5016 Y 28.8073 Z -1.0000 F 3500.0000
G01 X 26.5016 Y 27.2268 Z -1.0000
G01 X 29.9045 Y 27.2268 Z -1.0000
G01 X 29.9045 Y 26.1217 Z -1.0000
G01 X 25.2464 Y 26.1217 Z -1.0000
G01 X 25.2464 Y 32.2685 Z -1.0000
G01 X 29.7543 Y 32.2685 Z -1.0000
G01 X 29.7543 Y 31.1801 Z -1.0000
G01 X 26.5016 Y 31.1801 Z -1.0000
G01 X 26.5016 Y 29.8749 Z -1.0000
G01 X 29.4875 Y 29.8749 Z -1.0000
G01 X 29.4875 Y 28.8073 Z -1.0000
G00 Z 5.0000

(End cutting path id: path111543)


(Start cutting path id: path111543)
(Change tool to Default tool)

G00 Z 5.0000
G00 X 24.4874 Y 26.1217

G01 Z -1.0000 F 100.0000(Penetrate)
G01 X 22.8361 Y 26.1217 Z -1.0000 F 3500.0000
G01 X 20.9386 Y 28.8073 Z -1.0000
G01 X 20.3256 Y 28.1776 Z -1.0000
G01 X 20.3256 Y 26.1217 Z -1.0000
G01 X 19.0621 Y 26.1217 Z -1.0000
G01 X 19.0621 Y 32.2685 Z -1.0000
G01 X 20.3256 Y 32.2685 Z -1.0000
G01 X 20.3256 Y 29.7373 Z -1.0000
G01 X 22.6984 Y 32.2685 Z -1.0000
G01 X 24.3582 Y 32.2685 Z -1.0000
G01 X 21.8394 Y 29.7373 Z -1.0000
G01 X 24.4874 Y 26.1217 Z -1.0000
G00 Z 5.0000

(End cutting path id: path111543)


(Start cutting path id: path111543)
(Change tool to Default tool)

G00 Z 5.0000
G00 X 35.3715 Y 32.2685

G01 Z -1.0000 F 100.0000(Penetrate)
G01 X 35.3715 Y 31.1801 Z -1.0000 F 3500.0000
G01 X 33.5325 Y 31.1801 Z -1.0000
G01 X 33.5325 Y 26.1217 Z -1.0000
G01 X 32.2398 Y 26.1217 Z -1.0000
G01 X 32.2398 Y 31.1801 Z -1.0000
G01 X 30.3924 Y 31.1801 Z -1.0000
G01 X 30.3924 Y 32.2685 Z -1.0000
G01 X 35.3715 Y 32.2685 Z -1.0000
G00 Z 5.0000

(End cutting path id: path111543)


(Start cutting path id: path111542)
(Change tool to Default tool)

G00 Z 5.0000
G00 X 23.6868 Y 39.9550

G01 Z -1.0000 F 100.0000(Penetrate)
G01 X 24.9628 Y 39.9550 Z -1.0000 F 3500.0000
G01 X 24.9628 Y 33.8082 Z -1.0000
G01 X 23.6868 Y 33.8082 Z -1.0000
G01 X 23.6868 Y 39.9550 Z -1.0000
G00 Z 5.0000

(End cutting path id: path111542)


(Start cutting path id: path111542)
(Change tool to Default tool)

G00 Z 5.0000
G00 X 10.0337 Y 36.4937

G01 Z -1.0000 F 100.0000(Penetrate)
G01 X 7.0478 Y 36.4937 Z -1.0000 F 3500.0000
G01 X 7.0478 Y 34.9133 Z -1.0000
G01 X 10.4507 Y 34.9133 Z -1.0000
G01 X 10.4507 Y 33.8082 Z -1.0000
G01 X 5.7926 Y 33.8082 Z -1.0000
G01 X 5.7926 Y 39.9550 Z -1.0000
G01 X 10.3006 Y 39.9550 Z -1.0000
G01 X 10.3006 Y 38.8666 Z -1.0000
G01 X 7.0478 Y 38.8666 Z -1.0000
G01 X 7.0478 Y 37.5613 Z -1.0000
G01 X 10.0337 Y 37.5613 Z -1.0000
G01 X 10.0337 Y 36.4937 Z -1.0000
G00 Z 5.0000

(End cutting path id: path111542)


(Start cutting path id: path111542)
(Change tool to Default tool)

G00 Z 5.0000
G00 X 5.0045 Y 39.9550

G01 Z -1.0000 F 100.0000(Penetrate)
G01 X 5.0045 Y 38.8666 Z -1.0000 F 3500.0000
G01 X 3.1654 Y 38.8666 Z -1.0000
G01 X 3.1654 Y 33.8082 Z -1.0000
G01 X 1.8727 Y 33.8082 Z -1.0000
G01 X 1.8727 Y 38.8666 Z -1.0000
G01 X 0.0253 Y 38.8666 Z -1.0000
G01 X 0.0253 Y 39.9550 Z -1.0000
G01 X 5.0045 Y 39.9550 Z -1.0000
G00 Z 5.0000

(End cutting path id: path111542)



(Footer)
M5
G00 X0.0000 Y0.0000
M2
(Using default footer. To add your own footer create file "footer" in the output dir.)
(end)
%