%
(Header)
(Generated by gcodetools from Inkscape.)
(Using default header. To add your own header create file "header" in the output dir.)
M3
(Header end.)
G21 (All units in mm)

(Start cutting path id: text45942)
(Change tool to Default tool)

G00 Z 5.0000
G00 X 3.6327 Y 4.7216

G01 Z -1.0000 F 100.0000(Penetrate)
G01 X 3.6327 Y 4.0011 Z -1.0000 F 3500.0000
G01 X 2.4153 Y 4.0011 Z -1.0000
G01 X 2.4153 Y 0.6527 Z -1.0000
G01 X 1.5596 Y 0.6527 Z -1.0000
G01 X 1.5596 Y 4.0011 Z -1.0000
G01 X 0.3367 Y 4.0011 Z -1.0000
G01 X 0.3367 Y 4.7216 Z -1.0000
G01 X 3.6327 Y 4.7216 Z -1.0000
G00 Z 5.0000

(End cutting path id: text45942)


(Start cutting path id: text45942)
(Change tool to Default tool)

G00 Z 5.0000
G00 X 6.6333 Y 1.6326

G01 Z -1.0000 F 100.0000(Penetrate)
G03 X 6.8390 Y 2.0365 Z -1.0000 I -0.8974 J 0.7113 F 3500.0000
G03 X 6.9287 Y 2.6927 Z -1.0000 I -2.3547 J 0.6561
G03 X 6.8384 Y 3.3456 Z -1.0000 I -2.4057 J 0.0000
G03 X 6.6306 Y 3.7499 Z -1.0000 I -1.1015 J -0.3106
G03 X 6.2859 Y 4.0238 Z -1.0000 I -0.7498 J -0.5899
G03 X 5.8300 Y 4.1253 Z -1.0000 I -0.4558 J -0.9720
G03 X 5.3729 Y 4.0248 Z -1.0000 I -0.0000 J -1.0893
G03 X 5.0240 Y 3.7527 Z -1.0000 I 0.4086 J -0.8837
G03 X 4.8143 Y 3.3478 Z -1.0000 I 0.8870 J -0.7162
G03 X 4.7231 Y 2.6927 Z -1.0000 I 2.3080 J -0.6551
G03 X 4.8143 Y 2.0375 Z -1.0000 I 2.3992 J 0.0000
G03 X 5.0240 Y 1.6326 Z -1.0000 I 1.0967 J 0.3113
G03 X 5.3729 Y 1.3605 Z -1.0000 I 0.7575 J 0.6116
G03 X 5.8300 Y 1.2600 Z -1.0000 I 0.4571 J 0.9887
G03 X 6.2868 Y 1.3608 Z -1.0000 I 0.0000 J 1.0853
G03 X 6.6333 Y 1.6326 Z -1.0000 I -0.4051 J 0.8732
G01 X 6.6333 Y 1.6326 Z -1.0000
G00 Z 5.0000

(End cutting path id: text45942)


(Start cutting path id: text45942)
(Change tool to Default tool)

G00 Z 5.0000
G00 X 5.8300 Y 0.5395

G01 Z -1.0000 F 100.0000(Penetrate)
G02 X 5.0171 Y 0.6799 Z -1.0000 I -0.0000 J 2.4232 F 3500.0000
G02 X 4.4967 Y 1.0143 Z -1.0000 I 0.4570 J 1.2834
G02 X 4.0599 Y 1.6751 Z -1.0000 I 1.1855 J 1.2585
G02 X 3.8784 Y 2.6927 Z -1.0000 I 2.7619 J 1.0175
G02 X 4.0632 Y 3.7287 Z -1.0000 I 2.9970 J 0.0000
G02 X 4.4967 Y 4.3710 Z -1.0000 I 1.5247 J -0.5617
G02 X 5.0171 Y 4.7054 Z -1.0000 I 0.9774 J -0.9490
G02 X 5.8300 Y 4.8458 Z -1.0000 I 0.8129 J -2.2828
G02 X 6.6430 Y 4.7054 Z -1.0000 I -0.0000 J -2.4232
G02 X 7.1633 Y 4.3710 Z -1.0000 I -0.4570 J -1.2834
G02 X 7.5948 Y 3.7293 Z -1.0000 I -1.0933 J -1.2010
G02 X 7.7789 Y 2.6927 Z -1.0000 I -2.8263 J -1.0366
G02 X 7.5981 Y 1.6746 Z -1.0000 I -2.9565 J 0.0000
G02 X 7.1633 Y 1.0143 Z -1.0000 I -1.6227 J 0.5952
G02 X 6.6430 Y 0.6799 Z -1.0000 I -0.9774 J 0.9490
G02 X 5.8300 Y 0.5395 Z -1.0000 I -0.8129 J 2.2828
G01 X 5.8300 Y 0.5395 Z -1.0000
G00 Z 5.0000

(End cutting path id: text45942)


(Start cutting path id: text45942)
(Change tool to Default tool)

G00 Z 5.0000
G00 X 10.2275 Y 0.5395

G01 Z -1.0000 F 100.0000(Penetrate)
G02 X 9.4145 Y 0.6799 Z -1.0000 I 0.0000 J 2.4232 F 3500.0000
G02 X 8.8941 Y 1.0143 Z -1.0000 I 0.4570 J 1.2834
G02 X 8.4573 Y 1.6751 Z -1.0000 I 1.1855 J 1.2585
G02 X 8.2758 Y 2.6927 Z -1.0000 I 2.7619 J 1.0175
G02 X 8.4606 Y 3.7287 Z -1.0000 I 2.9970 J 0.0000
G02 X 8.8941 Y 4.3710 Z -1.0000 I 1.5247 J -0.5617
G02 X 9.4145 Y 4.7054 Z -1.0000 I 0.9774 J -0.9490
G02 X 10.2275 Y 4.8458 Z -1.0000 I 0.8129 J -2.2828
G02 X 11.0404 Y 4.7054 Z -1.0000 I 0.0000 J -2.4232
G02 X 11.5608 Y 4.3710 Z -1.0000 I -0.4570 J -1.2834
G02 X 11.9922 Y 3.7293 Z -1.0000 I -1.0933 J -1.2010
G02 X 12.1763 Y 2.6927 Z -1.0000 I -2.8263 J -1.0366
G02 X 11.9955 Y 1.6746 Z -1.0000 I -2.9565 J 0.0000
G02 X 11.5608 Y 1.0143 Z -1.0000 I -1.6227 J 0.5952
G02 X 11.0404 Y 0.6799 Z -1.0000 I -0.9774 J 0.9490
G02 X 10.2275 Y 0.5395 Z -1.0000 I -0.8129 J 2.2828
G01 X 10.2275 Y 0.5395 Z -1.0000
G00 Z 5.0000

(End cutting path id: text45942)


(Start cutting path id: text45942)
(Change tool to Default tool)

G00 Z 5.0000
G00 X 11.0307 Y 1.6326

G01 Z -1.0000 F 100.0000(Penetrate)
G03 X 11.2364 Y 2.0365 Z -1.0000 I -0.8974 J 0.7113 F 3500.0000
G03 X 11.3261 Y 2.6927 Z -1.0000 I -2.3547 J 0.6561
G03 X 11.2358 Y 3.3456 Z -1.0000 I -2.4057 J 0.0000
G03 X 11.0280 Y 3.7499 Z -1.0000 I -1.1015 J -0.3106
G03 X 10.6833 Y 4.0238 Z -1.0000 I -0.7498 J -0.5899
G03 X 10.2275 Y 4.1253 Z -1.0000 I -0.4558 J -0.9720
G03 X 9.7703 Y 4.0248 Z -1.0000 I -0.0000 J -1.0893
G03 X 9.4214 Y 3.7527 Z -1.0000 I 0.4086 J -0.8837
G03 X 9.2117 Y 3.3478 Z -1.0000 I 0.8870 J -0.7162
G03 X 9.1205 Y 2.6927 Z -1.0000 I 2.3080 J -0.6551
G03 X 9.2117 Y 2.0375 Z -1.0000 I 2.3992 J -0.0000
G03 X 9.4214 Y 1.6326 Z -1.0000 I 1.0967 J 0.3113
G03 X 9.7703 Y 1.3605 Z -1.0000 I 0.7575 J 0.6116
G03 X 10.2275 Y 1.2600 Z -1.0000 I 0.4571 J 0.9887
G03 X 10.6842 Y 1.3608 Z -1.0000 I 0.0000 J 1.0853
G03 X 11.0307 Y 1.6326 Z -1.0000 I -0.4051 J 0.8732
G01 X 11.0307 Y 1.6326 Z -1.0000
G00 Z 5.0000

(End cutting path id: text45942)


(Start cutting path id: text45942)
(Change tool to Default tool)

G00 Z 5.0000
G00 X 15.7815 Y 4.7216

G01 Z -1.0000 F 100.0000(Penetrate)
G01 X 15.7815 Y 4.0011 Z -1.0000 F 3500.0000
G01 X 14.5641 Y 4.0011 Z -1.0000
G01 X 14.5641 Y 0.6527 Z -1.0000
G01 X 13.7084 Y 0.6527 Z -1.0000
G01 X 13.7084 Y 4.0011 Z -1.0000
G01 X 12.4855 Y 4.0011 Z -1.0000
G01 X 12.4855 Y 4.7216 Z -1.0000
G01 X 15.7815 Y 4.7216 Z -1.0000
G00 Z 5.0000

(End cutting path id: text45942)


(Start cutting path id: text45942)
(Change tool to Default tool)

G00 Z 5.0000
G00 X 18.7048 Y 0.6527

G01 Z -1.0000 F 100.0000(Penetrate)
G01 X 18.7048 Y 2.4691 Z -1.0000 F 3500.0000
G01 X 17.1148 Y 2.4691 Z -1.0000
G01 X 17.1148 Y 0.6527 Z -1.0000
G01 X 16.2729 Y 0.6527 Z -1.0000
G01 X 16.2729 Y 4.7216 Z -1.0000
G01 X 17.1148 Y 4.7216 Z -1.0000
G01 X 17.1148 Y 3.1702 Z -1.0000
G01 X 18.7048 Y 3.1702 Z -1.0000
G01 X 18.7048 Y 4.7216 Z -1.0000
G01 X 19.5495 Y 4.7216 Z -1.0000
G01 X 19.5495 Y 0.6527 Z -1.0000
G01 X 18.7048 Y 0.6527 Z -1.0000
G00 Z 5.0000

(End cutting path id: text45942)


(Start cutting path id: text45942)
(Change tool to Default tool)

G00 Z 5.0000
G00 X 22.2189 Y 0.6527

G01 Z -1.0000 F 100.0000(Penetrate)
G01 X 20.3749 Y 0.6527 Z -1.0000 F 3500.0000
G01 X 20.3749 Y 4.7216 Z -1.0000
G01 X 22.3514 Y 4.7216 Z -1.0000
G02 X 23.0336 Y 4.5823 Z -1.0000 I -0.0277 J -1.8755
G02 X 23.4114 Y 4.2882 Z -1.0000 I -0.3357 J -0.8211
G02 X 23.5481 Y 4.0122 Z -1.0000 I -0.7534 J -0.5450
G02 X 23.5991 Y 3.6671 Z -1.0000 I -1.1419 J -0.3451
G02 X 23.5451 Y 3.3139 Z -1.0000 I -1.1811 J 0.0000
G02 X 23.4114 Y 3.0681 Z -1.0000 I -0.6914 J 0.2167
G02 X 23.2943 Y 2.9563 Z -1.0000 I -0.5282 J 0.4364
G02 X 23.1023 Y 2.8362 Z -1.0000 I -0.8046 J 1.0728
G02 X 23.3822 Y 2.6831 Z -1.0000 I -0.3585 J -0.9881
G02 X 23.5715 Y 2.4773 Z -1.0000 I -0.4900 J -0.6408
G02 X 23.6871 Y 2.2184 Z -1.0000 I -0.7567 J -0.4931
G02 X 23.7316 Y 1.8811 Z -1.0000 I -1.2564 J -0.3374
G02 X 23.6837 Y 1.5334 Z -1.0000 I -1.2859 J -0.0000
G02 X 23.5495 Y 1.2324 Z -1.0000 I -1.0918 J 0.3066
G02 X 23.4179 Y 1.0561 Z -1.0000 I -0.9962 J 0.6064
G02 X 23.2596 Y 0.9122 Z -1.0000 I -0.8182 J 0.7406
G02 X 23.0516 Y 0.7896 Z -1.0000 I -0.6226 J 0.8186
G02 X 22.7958 Y 0.7079 Z -1.0000 I -0.5124 J 1.1634
G02 X 22.5293 Y 0.6675 Z -1.0000 I -0.5001 J 2.4005
G02 X 22.2189 Y 0.6527 Z -1.0000 I -0.3104 J 3.2437
G01 X 22.2189 Y 0.6527 Z -1.0000
G00 Z 5.0000

(End cutting path id: text45942)


(Start cutting path id: text45942)
(Change tool to Default tool)

G00 Z 5.0000
G00 X 22.1996 Y 2.4442

G01 Z -1.0000 F 100.0000(Penetrate)
G01 X 21.1865 Y 2.4442 Z -1.0000 F 3500.0000
G01 X 21.1865 Y 1.3594 Z -1.0000
G01 X 22.1858 Y 1.3594 Z -1.0000
G03 X 22.4484 Y 1.3818 Z -1.0000 I -0.0000 J 1.5478
G03 X 22.6026 Y 1.4311 Z -1.0000 I -0.0991 J 0.5753
G03 X 22.7920 Y 1.6142 Z -1.0000 I -0.1882 J 0.3842
G03 X 22.8731 Y 1.9390 Z -1.0000 I -0.6099 J 0.3248
G03 X 22.7984 Y 2.2083 Z -1.0000 I -0.5225 J -0.0000
G03 X 22.6109 Y 2.3752 Z -1.0000 I -0.3614 J -0.2173
G03 X 22.4601 Y 2.4211 Z -1.0000 I -0.2518 J -0.5561
G03 X 22.1996 Y 2.4442 Z -1.0000 I -0.2780 J -1.6570
G01 X 22.1996 Y 2.4442 Z -1.0000
G00 Z 5.0000

(End cutting path id: text45942)


(Start cutting path id: text45942)
(Change tool to Default tool)

G00 Z 5.0000
G00 X 22.6219 Y 3.2199

G01 Z -1.0000 F 100.0000(Penetrate)
G03 X 22.7371 Y 3.3479 Z -1.0000 I -0.1511 J 0.2518 F 3500.0000
G03 X 22.7876 Y 3.5760 Z -1.0000 I -0.4905 J 0.2281
G03 X 22.7221 Y 3.8165 Z -1.0000 I -0.4743 J -0.0000
G03 X 22.5667 Y 3.9514 Z -1.0000 I -0.2786 J -0.1639
G03 X 22.3732 Y 3.9959 Z -1.0000 I -0.3279 J -0.9838
G03 X 22.0809 Y 4.0149 Z -1.0000 I -0.2923 J -2.2366
G01 X 21.1865 Y 4.0149 Z -1.0000
G01 X 21.1865 Y 3.1178 Z -1.0000
G01 X 22.1858 Y 3.1178 Z -1.0000
G03 X 22.4452 Y 3.1477 Z -1.0000 I -0.0000 J 1.1376
G03 X 22.6219 Y 3.2199 Z -1.0000 I -0.1387 J 0.5922
G01 X 22.6219 Y 3.2199 Z -1.0000
G00 Z 5.0000

(End cutting path id: text45942)


(Start cutting path id: text45942)
(Change tool to Default tool)

G00 Z 5.0000
G00 X 26.1719 Y 2.2482

G01 Z -1.0000 F 100.0000(Penetrate)
G01 X 25.2941 Y 2.2482 Z -1.0000 F 3500.0000
G01 X 25.2941 Y 0.6527 Z -1.0000
G01 X 24.4632 Y 0.6527 Z -1.0000
G01 X 24.4632 Y 4.7216 Z -1.0000
G01 X 26.4590 Y 4.7216 Z -1.0000
G02 X 26.8806 Y 4.6840 Z -1.0000 I -0.0591 J -3.0489
G02 X 27.1160 Y 4.6167 Z -1.0000 I -0.1607 J -1.0068
G02 X 27.3306 Y 4.4963 Z -1.0000 I -0.4075 J -0.9780
G02 X 27.5080 Y 4.3324 Z -1.0000 I -0.5998 J -0.8269
G02 X 27.6267 Y 4.1693 Z -1.0000 I -0.9654 J -0.8275
G02 X 27.7178 Y 3.9901 Z -1.0000 I -1.0777 J -0.6605
G02 X 27.7739 Y 3.7982 Z -1.0000 I -0.8742 J -0.3599
G02 X 27.7950 Y 3.5622 Z -1.0000 I -1.3064 J -0.2360
G02 X 27.7596 Y 3.2810 Z -1.0000 I -1.1337 J 0.0000
G02 X 27.6487 Y 2.9908 Z -1.0000 I -1.3197 J 0.3379
G02 X 27.4608 Y 2.7605 Z -1.0000 I -0.6585 J 0.3456
G02 X 27.1657 Y 2.5960 Z -1.0000 I -0.6078 J 0.7438
G02 X 27.4166 Y 2.4482 Z -1.0000 I -0.3633 J -0.9038
G02 X 27.5632 Y 2.2731 Z -1.0000 I -0.3777 J -0.4649
G02 X 27.6432 Y 2.0557 Z -1.0000 I -0.6012 J -0.3447
G02 X 27.6819 Y 1.6382 Z -1.0000 I -2.2335 J -0.4176
G01 X 27.6819 Y 1.3649 Z -1.0000
G03 X 27.6900 Y 1.0870 Z -1.0000 I 4.7682 J -0.0000
G03 X 27.7039 Y 0.9867 Z -1.0000 I 0.6311 J 0.0368
G03 X 27.7625 Y 0.8473 Z -1.0000 I 0.3913 J 0.0824
G03 X 27.8585 Y 0.7548 Z -1.0000 I 0.2585 J 0.1723
G01 X 27.8585 Y 0.6527 Z -1.0000
G01 X 26.9227 Y 0.6527 Z -1.0000
G02 X 26.8862 Y 0.7884 Z -1.0000 I 4.4523 J 1.2722
G02 X 26.8675 Y 0.8708 Z -1.0000 I 1.6172 J 0.4094
G02 X 26.8421 Y 1.0427 Z -1.0000 I 1.9139 J 0.3705
G02 X 26.8316 Y 1.2213 Z -1.0000 I 2.0553 J 0.2104
G01 X 26.8261 Y 1.5995 Z -1.0000
G03 X 26.7735 Y 1.9679 Z -1.0000 I -1.4592 J -0.0206
G03 X 26.6826 Y 2.1185 Z -1.0000 I -0.3140 J -0.0868
G03 X 26.5294 Y 2.2035 Z -1.0000 I -0.2378 J -0.2480
G03 X 26.1719 Y 2.2482 Z -1.0000 I -0.3575 J -1.4070
G01 X 26.1719 Y 2.2482 Z -1.0000
G00 Z 5.0000

(End cutting path id: text45942)


(Start cutting path id: text45942)
(Change tool to Default tool)

G00 Z 5.0000
G00 X 26.6881 Y 2.9880

G01 Z -1.0000 F 100.0000(Penetrate)
G03 X 26.8662 Y 3.1528 Z -1.0000 I -0.1610 J 0.3526 F 3500.0000
G03 X 26.9421 Y 3.4463 Z -1.0000 I -0.5296 J 0.2935
G03 X 26.8664 Y 3.7701 Z -1.0000 I -0.7306 J -0.0000
G03 X 26.6964 Y 3.9431 Z -1.0000 I -0.3485 J -0.1723
G03 X 26.5527 Y 3.9917 Z -1.0000 I -0.2282 J -0.4388
G03 X 26.2823 Y 4.0149 Z -1.0000 I -0.2704 J -1.5598
G01 X 25.2941 Y 4.0149 Z -1.0000
G01 X 25.2941 Y 2.9218 Z -1.0000
G01 X 26.2575 Y 2.9218 Z -1.0000
G03 X 26.5398 Y 2.9434 Z -1.0000 I 0.0000 J 1.8569
G03 X 26.6881 Y 2.9880 Z -1.0000 I -0.0844 J 0.5489
G01 X 26.6881 Y 2.9880 Z -1.0000
G00 Z 5.0000

(End cutting path id: text45942)


(Start cutting path id: text45942)
(Change tool to Default tool)

G00 Z 5.0000
G00 X 30.9337 Y 2.2206

G01 Z -1.0000 F 100.0000(Penetrate)
G01 X 30.9337 Y 4.7216 Z -1.0000 F 3500.0000
G01 X 31.7977 Y 4.7216 Z -1.0000
G01 X 31.7977 Y 2.2206 Z -1.0000
G02 X 31.7353 Y 1.5881 Z -1.0000 I -3.2335 J -0.0000
G02 X 31.5962 Y 1.2103 Z -1.0000 I -1.2726 J 0.2538
G02 X 31.1006 Y 0.7540 Z -1.0000 I -0.9575 J 0.5426
G02 X 30.1635 Y 0.5478 Z -1.0000 I -0.9371 J 2.0265
G02 X 29.2258 Y 0.7537 Z -1.0000 I 0.0000 J 2.2376
G02 X 28.7281 Y 1.2103 Z -1.0000 I 0.4641 J 1.0057
G02 X 28.5890 Y 1.5881 Z -1.0000 I 1.1336 J 0.6317
G02 X 28.5266 Y 2.2206 Z -1.0000 I 3.1711 J 0.6325
G01 X 28.5266 Y 4.7216 Z -1.0000
G01 X 29.3906 Y 4.7216 Z -1.0000
G01 X 29.3906 Y 2.2206 Z -1.0000
G03 X 29.4237 Y 1.8091 Z -1.0000 I 2.5710 J -0.0000
G03 X 29.4900 Y 1.6078 Z -1.0000 I 0.6683 J 0.1084
G03 X 29.7141 Y 1.3732 Z -1.0000 I 0.4456 J 0.2012
G03 X 30.1635 Y 1.2655 Z -1.0000 I 0.4495 J 0.8844
G03 X 30.6104 Y 1.3729 Z -1.0000 I 0.0000 J 0.9831
G03 X 30.8343 Y 1.6078 Z -1.0000 I -0.2228 J 0.4366
G03 X 30.9005 Y 1.8091 Z -1.0000 I -0.6020 J 0.3096
G03 X 30.9337 Y 2.2206 Z -1.0000 I -2.5379 J 0.4116
G01 X 30.9337 Y 2.2206 Z -1.0000
G00 Z 5.0000

(End cutting path id: text45942)


(Start cutting path id: text45942)
(Change tool to Default tool)

G00 Z 5.0000
G00 X 34.0861 Y 1.2407

G01 Z -1.0000 F 100.0000(Penetrate)
G03 X 34.3836 Y 1.2607 Z -1.0000 I 0.0000 J 2.2138 F 3500.0000
G03 X 34.5747 Y 1.3069 Z -1.0000 I -0.1294 J 0.9545
G03 X 34.8374 Y 1.4998 Z -1.0000 I -0.1907 J 0.5349
G03 X 34.9308 Y 1.7789 Z -1.0000 I -0.3700 J 0.2791
G03 X 34.8845 Y 1.9548 Z -1.0000 I -0.3568 J 0.0000
G03 X 34.7542 Y 2.0909 Z -1.0000 I -0.3334 J -0.1888
G03 X 34.5692 Y 2.1777 Z -1.0000 I -0.4920 J -0.8074
G03 X 34.1993 Y 2.2813 Z -1.0000 I -1.0840 J -3.1578
G01 X 33.7687 Y 2.3780 Z -1.0000
G02 X 33.1495 Y 2.5573 Z -1.0000 I 1.1945 J 5.2832
G02 X 32.8909 Y 2.6899 Z -1.0000 I 0.3687 J 1.0377
G02 X 32.5986 Y 3.0342 Z -1.0000 I 0.4839 J 0.7069
G02 X 32.4796 Y 3.5705 Z -1.0000 I 1.1481 J 0.5362
G02 X 32.5842 Y 4.0708 Z -1.0000 I 1.2477 J -0.0000
G02 X 32.8771 Y 4.4787 Z -1.0000 I 1.1032 J -0.4828
G02 X 33.3172 Y 4.7302 Z -1.0000 I 0.7853 J -0.8633
G02 X 34.0447 Y 4.8403 Z -1.0000 I 0.7276 J -2.3494
G02 X 34.6566 Y 4.7470 Z -1.0000 I 0.0000 J -2.0523
G02 X 35.1406 Y 4.4980 Z -1.0000 I -0.4732 J -1.5150
G02 X 35.4738 Y 4.0945 Z -1.0000 I -0.6578 J -0.8824
G02 X 35.6182 Y 3.5098 Z -1.0000 I -1.3126 J -0.6343
G01 X 34.8011 Y 3.5098 Z -1.0000
G03 X 34.7013 Y 3.8264 Z -1.0000 I -0.6826 J -0.0411
G03 X 34.4809 Y 4.0315 Z -1.0000 I -0.4793 J -0.2942
G03 X 34.2750 Y 4.1041 Z -1.0000 I -0.3695 J -0.7191
G03 X 33.9868 Y 4.1336 Z -1.0000 I -0.2882 J -1.3944
G03 X 33.6703 Y 4.0943 Z -1.0000 I -0.0000 J -1.2919
G03 X 33.4623 Y 4.0011 Z -1.0000 I 0.1617 J -0.6401
G03 X 33.3184 Y 3.8409 Z -1.0000 I 0.2490 J -0.3684
G03 X 33.2663 Y 3.6312 Z -1.0000 I 0.3958 J -0.2097
G03 X 33.3178 Y 3.4434 Z -1.0000 I 0.3681 J -0.0000
G03 X 33.4595 Y 3.3055 Z -1.0000 I 0.3265 J 0.1937
G03 X 33.5895 Y 3.2481 Z -1.0000 I 0.3292 J 0.5698
G03 X 33.9895 Y 3.1371 Z -1.0000 I 1.7021 J 5.3573
G01 X 34.6907 Y 2.9687 Z -1.0000
G02 X 35.1343 Y 2.8225 Z -1.0000 I -0.6545 J -2.7325
G02 X 35.3863 Y 2.6733 Z -1.0000 I -0.4315 J -1.0163
G02 X 35.6472 Y 2.3360 Z -1.0000 I -0.5438 J -0.6902
G02 X 35.7507 Y 1.8424 Z -1.0000 I -1.1256 J -0.4936
G02 X 35.6395 Y 1.3357 Z -1.0000 I -1.2097 J 0.0000
G02 X 35.3228 Y 0.9149 Z -1.0000 I -1.1318 J 0.5221
G02 X 34.8568 Y 0.6578 Z -1.0000 I -0.8418 J 0.9747
G02 X 34.1193 Y 0.5478 Z -1.0000 I -0.7375 J 2.4178
G02 X 33.3617 Y 0.6551 Z -1.0000 I -0.0000 J 2.7271
G02 X 32.8688 Y 0.9094 Z -1.0000 I 0.3981 J 1.3765
G02 X 32.5381 Y 1.3338 Z -1.0000 I 0.7241 J 0.9051
G02 X 32.4133 Y 1.9087 Z -1.0000 I 1.2613 J 0.5749
G01 X 33.2249 Y 1.9087 Z -1.0000
G03 X 33.2912 Y 1.6420 Z -1.0000 I 1.2892 J 0.1787
G03 X 33.3767 Y 1.4919 Z -1.0000 I 0.4833 J 0.1760
G03 X 33.6214 Y 1.3205 Z -1.0000 I 0.4312 J 0.3554
G03 X 34.0861 Y 1.2407 Z -1.0000 I 0.4647 J 1.3125
G01 X 34.0861 Y 1.2407 Z -1.0000
G00 Z 5.0000

(End cutting path id: text45942)


(Start cutting path id: text45942)
(Change tool to Default tool)

G00 Z 5.0000
G00 X 38.8065 Y 0.6527

G01 Z -1.0000 F 100.0000(Penetrate)
G01 X 38.8065 Y 2.4691 Z -1.0000 F 3500.0000
G01 X 37.2165 Y 2.4691 Z -1.0000
G01 X 37.2165 Y 0.6527 Z -1.0000
G01 X 36.3746 Y 0.6527 Z -1.0000
G01 X 36.3746 Y 4.7216 Z -1.0000
G01 X 37.2165 Y 4.7216 Z -1.0000
G01 X 37.2165 Y 3.1702 Z -1.0000
G01 X 38.8065 Y 3.1702 Z -1.0000
G01 X 38.8065 Y 4.7216 Z -1.0000
G01 X 39.6512 Y 4.7216 Z -1.0000
G01 X 39.6512 Y 0.6527 Z -1.0000
G01 X 38.8065 Y 0.6527 Z -1.0000
G00 Z 5.0000

(End cutting path id: text45942)



(Footer)
M5
G00 X0.0000 Y0.0000
M2
(Using default footer. To add your own footer create file "footer" in the output dir.)
(end)
%