%
(Header)
(Generated by gcodetools from Inkscape.)
(Using default header. To add your own header create file "header" in the output dir.)
M3
(Header end.)
G21 (All units in mm)

(Start cutting path id: text31972)
(Change tool to Default tool)

G00 Z 5.0000
G00 X 8.3269 Y 39.3104

G01 Z -1.0000 F 100.0000(Penetrate)
G01 X 8.3269 Y 38.3364 Z -1.0000 F 3500.0000
G01 X 6.6813 Y 38.3364 Z -1.0000
G01 X 6.6813 Y 33.8099 Z -1.0000
G01 X 5.5245 Y 33.8099 Z -1.0000
G01 X 5.5245 Y 38.3364 Z -1.0000
G01 X 3.8713 Y 38.3364 Z -1.0000
G01 X 3.8713 Y 39.3104 Z -1.0000
G01 X 8.3269 Y 39.3104 Z -1.0000
G00 Z 5.0000

(End cutting path id: text31972)


(Start cutting path id: text31972)
(Change tool to Default tool)

G00 Z 5.0000
G00 X 12.3833 Y 35.1347

G01 Z -1.0000 F 100.0000(Penetrate)
G03 X 12.6613 Y 35.6807 Z -1.0000 I -1.2131 J 0.9615 F 3500.0000
G03 X 12.7826 Y 36.5676 Z -1.0000 I -3.1831 J 0.8870
G03 X 12.6605 Y 37.4503 Z -1.0000 I -3.2522 J -0.0000
G03 X 12.3795 Y 37.9969 Z -1.0000 I -1.4891 J -0.4199
G03 X 11.9136 Y 38.3671 Z -1.0000 I -1.0135 J -0.7974
G03 X 11.2974 Y 38.5044 Z -1.0000 I -0.6162 J -1.3140
G03 X 10.6794 Y 38.3684 Z -1.0000 I 0.0000 J -1.4725
G03 X 10.2077 Y 38.0006 Z -1.0000 I 0.5523 J -1.1947
G03 X 9.9242 Y 37.4533 Z -1.0000 I 1.1991 J -0.9682
G03 X 9.8010 Y 36.5676 Z -1.0000 I 3.1200 J -0.8856
G03 X 9.9242 Y 35.6820 Z -1.0000 I 3.2433 J -0.0000
G03 X 10.2077 Y 35.1347 Z -1.0000 I 1.4826 J 0.4208
G03 X 10.6794 Y 34.7668 Z -1.0000 I 1.0240 J 0.8268
G03 X 11.2974 Y 34.6309 Z -1.0000 I 0.6179 J 1.3366
G03 X 11.9148 Y 34.7671 Z -1.0000 I -0.0000 J 1.4671
G03 X 12.3833 Y 35.1347 Z -1.0000 I -0.5476 J 1.1804
G01 X 12.3833 Y 35.1347 Z -1.0000
G00 Z 5.0000

(End cutting path id: text31972)


(Start cutting path id: text31972)
(Change tool to Default tool)

G00 Z 5.0000
G00 X 11.2974 Y 33.6569

G01 Z -1.0000 F 100.0000(Penetrate)
G02 X 10.1984 Y 33.8468 Z -1.0000 I 0.0000 J 3.2758 F 3500.0000
G02 X 9.4950 Y 34.2988 Z -1.0000 I 0.6178 J 1.7349
G02 X 8.9044 Y 35.1921 Z -1.0000 I 1.6026 J 1.7013
G02 X 8.6591 Y 36.5676 Z -1.0000 I 3.7336 J 1.3755
G02 X 8.9089 Y 37.9682 Z -1.0000 I 4.0514 J -0.0000
G02 X 9.4950 Y 38.8365 Z -1.0000 I 2.0611 J -0.7594
G02 X 10.1984 Y 39.2885 Z -1.0000 I 1.3213 J -1.2829
G02 X 11.2974 Y 39.4783 Z -1.0000 I 1.0989 J -3.0860
G02 X 12.3963 Y 39.2885 Z -1.0000 I -0.0000 J -3.2758
G02 X 13.0997 Y 38.8365 Z -1.0000 I -0.6178 J -1.7349
G02 X 13.6830 Y 37.9690 Z -1.0000 I -1.4779 J -1.6235
G02 X 13.9319 Y 36.5676 Z -1.0000 I -3.8207 J -1.4013
G02 X 13.6875 Y 35.1914 Z -1.0000 I -3.9967 J -0.0000
G02 X 13.0997 Y 34.2988 Z -1.0000 I -2.1936 J 0.8045
G02 X 12.3963 Y 33.8468 Z -1.0000 I -1.3213 J 1.2829
G02 X 11.2974 Y 33.6569 Z -1.0000 I -1.0989 J 3.0860
G01 X 11.2974 Y 33.6569 Z -1.0000
G00 Z 5.0000

(End cutting path id: text31972)


(Start cutting path id: text31972)
(Change tool to Default tool)

G00 Z 5.0000
G00 X 17.7084 Y 35.8885

G01 Z -1.0000 F 100.0000(Penetrate)
G01 X 17.0217 Y 38.0528 Z -1.0000 F 3500.0000
G01 X 16.3127 Y 35.8885 Z -1.0000
G01 X 17.7084 Y 35.8885 Z -1.0000
G00 Z 5.0000

(End cutting path id: text31972)


(Start cutting path id: text31972)
(Change tool to Default tool)

G00 Z 5.0000
G00 X 18.0293 Y 34.9406

G01 Z -1.0000 F 100.0000(Penetrate)
G01 X 16.0030 Y 34.9406 Z -1.0000 F 3500.0000
G01 X 15.6224 Y 33.8099 Z -1.0000
G01 X 14.4208 Y 33.8099 Z -1.0000
G01 X 16.3836 Y 39.3104 Z -1.0000
G01 X 17.6822 Y 39.3104 Z -1.0000
G01 X 19.6302 Y 33.8099 Z -1.0000
G01 X 18.3838 Y 33.8099 Z -1.0000
G01 X 18.0293 Y 34.9406 Z -1.0000
G00 Z 5.0000

(End cutting path id: text31972)


(Start cutting path id: text31972)
(Change tool to Default tool)

G00 Z 5.0000
G00 X 22.3244 Y 34.6048

G01 Z -1.0000 F 100.0000(Penetrate)
G03 X 22.7265 Y 34.6319 Z -1.0000 I 0.0000 J 2.9927 F 3500.0000
G03 X 22.9849 Y 34.6943 Z -1.0000 I -0.1749 J 1.2902
G03 X 23.3400 Y 34.9551 Z -1.0000 I -0.2578 J 0.7231
G03 X 23.4663 Y 35.3325 Z -1.0000 I -0.5002 J 0.3774
G03 X 23.4037 Y 35.5702 Z -1.0000 I -0.4823 J 0.0000
G03 X 23.2275 Y 35.7541 Z -1.0000 I -0.4507 J -0.2553
G03 X 22.9774 Y 35.8716 Z -1.0000 I -0.6651 J -1.0914
G03 X 22.4774 Y 36.0116 Z -1.0000 I -1.4654 J -4.2688
G01 X 21.8953 Y 36.1422 Z -1.0000
G02 X 21.0583 Y 36.3846 Z -1.0000 I 1.6147 J 7.1419
G02 X 20.7086 Y 36.5639 Z -1.0000 I 0.4985 J 1.4028
G02 X 20.3136 Y 37.0294 Z -1.0000 I 0.6542 J 0.9556
G02 X 20.1526 Y 37.7543 Z -1.0000 I 1.5520 J 0.7249
G02 X 20.2941 Y 38.4306 Z -1.0000 I 1.6867 J -0.0000
G02 X 20.6900 Y 38.9820 Z -1.0000 I 1.4913 J -0.6527
G02 X 21.2849 Y 39.3221 Z -1.0000 I 1.0616 J -1.1670
G02 X 22.2685 Y 39.4709 Z -1.0000 I 0.9836 J -3.1760
G02 X 23.0956 Y 39.3447 Z -1.0000 I -0.0000 J -2.7744
G02 X 23.7499 Y 39.0082 Z -1.0000 I -0.6397 J -2.0480
G02 X 24.2003 Y 38.4626 Z -1.0000 I -0.8892 J -1.1929
G02 X 24.3955 Y 37.6722 Z -1.0000 I -1.7744 J -0.8575
G01 X 23.2909 Y 37.6722 Z -1.0000
G03 X 23.1560 Y 38.1003 Z -1.0000 I -0.9228 J -0.0555
G03 X 22.8581 Y 38.3775 Z -1.0000 I -0.6479 J -0.3977
G03 X 22.5797 Y 38.4757 Z -1.0000 I -0.4996 J -0.9721
G03 X 22.1901 Y 38.5156 Z -1.0000 I -0.3896 J -1.8851
G03 X 21.7623 Y 38.4624 Z -1.0000 I 0.0000 J -1.7465
G03 X 21.4811 Y 38.3364 Z -1.0000 I 0.2186 J -0.8653
G03 X 21.2866 Y 38.1199 Z -1.0000 I 0.3366 J -0.4980
G03 X 21.2161 Y 37.8364 Z -1.0000 I 0.5351 J -0.2835
G03 X 21.2858 Y 37.5825 Z -1.0000 I 0.4976 J 0.0000
G03 X 21.4773 Y 37.3961 Z -1.0000 I 0.4413 J 0.2618
G03 X 21.6530 Y 37.3185 Z -1.0000 I 0.4450 J 0.7703
G03 X 22.1938 Y 37.1684 Z -1.0000 I 2.3008 J 7.2419
G01 X 23.1417 Y 36.9408 Z -1.0000
G02 X 23.7414 Y 36.7432 Z -1.0000 I -0.8848 J -3.6938
G02 X 24.0821 Y 36.5415 Z -1.0000 I -0.5834 J -1.3739
G02 X 24.4348 Y 36.0856 Z -1.0000 I -0.7351 J -0.9330
G02 X 24.5746 Y 35.4183 Z -1.0000 I -1.5216 J -0.6673
G02 X 24.4242 Y 34.7333 Z -1.0000 I -1.6353 J 0.0000
G02 X 23.9962 Y 34.1644 Z -1.0000 I -1.5299 J 0.7058
G02 X 23.3662 Y 33.8168 Z -1.0000 I -1.1380 J 1.3177
G02 X 22.3692 Y 33.6681 Z -1.0000 I -0.9970 J 3.2684
G02 X 21.3451 Y 33.8132 Z -1.0000 I -0.0000 J 3.6865
G02 X 20.6788 Y 34.1570 Z -1.0000 I 0.5381 J 1.8608
G02 X 20.2318 Y 34.7307 Z -1.0000 I 0.9789 J 1.2236
G02 X 20.0630 Y 35.5078 Z -1.0000 I 1.7051 J 0.7772
G01 X 21.1602 Y 35.5078 Z -1.0000
G03 X 21.2497 Y 35.1473 Z -1.0000 I 1.7426 J 0.2415
G03 X 21.3654 Y 34.9444 Z -1.0000 I 0.6533 J 0.2380
G03 X 21.6962 Y 34.7127 Z -1.0000 I 0.5829 J 0.4804
G03 X 22.3244 Y 34.6048 Z -1.0000 I 0.6282 J 1.7743
G01 X 22.3244 Y 34.6048 Z -1.0000
G00 Z 5.0000

(End cutting path id: text31972)


(Start cutting path id: text31972)
(Change tool to Default tool)

G00 Z 5.0000
G00 X 29.4221 Y 39.3104

G01 Z -1.0000 F 100.0000(Penetrate)
G01 X 29.4221 Y 38.3364 Z -1.0000 F 3500.0000
G01 X 27.7764 Y 38.3364 Z -1.0000
G01 X 27.7764 Y 33.8099 Z -1.0000
G01 X 26.6196 Y 33.8099 Z -1.0000
G01 X 26.6196 Y 38.3364 Z -1.0000
G01 X 24.9665 Y 38.3364 Z -1.0000
G01 X 24.9665 Y 39.3104 Z -1.0000
G01 X 29.4221 Y 39.3104 Z -1.0000
G00 Z 5.0000

(End cutting path id: text31972)


(Start cutting path id: text31972)
(Change tool to Default tool)

G00 Z 5.0000
G00 X 33.9225 Y 36.2131

G01 Z -1.0000 F 100.0000(Penetrate)
G01 X 31.2506 Y 36.2131 Z -1.0000 F 3500.0000
G01 X 31.2506 Y 34.7988 Z -1.0000
G01 X 34.2956 Y 34.7988 Z -1.0000
G01 X 34.2956 Y 33.8099 Z -1.0000
G01 X 30.1274 Y 33.8099 Z -1.0000
G01 X 30.1274 Y 39.3104 Z -1.0000
G01 X 34.1613 Y 39.3104 Z -1.0000
G01 X 34.1613 Y 38.3364 Z -1.0000
G01 X 31.2506 Y 38.3364 Z -1.0000
G01 X 31.2506 Y 37.1684 Z -1.0000
G01 X 33.9225 Y 37.1684 Z -1.0000
G01 X 33.9225 Y 36.2131 Z -1.0000
G00 Z 5.0000

(End cutting path id: text31972)


(Start cutting path id: text31972)
(Change tool to Default tool)

G00 Z 5.0000
G00 X 37.5273 Y 35.9668

G01 Z -1.0000 F 100.0000(Penetrate)
G01 X 36.3406 Y 35.9668 Z -1.0000 F 3500.0000
G01 X 36.3406 Y 33.8099 Z -1.0000
G01 X 35.2174 Y 33.8099 Z -1.0000
G01 X 35.2174 Y 39.3104 Z -1.0000
G01 X 37.9154 Y 39.3104 Z -1.0000
G02 X 38.4854 Y 39.2596 Z -1.0000 I -0.0797 J -4.1203
G02 X 38.8035 Y 39.1686 Z -1.0000 I -0.2172 J -1.3606
G02 X 39.0936 Y 39.0059 Z -1.0000 I -0.5508 J -1.3220
G02 X 39.3334 Y 38.7843 Z -1.0000 I -0.8108 J -1.1177
G02 X 39.4938 Y 38.5638 Z -1.0000 I -1.3051 J -1.1186
G02 X 39.6170 Y 38.3215 Z -1.0000 I -1.4569 J -0.8929
G02 X 39.6929 Y 38.0621 Z -1.0000 I -1.1817 J -0.4866
G02 X 39.7215 Y 37.7431 Z -1.0000 I -1.7659 J -0.3190
G02 X 39.6736 Y 37.3630 Z -1.0000 I -1.5325 J -0.0000
G02 X 39.5237 Y 36.9707 Z -1.0000 I -1.7840 J 0.4568
G02 X 39.2696 Y 36.6593 Z -1.0000 I -0.8902 J 0.4671
G02 X 38.8707 Y 36.4370 Z -1.0000 I -0.8217 J 1.0055
G02 X 39.2099 Y 36.2372 Z -1.0000 I -0.4911 J -1.2218
G02 X 39.4080 Y 36.0004 Z -1.0000 I -0.5107 J -0.6285
G02 X 39.5162 Y 35.7066 Z -1.0000 I -0.8127 J -0.4660
G02 X 39.5685 Y 35.1421 Z -1.0000 I -3.0193 J -0.5645
G01 X 39.5685 Y 34.7727 Z -1.0000
G03 X 39.5794 Y 34.3970 Z -1.0000 I 6.4455 J -0.0000
G03 X 39.5983 Y 34.2615 Z -1.0000 I 0.8531 J 0.0498
G03 X 39.6775 Y 34.0730 Z -1.0000 I 0.5289 J 0.1113
G03 X 39.8073 Y 33.9480 Z -1.0000 I 0.3495 J 0.2330
G01 X 39.8073 Y 33.8099 Z -1.0000
G01 X 38.5423 Y 33.8099 Z -1.0000
G02 X 38.4928 Y 33.9935 Z -1.0000 I 6.0238 J 1.7211
G02 X 38.4676 Y 34.1047 Z -1.0000 I 2.1880 J 0.5539
G02 X 38.4333 Y 34.3372 Z -1.0000 I 2.5876 J 0.5008
G02 X 38.4191 Y 34.5787 Z -1.0000 I 2.7788 J 0.2844
G01 X 38.4116 Y 35.0899 Z -1.0000
G03 X 38.3404 Y 35.5880 Z -1.0000 I -1.9729 J -0.0278
G03 X 38.2176 Y 35.7915 Z -1.0000 I -0.4244 J -0.1174
G03 X 38.0105 Y 35.9064 Z -1.0000 I -0.3215 J -0.3352
G03 X 37.5273 Y 35.9668 Z -1.0000 I -0.4832 J -1.9020
G01 X 37.5273 Y 35.9668 Z -1.0000
G00 Z 5.0000

(End cutting path id: text31972)


(Start cutting path id: text31972)
(Change tool to Default tool)

G00 Z 5.0000
G00 X 38.2251 Y 36.9669

G01 Z -1.0000 F 100.0000(Penetrate)
G03 X 38.4658 Y 37.1896 Z -1.0000 I -0.2176 J 0.4767 F 3500.0000
G03 X 38.5684 Y 37.5864 Z -1.0000 I -0.7159 J 0.3968
G03 X 38.4661 Y 38.0241 Z -1.0000 I -0.9877 J -0.0000
G03 X 38.2363 Y 38.2581 Z -1.0000 I -0.4711 J -0.2329
G03 X 38.0420 Y 38.3237 Z -1.0000 I -0.3085 J -0.5932
G03 X 37.6765 Y 38.3551 Z -1.0000 I -0.3655 J -2.1086
G01 X 36.3406 Y 38.3551 Z -1.0000
G01 X 36.3406 Y 36.8774 Z -1.0000
G01 X 37.6429 Y 36.8774 Z -1.0000
G03 X 38.0246 Y 36.9066 Z -1.0000 I -0.0000 J 2.5101
G03 X 38.2251 Y 36.9669 Z -1.0000 I -0.1142 J 0.7420
G01 X 38.2251 Y 36.9669 Z -1.0000
G00 Z 5.0000

(End cutting path id: text31972)



(Footer)
M5
G00 X0.0000 Y0.0000
M2
(Using default footer. To add your own footer create file "footer" in the output dir.)
(end)
%