%
(Header)
(Generated by gcodetools from Inkscape.)
(Using default header. To add your own header create file "header" in the output dir.)
M3
(Header end.)
G21 (All units in mm)

(Start cutting path id: text46)
(Change tool to Default tool)

G00 Z5.000000
G00 X7.098901 Y20.621694

G01 Z-1.000000 F100.0(Penetrate)
G01 X7.098901 Y19.186283 Z-1.000000 F3500.000000
G01 X4.673551 Y19.186283 Z-1.000000
G01 X4.673551 Y12.515198 Z-1.000000
G01 X2.968657 Y12.515198 Z-1.000000
G01 X2.968657 Y19.186283 Z-1.000000
G01 X0.532309 Y19.186283 Z-1.000000
G01 X0.532309 Y20.621694 Z-1.000000
G01 X7.098901 Y20.621694 Z-1.000000
G00 Z5.000000

(End cutting path id: text46)


(Start cutting path id: text46)
(Change tool to Default tool)

G00 Z5.000000
G00 X13.077029 Y14.467576

G01 Z-1.000000 F100.0(Penetrate)
G03 X13.486776 Y15.272266 Z-1.000000 I-1.787860 J1.417043 F3500.000000
G03 X13.665492 Y16.579445 Z-1.000000 I-4.691190 J1.307179
G03 X13.485596 Y17.880256 Z-1.000000 I-4.792957 J0.000000
G03 X13.071529 Y18.685814 Z-1.000000 I-2.194551 J-0.618829
G03 X12.384787 Y19.231395 Z-1.000000 I-1.493739 J-1.175219
G03 X11.476628 Y19.433768 Z-1.000000 I-0.908159 J-1.936513
G03 X10.565923 Y19.233433 Z-1.000000 I-0.000000 J-2.170156
G03 X9.870728 Y18.691314 Z-1.000000 I0.814002 J-1.760654
G03 X9.452925 Y17.884678 Z-1.000000 I1.767216 J-1.426863
G03 X9.271266 Y16.579445 Z-1.000000 I4.598252 J-1.305233
G03 X9.452925 Y15.274212 Z-1.000000 I4.779912 J-0.000000
G03 X9.870728 Y14.467576 Z-1.000000 I2.185019 J0.620227
G03 X10.565923 Y13.925458 Z-1.000000 I1.509195 J1.218536
G03 X11.476628 Y13.725123 Z-1.000000 I0.910705 J1.969824
G03 X12.386562 Y13.925912 Z-1.000000 I0.000000 J2.162205
G03 X13.077029 Y14.467576 Z-1.000000 I-0.807076 J1.739699
G01 X13.077029 Y14.467576 Z-1.000000
G00 Z5.000000

(End cutting path id: text46)


(Start cutting path id: text46)
(Change tool to Default tool)

G00 Z5.000000
G00 X11.476628 Y12.289712

G01 Z-1.000000 F100.0(Penetrate)
G02 X9.857045 Y12.569480 Z-1.000000 I0.000000 J4.827784 F3500.000000
G02 X8.820294 Y13.235653 Z-1.000000 I0.910504 J2.556822
G02 X7.949929 Y14.552211 Z-1.000000 I2.361861 J2.507378
G02 X7.588370 Y16.579445 Z-1.000000 I5.502492 J2.027234
G02 X7.956516 Y18.643608 Z-1.000000 I5.970872 J0.000000
G02 X8.820294 Y19.923237 Z-1.000000 I3.037660 J-1.119138
G02 X9.857045 Y20.589411 Z-1.000000 I1.947256 J-1.890648
G02 X11.476628 Y20.869179 Z-1.000000 I1.619583 J-4.548011
G02 X13.096212 Y20.589411 Z-1.000000 I0.000000 J-4.827782
G02 X14.132963 Y19.923237 Z-1.000000 I-0.910505 J-2.556822
G02 X14.992591 Y18.644694 Z-1.000000 I-2.178123 J-2.392718
G02 X15.359387 Y16.579445 Z-1.000000 I-5.630813 J-2.065249
G02 X14.999156 Y14.551160 Z-1.000000 I-5.890261 J-0.000000
G02 X14.132963 Y13.235653 Z-1.000000 I-3.232831 J1.185726
G02 X13.096212 Y12.569480 Z-1.000000 I-1.947255 J1.890649
G02 X11.476628 Y12.289712 Z-1.000000 I-1.619584 J4.548018
G01 X11.476628 Y12.289712 Z-1.000000
G00 Z5.000000

(End cutting path id: text46)


(Start cutting path id: text46)
(Change tool to Default tool)

G00 Z5.000000
G00 X16.519815 Y20.621694

G01 Z-1.000000 F100.0(Penetrate)
G01 X18.202710 Y20.621694 Z-1.000000 F3500.000000
G01 X18.202710 Y12.515198 Z-1.000000
G01 X16.519815 Y12.515198 Z-1.000000
G01 X16.519815 Y20.621694 Z-1.000000
G00 Z5.000000

(End cutting path id: text46)


(Start cutting path id: text46)
(Change tool to Default tool)

G00 Z5.000000
G00 X19.781113 Y20.621694

G01 Z-1.000000 F100.0(Penetrate)
G01 X21.475007 Y20.621694 Z-1.000000 F3500.000000
G01 X21.475007 Y13.972607 Z-1.000000
G01 X25.489758 Y13.972607 Z-1.000000
G01 X25.489758 Y12.515198 Z-1.000000
G01 X19.781113 Y12.515198 Z-1.000000
G01 X19.781113 Y20.621694 Z-1.000000
G00 Z5.000000

(End cutting path id: text46)


(Start cutting path id: text46)
(Change tool to Default tool)

G00 Z5.000000
G00 X32.303833 Y16.056978

G01 Z-1.000000 F100.0(Penetrate)
G01 X28.366078 Y16.056978 Z-1.000000 F3500.000000
G01 X28.366078 Y13.972607 Z-1.000000
G01 X32.853799 Y13.972607 Z-1.000000
G01 X32.853799 Y12.515198 Z-1.000000
G01 X26.710681 Y12.515198 Z-1.000000
G01 X26.710681 Y20.621694 Z-1.000000
G01 X32.655812 Y20.621694 Z-1.000000
G01 X32.655812 Y19.186283 Z-1.000000
G01 X28.366078 Y19.186283 Z-1.000000
G01 X28.366078 Y17.464890 Z-1.000000
G01 X32.303833 Y17.464890 Z-1.000000
G01 X32.303833 Y16.056978 Z-1.000000
G00 Z5.000000

(End cutting path id: text46)


(Start cutting path id: text46)
(Change tool to Default tool)

G00 Z5.000000
G00 X40.063851 Y20.621694

G01 Z-1.000000 F100.0(Penetrate)
G01 X40.063851 Y19.186283 Z-1.000000 F3500.000000
G01 X37.638502 Y19.186283 Z-1.000000
G01 X37.638502 Y12.515198 Z-1.000000
G01 X35.933608 Y12.515198 Z-1.000000
G01 X35.933608 Y19.186283 Z-1.000000
G01 X33.497259 Y19.186283 Z-1.000000
G01 X33.497259 Y20.621694 Z-1.000000
G01 X40.063851 Y20.621694 Z-1.000000
G00 Z5.000000

(End cutting path id: text46)


(Footer)
M5
G00 X0.0000 Y0.0000
M2
(Using default footer. To add your own footer create file "footer" in the output dir.)
(end)
%