%
(Header)
(Generated by gcodetools from Inkscape.)
(Using default header. To add your own header create file "header" in the output dir.)
M3
(Header end.)
G21 (All units in mm)

(Start cutting path id: text46)
(Change tool to Default tool)

G00 Z5.000000
G00 X8.998230 Y35.539697

G01 Z-1.000000 F100.0(Penetrate)
G01 X8.998230 Y33.583930 Z-1.000000 F3500.000000
G01 X5.693659 Y33.583930 Z-1.000000
G01 X5.693659 Y24.494485 Z-1.000000
G01 X3.370717 Y24.494485 Z-1.000000
G01 X3.370717 Y33.583930 Z-1.000000
G01 X0.051159 Y33.583930 Z-1.000000
G01 X0.051159 Y35.539697 Z-1.000000
G01 X8.998230 Y35.539697 Z-1.000000
G00 Z5.000000

(End cutting path id: text46)


(Start cutting path id: text46)
(Change tool to Default tool)

G00 Z5.000000
G00 X16.439137 Y30.833867

G01 Z-1.000000 F100.0(Penetrate)
G03 X16.922502 Y31.281012 Z-1.000000 I-0.436993 J0.957222 F3500.000000
G03 X17.128526 Y32.077765 Z-1.000000 I-1.437620 J0.796753
G03 X16.923081 Y32.956796 Z-1.000000 I-1.983261 J0.000000
G03 X16.461617 Y33.426569 Z-1.000000 I-0.946031 J-0.467760
G03 X16.071515 Y33.558263 Z-1.000000 I-0.619393 J-1.191140
G03 X15.337613 Y33.621397 Z-1.000000 I-0.733902 J-4.234050
G01 X12.654990 Y33.621397 Z-1.000000
G01 X12.654990 Y30.654026 Z-1.000000
G01 X15.270173 Y30.654026 Z-1.000000
G03 X16.036609 Y30.712638 Z-1.000000 I-0.000000 J5.040444
G03 X16.439137 Y30.833867 Z-1.000000 I-0.229240 J1.490062
G01 X16.439137 Y30.833867 Z-1.000000
G00 Z5.000000

(End cutting path id: text46)


(Start cutting path id: text46)
(Change tool to Default tool)

G00 Z5.000000
G00 X15.037878 Y28.825647

G01 Z-1.000000 F100.0(Penetrate)
G01 X12.654990 Y28.825647 Z-1.000000 F3500.000000
G01 X12.654990 Y24.494485 Z-1.000000
G01 X10.399489 Y24.494485 Z-1.000000
G01 X10.399489 Y35.539697 Z-1.000000
G01 X15.817188 Y35.539697 Z-1.000000
G02 X16.961786 Y35.437742 Z-1.000000 I-0.160136 J-8.273700
G02 X17.600607 Y35.254949 Z-1.000000 I-0.436235 J-2.732209
G02 X18.183094 Y34.928239 Z-1.000000 I-1.106120 J-2.654693
G02 X18.664664 Y34.483133 Z-1.000000 I-1.628026 J-2.244464
G02 X18.986853 Y34.040537 Z-1.000000 I-2.620637 J-2.246265
G02 X19.234160 Y33.553956 Z-1.000000 I-2.925400 J-1.792989
G02 X19.386581 Y33.033054 Z-1.000000 I-2.372955 J-0.977099
G02 X19.443974 Y32.392486 Z-1.000000 I-3.546005 J-0.640568
G02 X19.347807 Y31.629177 Z-1.000000 I-3.077394 J-0.000000
G02 X19.046826 Y30.841360 Z-1.000000 I-3.582393 J0.917231
G02 X18.536626 Y30.216179 Z-1.000000 I-1.787567 J0.938030
G02 X17.735488 Y29.769810 Z-1.000000 I-1.649915 J2.019127
G02 X18.416708 Y29.368604 Z-1.000000 I-0.986155 J-2.453360
G02 X18.814532 Y28.893087 Z-1.000000 I-1.025407 J-1.262040
G02 X19.031699 Y28.303108 Z-1.000000 I-1.632036 J-0.935699
G02 X19.136746 Y27.169614 Z-1.000000 I-6.062883 J-1.133494
G01 X19.136746 Y26.427772 Z-1.000000
G03 X19.158755 Y25.673358 Z-1.000000 I12.940683 J0.000000
G03 X19.196696 Y25.401181 Z-1.000000 I1.712736 J0.100019
G03 X19.355692 Y25.022746 Z-1.000000 I1.062023 J0.223583
G03 X19.616324 Y24.771739 Z-1.000000 I0.701731 J0.467821
G01 X19.616324 Y24.494485 Z-1.000000
G01 X17.076075 Y24.494485 Z-1.000000
G02 X16.976800 Y24.863025 Z-1.000000 I12.094607 J3.455597
G02 X16.926208 Y25.086460 Z-1.000000 I4.393033 J1.112160
G02 X16.857289 Y25.553226 Z-1.000000 I5.196017 J1.005676
G02 X16.828798 Y26.038117 Z-1.000000 I5.579745 J0.571133
G01 X16.813808 Y27.064707 Z-1.000000
G03 X16.670809 Y28.064834 Z-1.000000 I-3.962067 J-0.056212
G03 X16.424153 Y28.473459 Z-1.000000 I-0.852391 J-0.235768
G03 X16.008196 Y28.704318 Z-1.000000 I-0.645606 J-0.673079
G03 X15.037881 Y28.825647 Z-1.000000 I-0.970315 J-3.819325
G01 X15.037878 Y28.825647 Z-1.000000
G00 Z5.000000

(End cutting path id: text46)


(Start cutting path id: text46)
(Change tool to Default tool)

G00 Z5.000000
G00 X29.117900 Y29.320208

G01 Z-1.000000 F100.0(Penetrate)
G01 X23.752655 Y29.320208 Z-1.000000 F3500.000000
G01 X23.752655 Y26.480225 Z-1.000000
G01 X29.867236 Y26.480225 Z-1.000000
G01 X29.867236 Y24.494485 Z-1.000000
G01 X21.497153 Y24.494485 Z-1.000000
G01 X21.497153 Y35.539697 Z-1.000000
G01 X29.597475 Y35.539697 Z-1.000000
G01 X29.597475 Y33.583930 Z-1.000000
G01 X23.752655 Y33.583930 Z-1.000000
G01 X23.752655 Y31.238509 Z-1.000000
G01 X29.117900 Y31.238509 Z-1.000000
G01 X29.117900 Y29.320208 Z-1.000000
G00 Z5.000000

(End cutting path id: text46)


(Start cutting path id: text46)
(Change tool to Default tool)

G00 Z5.000000
G00 X39.353832 Y29.320208

G01 Z-1.000000 F100.0(Penetrate)
G01 X33.988586 Y29.320208 Z-1.000000 F3500.000000
G01 X33.988586 Y26.480225 Z-1.000000
G01 X40.103167 Y26.480225 Z-1.000000
G01 X40.103167 Y24.494485 Z-1.000000
G01 X31.733085 Y24.494485 Z-1.000000
G01 X31.733085 Y35.539697 Z-1.000000
G01 X39.833407 Y35.539697 Z-1.000000
G01 X39.833407 Y33.583930 Z-1.000000
G01 X33.988586 Y33.583930 Z-1.000000
G01 X33.988586 Y31.238509 Z-1.000000
G01 X39.353832 Y31.238509 Z-1.000000
G01 X39.353832 Y29.320208 Z-1.000000
G00 Z5.000000

(End cutting path id: text46)


(Footer)
M5
G00 X0.0000 Y0.0000
M2
(Using default footer. To add your own footer create file "footer" in the output dir.)
(end)
%