%
(Header)
(Generated by gcodetools from Inkscape.)
(Using default header. To add your own header create file "header" in the output dir.)
M3
(Header end.)
G21 (All units in mm)

(Start cutting path id: text770)
(Change tool to Default tool)

G00 Z5.000000
G00 X9.777947 Y32.216802

G01 Z-1.000000 F100.0(Penetrate)
G01 X9.777947 Y30.840617 Z-1.000000 F3500.000000
G01 X5.885309 Y30.840617 Z-1.000000
G01 X5.885309 Y20.664709 Z-1.000000
G01 X4.296798 Y20.664709 Z-1.000000
G01 X4.296798 Y30.840617 Z-1.000000
G01 X0.404159 Y30.840617 Z-1.000000
G01 X0.404159 Y32.216802 Z-1.000000
G01 X9.777947 Y32.216802 Z-1.000000
G00 Z5.000000

(End cutting path id: text770)


(Start cutting path id: text770)
(Change tool to Default tool)

G00 Z5.000000
G00 X10.469972 Y29.086964

G01 Z-1.000000 F100.0(Penetrate)
G01 X11.814702 Y29.086964 Z-1.000000 F3500.000000
G01 X11.814702 Y27.632139 Z-1.000000
G02 X12.035577 Y28.019162 Z-1.000000 I1.410993 J-0.548718
G02 X12.624685 Y28.662312 Z-1.000000 I4.559092 J-3.584628
G02 X13.331297 Y29.121136 Z-1.000000 I1.582599 J-1.663759
G02 X14.110966 Y29.275698 Z-1.000000 I0.779669 J-1.889197
G02 X14.150238 Y29.274539 Z-1.000000 I-0.000000 J-0.665724
G02 X14.244652 Y29.267798 Z-1.000000 I-0.227944 J-3.857335
G02 X14.338961 Y29.259250 Z-1.000000 I-0.574606 J-6.863992
G02 X14.567073 Y29.236338 Z-1.000000 I-3.920684 J-40.181528
G01 X14.567073 Y27.742194 Z-1.000000
G03 X14.440818 Y27.762433 Z-1.000000 I-0.446614 J-2.382125
G03 X14.331155 Y27.773654 Z-1.000000 I-0.238099 J-1.785498
G03 X14.228840 Y27.779377 Z-1.000000 I-0.185806 J-2.404444
G03 X14.103102 Y27.781554 Z-1.000000 I-0.125738 J-3.629738
G03 X13.126271 Y27.584292 Z-1.000000 I-0.000000 J-2.517238
G03 X12.459543 Y27.089530 Z-1.000000 I0.678016 J-1.610289
G03 X12.033735 Y26.351408 Z-1.000000 I1.875973 J-1.574092
G03 X11.885477 Y25.508883 Z-1.000000 I2.319829 J-0.842525
G01 X11.885477 Y20.664710 Z-1.000000
G01 X10.469972 Y20.664710 Z-1.000000
G01 X10.469972 Y29.086964 Z-1.000000
G00 Z5.000000

(End cutting path id: text770)


(Start cutting path id: text770)
(Change tool to Default tool)

G00 Z5.000000
G00 X17.209348 Y29.086964

G01 Z-1.000000 F100.0(Penetrate)
G01 X17.209348 Y23.495719 Z-1.000000 F3500.000000
G03 X17.269954 Y22.865185 Z-1.000000 I3.310278 J-0.000000
G03 X17.413810 Y22.441954 Z-1.000000 I1.618326 J0.314004
G03 X17.929734 Y21.911045 Z-1.000000 I1.094028 J0.547014
G03 X18.821451 Y21.687018 Z-1.000000 I0.891717 J1.662680
G03 X20.052006 Y22.054738 Z-1.000000 I0.000000 J2.242852
G03 X20.834614 Y23.008156 Z-1.000000 I-1.135062 J1.729619
G03 X21.034953 Y23.733811 Z-1.000000 I-2.891796 J1.188849
G03 X21.125579 Y24.950544 Z-1.000000 I-8.122516 J1.216733
G01 X21.125579 Y29.086964 Z-1.000000
G01 X22.541084 Y29.086964 Z-1.000000
G01 X22.541084 Y20.664709 Z-1.000000
G01 X21.204218 Y20.664709 Z-1.000000
G01 X21.219948 Y21.907208 Z-1.000000
G02 X20.906619 Y21.459996 Z-1.000000 I-2.627892 J1.507806
G02 X20.535787 Y21.097224 Z-1.000000 I-2.089030 J1.764520
G02 X19.662205 Y20.615272 Z-1.000000 I-1.761085 J2.159427
G02 X18.569808 Y20.436656 Z-1.000000 I-1.092397 J3.251185
G02 X16.987462 Y20.803753 Z-1.000000 I-0.000000 J3.593844
G02 X16.116266 Y21.639835 Z-1.000000 I0.874365 J1.783020
G02 X15.869150 Y22.312045 Z-1.000000 I2.105987 J1.155724
G02 X15.762390 Y23.362032 Z-1.000000 I5.109939 J1.049987
G01 X15.762390 Y29.086964 Z-1.000000
G01 X17.209348 Y29.086964 Z-1.000000
G00 Z5.000000

(End cutting path id: text770)


(Start cutting path id: text770)
(Change tool to Default tool)

G00 Z5.000000
G00 X19.151736 Y29.291425

G01 Z-1.000000 F100.0(Penetrate)
G01 X19.151736 Y29.291425 Z-1.000000 F3500.000000
G00 Z5.000000

(End cutting path id: text770)


(Start cutting path id: text770)
(Change tool to Default tool)

G00 Z5.000000
G00 X27.778452 Y29.291425

G01 Z-1.000000 F100.0(Penetrate)
G01 X27.778452 Y29.291425 Z-1.000000 F3500.000000
G00 Z5.000000

(End cutting path id: text770)


(Start cutting path id: text770)
(Change tool to Default tool)

G00 Z5.000000
G00 X27.998642 Y29.330745

G01 Z-1.000000 F100.0(Penetrate)
G02 X29.353846 Y29.132275 Z-1.000000 I-0.000000 J-4.726078 F3500.000000
G02 X30.310633 Y28.638720 Z-1.000000 I-0.837293 J-2.797317
G02 X30.964909 Y27.811217 Z-1.000000 I-1.332051 J-1.725612
G02 X31.387990 Y26.255954 Z-1.000000 I-4.636937 J-2.096570
G01 X30.011804 Y26.255954 Z-1.000000
G03 X29.792946 Y26.990673 Z-1.000000 I-2.935175 J-0.474373
G03 X29.437738 Y27.545636 Z-1.000000 I-2.006606 J-0.893185
G03 X28.916090 Y27.904269 Z-1.000000 I-0.945486 J-0.816557
G03 X27.998642 Y28.064654 Z-1.000000 I-0.917448 J-2.543835
G03 X26.872855 Y27.716916 Z-1.000000 I0.000000 J-1.996213
G03 X26.064118 Y26.743517 Z-1.000000 I1.298706 J-1.901679
G03 X25.795992 Y25.863341 Z-1.000000 I3.543031 J-1.560234
G03 X25.686650 Y24.628123 Z-1.000000 I6.922368 J-1.235218
G03 X25.837766 Y23.404970 Z-1.000000 I5.025744 J-0.000000
G03 X26.221396 Y22.497002 Z-1.000000 I3.118014 J0.782380
G03 X26.892603 Y21.876758 Z-1.000000 I1.451132 J0.897064
G03 X27.904275 Y21.631971 Z-1.000000 I1.011672 J1.968162
G03 X28.720327 Y21.783334 Z-1.000000 I-0.000000 J2.275500
G03 X29.296188 Y22.166717 Z-1.000000 I-0.566974 J1.475800
G03 X29.711109 Y22.764201 Z-1.000000 I-1.689649 J1.616185
G03 X30.011804 Y23.645133 Z-1.000000 I-3.446158 J1.668086
G01 X31.387990 Y23.645133 Z-1.000000
G02 X30.920108 Y22.100011 Z-1.000000 I-5.207240 J0.733416
G02 X30.208402 Y21.191591 Z-1.000000 I-2.421671 J1.164266
G02 X29.187391 Y20.637904 Z-1.000000 I-1.966373 J2.407807
G02 X27.794180 Y20.420928 Z-1.000000 I-1.393211 J4.364450
G02 X26.297224 Y20.746591 Z-1.000000 I0.000000 J3.603312
G02 X25.159768 Y21.624107 Z-1.000000 I1.316389 J2.882290
G02 X24.448460 Y22.931533 Z-1.000000 I3.165516 J2.569414
G02 X24.176778 Y24.643851 Z-1.000000 I5.260238 J1.712318
G02 X24.496499 Y26.741592 Z-1.000000 I7.041675 J0.000000
G02 X25.254135 Y28.096110 Z-1.000000 I3.595899 J-1.122183
G02 X26.479655 Y29.004812 Z-1.000000 I2.690437 J-2.347705
G02 X27.998642 Y29.330745 Z-1.000000 I1.518987 J-3.376601
G01 X27.998642 Y29.330745 Z-1.000000
G00 Z5.000000

(End cutting path id: text770)


(Start cutting path id: text770)
(Change tool to Default tool)

G00 Z5.000000
G00 X32.772039 Y32.216802

G01 Z-1.000000 F100.0(Penetrate)
G01 X34.132496 Y32.216802 Z-1.000000 F3500.000000
G01 X34.132496 Y25.508882 Z-1.000000
G01 X37.765626 Y29.086964 Z-1.000000
G01 X39.574327 Y29.086964 Z-1.000000
G01 X36.350121 Y25.933533 Z-1.000000
G01 X39.755197 Y20.664709 Z-1.000000
G01 X37.946496 Y20.664709 Z-1.000000
G01 X35.319948 Y24.911224 Z-1.000000
G01 X34.132496 Y23.826004 Z-1.000000
G01 X34.132496 Y20.664709 Z-1.000000
G01 X32.772039 Y20.664709 Z-1.000000
G01 X32.772039 Y32.216802 Z-1.000000
G00 Z5.000000

(End cutting path id: text770)


(Footer)
M5
G00 X0.0000 Y0.0000
M2
(Using default footer. To add your own footer create file "footer" in the output dir.)
(end)
%