%
(Header)
(Generated by gcodetools from Inkscape.)
(Using default header. To add your own header create file "header" in the output dir.)
M3
(Header end.)
G21 (All units in mm)

(Start cutting path id: text56110)
(Change tool to Default tool)

G00 Z 5.0000
G00 X 7.5330 Y 35.9974

G01 Z -1.0000 F 100.0000(Penetrate)
G01 X 7.5330 Y 34.5994 Z -1.0000 F 3500.0000
G01 X 5.1710 Y 34.5994 Z -1.0000
G01 X 5.1710 Y 28.1023 Z -1.0000
G01 X 3.5105 Y 28.1023 Z -1.0000
G01 X 3.5105 Y 34.5994 Z -1.0000
G01 X 1.1377 Y 34.5994 Z -1.0000
G01 X 1.1377 Y 35.9974 Z -1.0000
G01 X 7.5330 Y 35.9974 Z -1.0000
G00 Z 5.0000

(End cutting path id: text56110)


(Start cutting path id: text56110)
(Change tool to Default tool)

G00 Z 5.0000
G00 X 12.8518 Y 32.6337

G01 Z -1.0000 F 100.0000(Penetrate)
G03 X 13.1973 Y 32.9533 Z -1.0000 I -0.3124 J 0.6842 F 3500.0000
G03 X 13.3445 Y 33.5228 Z -1.0000 I -1.0276 J 0.5695
G03 X 13.1977 Y 34.1511 Z -1.0000 I -1.4176 J 0.0000
G03 X 12.8678 Y 34.4869 Z -1.0000 I -0.6762 J -0.3344
G03 X 12.5890 Y 34.5810 Z -1.0000 I -0.4427 J -0.8514
G03 X 12.0644 Y 34.6262 Z -1.0000 I -0.5246 J -3.0265
G01 X 10.1469 Y 34.6262 Z -1.0000
G01 X 10.1469 Y 32.5051 Z -1.0000
G01 X 12.0162 Y 32.5051 Z -1.0000
G03 X 12.5640 Y 32.5470 Z -1.0000 I 0.0000 J 3.6029
G03 X 12.8518 Y 32.6337 Z -1.0000 I -0.1639 J 1.0651
G01 X 12.8518 Y 32.6337 Z -1.0000
G00 Z 5.0000

(End cutting path id: text56110)


(Start cutting path id: text56110)
(Change tool to Default tool)

G00 Z 5.0000
G00 X 11.8501 Y 31.1982

G01 Z -1.0000 F 100.0000(Penetrate)
G01 X 10.1469 Y 31.1982 Z -1.0000 F 3500.0000
G01 X 10.1469 Y 28.1023 Z -1.0000
G01 X 8.5347 Y 28.1023 Z -1.0000
G01 X 8.5347 Y 35.9974 Z -1.0000
G01 X 12.4072 Y 35.9974 Z -1.0000
G02 X 13.2253 Y 35.9245 Z -1.0000 I -0.1145 J -5.9140
G02 X 13.6820 Y 35.7938 Z -1.0000 I -0.3118 J -1.9530
G02 X 14.0983 Y 35.5603 Z -1.0000 I -0.7906 J -1.8976
G02 X 14.4425 Y 35.2421 Z -1.0000 I -1.1637 J -1.6043
G02 X 14.6728 Y 34.9258 Z -1.0000 I -1.8732 J -1.6056
G02 X 14.8496 Y 34.5780 Z -1.0000 I -2.0910 J -1.2816
G02 X 14.9586 Y 34.2056 Z -1.0000 I -1.6962 J -0.6984
G02 X 14.9996 Y 33.7478 Z -1.0000 I -2.5347 J -0.4579
G02 X 14.9309 Y 33.2021 Z -1.0000 I -2.1997 J -0.0000
G02 X 14.7157 Y 32.6390 Z -1.0000 I -2.5607 J 0.6556
G02 X 14.3510 Y 32.1921 Z -1.0000 I -1.2777 J 0.6705
G02 X 13.7784 Y 31.8731 Z -1.0000 I -1.1793 J 1.4433
G02 X 14.2653 Y 31.5863 Z -1.0000 I -0.7049 J -1.7536
G02 X 14.5497 Y 31.2464 Z -1.0000 I -0.7330 J -0.9021
G02 X 14.7049 Y 30.8247 Z -1.0000 I -1.1666 J -0.6688
G02 X 14.7800 Y 30.0145 Z -1.0000 I -4.3337 J -0.8102
G01 X 14.7800 Y 29.4842 Z -1.0000
G03 X 14.7957 Y 28.9450 Z -1.0000 I 9.2503 J 0.0000
G03 X 14.8228 Y 28.7504 Z -1.0000 I 1.2243 J 0.0715
G03 X 14.9365 Y 28.4799 Z -1.0000 I 0.7591 J 0.1598
G03 X 15.1228 Y 28.3005 Z -1.0000 I 0.5016 J 0.3344
G01 X 15.1228 Y 28.1023 Z -1.0000
G01 X 13.3070 Y 28.1023 Z -1.0000
G02 X 13.2361 Y 28.3657 Z -1.0000 I 8.6419 J 2.4692
G02 X 13.1999 Y 28.5255 Z -1.0000 I 3.1389 J 0.7947
G02 X 13.1506 Y 28.8591 Z -1.0000 I 3.7147 J 0.7189
G02 X 13.1303 Y 29.2057 Z -1.0000 I 3.9890 J 0.4083
G01 X 13.1196 Y 29.9395 Z -1.0000
G03 X 13.0174 Y 30.6544 Z -1.0000 I -2.8320 J -0.0402
G03 X 12.8410 Y 30.9465 Z -1.0000 I -0.6093 J -0.1685
G03 X 12.5437 Y 31.1115 Z -1.0000 I -0.4615 J -0.4811
G03 X 11.8501 Y 31.1982 Z -1.0000 I -0.6936 J -2.7300
G01 X 11.8501 Y 31.1982 Z -1.0000
G00 Z 5.0000

(End cutting path id: text56110)


(Start cutting path id: text56110)
(Change tool to Default tool)

G00 Z 5.0000
G00 X 21.0896 Y 31.1446

G01 Z -1.0000 F 100.0000(Penetrate)
G01 X 21.0896 Y 35.9974 Z -1.0000 F 3500.0000
G01 X 22.7661 Y 35.9974 Z -1.0000
G01 X 22.7661 Y 31.1446 Z -1.0000
G02 X 22.6449 Y 29.9174 Z -1.0000 I -6.2741 J -0.0000
G02 X 22.3751 Y 29.1843 Z -1.0000 I -2.4693 J 0.4925
G02 X 21.4135 Y 28.2988 Z -1.0000 I -1.8579 J 1.0528
G02 X 19.5952 Y 27.8988 Z -1.0000 I -1.8183 J 3.9321
G02 X 17.7758 Y 28.2984 Z -1.0000 I 0.0000 J 4.3416
G02 X 16.8100 Y 29.1843 Z -1.0000 I 0.9006 J 1.9513
G02 X 16.5402 Y 29.9174 Z -1.0000 I 2.1995 J 1.2257
G02 X 16.4190 Y 31.1446 Z -1.0000 I 6.1529 J 1.2272
G01 X 16.4190 Y 35.9974 Z -1.0000
G01 X 18.0955 Y 35.9974 Z -1.0000
G01 X 18.0955 Y 31.1446 Z -1.0000
G03 X 18.1598 Y 30.3461 Z -1.0000 I 4.9889 J -0.0000
G03 X 18.2883 Y 29.9556 Z -1.0000 I 1.2967 J 0.2103
G03 X 18.7231 Y 29.5003 Z -1.0000 I 0.8646 J 0.3905
G03 X 19.5952 Y 29.2914 Z -1.0000 I 0.8721 J 1.7161
G03 X 20.4623 Y 29.4998 Z -1.0000 I -0.0000 J 1.9075
G03 X 20.8968 Y 29.9556 Z -1.0000 I -0.4323 J 0.8472
G03 X 21.0253 Y 30.3461 Z -1.0000 I -1.1682 J 0.6008
G03 X 21.0896 Y 31.1446 Z -1.0000 I -4.9245 J 0.7986
G01 X 21.0896 Y 31.1446 Z -1.0000
G00 Z 5.0000

(End cutting path id: text56110)


(Start cutting path id: text56110)
(Change tool to Default tool)

G00 Z 5.0000
G00 X 29.9113 Y 28.6915

G01 Z -1.0000 F 100.0000(Penetrate)
G02 X 28.9405 Y 28.1065 Z -1.0000 I -1.9377 J 2.1173 F 3500.0000
G02 X 27.6509 Y 27.8827 Z -1.0000 I -1.2896 J 3.6041
G02 X 26.0852 Y 28.1898 Z -1.0000 I 0.0000 J 4.1446
G02 X 24.9728 Y 28.9754 Z -1.0000 I 1.1406 J 2.7956
G02 X 24.2828 Y 30.1816 Z -1.0000 I 2.5350 J 2.2506
G02 X 23.9980 Y 31.9856 Z -1.0000 I 5.5705 J 1.8040
G02 X 24.3247 Y 33.9187 Z -1.0000 I 5.8832 J -0.0000
G02 X 25.1067 Y 35.1725 Z -1.0000 I 3.1569 J -1.0983
G02 X 26.1810 Y 35.8834 Z -1.0000 I 2.2353 J -2.2107
G02 X 27.5599 Y 36.1473 Z -1.0000 I 1.3788 J -3.4698
G02 X 29.3534 Y 35.7635 Z -1.0000 I 0.0000 J -4.3824
G02 X 30.4737 Y 34.8404 Z -1.0000 I -1.1235 J -2.5048
G02 X 30.8754 Y 34.0701 Z -1.0000 I -2.8504 J -1.9766
G02 X 31.0200 Y 33.3675 Z -1.0000 I -2.2174 J -0.8225
G01 X 29.3703 Y 33.3675 Z -1.0000
G03 X 29.1644 Y 33.9108 Z -1.0000 I -3.2406 J -0.9171
G03 X 28.9579 Y 34.2245 Z -1.0000 I -1.2682 J -0.6103
G03 X 28.4391 Y 34.5870 Z -1.0000 I -0.9938 J -0.8695
G03 X 27.6242 Y 34.7386 Z -1.0000 I -0.8150 J -2.1138
G03 X 26.8239 Y 34.5453 Z -1.0000 I 0.0000 J -1.7527
G03 X 26.2048 Y 34.0102 Z -1.0000 I 0.7906 J -1.5406
G03 X 25.8444 Y 33.2359 Z -1.0000 I 1.8605 J -1.3368
G03 X 25.6852 Y 31.9588 Z -1.0000 I 5.0425 J -1.2771
G03 X 25.8558 Y 30.6916 Z -1.0000 I 4.7921 J -0.0000
G03 X 26.2315 Y 29.9663 Z -1.0000 I 1.8863 J 0.5172
G03 X 26.8633 Y 29.4790 Z -1.0000 I 1.4230 J 1.1916
G03 X 27.6295 Y 29.3075 Z -1.0000 I 0.7662 J 1.6259
G03 X 28.4193 Y 29.4698 Z -1.0000 I 0.0000 J 2.0027
G03 X 28.9525 Y 29.8752 Z -1.0000 I -0.5450 J 1.2700
G03 X 29.1583 Y 30.2043 Z -1.0000 I -1.1480 J 0.9466
G03 X 29.3703 Y 30.7911 Z -1.0000 I -3.4985 J 1.5958
G01 X 31.0039 Y 30.7911 Z -1.0000
G02 X 30.6062 Y 29.5995 Z -1.0000 I -3.9461 J 0.6550
G02 X 29.9113 Y 28.6915 Z -1.0000 I -2.9393 J 1.5296
G01 X 29.9113 Y 28.6915 Z -1.0000
G00 Z 5.0000

(End cutting path id: text56110)


(Start cutting path id: text56110)
(Change tool to Default tool)

G00 Z 5.0000
G00 X 39.2578 Y 28.1023

G01 Z -1.0000 F 100.0000(Penetrate)
G01 X 37.1368 Y 28.1023 Z -1.0000 F 3500.0000
G01 X 34.6997 Y 31.5517 Z -1.0000
G01 X 33.9123 Y 30.7429 Z -1.0000
G01 X 33.9123 Y 28.1023 Z -1.0000
G01 X 32.2894 Y 28.1023 Z -1.0000
G01 X 32.2894 Y 35.9974 Z -1.0000
G01 X 33.9123 Y 35.9974 Z -1.0000
G01 X 33.9123 Y 32.7461 Z -1.0000
G01 X 36.9600 Y 35.9974 Z -1.0000
G01 X 39.0918 Y 35.9974 Z -1.0000
G01 X 35.8566 Y 32.7461 Z -1.0000
G01 X 39.2578 Y 28.1023 Z -1.0000
G00 Z 5.0000

(End cutting path id: text56110)



(Footer)
M5
G00 X0.0000 Y0.0000
M2
(Using default footer. To add your own footer create file "footer" in the output dir.)
(end)
%