%
(Header)
(Generated by gcodetools from Inkscape.)
(Using default header. To add your own header create file "header" in the output dir.)
M3
(Header end.)
G21 (All units in mm)

(Start cutting path id: text3039)
(Change tool to Default tool)

G00 Z 5.0000
G00 X 8.5902 Y 39.6134

G01 Z -1.0000 F 100.0000(Penetrate)
G01 X 8.5902 Y 38.0367 Z -1.0000 F 3500.0000
G01 X 5.9262 Y 38.0367 Z -1.0000
G01 X 5.9262 Y 30.7093 Z -1.0000
G01 X 4.0536 Y 30.7093 Z -1.0000
G01 X 4.0536 Y 38.0367 Z -1.0000
G01 X 1.3775 Y 38.0367 Z -1.0000
G01 X 1.3775 Y 39.6134 Z -1.0000
G01 X 8.5902 Y 39.6134 Z -1.0000
G00 Z 5.0000

(End cutting path id: text3039)


(Start cutting path id: text3039)
(Change tool to Default tool)

G00 Z 5.0000
G00 X 14.5887 Y 35.8198

G01 Z -1.0000 F 100.0000(Penetrate)
G03 X 14.9783 Y 36.1803 Z -1.0000 I -0.3523 J 0.7717 F 3500.0000
G03 X 15.1444 Y 36.8226 Z -1.0000 I -1.1589 J 0.6423
G03 X 14.9788 Y 37.5312 Z -1.0000 I -1.5988 J 0.0000
G03 X 14.6068 Y 37.9099 Z -1.0000 I -0.7626 J -0.3771
G03 X 14.2923 Y 38.0161 Z -1.0000 I -0.4993 J -0.9602
G03 X 13.7007 Y 38.0670 Z -1.0000 I -0.5916 J -3.4133
G01 X 11.5381 Y 38.0670 Z -1.0000
G01 X 11.5381 Y 35.6748 Z -1.0000
G01 X 13.6463 Y 35.6748 Z -1.0000
G03 X 14.2642 Y 35.7221 Z -1.0000 I 0.0000 J 4.0634
G03 X 14.5887 Y 35.8198 Z -1.0000 I -0.1848 J 1.2012
G01 X 14.5887 Y 35.8198 Z -1.0000
G00 Z 5.0000

(End cutting path id: text3039)


(Start cutting path id: text3039)
(Change tool to Default tool)

G00 Z 5.0000
G00 X 13.4590 Y 34.2009

G01 Z -1.0000 F 100.0000(Penetrate)
G01 X 11.5381 Y 34.2009 Z -1.0000 F 3500.0000
G01 X 11.5381 Y 30.7093 Z -1.0000
G01 X 9.7198 Y 30.7093 Z -1.0000
G01 X 9.7198 Y 39.6134 Z -1.0000
G01 X 14.0873 Y 39.6134 Z -1.0000
G02 X 15.0100 Y 39.5312 Z -1.0000 I -0.1291 J -6.6699
G02 X 15.5250 Y 39.3838 Z -1.0000 I -0.3517 J -2.2026
G02 X 15.9946 Y 39.1205 Z -1.0000 I -0.8917 J -2.1401
G02 X 16.3828 Y 38.7616 Z -1.0000 I -1.3124 J -1.8094
G02 X 16.6425 Y 38.4048 Z -1.0000 I -2.1126 J -1.8108
G02 X 16.8419 Y 38.0126 Z -1.0000 I -2.3583 J -1.4454
G02 X 16.9647 Y 37.5927 Z -1.0000 I -1.9130 J -0.7877
G02 X 17.0110 Y 37.0763 Z -1.0000 I -2.8586 J -0.5164
G02 X 16.9335 Y 36.4609 Z -1.0000 I -2.4808 J -0.0000
G02 X 16.6909 Y 35.8258 Z -1.0000 I -2.8879 J 0.7394
G02 X 16.2796 Y 35.3218 Z -1.0000 I -1.4410 J 0.7562
G02 X 15.6337 Y 34.9620 Z -1.0000 I -1.3301 J 1.6277
G02 X 16.1829 Y 34.6386 Z -1.0000 I -0.7950 J -1.9778
G02 X 16.5036 Y 34.2552 Z -1.0000 I -0.8266 J -1.0174
G02 X 16.6787 Y 33.7796 Z -1.0000 I -1.3157 J -0.7543
G02 X 16.7633 Y 32.8659 Z -1.0000 I -4.8876 J -0.9138
G01 X 16.7633 Y 32.2678 Z -1.0000
G03 X 16.7811 Y 31.6596 Z -1.0000 I 10.4318 J -0.0000
G03 X 16.8117 Y 31.4402 Z -1.0000 I 1.3807 J 0.0806
G03 X 16.9398 Y 31.1352 Z -1.0000 I 0.8562 J 0.1802
G03 X 17.1500 Y 30.9328 Z -1.0000 I 0.5657 J 0.3771
G01 X 17.1500 Y 30.7093 Z -1.0000
G01 X 15.1021 Y 30.7093 Z -1.0000
G02 X 15.0221 Y 31.0064 Z -1.0000 I 9.7501 J 2.7858
G02 X 14.9813 Y 31.1865 Z -1.0000 I 3.5415 J 0.8966
G02 X 14.9258 Y 31.5628 Z -1.0000 I 4.1889 J 0.8108
G02 X 14.9028 Y 31.9537 Z -1.0000 I 4.4983 J 0.4605
G01 X 14.8907 Y 32.7813 Z -1.0000
G03 X 14.7754 Y 33.5875 Z -1.0000 I -3.1940 J -0.0453
G03 X 14.5766 Y 33.9169 Z -1.0000 I -0.6872 J -0.1901
G03 X 14.2413 Y 34.1031 Z -1.0000 I -0.5205 J -0.5426
G03 X 13.4590 Y 34.2009 Z -1.0000 I -0.7822 J -3.0789
G01 X 13.4590 Y 34.2009 Z -1.0000
G00 Z 5.0000

(End cutting path id: text3039)


(Start cutting path id: text3039)
(Change tool to Default tool)

G00 Z 5.0000
G00 X 23.3055 Y 34.0740

G01 Z -1.0000 F 100.0000(Penetrate)
G01 X 22.1940 Y 37.5777 Z -1.0000 F 3500.0000
G01 X 21.0462 Y 34.0740 Z -1.0000
G01 X 23.3055 Y 34.0740 Z -1.0000
G00 Z 5.0000

(End cutting path id: text3039)


(Start cutting path id: text3039)
(Change tool to Default tool)

G00 Z 5.0000
G00 X 23.8250 Y 32.5396

G01 Z -1.0000 F 100.0000(Penetrate)
G01 X 20.5449 Y 32.5396 Z -1.0000 F 3500.0000
G01 X 19.9287 Y 30.7093 Z -1.0000
G01 X 17.9836 Y 30.7093 Z -1.0000
G01 X 21.1610 Y 39.6134 Z -1.0000
G01 X 23.2632 Y 39.6134 Z -1.0000
G01 X 26.4165 Y 30.7093 Z -1.0000
G01 X 24.3989 Y 30.7093 Z -1.0000
G01 X 23.8250 Y 32.5396 Z -1.0000
G00 Z 5.0000

(End cutting path id: text3039)


(Start cutting path id: text3039)
(Change tool to Default tool)

G00 Z 5.0000
G00 X 27.4011 Y 39.6134

G01 Z -1.0000 F 100.0000(Penetrate)
G01 X 29.2496 Y 39.6134 Z -1.0000 F 3500.0000
G01 X 29.2496 Y 30.7093 Z -1.0000
G01 X 27.4011 Y 30.7093 Z -1.0000
G01 X 27.4011 Y 39.6134 Z -1.0000
G00 Z 5.0000

(End cutting path id: text3039)


(Start cutting path id: text3039)
(Change tool to Default tool)

G00 Z 5.0000
G00 X 38.1839 Y 30.7093

G01 Z -1.0000 F 100.0000(Penetrate)
G01 X 36.3234 Y 30.7093 Z -1.0000 F 3500.0000
G01 X 32.6868 Y 37.0340 Z -1.0000
G01 X 32.6868 Y 30.7093 Z -1.0000
G01 X 30.9531 Y 30.7093 Z -1.0000
G01 X 30.9531 Y 39.6134 Z -1.0000
G01 X 32.9043 Y 39.6134 Z -1.0000
G01 X 36.4502 Y 33.3974 Z -1.0000
G01 X 36.4502 Y 39.6134 Z -1.0000
G01 X 38.1839 Y 39.6134 Z -1.0000
G01 X 38.1839 Y 30.7093 Z -1.0000
G00 Z 5.0000

(End cutting path id: text3039)



(Footer)
M5
G00 X0.0000 Y0.0000
M2
(Using default footer. To add your own footer create file "footer" in the output dir.)
(end)
%