%
(Header)
(Generated by gcodetools from Inkscape.)
(Using default header. To add your own header create file "header" in the output dir.)
M3
(Header end.)
G21 (All units in mm)

(Start cutting path id: path298)
(Change tool to Default tool)

G00 Z5.000000
G00 X0.933161 Y17.694178

G01 Z-1.000000 F100.0(Penetrate)
G01 X2.360141 Y17.694178 Z-1.000000 F3500.000000
G01 X2.360141 Y8.415225 Z-1.000000
G01 X7.695181 Y8.415225 Z-1.000000
G01 X7.695181 Y7.160343 Z-1.000000
G01 X0.933161 Y7.160343 Z-1.000000
G01 X0.933161 Y17.694178 Z-1.000000
G00 Z5.000000

(End cutting path id: path298)


(Start cutting path id: path298)
(Change tool to Default tool)

G00 Z5.000000
G00 X8.928550 Y17.694178

G01 Z-1.000000 F100.0(Penetrate)
G01 X10.240798 Y17.694178 Z-1.000000 F3500.000000
G01 X10.240798 Y16.231344 Z-1.000000
G01 X8.928550 Y16.231344 Z-1.000000
G01 X8.928550 Y17.694178 Z-1.000000
G00 Z5.000000

(End cutting path id: path298)


(Start cutting path id: path298)
(Change tool to Default tool)

G00 Z5.000000
G00 X8.928550 Y14.804365

G01 Z-1.000000 F100.0(Penetrate)
G01 X10.240798 Y14.804365 Z-1.000000 F3500.000000
G01 X10.240798 Y7.160343 Z-1.000000
G01 X8.928550 Y7.160343 Z-1.000000
G01 X8.928550 Y14.804365 Z-1.000000
G00 Z5.000000

(End cutting path id: path298)


(Start cutting path id: path298)
(Change tool to Default tool)

G00 Z5.000000
G00 X14.901787 Y14.976463

G01 Z-1.000000 F100.0(Penetrate)
G02 X15.769319 Y14.856555 Z-1.000000 I-0.000000 J-3.198246 F3500.000000
G02 X16.479353 Y14.531876 Z-1.000000 I-0.689471 J-2.446508
G02 X16.818661 Y14.252646 Z-1.000000 I-1.428888 J-2.082095
G02 X17.225111 Y13.800459 Z-1.000000 I-3.385093 J-3.451465
G01 X17.225111 Y14.768511 Z-1.000000
G01 X18.415456 Y14.768511 Z-1.000000
G01 X18.415456 Y7.784198 Z-1.000000
G02 X18.283256 Y6.353045 Z-1.000000 I-7.812704 J0.000000
G02 X17.985210 Y5.475216 Z-1.000000 I-3.195441 J0.595425
G02 X16.894478 Y4.383099 Z-1.000000 I-2.249071 J1.155486
G02 X14.951982 Y3.911992 Z-1.000000 I-1.942496 J3.769155
G02 X13.758688 Y4.069144 Z-1.000000 I0.000000 J4.609056
G02 X12.865293 Y4.471311 Z-1.000000 I0.790692 J2.949886
G02 X12.235533 Y5.152769 Z-1.000000 I1.038451 J1.591391
G02 X11.918754 Y6.206633 Z-1.000000 I2.346351 J1.279828
G01 X13.231002 Y6.206633 Z-1.000000
G03 X13.385282 Y5.722284 Z-1.000000 I1.933314 J0.349072
G03 X13.603881 Y5.410679 Z-1.000000 I0.997507 J0.467300
G03 X14.096534 Y5.115362 Z-1.000000 I0.857316 J0.871605
G03 X14.980665 Y4.980434 Z-1.000000 I0.884131 J2.829219
G03 X16.254961 Y5.301856 Z-1.000000 I0.000000 J2.686724
G03 X16.923939 Y6.027364 Z-1.000000 I-0.718545 J1.333737
G03 X17.096676 Y6.664399 Z-1.000000 I-2.003108 J0.885095
G03 X17.174915 Y8.228785 Z-1.000000 I-12.253531 J1.396981
G02 X16.731804 Y7.702430 Z-1.000000 I-2.453144 J1.615482
G02 X16.242718 Y7.353953 Z-1.000000 I-1.531279 J1.631689
G02 X15.676436 Y7.153346 Z-1.000000 I-0.974775 J1.852073
G02 X14.801397 Y7.067123 Z-1.000000 I-0.875039 J4.397072
G02 X13.642698 Y7.291965 Z-1.000000 I0.000000 J3.098037
G02 X12.614317 Y7.949126 Z-1.000000 I1.238786 J3.071787
G02 X11.979357 Y8.965552 Z-1.000000 I1.667600 J1.748291
G02 X11.682119 Y10.881963 Z-1.000000 I6.029323 J1.916411
G02 X11.960149 Y12.707102 Z-1.000000 I6.129617 J0.000000
G02 X12.621488 Y13.893679 Z-1.000000 I3.168067 J-0.988136
G02 X13.691837 Y14.703785 Z-1.000000 I2.487618 J-2.174605
G02 X14.901787 Y14.976463 Z-1.000000 I1.209950 J-2.548106
G01 X14.901787 Y14.976463 Z-1.000000
G00 Z5.000000

(End cutting path id: path298)


(Start cutting path id: path298)
(Change tool to Default tool)

G00 Z5.000000
G00 X15.052373 Y15.026658

G01 Z-1.000000 F100.0(Penetrate)
G01 X15.052373 Y15.026658 Z-1.000000 F3500.000000
G00 Z5.000000

(End cutting path id: path298)


(Start cutting path id: path298)
(Change tool to Default tool)

G00 Z5.000000
G00 X17.225111 Y11.032549

G01 Z-1.000000 F100.0(Penetrate)
G03 X17.039800 Y12.391159 Z-1.000000 I-5.072991 J0.000000 F3500.000000
G03 X16.637109 Y13.147921 Z-1.000000 I-1.910318 J-0.531004
G03 X15.965710 Y13.655400 Z-1.000000 I-1.488507 J-1.271434
G03 X15.138422 Y13.836313 Z-1.000000 I-0.827288 J-1.801076
G03 X14.013244 Y13.488054 Z-1.000000 I0.000000 J-1.991778
G03 X13.274026 Y12.559919 Z-1.000000 I1.141859 J-1.667885
G03 X13.089189 Y11.863579 Z-1.000000 I3.004845 J-1.170310
G03 X13.008708 Y10.774402 Z-1.000000 I7.329858 J-1.089177
G03 X13.170310 Y9.531415 Z-1.000000 I4.861117 J-0.000000
G03 X13.532173 Y8.795274 Z-1.000000 I2.012597 J0.532317
G03 X14.150480 Y8.301820 Z-1.000000 I1.361367 J1.071716
G03 X14.951982 Y8.121224 Z-1.000000 I0.801502 J1.688272
G03 X16.121781 Y8.463972 Z-1.000000 I0.000000 J2.167635
G03 X16.909598 Y9.376105 Z-1.000000 I-1.143612 J1.784037
G03 X17.137522 Y10.104598 Z-1.000000 I-3.039387 J1.350837
G03 X17.225111 Y11.032549 Z-1.000000 I-4.871747 J0.927951
G01 X17.225111 Y11.032549 Z-1.000000
G00 Z5.000000

(End cutting path id: path298)


(Start cutting path id: path298)
(Change tool to Default tool)

G00 Z5.000000
G00 X20.358729 Y17.730032

G01 Z-1.000000 F100.0(Penetrate)
G01 X21.649464 Y17.730032 Z-1.000000 F3500.000000
G01 X21.649464 Y13.800459 Z-1.000000
G02 X22.138693 Y14.347985 Z-1.000000 I4.761266 J-3.761987
G02 X22.474101 Y14.617925 Z-1.000000 I1.468832 J-1.481717
G02 X23.132549 Y14.910736 Z-1.000000 I1.227487 J-1.873531
G02 X24.030154 Y15.026658 Z-1.000000 I0.897605 J-3.417197
G02 X25.484553 Y14.673650 Z-1.000000 I0.000000 J-3.172579
G02 X26.296112 Y13.857825 Z-1.000000 I-0.859824 J-1.666898
G02 X26.518590 Y13.195736 Z-1.000000 I-2.172389 J-1.098401
G02 X26.618796 Y12.086650 Z-1.000000 I-6.087646 J-1.109086
G01 X26.618796 Y7.160343 Z-1.000000
G01 X25.292206 Y7.160343 Z-1.000000
G01 X25.292206 Y12.000601 Z-1.000000
G03 X25.220948 Y12.828579 Z-1.000000 I-4.845941 J0.000000
G03 X25.077084 Y13.241141 Z-1.000000 I-1.319832 J-0.228872
G03 X24.611840 Y13.678417 Z-1.000000 I-0.919150 J-0.511800
G03 X23.757665 Y13.872167 Z-1.000000 I-0.854175 J-1.786003
G03 X23.005069 Y13.734228 Z-1.000000 I-0.000000 J-2.122054
G03 X22.302003 Y13.320019 Z-1.000000 I0.856010 J-2.256752
G03 X21.868306 Y12.666372 Z-1.000000 I0.908142 J-1.073260
G03 X21.649464 Y11.233330 Z-1.000000 I4.582583 J-1.433042
G01 X21.649464 Y7.160343 Z-1.000000
G01 X20.358729 Y7.160343 Z-1.000000
G01 X20.358729 Y17.730032 Z-1.000000
G00 Z5.000000

(End cutting path id: path298)


(Start cutting path id: path298)
(Change tool to Default tool)

G00 Z5.000000
G00 X28.784364 Y16.984273

G01 Z-1.000000 F100.0(Penetrate)
G01 X30.089441 Y16.984273 Z-1.000000 F3500.000000
G01 X30.089441 Y14.840218 Z-1.000000
G01 X31.315640 Y14.840218 Z-1.000000
G01 X31.315640 Y13.786118 Z-1.000000
G01 X30.089441 Y13.786118 Z-1.000000
G01 X30.089441 Y8.773762 Z-1.000000
G03 X30.173025 Y8.423858 Z-1.000000 I0.774183 J-0.000000
G03 X30.361930 Y8.235956 Z-1.000000 I0.378824 J0.191938
G03 X30.519139 Y8.183998 Z-1.000000 I0.236249 J0.451008
G03 X30.863882 Y8.157076 Z-1.000000 I0.344743 J2.193766
G01 X31.064663 Y8.157076 Z-1.000000
G03 X31.172141 Y8.165278 Z-1.000000 I-0.385863 J5.764473
G03 X31.315640 Y8.178586 Z-1.000000 I-0.881854 J10.289404
G01 X31.315640 Y7.160339 Z-1.000000
G02 X31.091388 Y7.105465 Z-1.000000 I-0.756010 J2.603913
G02 X30.849541 Y7.067119 Z-1.000000 I-0.598209 J2.991038
G02 X30.612438 Y7.046188 Z-1.000000 I-0.439875 J3.629355
G02 X30.333247 Y7.038439 Z-1.000000 I-0.279191 J5.025966
G02 X29.507365 Y7.187927 Z-1.000000 I0.000000 J2.356143
G02 X29.107048 Y7.497367 Z-1.000000 I0.300146 J0.801954
G02 X28.877730 Y7.992631 Z-1.000000 I1.311551 J0.907997
G02 X28.784364 Y8.702054 Z-1.000000 I2.648511 J0.709423
G01 X28.784364 Y13.786117 Z-1.000000
G01 X27.744605 Y13.786117 Z-1.000000
G01 X27.744605 Y14.840217 Z-1.000000
G01 X28.784364 Y14.840217 Z-1.000000
G01 X28.784364 Y16.984273 Z-1.000000
G00 Z5.000000

(End cutting path id: path298)


(Start cutting path id: path297)
(Change tool to Default tool)

G00 Z5.000000
G00 X30.462318 Y33.161490

G01 Z-1.000000 F100.0(Penetrate)
G01 X31.753054 Y33.161490 Z-1.000000 F3500.000000
G01 X31.753054 Y25.517468 Z-1.000000
G01 X30.462318 Y25.517468 Z-1.000000
G01 X30.462318 Y33.161490 Z-1.000000
G00 Z5.000000

(End cutting path id: path297)


(Start cutting path id: path297)
(Change tool to Default tool)

G00 Z5.000000
G00 X30.462318 Y34.588470

G01 Z-1.000000 F100.0(Penetrate)
G01 X30.462318 Y36.051303 Z-1.000000 F3500.000000
G01 X31.753054 Y36.051303 Z-1.000000
G01 X31.753054 Y34.588470 Z-1.000000
G01 X30.462318 Y34.588470 Z-1.000000
G00 Z5.000000

(End cutting path id: path297)


(Start cutting path id: path297)
(Change tool to Default tool)

G00 Z5.000000
G00 X26.654649 Y34.366177

G01 Z-1.000000 F100.0(Penetrate)
G02 X26.760019 Y35.144391 Z-1.000000 I3.974742 J-0.141940 F3500.000000
G02 X26.934308 Y35.542180 Z-1.000000 I1.183378 J-0.281413
G02 X27.499617 Y35.986508 Z-1.000000 I0.990269 J-0.678120
G02 X28.676801 Y36.201889 Z-1.000000 I1.177184 J-3.109301
G02 X28.798656 Y36.200149 Z-1.000000 I-0.000000 J-4.267097
G02 X28.927777 Y36.194719 Z-1.000000 I-0.137035 J-4.796730
G02 X29.056770 Y36.186418 Z-1.000000 I-0.408578 J-7.355203
G02 X29.221778 Y36.173207 Z-1.000000 I-0.881635 J-12.049166
G01 X29.221778 Y34.997204 Z-1.000000
G03 X29.020916 Y35.009275 Z-1.000000 I-0.635344 J-8.895120
G03 X28.927777 Y35.011545 Z-1.000000 I-0.093139 J-1.909418
G03 X28.841656 Y35.017003 Z-1.000000 I-0.180570 J-2.167096
G03 X28.762850 Y35.018715 Z-1.000000 I-0.078806 J-1.812720
G03 X28.249645 Y34.911077 Z-1.000000 I-0.000000 J-1.277269
G03 X28.060116 Y34.710372 Z-1.000000 I0.142229 J-0.324149
G03 X27.991220 Y34.400766 Z-1.000000 I1.025521 J-0.390675
G03 X27.945384 Y33.161490 Z-1.000000 I16.730227 J-1.239276
G01 X29.221778 Y33.161490 Z-1.000000
G01 X29.221778 Y32.143243 Z-1.000000
G01 X27.931043 Y32.143243 Z-1.000000
G01 X27.931043 Y25.517468 Z-1.000000
G01 X26.654649 Y25.517468 Z-1.000000
G01 X26.654649 Y32.143243 Z-1.000000
G01 X25.586207 Y32.143243 Z-1.000000
G01 X25.586207 Y33.161490 Z-1.000000
G01 X26.654649 Y33.161490 Z-1.000000
G01 X26.654649 Y34.366177 Z-1.000000
G00 Z5.000000

(End cutting path id: path297)


(Start cutting path id: path297)
(Change tool to Default tool)

G00 Z5.000000
G00 X22.574493 Y34.366177

G01 Z-1.000000 F100.0(Penetrate)
G02 X22.679863 Y35.144391 Z-1.000000 I3.974742 J-0.141940 F3500.000000
G02 X22.854152 Y35.542180 Z-1.000000 I1.183378 J-0.281413
G02 X23.419461 Y35.986507 Z-1.000000 I0.990267 J-0.678117
G02 X24.596645 Y36.201889 Z-1.000000 I1.177184 J-3.109303
G02 X24.718499 Y36.200149 Z-1.000000 I-0.000000 J-4.267062
G02 X24.847621 Y36.194719 Z-1.000000 I-0.137038 J-4.796843
G02 X24.976614 Y36.186418 Z-1.000000 I-0.408578 J-7.355203
G02 X25.141622 Y36.173207 Z-1.000000 I-0.881635 J-12.049166
G01 X25.141622 Y34.997204 Z-1.000000
G03 X24.940760 Y35.009275 Z-1.000000 I-0.635344 J-8.895120
G03 X24.847621 Y35.011545 Z-1.000000 I-0.093139 J-1.909418
G03 X24.761500 Y35.017003 Z-1.000000 I-0.180570 J-2.167096
G03 X24.682694 Y35.018715 Z-1.000000 I-0.078806 J-1.812720
G03 X24.169489 Y34.911077 Z-1.000000 I-0.000000 J-1.277269
G03 X23.979960 Y34.710372 Z-1.000000 I0.142229 J-0.324149
G03 X23.911064 Y34.400766 Z-1.000000 I1.025521 J-0.390675
G03 X23.865228 Y33.161490 Z-1.000000 I16.730227 J-1.239276
G01 X25.141622 Y33.161490 Z-1.000000
G01 X25.141622 Y32.143243 Z-1.000000
G01 X23.850886 Y32.143243 Z-1.000000
G01 X23.850886 Y25.517468 Z-1.000000
G01 X22.574493 Y25.517468 Z-1.000000
G01 X22.574493 Y32.143243 Z-1.000000
G01 X21.506050 Y32.143243 Z-1.000000
G01 X21.506050 Y33.161490 Z-1.000000
G01 X22.574493 Y33.161490 Z-1.000000
G01 X22.574493 Y34.366177 Z-1.000000
G00 Z5.000000

(End cutting path id: path297)


(Start cutting path id: path297)
(Change tool to Default tool)

G00 Z5.000000
G00 X17.131890 Y33.383784

G01 Z-1.000000 F100.0(Penetrate)
G01 X17.131890 Y33.383784 Z-1.000000 F3500.000000
G00 Z5.000000

(End cutting path id: path297)


(Start cutting path id: path297)
(Change tool to Default tool)

G00 Z5.000000
G00 X18.200332 Y30.171287

G01 Z-1.000000 F100.0(Penetrate)
G03 X18.586309 Y30.309561 Z-1.000000 I-0.122582 J0.950015 F3500.000000
G03 X18.795505 Y30.544166 Z-1.000000 I-0.298912 J0.477111
G03 X18.854260 Y30.722707 Z-1.000000 I-0.578858 J0.289432
G03 X18.881555 Y31.038948 Z-1.000000 I-1.818361 J0.316240
G03 X18.744709 Y31.622566 Z-1.000000 I-1.312924 J0.000000
G03 X18.408285 Y31.992658 Z-1.000000 I-0.818715 J-0.406280
G03 X17.914471 Y32.199869 Z-1.000000 I-0.828247 J-1.281811
G03 X17.067354 Y32.293829 Z-1.000000 I-0.847117 J-3.771687
G03 X16.139674 Y32.123511 Z-1.000000 I0.000000 J-2.611581
G03 X15.633204 Y31.748852 Z-1.000000 I0.413871 J-1.089134
G03 X15.455828 Y31.423118 Z-1.000000 I0.875567 J-0.687946
G03 X15.324862 Y30.852508 Z-1.000000 I2.623447 J-0.902465
G01 X14.120175 Y30.852508 Z-1.000000
G02 X14.418189 Y32.122784 Z-1.000000 I3.200753 J-0.080819
G02 X15.038032 Y32.824465 Z-1.000000 I1.494604 J-0.695671
G02 X15.970523 Y33.233564 Z-1.000000 I1.837636 J-2.921369
G02 X17.096037 Y33.383784 Z-1.000000 I1.125514 J-4.141313
G02 X18.408638 Y33.231923 Z-1.000000 I-0.000000 J-5.748644
G02 X19.297458 Y32.867489 Z-1.000000 I-0.693756 J-2.958097
G02 X19.901192 Y32.219742 Z-1.000000 I-0.873410 J-1.419291
G02 X20.136436 Y31.261241 Z-1.000000 I-1.835079 J-0.958501
G01 X20.136436 Y26.836887 Z-1.000000
G03 X20.159790 Y26.643003 Z-1.000000 I0.816499 J-0.000000
G03 X20.215316 Y26.514203 Z-1.000000 I0.409141 J0.100014
G03 X20.322675 Y26.433426 Z-1.000000 I0.179293 J0.126561
G03 X20.566683 Y26.392300 Z-1.000000 I0.244008 J0.703315
G03 X20.652680 Y26.393898 Z-1.000000 I-0.000000 J2.314070
G03 X20.760293 Y26.399500 Z-1.000000 I-0.134982 J3.629713
G03 X20.867668 Y26.415043 Z-1.000000 I-0.638865 J4.791974
G03 X20.989757 Y26.435350 Z-1.000000 I-0.971123 J6.215835
G01 X20.989757 Y25.481640 Z-1.000000
G02 X20.687036 Y25.402967 Z-1.000000 I-1.787299 J6.255484
G02 X20.530829 Y25.374078 Z-1.000000 I-0.382952 J1.633915
G02 X20.372611 Y25.359364 Z-1.000000 I-0.250980 J1.840719
G02 X20.100584 Y25.352568 Z-1.000000 I-0.272027 J5.441106
G02 X19.508856 Y25.489470 Z-1.000000 I0.000000 J1.347255
G02 X19.132532 Y25.825838 Z-1.000000 I0.408666 J0.835907
G02 X19.010672 Y26.089935 Z-1.000000 I0.958204 J0.602298
G02 X18.910239 Y26.535742 Z-1.000000 I2.666179 J0.834863
G02 X18.463791 Y26.081647 Z-1.000000 I-2.036361 J1.555557
G02 X17.777260 Y25.639398 Z-1.000000 I-2.614757 J3.305054
G02 X17.014539 Y25.358993 Z-1.000000 I-1.516123 J2.946428
G02 X16.149499 Y25.259348 Z-1.000000 I-0.865040 J3.704982
G02 X15.152024 Y25.437444 Z-1.000000 I0.000000 J2.882361
G02 X14.399836 Y25.904716 Z-1.000000 I0.761827 J2.065397
G02 X13.904646 Y26.633046 Z-1.000000 I1.508213 J1.557933
G02 X13.725785 Y27.532477 Z-1.000000 I2.172029 J0.899431
G02 X13.916137 Y28.514978 Z-1.000000 I2.630759 J-0.000000
G02 X14.392665 Y29.188921 Z-1.000000 I1.660033 J-0.668325
G02 X15.120181 Y29.642550 Z-1.000000 I1.725212 J-1.956645
G02 X16.142328 Y29.913167 Z-1.000000 I1.517486 J-3.666005
G01 X18.200332 Y30.171287 Z-1.000000
G00 Z5.000000

(End cutting path id: path297)


(Start cutting path id: path297)
(Change tool to Default tool)

G00 Z5.000000
G00 X15.073884 Y27.561133

G01 Z-1.000000 F100.0(Penetrate)
G03 X15.185284 Y27.055798 Z-1.000000 I1.201859 J-0.000000 F3500.000000
G03 X15.482617 Y26.679130 Z-1.000000 I0.937801 J0.434591
G03 X15.921180 Y26.442370 Z-1.000000 I0.895643 J1.134481
G03 X16.450669 Y26.356446 Z-1.000000 I0.529489 J1.588468
G03 X17.113624 Y26.434611 Z-1.000000 I-0.000000 J2.850511
G03 X17.770087 Y26.671960 Z-1.000000 I-0.724934 J3.031531
G03 X18.555368 Y27.377018 Z-1.000000 I-0.839354 J1.724704
G03 X18.845700 Y28.385769 Z-1.000000 I-1.607276 J1.008751
G01 X18.845700 Y29.425528 Z-1.000000
G02 X18.599102 Y29.297564 Z-1.000000 I-0.847992 J1.332567
G02 X18.236186 Y29.174552 Z-1.000000 I-1.144115 J2.778568
G02 X17.860760 Y29.087318 Z-1.000000 I-1.444690 J5.366019
G02 X17.504769 Y29.031137 Z-1.000000 I-0.934895 J4.767968
G01 X16.723157 Y28.930746 Z-1.000000
G03 X16.036415 Y28.790148 Z-1.000000 I0.658433 J-4.963552
G03 X15.669057 Y28.636746 Z-1.000000 I0.433855 J-1.555533
G03 X15.239650 Y28.203090 Z-1.000000 I0.553562 J-0.977567
G03 X15.073884 Y27.561133 Z-1.000000 I1.160162 J-0.641957
G01 X15.073884 Y27.561133 Z-1.000000
G00 Z5.000000

(End cutting path id: path297)


(Start cutting path id: path297)
(Change tool to Default tool)

G00 Z5.000000
G00 X9.229722 Y33.197344

G01 Z-1.000000 F100.0(Penetrate)
G01 X10.455921 Y33.197344 Z-1.000000 F3500.000000
G01 X10.455921 Y31.870755 Z-1.000000
G02 X10.657326 Y32.223663 Z-1.000000 I1.286616 J-0.500348
G02 X11.194508 Y32.810123 Z-1.000000 I4.157234 J-3.268663
G02 X11.838835 Y33.228504 Z-1.000000 I1.443100 J-1.517105
G02 X12.549780 Y33.369442 Z-1.000000 I0.710945 J-1.722674
G02 X12.585586 Y33.368390 Z-1.000000 I-0.000000 J-0.609823
G02 X12.671683 Y33.362272 Z-1.000000 I-0.207887 J-3.534456
G02 X12.757676 Y33.354495 Z-1.000000 I-0.507717 J-6.093318
G02 X12.965684 Y33.333589 Z-1.000000 I-3.480420 J-35.674335
G01 X12.965684 Y31.971146 Z-1.000000
G03 X12.850558 Y31.989601 Z-1.000000 I-0.407042 J-2.170914
G03 X12.750561 Y31.999829 Z-1.000000 I-0.216959 J-1.627195
G03 X12.657265 Y32.005023 Z-1.000000 I-0.169424 J-2.202743
G03 X12.542609 Y32.006999 Z-1.000000 I-0.114656 J-3.325379
G03 X11.651881 Y31.827125 Z-1.000000 I-0.000000 J-2.295352
G03 X11.043922 Y31.375973 Z-1.000000 I0.618253 J-1.468351
G03 X10.655647 Y30.702913 Z-1.000000 I1.710614 J-1.435343
G03 X10.520457 Y29.934652 Z-1.000000 I2.115349 J-0.768261
G01 X10.520457 Y25.517468 Z-1.000000
G01 X9.229722 Y25.517468 Z-1.000000
G01 X9.229722 Y33.197344 Z-1.000000
G00 Z5.000000

(End cutting path id: path297)


(Start cutting path id: path297)
(Change tool to Default tool)

G00 Z5.000000
G00 X8.598695 Y36.051303

G01 Z-1.000000 F100.0(Penetrate)
G01 X8.598695 Y34.796422 Z-1.000000 F3500.000000
G01 X5.049173 Y34.796422 Z-1.000000
G01 X5.049173 Y25.517468 Z-1.000000
G01 X3.600681 Y25.517468 Z-1.000000
G01 X3.600681 Y34.796422 Z-1.000000
G01 X0.051159 Y34.796422 Z-1.000000
G01 X0.051159 Y36.051303 Z-1.000000
G01 X8.598695 Y36.051303 Z-1.000000
G00 Z5.000000

(End cutting path id: path297)


(Start cutting path id: path297)
(Change tool to Default tool)

G00 Z5.000000
G00 X36.435556 Y33.383783

G01 Z-1.000000 F100.0(Penetrate)
G01 X36.435556 Y33.383783 Z-1.000000 F3500.000000
G00 Z5.000000

(End cutting path id: path297)


(Start cutting path id: path297)
(Change tool to Default tool)

G00 Z5.000000
G00 X36.636337 Y33.419637

G01 Z-1.000000 F100.0(Penetrate)
G02 X37.872087 Y33.238662 Z-1.000000 I0.000000 J-4.309503 F3500.000000
G02 X38.744538 Y32.788611 Z-1.000000 I-0.763489 J-2.550746
G02 X39.341144 Y32.034048 Z-1.000000 I-1.214638 J-1.573508
G02 X39.726931 Y30.615873 Z-1.000000 I-4.228208 J-1.911764
G01 X38.472050 Y30.615873 Z-1.000000
G03 X38.272483 Y31.285831 Z-1.000000 I-2.676451 J-0.432558
G03 X37.948585 Y31.791877 Z-1.000000 I-1.829728 J-0.814452
G03 X37.472918 Y32.118898 Z-1.000000 I-0.862147 J-0.744582
G03 X36.636337 Y32.265146 Z-1.000000 I-0.836581 J-2.319611
G03 X35.609783 Y31.948060 Z-1.000000 I0.000000 J-1.820255
G03 X34.872332 Y31.060460 Z-1.000000 I1.184234 J-1.734057
G03 X34.627840 Y30.257867 Z-1.000000 I3.230732 J-1.422707
G03 X34.528136 Y29.131528 Z-1.000000 I6.312191 J-1.126339
G03 X34.665932 Y28.016189 Z-1.000000 I4.582752 J0.000000
G03 X35.015747 Y27.188254 Z-1.000000 I2.843176 J0.713417
G03 X35.627790 Y26.622681 Z-1.000000 I1.323221 J0.817991
G03 X36.550288 Y26.399471 Z-1.000000 I0.922498 J1.794677
G03 X37.294411 Y26.537492 Z-1.000000 I-0.000000 J2.074929
G03 X37.819511 Y26.887082 Z-1.000000 I-0.516996 J1.345709
G03 X38.197860 Y27.431901 Z-1.000000 I-1.540715 J1.473728
G03 X38.472050 Y28.235184 Z-1.000000 I-3.142394 J1.521053
G01 X39.726931 Y28.235184 Z-1.000000
G02 X39.300291 Y26.826255 Z-1.000000 I-4.748247 J0.668765
G02 X38.651319 Y25.997909 Z-1.000000 I-2.208208 J1.061637
G02 X37.720304 Y25.493025 Z-1.000000 I-1.793050 J2.195573
G02 X36.449898 Y25.295175 Z-1.000000 I-1.270406 J3.979740
G02 X35.084892 Y25.592133 Z-1.000000 I-0.000000 J3.285698
G02 X34.047696 Y26.392300 Z-1.000000 I1.200357 J2.628233
G02 X33.399086 Y27.584483 Z-1.000000 I2.886495 J2.342934
G02 X33.151352 Y29.145869 Z-1.000000 I4.796577 J1.561386
G02 X33.442891 Y31.058705 Z-1.000000 I6.420992 J-0.000000
G02 X34.133745 Y32.293829 Z-1.000000 I3.278938 J-1.023268
G02 X35.251242 Y33.122434 Z-1.000000 I2.453290 J-2.140769
G02 X36.636337 Y33.419637 Z-1.000000 I1.385095 J-3.078968
G01 X36.636337 Y33.419637 Z-1.000000
G00 Z5.000000

(End cutting path id: path297)


(Footer)
M5
G00 X0.0000 Y0.0000
M2
(Using default footer. To add your own footer create file "footer" in the output dir.)
(end)
%