%
(Header)
(Generated by gcodetools from Inkscape.)
(Using default header. To add your own header create file "header" in the output dir.)
M3
(Header end.)
G21 (All units in mm)

(Start cutting path id: path46)
(Change tool to Default tool)

G00 Z 5.0000
G00 X -0.0235 Y 33.1293

G01 Z -1.0000 F 100.0000(Penetrate)
G01 X 1.2013 Y 33.1293 Z -1.0000 F 3500.0000
G01 X 1.2013 Y 28.3217 Z -1.0000
G01 X 4.1042 Y 28.3217 Z -1.0000
G01 X 4.1042 Y 27.2679 Z -1.0000
G01 X -0.0235 Y 27.2679 Z -1.0000
G01 X -0.0235 Y 33.1293 Z -1.0000
G00 Z 5.0000

(End cutting path id: path46)


(Start cutting path id: path46)
(Change tool to Default tool)

G00 Z 5.0000
G00 X 4.8557 Y 33.1293

G01 Z -1.0000 F 100.0000(Penetrate)
G01 X 6.0725 Y 33.1293 Z -1.0000 F 3500.0000
G01 X 6.0725 Y 27.2679 Z -1.0000
G01 X 4.8557 Y 27.2679 Z -1.0000
G01 X 4.8557 Y 33.1293 Z -1.0000
G00 Z 5.0000

(End cutting path id: path46)


(Start cutting path id: path43)
(Change tool to Default tool)

G00 Z 5.0000
G00 X 7.4404 Y 36.0815

G01 Z -1.0000 F 100.0000(Penetrate)
G01 X 6.1759 Y 36.0815 Z -1.0000 F 3500.0000
G01 X 6.1759 Y 33.7830 Z -1.0000
G01 X 4.9790 Y 33.7830 Z -1.0000
G01 X 4.9790 Y 39.6444 Z -1.0000
G01 X 7.8540 Y 39.6444 Z -1.0000
G02 X 8.4614 Y 39.5903 Z -1.0000 I -0.0850 J -4.3906
G02 X 8.8004 Y 39.4933 Z -1.0000 I -0.2315 J -1.4499
G02 X 9.1095 Y 39.3199 Z -1.0000 I -0.5870 J -1.4088
G02 X 9.3651 Y 39.0837 Z -1.0000 I -0.8640 J -1.1911
G02 X 9.5361 Y 38.8489 Z -1.0000 I -1.3907 J -1.1920
G02 X 9.6673 Y 38.5906 Z -1.0000 I -1.5524 J -0.9515
G02 X 9.7482 Y 38.3142 Z -1.0000 I -1.2593 J -0.5185
G02 X 9.7786 Y 37.9743 Z -1.0000 I -1.8818 J -0.3399
G02 X 9.7276 Y 37.5692 Z -1.0000 I -1.6331 J 0.0000
G02 X 9.5679 Y 37.1511 Z -1.0000 I -1.9011 J 0.4867
G02 X 9.2971 Y 36.8194 Z -1.0000 I -0.9486 J 0.4978
G02 X 8.8720 Y 36.5825 Z -1.0000 I -0.8756 J 1.0715
G02 X 9.2335 Y 36.3696 Z -1.0000 I -0.5233 J -1.3019
G02 X 9.4446 Y 36.1173 Z -1.0000 I -0.5442 J -0.6697
G02 X 9.5599 Y 35.8042 Z -1.0000 I -0.8661 J -0.4965
G02 X 9.6156 Y 35.2027 Z -1.0000 I -3.2174 J -0.6015
G01 X 9.6156 Y 34.8090 Z -1.0000
G03 X 9.6273 Y 34.4086 Z -1.0000 I 6.8676 J -0.0000
G03 X 9.6474 Y 34.2642 Z -1.0000 I 0.9089 J 0.0531
G03 X 9.7318 Y 34.0634 Z -1.0000 I 0.5636 J 0.1186
G03 X 9.8701 Y 33.9302 Z -1.0000 I 0.3724 J 0.2483
G01 X 9.8701 Y 33.7830 Z -1.0000
G01 X 8.5221 Y 33.7830 Z -1.0000
G02 X 8.4694 Y 33.9786 Z -1.0000 I 6.4182 J 1.8338
G02 X 8.4425 Y 34.0972 Z -1.0000 I 2.3312 J 0.5902
G02 X 8.4060 Y 34.3449 Z -1.0000 I 2.7575 J 0.5337
G02 X 8.3908 Y 34.6022 Z -1.0000 I 2.9611 J 0.3031
G01 X 8.3829 Y 35.1470 Z -1.0000
G03 X 8.3070 Y 35.6777 Z -1.0000 I -2.1025 J -0.0298
G03 X 8.1761 Y 35.8946 Z -1.0000 I -0.4523 J -0.1251
G03 X 7.9554 Y 36.0171 Z -1.0000 I -0.3426 J -0.3572
G03 X 7.4404 Y 36.0815 Z -1.0000 I -0.5149 J -2.0268
G01 X 7.4404 Y 36.0815 Z -1.0000
G00 Z 5.0000

(End cutting path id: path43)


(Start cutting path id: path43)
(Change tool to Default tool)

G00 Z 5.0000
G00 X 8.1841 Y 37.1472

G01 Z -1.0000 F 100.0000(Penetrate)
G03 X 8.4406 Y 37.3845 Z -1.0000 I -0.2319 J 0.5080 F 3500.0000
G03 X 8.5499 Y 37.8073 Z -1.0000 I -0.7629 J 0.4228
G03 X 8.4409 Y 38.2737 Z -1.0000 I -1.0525 J 0.0000
G03 X 8.1960 Y 38.5230 Z -1.0000 I -0.5020 J -0.2482
G03 X 7.9890 Y 38.5929 Z -1.0000 I -0.3287 J -0.6321
G03 X 7.5995 Y 38.6264 Z -1.0000 I -0.3895 J -2.2469
G01 X 6.1759 Y 38.6264 Z -1.0000
G01 X 6.1759 Y 37.0517 Z -1.0000
G01 X 7.5637 Y 37.0517 Z -1.0000
G03 X 7.9704 Y 37.0828 Z -1.0000 I 0.0000 J 2.6748
G03 X 8.1841 Y 37.1472 Z -1.0000 I -0.1217 J 0.7907
G01 X 8.1841 Y 37.1472 Z -1.0000
G00 Z 5.0000

(End cutting path id: path43)


(Start cutting path id: path43)
(Change tool to Default tool)

G00 Z 5.0000
G00 X 4.2354 Y 39.6444

G01 Z -1.0000 F 100.0000(Penetrate)
G01 X 4.2354 Y 38.6065 Z -1.0000 F 3500.0000
G01 X 2.4817 Y 38.6065 Z -1.0000
G01 X 2.4817 Y 33.7830 Z -1.0000
G01 X 1.2490 Y 33.7830 Z -1.0000
G01 X 1.2490 Y 38.6065 Z -1.0000
G01 X -0.5126 Y 38.6065 Z -1.0000
G01 X -0.5126 Y 39.6444 Z -1.0000
G01 X 4.2354 Y 39.6444 Z -1.0000
G00 Z 5.0000

(End cutting path id: path43)


(Start cutting path id: path43)
(Change tool to Default tool)

G00 Z 5.0000
G00 X 13.9222 Y 35.9980

G01 Z -1.0000 F 100.0000(Penetrate)
G01 X 13.1905 Y 38.3043 Z -1.0000 F 3500.0000
G01 X 12.4349 Y 35.9980 Z -1.0000
G01 X 13.9222 Y 35.9980 Z -1.0000
G00 Z 5.0000

(End cutting path id: path43)


(Start cutting path id: path43)
(Change tool to Default tool)

G00 Z 5.0000
G00 X 14.2641 Y 34.9879

G01 Z -1.0000 F 100.0000(Penetrate)
G01 X 12.1049 Y 34.9879 Z -1.0000 F 3500.0000
G01 X 11.6993 Y 33.7830 Z -1.0000
G01 X 10.4189 Y 33.7830 Z -1.0000
G01 X 12.5105 Y 39.6444 Z -1.0000
G01 X 13.8943 Y 39.6444 Z -1.0000
G01 X 15.9701 Y 33.7830 Z -1.0000
G01 X 14.6419 Y 33.7830 Z -1.0000
G01 X 14.2641 Y 34.9879 Z -1.0000
G00 Z 5.0000

(End cutting path id: path43)


(Start cutting path id: path43)
(Change tool to Default tool)

G00 Z 5.0000
G00 X 20.8691 Y 38.6065

G01 Z -1.0000 F 100.0000(Penetrate)
G01 X 17.9305 Y 38.6065 Z -1.0000 F 3500.0000
G01 X 17.9305 Y 37.2585 Z -1.0000
G01 X 20.5033 Y 37.2585 Z -1.0000
G01 X 20.5033 Y 36.2405 Z -1.0000
G01 X 17.9305 Y 36.2405 Z -1.0000
G01 X 17.9305 Y 33.7830 Z -1.0000
G01 X 16.7137 Y 33.7830 Z -1.0000
G01 X 16.7137 Y 39.6365 Z -1.0000
G01 X 20.8691 Y 39.6365 Z -1.0000
G01 X 20.8691 Y 38.6065 Z -1.0000
G00 Z 5.0000

(End cutting path id: path43)


(Start cutting path id: path43)
(Change tool to Default tool)

G00 Z 5.0000
G00 X 25.8437 Y 38.6065

G01 Z -1.0000 F 100.0000(Penetrate)
G01 X 22.9051 Y 38.6065 Z -1.0000 F 3500.0000
G01 X 22.9051 Y 37.2585 Z -1.0000
G01 X 25.4779 Y 37.2585 Z -1.0000
G01 X 25.4779 Y 36.2405 Z -1.0000
G01 X 22.9051 Y 36.2405 Z -1.0000
G01 X 22.9051 Y 33.7830 Z -1.0000
G01 X 21.6883 Y 33.7830 Z -1.0000
G01 X 21.6883 Y 39.6365 Z -1.0000
G01 X 25.8437 Y 39.6365 Z -1.0000
G01 X 25.8437 Y 38.6065 Z -1.0000
G00 Z 5.0000

(End cutting path id: path43)


(Start cutting path id: path43)
(Change tool to Default tool)

G00 Z 5.0000
G00 X 26.5675 Y 39.6444

G01 Z -1.0000 F 100.0000(Penetrate)
G01 X 27.7843 Y 39.6444 Z -1.0000 F 3500.0000
G01 X 27.7843 Y 33.7830 Z -1.0000
G01 X 26.5675 Y 33.7830 Z -1.0000
G01 X 26.5675 Y 39.6444 Z -1.0000
G00 Z 5.0000

(End cutting path id: path43)


(Start cutting path id: path46)
(Change tool to Default tool)

G00 Z 5.0000
G00 X 23.6885 Y 33.1293

G01 Z -1.0000 F 100.0000(Penetrate)
G01 X 23.6885 Y 32.0914 Z -1.0000 F 3500.0000
G01 X 21.9348 Y 32.0914 Z -1.0000
G01 X 21.9348 Y 27.2679 Z -1.0000
G01 X 20.7021 Y 27.2679 Z -1.0000
G01 X 20.7021 Y 32.0914 Z -1.0000
G01 X 18.9405 Y 32.0914 Z -1.0000
G01 X 18.9405 Y 33.1293 Z -1.0000
G01 X 23.6885 Y 33.1293 Z -1.0000
G00 Z 5.0000

(End cutting path id: path46)


(Start cutting path id: path46)
(Change tool to Default tool)

G00 Z 5.0000
G00 X 17.0437 Y 27.2679

G01 Z -1.0000 F 100.0000(Penetrate)
G01 X 17.0437 Y 29.8845 Z -1.0000 F 3500.0000
G01 X 14.7532 Y 29.8845 Z -1.0000
G01 X 14.7532 Y 27.2679 Z -1.0000
G01 X 13.5404 Y 27.2679 Z -1.0000
G01 X 13.5404 Y 33.1293 Z -1.0000
G01 X 14.7532 Y 33.1293 Z -1.0000
G01 X 14.7532 Y 30.8945 Z -1.0000
G01 X 17.0437 Y 30.8945 Z -1.0000
G01 X 17.0437 Y 33.1293 Z -1.0000
G01 X 18.2605 Y 33.1293 Z -1.0000
G01 X 18.2605 Y 27.2679 Z -1.0000
G01 X 17.0437 Y 27.2679 Z -1.0000
G00 Z 5.0000

(End cutting path id: path46)


(Start cutting path id: path46)
(Change tool to Default tool)

G00 Z 5.0000
G00 X 10.8086 Y 27.4111

G01 Z -1.0000 F 100.0000(Penetrate)
G02 X 10.2996 Y 27.1971 Z -1.0000 I -0.9480 J 1.5420 F 3500.0000
G02 X 9.6156 Y 27.1128 Z -1.0000 I -0.6840 J 2.7360
G02 X 8.5456 Y 27.3298 Z -1.0000 I 0.0000 J 2.7470
G02 X 7.7069 Y 27.9201 Z -1.0000 I 0.9443 J 2.2327
G02 X 7.1551 Y 28.8210 Z -1.0000 I 1.8036 J 1.7240
G02 X 6.9315 Y 30.1390 Z -1.0000 I 3.7715 J 1.3180
G02 X 7.1545 Y 31.4761 Z -1.0000 I 4.1191 J 0.0000
G02 X 7.7148 Y 32.4215 Z -1.0000 I 2.5603 J -0.8787
G02 X 8.6023 Y 33.0446 Z -1.0000 I 1.8425 J -1.6804
G02 X 9.7866 Y 33.2804 Z -1.0000 I 1.1843 J -2.8566
G02 X 10.8443 Y 33.1167 Z -1.0000 I -0.0000 J -3.4995
G02 X 11.5800 Y 32.7118 Z -1.0000 I -0.6512 J -2.0537
G02 X 12.1131 Y 32.0674 Z -1.0000 I -1.4395 J -1.7335
G02 X 12.3594 Y 31.3001 Z -1.0000 I -1.8313 J -1.0111
G01 X 11.1545 Y 31.3001 Z -1.0000
G03 X 10.9056 Y 31.8097 Z -1.0000 I -1.2293 J -0.2849
G03 X 10.4745 Y 32.1392 Z -1.0000 I -0.8972 J -0.7271
G03 X 10.1650 Y 32.2353 Z -1.0000 I -0.5965 J -1.3739
G03 X 9.8025 Y 32.2704 Z -1.0000 I -0.3625 J -1.8566
G03 X 9.1598 Y 32.1294 Z -1.0000 I -0.0000 J -1.5359
G03 X 8.6374 Y 31.7336 Z -1.0000 I 0.6377 J -1.3841
G03 X 8.3254 Y 31.1487 Z -1.0000 I 1.1835 J -1.0068
G03 X 8.1841 Y 30.1270 Z -1.0000 I 3.6206 J -1.0217
G03 X 8.3429 Y 29.1156 Z -1.0000 I 3.2992 J 0.0000
G03 X 8.6771 Y 28.5961 Z -1.0000 I 1.1432 J 0.3682
G03 X 9.2139 Y 28.2595 Z -1.0000 I 1.1987 J 1.3154
G03 X 9.7985 Y 28.1467 Z -1.0000 I 0.5846 J 1.4589
G03 X 10.3771 Y 28.2452 Z -1.0000 I -0.0000 J 1.7498
G03 X 10.8086 Y 28.5007 Z -1.0000 I -0.4222 J 1.2050
G03 X 11.1187 Y 28.9036 Z -1.0000 I -0.9710 J 1.0681
G03 X 11.2937 Y 29.4351 Z -1.0000 I -1.5512 J 0.8053
G01 X 9.9377 Y 29.4351 Z -1.0000
G01 X 9.9377 Y 30.4134 Z -1.0000
G01 X 12.3793 Y 30.4134 Z -1.0000
G01 X 12.3793 Y 27.2679 Z -1.0000
G01 X 11.5681 Y 27.2679 Z -1.0000
G01 X 11.4448 Y 27.9996 Z -1.0000
G02 X 11.0693 Y 27.6074 Z -1.0000 I -3.4188 J 2.8978
G02 X 10.8086 Y 27.4111 Z -1.0000 I -1.0995 J 1.1887
G01 X 10.8086 Y 27.4111 Z -1.0000
G00 Z 5.0000

(End cutting path id: path46)


(Start cutting path id: path43)
(Change tool to Default tool)

G00 Z 5.0000
G00 X 33.0611 Y 34.2205

G01 Z -1.0000 F 100.0000(Penetrate)
G02 X 32.3404 Y 33.7861 Z -1.0000 I -1.4385 J 1.5719 F 3500.0000
G02 X 31.3830 Y 33.6200 Z -1.0000 I -0.9574 J 2.6757
G02 X 30.2206 Y 33.8480 Z -1.0000 I -0.0000 J 3.0770
G02 X 29.3948 Y 34.4312 Z -1.0000 I 0.8468 J 2.0755
G02 X 28.8825 Y 35.3267 Z -1.0000 I 1.8820 J 1.6709
G02 X 28.6710 Y 36.6660 Z -1.0000 I 4.1356 J 1.3393
G02 X 28.9135 Y 38.1012 Z -1.0000 I 4.3677 J 0.0000
G02 X 29.4942 Y 39.0320 Z -1.0000 I 2.3437 J -0.8154
G02 X 30.2917 Y 39.5598 Z -1.0000 I 1.6595 J -1.6413
G02 X 31.3154 Y 39.7558 Z -1.0000 I 1.0237 J -2.5761
G02 X 32.6469 Y 39.4708 Z -1.0000 I 0.0000 J -3.2535
G02 X 33.4786 Y 38.7855 Z -1.0000 I -0.8341 J -1.8596
G02 X 33.7769 Y 38.2136 Z -1.0000 I -2.1162 J -1.4674
G02 X 33.8842 Y 37.6920 Z -1.0000 I -1.6463 J -0.6106
G01 X 32.6595 Y 37.6920 Z -1.0000
G03 X 32.5066 Y 38.0953 Z -1.0000 I -2.4058 J -0.6809
G03 X 32.3533 Y 38.3282 Z -1.0000 I -0.9415 J -0.4531
G03 X 31.9682 Y 38.5973 Z -1.0000 I -0.7378 J -0.6456
G03 X 31.3631 Y 38.7099 Z -1.0000 I -0.6050 J -1.5693
G03 X 30.7690 Y 38.5664 Z -1.0000 I 0.0000 J -1.3012
G03 X 30.3093 Y 38.1691 Z -1.0000 I 0.5870 J -1.1438
G03 X 30.0418 Y 37.5942 Z -1.0000 I 1.3813 J -0.9925
G03 X 29.9236 Y 36.6461 Z -1.0000 I 3.7436 J -0.9481
G03 X 30.0503 Y 35.7054 Z -1.0000 I 3.5577 J 0.0000
G03 X 30.3292 Y 35.1669 Z -1.0000 I 1.4004 J 0.3840
G03 X 30.7983 Y 34.8051 Z -1.0000 I 1.0564 J 0.8847
G03 X 31.3671 Y 34.6778 Z -1.0000 I 0.5688 J 1.2071
G03 X 31.9535 Y 34.7983 Z -1.0000 I -0.0000 J 1.4868
G03 X 32.3493 Y 35.0993 Z -1.0000 I -0.4046 J 0.9429
G03 X 32.5021 Y 35.3436 Z -1.0000 I -0.8523 J 0.7028
G03 X 32.6595 Y 35.7793 Z -1.0000 I -2.5974 J 1.1848
G01 X 33.8723 Y 35.7793 Z -1.0000
G02 X 33.5770 Y 34.8946 Z -1.0000 I -2.9297 J 0.4863
G02 X 33.0611 Y 34.2205 Z -1.0000 I -2.1822 J 1.1356
G01 X 33.0611 Y 34.2205 Z -1.0000
G00 Z 5.0000

(End cutting path id: path43)



(Footer)
M5
G00 X0.0000 Y0.0000
M2
(Using default footer. To add your own footer create file "footer" in the output dir.)
(end)
%