%
(Header)
(Generated by gcodetools from Inkscape.)
(Using default header. To add your own header create file "header" in the output dir.)
M3
(Header end.)
G21 (All units in mm)

(Start cutting path id: text46)
(Change tool to Default tool)

G00 Z5.000000
G00 X5.144935 Y1.760559

G01 Z-1.000000 F100.0(Penetrate)
G01 X3.828743 Y1.760559 Z-1.000000 F3500.000000
G01 X3.828743 Y11.009475 Z-1.000000
G01 X0.577394 Y11.009475 Z-1.000000
G01 X0.577394 Y12.162032 Z-1.000000
G01 X8.374941 Y12.162032 Z-1.000000
G01 X8.374941 Y11.009475 Z-1.000000
G01 X5.144935 Y11.009475 Z-1.000000
G01 X5.144935 Y1.760559 Z-1.000000
G00 Z5.000000

(End cutting path id: text46)


(Start cutting path id: text46)
(Change tool to Default tool)

G00 Z5.000000
G00 X10.630254 Y9.572336

G01 Z-1.000000 F100.0(Penetrate)
G01 X10.630254 Y4.542348 Z-1.000000 F3500.000000
G03 X10.760880 Y3.646556 Z-1.000000 I3.136846 J-0.000000
G03 X11.050012 Y3.133667 Z-1.000000 I1.271638 J0.378922
G03 X11.537250 Y2.817672 Z-1.000000 I0.882901 J0.827720
G03 X12.366204 Y2.678336 Z-1.000000 I0.828954 J2.396198
G03 X13.471934 Y2.882398 Z-1.000000 I-0.000000 J3.097780
G03 X14.116383 Y3.347104 Z-1.000000 I-0.552100 J1.444856
G03 X14.486180 Y4.079478 Z-1.000000 I-1.462503 J1.198009
G03 X14.664204 Y5.502813 Z-1.000000 I-5.600909 J1.423335
G01 X14.664204 Y9.572336 Z-1.000000
G01 X15.951937 Y9.572336 Z-1.000000
G01 X15.951937 Y1.760559 Z-1.000000
G01 X14.898984 Y1.760559 Z-1.000000
G01 X14.714006 Y2.792169 Z-1.000000
G01 X14.649976 Y2.792169 Z-1.000000
G02 X14.235820 Y2.303260 Z-1.000000 I-1.850875 J1.148010
G02 X13.661053 Y1.924194 Z-1.000000 I-1.658904 J1.890064
G02 X13.001652 Y1.702515 Z-1.000000 I-1.238210 J2.591597
G02 X12.174112 Y1.618268 Z-1.000000 I-0.827540 J4.022224
G02 X10.846994 Y1.824030 Z-1.000000 I0.000000 J4.382692
G02 X10.046861 Y2.294150 Z-1.000000 I0.633712 J1.994526
G02 X9.558351 Y3.065745 Z-1.000000 I1.288257 J1.356058
G02 X9.335406 Y4.456974 Z-1.000000 I4.229339 J1.391229
G01 X9.335406 Y9.572336 Z-1.000000
G01 X10.630254 Y9.572336 Z-1.000000
G00 Z5.000000

(End cutting path id: text46)


(Start cutting path id: text46)
(Change tool to Default tool)

G00 Z5.000000
G00 X22.070451 Y9.714627

G01 Z-1.000000 F100.0(Penetrate)
G02 X22.587272 Y9.690642 Z-1.000000 I0.000000 J-5.580112 F3500.000000
G02 X22.988228 Y9.629257 Z-1.000000 I-0.317673 J-3.415168
G01 X22.831708 Y8.448242 Z-1.000000
G03 X22.394998 Y8.523813 Z-1.000000 I-0.914249 J-3.983667
G03 X21.985076 Y8.547842 Z-1.000000 I-0.409922 J-3.484469
G03 X21.391308 Y8.461727 Z-1.000000 I-0.000000 J-2.090086
G03 X20.832519 Y8.206344 Z-1.000000 I0.622615 J-2.101326
G03 X20.371576 Y7.806533 Z-1.000000 I1.197694 J-1.846442
G03 X20.007231 Y7.260109 Z-1.000000 I1.921516 J-1.675909
G03 X19.787626 Y6.643788 Z-1.000000 I2.417005 J-1.208501
G03 X19.708420 Y5.929688 Z-1.000000 I3.179446 J-0.714100
G01 X19.708420 Y1.760561 Z-1.000000
G01 X18.427801 Y1.760561 Z-1.000000
G01 X18.427801 Y9.572338 Z-1.000000
G01 X19.480754 Y9.572338 Z-1.000000
G01 X19.623045 Y8.142313 Z-1.000000
G01 X19.679965 Y8.142313 Z-1.000000
G02 X20.197012 Y8.852531 Z-1.000000 I3.621395 J-2.093101
G02 X20.740033 Y9.316214 Z-1.000000 I2.050960 J-1.852079
G02 X21.381838 Y9.613734 Z-1.000000 I1.353254 J-2.078209
G02 X22.070454 Y9.714629 Z-1.000000 I0.688616 J-2.299484
G01 X22.070451 Y9.714627 Z-1.000000
G00 Z5.000000

(End cutting path id: text46)


(Start cutting path id: text46)
(Change tool to Default tool)

G00 Z5.000000
G00 X27.057750 Y2.664107

G01 Z-1.000000 F100.0(Penetrate)
G03 X27.305977 Y2.674682 Z-1.000000 I0.000000 J2.918488 F3500.000000
G03 X27.641144 Y2.713907 Z-1.000000 I-0.457925 J5.364473
G03 X27.972394 Y2.775810 Z-1.000000 I-0.672729 J4.517051
G03 X28.146277 Y2.827740 Z-1.000000 I-0.291155 J1.291997
G01 X28.146277 Y1.845932 Z-1.000000
G02 X27.964057 Y1.781730 Z-1.000000 I-0.514045 J1.168287
G02 X27.591342 Y1.696526 Z-1.000000 I-1.299487 J4.826651
G02 X27.219316 Y1.638040 Z-1.000000 I-0.742186 J3.508523
G02 X26.837199 Y1.618266 Z-1.000000 I-0.382117 J3.682228
G02 X25.234461 Y2.306413 Z-1.000000 I0.000000 J2.210511
G02 X24.546314 Y4.030099 Z-1.000000 I1.814688 J1.723686
G01 X24.546314 Y8.576299 Z-1.000000
G01 X23.443559 Y8.576299 Z-1.000000
G01 X23.443559 Y9.188150 Z-1.000000
G01 X24.560543 Y9.700398 Z-1.000000
G01 X25.072791 Y11.365202 Z-1.000000
G01 X25.834048 Y11.365202 Z-1.000000
G01 X25.834048 Y9.572336 Z-1.000000
G01 X28.089360 Y9.572336 Z-1.000000
G01 X28.089360 Y8.576299 Z-1.000000
G01 X25.834048 Y8.576299 Z-1.000000
G01 X25.834048 Y4.065673 Z-1.000000
G03 X25.930360 Y3.426207 Z-1.000000 I2.171022 J-0.000000
G03 X26.154203 Y3.026949 Z-1.000000 I1.039420 J0.320369
G03 X26.527086 Y2.766677 Z-1.000000 I0.748519 J0.675135
G03 X27.057750 Y2.664107 Z-1.000000 I0.530664 J1.321456
G01 X27.057750 Y2.664107 Z-1.000000
G00 Z5.000000

(End cutting path id: text46)


(Start cutting path id: text46)
(Change tool to Default tool)

G00 Z5.000000
G00 X30.984984 Y1.760559

G01 Z-1.000000 F100.0(Penetrate)
G01 X29.704365 Y1.760559 Z-1.000000 F3500.000000
G01 X29.704365 Y12.830800 Z-1.000000
G01 X30.984984 Y12.830800 Z-1.000000
G01 X30.984984 Y1.760559 Z-1.000000
G00 Z5.000000

(End cutting path id: text46)


(Start cutting path id: text46)
(Change tool to Default tool)

G00 Z5.000000
G00 X36.783341 Y1.618268

G01 Z-1.000000 F100.0(Penetrate)
G02 X35.155934 Y1.920005 Z-1.000000 I-0.000000 J4.539550 F3500.000000
G02 X34.022895 Y2.678336 Z-1.000000 I1.104250 J2.875498
G02 X33.316070 Y3.859516 Z-1.000000 I2.394773 J2.235121
G02 X33.026858 Y5.609531 Z-1.000000 I5.150046 J1.750015
G02 X33.297938 Y7.389049 Z-1.000000 I5.976405 J0.000000
G02 X33.958864 Y8.597642 Z-1.000000 I3.341175 J-1.042128
G02 X35.033950 Y9.408896 Z-1.000000 I2.277791 J-1.900576
G02 X36.477415 Y9.714627 Z-1.000000 I1.443465 J-3.254690
G02 X37.833718 Y9.449758 Z-1.000000 I0.000000 J-3.605016
G02 X38.825217 Y8.761277 Z-1.000000 I-1.034836 J-2.548476
G02 X39.447921 Y7.716227 Z-1.000000 I-2.152431 J-1.990595
G02 X39.700307 Y6.192924 Z-1.000000 I-4.470831 J-1.523303
G01 X39.700307 Y5.417438 Z-1.000000
G01 X34.350165 Y5.417438 Z-1.000000
G03 X34.571682 Y4.162878 Z-1.000000 I4.317038 J0.115420
G03 X35.026047 Y3.396906 Z-1.000000 I2.001491 J0.669513
G03 X35.753494 Y2.906512 Z-1.000000 I1.412528 J1.310591
G03 X36.840257 Y2.706794 Z-1.000000 I1.086763 J2.856952
G03 X37.463709 Y2.734737 Z-1.000000 I-0.000000 J6.968990
G03 X38.028387 Y2.813513 Z-1.000000 I-0.520354 J5.793235
G03 X38.580357 Y2.959856 Z-1.000000 I-0.955692 J4.718768
G03 X39.344579 Y3.247500 Z-1.000000 I-3.082827 J9.349571
G01 X39.344579 Y2.123401 Z-1.000000
G02 X38.687354 Y1.877490 Z-1.000000 I-2.951037 J6.885764
G02 X38.127991 Y1.732101 Z-1.000000 I-1.555980 J4.837685
G02 X37.555596 Y1.650898 Z-1.000000 I-1.004421 J5.022097
G02 X36.783341 Y1.618268 Z-1.000000 I-0.772255 J9.122247
G01 X36.783341 Y1.618268 Z-1.000000
G00 Z5.000000

(End cutting path id: text46)


(Start cutting path id: text46)
(Change tool to Default tool)

G00 Z5.000000
G00 X36.463186 Y8.668788

G01 Z-1.000000 F100.0(Penetrate)
G03 X35.618787 Y8.503586 Z-1.000000 I-0.000000 J-2.240592 F3500.000000
G03 X35.011818 Y8.078280 Z-1.000000 I0.626535 J-1.539916
G03 X34.612422 Y7.428717 Z-1.000000 I1.550049 J-1.400648
G03 X34.378623 Y6.434819 Z-1.000000 I3.495212 J-1.346640
G01 X38.355657 Y6.434819 Z-1.000000
G03 X38.194455 Y7.474745 Z-1.000000 I-3.749036 J-0.048692
G03 X37.850523 Y8.099624 Z-1.000000 I-1.648277 J-0.500119
G03 X37.285367 Y8.506691 Z-1.000000 I-1.133101 J-0.977300
G03 X36.463186 Y8.668788 Z-1.000000 I-0.822181 J-2.004066
G01 X36.463186 Y8.668788 Z-1.000000
G00 Z5.000000

(End cutting path id: text46)


(Footer)
M5
G00 X0.0000 Y0.0000
M2
(Using default footer. To add your own footer create file "footer" in the output dir.)
(end)
%