%
(Header)
(Generated by gcodetools from Inkscape.)
(Using default header. To add your own header create file "header" in the output dir.)
M3
(Header end.)
G21 (All units in mm)

(Start cutting path id: text92320)
(Change tool to Default tool)

G00 Z 5.0000
G00 X 4.0352 Y 36.2177

G01 Z -1.0000 F 100.0000(Penetrate)
G01 X 4.0352 Y 39.2672 Z -1.0000 F 3500.0000
G01 X 5.0887 Y 39.2672 Z -1.0000
G01 X 5.0887 Y 36.2177 Z -1.0000
G02 X 5.0126 Y 35.4464 Z -1.0000 I -3.9428 J -0.0000
G02 X 4.8430 Y 34.9857 Z -1.0000 I -1.5518 J 0.3095
G02 X 4.2387 Y 34.4293 Z -1.0000 I -1.1675 J 0.6616
G02 X 3.0961 Y 34.1779 Z -1.0000 I -1.1427 J 2.4710
G02 X 1.9527 Y 34.4290 Z -1.0000 I -0.0000 J 2.7284
G02 X 1.3458 Y 34.9857 Z -1.0000 I 0.5660 J 1.2262
G02 X 1.1762 Y 35.4464 Z -1.0000 I 1.3822 J 0.7702
G02 X 1.1000 Y 36.2177 Z -1.0000 I 3.8666 J 0.7712
G01 X 1.1000 Y 39.2672 Z -1.0000
G01 X 2.1536 Y 39.2672 Z -1.0000
G01 X 2.1536 Y 36.2177 Z -1.0000
G03 X 2.1940 Y 35.7158 Z -1.0000 I 3.1351 J -0.0000
G03 X 2.2748 Y 35.4704 Z -1.0000 I 0.8149 J 0.1321
G03 X 2.5480 Y 35.1843 Z -1.0000 I 0.5433 J 0.2454
G03 X 3.0961 Y 35.0530 Z -1.0000 I 0.5481 J 1.0784
G03 X 3.6409 Y 35.1840 Z -1.0000 I 0.0000 J 1.1987
G03 X 3.9140 Y 35.4704 Z -1.0000 I -0.2717 J 0.5324
G03 X 3.9947 Y 35.7158 Z -1.0000 I -0.7341 J 0.3775
G03 X 4.0352 Y 36.2177 Z -1.0000 I -3.0947 J 0.5018
G01 X 4.0352 Y 36.2177 Z -1.0000
G00 Z 5.0000

(End cutting path id: text92320)


(Start cutting path id: text92320)
(Change tool to Default tool)

G00 Z 5.0000
G00 X 7.0275 Y 34.3058

G01 Z -1.0000 F 100.0000(Penetrate)
G01 X 6.0615 Y 34.3058 Z -1.0000 F 3500.0000
G01 X 6.0615 Y 39.2672 Z -1.0000
G01 X 7.5694 Y 39.2672 Z -1.0000
G01 X 8.4715 Y 35.3661 Z -1.0000
G01 X 9.3669 Y 39.2672 Z -1.0000
G01 X 10.8580 Y 39.2672 Z -1.0000
G01 X 10.8580 Y 34.3058 Z -1.0000
G01 X 9.8920 Y 34.3058 Z -1.0000
G01 X 9.8920 Y 37.6617 Z -1.0000
G02 X 9.8926 Y 37.8064 Z -1.0000 I 17.3477 J 0.0000
G02 X 9.8953 Y 38.0656 Z -1.0000 I 55.6354 J -0.4642
G03 X 9.8981 Y 38.3281 Z -1.0000 I -58.4461 J 0.7502
G03 X 9.8987 Y 38.4695 Z -1.0000 I -16.9437 J 0.1414
G01 X 8.9596 Y 34.3058 Z -1.0000
G01 X 7.9532 Y 34.3058 Z -1.0000
G01 X 7.0208 Y 38.4695 Z -1.0000
G03 X 7.0214 Y 38.3281 Z -1.0000 I 16.9443 J 0.0000
G03 X 7.0242 Y 38.0656 Z -1.0000 I 58.4489 J 0.4877
G02 X 7.0269 Y 37.8064 Z -1.0000 I -55.6326 J -0.7234
G02 X 7.0275 Y 37.6617 Z -1.0000 I -17.3471 J -0.1447
G01 X 7.0275 Y 34.3058 Z -1.0000
G00 Z 5.0000

(End cutting path id: text92320)


(Start cutting path id: text92320)
(Change tool to Default tool)

G00 Z 5.0000
G00 X 14.0859 Y 34.3058

G01 Z -1.0000 F 100.0000(Penetrate)
G01 X 11.8375 Y 34.3058 Z -1.0000 F 3500.0000
G01 X 11.8375 Y 39.2672 Z -1.0000
G01 X 14.2475 Y 39.2672 Z -1.0000
G02 X 15.0793 Y 39.0974 Z -1.0000 I -0.0338 J -2.2869
G02 X 15.5400 Y 38.7388 Z -1.0000 I -0.4093 J -1.0012
G02 X 15.7067 Y 38.4022 Z -1.0000 I -0.9186 J -0.6646
G02 X 15.7689 Y 37.9814 Z -1.0000 I -1.3924 J -0.4208
G02 X 15.7030 Y 37.5508 Z -1.0000 I -1.4401 J 0.0000
G02 X 15.5400 Y 37.2510 Z -1.0000 I -0.8431 J 0.2642
G02 X 15.3972 Y 37.1147 Z -1.0000 I -0.6441 J 0.5321
G02 X 15.1631 Y 36.9683 Z -1.0000 I -0.9811 J 1.3082
G02 X 15.5045 Y 36.7816 Z -1.0000 I -0.4371 J -1.2048
G02 X 15.7353 Y 36.5307 Z -1.0000 I -0.5975 J -0.7814
G02 X 15.8762 Y 36.2150 Z -1.0000 I -0.9227 J -0.6013
G02 X 15.9305 Y 35.8036 Z -1.0000 I -1.5319 J -0.4114
G02 X 15.8721 Y 35.3797 Z -1.0000 I -1.5680 J 0.0000
G02 X 15.7083 Y 35.0126 Z -1.0000 I -1.3312 J 0.3739
G02 X 15.5479 Y 34.7977 Z -1.0000 I -1.2147 J 0.7394
G02 X 15.3549 Y 34.6222 Z -1.0000 I -0.9977 J 0.9031
G02 X 15.1013 Y 34.4727 Z -1.0000 I -0.7592 J 0.9982
G02 X 14.7894 Y 34.3731 Z -1.0000 I -0.6248 J 1.4186
G02 X 14.4644 Y 34.3239 Z -1.0000 I -0.6098 J 2.9271
G02 X 14.0859 Y 34.3058 Z -1.0000 I -0.3785 J 3.9553
G01 X 14.0859 Y 34.3058 Z -1.0000
G00 Z 5.0000

(End cutting path id: text92320)


(Start cutting path id: text92320)
(Change tool to Default tool)

G00 Z 5.0000
G00 X 14.0624 Y 36.4903

G01 Z -1.0000 F 100.0000(Penetrate)
G01 X 12.8271 Y 36.4903 Z -1.0000 F 3500.0000
G01 X 12.8271 Y 35.1675 Z -1.0000
G01 X 14.0456 Y 35.1675 Z -1.0000
G03 X 14.3658 Y 35.1948 Z -1.0000 I 0.0000 J 1.8873
G03 X 14.5538 Y 35.2550 Z -1.0000 I -0.1208 J 0.7015
G03 X 14.7848 Y 35.4782 Z -1.0000 I -0.2295 J 0.4685
G03 X 14.8837 Y 35.8743 Z -1.0000 I -0.7437 J 0.3961
G03 X 14.7926 Y 36.2026 Z -1.0000 I -0.6372 J 0.0000
G03 X 14.5639 Y 36.4061 Z -1.0000 I -0.4407 J -0.2650
G03 X 14.3800 Y 36.4622 Z -1.0000 I -0.3070 J -0.6781
G03 X 14.0624 Y 36.4903 Z -1.0000 I -0.3390 J -2.0204
G01 X 14.0624 Y 36.4903 Z -1.0000
G00 Z 5.0000

(End cutting path id: text92320)


(Start cutting path id: text92320)
(Change tool to Default tool)

G00 Z 5.0000
G00 X 14.5774 Y 37.4361

G01 Z -1.0000 F 100.0000(Penetrate)
G03 X 14.7178 Y 37.5921 Z -1.0000 I -0.1842 J 0.3070 F 3500.0000
G03 X 14.7793 Y 37.8703 Z -1.0000 I -0.5981 J 0.2782
G03 X 14.6995 Y 38.1636 Z -1.0000 I -0.5784 J -0.0000
G03 X 14.5101 Y 38.3281 Z -1.0000 I -0.3397 J -0.1998
G03 X 14.2740 Y 38.3823 Z -1.0000 I -0.3999 J -1.1996
G03 X 13.9177 Y 38.4055 Z -1.0000 I -0.3564 J -2.7272
G01 X 12.8271 Y 38.4055 Z -1.0000
G01 X 12.8271 Y 37.3116 Z -1.0000
G01 X 14.0456 Y 37.3116 Z -1.0000
G03 X 14.3618 Y 37.3481 Z -1.0000 I 0.0000 J 1.3872
G03 X 14.5774 Y 37.4361 Z -1.0000 I -0.1691 J 0.7222
G01 X 14.5774 Y 37.4361 Z -1.0000
G00 Z 5.0000

(End cutting path id: text92320)


(Start cutting path id: text92320)
(Change tool to Default tool)

G00 Z 5.0000
G00 X 18.9060 Y 36.2513

G01 Z -1.0000 F 100.0000(Penetrate)
G01 X 17.8356 Y 36.2513 Z -1.0000 F 3500.0000
G01 X 17.8356 Y 34.3058 Z -1.0000
G01 X 16.8225 Y 34.3058 Z -1.0000
G01 X 16.8225 Y 39.2672 Z -1.0000
G01 X 19.2561 Y 39.2672 Z -1.0000
G02 X 19.7702 Y 39.2214 Z -1.0000 I -0.0719 J -3.7165
G02 X 20.0572 Y 39.1393 Z -1.0000 I -0.1960 J -1.2273
G02 X 20.3188 Y 38.9926 Z -1.0000 I -0.4969 J -1.1925
G02 X 20.5351 Y 38.7926 Z -1.0000 I -0.7313 J -1.0082
G02 X 20.6799 Y 38.5938 Z -1.0000 I -1.1772 J -1.0090
G02 X 20.7910 Y 38.3752 Z -1.0000 I -1.3141 J -0.8054
G02 X 20.8594 Y 38.1412 Z -1.0000 I -1.0659 J -0.4389
G02 X 20.8852 Y 37.8535 Z -1.0000 I -1.5928 J -0.2877
G02 X 20.8420 Y 37.5106 Z -1.0000 I -1.3823 J -0.0000
G02 X 20.7068 Y 37.1568 Z -1.0000 I -1.6092 J 0.4120
G02 X 20.4776 Y 36.8759 Z -1.0000 I -0.8030 J 0.4214
G02 X 20.1178 Y 36.6754 Z -1.0000 I -0.7411 J 0.9070
G02 X 20.4238 Y 36.4952 Z -1.0000 I -0.4430 J -1.1020
G02 X 20.6025 Y 36.2816 Z -1.0000 I -0.4606 J -0.5669
G02 X 20.7000 Y 36.0166 Z -1.0000 I -0.7331 J -0.4203
G02 X 20.7472 Y 35.5074 Z -1.0000 I -2.7234 J -0.5092
G01 X 20.7472 Y 35.1742 Z -1.0000
G03 X 20.7571 Y 34.8353 Z -1.0000 I 5.8127 J 0.0000
G03 X 20.7741 Y 34.7131 Z -1.0000 I 0.7693 J 0.0449
G03 X 20.8455 Y 34.5431 Z -1.0000 I 0.4770 J 0.1004
G03 X 20.9626 Y 34.4303 Z -1.0000 I 0.3152 J 0.2101
G01 X 20.9626 Y 34.3058 Z -1.0000
G01 X 19.8216 Y 34.3058 Z -1.0000
G02 X 19.7770 Y 34.4713 Z -1.0000 I 5.4331 J 1.5523
G02 X 19.7542 Y 34.5717 Z -1.0000 I 1.9734 J 0.4996
G02 X 19.7233 Y 34.7814 Z -1.0000 I 2.3341 J 0.4518
G02 X 19.7105 Y 34.9992 Z -1.0000 I 2.5064 J 0.2566
G01 X 19.7038 Y 35.4603 Z -1.0000
G03 X 19.6395 Y 35.9096 Z -1.0000 I -1.7799 J -0.0254
G03 X 19.5287 Y 36.0931 Z -1.0000 I -0.3829 J -0.1059
G03 X 19.3419 Y 36.1968 Z -1.0000 I -0.2900 J -0.3023
G03 X 18.9060 Y 36.2513 Z -1.0000 I -0.4359 J -1.7156
G01 X 18.9060 Y 36.2513 Z -1.0000
G00 Z 5.0000

(End cutting path id: text92320)


(Start cutting path id: text92320)
(Change tool to Default tool)

G00 Z 5.0000
G00 X 19.5354 Y 37.1534

G01 Z -1.0000 F 100.0000(Penetrate)
G03 X 19.7526 Y 37.3542 Z -1.0000 I -0.1963 J 0.4300 F 3500.0000
G03 X 19.8451 Y 37.7121 Z -1.0000 I -0.6458 J 0.3579
G03 X 19.7528 Y 38.1070 Z -1.0000 I -0.8909 J 0.0000
G03 X 19.5455 Y 38.3180 Z -1.0000 I -0.4250 J -0.2101
G03 X 19.3703 Y 38.3772 Z -1.0000 I -0.2782 J -0.5351
G03 X 19.0407 Y 38.4055 Z -1.0000 I -0.3297 J -1.9019
G01 X 17.8356 Y 38.4055 Z -1.0000
G01 X 17.8356 Y 37.0726 Z -1.0000
G01 X 19.0104 Y 37.0726 Z -1.0000
G03 X 19.3546 Y 37.0989 Z -1.0000 I 0.0000 J 2.2641
G03 X 19.5354 Y 37.1534 Z -1.0000 I -0.1030 J 0.6693
G01 X 19.5354 Y 37.1534 Z -1.0000
G00 Z 5.0000

(End cutting path id: text92320)


(Start cutting path id: text92320)
(Change tool to Default tool)

G00 Z 5.0000
G00 X 25.2307 Y 36.4735

G01 Z -1.0000 F 100.0000(Penetrate)
G01 X 22.8206 Y 36.4735 Z -1.0000 F 3500.0000
G01 X 22.8206 Y 35.1978 Z -1.0000
G01 X 25.5673 Y 35.1978 Z -1.0000
G01 X 25.5673 Y 34.3058 Z -1.0000
G01 X 21.8075 Y 34.3058 Z -1.0000
G01 X 21.8075 Y 39.2672 Z -1.0000
G01 X 25.4461 Y 39.2672 Z -1.0000
G01 X 25.4461 Y 38.3887 Z -1.0000
G01 X 22.8206 Y 38.3887 Z -1.0000
G01 X 22.8206 Y 37.3352 Z -1.0000
G01 X 25.2307 Y 37.3352 Z -1.0000
G01 X 25.2307 Y 36.4735 Z -1.0000
G00 Z 5.0000

(End cutting path id: text92320)


(Start cutting path id: text92320)
(Change tool to Default tool)

G00 Z 5.0000
G00 X 26.3751 Y 39.2672

G01 Z -1.0000 F 100.0000(Penetrate)
G01 X 27.4118 Y 39.2672 Z -1.0000 F 3500.0000
G01 X 27.4118 Y 35.1978 Z -1.0000
G01 X 29.8690 Y 35.1978 Z -1.0000
G01 X 29.8690 Y 34.3058 Z -1.0000
G01 X 26.3751 Y 34.3058 Z -1.0000
G01 X 26.3751 Y 39.2672 Z -1.0000
G00 Z 5.0000

(End cutting path id: text92320)


(Start cutting path id: text92320)
(Change tool to Default tool)

G00 Z 5.0000
G00 X 30.5859 Y 39.2672

G01 Z -1.0000 F 100.0000(Penetrate)
G01 X 31.6226 Y 39.2672 Z -1.0000 F 3500.0000
G01 X 31.6226 Y 35.1978 Z -1.0000
G01 X 34.0798 Y 35.1978 Z -1.0000
G01 X 34.0798 Y 34.3058 Z -1.0000
G01 X 30.5859 Y 34.3058 Z -1.0000
G01 X 30.5859 Y 39.2672 Z -1.0000
G00 Z 5.0000

(End cutting path id: text92320)


(Start cutting path id: text92320)
(Change tool to Default tool)

G00 Z 5.0000
G00 X 37.4121 Y 36.1806

G01 Z -1.0000 F 100.0000(Penetrate)
G01 X 36.7928 Y 38.1329 Z -1.0000 F 3500.0000
G01 X 36.1532 Y 36.1806 Z -1.0000
G01 X 37.4121 Y 36.1806 Z -1.0000
G00 Z 5.0000

(End cutting path id: text92320)


(Start cutting path id: text92320)
(Change tool to Default tool)

G00 Z 5.0000
G00 X 37.7016 Y 35.3257

G01 Z -1.0000 F 100.0000(Penetrate)
G01 X 35.8739 Y 35.3257 Z -1.0000 F 3500.0000
G01 X 35.5305 Y 34.3058 Z -1.0000
G01 X 34.4467 Y 34.3058 Z -1.0000
G01 X 36.2172 Y 39.2672 Z -1.0000
G01 X 37.3885 Y 39.2672 Z -1.0000
G01 X 39.1456 Y 34.3058 Z -1.0000
G01 X 38.0213 Y 34.3058 Z -1.0000
G01 X 37.7016 Y 35.3257 Z -1.0000
G00 Z 5.0000

(End cutting path id: text92320)



(Footer)
M5
G00 X0.0000 Y0.0000
M2
(Using default footer. To add your own footer create file "footer" in the output dir.)
(end)
%