%
(Header)
(Generated by gcodetools from Inkscape.)
(Using default header. To add your own header create file "header" in the output dir.)
M3
(Header end.)
G21 (All units in mm)

(Start cutting path id: text93048)
(Change tool to Default tool)

G00 Z 5.0000
G00 X 5.2373 Y 37.9771

G01 Z -1.0000 F 100.0000(Penetrate)
G01 X 7.1415 Y 37.9771 Z -1.0000 F 3500.0000
G01 X 8.9936 Y 31.5004 Z -1.0000
G01 X 10.8631 Y 37.9771 Z -1.0000
G01 X 12.7153 Y 37.9771 Z -1.0000
G01 X 9.8039 Y 29.4457 Z -1.0000
G01 X 8.1197 Y 29.4457 Z -1.0000
G01 X 5.2373 Y 37.9771 Z -1.0000
G00 Z 5.0000

(End cutting path id: text93048)


(Start cutting path id: text93048)
(Change tool to Default tool)

G00 Z 5.0000
G00 X 17.3977 Y 32.6696

G01 Z -1.0000 F 100.0000(Penetrate)
G01 X 16.3327 Y 36.0266 Z -1.0000 F 3500.0000
G01 X 15.2330 Y 32.6696 Z -1.0000
G01 X 17.3977 Y 32.6696 Z -1.0000
G00 Z 5.0000

(End cutting path id: text93048)


(Start cutting path id: text93048)
(Change tool to Default tool)

G00 Z 5.0000
G00 X 17.8955 Y 31.1994

G01 Z -1.0000 F 100.0000(Penetrate)
G01 X 14.7526 Y 31.1994 Z -1.0000 F 3500.0000
G01 X 14.1623 Y 29.4457 Z -1.0000
G01 X 12.2985 Y 29.4457 Z -1.0000
G01 X 15.3430 Y 37.9771 Z -1.0000
G01 X 17.3572 Y 37.9771 Z -1.0000
G01 X 20.3785 Y 29.4457 Z -1.0000
G01 X 18.4453 Y 29.4457 Z -1.0000
G01 X 17.8955 Y 31.1994 Z -1.0000
G00 Z 5.0000

(End cutting path id: text93048)


(Start cutting path id: text93048)
(Change tool to Default tool)

G00 Z 5.0000
G00 X 24.5574 Y 30.6785

G01 Z -1.0000 F 100.0000(Penetrate)
G03 X 25.1811 Y 30.7206 Z -1.0000 I 0.0000 J 4.6417 F 3500.0000
G03 X 25.5819 Y 30.8174 Z -1.0000 I -0.2714 J 2.0012
G03 X 26.1325 Y 31.2219 Z -1.0000 I -0.3999 J 1.1215
G03 X 26.3285 Y 31.8072 Z -1.0000 I -0.7759 J 0.5853
G03 X 26.2314 Y 32.1758 Z -1.0000 I -0.7481 J 0.0000
G03 X 25.9581 Y 32.4612 Z -1.0000 I -0.6991 J -0.3959
G03 X 25.5702 Y 32.6433 Z -1.0000 I -1.0315 J -1.6928
G03 X 24.7947 Y 32.8606 Z -1.0000 I -2.2729 J -6.6211
G01 X 23.8918 Y 33.0631 Z -1.0000
G02 X 22.5935 Y 33.4391 Z -1.0000 I 2.5045 J 11.0774
G02 X 22.0512 Y 33.7172 Z -1.0000 I 0.7732 J 2.1758
G02 X 21.4385 Y 34.4392 Z -1.0000 I 1.0146 J 1.4821
G02 X 21.1888 Y 35.5635 Z -1.0000 I 2.4072 J 1.1243
G02 X 21.4083 Y 36.6125 Z -1.0000 I 2.6161 J -0.0000
G02 X 22.0223 Y 37.4678 Z -1.0000 I 2.3130 J -1.0124
G02 X 22.9450 Y 37.9952 Z -1.0000 I 1.6466 J -1.8100
G02 X 24.4706 Y 38.2260 Z -1.0000 I 1.5256 J -4.9260
G02 X 25.7535 Y 38.0303 Z -1.0000 I -0.0000 J -4.3032
G02 X 26.7684 Y 37.5083 Z -1.0000 I -0.9921 J -3.1765
G02 X 27.4670 Y 36.6622 Z -1.0000 I -1.3792 J -1.8502
G02 X 27.7697 Y 35.4362 Z -1.0000 I -2.7522 J -1.3300
G01 X 26.0565 Y 35.4362 Z -1.0000
G03 X 25.8473 Y 36.1001 Z -1.0000 I -1.4312 J -0.0861
G03 X 25.3851 Y 36.5301 Z -1.0000 I -1.0050 J -0.6168
G03 X 24.9534 Y 36.6825 Z -1.0000 I -0.7748 J -1.5078
G03 X 24.3490 Y 36.7443 Z -1.0000 I -0.6044 J -2.9238
G03 X 23.6855 Y 36.6618 Z -1.0000 I -0.0000 J -2.7088
G03 X 23.2493 Y 36.4664 Z -1.0000 I 0.3390 J -1.3421
G03 X 22.9477 Y 36.1306 Z -1.0000 I 0.5222 J -0.7724
G03 X 22.8384 Y 35.6909 Z -1.0000 I 0.8299 J -0.4397
G03 X 22.9464 Y 35.2971 Z -1.0000 I 0.7718 J 0.0000
G03 X 23.2435 Y 35.0079 Z -1.0000 I 0.6845 J 0.4061
G03 X 23.5160 Y 34.8876 Z -1.0000 I 0.6902 J 1.1947
G03 X 24.3548 Y 34.6548 Z -1.0000 I 3.5686 J 11.2322
G01 X 25.8250 Y 34.3018 Z -1.0000
G02 X 26.7552 Y 33.9952 Z -1.0000 I -1.3723 J -5.7293
G02 X 27.2835 Y 33.6824 Z -1.0000 I -0.9048 J -2.1309
G02 X 27.8306 Y 32.9752 Z -1.0000 I -1.1402 J -1.4471
G02 X 28.0475 Y 31.9403 Z -1.0000 I -2.3600 J -1.0350
G02 X 27.8143 Y 30.8778 Z -1.0000 I -2.5364 J 0.0000
G02 X 27.1504 Y 29.9955 Z -1.0000 I -2.3730 J 1.0947
G02 X 26.1733 Y 29.4563 Z -1.0000 I -1.7651 J 2.0437
G02 X 24.6269 Y 29.2257 Z -1.0000 I -1.5464 J 5.0694
G02 X 23.0384 Y 29.4508 Z -1.0000 I -0.0000 J 5.7179
G02 X 22.0049 Y 29.9840 Z -1.0000 I 0.8346 J 2.8861
G02 X 21.3117 Y 30.8738 Z -1.0000 I 1.5183 J 1.8978
G02 X 21.0499 Y 32.0792 Z -1.0000 I 2.6446 J 1.2054
G01 X 22.7516 Y 32.0792 Z -1.0000
G03 X 22.8905 Y 31.5199 Z -1.0000 I 2.7030 J 0.3747
G03 X 23.0699 Y 31.2052 Z -1.0000 I 1.0133 J 0.3691
G03 X 23.5830 Y 30.8459 Z -1.0000 I 0.9041 J 0.7452
G03 X 24.5574 Y 30.6785 Z -1.0000 I 0.9744 J 2.7520
G01 X 24.5574 Y 30.6785 Z -1.0000
G00 Z 5.0000

(End cutting path id: text93048)


(Start cutting path id: text93048)
(Change tool to Default tool)

G00 Z 5.0000
G00 X 35.3056 Y 33.1731

G01 Z -1.0000 F 100.0000(Penetrate)
G01 X 31.1614 Y 33.1731 Z -1.0000 F 3500.0000
G01 X 31.1614 Y 30.9795 Z -1.0000
G01 X 35.8844 Y 30.9795 Z -1.0000
G01 X 35.8844 Y 29.4457 Z -1.0000
G01 X 29.4193 Y 29.4457 Z -1.0000
G01 X 29.4193 Y 37.9771 Z -1.0000
G01 X 35.6760 Y 37.9771 Z -1.0000
G01 X 35.6760 Y 36.4664 Z -1.0000
G01 X 31.1614 Y 36.4664 Z -1.0000
G01 X 31.1614 Y 34.6548 Z -1.0000
G01 X 35.3056 Y 34.6548 Z -1.0000
G01 X 35.3056 Y 33.1731 Z -1.0000
G00 Z 5.0000

(End cutting path id: text93048)



(Footer)
M5
G00 X0.0000 Y0.0000
M2
(Using default footer. To add your own footer create file "footer" in the output dir.)
(end)
%