%
(Header)
(Generated by gcodetools from Inkscape.)
(Using default header. To add your own header create file "header" in the output dir.)
M3
(Header end.)
G21 (All units in mm)

(Start cutting path id: path112427)
(Change tool to Default tool)

G00 Z 5.0000
G00 X 4.8726 Y 24.2985

G01 Z -1.0000 F 100.0000(Penetrate)
G02 X 4.2739 Y 24.0467 Z -1.0000 I -1.1152 J 1.8140 F 3500.0000
G02 X 3.4693 Y 23.9476 Z -1.0000 I -0.8047 J 3.2186
G02 X 2.2105 Y 24.2029 Z -1.0000 I 0.0000 J 3.2315
G02 X 1.2239 Y 24.8973 Z -1.0000 I 1.1108 J 2.6265
G02 X 0.5748 Y 25.9571 Z -1.0000 I 2.1217 J 2.0281
G02 X 0.3117 Y 27.5075 Z -1.0000 I 4.4367 J 1.5504
G02 X 0.5741 Y 29.0805 Z -1.0000 I 4.8456 J 0.0000
G02 X 1.2332 Y 30.1926 Z -1.0000 I 3.0119 J -1.0337
G02 X 2.2772 Y 30.9257 Z -1.0000 I 2.1674 J -1.9768
G02 X 3.6704 Y 31.2030 Z -1.0000 I 1.3932 J -3.3605
G02 X 4.9147 Y 31.0105 Z -1.0000 I -0.0000 J -4.1168
G02 X 5.7801 Y 30.5341 Z -1.0000 I -0.7660 J -2.4159
G02 X 6.4072 Y 29.7760 Z -1.0000 I -1.6934 J -2.0393
G02 X 6.6970 Y 28.8735 Z -1.0000 I -2.1544 J -1.1894
G01 X 5.2796 Y 28.8735 Z -1.0000
G03 X 4.9868 Y 29.4729 Z -1.0000 I -1.4461 J -0.3352
G03 X 4.4797 Y 29.8605 Z -1.0000 I -1.0554 J -0.8553
G03 X 4.1156 Y 29.9736 Z -1.0000 I -0.7018 J -1.6162
G03 X 3.6891 Y 30.0149 Z -1.0000 I -0.4265 J -2.1841
G03 X 2.9330 Y 29.8491 Z -1.0000 I 0.0000 J -1.8068
G03 X 2.3185 Y 29.3833 Z -1.0000 I 0.7502 J -1.6283
G03 X 1.9515 Y 28.6953 Z -1.0000 I 1.3922 J -1.1844
G03 X 1.7852 Y 27.4935 Z -1.0000 I 4.2592 J -1.2019
G03 X 1.9721 Y 26.3036 Z -1.0000 I 3.8812 J -0.0000
G03 X 2.3653 Y 25.6925 Z -1.0000 I 1.3448 J 0.4331
G03 X 2.9967 Y 25.2966 Z -1.0000 I 1.4102 J 1.5474
G03 X 3.6845 Y 25.1639 Z -1.0000 I 0.6877 J 1.7163
G03 X 4.3651 Y 25.2797 Z -1.0000 I 0.0000 J 2.0584
G03 X 4.8726 Y 25.5802 Z -1.0000 I -0.4967 J 1.4176
G03 X 5.2375 Y 26.0543 Z -1.0000 I -1.1423 J 1.2565
G03 X 5.4433 Y 26.6795 Z -1.0000 I -1.8248 J 0.9473
G01 X 3.8482 Y 26.6795 Z -1.0000
G01 X 3.8482 Y 27.8303 Z -1.0000
G01 X 6.7204 Y 27.8303 Z -1.0000
G01 X 6.7204 Y 24.1301 Z -1.0000
G01 X 5.7661 Y 24.1301 Z -1.0000
G01 X 5.6211 Y 24.9908 Z -1.0000
G02 X 5.1793 Y 24.5295 Z -1.0000 I -4.0218 J 3.4089
G02 X 4.8726 Y 24.2985 Z -1.0000 I -1.2935 J 1.3983
G01 X 4.8726 Y 24.2985 Z -1.0000
G00 Z 5.0000

(End cutting path id: path112427)


(Start cutting path id: path112427)
(Change tool to Default tool)

G00 Z 5.0000
G00 X 8.0957 Y 31.0253

G01 Z -1.0000 F 100.0000(Penetrate)
G01 X 9.5365 Y 31.0253 Z -1.0000 F 3500.0000
G01 X 9.5365 Y 25.3697 Z -1.0000
G01 X 12.9514 Y 25.3697 Z -1.0000
G01 X 12.9514 Y 24.1301 Z -1.0000
G01 X 8.0957 Y 24.1301 Z -1.0000
G01 X 8.0957 Y 31.0253 Z -1.0000
G00 Z 5.0000

(End cutting path id: path112427)


(Start cutting path id: path112426)
(Change tool to Default tool)

G00 Z 5.0000
G00 X 7.3519 Y 39.6476

G01 Z -1.0000 F 100.0000(Penetrate)
G01 X 8.8161 Y 39.6476 Z -1.0000 F 3500.0000
G01 X 6.8748 Y 32.7524 Z -1.0000
G01 X 5.4995 Y 32.7524 Z -1.0000
G01 X 4.6668 Y 36.7847 Z -1.0000
G01 X 4.4236 Y 38.1179 Z -1.0000
G01 X 4.1803 Y 36.7847 Z -1.0000
G01 X 3.3476 Y 32.7524 Z -1.0000
G01 X 2.0098 Y 32.7524 Z -1.0000
G01 X 0.0544 Y 39.6476 Z -1.0000
G01 X 1.5841 Y 39.6476 Z -1.0000
G01 X 2.4963 Y 35.6994 Z -1.0000
G01 X 2.6927 Y 34.6001 Z -1.0000
G01 X 2.8939 Y 35.6760 Z -1.0000
G01 X 3.6704 Y 39.6476 Z -1.0000
G01 X 5.1907 Y 39.6476 Z -1.0000
G01 X 6.0094 Y 35.6994 Z -1.0000
G01 X 6.2199 Y 34.6001 Z -1.0000
G01 X 6.4304 Y 35.6573 Z -1.0000
G01 X 7.3519 Y 39.6476 Z -1.0000
G00 Z 5.0000

(End cutting path id: path112426)


(Start cutting path id: path112426)
(Change tool to Default tool)

G00 Z 5.0000
G00 X 9.5739 Y 39.6476

G01 Z -1.0000 F 100.0000(Penetrate)
G01 X 11.0053 Y 39.6476 Z -1.0000 F 3500.0000
G01 X 11.0053 Y 32.7524 Z -1.0000
G01 X 9.5739 Y 32.7524 Z -1.0000
G01 X 9.5739 Y 39.6476 Z -1.0000
G00 Z 5.0000

(End cutting path id: path112426)


(Start cutting path id: path112426)
(Change tool to Default tool)

G00 Z 5.0000
G00 X 17.9240 Y 32.7524

G01 Z -1.0000 F 100.0000(Penetrate)
G01 X 16.4832 Y 32.7524 Z -1.0000 F 3500.0000
G01 X 13.6671 Y 37.6501 Z -1.0000
G01 X 13.6671 Y 32.7524 Z -1.0000
G01 X 12.3245 Y 32.7524 Z -1.0000
G01 X 12.3245 Y 39.6476 Z -1.0000
G01 X 13.8355 Y 39.6476 Z -1.0000
G01 X 16.5814 Y 34.8340 Z -1.0000
G01 X 16.5814 Y 39.6476 Z -1.0000
G01 X 17.9240 Y 39.6476 Z -1.0000
G01 X 17.9240 Y 32.7524 Z -1.0000
G00 Z 5.0000

(End cutting path id: path112426)


(Start cutting path id: path112427)
(Change tool to Default tool)

G00 Z 5.0000
G00 X 17.5825 Y 26.7357

G01 Z -1.0000 F 100.0000(Penetrate)
G01 X 16.7217 Y 29.4488 Z -1.0000 F 3500.0000
G01 X 15.8329 Y 26.7357 Z -1.0000
G01 X 17.5825 Y 26.7357 Z -1.0000
G00 Z 5.0000

(End cutting path id: path112427)


(Start cutting path id: path112427)
(Change tool to Default tool)

G00 Z 5.0000
G00 X 17.9848 Y 25.5475

G01 Z -1.0000 F 100.0000(Penetrate)
G01 X 15.4447 Y 25.5475 Z -1.0000 F 3500.0000
G01 X 14.9675 Y 24.1301 Z -1.0000
G01 X 13.4612 Y 24.1301 Z -1.0000
G01 X 15.9218 Y 31.0253 Z -1.0000
G01 X 17.5497 Y 31.0253 Z -1.0000
G01 X 19.9916 Y 24.1301 Z -1.0000
G01 X 18.4292 Y 24.1301 Z -1.0000
G01 X 17.9848 Y 25.5475 Z -1.0000
G00 Z 5.0000

(End cutting path id: path112427)


(Start cutting path id: path112427)
(Change tool to Default tool)

G00 Z 5.0000
G00 X 23.3690 Y 25.1265

G01 Z -1.0000 F 100.0000(Penetrate)
G03 X 23.8731 Y 25.1605 Z -1.0000 I 0.0000 J 3.7515 F 3500.0000
G03 X 24.1970 Y 25.2387 Z -1.0000 I -0.2193 J 1.6174
G03 X 24.6420 Y 25.5656 Z -1.0000 I -0.3232 J 0.9064
G03 X 24.8005 Y 26.0387 Z -1.0000 I -0.6271 J 0.4730
G03 X 24.7219 Y 26.3366 Z -1.0000 I -0.6046 J -0.0000
G03 X 24.5011 Y 26.5673 Z -1.0000 I -0.5650 J -0.3200
G03 X 24.1876 Y 26.7145 Z -1.0000 I -0.8337 J -1.3681
G03 X 23.5608 Y 26.8900 Z -1.0000 I -1.8370 J -5.3512
G01 X 22.8311 Y 27.0538 Z -1.0000
G02 X 21.7818 Y 27.3576 Z -1.0000 I 2.0241 J 8.9529
G02 X 21.3435 Y 27.5824 Z -1.0000 I 0.6249 J 1.7585
G02 X 20.8482 Y 28.1659 Z -1.0000 I 0.8200 J 1.1979
G02 X 20.6465 Y 29.0746 Z -1.0000 I 1.9455 J 0.9087
G02 X 20.8239 Y 29.9224 Z -1.0000 I 2.1143 J 0.0000
G02 X 21.3201 Y 30.6136 Z -1.0000 I 1.8694 J -0.8182
G02 X 22.0659 Y 31.0399 Z -1.0000 I 1.3308 J -1.4629
G02 X 23.2988 Y 31.2264 Z -1.0000 I 1.2330 J -3.9813
G02 X 24.3357 Y 31.0683 Z -1.0000 I 0.0000 J -3.4779
G02 X 25.1560 Y 30.6464 Z -1.0000 I -0.8019 J -2.5673
G02 X 25.7206 Y 29.9625 Z -1.0000 I -1.1147 J -1.4953
G02 X 25.9652 Y 28.9717 Z -1.0000 I -2.2244 J -1.0749
G01 X 24.5806 Y 28.9717 Z -1.0000
G03 X 24.4115 Y 29.5083 Z -1.0000 I -1.1567 J -0.0696
G03 X 24.0380 Y 29.8558 Z -1.0000 I -0.8122 J -0.4985
G03 X 23.6891 Y 29.9789 Z -1.0000 I -0.6262 J -1.2186
G03 X 23.2006 Y 30.0289 Z -1.0000 I -0.4884 J -2.3630
G03 X 22.6644 Y 29.9622 Z -1.0000 I -0.0000 J -2.1893
G03 X 22.3118 Y 29.8044 Z -1.0000 I 0.2740 J -1.0847
G03 X 22.0680 Y 29.5329 Z -1.0000 I 0.4220 J -0.6242
G03 X 21.9797 Y 29.1775 Z -1.0000 I 0.6707 J -0.3554
G03 X 22.0670 Y 28.8593 Z -1.0000 I 0.6238 J -0.0000
G03 X 22.3071 Y 28.6255 Z -1.0000 I 0.5532 J 0.3282
G03 X 22.5274 Y 28.5283 Z -1.0000 I 0.5579 J 0.9655
G03 X 23.2053 Y 28.3402 Z -1.0000 I 2.8842 J 9.0780
G01 X 24.3935 Y 28.0548 Z -1.0000
G02 X 25.1453 Y 27.8071 Z -1.0000 I -1.1091 J -4.6304
G02 X 25.5723 Y 27.5543 Z -1.0000 I -0.7313 J -1.7222
G02 X 26.0144 Y 26.9827 Z -1.0000 I -0.9215 J -1.1696
G02 X 26.1898 Y 26.1462 Z -1.0000 I -1.9074 J -0.8365
G02 X 26.0013 Y 25.2875 Z -1.0000 I -2.0500 J -0.0000
G02 X 25.4647 Y 24.5745 Z -1.0000 I -1.9179 J 0.8847
G02 X 24.6750 Y 24.1387 Z -1.0000 I -1.4265 J 1.6518
G02 X 23.4252 Y 23.9523 Z -1.0000 I -1.2498 J 4.0972
G02 X 22.1413 Y 24.1342 Z -1.0000 I 0.0000 J 4.6213
G02 X 21.3061 Y 24.5651 Z -1.0000 I 0.6745 J 2.3326
G02 X 20.7458 Y 25.2843 Z -1.0000 I 1.2271 J 1.5338
G02 X 20.5342 Y 26.2585 Z -1.0000 I 2.1374 J 0.9742
G01 X 21.9095 Y 26.2585 Z -1.0000
G03 X 22.0218 Y 25.8065 Z -1.0000 I 2.1846 J 0.3028
G03 X 22.1668 Y 25.5522 Z -1.0000 I 0.8190 J 0.2983
G03 X 22.5815 Y 25.2618 Z -1.0000 I 0.7307 J 0.6023
G03 X 23.3690 Y 25.1265 Z -1.0000 I 0.7875 J 2.2242
G01 X 23.3690 Y 25.1265 Z -1.0000
G00 Z 5.0000

(End cutting path id: path112427)


(Start cutting path id: path112427)
(Change tool to Default tool)

G00 Z 5.0000
G00 X 29.7590 Y 25.1265

G01 Z -1.0000 F 100.0000(Penetrate)
G03 X 30.2631 Y 25.1605 Z -1.0000 I -0.0000 J 3.7515 F 3500.0000
G03 X 30.5870 Y 25.2387 Z -1.0000 I -0.2193 J 1.6174
G03 X 31.0320 Y 25.5656 Z -1.0000 I -0.3232 J 0.9064
G03 X 31.1904 Y 26.0387 Z -1.0000 I -0.6271 J 0.4730
G03 X 31.1119 Y 26.3366 Z -1.0000 I -0.6046 J -0.0000
G03 X 30.8911 Y 26.5673 Z -1.0000 I -0.5650 J -0.3200
G03 X 30.5775 Y 26.7145 Z -1.0000 I -0.8337 J -1.3681
G03 X 29.9508 Y 26.8900 Z -1.0000 I -1.8370 J -5.3512
G01 X 29.2211 Y 27.0538 Z -1.0000
G02 X 28.1718 Y 27.3576 Z -1.0000 I 2.0241 J 8.9529
G02 X 27.7335 Y 27.5824 Z -1.0000 I 0.6249 J 1.7585
G02 X 27.2382 Y 28.1659 Z -1.0000 I 0.8200 J 1.1979
G02 X 27.0365 Y 29.0746 Z -1.0000 I 1.9455 J 0.9087
G02 X 27.2139 Y 29.9224 Z -1.0000 I 2.1143 J 0.0000
G02 X 27.7101 Y 30.6136 Z -1.0000 I 1.8694 J -0.8182
G02 X 28.4559 Y 31.0399 Z -1.0000 I 1.3308 J -1.4629
G02 X 29.6888 Y 31.2264 Z -1.0000 I 1.2330 J -3.9813
G02 X 30.7257 Y 31.0683 Z -1.0000 I 0.0000 J -3.4779
G02 X 31.5460 Y 30.6464 Z -1.0000 I -0.8019 J -2.5673
G02 X 32.1106 Y 29.9625 Z -1.0000 I -1.1147 J -1.4953
G02 X 32.3552 Y 28.9717 Z -1.0000 I -2.2244 J -1.0749
G01 X 30.9706 Y 28.9717 Z -1.0000
G03 X 30.8015 Y 29.5083 Z -1.0000 I -1.1567 J -0.0696
G03 X 30.4280 Y 29.8558 Z -1.0000 I -0.8122 J -0.4985
G03 X 30.0791 Y 29.9789 Z -1.0000 I -0.6262 J -1.2186
G03 X 29.5906 Y 30.0289 Z -1.0000 I -0.4885 J -2.3630
G03 X 29.0544 Y 29.9622 Z -1.0000 I -0.0000 J -2.1893
G03 X 28.7018 Y 29.8044 Z -1.0000 I 0.2740 J -1.0847
G03 X 28.4580 Y 29.5329 Z -1.0000 I 0.4220 J -0.6242
G03 X 28.3697 Y 29.1775 Z -1.0000 I 0.6707 J -0.3554
G03 X 28.4570 Y 28.8593 Z -1.0000 I 0.6238 J 0.0000
G03 X 28.6971 Y 28.6255 Z -1.0000 I 0.5532 J 0.3282
G03 X 28.9173 Y 28.5283 Z -1.0000 I 0.5579 J 0.9655
G03 X 29.5953 Y 28.3402 Z -1.0000 I 2.8842 J 9.0780
G01 X 30.7835 Y 28.0548 Z -1.0000
G02 X 31.5353 Y 27.8071 Z -1.0000 I -1.1091 J -4.6304
G02 X 31.9623 Y 27.5543 Z -1.0000 I -0.7313 J -1.7222
G02 X 32.4044 Y 26.9827 Z -1.0000 I -0.9215 J -1.1696
G02 X 32.5798 Y 26.1462 Z -1.0000 I -1.9074 J -0.8365
G02 X 32.3913 Y 25.2875 Z -1.0000 I -2.0500 J -0.0000
G02 X 31.8547 Y 24.5745 Z -1.0000 I -1.9179 J 0.8847
G02 X 31.0650 Y 24.1387 Z -1.0000 I -1.4265 J 1.6518
G02 X 29.8151 Y 23.9523 Z -1.0000 I -1.2498 J 4.0972
G02 X 28.5313 Y 24.1342 Z -1.0000 I 0.0000 J 4.6213
G02 X 27.6961 Y 24.5651 Z -1.0000 I 0.6745 J 2.3326
G02 X 27.1358 Y 25.2843 Z -1.0000 I 1.2271 J 1.5338
G02 X 26.9242 Y 26.2585 Z -1.0000 I 2.1374 J 0.9742
G01 X 28.2995 Y 26.2585 Z -1.0000
G03 X 28.4118 Y 25.8065 Z -1.0000 I 2.1846 J 0.3028
G03 X 28.5568 Y 25.5522 Z -1.0000 I 0.8190 J 0.2983
G03 X 28.9715 Y 25.2618 Z -1.0000 I 0.7307 J 0.6023
G03 X 29.7590 Y 25.1265 Z -1.0000 I 0.7876 J 2.2242
G01 X 29.7590 Y 25.1265 Z -1.0000
G00 Z 5.0000

(End cutting path id: path112427)


(Start cutting path id: path112426)
(Change tool to Default tool)

G00 Z 5.0000
G00 X 24.0660 Y 35.7649

G01 Z -1.0000 F 100.0000(Penetrate)
G01 X 20.7167 Y 35.7649 Z -1.0000 F 3500.0000
G01 X 20.7167 Y 33.9920 Z -1.0000
G01 X 24.5338 Y 33.9920 Z -1.0000
G01 X 24.5338 Y 32.7524 Z -1.0000
G01 X 19.3086 Y 32.7524 Z -1.0000
G01 X 19.3086 Y 39.6476 Z -1.0000
G01 X 24.3654 Y 39.6476 Z -1.0000
G01 X 24.3654 Y 38.4266 Z -1.0000
G01 X 20.7167 Y 38.4266 Z -1.0000
G01 X 20.7167 Y 36.9625 Z -1.0000
G01 X 24.0660 Y 36.9625 Z -1.0000
G01 X 24.0660 Y 35.7649 Z -1.0000
G00 Z 5.0000

(End cutting path id: path112426)



(Footer)
M5
G00 X0.0000 Y0.0000
M2
(Using default footer. To add your own footer create file "footer" in the output dir.)
(end)
%