%
(Header)
(Generated by gcodetools from Inkscape.)
(Using default header. To add your own header create file "header" in the output dir.)
M3
(Header end.)
G21 (All units in mm)

(Start cutting path id: text5608)
(Change tool to Default tool)

G00 Z 5.0000
G00 X 6.7617 Y 31.4673

G01 Z -1.0000 F 100.0000(Penetrate)
G01 X 0.2438 Y 31.4673 Z -1.0000 F 3500.0000
G01 X 0.2438 Y 32.9448 Z -1.0000
G01 X 4.5682 Y 38.3603 Z -1.0000
G01 X 0.3518 Y 38.3603 Z -1.0000
G01 X 0.3518 Y 39.8434 Z -1.0000
G01 X 6.7503 Y 39.8434 Z -1.0000
G01 X 6.7503 Y 38.4398 Z -1.0000
G01 X 2.3691 Y 32.9448 Z -1.0000
G01 X 6.7617 Y 32.9448 Z -1.0000
G01 X 6.7617 Y 31.4673 Z -1.0000
G00 Z 5.0000

(End cutting path id: text5608)


(Start cutting path id: text5608)
(Change tool to Default tool)

G00 Z 5.0000
G00 X 13.7740 Y 35.1269

G01 Z -1.0000 F 100.0000(Penetrate)
G01 X 9.7053 Y 35.1269 Z -1.0000 F 3500.0000
G01 X 9.7053 Y 32.9732 Z -1.0000
G01 X 14.3423 Y 32.9732 Z -1.0000
G01 X 14.3423 Y 31.4673 Z -1.0000
G01 X 7.9948 Y 31.4673 Z -1.0000
G01 X 7.9948 Y 39.8434 Z -1.0000
G01 X 14.1377 Y 39.8434 Z -1.0000
G01 X 14.1377 Y 38.3603 Z -1.0000
G01 X 9.7053 Y 38.3603 Z -1.0000
G01 X 9.7053 Y 36.5816 Z -1.0000
G01 X 13.7740 Y 36.5816 Z -1.0000
G01 X 13.7740 Y 35.1269 Z -1.0000
G00 Z 5.0000

(End cutting path id: text5608)


(Start cutting path id: text5608)
(Change tool to Default tool)

G00 Z 5.0000
G00 X 19.4907 Y 35.1553

G01 Z -1.0000 F 100.0000(Penetrate)
G01 X 17.4052 Y 35.1553 Z -1.0000 F 3500.0000
G01 X 17.4052 Y 32.9221 Z -1.0000
G01 X 19.4623 Y 32.9221 Z -1.0000
G03 X 20.0029 Y 32.9683 Z -1.0000 I -0.0000 J 3.1862
G03 X 20.3203 Y 33.0698 Z -1.0000 I -0.2039 J 1.1843
G03 X 20.7102 Y 33.4467 Z -1.0000 I -0.3874 J 0.7909
G03 X 20.8772 Y 34.1154 Z -1.0000 I -1.2555 J 0.6687
G03 X 20.7234 Y 34.6697 Z -1.0000 I -1.0757 J 0.0000
G03 X 20.3374 Y 35.0132 Z -1.0000 I -0.7440 J -0.4474
G03 X 20.0269 Y 35.1078 Z -1.0000 I -0.5184 J -1.1447
G03 X 19.4907 Y 35.1553 Z -1.0000 I -0.5723 J -3.4109
G01 X 19.4907 Y 35.1553 Z -1.0000
G00 Z 5.0000

(End cutting path id: text5608)


(Start cutting path id: text5608)
(Change tool to Default tool)

G00 Z 5.0000
G00 X 20.3601 Y 36.7521

G01 Z -1.0000 F 100.0000(Penetrate)
G03 X 20.5972 Y 37.0155 Z -1.0000 I -0.3110 J 0.5183 F 3500.0000
G03 X 20.7010 Y 37.4852 Z -1.0000 I -1.0098 J 0.4697
G03 X 20.5662 Y 37.9802 Z -1.0000 I -0.9765 J -0.0000
G03 X 20.2464 Y 38.2580 Z -1.0000 I -0.5735 J -0.3374
G03 X 19.8480 Y 38.3495 Z -1.0000 I -0.6751 J -2.0252
G03 X 19.2463 Y 38.3887 Z -1.0000 I -0.6017 J -4.6042
G01 X 17.4052 Y 38.3887 Z -1.0000
G01 X 17.4052 Y 36.5419 Z -1.0000
G01 X 19.4623 Y 36.5419 Z -1.0000
G03 X 19.9962 Y 36.6035 Z -1.0000 I -0.0000 J 2.3419
G03 X 20.3601 Y 36.7521 Z -1.0000 I -0.2855 J 1.2192
G01 X 20.3601 Y 36.7521 Z -1.0000
G00 Z 5.0000

(End cutting path id: text5608)


(Start cutting path id: text5608)
(Change tool to Default tool)

G00 Z 5.0000
G00 X 19.5304 Y 31.4673

G01 Z -1.0000 F 100.0000(Penetrate)
G01 X 15.7345 Y 31.4673 Z -1.0000 F 3500.0000
G01 X 15.7345 Y 39.8434 Z -1.0000
G01 X 19.8032 Y 39.8434 Z -1.0000
G02 X 21.2075 Y 39.5567 Z -1.0000 I -0.0570 J -3.8608
G02 X 21.9853 Y 38.9513 Z -1.0000 I -0.6911 J -1.6903
G02 X 22.2667 Y 38.3831 Z -1.0000 I -1.5509 J -1.1219
G02 X 22.3717 Y 37.6727 Z -1.0000 I -2.3506 J -0.7104
G02 X 22.2605 Y 36.9457 Z -1.0000 I -2.4313 J 0.0000
G02 X 21.9853 Y 36.4396 Z -1.0000 I -1.4233 J 0.4460
G02 X 21.7442 Y 36.2095 Z -1.0000 I -1.0874 J 0.8983
G02 X 21.3489 Y 35.9622 Z -1.0000 I -1.6564 J 2.2085
G02 X 21.9252 Y 35.6470 Z -1.0000 I -0.7380 J -2.0340
G02 X 22.3149 Y 35.2235 Z -1.0000 I -1.0088 J -1.3191
G02 X 22.5529 Y 34.6905 Z -1.0000 I -1.5577 J -1.0151
G02 X 22.6445 Y 33.9961 Z -1.0000 I -2.5863 J -0.6945
G02 X 22.5459 Y 33.2803 Z -1.0000 I -2.6472 J -0.0000
G02 X 22.2694 Y 32.6607 Z -1.0000 I -2.2475 J 0.6312
G02 X 21.9986 Y 32.2978 Z -1.0000 I -2.0507 J 1.2482
G02 X 21.6728 Y 32.0015 Z -1.0000 I -1.6843 J 1.5246
G02 X 21.2445 Y 31.7491 Z -1.0000 I -1.2817 J 1.6852
G02 X 20.7181 Y 31.5810 Z -1.0000 I -1.0549 J 2.3949
G02 X 20.1694 Y 31.4978 Z -1.0000 I -1.0295 J 4.9416
G02 X 19.5304 Y 31.4673 Z -1.0000 I -0.6390 J 6.6774
G01 X 19.5304 Y 31.4673 Z -1.0000
G00 Z 5.0000

(End cutting path id: text5608)


(Start cutting path id: text5608)
(Change tool to Default tool)

G00 Z 5.0000
G00 X 27.6679 Y 34.7518

G01 Z -1.0000 F 100.0000(Penetrate)
G01 X 25.8608 Y 34.7518 Z -1.0000 F 3500.0000
G01 X 25.8608 Y 31.4673 Z -1.0000
G01 X 24.1504 Y 31.4673 Z -1.0000
G01 X 24.1504 Y 39.8434 Z -1.0000
G01 X 28.2589 Y 39.8434 Z -1.0000
G02 X 29.1269 Y 39.7661 Z -1.0000 I -0.1214 J -6.2743
G02 X 29.6113 Y 39.6275 Z -1.0000 I -0.3308 J -2.0720
G02 X 30.0530 Y 39.3797 Z -1.0000 I -0.8388 J -2.0132
G02 X 30.4182 Y 39.0422 Z -1.0000 I -1.2346 J -1.7021
G02 X 30.6626 Y 38.7065 Z -1.0000 I -1.9874 J -1.7035
G02 X 30.8501 Y 38.3375 Z -1.0000 I -2.2185 J -1.3597
G02 X 30.9657 Y 37.9425 Z -1.0000 I -1.7995 J -0.7410
G02 X 31.0092 Y 37.4567 Z -1.0000 I -2.6891 J -0.4858
G02 X 30.9363 Y 36.8779 Z -1.0000 I -2.3337 J -0.0000
G02 X 30.7081 Y 36.2805 Z -1.0000 I -2.7167 J 0.6956
G02 X 30.3211 Y 35.8064 Z -1.0000 I -1.3556 J 0.7114
G02 X 29.7136 Y 35.4678 Z -1.0000 I -1.2512 J 1.5312
G02 X 30.2302 Y 35.1636 Z -1.0000 I -0.7478 J -1.8605
G02 X 30.5319 Y 34.8030 Z -1.0000 I -0.7776 J -0.9571
G02 X 30.6966 Y 34.3556 Z -1.0000 I -1.2376 J -0.7096
G02 X 30.7762 Y 33.4960 Z -1.0000 I -4.5977 J -0.8596
G01 X 30.7762 Y 32.9334 Z -1.0000
G03 X 30.7929 Y 32.3613 Z -1.0000 I 9.8141 J -0.0000
G03 X 30.8217 Y 32.1549 Z -1.0000 I 1.2989 J 0.0758
G03 X 30.9423 Y 31.8679 Z -1.0000 I 0.8054 J 0.1696
G03 X 31.1399 Y 31.6776 Z -1.0000 I 0.5322 J 0.3548
G01 X 31.1399 Y 31.4673 Z -1.0000
G01 X 29.2135 Y 31.4673 Z -1.0000
G02 X 29.1383 Y 31.7468 Z -1.0000 I 9.1715 J 2.6204
G02 X 29.0999 Y 31.9162 Z -1.0000 I 3.3313 J 0.8434
G02 X 29.0476 Y 32.2702 Z -1.0000 I 3.9405 J 0.7627
G02 X 29.0260 Y 32.6379 Z -1.0000 I 4.2315 J 0.4331
G01 X 29.0146 Y 33.4164 Z -1.0000
G03 X 28.9062 Y 34.1749 Z -1.0000 I -3.0046 J -0.0426
G03 X 28.7192 Y 34.4848 Z -1.0000 I -0.6464 J -0.1788
G03 X 28.4037 Y 34.6598 Z -1.0000 I -0.4896 J -0.5104
G03 X 27.6679 Y 34.7518 Z -1.0000 I -0.7358 J -2.8964
G01 X 27.6679 Y 34.7518 Z -1.0000
G00 Z 5.0000

(End cutting path id: text5608)


(Start cutting path id: text5608)
(Change tool to Default tool)

G00 Z 5.0000
G00 X 28.7305 Y 36.2748

G01 Z -1.0000 F 100.0000(Penetrate)
G03 X 29.0971 Y 36.6139 Z -1.0000 I -0.3314 J 0.7259 F 3500.0000
G03 X 29.2533 Y 37.2181 Z -1.0000 I -1.0902 J 0.6042
G03 X 29.0975 Y 37.8847 Z -1.0000 I -1.5040 J -0.0000
G03 X 28.7476 Y 38.2409 Z -1.0000 I -0.7174 J -0.3547
G03 X 28.4517 Y 38.3408 Z -1.0000 I -0.4697 J -0.9033
G03 X 27.8952 Y 38.3887 Z -1.0000 I -0.5566 J -3.2109
G01 X 25.8608 Y 38.3887 Z -1.0000
G01 X 25.8608 Y 36.1384 Z -1.0000
G01 X 27.8440 Y 36.1384 Z -1.0000
G03 X 28.4253 Y 36.1828 Z -1.0000 I -0.0000 J 3.8224
G03 X 28.7305 Y 36.2748 Z -1.0000 I -0.1738 J 1.1300
G01 X 28.7305 Y 36.2748 Z -1.0000
G00 Z 5.0000

(End cutting path id: text5608)


(Start cutting path id: text5608)
(Change tool to Default tool)

G00 Z 5.0000
G00 X 36.9305 Y 34.6325

G01 Z -1.0000 F 100.0000(Penetrate)
G01 X 35.8849 Y 37.9284 Z -1.0000 F 3500.0000
G01 X 34.8052 Y 34.6325 Z -1.0000
G01 X 36.9305 Y 34.6325 Z -1.0000
G00 Z 5.0000

(End cutting path id: text5608)


(Start cutting path id: text5608)
(Change tool to Default tool)

G00 Z 5.0000
G00 X 37.4192 Y 33.1891

G01 Z -1.0000 F 100.0000(Penetrate)
G01 X 34.3335 Y 33.1891 Z -1.0000 F 3500.0000
G01 X 33.7539 Y 31.4673 Z -1.0000
G01 X 31.9241 Y 31.4673 Z -1.0000
G01 X 34.9132 Y 39.8434 Z -1.0000
G01 X 36.8907 Y 39.8434 Z -1.0000
G01 X 39.8570 Y 31.4673 Z -1.0000
G01 X 37.9590 Y 31.4673 Z -1.0000
G01 X 37.4192 Y 33.1891 Z -1.0000
G00 Z 5.0000

(End cutting path id: text5608)



(Footer)
M5
G00 X0.0000 Y0.0000
M2
(Using default footer. To add your own footer create file "footer" in the output dir.)
(end)
%