%
(Header)
(Generated by gcodetools from Inkscape.)
(Using default header. To add your own header create file "header" in the output dir.)
M3
(Header end.)
G21 (All units in mm)

(Start cutting path id: path8988)
(Change tool to Default tool)

G00 Z 5.0000
G00 X 7.3322 Y 0.2494

G01 Z -1.0000 F 100.0000(Penetrate)
G02 X 7.3962 Y 0.5030 Z -1.0000 I 0.5340 J 0.0000 F 3500.0000
G02 X 7.5895 Y 0.7262 Z -1.0000 I 0.5988 J -0.3231
G03 X 7.6343 Y 0.7820 Z -1.0000 I -0.0843 J 0.1136
G03 X 7.7217 Y 1.0214 Z -1.0000 I -1.6406 J 0.7351
G03 X 7.6427 Y 1.1244 Z -1.0000 I -0.0776 J 0.0223
G03 X 7.3972 Y 1.0159 Z -1.0000 I 0.0059 J -0.3453
G02 X 7.2521 Y 0.9391 Z -1.0000 I -0.1853 J 0.1745
G01 X 7.2086 Y 0.9858 Z -1.0000
G03 X 7.2804 Y 1.5873 Z -1.0000 I -2.6985 J 0.6267
G03 X 7.2159 Y 1.7777 Z -1.0000 I -0.3054 J 0.0028
G03 X 7.0984 Y 1.8991 Z -1.0000 I -0.6234 J -0.4858
G01 X 7.0741 Y 1.8958 Z -1.0000
G03 X 6.7893 Y 1.3408 Z -1.0000 I 1.8945 J -1.3229
G03 X 6.7012 Y 0.8373 Z -1.0000 I 1.4631 J -0.5155
G02 X 6.6795 Y 0.6876 Z -1.0000 I -0.5578 J 0.0043
G02 X 6.6224 Y 0.5633 Z -1.0000 I -0.4381 J 0.1259
G02 X 6.5449 Y 0.5214 Z -1.0000 I -0.0775 J 0.0509
G02 X 6.4674 Y 0.5633 Z -1.0000 I 0.0000 J 0.0927
G02 X 6.4109 Y 0.7830 Z -1.0000 I 0.2934 J 0.1926
G02 X 6.4974 Y 0.9501 Z -1.0000 I 0.2408 J -0.0187
G03 X 6.5812 Y 1.1435 Z -1.0000 I -0.1487 J 0.1792
G03 X 6.4659 Y 1.4686 Z -1.0000 I -0.6230 J -0.0379
G02 X 6.4237 Y 1.5534 Z -1.0000 I 0.2434 J 0.1740
G02 X 6.3608 Y 1.8052 Z -1.0000 I 2.1468 J 0.6707
G02 X 6.3973 Y 2.0197 Z -1.0000 I 0.3066 J 0.0581
G02 X 6.5858 Y 2.1937 Z -1.0000 I 0.3751 J -0.2173
G03 X 6.8366 Y 2.3390 Z -1.0000 I -0.7802 J 1.6360
G03 X 6.8598 Y 2.3832 Z -1.0000 I -0.0306 J 0.0442
G03 X 6.7316 Y 2.5390 Z -1.0000 I -0.1587 J 0.0000
G03 X 6.4418 Y 2.4651 Z -1.0000 I -0.0670 J -0.3423
G02 X 6.3369 Y 2.4078 Z -1.0000 I -0.1992 J 0.2400
G02 X 6.1110 Y 2.3602 Z -1.0000 I -0.3518 J 1.1094
G02 X 5.9512 Y 2.4187 Z -1.0000 I -0.0208 J 0.1907
G02 X 5.8758 Y 2.6076 Z -1.0000 I 0.1987 J 0.1889
G02 X 5.9523 Y 2.8226 Z -1.0000 I 0.3403 J -0.0000
G02 X 6.1645 Y 2.9618 Z -1.0000 I 0.3262 J -0.2659
G03 X 6.4945 Y 3.1089 Z -1.0000 I -0.3383 J 1.2024
G01 X 6.4793 Y 3.1612 Z -1.0000
G02 X 6.4210 Y 3.1947 Z -1.0000 I -0.0000 J 0.0675
G02 X 6.3875 Y 3.3186 Z -1.0000 I 0.2125 J 0.1239
G03 X 6.2655 Y 3.4227 Z -1.0000 I -0.1054 J 0.0000
G03 X 6.0167 Y 3.2596 Z -1.0000 I 0.0571 J -0.3584
G02 X 5.8646 Y 3.0561 Z -1.0000 I -1.4559 J 0.9295
G02 X 5.7389 Y 2.9399 Z -1.0000 I -0.5916 J 0.5141
G03 X 5.6175 Y 2.8212 Z -1.0000 I 0.3681 J -0.4980
G03 X 5.4797 Y 2.6053 Z -1.0000 I 1.1143 J -0.8634
G02 X 5.3366 Y 2.4124 Z -1.0000 I -0.6663 J 0.3446
G02 X 5.2420 Y 2.3739 Z -1.0000 I -0.0946 J 0.0972
G03 X 5.1594 Y 2.3307 Z -1.0000 I 0.0000 J -0.1006
G03 X 5.0762 Y 2.1354 Z -1.0000 I 0.4285 J -0.2977
G02 X 4.6850 Y 1.5335 Z -1.0000 I -0.9511 J 0.1902
G02 X 4.4194 Y 1.6710 Z -1.0000 I -0.0972 J 0.1375
G01 X 4.3923 Y 1.6899 Z -1.0000
G03 X 4.2859 Y 1.6219 Z -1.0000 I 0.1015 J -0.2759
G02 X 4.1580 Y 1.5883 Z -1.0000 I -0.0927 J 0.0927
G02 X 3.9775 Y 1.7078 Z -1.0000 I 0.0943 J 0.3385
G02 X 3.8184 Y 1.9370 Z -1.0000 I 1.6497 J 1.3155
G02 X 3.6190 Y 2.3049 Z -1.0000 I 4.0666 J 2.4419
G03 X 3.3987 Y 2.6254 Z -1.0000 I -1.1725 J -0.5701
G03 X 3.2628 Y 2.6858 Z -1.0000 I -0.1393 J -0.1302
G02 X 3.0965 Y 2.7856 Z -1.0000 I 0.0035 J 0.1943
G02 X 3.1446 Y 2.8982 Z -1.0000 I 0.0677 J 0.0377
G03 X 3.3720 Y 3.0923 Z -1.0000 I -0.0869 J 0.3321
G03 X 3.3130 Y 3.2818 Z -1.0000 I -0.1385 J 0.0608
G03 X 3.1192 Y 3.2749 Z -1.0000 I -0.0917 J -0.1484
G03 X 2.8522 Y 2.9489 Z -1.0000 I 0.4820 J -0.6672
G02 X 2.7459 Y 2.8043 Z -1.0000 I -0.3986 J 0.1816
G02 X 2.6497 Y 2.7675 Z -1.0000 I -0.0961 J 0.1073
G03 X 2.5900 Y 2.6832 Z -1.0000 I 0.0000 J -0.0633
G03 X 2.7384 Y 2.5160 Z -1.0000 I 0.2793 J 0.0984
G02 X 3.6185 Y 1.7716 Z -1.0000 I -1.0531 J -2.1374
G02 X 3.5799 Y 1.3482 Z -1.0000 I -0.2629 J -0.1895
G02 X 3.4361 Y 1.2796 Z -1.0000 I -0.1758 J 0.1833
G02 X 2.9131 Y 1.2634 Z -1.0000 I -0.3456 J 2.7185
G02 X 2.8140 Y 1.3076 Z -1.0000 I 0.0101 J 0.1560
G02 X 2.7433 Y 1.4292 Z -1.0000 I 0.1838 J 0.1882
G03 X 2.6727 Y 1.5485 Z -1.0000 I -0.2435 J -0.0637
G03 X 2.5767 Y 1.5867 Z -1.0000 I -0.0960 J -0.1016
G03 X 2.3051 Y 1.3259 Z -1.0000 I 0.0000 J -0.2718
G03 X 2.5497 Y 0.9241 Z -1.0000 I 0.4240 J -0.0173
G02 X 2.5789 Y 0.8782 Z -1.0000 I -0.0214 J -0.0459
G02 X 2.5497 Y 0.8322 Z -1.0000 I -0.0507 J 0.0000
G03 X 2.4822 Y 0.7666 Z -1.0000 I 0.0605 J -0.1296
G03 X 2.4512 Y 0.6354 Z -1.0000 I 0.2623 J -0.1312
G02 X 2.4061 Y 0.5297 Z -1.0000 I -0.1465 J 0.0000
G02 X 2.2938 Y 0.4845 Z -1.0000 I -0.1123 J 0.1172
G02 X 2.1881 Y 0.5363 Z -1.0000 I -0.0000 J 0.1339
G02 X 2.1363 Y 0.6871 Z -1.0000 I 0.1941 J 0.1509
G03 X 2.0017 Y 0.8102 Z -1.0000 I -0.1236 J 0.0000
G03 X 1.7735 Y 0.6543 Z -1.0000 I 0.0255 J -0.2823
G02 X 1.5451 Y 0.4160 Z -1.0000 I -0.4971 J 0.2478
G02 X 1.3835 Y 0.4388 Z -1.0000 I -0.0656 J 0.1187
G03 X 1.2491 Y 0.4848 Z -1.0000 I -0.1141 J -0.1141
G03 X 1.0656 Y 0.3984 Z -1.0000 I 0.0415 J -0.3258
G02 X 0.9017 Y 0.3159 Z -1.0000 I -0.2211 J 0.2353
G02 X 0.8305 Y 0.3561 Z -1.0000 I -0.0114 J 0.0631
G02 X 0.8149 Y 0.4869 Z -1.0000 I 0.2505 J 0.0961
G02 X 0.8786 Y 0.7252 Z -1.0000 I 0.9326 J -0.1216
G03 X 0.9062 Y 0.9438 Z -1.0000 I -0.3852 J 0.1596
G03 X 0.8285 Y 1.0756 Z -1.0000 I -0.1989 J -0.0284
G03 X 0.6757 Y 1.1764 Z -1.0000 I -0.8576 J -1.1328
G03 X 0.6272 Y 1.1906 Z -1.0000 I -0.0536 J -0.0939
G01 X 0.6005 Y 1.2179 Z -1.0000
G02 X 0.5668 Y 3.5440 Z -1.0000 I 103.8354 J 2.6675
G02 X 0.6186 Y 5.8670 Z -1.0000 I 45.3685 J 0.1492
G02 X 0.6845 Y 5.9991 Z -1.0000 I 0.1828 J -0.0088
G02 X 0.7997 Y 6.0404 Z -1.0000 I 0.1145 J -0.1380
G02 X 0.8749 Y 5.9983 Z -1.0000 I -0.0004 J -0.0887
G03 X 0.9613 Y 5.9467 Z -1.0000 I 0.0928 J 0.0574
G03 X 1.2632 Y 5.9755 Z -1.0000 I 0.0581 J 0.9890
G02 X 1.5609 Y 5.9950 Z -1.0000 I 0.2015 J -0.7940
G02 X 1.6647 Y 5.9280 Z -1.0000 I -0.0165 J -0.1394
G03 X 1.7426 Y 5.8865 Z -1.0000 I 0.0736 J 0.0443
G03 X 1.8254 Y 5.9362 Z -1.0000 I -0.0052 J 0.1024
G02 X 2.0188 Y 6.0487 Z -1.0000 I 0.1988 J -0.1192
G02 X 2.2008 Y 5.9448 Z -1.0000 I 0.0047 J -0.2031
G03 X 2.3494 Y 5.8877 Z -1.0000 I 0.1087 J 0.0608
G03 X 2.4512 Y 6.0296 Z -1.0000 I -0.0480 J 0.1419
G02 X 2.4750 Y 6.1222 Z -1.0000 I 0.1922 J -0.0000
G02 X 2.5562 Y 6.2205 Z -1.0000 I 0.2994 J -0.1647
G02 X 2.9011 Y 6.2758 Z -1.0000 I 0.2192 J -0.2641
G02 X 3.0804 Y 6.0142 Z -1.0000 I -0.1036 J -0.2633
G01 X 3.1153 Y 5.9727 Z -1.0000
G03 X 3.2188 Y 5.9888 Z -1.0000 I 0.0287 J 0.1561
G02 X 3.3594 Y 6.0558 Z -1.0000 I 0.7961 J -1.4891
G02 X 3.4993 Y 6.1070 Z -1.0000 I 0.6020 J -1.4288
G03 X 3.5903 Y 6.1709 Z -1.0000 I -0.0542 J 0.1738
G03 X 3.5931 Y 6.2308 Z -1.0000 I -0.0423 J 0.0320
G02 X 3.5892 Y 6.2850 Z -1.0000 I 0.0499 J 0.0308
G01 X 3.6275 Y 6.3101 Z -1.0000
G02 X 3.6824 Y 6.2817 Z -1.0000 I 0.0000 J -0.0672
G02 X 3.7108 Y 6.1920 Z -1.0000 I -0.1270 J -0.0896
G03 X 3.7592 Y 6.1223 Z -1.0000 I 0.0745 J 0.0000
G03 X 4.0257 Y 6.0739 Z -1.0000 I 0.2666 J 0.7108
G03 X 4.2923 Y 6.1223 Z -1.0000 I -0.0000 J 0.7592
G03 X 4.3406 Y 6.1920 Z -1.0000 I -0.0262 J 0.0698
G02 X 4.3910 Y 6.2597 Z -1.0000 I 0.0707 J 0.0000
G02 X 4.7343 Y 6.3101 Z -1.0000 I 0.3432 J -1.1441
G03 X 5.0924 Y 6.3456 Z -1.0000 I 0.0000 J 1.8262
G01 X 5.1279 Y 6.3888 Z -1.0000
G02 X 5.3270 Y 6.5802 Z -1.0000 I 0.1915 J 0.0000
G02 X 5.6268 Y 6.3692 Z -1.0000 I -0.0133 J -0.3374
G01 X 5.6512 Y 6.3612 Z -1.0000
G01 X 5.6727 Y 6.3978 Z -1.0000
G02 X 5.8394 Y 6.6272 Z -1.0000 I 0.2586 J -0.0127
G02 X 6.6853 Y 6.7825 Z -1.0000 I 0.8459 J -2.2269
G03 X 6.9818 Y 6.8180 Z -1.0000 I -0.0000 J 1.2554
G01 X 7.0173 Y 6.8631 Z -1.0000
G02 X 7.0466 Y 6.9236 Z -1.0000 I 0.0771 J -0.0000
G02 X 7.2141 Y 7.0186 Z -1.0000 I 0.3926 J -0.4968
G03 X 7.3720 Y 7.1203 Z -1.0000 I -0.1612 J 0.4240
G03 X 7.4109 Y 7.2135 Z -1.0000 I -0.0923 J 0.0932
G02 X 7.4509 Y 7.2935 Z -1.0000 I 0.1001 J -0.0000
G02 X 7.5708 Y 7.3335 Z -1.0000 I 0.1199 J -0.1598
G03 X 7.7059 Y 7.3696 Z -1.0000 I -0.0000 J 0.2709
G03 X 7.7760 Y 7.4516 Z -1.0000 I -0.0804 J 0.1398
G02 X 7.9829 Y 7.6097 Z -1.0000 I 0.2319 J -0.0890
G02 X 8.1194 Y 7.4863 Z -1.0000 I 0.0125 J -0.1234
G01 X 8.1447 Y 7.4482 Z -1.0000
G03 X 8.1994 Y 7.4524 Z -1.0000 I 0.0233 J 0.0550
G03 X 8.2432 Y 7.5104 Z -1.0000 I -0.0527 J 0.0853
G03 X 8.2341 Y 7.5752 Z -1.0000 I -0.0781 J 0.0221
G01 X 8.2462 Y 7.6165 Z -1.0000
G02 X 8.3857 Y 7.6484 Z -1.0000 I 0.1395 J -0.2884
G03 X 8.5667 Y 7.6768 Z -1.0000 I -0.0000 J 0.5927
G03 X 8.6311 Y 7.7272 Z -1.0000 I -0.0361 J 0.1125
G02 X 8.6955 Y 7.7777 Z -1.0000 I 0.1009 J -0.0623
G02 X 8.8747 Y 7.8059 Z -1.0000 I 0.1792 J -0.5545
G03 X 9.0609 Y 7.8351 Z -1.0000 I -0.0000 J 0.6079
G03 X 9.2578 Y 7.9292 Z -1.0000 I -0.2494 J 0.7752
G02 X 9.4562 Y 8.0211 Z -1.0000 I 0.4114 J -0.6279
G02 X 9.7233 Y 8.0669 Z -1.0000 I 0.3273 J -1.1060
G03 X 9.9648 Y 8.1342 Z -1.0000 I -0.0301 J 0.5753
G03 X 10.0818 Y 8.2586 Z -1.0000 I -0.1259 J 0.2356
G02 X 10.1896 Y 8.3940 Z -1.0000 I 0.3269 J -0.1497
G02 X 10.3124 Y 8.4357 Z -1.0000 I 0.1227 J -0.1598
G03 X 10.4475 Y 8.4663 Z -1.0000 I -0.0000 J 0.3138
G03 X 10.5599 Y 8.5538 Z -1.0000 I -0.1428 J 0.2993
G02 X 10.6717 Y 8.6425 Z -1.0000 I 0.2669 J -0.2215
G02 X 10.7961 Y 8.6719 Z -1.0000 I 0.1244 J -0.2488
G03 X 10.9306 Y 8.6901 Z -1.0000 I 0.0000 J 0.5054
G03 X 11.2037 Y 8.7844 Z -1.0000 I -0.6093 J 2.2061
G02 X 11.4786 Y 8.8759 Z -1.0000 I 0.7481 J -1.7903
G02 X 11.7841 Y 8.9304 Z -1.0000 I 0.5431 J -2.1597
G03 X 12.1735 Y 8.9979 Z -1.0000 I -0.3256 J 3.0343
G03 X 13.2365 Y 9.2804 Z -1.0000 I -5.5375 J 22.9757
G02 X 13.9233 Y 9.3457 Z -1.0000 I 0.5146 J -1.7694
G02 X 14.2345 Y 9.1868 Z -1.0000 I -0.0442 J -0.4705
G03 X 14.3919 Y 9.0674 Z -1.0000 I 0.3701 J 0.3246
G01 X 14.4418 Y 9.0875 Z -1.0000
G01 X 14.4786 Y 9.1000 Z -1.0000
G02 X 14.5402 Y 9.0261 Z -1.0000 I -0.0815 J -0.1307
G03 X 14.6998 Y 8.8291 Z -1.0000 I 0.3948 J 0.1566
G03 X 14.9526 Y 8.7518 Z -1.0000 I 0.2559 J 0.3847
G03 X 15.5863 Y 9.2357 Z -1.0000 I 0.0043 J 0.6512
G03 X 15.3107 Y 10.0989 Z -1.0000 I -0.8129 J 0.2161
G03 X 15.1665 Y 10.1672 Z -1.0000 I -0.2055 J -0.2475
G03 X 14.7793 Y 10.2020 Z -1.0000 I -0.3635 J -1.8740
G03 X 12.9159 Y 10.0198 Z -1.0000 I 0.1365 J -11.0155
G03 X 11.4966 Y 9.5960 Z -1.0000 I 1.2519 J -6.7815
G02 X 11.2076 Y 9.4955 Z -1.0000 I -0.9395 J 2.2360
G02 X 10.8668 Y 9.4206 Z -1.0000 I -0.8474 J 3.0431
G03 X 10.0499 Y 9.2464 Z -1.0000 I 1.3648 J -8.4019
G03 X 8.7886 Y 8.8696 Z -1.0000 I 5.4204 J -20.4420
G02 X 6.8674 Y 8.2515 Z -1.0000 I -31.3196 J 94.0523
G02 X 5.7577 Y 7.9284 Z -1.0000 I -9.6430 J 31.0529
G03 X 5.3257 Y 7.8073 Z -1.0000 I 7.5725 J -27.8422
G03 X 4.4981 Y 7.5647 Z -1.0000 I 29.5183 J -102.2265
G02 X 2.5177 Y 7.0335 Z -1.0000 I -10.7661 J 36.1818
G02 X 1.5459 Y 6.8582 Z -1.0000 I -2.0378 J 8.5155
G03 X 0.9173 Y 6.7739 Z -1.0000 I 3.4524 J -28.1451
G03 X 0.7390 Y 6.7408 Z -1.0000 I 0.3339 J -2.2960
G02 X 0.6174 Y 6.7703 Z -1.0000 I -0.0311 J 0.1374
G02 X 0.5619 Y 6.8893 Z -1.0000 I 0.0998 J 0.1190
G02 X 0.6340 Y 7.0134 Z -1.0000 I 0.1429 J 0.0000
G02 X 0.9752 Y 7.1247 Z -1.0000 I 0.4417 J -0.7754
G03 X 2.6123 Y 7.3997 Z -1.0000 I -1.7472 J 15.4116
G03 X 4.1804 Y 7.8414 Z -1.0000 I -3.2596 J 14.5787
G02 X 4.7713 Y 8.0229 Z -1.0000 I 3.2239 J -9.4404
G02 X 4.9138 Y 8.0421 Z -1.0000 I 0.1425 J -0.5208
G03 X 5.0547 Y 8.0614 Z -1.0000 I 0.0000 J 0.5233
G03 X 5.2188 Y 8.1273 Z -1.0000 I -0.2180 J 0.7799
G02 X 5.4660 Y 8.2279 Z -1.0000 I 0.6001 J -1.1212
G02 X 7.0960 Y 8.6694 Z -1.0000 I 14.1236 J -48.9089
G03 X 7.3684 Y 8.7495 Z -1.0000 I -0.9137 J 3.6095
G03 X 8.2769 Y 9.0662 Z -1.0000 I -13.6327 J 40.5685
G02 X 9.1871 Y 9.3755 Z -1.0000 I 8.5442 J -23.6513
G02 X 9.4971 Y 9.4550 Z -1.0000 I 0.8458 J -2.6549
G03 X 9.8092 Y 9.5257 Z -1.0000 I -1.0497 J 5.3563
G03 X 9.9301 Y 9.5665 Z -1.0000 I -0.2163 J 0.8395
G02 X 10.0515 Y 9.6052 Z -1.0000 I 0.2736 J -0.6482
G02 X 10.6386 Y 9.7235 Z -1.0000 I 3.3583 J -15.1600
G03 X 11.2243 Y 9.8483 Z -1.0000 I -1.7467 J 9.6302
G03 X 11.5833 Y 9.9553 Z -1.0000 I -0.9127 J 3.7196
G02 X 12.8694 Y 10.3224 Z -1.0000 I 3.6784 J -10.4497
G02 X 13.6134 Y 10.4042 Z -1.0000 I 0.7492 J -3.3875
G03 X 13.9029 Y 10.4251 Z -1.0000 I -0.0031 J 2.0634
G03 X 14.2141 Y 10.4903 Z -1.0000 I -0.3511 J 2.4506
G02 X 15.5114 Y 10.6848 Z -1.0000 I 1.4422 J -5.1947
G02 X 15.8866 Y 10.5353 Z -1.0000 I 0.0137 J -0.5111
G01 X 15.8900 Y 10.4875 Z -1.0000
G02 X 15.7208 Y 10.3146 Z -1.0000 I -0.7461 J 0.5604
G03 X 15.5760 Y 10.1190 Z -1.0000 I 0.2853 J -0.3627
G03 X 15.5598 Y 9.9001 Z -1.0000 I 0.3499 J -0.1360
G02 X 15.6118 Y 9.6553 Z -1.0000 I -9.1363 J -2.0677
G02 X 15.6395 Y 9.4985 Z -1.0000 I -3.7110 J -0.7362
G03 X 15.6643 Y 9.3411 Z -1.0000 I 28.6009 J 4.4322
G03 X 15.6704 Y 9.3056 Z -1.0000 I 1.4854 J 0.2386
G01 X 15.6857 Y 9.2984 Z -1.0000
G03 X 15.7653 Y 9.3585 Z -1.0000 I -0.1756 J 0.3153
G02 X 15.8610 Y 9.4119 Z -1.0000 I 0.1421 J -0.1421
G02 X 15.9621 Y 9.4052 Z -1.0000 I 0.0396 J -0.1670
G03 X 16.0293 Y 9.4236 Z -1.0000 I 0.0211 J 0.0549
G03 X 16.0706 Y 9.5425 Z -1.0000 I -0.1505 J 0.1189
G01 X 16.1248 Y 9.5629 Z -1.0000
G02 X 16.2191 Y 9.3727 Z -1.0000 I -0.3127 J -0.2734
G03 X 16.3522 Y 9.2239 Z -1.0000 I 0.1941 J 0.0397
G03 X 16.9382 Y 9.1402 Z -1.0000 I 0.5355 J 1.6563
G03 X 18.1620 Y 9.2077 Z -1.0000 I -0.6816 J 23.4953
G03 X 18.2461 Y 9.2466 Z -1.0000 I -0.0109 J 0.1339
G02 X 18.3100 Y 9.2804 Z -1.0000 I 0.0866 J -0.0866
G02 X 18.5373 Y 9.3017 Z -1.0000 I 0.2274 J -1.2033
G02 X 18.6366 Y 9.2416 Z -1.0000 I 0.0000 J -0.1122
G01 X 18.6029 Y 9.1768 Z -1.0000
G03 X 18.5515 Y 9.1656 Z -1.0000 I 0.0387 J -0.3023
G03 X 18.4323 Y 9.1240 Z -1.0000 I 0.5273 J -1.7039
G02 X 18.3110 Y 9.0911 Z -1.0000 I -0.2165 J 0.5568
G02 X 17.6845 Y 9.0033 Z -1.0000 I -2.4117 J 14.9366
G03 X 16.5211 Y 8.7501 Z -1.0000 I 0.7329 J -6.1685
G03 X 16.4896 Y 8.6202 Z -1.0000 I 0.0239 J -0.0745
G03 X 16.5411 Y 8.6047 Z -1.0000 I 0.0402 J 0.0402
G03 X 16.6395 Y 8.6506 Z -1.0000 I -0.0459 J 0.2271
G02 X 16.7511 Y 8.7023 Z -1.0000 I 0.1624 J -0.2040
G02 X 17.3193 Y 8.7855 Z -1.0000 I 1.1054 J -5.5691
G02 X 17.5797 Y 8.6984 Z -1.0000 I 0.0320 J -0.3370
G02 X 17.5799 Y 8.5473 Z -1.0000 I -0.0691 J -0.0756
G03 X 17.4045 Y 8.2596 Z -1.0000 I 0.4129 J -0.4490
G03 X 17.4572 Y 8.0997 Z -1.0000 I 0.1468 J -0.0402
G02 X 17.4702 Y 8.0145 Z -1.0000 I -0.0390 J -0.0496
G02 X 17.3875 Y 7.9982 Z -1.0000 I -0.0497 J 0.0341
G03 X 17.2056 Y 8.0265 Z -1.0000 I -0.1222 J -0.1865
G03 X 16.9536 Y 7.8775 Z -1.0000 I 0.1511 J -0.5431
G03 X 16.7575 Y 7.6212 Z -1.0000 I 0.9549 J -0.9336
G03 X 16.7501 Y 7.5318 Z -1.0000 I 0.0891 J -0.0524
G02 X 16.7004 Y 7.4226 Z -1.0000 I -0.0785 J -0.0301
G02 X 16.2084 Y 7.3346 Z -1.0000 I -0.4992 J 1.3717
G03 X 16.0723 Y 7.1894 Z -1.0000 I 0.0007 J -0.1371
G03 X 16.2407 Y 6.7894 Z -1.0000 I 0.6510 J 0.0386
G03 X 16.4934 Y 6.6017 Z -1.0000 I 0.6030 J 0.5481
G03 X 16.6123 Y 6.6124 Z -1.0000 I 0.0504 J 0.1059
G02 X 16.7444 Y 6.6959 Z -1.0000 I 0.7624 J -1.0598
G02 X 16.9189 Y 6.7815 Z -1.0000 I 0.9753 J -1.7689
G03 X 17.0756 Y 6.8804 Z -1.0000 I -0.2374 J 0.5497
G03 X 17.1438 Y 6.9781 Z -1.0000 I -0.1630 J 0.1864
G02 X 17.2049 Y 7.0752 Z -1.0000 I 0.2764 J -0.1060
G02 X 17.2563 Y 7.0974 Z -1.0000 I 0.0515 J -0.0485
G03 X 17.7889 Y 7.3472 Z -1.0000 I -0.0000 J 0.6924
G03 X 18.0387 Y 8.0389 Z -1.0000 I -0.8323 J 0.6916
G02 X 18.0621 Y 8.0974 Z -1.0000 I 0.0850 J -0.0000
G02 X 18.1165 Y 8.1208 Z -1.0000 I 0.0544 J -0.0517
G01 X 18.1598 Y 8.1518 Z -1.0000
G03 X 18.1756 Y 8.2958 Z -1.0000 I -0.3201 J 0.1080
G02 X 18.1934 Y 8.4388 Z -1.0000 I 0.3133 J 0.0336
G02 X 18.2412 Y 8.4729 Z -1.0000 I 0.0491 J -0.0182
G03 X 18.4900 Y 8.5790 Z -1.0000 I -0.0092 J 0.3665
G03 X 18.5898 Y 8.8184 Z -1.0000 I -0.2372 J 0.2394
G02 X 18.6529 Y 8.8993 Z -1.0000 I 0.0834 J 0.0000
G02 X 19.2393 Y 8.9817 Z -1.0000 I 0.6778 J -2.6954
G02 X 19.5648 Y 8.9440 Z -1.0000 I 0.0366 J -1.1074
G02 X 19.6132 Y 8.8807 Z -1.0000 I -0.0171 J -0.0632
G03 X 19.7327 Y 8.7111 Z -1.0000 I 0.1801 J 0.0000
G03 X 19.9704 Y 8.7530 Z -1.0000 I 0.0820 J 0.2295
G02 X 20.0634 Y 8.7871 Z -1.0000 I 0.0943 J -0.1136
G02 X 20.1226 Y 8.7544 Z -1.0000 I 0.0006 J -0.0688
G03 X 20.1870 Y 8.6960 Z -1.0000 I 0.1333 J 0.0824
G03 X 20.2914 Y 8.6719 Z -1.0000 I 0.1044 J 0.2135
G02 X 20.8257 Y 8.5404 Z -1.0000 I -0.0000 J -1.1509
G02 X 21.5948 Y 7.9888 Z -1.0000 I -1.5808 J -3.0164
G02 X 21.7490 Y 7.7660 Z -1.0000 I -0.4616 J -0.4841
G02 X 21.7916 Y 7.5251 Z -1.0000 I -0.5020 J -0.2130
G02 X 21.7323 Y 7.3805 Z -1.0000 I -0.2351 J 0.0120
G01 X 21.6609 Y 7.3784 Z -1.0000
G02 X 21.5709 Y 7.5063 Z -1.0000 I 0.3162 J 0.3180
G02 X 21.5428 Y 7.6307 Z -1.0000 I 0.2700 J 0.1263
G03 X 21.4955 Y 7.7128 Z -1.0000 I -0.0959 J -0.0006
G03 X 21.3562 Y 7.7405 Z -1.0000 I -0.1093 J -0.1859
G02 X 21.2285 Y 7.7523 Z -1.0000 I -0.0388 J 0.2763
G01 X 21.2158 Y 7.7877 Z -1.0000
G03 X 21.1918 Y 7.8734 Z -1.0000 I -0.0515 J 0.0318
G03 X 20.4792 Y 8.1630 Z -1.0000 I -2.0499 J -4.0227
G02 X 20.0492 Y 8.3048 Z -1.0000 I 3.7568 J 12.1142
G02 X 19.9251 Y 8.3568 Z -1.0000 I 0.3699 J 1.0578
G03 X 19.7997 Y 8.4030 Z -1.0000 I -0.2856 J -0.5814
G03 X 19.4731 Y 8.4722 Z -1.0000 I -1.0009 J -3.9211
G03 X 19.2061 Y 8.3919 Z -1.0000 I -0.0524 J -0.3101
G03 X 18.9493 Y 7.9831 Z -1.0000 I 0.6438 J -0.6894
G03 X 19.0230 Y 7.8563 Z -1.0000 I 0.0949 J -0.0296
G03 X 19.2196 Y 7.9240 Z -1.0000 I 0.0427 J 0.1954
G02 X 19.3333 Y 8.0086 Z -1.0000 I 0.2307 J -0.1915
G02 X 19.4982 Y 8.0421 Z -1.0000 I 0.1649 J -0.3890
G03 X 19.6571 Y 8.0755 Z -1.0000 I -0.0000 J 0.3949
G03 X 19.7222 Y 8.1405 Z -1.0000 I -0.0511 J 0.1162
G01 X 19.7876 Y 8.1211 Z -1.0000
G02 X 19.6076 Y 7.4410 Z -1.0000 I -3.6093 J 0.5914
G02 X 19.5137 Y 7.3024 Z -1.0000 I -0.3295 J 0.1221
G02 X 19.3028 Y 7.1655 Z -1.0000 I -0.5322 J 0.5888
G03 X 19.1150 Y 7.0355 Z -1.0000 I 0.2463 J -0.5564
G03 X 19.0988 Y 6.9579 Z -1.0000 I 0.0523 J -0.0513
G01 X 19.0788 Y 6.9239 Z -1.0000
G02 X 18.9806 Y 6.9415 Z -1.0000 I -0.0222 J 0.1596
G03 X 18.6732 Y 6.9650 Z -1.0000 I -0.1805 J -0.3372
G03 X 18.6584 Y 6.8281 Z -1.0000 I 0.0253 J -0.0720
G03 X 18.7209 Y 6.8205 Z -1.0000 I 0.0395 J 0.0640
G01 X 18.7472 Y 6.8566 Z -1.0000
G02 X 18.7706 Y 6.9166 Z -1.0000 I 0.0890 J 0.0000
G02 X 18.8235 Y 6.9400 Z -1.0000 I 0.0529 J -0.0484
G01 X 18.8586 Y 6.9116 Z -1.0000
G02 X 18.8509 Y 6.8128 Z -1.0000 I -0.1698 J -0.0366
G01 X 18.8735 Y 6.7529 Z -1.0000
G03 X 18.9834 Y 6.7431 Z -1.0000 I 0.0666 J 0.1267
G02 X 19.0909 Y 6.7311 Z -1.0000 I 0.0403 J -0.1269
G02 X 19.1134 Y 6.6671 Z -1.0000 I -0.0265 J -0.0453
G03 X 19.0712 Y 6.5318 Z -1.0000 I 1.0382 J -0.3984
G03 X 19.0621 Y 6.4565 Z -1.0000 I 0.3090 J -0.0753
G01 X 19.0381 Y 6.4226 Z -1.0000
G02 X 18.9828 Y 6.4286 Z -1.0000 I -0.0214 J 0.0609
G03 X 18.9083 Y 6.4362 Z -1.0000 I -0.0450 J -0.0729
G03 X 18.7804 Y 6.3545 Z -1.0000 I 0.1211 J -0.3308
G02 X 18.6474 Y 6.2553 Z -1.0000 I -0.4078 J 0.4078
G02 X 18.5532 Y 6.2314 Z -1.0000 I -0.0942 J 0.1737
G03 X 18.4692 Y 6.2022 Z -1.0000 I 0.0000 J -0.1354
G03 X 18.4039 Y 6.1133 Z -1.0000 I 0.1294 J -0.1636
G03 X 18.4109 Y 6.0312 Z -1.0000 I 0.0881 J -0.0338
G03 X 18.4742 Y 5.9953 Z -1.0000 I 0.0633 J 0.0377
G02 X 18.5556 Y 5.9610 Z -1.0000 I 0.0000 J -0.1139
G02 X 18.5898 Y 5.8772 Z -1.0000 I -0.0857 J -0.0839
G03 X 18.6136 Y 5.7829 Z -1.0000 I 0.1980 J -0.0000
G01 X 18.6537 Y 5.7591 Z -1.0000
G02 X 18.9436 Y 5.6405 Z -1.0000 I 0.0000 J -0.4136
G02 X 19.0621 Y 5.3577 Z -1.0000 I -0.2778 J -0.2827
G01 X 19.0376 Y 5.3215 Z -1.0000
G02 X 18.9833 Y 5.3262 Z -1.0000 I -0.0225 J 0.0562
G01 X 18.9232 Y 5.3195 Z -1.0000
G03 X 18.8278 Y 5.1734 Z -1.0000 I 0.2861 J -0.2911
G02 X 18.7126 Y 5.0292 Z -1.0000 I -0.2822 J 0.1073
G02 X 18.5327 Y 4.9774 Z -1.0000 I -0.1721 J 0.2590
G02 X 18.4623 Y 5.0114 Z -1.0000 I 0.0024 J 0.0947
G01 X 18.4717 Y 5.0506 Z -1.0000
G03 X 18.5609 Y 5.1068 Z -1.0000 I -0.1333 J 0.3103
G01 X 18.5553 Y 5.1237 Z -1.0000
G01 X 18.5414 Y 5.1503 Z -1.0000
G02 X 18.6537 Y 5.2898 Z -1.0000 I 0.5399 J -0.3197
G03 X 18.7326 Y 5.5009 Z -1.0000 I -0.1720 J 0.1846
G03 X 18.6207 Y 5.6016 Z -1.0000 I -0.1119 J -0.0118
G03 X 18.4820 Y 5.5559 Z -1.0000 I -0.0000 J -0.2336
G03 X 18.4608 Y 5.4835 Z -1.0000 I 0.0370 J -0.0501
G02 X 18.4697 Y 5.3905 Z -1.0000 I -0.1626 J -0.0624
G01 X 18.4397 Y 5.3655 Z -1.0000
G01 X 18.3959 Y 5.3930 Z -1.0000
G02 X 18.3261 Y 5.6016 Z -1.0000 I 0.7915 J 0.3809
G03 X 18.2093 Y 5.7171 Z -1.0000 I -0.1440 J -0.0288
G03 X 18.1174 Y 5.6410 Z -1.0000 I -0.0144 J -0.0761
G03 X 18.1492 Y 5.4760 Z -1.0000 I 0.4443 J 0.0000
G03 X 18.1962 Y 5.4442 Z -1.0000 I 0.0469 J 0.0188
G02 X 18.2480 Y 5.4173 Z -1.0000 I -0.0000 J -0.0635
G02 X 18.2749 Y 5.3327 Z -1.0000 I -0.1199 J -0.0847
G03 X 18.3025 Y 5.2397 Z -1.0000 I 0.1704 J -0.0000
G03 X 18.3733 Y 5.1814 Z -1.0000 I 0.1280 J 0.0833
G01 X 18.3791 Y 5.1575 Z -1.0000
G02 X 18.3339 Y 5.1355 Z -1.0000 I -0.0480 J 0.0412
G02 X 18.2329 Y 5.1677 Z -1.0000 I -0.0069 J 0.1532
G02 X 18.1962 Y 5.2427 Z -1.0000 I 0.0584 J 0.0751
G03 X 18.1111 Y 5.4226 Z -1.0000 I -0.2328 J 0.0000
G03 X 17.9847 Y 5.4165 Z -1.0000 I -0.0598 J -0.0728
G01 X 17.9777 Y 5.3730 Z -1.0000
G03 X 18.0714 Y 5.2428 Z -1.0000 I 0.4467 J 0.2229
G02 X 18.1599 Y 5.1022 Z -1.0000 I -0.2649 J -0.2649
G02 X 18.1627 Y 4.9832 Z -1.0000 I -0.1813 J -0.0638
G03 X 18.2152 Y 4.6538 Z -1.0000 I 0.3675 J -0.1102
G03 X 18.4217 Y 4.6110 Z -1.0000 I 0.1258 J 0.0876
G02 X 18.4913 Y 4.6219 Z -1.0000 I 0.0479 J -0.0775
G02 X 18.5496 Y 4.5795 Z -1.0000 I -0.0228 J -0.0925
G01 X 18.5462 Y 4.5290 Z -1.0000
G02 X 18.4837 Y 4.4995 Z -1.0000 I -0.0625 J 0.0515
G03 X 18.4204 Y 4.4593 Z -1.0000 I 0.0000 J -0.0700
G03 X 18.4095 Y 4.3420 Z -1.0000 I 0.1562 J -0.0736
G02 X 18.4075 Y 4.2179 Z -1.0000 I -0.2233 J -0.0584
G01 X 18.3628 Y 4.1846 Z -1.0000
G02 X 18.3097 Y 4.2194 Z -1.0000 I 0.0000 J 0.0578
G02 X 18.2749 Y 4.3880 Z -1.0000 I 0.3898 J 0.1685
G03 X 18.2351 Y 4.5354 Z -1.0000 I -0.2932 J 0.0000
G01 X 18.1765 Y 4.5571 Z -1.0000
G03 X 18.1129 Y 4.4991 Z -1.0000 I 0.0358 J -0.1031
G03 X 18.0843 Y 4.3537 Z -1.0000 I 0.2944 J -0.1334
G02 X 18.0644 Y 4.2098 Z -1.0000 I -0.4203 J -0.0154
G01 X 18.0299 Y 4.1846 Z -1.0000
G02 X 17.9062 Y 4.2634 Z -1.0000 I 0.0000 J 0.1365
G02 X 17.8699 Y 4.5278 Z -1.0000 I 0.4095 J 0.1909
G03 X 17.8505 Y 4.6091 Z -1.0000 I -0.1066 J 0.0176
G01 X 17.8037 Y 4.6183 Z -1.0000
G03 X 17.7466 Y 4.5586 Z -1.0000 I 0.0863 J -0.1397
G01 X 17.7514 Y 4.5244 Z -1.0000
G02 X 17.7510 Y 4.3255 Z -1.0000 I -0.0993 J -0.0993
G02 X 17.4089 Y 4.1846 Z -1.0000 I -0.3421 J 0.3448
G02 X 17.3487 Y 4.2591 Z -1.0000 I 0.0000 J 0.0616
G02 X 17.4564 Y 4.4048 Z -1.0000 I 0.2151 J -0.0463
G03 X 17.5815 Y 4.6243 Z -1.0000 I -0.1195 J 0.2136
G03 X 17.4488 Y 4.7201 Z -1.0000 I -0.1028 J -0.0025
G03 X 17.4027 Y 4.6777 Z -1.0000 I 0.0211 J -0.0692
G03 X 17.3957 Y 4.5869 Z -1.0000 I 0.1422 J -0.0566
G01 X 17.3637 Y 4.5329 Z -1.0000
G02 X 17.1787 Y 4.5258 Z -1.0000 I -0.1073 J 0.3816
G03 X 16.9661 Y 4.5382 Z -1.0000 I -0.1502 J -0.7508
G01 X 16.9365 Y 4.5061 Z -1.0000
G02 X 16.9097 Y 4.4588 Z -1.0000 I -0.0551 J 0.0000
G02 X 16.7397 Y 4.3884 Z -1.0000 I -0.3235 J 0.5413
G03 X 16.6230 Y 4.2705 Z -1.0000 I 0.0390 J -0.1553
G03 X 16.6907 Y 4.1846 Z -1.0000 I 0.0677 J -0.0163
G02 X 16.9199 Y 4.0659 Z -1.0000 I 0.0000 J -0.2806
G02 X 17.0012 Y 3.7448 Z -1.0000 I -0.3772 J -0.2664
G02 X 16.9240 Y 3.6828 Z -1.0000 I -0.0702 J 0.0084
G02 X 16.7397 Y 3.7707 Z -1.0000 I 0.0296 J 0.2993
G03 X 16.1596 Y 4.1190 Z -1.0000 I -0.9706 J -0.9594
G03 X 15.9918 Y 3.9940 Z -1.0000 I -0.0373 J -0.1250
G02 X 15.9663 Y 3.8952 Z -1.0000 I -0.2039 J 0.0000
G01 X 15.9229 Y 3.8697 Z -1.0000
G03 X 15.8773 Y 3.8413 Z -1.0000 I -0.0000 J -0.0509
G03 X 15.8071 Y 3.6351 Z -1.0000 I 0.7500 J -0.3702
G02 X 15.7235 Y 3.4671 Z -1.0000 I -0.3521 J 0.0704
G02 X 15.6398 Y 3.4467 Z -1.0000 I -0.0566 J 0.0502
G02 X 15.5425 Y 3.5088 Z -1.0000 I 0.1033 J 0.2693
G02 X 15.5195 Y 3.5632 Z -1.0000 I 0.0527 J 0.0544
G03 X 15.4977 Y 3.6118 Z -1.0000 I -0.0651 J 0.0000
G03 X 15.4407 Y 3.6335 Z -1.0000 I -0.0570 J -0.0638
G01 X 15.3953 Y 3.6001 Z -1.0000
G03 X 15.3608 Y 3.3777 Z -1.0000 I 0.7234 J -0.2260
G02 X 15.3353 Y 3.1289 Z -1.0000 I -1.2843 J 0.0061
G02 X 15.2852 Y 3.0041 Z -1.0000 I -0.3641 J 0.0737
G02 X 15.2073 Y 2.9709 Z -1.0000 I -0.0630 J 0.0399
G02 X 15.0921 Y 3.0435 Z -1.0000 I 0.0385 J 0.1887
G02 X 14.9990 Y 3.2096 Z -1.0000 I 0.5583 J 0.4219
G02 X 14.9686 Y 3.3580 Z -1.0000 I 0.4124 J 0.1619
G03 X 14.7406 Y 3.9119 Z -1.0000 I -0.8504 J -0.0261
G03 X 14.3732 Y 3.9968 Z -1.0000 I -0.2466 J -0.2298
G03 X 14.2847 Y 3.9363 Z -1.0000 I 0.0830 J -0.2164
G03 X 14.2599 Y 3.8722 Z -1.0000 I 0.0706 J -0.0642
G02 X 14.2319 Y 3.8189 Z -1.0000 I -0.0646 J -0.0000
G02 X 14.1418 Y 3.7910 Z -1.0000 I -0.0901 J 0.1310
G03 X 14.0008 Y 3.6573 Z -1.0000 I 0.0000 J -0.1412
G03 X 14.1221 Y 3.4209 Z -1.0000 I 0.2635 J -0.0140
G02 X 14.2125 Y 3.3491 Z -1.0000 I -0.3052 J -0.4770
G02 X 14.3322 Y 3.2158 Z -1.0000 I -0.9532 J -0.9763
G02 X 14.3684 Y 3.1217 Z -1.0000 I -0.1343 J -0.1055
G01 X 14.3401 Y 3.0977 Z -1.0000
G03 X 14.2002 Y 3.0406 Z -1.0000 I -0.0296 J -0.1275
G03 X 13.9130 Y 2.4280 Z -1.0000 I 2.2102 J -1.4098
G02 X 13.8064 Y 2.3867 Z -1.0000 I -0.0699 J 0.0223
G02 X 13.5882 Y 2.6151 Z -1.0000 I 0.2800 J 0.4860
G02 X 13.5619 Y 2.7895 Z -1.0000 I 0.2432 J 0.1257
G02 X 13.6299 Y 2.8463 Z -1.0000 I 0.0680 J -0.0123
G03 X 13.6926 Y 2.8995 Z -1.0000 I 0.0000 J 0.0636
G03 X 13.6622 Y 3.0431 Z -1.0000 I -0.1994 J 0.0328
G03 X 13.4161 Y 3.2439 Z -1.0000 I -0.4406 J -0.2887
G03 X 13.3512 Y 3.1666 Z -1.0000 I -0.0196 J -0.0494
G02 X 13.3575 Y 3.1025 Z -1.0000 I -0.0623 J -0.0385
G02 X 13.3022 Y 3.0350 Z -1.0000 I -0.1263 J 0.0471
G02 X 13.0057 Y 3.0768 Z -1.0000 I -0.1231 J 0.1991
G02 X 12.6341 Y 3.7711 Z -1.0000 I 1.1994 J 1.0885
G03 X 12.5622 Y 3.9075 Z -1.0000 I -0.3159 J -0.0793
G03 X 12.4989 Y 3.9240 Z -1.0000 I -0.0439 J -0.0388
G03 X 12.4335 Y 3.8306 Z -1.0000 I 0.0324 J -0.0923
G03 X 12.5041 Y 3.4761 Z -1.0000 I 0.9831 J 0.0114
G02 X 12.5189 Y 3.1332 Z -1.0000 I -0.4803 J -0.1925
G02 X 12.2717 Y 2.7105 Z -1.0000 I -1.0084 J 0.3061
G03 X 12.1106 Y 2.4427 Z -1.0000 I 0.5120 J -0.4902
G03 X 12.1209 Y 2.2541 Z -1.0000 I 0.2458 J -0.0812
G02 X 12.1756 Y 1.9697 Z -1.0000 I -0.5605 J -0.2554
G02 X 12.1042 Y 1.9016 Z -1.0000 I -0.0714 J 0.0034
G03 X 12.0229 Y 1.8659 Z -1.0000 I 0.0000 J -0.1105
G03 X 11.9521 Y 1.7362 Z -1.0000 I 0.2250 J -0.2070
G02 X 11.8876 Y 1.6238 Z -1.0000 I -0.2398 J 0.0627
G01 X 11.8334 Y 1.6174 Z -1.0000
G03 X 11.6380 Y 1.5814 Z -1.0000 I -0.0778 J -0.1259
G03 X 11.5046 Y 1.1874 Z -1.0000 I 0.5154 J -0.3940
G01 X 11.5353 Y 1.1422 Z -1.0000
G03 X 11.6202 Y 1.1418 Z -1.0000 I 0.0429 J 0.1088
G02 X 11.7239 Y 1.1511 Z -1.0000 I 0.0681 J -0.1774
G02 X 11.7823 Y 1.1109 Z -1.0000 I -0.0165 J -0.0865
G02 X 11.7852 Y 1.0599 Z -1.0000 I -0.0456 J -0.0282
G01 X 11.7469 Y 1.0356 Z -1.0000
G03 X 11.6892 Y 1.0047 Z -1.0000 I 0.0000 J -0.0694
G03 X 11.6157 Y 0.8388 Z -1.0000 I 0.4432 J -0.2956
G02 X 11.5490 Y 0.6641 Z -1.0000 I -0.7654 J 0.1921
G01 X 11.5123 Y 0.6420 Z -1.0000
G02 X 11.4705 Y 0.6632 Z -1.0000 I -0.0000 J 0.0518
G02 X 11.2257 Y 1.0340 Z -1.0000 I 3.7538 J 2.7448
G03 X 10.9798 Y 1.4038 Z -1.0000 I -3.7387 J -2.2196
G03 X 10.9338 Y 1.4276 Z -1.0000 I -0.0475 J -0.0352
G01 X 10.8948 Y 1.4487 Z -1.0000
G02 X 10.8748 Y 1.5126 Z -1.0000 I 0.0919 J 0.0639
G01 X 10.8990 Y 1.5525 Z -1.0000
G01 X 10.9481 Y 1.5507 Z -1.0000
G03 X 11.0673 Y 1.6045 Z -1.0000 I 0.0415 J 0.0671
G03 X 10.9899 Y 1.7954 Z -1.0000 I -0.1929 J 0.0329
G03 X 10.7274 Y 1.8773 Z -1.0000 I -0.2513 J -0.3437
G03 X 10.6386 Y 1.7862 Z -1.0000 I 0.0024 J -0.0911
G02 X 10.6055 Y 1.6907 Z -1.0000 I -0.1541 J 0.0000
G02 X 10.4812 Y 1.5866 Z -1.0000 I -0.3116 J 0.2458
G03 X 10.3707 Y 1.4228 Z -1.0000 I 0.0998 J -0.1865
G03 X 10.4418 Y 1.2211 Z -1.0000 I 0.2463 J -0.0265
G02 X 10.5194 Y 0.9819 Z -1.0000 I -0.1957 J -0.1957
G02 X 10.3731 Y 0.7896 Z -1.0000 I -0.2523 J 0.0402
G02 X 10.1876 Y 0.7483 Z -1.0000 I -0.1903 J 0.4178
G02 X 10.0339 Y 0.7860 Z -1.0000 I -0.0034 J 0.3184
G02 X 9.5605 Y 1.2639 Z -1.0000 I 0.5391 J 1.0073
G02 X 9.5749 Y 1.6639 Z -1.0000 I 0.3583 J 0.1873
G03 X 9.5706 Y 1.7305 Z -1.0000 I -0.0490 J 0.0303
G03 X 9.4657 Y 1.7980 Z -1.0000 I -0.1557 J -0.1268
G02 X 9.3305 Y 1.8645 Z -1.0000 I 0.0951 J 0.3635
G02 X 9.3003 Y 1.9262 Z -1.0000 I 0.0478 J 0.0617
G03 X 9.2113 Y 2.2262 Z -1.0000 I -0.5500 J -0.0000
G03 X 8.7784 Y 2.7282 Z -1.0000 I -2.0683 J -1.3461
G02 X 8.7101 Y 2.8192 Z -1.0000 I 0.1872 J 0.2116
G02 X 8.6391 Y 3.0234 Z -1.0000 I 0.9218 J 0.4349
G03 X 8.5560 Y 3.1986 Z -1.0000 I -0.4443 J -0.1032
G03 X 8.4722 Y 3.2399 Z -1.0000 I -0.0838 J -0.0646
G03 X 8.4050 Y 3.1891 Z -1.0000 I 0.0000 J -0.0699
G03 X 8.3432 Y 2.7872 Z -1.0000 I 1.5671 J -0.4466
G03 X 8.3399 Y 2.3352 Z -1.0000 I 11.2635 J -0.3085
G03 X 8.3505 Y 2.2165 Z -1.0000 I 0.7823 J 0.0100
G02 X 8.3662 Y 2.0979 Z -1.0000 I -1.7438 J -0.2906
G02 X 8.3826 Y 1.8884 Z -1.0000 I -5.4335 J -0.5314
G03 X 8.4149 Y 1.6874 Z -1.0000 I 1.0146 J 0.0599
G03 X 8.4540 Y 1.6195 Z -1.0000 I 0.1459 J 0.0387
G02 X 8.4960 Y 1.5533 Z -1.0000 I -0.1269 J -0.1269
G02 X 8.5131 Y 1.4555 Z -1.0000 I -0.2719 J -0.0979
G01 X 8.4394 Y 1.4275 Z -1.0000
G02 X 8.1810 Y 1.8297 Z -1.0000 I 1.1597 J 1.0290
G03 X 7.9493 Y 2.2449 Z -1.0000 I -2.3468 J -1.0372
G01 X 7.8869 Y 2.2580 Z -1.0000
G03 X 7.8070 Y 2.0988 Z -1.0000 I 0.0892 J -0.1444
G03 X 7.9226 Y 1.8510 Z -1.0000 I 0.3985 J 0.0350
G02 X 8.0058 Y 1.7184 Z -1.0000 I -0.2476 J -0.2476
G02 X 8.0407 Y 1.5114 Z -1.0000 I -0.5954 J -0.2070
G03 X 8.0632 Y 1.2934 Z -1.0000 I 1.0685 J 0.0000
G03 X 8.1708 Y 0.8870 Z -1.0000 I 3.8503 J 0.8023
G02 X 8.2275 Y 0.4999 Z -1.0000 I -1.1192 J -0.3615
G02 X 8.1586 Y 0.3269 Z -1.0000 I -0.2665 J 0.0058
G02 X 7.9939 Y 0.2202 Z -1.0000 I -0.2823 J 0.2555
G02 X 7.6743 Y 0.1696 Z -1.0000 I -0.3196 J 0.9845
G02 X 7.3675 Y 0.2049 Z -1.0000 I 0.0000 J 1.3503
G01 X 7.3322 Y 0.2494 Z -1.0000
G01 X 7.3322 Y 0.2494 Z -1.0000
G00 Z 5.0000

(End cutting path id: path8988)


(Start cutting path id: path8988)
(Change tool to Default tool)

G00 Z 5.0000
G00 X 3.3566 Y 8.6944

G01 Z -1.0000 F 100.0000(Penetrate)
G03 X 3.1990 Y 8.7863 Z -1.0000 I -39.5326 J -67.6402 F 3500.0000
G03 X 3.0152 Y 8.8929 Z -1.0000 I -53.7707 J -92.4952
G02 X 2.8705 Y 9.0045 Z -1.0000 I 0.3464 J 0.5986
G01 X 2.8706 Y 9.0387 Z -1.0000
G01 X 2.9131 Y 9.0477 Z -1.0000
G02 X 3.1130 Y 8.9450 Z -1.0000 I -0.3840 J -0.9939
G03 X 3.3200 Y 8.8495 Z -1.0000 I 0.4239 J 0.6469
G03 X 3.4251 Y 8.8539 Z -1.0000 I 0.0461 J 0.1579
G02 X 3.5268 Y 8.8608 Z -1.0000 I 0.0620 J -0.1616
G02 X 3.6225 Y 8.8074 Z -1.0000 I -0.0459 J -0.1951
G02 X 3.5976 Y 8.6791 Z -1.0000 I -0.0558 J -0.0558
G02 X 3.3566 Y 8.6944 Z -1.0000 I -0.1052 J 0.2477
G01 X 3.3566 Y 8.6944 Z -1.0000
G00 Z 5.0000

(End cutting path id: path8988)


(Start cutting path id: path8988)
(Change tool to Default tool)

G00 Z 5.0000
G00 X 2.8348 Y 8.6522

G01 Z -1.0000 F 100.0000(Penetrate)
G02 X 2.8248 Y 8.6944 Z -1.0000 I 0.0408 J 0.0320 F 3500.0000
G01 X 2.8449 Y 8.7021 Z -1.0000
G03 X 2.9676 Y 8.6228 Z -1.0000 I 0.6645 J 0.8933
G03 X 3.0810 Y 8.5706 Z -1.0000 I 0.3960 J 0.7110
G01 X 3.0966 Y 8.5427 Z -1.0000
G01 X 3.0710 Y 8.5206 Z -1.0000
G02 X 2.9578 Y 8.5471 Z -1.0000 I -0.0102 J 0.2114
G02 X 2.8348 Y 8.6522 Z -1.0000 I 0.1992 J 0.3578
G01 X 2.8348 Y 8.6522 Z -1.0000
G00 Z 5.0000

(End cutting path id: path8988)


(Start cutting path id: path8988)
(Change tool to Default tool)

G00 Z 5.0000
G00 X 3.8300 Y 8.9671

G01 Z -1.0000 F 100.0000(Penetrate)
G03 X 3.5929 Y 9.1611 Z -1.0000 I -1.6841 J -1.8162 F 3500.0000
G01 X 3.5553 Y 9.1648 Z -1.0000
G02 X 3.3314 Y 9.1651 Z -1.0000 I -0.1116 J 0.2458
G02 X 3.2385 Y 9.3097 Z -1.0000 I 0.0661 J 0.1446
G01 X 3.2678 Y 9.3370 Z -1.0000
G02 X 3.4040 Y 9.2974 Z -1.0000 I -0.0256 J -0.3418
G03 X 3.5732 Y 9.2398 Z -1.0000 I 0.2595 J 0.4848
G03 X 3.7121 Y 9.2461 Z -1.0000 I 0.0547 J 0.3285
G02 X 3.8235 Y 9.2300 Z -1.0000 I 0.0366 J -0.1400
G02 X 3.8930 Y 9.1370 Z -1.0000 I -0.0796 J -0.1320
G03 X 4.1437 Y 8.8362 Z -1.0000 I 0.4455 J 0.1165
G03 X 4.4294 Y 8.8866 Z -1.0000 I 0.1069 J 0.2291
G03 X 4.4358 Y 9.0756 Z -1.0000 I -0.0979 J 0.0979
G03 X 4.0049 Y 9.3727 Z -1.0000 I -0.7987 J -0.6973
G02 X 3.9566 Y 9.4440 Z -1.0000 I 0.0257 J 0.0694
G02 X 4.0090 Y 9.5289 Z -1.0000 I 0.0991 J -0.0026
G02 X 4.1441 Y 9.5569 Z -1.0000 I 0.1152 J -0.2152
G01 X 4.1832 Y 9.5145 Z -1.0000
G03 X 4.2915 Y 9.3314 Z -1.0000 I 0.2091 J 0.0000
G03 X 4.7630 Y 9.1956 Z -1.0000 I 0.5359 J 0.9742
G02 X 4.8416 Y 9.1033 Z -1.0000 I -0.0048 J -0.0837
G02 X 4.7430 Y 9.0003 Z -1.0000 I -0.1155 J 0.0119
G03 X 4.5914 Y 8.9443 Z -1.0000 I 0.0567 J -0.3868
G03 X 4.5242 Y 8.8626 Z -1.0000 I 0.0893 J -0.1418
G02 X 4.3084 Y 8.7369 Z -1.0000 I -0.1861 J 0.0714
G02 X 3.8300 Y 8.9671 Z -1.0000 I 0.1341 J 0.8908
G01 X 3.8300 Y 8.9671 Z -1.0000
G00 Z 5.0000

(End cutting path id: path8988)


(Start cutting path id: path8988)
(Change tool to Default tool)

G00 Z 5.0000
G00 X 3.4353 Y 9.7026

G01 Z -1.0000 F 100.0000(Penetrate)
G02 X 3.3091 Y 9.8078 Z -1.0000 I 0.5292 J 0.7632 F 3500.0000
G01 X 3.3172 Y 9.8203 Z -1.0000
G03 X 3.4357 Y 9.7752 Z -1.0000 I 2.5758 J 6.5916
G03 X 3.5731 Y 9.7255 Z -1.0000 I 3.2772 J 8.8508
G02 X 3.6867 Y 9.6598 Z -1.0000 I -0.1188 J -0.3367
G02 X 3.7108 Y 9.6074 Z -1.0000 I -0.0450 J -0.0525
G01 X 3.6743 Y 9.5814 Z -1.0000
G02 X 3.4353 Y 9.7026 Z -1.0000 I 0.3213 J 0.9293
G01 X 3.4353 Y 9.7026 Z -1.0000
G00 Z 5.0000

(End cutting path id: path8988)


(Start cutting path id: path8988)
(Change tool to Default tool)

G00 Z 5.0000
G00 X 3.5928 Y 10.2464

G01 Z -1.0000 F 100.0000(Penetrate)
G02 X 3.5890 Y 10.3000 Z -1.0000 I 0.0491 J 0.0304 F 3500.0000
G01 X 3.6275 Y 10.3251 Z -1.0000
G02 X 3.6871 Y 10.3014 Z -1.0000 I -0.0000 J -0.0869
G02 X 3.7108 Y 10.2464 Z -1.0000 I -0.0519 J -0.0550
G02 X 3.6971 Y 10.1813 Z -1.0000 I -0.1611 J -0.0000
G01 X 3.6761 Y 10.1676 Z -1.0000
G01 X 3.6477 Y 10.1789 Z -1.0000
G02 X 3.5928 Y 10.2464 Z -1.0000 I 0.2300 J 0.2436
G01 X 3.5928 Y 10.2464 Z -1.0000
G00 Z 5.0000

(End cutting path id: path8988)


(Start cutting path id: path8988)
(Change tool to Default tool)

G00 Z 5.0000
G00 X 3.8683 Y 10.6400

G01 Z -1.0000 F 100.0000(Penetrate)
G02 X 3.8906 Y 10.6964 Z -1.0000 I 0.0823 J -0.0000 F 3500.0000
G02 X 3.9424 Y 10.7187 Z -1.0000 I 0.0517 J -0.0487
G02 X 4.0060 Y 10.7000 Z -1.0000 I -0.0000 J -0.1179
G02 X 4.0651 Y 10.6400 Z -1.0000 I -0.1026 J -0.1600
G01 X 4.0602 Y 10.5911 Z -1.0000
G02 X 3.9910 Y 10.5613 Z -1.0000 I -0.0691 J 0.0651
G02 X 3.8961 Y 10.5891 Z -1.0000 I -0.0000 J 0.1758
G02 X 3.8683 Y 10.6400 Z -1.0000 I 0.0326 J 0.0509
G01 X 3.8683 Y 10.6400 Z -1.0000
G00 Z 5.0000

(End cutting path id: path8988)


(Start cutting path id: path8988)
(Change tool to Default tool)

G00 Z 5.0000
G00 X 4.6300 Y 10.2780

G01 Z -1.0000 F 100.0000(Penetrate)
G02 X 4.6366 Y 10.4241 Z -1.0000 I 0.1706 J 0.0655 F 3500.0000
G02 X 4.7305 Y 10.4825 Z -1.0000 I 0.0939 J -0.0461
G01 X 4.7586 Y 10.4619 Z -1.0000
G02 X 4.7792 Y 10.3251 Z -1.0000 I -0.4419 J -0.1368
G02 X 4.7148 Y 10.2371 Z -1.0000 I -0.0922 J 0.0000
G02 X 4.6300 Y 10.2780 Z -1.0000 I -0.0206 J 0.0655
G01 X 4.6300 Y 10.2780 Z -1.0000
G00 Z 5.0000

(End cutting path id: path8988)


(Start cutting path id: path8988)
(Change tool to Default tool)

G00 Z 5.0000
G00 X 4.2863 Y 9.8919

G01 Z -1.0000 F 100.0000(Penetrate)
G02 X 4.2708 Y 10.0161 Z -1.0000 I 0.0789 J 0.0729 F 3500.0000
G02 X 4.3931 Y 10.0889 Z -1.0000 I 0.1223 J -0.0663
G02 X 4.5127 Y 9.9884 Z -1.0000 I 0.0000 J -0.1214
G02 X 4.4390 Y 9.8263 Z -1.0000 I -0.1554 J -0.0272
G02 X 4.3845 Y 9.8225 Z -1.0000 I -0.0309 J 0.0511
G02 X 4.2863 Y 9.8919 Z -1.0000 I 0.1143 J 0.2657
G01 X 4.2863 Y 9.8919 Z -1.0000
G00 Z 5.0000

(End cutting path id: path8988)


(Start cutting path id: path8988)
(Change tool to Default tool)

G00 Z 5.0000
G00 X 4.8152 Y 9.4561

G01 Z -1.0000 F 100.0000(Penetrate)
G02 X 4.7847 Y 9.5209 Z -1.0000 I 0.0356 J 0.0563 F 3500.0000
G02 X 4.8311 Y 9.5799 Z -1.0000 I 0.0726 J -0.0093
G02 X 5.0521 Y 9.5695 Z -1.0000 I 0.0986 J -0.2569
G02 X 5.0852 Y 9.4537 Z -1.0000 I -0.0363 J -0.0730
G02 X 4.9940 Y 9.4034 Z -1.0000 I -0.0902 J 0.0557
G02 X 4.8152 Y 9.4561 Z -1.0000 I 0.0030 J 0.3403
G01 X 4.8152 Y 9.4561 Z -1.0000
G00 Z 5.0000

(End cutting path id: path8988)


(Start cutting path id: path8988)
(Change tool to Default tool)

G00 Z 5.0000
G00 X 5.0492 Y 9.8527

G01 Z -1.0000 F 100.0000(Penetrate)
G01 X 5.0507 Y 9.8940 Z -1.0000 F 3500.0000
G02 X 5.1916 Y 9.9302 Z -1.0000 I 0.1422 J -0.2613
G02 X 5.3885 Y 9.8958 Z -1.0000 I 0.0026 J -0.5655
G01 X 5.4034 Y 9.8527 Z -1.0000
G02 X 5.2808 Y 9.7844 Z -1.0000 I -0.1226 J 0.0758
G02 X 5.0492 Y 9.8527 Z -1.0000 I -0.0000 J 0.4268
G01 X 5.0492 Y 9.8527 Z -1.0000
G00 Z 5.0000

(End cutting path id: path8988)


(Start cutting path id: path8988)
(Change tool to Default tool)

G00 Z 5.0000
G00 X 5.3247 Y 10.3251

G01 Z -1.0000 F 100.0000(Penetrate)
G02 X 5.3210 Y 10.3787 Z -1.0000 I 0.0491 J 0.0304 F 3500.0000
G01 X 5.3594 Y 10.4038 Z -1.0000
G02 X 5.4191 Y 10.3801 Z -1.0000 I -0.0000 J -0.0869
G02 X 5.4428 Y 10.3251 Z -1.0000 I -0.0519 J -0.0550
G02 X 5.4291 Y 10.2601 Z -1.0000 I -0.1611 J 0.0000
G01 X 5.4081 Y 10.2464 Z -1.0000
G01 X 5.3796 Y 10.2577 Z -1.0000
G02 X 5.3247 Y 10.3251 Z -1.0000 I 0.2300 J 0.2436
G01 X 5.3247 Y 10.3251 Z -1.0000
G00 Z 5.0000

(End cutting path id: path8988)


(Start cutting path id: path8988)
(Change tool to Default tool)

G00 Z 5.0000
G00 X 5.5609 Y 10.2464

G01 Z -1.0000 F 100.0000(Penetrate)
G02 X 5.6199 Y 10.3064 Z -1.0000 I 0.1616 J -0.0999 F 3500.0000
G02 X 5.6836 Y 10.3251 Z -1.0000 I 0.0637 J -0.0993
G02 X 5.7353 Y 10.3027 Z -1.0000 I 0.0000 J -0.0710
G02 X 5.7577 Y 10.2464 Z -1.0000 I -0.0599 J -0.0564
G02 X 5.7299 Y 10.1955 Z -1.0000 I -0.0605 J 0.0000
G02 X 5.6349 Y 10.1676 Z -1.0000 I -0.0949 J 0.1480
G02 X 5.5658 Y 10.1975 Z -1.0000 I 0.0000 J 0.0949
G01 X 5.5609 Y 10.2464 Z -1.0000
G01 X 5.5609 Y 10.2464 Z -1.0000
G00 Z 5.0000

(End cutting path id: path8988)


(Start cutting path id: path8988)
(Change tool to Default tool)

G00 Z 5.0000
G00 X 5.9151 Y 10.7187

G01 Z -1.0000 F 100.0000(Penetrate)
G02 X 5.9375 Y 10.7751 Z -1.0000 I 0.0823 J 0.0000 F 3500.0000
G02 X 5.9892 Y 10.7974 Z -1.0000 I 0.0517 J -0.0487
G02 X 6.0529 Y 10.7788 Z -1.0000 I -0.0000 J -0.1179
G02 X 6.1119 Y 10.7187 Z -1.0000 I -0.1026 J -0.1600
G01 X 6.1070 Y 10.6699 Z -1.0000
G02 X 6.0379 Y 10.6400 Z -1.0000 I -0.0691 J 0.0651
G02 X 5.9429 Y 10.6678 Z -1.0000 I -0.0000 J 0.1758
G02 X 5.9151 Y 10.7187 Z -1.0000 I 0.0326 J 0.0509
G01 X 5.9151 Y 10.7187 Z -1.0000
G00 Z 5.0000

(End cutting path id: path8988)


(Start cutting path id: path8988)
(Change tool to Default tool)

G00 Z 5.0000
G00 X 6.1536 Y 11.1880

G01 Z -1.0000 F 100.0000(Penetrate)
G02 X 6.0746 Y 11.2653 Z -1.0000 I 0.1409 J 0.2229 F 3500.0000
G01 X 6.0783 Y 11.3017 Z -1.0000
G02 X 6.3315 Y 11.3645 Z -1.0000 I 0.1786 J -0.1786
G02 X 6.4662 Y 11.1819 Z -1.0000 I -0.0564 J -0.1826
G02 X 6.3977 Y 11.1147 Z -1.0000 I -0.0672 J 0.0000
G02 X 6.1536 Y 11.1880 Z -1.0000 I 0.0093 J 0.4739
G01 X 6.1536 Y 11.1880 Z -1.0000
G00 Z 5.0000

(End cutting path id: path8988)


(Start cutting path id: path8988)
(Change tool to Default tool)

G00 Z 5.0000
G00 X 6.5442 Y 11.7036

G01 Z -1.0000 F 100.0000(Penetrate)
G02 X 6.5246 Y 11.7844 Z -1.0000 I 0.0728 J 0.0604 F 3500.0000
G01 X 6.5700 Y 11.8208 Z -1.0000
G02 X 6.7332 Y 11.7391 Z -1.0000 I 0.0000 J -0.2039
G02 X 6.7126 Y 11.6303 Z -1.0000 I -0.0601 J -0.0450
G02 X 6.6479 Y 11.6257 Z -1.0000 I -0.0368 J 0.0595
G02 X 6.5442 Y 11.7036 Z -1.0000 I 0.1117 J 0.2566
G01 X 6.5442 Y 11.7036 Z -1.0000
G00 Z 5.0000

(End cutting path id: path8988)


(Start cutting path id: path8988)
(Change tool to Default tool)

G00 Z 5.0000
G00 X 6.7417 Y 12.2932

G01 Z -1.0000 F 100.0000(Penetrate)
G01 X 6.7459 Y 12.3425 Z -1.0000 F 3500.0000
G02 X 6.8112 Y 12.3719 Z -1.0000 I 0.0653 J -0.0576
G02 X 6.9161 Y 12.3484 Z -1.0000 I 0.0000 J -0.2459
G02 X 6.9779 Y 12.2932 Z -1.0000 I -0.0623 J -0.1319
G01 X 6.9737 Y 12.2439 Z -1.0000
G02 X 6.9085 Y 12.2145 Z -1.0000 I -0.0653 J 0.0576
G02 X 6.8035 Y 12.2380 Z -1.0000 I 0.0000 J 0.2459
G02 X 6.7417 Y 12.2932 Z -1.0000 I 0.0623 J 0.1318
G01 X 6.7417 Y 12.2932 Z -1.0000
G00 Z 5.0000

(End cutting path id: path8988)


(Start cutting path id: path8988)
(Change tool to Default tool)

G00 Z 5.0000
G00 X 7.0566 Y 12.8443

G01 Z -1.0000 F 100.0000(Penetrate)
G02 X 7.0515 Y 12.8987 Z -1.0000 I 0.0525 J 0.0325 F 3500.0000
G01 X 7.0867 Y 12.9230 Z -1.0000
G02 X 7.1547 Y 12.9037 Z -1.0000 I -0.0000 J -0.1293
G02 X 7.2141 Y 12.8443 Z -1.0000 I -0.0962 J -0.1556
G02 X 7.2192 Y 12.7898 Z -1.0000 I -0.0525 J -0.0324
G01 X 7.1840 Y 12.7655 Z -1.0000
G02 X 7.1161 Y 12.7849 Z -1.0000 I -0.0000 J 0.1293
G02 X 7.0566 Y 12.8443 Z -1.0000 I 0.0962 J 0.1556
G01 X 7.0566 Y 12.8443 Z -1.0000
G00 Z 5.0000

(End cutting path id: path8988)


(Start cutting path id: path8988)
(Change tool to Default tool)

G00 Z 5.0000
G00 X 7.2534 Y 13.3953

G01 Z -1.0000 F 100.0000(Penetrate)
G02 X 7.2765 Y 13.4510 Z -1.0000 I 0.0787 J -0.0000 F 3500.0000
G02 X 7.3322 Y 13.4741 Z -1.0000 I 0.0557 J -0.0557
G02 X 7.3878 Y 13.4510 Z -1.0000 I -0.0000 J -0.0787
G02 X 7.4109 Y 13.3953 Z -1.0000 I -0.0557 J -0.0557
G02 X 7.3878 Y 13.3397 Z -1.0000 I -0.0787 J 0.0000
G02 X 7.3322 Y 13.3166 Z -1.0000 I -0.0557 J 0.0557
G02 X 7.2765 Y 13.3397 Z -1.0000 I -0.0000 J 0.0787
G02 X 7.2534 Y 13.3953 Z -1.0000 I 0.0557 J 0.0557
G01 X 7.2534 Y 13.3953 Z -1.0000
G00 Z 5.0000

(End cutting path id: path8988)


(Start cutting path id: path8988)
(Change tool to Default tool)

G00 Z 5.0000
G00 X 6.3150 Y 12.8115

G01 Z -1.0000 F 100.0000(Penetrate)
G02 X 6.3380 Y 12.8641 Z -1.0000 I 0.0789 J -0.0033 F 3500.0000
G01 X 6.3625 Y 12.8590 Z -1.0000
G02 X 6.3794 Y 12.7607 Z -1.0000 I -0.2211 J -0.0885
G02 X 6.3563 Y 12.7081 Z -1.0000 I -0.0789 J 0.0033
G01 X 6.3318 Y 12.7132 Z -1.0000
G02 X 6.3150 Y 12.8115 Z -1.0000 I 0.2212 J 0.0885
G01 X 6.3150 Y 12.8115 Z -1.0000
G00 Z 5.0000

(End cutting path id: path8988)


(Start cutting path id: path8988)
(Change tool to Default tool)

G00 Z 5.0000
G00 X 5.9939 Y 12.2839

G01 Z -1.0000 F 100.0000(Penetrate)
G02 X 6.0132 Y 12.3519 Z -1.0000 I 0.1293 J 0.0000 F 3500.0000
G02 X 6.0726 Y 12.4113 Z -1.0000 I 0.1556 J -0.0961
G02 X 6.1270 Y 12.4164 Z -1.0000 I 0.0324 J -0.0525
G01 X 6.1513 Y 12.3812 Z -1.0000
G02 X 6.1320 Y 12.3133 Z -1.0000 I -0.1293 J -0.0000
G02 X 6.0726 Y 12.2538 Z -1.0000 I -0.1556 J 0.0961
G02 X 6.0181 Y 12.2487 Z -1.0000 I -0.0324 J 0.0525
G01 X 5.9939 Y 12.2839 Z -1.0000
G01 X 5.9939 Y 12.2839 Z -1.0000
G00 Z 5.0000

(End cutting path id: path8988)


(Start cutting path id: path8988)
(Change tool to Default tool)

G00 Z 5.0000
G00 X 5.7639 Y 11.7093

G01 Z -1.0000 F 100.0000(Penetrate)
G02 X 5.7870 Y 11.7619 Z -1.0000 I 0.0789 J -0.0033 F 3500.0000
G01 X 5.8115 Y 11.7569 Z -1.0000
G02 X 5.8283 Y 11.6586 Z -1.0000 I -0.2211 J -0.0885
G02 X 5.8052 Y 11.6060 Z -1.0000 I -0.0789 J 0.0033
G01 X 5.7807 Y 11.6110 Z -1.0000
G02 X 5.7639 Y 11.7093 Z -1.0000 I 0.2212 J 0.0885
G01 X 5.7639 Y 11.7093 Z -1.0000
G00 Z 5.0000

(End cutting path id: path8988)


(Start cutting path id: path8988)
(Change tool to Default tool)

G00 Z 5.0000
G00 X 5.2706 Y 12.3470

G01 Z -1.0000 F 100.0000(Penetrate)
G02 X 5.3689 Y 12.3638 Z -1.0000 I 0.0885 J -0.2212 F 3500.0000
G02 X 5.4215 Y 12.3408 Z -1.0000 I -0.0033 J -0.0789
G01 X 5.4164 Y 12.3163 Z -1.0000
G02 X 5.3181 Y 12.2994 Z -1.0000 I -0.0885 J 0.2211
G02 X 5.2655 Y 12.3225 Z -1.0000 I 0.0033 J 0.0789
G01 X 5.2706 Y 12.3470 Z -1.0000
G01 X 5.2706 Y 12.3470 Z -1.0000
G00 Z 5.0000

(End cutting path id: path8988)


(Start cutting path id: path8988)
(Change tool to Default tool)

G00 Z 5.0000
G00 X 5.8216 Y 13.7640

G01 Z -1.0000 F 100.0000(Penetrate)
G02 X 5.9199 Y 13.7809 Z -1.0000 I 0.0885 J -0.2212 F 3500.0000
G02 X 5.9725 Y 13.7578 Z -1.0000 I -0.0033 J -0.0789
G01 X 5.9675 Y 13.7333 Z -1.0000
G02 X 5.8692 Y 13.7165 Z -1.0000 I -0.0885 J 0.2211
G02 X 5.8166 Y 13.7395 Z -1.0000 I 0.0033 J 0.0789
G01 X 5.8216 Y 13.7640 Z -1.0000
G01 X 5.8216 Y 13.7640 Z -1.0000
G00 Z 5.0000

(End cutting path id: path8988)


(Start cutting path id: path8988)
(Change tool to Default tool)

G00 Z 5.0000
G00 X 7.3322 Y 14.5763

G01 Z -1.0000 F 100.0000(Penetrate)
G02 X 7.2808 Y 14.6329 Z -1.0000 I 0.0806 J 0.1247 F 3500.0000
G01 X 7.2928 Y 14.6526 Z -1.0000
G02 X 7.3674 Y 14.6386 Z -1.0000 I 0.0000 J -0.2064
G02 X 7.4896 Y 14.5763 Z -1.0000 I -0.2438 J -0.6287
G02 X 7.5410 Y 14.5196 Z -1.0000 I -0.0806 J -0.1247
G01 X 7.5290 Y 14.5000 Z -1.0000
G02 X 7.4544 Y 14.5139 Z -1.0000 I -0.0000 J 0.2064
G02 X 7.3322 Y 14.5763 Z -1.0000 I 0.2438 J 0.6287
G01 X 7.3322 Y 14.5763 Z -1.0000
G00 Z 5.0000

(End cutting path id: path8988)


(Start cutting path id: path8988)
(Change tool to Default tool)

G00 Z 5.0000
G00 X 6.8008 Y 16.2050

G01 Z -1.0000 F 100.0000(Penetrate)
G02 X 6.9385 Y 16.2227 Z -1.0000 I 0.1378 J -0.5272 F 3500.0000
G02 X 7.0763 Y 16.2050 Z -1.0000 I 0.0000 J -0.5449
G01 X 7.0763 Y 16.1867 Z -1.0000
G02 X 6.9385 Y 16.1690 Z -1.0000 I -0.1378 J 0.5272
G02 X 6.8008 Y 16.1867 Z -1.0000 I 0.0000 J 0.5449
G01 X 6.8008 Y 16.2050 Z -1.0000
G01 X 6.8008 Y 16.2050 Z -1.0000
G00 Z 5.0000

(End cutting path id: path8988)


(Start cutting path id: path8988)
(Change tool to Default tool)

G00 Z 5.0000
G00 X 6.0578 Y 16.9917

G01 Z -1.0000 F 100.0000(Penetrate)
G02 X 6.1561 Y 17.0086 Z -1.0000 I 0.0885 J -0.2212 F 3500.0000
G02 X 6.2087 Y 16.9855 Z -1.0000 I -0.0033 J -0.0789
G01 X 6.2037 Y 16.9610 Z -1.0000
G02 X 6.1054 Y 16.9442 Z -1.0000 I -0.0885 J 0.2211
G02 X 6.0528 Y 16.9672 Z -1.0000 I 0.0033 J 0.0789
G01 X 6.0578 Y 16.9917 Z -1.0000
G01 X 6.0578 Y 16.9917 Z -1.0000
G00 Z 5.0000

(End cutting path id: path8988)


(Start cutting path id: path8988)
(Change tool to Default tool)

G00 Z 5.0000
G00 X 5.7355 Y 16.4673

G01 Z -1.0000 F 100.0000(Penetrate)
G02 X 5.9878 Y 16.7006 Z -1.0000 I 1.9772 J -1.8846 F 3500.0000
G01 X 6.0184 Y 16.6977 Z -1.0000
G01 X 6.0174 Y 16.6653 Z -1.0000
G02 X 5.7651 Y 16.4320 Z -1.0000 I -1.9773 J 1.8847
G01 X 5.7344 Y 16.4349 Z -1.0000
G01 X 5.7355 Y 16.4673 Z -1.0000
G01 X 5.7355 Y 16.4673 Z -1.0000
G00 Z 5.0000

(End cutting path id: path8988)


(Start cutting path id: path8988)
(Change tool to Default tool)

G00 Z 5.0000
G00 X 5.3653 Y 16.7552

G01 Z -1.0000 F 100.0000(Penetrate)
G02 X 5.5795 Y 17.1009 Z -1.0000 I 0.3980 J -0.0074 F 3500.0000
G02 X 5.8738 Y 17.0199 Z -1.0000 I 0.1035 J -0.1989
G01 X 5.8649 Y 16.9711 Z -1.0000
G02 X 5.7679 Y 16.9379 Z -1.0000 I -0.0970 J 0.1253
G03 X 5.6240 Y 16.9076 Z -1.0000 I 0.0000 J -0.3563
G03 X 5.4878 Y 16.8142 Z -1.0000 I 0.1816 J -0.4112
G02 X 5.3859 Y 16.7420 Z -1.0000 I -0.2639 J 0.2639
G01 X 5.3653 Y 16.7552 Z -1.0000
G01 X 5.3653 Y 16.7552 Z -1.0000
G00 Z 5.0000

(End cutting path id: path8988)


(Start cutting path id: path8988)
(Change tool to Default tool)

G00 Z 5.0000
G00 X 5.1279 Y 17.0972

G01 Z -1.0000 F 100.0000(Penetrate)
G02 X 5.1535 Y 17.1615 Z -1.0000 I 0.0936 J -0.0000 F 3500.0000
G02 X 5.2494 Y 17.2257 Z -1.0000 I 0.1892 J -0.1789
G01 X 5.3134 Y 17.1936 Z -1.0000
G02 X 5.2818 Y 17.1114 Z -1.0000 I -0.0705 J -0.0200
G02 X 5.1580 Y 17.0697 Z -1.0000 I -0.1497 J 0.2398
G01 X 5.1279 Y 17.0972 Z -1.0000
G01 X 5.1279 Y 17.0972 Z -1.0000
G00 Z 5.0000

(End cutting path id: path8988)


(Start cutting path id: path8988)
(Change tool to Default tool)

G00 Z 5.0000
G00 X 4.7323 Y 17.2492

G01 Z -1.0000 F 100.0000(Penetrate)
G02 X 4.8336 Y 17.3852 Z -1.0000 I 0.5043 J -0.2699 F 3500.0000
G02 X 4.8945 Y 17.4103 Z -1.0000 I 0.0609 J -0.0613
G01 X 4.9383 Y 17.3462 Z -1.0000
G02 X 4.8083 Y 17.1895 Z -1.0000 I -0.3013 J 0.1176
G02 X 4.7441 Y 17.1929 Z -1.0000 I -0.0296 J 0.0474
G01 X 4.7323 Y 17.2493 Z -1.0000
G01 X 4.7323 Y 17.2492 Z -1.0000
G00 Z 5.0000

(End cutting path id: path8988)


(Start cutting path id: path8988)
(Change tool to Default tool)

G00 Z 5.0000
G00 X 5.0295 Y 17.6986

G01 Z -1.0000 F 100.0000(Penetrate)
G02 X 5.1279 Y 17.7177 Z -1.0000 I 0.0984 J -0.2439 F 3500.0000
G02 X 5.2263 Y 17.6986 Z -1.0000 I -0.0000 J -0.2630
G01 X 5.2263 Y 17.6780 Z -1.0000
G02 X 5.1279 Y 17.6589 Z -1.0000 I -0.0984 J 0.2439
G02 X 5.0295 Y 17.6780 Z -1.0000 I -0.0000 J 0.2630
G01 X 5.0295 Y 17.6986 Z -1.0000
G01 X 5.0295 Y 17.6986 Z -1.0000
G00 Z 5.0000

(End cutting path id: path8988)


(Start cutting path id: path8988)
(Change tool to Default tool)

G00 Z 5.0000
G00 X 5.3641 Y 17.5200

G01 Z -1.0000 F 100.0000(Penetrate)
G02 X 5.4472 Y 17.6145 Z -1.0000 I 0.0954 J 0.0000 F 3500.0000
G02 X 5.6861 Y 17.5617 Z -1.0000 I 0.0463 J -0.3572
G01 X 5.6867 Y 17.5231 Z -1.0000
G02 X 5.5805 Y 17.4902 Z -1.0000 I -0.1072 J 0.1584
G02 X 5.3784 Y 17.5035 Z -1.0000 I -0.0079 J 1.4269
G01 X 5.3641 Y 17.5200 Z -1.0000
G01 X 5.3641 Y 17.5200 Z -1.0000
G00 Z 5.0000

(End cutting path id: path8988)


(Start cutting path id: path8988)
(Change tool to Default tool)

G00 Z 5.0000
G00 X 5.6790 Y 15.8655

G01 Z -1.0000 F 100.0000(Penetrate)
G01 X 5.6892 Y 15.8903 Z -1.0000 F 3500.0000
G02 X 5.8167 Y 16.0033 Z -1.0000 I 1.0024 J -1.0025
G01 X 5.8448 Y 16.0016 Z -1.0000
G01 X 5.8464 Y 15.9736 Z -1.0000
G02 X 5.7096 Y 15.8488 Z -1.0000 I -0.4398 J 0.3449
G01 X 5.6790 Y 15.8655 Z -1.0000
G01 X 5.6790 Y 15.8655 Z -1.0000
G00 Z 5.0000

(End cutting path id: path8988)


(Start cutting path id: path8988)
(Change tool to Default tool)

G00 Z 5.0000
G00 X 2.6566 Y 16.9241

G01 Z -1.0000 F 100.0000(Penetrate)
G02 X 2.6457 Y 16.9965 Z -1.0000 I 0.0793 J 0.0490 F 3500.0000
G02 X 2.6914 Y 17.0585 Z -1.0000 I 0.1000 J -0.0259
G02 X 2.7683 Y 17.0432 Z -1.0000 I 0.0302 J -0.0489
G02 X 2.7717 Y 16.9469 Z -1.0000 I -0.0703 J -0.0507
G02 X 2.7071 Y 16.9021 Z -1.0000 I -0.0838 J 0.0518
G01 X 2.6566 Y 16.9241 Z -1.0000
G01 X 2.6566 Y 16.9241 Z -1.0000
G00 Z 5.0000

(End cutting path id: path8988)


(Start cutting path id: path8988)
(Change tool to Default tool)

G00 Z 5.0000
G00 X 0.8768 Y 17.2482

G01 Z -1.0000 F 100.0000(Penetrate)
G03 X 0.8581 Y 17.3119 Z -1.0000 I -0.1179 J 0.0000 F 3500.0000
G03 X 0.7980 Y 17.3709 Z -1.0000 I -0.1600 J -0.1026
G01 X 0.7492 Y 17.3660 Z -1.0000
G03 X 0.7193 Y 17.2969 Z -1.0000 I 0.0651 J -0.0691
G03 X 0.7471 Y 17.2019 Z -1.0000 I 0.1758 J -0.0000
G03 X 0.7980 Y 17.1741 Z -1.0000 I 0.0509 J 0.0326
G03 X 0.8544 Y 17.1965 Z -1.0000 I -0.0000 J 0.0823
G03 X 0.8768 Y 17.2482 Z -1.0000 I -0.0487 J 0.0517
G01 X 0.8768 Y 17.2482 Z -1.0000
G00 Z 5.0000

(End cutting path id: path8988)


(Start cutting path id: path8988)
(Change tool to Default tool)

G00 Z 5.0000
G00 X 1.2766 Y 10.6072

G01 Z -1.0000 F 100.0000(Penetrate)
G02 X 1.2997 Y 10.6598 Z -1.0000 I 0.0789 J -0.0033 F 3500.0000
G01 X 1.3242 Y 10.6547 Z -1.0000
G02 X 1.3410 Y 10.5564 Z -1.0000 I -0.2211 J -0.0885
G02 X 1.3179 Y 10.5039 Z -1.0000 I -0.0789 J 0.0033
G01 X 1.2934 Y 10.5089 Z -1.0000
G02 X 1.2766 Y 10.6072 Z -1.0000 I 0.2212 J 0.0885
G01 X 1.2766 Y 10.6072 Z -1.0000
G00 Z 5.0000

(End cutting path id: path8988)


(Start cutting path id: path8988)
(Change tool to Default tool)

G00 Z 5.0000
G00 X 1.1620 Y 9.8951

G01 Z -1.0000 F 100.0000(Penetrate)
G02 X 1.1641 Y 9.9825 Z -1.0000 I 0.1073 J 0.0412 F 3500.0000
G01 X 1.2013 Y 9.9846 Z -1.0000
G02 X 1.2589 Y 9.8443 Z -1.0000 I -0.4808 J -0.2796
G01 X 1.2480 Y 9.8041 Z -1.0000
G01 X 1.2190 Y 9.8045 Z -1.0000
G02 X 1.1620 Y 9.8951 Z -1.0000 I 0.2010 J 0.1896
G01 X 1.1620 Y 9.8951 Z -1.0000
G00 Z 5.0000

(End cutting path id: path8988)


(Start cutting path id: path8988)
(Change tool to Default tool)

G00 Z 5.0000
G00 X 0.5654 Y 9.2820

G01 Z -1.0000 F 100.0000(Penetrate)
G02 X 0.6604 Y 10.0762 Z -1.0000 I 3.4556 J -0.0106 F 3500.0000
G02 X 0.7587 Y 10.0889 Z -1.0000 I 0.0515 J -0.0123
G02 X 0.9316 Y 9.7301 Z -1.0000 I -4.1389 J -2.2163
G02 X 0.9519 Y 9.6403 Z -1.0000 I -0.2304 J -0.0993
G03 X 1.1601 Y 9.1374 Z -1.0000 I 0.7831 J 0.0295
G03 X 1.3491 Y 9.2114 Z -1.0000 I 0.0800 J 0.0741
G02 X 1.3746 Y 9.2762 Z -1.0000 I 0.0950 J 0.0000
G02 X 1.4331 Y 9.3017 Z -1.0000 I 0.0586 J -0.0545
G01 X 1.4726 Y 9.2691 Z -1.0000
G02 X 1.4648 Y 9.1368 Z -1.0000 I -0.2642 J -0.0508
G03 X 1.5486 Y 8.7203 Z -1.0000 I 0.4179 J -0.1326
G03 X 1.9936 Y 8.5144 Z -1.0000 I 0.4450 J 0.3781
G02 X 2.0766 Y 8.4336 Z -1.0000 I 0.0000 J -0.0830
G02 X 1.9986 Y 8.3246 Z -1.0000 I -0.1111 J -0.0029
G02 X 1.3787 Y 8.1821 Z -1.0000 I -1.2454 J 3.9956
G02 X 0.6603 Y 8.1224 Z -1.0000 I -0.8036 J 5.3170
G02 X 0.6092 Y 8.1687 Z -1.0000 I -0.0008 J 0.0505
G02 X 0.5654 Y 9.2820 Z -1.0000 I 13.1184 J 1.0730
G01 X 0.5654 Y 9.2820 Z -1.0000
G00 Z 5.0000

(End cutting path id: path8988)


(Start cutting path id: path8988)
(Change tool to Default tool)

G00 Z 5.0000
G00 X 5.0554 Y 10.7646

G01 Z -1.0000 F 100.0000(Penetrate)
G02 X 5.0784 Y 10.8172 Z -1.0000 I 0.0789 J -0.0033 F 3500.0000
G01 X 5.1029 Y 10.8122 Z -1.0000
G02 X 5.1198 Y 10.7139 Z -1.0000 I -0.2211 J -0.0885
G02 X 5.0967 Y 10.6613 Z -1.0000 I -0.0789 J 0.0033
G01 X 5.0722 Y 10.6663 Z -1.0000
G02 X 5.0554 Y 10.7646 Z -1.0000 I 0.2212 J 0.0885
G01 X 5.0554 Y 10.7646 Z -1.0000
G00 Z 5.0000

(End cutting path id: path8988)


(Start cutting path id: path8988)
(Change tool to Default tool)

G00 Z 5.0000
G00 X 7.4896 Y 10.7915

G01 Z -1.0000 F 100.0000(Penetrate)
G02 X 7.5120 Y 10.8439 Z -1.0000 I 0.0726 J -0.0000 F 3500.0000
G02 X 7.6077 Y 10.9046 Z -1.0000 I 0.1985 J -0.2072
G02 X 7.7003 Y 10.9129 Z -1.0000 I 0.0608 J -0.1585
G01 X 7.7258 Y 10.8821 Z -1.0000
G02 X 7.7034 Y 10.8297 Z -1.0000 I -0.0726 J -0.0000
G02 X 7.6077 Y 10.7690 Z -1.0000 I -0.1985 J 0.2072
G02 X 7.5151 Y 10.7607 Z -1.0000 I -0.0608 J 0.1585
G01 X 7.4896 Y 10.7915 Z -1.0000
G01 X 7.4896 Y 10.7915 Z -1.0000
G00 Z 5.0000

(End cutting path id: path8988)


(Start cutting path id: path8988)
(Change tool to Default tool)

G00 Z 5.0000
G00 X 18.1017 Y 10.0259

G01 Z -1.0000 F 100.0000(Penetrate)
G03 X 18.1715 Y 10.1306 Z -1.0000 I -0.2272 J 0.2272 F 3500.0000
G03 X 18.1962 Y 10.2550 Z -1.0000 I -0.3016 J 0.1244
G03 X 18.1409 Y 10.3335 Z -1.0000 I -0.0833 J 0.0000
G03 X 17.8351 Y 10.3841 Z -1.0000 I -0.2926 J -0.8181
G03 X 17.5610 Y 10.3079 Z -1.0000 I 0.0086 J -0.5618
G03 X 17.5093 Y 10.1944 Z -1.0000 I 0.0543 J -0.0932
G02 X 17.4118 Y 10.0697 Z -1.0000 I -0.1033 J -0.0197
G02 X 17.1272 Y 10.1735 Z -1.0000 I -0.0211 J 0.3843
G03 X 16.9022 Y 10.2953 Z -1.0000 I -0.3434 J -0.3656
G03 X 16.1962 Y 10.3998 Z -1.0000 I -0.9227 J -3.7947
G01 X 16.1800 Y 10.4265 Z -1.0000
G02 X 16.2705 Y 10.5646 Z -1.0000 I 0.4855 J -0.2191
G03 X 16.3103 Y 10.6530 Z -1.0000 I -0.1169 J 0.1058
G01 X 16.2827 Y 10.6743 Z -1.0000
G02 X 16.1959 Y 10.6910 Z -1.0000 I -0.0300 J 0.0781
G02 X 16.1493 Y 10.7974 Z -1.0000 I 0.0983 J 0.1065
G03 X 16.1050 Y 10.9073 Z -1.0000 I -0.1584 J 0.0000
G03 X 16.0268 Y 10.9247 Z -1.0000 I -0.0523 J -0.0503
G02 X 15.9179 Y 10.9316 Z -1.0000 I -0.0470 J 0.1224
G02 X 15.7242 Y 11.0870 Z -1.0000 I 0.3206 J 0.5978
G03 X 15.5194 Y 11.2428 Z -1.0000 I -0.4681 J -0.4026
G03 X 15.2760 Y 11.2983 Z -1.0000 I -0.2478 J -0.5256
G03 X 13.6569 Y 11.2074 Z -1.0000 I -0.0959 J -12.7566
G03 X 12.0824 Y 10.9143 Z -1.0000 I 1.4864 J -12.3597
G02 X 11.3101 Y 10.7286 Z -1.0000 I -7.8004 J 30.7501
G02 X 11.2215 Y 10.7187 Z -1.0000 I -0.0886 J 0.3901
G01 X 11.1820 Y 10.7588 Z -1.0000
G02 X 11.2269 Y 11.1320 Z -1.0000 I 1.7642 J -0.0231
G03 X 11.3463 Y 12.7305 Z -1.0000 I -5.1565 J 1.1887
G03 X 10.9808 Y 14.3007 Z -1.0000 I -5.3370 J -0.4145
G03 X 10.3873 Y 15.5491 Z -1.0000 I -10.0470 J -4.0109
G03 X 10.2343 Y 15.6426 Z -1.0000 I -0.1591 J -0.0885
G02 X 10.1629 Y 15.6746 Z -1.0000 I 0.0035 J 0.1033
G02 X 10.1451 Y 15.7364 Z -1.0000 I 0.0505 J 0.0481
G03 X 10.1277 Y 15.8137 Z -1.0000 I -0.0953 J 0.0192
G03 X 9.9573 Y 15.9887 Z -1.0000 I -0.7432 J -0.5531
G02 X 9.8112 Y 16.1313 Z -1.0000 I 0.5943 J 0.7555
G01 X 9.8210 Y 16.1533 Z -1.0000
G03 X 9.8669 Y 16.3104 Z -1.0000 I -0.0033 J 0.0862
G03 X 9.3703 Y 16.4656 Z -1.0000 I -0.4966 J -0.7170
G02 X 9.2607 Y 16.5048 Z -1.0000 I -0.0000 J 0.1729
G02 X 9.2216 Y 16.5875 Z -1.0000 I 0.0678 J 0.0827
G03 X 9.1798 Y 16.6820 Z -1.0000 I -0.1279 J 0.0000
G03 X 8.9657 Y 16.8206 Z -1.0000 I -0.5246 J -0.5759
G02 X 8.7838 Y 16.9192 Z -1.0000 I 0.4770 J 1.0973
G01 X 8.7886 Y 16.9374 Z -1.0000
G01 X 8.7923 Y 16.9551 Z -1.0000
G03 X 8.4737 Y 17.1049 Z -1.0000 I -1.6751 J -3.1497
G02 X 8.0821 Y 17.2711 Z -1.0000 I 7.2480 J 17.6297
G02 X 7.9520 Y 17.3331 Z -1.0000 I 0.8771 J 2.0051
G03 X 7.8191 Y 17.3856 Z -1.0000 I -0.3222 J -0.6216
G03 X 7.5190 Y 17.4548 Z -1.0000 I -0.8811 J -3.1357
G02 X 7.2204 Y 17.5288 Z -1.0000 I 0.4320 J 2.3833
G02 X 6.9971 Y 17.6199 Z -1.0000 I 0.4491 J 1.4194
G03 X 6.7707 Y 17.6940 Z -1.0000 I -0.3540 J -0.6993
G03 X 6.1908 Y 17.7530 Z -1.0000 I -0.7650 J -4.6339
G02 X 5.6101 Y 17.7957 Z -1.0000 I 0.3383 J 8.5785
G02 X 5.5566 Y 17.8213 Z -1.0000 I 0.0095 J 0.0887
G03 X 5.3263 Y 17.8965 Z -1.0000 I -0.1892 J -0.1892
G03 X 4.6813 Y 17.6854 Z -1.0000 I 0.3223 J -2.0756
G03 X 4.5490 Y 17.5841 Z -1.0000 I 0.2206 J -0.4252
G01 X 4.5499 Y 17.5422 Z -1.0000
G02 X 4.5625 Y 17.4911 Z -1.0000 I -0.0361 J -0.0361
G02 X 4.4966 Y 17.3691 Z -1.0000 I -0.3385 J 0.1042
G02 X 4.3580 Y 17.3713 Z -1.0000 I -0.0684 J 0.0568
G02 X 4.3412 Y 17.5688 Z -1.0000 I 0.1436 J 0.1117
G01 X 4.3222 Y 17.6351 Z -1.0000
G03 X 4.1783 Y 17.6625 Z -1.0000 I -0.1115 J -0.1939
G03 X 3.9776 Y 17.6022 Z -1.0000 I 0.1044 J -0.7115
G03 X 3.9470 Y 17.5542 Z -1.0000 I 0.0225 J -0.0480
G01 X 3.9705 Y 17.5218 Z -1.0000
G03 X 4.0257 Y 17.5284 Z -1.0000 I 0.0206 J 0.0628
G01 X 4.0805 Y 17.5025 Z -1.0000
G02 X 4.0567 Y 17.2986 Z -1.0000 I -0.4108 J -0.0553
G02 X 3.9680 Y 17.2463 Z -1.0000 I -0.0774 J 0.0297
G02 X 3.9205 Y 17.3174 Z -1.0000 I 0.0078 J 0.0567
G03 X 3.8474 Y 17.5492 Z -1.0000 I -0.2209 J 0.0578
G03 X 3.6295 Y 17.5644 Z -1.0000 I -0.1193 J -0.1406
G03 X 3.5937 Y 17.5140 Z -1.0000 I 0.0434 J -0.0686
G01 X 3.6124 Y 17.4902 Z -1.0000
G02 X 3.6736 Y 17.4223 Z -1.0000 I -0.0008 J -0.0622
G02 X 3.5863 Y 17.2088 Z -1.0000 I -0.3941 J 0.0366
G02 X 3.5219 Y 17.1679 Z -1.0000 I -0.0937 J 0.0763
G01 X 3.5029 Y 17.1880 Z -1.0000
G03 X 3.4441 Y 17.4272 Z -1.0000 I -0.2275 J 0.0708
G03 X 3.2407 Y 17.4510 Z -1.0000 I -0.1168 J -0.1165
G03 X 3.1907 Y 17.3915 Z -1.0000 I 0.0653 J -0.1056
G03 X 3.1953 Y 17.3377 Z -1.0000 I 0.0556 J -0.0223
G02 X 3.2014 Y 17.2777 Z -1.0000 I -0.0586 J -0.0362
G02 X 3.1177 Y 17.1267 Z -1.0000 I -0.5303 J 0.1951
G02 X 3.0662 Y 17.0958 Z -1.0000 I -0.0654 J 0.0507
G01 X 3.0499 Y 17.1151 Z -1.0000
G03 X 2.8520 Y 17.2899 Z -1.0000 I -0.1347 J 0.0469
G03 X 2.3412 Y 16.7653 Z -1.0000 I 0.4856 J -0.9838
G02 X 2.2938 Y 16.7345 Z -1.0000 I -0.0481 J 0.0222
G02 X 2.2468 Y 16.7641 Z -1.0000 I -0.0006 J 0.0510
G03 X 2.0856 Y 16.8013 Z -1.0000 I -0.0950 J -0.0439
G03 X 2.0283 Y 16.5859 Z -1.0000 I 0.1201 J -0.1473
G02 X 2.0325 Y 16.4936 Z -1.0000 I -0.1369 J -0.0525
G02 X 1.9843 Y 16.4295 Z -1.0000 I -0.1064 J 0.0300
G02 X 1.9276 Y 16.4267 Z -1.0000 I -0.0309 J 0.0500
G01 X 1.9002 Y 16.4706 Z -1.0000
G01 X 1.8701 Y 16.4995 Z -1.0000
G03 X 1.7821 Y 16.4656 Z -1.0000 I 0.0062 J -0.1474
G03 X 1.6878 Y 16.3564 Z -1.0000 I 0.2797 J -0.3371
G03 X 1.6640 Y 16.2718 Z -1.0000 I 0.1389 J -0.0847
G02 X 1.6316 Y 16.1968 Z -1.0000 I -0.1030 J 0.0000
G02 X 1.4672 Y 16.0863 Z -1.0000 I -0.4158 J 0.4412
G03 X 1.3140 Y 15.9685 Z -1.0000 I 0.1774 J -0.3892
G03 X 1.2704 Y 15.8467 Z -1.0000 I 0.1484 J -0.1219
G02 X 1.2282 Y 15.7292 Z -1.0000 I -0.1847 J 0.0000
G02 X 1.1129 Y 15.6555 Z -1.0000 I -0.1715 J 0.1413
G03 X 0.9993 Y 15.5805 Z -1.0000 I 0.0535 J -0.2047
G03 X 0.9555 Y 15.4526 Z -1.0000 I 0.1649 J -0.1279
G02 X 0.9213 Y 15.3056 Z -1.0000 I -0.3329 J 0.0000
G02 X 0.8065 Y 15.1500 Z -1.0000 I -0.4898 J 0.2411
G03 X 0.6801 Y 14.9961 Z -1.0000 I 0.5450 J -0.5764
G03 X 0.6188 Y 14.8517 Z -1.0000 I 0.4159 J -0.2617
G01 X 0.5993 Y 14.8540 Z -1.0000
G02 X 0.5710 Y 18.6073 Z -1.0000 I 360.5719 J 4.5949
G02 X 0.7031 Y 22.4053 Z -1.0000 I 51.2256 J 0.1195
G02 X 0.8571 Y 22.5809 Z -1.0000 I 0.1929 J -0.0139
G02 X 4.2980 Y 22.8480 Z -1.0000 I 2.7823 J -13.5452
G02 X 5.5768 Y 22.3558 Z -1.0000 I -0.1038 J -2.1773
G03 X 5.6782 Y 22.3135 Z -1.0000 I 0.1213 J 0.1479
G03 X 5.8319 Y 22.3292 Z -1.0000 I 0.0394 J 0.3760
G02 X 5.9888 Y 22.3508 Z -1.0000 I 0.1414 J -0.4456
G02 X 6.0887 Y 22.3207 Z -1.0000 I -0.0067 J -0.2027
G03 X 6.1908 Y 22.2787 Z -1.0000 I 0.1781 J 0.2881
G03 X 6.4633 Y 22.2344 Z -1.0000 I 0.4752 J 2.0651
G02 X 6.7396 Y 22.1950 Z -1.0000 I -0.2908 J -3.0278
G02 X 7.1747 Y 22.0994 Z -1.0000 I -1.4449 J -7.6138
G03 X 7.6103 Y 22.0052 Z -1.0000 I 1.6900 J 6.7584
G03 X 8.0801 Y 21.9337 Z -1.0000 I 1.4267 J 7.7940
G02 X 8.5520 Y 21.8736 Z -1.0000 I -5.1770 J -42.5480
G02 X 8.6311 Y 21.8604 Z -1.0000 I -0.1605 J -1.2073
G03 X 8.7101 Y 21.8460 Z -1.0000 I 0.4629 J 2.3036
G03 X 9.1035 Y 21.7822 Z -1.0000 I 9.6186 J 58.0788
G02 X 9.4899 Y 21.6975 Z -1.0000 I -0.5323 J -3.3546
G02 X 9.7097 Y 21.6119 Z -1.0000 I -0.3266 J -1.1625
G03 X 9.9299 Y 21.5355 Z -1.0000 I 0.3892 J 0.7671
G03 X 10.2608 Y 21.5015 Z -1.0000 I 0.3438 J 1.7163
G02 X 10.5866 Y 21.4617 Z -1.0000 I -0.0108 J -1.4408
G02 X 10.7521 Y 21.3834 Z -1.0000 I -0.1046 J -0.4354
G03 X 10.9134 Y 21.2932 Z -1.0000 I 0.4062 J 0.5371
G03 X 11.0481 Y 21.2678 Z -1.0000 I 0.1347 J 0.3452
G02 X 11.6999 Y 21.1287 Z -1.0000 I -0.0000 J -1.5962
G02 X 11.9638 Y 20.8582 Z -1.0000 I -0.2095 J -0.4684
G03 X 12.0010 Y 20.8120 Z -1.0000 I 0.0984 J 0.0412
G03 X 12.0534 Y 20.7955 Z -1.0000 I 0.0524 J 0.0748
G02 X 12.2596 Y 20.7100 Z -1.0000 I 0.0000 J -0.2914
G02 X 12.9333 Y 19.9143 Z -1.0000 I -4.4992 J -4.4927
G03 X 13.0443 Y 19.9258 Z -1.0000 I 0.0522 J 0.0373
G03 X 13.0362 Y 20.1490 Z -1.0000 I -0.2354 J 0.1032
G03 X 12.7053 Y 20.6039 Z -1.0000 I -1.7387 J -0.9170
G03 X 12.0163 Y 21.1957 Z -1.0000 I -3.6699 J -3.5763
G03 X 11.4448 Y 21.5088 Z -1.0000 I -1.5895 J -2.2225
G03 X 10.5599 Y 21.7804 Z -1.0000 I -2.0540 J -5.1161
G02 X 9.9697 Y 21.9097 Z -1.0000 I 30.2078 J 139.2171
G02 X 9.6545 Y 21.9808 Z -1.0000 I 8.8112 J 39.7924
G03 X 9.3387 Y 22.0486 Z -1.0000 I -2.4929 J -10.8501
G03 X 8.7099 Y 22.1692 Z -1.0000 I -8.5503 J -42.8806
G02 X 8.0804 Y 22.2872 Z -1.0000 I 18.6234 J 101.0957
G02 X 6.8598 Y 22.5219 Z -1.0000 I 72.5121 J 380.3139
G03 X 4.4340 Y 22.8951 Z -1.0000 I -5.9972 J -30.9147
G03 X 2.1954 Y 23.0544 Z -1.0000 I -2.9864 J -26.1626
G02 X 0.6794 Y 23.2151 Z -1.0000 I 0.2806 J 9.8776
G02 X 0.5619 Y 23.3564 Z -1.0000 I 0.0261 J 0.1413
G02 X 0.6374 Y 23.5493 Z -1.0000 I 0.2840 J -0.0000
G02 X 0.8481 Y 23.6657 Z -1.0000 I 0.2814 J -0.2604
G02 X 1.6962 Y 23.7249 Z -1.0000 I 0.6785 J -3.6165
G02 X 4.2619 Y 23.5082 Z -1.0000 I -1.5556 J -33.7208
G03 X 5.1678 Y 23.4026 Z -1.0000 I 8.8007 J 71.5453
G03 X 5.6714 Y 23.3529 Z -1.0000 I 2.4292 J 22.0465
G02 X 6.1705 Y 23.2941 Z -1.0000 I -0.7188 J -8.2489
G02 X 6.2416 Y 23.2681 Z -1.0000 I -0.0276 J -0.1856
G03 X 6.5332 Y 23.1629 Z -1.0000 I 0.3958 J 0.6403
G03 X 7.1157 Y 23.1460 Z -1.0000 I 0.3679 J 2.6342
G02 X 7.2535 Y 23.1556 Z -1.0000 I 0.4869 J -6.0480
G02 X 7.3912 Y 23.1619 Z -1.0000 I 0.3352 J -5.8176
G02 X 8.4442 Y 23.0914 Z -1.0000 I 0.1786 J -5.2319
G02 X 8.9622 Y 22.8960 Z -1.0000 I -0.2412 J -1.4238
G03 X 9.0396 Y 22.8653 Z -1.0000 I 0.1249 J 0.2020
G03 X 9.9455 Y 22.6955 Z -1.0000 I 5.8108 J 28.5040
G02 X 10.8467 Y 22.5048 Z -1.0000 I -1.9831 J -11.5931
G02 X 11.3639 Y 22.3367 Z -1.0000 I -1.0050 J -3.9727
G03 X 11.8740 Y 22.1485 Z -1.0000 I 3.7302 J 9.3241
G03 X 11.9634 Y 22.1338 Z -1.0000 I 0.0894 J 0.2641
G02 X 12.0246 Y 22.1027 Z -1.0000 I 0.0000 J -0.0757
G02 X 12.0556 Y 22.0073 Z -1.0000 I -0.1309 J -0.0954
G03 X 12.0931 Y 21.9353 Z -1.0000 I 0.0878 J -0.0000
G03 X 12.1725 Y 21.9256 Z -1.0000 I 0.0488 J 0.0699
G02 X 12.2703 Y 21.9191 Z -1.0000 I 0.0418 J -0.1089
G02 X 12.3717 Y 21.8167 Z -1.0000 I -0.1210 J -0.2214
G03 X 12.4658 Y 21.6900 Z -1.0000 I 0.4748 J 0.2541
G01 X 12.5107 Y 21.6778 Z -1.0000
G02 X 12.5669 Y 21.6794 Z -1.0000 I 0.0315 J -0.1214
G02 X 12.7582 Y 21.6280 Z -1.0000 I -0.3043 J -1.5153
G03 X 12.9310 Y 21.6227 Z -1.0000 I 0.0951 J 0.2808
G03 X 13.0627 Y 21.7108 Z -1.0000 I -0.0653 J 0.2401
G01 X 13.1075 Y 21.7128 Z -1.0000
G02 X 13.1263 Y 21.6417 Z -1.0000 I -0.0579 J -0.0532
G03 X 13.1366 Y 21.4733 Z -1.0000 I 0.2884 J -0.0669
G03 X 13.2053 Y 21.4252 Z -1.0000 I 0.0687 J 0.0251
G02 X 13.2578 Y 21.3892 Z -1.0000 I 0.0000 J -0.0563
G02 X 13.2464 Y 21.3190 Z -1.0000 I -0.0655 J -0.0253
G03 X 13.2499 Y 21.2348 Z -1.0000 I 0.0484 J -0.0401
G03 X 13.4926 Y 21.0688 Z -1.0000 I 0.5452 J 0.5364
G02 X 13.8263 Y 20.9234 Z -1.0000 I -16.7983 J -39.0065
G02 X 13.9057 Y 20.8867 Z -1.0000 I -0.9910 J -2.2479
G01 X 13.9200 Y 20.8992 Z -1.0000
G03 X 13.8748 Y 20.9814 Z -1.0000 I -0.2394 J -0.0781
G01 X 13.9046 Y 21.0421 Z -1.0000
G02 X 14.0586 Y 20.9754 Z -1.0000 I -0.0074 J -0.2281
G02 X 14.2092 Y 20.7381 Z -1.0000 I -0.4560 J -0.4560
G02 X 14.2318 Y 20.4950 Z -1.0000 I -0.4579 J -0.1651
G02 X 13.9323 Y 19.7813 Z -1.0000 I -1.6309 J 0.2647
G02 X 13.3242 Y 19.2600 Z -1.0000 I -1.4252 J 1.0474
G03 X 13.1410 Y 19.1132 Z -1.0000 I 0.2792 J -0.5360
G01 X 13.1619 Y 19.0672 Z -1.0000
G03 X 13.6707 Y 19.2544 Z -1.0000 I 0.0137 J 0.7478
G03 X 14.2942 Y 20.0673 Z -1.0000 I -1.7679 J 2.0017
G02 X 14.4310 Y 20.2385 Z -1.0000 I 0.4654 J -0.2313
G01 X 14.4697 Y 20.2105 Z -1.0000
G03 X 14.5607 Y 19.7763 Z -1.0000 I 0.3820 J -0.1466
G03 X 15.1362 Y 19.5359 Z -1.0000 I 0.5755 J 0.5685
G03 X 15.2012 Y 19.5860 Z -1.0000 I 0.0000 J 0.0673
G03 X 15.2082 Y 19.8090 Z -1.0000 I -0.4804 J 0.1267
G02 X 15.1979 Y 19.8858 Z -1.0000 I 0.6194 J 0.1225
G02 X 15.1870 Y 20.1015 Z -1.0000 I 4.9015 J 0.3553
G03 X 15.1551 Y 20.2700 Z -1.0000 I -0.5439 J -0.0156
G01 X 15.1223 Y 20.2815 Z -1.0000
G02 X 15.0331 Y 20.3083 Z -1.0000 I -0.0327 J 0.0529
G02 X 14.9367 Y 20.6831 Z -1.0000 I 0.9749 J 0.4506
G03 X 14.8255 Y 20.9919 Z -1.0000 I -0.6031 J -0.0427
G03 X 14.2758 Y 21.6081 Z -1.0000 I -3.1149 J -2.2255
G03 X 14.1264 Y 21.6810 Z -1.0000 I -0.2010 J -0.2227
G03 X 14.0506 Y 21.6475 Z -1.0000 I -0.0128 J -0.0735
G02 X 13.9689 Y 21.5602 Z -1.0000 I -0.2727 J 0.1733
G02 X 13.7145 Y 21.4012 Z -1.0000 I -1.2021 J 1.6401
G02 X 13.4686 Y 21.3404 Z -1.0000 I -0.2459 J 0.4668
G02 X 13.3648 Y 21.4012 Z -1.0000 I 0.0000 J 0.1191
G02 X 13.3150 Y 21.5500 Z -1.0000 I 0.3653 J 0.2050
G02 X 13.3060 Y 21.8362 Z -1.0000 I 1.3806 J 0.1866
G03 X 13.2037 Y 22.4596 Z -1.0000 I -1.3579 J 0.0973
G03 X 12.9834 Y 22.6061 Z -1.0000 I -0.2203 J -0.0923
G02 X 12.9418 Y 22.6263 Z -1.0000 I 0.0000 J 0.0528
G02 X 12.9216 Y 22.6849 Z -1.0000 I 0.0746 J 0.0585
G02 X 13.0046 Y 22.7396 Z -1.0000 I 0.0596 J 0.0000
G02 X 13.1492 Y 22.5877 Z -1.0000 I -0.1041 J -0.2439
G03 X 13.2112 Y 22.5432 Z -1.0000 I 0.0640 J 0.0237
G03 X 13.2689 Y 22.5842 Z -1.0000 I 0.0017 J 0.0588
G02 X 13.3602 Y 22.6808 Z -1.0000 I 0.1456 J -0.0462
G02 X 13.5228 Y 22.6808 Z -1.0000 I 0.0813 J -0.2139
G03 X 13.7194 Y 22.6329 Z -1.0000 I 0.2896 J 0.7617
G03 X 13.7942 Y 22.6496 Z -1.0000 I 0.0133 J 0.1161
G01 X 13.8403 Y 22.6469 Z -1.0000
G02 X 13.8675 Y 22.5911 Z -1.0000 I -0.0451 J -0.0566
G01 X 13.8915 Y 22.5684 Z -1.0000
G03 X 13.9358 Y 22.5939 Z -1.0000 I -0.0023 J 0.0551
G01 X 13.9873 Y 22.6023 Z -1.0000
G02 X 14.0535 Y 22.4983 Z -1.0000 I -0.1232 J -0.1516
G03 X 14.1366 Y 22.3593 Z -1.0000 I 0.2723 J 0.0683
G03 X 14.2240 Y 22.3428 Z -1.0000 I 0.0571 J 0.0625
G02 X 15.0091 Y 22.1744 Z -1.0000 I 0.2634 J -0.6864
G02 X 15.1756 Y 21.3844 Z -1.0000 I -0.5275 J -0.5237
G03 X 15.1741 Y 21.3157 Z -1.0000 I 0.0948 J -0.0364
G01 X 15.2021 Y 21.3056 Z -1.0000
G02 X 15.4535 Y 21.2464 Z -1.0000 I 0.0961 J -0.1555
G02 X 15.4922 Y 20.8378 Z -1.0000 I -0.3923 J -0.2433
G02 X 15.4225 Y 20.7497 Z -1.0000 I -0.1755 J 0.0673
G02 X 15.2474 Y 20.6712 Z -1.0000 I -0.3087 J 0.4536
G03 X 15.0804 Y 20.5538 Z -1.0000 I 0.0692 J -0.2758
G01 X 15.1195 Y 20.4806 Z -1.0000
G02 X 15.3680 Y 20.3310 Z -1.0000 I 0.0000 J -0.2812
G02 X 15.5207 Y 19.7234 Z -1.0000 I -1.1598 J -0.6146
G03 X 15.6011 Y 19.4315 Z -1.0000 I 0.5811 J 0.0030
G03 X 15.8096 Y 19.2328 Z -1.0000 I 0.4538 J 0.2672
G03 X 15.9724 Y 19.2648 Z -1.0000 I 0.0615 J 0.1169
G03 X 16.0471 Y 19.5162 Z -1.0000 I -0.2530 J 0.2121
G01 X 16.0850 Y 19.5422 Z -1.0000
G02 X 16.1591 Y 19.4571 Z -1.0000 I -0.0729 J -0.1384
G02 X 16.2737 Y 19.0200 Z -1.0000 I -2.3331 J -0.8453
G02 X 16.2755 Y 18.7592 Z -1.0000 I -0.8152 J -0.1359
G03 X 16.2799 Y 18.5090 Z -1.0000 I 0.7346 J -0.1123
G03 X 16.3467 Y 18.3826 Z -1.0000 I 0.2382 J 0.0450
G03 X 16.4308 Y 18.3776 Z -1.0000 I 0.0449 J 0.0449
G03 X 16.5329 Y 18.5295 Z -1.0000 I -0.1850 J 0.2346
G02 X 16.5817 Y 18.5827 Z -1.0000 I 0.0779 J -0.0225
G01 X 16.6146 Y 18.5608 Z -1.0000
G03 X 16.6669 Y 18.3543 Z -1.0000 I 0.4945 J 0.0153
G03 X 16.8214 Y 18.1486 Z -1.0000 I 0.6452 J 0.3238
G03 X 16.9941 Y 18.0775 Z -1.0000 I 0.1818 J 0.1961
G03 X 17.0870 Y 18.1396 Z -1.0000 I 0.0032 J 0.0957
G03 X 17.1225 Y 18.3067 Z -1.0000 I -0.5391 J 0.2017
G03 X 17.1000 Y 18.3550 Z -1.0000 I -0.0559 J 0.0034
G02 X 17.0659 Y 18.4046 Z -1.0000 I 0.0558 J 0.0750
G02 X 17.0351 Y 18.5845 Z -1.0000 I 0.8277 J 0.2341
G02 X 17.1313 Y 18.6156 Z -1.0000 I 0.0520 J 0.0033
G02 X 17.3535 Y 18.0793 Z -1.0000 I -1.4556 J -0.9173
G03 X 17.5657 Y 17.8001 Z -1.0000 I 0.4132 J 0.0939
G03 X 17.7238 Y 17.8797 Z -1.0000 I 0.0512 J 0.0951
G02 X 17.7899 Y 17.9638 Z -1.0000 I 0.1060 J -0.0153
G02 X 17.8616 Y 17.9350 Z -1.0000 I 0.0208 J -0.0518
G02 X 17.9306 Y 17.7115 Z -1.0000 I -0.8472 J -0.3838
G02 X 17.9600 Y 17.3722 Z -1.0000 I -1.9406 J -0.3393
G03 X 18.0224 Y 17.0937 Z -1.0000 I 0.6527 J -0.0000
G03 X 18.1174 Y 17.0384 Z -1.0000 I 0.0878 J 0.0414
G03 X 18.2314 Y 17.0906 Z -1.0000 I -0.0136 J 0.1801
G03 X 18.2749 Y 17.1956 Z -1.0000 I -0.1048 J 0.1050
G01 X 18.3459 Y 17.2179 Z -1.0000
G02 X 18.4648 Y 16.9240 Z -1.0000 I -0.5803 J -0.4058
G03 X 18.5363 Y 16.5995 Z -1.0000 I 2.8232 J 0.4515
G03 X 18.5819 Y 16.5089 Z -1.0000 I 0.2561 J 0.0722
G02 X 18.7373 Y 16.1689 Z -1.0000 I -0.6497 J -0.5025
G02 X 18.6612 Y 16.1159 Z -1.0000 I -0.0495 J -0.0100
G01 X 18.6178 Y 16.1098 Z -1.0000
G03 X 18.5898 Y 16.0373 Z -1.0000 I 0.0799 J -0.0725
G03 X 18.6259 Y 15.9507 Z -1.0000 I 0.1220 J -0.0000
G03 X 18.7135 Y 15.9146 Z -1.0000 I 0.0876 J 0.0883
G02 X 18.7893 Y 15.8714 Z -1.0000 I 0.0000 J -0.0882
G02 X 18.8187 Y 15.7374 Z -1.0000 I -0.1874 J -0.1113
G03 X 18.8284 Y 15.5652 Z -1.0000 I 0.5371 J -0.0561
G03 X 18.9062 Y 15.3399 Z -1.0000 I 1.0071 J 0.2217
G02 X 18.9590 Y 15.1168 Z -1.0000 I -0.4817 J -0.2317
G02 X 18.9141 Y 14.8484 Z -1.0000 I -0.7535 J -0.0121
G03 X 18.8513 Y 14.5808 Z -1.0000 I 1.1134 J -0.4026
G03 X 18.8725 Y 14.4858 Z -1.0000 I 0.1475 J -0.0169
G01 X 18.8690 Y 14.4544 Z -1.0000
G01 X 18.8381 Y 14.4506 Z -1.0000
G01 X 18.7819 Y 14.4445 Z -1.0000
G03 X 18.7472 Y 14.3622 Z -1.0000 I 0.0800 J -0.0823
G02 X 18.7219 Y 14.2256 Z -1.0000 I -0.3815 J 0.0000
G02 X 18.6246 Y 14.0427 Z -1.0000 I -0.7923 J 0.3039
G03 X 18.5850 Y 13.9108 Z -1.0000 I 0.1800 J -0.1261
G01 X 18.6292 Y 13.8677 Z -1.0000
G02 X 18.7022 Y 13.8375 Z -1.0000 I -0.0000 J -0.1030
G01 X 18.7078 Y 13.7890 Z -1.0000
G01 X 18.7135 Y 13.7406 Z -1.0000
G03 X 18.7872 Y 13.7103 Z -1.0000 I 0.0736 J 0.0743
G03 X 18.8550 Y 13.7552 Z -1.0000 I 0.0000 J 0.0737
G03 X 18.8624 Y 13.8874 Z -1.0000 I -0.1799 J 0.0764
G01 X 18.8843 Y 13.9258 Z -1.0000
G02 X 18.9417 Y 13.9071 Z -1.0000 I 0.0137 J -0.0553
G03 X 19.0142 Y 13.8398 Z -1.0000 I 0.3040 J 0.2550
G01 X 19.0239 Y 13.8480 Z -1.0000
G02 X 19.0254 Y 13.9149 Z -1.0000 I 0.0631 J 0.0320
G02 X 19.0796 Y 13.9465 Z -1.0000 I 0.0542 J -0.0307
G02 X 19.2290 Y 13.8024 Z -1.0000 I 0.0000 J -0.1495
G02 X 19.1016 Y 13.3453 Z -1.0000 I -0.7813 J -0.0287
G03 X 19.0083 Y 13.1573 Z -1.0000 I 0.7393 J -0.4844
G03 X 18.9833 Y 13.0129 Z -1.0000 I 0.4055 J -0.1444
G02 X 18.9321 Y 12.8954 Z -1.0000 I -0.1605 J -0.0000
G02 X 18.6881 Y 12.7387 Z -1.0000 I -0.5582 J 0.6008
G03 X 18.5516 Y 12.6459 Z -1.0000 I 0.1563 J -0.3769
G01 X 18.5654 Y 12.6122 Z -1.0000
G02 X 18.7200 Y 12.5087 Z -1.0000 I -0.0041 J -0.1733
G02 X 18.7000 Y 12.3061 Z -1.0000 I -0.1899 J -0.0836
G02 X 18.3824 Y 12.1154 Z -1.0000 I -0.3727 J 0.2610
G02 X 18.0570 Y 12.2277 Z -1.0000 I -0.0476 J 0.3901
G03 X 17.9823 Y 12.2428 Z -1.0000 I -0.0488 J -0.0488
G03 X 17.9112 Y 12.1686 Z -1.0000 I 0.0472 J -0.1165
G02 X 17.6876 Y 11.8369 Z -1.0000 I -0.7616 J 0.2720
G02 X 17.4998 Y 11.8021 Z -1.0000 I -0.1226 J 0.1375
G01 X 17.4716 Y 11.7862 Z -1.0000
G03 X 17.4876 Y 11.7359 Z -1.0000 I 0.0551 J -0.0102
G03 X 17.6203 Y 11.6430 Z -1.0000 I 0.3476 J 0.3553
G03 X 18.2748 Y 11.3585 Z -1.0000 I 4.1709 J 8.7000
G02 X 18.9438 Y 11.0961 Z -1.0000 I -168.0614 J -429.4053
G02 X 19.0432 Y 11.0564 Z -1.0000 I -3.7500 J -9.5377
G01 X 19.0953 Y 11.0759 Z -1.0000
G03 X 19.1147 Y 11.1979 Z -1.0000 I -0.1808 J 0.0914
G03 X 19.0600 Y 11.3569 Z -1.0000 I -0.4646 J -0.0709
G03 X 18.9957 Y 11.4100 Z -1.0000 I -0.1009 J -0.0566
G01 X 18.9558 Y 11.3903 Z -1.0000
G03 X 18.9565 Y 11.2961 Z -1.0000 I 0.1340 J -0.0462
G02 X 18.9701 Y 11.2084 Z -1.0000 I -0.2202 J -0.0793
G01 X 18.9531 Y 11.2011 Z -1.0000
G02 X 18.9138 Y 11.2595 Z -1.0000 I 0.0943 J 0.1057
G02 X 18.8579 Y 11.4698 Z -1.0000 I 1.2766 J 0.4520
G02 X 18.8819 Y 11.5800 Z -1.0000 I 0.1446 J 0.0262
G01 X 18.9401 Y 11.5879 Z -1.0000
G03 X 19.0322 Y 11.5503 Z -1.0000 I 0.1057 J 0.1274
G01 X 19.0621 Y 11.5779 Z -1.0000
G01 X 19.0950 Y 11.6140 Z -1.0000
G02 X 19.2067 Y 11.5916 Z -1.0000 I 0.0186 J -0.1964
G02 X 19.2827 Y 11.4819 Z -1.0000 I -0.0690 J -0.1289
G02 X 19.2699 Y 11.1165 Z -1.0000 I -1.0896 J -0.1449
G02 X 19.1447 Y 10.7723 Z -1.0000 I -1.2270 J 0.2513
G02 X 19.0549 Y 10.7188 Z -1.0000 I -0.0898 J 0.0485
G03 X 18.9454 Y 10.6839 Z -1.0000 I 0.0000 J -0.1894
G03 X 18.8716 Y 10.5889 Z -1.0000 I 0.1200 J -0.1694
G02 X 18.8007 Y 10.5460 Z -1.0000 I -0.0631 J 0.0242
G02 X 18.6467 Y 10.6152 Z -1.0000 I 0.0325 J 0.2783
G03 X 18.4624 Y 10.7585 Z -1.0000 I -1.1536 J -1.2933
G03 X 18.1097 Y 10.9775 Z -1.0000 I -3.0659 J -4.5440
G03 X 17.7563 Y 11.1202 Z -1.0000 I -0.7056 J -1.2387
G03 X 17.6570 Y 11.0929 Z -1.0000 I -0.0257 J -0.1008
G02 X 17.5936 Y 11.0681 Z -1.0000 I -0.0600 J 0.0600
G01 X 17.5663 Y 11.0966 Z -1.0000
G03 X 17.4808 Y 11.1497 Z -1.0000 I -0.0592 J 0.0000
G03 X 17.3233 Y 10.9762 Z -1.0000 I 0.1425 J -0.2876
G02 X 17.2229 Y 10.7765 Z -1.0000 I -1.0211 J 0.3883
G02 X 17.1481 Y 10.7019 Z -1.0000 I -0.2059 J 0.1315
G01 X 17.1509 Y 10.6702 Z -1.0000
G03 X 17.2962 Y 10.6412 Z -1.0000 I 0.1472 J 0.3596
G02 X 18.1549 Y 10.4824 Z -1.0000 I -0.0121 J -2.4670
G02 X 18.3800 Y 10.2324 Z -1.0000 I -0.1293 J -0.3427
G02 X 18.3436 Y 10.0204 Z -1.0000 I -0.2517 J -0.0658
G02 X 18.1757 Y 9.9315 Z -1.0000 I -0.1679 J 0.1140
G02 X 18.0982 Y 9.9692 Z -1.0000 I 0.0000 J 0.0985
G01 X 18.1016 Y 10.0259 Z -1.0000
G01 X 18.1017 Y 10.0259 Z -1.0000
G00 Z 5.0000

(End cutting path id: path8988)



(Footer)
M5
G00 X0.0000 Y0.0000
M2
(Using default footer. To add your own footer create file "footer" in the output dir.)
(end)
%