%
(Header)
(Generated by gcodetools from Inkscape.)
(Using default header. To add your own header create file "header" in the output dir.)
M3
(Header end.)
G21 (All units in mm)

(Start cutting path id: path2)
(Change tool to Default tool)

G00 Z 5.0000
G00 X 20.1276 Y 1.1333

G01 Z -1.0000 F 100.0000(Penetrate)
G03 X 19.9444 Y 1.2876 Z -1.0000 I -0.6010 J -0.5277 F 3500.0000
G03 X 19.7595 Y 1.3588 Z -1.0000 I -0.2857 J -0.4664
G02 X 19.6014 Y 1.4347 Z -1.0000 I 0.0624 J 0.3326
G02 X 19.5559 Y 1.5338 Z -1.0000 I 0.0851 J 0.0991
G03 X 19.5283 Y 1.6430 Z -1.0000 I -0.2298 J -0.0000
G03 X 19.4820 Y 1.6706 Z -1.0000 I -0.0463 J -0.0250
G02 X 19.2626 Y 1.7676 Z -1.0000 I -0.0000 J 0.2967
G02 X 19.1657 Y 2.0179 Z -1.0000 I 0.2750 J 0.2504
G03 X 19.1449 Y 2.0928 Z -1.0000 I -0.1449 J 0.0000
G03 X 19.0961 Y 2.1334 Z -1.0000 I -0.0828 J -0.0500
G01 X 19.0788 Y 2.1674 Z -1.0000
G02 X 19.1246 Y 2.2356 Z -1.0000 I 0.1259 J -0.0352
G03 X 19.2005 Y 2.3281 Z -1.0000 I -0.1641 J 0.2119
G03 X 19.4119 Y 2.8133 Z -1.0000 I -4.6898 J 2.3322
G02 X 19.7541 Y 3.5688 Z -1.0000 I 5.9897 J -2.2572
G02 X 20.4675 Y 4.7920 Z -1.0000 I 16.4641 J -8.7830
G03 X 20.8294 Y 5.3826 Z -1.0000 I -18.0525 J 11.4685
G03 X 20.9285 Y 5.5723 Z -1.0000 I -1.7579 J 1.0384
G02 X 21.0254 Y 5.7611 Z -1.0000 I 2.1209 J -0.9693
G02 X 21.0560 Y 5.7953 Z -1.0000 I 0.0949 J -0.0543
G03 X 21.0897 Y 5.8279 Z -1.0000 I -0.0968 J 0.1335
G03 X 21.2809 Y 6.0862 Z -1.0000 I -6.1444 J 4.7502
G02 X 21.4745 Y 6.3142 Z -1.0000 I 1.4013 J -0.9935
G01 X 21.5163 Y 6.3189 Z -1.0000
G01 X 21.5467 Y 6.3160 Z -1.0000
G01 X 21.5573 Y 6.3346 Z -1.0000
G02 X 21.5642 Y 6.5346 Z -1.0000 I 0.4810 J 0.0835
G02 X 21.6165 Y 6.5756 Z -1.0000 I 0.0523 J -0.0129
G01 X 21.6417 Y 6.5551 Z -1.0000
G02 X 21.6369 Y 6.4781 Z -1.0000 I -0.1422 J -0.0297
G01 X 21.6494 Y 6.4644 Z -1.0000
G03 X 21.6926 Y 6.4920 Z -1.0000 I -0.0195 J 0.0778
G03 X 21.7670 Y 6.6089 Z -1.0000 I -0.5000 J 0.4007
G03 X 21.7837 Y 6.6765 Z -1.0000 I -0.1447 J 0.0715
G02 X 21.8033 Y 6.7165 Z -1.0000 I 0.0533 J -0.0013
G01 X 21.8353 Y 6.7186 Z -1.0000
G01 X 21.8747 Y 6.7189 Z -1.0000
G03 X 21.9172 Y 6.7710 Z -1.0000 I -0.0580 J 0.0907
G02 X 21.9645 Y 6.8320 Z -1.0000 I 0.1245 J -0.0478
G02 X 22.0345 Y 6.8543 Z -1.0000 I 0.0700 J -0.0986
G03 X 22.1015 Y 6.8727 Z -1.0000 I -0.0000 J 0.1309
G01 X 22.1199 Y 6.9051 Z -1.0000
G02 X 22.3335 Y 7.4107 Z -1.0000 I 0.7051 J 0.0000
G02 X 23.1310 Y 7.8880 Z -1.0000 I 1.4091 J -1.4497
G03 X 23.2013 Y 7.9344 Z -1.0000 I -0.0466 J 0.1470
G01 X 23.2043 Y 7.9731 Z -1.0000
G01 X 23.2003 Y 8.0093 Z -1.0000
G01 X 23.2221 Y 8.0248 Z -1.0000
G01 X 23.2646 Y 7.9677 Z -1.0000
G02 X 23.1468 Y 7.7736 Z -1.0000 I -0.4319 J 0.1293
G03 X 22.9740 Y 7.5806 Z -1.0000 I 1.2932 J -1.3317
G03 X 22.9560 Y 7.5278 Z -1.0000 I 0.0679 J -0.0527
G03 X 23.0465 Y 7.4360 Z -1.0000 I 0.0919 J 0.0000
G03 X 23.2074 Y 7.5241 Z -1.0000 I 0.0028 J 0.1858
G02 X 23.2485 Y 7.5548 Z -1.0000 I 0.0592 J -0.0366
G02 X 23.2957 Y 7.5478 Z -1.0000 I 0.0156 J -0.0581
G01 X 23.3058 Y 7.5044 Z -1.0000
G02 X 23.0097 Y 7.0924 Z -1.0000 I -3.4469 J 2.1643
G03 X 22.9626 Y 7.0212 Z -1.0000 I 0.3273 J -0.2676
G01 X 22.9573 Y 6.9925 Z -1.0000
G01 X 22.9470 Y 6.9580 Z -1.0000
G02 X 22.5615 Y 6.5223 Z -1.0000 I -9.0739 J 7.6400
G03 X 22.4828 Y 6.4221 Z -1.0000 I 0.5606 J -0.5212
G03 X 22.4379 Y 6.3345 Z -1.0000 I 0.3817 J -0.2513
G02 X 22.3885 Y 6.2610 Z -1.0000 I -0.1853 J 0.0711
G02 X 22.3386 Y 6.2413 Z -1.0000 I -0.0499 J 0.0531
G01 X 22.3070 Y 6.2194 Z -1.0000
G03 X 22.3073 Y 6.1576 Z -1.0000 I 0.0815 J -0.0306
G02 X 22.3014 Y 6.1001 Z -1.0000 I -0.0600 J -0.0230
G02 X 22.2539 Y 6.0740 Z -1.0000 I -0.0475 J 0.0303
G03 X 22.1894 Y 6.0419 Z -1.0000 I 0.0000 J -0.0808
G03 X 22.0467 Y 5.7991 Z -1.0000 I 0.9849 J -0.7426
G02 X 21.9006 Y 5.5520 Z -1.0000 I -1.1299 J 0.5009
G02 X 21.8133 Y 5.4922 Z -1.0000 I -0.1337 J 0.1016
G01 X 21.7838 Y 5.4445 Z -1.0000
G03 X 21.8388 Y 5.3540 Z -1.0000 I 0.1461 J 0.0270
G03 X 21.9770 Y 5.2973 Z -1.0000 I 0.1717 J 0.2216
G03 X 22.0851 Y 5.3244 Z -1.0000 I 0.0186 J 0.1547
G02 X 22.1865 Y 5.3507 Z -1.0000 I 0.0859 J -0.1227
G02 X 22.2668 Y 5.3055 Z -1.0000 I -0.0120 J -0.1153
G03 X 22.3208 Y 5.2674 Z -1.0000 I 0.0870 J 0.0661
G01 X 22.3411 Y 5.2819 Z -1.0000
G01 X 22.3656 Y 5.2996 Z -1.0000
G02 X 22.4588 Y 5.2458 Z -1.0000 I -0.0705 J -0.2295
G03 X 22.7672 Y 5.0897 Z -1.0000 I 0.4239 J 0.4550
G03 X 22.9169 Y 5.1592 Z -1.0000 I 0.0263 J 0.1393
G02 X 22.9763 Y 5.2126 Z -1.0000 I 0.1095 J -0.0620
G02 X 23.0981 Y 5.2379 Z -1.0000 I 0.1218 J -0.2801
G03 X 23.2112 Y 5.2614 Z -1.0000 I -0.0000 J 0.2853
G01 X 23.2347 Y 5.2970 Z -1.0000
G01 X 23.2499 Y 5.3293 Z -1.0000
G01 X 23.2765 Y 5.3314 Z -1.0000
G03 X 23.3196 Y 5.3228 Z -1.0000 I 0.0339 J 0.0576
G03 X 23.4461 Y 5.3551 Z -1.0000 I -0.0810 J 0.5810
G03 X 23.5190 Y 5.4240 Z -1.0000 I -0.0460 J 0.1217
G03 X 23.5158 Y 5.5121 Z -1.0000 I -0.0918 J 0.0407
G02 X 23.5046 Y 5.6289 Z -1.0000 I 0.1341 J 0.0718
G01 X 23.5612 Y 5.6585 Z -1.0000
G03 X 23.6553 Y 5.6579 Z -1.0000 I 0.0480 J 0.1512
G03 X 23.7363 Y 5.7117 Z -1.0000 I -0.0492 J 0.1618
G02 X 23.8175 Y 5.7649 Z -1.0000 I 0.1269 J -0.1053
G02 X 23.9158 Y 5.7636 Z -1.0000 I 0.0470 J -0.1628
G03 X 23.9827 Y 5.7765 Z -1.0000 I 0.0216 J 0.0680
G03 X 24.0054 Y 5.8374 Z -1.0000 I -0.0412 J 0.0501
G02 X 24.0113 Y 5.9389 Z -1.0000 I 0.2245 J 0.0380
G02 X 24.0636 Y 6.0376 Z -1.0000 I 0.2635 J -0.0766
G02 X 24.2635 Y 6.1425 Z -1.0000 I 0.2259 J -0.1875
G02 X 24.3167 Y 6.0601 Z -1.0000 I 0.0049 J -0.0552
G01 X 24.3230 Y 6.0482 Z -1.0000
G01 X 24.3500 Y 6.0577 Z -1.0000
G03 X 24.3826 Y 6.1276 Z -1.0000 I -0.0691 J 0.0747
G03 X 24.3568 Y 6.2044 Z -1.0000 I -0.1119 J 0.0052
G01 X 24.3589 Y 6.2665 Z -1.0000
G02 X 24.5189 Y 6.3750 Z -1.0000 I 0.3282 J -0.3119
G02 X 24.7451 Y 6.4453 Z -1.0000 I 0.5563 J -1.3903
G02 X 24.7940 Y 6.4371 Z -1.0000 I 0.0144 J -0.0638
G03 X 24.9628 Y 6.4213 Z -1.0000 I 0.1004 J 0.1625
G03 X 24.9941 Y 6.5139 Z -1.0000 I -0.0227 J 0.0593
G01 X 24.9992 Y 6.5431 Z -1.0000
G02 X 25.1321 Y 6.6235 Z -1.0000 I 0.3806 J -0.4794
G03 X 25.6901 Y 6.9891 Z -1.0000 I -0.8305 J 1.8763
G03 X 25.7986 Y 7.2361 Z -1.0000 I -0.2271 J 0.2470
G02 X 25.8200 Y 7.2789 Z -1.0000 I 0.0535 J -0.0000
G02 X 25.8840 Y 7.3002 Z -1.0000 I 0.0640 J -0.0852
G03 X 25.9540 Y 7.3226 Z -1.0000 I -0.0000 J 0.1207
G03 X 26.0014 Y 7.3838 Z -1.0000 I -0.0778 J 0.1093
G02 X 26.0481 Y 7.4462 Z -1.0000 I 0.1332 J -0.0511
G02 X 26.1111 Y 7.4675 Z -1.0000 I 0.0630 J -0.0827
G03 X 26.1716 Y 7.4846 Z -1.0000 I -0.0000 J 0.1152
G01 X 26.1888 Y 7.5154 Z -1.0000
G02 X 26.3001 Y 7.7629 Z -1.0000 I 0.3308 J -0.0000
G02 X 26.7024 Y 7.9709 Z -1.0000 I 0.6116 J -0.6895
G03 X 26.8102 Y 8.0244 Z -1.0000 I -0.0595 J 0.2554
G03 X 26.8833 Y 8.1208 Z -1.0000 I -0.1694 J 0.2045
G02 X 26.9551 Y 8.2198 Z -1.0000 I 0.2706 J -0.1206
G02 X 27.0505 Y 8.2722 Z -1.0000 I 0.1579 J -0.1744
G03 X 27.1012 Y 8.3132 Z -1.0000 I -0.0216 J 0.0784
G01 X 27.0912 Y 8.3507 Z -1.0000
G01 X 27.0780 Y 8.3980 Z -1.0000
G02 X 27.1589 Y 8.4900 Z -1.0000 I 0.2072 J -0.1007
G02 X 27.3028 Y 8.5717 Z -1.0000 I 0.7135 J -1.0888
G02 X 27.3484 Y 8.5822 Z -1.0000 I 0.0456 J -0.0937
G01 X 27.3857 Y 8.6001 Z -1.0000
G03 X 27.4606 Y 8.7216 Z -1.0000 I -0.4451 J 0.3585
G02 X 27.5411 Y 8.8345 Z -1.0000 I 0.3315 J -0.1510
G02 X 27.6072 Y 8.8609 Z -1.0000 I 0.0661 J -0.0695
G01 X 27.6511 Y 8.8878 Z -1.0000
G03 X 27.6546 Y 8.9537 Z -1.0000 I -0.0721 J 0.0369
G02 X 27.6519 Y 9.0068 Z -1.0000 I 0.0803 J 0.0308
G01 X 27.6709 Y 9.0144 Z -1.0000
G03 X 27.8044 Y 9.0233 Z -1.0000 I 0.0605 J 0.0979
G03 X 27.9274 Y 9.2246 Z -1.0000 I -0.2270 J 0.2768
G02 X 27.9705 Y 9.3047 Z -1.0000 I 0.1603 J -0.0346
G02 X 28.0205 Y 9.3198 Z -1.0000 I 0.0386 J -0.0378
G03 X 28.1775 Y 9.3613 Z -1.0000 I 0.0377 J 0.1750
G03 X 28.2511 Y 9.5258 Z -1.0000 I -0.1470 J 0.1645
G02 X 28.2705 Y 9.5661 Z -1.0000 I 0.0515 J 0.0000
G02 X 28.3261 Y 9.5855 Z -1.0000 I 0.0555 J -0.0697
G03 X 28.5077 Y 9.6634 Z -1.0000 I 0.0000 J 0.2509
G03 X 28.5855 Y 9.8578 Z -1.0000 I -0.2041 J 0.1945
G02 X 28.7355 Y 10.1988 Z -1.0000 I 0.4626 J 0.0000
G02 X 28.9828 Y 10.2221 Z -1.0000 I 0.1391 J -0.1517
G03 X 29.1727 Y 10.2672 Z -1.0000 I 0.0724 J 0.1172
G03 X 29.1723 Y 10.5306 Z -1.0000 I -0.2139 J 0.1314
G01 X 29.1790 Y 10.5651 Z -1.0000
G02 X 29.2511 Y 10.5888 Z -1.0000 I 0.0722 J -0.0977
G03 X 29.3436 Y 10.6066 Z -1.0000 I 0.0000 J 0.2500
G01 X 29.3562 Y 10.6306 Z -1.0000
G02 X 29.4033 Y 10.8772 Z -1.0000 I 0.3015 J 0.0702
G02 X 29.5978 Y 10.9790 Z -1.0000 I 0.1945 J -0.1349
G03 X 29.6756 Y 11.0037 Z -1.0000 I -0.0000 J 0.1348
G03 X 29.7003 Y 11.0515 Z -1.0000 I -0.0337 J 0.0477
G02 X 29.7156 Y 11.1176 Z -1.0000 I 0.1502 J 0.0000
G02 X 29.7700 Y 11.1936 Z -1.0000 I 0.2557 J -0.1253
G03 X 29.8313 Y 11.2674 Z -1.0000 I -0.3679 J 0.3679
G03 X 29.8445 Y 11.3023 Z -1.0000 I -0.0651 J 0.0446
G02 X 29.9165 Y 11.4902 Z -1.0000 I 0.4149 J -0.0512
G02 X 29.9855 Y 11.5045 Z -1.0000 I 0.0421 J -0.0293
G01 X 30.0190 Y 11.5125 Z -1.0000
G03 X 30.0702 Y 11.6442 Z -1.0000 I -0.3489 J 0.2116
G02 X 30.1264 Y 11.7882 Z -1.0000 I 0.4363 J -0.0873
G02 X 30.1742 Y 11.8151 Z -1.0000 I 0.0478 J -0.0291
G03 X 30.2363 Y 11.8316 Z -1.0000 I 0.0000 J 0.1249
G03 X 30.3073 Y 11.8913 Z -1.0000 I -0.1295 J 0.2261
G03 X 30.3277 Y 11.9635 Z -1.0000 I -0.0711 J 0.0590
G03 X 30.2862 Y 12.0375 Z -1.0000 I -0.1167 J -0.0168
G02 X 30.2323 Y 12.1518 Z -1.0000 I 0.0954 J 0.1149
G02 X 30.2856 Y 12.2052 Z -1.0000 I 0.0533 J 0.0002
G02 X 30.3490 Y 12.1851 Z -1.0000 I 0.0000 J -0.1100
G01 X 30.3692 Y 12.1462 Z -1.0000
G01 X 30.3872 Y 12.1196 Z -1.0000
G01 X 30.4272 Y 12.1230 Z -1.0000
G03 X 30.4581 Y 12.1689 Z -1.0000 I -0.0353 J 0.0571
G03 X 30.4513 Y 12.2657 Z -1.0000 I -0.2033 J 0.0344
G02 X 30.4594 Y 12.3417 Z -1.0000 I 0.0906 J 0.0287
G02 X 30.5125 Y 12.3725 Z -1.0000 I 0.0531 J -0.0305
G03 X 30.5966 Y 12.3949 Z -1.0000 I -0.0000 J 0.1689
G03 X 30.6825 Y 12.4700 Z -1.0000 I -0.1444 J 0.2516
G02 X 30.7554 Y 12.5109 Z -1.0000 I 0.0842 J -0.0645
G02 X 30.8132 Y 12.4839 Z -1.0000 I 0.0065 J -0.0613
G01 X 30.8521 Y 12.4867 Z -1.0000
G03 X 30.8737 Y 12.6094 Z -1.0000 I -0.2061 J 0.0995
G02 X 30.8982 Y 12.6758 Z -1.0000 I 0.0803 J 0.0082
G02 X 30.9755 Y 12.7069 Z -1.0000 I 0.0773 J -0.0807
G03 X 31.0999 Y 12.7860 Z -1.0000 I 0.0000 J 0.1373
G03 X 31.0690 Y 12.9066 Z -1.0000 I -0.0888 J 0.0415
G02 X 31.0294 Y 12.9871 Z -1.0000 I 0.0570 J 0.0780
G02 X 31.0744 Y 13.1194 Z -1.0000 I 0.2348 J -0.0060
G02 X 31.1904 Y 13.2356 Z -1.0000 I 0.4298 J -0.3132
G02 X 31.2703 Y 13.2625 Z -1.0000 I 0.0825 J -0.1128
G03 X 31.3725 Y 13.3329 Z -1.0000 I -0.0022 J 0.1125
G03 X 31.3650 Y 13.4974 Z -1.0000 I -0.1836 J 0.0740
G02 X 31.3653 Y 13.5710 Z -1.0000 I 0.0710 J 0.0365
G02 X 31.4337 Y 13.6283 Z -1.0000 I 0.1039 J -0.0546
G03 X 31.6967 Y 13.8015 Z -1.0000 I -0.1753 J 0.5524
G03 X 31.7254 Y 13.9654 Z -1.0000 I -0.1224 J 0.1059
G02 X 31.7212 Y 14.0455 Z -1.0000 I 0.1210 J 0.0464
G02 X 31.7616 Y 14.0998 Z -1.0000 I 0.0887 J -0.0239
G03 X 31.8087 Y 14.1584 Z -1.0000 I -0.0592 J 0.0957
G03 X 31.8519 Y 14.3584 Z -1.0000 I -0.7863 J 0.2744
G02 X 31.8926 Y 14.5562 Z -1.0000 I 0.8898 J -0.0799
G02 X 31.9284 Y 14.5922 Z -1.0000 I 0.0536 J -0.0175
G03 X 31.9675 Y 14.6243 Z -1.0000 I -0.0225 J 0.0674
G03 X 31.9856 Y 14.6920 Z -1.0000 I -0.1181 J 0.0677
G02 X 32.0065 Y 14.7583 Z -1.0000 I 0.1156 J 0.0000
G02 X 32.0629 Y 14.8024 Z -1.0000 I 0.1003 J -0.0703
G03 X 32.1184 Y 14.8505 Z -1.0000 I -0.0386 J 0.1007
G03 X 32.1742 Y 15.0018 Z -1.0000 I -0.4536 J 0.2532
G02 X 32.2319 Y 15.1283 Z -1.0000 I 0.2983 J -0.0596
G01 X 32.2832 Y 15.1427 Z -1.0000
G01 X 32.3214 Y 15.1580 Z -1.0000
G03 X 32.3327 Y 15.2481 Z -1.0000 I -0.1332 J 0.0625
G02 X 32.3780 Y 15.3523 Z -1.0000 I 0.0989 J 0.0189
G02 X 32.5569 Y 15.3890 Z -1.0000 I 0.1383 J -0.2202
G01 X 32.5840 Y 15.3995 Z -1.0000
G03 X 32.5987 Y 15.4414 Z -1.0000 I -0.0525 J 0.0419
G01 X 32.6181 Y 15.4661 Z -1.0000
G02 X 32.6684 Y 15.4586 Z -1.0000 I 0.0159 J -0.0647
G01 X 32.6808 Y 15.4664 Z -1.0000
G03 X 32.6636 Y 15.5086 Z -1.0000 I -0.0786 J -0.0075
G02 X 32.6415 Y 15.6468 Z -1.0000 I 0.1089 J 0.0883
G02 X 32.7431 Y 15.7168 Z -1.0000 I 0.1016 J -0.0388
G03 X 32.8461 Y 15.8136 Z -1.0000 I 0.0000 J 0.1032
G03 X 32.7607 Y 16.0014 Z -1.0000 I -0.2193 J 0.0136
G02 X 32.6850 Y 16.0852 Z -1.0000 I 0.1911 J 0.2486
G01 X 32.6962 Y 16.1057 Z -1.0000
G03 X 32.7471 Y 16.1254 Z -1.0000 I -0.0014 J 0.0790
G03 X 32.7659 Y 16.1671 Z -1.0000 I -0.0367 J 0.0417
G01 X 32.7408 Y 16.1960 Z -1.0000
G03 X 32.5987 Y 16.1906 Z -1.0000 I -0.0558 J -0.3982
G02 X 32.4566 Y 16.1851 Z -1.0000 I -0.0863 J 0.3927
G01 X 32.4315 Y 16.2140 Z -1.0000
G01 X 32.4519 Y 16.2538 Z -1.0000
G02 X 32.5151 Y 16.2742 Z -1.0000 I 0.0632 J -0.0878
G03 X 32.5780 Y 16.2949 Z -1.0000 I -0.0000 J 0.1058
G03 X 32.5987 Y 16.3360 Z -1.0000 I -0.0303 J 0.0411
G01 X 32.6235 Y 16.3659 Z -1.0000
G02 X 32.7395 Y 16.3624 Z -1.0000 I 0.0500 J -0.2663
G03 X 32.8272 Y 16.3930 Z -1.0000 I 0.0206 J 0.0820
G03 X 32.8736 Y 16.5375 Z -1.0000 I -0.1793 J 0.1373
G02 X 32.9122 Y 17.2984 Z -1.0000 I 4.6182 J 0.1473
G02 X 32.9821 Y 17.3471 Z -1.0000 I 0.0573 J -0.0077
G01 X 33.0175 Y 17.3670 Z -1.0000
G03 X 33.0446 Y 17.5283 Z -1.0000 I -0.4671 J 0.1613
G02 X 33.0741 Y 17.6874 Z -1.0000 I 0.4431 J -0.0000
G01 X 33.1143 Y 17.7095 Z -1.0000
G01 X 33.1524 Y 17.7289 Z -1.0000
G03 X 33.1662 Y 17.8229 Z -1.0000 I -0.1544 J 0.0706
G02 X 33.2336 Y 18.3135 Z -1.0000 I 0.9026 J 0.1259
G02 X 33.4391 Y 18.4480 Z -1.0000 I 0.2055 J -0.0897
G03 X 33.5534 Y 18.5164 Z -1.0000 I 0.0000 J 0.1298
G03 X 33.5510 Y 18.6566 Z -1.0000 I -0.1265 J 0.0679
G03 X 33.5091 Y 18.6952 Z -1.0000 I -0.0840 J -0.0489
G01 X 33.4922 Y 18.6849 Z -1.0000
G02 X 33.4732 Y 18.6329 Z -1.0000 I -0.0862 J 0.0021
G01 X 33.4362 Y 18.6152 Z -1.0000
G01 X 33.4091 Y 18.6380 Z -1.0000
G02 X 33.4098 Y 18.7685 Z -1.0000 I 0.3685 J 0.0634
G03 X 33.4137 Y 18.9166 Z -1.0000 I -0.4747 J 0.0867
G03 X 33.3795 Y 19.0054 Z -1.0000 I -0.1984 J -0.0255
G03 X 33.3199 Y 19.0331 Z -1.0000 I -0.0536 J -0.0374
G03 X 33.2478 Y 18.9934 Z -1.0000 I 0.0093 J -0.1021
G02 X 33.1717 Y 18.9406 Z -1.0000 I -0.1203 J 0.0923
G02 X 33.1183 Y 18.9539 Z -1.0000 I -0.0156 J 0.0511
G03 X 33.0641 Y 18.9694 Z -1.0000 I -0.0411 J -0.0411
G03 X 32.9908 Y 18.9241 Z -1.0000 I 0.0308 J -0.1316
G03 X 32.9634 Y 18.8588 Z -1.0000 I 0.0937 J -0.0777
G01 X 32.9820 Y 18.8382 Z -1.0000
G01 X 33.0231 Y 18.8167 Z -1.0000
G02 X 33.0446 Y 18.7477 Z -1.0000 I -0.0996 J -0.0689
G01 X 33.0702 Y 18.7119 Z -1.0000
G03 X 33.1217 Y 18.7213 Z -1.0000 I 0.0173 J 0.0506
G02 X 33.1864 Y 18.7379 Z -1.0000 I 0.0500 J -0.0602
G02 X 33.2314 Y 18.7002 Z -1.0000 I -0.0114 J -0.0593
G02 X 33.2267 Y 18.6409 Z -1.0000 I -0.0645 J -0.0247
G02 X 33.1822 Y 18.6152 Z -1.0000 I -0.0445 J 0.0258
G01 X 33.1371 Y 18.5784 Z -1.0000
G03 X 33.0999 Y 18.2111 Z -1.0000 I 1.8131 J -0.3690
G01 X 33.0996 Y 17.8070 Z -1.0000
G01 X 32.9888 Y 17.9742 Z -1.0000
G02 X 32.9333 Y 18.1190 Z -1.0000 I 0.2978 J 0.1972
G01 X 32.9613 Y 18.1595 Z -1.0000
G03 X 33.0191 Y 18.2317 Z -1.0000 I -0.0155 J 0.0716
G03 X 32.9595 Y 18.3738 Z -1.0000 I -0.2034 J -0.0017
G03 X 32.8055 Y 18.4042 Z -1.0000 I -0.0997 J -0.0997
G03 X 32.6514 Y 18.2450 Z -1.0000 I 0.1082 J -0.2589
G03 X 32.6294 Y 18.1068 Z -1.0000 I 0.3210 J -0.1220
G03 X 32.6604 Y 18.0541 Z -1.0000 I 0.0655 J 0.0031
G02 X 32.6940 Y 18.0031 Z -1.0000 I -0.0381 J -0.0617
G02 X 32.6818 Y 17.9102 Z -1.0000 I -0.1690 J -0.0251
G01 X 32.6438 Y 17.8829 Z -1.0000
G01 X 32.6139 Y 17.9046 Z -1.0000
G03 X 32.5667 Y 17.9720 Z -1.0000 I -0.1091 J -0.0261
G03 X 32.4667 Y 18.0021 Z -1.0000 I -0.1001 J -0.1510
G03 X 32.3838 Y 17.9583 Z -1.0000 I -0.0000 J -0.1002
G03 X 32.3292 Y 17.8000 Z -1.0000 I 0.2643 J -0.1798
G02 X 32.2953 Y 17.6036 Z -1.0000 I -0.9606 J 0.0648
G02 X 32.2231 Y 17.4237 Z -1.0000 I -0.8754 J 0.2467
G03 X 32.1514 Y 17.2461 Z -1.0000 I 0.8116 J -0.4309
G03 X 32.1452 Y 17.1521 Z -1.0000 I 0.2134 J -0.0612
G02 X 32.1292 Y 17.0809 Z -1.0000 I -0.1001 J -0.0149
G02 X 32.0799 Y 17.0546 Z -1.0000 I -0.0493 J 0.0330
G03 X 32.0280 Y 17.0206 Z -1.0000 I 0.0000 J -0.0566
G03 X 31.9343 Y 16.7201 Z -1.0000 I 1.3355 J -0.5816
G02 X 31.8402 Y 16.4200 Z -1.0000 I -1.4128 J 0.2780
G02 X 31.7877 Y 16.3857 Z -1.0000 I -0.0526 J 0.0230
G02 X 31.7268 Y 16.4056 Z -1.0000 I -0.0000 J 0.1033
G01 X 31.7069 Y 16.4447 Z -1.0000
G01 X 31.6884 Y 16.4705 Z -1.0000
G03 X 31.6452 Y 16.4656 Z -1.0000 I -0.0164 J -0.0483
G01 X 31.6274 Y 16.4275 Z -1.0000
G03 X 31.6574 Y 16.3818 Z -1.0000 I 0.0640 J 0.0094
G01 X 31.6720 Y 16.3314 Z -1.0000
G02 X 31.5659 Y 16.1938 Z -1.0000 I -0.3865 J 0.1882
G02 X 31.3938 Y 16.0690 Z -1.0000 I -0.8370 J 0.9733
G02 X 31.3307 Y 16.0513 Z -1.0000 I -0.0633 J 0.1045
G03 X 31.2811 Y 16.0309 Z -1.0000 I 0.0001 J -0.0705
G03 X 31.2602 Y 15.9816 Z -1.0000 I 0.0496 J -0.0501
G02 X 31.2537 Y 15.9127 Z -1.0000 I -0.4147 J 0.0045
G02 X 31.2236 Y 15.7778 Z -1.0000 I -1.6292 J 0.2930
G03 X 31.2293 Y 15.6996 Z -1.0000 I 0.1155 J -0.0309
G01 X 31.2617 Y 15.6894 Z -1.0000
G01 X 31.2926 Y 15.6831 Z -1.0000
G01 X 31.2983 Y 15.6378 Z -1.0000
G03 X 31.2674 Y 15.5393 Z -1.0000 I 0.7699 J -0.2955
G03 X 31.2610 Y 15.4860 Z -1.0000 I 0.2166 J -0.0533
G01 X 31.2449 Y 15.4604 Z -1.0000
G01 X 31.2116 Y 15.4621 Z -1.0000
G03 X 31.1256 Y 15.4481 Z -1.0000 I -0.0349 J -0.0565
G03 X 31.0292 Y 15.2431 Z -1.0000 I 0.3455 J -0.2877
G02 X 30.9865 Y 15.1573 Z -1.0000 I -0.1720 J 0.0322
G02 X 30.9256 Y 15.1295 Z -1.0000 I -0.0629 J 0.0574
G03 X 30.8462 Y 15.1158 Z -1.0000 I 0.0066 J -0.2748
G03 X 30.7393 Y 15.0681 Z -1.0000 I 0.1823 J -0.5531
G03 X 30.7023 Y 15.0140 Z -1.0000 I 0.0373 J -0.0652
G01 X 30.7254 Y 14.9744 Z -1.0000
G03 X 30.7951 Y 14.9691 Z -1.0000 I 0.0437 J 0.1139
G01 X 30.8151 Y 14.9940 Z -1.0000
G01 X 30.8320 Y 15.0310 Z -1.0000
G02 X 30.8776 Y 15.0480 Z -1.0000 I 0.0456 J -0.0528
G01 X 30.9057 Y 14.9782 Z -1.0000
G02 X 30.6856 Y 14.8633 Z -1.0000 I -0.3063 J 0.3186
G01 X 30.5643 Y 14.8392 Z -1.0000
G01 X 30.6897 Y 14.7977 Z -1.0000
G02 X 30.8051 Y 14.7490 Z -1.0000 I -0.2455 J -0.7431
G01 X 30.8151 Y 14.7326 Z -1.0000
G02 X 30.5791 Y 14.1726 Z -1.0000 I -0.7822 J 0.0000
G02 X 30.1981 Y 14.1307 Z -1.0000 I -0.2174 J 0.2228
G01 X 30.1595 Y 14.1302 Z -1.0000
G03 X 30.0804 Y 14.0539 Z -1.0000 I 0.1597 J -0.2449
G02 X 29.9944 Y 13.9641 Z -1.0000 I -0.3420 J 0.2414
G02 X 29.8233 Y 13.8552 Z -1.0000 I -0.6814 J 0.8814
G03 X 29.6628 Y 13.7401 Z -1.0000 I 0.3099 J -0.6015
G03 X 29.5899 Y 13.6294 Z -1.0000 I 0.2118 J -0.2189
G02 X 29.5281 Y 13.5080 Z -1.0000 I -0.5930 J 0.2255
G02 X 29.4799 Y 13.4610 Z -1.0000 I -0.1294 J 0.0845
G03 X 29.4452 Y 13.4179 Z -1.0000 I 0.0437 J -0.0707
G01 X 29.4497 Y 13.3754 Z -1.0000
G01 X 29.4499 Y 13.3346 Z -1.0000
G02 X 29.3899 Y 13.2767 Z -1.0000 I -0.1399 J 0.0848
G03 X 29.3149 Y 13.2191 Z -1.0000 I 0.1607 J -0.2873
G01 X 29.3051 Y 13.1897 Z -1.0000
G02 X 29.2933 Y 13.0768 Z -1.0000 I -0.2375 J -0.0322
G01 X 29.2607 Y 13.0653 Z -1.0000
G03 X 29.1225 Y 13.0406 Z -1.0000 I -0.0553 J -0.0895
G03 X 29.1135 Y 12.8766 Z -1.0000 I 0.1133 J -0.0884
G01 X 29.1103 Y 12.8403 Z -1.0000
G02 X 29.0612 Y 12.8184 Z -1.0000 I -0.0491 J 0.0441
G03 X 28.9924 Y 12.7902 Z -1.0000 I -0.0000 J -0.0980
G03 X 28.9200 Y 12.6791 Z -1.0000 I 0.2189 J -0.2219
G02 X 28.8525 Y 12.5607 Z -1.0000 I -0.4133 J 0.1572
G02 X 28.8090 Y 12.5397 Z -1.0000 I -0.0435 J 0.0347
G03 X 28.7647 Y 12.5180 Z -1.0000 I -0.0000 J -0.0560
G03 X 28.6579 Y 12.3446 Z -1.0000 I 0.7542 J -0.5840
G02 X 28.5440 Y 12.1827 Z -1.0000 I -0.5342 J 0.2548
G02 X 28.4645 Y 12.1496 Z -1.0000 I -0.0795 J 0.0788
G03 X 28.3760 Y 12.1198 Z -1.0000 I 0.0000 J -0.1463
G03 X 27.9692 Y 11.7733 Z -1.0000 I 2.8986 J -3.8161
G02 X 27.5661 Y 11.4254 Z -1.0000 I -3.7391 J 3.9248
G02 X 27.5052 Y 11.4110 Z -1.0000 I -0.0461 J 0.0590
G03 X 27.2933 Y 11.3506 Z -1.0000 I -0.0475 J -0.2350
G03 X 27.1921 Y 11.1162 Z -1.0000 I 0.2207 J -0.2344
G02 X 27.1728 Y 11.0540 Z -1.0000 I -0.1101 J 0.0000
G01 X 27.1363 Y 11.0348 Z -1.0000
G01 X 27.0992 Y 11.0161 Z -1.0000
G03 X 27.0806 Y 10.9598 Z -1.0000 I 0.0758 J -0.0563
G02 X 26.9818 Y 10.7345 Z -1.0000 I -0.3064 J -0.0000
G02 X 26.8392 Y 10.7374 Z -1.0000 I -0.0698 J 0.0757
G01 X 26.8190 Y 10.7334 Z -1.0000
G03 X 26.8019 Y 10.6487 Z -1.0000 I 0.2016 J -0.0847
G02 X 26.7694 Y 10.5478 Z -1.0000 I -0.1729 J 0.0000
G02 X 26.6904 Y 10.4936 Z -1.0000 I -0.1147 J 0.0824
G03 X 26.6024 Y 10.4463 Z -1.0000 I 0.0538 J -0.2057
G03 X 26.5789 Y 10.3938 Z -1.0000 I 0.0470 J -0.0525
G02 X 26.5571 Y 10.3389 Z -1.0000 I -0.0800 J 0.0000
G02 X 26.4814 Y 10.2904 Z -1.0000 I -0.1346 J 0.1270
G03 X 25.8972 Y 9.9586 Z -1.0000 I 0.5584 J -1.6630
G03 X 25.8055 Y 9.7102 Z -1.0000 I 0.1774 J -0.2067
G02 X 25.7763 Y 9.5811 Z -1.0000 I -0.1783 J -0.0276
G02 X 25.6314 Y 9.4546 Z -1.0000 I -0.3151 J 0.2145
G02 X 25.4982 Y 9.4273 Z -1.0000 I -0.1178 J 0.2362
G01 X 25.4624 Y 9.4645 Z -1.0000
G01 X 25.4371 Y 9.4854 Z -1.0000
G03 X 25.3794 Y 9.4503 Z -1.0000 I 0.0154 J -0.0904
G02 X 25.2961 Y 9.3714 Z -1.0000 I -0.2796 J 0.2115
G01 X 25.2668 Y 9.3742 Z -1.0000
G01 X 25.2622 Y 9.4066 Z -1.0000
G02 X 25.3713 Y 9.5635 Z -1.0000 I 0.8150 J -0.4503
G02 X 25.5123 Y 9.6602 Z -1.0000 I 0.2528 J -0.2175
G02 X 25.5995 Y 9.6447 Z -1.0000 I 0.0300 J -0.0843
G03 X 25.6890 Y 9.6112 Z -1.0000 I 0.0931 J 0.1122
G03 X 25.7592 Y 9.6408 Z -1.0000 I 0.0023 J 0.0925
G03 X 25.7731 Y 9.6715 Z -1.0000 I -0.0393 J 0.0364
G01 X 25.7632 Y 9.6781 Z -1.0000
G02 X 25.7055 Y 9.6732 Z -1.0000 I -0.0342 J 0.0611
G02 X 25.6315 Y 9.7250 Z -1.0000 I 0.0572 J 0.1606
G02 X 25.6134 Y 9.7942 Z -1.0000 I 0.0649 J 0.0539
G02 X 25.6530 Y 9.8418 Z -1.0000 I 0.0623 J -0.0115
G03 X 25.7246 Y 9.8889 Z -1.0000 I -0.0717 J 0.1870
G03 X 25.7429 Y 9.9339 Z -1.0000 I -0.0461 J 0.0450
G02 X 25.8122 Y 10.0679 Z -1.0000 I 0.1643 J -0.0000
G02 X 26.0355 Y 10.1413 Z -1.0000 I 0.2306 J -0.3253
G03 X 26.1128 Y 10.1629 Z -1.0000 I -0.0029 J 0.1592
G01 X 26.1331 Y 10.1982 Z -1.0000
G02 X 26.1618 Y 10.2800 Z -1.0000 I 0.1311 J 0.0000
G02 X 26.6069 Y 10.7907 Z -1.0000 I 6.2428 J -4.9915
G03 X 26.9761 Y 11.2620 Z -1.0000 I -2.2987 J 2.1815
G01 X 26.9532 Y 11.3310 Z -1.0000
G01 X 26.9380 Y 11.3683 Z -1.0000
G02 X 27.0388 Y 11.5149 Z -1.0000 I 0.4866 J -0.2266
G02 X 27.1705 Y 11.6199 Z -1.0000 I 0.4712 J -0.4558
G01 X 27.1921 Y 11.6077 Z -1.0000
G02 X 27.1729 Y 11.5533 Z -1.0000 I -0.0864 J 0.0000
G02 X 27.0950 Y 11.4877 Z -1.0000 I -0.2094 J 0.1694
G03 X 27.0341 Y 11.4284 Z -1.0000 I 0.0802 J -0.1432
G01 X 27.0386 Y 11.3928 Z -1.0000
G03 X 27.3655 Y 11.4019 Z -1.0000 I 0.1591 J 0.1591
G03 X 27.4478 Y 11.8504 Z -1.0000 I -0.3262 J 0.2917
G02 X 27.4536 Y 11.9026 Z -1.0000 I 0.0534 J 0.0205
G02 X 27.4987 Y 11.9267 Z -1.0000 I 0.0450 J -0.0300
G01 X 27.5414 Y 11.9524 Z -1.0000
G03 X 27.5451 Y 12.0145 Z -1.0000 I -0.0665 J 0.0351
G01 X 27.5563 Y 12.0654 Z -1.0000
G02 X 27.6165 Y 12.0842 Z -1.0000 I 0.0485 J -0.0497
G03 X 27.6903 Y 12.1080 Z -1.0000 I 0.0142 J 0.0823
G03 X 27.7382 Y 12.2082 Z -1.0000 I -0.1225 J 0.1201
G02 X 27.7780 Y 12.3402 Z -1.0000 I 0.3880 J -0.0451
G02 X 27.8915 Y 12.5095 Z -1.0000 I 0.7613 J -0.3874
G03 X 28.0190 Y 12.6721 Z -1.0000 I -1.7507 J 1.5042
G03 X 28.0288 Y 12.7018 Z -1.0000 I -0.0428 J 0.0306
G01 X 28.0395 Y 12.7308 Z -1.0000
G02 X 28.2841 Y 13.0112 Z -1.0000 I 5.2235 J -4.3108
G03 X 28.5248 Y 13.2973 Z -1.0000 I -3.0139 J 2.7792
G03 X 28.6257 Y 13.4571 Z -1.0000 I -0.8320 J 0.6373
G02 X 28.7239 Y 13.6185 Z -1.0000 I 1.1421 J -0.5846
G02 X 28.8366 Y 13.7522 Z -1.0000 I 0.8942 J -0.6390
G03 X 28.9529 Y 13.8840 Z -1.0000 I -1.0999 J 1.0876
G03 X 29.1213 Y 14.1145 Z -1.0000 I -3.2076 J 2.5207
G02 X 29.2856 Y 14.3481 Z -1.0000 I 7.0857 J -4.8067
G02 X 29.3141 Y 14.3792 Z -1.0000 I 0.1509 J -0.1099
G03 X 29.3410 Y 14.4109 Z -1.0000 I -0.0906 J 0.1043
G03 X 29.3830 Y 14.4907 Z -1.0000 I -0.5517 J 0.3410
G02 X 29.7572 Y 15.1873 Z -1.0000 I 4.6135 J -2.0299
G02 X 29.8580 Y 15.2292 Z -1.0000 I 0.0807 J -0.0519
G01 X 29.8988 Y 15.2455 Z -1.0000
G03 X 29.9233 Y 15.3249 Z -1.0000 I -0.1161 J 0.0793
G02 X 30.0142 Y 15.7375 Z -1.0000 I 0.9816 J 0.0000
G02 X 30.1566 Y 15.8284 Z -1.0000 I 0.1423 J -0.0659
G01 X 30.1856 Y 15.8448 Z -1.0000
G03 X 30.2020 Y 15.9035 Z -1.0000 I -0.0971 J 0.0587
G02 X 30.2197 Y 15.9720 Z -1.0000 I 0.1415 J -0.0000
G02 X 30.3167 Y 16.1108 Z -1.0000 I 0.7099 J -0.3927
G03 X 30.6590 Y 16.6082 Z -1.0000 I -2.0454 J 1.7740
G03 X 30.6961 Y 16.8205 Z -1.0000 I -0.3042 J 0.1626
G02 X 30.6936 Y 16.8597 Z -1.0000 I 0.2462 J 0.0355
G02 X 30.6979 Y 16.9432 Z -1.0000 I 1.1240 J -0.0163
G01 X 30.7209 Y 16.9642 Z -1.0000
G01 X 30.7594 Y 16.9432 Z -1.0000
G01 X 30.7920 Y 16.9333 Z -1.0000
G01 X 30.8143 Y 16.9671 Z -1.0000
G02 X 30.8567 Y 17.2306 Z -1.0000 I 0.8821 J -0.0068
G02 X 31.1654 Y 18.0579 Z -1.0000 I 9.2048 J -2.9633
G03 X 31.2147 Y 18.1982 Z -1.0000 I -1.0587 J 0.4512
G03 X 31.2157 Y 18.2372 Z -1.0000 I -0.0762 J 0.0214
G02 X 31.2166 Y 18.2762 Z -1.0000 I 0.0774 J 0.0176
G02 X 31.2703 Y 18.4323 Z -1.0000 I 1.3649 J -0.3818
G03 X 31.3296 Y 18.5888 Z -1.0000 I -2.8837 J 1.1826
G03 X 31.3480 Y 18.6553 Z -1.0000 I -0.5000 J 0.1743
G02 X 31.3648 Y 18.7226 Z -1.0000 I 0.8916 J -0.1863
G02 X 31.4773 Y 19.1013 Z -1.0000 I 27.8032 J -8.0567
G03 X 31.8756 Y 21.1655 Z -1.0000 I -9.5844 J 2.9199
G03 X 31.9449 Y 24.5565 Z -1.0000 I -25.9821 J 2.2270
G03 X 31.7441 Y 26.2445 Z -1.0000 I -11.5266 J -0.5150
G03 X 31.4363 Y 27.1714 Z -1.0000 I -3.7393 J -0.7273
G03 X 30.6426 Y 28.5962 Z -1.0000 I -12.4540 J -6.0042
G03 X 30.2290 Y 29.0663 Z -1.0000 I -1.7188 J -1.0950
G02 X 30.1721 Y 29.1303 Z -1.0000 I 0.1850 J 0.2219
G02 X 29.9787 Y 29.4500 Z -1.0000 I 4.6025 J 3.0030
G03 X 29.7748 Y 29.7514 Z -1.0000 I -1.8784 J -1.0510
G03 X 29.6921 Y 29.8048 Z -1.0000 I -0.1226 J -0.0990
G02 X 29.6040 Y 29.8453 Z -1.0000 I 0.0705 J 0.2695
G02 X 29.5819 Y 29.8811 Z -1.0000 I 0.0298 J 0.0431
G03 X 29.5536 Y 30.0023 Z -1.0000 I -0.6921 J -0.0979
G03 X 29.5151 Y 30.0836 Z -1.0000 I -0.3470 J -0.1146
G03 X 29.4593 Y 30.1323 Z -1.0000 I -0.1105 J -0.0702
G03 X 29.3638 Y 30.1532 Z -1.0000 I -0.0955 J -0.2075
G02 X 29.0086 Y 30.2626 Z -1.0000 I 0.0000 J 0.6315
G02 X 28.6196 Y 30.6594 Z -1.0000 I 0.7942 J 1.1677
G02 X 28.5560 Y 30.9050 Z -1.0000 I 0.3336 J 0.2174
G02 X 28.6398 Y 30.9436 Z -1.0000 I 0.0525 J -0.0037
G03 X 29.0389 Y 30.7889 Z -1.0000 I 0.4824 J 0.6525
G03 X 29.2296 Y 30.8827 Z -1.0000 I 0.0205 J 0.1990
G02 X 29.2777 Y 30.9166 Z -1.0000 I 0.0638 J -0.0394
G02 X 29.3778 Y 30.9144 Z -1.0000 I 0.0452 J -0.2118
G03 X 29.4556 Y 30.9042 Z -1.0000 I 0.0786 J 0.3007
G01 X 29.4597 Y 30.9141 Z -1.0000
G02 X 29.4704 Y 31.0835 Z -1.0000 I 0.0800 J 0.0800
G02 X 29.7270 Y 31.1214 Z -1.0000 I 0.1619 J -0.2088
G03 X 29.7889 Y 31.1222 Z -1.0000 I 0.0300 J 0.0781
G01 X 29.8119 Y 31.1565 Z -1.0000
G01 X 29.8345 Y 31.1913 Z -1.0000
G02 X 29.8937 Y 31.1928 Z -1.0000 I 0.0314 J -0.0709
G03 X 29.9671 Y 31.1863 Z -1.0000 I 0.0482 J 0.1256
G03 X 30.0084 Y 31.2147 Z -1.0000 I -0.0117 J 0.0612
G02 X 30.1350 Y 31.2769 Z -1.0000 I 0.1128 J -0.0697
G02 X 30.3374 Y 31.1804 Z -1.0000 I -0.0348 J -0.3336
G03 X 30.3993 Y 31.1548 Z -1.0000 I 0.0619 J 0.0619
G01 X 30.4250 Y 31.1804 Z -1.0000
G02 X 30.4447 Y 31.2483 Z -1.0000 I 0.1264 J -0.0000
G01 X 30.4807 Y 31.2680 Z -1.0000
G01 X 30.5137 Y 31.2907 Z -1.0000
G03 X 30.5365 Y 31.4139 Z -1.0000 I -0.3222 J 0.1231
G03 X 30.4980 Y 31.5099 Z -1.0000 I -0.1391 J -0.0000
G03 X 30.4250 Y 31.5306 Z -1.0000 I -0.0540 J -0.0516
G02 X 30.3254 Y 31.5295 Z -1.0000 I -0.0520 J 0.1989
G02 X 30.2768 Y 31.5659 Z -1.0000 I 0.0177 J 0.0744
G01 X 30.2732 Y 31.5891 Z -1.0000
G01 X 30.2825 Y 31.5921 Z -1.0000
G03 X 30.3292 Y 31.5762 Z -1.0000 I 0.0419 J 0.0466
G03 X 30.4618 Y 31.6058 Z -1.0000 I -0.0364 J 0.4742
G02 X 30.5601 Y 31.6261 Z -1.0000 I 0.1115 J -0.2934
G01 X 30.5693 Y 31.6104 Z -1.0000
G01 X 30.5692 Y 31.5668 Z -1.0000
G03 X 30.6775 Y 31.4336 Z -1.0000 I 0.5502 J 0.3371
G02 X 30.8034 Y 31.1413 Z -1.0000 I -0.2733 J -0.2909
G02 X 30.6758 Y 30.9437 Z -1.0000 I -0.2179 J 0.0008
G03 X 30.5559 Y 30.8677 Z -1.0000 I 0.2153 J -0.4725
G03 X 30.5365 Y 30.8259 Z -1.0000 I 0.0354 J -0.0418
G03 X 30.6588 Y 30.6425 Z -1.0000 I 0.1988 J 0.0000
G03 X 31.0402 Y 30.6158 Z -1.0000 I 0.2302 J 0.5518
G02 X 31.2182 Y 30.5582 Z -1.0000 I 0.0440 J -0.1681
G02 X 31.3068 Y 30.2922 Z -1.0000 I -0.3010 J -0.2480
G03 X 31.3761 Y 29.9875 Z -1.0000 I 0.5853 J -0.0271
G03 X 31.5665 Y 29.8092 Z -1.0000 I 0.3599 J 0.1936
G02 X 31.7005 Y 29.6684 Z -1.0000 I -0.1079 J -0.2368
G02 X 31.6513 Y 29.5959 Z -1.0000 I -0.0492 J -0.0196
G01 X 31.6150 Y 29.5764 Z -1.0000
G03 X 31.5955 Y 29.5122 Z -1.0000 I 0.0963 J -0.0642
G02 X 31.5711 Y 29.4531 Z -1.0000 I -0.0836 J 0.0000
G02 X 31.5119 Y 29.4286 Z -1.0000 I -0.0591 J 0.0591
G01 X 31.4832 Y 29.3763 Z -1.0000
G03 X 31.7767 Y 29.0135 Z -1.0000 I 1.7534 J 1.1181
G02 X 32.1183 Y 28.6637 Z -1.0000 I -9.1037 J -9.2344
G02 X 32.4316 Y 28.3172 Z -1.0000 I -8.6223 J -8.1105
G03 X 32.7529 Y 27.9803 Z -1.0000 I 3.7993 J 3.3011
G03 X 33.0178 Y 27.7568 Z -1.0000 I 1.9276 J 2.0163
G02 X 33.2750 Y 27.5298 Z -1.0000 I -1.2119 J -1.6326
G02 X 33.4018 Y 27.3555 Z -1.0000 I -0.5801 J -0.5550
G03 X 33.5277 Y 27.2071 Z -1.0000 I 0.4118 J 0.2218
G03 X 33.6238 Y 27.1840 Z -1.0000 I 0.0737 J 0.0954
G02 X 33.7330 Y 27.1761 Z -1.0000 I 0.0397 J -0.2098
G02 X 33.8530 Y 27.1051 Z -1.0000 I -0.1127 J -0.3275
G03 X 33.9692 Y 27.0102 Z -1.0000 I 0.9701 J 1.0691
G03 X 34.1971 Y 26.8527 Z -1.0000 I 2.9086 J 3.9654
G02 X 34.7679 Y 26.4094 Z -1.0000 I -2.3519 J -3.6173
G02 X 34.8284 Y 26.2714 Z -1.0000 I -0.1271 J -0.1380
G01 X 34.8055 Y 26.2398 Z -1.0000
G01 X 34.7587 Y 26.2485 Z -1.0000
G03 X 34.3215 Y 26.5392 Z -1.0000 I -1.6701 J -2.0380
G03 X 34.0493 Y 26.6241 Z -1.0000 I -0.3635 J -0.6867
G03 X 33.7845 Y 26.6138 Z -1.0000 I -0.1000 J -0.8443
G03 X 33.6888 Y 26.5529 Z -1.0000 I 0.0302 J -0.1531
G03 X 33.5500 Y 26.2014 Z -1.0000 I 0.6042 J -0.4418
G03 X 33.6121 Y 25.9219 Z -1.0000 I 0.4267 J -0.0519
G02 X 33.6439 Y 25.8170 Z -1.0000 I -0.1783 J -0.1113
G02 X 33.6177 Y 25.7405 Z -1.0000 I -0.1145 J -0.0035
G03 X 33.5718 Y 25.6591 Z -1.0000 I 0.2044 J -0.1689
G03 X 33.5157 Y 25.4487 Z -1.0000 I 1.3574 J -0.4745
G03 X 33.5325 Y 25.2928 Z -1.0000 I 0.2677 J -0.0500
G03 X 33.5943 Y 25.2623 Z -1.0000 I 0.0485 J 0.0205
G02 X 33.6783 Y 25.2478 Z -1.0000 I 0.0260 J -0.0995
G02 X 33.7136 Y 25.1809 Z -1.0000 I -0.0456 J -0.0668
G03 X 33.7527 Y 25.1137 Z -1.0000 I 0.0774 J 0.0000
G03 X 33.8710 Y 25.0915 Z -1.0000 I 0.0914 J 0.1607
G02 X 33.9752 Y 25.0637 Z -1.0000 I 0.0198 J -0.1352
G02 X 34.0039 Y 24.9870 Z -1.0000 I -0.0487 J -0.0619
G02 X 33.9644 Y 24.8937 Z -1.0000 I -0.2366 J 0.0452
G01 X 33.9340 Y 24.8875 Z -1.0000
G01 X 33.8945 Y 24.8904 Z -1.0000
G03 X 33.8482 Y 24.8504 Z -1.0000 I 0.0404 J -0.0936
G01 X 33.8505 Y 24.8277 Z -1.0000
G01 X 33.8722 Y 24.8249 Z -1.0000
G01 X 33.9139 Y 24.8239 Z -1.0000
G02 X 33.9366 Y 24.7810 Z -1.0000 I -0.0292 J -0.0429
G02 X 33.9194 Y 24.7070 Z -1.0000 I -0.1684 J 0.0000
G02 X 33.8779 Y 24.6612 Z -1.0000 I -0.1002 J 0.0490
G03 X 33.8691 Y 24.5724 Z -1.0000 I 0.0295 J -0.0477
G03 X 34.0517 Y 24.4987 Z -1.0000 I 0.1869 J 0.2000
G03 X 34.2272 Y 24.5281 Z -1.0000 I 0.0077 J 0.4928
G03 X 34.3170 Y 24.5947 Z -1.0000 I -0.0663 J 0.1831
G02 X 34.4052 Y 24.6610 Z -1.0000 I 0.1570 J -0.1171
G02 X 34.5399 Y 24.6784 Z -1.0000 I 0.1043 J -0.2780
G03 X 34.6541 Y 24.7076 Z -1.0000 I 0.0175 J 0.1694
G03 X 34.7076 Y 24.7940 Z -1.0000 I -0.0718 J 0.1041
G02 X 34.7598 Y 24.8779 Z -1.0000 I 0.1208 J -0.0171
G02 X 34.8622 Y 24.8990 Z -1.0000 I 0.0767 J -0.1129
G03 X 34.9576 Y 24.9440 Z -1.0000 I 0.0168 J 0.0879
G03 X 34.9295 Y 25.0222 Z -1.0000 I -0.0487 J 0.0266
G02 X 34.8678 Y 25.0626 Z -1.0000 I 0.0696 J 0.1735
G01 X 34.8735 Y 25.0775 Z -1.0000
G01 X 34.9068 Y 25.1015 Z -1.0000
G03 X 34.9019 Y 25.1507 Z -1.0000 I -0.0509 J 0.0198
G02 X 34.8732 Y 25.2252 Z -1.0000 I 0.1692 J 0.1081
G02 X 34.8500 Y 25.4573 Z -1.0000 I 1.6856 J 0.2857
G02 X 34.8828 Y 25.6551 Z -1.0000 I 0.5150 J 0.0162
G02 X 34.9392 Y 25.6941 Z -1.0000 I 0.0564 J -0.0212
G03 X 34.9945 Y 25.7284 Z -1.0000 I -0.0000 J 0.0618
G03 X 35.0091 Y 25.8343 Z -1.0000 I -0.1496 J 0.0746
G03 X 34.9682 Y 25.9648 Z -1.0000 I -0.5858 J -0.1120
G03 X 34.9332 Y 26.0048 Z -1.0000 I -0.0824 J -0.0367
G02 X 34.8669 Y 26.1269 Z -1.0000 I 0.0736 J 0.1190
G02 X 34.9373 Y 26.1958 Z -1.0000 I 0.0704 J -0.0015
G02 X 34.9842 Y 26.1805 Z -1.0000 I 0.0000 J -0.0797
G02 X 35.1328 Y 26.0535 Z -1.0000 I -0.7373 J -1.0130
G02 X 35.6662 Y 25.4438 Z -1.0000 I -4.2999 J -4.2999
G02 X 35.7202 Y 25.2842 Z -1.0000 I -0.2090 J -0.1596
G01 X 35.7262 Y 25.2613 Z -1.0000
G03 X 35.9373 Y 24.9022 Z -1.0000 I 12.4933 J 7.1022
G02 X 36.1376 Y 24.5368 Z -1.0000 I -3.9880 J -2.4228
G02 X 36.2475 Y 24.2708 Z -1.0000 I -1.9992 J -0.9821
G03 X 36.3496 Y 24.0018 Z -1.0000 I 3.8444 J 1.3052
G03 X 36.3868 Y 23.9397 Z -1.0000 I 0.2370 J 0.0997
G02 X 36.5914 Y 23.5112 Z -1.0000 I -0.7921 J -0.6414
G02 X 36.7619 Y 22.1829 Z -1.0000 I -7.9259 J -1.6925
G03 X 36.8119 Y 21.6070 Z -1.0000 I 6.9436 J 0.3123
G03 X 36.8463 Y 21.5280 Z -1.0000 I 0.1536 J 0.0198
G03 X 36.9873 Y 21.4685 Z -1.0000 I 0.1278 J 0.1061
G03 X 37.0579 Y 21.5449 Z -1.0000 I -0.0061 J 0.0764
G02 X 37.0777 Y 21.5963 Z -1.0000 I 0.0767 J 0.0000
G01 X 37.1083 Y 21.6007 Z -1.0000
G02 X 37.1360 Y 21.5572 Z -1.0000 I -0.0311 J -0.0504
G02 X 37.1510 Y 21.2361 Z -1.0000 I -2.2884 J -0.2682
G03 X 37.1796 Y 20.9173 Z -1.0000 I 1.4274 J -0.0328
G03 X 37.2386 Y 20.8075 Z -1.0000 I 0.2123 J 0.0434
G03 X 37.3340 Y 20.7362 Z -1.0000 I 0.2950 J 0.2950
G01 X 37.3620 Y 20.7402 Z -1.0000
G03 X 37.4811 Y 21.0251 Z -1.0000 I -0.2876 J 0.2876
G03 X 37.3758 Y 22.8515 Z -1.0000 I -14.2706 J 0.0932
G03 X 37.3029 Y 23.2946 Z -1.0000 I -5.3930 J -0.6597
G03 X 37.2637 Y 23.3924 Z -1.0000 I -0.2927 J -0.0607
G02 X 37.2420 Y 23.4630 Z -1.0000 I 0.1211 J 0.0757
G02 X 37.2558 Y 23.6153 Z -1.0000 I 0.6129 J 0.0216
G03 X 37.2515 Y 23.6846 Z -1.0000 I -0.1243 J 0.0272
G01 X 37.2304 Y 23.6875 Z -1.0000
G01 X 37.1954 Y 23.6866 Z -1.0000
G02 X 37.1636 Y 23.7712 Z -1.0000 I 0.1139 J 0.0911
G02 X 37.1607 Y 23.9380 Z -1.0000 I 3.0989 J 0.1381
G02 X 37.1657 Y 23.9890 Z -1.0000 I 0.2868 J -0.0027
G03 X 37.1571 Y 24.0317 Z -1.0000 I -0.0572 J 0.0107
G03 X 37.1031 Y 24.0842 Z -1.0000 I -0.1456 J -0.0956
G02 X 37.0729 Y 24.1337 Z -1.0000 I 0.0337 J 0.0545
G02 X 37.0946 Y 24.1925 Z -1.0000 I 0.0746 J 0.0059
G01 X 37.1446 Y 24.2001 Z -1.0000
G02 X 37.1953 Y 24.1396 Z -1.0000 I -0.0483 J -0.0919
G02 X 37.2137 Y 24.0253 Z -1.0000 I -0.3761 J -0.1194
G02 X 37.1975 Y 23.9667 Z -1.0000 I -0.1085 J -0.0014
G01 X 37.1932 Y 23.9275 Z -1.0000
G01 X 37.2173 Y 23.9105 Z -1.0000
G02 X 37.2746 Y 23.8692 Z -1.0000 I 0.0000 J -0.0604
G02 X 37.3656 Y 23.4646 Z -1.0000 I -1.9740 J -0.6567
G03 X 37.3803 Y 23.3819 Z -1.0000 I 0.7708 J 0.0939
G03 X 37.4372 Y 23.1580 Z -1.0000 I 5.7559 J 1.3442
G02 X 37.6363 Y 21.8601 Z -1.0000 I -5.4545 J -1.5010
G02 X 37.5573 Y 19.8137 Z -1.0000 I -13.7507 J -0.4938
G02 X 37.3278 Y 18.4208 Z -1.0000 I -13.9809 J 1.5877
G02 X 36.9151 Y 16.8511 Z -1.0000 I -18.1744 J 3.9394
G02 X 35.5204 Y 13.5171 Z -1.0000 I -18.1061 J 5.6159
G02 X 33.3187 Y 10.1358 Z -1.0000 I -20.8309 J 11.1562
G02 X 30.8616 Y 7.3721 Z -1.0000 I -22.7601 J 17.7610
G02 X 27.6260 Y 4.5045 Z -1.0000 I -27.7525 J 28.0555
G02 X 24.5449 Y 2.3704 Z -1.0000 I -18.0412 J 22.7553
G02 X 22.7330 Y 1.5635 Z -1.0000 I -4.1900 J 6.9710
G03 X 22.1496 Y 1.3788 Z -1.0000 I 9.0830 J -29.7066
G03 X 21.5170 Y 1.1654 Z -1.0000 I 11.4931 J -35.1011
G02 X 20.8805 Y 0.9801 Z -1.0000 I -2.1241 J 6.1114
G02 X 20.5891 Y 0.9461 Z -1.0000 I -0.2914 J 1.2334
G02 X 20.3161 Y 0.9994 Z -1.0000 I 0.0000 J 0.7261
G02 X 20.1276 Y 1.1334 Z -1.0000 I 0.1888 J 0.4653
G01 X 20.1276 Y 1.1333 Z -1.0000
G00 Z 5.0000

(End cutting path id: path2)


(Start cutting path id: path2)
(Change tool to Default tool)

G00 Z 5.0000
G00 X 22.3630 Y 4.9871

G01 Z -1.0000 F 100.0000(Penetrate)
G03 X 22.2849 Y 5.0532 Z -1.0000 I -0.0994 J -0.0381 F 3500.0000
G03 X 22.2061 Y 5.0192 Z -1.0000 I -0.0150 J -0.0735
G01 X 22.2090 Y 4.9816 Z -1.0000
G03 X 22.2725 Y 4.9420 Z -1.0000 I 0.0951 J 0.0818
G02 X 22.3702 Y 4.9151 Z -1.0000 I -0.9241 J -3.5428
G02 X 22.3829 Y 4.9099 Z -1.0000 I -0.0186 J -0.0642
G01 X 22.3867 Y 4.9129 Z -1.0000
G03 X 22.3630 Y 4.9871 Z -1.0000 I -0.6701 J -0.1733
G01 X 22.3630 Y 4.9871 Z -1.0000
G00 Z 5.0000

(End cutting path id: path2)


(Start cutting path id: path2)
(Change tool to Default tool)

G00 Z 5.0000
G00 X 22.8098 Y 7.2125

G01 Z -1.0000 F 100.0000(Penetrate)
G03 X 22.9316 Y 7.3501 Z -1.0000 I -0.3637 J 0.4447 F 3500.0000
G03 X 22.9319 Y 7.4055 Z -1.0000 I -0.0442 J 0.0280
G03 X 22.8252 Y 7.4421 Z -1.0000 I -0.0756 J -0.0467
G03 X 22.6605 Y 7.3040 Z -1.0000 I 0.1130 J -0.3021
G02 X 22.5451 Y 7.1672 Z -1.0000 I -0.4639 J 0.2740
G02 X 22.4394 Y 7.1165 Z -1.0000 I -0.1495 J 0.1762
G01 X 22.4364 Y 7.1020 Z -1.0000
G03 X 22.4822 Y 7.0869 Z -1.0000 I 0.0486 J 0.0702
G03 X 22.6386 Y 7.1132 Z -1.0000 I 0.0132 J 0.4000
G03 X 22.8098 Y 7.2125 Z -1.0000 I -0.2225 J 0.5807
G01 X 22.8098 Y 7.2125 Z -1.0000
G00 Z 5.0000

(End cutting path id: path2)


(Start cutting path id: path2)
(Change tool to Default tool)

G00 Z 5.0000
G00 X 23.5160 Y 8.2150

G01 Z -1.0000 F 100.0000(Penetrate)
G02 X 23.7084 Y 8.3884 Z -1.0000 I 1.9831 J -2.0068 F 3500.0000
G01 X 23.7262 Y 8.3876 Z -1.0000
G02 X 23.7357 Y 8.2371 Z -1.0000 I -0.0791 J -0.0806
G02 X 23.5278 Y 8.1363 Z -1.0000 I -0.2079 J 0.1642
G03 X 23.4758 Y 8.1182 Z -1.0000 I 0.0000 J -0.0837
G01 X 23.4576 Y 8.0806 Z -1.0000
G01 X 23.4398 Y 8.0426 Z -1.0000
G02 X 23.3906 Y 8.0248 Z -1.0000 I -0.0492 J 0.0591
G01 X 23.3785 Y 8.0474 Z -1.0000
G02 X 23.5160 Y 8.2150 Z -1.0000 I 0.8706 J -0.5742
G01 X 23.5160 Y 8.2150 Z -1.0000
G00 Z 5.0000

(End cutting path id: path2)


(Start cutting path id: path2)
(Change tool to Default tool)

G00 Z 5.0000
G00 X 23.9871 Y 8.5852

G01 Z -1.0000 F 100.0000(Penetrate)
G02 X 24.1586 Y 8.7706 Z -1.0000 I 3.4442 J -3.0145 F 3500.0000
G02 X 24.1909 Y 8.7936 Z -1.0000 I 0.0807 J -0.0789
G03 X 24.2244 Y 8.8156 Z -1.0000 I -0.0634 J 0.1330
G03 X 24.4044 Y 8.9801 Z -1.0000 I -3.5637 J 4.0822
G02 X 24.5811 Y 9.1234 Z -1.0000 I 0.9682 J -1.0131
G01 X 24.6099 Y 9.1207 Z -1.0000
G02 X 24.6186 Y 9.0254 Z -1.0000 I -0.0529 J -0.0529
G02 X 24.4187 Y 8.8429 Z -1.0000 I -0.4927 J 0.3390
G03 X 24.3060 Y 8.7711 Z -1.0000 I 0.5860 J -1.0438
G03 X 24.0609 Y 8.5857 Z -1.0000 I 3.6962 J -5.1426
G01 X 23.8199 Y 8.3941 Z -1.0000
G01 X 23.9871 Y 8.5852 Z -1.0000
G00 Z 5.0000

(End cutting path id: path2)


(Start cutting path id: path2)
(Change tool to Default tool)

G00 Z 5.0000
G00 X 24.6839 Y 9.1856

G01 Z -1.0000 F 100.0000(Penetrate)
G02 X 24.8105 Y 9.4655 Z -1.0000 I 0.3725 J -0.0000 F 3500.0000
G02 X 24.9957 Y 9.4595 Z -1.0000 I 0.0894 J -0.1018
G02 X 25.0084 Y 9.2717 Z -1.0000 I -0.1012 J -0.1012
G02 X 24.7535 Y 9.1414 Z -1.0000 I -0.2631 J 0.2003
G02 X 24.7000 Y 9.1562 Z -1.0000 I -0.0024 J 0.0953
G01 X 24.6839 Y 9.1856 Z -1.0000
G01 X 24.6839 Y 9.1856 Z -1.0000
G00 Z 5.0000

(End cutting path id: path2)


(Start cutting path id: path2)
(Change tool to Default tool)

G00 Z 5.0000
G00 X 24.9085 Y 9.0003

G01 Z -1.0000 F 100.0000(Penetrate)
G02 X 24.9184 Y 9.0531 Z -1.0000 I 0.1461 J -0.0000 F 3500.0000
G02 X 24.9625 Y 9.1396 Z -1.0000 I 0.4450 J -0.1725
G02 X 25.0026 Y 9.1760 Z -1.0000 I 0.0883 J -0.0571
G01 X 25.0166 Y 9.1675 Z -1.0000
G02 X 25.0067 Y 9.1147 Z -1.0000 I -0.1461 J 0.0000
G02 X 24.9625 Y 9.0281 Z -1.0000 I -0.4450 J 0.1725
G02 X 24.9224 Y 8.9918 Z -1.0000 I -0.0883 J 0.0571
G01 X 24.9085 Y 9.0003 Z -1.0000
G01 X 24.9085 Y 9.0003 Z -1.0000
G00 Z 5.0000

(End cutting path id: path2)


(Start cutting path id: path2)
(Change tool to Default tool)

G00 Z 5.0000
G00 X 25.9658 Y 10.3810

G01 Z -1.0000 F 100.0000(Penetrate)
G02 X 25.9881 Y 10.4501 Z -1.0000 I 0.1187 J -0.0000 F 3500.0000
G02 X 26.0495 Y 10.4975 Z -1.0000 I 0.1097 J -0.0787
G02 X 26.1153 Y 10.5037 Z -1.0000 I 0.0440 J -0.1147
G01 X 26.1331 Y 10.4824 Z -1.0000
G02 X 26.1199 Y 10.4415 Z -1.0000 I -0.0703 J -0.0000
G02 X 26.0495 Y 10.3659 Z -1.0000 I -0.3289 J 0.2359
G02 X 25.9912 Y 10.3506 Z -1.0000 I -0.0456 J 0.0549
G01 X 25.9658 Y 10.3810 Z -1.0000
G01 X 25.9658 Y 10.3810 Z -1.0000
G00 Z 5.0000

(End cutting path id: path2)


(Start cutting path id: path2)
(Change tool to Default tool)

G00 Z 5.0000
G00 X 26.2481 Y 10.6167

G01 Z -1.0000 F 100.0000(Penetrate)
G02 X 26.2603 Y 10.6684 Z -1.0000 I 0.1156 J -0.0000 F 3500.0000
G02 X 26.3299 Y 10.7806 Z -1.0000 I 0.6416 J -0.3203
G02 X 26.3959 Y 10.8417 Z -1.0000 I 0.2042 J -0.1544
G01 X 26.4118 Y 10.8331 Z -1.0000
G02 X 26.3996 Y 10.7814 Z -1.0000 I -0.1157 J 0.0000
G02 X 26.3299 Y 10.6692 Z -1.0000 I -0.6419 J 0.3205
G02 X 26.2639 Y 10.6081 Z -1.0000 I -0.2042 J 0.1544
G01 X 26.2481 Y 10.6167 Z -1.0000
G01 X 26.2481 Y 10.6167 Z -1.0000
G00 Z 5.0000

(End cutting path id: path2)


(Start cutting path id: path2)
(Change tool to Default tool)

G00 Z 5.0000
G00 X 26.6904 Y 11.0839

G01 Z -1.0000 F 100.0000(Penetrate)
G02 X 26.7041 Y 11.1320 Z -1.0000 I 0.0915 J 0.0000 F 3500.0000
G02 X 26.7462 Y 11.1741 Z -1.0000 I 0.1101 J -0.0681
G01 X 26.7847 Y 11.1777 Z -1.0000
G01 X 26.8019 Y 11.1528 Z -1.0000
G02 X 26.7883 Y 11.1047 Z -1.0000 I -0.0915 J -0.0000
G02 X 26.7462 Y 11.0626 Z -1.0000 I -0.1101 J 0.0681
G01 X 26.7076 Y 11.0590 Z -1.0000
G01 X 26.6904 Y 11.0839 Z -1.0000
G01 X 26.6904 Y 11.0839 Z -1.0000
G00 Z 5.0000

(End cutting path id: path2)


(Start cutting path id: path2)
(Change tool to Default tool)

G00 Z 5.0000
G00 X 27.2478 Y 11.7036

G01 Z -1.0000 F 100.0000(Penetrate)
G02 X 27.2646 Y 11.7426 Z -1.0000 I 0.0536 J -0.0000 F 3500.0000
G02 X 27.3069 Y 11.7593 Z -1.0000 I 0.0422 J -0.0447
G01 X 27.3341 Y 11.7416 Z -1.0000
G01 X 27.3314 Y 11.7036 Z -1.0000
G02 X 27.2925 Y 11.6559 Z -1.0000 I -0.2017 J 0.1247
G01 X 27.2724 Y 11.6479 Z -1.0000
G01 X 27.2575 Y 11.6576 Z -1.0000
G02 X 27.2478 Y 11.7036 Z -1.0000 I 0.1044 J 0.0460
G01 X 27.2478 Y 11.7036 Z -1.0000
G00 Z 5.0000

(End cutting path id: path2)


(Start cutting path id: path2)
(Change tool to Default tool)

G00 Z 5.0000
G00 X 27.9167 Y 12.3725

G01 Z -1.0000 F 100.0000(Penetrate)
G03 X 27.9070 Y 12.4185 Z -1.0000 I -0.1141 J 0.0000 F 3500.0000
G01 X 27.8921 Y 12.4282 Z -1.0000
G01 X 27.8720 Y 12.4202 Z -1.0000
G03 X 27.8331 Y 12.3725 Z -1.0000 I 0.1628 J -0.1724
G01 X 27.8305 Y 12.3345 Z -1.0000
G01 X 27.8577 Y 12.3167 Z -1.0000
G03 X 27.8999 Y 12.3335 Z -1.0000 I -0.0000 J 0.0615
G03 X 27.9167 Y 12.3725 Z -1.0000 I -0.0368 J 0.0389
G01 X 27.9167 Y 12.3725 Z -1.0000
G00 Z 5.0000

(End cutting path id: path2)


(Start cutting path id: path2)
(Change tool to Default tool)

G00 Z 5.0000
G00 X 28.1289 Y 12.6805

G01 Z -1.0000 F 100.0000(Penetrate)
G01 X 28.1044 Y 12.6806 Z -1.0000 F 3500.0000
G03 X 28.0596 Y 12.6118 Z -1.0000 I 0.1369 J -0.1379
G01 X 28.0663 Y 12.5806 Z -1.0000
G01 X 28.0908 Y 12.5806 Z -1.0000
G03 X 28.1356 Y 12.6494 Z -1.0000 I -0.1370 J 0.1380
G01 X 28.1289 Y 12.6805 Z -1.0000
G01 X 28.1289 Y 12.6805 Z -1.0000
G00 Z 5.0000

(End cutting path id: path2)


(Start cutting path id: path2)
(Change tool to Default tool)

G00 Z 5.0000
G00 X 28.9479 Y 9.5855

G01 Z -1.0000 F 100.0000(Penetrate)
G01 X 28.9444 Y 9.6201 Z -1.0000 F 3500.0000
G03 X 28.8954 Y 9.6413 Z -1.0000 I -0.0489 J -0.0461
G03 X 28.8282 Y 9.6216 Z -1.0000 I -0.0000 J -0.1245
G01 X 28.8085 Y 9.5855 Z -1.0000
G03 X 28.8243 Y 9.5456 Z -1.0000 I 0.0582 J 0.0000
G03 X 28.8610 Y 9.5298 Z -1.0000 I 0.0366 J 0.0345
G03 X 28.9060 Y 9.5430 Z -1.0000 I 0.0000 J 0.0835
G03 X 28.9479 Y 9.5855 Z -1.0000 I -0.0727 J 0.1133
G01 X 28.9479 Y 9.5855 Z -1.0000
G00 Z 5.0000

(End cutting path id: path2)


(Start cutting path id: path2)
(Change tool to Default tool)

G00 Z 5.0000
G00 X 32.5430 Y 15.2151

G01 Z -1.0000 F 100.0000(Penetrate)
G03 X 32.5262 Y 15.2541 Z -1.0000 I -0.0536 J -0.0000 F 3500.0000
G03 X 32.4840 Y 15.2709 Z -1.0000 I -0.0422 J -0.0447
G01 X 32.4568 Y 15.2531 Z -1.0000
G01 X 32.4594 Y 15.2151 Z -1.0000
G03 X 32.4983 Y 15.1674 Z -1.0000 I 0.2017 J 0.1247
G01 X 32.5184 Y 15.1594 Z -1.0000
G01 X 32.5333 Y 15.1691 Z -1.0000
G03 X 32.5430 Y 15.2151 Z -1.0000 I -0.1044 J 0.0460
G01 X 32.5430 Y 15.2151 Z -1.0000
G00 Z 5.0000

(End cutting path id: path2)


(Start cutting path id: path2)
(Change tool to Default tool)

G00 Z 5.0000
G00 X 33.3791 Y 17.8103

G01 Z -1.0000 F 100.0000(Penetrate)
G03 X 33.3579 Y 17.8592 Z -1.0000 I -0.0672 J 0.0000 F 3500.0000
G01 X 33.3234 Y 17.8627 Z -1.0000
G03 X 33.2808 Y 17.8209 Z -1.0000 I 0.0708 J -0.1145
G03 X 33.2676 Y 17.7758 Z -1.0000 I 0.0703 J -0.0451
G03 X 33.2834 Y 17.7392 Z -1.0000 I 0.0503 J 0.0000
G03 X 33.3234 Y 17.7234 Z -1.0000 I 0.0399 J 0.0424
G01 X 33.3594 Y 17.7431 Z -1.0000
G03 X 33.3791 Y 17.8103 Z -1.0000 I -0.1048 J 0.0672
G01 X 33.3791 Y 17.8103 Z -1.0000
G00 Z 5.0000

(End cutting path id: path2)


(Start cutting path id: path2)
(Change tool to Default tool)

G00 Z 5.0000
G00 X 33.5207 Y 19.3361

G01 Z -1.0000 F 100.0000(Penetrate)
G03 X 33.4715 Y 19.3732 Z -1.0000 I -0.0721 J -0.0446 F 3500.0000
G03 X 33.3089 Y 19.3956 Z -1.0000 I -0.1626 J -0.5793
G01 X 33.2778 Y 19.3420 Z -1.0000
G03 X 33.3791 Y 19.2726 Z -1.0000 I 0.1221 J 0.0697
G03 X 33.5066 Y 19.2901 Z -1.0000 I 0.0339 J 0.2264
G01 X 33.5207 Y 19.3361 Z -1.0000
G01 X 33.5207 Y 19.3361 Z -1.0000
G00 Z 5.0000

(End cutting path id: path2)


(Start cutting path id: path2)
(Change tool to Default tool)

G00 Z 5.0000
G00 X 34.3127 Y 19.9914

G01 Z -1.0000 F 100.0000(Penetrate)
G03 X 34.2152 Y 20.0039 Z -1.0000 I -0.0975 J -0.3733 F 3500.0000
G03 X 34.1176 Y 19.9914 Z -1.0000 I -0.0000 J -0.3858
G01 X 34.1176 Y 19.9784 Z -1.0000
G03 X 34.2152 Y 19.9659 Z -1.0000 I 0.0975 J 0.3732
G03 X 34.3127 Y 19.9784 Z -1.0000 I -0.0000 J 0.3858
G01 X 34.3127 Y 19.9914 Z -1.0000
G01 X 34.3127 Y 19.9914 Z -1.0000
G00 Z 5.0000

(End cutting path id: path2)


(Start cutting path id: path2)
(Change tool to Default tool)

G00 Z 5.0000
G00 X 34.7168 Y 22.4890

G01 Z -1.0000 F 100.0000(Penetrate)
G03 X 34.6983 Y 22.5541 Z -1.0000 I -0.1235 J -0.0000 F 3500.0000
G01 X 34.6650 Y 22.5727 Z -1.0000
G01 X 34.6424 Y 22.5947 Z -1.0000
G02 X 34.6611 Y 22.7400 Z -1.0000 I 0.4864 J 0.0113
G03 X 34.6635 Y 22.8881 Z -1.0000 I -0.2742 J 0.0786
G03 X 34.6051 Y 22.9629 Z -1.0000 I -0.1138 J -0.0286
G03 X 34.4823 Y 22.9782 Z -1.0000 I -0.0812 J -0.1517
G03 X 34.4372 Y 22.9210 Z -1.0000 I 0.0144 J -0.0577
G01 X 34.4159 Y 22.8939 Z -1.0000
G01 X 34.3823 Y 22.9071 Z -1.0000
G01 X 34.3493 Y 22.9184 Z -1.0000
G01 X 34.3275 Y 22.8879 Z -1.0000
G03 X 34.3563 Y 22.8079 Z -1.0000 I 0.1225 J -0.0010
G03 X 34.4390 Y 22.7558 Z -1.0000 I 0.1235 J 0.1043
G02 X 34.5263 Y 22.7093 Z -1.0000 I -0.0542 J -0.2072
G02 X 34.5439 Y 22.6635 Z -1.0000 I -0.0349 J -0.0396
G03 X 34.5665 Y 22.4529 Z -1.0000 I 0.4694 J -0.0559
G03 X 34.6332 Y 22.4055 Z -1.0000 I 0.0666 J 0.0231
G03 X 34.6923 Y 22.4299 Z -1.0000 I 0.0000 J 0.0836
G03 X 34.7168 Y 22.4891 Z -1.0000 I -0.0591 J 0.0591
G01 X 34.7168 Y 22.4890 Z -1.0000
G00 Z 5.0000

(End cutting path id: path2)


(Start cutting path id: path2)
(Change tool to Default tool)

G00 Z 5.0000
G00 X 34.6053 Y 23.1579

G01 Z -1.0000 F 100.0000(Penetrate)
G03 X 34.5924 Y 23.2285 Z -1.0000 I -0.1984 J 0.0000 F 3500.0000
G01 X 34.5735 Y 23.2415 Z -1.0000
G01 X 34.5454 Y 23.2324 Z -1.0000
G03 X 34.4580 Y 23.1579 Z -1.0000 I 0.4244 J -0.5862
G03 X 34.4465 Y 23.1042 Z -1.0000 I 0.0357 J -0.0357
G01 X 34.4899 Y 23.0743 Z -1.0000
G03 X 34.5771 Y 23.1026 Z -1.0000 I 0.0000 J 0.1487
G03 X 34.6053 Y 23.1579 Z -1.0000 I -0.0401 J 0.0554
G01 X 34.6053 Y 23.1579 Z -1.0000
G00 Z 5.0000

(End cutting path id: path2)


(Start cutting path id: path2)
(Change tool to Default tool)

G00 Z 5.0000
G00 X 37.0065 Y 24.5560

G01 Z -1.0000 F 100.0000(Penetrate)
G02 X 37.0228 Y 24.5933 Z -1.0000 I 0.0559 J -0.0023 F 3500.0000
G01 X 37.0402 Y 24.5897 Z -1.0000
G02 X 37.0521 Y 24.5201 Z -1.0000 I -0.1566 J -0.0627
G02 X 37.0358 Y 24.4829 Z -1.0000 I -0.0559 J 0.0023
G01 X 37.0184 Y 24.4864 Z -1.0000
G02 X 37.0065 Y 24.5560 Z -1.0000 I 0.1567 J 0.0627
G01 X 37.0065 Y 24.5560 Z -1.0000
G00 Z 5.0000

(End cutting path id: path2)


(Start cutting path id: path2)
(Change tool to Default tool)

G00 Z 5.0000
G00 X 37.2351 Y 20.5982

G01 Z -1.0000 F 100.0000(Penetrate)
G03 X 37.1959 Y 20.7700 Z -1.0000 I -0.8093 J -0.0945 F 3500.0000
G01 X 37.1692 Y 20.7890 Z -1.0000
G03 X 37.0823 Y 20.7184 Z -1.0000 I 0.0000 J -0.0887
G03 X 37.1118 Y 20.5136 Z -1.0000 I 0.2967 J -0.0618
G02 X 37.1449 Y 20.4165 Z -1.0000 I -0.2794 J -0.1495
G01 X 37.1339 Y 20.3820 Z -1.0000
G01 X 37.1221 Y 20.3482 Z -1.0000
G03 X 37.1455 Y 20.2808 Z -1.0000 I 0.1624 J 0.0186
G01 X 37.2106 Y 20.2900 Z -1.0000
G03 X 37.2351 Y 20.5982 Z -1.0000 I -0.7650 J 0.2161
G01 X 37.2351 Y 20.5982 Z -1.0000
G00 Z 5.0000

(End cutting path id: path2)


(Start cutting path id: path2)
(Change tool to Default tool)

G00 Z 5.0000
G00 X 33.0168 Y 28.0908

G01 Z -1.0000 F 100.0000(Penetrate)
G01 X 33.0203 Y 28.1254 Z -1.0000 F 3500.0000
G02 X 33.0692 Y 28.1465 Z -1.0000 I 0.0489 J -0.0461
G02 X 33.1364 Y 28.1268 Z -1.0000 I 0.0000 J -0.1245
G01 X 33.1561 Y 28.0908 Z -1.0000
G02 X 33.1403 Y 28.0509 Z -1.0000 I -0.0582 J -0.0000
G02 X 33.1037 Y 28.0350 Z -1.0000 I -0.0366 J 0.0345
G02 X 33.0586 Y 28.0483 Z -1.0000 I 0.0000 J 0.0835
G02 X 33.0168 Y 28.0908 Z -1.0000 I 0.0727 J 0.1133
G01 X 33.0168 Y 28.0908 Z -1.0000
G00 Z 5.0000

(End cutting path id: path2)


(Start cutting path id: path2)
(Change tool to Default tool)

G00 Z 5.0000
G00 X 31.1487 Y 30.0556

G01 Z -1.0000 F 100.0000(Penetrate)
G03 X 31.0637 Y 30.2986 Z -1.0000 I -0.3950 J -0.0018 F 3500.0000
G03 X 30.9358 Y 30.3252 Z -1.0000 I -0.0799 J -0.0631
G03 X 30.8717 Y 30.2048 Z -1.0000 I 0.0578 J -0.1080
G03 X 30.9716 Y 29.9720 Z -1.0000 I 0.4207 J 0.0427
G03 X 31.0812 Y 29.9486 Z -1.0000 I 0.0702 J 0.0603
G03 X 31.1487 Y 30.0556 Z -1.0000 I -0.0502 J 0.1064
G01 X 31.1487 Y 30.0556 Z -1.0000
G00 Z 5.0000

(End cutting path id: path2)


(Start cutting path id: path2)
(Change tool to Default tool)

G00 Z 5.0000
G00 X 29.6852 Y 30.8557

G01 Z -1.0000 F 100.0000(Penetrate)
G03 X 29.6480 Y 30.8720 Z -1.0000 I -0.0395 J -0.0395 F 3500.0000
G03 X 29.5784 Y 30.8601 Z -1.0000 I -0.0069 J -0.1685
G01 X 29.5748 Y 30.8427 Z -1.0000
G03 X 29.6121 Y 30.8264 Z -1.0000 I 0.0395 J 0.0395
G03 X 29.6817 Y 30.8383 Z -1.0000 I 0.0069 J 0.1685
G01 X 29.6852 Y 30.8557 Z -1.0000
G01 X 29.6852 Y 30.8557 Z -1.0000
G00 Z 5.0000

(End cutting path id: path2)


(Start cutting path id: path2)
(Change tool to Default tool)

G00 Z 5.0000
G00 X 29.3357 Y 31.2159

G01 Z -1.0000 F 100.0000(Penetrate)
G02 X 29.3493 Y 31.2886 Z -1.0000 I 0.0468 J 0.0289 F 3500.0000
G02 X 29.4506 Y 31.3030 Z -1.0000 I 0.0636 J -0.0839
G02 X 29.5057 Y 31.2570 Z -1.0000 I -0.0397 J -0.1034
G01 X 29.5055 Y 31.2126 Z -1.0000
G02 X 29.4216 Y 31.1669 Z -1.0000 I -0.0820 J 0.0507
G02 X 29.3357 Y 31.2159 Z -1.0000 I 0.0020 J 0.1033
G01 X 29.3357 Y 31.2159 Z -1.0000
G00 Z 5.0000

(End cutting path id: path2)


(Start cutting path id: path2)
(Change tool to Default tool)

G00 Z 5.0000
G00 X 29.4774 Y 31.3515

G01 Z -1.0000 F 100.0000(Penetrate)
G02 X 29.4507 Y 31.4151 Z -1.0000 I 0.0912 J 0.0757 F 3500.0000
G01 X 29.4688 Y 31.4351 Z -1.0000
G01 X 29.5099 Y 31.5084 Z -1.0000
G03 X 29.3468 Y 31.6347 Z -1.0000 I -0.2475 J -0.1512
G02 X 29.0949 Y 31.7849 Z -1.0000 I 0.1776 J 0.5840
G02 X 29.0678 Y 31.9109 Z -1.0000 I 0.0830 J 0.0838
G02 X 29.1144 Y 31.9475 Z -1.0000 I 0.0538 J -0.0207
G02 X 29.2452 Y 31.9333 Z -1.0000 I 0.0355 J -0.2820
G01 X 29.3937 Y 31.8804 Z -1.0000
G01 X 29.2683 Y 31.9872 Z -1.0000
G02 X 29.1868 Y 32.1151 Z -1.0000 I 0.1674 J 0.1966
G01 X 29.2208 Y 32.1597 Z -1.0000
G02 X 29.6262 Y 31.9828 Z -1.0000 I 0.0000 J -0.5532
G02 X 29.6215 Y 31.7279 Z -1.0000 I -0.1347 J -0.1250
G01 X 29.5905 Y 31.7209 Z -1.0000
G02 X 29.5052 Y 31.7695 Z -1.0000 I 0.0954 J 0.2662
G01 X 29.4455 Y 31.7477 Z -1.0000
G03 X 29.4824 Y 31.6419 Z -1.0000 I 0.1125 J -0.0201
G02 X 29.5952 Y 31.5056 Z -1.0000 I -0.3761 J -0.4262
G02 X 29.6298 Y 31.3933 Z -1.0000 I -0.2158 J -0.1280
G02 X 29.5774 Y 31.3200 Z -1.0000 I -0.0713 J -0.0045
G02 X 29.4774 Y 31.3515 Z -1.0000 I -0.0256 J 0.0933
G01 X 29.4774 Y 31.3515 Z -1.0000
G00 Z 5.0000

(End cutting path id: path2)


(Start cutting path id: path2)
(Change tool to Default tool)

G00 Z 5.0000
G00 X 29.7012 Y 31.5884

G01 Z -1.0000 F 100.0000(Penetrate)
G02 X 29.7106 Y 31.6273 Z -1.0000 I 0.0934 J -0.0019 F 3500.0000
G02 X 29.7622 Y 31.7138 Z -1.0000 I 0.5305 J -0.2580
G01 X 29.7837 Y 31.7207 Z -1.0000
G01 X 29.7923 Y 31.7035 Z -1.0000
G03 X 29.7917 Y 31.6233 Z -1.0000 I 0.1288 J -0.0411
G03 X 29.8289 Y 31.5825 Z -1.0000 I 0.0613 J 0.0185
G01 X 29.8322 Y 31.5663 Z -1.0000
G02 X 29.7979 Y 31.5510 Z -1.0000 I -0.0367 J 0.0361
G02 X 29.7175 Y 31.5641 Z -1.0000 I -0.0089 J 0.1980
G01 X 29.7012 Y 31.5884 Z -1.0000
G01 X 29.7012 Y 31.5884 Z -1.0000
G00 Z 5.0000

(End cutting path id: path2)


(Start cutting path id: path2)
(Change tool to Default tool)

G00 Z 5.0000
G00 X 29.8781 Y 31.8275

G01 Z -1.0000 F 100.0000(Penetrate)
G02 X 29.8035 Y 31.9384 Z -1.0000 I 0.2010 J 0.2158 F 3500.0000
G01 X 29.8270 Y 31.9618 Z -1.0000
G02 X 30.0559 Y 31.7911 Z -1.0000 I -0.1890 J -0.4925
G01 X 30.0179 Y 31.7138 Z -1.0000
G01 X 30.0023 Y 31.7194 Z -1.0000
G02 X 29.8781 Y 31.8275 Z -1.0000 I 1.5361 J 1.8901
G01 X 29.8781 Y 31.8275 Z -1.0000
G00 Z 5.0000

(End cutting path id: path2)


(Start cutting path id: path2)
(Change tool to Default tool)

G00 Z 5.0000
G00 X 29.5331 Y 32.0515

G01 Z -1.0000 F 100.0000(Penetrate)
G01 X 29.5509 Y 32.0787 Z -1.0000 F 3500.0000
G01 X 29.5889 Y 32.0761 Z -1.0000
G02 X 29.6366 Y 32.0372 Z -1.0000 I -0.1246 J -0.2017
G01 X 29.6446 Y 32.0171 Z -1.0000
G01 X 29.6349 Y 32.0022 Z -1.0000
G02 X 29.5889 Y 31.9925 Z -1.0000 I -0.0460 J 0.1044
G02 X 29.5499 Y 32.0093 Z -1.0000 I 0.0000 J 0.0536
G02 X 29.5331 Y 32.0515 Z -1.0000 I 0.0447 J 0.0422
G01 X 29.5331 Y 32.0515 Z -1.0000
G00 Z 5.0000

(End cutting path id: path2)


(Start cutting path id: path2)
(Change tool to Default tool)

G00 Z 5.0000
G00 X 29.0800 Y 31.1508

G01 Z -1.0000 F 100.0000(Penetrate)
G01 X 29.0987 Y 31.1980 Z -1.0000 F 3500.0000
G03 X 29.0521 Y 31.2597 Z -1.0000 I -0.0969 J -0.0248
G01 X 29.0586 Y 31.2848 Z -1.0000
G02 X 29.1541 Y 31.2619 Z -1.0000 I 0.0042 J -0.1936
G02 X 29.2086 Y 31.1980 Z -1.0000 I -0.0543 J -0.1015
G01 X 29.1923 Y 31.1513 Z -1.0000
G02 X 29.1123 Y 31.1118 Z -1.0000 I -0.2252 J 0.3556
G02 X 29.0593 Y 31.1024 Z -1.0000 I -0.0530 J 0.1441
G01 X 29.0504 Y 31.1160 Z -1.0000
G02 X 29.0800 Y 31.1508 Z -1.0000 I 0.0707 J -0.0302
G01 X 29.0800 Y 31.1508 Z -1.0000
G00 Z 5.0000

(End cutting path id: path2)


(Start cutting path id: path2)
(Change tool to Default tool)

G00 Z 5.0000
G00 X 28.5577 Y 31.3236

G01 Z -1.0000 F 100.0000(Penetrate)
G02 X 28.5966 Y 31.3714 Z -1.0000 I 0.2018 J -0.1247 F 3500.0000
G01 X 28.6167 Y 31.3794 Z -1.0000
G01 X 28.6316 Y 31.3697 Z -1.0000
G02 X 28.6413 Y 31.3236 Z -1.0000 I -0.1044 J -0.0460
G02 X 28.6245 Y 31.2847 Z -1.0000 I -0.0536 J -0.0000
G02 X 28.5823 Y 31.2679 Z -1.0000 I -0.0422 J 0.0447
G01 X 28.5551 Y 31.2856 Z -1.0000
G01 X 28.5577 Y 31.3236 Z -1.0000
G01 X 28.5577 Y 31.3236 Z -1.0000
G00 Z 5.0000

(End cutting path id: path2)



(Footer)
M5
G00 X0.0000 Y0.0000
M2
(Using default footer. To add your own footer create file "footer" in the output dir.)
(end)
%