%
(Header)
(Generated by gcodetools from Inkscape.)
(Using default header. To add your own header create file "header" in the output dir.)
M3
(Header end.)
G21 (All units in mm)

(Start cutting path id: path446)
(Change tool to Default tool)

G00 Z 5.0000
G00 X 14.3236 Y 2.6358

G01 Z -1.0000 F 100.0000(Penetrate)
G02 X 14.0834 Y 2.6991 Z -1.0000 I 0.0318 J 0.6075 F 3500.0000
G02 X 14.0222 Y 2.7864 Z -1.0000 I 0.0501 J 0.1001
G02 X 14.0213 Y 3.3241 Z -1.0000 I 2.3657 J 0.2731
G02 X 14.1062 Y 3.5376 Z -1.0000 I 0.4323 J -0.0483
G01 X 14.1184 Y 3.5419 Z -1.0000
G02 X 14.2701 Y 3.4966 Z -1.0000 I -0.4237 J -1.6960
G03 X 14.4220 Y 3.4804 Z -1.0000 I 0.1105 J 0.3171
G03 X 14.6173 Y 3.5396 Z -1.0000 I -0.0738 J 0.5953
G02 X 14.8114 Y 3.6163 Z -1.0000 I 0.5277 J -1.0512
G02 X 14.8711 Y 3.6147 Z -1.0000 I 0.0274 J -0.0925
G03 X 15.1539 Y 3.6556 Z -1.0000 I 0.1027 J 0.2882
G03 X 15.2873 Y 3.9176 Z -1.0000 I -0.1908 J 0.2621
G02 X 15.3542 Y 4.0747 Z -1.0000 I 0.2178 J -0.0000
G02 X 15.4498 Y 4.0738 Z -1.0000 I 0.0473 J -0.0493
G01 X 15.4680 Y 4.0764 Z -1.0000
G03 X 15.5604 Y 4.2771 Z -1.0000 I -1.4563 J 0.7922
G02 X 15.6850 Y 4.4510 Z -1.0000 I 0.3939 J -0.1504
G01 X 15.7393 Y 4.4256 Z -1.0000
G02 X 15.7283 Y 4.3497 Z -1.0000 I -0.2675 J -0.0000
G02 X 15.6873 Y 4.2498 Z -1.0000 I -0.5092 J 0.1506
G03 X 15.6913 Y 4.1861 Z -1.0000 I 0.0535 J -0.0286
G03 X 15.7561 Y 4.1526 Z -1.0000 I 0.0648 J 0.0459
G03 X 15.8420 Y 4.1935 Z -1.0000 I 0.0000 J 0.1107
G03 X 15.9069 Y 4.3383 Z -1.0000 I -0.2389 J 0.1941
G03 X 15.8907 Y 4.5052 Z -1.0000 I -0.3242 J 0.0526
G01 X 15.8433 Y 4.5099 Z -1.0000
G02 X 15.8021 Y 4.4832 Z -1.0000 I -0.0488 J 0.0302
G01 X 15.7671 Y 4.4997 Z -1.0000
G02 X 15.7599 Y 4.5563 Z -1.0000 I 0.0587 J 0.0363
G02 X 15.8362 Y 4.7245 Z -1.0000 I 0.6932 J -0.2130
G03 X 15.9307 Y 4.9894 Z -1.0000 I -0.5711 J 0.3530
G03 X 15.8816 Y 5.0678 Z -1.0000 I -0.0720 J 0.0095
G01 X 15.8556 Y 5.1033 Z -1.0000
G02 X 15.8790 Y 5.2478 Z -1.0000 I 0.4202 J 0.0061
G03 X 15.9065 Y 5.3880 Z -1.0000 I -0.4774 J 0.1664
G01 X 15.8873 Y 5.4082 Z -1.0000
G01 X 15.8566 Y 5.4251 Z -1.0000
G02 X 15.8397 Y 5.4836 Z -1.0000 I 0.0925 J 0.0584
G03 X 15.7916 Y 5.5423 Z -1.0000 I -0.0599 J -0.0000
G03 X 15.7142 Y 5.5087 Z -1.0000 I -0.0145 J -0.0725
G02 X 15.6739 Y 5.4751 Z -1.0000 I -0.0704 J 0.0435
G02 X 15.5856 Y 5.4584 Z -1.0000 I -0.0882 J 0.2258
G02 X 15.5063 Y 5.5320 Z -1.0000 I 0.0000 J 0.0795
G02 X 15.5651 Y 5.7317 Z -1.0000 I 0.2936 J 0.0221
G03 X 15.6191 Y 5.8358 Z -1.0000 I -0.2773 J 0.2098
G03 X 15.6388 Y 5.9629 Z -1.0000 I -0.3986 J 0.1271
G02 X 15.6661 Y 6.0860 Z -1.0000 I 0.2911 J -0.0000
G02 X 15.7644 Y 6.2322 Z -1.0000 I 0.5153 J -0.2403
G03 X 15.7880 Y 6.3170 Z -1.0000 I -0.0704 J 0.0653
G01 X 15.7421 Y 6.3388 Z -1.0000
G02 X 15.5872 Y 6.3302 Z -1.0000 I -0.0870 J 0.1683
G02 X 15.5608 Y 6.4084 Z -1.0000 I 0.0192 J 0.0500
G01 X 15.5627 Y 6.4447 Z -1.0000
G03 X 15.5288 Y 6.4745 Z -1.0000 I -0.0523 J -0.0254
G02 X 15.4835 Y 6.5829 Z -1.0000 I 0.0246 J 0.0740
G02 X 15.7702 Y 6.9636 Z -1.0000 I 1.1494 J -0.5674
G03 X 15.9088 Y 7.1256 Z -1.0000 I -0.5760 J 0.6330
G01 X 15.9095 Y 7.1750 Z -1.0000
G01 X 15.8770 Y 7.1866 Z -1.0000
G03 X 15.8303 Y 7.1474 Z -1.0000 I 0.0283 J -0.0811
G02 X 15.7490 Y 7.1171 Z -1.0000 I -0.0584 J 0.0327
G02 X 15.7097 Y 7.1912 Z -1.0000 I 0.0213 J 0.0588
G01 X 15.6732 Y 7.2288 Z -1.0000
G03 X 15.5968 Y 7.1665 Z -1.0000 I 0.0233 J -0.1064
G02 X 15.5182 Y 7.0813 Z -1.0000 I -0.1642 J 0.0727
G02 X 15.4563 Y 7.0903 Z -1.0000 I -0.0249 J 0.0460
G02 X 15.4322 Y 7.1652 Z -1.0000 I 0.0609 J 0.0609
G02 X 15.4871 Y 7.2769 Z -1.0000 I 0.2125 J -0.0351
G03 X 15.5368 Y 7.3759 Z -1.0000 I -0.1442 J 0.1343
G01 X 15.5127 Y 7.4174 Z -1.0000
G01 X 15.4979 Y 7.4549 Z -1.0000
G02 X 15.5864 Y 7.5582 Z -1.0000 I 0.2686 J -0.1404
G03 X 15.6796 Y 7.6908 Z -1.0000 I -0.1526 J 0.2064
G01 X 15.6388 Y 7.7331 Z -1.0000
G01 X 15.5804 Y 7.7701 Z -1.0000
G02 X 15.6190 Y 7.8392 Z -1.0000 I 0.0608 J 0.0113
G03 X 15.6657 Y 7.8878 Z -1.0000 I -0.0283 J 0.0738
G03 X 15.6697 Y 7.9899 Z -1.0000 I -0.1722 J 0.0578
G02 X 15.6846 Y 8.0826 Z -1.0000 I 0.1154 J 0.0290
G02 X 15.7659 Y 8.1413 Z -1.0000 I 0.1142 J -0.0726
G03 X 15.8380 Y 8.1970 Z -1.0000 I -0.0277 J 0.1103
G03 X 15.8383 Y 8.2736 Z -1.0000 I -0.0706 J 0.0386
G03 X 15.7762 Y 8.3436 Z -1.0000 I -0.1778 J -0.0952
G01 X 15.7368 Y 8.3447 Z -1.0000
G01 X 15.7046 Y 8.3433 Z -1.0000
G01 X 15.6891 Y 8.3684 Z -1.0000
G01 X 15.7063 Y 8.4044 Z -1.0000
G02 X 15.7549 Y 8.4216 Z -1.0000 I 0.0487 J -0.0603
G03 X 15.8146 Y 8.4375 Z -1.0000 I -0.0000 J 0.1202
G03 X 15.9254 Y 8.5191 Z -1.0000 I -0.2966 J 0.5189
G02 X 16.0297 Y 8.6005 Z -1.0000 I 0.5186 J -0.5566
G01 X 16.0478 Y 8.5986 Z -1.0000
G01 X 16.0572 Y 8.6016 Z -1.0000
G03 X 16.0674 Y 8.7146 Z -1.0000 I -0.7212 J 0.1222
G03 X 16.0509 Y 8.8392 Z -1.0000 I -0.4371 J 0.0055
G03 X 16.0198 Y 8.8827 Z -1.0000 I -0.0764 J -0.0216
G01 X 16.0214 Y 8.9172 Z -1.0000
G02 X 16.3169 Y 9.0512 Z -1.0000 I 0.8895 J -1.5686
G03 X 16.3621 Y 9.0868 Z -1.0000 I -0.0292 J 0.0836
G01 X 16.3545 Y 9.1097 Z -1.0000
G02 X 16.3206 Y 9.2192 Z -1.0000 I 0.0254 J 0.0679
G02 X 16.5759 Y 9.4248 Z -1.0000 I 0.4845 J -0.3403
G03 X 16.6591 Y 9.4913 Z -1.0000 I -0.0754 J 0.1796
G03 X 16.7180 Y 9.6240 Z -1.0000 I -0.2949 J 0.2104
G02 X 16.7736 Y 9.7505 Z -1.0000 I 0.3424 J -0.0752
G02 X 16.8261 Y 9.7777 Z -1.0000 I 0.0524 J -0.0369
G01 X 16.8648 Y 9.7975 Z -1.0000
G01 X 16.8660 Y 9.8333 Z -1.0000
G01 X 16.8749 Y 9.8552 Z -1.0000
G02 X 16.9447 Y 9.8530 Z -1.0000 I 0.0311 J -0.1240
G03 X 17.0096 Y 9.8546 Z -1.0000 I 0.0302 J 0.0951
G01 X 17.0185 Y 9.8805 Z -1.0000
G01 X 17.0158 Y 9.9074 Z -1.0000
G01 X 17.0303 Y 9.9124 Z -1.0000
G03 X 17.2425 Y 9.9018 Z -1.0000 I 0.1157 J 0.1872
G03 X 17.3461 Y 10.0665 Z -1.0000 I -0.0809 J 0.1658
G02 X 17.3630 Y 10.1126 Z -1.0000 I 0.0724 J -0.0005
G01 X 17.3988 Y 10.1292 Z -1.0000
G03 X 17.4458 Y 10.1427 Z -1.0000 I 0.0000 J 0.0891
G03 X 17.5559 Y 10.2268 Z -1.0000 I -0.3773 J 0.6073
G03 X 17.6090 Y 10.3254 Z -1.0000 I -0.1188 J 0.1276
G03 X 17.5851 Y 10.4000 Z -1.0000 I -0.0842 J 0.0142
G03 X 17.5109 Y 10.4192 Z -1.0000 I -0.0535 J -0.0535
G03 X 17.3904 Y 10.3445 Z -1.0000 I 0.0710 J -0.2491
G03 X 17.3260 Y 10.2577 Z -1.0000 I 0.3976 J -0.3619
G01 X 17.3339 Y 10.2497 Z -1.0000
G02 X 17.3813 Y 10.2593 Z -1.0000 I 0.0381 J -0.0662
G01 X 17.3967 Y 10.2420 Z -1.0000
G02 X 17.3177 Y 10.1078 Z -1.0000 I -0.1535 J 0.0000
G02 X 17.0129 Y 10.0288 Z -1.0000 I -0.3048 J 0.5487
G01 X 17.0011 Y 10.0404 Z -1.0000
G02 X 17.0114 Y 10.1000 Z -1.0000 I 0.1574 J 0.0033
G03 X 16.9710 Y 10.1759 Z -1.0000 I -0.0532 J 0.0204
G03 X 16.7914 Y 10.1507 Z -1.0000 I -0.0569 J -0.2467
G02 X 16.6651 Y 10.0949 Z -1.0000 I -0.3748 J 0.6768
G02 X 16.5852 Y 10.0808 Z -1.0000 I -0.0856 J 0.2523
G01 X 16.5491 Y 10.1097 Z -1.0000
G02 X 16.5601 Y 10.2042 Z -1.0000 I 0.1492 J 0.0304
G02 X 16.6325 Y 10.3071 Z -1.0000 I 0.3216 J -0.1492
G02 X 16.6871 Y 10.3298 Z -1.0000 I 0.0551 J -0.0557
G01 X 16.7150 Y 10.3502 Z -1.0000
G01 X 16.7076 Y 10.3929 Z -1.0000
G02 X 16.6825 Y 10.4601 Z -1.0000 I 0.0964 J 0.0743
G02 X 16.6965 Y 10.5813 Z -1.0000 I 0.3523 J 0.0209
G02 X 16.7275 Y 10.6470 Z -1.0000 I 0.2300 J -0.0682
G01 X 16.7387 Y 10.6441 Z -1.0000
G01 X 16.7927 Y 10.6174 Z -1.0000
G03 X 16.9172 Y 10.7593 Z -1.0000 I -0.1872 J 0.2898
G03 X 16.9825 Y 10.9383 Z -1.0000 I -0.9223 J 0.4377
G03 X 16.9797 Y 10.9979 Z -1.0000 I -0.0969 J 0.0254
G02 X 16.9802 Y 11.0543 Z -1.0000 I 0.0761 J 0.0276
G02 X 17.0391 Y 11.1536 Z -1.0000 I 0.3160 J -0.1204
G01 X 17.0375 Y 11.1826 Z -1.0000
G01 X 17.0031 Y 11.1872 Z -1.0000
G01 X 16.9606 Y 11.2105 Z -1.0000
G02 X 16.9948 Y 11.2844 Z -1.0000 I 0.0819 J 0.0070
G03 X 17.0200 Y 11.3458 Z -1.0000 I -0.0361 J 0.0507
G01 X 16.9811 Y 11.3626 Z -1.0000
G02 X 16.8651 Y 11.3274 Z -1.0000 I -0.1181 J 0.1802
G02 X 16.7930 Y 11.3608 Z -1.0000 I -0.0009 J 0.0925
G02 X 16.7852 Y 11.4358 Z -1.0000 I 0.0523 J 0.0434
G02 X 16.9366 Y 11.6343 Z -1.0000 I 0.6594 J -0.3463
G03 X 17.1392 Y 11.8318 Z -1.0000 I -4.3495 J 4.6645
G01 X 17.1455 Y 11.8471 Z -1.0000
G01 X 17.1371 Y 11.8574 Z -1.0000
G03 X 17.0079 Y 11.8766 Z -1.0000 I -0.2128 J -0.9906
G03 X 16.8848 Y 11.8552 Z -1.0000 I -0.0205 J -0.2473
G03 X 16.7830 Y 11.7745 Z -1.0000 I 0.1110 J -0.2445
G02 X 16.7272 Y 11.7548 Z -1.0000 I -0.0431 J 0.0332
G01 X 16.6946 Y 11.7958 Z -1.0000
G02 X 16.7242 Y 11.9082 Z -1.0000 I 0.2209 J 0.0018
G02 X 16.7902 Y 11.9613 Z -1.0000 I 0.1014 J -0.0586
G03 X 17.1665 Y 12.1655 Z -1.0000 I -0.3428 J 1.0802
G03 X 17.6668 Y 12.6808 Z -1.0000 I -2.0245 J 2.4663
G02 X 17.7767 Y 12.8095 Z -1.0000 I 1.3768 J -1.0639
G02 X 17.8100 Y 12.8330 Z -1.0000 I 0.0736 J -0.0693
G03 X 17.8619 Y 12.9266 Z -1.0000 I -0.0349 J 0.0805
G03 X 17.7858 Y 12.9928 Z -1.0000 I -0.0770 J -0.0116
G01 X 17.7690 Y 13.0070 Z -1.0000
G01 X 17.7790 Y 13.0305 Z -1.0000
G03 X 17.8233 Y 13.0762 Z -1.0000 I -0.0803 J 0.1220
G03 X 17.8698 Y 13.1789 Z -1.0000 I -0.3908 J 0.2391
G02 X 17.9208 Y 13.2802 Z -1.0000 I 0.3332 J -0.1040
G02 X 18.0524 Y 13.4298 Z -1.0000 I 0.8704 J -0.6331
G03 X 18.1774 Y 13.5791 Z -1.0000 I -0.5708 J 0.6047
G03 X 18.2002 Y 13.6556 Z -1.0000 I -0.1168 J 0.0765
G02 X 18.2241 Y 13.7275 Z -1.0000 I 0.1203 J 0.0000
G02 X 18.3074 Y 13.7992 Z -1.0000 I 0.2027 J -0.1513
G03 X 18.3621 Y 13.8583 Z -1.0000 I -0.0583 J 0.1089
G01 X 18.3503 Y 13.8964 Z -1.0000
G02 X 18.3135 Y 13.9454 Z -1.0000 I 0.0443 J 0.0716
G02 X 18.3168 Y 14.0166 Z -1.0000 I 0.1094 J 0.0305
G01 X 18.2840 Y 14.0435 Z -1.0000
G03 X 18.1986 Y 13.9425 Z -1.0000 I 0.1154 J -0.1843
G02 X 18.1146 Y 13.8031 Z -1.0000 I -0.5042 J 0.2089
G02 X 17.9427 Y 13.6338 Z -1.0000 I -0.9219 J 0.7642
G03 X 17.7765 Y 13.4610 Z -1.0000 I 0.5896 J -0.7337
G03 X 17.6687 Y 13.2646 Z -1.0000 I 0.6596 J -0.4894
G02 X 17.5674 Y 13.0627 Z -1.0000 I -1.0560 J 0.4033
G02 X 17.4584 Y 12.9329 Z -1.0000 I -0.5369 J 0.3404
G02 X 17.3848 Y 12.8966 Z -1.0000 I -0.0999 J 0.1097
G01 X 17.3680 Y 12.9167 Z -1.0000
G03 X 17.3996 Y 13.0187 Z -1.0000 I -0.8428 J 0.3167
G03 X 17.4185 Y 13.1224 Z -1.0000 I -0.8530 J 0.2095
G02 X 17.4398 Y 13.2247 Z -1.0000 I 0.6138 J -0.0742
G02 X 17.4671 Y 13.2856 Z -1.0000 I 0.2431 J -0.0724
G01 X 17.4418 Y 13.3153 Z -1.0000
G03 X 17.2440 Y 13.1925 Z -1.0000 I 0.2814 J -0.6743
G03 X 17.1904 Y 13.0988 Z -1.0000 I 0.1075 J -0.1238
G01 X 17.2208 Y 13.0681 Z -1.0000
G01 X 17.2510 Y 13.0564 Z -1.0000
G01 X 17.2459 Y 13.0353 Z -1.0000
G02 X 17.1190 Y 12.9805 Z -1.0000 I -0.8575 J 1.8104
G02 X 17.0827 Y 12.9714 Z -1.0000 I -0.0536 J 0.1368
G01 X 17.0561 Y 12.9562 Z -1.0000
G03 X 17.0407 Y 12.9167 Z -1.0000 I 0.0598 J -0.0459
G02 X 17.0291 Y 12.8694 Z -1.0000 I -0.1538 J 0.0128
G02 X 16.9983 Y 12.8163 Z -1.0000 I -0.2272 J 0.0962
G03 X 16.9653 Y 12.7633 Z -1.0000 I 0.2698 J -0.2051
G03 X 16.9284 Y 12.6770 Z -1.0000 I 0.6840 J -0.3434
G01 X 16.9423 Y 12.6410 Z -1.0000
G03 X 16.9959 Y 12.6411 Z -1.0000 I 0.0267 J 0.0503
G03 X 17.0794 Y 12.7037 Z -1.0000 I -0.1617 J 0.3023
G03 X 17.0952 Y 12.7427 Z -1.0000 I -0.0398 J 0.0389
G01 X 17.1133 Y 12.7728 Z -1.0000
G02 X 17.1831 Y 12.7896 Z -1.0000 I 0.0672 J -0.1261
G01 X 17.2057 Y 12.7666 Z -1.0000
G02 X 17.1831 Y 12.7212 Z -1.0000 I -0.0570 J -0.0000
G03 X 17.1078 Y 12.6480 Z -1.0000 I 0.2599 J -0.3424
G03 X 17.0937 Y 12.6098 Z -1.0000 I 0.0504 J -0.0404
G02 X 16.9876 Y 12.4371 Z -1.0000 I -0.2054 J 0.0072
G02 X 16.7900 Y 12.4423 Z -1.0000 I -0.0943 J 0.1710
G02 X 16.7581 Y 12.4960 Z -1.0000 I 0.0359 J 0.0578
G02 X 16.7813 Y 12.5880 Z -1.0000 I 0.1567 J 0.0094
G03 X 16.8494 Y 12.8118 Z -1.0000 I -0.3873 J 0.2400
G03 X 16.7931 Y 12.9172 Z -1.0000 I -0.1188 J 0.0042
G02 X 16.7670 Y 12.9547 Z -1.0000 I 0.0301 J 0.0487
G02 X 16.7758 Y 13.0034 Z -1.0000 I 0.0661 J 0.0133
G01 X 16.7647 Y 13.0280 Z -1.0000
G03 X 16.6289 Y 13.0286 Z -1.0000 I -0.0698 J -0.4057
G02 X 16.4942 Y 13.0366 Z -1.0000 I -0.0495 J 0.3051
G01 X 16.4763 Y 13.0724 Z -1.0000
G02 X 16.5166 Y 13.1347 Z -1.0000 I 0.1683 J -0.0646
G02 X 16.5989 Y 13.1961 Z -1.0000 I 0.2452 J -0.2430
G03 X 16.6712 Y 13.2600 Z -1.0000 I -0.0987 J 0.1843
G03 X 16.6935 Y 13.3303 Z -1.0000 I -0.0998 J 0.0703
G01 X 16.7146 Y 13.3629 Z -1.0000
G01 X 16.7511 Y 13.3562 Z -1.0000
G03 X 16.8829 Y 13.3287 Z -1.0000 I 0.0869 J 0.0869
G03 X 17.1843 Y 13.5259 Z -1.0000 I -0.3211 J 0.8197
G02 X 17.2594 Y 13.5795 Z -1.0000 I 0.1980 J -0.1980
G02 X 17.3252 Y 13.5947 Z -1.0000 I 0.0658 J -0.1347
G03 X 17.3883 Y 13.6144 Z -1.0000 I -0.0000 J 0.1108
G03 X 17.5064 Y 13.7203 Z -1.0000 I -0.3633 J 0.5244
G02 X 17.6240 Y 13.8273 Z -1.0000 I 0.5139 J -0.4468
G02 X 17.6819 Y 13.8458 Z -1.0000 I 0.0578 J -0.0808
G03 X 17.7282 Y 13.8604 Z -1.0000 I 0.0000 J 0.0811
G01 X 17.7360 Y 13.8835 Z -1.0000
G01 X 17.7382 Y 13.9190 Z -1.0000
G02 X 17.8113 Y 14.0454 Z -1.0000 I 0.7439 J -0.3464
G02 X 17.8806 Y 14.1119 Z -1.0000 I 0.2065 J -0.1455
G01 X 17.8988 Y 14.1020 Z -1.0000
G01 X 17.9199 Y 14.0794 Z -1.0000
G03 X 17.9742 Y 14.0970 Z -1.0000 I 0.0051 J 0.0767
G03 X 18.0096 Y 14.1949 Z -1.0000 I -0.0656 J 0.0791
G03 X 17.9461 Y 14.2477 Z -1.0000 I -0.0635 J -0.0118
G02 X 17.8822 Y 14.2697 Z -1.0000 I 0.0000 J 0.1035
G01 X 17.8764 Y 14.3023 Z -1.0000
G02 X 17.9195 Y 14.3335 Z -1.0000 I 0.0597 J -0.0369
G02 X 18.0021 Y 14.3328 Z -1.0000 I 0.0399 J -0.1640
G03 X 18.0853 Y 14.3380 Z -1.0000 I 0.0338 J 0.1292
G03 X 18.1800 Y 14.4038 Z -1.0000 I -0.0945 J 0.2370
G01 X 18.1717 Y 14.4490 Z -1.0000
G03 X 18.1106 Y 14.4394 Z -1.0000 I -0.0240 J -0.0468
G01 X 18.0525 Y 14.4484 Z -1.0000
G02 X 18.0459 Y 14.5647 Z -1.0000 I 0.1271 J 0.0655
G01 X 17.9990 Y 14.6073 Z -1.0000
G03 X 17.8729 Y 14.4790 Z -1.0000 I 0.1218 J -0.2460
G02 X 17.7829 Y 14.3292 Z -1.0000 I -0.8094 J 0.3841
G02 X 17.5742 Y 14.0767 Z -1.0000 I -2.5256 J 1.8747
G02 X 17.3376 Y 13.8790 Z -1.0000 I -0.8625 J 0.7919
G02 X 17.2358 Y 13.8626 Z -1.0000 I -0.0701 J 0.1108
G03 X 17.1309 Y 13.8547 Z -1.0000 I -0.0405 J -0.1623
G03 X 16.9971 Y 13.7631 Z -1.0000 I 0.1528 J -0.3667
G02 X 16.8650 Y 13.6482 Z -1.0000 I -0.7001 J 0.6721
G02 X 16.7586 Y 13.5909 Z -1.0000 I -0.2710 J 0.3755
G03 X 16.6645 Y 13.5323 Z -1.0000 I 0.1024 J -0.2695
G03 X 16.6428 Y 13.4830 Z -1.0000 I 0.0463 J -0.0497
G02 X 16.6213 Y 13.4325 Z -1.0000 I -0.0710 J 0.0004
G02 X 16.5173 Y 13.3609 Z -1.0000 I -0.2625 J 0.2700
G02 X 16.4250 Y 13.3544 Z -1.0000 I -0.0548 J 0.1181
G01 X 16.3921 Y 13.3986 Z -1.0000
G02 X 16.4110 Y 13.4754 Z -1.0000 I 0.1653 J 0.0000
G01 X 16.4423 Y 13.4943 Z -1.0000
G03 X 16.4787 Y 13.5082 Z -1.0000 I -0.0000 J 0.0545
G01 X 16.4925 Y 13.5392 Z -1.0000
G01 X 16.4740 Y 13.5645 Z -1.0000
G03 X 16.3734 Y 13.5769 Z -1.0000 I -0.0838 J -0.2651
G03 X 16.2943 Y 13.5436 Z -1.0000 I 0.0079 J -0.1292
G01 X 16.2824 Y 13.4943 Z -1.0000
G01 X 16.2706 Y 13.4745 Z -1.0000
G02 X 16.2277 Y 13.4863 Z -1.0000 I -0.0080 J 0.0548
G02 X 16.1569 Y 13.5618 Z -1.0000 I 0.2411 J 0.2966
G02 X 16.1164 Y 13.6432 Z -1.0000 I 0.2405 J 0.1705
G03 X 16.0639 Y 13.6848 Z -1.0000 I -0.0571 J -0.0181
G03 X 15.8805 Y 13.6612 Z -1.0000 I -0.0348 J -0.4550
G02 X 15.6861 Y 13.6875 Z -1.0000 I -0.0711 J 0.2063
G02 X 15.5590 Y 13.8813 Z -1.0000 I 0.1722 J 0.2515
G03 X 15.4977 Y 13.9709 Z -1.0000 I -0.1338 J -0.0258
G03 X 15.4178 Y 13.9702 Z -1.0000 I -0.0394 J -0.0626
G02 X 15.3431 Y 13.9617 Z -1.0000 I -0.0457 J 0.0698
G02 X 15.3103 Y 14.0101 Z -1.0000 I 0.0175 J 0.0471
G02 X 15.3256 Y 14.1183 Z -1.0000 I 0.4734 J -0.0115
G02 X 15.3581 Y 14.1928 Z -1.0000 I 0.2524 J -0.0660
G01 X 15.3516 Y 14.2259 Z -1.0000
G03 X 15.2968 Y 14.2356 Z -1.0000 I -0.0380 J -0.0545
G02 X 15.2109 Y 14.2453 Z -1.0000 I -0.0304 J 0.1164
G02 X 15.1586 Y 14.3074 Z -1.0000 I 0.0490 J 0.0943
G02 X 15.1506 Y 14.6013 Z -1.0000 I 0.5063 J 0.1607
G02 X 15.2993 Y 14.8508 Z -1.0000 I 0.5022 J -0.1300
G03 X 15.3686 Y 14.9521 Z -1.0000 I -0.1917 J 0.2058
G01 X 15.3589 Y 14.9997 Z -1.0000
G03 X 15.1838 Y 15.0368 Z -1.0000 I -0.1161 J -0.1161
G03 X 15.0863 Y 14.8947 Z -1.0000 I 0.0547 J -0.1420
G02 X 15.0609 Y 14.8256 Z -1.0000 I -0.1068 J 0.0000
G02 X 15.0059 Y 14.8001 Z -1.0000 I -0.0550 J 0.0467
G01 X 14.9616 Y 14.8335 Z -1.0000
G02 X 14.9431 Y 15.0198 Z -1.0000 I 0.5048 J 0.1443
G03 X 14.9269 Y 15.1941 Z -1.0000 I -0.5076 J 0.0407
G01 X 14.8907 Y 15.2125 Z -1.0000
G02 X 14.8285 Y 15.2126 Z -1.0000 I -0.0310 J 0.0808
G02 X 14.7651 Y 15.2610 Z -1.0000 I 0.0513 J 0.1329
G03 X 14.7022 Y 15.3267 Z -1.0000 I -0.2840 J -0.2093
G03 X 14.6343 Y 15.3662 Z -1.0000 I -0.1650 J -0.2052
G01 X 14.6249 Y 15.3934 Z -1.0000
G02 X 14.6719 Y 15.4304 Z -1.0000 I 0.0709 J -0.0416
G03 X 14.7626 Y 15.4814 Z -1.0000 I -0.0703 J 0.2312
G03 X 14.7849 Y 15.5313 Z -1.0000 I -0.0446 J 0.0499
G03 X 14.7332 Y 15.6159 Z -1.0000 I -0.0951 J 0.0000
G01 X 14.6676 Y 15.5915 Z -1.0000
G01 X 14.6535 Y 15.5916 Z -1.0000
G02 X 14.6382 Y 15.6665 Z -1.0000 I 0.2076 J 0.0813
G03 X 14.6241 Y 15.7942 Z -1.0000 I -0.7943 J -0.0230
G01 X 14.6115 Y 15.8046 Z -1.0000
G03 X 14.4187 Y 15.7581 Z -1.0000 I -0.0000 J -0.4234
G03 X 14.2729 Y 15.6313 Z -1.0000 I 0.1829 J -0.3575
G02 X 14.2358 Y 15.6061 Z -1.0000 I -0.0518 J 0.0363
G01 X 14.2045 Y 15.6150 Z -1.0000
G01 X 14.2011 Y 15.6478 Z -1.0000
G02 X 14.3096 Y 15.7767 Z -1.0000 I 0.5728 J -0.3720
G03 X 14.3823 Y 15.8793 Z -1.0000 I -0.2083 J 0.2248
G01 X 14.3654 Y 15.9051 Z -1.0000
G02 X 14.3008 Y 15.9232 Z -1.0000 I -0.0000 J 0.1244
G01 X 14.2827 Y 15.9553 Z -1.0000
G01 X 14.2607 Y 15.9835 Z -1.0000
G03 X 14.0818 Y 16.0055 Z -1.0000 I -0.1789 J -0.7155
G02 X 13.9029 Y 16.0275 Z -1.0000 I -0.0000 J 0.7376
G01 X 13.8809 Y 16.0557 Z -1.0000
G01 X 13.8615 Y 16.0865 Z -1.0000
G03 X 13.7750 Y 16.1060 Z -1.0000 I -0.0864 J -0.1822
G02 X 13.7130 Y 16.1402 Z -1.0000 I -0.0000 J 0.0732
G02 X 13.6993 Y 16.2263 Z -1.0000 I 0.0939 J 0.0591
G03 X 13.6970 Y 16.3297 Z -1.0000 I -0.1888 J 0.0474
G03 X 13.6546 Y 16.3754 Z -1.0000 I -0.0678 J -0.0203
G02 X 13.5998 Y 16.4180 Z -1.0000 I 0.0426 J 0.1111
G02 X 13.5796 Y 16.4820 Z -1.0000 I 0.0910 J 0.0640
G01 X 13.5509 Y 16.5231 Z -1.0000
G03 X 13.4540 Y 16.5284 Z -1.0000 I -0.0569 J -0.1541
G02 X 13.3695 Y 16.5495 Z -1.0000 I -0.0225 J 0.0897
G02 X 13.3285 Y 16.6418 Z -1.0000 I 0.0834 J 0.0924
G03 X 13.3009 Y 16.7741 Z -1.0000 I -0.3317 J -0.0000
G03 X 13.2280 Y 16.8728 Z -1.0000 I -0.2508 J -0.1091
G02 X 13.1425 Y 16.9656 Z -1.0000 I 0.3472 J 0.4055
G02 X 13.1276 Y 17.0118 Z -1.0000 I 0.0638 J 0.0461
G02 X 13.1745 Y 17.1262 Z -1.0000 I 0.1632 J 0.0000
G02 X 13.4472 Y 17.3364 Z -1.0000 I 0.9008 J -0.8869
G03 X 13.6609 Y 17.6218 Z -1.0000 I -0.2231 J 0.3897
G03 X 13.5492 Y 17.7633 Z -1.0000 I -0.1117 J 0.0267
G03 X 13.4996 Y 17.7429 Z -1.0000 I 0.0000 J -0.0702
G03 X 13.4791 Y 17.6935 Z -1.0000 I 0.0491 J -0.0493
G02 X 13.4531 Y 17.6403 Z -1.0000 I -0.0676 J 0.0000
G02 X 13.2537 Y 17.5178 Z -1.0000 I -0.6472 J 0.8301
G02 X 12.8861 Y 17.4086 Z -1.0000 I -0.5427 J 1.1545
G01 X 12.8513 Y 17.4620 Z -1.0000
G01 X 12.8506 Y 17.4946 Z -1.0000
G01 X 12.8166 Y 17.5126 Z -1.0000
G02 X 12.5980 Y 17.6386 Z -1.0000 I 0.0013 J 0.2549
G02 X 12.5481 Y 17.9709 Z -1.0000 I 0.3900 J 0.2285
G03 X 12.5552 Y 18.0861 Z -1.0000 I -0.3318 J 0.0783
G03 X 12.5269 Y 18.1651 Z -1.0000 I -0.1792 J -0.0195
G03 X 12.4685 Y 18.1991 Z -1.0000 I -0.0630 J -0.0412
G03 X 12.3717 Y 18.1747 Z -1.0000 I -0.0102 J -0.1642
G02 X 12.2727 Y 18.1623 Z -1.0000 I -0.0630 J 0.1017
G02 X 12.1330 Y 18.2501 Z -1.0000 I 0.0983 J 0.3115
G02 X 12.0239 Y 18.3977 Z -1.0000 I 0.5684 J 0.5344
G02 X 12.0146 Y 18.4576 Z -1.0000 I 0.0738 J 0.0421
G01 X 11.9977 Y 18.4947 Z -1.0000
G03 X 11.9237 Y 18.5078 Z -1.0000 I -0.0562 J -0.1017
G02 X 11.7958 Y 18.5581 Z -1.0000 I -0.0208 J 0.1348
G02 X 11.5092 Y 19.0325 Z -1.0000 I 1.7426 J 1.3764
G03 X 11.4344 Y 19.1402 Z -1.0000 I -0.3181 J -0.1414
G01 X 11.3895 Y 19.1494 Z -1.0000
G01 X 11.3467 Y 19.1614 Z -1.0000
G02 X 11.2543 Y 19.3242 Z -1.0000 I 0.5228 J 0.4045
G02 X 11.1986 Y 19.5066 Z -1.0000 I 1.1375 J 0.4469
G01 X 11.2106 Y 19.5216 Z -1.0000
G03 X 11.3071 Y 19.5853 Z -1.0000 I -0.0012 J 0.1069
G03 X 11.3697 Y 19.8828 Z -1.0000 I -0.6749 J 0.2974
G02 X 11.3938 Y 19.9492 Z -1.0000 I 0.1037 J 0.0000
G02 X 11.4451 Y 19.9732 Z -1.0000 I 0.0513 J -0.0427
G03 X 11.5090 Y 20.0375 Z -1.0000 I 0.0000 J 0.0639
G03 X 11.4439 Y 20.1751 Z -1.0000 I -0.1802 J -0.0011
G02 X 11.3889 Y 20.2396 Z -1.0000 I 0.1578 J 0.1901
G01 X 11.3919 Y 20.2632 Z -1.0000
G03 X 11.4094 Y 20.4206 Z -1.0000 I -0.0897 J 0.0897
G03 X 11.2724 Y 20.4522 Z -1.0000 I -0.0845 J -0.0534
G01 X 11.2505 Y 20.4625 Z -1.0000
G02 X 11.2303 Y 20.7505 Z -1.0000 I 2.0405 J 0.2881
G02 X 11.2694 Y 21.0462 Z -1.0000 I 1.1363 J 0.0000
G02 X 11.3259 Y 21.1052 Z -1.0000 I 0.0822 J -0.0222
G03 X 11.3917 Y 21.1466 Z -1.0000 I -0.0468 J 0.1474
G01 X 11.3949 Y 21.1786 Z -1.0000
G01 X 11.3983 Y 21.2104 Z -1.0000
G02 X 11.4669 Y 21.2528 Z -1.0000 I 0.1185 J -0.1149
G03 X 11.5478 Y 21.3019 Z -1.0000 I -0.0606 J 0.1911
G03 X 11.5966 Y 21.3820 Z -1.0000 I -0.1393 J 0.1398
G02 X 11.6730 Y 21.4630 Z -1.0000 I 0.1221 J -0.0388
G01 X 11.7213 Y 21.4297 Z -1.0000
G01 X 11.7388 Y 21.3970 Z -1.0000
G03 X 11.7967 Y 21.3795 Z -1.0000 I 0.0578 J 0.0868
G03 X 11.8477 Y 21.4038 Z -1.0000 I -0.0000 J 0.0656
G03 X 11.8720 Y 21.4726 Z -1.0000 I -0.0850 J 0.0688
G02 X 11.8937 Y 21.5572 Z -1.0000 I 0.1757 J 0.0000
G02 X 11.9976 Y 21.7012 Z -1.0000 I 0.6364 J -0.3495
G03 X 12.1044 Y 21.8440 Z -1.0000 I -0.6237 J 0.5781
G03 X 12.1231 Y 21.9119 Z -1.0000 I -0.1140 J 0.0679
G02 X 12.1353 Y 21.9842 Z -1.0000 I 0.2215 J -0.0000
G02 X 12.2014 Y 22.1384 Z -1.0000 I 1.0964 J -0.3786
G02 X 12.2880 Y 22.2007 Z -1.0000 I 0.1047 J -0.0542
G02 X 12.3771 Y 22.1656 Z -1.0000 I 0.0145 J -0.0938
G02 X 12.4492 Y 22.0328 Z -1.0000 I -0.3514 J -0.2764
G02 X 12.4747 Y 21.8779 Z -1.0000 I -0.4566 J -0.1548
G03 X 12.4914 Y 21.7545 Z -1.0000 I 0.4664 J -0.0000
G01 X 12.5100 Y 21.7495 Z -1.0000
G03 X 12.5298 Y 21.7906 Z -1.0000 I -0.0490 J 0.0490
G03 X 12.5337 Y 21.9555 Z -1.0000 I -0.9019 J 0.1040
G02 X 12.5542 Y 22.1090 Z -1.0000 I 0.3889 J 0.0263
G02 X 12.6095 Y 22.1751 Z -1.0000 I 0.1145 J -0.0395
G03 X 12.6642 Y 22.2416 Z -1.0000 I -0.0578 J 0.1034
G03 X 12.6846 Y 22.4044 Z -1.0000 I -0.4086 J 0.1339
G02 X 12.6889 Y 22.5695 Z -1.0000 I 0.8855 J 0.0598
G01 X 12.7062 Y 22.5848 Z -1.0000
G02 X 12.8128 Y 22.5265 Z -1.0000 I -0.0000 J -0.1266
G02 X 12.8749 Y 22.3211 Z -1.0000 I -0.3320 J -0.2125
G01 X 12.9243 Y 22.2901 Z -1.0000
G03 X 13.0118 Y 22.3839 Z -1.0000 I -0.0704 J 0.1534
G02 X 13.1246 Y 22.4776 Z -1.0000 I 0.1388 J -0.0524
G02 X 13.2236 Y 22.4216 Z -1.0000 I 0.0156 J -0.0879
G03 X 13.3734 Y 22.2117 Z -1.0000 I 0.4779 J 0.1828
G03 X 13.8995 Y 21.8570 Z -1.0000 I 1.9852 J 2.3766
G02 X 14.5245 Y 21.3416 Z -1.0000 I -0.9663 J -1.8088
G02 X 14.6846 Y 20.8910 Z -1.0000 I -0.5544 J -0.4506
G03 X 14.7496 Y 20.6053 Z -1.0000 I 0.6599 J -0.0000
G03 X 14.9975 Y 20.2394 Z -1.0000 I 1.3532 J 0.6500
G02 X 15.0670 Y 20.1199 Z -1.0000 I -0.2367 J -0.2176
G02 X 15.0743 Y 19.9996 Z -1.0000 I -0.2325 J -0.0744
G03 X 15.0949 Y 19.9208 Z -1.0000 I 0.0931 J -0.0178
G03 X 15.1559 Y 19.9028 Z -1.0000 I 0.0441 J 0.0371
G03 X 15.2585 Y 19.9422 Z -1.0000 I -0.2285 J 0.7469
G03 X 15.3150 Y 19.9772 Z -1.0000 I -0.1208 J 0.2582
G02 X 15.3739 Y 20.0009 Z -1.0000 I 0.0692 J -0.0871
G02 X 15.6764 Y 20.0107 Z -1.0000 I 0.2326 J -2.5150
G02 X 15.9204 Y 19.9728 Z -1.0000 I -0.0272 J -0.9818
G01 X 15.9313 Y 19.9374 Z -1.0000
G01 X 15.9306 Y 19.8976 Z -1.0000
G03 X 15.9813 Y 19.8727 Z -1.0000 I 0.0507 J 0.0391
G02 X 16.0754 Y 19.8558 Z -1.0000 I 0.0000 J -0.2695
G02 X 16.1159 Y 19.8225 Z -1.0000 I -0.0282 J -0.0757
G03 X 16.2099 Y 19.7765 Z -1.0000 I 0.0835 J 0.0516
G03 X 16.3610 Y 19.8487 Z -1.0000 I -0.0267 J 0.2500
G02 X 16.4495 Y 19.8914 Z -1.0000 I 0.1055 J -0.1055
G02 X 16.7538 Y 19.8937 Z -1.0000 I 0.1628 J -1.4216
G02 X 17.0678 Y 19.8552 Z -1.0000 I -0.6781 J -6.8205
G02 X 17.1026 Y 19.8427 Z -1.0000 I -0.0135 J -0.0924
G01 X 17.1274 Y 19.8454 Z -1.0000
G03 X 17.1654 Y 19.9023 Z -1.0000 I -0.1067 J 0.1124
G03 X 17.1565 Y 19.9799 Z -1.0000 I -0.0789 J 0.0303
G03 X 17.0995 Y 19.9997 Z -1.0000 I -0.0417 J -0.0282
G02 X 17.0124 Y 19.9936 Z -1.0000 I -0.0562 J 0.1770
G02 X 16.9710 Y 20.0214 Z -1.0000 I 0.0101 J 0.0596
G01 X 16.9731 Y 20.0545 Z -1.0000
G02 X 17.0131 Y 20.0737 Z -1.0000 I 0.0400 J -0.0322
G03 X 17.0770 Y 20.0964 Z -1.0000 I 0.0000 J 0.1011
G03 X 17.2594 Y 20.2745 Z -1.0000 I -0.9027 J 1.1069
G02 X 17.4366 Y 20.4641 Z -1.0000 I 2.2647 J -1.9386
G01 X 17.4642 Y 20.4754 Z -1.0000
G01 X 17.5093 Y 20.4180 Z -1.0000
G02 X 17.4013 Y 20.2178 Z -1.0000 I -0.4375 J 0.1068
G03 X 17.2721 Y 19.9863 Z -1.0000 I 0.4063 J -0.3785
G03 X 17.3204 Y 19.9230 Z -1.0000 I 0.0483 J -0.0132
G01 X 17.3615 Y 19.9009 Z -1.0000
G02 X 17.3785 Y 19.8351 Z -1.0000 I -0.0870 J -0.0575
G03 X 17.4929 Y 19.7146 Z -1.0000 I 0.1113 J -0.0088
G03 X 17.7257 Y 19.8446 Z -1.0000 I -0.0079 J 0.2877
G02 X 17.8211 Y 19.9526 Z -1.0000 I 0.4225 J -0.2768
G02 X 17.8770 Y 19.9732 Z -1.0000 I 0.0559 J -0.0658
G03 X 18.0880 Y 20.0886 Z -1.0000 I 0.0000 J 0.2507
G03 X 18.2151 Y 20.5007 Z -1.0000 I -0.6786 J 0.4350
G02 X 18.2467 Y 20.6397 Z -1.0000 I 0.3680 J -0.0106
G01 X 18.2837 Y 20.6550 Z -1.0000
G03 X 18.3377 Y 20.6622 Z -1.0000 I 0.0204 J 0.0531
G03 X 18.4529 Y 20.7790 Z -1.0000 I -0.3048 J 0.4159
G03 X 18.4938 Y 20.8940 Z -1.0000 I -0.1815 J 0.1292
G01 X 18.4624 Y 20.9274 Z -1.0000
G03 X 18.3821 Y 20.9013 Z -1.0000 I -0.0000 J -0.1364
G03 X 18.3073 Y 20.8144 Z -1.0000 I 0.1479 J -0.2030
G01 X 18.2869 Y 20.8110 Z -1.0000
G01 X 18.2765 Y 20.8436 Z -1.0000
G03 X 18.2594 Y 20.9351 Z -1.0000 I -0.1233 J 0.0244
G01 X 18.2064 Y 20.9545 Z -1.0000
G02 X 18.1482 Y 20.9656 Z -1.0000 I -0.0188 J 0.0593
G01 X 18.1321 Y 21.0151 Z -1.0000
G02 X 18.2593 Y 21.1396 Z -1.0000 I 0.1675 J -0.0438
G02 X 18.3509 Y 21.0674 Z -1.0000 I 0.0173 J -0.0723
G01 X 18.3669 Y 21.0439 Z -1.0000
G03 X 18.4513 Y 21.0279 Z -1.0000 I 0.0845 J 0.2150
G03 X 18.5256 Y 21.0541 Z -1.0000 I -0.0000 J 0.1182
G03 X 18.5518 Y 21.1089 Z -1.0000 I -0.0442 J 0.0548
G01 X 18.5209 Y 21.1542 Z -1.0000
G03 X 18.4011 Y 21.1679 Z -1.0000 I -0.0856 J -0.2189
G02 X 18.3283 Y 21.2252 Z -1.0000 I -0.0093 J 0.0631
G02 X 18.3886 Y 21.3074 Z -1.0000 I 0.0767 J 0.0069
G03 X 18.6223 Y 21.3864 Z -1.0000 I -0.2396 J 1.0937
G01 X 18.6401 Y 21.4247 Z -1.0000
G01 X 18.6474 Y 21.4658 Z -1.0000
G02 X 18.7275 Y 21.5476 Z -1.0000 I 0.2998 J -0.2133
G03 X 18.7962 Y 21.6247 Z -1.0000 I -0.1537 J 0.2063
G01 X 18.7918 Y 21.6584 Z -1.0000
G03 X 18.7162 Y 21.6692 Z -1.0000 I -0.0450 J -0.0450
G03 X 18.4458 Y 21.4687 Z -1.0000 I 0.5940 J -1.0834
G02 X 18.3693 Y 21.4106 Z -1.0000 I -0.2682 J 0.2740
G02 X 18.2089 Y 21.3320 Z -1.0000 I -0.6617 J 1.1467
G03 X 18.0583 Y 21.2438 Z -1.0000 I 0.2345 J -0.5734
G03 X 17.9585 Y 21.1332 Z -1.0000 I 0.2808 J -0.3538
G02 X 17.8679 Y 21.0093 Z -1.0000 I -1.0329 J 0.6598
G02 X 17.7991 Y 20.9416 Z -1.0000 I -0.3726 J 0.3099
G03 X 17.7590 Y 20.8923 Z -1.0000 I 0.0958 J -0.1190
G01 X 17.7669 Y 20.8788 Z -1.0000
G01 X 17.8010 Y 20.8021 Z -1.0000
G02 X 17.6386 Y 20.7266 Z -1.0000 I -0.1623 J 0.1367
G01 X 17.6183 Y 20.7414 Z -1.0000
G01 X 17.6226 Y 20.7768 Z -1.0000
G01 X 17.6122 Y 20.8047 Z -1.0000
G03 X 17.4373 Y 20.8338 Z -1.0000 I -0.1959 J -0.6365
G02 X 17.3455 Y 20.8500 Z -1.0000 I 0.0103 J 0.3263
G01 X 17.3464 Y 20.8638 Z -1.0000
G03 X 17.5499 Y 20.9592 Z -1.0000 I -0.0800 J 0.4352
G01 X 17.5449 Y 21.0294 Z -1.0000
G01 X 17.5422 Y 21.0563 Z -1.0000
G02 X 17.6179 Y 21.0975 Z -1.0000 I 0.1176 J -0.1259
G03 X 17.7290 Y 21.1779 Z -1.0000 I -0.0450 J 0.1792
G01 X 17.7010 Y 21.2288 Z -1.0000
G01 X 17.6850 Y 21.2478 Z -1.0000
G02 X 17.7244 Y 21.3650 Z -1.0000 I 0.3968 J -0.0682
G03 X 17.7187 Y 21.5076 Z -1.0000 I -0.1279 J 0.0663
G03 X 17.5904 Y 21.5796 Z -1.0000 I -0.1298 J -0.0810
G02 X 17.5222 Y 21.6010 Z -1.0000 I 0.0011 J 0.1229
G02 X 17.4789 Y 21.6557 Z -1.0000 I 0.0660 J 0.0966
G03 X 17.4318 Y 21.7045 Z -1.0000 I -0.0809 J -0.0310
G03 X 17.3007 Y 21.7310 Z -1.0000 I -0.1310 J -0.3099
G02 X 17.1620 Y 21.7500 Z -1.0000 I -0.0000 J 0.5170
G02 X 17.1204 Y 21.7812 Z -1.0000 I 0.0192 J 0.0688
G02 X 17.1718 Y 21.8733 Z -1.0000 I 0.0513 J 0.0317
G02 X 17.6738 Y 21.7809 Z -1.0000 I -0.0009 J -1.4152
G03 X 17.7575 Y 21.8188 Z -1.0000 I 0.0230 J 0.0605
G03 X 17.7261 Y 21.9212 Z -1.0000 I -0.0824 J 0.0307
G02 X 17.7042 Y 22.0251 Z -1.0000 I 0.0454 J 0.0638
G02 X 17.8052 Y 22.0540 Z -1.0000 I 0.0658 J -0.0392
G03 X 17.9455 Y 22.0443 Z -1.0000 I 0.0814 J 0.1574
G01 X 17.9521 Y 22.1058 Z -1.0000
G02 X 17.9259 Y 22.1436 Z -1.0000 I 0.0303 J 0.0490
G02 X 17.9316 Y 22.2097 Z -1.0000 I 0.1174 J 0.0232
G01 X 17.9229 Y 22.2583 Z -1.0000
G03 X 17.8666 Y 22.2842 Z -1.0000 I -0.0570 J -0.0497
G01 X 17.8357 Y 22.3028 Z -1.0000
G01 X 17.8425 Y 22.3288 Z -1.0000
G03 X 17.8804 Y 22.3799 Z -1.0000 I -0.0473 J 0.0746
G03 X 17.8723 Y 22.4365 Z -1.0000 I -0.0688 J 0.0190
G01 X 17.8873 Y 22.4665 Z -1.0000
G02 X 18.1984 Y 22.4663 Z -1.0000 I 0.1543 J -1.6879
G02 X 18.5908 Y 22.3739 Z -1.0000 I -0.1351 J -1.4537
G01 X 18.5872 Y 22.3157 Z -1.0000
G02 X 18.4603 Y 22.2995 Z -1.0000 I -0.1313 J 0.5231
G02 X 18.3800 Y 22.3140 Z -1.0000 I -0.0018 J 0.2196
G03 X 18.3206 Y 22.3155 Z -1.0000 I -0.0318 J -0.0830
G01 X 18.3007 Y 22.2880 Z -1.0000
G03 X 18.5084 Y 22.0799 Z -1.0000 I 0.2081 J 0.0000
G03 X 18.8803 Y 22.2867 Z -1.0000 I 0.0009 J 0.4363
G01 X 18.8808 Y 22.3165 Z -1.0000
G03 X 18.8012 Y 22.4244 Z -1.0000 I -0.5106 J -0.2936
G02 X 18.6482 Y 22.7655 Z -1.0000 I 0.4240 J 0.3950
G02 X 18.7580 Y 22.8861 Z -1.0000 I 0.1099 J 0.0103
G01 X 18.7860 Y 22.9051 Z -1.0000
G03 X 18.7863 Y 22.9573 Z -1.0000 I -0.0667 J 0.0265
G02 X 18.7881 Y 23.0155 Z -1.0000 I 0.0705 J 0.0270
G02 X 18.8312 Y 23.0561 Z -1.0000 I 0.0711 J -0.0323
G03 X 18.8634 Y 23.1315 Z -1.0000 I -0.0205 J 0.0533
G03 X 18.7810 Y 23.1757 Z -1.0000 I -0.0684 J -0.0287
G02 X 18.6242 Y 23.2180 Z -1.0000 I -0.0349 J 0.1825
G02 X 18.6274 Y 23.3094 Z -1.0000 I 0.0386 J 0.0444
G02 X 18.7328 Y 23.3700 Z -1.0000 I 0.2922 J -0.3866
G02 X 18.8125 Y 23.3867 Z -1.0000 I 0.0838 J -0.2006
G03 X 18.8879 Y 23.4050 Z -1.0000 I -0.0033 J 0.1779
G03 X 18.9333 Y 23.4463 Z -1.0000 I -0.0492 J 0.0997
G01 X 18.9309 Y 23.4661 Z -1.0000
G01 X 18.9111 Y 23.4684 Z -1.0000
G01 X 18.8706 Y 23.4639 Z -1.0000
G01 X 18.8531 Y 23.4884 Z -1.0000
G02 X 18.8742 Y 23.5300 Z -1.0000 I 0.0517 J 0.0000
G02 X 19.0289 Y 23.6176 Z -1.0000 I 0.4432 J -0.6030
G03 X 19.1737 Y 23.7116 Z -1.0000 I -0.1854 J 0.4437
G03 X 19.2047 Y 23.7836 Z -1.0000 I -0.0679 J 0.0719
G02 X 19.2381 Y 23.8415 Z -1.0000 I 0.0670 J 0.0000
G02 X 19.3552 Y 23.8708 Z -1.0000 I 0.1094 J -0.1889
G02 X 19.4894 Y 23.8496 Z -1.0000 I -0.0196 J -0.5589
G01 X 19.5059 Y 23.8278 Z -1.0000
G01 X 19.5204 Y 23.8045 Z -1.0000
G03 X 19.5814 Y 23.7901 Z -1.0000 I 0.0610 J 0.1222
G02 X 19.6348 Y 23.7682 Z -1.0000 I 0.0000 J -0.0762
G02 X 19.6567 Y 23.7160 Z -1.0000 I -0.0513 J -0.0522
G01 X 19.6839 Y 23.6814 Z -1.0000
G03 X 19.7754 Y 23.6870 Z -1.0000 I 0.0366 J 0.1499
G02 X 19.8866 Y 23.6974 Z -1.0000 I 0.0745 J -0.1958
G02 X 19.9747 Y 23.6515 Z -1.0000 I -0.0291 J -0.1632
G03 X 20.0566 Y 23.6186 Z -1.0000 I 0.0793 J 0.0793
G03 X 20.1488 Y 23.6554 Z -1.0000 I -0.0032 J 0.1421
G02 X 20.2488 Y 23.7227 Z -1.0000 I 0.2842 J -0.3141
G02 X 20.3238 Y 23.7399 Z -1.0000 I 0.0750 J -0.1554
G03 X 20.3802 Y 23.7704 Z -1.0000 I 0.0000 J 0.0673
G03 X 20.4385 Y 23.9157 Z -1.0000 I -0.3362 J 0.2193
G02 X 20.5090 Y 23.9637 Z -1.0000 I 0.0592 J -0.0111
G02 X 20.5888 Y 23.8870 Z -1.0000 I -0.0190 J -0.0996
G03 X 20.6629 Y 23.8523 Z -1.0000 I 0.0507 J 0.0117
G03 X 20.7217 Y 23.9544 Z -1.0000 I -0.0487 J 0.0960
G03 X 20.6488 Y 24.4378 Z -1.0000 I -2.6134 J -0.1471
G01 X 20.5964 Y 24.4592 Z -1.0000
G02 X 20.5368 Y 24.4330 Z -1.0000 I -0.1224 J 0.1980
G02 X 20.4298 Y 24.4125 Z -1.0000 I -0.1762 J 0.6289
G02 X 20.3480 Y 24.4390 Z -1.0000 I -0.0112 J 0.1050
G02 X 20.2937 Y 24.5349 Z -1.0000 I 0.1161 J 0.1290
G02 X 20.2880 Y 24.6576 Z -1.0000 I 0.4167 J 0.0810
G01 X 20.3084 Y 24.6840 Z -1.0000
G01 X 20.3287 Y 24.7097 Z -1.0000
G03 X 20.3222 Y 24.8022 Z -1.0000 I -0.2492 J 0.0290
G02 X 20.3223 Y 24.8945 Z -1.0000 I 0.1754 J 0.0459
G02 X 20.3602 Y 24.9455 Z -1.0000 I 0.0829 J -0.0220
G03 X 20.3838 Y 25.0910 Z -1.0000 I -0.0513 J 0.0830
G03 X 20.0473 Y 25.3205 Z -1.0000 I -0.5720 J -0.4771
G02 X 19.8813 Y 25.4827 Z -1.0000 I 0.0840 J 0.2521
G02 X 19.9268 Y 25.6557 Z -1.0000 I 0.1485 J 0.0534
G03 X 20.0475 Y 25.8817 Z -1.0000 I -0.2320 J 0.2693
G03 X 20.0099 Y 26.3345 Z -1.0000 I -1.1087 J 0.1358
G02 X 20.0050 Y 26.5335 Z -1.0000 I 0.3670 J 0.1086
G02 X 20.1163 Y 26.7720 Z -1.0000 I 0.6500 J -0.1580
G02 X 20.3008 Y 26.9690 Z -1.0000 I 0.9230 J -0.6793
G02 X 20.3898 Y 27.0025 Z -1.0000 I 0.0917 J -0.1088
G03 X 20.4873 Y 27.0249 Z -1.0000 I -0.0046 J 0.2429
G03 X 20.6109 Y 27.1049 Z -1.0000 I -0.2210 J 0.4774
G02 X 20.7293 Y 27.1986 Z -1.0000 I 1.1106 J -1.2804
G01 X 20.7500 Y 27.2053 Z -1.0000
G01 X 20.7600 Y 27.1951 Z -1.0000
G02 X 20.7470 Y 27.1049 Z -1.0000 I -0.4035 J 0.0121
G03 X 20.7662 Y 27.0395 Z -1.0000 I 0.0640 J -0.0167
G03 X 20.8561 Y 27.0044 Z -1.0000 I 0.0899 J 0.0976
G02 X 20.9866 Y 26.9842 Z -1.0000 I -0.0000 J -0.4315
G02 X 21.2123 Y 26.8914 Z -1.0000 I -0.4460 J -1.4061
G02 X 21.3859 Y 26.7484 Z -1.0000 I -0.2383 J -0.4659
G02 X 21.4387 Y 26.6027 Z -1.0000 I -0.1958 J -0.1535
G02 X 21.4263 Y 26.4301 Z -1.0000 I -0.8421 J -0.0261
G02 X 21.3791 Y 26.2653 Z -1.0000 I -0.8125 J 0.1434
G03 X 21.3388 Y 26.0449 Z -1.0000 I 0.5184 J -0.2088
G01 X 21.3846 Y 26.0000 Z -1.0000
G01 X 21.4229 Y 26.0250 Z -1.0000
G03 X 21.4288 Y 26.1012 Z -1.0000 I -0.1069 J 0.0467
G02 X 21.4398 Y 26.1605 Z -1.0000 I 0.0687 J 0.0180
G01 X 21.4800 Y 26.1726 Z -1.0000
G02 X 21.5338 Y 26.1233 Z -1.0000 I -0.0357 J -0.0931
G02 X 21.5909 Y 25.9461 Z -1.0000 I -0.5829 J -0.2854
G03 X 21.6396 Y 25.7598 Z -1.0000 I 1.0749 J 0.1816
G03 X 21.6720 Y 25.7198 Z -1.0000 I 0.0734 J 0.0263
G02 X 21.7054 Y 25.6236 Z -1.0000 I -0.0424 J -0.0686
G02 X 21.5368 Y 25.3471 Z -1.0000 I -0.7677 J 0.2783
G03 X 21.1740 Y 24.9052 Z -1.0000 I 3.5358 J -3.2738
G01 X 21.1953 Y 24.8768 Z -1.0000
G03 X 21.4253 Y 25.0184 Z -1.0000 I -0.2159 J 0.6084
G03 X 21.5692 Y 25.2341 Z -1.0000 I -0.4107 J 0.4299
G02 X 21.6365 Y 25.3126 Z -1.0000 I 0.1446 J -0.0558
G02 X 21.7658 Y 25.3471 Z -1.0000 I 0.1292 J -0.2248
G03 X 21.8665 Y 25.3906 Z -1.0000 I -0.0000 J 0.1382
G03 X 21.8939 Y 25.4835 Z -1.0000 I -0.0784 J 0.0737
G02 X 21.8962 Y 25.6145 Z -1.0000 I 0.3300 J 0.0598
G02 X 21.9505 Y 25.7440 Z -1.0000 I 0.3768 J -0.0818
G03 X 22.0169 Y 25.8731 Z -1.0000 I -0.5821 J 0.3814
G03 X 22.0390 Y 25.9717 Z -1.0000 I -0.3141 J 0.1222
G02 X 22.0676 Y 26.0471 Z -1.0000 I 0.1398 J -0.0098
G01 X 22.1085 Y 26.0623 Z -1.0000
G03 X 22.1581 Y 26.0722 Z -1.0000 I 0.0132 J 0.0628
G03 X 22.1997 Y 26.1251 Z -1.0000 I -0.0644 J 0.0935
G02 X 22.2427 Y 26.1807 Z -1.0000 I 0.1143 J -0.0439
G02 X 22.3054 Y 26.2009 Z -1.0000 I 0.0628 J -0.0875
G03 X 22.3730 Y 26.2206 Z -1.0000 I 0.0000 J 0.1257
G03 X 22.4769 Y 26.3103 Z -1.0000 I -0.2567 J 0.4024
G02 X 22.5734 Y 26.3743 Z -1.0000 I 0.1636 J -0.1419
G02 X 22.6310 Y 26.3605 Z -1.0000 I 0.0175 J -0.0538
G03 X 22.6966 Y 26.3170 Z -1.0000 I 0.1395 J 0.1395
G03 X 22.7776 Y 26.3013 Z -1.0000 I 0.0809 J 0.2005
G02 X 22.8562 Y 26.2855 Z -1.0000 I -0.0000 J -0.2029
G02 X 22.8957 Y 26.2517 Z -1.0000 I -0.0331 J -0.0787
G01 X 22.8896 Y 26.2325 Z -1.0000
G02 X 22.8484 Y 26.2319 Z -1.0000 I -0.0213 J 0.0510
G01 X 22.7999 Y 26.2035 Z -1.0000
G03 X 22.8308 Y 26.1105 Z -1.0000 I 0.1082 J -0.0157
G01 X 22.8353 Y 26.0727 Z -1.0000
G02 X 22.7931 Y 26.0485 Z -1.0000 I -0.0431 J 0.0262
G01 X 22.7681 Y 26.0211 Z -1.0000
G03 X 22.7998 Y 25.9594 Z -1.0000 I 0.0889 J 0.0067
G02 X 22.9766 Y 25.6651 Z -1.0000 I -0.3364 J -0.4022
G02 X 22.9145 Y 25.4143 Z -1.0000 I -0.2906 J -0.0611
G01 X 22.9123 Y 25.3617 Z -1.0000
G03 X 23.0040 Y 25.2866 Z -1.0000 I 0.1804 J 0.1264
G02 X 23.1803 Y 25.1576 Z -1.0000 I -0.2041 J -0.4640
G02 X 23.1869 Y 25.0789 Z -1.0000 I -0.0498 J -0.0438
G01 X 23.1871 Y 25.0374 Z -1.0000
G03 X 23.2698 Y 24.9475 Z -1.0000 I 0.2874 J 0.1814
G02 X 23.4550 Y 24.6431 Z -1.0000 I -0.2906 J -0.3852
G02 X 23.3522 Y 24.4628 Z -1.0000 I -0.1614 J -0.0274
G03 X 23.2756 Y 24.3433 Z -1.0000 I 0.0429 J -0.1119
G03 X 23.3743 Y 24.1154 Z -1.0000 I 0.3661 J 0.0233
G02 X 23.4172 Y 24.0048 Z -1.0000 I -0.1153 J -0.1084
G02 X 23.3708 Y 23.8738 Z -1.0000 I -0.2169 J 0.0031
G03 X 23.2967 Y 23.6161 Z -1.0000 I 0.2796 J -0.2199
G03 X 23.4109 Y 23.4978 Z -1.0000 I 0.1330 J 0.0142
G02 X 23.4992 Y 23.4604 Z -1.0000 I -0.0261 J -0.1846
G02 X 23.5239 Y 23.4100 Z -1.0000 I -0.0392 J -0.0504
G02 X 23.4761 Y 23.3533 Z -1.0000 I -0.0575 J 0.0000
G02 X 23.3983 Y 23.3883 Z -1.0000 I -0.0129 J 0.0751
G03 X 23.3578 Y 23.4216 Z -1.0000 I -0.0687 J -0.0425
G03 X 23.2637 Y 23.4386 Z -1.0000 I -0.0942 J -0.2525
G03 X 23.2179 Y 23.4114 Z -1.0000 I 0.0000 J -0.0521
G01 X 23.2226 Y 23.3632 Z -1.0000
G02 X 23.2363 Y 23.3108 Z -1.0000 I -0.0494 J -0.0410
G01 X 23.2090 Y 23.2879 Z -1.0000
G03 X 23.0976 Y 23.2141 Z -1.0000 I 0.0000 J -0.1209
G03 X 23.1321 Y 23.1060 Z -1.0000 I 0.0803 J -0.0339
G01 X 23.1505 Y 23.1089 Z -1.0000
G01 X 23.1520 Y 23.1295 Z -1.0000
G01 X 23.1758 Y 23.1666 Z -1.0000
G02 X 23.2705 Y 23.1148 Z -1.0000 I -0.0179 J -0.1452
G03 X 23.3395 Y 23.0736 Z -1.0000 I 0.0928 J 0.0770
G03 X 23.4399 Y 23.0806 Z -1.0000 I 0.0375 J 0.1857
G02 X 23.6633 Y 23.0941 Z -1.0000 I 0.1352 J -0.3840
G02 X 23.7248 Y 23.0174 Z -1.0000 I -0.0170 J -0.0766
G02 X 23.7051 Y 22.9651 Z -1.0000 I -0.0794 J 0.0000
G02 X 23.5709 Y 22.8414 Z -1.0000 I -0.6385 J 0.5583
G03 X 23.4961 Y 22.7246 Z -1.0000 I 0.1156 J -0.1563
G03 X 23.5275 Y 22.6319 Z -1.0000 I 0.0947 J -0.0196
G02 X 23.5903 Y 22.5322 Z -1.0000 I -0.1333 J -0.1536
G02 X 23.5748 Y 22.4600 Z -1.0000 I -0.0770 J -0.0212
G01 X 23.5705 Y 22.4115 Z -1.0000
G03 X 23.6182 Y 22.3839 Z -1.0000 I 0.0477 J 0.0272
G02 X 23.6991 Y 22.3582 Z -1.0000 I -0.0000 J -0.1402
G02 X 23.7248 Y 22.3085 Z -1.0000 I -0.0351 J -0.0496
G03 X 23.7536 Y 22.2620 Z -1.0000 I 0.0520 J 0.0000
G03 X 23.8755 Y 22.2332 Z -1.0000 I 0.1219 J 0.2438
G02 X 24.0051 Y 22.2122 Z -1.0000 I 0.0000 J -0.4100
G01 X 24.0261 Y 22.1830 Z -1.0000
G01 X 24.0106 Y 22.1483 Z -1.0000
G02 X 23.9698 Y 22.1327 Z -1.0000 I -0.0408 J 0.0458
G01 X 23.9527 Y 22.1143 Z -1.0000
G03 X 23.9759 Y 22.0574 Z -1.0000 I 0.1017 J 0.0082
G01 X 23.9688 Y 22.0147 Z -1.0000
G02 X 23.8531 Y 21.9821 Z -1.0000 I -0.1157 J 0.1884
G03 X 23.6720 Y 21.9659 Z -1.0000 I -0.0000 J -1.0235
G03 X 23.5741 Y 21.9319 Z -1.0000 I 0.0587 J -0.3264
G02 X 23.4993 Y 21.9283 Z -1.0000 I -0.0412 J 0.0771
G02 X 23.4477 Y 21.9845 Z -1.0000 I 0.0348 J 0.0837
G02 X 23.4388 Y 22.0827 Z -1.0000 I 0.2186 J 0.0694
G02 X 23.4690 Y 22.1523 Z -1.0000 I 0.1345 J -0.0170
G03 X 23.5000 Y 22.2162 Z -1.0000 I -0.1143 J 0.0949
G01 X 23.4899 Y 22.2504 Z -1.0000
G03 X 23.4114 Y 22.2747 Z -1.0000 I -0.0624 J -0.0624
G01 X 23.3732 Y 22.2287 Z -1.0000
G02 X 23.3573 Y 22.1814 Z -1.0000 I -0.0782 J -0.0000
G02 X 23.2602 Y 22.0797 Z -1.0000 I -0.4953 J 0.3757
G03 X 23.2230 Y 22.0122 Z -1.0000 I 0.0678 J -0.0812
G01 X 23.2476 Y 21.9837 Z -1.0000
G02 X 23.3344 Y 21.9544 Z -1.0000 I -0.0025 J -0.1505
G02 X 23.4883 Y 21.8063 Z -1.0000 I -0.4849 J -0.6578
G02 X 23.5580 Y 21.6645 Z -1.0000 I -0.2873 J -0.2292
G01 X 23.5313 Y 21.6305 Z -1.0000
G02 X 23.4500 Y 21.6536 Z -1.0000 I -0.0000 J 0.1550
G02 X 23.4040 Y 21.7090 Z -1.0000 I 0.0590 J 0.0958
G03 X 23.3637 Y 21.7575 Z -1.0000 I -0.0917 J -0.0352
G01 X 23.3252 Y 21.7575 Z -1.0000
G01 X 23.3033 Y 21.7183 Z -1.0000
G03 X 23.3249 Y 21.6004 Z -1.0000 I 0.3298 J -0.0008
G02 X 23.3250 Y 21.4740 Z -1.0000 I -0.1667 J -0.0634
G02 X 23.2602 Y 21.4289 Z -1.0000 I -0.0653 J 0.0246
G03 X 23.0721 Y 21.3597 Z -1.0000 I 0.0020 J -0.2957
G03 X 23.0635 Y 21.2639 Z -1.0000 I 0.0438 J -0.0523
G03 X 23.1344 Y 21.2282 Z -1.0000 I 0.0762 J 0.0633
G03 X 23.2994 Y 21.2513 Z -1.0000 I 0.0233 J 0.4353
G03 X 23.4620 Y 21.3290 Z -1.0000 I -0.2566 J 0.7464
G03 X 23.5419 Y 21.4033 Z -1.0000 I -0.1536 J 0.2451
G02 X 23.6224 Y 21.4518 Z -1.0000 I 0.0980 J -0.0717
G02 X 23.7748 Y 21.4372 Z -1.0000 I 0.0464 J -0.3187
G03 X 23.9427 Y 21.3918 Z -1.0000 I 0.4011 J 1.1504
G03 X 24.0712 Y 21.3794 Z -1.0000 I 0.1285 J 0.6592
G02 X 24.1643 Y 21.3419 Z -1.0000 I -0.0000 J -0.1344
G02 X 24.2019 Y 21.2538 Z -1.0000 I -0.0846 J -0.0881
G02 X 24.1747 Y 21.1548 Z -1.0000 I -0.1942 J 0.0000
G02 X 24.1265 Y 21.1267 Z -1.0000 I -0.0494 J 0.0293
G03 X 24.0562 Y 21.1109 Z -1.0000 I 0.0039 J -0.1821
G03 X 23.9507 Y 21.0482 Z -1.0000 I 0.2147 J -0.4812
G03 X 23.9087 Y 20.9718 Z -1.0000 I 0.0658 J -0.0859
G03 X 23.9382 Y 20.9062 Z -1.0000 I 0.0734 J -0.0065
G02 X 24.0227 Y 20.7575 Z -1.0000 I -0.1263 J -0.1702
G02 X 23.9633 Y 20.6600 Z -1.0000 I -0.0940 J -0.0096
G01 X 23.9647 Y 20.6499 Z -1.0000
G03 X 24.0904 Y 20.6490 Z -1.0000 I 0.0685 J 0.7932
G03 X 24.2749 Y 20.6745 Z -1.0000 I -0.1019 J 1.4188
G03 X 24.3122 Y 20.6946 Z -1.0000 I -0.0149 J 0.0723
G02 X 24.4410 Y 20.7400 Z -1.0000 I 0.1119 J -0.1119
G02 X 24.6528 Y 20.6581 Z -1.0000 I -0.0466 J -0.4353
G01 X 24.6532 Y 20.6127 Z -1.0000
G02 X 24.5182 Y 20.5556 Z -1.0000 I -0.1789 J 0.2348
G03 X 24.3078 Y 20.4885 Z -1.0000 I 0.1028 J -0.6855
G03 X 24.1580 Y 20.3732 Z -1.0000 I 0.2294 J -0.4531
G03 X 24.0860 Y 20.2032 Z -1.0000 I 0.2147 J -0.1913
G03 X 24.1360 Y 20.0755 Z -1.0000 I 0.1580 J -0.0117
G02 X 24.1524 Y 20.0085 Z -1.0000 I -0.0429 J -0.0460
G02 X 24.0983 Y 19.9692 Z -1.0000 I -0.0557 J 0.0197
G01 X 24.0710 Y 19.9456 Z -1.0000
G01 X 24.0888 Y 19.9148 Z -1.0000
G02 X 24.2093 Y 19.8520 Z -1.0000 I -0.1800 J -0.4930
G01 X 24.2269 Y 19.8183 Z -1.0000
G02 X 24.1144 Y 19.7168 Z -1.0000 I -0.1020 J 0.0000
G02 X 23.9437 Y 19.8476 Z -1.0000 I 0.0211 J 0.2044
G03 X 23.8255 Y 19.9249 Z -1.0000 I -0.1127 J -0.0432
G03 X 23.6807 Y 19.8354 Z -1.0000 I 0.0081 J -0.1750
G01 X 23.6237 Y 19.8198 Z -1.0000
G02 X 23.5518 Y 19.9104 Z -1.0000 I 0.0797 J 0.1371
G02 X 23.5469 Y 20.0013 Z -1.0000 I 0.1798 J 0.0553
G01 X 23.5736 Y 20.0234 Z -1.0000
G01 X 23.5991 Y 20.0407 Z -1.0000
G01 X 23.5958 Y 20.0790 Z -1.0000
G01 X 23.5319 Y 20.0748 Z -1.0000
G03 X 23.4743 Y 19.8099 Z -1.0000 I 0.5926 J -0.2675
G03 X 23.5119 Y 19.6597 Z -1.0000 I 0.3140 J -0.0013
G03 X 23.5758 Y 19.6216 Z -1.0000 I 0.0639 J 0.0344
G02 X 23.6248 Y 19.5897 Z -1.0000 I 0.0000 J -0.0536
G02 X 23.6222 Y 19.5172 Z -1.0000 I -0.0754 J -0.0335
G02 X 23.5545 Y 19.4447 Z -1.0000 I -0.1708 J 0.0914
G02 X 23.4980 Y 19.4391 Z -1.0000 I -0.0338 J 0.0537
G01 X 23.4509 Y 19.4291 Z -1.0000
G03 X 23.4138 Y 19.3551 Z -1.0000 I 0.0924 J -0.0926
G02 X 23.3705 Y 19.2801 Z -1.0000 I -0.1156 J 0.0166
G02 X 23.2884 Y 19.2563 Z -1.0000 I -0.0703 J 0.0892
G03 X 23.2048 Y 19.2327 Z -1.0000 I -0.0121 J -0.1168
G03 X 23.1573 Y 19.1558 Z -1.0000 I 0.0774 J -0.1010
G01 X 23.1422 Y 19.1439 Z -1.0000
G01 X 23.1289 Y 19.1570 Z -1.0000
G03 X 23.0722 Y 19.2534 Z -1.0000 I -0.1230 J -0.0074
G01 X 23.0216 Y 19.2257 Z -1.0000
G02 X 22.9334 Y 19.1143 Z -1.0000 I -0.1144 J 0.0000
G02 X 22.7940 Y 19.1721 Z -1.0000 I -0.0296 J 0.1257
G01 X 22.7599 Y 19.1937 Z -1.0000
G03 X 22.6858 Y 19.1842 Z -1.0000 I -0.0175 J -0.1571
G01 X 22.6626 Y 19.1437 Z -1.0000
G03 X 22.7046 Y 19.0717 Z -1.0000 I 0.1161 J 0.0195
G02 X 22.7619 Y 18.9889 Z -1.0000 I -0.1127 J -0.1392
G01 X 22.7490 Y 18.9381 Z -1.0000
G02 X 22.6893 Y 18.9021 Z -1.0000 I -0.1144 J 0.1225
G02 X 22.6438 Y 18.9017 Z -1.0000 I -0.0233 J 0.0676
G03 X 22.4660 Y 18.8336 Z -1.0000 I -0.0469 J -0.1438
G03 X 22.3442 Y 18.3833 Z -1.0000 I 0.7858 J -0.4540
G01 X 22.4027 Y 18.3501 Z -1.0000
G03 X 22.4888 Y 18.4704 Z -1.0000 I -0.0964 J 0.1599
G02 X 22.5419 Y 18.5797 Z -1.0000 I 0.2513 J -0.0545
G02 X 22.6437 Y 18.6577 Z -1.0000 I 0.2202 J -0.1821
G03 X 22.7462 Y 18.7310 Z -1.0000 I -0.1362 J 0.2989
G03 X 22.7704 Y 18.7918 Z -1.0000 I -0.0644 J 0.0608
G02 X 22.7880 Y 18.8507 Z -1.0000 I 0.1071 J -0.0000
G01 X 22.8207 Y 18.8682 Z -1.0000
G01 X 22.8531 Y 18.8861 Z -1.0000
G03 X 22.8709 Y 18.9473 Z -1.0000 I -0.0964 J 0.0612
G01 X 22.9042 Y 18.9919 Z -1.0000
G02 X 23.1094 Y 19.0182 Z -1.0000 I 0.1832 J -0.6167
G03 X 23.4727 Y 19.0346 Z -1.0000 I 0.0787 J 2.2920
G01 X 23.4794 Y 19.0644 Z -1.0000
G01 X 23.4769 Y 19.0967 Z -1.0000
G02 X 23.5693 Y 19.1434 Z -1.0000 I 0.1369 J -0.1557
G03 X 23.6831 Y 19.2047 Z -1.0000 I -0.0505 J 0.2300
G03 X 23.6995 Y 19.2702 Z -1.0000 I -0.0448 J 0.0460
G02 X 23.6947 Y 19.3531 Z -1.0000 I 0.1606 J 0.0509
G02 X 23.7235 Y 19.3948 Z -1.0000 I 0.0621 J -0.0120
G03 X 23.7509 Y 19.4337 Z -1.0000 I -0.0319 J 0.0516
G03 X 23.7424 Y 19.4829 Z -1.0000 I -0.0654 J 0.0140
G01 X 23.7482 Y 19.5051 Z -1.0000
G01 X 23.7876 Y 19.5077 Z -1.0000
G03 X 23.8530 Y 19.5087 Z -1.0000 I 0.0316 J 0.0823
G03 X 23.8961 Y 19.5529 Z -1.0000 I -0.0301 J 0.0723
G02 X 23.9407 Y 19.5961 Z -1.0000 I 0.0687 J -0.0264
G02 X 24.0239 Y 19.5972 Z -1.0000 I 0.0432 J -0.1248
G03 X 24.1207 Y 19.5866 Z -1.0000 I 0.0747 J 0.2355
G03 X 24.2132 Y 19.6142 Z -1.0000 I -0.0216 J 0.2404
G02 X 24.3015 Y 19.6310 Z -1.0000 I 0.0708 J -0.1324
G02 X 24.3997 Y 19.5924 Z -1.0000 I -0.0241 J -0.2059
G02 X 24.4244 Y 19.5201 Z -1.0000 I -0.0393 J -0.0538
G02 X 24.3525 Y 19.4296 Z -1.0000 I -0.1461 J 0.0424
G01 X 24.3516 Y 19.3975 Z -1.0000
G03 X 24.4529 Y 19.3662 Z -1.0000 I 0.1088 J 0.1722
G02 X 24.5539 Y 19.3483 Z -1.0000 I -0.0138 J -0.3728
G01 X 24.5534 Y 19.3337 Z -1.0000
G03 X 24.2764 Y 19.1727 Z -1.0000 I 0.1402 J -0.5598
G03 X 24.1671 Y 18.9297 Z -1.0000 I 0.2886 J -0.2760
G02 X 24.1031 Y 18.7912 Z -1.0000 I -0.2218 J 0.0184
G02 X 23.9657 Y 18.7272 Z -1.0000 I -0.1555 J 0.1547
G03 X 23.8046 Y 18.6807 Z -1.0000 I 0.0353 J -0.4245
G03 X 23.7490 Y 18.6147 Z -1.0000 I 0.0521 J -0.1002
G03 X 23.7731 Y 18.4896 Z -1.0000 I 0.1273 J -0.0404
G03 X 23.9016 Y 18.4288 Z -1.0000 I 0.1286 J 0.1055
G02 X 24.0541 Y 18.3867 Z -1.0000 I -0.0000 J -0.2973
G01 X 24.0607 Y 18.3337 Z -1.0000
G01 X 24.0274 Y 18.3246 Z -1.0000
G02 X 23.9578 Y 18.3601 Z -1.0000 I 0.0442 J 0.1725
G03 X 23.8983 Y 18.3758 Z -1.0000 I -0.0466 J -0.0561
G03 X 23.8577 Y 18.3422 Z -1.0000 I 0.0095 J -0.0529
G03 X 23.8583 Y 18.2859 Z -1.0000 I 0.0711 J -0.0273
G01 X 23.8895 Y 18.2648 Z -1.0000
G01 X 23.9009 Y 18.2499 Z -1.0000
G02 X 23.8777 Y 18.2178 Z -1.0000 I -0.0517 J 0.0130
G02 X 23.8010 Y 18.1920 Z -1.0000 I -0.0911 J 0.1440
G02 X 23.6643 Y 18.1998 Z -1.0000 I -0.0411 J 0.4858
G03 X 23.5469 Y 18.1997 Z -1.0000 I -0.0584 J -0.2919
G01 X 23.5238 Y 18.1714 Z -1.0000
G01 X 23.5049 Y 18.1337 Z -1.0000
G02 X 23.4484 Y 18.1149 Z -1.0000 I -0.0565 J 0.0754
G03 X 23.3913 Y 18.0966 Z -1.0000 I -0.0000 J -0.0985
G01 X 23.3731 Y 18.0613 Z -1.0000
G01 X 23.3525 Y 18.0358 Z -1.0000
G02 X 23.2726 Y 18.0395 Z -1.0000 I -0.0329 J 0.1519
G03 X 23.1998 Y 18.0319 Z -1.0000 I -0.0276 J -0.0871
G03 X 23.1682 Y 17.9801 Z -1.0000 I 0.0310 J -0.0544
G01 X 23.1540 Y 17.9485 Z -1.0000
G01 X 23.1389 Y 17.9516 Z -1.0000
G01 X 23.0743 Y 17.9695 Z -1.0000
G03 X 23.0392 Y 17.8763 Z -1.0000 I 0.0562 J -0.0744
G02 X 23.0474 Y 17.8024 Z -1.0000 I -0.3900 J -0.0807
G01 X 23.0405 Y 17.8010 Z -1.0000
G03 X 22.9720 Y 17.8307 Z -1.0000 I -0.0502 J -0.0218
G03 X 22.9211 Y 17.7586 Z -1.0000 I 0.0256 J -0.0721
G02 X 22.8929 Y 17.6752 Z -1.0000 I -0.1373 J 0.0000
G02 X 22.8207 Y 17.6272 Z -1.0000 I -0.1060 J 0.0810
G03 X 22.7402 Y 17.5584 Z -1.0000 I 0.0307 J -0.1173
G01 X 22.7705 Y 17.5122 Z -1.0000
G01 X 22.7922 Y 17.4699 Z -1.0000
G02 X 22.6682 Y 17.3688 Z -1.0000 I -0.2466 J 0.1758
G03 X 22.5589 Y 17.2818 Z -1.0000 I 0.1119 J -0.2528
G03 X 22.5460 Y 17.2058 Z -1.0000 I 0.0674 J -0.0505
G02 X 22.5490 Y 17.1304 Z -1.0000 I -0.1354 J -0.0430
G01 X 22.5237 Y 17.1104 Z -1.0000
G01 X 22.4865 Y 17.0905 Z -1.0000
G03 X 22.4395 Y 16.9848 Z -1.0000 I 0.2802 J -0.1878
G02 X 22.3941 Y 16.8772 Z -1.0000 I -0.3703 J 0.0929
G01 X 22.3620 Y 16.8593 Z -1.0000
G01 X 22.3276 Y 16.8423 Z -1.0000
G03 X 22.2706 Y 16.7401 Z -1.0000 I 0.3211 J -0.2460
G02 X 22.0126 Y 16.3642 Z -1.0000 I -0.9029 J 0.3433
G02 X 21.7314 Y 16.2566 Z -1.0000 I -0.2812 J 0.3136
G03 X 21.6886 Y 16.2419 Z -1.0000 I -0.0000 J -0.0698
G03 X 21.5541 Y 16.1185 Z -1.0000 I 0.6950 J -0.8925
G02 X 21.0694 Y 15.6759 Z -1.0000 I -2.8978 J 2.6870
G02 X 20.9283 Y 15.6359 Z -1.0000 I -0.1206 J 0.1564
G03 X 20.8824 Y 15.6218 Z -1.0000 I -0.0063 J -0.0609
G01 X 20.8689 Y 15.5857 Z -1.0000
G02 X 20.8419 Y 15.4367 Z -1.0000 I -0.2291 J -0.0354
G02 X 20.6638 Y 15.2207 Z -1.0000 I -0.6907 J 0.3881
G03 X 20.3311 Y 14.9100 Z -1.0000 I 3.1108 J -3.6655
G03 X 20.3095 Y 14.8570 Z -1.0000 I 0.0544 J -0.0530
G01 X 20.3284 Y 14.8190 Z -1.0000
G03 X 20.3848 Y 14.8001 Z -1.0000 I 0.0564 J 0.0747
G02 X 20.4474 Y 14.7860 Z -1.0000 I -0.0000 J -0.1457
G01 X 20.4640 Y 14.7624 Z -1.0000
G03 X 20.5462 Y 14.6231 Z -1.0000 I 0.1926 J 0.0196
G03 X 20.6335 Y 14.6448 Z -1.0000 I 0.0341 J 0.0492
G02 X 20.7274 Y 14.7779 Z -1.0000 I 0.5302 J -0.2742
G02 X 20.7785 Y 14.8001 Z -1.0000 I 0.0511 J -0.0477
G03 X 20.8353 Y 14.8185 Z -1.0000 I 0.0000 J 0.0970
G03 X 20.9883 Y 14.9516 Z -1.0000 I -0.6555 J 0.9077
G03 X 21.0956 Y 15.1169 Z -1.0000 I -0.3806 J 0.3646
G03 X 21.1217 Y 15.2781 Z -1.0000 I -0.3350 J 0.1369
G02 X 21.1384 Y 15.4267 Z -1.0000 I 0.4194 J 0.0282
G01 X 21.1743 Y 15.4538 Z -1.0000
G01 X 21.1881 Y 15.4689 Z -1.0000
G01 X 21.1708 Y 15.4976 Z -1.0000
G01 X 21.1702 Y 15.5262 Z -1.0000
G02 X 21.2685 Y 15.5649 Z -1.0000 I 0.1320 J -0.1916
G02 X 21.5639 Y 15.5562 Z -1.0000 I 0.1234 J -0.8406
G02 X 21.6153 Y 15.4932 Z -1.0000 I -0.0131 J -0.0631
G02 X 21.4674 Y 15.1219 Z -1.0000 I -0.5398 J -0.0000
G02 X 20.6020 Y 14.4234 Z -1.0000 I -3.0349 J 2.8749
G03 X 20.4916 Y 14.1895 Z -1.0000 I 0.1217 J -0.2004
G03 X 20.6565 Y 14.0467 Z -1.0000 I 0.1648 J 0.0238
G03 X 20.7316 Y 14.0704 Z -1.0000 I 0.0000 J 0.1309
G03 X 20.9968 Y 14.2853 Z -1.0000 I -1.4109 J 2.0130
G03 X 21.2133 Y 14.5450 Z -1.0000 I -0.9202 J 0.9872
G03 X 21.2884 Y 14.7408 Z -1.0000 I -0.4374 J 0.2799
G02 X 21.3467 Y 14.9393 Z -1.0000 I 0.8309 J -0.1363
G02 X 21.3940 Y 14.9846 Z -1.0000 I 0.0777 J -0.0337
G03 X 21.4389 Y 15.0200 Z -1.0000 I -0.0345 J 0.0900
G01 X 21.4397 Y 15.0510 Z -1.0000
G02 X 21.4633 Y 15.1696 Z -1.0000 I 0.0754 J 0.0466
G02 X 21.7194 Y 15.2521 Z -1.0000 I 0.2560 J -0.3560
G01 X 21.7480 Y 15.2323 Z -1.0000
G02 X 21.7478 Y 15.1768 Z -1.0000 I -0.0730 J -0.0276
G01 X 21.7565 Y 15.1273 Z -1.0000
G03 X 21.8131 Y 15.1014 Z -1.0000 I 0.0566 J 0.0490
G02 X 21.8676 Y 15.0703 Z -1.0000 I 0.0000 J -0.0632
G02 X 21.8796 Y 14.9884 Z -1.0000 I -0.0947 J -0.0557
G02 X 21.8429 Y 14.8798 Z -1.0000 I -0.6496 J 0.1591
G02 X 21.8028 Y 14.8127 Z -1.0000 I -0.2852 J 0.1245
G03 X 21.7678 Y 14.7548 Z -1.0000 I 0.2225 J -0.1741
G01 X 21.7724 Y 14.7453 Z -1.0000
G03 X 22.0761 Y 14.7362 Z -1.0000 I 0.1730 J 0.7033
G03 X 22.2594 Y 14.8346 Z -1.0000 I -0.0613 J 0.3342
G03 X 22.5314 Y 15.1868 Z -1.0000 I -1.4709 J 1.4171
G03 X 22.5254 Y 15.2699 Z -1.0000 I -0.0611 J 0.0374
G02 X 22.4857 Y 15.4310 Z -1.0000 I 0.1464 J 0.1215
G02 X 22.5749 Y 15.5032 Z -1.0000 I 0.0892 J -0.0189
G01 X 22.6013 Y 15.4847 Z -1.0000
G02 X 22.6198 Y 15.3777 Z -1.0000 I -0.2996 J -0.1070
G03 X 22.6472 Y 15.2795 Z -1.0000 I 0.1895 J 0.0000
G03 X 22.6958 Y 15.2521 Z -1.0000 I 0.0486 J 0.0295
G01 X 22.7364 Y 15.2822 Z -1.0000
G03 X 22.7452 Y 15.4153 Z -1.0000 I -0.2826 J 0.0854
G02 X 22.7447 Y 15.5114 Z -1.0000 I 0.3016 J 0.0494
G01 X 22.7605 Y 15.5149 Z -1.0000
G03 X 22.8971 Y 15.4070 Z -1.0000 I 0.2323 J 0.1535
G03 X 23.2037 Y 15.3526 Z -1.0000 I 0.3067 J 0.8373
G03 X 23.2453 Y 15.3729 Z -1.0000 I 0.0000 J 0.0527
G03 X 23.2900 Y 15.4634 Z -1.0000 I -0.1978 J 0.1539
G01 X 23.3427 Y 15.4722 Z -1.0000
G02 X 23.3817 Y 15.3257 Z -1.0000 I -0.1961 J -0.1307
G03 X 23.3964 Y 15.1763 Z -1.0000 I 0.4556 J -0.0306
G01 X 23.4286 Y 15.1517 Z -1.0000
G01 X 23.4580 Y 15.1776 Z -1.0000
G03 X 23.4588 Y 15.3902 Z -1.0000 I -0.8648 J 0.1093
G02 X 23.4735 Y 15.4554 Z -1.0000 I 0.0993 J 0.0119
G01 X 23.4984 Y 15.4530 Z -1.0000
G01 X 23.5362 Y 15.4459 Z -1.0000
G03 X 23.5702 Y 15.5313 Z -1.0000 I -0.0952 J 0.0874
G02 X 23.5971 Y 15.7776 Z -1.0000 I 1.3229 J -0.0199
G02 X 23.6413 Y 15.8774 Z -1.0000 I 0.2511 J -0.0516
G02 X 23.7002 Y 15.9065 Z -1.0000 I 0.0575 J -0.0421
G01 X 23.7446 Y 15.8754 Z -1.0000
G02 X 23.7534 Y 15.7943 Z -1.0000 I -0.1487 J -0.0571
G01 X 23.7276 Y 15.7637 Z -1.0000
G03 X 23.6574 Y 15.6530 Z -1.0000 I 0.0328 J -0.0985
G03 X 23.7506 Y 15.5702 Z -1.0000 I 0.0932 J 0.0111
G01 X 23.7919 Y 15.5956 Z -1.0000
G03 X 23.7974 Y 15.6623 Z -1.0000 I -0.0786 J 0.0400
G02 X 23.7931 Y 15.7361 Z -1.0000 I 0.1426 J 0.0452
G01 X 23.8153 Y 15.7544 Z -1.0000
G01 X 23.8445 Y 15.7753 Z -1.0000
G03 X 23.9038 Y 16.0180 Z -1.0000 I -1.4093 J 0.4731
G02 X 23.9418 Y 16.1223 Z -1.0000 I 0.2853 J -0.0448
G01 X 23.9638 Y 16.1175 Z -1.0000
G03 X 24.0000 Y 15.9897 Z -1.0000 I 0.4054 J 0.0458
G01 X 24.0278 Y 15.9814 Z -1.0000
G01 X 24.0624 Y 15.9756 Z -1.0000
G02 X 24.1450 Y 15.8378 Z -1.0000 I -0.4326 J -0.3530
G03 X 24.2309 Y 15.7514 Z -1.0000 I 0.1493 J 0.0624
G01 X 24.2693 Y 15.7849 Z -1.0000
G02 X 24.3257 Y 15.9313 Z -1.0000 I 0.1271 J 0.0351
G02 X 24.4708 Y 15.9128 Z -1.0000 I 0.0614 J -0.0968
G03 X 24.6097 Y 15.8234 Z -1.0000 I 0.2462 J 0.2300
G01 X 24.6433 Y 15.8548 Z -1.0000
G02 X 24.6446 Y 15.9340 Z -1.0000 I 0.1424 J 0.0372
G01 X 24.6731 Y 15.9553 Z -1.0000
G01 X 24.7094 Y 15.9751 Z -1.0000
G03 X 24.7294 Y 16.0431 Z -1.0000 I -0.1067 J 0.0684
G01 X 24.7528 Y 16.0537 Z -1.0000
G02 X 24.8695 Y 15.9203 Z -1.0000 I -0.4431 J -0.5049
G03 X 25.0111 Y 15.7829 Z -1.0000 I 0.3852 J 0.2556
G01 X 25.0720 Y 15.7947 Z -1.0000
G02 X 25.0997 Y 15.8215 Z -1.0000 I 0.0927 J -0.0682
G01 X 25.1048 Y 15.8171 Z -1.0000
G01 X 25.1081 Y 15.7754 Z -1.0000
G01 X 25.1482 Y 15.7544 Z -1.0000
G02 X 25.3084 Y 15.6607 Z -1.0000 I 0.0000 J -0.1839
G02 X 25.4834 Y 15.1593 Z -1.0000 I -1.3124 J -0.7394
G02 X 25.4725 Y 14.9558 Z -1.0000 I -0.4774 J -0.0764
G02 X 25.3885 Y 14.8110 Z -1.0000 I -0.3144 J 0.0857
G02 X 25.2490 Y 14.7021 Z -1.0000 I -0.5124 J 0.5124
G02 X 25.1600 Y 14.6739 Z -1.0000 I -0.1038 J 0.1730
G03 X 25.0807 Y 14.6373 Z -1.0000 I 0.0092 J -0.1241
G03 X 24.9606 Y 14.4725 Z -1.0000 I 0.4823 J -0.4774
G02 X 24.8642 Y 14.3940 Z -1.0000 I -0.1389 J 0.0721
G02 X 24.7968 Y 14.4262 Z -1.0000 I -0.0154 J 0.0545
G03 X 24.7452 Y 14.5125 Z -1.0000 I -0.3417 J -0.1458
G01 X 24.7314 Y 14.5079 Z -1.0000
G01 X 24.7063 Y 14.4742 Z -1.0000
G02 X 24.6287 Y 14.4737 Z -1.0000 I -0.0397 J 0.1188
G01 X 24.5785 Y 14.4217 Z -1.0000
G03 X 24.6927 Y 14.2937 Z -1.0000 I 0.2143 J 0.0761
G02 X 24.8186 Y 14.1890 Z -1.0000 I -0.1536 J -0.3130
G02 X 24.8705 Y 14.0551 Z -1.0000 I -0.2151 J -0.1604
G02 X 24.8269 Y 13.9686 Z -1.0000 I -0.0900 J -0.0089
G02 X 24.7514 Y 13.9839 Z -1.0000 I -0.0293 J 0.0491
G01 X 24.6870 Y 13.9871 Z -1.0000
G03 X 24.6767 Y 13.9004 Z -1.0000 I 0.0567 J -0.0508
G02 X 24.6907 Y 13.8208 Z -1.0000 I -0.1146 J -0.0613
G01 X 24.6618 Y 13.7956 Z -1.0000
G03 X 24.5986 Y 13.7791 Z -1.0000 I 0.0000 J -0.1289
G03 X 24.5288 Y 13.7209 Z -1.0000 I 0.1225 J -0.2178
G02 X 24.4626 Y 13.6710 Z -1.0000 I -0.1388 J 0.1152
G01 X 24.4218 Y 13.6738 Z -1.0000
G01 X 24.3777 Y 13.6777 Z -1.0000
G03 X 24.2322 Y 13.5985 Z -1.0000 I 0.2548 J -0.6415
G03 X 24.0164 Y 13.2781 Z -1.0000 I 0.3186 J -0.4475
G03 X 24.1240 Y 13.1438 Z -1.0000 I 0.1061 J -0.0252
G03 X 24.3074 Y 13.2108 Z -1.0000 I -0.0042 J 0.2960
G03 X 24.4438 Y 13.4056 Z -1.0000 I -0.2784 J 0.3401
G02 X 24.5405 Y 13.4649 Z -1.0000 I 0.0848 J -0.0297
G02 X 24.6908 Y 13.3724 Z -1.0000 I -0.0289 J -0.2151
G01 X 24.7122 Y 13.3694 Z -1.0000
G01 X 24.7284 Y 13.4034 Z -1.0000
G02 X 24.7922 Y 13.4869 Z -1.0000 I 0.0876 J -0.0008
G02 X 24.9625 Y 13.4695 Z -1.0000 I 0.0632 J -0.2237
G03 X 25.0937 Y 13.4252 Z -1.0000 I 0.2087 J 0.4018
G01 X 25.1217 Y 13.4419 Z -1.0000
G02 X 25.2100 Y 13.4797 Z -1.0000 I 0.0611 J -0.0206
G02 X 25.2817 Y 13.3672 Z -1.0000 I -0.0525 J -0.1125
G03 X 25.2981 Y 13.3071 Z -1.0000 I 0.1184 J 0.0000
G03 X 25.4120 Y 13.1462 Z -1.0000 I 1.0199 J 0.6014
G02 X 25.4944 Y 12.9825 Z -1.0000 I -0.3036 J -0.2555
G02 X 25.4867 Y 12.8318 Z -1.0000 I -0.2616 J -0.0622
G03 X 25.4566 Y 12.6811 Z -1.0000 I 0.5265 J -0.1835
G01 X 25.4756 Y 12.6438 Z -1.0000
G02 X 25.5170 Y 12.5129 Z -1.0000 I -0.0577 J -0.0902
G02 X 25.3582 Y 12.3578 Z -1.0000 I -0.2592 J 0.1064
G03 X 25.3097 Y 12.3091 Z -1.0000 I 0.0301 J -0.0785
G03 X 25.2817 Y 12.1564 Z -1.0000 I 0.4017 J -0.1527
G02 X 25.2539 Y 12.0035 Z -1.0000 I -0.4355 J 0.0000
G02 X 25.2063 Y 11.9555 Z -1.0000 I -0.0771 J 0.0289
G03 X 25.1567 Y 11.9089 Z -1.0000 I 0.0322 J -0.0840
G03 X 25.1310 Y 11.7908 Z -1.0000 I 0.2584 J -0.1182
G02 X 25.0234 Y 11.5427 Z -1.0000 I -0.3397 J -0.0000
G02 X 24.7510 Y 11.4351 Z -1.0000 I -0.2724 J 0.2911
G03 X 24.7035 Y 11.4109 Z -1.0000 I 0.0000 J -0.0587
G03 X 24.6968 Y 11.3605 Z -1.0000 I 0.0431 J -0.0313
G02 X 24.6614 Y 11.2583 Z -1.0000 I -0.0784 J -0.0301
G02 X 24.4404 Y 11.2076 Z -1.0000 I -0.1890 J 0.3169
G03 X 24.3453 Y 11.1980 Z -1.0000 I -0.0222 J -0.2552
G01 X 24.3274 Y 11.1740 Z -1.0000
G01 X 24.3115 Y 11.1413 Z -1.0000
G02 X 24.2144 Y 11.0851 Z -1.0000 I -0.2448 J 0.3112
G03 X 24.1593 Y 11.0494 Z -1.0000 I 0.0637 J -0.1584
G01 X 24.1642 Y 11.0365 Z -1.0000
G01 X 24.1960 Y 10.9865 Z -1.0000
G02 X 24.1147 Y 10.9152 Z -1.0000 I -0.1119 J 0.0456
G03 X 24.0763 Y 10.8712 Z -1.0000 I 0.0131 J -0.0502
G03 X 24.1021 Y 10.8105 Z -1.0000 I 0.0657 J -0.0079
G02 X 24.1400 Y 10.7552 Z -1.0000 I -0.0636 J -0.0841
G01 X 24.1240 Y 10.7336 Z -1.0000
G02 X 24.0522 Y 10.7470 Z -1.0000 I -0.0037 J 0.1794
G02 X 23.9892 Y 10.7889 Z -1.0000 I 0.0729 J 0.1777
G03 X 23.9273 Y 10.8219 Z -1.0000 I -0.0852 J -0.0852
G03 X 23.8536 Y 10.8156 Z -1.0000 I -0.0258 J -0.1311
G03 X 23.7633 Y 10.7037 Z -1.0000 I 0.0514 J -0.1338
G03 X 23.8251 Y 10.6315 Z -1.0000 I 0.0618 J -0.0096
G01 X 23.8502 Y 10.5833 Z -1.0000
G02 X 23.7247 Y 10.4884 Z -1.0000 I -0.2100 J 0.1474
G03 X 23.6090 Y 10.3364 Z -1.0000 I 0.0570 J -0.1634
G03 X 23.6996 Y 10.1086 Z -1.0000 I 0.2843 J -0.0188
G02 X 23.7615 Y 9.9842 Z -1.0000 I -0.1334 J -0.1439
G01 X 23.7159 Y 9.9453 Z -1.0000
G03 X 23.6173 Y 9.9424 Z -1.0000 I -0.0445 J -0.1701
G03 X 23.5400 Y 9.8883 Z -1.0000 I 0.0495 J -0.1530
G01 X 23.5110 Y 9.8722 Z -1.0000
G01 X 23.5014 Y 9.8841 Z -1.0000
G03 X 23.4956 Y 9.9487 Z -1.0000 I -0.0748 J 0.0258
G03 X 23.4387 Y 9.9957 Z -1.0000 I -0.0892 J -0.0501
G02 X 23.3516 Y 10.0329 Z -1.0000 I 0.1842 J 0.5524
G02 X 23.2615 Y 10.0890 Z -1.0000 I 0.3404 J 0.6463
G03 X 23.1779 Y 10.0470 Z -1.0000 I -0.0310 J -0.0425
G03 X 23.2579 Y 9.6873 Z -1.0000 I 0.8164 J -0.0073
G03 X 23.4633 Y 9.3472 Z -1.0000 I 1.8537 J 0.8873
G03 X 23.6174 Y 9.2044 Z -1.0000 I 0.4609 J 0.3432
G02 X 23.7940 Y 9.0798 Z -1.0000 I -1.1184 J -1.7715
G02 X 23.8697 Y 9.0061 Z -1.0000 I -0.3089 J -0.3928
G03 X 23.9448 Y 8.9381 Z -1.0000 I 0.2752 J 0.2284
G03 X 23.9945 Y 8.9219 Z -1.0000 I 0.0531 J 0.0787
G02 X 24.0456 Y 8.9057 Z -1.0000 I -0.0035 J -0.0998
G02 X 24.2250 Y 8.7712 Z -1.0000 I -0.9582 J -1.4655
G03 X 24.4051 Y 8.6393 Z -1.0000 I 0.9672 J 1.1315
G03 X 24.4636 Y 8.6226 Z -1.0000 I 0.0585 J 0.0939
G01 X 24.5052 Y 8.5996 Z -1.0000
G02 X 24.5282 Y 8.5199 Z -1.0000 I -0.1266 J -0.0797
G02 X 24.4904 Y 8.4628 Z -1.0000 I -0.0620 J 0.0000
G02 X 24.3600 Y 8.4487 Z -1.0000 I -0.0885 J 0.2093
G03 X 24.2526 Y 8.4094 Z -1.0000 I -0.0206 J -0.1101
G03 X 24.1995 Y 8.2520 Z -1.0000 I 0.1832 J -0.1495
G03 X 24.2406 Y 8.0396 Z -1.0000 I 0.6875 J 0.0232
G03 X 24.3175 Y 7.9280 Z -1.0000 I 0.2539 J 0.0925
G02 X 24.4205 Y 7.7271 Z -1.0000 I -0.1982 J -0.2285
G02 X 24.3564 Y 7.5031 Z -1.0000 I -0.3208 J -0.0294
G02 X 24.2881 Y 7.4826 Z -1.0000 I -0.0482 J 0.0365
G02 X 24.1696 Y 7.5689 Z -1.0000 I 0.0850 J 0.2411
G03 X 23.7461 Y 8.0337 Z -1.0000 I -2.8275 J -2.1512
G01 X 23.6819 Y 8.0171 Z -1.0000
G03 X 23.6874 Y 7.9600 Z -1.0000 I 0.0671 J -0.0224
G03 X 23.7678 Y 7.8649 Z -1.0000 I 0.2897 J 0.1635
G02 X 23.8620 Y 7.7714 Z -1.0000 I -0.4156 J -0.5132
G02 X 23.8753 Y 7.7343 Z -1.0000 I -0.0452 J -0.0372
G03 X 23.8879 Y 7.6956 Z -1.0000 I 0.0660 J 0.0000
G03 X 24.0260 Y 7.5258 Z -1.0000 I 1.5516 J 1.1212
G02 X 24.1643 Y 7.3560 Z -1.0000 I -1.4311 J -1.3072
G02 X 24.1767 Y 7.3179 Z -1.0000 I -0.0526 J -0.0381
G03 X 24.1894 Y 7.2841 Z -1.0000 I 0.0512 J -0.0000
G03 X 24.2301 Y 7.2571 Z -1.0000 I 0.0702 J 0.0617
G02 X 24.2653 Y 7.2247 Z -1.0000 I -0.0185 J -0.0555
G02 X 24.2992 Y 7.0959 Z -1.0000 I -0.4149 J -0.1780
G02 X 24.2784 Y 6.9777 Z -1.0000 I -0.2134 J -0.0234
G02 X 24.2158 Y 6.9266 Z -1.0000 I -0.0871 J 0.0429
G03 X 24.1571 Y 6.8747 Z -1.0000 I 0.0220 J -0.0841
G03 X 24.1433 Y 6.7446 Z -1.0000 I 0.2246 J -0.0895
G02 X 24.1514 Y 6.6528 Z -1.0000 I -0.5636 J -0.0959
G01 X 24.1440 Y 6.6513 Z -1.0000
G03 X 24.1069 Y 6.6973 Z -1.0000 I -0.0964 J -0.0398
G03 X 24.0532 Y 6.7141 Z -1.0000 I -0.0537 J -0.0776
G02 X 24.0085 Y 6.7387 Z -1.0000 I 0.0000 J 0.0528
G02 X 23.9582 Y 6.8648 Z -1.0000 I 0.3162 J 0.1994
G03 X 23.8784 Y 6.9918 Z -1.0000 I -0.2069 J -0.0414
G01 X 23.8251 Y 6.9652 Z -1.0000
G03 X 23.8398 Y 6.9297 Z -1.0000 I 0.0502 J -0.0000
G03 X 23.8753 Y 6.9150 Z -1.0000 I 0.0355 J 0.0355
G01 X 23.9089 Y 6.8984 Z -1.0000
G02 X 23.9255 Y 6.8492 Z -1.0000 I -0.0645 J -0.0492
G03 X 23.9356 Y 6.7853 Z -1.0000 I 0.2077 J 0.0000
G03 X 24.0472 Y 6.4730 Z -1.0000 I 5.1925 J 1.6789
G02 X 24.1388 Y 6.1727 Z -1.0000 I -1.8908 J -0.7410
G01 X 24.1225 Y 6.1341 Z -1.0000
G01 X 24.0916 Y 6.1331 Z -1.0000
G01 X 24.0762 Y 6.1587 Z -1.0000
G03 X 24.0602 Y 6.1958 Z -1.0000 I -0.0511 J -0.0000
G03 X 24.0199 Y 6.2119 Z -1.0000 I -0.0403 J -0.0428
G01 X 23.9999 Y 6.1941 Z -1.0000
G03 X 24.0126 Y 6.1491 Z -1.0000 I 0.0612 J -0.0071
G02 X 24.0535 Y 6.0822 Z -1.0000 I -0.2698 J -0.2111
G02 X 24.0883 Y 5.9858 Z -1.0000 I -0.5315 J -0.2468
G03 X 24.1181 Y 5.8864 Z -1.0000 I 1.6038 J 0.4258
G03 X 24.1512 Y 5.7975 Z -1.0000 I 1.3153 J 0.4389
G02 X 24.1391 Y 5.7419 Z -1.0000 I -0.0463 J -0.0191
G02 X 24.0574 Y 5.7096 Z -1.0000 I -0.0817 J 0.0872
G02 X 23.9573 Y 5.7468 Z -1.0000 I 0.0000 J 0.1536
G02 X 23.8969 Y 5.8477 Z -1.0000 I 0.1215 J 0.1412
G03 X 23.7683 Y 6.2803 Z -1.0000 I -3.1064 J -0.6877
G01 X 23.7221 Y 6.3123 Z -1.0000
G03 X 23.6195 Y 6.2045 Z -1.0000 I 0.0000 J -0.1027
G03 X 23.7808 Y 5.1320 Z -1.0000 I 5.4457 J 0.2709
G03 X 24.0714 Y 4.2670 Z -1.0000 I 5.8870 J 1.4966
G03 X 24.1627 Y 4.2269 Z -1.0000 I 0.0668 J 0.0282
G02 X 24.2150 Y 4.2244 Z -1.0000 I 0.0231 J -0.0643
G02 X 24.2632 Y 4.1794 Z -1.0000 I -0.0464 J -0.0980
G03 X 24.4306 Y 3.9959 Z -1.0000 I 0.4781 J 0.2681
G03 X 24.7741 Y 3.8279 Z -1.0000 I 0.7367 J 1.0708
G03 X 24.8494 Y 3.8358 Z -1.0000 I 0.0285 J 0.0899
G03 X 24.8798 Y 3.8881 Z -1.0000 I -0.0298 J 0.0523
G03 X 24.8634 Y 3.9751 Z -1.0000 I -0.2388 J -0.0000
G03 X 24.8195 Y 4.0422 Z -1.0000 I -0.1822 J -0.0713
G01 X 24.8355 Y 4.0754 Z -1.0000
G02 X 24.9669 Y 4.0257 Z -1.0000 I -0.0315 J -0.2823
G02 X 25.0440 Y 3.9391 Z -1.0000 I -0.1442 J -0.2058
G02 X 25.0481 Y 3.8751 Z -1.0000 I -0.0677 J -0.0365
G03 X 25.0477 Y 3.8204 Z -1.0000 I 0.0726 J -0.0279
G01 X 25.0753 Y 3.8011 Z -1.0000
G03 X 25.1146 Y 3.8174 Z -1.0000 I -0.0000 J 0.0556
G03 X 25.1309 Y 3.8568 Z -1.0000 I -0.0394 J 0.0394
G01 X 25.1532 Y 3.8838 Z -1.0000
G02 X 25.2564 Y 3.8809 Z -1.0000 I 0.0451 J -0.2345
G03 X 25.3608 Y 3.8766 Z -1.0000 I 0.0626 J 0.2495
G01 X 25.3820 Y 3.9016 Z -1.0000
G02 X 25.4592 Y 3.9664 Z -1.0000 I 0.0658 J 0.0000
G02 X 25.7059 Y 3.8449 Z -1.0000 I -0.0845 J -0.4830
G03 X 25.7590 Y 3.8162 Z -1.0000 I 0.0831 J 0.0906
G03 X 25.8566 Y 3.8069 Z -1.0000 I 0.0792 J 0.3148
G01 X 25.8765 Y 3.8210 Z -1.0000
G01 X 25.8689 Y 3.8363 Z -1.0000
G02 X 25.8057 Y 3.8747 Z -1.0000 I 0.0322 J 0.1242
G01 X 25.7970 Y 3.9162 Z -1.0000
G02 X 25.9381 Y 4.0253 Z -1.0000 I 0.1518 J -0.0506
G02 X 26.2906 Y 3.9493 Z -1.0000 I 0.0438 J -0.6527
G02 X 26.3830 Y 3.8063 Z -1.0000 I -0.0829 J -0.1549
G02 X 26.3125 Y 3.6253 Z -1.0000 I -0.2279 J -0.0154
G01 X 26.2780 Y 3.5845 Z -1.0000
G01 X 26.2943 Y 3.5824 Z -1.0000
G02 X 26.4202 Y 3.4589 Z -1.0000 I -1.1117 J -1.2592
G03 X 26.5352 Y 3.3735 Z -1.0000 I 0.2799 J 0.2569
G01 X 26.5699 Y 3.3868 Z -1.0000
G01 X 26.6253 Y 3.4053 Z -1.0000
G02 X 26.6763 Y 3.3240 Z -1.0000 I -0.0531 J -0.0900
G02 X 26.6111 Y 3.2478 Z -1.0000 I -0.0703 J -0.0058
G02 X 26.4651 Y 3.3086 Z -1.0000 I -0.0127 J 0.1749
G03 X 26.3838 Y 3.3460 Z -1.0000 I -0.0813 J -0.0696
G03 X 26.3300 Y 3.3086 Z -1.0000 I 0.0000 J -0.0574
G03 X 26.3077 Y 3.1984 Z -1.0000 I 0.3420 J -0.1265
G03 X 26.3213 Y 3.1148 Z -1.0000 I 0.2069 J -0.0093
G02 X 26.3207 Y 3.0707 Z -1.0000 I -0.0556 J -0.0213
G01 X 26.3003 Y 3.0641 Z -1.0000
G01 X 26.2618 Y 3.0605 Z -1.0000
G03 X 26.2194 Y 2.9905 Z -1.0000 I 0.0969 J -0.1065
G02 X 26.1717 Y 2.9229 Z -1.0000 I -0.1138 J 0.0297
G02 X 26.1092 Y 2.9157 Z -1.0000 I -0.0381 J 0.0563
G03 X 26.0249 Y 2.9373 Z -1.0000 I -0.1358 J -0.3538
G03 X 25.8786 Y 2.9473 Z -1.0000 I -0.1463 J -1.0667
G02 X 25.7457 Y 3.0370 Z -1.0000 I 0.0000 J 0.1433
G02 X 25.7544 Y 3.2550 Z -1.0000 I 0.2464 J 0.0995
G03 X 25.7898 Y 3.4098 Z -1.0000 I -0.3019 J 0.1506
G03 X 25.7513 Y 3.5081 Z -1.0000 I -0.1493 J -0.0018
G03 X 25.6389 Y 3.5526 Z -1.0000 I -0.1014 J -0.0918
G01 X 25.5986 Y 3.4958 Z -1.0000
G02 X 25.5908 Y 3.4306 Z -1.0000 I -0.0869 J -0.0227
G01 X 25.5568 Y 3.4179 Z -1.0000
G01 X 25.5180 Y 3.3854 Z -1.0000
G03 X 25.5969 Y 3.2110 Z -1.0000 I 0.4062 J 0.0788
G01 X 25.5811 Y 3.1859 Z -1.0000
G02 X 25.3893 Y 3.2567 Z -1.0000 I 0.1609 J 0.7315
G02 X 25.2123 Y 3.3846 Z -1.0000 I 0.3803 J 0.7125
G02 X 25.1654 Y 3.4701 Z -1.0000 I 0.1113 J 0.1168
G01 X 25.1511 Y 3.4788 Z -1.0000
G01 X 25.1378 Y 3.4621 Z -1.0000
G02 X 25.1018 Y 3.3801 Z -1.0000 I -0.1290 J 0.0078
G02 X 25.0288 Y 3.3491 Z -1.0000 I -0.0730 J 0.0705
G03 X 24.7599 Y 3.2681 Z -1.0000 I -0.0000 J -0.4867
G03 X 24.6790 Y 3.1173 Z -1.0000 I 0.0999 J -0.1508
G02 X 24.6545 Y 3.0722 Z -1.0000 I -0.0539 J 0.0000
G02 X 24.5724 Y 3.0478 Z -1.0000 I -0.0822 J 0.1259
G02 X 24.5244 Y 3.0753 Z -1.0000 I 0.0000 J 0.0556
G01 X 24.5283 Y 3.1231 Z -1.0000
G03 X 24.5427 Y 3.1759 Z -1.0000 I -0.0508 J 0.0422
G01 X 24.5161 Y 3.1985 Z -1.0000
G03 X 24.3496 Y 3.1455 Z -1.0000 I -0.0000 J -0.2885
G03 X 24.0943 Y 2.9003 Z -1.0000 I 0.6834 J -0.9666
G02 X 24.0275 Y 2.8641 Z -1.0000 I -0.0741 J 0.0569
G02 X 23.9057 Y 2.8856 Z -1.0000 I -0.0192 J 0.2468
G02 X 23.7919 Y 2.9549 Z -1.0000 I 0.2314 J 0.5079
G01 X 23.7806 Y 2.9841 Z -1.0000
G01 X 23.7414 Y 3.0271 Z -1.0000
G03 X 23.5930 Y 2.9712 Z -1.0000 I 0.0189 J -0.2751
G02 X 23.4072 Y 2.8861 Z -1.0000 I -0.2811 J 0.3686
G02 X 23.2791 Y 2.9053 Z -1.0000 I -0.0382 J 0.1820
G03 X 22.7864 Y 3.0251 Z -1.0000 I -0.4668 J -0.8462
G03 X 22.4304 Y 2.8824 Z -1.0000 I 0.0149 J -0.5524
G02 X 22.2325 Y 2.8054 Z -1.0000 I -0.2000 J 0.2210
G02 X 21.8774 Y 2.8786 Z -1.0000 I -0.0059 J 0.8686
G03 X 21.6861 Y 2.9408 Z -1.0000 I -0.4060 J -0.9243
G03 X 21.4611 Y 2.9693 Z -1.0000 I -0.2732 J -1.2552
G02 X 21.2415 Y 3.0071 Z -1.0000 I 0.0313 J 0.8374
G02 X 21.0722 Y 3.0913 Z -1.0000 I 0.1807 J 0.5757
G03 X 20.9120 Y 3.1767 Z -1.0000 I -0.4084 J -0.5735
G03 X 20.8591 Y 3.1716 Z -1.0000 I -0.0212 J -0.0563
G02 X 20.8070 Y 3.1635 Z -1.0000 I -0.0356 J 0.0576
G02 X 20.7207 Y 3.2066 Z -1.0000 I 0.0554 J 0.2189
G03 X 20.3702 Y 3.4046 Z -1.0000 I -0.7736 J -0.9603
G03 X 20.0973 Y 3.4343 Z -1.0000 I -0.1967 J -0.5384
G02 X 19.9659 Y 3.4776 Z -1.0000 I -0.0211 J 0.1572
G02 X 19.9220 Y 3.6042 Z -1.0000 I 0.1035 J 0.1068
G03 X 19.8857 Y 3.7463 Z -1.0000 I -0.1943 J 0.0261
G03 X 19.7774 Y 3.8011 Z -1.0000 I -0.1083 J -0.0795
G03 X 19.6353 Y 3.7722 Z -1.0000 I 0.0000 J -0.3642
G01 X 19.6064 Y 3.7286 Z -1.0000
G02 X 19.5348 Y 3.5713 Z -1.0000 I -0.2088 J 0.0000
G02 X 19.3441 Y 3.4998 Z -1.0000 I -0.1908 J 0.2186
G01 X 19.3197 Y 3.5150 Z -1.0000
G02 X 19.3015 Y 3.5877 Z -1.0000 I 0.1651 J 0.0800
G01 X 19.2849 Y 3.5997 Z -1.0000
G01 X 19.2576 Y 3.5751 Z -1.0000
G03 X 19.2305 Y 3.4756 Z -1.0000 I 0.4086 J -0.1643
G03 X 19.2374 Y 3.4395 Z -1.0000 I 0.0552 J -0.0082
G02 X 19.2143 Y 3.3408 Z -1.0000 I -0.0643 J -0.0370
G02 X 19.0037 Y 3.2833 Z -1.0000 I -0.1912 J 0.2861
G01 X 18.9803 Y 3.2783 Z -1.0000
G03 X 18.8763 Y 3.2177 Z -1.0000 I 0.5279 J -1.0252
G02 X 18.7665 Y 3.1820 Z -1.0000 I -0.1206 J 0.1841
G02 X 18.3902 Y 3.1937 Z -1.0000 I -0.1154 J 2.3376
G03 X 17.9356 Y 3.2079 Z -1.0000 I -0.3150 J -2.8089
G03 X 16.9771 Y 3.1238 Z -1.0000 I 0.6249 J -12.6283
G02 X 16.7408 Y 3.1246 Z -1.0000 I -0.1149 J 0.9097
G02 X 16.6121 Y 3.1726 Z -1.0000 I 0.0410 J 0.3069
G03 X 16.5058 Y 3.2053 Z -1.0000 I -0.1096 J -0.1673
G01 X 16.4611 Y 3.1751 Z -1.0000
G02 X 16.4181 Y 3.1176 Z -1.0000 I -0.1228 J 0.0471
G02 X 16.3600 Y 3.0980 Z -1.0000 I -0.0581 J 0.0762
G03 X 16.3018 Y 3.0786 Z -1.0000 I 0.0000 J -0.0970
G03 X 16.2596 Y 3.0227 Z -1.0000 I 0.0760 J -0.1013
G02 X 16.0970 Y 2.8969 Z -1.0000 I -0.1848 J 0.0709
G02 X 15.9903 Y 2.9922 Z -1.0000 I -0.0108 J 0.0953
G01 X 15.9753 Y 3.0267 Z -1.0000
G03 X 15.9089 Y 3.0683 Z -1.0000 I -0.1397 J -0.1495
G01 X 15.8655 Y 3.0570 Z -1.0000
G03 X 15.8531 Y 3.0015 Z -1.0000 I 0.0476 J -0.0398
G02 X 15.8196 Y 2.9040 Z -1.0000 I -0.0902 J -0.0236
G02 X 15.6511 Y 2.8469 Z -1.0000 I -0.1685 J 0.2201
G03 X 15.5777 Y 2.8301 Z -1.0000 I -0.0000 J -0.1685
G03 X 15.4798 Y 2.7641 Z -1.0000 I 0.1810 J -0.3743
G02 X 15.3762 Y 2.7116 Z -1.0000 I -0.1478 J 0.1633
G02 X 15.0489 Y 2.6757 Z -1.0000 I -0.3563 J 1.7368
G03 X 14.7120 Y 2.6599 Z -1.0000 I 0.0926 J -5.5768
G03 X 14.6593 Y 2.6455 Z -1.0000 I 0.0112 J -0.1447
G02 X 14.6067 Y 2.6325 Z -1.0000 I -0.0563 J 0.1148
G02 X 14.3234 Y 2.6359 Z -1.0000 I -0.0999 J 3.4835
G01 X 14.3236 Y 2.6358 Z -1.0000
G00 Z 5.0000

(End cutting path id: path446)


(Start cutting path id: path446)
(Change tool to Default tool)

G00 Z 5.0000
G00 X 14.5841 Y 2.9694

G01 Z -1.0000 F 100.0000(Penetrate)
G03 X 14.5208 Y 3.0687 Z -1.0000 I -0.1094 J -0.0000 F 3500.0000
G03 X 14.4286 Y 3.0416 Z -1.0000 I -0.0307 J -0.0660
G03 X 14.4186 Y 2.9419 Z -1.0000 I 0.0945 J -0.0599
G03 X 14.4837 Y 2.8970 Z -1.0000 I 0.0651 J 0.0248
G03 X 14.5596 Y 2.9215 Z -1.0000 I 0.0000 J 0.1299
G03 X 14.5841 Y 2.9694 Z -1.0000 I -0.0345 J 0.0479
G01 X 14.5841 Y 2.9694 Z -1.0000
G00 Z 5.0000

(End cutting path id: path446)


(Start cutting path id: path446)
(Change tool to Default tool)

G00 Z 5.0000
G00 X 15.4882 Y 2.9423

G01 Z -1.0000 F 100.0000(Penetrate)
G01 X 15.4716 Y 2.9781 Z -1.0000 F 3500.0000
G03 X 15.3124 Y 3.0913 Z -1.0000 I -0.7439 J -0.8777
G03 X 15.1943 Y 3.1133 Z -1.0000 I -0.0894 J -0.1515
G01 X 15.1750 Y 3.0685 Z -1.0000
G03 X 15.3064 Y 2.9426 Z -1.0000 I 0.3589 J 0.2430
G03 X 15.4505 Y 2.8985 Z -1.0000 I 0.1562 J 0.2531
G01 X 15.4761 Y 2.9096 Z -1.0000
G03 X 15.4882 Y 2.9423 Z -1.0000 I -0.0379 J 0.0326
G01 X 15.4882 Y 2.9423 Z -1.0000
G00 Z 5.0000

(End cutting path id: path446)


(Start cutting path id: path446)
(Change tool to Default tool)

G00 Z 5.0000
G00 X 15.9402 Y 3.8764

G01 Z -1.0000 F 100.0000(Penetrate)
G03 X 15.9316 Y 3.9431 Z -1.0000 I -0.2631 J 0.0000 F 3500.0000
G01 X 15.9204 Y 3.9517 Z -1.0000
G01 X 15.9061 Y 3.9439 Z -1.0000
G03 X 15.8718 Y 3.8764 Z -1.0000 I 0.3079 J -0.1988
G03 X 15.8686 Y 3.8187 Z -1.0000 I 0.0880 J -0.0338
G01 X 15.8915 Y 3.8010 Z -1.0000
G01 X 15.9230 Y 3.8182 Z -1.0000
G03 X 15.9402 Y 3.8764 Z -1.0000 I -0.0901 J 0.0582
G01 X 15.9402 Y 3.8764 Z -1.0000
G00 Z 5.0000

(End cutting path id: path446)


(Start cutting path id: path446)
(Change tool to Default tool)

G00 Z 5.0000
G00 X 16.0822 Y 5.7771

G01 Z -1.0000 F 100.0000(Penetrate)
G01 X 16.0611 Y 5.8159 Z -1.0000 F 3500.0000
G03 X 15.9949 Y 5.8124 Z -1.0000 I -0.0293 J -0.0724
G03 X 15.9280 Y 5.7148 Z -1.0000 I 0.0606 J -0.1132
G01 X 15.9773 Y 5.6688 Z -1.0000
G03 X 16.0449 Y 5.7053 Z -1.0000 I -0.0240 J 0.1252
G03 X 16.0822 Y 5.7771 Z -1.0000 I -0.1018 J 0.0986
G01 X 16.0822 Y 5.7771 Z -1.0000
G00 Z 5.0000

(End cutting path id: path446)


(Start cutting path id: path446)
(Change tool to Default tool)

G00 Z 5.0000
G00 X 16.2415 Y 7.5243

G01 Z -1.0000 F 100.0000(Penetrate)
G02 X 16.2575 Y 7.6033 Z -1.0000 I 0.2030 J -0.0000 F 3500.0000
G02 X 16.2917 Y 7.6433 Z -1.0000 I 0.0797 J -0.0337
G03 X 16.3273 Y 7.6824 Z -1.0000 I -0.0504 J 0.0816
G03 X 16.3420 Y 7.7451 Z -1.0000 I -0.1270 J 0.0627
G01 X 16.2750 Y 7.7801 Z -1.0000
G03 X 16.1730 Y 7.6275 Z -1.0000 I 0.1437 J -0.2064
G02 X 16.1428 Y 7.4927 Z -1.0000 I -14.5333 J 3.1828
G02 X 16.1134 Y 7.3670 Z -1.0000 I -12.5026 J 2.8600
G01 X 16.1283 Y 7.3326 Z -1.0000
G01 X 16.1624 Y 7.3390 Z -1.0000
G03 X 16.2248 Y 7.4424 Z -1.0000 I -0.3380 J 0.2741
G03 X 16.2415 Y 7.5243 Z -1.0000 I -0.1922 J 0.0819
G01 X 16.2415 Y 7.5243 Z -1.0000
G00 Z 5.0000

(End cutting path id: path446)


(Start cutting path id: path446)
(Change tool to Default tool)

G00 Z 5.0000
G00 X 16.5680 Y 8.7229

G01 Z -1.0000 F 100.0000(Penetrate)
G01 X 16.5713 Y 8.7577 Z -1.0000 F 3500.0000
G01 X 16.5488 Y 8.7732 Z -1.0000
G03 X 16.5054 Y 8.7608 Z -1.0000 I -0.0000 J -0.0825
G03 X 16.4675 Y 8.7229 Z -1.0000 I 0.0613 J -0.0992
G01 X 16.4643 Y 8.6882 Z -1.0000
G01 X 16.4867 Y 8.6727 Z -1.0000
G03 X 16.5301 Y 8.6850 Z -1.0000 I 0.0000 J 0.0825
G03 X 16.5680 Y 8.7229 Z -1.0000 I -0.0613 J 0.0992
G01 X 16.5680 Y 8.7229 Z -1.0000
G00 Z 5.0000

(End cutting path id: path446)


(Start cutting path id: path446)
(Change tool to Default tool)

G00 Z 5.0000
G00 X 16.8191 Y 8.9740

G01 Z -1.0000 F 100.0000(Penetrate)
G01 X 16.8224 Y 9.0088 Z -1.0000 F 3500.0000
G01 X 16.7999 Y 9.0243 Z -1.0000
G03 X 16.7566 Y 9.0120 Z -1.0000 I -0.0000 J -0.0825
G03 X 16.7187 Y 8.9740 Z -1.0000 I 0.0613 J -0.0992
G01 X 16.7154 Y 8.9393 Z -1.0000
G01 X 16.7378 Y 8.9238 Z -1.0000
G03 X 16.7812 Y 8.9361 Z -1.0000 I 0.0000 J 0.0825
G03 X 16.8191 Y 8.9740 Z -1.0000 I -0.0613 J 0.0992
G01 X 16.8191 Y 8.9740 Z -1.0000
G00 Z 5.0000

(End cutting path id: path446)


(Start cutting path id: path446)
(Change tool to Default tool)

G00 Z 5.0000
G00 X 16.6935 Y 9.2344

G01 Z -1.0000 F 100.0000(Penetrate)
G01 X 16.6768 Y 9.2467 Z -1.0000 F 3500.0000
G03 X 16.5680 Y 9.1954 Z -1.0000 I 0.1281 J -0.4128
G03 X 16.4494 Y 9.1094 Z -1.0000 I 0.8445 J -1.2889
G01 X 16.4424 Y 9.0949 Z -1.0000
G01 X 16.4504 Y 9.0890 Z -1.0000
G03 X 16.5680 Y 9.1339 Z -1.0000 I -0.2953 J 0.9515
G03 X 16.6776 Y 9.2013 Z -1.0000 I -0.2162 J 0.4745
G01 X 16.6935 Y 9.2344 Z -1.0000
G01 X 16.6935 Y 9.2344 Z -1.0000
G00 Z 5.0000

(End cutting path id: path446)


(Start cutting path id: path446)
(Change tool to Default tool)

G00 Z 5.0000
G00 X 17.1456 Y 9.3449

G01 Z -1.0000 F 100.0000(Penetrate)
G03 X 17.1779 Y 9.4682 Z -1.0000 I -0.2194 J 0.1234 F 3500.0000
G03 X 17.1456 Y 9.5278 Z -1.0000 I -0.0710 J -0.0000
G02 X 17.1165 Y 9.5766 Z -1.0000 I 0.0350 J 0.0538
G01 X 17.1384 Y 9.6207 Z -1.0000
G03 X 17.1675 Y 9.6643 Z -1.0000 I -0.0358 J 0.0555
G01 X 17.1526 Y 9.6980 Z -1.0000
G01 X 17.1063 Y 9.6985 Z -1.0000
G03 X 17.0347 Y 9.6289 Z -1.0000 I 0.1056 J -0.1803
G02 X 16.9607 Y 9.5446 Z -1.0000 I -0.2956 J 0.1846
G02 X 16.9104 Y 9.5265 Z -1.0000 I -0.0503 J 0.0610
G03 X 16.8254 Y 9.4668 Z -1.0000 I -0.0000 J -0.0904
G03 X 16.8460 Y 9.3485 Z -1.0000 I 0.1137 J -0.0411
G02 X 16.8738 Y 9.2754 Z -1.0000 I -0.0931 J -0.0773
G02 X 16.8508 Y 9.2080 Z -1.0000 I -0.1002 J -0.0034
G03 X 16.8183 Y 9.1417 Z -1.0000 I 0.1214 J -0.1007
G01 X 16.8283 Y 9.1072 Z -1.0000
G03 X 16.9307 Y 9.0999 Z -1.0000 I 0.0554 J 0.0554
G03 X 17.1456 Y 9.3449 Z -1.0000 I -0.4735 J 0.6322
G01 X 17.1456 Y 9.3449 Z -1.0000
G00 Z 5.0000

(End cutting path id: path446)


(Start cutting path id: path446)
(Change tool to Default tool)

G00 Z 5.0000
G00 X 17.3503 Y 9.2478

G01 Z -1.0000 F 100.0000(Penetrate)
G03 X 17.3860 Y 9.2998 Z -1.0000 I -0.1334 J 0.1296 F 3500.0000
G03 X 17.3964 Y 9.3482 Z -1.0000 I -0.1043 J 0.0479
G01 X 17.3804 Y 9.3558 Z -1.0000
G03 X 17.2757 Y 9.2504 Z -1.0000 I 0.4358 J -0.5379
G03 X 17.1994 Y 9.0965 Z -1.0000 I 0.3148 J -0.2519
G03 X 17.2129 Y 8.9993 Z -1.0000 I 0.1275 J -0.0319
G01 X 17.2514 Y 8.9903 Z -1.0000
G03 X 17.2872 Y 9.0494 Z -1.0000 I -0.0459 J 0.0682
G02 X 17.3178 Y 9.1935 Z -1.0000 I 0.7420 J -0.0824
G02 X 17.3503 Y 9.2478 Z -1.0000 I 0.1314 J -0.0418
G01 X 17.3503 Y 9.2478 Z -1.0000
G00 Z 5.0000

(End cutting path id: path446)


(Start cutting path id: path446)
(Change tool to Default tool)

G00 Z 5.0000
G00 X 17.5456 Y 9.7689

G01 Z -1.0000 F 100.0000(Penetrate)
G03 X 17.5836 Y 9.8879 Z -1.0000 I -0.4797 J 0.2185 F 3500.0000
G01 X 17.5743 Y 9.9180 Z -1.0000
G01 X 17.5591 Y 9.9163 Z -1.0000
G03 X 17.5466 Y 9.8739 Z -1.0000 I 0.0689 J -0.0433
G01 X 17.5307 Y 9.8558 Z -1.0000
G01 X 17.5045 Y 9.8679 Z -1.0000
G01 X 17.4322 Y 9.8738 Z -1.0000
G03 X 17.3188 Y 9.6598 Z -1.0000 I 0.3782 J -0.3374
G03 X 17.3356 Y 9.5896 Z -1.0000 I 0.0756 J -0.0190
G01 X 17.3865 Y 9.5820 Z -1.0000
G03 X 17.4758 Y 9.6591 Z -1.0000 I -0.2042 J 0.3271
G03 X 17.5456 Y 9.7688 Z -1.0000 I -0.3574 J 0.3045
G01 X 17.5456 Y 9.7689 Z -1.0000
G00 Z 5.0000

(End cutting path id: path446)


(Start cutting path id: path446)
(Change tool to Default tool)

G00 Z 5.0000
G00 X 17.9994 Y 9.3276

G01 Z -1.0000 F 100.0000(Penetrate)
G03 X 17.9889 Y 9.3641 Z -1.0000 I -0.0685 J 0.0000 F 3500.0000
G03 X 17.9559 Y 9.3968 Z -1.0000 I -0.0869 J -0.0546
G02 X 17.8425 Y 9.5898 Z -1.0000 I 0.1260 J 0.2038
G02 X 17.9319 Y 9.9267 Z -1.0000 I 0.5804 J 0.0263
G02 X 18.2283 Y 10.2852 Z -1.0000 I 1.5540 J -0.9830
G01 X 18.3036 Y 10.2751 Z -1.0000
G01 X 18.3319 Y 10.2728 Z -1.0000
G03 X 18.3919 Y 10.3755 Z -1.0000 I -0.2326 J 0.2047
G03 X 18.3338 Y 10.4476 Z -1.0000 I -0.0516 J 0.0180
G03 X 18.1201 Y 10.3426 Z -1.0000 I 0.0432 J -0.3580
G02 X 17.9979 Y 10.2734 Z -1.0000 I -0.1827 J 0.1799
G01 X 17.9650 Y 10.3050 Z -1.0000
G03 X 17.9751 Y 10.3913 Z -1.0000 I -0.5182 J 0.1044
G01 X 17.9680 Y 10.3929 Z -1.0000
G02 X 17.9266 Y 10.3516 Z -1.0000 I -0.0728 J 0.0317
G02 X 17.8223 Y 10.3301 Z -1.0000 I -0.1043 J 0.2421
G03 X 17.7143 Y 10.3115 Z -1.0000 I -0.0000 J -0.3243
G03 X 17.6708 Y 10.2765 Z -1.0000 I 0.0280 J -0.0792
G01 X 17.6855 Y 10.2123 Z -1.0000
G03 X 17.7591 Y 10.2204 Z -1.0000 I 0.0317 J 0.0499
G02 X 17.8681 Y 10.1805 Z -1.0000 I 0.0452 J -0.0452
G02 X 17.7895 Y 9.8550 Z -1.0000 I -0.5304 J -0.0442
G03 X 17.7106 Y 9.6460 Z -1.0000 I 0.4879 J -0.3037
G01 X 17.7456 Y 9.5920 Z -1.0000
G02 X 17.8325 Y 9.5526 Z -1.0000 I -0.0715 J -0.2735
G01 X 17.8486 Y 9.5222 Z -1.0000
G01 X 17.8328 Y 9.5024 Z -1.0000
G02 X 17.7784 Y 9.5064 Z -1.0000 I -0.0207 J 0.0918
G03 X 17.7160 Y 9.5099 Z -1.0000 I -0.0367 J -0.0957
G03 X 17.6750 Y 9.4797 Z -1.0000 I 0.0171 J -0.0662
G01 X 17.6708 Y 9.4422 Z -1.0000
G01 X 17.6934 Y 9.4260 Z -1.0000
G01 X 17.7268 Y 9.3608 Z -1.0000
G02 X 17.5688 Y 9.2538 Z -1.0000 I -0.2259 J 0.1635
G03 X 17.4642 Y 9.2097 Z -1.0000 I 0.0905 J -0.3606
G01 X 17.4469 Y 9.1787 Z -1.0000
G01 X 17.4647 Y 9.1573 Z -1.0000
G03 X 17.5473 Y 9.1604 Z -1.0000 I 0.0342 J 0.1880
G02 X 17.6269 Y 9.1597 Z -1.0000 I 0.0386 J -0.1474
G01 X 17.6478 Y 9.1323 Z -1.0000
G01 X 17.6694 Y 9.1158 Z -1.0000
G03 X 17.8235 Y 9.1816 Z -1.0000 I -0.1752 J 0.6240
G03 X 17.9837 Y 9.2942 Z -1.0000 I -0.6219 J 1.0541
G01 X 17.9993 Y 9.3276 Z -1.0000
G01 X 17.9994 Y 9.3276 Z -1.0000
G00 Z 5.0000

(End cutting path id: path446)


(Start cutting path id: path446)
(Change tool to Default tool)

G00 Z 5.0000
G00 X 18.3526 Y 9.2628

G01 Z -1.0000 F 100.0000(Penetrate)
G03 X 18.4212 Y 9.4011 Z -1.0000 I -31.5202 J 15.7227 F 3500.0000
G03 X 18.4391 Y 9.4380 Z -1.0000 I -2.1783 J 1.0747
G01 X 18.4314 Y 9.4518 Z -1.0000
G03 X 18.3786 Y 9.4452 Z -1.0000 I -0.0131 J -0.1101
G02 X 18.2402 Y 9.5942 Z -1.0000 I -0.0393 J 0.1023
G02 X 18.6532 Y 10.0293 Z -1.0000 I 0.8630 J -0.4057
G03 X 18.7614 Y 10.1946 Z -1.0000 I -0.0972 J 0.1817
G03 X 18.6833 Y 10.4067 Z -1.0000 I -0.2688 J 0.0214
G01 X 18.6296 Y 10.4057 Z -1.0000
G03 X 18.5284 Y 10.2399 Z -1.0000 I 0.3572 J -0.3316
G03 X 18.4442 Y 10.0032 Z -1.0000 I 23.4895 J -8.4993
G03 X 18.4236 Y 9.9409 Z -1.0000 I 1.6109 J -0.5646
G02 X 18.3553 Y 9.9047 Z -1.0000 I -0.0523 J 0.0161
G02 X 18.3007 Y 9.9785 Z -1.0000 I 0.0226 J 0.0739
G03 X 18.2506 Y 10.0424 Z -1.0000 I -0.0658 J 0.0000
G03 X 18.1835 Y 10.0073 Z -1.0000 I -0.0137 J -0.0556
G03 X 18.1814 Y 9.9423 Z -1.0000 I 0.0926 J -0.0355
G03 X 18.2232 Y 9.8799 Z -1.0000 I 0.1260 J 0.0392
G02 X 18.2954 Y 9.7009 Z -1.0000 I -0.1299 J -0.1565
G02 X 18.1980 Y 9.6535 Z -1.0000 I -0.0637 J 0.0071
G01 X 18.1621 Y 9.6572 Z -1.0000
G03 X 18.1252 Y 9.6274 Z -1.0000 I 0.0242 J -0.0676
G01 X 18.1226 Y 9.5859 Z -1.0000
G03 X 18.1606 Y 9.5503 Z -1.0000 I 0.0627 J 0.0288
G02 X 18.1983 Y 9.5062 Z -1.0000 I -0.0218 J -0.0567
G02 X 18.2088 Y 9.3246 Z -1.0000 I -0.5851 J -0.1248
G03 X 18.2645 Y 9.2306 Z -1.0000 I 0.0923 J -0.0088
G03 X 18.3526 Y 9.2629 Z -1.0000 I 0.0270 J 0.0628
G01 X 18.3526 Y 9.2628 Z -1.0000
G00 Z 5.0000

(End cutting path id: path446)


(Start cutting path id: path446)
(Change tool to Default tool)

G00 Z 5.0000
G00 X 18.3701 Y 9.0018

G01 Z -1.0000 F 100.0000(Penetrate)
G03 X 18.3695 Y 9.0429 Z -1.0000 I -0.0516 J 0.0198 F 3500.0000
G01 X 18.3503 Y 9.0490 Z -1.0000
G03 X 18.3125 Y 9.0117 Z -1.0000 I 0.0626 J -0.1012
G03 X 18.3007 Y 8.9711 Z -1.0000 I 0.0638 J -0.0406
G01 X 18.3255 Y 8.9549 Z -1.0000
G03 X 18.3701 Y 9.0018 Z -1.0000 I -0.0341 J 0.0770
G01 X 18.3701 Y 9.0018 Z -1.0000
G00 Z 5.0000

(End cutting path id: path446)


(Start cutting path id: path446)
(Change tool to Default tool)

G00 Z 5.0000
G00 X 18.2002 Y 8.7321

G01 Z -1.0000 F 100.0000(Penetrate)
G01 X 18.1904 Y 8.7618 Z -1.0000 F 3500.0000
G03 X 18.1522 Y 8.7969 Z -1.0000 I -0.1104 J -0.0818
G02 X 18.1272 Y 8.8344 Z -1.0000 I 0.0286 J 0.0462
G02 X 18.1344 Y 8.9054 Z -1.0000 I 0.1346 J 0.0221
G01 X 18.1211 Y 8.9171 Z -1.0000
G03 X 18.0294 Y 8.8489 Z -1.0000 I 0.1859 J -0.3457
G03 X 17.9402 Y 8.7116 Z -1.0000 I 0.2790 J -0.2790
G03 X 17.9511 Y 8.6453 Z -1.0000 I 0.0621 J -0.0239
G03 X 18.0139 Y 8.6137 Z -1.0000 I 0.0676 J 0.0561
G03 X 18.1041 Y 8.6369 Z -1.0000 I 0.0085 J 0.1541
G03 X 18.1883 Y 8.7035 Z -1.0000 I -0.2564 J 0.4106
G01 X 18.2002 Y 8.7321 Z -1.0000
G01 X 18.2002 Y 8.7321 Z -1.0000
G00 Z 5.0000

(End cutting path id: path446)


(Start cutting path id: path446)
(Change tool to Default tool)

G00 Z 5.0000
G00 X 18.5483 Y 8.5156

G01 Z -1.0000 F 100.0000(Penetrate)
G03 X 18.5381 Y 8.6164 Z -1.0000 I -0.0800 J 0.0428 F 3500.0000
G03 X 18.4179 Y 8.6729 Z -1.0000 I -0.1202 J -0.0997
G03 X 18.3308 Y 8.6428 Z -1.0000 I -0.0000 J -0.1409
G03 X 18.3007 Y 8.5808 Z -1.0000 I 0.0487 J -0.0620
G03 X 18.4006 Y 8.4512 Z -1.0000 I 0.1340 J 0.0000
G03 X 18.5483 Y 8.5156 Z -1.0000 I 0.0331 J 0.1257
G01 X 18.5483 Y 8.5156 Z -1.0000
G00 Z 5.0000

(End cutting path id: path446)


(Start cutting path id: path446)
(Change tool to Default tool)

G00 Z 5.0000
G00 X 18.8358 Y 8.0472

G01 Z -1.0000 F 100.0000(Penetrate)
G03 X 18.8148 Y 8.1288 Z -1.0000 I -0.0679 J 0.0260 F 3500.0000
G01 X 18.7507 Y 8.1189 Z -1.0000
G03 X 18.7190 Y 8.0042 Z -1.0000 I 0.1738 J -0.1099
G01 X 18.7542 Y 7.9697 Z -1.0000
G03 X 18.7949 Y 7.9860 Z -1.0000 I 0.0000 J 0.0590
G03 X 18.8358 Y 8.0472 Z -1.0000 I -0.1152 J 0.1212
G01 X 18.8358 Y 8.0472 Z -1.0000
G00 Z 5.0000

(End cutting path id: path446)


(Start cutting path id: path446)
(Change tool to Default tool)

G00 Z 5.0000
G00 X 18.0237 Y 8.2635

G01 Z -1.0000 F 100.0000(Penetrate)
G03 X 17.9509 Y 8.2626 Z -1.0000 I -0.0360 J -0.0360 F 3500.0000
G03 X 17.8989 Y 8.1329 Z -1.0000 I 0.1356 J -0.1297
G01 X 17.9201 Y 8.1158 Z -1.0000
G03 X 17.9701 Y 8.1484 Z -1.0000 I -0.0178 J 0.0821
G03 X 18.0270 Y 8.2447 Z -1.0000 I -0.4620 J 0.3378
G01 X 18.0237 Y 8.2635 Z -1.0000
G01 X 18.0237 Y 8.2635 Z -1.0000
G00 Z 5.0000

(End cutting path id: path446)


(Start cutting path id: path446)
(Change tool to Default tool)

G00 Z 5.0000
G00 X 17.6640 Y 8.2509

G01 Z -1.0000 F 100.0000(Penetrate)
G03 X 17.6259 Y 8.2880 Z -1.0000 I -0.0593 J -0.0227 F 3500.0000
G01 X 17.5852 Y 8.2788 Z -1.0000
G03 X 17.5668 Y 8.1703 Z -1.0000 I 0.0672 J -0.0672
G03 X 17.6491 Y 8.1463 Z -1.0000 I 0.0519 J 0.0250
G01 X 17.6719 Y 8.1812 Z -1.0000
G03 X 17.6640 Y 8.2509 Z -1.0000 I -0.1382 J 0.0198
G01 X 17.6640 Y 8.2509 Z -1.0000
G00 Z 5.0000

(End cutting path id: path446)


(Start cutting path id: path446)
(Change tool to Default tool)

G00 Z 5.0000
G00 X 17.6729 Y 8.4218

G01 Z -1.0000 F 100.0000(Penetrate)
G01 X 17.6753 Y 8.4560 Z -1.0000 F 3500.0000
G01 X 17.6507 Y 8.4720 Z -1.0000
G03 X 17.6127 Y 8.4569 Z -1.0000 I 0.0000 J -0.0554
G01 X 17.5975 Y 8.4218 Z -1.0000
G03 X 17.6063 Y 8.3803 Z -1.0000 I 0.1027 J 0.0000
G01 X 17.6197 Y 8.3716 Z -1.0000
G01 X 17.6378 Y 8.3788 Z -1.0000
G03 X 17.6729 Y 8.4218 Z -1.0000 I -0.1466 J 0.1553
G01 X 17.6729 Y 8.4218 Z -1.0000
G00 Z 5.0000

(End cutting path id: path446)


(Start cutting path id: path446)
(Change tool to Default tool)

G00 Z 5.0000
G00 X 17.4081 Y 8.1706

G01 Z -1.0000 F 100.0000(Penetrate)
G03 X 17.4065 Y 8.1951 Z -1.0000 I -0.0525 J 0.0087 F 3500.0000
G03 X 17.3639 Y 8.3135 Z -1.0000 I -1.3319 J -0.4111
G01 X 17.3381 Y 8.3128 Z -1.0000
G03 X 17.3120 Y 8.1629 Z -1.0000 I 0.4533 J -0.1562
G03 X 17.3326 Y 8.0207 Z -1.0000 I 0.4610 J -0.0060
G01 X 17.3562 Y 8.0199 Z -1.0000
G03 X 17.4019 Y 8.1460 Z -1.0000 I -4.0221 J 1.5271
G03 X 17.4081 Y 8.1706 Z -1.0000 I -0.1458 J 0.0502
G01 X 17.4081 Y 8.1706 Z -1.0000
G00 Z 5.0000

(End cutting path id: path446)


(Start cutting path id: path446)
(Change tool to Default tool)

G00 Z 5.0000
G00 X 17.5466 Y 7.7592

G01 Z -1.0000 F 100.0000(Penetrate)
G01 X 17.5293 Y 7.7930 Z -1.0000 F 3500.0000
G01 X 17.4971 Y 7.7939 Z -1.0000
G03 X 17.4644 Y 7.7532 Z -1.0000 I 0.0412 J -0.0666
G03 X 17.4477 Y 7.6529 Z -1.0000 I 0.2803 J -0.0983
G01 X 17.4688 Y 7.6126 Z -1.0000
G01 X 17.4971 Y 7.6182 Z -1.0000
G03 X 17.5355 Y 7.6966 Z -1.0000 I -0.3105 J 0.2007
G03 X 17.5466 Y 7.7592 Z -1.0000 I -0.1853 J 0.0649
G01 X 17.5466 Y 7.7592 Z -1.0000
G00 Z 5.0000

(End cutting path id: path446)


(Start cutting path id: path446)
(Change tool to Default tool)

G00 Z 5.0000
G00 X 17.9332 Y 7.3764

G01 Z -1.0000 F 100.0000(Penetrate)
G01 X 17.9176 Y 7.3796 Z -1.0000 F 3500.0000
G03 X 17.9029 Y 7.3461 Z -1.0000 I 0.0356 J -0.0356
G03 X 17.9136 Y 7.2834 Z -1.0000 I 0.1516 J -0.0063
G01 X 17.9292 Y 7.2802 Z -1.0000
G03 X 17.9440 Y 7.3137 Z -1.0000 I -0.0356 J 0.0356
G03 X 17.9332 Y 7.3764 Z -1.0000 I -0.1521 J 0.0063
G01 X 17.9332 Y 7.3764 Z -1.0000
G00 Z 5.0000

(End cutting path id: path446)


(Start cutting path id: path446)
(Change tool to Default tool)

G00 Z 5.0000
G00 X 18.3509 Y 7.2650

G01 Z -1.0000 F 100.0000(Penetrate)
G01 X 18.3332 Y 7.2879 Z -1.0000 F 3500.0000
G03 X 18.2756 Y 7.2847 Z -1.0000 I -0.0239 J -0.0912
G03 X 18.2081 Y 7.2505 Z -1.0000 I 0.1314 J -0.3424
G01 X 18.2002 Y 7.2361 Z -1.0000
G01 X 18.2088 Y 7.2249 Z -1.0000
G03 X 18.2756 Y 7.2163 Z -1.0000 I 0.0667 J 0.2548
G03 X 18.3337 Y 7.2335 Z -1.0000 I -0.0000 J 0.1073
G01 X 18.3509 Y 7.2650 Z -1.0000
G01 X 18.3509 Y 7.2650 Z -1.0000
G00 Z 5.0000

(End cutting path id: path446)


(Start cutting path id: path446)
(Change tool to Default tool)

G00 Z 5.0000
G00 X 19.2779 Y 7.1627

G01 Z -1.0000 F 100.0000(Penetrate)
G03 X 19.2837 Y 7.2040 Z -1.0000 I -0.0440 J 0.0272 F 3500.0000
G03 X 19.2558 Y 7.2410 Z -1.0000 I -0.0616 J -0.0174
G01 X 19.2240 Y 7.2380 Z -1.0000
G03 X 19.2047 Y 7.1942 Z -1.0000 I 0.0401 J -0.0438
G01 X 19.2345 Y 7.1490 Z -1.0000
G01 X 19.2779 Y 7.1627 Z -1.0000
G01 X 19.2779 Y 7.1627 Z -1.0000
G00 Z 5.0000

(End cutting path id: path446)


(Start cutting path id: path446)
(Change tool to Default tool)

G00 Z 5.0000
G00 X 18.1912 Y 5.9732

G01 Z -1.0000 F 100.0000(Penetrate)
G03 X 18.1585 Y 6.0670 Z -1.0000 I -0.2538 J -0.0359 F 3500.0000
G01 X 18.1249 Y 6.0862 Z -1.0000
G01 X 18.0914 Y 6.0670 Z -1.0000
G03 X 18.0586 Y 5.9732 Z -1.0000 I 0.2214 J -0.1298
G03 X 18.0753 Y 5.8886 Z -1.0000 I 0.1296 J -0.0184
G03 X 18.1249 Y 5.8602 Z -1.0000 I 0.0496 J 0.0291
G03 X 18.1745 Y 5.8886 Z -1.0000 I 0.0000 J 0.0575
G03 X 18.1912 Y 5.9732 Z -1.0000 I -0.1129 J 0.0662
G01 X 18.1912 Y 5.9732 Z -1.0000
G00 Z 5.0000

(End cutting path id: path446)


(Start cutting path id: path446)
(Change tool to Default tool)

G00 Z 5.0000
G00 X 18.3469 Y 5.3580

G01 Z -1.0000 F 100.0000(Penetrate)
G01 X 18.3451 Y 5.3852 Z -1.0000 F 3500.0000
G01 X 18.3286 Y 5.3861 Z -1.0000
G03 X 18.2617 Y 5.2846 Z -1.0000 I 0.5116 J -0.4099
G03 X 18.2505 Y 5.2396 Z -1.0000 I 0.0845 J -0.0450
G01 X 18.2680 Y 5.2333 Z -1.0000
G03 X 18.3469 Y 5.3580 Z -1.0000 I -0.4800 J 0.3908
G01 X 18.3469 Y 5.3580 Z -1.0000
G00 Z 5.0000

(End cutting path id: path446)


(Start cutting path id: path446)
(Change tool to Default tool)

G00 Z 5.0000
G00 X 18.3158 Y 4.9733

G01 Z -1.0000 F 100.0000(Penetrate)
G03 X 18.3245 Y 5.0390 Z -1.0000 I -0.1334 J 0.0512 F 3500.0000
G03 X 18.3023 Y 5.1042 Z -1.0000 I -0.1527 J -0.0156
G01 X 18.2812 Y 5.1040 Z -1.0000
G03 X 18.2630 Y 5.0369 Z -1.0000 I 0.1149 J -0.0671
G03 X 18.2876 Y 4.9687 Z -1.0000 I 0.1068 J 0.0000
G01 X 18.3158 Y 4.9733 Z -1.0000
G01 X 18.3158 Y 4.9733 Z -1.0000
G00 Z 5.0000

(End cutting path id: path446)


(Start cutting path id: path446)
(Change tool to Default tool)

G00 Z 5.0000
G00 X 18.1925 Y 4.0244

G01 Z -1.0000 F 100.0000(Penetrate)
G03 X 18.1798 Y 4.0797 Z -1.0000 I -0.0687 J 0.0133 F 3500.0000
G01 X 18.1423 Y 4.0915 Z -1.0000
G03 X 18.0910 Y 4.0547 Z -1.0000 I 0.0337 J -0.1012
G03 X 18.0573 Y 3.9794 Z -1.0000 I 0.1449 J -0.1099
G03 X 18.0700 Y 3.9242 Z -1.0000 I 0.0687 J -0.0133
G01 X 18.1076 Y 3.9124 Z -1.0000
G03 X 18.1589 Y 3.9492 Z -1.0000 I -0.0337 J 0.1013
G03 X 18.1925 Y 4.0244 Z -1.0000 I -0.1448 J 0.1098
G01 X 18.1925 Y 4.0244 Z -1.0000
G00 Z 5.0000

(End cutting path id: path446)


(Start cutting path id: path446)
(Change tool to Default tool)

G00 Z 5.0000
G00 X 18.5518 Y 3.6002

G01 Z -1.0000 F 100.0000(Penetrate)
G03 X 18.5371 Y 3.6357 Z -1.0000 I -0.0502 J -0.0000 F 3500.0000
G03 X 18.5016 Y 3.6504 Z -1.0000 I -0.0355 J -0.0355
G03 X 18.4661 Y 3.6357 Z -1.0000 I 0.0000 J -0.0502
G03 X 18.4514 Y 3.6002 Z -1.0000 I 0.0355 J -0.0355
G03 X 18.4661 Y 3.5646 Z -1.0000 I 0.0502 J 0.0000
G03 X 18.5016 Y 3.5499 Z -1.0000 I 0.0355 J 0.0355
G03 X 18.5371 Y 3.5646 Z -1.0000 I -0.0000 J 0.0502
G03 X 18.5518 Y 3.6002 Z -1.0000 I -0.0355 J 0.0355
G01 X 18.5518 Y 3.6002 Z -1.0000
G00 Z 5.0000

(End cutting path id: path446)


(Start cutting path id: path446)
(Change tool to Default tool)

G00 Z 5.0000
G00 X 18.8763 Y 4.1941

G01 Z -1.0000 F 100.0000(Penetrate)
G02 X 18.8339 Y 4.2241 Z -1.0000 I 0.0143 J 0.0652 F 3500.0000
G01 X 18.8339 Y 4.2625 Z -1.0000
G03 X 18.8390 Y 4.3081 Z -1.0000 I -0.0458 J 0.0283
G03 X 18.8027 Y 4.3536 Z -1.0000 I -0.0816 J -0.0278
G01 X 18.7941 Y 4.3860 Z -1.0000
G02 X 18.8411 Y 4.4250 Z -1.0000 I 0.0717 J -0.0385
G03 X 18.9259 Y 4.4741 Z -1.0000 I -0.0687 J 0.2164
G03 X 18.9702 Y 4.5435 Z -1.0000 I -0.1082 J 0.1179
G02 X 19.0982 Y 4.8267 Z -1.0000 I 1.2743 J -0.4055
G02 X 19.2215 Y 4.9618 Z -1.0000 I 0.3970 J -0.2385
G01 X 19.2266 Y 4.9875 Z -1.0000
G03 X 19.1846 Y 5.0227 Z -1.0000 I -0.0724 J -0.0439
G03 X 19.1187 Y 5.0184 Z -1.0000 I -0.0283 J -0.0738
G03 X 19.0510 Y 4.9504 Z -1.0000 I 0.0793 J -0.1466
G02 X 18.9844 Y 4.8795 Z -1.0000 I -0.1654 J 0.0885
G02 X 18.9279 Y 4.8741 Z -1.0000 I -0.0336 J 0.0543
G03 X 18.8525 Y 4.8398 Z -1.0000 I -0.0208 J -0.0543
G03 X 18.8617 Y 4.6925 Z -1.0000 I 0.1730 J -0.0630
G02 X 18.8759 Y 4.6236 Z -1.0000 I -0.1164 J -0.0599
G01 X 18.8556 Y 4.6046 Z -1.0000
G03 X 18.6601 Y 4.4758 Z -1.0000 I 0.0000 J -0.2128
G03 X 18.6807 Y 4.1975 Z -1.0000 I 0.2778 J -0.1194
G03 X 18.7161 Y 4.1664 Z -1.0000 I 0.0683 J 0.0422
G03 X 18.7808 Y 4.1526 Z -1.0000 I 0.0647 J 0.1442
G02 X 18.8338 Y 4.1330 Z -1.0000 I 0.0000 J -0.0814
G02 X 18.8539 Y 4.0898 Z -1.0000 I -0.0376 J -0.0439
G01 X 18.8693 Y 4.0781 Z -1.0000
G03 X 18.9028 Y 4.1024 Z -1.0000 I -0.0140 J 0.0547
G03 X 18.9114 Y 4.1613 Z -1.0000 I -0.0608 J 0.0389
G01 X 18.8763 Y 4.1941 Z -1.0000
G01 X 18.8763 Y 4.1941 Z -1.0000
G00 Z 5.0000

(End cutting path id: path446)


(Start cutting path id: path446)
(Change tool to Default tool)

G00 Z 5.0000
G00 X 19.2781 Y 5.2426

G01 Z -1.0000 F 100.0000(Penetrate)
G02 X 19.2499 Y 5.3839 Z -1.0000 I 0.9274 J 0.2583 F 3500.0000
G02 X 19.2501 Y 5.4710 Z -1.0000 I 0.3497 J 0.0428
G03 X 19.2390 Y 5.5393 Z -1.0000 I -0.1214 J 0.0153
G01 X 19.2079 Y 5.5589 Z -1.0000
G01 X 19.1734 Y 5.5778 Z -1.0000
G02 X 19.1545 Y 5.6426 Z -1.0000 I 0.1016 J 0.0648
G01 X 19.1218 Y 5.6488 Z -1.0000
G03 X 19.0703 Y 5.4306 Z -1.0000 I 0.7159 J -0.2842
G03 X 19.0761 Y 5.2409 Z -1.0000 I 0.8163 J -0.0702
G01 X 19.0999 Y 5.2297 Z -1.0000
G01 X 19.1409 Y 5.2284 Z -1.0000
G02 X 19.2063 Y 5.1542 Z -1.0000 I -0.1252 J -0.1762
G01 X 19.2587 Y 5.1492 Z -1.0000
G03 X 19.2781 Y 5.2426 Z -1.0000 I -0.0807 J 0.0656
G01 X 19.2781 Y 5.2426 Z -1.0000
G00 Z 5.0000

(End cutting path id: path446)


(Start cutting path id: path446)
(Change tool to Default tool)

G00 Z 5.0000
G00 X 21.0128 Y 4.9833

G01 Z -1.0000 F 100.0000(Penetrate)
G03 X 20.9267 Y 5.3114 Z -1.0000 I -0.6686 J 0.0000 F 3500.0000
G03 X 20.7345 Y 5.4774 Z -1.0000 I -0.3265 J -0.1839
G03 X 20.6797 Y 5.4846 Z -1.0000 I -0.0426 J -0.1110
G01 X 20.6723 Y 5.4710 Z -1.0000
G02 X 20.6909 Y 5.4328 Z -1.0000 I -0.7156 J -0.3706
G02 X 20.8088 Y 5.1696 Z -1.0000 I -33.9687 J -15.3795
G03 X 20.9598 Y 4.9599 Z -1.0000 I 0.5758 J 0.2553
G01 X 21.0128 Y 4.9833 Z -1.0000
G01 X 21.0128 Y 4.9833 Z -1.0000
G00 Z 5.0000

(End cutting path id: path446)


(Start cutting path id: path446)
(Change tool to Default tool)

G00 Z 5.0000
G00 X 21.1132 Y 5.3526

G01 Z -1.0000 F 100.0000(Penetrate)
G01 X 21.0982 Y 5.3871 Z -1.0000 F 3500.0000
G03 X 21.0308 Y 5.4291 Z -1.0000 I -0.1423 J -0.1534
G01 X 21.0067 Y 5.4188 Z -1.0000
G01 X 21.0118 Y 5.3842 Z -1.0000
G03 X 21.0874 Y 5.3336 Z -1.0000 I 0.1233 J 0.1023
G01 X 21.1132 Y 5.3526 Z -1.0000
G01 X 21.1132 Y 5.3526 Z -1.0000
G00 Z 5.0000

(End cutting path id: path446)


(Start cutting path id: path446)
(Change tool to Default tool)

G00 Z 5.0000
G00 X 21.3141 Y 5.5810

G01 Z -1.0000 F 100.0000(Penetrate)
G01 X 21.3069 Y 5.5992 Z -1.0000 F 3500.0000
G03 X 21.2639 Y 5.6342 Z -1.0000 I -0.1553 J -0.1466
G01 X 21.2297 Y 5.6366 Z -1.0000
G01 X 21.2137 Y 5.6121 Z -1.0000
G03 X 21.2288 Y 5.5740 Z -1.0000 I 0.0554 J 0.0000
G01 X 21.2639 Y 5.5589 Z -1.0000
G03 X 21.3054 Y 5.5677 Z -1.0000 I -0.0000 J 0.1027
G01 X 21.3141 Y 5.5810 Z -1.0000
G01 X 21.3141 Y 5.5810 Z -1.0000
G00 Z 5.0000

(End cutting path id: path446)


(Start cutting path id: path446)
(Change tool to Default tool)

G00 Z 5.0000
G00 X 21.4424 Y 5.3624

G01 Z -1.0000 F 100.0000(Penetrate)
G03 X 21.4232 Y 5.4784 Z -1.0000 I -0.0761 J 0.0470 F 3500.0000
G03 X 21.3084 Y 5.4729 Z -1.0000 I -0.0544 J -0.0659
G03 X 21.2834 Y 5.3658 Z -1.0000 I 0.0737 J -0.0737
G03 X 21.3643 Y 5.3078 Z -1.0000 I 0.0809 J 0.0274
G03 X 21.4020 Y 5.3197 Z -1.0000 I 0.0000 J 0.0657
G03 X 21.4424 Y 5.3624 Z -1.0000 I -0.0834 J 0.1192
G01 X 21.4424 Y 5.3624 Z -1.0000
G00 Z 5.0000

(End cutting path id: path446)


(Start cutting path id: path446)
(Change tool to Default tool)

G00 Z 5.0000
G00 X 21.5384 Y 5.7974

G01 Z -1.0000 F 100.0000(Penetrate)
G02 X 21.5073 Y 5.8872 Z -1.0000 I 0.6168 J 0.2638 F 3500.0000
G02 X 21.4764 Y 6.0285 Z -1.0000 I 1.5001 J 0.4028
G03 X 21.4403 Y 6.1123 Z -1.0000 I -0.1914 J -0.0327
G01 X 21.4144 Y 6.1111 Z -1.0000
G03 X 21.3748 Y 5.8258 Z -1.0000 I 0.3035 J -0.1876
G03 X 21.5288 Y 5.7095 Z -1.0000 I 0.1540 J 0.0439
G01 X 21.5488 Y 5.7275 Z -1.0000
G03 X 21.5384 Y 5.7974 Z -1.0000 I -0.1386 J 0.0151
G01 X 21.5384 Y 5.7974 Z -1.0000
G00 Z 5.0000

(End cutting path id: path446)


(Start cutting path id: path446)
(Change tool to Default tool)

G00 Z 5.0000
G00 X 21.5070 Y 6.3909

G01 Z -1.0000 F 100.0000(Penetrate)
G01 X 21.5121 Y 6.4074 Z -1.0000 F 3500.0000
G03 X 21.4801 Y 6.4839 Z -1.0000 I -0.3494 J -0.1011
G03 X 21.4254 Y 6.5162 Z -1.0000 I -0.0551 J -0.0308
G03 X 21.3248 Y 6.4849 Z -1.0000 I -0.0010 J -0.1735
G03 X 21.2849 Y 6.3866 Z -1.0000 I 0.0560 J -0.0800
G03 X 21.3518 Y 6.3434 Z -1.0000 I 0.0540 J 0.0103
G03 X 21.4879 Y 6.3805 Z -1.0000 I -0.5399 J 2.2507
G03 X 21.5070 Y 6.3909 Z -1.0000 I -0.0161 J 0.0527
G01 X 21.5070 Y 6.3909 Z -1.0000
G00 Z 5.0000

(End cutting path id: path446)


(Start cutting path id: path446)
(Change tool to Default tool)

G00 Z 5.0000
G00 X 21.5150 Y 6.7140

G01 Z -1.0000 F 100.0000(Penetrate)
G01 X 21.4958 Y 6.7451 Z -1.0000 F 3500.0000
G03 X 21.4146 Y 6.7643 Z -1.0000 I -0.0813 J -0.1625
G03 X 21.3333 Y 6.7451 Z -1.0000 I 0.0000 J -0.1817
G01 X 21.3141 Y 6.7140 Z -1.0000
G01 X 21.3333 Y 6.6830 Z -1.0000
G03 X 21.4146 Y 6.6638 Z -1.0000 I 0.0813 J 0.1625
G03 X 21.4958 Y 6.6830 Z -1.0000 I -0.0000 J 0.1817
G01 X 21.5150 Y 6.7140 Z -1.0000
G01 X 21.5150 Y 6.7140 Z -1.0000
G00 Z 5.0000

(End cutting path id: path446)


(Start cutting path id: path446)
(Change tool to Default tool)

G00 Z 5.0000
G00 X 21.5150 Y 6.9622

G01 Z -1.0000 F 100.0000(Penetrate)
G03 X 21.4548 Y 7.0285 Z -1.0000 I -0.0666 J 0.0000 F 3500.0000
G03 X 21.3187 Y 6.9811 Z -1.0000 I -0.0165 J -0.1717
G03 X 21.2998 Y 6.9058 Z -1.0000 I 0.0507 J -0.0527
G03 X 21.3564 Y 6.8647 Z -1.0000 I 0.0565 J 0.0183
G03 X 21.4800 Y 6.8997 Z -1.0000 I 0.0000 J 0.2362
G03 X 21.5150 Y 6.9622 Z -1.0000 I -0.0384 J 0.0625
G01 X 21.5150 Y 6.9622 Z -1.0000
G00 Z 5.0000

(End cutting path id: path446)


(Start cutting path id: path446)
(Change tool to Default tool)

G00 Z 5.0000
G00 X 21.7159 Y 6.9652

G01 Z -1.0000 F 100.0000(Penetrate)
G01 X 21.7008 Y 7.0003 Z -1.0000 F 3500.0000
G03 X 21.6627 Y 7.0154 Z -1.0000 I -0.0381 J -0.0403
G01 X 21.6382 Y 6.9994 Z -1.0000
G01 X 21.6406 Y 6.9652 Z -1.0000
G03 X 21.6756 Y 6.9222 Z -1.0000 I 0.1817 J 0.1123
G01 X 21.6937 Y 6.9150 Z -1.0000
G01 X 21.7072 Y 6.9237 Z -1.0000
G03 X 21.7159 Y 6.9652 Z -1.0000 I -0.0940 J 0.0415
G01 X 21.7159 Y 6.9652 Z -1.0000
G00 Z 5.0000

(End cutting path id: path446)


(Start cutting path id: path446)
(Change tool to Default tool)

G00 Z 5.0000
G00 X 21.8442 Y 7.1692

G01 Z -1.0000 F 100.0000(Penetrate)
G03 X 21.8998 Y 7.2678 Z -1.0000 I -0.1898 J 0.1718 F 3500.0000
G01 X 21.8854 Y 7.3073 Z -1.0000
G02 X 21.8396 Y 7.3483 Z -1.0000 I 0.1141 J 0.1733
G02 X 21.7737 Y 7.4423 Z -1.0000 I 0.5583 J 0.4618
G01 X 21.7535 Y 7.4444 Z -1.0000
G01 X 21.7444 Y 7.4101 Z -1.0000
G02 X 21.7490 Y 7.2881 Z -1.0000 I -0.3258 J -0.0734
G02 X 21.7200 Y 7.2439 Z -1.0000 I -0.0620 J 0.0091
G03 X 21.6500 Y 7.1277 Z -1.0000 I 0.0779 J -0.1260
G03 X 21.7081 Y 7.0656 Z -1.0000 I 0.0581 J -0.0039
G03 X 21.7450 Y 7.0781 Z -1.0000 I 0.0000 J 0.0610
G03 X 21.8442 Y 7.1692 Z -1.0000 I -0.4408 J 0.5797
G01 X 21.8442 Y 7.1692 Z -1.0000
G00 Z 5.0000

(End cutting path id: path446)


(Start cutting path id: path446)
(Change tool to Default tool)

G00 Z 5.0000
G00 X 22.0675 Y 7.4487

G01 Z -1.0000 F 100.0000(Penetrate)
G01 X 22.0930 Y 7.4896 Z -1.0000 F 3500.0000
G02 X 22.1613 Y 7.4947 Z -1.0000 I 0.0405 J -0.0826
G03 X 22.2241 Y 7.5152 Z -1.0000 I 0.0172 J 0.0540
G03 X 22.2873 Y 7.6662 Z -1.0000 I -0.2805 J 0.2060
G02 X 22.3491 Y 7.8483 Z -1.0000 I 0.5650 J -0.0903
G02 X 22.4385 Y 7.9455 Z -1.0000 I 0.2373 J -0.1285
G03 X 22.5133 Y 8.0489 Z -1.0000 I -0.0980 J 0.1496
G03 X 22.5789 Y 8.4693 Z -1.0000 I -1.9237 J 0.5155
G02 X 22.6243 Y 8.9057 Z -1.0000 I 3.9238 J -0.1876
G02 X 22.6627 Y 8.9904 Z -1.0000 I 0.1743 J -0.0280
G03 X 22.6903 Y 9.0600 Z -1.0000 I -0.0930 J 0.0772
G01 X 22.6696 Y 9.1001 Z -1.0000
G01 X 22.6559 Y 9.1373 Z -1.0000
G02 X 22.7049 Y 9.2091 Z -1.0000 I 0.1468 J -0.0474
G01 X 22.7203 Y 9.2427 Z -1.0000
G01 X 22.7038 Y 9.2545 Z -1.0000
G02 X 22.6108 Y 9.2317 Z -1.0000 I -0.2164 J 0.6815
G02 X 22.5371 Y 9.2253 Z -1.0000 I -0.0736 J 0.4200
G01 X 22.4978 Y 9.1995 Z -1.0000
G03 X 22.4940 Y 9.1262 Z -1.0000 I 0.0959 J -0.0417
G02 X 22.4706 Y 8.7642 Z -1.0000 I -0.4758 J -0.1510
G02 X 22.2915 Y 8.6918 Z -1.0000 I -0.1284 J 0.0599
G03 X 22.2040 Y 8.6465 Z -1.0000 I -0.0236 J -0.0615
G03 X 22.2300 Y 8.4491 Z -1.0000 I 0.2605 J -0.0661
G02 X 22.2476 Y 8.3666 Z -1.0000 I -0.1249 J -0.0699
G02 X 22.2171 Y 8.3039 Z -1.0000 I -0.0975 J 0.0086
G02 X 22.1647 Y 8.2849 Z -1.0000 I -0.0482 J 0.0513
G01 X 22.1323 Y 8.3091 Z -1.0000
G01 X 22.0744 Y 8.3151 Z -1.0000
G03 X 22.0490 Y 8.1755 Z -1.0000 I 0.1633 J -0.1019
G02 X 22.0442 Y 8.0395 Z -1.0000 I -0.2899 J -0.0580
G02 X 21.9568 Y 7.8384 Z -1.0000 I -0.7403 J 0.2024
G03 X 21.8693 Y 7.5636 Z -1.0000 I 0.5053 J -0.3122
G03 X 21.9279 Y 7.3802 Z -1.0000 I 0.2641 J -0.0166
