%
(Header)
(Generated by gcodetools from Inkscape.)
(Using default header. To add your own header create file "header" in the output dir.)
M3
(Header end.)
G21 (All units in mm)

(Start cutting path id: path71381)
(Change tool to Default tool)

G00 Z5.000000
G00 X20.662184 Y2.485291

G01 Z-1.000000 F100.0(Penetrate)
G01 X20.679300 Y2.488620 Z-1.000000 F3500.000000
G01 X20.696484 Y2.485291 Z-1.000000
G01 X20.679334 Y2.478391 Z-1.000000
G01 X20.662184 Y2.485291 Z-1.000000
G01 X20.662184 Y2.485291 Z-1.000000
G00 Z5.000000

(End cutting path id: path71381)


(Start cutting path id: path71381)
(Change tool to Default tool)

G00 Z5.000000
G00 X20.679332 Y2.637174

G01 Z-1.000000 F100.0(Penetrate)
G02 X20.633203 Y2.646765 Z-1.000000 I0.031192 J0.265735 F3500.000000
G01 X20.618232 Y2.655604 Z-1.000000
G01 X20.620220 Y2.661196 Z-1.000000
G02 X20.673102 Y2.660504 Z-1.000000 I0.023087 J-0.256625
G02 X20.739008 Y2.648364 Z-1.000000 I-0.056667 J-0.492612
G01 X20.754092 Y2.639874 Z-1.000000
G01 X20.754855 Y2.632920 Z-1.000000
G01 X20.747192 Y2.629304 Z-1.000000
G02 X20.727307 Y2.631534 Z-1.000000 I0.450912 J4.110812
G02 X20.679282 Y2.637104 Z-1.000000 I1.998478 J17.440455
G01 X20.679332 Y2.637174 Z-1.000000
G00 Z5.000000

(End cutting path id: path71381)


(Start cutting path id: path71381)
(Change tool to Default tool)

G00 Z5.000000
G00 X20.610743 Y2.681960

G01 Z-1.000000 F100.0(Penetrate)
G01 X20.576443 Y2.690460 Z-1.000000 F3500.000000
G01 X20.622743 Y2.699960 Z-1.000000
G02 X20.767428 Y2.715880 Z-1.000000 I0.158574 J-0.775721
G01 X20.773093 Y2.702560 Z-1.000000
G02 X20.718243 Y2.675676 Z-1.000000 I-0.066710 J0.066710
G02 X20.610740 Y2.681970 Z-1.000000 I-0.036891 J0.291135
G01 X20.610743 Y2.681960 Z-1.000000
G00 Z5.000000

(End cutting path id: path71381)


(Start cutting path id: path71381)
(Change tool to Default tool)

G00 Z5.000000
G00 X20.759073 Y2.609011

G01 Z-1.000000 F100.0(Penetrate)
G01 X20.776185 Y2.611965 Z-1.000000 F3500.000000
G01 X20.785363 Y2.607911 Z-1.000000
G01 X20.784480 Y2.603627 Z-1.000000
G01 X20.767353 Y2.600711 Z-1.000000
G01 X20.758180 Y2.604732 Z-1.000000
G01 X20.759053 Y2.609011 Z-1.000000
G01 X20.759073 Y2.609011 Z-1.000000
G00 Z5.000000

(End cutting path id: path71381)


(Start cutting path id: path71381)
(Change tool to Default tool)

G00 Z5.000000
G00 X20.843956 Y2.503641

G01 Z-1.000000 F100.0(Penetrate)
G02 X20.890481 Y2.510908 Z-1.000000 I0.046525 J-0.145304 F3500.000000
G01 X20.891976 Y2.503641 Z-1.000000
G02 X20.863956 Y2.494805 Z-1.000000 I-0.057486 J0.133457
G02 X20.837096 Y2.492251 Z-1.000000 I-0.025060 J0.121012
G01 X20.809656 Y2.492655 Z-1.000000
G01 X20.843956 Y2.503641 Z-1.000000
G00 Z5.000000

(End cutting path id: path71381)


(Start cutting path id: path71381)
(Change tool to Default tool)

G00 Z5.000000
G00 X20.937415 Y2.609011

G01 Z-1.000000 F100.0(Penetrate)
G01 X20.954536 Y2.611967 Z-1.000000 F3500.000000
G01 X20.963705 Y2.607911 Z-1.000000
G01 X20.962822 Y2.603627 Z-1.000000
G01 X20.945695 Y2.600711 Z-1.000000
G01 X20.936522 Y2.604732 Z-1.000000
G01 X20.937395 Y2.609011 Z-1.000000
G01 X20.937415 Y2.609011 Z-1.000000
G00 Z5.000000

(End cutting path id: path71381)


(Start cutting path id: path71381)
(Change tool to Default tool)

G00 Z5.000000
G00 X21.097751 Y2.557421

G01 Z-1.000000 F100.0(Penetrate)
G01 X21.334398 Y2.567471 Z-1.000000 F3500.000000
G02 X21.634807 Y2.564626 Z-1.000000 I0.061433 J-9.375951
G01 X21.639638 Y2.559671 Z-1.000000
G01 X21.608529 Y2.528439 Z-1.000000
G02 X21.097751 Y2.557371 Z-1.000000 I-0.016755 J4.227344
G01 X21.097751 Y2.557421 Z-1.000000
G00 Z5.000000

(End cutting path id: path71381)


(Start cutting path id: path71381)
(Change tool to Default tool)

G00 Z5.000000
G00 X21.118330 Y2.613111

G01 Z-1.000000 F100.0(Penetrate)
G02 X21.455155 Y2.634424 Z-1.000000 I0.453712 J-4.498237 F3500.000000
G01 X21.460153 Y2.621911 Z-1.000000
G01 X21.453566 Y2.619170 Z-1.000000
G02 X21.234938 Y2.609741 Z-1.000000 I-0.535767 J9.883746
G01 X21.118330 Y2.613141 Z-1.000000
G01 X21.118330 Y2.613111 Z-1.000000
G00 Z5.000000

(End cutting path id: path71381)


(Start cutting path id: path71381)
(Change tool to Default tool)

G00 Z5.000000
G00 X21.180063 Y2.848384

G01 Z-1.000000 F100.0(Penetrate)
G02 X21.056879 Y2.862252 Z-1.000000 I0.354080 J3.699315 F3500.000000
G02 X20.981195 Y2.874124 Z-1.000000 I0.183453 J1.416631
G03 X20.910167 Y2.880647 Z-1.000000 I-0.071129 J-0.384551
G01 X20.901175 Y2.874160 Z-1.000000
G01 X20.892325 Y2.866025 Z-1.000000
G02 X20.832525 Y2.857860 Z-1.000000 I-0.071448 J0.300203
G01 X20.768505 Y2.855460 Z-1.000000
G01 X20.864535 Y2.846560 Z-1.000000
G03 X20.960701 Y2.840425 Z-1.000000 I0.154602 J1.666545
G03 X21.132049 Y2.837160 Z-1.000000 I0.188523 J5.396324
G01 X21.303532 Y2.836591 Z-1.000000
G01 X21.180063 Y2.848384 Z-1.000000
G00 Z5.000000

(End cutting path id: path71381)


(Start cutting path id: path71381)
(Change tool to Default tool)

G00 Z5.000000
G00 X21.361549 Y2.827474

G01 Z-1.000000 F100.0(Penetrate)
G01 X21.352323 Y2.831493 Z-1.000000 F3500.000000
G01 X21.335259 Y2.828574 Z-1.000000
G01 X21.334389 Y2.824304 Z-1.000000
G01 X21.343559 Y2.820274 Z-1.000000
G01 X21.360665 Y2.823187 Z-1.000000
G01 X21.361559 Y2.827474 Z-1.000000
G01 X21.361549 Y2.827474 Z-1.000000
G00 Z5.000000

(End cutting path id: path71381)


(Start cutting path id: path71381)
(Change tool to Default tool)

G00 Z5.000000
G00 X21.461291 Y2.887692

G01 Z-1.000000 F100.0(Penetrate)
G01 X21.426991 Y2.898672 Z-1.000000 F3500.000000
G01 X21.471581 Y2.900072 Z-1.000000
G02 X21.510319 Y2.895414 Z-1.000000 I0.003993 J-0.130202
G01 X21.516171 Y2.887722 Z-1.000000
G01 X21.508754 Y2.880305 Z-1.000000
G02 X21.461301 Y2.887722 Z-1.000000 I-0.000000 J0.155500
G01 X21.461291 Y2.887692 Z-1.000000
G00 Z5.000000

(End cutting path id: path71381)


(Start cutting path id: path71381)
(Change tool to Default tool)

G00 Z5.000000
G00 X21.561170 Y2.829174

G01 Z-1.000000 F100.0(Penetrate)
G03 X21.503263 Y2.831809 Z-1.000000 I-0.057980 J-0.636576 F3500.000000
G03 X21.437702 Y2.829250 Z-1.000000 I-0.000095 J-0.838684
G01 X21.495592 Y2.824050 Z-1.000000
G01 X21.561172 Y2.829250 Z-1.000000
G01 X21.561170 Y2.829174 Z-1.000000
G00 Z5.000000

(End cutting path id: path71381)


(Start cutting path id: path71381)
(Change tool to Default tool)

G00 Z5.000000
G00 X21.502451 Y2.654804

G01 Z-1.000000 F100.0(Penetrate)
G02 X21.441967 Y2.669404 Z-1.000000 I0.073111 J0.435460 F3500.000000
G02 X21.352933 Y2.702354 Z-1.000000 I0.305171 J0.961370
G01 X21.265153 Y2.739624 Z-1.000000
G01 X21.071705 Y2.751014 Z-1.000000
G03 X20.878205 Y2.761366 Z-1.000000 I-1.005516 J-16.981562
G03 X20.699914 Y2.768834 Z-1.000000 I-0.723126 J-15.131847
G01 X20.521571 Y2.775234 Z-1.000000
G01 X20.634093 Y2.758984 Z-1.000000
G02 X20.744852 Y2.739219 Z-1.000000 I-0.237187 J-1.649384
G01 X20.756418 Y2.732934 Z-1.000000
G01 X20.750831 Y2.719801 Z-1.000000
G02 X20.563851 Y2.736634 Z-1.000000 I0.025405 J1.329130
G03 X20.480052 Y2.746668 Z-1.000000 I-0.165081 J-1.023728
G03 X20.228184 Y2.762994 Z-1.000000 I-0.720106 J-9.158431
G01 X19.975953 Y2.775864 Z-1.000000
G01 X19.956043 Y2.795774 Z-1.000000
G01 X19.936133 Y2.815684 Z-1.000000
G01 X19.953743 Y2.843884 Z-1.000000
G02 X19.974658 Y2.868519 Z-1.000000 I0.094791 J-0.059283
G02 X20.006393 Y2.890204 Z-1.000000 I0.104009 J-0.118147
G01 X20.041433 Y2.908334 Z-1.000000
G01 X20.363822 Y2.908422 Z-1.000000
G03 X20.684769 Y2.913370 Z-1.000000 I-0.002869 J10.597200
G01 X20.702177 Y2.918792 Z-1.000000
G02 X20.745436 Y2.930085 Z-1.000000 I0.038853 J-0.060331
G02 X21.111489 Y2.893652 Z-1.000000 I-0.299162 J-4.862954
G03 X21.262748 Y2.876778 Z-1.000000 I0.400189 J2.900936
G03 X21.440736 Y2.865562 Z-1.000000 I0.341846 J4.006910
G02 X21.616878 Y2.853165 Z-1.000000 I-0.121925 J-2.989912
G01 X21.631189 Y2.846502 Z-1.000000
G01 X21.637610 Y2.833429 Z-1.000000
G01 X21.634989 Y2.812982 Z-1.000000
G01 X21.626689 Y2.791242 Z-1.000000
G01 X21.334830 Y2.799042 Z-1.000000
G02 X21.043218 Y2.810323 Z-1.000000 I0.328796 J12.274177
G02 X20.933223 Y2.819392 Z-1.000000 I0.087932 J1.738048
G03 X20.216714 Y2.873709 Z-1.000000 I-1.068122 J-9.336839
G01 X20.212994 Y2.846362 Z-1.000000
G03 X20.261007 Y2.834918 Z-1.000000 I31.069173 J130.242815
G02 X20.315883 Y2.821792 Z-1.000000 I-6.654348 J-27.941036
G03 X20.371416 Y2.813519 Z-1.000000 I0.075575 J0.316783
G03 X20.782318 Y2.793122 Z-1.000000 I1.056889 J17.142099
G02 X21.286457 Y2.750816 Z-1.000000 I-0.206684 J-5.487931
G02 X21.443560 Y2.706802 Z-1.000000 I-0.073903 J-0.566175
G03 X21.505669 Y2.685501 Z-1.000000 I0.154316 J0.348751
G03 X21.574753 Y2.674102 Z-1.000000 I0.105040 J0.421555
G02 X21.623108 Y2.656275 Z-1.000000 I-0.008045 J-0.096315
G01 X21.618473 Y2.642672 Z-1.000000
G02 X21.564474 Y2.646415 Z-1.000000 I0.025454 J0.758536
G02 X21.502550 Y2.654792 Z-1.000000 I0.110597 J1.050657
G01 X21.502451 Y2.654804 Z-1.000000
G00 Z5.000000

(End cutting path id: path71381)


(Start cutting path id: path71381)
(Change tool to Default tool)

G00 Z5.000000
G00 X21.608543 Y2.615011

G01 Z-1.000000 F100.0(Penetrate)
G01 X21.625491 Y2.626038 Z-1.000000 F3500.000000
G01 X21.633143 Y2.624411 Z-1.000000
G01 X21.633158 Y2.618395 Z-1.000000
G01 X21.616223 Y2.607361 Z-1.000000
G01 X21.591623 Y2.597961 Z-1.000000
G01 X21.608543 Y2.615011 Z-1.000000
G00 Z5.000000

(End cutting path id: path71381)


(Start cutting path id: path71381)
(Change tool to Default tool)

G00 Z5.000000
G00 X21.639890 Y3.030054

G01 Z-1.000000 F100.0(Penetrate)
G01 X21.625627 Y3.037061 Z-1.000000 F3500.000000
G03 X21.458867 Y3.053304 Z-1.000000 I-0.346666 J-2.694971
G02 X21.186528 Y3.084109 Z-1.000000 I0.195940 J2.951508
G02 X21.083119 Y3.113554 Z-1.000000 I0.072034 J0.449282
G03 X21.036056 Y3.128965 Z-1.000000 I-0.120611 J-0.288759
G03 X20.971374 Y3.140574 Z-1.000000 I-0.129521 J-0.535656
G01 X20.905684 Y3.148374 Z-1.000000
G01 X20.960554 Y3.129234 Z-1.000000
G01 X21.015424 Y3.110094 Z-1.000000
G01 X20.974264 Y3.107694 Z-1.000000
G01 X20.933104 Y3.105294 Z-1.000000
G01 X20.960544 Y3.093504 Z-1.000000
G01 X20.987984 Y3.081714 Z-1.000000
G01 X20.926254 Y3.079414 Z-1.000000
G01 X20.864524 Y3.077114 Z-1.000000
G01 X20.926254 Y3.059234 Z-1.000000
G01 X20.987984 Y3.041354 Z-1.000000
G01 X20.935724 Y3.040054 Z-1.000000
G03 X20.894980 Y3.032487 Z-1.000000 I0.003398 J-0.131768
G01 X20.892204 Y3.024584 Z-1.000000
G01 X20.904709 Y3.017360 Z-1.000000
G03 X21.276387 Y3.014294 Z-1.000000 I0.268882 J10.064032
G03 X21.637495 Y3.024036 Z-1.000000 I-0.110376 J10.789010
G01 X21.639876 Y3.030154 Z-1.000000
G01 X21.639890 Y3.030054 Z-1.000000
G00 Z5.000000

(End cutting path id: path71381)


(Start cutting path id: path71381)
(Change tool to Default tool)

G00 Z5.000000
G00 X21.678226 Y3.116633

G01 Z-1.000000 F100.0(Penetrate)
G01 X21.695338 Y3.119587 Z-1.000000 F3500.000000
G01 X21.704516 Y3.115533 Z-1.000000
G01 X21.703633 Y3.111249 Z-1.000000
G01 X21.686506 Y3.108333 Z-1.000000
G01 X21.677333 Y3.112355 Z-1.000000
G01 X21.678206 Y3.116633 Z-1.000000
G01 X21.678226 Y3.116633 Z-1.000000
G00 Z5.000000

(End cutting path id: path71381)


(Start cutting path id: path71381)
(Change tool to Default tool)

G00 Z5.000000
G00 X21.647006 Y3.153213

G01 Z-1.000000 F100.0(Penetrate)
G01 X21.621686 Y3.171723 Z-1.000000 F3500.000000
G01 X21.665126 Y3.165323 Z-1.000000
G02 X21.705989 Y3.155014 Z-1.000000 I-0.030101 J-0.205459
G01 X21.716066 Y3.146813 Z-1.000000
G01 X21.706156 Y3.130813 Z-1.000000
G02 X21.646996 Y3.153213 Z-1.000000 I0.010915 J0.118148
G01 X21.647006 Y3.153213 Z-1.000000
G00 Z5.000000

(End cutting path id: path71381)


(Start cutting path id: path71381)
(Change tool to Default tool)

G00 Z5.000000
G00 X21.591626 Y3.162113

G01 Z-1.000000 F100.0(Penetrate)
G02 X21.601205 Y3.173851 Z-1.000000 I0.051619 J-0.032348 F3500.000000
G01 X21.606156 Y3.175833 Z-1.000000
G01 X21.609791 Y3.173453 Z-1.000000
G01 X21.612156 Y3.162113 Z-1.000000
G01 X21.608062 Y3.152565 Z-1.000000
G01 X21.597626 Y3.148393 Z-1.000000
G01 X21.590936 Y3.152769 Z-1.000000
G01 X21.591626 Y3.162113 Z-1.000000
G01 X21.591626 Y3.162113 Z-1.000000
G00 Z5.000000

(End cutting path id: path71381)


(Start cutting path id: path71381)
(Change tool to Default tool)

G00 Z5.000000
G00 X21.581341 Y3.500453

G01 Z-1.000000 F100.0(Penetrate)
G01 X21.598466 Y3.503783 Z-1.000000 F3500.000000
G01 X21.615641 Y3.500453 Z-1.000000
G01 X21.598491 Y3.493553 Z-1.000000
G01 X21.581341 Y3.500453 Z-1.000000
G01 X21.581341 Y3.500453 Z-1.000000
G00 Z5.000000

(End cutting path id: path71381)


(Start cutting path id: path71381)
(Change tool to Default tool)

G00 Z5.000000
G00 X21.581334 Y3.527913

G01 Z-1.000000 F100.0(Penetrate)
G01 X21.598459 Y3.531243 Z-1.000000 F3500.000000
G01 X21.615634 Y3.527913 Z-1.000000
G01 X21.598484 Y3.521013 Z-1.000000
G01 X21.581334 Y3.527913 Z-1.000000
G01 X21.581334 Y3.527913 Z-1.000000
G00 Z5.000000

(End cutting path id: path71381)


(Start cutting path id: path71381)
(Change tool to Default tool)

G00 Z5.000000
G00 X21.180066 Y3.314163

G01 Z-1.000000 F100.0(Penetrate)
G02 X21.262686 Y3.322399 Z-1.000000 I0.124021 J-0.825653 F3500.000000
G02 X21.431575 Y3.326643 Z-1.000000 I0.171114 J-3.446482
G01 X21.600771 Y3.326747 Z-1.000000
G01 X21.595071 Y3.343897 Z-1.000000
G01 X21.583649 Y3.353562 Z-1.000000
G03 X21.429415 Y3.369827 Z-1.000000 I-0.238997 J-1.526925
G02 X21.270160 Y3.381985 Z-1.000000 I0.200501 J3.675425
G02 X21.245315 Y3.387867 Z-1.000000 I0.009299 J0.094690
G03 X21.116420 Y3.424628 Z-1.000000 I-0.271213 J-0.706605
G03 X20.991409 Y3.436507 Z-1.000000 I-0.125223 J-0.654078
G01 X20.974622 Y3.430628 Z-1.000000
G01 X20.970829 Y3.420097 Z-1.000000
G01 X20.965569 Y3.409344 Z-1.000000
G02 X20.905669 Y3.388397 Z-1.000000 I-0.119005 J0.244192
G01 X20.837079 Y3.373107 Z-1.000000
G01 X20.871379 Y3.363807 Z-1.000000
G03 X20.905959 Y3.356606 Z-1.000000 I0.078451 J0.290114
G03 X20.936059 Y3.354307 Z-1.000000 I0.031387 J0.212710
G02 X20.962152 Y3.347016 Z-1.000000 I-0.000317 J-0.051472
G01 X20.980589 Y3.327677 Z-1.000000
G01 X20.994739 Y3.301237 Z-1.000000
G01 X20.970779 Y3.294537 Z-1.000000
G01 X20.971859 Y3.288726 Z-1.000000
G03 X21.180039 Y3.314117 Z-1.000000 I-0.348869 J3.726429
G01 X21.180066 Y3.314163 Z-1.000000
G00 Z5.000000

(End cutting path id: path71381)


(Start cutting path id: path71381)
(Change tool to Default tool)

G00 Z5.000000
G00 X20.885235 Y3.266473

G01 Z-1.000000 F100.0(Penetrate)
G02 X20.808074 Y3.305698 Z-1.000000 I0.054453 J0.202624 F3500.000000
G02 X20.780899 Y3.350513 Z-1.000000 I0.048253 J0.059906
G01 X20.772199 Y3.394013 Z-1.000000
G01 X20.810719 Y3.403713 Z-1.000000
G01 X20.849239 Y3.413413 Z-1.000000
G01 X20.817599 Y3.425123 Z-1.000000
G01 X20.785959 Y3.436823 Z-1.000000
G01 X20.804489 Y3.459153 Z-1.000000
G01 X20.823019 Y3.481473 Z-1.000000
G01 X20.960392 Y3.472773 Z-1.000000
G02 X21.096911 Y3.458846 Z-1.000000 I-0.113828 J-1.791838
G02 X21.180078 Y3.441843 Z-1.000000 I-0.095865 J-0.680813
G03 X21.263364 Y3.425904 Z-1.000000 I0.148928 J0.552619
G03 X21.447592 Y3.410973 Z-1.000000 I0.311121 J2.694805
G01 X21.632794 Y3.402273 Z-1.000000
G01 X21.637094 Y3.350803 Z-1.000000
G01 X21.641394 Y3.299333 Z-1.000000
G01 X21.602834 Y3.284613 Z-1.000000
G02 X21.563254 Y3.276597 Z-1.000000 I-0.043635 J0.113732
G02 X21.427092 Y3.278713 Z-1.000000 I-0.046432 J1.394245
G03 X21.290163 Y3.280183 Z-1.000000 I-0.082236 J-1.281645
G03 X21.132141 Y3.266133 Z-1.000000 I0.073332 J-1.720391
G02 X20.974367 Y3.245600 Z-1.000000 I-2.060497 J15.216112
G01 X20.967517 Y3.245563 Z-1.000000
G02 X20.960700 Y3.246821 Z-1.000000 I0.005797 J0.050525
G02 X20.885327 Y3.266593 Z-1.000000 I1.636860 J6.393342
G01 X20.885235 Y3.266473 Z-1.000000
G00 Z5.000000

(End cutting path id: path71381)


(Start cutting path id: path71381)
(Change tool to Default tool)

G00 Z5.000000
G00 X20.864537 Y3.326743

G01 Z-1.000000 F100.0(Penetrate)
G01 X20.891977 Y3.338533 Z-1.000000 F3500.000000
G01 X20.854247 Y3.339497 Z-1.000000
G03 X20.822191 Y3.334651 Z-1.000000 I-0.002374 J-0.092752
G01 X20.816517 Y3.326747 Z-1.000000
G01 X20.824711 Y3.318553 Z-1.000000
G03 X20.864537 Y3.326747 Z-1.000000 I0.000000 J0.100882
G01 X20.864537 Y3.326743 Z-1.000000
G00 Z5.000000

(End cutting path id: path71381)


(Start cutting path id: path71381)
(Change tool to Default tool)

G00 Z5.000000
G00 X20.861100 Y3.143721

G01 Z-1.000000 F100.0(Penetrate)
G01 X20.843975 Y3.147051 Z-1.000000 F3500.000000
G01 X20.826800 Y3.143721 Z-1.000000
G01 X20.843950 Y3.136821 Z-1.000000
G01 X20.861100 Y3.143721 Z-1.000000
G01 X20.861100 Y3.143721 Z-1.000000
G00 Z5.000000

(End cutting path id: path71381)


(Start cutting path id: path71381)
(Change tool to Default tool)

G00 Z5.000000
G00 X20.922834 Y2.937934

G01 Z-1.000000 F100.0(Penetrate)
G01 X20.939959 Y2.941264 Z-1.000000 F3500.000000
G01 X20.957134 Y2.937934 Z-1.000000
G01 X20.939984 Y2.931034 Z-1.000000
G01 X20.922834 Y2.937934 Z-1.000000
G01 X20.922834 Y2.937934 Z-1.000000
G00 Z5.000000

(End cutting path id: path71381)


(Start cutting path id: path71381)
(Change tool to Default tool)

G00 Z5.000000
G00 X21.001716 Y2.977844

G01 Z-1.000000 F100.0(Penetrate)
G03 X20.987922 Y2.980776 Z-1.000000 I-0.035518 J-0.133194 F3500.000000
G03 X20.922566 Y2.990384 Z-1.000000 I-0.423645 J-2.654610
G02 X20.867738 Y3.004209 Z-1.000000 I0.032736 J0.245455
G01 X20.865076 Y3.012044 Z-1.000000
G01 X20.865192 Y3.020565 Z-1.000000
G01 X20.857676 Y3.024884 Z-1.000000
G01 X20.850835 Y3.029626 Z-1.000000
G01 X20.851876 Y3.040384 Z-1.000000
G01 X20.850896 Y3.047426 Z-1.000000
G01 X20.842376 Y3.049184 Z-1.000000
G01 X20.829445 Y3.038525 Z-1.000000
G01 X20.825226 Y3.019964 Z-1.000000
G01 X20.815644 Y3.006643 Z-1.000000
G01 X20.789026 Y3.011164 Z-1.000000
G01 X20.768446 Y3.024464 Z-1.000000
G01 X20.789026 Y3.025664 Z-1.000000
G01 X20.791478 Y3.030023 Z-1.000000
G01 X20.782126 Y3.038634 Z-1.000000
G01 X20.754686 Y3.050424 Z-1.000000
G01 X20.792416 Y3.051388 Z-1.000000
G03 X20.822830 Y3.059508 Z-1.000000 I-0.001726 J0.067485
G01 X20.830146 Y3.071788 Z-1.000000
G01 X20.834943 Y3.087974 Z-1.000000
G01 X20.847296 Y3.098138 Z-1.000000
G01 X20.819426 Y3.106138 Z-1.000000
G02 X20.769360 Y3.130824 Z-1.000000 I0.001536 J0.066227
G01 X20.774656 Y3.161708 Z-1.000000
G02 X20.792968 Y3.168594 Z-1.000000 I0.026760 J-0.043370
G02 X20.891343 Y3.181298 Z-1.000000 I0.215724 J-1.283266
G01 X20.990933 Y3.190298 Z-1.000000
G01 X21.085453 Y3.156898 Z-1.000000
G03 X21.291352 Y3.103701 Z-1.000000 I0.408613 J1.156479
G03 X21.543345 Y3.080178 Z-1.000000 I0.286927 J1.712209
G02 X21.642785 Y3.069863 Z-1.000000 I-0.012526 J-0.605236
G02 X21.670242 Y3.056228 Z-1.000000 I-0.010444 J-0.055493
G02 X21.691174 Y3.015779 Z-1.000000 I-0.043652 J-0.048230
G01 X21.678342 Y2.989108 Z-1.000000
G02 X21.449184 Y2.921874 Z-1.000000 I-0.236393 J0.381570
G02 X21.001653 Y2.977838 Z-1.000000 I-0.025953 J1.609837
G01 X21.001716 Y2.977844 Z-1.000000
G00 Z5.000000

(End cutting path id: path71381)


(Start cutting path id: path71381)
(Change tool to Default tool)

G00 Z5.000000
G00 X20.634746 Y2.870364

G01 Z-1.000000 F100.0(Penetrate)
G03 X20.569580 Y2.872906 Z-1.000000 I-0.065166 J-0.834128 F3500.000000
G03 X20.504419 Y2.870364 Z-1.000000 I0.000000 J-0.836530
G01 X20.569579 Y2.865264 Z-1.000000
G01 X20.634739 Y2.870364 Z-1.000000
G01 X20.634746 Y2.870364 Z-1.000000
G00 Z5.000000

(End cutting path id: path71381)


(Start cutting path id: path71381)
(Change tool to Default tool)

G00 Z5.000000
G00 X20.401775 Y2.787844

G01 Z-1.000000 F100.0(Penetrate)
G03 X20.364257 Y2.790697 Z-1.000000 I-0.038162 J-0.253715 F3500.000000
G03 X20.319465 Y2.787984 Z-1.000000 I-0.000895 J-0.356334
G01 X20.356945 Y2.782284 Z-1.000000
G01 X20.401775 Y2.787884 Z-1.000000
G01 X20.401775 Y2.787844 Z-1.000000
G00 Z5.000000

(End cutting path id: path71381)


(Start cutting path id: path71381)
(Change tool to Default tool)

G00 Z5.000000
G00 X20.347114 Y2.884064

G01 Z-1.000000 F100.0(Penetrate)
G03 X20.282395 Y2.886609 Z-1.000000 I-0.064791 J-0.823535 F3500.000000
G03 X20.209928 Y2.884129 Z-1.000000 I-0.000092 J-1.057438
G01 X20.274628 Y2.879029 Z-1.000000
G01 X20.347108 Y2.884129 Z-1.000000
G01 X20.347114 Y2.884064 Z-1.000000
G00 Z5.000000

(End cutting path id: path71381)


(Start cutting path id: path71381)
(Change tool to Default tool)

G00 Z5.000000
G00 X20.236398 Y2.806864

G01 Z-1.000000 F100.0(Penetrate)
G03 X20.210623 Y2.814020 Z-1.000000 I-0.026432 J-0.045210 F3500.000000
G03 X20.140368 Y2.808064 Z-1.000000 I-0.004563 J-0.363532
G01 X20.068848 Y2.795014 Z-1.000000
G01 X20.164878 Y2.793814 Z-1.000000
G01 X20.260908 Y2.792614 Z-1.000000
G01 X20.236398 Y2.806864 Z-1.000000
G00 Z5.000000

(End cutting path id: path71381)


(Start cutting path id: path71381)
(Change tool to Default tool)

G00 Z5.000000
G00 X20.144304 Y2.715430

G01 Z-1.000000 F100.0(Penetrate)
G01 X20.142345 Y2.720373 Z-1.000000 F3500.000000
G03 X20.130584 Y2.729960 Z-1.000000 I-0.041969 J-0.039477
G01 X20.121208 Y2.730632 Z-1.000000
G01 X20.116864 Y2.723960 Z-1.000000
G01 X20.121013 Y2.713547 Z-1.000000
G01 X20.130584 Y2.709430 Z-1.000000
G01 X20.141919 Y2.711790 Z-1.000000
G01 X20.144304 Y2.715430 Z-1.000000
G01 X20.144304 Y2.715430 Z-1.000000
G00 Z5.000000

(End cutting path id: path71381)


(Start cutting path id: path71381)
(Change tool to Default tool)

G00 Z5.000000
G00 X20.096024 Y2.709830

G01 Z-1.000000 F100.0(Penetrate)
G01 X20.093026 Y2.724704 Z-1.000000 F3500.000000
G01 X20.100724 Y2.739850 Z-1.000000
G01 X20.140819 Y2.748567 Z-1.000000
G01 X20.154644 Y2.719680 Z-1.000000
G01 X20.126888 Y2.695893 Z-1.000000
G01 X20.096064 Y2.709880 Z-1.000000
G01 X20.096024 Y2.709830 Z-1.000000
G00 Z5.000000

(End cutting path id: path71381)


(Start cutting path id: path71381)
(Change tool to Default tool)

G00 Z5.000000
G00 X20.051964 Y2.814464

G01 Z-1.000000 F100.0(Penetrate)
G01 X20.034838 Y2.817927 Z-1.000000 F3500.000000
G03 X20.010804 Y2.814973 Z-1.000000 I-0.001015 J-0.090981
G01 X20.027694 Y2.808173 Z-1.000000
G01 X20.051964 Y2.814473 Z-1.000000
G01 X20.051964 Y2.814464 Z-1.000000
G00 Z5.000000

(End cutting path id: path71381)


(Start cutting path id: path71381)
(Change tool to Default tool)

G00 Z5.000000
G00 X20.096289 Y2.846584

G01 Z-1.000000 F100.0(Penetrate)
G01 X20.027699 Y2.855984 Z-1.000000 F3500.000000
G01 X20.068859 Y2.859184 Z-1.000000
G01 X20.092279 Y2.869534 Z-1.000000
G03 X20.027707 Y2.873236 Z-1.000000 I-0.037793 J-0.094213
G01 X20.007129 Y2.846274 Z-1.000000
G01 X20.013309 Y2.839147 Z-1.000000
G03 X20.086009 Y2.834974 Z-1.000000 I0.060931 J0.426149
G01 X20.164889 Y2.837174 Z-1.000000
G01 X20.096289 Y2.846584 Z-1.000000
G00 Z5.000000

(End cutting path id: path71381)


(Start cutting path id: path71381)
(Change tool to Default tool)

G00 Z5.000000
G00 X19.369297 Y2.626984

G01 Z-1.000000 F100.0(Penetrate)
G01 X19.370985 Y2.632220 Z-1.000000 F3500.000000
G01 X19.382207 Y2.632384 Z-1.000000
G01 X19.395018 Y2.620211 Z-1.000000
G01 X19.390607 Y2.613434 Z-1.000000
G01 X19.379503 Y2.616669 Z-1.000000
G01 X19.369317 Y2.626994 Z-1.000000
G01 X19.369297 Y2.626984 Z-1.000000
G00 Z5.000000

(End cutting path id: path71381)


(Start cutting path id: path71381)
(Change tool to Default tool)

G00 Z5.000000
G00 X19.187735 Y3.286583

G01 Z-1.000000 F100.0(Penetrate)
G03 X19.235628 Y3.330275 Z-1.000000 I-0.409732 J0.497229 F3500.000000
G01 X19.238875 Y3.338163 Z-1.000000
G01 X19.236112 Y3.346528 Z-1.000000
G03 X19.204025 Y3.385183 Z-1.000000 I-0.368971 J-0.273631
G01 X19.169175 Y3.422773 Z-1.000000
G01 X19.115665 Y3.422773 Z-1.000000
G03 X19.065171 Y3.417455 Z-1.000000 I0.000000 J-0.242373
G01 X19.053985 Y3.409563 Z-1.000000
G01 X19.033817 Y3.397861 Z-1.000000
G02 X18.648972 Y3.396453 Z-1.000000 I-0.216968 J6.707329
G03 X18.496874 Y3.395175 Z-1.000000 I-0.057052 J-2.261145
G03 X18.423755 Y3.387053 Z-1.000000 I0.022553 J-0.536239
G03 X18.385820 Y3.359867 Z-1.000000 I0.009779 J-0.053706
G01 X18.397465 Y3.339753 Z-1.000000
G02 X18.449986 Y3.337696 Z-1.000000 I-0.014362 J-1.038354
G02 X18.635255 Y3.324343 Z-1.000000 I-0.797541 J-12.357382
G03 X18.820548 Y3.312762 Z-1.000000 I0.434612 J5.465429
G03 X18.914209 Y3.311603 Z-1.000000 I0.064318 J1.412924
G01 X19.007959 Y3.313503 Z-1.000000
G01 X19.049019 Y3.278953 Z-1.000000
G03 X19.113261 Y3.257493 Z-1.000000 I0.059206 J0.070350
G03 X19.187735 Y3.286553 Z-1.000000 I-0.007018 J0.127943
G01 X19.187735 Y3.286583 Z-1.000000
G00 Z5.000000

(End cutting path id: path71381)


(Start cutting path id: path71381)
(Change tool to Default tool)

G00 Z5.000000
G00 X19.007798 Y3.223953

G01 Z-1.000000 F100.0(Penetrate)
G03 X18.946996 Y3.249247 Z-1.000000 I-0.130945 J-0.229039 F3500.000000
G03 X18.914728 Y3.249623 Z-1.000000 I-0.016847 J-0.061087
G02 X18.880991 Y3.246287 Z-1.000000 I-0.028190 J0.112822
G02 X18.775402 Y3.256223 Z-1.000000 I0.054879 J1.149178
G03 X18.669254 Y3.268035 Z-1.000000 I-0.244824 J-1.717309
G03 X18.511785 Y3.277403 Z-1.000000 I-0.306032 J-3.815854
G01 X18.354020 Y3.283503 Z-1.000000
G01 X18.300070 Y3.310273 Z-1.000000
G01 X18.246120 Y3.337043 Z-1.000000
G01 X18.285290 Y3.373343 Z-1.000000
G02 X18.326838 Y3.404903 Z-1.000000 I0.181726 J-0.196111
G02 X18.352960 Y3.414993 Z-1.000000 I0.040281 J-0.065422
G03 X18.381436 Y3.420443 Z-1.000000 I-0.422752 J2.285777
G03 X18.457774 Y3.435653 Z-1.000000 I-5.771866 J29.168717
G02 X18.534024 Y3.443371 Z-1.000000 I0.077807 J-0.388187
G02 X18.602767 Y3.436221 Z-1.000000 I0.001266 J-0.321877
G03 X18.670899 Y3.428684 Z-1.000000 I0.071239 J0.332260
G03 X18.707688 Y3.435267 Z-1.000000 I0.000923 J0.100929
G02 X18.744903 Y3.442980 Z-1.000000 I0.042515 J-0.111489
G02 X18.878224 Y3.442867 Z-1.000000 I0.065410 J-1.471180
G03 X19.011438 Y3.444168 Z-1.000000 I0.054935 J1.196018
G03 X19.065189 Y3.455097 Z-1.000000 I-0.013306 J0.203082
G01 X19.117849 Y3.473477 Z-1.000000
G01 X19.167899 Y3.456267 Z-1.000000
G02 X19.266109 Y3.393273 Z-1.000000 I-0.079996 J-0.232770
G02 X19.293756 Y3.324172 Z-1.000000 I-0.072532 J-0.069101
G02 X19.248026 Y3.234772 Z-1.000000 I-0.110252 J-0.000000
G02 X19.107308 Y3.189617 Z-1.000000 I-0.139731 J0.193610
G02 X19.069086 Y3.196091 Z-1.000000 I0.000493 J0.118984
G02 X19.007808 Y3.223857 Z-1.000000 I0.116572 J0.338766
G01 X19.007798 Y3.223953 Z-1.000000
G00 Z5.000000

(End cutting path id: path71381)


(Start cutting path id: path71381)
(Change tool to Default tool)

G00 Z5.000000
G00 X18.566655 Y2.860252

G01 Z-1.000000 F100.0(Penetrate)
G01 X18.600955 Y2.871232 Z-1.000000 F3500.000000
G01 X18.552945 Y2.872732 Z-1.000000
G02 X18.414499 Y2.889566 Z-1.000000 I0.024356 J0.778020
G01 X18.402040 Y2.904972 Z-1.000000
G01 X18.408033 Y2.911404 Z-1.000000
G02 X18.453480 Y2.908572 Z-1.000000 I0.012128 J-0.171435
G03 X18.505199 Y2.901849 Z-1.000000 I0.076588 J0.386907
G03 X18.576948 Y2.900672 Z-1.000000 I0.048474 J0.767244
G02 X18.643607 Y2.897289 Z-1.000000 I0.012492 J-0.412339
G01 X18.648968 Y2.891172 Z-1.000000
G01 X18.632436 Y2.862490 Z-1.000000
G02 X18.574198 Y2.847852 Z-1.000000 I-0.054688 J0.094408
G01 X18.532358 Y2.849252 Z-1.000000
G01 X18.566655 Y2.860252 Z-1.000000
G00 Z5.000000

(End cutting path id: path71381)


(Start cutting path id: path71381)
(Change tool to Default tool)

G00 Z5.000000
G00 X18.264844 Y2.915144

G01 Z-1.000000 F100.0(Penetrate)
G01 X18.230544 Y2.926124 Z-1.000000 F3500.000000
G01 X18.267464 Y2.927524 Z-1.000000
G02 X18.301557 Y2.923613 Z-1.000000 I0.004216 J-0.113814
G01 X18.312854 Y2.915174 Z-1.000000
G01 X18.309001 Y2.908277 Z-1.000000
G02 X18.264844 Y2.915174 Z-1.000000 I0.000000 J0.144804
G01 X18.264844 Y2.915144 Z-1.000000
G00 Z5.000000

(End cutting path id: path71381)


(Start cutting path id: path71381)
(Change tool to Default tool)

G00 Z5.000000
G00 X17.850015 Y2.842522

G01 Z-1.000000 F100.0(Penetrate)
G02 X17.880935 Y2.845419 Z-1.000000 I0.030243 J-0.156349 F3500.000000
G02 X17.904885 Y2.842245 Z-1.000000 I-0.000404 J-0.094999
G01 X17.873855 Y2.836245 Z-1.000000
G01 X17.850005 Y2.842445 Z-1.000000
G01 X17.850015 Y2.842522 Z-1.000000
G00 Z5.000000

(End cutting path id: path71381)


(Start cutting path id: path71381)
(Change tool to Default tool)

G00 Z5.000000
G00 X17.812129 Y2.873752

G01 Z-1.000000 F100.0(Penetrate)
G02 X17.834249 Y2.881425 Z-1.000000 I0.027254 J-0.042849 F3500.000000
G02 X17.928737 Y2.885622 Z-1.000000 I0.084096 J-0.827507
G01 X17.931488 Y2.873727 Z-1.000000
G02 X17.880727 Y2.861432 Z-1.000000 I-0.051728 J0.102630
G02 X17.813435 Y2.867142 Z-1.000000 I-0.003074 J0.363131
G01 X17.812137 Y2.873752 Z-1.000000
G01 X17.812129 Y2.873752 Z-1.000000
G00 Z5.000000

(End cutting path id: path71381)


(Start cutting path id: path71381)
(Change tool to Default tool)

G00 Z5.000000
G00 X17.743535 Y2.942534

G01 Z-1.000000 F100.0(Penetrate)
G01 X17.747544 Y2.952226 Z-1.000000 F3500.000000
G01 X17.757255 Y2.956254 Z-1.000000
G01 X17.766947 Y2.952245 Z-1.000000
G01 X17.770975 Y2.942534 Z-1.000000
G01 X17.766966 Y2.932842 Z-1.000000
G01 X17.757255 Y2.928814 Z-1.000000
G01 X17.747563 Y2.932823 Z-1.000000
G01 X17.743535 Y2.942534 Z-1.000000
G01 X17.743535 Y2.942534 Z-1.000000
G00 Z5.000000

(End cutting path id: path71381)


(Start cutting path id: path71381)
(Change tool to Default tool)

G00 Z5.000000
G00 X17.623497 Y2.953264

G01 Z-1.000000 F100.0(Penetrate)
G01 X17.620473 Y2.969331 Z-1.000000 F3500.000000
G02 X17.688847 Y2.991544 Z-1.000000 I0.084822 J-0.144757
G01 X17.785067 Y3.001044 Z-1.000000
G01 X17.781467 Y3.023264 Z-1.000000
G01 X17.787434 Y3.038217 Z-1.000000
G02 X17.816597 Y3.049924 Z-1.000000 I0.035917 J-0.047295
G01 X17.855347 Y3.054324 Z-1.000000
G01 X17.839127 Y3.024024 Z-1.000000
G01 X17.822907 Y2.993724 Z-1.000000
G01 X17.810877 Y3.012724 Z-1.000000
G01 X17.798847 Y3.031724 Z-1.000000
G01 X17.798637 Y3.007974 Z-1.000000
G01 X17.790503 Y2.990670 Z-1.000000
G02 X17.760697 Y2.975974 Z-1.000000 I-0.044574 J0.052829
G03 X17.723109 Y2.967196 Z-1.000000 I0.257861 J-1.189026
G03 X17.688677 Y2.958014 Z-1.000000 I0.282530 J-1.128640
G02 X17.654169 Y2.951938 Z-1.000000 I-0.047630 J0.169490
G02 X17.623517 Y2.953214 Z-1.000000 I-0.009862 J0.131947
G01 X17.623497 Y2.953264 Z-1.000000
G00 Z5.000000

(End cutting path id: path71381)


(Start cutting path id: path71381)
(Change tool to Default tool)

G00 Z5.000000
G00 X17.603776 Y2.938234

G01 Z-1.000000 F100.0(Penetrate)
G01 X17.620897 Y2.941190 Z-1.000000 F3500.000000
G01 X17.630066 Y2.937134 Z-1.000000
G01 X17.629183 Y2.932849 Z-1.000000
G01 X17.612066 Y2.929934 Z-1.000000
G01 X17.602893 Y2.933955 Z-1.000000
G01 X17.603766 Y2.938234 Z-1.000000
G01 X17.603776 Y2.938234 Z-1.000000
G00 Z5.000000

(End cutting path id: path71381)


(Start cutting path id: path71381)
(Change tool to Default tool)

G00 Z5.000000
G00 X17.503464 Y2.627031

G01 Z-1.000000 F100.0(Penetrate)
G01 X17.491992 Y2.635374 Z-1.000000 F3500.000000
G03 X17.448594 Y2.640751 Z-1.000000 I-0.043398 J-0.172444
G02 X17.405163 Y2.646115 Z-1.000000 I-0.000000 J0.178509
G01 X17.393724 Y2.654471 Z-1.000000
G01 X17.382282 Y2.662868 Z-1.000000
G03 X17.340784 Y2.668191 Z-1.000000 I-0.041498 J-0.159086
G02 X17.298272 Y2.672900 Z-1.000000 I-0.000000 J0.194244
G01 X17.283294 Y2.681121 Z-1.000000
G01 X17.268053 Y2.689157 Z-1.000000
G03 X17.194934 Y2.698271 Z-1.000000 I-0.103407 J-0.531759
G01 X17.119614 Y2.702471 Z-1.000000
G01 X17.114814 Y2.727501 Z-1.000000
G02 X17.130081 Y2.780461 Z-1.000000 I0.059874 J0.011420
G02 X17.187294 Y2.805361 Z-1.000000 I0.057213 J-0.053279
G03 X17.215079 Y2.809418 Z-1.000000 I0.000000 J0.097180
G01 X17.229754 Y2.818021 Z-1.000000
G01 X17.245151 Y2.825757 Z-1.000000
G02 X17.407290 Y2.846691 Z-1.000000 I0.413837 J-2.566863
G03 X17.570840 Y2.865532 Z-1.000000 I-0.449233 J4.618936
G01 X17.583938 Y2.870211 Z-1.000000
G01 X17.584453 Y2.876789 Z-1.000000
G03 X17.554548 Y2.895181 Z-1.000000 I-0.074228 J-0.087181
G02 X17.497460 Y2.990124 Z-1.000000 I0.036373 J0.086505
G02 X17.572688 Y3.096251 Z-1.000000 I0.128888 J-0.011636
G01 X17.589222 Y3.120119 Z-1.000000
G01 X17.575488 Y3.137081 Z-1.000000
G01 X17.544618 Y3.141481 Z-1.000000
G01 X17.540318 Y3.193591 Z-1.000000
G01 X17.536018 Y3.245711 Z-1.000000
G01 X17.501698 Y3.258761 Z-1.000000
G03 X17.466792 Y3.268685 Z-1.000000 I-0.074114 J-0.194344
G03 X17.433918 Y3.271811 Z-1.000000 I-0.032874 J-0.171267
G02 X17.319414 Y3.300047 Z-1.000000 I-0.000000 J0.246286
G01 X17.321007 Y3.331091 Z-1.000000
G01 X17.338827 Y3.338191 Z-1.000000
G01 X17.318247 Y3.340491 Z-1.000000
G01 X17.317366 Y3.360028 Z-1.000000
G02 X17.518206 Y3.380981 Z-1.000000 I0.209651 J-1.036542
G01 X17.587836 Y3.381562 Z-1.000000
G01 X17.621096 Y3.417632 Z-1.000000
G02 X17.657020 Y3.450100 Z-1.000000 I0.195622 J-0.180339
G02 X17.695506 Y3.473492 Z-1.000000 I0.138657 J-0.184768
G03 X17.736485 Y3.493646 Z-1.000000 I-1.086428 J2.260730
G03 X17.782196 Y3.517102 Z-1.000000 I-1.459835 J2.901234
G01 X17.827736 Y3.540922 Z-1.000000
G01 X17.792486 Y3.556982 Z-1.000000
G01 X17.757236 Y3.573042 Z-1.000000
G01 X17.757236 Y3.647192 Z-1.000000
G01 X17.757236 Y3.721342 Z-1.000000
G01 X17.788106 Y3.730142 Z-1.000000
G01 X17.818976 Y3.738942 Z-1.000000
G01 X17.777816 Y3.757552 Z-1.000000
G02 X17.739670 Y3.780397 Z-1.000000 I0.079644 J0.176261
G02 X17.690716 Y3.824422 Z-1.000000 I0.258425 J0.336585
G02 X17.688724 Y3.895834 Z-1.000000 I0.038665 J0.036812
G02 X17.825833 Y3.983191 Z-1.000000 I0.210546 J-0.179181
G01 X17.844558 Y3.993062 Z-1.000000
G01 X17.842983 Y3.997661 Z-1.000000
G01 X17.819221 Y4.005740 Z-1.000000
G01 X17.812113 Y4.019471 Z-1.000000
G01 X17.812113 Y4.040051 Z-1.000000
G01 X17.655816 Y4.040051 Z-1.000000
G01 X17.499519 Y4.040051 Z-1.000000
G01 X17.491719 Y4.060491 Z-1.000000
G01 X17.501206 Y4.077744 Z-1.000000
G02 X17.677319 Y4.097921 Z-1.000000 I0.206555 J-1.024211
G01 X17.809996 Y4.101821 Z-1.000000
G01 X17.842826 Y4.132691 Z-1.000000
G02 X17.877365 Y4.159261 Z-1.000000 I0.151219 J-0.160837
G01 X17.892406 Y4.163561 Z-1.000000
G01 X17.909156 Y4.163561 Z-1.000000
G01 X17.894526 Y4.190901 Z-1.000000
G01 X17.874454 Y4.210641 Z-1.000000
G03 X17.824126 Y4.227161 Z-1.000000 I-0.076795 J-0.149029
G01 X17.768366 Y4.236061 Z-1.000000
G01 X17.776166 Y4.275251 Z-1.000000
G01 X17.783966 Y4.314441 Z-1.000000
G01 X17.674560 Y4.314441 Z-1.000000
G01 X17.565154 Y4.314441 Z-1.000000
G01 X17.565154 Y4.341881 Z-1.000000
G01 X17.565154 Y4.369321 Z-1.000000
G01 X17.722918 Y4.369321 Z-1.000000
G01 X17.880683 Y4.369321 Z-1.000000
G01 X17.880683 Y4.402131 Z-1.000000
G01 X17.871445 Y4.427754 Z-1.000000
G01 X17.846383 Y4.443551 Z-1.000000
G01 X17.812083 Y4.452151 Z-1.000000
G01 X17.812083 Y4.493041 Z-1.000000
G01 X17.812083 Y4.533941 Z-1.000000
G01 X17.694955 Y4.533941 Z-1.000000
G01 X17.577827 Y4.533941 Z-1.000000
G01 X17.581727 Y4.571671 Z-1.000000
G01 X17.585627 Y4.609401 Z-1.000000
G01 X17.513607 Y4.613501 Z-1.000000
G02 X17.450279 Y4.625814 Z-1.000000 I0.013659 J0.239254
G01 X17.441587 Y4.637941 Z-1.000000
G01 X17.450972 Y4.653724 Z-1.000000
G02 X17.513607 Y4.677061 Z-1.000000 I0.113403 J-0.208644
G01 X17.527550 Y4.697583 Z-1.000000
G01 X17.506707 Y4.719361 Z-1.000000
G02 X17.463524 Y4.732100 Z-1.000000 I0.056110 J0.269769
G02 X17.430217 Y4.748881 Z-1.000000 I0.068636 J0.177671
G01 X17.398317 Y4.769111 Z-1.000000
G01 X17.407717 Y4.824571 Z-1.000000
G03 X17.409716 Y4.878844 Z-1.000000 I-0.207791 J0.034825
G03 X17.399517 Y4.912911 Z-1.000000 I-0.089805 J-0.008325
G01 X17.381917 Y4.945791 Z-1.000000
G01 X17.411767 Y4.973601 Z-1.000000
G03 X17.446212 Y5.041023 Z-1.000000 I-0.075615 J0.081141
G01 X17.424467 Y5.075499 Z-1.000000
G03 X17.406948 Y5.078660 Z-1.000000 I-0.019969 J-0.060551
G03 X17.112368 Y5.087509 Z-1.000000 I-0.674155 J-17.534104
G02 X16.817520 Y5.096446 Z-1.000000 I0.364442 J16.891686
G02 X16.543044 Y5.109789 Z-1.000000 I0.561853 J14.387629
G01 X16.268671 Y5.125769 Z-1.000000
G01 X16.118397 Y5.109589 Z-1.000000
G03 X15.968867 Y5.090302 Z-1.000000 I0.384217 J-3.568036
G03 X15.940055 Y5.082759 Z-1.000000 I0.020786 J-0.138200
G01 X15.911985 Y5.072109 Z-1.000000
G01 X15.973715 Y5.064209 Z-1.000000
G03 X16.172540 Y5.044945 Z-1.000000 I0.410953 J3.205849
G03 X16.595622 Y5.023289 Z-1.000000 I0.956377 J14.540424
G02 X16.712104 Y5.010793 Z-1.000000 I-0.029837 J-0.827258
G01 X16.728807 Y4.999429 Z-1.000000
G01 X16.733769 Y4.980800 Z-1.000000
G01 X16.727707 Y4.966849 Z-1.000000
G01 X16.719404 Y4.951755 Z-1.000000
G03 X16.714557 Y4.907949 Z-1.000000 I0.195526 J-0.043806
G01 X16.714557 Y4.862199 Z-1.000000
G01 X16.203537 Y4.868599 Z-1.000000
G02 X15.692700 Y4.878278 Z-1.000000 I0.489923 J39.342396
G02 X15.599916 Y4.883969 Z-1.000000 I0.033010 J1.297388
G01 X15.507316 Y4.892969 Z-1.000000
G01 X15.507316 Y4.958839 Z-1.000000
G01 X15.507316 Y5.024709 Z-1.000000
G01 X15.602606 Y5.030109 Z-1.000000
G03 X15.696600 Y5.038268 Z-1.000000 I-0.091700 J1.601999
G01 X15.703792 Y5.041949 Z-1.000000
G03 X15.720419 Y5.083789 Z-1.000000 I-0.046990 J0.042898
G03 X15.705292 Y5.130499 Z-1.000000 I-0.075787 J0.001260
G01 X15.684842 Y5.157719 Z-1.000000
G01 X15.469203 Y5.166519 Z-1.000000
G02 X15.253790 Y5.176019 Z-1.000000 I1.203322 J29.732595
G01 X15.250134 Y5.177029 Z-1.000000
G01 X15.243916 Y5.192115 Z-1.000000
G02 X15.269154 Y5.235719 Z-1.000000 I0.114406 J-0.037113
G01 X15.291594 Y5.260519 Z-1.000000
G01 X15.272584 Y5.266519 Z-1.000000
G03 X15.253247 Y5.271017 Z-1.000000 I-0.038807 J-0.123008
G03 X15.178114 Y5.280859 Z-1.000000 I-0.268740 J-1.759917
G02 X15.102889 Y5.290714 Z-1.000000 I0.210272 J1.897022
G02 X15.027209 Y5.303719 Z-1.000000 I0.286730 J1.895311
G03 X14.680812 Y5.340117 Z-1.000000 I-0.385382 J-2.001141
G03 X14.420559 Y5.315319 Z-1.000000 I-0.021958 J-1.147627
G03 X14.345968 Y5.294697 Z-1.000000 I0.135431 J-0.635068
G01 X14.341279 Y5.288139 Z-1.000000
G01 X14.346021 Y5.281669 Z-1.000000
G03 X14.429669 Y5.260219 Z-1.000000 I0.237009 J0.750432
G02 X14.500563 Y5.227180 Z-1.000000 I-0.032104 J-0.161469
G01 X14.499959 Y5.203849 Z-1.000000
G01 X14.492976 Y5.191678 Z-1.000000
G03 X14.487859 Y5.083191 Z-1.000000 I1.010466 J-0.102024
G01 X14.488577 Y4.971761 Z-1.000000
G01 X14.123409 Y4.978561 Z-1.000000
G02 X13.758369 Y4.987928 Z-1.000000 I0.464845 J25.232564
G02 X13.651922 Y4.993981 Z-1.000000 I0.073321 J2.228492
G03 X13.552054 Y4.995643 Z-1.000000 I-0.062989 J-0.783747
G01 X13.545602 Y4.988881 Z-1.000000
G01 X13.549618 Y4.978065 Z-1.000000
G01 X13.562752 Y4.969011 Z-1.000000
G01 X13.579902 Y4.962811 Z-1.000000
G01 X13.562632 Y4.933581 Z-1.000000
G01 X13.545372 Y4.904351 Z-1.000000
G01 X13.564922 Y4.904351 Z-1.000000
G01 X13.582715 Y4.885208 Z-1.000000
G02 X13.560322 Y4.841421 Z-1.000000 I-0.063027 J0.004613
G01 X13.525042 Y4.811811 Z-1.000000
G01 X13.195794 Y4.805411 Z-1.000000
G02 X12.866748 Y4.805682 Z-1.000000 I-0.157772 J8.207455
G02 X12.640189 Y4.817081 Z-1.000000 I0.080485 J3.856720
G03 X12.413695 Y4.831785 Z-1.000000 I-0.619346 J-7.788563
G03 X12.273697 Y4.835461 Z-1.000000 I-0.146421 J-2.908375
G01 X12.133564 Y4.835770 Z-1.000000
G01 X12.118884 Y4.808330 Z-1.000000
G02 X12.100728 Y4.786663 Z-1.000000 I-0.061226 J0.032865
G01 X12.084104 Y4.780890 Z-1.000000
G01 X12.071885 Y4.764012 Z-1.000000
G01 X12.098304 Y4.737670 Z-1.000000
G01 X12.125744 Y4.728770 Z-1.000000
G01 X12.094444 Y4.727370 Z-1.000000
G03 X12.068536 Y4.719020 Z-1.000000 I0.002243 J-0.051323
G01 X12.055714 Y4.702000 Z-1.000000
G02 X12.047135 Y4.678471 Z-1.000000 I-0.246896 J0.076687
G02 X12.035564 Y4.654170 Z-1.000000 I-0.267794 J0.112612
G03 X12.018852 Y4.585917 Z-1.000000 I0.125177 J-0.066822
G01 X12.036564 Y4.554520 Z-1.000000
G01 X12.044595 Y4.542874 Z-1.000000
G02 X12.050284 Y4.485120 Z-1.000000 I-0.290301 J-0.057754
G01 X12.050284 Y4.424190 Z-1.000000
G01 X12.019044 Y4.424190 Z-1.000000
G03 X11.989380 Y4.419208 Z-1.000000 I0.000000 J-0.090806
G03 X11.957314 Y4.402840 Z-1.000000 I0.042384 J-0.122625
G01 X11.926824 Y4.381480 Z-1.000000
G01 X11.926824 Y4.295070 Z-1.000000
G01 X11.926824 Y4.208660 Z-1.000000
G01 X11.971404 Y4.195720 Z-1.000000
G01 X12.015994 Y4.182780 Z-1.000000
G01 X12.016410 Y4.135430 Z-1.000000
G03 X12.021724 Y4.089280 Z-1.000000 I0.219830 J0.001933
G03 X12.035280 Y4.051400 Z-1.000000 I0.159789 J0.035816
G02 X12.045871 Y4.013707 Z-1.000000 I-0.091528 J-0.046052
G02 X12.042580 Y3.962230 Z-1.000000 I-0.177268 J-0.014510
G03 X12.035189 Y3.909480 Z-1.000000 I0.377831 J-0.079833
G03 X12.035180 Y3.857751 Z-1.000000 I0.368801 J-0.025929
G02 X12.032708 Y3.807758 Z-1.000000 I-0.203885 J-0.014976
G01 X12.022820 Y3.786291 Z-1.000000
G01 X12.013788 Y3.765095 Z-1.000000
G03 X12.015820 Y3.725081 Z-1.000000 I0.120819 J-0.013922
G01 X12.025020 Y3.683351 Z-1.000000
G01 X12.003350 Y3.675051 Z-1.000000
G01 X11.984846 Y3.648032 Z-1.000000
G03 X12.003601 Y3.599591 Z-1.000000 I0.072551 J0.000239
G01 X12.004767 Y3.568301 Z-1.000000
G02 X11.957111 Y3.539831 Z-1.000000 I-0.060397 J0.046979
G01 X11.905251 Y3.531031 Z-1.000000
G01 X11.905251 Y3.505441 Z-1.000000
G01 X11.933148 Y3.464323 Z-1.000000
G03 X12.078807 Y3.436421 Z-1.000000 I0.145659 J0.366243
G02 X12.125132 Y3.410627 Z-1.000000 I0.000000 J-0.054497
G02 X12.137617 Y3.341511 Z-1.000000 I-0.081294 J-0.050370
G01 X12.129117 Y3.299231 Z-1.000000
G01 X12.082817 Y3.299231 Z-1.000000
G03 X12.042365 Y3.293349 Z-1.000000 I0.000000 J-0.142037
G01 X12.036517 Y3.285511 Z-1.000000
G01 X12.042349 Y3.277689 Z-1.000000
G03 X12.082817 Y3.271791 Z-1.000000 I0.040468 J0.135877
G01 X12.129117 Y3.271791 Z-1.000000
G01 X12.137717 Y3.228921 Z-1.000000
G02 X12.124614 Y3.183750 Z-1.000000 I-0.049964 J-0.009993
G02 X12.073887 Y3.162041 Z-1.000000 I-0.050727 J0.048412
G03 X11.966445 Y3.136112 Z-1.000000 I0.000000 J-0.235564
G01 X11.940507 Y3.093671 Z-1.000000
G01 X11.966422 Y3.050764 Z-1.000000
G03 X12.071374 Y3.024851 Z-1.000000 I0.104952 J0.199583
G02 X12.182337 Y2.993459 Z-1.000000 I0.000000 J-0.211806
G02 X12.214670 Y2.936721 Z-1.000000 I-0.035588 J-0.057863
G01 X12.210397 Y2.934134 Z-1.000000
G02 X12.183140 Y2.953861 Z-1.000000 I0.063065 J0.115832
G03 X12.147704 Y2.976376 Z-1.000000 I-0.076872 J-0.081843
G03 X12.070237 Y2.998691 Z-1.000000 I-0.152800 J-0.384832
G02 X11.990382 Y3.017536 Z-1.000000 I0.156574 J0.842103
G02 X11.952631 Y3.032541 Z-1.000000 I0.056913 J0.198175
G01 X11.916181 Y3.051391 Z-1.000000
G01 X11.910381 Y3.100871 Z-1.000000
G01 X11.904581 Y3.150351 Z-1.000000
G01 X11.942421 Y3.169921 Z-1.000000
G02 X11.981703 Y3.183555 Z-1.000000 I0.066948 J-0.129478
G02 X12.043680 Y3.189491 Z-1.000000 I0.061977 J-0.320600
G01 X12.107100 Y3.189491 Z-1.000000
G01 X12.102500 Y3.213501 Z-1.000000
G01 X12.090812 Y3.230078 Z-1.000000
G03 X12.050050 Y3.244371 Z-1.000000 I-0.056592 J-0.096125
G01 X12.002190 Y3.251271 Z-1.000000
G01 X12.002190 Y3.285571 Z-1.000000
G01 X12.002190 Y3.319871 Z-1.000000
G01 X12.045610 Y3.324071 Z-1.000000
G01 X12.073410 Y3.368002 Z-1.000000
G03 X12.015040 Y3.409031 Z-1.000000 I-0.058370 J-0.021005
G02 X11.958917 Y3.414676 Z-1.000000 I-0.000000 J0.281827
G01 X11.947320 Y3.422751 Z-1.000000
G01 X11.936144 Y3.431618 Z-1.000000
G03 X11.907030 Y3.436471 Z-1.000000 I-0.029114 J-0.084898
G02 X11.877969 Y3.442355 Z-1.000000 I-0.000000 J0.074707
G02 X11.858140 Y3.457051 Z-1.000000 I0.020341 J0.048170
G01 X11.841060 Y3.477631 Z-1.000000
G01 X11.858060 Y3.477631 Z-1.000000
G01 X11.866843 Y3.483984 Z-1.000000
G01 X11.867560 Y3.506391 Z-1.000000
G02 X11.875711 Y3.553788 Z-1.000000 I0.056291 J0.014719
G01 X11.913220 Y3.573661 Z-1.000000
G01 X11.951620 Y3.573661 Z-1.000000
G01 X11.943620 Y3.604531 Z-1.000000
G03 X11.931690 Y3.632909 Z-1.000000 I-0.103540 J-0.026830
G03 X11.914040 Y3.653561 Z-1.000000 I-0.070904 J-0.042729
G01 X11.892410 Y3.671731 Z-1.000000
G01 X11.924360 Y3.664831 Z-1.000000
G01 X11.956310 Y3.657931 Z-1.000000
G01 X11.948810 Y3.677511 Z-1.000000
G01 X11.950206 Y3.690968 Z-1.000000
G01 X11.961440 Y3.697091 Z-1.000000
G01 X11.972653 Y3.708453 Z-1.000000
G01 X11.960898 Y3.738371 Z-1.000000
G01 X11.940208 Y3.761231 Z-1.000000
G01 X11.967758 Y3.792991 Z-1.000000
G03 X11.991502 Y3.826150 Z-1.000000 I-0.165941 J0.143904
G01 X11.995098 Y3.839801 Z-1.000000
G01 X11.991420 Y3.842575 Z-1.000000
G01 X11.983288 Y3.836601 Z-1.000000
G01 X11.971688 Y3.818301 Z-1.000000
G01 X11.963388 Y3.840031 Z-1.000000
G01 X11.964390 Y3.855340 Z-1.000000
G01 X11.975198 Y3.861761 Z-1.000000
G01 X11.987301 Y3.869807 Z-1.000000
G03 X11.995348 Y3.909781 Z-1.000000 I-0.095257 J0.039974
G01 X11.995348 Y3.957791 Z-1.000000
G01 X11.967908 Y3.957791 Z-1.000000
G01 X11.945693 Y3.952535 Z-1.000000
G01 X11.940468 Y3.944071 Z-1.000000
G01 X11.936373 Y3.934523 Z-1.000000
G01 X11.925938 Y3.930351 Z-1.000000
G01 X11.919211 Y3.934734 Z-1.000000
G01 X11.919838 Y3.944071 Z-1.000000
G01 X11.909503 Y3.963265 Z-1.000000
G03 X11.847348 Y3.946171 Z-1.000000 I-0.003217 J-0.109848
G01 X11.837256 Y3.932525 Z-1.000000
G01 X11.838248 Y3.912721 Z-1.000000
G01 X11.829796 Y3.867662 Z-1.000000
G02 X11.768898 Y3.836351 Z-1.000000 I-0.072206 J0.065559
G03 X11.716012 Y3.821266 Z-1.000000 I0.019928 J-0.170115
G01 X11.707168 Y3.807341 Z-1.000000
G01 X11.711877 Y3.801812 Z-1.000000
G03 X11.734608 Y3.802941 Z-1.000000 I0.008711 J0.054020
G01 X11.754836 Y3.800780 Z-1.000000
G01 X11.762048 Y3.789031 Z-1.000000
G01 X11.769639 Y3.774044 Z-1.000000
G03 X11.803048 Y3.758941 Z-1.000000 I0.052392 J0.071392
G02 X11.847962 Y3.732232 Z-1.000000 I-0.017800 J-0.081050
G02 X11.865488 Y3.686881 Z-1.000000 I-0.054291 J-0.047043
G01 X11.866217 Y3.656011 Z-1.000000
G01 X11.827147 Y3.656011 Z-1.000000
G01 X11.788077 Y3.656011 Z-1.000000
G01 X11.822147 Y3.624441 Z-1.000000
G02 X11.846245 Y3.591518 Z-1.000000 I-0.072919 J-0.078654
G01 X11.845327 Y3.575251 Z-1.000000
G01 X11.832853 Y3.561672 Z-1.000000
G01 X11.825097 Y3.560231 Z-1.000000
G03 X11.757921 Y3.554695 Z-1.000000 I-0.026087 J-0.093795
G01 X11.734617 Y3.518141 Z-1.000000
G01 X11.737529 Y3.508253 Z-1.000000
G03 X11.754547 Y3.487141 Z-1.000000 I0.108107 J0.069728
G01 X11.757232 Y3.464406 Z-1.000000
G01 X11.731907 Y3.450231 Z-1.000000
G01 X11.710086 Y3.444783 Z-1.000000
G01 X11.699757 Y3.433081 Z-1.000000
G01 X11.688233 Y3.423545 Z-1.000000
G02 X11.621307 Y3.419221 Z-1.000000 I-0.053000 J0.300195
G03 X11.577514 Y3.415694 Z-1.000000 I-0.007976 J-0.174609
G01 X11.576867 Y3.409921 Z-1.000000
G03 X11.605086 Y3.400753 Z-1.000000 I0.053887 J0.117848
G03 X11.644317 Y3.396351 Z-1.000000 I0.044659 J0.220990
G01 X11.647129 Y3.386737 Z-1.000000
G02 X11.609487 Y3.372821 Z-1.000000 I-0.047285 J0.070035
G03 X11.551577 Y3.362629 Z-1.000000 I0.054776 J-0.480845
G03 X11.529347 Y3.353691 Z-1.000000 I0.019007 J-0.079387
G01 X11.508277 Y3.341351 Z-1.000000
G01 X11.536247 Y3.340934 Z-1.000000
G02 X11.646239 Y3.312618 Z-1.000000 I-0.003607 J-0.241799
G02 X11.672904 Y3.268224 Z-1.000000 I-0.023623 J-0.044394
G01 X11.665371 Y3.258826 Z-1.000000
G02 X11.594884 Y3.250824 Z-1.000000 I-0.072722 J0.326118
G03 X11.520083 Y3.242050 Z-1.000000 I0.002307 J-0.342897
G03 X11.490914 Y3.226814 Z-1.000000 I0.014694 J-0.063672
G02 X11.405295 Y3.208245 Z-1.000000 I-0.058952 J0.065146
G01 X11.386059 Y3.260224 Z-1.000000
G01 X11.391712 Y3.274404 Z-1.000000
G03 X11.405159 Y3.351584 Z-1.000000 I-1.136772 J0.237825
G01 X11.416059 Y3.429694 Z-1.000000
G01 X11.393579 Y3.455144 Z-1.000000
G02 X11.378757 Y3.483490 Z-1.000000 I0.049993 J0.044190
G02 X11.371099 Y3.547064 Z-1.000000 I0.260066 J0.063574
G03 X11.364636 Y3.610840 Z-1.000000 I-0.317900 J-0.000000
G01 X11.353949 Y3.630674 Z-1.000000
G01 X11.342809 Y3.650256 Z-1.000000
G02 X11.336799 Y3.698274 Z-1.000000 I0.188808 J0.048018
G03 X11.317053 Y3.754147 Z-1.000000 I-0.088923 J-0.000000
G03 X11.268209 Y3.783204 Z-1.000000 I-0.063645 J-0.051406
G01 X11.288789 Y3.792704 Z-1.000000
G01 X11.343659 Y3.795904 Z-1.000000
G01 X11.309359 Y3.806884 Z-1.000000
G01 X11.275059 Y3.817864 Z-1.000000
G01 X11.318519 Y3.819264 Z-1.000000
G03 X11.361505 Y3.823024 Z-1.000000 I-0.012167 J0.386680
G03 X11.382479 Y3.828464 Z-1.000000 I-0.013978 J0.097045
G01 X11.398121 Y3.826907 Z-1.000000
G01 X11.409449 Y3.811314 Z-1.000000
G01 X11.415949 Y3.786304 Z-1.000000
G01 X11.417549 Y3.817174 Z-1.000000
G01 X11.410999 Y3.840292 Z-1.000000
G01 X11.396279 Y3.848044 Z-1.000000
G01 X11.382881 Y3.851955 Z-1.000000
G01 X11.382339 Y3.856944 Z-1.000000
G01 X11.383449 Y3.865707 Z-1.000000
G03 X11.359859 Y3.894974 Z-1.000000 I-0.111927 J-0.066077
G02 X11.326341 Y3.954196 Z-1.000000 I0.076201 J0.082224
G01 X11.338379 Y3.997423 Z-1.000000
G02 X11.366970 Y4.022632 Z-1.000000 I0.142228 J-0.132490
G01 X11.378529 Y4.026363 Z-1.000000
G01 X11.388188 Y4.043384 Z-1.000000
G03 X11.336029 Y4.097493 Z-1.000000 I-0.142391 J-0.085066
G02 X11.284293 Y4.135738 Z-1.000000 I0.285509 J0.440339
G01 X11.280349 Y4.144193 Z-1.000000
G01 X11.284689 Y4.151599 Z-1.000000
G02 X11.325409 Y4.169453 Z-1.000000 I0.110801 J-0.197339
G01 X11.370449 Y4.184123 Z-1.000000
G01 X11.380609 Y4.243893 Z-1.000000
G02 X11.395258 Y4.301626 Z-1.000000 I0.368521 J-0.062784
G02 X11.408389 Y4.325413 Z-1.000000 I0.073391 J-0.024994
G01 X11.425999 Y4.347163 Z-1.000000
G01 X11.405419 Y4.335313 Z-1.000000
G01 X11.408819 Y4.350913 Z-1.000000
G03 X11.429375 Y4.379656 Z-1.000000 I-0.136114 J0.119066
G01 X11.432829 Y4.392563 Z-1.000000
G01 X11.447564 Y4.409482 Z-1.000000
G02 X11.661101 Y4.424213 Z-1.000000 I0.213537 J-1.540293
G01 X11.762077 Y4.424213 Z-1.000000
G01 X11.764777 Y4.372763 Z-1.000000
G03 X11.771984 Y4.267414 Z-1.000000 I3.201122 J0.166064
G03 X11.776187 Y4.239007 Z-1.000000 I0.230435 J0.019582
G02 X11.778016 Y4.225295 Z-1.000000 I-0.087286 J-0.018621
G01 X11.777487 Y4.214997 Z-1.000000
G01 X11.781288 Y4.209291 Z-1.000000
G03 X11.819307 Y4.204707 Z-1.000000 I0.038019 J0.155375
G01 X11.821117 Y4.195365 Z-1.000000
G02 X11.753137 Y4.178067 Z-1.000000 I-0.098344 J0.244261
G01 X11.659257 Y4.167157 Z-1.000000
G01 X11.758717 Y4.165357 Z-1.000000
G02 X11.829025 Y4.145918 Z-1.000000 I-0.002682 J-0.146570
G01 X11.829417 Y4.124757 Z-1.000000
G01 X11.800647 Y4.106797 Z-1.000000
G01 X11.825987 Y4.087597 Z-1.000000
G03 X11.853464 Y4.074681 Z-1.000000 I0.044200 J0.058348
G03 X11.909627 Y4.067967 Z-1.000000 I0.058065 J0.247439
G01 X11.967937 Y4.067530 Z-1.000000
G01 X11.967937 Y4.108690 Z-1.000000
G01 X11.949371 Y4.132467 Z-1.000000
G01 X11.913057 Y4.122410 Z-1.000000
G01 X11.885617 Y4.094970 Z-1.000000
G01 X11.885617 Y4.116830 Z-1.000000
G01 X11.892268 Y4.133553 Z-1.000000
G01 X11.913057 Y4.145870 Z-1.000000
G01 X11.923824 Y4.163222 Z-1.000000
G01 X11.906557 Y4.177280 Z-1.000000
G01 X11.872607 Y4.177280 Z-1.000000
G01 X11.880807 Y4.218440 Z-1.000000
G03 X11.882572 Y4.254282 Z-1.000000 I-0.120151 J0.023882
G01 X11.876707 Y4.259600 Z-1.000000
G01 X11.870015 Y4.265241 Z-1.000000
G02 X11.864707 Y4.329500 Z-1.000000 I0.363106 J0.062343
G03 X11.860490 Y4.396914 Z-1.000000 I-0.500814 J0.002514
G01 X11.854807 Y4.405760 Z-1.000000
G01 X11.845251 Y4.425873 Z-1.000000
G01 X11.859007 Y4.437940 Z-1.000000
G01 X11.866081 Y4.433806 Z-1.000000
G01 X11.865907 Y4.425660 Z-1.000000
G01 X11.876298 Y4.408847 Z-1.000000
G03 X11.918047 Y4.430360 Z-1.000000 I-0.005587 J0.062109
G02 X11.947211 Y4.450628 Z-1.000000 I0.053553 J-0.045942
G02 X11.983207 Y4.454370 Z-1.000000 I0.025345 J-0.068804
G01 X12.022777 Y4.448570 Z-1.000000
G01 X12.022777 Y4.478050 Z-1.000000
G03 X12.018122 Y4.506144 Z-1.000000 I-0.087104 J0.000000
G03 X12.001947 Y4.539310 Z-1.000000 I-0.139689 J-0.047599
G02 X11.979863 Y4.621383 Z-1.000000 I0.113970 J0.074674
G02 X12.010247 Y4.691076 Z-1.000000 I0.108679 J-0.005911
G01 X12.018265 Y4.723227 Z-1.000000
G01 X11.996327 Y4.739776 Z-1.000000
G01 X11.976417 Y4.747738 Z-1.000000
G01 X11.963897 Y4.770646 Z-1.000000
G01 X11.957997 Y4.801516 Z-1.000000
G01 X11.956097 Y4.770646 Z-1.000000
G01 X11.954197 Y4.739776 Z-1.000000
G01 X11.906177 Y4.739776 Z-1.000000
G02 X11.864374 Y4.745939 Z-1.000000 I0.000000 J0.144856
G01 X11.858157 Y4.754306 Z-1.000000
G01 X11.862364 Y4.761231 Z-1.000000
G01 X11.870927 Y4.760906 Z-1.000000
G01 X11.882174 Y4.759344 Z-1.000000
G01 X11.892317 Y4.767006 Z-1.000000
G01 X11.890670 Y4.775213 Z-1.000000
G01 X11.872687 Y4.780946 Z-1.000000
G02 X11.849310 Y4.785793 Z-1.000000 I0.000000 J0.058793
G01 X11.844437 Y4.793216 Z-1.000000
G01 X11.849785 Y4.798736 Z-1.000000
G02 X11.892527 Y4.794616 Z-1.000000 I0.005347 J-0.168300
G03 X11.938023 Y4.789968 Z-1.000000 I0.041818 J0.184348
G01 X11.947937 Y4.795611 Z-1.000000
G01 X11.957736 Y4.801659 Z-1.000000
G02 X11.994207 Y4.799711 Z-1.000000 I0.011332 J-0.130217
G03 X12.068263 Y4.808478 Z-1.000000 I0.023585 J0.117927
G01 X12.091377 Y4.844631 Z-1.000000
G01 X12.091377 Y4.866181 Z-1.000000
G01 X12.362321 Y4.857781 Z-1.000000
G03 X12.633289 Y4.850402 Z-1.000000 I1.150695 J37.277262
G03 X13.068947 Y4.841181 Z-1.000000 I2.117075 J89.726023
G01 X13.504629 Y4.832981 Z-1.000000
G01 X13.496129 Y4.855131 Z-1.000000
G01 X13.487629 Y4.877291 Z-1.000000
G01 X13.513159 Y4.867991 Z-1.000000
G01 X13.538699 Y4.858691 Z-1.000000
G01 X13.511259 Y4.891881 Z-1.000000
G03 X13.482787 Y4.923986 Z-1.000000 I-0.474356 J-0.392006
G03 X13.470109 Y4.935151 Z-1.000000 I-0.069343 J-0.065957
G01 X13.470468 Y4.940637 Z-1.000000
G01 X13.488939 Y4.945441 Z-1.000000
G01 X13.521489 Y4.945651 Z-1.000000
G01 X13.503839 Y4.966921 Z-1.000000
G01 X13.486189 Y4.988191 Z-1.000000
G01 X13.509489 Y5.011511 Z-1.000000
G01 X13.532789 Y5.034831 Z-1.000000
G01 X13.669501 Y5.038631 Z-1.000000
G01 X13.806213 Y5.042431 Z-1.000000
G01 X13.806213 Y5.021521 Z-1.000000
G01 X13.806213 Y5.000611 Z-1.000000
G01 X14.135460 Y5.000611 Z-1.000000
G03 X14.461735 Y5.003584 Z-1.000000 I0.000000 J17.907165
G01 X14.464708 Y5.006611 Z-1.000000
G01 X14.463699 Y5.012407 Z-1.000000
G03 X14.448778 Y5.051201 Z-1.000000 I-0.865140 J-0.310496
G02 X14.435360 Y5.090049 Z-1.000000 I0.315454 J0.130697
G01 X14.435058 Y5.100111 Z-1.000000
G01 X14.431618 Y5.105891 Z-1.000000
G03 X14.400688 Y5.110401 Z-1.000000 I-0.030930 J-0.103806
G01 X14.394551 Y5.119143 Z-1.000000
G01 X14.407988 Y5.130631 Z-1.000000
G03 X14.450657 Y5.153127 Z-1.000000 I-0.015803 J0.081688
G01 X14.464668 Y5.186661 Z-1.000000
G01 X14.464668 Y5.220151 Z-1.000000
G01 X14.432048 Y5.220151 Z-1.000000
G02 X14.400218 Y5.224042 Z-1.000000 I-0.000000 J0.132149
G02 X14.351398 Y5.240221 Z-1.000000 I0.080771 J0.325465
G02 X14.302022 Y5.296766 Z-1.000000 I0.032784 J0.078458
G01 X14.327478 Y5.329901 Z-1.000000
G03 X14.350801 Y5.334406 Z-1.000000 I0.000000 J0.062623
G01 X14.361778 Y5.343621 Z-1.000000
G02 X14.636341 Y5.496899 Z-1.000000 I0.274927 J-0.169921
G02 X15.007241 Y5.344411 Z-1.000000 I0.000592 J-0.525877
G01 X15.022538 Y5.336643 Z-1.000000
G03 X15.105451 Y5.328461 Z-1.000000 I0.106362 J0.653612
G02 X15.180774 Y5.320162 Z-1.000000 I-0.018724 J-0.515902
G01 X15.183521 Y5.313951 Z-1.000000
G01 X15.186150 Y5.307845 Z-1.000000
G03 X15.242391 Y5.301841 Z-1.000000 I0.058978 J0.286032
G02 X15.307134 Y5.295700 Z-1.000000 I-0.003591 J-0.382208
G02 X15.349521 Y5.282381 Z-1.000000 I-0.031931 J-0.175729
G01 X15.390681 Y5.263541 Z-1.000000
G01 X15.356381 Y5.262241 Z-1.000000
G01 X15.340000 Y5.256100 Z-1.000000
G01 X15.340381 Y5.249321 Z-1.000000
G01 X15.358681 Y5.237721 Z-1.000000
G01 X15.333521 Y5.227481 Z-1.000000
G01 X15.308361 Y5.217241 Z-1.000000
G01 X15.335801 Y5.205961 Z-1.000000
G03 X15.364189 Y5.199433 Z-1.000000 I0.033944 J0.082614
G03 X15.532558 Y5.193711 Z-1.000000 I0.185324 J2.973368
G01 X15.701877 Y5.192746 Z-1.000000
G01 X15.731477 Y5.168736 Z-1.000000
G01 X15.761077 Y5.144726 Z-1.000000
G01 X15.758977 Y5.092896 Z-1.000000
G02 X15.725675 Y5.031490 Z-1.000000 I-0.079167 J0.003201
G02 X15.629037 Y5.000676 Z-1.000000 I-0.096638 J0.136129
G01 X15.534687 Y5.000676 Z-1.000000
G01 X15.534687 Y4.973236 Z-1.000000
G01 X15.534687 Y4.945796 Z-1.000000
G01 X15.572417 Y4.944196 Z-1.000000
G01 X15.610147 Y4.942596 Z-1.000000
G01 X15.568987 Y4.930966 Z-1.000000
G01 X15.649417 Y4.925966 Z-1.000000
G01 X15.771000 Y4.932566 Z-1.000000
G01 X15.762900 Y4.911476 Z-1.000000
G01 X15.754800 Y4.890386 Z-1.000000
G01 X16.220924 Y4.891786 Z-1.000000
G01 X16.687049 Y4.893186 Z-1.000000
G01 X16.687049 Y4.940136 Z-1.000000
G01 X16.687049 Y4.987086 Z-1.000000
G01 X16.580729 Y4.989886 Z-1.000000
G02 X15.997490 Y5.019526 Z-1.000000 I0.313558 J11.923168
G02 X15.900247 Y5.041196 Z-1.000000 I0.026100 J0.346143
G02 X15.868451 Y5.079322 Z-1.000000 I0.017991 J0.047325
G01 X15.884847 Y5.124556 Z-1.000000
G01 X15.908533 Y5.134873 Z-1.000000
G02 X16.107775 Y5.153396 Z-1.000000 I0.357077 J-2.760070
G03 X16.309733 Y5.165613 Z-1.000000 I-1.515862 J26.734023
G03 X16.353413 Y5.169146 Z-1.000000 I-0.085134 J1.324314
G02 X16.387988 Y5.167768 Z-1.000000 I0.012231 J-0.127574
G01 X16.390333 Y5.162546 Z-1.000000
G01 X16.393186 Y5.156975 Z-1.000000
G03 X16.545630 Y5.151366 Z-1.000000 I0.156878 J2.189335
G02 X16.707019 Y5.146063 Z-1.000000 I-0.005292 J-2.619316
G02 X16.762508 Y5.137506 Z-1.000000 I-0.020026 J-0.314071
G03 X16.818077 Y5.129392 Z-1.000000 I0.070151 J0.286100
G03 X17.165723 Y5.117596 Z-1.000000 I0.551870 J11.135400
G02 X17.512597 Y5.107814 Z-1.000000 I-0.319244 J-17.475161
G01 X17.521265 Y5.104016 Z-1.000000
G01 X17.495315 Y5.095816 Z-1.000000
G01 X17.462165 Y5.094852 Z-1.000000
G01 X17.488595 Y5.084492 Z-1.000000
G01 X17.515025 Y5.074132 Z-1.000000
G01 X17.492175 Y5.065332 Z-1.000000
G01 X17.469325 Y5.056532 Z-1.000000
G01 X17.482555 Y5.021742 Z-1.000000
G01 X17.495775 Y4.986952 Z-1.000000
G01 X17.475535 Y4.986952 Z-1.000000
G01 X17.460243 Y4.982046 Z-1.000000
G01 X17.455295 Y4.972422 Z-1.000000
G01 X17.459678 Y4.965695 Z-1.000000
G01 X17.469015 Y4.966322 Z-1.000000
G01 X17.478299 Y4.966854 Z-1.000000
G01 X17.482735 Y4.959822 Z-1.000000
G01 X17.478539 Y4.947791 Z-1.000000
G01 X17.465585 Y4.938292 Z-1.000000
G03 X17.429460 Y4.883572 Z-1.000000 I0.020066 J-0.052531
G03 X17.472085 Y4.770811 Z-1.000000 I0.190049 J0.007404
G01 X17.488935 Y4.759729 Z-1.000000
G03 X17.532145 Y4.753661 Z-1.000000 I0.043210 J0.150817
G01 X17.578215 Y4.753661 Z-1.000000
G01 X17.586815 Y4.719391 Z-1.000000
G02 X17.591050 Y4.685389 Z-1.000000 I-0.138366 J-0.034500
G02 X17.586921 Y4.662991 Z-1.000000 I-0.061642 J-0.000215
G01 X17.588895 Y4.651330 Z-1.000000
G01 X17.598991 Y4.648751 Z-1.000000
G01 X17.614937 Y4.650895 Z-1.000000
G01 X17.618101 Y4.646851 Z-1.000000
G03 X17.617390 Y4.636999 Z-1.000000 I0.064728 J-0.009625
G03 X17.618266 Y4.599331 Z-1.000000 I0.951688 J0.003297
G01 X17.619866 Y4.561601 Z-1.000000
G01 X17.709036 Y4.561601 Z-1.000000
G03 X17.792364 Y4.567395 Z-1.000000 I-0.000000 J0.602046
G01 X17.798206 Y4.574111 Z-1.000000
G02 X17.844443 Y4.626047 Z-1.000000 I0.052287 J-0.000000
G02 X17.921987 Y4.588531 Z-1.000000 I0.009284 J-0.079708
G01 X17.935179 Y4.578734 Z-1.000000
G01 X17.954587 Y4.579731 Z-1.000000
G01 X17.971630 Y4.580965 Z-1.000000
G01 X17.976547 Y4.574831 Z-1.000000
G01 X17.972229 Y4.565855 Z-1.000000
G01 X17.959917 Y4.561541 Z-1.000000
G01 X17.945739 Y4.556583 Z-1.000000
G03 X17.914147 Y4.525001 Z-1.000000 I0.124166 J-0.155801
G01 X17.885007 Y4.488461 Z-1.000000
G01 X17.910697 Y4.462771 Z-1.000000
G02 X17.928781 Y4.436195 Z-1.000000 I-0.060843 J-0.060843
G01 X17.927847 Y4.423261 Z-1.000000
G01 X17.925519 Y4.409875 Z-1.000000
G01 X17.934747 Y4.390851 Z-1.000000
G01 X17.950177 Y4.372261 Z-1.000000
G01 X17.908487 Y4.353811 Z-1.000000
G03 X17.877240 Y4.326555 Z-1.000000 I0.028354 J-0.064045
G01 X17.883947 Y4.314041 Z-1.000000
G01 X17.853077 Y4.287181 Z-1.000000
G01 X17.805067 Y4.260891 Z-1.000000
G01 X17.853077 Y4.260105 Z-1.000000
G02 X17.910322 Y4.232304 Z-1.000000 I-0.001244 J-0.075398
G02 X17.943607 Y4.148848 Z-1.000000 I-0.116560 J-0.094853
G02 X17.938892 Y4.107520 Z-1.000000 I-0.110670 J-0.008307
G01 X17.928247 Y4.099688 Z-1.000000
G01 X17.917143 Y4.104112 Z-1.000000
G01 X17.916217 Y4.111118 Z-1.000000
G01 X17.916117 Y4.118554 Z-1.000000
G01 X17.908717 Y4.122548 Z-1.000000
G01 X17.897971 Y4.118787 Z-1.000000
G01 X17.894187 Y4.110928 Z-1.000000
G01 X17.890039 Y4.101901 Z-1.000000
G02 X17.863317 Y4.084418 Z-1.000000 I-0.080251 J0.093496
G01 X17.850601 Y4.073147 Z-1.000000
G01 X17.853027 Y4.068398 Z-1.000000
G01 X17.873607 Y4.067298 Z-1.000000
G01 X17.853027 Y4.052678 Z-1.000000
G01 X17.832447 Y4.038058 Z-1.000000
G01 X17.866857 Y4.045458 Z-1.000000
G02 X17.900294 Y4.047343 Z-1.000000 I0.022673 J-0.104683
G01 X17.921727 Y4.039958 Z-1.000000
G01 X17.942187 Y4.027018 Z-1.000000
G01 X17.923357 Y4.026808 Z-1.000000
G01 X17.916307 Y4.021164 Z-1.000000
G01 X17.919157 Y4.008988 Z-1.000000
G01 X17.917102 Y3.980589 Z-1.000000
G02 X17.845837 Y3.942898 Z-1.000000 I-0.110332 J0.122396
G03 X17.711124 Y3.900765 Z-1.000000 I0.262021 J-1.074181
G01 X17.702121 Y3.887658 Z-1.000000
G03 X17.738205 Y3.815754 Z-1.000000 I0.089683 J0.000000
G03 X17.847016 Y3.779661 Z-1.000000 I0.108811 J0.145973
G01 X17.869886 Y3.786697 Z-1.000000
G01 X17.872216 Y3.796811 Z-1.000000
G01 X17.874816 Y3.802511 Z-1.000000
G02 X17.885111 Y3.790063 Z-1.000000 I-0.039083 J-0.042805
G01 X17.887516 Y3.781931 Z-1.000000
G01 X17.889382 Y3.773322 Z-1.000000
G03 X17.898986 Y3.755031 Z-1.000000 I0.119188 J0.050914
G01 X17.896150 Y3.719107 Z-1.000000
G02 X17.847896 Y3.697121 Z-1.000000 I-0.048717 J0.042974
G03 X17.791601 Y3.683429 Z-1.000000 I0.000908 J-0.126305
G01 X17.794706 Y3.670101 Z-1.000000
G01 X17.805032 Y3.663104 Z-1.000000
G02 X17.811856 Y3.628731 Z-1.000000 I-0.083158 J-0.034373
G03 X17.819576 Y3.595306 Z-1.000000 I0.076224 J-0.000000
G01 X17.831956 Y3.587571 Z-1.000000
G01 X17.873514 Y3.563882 Z-1.000000
G01 X17.873076 Y3.518141 Z-1.000000
G01 X17.861632 Y3.507246 Z-1.000000
G02 X17.771838 Y3.461771 Z-1.000000 I-0.619672 J1.112211
G03 X17.702829 Y3.404269 Z-1.000000 I0.071259 J-0.155678
G01 X17.714688 Y3.380121 Z-1.000000
G01 X17.667818 Y3.367221 Z-1.000000
G03 X17.417644 Y3.322761 Z-1.000000 I0.426184 J-3.124190
G01 X17.415727 Y3.311861 Z-1.000000
G03 X17.435861 Y3.304109 Z-1.000000 I0.029306 J0.046091
G03 X17.489477 Y3.299261 Z-1.000000 I0.057593 J0.338068
G02 X17.577981 Y3.260960 Z-1.000000 I-0.001470 J-0.124801
G01 X17.577457 Y3.207751 Z-1.000000
G01 X17.571723 Y3.193908 Z-1.000000
G01 X17.577457 Y3.183621 Z-1.000000
G01 X17.586810 Y3.184384 Z-1.000000
G01 X17.592367 Y3.196601 Z-1.000000
G01 X17.597884 Y3.208943 Z-1.000000
G01 X17.607017 Y3.209741 Z-1.000000
G01 X17.615675 Y3.198635 Z-1.000000
G01 X17.615217 Y3.183941 Z-1.000000
G01 X17.616436 Y3.169768 Z-1.000000
G03 X17.634857 Y3.150911 Z-1.000000 I0.047972 J0.028437
G01 X17.649048 Y3.115947 Z-1.000000
G02 X17.613667 Y3.064861 Z-1.000000 I-0.084678 J0.020851
G03 X17.558061 Y2.974779 Z-1.000000 I0.073866 J-0.107800
G03 X17.593437 Y2.917038 Z-1.000000 I0.052978 J-0.007250
G01 X17.626236 Y2.876375 Z-1.000000
G01 X17.602637 Y2.842178 Z-1.000000
G02 X17.571456 Y2.836311 Z-1.000000 I-0.067446 J0.272673
G02 X17.424827 Y2.818958 Z-1.000000 I-0.816923 J6.274531
G03 X17.175544 Y2.771185 Z-1.000000 I0.161761 J-1.518350
G01 X17.142970 Y2.740178 Z-1.000000
G01 X17.148048 Y2.731023 Z-1.000000
G03 X17.213130 Y2.723308 Z-1.000000 I0.065082 J0.270646
G02 X17.285662 Y2.717423 Z-1.000000 I0.000000 J-0.449936
G01 X17.297390 Y2.709588 Z-1.000000
G01 X17.308862 Y2.701245 Z-1.000000
G03 X17.352260 Y2.695868 Z-1.000000 I0.043398 J0.172444
G02 X17.396007 Y2.691052 Z-1.000000 I-0.000000 J-0.201124
G01 X17.406020 Y2.683948 Z-1.000000
G01 X17.416085 Y2.675872 Z-1.000000
G03 X17.465130 Y2.663158 Z-1.000000 I0.100176 J0.285480
G02 X17.514892 Y2.649728 Z-1.000000 I-0.047032 J-0.273171
G02 X17.543510 Y2.633918 Z-1.000000 I-0.038711 J-0.103879
G01 X17.570140 Y2.613548 Z-1.000000
G01 X17.540890 Y2.613548 Z-1.000000
G02 X17.514238 Y2.618257 Z-1.000000 I-0.000000 J0.077783
G01 X17.503160 Y2.627268 Z-1.000000
G01 X17.503464 Y2.627031 Z-1.000000
G00 Z5.000000

(End cutting path id: path71381)


(Start cutting path id: path71381)
(Change tool to Default tool)

G00 Z5.000000
G00 X17.969893 Y4.479104

G01 Z-1.000000 F100.0(Penetrate)
G02 X17.979472 Y4.490842 Z-1.000000 I0.051619 J-0.032348 F3500.000000
G01 X17.984423 Y4.492824 Z-1.000000
G01 X17.988058 Y4.490444 Z-1.000000
G01 X17.990423 Y4.479104 Z-1.000000
G01 X17.986328 Y4.469556 Z-1.000000
G01 X17.975893 Y4.465384 Z-1.000000
G01 X17.969166 Y4.469767 Z-1.000000
G01 X17.969793 Y4.479104 Z-1.000000
G01 X17.969893 Y4.479104 Z-1.000000
G00 Z5.000000

(End cutting path id: path71381)


(Start cutting path id: path71381)
(Change tool to Default tool)

G00 Z5.000000
G00 X17.873866 Y4.547753

G01 Z-1.000000 F100.0(Penetrate)
G01 X17.873167 Y4.556325 Z-1.000000 F3500.000000
G01 X17.861766 Y4.561473 Z-1.000000
G01 X17.843465 Y4.557357 Z-1.000000
G01 X17.832706 Y4.547753 Z-1.000000
G01 X17.833405 Y4.539180 Z-1.000000
G01 X17.844806 Y4.534033 Z-1.000000
G01 X17.863107 Y4.538149 Z-1.000000
G01 X17.873866 Y4.547753 Z-1.000000
G01 X17.873866 Y4.547753 Z-1.000000
G00 Z5.000000

(End cutting path id: path71381)


(Start cutting path id: path71381)
(Change tool to Default tool)

G00 Z5.000000
G00 X18.526642 Y4.443560

G01 Z-1.000000 F100.0(Penetrate)
G02 X18.594571 Y4.472598 Z-1.000000 I0.071183 J-0.072546 F3500.000000
G02 X18.657528 Y4.447660 Z-1.000000 I0.002725 J-0.085060
G01 X18.655868 Y4.442609 Z-1.000000
G02 X18.594088 Y4.437960 Z-1.000000 I-0.061780 J0.408166
G01 X18.526638 Y4.443560 Z-1.000000
G01 X18.526642 Y4.443560 Z-1.000000
G00 Z5.000000

(End cutting path id: path71381)


(Start cutting path id: path71381)
(Change tool to Default tool)

G00 Z5.000000
G00 X18.765575 Y4.402940

G01 Z-1.000000 F100.0(Penetrate)
G02 X18.853466 Y4.427270 Z-1.000000 I0.109517 J-0.224704 F3500.000000
G01 X18.860925 Y4.411240 Z-1.000000
G01 X18.845772 Y4.402418 Z-1.000000
G02 X18.786155 Y4.390570 Z-1.000000 I-0.110991 J0.402559
G01 X18.724425 Y4.382870 Z-1.000000
G01 X18.765575 Y4.402940 Z-1.000000
G00 Z5.000000

(End cutting path id: path71381)


(Start cutting path id: path71381)
(Change tool to Default tool)

G00 Z5.000000
G00 X18.783581 Y4.255270

G01 Z-1.000000 F100.0(Penetrate)
G01 X18.800693 Y4.258224 Z-1.000000 F3500.000000
G01 X18.809871 Y4.254170 Z-1.000000
G01 X18.808988 Y4.249886 Z-1.000000
G01 X18.791861 Y4.246970 Z-1.000000
G01 X18.782688 Y4.250991 Z-1.000000
G01 X18.783561 Y4.255270 Z-1.000000
G01 X18.783581 Y4.255270 Z-1.000000
G00 Z5.000000

(End cutting path id: path71381)


(Start cutting path id: path71381)
(Change tool to Default tool)

G00 Z5.000000
G00 X18.790476 Y4.136170

G01 Z-1.000000 F100.0(Penetrate)
G01 X18.760506 Y4.148250 Z-1.000000 F3500.000000
G01 X18.761706 Y4.190180 Z-1.000000
G01 X18.775265 Y4.213004 Z-1.000000
G01 X18.796226 Y4.210290 Z-1.000000
G01 X18.818046 Y4.188470 Z-1.000000
G01 X18.799386 Y4.176940 Z-1.000000
G01 X18.780726 Y4.165410 Z-1.000000
G01 X18.817736 Y4.156110 Z-1.000000
G02 X18.849888 Y4.143036 Z-1.000000 I-0.030058 J-0.119996
G01 X18.854746 Y4.134590 Z-1.000000
G01 X18.844850 Y4.124937 Z-1.000000
G02 X18.790476 Y4.136190 Z-1.000000 I0.003874 J0.155709
G01 X18.790476 Y4.136170 Z-1.000000
G00 Z5.000000

(End cutting path id: path71381)


(Start cutting path id: path71381)
(Change tool to Default tool)

G00 Z5.000000
G00 X18.919908 Y4.090280

G01 Z-1.000000 F100.0(Penetrate)
G01 X18.937033 Y4.093610 Z-1.000000 F3500.000000
G01 X18.954208 Y4.090280 Z-1.000000
G01 X18.937058 Y4.083380 Z-1.000000
G01 X18.919908 Y4.090280 Z-1.000000
G01 X18.919908 Y4.090280 Z-1.000000
G00 Z5.000000

(End cutting path id: path71381)


(Start cutting path id: path71381)
(Change tool to Default tool)

G00 Z5.000000
G00 X18.998790 Y4.149790

G01 Z-1.000000 F100.0(Penetrate)
G02 X19.061365 Y4.162665 Z-1.000000 I0.062575 J-0.145626 F3500.000000
G01 X19.074240 Y4.149790 Z-1.000000
G01 X19.068300 Y4.142187 Z-1.000000
G02 X19.022800 Y4.137040 Z-1.000000 I-0.042174 J0.169128
G01 X18.971350 Y4.138004 Z-1.000000
G01 X18.998790 Y4.149790 Z-1.000000
G00 Z5.000000

(End cutting path id: path71381)


(Start cutting path id: path71381)
(Change tool to Default tool)

G00 Z5.000000
G00 X19.022800 Y4.207710

G01 Z-1.000000 F100.0(Penetrate)
G02 X18.995737 Y4.224989 Z-1.000000 I0.059141 J0.122465 F3500.000000
G01 X18.991930 Y4.233030 Z-1.000000
G01 X19.022656 Y4.255379 Z-1.000000
G02 X19.071060 Y4.207370 Z-1.000000 I-0.023263 J-0.071859
G01 X19.064317 Y4.198068 Z-1.000000
G02 X19.022790 Y4.207713 Z-1.000000 I0.000682 J0.097159
G01 X19.022800 Y4.207710 Z-1.000000
G00 Z5.000000

(End cutting path id: path71381)


(Start cutting path id: path71381)
(Change tool to Default tool)

G00 Z5.000000
G00 X18.945376 Y4.308780

G01 Z-1.000000 F100.0(Penetrate)
G01 X18.945962 Y4.321945 Z-1.000000 F3500.000000
G01 X18.953376 Y4.325070 Z-1.000000
G01 X18.977409 Y4.301676 Z-1.000000
G01 X18.967146 Y4.287050 Z-1.000000
G01 X18.956683 Y4.291394 Z-1.000000
G02 X18.945416 Y4.308770 Z-1.000000 I0.035442 J0.035323
G01 X18.945376 Y4.308780 Z-1.000000
G00 Z5.000000

(End cutting path id: path71381)


(Start cutting path id: path71381)
(Change tool to Default tool)

G00 Z5.000000
G00 X18.937058 Y4.355640

G01 Z-1.000000 F100.0(Penetrate)
G02 X18.958955 Y4.364445 Z-1.000000 I0.033789 J-0.052396 F3500.000000
G02 X19.005648 Y4.368940 Z-1.000000 I0.046693 J-0.240296
G01 X19.053668 Y4.368940 Z-1.000000
G01 X19.033088 Y4.355640 Z-1.000000
G02 X19.011191 Y4.346835 Z-1.000000 I-0.033789 J0.052396
G02 X18.964498 Y4.342340 Z-1.000000 I-0.046693 J0.240296
G01 X18.916478 Y4.342340 Z-1.000000
G01 X18.937058 Y4.355640 Z-1.000000
G00 Z5.000000

(End cutting path id: path71381)


(Start cutting path id: path71381)
(Change tool to Default tool)

G00 Z5.000000
G00 X18.847883 Y4.561414

G01 Z-1.000000 F100.0(Penetrate)
G01 X18.845712 Y4.569206 Z-1.000000 F3500.000000
G03 X18.821253 Y4.575134 Z-1.000000 I-0.024459 J-0.047491
G02 X18.790922 Y4.579909 Z-1.000000 I0.000000 J0.098720
G01 X18.786143 Y4.586474 Z-1.000000
G01 X18.791059 Y4.592067 Z-1.000000
G02 X18.827303 Y4.591774 Z-1.000000 I0.017057 J-0.131924
G02 X18.864764 Y4.566887 Z-1.000000 I-0.007620 J-0.052109
G01 X18.853933 Y4.547694 Z-1.000000
G01 X18.847243 Y4.552070 Z-1.000000
G01 X18.847933 Y4.561414 Z-1.000000
G01 X18.847883 Y4.561414 Z-1.000000
G00 Z5.000000

(End cutting path id: path71381)


(Start cutting path id: path71381)
(Change tool to Default tool)

G00 Z5.000000
G00 X18.967921 Y4.584554

G01 Z-1.000000 F100.0(Penetrate)
G02 X18.991922 Y4.587682 Z-1.000000 I0.024001 J-0.090519 F3500.000000
G02 X19.015941 Y4.584554 Z-1.000000 I0.000000 J-0.093782
G01 X18.991931 Y4.578254 Z-1.000000
G01 X18.967921 Y4.584554 Z-1.000000
G01 X18.967921 Y4.584554 Z-1.000000
G00 Z5.000000

(End cutting path id: path71381)


(Start cutting path id: path71381)
(Change tool to Default tool)

G00 Z5.000000
G00 X19.921365 Y4.707599

G01 Z-1.000000 F100.0(Penetrate)
G01 X19.938490 Y4.710929 Z-1.000000 F3500.000000
G01 X19.955665 Y4.707599 Z-1.000000
G01 X19.938515 Y4.700699 Z-1.000000
G01 X19.921365 Y4.707599 Z-1.000000
G01 X19.921365 Y4.707599 Z-1.000000
G00 Z5.000000

(End cutting path id: path71381)


(Start cutting path id: path71381)
(Change tool to Default tool)

G00 Z5.000000
G00 X20.082559 Y4.698899

G01 Z-1.000000 F100.0(Penetrate)
G01 X20.116859 Y4.702899 Z-1.000000 F3500.000000
G02 X20.177799 Y4.692956 Z-1.000000 I-0.135439 J-1.021813
G01 X20.184309 Y4.689789 Z-1.000000
G01 X20.177729 Y4.674285 Z-1.000000
G02 X20.082562 Y4.698889 Z-1.000000 I0.026818 J0.300092
G01 X20.082559 Y4.698899 Z-1.000000
G00 Z5.000000

(End cutting path id: path71381)


(Start cutting path id: path71381)
(Change tool to Default tool)

G00 Z5.000000
G00 X20.333785 Y4.666764

G01 Z-1.000000 F100.0(Penetrate)
G01 X20.350906 Y4.669720 Z-1.000000 F3500.000000
G01 X20.360075 Y4.665664 Z-1.000000
G01 X20.359192 Y4.661379 Z-1.000000
G01 X20.342075 Y4.658464 Z-1.000000
G01 X20.332902 Y4.662485 Z-1.000000
G01 X20.333775 Y4.666764 Z-1.000000
G01 X20.333785 Y4.666764 Z-1.000000
G00 Z5.000000

(End cutting path id: path71381)


(Start cutting path id: path71381)
(Change tool to Default tool)

G00 Z5.000000
G00 X20.531848 Y4.584554

G01 Z-1.000000 F100.0(Penetrate)
G02 X20.555849 Y4.587682 Z-1.000000 I0.024001 J-0.090519 F3500.000000
G02 X20.579868 Y4.584554 Z-1.000000 I0.000000 J-0.093782
G01 X20.555858 Y4.578254 Z-1.000000
G01 X20.531848 Y4.584554 Z-1.000000
G01 X20.531848 Y4.584554 Z-1.000000
G00 Z5.000000

(End cutting path id: path71381)


(Start cutting path id: path71381)
(Change tool to Default tool)

G00 Z5.000000
G00 X20.576438 Y4.314480

G01 Z-1.000000 F100.0(Penetrate)
G01 X20.575766 Y4.323856 Z-1.000000 F3500.000000
G01 X20.582438 Y4.328200 Z-1.000000
G01 X20.592851 Y4.324051 Z-1.000000
G01 X20.596968 Y4.314480 Z-1.000000
G01 X20.594607 Y4.303204 Z-1.000000
G01 X20.590868 Y4.300760 Z-1.000000
G01 X20.585925 Y4.302719 Z-1.000000
G02 X20.576338 Y4.314480 Z-1.000000 I0.039477 J0.041969
G01 X20.576438 Y4.314480 Z-1.000000
G00 Z5.000000

(End cutting path id: path71381)


(Start cutting path id: path71381)
(Change tool to Default tool)

G00 Z5.000000
G00 X20.556135 Y4.239340

G01 Z-1.000000 F100.0(Penetrate)
G02 X20.573736 Y4.254674 Z-1.000000 I0.055221 J-0.045617 F3500.000000
G01 X20.579765 Y4.253970 Z-1.000000
G01 X20.581351 Y4.232524 Z-1.000000
G01 X20.553365 Y4.218430 Z-1.000000
G01 X20.549108 Y4.223285 Z-1.000000
G01 X20.556165 Y4.239340 Z-1.000000
G01 X20.556135 Y4.239340 Z-1.000000
G00 Z5.000000

(End cutting path id: path71381)


(Start cutting path id: path71381)
(Change tool to Default tool)

G00 Z5.000000
G00 X20.701802 Y4.197810

G01 Z-1.000000 F100.0(Penetrate)
G02 X20.711154 Y4.216251 Z-1.000000 I0.091084 J-0.034599 F3500.000000
G01 X20.715092 Y4.218390 Z-1.000000
G01 X20.718169 Y4.216009 Z-1.000000
G02 X20.720492 Y4.197810 Z-1.000000 I-0.070138 J-0.018199
G01 X20.715795 Y4.181905 Z-1.000000
G01 X20.707202 Y4.177230 Z-1.000000
G01 X20.700939 Y4.182072 Z-1.000000
G01 X20.701802 Y4.197810 Z-1.000000
G01 X20.701802 Y4.197810 Z-1.000000
G00 Z5.000000

(End cutting path id: path71381)


(Start cutting path id: path71381)
(Change tool to Default tool)

G00 Z5.000000
G00 X20.734202 Y4.204710

G01 Z-1.000000 F100.0(Penetrate)
G01 X20.734202 Y4.232150 Z-1.000000 F3500.000000
G01 X20.785652 Y4.231940 Z-1.000000
G02 X20.835860 Y4.227520 Z-1.000000 I-0.001225 J-0.301286
G02 X20.856002 Y4.219750 Z-1.000000 I-0.009432 J-0.054442
G01 X20.856522 Y4.196581 Z-1.000000
G02 X20.795132 Y4.177270 Z-1.000000 I-0.061390 J0.087925
G01 X20.734202 Y4.177270 Z-1.000000
G01 X20.734202 Y4.204710 Z-1.000000
G00 Z5.000000

(End cutting path id: path71381)


(Start cutting path id: path71381)
(Change tool to Default tool)

G00 Z5.000000
G00 X20.736310 Y4.071820

G01 Z-1.000000 F100.0(Penetrate)
G01 X20.720240 Y4.091180 Z-1.000000 F3500.000000
G01 X20.756700 Y4.084180 Z-1.000000
G01 X20.780639 Y4.085805 Z-1.000000
G01 X20.783310 Y4.093180 Z-1.000000
G01 X20.771888 Y4.102408 Z-1.000000
G01 X20.760690 Y4.101180 Z-1.000000
G01 X20.752297 Y4.101108 Z-1.000000
G01 X20.747920 Y4.108780 Z-1.000000
G01 X20.753925 Y4.117325 Z-1.000000
G02 X20.778790 Y4.119880 Z-1.000000 I0.017577 J-0.048796
G01 X20.801431 Y4.108347 Z-1.000000
G01 X20.809660 Y4.088060 Z-1.000000
G01 X20.783611 Y4.055602 Z-1.000000
G01 X20.736320 Y4.071800 Z-1.000000
G01 X20.736310 Y4.071820 Z-1.000000
G00 Z5.000000

(End cutting path id: path71381)


(Start cutting path id: path71381)
(Change tool to Default tool)

G00 Z5.000000
G00 X20.950431 Y4.214410

G01 Z-1.000000 F100.0(Penetrate)
G02 X20.981355 Y4.217305 Z-1.000000 I0.030246 J-0.156455 F3500.000000
G02 X21.005311 Y4.214133 Z-1.000000 I-0.000404 J-0.095094
G01 X20.974281 Y4.208133 Z-1.000000
G01 X20.950431 Y4.214333 Z-1.000000
G01 X20.950431 Y4.214410 Z-1.000000
G00 Z5.000000

(End cutting path id: path71381)


(Start cutting path id: path71381)
(Change tool to Default tool)

G00 Z5.000000
G00 X20.943412 Y4.241640

G01 Z-1.000000 F100.0(Penetrate)
G02 X20.967417 Y4.244768 Z-1.000000 I0.024005 J-0.090533 F3500.000000
G02 X20.991422 Y4.241640 Z-1.000000 I0.000000 J-0.093662
G01 X20.967412 Y4.235340 Z-1.000000
G01 X20.943402 Y4.241640 Z-1.000000
G01 X20.943412 Y4.241640 Z-1.000000
G00 Z5.000000

(End cutting path id: path71381)


(Start cutting path id: path71381)
(Change tool to Default tool)

G00 Z5.000000
G00 X21.418383 Y4.030980

G01 Z-1.000000 F100.0(Penetrate)
G01 X21.419467 Y4.047932 Z-1.000000 F3500.000000
G01 X21.402983 Y4.055410 Z-1.000000
G01 X21.394196 Y4.066094 Z-1.000000
G01 X21.414393 Y4.086610 Z-1.000000
G01 X21.436138 Y4.082431 Z-1.000000
G01 X21.445053 Y4.058270 Z-1.000000
G02 X21.434576 Y4.026628 Z-1.000000 I-0.082768 J0.009848
G01 X21.420133 Y4.014880 Z-1.000000
G01 X21.399553 Y4.008180 Z-1.000000
G01 X21.418383 Y4.030980 Z-1.000000
G00 Z5.000000

(End cutting path id: path71381)


(Start cutting path id: path71381)
(Change tool to Default tool)

G00 Z5.000000
G00 X21.005906 Y3.720173

G01 Z-1.000000 F100.0(Penetrate)
G01 X20.999380 Y3.744186 Z-1.000000 F3500.000000
G02 X21.051196 Y3.765743 Z-1.000000 I0.051816 J-0.051496
G01 X21.083906 Y3.748150 Z-1.000000
G01 X21.078066 Y3.725073 Z-1.000000
G02 X21.047287 Y3.716236 Z-1.000000 I-0.035932 J0.067131
G02 X21.005906 Y3.720173 Z-1.000000 I-0.008690 J0.128112
G01 X21.005906 Y3.720173 Z-1.000000
G00 Z5.000000

(End cutting path id: path71381)


(Start cutting path id: path71381)
(Change tool to Default tool)

G00 Z5.000000
G00 X20.931477 Y3.634763

G01 Z-1.000000 F100.0(Penetrate)
G01 X20.938436 Y3.665800 Z-1.000000 F3500.000000
G02 X20.982377 Y3.683433 Z-1.000000 I0.043941 J-0.045935
G02 X21.027490 Y3.659688 Z-1.000000 I0.000000 J-0.054728
G01 X21.020867 Y3.627383 Z-1.000000
G02 X20.960972 Y3.612662 Z-1.000000 I-0.051907 J0.081985
G01 X20.931477 Y3.634783 Z-1.000000
G01 X20.931477 Y3.634763 Z-1.000000
G00 Z5.000000

(End cutting path id: path71381)


(Start cutting path id: path71381)
(Change tool to Default tool)

G00 Z5.000000
G00 X20.942400 Y3.541803

G01 Z-1.000000 F100.0(Penetrate)
G01 X20.953868 Y3.558773 Z-1.000000 F3500.000000
G02 X20.981330 Y3.566833 Z-1.000000 I0.027462 J-0.042755
G01 X21.000561 Y3.545466 Z-1.000000
G01 X20.976530 Y3.521223 Z-1.000000
G01 X20.937600 Y3.516723 Z-1.000000
G01 X20.942400 Y3.541803 Z-1.000000
G00 Z5.000000

(End cutting path id: path71381)


(Start cutting path id: path71381)
(Change tool to Default tool)

G00 Z5.000000
G00 X20.131620 Y3.682503

G01 Z-1.000000 F100.0(Penetrate)
G01 X20.112080 Y3.694873 Z-1.000000 F3500.000000
G01 X20.152200 Y3.700773 Z-1.000000
G01 X20.192320 Y3.706673 Z-1.000000
G01 X20.144990 Y3.708773 Z-1.000000
G02 X20.111896 Y3.716031 Z-1.000000 I0.004242 J0.098420
G01 X20.110690 Y3.722793 Z-1.000000
G02 X20.183756 Y3.757064 Z-1.000000 I0.091140 J-0.099287
G02 X20.247190 Y3.741263 Z-1.000000 I0.011858 J-0.087624
G01 X20.253484 Y3.713787 Z-1.000000
G02 X20.216130 Y3.684063 Z-1.000000 I-0.053716 J0.029171
G02 X20.156841 Y3.675412 Z-1.000000 I-0.063799 J0.229752
G01 X20.131620 Y3.682463 Z-1.000000
G01 X20.131620 Y3.682503 Z-1.000000
G00 Z5.000000

(End cutting path id: path71381)


(Start cutting path id: path71381)
(Change tool to Default tool)

G00 Z5.000000
G00 X19.780756 Y3.710873

G01 Z-1.000000 F100.0(Penetrate)
G01 X19.780708 Y3.719810 Z-1.000000 F3500.000000
G01 X19.771956 Y3.724593 Z-1.000000
G01 X19.754686 Y3.724593 Z-1.000000
G01 X19.770226 Y3.740133 Z-1.000000
G01 X19.808053 Y3.747282 Z-1.000000
G01 X19.820206 Y3.718253 Z-1.000000
G01 X19.808362 Y3.702575 Z-1.000000
G01 X19.792186 Y3.697153 Z-1.000000
G01 X19.781348 Y3.702235 Z-1.000000
G01 X19.780746 Y3.710873 Z-1.000000
G01 X19.780756 Y3.710873 Z-1.000000
G00 Z5.000000

(End cutting path id: path71381)


(Start cutting path id: path71381)
(Change tool to Default tool)

G00 Z5.000000
G00 X20.305478 Y4.899658

G01 Z-1.000000 F100.0(Penetrate)
G01 X20.322603 Y4.902988 Z-1.000000 F3500.000000
G01 X20.339778 Y4.899658 Z-1.000000
G01 X20.322628 Y4.892758 Z-1.000000
G01 X20.305478 Y4.899658 Z-1.000000
G01 X20.305478 Y4.899658 Z-1.000000
G00 Z5.000000

(End cutting path id: path71381)


(Start cutting path id: path71381)
(Change tool to Default tool)

G00 Z5.000000
G00 X20.512132 Y5.256803

G01 Z-1.000000 F100.0(Penetrate)
G01 X20.529244 Y5.259757 Z-1.000000 F3500.000000
G01 X20.538422 Y5.255703 Z-1.000000
G01 X20.537538 Y5.251419 Z-1.000000
G01 X20.520412 Y5.248503 Z-1.000000
G01 X20.511239 Y5.252524 Z-1.000000
G01 X20.512112 Y5.256803 Z-1.000000
G01 X20.512132 Y5.256803 Z-1.000000
G00 Z5.000000

(End cutting path id: path71381)


(Start cutting path id: path71381)
(Change tool to Default tool)

G00 Z5.000000
G00 X21.197351 Y4.763088

G01 Z-1.000000 F100.0(Penetrate)
G02 X21.228271 Y4.765985 Z-1.000000 I0.030243 J-0.156349 F3500.000000
G02 X21.252221 Y4.762811 Z-1.000000 I-0.000404 J-0.094999
G01 X21.221191 Y4.756811 Z-1.000000
G01 X21.197341 Y4.763011 Z-1.000000
G01 X21.197351 Y4.763088 Z-1.000000
G00 Z5.000000

(End cutting path id: path71381)


(Start cutting path id: path71381)
(Change tool to Default tool)

G00 Z5.000000
G00 X22.062336 Y4.639324

G01 Z-1.000000 F100.0(Penetrate)
G01 X22.079448 Y4.642278 Z-1.000000 F3500.000000
G01 X22.088626 Y4.638224 Z-1.000000
G01 X22.087743 Y4.633940 Z-1.000000
G01 X22.070616 Y4.631024 Z-1.000000
G01 X22.061443 Y4.635046 Z-1.000000
G01 X22.062316 Y4.639324 Z-1.000000
G01 X22.062336 Y4.639324 Z-1.000000
G00 Z5.000000

(End cutting path id: path71381)


(Start cutting path id: path71381)
(Change tool to Default tool)

G00 Z5.000000
G00 X22.106064 Y4.630784

G01 Z-1.000000 F100.0(Penetrate)
G01 X22.110440 Y4.637474 Z-1.000000 F3500.000000
G01 X22.119784 Y4.636784 Z-1.000000
G02 X22.131522 Y4.627205 Z-1.000000 I-0.032348 J-0.051619
G01 X22.133504 Y4.622254 Z-1.000000
G01 X22.131124 Y4.618619 Z-1.000000
G01 X22.119784 Y4.616254 Z-1.000000
G01 X22.110236 Y4.620349 Z-1.000000
G01 X22.106064 Y4.630784 Z-1.000000
G01 X22.106064 Y4.630784 Z-1.000000
G00 Z5.000000

(End cutting path id: path71381)


(Start cutting path id: path71381)
(Change tool to Default tool)

G00 Z5.000000
G00 X22.001841 Y4.083380

G01 Z-1.000000 F100.0(Penetrate)
G01 X22.004102 Y4.090324 Z-1.000000 F3500.000000
G01 X22.021611 Y4.091480 Z-1.000000
G01 X22.043506 Y4.093794 Z-1.000000
G01 X22.051401 Y4.106470 Z-1.000000
G01 X22.051611 Y4.129190 Z-1.000000
G01 X22.064911 Y4.108610 Z-1.000000
G02 X22.076280 Y4.087443 Z-1.000000 I-0.126572 J-0.081623
G01 X22.078421 Y4.077740 Z-1.000000
G01 X22.052159 Y4.052825 Z-1.000000
G02 X22.001841 Y4.083340 Z-1.000000 I0.004720 J0.064526
G01 X22.001841 Y4.083380 Z-1.000000
G00 Z5.000000

(End cutting path id: path71381)


(Start cutting path id: path71381)
(Change tool to Default tool)

G00 Z5.000000
G00 X22.119785 Y3.998910

G01 Z-1.000000 F100.0(Penetrate)
G03 X22.097962 Y4.008261 Z-1.000000 I-0.038492 J-0.059689 F3500.000000
G03 X22.058055 Y4.013790 Z-1.000000 I-0.047718 J-0.197640
G01 X22.016895 Y4.015390 Z-1.000000
G01 X22.051195 Y4.026370 Z-1.000000
G02 X22.133220 Y4.039184 Z-1.000000 I0.082025 J-0.256129
G01 X22.140365 Y4.026370 Z-1.000000
G01 X22.139712 Y4.017029 Z-1.000000
G01 X22.146465 Y4.012650 Z-1.000000
G01 X22.156878 Y4.008501 Z-1.000000
G01 X22.160995 Y3.998930 Z-1.000000
G01 X22.151619 Y3.989554 Z-1.000000
G02 X22.119835 Y3.998930 Z-1.000000 I0.000000 J0.058559
G01 X22.119785 Y3.998910 Z-1.000000
G00 Z5.000000

(End cutting path id: path71381)


(Start cutting path id: path71381)
(Change tool to Default tool)

G00 Z5.000000
G00 X22.140365 Y3.944040

G01 Z-1.000000 F100.0(Penetrate)
G01 X22.139542 Y3.952523 Z-1.000000 F3500.000000
G01 X22.127455 Y3.957760 Z-1.000000
G01 X22.110901 Y3.952898 Z-1.000000
G01 X22.106065 Y3.944040 Z-1.000000
G01 X22.109936 Y3.934240 Z-1.000000
G01 X22.118975 Y3.930320 Z-1.000000
G01 X22.130076 Y3.933584 Z-1.000000
G01 X22.140365 Y3.944040 Z-1.000000
G01 X22.140365 Y3.944040 Z-1.000000
G00 Z5.000000

(End cutting path id: path71381)


(Start cutting path id: path71381)
(Change tool to Default tool)

G00 Z5.000000
G00 X22.064915 Y3.936540

G01 Z-1.000000 F100.0(Penetrate)
G03 X22.057881 Y3.966111 Z-1.000000 I-0.065677 J-0.000000 F3500.000000
G01 X22.040905 Y3.984140 Z-1.000000
G01 X22.016895 Y3.998120 Z-1.000000
G01 X22.040905 Y3.998537 Z-1.000000
G01 X22.059648 Y3.993621 Z-1.000000
G01 X22.064915 Y3.984427 Z-1.000000
G01 X22.069320 Y3.977835 Z-1.000000
G01 X22.078965 Y3.978627 Z-1.000000
G02 X22.145628 Y3.985680 Z-1.000000 I0.040664 J-0.065779
G01 X22.174655 Y3.944497 Z-1.000000
G01 X22.159156 Y3.918461 Z-1.000000
G02 X22.098085 Y3.902967 Z-1.000000 I-0.061071 J0.112613
G01 X22.064915 Y3.902967 Z-1.000000
G01 X22.064915 Y3.936540 Z-1.000000
G00 Z5.000000

(End cutting path id: path71381)


(Start cutting path id: path71381)
(Change tool to Default tool)

G00 Z5.000000
G00 X22.114825 Y3.827473

G01 Z-1.000000 F100.0(Penetrate)
G02 X22.124177 Y3.845914 Z-1.000000 I0.091084 J-0.034599 F3500.000000
G01 X22.128115 Y3.848053 Z-1.000000
G01 X22.131192 Y3.845672 Z-1.000000
G02 X22.133515 Y3.827473 Z-1.000000 I-0.070138 J-0.018199
G01 X22.128818 Y3.811568 Z-1.000000
G01 X22.120225 Y3.806893 Z-1.000000
G01 X22.113962 Y3.811735 Z-1.000000
G01 X22.114825 Y3.827473 Z-1.000000
G01 X22.114825 Y3.827473 Z-1.000000
G00 Z5.000000

(End cutting path id: path71381)


(Start cutting path id: path71381)
(Change tool to Default tool)

G00 Z5.000000
G00 X22.032325 Y3.800303

G01 Z-1.000000 F100.0(Penetrate)
G01 X22.023832 Y3.837159 Z-1.000000 F3500.000000
G01 X22.064485 Y3.861773 Z-1.000000
G02 X22.100334 Y3.855999 Z-1.000000 I0.000000 J-0.114166
G01 X22.106075 Y3.848053 Z-1.000000
G01 X22.100706 Y3.839726 Z-1.000000
G02 X22.075205 Y3.834123 Z-1.000000 I-0.025945 J0.057257
G01 X22.044335 Y3.833913 Z-1.000000
G01 X22.064795 Y3.820973 Z-1.000000
G01 X22.075067 Y3.806945 Z-1.000000
G01 X22.071695 Y3.794673 Z-1.000000
G01 X22.057434 Y3.790018 Z-1.000000
G02 X22.032365 Y3.800273 Z-1.000000 I0.007942 J0.055184
G01 X22.032325 Y3.800303 Z-1.000000
G00 Z5.000000

(End cutting path id: path71381)


(Start cutting path id: path71381)
(Change tool to Default tool)

G00 Z5.000000
G00 X22.146951 Y3.628063

G01 Z-1.000000 F100.0(Penetrate)
G01 X22.164730 Y3.645911 Z-1.000000 F3500.000000
G01 X22.182131 Y3.647023 Z-1.000000
G01 X22.202901 Y3.639023 Z-1.000000
G01 X22.178491 Y3.620503 Z-1.000000
G01 X22.152763 Y3.615081 Z-1.000000
G01 X22.146951 Y3.628003 Z-1.000000
G01 X22.146951 Y3.628063 Z-1.000000
G00 Z5.000000

(End cutting path id: path71381)


(Start cutting path id: path71381)
(Change tool to Default tool)

G00 Z5.000000
G00 X22.174941 Y3.594613

G01 Z-1.000000 F100.0(Penetrate)
G02 X22.192542 Y3.609947 Z-1.000000 I0.055221 J-0.045617 F3500.000000
G01 X22.198571 Y3.609243 Z-1.000000
G01 X22.200157 Y3.587797 Z-1.000000
G01 X22.172171 Y3.573703 Z-1.000000
G01 X22.167914 Y3.578558 Z-1.000000
G01 X22.174971 Y3.594613 Z-1.000000
G01 X22.174941 Y3.594613 Z-1.000000
G00 Z5.000000

(End cutting path id: path71381)


(Start cutting path id: path71381)
(Change tool to Default tool)

G00 Z5.000000
G00 X22.119798 Y3.450213

G01 Z-1.000000 F100.0(Penetrate)
G01 X22.120669 Y3.457229 Z-1.000000 F3500.000000
G02 X22.159648 Y3.463723 Z-1.000000 I0.039397 J-0.116237
G01 X22.220078 Y3.463933 Z-1.000000
G01 X22.193948 Y3.493693 Z-1.000000
G01 X22.167818 Y3.523453 Z-1.000000
G01 X22.192948 Y3.514253 Z-1.000000
G03 X22.218220 Y3.505863 Z-1.000000 I0.139701 J0.378562
G01 X22.223818 Y3.505053 Z-1.000000
G01 X22.227027 Y3.502465 Z-1.000000
G02 X22.229518 Y3.479213 Z-1.000000 I-0.107279 J-0.023252
G01 X22.197643 Y3.437804 Z-1.000000
G02 X22.119769 Y3.450173 Z-1.000000 I-0.024947 J0.094257
G01 X22.119798 Y3.450213 Z-1.000000
G00 Z5.000000

(End cutting path id: path71381)


(Start cutting path id: path71381)
(Change tool to Default tool)

G00 Z5.000000
G00 X22.096048 Y3.404843

G01 Z-1.000000 F100.0(Penetrate)
G02 X22.120110 Y3.407757 Z-1.000000 I0.022690 J-0.086545 F3500.000000
G01 X22.137208 Y3.404335 Z-1.000000
G01 X22.112938 Y3.398035 Z-1.000000
G01 X22.096048 Y3.404835 Z-1.000000
G01 X22.096048 Y3.404843 Z-1.000000
G00 Z5.000000

(End cutting path id: path71381)


(Start cutting path id: path71381)
(Change tool to Default tool)

G00 Z5.000000
G00 X22.167968 Y3.326993

G01 Z-1.000000 F100.0(Penetrate)
G01 X22.166439 Y3.337791 Z-1.000000 F3500.000000
G03 X22.131048 Y3.360753 Z-1.000000 I-0.086249 J-0.094178
G01 X22.132381 Y3.370526 Z-1.000000
G02 X22.172618 Y3.366553 Z-1.000000 I0.011896 J-0.085260
G01 X22.203358 Y3.333817 Z-1.000000
G01 X22.187578 Y3.313023 Z-1.000000
G01 X22.169634 Y3.318755 Z-1.000000
G01 X22.167968 Y3.326993 Z-1.000000
G01 X22.167968 Y3.326993 Z-1.000000
G00 Z5.000000

(End cutting path id: path71381)


(Start cutting path id: path71381)
(Change tool to Default tool)

G00 Z5.000000
G00 X22.174668 Y3.285583

G01 Z-1.000000 F100.0(Penetrate)
G01 X22.154088 Y3.298883 Z-1.000000 F3500.000000
G01 X22.197868 Y3.299093 Z-1.000000
G01 X22.229215 Y3.321299 Z-1.000000
G01 X22.219688 Y3.360203 Z-1.000000
G01 X22.221004 Y3.373926 Z-1.000000
G01 X22.243158 Y3.374803 Z-1.000000
G02 X22.272317 Y3.337260 Z-1.000000 I-0.026020 J-0.050305
G02 X22.263798 Y3.285533 Z-1.000000 I-0.067089 J-0.015516
G01 X22.232973 Y3.268360 Z-1.000000
G02 X22.174658 Y3.285585 Z-1.000000 I0.000063 J0.107536
G01 X22.174668 Y3.285583 Z-1.000000
G00 Z5.000000

(End cutting path id: path71381)


(Start cutting path id: path71381)
(Change tool to Default tool)

G00 Z5.000000
G00 X22.074923 Y3.142983

G01 Z-1.000000 F100.0(Penetrate)
G01 X22.065698 Y3.147002 Z-1.000000 F3500.000000
G01 X22.048633 Y3.144083 Z-1.000000
G01 X22.047763 Y3.139813 Z-1.000000
G01 X22.056933 Y3.135783 Z-1.000000
G01 X22.074046 Y3.138696 Z-1.000000
G01 X22.074943 Y3.142983 Z-1.000000
G01 X22.074923 Y3.142983 Z-1.000000
G00 Z5.000000

(End cutting path id: path71381)


(Start cutting path id: path71381)
(Change tool to Default tool)

G00 Z5.000000
G00 X22.080062 Y3.037434

G01 Z-1.000000 F100.0(Penetrate)
G01 X22.065471 Y3.072044 Z-1.000000 F3500.000000
G01 X22.091922 Y3.093484 Z-1.000000
G01 X22.100714 Y3.089394 Z-1.000000
G01 X22.102642 Y3.080734 Z-1.000000
G01 X22.104579 Y3.069820 Z-1.000000
G03 X22.126652 Y3.046874 Z-1.000000 I0.087136 J0.061732
G01 X22.154092 Y3.025764 Z-1.000000
G01 X22.126652 Y3.025538 Z-1.000000
G02 X22.100208 Y3.028737 Z-1.000000 I-0.000860 J0.103784
G02 X22.080072 Y3.037438 Z-1.000000 I0.017098 J0.067218
G01 X22.080062 Y3.037434 Z-1.000000
G00 Z5.000000

(End cutting path id: path71381)


(Start cutting path id: path71381)
(Change tool to Default tool)

G00 Z5.000000
G00 X22.156373 Y3.047813

G01 Z-1.000000 F100.0(Penetrate)
G01 X22.150578 Y3.058286 Z-1.000000 F3500.000000
G02 X22.147273 Y3.087503 Z-1.000000 I0.127472 J0.029217
G03 X22.140717 Y3.113576 Z-1.000000 I-0.055122 J-0.000000
G01 X22.126693 Y3.125943 Z-1.000000
G01 X22.110554 Y3.127388 Z-1.000000
G01 X22.106113 Y3.122043 Z-1.000000
G01 X22.086289 Y3.096935 Z-1.000000
G02 X22.019383 Y3.101373 Z-1.000000 I-0.026288 J0.110243
G01 X21.989722 Y3.134723 Z-1.000000
G01 X22.000693 Y3.174713 Z-1.000000
G02 X22.044374 Y3.193020 Z-1.000000 I0.044201 J-0.044201
G02 X22.087333 Y3.175438 Z-1.000000 I0.000500 J-0.060052
G01 X22.093604 Y3.176945 Z-1.000000
G03 X22.095633 Y3.201068 Z-1.000000 I-0.050511 J0.016395
G01 X22.089833 Y3.240848 Z-1.000000
G01 X22.126053 Y3.249948 Z-1.000000
G02 X22.173033 Y3.245885 Z-1.000000 I0.017600 J-0.070134
G01 X22.188443 Y3.222168 Z-1.000000
G01 X22.181411 Y3.211093 Z-1.000000
G01 X22.162163 Y3.209818 Z-1.000000
G03 X22.138335 Y3.211487 Z-1.000000 I-0.015351 J-0.048222
G01 X22.127053 Y3.203918 Z-1.000000
G01 X22.131205 Y3.193260 Z-1.000000
G03 X22.179653 Y3.189178 Z-1.000000 I0.034879 J0.124423
G01 X22.194449 Y3.185126 Z-1.000000
G01 X22.195993 Y3.177038 Z-1.000000
G01 X22.183883 Y3.167344 Z-1.000000
G02 X22.149903 Y3.161338 Z-1.000000 I-0.036619 J0.108043
G01 X22.112983 Y3.160469 Z-1.000000
G01 X22.142223 Y3.148659 Z-1.000000
G01 X22.163106 Y3.130456 Z-1.000000
G02 X22.177193 Y3.087799 Z-1.000000 I-0.096651 J-0.055574
G02 X22.170243 Y3.050010 Z-1.000000 I-0.064903 J-0.007597
G01 X22.156423 Y3.047889 Z-1.000000
G01 X22.156373 Y3.047813 Z-1.000000
G00 Z5.000000

(End cutting path id: path71381)


(Start cutting path id: path71381)
(Change tool to Default tool)

G00 Z5.000000
G00 X22.158041 Y2.915312

G01 Z-1.000000 F100.0(Penetrate)
G02 X22.167788 Y2.954213 Z-1.000000 I0.196156 J-0.028478 F3500.000000
G01 X22.175451 Y2.963642 Z-1.000000
G01 X22.181577 Y2.960265 Z-1.000000
G02 X22.176231 Y2.884272 Z-1.000000 I-0.472937 J-0.004914
G01 X22.172010 Y2.877001 Z-1.000000
G01 X22.163321 Y2.873982 Z-1.000000
G01 X22.157726 Y2.878902 Z-1.000000
G02 X22.158021 Y2.915302 Z-1.000000 I0.132999 J0.017125
G01 X22.158041 Y2.915312 Z-1.000000
G00 Z5.000000

(End cutting path id: path71381)


(Start cutting path id: path71381)
(Change tool to Default tool)

G00 Z5.000000
G00 X22.097741 Y2.895692

G01 Z-1.000000 F100.0(Penetrate)
G03 X22.103600 Y2.917851 Z-1.000000 I-0.097826 J0.037720 F3500.000000
G03 X22.106041 Y2.950562 Z-1.000000 I-0.217954 J0.032711
G01 X22.113439 Y2.976293 Z-1.000000
G01 X22.126881 Y2.983732 Z-1.000000
G01 X22.147721 Y2.983732 Z-1.000000
G01 X22.139421 Y2.946002 Z-1.000000
G02 X22.117359 Y2.881788 Z-1.000000 I-0.288283 J0.063149
G01 X22.104971 Y2.873982 Z-1.000000
G01 X22.097352 Y2.879453 Z-1.000000
G01 X22.097671 Y2.895682 Z-1.000000
G01 X22.097741 Y2.895692 Z-1.000000
G00 Z5.000000

(End cutting path id: path71381)


(Start cutting path id: path71381)
(Change tool to Default tool)

G00 Z5.000000
G00 X22.126325 Y2.736270

G01 Z-1.000000 F100.0(Penetrate)
G01 X22.124417 Y2.745626 Z-1.000000 F3500.000000
G03 X22.089405 Y2.762470 Z-1.000000 I-0.067252 J-0.094980
G01 X22.044325 Y2.775470 Z-1.000000
G01 X22.094305 Y2.776670 Z-1.000000
G02 X22.138759 Y2.769665 Z-1.000000 I0.003094 J-0.124911
G01 X22.152605 Y2.756210 Z-1.000000
G01 X22.152499 Y2.731862 Z-1.000000
G01 X22.139545 Y2.723040 Z-1.000000
G01 X22.127283 Y2.728099 Z-1.000000
G01 X22.126315 Y2.736240 Z-1.000000
G01 X22.126325 Y2.736270 Z-1.000000
G00 Z5.000000

(End cutting path id: path71381)


(Start cutting path id: path71381)
(Change tool to Default tool)

G00 Z5.000000
G00 X22.059525 Y2.717330

G01 Z-1.000000 F100.0(Penetrate)
G01 X22.061341 Y2.740505 Z-1.000000 F3500.000000
G01 X22.078635 Y2.750500 Z-1.000000
G01 X22.100850 Y2.745244 Z-1.000000
G01 X22.106075 Y2.736780 Z-1.000000
G01 X22.101980 Y2.727232 Z-1.000000
G01 X22.091545 Y2.723060 Z-1.000000
G01 X22.084855 Y2.718684 Z-1.000000
G01 X22.085545 Y2.709340 Z-1.000000
G01 X22.086680 Y2.699742 Z-1.000000
G01 X22.080945 Y2.695620 Z-1.000000
G01 X22.070777 Y2.699885 Z-1.000000
G02 X22.059555 Y2.717320 Z-1.000000 I0.036419 J0.035770
G01 X22.059525 Y2.717330 Z-1.000000
G00 Z5.000000

(End cutting path id: path71381)


(Start cutting path id: path71381)
(Change tool to Default tool)

G00 Z5.000000
G00 X22.229540 Y2.661360

G01 Z-1.000000 F100.0(Penetrate)
G03 X22.194263 Y2.677439 Z-1.000000 I-0.105173 J-0.184003 F3500.000000
G03 X22.172050 Y2.681450 Z-1.000000 I-0.023737 J-0.067949
G01 X22.151441 Y2.686452 Z-1.000000
G01 X22.139200 Y2.697550 Z-1.000000
G01 X22.159229 Y2.725121 Z-1.000000
G02 X22.263461 Y2.667250 Z-1.000000 I-0.053413 J-0.219004
G01 X22.259972 Y2.656017 Z-1.000000
G01 X22.229541 Y2.661350 Z-1.000000
G01 X22.229540 Y2.661360 Z-1.000000
G00 Z5.000000

(End cutting path id: path71381)


(Start cutting path id: path71381)
(Change tool to Default tool)

G00 Z5.000000
G00 X22.290890 Y2.668860

G01 Z-1.000000 F100.0(Penetrate)
G03 X22.280156 Y2.681588 Z-1.000000 I-0.048811 J-0.030275 F3500.000000
G03 X22.213400 Y2.737450 Z-1.000000 I-1.033369 J-1.167067
G01 X22.144770 Y2.791700 Z-1.000000
G01 X22.067120 Y2.791910 Z-1.000000
G02 X22.011228 Y2.798529 Z-1.000000 I0.000661 J0.244875
G01 X22.010050 Y2.805420 Z-1.000000
G02 X22.032135 Y2.813620 Z-1.000000 I0.029617 J-0.045927
G02 X22.107270 Y2.818930 Z-1.000000 I0.076719 J-0.551339
G01 X22.183910 Y2.819140 Z-1.000000
G01 X22.254740 Y2.750150 Z-1.000000
G02 X22.320163 Y2.667837 Z-1.000000 I-0.289682 J-0.297397
G01 X22.312660 Y2.654520 Z-1.000000
G01 X22.301586 Y2.657854 Z-1.000000
G01 X22.290880 Y2.668870 Z-1.000000
G01 X22.290890 Y2.668860 Z-1.000000
G00 Z5.000000

(End cutting path id: path71381)


(Start cutting path id: path71381)
(Change tool to Default tool)

G00 Z5.000000
G00 X22.421601 Y2.561021

G01 Z-1.000000 F100.0(Penetrate)
G01 X22.425757 Y2.575578 Z-1.000000 F3500.000000
G02 X22.451621 Y2.609241 Z-1.000000 I0.182561 J-0.113496
G01 X22.481641 Y2.641201 Z-1.000000
G01 X22.428261 Y2.695871 Z-1.000000
G03 X22.372065 Y2.743849 Z-1.000000 I-0.291962 J-0.285069
G01 X22.351031 Y2.750541 Z-1.000000
G02 X22.329476 Y2.754640 Z-1.000000 I0.000000 J0.058721
G01 X22.319501 Y2.762981 Z-1.000000
G01 X22.315511 Y2.776380 Z-1.000000
G02 X22.312401 Y3.040784 Z-1.000000 I9.566097 J0.244735
G03 X22.299626 Y3.448058 Z-1.000000 I-6.056846 J0.013849
G03 X22.283461 Y3.485378 Z-1.000000 I-0.060212 J-0.003919
G02 X22.258483 Y3.545746 Z-1.000000 I0.067682 J0.063356
G02 X22.279661 Y3.603451 Z-1.000000 I0.082001 J0.002644
G01 X22.302361 Y3.628541 Z-1.000000
G01 X22.279661 Y3.653631 Z-1.000000
G02 X22.250766 Y3.728265 Z-1.000000 I0.082855 J0.074988
G02 X22.279138 Y3.818731 Z-1.000000 I0.156829 J0.000497
G03 X22.293080 Y3.852287 Z-1.000000 I-0.068993 J0.048340
G03 X22.293448 Y3.898941 Z-1.000000 I-0.136924 J0.024409
G03 X22.256184 Y3.972089 Z-1.000000 I-0.132673 J-0.021523
G03 X22.205168 Y3.987911 Z-1.000000 I-0.040392 J-0.040079
G01 X22.167788 Y3.980811 Z-1.000000
G01 X22.184198 Y4.000691 Z-1.000000
G01 X22.194017 Y4.022484 Z-1.000000
G03 X22.194878 Y4.068061 Z-1.000000 I-0.162573 J0.025868
G01 X22.196778 Y4.098411 Z-1.000000
G01 X22.214869 Y4.093833 Z-1.000000
G01 X22.229548 Y4.123701 Z-1.000000
G02 X22.238698 Y4.159104 Z-1.000000 I0.073067 J0.000000
G01 X22.256988 Y4.173321 Z-1.000000
G01 X22.284428 Y4.180521 Z-1.000000
G01 X22.284428 Y4.239841 Z-1.000000
G02 X22.290075 Y4.296045 Z-1.000000 I0.282514 J0.000000
G01 X22.298148 Y4.307641 Z-1.000000
G03 X22.322270 Y4.357159 Z-1.000000 I-0.027074 J0.043823
G03 X22.284428 Y4.431109 Z-1.000000 I-0.116498 J-0.012957
G01 X22.256988 Y4.455939 Z-1.000000
G01 X22.256988 Y4.535319 Z-1.000000
G02 X22.262913 Y4.611417 Z-1.000000 I0.491616 J-0.000000
G01 X22.270708 Y4.623179 Z-1.000000
G01 X22.278894 Y4.634737 Z-1.000000
G03 X22.284428 Y4.684499 Z-1.000000 I-0.220973 J0.049762
G01 X22.284428 Y4.737349 Z-1.000000
G01 X22.325078 Y4.771549 Z-1.000000
G02 X22.366925 Y4.803598 Z-1.000000 I0.370513 J-0.440440
G02 X22.382118 Y4.811219 Z-1.000000 I0.034089 J-0.049007
G01 X22.391939 Y4.821259 Z-1.000000
G03 X22.397268 Y4.860309 Z-1.000000 I-0.115337 J0.035629
G02 X22.400314 Y4.901607 Z-1.000000 I0.203186 J0.005776
G01 X22.406168 Y4.910229 Z-1.000000
G01 X22.417168 Y4.913883 Z-1.000000
G02 X22.516247 Y4.919429 Z-1.000000 I0.152966 J-1.844778
G01 X22.616137 Y4.922329 Z-1.000000
G01 X22.608637 Y4.964799 Z-1.000000
G03 X22.600851 Y5.007211 Z-1.000000 I-2.721348 J-0.477634
G03 X22.592567 Y5.048729 Z-1.000000 I-2.734899 J-0.524135
G01 X22.583967 Y5.090189 Z-1.000000
G01 X22.609077 Y5.112199 Z-1.000000
G02 X22.744322 Y5.170066 Z-1.000000 I0.156310 J-0.178345
G02 X22.845647 Y5.133279 Z-1.000000 I0.011307 J-0.126792
G01 X22.860106 Y5.129150 Z-1.000000
G03 X22.886177 Y5.142779 Z-1.000000 I-0.013369 J0.057326
G01 X22.912457 Y5.166569 Z-1.000000
G01 X23.084677 Y5.162769 Z-1.000000
G03 X23.254966 Y5.163723 Z-1.000000 I0.067977 J3.066090
G01 X23.266784 Y5.168869 Z-1.000000
G01 X23.264909 Y5.173857 Z-1.000000
G03 X23.113189 Y5.178969 Z-1.000000 I-0.154312 J-2.325806
G02 X22.951430 Y5.185005 Z-1.000000 I0.002875 J2.247436
G01 X22.929131 Y5.192479 Z-1.000000
G01 X22.930751 Y5.199269 Z-1.000000
G02 X23.052599 Y5.205869 Z-1.000000 I0.122546 J-1.134319
G02 X23.323627 Y5.190950 Z-1.000000 I0.001534 J-2.441414
G01 X23.331446 Y5.174899 Z-1.000000
G01 X23.334139 Y5.169475 Z-1.000000
G03 X23.362656 Y5.171999 Z-1.000000 I0.007357 J0.079229
G02 X23.743843 Y5.229809 Z-1.000000 I0.435029 J-1.582862
G01 X23.763206 Y5.185149 Z-1.000000
G01 X23.752637 Y5.180306 Z-1.000000
G02 X23.655289 Y5.177149 Z-1.000000 I-0.086598 J1.167930
G01 X23.652402 Y5.168876 Z-1.000000
G01 X23.678149 Y5.159319 Z-1.000000
G02 X24.059055 Y5.128663 Z-1.000000 I-0.291562 J-6.004431
G01 X24.077541 Y5.114369 Z-1.000000
G02 X24.081336 Y5.095979 Z-1.000000 I-0.055132 J-0.020963
G01 X24.078641 Y5.088989 Z-1.000000
G01 X24.071254 Y5.085480 Z-1.000000
G02 X23.943775 Y5.075309 Z-1.000000 I-0.294865 J2.891851
G03 X23.816393 Y5.065156 Z-1.000000 I0.170911 J-2.948422
G01 X23.808865 Y5.061579 Z-1.000000
G03 X23.847027 Y4.970931 Z-1.000000 I0.037549 J-0.037549
G03 X24.451913 Y5.068979 Z-1.000000 I-0.023795 J2.061683
G01 X24.486213 Y5.079959 Z-1.000000
G01 X24.458773 Y5.082159 Z-1.000000
G01 X24.431333 Y5.084359 Z-1.000000
G01 X24.465633 Y5.098449 Z-1.000000
G02 X24.598890 Y5.120161 Z-1.000000 I0.113337 J-0.275824
G02 X24.691203 Y5.083279 Z-1.000000 I-0.010774 J-0.160937
G01 X24.704842 Y5.064588 Z-1.000000
G02 X24.708673 Y5.039809 Z-1.000000 I-0.051339 J-0.020623
