%
(Header)
(Generated by gcodetools from Inkscape.)
(Using default header. To add your own header create file "header" in the output dir.)
M3
(Header end.)
G21 (All units in mm)

(Start cutting path id: path52098)
(Change tool to Default tool)

G00 Z 5.0000
G00 X 19.9859 Y 12.5793

G01 Z -1.0000 F 100.0000(Penetrate)
G03 X 19.9360 Y 12.5849 Z -1.0000 I -0.0739 J -0.4385 F 3500.0000
G03 X 19.7894 Y 12.5899 Z -1.0000 I -0.2020 J -3.7257
G02 X 19.4579 Y 12.6104 Z -1.0000 I 0.0539 J 3.5578
G02 X 19.3757 Y 12.6350 Z -1.0000 I 0.0257 J 0.2363
G01 X 19.3549 Y 12.6393 Z -1.0000
G01 X 19.3444 Y 12.6331 Z -1.0000
G01 X 19.3234 Y 12.6235 Z -1.0000
G01 X 19.3105 Y 12.6386 Z -1.0000
G01 X 19.3033 Y 12.6496 Z -1.0000
G03 X 19.2754 Y 12.6538 Z -1.0000 I -0.0219 J -0.0503
G02 X 19.2405 Y 12.6534 Z -1.0000 I -0.0195 J 0.1793
G02 X 19.1898 Y 12.6613 Z -1.0000 I 0.0320 J 0.3717
G03 X 19.1389 Y 12.6685 Z -1.0000 I -0.0711 J -0.3182
G03 X 18.8838 Y 12.6802 Z -1.0000 I -0.4909 J -7.9205
G02 X 18.6306 Y 12.6940 Z -1.0000 I 0.1524 J 5.1264
G01 X 18.6113 Y 12.7019 Z -1.0000
G03 X 18.5929 Y 12.7123 Z -1.0000 I -0.0383 J -0.0462
G03 X 18.5609 Y 12.7195 Z -1.0000 I -0.0470 J -0.1342
G02 X 18.5159 Y 12.7358 Z -1.0000 I 0.0107 J 0.0998
G02 X 18.4128 Y 12.8184 Z -1.0000 I 0.4233 J 0.6343
G02 X 18.3930 Y 12.8603 Z -1.0000 I 0.0448 J 0.0469
G01 X 18.4083 Y 12.8769 Z -1.0000
G01 X 18.4242 Y 12.8814 Z -1.0000
G01 X 18.4325 Y 12.8919 Z -1.0000
G01 X 18.4633 Y 12.9144 Z -1.0000
G02 X 18.8092 Y 12.8989 Z -1.0000 I 0.0508 J -2.7240
G02 X 18.9096 Y 12.8820 Z -1.0000 I -0.0945 J -0.8660
G02 X 19.0375 Y 12.8465 Z -1.0000 I -0.3303 J -1.4391
G03 X 19.1660 Y 12.8186 Z -1.0000 I 0.2001 J 0.6127
G03 X 19.3288 Y 12.8139 Z -1.0000 I 0.1100 J 0.9843
G03 X 19.4928 Y 12.8279 Z -1.0000 I -0.1357 J 2.5596
G03 X 19.5883 Y 12.8444 Z -1.0000 I -0.1055 J 0.8966
G02 X 19.6834 Y 12.8651 Z -1.0000 I 1.0803 J -4.7283
G02 X 19.7426 Y 12.8764 Z -1.0000 I 0.3778 J -1.8211
G03 X 19.7976 Y 12.8928 Z -1.0000 I -0.0419 J 0.2402
G01 X 19.8134 Y 12.9071 Z -1.0000
G01 X 19.8286 Y 12.9193 Z -1.0000
G02 X 19.8590 Y 12.9209 Z -1.0000 I 0.0185 J -0.0608
G01 X 19.8808 Y 12.9313 Z -1.0000
G01 X 19.8743 Y 12.9490 Z -1.0000
G02 X 19.8395 Y 13.0011 Z -1.0000 I 0.0194 J 0.0506
G02 X 19.8777 Y 13.0760 Z -1.0000 I 0.0977 J -0.0026
G01 X 19.8897 Y 13.0932 Z -1.0000
G01 X 19.8865 Y 13.1036 Z -1.0000
G01 X 19.8778 Y 13.1165 Z -1.0000
G02 X 19.8714 Y 13.1594 Z -1.0000 I 0.1832 J 0.0492
G01 X 19.8831 Y 13.1892 Z -1.0000
G01 X 19.9087 Y 13.1970 Z -1.0000
G03 X 19.9418 Y 13.1960 Z -1.0000 I 0.0194 J 0.0970
G01 X 19.9474 Y 13.2025 Z -1.0000
G01 X 19.9423 Y 13.2106 Z -1.0000
G03 X 19.9203 Y 13.2157 Z -1.0000 I -0.0220 J -0.0453
G01 X 19.9037 Y 13.2261 Z -1.0000
G02 X 19.8932 Y 13.2717 Z -1.0000 I 0.0940 J 0.0455
G01 X 19.9098 Y 13.3088 Z -1.0000
G01 X 19.9475 Y 13.3204 Z -1.0000
G03 X 20.0415 Y 13.3222 Z -1.0000 I 0.0410 J 0.3075
G01 X 20.0558 Y 13.3392 Z -1.0000
G01 X 20.0505 Y 13.3459 Z -1.0000
G03 X 20.0016 Y 13.3512 Z -1.0000 I -0.0489 J -0.2217
G02 X 19.9534 Y 13.3571 Z -1.0000 I 0.0000 J 0.1989
G01 X 19.9474 Y 13.3647 Z -1.0000
G01 X 19.9533 Y 13.3725 Z -1.0000
G02 X 19.9957 Y 13.3783 Z -1.0000 I 0.0424 J -0.1515
G01 X 20.0050 Y 13.3922 Z -1.0000
G01 X 19.9839 Y 13.4068 Z -1.0000
G01 X 19.9818 Y 13.4122 Z -1.0000
G01 X 19.9982 Y 13.4212 Z -1.0000
G03 X 20.0305 Y 13.4442 Z -1.0000 I -0.0112 J 0.0498
G01 X 20.0220 Y 13.4596 Z -1.0000
G03 X 19.9935 Y 13.4541 Z -1.0000 I -0.0000 J -0.0765
G01 X 19.9881 Y 13.4460 Z -1.0000
G01 X 19.9833 Y 13.4372 Z -1.0000
G01 X 19.9677 Y 13.4325 Z -1.0000
G01 X 19.9599 Y 13.4436 Z -1.0000
G02 X 19.9847 Y 13.4801 Z -1.0000 I 0.0829 J -0.0295
G02 X 20.0244 Y 13.5067 Z -1.0000 I 0.1190 J -0.1353
G02 X 20.0524 Y 13.5134 Z -1.0000 I 0.0290 J -0.0591
G03 X 20.0776 Y 13.5190 Z -1.0000 I -0.0009 J 0.0626
G01 X 20.0829 Y 13.5274 Z -1.0000
G01 X 20.0778 Y 13.5358 Z -1.0000
G01 X 20.0570 Y 13.5409 Z -1.0000
G01 X 20.0312 Y 13.5598 Z -1.0000
G01 X 20.0411 Y 13.5913 Z -1.0000
G01 X 20.0420 Y 13.6009 Z -1.0000
G01 X 20.0261 Y 13.6082 Z -1.0000
G02 X 19.9881 Y 13.6230 Z -1.0000 I 0.0007 J 0.0584
G01 X 19.9914 Y 13.6391 Z -1.0000
G03 X 20.0422 Y 13.7083 Z -1.0000 I -0.0236 J 0.0706
G01 X 19.9938 Y 13.7577 Z -1.0000
G01 X 19.9808 Y 13.7625 Z -1.0000
G01 X 19.9694 Y 13.7786 Z -1.0000
G01 X 19.9575 Y 13.7894 Z -1.0000
G01 X 19.9375 Y 13.7873 Z -1.0000
G02 X 19.9127 Y 13.7778 Z -1.0000 I -0.0587 J 0.1152
G02 X 19.8646 Y 13.7676 Z -1.0000 I -0.1139 J 0.4186
G02 X 19.8231 Y 13.7754 Z -1.0000 I -0.0096 J 0.0630
G02 X 19.7858 Y 13.8130 Z -1.0000 I 0.0500 J 0.0867
G02 X 19.7730 Y 13.8744 Z -1.0000 I 0.0908 J 0.0510
G01 X 19.7938 Y 13.8933 Z -1.0000
G01 X 19.8051 Y 13.8866 Z -1.0000
G01 X 19.8062 Y 13.8709 Z -1.0000
G01 X 19.8062 Y 13.8505 Z -1.0000
G03 X 19.8244 Y 13.8236 Z -1.0000 I 0.0675 J 0.0260
G03 X 19.8542 Y 13.8086 Z -1.0000 I 0.0408 J 0.0439
G03 X 19.9126 Y 13.8072 Z -1.0000 I 0.0335 J 0.1798
G02 X 19.9720 Y 13.8082 Z -1.0000 I 0.0338 J -0.2450
G01 X 19.9945 Y 13.7987 Z -1.0000
G01 X 20.0115 Y 13.7947 Z -1.0000
G01 X 20.0240 Y 13.8056 Z -1.0000
G01 X 20.0240 Y 13.8267 Z -1.0000
G01 X 20.0080 Y 13.8477 Z -1.0000
G01 X 19.9978 Y 13.8612 Z -1.0000
G01 X 20.0012 Y 13.8661 Z -1.0000
G01 X 20.0049 Y 13.8719 Z -1.0000
G03 X 19.9869 Y 13.8966 Z -1.0000 I -0.0730 J -0.0343
G03 X 19.9571 Y 13.9126 Z -1.0000 I -0.0455 J -0.0487
G01 X 19.9449 Y 13.9067 Z -1.0000
G01 X 19.9367 Y 13.9041 Z -1.0000
G01 X 19.9263 Y 13.9169 Z -1.0000
G01 X 19.8916 Y 13.9443 Z -1.0000
G01 X 19.8661 Y 13.9203 Z -1.0000
G01 X 19.8449 Y 13.8974 Z -1.0000
G01 X 19.8052 Y 13.9157 Z -1.0000
G01 X 19.7694 Y 13.9278 Z -1.0000
G03 X 19.7337 Y 13.8945 Z -1.0000 I 0.0155 J -0.0524
G01 X 19.7196 Y 13.8826 Z -1.0000
G01 X 19.6974 Y 13.8876 Z -1.0000
G01 X 19.6886 Y 13.9069 Z -1.0000
G01 X 19.7008 Y 13.9280 Z -1.0000
G03 X 19.7220 Y 13.9534 Z -1.0000 I -0.0365 J 0.0521
G03 X 19.7304 Y 13.9922 Z -1.0000 I -0.0830 J 0.0384
G01 X 19.7243 Y 14.0150 Z -1.0000
G01 X 19.7171 Y 14.0151 Z -1.0000
G01 X 19.7103 Y 14.0165 Z -1.0000
G02 X 19.7038 Y 14.0863 Z -1.0000 I 0.3767 J 0.0706
G03 X 19.7033 Y 14.1777 Z -1.0000 I -17.2445 J -0.0391
G03 X 19.7030 Y 14.1843 Z -1.0000 I -0.0898 J -0.0007
G01 X 19.7018 Y 14.1907 Z -1.0000
G03 X 19.6836 Y 14.2445 Z -1.0000 I -1.8532 J -0.5962
G02 X 19.6739 Y 14.2939 Z -1.0000 I 0.1637 J 0.0578
G01 X 19.6807 Y 14.3046 Z -1.0000
G01 X 19.6833 Y 14.3089 Z -1.0000
G01 X 19.6798 Y 14.3122 Z -1.0000
G01 X 19.6684 Y 14.3185 Z -1.0000
G01 X 19.6624 Y 14.3370 Z -1.0000
G03 X 19.6424 Y 14.3969 Z -1.0000 I -0.1052 J -0.0019
G01 X 19.6175 Y 14.3988 Z -1.0000
G01 X 19.6127 Y 14.3998 Z -1.0000
G02 X 19.6087 Y 14.4194 Z -1.0000 I 0.0462 J 0.0196
G01 X 19.6020 Y 14.4421 Z -1.0000
G01 X 19.5899 Y 14.4487 Z -1.0000
G01 X 19.5697 Y 14.4634 Z -1.0000
G02 X 19.5532 Y 14.5605 Z -1.0000 I 0.3147 J 0.1032
G01 X 19.5484 Y 14.5798 Z -1.0000
G01 X 19.5411 Y 14.5842 Z -1.0000
G01 X 19.5327 Y 14.5801 Z -1.0000
G03 X 19.5232 Y 14.5605 Z -1.0000 I 0.0443 J -0.0336
G01 X 19.5154 Y 14.5804 Z -1.0000
G02 X 19.5235 Y 14.6106 Z -1.0000 I 0.0529 J 0.0019
G01 X 19.5375 Y 14.6154 Z -1.0000
G01 X 19.5430 Y 14.6192 Z -1.0000
G01 X 19.5375 Y 14.6338 Z -1.0000
G02 X 19.5175 Y 14.6623 Z -1.0000 I 0.1220 J 0.1069
G01 X 19.5138 Y 14.6768 Z -1.0000
G01 X 19.5090 Y 14.6879 Z -1.0000
G01 X 19.4969 Y 14.6929 Z -1.0000
G01 X 19.4937 Y 14.6970 Z -1.0000
G01 X 19.4999 Y 14.7057 Z -1.0000
G01 X 19.5118 Y 14.7191 Z -1.0000
G01 X 19.5104 Y 14.7277 Z -1.0000
G01 X 19.5006 Y 14.7304 Z -1.0000
G03 X 19.4803 Y 14.7200 Z -1.0000 I 0.0130 J -0.0507
G01 X 19.4596 Y 14.7126 Z -1.0000
G01 X 19.4390 Y 14.7200 Z -1.0000
G01 X 19.4188 Y 14.7298 Z -1.0000
G01 X 19.4085 Y 14.7266 Z -1.0000
G01 X 19.4069 Y 14.7181 Z -1.0000
G01 X 19.4155 Y 14.7101 Z -1.0000
G01 X 19.4209 Y 14.7015 Z -1.0000
G01 X 19.4131 Y 14.6848 Z -1.0000
G02 X 19.3924 Y 14.6691 Z -1.0000 I -0.0680 J 0.0680
G01 X 19.3790 Y 14.6656 Z -1.0000
G01 X 19.3676 Y 14.6605 Z -1.0000
G03 X 19.3488 Y 14.6317 Z -1.0000 I 0.0849 J -0.0760
G02 X 19.3285 Y 14.6053 Z -1.0000 I -0.0674 J 0.0308
G01 X 19.3076 Y 14.5978 Z -1.0000
G01 X 19.2909 Y 14.5927 Z -1.0000
G01 X 19.2894 Y 14.5857 Z -1.0000
G01 X 19.2891 Y 14.5762 Z -1.0000
G01 X 19.2752 Y 14.5652 Z -1.0000
G01 X 19.2620 Y 14.5532 Z -1.0000
G01 X 19.2613 Y 14.5367 Z -1.0000
G01 X 19.2623 Y 14.5212 Z -1.0000
G01 X 19.2563 Y 14.5165 Z -1.0000
G01 X 19.2181 Y 14.4903 Z -1.0000
G03 X 19.2004 Y 14.3711 Z -1.0000 I 0.2580 J -0.0992
G02 X 19.1965 Y 14.3167 Z -1.0000 I -0.1890 J -0.0136
G01 X 19.1831 Y 14.2922 Z -1.0000
G03 X 19.1663 Y 14.2508 Z -1.0000 I 0.0406 J -0.0406
G01 X 19.1840 Y 14.2296 Z -1.0000
G01 X 19.1888 Y 14.2193 Z -1.0000
G02 X 19.1417 Y 14.1540 Z -1.0000 I -0.3098 J 0.1737
G02 X 19.0746 Y 14.0884 Z -1.0000 I -0.5943 J 0.5410
G01 X 19.0599 Y 14.0829 Z -1.0000
G01 X 19.0472 Y 14.0771 Z -1.0000
G03 X 19.0353 Y 14.0544 Z -1.0000 I 0.0431 J -0.0371
G01 X 19.0114 Y 14.0387 Z -1.0000
G01 X 18.9941 Y 14.0607 Z -1.0000
G01 X 18.9857 Y 14.0735 Z -1.0000
G03 X 18.9297 Y 14.0829 Z -1.0000 I -0.0560 J -0.1619
G02 X 18.8718 Y 14.0913 Z -1.0000 I 0.0000 J 0.2046
G01 X 18.8635 Y 14.1025 Z -1.0000
G01 X 18.8447 Y 14.1267 Z -1.0000
G01 X 18.8131 Y 14.1155 Z -1.0000
G01 X 18.7940 Y 14.1060 Z -1.0000
G01 X 18.7745 Y 14.1160 Z -1.0000
G02 X 18.7575 Y 14.1431 Z -1.0000 I 0.1655 J 0.1226
G01 X 18.7550 Y 14.1533 Z -1.0000
G01 X 18.7510 Y 14.1601 Z -1.0000
G01 X 18.7347 Y 14.1642 Z -1.0000
G01 X 18.7248 Y 14.1522 Z -1.0000
G03 X 18.7449 Y 14.1126 Z -1.0000 I 0.0802 J 0.0158
G01 X 18.7449 Y 14.1031 Z -1.0000
G01 X 18.7347 Y 14.1013 Z -1.0000
G02 X 18.6566 Y 14.1544 Z -1.0000 I 0.2117 J 0.3952
G01 X 18.6466 Y 14.1759 Z -1.0000
G01 X 18.6429 Y 14.1875 Z -1.0000
G01 X 18.6355 Y 14.1913 Z -1.0000
G01 X 18.6129 Y 14.2151 Z -1.0000
G02 X 18.6455 Y 14.3856 Z -1.0000 I 0.6362 J -0.0332
G03 X 18.6568 Y 14.4381 Z -1.0000 I -0.2229 J 0.0756
G03 X 18.6549 Y 14.4805 Z -1.0000 I -0.1473 J 0.0145
G01 X 18.6576 Y 14.5064 Z -1.0000
G01 X 18.6704 Y 14.5002 Z -1.0000
G01 X 18.6948 Y 14.5098 Z -1.0000
G01 X 18.6984 Y 14.5179 Z -1.0000
G01 X 18.6940 Y 14.5208 Z -1.0000
G01 X 18.6849 Y 14.5240 Z -1.0000
G01 X 18.6855 Y 14.5343 Z -1.0000
G02 X 18.7068 Y 14.5516 Z -1.0000 I 0.0519 J -0.0422
G02 X 18.7299 Y 14.5572 Z -1.0000 I 0.0231 J -0.0449
G01 X 18.7504 Y 14.5649 Z -1.0000
G03 X 18.7686 Y 14.5910 Z -1.0000 I -0.0435 J 0.0496
G02 X 18.7846 Y 14.6203 Z -1.0000 I 0.1140 J -0.0434
G01 X 18.7937 Y 14.6249 Z -1.0000
G01 X 18.8026 Y 14.6295 Z -1.0000
G03 X 18.8132 Y 14.6523 Z -1.0000 I -0.0573 J 0.0406
G01 X 18.8267 Y 14.6738 Z -1.0000
G02 X 18.8622 Y 14.6943 Z -1.0000 I 0.0721 J -0.0842
G03 X 18.8966 Y 14.7143 Z -1.0000 I -0.0342 J 0.0984
G01 X 18.9045 Y 14.7313 Z -1.0000
G02 X 18.9270 Y 14.7934 Z -1.0000 I 0.1030 J -0.0021
G02 X 18.9710 Y 14.8146 Z -1.0000 I 0.0440 J -0.0351
G01 X 18.9832 Y 14.8191 Z -1.0000
G01 X 18.9934 Y 14.8334 Z -1.0000
G01 X 19.0047 Y 14.8445 Z -1.0000
G01 X 19.0264 Y 14.8455 Z -1.0000
G03 X 19.0869 Y 14.8567 Z -1.0000 I 0.0184 J 0.0700
G01 X 19.0897 Y 14.8909 Z -1.0000
G01 X 19.0888 Y 14.8982 Z -1.0000
G02 X 19.1085 Y 14.9242 Z -1.0000 I 0.1039 J -0.0584
G02 X 19.1390 Y 14.9450 Z -1.0000 I 0.0706 J -0.0706
G01 X 19.1446 Y 14.9400 Z -1.0000
G01 X 19.1458 Y 14.9324 Z -1.0000
G01 X 19.1547 Y 14.9266 Z -1.0000
G01 X 19.1631 Y 14.9301 Z -1.0000
G01 X 19.1687 Y 14.9502 Z -1.0000
G02 X 19.1731 Y 14.9728 Z -1.0000 I 0.0646 J -0.0009
G01 X 19.1791 Y 14.9768 Z -1.0000
G01 X 19.2059 Y 14.9885 Z -1.0000
G03 X 19.2687 Y 15.0763 Z -1.0000 I -0.3571 J 0.3218
G03 X 19.2847 Y 15.1272 Z -1.0000 I -0.1153 J 0.0643
G01 X 19.2769 Y 15.1572 Z -1.0000
G02 X 19.2618 Y 15.1882 Z -1.0000 I 0.0891 J 0.0624
G02 X 19.2564 Y 15.2254 Z -1.0000 I 0.1235 J 0.0372
G03 X 19.2476 Y 15.2575 Z -1.0000 I -0.0633 J 0.0000
G01 X 19.2293 Y 15.2714 Z -1.0000
G02 X 19.2066 Y 15.2819 Z -1.0000 I 0.0178 J 0.0681
G01 X 19.2022 Y 15.2905 Z -1.0000
G01 X 19.1971 Y 15.2971 Z -1.0000
G03 X 19.1649 Y 15.3006 Z -1.0000 I -0.0270 J -0.0997
G01 X 19.1591 Y 15.2964 Z -1.0000
G01 X 19.1615 Y 15.2919 Z -1.0000
G01 X 19.1634 Y 15.2837 Z -1.0000
G02 X 19.1276 Y 15.2656 Z -1.0000 I -0.0650 J 0.0836
G02 X 19.0595 Y 15.2477 Z -1.0000 I -0.4131 J 1.4371
G02 X 18.9853 Y 15.2318 Z -1.0000 I -0.3994 J 1.6846
G03 X 18.9125 Y 15.2148 Z -1.0000 I 0.1657 J -0.8706
G01 X 18.9040 Y 15.2092 Z -1.0000
G01 X 18.8961 Y 15.2023 Z -1.0000
G02 X 18.8465 Y 15.1750 Z -1.0000 I -0.4440 J 0.7477
G03 X 18.8001 Y 15.1464 Z -1.0000 I 0.1526 J -0.3000
G01 X 18.7956 Y 15.1377 Z -1.0000
G01 X 18.7916 Y 15.1303 Z -1.0000
G01 X 18.7777 Y 15.1263 Z -1.0000
G01 X 18.7618 Y 15.1214 Z -1.0000
G03 X 18.7279 Y 15.0924 Z -1.0000 I 0.1150 J -0.1688
G02 X 18.6938 Y 15.0639 Z -1.0000 I -0.1347 J 0.1265
G01 X 18.6757 Y 15.0585 Z -1.0000
G01 X 18.6579 Y 15.0526 Z -1.0000
G03 X 18.6117 Y 15.0110 Z -1.0000 I 0.1959 J -0.2634
G02 X 18.5656 Y 14.9742 Z -1.0000 I -0.1395 J 0.1278
G01 X 18.5442 Y 14.9726 Z -1.0000
G01 X 18.5318 Y 14.9722 Z -1.0000
G01 X 18.5300 Y 14.9660 Z -1.0000
G01 X 18.5287 Y 14.9563 Z -1.0000
G01 X 18.5133 Y 14.9502 Z -1.0000
G01 X 18.4912 Y 14.9438 Z -1.0000
G01 X 18.4786 Y 14.9285 Z -1.0000
G01 X 18.4664 Y 14.9152 Z -1.0000
G01 X 18.4500 Y 14.9145 Z -1.0000
G01 X 18.4343 Y 14.9157 Z -1.0000
G01 X 18.4298 Y 14.9102 Z -1.0000
G01 X 18.4000 Y 14.8751 Z -1.0000
G02 X 18.3305 Y 14.8940 Z -1.0000 I -0.0140 J 0.0858
G01 X 18.3132 Y 14.9006 Z -1.0000
G01 X 18.2938 Y 14.8955 Z -1.0000
G01 X 18.2733 Y 14.8883 Z -1.0000
G02 X 18.2495 Y 14.8907 Z -1.0000 I -0.0062 J 0.0587
G01 X 18.2275 Y 14.8894 Z -1.0000
G03 X 18.1990 Y 14.8684 Z -1.0000 I 0.0327 J -0.0741
G02 X 18.1703 Y 14.8474 Z -1.0000 I -0.0597 J 0.0518
G01 X 18.1456 Y 14.8456 Z -1.0000
G01 X 18.1281 Y 14.8454 Z -1.0000
G01 X 18.1260 Y 14.8400 Z -1.0000
G01 X 18.1236 Y 14.8348 Z -1.0000
G02 X 18.0988 Y 14.8360 Z -1.0000 I -0.0093 J 0.0635
G01 X 18.0762 Y 14.8337 Z -1.0000
G01 X 18.0720 Y 14.8230 Z -1.0000
G01 X 18.0718 Y 14.8064 Z -1.0000
G01 X 18.0620 Y 14.7991 Z -1.0000
G02 X 17.9683 Y 14.7958 Z -1.0000 I -0.0669 J 0.5809
G01 X 17.9454 Y 14.8045 Z -1.0000
G01 X 17.9332 Y 14.8081 Z -1.0000
G01 X 17.9284 Y 14.8028 Z -1.0000
G01 X 17.9240 Y 14.7919 Z -1.0000
G01 X 17.9134 Y 14.7876 Z -1.0000
G01 X 17.9058 Y 14.7926 Z -1.0000
G01 X 17.9055 Y 14.8061 Z -1.0000
G01 X 17.9004 Y 14.8157 Z -1.0000
G03 X 17.8383 Y 14.8211 Z -1.0000 I -0.0511 J -0.2290
G02 X 17.7184 Y 14.8491 Z -1.0000 I -0.0105 J 0.2258
G02 X 17.6830 Y 14.9071 Z -1.0000 I 0.0333 J 0.0602
G02 X 17.6913 Y 14.9963 Z -1.0000 I 0.3615 J 0.0111
G02 X 17.7207 Y 15.0779 Z -1.0000 I 0.3308 J -0.0731
G03 X 17.7693 Y 15.1828 Z -1.0000 I -1.2498 J 0.6424
G03 X 17.8071 Y 15.2866 Z -1.0000 I -1.1852 J 0.4906
G02 X 17.8948 Y 15.4211 Z -1.0000 I 0.2858 J -0.0904
G02 X 18.0478 Y 15.4987 Z -1.0000 I 0.2263 J -0.2568
G03 X 18.1510 Y 15.5242 Z -1.0000 I -0.4227 J 1.9302
G03 X 18.1755 Y 15.5339 Z -1.0000 I -0.0324 J 0.1172
G02 X 18.2315 Y 15.5438 Z -1.0000 I 0.0432 J -0.0818
G02 X 18.2807 Y 15.5193 Z -1.0000 I -0.0119 J -0.0856
G03 X 18.3025 Y 15.5053 Z -1.0000 I 0.0429 J 0.0429
G01 X 18.3080 Y 15.5091 Z -1.0000
G01 X 18.3119 Y 15.5135 Z -1.0000
G01 X 18.3182 Y 15.5105 Z -1.0000
G03 X 18.4081 Y 15.4499 Z -1.0000 I 0.1154 J 0.0741
G03 X 18.6074 Y 15.4557 Z -1.0000 I 0.0864 J 0.4562
G02 X 18.6399 Y 15.4629 Z -1.0000 I 0.1280 J -0.5063
G02 X 18.6505 Y 15.4638 Z -1.0000 I 0.0106 J -0.0570
G01 X 18.6599 Y 15.4672 Z -1.0000
G03 X 18.7649 Y 15.5593 Z -1.0000 I -1.8293 J 2.1913
G02 X 18.8701 Y 15.6505 Z -1.0000 I 1.5535 J -1.6858
G01 X 18.8820 Y 15.6547 Z -1.0000
G01 X 18.8949 Y 15.6572 Z -1.0000
G03 X 18.9539 Y 15.6830 Z -1.0000 I -0.3084 J 0.7848
G02 X 19.0126 Y 15.7059 Z -1.0000 I 0.1746 J -0.3608
G01 X 19.0290 Y 15.7057 Z -1.0000
G01 X 19.0576 Y 15.7113 Z -1.0000
G03 X 19.1042 Y 15.7701 Z -1.0000 I -0.1278 J 0.1493
G03 X 19.1041 Y 15.8208 Z -1.0000 I -0.0487 J 0.0252
G01 X 19.0651 Y 15.8446 Z -1.0000
G01 X 19.0612 Y 15.8491 Z -1.0000
G01 X 19.0666 Y 15.8580 Z -1.0000
G01 X 19.0698 Y 15.8661 Z -1.0000
G01 X 19.0632 Y 15.8713 Z -1.0000
G01 X 19.0446 Y 15.8765 Z -1.0000
G01 X 19.0395 Y 15.8854 Z -1.0000
G01 X 19.0347 Y 15.8961 Z -1.0000
G03 X 19.0057 Y 15.9147 Z -1.0000 I -0.0791 J -0.0915
G01 X 18.9824 Y 15.9369 Z -1.0000
G02 X 18.9718 Y 15.9813 Z -1.0000 I 0.0873 J 0.0444
G02 X 18.9773 Y 16.0295 Z -1.0000 I 0.2144 J -0.0000
G01 X 18.9855 Y 16.0411 Z -1.0000
G01 X 18.9936 Y 16.0509 Z -1.0000
G01 X 18.9925 Y 16.0605 Z -1.0000
G01 X 18.9970 Y 16.1118 Z -1.0000
G02 X 19.0659 Y 16.1425 Z -1.0000 I 0.0689 J -0.0617
G01 X 19.0755 Y 16.1471 Z -1.0000
G01 X 19.0801 Y 16.1602 Z -1.0000
G02 X 19.1003 Y 16.2305 Z -1.0000 I 0.1327 J 0.0000
G01 X 19.1368 Y 16.2508 Z -1.0000
G01 X 19.1527 Y 16.2588 Z -1.0000
G03 X 19.1648 Y 16.2882 Z -1.0000 I -0.0508 J 0.0380
G01 X 19.1739 Y 16.2976 Z -1.0000
G01 X 19.1851 Y 16.2916 Z -1.0000
G01 X 19.2012 Y 16.2747 Z -1.0000
G01 X 19.2144 Y 16.2867 Z -1.0000
G01 X 19.2458 Y 16.2731 Z -1.0000
G03 X 19.2661 Y 16.2575 Z -1.0000 I 0.0691 J 0.0691
G03 X 19.2948 Y 16.2449 Z -1.0000 I 0.0727 J 0.1263
G01 X 19.3144 Y 16.2296 Z -1.0000
G01 X 19.3169 Y 16.2092 Z -1.0000
G01 X 19.3181 Y 16.1901 Z -1.0000
G01 X 19.3288 Y 16.1832 Z -1.0000
G01 X 19.3456 Y 16.1784 Z -1.0000
G01 X 19.3557 Y 16.1663 Z -1.0000
G01 X 19.3636 Y 16.1798 Z -1.0000
G01 X 19.3715 Y 16.2033 Z -1.0000
G01 X 19.3850 Y 16.2103 Z -1.0000
G01 X 19.3993 Y 16.2164 Z -1.0000
G01 X 19.4053 Y 16.2314 Z -1.0000
G01 X 19.4003 Y 16.2434 Z -1.0000
G01 X 19.3919 Y 16.2442 Z -1.0000
G01 X 19.3784 Y 16.2414 Z -1.0000
G02 X 19.3546 Y 16.2498 Z -1.0000 I 0.0098 J 0.0654
G01 X 19.3529 Y 16.2579 Z -1.0000
G01 X 19.3648 Y 16.2641 Z -1.0000
G03 X 19.4243 Y 16.2943 Z -1.0000 I -0.0009 J 0.0755
G01 X 19.4169 Y 16.3335 Z -1.0000
G01 X 19.4096 Y 16.3459 Z -1.0000
G01 X 19.4157 Y 16.3615 Z -1.0000
G03 X 19.4410 Y 16.4199 Z -1.0000 I -0.0612 J 0.0612
G01 X 19.4190 Y 16.4610 Z -1.0000
G01 X 19.4115 Y 16.4727 Z -1.0000
G02 X 19.4070 Y 16.5600 Z -1.0000 I 0.6353 J 0.0763
G01 X 19.4148 Y 16.6270 Z -1.0000
G01 X 19.4311 Y 16.6083 Z -1.0000
G01 X 19.4505 Y 16.6122 Z -1.0000
G01 X 19.4532 Y 16.6214 Z -1.0000
G01 X 19.4447 Y 16.6388 Z -1.0000
G01 X 19.4353 Y 16.6585 Z -1.0000
G02 X 19.4257 Y 16.7349 Z -1.0000 I 0.5422 J 0.1071
G03 X 19.4210 Y 16.8133 Z -1.0000 I -9.3968 J -0.5230
G03 X 19.4150 Y 16.9014 Z -1.0000 I -13.0663 J -0.8367
G02 X 19.4091 Y 16.9895 Z -1.0000 I 8.2104 J 0.5932
G02 X 19.4020 Y 17.1114 Z -1.0000 I 20.3243 J 1.2495
G03 X 19.3795 Y 17.2956 Z -1.0000 I -1.4059 J -0.0781
G01 X 19.3647 Y 17.3079 Z -1.0000
G01 X 19.3286 Y 17.3453 Z -1.0000
G02 X 19.3695 Y 17.4391 Z -1.0000 I 0.1397 J -0.0051
G01 X 19.3749 Y 17.4494 Z -1.0000
G03 X 19.3785 Y 17.4897 Z -1.0000 I -0.2344 J 0.0413
G02 X 19.3917 Y 17.6199 Z -1.0000 I 0.6726 J -0.0024
G01 X 19.4059 Y 17.6260 Z -1.0000
G01 X 19.4102 Y 17.6280 Z -1.0000
G03 X 19.4090 Y 17.6480 Z -1.0000 I -0.0504 J 0.0071
G02 X 19.4077 Y 17.6742 Z -1.0000 I 0.0625 J 0.0163
G01 X 19.4147 Y 17.6853 Z -1.0000
G03 X 19.4545 Y 17.7343 Z -1.0000 I -0.0589 J 0.0884
G03 X 19.4732 Y 17.8316 Z -1.0000 I -0.2437 J 0.0974
G02 X 19.4790 Y 17.8712 Z -1.0000 I 0.1381 J 0.0000
G01 X 19.4868 Y 17.8770 Z -1.0000
G01 X 19.4956 Y 17.8723 Z -1.0000
G01 X 19.5003 Y 17.8567 Z -1.0000
G01 X 19.5043 Y 17.8410 Z -1.0000
G01 X 19.5105 Y 17.8379 Z -1.0000
G02 X 19.5445 Y 17.8315 Z -1.0000 I 0.0080 J -0.0505
G02 X 19.5705 Y 17.8025 Z -1.0000 I -0.0331 J -0.0560
G03 X 19.6043 Y 17.7716 Z -1.0000 I 0.0530 J 0.0241
G01 X 19.6223 Y 17.7844 Z -1.0000
G01 X 19.6261 Y 17.7910 Z -1.0000
G01 X 19.6324 Y 17.7901 Z -1.0000
G01 X 19.6337 Y 17.7806 Z -1.0000
G02 X 19.6155 Y 17.7602 Z -1.0000 I -0.0563 J 0.0318
G01 X 19.6000 Y 17.7407 Z -1.0000
G01 X 19.6030 Y 17.7308 Z -1.0000
G02 X 19.6304 Y 17.6968 Z -1.0000 I -0.0401 J -0.0603
G02 X 19.6370 Y 17.6433 Z -1.0000 I -0.1027 J -0.0400
G01 X 19.6401 Y 17.6249 Z -1.0000
G01 X 19.6485 Y 17.6196 Z -1.0000
G01 X 19.6572 Y 17.6139 Z -1.0000
G02 X 19.6629 Y 17.5857 Z -1.0000 I -0.0661 J -0.0282
G03 X 19.6673 Y 17.5562 Z -1.0000 I 0.1004 J 0.0000
G01 X 19.6733 Y 17.5518 Z -1.0000
G01 X 19.6809 Y 17.5476 Z -1.0000
G02 X 19.7071 Y 17.4976 Z -1.0000 I -0.3212 J -0.2005
G03 X 19.7366 Y 17.4526 Z -1.0000 I 0.1449 J 0.0628
G01 X 19.7577 Y 17.4434 Z -1.0000
G01 X 19.7797 Y 17.4382 Z -1.0000
G01 X 19.7848 Y 17.4299 Z -1.0000
G01 X 19.7896 Y 17.4210 Z -1.0000
G01 X 19.8052 Y 17.4163 Z -1.0000
G01 X 19.8210 Y 17.4118 Z -1.0000
G01 X 19.8255 Y 17.4037 Z -1.0000
G01 X 19.8301 Y 17.3943 Z -1.0000
G03 X 19.8523 Y 17.3825 Z -1.0000 I 0.0436 J 0.0555
G02 X 19.8727 Y 17.3702 Z -1.0000 I -0.0155 J -0.0485
G01 X 19.8760 Y 17.3591 Z -1.0000
G01 X 19.8805 Y 17.3490 Z -1.0000
G03 X 19.9182 Y 17.3342 Z -1.0000 I 0.0649 J 0.1101
G02 X 19.9751 Y 17.3080 Z -1.0000 I -0.0307 J -0.1410
G01 X 19.9705 Y 17.2944 Z -1.0000
G01 X 19.9546 Y 17.2873 Z -1.0000
G01 X 19.9474 Y 17.2685 Z -1.0000
G01 X 19.9393 Y 17.2533 Z -1.0000
G01 X 19.9195 Y 17.2500 Z -1.0000
G03 X 19.8438 Y 17.2433 Z -1.0000 I -0.0284 J -0.1088
G01 X 19.8339 Y 17.2104 Z -1.0000
G01 X 19.8427 Y 17.2061 Z -1.0000
G01 X 19.8599 Y 17.2136 Z -1.0000
G01 X 19.8797 Y 17.2233 Z -1.0000
G02 X 19.9028 Y 17.2231 Z -1.0000 I 0.0112 J -0.0502
G01 X 19.9051 Y 17.2152 Z -1.0000
G02 X 19.8767 Y 17.1949 Z -1.0000 I -0.0634 J 0.0584
G02 X 19.7959 Y 17.1748 Z -1.0000 I -0.0973 J 0.2192
G02 X 19.7446 Y 17.1858 Z -1.0000 I -0.0065 J 0.0948
G01 X 19.7316 Y 17.1839 Z -1.0000
G01 X 19.7274 Y 17.1688 Z -1.0000
G03 X 19.7384 Y 17.1410 Z -1.0000 I 0.1117 J 0.0282
G01 X 19.7498 Y 17.1286 Z -1.0000
G01 X 19.7523 Y 17.1223 Z -1.0000
G01 X 19.7476 Y 17.1184 Z -1.0000
G03 X 19.6886 Y 17.0590 Z -1.0000 I 0.0007 J -0.0597
G03 X 19.7469 Y 16.9177 Z -1.0000 I 0.1989 J -0.0007
G01 X 19.7517 Y 16.9062 Z -1.0000
G01 X 19.7469 Y 16.9014 Z -1.0000
G01 X 19.7377 Y 16.8944 Z -1.0000
G03 X 19.7306 Y 16.8395 Z -1.0000 I 0.2086 J -0.0548
G03 X 19.7428 Y 16.7932 Z -1.0000 I 0.0948 J 0.0000
G01 X 19.7611 Y 16.7852 Z -1.0000
G01 X 19.7738 Y 16.7847 Z -1.0000
G01 X 19.7683 Y 16.7740 Z -1.0000
G03 X 19.7806 Y 16.7490 Z -1.0000 I 0.0516 J 0.0098
G02 X 19.7932 Y 16.7244 Z -1.0000 I -0.0415 J -0.0368
G01 X 19.7882 Y 16.7154 Z -1.0000
G01 X 19.7734 Y 16.6917 Z -1.0000
G01 X 19.7950 Y 16.6574 Z -1.0000
G01 X 19.8057 Y 16.6435 Z -1.0000
G01 X 19.8018 Y 16.6353 Z -1.0000
G01 X 19.7823 Y 16.6077 Z -1.0000
G01 X 19.7992 Y 16.5898 Z -1.0000
G01 X 19.8062 Y 16.5857 Z -1.0000
G01 X 19.8060 Y 16.5776 Z -1.0000
G03 X 19.7940 Y 16.5029 Z -1.0000 I 0.0839 J -0.0519
G01 X 19.8271 Y 16.4892 Z -1.0000
G01 X 19.8361 Y 16.4836 Z -1.0000
G01 X 19.8241 Y 16.4583 Z -1.0000
G01 X 19.8221 Y 16.4025 Z -1.0000
G01 X 19.8802 Y 16.3936 Z -1.0000
G01 X 19.8878 Y 16.3919 Z -1.0000
G01 X 19.8933 Y 16.3739 Z -1.0000
G03 X 19.9167 Y 16.3069 Z -1.0000 I 0.1076 J 0.0000
G01 X 19.9514 Y 16.3009 Z -1.0000
G01 X 19.9624 Y 16.3016 Z -1.0000
G01 X 19.9757 Y 16.2900 Z -1.0000
G01 X 20.0105 Y 16.2828 Z -1.0000
G03 X 20.0345 Y 16.3307 Z -1.0000 I -0.0317 J 0.0458
G02 X 20.0382 Y 16.3548 Z -1.0000 I 0.0649 J 0.0024
G01 X 20.0446 Y 16.3594 Z -1.0000
G01 X 20.0522 Y 16.3557 Z -1.0000
G01 X 20.0559 Y 16.3451 Z -1.0000
G01 X 20.0603 Y 16.3387 Z -1.0000
G01 X 20.0703 Y 16.3397 Z -1.0000
G01 X 20.0744 Y 16.3501 Z -1.0000
G03 X 20.0601 Y 16.3763 Z -1.0000 I -0.0641 J -0.0179
G01 X 20.0582 Y 16.3913 Z -1.0000
G01 X 20.0708 Y 16.3976 Z -1.0000
G01 X 20.0936 Y 16.4056 Z -1.0000
G01 X 20.1047 Y 16.4367 Z -1.0000
G03 X 20.0982 Y 16.4797 Z -1.0000 I -0.1837 J -0.0056
G01 X 20.0896 Y 16.4921 Z -1.0000
G02 X 20.0624 Y 16.5470 Z -1.0000 I 0.0369 J 0.0524
G01 X 20.0929 Y 16.5763 Z -1.0000
G01 X 20.1013 Y 16.5820 Z -1.0000
G01 X 20.0995 Y 16.5932 Z -1.0000
G02 X 20.0892 Y 16.6118 Z -1.0000 I 0.0435 J 0.0361
G02 X 20.0775 Y 16.6609 Z -1.0000 I 0.3055 J 0.0991
G02 X 20.0700 Y 16.7877 Z -1.0000 I 0.6473 J 0.1017
G01 X 20.0827 Y 16.7971 Z -1.0000
G01 X 20.1028 Y 16.8128 Z -1.0000
G03 X 20.0821 Y 16.8719 Z -1.0000 I -0.0969 J -0.0008
G02 X 20.0712 Y 16.9034 Z -1.0000 I 0.0400 J 0.0315
G01 X 20.0821 Y 16.9202 Z -1.0000
G01 X 20.0967 Y 16.9443 Z -1.0000
G01 X 20.0791 Y 16.9681 Z -1.0000
G02 X 20.0504 Y 16.9832 Z -1.0000 I 0.0487 J 0.1280
G02 X 20.0297 Y 17.0020 Z -1.0000 I 0.0571 J 0.0832
G01 X 20.0276 Y 17.0125 Z -1.0000
G01 X 20.0336 Y 17.0155 Z -1.0000
G01 X 20.0482 Y 17.0182 Z -1.0000
G01 X 20.0559 Y 17.0355 Z -1.0000
G03 X 20.0507 Y 17.0588 Z -1.0000 I -0.0549 J 0.0000
G01 X 20.0424 Y 17.0641 Z -1.0000
G01 X 20.0355 Y 17.0698 Z -1.0000
G02 X 20.0343 Y 17.1081 Z -1.0000 I 0.1246 J 0.0229
G02 X 20.0451 Y 17.1444 Z -1.0000 I 0.1110 J -0.0133
G01 X 20.0544 Y 17.1488 Z -1.0000
G01 X 20.0680 Y 17.1503 Z -1.0000
G03 X 20.0961 Y 17.1685 Z -1.0000 I -0.0529 J 0.1127
G01 X 20.1085 Y 17.1924 Z -1.0000
G01 X 20.1006 Y 17.2162 Z -1.0000
G01 X 20.0889 Y 17.2406 Z -1.0000
G01 X 20.0942 Y 17.2568 Z -1.0000
G01 X 20.1045 Y 17.2592 Z -1.0000
G01 X 20.1101 Y 17.2513 Z -1.0000
G01 X 20.1345 Y 17.2131 Z -1.0000
G01 X 20.1762 Y 17.2205 Z -1.0000
G01 X 20.1666 Y 17.2267 Z -1.0000
G01 X 20.1504 Y 17.2440 Z -1.0000
G02 X 20.1719 Y 17.3050 Z -1.0000 I 0.1201 J -0.0081
G01 X 20.1799 Y 17.3283 Z -1.0000
G01 X 20.1735 Y 17.3351 Z -1.0000
G01 X 20.1587 Y 17.3289 Z -1.0000
G01 X 20.1469 Y 17.3080 Z -1.0000
G02 X 20.1358 Y 17.2860 Z -1.0000 I -0.0565 J 0.0148
G01 X 20.1250 Y 17.2809 Z -1.0000
G01 X 20.0990 Y 17.3078 Z -1.0000
G01 X 20.1271 Y 17.3355 Z -1.0000
G01 X 20.1301 Y 17.3404 Z -1.0000
G01 X 20.1179 Y 17.3557 Z -1.0000
G02 X 20.0970 Y 17.3752 Z -1.0000 I 0.0841 J 0.1111
G01 X 20.0975 Y 17.3790 Z -1.0000
G02 X 20.1519 Y 17.3976 Z -1.0000 I 0.0692 J -0.1135
G01 X 20.1643 Y 17.3865 Z -1.0000
G01 X 20.1722 Y 17.3755 Z -1.0000
G01 X 20.1868 Y 17.3789 Z -1.0000
G01 X 20.1980 Y 17.4019 Z -1.0000
G01 X 20.1919 Y 17.4224 Z -1.0000
G03 X 20.1724 Y 17.4390 Z -1.0000 I -0.0565 J -0.0470
G01 X 20.1558 Y 17.4434 Z -1.0000
G01 X 20.1429 Y 17.4491 Z -1.0000
G01 X 20.1372 Y 17.4638 Z -1.0000
G01 X 20.1324 Y 17.4794 Z -1.0000
G01 X 20.1236 Y 17.4841 Z -1.0000
G01 X 20.0964 Y 17.5129 Z -1.0000
G01 X 20.1276 Y 17.5557 Z -1.0000
G03 X 20.1731 Y 17.6043 Z -1.0000 I -0.0273 J 0.0710
G03 X 20.1642 Y 17.6739 Z -1.0000 I -0.0810 J 0.0250
G01 X 20.1619 Y 17.7195 Z -1.0000
G01 X 20.1971 Y 17.7415 Z -1.0000
G03 X 20.2245 Y 17.7475 Z -1.0000 I -0.0000 J 0.0654
G03 X 20.2560 Y 17.7686 Z -1.0000 I -0.0501 J 0.1086
G02 X 20.2873 Y 17.7901 Z -1.0000 I 0.0874 J -0.0938
G02 X 20.3116 Y 17.7957 Z -1.0000 I 0.0244 J -0.0500
G03 X 20.3676 Y 17.8092 Z -1.0000 I 0.0000 J 0.1235
G01 X 20.3810 Y 17.8311 Z -1.0000
G01 X 20.3929 Y 17.8427 Z -1.0000
G02 X 20.4293 Y 17.8301 Z -1.0000 I -0.0013 J -0.0624
G03 X 20.4570 Y 17.8144 Z -1.0000 I 0.0730 J 0.0966
G03 X 20.4797 Y 17.8098 Z -1.0000 I 0.0238 J 0.0590
G01 X 20.4998 Y 17.8036 Z -1.0000
G01 X 20.5116 Y 17.7891 Z -1.0000
G01 X 20.5455 Y 17.7593 Z -1.0000
G03 X 20.7306 Y 17.7360 Z -1.0000 I 0.1952 J 0.8044
G03 X 20.8162 Y 17.7453 Z -1.0000 I 0.0045 J 0.3570
G01 X 20.8236 Y 17.7576 Z -1.0000
G01 X 20.8289 Y 17.7678 Z -1.0000
G01 X 20.8509 Y 17.7678 Z -1.0000
G03 X 20.8840 Y 17.7659 Z -1.0000 I 0.0195 J 0.0514
G01 X 20.8901 Y 17.7778 Z -1.0000
G01 X 20.8890 Y 17.7978 Z -1.0000
G01 X 20.8988 Y 17.8111 Z -1.0000
G03 X 20.9135 Y 17.8236 Z -1.0000 I -0.0329 J 0.0536
G01 X 20.9174 Y 17.8326 Z -1.0000
G01 X 20.9197 Y 17.8430 Z -1.0000
G02 X 20.9296 Y 17.8683 Z -1.0000 I 0.3038 J -0.1033
G01 X 20.9326 Y 17.8909 Z -1.0000
G01 X 20.9246 Y 17.9033 Z -1.0000
G01 X 20.9162 Y 17.9157 Z -1.0000
G01 X 20.9184 Y 17.9392 Z -1.0000
G01 X 20.9154 Y 17.9474 Z -1.0000
G01 X 20.9053 Y 17.9466 Z -1.0000
G01 X 20.8907 Y 17.9454 Z -1.0000
G01 X 20.8822 Y 17.9601 Z -1.0000
G03 X 20.8778 Y 17.9909 Z -1.0000 I -0.1158 J -0.0007
G03 X 20.8674 Y 18.0126 Z -1.0000 I -0.0671 J -0.0190
G01 X 20.8624 Y 18.0138 Z -1.0000
G01 X 20.8604 Y 18.0092 Z -1.0000
G01 X 20.8610 Y 17.9905 Z -1.0000
G01 X 20.8546 Y 17.9855 Z -1.0000
G01 X 20.8455 Y 17.9909 Z -1.0000
G02 X 20.8331 Y 18.0254 Z -1.0000 I 0.1099 J 0.0591
G03 X 20.8199 Y 18.0624 Z -1.0000 I -0.1328 J -0.0266
G03 X 20.7996 Y 18.0885 Z -1.0000 I -0.0847 J -0.0450
G02 X 20.7786 Y 18.1137 Z -1.0000 I 0.0784 J 0.0866
G01 X 20.7740 Y 18.1298 Z -1.0000
G01 X 20.7677 Y 18.1417 Z -1.0000
G01 X 20.7469 Y 18.1481 Z -1.0000
G01 X 20.7260 Y 18.1542 Z -1.0000
G01 X 20.7198 Y 18.1655 Z -1.0000
G01 X 20.6971 Y 18.2067 Z -1.0000
G03 X 20.6188 Y 18.2294 Z -1.0000 I -0.0784 J -0.1239
G02 X 20.5579 Y 18.2549 Z -1.0000 I -0.0000 J 0.0853
G02 X 20.4971 Y 18.3533 Z -1.0000 I 0.1869 J 0.1836
G02 X 20.4674 Y 18.5068 Z -1.0000 I 0.5297 J 0.1821
G01 X 20.4889 Y 18.5139 Z -1.0000
G01 X 20.4944 Y 18.5153 Z -1.0000
G03 X 20.4941 Y 18.5681 Z -1.0000 I -0.2563 J 0.0245
G03 X 20.4815 Y 18.6409 Z -1.0000 I -0.6187 J -0.0694
G01 X 20.4726 Y 18.6594 Z -1.0000
G01 X 20.4652 Y 18.6771 Z -1.0000
G01 X 20.4678 Y 18.6982 Z -1.0000
G01 X 20.4660 Y 18.7100 Z -1.0000
G01 X 20.4564 Y 18.7126 Z -1.0000
G01 X 20.4478 Y 18.7163 Z -1.0000
G01 X 20.4474 Y 18.7348 Z -1.0000
G01 X 20.4650 Y 18.7574 Z -1.0000
G02 X 20.5179 Y 18.7826 Z -1.0000 I 0.1089 J -0.1606
G03 X 20.5769 Y 18.8021 Z -1.0000 I -0.3339 J 1.1058
G03 X 20.6070 Y 18.8148 Z -1.0000 I -0.1080 J 0.2987
G02 X 20.6373 Y 18.8235 Z -1.0000 I 0.0404 J -0.0840
G02 X 20.6736 Y 18.8220 Z -1.0000 I 0.0133 J -0.1221
G03 X 20.7102 Y 18.8211 Z -1.0000 I 0.0211 J 0.1104
G03 X 20.7728 Y 18.8358 Z -1.0000 I -0.0475 J 0.3419
G02 X 20.8351 Y 18.8563 Z -1.0000 I 1.4486 J -4.3119
G02 X 20.8534 Y 18.8616 Z -1.0000 I 0.1165 J -0.3642
G01 X 20.8604 Y 18.8702 Z -1.0000
G01 X 20.8549 Y 18.8870 Z -1.0000
G01 X 20.8534 Y 18.8964 Z -1.0000
G01 X 20.8597 Y 18.8991 Z -1.0000
G01 X 20.8805 Y 18.8987 Z -1.0000
G03 X 20.9226 Y 18.9201 Z -1.0000 I -0.0505 J 0.1515
G02 X 20.9651 Y 18.9409 Z -1.0000 I 0.0849 J -0.1192
G01 X 20.9908 Y 18.9408 Z -1.0000
G01 X 21.0104 Y 18.9426 Z -1.0000
G01 X 21.0180 Y 18.9552 Z -1.0000
G01 X 21.0083 Y 18.9673 Z -1.0000
G03 X 20.9542 Y 18.9696 Z -1.0000 I -0.0334 J -0.1486
G02 X 20.9153 Y 18.9709 Z -1.0000 I -0.0157 J 0.1141
G01 X 20.9138 Y 18.9779 Z -1.0000
G01 X 20.9131 Y 18.9871 Z -1.0000
G03 X 20.8793 Y 18.9953 Z -1.0000 I -0.0342 J -0.0679
G02 X 20.8230 Y 19.0017 Z -1.0000 I 0.0014 J 0.2609
G02 X 20.7758 Y 19.0188 Z -1.0000 I 0.0452 J 0.1990
G03 X 20.7304 Y 19.0355 Z -1.0000 I -0.0940 J -0.1852
G01 X 20.7159 Y 19.0332 Z -1.0000
G01 X 20.7104 Y 19.0349 Z -1.0000
G01 X 20.7103 Y 19.0469 Z -1.0000
G01 X 20.7070 Y 19.0613 Z -1.0000
G01 X 20.6863 Y 19.0695 Z -1.0000
G02 X 20.6565 Y 19.0746 Z -1.0000 I 0.0000 J 0.0899
G01 X 20.6446 Y 19.0841 Z -1.0000
G01 X 20.6327 Y 19.0919 Z -1.0000
G03 X 20.6019 Y 19.0903 Z -1.0000 I -0.0114 J -0.0791
G02 X 20.5451 Y 19.0975 Z -1.0000 I -0.0192 J 0.0764
G01 X 20.5377 Y 19.1251 Z -1.0000
G01 X 20.5360 Y 19.1294 Z -1.0000
G01 X 20.5240 Y 19.1289 Z -1.0000
G01 X 20.5105 Y 19.1317 Z -1.0000
G01 X 20.5030 Y 19.1493 Z -1.0000
G01 X 20.5099 Y 19.1710 Z -1.0000
G01 X 20.5233 Y 19.1779 Z -1.0000
G01 X 20.5378 Y 19.1837 Z -1.0000
G01 X 20.5436 Y 19.1975 Z -1.0000
G01 X 20.5491 Y 19.2142 Z -1.0000
G02 X 20.5722 Y 19.2370 Z -1.0000 I 0.0793 J -0.0573
G03 X 20.5911 Y 19.2590 Z -1.0000 I -0.0337 J 0.0481
G01 X 20.5904 Y 19.2738 Z -1.0000
G01 X 20.5901 Y 19.2805 Z -1.0000
G01 X 20.5943 Y 19.2817 Z -1.0000
G01 X 20.6187 Y 19.2869 Z -1.0000
G03 X 20.6271 Y 19.3303 Z -1.0000 I -0.0469 J 0.0316
G01 X 20.6299 Y 19.3365 Z -1.0000
G01 X 20.6453 Y 19.3405 Z -1.0000
G01 X 20.6584 Y 19.3477 Z -1.0000
G01 X 20.6656 Y 19.3725 Z -1.0000
G02 X 20.6715 Y 19.4025 Z -1.0000 I 0.0795 J 0.0000
G02 X 20.6927 Y 19.4390 Z -1.0000 I 0.1404 J -0.0573
G03 X 20.7157 Y 19.4749 Z -1.0000 I -0.1724 J 0.1357
G01 X 20.7196 Y 19.4917 Z -1.0000
G01 X 20.7153 Y 19.4954 Z -1.0000
G01 X 20.7068 Y 19.4900 Z -1.0000
G01 X 20.6932 Y 19.4788 Z -1.0000
G01 X 20.6833 Y 19.4809 Z -1.0000
G01 X 20.6812 Y 19.4911 Z -1.0000
G01 X 20.6939 Y 19.5076 Z -1.0000
G03 X 20.7448 Y 19.5767 Z -1.0000 I -0.0861 J 0.1167
G01 X 20.7237 Y 19.5936 Z -1.0000
G01 X 20.6797 Y 19.6192 Z -1.0000
G02 X 20.7323 Y 19.8129 Z -1.0000 I 0.4490 J -0.0180
G03 X 20.7395 Y 19.8405 Z -1.0000 I -0.0538 J 0.0287
G03 X 20.7333 Y 19.8757 Z -1.0000 I -0.0945 J 0.0016
G02 X 20.7237 Y 19.9121 Z -1.0000 I 0.1647 J 0.0630
G02 X 20.7198 Y 19.9638 Z -1.0000 I 0.3385 J 0.0517
G03 X 20.7156 Y 20.0158 Z -1.0000 I -0.3290 J -0.0000
G03 X 20.6944 Y 20.1226 Z -1.0000 I -1.4202 J -0.2272
G02 X 20.6759 Y 20.2294 Z -1.0000 I 0.8336 J 0.1991
G02 X 20.6755 Y 20.2967 Z -1.0000 I 0.3294 J 0.0357
G03 X 20.6726 Y 20.3607 Z -1.0000 I -0.2261 J 0.0219
G01 X 20.6592 Y 20.3835 Z -1.0000
G01 X 20.6382 Y 20.3909 Z -1.0000
G01 X 20.6241 Y 20.3830 Z -1.0000
G01 X 20.6174 Y 20.3832 Z -1.0000
G01 X 20.6116 Y 20.4064 Z -1.0000
G03 X 20.6079 Y 20.4489 Z -1.0000 I -0.2611 J -0.0013
G03 X 20.5903 Y 20.5318 Z -1.0000 I -1.0114 J -0.1719
G02 X 20.5746 Y 20.6134 Z -1.0000 I 0.6653 J 0.1704
G01 X 20.5777 Y 20.6281 Z -1.0000
G03 X 20.6300 Y 20.8032 Z -1.0000 I -0.2986 J 0.1844
G03 X 20.5860 Y 20.9306 Z -1.0000 I -0.1918 J 0.0051
G01 X 20.5789 Y 20.9496 Z -1.0000
G02 X 20.5843 Y 20.9945 Z -1.0000 I 0.1548 J 0.0040
G03 X 20.5947 Y 21.0414 Z -1.0000 I -0.4711 J 0.1289
G03 X 20.5975 Y 21.0715 Z -1.0000 I -0.1942 J 0.0331
G02 X 20.6050 Y 21.1515 Z -1.0000 I 0.5051 J -0.0075
G01 X 20.6138 Y 21.1644 Z -1.0000
G01 X 20.6183 Y 21.1731 Z -1.0000
G01 X 20.6126 Y 21.1826 Z -1.0000
G01 X 20.6030 Y 21.1954 Z -1.0000
G02 X 20.5954 Y 21.2453 Z -1.0000 I 0.2093 J 0.0575
G03 X 20.5650 Y 21.3275 Z -1.0000 I -0.1397 J -0.0049
G01 X 20.5201 Y 21.3397 Z -1.0000
G01 X 20.5121 Y 21.3413 Z -1.0000
G01 X 20.5112 Y 21.3480 Z -1.0000
G01 X 20.5085 Y 21.3545 Z -1.0000
G01 X 20.4853 Y 21.3545 Z -1.0000
G01 X 20.4549 Y 21.3569 Z -1.0000
G01 X 20.4337 Y 21.3763 Z -1.0000
G03 X 20.4153 Y 21.4052 Z -1.0000 I -0.2018 J -0.1079
G03 X 20.4007 Y 21.4204 Z -1.0000 I -0.0684 J -0.0510
G02 X 20.3826 Y 21.4491 Z -1.0000 I 0.0335 J 0.0413
G02 X 20.3623 Y 21.5771 Z -1.0000 I 0.7560 J 0.1851
G03 X 20.3554 Y 21.6242 Z -1.0000 I -0.3201 J -0.0229
G03 X 20.3475 Y 21.6436 Z -1.0000 I -0.0613 J -0.0137
G02 X 20.3141 Y 21.7513 Z -1.0000 I 0.1917 J 0.1185
G01 X 20.3410 Y 21.7795 Z -1.0000
G01 X 20.3482 Y 21.7852 Z -1.0000
G01 X 20.3473 Y 21.8066 Z -1.0000
G01 X 20.3486 Y 21.8265 Z -1.0000
G01 X 20.3600 Y 21.8337 Z -1.0000
G01 X 20.3751 Y 21.8398 Z -1.0000
G01 X 20.3812 Y 21.8540 Z -1.0000
G01 X 20.3867 Y 21.8688 Z -1.0000
G01 X 20.3986 Y 21.8743 Z -1.0000
G01 X 20.4105 Y 21.8803 Z -1.0000
G01 X 20.4180 Y 21.9005 Z -1.0000
G02 X 20.4253 Y 21.9243 Z -1.0000 I 0.0570 J -0.0044
G02 X 20.4496 Y 21.9563 Z -1.0000 I 0.1299 J -0.0735
G03 X 20.4693 Y 21.9850 Z -1.0000 I -0.0672 J 0.0672
G01 X 20.4665 Y 21.9945 Z -1.0000
G02 X 20.4307 Y 22.0657 Z -1.0000 I 0.0456 J 0.0676
G01 X 20.4714 Y 22.1047 Z -1.0000
G01 X 20.4831 Y 22.1092 Z -1.0000
G01 X 20.4841 Y 22.1163 Z -1.0000
G01 X 20.4863 Y 22.1214 Z -1.0000
G02 X 20.5093 Y 22.1217 Z -1.0000 I 0.0121 J -0.0568
G01 X 20.5359 Y 22.1039 Z -1.0000
G02 X 20.5760 Y 22.0200 Z -1.0000 I -0.2890 J -0.1896
G01 X 20.6098 Y 21.9967 Z -1.0000
G01 X 20.6426 Y 22.0234 Z -1.0000
G01 X 20.6559 Y 22.0425 Z -1.0000
G01 X 20.6815 Y 22.0507 Z -1.0000
G01 X 20.6940 Y 22.0566 Z -1.0000
G01 X 20.6929 Y 22.0643 Z -1.0000
G01 X 20.6857 Y 22.0776 Z -1.0000
G01 X 20.6929 Y 22.0910 Z -1.0000
G01 X 20.7221 Y 22.0960 Z -1.0000
G01 X 20.7345 Y 22.0810 Z -1.0000
G01 X 20.7607 Y 22.1315 Z -1.0000
G03 X 20.7784 Y 22.2031 Z -1.0000 I -0.4127 J 0.1403
G01 X 20.7738 Y 22.2133 Z -1.0000
G02 X 20.7335 Y 22.2788 Z -1.0000 I 0.0450 J 0.0728
G02 X 20.7579 Y 22.3976 Z -1.0000 I 0.2123 J 0.0183
G03 X 20.7645 Y 22.4237 Z -1.0000 I -0.0496 J 0.0264
G03 X 20.7581 Y 22.4485 Z -1.0000 I -0.0502 J 0.0003
G01 X 20.7523 Y 22.4720 Z -1.0000
G01 X 20.7592 Y 22.4881 Z -1.0000
G03 X 20.7776 Y 22.5362 Z -1.0000 I -0.0447 J 0.0447
G03 X 20.7523 Y 22.6133 Z -1.0000 I -0.1562 J -0.0086
G01 X 20.7497 Y 22.6362 Z -1.0000
G01 X 20.7647 Y 22.6467 Z -1.0000
G02 X 20.7950 Y 22.6407 Z -1.0000 I -0.0000 J -0.0796
G01 X 20.8058 Y 22.6297 Z -1.0000
G01 X 20.8137 Y 22.6276 Z -1.0000
G01 X 20.8105 Y 22.6411 Z -1.0000
G03 X 20.7810 Y 22.6818 Z -1.0000 I -0.2602 J -0.1576
G02 X 20.7526 Y 22.7392 Z -1.0000 I 0.0974 J 0.0838
G01 X 20.7656 Y 22.7551 Z -1.0000
G03 X 20.8567 Y 22.7909 Z -1.0000 I -0.0000 J 0.1340
G01 X 20.8643 Y 22.8467 Z -1.0000
G01 X 20.8639 Y 22.8579 Z -1.0000
G01 X 20.8759 Y 22.8684 Z -1.0000
G01 X 20.8895 Y 22.8808 Z -1.0000
G03 X 20.8961 Y 22.9088 Z -1.0000 I -0.0559 J 0.0281
G02 X 20.9018 Y 22.9388 Z -1.0000 I 0.0818 J -0.0000
G01 X 20.9152 Y 22.9573 Z -1.0000
G01 X 20.9233 Y 22.9758 Z -1.0000
G03 X 20.9118 Y 23.0266 Z -1.0000 I -0.1498 J -0.0074
G03 X 20.8844 Y 23.0728 Z -1.0000 I -0.1813 J -0.0762
G01 X 20.8690 Y 23.0804 Z -1.0000
G01 X 20.8628 Y 23.0847 Z -1.0000
G01 X 20.8649 Y 23.0910 Z -1.0000
G01 X 20.8704 Y 23.1201 Z -1.0000
G01 X 20.8365 Y 23.1301 Z -1.0000
G01 X 20.8215 Y 23.1315 Z -1.0000
G01 X 20.8148 Y 23.1434 Z -1.0000
G01 X 20.8085 Y 23.1514 Z -1.0000
G01 X 20.7947 Y 23.1482 Z -1.0000
G01 X 20.7730 Y 23.1382 Z -1.0000
G02 X 20.7425 Y 23.1395 Z -1.0000 I -0.0123 J 0.0740
G03 X 20.7118 Y 23.1427 Z -1.0000 I -0.0270 J -0.1081
G01 X 20.7009 Y 23.1380 Z -1.0000
G01 X 20.6901 Y 23.1318 Z -1.0000
G02 X 20.6617 Y 23.1281 Z -1.0000 I -0.0299 J 0.1178
G01 X 20.6411 Y 23.1189 Z -1.0000
G01 X 20.6330 Y 23.0972 Z -1.0000
G01 X 20.6272 Y 23.0732 Z -1.0000
G01 X 20.6160 Y 23.0667 Z -1.0000
G01 X 20.6026 Y 23.0713 Z -1.0000
G01 X 20.5980 Y 23.0807 Z -1.0000
G01 X 20.5927 Y 23.0859 Z -1.0000
G01 X 20.5709 Y 23.0802 Z -1.0000
G03 X 20.5491 Y 23.0625 Z -1.0000 I 0.0356 J -0.0663
G01 X 20.5438 Y 23.0482 Z -1.0000
G01 X 20.5381 Y 23.0339 Z -1.0000
G02 X 20.5099 Y 23.0125 Z -1.0000 I -0.0808 J 0.0768
G01 X 20.4911 Y 22.9832 Z -1.0000
G01 X 20.5065 Y 22.9587 Z -1.0000
G01 X 20.5172 Y 22.9499 Z -1.0000
G01 X 20.5149 Y 22.9456 Z -1.0000
G01 X 20.4971 Y 22.9389 Z -1.0000
G01 X 20.4844 Y 22.9210 Z -1.0000
G02 X 20.4755 Y 22.8975 Z -1.0000 I -0.5191 J 0.1831
G02 X 20.4692 Y 22.8832 Z -1.0000 I -0.1982 J 0.0803
G01 X 20.4710 Y 22.8743 Z -1.0000
G01 X 20.4884 Y 22.8672 Z -1.0000
G01 X 20.5105 Y 22.8718 Z -1.0000
G01 X 20.5220 Y 22.8847 Z -1.0000
G01 X 20.5418 Y 22.8920 Z -1.0000
G01 X 20.5549 Y 22.8668 Z -1.0000
G02 X 20.5442 Y 22.8386 Z -1.0000 I -0.0607 J 0.0069
G01 X 20.5315 Y 22.8336 Z -1.0000
G01 X 20.5149 Y 22.8319 Z -1.0000
G01 X 20.5013 Y 22.8201 Z -1.0000
G01 X 20.4941 Y 22.8165 Z -1.0000
G01 X 20.4899 Y 22.8210 Z -1.0000
G01 X 20.4840 Y 22.8275 Z -1.0000
G01 X 20.4699 Y 22.8232 Z -1.0000
G01 X 20.4497 Y 22.8133 Z -1.0000
G01 X 20.4360 Y 22.8156 Z -1.0000
G01 X 20.4272 Y 22.8149 Z -1.0000
G01 X 20.4219 Y 22.8033 Z -1.0000
G01 X 20.4157 Y 22.7883 Z -1.0000
G01 X 20.4008 Y 22.7821 Z -1.0000
G01 X 20.3885 Y 22.7772 Z -1.0000
G01 X 20.3876 Y 22.7693 Z -1.0000
G01 X 20.3872 Y 22.7574 Z -1.0000
G02 X 20.3342 Y 22.6951 Z -1.0000 I -0.4136 J 0.2984
G03 X 20.2746 Y 22.6331 Z -1.0000 I 1.5345 J -1.5345
G01 X 20.2729 Y 22.6287 Z -1.0000
G01 X 20.2712 Y 22.6243 Z -1.0000
G02 X 20.1932 Y 22.5400 Z -1.0000 I -2.9215 J 2.6221
G03 X 20.1227 Y 22.4512 Z -1.0000 I 0.4613 J -0.4389
G03 X 20.0960 Y 22.3923 Z -1.0000 I 0.1729 J -0.1138
G02 X 20.0744 Y 22.3311 Z -1.0000 I -0.4422 J 0.1218
G01 X 20.0639 Y 22.3186 Z -1.0000
G01 X 20.0583 Y 22.3081 Z -1.0000
G01 X 20.0640 Y 22.2945 Z -1.0000
G01 X 20.0714 Y 22.2775 Z -1.0000
G02 X 20.0673 Y 22.1978 Z -1.0000 I -0.4713 J -0.0160
G03 X 20.0607 Y 22.1166 Z -1.0000 I 0.7270 J -0.0997
G01 X 20.0649 Y 22.1012 Z -1.0000
G01 X 20.0644 Y 22.0962 Z -1.0000
G01 X 20.0597 Y 22.0956 Z -1.0000
G01 X 20.0501 Y 22.0940 Z -1.0000
G03 X 20.0392 Y 22.0706 Z -1.0000 I 0.0407 J -0.0333
G03 X 20.0387 Y 22.0418 Z -1.0000 I 0.0842 J -0.0159
G01 X 20.0444 Y 22.0369 Z -1.0000
G01 X 20.0524 Y 22.0332 Z -1.0000
G01 X 20.0560 Y 22.0233 Z -1.0000
G01 X 20.0515 Y 22.0153 Z -1.0000
G01 X 20.0391 Y 22.0132 Z -1.0000
G01 X 20.0297 Y 22.0073 Z -1.0000
G03 X 20.0216 Y 21.9430 Z -1.0000 I 0.2665 J -0.0663
G02 X 20.0141 Y 21.8745 Z -1.0000 I -0.3387 J 0.0025
G01 X 20.0047 Y 21.8640 Z -1.0000
G01 X 19.9946 Y 21.8540 Z -1.0000
G03 X 19.9883 Y 21.8175 Z -1.0000 I 0.1032 J -0.0365
G02 X 19.9810 Y 21.7872 Z -1.0000 I -0.0667 J 0.0000
G01 X 19.9708 Y 21.7833 Z -1.0000
G01 X 19.9596 Y 21.7800 Z -1.0000
G01 X 19.9505 Y 21.7561 Z -1.0000
G02 X 19.9415 Y 21.7245 Z -1.0000 I -0.0835 J 0.0067
G02 X 19.8993 Y 21.6562 Z -1.0000 I -0.4502 J 0.2313
G03 X 19.8588 Y 21.5900 Z -1.0000 I 0.3690 J -0.2709
G01 X 19.8594 Y 21.5765 Z -1.0000
G01 X 19.8606 Y 21.5667 Z -1.0000
G01 X 19.8551 Y 21.5627 Z -1.0000
G01 X 19.8463 Y 21.5570 Z -1.0000
G03 X 19.8112 Y 21.4678 Z -1.0000 I 0.7488 J -0.3462
G02 X 19.7761 Y 21.3785 Z -1.0000 I -0.7899 J 0.2589
G01 X 19.7674 Y 21.3730 Z -1.0000
G01 X 19.7613 Y 21.3679 Z -1.0000
G03 X 19.7620 Y 21.3450 Z -1.0000 I 0.0509 J -0.0098
G01 X 19.7618 Y 21.3210 Z -1.0000
G01 X 19.7524 Y 21.3106 Z -1.0000
G01 X 19.7419 Y 21.2997 Z -1.0000
G03 X 19.7353 Y 21.2606 Z -1.0000 I 0.1160 J -0.0398
G02 X 19.7211 Y 21.0825 Z -1.0000 I -1.2163 J 0.0072
G02 X 19.6959 Y 21.0052 Z -1.0000 I -0.2490 J 0.0384
G03 X 19.6803 Y 20.9626 Z -1.0000 I 0.1604 J -0.0829
G03 X 19.6807 Y 20.9386 Z -1.0000 I 0.0490 J -0.0112
G01 X 19.6793 Y 20.9180 Z -1.0000
G01 X 19.6674 Y 20.9064 Z -1.0000
G01 X 19.6557 Y 20.8962 Z -1.0000
G01 X 19.6559 Y 20.8856 Z -1.0000
G01 X 19.6577 Y 20.8720 Z -1.0000
G02 X 19.6297 Y 20.7995 Z -1.0000 I -0.5093 J 0.1552
G03 X 19.5995 Y 20.7258 Z -1.0000 I 0.6734 J -0.3186
G03 X 19.5953 Y 20.7005 Z -1.0000 I 0.0724 J -0.0252
G01 X 19.5891 Y 20.6772 Z -1.0000
G02 X 19.5669 Y 20.6501 Z -1.0000 I -0.0874 J 0.0491
G03 X 19.5483 Y 20.6228 Z -1.0000 I 0.0412 J -0.0482
G03 X 19.5469 Y 20.5926 Z -1.0000 I 0.0498 J -0.0173
G02 X 19.5460 Y 20.5642 Z -1.0000 I -0.0503 J -0.0126
G01 X 19.5336 Y 20.5510 Z -1.0000
G01 X 19.5207 Y 20.5381 Z -1.0000
G01 X 19.5193 Y 20.5136 Z -1.0000
G02 X 19.5193 Y 20.4279 Z -1.0000 I -0.1708 J -0.0429
G02 X 19.4752 Y 20.3379 Z -1.0000 I -0.2335 J 0.0585
G01 X 19.4674 Y 20.3214 Z -1.0000
G03 X 19.4625 Y 20.2822 Z -1.0000 I 0.1920 J -0.0437
G02 X 19.4585 Y 20.2419 Z -1.0000 I -0.2600 J 0.0059
G02 X 19.4344 Y 20.1263 Z -1.0000 I -2.1829 J 0.3936
G02 X 19.4073 Y 20.0112 Z -1.0000 I -901.7784 J 212.5682
G02 X 19.3879 Y 19.9290 Z -1.0000 I -1708.7284 J 403.7109
G03 X 19.3736 Y 19.8464 Z -1.0000 I 0.6765 J -0.1597
G03 X 19.3713 Y 19.7800 Z -1.0000 I 0.4349 J -0.0485
G01 X 19.3684 Y 19.7300 Z -1.0000
G01 X 19.3535 Y 19.7313 Z -1.0000
G03 X 19.3443 Y 19.6860 Z -1.0000 I 0.0687 J -0.0375
G02 X 19.3421 Y 19.6326 Z -1.0000 I -0.1858 J -0.0190
G01 X 19.3330 Y 19.6250 Z -1.0000
G01 X 19.3236 Y 19.6179 Z -1.0000
G03 X 19.3214 Y 19.5845 Z -1.0000 I 0.0764 J -0.0219
G02 X 19.3231 Y 19.5445 Z -1.0000 I -0.1898 J -0.0281
G02 X 19.3175 Y 19.5201 Z -1.0000 I -0.0764 J 0.0047
G03 X 19.3102 Y 19.4956 Z -1.0000 I 0.1154 J -0.0475
G03 X 19.3018 Y 19.4359 Z -1.0000 I 0.6673 J -0.1249
G02 X 19.2920 Y 19.3772 Z -1.0000 I -0.4292 J 0.0414
G01 X 19.2839 Y 19.3611 Z -1.0000
G03 X 19.2750 Y 19.3451 Z -1.0000 I 0.0391 J -0.0323
G03 X 19.2653 Y 19.3062 Z -1.0000 I 0.2272 J -0.0772
G01 X 19.2566 Y 19.2659 Z -1.0000
G01 X 19.2489 Y 19.2362 Z -1.0000
G02 X 19.2403 Y 19.2076 Z -1.0000 I -0.1407 J 0.0267
G02 X 19.2160 Y 19.1579 Z -1.0000 I -0.4428 J 0.1854
G03 X 19.1922 Y 19.1084 Z -1.0000 I 0.3826 J -0.2149
G01 X 19.1887 Y 19.0908 Z -1.0000
G01 X 19.1836 Y 19.0759 Z -1.0000
G01 X 19.1683 Y 19.0645 Z -1.0000
G01 X 19.1525 Y 19.0542 Z -1.0000
G01 X 19.1502 Y 19.0461 Z -1.0000
G02 X 19.1426 Y 18.9945 Z -1.0000 I -0.0718 J -0.0158
G02 X 19.0958 Y 18.9485 Z -1.0000 I -0.1019 J 0.0568
G01 X 19.0786 Y 18.9302 Z -1.0000
G01 X 19.0765 Y 18.9066 Z -1.0000
G01 X 19.0740 Y 18.8820 Z -1.0000
G02 X 19.0481 Y 18.8484 Z -1.0000 I -0.0939 J 0.0456
G03 X 19.0185 Y 18.8152 Z -1.0000 I 0.1101 J -0.1281
G01 X 19.0126 Y 18.7961 Z -1.0000
G01 X 19.0069 Y 18.7782 Z -1.0000
G01 X 18.9914 Y 18.7661 Z -1.0000
G01 X 18.9782 Y 18.7553 Z -1.0000
G01 X 18.9781 Y 18.7453 Z -1.0000
G01 X 18.9797 Y 18.7340 Z -1.0000
G01 X 18.9722 Y 18.7240 Z -1.0000
G01 X 18.9629 Y 18.7130 Z -1.0000
G03 X 18.9584 Y 18.6897 Z -1.0000 I 0.0582 J -0.0233
G01 X 18.9518 Y 18.6679 Z -1.0000
G02 X 18.9313 Y 18.6494 Z -1.0000 I -0.0476 J 0.0320
G03 X 18.9060 Y 18.6323 Z -1.0000 I 0.0718 J -0.1341
G03 X 18.8572 Y 18.5879 Z -1.0000 I 0.4545 J -0.5479
G02 X 18.7918 Y 18.5448 Z -1.0000 I -0.1374 J 0.1374
G01 X 18.7636 Y 18.5506 Z -1.0000
G01 X 18.7523 Y 18.5558 Z -1.0000
G03 X 18.6985 Y 18.5562 Z -1.0000 I -0.0292 J -0.3416
G02 X 18.6574 Y 18.5642 Z -1.0000 I -0.0057 J 0.0797
G01 X 18.6503 Y 18.5800 Z -1.0000
G01 X 18.6485 Y 18.6028 Z -1.0000
G01 X 18.6351 Y 18.6149 Z -1.0000
G01 X 18.6223 Y 18.6285 Z -1.0000
G02 X 18.6175 Y 18.6831 Z -1.0000 I 0.1608 J 0.0415
G03 X 18.6131 Y 18.7356 Z -1.0000 I -0.1607 J 0.0129
G01 X 18.6021 Y 18.7442 Z -1.0000
G01 X 18.5898 Y 18.7523 Z -1.0000
G02 X 18.5817 Y 18.7908 Z -1.0000 I 0.0880 J 0.0385
G03 X 18.5783 Y 18.8363 Z -1.0000 I -0.3043 J 0.0000
G01 X 18.5724 Y 18.8523 Z -1.0000
G01 X 18.5691 Y 18.8670 Z -1.0000
G01 X 18.5760 Y 18.8837 Z -1.0000
G03 X 18.6058 Y 18.9514 Z -1.0000 I -0.1156 J 0.0912
G01 X 18.5919 Y 18.9818 Z -1.0000
G01 X 18.5861 Y 18.9909 Z -1.0000
G02 X 18.5807 Y 19.0795 Z -1.0000 I 0.8244 J 0.0950
G03 X 18.5737 Y 19.1662 Z -1.0000 I -0.6019 J -0.0046
G01 X 18.5659 Y 19.1754 Z -1.0000
G01 X 18.5579 Y 19.1844 Z -1.0000
G02 X 18.5519 Y 19.2385 Z -1.0000 I 0.2425 J 0.0541
G03 X 18.5437 Y 19.2912 Z -1.0000 I -0.1733 J -0.0000
G01 X 18.5306 Y 19.3051 Z -1.0000
G01 X 18.5182 Y 19.3174 Z -1.0000
G01 X 18.5175 Y 19.3390 Z -1.0000
G01 X 18.5181 Y 19.3628 Z -1.0000
G03 X 18.5051 Y 19.3853 Z -1.0000 I -0.0485 J -0.0130
G01 X 18.4930 Y 19.4094 Z -1.0000
G02 X 18.4865 Y 19.5132 Z -1.0000 I 0.6314 J 0.0918
G03 X 18.4837 Y 19.6192 Z -1.0000 I -1.1838 J 0.0221
G01 X 18.4777 Y 19.6380 Z -1.0000
G01 X 18.4716 Y 19.6568 Z -1.0000
G02 X 18.4693 Y 19.7588 Z -1.0000 I 1.1184 J 0.0764
G03 X 18.4636 Y 19.8595 Z -1.0000 I -0.6226 J 0.0151
G03 X 18.4513 Y 19.8892 Z -1.0000 I -0.0633 J -0.0088
G02 X 18.4383 Y 19.9253 Z -1.0000 I 0.0514 J 0.0389
G01 X 18.4492 Y 19.9367 Z -1.0000
G01 X 18.4590 Y 19.9455 Z -1.0000
G03 X 18.4607 Y 20.0417 Z -1.0000 I -0.5231 J 0.0575
G03 X 18.4483 Y 20.1432 Z -1.0000 I -1.0728 J -0.0799
G01 X 18.4419 Y 20.1510 Z -1.0000
G01 X 18.4380 Y 20.1578 Z -1.0000
G02 X 18.4460 Y 20.1797 Z -1.0000 I 0.0567 J -0.0082
G03 X 18.4545 Y 20.2046 Z -1.0000 I -0.0487 J 0.0303
G03 X 18.4507 Y 20.2296 Z -1.0000 I -0.0522 J 0.0050
G02 X 18.4347 Y 20.2971 Z -1.0000 I 0.2058 J 0.0847
G02 X 18.4233 Y 20.5837 Z -1.0000 I 3.7904 J 0.2937
G03 X 18.4168 Y 20.6891 Z -1.0000 I -0.8799 J -0.0017
G01 X 18.4095 Y 20.6955 Z -1.0000
G01 X 18.4024 Y 20.7017 Z -1.0000
G02 X 18.3982 Y 20.7770 Z -1.0000 I 0.4538 J 0.0631
G03 X 18.3927 Y 20.8555 Z -1.0000 I -0.4056 J 0.0111
G01 X 18.3812 Y 20.8777 Z -1.0000
G01 X 18.3732 Y 20.9013 Z -1.0000
G01 X 18.3858 Y 20.9125 Z -1.0000
G01 X 18.3930 Y 20.9174 Z -1.0000
G01 X 18.3907 Y 20.9246 Z -1.0000
G01 X 18.3800 Y 20.9397 Z -1.0000
G02 X 18.3804 Y 20.9700 Z -1.0000 I 0.0635 J 0.0145
G03 X 18.3825 Y 21.0034 Z -1.0000 I -0.0900 J 0.0224
G03 X 18.3680 Y 21.0734 Z -1.0000 I -0.4169 J -0.0495
G02 X 18.3527 Y 21.1425 Z -1.0000 I 0.4820 J 0.1431
G01 X 18.3556 Y 21.1567 Z -1.0000
G03 X 18.3710 Y 21.2033 Z -1.0000 I -0.0899 J 0.0556
G03 X 18.3824 Y 21.4682 Z -1.0000 I -3.0824 J 0.2649
G03 X 18.3692 Y 21.6191 Z -1.0000 I -0.8669 J 0.0000
G03 X 18.3482 Y 21.6612 Z -1.0000 I -0.0818 J -0.0145
G03 X 18.3086 Y 21.6861 Z -1.0000 I -0.0663 J -0.0616
G03 X 18.2182 Y 21.7014 Z -1.0000 I -0.1023 J -0.3313
G03 X 18.1264 Y 21.6924 Z -1.0000 I -0.0122 J -0.3495
G03 X 18.0738 Y 21.6676 Z -1.0000 I 0.0317 J -0.1353
G02 X 18.0244 Y 21.6324 Z -1.0000 I -0.5570 J 0.7303
G01 X 18.0178 Y 21.6304 Z -1.0000
G01 X 18.0115 Y 21.6281 Z -1.0000
G03 X 17.9458 Y 21.5698 Z -1.0000 I 1.0695 J -1.2714
G02 X 17.7371 Y 21.4483 Z -1.0000 I -0.3703 J 0.3958
G02 X 17.4163 Y 21.4044 Z -1.0000 I -0.2904 J 0.9296
G03 X 17.3613 Y 21.4000 Z -1.0000 I -0.0077 J -0.2478
G01 X 17.3485 Y 21.3912 Z -1.0000
G01 X 17.3360 Y 21.3800 Z -1.0000
G02 X 17.2713 Y 21.3535 Z -1.0000 I -0.2349 J 0.4818
G03 X 17.2054 Y 21.3269 Z -1.0000 I 0.1866 J -0.5577
G03 X 17.1506 Y 21.2961 Z -1.0000 I 0.1976 J -0.4157
G02 X 16.9977 Y 21.2564 Z -1.0000 I -0.1353 J 0.2063
G01 X 16.9685 Y 21.3092 Z -1.0000
G02 X 16.9854 Y 21.3362 Z -1.0000 I 0.2088 J -0.1116
G02 X 17.0071 Y 21.3626 Z -1.0000 I 0.2229 J -0.1610
G03 X 17.0941 Y 21.4952 Z -1.0000 I -0.3442 J 0.3206
G03 X 17.1042 Y 21.5854 Z -1.0000 I -0.1411 J 0.0615
G01 X 17.1183 Y 21.6016 Z -1.0000
G02 X 17.1919 Y 21.5809 Z -1.0000 I -0.0089 J -0.1725
G02 X 17.2561 Y 21.5430 Z -1.0000 I -0.5053 J -0.9304
G02 X 17.2713 Y 21.5302 Z -1.0000 I -0.0406 J -0.0636
G03 X 17.2864 Y 21.5171 Z -1.0000 I 0.0643 J 0.0588
G03 X 17.3289 Y 21.4908 Z -1.0000 I 0.3051 J 0.4454
G03 X 17.3732 Y 21.4773 Z -1.0000 I 0.0536 J 0.0963
G03 X 17.4090 Y 21.4840 Z -1.0000 I 0.0058 J 0.0682
G01 X 17.4346 Y 21.5252 Z -1.0000
G03 X 17.4087 Y 21.5912 Z -1.0000 I -0.0976 J -0.0003
G03 X 17.3065 Y 21.6639 Z -1.0000 I -0.2254 J -0.2085
G03 X 17.1833 Y 21.6900 Z -1.0000 I -0.1245 J -0.2841
G03 X 17.0824 Y 21.6860 Z -1.0000 I -0.0046 J -1.1392
G03 X 17.0490 Y 21.6786 Z -1.0000 I 0.0110 J -0.1298
G01 X 17.0292 Y 21.6773 Z -1.0000
G01 X 17.0266 Y 21.6834 Z -1.0000
G01 X 17.0280 Y 21.6983 Z -1.0000
G01 X 17.0139 Y 21.7168 Z -1.0000
G02 X 16.9877 Y 21.7658 Z -1.0000 I 0.0378 J 0.0517
G02 X 17.0056 Y 21.9113 Z -1.0000 I 0.4458 J 0.0190
G03 X 17.0121 Y 21.9557 Z -1.0000 I -0.1546 J 0.0456
G03 X 17.0068 Y 22.0799 Z -1.0000 I -1.2282 J 0.0092
G02 X 16.9991 Y 22.2038 Z -1.0000 I 1.9825 J 0.1848
G01 X 17.0027 Y 22.2171 Z -1.0000
G01 X 17.0079 Y 22.2303 Z -1.0000
G03 X 17.0188 Y 22.2978 Z -1.0000 I -0.9185 J 0.1834
G02 X 17.0711 Y 22.3801 Z -1.0000 I 0.1133 J -0.0141
G02 X 17.2248 Y 22.4279 Z -1.0000 I 0.1658 J -0.2624
G02 X 17.3387 Y 22.4253 Z -1.0000 I 0.0363 J -0.9277
G01 X 17.3457 Y 22.4177 Z -1.0000
G01 X 17.3516 Y 22.4087 Z -1.0000
G03 X 17.3786 Y 22.4028 Z -1.0000 I 0.0271 J 0.0598
G02 X 17.4092 Y 22.3970 Z -1.0000 I 0.0000 J -0.0834
G02 X 17.4328 Y 22.3815 Z -1.0000 I -0.0255 J -0.0647
G01 X 17.4497 Y 22.3709 Z -1.0000
G01 X 17.4541 Y 22.3740 Z -1.0000
G01 X 17.4736 Y 22.3887 Z -1.0000
G02 X 17.6426 Y 22.3203 Z -1.0000 I -0.2336 J -0.8195
G03 X 17.6916 Y 22.2974 Z -1.0000 I 0.2341 J 0.4369
G01 X 17.7069 Y 22.2944 Z -1.0000
G01 X 17.7202 Y 22.2907 Z -1.0000
G01 X 17.7274 Y 22.2819 Z -1.0000
G01 X 17.7347 Y 22.2725 Z -1.0000
G01 X 17.7517 Y 22.2650 Z -1.0000
G02 X 17.7701 Y 22.2577 Z -1.0000 I -0.0134 J -0.0609
G02 X 17.7966 Y 22.2384 Z -1.0000 I -0.0888 J -0.1500
G03 X 17.8637 Y 22.2056 Z -1.0000 I 0.0934 J 0.1060
G03 X 17.9535 Y 22.2087 Z -1.0000 I 0.0381 J 0.2008
G02 X 17.9822 Y 22.2090 Z -1.0000 I 0.0149 J -0.0568
G01 X 17.9973 Y 22.1981 Z -1.0000
G01 X 18.0054 Y 22.1928 Z -1.0000
G01 X 18.0095 Y 22.1962 Z -1.0000
G01 X 18.0155 Y 22.2073 Z -1.0000
G01 X 18.0347 Y 22.2132 Z -1.0000
G03 X 18.0589 Y 22.2169 Z -1.0000 I 0.0000 J 0.0807
G03 X 18.1020 Y 22.2343 Z -1.0000 I -0.0880 J 0.2806
G02 X 18.1455 Y 22.2516 Z -1.0000 I 0.1250 J -0.2507
G02 X 18.2265 Y 22.2721 Z -1.0000 I 0.2593 J -0.8529
G03 X 18.2999 Y 22.2916 Z -1.0000 I -0.1287 J 0.6332
G01 X 18.3011 Y 22.2966 Z -1.0000
G01 X 18.3023 Y 22.3013 Z -1.0000
G02 X 18.3497 Y 22.3119 Z -1.0000 I 0.0848 J -0.2685
G03 X 18.4065 Y 22.3384 Z -1.0000 I -0.0141 J 0.1045
G03 X 18.4347 Y 22.3893 Z -1.0000 I -0.0610 J 0.0670
G03 X 18.4350 Y 22.4156 Z -1.0000 I -0.0764 J 0.0138
G01 X 18.4303 Y 22.4166 Z -1.0000
G01 X 18.4161 Y 22.4077 Z -1.0000
G01 X 18.4005 Y 22.4132 Z -1.0000
G03 X 18.3818 Y 22.4256 Z -1.0000 I -0.0401 J -0.0401
G03 X 18.3593 Y 22.4300 Z -1.0000 I -0.0225 J -0.0553
G01 X 18.3412 Y 22.4362 Z -1.0000
G01 X 18.3349 Y 22.4492 Z -1.0000
G03 X 18.3329 Y 22.4680 Z -1.0000 I -0.0907 J -0.0000
G03 X 18.3258 Y 22.4921 Z -1.0000 I -0.1557 J -0.0331
G01 X 18.3257 Y 22.5050 Z -1.0000
G01 X 18.3310 Y 22.5069 Z -1.0000
G01 X 18.3638 Y 22.5175 Z -1.0000
G01 X 18.3547 Y 22.5638 Z -1.0000
G01 X 18.3485 Y 22.5542 Z -1.0000
G01 X 18.3436 Y 22.5432 Z -1.0000
G01 X 18.3309 Y 22.5383 Z -1.0000
G01 X 18.3214 Y 22.5456 Z -1.0000
G02 X 18.3186 Y 22.5839 Z -1.0000 I 0.0981 J 0.0265
G03 X 18.3129 Y 22.6219 Z -1.0000 I -0.0736 J 0.0085
G01 X 18.2955 Y 22.6368 Z -1.0000
G01 X 18.2758 Y 22.6509 Z -1.0000
G02 X 18.2672 Y 22.6794 Z -1.0000 I 0.0428 J 0.0285
G03 X 18.2616 Y 22.7090 Z -1.0000 I -0.0823 J -0.0000
G01 X 18.2536 Y 22.7145 Z -1.0000
G01 X 18.2449 Y 22.7193 Z -1.0000
G01 X 18.2401 Y 22.7361 Z -1.0000
G01 X 18.2336 Y 22.7527 Z -1.0000
G01 X 18.2142 Y 22.7644 Z -1.0000
G01 X 18.1947 Y 22.7790 Z -1.0000
G02 X 18.1723 Y 22.8334 Z -1.0000 I 0.1610 J 0.0979
G03 X 18.1506 Y 22.8680 Z -1.0000 I -0.0621 J -0.0148
G01 X 18.1248 Y 22.8722 Z -1.0000
G01 X 18.1168 Y 22.8756 Z -1.0000
G01 X 18.1147 Y 22.8968 Z -1.0000
G01 X 18.1104 Y 22.9211 Z -1.0000
G01 X 18.0922 Y 22.9349 Z -1.0000
G01 X 18.0738 Y 22.9499 Z -1.0000
G02 X 18.0639 Y 22.9919 Z -1.0000 I 0.0845 J 0.0420
G03 X 18.0596 Y 23.0404 Z -1.0000 I -0.2754 J 0.0000
G03 X 18.0505 Y 23.0665 Z -1.0000 I -0.0865 J -0.0155
G01 X 18.0451 Y 23.0919 Z -1.0000
G02 X 18.0555 Y 23.1367 Z -1.0000 I 0.1459 J -0.0103
G03 X 18.0684 Y 23.1826 Z -1.0000 I -0.1980 J 0.0803
G03 X 18.0684 Y 23.2159 Z -1.0000 I -0.1027 J 0.0168
G02 X 18.0634 Y 23.2498 Z -1.0000 I 1.3514 J 0.2176
G02 X 18.0605 Y 23.2734 Z -1.0000 I 0.8543 J 0.1157
G01 X 18.0541 Y 23.2928 Z -1.0000
G01 X 18.0463 Y 23.2972 Z -1.0000
G01 X 18.0405 Y 23.3013 Z -1.0000
G01 X 18.0405 Y 23.3141 Z -1.0000
G01 X 18.0405 Y 23.3302 Z -1.0000
G03 X 18.0217 Y 23.3664 Z -1.0000 I -0.1459 J -0.0526
G02 X 18.0031 Y 23.4013 Z -1.0000 I 0.1355 J 0.0948
G01 X 18.0049 Y 23.4098 Z -1.0000
G01 X 18.0067 Y 23.4185 Z -1.0000
G03 X 17.9841 Y 23.4640 Z -1.0000 I -0.2559 J -0.0984
G02 X 17.9636 Y 23.5127 Z -1.0000 I 0.1469 J 0.0908
G02 X 17.9555 Y 23.5778 Z -1.0000 I 0.2589 J 0.0652
G02 X 17.9790 Y 23.7072 Z -1.0000 I 0.3680 J 0.0000
G01 X 18.0129 Y 23.7308 Z -1.0000
G01 X 18.0193 Y 23.7343 Z -1.0000
G01 X 18.0187 Y 23.7399 Z -1.0000
G01 X 18.0168 Y 23.7491 Z -1.0000
G02 X 18.0321 Y 23.7737 Z -1.0000 I 0.0751 J -0.0296
G03 X 18.0449 Y 23.7943 Z -1.0000 I -0.0507 J 0.0459
G01 X 18.0420 Y 23.7985 Z -1.0000
G01 X 18.0350 Y 23.8041 Z -1.0000
G02 X 18.0295 Y 23.8534 Z -1.0000 I 0.2150 J 0.0493
G03 X 18.0241 Y 23.9056 Z -1.0000 I -0.2576 J 0.0000
G01 X 18.0162 Y 23.9178 Z -1.0000
G01 X 18.0081 Y 23.9300 Z -1.0000
G02 X 18.0008 Y 23.9867 Z -1.0000 I 0.3046 J 0.0679
G03 X 17.9934 Y 24.0430 Z -1.0000 I -0.3002 J -0.0110
G01 X 17.9851 Y 24.0545 Z -1.0000
G01 X 17.9758 Y 24.0658 Z -1.0000
G02 X 17.9618 Y 24.1170 Z -1.0000 I 0.2814 J 0.1047
G03 X 17.9491 Y 24.1702 Z -1.0000 I -0.4840 J -0.0877
G03 X 17.9375 Y 24.1983 Z -1.0000 I -0.1453 J -0.0434
G02 X 17.9216 Y 24.2375 Z -1.0000 I 0.1763 J 0.0943
G02 X 17.9054 Y 24.3100 Z -1.0000 I 0.5917 J 0.1697
G03 X 17.8943 Y 24.3449 Z -1.0000 I -0.1217 J -0.0197
G01 X 17.8871 Y 24.3469 Z -1.0000
G01 X 17.8805 Y 24.3483 Z -1.0000
G01 X 17.8755 Y 24.3640 Z -1.0000
G03 X 17.8605 Y 24.4638 Z -1.0000 I -0.3845 J -0.0066
G03 X 17.8363 Y 24.4998 Z -1.0000 I -0.0679 J -0.0196
G01 X 17.8278 Y 24.5122 Z -1.0000
G01 X 17.8311 Y 24.5167 Z -1.0000
G01 X 17.8429 Y 24.5210 Z -1.0000
G01 X 17.8472 Y 24.5303 Z -1.0000
G01 X 17.8425 Y 24.5391 Z -1.0000
G01 X 17.8269 Y 24.5438 Z -1.0000
G01 X 17.8116 Y 24.5491 Z -1.0000
G01 X 17.8056 Y 24.5608 Z -1.0000
G03 X 17.7737 Y 24.7097 Z -1.0000 I -0.4859 J -0.0263
G01 X 17.7389 Y 24.7335 Z -1.0000
G01 X 17.7329 Y 24.7382 Z -1.0000
G01 X 17.7338 Y 24.7537 Z -1.0000
G01 X 17.7340 Y 24.7733 Z -1.0000
G03 X 17.6994 Y 24.8485 Z -1.0000 I -0.4719 J -0.1716
G02 X 17.6641 Y 24.9192 Z -1.0000 I 0.6774 J 0.3824
G01 X 17.6667 Y 24.9232 Z -1.0000
G01 X 17.6554 Y 24.9402 Z -1.0000
G02 X 17.6383 Y 24.9598 Z -1.0000 I 0.0474 J 0.0584
G02 X 17.6167 Y 25.0045 Z -1.0000 I 0.2358 J 0.1418
G03 X 17.5959 Y 25.0502 Z -1.0000 I -0.3552 J -0.1335
G03 X 17.5786 Y 25.0757 Z -1.0000 I -0.1271 J -0.0681
G01 X 17.5701 Y 25.0940 Z -1.0000
G01 X 17.5747 Y 25.0994 Z -1.0000
G01 X 17.5788 Y 25.1054 Z -1.0000
G03 X 17.5565 Y 25.1447 Z -1.0000 I -0.1551 J -0.0622
G02 X 17.5269 Y 25.1917 Z -1.0000 I 0.2453 J 0.1870
G01 X 17.5219 Y 25.2126 Z -1.0000
G01 X 17.5168 Y 25.2335 Z -1.0000
G03 X 17.4810 Y 25.2916 Z -1.0000 I -0.4068 J -0.2106
G02 X 17.4526 Y 25.3457 Z -1.0000 I 0.1718 J 0.1244
G01 X 17.4573 Y 25.3590 Z -1.0000
G01 X 17.4590 Y 25.3655 Z -1.0000
G01 X 17.4514 Y 25.3702 Z -1.0000
G01 X 17.4333 Y 25.3782 Z -1.0000
G02 X 17.4047 Y 25.4212 Z -1.0000 I 0.1248 J 0.1141
G03 X 17.3417 Y 25.5321 Z -1.0000 I -0.7011 J -0.3251
G03 X 17.2984 Y 25.5768 Z -1.0000 I -0.1516 J -0.1036
G01 X 17.2959 Y 25.5870 Z -1.0000
G01 X 17.3136 Y 25.6339 Z -1.0000
G03 X 17.1914 Y 25.6822 Z -1.0000 I -0.1247 J -0.1369
G01 X 17.1886 Y 25.6859 Z -1.0000
G01 X 17.1944 Y 25.6939 Z -1.0000
G01 X 17.1984 Y 25.7040 Z -1.0000
G01 X 17.1891 Y 25.7143 Z -1.0000
G01 X 17.1732 Y 25.7249 Z -1.0000
G01 X 17.1733 Y 25.7309 Z -1.0000
G01 X 17.1746 Y 25.7386 Z -1.0000
G03 X 17.1583 Y 25.7625 Z -1.0000 I -0.0850 J -0.0406
G02 X 17.1365 Y 25.7872 Z -1.0000 I 0.3906 J 0.3672
G02 X 17.1018 Y 25.8305 Z -1.0000 I 1.1634 J 0.9664
G03 X 17.0661 Y 25.8729 Z -1.0000 I -0.5066 J -0.3903
G03 X 16.9528 Y 25.9927 Z -1.0000 I -4.1826 J -3.8434
G02 X 16.8402 Y 26.1125 Z -1.0000 I 3.2962 J 3.2105
G01 X 16.8342 Y 26.1235 Z -1.0000
G01 X 16.8281 Y 26.1329 Z -1.0000
G01 X 16.8173 Y 26.1376 Z -1.0000
G02 X 16.8037 Y 26.1394 Z -1.0000 I 0.3974 J 3.2011
G03 X 16.7902 Y 26.1410 Z -1.0000 I -0.2303 J -1.7930
G01 X 16.7804 Y 26.1462 Z -1.0000
G01 X 16.7766 Y 26.1563 Z -1.0000
G03 X 16.7515 Y 26.2141 Z -1.0000 I -0.0792 J 0.0000
G01 X 16.7104 Y 26.2182 Z -1.0000
G01 X 16.7000 Y 26.2180 Z -1.0000
G02 X 16.6671 Y 26.2414 Z -1.0000 I 0.0742 J 0.1386
G03 X 16.6336 Y 26.2658 Z -1.0000 I -0.1160 J -0.1247
G01 X 16.6211 Y 26.2669 Z -1.0000
G01 X 16.6169 Y 26.2684 Z -1.0000
G01 X 16.6172 Y 26.2724 Z -1.0000
G01 X 16.6204 Y 26.2828 Z -1.0000
G01 X 16.6114 Y 26.3017 Z -1.0000
G01 X 16.6061 Y 26.3192 Z -1.0000
G01 X 16.6149 Y 26.3332 Z -1.0000
G01 X 16.6188 Y 26.3411 Z -1.0000
G01 X 16.6140 Y 26.3455 Z -1.0000
G01 X 16.5808 Y 26.3295 Z -1.0000
G03 X 16.5556 Y 26.2714 Z -1.0000 I 0.0979 J -0.0771
G02 X 16.5152 Y 26.1825 Z -1.0000 I -0.1796 J 0.0278
G02 X 16.4591 Y 26.1563 Z -1.0000 I -0.0562 J 0.0471
G01 X 16.4432 Y 26.1518 Z -1.0000
G03 X 16.4233 Y 26.1347 Z -1.0000 I 0.0407 J -0.0675
G01 X 16.4219 Y 26.1228 Z -1.0000
G01 X 16.4318 Y 26.1178 Z -1.0000
G01 X 16.4513 Y 26.1155 Z -1.0000
G01 X 16.4555 Y 26.1077 Z -1.0000
G01 X 16.4581 Y 26.0943 Z -1.0000
G03 X 16.5074 Y 26.0270 Z -1.0000 I 0.5933 J 0.3822
G02 X 16.5749 Y 25.9280 Z -1.0000 I -0.5013 J -0.4142
G02 X 16.6304 Y 25.8051 Z -1.0000 I -0.7212 J -0.3998
G02 X 16.6595 Y 25.6825 Z -1.0000 I -0.5442 J -0.1940
G02 X 16.6536 Y 25.6191 Z -1.0000 I -0.1468 J -0.0183
G02 X 16.6233 Y 25.5755 Z -1.0000 I -0.0862 J 0.0277
G01 X 16.5856 Y 25.5656 Z -1.0000
G01 X 16.5783 Y 25.5643 Z -1.0000
G03 X 16.5557 Y 25.5487 Z -1.0000 I 0.0740 J -0.1317
G02 X 16.5334 Y 25.5371 Z -1.0000 I -0.0379 J 0.0454
G01 X 16.5203 Y 25.5390 Z -1.0000
G03 X 16.4625 Y 25.5456 Z -1.0000 I -0.0359 J -0.0581
G01 X 16.4378 Y 25.5112 Z -1.0000
G01 X 16.4308 Y 25.4993 Z -1.0000
G02 X 16.4039 Y 25.4923 Z -1.0000 I -0.0269 J 0.0483
G02 X 16.3746 Y 25.4968 Z -1.0000 I -0.0000 J 0.0979
G01 X 16.3701 Y 25.5030 Z -1.0000
G01 X 16.3659 Y 25.5097 Z -1.0000
G01 X 16.3464 Y 25.5145 Z -1.0000
G02 X 16.3230 Y 25.5177 Z -1.0000 I 0.0044 J 0.1202
G02 X 16.2142 Y 25.5459 Z -1.0000 I 0.6305 J 2.6567
G03 X 16.1057 Y 25.5757 Z -1.0000 I -2.4362 J -8.6611
G03 X 16.0584 Y 25.5876 Z -1.0000 I -0.4396 J -1.6413
G03 X 15.8408 Y 25.6292 Z -1.0000 I -0.5769 J -2.4296
G03 X 15.6790 Y 25.6428 Z -1.0000 I -0.1934 J -1.3301
G02 X 15.5530 Y 25.6584 Z -1.0000 I 0.0150 J 0.6374
G02 X 15.3877 Y 25.7088 Z -1.0000 I 0.2609 J 1.1509
G03 X 15.3599 Y 25.7172 Z -1.0000 I -0.0656 J -0.1687
G03 X 15.2137 Y 25.7461 Z -1.0000 I -1.0316 J -4.8200
G03 X 15.0668 Y 25.7648 Z -1.0000 I -0.2464 J -1.3502
G03 X 15.0047 Y 25.7613 Z -1.0000 I -0.0176 J -0.2418
G03 X 14.9147 Y 25.7194 Z -1.0000 I 0.0367 J -0.1964
G01 X 14.9071 Y 25.6812 Z -1.0000
G02 X 14.9170 Y 25.6559 Z -1.0000 I -0.1030 J -0.0550
G02 X 14.9200 Y 25.6321 Z -1.0000 I -0.0877 J -0.0231
G01 X 14.9147 Y 25.6250 Z -1.0000
G01 X 14.9067 Y 25.6278 Z -1.0000
G01 X 14.8975 Y 25.6342 Z -1.0000
G01 X 14.8933 Y 25.6309 Z -1.0000
G01 X 14.9033 Y 25.6069 Z -1.0000
G03 X 15.1042 Y 25.4245 Z -1.0000 I 2.5186 J 2.5738
G02 X 15.2232 Y 25.3215 Z -1.0000 I -3.4005 J -4.0443
G01 X 15.2297 Y 25.3125 Z -1.0000
G03 X 15.2746 Y 25.2512 Z -1.0000 I 0.1616 J 0.0714
G03 X 15.3180 Y 25.2348 Z -1.0000 I 0.0434 J 0.0493
G01 X 15.3232 Y 25.2329 Z -1.0000
G02 X 15.3694 Y 25.1908 Z -1.0000 I -0.6595 J -0.7694
G03 X 15.5763 Y 25.0058 Z -1.0000 I 2.3594 J 2.4317
G01 X 15.6000 Y 25.0011 Z -1.0000
G01 X 15.6064 Y 24.9997 Z -1.0000
G01 X 15.6080 Y 24.9943 Z -1.0000
G03 X 15.6305 Y 24.9044 Z -1.0000 I 0.0831 J -0.0269
G03 X 15.7521 Y 24.8554 Z -1.0000 I 0.1216 J 0.1264
G01 X 15.7672 Y 24.8498 Z -1.0000
G02 X 15.8512 Y 24.7707 Z -1.0000 I -0.7755 J -0.9073
G03 X 15.9024 Y 24.7252 Z -1.0000 I 0.3165 J 0.3050
G01 X 15.9183 Y 24.7199 Z -1.0000
G01 X 15.9321 Y 24.7155 Z -1.0000
G01 X 15.9365 Y 24.7070 Z -1.0000
G03 X 15.9642 Y 24.6574 Z -1.0000 I 0.0583 J 0.0000
G03 X 16.3456 Y 24.4555 Z -1.0000 I 1.7574 J 2.8582
G02 X 16.3891 Y 24.4053 Z -1.0000 I -0.0324 J -0.0721
G02 X 16.3826 Y 24.3269 Z -1.0000 I -0.1062 J -0.0306
G03 X 16.3500 Y 24.2419 Z -1.0000 I 0.5078 J -0.2434
G03 X 16.3369 Y 24.1711 Z -1.0000 I 0.3374 J -0.0989
G02 X 16.3344 Y 24.1578 Z -1.0000 I -0.0656 J 0.0052
G02 X 16.3188 Y 24.1091 Z -1.0000 I -0.9753 J 0.2867
G03 X 16.2966 Y 23.9496 Z -1.0000 I 0.3827 J -0.1344
G03 X 16.3764 Y 23.1819 Z -1.0000 I 9.2749 J 0.5752
G02 X 16.3942 Y 23.0326 Z -1.0000 I -2.8691 J -0.4186
G02 X 16.3981 Y 22.9482 Z -1.0000 I -0.9093 J -0.0848
G03 X 16.4037 Y 22.8691 Z -1.0000 I 0.5662 J 0.0002
G01 X 16.4102 Y 22.8635 Z -1.0000
G02 X 16.5007 Y 22.7694 Z -1.0000 I 0.0000 J -0.0906
G02 X 16.3974 Y 22.5332 Z -1.0000 I -0.3537 J 0.0138
G01 X 16.3878 Y 22.5176 Z -1.0000
G03 X 16.3834 Y 22.4916 Z -1.0000 I 0.0790 J -0.0266
G01 X 16.3775 Y 22.4819 Z -1.0000
G01 X 16.3687 Y 22.4841 Z -1.0000
G01 X 16.3633 Y 22.4839 Z -1.0000
G01 X 16.3613 Y 22.4721 Z -1.0000
G02 X 16.3610 Y 22.4420 Z -1.0000 I -0.0659 J -0.0144
G01 X 16.3489 Y 22.4203 Z -1.0000
G03 X 16.3353 Y 22.3984 Z -1.0000 I 0.0398 J -0.0398
G03 X 16.3294 Y 22.3618 Z -1.0000 I 0.1095 J -0.0365
G02 X 16.3216 Y 22.3259 Z -1.0000 I -0.0869 J -0.0000
G02 X 16.2947 Y 22.2854 Z -1.0000 I -0.1384 J 0.0628
G03 X 16.2677 Y 22.2460 Z -1.0000 I 0.1195 J -0.1108
G01 X 16.2657 Y 22.2260 Z -1.0000
G01 X 16.2605 Y 22.2142 Z -1.0000
G01 X 16.2361 Y 22.2105 Z -1.0000
G01 X 16.2239 Y 22.2039 Z -1.0000
G01 X 16.2265 Y 22.1879 Z -1.0000
G02 X 16.2399 Y 22.1644 Z -1.0000 I -0.0493 J -0.0438
G01 X 16.2359 Y 22.1589 Z -1.0000
G01 X 16.2274 Y 22.1544 Z -1.0000
G01 X 16.2272 Y 22.1462 Z -1.0000
G01 X 16.2287 Y 22.1351 Z -1.0000
G01 X 16.2210 Y 22.1250 Z -1.0000
G01 X 16.2133 Y 22.1148 Z -1.0000
G01 X 16.2148 Y 22.1037 Z -1.0000
G01 X 16.2127 Y 22.0967 Z -1.0000
G02 X 16.1879 Y 22.0911 Z -1.0000 I -0.0248 J 0.0527
G03 X 16.1596 Y 22.0846 Z -1.0000 I -0.0000 J -0.0653
G01 X 16.1528 Y 22.0742 Z -1.0000
G01 X 16.1480 Y 22.0709 Z -1.0000
G01 X 16.1344 Y 22.0810 Z -1.0000
G03 X 16.1130 Y 22.0979 Z -1.0000 I -0.0433 J -0.0329
G03 X 16.0806 Y 22.1047 Z -1.0000 I -0.0324 J -0.0734
G01 X 16.0551 Y 22.1184 Z -1.0000
G01 X 16.0608 Y 22.1349 Z -1.0000
G01 X 16.0688 Y 22.1440 Z -1.0000
G01 X 16.0668 Y 22.1661 Z -1.0000
G01 X 16.0554 Y 22.1765 Z -1.0000
G01 X 16.0448 Y 22.1724 Z -1.0000
G01 X 16.0341 Y 22.1684 Z -1.0000
G01 X 16.0227 Y 22.1790 Z -1.0000
G03 X 15.9847 Y 22.2402 Z -1.0000 I -0.1786 J -0.0685
G01 X 15.9537 Y 22.2537 Z -1.0000
G01 X 15.9430 Y 22.2669 Z -1.0000
G01 X 15.9601 Y 22.2845 Z -1.0000
G01 X 15.9630 Y 22.2918 Z -1.0000
G01 X 15.9465 Y 22.3055 Z -1.0000
G02 X 15.9155 Y 22.3250 Z -1.0000 I 0.0405 J 0.0987
G01 X 15.9093 Y 22.3390 Z -1.0000
G01 X 15.9042 Y 22.3549 Z -1.0000
G03 X 15.8754 Y 22.3867 Z -1.0000 I -0.1475 J -0.1048
G02 X 15.8467 Y 22.4185 Z -1.0000 I 0.1160 J 0.1334
G01 X 15.8415 Y 22.4350 Z -1.0000
G01 X 15.8356 Y 22.4508 Z -1.0000
G03 X 15.7918 Y 22.4917 Z -1.0000 I -0.2259 J -0.1979
G02 X 15.7630 Y 22.5267 Z -1.0000 I 0.0601 J 0.0788
G01 X 15.7681 Y 22.5398 Z -1.0000
G01 X 15.7707 Y 22.5459 Z -1.0000
G01 X 15.7632 Y 22.5509 Z -1.0000
G01 X 15.7377 Y 22.5589 Z -1.0000
G01 X 15.7253 Y 22.5756 Z -1.0000
G03 X 15.7168 Y 22.5987 Z -1.0000 I -0.2025 J -0.0606
G03 X 15.6980 Y 22.6387 Z -1.0000 I -0.6033 J -0.2603
G02 X 15.6881 Y 22.6753 Z -1.0000 I 0.0807 J 0.0414
G01 X 15.6953 Y 22.6890 Z -1.0000
G01 X 15.7007 Y 22.7013 Z -1.0000
G01 X 15.6892 Y 22.7236 Z -1.0000
G01 X 15.6706 Y 22.7348 Z -1.0000
G01 X 15.6654 Y 22.7309 Z -1.0000
G01 X 15.6610 Y 22.7190 Z -1.0000
G01 X 15.6510 Y 22.7145 Z -1.0000
G01 X 15.6425 Y 22.7197 Z -1.0000
G01 X 15.6391 Y 22.7382 Z -1.0000
G03 X 15.6340 Y 22.7680 Z -1.0000 I -0.0565 J 0.0058
G01 X 15.6248 Y 22.7687 Z -1.0000
G01 X 15.6175 Y 22.7683 Z -1.0000
G01 X 15.6115 Y 22.7855 Z -1.0000
G03 X 15.6006 Y 22.8259 Z -1.0000 I -0.0822 J -0.0005
G03 X 15.5469 Y 22.8979 Z -1.0000 I -0.3277 J -0.1881
G02 X 15.5325 Y 22.9169 Z -1.0000 I 0.0784 J 0.0744
G01 X 15.5296 Y 22.9269 Z -1.0000
G01 X 15.5260 Y 22.9366 Z -1.0000
G03 X 15.4885 Y 22.9780 Z -1.0000 I -0.3688 J -0.2963
G02 X 15.4527 Y 23.0207 Z -1.0000 I 0.1991 J 0.2029
G02 X 15.4400 Y 23.0491 Z -1.0000 I 0.0733 J 0.0500
G03 X 15.4272 Y 23.0739 Z -1.0000 I -0.0591 J -0.0148
G01 X 15.4133 Y 23.0803 Z -1.0000
G01 X 15.4008 Y 23.0866 Z -1.0000
G01 X 15.3944 Y 23.1058 Z -1.0000
G01 X 15.3877 Y 23.1262 Z -1.0000
G01 X 15.3707 Y 23.1376 Z -1.0000
G01 X 15.3512 Y 23.1490 Z -1.0000
G02 X 15.3267 Y 23.1832 Z -1.0000 I 0.1044 J 0.1007
G03 X 15.3030 Y 23.2199 Z -1.0000 I -0.2002 J -0.1033
G03 X 15.2759 Y 23.2473 Z -1.0000 I -0.1380 J -0.1094
G02 X 15.2527 Y 23.2755 Z -1.0000 I 0.0573 J 0.0708
G02 X 15.2454 Y 23.3049 Z -1.0000 I 0.0556 J 0.0294
G03 X 15.2400 Y 23.3323 Z -1.0000 I -0.0721 J -0.0000
G01 X 15.2318 Y 23.3378 Z -1.0000
G01 X 15.2223 Y 23.3337 Z -1.0000
G01 X 15.2183 Y 23.3234 Z -1.0000
G01 X 15.2139 Y 23.3169 Z -1.0000
G01 X 15.2045 Y 23.3176 Z -1.0000
G01 X 15.1972 Y 23.3277 Z -1.0000
G01 X 15.1990 Y 23.3395 Z -1.0000
G01 X 15.1994 Y 23.3516 Z -1.0000
G03 X 15.1789 Y 23.3774 Z -1.0000 I -0.0790 J -0.0417
G02 X 15.1558 Y 23.4044 Z -1.0000 I 0.0790 J 0.0911
G01 X 15.1506 Y 23.4225 Z -1.0000
G01 X 15.1442 Y 23.4381 Z -1.0000
G01 X 15.1235 Y 23.4501 Z -1.0000
G01 X 15.1031 Y 23.4624 Z -1.0000
G01 X 15.0964 Y 23.4798 Z -1.0000
G03 X 15.0777 Y 23.5321 Z -1.0000 I -0.0827 J 0.0000
G01 X 15.0526 Y 23.5334 Z -1.0000
G01 X 15.0468 Y 23.5335 Z -1.0000
G02 X 15.0086 Y 23.5812 Z -1.0000 I 0.3282 J 0.3016
G03 X 14.9695 Y 23.6279 Z -1.0000 I -0.2713 J -0.1880
G01 X 14.9605 Y 23.6289 Z -1.0000
G01 X 14.9561 Y 23.6308 Z -1.0000
G01 X 14.9567 Y 23.6485 Z -1.0000
G01 X 14.9521 Y 23.6633 Z -1.0000
G01 X 14.9351 Y 23.6673 Z -1.0000
G01 X 14.9178 Y 23.6751 Z -1.0000
G02 X 14.9031 Y 23.7308 Z -1.0000 I 0.1239 J 0.0624
G01 X 14.9008 Y 23.7366 Z -1.0000
G03 X 14.8776 Y 23.7613 Z -1.0000 I -0.2167 J -0.1808
G01 X 14.8579 Y 23.7723 Z -1.0000
G01 X 14.8524 Y 23.7681 Z -1.0000
G01 X 14.8479 Y 23.7660 Z -1.0000
G02 X 14.8272 Y 23.7891 Z -1.0000 I 0.0687 J 0.0821
G03 X 14.7994 Y 23.8245 Z -1.0000 I -0.2281 J -0.1504
G03 X 14.7731 Y 23.8475 Z -1.0000 I -0.1213 J -0.1125
G02 X 14.7505 Y 23.8712 Z -1.0000 I 0.0474 J 0.0676
G01 X 14.7440 Y 23.8937 Z -1.0000
G01 X 14.7370 Y 23.9094 Z -1.0000
G01 X 14.7236 Y 23.9118 Z -1.0000
G01 X 14.7138 Y 23.9146 Z -1.0000
G01 X 14.7121 Y 23.9273 Z -1.0000
G01 X 14.7092 Y 23.9396 Z -1.0000
G01 X 14.6953 Y 23.9427 Z -1.0000
G02 X 14.6704 Y 23.9406 Z -1.0000 I -0.0173 J 0.0557
G01 X 14.6492 Y 23.9488 Z -1.0000
G01 X 14.6627 Y 23.9537 Z -1.0000
G01 X 14.6794 Y 23.9548 Z -1.0000
G01 X 14.6808 Y 23.9612 Z -1.0000
G03 X 14.6636 Y 23.9760 Z -1.0000 I -0.0797 J -0.0754
G03 X 14.6347 Y 23.9932 Z -1.0000 I -0.1400 J -0.2020
G02 X 14.6078 Y 24.0121 Z -1.0000 I 0.0542 J 0.1062
G02 X 14.5895 Y 24.0353 Z -1.0000 I 0.0644 J 0.0693
G03 X 14.5724 Y 24.0603 Z -1.0000 I -0.1459 J -0.0815
G03 X 14.5374 Y 24.0983 Z -1.0000 I -0.3724 J -0.3080
G02 X 14.5047 Y 24.1366 Z -1.0000 I 0.1928 J 0.1978
G01 X 14.5001 Y 24.1510 Z -1.0000
G01 X 14.4945 Y 24.1590 Z -1.0000
G01 X 14.4781 Y 24.1589 Z -1.0000
G01 X 14.4387 Y 24.1651 Z -1.0000
G02 X 14.4188 Y 24.2067 Z -1.0000 I 0.0336 J 0.0417
G01 X 14.4130 Y 24.2264 Z -1.0000
G01 X 14.4019 Y 24.2326 Z -1.0000
G02 X 14.3351 Y 24.2589 Z -1.0000 I 0.0027 J 0.1048
G02 X 14.3104 Y 24.3136 Z -1.0000 I 0.0485 J 0.0547
G01 X 14.3063 Y 24.3212 Z -1.0000
G01 X 14.2986 Y 24.3213 Z -1.0000
G01 X 14.2466 Y 24.3256 Z -1.0000
G02 X 14.2156 Y 24.3942 Z -1.0000 I 0.0601 J 0.0685
G01 X 14.2117 Y 24.4031 Z -1.0000
G01 X 14.2042 Y 24.4050 Z -1.0000
G01 X 14.1773 Y 24.4118 Z -1.0000
G02 X 14.0191 Y 24.5894 Z -1.0000 I 1.4055 J 1.4111
G03 X 13.9769 Y 24.6396 Z -1.0000 I -0.8421 J -0.6644
G03 X 13.9194 Y 24.7010 Z -1.0000 I -1.3221 J -1.1811
G02 X 13.8707 Y 24.7640 Z -1.0000 I 0.2399 J 0.2358
G01 X 13.8673 Y 24.7880 Z -1.0000
G01 X 13.8640 Y 24.8069 Z -1.0000
G01 X 13.8489 Y 24.8149 Z -1.0000
G01 X 13.8329 Y 24.8213 Z -1.0000
G01 X 13.8303 Y 24.8327 Z -1.0000
G01 X 13.8296 Y 24.8490 Z -1.0000
G03 X 13.8034 Y 24.8869 Z -1.0000 I -0.1436 J -0.0712
G02 X 13.7800 Y 24.9188 Z -1.0000 I 0.1278 J 0.1184
G01 X 13.7826 Y 24.9233 Z -1.0000
G01 X 13.7909 Y 24.9278 Z -1.0000
G01 X 13.7955 Y 24.9436 Z -1.0000
G01 X 13.7905 Y 24.9589 Z -1.0000
G01 X 13.7805 Y 24.9639 Z -1.0000
G01 X 13.7732 Y 24.9692 Z -1.0000
G01 X 13.7735 Y 24.9848 Z -1.0000
G01 X 13.7762 Y 25.0053 Z -1.0000
G03 X 13.7689 Y 25.0288 Z -1.0000 I -0.0631 J -0.0067
G02 X 13.7592 Y 25.0529 Z -1.0000 I 0.1028 J 0.0556
G02 X 13.7481 Y 25.1035 Z -1.0000 I 0.4376 J 0.1225
G03 X 13.7337 Y 25.1501 Z -1.0000 I -0.1700 J -0.0270
G01 X 13.7202 Y 25.1625 Z -1.0000
G01 X 13.7081 Y 25.1751 Z -1.0000
G02 X 13.7007 Y 25.2194 Z -1.0000 I 0.1290 J 0.0443
G03 X 13.6896 Y 25.2644 Z -1.0000 I -0.0968 J 0.0000
G03 X 13.6428 Y 25.3298 Z -1.0000 I -0.2583 J -0.1355
G03 X 13.5821 Y 25.3871 Z -1.0000 I -0.5537 J -0.5257
G03 X 13.5445 Y 25.4129 Z -1.0000 I -0.1470 J -0.1738
G03 X 13.4110 Y 25.4312 Z -1.0000 I -0.0908 J -0.1657
G01 X 13.3812 Y 25.3750 Z -1.0000
G01 X 13.3816 Y 25.3614 Z -1.0000
G01 X 13.3755 Y 25.3568 Z -1.0000
G01 X 13.3563 Y 25.3444 Z -1.0000
G03 X 13.3301 Y 25.2552 Z -1.0000 I 0.3163 J -0.1412
G01 X 13.3341 Y 25.2281 Z -1.0000
G01 X 13.3422 Y 25.2338 Z -1.0000
G01 X 13.3473 Y 25.2292 Z -1.0000
G02 X 13.3429 Y 25.2052 Z -1.0000 I -0.0566 J -0.0021
G02 X 13.3259 Y 25.1784 Z -1.0000 I -0.0869 J 0.0366
G01 X 13.3184 Y 25.1603 Z -1.0000
G01 X 13.3248 Y 25.1536 Z -1.0000
G01 X 13.3373 Y 25.1442 Z -1.0000
G02 X 13.3535 Y 25.0554 Z -1.0000 I -0.4149 J -0.1212
G03 X 13.3732 Y 24.8788 Z -1.0000 I 2.4436 J 0.1837
G01 X 13.3805 Y 24.8736 Z -1.0000
G01 X 13.3897 Y 24.8712 Z -1.0000
G01 X 13.3986 Y 24.8589 Z -1.0000
G01 X 13.3979 Y 24.8468 Z -1.0000
G01 X 13.3901 Y 24.8420 Z -1.0000
G01 X 13.3795 Y 24.8378 Z -1.0000
G01 X 13.3754 Y 24.8284 Z -1.0000
G01 X 13.3804 Y 24.8198 Z -1.0000
G01 X 13.3991 Y 24.8147 Z -1.0000
G01 X 13.4058 Y 24.8094 Z -1.0000
G01 X 13.4025 Y 24.8009 Z -1.0000
G01 X 13.3956 Y 24.7868 Z -1.0000
G01 X 13.4048 Y 24.7699 Z -1.0000
G01 X 13.4150 Y 24.7190 Z -1.0000
G02 X 13.3279 Y 24.6359 Z -1.0000 I -0.1839 J 0.1055
G03 X 13.2873 Y 24.6149 Z -1.0000 I 6.2505 J -12.1742
G03 X 13.2405 Y 24.5906 Z -1.0000 I 8.7536 J -16.9105
G02 X 13.1323 Y 24.5655 Z -1.0000 I -0.1029 J 0.1975
G02 X 13.0353 Y 24.5955 Z -1.0000 I 0.0044 J 0.1858
G02 X 12.9144 Y 24.7093 Z -1.0000 I 0.2552 J 0.3923
G02 X 12.7301 Y 25.0077 Z -1.0000 I 1.6775 J 1.2419
G03 X 12.6924 Y 25.0753 Z -1.0000 I -0.8593 J -0.4354
G03 X 12.6761 Y 25.0961 Z -1.0000 I -0.0955 J -0.0585
G02 X 12.6602 Y 25.1162 Z -1.0000 I 0.0768 J 0.0768
G01 X 12.6572 Y 25.1269 Z -1.0000
G01 X 12.6536 Y 25.1375 Z -1.0000
G03 X 12.6032 Y 25.1971 Z -1.0000 I -0.6705 J -0.5163
G02 X 12.5518 Y 25.2563 Z -1.0000 I 0.8436 J 0.7834
G01 X 12.5490 Y 25.2641 Z -1.0000
G01 X 12.5461 Y 25.2717 Z -1.0000
G03 X 12.5032 Y 25.3184 Z -1.0000 I -0.5579 J -0.4684
G02 X 12.4092 Y 25.4448 Z -1.0000 I 0.3834 J 0.3834
G02 X 12.3861 Y 25.5360 Z -1.0000 I 0.1701 J 0.0916
G03 X 12.3492 Y 25.6473 Z -1.0000 I -0.1876 J -0.0004
G03 X 12.2081 Y 25.7762 Z -1.0000 I -0.4009 J -0.2971
G01 X 12.1762 Y 25.8045 Z -1.0000
G01 X 12.1198 Y 25.8377 Z -1.0000
G02 X 12.0523 Y 25.8731 Z -1.0000 I 0.3624 J 0.7745
G01 X 12.0422 Y 25.8828 Z -1.0000
G01 X 12.0279 Y 25.8900 Z -1.0000
G03 X 11.8916 Y 25.8688 Z -1.0000 I 0.1045 J -1.1205
G03 X 11.7751 Y 25.8266 Z -1.0000 I 0.1010 J -0.4612
G03 X 11.6966 Y 25.7676 Z -1.0000 I 0.1366 J -0.2631
G03 X 11.6776 Y 25.7281 Z -1.0000 I 0.0521 J -0.0494
G03 X 11.6643 Y 25.5370 Z -1.0000 I 1.3616 J -0.1912
G02 X 11.6468 Y 25.3480 Z -1.0000 I -1.0290 J 0.0000
G02 X 11.6196 Y 25.2980 Z -1.0000 I -0.0909 J 0.0170
G02 X 11.5730 Y 25.2598 Z -1.0000 I -0.2810 J 0.2953
G01 X 11.5571 Y 25.2541 Z -1.0000
G03 X 11.5393 Y 25.2526 Z -1.0000 I 0.1919 J -2.3893
G02 X 11.5165 Y 25.2506 Z -1.0000 I -20.1181 J 229.0844
G01 X 11.4985 Y 25.2426 Z -1.0000
G01 X 11.4851 Y 25.2215 Z -1.0000
G02 X 11.4735 Y 25.1963 Z -1.0000 I -0.1037 J 0.0328
G02 X 11.4538 Y 25.1717 Z -1.0000 I -0.1191 J 0.0750
G01 X 11.4431 Y 25.1519 Z -1.0000
G01 X 11.4479 Y 25.1434 Z -1.0000
G01 X 11.4581 Y 25.1331 Z -1.0000
G02 X 11.4648 Y 25.0907 Z -1.0000 I -0.1320 J -0.0424
G03 X 11.4709 Y 25.0546 Z -1.0000 I 0.1093 J -0.0000
G01 X 11.4783 Y 25.0520 Z -1.0000
G01 X 11.4876 Y 25.0526 Z -1.0000
G01 X 11.4919 Y 25.0460 Z -1.0000
G01 X 11.4878 Y 25.0357 Z -1.0000
G01 X 11.4783 Y 25.0317 Z -1.0000
G01 X 11.4698 Y 25.0267 Z -1.0000
G01 X 11.4650 Y 25.0080 Z -1.0000
G01 X 11.4700 Y 25.0013 Z -1.0000
G01 X 11.4779 Y 25.0043 Z -1.0000
G01 X 11.4864 Y 25.0041 Z -1.0000
G02 X 11.4997 Y 24.9670 Z -1.0000 I -0.0920 J -0.0539
G03 X 11.5133 Y 24.9149 Z -1.0000 I 0.2694 J 0.0427
G01 X 11.5209 Y 24.9097 Z -1.0000
G01 X 11.5268 Y 24.9045 Z -1.0000
G02 X 11.5260 Y 24.8705 Z -1.0000 I -0.1116 J -0.0145
G03 X 11.5274 Y 24.8360 Z -1.0000 I 0.0797 J -0.0139
G01 X 11.5383 Y 24.8239 Z -1.0000
G01 X 11.5494 Y 24.8123 Z -1.0000
G01 X 11.5502 Y 24.7886 Z -1.0000
G01 X 11.5508 Y 24.7668 Z -1.0000
G01 X 11.5593 Y 24.7606 Z -1.0000
G01 X 11.5714 Y 24.7662 Z -1.0000
G03 X 11.5828 Y 24.7877 Z -1.0000 I -0.0405 J 0.0352
G01 X 11.5962 Y 24.8066 Z -1.0000
G01 X 11.6230 Y 24.8148 Z -1.0000
G01 X 11.6450 Y 24.8210 Z -1.0000
G01 X 11.6470 Y 24.8294 Z -1.0000
G01 X 11.6505 Y 24.8363 Z -1.0000
G02 X 11.7215 Y 24.8366 Z -1.0000 I 0.0371 J -0.3835
G02 X 11.8017 Y 24.8193 Z -1.0000 I -0.0292 J -0.3301
G02 X 11.8889 Y 24.7781 Z -1.0000 I -0.1519 J -0.4344
G02 X 11.9702 Y 24.7243 Z -1.0000 I -0.6596 J -1.0845
G02 X 11.9837 Y 24.7100 Z -1.0000 I -0.0303 J -0.0421
G01 X 11.9971 Y 24.6974 Z -1.0000
G01 X 12.0142 Y 24.6929 Z -1.0000
G01 X 12.0280 Y 24.6870 Z -1.0000
G01 X 12.0339 Y 24.6724 Z -1.0000
G03 X 12.0365 Y 24.6525 Z -1.0000 I 0.0757 J 0.0000
G03 X 12.0458 Y 24.6283 Z -1.0000 I 0.1230 J 0.0335
G02 X 12.0568 Y 24.6043 Z -1.0000 I -0.2655 J -0.1354
G02 X 12.0881 Y 24.5235 Z -1.0000 I -3.0745 J -1.2393
G03 X 12.1798 Y 24.3227 Z -1.0000 I 1.4551 J 0.5429
G03 X 12.2646 Y 24.1999 Z -1.0000 I 0.6230 J 0.3398
G02 X 12.3658 Y 24.0603 Z -1.0000 I -0.7919 J -0.6806
G01 X 12.3631 Y 24.0374 Z -1.0000
G01 X 12.3637 Y 24.0327 Z -1.0000
G01 X 12.3779 Y 24.0289 Z -1.0000
G01 X 12.3925 Y 24.0240 Z -1.0000
G01 X 12.3939 Y 24.0168 Z -1.0000
G01 X 12.3976 Y 23.9992 Z -1.0000
G03 X 12.4946 Y 23.9475 Z -1.0000 I 0.2757 J 0.4000
G02 X 12.5396 Y 23.9246 Z -1.0000 I -0.1003 J -0.2534
G02 X 12.6007 Y 23.8806 Z -1.0000 I -0.3243 J -0.5146
G03 X 12.6606 Y 23.8375 Z -1.0000 I 0.3737 J 0.4561
G01 X 12.6719 Y 23.8358 Z -1.0000
G01 X 12.6793 Y 23.8345 Z -1.0000
G01 X 12.6811 Y 23.8290 Z -1.0000
G01 X 12.6916 Y 23.7885 Z -1.0000
G03 X 13.0772 Y 23.4516 Z -1.0000 I 4.0732 J 4.2746
G02 X 13.2260 Y 23.3222 Z -1.0000 I -1.4909 J -1.8644
G02 X 13.3076 Y 23.2339 Z -1.0000 I -0.6093 J -0.6448
G03 X 13.3281 Y 23.2088 Z -1.0000 I 2.3931 J 1.9275
G03 X 13.3855 Y 23.1393 Z -1.0000 I 18.0875 J 14.8862
G02 X 13.4392 Y 23.0684 Z -1.0000 I -0.7793 J -0.6464
G01 X 13.4431 Y 23.0559 Z -1.0000
G01 X 13.4463 Y 23.0441 Z -1.0000
G01 X 13.4541 Y 23.0375 Z -1.0000
G01 X 13.4631 Y 23.0306 Z -1.0000
G02 X 13.5107 Y 22.9652 Z -1.0000 I -0.8810 J -0.6921
G03 X 13.5574 Y 22.8982 Z -1.0000 I 2.3684 J 1.5993
G01 X 13.5642 Y 22.8907 Z -1.0000
G02 X 13.6340 Y 22.8132 Z -1.0000 I -0.2881 J -0.3295
G02 X 13.6464 Y 22.7741 Z -1.0000 I -0.0556 J -0.0391
G01 X 13.6489 Y 22.7650 Z -1.0000
G03 X 13.6653 Y 22.7427 Z -1.0000 I 0.1290 J 0.0776
G02 X 13.7353 Y 22.6351 Z -1.0000 I -0.3262 J -0.2890
G01 X 13.7295 Y 22.6025 Z -1.0000
G01 X 13.6944 Y 22.5996 Z -1.0000
G02 X 13.5523 Y 22.7285 Z -1.0000 I 0.4703 J 0.6617
G03 X 13.3786 Y 22.8980 Z -1.0000 I -1.1265 J -0.9798
G03 X 13.3239 Y 22.9178 Z -1.0000 I -0.0547 J -0.0660
G02 X 13.2565 Y 22.9479 Z -1.0000 I 0.0000 J 0.0905
G02 X 13.2263 Y 23.0269 Z -1.0000 I 0.0882 J 0.0789
G01 X 13.2131 Y 23.0575 Z -1.0000
G03 X 13.0908 Y 23.1549 Z -1.0000 I -0.6355 J -0.6725
G02 X 13.0319 Y 23.1973 Z -1.0000 I 0.5611 J 0.8416
G01 X 13.0253 Y 23.2057 Z -1.0000
G01 X 13.0186 Y 23.2125 Z -1.0000
G01 X 13.0033 Y 23.2159 Z -1.0000
G02 X 12.9437 Y 23.2404 Z -1.0000 I -0.0000 J 0.0847
G02 X 12.8725 Y 23.3456 Z -1.0000 I 0.2313 J 0.2332
G03 X 12.7606 Y 23.4970 Z -1.0000 I -0.3706 J -0.1569
G03 X 12.6395 Y 23.5411 Z -1.0000 I -0.1211 J -0.1443
G02 X 12.5402 Y 23.5662 Z -1.0000 I -0.0000 J 0.2088
G02 X 12.3874 Y 23.6774 Z -1.0000 I 0.3376 J 0.6243
G03 X 12.3226 Y 23.7236 Z -1.0000 I -0.1925 J -0.2014
G03 X 12.2033 Y 23.7723 Z -1.0000 I -0.3343 J -0.6488
G02 X 12.0420 Y 23.8305 Z -1.0000 I 0.5366 J 1.7405
G01 X 12.0339 Y 23.8426 Z -1.0000
G01 X 12.0304 Y 23.8493 Z -1.0000
G01 X 12.0194 Y 23.8527 Z -1.0000
G01 X 12.0062 Y 23.8560 Z -1.0000
G02 X 11.9876 Y 23.8697 Z -1.0000 I 0.0377 J 0.0707
G03 X 11.9696 Y 23.8857 Z -1.0000 I -0.1864 J -0.1904
G03 X 11.9252 Y 23.9205 Z -1.0000 I -0.8709 J -1.0677
G02 X 11.8303 Y 24.0034 Z -1.0000 I 0.5069 J 0.6762
G02 X 11.7439 Y 24.1045 Z -1.0000 I 0.6696 J 0.6600
G03 X 11.7029 Y 24.1562 Z -1.0000 I -0.8126 J -0.6010
G03 X 11.6531 Y 24.2118 Z -1.0000 I -0.9885 J -0.8362
G02 X 11.5938 Y 24.2977 Z -1.0000 I 0.2440 J 0.2320
G02 X 11.5323 Y 24.4625 Z -1.0000 I 0.8614 J 0.4149
G02 X 11.4900 Y 24.6971 Z -1.0000 I 1.3382 J 0.3626
G02 X 11.5006 Y 24.8055 Z -1.0000 I 0.2878 J 0.0267
G01 X 11.4973 Y 24.8208 Z -1.0000
G01 X 11.4834 Y 24.8258 Z -1.0000
G01 X 11.4648 Y 24.8301 Z -1.0000
G01 X 11.4537 Y 24.8473 Z -1.0000
G01 X 11.4579 Y 24.8618 Z -1.0000
G01 X 11.4702 Y 24.8646 Z -1.0000
G01 X 11.4844 Y 24.8758 Z -1.0000
G01 X 11.4648 Y 24.9065 Z -1.0000
G01 X 11.4486 Y 24.9295 Z -1.0000
G02 X 11.4377 Y 25.0317 Z -1.0000 I 0.4724 J 0.1022
G03 X 11.4319 Y 25.1342 Z -1.0000 I -0.9125 J -0.0000
G01 X 11.4254 Y 25.1400 Z -1.0000
G01 X 11.4126 Y 25.1557 Z -1.0000
G02 X 11.4411 Y 25.2176 Z -1.0000 I 0.1453 J -0.0293
G01 X 11.4473 Y 25.2355 Z -1.0000
G03 X 11.4415 Y 25.2718 Z -1.0000 I -0.1123 J 0.0007
G02 X 11.4307 Y 25.3753 Z -1.0000 I 0.2256 J 0.0757
G02 X 11.4753 Y 25.5601 Z -1.0000 I 0.7881 J -0.0926
G03 X 11.5001 Y 25.6355 Z -1.0000 I -0.9293 J 0.3467
G03 X 11.5204 Y 25.7185 Z -1.0000 I -1.1083 J 0.3151
G03 X 11.5260 Y 25.8007 Z -1.0000 I -0.3015 J 0.0620
G03 X 11.5117 Y 25.8507 Z -1.0000 I -0.1223 J -0.0081
G03 X 11.4712 Y 25.8909 Z -1.0000 I -0.0866 J -0.0466
G03 X 11.3835 Y 25.9189 Z -1.0000 I -0.1206 J -0.2267
G02 X 11.2060 Y 25.9540 Z -1.0000 I 0.1717 J 1.3325
G01 X 11.1938 Y 25.9699 Z -1.0000
G01 X 11.1903 Y 25.9755 Z -1.0000
G01 X 11.1832 Y 25.9751 Z -1.0000
G01 X 11.1724 Y 25.9739 Z -1.0000
G02 X 11.1078 Y 26.0014 Z -1.0000 I 0.1708 J 0.4913
G03 X 11.0417 Y 26.0292 Z -1.0000 I -0.2276 J -0.4490
G03 X 11.0108 Y 26.0343 Z -1.0000 I -0.0309 J -0.0913
G02 X 10.9813 Y 26.0391 Z -1.0000 I -0.0000 J 0.0918
G01 X 10.9701 Y 26.0480 Z -1.0000
G01 X 10.9601 Y 26.0559 Z -1.0000
G01 X 10.9499 Y 26.0546 Z -1.0000
G01 X 10.9395 Y 26.0531 Z -1.0000
G01 X 10.9307 Y 26.0595 Z -1.0000
G01 X 10.9202 Y 26.0667 Z -1.0000
G03 X 10.8044 Y 26.0806 Z -1.0000 I -0.2122 J -1.2746
G02 X 10.5747 Y 26.1160 Z -1.0000 I 0.1112 J 1.4848
G01 X 10.5481 Y 26.1409 Z -1.0000
G03 X 10.5400 Y 26.1625 Z -1.0000 I -0.1774 J -0.0540
G03 X 10.5229 Y 26.1975 Z -1.0000 I -0.5059 J -0.2257
G02 X 10.5119 Y 26.2318 Z -1.0000 I 0.0890 J 0.0474
G01 X 10.5159 Y 26.2505 Z -1.0000
G01 X 10.5225 Y 26.2694 Z -1.0000
G01 X 10.5204 Y 26.2871 Z -1.0000
G01 X 10.5205 Y 26.3004 Z -1.0000
G01 X 10.5279 Y 26.3053 Z -1.0000
G01 X 10.5363 Y 26.3112 Z -1.0000
G03 X 10.5413 Y 26.3425 Z -1.0000 I -0.0808 J 0.0290
G02 X 10.5419 Y 26.3798 Z -1.0000 I 0.4385 J 0.0120
G02 X 10.5500 Y 26.4950 Z -1.0000 I 4.4485 J -0.2563
G03 X 10.5538 Y 26.6980 Z -1.0000 I -1.5373 J 0.1300
G03 X 10.5388 Y 26.7319 Z -1.0000 I -0.0513 J -0.0024
G02 X 10.5237 Y 26.7555 Z -1.0000 I 0.0462 J 0.0462
G01 X 10.5250 Y 26.7692 Z -1.0000
G01 X 10.5241 Y 26.7738 Z -1.0000
G01 X 10.5183 Y 26.7741 Z -1.0000
G01 X 10.5069 Y 26.7719 Z -1.0000
G01 X 10.5027 Y 26.7770 Z -1.0000
G03 X 10.4549 Y 26.8365 Z -1.0000 I -0.0609 J 0.0000
G03 X 10.3292 Y 26.8151 Z -1.0000 I -0.0364 J -0.1658
G01 X 10.3187 Y 26.8143 Z -1.0000
G02 X 10.2583 Y 26.8463 Z -1.0000 I 0.1914 J 0.4351
G03 X 10.1971 Y 26.8699 Z -1.0000 I -0.0918 J -0.1470
G03 X 10.1572 Y 26.8644 Z -1.0000 I -0.0115 J -0.0642
G03 X 10.1208 Y 26.8396 Z -1.0000 I 0.0637 J -0.1321
G03 X 10.0721 Y 26.7851 Z -1.0000 I 0.2767 J -0.2968
G02 X 10.0243 Y 26.7319 Z -1.0000 I -0.3139 J 0.2337
G01 X 10.0076 Y 26.7253 Z -1.0000
G03 X 9.9237 Y 26.6887 Z -1.0000 I 0.0000 J -0.1145
G03 X 9.8228 Y 26.5261 Z -1.0000 I 0.3666 J -0.3401
G03 X 9.7713 Y 26.3181 Z -1.0000 I 0.8365 J -0.3175
G03 X 9.7837 Y 26.2091 Z -1.0000 I 0.2332 J -0.0288
G02 X 9.7949 Y 26.1619 Z -1.0000 I -0.1996 J -0.0725
G02 X 9.8071 Y 26.0140 Z -1.0000 I -1.9727 J -0.2373
G03 X 9.8233 Y 25.8667 Z -1.0000 I 1.1508 J 0.0518
G03 X 9.8544 Y 25.7447 Z -1.0000 I 0.8187 J 0.1437
G02 X 9.8833 Y 25.6249 Z -1.0000 I -0.6602 J -0.2226
G02 X 9.8783 Y 25.5845 Z -1.0000 I -0.0755 J -0.0113
G02 X 9.8342 Y 25.5292 Z -1.0000 I -0.1180 J 0.0489
G02 X 9.7606 Y 25.5009 Z -1.0000 I -0.0920 J 0.1296
G02 X 9.7219 Y 25.5072 Z -1.0000 I -0.0083 J 0.0715
G02 X 9.6600 Y 25.5480 Z -1.0000 I 0.1087 J 0.2326
G03 X 9.5999 Y 25.5956 Z -1.0000 I -0.4520 J -0.5078
G01 X 9.5858 Y 25.6003 Z -1.0000
G01 X 9.5730 Y 25.6049 Z -1.0000
G01 X 9.5639 Y 25.6176 Z -1.0000
G01 X 9.5541 Y 25.6244 Z -1.0000
G01 X 9.5290 Y 25.6176 Z -1.0000
G02 X 9.4994 Y 25.6042 Z -1.0000 I -0.0776 J 0.1317
G02 X 9.4777 Y 25.6007 Z -1.0000 I -0.0217 J 0.0656
G03 X 9.4159 Y 25.5817 Z -1.0000 I -0.0000 J -0.1103
G03 X 9.2967 Y 25.4780 Z -1.0000 I 0.3682 J -0.5435
G02 X 9.1961 Y 25.4382 Z -1.0000 I -0.0906 J 0.0818
G01 X 9.1578 Y 25.4894 Z -1.0000
G01 X 9.1542 Y 25.5001 Z -1.0000
G01 X 9.1386 Y 25.5058 Z -1.0000
G01 X 9.1249 Y 25.5095 Z -1.0000
G01 X 9.1243 Y 25.5140 Z -1.0000
G01 X 9.1257 Y 25.5223 Z -1.0000
G03 X 9.1062 Y 25.5504 Z -1.0000 I -0.1060 J -0.0526
G02 X 9.0844 Y 25.5804 Z -1.0000 I 0.1138 J 0.1060
G01 X 9.0799 Y 25.5973 Z -1.0000
G03 X 9.0523 Y 25.6637 Z -1.0000 I -0.0935 J 0.0000
G03 X 8.9481 Y 25.7283 Z -1.0000 I -0.1921 J -0.1932
G03 X 8.8346 Y 25.7328 Z -1.0000 I -0.0643 J -0.1888
G03 X 8.7242 Y 25.6713 Z -1.0000 I 0.0609 J -0.2389
G03 X 8.6767 Y 25.6209 Z -1.0000 I 0.5050 J -0.5231
G01 X 8.6734 Y 25.6119 Z -1.0000
G02 X 8.6497 Y 25.5575 Z -1.0000 I -0.0743 J 0.0000
G02 X 8.5449 Y 25.4923 Z -1.0000 I -0.2193 J 0.2357
G02 X 8.4482 Y 25.5064 Z -1.0000 I -0.0357 J 0.0939
G02 X 8.3231 Y 25.6616 Z -1.0000 I 0.2541 J 0.3327
G03 X 8.2907 Y 25.7048 Z -1.0000 I -0.1191 J -0.0558
G03 X 8.1826 Y 25.7848 Z -1.0000 I -0.5388 J -0.6147
G02 X 8.0430 Y 25.8995 Z -1.0000 I 0.3593 J 0.5798
G02 X 8.0010 Y 25.9795 Z -1.0000 I 0.1248 J 0.1164
G03 X 7.9218 Y 26.1808 Z -1.0000 I -0.6615 J -0.1442
G03 X 7.8525 Y 26.2298 Z -1.0000 I -0.0896 J -0.0531
G02 X 7.7593 Y 26.2557 Z -1.0000 I 0.1256 J 0.6323
G01 X 7.7520 Y 26.2661 Z -1.0000
G01 X 7.7479 Y 26.2740 Z -1.0000
G01 X 7.7349 Y 26.2782 Z -1.0000
G01 X 7.7198 Y 26.2831 Z -1.0000
G02 X 7.6638 Y 26.3298 Z -1.0000 I 0.3189 J 0.4395
G03 X 7.6074 Y 26.3784 Z -1.0000 I -0.5052 J -0.5291
G03 X 7.5555 Y 26.4139 Z -1.0000 I -0.3204 J -0.4124
G02 X 7.4263 Y 26.5173 Z -1.0000 I 0.3165 J 0.5278
G02 X 7.3402 Y 26.6400 Z -1.0000 I 0.3655 J 0.3480
G02 X 7.3011 Y 26.7186 Z -1.0000 I 132.9383 J 66.3275
G02 X 7.2893 Y 26.7423 Z -1.0000 I 12.4354 J 6.1953
G02 X 7.2840 Y 26.7619 Z -1.0000 I 0.0461 J 0.0229
G01 X 7.2878 Y 26.7660 Z -1.0000
G01 X 7.2939 Y 26.7704 Z -1.0000
G03 X 7.3002 Y 26.8025 Z -1.0000 I -0.1154 J 0.0392
G02 X 7.3077 Y 26.8362 Z -1.0000 I 0.1066 J -0.0062
G01 X 7.3207 Y 26.8533 Z -1.0000
G03 X 7.3453 Y 26.9053 Z -1.0000 I -0.0394 J 0.0505
G03 X 7.3168 Y 27.0099 Z -1.0000 I -0.2264 J -0.0055
G03 X 7.2971 Y 27.0432 Z -1.0000 I -0.5824 J -0.3237
G03 X 7.2459 Y 27.1217 Z -1.0000 I -3.2883 J -2.0864
G02 X 7.2089 Y 27.2035 Z -1.0000 I 0.2279 J 0.1524
G02 X 7.2025 Y 27.2843 Z -1.0000 I 0.2165 J 0.0578
G03 X 7.2103 Y 27.3690 Z -1.0000 I -3.7402 J 0.3874
G03 X 7.2114 Y 27.3941 Z -1.0000 I -0.3287 J 0.0265
G01 X 7.2184 Y 27.4139 Z -1.0000
G01 X 7.2369 Y 27.4259 Z -1.0000
G01 X 7.2526 Y 27.4376 Z -1.0000
G01 X 7.2542 Y 27.4538 Z -1.0000
G01 X 7.2537 Y 27.4662 Z -1.0000
G01 X 7.2585 Y 27.4682 Z -1.0000
G01 X 7.2700 Y 27.4679 Z -1.0000
G03 X 7.2947 Y 27.4863 Z -1.0000 I -0.0404 J 0.0803
G01 X 7.3122 Y 27.5112 Z -1.0000
G01 X 7.3457 Y 27.5951 Z -1.0000
G03 X 7.3746 Y 27.7011 Z -1.0000 I -0.2842 J 0.1344
G03 X 7.3608 Y 27.7619 Z -1.0000 I -0.1007 J 0.0091
G02 X 7.3419 Y 27.8309 Z -1.0000 I 0.1157 J 0.0688
G01 X 7.3610 Y 27.8500 Z -1.0000
G01 X 7.3680 Y 27.8546 Z -1.0000
G03 X 7.3726 Y 27.8779 Z -1.0000 I -0.0559 J 0.0233
G01 X 7.3670 Y 27.8957 Z -1.0000
G01 X 7.3591 Y 27.8974 Z -1.0000
G01 X 7.3390 Y 27.9109 Z -1.0000
G02 X 7.3854 Y 28.0518 Z -1.0000 I 0.4921 J -0.0841
G03 X 7.4125 Y 28.1336 Z -1.0000 I -0.2611 J 0.1318
G03 X 7.4198 Y 28.2502 Z -1.0000 I -0.5284 J 0.0916
G03 X 7.4092 Y 28.3666 Z -1.0000 I -1.3174 J -0.0613
G01 X 7.4025 Y 28.3773 Z -1.0000
G01 X 7.3948 Y 28.3878 Z -1.0000
G02 X 7.3651 Y 28.5038 Z -1.0000 I 1.5451 J 0.4572
G03 X 7.3367 Y 28.6189 Z -1.0000 I -2.0329 J -0.4406
G01 X 7.3322 Y 28.6223 Z -1.0000
G01 X 7.3286 Y 28.6258 Z -1.0000
G02 X 7.3259 Y 28.7680 Z -1.0000 I 2.8838 J 0.1245
G02 X 7.3353 Y 28.9118 Z -1.0000 I 1.2223 J -0.0074
G02 X 7.3509 Y 28.9679 Z -1.0000 I 0.1974 J -0.0246
G02 X 7.3750 Y 29.0220 Z -1.0000 I 17.4619 J -7.7445
G02 X 7.4110 Y 29.1024 Z -1.0000 I 39.5371 J -17.6821
G03 X 7.4435 Y 29.1829 Z -1.0000 I -1.0047 J 0.4518
G01 X 7.4437 Y 29.1938 Z -1.0000
G01 X 7.4454 Y 29.2012 Z -1.0000
G01 X 7.4539 Y 29.2050 Z -1.0000
G01 X 7.4624 Y 29.2100 Z -1.0000
G01 X 7.4675 Y 29.2300 Z -1.0000
G02 X 7.4729 Y 29.2530 Z -1.0000 I 0.0516 J 0.0000
G02 X 7.4961 Y 29.2876 Z -1.0000 I 0.1440 J -0.0717
G03 X 7.5237 Y 29.3210 Z -1.0000 I -0.5307 J 0.4672
G03 X 7.5451 Y 29.3507 Z -1.0000 I -0.3977 J 0.3090
G02 X 7.5690 Y 29.3745 Z -1.0000 I 0.0715 J -0.0477
G01 X 7.5909 Y 29.3811 Z -1.0000
G01 X 7.6133 Y 29.3879 Z -1.0000
G03 X 7.6531 Y 29.4224 Z -1.0000 I -0.1135 J 0.1711
G02 X 7.7402 Y 29.4993 Z -1.0000 I 0.3627 J -0.3232
G02 X 7.7971 Y 29.5217 Z -1.0000 I 0.0766 J -0.1111
G03 X 7.9177 Y 29.5740 Z -1.0000 I -0.0361 J 0.2480
G03 X 7.9547 Y 29.6476 Z -1.0000 I -0.0618 J 0.0772
G01 X 7.9594 Y 29.6606 Z -1.0000
G01 X 7.9722 Y 29.6703 Z -1.0000
G01 X 7.9771 Y 29.6785 Z -1.0000
G01 X 7.9701 Y 29.6905 Z -1.0000
G01 X 7.9594 Y 29.7083 Z -1.0000
G02 X 7.9470 Y 29.8778 Z -1.0000 I 1.6967 J 0.2091
G02 X 7.9491 Y 30.1643 Z -1.0000 I 4.7005 J 0.1087
G02 X 7.9592 Y 30.1998 Z -1.0000 I 0.0780 J -0.0029
G03 X 7.9982 Y 30.2997 Z -1.0000 I -0.3268 J 0.1851
G03 X 8.0102 Y 30.4188 Z -1.0000 I -0.4563 J 0.1063
G02 X 8.0171 Y 30.4713 Z -1.0000 I 0.1682 J 0.0046
G02 X 8.0374 Y 30.5106 Z -1.0000 I 0.1129 J -0.0335
G03 X 8.1821 Y 30.7541 Z -1.0000 I -0.8554 J 0.6729
G01 X 8.1517 Y 30.7768 Z -1.0000
G01 X 8.1467 Y 30.7799 Z -1.0000
G02 X 8.1718 Y 30.8607 Z -1.0000 I 0.6160 J -0.1472
G02 X 8.2100 Y 30.9597 Z -1.0000 I 1721.9938 J -663.5346
G02 X 8.2283 Y 31.0072 Z -1.0000 I 402.4193 J -155.3830
G02 X 8.2503 Y 31.0516 Z -1.0000 I 0.2520 J -0.0973
G01 X 8.2645 Y 31.0660 Z -1.0000
G03 X 8.2811 Y 31.0790 Z -1.0000 I -0.0570 J 0.0898
G03 X 8.3176 Y 31.1168 Z -1.0000 I -0.4601 J 0.4803
G02 X 8.3550 Y 31.1511 Z -1.0000 I 0.1883 J -0.1678
G01 X 8.3704 Y 31.1562 Z -1.0000
G03 X 8.4193 Y 31.1827 Z -1.0000 I 0.0000 J 0.0584
G03 X 8.4486 Y 31.2759 Z -1.0000 I -0.1512 J 0.0988
G03 X 8.4436 Y 31.3065 Z -1.0000 I -0.0798 J 0.0025
G01 X 8.4358 Y 31.3100 Z -1.0000
G01 X 8.4124 Y 31.3246 Z -1.0000
G02 X 8.4296 Y 31.3799 Z -1.0000 I 0.0757 J 0.0067
G03 X 8.4399 Y 31.4302 Z -1.0000 I -0.0420 J 0.0348
G01 X 8.4076 Y 31.4543 Z -1.0000
G01 X 8.3646 Y 31.4971 Z -1.0000
G02 X 8.4071 Y 31.5722 Z -1.0000 I 0.0869 J 0.0004
G03 X 8.4228 Y 31.5856 Z -1.0000 I -0.0319 J 0.0535
G03 X 8.4505 Y 31.6237 Z -1.0000 I -0.2487 J 0.2098
G02 X 8.4773 Y 31.6632 Z -1.0000 I 0.4953 J -0.3076
G02 X 8.5136 Y 31.7089 Z -1.0000 I 0.6987 J -0.5178
G03 X 8.5536 Y 31.7935 Z -1.0000 I -0.1368 J 0.1164
G01 X 8.5311 Y 31.8066 Z -1.0000
G01 X 8.5173 Y 31.8035 Z -1.0000
G01 X 8.5108 Y 31.8117 Z -1.0000
G01 X 8.5047 Y 31.8276 Z -1.0000
G01 X 8.4908 Y 31.8337 Z -1.0000
G01 X 8.4762 Y 31.8408 Z -1.0000
G02 X 8.4615 Y 31.8705 Z -1.0000 I 0.0614 J 0.0489
G03 X 8.4480 Y 31.9051 Z -1.0000 I -0.1439 J -0.0361
G03 X 8.4267 Y 31.9347 Z -1.0000 I -0.1270 J -0.0688
G02 X 8.4127 Y 31.9663 Z -1.0000 I 0.0387 J 0.0360
G02 X 8.4105 Y 32.1249 Z -1.0000 I 1.1120 J 0.0945
G02 X 8.4499 Y 32.3466 Z -1.0000 I 0.9533 J -0.0549
G02 X 8.5088 Y 32.4496 Z -1.0000 I 0.2541 J -0.0769
G03 X 8.5560 Y 32.5091 Z -1.0000 I -0.3784 J 0.3488
G03 X 8.5860 Y 32.5632 Z -1.0000 I -0.2822 J 0.1918
G02 X 8.6152 Y 32.6108 Z -1.0000 I 0.1896 J -0.0837
G01 X 8.6277 Y 32.6141 Z -1.0000
G01 X 8.6409 Y 32.6150 Z -1.0000
G01 X 8.6516 Y 32.6273 Z -1.0000
G01 X 8.6627 Y 32.6414 Z -1.0000
G01 X 8.6798 Y 32.6467 Z -1.0000
G01 X 8.6956 Y 32.6517 Z -1.0000
G01 X 8.7005 Y 32.6611 Z -1.0000
G01 X 8.7044 Y 32.6685 Z -1.0000
G01 X 8.7115 Y 32.6686 Z -1.0000
G01 X 8.7529 Y 32.6754 Z -1.0000
G03 X 8.8058 Y 32.7823 Z -1.0000 I -0.1988 J 0.1650
G02 X 8.8219 Y 32.8426 Z -1.0000 I 0.9176 J -0.2121
G02 X 8.8370 Y 32.8853 Z -1.0000 I 0.4720 J -0.1426
G03 X 8.8425 Y 32.9536 Z -1.0000 I -0.1062 J 0.0431
G01 X 8.8205 Y 32.9580 Z -1.0000
G01 X 8.8151 Y 32.9556 Z -1.0000
G01 X 8.8129 Y 32.9590 Z -1.0000
G01 X 8.8134 Y 32.9789 Z -1.0000
G03 X 8.8006 Y 33.0057 Z -1.0000 I -0.0777 J -0.0206
G02 X 8.7898 Y 33.0339 Z -1.0000 I 0.0460 J 0.0337
G02 X 8.7894 Y 33.1203 Z -1.0000 I 0.4674 J 0.0454
G02 X 8.8317 Y 33.2850 Z -1.0000 I 0.5195 J -0.0456
G02 X 8.8906 Y 33.3500 Z -1.0000 I 0.1268 J -0.0559
G03 X 8.9363 Y 33.3826 Z -1.0000 I -0.1261 J 0.2244
G01 X 8.9376 Y 33.3920 Z -1.0000
G01 X 8.9362 Y 33.4023 Z -1.0000
G01 X 8.9434 Y 33.4117 Z -1.0000
G01 X 8.9519 Y 33.4220 Z -1.0000
G03 X 8.9553 Y 33.4431 Z -1.0000 I -0.0498 J 0.0189
G02 X 8.9871 Y 33.5325 Z -1.0000 I 0.1266 J 0.0053
G02 X 9.0732 Y 33.5759 Z -1.0000 I 0.0978 J -0.0868
G03 X 9.1491 Y 33.5948 Z -1.0000 I -0.0231 J 0.2560
G01 X 9.1539 Y 33.6097 Z -1.0000
G01 X 9.1545 Y 33.6190 Z -1.0000
G02 X 9.1751 Y 33.6361 Z -1.0000 I 0.0520 J -0.0416
G03 X 9.2280 Y 33.6932 Z -1.0000 I -0.0564 J 0.1054
G01 X 9.2166 Y 33.7301 Z -1.0000
G01 X 9.2046 Y 33.7540 Z -1.0000
G02 X 9.2266 Y 33.8434 Z -1.0000 I 0.3001 J -0.0267
G03 X 9.2407 Y 33.8819 Z -1.0000 I -0.4278 J 0.1786
G01 X 9.2425 Y 33.8936 Z -1.0000
G01 X 9.2477 Y 33.9013 Z -1.0000
G02 X 9.2934 Y 33.9138 Z -1.0000 I 0.0797 J -0.2008
G03 X 9.4494 Y 33.9515 Z -1.0000 I -0.1608 J 1.0085
G03 X 9.4930 Y 33.9789 Z -1.0000 I -0.0326 J 0.0999
G03 X 9.5788 Y 34.0925 Z -1.0000 I -0.4574 J 0.4349
G03 X 9.5948 Y 34.1512 Z -1.0000 I -0.0992 J 0.0587
G02 X 9.5991 Y 34.1782 Z -1.0000 I 0.0878 J -0.0000
G02 X 9.6179 Y 34.2226 Z -1.0000 I 0.2604 J -0.0841
G03 X 9.6371 Y 34.2666 Z -1.0000 I -0.2751 J 0.1464
G01 X 9.6382 Y 34.2808 Z -1.0000
G01 X 9.6405 Y 34.2938 Z -1.0000
G02 X 9.6622 Y 34.3198 Z -1.0000 I 0.1020 J -0.0627
G02 X 9.6920 Y 34.3348 Z -1.0000 I 0.0420 J -0.0464
G02 X 9.7460 Y 34.3365 Z -1.0000 I 0.0322 J -0.1615
G03 X 9.7980 Y 34.3423 Z -1.0000 I 0.0144 J 0.1076
G03 X 9.8398 Y 34.3711 Z -1.0000 I -0.0355 J 0.0963
G03 X 9.8689 Y 34.4146 Z -1.0000 I -0.1543 J 0.1347
G01 X 9.8697 Y 34.4313 Z -1.0000
G01 X 9.8689 Y 34.4483 Z -1.0000
G02 X 9.8807 Y 34.4708 Z -1.0000 I 0.0583 J -0.0161
G03 X 9.8935 Y 34.4941 Z -1.0000 I -0.0541 J 0.0449
G03 X 9.8991 Y 34.5282 Z -1.0000 I -0.1122 J 0.0361
G02 X 9.9070 Y 34.5572 Z -1.0000 I 0.0613 J -0.0010
G01 X 9.9201 Y 34.5654 Z -1.0000
G03 X 9.9399 Y 34.5685 Z -1.0000 I -0.0072 J 0.1115
G03 X 9.9607 Y 34.5756 Z -1.0000 I -0.0320 J 0.1281
G02 X 9.9816 Y 34.5825 Z -1.0000 I 0.0493 J -0.1131
G02 X 10.0217 Y 34.5900 Z -1.0000 I 0.0978 J -0.4135
G03 X 10.0741 Y 34.6018 Z -1.0000 I -0.0433 J 0.3156
G03 X 10.1978 Y 34.6455 Z -1.0000 I -0.5712 J 1.8130
G02 X 10.2395 Y 34.6559 Z -1.0000 I 0.0604 J -0.1537
G02 X 10.3198 Y 34.6594 Z -1.0000 I 0.0656 J -0.5754
G03 X 10.4476 Y 34.6814 Z -1.0000 I 0.0084 J 0.3338
G03 X 10.5598 Y 34.7513 Z -1.0000 I -0.1241 J 0.3241
G02 X 10.6005 Y 34.7781 Z -1.0000 I 0.1002 J -0.1078
G02 X 10.6750 Y 34.8023 Z -1.0000 I 0.1541 J -0.3482
G03 X 10.7502 Y 34.8252 Z -1.0000 I -0.0961 J 0.4496
G03 X 10.7805 Y 34.8446 Z -1.0000 I -0.0360 J 0.0897
G02 X 10.9020 Y 34.9289 Z -1.0000 I 0.3399 J -0.3603
G02 X 10.9833 Y 34.9442 Z -1.0000 I 0.0682 J -0.1388
G03 X 11.1114 Y 34.9673 Z -1.0000 I 0.0211 J 0.2499
G03 X 11.1915 Y 35.0425 Z -1.0000 I -0.0762 J 0.1614
G02 X 11.2634 Y 35.1241 Z -1.0000 I 0.2208 J -0.1218
G02 X 11.3782 Y 35.1791 Z -1.0000 I 0.2039 J -0.2786
G02 X 11.5804 Y 35.2131 Z -1.0000 I 0.2805 J -1.0496
G01 X 11.5867 Y 35.1942 Z -1.0000
G01 X 11.5791 Y 35.1847 Z -1.0000
G01 X 11.5817 Y 35.1808 Z -1.0000
G01 X 11.5952 Y 35.1845 Z -1.0000
G03 X 11.6124 Y 35.1991 Z -1.0000 I -0.0341 J 0.0572
G01 X 11.6308 Y 35.2091 Z -1.0000
G02 X 11.6850 Y 35.2071 Z -1.0000 I 0.0205 J -0.1864
G03 X 11.7417 Y 35.2004 Z -1.0000 I 0.0816 J 0.4458
G01 X 11.7533 Y 35.2034 Z -1.0000
G01 X 11.7638 Y 35.2050 Z -1.0000
G01 X 11.7805 Y 35.1967 Z -1.0000
G01 X 11.7986 Y 35.1900 Z -1.0000
G03 X 11.8663 Y 35.1945 Z -1.0000 I 0.0096 J 0.3678
G03 X 11.9304 Y 35.2162 Z -1.0000 I -0.0319 J 0.1994
G03 X 11.9950 Y 35.2640 Z -1.0000 I -0.1354 J 0.2505
G02 X 12.0555 Y 35.3176 Z -1.0000 I 0.5349 J -0.5422
G01 X 12.0644 Y 35.3193 Z -1.0000
G01 X 12.0711 Y 35.3209 Z -1.0000
G01 X 12.0746 Y 35.3292 Z -1.0000
G01 X 12.0792 Y 35.3398 Z -1.0000
G02 X 12.1219 Y 35.3744 Z -1.0000 I 0.2296 J -0.2403
G03 X 12.1629 Y 35.4072 Z -1.0000 I -0.1881 J 0.2767
G01 X 12.1630 Y 35.4129 Z -1.0000
G01 X 12.1735 Y 35.4366 Z -1.0000
G02 X 12.3126 Y 35.4047 Z -1.0000 I -0.0231 J -0.4201
G03 X 12.4453 Y 35.3733 Z -1.0000 I 0.1614 J 0.3863
G01 X 12.4676 Y 35.3941 Z -1.0000
G01 X 12.4906 Y 35.4294 Z -1.0000
G02 X 12.5940 Y 35.4513 Z -1.0000 I 0.1017 J -0.2242
G02 X 12.6358 Y 35.4458 Z -1.0000 I -0.0012 J -0.1702
G02 X 12.6934 Y 35.4254 Z -1.0000 I -0.0903 J -0.3462
G03 X 12.7508 Y 35.4090 Z -1.0000 I 0.0837 J 0.1843
G03 X 12.8010 Y 35.4113 Z -1.0000 I 0.0186 J 0.1425
G02 X 12.8516 Y 35.4193 Z -1.0000 I 0.0859 J -0.3808
G01 X 12.8620 Y 35.4168 Z -1.0000
G01 X 12.8702 Y 35.4158 Z -1.0000
G01 X 12.8763 Y 35.4211 Z -1.0000
G01 X 12.8831 Y 35.4292 Z -1.0000
G02 X 12.9401 Y 35.4636 Z -1.0000 I 0.4140 J -0.6209
G02 X 13.0019 Y 35.4862 Z -1.0000 I 0.1060 J -0.1945
G02 X 13.1095 Y 35.4981 Z -1.0000 I 0.1194 J -0.5869
G02 X 13.2134 Y 35.4871 Z -1.0000 I 0.0083 J -0.4207
G02 X 13.2467 Y 35.4661 Z -1.0000 I -0.0136 J -0.0582
G02 X 13.2695 Y 35.4303 Z -1.0000 I -0.1649 J -0.1307
G01 X 13.2738 Y 35.4124 Z -1.0000
G01 X 13.2805 Y 35.3991 Z -1.0000
G01 X 13.3027 Y 35.3908 Z -1.0000
G01 X 13.3184 Y 35.4029 Z -1.0000
G03 X 13.3324 Y 35.5554 Z -1.0000 I -0.8703 J 0.1566
G03 X 13.3286 Y 35.7168 Z -1.0000 I -2.8665 J 0.0136
G01 X 13.3238 Y 35.7208 Z -1.0000
G01 X 13.2921 Y 35.7280 Z -1.0000
G01 X 13.2805 Y 35.7497 Z -1.0000
G03 X 13.2755 Y 35.7717 Z -1.0000 I -0.0504 J 0.0000
G01 X 13.2673 Y 35.7768 Z -1.0000
G01 X 13.2570 Y 35.7816 Z -1.0000
G02 X 13.2334 Y 35.8169 Z -1.0000 I 0.1446 J 0.1222
G02 X 13.2221 Y 35.8585 Z -1.0000 I 0.0911 J 0.0471
G02 X 13.2262 Y 35.9525 Z -1.0000 I 0.4866 J 0.0258
G02 X 13.2441 Y 36.0465 Z -1.0000 I 1.0161 J -0.1449
G02 X 13.2550 Y 36.0725 Z -1.0000 I 0.0852 J -0.0204
G02 X 13.3223 Y 36.1291 Z -1.0000 I 0.1210 J -0.0755
G02 X 13.4611 Y 36.1563 Z -1.0000 I 0.1388 J -0.3418
G03 X 13.5196 Y 36.1620 Z -1.0000 I 0.0000 J 0.3009
G01 X 13.5314 Y 36.1702 Z -1.0000
G01 X 13.5421 Y 36.1791 Z -1.0000
G01 X 13.5569 Y 36.1803 Z -1.0000
G01 X 13.5718 Y 36.1835 Z -1.0000
G03 X 13.6383 Y 36.2409 Z -1.0000 I -0.3629 J 0.4871
G01 X 13.6914 Y 36.3055 Z -1.0000
G01 X 13.6993 Y 36.3178 Z -1.0000
G01 X 13.7109 Y 36.3340 Z -1.0000
G03 X 13.7175 Y 36.3931 Z -1.0000 I -0.2301 J 0.0555
G02 X 13.7335 Y 36.4478 Z -1.0000 I 0.0964 J 0.0015
G02 X 13.8000 Y 36.5175 Z -1.0000 I 0.2295 J -0.1522
G03 X 13.9105 Y 36.6119 Z -1.0000 I -0.5859 J 0.7976
G03 X 13.9283 Y 36.6446 Z -1.0000 I -0.0456 J 0.0461
G02 X 13.9641 Y 36.7321 Z -1.0000 I 0.2582 J -0.0546
G02 X 14.0544 Y 36.8420 Z -1.0000 I 0.5038 J -0.3218
G02 X 14.0936 Y 36.8647 Z -1.0000 I 0.0665 J -0.0694
G02 X 14.1393 Y 36.8671 Z -1.0000 I 0.0277 J -0.0936
G02 X 14.1833 Y 36.8536 Z -1.0000 I -0.0381 J -0.2032
G01 X 14.1884 Y 36.8458 Z -1.0000
G01 X 14.1929 Y 36.8383 Z -1.0000
G01 X 14.2121 Y 36.8338 Z -1.0000
G01 X 14.2282 Y 36.8257 Z -1.0000
G01 X 14.2377 Y 36.7999 Z -1.0000
G02 X 14.2322 Y 36.7731 Z -1.0000 I -0.0530 J -0.0031
G01 X 14.2208 Y 36.7660 Z -1.0000
G01 X 14.2065 Y 36.7614 Z -1.0000
G01 X 14.2019 Y 36.7525 Z -1.0000
G01 X 14.1983 Y 36.7438 Z -1.0000
G01 X 14.1918 Y 36.7422 Z -1.0000
G01 X 14.1516 Y 36.7330 Z -1.0000
G03 X 14.1134 Y 36.6673 Z -1.0000 I 0.0947 J -0.0991
G02 X 14.1008 Y 36.6391 Z -1.0000 I -0.0859 J 0.0214
G01 X 14.0933 Y 36.6374 Z -1.0000
G01 X 14.0882 Y 36.6357 Z -1.0000
G01 X 14.0869 Y 36.6204 Z -1.0000
G02 X 14.0913 Y 36.5966 Z -1.0000 I -2.0808 J -0.3978
G02 X 14.0925 Y 36.5894 Z -1.0000 I -0.2581 J -0.0463
G03 X 14.1385 Y 36.5237 Z -1.0000 I 0.0875 J 0.0123
G01 X 14.1748 Y 36.5455 Z -1.0000
G01 X 14.2012 Y 36.5892 Z -1.0000
G02 X 14.2663 Y 36.5937 Z -1.0000 I 0.0377 J -0.0715
G01 X 14.2785 Y 36.5943 Z -1.0000
G01 X 14.2832 Y 36.6019 Z -1.0000
G01 X 14.2896 Y 36.6093 Z -1.0000
G02 X 14.3445 Y 36.6116 Z -1.0000 I 0.0372 J -0.2348
G03 X 14.4030 Y 36.6126 Z -1.0000 I 0.0240 J 0.3217
G01 X 14.4132 Y 36.6190 Z -1.0000
G01 X 14.4220 Y 36.6251 Z -1.0000
G01 X 14.4332 Y 36.6232 Z -1.0000
G01 X 14.4405 Y 36.6248 Z -1.0000
G01 X 14.4458 Y 36.6422 Z -1.0000
G02 X 14.4482 Y 36.6685 Z -1.0000 I 0.1487 J -0.0000
G02 X 14.4549 Y 36.6927 Z -1.0000 I 0.1326 J -0.0239
G01 X 14.4526 Y 36.7051 Z -1.0000
G01 X 14.4414 Y 36.7078 Z -1.0000
G01 X 14.4257 Y 36.7094 Z -1.0000
G01 X 14.4185 Y 36.7224 Z -1.0000
G01 X 14.4137 Y 36.7296 Z -1.0000
G01 X 14.4067 Y 36.7275 Z -1.0000
G01 X 14.3630 Y 36.7188 Z -1.0000
G01 X 14.3456 Y 36.7705 Z -1.0000
G02 X 14.3818 Y 36.8312 Z -1.0000 I 0.1469 J -0.0465
G02 X 14.4199 Y 36.8473 Z -1.0000 I 0.0381 J -0.0369
G01 X 14.4519 Y 36.8620 Z -1.0000
G03 X 14.5017 Y 36.9422 Z -1.0000 I -0.2303 J 0.1986
G03 X 14.5120 Y 36.9770 Z -1.0000 I -0.1490 J 0.0632
G03 X 14.5206 Y 37.0485 Z -1.0000 I -0.6312 J 0.1123
G02 X 14.5574 Y 37.1362 Z -1.0000 I 0.1452 J -0.0092
G02 X 14.6352 Y 37.1767 Z -1.0000 I 0.0924 J -0.0826
G03 X 14.7002 Y 37.1903 Z -1.0000 I -0.0446 J 0.3764
G03 X 14.7804 Y 37.2206 Z -1.0000 I -0.1827 J 0.6047
G02 X 14.8603 Y 37.2525 Z -1.0000 I 0.3626 J -0.7923
G02 X 14.9065 Y 37.2639 Z -1.0000 I 0.0867 J -0.2526
G03 X 14.9524 Y 37.2745 Z -1.0000 I -0.0477 J 0.3107
G03 X 14.9698 Y 37.2836 Z -1.0000 I -0.0162 J 0.0520
G02 X 15.0104 Y 37.2982 Z -1.0000 I 0.0422 J -0.0539
G02 X 15.1368 Y 37.2877 Z -1.0000 I 0.0144 J -0.5921
G03 X 15.1844 Y 37.2792 Z -1.0000 I 0.3313 J 1.7210
