%
(Header)
(Generated by gcodetools from Inkscape.)
(Using default header. To add your own header create file "header" in the output dir.)
M3
(Header end.)
G21 (All units in mm)

(Start cutting path id: path76077)
(Change tool to Default tool)

G00 Z 5.0000
G00 X 22.7574 Y 3.1412

G01 Z -1.0000 F 100.0000(Penetrate)
G01 X 22.7468 Y 3.1457 Z -1.0000 F 3500.0000
G03 X 22.4127 Y 3.1637 Z -1.0000 I -0.9791 J -15.0310
G02 X 21.5163 Y 3.2155 Z -1.0000 I 1.2906 J 30.1274
G02 X 21.4630 Y 3.2328 Z -1.0000 I 0.0085 J 0.1175
G03 X 21.4363 Y 3.2425 Z -1.0000 I -0.0368 J -0.0589
G03 X 21.2208 Y 3.2684 Z -1.0000 I -0.6017 J -4.1082
G02 X 20.9693 Y 3.3041 Z -1.0000 I 0.2461 J 2.6375
G02 X 20.4217 Y 3.4212 Z -1.0000 I 2.4199 J 12.6528
G03 X 19.9151 Y 3.5360 Z -1.0000 I -6.2706 J -26.4885
G03 X 19.8476 Y 3.5456 Z -1.0000 I -0.0991 J -0.4574
G01 X 19.8340 Y 3.5496 Z -1.0000
G02 X 19.8159 Y 3.5634 Z -1.0000 I 0.0415 J 0.0737
G01 X 19.7968 Y 3.5740 Z -1.0000
G03 X 19.7454 Y 3.5801 Z -1.0000 I -0.0514 J -0.2136
G02 X 19.6932 Y 3.5859 Z -1.0000 I 0.0000 J 0.2405
G02 X 19.6534 Y 3.6007 Z -1.0000 I 0.0338 J 0.1519
G03 X 19.6133 Y 3.6167 Z -1.0000 I -0.0927 J -0.1738
G03 X 19.3361 Y 3.6886 Z -1.0000 I -2.2913 J -8.2631
G02 X 19.0575 Y 3.7573 Z -1.0000 I 7.4085 J 30.6673
G02 X 18.7887 Y 3.8261 Z -1.0000 I 7.1788 J 28.5753
G03 X 18.3430 Y 3.9402 Z -1.0000 I -11.7305 J -44.8999
G03 X 18.1623 Y 3.9832 Z -1.0000 I -1.8457 J -7.3622
G02 X 18.0512 Y 4.0111 Z -1.0000 I 0.4969 J 2.2087
G02 X 17.9099 Y 4.0536 Z -1.0000 I 1.0009 J 3.5900
G03 X 17.7695 Y 4.0892 Z -1.0000 I -0.3555 J -1.1045
G03 X 17.7365 Y 4.0863 Z -1.0000 I -0.0113 J -0.0597
G01 X 17.7115 Y 4.0851 Z -1.0000
G01 X 17.7037 Y 4.0953 Z -1.0000
G01 X 17.6950 Y 4.1081 Z -1.0000
G03 X 17.6491 Y 4.1169 Z -1.0000 I -0.0459 J -0.1152
G02 X 17.5990 Y 4.1249 Z -1.0000 I 0.0000 J 0.1618
G01 X 17.5807 Y 4.1393 Z -1.0000
G01 X 17.5624 Y 4.1536 Z -1.0000
G03 X 17.5107 Y 4.1616 Z -1.0000 I -0.0517 J -0.1618
G02 X 17.2623 Y 4.1920 Z -1.0000 I -0.0000 J 1.0314
G02 X 16.9320 Y 4.3053 Z -1.0000 I 0.4835 J 1.9483
G03 X 16.8632 Y 4.3295 Z -1.0000 I -0.1878 J -0.4238
G03 X 16.7642 Y 4.3499 Z -1.0000 I -0.2283 J -0.8585
G02 X 16.6647 Y 4.3698 Z -1.0000 I 0.1473 J 0.9945
G02 X 16.5405 Y 4.4066 Z -1.0000 I 0.3958 J 1.5636
G03 X 16.4159 Y 4.4415 Z -1.0000 I -0.3782 J -1.1092
G03 X 16.2832 Y 4.4636 Z -1.0000 I -0.2754 J -1.2425
G02 X 16.1551 Y 4.4921 Z -1.0000 I 0.0681 J 0.6082
G02 X 16.0977 Y 4.5263 Z -1.0000 I 0.0512 J 0.1513
G03 X 16.0446 Y 4.5539 Z -1.0000 I -0.0765 J -0.0825
G03 X 16.0025 Y 4.5465 Z -1.0000 I -0.0118 J -0.0558
G02 X 15.9574 Y 4.5348 Z -1.0000 I -0.0412 J 0.0660
G02 X 15.8777 Y 4.5529 Z -1.0000 I 0.0122 J 0.2378
G03 X 15.7958 Y 4.5814 Z -1.0000 I -0.2748 J -0.6576
G03 X 15.7575 Y 4.5867 Z -1.0000 I -0.0383 J -0.1361
G02 X 15.7196 Y 4.5931 Z -1.0000 I 0.0000 J 0.1148
G02 X 15.5905 Y 4.6451 Z -1.0000 I 0.4951 J 1.4150
G03 X 15.4599 Y 4.6920 Z -1.0000 I -0.3419 J -0.7465
G03 X 15.3362 Y 4.7129 Z -1.0000 I -0.1727 J -0.6487
G02 X 15.1022 Y 4.7481 Z -1.0000 I 0.1129 J 1.5441
G02 X 14.7621 Y 4.8448 Z -1.0000 I 0.7758 J 3.3749
G03 X 14.6715 Y 4.8714 Z -1.0000 I -0.3572 J -1.0490
G03 X 14.5048 Y 4.9086 Z -1.0000 I -0.8740 J -3.5251
G02 X 14.3375 Y 4.9440 Z -1.0000 I 1.3048 J 6.5697
G02 X 14.2475 Y 4.9665 Z -1.0000 I 0.4365 J 1.9377
G03 X 14.1577 Y 4.9895 Z -1.0000 I -0.6738 J -2.4495
G03 X 14.0910 Y 5.0035 Z -1.0000 I -0.3183 J -1.3477
G02 X 14.0259 Y 5.0204 Z -1.0000 I 0.0859 J 0.4664
G02 X 14.0015 Y 5.0335 Z -1.0000 I 0.0259 J 0.0771
G03 X 13.9770 Y 5.0463 Z -1.0000 I -0.0460 J -0.0583
G03 X 13.9008 Y 5.0639 Z -1.0000 I -0.1722 J -0.5708
G02 X 13.6757 Y 5.1057 Z -1.0000 I 0.8482 J 5.1975
G02 X 13.6212 Y 5.1221 Z -1.0000 I 0.0664 J 0.3188
G03 X 13.4084 Y 5.1926 Z -1.0000 I -0.6864 J -1.7176
G03 X 13.1432 Y 5.2487 Z -1.0000 I -0.6914 J -2.6098
G02 X 13.0584 Y 5.2701 Z -1.0000 I 0.0806 J 0.5000
G01 X 13.0507 Y 5.2808 Z -1.0000
G01 X 13.0430 Y 5.2911 Z -1.0000
G03 X 12.9557 Y 5.3089 Z -1.0000 I -0.1460 J -0.4930
G02 X 12.8613 Y 5.3236 Z -1.0000 I 0.1367 J 1.1908
G02 X 12.7264 Y 5.3540 Z -1.0000 I 0.4834 J 2.4611
G02 X 11.9507 Y 5.5539 Z -1.0000 I 31.9182 J 125.4760
G02 X 11.5519 Y 5.6605 Z -1.0000 I 8.7211 J 33.4176
G03 X 10.8224 Y 5.8561 Z -1.0000 I -18.8862 J -68.9824
G03 X 10.6124 Y 5.9071 Z -1.0000 I -1.4872 J -5.6663
G02 X 10.5345 Y 5.9261 Z -1.0000 I 0.5074 J 2.2524
G02 X 10.3999 Y 5.9629 Z -1.0000 I 1.6200 J 6.1812
G03 X 10.2653 Y 5.9997 Z -1.0000 I -1.7079 J -5.9817
G03 X 10.1874 Y 6.0184 Z -1.0000 I -0.5080 J -1.9433
G02 X 10.1096 Y 6.0377 Z -1.0000 I 0.2997 J 1.3728
G02 X 9.9637 Y 6.0807 Z -1.0000 I 1.4262 J 5.1150
G03 X 9.8175 Y 6.1228 Z -1.0000 I -1.1163 J -3.6002
G03 X 9.6952 Y 6.1522 Z -1.0000 I -0.6690 J -2.5118
G02 X 9.5728 Y 6.1811 Z -1.0000 I 0.6782 J 3.1520
G02 X 9.4715 Y 6.2096 Z -1.0000 I 0.5524 J 2.1551
G03 X 9.3703 Y 6.2382 Z -1.0000 I -0.6271 J -2.0302
G03 X 9.3095 Y 6.2511 Z -1.0000 I -0.1892 J -0.7408
G02 X 9.2198 Y 6.2714 Z -1.0000 I 0.1388 J 0.8211
G02 X 9.0129 Y 6.3356 Z -1.0000 I 1.2972 J 4.5463
G03 X 8.9453 Y 6.3559 Z -1.0000 I -0.3533 J -1.0535
G03 X 8.9011 Y 6.3653 Z -1.0000 I -0.1166 J -0.4384
G02 X 8.8567 Y 6.3745 Z -1.0000 I 0.0903 J 0.5517
G02 X 8.4537 Y 6.4766 Z -1.0000 I 10.5307 J 42.4129
G02 X 7.3780 Y 6.7547 Z -1.0000 I 1130.5547 J 4375.0991
G02 X 7.1898 Y 6.8035 Z -1.0000 I 36.3139 J 140.3864
G03 X 7.1112 Y 6.8229 Z -1.0000 I -0.7703 J -2.9484
G03 X 6.8127 Y 6.8915 Z -1.0000 I -10.8301 J -46.4646
G02 X 6.3266 Y 7.0254 Z -1.0000 I 1.2004 J 5.3038
G02 X 6.0265 Y 7.1479 Z -1.0000 I 0.6970 J 2.1368
G03 X 5.9684 Y 7.1680 Z -1.0000 I -0.1081 J -0.2184
G03 X 5.8257 Y 7.1900 Z -1.0000 I -0.2760 J -1.3168
G02 X 5.6824 Y 7.2122 Z -1.0000 I 0.1344 J 1.3391
G02 X 5.5014 Y 7.2585 Z -1.0000 I 0.4534 J 2.1500
G03 X 5.3209 Y 7.3092 Z -1.0000 I -1.3394 J -4.4255
G03 X 4.9304 Y 7.4065 Z -1.0000 I -5.4545 J -21.0679
G02 X 4.5094 Y 7.5170 Z -1.0000 I 2.3125 J 9.6656
G02 X 3.8760 Y 7.7081 Z -1.0000 I 6.3188 J 22.0872
G03 X 3.7717 Y 7.7368 Z -1.0000 I -0.4159 J -1.3100
G03 X 3.7346 Y 7.7410 Z -1.0000 I -0.0371 J -0.1594
G02 X 3.6495 Y 7.7640 Z -1.0000 I -0.0000 J 0.1689
G02 X 3.3720 Y 7.9524 Z -1.0000 I 1.2331 J 2.1152
G03 X 3.2562 Y 8.0427 Z -1.0000 I -19.7932 J -25.2437
G03 X 3.2121 Y 8.0766 Z -1.0000 I -2.8769 J -3.7039
G02 X 3.1774 Y 8.1157 Z -1.0000 I 0.0807 J 0.1065
G02 X 3.1599 Y 8.1660 Z -1.0000 I 0.1196 J 0.0698
G03 X 3.1402 Y 8.2153 Z -1.0000 I -0.1112 J -0.0158
G03 X 3.0767 Y 8.2831 Z -1.0000 I -0.2803 J -0.1993
G02 X 3.0409 Y 8.3378 Z -1.0000 I 0.0676 J 0.0832
G01 X 3.0543 Y 8.3642 Z -1.0000
G02 X 3.1089 Y 8.3747 Z -1.0000 I 0.0578 J -0.1528
G02 X 3.7511 Y 8.3779 Z -1.0000 I 0.4268 J -21.6759
G02 X 4.3899 Y 8.3545 Z -1.0000 I -0.1233 J -12.1314
G02 X 4.4530 Y 8.3335 Z -1.0000 I -0.0082 J -0.1297
G03 X 4.5153 Y 8.3332 Z -1.0000 I 0.0314 J 0.0480
G03 X 4.5497 Y 8.3953 Z -1.0000 I -0.0401 J 0.0628
G01 X 4.5729 Y 8.4167 Z -1.0000
G02 X 4.6284 Y 8.3896 Z -1.0000 I -0.0060 J -0.0826
G03 X 4.6727 Y 8.3535 Z -1.0000 I 0.1411 J 0.1277
G03 X 4.7046 Y 8.3447 Z -1.0000 I 0.0322 J 0.0545
G02 X 4.9827 Y 8.2975 Z -1.0000 I -0.0051 J -0.8730
G02 X 5.5706 Y 8.0477 Z -1.0000 I -1.4526 J -4.2350
G03 X 5.6371 Y 8.0209 Z -1.0000 I 0.1788 J 0.3490
G03 X 5.7357 Y 7.9983 Z -1.0000 I 0.2243 J 0.7509
G02 X 5.8333 Y 7.9750 Z -1.0000 I -0.1109 J -0.6823
G02 X 5.8678 Y 7.9565 Z -1.0000 I -0.0317 J -0.1003
G03 X 5.8993 Y 7.9361 Z -1.0000 I 0.1120 J 0.1382
G01 X 5.9069 Y 7.9367 Z -1.0000
G01 X 5.9153 Y 7.9403 Z -1.0000
G02 X 5.9314 Y 7.9419 Z -1.0000 I 0.0154 J -0.0760
G01 X 5.9336 Y 7.9374 Z -1.0000
G02 X 5.9158 Y 7.9210 Z -1.0000 I -0.0541 J 0.0406
G01 X 5.9177 Y 7.9128 Z -1.0000
G03 X 5.9829 Y 7.9129 Z -1.0000 I 0.0321 J 0.2669
G03 X 6.0803 Y 7.9301 Z -1.0000 I -0.1184 J 0.9533
G01 X 6.0981 Y 7.9394 Z -1.0000
G01 X 6.1066 Y 7.9567 Z -1.0000
G03 X 6.1257 Y 8.3448 Z -1.0000 I -10.3437 J 0.7050
G02 X 6.1478 Y 8.7743 Z -1.0000 I 10.3894 J -0.3179
G02 X 6.1941 Y 9.2931 Z -1.0000 I 15.1825 J -1.0945
G03 X 6.1921 Y 9.3780 Z -1.0000 I -0.3258 J 0.0347
G03 X 6.1709 Y 9.4430 Z -1.0000 I -0.2098 J -0.0325
G02 X 6.1463 Y 9.5077 Z -1.0000 I 0.2685 J 0.1389
G02 X 6.1384 Y 9.5715 Z -1.0000 I 0.2521 J 0.0637
G03 X 6.1300 Y 9.6350 Z -1.0000 I -0.2459 J -0.0000
G03 X 6.1037 Y 9.7012 Z -1.0000 I -0.2934 J -0.0785
G01 X 6.0834 Y 9.7173 Z -1.0000
G01 X 6.0739 Y 9.7094 Z -1.0000
G02 X 6.0391 Y 9.5474 Z -1.0000 I -0.2798 J -0.0246
G02 X 5.9450 Y 9.4796 Z -1.0000 I -0.1198 J 0.0672
G01 X 5.9181 Y 9.4938 Z -1.0000
G01 X 5.9236 Y 9.5287 Z -1.0000
G03 X 5.9444 Y 9.5685 Z -1.0000 I -0.0698 J 0.0618
G03 X 5.9674 Y 9.7094 Z -1.0000 I -0.9152 J 0.2222
G02 X 6.0165 Y 10.1069 Z -1.0000 I 5.4914 J -0.4755
G02 X 6.0506 Y 10.2278 Z -1.0000 I 0.5356 J -0.0859
G03 X 6.0675 Y 10.2882 Z -1.0000 I -0.2472 J 0.1019
G03 X 6.0664 Y 10.3284 Z -1.0000 I -0.1086 J 0.0170
G01 X 6.0324 Y 10.3333 Z -1.0000
G03 X 5.9044 Y 10.0305 Z -1.0000 I 1.4766 J -0.8031
G02 X 5.8390 Y 9.8533 Z -1.0000 I -1.7729 J 0.5528
G01 X 5.8245 Y 9.8436 Z -1.0000
G01 X 5.8129 Y 9.8537 Z -1.0000
G02 X 5.8028 Y 10.0002 Z -1.0000 I 1.0594 J 0.1465
G03 X 5.7780 Y 10.1326 Z -1.0000 I -0.3652 J 0.0000
G01 X 5.7413 Y 10.1584 Z -1.0000
G02 X 5.6807 Y 10.1644 Z -1.0000 I 0.0106 J 0.4161
G02 X 5.6386 Y 10.1762 Z -1.0000 I 0.0371 J 0.2135
G01 X 5.6273 Y 10.1992 Z -1.0000
G02 X 5.6643 Y 10.2641 Z -1.0000 I 0.1552 J -0.0455
G02 X 5.7425 Y 10.2845 Z -1.0000 I 0.0553 J -0.0516
G02 X 5.7810 Y 10.2270 Z -1.0000 I -0.0168 J -0.0529
G01 X 5.8086 Y 10.2096 Z -1.0000
G03 X 5.8540 Y 10.2694 Z -1.0000 I -0.0489 J 0.0843
G02 X 5.9163 Y 10.4036 Z -1.0000 I 0.3980 J -0.1031
G02 X 6.0284 Y 10.5161 Z -1.0000 I 0.3871 J -0.2736
G01 X 6.0682 Y 10.5227 Z -1.0000
G01 X 6.0813 Y 10.5002 Z -1.0000
G01 X 6.0916 Y 10.4928 Z -1.0000
G03 X 6.1315 Y 10.5302 Z -1.0000 I -0.0660 J 0.1102
G02 X 6.3616 Y 10.7711 Z -1.0000 I 0.8585 J -0.5897
G02 X 6.4963 Y 10.8062 Z -1.0000 I 0.1096 J -0.1449
G02 X 6.6195 Y 10.7331 Z -1.0000 I -0.0255 J -0.1835
G02 X 6.7622 Y 10.4480 Z -1.0000 I -0.7371 J -0.5473
G02 X 6.9054 Y 9.8434 Z -1.0000 I -5.2222 J -1.5559
G02 X 6.9547 Y 9.3627 Z -1.0000 I -3.2454 J -0.5754
G03 X 6.9588 Y 9.2285 Z -1.0000 I 27.2013 J 0.7663
G03 X 6.9657 Y 9.0271 Z -1.0000 I 89.1330 J 2.9514
G02 X 6.9693 Y 8.8258 Z -1.0000 I -5.8289 J -0.2058
G02 X 6.9658 Y 8.7028 Z -1.0000 I -2.0802 J -0.0016
G01 X 6.9573 Y 8.7019 Z -1.0000
G02 X 6.9417 Y 8.7922 Z -1.0000 I 0.4841 J 0.1304
G03 X 6.8892 Y 9.2715 Z -1.0000 I -8.2142 J -0.6573
G03 X 6.8560 Y 9.4074 Z -1.0000 I -0.6875 J -0.0957
G03 X 6.8322 Y 9.4745 Z -1.0000 I -64.8132 J -22.9576
G03 X 6.8182 Y 9.5137 Z -1.0000 I -18.9724 J -6.7424
G03 X 6.7998 Y 9.5466 Z -1.0000 I -0.1078 J -0.0386
G01 X 6.7869 Y 9.5528 Z -1.0000
G01 X 6.7749 Y 9.5597 Z -1.0000
G02 X 6.7565 Y 9.6047 Z -1.0000 I 0.1482 J 0.0868
G03 X 6.6893 Y 9.6986 Z -1.0000 I -0.1526 J -0.0383
G03 X 6.6099 Y 9.6993 Z -1.0000 I -0.0403 J -0.0625
G01 X 6.5955 Y 9.6815 Z -1.0000
G01 X 6.5973 Y 9.6640 Z -1.0000
G02 X 6.6058 Y 9.4691 Z -1.0000 I -0.1699 J -0.1050
G02 X 6.4512 Y 9.3739 Z -1.0000 I -0.1546 J 0.0779
G01 X 6.4355 Y 9.3803 Z -1.0000
G01 X 6.4291 Y 9.3955 Z -1.0000
G01 X 6.4218 Y 9.3998 Z -1.0000
G03 X 6.3774 Y 9.3675 Z -1.0000 I 0.0976 J -0.1808
G03 X 6.3359 Y 9.3162 Z -1.0000 I 0.1791 J -0.1871
G01 X 6.3352 Y 9.2991 Z -1.0000
G02 X 6.3490 Y 9.1982 Z -1.0000 I -0.1370 J -0.0700
G02 X 6.2662 Y 8.9614 Z -1.0000 I -0.9158 J 0.1874
G03 X 6.0842 Y 8.2257 Z -1.0000 I 1.4903 J -0.7589
G03 X 6.2535 Y 8.0540 Z -1.0000 I 0.1693 J -0.0024
G01 X 6.2648 Y 8.0454 Z -1.0000
G01 X 6.2634 Y 8.0178 Z -1.0000
G03 X 6.2353 Y 7.5639 Z -1.0000 I 0.7081 J -0.2717
G03 X 6.4094 Y 7.4277 Z -1.0000 I 0.1741 J 0.0431
G01 X 6.4213 Y 7.4199 Z -1.0000
G02 X 6.4292 Y 7.3829 Z -1.0000 I -0.0834 J -0.0369
G01 X 6.4465 Y 7.3557 Z -1.0000
G03 X 6.5242 Y 7.3389 Z -1.0000 I 0.0763 J 0.1648
G03 X 6.6498 Y 7.3727 Z -1.0000 I -0.0019 J 0.2576
G03 X 6.7064 Y 7.4427 Z -1.0000 I -0.0612 J 0.1074
G03 X 6.6963 Y 7.4971 Z -1.0000 I -0.0559 J 0.0177
G01 X 6.6643 Y 7.4951 Z -1.0000
G02 X 6.6021 Y 7.4672 Z -1.0000 I -0.0518 J 0.0320
G02 X 6.5059 Y 7.5227 Z -1.0000 I 0.0277 J 0.1590
G01 X 6.4958 Y 7.5451 Z -1.0000
G03 X 6.6451 Y 7.5320 Z -1.0000 I 0.0836 J 0.0952
G03 X 6.7882 Y 7.7227 Z -1.0000 I -0.1664 J 0.2741
G03 X 6.7991 Y 7.8355 Z -1.0000 I -0.3292 J 0.0886
G03 X 6.7639 Y 8.0652 Z -1.0000 I -1.4289 J -0.1017
G02 X 6.6712 Y 8.8509 Z -1.0000 I 3.3240 J 0.7904
G02 X 6.7622 Y 9.2732 Z -1.0000 I 1.0196 J 0.0014
G01 X 6.7920 Y 9.2905 Z -1.0000
G01 X 6.8235 Y 9.2675 Z -1.0000
G02 X 6.9152 Y 8.8936 Z -1.0000 I -1.1053 J -0.4692
G02 X 6.8779 Y 8.5837 Z -1.0000 I -0.7864 J -0.0626
G03 X 6.7905 Y 8.0849 Z -1.0000 I 1.6612 J -0.5483
G01 X 6.8629 Y 8.0537 Z -1.0000
G03 X 6.8776 Y 8.0807 Z -1.0000 I -0.0385 J 0.0384
G03 X 6.9422 Y 8.4231 Z -1.0000 I -6.8334 J 1.4672
G01 X 6.9518 Y 8.4227 Z -1.0000
G02 X 6.9633 Y 8.1294 Z -1.0000 I -4.5345 J -0.3247
G03 X 6.9934 Y 7.7426 Z -1.0000 I 2.7411 J 0.0191
G03 X 7.0276 Y 7.6998 Z -1.0000 I 0.0541 J 0.0081
G03 X 7.1937 Y 7.6448 Z -1.0000 I 0.6020 J 1.5393
G03 X 7.5700 Y 7.5515 Z -1.0000 I 2.1409 J 7.8303
G02 X 7.8241 Y 7.4939 Z -1.0000 I -7.6674 J -34.4260
G02 X 8.7445 Y 7.2808 Z -1.0000 I -102.8308 J -446.1477
G02 X 9.0794 Y 7.2004 Z -1.0000 I -5.8281 J -25.0430
G02 X 9.1487 Y 7.1809 Z -1.0000 I -0.2666 J -1.0800
G03 X 9.2181 Y 7.1635 Z -1.0000 I 0.1767 J 0.5572
G03 X 9.2651 Y 7.1592 Z -1.0000 I 0.0470 J 0.2517
G02 X 9.3119 Y 7.1544 Z -1.0000 I -0.0000 J -0.2310
G02 X 9.3642 Y 7.1386 Z -1.0000 I -0.0616 J -0.2981
G03 X 9.4167 Y 7.1215 Z -1.0000 I 0.1500 J 0.3730
G03 X 9.7288 Y 7.0474 Z -1.0000 I 3.3133 J 13.2531
G02 X 10.6489 Y 6.8363 Z -1.0000 I -26.1770 J -116.2132
G02 X 10.8249 Y 6.7913 Z -1.0000 I -1.0026 J -4.2919
G03 X 10.9373 Y 6.7626 Z -1.0000 I 0.7707 J 2.7775
G03 X 11.1605 Y 6.7126 Z -1.0000 I 2.5456 J 10.8523
G02 X 11.3837 Y 6.6628 Z -1.0000 I -2.5180 J -11.8109
G02 X 11.5631 Y 6.6188 Z -1.0000 I -1.7727 J -7.6059
G03 X 11.7427 Y 6.5751 Z -1.0000 I 1.6347 J 6.3306
G03 X 12.0888 Y 6.4987 Z -1.0000 I 5.3997 J 23.6532
G02 X 12.4349 Y 6.4223 Z -1.0000 I -4.9686 J -23.3326
G02 X 12.5139 Y 6.4016 Z -1.0000 I -0.2821 J -1.2346
G03 X 12.6593 Y 6.3620 Z -1.0000 I 0.9148 J 3.0736
G03 X 13.2521 Y 6.2192 Z -1.0000 I 12.5539 J 50.8033
G02 X 13.9191 Y 6.0622 Z -1.0000 I -153.5810 J -654.1720
G02 X 14.5943 Y 5.9026 Z -1.0000 I -160.8425 J -681.9745
G03 X 15.1647 Y 5.7735 Z -1.0000 I 6.7773 J 28.6124
G03 X 15.3756 Y 5.7339 Z -1.0000 I 0.8333 J 3.8585
G02 X 15.4494 Y 5.7136 Z -1.0000 I -0.0546 J -0.3431
G02 X 15.5726 Y 5.6556 Z -1.0000 I -0.4085 J -1.0269
G03 X 15.7156 Y 5.6234 Z -1.0000 I 0.1273 J 0.2319
G01 X 15.7449 Y 5.6658 Z -1.0000
G03 X 15.7243 Y 5.7127 Z -1.0000 I -0.2237 J -0.0702
G03 X 15.7079 Y 5.7300 Z -1.0000 I -0.0439 J -0.0253
G01 X 15.7067 Y 5.7404 Z -1.0000
G02 X 15.7333 Y 5.7558 Z -1.0000 I 0.0411 J -0.0404
G03 X 15.7675 Y 5.7776 Z -1.0000 I -0.0169 J 0.0642
G03 X 15.7799 Y 5.8121 Z -1.0000 I -0.0416 J 0.0345
G02 X 15.7891 Y 5.8519 Z -1.0000 I 0.0907 J 0.0000
G02 X 15.8160 Y 5.8862 Z -1.0000 I 0.0932 J -0.0455
G01 X 15.8499 Y 5.8938 Z -1.0000
G02 X 15.8923 Y 5.8666 Z -1.0000 I -0.0200 J -0.0777
G03 X 15.9339 Y 5.8200 Z -1.0000 I 0.4973 J 0.4026
G01 X 15.9412 Y 5.8170 Z -1.0000
G01 X 15.9455 Y 5.8212 Z -1.0000
G03 X 15.9439 Y 6.0239 Z -1.0000 I -4.8357 J 0.0625
G02 X 15.9446 Y 6.2306 Z -1.0000 I 3.1885 J 0.0925
G02 X 15.9622 Y 6.5325 Z -1.0000 I 6.7602 J -0.2424
G03 X 15.9658 Y 6.9976 Z -1.0000 I -3.1974 J 0.2576
G03 X 15.9050 Y 7.4125 Z -1.0000 I -2.5945 J -0.1682
G02 X 15.8900 Y 7.5291 Z -1.0000 I 0.5859 J 0.1347
G02 X 15.8951 Y 7.7408 Z -1.0000 I 1.9509 J 0.0588
G03 X 15.8794 Y 8.1410 Z -1.0000 I -1.7002 J 0.1338
G01 X 15.8288 Y 8.1601 Z -1.0000
G02 X 15.7946 Y 8.1388 Z -1.0000 I -0.0942 J 0.1135
G01 X 15.7820 Y 8.1392 Z -1.0000
G01 X 15.7727 Y 8.1366 Z -1.0000
G03 X 15.7541 Y 8.0945 Z -1.0000 I 0.1397 J -0.0868
G02 X 15.7422 Y 8.0694 Z -1.0000 I -0.0784 J 0.0221
G01 X 15.7373 Y 8.0708 Z -1.0000
G01 X 15.7132 Y 8.0864 Z -1.0000
G01 X 15.6904 Y 8.0540 Z -1.0000
G01 X 15.6658 Y 8.0333 Z -1.0000
G01 X 15.6327 Y 8.0641 Z -1.0000
G02 X 15.6324 Y 8.1847 Z -1.0000 I 0.2427 J 0.0609
G02 X 15.7139 Y 8.3948 Z -1.0000 I 0.8497 J -0.2087
G03 X 15.7307 Y 8.4348 Z -1.0000 I -0.1876 J 0.1020
G03 X 15.7351 Y 8.4647 Z -1.0000 I -0.0982 J 0.0299
G02 X 15.7403 Y 8.4946 Z -1.0000 I 0.0893 J 0.0000
G02 X 15.8048 Y 8.6607 Z -1.0000 I 2.9025 J -1.0325
G03 X 15.8740 Y 8.8260 Z -1.0000 I -23.0304 J 9.7307
G03 X 15.8963 Y 8.8817 Z -1.0000 I -2.6152 J 1.0829
G02 X 15.9723 Y 9.0463 Z -1.0000 I 1.3890 J -0.5411
G02 X 16.0443 Y 9.1569 Z -1.0000 I 0.6958 J -0.3739
G02 X 16.2144 Y 9.3381 Z -1.0000 I 1.0515 J -0.8168
G02 X 16.3529 Y 9.4295 Z -1.0000 I 0.3930 J -0.4450
G02 X 16.5327 Y 9.4704 Z -1.0000 I 0.1816 J -0.3827
G02 X 16.7309 Y 9.4311 Z -1.0000 I 0.0021 J -0.5090
G02 X 16.9438 Y 9.2945 Z -1.0000 I -0.2806 J -0.6715
G02 X 16.9878 Y 9.1940 Z -1.0000 I -0.0927 J -0.1005
G01 X 16.9934 Y 9.1781 Z -1.0000
G01 X 17.0051 Y 9.1725 Z -1.0000
G01 X 17.0182 Y 9.1656 Z -1.0000
G02 X 17.0778 Y 9.0663 Z -1.0000 I -0.8035 J -0.5496
G03 X 17.1369 Y 8.9639 Z -1.0000 I 1.2396 J 0.6473
G01 X 17.1500 Y 8.9526 Z -1.0000
G01 X 17.1614 Y 8.9417 Z -1.0000
G02 X 17.1668 Y 8.9190 Z -1.0000 I -0.0447 J -0.0228
G03 X 17.1776 Y 8.8609 Z -1.0000 I 0.1645 J 0.0005
G03 X 17.3216 Y 8.5126 Z -1.0000 I 6.2498 J 2.3800
G02 X 17.3383 Y 8.4667 Z -1.0000 I -0.3061 J -0.1369
G02 X 17.3926 Y 8.2610 Z -1.0000 I -6.1622 J -1.7374
G03 X 17.4423 Y 8.1855 Z -1.0000 I 0.1312 J 0.0323
G01 X 17.4710 Y 8.2017 Z -1.0000
G02 X 17.4740 Y 8.3422 Z -1.0000 I 0.5665 J 0.0580
G02 X 17.4980 Y 8.3862 Z -1.0000 I 0.0718 J -0.0105
G03 X 17.5362 Y 8.4260 Z -1.0000 I -0.2112 J 0.2411
G03 X 17.5549 Y 8.4567 Z -1.0000 I -0.1066 J 0.0860
G01 X 17.5580 Y 8.4285 Z -1.0000
G03 X 17.5767 Y 8.2966 Z -1.0000 I 0.2019 J -0.0386
G03 X 17.6714 Y 8.2060 Z -1.0000 I 0.1771 J 0.0903
G03 X 17.7838 Y 8.2110 Z -1.0000 I 0.0513 J 0.1125
G03 X 17.8207 Y 8.2908 Z -1.0000 I -0.0373 J 0.0657
G01 X 17.8377 Y 8.3257 Z -1.0000
G01 X 17.8767 Y 8.3195 Z -1.0000
G03 X 17.9385 Y 8.3054 Z -1.0000 I 0.0421 J 0.0421
G03 X 17.9722 Y 8.3529 Z -1.0000 I -0.0167 J 0.0475
G03 X 17.9384 Y 8.4012 Z -1.0000 I -0.0513 J 0.0000
G03 X 17.8714 Y 8.3895 Z -1.0000 I -0.0233 J -0.0642
G01 X 17.8499 Y 8.3881 Z -1.0000
G02 X 17.8277 Y 8.4171 Z -1.0000 I 0.0282 J 0.0446
G02 X 17.8374 Y 8.5928 Z -1.0000 I 0.2413 J 0.0748
G02 X 17.9290 Y 8.6496 Z -1.0000 I 0.0868 J -0.0379
G02 X 17.9667 Y 8.6307 Z -1.0000 I -0.0026 J -0.0522
G02 X 17.9844 Y 8.5827 Z -1.0000 I -0.0595 J -0.0493
G03 X 17.9968 Y 8.5245 Z -1.0000 I 0.1553 J 0.0026
G03 X 18.0236 Y 8.4908 Z -1.0000 I 0.0746 J 0.0318
G02 X 18.0521 Y 8.4581 Z -1.0000 I -0.0582 J -0.0796
G02 X 18.0616 Y 8.4204 Z -1.0000 I -0.0696 J -0.0377
G03 X 18.0724 Y 8.3839 Z -1.0000 I 0.0676 J 0.0000
G03 X 18.1073 Y 8.3495 Z -1.0000 I 0.0942 J 0.0605
G02 X 18.1393 Y 8.3178 Z -1.0000 I -0.0546 J -0.0875
G01 X 18.1395 Y 8.2993 Z -1.0000
G01 X 18.0968 Y 8.2831 Z -1.0000
G02 X 18.0431 Y 8.3280 Z -1.0000 I 0.0252 J 0.0847
G01 X 18.0341 Y 8.3277 Z -1.0000
G03 X 18.0304 Y 8.2976 Z -1.0000 I 0.0516 J -0.0215
G02 X 18.0234 Y 8.2297 Z -1.0000 I -0.1315 J -0.0206
G01 X 17.9950 Y 8.2042 Z -1.0000
G01 X 17.9653 Y 8.1786 Z -1.0000
G03 X 17.9539 Y 8.1082 Z -1.0000 I 0.1356 J -0.0580
G03 X 17.9757 Y 8.0387 Z -1.0000 I 0.1654 J 0.0138
G01 X 18.0057 Y 8.0186 Z -1.0000
G02 X 18.0504 Y 8.0124 Z -1.0000 I -0.5716 J -4.2611
G02 X 18.2257 Y 7.9868 Z -1.0000 I -8.7332 J -60.2924
G03 X 18.3988 Y 7.9676 Z -1.0000 I 0.3475 J 2.3541
G01 X 18.4131 Y 7.9730 Z -1.0000
G01 X 18.4265 Y 7.9766 Z -1.0000
G02 X 18.4854 Y 7.9540 Z -1.0000 I -0.0703 J -0.2713
G03 X 18.5481 Y 7.9309 Z -1.0000 I 0.1230 J 0.2378
G03 X 18.7678 Y 7.8888 Z -1.0000 I 0.6743 J 2.9203
G02 X 18.9898 Y 7.8532 Z -1.0000 I -2.5980 J -16.9184
G02 X 19.1130 Y 7.8311 Z -1.0000 I -0.8494 J -5.0855
G03 X 19.8176 Y 7.7058 Z -1.0000 I 4.9568 J 25.8315
G03 X 19.9372 Y 7.6961 Z -1.0000 I 0.1196 J 0.7301
G02 X 20.0217 Y 7.6874 Z -1.0000 I -0.0000 J -0.4159
G01 X 20.0302 Y 7.6769 Z -1.0000
G01 X 20.0392 Y 7.6655 Z -1.0000
G03 X 20.2318 Y 7.6301 Z -1.0000 I 0.4808 J 2.0737
G02 X 20.4354 Y 7.5874 Z -1.0000 I -0.1982 J -1.4503
G01 X 20.4329 Y 7.5727 Z -1.0000
G02 X 20.3105 Y 7.5842 Z -1.0000 I 0.1135 J 1.8737
G02 X 20.2651 Y 7.5938 Z -1.0000 I 0.0352 J 0.2777
G03 X 20.2204 Y 7.5996 Z -1.0000 I -0.0397 J -0.1304
G03 X 20.1628 Y 7.5901 Z -1.0000 I 0.0084 J -0.2297
G03 X 20.1285 Y 7.5599 Z -1.0000 I 0.0156 J -0.0523
G03 X 20.1238 Y 7.5020 Z -1.0000 I 0.0804 J -0.0356
G03 X 20.1556 Y 7.4408 Z -1.0000 I 0.1510 J 0.0397
G03 X 20.2262 Y 7.3809 Z -1.0000 I 0.2153 J 0.1820
G02 X 20.3081 Y 7.3284 Z -1.0000 I -0.7936 J -1.3270
G02 X 20.3546 Y 7.2927 Z -1.0000 I -0.3179 J -0.4627
G03 X 20.5188 Y 7.2162 Z -1.0000 I 0.2202 J 0.2581
G01 X 20.5671 Y 7.2571 Z -1.0000
G02 X 20.6010 Y 7.3150 Z -1.0000 I 0.0664 J -0.0000
G02 X 20.8110 Y 7.3941 Z -1.0000 I 0.3644 J -0.6488
G03 X 20.8811 Y 7.4208 Z -1.0000 I -0.0506 J 0.2382
G03 X 20.9410 Y 7.4684 Z -1.0000 I -0.1249 J 0.2187
G02 X 20.9925 Y 7.5020 Z -1.0000 I 0.0930 J -0.0862
G01 X 21.0149 Y 7.4940 Z -1.0000
G01 X 21.0543 Y 7.4943 Z -1.0000
G03 X 21.0942 Y 7.6267 Z -1.0000 I -0.2441 J 0.1458
G03 X 21.0554 Y 7.7462 Z -1.0000 I -0.1779 J 0.0083
G03 X 20.9362 Y 7.8245 Z -1.0000 I -0.1795 J -0.1433
G03 X 20.6097 Y 7.8775 Z -1.0000 I -0.4156 J -1.5286
G03 X 19.7282 Y 7.8926 Z -1.0000 I -0.6334 J -11.2407
G02 X 19.5438 Y 7.9044 Z -1.0000 I -0.0237 J 1.0770
G02 X 19.0012 Y 8.0023 Z -1.0000 I 1.4287 J 9.4665
G03 X 18.8329 Y 8.0320 Z -1.0000 I -0.5425 J -2.5794
G03 X 18.7666 Y 8.0359 Z -1.0000 I -0.0565 J -0.3938
G02 X 18.7031 Y 8.0437 Z -1.0000 I -0.0055 J 0.2196
G02 X 18.6659 Y 8.0635 Z -1.0000 I 0.0252 J 0.0922
G03 X 18.6292 Y 8.0871 Z -1.0000 I -0.1017 J -0.1178
G03 X 18.5706 Y 8.1073 Z -1.0000 I -0.1313 J -0.2855
G02 X 18.5256 Y 8.1536 Z -1.0000 I 0.0139 J 0.0585
G01 X 18.5538 Y 8.1882 Z -1.0000
G01 X 18.5793 Y 8.2111 Z -1.0000
G01 X 18.5595 Y 8.2399 Z -1.0000
G01 X 18.5594 Y 8.2457 Z -1.0000
G02 X 18.6042 Y 8.2527 Z -1.0000 I 0.0507 J -0.1779
G02 X 18.6784 Y 8.2452 Z -1.0000 I 0.0091 J -0.2812
G01 X 18.6881 Y 8.2329 Z -1.0000
G01 X 18.6967 Y 8.2191 Z -1.0000
G03 X 18.7329 Y 8.2106 Z -1.0000 I 0.0362 J 0.0725
G03 X 18.7693 Y 8.2187 Z -1.0000 I 0.0000 J 0.0851
G01 X 18.7776 Y 8.2319 Z -1.0000
G01 X 18.7873 Y 8.2423 Z -1.0000
G02 X 18.8894 Y 8.2400 Z -1.0000 I 0.0389 J -0.5392
G03 X 18.9899 Y 8.2395 Z -1.0000 I 0.0522 J 0.4437
G01 X 19.0013 Y 8.2522 Z -1.0000
G01 X 19.0492 Y 8.2991 Z -1.0000
G02 X 19.1207 Y 8.2498 Z -1.0000 I -0.0016 J -0.0789
G01 X 19.1284 Y 8.2441 Z -1.0000
G01 X 19.1338 Y 8.2487 Z -1.0000
G02 X 19.1860 Y 8.3198 Z -1.0000 I 0.0817 J -0.0054
G02 X 19.4404 Y 8.3672 Z -1.0000 I 0.2544 J -0.6582
G03 X 19.5273 Y 8.3781 Z -1.0000 I -0.0000 J 0.3509
G01 X 19.5382 Y 8.3922 Z -1.0000
G01 X 19.5618 Y 8.4138 Z -1.0000
G02 X 19.9409 Y 8.3573 Z -1.0000 I -0.2684 J -3.0963
G03 X 20.0961 Y 8.3298 Z -1.0000 I 0.4742 J 2.2253
G03 X 20.5895 Y 8.2654 Z -1.0000 I 3.1941 J 22.5628
G02 X 20.6610 Y 8.2480 Z -1.0000 I -0.0362 J -0.3054
G01 X 20.6752 Y 8.2333 Z -1.0000
G01 X 20.6879 Y 8.2177 Z -1.0000
G03 X 20.7145 Y 8.2106 Z -1.0000 I 0.0266 J 0.0461
G01 X 20.7390 Y 8.2035 Z -1.0000
G01 X 20.7462 Y 8.1907 Z -1.0000
G01 X 20.7542 Y 8.1769 Z -1.0000
G03 X 20.8077 Y 8.1556 Z -1.0000 I 0.1034 J 0.1816
G02 X 20.8669 Y 8.1353 Z -1.0000 I -0.0833 J -0.3397
G02 X 20.9251 Y 8.1032 Z -1.0000 I -0.1620 J -0.3629
G03 X 21.0704 Y 8.0256 Z -1.0000 I 0.4721 J 0.7091
G01 X 21.0938 Y 8.0332 Z -1.0000
G01 X 21.1174 Y 8.0334 Z -1.0000
G02 X 21.1308 Y 7.9765 Z -1.0000 I -0.0721 J -0.0470
G03 X 21.1346 Y 7.9034 Z -1.0000 I 0.2145 J -0.0254
G03 X 21.1559 Y 7.8648 Z -1.0000 I 0.0775 J 0.0176
G02 X 21.1784 Y 7.8253 Z -1.0000 I -0.0610 J -0.0610
G02 X 21.2036 Y 7.6795 Z -1.0000 I -0.8840 J -0.2275
G03 X 21.2180 Y 7.5284 Z -1.0000 I 14.3181 J 1.2915
G03 X 21.2260 Y 7.4578 Z -1.0000 I 2.9371 J 0.2962
G02 X 21.2167 Y 7.3995 Z -1.0000 I -0.1055 J -0.0131
G01 X 21.1869 Y 7.3747 Z -1.0000
G01 X 21.1751 Y 7.3534 Z -1.0000
G03 X 21.2110 Y 7.2978 Z -1.0000 I 0.1188 J 0.0373
G02 X 21.2689 Y 7.2272 Z -1.0000 I -0.1961 J -0.2197
G02 X 21.2830 Y 7.1750 Z -1.0000 I -0.0889 J -0.0521
G03 X 21.3397 Y 6.9992 Z -1.0000 I 0.3011 J -0.0000
G03 X 21.5063 Y 6.8646 Z -1.0000 I 0.3287 J 0.2364
G02 X 21.6018 Y 6.8153 Z -1.0000 I -0.3333 J -0.7631
G02 X 21.6234 Y 6.7943 Z -1.0000 I -0.0338 J -0.0563
G01 X 21.6328 Y 6.7940 Z -1.0000
G01 X 21.6406 Y 6.8180 Z -1.0000
G01 X 21.6637 Y 6.8493 Z -1.0000
G01 X 21.6938 Y 6.8348 Z -1.0000
G03 X 21.7127 Y 6.8101 Z -1.0000 I 0.0516 J 0.0198
G01 X 21.7397 Y 6.8013 Z -1.0000
G01 X 21.7680 Y 6.7923 Z -1.0000
G02 X 21.8046 Y 6.7557 Z -1.0000 I -0.0860 J -0.1224
G03 X 21.8436 Y 6.7274 Z -1.0000 I 0.0606 J 0.0424
G03 X 21.9112 Y 6.7233 Z -1.0000 I 0.0423 J 0.1392
G03 X 22.0220 Y 6.7697 Z -1.0000 I -0.0473 J 0.2688
G01 X 22.0210 Y 6.8014 Z -1.0000
G02 X 21.9870 Y 6.8840 Z -1.0000 I 0.0400 J 0.0647
G02 X 22.0511 Y 6.9270 Z -1.0000 I 0.0555 J -0.0133
G02 X 22.0762 Y 6.9204 Z -1.0000 I -0.0183 J -0.1193
G02 X 22.1026 Y 6.9072 Z -1.0000 I -0.0555 J -0.1441
G01 X 22.1539 Y 6.9144 Z -1.0000
G03 X 22.1707 Y 6.9830 Z -1.0000 I -0.0557 J 0.0500
G01 X 22.1722 Y 6.9970 Z -1.0000
G03 X 22.2747 Y 6.9403 Z -1.0000 I 0.0969 J 0.0542
G03 X 22.3619 Y 7.0065 Z -1.0000 I -0.0049 J 0.0969
G01 X 22.3759 Y 7.0183 Z -1.0000
G01 X 22.4029 Y 7.0128 Z -1.0000
G03 X 22.4361 Y 6.9956 Z -1.0000 I 0.1212 J 0.1929
G03 X 22.4575 Y 6.9899 Z -1.0000 I 0.0313 J 0.0748
G03 X 22.4798 Y 6.9872 Z -1.0000 I 1.4402 J 11.8191
G02 X 22.5078 Y 6.9837 Z -1.0000 I -0.3343 J -2.7872
G01 X 22.5389 Y 6.9424 Z -1.0000
G02 X 22.4687 Y 6.7420 Z -1.0000 I -0.5964 J 0.0966
G03 X 22.4083 Y 6.6213 Z -1.0000 I 1.1770 J -0.6643
G03 X 22.4015 Y 6.5892 Z -1.0000 I 0.0731 J -0.0321
G01 X 22.3937 Y 6.5631 Z -1.0000
G01 X 22.3792 Y 6.5553 Z -1.0000
G01 X 22.3668 Y 6.5451 Z -1.0000
G03 X 22.3550 Y 6.4378 Z -1.0000 I 0.5643 J -0.1160
G02 X 22.3429 Y 6.3816 Z -1.0000 I -0.1473 J 0.0022
G01 X 22.3308 Y 6.3819 Z -1.0000
G01 X 22.2981 Y 6.3953 Z -1.0000
G01 X 22.2780 Y 6.3569 Z -1.0000
G02 X 22.2763 Y 6.2797 Z -1.0000 I -0.2024 J -0.0341
G01 X 22.2565 Y 6.2565 Z -1.0000
G01 X 22.2366 Y 6.2560 Z -1.0000
G01 X 22.2337 Y 6.2642 Z -1.0000
G01 X 22.2381 Y 6.2861 Z -1.0000
G03 X 22.2231 Y 6.3305 Z -1.0000 I -0.1375 J -0.0217
G01 X 22.1941 Y 6.3470 Z -1.0000
G03 X 22.1438 Y 6.3269 Z -1.0000 I 0.0037 J -0.0822
G03 X 22.1016 Y 6.2422 Z -1.0000 I 0.0811 J -0.0933
G03 X 22.1331 Y 6.1749 Z -1.0000 I 0.0762 J -0.0053
G02 X 22.1760 Y 6.1116 Z -1.0000 I -0.0650 J -0.0902
G01 X 22.1555 Y 6.0854 Z -1.0000
G01 X 22.1319 Y 6.0591 Z -1.0000
G03 X 22.1652 Y 5.9972 Z -1.0000 I 0.0931 J 0.0102
G01 X 22.1963 Y 5.9902 Z -1.0000
G03 X 22.2444 Y 6.0177 Z -1.0000 I -0.0264 J 0.1020
G03 X 22.2864 Y 6.0683 Z -1.0000 I -0.2495 J 0.2495
G03 X 22.3179 Y 6.1255 Z -1.0000 I -0.2872 J 0.1959
G01 X 22.3347 Y 6.1285 Z -1.0000
G02 X 22.3519 Y 6.0900 Z -1.0000 I -0.0452 J -0.0434
G03 X 22.3713 Y 5.9982 Z -1.0000 I 0.3577 J 0.0277
G03 X 22.4141 Y 5.9135 Z -1.0000 I 0.3498 J 0.1237
G02 X 22.4589 Y 5.8301 Z -1.0000 I -0.3780 J -0.2566
G02 X 22.4687 Y 5.7803 Z -1.0000 I -0.1216 J -0.0498
G03 X 22.4809 Y 5.7398 Z -1.0000 I 0.0732 J -0.0000
G01 X 22.5038 Y 5.7275 Z -1.0000
G01 X 22.5247 Y 5.7152 Z -1.0000
G02 X 22.5318 Y 5.6772 Z -1.0000 I -0.0531 J -0.0295
G02 X 22.5145 Y 5.6384 Z -1.0000 I -0.0762 J 0.0107
G01 X 22.4893 Y 5.6265 Z -1.0000
G03 X 22.4560 Y 5.6195 Z -1.0000 I 0.0009 J -0.0875
G03 X 22.3998 Y 5.5885 Z -1.0000 I 0.1217 J -0.2868
G01 X 22.3871 Y 5.5628 Z -1.0000
G01 X 22.4016 Y 5.5482 Z -1.0000
G01 X 22.4149 Y 5.5368 Z -1.0000
G01 X 22.4073 Y 5.5212 Z -1.0000
G03 X 22.3715 Y 5.4878 Z -1.0000 I 0.0359 J -0.0744
G03 X 22.3570 Y 5.4333 Z -1.0000 I 0.0954 J -0.0546
G01 X 22.3237 Y 5.3873 Z -1.0000
G02 X 22.2458 Y 5.3967 Z -1.0000 I -0.0289 J 0.0878
G03 X 22.2040 Y 5.4117 Z -1.0000 I -0.0557 J -0.0893
G01 X 22.1846 Y 5.4048 Z -1.0000
G01 X 22.1813 Y 5.3893 Z -1.0000
G01 X 22.1947 Y 5.3758 Z -1.0000
G01 X 22.2131 Y 5.3464 Z -1.0000
G01 X 22.1890 Y 5.3248 Z -1.0000
G01 X 22.1641 Y 5.3159 Z -1.0000
G01 X 22.1547 Y 5.2968 Z -1.0000
G02 X 22.1371 Y 5.2480 Z -1.0000 I -0.0824 J 0.0022
G02 X 22.0385 Y 5.1493 Z -1.0000 I -0.4670 J 0.3679
G01 X 22.0186 Y 5.1551 Z -1.0000
G02 X 22.0052 Y 5.2444 Z -1.0000 I 0.2286 J 0.0800
G03 X 21.9971 Y 5.3572 Z -1.0000 I -0.5091 J 0.0197
G01 X 21.9821 Y 5.3696 Z -1.0000
G01 X 21.9659 Y 5.3578 Z -1.0000
G03 X 21.9542 Y 5.2855 Z -1.0000 I 0.2176 J -0.0724
G02 X 21.9395 Y 5.2095 Z -1.0000 I -0.2049 J -0.0000
G02 X 21.9094 Y 5.1734 Z -1.0000 I -0.0702 J 0.0280
G03 X 21.8739 Y 5.1404 Z -1.0000 I 0.0676 J -0.1083
G01 X 21.8647 Y 5.1121 Z -1.0000
G01 X 21.8569 Y 5.0865 Z -1.0000
G01 X 21.8423 Y 5.0787 Z -1.0000
G01 X 21.8290 Y 5.0878 Z -1.0000
G02 X 21.8200 Y 5.1347 Z -1.0000 I 0.1174 J 0.0469
G03 X 21.8110 Y 5.1815 Z -1.0000 I -0.1266 J -0.0000
G01 X 21.7976 Y 5.1906 Z -1.0000
G01 X 21.7850 Y 5.1808 Z -1.0000
G03 X 21.7752 Y 5.1011 Z -1.0000 I 0.3190 J -0.0797
G02 X 21.7450 Y 5.0418 Z -1.0000 I -0.0733 J -0.0000
G02 X 21.6522 Y 5.0116 Z -1.0000 I -0.0928 J 0.1277
G02 X 21.5716 Y 5.0540 Z -1.0000 I 0.0000 J 0.0978
G02 X 21.5292 Y 5.1906 Z -1.0000 I 0.1986 J 0.1366
G03 X 21.5140 Y 5.3543 Z -1.0000 I -0.8890 J 0.0000
G01 X 21.4956 Y 5.3696 Z -1.0000
G01 X 21.4719 Y 5.3794 Z -1.0000
G01 X 21.4620 Y 5.4031 Z -1.0000
G01 X 21.4757 Y 5.4230 Z -1.0000
G02 X 21.5489 Y 5.4367 Z -1.0000 I 0.0732 J -0.1895
G03 X 21.6234 Y 5.4527 Z -1.0000 I 0.0000 J 0.1811
G01 X 21.6474 Y 5.4811 Z -1.0000
G02 X 21.6684 Y 5.5172 Z -1.0000 I 0.0752 J -0.0197
G02 X 21.7150 Y 5.5469 Z -1.0000 I 0.0950 J -0.0976
G03 X 21.8166 Y 5.6249 Z -1.0000 I -0.0792 J 0.2083
G03 X 21.8878 Y 5.7866 Z -1.0000 I -0.3441 J 0.2480
G02 X 21.9265 Y 5.8894 Z -1.0000 I 0.3461 J -0.0718
G01 X 21.9558 Y 5.9064 Z -1.0000
G01 X 21.9823 Y 5.9231 Z -1.0000
G03 X 21.9989 Y 5.9959 Z -1.0000 I -0.1511 J 0.0728
G02 X 22.0161 Y 6.0683 Z -1.0000 I 0.1618 J 0.0000
G01 X 22.0437 Y 6.0854 Z -1.0000
G01 X 22.0739 Y 6.0999 Z -1.0000
G03 X 22.0884 Y 6.1413 Z -1.0000 I -0.0517 J 0.0414
G03 X 22.0794 Y 6.1882 Z -1.0000 I -0.1265 J -0.0000
G01 X 22.0661 Y 6.1972 Z -1.0000
G01 X 22.0496 Y 6.1912 Z -1.0000
G01 X 22.0437 Y 6.1786 Z -1.0000
G01 X 21.9993 Y 6.1351 Z -1.0000
G02 X 21.8686 Y 6.1820 Z -1.0000 I 0.0044 J 0.2181
G01 X 21.8418 Y 6.1891 Z -1.0000
G01 X 21.8198 Y 6.1745 Z -1.0000
G01 X 21.8052 Y 6.1725 Z -1.0000
G02 X 21.7847 Y 6.2072 Z -1.0000 I 0.0483 J 0.0519
G01 X 21.7626 Y 6.2240 Z -1.0000
G01 X 21.7329 Y 6.2060 Z -1.0000
G01 X 21.7091 Y 6.1976 Z -1.0000
G01 X 21.6901 Y 6.2233 Z -1.0000
G03 X 21.6688 Y 6.2968 Z -1.0000 I -0.1930 J -0.0161
G03 X 21.6286 Y 6.3413 Z -1.0000 I -0.1053 J -0.0549
G02 X 21.5836 Y 6.3823 Z -1.0000 I 0.1049 J 0.1601
G01 X 21.5739 Y 6.4101 Z -1.0000
G01 X 21.5642 Y 6.4334 Z -1.0000
G01 X 21.5404 Y 6.4432 Z -1.0000
G01 X 21.5175 Y 6.4539 Z -1.0000
G01 X 21.5068 Y 6.4837 Z -1.0000
G03 X 21.4649 Y 6.5794 Z -1.0000 I -0.1302 J -0.0000
G03 X 21.3567 Y 6.6223 Z -1.0000 I -0.1098 J -0.1189
G02 X 21.3114 Y 6.6503 Z -1.0000 I 0.0005 J 0.0515
G02 X 21.2829 Y 6.7664 Z -1.0000 I 0.2302 J 0.1179
G01 X 21.2746 Y 6.7846 Z -1.0000
G03 X 21.2257 Y 6.8164 Z -1.0000 I -0.1357 J -0.1554
G01 X 21.1714 Y 6.8047 Z -1.0000
G03 X 21.1552 Y 6.7347 Z -1.0000 I 0.0584 J -0.0505
G02 X 21.1558 Y 6.6935 Z -1.0000 I -0.0844 J -0.0219
G02 X 21.1361 Y 6.6512 Z -1.0000 I -0.1073 J 0.0243
G03 X 21.0330 Y 6.3588 Z -1.0000 I 0.4049 J -0.3070
G03 X 21.1249 Y 6.2642 Z -1.0000 I 0.0919 J -0.0027
G01 X 21.1374 Y 6.2549 Z -1.0000
G02 X 21.1611 Y 6.1409 Z -1.0000 I -0.6923 J -0.2034
G03 X 21.1832 Y 6.0219 Z -1.0000 I 1.0235 J 0.1282
G01 X 21.1943 Y 6.0066 Z -1.0000
G01 X 21.2150 Y 5.9767 Z -1.0000
G02 X 21.2515 Y 5.7171 Z -1.0000 I -2.3180 J -0.4582
G03 X 21.2610 Y 5.6269 Z -1.0000 I 2.0203 J 0.1665
G03 X 21.2735 Y 5.5436 Z -1.0000 I 1.9049 J 0.2432
G02 X 21.2724 Y 5.4653 Z -1.0000 I -0.2096 J -0.0362
G02 X 21.2489 Y 5.4215 Z -1.0000 I -0.0842 J 0.0170
G03 X 21.2297 Y 5.3872 Z -1.0000 I 0.0513 J -0.0513
G01 X 21.2373 Y 5.3735 Z -1.0000
G01 X 21.2626 Y 5.3732 Z -1.0000
G03 X 21.2895 Y 5.3893 Z -1.0000 I -0.0187 J 0.0617
G02 X 21.3646 Y 5.4215 Z -1.0000 I 0.0777 J -0.0777
G01 X 21.3949 Y 5.3919 Z -1.0000
G01 X 21.3859 Y 5.3785 Z -1.0000
G02 X 21.3390 Y 5.3695 Z -1.0000 I -0.0469 J 0.1173
G03 X 21.2990 Y 5.3536 Z -1.0000 I 0.0000 J -0.0580
G03 X 21.2831 Y 5.3163 Z -1.0000 I 0.0354 J -0.0372
G02 X 21.2743 Y 5.2673 Z -1.0000 I -0.1418 J -0.0000
G02 X 21.2548 Y 5.2397 Z -1.0000 I -0.0611 J 0.0226
G01 X 21.2386 Y 5.2112 Z -1.0000
G03 X 21.2347 Y 5.1139 Z -1.0000 I 0.4043 J -0.0647
G03 X 21.2612 Y 5.0315 Z -1.0000 I 0.1875 J 0.0149
G01 X 21.2965 Y 5.0116 Z -1.0000
G01 X 21.3291 Y 4.9869 Z -1.0000
G01 X 21.3157 Y 4.9437 Z -1.0000
G02 X 21.2819 Y 4.9307 Z -1.0000 I -0.0363 J 0.0438
G01 X 21.2553 Y 4.9410 Z -1.0000
G01 X 21.2164 Y 4.9445 Z -1.0000
G03 X 21.1622 Y 4.8763 Z -1.0000 I 0.0866 J -0.1246
G02 X 21.1210 Y 4.8007 Z -1.0000 I -0.3371 J 0.1349
G01 X 21.1064 Y 4.7978 Z -1.0000
G01 X 21.0935 Y 4.7944 Z -1.0000
G03 X 21.0724 Y 4.7374 Z -1.0000 I 0.1679 J -0.0946
G03 X 21.0624 Y 4.5937 Z -1.0000 I 0.5578 J -0.1108
G01 X 21.0818 Y 4.5754 Z -1.0000
G01 X 21.1089 Y 4.5658 Z -1.0000
G02 X 21.1321 Y 4.5344 Z -1.0000 I -0.0499 J -0.0612
G01 X 21.1745 Y 4.5109 Z -1.0000
G01 X 21.2023 Y 4.5465 Z -1.0000
G01 X 21.2306 Y 4.5783 Z -1.0000
G02 X 22.7319 Y 4.6090 Z -1.0000 I 1.5013 J -36.7606
G03 X 23.5862 Y 4.6327 Z -1.0000 I 0.0000 J 15.4163
G03 X 23.6958 Y 4.6625 Z -1.0000 I -0.0151 J 0.2721
G03 X 23.8579 Y 4.7495 Z -1.0000 I -2.4192 J 4.6979
G03 X 24.2248 Y 4.9586 Z -1.0000 I -13.6415 J 24.3679
G02 X 24.4157 Y 5.0639 Z -1.0000 I 2.5738 J -4.4404
G02 X 24.8118 Y 5.2663 Z -1.0000 I 9.8588 J -18.8066
G03 X 24.8560 Y 5.2950 Z -1.0000 I -0.1020 J 0.2050
G01 X 24.8621 Y 5.3080 Z -1.0000
G01 X 24.8677 Y 5.3192 Z -1.0000
G01 X 24.8843 Y 5.3248 Z -1.0000
G03 X 24.9053 Y 5.3290 Z -1.0000 I 0.0000 J 0.0546
G03 X 25.0912 Y 5.4114 Z -1.0000 I -1.9022 J 4.5435
G02 X 25.3947 Y 5.5007 Z -1.0000 I 0.4439 J -0.9483
G02 X 26.1047 Y 5.5485 Z -1.0000 I 0.7100 J -5.2479
G03 X 26.5508 Y 5.5616 Z -1.0000 I 0.0000 J 7.6227
G01 X 26.5801 Y 5.5765 Z -1.0000
G03 X 26.5923 Y 5.6082 Z -1.0000 I -0.0415 J 0.0343
G03 X 26.5948 Y 5.8775 Z -1.0000 I -3.3879 J 0.1653
G02 X 26.6001 Y 6.1313 Z -1.0000 I 2.4629 J 0.0754
G01 X 26.6138 Y 6.1400 Z -1.0000
G02 X 26.6589 Y 6.0868 Z -1.0000 I -0.0260 J -0.0679
G02 X 26.6851 Y 5.7954 Z -1.0000 I -1.2537 J -0.2593
G03 X 26.6938 Y 5.6219 Z -1.0000 I 1.1582 J -0.0289
G01 X 26.7109 Y 5.5907 Z -1.0000
G03 X 26.7455 Y 5.5780 Z -1.0000 I 0.0354 J 0.0426
G03 X 27.3642 Y 5.5819 Z -1.0000 I 0.2094 J 15.6192
G02 X 27.9866 Y 5.5906 Z -1.0000 I 0.6616 J -25.1863
G02 X 28.0776 Y 5.5830 Z -1.0000 I 0.0008 J -0.5419
G02 X 28.1214 Y 5.5518 Z -1.0000 I -0.0102 J -0.0606
G01 X 28.1164 Y 5.5119 Z -1.0000
G03 X 28.0851 Y 5.4479 Z -1.0000 I 0.0906 J -0.0840
G03 X 28.0574 Y 5.1500 Z -1.0000 I 2.1441 J -0.3496
G03 X 28.1691 Y 4.8617 Z -1.0000 I 0.4031 J -0.0096
G03 X 28.4465 Y 4.7431 Z -1.0000 I 0.2774 J 0.2653
G03 X 28.7564 Y 4.7470 Z -1.0000 I -0.0000 J 12.4885
G03 X 29.2981 Y 4.7644 Z -1.0000 I -0.9147 J 36.8459
G02 X 29.8398 Y 4.7832 Z -1.0000 I 2.2920 J -58.1558
G02 X 30.4190 Y 4.7982 Z -1.0000 I 2.0528 J -68.2301
G03 X 30.9893 Y 4.8284 Z -1.0000 I -0.1969 J 9.1122
G03 X 31.0279 Y 4.8496 Z -1.0000 I -0.0046 J 0.0540
G03 X 31.0452 Y 4.8928 Z -1.0000 I -0.0699 J 0.0531
G03 X 31.0605 Y 5.1346 Z -1.0000 I -2.3753 J 0.2718
G03 X 31.0243 Y 5.5515 Z -1.0000 I -2.1135 J 0.0265
G03 X 30.9742 Y 5.5939 Z -1.0000 I -0.0511 J -0.0096
G01 X 30.9665 Y 5.6026 Z -1.0000
G01 X 30.9767 Y 5.6183 Z -1.0000
G02 X 31.0205 Y 5.6308 Z -1.0000 I 0.0465 J -0.0800
G02 X 31.6982 Y 5.6393 Z -1.0000 I 0.5940 J -20.4471
G03 X 32.3763 Y 5.6470 Z -1.0000 I 0.0907 J 21.9108
G03 X 32.4202 Y 5.6586 Z -1.0000 I -0.0026 J 0.0986
G03 X 32.4462 Y 5.6908 Z -1.0000 I -0.0250 J 0.0468
G03 X 32.4793 Y 5.8662 Z -1.0000 I -0.9482 J 0.2702
G03 X 32.4822 Y 6.1596 Z -1.0000 I -1.6933 J 0.1635
G03 X 32.4463 Y 6.2979 Z -1.0000 I -0.4020 J -0.0308
G02 X 32.4029 Y 6.4120 Z -1.0000 I 0.7969 J 0.3680
G02 X 32.3838 Y 6.5048 Z -1.0000 I 0.5046 J 0.1525
G03 X 32.3310 Y 6.5648 Z -1.0000 I -0.0695 J -0.0079
G03 X 32.0832 Y 6.5787 Z -1.0000 I -0.1608 J -0.6543
G02 X 30.2699 Y 6.4330 Z -1.0000 I -2.3885 J 18.3728
G02 X 28.4080 Y 6.4645 Z -1.0000 I -0.6024 J 19.3998
G03 X 28.0724 Y 6.4844 Z -1.0000 I -1.8827 J -29.0026
G03 X 27.5356 Y 6.5110 Z -1.0000 I -3.8848 J -72.8807
G02 X 26.9989 Y 6.5377 Z -1.0000 I 3.1827 J 69.3073
G02 X 26.9092 Y 6.5447 Z -1.0000 I 0.1030 J 1.9181
G03 X 26.5425 Y 6.5672 Z -1.0000 I -0.4757 J -4.7366
G01 X 26.5090 Y 6.5538 Z -1.0000
G01 X 26.5017 Y 6.5413 Z -1.0000
G03 X 26.4875 Y 6.4764 Z -1.0000 I 0.5859 J -0.1621
G02 X 26.4766 Y 6.4097 Z -1.0000 I -82.7752 J 13.5327
G02 X 26.4745 Y 6.3985 Z -1.0000 I -0.2958 J 0.0486
G01 X 26.4514 Y 6.3960 Z -1.0000
G02 X 26.4286 Y 6.5037 Z -1.0000 I 0.2516 J 0.1095
G03 X 26.3938 Y 6.6330 Z -1.0000 I -0.2640 J -0.0018
G03 X 26.3352 Y 6.6670 Z -1.0000 I -0.0586 J -0.0335
G03 X 26.3044 Y 6.6567 Z -1.0000 I -0.0000 J -0.0513
G01 X 26.2941 Y 6.6360 Z -1.0000
G01 X 26.2653 Y 6.6076 Z -1.0000
G02 X 25.6789 Y 6.6438 Z -1.0000 I 0.0760 J 5.9910
G02 X 25.4342 Y 6.6787 Z -1.0000 I 0.4451 J 3.9975
G02 X 25.2650 Y 6.7158 Z -1.0000 I 0.3397 J 1.9514
G03 X 25.0968 Y 6.7580 Z -1.0000 I -1.5367 J -5.7814
G03 X 25.0525 Y 6.7658 Z -1.0000 I -0.0913 J -0.3885
G02 X 25.0085 Y 6.7737 Z -1.0000 I 0.0483 J 0.3960
G02 X 24.9742 Y 6.7846 Z -1.0000 I 0.0559 J 0.2351
G03 X 24.9398 Y 6.7950 Z -1.0000 I -0.0739 J -0.1819
G03 X 24.8624 Y 6.8077 Z -1.0000 I -0.1990 J -0.9672
G02 X 24.2830 Y 6.9202 Z -1.0000 I 0.5279 J 4.2690
G02 X 23.9340 Y 7.0550 Z -1.0000 I 0.4451 J 1.6709
G02 X 23.8012 Y 7.1264 Z -1.0000 I 2.1690 J 4.1965
G02 X 23.7886 Y 7.1361 Z -1.0000 I 0.0261 J 0.0468
G03 X 23.7764 Y 7.1466 Z -1.0000 I -0.0567 J -0.0532
G03 X 23.7327 Y 7.1754 Z -1.0000 I -0.5180 J -0.7411
G02 X 23.2127 Y 7.5286 Z -1.0000 I 3.6879 J 5.9889
G02 X 23.1846 Y 7.5846 Z -1.0000 I 0.0418 J 0.0560
G01 X 23.1761 Y 7.5979 Z -1.0000
G03 X 23.1372 Y 7.6064 Z -1.0000 I -0.0389 J -0.0843
G02 X 23.0439 Y 7.6306 Z -1.0000 I 0.0000 J 0.1925
G02 X 22.7463 Y 7.8231 Z -1.0000 I 1.2629 J 2.2785
G03 X 22.6750 Y 7.8688 Z -1.0000 I -0.3529 J -0.4715
G01 X 22.6512 Y 7.8749 Z -1.0000
G01 X 22.6325 Y 7.8819 Z -1.0000
G01 X 22.6254 Y 7.8978 Z -1.0000
G01 X 22.6170 Y 7.9150 Z -1.0000
G03 X 22.5694 Y 7.9420 Z -1.0000 I -0.1115 J -0.1411
G02 X 22.5202 Y 7.9679 Z -1.0000 I 0.0828 J 0.2169
G01 X 22.5135 Y 7.9807 Z -1.0000
G01 X 22.5066 Y 7.9938 Z -1.0000
G03 X 22.4424 Y 8.0296 Z -1.0000 I -0.2256 J -0.3288
G02 X 22.3733 Y 8.0644 Z -1.0000 I 0.3228 J 0.7290
G02 X 22.3361 Y 8.0896 Z -1.0000 I 0.1319 J 0.2336
G03 X 22.0856 Y 8.2858 Z -1.0000 I -5.7166 J -7.0430
G03 X 21.8863 Y 8.4293 Z -1.0000 I -3.2585 J -4.3154
G02 X 21.7195 Y 8.5474 Z -1.0000 I 3.8672 J 5.6373
G02 X 21.6737 Y 8.5846 Z -1.0000 I 0.3372 J 0.4614
G03 X 21.2983 Y 8.9148 Z -1.0000 I -12.8060 J -14.1831
G03 X 21.1993 Y 8.9910 Z -1.0000 I -0.7768 J -0.9069
G02 X 21.1378 Y 9.0471 Z -1.0000 I 0.1739 J 0.2521
G02 X 21.1262 Y 9.0788 Z -1.0000 I 0.0386 J 0.0321
G03 X 21.1155 Y 9.1123 Z -1.0000 I -0.0596 J -0.0006
G03 X 21.0255 Y 9.2233 Z -1.0000 I -0.8091 J -0.5635
G02 X 20.9318 Y 9.3328 Z -1.0000 I 1.1532 J 1.0817
G01 X 20.9252 Y 9.3520 Z -1.0000
G01 X 20.9180 Y 9.3665 Z -1.0000
G01 X 20.8967 Y 9.3737 Z -1.0000
G02 X 20.8210 Y 9.4037 Z -1.0000 I 0.0000 J 0.1104
G02 X 20.7910 Y 9.4731 Z -1.0000 I 0.0654 J 0.0694
G01 X 20.7811 Y 9.4985 Z -1.0000
G03 X 20.5435 Y 9.7428 Z -1.0000 I -4.3162 J -3.9605
G02 X 20.3071 Y 9.9835 Z -1.0000 I 4.8374 J 4.9871
G01 X 20.2989 Y 10.0043 Z -1.0000
G01 X 20.2916 Y 10.0151 Z -1.0000
G03 X 20.2541 Y 10.0224 Z -1.0000 I -0.0375 J -0.0923
G01 X 20.2222 Y 10.0352 Z -1.0000
G01 X 20.2094 Y 10.0653 Z -1.0000
G03 X 20.2016 Y 10.1026 Z -1.0000 I -0.0930 J -0.0000
G01 X 20.1874 Y 10.1156 Z -1.0000
G02 X 19.8878 Y 10.3041 Z -1.0000 I 0.2434 J 0.7191
G02 X 19.7042 Y 10.6100 Z -1.0000 I 0.5519 J 0.5394
G02 X 19.7011 Y 10.6506 Z -1.0000 I 0.0835 J 0.0267
G01 X 19.7150 Y 10.6779 Z -1.0000
G03 X 19.7466 Y 10.7561 Z -1.0000 I -0.0761 J 0.0761
G03 X 19.7116 Y 10.8555 Z -1.0000 I -0.1681 J -0.0032
G01 X 19.6779 Y 10.8725 Z -1.0000
G03 X 19.5856 Y 10.8580 Z -1.0000 I -0.0053 J -0.2666
G02 X 19.4954 Y 10.8584 Z -1.0000 I -0.0446 J 0.1291
G02 X 19.3787 Y 10.9314 Z -1.0000 I 0.1061 J 0.2991
G02 X 19.2839 Y 11.0445 Z -1.0000 I 0.5442 J 0.5524
G02 X 19.2698 Y 11.0898 Z -1.0000 I 0.0659 J 0.0453
G01 X 19.2463 Y 11.1263 Z -1.0000
G01 X 19.2122 Y 11.1158 Z -1.0000
G01 X 19.1908 Y 11.1031 Z -1.0000
G02 X 19.0822 Y 11.1073 Z -1.0000 I -0.0339 J 0.5191
G03 X 18.9677 Y 11.1231 Z -1.0000 I -1.2233 J -8.4586
G03 X 18.8465 Y 11.1381 Z -1.0000 I -1.0861 J -8.3010
G02 X 18.7346 Y 11.1636 Z -1.0000 I 0.0616 J 0.5274
G01 X 18.7149 Y 11.1837 Z -1.0000
G01 X 18.7201 Y 11.1988 Z -1.0000
G01 X 18.7411 Y 11.2011 Z -1.0000
G01 X 18.7692 Y 11.1994 Z -1.0000
G01 X 18.7777 Y 11.2103 Z -1.0000
G01 X 18.7880 Y 11.2230 Z -1.0000
G02 X 18.8727 Y 11.2299 Z -1.0000 I 0.0709 J -0.3439
G03 X 19.0279 Y 11.2377 Z -1.0000 I 0.0344 J 0.8682
G01 X 19.0349 Y 11.2527 Z -1.0000
G01 X 19.0359 Y 11.2668 Z -1.0000
G01 X 19.0532 Y 11.2751 Z -1.0000
G03 X 19.0817 Y 11.2829 Z -1.0000 I -0.0000 J 0.0558
G03 X 19.1161 Y 11.3123 Z -1.0000 I -0.0670 J 0.1130
G01 X 19.1135 Y 11.3223 Z -1.0000
G01 X 19.0937 Y 11.3212 Z -1.0000
G02 X 19.0390 Y 11.3037 Z -1.0000 I -0.0749 J 0.1405
G02 X 18.9752 Y 11.3060 Z -1.0000 I -0.0251 J 0.1960
G03 X 18.9276 Y 11.3067 Z -1.0000 I -0.0256 J -0.1275
G01 X 18.9233 Y 11.2971 Z -1.0000
G01 X 18.9112 Y 11.2786 Z -1.0000
G02 X 18.8544 Y 11.3070 Z -1.0000 I 0.0142 J 0.0992
G02 X 18.8344 Y 11.3414 Z -1.0000 I 0.0549 J 0.0549
G02 X 18.8361 Y 11.3741 Z -1.0000 I 0.0507 J 0.0139
G02 X 18.8698 Y 11.4066 Z -1.0000 I 0.0517 J -0.0198
G01 X 18.8897 Y 11.3925 Z -1.0000
G01 X 18.8978 Y 11.3837 Z -1.0000
G03 X 19.0967 Y 11.3701 Z -1.0000 I 0.2655 J 2.4223
G02 X 19.3031 Y 11.3602 Z -1.0000 I -0.1476 J -5.2454
G02 X 19.6837 Y 11.3302 Z -1.0000 I -1.1650 J -17.2250
G03 X 20.0640 Y 11.2968 Z -1.0000 I 9.2234 J 102.6163
G03 X 20.3324 Y 11.2744 Z -1.0000 I 4.3542 J 50.5431
G02 X 20.6002 Y 11.2489 Z -1.0000 I -0.7982 J -9.8377
G02 X 20.6568 Y 11.2390 Z -1.0000 I -0.0474 J -0.4360
G03 X 20.7133 Y 11.2307 Z -1.0000 I 0.0734 J 0.3009
G03 X 20.8497 Y 11.2285 Z -1.0000 I 0.0970 J 1.7788
G02 X 20.9715 Y 11.2114 Z -1.0000 I 0.0086 J -0.3822
G01 X 20.9997 Y 11.1819 Z -1.0000
G01 X 21.0203 Y 11.1684 Z -1.0000
G03 X 21.0589 Y 11.1909 Z -1.0000 I -0.0091 J 0.0601
G03 X 21.0870 Y 11.2565 Z -1.0000 I -0.1084 J 0.0853
G03 X 21.1277 Y 11.6660 Z -1.0000 I -4.5512 J 0.6590
G03 X 21.1452 Y 12.0811 Z -1.0000 I -17.2188 J 0.9354
G01 X 21.1407 Y 12.0981 Z -1.0000
G02 X 21.1224 Y 12.1690 Z -1.0000 I 0.1087 J 0.0660
G02 X 21.1839 Y 13.2212 Z -1.0000 I 26.4049 J -1.0173
G03 X 21.1981 Y 13.4114 Z -1.0000 I -23.1068 J 1.8117
G03 X 21.2048 Y 13.5186 Z -1.0000 I -7.0647 J 0.4955
G02 X 21.2161 Y 13.6235 Z -1.0000 I 0.9784 J -0.0531
G01 X 21.2245 Y 13.6398 Z -1.0000
G01 X 21.2328 Y 13.6401 Z -1.0000
G01 X 21.2384 Y 13.6276 Z -1.0000
G01 X 21.2457 Y 13.6088 Z -1.0000
G01 X 21.2621 Y 13.6015 Z -1.0000
G01 X 21.2736 Y 13.6120 Z -1.0000
G03 X 21.2708 Y 13.7019 Z -1.0000 I -0.3820 J 0.0331
G02 X 21.2634 Y 13.8014 Z -1.0000 I 0.6634 J 0.0997
G02 X 21.2707 Y 13.8411 Z -1.0000 I 0.1112 J 0.0000
G01 X 21.2995 Y 13.8390 Z -1.0000
G02 X 21.3279 Y 13.5903 Z -1.0000 I -1.1045 J -0.2521
G03 X 21.3561 Y 13.3403 Z -1.0000 I 1.1536 J 0.0035
G01 X 21.3853 Y 13.3354 Z -1.0000
G03 X 21.4207 Y 13.4431 Z -1.0000 I -0.2061 J 0.1274
G03 X 21.4393 Y 13.9986 Z -1.0000 I -5.8037 J 0.4732
G02 X 21.4529 Y 14.1231 Z -1.0000 I 0.5131 J 0.0073
G01 X 21.4721 Y 14.1384 Z -1.0000
G01 X 21.4927 Y 14.1525 Z -1.0000
G03 X 21.5068 Y 14.2278 Z -1.0000 I -0.1941 J 0.0754
G03 X 21.4971 Y 14.3075 Z -1.0000 I -0.3294 J -0.0000
G01 X 21.4845 Y 14.3173 Z -1.0000
G01 X 21.4720 Y 14.3271 Z -1.0000
G02 X 21.4639 Y 14.4012 Z -1.0000 I 0.2779 J 0.0682
G02 X 21.4708 Y 14.4565 Z -1.0000 I 0.2672 J -0.0056
G01 X 21.4770 Y 14.4570 Z -1.0000
G01 X 21.5042 Y 14.4561 Z -1.0000
G03 X 21.5292 Y 14.5647 Z -1.0000 I -0.2240 J 0.1087
G03 X 21.5149 Y 14.6610 Z -1.0000 I -0.3309 J 0.0000
G01 X 21.4957 Y 14.6752 Z -1.0000
G01 X 21.4743 Y 14.6875 Z -1.0000
G02 X 21.4621 Y 14.7325 Z -1.0000 I 0.0768 J 0.0450
G02 X 21.4709 Y 14.7739 Z -1.0000 I 0.1017 J -0.0000
G01 X 21.4821 Y 14.7774 Z -1.0000
G01 X 21.4977 Y 14.7781 Z -1.0000
G03 X 21.5169 Y 14.8036 Z -1.0000 I -0.0348 J 0.0462
G03 X 21.5199 Y 14.8366 Z -1.0000 I -0.0560 J 0.0216
G01 X 21.5081 Y 14.8500 Z -1.0000
G02 X 21.3543 Y 15.0605 Z -1.0000 I 0.0709 J 0.2133
G02 X 21.5040 Y 15.2121 Z -1.0000 I 0.1497 J 0.0019
G01 X 21.5150 Y 15.2214 Z -1.0000
G03 X 21.5394 Y 15.4153 Z -1.0000 I -2.0467 J 0.3557
G03 X 21.5403 Y 15.6135 Z -1.0000 I -1.3425 J 0.1050
G03 X 21.5228 Y 15.6557 Z -1.0000 I -0.0718 J -0.0050
G02 X 21.5013 Y 15.6977 Z -1.0000 I 0.0735 J 0.0641
G02 X 21.4788 Y 15.8441 Z -1.0000 I 0.9386 J 0.2191
G02 X 21.4940 Y 15.9360 Z -1.0000 I 0.1957 J 0.0148
G01 X 21.5174 Y 15.9342 Z -1.0000
G03 X 21.5780 Y 15.8216 Z -1.0000 I 0.2524 J 0.0634
G03 X 21.7263 Y 15.7066 Z -1.0000 I 0.4125 J 0.3787
G01 X 21.7461 Y 15.6594 Z -1.0000
G01 X 21.7047 Y 15.6329 Z -1.0000
G03 X 21.6549 Y 15.6265 Z -1.0000 I -0.0135 J -0.0918
G01 X 21.6473 Y 15.6086 Z -1.0000
G02 X 21.6536 Y 15.5728 Z -1.0000 I -0.0868 J -0.0337
G02 X 21.6390 Y 15.2420 Z -1.0000 I -7.8548 J 0.1804
G03 X 21.6185 Y 14.9101 Z -1.0000 I 52.0930 J -3.3847
G03 X 21.6065 Y 14.6864 Z -1.0000 I 22.6632 J -1.3276
G02 X 21.5943 Y 14.4628 Z -1.0000 I -18.6312 J 0.9086
G02 X 21.5739 Y 14.1496 Z -1.0000 I -36.2399 J 2.2037
G03 X 21.5581 Y 13.8362 Z -1.0000 I 8.2063 J -0.5708
G03 X 21.5519 Y 13.4486 Z -1.0000 I 12.6287 J -0.3953
G02 X 21.5336 Y 12.6510 Z -1.0000 I -17.8146 J 0.0101
G02 X 21.4814 Y 11.8962 Z -1.0000 I -16.0060 J 0.7265
G03 X 21.4675 Y 11.6136 Z -1.0000 I 3.2504 J -0.3016
G03 X 21.4795 Y 11.5606 Z -1.0000 I 0.1200 J -0.0007
G01 X 21.4969 Y 11.5437 Z -1.0000
G01 X 21.5055 Y 11.5490 Z -1.0000
G01 X 21.5405 Y 11.5806 Z -1.0000
G01 X 21.5741 Y 11.5448 Z -1.0000
G02 X 21.5665 Y 11.5056 Z -1.0000 I -0.1051 J 0.0000
G01 X 21.5509 Y 11.4870 Z -1.0000
G01 X 21.5485 Y 11.4717 Z -1.0000
G03 X 21.6236 Y 11.3997 Z -1.0000 I 0.3554 J 0.2960
G03 X 21.9304 Y 11.2552 Z -1.0000 I 0.4912 J 0.6451
G03 X 22.0454 Y 11.3011 Z -1.0000 I 0.0246 J 0.1054
G01 X 22.0614 Y 11.3080 Z -1.0000
G02 X 22.1277 Y 11.2857 Z -1.0000 I -0.0466 J -0.2485
G03 X 22.1996 Y 11.2580 Z -1.0000 I 0.1826 J 0.3661
G03 X 22.3387 Y 11.2264 Z -1.0000 I 0.3801 J 1.3515
G02 X 22.4762 Y 11.1957 Z -1.0000 I -0.2576 J -1.4786
G01 X 22.4913 Y 11.1848 Z -1.0000
G01 X 22.5059 Y 11.1728 Z -1.0000
G03 X 22.6143 Y 11.1347 Z -1.0000 I 0.4323 J 1.0567
G02 X 22.7105 Y 11.0908 Z -1.0000 I -0.1073 J -0.3627
G01 X 22.7231 Y 11.0653 Z -1.0000
G01 X 22.7308 Y 11.0389 Z -1.0000
G01 X 22.7510 Y 11.0290 Z -1.0000
G01 X 22.7796 Y 11.0004 Z -1.0000
G02 X 22.7510 Y 10.9348 Z -1.0000 I -0.0895 J 0.0001
G01 X 22.7372 Y 10.9029 Z -1.0000
G03 X 22.7516 Y 10.8444 Z -1.0000 I 0.1295 J 0.0008
G03 X 22.7896 Y 10.7934 Z -1.0000 I 0.1729 J 0.0891
G01 X 22.8155 Y 10.7829 Z -1.0000
G02 X 22.8464 Y 10.7768 Z -1.0000 I 0.0000 J -0.0806
G02 X 23.0285 Y 10.6946 Z -1.0000 I -1.2426 J -2.9969
G03 X 23.2104 Y 10.6093 Z -1.0000 I 2.7427 J 5.6126
G03 X 23.2585 Y 10.5912 Z -1.0000 I 0.1676 J 0.3730
G02 X 23.3841 Y 10.5439 Z -1.0000 I -0.3073 J -1.0058
G02 X 23.7329 Y 10.3770 Z -1.0000 I -3.5982 J -7.9657
G02 X 23.8223 Y 10.3317 Z -1.0000 I -136.0685 J -268.7553
G02 X 24.2378 Y 10.1211 Z -1.0000 I -1509.2295 J -2978.3492
G03 X 24.6546 Y 9.9159 Z -1.0000 I 9.0524 J 17.8586
G03 X 24.6784 Y 9.9105 Z -1.0000 I 0.0238 J 0.0497
G01 X 24.6986 Y 9.9190 Z -1.0000
G03 X 24.7427 Y 9.9769 Z -1.0000 I -0.2228 J 0.2156
G02 X 24.7899 Y 10.0241 Z -1.0000 I 0.1152 J -0.0680
G02 X 24.8334 Y 10.0304 Z -1.0000 I 0.0294 J -0.0498
G03 X 24.8743 Y 10.0310 Z -1.0000 I 0.0193 J 0.0773
G01 X 24.8849 Y 10.0450 Z -1.0000
G01 X 24.8938 Y 10.0535 Z -1.0000
G01 X 24.9202 Y 10.0433 Z -1.0000
G03 X 24.9534 Y 10.0286 Z -1.0000 I 0.0427 J 0.0515
G01 X 24.9705 Y 10.0361 Z -1.0000
G01 X 24.9893 Y 10.0434 Z -1.0000
G02 X 25.0862 Y 10.0080 Z -1.0000 I -0.1082 J -0.4473
G01 X 25.1757 Y 9.9545 Z -1.0000
G02 X 25.1644 Y 9.9523 Z -1.0000 I -0.0172 J 0.0584
G02 X 25.0670 Y 9.9439 Z -1.0000 I -0.3995 J 4.0836
G03 X 24.9606 Y 9.8995 Z -1.0000 I 0.0132 J -0.1811
G01 X 24.9626 Y 9.8525 Z -1.0000
G03 X 25.0080 Y 9.8298 Z -1.0000 I 0.0890 J 0.1207
G01 X 25.0346 Y 9.8307 Z -1.0000
G01 X 25.0595 Y 9.8327 Z -1.0000
G01 X 25.0742 Y 9.8224 Z -1.0000
G01 X 25.0578 Y 9.7800 Z -1.0000
G02 X 24.9886 Y 9.7979 Z -1.0000 I -0.0194 J 0.0678
G03 X 24.9624 Y 9.8137 Z -1.0000 I -0.0449 J -0.0449
G03 X 24.9140 Y 9.8210 Z -1.0000 I -0.0484 J -0.1563
G02 X 24.8747 Y 9.8332 Z -1.0000 I -0.0000 J 0.0692
G01 X 24.8625 Y 9.8564 Z -1.0000
G01 X 24.8532 Y 9.8790 Z -1.0000
G01 X 24.8360 Y 9.8830 Z -1.0000
G01 X 24.8266 Y 9.8495 Z -1.0000
G03 X 24.9356 Y 9.7651 Z -1.0000 I 0.2523 J 0.2132
G02 X 25.1216 Y 9.6534 Z -1.0000 I -0.5117 J -1.0627
G01 X 25.1236 Y 9.6272 Z -1.0000
G01 X 25.1094 Y 9.6246 Z -1.0000
G02 X 24.7390 Y 9.8016 Z -1.0000 I 4.1227 J 9.1033
G03 X 24.3671 Y 9.9886 Z -1.0000 I -181.4905 J -360.5955
G03 X 24.0836 Y 10.1307 Z -1.0000 I -101.5281 J -202.2406
G02 X 23.8056 Y 10.2776 Z -1.0000 I 3.1601 J 6.3171
G01 X 23.7925 Y 10.2929 Z -1.0000
G01 X 23.7800 Y 10.3060 Z -1.0000
G03 X 23.7449 Y 10.3132 Z -1.0000 I -0.0351 J -0.0821
G02 X 23.7087 Y 10.3216 Z -1.0000 I 0.0000 J 0.0817
G02 X 23.6769 Y 10.3467 Z -1.0000 I 0.0430 J 0.0872
G03 X 23.6467 Y 10.3753 Z -1.0000 I -0.1320 J -0.1094
G01 X 23.6314 Y 10.3803 Z -1.0000
G01 X 23.6145 Y 10.3836 Z -1.0000
G02 X 23.4496 Y 10.4548 Z -1.0000 I 1.8216 J 4.4465
G03 X 23.1763 Y 10.5709 Z -1.0000 I -2.5092 J -5.5290
G03 X 22.9499 Y 10.6527 Z -1.0000 I -1.4695 J -3.7102
G03 X 22.7224 Y 10.7160 Z -1.0000 I -0.8085 J -2.4661
G03 X 22.3361 Y 10.7937 Z -1.0000 I -1.6197 J -7.0512
G02 X 22.1260 Y 10.8330 Z -1.0000 I 1.3687 J 7.9122
G01 X 22.1110 Y 10.8389 Z -1.0000
G03 X 21.9558 Y 10.8922 Z -1.0000 I -0.1956 J -0.3166
G03 X 21.3961 Y 10.9168 Z -1.0000 I -0.4692 J -4.2999
G02 X 21.2498 Y 10.9147 Z -1.0000 I -0.2290 J 10.8415
G02 X 21.2221 Y 10.9155 Z -1.0000 I -0.0029 J 0.3790
G01 X 21.2040 Y 10.9279 Z -1.0000
G02 X 21.1800 Y 11.0067 Z -1.0000 I 0.2749 J 0.1266
G03 X 21.1489 Y 11.0605 Z -1.0000 I -0.0859 J -0.0137
G01 X 21.1267 Y 11.0499 Z -1.0000
G01 X 21.1133 Y 11.0220 Z -1.0000
G01 X 21.0853 Y 11.0168 Z -1.0000
G03 X 20.8906 Y 11.0531 Z -1.0000 I -0.2440 J -0.7689
G01 X 20.8484 Y 11.0313 Z -1.0000
G01 X 20.8340 Y 11.0220 Z -1.0000
G02 X 20.7642 Y 11.0210 Z -1.0000 I -0.0395 J 0.3241
G01 X 20.7595 Y 11.0152 Z -1.0000
G01 X 20.7689 Y 11.0062 Z -1.0000
G03 X 20.8476 Y 10.9929 Z -1.0000 I 0.1047 J 0.3802
G03 X 20.9185 Y 10.9964 Z -1.0000 I 0.0204 J 0.3080
G02 X 21.0475 Y 10.9796 Z -1.0000 I 0.0367 J -0.2215
G02 X 21.1637 Y 10.8860 Z -1.0000 I -0.1216 J -0.2698
G02 X 21.2049 Y 10.7965 Z -1.0000 I -0.1939 J -0.1436
G01 X 21.1917 Y 10.7644 Z -1.0000
G03 X 21.1451 Y 10.6918 Z -1.0000 I 0.0533 J -0.0854
G03 X 21.1688 Y 10.5854 Z -1.0000 I 0.1594 J -0.0203
G01 X 21.1854 Y 10.5790 Z -1.0000
G01 X 21.2028 Y 10.5948 Z -1.0000
G01 X 21.2214 Y 10.6049 Z -1.0000
G02 X 21.2529 Y 10.5840 Z -1.0000 I -0.0109 J -0.0505
G02 X 21.2717 Y 10.5310 Z -1.0000 I -0.0864 J -0.0605
G02 X 21.2634 Y 10.4360 Z -1.0000 I -0.3015 J -0.0213
G03 X 21.2665 Y 10.2138 Z -1.0000 I 0.4182 J -0.1053
G03 X 21.3420 Y 10.1566 Z -1.0000 I 0.0756 J 0.0213
G02 X 21.4254 Y 10.1491 Z -1.0000 I 0.0000 J -0.4662
G02 X 21.8553 Y 10.0634 Z -1.0000 I -2.2874 J -12.5901
G03 X 22.0586 Y 10.0294 Z -1.0000 I 0.4485 J 2.0631
G03 X 22.1517 Y 10.0287 Z -1.0000 I 0.0501 J 0.4284
G02 X 22.2403 Y 10.0254 Z -1.0000 I 0.0323 J -0.3244
G02 X 22.2705 Y 10.0079 Z -1.0000 I -0.0088 J -0.0500
G03 X 22.2989 Y 9.9846 Z -1.0000 I 0.0743 J 0.0617
G03 X 22.3264 Y 9.9776 Z -1.0000 I 0.0275 J 0.0509
G01 X 22.3478 Y 9.9682 Z -1.0000
G01 X 22.3572 Y 9.9441 Z -1.0000
G01 X 22.3663 Y 9.9196 Z -1.0000
G01 X 22.3860 Y 9.9105 Z -1.0000
G01 X 22.4121 Y 9.9031 Z -1.0000
G02 X 22.4923 Y 9.8443 Z -1.0000 I -0.3508 J -0.5630
G03 X 22.5722 Y 9.7845 Z -1.0000 I 0.5000 J 0.5850
G01 X 22.5953 Y 9.7772 Z -1.0000
G01 X 22.6156 Y 9.7689 Z -1.0000
G02 X 22.6343 Y 9.7413 Z -1.0000 I -0.0494 J -0.0537
G01 X 22.6524 Y 9.7201 Z -1.0000
G01 X 22.6704 Y 9.7204 Z -1.0000
G01 X 22.6884 Y 9.7206 Z -1.0000
G01 X 22.7065 Y 9.6994 Z -1.0000
G03 X 22.7267 Y 9.6742 Z -1.0000 I 0.0500 J 0.0192
G03 X 22.7586 Y 9.6644 Z -1.0000 I 0.0319 J 0.0475
G02 X 22.7931 Y 9.6541 Z -1.0000 I -0.0000 J -0.0628
G02 X 22.8941 Y 9.5750 Z -1.0000 I -0.4364 J -0.6612
G03 X 22.9934 Y 9.4915 Z -1.0000 I 0.9431 J 1.0215
G01 X 23.0113 Y 9.4855 Z -1.0000
G01 X 23.0294 Y 9.4804 Z -1.0000
G02 X 23.0629 Y 9.4541 Z -1.0000 I -0.0924 J -0.1520
G01 X 23.0749 Y 9.4268 Z -1.0000
G01 X 23.0648 Y 9.4114 Z -1.0000
G02 X 23.0362 Y 9.4082 Z -1.0000 I -0.0205 J 0.0536
G02 X 23.0039 Y 9.4201 Z -1.0000 I 0.0116 J 0.0812
G01 X 22.9765 Y 9.4166 Z -1.0000
G01 X 22.9763 Y 9.3904 Z -1.0000
G02 X 23.0172 Y 9.3375 Z -1.0000 I -0.3344 J -0.3010
G02 X 23.0354 Y 9.3010 Z -1.0000 I -0.1399 J -0.0924
G03 X 23.0572 Y 9.2731 Z -1.0000 I 0.0524 J 0.0185
G03 X 23.0947 Y 9.2618 Z -1.0000 I 0.0375 J 0.0567
G02 X 23.1315 Y 9.2532 Z -1.0000 I 0.0000 J -0.0836
G01 X 23.1401 Y 9.2394 Z -1.0000
G01 X 23.1479 Y 9.2249 Z -1.0000
G01 X 23.1737 Y 9.2171 Z -1.0000
G01 X 23.1975 Y 9.2073 Z -1.0000
G01 X 23.2072 Y 9.1840 Z -1.0000
G03 X 23.2596 Y 9.0684 Z -1.0000 I 0.1538 J 0.0000
G03 X 23.5747 Y 8.8615 Z -1.0000 I 0.8947 J 1.0197
G02 X 23.7094 Y 8.7678 Z -1.0000 I -0.2111 J -0.4468
G02 X 23.9066 Y 8.5365 Z -1.0000 I -1.1862 J -1.2111
G03 X 23.9538 Y 8.4928 Z -1.0000 I 0.1274 J 0.0902
G03 X 24.0241 Y 8.4661 Z -1.0000 I 0.1096 J 0.1830
G02 X 24.0936 Y 8.4445 Z -1.0000 I -0.0592 J -0.3135
G01 X 24.1020 Y 8.4316 Z -1.0000
G01 X 24.1081 Y 8.4179 Z -1.0000
G01 X 24.1244 Y 8.4117 Z -1.0000
G01 X 24.1401 Y 8.4345 Z -1.0000
G03 X 24.0814 Y 8.5253 Z -1.0000 I -0.2408 J -0.0912
G03 X 24.0145 Y 8.5872 Z -1.0000 I -0.8288 J -0.8291
G01 X 24.0049 Y 8.5907 Z -1.0000
G01 X 23.9771 Y 8.6010 Z -1.0000
G02 X 23.7453 Y 8.8144 Z -1.0000 I 3.1318 J 3.6342
G03 X 23.6870 Y 8.8687 Z -1.0000 I -1.0476 J -1.0656
G03 X 23.6106 Y 8.9334 Z -1.0000 I -1.5454 J -1.7496
G02 X 23.5335 Y 8.9972 Z -1.0000 I 3.0655 J 3.7844
G02 X 23.4203 Y 9.0941 Z -1.0000 I 6.8648 J 8.1270
G03 X 23.3078 Y 9.1917 Z -1.0000 I -30.2340 J -34.7911
G03 X 23.2408 Y 9.2492 Z -1.0000 I -11.1170 J -12.8765
G02 X 23.2094 Y 9.2933 Z -1.0000 I 0.0722 J 0.0845
G01 X 23.2184 Y 9.3065 Z -1.0000
G02 X 23.2587 Y 9.2950 Z -1.0000 I 0.0000 J -0.0757
G02 X 23.3611 Y 9.2171 Z -1.0000 I -0.3792 J -0.6047
G03 X 23.4606 Y 9.1319 Z -1.0000 I 1.3327 J 1.4578
G01 X 23.4730 Y 9.1276 Z -1.0000
G01 X 23.4853 Y 9.1232 Z -1.0000
G02 X 23.5821 Y 9.0381 Z -1.0000 I -1.1876 J -1.4487
G03 X 23.6787 Y 8.9525 Z -1.0000 I 1.4595 J 1.5493
G01 X 23.6894 Y 8.9486 Z -1.0000
G02 X 23.7384 Y 8.9315 Z -1.0000 I 0.0000 J -0.0785
G02 X 24.0641 Y 8.6495 Z -1.0000 I -3.3698 J -4.2207
G03 X 24.1298 Y 8.5985 Z -1.0000 I 0.3037 J 0.3238
G03 X 24.1567 Y 8.5907 Z -1.0000 I 0.0269 J 0.0424
G01 X 24.1812 Y 8.5826 Z -1.0000
G02 X 24.1987 Y 8.5597 Z -1.0000 I -0.0307 J -0.0415
G03 X 24.2171 Y 8.5335 Z -1.0000 I 0.0618 J 0.0239
G03 X 24.3856 Y 8.3977 Z -1.0000 I 1.9679 J 2.2704
G02 X 24.5572 Y 8.2641 Z -1.0000 I -3.3333 J -4.4575
G01 X 24.5681 Y 8.2498 Z -1.0000
G01 X 24.5793 Y 8.2384 Z -1.0000
G03 X 24.6054 Y 8.2328 Z -1.0000 I 0.0261 J 0.0573
G02 X 24.6306 Y 8.2262 Z -1.0000 I 0.0000 J -0.0515
G01 X 24.6427 Y 8.2119 Z -1.0000
G01 X 24.6549 Y 8.1944 Z -1.0000
G03 X 24.8674 Y 8.0244 Z -1.0000 I 4.2249 J 5.0645
G02 X 25.1861 Y 7.7642 Z -1.0000 I -4.0820 J -5.3256
G02 X 25.2343 Y 7.7057 Z -1.0000 I -0.1494 J -0.1719
G03 X 25.2645 Y 7.6714 Z -1.0000 I 0.0990 J 0.0569
G01 X 25.2922 Y 7.6620 Z -1.0000
G02 X 25.3220 Y 7.6542 Z -1.0000 I -0.0007 J -0.0636
G02 X 25.3643 Y 7.6225 Z -1.0000 I -0.0895 J -0.1634
G03 X 25.4051 Y 7.5854 Z -1.0000 I 0.4149 J 0.4149
G03 X 25.4853 Y 7.5223 Z -1.0000 I 1.2775 J 1.5439
G02 X 25.5664 Y 7.4603 Z -1.0000 I -2.2839 J -3.0662
G02 X 25.5785 Y 7.4490 Z -1.0000 I -0.0619 J -0.0787
G03 X 25.5905 Y 7.4379 Z -1.0000 I 0.0708 J 0.0645
G03 X 25.7798 Y 7.2926 Z -1.0000 I 12.3012 J 15.8310
G02 X 25.9688 Y 7.1470 Z -1.0000 I -9.5219 J -12.5567
G02 X 26.1074 Y 7.0363 Z -1.0000 I -5.3153 J -6.7932
G03 X 26.2454 Y 6.9249 Z -1.0000 I 9.8832 J 12.1084
G03 X 26.3087 Y 6.8757 Z -1.0000 I 2.0012 J 2.5094
G02 X 26.3717 Y 6.8262 Z -1.0000 I -1.4129 J -1.8648
G02 X 26.4285 Y 6.7783 Z -1.0000 I -1.2732 J -1.5660
G03 X 26.5472 Y 6.7238 Z -1.0000 I 0.1511 J 0.1724
G03 X 27.6253 Y 6.6072 Z -1.0000 I 2.2380 J 15.6529
G03 X 28.1403 Y 6.5825 Z -1.0000 I 0.7418 J 10.0879
G03 X 29.3814 Y 6.5678 Z -1.0000 I 1.3143 J 58.5939
G03 X 30.8365 Y 6.5995 Z -1.0000 I 0.0393 J 31.5833
G03 X 32.0546 Y 6.6877 Z -1.0000 I -0.9967 J 22.2119
G02 X 32.4344 Y 6.7210 Z -1.0000 I 1.5129 J -15.1115
G02 X 32.4586 Y 6.7180 Z -1.0000 I 0.0047 J -0.0622
G01 X 32.4695 Y 6.7029 Z -1.0000
G02 X 32.4595 Y 6.6118 Z -1.0000 I -0.3888 J -0.0032
G02 X 32.4307 Y 6.5279 Z -1.0000 I -0.4213 J 0.0978
G01 X 32.4190 Y 6.5244 Z -1.0000
G01 X 32.4086 Y 6.5224 Z -1.0000
G01 X 32.4014 Y 6.5005 Z -1.0000
G03 X 32.4093 Y 6.4735 Z -1.0000 I 0.0500 J 0.0000
G01 X 32.4237 Y 6.4656 Z -1.0000
G01 X 32.4388 Y 6.4582 Z -1.0000
G01 X 32.4461 Y 6.4368 Z -1.0000
G03 X 32.4514 Y 6.4093 Z -1.0000 I 0.0741 J 0.0000
G03 X 32.4930 Y 6.3193 Z -1.0000 I 0.8608 J 0.3438
G02 X 32.5499 Y 6.1438 Z -1.0000 I -0.4720 J -0.2499
G02 X 32.5528 Y 5.8940 Z -1.0000 I -0.9699 J -0.1364
G03 X 32.5426 Y 5.7055 Z -1.0000 I 1.5147 J -0.1765
G01 X 32.5545 Y 5.6771 Z -1.0000
G01 X 32.5834 Y 5.6642 Z -1.0000
G03 X 33.1026 Y 5.6476 Z -1.0000 I 0.6391 J 11.8667
G02 X 33.6236 Y 5.6313 Z -1.0000 I -0.1238 J -12.2922
G02 X 33.6723 Y 5.6177 Z -1.0000 I -0.0061 J -0.1161
G03 X 33.7197 Y 5.5990 Z -1.0000 I 0.1044 J 0.1951
G03 X 33.7645 Y 5.5931 Z -1.0000 I 0.0447 J 0.1677
G02 X 33.8020 Y 5.5846 Z -1.0000 I 0.0000 J -0.0864
G01 X 33.8107 Y 5.5708 Z -1.0000
G01 X 33.8170 Y 5.5547 Z -1.0000
G01 X 33.8315 Y 5.5484 Z -1.0000
G02 X 34.0227 Y 5.4921 Z -1.0000 I -0.0000 J -0.3523
G02 X 34.0791 Y 5.3885 Z -1.0000 I -0.0669 J -0.1036
G01 X 34.0867 Y 5.3770 Z -1.0000
G03 X 34.1238 Y 5.3695 Z -1.0000 I 0.0371 J 0.0878
G02 X 34.1602 Y 5.3611 Z -1.0000 I 0.0000 J -0.0830
G01 X 34.1686 Y 5.3477 Z -1.0000
G01 X 34.1763 Y 5.3305 Z -1.0000
G03 X 34.2301 Y 5.2927 Z -1.0000 I 0.1868 J 0.2089
G02 X 34.2885 Y 5.2551 Z -1.0000 I -0.2129 J -0.3945
G02 X 34.3923 Y 5.1694 Z -1.0000 I -1.0201 J -1.3421
G03 X 34.4949 Y 5.0842 Z -1.0000 I 1.2058 J 1.3476
G01 X 34.5097 Y 5.0790 Z -1.0000
G01 X 34.5201 Y 5.0725 Z -1.0000
G02 X 34.5265 Y 5.0451 Z -1.0000 I -0.0547 J -0.0274
G01 X 34.5359 Y 5.0210 Z -1.0000
G01 X 34.5574 Y 5.0115 Z -1.0000
G01 X 34.5835 Y 5.0018 Z -1.0000
G02 X 34.6492 Y 4.9318 Z -1.0000 I -0.3100 J -0.3566
G02 X 34.6836 Y 4.8558 Z -1.0000 I -0.1479 J -0.1128
G01 X 34.6710 Y 4.8235 Z -1.0000
G01 X 34.6575 Y 4.7984 Z -1.0000
G01 X 34.6688 Y 4.7809 Z -1.0000
G01 X 34.6936 Y 4.7331 Z -1.0000
G02 X 34.6440 Y 4.6837 Z -1.0000 I -0.0664 J 0.0169
G02 X 34.4647 Y 4.6612 Z -1.0000 I -0.1807 J 0.7142
G02 X 32.8600 Y 4.6803 Z -1.0000 I -0.1109 J 58.0986
G02 X 32.2800 Y 4.7082 Z -1.0000 I 0.3297 J 12.8847
G02 X 32.1218 Y 4.7324 Z -1.0000 I 0.0695 J 0.9825
G03 X 31.9633 Y 4.7526 Z -1.0000 I -0.1734 J -0.7294
G03 X 30.9635 Y 4.7555 Z -1.0000 I -0.5837 J -29.3479
G03 X 29.9626 Y 4.7370 Z -1.0000 I 1.6359 J -115.5423
G03 X 29.9345 Y 4.7320 Z -1.0000 I 0.0021 J -0.0941
G02 X 29.9064 Y 4.7262 Z -1.0000 I -0.0377 J 0.1112
G02 X 29.6837 Y 4.7114 Z -1.0000 I -0.5814 J 7.0710
G03 X 29.4665 Y 4.6882 Z -1.0000 I 0.1011 J -1.9727
G01 X 29.4377 Y 4.6711 Z -1.0000
G01 X 29.4090 Y 4.6538 Z -1.0000
G02 X 29.2500 Y 4.6376 Z -1.0000 I -0.1882 J 1.0550
G03 X 29.0905 Y 4.6192 Z -1.0000 I 0.0246 J -0.9153
G03 X 29.0430 Y 4.5952 Z -1.0000 I 0.0203 J -0.0990
G03 X 29.0134 Y 4.5274 Z -1.0000 I 0.0605 J -0.0669
G01 X 29.0440 Y 4.4971 Z -1.0000
G02 X 29.0814 Y 4.4894 Z -1.0000 I 0.0000 J -0.0951
G01 X 29.0943 Y 4.4755 Z -1.0000
G01 X 29.1089 Y 4.4634 Z -1.0000
G03 X 29.3217 Y 4.4415 Z -1.0000 I 0.3455 J 2.3118
G02 X 29.5393 Y 4.4188 Z -1.0000 I -0.1283 J -2.2826
G02 X 29.6212 Y 4.3958 Z -1.0000 I -0.0529 J -0.3455
G03 X 29.7031 Y 4.3716 Z -1.0000 I 0.1517 J 0.3629
G03 X 29.9941 Y 4.3286 Z -1.0000 I 0.8292 J 4.6005
G02 X 30.2864 Y 4.2903 Z -1.0000 I -1.1552 J -9.9719
G02 X 30.3321 Y 4.2793 Z -1.0000 I -0.0368 J -0.2528
G03 X 30.3775 Y 4.2669 Z -1.0000 I 0.1180 J 0.3415
G03 X 30.4216 Y 4.2608 Z -1.0000 I 0.0691 J 0.3365
G02 X 30.7744 Y 4.2158 Z -1.0000 I -0.2400 J -3.2883
G02 X 31.5849 Y 4.0482 Z -1.0000 I -3.2191 J -17.6141
G03 X 31.7189 Y 4.0214 Z -1.0000 I 0.5224 J 2.2606
G03 X 31.8309 Y 4.0064 Z -1.0000 I 0.2666 J 1.5705
G01 X 31.8347 Y 3.9998 Z -1.0000
G01 X 31.8198 Y 3.9829 Z -1.0000
G01 X 31.8213 Y 3.9748 Z -1.0000
G03 X 31.8646 Y 3.9741 Z -1.0000 I 0.0238 J 0.1207
G02 X 31.9427 Y 3.9782 Z -1.0000 I 0.0584 J -0.3644
G02 X 32.0547 Y 3.9639 Z -1.0000 I -0.0416 J -0.7746
G02 X 32.4044 Y 3.8848 Z -1.0000 I -1.5778 J -7.7812
G02 X 32.4909 Y 3.8548 Z -1.0000 I -0.1258 J -0.5028
G03 X 32.5251 Y 3.8417 Z -1.0000 I 0.1253 J 0.2752
G03 X 32.5468 Y 3.8369 Z -1.0000 I 0.0372 J 0.1178
G02 X 32.7560 Y 3.8000 Z -1.0000 I -0.2699 J -2.1432
G01 X 32.7817 Y 3.7835 Z -1.0000
G01 X 32.7960 Y 3.7737 Z -1.0000
G03 X 32.9607 Y 3.7316 Z -1.0000 I 0.7483 J 2.5876
G02 X 33.1280 Y 3.6926 Z -1.0000 I -1.7384 J -7.8291
G02 X 33.3074 Y 3.6468 Z -1.0000 I -2.2058 J -9.0165
G03 X 33.6766 Y 3.5511 Z -1.0000 I 7.8623 J 29.5765
G03 X 34.0274 Y 3.4650 Z -1.0000 I 6.6667 J 26.3997
G02 X 34.1314 Y 3.4056 Z -1.0000 I -0.0494 J -0.2072
G01 X 34.1203 Y 3.3685 Z -1.0000
G02 X 33.8883 Y 3.3261 Z -1.0000 I -0.6020 J 2.6381
G02 X 33.6318 Y 3.3010 Z -1.0000 I -0.4416 J 3.1996
G03 X 33.3971 Y 3.2853 Z -1.0000 I 0.7640 J -13.1593
G03 X 33.3298 Y 3.2779 Z -1.0000 I 0.0772 J -1.0155
G02 X 33.0826 Y 3.2586 Z -1.0000 I -0.2735 J 1.9058
G02 X 30.0973 Y 3.2339 Z -1.0000 I -3.8034 J 278.7981
G03 X 28.1880 Y 3.2134 Z -1.0000 I 0.3584 J -122.7182
G03 X 26.4286 Y 3.1661 Z -1.0000 I 1.9311 J -104.4879
G02 X 22.8894 Y 3.0914 Z -1.0000 I -4.3907 J 124.2548
G02 X 22.7579 Y 3.1410 Z -1.0000 I -0.0013 J 0.1959
G01 X 22.7574 Y 3.1412 Z -1.0000
G00 Z 5.0000

(End cutting path id: path76077)


(Start cutting path id: path76077)
(Change tool to Default tool)

G00 Z 5.0000
G00 X 21.7863 Y 4.8105

G01 Z -1.0000 F 100.0000(Penetrate)
G01 X 21.7852 Y 4.8257 Z -1.0000 F 3500.0000
G01 X 21.7962 Y 4.8328 Z -1.0000
G01 X 21.8131 Y 4.8261 Z -1.0000
G01 X 21.8198 Y 4.8105 Z -1.0000
G01 X 21.8160 Y 4.7921 Z -1.0000
G01 X 21.8100 Y 4.7881 Z -1.0000
G01 X 21.8020 Y 4.7912 Z -1.0000
G02 X 21.7863 Y 4.8105 Z -1.0000 I 0.0634 J 0.0680
G01 X 21.7863 Y 4.8105 Z -1.0000
G00 Z 5.0000

(End cutting path id: path76077)


(Start cutting path id: path76077)
(Change tool to Default tool)

G00 Z 5.0000
G00 X 21.8590 Y 5.0050

G01 Z -1.0000 F 100.0000(Penetrate)
G02 X 21.9093 Y 5.0098 Z -1.0000 I 0.0503 J -0.2628 F 3500.0000
G02 X 21.9596 Y 5.0050 Z -1.0000 I 0.0000 J -0.2678
G01 X 21.9093 Y 4.9953 Z -1.0000
G02 X 21.8590 Y 5.0001 Z -1.0000 I 0.0000 J 0.2669
G01 X 21.8590 Y 5.0050 Z -1.0000
G01 X 21.8590 Y 5.0050 Z -1.0000
G00 Z 5.0000

(End cutting path id: path76077)


(Start cutting path id: path76077)
(Change tool to Default tool)

G00 Z 5.0000
G00 X 21.3999 Y 4.8594

G01 Z -1.0000 F 100.0000(Penetrate)
G01 X 21.4367 Y 4.8901 Z -1.0000 F 3500.0000
G01 X 21.4619 Y 4.8682 Z -1.0000
G01 X 21.4515 Y 4.8432 Z -1.0000
G01 X 21.4265 Y 4.8328 Z -1.0000
G01 X 21.4040 Y 4.8421 Z -1.0000
G01 X 21.3999 Y 4.8594 Z -1.0000
G01 X 21.3999 Y 4.8594 Z -1.0000
G00 Z 5.0000

(End cutting path id: path76077)


(Start cutting path id: path76077)
(Change tool to Default tool)

G00 Z 5.0000
G00 X 20.8356 Y 5.1125

G01 Z -1.0000 F 100.0000(Penetrate)
G03 X 20.8114 Y 5.1646 Z -1.0000 I -0.0683 J -0.0000 F 3500.0000
G01 X 20.7827 Y 5.1572 Z -1.0000
G02 X 20.7636 Y 5.1328 Z -1.0000 I -0.0497 J 0.0191
G01 X 20.7349 Y 5.1237 Z -1.0000
G02 X 20.7062 Y 5.1327 Z -1.0000 I 0.0000 J 0.0500
G02 X 20.6871 Y 5.1572 Z -1.0000 I 0.0305 J 0.0436
G03 X 20.6682 Y 5.1821 Z -1.0000 I -0.0523 J -0.0201
G01 X 20.6419 Y 5.1908 Z -1.0000
G01 X 20.6272 Y 5.1614 Z -1.0000
G03 X 20.7267 Y 5.0775 Z -1.0000 I 0.2309 J 0.1730
G03 X 20.8054 Y 5.0712 Z -1.0000 I 0.0471 J 0.0920
G01 X 20.8356 Y 5.1125 Z -1.0000
G01 X 20.8356 Y 5.1125 Z -1.0000
G00 Z 5.0000

(End cutting path id: path76077)


(Start cutting path id: path76077)
(Change tool to Default tool)

G00 Z 5.0000
G00 X 20.7419 Y 5.2636

G01 Z -1.0000 F 100.0000(Penetrate)
G01 X 20.7130 Y 5.3034 Z -1.0000 F 3500.0000
G03 X 20.6119 Y 5.2800 Z -1.0000 I -0.0188 J -0.1488
G01 X 20.5999 Y 5.2579 Z -1.0000
G01 X 20.6119 Y 5.2355 Z -1.0000
G03 X 20.6984 Y 5.2189 Z -1.0000 I 0.0627 J 0.0936
G03 X 20.7419 Y 5.2636 Z -1.0000 I -0.0119 J 0.0552
G01 X 20.7419 Y 5.2636 Z -1.0000
G00 Z 5.0000

(End cutting path id: path76077)


(Start cutting path id: path76077)
(Change tool to Default tool)

G00 Z 5.0000
G00 X 20.6231 Y 4.7881

G01 Z -1.0000 F 100.0000(Penetrate)
G01 X 20.6258 Y 4.8012 Z -1.0000 F 3500.0000
G02 X 20.6553 Y 4.8105 Z -1.0000 I 0.0295 J -0.0424
G02 X 20.6927 Y 4.8019 Z -1.0000 I -0.0000 J -0.0859
G01 X 20.7014 Y 4.7881 Z -1.0000
G01 X 20.6937 Y 4.7734 Z -1.0000
G01 X 20.6691 Y 4.7657 Z -1.0000
G02 X 20.6406 Y 4.7723 Z -1.0000 I -0.0000 J 0.0655
G01 X 20.6231 Y 4.7881 Z -1.0000
G01 X 20.6231 Y 4.7881 Z -1.0000
G00 Z 5.0000

(End cutting path id: path76077)


(Start cutting path id: path76077)
(Change tool to Default tool)

G00 Z 5.0000
G00 X 20.5336 Y 4.8105

G01 Z -1.0000 F 100.0000(Penetrate)
G01 X 20.5325 Y 4.8257 Z -1.0000 F 3500.0000
G01 X 20.5435 Y 4.8329 Z -1.0000
G01 X 20.5604 Y 4.8261 Z -1.0000
G01 X 20.5672 Y 4.8105 Z -1.0000
G01 X 20.5634 Y 4.7921 Z -1.0000
G01 X 20.5573 Y 4.7881 Z -1.0000
G01 X 20.5493 Y 4.7913 Z -1.0000
G02 X 20.5336 Y 4.8105 Z -1.0000 I 0.0636 J 0.0681
G01 X 20.5336 Y 4.8105 Z -1.0000
G00 Z 5.0000

(End cutting path id: path76077)


(Start cutting path id: path76077)
(Change tool to Default tool)

G00 Z 5.0000
G00 X 20.4441 Y 4.7434

G01 Z -1.0000 F 100.0000(Penetrate)
G01 X 20.4616 Y 4.7592 Z -1.0000 F 3500.0000
G02 X 20.4902 Y 4.7657 Z -1.0000 I 0.0286 J -0.0589
G01 X 20.5147 Y 4.7581 Z -1.0000
G01 X 20.5224 Y 4.7434 Z -1.0000
G01 X 20.5138 Y 4.7296 Z -1.0000
G02 X 20.4763 Y 4.7210 Z -1.0000 I -0.0374 J 0.0772
G02 X 20.4469 Y 4.7302 Z -1.0000 I -0.0000 J 0.0518
G01 X 20.4441 Y 4.7434 Z -1.0000
G01 X 20.4441 Y 4.7434 Z -1.0000
G00 Z 5.0000

(End cutting path id: path76077)


(Start cutting path id: path76077)
(Change tool to Default tool)

G00 Z 5.0000
G00 X 20.3540 Y 4.8115

G01 Z -1.0000 F 100.0000(Penetrate)
G01 X 20.3568 Y 4.8239 Z -1.0000 F 3500.0000
G02 X 20.3868 Y 4.8328 Z -1.0000 I 0.0300 J -0.0460
G01 X 20.4071 Y 4.8196 Z -1.0000
G01 X 20.4001 Y 4.8027 Z -1.0000
G02 X 20.3706 Y 4.8000 Z -1.0000 I -0.0194 J 0.0507
G01 X 20.3540 Y 4.8115 Z -1.0000
G01 X 20.3540 Y 4.8115 Z -1.0000
G00 Z 5.0000

(End cutting path id: path76077)


(Start cutting path id: path76077)
(Change tool to Default tool)

G00 Z 5.0000
G00 X 20.6289 Y 4.5802

G01 Z -1.0000 F 100.0000(Penetrate)
G02 X 20.6793 Y 4.5849 Z -1.0000 I 0.0491 J -0.2579 F 3500.0000
G02 X 20.7184 Y 4.5798 Z -1.0000 I -0.0008 J -0.1585
G01 X 20.7182 Y 4.5747 Z -1.0000
G02 X 20.6678 Y 4.5700 Z -1.0000 I -0.0493 J 0.2558
G02 X 20.6287 Y 4.5751 Z -1.0000 I 0.0008 J 0.1582
G01 X 20.6289 Y 4.5801 Z -1.0000
G01 X 20.6289 Y 4.5802 Z -1.0000
G00 Z 5.0000

(End cutting path id: path76077)


(Start cutting path id: path76077)
(Change tool to Default tool)

G00 Z 5.0000
G00 X 20.8449 Y 4.5109

G01 Z -1.0000 F 100.0000(Penetrate)
G03 X 20.8713 Y 4.5306 Z -1.0000 I -0.0219 J 0.0567 F 3500.0000
G01 X 20.8803 Y 4.5571 Z -1.0000
G01 X 20.8914 Y 4.5747 Z -1.0000
G01 X 20.9213 Y 4.5768 Z -1.0000
G01 X 20.9800 Y 4.6032 Z -1.0000
G03 X 20.9993 Y 4.7531 Z -1.0000 I -0.2427 J 0.1073
G03 X 20.9701 Y 4.7914 Z -1.0000 I -0.0506 J -0.0082
G01 X 20.9474 Y 4.7769 Z -1.0000
G01 X 20.9301 Y 4.7392 Z -1.0000
G02 X 20.8859 Y 4.7241 Z -1.0000 I -0.0411 J 0.0478
G01 X 20.8726 Y 4.7305 Z -1.0000
G01 X 20.8748 Y 4.7368 Z -1.0000
G01 X 20.9059 Y 4.7728 Z -1.0000
G01 X 20.8779 Y 4.8045 Z -1.0000
G02 X 20.8340 Y 4.8160 Z -1.0000 I 0.0091 J 0.1246
G02 X 20.7884 Y 4.8463 Z -1.0000 I 0.0782 J 0.1671
G03 X 20.7548 Y 4.8651 Z -1.0000 I -0.0579 J -0.0640
G01 X 20.7462 Y 4.8587 Z -1.0000
G01 X 20.7388 Y 4.8403 Z -1.0000
G01 X 20.7214 Y 4.8329 Z -1.0000
G01 X 20.7089 Y 4.8413 Z -1.0000
G01 X 20.7087 Y 4.8643 Z -1.0000
G03 X 20.7106 Y 4.8943 Z -1.0000 I -0.0473 J 0.0181
G03 X 20.6911 Y 4.9361 Z -1.0000 I -0.1141 J -0.0276
G03 X 20.6565 Y 4.9571 Z -1.0000 I -0.0425 J -0.0310
G03 X 20.6021 Y 4.9494 Z -1.0000 I -0.0143 J -0.0955
G02 X 20.4562 Y 4.9325 Z -1.0000 I -0.0992 J 0.2177
G02 X 20.3043 Y 5.0088 Z -1.0000 I 0.0625 J 0.3139
G02 X 20.2227 Y 5.1005 Z -1.0000 I 0.3754 J 0.4162
G02 X 20.2093 Y 5.1427 Z -1.0000 I 0.0594 J 0.0422
G03 X 20.1986 Y 5.1801 Z -1.0000 I -0.0711 J 0.0000
G01 X 20.1794 Y 5.1908 Z -1.0000
G02 X 20.0779 Y 5.2384 Z -1.0000 I -0.0000 J 0.1323
G02 X 20.0303 Y 5.3696 Z -1.0000 I 0.1573 J 0.1312
G01 X 20.0077 Y 5.4031 Z -1.0000
G01 X 19.9744 Y 5.3921 Z -1.0000
G01 X 19.9561 Y 5.3778 Z -1.0000
G02 X 19.9043 Y 5.3698 Z -1.0000 I -0.0518 J 0.1625
G03 X 19.8598 Y 5.3520 Z -1.0000 I 0.0000 J -0.0645
G03 X 19.8105 Y 5.2805 Z -1.0000 I 0.1463 J -0.1536
G02 X 19.7680 Y 5.1988 Z -1.0000 I -0.5198 J 0.2183
G01 X 19.7543 Y 5.1910 Z -1.0000
G01 X 19.7382 Y 5.1853 Z -1.0000
G03 X 19.6983 Y 5.1458 Z -1.0000 I 0.1746 J -0.2166
G02 X 19.6528 Y 5.1175 Z -1.0000 I -0.0648 J 0.0535
G02 X 19.4613 Y 5.0901 Z -1.0000 I -0.2502 J 1.0638
G03 X 19.3034 Y 5.0462 Z -1.0000 I 0.0206 J -0.3799
G01 X 19.3095 Y 5.0094 Z -1.0000
G01 X 19.3107 Y 4.9955 Z -1.0000
G02 X 19.2482 Y 4.9876 Z -1.0000 I -0.0491 J 0.1378
G03 X 19.1988 Y 4.9803 Z -1.0000 I -0.0099 J -0.1037
G03 X 19.1643 Y 4.9532 Z -1.0000 I 0.0306 J -0.0745
G01 X 19.1449 Y 4.9427 Z -1.0000
G01 X 19.1355 Y 4.9516 Z -1.0000
G01 X 19.1047 Y 4.9867 Z -1.0000
G01 X 19.0591 Y 4.9615 Z -1.0000
G01 X 19.0460 Y 4.9532 Z -1.0000
G01 X 19.0330 Y 4.9615 Z -1.0000
G01 X 19.0150 Y 4.9818 Z -1.0000
G03 X 18.9882 Y 4.9895 Z -1.0000 I -0.0268 J -0.0428
G01 X 18.9673 Y 5.0003 Z -1.0000
G02 X 18.9565 Y 5.0342 Z -1.0000 I 0.0479 J 0.0339
G01 X 18.9394 Y 5.0619 Z -1.0000
G03 X 18.8670 Y 5.0790 Z -1.0000 I -0.0724 J -0.1448
G02 X 18.7946 Y 5.0961 Z -1.0000 I -0.0000 J 0.1618
G01 X 18.7776 Y 5.1237 Z -1.0000
G01 X 18.7497 Y 5.1532 Z -1.0000
G03 X 18.6818 Y 5.1294 Z -1.0000 I -0.0055 J -0.0932
G02 X 18.5088 Y 5.0641 Z -1.0000 I -0.1700 J 0.1884
G02 X 18.3320 Y 5.1333 Z -1.0000 I 0.0031 J 0.2684
G03 X 18.2634 Y 5.1648 Z -1.0000 I -0.0843 J -0.0932
G01 X 18.2407 Y 5.1448 Z -1.0000
G01 X 18.2336 Y 5.1339 Z -1.0000
G01 X 18.2185 Y 5.1348 Z -1.0000
G01 X 18.2109 Y 5.1819 Z -1.0000
G02 X 18.2741 Y 5.2011 Z -1.0000 I 0.0463 J -0.0388
G03 X 18.3810 Y 5.2042 Z -1.0000 I 0.0486 J 0.1676
G03 X 18.4155 Y 5.2512 Z -1.0000 I -0.0173 J 0.0489
G02 X 18.4287 Y 5.3272 Z -1.0000 I 0.2880 J -0.0109
G01 X 18.4471 Y 5.3510 Z -1.0000
G01 X 18.4455 Y 5.3604 Z -1.0000
G03 X 18.3693 Y 5.3695 Z -1.0000 I -0.0773 J -0.3260
G02 X 18.2744 Y 5.3818 Z -1.0000 I 0.0012 J 0.3797
G01 X 18.2613 Y 5.3978 Z -1.0000
G01 X 18.2558 Y 5.4029 Z -1.0000
G01 X 18.2482 Y 5.3978 Z -1.0000
G01 X 18.2292 Y 5.3814 Z -1.0000
G02 X 18.1326 Y 5.3705 Z -1.0000 I -0.0939 J 0.3987
G02 X 18.0690 Y 5.3848 Z -1.0000 I 0.0010 J 0.1529
G01 X 18.0673 Y 5.4010 Z -1.0000
G01 X 18.0808 Y 5.4434 Z -1.0000
G03 X 18.0408 Y 5.4845 Z -1.0000 I -0.0610 J -0.0194
G02 X 17.9820 Y 5.5161 Z -1.0000 I 0.0700 J 0.2006
G02 X 17.9396 Y 5.5616 Z -1.0000 I 0.1116 J 0.1464
G03 X 17.8708 Y 5.6061 Z -1.0000 I -0.0845 J -0.0554
G03 X 17.7814 Y 5.5865 Z -1.0000 I -0.0195 J -0.1244
G02 X 17.7352 Y 5.5635 Z -1.0000 I -0.1129 J 0.1695
G02 X 17.6890 Y 5.5545 Z -1.0000 I -0.0553 J 0.1597
G01 X 17.6609 Y 5.5746 Z -1.0000
G02 X 17.6254 Y 5.7796 Z -1.0000 I 0.9629 J 0.2722
G02 X 17.6092 Y 6.8280 Z -1.0000 I 10.1123 J 0.6804
G02 X 17.6703 Y 7.0097 Z -1.0000 I 0.3376 J -0.0123
G01 X 17.6939 Y 7.0261 Z -1.0000
G01 X 17.7038 Y 7.0185 Z -1.0000
G01 X 17.7174 Y 6.9970 Z -1.0000
G03 X 17.7577 Y 6.9931 Z -1.0000 I 0.0257 J 0.0545
G02 X 17.8075 Y 6.9914 Z -1.0000 I 0.0219 J -0.0878
G02 X 17.8576 Y 6.9608 Z -1.0000 I -0.0385 J -0.1193
G03 X 17.9039 Y 6.9346 Z -1.0000 I 0.0702 J 0.0702
G01 X 17.9331 Y 6.9421 Z -1.0000
G02 X 17.9643 Y 6.9671 Z -1.0000 I 0.2045 J -0.2228
G02 X 18.0122 Y 6.9974 Z -1.0000 I 0.3496 J -0.5000
G02 X 18.0515 Y 7.0078 Z -1.0000 I 0.0393 J -0.0690
G01 X 18.0620 Y 6.9974 Z -1.0000
G01 X 18.0684 Y 6.9905 Z -1.0000
G01 X 18.0793 Y 6.9958 Z -1.0000
G02 X 18.1564 Y 7.0634 Z -1.0000 I 0.1543 J -0.0981
G02 X 18.2463 Y 7.0735 Z -1.0000 I 0.0600 J -0.1289
G03 X 18.3990 Y 7.1007 Z -1.0000 I 0.0432 J 0.1999
G01 X 18.3927 Y 7.1663 Z -1.0000
G01 X 18.3937 Y 7.1715 Z -1.0000
G02 X 18.5916 Y 7.1701 Z -1.0000 I 0.0734 J -3.7194
G02 X 18.8174 Y 7.1542 Z -1.0000 I -0.0980 J -2.9977
G02 X 18.8601 Y 7.1412 Z -1.0000 I -0.0129 J -0.1188
G03 X 18.9208 Y 7.1195 Z -1.0000 I 0.1071 J 0.2038
G03 X 19.1508 Y 7.0814 Z -1.0000 I 0.6052 J 2.9443
G02 X 19.3686 Y 7.0365 Z -1.0000 I -0.1778 J -1.4138
G02 X 19.4448 Y 6.9965 Z -1.0000 I -0.0593 J -0.2052
G01 X 19.4717 Y 6.9892 Z -1.0000
G01 X 19.4947 Y 7.0043 Z -1.0000
G01 X 19.5087 Y 7.0139 Z -1.0000
G01 X 19.5154 Y 7.0084 Z -1.0000
G01 X 19.5272 Y 6.9920 Z -1.0000
G03 X 19.5941 Y 6.9804 Z -1.0000 I 0.0669 J 0.1880
G02 X 19.6638 Y 6.9719 Z -1.0000 I -0.0000 J -0.2880
G01 X 19.6723 Y 6.9609 Z -1.0000
G01 X 19.6809 Y 6.9486 Z -1.0000
G03 X 19.7618 Y 6.9271 Z -1.0000 I 0.1463 J 0.3879
G02 X 19.8417 Y 6.9046 Z -1.0000 I -0.0554 J -0.3493
G01 X 19.8513 Y 6.8902 Z -1.0000
G01 X 19.8592 Y 6.8727 Z -1.0000
G03 X 19.9055 Y 6.8430 Z -1.0000 I 0.1250 J 0.1432
G02 X 19.9444 Y 6.8121 Z -1.0000 I -0.0428 J -0.0938
G01 X 19.9479 Y 6.7878 Z -1.0000
G01 X 19.9520 Y 6.7644 Z -1.0000
G03 X 19.9929 Y 6.7358 Z -1.0000 I 0.0771 J 0.0668
G02 X 20.0399 Y 6.7041 Z -1.0000 I -0.0443 J -0.1163
G02 X 20.0881 Y 6.6329 Z -1.0000 I -0.2088 J -0.1932
G03 X 20.1335 Y 6.5574 Z -1.0000 I 0.4037 J 0.1916
G03 X 20.1680 Y 6.5257 Z -1.0000 I 0.1016 J 0.0757
G01 X 20.1833 Y 6.4952 Z -1.0000
G01 X 20.1644 Y 6.4818 Z -1.0000
G03 X 20.1291 Y 6.4812 Z -1.0000 I -0.0166 J -0.0637
G01 X 20.1197 Y 6.4685 Z -1.0000
G01 X 20.1288 Y 6.4527 Z -1.0000
G03 X 20.1625 Y 6.4436 Z -1.0000 I 0.0338 J 0.0579
G02 X 20.2014 Y 6.4372 Z -1.0000 I -0.0000 J -0.1222
G01 X 20.2129 Y 6.4268 Z -1.0000
G01 X 20.2240 Y 6.4137 Z -1.0000
G03 X 20.3042 Y 6.3673 Z -1.0000 I 0.4683 J 0.7169
G02 X 20.3784 Y 6.3187 Z -1.0000 I -0.1845 J -0.3624
G01 X 20.3881 Y 6.2982 Z -1.0000
G03 X 20.4652 Y 6.1750 Z -1.0000 I 0.1369 J 0.0000
G03 X 20.5609 Y 6.2143 Z -1.0000 I 0.0303 J 0.0624
G01 X 20.5784 Y 6.2314 Z -1.0000
G02 X 20.6472 Y 6.2422 Z -1.0000 I 0.0689 J -0.2129
G03 X 20.7144 Y 6.2516 Z -1.0000 I 0.0000 J 0.2454
G01 X 20.7237 Y 6.2639 Z -1.0000
G01 X 20.7315 Y 6.2741 Z -1.0000
G01 X 20.7572 Y 6.2727 Z -1.0000
G01 X 20.7827 Y 6.2716 Z -1.0000
G01 X 20.7908 Y 6.2824 Z -1.0000
G02 X 20.8457 Y 6.3724 Z -1.0000 I 0.1012 J -0.0000
G02 X 20.9857 Y 6.3826 Z -1.0000 I 0.0820 J -0.1596
G01 X 21.0116 Y 6.3974 Z -1.0000
G03 X 21.0466 Y 6.6785 Z -1.0000 I -1.7538 J 0.3610
G03 X 21.0287 Y 6.9423 Z -1.0000 I -1.1734 J 0.0527
G01 X 20.9956 Y 6.9581 Z -1.0000
G02 X 20.8089 Y 6.8851 Z -1.0000 I -0.3821 J 0.7021
G02 X 20.6837 Y 6.8795 Z -1.0000 I -0.0765 J 0.3032
G03 X 20.5782 Y 6.8958 Z -1.0000 I -5.2579 J -33.5062
G03 X 20.4701 Y 6.9122 Z -1.0000 I -3.2922 J -21.4195
G02 X 20.3675 Y 6.9368 Z -1.0000 I 0.0875 J 0.5920
G01 X 20.3462 Y 6.9536 Z -1.0000
G01 X 20.3250 Y 6.9711 Z -1.0000
G03 X 20.2124 Y 7.0043 Z -1.0000 I -0.2763 J -0.7295
G02 X 20.1036 Y 7.0406 Z -1.0000 I 0.1089 J 0.5077
G01 X 20.0806 Y 7.0651 Z -1.0000
G03 X 20.0344 Y 7.1410 Z -1.0000 I -0.2308 J -0.0885
G03 X 19.7618 Y 7.4232 Z -1.0000 I -3.6056 J -3.2112
G03 X 19.6788 Y 7.4909 Z -1.0000 I -0.4769 J -0.4998
G03 X 19.6052 Y 7.5319 Z -1.0000 I -0.2448 J -0.3526
G02 X 19.5273 Y 7.5667 Z -1.0000 I 1.6578 J 3.8152
G02 X 19.4926 Y 7.5836 Z -1.0000 I 0.3577 J 0.7791
G03 X 19.4571 Y 7.5979 Z -1.0000 I -0.0961 J -0.1868
G03 X 19.3807 Y 7.6173 Z -1.0000 I -0.2579 J -0.8557
G02 X 19.3038 Y 7.6358 Z -1.0000 I 0.2489 J 1.2071
G02 X 19.2090 Y 7.6643 Z -1.0000 I 0.5251 J 1.9152
G03 X 18.3261 Y 7.8644 Z -1.0000 I -1.4961 J -4.5527
G03 X 18.2406 Y 7.7893 Z -1.0000 I -0.0097 J -0.0752
G01 X 18.2311 Y 7.7730 Z -1.0000
G02 X 18.1952 Y 7.7635 Z -1.0000 I -0.0360 J 0.0635
G03 X 18.1568 Y 7.7533 Z -1.0000 I -0.0000 J -0.0770
G01 X 18.1368 Y 7.7300 Z -1.0000
G02 X 18.1181 Y 7.7049 Z -1.0000 I -0.0535 J 0.0206
G01 X 18.0928 Y 7.6964 Z -1.0000
G01 X 18.0703 Y 7.6877 Z -1.0000
G01 X 18.0616 Y 7.6682 Z -1.0000
G01 X 18.0534 Y 7.6446 Z -1.0000
G02 X 18.0169 Y 7.6121 Z -1.0000 I -0.1131 J 0.0902
G03 X 17.9814 Y 7.5791 Z -1.0000 I 0.0676 J -0.1083
G01 X 17.9722 Y 7.5508 Z -1.0000
G01 X 17.9639 Y 7.5257 Z -1.0000
G01 X 17.9476 Y 7.5174 Z -1.0000
G01 X 17.9351 Y 7.5290 Z -1.0000
G02 X 17.9309 Y 7.7333 Z -1.0000 I 1.7981 J 0.1398
G03 X 17.8960 Y 7.8949 Z -1.0000 I -0.3356 J 0.0121
G01 X 17.8491 Y 7.8979 Z -1.0000
G02 X 17.7649 Y 7.8323 Z -1.0000 I -0.1413 J 0.0947
G02 X 17.6902 Y 7.8413 Z -1.0000 I -0.0284 J 0.0797
G03 X 17.6357 Y 7.8670 Z -1.0000 I -0.1198 J -0.1827
G03 X 17.5815 Y 7.8753 Z -1.0000 I -0.0542 J -0.1731
G02 X 17.5338 Y 7.8844 Z -1.0000 I 0.0000 J 0.1301
G01 X 17.5248 Y 7.8977 Z -1.0000
G01 X 17.5179 Y 7.9132 Z -1.0000
G01 X 17.5001 Y 7.9201 Z -1.0000
G01 X 17.4844 Y 7.9034 Z -1.0000
G03 X 17.5248 Y 7.4950 Z -1.0000 I 5.0526 J 0.2935
G02 X 17.5975 Y 6.6077 Z -1.0000 I -7.6894 J -1.0768
G02 X 17.5671 Y 5.7623 Z -1.0000 I -7.0088 J -0.1711
G03 X 17.5526 Y 5.5841 Z -1.0000 I 5.9398 J -0.5703
G03 X 17.5438 Y 5.4080 Z -1.0000 I 5.5635 J -0.3663
G03 X 17.5594 Y 5.2419 Z -1.0000 I 0.6534 J -0.0226
G03 X 17.5928 Y 5.1897 Z -1.0000 I 0.0883 J 0.0199
G03 X 17.6510 Y 5.1549 Z -1.0000 I 0.1855 J 0.2435
G03 X 17.7149 Y 5.1339 Z -1.0000 I 0.1246 J 0.2725
G02 X 18.0843 Y 5.0515 Z -1.0000 I -2.5147 J -12.1319
G02 X 18.4084 Y 4.9679 Z -1.0000 I -2.2527 J -9.4116
G03 X 18.5657 Y 4.9283 Z -1.0000 I 0.9509 J 3.4425
G03 X 18.6656 Y 4.9093 Z -1.0000 I 0.3105 J 1.3626
G02 X 18.7643 Y 4.8891 Z -1.0000 I -0.1535 J -0.9998
G02 X 18.7887 Y 4.8776 Z -1.0000 I -0.0178 J -0.0690
G03 X 18.8130 Y 4.8657 Z -1.0000 I 0.0452 J 0.0618
G03 X 18.9005 Y 4.8459 Z -1.0000 I 0.2292 J 0.8080
G02 X 18.9896 Y 4.8283 Z -1.0000 I -0.3292 J -1.9063
G02 X 19.2584 Y 4.7665 Z -1.0000 I -3.6017 J -16.2642
G03 X 19.5276 Y 4.7056 Z -1.0000 I 2.6587 J 11.1295
G03 X 19.7282 Y 4.6661 Z -1.0000 I 1.3193 J 6.1783
G02 X 19.9282 Y 4.6246 Z -1.0000 I -0.6790 J -3.7764
G02 X 20.0684 Y 4.5860 Z -1.0000 I -0.4441 J -1.8870
G03 X 20.3342 Y 4.5352 Z -1.0000 I 0.3494 J 1.1055
G01 X 20.3658 Y 4.5645 Z -1.0000
G01 X 20.3757 Y 4.5769 Z -1.0000
G02 X 20.4664 Y 4.5869 Z -1.0000 I 0.0907 J -0.4087
G02 X 20.5571 Y 4.5769 Z -1.0000 I -0.0000 J -0.4193
G01 X 20.5671 Y 4.5645 Z -1.0000
G01 X 20.5600 Y 4.5486 Z -1.0000
G01 X 20.5391 Y 4.5395 Z -1.0000
G01 X 20.5382 Y 4.5227 Z -1.0000
G03 X 20.7274 Y 4.5000 Z -1.0000 I 0.2246 J 1.0730
G03 X 20.8086 Y 4.5025 Z -1.0000 I 0.0215 J 0.6466
G03 X 20.8449 Y 4.5109 Z -1.0000 I -0.0125 J 0.1353
G01 X 20.8449 Y 4.5109 Z -1.0000
G00 Z 5.0000

(End cutting path id: path76077)


(Start cutting path id: path76077)
(Change tool to Default tool)

G00 Z 5.0000
G00 X 19.6234 Y 5.0047

G01 Z -1.0000 F 100.0000(Penetrate)
G02 X 19.6513 Y 5.0096 Z -1.0000 I 0.0252 J -0.0626 F 3500.0000
G01 X 19.6663 Y 5.0030 Z -1.0000
G01 X 19.6648 Y 4.9960 Z -1.0000
G02 X 19.6369 Y 4.9913 Z -1.0000 I -0.0251 J 0.0632
G01 X 19.6220 Y 4.9979 Z -1.0000
G01 X 19.6234 Y 5.0048 Z -1.0000
G01 X 19.6234 Y 5.0047 Z -1.0000
G00 Z 5.0000

(End cutting path id: path76077)


(Start cutting path id: path76077)
(Change tool to Default tool)

G00 Z 5.0000
G00 X 19.6947 Y 5.3139

G01 Z -1.0000 F 100.0000(Penetrate)
G03 X 19.6826 Y 5.3577 Z -1.0000 I -0.0851 J 0.0000 F 3500.0000
G01 X 19.6611 Y 5.3698 Z -1.0000
G01 X 19.6354 Y 5.3620 Z -1.0000
G01 X 19.6276 Y 5.3474 Z -1.0000
G01 X 19.6341 Y 5.3316 Z -1.0000
G01 X 19.6499 Y 5.3251 Z -1.0000
G01 X 19.6645 Y 5.3173 Z -1.0000
G01 X 19.6723 Y 5.2915 Z -1.0000
G03 X 19.6770 Y 5.2626 Z -1.0000 I 0.0918 J 0.0000
G01 X 19.6834 Y 5.2580 Z -1.0000
G01 X 19.6895 Y 5.2630 Z -1.0000
G03 X 19.6946 Y 5.3139 Z -1.0000 I -0.2551 J 0.0509
G01 X 19.6947 Y 5.3139 Z -1.0000
G00 Z 5.0000

(End cutting path id: path76077)


(Start cutting path id: path76077)
(Change tool to Default tool)

G00 Z 5.0000
G00 X 18.8506 Y 5.0050

G01 Z -1.0000 F 100.0000(Penetrate)
G02 X 18.8899 Y 5.0097 Z -1.0000 I 0.0370 J -0.1412 F 3500.0000
G02 X 18.9178 Y 5.0041 Z -1.0000 I -0.0012 J -0.0787
G01 X 18.9174 Y 4.9986 Z -1.0000
G02 X 18.8782 Y 4.9939 Z -1.0000 I -0.0371 J 0.1428
G02 X 18.8503 Y 4.9995 Z -1.0000 I 0.0009 J 0.0766
G01 X 18.8506 Y 5.0050 Z -1.0000
G01 X 18.8506 Y 5.0050 Z -1.0000
G00 Z 5.0000

(End cutting path id: path76077)


(Start cutting path id: path76077)
(Change tool to Default tool)

G00 Z 5.0000
G00 X 18.5986 Y 5.1157

G01 Z -1.0000 F 100.0000(Penetrate)
G03 X 18.5673 Y 5.1697 Z -1.0000 I -0.0623 J 0.0000 F 3500.0000
G03 X 18.4946 Y 5.1753 Z -1.0000 I -0.0423 J -0.0736
G01 X 18.4819 Y 5.1348 Z -1.0000
G03 X 18.5450 Y 5.1014 Z -1.0000 I 0.0631 J 0.0429
G03 X 18.5924 Y 5.1076 Z -1.0000 I -0.0000 J 0.1823
G01 X 18.5986 Y 5.1157 Z -1.0000
G01 X 18.5986 Y 5.1157 Z -1.0000
G00 Z 5.0000

(End cutting path id: path76077)


(Start cutting path id: path76077)
(Change tool to Default tool)

G00 Z 5.0000
G00 X 18.2901 Y 5.7248

G01 Z -1.0000 F 100.0000(Penetrate)
G03 X 18.2417 Y 5.8458 Z -1.0000 I -0.1444 J 0.0124 F 3500.0000
G03 X 18.1195 Y 5.8756 Z -1.0000 I -0.0893 J -0.1011
G01 X 18.0966 Y 5.8431 Z -1.0000
G01 X 18.1251 Y 5.8171 Z -1.0000
G02 X 18.1863 Y 5.8119 Z -1.0000 I 0.0000 J -0.3573
G01 X 18.2019 Y 5.8038 Z -1.0000
G01 X 18.2086 Y 5.7564 Z -1.0000
G02 X 18.1600 Y 5.7277 Z -1.0000 I -0.0486 J 0.0267
G01 X 18.1383 Y 5.7182 Z -1.0000
G01 X 18.1289 Y 5.6941 Z -1.0000
G01 X 18.1410 Y 5.6727 Z -1.0000
G03 X 18.1848 Y 5.6605 Z -1.0000 I 0.0438 J 0.0730
G02 X 18.2304 Y 5.6502 Z -1.0000 I 0.0000 J -0.1052
G01 X 18.2407 Y 5.6337 Z -1.0000
G01 X 18.2613 Y 5.6285 Z -1.0000
G03 X 18.2902 Y 5.7248 Z -1.0000 I -0.2155 J 0.1172
G01 X 18.2901 Y 5.7248 Z -1.0000
G00 Z 5.0000

(End cutting path id: path76077)


(Start cutting path id: path76077)
(Change tool to Default tool)

G00 Z 5.0000
G00 X 17.3458 Y 6.0270

G01 Z -1.0000 F 100.0000(Penetrate)
G02 X 17.3579 Y 6.1193 Z -1.0000 I 0.3580 J -0.0000 F 3500.0000
G02 X 17.3794 Y 6.1528 Z -1.0000 I 0.0633 J -0.0169
G01 X 17.3986 Y 6.1502 Z -1.0000
G02 X 17.4126 Y 6.1052 Z -1.0000 I -0.0640 J -0.0447
G02 X 17.3918 Y 5.9492 Z -1.0000 I -0.6139 J 0.0025
G01 X 17.3656 Y 5.9291 Z -1.0000
G01 X 17.3547 Y 5.9380 Z -1.0000
G02 X 17.3458 Y 6.0270 Z -1.0000 I 0.4412 J 0.0890
G01 X 17.3458 Y 6.0270 Z -1.0000
G00 Z 5.0000

(End cutting path id: path76077)


(Start cutting path id: path76077)
(Change tool to Default tool)

G00 Z 5.0000
G00 X 16.9917 Y 6.1192

G01 Z -1.0000 F 100.0000(Penetrate)
G02 X 16.9959 Y 6.1630 Z -1.0000 I 0.2010 J 0.0029 F 3500.0000
G02 X 17.0103 Y 6.2087 Z -1.0000 I 0.2336 J -0.0485
G01 X 17.0221 Y 6.2063 Z -1.0000
G02 X 17.0103 Y 6.1304 Z -1.0000 I -0.2488 J 0.0000
G01 X 16.9984 Y 6.1155 Z -1.0000
G01 X 16.9917 Y 6.1193 Z -1.0000
G01 X 16.9917 Y 6.1192 Z -1.0000
G00 Z 5.0000

(End cutting path id: path76077)


(Start cutting path id: path76077)
(Change tool to Default tool)

G00 Z 5.0000
G00 X 16.6909 Y 5.8085

G01 Z -1.0000 F 100.0000(Penetrate)
G01 X 16.6805 Y 5.8271 Z -1.0000 F 3500.0000
G02 X 16.6747 Y 5.8784 Z -1.0000 I 0.2216 J 0.0512
G03 X 16.6686 Y 5.9305 Z -1.0000 I -0.2239 J -0.0000
G03 X 16.6516 Y 5.9753 Z -1.0000 I -0.1831 J -0.0438
G02 X 16.6469 Y 6.0682 Z -1.0000 I 0.0960 J 0.0514
G02 X 16.7065 Y 6.1081 Z -1.0000 I 0.0595 J -0.0246
G02 X 16.7899 Y 6.0329 Z -1.0000 I 0.0000 J -0.0839
G02 X 16.7356 Y 5.8315 Z -1.0000 I -0.2882 J -0.0304
G02 X 16.7060 Y 5.8062 Z -1.0000 I -0.0681 J 0.0498
G01 X 16.6909 Y 5.8085 Z -1.0000
G01 X 16.6909 Y 5.8085 Z -1.0000
G00 Z 5.0000

(End cutting path id: path76077)


(Start cutting path id: path76077)
(Change tool to Default tool)

G00 Z 5.0000
G00 X 16.4972 Y 5.6889

G01 Z -1.0000 F 100.0000(Penetrate)
G03 X 16.4901 Y 5.7266 Z -1.0000 I -0.1296 J -0.0047 F 3500.0000
G03 X 16.4683 Y 5.7722 Z -1.0000 I -0.2131 J -0.0737
G02 X 16.4560 Y 5.8144 Z -1.0000 I 0.0690 J 0.0431
G01 X 16.4675 Y 5.8427 Z -1.0000
G01 X 16.5213 Y 5.8306 Z -1.0000
G02 X 16.5189 Y 5.7000 Z -1.0000 I -0.1727 J -0.0622
G01 X 16.5047 Y 5.6844 Z -1.0000
G01 X 16.4972 Y 5.6889 Z -1.0000
G01 X 16.4972 Y 5.6889 Z -1.0000
G00 Z 5.0000

(End cutting path id: path76077)


(Start cutting path id: path76077)
(Change tool to Default tool)

G00 Z 5.0000
G00 X 16.2638 Y 5.8063

G01 Z -1.0000 F 100.0000(Penetrate)
G02 X 16.2301 Y 6.0028 Z -1.0000 I 0.4767 J 0.1829 F 3500.0000
G02 X 16.2709 Y 6.0738 Z -1.0000 I 0.0861 J -0.0023
G01 X 16.3080 Y 6.0600 Z -1.0000
G02 X 16.3239 Y 5.9067 Z -1.0000 I -0.3630 J -0.1152
G02 X 16.2899 Y 5.8041 Z -1.0000 I -0.2468 J 0.0249
G01 X 16.2638 Y 5.8063 Z -1.0000
G01 X 16.2638 Y 5.8063 Z -1.0000
G00 Z 5.0000

(End cutting path id: path76077)


(Start cutting path id: path76077)
(Change tool to Default tool)

G00 Z 5.0000
G00 X 16.1801 Y 6.3360

G01 Z -1.0000 F 100.0000(Penetrate)
G01 X 16.1787 Y 6.3431 Z -1.0000 F 3500.0000
G02 X 16.1693 Y 6.4827 Z -1.0000 I 8.1645 J 0.6148
G02 X 16.1766 Y 6.6078 Z -1.0000 I 0.5327 J 0.0318
G01 X 16.1942 Y 6.6225 Z -1.0000
G01 X 16.2128 Y 6.6080 Z -1.0000
G02 X 16.2273 Y 6.4896 Z -1.0000 I -0.4744 J -0.1184
G02 X 16.2177 Y 6.3621 Z -1.0000 I -0.8488 J 0.0000
G01 X 16.2049 Y 6.3429 Z -1.0000
G02 X 16.1843 Y 6.3338 Z -1.0000 I -0.0427 J 0.0692
G01 X 16.1801 Y 6.3360 Z -1.0000
G01 X 16.1801 Y 6.3360 Z -1.0000
G00 Z 5.0000

(End cutting path id: path76077)


(Start cutting path id: path76077)
(Change tool to Default tool)

G00 Z 5.0000
G00 X 16.7383 Y 6.4998

G01 Z -1.0000 F 100.0000(Penetrate)
G02 X 16.7495 Y 6.6469 Z -1.0000 I 0.5338 J 0.0332 F 3500.0000
G01 X 16.7748 Y 6.6673 Z -1.0000
G01 X 16.8074 Y 6.6433 Z -1.0000
G02 X 16.8313 Y 6.4865 Z -1.0000 I -0.5023 J -0.1569
G02 X 16.8139 Y 6.3938 Z -1.0000 I -0.2561 J 0.0000
G01 X 16.7886 Y 6.3765 Z -1.0000
G01 X 16.7625 Y 6.3940 Z -1.0000
G02 X 16.7383 Y 6.4998 Z -1.0000 I 0.3101 J 0.1265
G01 X 16.7383 Y 6.4998 Z -1.0000
G00 Z 5.0000

(End cutting path id: path76077)


(Start cutting path id: path76077)
(Change tool to Default tool)

G00 Z 5.0000
G00 X 16.6672 Y 6.9282

G01 Z -1.0000 F 100.0000(Penetrate)
G02 X 16.5973 Y 7.1028 Z -1.0000 I 0.1689 J 0.1689 F 3500.0000
G02 X 16.6747 Y 7.2377 Z -1.0000 I 0.1630 J -0.0039
G01 X 16.6878 Y 7.2350 Z -1.0000
G02 X 16.6971 Y 7.2055 Z -1.0000 I -0.0424 J -0.0295
G03 X 16.7055 Y 7.1677 Z -1.0000 I 0.0895 J -0.0000
G01 X 16.7184 Y 7.1594 Z -1.0000
G02 X 16.7714 Y 7.1126 Z -1.0000 I 0.0000 J -0.0534
G02 X 16.7431 Y 6.9604 Z -1.0000 I -0.2539 J -0.0314
G02 X 16.7008 Y 6.9217 Z -1.0000 I -0.0760 J 0.0407
G01 X 16.6673 Y 6.9282 Z -1.0000
G01 X 16.6672 Y 6.9282 Z -1.0000
G00 Z 5.0000

(End cutting path id: path76077)


(Start cutting path id: path76077)
(Change tool to Default tool)

G00 Z 5.0000
G00 X 16.4720 Y 7.1873

G01 Z -1.0000 F 100.0000(Penetrate)
G03 X 16.4694 Y 7.2151 Z -1.0000 I -0.3062 J -0.0146 F 3500.0000
G03 X 16.4534 Y 7.3206 Z -1.0000 I -4.1908 J -0.5853
G02 X 16.4509 Y 7.4173 Z -1.0000 I 0.3465 J 0.0571
G01 X 16.4666 Y 7.4376 Z -1.0000
G01 X 16.5170 Y 7.4139 Z -1.0000
G02 X 16.5204 Y 7.2783 Z -1.0000 I -0.2170 J -0.0734
G03 X 16.5088 Y 7.2154 Z -1.0000 I 0.3314 J -0.0937
G03 X 16.5122 Y 7.1873 Z -1.0000 I 0.0676 J -0.0061
G01 X 16.5107 Y 7.1673 Z -1.0000
G01 X 16.4976 Y 7.1594 Z -1.0000
G01 X 16.4805 Y 7.1669 Z -1.0000
G01 X 16.4720 Y 7.1873 Z -1.0000
G01 X 16.4720 Y 7.1873 Z -1.0000
G00 Z 5.0000

(End cutting path id: path76077)


(Start cutting path id: path76077)
(Change tool to Default tool)

G00 Z 5.0000
G00 X 17.3626 Y 6.9260

G01 Z -1.0000 F 100.0000(Penetrate)
G01 X 17.3523 Y 6.9457 Z -1.0000 F 3500.0000
G02 X 17.3458 Y 7.0110 Z -1.0000 I 0.3259 J 0.0653
G02 X 17.3565 Y 7.0528 Z -1.0000 I 0.0868 J -0.0000
G01 X 17.3699 Y 7.0547 Z -1.0000
G02 X 17.3845 Y 7.0273 Z -1.0000 I -0.0377 J -0.0377
G02 X 17.3867 Y 6.9698 Z -1.0000 I -0.1799 J -0.0355
G02 X 17.3731 Y 6.9275 Z -1.0000 I -0.1152 J 0.0138
G01 X 17.3626 Y 6.9260 Z -1.0000
G01 X 17.3626 Y 6.9260 Z -1.0000
G00 Z 5.0000

(End cutting path id: path76077)


(Start cutting path id: path76077)
(Change tool to Default tool)

G00 Z 5.0000
G00 X 17.6143 Y 7.4949

G01 Z -1.0000 F 100.0000(Penetrate)
G01 X 17.6221 Y 7.5095 Z -1.0000 F 3500.0000
G01 X 17.6478 Y 7.5173 Z -1.0000
G01 X 17.6736 Y 7.5095 Z -1.0000
G01 X 17.6814 Y 7.4949 Z -1.0000
G01 X 17.6736 Y 7.4804 Z -1.0000
G01 X 17.6478 Y 7.4726 Z -1.0000
G01 X 17.6221 Y 7.4803 Z -1.0000
G01 X 17.6143 Y 7.4949 Z -1.0000
G01 X 17.6143 Y 7.4949 Z -1.0000
G00 Z 5.0000

(End cutting path id: path76077)


(Start cutting path id: path76077)
(Change tool to Default tool)

G00 Z 5.0000
G00 X 17.8338 Y 7.4655

G01 Z -1.0000 F 100.0000(Penetrate)
G02 X 17.8617 Y 7.4703 Z -1.0000 I 0.0252 J -0.0626 F 3500.0000
G01 X 17.8767 Y 7.4638 Z -1.0000
G01 X 17.8752 Y 7.4568 Z -1.0000
G02 X 17.8473 Y 7.4520 Z -1.0000 I -0.0251 J 0.0632
G01 X 17.8323 Y 7.4586 Z -1.0000
G01 X 17.8338 Y 7.4655 Z -1.0000
G01 X 17.8338 Y 7.4655 Z -1.0000
G00 Z 5.0000

(End cutting path id: path76077)


(Start cutting path id: path76077)
(Change tool to Default tool)

G00 Z 5.0000
G00 X 18.2742 Y 7.3816

G01 Z -1.0000 F 100.0000(Penetrate)
G01 X 18.2641 Y 7.3965 Z -1.0000 F 3500.0000
G01 X 18.2742 Y 7.4089 Z -1.0000
G02 X 18.3892 Y 7.4073 Z -1.0000 I 0.0541 J -0.2558
G01 X 18.3937 Y 7.3804 Z -1.0000
G02 X 18.3474 Y 7.3672 Z -1.0000 I -0.0454 J 0.0717
G02 X 18.2742 Y 7.3816 Z -1.0000 I 0.0021 J 0.2039
G01 X 18.2742 Y 7.3816 Z -1.0000
G00 Z 5.0000

(End cutting path id: path76077)


(Start cutting path id: path76077)
(Change tool to Default tool)

G00 Z 5.0000
G00 X 18.8404 Y 7.2641

G01 Z -1.0000 F 100.0000(Penetrate)
G02 X 18.8684 Y 7.2690 Z -1.0000 I 0.0252 J -0.0626 F 3500.0000
G01 X 18.8833 Y 7.2624 Z -1.0000
G01 X 18.8819 Y 7.2554 Z -1.0000
G02 X 18.8540 Y 7.2507 Z -1.0000 I -0.0251 J 0.0632
G01 X 18.8390 Y 7.2572 Z -1.0000
G01 X 18.8404 Y 7.2642 Z -1.0000
G01 X 18.8404 Y 7.2641 Z -1.0000
G00 Z 5.0000

(End cutting path id: path76077)


(Start cutting path id: path76077)
(Change tool to Default tool)

G00 Z 5.0000
G00 X 18.3748 Y 8.1981

G01 Z -1.0000 F 100.0000(Penetrate)
G01 X 18.3875 Y 8.2205 Z -1.0000 F 3500.0000
G02 X 18.4326 Y 8.2332 Z -1.0000 I 0.0452 J -0.0743
G01 X 18.4576 Y 8.2043 Z -1.0000
G01 X 18.4235 Y 8.1701 Z -1.0000
G02 X 18.3871 Y 8.1771 Z -1.0000 I -0.0083 J 0.0557
G01 X 18.3749 Y 8.1981 Z -1.0000
G01 X 18.3748 Y 8.1981 Z -1.0000
G00 Z 5.0000

(End cutting path id: path76077)


(Start cutting path id: path76077)
(Change tool to Default tool)

G00 Z 5.0000
G00 X 18.1822 Y 8.1838

G01 Z -1.0000 F 100.0000(Penetrate)
G02 X 18.1438 Y 8.2267 Z -1.0000 I 0.0415 J 0.0756 F 3500.0000
G01 X 18.1505 Y 8.2611 Z -1.0000
G02 X 18.2213 Y 8.2894 Z -1.0000 I 0.0669 J -0.0649
G02 X 18.2916 Y 8.2552 Z -1.0000 I -0.0041 J -0.0978
G02 X 18.3168 Y 8.1904 Z -1.0000 I -0.0797 J -0.0683
G01 X 18.2948 Y 8.1572 Z -1.0000
G02 X 18.2578 Y 8.1547 Z -1.0000 I -0.0226 J 0.0588
G02 X 18.1822 Y 8.1837 Z -1.0000 I 0.0687 J 0.2919
G01 X 18.1822 Y 8.1838 Z -1.0000
G00 Z 5.0000

(End cutting path id: path76077)


(Start cutting path id: path76077)
(Change tool to Default tool)

G00 Z 5.0000
G00 X 17.4474 Y 8.4330

G01 Z -1.0000 F 100.0000(Penetrate)
G01 X 17.4448 Y 8.4514 Z -1.0000 F 3500.0000
G01 X 17.4573 Y 8.4679 Z -1.0000
G01 X 17.4715 Y 8.4666 Z -1.0000
G01 X 17.4801 Y 8.4471 Z -1.0000
G01 X 17.4668 Y 8.4269 Z -1.0000
G01 X 17.4475 Y 8.4330 Z -1.0000
G01 X 17.4474 Y 8.4330 Z -1.0000
G00 Z 5.0000

(End cutting path id: path76077)


(Start cutting path id: path76077)
(Change tool to Default tool)

G00 Z 5.0000
G00 X 18.5056 Y 9.2596

G01 Z -1.0000 F 100.0000(Penetrate)
G02 X 18.5746 Y 9.2982 Z -1.0000 I 0.2098 J -0.2947 F 3500.0000
G02 X 18.6173 Y 9.3068 Z -1.0000 I 0.0427 J -0.1010
G01 X 18.6316 Y 9.3136 Z -1.0000
G03 X 18.6606 Y 9.3606 Z -1.0000 I -0.1712 J 0.1382
G03 X 18.6519 Y 9.4222 Z -1.0000 I -0.0526 J 0.0240
G03 X 18.5272 Y 9.5160 Z -1.0000 I -0.2759 J -0.2370
G03 X 18.1421 Y 9.5543 Z -1.0000 I -0.2485 J -0.5439
G03 X 18.0169 Y 9.3963 Z -1.0000 I 0.0371 J -0.1580
G03 X 18.0548 Y 9.3225 Z -1.0000 I 0.0908 J -0.0000
G03 X 18.2197 Y 9.2512 Z -1.0000 I 0.2474 J 0.3456
G03 X 18.4287 Y 9.2338 Z -1.0000 I 0.1814 J 0.9161
G03 X 18.5056 Y 9.2597 Z -1.0000 I -0.0041 J 0.1395
G01 X 18.5056 Y 9.2596 Z -1.0000
G00 Z 5.0000

(End cutting path id: path76077)


(Start cutting path id: path76077)
(Change tool to Default tool)

G00 Z 5.0000
G00 X 19.3545 Y 10.3598

G01 Z -1.0000 F 100.0000(Penetrate)
G03 X 19.3270 Y 10.5606 Z -1.0000 I -0.5376 J 0.0287 F 3500.0000
G03 X 19.2655 Y 10.6239 Z -1.0000 I -0.0970 J -0.0327
G03 X 19.2209 Y 10.6224 Z -1.0000 I -0.0205 J -0.0554
G03 X 19.1534 Y 10.5736 Z -1.0000 I 0.0843 J -0.1877
G03 X 19.1070 Y 10.4492 Z -1.0000 I 0.1310 J -0.1197
G03 X 19.1605 Y 10.3063 Z -1.0000 I 0.2343 J 0.0062
G03 X 19.2375 Y 10.2397 Z -1.0000 I 0.2338 J 0.1927
G03 X 19.2891 Y 10.2285 Z -1.0000 I 0.0422 J 0.0698
G01 X 19.3269 Y 10.2550 Z -1.0000
G03 X 19.3545 Y 10.3598 Z -1.0000 I -0.2385 J 0.1189
G01 X 19.3545 Y 10.3598 Z -1.0000
G00 Z 5.0000

(End cutting path id: path76077)


(Start cutting path id: path76077)
(Change tool to Default tool)

G00 Z 5.0000
G00 X 18.6236 Y 11.1581

G01 Z -1.0000 F 100.0000(Penetrate)
G01 X 18.6168 Y 11.1919 Z -1.0000 F 3500.0000
G01 X 18.6027 Y 11.1920 Z -1.0000
G01 X 18.5780 Y 11.1783 Z -1.0000
G02 X 18.1500 Y 11.1903 Z -1.0000 I -0.0255 J 6.7620
G02 X 17.7188 Y 11.2233 Z -1.0000 I 0.7700 J 12.9028
G01 X 17.7037 Y 11.2320 Z -1.0000
G01 X 17.6888 Y 11.2412 Z -1.0000
G03 X 17.4129 Y 11.2746 Z -1.0000 I -0.8207 J -5.6090
G02 X 17.1340 Y 11.3058 Z -1.0000 I 0.8821 J 9.1539
G02 X 17.0395 Y 11.3221 Z -1.0000 I 0.1365 J 1.0726
G03 X 16.9450 Y 11.3363 Z -1.0000 I -0.1531 J -0.7013
G03 X 16.7878 Y 11.3427 Z -1.0000 I -0.1572 J -1.9195
G02 X 16.6386 Y 11.3513 Z -1.0000 I -0.0000 J 1.3022
G01 X 16.6300 Y 11.3609 Z -1.0000
G01 X 16.6111 Y 11.3813 Z -1.0000
G03 X 15.5003 Y 11.4469 Z -1.0000 I -2.4882 J -32.6525
G02 X 15.2141 Y 11.4671 Z -1.0000 I 0.2106 J 5.0266
G01 X 15.1983 Y 11.4769 Z -1.0000
G01 X 15.1828 Y 11.4874 Z -1.0000
G03 X 15.0137 Y 11.5107 Z -1.0000 I -0.3489 J -1.9014
G02 X 14.8487 Y 11.5345 Z -1.0000 I 0.1560 J 1.6715
G01 X 14.8404 Y 11.5445 Z -1.0000
G01 X 14.8321 Y 11.5532 Z -1.0000
G03 X 14.7117 Y 11.5517 Z -1.0000 I -0.0492 J -0.8756
G02 X 14.5832 Y 11.5498 Z -1.0000 I -0.0787 J 0.9605
G02 X 14.3261 Y 11.5714 Z -1.0000 I 0.2081 J 4.0257
G02 X 14.0887 Y 11.6255 Z -1.0000 I 0.1310 J 1.1222
G02 X 14.0468 Y 11.6677 Z -1.0000 I 0.0220 J 0.0638
G03 X 14.0198 Y 11.7306 Z -1.0000 I -0.4055 J -0.1367
G03 X 14.0041 Y 11.7486 Z -1.0000 I -0.0457 J -0.0241
G01 X 13.9934 Y 11.7660 Z -1.0000
G02 X 13.9967 Y 11.7970 Z -1.0000 I 0.0604 J 0.0093
G01 X 14.0185 Y 11.8166 Z -1.0000
G02 X 14.0950 Y 11.8227 Z -1.0000 I 0.0555 J -0.2129
G03 X 15.0348 Y 11.7386 Z -1.0000 I 6.7964 J 70.6861
G03 X 15.1380 Y 11.7363 Z -1.0000 I 0.0703 J 0.8489
G01 X 15.1672 Y 11.7236 Z -1.0000
G02 X 15.1911 Y 11.6745 Z -1.0000 I -0.0820 J -0.0704
G01 X 15.2135 Y 11.6745 Z -1.0000
G03 X 15.2339 Y 11.8907 Z -1.0000 I -1.0534 J 0.2081
G02 X 15.2390 Y 12.1631 Z -1.0000 I 5.1395 J 0.0401
G01 X 15.2465 Y 12.1703 Z -1.0000
G01 X 15.2531 Y 12.1765 Z -1.0000
G03 X 15.2495 Y 12.2150 Z -1.0000 I -0.1212 J 0.0079
G01 X 15.2227 Y 12.2204 Z -1.0000
G03 X 15.1982 Y 12.1479 Z -1.0000 I 0.0949 J -0.0725
G02 X 15.1436 Y 11.9893 Z -1.0000 I -0.2578 J 0.0000
G02 X 15.0490 Y 11.9567 Z -1.0000 I -0.0723 J 0.0565
G03 X 14.9366 Y 11.9553 Z -1.0000 I -0.0535 J -0.2132
G01 X 14.9067 Y 11.9171 Z -1.0000
G02 X 14.9005 Y 11.8926 Z -1.0000 I -0.0574 J 0.0015
G02 X 14.8706 Y 11.8459 Z -1.0000 I -0.2480 J 0.1259
G01 X 14.8542 Y 11.8436 Z -1.0000
G01 X 14.8460 Y 11.8637 Z -1.0000
G01 X 14.8224 Y 11.8964 Z -1.0000
G03 X 14.4963 Y 11.9168 Z -1.0000 I -0.2779 J -1.8309
G02 X 13.9629 Y 11.9444 Z -1.0000 I -0.0896 J 3.4300
G02 X 13.8736 Y 11.9981 Z -1.0000 I 0.0168 J 0.1291
G01 X 13.8830 Y 12.0331 Z -1.0000
G02 X 13.9935 Y 12.0528 Z -1.0000 I 0.0935 J -0.2050
G03 X 14.1616 Y 12.0477 Z -1.0000 I 0.1420 J 1.9009
G03 X 14.5177 Y 12.0602 Z -1.0000 I -0.1134 J 8.2996
G03 X 15.0079 Y 12.1001 Z -1.0000 I -0.5531 J 9.8362
G01 X 15.0390 Y 12.1157 Z -1.0000
G01 X 15.0483 Y 12.1400 Z -1.0000
G03 X 15.0358 Y 12.3132 Z -1.0000 I -1.5848 J -0.0271
G01 X 14.9927 Y 12.3379 Z -1.0000
G03 X 14.9382 Y 12.2713 Z -1.0000 I 0.0368 J -0.0856
G02 X 14.9254 Y 12.2457 Z -1.0000 I -0.0554 J 0.0116
G01 X 14.9184 Y 12.2487 Z -1.0000
G02 X 15.0110 Y 13.0726 Z -1.0000 I 11.0716 J -0.8274
G01 X 15.0429 Y 13.0764 Z -1.0000
G02 X 15.0546 Y 13.0304 Z -1.0000 I -0.1658 J -0.0667
G02 X 15.0626 Y 12.9086 Z -1.0000 I -1.1865 J -0.1386
G03 X 15.0921 Y 12.6436 Z -1.0000 I 1.3719 J 0.0188
G01 X 15.1240 Y 12.6178 Z -1.0000
G01 X 15.1353 Y 12.6220 Z -1.0000
G03 X 15.1948 Y 12.6793 Z -1.0000 I -0.5258 J 0.6056
G03 X 15.2289 Y 12.7500 Z -1.0000 I -0.0956 J 0.0896
G03 X 15.2490 Y 13.0508 Z -1.0000 I -1.9155 J 0.2793
G02 X 15.2520 Y 13.3455 Z -1.0000 I 6.9178 J 0.0771
G01 X 15.2584 Y 13.3480 Z -1.0000
G01 X 15.2653 Y 13.3327 Z -1.0000
G02 X 15.2682 Y 13.2002 Z -1.0000 I -1.4915 J -0.0985
G01 X 15.2898 Y 13.1951 Z -1.0000
G03 X 15.3184 Y 13.3056 Z -1.0000 I -0.2718 J 0.1293
G02 X 15.3336 Y 13.5461 Z -1.0000 I 94.7191 J -5.8724
G02 X 15.3411 Y 13.6580 Z -1.0000 I 25.6875 J -1.6580
G01 X 15.3394 Y 13.6859 Z -1.0000
G02 X 15.3106 Y 13.6348 Z -1.0000 I -0.0749 J 0.0084
G01 X 15.2878 Y 13.6460 Z -1.0000
G02 X 15.3194 Y 14.1073 Z -1.0000 I 3.3810 J 0.0000
G01 X 15.3557 Y 14.1389 Z -1.0000
G01 X 15.4004 Y 14.1955 Z -1.0000
G03 X 15.3135 Y 14.3158 Z -1.0000 I -0.1890 J -0.0450
G02 X 15.2210 Y 14.4788 Z -1.0000 I 0.1025 J 0.1660
G02 X 15.3055 Y 14.8187 Z -1.0000 I 0.6838 J 0.0103
G01 X 15.3167 Y 14.8209 Z -1.0000
G02 X 15.3481 Y 14.7851 Z -1.0000 I -0.0796 J -0.1014
G01 X 15.3613 Y 14.7853 Z -1.0000
G03 X 15.3682 Y 14.8212 Z -1.0000 I -0.0512 J 0.0284
G02 X 15.3572 Y 14.9108 Z -1.0000 I 5.7157 J 0.7432
G02 X 15.3400 Y 15.0673 Z -1.0000 I 19.7577 J 2.2551
G03 X 15.3193 Y 15.1575 Z -1.0000 I -0.3849 J -0.0408
G01 X 15.3079 Y 15.1568 Z -1.0000
G01 X 15.3024 Y 15.1573 Z -1.0000
G02 X 15.3041 Y 15.2574 Z -1.0000 I 0.9365 J 0.0348
G02 X 15.3420 Y 15.4439 Z -1.0000 I 0.7247 J -0.0504
G01 X 15.3706 Y 15.4505 Z -1.0000
G01 X 15.3734 Y 15.4356 Z -1.0000
G02 X 15.3542 Y 15.4132 Z -1.0000 I -0.0461 J 0.0201
G01 X 15.3485 Y 15.4001 Z -1.0000
G01 X 15.3582 Y 15.3920 Z -1.0000
G01 X 15.3812 Y 15.4068 Z -1.0000
G03 X 15.4032 Y 15.4940 Z -1.0000 I -0.2456 J 0.1084
G03 X 15.4038 Y 15.5944 Z -1.0000 I -0.6828 J 0.0546
G03 X 15.3946 Y 15.6226 Z -1.0000 I -0.0598 J -0.0040
G01 X 15.3857 Y 15.6217 Z -1.0000
G03 X 15.3775 Y 15.5762 Z -1.0000 I 0.1257 J -0.0461
G02 X 15.3528 Y 15.5213 Z -1.0000 I -0.0741 J 0.0003
G01 X 15.3212 Y 15.5259 Z -1.0000
G01 X 15.3182 Y 15.5422 Z -1.0000
G01 X 15.3254 Y 15.5482 Z -1.0000
G01 X 15.3345 Y 15.5569 Z -1.0000
G03 X 15.3380 Y 15.8321 Z -1.0000 I -4.3006 J 0.1909
G02 X 15.3455 Y 16.1091 Z -1.0000 I 2.9886 J 0.0575
G01 X 15.3603 Y 16.1341 Z -1.0000
G01 X 15.3686 Y 16.1523 Z -1.0000
G01 X 15.3546 Y 16.1746 Z -1.0000
G01 X 15.3424 Y 16.1973 Z -1.0000
G01 X 15.3546 Y 16.2210 Z -1.0000
G01 X 15.3680 Y 16.2427 Z -1.0000
G01 X 15.3603 Y 16.2565 Z -1.0000
G01 X 15.3425 Y 16.2745 Z -1.0000
G02 X 15.3327 Y 16.3275 Z -1.0000 I 0.1339 J 0.0521
