%
(Header)
(Generated by gcodetools from Inkscape.)
(Using default header. To add your own header create file "header" in the output dir.)
M3
(Header end.)
G21 (All units in mm)

(Start cutting path id: path204)
(Change tool to Default tool)

G00 Z 5.0000
G00 X 10.3702 Y -1.7016

G01 Z -1.0000 F 100.0000(Penetrate)
G01 X 10.3737 Y -1.6934 Z -1.0000 F 3500.0000
G01 X 10.3827 Y -1.6898 Z -1.0000
G01 X 10.3884 Y -1.6936 Z -1.0000
G01 X 10.3879 Y -1.7016 Z -1.0000
G01 X 10.3797 Y -1.7117 Z -1.0000
G01 X 10.3754 Y -1.7134 Z -1.0000
G01 X 10.3722 Y -1.7113 Z -1.0000
G01 X 10.3702 Y -1.7016 Z -1.0000
G01 X 10.3702 Y -1.7016 Z -1.0000
G00 Z 5.0000

(End cutting path id: path204)


(Start cutting path id: path204)
(Change tool to Default tool)

G00 Z 5.0000
G00 X 9.6267 Y -0.8142

G01 Z -1.0000 F 100.0000(Penetrate)
G03 X 9.6236 Y -0.7830 Z -1.0000 I -0.1682 J -0.0010 F 3500.0000
G03 X 9.6143 Y -0.7503 Z -1.0000 I -0.1954 J -0.0380
G02 X 9.6082 Y -0.7194 Z -1.0000 I 0.0879 J 0.0334
G01 X 9.6131 Y -0.7070 Z -1.0000
G01 X 9.6588 Y -0.7206 Z -1.0000
G02 X 9.6385 Y -0.8282 Z -1.0000 I -0.1397 J -0.0293
G01 X 9.6320 Y -0.8285 Z -1.0000
G01 X 9.6267 Y -0.8142 Z -1.0000
G01 X 9.6267 Y -0.8142 Z -1.0000
G00 Z 5.0000

(End cutting path id: path204)


(Start cutting path id: path204)
(Change tool to Default tool)

G00 Z 5.0000
G00 X 9.2100 Y -0.2175

G01 Z -1.0000 F 100.0000(Penetrate)
G01 X 9.2134 Y -0.2073 Z -1.0000 F 3500.0000
G01 X 9.2204 Y -0.2080 Z -1.0000
G02 X 9.2340 Y -0.2412 Z -1.0000 I -0.0603 J -0.0441
G01 X 9.2266 Y -0.2498 Z -1.0000
G01 X 9.2197 Y -0.2456 Z -1.0000
G02 X 9.2100 Y -0.2176 Z -1.0000 I 0.0924 J 0.0475
G01 X 9.2100 Y -0.2175 Z -1.0000
G00 Z 5.0000

(End cutting path id: path204)


(Start cutting path id: path204)
(Change tool to Default tool)

G00 Z 5.0000
G00 X 9.1626 Y -0.0517

G01 Z -1.0000 F 100.0000(Penetrate)
G02 X 9.1504 Y -0.0289 Z -1.0000 I 0.0399 J 0.0361 F 3500.0000
G02 X 9.1505 Y -0.0038 Z -1.0000 I 0.0486 J 0.0123
G03 X 9.1514 Y 0.0224 Z -1.0000 I -0.0580 J 0.0151
G03 X 9.1369 Y 0.0685 Z -1.0000 I -0.2001 J -0.0376
G02 X 9.1211 Y 0.1143 Z -1.0000 I 0.2408 J 0.1086
G01 X 9.1219 Y 0.1299 Z -1.0000
G01 X 9.1447 Y 0.1301 Z -1.0000
G02 X 9.1662 Y 0.0108 Z -1.0000 I -0.3203 J -0.1192
G03 X 9.1712 Y -0.0305 Z -1.0000 I 0.1748 J -0.0000
G01 X 9.1802 Y -0.0466 Z -1.0000
G01 X 9.1893 Y -0.0605 Z -1.0000
G01 X 9.1880 Y -0.0667 Z -1.0000
G01 X 9.1819 Y -0.0675 Z -1.0000
G02 X 9.1627 Y -0.0517 Z -1.0000 I 0.0431 J 0.0724
G01 X 9.1626 Y -0.0517 Z -1.0000
G00 Z 5.0000

(End cutting path id: path204)


(Start cutting path id: path204)
(Change tool to Default tool)

G00 Z 5.0000
G00 X 8.9892 Y -0.0956

G01 Z -1.0000 F 100.0000(Penetrate)
G01 X 8.9929 Y -0.0899 Z -1.0000 F 3500.0000
G01 X 9.0010 Y -0.0904 Z -1.0000
G02 X 9.0110 Y -0.0986 Z -1.0000 I -0.0263 J -0.0427
G01 X 9.0128 Y -0.1029 Z -1.0000
G01 X 9.0107 Y -0.1061 Z -1.0000
G01 X 9.0010 Y -0.1081 Z -1.0000
G01 X 8.9927 Y -0.1046 Z -1.0000
G01 X 8.9892 Y -0.0956 Z -1.0000
G01 X 8.9892 Y -0.0956 Z -1.0000
G00 Z 5.0000

(End cutting path id: path204)


(Start cutting path id: path204)
(Change tool to Default tool)

G00 Z 5.0000
G00 X 8.9183 Y -0.1376

G01 Z -1.0000 F 100.0000(Penetrate)
G01 X 8.9224 Y -0.1241 Z -1.0000 F 3500.0000
G01 X 8.9301 Y -0.1200 Z -1.0000
G01 X 8.9378 Y -0.1241 Z -1.0000
G01 X 8.9419 Y -0.1376 Z -1.0000
G01 X 8.9378 Y -0.1512 Z -1.0000
G01 X 8.9301 Y -0.1554 Z -1.0000
G01 X 8.9224 Y -0.1512 Z -1.0000
G01 X 8.9183 Y -0.1376 Z -1.0000
G01 X 8.9183 Y -0.1376 Z -1.0000
G00 Z 5.0000

(End cutting path id: path204)


(Start cutting path id: path204)
(Change tool to Default tool)

G00 Z 5.0000
G00 X 8.8944 Y -0.0661

G01 Z -1.0000 F 100.0000(Penetrate)
G02 X 8.8848 Y -0.0355 Z -1.0000 I 0.2623 J 0.0997 F 3500.0000
G02 X 8.8832 Y -0.0218 Z -1.0000 I 0.0500 J 0.0127
G01 X 8.9060 Y -0.0142 Z -1.0000
G02 X 8.9299 Y -0.0816 Z -1.0000 I -0.0889 J -0.0694
G01 X 8.9172 Y -0.0900 Z -1.0000
G01 X 8.8944 Y -0.0661 Z -1.0000
G01 X 8.8944 Y -0.0661 Z -1.0000
G00 Z 5.0000

(End cutting path id: path204)


(Start cutting path id: path204)
(Change tool to Default tool)

G00 Z 5.0000
G00 X 8.8018 Y -0.1243

G01 Z -1.0000 F 100.0000(Penetrate)
G01 X 8.8052 Y -0.1168 Z -1.0000 F 3500.0000
G01 X 8.8147 Y -0.1207 Z -1.0000
G02 X 8.8281 Y -0.1516 Z -1.0000 I -0.1293 J -0.0742
G01 X 8.8253 Y -0.1554 Z -1.0000
G01 X 8.8182 Y -0.1518 Z -1.0000
G02 X 8.8018 Y -0.1243 Z -1.0000 I 0.1161 J 0.0879
G01 X 8.8018 Y -0.1243 Z -1.0000
G00 Z 5.0000

(End cutting path id: path204)


(Start cutting path id: path204)
(Change tool to Default tool)

G00 Z 5.0000
G00 X 8.8534 Y 0.0453

G01 Z -1.0000 F 100.0000(Penetrate)
G03 X 8.8328 Y 0.0769 Z -1.0000 I -0.1667 J -0.0862 F 3500.0000
G01 X 8.8249 Y 0.0807 Z -1.0000
G01 X 8.8019 Y 0.0980 Z -1.0000
G01 X 8.8103 Y 0.1308 Z -1.0000
G01 X 8.8357 Y 0.1290 Z -1.0000
G02 X 8.8775 Y 0.0416 Z -1.0000 I -0.1945 J -0.1467
G01 X 8.8700 Y 0.0334 Z -1.0000
G01 X 8.8534 Y 0.0453 Z -1.0000
G01 X 8.8534 Y 0.0453 Z -1.0000
G00 Z 5.0000

(End cutting path id: path204)


(Start cutting path id: path204)
(Change tool to Default tool)

G00 Z 5.0000
G00 X 9.0907 Y 0.1704

G01 Z -1.0000 F 100.0000(Penetrate)
G02 X 9.0864 Y 0.1896 Z -1.0000 I 0.0615 J 0.0236 F 3500.0000
G01 X 9.0889 Y 0.1962 Z -1.0000
G01 X 9.0936 Y 0.1962 Z -1.0000
G01 X 9.1025 Y 0.1822 Z -1.0000
G02 X 9.1067 Y 0.1631 Z -1.0000 I -0.0615 J -0.0236
G01 X 9.1042 Y 0.1564 Z -1.0000
G01 X 9.0996 Y 0.1565 Z -1.0000
G01 X 9.0907 Y 0.1704 Z -1.0000
G01 X 9.0907 Y 0.1704 Z -1.0000
G00 Z 5.0000

(End cutting path id: path204)


(Start cutting path id: path204)
(Change tool to Default tool)

G00 Z 5.0000
G00 X 9.0562 Y 0.2418

G01 Z -1.0000 F 100.0000(Penetrate)
G03 X 9.0500 Y 0.2637 Z -1.0000 I -8.6459 J -2.4332 F 3500.0000
G03 X 9.0424 Y 0.2902 Z -1.0000 I -7.8822 J -2.2398
G01 X 9.0510 Y 0.2978 Z -1.0000
G01 X 9.0691 Y 0.2789 Z -1.0000
G02 X 9.0772 Y 0.2424 Z -1.0000 I -0.1241 J -0.0468
G01 X 9.0729 Y 0.2305 Z -1.0000
G01 X 9.0649 Y 0.2298 Z -1.0000
G01 X 9.0562 Y 0.2418 Z -1.0000
G01 X 9.0562 Y 0.2418 Z -1.0000
G00 Z 5.0000

(End cutting path id: path204)


(Start cutting path id: path204)
(Change tool to Default tool)

G00 Z 5.0000
G00 X 9.2370 Y 0.4237

G01 Z -1.0000 F 100.0000(Penetrate)
G01 X 9.2408 Y 0.4295 Z -1.0000 F 3500.0000
G01 X 9.2488 Y 0.4289 Z -1.0000
G02 X 9.2589 Y 0.4207 Z -1.0000 I -0.0263 J -0.0427
G01 X 9.2606 Y 0.4164 Z -1.0000
G01 X 9.2586 Y 0.4133 Z -1.0000
G01 X 9.2488 Y 0.4112 Z -1.0000
G01 X 9.2406 Y 0.4148 Z -1.0000
G01 X 9.2370 Y 0.4237 Z -1.0000
G01 X 9.2370 Y 0.4237 Z -1.0000
G00 Z 5.0000

(End cutting path id: path204)


(Start cutting path id: path204)
(Change tool to Default tool)

G00 Z 5.0000
G00 X 9.3787 Y 0.4105

G01 Z -1.0000 F 100.0000(Penetrate)
G01 X 9.3906 Y 0.4295 Z -1.0000 F 3500.0000
G01 X 9.4153 Y 0.4281 Z -1.0000
G01 X 9.4191 Y 0.4200 Z -1.0000
G01 X 9.4124 Y 0.4099 Z -1.0000
G01 X 9.3864 Y 0.4026 Z -1.0000
G01 X 9.3787 Y 0.4105 Z -1.0000
G01 X 9.3787 Y 0.4105 Z -1.0000
G00 Z 5.0000

(End cutting path id: path204)


(Start cutting path id: path204)
(Change tool to Default tool)

G00 Z 5.0000
G00 X 9.4549 Y 0.3881

G01 Z -1.0000 F 100.0000(Penetrate)
G01 X 9.4484 Y 0.4018 Z -1.0000 F 3500.0000
G01 X 9.4522 Y 0.4049 Z -1.0000
G01 X 9.4684 Y 0.3947 Z -1.0000
G01 X 9.4777 Y 0.3808 Z -1.0000
G01 X 9.4734 Y 0.3762 Z -1.0000
G01 X 9.4549 Y 0.3881 Z -1.0000
G01 X 9.4549 Y 0.3881 Z -1.0000
G00 Z 5.0000

(End cutting path id: path204)


(Start cutting path id: path204)
(Change tool to Default tool)

G00 Z 5.0000
G00 X 9.1789 Y 0.6778

G01 Z -1.0000 F 100.0000(Penetrate)
G01 X 9.1861 Y 0.6849 Z -1.0000 F 3500.0000
G01 X 9.1886 Y 0.6702 Z -1.0000
G01 X 9.1851 Y 0.6623 Z -1.0000
G01 X 9.1789 Y 0.6778 Z -1.0000
G01 X 9.1789 Y 0.6778 Z -1.0000
G00 Z 5.0000

(End cutting path id: path204)


(Start cutting path id: path204)
(Change tool to Default tool)

G00 Z 5.0000
G00 X 8.9852 Y 1.0684

G01 Z -1.0000 F 100.0000(Penetrate)
G01 X 8.9784 Y 1.0873 Z -1.0000 F 3500.0000
G01 X 8.9879 Y 1.0959 Z -1.0000
G01 X 8.9961 Y 1.0925 Z -1.0000
G01 X 9.0052 Y 1.0782 Z -1.0000
G01 X 9.0004 Y 1.0659 Z -1.0000
G01 X 8.9852 Y 1.0684 Z -1.0000
G01 X 8.9852 Y 1.0684 Z -1.0000
G00 Z 5.0000

(End cutting path id: path204)


(Start cutting path id: path204)
(Change tool to Default tool)

G00 Z 5.0000
G00 X 8.7846 Y 1.1863

G01 Z -1.0000 F 100.0000(Penetrate)
G01 X 8.7788 Y 1.1951 Z -1.0000 F 3500.0000
G01 X 8.7767 Y 1.2064 Z -1.0000
G01 X 8.7804 Y 1.2096 Z -1.0000
G01 X 8.7907 Y 1.2046 Z -1.0000
G01 X 8.7998 Y 1.1906 Z -1.0000
G01 X 8.7985 Y 1.1845 Z -1.0000
G01 X 8.7924 Y 1.1824 Z -1.0000
G01 X 8.7846 Y 1.1863 Z -1.0000
G01 X 8.7846 Y 1.1863 Z -1.0000
G00 Z 5.0000

(End cutting path id: path204)


(Start cutting path id: path204)
(Change tool to Default tool)

G00 Z 5.0000
G00 X 8.7935 Y 1.5028

G01 Z -1.0000 F 100.0000(Penetrate)
G01 X 8.7826 Y 1.5202 Z -1.0000 F 3500.0000
G02 X 8.8213 Y 1.5083 Z -1.0000 I 0.0011 J -0.0654
G01 X 8.8227 Y 1.4920 Z -1.0000
G01 X 8.8160 Y 1.4905 Z -1.0000
G02 X 8.7935 Y 1.5028 Z -1.0000 I 0.0297 J 0.0810
G01 X 8.7935 Y 1.5028 Z -1.0000
G00 Z 5.0000

(End cutting path id: path204)


(Start cutting path id: path204)
(Change tool to Default tool)

G00 Z 5.0000
G00 X 8.3950 Y 1.1863

G01 Z -1.0000 F 100.0000(Penetrate)
G01 X 8.3893 Y 1.1951 Z -1.0000 F 3500.0000
G01 X 8.3872 Y 1.2064 Z -1.0000
G01 X 8.3909 Y 1.2096 Z -1.0000
G01 X 8.4011 Y 1.2046 Z -1.0000
G01 X 8.4103 Y 1.1906 Z -1.0000
G01 X 8.4090 Y 1.1845 Z -1.0000
G01 X 8.4029 Y 1.1824 Z -1.0000
G01 X 8.3950 Y 1.1863 Z -1.0000
G01 X 8.3950 Y 1.1863 Z -1.0000
G00 Z 5.0000

(End cutting path id: path204)


(Start cutting path id: path204)
(Change tool to Default tool)

G00 Z 5.0000
G00 X 8.4993 Y 0.6591

G01 Z -1.0000 F 100.0000(Penetrate)
G01 X 8.4988 Y 0.6671 Z -1.0000 F 3500.0000
G01 X 8.5045 Y 0.6709 Z -1.0000
G01 X 8.5135 Y 0.6673 Z -1.0000
G01 X 8.5170 Y 0.6591 Z -1.0000
G01 X 8.5150 Y 0.6493 Z -1.0000
G01 X 8.5118 Y 0.6473 Z -1.0000
G01 X 8.5076 Y 0.6490 Z -1.0000
G01 X 8.4993 Y 0.6591 Z -1.0000
G01 X 8.4993 Y 0.6591 Z -1.0000
G00 Z 5.0000

(End cutting path id: path204)


(Start cutting path id: path204)
(Change tool to Default tool)

G00 Z 5.0000
G00 X 8.6232 Y 0.5234

G01 Z -1.0000 F 100.0000(Penetrate)
G01 X 8.6273 Y 0.5369 Z -1.0000 F 3500.0000
G01 X 8.6350 Y 0.5411 Z -1.0000
G01 X 8.6427 Y 0.5369 Z -1.0000
G01 X 8.6469 Y 0.5234 Z -1.0000
G01 X 8.6428 Y 0.5098 Z -1.0000
G01 X 8.6350 Y 0.5057 Z -1.0000
G01 X 8.6273 Y 0.5098 Z -1.0000
G01 X 8.6232 Y 0.5234 Z -1.0000
G01 X 8.6232 Y 0.5234 Z -1.0000
G00 Z 5.0000

(End cutting path id: path204)


(Start cutting path id: path204)
(Change tool to Default tool)

G00 Z 5.0000
G00 X 8.6673 Y 0.4302

G01 Z -1.0000 F 100.0000(Penetrate)
G01 X 8.6613 Y 0.4398 Z -1.0000 F 3500.0000
G02 X 8.6587 Y 0.4569 Z -1.0000 I 0.0529 J 0.0170
G01 X 8.6633 Y 0.4637 Z -1.0000
G01 X 8.6718 Y 0.4619 Z -1.0000
G01 X 8.6805 Y 0.4477 Z -1.0000
G01 X 8.6804 Y 0.4352 Z -1.0000
G01 X 8.6742 Y 0.4287 Z -1.0000
G01 X 8.6673 Y 0.4302 Z -1.0000
G01 X 8.6673 Y 0.4302 Z -1.0000
G00 Z 5.0000

(End cutting path id: path204)


(Start cutting path id: path204)
(Change tool to Default tool)

G00 Z 5.0000
G00 X 8.7139 Y 0.3245

G01 Z -1.0000 F 100.0000(Penetrate)
G01 X 8.7009 Y 0.3600 Z -1.0000 F 3500.0000
G01 X 8.7180 Y 0.3758 Z -1.0000
G01 X 8.7409 Y 0.3590 Z -1.0000
G01 X 8.7332 Y 0.3276 Z -1.0000
G01 X 8.7220 Y 0.3219 Z -1.0000
G01 X 8.7139 Y 0.3245 Z -1.0000
G01 X 8.7139 Y 0.3245 Z -1.0000
G00 Z 5.0000

(End cutting path id: path204)


(Start cutting path id: path204)
(Change tool to Default tool)

G00 Z 5.0000
G00 X 8.4108 Y 0.3935

G01 Z -1.0000 F 100.0000(Penetrate)
G02 X 8.4128 Y 0.4092 Z -1.0000 I 0.0619 J -0.0000 F 3500.0000
G01 X 8.4154 Y 0.4112 Z -1.0000
G01 X 8.4188 Y 0.4094 Z -1.0000
G02 X 8.4269 Y 0.3935 Z -1.0000 I -0.0731 J -0.0471
G01 X 8.4276 Y 0.3800 Z -1.0000
G01 X 8.4222 Y 0.3758 Z -1.0000
G01 X 8.4148 Y 0.3798 Z -1.0000
G01 X 8.4108 Y 0.3935 Z -1.0000
G01 X 8.4108 Y 0.3935 Z -1.0000
G00 Z 5.0000

(End cutting path id: path204)


(Start cutting path id: path204)
(Change tool to Default tool)

G00 Z 5.0000
G00 X 8.6540 Y -0.3255

G01 Z -1.0000 F 100.0000(Penetrate)
G01 X 8.6545 Y -0.3141 Z -1.0000 F 3500.0000
G01 X 8.6609 Y -0.3115 Z -1.0000
G01 X 8.6815 Y -0.3316 Z -1.0000
G01 X 8.6727 Y -0.3442 Z -1.0000
G01 X 8.6637 Y -0.3405 Z -1.0000
G01 X 8.6540 Y -0.3255 Z -1.0000
G01 X 8.6540 Y -0.3255 Z -1.0000
G00 Z 5.0000

(End cutting path id: path204)


(Start cutting path id: path204)
(Change tool to Default tool)

G00 Z 5.0000
G00 X 8.7885 Y -0.4682

G01 Z -1.0000 F 100.0000(Penetrate)
G02 X 8.7779 Y -0.4501 Z -1.0000 I 0.0495 J 0.0411 F 3500.0000
G01 X 8.7792 Y -0.4440 Z -1.0000
G01 X 8.7849 Y -0.4433 Z -1.0000
G02 X 8.8003 Y -0.4564 Z -1.0000 I -0.0291 J -0.0500
G02 X 8.8109 Y -0.4744 Z -1.0000 I -0.0495 J -0.0411
G01 X 8.8096 Y -0.4806 Z -1.0000
G01 X 8.8039 Y -0.4813 Z -1.0000
G02 X 8.7885 Y -0.4682 Z -1.0000 I 0.0291 J 0.0500
G01 X 8.7885 Y -0.4682 Z -1.0000
G00 Z 5.0000

(End cutting path id: path204)


(Start cutting path id: path204)
(Change tool to Default tool)

G00 Z 5.0000
G00 X 8.5406 Y -1.5895

G01 Z -1.0000 F 100.0000(Penetrate)
G02 X 8.5426 Y -1.5738 Z -1.0000 I 0.0619 J 0.0000 F 3500.0000
G01 X 8.5453 Y -1.5718 Z -1.0000
G01 X 8.5486 Y -1.5736 Z -1.0000
G02 X 8.5567 Y -1.5895 Z -1.0000 I -0.0731 J -0.0471
G01 X 8.5575 Y -1.6030 Z -1.0000
G01 X 8.5521 Y -1.6072 Z -1.0000
G01 X 8.5446 Y -1.6032 Z -1.0000
G01 X 8.5406 Y -1.5895 Z -1.0000
G01 X 8.5406 Y -1.5895 Z -1.0000
G00 Z 5.0000

(End cutting path id: path204)


(Start cutting path id: path204)
(Change tool to Default tool)

G00 Z 5.0000
G00 X 8.3174 Y -1.6563

G01 Z -1.0000 F 100.0000(Penetrate)
G02 X 8.3063 Y -1.6293 Z -1.0000 I 0.1242 J 0.0665 F 3500.0000
G01 X 8.3078 Y -1.6236 Z -1.0000
G01 X 8.3317 Y -1.6261 Z -1.0000
G01 X 8.3372 Y -1.6687 Z -1.0000
G01 X 8.3310 Y -1.6709 Z -1.0000
G01 X 8.3174 Y -1.6563 Z -1.0000
G01 X 8.3174 Y -1.6563 Z -1.0000
G00 Z 5.0000

(End cutting path id: path204)


(Start cutting path id: path204)
(Change tool to Default tool)

G00 Z 5.0000
G00 X 6.9884 Y 0.6001

G01 Z -1.0000 F 100.0000(Penetrate)
G01 X 6.9877 Y 0.6082 Z -1.0000 F 3500.0000
G01 X 6.9930 Y 0.6119 Z -1.0000
G01 X 7.0031 Y 0.6090 Z -1.0000
G01 X 7.0121 Y 0.6001 Z -1.0000
G01 X 7.0128 Y 0.5919 Z -1.0000
G01 X 7.0075 Y 0.5883 Z -1.0000
G01 X 6.9974 Y 0.5912 Z -1.0000
G01 X 6.9884 Y 0.6001 Z -1.0000
G01 X 6.9884 Y 0.6001 Z -1.0000
G00 Z 5.0000

(End cutting path id: path204)


(Start cutting path id: path204)
(Change tool to Default tool)

G00 Z 5.0000
G00 X 6.8468 Y 0.6321

G01 Z -1.0000 F 100.0000(Penetrate)
G02 X 6.8246 Y 0.6402 Z -1.0000 I 0.0236 J 0.0986 F 3500.0000
G01 X 6.8114 Y 0.6500 Z -1.0000
G01 X 6.8211 Y 0.6673 Z -1.0000
G02 X 6.8816 Y 0.6346 Z -1.0000 I -0.0265 J -0.1217
G01 X 6.8797 Y 0.6294 Z -1.0000
G02 X 6.8468 Y 0.6320 Z -1.0000 I -0.0080 J 0.1069
G01 X 6.8468 Y 0.6321 Z -1.0000
G00 Z 5.0000

(End cutting path id: path204)


(Start cutting path id: path204)
(Change tool to Default tool)

G00 Z 5.0000
G00 X 6.7170 Y 0.6771

G01 Z -1.0000 F 100.0000(Penetrate)
G03 X 6.6697 Y 0.6938 Z -1.0000 I -0.9149 J -2.5274 F 3500.0000
G01 X 6.6668 Y 0.6943 Z -1.0000
G01 X 6.6639 Y 0.7076 Z -1.0000
G01 X 6.6786 Y 0.7191 Z -1.0000
G02 X 6.7642 Y 0.6820 Z -1.0000 I -0.0723 J -0.2845
G01 X 6.7617 Y 0.6717 Z -1.0000
G02 X 6.7170 Y 0.6771 Z -1.0000 I -0.0105 J 0.1007
G01 X 6.7170 Y 0.6771 Z -1.0000
G00 Z 5.0000

(End cutting path id: path204)


(Start cutting path id: path204)
(Change tool to Default tool)

G00 Z 5.0000
G00 X 6.1981 Y 0.8943

G01 Z -1.0000 F 100.0000(Penetrate)
G01 X 6.1967 Y 0.9040 Z -1.0000 F 3500.0000
G01 X 6.2033 Y 0.9127 Z -1.0000
G01 X 6.2108 Y 0.9120 Z -1.0000
G01 X 6.2153 Y 0.9017 Z -1.0000
G01 X 6.2083 Y 0.8911 Z -1.0000
G01 X 6.1981 Y 0.8943 Z -1.0000
G01 X 6.1981 Y 0.8943 Z -1.0000
G00 Z 5.0000

(End cutting path id: path204)


(Start cutting path id: path204)
(Change tool to Default tool)

G00 Z 5.0000
G00 X 6.1495 Y 1.2195

G01 Z -1.0000 F 100.0000(Penetrate)
G01 X 6.1422 Y 1.2317 Z -1.0000 F 3500.0000
G01 X 6.1467 Y 1.2371 Z -1.0000
G01 X 6.1646 Y 1.2335 Z -1.0000
G01 X 6.1745 Y 1.2249 Z -1.0000
G01 X 6.1702 Y 1.2149 Z -1.0000
G01 X 6.1495 Y 1.2195 Z -1.0000
G01 X 6.1495 Y 1.2195 Z -1.0000
G00 Z 5.0000

(End cutting path id: path204)


(Start cutting path id: path204)
(Change tool to Default tool)

G00 Z 5.0000
G00 X 5.7314 Y 1.0368

G01 Z -1.0000 F 100.0000(Penetrate)
G01 X 5.7355 Y 1.0445 Z -1.0000 F 3500.0000
G01 X 5.7491 Y 1.0486 Z -1.0000
G01 X 5.7627 Y 1.0445 Z -1.0000
G01 X 5.7668 Y 1.0368 Z -1.0000
G01 X 5.7627 Y 1.0292 Z -1.0000
G01 X 5.7491 Y 1.0250 Z -1.0000
G01 X 5.7355 Y 1.0292 Z -1.0000
G01 X 5.7314 Y 1.0368 Z -1.0000
G01 X 5.7314 Y 1.0368 Z -1.0000
G00 Z 5.0000

(End cutting path id: path204)


(Start cutting path id: path204)
(Change tool to Default tool)

G00 Z 5.0000
G00 X 5.5543 Y 1.1201

G01 Z -1.0000 F 100.0000(Penetrate)
G01 X 5.5581 Y 1.1259 Z -1.0000 F 3500.0000
G01 X 5.5661 Y 1.1253 Z -1.0000
G02 X 5.5762 Y 1.1171 Z -1.0000 I -0.0263 J -0.0427
G01 X 5.5779 Y 1.1128 Z -1.0000
G01 X 5.5758 Y 1.1097 Z -1.0000
G01 X 5.5661 Y 1.1076 Z -1.0000
G01 X 5.5579 Y 1.1112 Z -1.0000
G01 X 5.5543 Y 1.1201 Z -1.0000
G01 X 5.5543 Y 1.1201 Z -1.0000
G00 Z 5.0000

(End cutting path id: path204)


(Start cutting path id: path204)
(Change tool to Default tool)

G00 Z 5.0000
G00 X 6.4665 Y 2.1139

G01 Z -1.0000 F 100.0000(Penetrate)
G01 X 6.4604 Y 2.1326 Z -1.0000 F 3500.0000
G01 X 6.4672 Y 2.1355 Z -1.0000
G02 X 6.4973 Y 2.1063 Z -1.0000 I -0.4500 J -0.4940
G01 X 6.4986 Y 2.1030 Z -1.0000
G01 X 6.4902 Y 2.0970 Z -1.0000
G02 X 6.4665 Y 2.1139 Z -1.0000 I 0.0164 J 0.0480
G01 X 6.4665 Y 2.1139 Z -1.0000
G00 Z 5.0000

(End cutting path id: path204)


(Start cutting path id: path204)
(Change tool to Default tool)

G00 Z 5.0000
G00 X 6.5655 Y 2.1070

G01 Z -1.0000 F 100.0000(Penetrate)
G01 X 6.5556 Y 2.1341 Z -1.0000 F 3500.0000
G01 X 6.5690 Y 2.1463 Z -1.0000
G01 X 6.5781 Y 2.1426 Z -1.0000
G02 X 6.5930 Y 2.1227 Z -1.0000 I -0.0576 J -0.0586
G01 X 6.5961 Y 2.1048 Z -1.0000
G01 X 6.5895 Y 2.0991 Z -1.0000
G01 X 6.5744 Y 2.1015 Z -1.0000
G01 X 6.5655 Y 2.1070 Z -1.0000
G01 X 6.5655 Y 2.1070 Z -1.0000
G00 Z 5.0000

(End cutting path id: path204)


(Start cutting path id: path204)
(Change tool to Default tool)

G00 Z 5.0000
G00 X 6.3063 Y 2.4023

G01 Z -1.0000 F 100.0000(Penetrate)
G02 X 6.2848 Y 2.4455 Z -1.0000 I 0.0801 J 0.0667 F 3500.0000
G01 X 6.2946 Y 2.4526 Z -1.0000
G02 X 6.3542 Y 2.3982 Z -1.0000 I -0.1187 J -0.1900
G02 X 6.3688 Y 2.3551 Z -1.0000 I -0.0566 J -0.0431
G01 X 6.3602 Y 2.3509 Z -1.0000
G02 X 6.3063 Y 2.4023 Z -1.0000 I 0.1953 J 0.2589
G01 X 6.3063 Y 2.4023 Z -1.0000
G00 Z 5.0000

(End cutting path id: path204)


(Start cutting path id: path204)
(Change tool to Default tool)

G00 Z 5.0000
G00 X 5.8848 Y 3.0556

G01 Z -1.0000 F 100.0000(Penetrate)
G02 X 5.8584 Y 3.0846 Z -1.0000 I 0.0918 J 0.1103 F 3500.0000
G01 X 5.8612 Y 3.0899 Z -1.0000
G02 X 5.9203 Y 3.0684 Z -1.0000 I -0.0004 J -0.0930
G01 X 5.9301 Y 3.0325 Z -1.0000
G01 X 5.9237 Y 3.0300 Z -1.0000
G02 X 5.8848 Y 3.0556 Z -1.0000 I 0.0956 J 0.1875
G01 X 5.8848 Y 3.0556 Z -1.0000
G00 Z 5.0000

(End cutting path id: path204)


(Start cutting path id: path204)
(Change tool to Default tool)

G00 Z 5.0000
G00 X 5.7128 Y 3.1790

G01 Z -1.0000 F 100.0000(Penetrate)
G01 X 5.7055 Y 3.1912 Z -1.0000 F 3500.0000
G01 X 5.7100 Y 3.1966 Z -1.0000
G01 X 5.7278 Y 3.1930 Z -1.0000
G01 X 5.7378 Y 3.1843 Z -1.0000
G01 X 5.7335 Y 3.1744 Z -1.0000
G01 X 5.7128 Y 3.1789 Z -1.0000
G01 X 5.7128 Y 3.1790 Z -1.0000
G00 Z 5.0000

(End cutting path id: path204)


(Start cutting path id: path204)
(Change tool to Default tool)

G00 Z 5.0000
G00 X 6.6214 Y 4.2221

G01 Z -1.0000 F 100.0000(Penetrate)
G02 X 6.6464 Y 4.2418 Z -1.0000 I 0.0674 J -0.0600 F 3500.0000
G01 X 6.6520 Y 4.2384 Z -1.0000
G01 X 6.6490 Y 4.2312 Z -1.0000
G02 X 6.6255 Y 4.2131 Z -1.0000 I -0.0970 J 0.1017
G01 X 6.6203 Y 4.2147 Z -1.0000
G01 X 6.6214 Y 4.2221 Z -1.0000
G01 X 6.6214 Y 4.2221 Z -1.0000
G00 Z 5.0000

(End cutting path id: path204)


(Start cutting path id: path204)
(Change tool to Default tool)

G00 Z 5.0000
G00 X 6.6639 Y 4.2589

G01 Z -1.0000 F 100.0000(Penetrate)
G01 X 6.6677 Y 4.2683 Z -1.0000 F 3500.0000
G02 X 6.6963 Y 4.2913 Z -1.0000 I 0.1211 J -0.1212
G03 X 6.7278 Y 4.3134 Z -1.0000 I -0.2457 J 0.3830
G03 X 6.7582 Y 4.3388 Z -1.0000 I -0.2934 J 0.3821
G02 X 6.7888 Y 4.3621 Z -1.0000 I 0.1526 J -0.1681
G01 X 6.7995 Y 4.3651 Z -1.0000
G01 X 6.8015 Y 4.3599 Z -1.0000
G02 X 6.7071 Y 4.2739 Z -1.0000 I -1.1138 J 1.1288
G02 X 6.6713 Y 4.2536 Z -1.0000 I -0.0732 J 0.0872
G01 X 6.6639 Y 4.2589 Z -1.0000
G01 X 6.6639 Y 4.2589 Z -1.0000
G00 Z 5.0000

(End cutting path id: path204)


(Start cutting path id: path204)
(Change tool to Default tool)

G00 Z 5.0000
G00 X 6.7642 Y 4.2120

G01 Z -1.0000 F 100.0000(Penetrate)
G02 X 6.7858 Y 4.2305 Z -1.0000 I 0.0848 J -0.0768 F 3500.0000
G01 X 6.7914 Y 4.2300 Z -1.0000
G01 X 6.7922 Y 4.2053 Z -1.0000
G01 X 6.7550 Y 4.1883 Z -1.0000
G01 X 6.7522 Y 4.1925 Z -1.0000
G02 X 6.7642 Y 4.2120 Z -1.0000 I 0.0592 J -0.0231
G01 X 6.7642 Y 4.2120 Z -1.0000
G00 Z 5.0000

(End cutting path id: path204)


(Start cutting path id: path204)
(Change tool to Default tool)

G00 Z 5.0000
G00 X 6.9235 Y 4.2563

G01 Z -1.0000 F 100.0000(Penetrate)
G01 X 6.9265 Y 4.2636 Z -1.0000 F 3500.0000
G02 X 6.9474 Y 4.2802 Z -1.0000 I 0.0830 J -0.0828
G01 X 6.9554 Y 4.2793 Z -1.0000
G01 X 6.9564 Y 4.2712 Z -1.0000
G02 X 6.9326 Y 4.2504 Z -1.0000 I -0.0463 J 0.0289
G01 X 6.9235 Y 4.2563 Z -1.0000
G01 X 6.9235 Y 4.2563 Z -1.0000
G00 Z 5.0000

(End cutting path id: path204)


(Start cutting path id: path204)
(Change tool to Default tool)

G00 Z 5.0000
G00 X 6.8763 Y 4.4000

G01 Z -1.0000 F 100.0000(Penetrate)
G01 X 6.8803 Y 4.4082 Z -1.0000 F 3500.0000
G02 X 6.8999 Y 4.4185 Z -1.0000 I 0.0386 J -0.0494
G03 X 6.9196 Y 4.4289 Z -1.0000 I -0.0187 J 0.0592
G01 X 6.9235 Y 4.4370 Z -1.0000
G01 X 6.9271 Y 4.4445 Z -1.0000
G01 X 6.9374 Y 4.4480 Z -1.0000
G01 X 6.9404 Y 4.4433 Z -1.0000
G02 X 6.9235 Y 4.4185 Z -1.0000 I -0.0864 J 0.0406
G02 X 6.8862 Y 4.3933 Z -1.0000 I -0.0747 J 0.0702
G01 X 6.8763 Y 4.4000 Z -1.0000
G01 X 6.8763 Y 4.4000 Z -1.0000
G00 Z 5.0000

(End cutting path id: path204)


(Start cutting path id: path204)
(Change tool to Default tool)

G00 Z 5.0000
G00 X 6.8180 Y 4.4893

G01 Z -1.0000 F 100.0000(Penetrate)
G01 X 6.8206 Y 4.5004 Z -1.0000 F 3500.0000
G02 X 6.8471 Y 4.5483 Z -1.0000 I 0.5219 J -0.2572
G02 X 6.8698 Y 4.5729 Z -1.0000 I 0.0740 J -0.0456
G01 X 6.8763 Y 4.5696 Z -1.0000
G02 X 6.8707 Y 4.5458 Z -1.0000 I -0.0536 J -0.0001
G02 X 6.8472 Y 4.5106 Z -1.0000 I -0.1446 J 0.0713
G01 X 6.8180 Y 4.4893 Z -1.0000
G01 X 6.8180 Y 4.4893 Z -1.0000
G00 Z 5.0000

(End cutting path id: path204)


(Start cutting path id: path204)
(Change tool to Default tool)

G00 Z 5.0000
G00 X 6.7230 Y 4.4923

G01 Z -1.0000 F 100.0000(Penetrate)
G02 X 6.7359 Y 4.5281 Z -1.0000 I 0.0598 J -0.0012 F 3500.0000
G01 X 6.7520 Y 4.5291 Z -1.0000
G01 X 6.7579 Y 4.4999 Z -1.0000
G01 X 6.7334 Y 4.4835 Z -1.0000
G01 X 6.7258 Y 4.4863 Z -1.0000
G01 X 6.7230 Y 4.4924 Z -1.0000
G01 X 6.7230 Y 4.4923 Z -1.0000
G00 Z 5.0000

(End cutting path id: path204)


(Start cutting path id: path204)
(Change tool to Default tool)

G00 Z 5.0000
G00 X 6.5915 Y 4.5631

G01 Z -1.0000 F 100.0000(Penetrate)
G02 X 6.6045 Y 4.5824 Z -1.0000 I 0.1037 J -0.0559 F 3500.0000
G02 X 6.6303 Y 4.6100 Z -1.0000 I 0.2406 J -0.1992
G03 X 6.6577 Y 4.6364 Z -1.0000 I -1.3334 J 1.4078
G03 X 6.6874 Y 4.6662 Z -1.0000 I -1.6423 J 1.6672
G02 X 6.7184 Y 4.6891 Z -1.0000 I 0.0872 J -0.0855
G01 X 6.7332 Y 4.6899 Z -1.0000
G01 X 6.7486 Y 4.6902 Z -1.0000
G03 X 6.7899 Y 4.7144 Z -1.0000 I -0.0773 J 0.1791
G02 X 6.8299 Y 4.7345 Z -1.0000 I 0.0735 J -0.0964
G01 X 6.8473 Y 4.7309 Z -1.0000
G01 X 6.8604 Y 4.7253 Z -1.0000
G01 X 6.8645 Y 4.7289 Z -1.0000
G01 X 6.8610 Y 4.7386 Z -1.0000
G01 X 6.8498 Y 4.7466 Z -1.0000
G01 X 6.8483 Y 4.7523 Z -1.0000
G01 X 6.8645 Y 4.7639 Z -1.0000
G03 X 6.8919 Y 4.7789 Z -1.0000 I -0.0493 J 0.1230
G03 X 6.9165 Y 4.8008 Z -1.0000 I -0.0865 J 0.1220
G02 X 6.9411 Y 4.8209 Z -1.0000 I 0.0788 J -0.0710
G01 X 6.9578 Y 4.8254 Z -1.0000
G01 X 6.9622 Y 4.8203 Z -1.0000
G01 X 6.9560 Y 4.8093 Z -1.0000
G03 X 6.9399 Y 4.7914 Z -1.0000 I 0.0379 J -0.0501
G01 X 6.9353 Y 4.7746 Z -1.0000
G01 X 6.9299 Y 4.7636 Z -1.0000
G01 X 6.9188 Y 4.7620 Z -1.0000
G01 X 6.9040 Y 4.7631 Z -1.0000
G01 X 6.8953 Y 4.7570 Z -1.0000
G01 X 6.8952 Y 4.7479 Z -1.0000
G01 X 6.9059 Y 4.7388 Z -1.0000
G01 X 6.9197 Y 4.7202 Z -1.0000
G01 X 6.9080 Y 4.7077 Z -1.0000
G03 X 6.8339 Y 4.6904 Z -1.0000 I -0.0000 J -0.1670
G03 X 6.7873 Y 4.6480 Z -1.0000 I 0.0508 J -0.1026
G01 X 6.7767 Y 4.6413 Z -1.0000
G02 X 6.7347 Y 4.6428 Z -1.0000 I -0.0156 J 0.1587
G03 X 6.6929 Y 4.6436 Z -1.0000 I -0.0237 J -0.1411
G01 X 6.6810 Y 4.6360 Z -1.0000
G01 X 6.6833 Y 4.6293 Z -1.0000
G01 X 6.7034 Y 4.6276 Z -1.0000
G01 X 6.7129 Y 4.6166 Z -1.0000
G01 X 6.6916 Y 4.5940 Z -1.0000
G03 X 6.6503 Y 4.5735 Z -1.0000 I 0.1368 J -0.3271
G03 X 6.6318 Y 4.5592 Z -1.0000 I 0.0455 J -0.0782
G01 X 6.5997 Y 4.5477 Z -1.0000
G01 X 6.5915 Y 4.5630 Z -1.0000
G01 X 6.5915 Y 4.5631 Z -1.0000
G00 Z 5.0000

(End cutting path id: path204)


(Start cutting path id: path204)
(Change tool to Default tool)

G00 Z 5.0000
G00 X 6.6166 Y 4.7075

G01 Z -1.0000 F 100.0000(Penetrate)
G02 X 6.6463 Y 4.7581 Z -1.0000 I 0.0580 J 0.0000 F 3500.0000
G01 X 6.6951 Y 4.7513 Z -1.0000
G01 X 6.6935 Y 4.7196 Z -1.0000
G02 X 6.6268 Y 4.6960 Z -1.0000 I -0.0666 J 0.0821
G01 X 6.6198 Y 4.6992 Z -1.0000
G01 X 6.6166 Y 4.7075 Z -1.0000
G01 X 6.6166 Y 4.7075 Z -1.0000
G00 Z 5.0000

(End cutting path id: path204)


(Start cutting path id: path204)
(Change tool to Default tool)

G00 Z 5.0000
G00 X 6.5342 Y 4.7636

G01 Z -1.0000 F 100.0000(Penetrate)
G01 X 6.5487 Y 4.7961 Z -1.0000 F 3500.0000
G01 X 6.5686 Y 4.7958 Z -1.0000
G01 X 6.5708 Y 4.7849 Z -1.0000
G01 X 6.5573 Y 4.7692 Z -1.0000
G02 X 6.5376 Y 4.7609 Z -1.0000 I -0.0356 J 0.0571
G01 X 6.5342 Y 4.7636 Z -1.0000
G01 X 6.5342 Y 4.7636 Z -1.0000
G00 Z 5.0000

(End cutting path id: path204)


(Start cutting path id: path204)
(Change tool to Default tool)

G00 Z 5.0000
G00 X 6.4042 Y 4.7290

G01 Z -1.0000 F 100.0000(Penetrate)
G02 X 6.4078 Y 4.7492 Z -1.0000 I 0.0583 J -0.0000 F 3500.0000
G02 X 6.4201 Y 4.7721 Z -1.0000 I 0.0882 J -0.0325
G01 X 6.4377 Y 4.7699 Z -1.0000
G01 X 6.4344 Y 4.7367 Z -1.0000
G01 X 6.4135 Y 4.7218 Z -1.0000
G01 X 6.4042 Y 4.7291 Z -1.0000
G01 X 6.4042 Y 4.7290 Z -1.0000
G00 Z 5.0000

(End cutting path id: path204)


(Start cutting path id: path204)
(Change tool to Default tool)

G00 Z 5.0000
G00 X 6.3806 Y 4.8730

G01 Z -1.0000 F 100.0000(Penetrate)
G01 X 6.3838 Y 4.8816 Z -1.0000 F 3500.0000
G01 X 6.3910 Y 4.8848 Z -1.0000
G01 X 6.3984 Y 4.8888 Z -1.0000
G03 X 6.4082 Y 4.9109 Z -1.0000 I -0.0616 J 0.0408
G01 X 6.4174 Y 4.9283 Z -1.0000
G01 X 6.4234 Y 4.9286 Z -1.0000
G01 X 6.4262 Y 4.9194 Z -1.0000
G02 X 6.4160 Y 4.8907 Z -1.0000 I -0.1008 J 0.0198
G02 X 6.3911 Y 4.8665 Z -1.0000 I -0.0505 J 0.0270
G01 X 6.3806 Y 4.8730 Z -1.0000
G01 X 6.3806 Y 4.8730 Z -1.0000
G00 Z 5.0000

(End cutting path id: path204)


(Start cutting path id: path204)
(Change tool to Default tool)

G00 Z 5.0000
G00 X 6.4396 Y 4.9910

G01 Z -1.0000 F 100.0000(Penetrate)
G01 X 6.4437 Y 4.9987 Z -1.0000 F 3500.0000
G01 X 6.4573 Y 5.0028 Z -1.0000
G01 X 6.4716 Y 5.0061 Z -1.0000
G01 X 6.4751 Y 5.0117 Z -1.0000
G01 X 6.4785 Y 5.0184 Z -1.0000
G02 X 6.5069 Y 5.0352 Z -1.0000 I 0.0969 J -0.1310
G02 X 6.5361 Y 5.0418 Z -1.0000 I 0.0298 J -0.0642
G01 X 6.5475 Y 5.0355 Z -1.0000
G01 X 6.5437 Y 5.0165 Z -1.0000
G02 X 6.5022 Y 5.0030 Z -1.0000 I -0.0419 J 0.0582
G03 X 6.4787 Y 4.9988 Z -1.0000 I 0.0005 J -0.0708
G01 X 6.4691 Y 4.9910 Z -1.0000
G01 X 6.4602 Y 4.9820 Z -1.0000
G01 X 6.4507 Y 4.9792 Z -1.0000
G01 X 6.4429 Y 4.9826 Z -1.0000
G01 X 6.4396 Y 4.9910 Z -1.0000
G01 X 6.4396 Y 4.9910 Z -1.0000
G00 Z 5.0000

(End cutting path id: path204)


(Start cutting path id: path204)
(Change tool to Default tool)

G00 Z 5.0000
G00 X 6.5150 Y 4.9465

G01 Z -1.0000 F 100.0000(Penetrate)
G03 X 6.5366 Y 4.9623 Z -1.0000 I -0.1719 J 0.2569 F 3500.0000
G03 X 6.5670 Y 4.9882 Z -1.0000 I -0.4510 J 0.5620
G02 X 6.5966 Y 5.0093 Z -1.0000 I 0.1101 J -0.1228
G01 X 6.6032 Y 5.0084 Z -1.0000
G01 X 6.6020 Y 4.9812 Z -1.0000
G02 X 6.5213 Y 4.9391 Z -1.0000 I -0.1337 J 0.1578
G01 X 6.5143 Y 4.9413 Z -1.0000
G01 X 6.5150 Y 4.9465 Z -1.0000
G01 X 6.5150 Y 4.9465 Z -1.0000
G00 Z 5.0000

(End cutting path id: path204)


(Start cutting path id: path204)
(Change tool to Default tool)

G00 Z 5.0000
G00 X 6.4698 Y 5.1574

G01 Z -1.0000 F 100.0000(Penetrate)
G02 X 6.5377 Y 5.2099 Z -1.0000 I 0.2049 J -0.1950 F 3500.0000
G01 X 6.5591 Y 5.2068 Z -1.0000
G01 X 6.5592 Y 5.1972 Z -1.0000
G02 X 6.5119 Y 5.1585 Z -1.0000 I -0.1970 J 0.1925
G02 X 6.4745 Y 5.1469 Z -1.0000 I -0.0393 J 0.0607
G01 X 6.4698 Y 5.1574 Z -1.0000
G01 X 6.4698 Y 5.1574 Z -1.0000
G00 Z 5.0000

(End cutting path id: path204)


(Start cutting path id: path204)
(Change tool to Default tool)

G00 Z 5.0000
G00 X 6.3975 Y 5.3345

G01 Z -1.0000 F 100.0000(Penetrate)
G01 X 6.4032 Y 5.3874 Z -1.0000 F 3500.0000
G01 X 6.4481 Y 5.3871 Z -1.0000
G01 X 6.4497 Y 5.3791 Z -1.0000
G01 X 6.4425 Y 5.3720 Z -1.0000
G01 X 6.4326 Y 5.3634 Z -1.0000
G01 X 6.4278 Y 5.3441 Z -1.0000
G01 X 6.4158 Y 5.3278 Z -1.0000
G01 X 6.3975 Y 5.3345 Z -1.0000
G01 X 6.3975 Y 5.3345 Z -1.0000
G00 Z 5.0000

(End cutting path id: path204)


(Start cutting path id: path204)
(Change tool to Default tool)

G00 Z 5.0000
G00 X 6.5124 Y 5.3657

G01 Z -1.0000 F 100.0000(Penetrate)
G03 X 6.5408 Y 5.3994 Z -1.0000 I -0.3694 J 0.3412 F 3500.0000
G03 X 6.5785 Y 5.4513 Z -1.0000 I -0.8425 J 0.6513
G02 X 6.6179 Y 5.5018 Z -1.0000 I 0.4157 J -0.2832
G02 X 6.7219 Y 5.6130 Z -1.0000 I 2.1264 J -1.8853
G03 X 6.8253 Y 5.7232 Z -1.0000 I -2.1285 J 2.1011
G01 X 6.8291 Y 5.7332 Z -1.0000
G01 X 6.8330 Y 5.7428 Z -1.0000
G02 X 6.8645 Y 5.7700 Z -1.0000 I 0.1617 J -0.1557
G01 X 6.8782 Y 5.7675 Z -1.0000
G01 X 6.8763 Y 5.7523 Z -1.0000
G01 X 6.8647 Y 5.7281 Z -1.0000
G01 X 6.8745 Y 5.7218 Z -1.0000
G03 X 7.1270 Y 5.9245 Z -1.0000 I -0.4158 J 0.7770
G03 X 7.1510 Y 6.0436 Z -1.0000 I -0.0941 J 0.0809
G02 X 7.1747 Y 6.1275 Z -1.0000 I 0.0746 J 0.0242
G02 X 7.3639 Y 6.2249 Z -1.0000 I 0.3030 J -0.3558
G03 X 7.3928 Y 6.2364 Z -1.0000 I -0.0294 J 0.1160
G03 X 7.4232 Y 6.2581 Z -1.0000 I -0.0830 J 0.1489
G02 X 7.4531 Y 6.2814 Z -1.0000 I 0.1889 J -0.2117
G02 X 7.5013 Y 6.3109 Z -1.0000 I 0.3525 J -0.5212
G02 X 7.5346 Y 6.3218 Z -1.0000 I 0.0451 J -0.0816
G01 X 7.5388 Y 6.3157 Z -1.0000
G02 X 7.5238 Y 6.2954 Z -1.0000 I -0.0766 J 0.0410
G02 X 7.4840 Y 6.2605 Z -1.0000 I -0.2737 J 0.2718
G01 X 7.4747 Y 6.2395 Z -1.0000
G01 X 7.4864 Y 6.2331 Z -1.0000
G03 X 7.6512 Y 6.3328 Z -1.0000 I -0.6214 J 1.2128
G03 X 7.6904 Y 6.3771 Z -1.0000 I -0.0741 J 0.1049
G02 X 7.7528 Y 6.4502 Z -1.0000 I 0.1980 J -0.1060
G01 X 7.7734 Y 6.4400 Z -1.0000
G01 X 7.7720 Y 6.4364 Z -1.0000
G02 X 7.6951 Y 6.3511 Z -1.0000 I -3.6284 J 3.1956
G02 X 7.6124 Y 6.2725 Z -1.0000 I -0.6442 J 0.5951
G02 X 7.5623 Y 6.2404 Z -1.0000 I -0.1523 J 0.1827
G03 X 7.5124 Y 6.2080 Z -1.0000 I 0.0969 J -0.2035
G03 X 7.3694 Y 6.0749 Z -1.0000 I 1.5804 J -1.8423
G02 X 7.2202 Y 5.9435 Z -1.0000 I -1.0441 J 1.0355
G01 X 7.1862 Y 5.9344 Z -1.0000
G01 X 7.1750 Y 5.9322 Z -1.0000
G01 X 7.1714 Y 5.9261 Z -1.0000
G01 X 7.1674 Y 5.9184 Z -1.0000
G02 X 7.1159 Y 5.8881 Z -1.0000 I -0.2462 J 0.3596
G03 X 7.0637 Y 5.8560 Z -1.0000 I 0.1544 J -0.3091
G03 X 7.0155 Y 5.8133 Z -1.0000 I 0.2274 J -0.3048
G03 X 7.0009 Y 5.7861 Z -1.0000 I 0.0423 J -0.0402
G01 X 7.0083 Y 5.7819 Z -1.0000
G02 X 7.0370 Y 5.8063 Z -1.0000 I 0.2363 J -0.2479
G02 X 7.0789 Y 5.8357 Z -1.0000 I 0.3824 J -0.5016
G03 X 7.1204 Y 5.8653 Z -1.0000 I -0.2851 J 0.4443
G01 X 7.1298 Y 5.8758 Z -1.0000
G01 X 7.1397 Y 5.8840 Z -1.0000
G02 X 7.1622 Y 5.8881 Z -1.0000 I 0.0225 J -0.0598
G01 X 7.1659 Y 5.8797 Z -1.0000
G02 X 7.0353 Y 5.7484 Z -1.0000 I -1.5197 J 1.3812
G02 X 6.9773 Y 5.7018 Z -1.0000 I -0.3836 J 0.4175
G02 X 6.9559 Y 5.6927 Z -1.0000 I -0.0319 J 0.0455
G03 X 6.9350 Y 5.6838 Z -1.0000 I 0.0101 J -0.0526
G03 X 6.9152 Y 5.6639 Z -1.0000 I 0.0476 J -0.0671
G02 X 6.8257 Y 5.5514 Z -1.0000 I -0.9669 J 0.6772
G02 X 6.7832 Y 5.5173 Z -1.0000 I -0.1262 J 0.1136
G03 X 6.7539 Y 5.4900 Z -1.0000 I 0.0428 J -0.0755
G01 X 6.7536 Y 5.4730 Z -1.0000
G01 X 6.7538 Y 5.4647 Z -1.0000
G02 X 6.7347 Y 5.4395 Z -1.0000 I -0.1015 J 0.0572
G01 X 6.7102 Y 5.4274 Z -1.0000
G01 X 6.6915 Y 5.4337 Z -1.0000
G02 X 6.6768 Y 5.4525 Z -1.0000 I 0.0705 J 0.0705
G01 X 6.6772 Y 5.4574 Z -1.0000
G02 X 6.6817 Y 5.4622 Z -1.0000 I 0.0951 J -0.0845
G02 X 6.7812 Y 5.5628 Z -1.0000 I 33.8258 J -33.3460
G03 X 6.8721 Y 5.6632 Z -1.0000 I -1.0610 J 1.0523
G01 X 6.8717 Y 5.6723 Z -1.0000
G01 X 6.8631 Y 5.6741 Z -1.0000
G01 X 6.8488 Y 5.6634 Z -1.0000
G02 X 6.8331 Y 5.6474 Z -1.0000 I -0.0730 J 0.0559
G02 X 6.7575 Y 5.5906 Z -1.0000 I -1.0315 J 1.2943
G03 X 6.6245 Y 5.4706 Z -1.0000 I 0.4384 J -0.6196
G03 X 6.5757 Y 5.3827 Z -1.0000 I 0.1802 J -0.1575
G02 X 6.5624 Y 5.3602 Z -1.0000 I -0.0527 J 0.0160
G02 X 6.5381 Y 5.3444 Z -1.0000 I -0.0482 J 0.0472
G01 X 6.5135 Y 5.3484 Z -1.0000
G01 X 6.5124 Y 5.3657 Z -1.0000
G01 X 6.5124 Y 5.3657 Z -1.0000
G00 Z 5.0000

(End cutting path id: path204)


(Start cutting path id: path204)
(Change tool to Default tool)

G00 Z 5.0000
G00 X 6.6588 Y 5.3201

G01 Z -1.0000 F 100.0000(Penetrate)
G02 X 6.6605 Y 5.3848 Z -1.0000 I 0.0503 J 0.0310 F 3500.0000
G01 X 6.7066 Y 5.3890 Z -1.0000
G01 X 6.7155 Y 5.3390 Z -1.0000
G02 X 6.6696 Y 5.3097 Z -1.0000 I -0.0459 J 0.0213
G01 X 6.6660 Y 5.3111 Z -1.0000
G01 X 6.6588 Y 5.3201 Z -1.0000
G01 X 6.6588 Y 5.3201 Z -1.0000
G00 Z 5.0000

(End cutting path id: path204)


(Start cutting path id: path204)
(Change tool to Default tool)

G00 Z 5.0000
G00 X 6.6875 Y 5.2604

G01 Z -1.0000 F 100.0000(Penetrate)
G01 X 6.6996 Y 5.2844 Z -1.0000 F 3500.0000
G01 X 6.7180 Y 5.2831 Z -1.0000
G01 X 6.7186 Y 5.2779 Z -1.0000
G02 X 6.7054 Y 5.2627 Z -1.0000 I -0.0530 J 0.0328
G01 X 6.6916 Y 5.2567 Z -1.0000
G01 X 6.6875 Y 5.2603 Z -1.0000
G01 X 6.6875 Y 5.2604 Z -1.0000
G00 Z 5.0000

(End cutting path id: path204)


(Start cutting path id: path204)
(Change tool to Default tool)

G00 Z 5.0000
G00 X 6.7465 Y 5.2979

G01 Z -1.0000 F 100.0000(Penetrate)
G01 X 6.7498 Y 5.3064 Z -1.0000 F 3500.0000
G01 X 6.7574 Y 5.3097 Z -1.0000
G01 X 6.7674 Y 5.3122 Z -1.0000
G03 X 6.7844 Y 5.3245 Z -1.0000 I -0.0405 J 0.0745
G02 X 6.8425 Y 5.3640 Z -1.0000 I 0.1639 J -0.1783
G01 X 6.8527 Y 5.3576 Z -1.0000
G02 X 6.8292 Y 5.3097 Z -1.0000 I -0.0606 J 0.0000
G02 X 6.7601 Y 5.2861 Z -1.0000 I -0.0690 J 0.0894
G01 X 6.7502 Y 5.2898 Z -1.0000
G01 X 6.7465 Y 5.2979 Z -1.0000
G01 X 6.7465 Y 5.2979 Z -1.0000
G00 Z 5.0000

(End cutting path id: path204)


(Start cutting path id: path204)
(Change tool to Default tool)

G00 Z 5.0000
G00 X 6.8222 Y 5.4578

G01 Z -1.0000 F 100.0000(Penetrate)
G02 X 6.8709 Y 5.4921 Z -1.0000 I 0.1813 J -0.2054 F 3500.0000
G02 X 6.8960 Y 5.4986 Z -1.0000 I 0.0251 J -0.0453
G03 X 6.9188 Y 5.5033 Z -1.0000 I -0.0000 J 0.0581
G01 X 6.9235 Y 5.5104 Z -1.0000
G01 X 6.9273 Y 5.5185 Z -1.0000
G01 X 6.9374 Y 5.5222 Z -1.0000
G01 X 6.9500 Y 5.5253 Z -1.0000
G03 X 6.9698 Y 5.5389 Z -1.0000 I -0.0433 J 0.0843
G02 X 7.0180 Y 5.5621 Z -1.0000 I 0.0644 J -0.0721
G01 X 7.0378 Y 5.5504 Z -1.0000
G01 X 7.0353 Y 5.5405 Z -1.0000
G02 X 7.0066 Y 5.5224 Z -1.0000 I -0.0672 J 0.0749
G03 X 6.9738 Y 5.5055 Z -1.0000 I 0.0875 J -0.2105
G01 X 6.9707 Y 5.5001 Z -1.0000
G01 X 6.9677 Y 5.4947 Z -1.0000
G02 X 6.9324 Y 5.4774 Z -1.0000 I -0.1272 J 0.2150
G03 X 6.8945 Y 5.4611 Z -1.0000 I 0.2397 J -0.6094
G03 X 6.8504 Y 5.4391 Z -1.0000 I 0.4253 J -0.9088
G01 X 6.8234 Y 5.4404 Z -1.0000
G01 X 6.8222 Y 5.4578 Z -1.0000
G01 X 6.8222 Y 5.4578 Z -1.0000
G00 Z 5.0000

(End cutting path id: path204)


(Start cutting path id: path204)
(Change tool to Default tool)

G00 Z 5.0000
G00 X 7.0422 Y 5.6136

G01 Z -1.0000 F 100.0000(Penetrate)
G01 X 7.0456 Y 5.6211 Z -1.0000 F 3500.0000
G02 X 7.0776 Y 5.6500 Z -1.0000 I 0.2399 J -0.2343
G01 X 7.0908 Y 5.6463 Z -1.0000
G01 X 7.0858 Y 5.6277 Z -1.0000
G02 X 7.0497 Y 5.6078 Z -1.0000 I -0.0695 J 0.0834
G01 X 7.0422 Y 5.6136 Z -1.0000
G01 X 7.0422 Y 5.6136 Z -1.0000
G00 Z 5.0000

(End cutting path id: path204)


(Start cutting path id: path204)
(Change tool to Default tool)

G00 Z 5.0000
G00 X 7.0062 Y 5.6638

G01 Z -1.0000 F 100.0000(Penetrate)
G01 X 7.0091 Y 5.6727 Z -1.0000 F 3500.0000
G01 X 7.0150 Y 5.6758 Z -1.0000
G01 X 7.0229 Y 5.6784 Z -1.0000
G03 X 7.0638 Y 5.7112 Z -1.0000 I -0.3250 J 0.4479
G02 X 7.1152 Y 5.7444 Z -1.0000 I 0.1370 J -0.1554
G01 X 7.1242 Y 5.7386 Z -1.0000
G01 X 7.1216 Y 5.7319 Z -1.0000
G02 X 7.0799 Y 5.6914 Z -1.0000 I -0.4705 J 0.4412
G02 X 7.0192 Y 5.6547 Z -1.0000 I -0.1285 J 0.1444
G01 X 7.0062 Y 5.6638 Z -1.0000
G01 X 7.0062 Y 5.6638 Z -1.0000
G00 Z 5.0000

(End cutting path id: path204)


(Start cutting path id: path204)
(Change tool to Default tool)

G00 Z 5.0000
G00 X 7.1422 Y 5.7135

G01 Z -1.0000 F 100.0000(Penetrate)
G02 X 7.1959 Y 5.7982 Z -1.0000 I 0.2378 J -0.0913 F 3500.0000
G02 X 7.3868 Y 5.9695 Z -1.0000 I 1.2064 J -1.1525
G01 X 7.4027 Y 5.9757 Z -1.0000
G01 X 7.4075 Y 5.9713 Z -1.0000
G01 X 7.4031 Y 5.9592 Z -1.0000
G02 X 7.3485 Y 5.8998 Z -1.0000 I -0.5736 J 0.4734
G03 X 7.3331 Y 5.8649 Z -1.0000 I 0.0356 J -0.0366
G01 X 7.3471 Y 5.8575 Z -1.0000
G02 X 7.4053 Y 5.8980 Z -1.0000 I 0.8120 J -1.1064
G01 X 7.4115 Y 5.8998 Z -1.0000
G01 X 7.3639 Y 5.8408 Z -1.0000
G02 X 7.3050 Y 5.7891 Z -1.0000 I -0.2715 J 0.2501
G02 X 7.2619 Y 5.7689 Z -1.0000 I -0.0785 J 0.1114
G03 X 7.2165 Y 5.7518 Z -1.0000 I 0.0637 J -0.2381
G03 X 7.1749 Y 5.7261 Z -1.0000 I 0.1124 J -0.2276
G02 X 7.1459 Y 5.7099 Z -1.0000 I -0.0710 J 0.0931
G01 X 7.1422 Y 5.7135 Z -1.0000
G01 X 7.1422 Y 5.7135 Z -1.0000
G00 Z 5.0000

(End cutting path id: path204)


(Start cutting path id: path204)
(Change tool to Default tool)

G00 Z 5.0000
G00 X 7.1596 Y 5.6500

G01 Z -1.0000 F 100.0000(Penetrate)
G02 X 7.1861 Y 5.7099 Z -1.0000 I 0.0809 J 0.0000 F 3500.0000
G01 X 7.2246 Y 5.7090 Z -1.0000
G01 X 7.2271 Y 5.6676 Z -1.0000
G02 X 7.1705 Y 5.6402 Z -1.0000 I -0.0565 J 0.0445
G01 X 7.1626 Y 5.6432 Z -1.0000
G01 X 7.1596 Y 5.6499 Z -1.0000
G01 X 7.1596 Y 5.6500 Z -1.0000
G00 Z 5.0000

(End cutting path id: path204)


(Start cutting path id: path204)
(Change tool to Default tool)

G00 Z 5.0000
G00 X 7.2530 Y 5.5732

G01 Z -1.0000 F 100.0000(Penetrate)
G02 X 7.2710 Y 5.5976 Z -1.0000 I 0.0931 J -0.0498 F 3500.0000
G02 X 7.2992 Y 5.6200 Z -1.0000 I 0.1058 J -0.1046
G03 X 7.4273 Y 5.7211 Z -1.0000 I -0.3550 J 0.5814
G01 X 7.4220 Y 5.7435 Z -1.0000
G01 X 7.4106 Y 5.7506 Z -1.0000
G01 X 7.4075 Y 5.7582 Z -1.0000
G01 X 7.4306 Y 5.7984 Z -1.0000
G02 X 7.5027 Y 5.8134 Z -1.0000 I 0.0586 J -0.1011
G03 X 7.6120 Y 5.8545 Z -1.0000 I 0.0145 J 0.1275
G03 X 7.6669 Y 5.9937 Z -1.0000 I -0.1555 J 0.1418
G01 X 7.6772 Y 6.0168 Z -1.0000
G02 X 7.8383 Y 6.1525 Z -1.0000 I 1.5148 J -1.6350
G03 X 7.9193 Y 6.2174 Z -1.0000 I -1.3873 J 1.8147
G03 X 7.9434 Y 6.2407 Z -1.0000 I -0.1530 J 0.1824
G02 X 7.9678 Y 6.2615 Z -1.0000 I 0.0906 J -0.0813
G01 X 7.9820 Y 6.2657 Z -1.0000
G03 X 8.0639 Y 6.2939 Z -1.0000 I 0.0000 J 0.1329
G03 X 8.0921 Y 6.3518 Z -1.0000 I -0.0452 J 0.0578
G01 X 8.0848 Y 6.3595 Z -1.0000
G01 X 8.0663 Y 6.3532 Z -1.0000
G03 X 8.0408 Y 6.3304 Z -1.0000 I 1.0089 J -1.1549
G03 X 8.0191 Y 6.3100 Z -1.0000 I 0.7779 J -0.8515
G02 X 7.9861 Y 6.2932 Z -1.0000 I -0.0440 J 0.0457
G01 X 7.9719 Y 6.3017 Z -1.0000
G01 X 7.9530 Y 6.3081 Z -1.0000
G03 X 7.7616 Y 6.1572 Z -1.0000 I 1.0534 J -1.5329
G03 X 7.6146 Y 6.0166 Z -1.0000 I 2.2808 J -2.5323
G01 X 7.6178 Y 6.0113 Z -1.0000
G01 X 7.6374 Y 6.0110 Z -1.0000
G01 X 7.6435 Y 6.0024 Z -1.0000
G01 X 7.6372 Y 5.9906 Z -1.0000
G02 X 7.6066 Y 5.9780 Z -1.0000 I -0.0475 J 0.0717
G03 X 7.5532 Y 5.9493 Z -1.0000 I 0.0203 J -0.1021
G03 X 7.3467 Y 5.7168 Z -1.0000 I 1.9437 J -1.9345
G02 X 7.2529 Y 5.5991 Z -1.0000 I -21.6004 J 17.0983
G02 X 7.2309 Y 5.5723 Z -1.0000 I -1.1435 J 0.9154
G03 X 7.2196 Y 5.5508 Z -1.0000 I 0.0442 J -0.0371
G01 X 7.2234 Y 5.5457 Z -1.0000
G01 X 7.2354 Y 5.5504 Z -1.0000
G03 X 7.2530 Y 5.5732 Z -1.0000 I -0.0598 J 0.0642
G01 X 7.2530 Y 5.5732 Z -1.0000
G00 Z 5.0000

(End cutting path id: path204)


(Start cutting path id: path204)
(Change tool to Default tool)

G00 Z 5.0000
G00 X 7.1124 Y 5.3877

G01 Z -1.0000 F 100.0000(Penetrate)
G01 X 7.1103 Y 5.3903 Z -1.0000 F 3500.0000
G03 X 7.0947 Y 5.3923 Z -1.0000 I -0.0156 J -0.0616
G01 X 7.0810 Y 5.3883 Z -1.0000
G01 X 7.0770 Y 5.3809 Z -1.0000
G01 X 7.0811 Y 5.3755 Z -1.0000
G01 X 7.0947 Y 5.3763 Z -1.0000
G03 X 7.1106 Y 5.3843 Z -1.0000 I -0.0296 J 0.0780
G01 X 7.1124 Y 5.3877 Z -1.0000
G01 X 7.1124 Y 5.3877 Z -1.0000
G00 Z 5.0000

(End cutting path id: path204)


(Start cutting path id: path204)
(Change tool to Default tool)

G00 Z 5.0000
G00 X 7.1124 Y 5.3084

G01 Z -1.0000 F 100.0000(Penetrate)
G01 X 7.1159 Y 5.3165 Z -1.0000 F 3500.0000
G01 X 7.1318 Y 5.3263 Z -1.0000
G01 X 7.1374 Y 5.3239 Z -1.0000
G01 X 7.1362 Y 5.3158 Z -1.0000
G01 X 7.1185 Y 5.3039 Z -1.0000
G01 X 7.1124 Y 5.3084 Z -1.0000
G01 X 7.1124 Y 5.3084 Z -1.0000
G00 Z 5.0000

(End cutting path id: path204)


(Start cutting path id: path204)
(Change tool to Default tool)

G00 Z 5.0000
G00 X 7.2748 Y 5.2123

G01 Z -1.0000 F 100.0000(Penetrate)
G01 X 7.2774 Y 5.2312 Z -1.0000 F 3500.0000
G02 X 7.3123 Y 5.2820 Z -1.0000 I 0.2526 J -0.1360
G03 X 7.3539 Y 5.3313 Z -1.0000 I -2.7492 J 2.3596
G03 X 7.3758 Y 5.3587 Z -1.0000 I -0.8351 J 0.6913
G01 X 7.3871 Y 5.3663 Z -1.0000
G01 X 7.3905 Y 5.3628 Z -1.0000
G01 X 7.3947 Y 5.3590 Z -1.0000
G01 X 7.4128 Y 5.3717 Z -1.0000
G02 X 7.4437 Y 5.3999 Z -1.0000 I 0.1512 J -0.1351
G01 X 7.4571 Y 5.4043 Z -1.0000
G01 X 7.4603 Y 5.4083 Z -1.0000
G01 X 7.4547 Y 5.4169 Z -1.0000
G01 X 7.4650 Y 5.4214 Z -1.0000
G03 X 7.4913 Y 5.4186 Z -1.0000 I 0.0214 J 0.0749
G01 X 7.5004 Y 5.4236 Z -1.0000
G02 X 7.6073 Y 5.5236 Z -1.0000 I 0.3154 J -0.2301
G01 X 7.6510 Y 5.5187 Z -1.0000
G01 X 7.6504 Y 5.5033 Z -1.0000
G02 X 7.5049 Y 5.3926 Z -1.0000 I -0.9696 J 1.1233
G03 X 7.4360 Y 5.3427 Z -1.0000 I 0.6297 J -0.9428
G03 X 7.3830 Y 5.2972 Z -1.0000 I 0.4707 J -0.6016
G03 X 7.3461 Y 5.2501 Z -1.0000 I 0.1363 J -0.1447
G01 X 7.3491 Y 5.2371 Z -1.0000
G01 X 7.3498 Y 5.2332 Z -1.0000
G01 X 7.3454 Y 5.2317 Z -1.0000
G01 X 7.3275 Y 5.2305 Z -1.0000
G01 X 7.3101 Y 5.2151 Z -1.0000
G01 X 7.2887 Y 5.2021 Z -1.0000
G01 X 7.2748 Y 5.2125 Z -1.0000
G01 X 7.2748 Y 5.2123 Z -1.0000
G00 Z 5.0000

(End cutting path id: path204)


(Start cutting path id: path204)
(Change tool to Default tool)

G00 Z 5.0000
G00 X 7.3130 Y 5.2034

G01 Z -1.0000 F 100.0000(Penetrate)
G01 X 7.3166 Y 5.2117 Z -1.0000 F 3500.0000
G01 X 7.3255 Y 5.2152 Z -1.0000
G01 X 7.3313 Y 5.2115 Z -1.0000
G01 X 7.3308 Y 5.2034 Z -1.0000
G01 X 7.3225 Y 5.1933 Z -1.0000
G01 X 7.3183 Y 5.1916 Z -1.0000
G01 X 7.3151 Y 5.1937 Z -1.0000
G01 X 7.3130 Y 5.2034 Z -1.0000
G01 X 7.3130 Y 5.2034 Z -1.0000
G00 Z 5.0000

(End cutting path id: path204)


(Start cutting path id: path204)
(Change tool to Default tool)

G00 Z 5.0000
G00 X 7.2511 Y 5.1238

G01 Z -1.0000 F 100.0000(Penetrate)
G01 X 7.2622 Y 5.1373 Z -1.0000 F 3500.0000
G01 X 7.2658 Y 5.1518 Z -1.0000
G01 X 7.2758 Y 5.1630 Z -1.0000
G01 X 7.2972 Y 5.1556 Z -1.0000
G01 X 7.3094 Y 5.1552 Z -1.0000
G03 X 7.4323 Y 5.2749 Z -1.0000 I -1.1630 J 1.3173
G02 X 7.5584 Y 5.4027 Z -1.0000 I 2.3102 J -2.1516
G02 X 7.6081 Y 5.4433 Z -1.0000 I 0.2797 J -0.2919
G03 X 7.7027 Y 5.5207 Z -1.0000 I -0.4287 J 0.6201
G03 X 7.7695 Y 5.5989 Z -1.0000 I -0.3712 J 0.3850
G03 X 7.7842 Y 5.6333 Z -1.0000 I -0.0747 J 0.0523
G01 X 7.7794 Y 5.6482 Z -1.0000
G01 X 7.7646 Y 5.6542 Z -1.0000
G01 X 7.7512 Y 5.6488 Z -1.0000
G01 X 7.7417 Y 5.6446 Z -1.0000
G01 X 7.7380 Y 5.6482 Z -1.0000
G01 X 7.7413 Y 5.6594 Z -1.0000
G02 X 7.7557 Y 5.6756 Z -1.0000 I 0.0601 J -0.0389
G01 X 7.7734 Y 5.6832 Z -1.0000
G01 X 7.8228 Y 5.7298 Z -1.0000
G02 X 7.9056 Y 5.8032 Z -1.0000 I 0.4074 J -0.3755
G01 X 7.9225 Y 5.8019 Z -1.0000
G01 X 7.9228 Y 5.7964 Z -1.0000
G02 X 7.8611 Y 5.7295 Z -1.0000 I -0.8454 J 0.7168
G03 X 7.8009 Y 5.6626 Z -1.0000 I 0.6125 J -0.6124
G01 X 7.8012 Y 5.6556 Z -1.0000
G01 X 7.8084 Y 5.6539 Z -1.0000
G03 X 7.8265 Y 5.6638 Z -1.0000 I -0.0166 J 0.0516
G01 X 7.8382 Y 5.6603 Z -1.0000
G01 X 7.8334 Y 5.6412 Z -1.0000
G01 X 7.8199 Y 5.6113 Z -1.0000
G01 X 7.8311 Y 5.6041 Z -1.0000
G03 X 7.8973 Y 5.6597 Z -1.0000 I -0.0990 J 0.1851
G03 X 7.9150 Y 5.7111 Z -1.0000 I -0.0656 J 0.0514
G01 X 7.9235 Y 5.7328 Z -1.0000
G02 X 8.0398 Y 5.8474 Z -1.0000 I 1.1673 J -1.0685
G03 X 8.2335 Y 6.0280 Z -1.0000 I -3.6707 J 4.1323
G03 X 8.3238 Y 6.1252 Z -1.0000 I -0.9702 J 0.9922
G02 X 8.4674 Y 6.2685 Z -1.0000 I 0.9102 J -0.7681
G02 X 8.5250 Y 6.2944 Z -1.0000 I 0.0745 J -0.0885
G01 X 8.5421 Y 6.3007 Z -1.0000
G03 X 8.5704 Y 6.3228 Z -1.0000 I -0.0924 J 0.1476
G02 X 8.6015 Y 6.3390 Z -1.0000 I 0.0430 J -0.0446
G01 X 8.6114 Y 6.3308 Z -1.0000
G02 X 8.5869 Y 6.2744 Z -1.0000 I -0.0770 J 0.0000
G02 X 8.5342 Y 6.2590 Z -1.0000 I -0.0417 J 0.0449
G01 X 8.5021 Y 6.2496 Z -1.0000
G03 X 8.3292 Y 6.0682 Z -1.0000 I 1.4245 J -1.5310
G02 X 8.2656 Y 5.9958 Z -1.0000 I -1.8364 J 1.5514
G02 X 8.2130 Y 5.9413 Z -1.0000 I -1.0950 J 1.0030
G03 X 8.1704 Y 5.8928 Z -1.0000 I 0.3124 J -0.3169
G01 X 8.1728 Y 5.8881 Z -1.0000
G01 X 8.1828 Y 5.8844 Z -1.0000
G01 X 8.1865 Y 5.8763 Z -1.0000
G01 X 8.1824 Y 5.8686 Z -1.0000
G01 X 8.1695 Y 5.8645 Z -1.0000
G01 X 8.1546 Y 5.8608 Z -1.0000
G01 X 8.1441 Y 5.8509 Z -1.0000
G01 X 8.1446 Y 5.8462 Z -1.0000
G01 X 8.1493 Y 5.8457 Z -1.0000
G01 X 8.1567 Y 5.8390 Z -1.0000
G02 X 8.1068 Y 5.7586 Z -1.0000 I -0.4202 J 0.2049
G03 X 8.0527 Y 5.6846 Z -1.0000 I 1.4496 J -1.1164
G03 X 8.0331 Y 5.6522 Z -1.0000 I 0.2564 J -0.1777
G02 X 8.0133 Y 5.6200 Z -1.0000 I -0.2542 J 0.1339
G02 X 7.9855 Y 5.5851 Z -1.0000 I -0.3254 J 0.2305
G03 X 7.9222 Y 5.5033 Z -1.0000 I 0.5543 J -0.4942
G01 X 7.9150 Y 5.4795 Z -1.0000
G01 X 7.9461 Y 5.4670 Z -1.0000
G03 X 8.0669 Y 5.6369 Z -1.0000 I -0.5032 J 0.4858
G02 X 8.0961 Y 5.6838 Z -1.0000 I 0.2823 J -0.1430
G02 X 8.1452 Y 5.7412 Z -1.0000 I 0.4738 J -0.3553
G03 X 8.1958 Y 5.7969 Z -1.0000 I -0.8121 J 0.7892
G01 X 8.1983 Y 5.8037 Z -1.0000
G01 X 8.2008 Y 5.8104 Z -1.0000
G02 X 8.2338 Y 5.8449 Z -1.0000 I 0.3471 J -0.2982
G03 X 8.2631 Y 5.8792 Z -1.0000 I -0.1467 J 0.1554
G01 X 8.2634 Y 5.8879 Z -1.0000
G01 X 8.2677 Y 5.9011 Z -1.0000
G02 X 8.3222 Y 5.9117 Z -1.0000 I 0.0545 J -0.1347
G01 X 8.3467 Y 5.9212 Z -1.0000
G03 X 8.4203 Y 6.0003 Z -1.0000 I -0.4144 J 0.4595
G03 X 8.4294 Y 6.0122 Z -1.0000 I -0.5904 J 0.4596
G03 X 8.4584 Y 6.0513 Z -1.0000 I -5.7233 J 4.2743
G02 X 8.4906 Y 6.0867 Z -1.0000 I 0.1883 J -0.1387
G02 X 8.5287 Y 6.1143 Z -1.0000 I 0.1500 J -0.1673
G03 X 8.6548 Y 6.2194 Z -1.0000 I -0.2361 J 0.4112
G01 X 8.6455 Y 6.2525 Z -1.0000
G01 X 8.6339 Y 6.2524 Z -1.0000
G01 X 8.6248 Y 6.2451 Z -1.0000
G02 X 8.4938 Y 6.1048 Z -1.0000 I -0.4354 J 0.2754
G01 X 8.4580 Y 6.1230 Z -1.0000
G01 X 8.4623 Y 6.1317 Z -1.0000
G01 X 8.4748 Y 6.1360 Z -1.0000
G01 X 8.4892 Y 6.1410 Z -1.0000
G03 X 8.5160 Y 6.1685 Z -1.0000 I -0.0918 J 0.1164
G02 X 8.5405 Y 6.2009 Z -1.0000 I 4.7144 J -3.5352
G02 X 8.5497 Y 6.2128 Z -1.0000 I 0.6250 J -0.4754
G03 X 8.5589 Y 6.2246 Z -1.0000 I -0.7136 J 0.5643
G03 X 8.5925 Y 6.2688 Z -1.0000 I -9.3937 J 7.1787
G02 X 8.6285 Y 6.3081 Z -1.0000 I 0.2255 J -0.1707
G01 X 8.6416 Y 6.3131 Z -1.0000
G01 X 8.6534 Y 6.3181 Z -1.0000
G01 X 8.6646 Y 6.3367 Z -1.0000
G02 X 8.6754 Y 6.3558 Z -1.0000 I 0.0506 J -0.0161
G01 X 8.6854 Y 6.3603 Z -1.0000
G01 X 8.6893 Y 6.3643 Z -1.0000
G01 X 8.6851 Y 6.3740 Z -1.0000
G01 X 8.6711 Y 6.3791 Z -1.0000
G01 X 8.6516 Y 6.3712 Z -1.0000
G02 X 8.6302 Y 6.3601 Z -1.0000 I -0.0359 J 0.0431
G02 X 8.6039 Y 6.3583 Z -1.0000 I -0.0175 J 0.0654
G03 X 8.5806 Y 6.3568 Z -1.0000 I -0.0077 J -0.0589
G01 X 8.5760 Y 6.3507 Z -1.0000
G01 X 8.5717 Y 6.3425 Z -1.0000
G02 X 8.5377 Y 6.3244 Z -1.0000 I -0.0968 J 0.1413
G03 X 8.5010 Y 6.3063 Z -1.0000 I 0.0883 J -0.2245
G03 X 8.4378 Y 6.2640 Z -1.0000 I 0.4327 J -0.7144
G02 X 8.3755 Y 6.2214 Z -1.0000 I -0.6075 J 0.8235
G01 X 8.3658 Y 6.2186 Z -1.0000
G01 X 8.3564 Y 6.2157 Z -1.0000
G03 X 8.3242 Y 6.1899 Z -1.0000 I 0.1640 J -0.2375
G02 X 8.2942 Y 6.1688 Z -1.0000 I -0.0922 J 0.0995
G01 X 8.2872 Y 6.1708 Z -1.0000
G01 X 8.2638 Y 6.1777 Z -1.0000
G03 X 8.1452 Y 6.1032 Z -1.0000 I 0.2588 J -0.5439
G03 X 7.9421 Y 5.9203 Z -1.0000 I 1.5356 J -1.9098
G03 X 7.9268 Y 5.8834 Z -1.0000 I 0.0372 J -0.0370
G01 X 7.9224 Y 5.8722 Z -1.0000
G02 X 7.8367 Y 5.7883 Z -1.0000 I -1.1694 J 1.1081
G03 X 7.7526 Y 5.7021 Z -1.0000 I 0.6814 J -0.7493
G03 X 7.7294 Y 5.6645 Z -1.0000 I 0.1034 J -0.0895
G02 X 7.6699 Y 5.5731 Z -1.0000 I -0.2692 J 0.1103
G02 X 7.5860 Y 5.5154 Z -1.0000 I -0.1823 J 0.1754
G02 X 7.5461 Y 5.4991 Z -1.0000 I -0.8026 J 1.9098
G01 X 7.5433 Y 5.4986 Z -1.0000
G01 X 7.5981 Y 5.5606 Z -1.0000
G03 X 7.7322 Y 5.7268 Z -1.0000 I -1.0960 J 1.0210
G01 X 7.7210 Y 5.7374 Z -1.0000
G03 X 7.6923 Y 5.7119 Z -1.0000 I 0.1952 J -0.2482
G03 X 7.6111 Y 5.6269 Z -1.0000 I 2.1107 J -2.0996
G02 X 7.5302 Y 5.5415 Z -1.0000 I -2.8420 J 2.6119
G02 X 7.4974 Y 5.5105 Z -1.0000 I -0.4037 J 0.3943
G03 X 7.4642 Y 5.4801 Z -1.0000 I 0.6397 J -0.7336
G03 X 7.3971 Y 5.4145 Z -1.0000 I 2.9387 J -3.0706
G03 X 7.1899 Y 5.1981 Z -1.0000 I 4.8864 J -4.8847
G01 X 7.1901 Y 5.1887 Z -1.0000
G01 X 7.1977 Y 5.1875 Z -1.0000
G03 X 7.2227 Y 5.2048 Z -1.0000 I -0.0472 J 0.0950
G01 X 7.2450 Y 5.2139 Z -1.0000
G01 X 7.2579 Y 5.2057 Z -1.0000
G01 X 7.2584 Y 5.1849 Z -1.0000
G02 X 7.2371 Y 5.1523 Z -1.0000 I -0.0883 J 0.0344
G02 X 7.2052 Y 5.1242 Z -1.0000 I -0.2356 J 0.2356
G01 X 7.1980 Y 5.1221 Z -1.0000
G01 X 7.1917 Y 5.1197 Z -1.0000
G01 X 7.1851 Y 5.1087 Z -1.0000
G01 X 7.1957 Y 5.0971 Z -1.0000
G03 X 7.2511 Y 5.1238 Z -1.0000 I -0.0304 J 0.1338
G01 X 7.2511 Y 5.1238 Z -1.0000
G00 Z 5.0000

(End cutting path id: path204)


(Start cutting path id: path204)
(Change tool to Default tool)

G00 Z 5.0000
G00 X 7.5164 Y 5.1049

G01 Z -1.0000 F 100.0000(Penetrate)
G01 X 7.5321 Y 5.1061 Z -1.0000 F 3500.0000
G01 X 7.5373 Y 5.1140 Z -1.0000
G01 X 7.5410 Y 5.1270 Z -1.0000
G02 X 7.5580 Y 5.1475 Z -1.0000 I 0.0828 J -0.0511
G02 X 7.5787 Y 5.1664 Z -1.0000 I 2.4137 J -2.6292
G02 X 7.6354 Y 5.2175 Z -1.0000 I 18.4652 J -20.4334
G03 X 7.7042 Y 5.2972 Z -1.0000 I -0.2787 J 0.3103
G01 X 7.7074 Y 5.3261 Z -1.0000
G01 X 7.6971 Y 5.3341 Z -1.0000
G01 X 7.6779 Y 5.3300 Z -1.0000
G03 X 7.6598 Y 5.3134 Z -1.0000 I 0.0350 J -0.0565
G01 X 7.6553 Y 5.3000 Z -1.0000
G01 X 7.6507 Y 5.2907 Z -1.0000
G01 X 7.6406 Y 5.2892 Z -1.0000
G01 X 7.6308 Y 5.2977 Z -1.0000
G01 X 7.6258 Y 5.3186 Z -1.0000
G03 X 7.6230 Y 5.3419 Z -1.0000 I -0.0988 J -0.0000
G01 X 7.6180 Y 5.3510 Z -1.0000
G01 X 7.6168 Y 5.3590 Z -1.0000
G02 X 7.6349 Y 5.3838 Z -1.0000 I 0.0893 J -0.0463
G02 X 7.6573 Y 5.3981 Z -1.0000 I 0.0436 J -0.0436
G01 X 7.6644 Y 5.3946 Z -1.0000
G01 X 7.6799 Y 5.3829 Z -1.0000
G01 X 7.6908 Y 5.3932 Z -1.0000
G01 X 7.6943 Y 5.4046 Z -1.0000
G02 X 7.7399 Y 5.4641 Z -1.0000 I 0.6552 J -0.4545
G03 X 7.7831 Y 5.5221 Z -1.0000 I -0.4633 J 0.3906
G01 X 7.7824 Y 5.5289 Z -1.0000
G01 X 7.7450 Y 5.5311 Z -1.0000
G03 X 7.6809 Y 5.4484 Z -1.0000 I 0.1360 J -0.1715
G01 X 7.6750 Y 5.4425 Z -1.0000
G01 X 7.6608 Y 5.4395 Z -1.0000
G01 X 7.6468 Y 5.4345 Z -1.0000
G03 X 7.5638 Y 5.3597 Z -1.0000 I 0.7856 J -0.9556
G03 X 7.4928 Y 5.2733 Z -1.0000 I 0.3756 J -0.3809
G03 X 7.4412 Y 5.1738 Z -1.0000 I 0.4494 J -0.2963
G03 X 7.4031 Y 5.0679 Z -1.0000 I 1.7898 J -0.7030
G01 X 7.4038 Y 5.0595 Z -1.0000
G01 X 7.4097 Y 5.0574 Z -1.0000
G03 X 7.4518 Y 5.0808 Z -1.0000 I -0.1112 J 0.2498
G02 X 7.4965 Y 5.1039 Z -1.0000 I 0.1188 J -0.1751
G01 X 7.5164 Y 5.1049 Z -1.0000
G01 X 7.5164 Y 5.1049 Z -1.0000
G00 Z 5.0000

(End cutting path id: path204)


(Start cutting path id: path204)
(Change tool to Default tool)

G00 Z 5.0000
G00 X 7.6081 Y 5.0854

G01 Z -1.0000 F 100.0000(Penetrate)
G02 X 7.6231 Y 5.1051 Z -1.0000 I 0.0706 J -0.0378 F 3500.0000
G01 X 7.6326 Y 5.1090 Z -1.0000
G01 X 7.6369 Y 5.1045 Z -1.0000
G01 X 7.6317 Y 5.0854 Z -1.0000
G02 X 7.6168 Y 5.0656 Z -1.0000 I -0.0706 J 0.0378
G01 X 7.6073 Y 5.0617 Z -1.0000
G01 X 7.6030 Y 5.0662 Z -1.0000
G01 X 7.6081 Y 5.0854 Z -1.0000
G01 X 7.6081 Y 5.0854 Z -1.0000
G00 Z 5.0000

(End cutting path id: path204)


(Start cutting path id: path204)
(Change tool to Default tool)

G00 Z 5.0000
G00 X 7.7144 Y 5.0251

G01 Z -1.0000 F 100.0000(Penetrate)
G01 X 7.7173 Y 5.0353 Z -1.0000 F 3500.0000
G01 X 7.7262 Y 5.0442 Z -1.0000
G01 X 7.7343 Y 5.0449 Z -1.0000
G01 X 7.7380 Y 5.0397 Z -1.0000
G01 X 7.7351 Y 5.0295 Z -1.0000
G01 X 7.7262 Y 5.0206 Z -1.0000
G01 X 7.7180 Y 5.0198 Z -1.0000
G01 X 7.7144 Y 5.0251 Z -1.0000
G01 X 7.7144 Y 5.0251 Z -1.0000
G00 Z 5.0000

(End cutting path id: path204)


(Start cutting path id: path204)
(Change tool to Default tool)

G00 Z 5.0000
G00 X 7.6750 Y 4.9634

G01 Z -1.0000 F 100.0000(Penetrate)
G01 X 7.6695 Y 4.9810 Z -1.0000 F 3500.0000
G01 X 7.6788 Y 4.9852 Z -1.0000
G01 X 7.6833 Y 4.9866 Z -1.0000
G01 X 7.6835 Y 4.9963 Z -1.0000
G01 X 7.6891 Y 5.0078 Z -1.0000
G01 X 7.7117 Y 5.0047 Z -1.0000
G01 X 7.7160 Y 4.9942 Z -1.0000
G01 X 7.7048 Y 4.9754 Z -1.0000
G02 X 7.6831 Y 4.9618 Z -1.0000 I -0.0487 J 0.0538
G01 X 7.6750 Y 4.9634 Z -1.0000
G01 X 7.6750 Y 4.9634 Z -1.0000
G00 Z 5.0000

(End cutting path id: path204)


(Start cutting path id: path204)
(Change tool to Default tool)

G00 Z 5.0000
G00 X 7.8088 Y 4.9758

G01 Z -1.0000 F 100.0000(Penetrate)
G01 X 7.8121 Y 4.9852 Z -1.0000 F 3500.0000
G02 X 7.8383 Y 5.0124 Z -1.0000 I 0.1668 J -0.1346
G01 X 7.8676 Y 5.0293 Z -1.0000
G02 X 7.8374 Y 4.9632 Z -1.0000 I -0.0922 J 0.0021
G01 X 7.8088 Y 4.9758 Z -1.0000
G01 X 7.8088 Y 4.9758 Z -1.0000
G00 Z 5.0000

(End cutting path id: path204)


(Start cutting path id: path204)
(Change tool to Default tool)

G00 Z 5.0000
G00 X 7.8049 Y 4.7872

G01 Z -1.0000 F 100.0000(Penetrate)
G02 X 7.8132 Y 4.9454 Z -1.0000 I 0.1182 J 0.0731 F 3500.0000
G02 X 7.9334 Y 4.9530 Z -1.0000 I 0.0634 J -0.0492
G01 X 7.9346 Y 4.9411 Z -1.0000
G02 X 7.8346 Y 4.8035 Z -1.0000 I -1.5816 J 1.0443
G02 X 7.8128 Y 4.7851 Z -1.0000 I -0.0568 J 0.0453
G01 X 7.8049 Y 4.7872 Z -1.0000
G01 X 7.8049 Y 4.7872 Z -1.0000
G00 Z 5.0000

(End cutting path id: path204)


(Start cutting path id: path204)
(Change tool to Default tool)

G00 Z 5.0000
G00 X 7.9859 Y 4.8729

G01 Z -1.0000 F 100.0000(Penetrate)
G01 X 7.9824 Y 4.8812 Z -1.0000 F 3500.0000
G01 X 7.9740 Y 4.8847 Z -1.0000
G01 X 7.9657 Y 4.8812 Z -1.0000
G01 X 7.9622 Y 4.8729 Z -1.0000
G01 X 7.9657 Y 4.8645 Z -1.0000
G01 X 7.9740 Y 4.8611 Z -1.0000
G01 X 7.9824 Y 4.8645 Z -1.0000
G01 X 7.9859 Y 4.8729 Z -1.0000
G01 X 7.9859 Y 4.8729 Z -1.0000
G00 Z 5.0000

(End cutting path id: path204)


(Start cutting path id: path204)
(Change tool to Default tool)

G00 Z 5.0000
G00 X 8.0331 Y 4.9152

G01 Z -1.0000 F 100.0000(Penetrate)
G01 X 8.0198 Y 4.9267 Z -1.0000 F 3500.0000
G01 X 8.0004 Y 4.9105 Z -1.0000
G01 X 8.0025 Y 4.9014 Z -1.0000
G01 X 8.0144 Y 4.8965 Z -1.0000
G01 X 8.0276 Y 4.9019 Z -1.0000
G01 X 8.0331 Y 4.9152 Z -1.0000
G01 X 8.0331 Y 4.9152 Z -1.0000
G00 Z 5.0000

(End cutting path id: path204)


(Start cutting path id: path204)
(Change tool to Default tool)

G00 Z 5.0000
G00 X 8.0803 Y 4.8293

G01 Z -1.0000 F 100.0000(Penetrate)
G02 X 8.0896 Y 4.8638 Z -1.0000 I 0.0684 J -0.0000 F 3500.0000
G02 X 8.1522 Y 4.9522 Z -1.0000 I 0.5405 J -0.3161
G02 X 8.2807 Y 5.0728 Z -1.0000 I 0.5882 J -0.4979
G01 X 8.3115 Y 5.0706 Z -1.0000
G01 X 8.3116 Y 5.0632 Z -1.0000
G02 X 8.1879 Y 4.9390 Z -1.0000 I -2.2086 J 2.0768
G03 X 8.1436 Y 4.8912 Z -1.0000 I 0.3422 J -0.3613
G01 X 8.1393 Y 4.8791 Z -1.0000
G01 X 8.1354 Y 4.8670 Z -1.0000
G02 X 8.1098 Y 4.8375 Z -1.0000 I -0.1592 J 0.1127
G02 X 8.0866 Y 4.8245 Z -1.0000 I -0.0380 J 0.0405
G01 X 8.0803 Y 4.8293 Z -1.0000
G01 X 8.0803 Y 4.8293 Z -1.0000
G00 Z 5.0000

(End cutting path id: path204)


(Start cutting path id: path204)
(Change tool to Default tool)

G00 Z 5.0000
G00 X 8.1506 Y 4.6723

G01 Z -1.0000 F 100.0000(Penetrate)
G02 X 8.1495 Y 4.6900 Z -1.0000 I 0.1345 J 0.0178 F 3500.0000
G02 X 8.1506 Y 4.7077 Z -1.0000 I 0.1363 J 0.0001
G02 X 8.1981 Y 4.8028 Z -1.0000 I 0.1610 J -0.0210
G02 X 8.2833 Y 4.8376 Z -1.0000 I 0.0852 J -0.0871
G01 X 8.2882 Y 4.8409 Z -1.0000
G01 X 8.2876 Y 4.8481 Z -1.0000
G01 X 8.2877 Y 4.8565 Z -1.0000
G01 X 8.2987 Y 4.8655 Z -1.0000
G01 X 8.3102 Y 4.8517 Z -1.0000
G02 X 8.2273 Y 4.7490 Z -1.0000 I -0.4368 J 0.2680
G03 X 8.1685 Y 4.6881 Z -1.0000 I 0.7066 J -0.7401
G01 X 8.1592 Y 4.6723 Z -1.0000
G01 X 8.1545 Y 4.6690 Z -1.0000
G01 X 8.1506 Y 4.6723 Z -1.0000
G01 X 8.1506 Y 4.6723 Z -1.0000
G00 Z 5.0000

(End cutting path id: path204)


(Start cutting path id: path204)
(Change tool to Default tool)

G00 Z 5.0000
G00 X 8.2362 Y 4.6107

G01 Z -1.0000 F 100.0000(Penetrate)
G01 X 8.2300 Y 4.6216 Z -1.0000 F 3500.0000
G02 X 8.2573 Y 4.6618 Z -1.0000 I 0.1105 J -0.0456
G03 X 8.3016 Y 4.7111 Z -1.0000 I -0.3367 J 0.3469
G03 X 8.3165 Y 4.7376 Z -1.0000 I -0.0804 J 0.0628
G02 X 8.3332 Y 4.7616 Z -1.0000 I 0.0559 J -0.0213
G02 X 8.3786 Y 4.7915 Z -1.0000 I 0.1364 J -0.1572
G03 X 8.4253 Y 4.8214 Z -1.0000 I -0.1035 J 0.2131
G03 X 8.4563 Y 4.8552 Z -1.0000 I -0.1030 J 0.1256
G02 X 8.5358 Y 4.9531 Z -1.0000 I 0.6421 J -0.4400
G02 X 8.6026 Y 5.0082 Z -1.0000 I 0.2657 J -0.2540
G02 X 8.6284 Y 5.0169 Z -1.0000 I 0.0301 J -0.0467
G01 X 8.6350 Y 5.0107 Z -1.0000
G01 X 8.6302 Y 4.9949 Z -1.0000
G02 X 8.6115 Y 4.9759 Z -1.0000 I -0.0606 J 0.0409
G03 X 8.5686 Y 4.9356 Z -1.0000 I 0.1186 J -0.1694
G03 X 8.4924 Y 4.8268 Z -1.0000 I 0.8211 J -0.6561
G02 X 8.4709 Y 4.8015 Z -1.0000 I -0.0906 J 0.0553
G01 X 8.4570 Y 4.7965 Z -1.0000
G01 X 8.4414 Y 4.7930 Z -1.0000
G03 X 8.3901 Y 4.7635 Z -1.0000 I 0.2055 J -0.4164
G03 X 8.3477 Y 4.7184 Z -1.0000 I 0.0751 J -0.1133
G03 X 8.3390 Y 4.6754 Z -1.0000 I 0.0591 J -0.0343
G01 X 8.3349 Y 4.6686 Z -1.0000
G01 X 8.3208 Y 4.6686 Z -1.0000
G01 X 8.3094 Y 4.6691 Z -1.0000
G01 X 8.3077 Y 4.6649 Z -1.0000
G01 X 8.3006 Y 4.6268 Z -1.0000
G02 X 8.2362 Y 4.6107 Z -1.0000 I -0.0509 J 0.0672
G01 X 8.2362 Y 4.6107 Z -1.0000
G00 Z 5.0000

(End cutting path id: path204)


(Start cutting path id: path204)
(Change tool to Default tool)

G00 Z 5.0000
G00 X 8.2573 Y 4.5005

G01 Z -1.0000 F 100.0000(Penetrate)
G02 X 8.2699 Y 4.5458 Z -1.0000 I 0.0874 J 0.0000 F 3500.0000
G02 X 8.2998 Y 4.5707 Z -1.0000 I 0.0513 J -0.0311
G01 X 8.3048 Y 4.5669 Z -1.0000
G02 X 8.2960 Y 4.5360 Z -1.0000 I -0.0954 J 0.0104
G02 X 8.2667 Y 4.4964 Z -1.0000 I -0.1163 J 0.0554
G01 X 8.2573 Y 4.5005 Z -1.0000
G01 X 8.2573 Y 4.5005 Z -1.0000
G00 Z 5.0000

(End cutting path id: path204)


(Start cutting path id: path204)
(Change tool to Default tool)

G00 Z 5.0000
G00 X 8.4702 Y 4.3658

G01 Z -1.0000 F 100.0000(Penetrate)
G01 X 8.4738 Y 4.3821 Z -1.0000 F 3500.0000
G02 X 8.4879 Y 4.4061 Z -1.0000 I 0.1094 J -0.0482
G03 X 8.5007 Y 4.4305 Z -1.0000 I -0.0675 J 0.0510
G03 X 8.5052 Y 4.4584 Z -1.0000 I -0.0840 J 0.0279
G02 X 8.5134 Y 4.5093 Z -1.0000 I 0.1630 J 0.0000
G02 X 8.5664 Y 4.6446 Z -1.0000 I 1.2311 J -0.4047
G03 X 8.5957 Y 4.7179 Z -1.0000 I -0.7198 J 0.3299
G03 X 8.5996 Y 4.7416 Z -1.0000 I -0.0691 J 0.0237
G02 X 8.6033 Y 4.7653 Z -1.0000 I 0.0786 J -0.0000
G02 X 8.6272 Y 4.8284 Z -1.0000 I 0.5900 J -0.1870
G03 X 8.6530 Y 4.8913 Z -1.0000 I -1.1688 J 0.5162
G03 X 8.6622 Y 4.9207 Z -1.0000 I -0.2443 J 0.0927
G02 X 8.6927 Y 5.0068 Z -1.0000 I 0.4634 J -0.1158
G02 X 8.7622 Y 5.1350 Z -1.0000 I 1.1013 J -0.5139
G01 X 8.7600 Y 5.1583 Z -1.0000
G01 X 8.7407 Y 5.1584 Z -1.0000
G01 X 8.7279 Y 5.1564 Z -1.0000
G01 X 8.7250 Y 5.1673 Z -1.0000
G02 X 8.7485 Y 5.1978 Z -1.0000 I 0.1350 J -0.0797
G01 X 8.7640 Y 5.2068 Z -1.0000
G01 X 8.7792 Y 5.2159 Z -1.0000
G03 X 8.8003 Y 5.2460 Z -1.0000 I -0.0997 J 0.0923
G02 X 8.8198 Y 5.2787 Z -1.0000 I 0.2697 J -0.1390
G01 X 8.8298 Y 5.2890 Z -1.0000
G01 X 8.8483 Y 5.2906 Z -1.0000
G01 X 8.8532 Y 5.2773 Z -1.0000
G03 X 8.8461 Y 5.2562 Z -1.0000 I 0.1467 J -0.0612
G03 X 8.8342 Y 5.2045 Z -1.0000 I 0.8732 J -0.2276
G03 X 8.8320 Y 5.1546 Z -1.0000 I 0.1625 J -0.0323
G01 X 8.8420 Y 5.1324 Z -1.0000
G01 X 8.8503 Y 5.1111 Z -1.0000
G02 X 8.8424 Y 5.0783 Z -1.0000 I -0.0701 J -0.0006
G03 X 8.8272 Y 5.0432 Z -1.0000 I 0.2417 J -0.1253
G03 X 8.7939 Y 4.9403 Z -1.0000 I 2.0586 J -0.7235
G02 X 8.7557 Y 4.8432 Z -1.0000 I -0.5820 J 0.1727
G01 X 8.7374 Y 4.8265 Z -1.0000
G03 X 8.6952 Y 4.7947 Z -1.0000 I 0.0349 J -0.0904
G03 X 8.6310 Y 4.6864 Z -1.0000 I 0.4376 J -0.3327
G03 X 8.6086 Y 4.5948 Z -1.0000 I 0.2394 J -0.1070
G01 X 8.6250 Y 4.5850 Z -1.0000
G01 X 8.6306 Y 4.5828 Z -1.0000
G01 X 8.6303 Y 4.5651 Z -1.0000
G03 X 8.6223 Y 4.5365 Z -1.0000 I 0.9011 J -0.2688
G03 X 8.6061 Y 4.4736 Z -1.0000 I 4.3264 J -1.1436
G02 X 8.5764 Y 4.4045 Z -1.0000 I -0.2263 J 0.0563
G01 X 8.5642 Y 4.4080 Z -1.0000
G03 X 8.5602 Y 4.4299 Z -1.0000 I -0.0617 J -0.0000
G01 X 8.5498 Y 4.4461 Z -1.0000
G01 X 8.5434 Y 4.4615 Z -1.0000
G01 X 8.5498 Y 4.4837 Z -1.0000
G03 X 8.5609 Y 4.5077 Z -1.0000 I -0.0901 J 0.0563
G03 X 8.5638 Y 4.5277 Z -1.0000 I -0.0582 J 0.0185
G01 X 8.5478 Y 4.5309 Z -1.0000
G03 X 8.5238 Y 4.4407 Z -1.0000 I 0.2501 J -0.1148
G02 X 8.4932 Y 4.3582 Z -1.0000 I -0.1667 J 0.0150
G01 X 8.4702 Y 4.3658 Z -1.0000
G01 X 8.4702 Y 4.3658 Z -1.0000
G00 Z 5.0000

(End cutting path id: path204)


(Start cutting path id: path204)
(Change tool to Default tool)

G00 Z 5.0000
G00 X 8.5228 Y 4.2827

G01 Z -1.0000 F 100.0000(Penetrate)
G01 X 8.5214 Y 4.2871 Z -1.0000 F 3500.0000
G01 X 8.5117 Y 4.2873 Z -1.0000
G01 X 8.5007 Y 4.2768 Z -1.0000
G01 X 8.5045 Y 4.2709 Z -1.0000
G01 X 8.5140 Y 4.2737 Z -1.0000
G01 X 8.5228 Y 4.2826 Z -1.0000
G01 X 8.5228 Y 4.2827 Z -1.0000
G00 Z 5.0000

(End cutting path id: path204)


(Start cutting path id: path204)
(Change tool to Default tool)

G00 Z 5.0000
G00 X 8.5054 Y 4.1671

G01 Z -1.0000 F 100.0000(Penetrate)
G01 X 8.5080 Y 4.1818 Z -1.0000 F 3500.0000
G02 X 8.5170 Y 4.2002 Z -1.0000 I 0.0821 J -0.0288
G01 X 8.5237 Y 4.2015 Z -1.0000
G01 X 8.5286 Y 4.1920 Z -1.0000
G02 X 8.5247 Y 4.1684 Z -1.0000 I -0.0698 J -0.0005
G01 X 8.5170 Y 4.1589 Z -1.0000
G01 X 8.5095 Y 4.1591 Z -1.0000
G01 X 8.5054 Y 4.1671 Z -1.0000
G01 X 8.5054 Y 4.1671 Z -1.0000
G00 Z 5.0000

(End cutting path id: path204)


(Start cutting path id: path204)
(Change tool to Default tool)

G00 Z 5.0000
G00 X 8.4228 Y 4.1449

G01 Z -1.0000 F 100.0000(Penetrate)
G01 X 8.4244 Y 4.1541 Z -1.0000 F 3500.0000
G02 X 8.4354 Y 4.1785 Z -1.0000 I 0.1869 J -0.0698
G01 X 8.4340 Y 4.1906 Z -1.0000
G01 X 8.4216 Y 4.1940 Z -1.0000
G01 X 8.3950 Y 4.1856 Z -1.0000
G01 X 8.4206 Y 4.2180 Z -1.0000
G02 X 8.5502 Y 4.3683 Z -1.0000 I 1.7277 J -1.3591
G01 X 8.5710 Y 4.3773 Z -1.0000
G01 X 8.5653 Y 4.3608 Z -1.0000
G03 X 8.5557 Y 4.3433 Z -1.0000 I 0.0405 J -0.0334
G01 X 8.5550 Y 4.3283 Z -1.0000
G01 X 8.5521 Y 4.3185 Z -1.0000
G01 X 8.5427 Y 4.3156 Z -1.0000
G01 X 8.5351 Y 4.3132 Z -1.0000
G01 X 8.5344 Y 4.3070 Z -1.0000
G01 X 8.5350 Y 4.2676 Z -1.0000
G01 X 8.5002 Y 4.2474 Z -1.0000
G01 X 8.4883 Y 4.2420 Z -1.0000
G03 X 8.4770 Y 4.2209 Z -1.0000 I 0.0401 J -0.0350
G02 X 8.4388 Y 4.1400 Z -1.0000 I -0.2431 J 0.0653
G01 X 8.4228 Y 4.1449 Z -1.0000
G01 X 8.4228 Y 4.1449 Z -1.0000
G00 Z 5.0000

(End cutting path id: path204)


(Start cutting path id: path204)
(Change tool to Default tool)

G00 Z 5.0000
G00 X 8.3636 Y 4.2467

G01 Z -1.0000 F 100.0000(Penetrate)
G01 X 8.3663 Y 4.2563 Z -1.0000 F 3500.0000
G01 X 8.3752 Y 4.2650 Z -1.0000
G01 X 8.3797 Y 4.2636 Z -1.0000
G01 X 8.3799 Y 4.2539 Z -1.0000
G01 X 8.3694 Y 4.2429 Z -1.0000
G01 X 8.3636 Y 4.2467 Z -1.0000
G01 X 8.3636 Y 4.2467 Z -1.0000
G00 Z 5.0000

(End cutting path id: path204)


(Start cutting path id: path204)
(Change tool to Default tool)

G00 Z 5.0000
G00 X 8.2927 Y 4.2297

G01 Z -1.0000 F 100.0000(Penetrate)
G02 X 8.3089 Y 4.2443 Z -1.0000 I 0.0586 J -0.0488 F 3500.0000
G01 X 8.3192 Y 4.2474 Z -1.0000
G01 X 8.3226 Y 4.2434 Z -1.0000
G01 X 8.3164 Y 4.2297 Z -1.0000
G02 X 8.3002 Y 4.2151 Z -1.0000 I -0.0586 J 0.0488
G01 X 8.2899 Y 4.2120 Z -1.0000
G01 X 8.2865 Y 4.2160 Z -1.0000
G01 X 8.2927 Y 4.2297 Z -1.0000
G01 X 8.2927 Y 4.2297 Z -1.0000
G00 Z 5.0000

(End cutting path id: path204)


(Start cutting path id: path204)
(Change tool to Default tool)

G00 Z 5.0000
G00 X 8.2691 Y 4.0807

G01 Z -1.0000 F 100.0000(Penetrate)
G01 X 8.2720 Y 4.0909 Z -1.0000 F 3500.0000
G01 X 8.2809 Y 4.0998 Z -1.0000
G01 X 8.2891 Y 4.1006 Z -1.0000
G01 X 8.2927 Y 4.0953 Z -1.0000
G01 X 8.2898 Y 4.0851 Z -1.0000
G01 X 8.2809 Y 4.0762 Z -1.0000
G01 X 8.2728 Y 4.0755 Z -1.0000
G01 X 8.2691 Y 4.0807 Z -1.0000
G01 X 8.2691 Y 4.0807 Z -1.0000
G00 Z 5.0000

(End cutting path id: path204)


(Start cutting path id: path204)
(Change tool to Default tool)

G00 Z 5.0000
G00 X 8.3636 Y 3.9606

G01 Z -1.0000 F 100.0000(Penetrate)
G01 X 8.3666 Y 3.9713 Z -1.0000 F 3500.0000
G02 X 8.3879 Y 4.0007 Z -1.0000 I 0.1907 J -0.1159
G02 X 8.4122 Y 4.0290 Z -1.0000 I 55.1531 J -47.2938
G02 X 8.4360 Y 4.0567 Z -1.0000 I 49.2612 J -42.2854
G02 X 8.4599 Y 4.0800 Z -1.0000 I 0.1434 J -0.1232
G01 X 8.4643 Y 4.0798 Z -1.0000
G01 X 8.4728 Y 4.0431 Z -1.0000
G01 X 8.4449 Y 4.0231 Z -1.0000
G01 X 8.4359 Y 4.0200 Z -1.0000
G03 X 8.3991 Y 3.9860 Z -1.0000 I 0.2490 J -0.3072
G01 X 8.3636 Y 3.9606 Z -1.0000
G01 X 8.3636 Y 3.9606 Z -1.0000
G00 Z 5.0000

(End cutting path id: path204)


(Start cutting path id: path204)
(Change tool to Default tool)

G00 Z 5.0000
G00 X 8.3754 Y 3.8886

G01 Z -1.0000 F 100.0000(Penetrate)
G02 X 8.3846 Y 3.9177 Z -1.0000 I 0.0504 J -0.0000 F 3500.0000
G02 X 8.4583 Y 4.0061 Z -1.0000 I 0.5859 J -0.4139
G03 X 8.4756 Y 4.0332 Z -1.0000 I -0.0555 J 0.0545
G03 X 8.4838 Y 4.0738 Z -1.0000 I -0.1209 J 0.0454
G02 X 8.4927 Y 4.1116 Z -1.0000 I 0.1016 J -0.0038
G01 X 8.5063 Y 4.1238 Z -1.0000
G01 X 8.5218 Y 4.1353 Z -1.0000
G03 X 8.5351 Y 4.1665 Z -1.0000 I -0.0753 J 0.0507
G02 X 8.5459 Y 4.2016 Z -1.0000 I 0.2142 J -0.0470
G02 X 8.5729 Y 4.2603 Z -1.0000 I 0.6307 J -0.2546
G03 X 8.5934 Y 4.3168 Z -1.0000 I -0.2028 J 0.1052
G01 X 8.5891 Y 4.3344 Z -1.0000
G01 X 8.5885 Y 4.3535 Z -1.0000
G02 X 8.7137 Y 4.5039 Z -1.0000 I 1.3142 J -0.9664
G01 X 8.7219 Y 4.5198 Z -1.0000
G01 X 8.7213 Y 4.5418 Z -1.0000
G01 X 8.7219 Y 4.5634 Z -1.0000
G02 X 8.7357 Y 4.5858 Z -1.0000 I 0.0538 J -0.0177
G01 X 8.7447 Y 4.5874 Z -1.0000
G01 X 8.7479 Y 4.5803 Z -1.0000
G03 X 8.7456 Y 4.5586 Z -1.0000 I 0.0518 J -0.0165
G01 X 8.7504 Y 4.5542 Z -1.0000
G03 X 8.8538 Y 4.5992 Z -1.0000 I 0.0000 J 0.1414
G03 X 8.9521 Y 4.7703 Z -1.0000 I -0.3171 J 0.2958
G02 X 9.0295 Y 4.8844 Z -1.0000 I 0.2199 J -0.0660
G01 X 9.0915 Y 4.8808 Z -1.0000
G01 X 9.0911 Y 4.8385 Z -1.0000
G02 X 8.9639 Y 4.7569 Z -1.0000 I -0.2656 J 0.2740
G01 X 8.9570 Y 4.7507 Z -1.0000
G01 X 8.9537 Y 4.7372 Z -1.0000
G01 X 8.9505 Y 4.7237 Z -1.0000
G01 X 8.9438 Y 4.7175 Z -1.0000
G01 X 8.9354 Y 4.7114 Z -1.0000
G03 X 8.8877 Y 4.6491 Z -1.0000 I 0.9164 J -0.7510
G02 X 8.8403 Y 4.5856 Z -1.0000 I -1.5350 J 1.0961
G02 X 8.8151 Y 4.5559 Z -1.0000 I -0.3604 J 0.2809
G03 X 8.7924 Y 4.5257 Z -1.0000 I 0.1338 J -0.1240
G01 X 8.7885 Y 4.5116 Z -1.0000
G01 X 8.7834 Y 4.5034 Z -1.0000
G01 X 8.7708 Y 4.5028 Z -1.0000
G01 X 8.7577 Y 4.5030 Z -1.0000
G01 X 8.7531 Y 4.4965 Z -1.0000
G01 X 8.7568 Y 4.4872 Z -1.0000
G01 X 8.7656 Y 4.4834 Z -1.0000
G01 X 8.7713 Y 4.4796 Z -1.0000
G01 X 8.7707 Y 4.4714 Z -1.0000
G01 X 8.7620 Y 4.4646 Z -1.0000
G01 X 8.7534 Y 4.4655 Z -1.0000
G01 X 8.7252 Y 4.4589 Z -1.0000
G03 X 8.6004 Y 4.2178 Z -1.0000 I 1.5317 J -0.9460
G02 X 8.5235 Y 4.0582 Z -1.0000 I -1.7573 J 0.7478
G02 X 8.4868 Y 4.0074 Z -1.0000 I -0.2099 J 0.1133
G03 X 8.4637 Y 3.9807 Z -1.0000 I 0.2717 J -0.2574
G03 X 8.4228 Y 3.9257 Z -1.0000 I 1.1042 J -0.8639
G02 X 8.3836 Y 3.8845 Z -1.0000 I -0.1597 J 0.1129
G01 X 8.3754 Y 3.8886 Z -1.0000
G01 X 8.3754 Y 3.8886 Z -1.0000
G00 Z 5.0000

(End cutting path id: path204)


(Start cutting path id: path204)
(Change tool to Default tool)

G00 Z 5.0000
G00 X 8.2455 Y 3.7777

G01 Z -1.0000 F 100.0000(Penetrate)
G01 X 8.2498 Y 3.7939 Z -1.0000 F 3500.0000
G02 X 8.2652 Y 3.8121 Z -1.0000 I 0.0574 J -0.0327
G01 X 8.2705 Y 3.8106 Z -1.0000
G01 X 8.2695 Y 3.7988 Z -1.0000
G02 X 8.2510 Y 3.7752 Z -1.0000 I -0.0725 J 0.0377
G01 X 8.2455 Y 3.7777 Z -1.0000
G01 X 8.2455 Y 3.7777 Z -1.0000
G00 Z 5.0000

(End cutting path id: path204)


(Start cutting path id: path204)
(Change tool to Default tool)

G00 Z 5.0000
G00 X 8.2691 Y 3.6803

G01 Z -1.0000 F 100.0000(Penetrate)
G01 X 8.2719 Y 3.6898 Z -1.0000 F 3500.0000
G01 X 8.2809 Y 3.6987 Z -1.0000
G01 X 8.2883 Y 3.6979 Z -1.0000
G01 X 8.2927 Y 3.6875 Z -1.0000
G01 X 8.2886 Y 3.6733 Z -1.0000
G01 X 8.2809 Y 3.6692 Z -1.0000
G01 X 8.2725 Y 3.6725 Z -1.0000
G01 X 8.2691 Y 3.6803 Z -1.0000
G01 X 8.2691 Y 3.6803 Z -1.0000
G00 Z 5.0000

(End cutting path id: path204)


(Start cutting path id: path204)
(Change tool to Default tool)

G00 Z 5.0000
G00 X 8.4285 Y 3.7162

G01 Z -1.0000 F 100.0000(Penetrate)
G01 X 8.4367 Y 3.7263 Z -1.0000 F 3500.0000
G01 X 8.4410 Y 3.7280 Z -1.0000
G01 X 8.4441 Y 3.7260 Z -1.0000
G01 X 8.4462 Y 3.7162 Z -1.0000
G01 X 8.4426 Y 3.7080 Z -1.0000
G01 X 8.4337 Y 3.7044 Z -1.0000
G01 X 8.4279 Y 3.7082 Z -1.0000
G01 X 8.4285 Y 3.7162 Z -1.0000
G01 X 8.4285 Y 3.7162 Z -1.0000
G00 Z 5.0000

(End cutting path id: path204)


(Start cutting path id: path204)
(Change tool to Default tool)

G00 Z 5.0000
G00 X 8.5052 Y 3.7225

G01 Z -1.0000 F 100.0000(Penetrate)
G02 X 8.5405 Y 3.8516 Z -1.0000 I 0.2540 J 0.0000 F 3500.0000
G01 X 8.5884 Y 3.8634 Z -1.0000
G01 X 8.5917 Y 3.8543 Z -1.0000
G02 X 8.5694 Y 3.8069 Z -1.0000 I -0.2161 J 0.0729
G03 X 8.5406 Y 3.7567 Z -1.0000 I 0.7088 J -0.4398
G03 X 8.5324 Y 3.7369 Z -1.0000 I 0.1011 J -0.0534
G01 X 8.5154 Y 3.7163 Z -1.0000
G01 X 8.5052 Y 3.7225 Z -1.0000
G01 X 8.5052 Y 3.7225 Z -1.0000
G00 Z 5.0000

(End cutting path id: path204)


(Start cutting path id: path204)
(Change tool to Default tool)

G00 Z 5.0000
G00 X 8.5431 Y 3.6780

G01 Z -1.0000 F 100.0000(Penetrate)
G03 X 8.5949 Y 3.7964 Z -1.0000 I -1.0903 J 0.5477 F 3500.0000
G03 X 8.6063 Y 3.8462 Z -1.0000 I -0.1779 J 0.0669
G02 X 8.6107 Y 3.8873 Z -1.0000 I 1.2458 J -0.1124
G01 X 8.6121 Y 3.8934 Z -1.0000
G01 X 8.6133 Y 3.8993 Z -1.0000
G01 X 8.6129 Y 3.9079 Z -1.0000
G01 X 8.6141 Y 3.9162 Z -1.0000
G02 X 8.6351 Y 3.9552 Z -1.0000 I 0.3711 J -0.1745
G03 X 8.6531 Y 3.9952 Z -1.0000 I -0.1502 J 0.0916
G03 X 8.6586 Y 4.0321 Z -1.0000 I -0.1208 J 0.0370
G02 X 8.6637 Y 4.0654 Z -1.0000 I 0.1134 J -0.0001
G01 X 8.6705 Y 4.0704 Z -1.0000
G01 X 8.6965 Y 4.0441 Z -1.0000
G02 X 8.6695 Y 3.9797 Z -1.0000 I -0.0924 J 0.0010
G01 X 8.6613 Y 3.9648 Z -1.0000
G03 X 8.6500 Y 3.8918 Z -1.0000 I 0.5595 J -0.1240
G02 X 8.6387 Y 3.8181 Z -1.0000 I -0.5974 J 0.0533
G02 X 8.6286 Y 3.7930 Z -1.0000 I -0.0776 J 0.0168
G03 X 8.6157 Y 3.7686 Z -1.0000 I 0.1622 J -0.1008
G03 X 8.6054 Y 3.7399 Z -1.0000 I 0.2147 J -0.0937
G02 X 8.5755 Y 3.6817 Z -1.0000 I -0.1642 J 0.0474
G01 X 8.5496 Y 3.6691 Z -1.0000
G01 X 8.5436 Y 3.6722 Z -1.0000
G01 X 8.5431 Y 3.6780 Z -1.0000
G01 X 8.5431 Y 3.6780 Z -1.0000
G00 Z 5.0000

(End cutting path id: path204)


(Start cutting path id: path204)
(Change tool to Default tool)

G00 Z 5.0000
G00 X 8.5857 Y 3.6042

G01 Z -1.0000 F 100.0000(Penetrate)
G02 X 8.6292 Y 3.6584 Z -1.0000 I 0.1949 J -0.1123 F 3500.0000
G01 X 8.6570 Y 3.6691 Z -1.0000
G01 X 8.6777 Y 3.6645 Z -1.0000
G01 X 8.6823 Y 3.6573 Z -1.0000
G01 X 8.6787 Y 3.6491 Z -1.0000
G01 X 8.6697 Y 3.6455 Z -1.0000
G01 X 8.6581 Y 3.6424 Z -1.0000
G03 X 8.6146 Y 3.6131 Z -1.0000 I 0.2220 J -0.3774
G02 X 8.5890 Y 3.6000 Z -1.0000 I -0.0496 J 0.0650
G01 X 8.5857 Y 3.6042 Z -1.0000
G01 X 8.5857 Y 3.6042 Z -1.0000
G00 Z 5.0000

(End cutting path id: path204)


(Start cutting path id: path204)
(Change tool to Default tool)

G00 Z 5.0000
G00 X 8.6587 Y 3.5214

G01 Z -1.0000 F 100.0000(Penetrate)
G02 X 8.6705 Y 3.5588 Z -1.0000 I 0.0648 J -0.0000 F 3500.0000
G02 X 8.7458 Y 3.6446 Z -1.0000 I 0.4470 J -0.3160
G01 X 8.7562 Y 3.6403 Z -1.0000
G02 X 8.7475 Y 3.6036 Z -1.0000 I -0.0691 J -0.0029
G03 X 8.7247 Y 3.5509 Z -1.0000 I 0.2504 J -0.1398
G01 X 8.7252 Y 3.5335 Z -1.0000
G01 X 8.7254 Y 3.5202 Z -1.0000
G01 X 8.7189 Y 3.5156 Z -1.0000
G01 X 8.7096 Y 3.5193 Z -1.0000
G01 X 8.7059 Y 3.5279 Z -1.0000
G01 X 8.7013 Y 3.5324 Z -1.0000
G01 X 8.6823 Y 3.5274 Z -1.0000
G01 X 8.6587 Y 3.5213 Z -1.0000
G01 X 8.6587 Y 3.5214 Z -1.0000
G00 Z 5.0000

(End cutting path id: path204)


(Start cutting path id: path204)
(Change tool to Default tool)

G00 Z 5.0000
G00 X 8.6232 Y 3.4677

G01 Z -1.0000 F 100.0000(Penetrate)
G01 X 8.6260 Y 3.4772 Z -1.0000 F 3500.0000
G01 X 8.6349 Y 3.4860 Z -1.0000
G01 X 8.6394 Y 3.4845 Z -1.0000
G01 X 8.6396 Y 3.4749 Z -1.0000
G01 X 8.6291 Y 3.4639 Z -1.0000
G01 X 8.6232 Y 3.4677 Z -1.0000
G01 X 8.6232 Y 3.4677 Z -1.0000
G00 Z 5.0000

(End cutting path id: path204)


(Start cutting path id: path204)
(Change tool to Default tool)

G00 Z 5.0000
G00 X 8.6708 Y 3.4454

G01 Z -1.0000 F 100.0000(Penetrate)
G01 X 8.6740 Y 3.4627 Z -1.0000 F 3500.0000
G02 X 8.6878 Y 3.4867 Z -1.0000 I 0.0995 J -0.0408
G01 X 8.7004 Y 3.4951 Z -1.0000
G01 X 8.7055 Y 3.4912 Z -1.0000
G01 X 8.7023 Y 3.4740 Z -1.0000
G02 X 8.6885 Y 3.4499 Z -1.0000 I -0.0995 J 0.0408
G01 X 8.6759 Y 3.4416 Z -1.0000
G01 X 8.6708 Y 3.4454 Z -1.0000
G01 X 8.6708 Y 3.4454 Z -1.0000
G00 Z 5.0000

(End cutting path id: path204)


(Start cutting path id: path204)
(Change tool to Default tool)

G00 Z 5.0000
G00 X 8.8241 Y 3.5474

G01 Z -1.0000 F 100.0000(Penetrate)
G01 X 8.8260 Y 3.5564 Z -1.0000 F 3500.0000
G02 X 8.8357 Y 3.5746 Z -1.0000 I 0.1116 J -0.0477
G01 X 8.8429 Y 3.5777 Z -1.0000
G01 X 8.8473 Y 3.5723 Z -1.0000
G01 X 8.8438 Y 3.5544 Z -1.0000
G01 X 8.8357 Y 3.5451 Z -1.0000
G01 X 8.8272 Y 3.5435 Z -1.0000
G01 X 8.8241 Y 3.5474 Z -1.0000
G01 X 8.8241 Y 3.5474 Z -1.0000
G00 Z 5.0000

(End cutting path id: path204)


(Start cutting path id: path204)
(Change tool to Default tool)

G00 Z 5.0000
G00 X 8.9183 Y 3.7045

G01 Z -1.0000 F 100.0000(Penetrate)
G01 X 8.9218 Y 3.7129 Z -1.0000 F 3500.0000
G01 X 8.9301 Y 3.7163 Z -1.0000
G01 X 8.9385 Y 3.7129 Z -1.0000
G01 X 8.9419 Y 3.7045 Z -1.0000
G01 X 8.9385 Y 3.6962 Z -1.0000
G01 X 8.9301 Y 3.6927 Z -1.0000
G01 X 8.9218 Y 3.6962 Z -1.0000
G01 X 8.9183 Y 3.7045 Z -1.0000
G01 X 8.9183 Y 3.7045 Z -1.0000
G00 Z 5.0000

(End cutting path id: path204)


(Start cutting path id: path204)
(Change tool to Default tool)

G00 Z 5.0000
G00 X 8.8475 Y 3.7853

G01 Z -1.0000 F 100.0000(Penetrate)
G02 X 8.8620 Y 3.8552 Z -1.0000 I 0.1758 J -0.0000 F 3500.0000
G01 X 8.8841 Y 3.8697 Z -1.0000
G01 X 8.8936 Y 3.8600 Z -1.0000
G02 X 8.8832 Y 3.8055 Z -1.0000 I -0.1593 J 0.0021
G02 X 8.8597 Y 3.7782 Z -1.0000 I -0.0497 J 0.0189
G01 X 8.8475 Y 3.7853 Z -1.0000
G01 X 8.8475 Y 3.7853 Z -1.0000
G00 Z 5.0000

(End cutting path id: path204)


(Start cutting path id: path204)
(Change tool to Default tool)

G00 Z 5.0000
G00 X 8.9674 Y 3.9287

G01 Z -1.0000 F 100.0000(Penetrate)
G01 X 8.9734 Y 3.9435 Z -1.0000 F 3500.0000
G01 X 8.9762 Y 3.9287 Z -1.0000
G01 X 8.9734 Y 3.9140 Z -1.0000
G01 X 8.9674 Y 3.9287 Z -1.0000
G01 X 8.9674 Y 3.9287 Z -1.0000
G00 Z 5.0000

(End cutting path id: path204)


(Start cutting path id: path204)
(Change tool to Default tool)

G00 Z 5.0000
G00 X 8.8947 Y 3.9879

G01 Z -1.0000 F 100.0000(Penetrate)
G02 X 8.9024 Y 4.0435 Z -1.0000 I 0.2055 J 0.0000 F 3500.0000
G02 X 8.9511 Y 4.1884 Z -1.0000 I 1.4641 J -0.4119
G03 X 8.9807 Y 4.2653 Z -1.0000 I -4.8708 J 1.9159
G03 X 9.0021 Y 4.3241 Z -1.0000 I -2.8168 J 1.0571
G02 X 9.0370 Y 4.3647 Z -1.0000 I 0.0693 J -0.0244
G01 X 9.0543 Y 4.3518 Z -1.0000
G02 X 9.0424 Y 4.3140 Z -1.0000 I -0.1861 J 0.0378
G02 X 9.0229 Y 4.2793 Z -1.0000 I -0.1761 J 0.0764
G03 X 9.0037 Y 4.2441 Z -1.0000 I 0.1381 J -0.0981
G03 X 8.9522 Y 4.1024 Z -1.0000 I 2.2252 J -0.8893
G02 X 8.9036 Y 3.9594 Z -1.0000 I -6.9375 J 2.2780
G01 X 8.8998 Y 3.9535 Z -1.0000
G01 X 8.8947 Y 3.9879 Z -1.0000
G01 X 8.8947 Y 3.9879 Z -1.0000
G00 Z 5.0000

(End cutting path id: path204)


(Start cutting path id: path204)
(Change tool to Default tool)

G00 Z 5.0000
G00 X 8.9819 Y 4.1125

G01 Z -1.0000 F 100.0000(Penetrate)
G02 X 8.9969 Y 4.1380 Z -1.0000 I 0.1354 J -0.0628 F 3500.0000
G01 X 9.0028 Y 4.1411 Z -1.0000
G01 X 9.0159 Y 4.1224 Z -1.0000
G02 X 8.9837 Y 4.0898 Z -1.0000 I -0.0523 J 0.0195
G01 X 8.9784 Y 4.0931 Z -1.0000
G01 X 8.9819 Y 4.1125 Z -1.0000
G01 X 8.9819 Y 4.1125 Z -1.0000
G00 Z 5.0000

(End cutting path id: path204)


(Start cutting path id: path204)
(Change tool to Default tool)

G00 Z 5.0000
G00 X 9.0734 Y 4.1972

G01 Z -1.0000 F 100.0000(Penetrate)
G03 X 9.1063 Y 4.2526 Z -1.0000 I -0.1596 J 0.1321 F 3500.0000
G03 X 9.1216 Y 4.3182 Z -1.0000 I -0.2100 J 0.0836
G01 X 9.1344 Y 4.3221 Z -1.0000
G01 X 9.1449 Y 4.2887 Z -1.0000
G02 X 9.1324 Y 4.2342 Z -1.0000 I -0.1688 J 0.0102
G02 X 9.1095 Y 4.2032 Z -1.0000 I -0.0743 J 0.0308
G02 X 9.0782 Y 4.1888 Z -1.0000 I -0.0421 J 0.0506
G01 X 9.0734 Y 4.1972 Z -1.0000
G01 X 9.0734 Y 4.1972 Z -1.0000
G00 Z 5.0000

(End cutting path id: path204)


(Start cutting path id: path204)
(Change tool to Default tool)

G00 Z 5.0000
G00 X 9.1780 Y 4.2532

G01 Z -1.0000 F 100.0000(Penetrate)
G02 X 9.2194 Y 4.5011 Z -1.0000 I 0.7628 J 0.0000 F 3500.0000
G02 X 9.2774 Y 4.5425 Z -1.0000 I 0.0580 J -0.0199
G01 X 9.2899 Y 4.5283 Z -1.0000
G02 X 9.2589 Y 4.3972 Z -1.0000 I -0.6366 J 0.0812
G02 X 9.1921 Y 4.2495 Z -1.0000 I -0.8784 J 0.3080
G01 X 9.1780 Y 4.2532 Z -1.0000
G01 X 9.1780 Y 4.2532 Z -1.0000
G00 Z 5.0000

(End cutting path id: path204)


(Start cutting path id: path204)
(Change tool to Default tool)

G00 Z 5.0000
G00 X 9.3477 Y 4.1323

G01 Z -1.0000 F 100.0000(Penetrate)
G03 X 9.3495 Y 4.1600 Z -1.0000 I -0.0796 J 0.0191 F 3500.0000
G01 X 9.3443 Y 4.1648 Z -1.0000
G01 X 9.3206 Y 4.1472 Z -1.0000
G03 X 9.3260 Y 4.1051 Z -1.0000 I 0.0492 J -0.0151
G01 X 9.3342 Y 4.1046 Z -1.0000
G03 X 9.3477 Y 4.1323 Z -1.0000 I -0.0555 J 0.0443
G01 X 9.3477 Y 4.1323 Z -1.0000
G00 Z 5.0000

(End cutting path id: path204)


(Start cutting path id: path204)
(Change tool to Default tool)

G00 Z 5.0000
G00 X 9.2370 Y 4.0392

G01 Z -1.0000 F 100.0000(Penetrate)
G01 X 9.2406 Y 4.0541 Z -1.0000 F 3500.0000
G02 X 9.2606 Y 4.0854 Z -1.0000 I 0.1714 J -0.0878
G03 X 9.2807 Y 4.1166 Z -1.0000 I -0.1508 J 0.1186
G01 X 9.2842 Y 4.1315 Z -1.0000
G01 X 9.2875 Y 4.1467 Z -1.0000
G02 X 9.3048 Y 4.1769 Z -1.0000 I 0.1687 J -0.0766
G03 X 9.3652 Y 4.2836 Z -1.0000 I -0.5073 J 0.3577
G03 X 9.3796 Y 4.3459 Z -1.0000 I -0.1545 J 0.0683
G02 X 9.3998 Y 4.4364 Z -1.0000 I 0.2513 J -0.0089
G01 X 9.4190 Y 4.4378 Z -1.0000
G02 X 9.4261 Y 4.4035 Z -1.0000 I -0.0433 J -0.0268
G02 X 9.3977 Y 4.2946 Z -1.0000 I -0.5205 J 0.0776
G03 X 9.3629 Y 4.1868 Z -1.0000 I 1.0490 J -0.3976
G01 X 9.3679 Y 4.1831 Z -1.0000
G01 X 9.3767 Y 4.1780 Z -1.0000
G02 X 9.3656 Y 4.1189 Z -1.0000 I -0.2010 J 0.0072
G02 X 9.3474 Y 4.0916 Z -1.0000 I -0.0623 J 0.0217
G01 X 9.3313 Y 4.0881 Z -1.0000
G01 X 9.3131 Y 4.0858 Z -1.0000
G03 X 9.2846 Y 4.0590 Z -1.0000 I 0.0531 J -0.0850
G02 X 9.2494 Y 4.0310 Z -1.0000 I -0.0664 J 0.0473
G01 X 9.2370 Y 4.0392 Z -1.0000
G01 X 9.2370 Y 4.0392 Z -1.0000
G00 Z 5.0000

(End cutting path id: path204)


(Start cutting path id: path204)
(Change tool to Default tool)

G00 Z 5.0000
G00 X 9.1188 Y 3.9685

G01 Z -1.0000 F 100.0000(Penetrate)
G01 X 9.1153 Y 3.9712 Z -1.0000 F 3500.0000
G01 X 9.1014 Y 3.9642 Z -1.0000
G01 X 9.0901 Y 3.9486 Z -1.0000
G01 X 9.0911 Y 3.9379 Z -1.0000
G01 X 9.1062 Y 3.9365 Z -1.0000
G01 X 9.1188 Y 3.9685 Z -1.0000
G01 X 9.1188 Y 3.9685 Z -1.0000
G00 Z 5.0000

(End cutting path id: path204)


(Start cutting path id: path204)
(Change tool to Default tool)

G00 Z 5.0000
G00 X 9.4377 Y 3.9618

G01 Z -1.0000 F 100.0000(Penetrate)
G01 X 9.4488 Y 3.9884 Z -1.0000 F 3500.0000
G01 X 9.4759 Y 3.9995 Z -1.0000
G01 X 9.4793 Y 3.9957 Z -1.0000
G02 X 9.4731 Y 3.9759 Z -1.0000 I -0.0553 J 0.0065
G01 X 9.4488 Y 3.9542 Z -1.0000
G01 X 9.4377 Y 3.9618 Z -1.0000
G01 X 9.4377 Y 3.9618 Z -1.0000
G00 Z 5.0000

(End cutting path id: path204)


(Start cutting path id: path204)
(Change tool to Default tool)

G00 Z 5.0000
G00 X 9.5129 Y 3.8726

G01 Z -1.0000 F 100.0000(Penetrate)
G03 X 9.5277 Y 3.9000 Z -1.0000 I -0.1976 J 0.1245 F 3500.0000
G03 X 9.5385 Y 3.9286 Z -1.0000 I -0.2024 J 0.0925
G01 X 9.5361 Y 3.9410 Z -1.0000
G01 X 9.5279 Y 3.9419 Z -1.0000
G03 X 9.5135 Y 3.9234 Z -1.0000 I 0.0358 J -0.0429
G01 X 9.5085 Y 3.9020 Z -1.0000
G01 X 9.5033 Y 3.8807 Z -1.0000
G02 X 9.4879 Y 3.8625 Z -1.0000 I -0.0486 J 0.0254
G01 X 9.4789 Y 3.8506 Z -1.0000
G01 X 9.4817 Y 3.8464 Z -1.0000
G01 X 9.4937 Y 3.8506 Z -1.0000
G03 X 9.5129 Y 3.8726 Z -1.0000 I -0.0607 J 0.0724
G01 X 9.5129 Y 3.8726 Z -1.0000
G00 Z 5.0000

(End cutting path id: path204)


(Start cutting path id: path204)
(Change tool to Default tool)

G00 Z 5.0000
G00 X 9.7564 Y 3.8608

G01 Z -1.0000 F 100.0000(Penetrate)
G01 X 9.7514 Y 3.8739 Z -1.0000 F 3500.0000
G01 X 9.7438 Y 3.8751 Z -1.0000
G03 X 9.7151 Y 3.8400 Z -1.0000 I 0.0364 J -0.0590
G01 X 9.7183 Y 3.8059 Z -1.0000
G01 X 9.7390 Y 3.8052 Z -1.0000
G03 X 9.7564 Y 3.8608 Z -1.0000 I -0.0801 J 0.0557
G01 X 9.7564 Y 3.8608 Z -1.0000
G00 Z 5.0000

(End cutting path id: path204)


(Start cutting path id: path204)
(Change tool to Default tool)

G00 Z 5.0000
G00 X 9.8055 Y 4.0703

G01 Z -1.0000 F 100.0000(Penetrate)
G01 X 9.8114 Y 4.0851 Z -1.0000 F 3500.0000
G01 X 9.8143 Y 4.0704 Z -1.0000
G01 X 9.8114 Y 4.0556 Z -1.0000
G01 X 9.8055 Y 4.0703 Z -1.0000
G01 X 9.8055 Y 4.0703 Z -1.0000
G00 Z 5.0000

(End cutting path id: path204)


(Start cutting path id: path204)
(Change tool to Default tool)

G00 Z 5.0000
G00 X 9.9690 Y 4.2306

G01 Z -1.0000 F 100.0000(Penetrate)
G02 X 9.9732 Y 4.2757 Z -1.0000 I 0.2590 J -0.0010 F 3500.0000
G02 X 9.9806 Y 4.2946 Z -1.0000 I 0.0512 J -0.0093
G01 X 9.9857 Y 4.2936 Z -1.0000
G02 X 9.9879 Y 4.2558 Z -1.0000 I -0.1445 J -0.0271
G02 X 9.9774 Y 4.2278 Z -1.0000 I -0.0530 J 0.0038
G01 X 9.9690 Y 4.2306 Z -1.0000
G01 X 9.9690 Y 4.2306 Z -1.0000
G00 Z 5.0000

(End cutting path id: path204)


(Start cutting path id: path204)
(Change tool to Default tool)

G00 Z 5.0000
G00 X 10.1273 Y 4.2892

G01 Z -1.0000 F 100.0000(Penetrate)
G02 X 10.1229 Y 4.3312 Z -1.0000 I 0.2607 J 0.0487 F 3500.0000
G02 X 10.1247 Y 4.3949 Z -1.0000 I 0.5921 J 0.0149
G03 X 10.1256 Y 4.4514 Z -1.0000 I -0.4166 J 0.0344
G01 X 10.1216 Y 4.4535 Z -1.0000
G01 X 10.1003 Y 4.4601 Z -1.0000
G02 X 10.0893 Y 4.5268 Z -1.0000 I 0.1247 J 0.0549
G01 X 10.0932 Y 4.5719 Z -1.0000
G01 X 10.1096 Y 4.5218 Z -1.0000
G03 X 10.1342 Y 4.4915 Z -1.0000 I 0.0518 J 0.0169
G01 X 10.1506 Y 4.4982 Z -1.0000
G01 X 10.1642 Y 4.4999 Z -1.0000
G02 X 10.1865 Y 4.4362 Z -1.0000 I -0.1554 J -0.0900
G03 X 10.1948 Y 4.3831 Z -1.0000 I 2.9282 J 0.4311
G03 X 10.2009 Y 4.3491 Z -1.0000 I 1.3228 J 0.2193
G02 X 10.2002 Y 4.3257 Z -1.0000 I -0.0538 J -0.0102
G01 X 10.1944 Y 4.3233 Z -1.0000
G01 X 10.1855 Y 4.3336 Z -1.0000
G02 X 10.1813 Y 4.3543 Z -1.0000 I 0.0491 J 0.0206
G01 X 10.1752 Y 4.3711 Z -1.0000
G01 X 10.1622 Y 4.3772 Z -1.0000
G01 X 10.1522 Y 4.3689 Z -1.0000
G03 X 10.1493 Y 4.3123 Z -1.0000 I 0.1917 J -0.0382
G01 X 10.1400 Y 4.2854 Z -1.0000
G01 X 10.1273 Y 4.2892 Z -1.0000
G01 X 10.1273 Y 4.2892 Z -1.0000
G00 Z 5.0000

(End cutting path id: path204)


(Start cutting path id: path204)
(Change tool to Default tool)

G00 Z 5.0000
G00 X 10.2295 Y 4.4904

G01 Z -1.0000 F 100.0000(Penetrate)
G01 X 10.2366 Y 4.4975 Z -1.0000 F 3500.0000
G01 X 10.2391 Y 4.4828 Z -1.0000
G01 X 10.2356 Y 4.4749 Z -1.0000
G01 X 10.2294 Y 4.4904 Z -1.0000
G01 X 10.2295 Y 4.4904 Z -1.0000
G00 Z 5.0000

(End cutting path id: path204)


(Start cutting path id: path204)
(Change tool to Default tool)

G00 Z 5.0000
G00 X 10.1341 Y 4.5542

G01 Z -1.0000 F 100.0000(Penetrate)
G01 X 10.1376 Y 4.5626 Z -1.0000 F 3500.0000
G01 X 10.1459 Y 4.5660 Z -1.0000
G01 X 10.1542 Y 4.5626 Z -1.0000
G01 X 10.1577 Y 4.5542 Z -1.0000
G01 X 10.1542 Y 4.5459 Z -1.0000
G01 X 10.1459 Y 4.5424 Z -1.0000
G01 X 10.1376 Y 4.5459 Z -1.0000
G01 X 10.1341 Y 4.5542 Z -1.0000
G01 X 10.1341 Y 4.5542 Z -1.0000
G00 Z 5.0000

(End cutting path id: path204)


(Start cutting path id: path204)
(Change tool to Default tool)

G00 Z 5.0000
G00 X 10.1931 Y 4.8847

G01 Z -1.0000 F 100.0000(Penetrate)
G01 X 10.1898 Y 4.8932 Z -1.0000 F 3500.0000
G01 X 10.1820 Y 4.8965 Z -1.0000
G01 X 10.1725 Y 4.8937 Z -1.0000
G01 X 10.1636 Y 4.8847 Z -1.0000
G01 X 10.1644 Y 4.8774 Z -1.0000
G01 X 10.1747 Y 4.8729 Z -1.0000
G01 X 10.1889 Y 4.8771 Z -1.0000
G01 X 10.1931 Y 4.8847 Z -1.0000
G01 X 10.1931 Y 4.8847 Z -1.0000
G00 Z 5.0000

(End cutting path id: path204)


(Start cutting path id: path204)
(Change tool to Default tool)

G00 Z 5.0000
G00 X 10.2285 Y 4.9555

G01 Z -1.0000 F 100.0000(Penetrate)
G01 X 10.2265 Y 4.9652 Z -1.0000 F 3500.0000
G01 X 10.2233 Y 4.9673 Z -1.0000
G01 X 10.2190 Y 4.9656 Z -1.0000
G01 X 10.2108 Y 4.9555 Z -1.0000
G01 X 10.2103 Y 4.9475 Z -1.0000
G01 X 10.2160 Y 4.9437 Z -1.0000
G01 X 10.2250 Y 4.9473 Z -1.0000
G01 X 10.2285 Y 4.9555 Z -1.0000
G01 X 10.2285 Y 4.9555 Z -1.0000
G00 Z 5.0000

(End cutting path id: path204)


(Start cutting path id: path204)
(Change tool to Default tool)

G00 Z 5.0000
G00 X 10.2853 Y 4.9555

G01 Z -1.0000 F 100.0000(Penetrate)
G03 X 10.2833 Y 5.0449 Z -1.0000 I -0.7704 J 0.0282 F 3500.0000
G01 X 10.2779 Y 5.0500 Z -1.0000
G01 X 10.2491 Y 5.0252 Z -1.0000
G03 X 10.2579 Y 4.9157 Z -1.0000 I 0.2404 J -0.0358
G02 X 10.2640 Y 4.8965 Z -1.0000 I -2.4412 J -0.7860
G02 X 10.2695 Y 4.8788 Z -1.0000 I -16.2123 J -5.0795
G01 X 10.2761 Y 4.8791 Z -1.0000
G03 X 10.2853 Y 4.9555 Z -1.0000 I -0.4515 J 0.0930
G01 X 10.2853 Y 4.9555 Z -1.0000
G00 Z 5.0000

(End cutting path id: path204)


(Start cutting path id: path204)
(Change tool to Default tool)

G00 Z 5.0000
G00 X 10.2327 Y 5.0293

G01 Z -1.0000 F 100.0000(Penetrate)
G03 X 10.2376 Y 5.1250 Z -1.0000 I -0.2284 J 0.0595 F 3500.0000
G01 X 10.2149 Y 5.1444 Z -1.0000
G01 X 10.2093 Y 5.1395 Z -1.0000
G03 X 10.2064 Y 5.0736 Z -1.0000 I 0.4376 J -0.0523
G03 X 10.2198 Y 5.0275 Z -1.0000 I 0.0957 J 0.0029
G01 X 10.2327 Y 5.0293 Z -1.0000
G01 X 10.2327 Y 5.0293 Z -1.0000
G00 Z 5.0000

(End cutting path id: path204)


(Start cutting path id: path204)
(Change tool to Default tool)

G00 Z 5.0000
G00 X 10.3220 Y 5.1710

G01 Z -1.0000 F 100.0000(Penetrate)
G02 X 10.3196 Y 5.1976 Z -1.0000 I 0.1354 J 0.0256 F 3500.0000
G02 X 10.3227 Y 5.2477 Z -1.0000 I 0.4719 J -0.0035
G01 X 10.3353 Y 5.2339 Z -1.0000
G02 X 10.3400 Y 5.2002 Z -1.0000 I -0.1073 J -0.0323
G01 X 10.3346 Y 5.1808 Z -1.0000
G01 X 10.3220 Y 5.1709 Z -1.0000
G01 X 10.3220 Y 5.1710 Z -1.0000
G00 Z 5.0000

(End cutting path id: path204)


(Start cutting path id: path204)
(Change tool to Default tool)

G00 Z 5.0000
G00 X 10.4650 Y 5.1474

G01 Z -1.0000 F 100.0000(Penetrate)
G01 X 10.4682 Y 5.1611 Z -1.0000 F 3500.0000
G02 X 10.4827 Y 5.1850 Z -1.0000 I 0.1230 J -0.0580
G01 X 10.4927 Y 5.1861 Z -1.0000
G01 X 10.5000 Y 5.1703 Z -1.0000
G02 X 10.4931 Y 5.1395 Z -1.0000 I -0.0723 J -0.0000
G01 X 10.4823 Y 5.1326 Z -1.0000
G01 X 10.4695 Y 5.1373 Z -1.0000
G01 X 10.4650 Y 5.1474 Z -1.0000
G01 X 10.4650 Y 5.1474 Z -1.0000
G00 Z 5.0000

(End cutting path id: path204)


(Start cutting path id: path204)
(Change tool to Default tool)

G00 Z 5.0000
G00 X 10.6131 Y 5.2242

G01 Z -1.0000 F 100.0000(Penetrate)
G01 X 10.6036 Y 5.2217 Z -1.0000 F 3500.0000
G03 X 10.6035 Y 5.1912 Z -1.0000 I 0.0535 J -0.0155
G01 X 10.6116 Y 5.1622 Z -1.0000
G01 X 10.6157 Y 5.1897 Z -1.0000
G03 X 10.6167 Y 5.2162 Z -1.0000 I -0.1153 J 0.0175
G01 X 10.6130 Y 5.2242 Z -1.0000
G01 X 10.6131 Y 5.2242 Z -1.0000
G00 Z 5.0000

(End cutting path id: path204)


(Start cutting path id: path204)
(Change tool to Default tool)

G00 Z 5.0000
G00 X 10.6474 Y 5.0884

G01 Z -1.0000 F 100.0000(Penetrate)
G02 X 10.6398 Y 5.1150 Z -1.0000 I 7.8984 J 2.2706 F 3500.0000
G02 X 10.6340 Y 5.1356 Z -1.0000 I 3.7649 J 1.0686
G01 X 10.6253 Y 5.1525 Z -1.0000
G01 X 10.6173 Y 5.1563 Z -1.0000
G01 X 10.6116 Y 5.1521 Z -1.0000
G01 X 10.6110 Y 5.1356 Z -1.0000
G03 X 10.6331 Y 5.0688 Z -1.0000 I 0.3472 J 0.0778
G01 X 10.6438 Y 5.0619 Z -1.0000
G01 X 10.6491 Y 5.0664 Z -1.0000
G03 X 10.6474 Y 5.0884 Z -1.0000 I -0.0532 J 0.0072
G01 X 10.6474 Y 5.0884 Z -1.0000
G00 Z 5.0000

(End cutting path id: path204)


(Start cutting path id: path204)
(Change tool to Default tool)

G00 Z 5.0000
G00 X 10.6364 Y 4.8584

G01 Z -1.0000 F 100.0000(Penetrate)
G01 X 10.6295 Y 4.8602 Z -1.0000 F 3500.0000
G01 X 10.6168 Y 4.8527 Z -1.0000
G01 X 10.6117 Y 4.8390 Z -1.0000
G03 X 10.6199 Y 4.8122 Z -1.0000 I 0.0639 J 0.0049
G01 X 10.6356 Y 4.7844 Z -1.0000
G01 X 10.6395 Y 4.8179 Z -1.0000
G03 X 10.6402 Y 4.8503 Z -1.0000 I -0.1642 J 0.0196
G01 X 10.6364 Y 4.8585 Z -1.0000
G01 X 10.6364 Y 4.8584 Z -1.0000
G00 Z 5.0000

(End cutting path id: path204)


(Start cutting path id: path204)
(Change tool to Default tool)

G00 Z 5.0000
G00 X 10.7901 Y 4.7616

G01 Z -1.0000 F 100.0000(Penetrate)
G01 X 10.7781 Y 4.7830 Z -1.0000 F 3500.0000
G02 X 10.7696 Y 4.8472 Z -1.0000 I 0.3054 J 0.0729
G02 X 10.7713 Y 4.9213 Z -1.0000 I 0.7382 J 0.0205
G02 X 10.7793 Y 4.9807 Z -1.0000 I 0.4836 J -0.0352
G01 X 10.7697 Y 5.0201 Z -1.0000
G01 X 10.7505 Y 5.0167 Z -1.0000
G01 X 10.7285 Y 5.0057 Z -1.0000
G01 X 10.7129 Y 5.0293 Z -1.0000
G03 X 10.7092 Y 5.0630 Z -1.0000 I -0.0894 J 0.0072
G01 X 10.7022 Y 5.0639 Z -1.0000
G03 X 10.6931 Y 5.0155 Z -1.0000 I 0.0562 J -0.0356
G03 X 10.7345 Y 4.8995 Z -1.0000 I 0.4076 J 0.0800
G02 X 10.7436 Y 4.8734 Z -1.0000 I -0.0771 J -0.0415
G02 X 10.7479 Y 4.8254 Z -1.0000 I -0.2677 J -0.0480
G03 X 10.7756 Y 4.7179 Z -1.0000 I 0.2222 J -0.0000
G01 X 10.8047 Y 4.7226 Z -1.0000
G01 X 10.8031 Y 4.7414 Z -1.0000
G03 X 10.7900 Y 4.7616 Z -1.0000 I -0.0533 J -0.0200
G01 X 10.7901 Y 4.7616 Z -1.0000
G00 Z 5.0000

(End cutting path id: path204)


(Start cutting path id: path204)
(Change tool to Default tool)

G00 Z 5.0000
G00 X 10.9382 Y 4.7393

G01 Z -1.0000 F 100.0000(Penetrate)
G01 X 10.9296 Y 4.7455 Z -1.0000 F 3500.0000
G01 X 10.9253 Y 4.7422 Z -1.0000
G01 X 10.9339 Y 4.7138 Z -1.0000
G01 X 10.9457 Y 4.7127 Z -1.0000
G01 X 10.9471 Y 4.7183 Z -1.0000
G03 X 10.9382 Y 4.7393 Z -1.0000 I -0.0889 J -0.0254
G01 X 10.9382 Y 4.7393 Z -1.0000
G00 Z 5.0000

(End cutting path id: path204)


(Start cutting path id: path204)
(Change tool to Default tool)

G00 Z 5.0000
G00 X 11.0186 Y 4.8309

G01 Z -1.0000 F 100.0000(Penetrate)
G03 X 10.9896 Y 4.8617 Z -1.0000 I -0.1312 J -0.0942 F 3500.0000
G01 X 10.9852 Y 4.8581 Z -1.0000
G03 X 11.0400 Y 4.7719 Z -1.0000 I 0.5368 J 0.2807
G01 X 11.0514 Y 4.7712 Z -1.0000
G01 X 11.0523 Y 4.7774 Z -1.0000
G03 X 11.0186 Y 4.8309 Z -1.0000 I -0.4565 J -0.2503
G01 X 11.0186 Y 4.8309 Z -1.0000
G00 Z 5.0000

(End cutting path id: path204)


(Start cutting path id: path204)
(Change tool to Default tool)

G00 Z 5.0000
G00 X 10.7715 Y 4.5956

G01 Z -1.0000 F 100.0000(Penetrate)
G03 X 10.7662 Y 4.6434 Z -1.0000 I -0.2210 J -0.0000 F 3500.0000
G01 X 10.7597 Y 4.6487 Z -1.0000
G01 X 10.7531 Y 4.6434 Z -1.0000
G03 X 10.7479 Y 4.5956 Z -1.0000 I 0.2157 J -0.0479
G03 X 10.7531 Y 4.5477 Z -1.0000 I 0.2210 J 0.0000
G01 X 10.7597 Y 4.5424 Z -1.0000
G01 X 10.7662 Y 4.5477 Z -1.0000
G03 X 10.7715 Y 4.5956 Z -1.0000 I -0.2157 J 0.0479
G01 X 10.7715 Y 4.5956 Z -1.0000
G00 Z 5.0000

(End cutting path id: path204)


(Start cutting path id: path204)
(Change tool to Default tool)

G00 Z 5.0000
G00 X 10.6771 Y 4.5769

G01 Z -1.0000 F 100.0000(Penetrate)
G02 X 10.6823 Y 4.6076 Z -1.0000 I 0.0923 J 0.0000 F 3500.0000
G01 X 10.6907 Y 4.6159 Z -1.0000
G01 X 10.6973 Y 4.6241 Z -1.0000
G03 X 10.6943 Y 4.6552 Z -1.0000 I -0.0840 J 0.0076
G01 X 10.6843 Y 4.6900 Z -1.0000
G01 X 10.6798 Y 4.6546 Z -1.0000
G02 X 10.6721 Y 4.6207 Z -1.0000 I -0.1812 J 0.0233
G01 X 10.6644 Y 4.6079 Z -1.0000
G03 X 10.6459 Y 4.5615 Z -1.0000 I 0.0468 J -0.0455
G01 X 10.6653 Y 4.5424 Z -1.0000
G01 X 10.6722 Y 4.5474 Z -1.0000
G03 X 10.6771 Y 4.5769 Z -1.0000 I -0.0862 J 0.0295
G01 X 10.6771 Y 4.5769 Z -1.0000
G00 Z 5.0000

(End cutting path id: path204)


(Start cutting path id: path204)
(Change tool to Default tool)

G00 Z 5.0000
G00 X 10.5751 Y 4.5051

G01 Z -1.0000 F 100.0000(Penetrate)
G03 X 10.5595 Y 4.5367 Z -1.0000 I -0.0504 J -0.0052 F 3500.0000
G01 X 10.5472 Y 4.5314 Z -1.0000
G03 X 10.5613 Y 4.4308 Z -1.0000 I 0.3666 J -0.0000
G01 X 10.5771 Y 4.4267 Z -1.0000
G01 X 10.5798 Y 4.4334 Z -1.0000
G03 X 10.5751 Y 4.5051 Z -1.0000 I -0.9088 J -0.0232
G01 X 10.5751 Y 4.5051 Z -1.0000
G00 Z 5.0000

(End cutting path id: path204)


(Start cutting path id: path204)
(Change tool to Default tool)

G00 Z 5.0000
G00 X 10.5393 Y 4.6516

G01 Z -1.0000 F 100.0000(Penetrate)
G02 X 10.5330 Y 4.6903 Z -1.0000 I 0.2113 J 0.0541 F 3500.0000
G02 X 10.5322 Y 4.7524 Z -1.0000 I 0.5438 J 0.0383
G03 X 10.5291 Y 4.8051 Z -1.0000 I -0.2641 J 0.0111
G01 X 10.5233 Y 4.8078 Z -1.0000
G03 X 10.4607 Y 4.6848 Z -1.0000 I 0.0699 J -0.1130
G03 X 10.5378 Y 4.6132 Z -1.0000 I 0.0772 J 0.0058
G01 X 10.5428 Y 4.6181 Z -1.0000
G03 X 10.5393 Y 4.6516 Z -1.0000 I -0.1177 J 0.0046
G01 X 10.5393 Y 4.6516 Z -1.0000
G00 Z 5.0000

(End cutting path id: path204)


(Start cutting path id: path204)
(Change tool to Default tool)

G00 Z 5.0000
G00 X 10.4801 Y 4.7324

G01 Z -1.0000 F 100.0000(Penetrate)
G02 X 10.4794 Y 4.8768 Z -1.0000 I 1.4741 J 0.0795 F 3500.0000
G02 X 10.4879 Y 4.9079 Z -1.0000 I 0.0725 J -0.0032
G03 X 10.4974 Y 4.9331 Z -1.0000 I -0.0913 J 0.0488
G03 X 10.5093 Y 4.9989 Z -1.0000 I -0.6213 J 0.1457
G01 X 10.5311 Y 5.0179 Z -1.0000
G01 X 10.5525 Y 4.9984 Z -1.0000
G02 X 10.5532 Y 4.9236 Z -1.0000 I -0.3806 J -0.0407
G02 X 10.5426 Y 4.8872 Z -1.0000 I -0.0979 J 0.0088
G03 X 10.5297 Y 4.8531 Z -1.0000 I 0.1408 J -0.0726
G01 X 10.5320 Y 4.8448 Z -1.0000
G01 X 10.5493 Y 4.8491 Z -1.0000
G03 X 10.5783 Y 4.9981 Z -1.0000 I -0.7208 J 0.2176
G03 X 10.5772 Y 5.0654 Z -1.0000 I -0.3098 J 0.0286
G01 X 10.5685 Y 5.0765 Z -1.0000
G01 X 10.5592 Y 5.0876 Z -1.0000
G02 X 10.5531 Y 5.1543 Z -1.0000 I 0.3135 J 0.0625
G02 X 10.5637 Y 5.2220 Z -1.0000 I 0.2414 J -0.0032
G02 X 10.5861 Y 5.2618 Z -1.0000 I 0.1023 J -0.0314
G02 X 10.6587 Y 5.2955 Z -1.0000 I 0.0753 J -0.0671
G02 X 10.7151 Y 5.2653 Z -1.0000 I 0.0018 J -0.0645
G03 X 10.7358 Y 5.2332 Z -1.0000 I 1.2921 J 0.8111
G03 X 10.7505 Y 5.2119 Z -1.0000 I 0.5745 J 0.3811
G01 X 10.7558 Y 5.1928 Z -1.0000
G01 X 10.7479 Y 5.1796 Z -1.0000
G01 X 10.7201 Y 5.1754 Z -1.0000
G01 X 10.7041 Y 5.1916 Z -1.0000
G01 X 10.6889 Y 5.2029 Z -1.0000
G01 X 10.6734 Y 5.1905 Z -1.0000
G03 X 10.6802 Y 5.1127 Z -1.0000 I 0.1128 J -0.0294
G01 X 10.7214 Y 5.0857 Z -1.0000
G01 X 10.7314 Y 5.0808 Z -1.0000
G01 X 10.7361 Y 5.0677 Z -1.0000
G01 X 10.7402 Y 5.0540 Z -1.0000
G01 X 10.7477 Y 5.0500 Z -1.0000
G01 X 10.7537 Y 5.0551 Z -1.0000
G03 X 10.7549 Y 5.0956 Z -1.0000 I -0.1602 J 0.0251
G02 X 10.7728 Y 5.1407 Z -1.0000 I 0.0527 J 0.0051
G01 X 10.8106 Y 5.1441 Z -1.0000
G03 X 10.8563 Y 5.1399 Z -1.0000 I 0.0273 J 0.0463
G01 X 10.8703 Y 5.1658 Z -1.0000
G01 X 10.8526 Y 5.1905 Z -1.0000
G01 X 10.8363 Y 5.1874 Z -1.0000
G01 X 10.8115 Y 5.1813 Z -1.0000
G01 X 10.7952 Y 5.2073 Z -1.0000
G03 X 10.7661 Y 5.2814 Z -1.0000 I -0.1092 J -0.0000
G03 X 10.6853 Y 5.3261 Z -1.0000 I -0.1079 J -0.0997
G02 X 10.6474 Y 5.3371 Z -1.0000 I 0.0387 J 0.2051
G02 X 10.6231 Y 5.3507 Z -1.0000 I 0.0378 J 0.0957
G01 X 10.6219 Y 5.3608 Z -1.0000
G01 X 10.6374 Y 5.3683 Z -1.0000
G03 X 10.6679 Y 5.3770 Z -1.0000 I -0.0006 J 0.0600
G01 X 10.6817 Y 5.3952 Z -1.0000
G01 X 10.6922 Y 5.4007 Z -1.0000
G01 X 10.7131 Y 5.3844 Z -1.0000
G03 X 10.7414 Y 5.3523 Z -1.0000 I 0.1208 J 0.0780
G03 X 10.7721 Y 5.3348 Z -1.0000 I 0.0628 J 0.0748
G02 X 10.8556 Y 5.2869 Z -1.0000 I -0.0859 J -0.2463
G02 X 10.9074 Y 5.2193 Z -1.0000 I -0.1323 J -0.1549
G03 X 10.9293 Y 5.1889 Z -1.0000 I 0.0936 J 0.0444
G01 X 10.9390 Y 5.1890 Z -1.0000
G01 X 10.9433 Y 5.2018 Z -1.0000
G03 X 10.9328 Y 5.2345 Z -1.0000 I -0.0973 J -0.0132
G03 X 10.9094 Y 5.2671 Z -1.0000 I -0.1315 J -0.0694
G03 X 10.7354 Y 5.4437 Z -1.0000 I -4.1349 J -3.9010
G02 X 10.7108 Y 5.4893 Z -1.0000 I 0.0600 J 0.0617
G01 X 10.7243 Y 5.5019 Z -1.0000
G01 X 10.7427 Y 5.4917 Z -1.0000
G01 X 10.7479 Y 5.4794 Z -1.0000
G01 X 10.7519 Y 5.4671 Z -1.0000
G01 X 10.7597 Y 5.4631 Z -1.0000
G01 X 10.7649 Y 5.4695 Z -1.0000
G03 X 10.7479 Y 5.5193 Z -1.0000 I -0.2125 J -0.0446
G02 X 10.7380 Y 5.5683 Z -1.0000 I 0.0909 J 0.0439
G01 X 10.7509 Y 5.5790 Z -1.0000
G01 X 10.7701 Y 5.5697 Z -1.0000
G01 X 10.7745 Y 5.5566 Z -1.0000
G01 X 10.7776 Y 5.5401 Z -1.0000
G03 X 10.8012 Y 5.5102 Z -1.0000 I 0.1120 J 0.0641
G01 X 10.8295 Y 5.4972 Z -1.0000
G01 X 10.8480 Y 5.5052 Z -1.0000
G03 X 10.8624 Y 5.5290 Z -1.0000 I -0.1056 J 0.0800
G01 X 10.8657 Y 5.5428 Z -1.0000
G01 X 10.9015 Y 5.5605 Z -1.0000
G02 X 10.9369 Y 5.4911 Z -1.0000 I -0.0504 J -0.0694
G03 X 10.9593 Y 5.4038 Z -1.0000 I 0.1812 J 0.0000
G01 X 10.9976 Y 5.3806 Z -1.0000
G01 X 11.0009 Y 5.3840 Z -1.0000
G03 X 10.9954 Y 5.4241 Z -1.0000 I -0.2372 J -0.0121
G02 X 10.9994 Y 5.4699 Z -1.0000 I 0.0737 J 0.0166
G01 X 11.0173 Y 5.4764 Z -1.0000
G03 X 11.0379 Y 5.4703 Z -1.0000 I 0.0254 J 0.0489
G03 X 11.0738 Y 5.4715 Z -1.0000 I 0.0132 J 0.1531
G02 X 11.1093 Y 5.4698 Z -1.0000 I 0.0135 J -0.0891
G02 X 11.1685 Y 5.4476 Z -1.0000 I -0.0693 J -0.2755
G03 X 11.3458 Y 5.3867 Z -1.0000 I 0.3081 J 0.6081
G01 X 11.3589 Y 5.4104 Z -1.0000
G01 X 11.3487 Y 5.4172 Z -1.0000
G03 X 11.3293 Y 5.4221 Z -1.0000 I -0.0276 J -0.0695
G02 X 11.2844 Y 5.4367 Z -1.0000 I 0.0128 J 0.1159
G02 X 11.2235 Y 5.4825 Z -1.0000 I 0.1503 J 0.2633
G03 X 11.1804 Y 5.5176 Z -1.0000 I -0.2224 J -0.2290
G03 X 11.1333 Y 5.5437 Z -1.0000 I -0.1683 J -0.2478
G02 X 10.9547 Y 5.6604 Z -1.0000 I 0.2673 J 0.6042
G01 X 10.9537 Y 5.7080 Z -1.0000
G01 X 10.9886 Y 5.7163 Z -1.0000
G02 X 11.0526 Y 5.6753 Z -1.0000 I -0.0482 J -0.1455
G03 X 11.2647 Y 5.5555 Z -1.0000 I 0.2950 J 0.2747
G03 X 11.3382 Y 5.6152 Z -1.0000 I 0.0125 J 0.0597
G01 X 11.3282 Y 5.6299 Z -1.0000
G03 X 11.2753 Y 5.6403 Z -1.0000 I -0.0540 J -0.1357
G01 X 11.2642 Y 5.6446 Z -1.0000
G01 X 11.2647 Y 5.6500 Z -1.0000
G01 X 11.2746 Y 5.6770 Z -1.0000
G03 X 11.2354 Y 5.7434 Z -1.0000 I -0.1622 J -0.0508
G03 X 11.1869 Y 5.7741 Z -1.0000 I -0.0857 J -0.0816
G01 X 11.1730 Y 5.7640 Z -1.0000
G01 X 11.1677 Y 5.7517 Z -1.0000
G01 X 11.1543 Y 5.7463 Z -1.0000
G01 X 11.1429 Y 5.7413 Z -1.0000
G01 X 11.1410 Y 5.7316 Z -1.0000
G01 X 11.1488 Y 5.7211 Z -1.0000
G01 X 11.1577 Y 5.7191 Z -1.0000
G01 X 11.1648 Y 5.7163 Z -1.0000
G01 X 11.1690 Y 5.7031 Z -1.0000
G01 X 11.1412 Y 5.6801 Z -1.0000
G02 X 11.0511 Y 5.7256 Z -1.0000 I 0.0344 J 0.1798
G02 X 11.0282 Y 5.7659 Z -1.0000 I 0.0525 J 0.0567
G01 X 11.0402 Y 5.7761 Z -1.0000
G03 X 11.0960 Y 5.7669 Z -1.0000 I 0.0491 J 0.1240
G03 X 11.1331 Y 5.7808 Z -1.0000 I -0.0033 J 0.0653
G01 X 11.1610 Y 5.8027 Z -1.0000
G01 X 11.1320 Y 5.8217 Z -1.0000
G03 X 11.1022 Y 5.8382 Z -1.0000 I -0.1262 J -0.1925
G01 X 11.0907 Y 5.8407 Z -1.0000
G01 X 11.0821 Y 5.8442 Z -1.0000
G01 X 11.0785 Y 5.8524 Z -1.0000
G01 X 11.0736 Y 5.8598 Z -1.0000
G03 X 11.0318 Y 5.8715 Z -1.0000 I -0.0716 J -0.1747
G01 X 11.0037 Y 5.8885 Z -1.0000
G01 X 11.0018 Y 5.9115 Z -1.0000
G02 X 11.0399 Y 5.9475 Z -1.0000 I 0.0702 J -0.0363
G02 X 11.0878 Y 5.9498 Z -1.0000 I 0.0270 J -0.0606
G01 X 11.0904 Y 5.9374 Z -1.0000
G01 X 11.0669 Y 5.9310 Z -1.0000
G03 X 11.0363 Y 5.9296 Z -1.0000 I -0.0125 J -0.0624
G01 X 11.0241 Y 5.9184 Z -1.0000
G01 X 11.0212 Y 5.8998 Z -1.0000
G01 X 11.0255 Y 5.8904 Z -1.0000
G01 X 11.0328 Y 5.8892 Z -1.0000
G01 X 11.0398 Y 5.8968 Z -1.0000
G01 X 11.0482 Y 5.9071 Z -1.0000
G01 X 11.0637 Y 5.9115 Z -1.0000
G01 X 11.0749 Y 5.9084 Z -1.0000
G01 X 11.0753 Y 5.9044 Z -1.0000
G01 X 11.0818 Y 5.8637 Z -1.0000
