%
(Header)
(Generated by gcodetools from Inkscape.)
(Using default header. To add your own header create file "header" in the output dir.)
M3
(Header end.)
G21 (All units in mm)

(Start cutting path id: path89121)
(Change tool to Default tool)

G00 Z 5.0000
G00 X 25.3208 Y 7.9136

G01 Z -1.0000 F 100.0000(Penetrate)
G01 X 25.3037 Y 7.9228 Z -1.0000 F 3500.0000
G03 X 25.2278 Y 7.9243 Z -1.0000 I -0.0462 J -0.4005
G01 X 25.2116 Y 7.9261 Z -1.0000
G02 X 25.1665 Y 7.9430 Z -1.0000 I 0.1101 J 0.3615
G02 X 25.1251 Y 7.9674 Z -1.0000 I 0.0903 J 0.2012
G02 X 25.0721 Y 8.0133 Z -1.0000 I 0.2806 J 0.3768
G02 X 25.0249 Y 8.0655 Z -1.0000 I 0.5481 J 0.5435
G02 X 25.0115 Y 8.0868 Z -1.0000 I 0.0760 J 0.0627
G03 X 24.9990 Y 8.1087 Z -1.0000 I -0.1383 J -0.0641
G03 X 24.9874 Y 8.1221 Z -1.0000 I -0.0622 J -0.0425
G02 X 24.9763 Y 8.1351 Z -1.0000 I 0.0452 J 0.0499
G01 X 24.9741 Y 8.1424 Z -1.0000
G01 X 24.9722 Y 8.1500 Z -1.0000
G01 X 24.9645 Y 8.1604 Z -1.0000
G01 X 24.9571 Y 8.1713 Z -1.0000
G02 X 24.9467 Y 8.2016 Z -1.0000 I 0.1898 J 0.0821
G03 X 24.9369 Y 8.2320 Z -1.0000 I -0.2675 J -0.0694
G01 X 24.9329 Y 8.2371 Z -1.0000
G01 X 24.9294 Y 8.2423 Z -1.0000
G02 X 24.9266 Y 8.2648 Z -1.0000 I 0.1163 J 0.0262
G01 X 24.9216 Y 8.2885 Z -1.0000
G01 X 24.9191 Y 8.2904 Z -1.0000
G02 X 24.9172 Y 8.3064 Z -1.0000 I 0.0649 J 0.0160
G03 X 24.9094 Y 8.6228 Z -1.0000 I -9.5112 J -0.0758
G03 X 24.9033 Y 8.6452 Z -1.0000 I -0.0524 J -0.0022
G02 X 24.8954 Y 8.6761 Z -1.0000 I 0.0600 J 0.0318
G02 X 24.8881 Y 9.6715 Z -1.0000 I 65.2893 J 0.9727
G03 X 24.8854 Y 9.7595 Z -1.0000 I -1.4025 J 0.0005
G01 X 24.8822 Y 9.7647 Z -1.0000
G01 X 24.8724 Y 9.7832 Z -1.0000
G01 X 24.8833 Y 9.7937 Z -1.0000
G01 X 24.9146 Y 9.8253 Z -1.0000
G03 X 24.8822 Y 9.8850 Z -1.0000 I -0.0728 J -0.0007
G01 X 24.8798 Y 9.8897 Z -1.0000
G02 X 24.8833 Y 9.9372 Z -1.0000 I 0.4541 J -0.0097
G03 X 24.8869 Y 9.9860 Z -1.0000 I -0.4518 J 0.0573
G03 X 24.8859 Y 10.0804 Z -1.0000 I -1.6557 J 0.0307
G02 X 24.8840 Y 10.1749 Z -1.0000 I 2.9962 J 0.1095
G02 X 24.8842 Y 10.4323 Z -1.0000 I 21.3104 J 0.1068
G03 X 24.8854 Y 10.6896 Z -1.0000 I -54.4268 J 0.3845
G03 X 24.8850 Y 10.8069 Z -1.0000 I -10.2436 J 0.0239
G02 X 24.8813 Y 11.4055 Z -1.0000 I 121.3301 J 1.0638
G02 X 24.8818 Y 11.6051 Z -1.0000 I 14.9060 J 0.0571
G03 X 24.8919 Y 14.4551 Z -1.0000 I -234.0526 J 2.2476
G03 X 24.8744 Y 14.5155 Z -1.0000 I -0.1147 J -0.0003
G01 X 24.8726 Y 14.5235 Z -1.0000
G02 X 24.8803 Y 14.5739 Z -1.0000 I 0.4903 J -0.0500
G03 X 24.8874 Y 14.6241 Z -1.0000 I -0.3917 J 0.0805
G01 X 24.8849 Y 14.6348 Z -1.0000
G01 X 24.8792 Y 14.6559 Z -1.0000
G02 X 24.8864 Y 15.2639 Z -1.0000 I 31.9167 J -0.0764
G03 X 24.8904 Y 15.4528 Z -1.0000 I -1417.6131 J 30.0041
G02 X 24.8909 Y 15.4756 Z -1.0000 I 7.9149 J -0.1665
G03 X 24.8911 Y 15.4984 Z -1.0000 I -0.8229 J 0.0171
G03 X 24.8895 Y 15.6711 Z -1.0000 I -42.3234 J -0.2952
G02 X 24.8885 Y 15.8438 Z -1.0000 I 19.6736 J 0.2072
G02 X 24.8887 Y 16.1715 Z -1.0000 I 66.1505 J 0.1159
G03 X 24.8878 Y 16.4986 Z -1.0000 I -27.1830 J 0.0837
G01 X 24.8857 Y 16.5057 Z -1.0000
G01 X 24.8835 Y 16.5127 Z -1.0000
G02 X 24.8790 Y 16.6373 Z -1.0000 I 4.3110 J 0.2186
G03 X 24.8756 Y 16.7625 Z -1.0000 I -11.6100 J -0.2529
G03 X 24.8734 Y 16.8082 Z -1.0000 I -1.4669 J -0.0478
G02 X 24.8705 Y 16.8538 Z -1.0000 I 32.1855 J 2.0525
G02 X 24.8663 Y 16.9222 Z -1.0000 I 56.0086 J 3.4920
G03 X 24.8499 Y 17.0974 Z -1.0000 I -2.8032 J -0.1739
G03 X 24.8410 Y 17.1234 Z -1.0000 I -0.0669 J -0.0084
G02 X 24.8344 Y 17.1434 Z -1.0000 I 0.0433 J 0.0255
G02 X 24.8278 Y 17.2447 Z -1.0000 I 1.1340 J 0.1248
G03 X 24.8251 Y 17.2833 Z -1.0000 I -0.4026 J -0.0083
G01 X 24.8223 Y 17.2914 Z -1.0000
G01 X 24.8192 Y 17.2996 Z -1.0000
G02 X 24.8144 Y 17.3370 Z -1.0000 I 0.4442 J 0.0761
G03 X 24.8033 Y 17.4474 Z -1.0000 I -3.5224 J -0.2969
G03 X 24.7978 Y 17.4793 Z -1.0000 I -0.2948 J -0.0342
G02 X 24.7932 Y 17.5055 Z -1.0000 I 0.2605 J 0.0600
G02 X 24.7917 Y 17.5266 Z -1.0000 I 0.1771 J 0.0226
G03 X 24.7887 Y 17.5448 Z -1.0000 I -0.0587 J -0.0004
G01 X 24.7846 Y 17.5477 Z -1.0000
G01 X 24.7813 Y 17.5504 Z -1.0000
G01 X 24.7816 Y 17.5601 Z -1.0000
G03 X 24.7879 Y 17.6125 Z -1.0000 I -0.1345 J 0.0425
G03 X 24.7705 Y 17.7172 Z -1.0000 I -0.5642 J -0.0396
G02 X 24.7548 Y 17.7792 Z -1.0000 I 3.0551 J 0.8075
G02 X 24.7460 Y 17.8181 Z -1.0000 I 1.2552 J 0.3047
G03 X 24.7266 Y 17.8988 Z -1.0000 I -1.4505 J -0.3052
G03 X 24.7065 Y 17.9648 Z -1.0000 I -0.9863 J -0.2660
G02 X 24.6961 Y 18.0010 Z -1.0000 I 0.3329 J 0.1148
G02 X 24.6920 Y 18.0278 Z -1.0000 I 0.1823 J 0.0417
G03 X 24.6871 Y 18.0539 Z -1.0000 I -0.1253 J -0.0101
G01 X 24.6804 Y 18.0663 Z -1.0000
G01 X 24.6731 Y 18.0783 Z -1.0000
G01 X 24.6700 Y 18.0912 Z -1.0000
G03 X 24.6683 Y 18.1047 Z -1.0000 I -0.1591 J -0.0130
G03 X 24.6661 Y 18.1146 Z -1.0000 I -0.0954 J -0.0161
G02 X 24.6634 Y 18.1245 Z -1.0000 I 0.5409 J 0.1503
G02 X 24.6585 Y 18.1439 Z -1.0000 I 2.8836 J 0.7450
G03 X 24.6531 Y 18.1633 Z -1.0000 I -0.3082 J -0.0745
G03 X 24.6470 Y 18.1812 Z -1.0000 I -0.2927 J -0.0908
G02 X 24.6417 Y 18.1991 Z -1.0000 I 0.1115 J 0.0425
G02 X 24.6380 Y 18.2235 Z -1.0000 I 0.2161 J 0.0454
G03 X 24.6318 Y 18.2520 Z -1.0000 I -0.1237 J -0.0118
G03 X 24.6140 Y 18.2935 Z -1.0000 I -0.2855 J -0.0980
G02 X 24.6088 Y 18.3067 Z -1.0000 I 0.0559 J 0.0295
G02 X 24.6043 Y 18.3294 Z -1.0000 I 0.1742 J 0.0465
G03 X 24.5994 Y 18.3513 Z -1.0000 I -0.1268 J -0.0170
G01 X 24.5959 Y 18.3558 Z -1.0000
G01 X 24.5925 Y 18.3601 Z -1.0000
G01 X 24.5914 Y 18.3688 Z -1.0000
G03 X 24.5861 Y 18.4221 Z -1.0000 I -0.1459 J 0.0123
G01 X 24.5693 Y 18.4442 Z -1.0000
G01 X 24.5656 Y 18.4488 Z -1.0000
G01 X 24.5634 Y 18.4620 Z -1.0000
G01 X 24.5609 Y 18.4755 Z -1.0000
G03 X 24.5536 Y 18.4889 Z -1.0000 I -0.0475 J -0.0173
G02 X 24.5461 Y 18.5023 Z -1.0000 I 0.0448 J 0.0339
G01 X 24.5440 Y 18.5133 Z -1.0000
G01 X 24.5415 Y 18.5226 Z -1.0000
G01 X 24.5371 Y 18.5251 Z -1.0000
G01 X 24.5337 Y 18.5271 Z -1.0000
G01 X 24.5339 Y 18.5310 Z -1.0000
G01 X 24.5348 Y 18.5372 Z -1.0000
G03 X 24.5245 Y 18.5674 Z -1.0000 I -0.2009 J -0.0517
G02 X 24.5133 Y 18.5982 Z -1.0000 I 0.2605 J 0.1120
G01 X 24.5114 Y 18.6110 Z -1.0000
G01 X 24.5096 Y 18.6236 Z -1.0000
G03 X 24.5023 Y 18.6414 Z -1.0000 I -0.0953 J -0.0285
G02 X 24.4944 Y 18.6591 Z -1.0000 I 0.1364 J 0.0718
G02 X 24.4849 Y 18.6880 Z -1.0000 I 0.3514 J 0.1316
G03 X 24.4749 Y 18.7165 Z -1.0000 I -0.2437 J -0.0695
G01 X 24.4685 Y 18.7271 Z -1.0000
G01 X 24.4624 Y 18.7379 Z -1.0000
G02 X 24.4495 Y 18.7792 Z -1.0000 I 0.4141 J 0.1513
G03 X 24.4370 Y 18.8207 Z -1.0000 I -0.5021 J -0.1293
G01 X 24.4319 Y 18.8297 Z -1.0000
G01 X 24.4280 Y 18.8385 Z -1.0000
G01 X 24.4286 Y 18.8509 Z -1.0000
G01 X 24.4283 Y 18.8611 Z -1.0000
G01 X 24.4244 Y 18.8640 Z -1.0000
G01 X 24.4021 Y 18.8784 Z -1.0000
G02 X 24.3876 Y 18.9467 Z -1.0000 I 0.1535 J 0.0683
G01 X 24.3856 Y 18.9526 Z -1.0000
G01 X 24.3803 Y 18.9565 Z -1.0000
G01 X 24.3758 Y 18.9611 Z -1.0000
G02 X 24.3704 Y 18.9901 Z -1.0000 I 0.1438 J 0.0420
G03 X 24.3636 Y 19.0192 Z -1.0000 I -0.1013 J -0.0083
G03 X 24.3518 Y 19.0371 Z -1.0000 I -0.0492 J -0.0195
G02 X 24.3399 Y 19.0540 Z -1.0000 I 0.0431 J 0.0431
G01 X 24.3396 Y 19.0627 Z -1.0000
G01 X 24.3392 Y 19.0706 Z -1.0000
G01 X 24.3329 Y 19.0764 Z -1.0000
G01 X 24.3258 Y 19.0827 Z -1.0000
G01 X 24.3224 Y 19.0960 Z -1.0000
G01 X 24.3198 Y 19.1091 Z -1.0000
G01 X 24.3161 Y 19.1116 Z -1.0000
G01 X 24.2972 Y 19.1242 Z -1.0000
G02 X 24.2945 Y 19.1638 Z -1.0000 I 0.0576 J 0.0238
G01 X 24.2931 Y 19.1729 Z -1.0000
G01 X 24.2876 Y 19.1748 Z -1.0000
G01 X 24.2807 Y 19.1762 Z -1.0000
G01 X 24.2768 Y 19.1854 Z -1.0000
G03 X 24.2750 Y 19.1995 Z -1.0000 I -0.0549 J 0.0000
G01 X 24.2712 Y 19.2064 Z -1.0000
G01 X 24.2671 Y 19.2134 Z -1.0000
G02 X 24.2578 Y 19.2448 Z -1.0000 I 0.3287 J 0.1143
G03 X 24.2467 Y 19.2751 Z -1.0000 I -0.1392 J -0.0338
G03 X 24.2345 Y 19.2913 Z -1.0000 I -0.0509 J -0.0254
G01 X 24.2222 Y 19.3089 Z -1.0000
G01 X 24.2067 Y 19.3255 Z -1.0000
G02 X 24.1912 Y 19.3412 Z -1.0000 I 0.0366 J 0.0516
G02 X 24.1792 Y 19.3654 Z -1.0000 I 0.0784 J 0.0540
G03 X 24.1686 Y 19.3907 Z -1.0000 I -0.1626 J -0.0534
G01 X 24.1617 Y 19.3992 Z -1.0000
G01 X 24.1550 Y 19.4074 Z -1.0000
G01 X 24.1530 Y 19.4153 Z -1.0000
G01 X 24.1511 Y 19.4236 Z -1.0000
G03 X 24.1335 Y 19.4559 Z -1.0000 I -0.3232 J -0.1556
G02 X 24.1168 Y 19.4885 Z -1.0000 I 0.2031 J 0.1250
G01 X 24.1139 Y 19.5024 Z -1.0000
G01 X 24.1104 Y 19.5096 Z -1.0000
G01 X 24.1046 Y 19.5094 Z -1.0000
G01 X 24.0965 Y 19.5078 Z -1.0000
G01 X 24.0884 Y 19.5146 Z -1.0000
G01 X 24.0861 Y 19.5258 Z -1.0000
G01 X 24.0896 Y 19.5305 Z -1.0000
G01 X 24.0908 Y 19.5355 Z -1.0000
G03 X 24.0553 Y 19.5677 Z -1.0000 I -0.1937 J -0.1780
G01 X 24.0515 Y 19.5715 Z -1.0000
G02 X 24.0431 Y 19.5840 Z -1.0000 I 0.1168 J 0.0879
G01 X 24.0387 Y 19.5807 Z -1.0000
G01 X 24.0329 Y 19.5845 Z -1.0000
G03 X 24.0215 Y 19.6031 Z -1.0000 I -0.0855 J -0.0395
G03 X 23.9911 Y 19.6377 Z -1.0000 I -0.3306 J -0.2592
G02 X 23.9622 Y 19.6709 Z -1.0000 I 0.2737 J 0.2680
G01 X 23.9625 Y 19.6747 Z -1.0000
G01 X 23.9562 Y 19.6785 Z -1.0000
G01 X 23.9473 Y 19.6808 Z -1.0000
G01 X 23.9372 Y 19.6894 Z -1.0000
G01 X 23.9372 Y 19.6945 Z -1.0000
G01 X 23.9433 Y 19.6964 Z -1.0000
G01 X 23.9539 Y 19.6966 Z -1.0000
G01 X 23.9557 Y 19.7002 Z -1.0000
G01 X 23.9512 Y 19.7050 Z -1.0000
G01 X 23.9374 Y 19.7078 Z -1.0000
G01 X 23.9259 Y 19.7112 Z -1.0000
G01 X 23.9236 Y 19.7167 Z -1.0000
G01 X 23.9219 Y 19.7214 Z -1.0000
G01 X 23.9168 Y 19.7223 Z -1.0000
G01 X 23.9112 Y 19.7239 Z -1.0000
G01 X 23.9068 Y 19.7358 Z -1.0000
G01 X 23.8965 Y 19.7585 Z -1.0000
G01 X 23.8870 Y 19.7564 Z -1.0000
G01 X 23.8754 Y 19.7506 Z -1.0000
G01 X 23.8663 Y 19.7631 Z -1.0000
G01 X 23.8631 Y 19.7728 Z -1.0000
G01 X 23.8565 Y 19.7761 Z -1.0000
G01 X 23.8489 Y 19.7824 Z -1.0000
G01 X 23.8532 Y 19.7924 Z -1.0000
G01 X 23.8540 Y 19.7998 Z -1.0000
G01 X 23.8430 Y 19.8020 Z -1.0000
G01 X 23.8236 Y 19.8017 Z -1.0000
G01 X 23.8237 Y 19.8070 Z -1.0000
G01 X 23.8143 Y 19.8170 Z -1.0000
G01 X 23.8051 Y 19.8265 Z -1.0000
G01 X 23.8055 Y 19.8304 Z -1.0000
G01 X 23.8022 Y 19.8347 Z -1.0000
G01 X 23.7966 Y 19.8327 Z -1.0000
G01 X 23.7946 Y 19.8286 Z -1.0000
G01 X 23.7767 Y 19.8318 Z -1.0000
G03 X 23.7584 Y 19.8397 Z -1.0000 I -0.0653 J -0.1267
G01 X 23.7493 Y 19.8412 Z -1.0000
G01 X 23.7461 Y 19.8438 Z -1.0000
G01 X 23.7475 Y 19.8489 Z -1.0000
G01 X 23.7559 Y 19.8524 Z -1.0000
G01 X 23.7720 Y 19.8489 Z -1.0000
G01 X 23.7834 Y 19.8489 Z -1.0000
G01 X 23.7847 Y 19.8545 Z -1.0000
G01 X 23.7718 Y 19.8641 Z -1.0000
G01 X 23.7637 Y 19.8643 Z -1.0000
G01 X 23.7556 Y 19.8648 Z -1.0000
G02 X 23.7386 Y 19.8771 Z -1.0000 I 0.0309 J 0.0604
G03 X 23.7209 Y 19.8899 Z -1.0000 I -0.0479 J -0.0479
G01 X 23.7060 Y 19.8934 Z -1.0000
G01 X 23.6930 Y 19.8982 Z -1.0000
G01 X 23.6804 Y 19.9156 Z -1.0000
G01 X 23.6683 Y 19.9321 Z -1.0000
G01 X 23.6580 Y 19.9344 Z -1.0000
G01 X 23.6482 Y 19.9353 Z -1.0000
G01 X 23.6448 Y 19.9407 Z -1.0000
G01 X 23.6406 Y 19.9463 Z -1.0000
G03 X 23.6138 Y 19.9501 Z -1.0000 I -0.0257 J -0.0846
G02 X 23.5862 Y 19.9552 Z -1.0000 I -0.0009 J 0.0727
G01 X 23.5748 Y 19.9655 Z -1.0000
G01 X 23.5666 Y 19.9748 Z -1.0000
G01 X 23.5616 Y 19.9758 Z -1.0000
G01 X 23.5556 Y 19.9814 Z -1.0000
G01 X 23.5438 Y 19.9856 Z -1.0000
G01 X 23.5318 Y 19.9899 Z -1.0000
G01 X 23.5210 Y 19.9984 Z -1.0000
G03 X 23.4840 Y 20.0212 Z -1.0000 I -0.0595 J -0.0551
G03 X 23.4054 Y 20.0318 Z -1.0000 I -0.0749 J -0.2594
G01 X 23.3956 Y 20.0343 Z -1.0000
G01 X 23.3946 Y 20.0379 Z -1.0000
G01 X 23.3943 Y 20.0414 Z -1.0000
G01 X 23.3897 Y 20.0430 Z -1.0000
G01 X 23.3659 Y 20.0477 Z -1.0000
G01 X 23.3608 Y 20.0597 Z -1.0000
G01 X 23.3603 Y 20.0723 Z -1.0000
G01 X 23.3552 Y 20.0759 Z -1.0000
G01 X 23.3501 Y 20.0728 Z -1.0000
G01 X 23.3498 Y 20.0645 Z -1.0000
G01 X 23.3486 Y 20.0608 Z -1.0000
G01 X 23.3445 Y 20.0609 Z -1.0000
G01 X 23.3347 Y 20.0653 Z -1.0000
G01 X 23.3266 Y 20.0635 Z -1.0000
G01 X 23.2957 Y 20.0577 Z -1.0000
G01 X 23.2902 Y 20.0701 Z -1.0000
G01 X 23.2874 Y 20.0759 Z -1.0000
G03 X 23.2311 Y 20.0773 Z -1.0000 I -0.0356 J -0.2949
G02 X 23.2180 Y 20.0765 Z -1.0000 I -0.1717 J 2.4477
G02 X 23.1801 Y 20.0741 Z -1.0000 I -0.3376 J 5.2126
G03 X 23.1440 Y 20.0686 Z -1.0000 I 0.0119 J -0.1982
G01 X 23.1369 Y 20.0634 Z -1.0000
G01 X 23.1317 Y 20.0601 Z -1.0000
G01 X 23.1272 Y 20.0623 Z -1.0000
G01 X 23.1210 Y 20.0662 Z -1.0000
G03 X 23.0889 Y 20.0660 Z -1.0000 I -0.0152 J -0.1589
G02 X 23.0552 Y 20.0625 Z -1.0000 I -0.4104 J 3.8108
G02 X 23.0238 Y 20.0596 Z -1.0000 I -0.2608 J 2.6407
G03 X 22.8766 Y 20.0294 Z -1.0000 I 0.0594 J -0.6632
G03 X 22.6447 Y 19.9359 Z -1.0000 I 0.5711 J -1.7501
G03 X 22.4816 Y 19.8495 Z -1.0000 I 1.1157 J -2.3017
G03 X 22.4016 Y 19.7956 Z -1.0000 I 0.3498 J -0.6060
G02 X 22.3839 Y 19.7821 Z -1.0000 I -0.7706 J 0.9967
G02 X 22.3369 Y 19.7475 Z -1.0000 I -3.8334 J 5.1433
G03 X 22.1754 Y 19.6100 Z -1.0000 I 0.8470 J -1.1587
G03 X 21.9637 Y 19.3788 Z -1.0000 I 2.2040 J -2.2316
G02 X 21.9223 Y 19.3311 Z -1.0000 I -1.0936 J 0.9057
G01 X 21.9174 Y 19.3278 Z -1.0000
G01 X 21.9131 Y 19.3245 Z -1.0000
G01 X 21.9116 Y 19.3197 Z -1.0000
G01 X 21.9100 Y 19.3142 Z -1.0000
G02 X 21.8633 Y 19.2469 Z -1.0000 I -1.7194 J 1.1433
G03 X 21.6942 Y 19.0026 Z -1.0000 I 5.6955 J -4.1223
G03 X 21.6532 Y 18.9292 Z -1.0000 I 0.4690 J -0.3101
G02 X 21.6481 Y 18.9197 Z -1.0000 I -0.0809 J 0.0375
G02 X 21.6205 Y 18.8764 Z -1.0000 I -1.7958 J 1.1123
G03 X 21.5932 Y 18.8330 Z -1.0000 I 1.2007 J -0.7848
G01 X 21.5923 Y 18.8297 Z -1.0000
G01 X 21.5872 Y 18.8108 Z -1.0000
G02 X 21.5161 Y 18.6996 Z -1.0000 I -1.4608 J 0.8562
G03 X 21.4957 Y 18.6684 Z -1.0000 I 0.5275 J -0.3670
G01 X 21.4946 Y 18.6645 Z -1.0000
G01 X 21.4936 Y 18.6606 Z -1.0000
G02 X 21.4436 Y 18.5716 Z -1.0000 I -4.4854 J 2.4595
G03 X 21.3273 Y 18.3537 Z -1.0000 I 3.4577 J -1.9860
G03 X 21.2369 Y 18.1538 Z -1.0000 I 2.8171 J -1.3936
G02 X 21.2188 Y 18.1119 Z -1.0000 I -1.1406 J 0.4701
G01 X 21.2146 Y 18.1050 Z -1.0000
G01 X 21.2107 Y 18.0979 Z -1.0000
G03 X 21.1949 Y 18.0528 Z -1.0000 I 0.8935 J -0.3386
G02 X 21.1791 Y 18.0076 Z -1.0000 I -0.9869 J 0.3186
G02 X 21.1656 Y 17.9746 Z -1.0000 I -0.5393 J 0.2021
G03 X 21.1225 Y 17.8660 Z -1.0000 I 1.2473 J -0.5576
G03 X 21.0579 Y 17.6651 Z -1.0000 I 4.2110 J -1.4652
G02 X 21.0298 Y 17.5707 Z -1.0000 I -27.6764 J 8.1868
G02 X 21.0120 Y 17.5120 Z -1.0000 I -10.3799 J 3.1090
G03 X 20.9528 Y 17.2853 Z -1.0000 I 2.7325 J -0.8353
G03 X 20.8920 Y 16.9614 Z -1.0000 I 5.5164 J -1.2026
G03 X 20.8534 Y 16.6979 Z -1.0000 I 12.3247 J -1.9418
G03 X 20.8235 Y 16.4564 Z -1.0000 I 10.3154 J -1.4003
G03 X 20.8184 Y 16.4042 Z -1.0000 I 1.8546 J -0.2070
G03 X 20.8138 Y 16.3391 Z -1.0000 I 2.6521 J -0.2208
G02 X 20.8095 Y 16.2740 Z -1.0000 I -4.6233 J 0.2709
G02 X 20.8073 Y 16.2479 Z -1.0000 I -1.0542 J 0.0767
G03 X 20.8052 Y 16.2218 Z -1.0000 I 0.6547 J -0.0640
G03 X 20.7976 Y 16.0817 Z -1.0000 I 24.4468 J -1.4096
G02 X 20.7766 Y 15.7126 Z -1.0000 I -30.2566 J 1.5363
G02 X 20.7681 Y 15.6141 Z -1.0000 I -2.1631 J 0.1363
G03 X 20.7586 Y 15.5014 Z -1.0000 I 2.3427 J -0.2541
G03 X 20.7385 Y 15.1206 Z -1.0000 I 26.1254 J -1.5707
G02 X 20.7314 Y 14.9643 Z -1.0000 I -923.9277 J 41.9001
G02 X 20.7251 Y 14.8274 Z -1.0000 I -138.1993 J 6.2897
G03 X 20.7101 Y 14.0920 Z -1.0000 I 14.3821 J -0.6603
G03 X 20.7315 Y 13.6008 Z -1.0000 I 6.4307 J 0.0335
G02 X 20.7495 Y 13.2050 Z -1.0000 I -5.4715 J -0.4479
G02 X 20.7381 Y 12.9019 Z -1.0000 I -3.2107 J -0.0304
G03 X 20.7318 Y 12.8270 Z -1.0000 I 35.2866 J -2.9969
G03 X 20.7254 Y 12.7488 Z -1.0000 I 110.7291 J -9.1675
G02 X 20.7061 Y 12.5186 Z -1.0000 I -43.6656 J 3.5473
G02 X 20.6935 Y 12.3807 Z -1.0000 I -15.7648 J 1.3644
G03 X 20.6873 Y 12.3122 Z -1.0000 I 6.6775 J -0.6388
G03 X 20.6765 Y 12.1819 Z -1.0000 I 25.6339 J -2.1876
G02 X 20.6632 Y 12.0519 Z -1.0000 I -2.8874 J 0.2296
G02 X 20.6407 Y 11.8952 Z -1.0000 I -4.3526 J 0.5446
G03 X 20.6155 Y 11.7388 Z -1.0000 I 265.3570 J -42.9767
G03 X 20.6087 Y 11.6965 Z -1.0000 I 20.7642 J -3.3504
G03 X 20.6007 Y 11.6364 Z -1.0000 I 1.1438 J -0.1824
G03 X 20.5761 Y 11.3902 Z -1.0000 I 19.4548 J -2.0663
G02 X 20.5697 Y 11.3218 Z -1.0000 I -33.6071 J 3.1258
G02 X 20.5600 Y 11.2208 Z -1.0000 I -114.9700 J 10.9296
G03 X 20.5516 Y 11.1197 Z -1.0000 I 4.4864 J -0.4280
G03 X 20.5492 Y 11.0709 Z -1.0000 I 1.0061 J -0.0732
G02 X 20.5348 Y 10.8725 Z -1.0000 I -2.0367 J 0.0476
G02 X 20.5003 Y 10.6683 Z -1.0000 I -2.2176 J 0.2697
G03 X 20.4671 Y 10.5105 Z -1.0000 I 12.8710 J -2.7938
G03 X 20.4581 Y 10.4617 Z -1.0000 I 1.2125 J -0.2477
G02 X 20.4514 Y 10.4227 Z -1.0000 I -2.2004 J 0.3582
G02 X 20.4422 Y 10.3737 Z -1.0000 I -3.5652 J 0.6456
G03 X 20.4070 Y 10.1193 Z -1.0000 I 2.2683 J -0.4431
G03 X 20.3938 Y 9.7822 Z -1.0000 I 3.9744 J -0.3255
G03 X 20.4002 Y 9.6027 Z -1.0000 I 2.7165 J 0.0080
G03 X 20.4214 Y 9.3833 Z -1.0000 I 4.0582 J 0.2808
G02 X 20.4309 Y 9.3018 Z -1.0000 I -6.8429 J -0.8401
G02 X 20.4422 Y 9.1943 Z -1.0000 I -10.4215 J -1.1537
G03 X 20.4615 Y 9.0525 Z -1.0000 I 2.0484 J 0.2052
G03 X 20.5041 Y 8.8327 Z -1.0000 I 4.9509 J 0.8469
G02 X 20.5316 Y 8.6980 Z -1.0000 I -5.3947 J -1.1722
G02 X 20.5471 Y 8.6079 Z -1.0000 I -2.4075 J -0.4607
G02 X 20.5625 Y 8.4485 Z -1.0000 I -1.4112 J -0.2164
G02 X 20.5557 Y 8.3929 Z -1.0000 I -0.1752 J -0.0070
G01 X 20.5518 Y 8.3839 Z -1.0000
G01 X 20.5468 Y 8.3787 Z -1.0000
G01 X 20.5446 Y 8.3739 Z -1.0000
G01 X 20.5481 Y 8.3655 Z -1.0000
G01 X 20.5518 Y 8.3564 Z -1.0000
G01 X 20.5494 Y 8.3470 Z -1.0000
G01 X 20.5453 Y 8.3369 Z -1.0000
G03 X 20.5433 Y 8.3196 Z -1.0000 I 0.0766 J -0.0173
G01 X 20.5406 Y 8.3043 Z -1.0000
G01 X 20.5367 Y 8.3016 Z -1.0000
G01 X 20.5329 Y 8.2989 Z -1.0000
G03 X 20.5302 Y 8.2825 Z -1.0000 I 0.0486 J -0.0164
G02 X 20.5278 Y 8.2647 Z -1.0000 I -0.0662 J -0.0000
G01 X 20.5237 Y 8.2593 Z -1.0000
G01 X 20.5196 Y 8.2539 Z -1.0000
G03 X 20.5172 Y 8.2372 Z -1.0000 I 0.0571 J -0.0167
G01 X 20.5134 Y 8.2209 Z -1.0000
G02 X 20.5005 Y 8.2035 Z -1.0000 I -0.0549 J 0.0272
G03 X 20.4879 Y 8.1864 Z -1.0000 I 0.0394 J -0.0421
G01 X 20.4863 Y 8.1741 Z -1.0000
G01 X 20.4839 Y 8.1631 Z -1.0000
G01 X 20.4705 Y 8.1523 Z -1.0000
G03 X 20.4551 Y 8.1422 Z -1.0000 I 0.0228 J -0.0514
G01 X 20.4521 Y 8.1352 Z -1.0000
G01 X 20.4497 Y 8.1273 Z -1.0000
G02 X 20.4358 Y 8.1101 Z -1.0000 I -0.0877 J 0.0565
G03 X 20.4234 Y 8.0931 Z -1.0000 I 0.0484 J -0.0484
G01 X 20.4230 Y 8.0851 Z -1.0000
G01 X 20.4217 Y 8.0793 Z -1.0000
G01 X 20.4127 Y 8.0753 Z -1.0000
G01 X 20.4007 Y 8.0712 Z -1.0000
G03 X 20.3865 Y 8.0582 Z -1.0000 I 0.0329 J -0.0503
G02 X 20.3720 Y 8.0443 Z -1.0000 I -0.0571 J 0.0449
G02 X 20.3451 Y 8.0282 Z -1.0000 I -0.1047 J 0.1445
G03 X 20.3185 Y 8.0124 Z -1.0000 I 0.0752 J -0.1563
G01 X 20.3127 Y 8.0048 Z -1.0000
G01 X 20.3071 Y 7.9983 Z -1.0000
G01 X 20.2955 Y 7.9953 Z -1.0000
G01 X 20.2867 Y 7.9926 Z -1.0000
G01 X 20.2859 Y 7.9888 Z -1.0000
G01 X 20.2859 Y 7.9846 Z -1.0000
G01 X 20.2819 Y 7.9823 Z -1.0000
G01 X 20.2745 Y 7.9806 Z -1.0000
G01 X 20.2636 Y 7.9734 Z -1.0000
G02 X 20.1875 Y 7.9433 Z -1.0000 I -0.0816 J 0.0949
G02 X 20.0155 Y 7.9624 Z -1.0000 I -0.0247 J 0.5594
G02 X 19.9276 Y 7.9971 Z -1.0000 I 0.1138 J 0.4172
G02 X 19.8422 Y 8.0538 Z -1.0000 I 0.2372 J 0.4500
G02 X 19.7363 Y 8.1823 Z -1.0000 I 0.2736 J 0.3335
G02 X 19.6796 Y 8.3549 Z -1.0000 I 0.4516 J 0.2440
G03 X 19.6722 Y 8.3829 Z -1.0000 I -0.1241 J -0.0178
G01 X 19.6662 Y 8.3889 Z -1.0000
G01 X 19.6601 Y 8.3945 Z -1.0000
G01 X 19.6571 Y 8.4079 Z -1.0000
G01 X 19.6539 Y 8.4219 Z -1.0000
G01 X 19.6442 Y 8.4350 Z -1.0000
G02 X 19.6343 Y 8.4471 Z -1.0000 I 0.0346 J 0.0383
G01 X 19.6344 Y 8.4516 Z -1.0000
G01 X 19.6261 Y 8.4556 Z -1.0000
G01 X 19.6195 Y 8.4595 Z -1.0000
G01 X 19.6161 Y 8.4791 Z -1.0000
G03 X 19.6149 Y 8.5011 Z -1.0000 I -0.0996 J 0.0055
G01 X 19.6120 Y 8.5035 Z -1.0000
G01 X 19.6092 Y 8.5062 Z -1.0000
G02 X 19.6074 Y 8.5648 Z -1.0000 I 0.6465 J 0.0491
G01 X 19.6037 Y 8.6233 Z -1.0000
G01 X 19.5934 Y 8.6296 Z -1.0000
G02 X 19.6072 Y 8.6714 Z -1.0000 I 0.0899 J -0.0065
G01 X 19.6099 Y 8.6799 Z -1.0000
G01 X 19.6085 Y 8.6916 Z -1.0000
G01 X 19.6067 Y 8.7036 Z -1.0000
G01 X 19.6088 Y 8.7146 Z -1.0000
G01 X 19.6145 Y 8.7195 Z -1.0000
G01 X 19.6223 Y 8.7177 Z -1.0000
G01 X 19.6282 Y 8.7090 Z -1.0000
G01 X 19.6280 Y 8.6996 Z -1.0000
G01 X 19.6366 Y 8.7049 Z -1.0000
G03 X 19.6456 Y 8.7212 Z -1.0000 I -0.0470 J 0.0366
G01 X 19.6461 Y 8.7312 Z -1.0000
G01 X 19.6481 Y 8.7396 Z -1.0000
G02 X 19.6650 Y 8.7521 Z -1.0000 I 0.0398 J -0.0358
G01 X 19.6821 Y 8.7662 Z -1.0000
G03 X 19.6944 Y 8.7917 Z -1.0000 I -0.0606 J 0.0451
G03 X 19.6937 Y 8.8496 Z -1.0000 I -0.1034 J 0.0277
G01 X 19.6723 Y 8.8670 Z -1.0000
G02 X 19.6561 Y 8.8710 Z -1.0000 I 0.0044 J 0.0531
G01 X 19.6494 Y 8.8766 Z -1.0000
G01 X 19.6442 Y 8.8793 Z -1.0000
G01 X 19.6385 Y 8.8761 Z -1.0000
G01 X 19.6336 Y 8.8741 Z -1.0000
G01 X 19.6287 Y 8.8783 Z -1.0000
G01 X 19.6296 Y 8.8877 Z -1.0000
G01 X 19.6359 Y 8.8899 Z -1.0000
G01 X 19.6393 Y 8.8914 Z -1.0000
G01 X 19.6384 Y 8.8966 Z -1.0000
G01 X 19.6335 Y 8.9076 Z -1.0000
G01 X 19.6267 Y 8.9346 Z -1.0000
G02 X 19.6224 Y 8.9597 Z -1.0000 I 0.0573 J 0.0229
G01 X 19.6280 Y 8.9704 Z -1.0000
G01 X 19.6340 Y 8.9795 Z -1.0000
G01 X 19.6430 Y 8.9923 Z -1.0000
G01 X 19.6585 Y 8.9996 Z -1.0000
G01 X 19.6699 Y 8.9975 Z -1.0000
G01 X 19.6811 Y 8.9965 Z -1.0000
G03 X 19.7037 Y 9.0107 Z -1.0000 I -0.0260 J 0.0662
G01 X 19.7184 Y 9.0313 Z -1.0000
G01 X 19.7145 Y 9.0346 Z -1.0000
G02 X 19.7112 Y 9.0671 Z -1.0000 I 0.1614 J 0.0324
G03 X 19.7083 Y 9.1016 Z -1.0000 I -0.2076 J 0.0000
G01 X 19.7035 Y 9.1120 Z -1.0000
G01 X 19.6983 Y 9.1221 Z -1.0000
G02 X 19.6959 Y 9.1398 Z -1.0000 I 0.0652 J 0.0177
G02 X 19.7002 Y 9.2622 Z -1.0000 I 2.0340 J -0.0086
G02 X 19.7087 Y 9.3376 Z -1.0000 I 0.7918 J -0.0511
G03 X 19.7130 Y 9.3736 Z -1.0000 I -0.4333 J 0.0703
G03 X 19.7155 Y 9.4251 Z -1.0000 I -0.8459 J 0.0664
G02 X 19.7176 Y 9.4764 Z -1.0000 I 1.1091 J -0.0215
G01 X 19.7193 Y 9.4812 Z -1.0000
G01 X 19.7215 Y 9.4885 Z -1.0000
G03 X 19.7322 Y 9.7318 Z -1.0000 I -16.1461 J 0.8295
G03 X 19.7383 Y 10.0383 Z -1.0000 I -9.4110 J 0.3401
G03 X 19.7347 Y 10.4274 Z -1.0000 I -15.2313 J 0.0544
G01 X 19.7370 Y 10.5431 Z -1.0000
G01 X 19.7398 Y 10.5452 Z -1.0000
G01 X 19.7419 Y 10.5590 Z -1.0000
G02 X 19.7434 Y 10.5745 Z -1.0000 I 0.0799 J -0.0000
G02 X 19.7487 Y 10.5926 Z -1.0000 I 0.1063 J -0.0211
G01 X 19.7515 Y 10.6091 Z -1.0000
G01 X 19.7480 Y 10.6150 Z -1.0000
G01 X 19.7448 Y 10.6208 Z -1.0000
G01 X 19.7480 Y 10.6335 Z -1.0000
G01 X 19.7510 Y 10.6447 Z -1.0000
G01 X 19.7485 Y 10.6474 Z -1.0000
G01 X 19.7458 Y 10.6499 Z -1.0000
G01 X 19.7479 Y 10.6593 Z -1.0000
G01 X 19.7514 Y 10.6718 Z -1.0000
G03 X 19.7505 Y 10.7079 Z -1.0000 I -0.2281 J 0.0125
G02 X 19.7547 Y 10.7733 Z -1.0000 I 0.1947 J 0.0201
G01 X 19.7686 Y 10.7842 Z -1.0000
G01 X 19.7729 Y 10.7860 Z -1.0000
G01 X 19.7804 Y 10.7960 Z -1.0000
G01 X 19.7806 Y 10.8071 Z -1.0000
G03 X 19.7611 Y 10.8360 Z -1.0000 I -0.1087 J -0.0527
G02 X 19.7372 Y 10.8648 Z -1.0000 I 0.2801 J 0.2559
G01 X 19.7346 Y 10.8713 Z -1.0000
G02 X 19.7342 Y 10.8786 Z -1.0000 I 0.0910 J 0.0097
G02 X 19.7314 Y 10.9960 Z -1.0000 I 19.5135 J 0.5106
G03 X 19.7216 Y 11.4024 Z -1.0000 I -57.6104 J -1.1962
G03 X 19.7184 Y 11.4618 Z -1.0000 I -1.1778 J -0.0328
G02 X 19.7156 Y 11.5108 Z -1.0000 I 1.1643 J 0.0910
G02 X 19.7150 Y 11.5547 Z -1.0000 I 0.9918 J 0.0357
G03 X 19.7128 Y 11.5960 Z -1.0000 I -0.3209 J 0.0033
G01 X 19.7097 Y 11.5987 Z -1.0000
G01 X 19.7071 Y 11.6011 Z -1.0000
G01 X 19.7084 Y 11.6153 Z -1.0000
G03 X 19.7107 Y 11.6320 Z -1.0000 I -0.0654 J 0.0172
G03 X 19.7089 Y 11.6756 Z -1.0000 I -0.4505 J 0.0033
G02 X 19.7062 Y 11.7193 Z -1.0000 I 0.7039 J 0.0645
G02 X 19.7055 Y 11.7893 Z -1.0000 I 1.8810 J 0.0553
G01 X 19.7025 Y 11.8593 Z -1.0000
G01 X 19.6826 Y 11.8800 Z -1.0000
G02 X 19.7059 Y 11.9567 Z -1.0000 I 0.1591 J -0.0064
G01 X 19.7064 Y 11.9622 Z -1.0000
G01 X 19.7000 Y 11.9720 Z -1.0000
G01 X 19.6930 Y 11.9841 Z -1.0000
G01 X 19.7044 Y 12.0092 Z -1.0000
G01 X 19.6959 Y 12.0258 Z -1.0000
G01 X 19.6928 Y 12.0310 Z -1.0000
G02 X 19.6929 Y 12.0780 Z -1.0000 I 0.3821 J 0.0226
G03 X 19.6924 Y 12.1232 Z -1.0000 I -0.3075 J 0.0197
G01 X 19.6889 Y 12.1265 Z -1.0000
G01 X 19.6892 Y 12.1355 Z -1.0000
G01 X 19.6929 Y 12.1456 Z -1.0000
G03 X 19.6894 Y 12.1915 Z -1.0000 I -0.2883 J 0.0014
G02 X 19.6841 Y 12.2384 Z -1.0000 I 0.5742 J 0.0889
G01 X 19.6851 Y 12.2499 Z -1.0000
G01 X 19.6858 Y 12.2611 Z -1.0000
G01 X 19.6822 Y 12.2720 Z -1.0000
G01 X 19.6805 Y 12.2824 Z -1.0000
G01 X 19.6871 Y 12.2990 Z -1.0000
G01 X 19.6924 Y 12.3124 Z -1.0000
G01 X 19.6898 Y 12.3154 Z -1.0000
G01 X 19.6855 Y 12.3183 Z -1.0000
G01 X 19.6849 Y 12.3275 Z -1.0000
G03 X 19.6903 Y 12.4062 Z -1.0000 I -0.2022 J 0.0534
G03 X 19.6679 Y 12.4703 Z -1.0000 I -0.1582 J -0.0193
G01 X 19.6668 Y 12.4766 Z -1.0000
G01 X 19.6702 Y 12.4815 Z -1.0000
G01 X 19.6832 Y 12.5047 Z -1.0000
G01 X 19.6706 Y 12.5174 Z -1.0000
G01 X 19.6674 Y 12.5204 Z -1.0000
G02 X 19.6641 Y 12.6135 Z -1.0000 I 1.4513 J 0.0983
G03 X 19.6637 Y 12.7096 Z -1.0000 I -148.1221 J -0.5044
G03 X 19.6637 Y 12.7194 Z -1.0000 I -1.4516 J -0.0059
G02 X 19.6637 Y 12.7292 Z -1.0000 I 0.3774 J 0.0041
G02 X 19.6657 Y 12.8497 Z -1.0000 I 52.6776 J -0.8043
G03 X 19.6652 Y 12.9698 Z -1.0000 I -2.9423 J 0.0488
G03 X 19.6623 Y 12.9860 Z -1.0000 I -0.0529 J -0.0013
G01 X 19.6606 Y 13.0004 Z -1.0000
G01 X 19.6643 Y 13.0064 Z -1.0000
G01 X 19.6671 Y 13.0110 Z -1.0000
G01 X 19.6650 Y 13.0152 Z -1.0000
G01 X 19.6617 Y 13.0206 Z -1.0000
G02 X 19.6637 Y 13.0383 Z -1.0000 I 0.0532 J 0.0030
G03 X 19.6668 Y 13.0567 Z -1.0000 I -0.0775 J 0.0223
G01 X 19.6649 Y 13.0615 Z -1.0000
G02 X 19.6402 Y 13.1196 Z -1.0000 I 0.0596 J 0.0596
G01 X 19.6639 Y 13.1331 Z -1.0000
G01 X 19.6669 Y 13.1691 Z -1.0000
G02 X 19.6684 Y 13.2020 Z -1.0000 I 0.1526 J 0.0098
G01 X 19.6722 Y 13.2038 Z -1.0000
G01 X 19.6715 Y 13.2097 Z -1.0000
G01 X 19.6653 Y 13.2211 Z -1.0000
G01 X 19.6643 Y 13.2321 Z -1.0000
G01 X 19.6639 Y 13.2437 Z -1.0000
G03 X 19.6592 Y 13.2602 Z -1.0000 I -0.0831 J -0.0152
G01 X 19.6560 Y 13.2765 Z -1.0000
G02 X 19.6594 Y 13.2960 Z -1.0000 I 0.0612 J -0.0004
G03 X 19.6642 Y 13.3227 Z -1.0000 I -0.0824 J 0.0287
G03 X 19.6624 Y 13.4231 Z -1.0000 I -1.2067 J 0.0282
G02 X 19.6622 Y 13.4718 Z -1.0000 I 0.4330 J 0.0258
G02 X 19.6667 Y 13.5046 Z -1.0000 I 0.2006 J -0.0106
G03 X 19.6717 Y 13.5491 Z -1.0000 I -0.2061 J 0.0458
G03 X 19.6671 Y 13.5795 Z -1.0000 I -0.0981 J 0.0006
G01 X 19.6681 Y 13.5866 Z -1.0000
G01 X 19.6722 Y 13.5872 Z -1.0000
G01 X 19.6780 Y 13.5877 Z -1.0000
G01 X 19.6819 Y 13.5986 Z -1.0000
G03 X 19.6793 Y 13.6165 Z -1.0000 I -0.0816 J -0.0023
G01 X 19.6767 Y 13.6186 Z -1.0000
G01 X 19.6709 Y 13.6244 Z -1.0000
G02 X 19.6797 Y 13.8401 Z -1.0000 I 3.9423 J -0.0522
G03 X 19.6793 Y 13.8751 Z -1.0000 I -0.2272 J 0.0150
G01 X 19.6758 Y 13.8836 Z -1.0000
G01 X 19.6698 Y 13.9028 Z -1.0000
G01 X 19.6792 Y 13.9192 Z -1.0000
G01 X 19.6814 Y 13.9241 Z -1.0000
G01 X 19.6782 Y 13.9351 Z -1.0000
G01 X 19.6758 Y 13.9468 Z -1.0000
G01 X 19.6807 Y 13.9609 Z -1.0000
G01 X 19.6847 Y 13.9751 Z -1.0000
G01 X 19.6796 Y 13.9954 Z -1.0000
G02 X 19.6685 Y 14.0379 Z -1.0000 I 0.0953 J 0.0475
G02 X 19.6664 Y 14.2701 Z -1.0000 I 2.9865 J 0.1439
G03 X 19.6674 Y 14.3640 Z -1.0000 I -2.6251 J 0.0759
G01 X 19.6656 Y 14.3702 Z -1.0000
G01 X 19.6636 Y 14.3765 Z -1.0000
G02 X 19.6595 Y 14.4778 Z -1.0000 I 3.2768 J 0.1833
G03 X 19.6569 Y 14.5797 Z -1.0000 I -95.6130 J -2.3895
G03 X 19.6565 Y 14.5895 Z -1.0000 I -0.3296 J -0.0086
G02 X 19.6564 Y 14.5993 Z -1.0000 I 0.1661 J 0.0066
G02 X 19.6569 Y 14.6123 Z -1.0000 I 0.2947 J -0.0057
G03 X 19.6572 Y 14.7236 Z -1.0000 I -0.9167 J 0.0582
G03 X 19.6486 Y 14.7504 Z -1.0000 I -0.0562 J -0.0033
G01 X 19.6458 Y 14.7586 Z -1.0000
G02 X 19.6404 Y 14.8215 Z -1.0000 I 1.0341 J 0.1195
G03 X 19.6358 Y 14.8845 Z -1.0000 I -1.7092 J -0.0931
G01 X 19.6341 Y 14.8896 Z -1.0000
G01 X 19.6332 Y 14.8945 Z -1.0000
G02 X 19.6383 Y 14.9147 Z -1.0000 I 0.1245 J -0.0211
G03 X 19.6414 Y 14.9344 Z -1.0000 I -0.0517 J 0.0181
G01 X 19.6375 Y 14.9447 Z -1.0000
G01 X 19.6362 Y 14.9543 Z -1.0000
G01 X 19.6578 Y 14.9766 Z -1.0000
G03 X 19.6344 Y 15.0208 Z -1.0000 I -0.0561 J -0.0014
G01 X 19.6310 Y 15.0271 Z -1.0000
G02 X 19.6271 Y 15.1870 Z -1.0000 I 4.1239 J 0.1811
G03 X 19.6231 Y 15.3482 Z -1.0000 I -4.2361 J -0.0230
G03 X 19.6187 Y 15.3801 Z -1.0000 I -0.1694 J -0.0074
G02 X 19.6126 Y 15.4118 Z -1.0000 I 0.3552 J 0.0839
G02 X 19.6113 Y 15.4323 Z -1.0000 I 0.1331 J 0.0192
G03 X 19.6105 Y 15.4528 Z -1.0000 I -0.2403 J 0.0019
G03 X 19.6049 Y 15.5147 Z -1.0000 I -2.2362 J -0.1739
G02 X 19.5993 Y 15.5767 Z -1.0000 I 1.9450 J 0.2056
G02 X 19.5989 Y 15.5962 Z -1.0000 I 0.1919 J 0.0141
G03 X 19.5998 Y 15.9099 Z -1.0000 I -5.5595 J 0.1737
G03 X 19.5903 Y 15.9421 Z -1.0000 I -0.0646 J -0.0016
G01 X 19.5878 Y 15.9492 Z -1.0000
G02 X 19.5823 Y 16.0102 Z -1.0000 I 1.1665 J 0.1372
G03 X 19.5768 Y 16.0716 Z -1.0000 I -1.2597 J -0.0818
G03 X 19.5711 Y 16.1077 Z -1.0000 I -0.4214 J -0.0481
G02 X 19.5645 Y 16.1436 Z -1.0000 I 1.1490 J 0.2274
G02 X 19.5626 Y 16.1598 Z -1.0000 I 0.1868 J 0.0310
G03 X 19.5608 Y 16.1761 Z -1.0000 I -0.2876 J -0.0226
G03 X 19.5569 Y 16.2022 Z -1.0000 I -0.8493 J -0.1155
G02 X 19.5510 Y 16.2445 Z -1.0000 I 0.7064 J 0.1192
G02 X 19.5441 Y 16.3211 Z -1.0000 I 2.2625 J 0.2440
G01 X 19.5409 Y 16.3336 Z -1.0000
G01 X 19.5377 Y 16.3357 Z -1.0000
G01 X 19.5360 Y 16.3415 Z -1.0000
G01 X 19.5375 Y 16.3477 Z -1.0000
G03 X 19.5331 Y 16.3790 Z -1.0000 I -0.2527 J -0.0197
G02 X 19.5163 Y 16.4698 Z -1.0000 I 2.4889 J 0.5067
G02 X 19.5105 Y 16.5149 Z -1.0000 I 0.6121 J 0.1016
G03 X 19.5066 Y 16.5540 Z -1.0000 I -2.4743 J -0.2302
G03 X 19.4972 Y 16.6355 Z -1.0000 I -7.7406 J -0.8436
G02 X 19.4882 Y 16.7170 Z -1.0000 I 5.2278 J 0.6185
G02 X 19.4848 Y 16.7574 Z -1.0000 I 1.1716 J 0.1201
G03 X 19.4810 Y 16.7976 Z -1.0000 I -0.7267 J -0.0490
G03 X 19.4784 Y 16.8095 Z -1.0000 I -0.0674 J -0.0083
G02 X 19.4706 Y 16.8450 Z -1.0000 I 0.2069 J 0.0641
G02 X 19.4517 Y 17.0101 Z -1.0000 I 4.4091 J 0.5882
G03 X 19.4311 Y 17.1850 Z -1.0000 I -3.9839 J -0.3804
G03 X 19.4092 Y 17.3131 Z -1.0000 I -2.1605 J -0.3027
G02 X 19.3908 Y 17.4144 Z -1.0000 I 2.6949 J 0.5429
G02 X 19.3859 Y 17.4565 Z -1.0000 I 0.4574 J 0.0744
G03 X 19.3811 Y 17.4984 Z -1.0000 I -0.4729 J -0.0325
G03 X 19.3766 Y 17.5151 Z -1.0000 I -0.0796 J -0.0127
G02 X 19.3695 Y 17.5407 Z -1.0000 I 0.1256 J 0.0489
G02 X 19.3502 Y 17.6650 Z -1.0000 I 3.0407 J 0.5348
G03 X 19.3442 Y 17.7073 Z -1.0000 I -2.4888 J -0.3311
G03 X 19.3410 Y 17.7269 Z -1.0000 I -0.7653 J -0.1151
G02 X 19.3381 Y 17.7465 Z -1.0000 I 0.3774 J 0.0667
G02 X 19.3345 Y 17.7790 Z -1.0000 I 1.1351 J 0.1405
G03 X 19.3302 Y 17.8114 Z -1.0000 I -0.3665 J -0.0327
G03 X 19.3141 Y 17.8931 Z -1.0000 I -2.4943 J -0.4483
G02 X 19.2971 Y 17.9746 Z -1.0000 I 7.7422 J 1.6590
G02 X 19.2915 Y 18.0038 Z -1.0000 I 1.0601 J 0.2155
G03 X 19.2729 Y 18.0940 Z -1.0000 I -1.4529 J -0.2539
G03 X 19.2598 Y 18.1363 Z -1.0000 I -0.3370 J -0.0808
G02 X 19.2543 Y 18.1548 Z -1.0000 I 0.1231 J 0.0466
G02 X 19.2528 Y 18.1688 Z -1.0000 I 0.0640 J 0.0140
G01 X 19.2508 Y 18.1825 Z -1.0000
G03 X 19.2430 Y 18.2017 Z -1.0000 I -0.1009 J -0.0298
G02 X 19.2358 Y 18.2210 Z -1.0000 I 0.0716 J 0.0377
G02 X 19.2333 Y 18.2428 Z -1.0000 I 0.0938 J 0.0218
G03 X 19.2314 Y 18.2648 Z -1.0000 I -0.1287 J -0.0000
G01 X 19.2274 Y 18.2763 Z -1.0000
G02 X 19.2228 Y 18.2876 Z -1.0000 I 0.0513 J 0.0273
G02 X 19.2183 Y 18.3080 Z -1.0000 I 0.1638 J 0.0469
G03 X 19.2141 Y 18.3285 Z -1.0000 I -0.2118 J -0.0334
G01 X 19.2115 Y 18.3346 Z -1.0000
G01 X 19.2091 Y 18.3407 Z -1.0000
G02 X 19.2040 Y 18.3724 Z -1.0000 I 0.4304 J 0.0859
G03 X 19.1871 Y 18.4578 Z -1.0000 I -0.6108 J -0.0767
G03 X 19.1734 Y 18.4843 Z -1.0000 I -0.0689 J -0.0188
G01 X 19.1696 Y 18.4931 Z -1.0000
G01 X 19.1704 Y 18.5066 Z -1.0000
G01 X 19.1711 Y 18.5205 Z -1.0000
G03 X 19.1648 Y 18.5429 Z -1.0000 I -0.0947 J -0.0145
G02 X 19.1565 Y 18.5652 Z -1.0000 I 0.2719 J 0.1135
G01 X 19.1561 Y 18.5695 Z -1.0000
G01 X 19.1543 Y 18.5915 Z -1.0000
G01 X 19.1487 Y 18.5935 Z -1.0000
G01 X 19.1450 Y 18.5947 Z -1.0000
G01 X 19.1422 Y 18.6080 Z -1.0000
G03 X 19.1394 Y 18.6256 Z -1.0000 I -0.0578 J 0.0000
G03 X 19.1314 Y 18.6419 Z -1.0000 I -0.0583 J -0.0187
G01 X 19.1240 Y 18.6584 Z -1.0000
G02 X 19.1210 Y 18.6857 Z -1.0000 I 0.1085 J 0.0256
G03 X 19.1191 Y 18.7118 Z -1.0000 I -0.1453 J 0.0022
G01 X 19.1163 Y 18.7141 Z -1.0000
G01 X 19.1127 Y 18.7160 Z -1.0000
G01 X 19.1077 Y 18.7271 Z -1.0000
G01 X 19.1111 Y 18.7359 Z -1.0000
G01 X 19.1080 Y 18.7506 Z -1.0000
G02 X 19.0994 Y 18.7700 Z -1.0000 I 0.1378 J 0.0729
G02 X 19.0868 Y 18.8086 Z -1.0000 I 0.5410 J 0.1977
G03 X 19.0744 Y 18.8472 Z -1.0000 I -0.6521 J -0.1880
G03 X 19.0631 Y 18.8753 Z -1.0000 I -0.3459 J -0.1226
G02 X 19.0519 Y 18.9034 Z -1.0000 I 0.2982 J 0.1351
G02 X 19.0467 Y 18.9224 Z -1.0000 I 0.1377 J 0.0476
G03 X 19.0407 Y 18.9405 Z -1.0000 I -0.0742 J -0.0146
G01 X 19.0339 Y 18.9493 Z -1.0000
G01 X 19.0279 Y 18.9582 Z -1.0000
G02 X 19.0243 Y 18.9804 Z -1.0000 I 0.0769 J 0.0241
G03 X 19.0168 Y 19.0280 Z -1.0000 I -0.1875 J -0.0052
G01 X 19.0086 Y 19.0335 Z -1.0000
G01 X 19.0044 Y 19.0359 Z -1.0000
G01 X 18.9999 Y 19.0505 Z -1.0000
G03 X 18.9958 Y 19.0673 Z -1.0000 I -0.0753 J -0.0094
G03 X 18.9880 Y 19.0830 Z -1.0000 I -0.0733 J -0.0270
G01 X 18.9816 Y 19.0980 Z -1.0000
G01 X 18.9829 Y 19.1055 Z -1.0000
G01 X 18.9840 Y 19.1121 Z -1.0000
G01 X 18.9803 Y 19.1175 Z -1.0000
G01 X 18.9758 Y 19.1237 Z -1.0000
G02 X 18.9719 Y 19.1526 Z -1.0000 I 0.1418 J 0.0341
G03 X 18.9674 Y 19.1798 Z -1.0000 I -0.1112 J -0.0042
G01 X 18.9629 Y 19.1832 Z -1.0000
G01 X 18.9587 Y 19.1863 Z -1.0000
G01 X 18.9580 Y 19.1987 Z -1.0000
G01 X 18.9565 Y 19.2124 Z -1.0000
G01 X 18.9471 Y 19.2239 Z -1.0000
G01 X 18.9377 Y 19.2349 Z -1.0000
G01 X 18.9372 Y 19.2437 Z -1.0000
G01 X 18.9371 Y 19.2531 Z -1.0000
G01 X 18.9272 Y 19.2678 Z -1.0000
G01 X 18.9179 Y 19.2827 Z -1.0000
G01 X 18.9177 Y 19.2953 Z -1.0000
G03 X 18.9186 Y 19.3450 Z -1.0000 I -0.0834 J 0.0264
G01 X 18.9000 Y 19.3591 Z -1.0000
G01 X 18.8963 Y 19.3609 Z -1.0000
G01 X 18.8945 Y 19.3662 Z -1.0000
G01 X 18.8928 Y 19.3724 Z -1.0000
G03 X 18.8847 Y 19.3829 Z -1.0000 I -0.0441 J -0.0256
G01 X 18.8778 Y 19.3939 Z -1.0000
G02 X 18.8749 Y 19.4114 Z -1.0000 I 0.0507 J 0.0175
G03 X 18.8724 Y 19.4287 Z -1.0000 I -0.0603 J -0.0000
G01 X 18.8681 Y 19.4343 Z -1.0000
G01 X 18.8645 Y 19.4397 Z -1.0000
G01 X 18.8653 Y 19.4526 Z -1.0000
G01 X 18.8632 Y 19.4580 Z -1.0000
G01 X 18.8542 Y 19.4591 Z -1.0000
G01 X 18.8526 Y 19.4860 Z -1.0000
G01 X 18.8532 Y 19.4997 Z -1.0000
G01 X 18.8493 Y 19.5054 Z -1.0000
G01 X 18.8446 Y 19.5110 Z -1.0000
G01 X 18.8423 Y 19.5222 Z -1.0000
G01 X 18.8396 Y 19.5333 Z -1.0000
G03 X 18.8291 Y 19.5469 Z -1.0000 I -0.0453 J -0.0241
G01 X 18.8197 Y 19.5601 Z -1.0000
G01 X 18.8195 Y 19.5686 Z -1.0000
G01 X 18.8186 Y 19.5767 Z -1.0000
G03 X 18.8032 Y 19.5927 Z -1.0000 I -0.0546 J -0.0370
G02 X 18.7874 Y 19.6082 Z -1.0000 I 0.0476 J 0.0643
G01 X 18.7872 Y 19.6136 Z -1.0000
G01 X 18.7870 Y 19.6176 Z -1.0000
G01 X 18.7825 Y 19.6199 Z -1.0000
G01 X 18.7511 Y 19.6399 Z -1.0000
G02 X 18.7490 Y 19.6887 Z -1.0000 I 0.0551 J 0.0268
G01 X 18.7537 Y 19.6943 Z -1.0000
G01 X 18.7584 Y 19.6943 Z -1.0000
G01 X 18.7642 Y 19.6981 Z -1.0000
G01 X 18.7544 Y 19.7211 Z -1.0000
G01 X 18.7484 Y 19.7207 Z -1.0000
G01 X 18.7417 Y 19.7207 Z -1.0000
G01 X 18.7358 Y 19.7322 Z -1.0000
G01 X 18.7379 Y 19.7359 Z -1.0000
G01 X 18.7403 Y 19.7434 Z -1.0000
G01 X 18.7250 Y 19.7533 Z -1.0000
G01 X 18.7095 Y 19.7609 Z -1.0000
G01 X 18.7055 Y 19.7694 Z -1.0000
G01 X 18.7029 Y 19.7795 Z -1.0000
G01 X 18.6971 Y 19.7845 Z -1.0000
G01 X 18.6906 Y 19.7898 Z -1.0000
G02 X 18.6629 Y 19.8373 Z -1.0000 I 0.4844 J 0.3142
G03 X 18.6359 Y 19.8849 Z -1.0000 I -0.6811 J -0.3548
G01 X 18.6324 Y 19.8869 Z -1.0000
G01 X 18.6311 Y 19.8956 Z -1.0000
G01 X 18.6310 Y 19.9035 Z -1.0000
G01 X 18.6247 Y 19.9124 Z -1.0000
G01 X 18.6188 Y 19.9219 Z -1.0000
G01 X 18.6185 Y 19.9388 Z -1.0000
G01 X 18.6189 Y 19.9556 Z -1.0000
G01 X 18.6153 Y 19.9612 Z -1.0000
G01 X 18.6115 Y 19.9665 Z -1.0000
G01 X 18.6121 Y 19.9751 Z -1.0000
G01 X 18.6087 Y 19.9967 Z -1.0000
G01 X 18.5908 Y 20.0015 Z -1.0000
G01 X 18.5867 Y 20.0027 Z -1.0000
G01 X 18.5860 Y 20.0077 Z -1.0000
G01 X 18.5857 Y 20.0144 Z -1.0000
G01 X 18.5815 Y 20.0171 Z -1.0000
G01 X 18.5593 Y 20.0273 Z -1.0000
G01 X 18.5491 Y 20.0546 Z -1.0000
G01 X 18.5462 Y 20.0598 Z -1.0000
G01 X 18.5393 Y 20.0603 Z -1.0000
G01 X 18.5324 Y 20.0609 Z -1.0000
G01 X 18.5295 Y 20.0661 Z -1.0000
G01 X 18.5323 Y 20.0729 Z -1.0000
G01 X 18.5393 Y 20.0757 Z -1.0000
G01 X 18.5468 Y 20.0780 Z -1.0000
G01 X 18.5491 Y 20.0822 Z -1.0000
G01 X 18.5466 Y 20.0863 Z -1.0000
G01 X 18.5361 Y 20.0887 Z -1.0000
G01 X 18.5260 Y 20.0917 Z -1.0000
G01 X 18.5230 Y 20.0972 Z -1.0000
G03 X 18.5132 Y 20.1310 Z -1.0000 I -0.0629 J 0.0000
G01 X 18.4953 Y 20.1408 Z -1.0000
G01 X 18.4870 Y 20.1439 Z -1.0000
G01 X 18.4839 Y 20.1506 Z -1.0000
G01 X 18.4821 Y 20.1585 Z -1.0000
G01 X 18.4789 Y 20.1604 Z -1.0000
G01 X 18.4752 Y 20.1623 Z -1.0000
G02 X 18.4675 Y 20.1751 Z -1.0000 I 0.0461 J 0.0362
G01 X 18.4587 Y 20.1861 Z -1.0000
G01 X 18.4472 Y 20.1900 Z -1.0000
G01 X 18.4218 Y 20.2000 Z -1.0000
G01 X 18.4122 Y 20.2216 Z -1.0000
G01 X 18.4091 Y 20.2343 Z -1.0000
G03 X 18.3959 Y 20.2531 Z -1.0000 I -0.0751 J -0.0388
G01 X 18.3857 Y 20.2747 Z -1.0000
G01 X 18.3929 Y 20.2791 Z -1.0000
G01 X 18.3842 Y 20.2938 Z -1.0000
G02 X 18.3705 Y 20.3055 Z -1.0000 I 0.0405 J 0.0615
G02 X 18.3602 Y 20.3200 Z -1.0000 I 0.0525 J 0.0482
G03 X 18.3496 Y 20.3339 Z -1.0000 I -0.0472 J -0.0249
G01 X 18.3390 Y 20.3401 Z -1.0000
G01 X 18.3298 Y 20.3474 Z -1.0000
G01 X 18.3092 Y 20.3745 Z -1.0000
G02 X 18.2877 Y 20.3989 Z -1.0000 I 0.1763 J 0.1773
G01 X 18.2869 Y 20.4034 Z -1.0000
G01 X 18.2860 Y 20.4072 Z -1.0000
G01 X 18.2784 Y 20.4123 Z -1.0000
G02 X 18.2499 Y 20.4375 Z -1.0000 I 0.0193 J 0.0504
G01 X 18.2551 Y 20.4565 Z -1.0000
G01 X 18.2590 Y 20.4752 Z -1.0000
G03 X 18.1946 Y 20.5432 Z -1.0000 I -0.2597 J -0.1814
G01 X 18.1833 Y 20.5579 Z -1.0000
G01 X 18.1859 Y 20.5606 Z -1.0000
G01 X 18.1828 Y 20.5706 Z -1.0000
G01 X 18.1740 Y 20.5776 Z -1.0000
G01 X 18.1665 Y 20.5763 Z -1.0000
G01 X 18.1602 Y 20.5767 Z -1.0000
G01 X 18.1574 Y 20.5858 Z -1.0000
G01 X 18.1560 Y 20.5896 Z -1.0000
G01 X 18.1469 Y 20.5952 Z -1.0000
G01 X 18.1368 Y 20.6012 Z -1.0000
G02 X 18.1191 Y 20.6192 Z -1.0000 I 0.1008 J 0.1170
G03 X 18.0715 Y 20.6682 Z -1.0000 I -0.3560 J -0.2979
G01 X 18.0617 Y 20.6702 Z -1.0000
G01 X 18.0554 Y 20.6745 Z -1.0000
G02 X 18.0602 Y 20.7041 Z -1.0000 I 0.0736 J 0.0033
G01 X 18.0574 Y 20.7134 Z -1.0000
G01 X 18.0482 Y 20.7127 Z -1.0000
G01 X 18.0404 Y 20.7106 Z -1.0000
G01 X 18.0306 Y 20.7172 Z -1.0000
G01 X 18.0245 Y 20.7304 Z -1.0000
G01 X 18.0250 Y 20.7416 Z -1.0000
G01 X 18.0208 Y 20.7493 Z -1.0000
G01 X 18.0120 Y 20.7452 Z -1.0000
G01 X 18.0105 Y 20.7504 Z -1.0000
G01 X 18.0083 Y 20.7602 Z -1.0000
G01 X 18.0004 Y 20.7647 Z -1.0000
G01 X 17.9894 Y 20.7688 Z -1.0000
G02 X 17.9651 Y 20.7905 Z -1.0000 I 0.0979 J 0.1340
G03 X 17.9410 Y 20.8114 Z -1.0000 I -0.1062 J -0.0977
G01 X 17.9323 Y 20.8132 Z -1.0000
G01 X 17.9270 Y 20.8145 Z -1.0000
G01 X 17.9264 Y 20.8178 Z -1.0000
G01 X 17.9264 Y 20.8233 Z -1.0000
G01 X 17.9180 Y 20.8311 Z -1.0000
G01 X 17.9081 Y 20.8399 Z -1.0000
G01 X 17.9010 Y 20.8555 Z -1.0000
G01 X 17.8921 Y 20.8661 Z -1.0000
G01 X 17.8862 Y 20.8622 Z -1.0000
G02 X 17.8692 Y 20.8624 Z -1.0000 I -0.0079 J 0.0498
G01 X 17.8590 Y 20.8675 Z -1.0000
G01 X 17.8594 Y 20.8715 Z -1.0000
G01 X 17.8502 Y 20.8771 Z -1.0000
G01 X 17.8349 Y 20.8798 Z -1.0000
G01 X 17.8323 Y 20.8836 Z -1.0000
G01 X 17.8298 Y 20.8880 Z -1.0000
G01 X 17.8158 Y 20.8941 Z -1.0000
G01 X 17.8026 Y 20.9004 Z -1.0000
G01 X 17.8003 Y 20.9056 Z -1.0000
G01 X 17.7961 Y 20.9282 Z -1.0000
G01 X 17.7827 Y 20.9387 Z -1.0000
G01 X 17.7720 Y 20.9466 Z -1.0000
G01 X 17.7700 Y 20.9596 Z -1.0000
G01 X 17.7696 Y 20.9711 Z -1.0000
G01 X 17.7657 Y 20.9731 Z -1.0000
G01 X 17.7576 Y 20.9729 Z -1.0000
G02 X 17.7304 Y 20.9852 Z -1.0000 I 0.0501 J 0.1470
G03 X 17.7040 Y 20.9972 Z -1.0000 I -0.0787 J -0.1383
G01 X 17.6991 Y 20.9961 Z -1.0000
G01 X 17.6990 Y 21.0028 Z -1.0000
G01 X 17.6989 Y 21.0110 Z -1.0000
G01 X 17.6945 Y 21.0141 Z -1.0000
G01 X 17.6954 Y 21.0205 Z -1.0000
G01 X 17.6967 Y 21.0243 Z -1.0000
G01 X 17.6931 Y 21.0269 Z -1.0000
G01 X 17.6825 Y 21.0301 Z -1.0000
G02 X 17.6681 Y 21.0433 Z -1.0000 I 0.0343 J 0.0517
G03 X 17.6547 Y 21.0565 Z -1.0000 I -0.0581 J -0.0458
G01 X 17.6504 Y 21.0567 Z -1.0000
G01 X 17.6461 Y 21.0567 Z -1.0000
G02 X 17.6344 Y 21.0669 Z -1.0000 I 0.0271 J 0.0432
G01 X 17.6215 Y 21.0752 Z -1.0000
G01 X 17.6039 Y 21.0758 Z -1.0000
G01 X 17.5877 Y 21.0753 Z -1.0000
G01 X 17.5846 Y 21.0789 Z -1.0000
G01 X 17.5820 Y 21.0844 Z -1.0000
G03 X 17.5663 Y 21.0940 Z -1.0000 I -0.0411 J -0.0497
G02 X 17.5249 Y 21.1196 Z -1.0000 I 0.0633 J 0.1485
G02 X 17.5002 Y 21.1503 Z -1.0000 I 0.0687 J 0.0807
G01 X 17.4914 Y 21.1596 Z -1.0000
G01 X 17.4860 Y 21.1589 Z -1.0000
G01 X 17.4601 Y 21.1517 Z -1.0000
G01 X 17.4520 Y 21.1672 Z -1.0000
G01 X 17.4505 Y 21.1715 Z -1.0000
G01 X 17.4428 Y 21.1726 Z -1.0000
G01 X 17.4313 Y 21.1734 Z -1.0000
G02 X 17.4108 Y 21.1858 Z -1.0000 I 0.0302 J 0.0730
G03 X 17.3914 Y 21.1973 Z -1.0000 I -0.0435 J -0.0517
G01 X 17.3847 Y 21.1958 Z -1.0000
G01 X 17.3784 Y 21.1940 Z -1.0000
G01 X 17.3698 Y 21.1993 Z -1.0000
G01 X 17.3688 Y 21.2094 Z -1.0000
G01 X 17.3739 Y 21.2116 Z -1.0000
G01 X 17.3761 Y 21.2172 Z -1.0000
G01 X 17.3683 Y 21.2172 Z -1.0000
G01 X 17.3458 Y 21.2071 Z -1.0000
G01 X 17.3370 Y 21.2154 Z -1.0000
G01 X 17.3270 Y 21.2320 Z -1.0000
G03 X 17.2872 Y 21.2419 Z -1.0000 I -0.0398 J -0.0753
G01 X 17.2806 Y 21.2441 Z -1.0000
G01 X 17.2784 Y 21.2484 Z -1.0000
G01 X 17.2762 Y 21.2527 Z -1.0000
G01 X 17.2694 Y 21.2549 Z -1.0000
G01 X 17.2614 Y 21.2571 Z -1.0000
G01 X 17.2519 Y 21.2652 Z -1.0000
G01 X 17.2423 Y 21.2718 Z -1.0000
G01 X 17.2308 Y 21.2721 Z -1.0000
G01 X 17.2209 Y 21.2732 Z -1.0000
G01 X 17.2152 Y 21.2805 Z -1.0000
G01 X 17.2092 Y 21.2879 Z -1.0000
G01 X 17.1964 Y 21.2904 Z -1.0000
G02 X 17.1808 Y 21.2907 Z -1.0000 I -0.0063 J 0.0578
G02 X 17.1609 Y 21.2961 Z -1.0000 I 0.0161 J 0.1003
G01 X 17.1416 Y 21.2993 Z -1.0000
G01 X 17.1278 Y 21.2951 Z -1.0000
G01 X 17.1207 Y 21.2949 Z -1.0000
G01 X 17.1186 Y 21.3001 Z -1.0000
G01 X 17.1189 Y 21.3106 Z -1.0000
G01 X 17.1152 Y 21.3135 Z -1.0000
G01 X 17.1113 Y 21.3161 Z -1.0000
G01 X 17.1113 Y 21.3233 Z -1.0000
G01 X 17.1079 Y 21.3288 Z -1.0000
G01 X 17.0968 Y 21.3249 Z -1.0000
G01 X 17.0926 Y 21.3273 Z -1.0000
G01 X 17.0917 Y 21.3353 Z -1.0000
G01 X 17.0832 Y 21.3414 Z -1.0000
G01 X 17.0681 Y 21.3389 Z -1.0000
G01 X 17.0689 Y 21.3320 Z -1.0000
G01 X 17.0731 Y 21.3284 Z -1.0000
G02 X 17.0794 Y 21.3143 Z -1.0000 I -0.0536 J -0.0324
G01 X 17.0770 Y 21.3033 Z -1.0000
G01 X 17.0718 Y 21.3089 Z -1.0000
G01 X 17.0698 Y 21.3171 Z -1.0000
G01 X 17.0675 Y 21.3243 Z -1.0000
G01 X 17.0631 Y 21.3265 Z -1.0000
G01 X 17.0579 Y 21.3289 Z -1.0000
G01 X 17.0505 Y 21.3412 Z -1.0000
G01 X 17.0442 Y 21.3416 Z -1.0000
G01 X 17.0370 Y 21.3278 Z -1.0000
G01 X 17.0300 Y 21.3310 Z -1.0000
G02 X 17.0294 Y 21.3428 Z -1.0000 I 0.3399 J 0.0222
G01 X 17.0295 Y 21.3463 Z -1.0000
G01 X 17.0091 Y 21.3496 Z -1.0000
G02 X 16.9891 Y 21.3525 Z -1.0000 I -0.0007 J 0.0658
G02 X 16.9600 Y 21.3646 Z -1.0000 I 0.0464 J 0.1520
G03 X 16.9312 Y 21.3766 Z -1.0000 I -0.0732 J -0.1360
G01 X 16.9197 Y 21.3768 Z -1.0000
G01 X 16.9098 Y 21.3775 Z -1.0000
G01 X 16.9040 Y 21.3835 Z -1.0000
G01 X 16.8980 Y 21.3893 Z -1.0000
G01 X 16.8842 Y 21.3902 Z -1.0000
G01 X 16.8717 Y 21.3927 Z -1.0000
G01 X 16.8568 Y 21.3992 Z -1.0000
G02 X 16.8019 Y 21.4058 Z -1.0000 I 0.0195 J 0.3920
G02 X 16.7691 Y 21.4161 Z -1.0000 I 0.0288 J 0.1495
G03 X 16.6917 Y 21.4361 Z -1.0000 I -0.0999 J -0.2261
G01 X 16.6789 Y 21.4244 Z -1.0000
G01 X 16.6808 Y 21.4197 Z -1.0000
G01 X 16.6854 Y 21.4178 Z -1.0000
G01 X 16.6898 Y 21.4157 Z -1.0000
G01 X 16.6919 Y 21.4100 Z -1.0000
G01 X 16.6846 Y 21.4095 Z -1.0000
G01 X 16.6767 Y 21.4139 Z -1.0000
G01 X 16.6682 Y 21.4133 Z -1.0000
G01 X 16.6637 Y 21.4143 Z -1.0000
G01 X 16.6628 Y 21.4192 Z -1.0000
G01 X 16.6625 Y 21.4261 Z -1.0000
G01 X 16.6580 Y 21.4293 Z -1.0000
G02 X 16.5814 Y 21.4425 Z -1.0000 I 0.0335 J 0.4213
G01 X 16.5782 Y 21.4508 Z -1.0000
G01 X 16.5612 Y 21.4501 Z -1.0000
G01 X 16.5486 Y 21.4485 Z -1.0000
G01 X 16.5462 Y 21.4513 Z -1.0000
G03 X 16.5127 Y 21.4549 Z -1.0000 I -0.0419 J -0.2334
G03 X 16.4815 Y 21.4513 Z -1.0000 I -0.0036 J -0.1057
G01 X 16.4767 Y 21.4451 Z -1.0000
G01 X 16.4737 Y 21.4425 Z -1.0000
G01 X 16.4673 Y 21.4462 Z -1.0000
G01 X 16.4557 Y 21.4535 Z -1.0000
G03 X 16.4040 Y 21.4588 Z -1.0000 I -0.0540 J -0.2716
G03 X 16.3077 Y 21.4492 Z -1.0000 I -0.0038 J -0.4502
G03 X 16.1948 Y 21.4148 Z -1.0000 I 0.1377 J -0.6562
G03 X 16.0697 Y 21.3447 Z -1.0000 I 0.2104 J -0.5220
G03 X 15.9034 Y 21.1986 Z -1.0000 I 0.8001 J -1.0777
G03 X 15.7732 Y 21.0555 Z -1.0000 I 2.4346 J -2.3467
G03 X 15.7077 Y 20.9708 Z -1.0000 I 0.7843 J -0.6738
G02 X 15.6980 Y 20.9573 Z -1.0000 I -0.3943 J 0.2734
G02 X 15.6070 Y 20.8358 Z -1.0000 I -30.9833 J 23.1082
G03 X 15.5165 Y 20.7139 Z -1.0000 I 10.9511 J -8.2334
G03 X 15.4962 Y 20.6850 Z -1.0000 I 0.5967 J -0.4384
G02 X 15.4765 Y 20.6556 Z -1.0000 I -2.8539 J 1.8938
G02 X 15.4115 Y 20.5601 Z -1.0000 I -29.0264 J 19.6958
G03 X 15.3039 Y 20.3989 Z -1.0000 I 7.2748 J -4.9706
G03 X 15.2394 Y 20.2959 Z -1.0000 I 2.9012 J -1.8900
G02 X 15.2103 Y 20.2483 Z -1.0000 I -3.9106 J 2.3565
G02 X 15.1836 Y 20.2058 Z -1.0000 I -3.0518 J 1.8901
G03 X 15.1002 Y 20.0719 Z -1.0000 I 5.7475 J -3.6697
G03 X 15.0642 Y 20.0089 Z -1.0000 I 1.2405 J -0.7522
G02 X 15.0434 Y 19.9720 Z -1.0000 I -0.9976 J 0.5385
G02 X 15.0209 Y 19.9355 Z -1.0000 I -1.0046 J 0.5917
G03 X 14.9984 Y 19.8991 Z -1.0000 I 1.2090 J -0.7734
G01 X 14.9978 Y 19.8968 Z -1.0000
G01 X 14.9948 Y 19.8862 Z -1.0000
G02 X 14.8554 Y 19.6584 Z -1.0000 I -10.4566 J 6.2441
G03 X 14.8291 Y 19.6160 Z -1.0000 I 4.0897 J -2.5655
G03 X 14.7755 Y 19.5281 Z -1.0000 I 17.8777 J -10.9585
G02 X 14.7217 Y 19.4405 Z -1.0000 I -6.9625 J 4.2210
G02 X 14.7044 Y 19.4141 Z -1.0000 I -0.6542 J 0.4080
G03 X 14.6873 Y 19.3876 Z -1.0000 I 0.4808 J -0.3288
G03 X 14.6614 Y 19.3432 Z -1.0000 I 1.3576 J -0.8243
G02 X 14.6361 Y 19.2984 Z -1.0000 I -43.8998 J 24.7471
G02 X 14.6154 Y 19.2618 Z -1.0000 I -34.4543 J 19.4688
G03 X 14.5801 Y 19.1966 Z -1.0000 I 1.6594 J -0.9404
G03 X 14.4317 Y 18.9063 Z -1.0000 I 32.9915 J -17.0400
G02 X 14.2929 Y 18.6335 Z -1.0000 I -47.7291 J 24.1234
G01 X 14.2881 Y 18.6261 Z -1.0000
G03 X 14.2232 Y 18.5258 Z -1.0000 I 0.4729 J -0.3773
G03 X 14.0660 Y 18.1949 Z -1.0000 I 5.0605 J -2.6069
G02 X 14.0321 Y 18.1174 Z -1.0000 I -43.2528 J 18.8660
G02 X 14.0230 Y 18.0969 Z -1.0000 I -3.1970 J 1.4013
G03 X 14.0149 Y 18.0761 Z -1.0000 I 0.2176 J -0.0964
G01 X 14.0138 Y 18.0691 Z -1.0000
G01 X 14.0126 Y 18.0622 Z -1.0000
G02 X 14.0071 Y 18.0505 Z -1.0000 I -0.0634 J 0.0228
G03 X 13.9982 Y 18.0315 Z -1.0000 I 0.0943 J -0.0556
G03 X 13.9524 Y 17.8959 Z -1.0000 I 4.6268 J -1.6380
G02 X 13.9376 Y 17.8503 Z -1.0000 I -10.3248 J 3.3332
G02 X 13.9342 Y 17.8405 Z -1.0000 I -0.3025 J 0.0992
G03 X 13.9309 Y 17.8306 Z -1.0000 I 0.1398 J -0.0518
G03 X 13.9236 Y 17.8046 Z -1.0000 I 1.3507 J -0.3953
G03 X 13.9165 Y 17.7786 Z -1.0000 I 892.3604 J -242.6843
G02 X 13.9005 Y 17.7199 Z -1.0000 I -54.3911 J 14.7908
G03 X 13.8497 Y 17.5221 Z -1.0000 I 6.4801 J -1.7708
G03 X 13.8417 Y 17.4756 Z -1.0000 I 0.3502 J -0.0844
G02 X 13.8391 Y 17.4594 Z -1.0000 I -0.1623 J 0.0170
G02 X 13.8353 Y 17.4449 Z -1.0000 I -0.1300 J 0.0270
G03 X 13.8243 Y 17.4022 Z -1.0000 I 0.3441 J -0.1113
G03 X 13.8160 Y 17.3453 Z -1.0000 I 0.6103 J -0.1179
G02 X 13.8131 Y 17.3293 Z -1.0000 I -0.0971 J 0.0095
G02 X 13.8065 Y 17.3105 Z -1.0000 I -0.1333 J 0.0361
G03 X 13.8009 Y 17.2922 Z -1.0000 I 0.0862 J -0.0365
G01 X 13.8018 Y 17.2869 Z -1.0000
G01 X 13.8029 Y 17.2815 Z -1.0000
G02 X 13.7950 Y 17.2480 Z -1.0000 I -0.2975 J 0.0525
G03 X 13.7878 Y 17.2144 Z -1.0000 I 0.2141 J -0.0635
G01 X 13.7889 Y 17.2021 Z -1.0000
G01 X 13.7895 Y 17.1912 Z -1.0000
G01 X 13.7855 Y 17.1855 Z -1.0000
G01 X 13.7812 Y 17.1800 Z -1.0000
G01 X 13.7815 Y 17.1725 Z -1.0000
G01 X 13.7824 Y 17.1639 Z -1.0000
G02 X 13.7750 Y 17.1325 Z -1.0000 I -0.2261 J 0.0365
G03 X 13.7670 Y 17.1006 Z -1.0000 I 0.3163 J -0.0965
G03 X 13.7623 Y 17.0683 Z -1.0000 I 0.3019 J -0.0601
G02 X 13.7579 Y 17.0361 Z -1.0000 I -0.3419 J 0.0305
G02 X 13.7533 Y 17.0194 Z -1.0000 I -0.1004 J 0.0187
G03 X 13.7487 Y 17.0028 Z -1.0000 I 0.0981 J -0.0360
G03 X 13.7435 Y 16.9673 Z -1.0000 I 0.4427 J -0.0832
G02 X 13.7391 Y 16.9316 Z -1.0000 I -1.0362 J 0.1104
G02 X 13.7326 Y 16.8904 Z -1.0000 I -1.3301 J 0.1884
G03 X 13.7276 Y 16.8500 Z -1.0000 I 0.4167 J -0.0719
G01 X 13.7292 Y 16.8456 Z -1.0000
G01 X 13.7303 Y 16.8414 Z -1.0000
G02 X 13.7238 Y 16.8241 Z -1.0000 I -0.0812 J 0.0209
G03 X 13.7174 Y 16.8055 Z -1.0000 I 0.0622 J -0.0317
G03 X 13.7106 Y 16.7549 Z -1.0000 I 0.4470 J -0.0858
G02 X 13.7026 Y 16.6819 Z -1.0000 I -1.1498 J 0.0887
G02 X 13.6980 Y 16.6658 Z -1.0000 I -0.0598 J 0.0085
G01 X 13.6952 Y 16.6542 Z -1.0000
G01 X 13.6965 Y 16.6407 Z -1.0000
G01 X 13.6976 Y 16.6272 Z -1.0000
G02 X 13.6933 Y 16.6099 Z -1.0000 I -0.0661 J 0.0070
G03 X 13.6895 Y 16.5921 Z -1.0000 I 0.0520 J -0.0206
G03 X 13.6839 Y 16.4232 Z -1.0000 I 4.9791 J -0.2480
G02 X 13.6783 Y 16.2540 Z -1.0000 I -4.8007 J 0.0747
G02 X 13.6711 Y 16.1724 Z -1.0000 I -1.1105 J 0.0565
G03 X 13.6612 Y 16.0909 Z -1.0000 I 12.1830 J -1.5229
G03 X 13.6587 Y 16.0681 Z -1.0000 I 1.1882 J -0.1405
G02 X 13.6564 Y 16.0453 Z -1.0000 I -1.2825 J 0.1227
G02 X 13.6487 Y 15.9801 Z -1.0000 I -10.4748 J 1.1906
G03 X 13.6414 Y 15.9149 Z -1.0000 I 4.1525 J -0.4982
G03 X 13.6408 Y 15.9052 Z -1.0000 I 0.1140 J -0.0119
G02 X 13.6400 Y 15.8955 Z -1.0000 I -0.0770 J 0.0015
G02 X 13.6320 Y 15.8451 Z -1.0000 I -2.3265 J 0.3435
G03 X 13.6254 Y 15.7948 Z -1.0000 I 0.6751 J -0.1147
G01 X 13.6260 Y 15.7816 Z -1.0000
G01 X 13.6240 Y 15.7684 Z -1.0000
G01 X 13.6200 Y 15.7374 Z -1.0000
G02 X 13.6187 Y 15.7068 Z -1.0000 I -0.2637 J -0.0041
G02 X 13.6154 Y 15.6921 Z -1.0000 I -0.0632 J 0.0064
G01 X 13.6135 Y 15.6787 Z -1.0000
G01 X 13.6163 Y 15.6739 Z -1.0000
G01 X 13.6210 Y 15.6618 Z -1.0000
G01 X 13.6075 Y 15.6434 Z -1.0000
G01 X 13.6052 Y 15.6384 Z -1.0000
G01 X 13.6092 Y 15.6291 Z -1.0000
G01 X 13.6144 Y 15.6185 Z -1.0000
G01 X 13.6140 Y 15.6074 Z -1.0000
G03 X 13.6091 Y 15.5792 Z -1.0000 I 0.1189 J -0.0351
G03 X 13.5998 Y 15.3535 Z -1.0000 I 7.7312 J -0.4313
G02 X 13.5951 Y 15.2466 Z -1.0000 I -3.0539 J 0.0827
G01 X 13.5927 Y 15.2392 Z -1.0000
G03 X 13.5784 Y 15.1881 Z -1.0000 I 0.0812 J -0.0503
G01 X 13.5933 Y 15.1667 Z -1.0000
G01 X 13.6142 Y 15.1356 Z -1.0000
G02 X 13.5897 Y 14.9882 Z -1.0000 I -0.5196 J 0.0108
G03 X 13.5856 Y 14.9675 Z -1.0000 I 0.0866 J -0.0277
G01 X 13.5876 Y 14.9597 Z -1.0000
G01 X 13.5906 Y 14.9518 Z -1.0000
G02 X 13.5942 Y 14.9227 Z -1.0000 I -0.2606 J -0.0469
G03 X 13.5990 Y 14.8949 Z -1.0000 I 0.1347 J 0.0091
G01 X 13.6039 Y 14.8884 Z -1.0000
G01 X 13.6080 Y 14.8828 Z -1.0000
G01 X 13.6071 Y 14.8763 Z -1.0000
G03 X 13.5854 Y 14.7977 Z -1.0000 I 0.1233 J -0.0762
G03 X 13.6172 Y 14.2672 Z -1.0000 I 6.1212 J 0.1001
G02 X 13.6230 Y 14.2028 Z -1.0000 I -2.3710 J -0.2477
G02 X 13.6242 Y 14.1776 Z -1.0000 I -0.4016 J -0.0310
G03 X 13.6273 Y 14.1551 Z -1.0000 I 0.0932 J 0.0013
G01 X 13.6308 Y 14.1524 Z -1.0000
G01 X 13.6341 Y 14.1498 Z -1.0000
G01 X 13.6354 Y 14.1345 Z -1.0000
G03 X 13.6353 Y 14.1167 Z -1.0000 I 0.0975 J -0.0091
G03 X 13.6382 Y 14.1033 Z -1.0000 I 0.0579 J 0.0052
G02 X 13.6416 Y 14.0898 Z -1.0000 I -0.0985 J -0.0324
G02 X 13.6490 Y 14.0446 Z -1.0000 I -1.0285 J -0.1906
G03 X 13.6679 Y 13.9437 Z -1.0000 I 1.1051 J 0.1550
G03 X 13.7180 Y 13.7517 Z -1.0000 I 4.0504 J 0.9541
G02 X 13.7795 Y 13.3432 Z -1.0000 I -1.5364 J -0.4402
G02 X 13.7305 Y 13.1196 Z -1.0000 I -0.4906 J -0.0097
G02 X 13.6869 Y 13.0473 Z -1.0000 I -0.4128 J 0.1999
G02 X 13.6199 Y 12.9696 Z -1.0000 I -0.5458 J 0.4024
G02 X 13.4166 Y 12.8476 Z -1.0000 I -0.3473 J 0.3483
G02 X 13.1534 Y 12.8268 Z -1.0000 I -0.1784 J 0.5829
G02 X 12.8828 Y 12.9522 Z -1.0000 I 0.0714 J 0.5088
G02 X 12.7010 Y 13.2304 Z -1.0000 I 0.4248 J 0.4762
G02 X 12.6706 Y 13.3620 Z -1.0000 I 0.7262 J 0.2370
G02 X 12.6690 Y 13.4599 Z -1.0000 I 0.3973 J 0.0553
G03 X 12.6665 Y 13.4888 Z -1.0000 I -0.0758 J 0.0080
G01 X 12.6597 Y 13.4927 Z -1.0000
G01 X 12.6517 Y 13.4938 Z -1.0000
G01 X 12.6501 Y 13.4983 Z -1.0000
G01 X 12.6553 Y 13.5048 Z -1.0000
G01 X 12.6633 Y 13.5073 Z -1.0000
G01 X 12.6686 Y 13.5104 Z -1.0000
G01 X 12.6691 Y 13.5176 Z -1.0000
G02 X 12.6659 Y 13.5281 Z -1.0000 I 0.0789 J 0.0305
G01 X 12.6651 Y 13.5341 Z -1.0000
G01 X 12.6629 Y 13.5388 Z -1.0000
G01 X 12.6505 Y 13.5465 Z -1.0000
G01 X 12.6554 Y 13.5512 Z -1.0000
G01 X 12.6692 Y 13.5562 Z -1.0000
G01 X 12.6760 Y 13.5708 Z -1.0000
G03 X 12.6746 Y 13.5907 Z -1.0000 I -0.0820 J 0.0041
G01 X 12.6712 Y 13.5956 Z -1.0000
G01 X 12.6692 Y 13.5891 Z -1.0000
G01 X 12.6686 Y 13.5821 Z -1.0000
G01 X 12.6630 Y 13.5790 Z -1.0000
G01 X 12.6552 Y 13.5820 Z -1.0000
G01 X 12.6488 Y 13.5920 Z -1.0000
G01 X 12.6417 Y 13.5998 Z -1.0000
G01 X 12.6278 Y 13.6008 Z -1.0000
G01 X 12.6170 Y 13.6020 Z -1.0000
G01 X 12.6150 Y 13.6073 Z -1.0000
G01 X 12.6151 Y 13.6154 Z -1.0000
G01 X 12.6112 Y 13.6183 Z -1.0000
G01 X 12.6163 Y 13.6284 Z -1.0000
G01 X 12.6215 Y 13.6378 Z -1.0000
G01 X 12.6179 Y 13.6448 Z -1.0000
G01 X 12.6172 Y 13.6519 Z -1.0000
G01 X 12.6277 Y 13.6530 Z -1.0000
G01 X 12.6398 Y 13.6530 Z -1.0000
G01 X 12.6375 Y 13.6633 Z -1.0000
G01 X 12.6457 Y 13.6768 Z -1.0000
G01 X 12.6498 Y 13.6897 Z -1.0000
G01 X 12.6414 Y 13.6874 Z -1.0000
G01 X 12.6390 Y 13.6832 Z -1.0000
G01 X 12.6371 Y 13.6786 Z -1.0000
G01 X 12.6325 Y 13.6767 Z -1.0000
G01 X 12.6283 Y 13.6790 Z -1.0000
G01 X 12.6260 Y 13.6866 Z -1.0000
G01 X 12.6245 Y 13.6960 Z -1.0000
G03 X 12.6179 Y 13.7103 Z -1.0000 I -0.0771 J -0.0267
G01 X 12.6146 Y 13.7224 Z -1.0000
G01 X 12.6177 Y 13.7270 Z -1.0000
G01 X 12.6232 Y 13.7320 Z -1.0000
G03 X 12.6299 Y 13.7524 Z -1.0000 I -0.0764 J 0.0362
G01 X 12.6382 Y 13.7687 Z -1.0000
G01 X 12.6480 Y 13.7716 Z -1.0000
G01 X 12.6375 Y 13.7788 Z -1.0000
G02 X 12.6153 Y 13.7947 Z -1.0000 I 0.0250 J 0.0583
G01 X 12.6179 Y 13.8006 Z -1.0000
G01 X 12.6319 Y 13.8168 Z -1.0000
G01 X 12.6130 Y 13.8333 Z -1.0000
G01 X 12.6146 Y 13.8422 Z -1.0000
G01 X 12.6241 Y 13.8519 Z -1.0000
G01 X 12.6260 Y 13.8580 Z -1.0000
G01 X 12.6281 Y 13.8639 Z -1.0000
G01 X 12.6374 Y 13.8719 Z -1.0000
G01 X 12.6413 Y 13.8788 Z -1.0000
G01 X 12.6374 Y 13.8856 Z -1.0000
G01 X 12.6273 Y 13.9023 Z -1.0000
G01 X 12.6358 Y 13.9114 Z -1.0000
G01 X 12.6433 Y 13.9137 Z -1.0000
G01 X 12.6456 Y 13.9183 Z -1.0000
G01 X 12.6436 Y 13.9216 Z -1.0000
G01 X 12.6394 Y 13.9214 Z -1.0000
G01 X 12.6343 Y 13.9215 Z -1.0000
G01 X 12.6262 Y 13.9308 Z -1.0000
G01 X 12.6245 Y 13.9407 Z -1.0000
G01 X 12.6284 Y 13.9440 Z -1.0000
G01 X 12.6359 Y 13.9465 Z -1.0000
G01 X 12.6414 Y 13.9538 Z -1.0000
G01 X 12.6422 Y 13.9615 Z -1.0000
G01 X 12.6396 Y 13.9636 Z -1.0000
G01 X 12.6357 Y 13.9657 Z -1.0000
G01 X 12.6305 Y 13.9771 Z -1.0000
G01 X 12.6315 Y 13.9857 Z -1.0000
G01 X 12.6357 Y 13.9873 Z -1.0000
G01 X 12.6428 Y 13.9877 Z -1.0000
G01 X 12.6482 Y 13.9936 Z -1.0000
G01 X 12.6455 Y 13.9993 Z -1.0000
G01 X 12.6412 Y 13.9990 Z -1.0000
G01 X 12.6391 Y 14.0022 Z -1.0000
G01 X 12.6414 Y 14.0068 Z -1.0000
G01 X 12.6484 Y 14.0091 Z -1.0000
G01 X 12.6535 Y 14.0128 Z -1.0000
G01 X 12.6551 Y 14.0293 Z -1.0000
G01 X 12.6569 Y 14.0415 Z -1.0000
G01 X 12.6609 Y 14.0424 Z -1.0000
G01 X 12.6649 Y 14.0434 Z -1.0000
G01 X 12.6664 Y 14.0549 Z -1.0000
G03 X 12.6615 Y 14.0718 Z -1.0000 I -0.0664 J -0.0100
G01 X 12.6578 Y 14.0743 Z -1.0000
G01 X 12.6544 Y 14.0767 Z -1.0000
G01 X 12.6520 Y 14.0898 Z -1.0000
G01 X 12.6614 Y 14.1147 Z -1.0000
G01 X 12.6741 Y 14.1151 Z -1.0000
G01 X 12.6835 Y 14.1173 Z -1.0000
G03 X 12.6864 Y 14.1503 Z -1.0000 I -0.0636 J 0.0222
G02 X 12.6862 Y 14.1692 Z -1.0000 I 0.0610 J 0.0100
G01 X 12.6895 Y 14.1720 Z -1.0000
G01 X 12.7018 Y 14.1813 Z -1.0000
G01 X 12.6963 Y 14.1956 Z -1.0000
G01 X 12.6937 Y 14.1926 Z -1.0000
G01 X 12.6944 Y 14.1873 Z -1.0000
G01 X 12.6914 Y 14.1851 Z -1.0000
G01 X 12.6856 Y 14.1914 Z -1.0000
G01 X 12.6932 Y 14.2078 Z -1.0000
G01 X 12.6990 Y 14.2213 Z -1.0000
G03 X 12.6947 Y 14.2576 Z -1.0000 I -0.1237 J 0.0036
G02 X 12.6927 Y 14.2748 Z -1.0000 I 0.0539 J 0.0149
G02 X 12.6969 Y 14.3119 Z -1.0000 I 0.2631 J -0.0107
G03 X 12.7002 Y 14.3487 Z -1.0000 I -0.1974 J 0.0364
G01 X 12.6967 Y 14.3625 Z -1.0000
G01 X 12.6972 Y 14.3711 Z -1.0000
G01 X 12.7010 Y 14.3726 Z -1.0000
G03 X 12.7031 Y 14.3931 Z -1.0000 I -0.0623 J 0.0167
G02 X 12.7046 Y 14.4186 Z -1.0000 I 0.1083 J 0.0064
G01 X 12.7093 Y 14.4276 Z -1.0000
G01 X 12.7147 Y 14.4363 Z -1.0000
G01 X 12.7166 Y 14.4487 Z -1.0000
G01 X 12.7140 Y 14.4513 Z -1.0000
G01 X 12.7105 Y 14.4490 Z -1.0000
G01 X 12.7044 Y 14.4541 Z -1.0000
G02 X 12.7061 Y 14.4719 Z -1.0000 I 0.0738 J 0.0019
G02 X 12.7135 Y 14.4951 Z -1.0000 I 0.1308 J -0.0288
G01 X 12.7184 Y 14.5151 Z -1.0000
G01 X 12.7137 Y 14.5408 Z -1.0000
G02 X 12.7169 Y 14.5672 Z -1.0000 I 0.1070 J -0.0000
G01 X 12.7218 Y 14.5726 Z -1.0000
G01 X 12.7291 Y 14.5840 Z -1.0000
G01 X 12.7197 Y 14.6050 Z -1.0000
G01 X 12.7171 Y 14.6120 Z -1.0000
G01 X 12.7207 Y 14.6152 Z -1.0000
G01 X 12.7241 Y 14.6186 Z -1.0000
G01 X 12.7207 Y 14.6276 Z -1.0000
G01 X 12.7150 Y 14.6385 Z -1.0000
G01 X 12.7173 Y 14.6425 Z -1.0000
G01 X 12.7495 Y 14.6847 Z -1.0000
G03 X 12.7224 Y 14.7363 Z -1.0000 I -0.0569 J 0.0031
G01 X 12.7197 Y 14.7406 Z -1.0000
G01 X 12.7213 Y 14.7475 Z -1.0000
G01 X 12.7250 Y 14.7554 Z -1.0000
G01 X 12.7268 Y 14.7649 Z -1.0000
G02 X 12.7283 Y 14.7747 Z -1.0000 I 0.0786 J -0.0068
G02 X 12.7324 Y 14.7911 Z -1.0000 I 0.2324 J -0.0498
G01 X 12.7303 Y 14.7976 Z -1.0000
G01 X 12.7261 Y 14.7971 Z -1.0000
G01 X 12.7226 Y 14.8041 Z -1.0000
G02 X 12.7221 Y 14.8204 Z -1.0000 I 0.3359 J 0.0179
G01 X 12.7225 Y 14.8253 Z -1.0000
G01 X 12.7213 Y 14.8285 Z -1.0000
G01 X 12.7162 Y 14.8302 Z -1.0000
G01 X 12.7039 Y 14.8453 Z -1.0000
G02 X 12.7257 Y 14.8773 Z -1.0000 I 0.0492 J -0.0100
G01 X 12.7249 Y 14.8822 Z -1.0000
G01 X 12.7190 Y 14.8845 Z -1.0000
G01 X 12.7168 Y 14.8895 Z -1.0000
G01 X 12.7193 Y 14.8931 Z -1.0000
G01 X 12.7266 Y 14.8930 Z -1.0000
G01 X 12.7334 Y 14.8964 Z -1.0000
G01 X 12.7300 Y 14.9051 Z -1.0000
G01 X 12.7268 Y 14.9105 Z -1.0000
G02 X 12.7268 Y 14.9690 Z -1.0000 I 0.5809 J 0.0289
G02 X 12.7299 Y 15.0290 Z -1.0000 I 45.7541 J -2.3570
G02 X 12.7317 Y 15.0616 Z -1.0000 I 10.9911 J -0.5807
G03 X 12.7313 Y 15.0935 Z -1.0000 I -0.2377 J 0.0127
G01 X 12.7285 Y 15.1012 Z -1.0000
G01 X 12.7275 Y 15.1080 Z -1.0000
G01 X 12.7350 Y 15.1207 Z -1.0000
G01 X 12.7460 Y 15.1466 Z -1.0000
G01 X 12.7371 Y 15.1560 Z -1.0000
G01 X 12.7345 Y 15.1582 Z -1.0000
G02 X 12.7318 Y 15.1909 Z -1.0000 I 0.2378 J 0.0364
G03 X 12.7288 Y 15.2250 Z -1.0000 I -0.2351 J -0.0033
G01 X 12.7240 Y 15.2393 Z -1.0000
G01 X 12.7207 Y 15.2519 Z -1.0000
G01 X 12.7235 Y 15.2572 Z -1.0000
G01 X 12.7262 Y 15.2621 Z -1.0000
G01 X 12.7232 Y 15.2701 Z -1.0000
G01 X 12.7221 Y 15.2768 Z -1.0000
G01 X 12.7278 Y 15.2818 Z -1.0000
G01 X 12.7265 Y 15.2857 Z -1.0000
G01 X 12.7218 Y 15.2887 Z -1.0000
G01 X 12.7228 Y 15.2925 Z -1.0000
G01 X 12.7267 Y 15.2992 Z -1.0000
G01 X 12.7235 Y 15.3089 Z -1.0000
G01 X 12.7237 Y 15.3185 Z -1.0000
G01 X 12.7328 Y 15.3191 Z -1.0000
G01 X 12.7397 Y 15.3173 Z -1.0000
G01 X 12.7427 Y 15.3210 Z -1.0000
G01 X 12.7408 Y 15.3301 Z -1.0000
G01 X 12.7365 Y 15.3350 Z -1.0000
G01 X 12.7332 Y 15.3398 Z -1.0000
G01 X 12.7339 Y 15.3484 Z -1.0000
G01 X 12.7388 Y 15.3543 Z -1.0000
G01 X 12.7434 Y 15.3543 Z -1.0000
G01 X 12.7473 Y 15.3541 Z -1.0000
G01 X 12.7492 Y 15.3572 Z -1.0000
G01 X 12.7469 Y 15.3621 Z -1.0000
G01 X 12.7366 Y 15.3677 Z -1.0000
G01 X 12.7261 Y 15.3787 Z -1.0000
G02 X 12.7222 Y 15.4214 Z -1.0000 I 0.1217 J 0.0326
G02 X 12.7283 Y 15.4442 Z -1.0000 I 0.0665 J -0.0055
G01 X 12.7340 Y 15.4465 Z -1.0000
G01 X 12.7379 Y 15.4474 Z -1.0000
G01 X 12.7383 Y 15.4510 Z -1.0000
G02 X 12.7297 Y 15.4836 Z -1.0000 I 0.0472 J 0.0298
G01 X 12.7402 Y 15.4905 Z -1.0000
G01 X 12.7462 Y 15.4913 Z -1.0000
G01 X 12.7492 Y 15.4975 Z -1.0000
G01 X 12.7464 Y 15.5051 Z -1.0000
G01 X 12.7401 Y 15.5079 Z -1.0000
G01 X 12.7278 Y 15.5176 Z -1.0000
G01 X 12.7349 Y 15.5293 Z -1.0000
G01 X 12.7371 Y 15.5328 Z -1.0000
G01 X 12.7330 Y 15.5379 Z -1.0000
G01 X 12.7182 Y 15.5527 Z -1.0000
G01 X 12.7230 Y 15.5601 Z -1.0000
G01 X 12.7259 Y 15.5624 Z -1.0000
G01 X 12.7256 Y 15.5699 Z -1.0000
G01 X 12.7255 Y 15.5772 Z -1.0000
G01 X 12.7291 Y 15.5797 Z -1.0000
G01 X 12.7339 Y 15.5821 Z -1.0000
G01 X 12.7363 Y 15.5893 Z -1.0000
G01 X 12.7331 Y 15.5945 Z -1.0000
G01 X 12.7248 Y 15.5953 Z -1.0000
G01 X 12.7261 Y 15.6020 Z -1.0000
G01 X 12.7325 Y 15.6125 Z -1.0000
G01 X 12.7391 Y 15.6223 Z -1.0000
G01 X 12.7407 Y 15.6319 Z -1.0000
G01 X 12.7331 Y 15.6354 Z -1.0000
G01 X 12.7296 Y 15.6449 Z -1.0000
G01 X 12.7321 Y 15.6555 Z -1.0000
G01 X 12.7361 Y 15.6580 Z -1.0000
G01 X 12.7407 Y 15.6561 Z -1.0000
G01 X 12.7426 Y 15.6515 Z -1.0000
G01 X 12.7448 Y 15.6471 Z -1.0000
G01 X 12.7507 Y 15.6452 Z -1.0000
G01 X 12.7434 Y 15.6582 Z -1.0000
G01 X 12.7341 Y 15.6716 Z -1.0000
G01 X 12.7356 Y 15.6802 Z -1.0000
G01 X 12.7395 Y 15.6888 Z -1.0000
G01 X 12.7375 Y 15.6929 Z -1.0000
G01 X 12.7345 Y 15.6978 Z -1.0000
G02 X 12.7334 Y 15.7425 Z -1.0000 I 0.3715 J 0.0314
G01 X 12.7281 Y 15.7842 Z -1.0000
G01 X 12.7259 Y 15.7987 Z -1.0000
G03 X 12.7300 Y 15.8178 Z -1.0000 I -0.2660 J 0.0666
G03 X 12.7340 Y 15.8453 Z -1.0000 I -0.4846 J 0.0853
G03 X 12.7326 Y 15.8688 Z -1.0000 I -0.0646 J 0.0079
G01 X 12.7272 Y 15.8730 Z -1.0000
G01 X 12.7218 Y 15.8784 Z -1.0000
G02 X 12.7263 Y 15.9275 Z -1.0000 I 0.2262 J 0.0041
G01 X 12.7229 Y 15.9387 Z -1.0000
G01 X 12.7119 Y 15.9418 Z -1.0000
G01 X 12.7075 Y 15.9437 Z -1.0000
G01 X 12.7084 Y 15.9479 Z -1.0000
G01 X 12.7234 Y 15.9710 Z -1.0000
G01 X 12.7165 Y 15.9870 Z -1.0000
G01 X 12.7054 Y 16.0059 Z -1.0000
G01 X 12.7154 Y 16.0163 Z -1.0000
G01 X 12.7181 Y 16.0187 Z -1.0000
G03 X 12.7179 Y 16.0359 Z -1.0000 I -0.0626 J 0.0079
G02 X 12.7182 Y 16.0527 Z -1.0000 I 0.0502 J 0.0075
G01 X 12.7215 Y 16.0554 Z -1.0000
G01 X 12.7257 Y 16.0581 Z -1.0000
G03 X 12.7309 Y 16.0750 Z -1.0000 I -0.0536 J 0.0256
G01 X 12.7269 Y 16.0876 Z -1.0000
G01 X 12.7188 Y 16.0878 Z -1.0000
G01 X 12.7116 Y 16.1106 Z -1.0000
G02 X 12.7151 Y 16.1363 Z -1.0000 I 0.0865 J 0.0013
G01 X 12.7203 Y 16.1402 Z -1.0000
G01 X 12.7267 Y 16.1430 Z -1.0000
G01 X 12.7295 Y 16.1503 Z -1.0000
G01 X 12.7322 Y 16.1557 Z -1.0000
G01 X 12.7369 Y 16.1559 Z -1.0000
G01 X 12.7403 Y 16.1564 Z -1.0000
G01 X 12.7412 Y 16.1604 Z -1.0000
G01 X 12.7362 Y 16.1674 Z -1.0000
G01 X 12.7265 Y 16.1717 Z -1.0000
G01 X 12.7201 Y 16.1704 Z -1.0000
G01 X 12.7193 Y 16.1668 Z -1.0000
G01 X 12.7199 Y 16.1619 Z -1.0000
G01 X 12.7168 Y 16.1597 Z -1.0000
G01 X 12.7123 Y 16.1621 Z -1.0000
G01 X 12.7099 Y 16.1696 Z -1.0000
G01 X 12.7083 Y 16.1790 Z -1.0000
G03 X 12.7020 Y 16.1921 Z -1.0000 I -0.0645 J -0.0228
G01 X 12.6974 Y 16.2044 Z -1.0000
G01 X 12.6991 Y 16.2098 Z -1.0000
G01 X 12.7036 Y 16.2108 Z -1.0000
G01 X 12.7096 Y 16.2060 Z -1.0000
G01 X 12.7215 Y 16.2016 Z -1.0000
G01 X 12.7295 Y 16.2127 Z -1.0000
G01 X 12.7275 Y 16.2156 Z -1.0000
G01 X 12.7230 Y 16.2152 Z -1.0000
G01 X 12.7186 Y 16.2179 Z -1.0000
G01 X 12.7245 Y 16.2303 Z -1.0000
G01 X 12.7280 Y 16.2388 Z -1.0000
G01 X 12.7245 Y 16.2511 Z -1.0000
G01 X 12.7230 Y 16.2673 Z -1.0000
G01 X 12.7274 Y 16.2670 Z -1.0000
G01 X 12.7295 Y 16.2702 Z -1.0000
G01 X 12.7243 Y 16.2751 Z -1.0000
G01 X 12.7113 Y 16.2693 Z -1.0000
G01 X 12.7066 Y 16.2691 Z -1.0000
G01 X 12.7035 Y 16.2758 Z -1.0000
G01 X 12.7062 Y 16.2874 Z -1.0000
G01 X 12.7106 Y 16.2901 Z -1.0000
G01 X 12.7146 Y 16.2945 Z -1.0000
G03 X 12.7057 Y 16.3643 Z -1.0000 I -0.5562 J -0.0360
G01 X 12.7004 Y 16.3745 Z -1.0000
G01 X 12.6964 Y 16.3741 Z -1.0000
G01 X 12.6906 Y 16.3830 Z -1.0000
G02 X 12.6929 Y 16.3985 Z -1.0000 I 0.0501 J 0.0003
G01 X 12.6963 Y 16.4009 Z -1.0000
G01 X 12.7020 Y 16.4069 Z -1.0000
G03 X 12.6932 Y 16.4684 Z -1.0000 I -0.3231 J -0.0151
G02 X 12.6918 Y 16.4857 Z -1.0000 I 0.0536 J 0.0129
G01 X 12.6951 Y 16.4912 Z -1.0000
G01 X 12.7152 Y 16.5199 Z -1.0000
G01 X 12.7038 Y 16.5281 Z -1.0000
G01 X 12.6992 Y 16.5227 Z -1.0000
G01 X 12.6970 Y 16.5109 Z -1.0000
G01 X 12.6944 Y 16.5024 Z -1.0000
G01 X 12.6910 Y 16.5016 Z -1.0000
G01 X 12.6861 Y 16.5018 Z -1.0000
G01 X 12.6817 Y 16.4971 Z -1.0000
G01 X 12.6779 Y 16.5000 Z -1.0000
G01 X 12.6747 Y 16.5095 Z -1.0000
G01 X 12.6659 Y 16.5178 Z -1.0000
G01 X 12.6598 Y 16.5249 Z -1.0000
G01 X 12.6610 Y 16.5296 Z -1.0000
G03 X 12.6845 Y 16.5590 Z -1.0000 I -0.0472 J 0.0617
G01 X 12.6817 Y 16.5747 Z -1.0000
G01 X 12.6773 Y 16.5715 Z -1.0000
G01 X 12.6754 Y 16.5657 Z -1.0000
G01 X 12.6720 Y 16.5639 Z -1.0000
G01 X 12.6520 Y 16.5841 Z -1.0000
G02 X 12.6724 Y 16.6329 Z -1.0000 I 0.0696 J -0.0005
G01 X 12.6739 Y 16.6378 Z -1.0000
G01 X 12.6699 Y 16.6464 Z -1.0000
G01 X 12.6664 Y 16.6551 Z -1.0000
G01 X 12.6632 Y 16.6751 Z -1.0000
G01 X 12.6539 Y 16.6899 Z -1.0000
G01 X 12.6469 Y 16.6914 Z -1.0000
G01 X 12.6415 Y 16.6943 Z -1.0000
G01 X 12.6417 Y 16.6986 Z -1.0000
G01 X 12.6382 Y 16.7007 Z -1.0000
G01 X 12.6348 Y 16.7029 Z -1.0000
G01 X 12.6351 Y 16.7075 Z -1.0000
G01 X 12.6401 Y 16.7100 Z -1.0000
G01 X 12.6492 Y 16.7062 Z -1.0000
G01 X 12.6579 Y 16.7043 Z -1.0000
G01 X 12.6664 Y 16.7108 Z -1.0000
G03 X 12.6869 Y 16.7638 Z -1.0000 I -0.1572 J 0.0914
G01 X 12.6828 Y 16.7868 Z -1.0000
G01 X 12.6792 Y 16.7957 Z -1.0000
G02 X 12.6774 Y 16.8132 Z -1.0000 I 0.0834 J 0.0175
G01 X 12.6737 Y 16.8274 Z -1.0000
G01 X 12.6675 Y 16.8311 Z -1.0000
G01 X 12.6603 Y 16.8337 Z -1.0000
G01 X 12.6577 Y 16.8395 Z -1.0000
G01 X 12.6536 Y 16.8449 Z -1.0000
G03 X 12.6154 Y 16.8512 Z -1.0000 I -0.0483 J -0.1732
G01 X 12.6105 Y 16.8551 Z -1.0000
G01 X 12.6157 Y 16.8603 Z -1.0000
G01 X 12.6189 Y 16.8756 Z -1.0000
G01 X 12.6226 Y 16.8825 Z -1.0000
G01 X 12.6278 Y 16.8816 Z -1.0000
G01 X 12.6375 Y 16.8723 Z -1.0000
G01 X 12.6442 Y 16.8702 Z -1.0000
G01 X 12.6486 Y 16.8683 Z -1.0000
G01 X 12.6488 Y 16.8650 Z -1.0000
G01 X 12.6680 Y 16.8591 Z -1.0000
G01 X 12.6904 Y 16.8615 Z -1.0000
G01 X 12.6859 Y 16.8715 Z -1.0000
G03 X 12.6642 Y 16.8849 Z -1.0000 I -0.0480 J -0.0536
G01 X 12.6655 Y 16.8892 Z -1.0000
G01 X 12.6731 Y 16.8929 Z -1.0000
G01 X 12.6760 Y 16.9012 Z -1.0000
G01 X 12.6769 Y 16.9124 Z -1.0000
G02 X 12.6806 Y 16.9256 Z -1.0000 I 0.0724 J -0.0136
G01 X 12.6769 Y 16.9305 Z -1.0000
G01 X 12.6555 Y 16.9226 Z -1.0000
G01 X 12.6424 Y 16.9321 Z -1.0000
G01 X 12.6419 Y 16.9396 Z -1.0000
G01 X 12.6450 Y 16.9419 Z -1.0000
G01 X 12.6493 Y 16.9439 Z -1.0000
G01 X 12.6513 Y 16.9492 Z -1.0000
G01 X 12.6483 Y 16.9530 Z -1.0000
G01 X 12.6327 Y 16.9537 Z -1.0000
G01 X 12.6189 Y 16.9563 Z -1.0000
G01 X 12.6147 Y 16.9638 Z -1.0000
G01 X 12.6236 Y 16.9798 Z -1.0000
G01 X 12.6317 Y 16.9756 Z -1.0000
G01 X 12.6298 Y 16.9703 Z -1.0000
G01 X 12.6236 Y 16.9655 Z -1.0000
G01 X 12.6378 Y 16.9633 Z -1.0000
G01 X 12.6490 Y 16.9736 Z -1.0000
G01 X 12.6413 Y 16.9867 Z -1.0000
G01 X 12.6252 Y 16.9971 Z -1.0000
G01 X 12.6250 Y 17.0035 Z -1.0000
G01 X 12.6299 Y 17.0238 Z -1.0000
G01 X 12.6184 Y 17.0331 Z -1.0000
G01 X 12.6154 Y 17.0354 Z -1.0000
G02 X 12.6142 Y 17.0510 Z -1.0000 I 0.0506 J 0.0119
G01 X 12.6119 Y 17.0649 Z -1.0000
G01 X 12.6074 Y 17.0674 Z -1.0000
G01 X 12.6044 Y 17.0697 Z -1.0000
G01 X 12.6069 Y 17.0823 Z -1.0000
G01 X 12.6162 Y 17.0944 Z -1.0000
G01 X 12.6231 Y 17.0955 Z -1.0000
G01 X 12.6196 Y 17.1094 Z -1.0000
G01 X 12.6104 Y 17.1226 Z -1.0000
G02 X 12.6035 Y 17.1471 Z -1.0000 I 0.0941 J 0.0400
G03 X 12.5961 Y 17.1713 Z -1.0000 I -0.0873 J -0.0133
G01 X 12.5862 Y 17.1840 Z -1.0000
G01 X 12.5759 Y 17.1961 Z -1.0000
G01 X 12.5731 Y 17.2068 Z -1.0000
G01 X 12.5758 Y 17.2105 Z -1.0000
G01 X 12.5801 Y 17.2090 Z -1.0000
G01 X 12.5831 Y 17.2171 Z -1.0000
G01 X 12.5839 Y 17.2313 Z -1.0000
G01 X 12.5891 Y 17.2350 Z -1.0000
G01 X 12.5945 Y 17.2406 Z -1.0000
G03 X 12.5883 Y 17.2724 Z -1.0000 I -0.0951 J -0.0021
G03 X 12.5746 Y 17.2943 Z -1.0000 I -0.0618 J -0.0235
G01 X 12.5655 Y 17.2966 Z -1.0000
G01 X 12.5549 Y 17.3028 Z -1.0000
G01 X 12.5616 Y 17.3154 Z -1.0000
G01 X 12.5640 Y 17.3194 Z -1.0000
G01 X 12.5609 Y 17.3249 Z -1.0000
G01 X 12.5580 Y 17.3304 Z -1.0000
G01 X 12.5609 Y 17.3344 Z -1.0000
G01 X 12.5644 Y 17.3389 Z -1.0000
G01 X 12.5621 Y 17.3458 Z -1.0000
G01 X 12.5574 Y 17.3545 Z -1.0000
G01 X 12.5580 Y 17.3632 Z -1.0000
G01 X 12.5560 Y 17.3677 Z -1.0000
G01 X 12.5451 Y 17.3684 Z -1.0000
G01 X 12.5292 Y 17.3727 Z -1.0000
G01 X 12.5277 Y 17.3852 Z -1.0000
G01 X 12.5338 Y 17.3888 Z -1.0000
G01 X 12.5394 Y 17.3860 Z -1.0000
G01 X 12.5494 Y 17.4048 Z -1.0000
G01 X 12.5467 Y 17.4272 Z -1.0000
G01 X 12.5394 Y 17.4287 Z -1.0000
G01 X 12.5159 Y 17.4168 Z -1.0000
G01 X 12.5078 Y 17.4238 Z -1.0000
G01 X 12.5088 Y 17.4275 Z -1.0000
G01 X 12.5149 Y 17.4350 Z -1.0000
G01 X 12.5176 Y 17.4416 Z -1.0000
G01 X 12.5149 Y 17.4464 Z -1.0000
G01 X 12.5048 Y 17.4653 Z -1.0000
G01 X 12.5160 Y 17.4762 Z -1.0000
G01 X 12.5161 Y 17.4814 Z -1.0000
G01 X 12.5116 Y 17.4879 Z -1.0000
G01 X 12.5117 Y 17.5025 Z -1.0000
G03 X 12.5148 Y 17.5295 Z -1.0000 I -0.1270 J 0.0286
G03 X 12.5124 Y 17.5611 Z -1.0000 I -0.1781 J 0.0022
G03 X 12.5025 Y 17.5866 Z -1.0000 I -0.0658 J -0.0110
G01 X 12.4885 Y 17.5978 Z -1.0000
G01 X 12.4752 Y 17.6079 Z -1.0000
G01 X 12.4732 Y 17.6187 Z -1.0000
G01 X 12.4822 Y 17.6295 Z -1.0000
G01 X 12.4883 Y 17.6256 Z -1.0000
G01 X 12.4903 Y 17.6225 Z -1.0000
G01 X 12.4948 Y 17.6227 Z -1.0000
G01 X 12.5015 Y 17.6334 Z -1.0000
G01 X 12.4964 Y 17.6383 Z -1.0000
G01 X 12.4817 Y 17.6425 Z -1.0000
G01 X 12.4752 Y 17.6570 Z -1.0000
G01 X 12.4807 Y 17.6694 Z -1.0000
G01 X 12.4949 Y 17.6749 Z -1.0000
G01 X 12.5074 Y 17.6690 Z -1.0000
G01 X 12.5105 Y 17.6561 Z -1.0000
G01 X 12.5126 Y 17.6413 Z -1.0000
G01 X 12.5187 Y 17.6422 Z -1.0000
G01 X 12.5308 Y 17.6364 Z -1.0000
G01 X 12.5360 Y 17.6271 Z -1.0000
G01 X 12.5322 Y 17.6171 Z -1.0000
G01 X 12.5208 Y 17.6104 Z -1.0000
G01 X 12.5098 Y 17.6108 Z -1.0000
G01 X 12.5029 Y 17.6096 Z -1.0000
G03 X 12.5384 Y 17.5927 Z -1.0000 I 0.0384 J 0.0350
G01 X 12.5533 Y 17.6068 Z -1.0000
G01 X 12.5514 Y 17.6110 Z -1.0000
G01 X 12.5464 Y 17.6130 Z -1.0000
G01 X 12.5432 Y 17.6150 Z -1.0000
G01 X 12.5435 Y 17.6195 Z -1.0000
G01 X 12.5468 Y 17.6476 Z -1.0000
G03 X 12.4889 Y 17.7802 Z -1.0000 I -0.8217 J -0.2794
G02 X 12.4831 Y 17.7923 Z -1.0000 I 0.1337 J 0.0720
G02 X 12.4708 Y 17.8225 Z -1.0000 I 0.8044 J 0.3453
G03 X 12.4575 Y 17.8483 Z -1.0000 I -0.1212 J -0.0464
G01 X 12.4530 Y 17.8492 Z -1.0000
G01 X 12.4518 Y 17.8533 Z -1.0000
G01 X 12.4534 Y 17.8614 Z -1.0000
G03 X 12.4470 Y 17.8820 Z -1.0000 I -0.0798 J -0.0134
G02 X 12.4376 Y 17.9030 Z -1.0000 I 1.0285 J 0.4752
G02 X 12.4065 Y 17.9745 Z -1.0000 I 12.6833 J 5.5514
G03 X 12.3744 Y 18.0456 Z -1.0000 I -2.0209 J -0.8710
G03 X 12.3525 Y 18.0886 Z -1.0000 I -0.7578 J -0.3590
G03 X 12.2279 Y 18.3063 Z -1.0000 I -5.5093 J -3.0074
G03 X 12.1496 Y 18.4274 Z -1.0000 I -1.7818 J -1.0672
G02 X 12.1388 Y 18.4441 Z -1.0000 I 0.2660 J 0.1832
G02 X 12.1278 Y 18.4638 Z -1.0000 I 0.2986 J 0.1797
G03 X 12.0976 Y 18.5121 Z -1.0000 I -0.3102 J -0.1604
G03 X 11.9632 Y 18.6848 Z -1.0000 I -4.1462 J -3.0892
G03 X 11.7299 Y 18.9492 Z -1.0000 I -3.3871 J -2.7539
G03 X 11.4944 Y 19.1746 Z -1.0000 I -2.6966 J -2.5808
G03 X 11.1782 Y 19.4224 Z -1.0000 I -2.3998 J -2.7364
G03 X 10.9438 Y 19.5591 Z -1.0000 I -0.9514 J -1.3626
G02 X 10.9084 Y 19.5770 Z -1.0000 I 0.3607 J 0.7562
G02 X 10.8916 Y 19.5870 Z -1.0000 I 0.1007 J 0.1878
G03 X 10.8747 Y 19.5965 Z -1.0000 I -0.0779 J -0.1188
G03 X 10.8297 Y 19.6163 Z -1.0000 I -0.3660 J -0.7714
G02 X 10.7843 Y 19.6352 Z -1.0000 I 0.9922 J 2.4430
G02 X 10.7287 Y 19.6595 Z -1.0000 I 1.5520 J 3.6258
G03 X 10.3921 Y 19.7793 Z -1.0000 I -0.9355 J -2.0960
G03 X 10.1176 Y 19.8247 Z -1.0000 I -0.3630 J -1.3432
G02 X 10.0508 Y 19.8304 Z -1.0000 I 0.1067 J 1.6408
G01 X 10.0399 Y 19.8330 Z -1.0000
G01 X 10.0332 Y 19.8308 Z -1.0000
G01 X 10.0001 Y 19.8288 Z -1.0000
G03 X 9.9640 Y 19.8300 Z -1.0000 I -0.0252 J -0.2203
G01 X 9.9548 Y 19.8265 Z -1.0000
G01 X 9.9466 Y 19.8228 Z -1.0000
G01 X 9.9423 Y 19.8241 Z -1.0000
G01 X 9.9380 Y 19.8253 Z -1.0000
G01 X 9.9295 Y 19.8210 Z -1.0000
G01 X 9.9207 Y 19.8206 Z -1.0000
G01 X 9.9179 Y 19.8243 Z -1.0000
G01 X 9.9028 Y 19.8254 Z -1.0000
G02 X 9.8853 Y 19.8255 Z -1.0000 I -0.0083 J 0.0742
G01 X 9.8741 Y 19.8290 Z -1.0000
G01 X 9.8630 Y 19.8311 Z -1.0000
G03 X 9.8352 Y 19.8248 Z -1.0000 I 0.0128 J -0.1213
G02 X 9.8067 Y 19.8184 Z -1.0000 I -0.0414 J 0.1170
G02 X 9.7516 Y 19.8161 Z -1.0000 I -0.0453 J 0.4351
G03 X 9.6254 Y 19.8136 Z -1.0000 I -0.0326 J -1.5063
G01 X 9.6096 Y 19.8073 Z -1.0000
G01 X 9.6039 Y 19.8058 Z -1.0000
G01 X 9.6014 Y 19.8087 Z -1.0000
G01 X 9.5988 Y 19.8112 Z -1.0000
G01 X 9.5911 Y 19.8083 Z -1.0000
G01 X 9.5736 Y 19.8006 Z -1.0000
G02 X 9.5015 Y 19.7958 Z -1.0000 I -0.0686 J 0.4949
G01 X 9.4861 Y 19.7920 Z -1.0000
G01 X 9.4798 Y 19.7839 Z -1.0000
G01 X 9.4742 Y 19.7738 Z -1.0000
G02 X 9.4582 Y 19.7610 Z -1.0000 I -0.0530 J 0.0498
G01 X 9.4465 Y 19.7591 Z -1.0000
G01 X 9.4434 Y 19.7642 Z -1.0000
G01 X 9.4408 Y 19.7717 Z -1.0000
G01 X 9.4314 Y 19.7734 Z -1.0000
G02 X 9.4099 Y 19.7686 Z -1.0000 I -0.0402 J 0.1294
G02 X 9.3648 Y 19.7642 Z -1.0000 I -0.0759 J 0.5444
G01 X 9.3523 Y 19.7601 Z -1.0000
G01 X 9.3512 Y 19.7556 Z -1.0000
G01 X 9.3453 Y 19.7521 Z -1.0000
G01 X 9.3356 Y 19.7533 Z -1.0000
G01 X 9.3312 Y 19.7505 Z -1.0000
G01 X 9.3264 Y 19.7467 Z -1.0000
G02 X 9.3000 Y 19.7400 Z -1.0000 I -0.0573 J 0.1710
G01 X 9.2806 Y 19.7324 Z -1.0000
G01 X 9.2835 Y 19.7243 Z -1.0000
G01 X 9.2716 Y 19.7176 Z -1.0000
G01 X 9.2662 Y 19.7201 Z -1.0000
G01 X 9.2659 Y 19.7241 Z -1.0000
G01 X 9.2663 Y 19.7287 Z -1.0000
G01 X 9.2634 Y 19.7306 Z -1.0000
G03 X 9.2236 Y 19.7237 Z -1.0000 I 0.0000 J -0.1183
G03 X 8.9238 Y 19.6093 Z -1.0000 I 2.5138 J -7.0365
G03 X 8.7594 Y 19.5324 Z -1.0000 I 0.6603 J -1.6245
G03 X 8.5719 Y 19.4218 Z -1.0000 I 1.1859 J -2.2253
G02 X 8.5099 Y 19.3817 Z -1.0000 I -9.7459 J 15.0072
G02 X 8.4794 Y 19.3623 Z -1.0000 I -2.2970 J 3.5691
G03 X 8.3730 Y 19.2894 Z -1.0000 I 0.9291 J -1.4708
G03 X 8.2722 Y 19.2088 Z -1.0000 I 1.0405 J -1.4048
G02 X 8.1278 Y 19.0852 Z -1.0000 I -18.6380 J 21.6229
G02 X 8.0966 Y 19.0595 Z -1.0000 I -0.8364 J 0.9835
G03 X 8.0682 Y 19.0365 Z -1.0000 I 1.3792 J -1.7291
G03 X 8.0610 Y 19.0301 Z -1.0000 I 0.1009 J -0.1223
G02 X 8.0537 Y 19.0237 Z -1.0000 I -0.1329 J 0.1436
G02 X 7.9855 Y 18.9669 Z -1.0000 I -9.0759 J 10.8316
G03 X 7.7232 Y 18.7154 Z -1.0000 I 1.5817 J -1.9121
G03 X 7.5114 Y 18.4405 Z -1.0000 I 1.6832 J -1.5159
G02 X 7.4750 Y 18.3852 Z -1.0000 I -14.3325 J 9.3862
G02 X 7.4631 Y 18.3674 Z -1.0000 I -1.4612 J 0.9650
G03 X 7.4520 Y 18.3495 Z -1.0000 I 0.2291 J -0.1554
G01 X 7.4512 Y 18.3465 Z -1.0000
G01 X 7.4505 Y 18.3434 Z -1.0000
G02 X 7.4186 Y 18.2756 Z -1.0000 I -3.7981 J 1.7444
G03 X 7.3878 Y 18.2074 Z -1.0000 I 1.3766 J -0.6624
G01 X 7.3860 Y 18.1984 Z -1.0000
G01 X 7.3843 Y 18.1897 Z -1.0000
G01 X 7.3797 Y 18.1826 Z -1.0000
G01 X 7.3752 Y 18.1753 Z -1.0000
G03 X 7.3693 Y 18.1504 Z -1.0000 I 0.1565 J -0.0505
G02 X 7.3634 Y 18.1253 Z -1.0000 I -0.1721 J 0.0271
G01 X 7.3586 Y 18.1164 Z -1.0000
G01 X 7.3547 Y 18.1079 Z -1.0000
G01 X 7.3557 Y 18.0987 Z -1.0000
G01 X 7.3564 Y 18.0900 Z -1.0000
G01 X 7.3529 Y 18.0850 Z -1.0000
G01 X 7.3495 Y 18.0798 Z -1.0000
G01 X 7.3504 Y 18.0682 Z -1.0000
G01 X 7.3514 Y 18.0560 Z -1.0000
G01 X 7.3471 Y 18.0465 Z -1.0000
G01 X 7.3414 Y 18.0368 Z -1.0000
G03 X 7.3364 Y 18.0193 Z -1.0000 I 0.0871 J -0.0343
G02 X 7.3310 Y 18.0022 Z -1.0000 I -0.0692 J 0.0125
G01 X 7.3253 Y 17.9954 Z -1.0000
G01 X 7.3230 Y 17.9905 Z -1.0000
G01 X 7.3258 Y 17.9866 Z -1.0000
G01 X 7.3287 Y 17.9815 Z -1.0000
G01 X 7.3230 Y 17.9647 Z -1.0000
G01 X 7.3170 Y 17.9466 Z -1.0000
G01 X 7.3200 Y 17.9365 Z -1.0000
G01 X 7.3229 Y 17.9277 Z -1.0000
G01 X 7.3189 Y 17.9214 Z -1.0000
G01 X 7.2987 Y 17.8955 Z -1.0000
G03 X 7.2783 Y 17.7864 Z -1.0000 I 0.4946 J -0.1487
G02 X 7.2735 Y 17.7532 Z -1.0000 I -0.2452 J 0.0188
G02 X 7.2660 Y 17.7294 Z -1.0000 I -0.1335 J 0.0288
G03 X 7.2584 Y 17.7056 Z -1.0000 I 0.1359 J -0.0568
G03 X 7.2534 Y 17.6742 Z -1.0000 I 0.2313 J -0.0531
G02 X 7.2488 Y 17.6426 Z -1.0000 I -0.2982 J 0.0274
G02 X 7.2409 Y 17.6122 Z -1.0000 I -0.2849 J 0.0572
G03 X 7.2346 Y 17.5824 Z -1.0000 I 0.1513 J -0.0478
G01 X 7.2364 Y 17.5731 Z -1.0000
G01 X 7.2388 Y 17.5636 Z -1.0000
G02 X 7.2358 Y 17.5348 Z -1.0000 I -0.1659 J 0.0027
G03 X 7.2313 Y 17.5053 Z -1.0000 I 0.3664 J -0.0709
G03 X 7.2264 Y 17.4501 Z -1.0000 I 1.2779 J -0.1428
G02 X 7.2213 Y 17.3949 Z -1.0000 I -1.1713 J 0.0800
G02 X 7.2165 Y 17.3654 Z -1.0000 I -0.3413 J 0.0396
G03 X 7.2036 Y 17.2886 Z -1.0000 I 1.0633 J -0.2187
G03 X 7.1942 Y 17.1960 Z -1.0000 I 1.5409 J -0.2032
G02 X 7.1908 Y 17.1537 Z -1.0000 I -2.4073 J 0.1716
G02 X 7.1814 Y 17.0526 Z -1.0000 I -13.7422 J 1.2228
G03 X 7.1603 Y 16.7470 Z -1.0000 I 5.6634 J -0.5459
G01 X 7.1677 Y 16.7279 Z -1.0000
G01 X 7.1685 Y 16.7249 Z -1.0000
G02 X 7.1630 Y 16.7113 Z -1.0000 I -0.0639 J 0.0182
G01 X 7.1588 Y 16.6967 Z -1.0000
G03 X 7.1542 Y 16.5444 Z -1.0000 I 3.4293 J -0.1804
G02 X 7.1529 Y 16.3912 Z -1.0000 I -507.4810 J 4.1630
G02 X 7.1523 Y 16.3196 Z -1.0000 I -81.2056 J 0.6904
G03 X 7.1531 Y 16.2480 Z -1.0000 I 1.7661 J -0.0163
G03 X 7.1553 Y 16.2214 Z -1.0000 I 0.2467 J 0.0077
G02 X 7.1564 Y 16.1950 Z -1.0000 I -0.1329 J -0.0187
G02 X 7.1523 Y 16.1692 Z -1.0000 I -0.1305 J 0.0075
G03 X 7.1274 Y 16.0086 Z -1.0000 I 0.7629 J -0.2006
G03 X 7.1380 Y 15.8850 Z -1.0000 I 0.4585 J -0.0232
G02 X 7.1438 Y 15.8557 Z -1.0000 I -0.5924 J -0.1326
G02 X 7.1479 Y 15.8270 Z -1.0000 I -0.5616 J -0.0970
G03 X 7.1568 Y 15.7731 Z -1.0000 I 0.6506 J 0.0784
G03 X 7.1882 Y 15.6321 Z -1.0000 I 4.4576 J 0.9195
G02 X 7.2093 Y 15.5113 Z -1.0000 I -0.9591 J -0.2298
G02 X 7.2168 Y 15.3747 Z -1.0000 I -1.2200 J -0.1357
G02 X 7.1615 Y 15.1253 Z -1.0000 I -0.5920 J 0.0004
G02 X 7.0111 Y 14.9331 Z -1.0000 I -0.4893 J 0.2279
G02 X 6.9100 Y 14.8703 Z -1.0000 I -0.3034 J 0.3760
G02 X 6.7739 Y 14.8237 Z -1.0000 I -0.2956 J 0.6412
G02 X 6.5501 Y 14.8210 Z -1.0000 I -0.1181 J 0.5092
G02 X 6.3206 Y 14.9172 Z -1.0000 I 0.1307 J 0.6334
G02 X 6.2392 Y 14.9853 Z -1.0000 I 0.2807 J 0.4185
G02 X 6.1648 Y 15.0783 Z -1.0000 I 0.4559 J 0.4411
G02 X 6.1068 Y 15.1935 Z -1.0000 I 0.4709 J 0.3092
G02 X 6.0729 Y 15.3288 Z -1.0000 I 0.6187 J 0.2269
G02 X 6.0674 Y 15.3973 Z -1.0000 I 0.5719 J 0.0802
G02 X 6.0699 Y 15.4772 Z -1.0000 I 0.7794 J 0.0159
G02 X 6.0869 Y 15.6241 Z -1.0000 I 2.2304 J -0.1834
G02 X 6.0984 Y 15.6680 Z -1.0000 I 0.2086 J -0.0311
G03 X 6.1064 Y 15.6944 Z -1.0000 I -0.1895 J 0.0722
G03 X 6.1086 Y 15.7120 Z -1.0000 I -0.0820 J 0.0190
G02 X 6.1107 Y 15.7296 Z -1.0000 I 0.0859 J -0.0014
G01 X 6.1152 Y 15.7414 Z -1.0000
G03 X 6.1328 Y 15.7837 Z -1.0000 I -0.1731 J 0.0969
G03 X 6.1967 Y 16.0263 Z -1.0000 I -5.7200 J 1.6361
G02 X 6.2144 Y 16.0979 Z -1.0000 I 6.1397 J -1.4796
G02 X 6.2231 Y 16.1306 Z -1.0000 I 1.2708 J -0.3220
G03 X 6.2513 Y 16.2661 Z -1.0000 I -0.9618 J 0.2702
G03 X 6.2688 Y 16.4662 Z -1.0000 I -2.0834 J 0.2835
G03 X 6.2740 Y 16.6942 Z -1.0000 I -6.6388 J 0.2636
G01 X 6.2700 Y 16.6964 Z -1.0000
G01 X 6.2715 Y 16.7067 Z -1.0000
G03 X 6.2842 Y 16.7578 Z -1.0000 I -0.0947 J 0.0507
G03 X 6.2700 Y 17.1666 Z -1.0000 I -6.5060 J -0.0210
G03 X 6.2232 Y 17.6040 Z -1.0000 I -5.4345 J -0.3601
G03 X 6.1572 Y 17.9290 Z -1.0000 I -3.0644 J -0.4536
G03 X 6.1148 Y 18.0779 Z -1.0000 I -3.2307 J -0.8390
G03 X 6.0926 Y 18.1375 Z -1.0000 I -0.5383 J -0.1668
G02 X 6.0840 Y 18.1571 Z -1.0000 I 8.1664 J 3.5856
G02 X 6.0414 Y 18.2548 Z -1.0000 I 258.2710 J 112.6621
G03 X 5.8242 Y 18.6553 Z -1.0000 I -2.3252 J -1.0021
G03 X 5.5629 Y 18.9750 Z -1.0000 I -1.7547 J -1.1675
G03 X 5.3140 Y 19.1947 Z -1.0000 I -1.8295 J -1.8218
G03 X 5.0547 Y 19.3685 Z -1.0000 I -1.3978 J -1.8054
G03 X 4.9266 Y 19.4372 Z -1.0000 I -1.2292 J -2.1369
G03 X 4.8005 Y 19.4953 Z -1.0000 I -1.0059 J -2.0149
G02 X 4.7519 Y 19.5166 Z -1.0000 I 1.0246 J 2.4136
G02 X 4.7404 Y 19.5223 Z -1.0000 I 0.0635 J 0.1415
G03 X 4.7286 Y 19.5270 Z -1.0000 I -0.0249 J -0.0455
G03 X 4.7159 Y 19.5286 Z -1.0000 I -0.0127 J -0.0485
G01 X 4.7050 Y 19.5309 Z -1.0000
G01 X 4.7028 Y 19.5341 Z -1.0000
G01 X 4.6703 Y 19.5792 Z -1.0000
G03 X 4.3965 Y 19.6359 Z -1.0000 I -0.3790 J -1.1413
G03 X 4.2011 Y 19.6465 Z -1.0000 I -0.2558 J -2.8994
G01 X 4.1974 Y 19.6401 Z -1.0000
G01 X 4.2028 Y 19.6345 Z -1.0000
G01 X 4.2084 Y 19.6329 Z -1.0000
G01 X 4.2297 Y 19.6231 Z -1.0000
G01 X 4.2277 Y 19.6104 Z -1.0000
G01 X 4.2228 Y 19.6101 Z -1.0000
G01 X 4.2179 Y 19.6149 Z -1.0000
G01 X 4.2141 Y 19.6174 Z -1.0000
G01 X 4.2103 Y 19.6150 Z -1.0000
G01 X 4.1977 Y 19.6077 Z -1.0000
G01 X 4.1828 Y 19.6174 Z -1.0000
G01 X 4.1752 Y 19.6235 Z -1.0000
G01 X 4.1629 Y 19.6235 Z -1.0000
G01 X 4.1514 Y 19.6132 Z -1.0000
G01 X 4.1555 Y 19.6069 Z -1.0000
G01 X 4.1601 Y 19.6050 Z -1.0000
G01 X 4.1620 Y 19.6004 Z -1.0000
G01 X 4.1592 Y 19.5967 Z -1.0000
G02 X 4.1397 Y 19.5939 Z -1.0000 I -0.0195 J 0.0670
G03 X 4.1194 Y 19.5908 Z -1.0000 I 0.0000 J -0.0677
G01 X 4.1137 Y 19.5858 Z -1.0000
G01 X 4.1134 Y 19.5918 Z -1.0000
G01 X 4.1112 Y 19.6002 Z -1.0000
G01 X 4.1035 Y 19.6024 Z -1.0000
G01 X 4.0930 Y 19.5961 Z -1.0000
G01 X 4.0863 Y 19.5834 Z -1.0000
G01 X 4.0771 Y 19.5733 Z -1.0000
G01 X 4.0707 Y 19.5777 Z -1.0000
G01 X 4.0679 Y 19.5846 Z -1.0000
G01 X 4.0610 Y 19.5875 Z -1.0000
G01 X 4.0529 Y 19.5825 Z -1.0000
G01 X 4.0505 Y 19.5660 Z -1.0000
G01 X 4.0387 Y 19.5676 Z -1.0000
G01 X 4.0239 Y 19.5688 Z -1.0000
G01 X 4.0254 Y 19.5634 Z -1.0000
G01 X 4.0158 Y 19.5525 Z -1.0000
G03 X 4.0017 Y 19.5402 Z -1.0000 I 0.0361 J -0.0552
G01 X 3.9991 Y 19.5330 Z -1.0000
G01 X 3.9962 Y 19.5263 Z -1.0000
G01 X 3.9825 Y 19.5169 Z -1.0000
G01 X 3.9632 Y 19.5159 Z -1.0000
G01 X 3.9608 Y 19.5209 Z -1.0000
G01 X 3.9507 Y 19.5175 Z -1.0000
G01 X 3.9453 Y 19.5138 Z -1.0000
G01 X 3.9388 Y 19.5126 Z -1.0000
G01 X 3.9333 Y 19.5104 Z -1.0000
G01 X 3.9287 Y 19.5035 Z -1.0000
G01 X 3.9308 Y 19.4989 Z -1.0000
G01 X 3.9428 Y 19.4977 Z -1.0000
G01 X 3.9506 Y 19.4940 Z -1.0000
G01 X 3.9481 Y 19.4882 Z -1.0000
G01 X 3.9367 Y 19.4880 Z -1.0000
G01 X 3.9240 Y 19.4940 Z -1.0000
G01 X 3.9023 Y 19.5005 Z -1.0000
G01 X 3.8948 Y 19.4927 Z -1.0000
G01 X 3.8922 Y 19.4871 Z -1.0000
G01 X 3.8879 Y 19.4868 Z -1.0000
G01 X 3.8839 Y 19.4921 Z -1.0000
G01 X 3.8844 Y 19.5002 Z -1.0000
G01 X 3.8815 Y 19.5061 Z -1.0000
G01 X 3.8660 Y 19.5054 Z -1.0000
G01 X 3.8589 Y 19.4960 Z -1.0000
G01 X 3.8645 Y 19.4898 Z -1.0000
G01 X 3.8862 Y 19.4812 Z -1.0000
G01 X 3.8948 Y 19.4615 Z -1.0000
G01 X 3.8790 Y 19.4609 Z -1.0000
G03 X 3.8448 Y 19.4600 Z -1.0000 I -0.0155 J -0.0612
G01 X 3.8435 Y 19.4500 Z -1.0000
G01 X 3.8464 Y 19.4442 Z -1.0000
G01 X 3.8427 Y 19.4378 Z -1.0000
G01 X 3.8219 Y 19.4307 Z -1.0000
G01 X 3.8199 Y 19.4362 Z -1.0000
G03 X 3.8404 Y 19.4607 Z -1.0000 I -0.0396 J 0.0539
G01 X 3.8396 Y 19.4765 Z -1.0000
G01 X 3.8394 Y 19.4811 Z -1.0000
G01 X 3.8443 Y 19.4855 Z -1.0000
G01 X 3.8443 Y 19.4893 Z -1.0000
G01 X 3.8370 Y 19.4876 Z -1.0000
G03 X 3.8232 Y 19.4768 Z -1.0000 I 0.0346 J -0.0589
G02 X 3.8092 Y 19.4659 Z -1.0000 I -0.0491 J 0.0489
G01 X 3.8011 Y 19.4637 Z -1.0000
G01 X 3.7943 Y 19.4609 Z -1.0000
G01 X 3.7888 Y 19.4511 Z -1.0000
G01 X 3.7828 Y 19.4430 Z -1.0000
G01 X 3.7734 Y 19.4415 Z -1.0000
G01 X 3.7633 Y 19.4395 Z -1.0000
G03 X 3.7465 Y 19.4216 Z -1.0000 I 0.0406 J -0.0546
G01 X 3.7396 Y 19.4028 Z -1.0000
G01 X 3.7433 Y 19.3984 Z -1.0000
G01 X 3.7384 Y 19.3854 Z -1.0000
G02 X 3.7213 Y 19.3741 Z -1.0000 I -0.0745 J 0.0940
G02 X 3.7075 Y 19.3686 Z -1.0000 I -0.0302 J 0.0554
G01 X 3.6971 Y 19.3629 Z -1.0000
G01 X 3.6965 Y 19.3588 Z -1.0000
G01 X 3.6969 Y 19.3547 Z -1.0000
G01 X 3.6943 Y 19.3530 Z -1.0000
G01 X 3.6867 Y 19.3589 Z -1.0000
G01 X 3.6899 Y 19.3705 Z -1.0000
G01 X 3.6877 Y 19.3762 Z -1.0000
G01 X 3.6733 Y 19.3717 Z -1.0000
G03 X 3.6508 Y 19.3424 Z -1.0000 I 0.0489 J -0.0608
G01 X 3.6554 Y 19.3312 Z -1.0000
G01 X 3.6456 Y 19.3274 Z -1.0000
G01 X 3.6320 Y 19.3226 Z -1.0000
G01 X 3.6277 Y 19.3138 Z -1.0000
G01 X 3.6245 Y 19.3040 Z -1.0000
G01 X 3.6182 Y 19.3008 Z -1.0000
G01 X 3.6100 Y 19.2986 Z -1.0000
G01 X 3.6036 Y 19.2925 Z -1.0000
G02 X 3.5775 Y 19.2698 Z -1.0000 I -0.0507 J 0.0319
G01 X 3.5564 Y 19.2712 Z -1.0000
G01 X 3.5547 Y 19.2566 Z -1.0000
G01 X 3.5524 Y 19.2485 Z -1.0000
G01 X 3.5468 Y 19.2482 Z -1.0000
G01 X 3.5363 Y 19.2523 Z -1.0000
G01 X 3.5303 Y 19.2492 Z -1.0000
G01 X 3.5118 Y 19.2406 Z -1.0000
G01 X 3.5006 Y 19.2536 Z -1.0000
G01 X 3.4989 Y 19.2599 Z -1.0000
G01 X 3.4957 Y 19.2617 Z -1.0000
G01 X 3.4843 Y 19.2617 Z -1.0000
G01 X 3.4799 Y 19.2596 Z -1.0000
G01 X 3.4778 Y 19.2535 Z -1.0000
G01 X 3.4754 Y 19.2466 Z -1.0000
G01 X 3.4648 Y 19.2371 Z -1.0000
G01 X 3.4545 Y 19.2274 Z -1.0000
G01 X 3.4517 Y 19.2186 Z -1.0000
G01 X 3.4486 Y 19.2127 Z -1.0000
G01 X 3.4422 Y 19.2119 Z -1.0000
G01 X 3.4364 Y 19.2063 Z -1.0000
G01 X 3.4503 Y 19.1878 Z -1.0000
G03 X 3.4754 Y 19.1750 Z -1.0000 I 0.0592 J 0.0854
G01 X 3.4885 Y 19.1745 Z -1.0000
G01 X 3.5037 Y 19.1701 Z -1.0000
G01 X 3.5023 Y 19.1595 Z -1.0000
G01 X 3.4936 Y 19.1559 Z -1.0000
G02 X 3.4778 Y 19.1542 Z -1.0000 I -0.0158 J 0.0728
G01 X 3.4653 Y 19.1499 Z -1.0000
G01 X 3.4594 Y 19.1396 Z -1.0000
G01 X 3.4553 Y 19.1272 Z -1.0000
G01 X 3.4515 Y 19.1249 Z -1.0000
G01 X 3.4248 Y 19.1124 Z -1.0000
G01 X 3.4233 Y 19.0908 Z -1.0000
G01 X 3.4061 Y 19.0956 Z -1.0000
G02 X 3.3878 Y 19.1087 Z -1.0000 I 0.0363 J 0.0699
G01 X 3.3818 Y 19.1190 Z -1.0000
G01 X 3.3768 Y 19.1292 Z -1.0000
G01 X 3.3723 Y 19.1314 Z -1.0000
G01 X 3.3695 Y 19.1290 Z -1.0000
G01 X 3.3705 Y 19.1176 Z -1.0000
G01 X 3.3714 Y 19.1051 Z -1.0000
G01 X 3.3672 Y 19.0990 Z -1.0000
G01 X 3.3649 Y 19.0936 Z -1.0000
G01 X 3.3703 Y 19.0835 Z -1.0000
G01 X 3.3738 Y 19.0728 Z -1.0000
G01 X 3.3681 Y 19.0750 Z -1.0000
G01 X 3.3629 Y 19.0826 Z -1.0000
G01 X 3.3498 Y 19.0921 Z -1.0000
G01 X 3.3409 Y 19.0837 Z -1.0000
G01 X 3.3386 Y 19.0760 Z -1.0000
G02 X 3.3247 Y 19.0598 Z -1.0000 I -0.0812 J 0.0554
G03 X 3.3110 Y 19.0433 Z -1.0000 I 0.0599 J -0.0639
G01 X 3.3082 Y 19.0342 Z -1.0000
G01 X 3.3061 Y 19.0246 Z -1.0000
G02 X 3.2984 Y 19.0113 Z -1.0000 I -0.0577 J 0.0245
G01 X 3.2936 Y 18.9995 Z -1.0000
G01 X 3.2963 Y 18.9940 Z -1.0000
G01 X 3.3002 Y 18.9882 Z -1.0000
G01 X 3.2991 Y 18.9773 Z -1.0000
G01 X 3.2934 Y 18.9728 Z -1.0000
G01 X 3.2867 Y 18.9756 Z -1.0000
G01 X 3.2671 Y 18.9886 Z -1.0000
G01 X 3.2514 Y 18.9842 Z -1.0000
G01 X 3.2459 Y 18.9700 Z -1.0000
G01 X 3.2521 Y 18.9659 Z -1.0000
G01 X 3.2588 Y 18.9649 Z -1.0000
G01 X 3.2644 Y 18.9564 Z -1.0000
G01 X 3.2617 Y 18.9502 Z -1.0000
G01 X 3.2515 Y 18.9496 Z -1.0000
G01 X 3.2408 Y 18.9502 Z -1.0000
G01 X 3.2388 Y 18.9464 Z -1.0000
G02 X 3.2418 Y 18.9368 Z -1.0000 I -0.0716 J -0.0274
G02 X 3.2470 Y 18.9121 Z -1.0000 I -0.4666 J -0.1112
G01 X 3.2447 Y 18.8994 Z -1.0000
G01 X 3.2388 Y 18.8985 Z -1.0000
G01 X 3.2211 Y 18.9003 Z -1.0000
G01 X 3.2106 Y 18.8822 Z -1.0000
G01 X 3.2080 Y 18.8748 Z -1.0000
G01 X 3.2041 Y 18.8741 Z -1.0000
G01 X 3.1997 Y 18.8744 Z -1.0000
G01 X 3.1976 Y 18.8712 Z -1.0000
G01 X 3.1996 Y 18.8664 Z -1.0000
G01 X 3.2045 Y 18.8643 Z -1.0000
G01 X 3.2073 Y 18.8621 Z -1.0000
G01 X 3.2063 Y 18.8562 Z -1.0000
G01 X 3.2021 Y 18.8478 Z -1.0000
G01 X 3.1999 Y 18.8393 Z -1.0000
G01 X 3.1927 Y 18.8291 Z -1.0000
G01 X 3.1849 Y 18.8311 Z -1.0000
G01 X 3.1786 Y 18.8361 Z -1.0000
G01 X 3.1721 Y 18.8353 Z -1.0000
G01 X 3.1679 Y 18.8301 Z -1.0000
G01 X 3.1685 Y 18.8248 Z -1.0000
G01 X 3.1688 Y 18.8192 Z -1.0000
G02 X 3.1587 Y 18.8043 Z -1.0000 I -0.0535 J 0.0256
G03 X 3.1481 Y 18.7884 Z -1.0000 I 0.0428 J -0.0398
G03 X 3.1412 Y 18.7652 Z -1.0000 I 0.0850 J -0.0379
G02 X 3.1353 Y 18.7429 Z -1.0000 I -0.1108 J 0.0177
G01 X 3.1318 Y 18.7405 Z -1.0000
G01 X 3.1305 Y 18.7514 Z -1.0000
G01 X 3.1292 Y 18.7568 Z -1.0000
G01 X 3.1233 Y 18.7579 Z -1.0000
G02 X 3.1118 Y 18.7538 Z -1.0000 I -0.0902 J 0.2363
G01 X 3.1097 Y 18.7535 Z -1.0000
G01 X 3.1111 Y 18.7401 Z -1.0000
G01 X 3.1096 Y 18.7296 Z -1.0000
G01 X 3.1007 Y 18.7230 Z -1.0000
G01 X 3.0904 Y 18.7166 Z -1.0000
G01 X 3.0868 Y 18.7071 Z -1.0000
G01 X 3.0842 Y 18.6975 Z -1.0000
G01 X 3.0796 Y 18.6948 Z -1.0000
G01 X 3.0761 Y 18.6919 Z -1.0000
G01 X 3.0766 Y 18.6780 Z -1.0000
G01 X 3.0754 Y 18.6644 Z -1.0000
G01 X 3.0675 Y 18.6577 Z -1.0000
G01 X 3.0587 Y 18.6464 Z -1.0000
G01 X 3.0672 Y 18.6215 Z -1.0000
G01 X 3.0746 Y 18.6058 Z -1.0000
G01 X 3.0721 Y 18.5988 Z -1.0000
G02 X 3.0475 Y 18.5874 Z -1.0000 I -0.0375 J 0.0486
G01 X 3.0397 Y 18.5918 Z -1.0000
G01 X 3.0361 Y 18.5936 Z -1.0000
G01 X 3.0257 Y 18.5871 Z -1.0000
G01 X 3.0182 Y 18.5741 Z -1.0000
G01 X 3.0178 Y 18.5563 Z -1.0000
G01 X 3.0165 Y 18.5432 Z -1.0000
G01 X 3.0114 Y 18.5410 Z -1.0000
G01 X 2.9914 Y 18.5366 Z -1.0000
G01 X 2.9896 Y 18.5184 Z -1.0000
G01 X 2.9955 Y 18.5173 Z -1.0000
G01 X 2.9985 Y 18.5225 Z -1.0000
G01 X 3.0086 Y 18.5254 Z -1.0000
G01 X 3.0177 Y 18.5215 Z -1.0000
G01 X 3.0217 Y 18.5116 Z -1.0000
G01 X 3.0180 Y 18.5032 Z -1.0000
G01 X 3.0115 Y 18.5018 Z -1.0000
G01 X 3.0063 Y 18.5004 Z -1.0000
G01 X 3.0051 Y 18.4935 Z -1.0000
G01 X 2.9994 Y 18.4777 Z -1.0000
G01 X 2.9867 Y 18.4818 Z -1.0000
G01 X 2.9829 Y 18.4839 Z -1.0000
G01 X 2.9770 Y 18.4802 Z -1.0000
G01 X 2.9758 Y 18.4714 Z -1.0000
G01 X 2.9844 Y 18.4586 Z -1.0000
G01 X 2.9915 Y 18.4470 Z -1.0000
G01 X 2.9889 Y 18.4405 Z -1.0000
G01 X 2.9790 Y 18.4371 Z -1.0000
G01 X 2.9671 Y 18.4383 Z -1.0000
G01 X 2.9611 Y 18.4373 Z -1.0000
G01 X 2.9604 Y 18.4333 Z -1.0000
G02 X 2.9690 Y 18.4078 Z -1.0000 I -0.0496 J -0.0309
G01 X 2.9634 Y 18.4016 Z -1.0000
G01 X 2.9581 Y 18.4032 Z -1.0000
G01 X 2.9532 Y 18.4081 Z -1.0000
G01 X 2.9428 Y 18.4140 Z -1.0000
G01 X 2.9370 Y 18.4081 Z -1.0000
G01 X 2.9390 Y 18.4036 Z -1.0000
G01 X 2.9442 Y 18.4016 Z -1.0000
G01 X 2.9506 Y 18.3994 Z -1.0000
G02 X 2.9768 Y 18.3756 Z -1.0000 I -0.1767 J -0.2209
G01 X 2.9940 Y 18.3496 Z -1.0000
G02 X 2.9625 Y 18.3563 Z -1.0000 I 0.0009 J 0.0814
G01 X 2.9580 Y 18.3652 Z -1.0000
G01 X 2.9536 Y 18.3712 Z -1.0000
G01 X 2.9358 Y 18.3669 Z -1.0000
G01 X 2.9317 Y 18.3598 Z -1.0000
G01 X 2.9352 Y 18.3525 Z -1.0000
G01 X 2.9412 Y 18.3442 Z -1.0000
G01 X 2.9402 Y 18.3365 Z -1.0000
G01 X 2.9347 Y 18.3343 Z -1.0000
G01 X 2.9262 Y 18.3400 Z -1.0000
G01 X 2.9201 Y 18.3428 Z -1.0000
G01 X 2.9166 Y 18.3394 Z -1.0000
G03 X 2.9164 Y 18.3267 Z -1.0000 I 0.1587 J -0.0096
G03 X 2.9170 Y 18.3180 Z -1.0000 I 0.0750 J 0.0014
G01 X 2.9161 Y 18.3098 Z -1.0000
G02 X 2.9080 Y 18.2938 Z -1.0000 I -0.0753 J 0.0281
G03 X 2.8994 Y 18.2779 Z -1.0000 I 0.0876 J -0.0577
G01 X 2.8979 Y 18.2704 Z -1.0000
G01 X 2.8961 Y 18.2633 Z -1.0000
G02 X 2.8871 Y 18.2507 Z -1.0000 I -0.0576 J 0.0313
G01 X 2.8822 Y 18.2387 Z -1.0000
G01 X 2.8861 Y 18.2273 Z -1.0000
G02 X 2.8954 Y 18.2156 Z -1.0000 I -0.1402 J -0.1200
G02 X 2.9014 Y 18.2062 Z -1.0000 I -0.0792 J -0.0573
G01 X 2.8970 Y 18.2044 Z -1.0000
G01 X 2.8874 Y 18.2079 Z -1.0000
G01 X 2.8795 Y 18.2047 Z -1.0000
G01 X 2.8743 Y 18.2031 Z -1.0000
G01 X 2.8718 Y 18.2062 Z -1.0000
G01 X 2.8693 Y 18.2093 Z -1.0000
G01 X 2.8643 Y 18.2078 Z -1.0000
G01 X 2.8612 Y 18.2000 Z -1.0000
G01 X 2.8648 Y 18.1905 Z -1.0000
G01 X 2.8687 Y 18.1805 Z -1.0000
G01 X 2.8660 Y 18.1691 Z -1.0000
G01 X 2.8586 Y 18.1671 Z -1.0000
G01 X 2.8451 Y 18.1449 Z -1.0000
G03 X 2.8363 Y 18.1138 Z -1.0000 I 0.1355 J -0.0550
G01 X 2.8387 Y 18.1063 Z -1.0000
G01 X 2.8493 Y 18.1083 Z -1.0000
G01 X 2.8498 Y 18.1315 Z -1.0000
G01 X 2.8500 Y 18.1397 Z -1.0000
G01 X 2.8559 Y 18.1453 Z -1.0000
G01 X 2.8648 Y 18.1417 Z -1.0000
G01 X 2.8654 Y 18.1249 Z -1.0000
G01 X 2.8652 Y 18.1135 Z -1.0000
G01 X 2.8701 Y 18.1112 Z -1.0000
G01 X 2.8632 Y 18.0983 Z -1.0000
G03 X 2.8491 Y 18.0801 Z -1.0000 I 0.0503 J -0.0537
G01 X 2.8485 Y 18.0716 Z -1.0000
G01 X 2.8457 Y 18.0661 Z -1.0000
G01 X 2.8414 Y 18.0662 Z -1.0000
G01 X 2.8392 Y 18.0625 Z -1.0000
G01 X 2.8366 Y 18.0588 Z -1.0000
G01 X 2.8287 Y 18.0589 Z -1.0000
G01 X 2.8234 Y 18.0578 Z -1.0000
G01 X 2.8222 Y 18.0525 Z -1.0000
G02 X 2.8259 Y 18.0420 Z -1.0000 I -0.1332 J -0.0517
G02 X 2.8305 Y 18.0253 Z -1.0000 I -0.3646 J -0.1096
G01 X 2.8291 Y 18.0148 Z -1.0000
G01 X 2.8237 Y 18.0127 Z -1.0000
G01 X 2.8152 Y 18.0115 Z -1.0000
G01 X 2.8060 Y 17.9993 Z -1.0000
G02 X 2.7981 Y 17.9826 Z -1.0000 I -0.1077 J 0.0410
G01 X 2.7939 Y 17.9782 Z -1.0000
G01 X 2.7832 Y 17.9604 Z -1.0000
G01 X 2.7920 Y 17.9473 Z -1.0000
G01 X 2.7969 Y 17.9490 Z -1.0000
G01 X 2.8001 Y 17.9606 Z -1.0000
G01 X 2.8110 Y 17.9804 Z -1.0000
G01 X 2.8284 Y 17.9785 Z -1.0000
G01 X 2.8295 Y 17.9732 Z -1.0000
G01 X 2.8240 Y 17.9678 Z -1.0000
G01 X 2.8156 Y 17.9620 Z -1.0000
G01 X 2.8132 Y 17.9556 Z -1.0000
G01 X 2.8106 Y 17.9487 Z -1.0000
G02 X 2.7932 Y 17.9322 Z -1.0000 I -0.0876 J 0.0750
G03 X 2.7778 Y 17.9153 Z -1.0000 I 0.0389 J -0.0508
G01 X 2.7763 Y 17.9051 Z -1.0000
G01 X 2.7755 Y 17.8964 Z -1.0000
G01 X 2.7707 Y 17.8934 Z -1.0000
G01 X 2.7486 Y 17.8762 Z -1.0000
G01 X 2.7594 Y 17.8486 Z -1.0000
G01 X 2.7645 Y 17.8436 Z -1.0000
G01 X 2.7686 Y 17.8352 Z -1.0000
G01 X 2.7726 Y 17.8340 Z -1.0000
G03 X 2.7859 Y 17.8491 Z -1.0000 I -0.0373 J 0.0464
G02 X 2.8014 Y 17.8714 Z -1.0000 I 0.2252 J -0.1393
G02 X 2.8101 Y 17.8805 Z -1.0000 I 0.0454 J -0.0350
G01 X 2.8143 Y 17.8806 Z -1.0000
G01 X 2.8156 Y 17.8763 Z -1.0000
G01 X 2.8096 Y 17.8652 Z -1.0000
G02 X 2.7976 Y 17.8530 Z -1.0000 I -0.0582 J 0.0450
G01 X 2.7900 Y 17.8416 Z -1.0000
G01 X 2.7920 Y 17.8337 Z -1.0000
G01 X 2.8006 Y 17.8155 Z -1.0000
G01 X 2.7942 Y 17.8115 Z -1.0000
G01 X 2.7892 Y 17.8118 Z -1.0000
G01 X 2.7844 Y 17.8070 Z -1.0000
G01 X 2.7806 Y 17.8046 Z -1.0000
G01 X 2.7768 Y 17.8070 Z -1.0000
G01 X 2.7716 Y 17.8129 Z -1.0000
G01 X 2.7638 Y 17.8151 Z -1.0000
G01 X 2.7585 Y 17.8111 Z -1.0000
G03 X 2.7545 Y 17.7825 Z -1.0000 I 0.1009 J -0.0286
G02 X 2.7500 Y 17.7518 Z -1.0000 I -0.1064 J 0.0000
G01 X 2.7405 Y 17.7359 Z -1.0000
G01 X 2.7375 Y 17.7282 Z -1.0000
G01 X 2.7410 Y 17.7256 Z -1.0000
G01 X 2.7504 Y 17.7248 Z -1.0000
G01 X 2.7521 Y 17.7205 Z -1.0000
G01 X 2.7520 Y 17.7132 Z -1.0000
G01 X 2.7558 Y 17.7093 Z -1.0000
G01 X 2.7586 Y 17.7052 Z -1.0000
G01 X 2.7550 Y 17.6921 Z -1.0000
G03 X 2.7497 Y 17.6770 Z -1.0000 I 0.0469 J -0.0250
G01 X 2.7504 Y 17.6683 Z -1.0000
G01 X 2.7511 Y 17.6595 Z -1.0000
G02 X 2.7440 Y 17.6396 Z -1.0000 I -0.0856 J 0.0192
G03 X 2.7368 Y 17.6199 Z -1.0000 I 0.0820 J -0.0409
G01 X 2.7378 Y 17.6137 Z -1.0000
G01 X 2.7381 Y 17.6088 Z -1.0000
G01 X 2.7334 Y 17.6043 Z -1.0000
G01 X 2.7311 Y 17.6003 Z -1.0000
G01 X 2.7349 Y 17.5943 Z -1.0000
G01 X 2.7388 Y 17.5863 Z -1.0000
G01 X 2.7335 Y 17.5686 Z -1.0000
G03 X 2.7252 Y 17.5501 Z -1.0000 I 0.0759 J -0.0448
G01 X 2.7263 Y 17.5457 Z -1.0000
G01 X 2.7273 Y 17.5416 Z -1.0000
G01 X 2.7218 Y 17.5314 Z -1.0000
G01 X 2.7160 Y 17.5201 Z -1.0000
G03 X 2.7127 Y 17.4976 Z -1.0000 I 0.0919 J -0.0247
G01 X 2.7046 Y 17.4807 Z -1.0000
G01 X 2.6967 Y 17.4841 Z -1.0000
G03 X 2.6904 Y 17.5271 Z -1.0000 I -0.2366 J -0.0129
G01 X 2.6848 Y 17.5331 Z -1.0000
G01 X 2.6777 Y 17.5279 Z -1.0000
G03 X 2.6865 Y 17.4615 Z -1.0000 I 0.3111 J 0.0074
G01 X 2.6874 Y 17.4464 Z -1.0000
G01 X 2.6843 Y 17.4436 Z -1.0000
G01 X 2.6797 Y 17.4411 Z -1.0000
G03 X 2.6733 Y 17.4258 Z -1.0000 I 0.0455 J -0.0283
G02 X 2.6671 Y 17.4092 Z -1.0000 I -0.0773 J 0.0194
G01 X 2.6621 Y 17.4038 Z -1.0000
G01 X 2.6582 Y 17.3985 Z -1.0000
G01 X 2.6578 Y 17.3885 Z -1.0000
G01 X 2.6621 Y 17.3865 Z -1.0000
G01 X 2.6758 Y 17.3986 Z -1.0000
G03 X 2.6896 Y 17.4206 Z -1.0000 I -0.1426 J 0.1051
G01 X 2.6915 Y 17.4283 Z -1.0000
G01 X 2.6937 Y 17.4351 Z -1.0000
G01 X 2.6996 Y 17.4396 Z -1.0000
G01 X 2.7042 Y 17.4356 Z -1.0000
G02 X 2.6910 Y 17.4026 Z -1.0000 I -0.1133 J 0.0262
G03 X 2.6823 Y 17.3815 Z -1.0000 I 0.0710 J -0.0419
G01 X 2.6847 Y 17.3783 Z -1.0000
G01 X 2.6798 Y 17.3684 Z -1.0000
G01 X 2.6666 Y 17.3615 Z -1.0000
G01 X 2.6589 Y 17.3618 Z -1.0000
G01 X 2.6552 Y 17.3606 Z -1.0000
G01 X 2.6546 Y 17.3552 Z -1.0000
G01 X 2.6603 Y 17.3496 Z -1.0000
G01 X 2.6706 Y 17.3495 Z -1.0000
G01 X 2.6810 Y 17.3435 Z -1.0000
G01 X 2.6770 Y 17.3207 Z -1.0000
G01 X 2.6715 Y 17.3186 Z -1.0000
G01 X 2.6645 Y 17.3240 Z -1.0000
G01 X 2.6583 Y 17.3281 Z -1.0000
G01 X 2.6534 Y 17.3251 Z -1.0000
G01 X 2.6514 Y 17.3143 Z -1.0000
G01 X 2.6534 Y 17.3072 Z -1.0000
G01 X 2.6721 Y 17.2977 Z -1.0000
G01 X 2.6829 Y 17.3093 Z -1.0000
G01 X 2.6850 Y 17.3173 Z -1.0000
G01 X 2.6929 Y 17.3267 Z -1.0000
G01 X 2.6999 Y 17.3358 Z -1.0000
G01 X 2.7001 Y 17.3427 Z -1.0000
G01 X 2.6993 Y 17.3501 Z -1.0000
G01 X 2.7029 Y 17.3596 Z -1.0000
G01 X 2.7075 Y 17.3581 Z -1.0000
G02 X 2.6999 Y 17.3107 Z -1.0000 I -0.2445 J 0.0150
G01 X 2.6862 Y 17.2872 Z -1.0000
G01 X 2.6806 Y 17.2895 Z -1.0000
G01 X 2.6721 Y 17.2838 Z -1.0000
G01 X 2.6661 Y 17.2803 Z -1.0000
G01 X 2.6633 Y 17.2828 Z -1.0000
G01 X 2.6603 Y 17.2908 Z -1.0000
G01 X 2.6535 Y 17.2938 Z -1.0000
G01 X 2.6463 Y 17.2864 Z -1.0000
G01 X 2.6543 Y 17.2713 Z -1.0000
G01 X 2.6599 Y 17.2625 Z -1.0000
G01 X 2.6581 Y 17.2510 Z -1.0000
G03 X 2.6518 Y 17.2382 Z -1.0000 I 0.1369 J -0.0744
G03 X 2.6475 Y 17.2266 Z -1.0000 I 0.1096 J -0.0472
G01 X 2.6424 Y 17.2188 Z -1.0000
G01 X 2.6380 Y 17.2184 Z -1.0000
G01 X 2.6338 Y 17.2180 Z -1.0000
G01 X 2.6291 Y 17.2100 Z -1.0000
G01 X 2.6374 Y 17.1985 Z -1.0000
G01 X 2.6563 Y 17.2083 Z -1.0000
G01 X 2.6655 Y 17.2078 Z -1.0000
G01 X 2.6653 Y 17.1889 Z -1.0000
G01 X 2.6602 Y 17.1689 Z -1.0000
G01 X 2.6639 Y 17.1526 Z -1.0000
G01 X 2.6668 Y 17.1380 Z -1.0000
G01 X 2.6615 Y 17.1300 Z -1.0000
G01 X 2.6533 Y 17.1220 Z -1.0000
G01 X 2.6503 Y 17.1107 Z -1.0000
G01 X 2.6530 Y 17.1024 Z -1.0000
G01 X 2.6568 Y 17.1016 Z -1.0000
G01 X 2.6612 Y 17.1019 Z -1.0000
G01 X 2.6633 Y 17.0987 Z -1.0000
G01 X 2.6614 Y 17.0937 Z -1.0000
G01 X 2.6568 Y 17.0918 Z -1.0000
G01 X 2.6526 Y 17.0895 Z -1.0000
G01 X 2.6503 Y 17.0818 Z -1.0000
G01 X 2.6477 Y 17.0736 Z -1.0000
G01 X 2.6406 Y 17.0681 Z -1.0000
G01 X 2.6359 Y 17.0625 Z -1.0000
G01 X 2.6374 Y 17.0524 Z -1.0000
G01 X 2.6431 Y 17.0317 Z -1.0000
G01 X 2.6386 Y 17.0290 Z -1.0000
G01 X 2.6326 Y 17.0212 Z -1.0000
G02 X 2.6314 Y 17.0102 Z -1.0000 I -0.1599 J 0.0120
G02 X 2.6296 Y 17.0005 Z -1.0000 I -0.1334 J 0.0193
G01 X 2.6313 Y 16.9946 Z -1.0000
G01 X 2.6371 Y 16.9929 Z -1.0000
G01 X 2.6346 Y 16.9817 Z -1.0000
G01 X 2.6291 Y 16.9596 Z -1.0000
G01 X 2.6419 Y 16.9528 Z -1.0000
G01 X 2.6459 Y 16.9486 Z -1.0000
G01 X 2.6412 Y 16.9398 Z -1.0000
G01 X 2.6417 Y 16.9314 Z -1.0000
G01 X 2.6412 Y 16.9242 Z -1.0000
G01 X 2.6347 Y 16.9184 Z -1.0000
G01 X 2.6228 Y 16.9031 Z -1.0000
G03 X 2.6282 Y 16.8608 Z -1.0000 I 0.0896 J -0.0100
G01 X 2.6338 Y 16.8560 Z -1.0000
G01 X 2.6414 Y 16.8579 Z -1.0000
G01 X 2.6505 Y 16.8625 Z -1.0000
G01 X 2.6548 Y 16.8613 Z -1.0000
G01 X 2.6514 Y 16.8571 Z -1.0000
G01 X 2.6465 Y 16.8543 Z -1.0000
G01 X 2.6438 Y 16.8444 Z -1.0000
G01 X 2.6415 Y 16.8330 Z -1.0000
G01 X 2.6371 Y 16.8277 Z -1.0000
G01 X 2.6326 Y 16.8225 Z -1.0000
G01 X 2.6319 Y 16.8159 Z -1.0000
G01 X 2.6321 Y 16.8083 Z -1.0000
G02 X 2.6277 Y 16.7822 Z -1.0000 I -0.2914 J 0.0361
G03 X 2.6230 Y 16.7561 Z -1.0000 I 0.3463 J -0.0752
G01 X 2.6233 Y 16.7507 Z -1.0000
G01 X 2.6179 Y 16.7495 Z -1.0000
G01 X 2.6137 Y 16.7551 Z -1.0000
G02 X 2.6112 Y 16.7732 Z -1.0000 I 0.0640 J 0.0181
G01 X 2.6052 Y 16.7890 Z -1.0000
G01 X 2.6017 Y 16.7840 Z -1.0000
G03 X 2.5992 Y 16.7562 Z -1.0000 I 0.1534 J -0.0278
G02 X 2.5940 Y 16.6980 Z -1.0000 I -0.3270 J 0.0000
G01 X 2.5851 Y 16.6779 Z -1.0000
G01 X 2.5818 Y 16.6708 Z -1.0000
G03 X 2.5801 Y 16.6534 Z -1.0000 I 0.0844 J -0.0170
G01 X 2.5839 Y 16.6432 Z -1.0000
G01 X 2.5892 Y 16.6428 Z -1.0000
G01 X 2.5955 Y 16.6515 Z -1.0000
G01 X 2.5982 Y 16.6657 Z -1.0000
G01 X 2.6073 Y 16.6774 Z -1.0000
G01 X 2.6238 Y 16.6719 Z -1.0000
G01 X 2.6253 Y 16.6638 Z -1.0000
G01 X 2.6181 Y 16.6554 Z -1.0000
G01 X 2.6080 Y 16.6462 Z -1.0000
G01 X 2.6047 Y 16.6354 Z -1.0000
G01 X 2.6021 Y 16.6252 Z -1.0000
G01 X 2.5977 Y 16.6226 Z -1.0000
G01 X 2.5938 Y 16.6198 Z -1.0000
G01 X 2.5925 Y 16.6079 Z -1.0000
G01 X 2.5917 Y 16.5937 Z -1.0000
G02 X 2.5851 Y 16.5770 Z -1.0000 I -0.0634 J 0.0151
G03 X 2.5735 Y 16.5439 Z -1.0000 I 0.0886 J -0.0496
G01 X 2.5786 Y 16.5379 Z -1.0000
G01 X 2.5829 Y 16.5357 Z -1.0000
G01 X 2.5851 Y 16.5289 Z -1.0000
