%
(Header)
(Generated by gcodetools from Inkscape.)
(Using default header. To add your own header create file "header" in the output dir.)
M3
(Header end.)
G21 (All units in mm)

(Start cutting path id: path42280)
(Change tool to Default tool)

G00 Z 5.0000
G00 X 18.1338 Y 2.6555

G01 Z -1.0000 F 100.0000(Penetrate)
G01 X 18.1442 Y 2.6715 Z -1.0000 F 3500.0000
G01 X 18.1499 Y 2.6715 Z -1.0000
G01 X 18.1514 Y 2.6643 Z -1.0000
G01 X 18.1410 Y 2.6483 Z -1.0000
G01 X 18.1353 Y 2.6483 Z -1.0000
G01 X 18.1337 Y 2.6556 Z -1.0000
G01 X 18.1338 Y 2.6555 Z -1.0000
G00 Z 5.0000

(End cutting path id: path42280)


(Start cutting path id: path42280)
(Change tool to Default tool)

G00 Z 5.0000
G00 X 18.1471 Y 2.7536

G01 Z -1.0000 F 100.0000(Penetrate)
G01 X 18.1461 Y 2.7659 Z -1.0000 F 3500.0000
G01 X 18.1562 Y 2.7757 Z -1.0000
G01 X 18.1667 Y 2.7872 Z -1.0000
G03 X 18.1683 Y 2.8177 Z -1.0000 I -0.0649 J 0.0188
G01 X 18.1715 Y 2.8354 Z -1.0000
G01 X 18.1793 Y 2.8365 Z -1.0000
G03 X 18.1978 Y 2.8235 Z -1.0000 I 0.0570 J 0.0609
G01 X 18.2101 Y 2.8205 Z -1.0000
G01 X 18.2043 Y 2.8335 Z -1.0000
G01 X 18.1974 Y 2.8463 Z -1.0000
G01 X 18.2043 Y 2.8590 Z -1.0000
G01 X 18.2108 Y 2.8724 Z -1.0000
G01 X 18.2205 Y 2.8862 Z -1.0000
G01 X 18.2298 Y 2.9159 Z -1.0000
G01 X 18.1979 Y 2.9348 Z -1.0000
G03 X 18.1581 Y 2.9264 Z -1.0000 I 0.0098 J -0.1443
G01 X 18.1523 Y 2.9182 Z -1.0000
G01 X 18.1489 Y 2.9146 Z -1.0000
G01 X 18.1426 Y 2.9176 Z -1.0000
G01 X 18.1309 Y 2.9265 Z -1.0000
G03 X 18.1049 Y 2.9320 Z -1.0000 I -0.0303 J -0.0789
G01 X 18.0874 Y 2.9258 Z -1.0000
G01 X 18.0844 Y 2.9137 Z -1.0000
G01 X 18.0797 Y 2.9046 Z -1.0000
G02 X 18.0477 Y 2.9041 Z -1.0000 I -0.0170 J 0.0652
G03 X 18.0032 Y 2.9130 Z -1.0000 I -0.1712 J -0.7453
G03 X 17.9807 Y 2.9155 Z -1.0000 I -0.0330 J -0.1967
G01 X 17.9624 Y 2.9208 Z -1.0000
G01 X 17.9580 Y 2.9284 Z -1.0000
G01 X 17.9538 Y 2.9316 Z -1.0000
G01 X 17.9360 Y 2.9224 Z -1.0000
G01 X 17.9233 Y 2.9199 Z -1.0000
G01 X 17.9254 Y 2.9335 Z -1.0000
G01 X 17.9173 Y 2.9446 Z -1.0000
G01 X 17.9124 Y 2.9437 Z -1.0000
G01 X 17.9122 Y 2.9376 Z -1.0000
G01 X 17.9098 Y 2.9307 Z -1.0000
G01 X 17.8915 Y 2.9298 Z -1.0000
G01 X 17.8841 Y 2.9261 Z -1.0000
G01 X 17.8866 Y 2.9169 Z -1.0000
G01 X 17.8896 Y 2.9077 Z -1.0000
G01 X 17.8834 Y 2.9042 Z -1.0000
G03 X 17.8596 Y 2.9055 Z -1.0000 I -0.0148 J -0.0496
G01 X 17.8542 Y 2.8991 Z -1.0000
G01 X 17.8582 Y 2.8892 Z -1.0000
G01 X 17.8679 Y 2.8852 Z -1.0000
G01 X 17.8743 Y 2.8810 Z -1.0000
G01 X 17.8736 Y 2.8721 Z -1.0000
G01 X 17.8645 Y 2.8683 Z -1.0000
G01 X 17.8461 Y 2.8785 Z -1.0000
G01 X 17.8341 Y 2.8989 Z -1.0000
G01 X 17.8361 Y 2.9133 Z -1.0000
G01 X 17.8347 Y 2.9195 Z -1.0000
G01 X 17.8248 Y 2.9206 Z -1.0000
G01 X 17.8073 Y 2.9198 Z -1.0000
G01 X 17.7984 Y 2.9281 Z -1.0000
G01 X 17.7895 Y 2.9343 Z -1.0000
G01 X 17.7658 Y 2.9276 Z -1.0000
G02 X 17.7408 Y 2.9200 Z -1.0000 I -0.0282 J 0.0478
G01 X 17.7302 Y 2.9255 Z -1.0000
G01 X 17.7186 Y 2.9327 Z -1.0000
G03 X 17.6779 Y 2.9312 Z -1.0000 I -0.0152 J -0.1389
G02 X 17.6350 Y 2.9288 Z -1.0000 I -0.0305 J 0.1632
G02 X 17.6094 Y 2.9362 Z -1.0000 I 0.0048 J 0.0650
G01 X 17.5865 Y 2.9401 Z -1.0000
G01 X 17.5682 Y 2.9297 Z -1.0000
G01 X 17.5525 Y 2.9204 Z -1.0000
G01 X 17.5426 Y 2.9248 Z -1.0000
G01 X 17.5310 Y 2.9310 Z -1.0000
G03 X 17.5025 Y 2.9233 Z -1.0000 I 0.0025 J -0.0658
G01 X 17.4922 Y 2.9237 Z -1.0000
G01 X 17.4911 Y 2.9306 Z -1.0000
G01 X 17.4907 Y 2.9381 Z -1.0000
G01 X 17.4823 Y 2.9393 Z -1.0000
G02 X 17.4537 Y 2.9302 Z -1.0000 I -0.0389 J 0.0728
G01 X 17.4305 Y 2.9328 Z -1.0000
G01 X 17.4159 Y 2.9312 Z -1.0000
G01 X 17.4158 Y 2.9037 Z -1.0000
G02 X 17.3739 Y 2.8853 Z -1.0000 I -0.0419 J 0.0383
G01 X 17.3662 Y 2.8905 Z -1.0000
G01 X 17.3661 Y 2.9047 Z -1.0000
G01 X 17.3665 Y 2.9193 Z -1.0000
G01 X 17.3596 Y 2.9242 Z -1.0000
G01 X 17.3529 Y 2.9186 Z -1.0000
G03 X 17.3538 Y 2.8918 Z -1.0000 I 0.0624 J -0.0113
G02 X 17.3548 Y 2.8650 Z -1.0000 I -0.0620 J -0.0155
G01 X 17.3480 Y 2.8594 Z -1.0000
G01 X 17.3415 Y 2.8635 Z -1.0000
G01 X 17.3420 Y 2.8723 Z -1.0000
G01 X 17.3411 Y 2.8803 Z -1.0000
G01 X 17.3291 Y 2.8853 Z -1.0000
G01 X 17.3170 Y 2.8803 Z -1.0000
G01 X 17.3161 Y 2.8723 Z -1.0000
G01 X 17.3145 Y 2.8647 Z -1.0000
G01 X 17.2968 Y 2.8594 Z -1.0000
G01 X 17.2764 Y 2.8533 Z -1.0000
G01 X 17.2717 Y 2.8431 Z -1.0000
G02 X 17.2674 Y 2.8138 Z -1.0000 I -0.0543 J -0.0071
G01 X 17.2586 Y 2.8140 Z -1.0000
G01 X 17.2609 Y 2.8528 Z -1.0000
G02 X 17.2969 Y 2.8854 Z -1.0000 I 0.0637 J -0.0341
G03 X 17.3206 Y 2.9038 Z -1.0000 I -0.0217 J 0.0523
G01 X 17.3199 Y 2.9161 Z -1.0000
G03 X 17.2496 Y 2.9463 Z -1.0000 I -0.0694 J -0.0649
G01 X 17.2188 Y 2.9152 Z -1.0000
G01 X 17.2155 Y 2.9016 Z -1.0000
G01 X 17.2071 Y 2.8925 Z -1.0000
G01 X 17.2022 Y 2.8945 Z -1.0000
G01 X 17.2023 Y 2.9118 Z -1.0000
G01 X 17.1952 Y 2.9271 Z -1.0000
G03 X 17.1524 Y 2.9357 Z -1.0000 I -0.0385 J -0.0805
G03 X 17.0966 Y 2.9295 Z -1.0000 I 0.0213 J -0.4441
G03 X 17.0729 Y 2.9216 Z -1.0000 I 0.0150 J -0.0850
G01 X 17.0553 Y 2.9186 Z -1.0000
G01 X 17.0503 Y 2.9242 Z -1.0000
G01 X 17.0442 Y 2.9317 Z -1.0000
G03 X 16.9984 Y 2.9351 Z -1.0000 I -0.0357 J -0.1691
G03 X 16.9520 Y 2.9269 Z -1.0000 I 0.0121 J -0.2026
G01 X 16.9465 Y 2.9195 Z -1.0000
G01 X 16.9436 Y 2.9139 Z -1.0000
G01 X 16.9390 Y 2.9144 Z -1.0000
G01 X 16.9316 Y 2.9150 Z -1.0000
G03 X 16.8955 Y 2.8841 Z -1.0000 I 0.1349 J -0.1944
G02 X 16.8597 Y 2.8582 Z -1.0000 I -0.0890 J 0.0850
G01 X 16.8547 Y 2.8646 Z -1.0000
G01 X 16.8599 Y 2.8799 Z -1.0000
G01 X 16.8537 Y 2.8881 Z -1.0000
G01 X 16.8512 Y 2.8938 Z -1.0000
G01 X 16.8603 Y 2.9022 Z -1.0000
G01 X 16.8732 Y 2.9028 Z -1.0000
G01 X 16.8751 Y 2.8981 Z -1.0000
G01 X 16.8785 Y 2.8936 Z -1.0000
G01 X 16.8938 Y 2.9037 Z -1.0000
G01 X 16.8947 Y 2.9139 Z -1.0000
G01 X 16.8857 Y 2.9183 Z -1.0000
G02 X 16.8634 Y 2.9190 Z -1.0000 I -0.0093 J 0.0570
G01 X 16.8460 Y 2.9274 Z -1.0000
G01 X 16.8355 Y 2.9284 Z -1.0000
G01 X 16.8298 Y 2.9189 Z -1.0000
G01 X 16.8219 Y 2.9106 Z -1.0000
G02 X 16.7918 Y 2.9172 Z -1.0000 I -0.0027 J 0.0595
G03 X 16.7058 Y 2.9319 Z -1.0000 I -0.0659 J -0.1275
G01 X 16.6699 Y 2.9000 Z -1.0000
G01 X 16.6660 Y 2.8973 Z -1.0000
G01 X 16.6628 Y 2.9006 Z -1.0000
G01 X 16.6421 Y 2.9272 Z -1.0000
G03 X 16.5714 Y 2.9309 Z -1.0000 I -0.0420 J -0.1269
G02 X 16.5368 Y 2.9293 Z -1.0000 I -0.0219 J 0.1008
G01 X 16.5254 Y 2.9366 Z -1.0000
G01 X 16.5154 Y 2.9443 Z -1.0000
G01 X 16.5044 Y 2.9428 Z -1.0000
G02 X 16.4819 Y 2.9344 Z -1.0000 I -0.0323 J 0.0522
G02 X 16.3630 Y 2.9197 Z -1.0000 I -0.2488 J 1.5235
G02 X 16.3327 Y 2.9221 Z -1.0000 I -0.0078 J 0.0932
G01 X 16.3199 Y 2.9303 Z -1.0000
G01 X 16.3106 Y 2.9338 Z -1.0000
G01 X 16.3026 Y 2.9274 Z -1.0000
G01 X 16.2734 Y 2.9065 Z -1.0000
G01 X 16.2398 Y 2.9241 Z -1.0000
G01 X 16.1969 Y 2.9461 Z -1.0000
G03 X 16.0991 Y 2.9149 Z -1.0000 I 0.0137 J -0.2114
G01 X 16.0972 Y 2.9244 Z -1.0000
G01 X 16.0963 Y 2.9320 Z -1.0000
G01 X 16.0875 Y 2.9338 Z -1.0000
G02 X 16.0681 Y 2.9302 Z -1.0000 I -0.0194 J 0.0503
G01 X 16.0594 Y 2.9338 Z -1.0000
G03 X 16.0167 Y 2.9516 Z -1.0000 I -0.0430 J -0.0430
G03 X 15.9653 Y 2.9344 Z -1.0000 I -0.0006 J -0.0837
G01 X 15.9516 Y 2.9303 Z -1.0000
G01 X 15.9423 Y 2.9357 Z -1.0000
G03 X 15.8901 Y 2.9719 Z -1.0000 I -0.0679 J -0.0422
G03 X 15.8170 Y 2.9608 Z -1.0000 I -0.0212 J -0.1059
G01 X 15.8096 Y 2.9604 Z -1.0000
G02 X 15.7911 Y 2.9711 Z -1.0000 I 0.0266 J 0.0671
G03 X 15.7717 Y 2.9809 Z -1.0000 I -0.0330 J -0.0413
G03 X 15.7502 Y 2.9820 Z -1.0000 I -0.0132 J -0.0498
G02 X 15.7311 Y 2.9825 Z -1.0000 I -0.0082 J 0.0513
G01 X 15.7275 Y 2.9869 Z -1.0000
G01 X 15.7226 Y 2.9929 Z -1.0000
G03 X 15.6335 Y 3.0055 Z -1.0000 I -0.1605 J -0.8097
G01 X 15.6149 Y 3.0113 Z -1.0000
G01 X 15.6108 Y 3.0183 Z -1.0000
G01 X 15.6069 Y 3.0242 Z -1.0000
G01 X 15.5946 Y 3.0253 Z -1.0000
G02 X 15.5451 Y 3.0264 Z -1.0000 I -0.0226 J 0.0983
G02 X 15.4384 Y 3.0685 Z -1.0000 I 0.1447 J 0.5227
G03 X 15.4154 Y 3.0755 Z -1.0000 I -0.0302 J -0.0576
G01 X 15.4022 Y 3.0726 Z -1.0000
G01 X 15.3652 Y 3.0755 Z -1.0000
G01 X 15.3601 Y 3.1091 Z -1.0000
G01 X 15.3594 Y 3.1136 Z -1.0000
G01 X 15.3544 Y 3.1139 Z -1.0000
G01 X 15.3419 Y 3.1117 Z -1.0000
G01 X 15.3320 Y 3.1186 Z -1.0000
G01 X 15.3224 Y 3.1264 Z -1.0000
G01 X 15.3131 Y 3.1254 Z -1.0000
G01 X 15.3036 Y 3.1249 Z -1.0000
G02 X 15.2865 Y 3.1382 Z -1.0000 I 0.0215 J 0.0452
G03 X 15.2686 Y 3.1534 Z -1.0000 I -0.0521 J -0.0432
G01 X 15.2535 Y 3.1575 Z -1.0000
G01 X 15.2381 Y 3.1611 Z -1.0000
G02 X 15.2195 Y 3.1743 Z -1.0000 I 0.0313 J 0.0640
G03 X 15.2007 Y 3.1885 Z -1.0000 I -0.0650 J -0.0664
G03 X 15.1602 Y 3.2082 Z -1.0000 I -0.1695 J -0.2956
G02 X 15.1216 Y 3.2278 Z -1.0000 I 0.1027 J 0.2506
G01 X 15.1180 Y 3.2341 Z -1.0000
G01 X 15.1148 Y 3.2408 Z -1.0000
G03 X 15.0759 Y 3.2676 Z -1.0000 I -0.2124 J -0.2669
G02 X 14.8481 Y 3.4439 Z -1.0000 I 0.5858 J 0.9920
G02 X 14.8306 Y 3.5123 Z -1.0000 I 0.0489 J 0.0490
G01 X 14.8291 Y 3.5173 Z -1.0000
G01 X 14.8250 Y 3.5172 Z -1.0000
G01 X 14.7756 Y 3.5153 Z -1.0000
G02 X 14.7419 Y 3.5884 Z -1.0000 I 0.0628 J 0.0731
G01 X 14.7376 Y 3.6018 Z -1.0000
G03 X 14.6868 Y 3.6642 Z -1.0000 I -0.6024 J -0.4381
G01 X 14.6731 Y 3.6892 Z -1.0000
G01 X 14.6533 Y 3.7159 Z -1.0000
G02 X 14.6319 Y 3.7436 Z -1.0000 I 0.0742 J 0.0796
G01 X 14.6322 Y 3.7548 Z -1.0000
G01 X 14.6325 Y 3.7630 Z -1.0000
G01 X 14.6260 Y 3.7670 Z -1.0000
G01 X 14.6169 Y 3.7717 Z -1.0000
G01 X 14.6123 Y 3.7865 Z -1.0000
G01 X 14.6078 Y 3.8014 Z -1.0000
G01 X 14.5993 Y 3.8059 Z -1.0000
G01 X 14.5904 Y 3.8093 Z -1.0000
G01 X 14.5882 Y 3.8156 Z -1.0000
G03 X 14.5793 Y 3.8875 Z -1.0000 I -0.1167 J 0.0220
G01 X 14.5446 Y 3.9096 Z -1.0000
G01 X 14.5381 Y 3.9148 Z -1.0000
G01 X 14.5382 Y 3.9356 Z -1.0000
G01 X 14.5382 Y 3.9523 Z -1.0000
G01 X 14.5332 Y 3.9543 Z -1.0000
G01 X 14.5264 Y 3.9559 Z -1.0000
G01 X 14.5215 Y 3.9737 Z -1.0000
G01 X 14.5157 Y 3.9947 Z -1.0000
G01 X 14.5053 Y 4.0006 Z -1.0000
G01 X 14.5019 Y 4.0044 Z -1.0000
G01 X 14.5067 Y 4.0120 Z -1.0000
G01 X 14.5142 Y 4.0230 Z -1.0000
G01 X 14.5105 Y 4.0316 Z -1.0000
G01 X 14.5028 Y 4.0422 Z -1.0000
G01 X 14.5040 Y 4.0591 Z -1.0000
G01 X 14.5036 Y 4.0746 Z -1.0000
G01 X 14.4923 Y 4.0853 Z -1.0000
G01 X 14.4805 Y 4.0969 Z -1.0000
G02 X 14.4767 Y 4.1234 Z -1.0000 I 0.0503 J 0.0206
G03 X 14.4728 Y 4.1498 Z -1.0000 I -0.0523 J 0.0058
G01 X 14.4604 Y 4.1618 Z -1.0000
G01 X 14.4516 Y 4.1721 Z -1.0000
G01 X 14.4553 Y 4.1869 Z -1.0000
G01 X 14.4599 Y 4.2035 Z -1.0000
G01 X 14.4500 Y 4.2210 Z -1.0000
G01 X 14.4377 Y 4.2397 Z -1.0000
G01 X 14.4380 Y 4.2622 Z -1.0000
G03 X 14.4397 Y 4.2858 Z -1.0000 I -0.0487 J 0.0154
G01 X 14.4312 Y 4.3046 Z -1.0000
G01 X 14.4249 Y 4.3209 Z -1.0000
G01 X 14.4300 Y 4.3306 Z -1.0000
G01 X 14.4347 Y 4.3409 Z -1.0000
G03 X 14.4239 Y 4.3689 Z -1.0000 I -0.0709 J -0.0113
G02 X 14.4104 Y 4.3994 Z -1.0000 I 0.0861 J 0.0564
G01 X 14.4113 Y 4.4172 Z -1.0000
G01 X 14.4124 Y 4.4348 Z -1.0000
G03 X 14.4003 Y 4.4604 Z -1.0000 I -0.0726 J -0.0187
G02 X 14.3901 Y 4.4866 Z -1.0000 I 0.0440 J 0.0322
G02 X 14.3933 Y 4.5238 Z -1.0000 I 0.0957 J 0.0106
G03 X 14.3973 Y 4.5610 Z -1.0000 I -0.1065 J 0.0304
G01 X 14.3898 Y 4.5801 Z -1.0000
G01 X 14.3831 Y 4.5988 Z -1.0000
G02 X 14.3901 Y 4.6304 Z -1.0000 I 0.0771 J -0.0004
G01 X 14.3938 Y 4.6582 Z -1.0000
G01 X 14.3851 Y 4.6614 Z -1.0000
G01 X 14.3783 Y 4.6632 Z -1.0000
G01 X 14.3783 Y 4.6793 Z -1.0000
G03 X 14.3844 Y 4.7089 Z -1.0000 I -0.0891 J 0.0339
G01 X 14.3799 Y 4.7137 Z -1.0000
G01 X 14.3639 Y 4.7342 Z -1.0000
G02 X 14.3973 Y 4.7816 Z -1.0000 I 0.0791 J -0.0203
G01 X 14.3976 Y 4.7870 Z -1.0000
G01 X 14.3854 Y 4.7915 Z -1.0000
G01 X 14.3724 Y 4.7960 Z -1.0000
G01 X 14.3725 Y 4.8014 Z -1.0000
G01 X 14.3894 Y 4.8321 Z -1.0000
G01 X 14.3764 Y 4.8593 Z -1.0000
G01 X 14.3706 Y 4.8699 Z -1.0000
G01 X 14.3756 Y 4.8778 Z -1.0000
G01 X 14.3826 Y 4.8876 Z -1.0000
G01 X 14.3773 Y 4.9112 Z -1.0000
G01 X 14.3769 Y 4.9257 Z -1.0000
G01 X 14.3857 Y 4.9293 Z -1.0000
G01 X 14.3937 Y 4.9311 Z -1.0000
G01 X 14.3940 Y 4.9380 Z -1.0000
G01 X 14.3882 Y 4.9550 Z -1.0000
G01 X 14.3954 Y 4.9715 Z -1.0000
G01 X 14.3950 Y 4.9769 Z -1.0000
G01 X 14.3865 Y 4.9781 Z -1.0000
G01 X 14.3746 Y 4.9793 Z -1.0000
G01 X 14.3729 Y 4.9868 Z -1.0000
G03 X 14.3886 Y 5.0358 Z -1.0000 I -0.0909 J 0.0562
G01 X 14.3767 Y 5.0429 Z -1.0000
G01 X 14.3704 Y 5.0468 Z -1.0000
G02 X 14.3794 Y 5.0776 Z -1.0000 I 0.0776 J -0.0060
G03 X 14.3854 Y 5.0982 Z -1.0000 I -0.0456 J 0.0244
G01 X 14.3813 Y 5.1027 Z -1.0000
G01 X 14.3742 Y 5.1096 Z -1.0000
G02 X 14.3780 Y 5.2234 Z -1.0000 I 0.9312 J 0.0258
G01 X 14.3822 Y 5.2275 Z -1.0000
G01 X 14.3940 Y 5.2246 Z -1.0000
G01 X 14.3990 Y 5.2252 Z -1.0000
G01 X 14.3996 Y 5.2305 Z -1.0000
G01 X 14.3886 Y 5.2393 Z -1.0000
G01 X 14.3781 Y 5.2382 Z -1.0000
G01 X 14.3699 Y 5.2377 Z -1.0000
G01 X 14.3660 Y 5.2437 Z -1.0000
G01 X 14.3692 Y 5.2548 Z -1.0000
G01 X 14.3790 Y 5.2647 Z -1.0000
G01 X 14.3888 Y 5.2744 Z -1.0000
G01 X 14.3920 Y 5.2856 Z -1.0000
G01 X 14.3880 Y 5.2914 Z -1.0000
G01 X 14.3790 Y 5.2906 Z -1.0000
G01 X 14.3703 Y 5.2901 Z -1.0000
G01 X 14.3660 Y 5.2967 Z -1.0000
G01 X 14.3703 Y 5.3080 Z -1.0000
G01 X 14.3852 Y 5.3182 Z -1.0000
G01 X 14.3925 Y 5.3281 Z -1.0000
G01 X 14.3873 Y 5.3426 Z -1.0000
G02 X 14.3714 Y 5.3766 Z -1.0000 I 0.0389 J 0.0389
G02 X 14.3798 Y 5.4268 Z -1.0000 I 0.1007 J 0.0090
G03 X 14.4026 Y 5.5431 Z -1.0000 I -0.2402 J 0.1076
G01 X 14.3754 Y 5.5694 Z -1.0000
G01 X 14.3719 Y 5.5735 Z -1.0000
G02 X 14.3793 Y 5.5957 Z -1.0000 I 0.0686 J -0.0103
G01 X 14.3957 Y 5.6132 Z -1.0000
G01 X 14.4077 Y 5.6132 Z -1.0000
G01 X 14.4123 Y 5.6140 Z -1.0000
G01 X 14.4126 Y 5.6195 Z -1.0000
G01 X 14.4016 Y 5.6283 Z -1.0000
G01 X 14.3911 Y 5.6272 Z -1.0000
G01 X 14.3786 Y 5.6343 Z -1.0000
G02 X 14.3923 Y 5.6867 Z -1.0000 I 0.1159 J -0.0023
G01 X 14.3932 Y 5.7005 Z -1.0000
G01 X 14.3858 Y 5.7039 Z -1.0000
G01 X 14.3711 Y 5.7036 Z -1.0000
G01 X 14.3660 Y 5.7107 Z -1.0000
G01 X 14.3705 Y 5.7206 Z -1.0000
G01 X 14.3823 Y 5.7252 Z -1.0000
G01 X 14.3874 Y 5.7289 Z -1.0000
G01 X 14.3855 Y 5.7349 Z -1.0000
G02 X 14.3532 Y 5.7928 Z -1.0000 I 0.0473 J 0.0643
G01 X 14.3796 Y 5.8089 Z -1.0000
G01 X 14.3845 Y 5.8118 Z -1.0000
G03 X 14.3759 Y 5.9455 Z -1.0000 I -1.8125 J -0.0494
G03 X 14.3687 Y 5.9758 Z -1.0000 I -0.1194 J -0.0121
G01 X 14.3596 Y 5.9885 Z -1.0000
G01 X 14.3757 Y 5.9909 Z -1.0000
G01 X 14.3935 Y 5.9930 Z -1.0000
G01 X 14.3970 Y 6.0030 Z -1.0000
G03 X 14.3870 Y 6.0200 Z -1.0000 I -0.0554 J -0.0213
G01 X 14.3798 Y 6.0233 Z -1.0000
G01 X 14.3748 Y 6.0273 Z -1.0000
G02 X 14.3729 Y 6.0525 Z -1.0000 I 0.0773 J 0.0183
G03 X 14.3716 Y 6.0809 Z -1.0000 I -0.1068 J 0.0093
G03 X 14.3633 Y 6.1053 Z -1.0000 I -0.0860 J -0.0156
G01 X 14.3663 Y 6.1137 Z -1.0000
G01 X 14.3813 Y 6.1131 Z -1.0000
G01 X 14.3890 Y 6.1149 Z -1.0000
G01 X 14.3885 Y 6.1232 Z -1.0000
G02 X 14.3726 Y 6.1504 Z -1.0000 I 0.0609 J 0.0540
G01 X 14.3728 Y 6.1682 Z -1.0000
G01 X 14.3752 Y 6.1874 Z -1.0000
G03 X 14.3660 Y 6.2246 Z -1.0000 I -0.1581 J -0.0190
G01 X 14.3686 Y 6.2374 Z -1.0000
G01 X 14.3785 Y 6.2378 Z -1.0000
G01 X 14.3983 Y 6.2290 Z -1.0000
G01 X 14.4051 Y 6.2352 Z -1.0000
G01 X 14.4010 Y 6.2527 Z -1.0000
G01 X 14.3945 Y 6.2567 Z -1.0000
G01 X 14.3888 Y 6.2613 Z -1.0000
G02 X 14.3854 Y 6.2988 Z -1.0000 I 0.1492 J 0.0322
G03 X 14.3825 Y 6.3396 Z -1.0000 I -0.1920 J 0.0068
G01 X 14.3749 Y 6.3572 Z -1.0000
G01 X 14.3778 Y 6.3698 Z -1.0000
G01 X 14.4083 Y 6.3749 Z -1.0000
G01 X 14.4146 Y 6.3773 Z -1.0000
G01 X 14.4180 Y 6.3864 Z -1.0000
G01 X 14.4101 Y 6.3976 Z -1.0000
G03 X 14.3772 Y 6.4013 Z -1.0000 I -0.0240 J -0.0654
G01 X 14.3735 Y 6.4043 Z -1.0000
G02 X 14.3754 Y 6.4256 Z -1.0000 I 0.0654 J 0.0048
G01 X 14.3852 Y 6.4428 Z -1.0000
G01 X 14.3935 Y 6.4438 Z -1.0000
G01 X 14.4011 Y 6.4437 Z -1.0000
G01 X 14.4050 Y 6.4504 Z -1.0000
G01 X 14.4009 Y 6.4601 Z -1.0000
G01 X 14.3909 Y 6.4641 Z -1.0000
G01 X 14.3834 Y 6.4687 Z -1.0000
G01 X 14.3827 Y 6.4803 Z -1.0000
G01 X 14.3842 Y 6.4962 Z -1.0000
G03 X 14.3758 Y 6.5212 Z -1.0000 I -0.0845 J -0.0143
G01 X 14.3751 Y 6.5351 Z -1.0000
G01 X 14.3826 Y 6.5384 Z -1.0000
G01 X 14.3928 Y 6.5413 Z -1.0000
G01 X 14.3956 Y 6.5559 Z -1.0000
G01 X 14.3987 Y 6.5737 Z -1.0000
G01 X 14.4133 Y 6.5817 Z -1.0000
G01 X 14.4163 Y 6.5862 Z -1.0000
G01 X 14.4085 Y 6.5941 Z -1.0000
G01 X 14.3896 Y 6.6102 Z -1.0000
G01 X 14.3880 Y 6.6279 Z -1.0000
G01 X 14.3873 Y 6.6389 Z -1.0000
G01 X 14.3813 Y 6.6406 Z -1.0000
G01 X 14.3705 Y 6.6391 Z -1.0000
G01 X 14.3661 Y 6.6450 Z -1.0000
G01 X 14.3702 Y 6.6547 Z -1.0000
G01 X 14.3798 Y 6.6587 Z -1.0000
G01 X 14.3854 Y 6.6632 Z -1.0000
G01 X 14.3833 Y 6.6749 Z -1.0000
G02 X 14.3669 Y 6.7357 Z -1.0000 I 0.0899 J 0.0569
G02 X 14.3871 Y 6.7767 Z -1.0000 I 0.0559 J -0.0021
G03 X 14.4009 Y 6.7935 Z -1.0000 I -0.0359 J 0.0433
G01 X 14.4051 Y 6.8102 Z -1.0000
G01 X 14.4104 Y 6.8193 Z -1.0000
G01 X 14.4213 Y 6.8191 Z -1.0000
G01 X 14.4197 Y 6.8313 Z -1.0000
G01 X 14.4197 Y 6.8452 Z -1.0000
G01 X 14.4391 Y 6.8550 Z -1.0000
G01 X 14.4459 Y 6.8589 Z -1.0000
G01 X 14.4442 Y 6.8628 Z -1.0000
G02 X 14.4149 Y 6.8739 Z -1.0000 I 0.0162 J 0.0868
G02 X 14.3843 Y 6.8988 Z -1.0000 I 0.0724 J 0.1205
G01 X 14.3724 Y 6.9242 Z -1.0000
G01 X 14.3798 Y 6.9350 Z -1.0000
G01 X 14.3927 Y 6.9316 Z -1.0000
G01 X 14.3954 Y 6.9199 Z -1.0000
G01 X 14.3990 Y 6.9152 Z -1.0000
G01 X 14.4136 Y 6.9214 Z -1.0000
G02 X 14.4405 Y 6.9414 Z -1.0000 I 0.1386 J -0.1583
G01 X 14.4498 Y 6.9441 Z -1.0000
G01 X 14.4525 Y 6.9403 Z -1.0000
G02 X 14.4423 Y 6.9214 Z -1.0000 I -0.0595 J 0.0197
G01 X 14.4423 Y 6.9165 Z -1.0000
G01 X 14.4466 Y 6.9160 Z -1.0000
G01 X 14.4579 Y 6.9352 Z -1.0000
G01 X 14.4532 Y 6.9581 Z -1.0000
G03 X 14.4359 Y 6.9797 Z -1.0000 I -0.0979 J -0.0609
G01 X 14.4278 Y 6.9830 Z -1.0000
G01 X 14.4134 Y 6.9997 Z -1.0000
G01 X 14.4342 Y 7.0262 Z -1.0000
G01 X 14.4204 Y 7.0338 Z -1.0000
G01 X 14.4005 Y 7.0434 Z -1.0000
G01 X 14.3945 Y 7.0640 Z -1.0000
G03 X 14.3922 Y 7.0908 Z -1.0000 I -0.0581 J 0.0083
G01 X 14.3792 Y 7.1104 Z -1.0000
G01 X 14.3759 Y 7.1194 Z -1.0000
G01 X 14.3877 Y 7.1184 Z -1.0000
G01 X 14.3921 Y 7.1245 Z -1.0000
G01 X 14.3968 Y 7.1310 Z -1.0000
G01 X 14.4106 Y 7.1307 Z -1.0000
G01 X 14.4274 Y 7.1312 Z -1.0000
G03 X 14.4575 Y 7.1521 Z -1.0000 I -0.0425 J 0.0933
G02 X 14.4846 Y 7.1687 Z -1.0000 I 0.0485 J -0.0485
G01 X 14.4958 Y 7.1647 Z -1.0000
G01 X 14.5056 Y 7.1587 Z -1.0000
G01 X 14.5145 Y 7.1632 Z -1.0000
G01 X 14.5147 Y 7.1728 Z -1.0000
G01 X 14.5064 Y 7.1777 Z -1.0000
G01 X 14.5027 Y 7.1817 Z -1.0000
G01 X 14.5070 Y 7.1891 Z -1.0000
G01 X 14.5142 Y 7.2002 Z -1.0000
G01 X 14.5100 Y 7.2092 Z -1.0000
G01 X 14.5022 Y 7.2199 Z -1.0000
G01 X 14.5041 Y 7.2323 Z -1.0000
G01 X 14.5031 Y 7.2367 Z -1.0000
G01 X 14.4971 Y 7.2367 Z -1.0000
G01 X 14.4868 Y 7.2251 Z -1.0000
G01 X 14.4862 Y 7.2128 Z -1.0000
G01 X 14.4719 Y 7.1632 Z -1.0000
G01 X 14.4259 Y 7.1634 Z -1.0000
G01 X 14.4099 Y 7.1687 Z -1.0000
G01 X 14.3943 Y 7.1617 Z -1.0000
G01 X 14.3822 Y 7.1554 Z -1.0000
G01 X 14.3776 Y 7.1588 Z -1.0000
G02 X 14.3761 Y 7.1711 Z -1.0000 I 7.4625 J 0.8922
G02 X 14.3717 Y 7.2094 Z -1.0000 I 10.0214 J 1.1813
G02 X 14.3728 Y 7.2460 Z -1.0000 I 0.1281 J 0.0146
G01 X 14.3813 Y 7.2645 Z -1.0000
G01 X 14.3857 Y 7.2768 Z -1.0000
G01 X 14.3811 Y 7.2813 Z -1.0000
G01 X 14.3742 Y 7.2863 Z -1.0000
G01 X 14.3745 Y 7.3009 Z -1.0000
G01 X 14.3757 Y 7.3196 Z -1.0000
G03 X 14.3644 Y 7.3429 Z -1.0000 I -0.0585 J -0.0140
G01 X 14.3665 Y 7.3473 Z -1.0000
G01 X 14.3820 Y 7.3427 Z -1.0000
G03 X 14.4054 Y 7.3347 Z -1.0000 I 0.0282 J 0.0441
G01 X 14.4096 Y 7.3402 Z -1.0000
G01 X 14.4103 Y 7.3529 Z -1.0000
G01 X 14.4181 Y 7.3564 Z -1.0000
G01 X 14.4307 Y 7.3589 Z -1.0000
G01 X 14.4401 Y 7.3721 Z -1.0000
G01 X 14.4352 Y 7.3782 Z -1.0000
G01 X 14.3918 Y 7.3651 Z -1.0000
G01 X 14.3661 Y 7.4004 Z -1.0000
G01 X 14.3709 Y 7.4045 Z -1.0000
G01 X 14.3888 Y 7.3968 Z -1.0000
G01 X 14.4019 Y 7.3908 Z -1.0000
G01 X 14.3987 Y 7.4022 Z -1.0000
G01 X 14.4060 Y 7.4187 Z -1.0000
G01 X 14.4129 Y 7.4361 Z -1.0000
G01 X 14.4083 Y 7.4588 Z -1.0000
G02 X 14.4005 Y 7.4831 Z -1.0000 I 0.0823 J 0.0401
G02 X 14.3983 Y 7.5161 Z -1.0000 I 0.1524 J 0.0267
G01 X 14.3902 Y 7.5391 Z -1.0000
G01 X 14.3731 Y 7.5452 Z -1.0000
G01 X 14.3621 Y 7.5479 Z -1.0000
G01 X 14.3711 Y 7.5579 Z -1.0000
G01 X 14.3709 Y 7.5726 Z -1.0000
G01 X 14.3702 Y 7.5879 Z -1.0000
G01 X 14.3783 Y 7.5986 Z -1.0000
G01 X 14.3857 Y 7.6090 Z -1.0000
G01 X 14.3836 Y 7.6226 Z -1.0000
G01 X 14.3854 Y 7.6283 Z -1.0000
G01 X 14.3961 Y 7.6252 Z -1.0000
G01 X 14.4134 Y 7.6331 Z -1.0000
G01 X 14.4241 Y 7.6332 Z -1.0000
G01 X 14.4308 Y 7.6193 Z -1.0000
G01 X 14.4362 Y 7.6008 Z -1.0000
G01 X 14.4438 Y 7.5990 Z -1.0000
G01 X 14.4493 Y 7.6091 Z -1.0000
G03 X 14.4432 Y 7.6326 Z -1.0000 I -0.0519 J -0.0010
G03 X 14.4276 Y 7.6509 Z -1.0000 I -0.0503 J -0.0269
G01 X 14.4187 Y 7.6514 Z -1.0000
G01 X 14.4088 Y 7.6508 Z -1.0000
G01 X 14.3918 Y 7.6640 Z -1.0000
G01 X 14.3939 Y 7.6730 Z -1.0000
G01 X 14.4195 Y 7.6765 Z -1.0000
G01 X 14.4354 Y 7.6821 Z -1.0000
G02 X 14.4098 Y 7.6970 Z -1.0000 I 0.0545 J 0.1228
G01 X 14.3981 Y 7.7097 Z -1.0000
G01 X 14.3886 Y 7.7144 Z -1.0000
G01 X 14.3775 Y 7.7074 Z -1.0000
G01 X 14.3699 Y 7.7022 Z -1.0000
G01 X 14.3662 Y 7.7052 Z -1.0000
G01 X 14.3793 Y 7.7275 Z -1.0000
G01 X 14.3983 Y 7.7224 Z -1.0000
G01 X 14.4082 Y 7.7125 Z -1.0000
G01 X 14.4194 Y 7.7093 Z -1.0000
G01 X 14.4252 Y 7.7132 Z -1.0000
G01 X 14.4244 Y 7.7222 Z -1.0000
G01 X 14.4245 Y 7.7307 Z -1.0000
G01 X 14.4334 Y 7.7354 Z -1.0000
G01 X 14.4369 Y 7.7394 Z -1.0000
G01 X 14.4321 Y 7.7472 Z -1.0000
G01 X 14.4133 Y 7.7542 Z -1.0000
G01 X 14.3977 Y 7.7526 Z -1.0000
G01 X 14.3835 Y 7.7518 Z -1.0000
G01 X 14.3740 Y 7.7588 Z -1.0000
G01 X 14.3752 Y 7.7657 Z -1.0000
G01 X 14.3874 Y 7.7694 Z -1.0000
G01 X 14.4029 Y 7.7746 Z -1.0000
G01 X 14.4123 Y 7.7920 Z -1.0000
G01 X 14.4088 Y 7.8019 Z -1.0000
G01 X 14.4015 Y 7.8017 Z -1.0000
G01 X 14.3822 Y 7.7983 Z -1.0000
G01 X 14.3701 Y 7.8162 Z -1.0000
G01 X 14.3748 Y 7.8296 Z -1.0000
G01 X 14.3832 Y 7.8238 Z -1.0000
G01 X 14.3978 Y 7.8295 Z -1.0000
G01 X 14.4089 Y 7.8466 Z -1.0000
G01 X 14.4087 Y 7.8610 Z -1.0000
G01 X 14.4118 Y 7.8691 Z -1.0000
G01 X 14.4301 Y 7.8715 Z -1.0000
G01 X 14.4478 Y 7.8729 Z -1.0000
G01 X 14.4498 Y 7.8787 Z -1.0000
G01 X 14.4408 Y 7.8856 Z -1.0000
G01 X 14.4308 Y 7.8842 Z -1.0000
G01 X 14.4210 Y 7.8835 Z -1.0000
G01 X 14.4090 Y 7.8937 Z -1.0000
G01 X 14.3961 Y 7.9059 Z -1.0000
G01 X 14.3801 Y 7.9102 Z -1.0000
G01 X 14.3651 Y 7.9148 Z -1.0000
G01 X 14.3564 Y 7.9264 Z -1.0000
G01 X 14.3575 Y 7.9379 Z -1.0000
G01 X 14.3658 Y 7.9426 Z -1.0000
G01 X 14.3728 Y 7.9383 Z -1.0000
G01 X 14.3726 Y 7.9296 Z -1.0000
G01 X 14.3777 Y 7.9224 Z -1.0000
G03 X 14.4060 Y 7.9370 Z -1.0000 I -0.0135 J 0.0609
G01 X 14.4162 Y 7.9595 Z -1.0000
G03 X 14.4070 Y 7.9960 Z -1.0000 I -0.0724 J 0.0012
G02 X 14.3983 Y 8.0319 Z -1.0000 I 0.0603 J 0.0336
G01 X 14.4088 Y 8.0521 Z -1.0000
G01 X 14.4196 Y 8.0679 Z -1.0000
G01 X 14.4153 Y 8.0764 Z -1.0000
G01 X 14.4276 Y 8.0842 Z -1.0000
G01 X 14.4428 Y 8.0710 Z -1.0000
G01 X 14.4308 Y 8.0528 Z -1.0000
G01 X 14.4047 Y 8.0255 Z -1.0000
G01 X 14.4186 Y 8.0074 Z -1.0000
G01 X 14.4243 Y 8.0119 Z -1.0000
G01 X 14.4223 Y 8.0236 Z -1.0000
G01 X 14.4479 Y 8.0166 Z -1.0000
G01 X 14.4899 Y 8.0111 Z -1.0000
G01 X 14.5018 Y 8.0344 Z -1.0000
G01 X 14.5012 Y 8.0539 Z -1.0000
G01 X 14.5082 Y 8.0593 Z -1.0000
G01 X 14.5138 Y 8.0644 Z -1.0000
G01 X 14.5103 Y 8.0820 Z -1.0000
G02 X 14.5027 Y 8.1057 Z -1.0000 I 0.0599 J 0.0321
G02 X 14.5018 Y 8.1501 Z -1.0000 I 0.2154 J 0.0269
G03 X 14.4998 Y 8.1926 Z -1.0000 I -0.1684 J 0.0135
G01 X 14.4924 Y 8.2037 Z -1.0000
G01 X 14.4864 Y 8.2136 Z -1.0000
G01 X 14.4904 Y 8.2296 Z -1.0000
G03 X 14.5049 Y 8.2771 Z -1.0000 I -0.0820 J 0.0512
G01 X 14.4925 Y 8.2845 Z -1.0000
G01 X 14.4934 Y 8.2960 Z -1.0000
G03 X 14.5104 Y 8.3547 Z -1.0000 I -0.0612 J 0.0496
G01 X 14.4844 Y 8.3734 Z -1.0000
G01 X 14.4751 Y 8.3765 Z -1.0000
G01 X 14.4734 Y 8.3863 Z -1.0000
G01 X 14.4821 Y 8.3981 Z -1.0000
G01 X 14.4920 Y 8.4004 Z -1.0000
G01 X 14.4989 Y 8.4044 Z -1.0000
G03 X 14.5027 Y 8.4328 Z -1.0000 I -0.0736 J 0.0243
G01 X 14.4767 Y 8.4632 Z -1.0000
G01 X 14.4493 Y 8.4441 Z -1.0000
G01 X 14.4537 Y 8.4302 Z -1.0000
G01 X 14.4649 Y 8.4277 Z -1.0000
G01 X 14.4742 Y 8.4269 Z -1.0000
G01 X 14.4756 Y 8.4213 Z -1.0000
G01 X 14.4651 Y 8.4136 Z -1.0000
G01 X 14.4490 Y 8.4146 Z -1.0000
G01 X 14.4367 Y 8.4131 Z -1.0000
G01 X 14.4308 Y 8.4018 Z -1.0000
G01 X 14.4361 Y 8.3914 Z -1.0000
G01 X 14.4455 Y 8.3910 Z -1.0000
G01 X 14.4524 Y 8.3903 Z -1.0000
G01 X 14.4543 Y 8.3826 Z -1.0000
G01 X 14.4436 Y 8.3714 Z -1.0000
G02 X 14.4005 Y 8.3621 Z -1.0000 I -0.0524 J 0.1371
G01 X 14.3735 Y 8.3684 Z -1.0000
G01 X 14.3721 Y 8.3786 Z -1.0000
G01 X 14.3926 Y 8.3906 Z -1.0000
G01 X 14.4070 Y 8.3887 Z -1.0000
G01 X 14.4133 Y 8.3900 Z -1.0000
G01 X 14.4144 Y 8.3997 Z -1.0000
G01 X 14.4146 Y 8.4167 Z -1.0000
G01 X 14.4260 Y 8.4277 Z -1.0000
G01 X 14.4379 Y 8.4377 Z -1.0000
G01 X 14.4379 Y 8.4474 Z -1.0000
G01 X 14.4365 Y 8.4581 Z -1.0000
G01 X 14.4442 Y 8.4680 Z -1.0000
G01 X 14.4488 Y 8.4938 Z -1.0000
G03 X 14.4090 Y 8.5132 Z -1.0000 I -0.0398 J -0.0311
G01 X 14.3990 Y 8.5180 Z -1.0000
G01 X 14.3985 Y 8.5264 Z -1.0000
G01 X 14.4081 Y 8.5335 Z -1.0000
G01 X 14.4187 Y 8.5321 Z -1.0000
G01 X 14.4266 Y 8.5321 Z -1.0000
G01 X 14.4308 Y 8.5400 Z -1.0000
G01 X 14.4358 Y 8.5448 Z -1.0000
G01 X 14.4499 Y 8.5395 Z -1.0000
G02 X 14.4642 Y 8.5220 Z -1.0000 I -0.0381 J -0.0458
G01 X 14.4661 Y 8.5095 Z -1.0000
G01 X 14.4692 Y 8.4992 Z -1.0000
G01 X 14.4859 Y 8.4903 Z -1.0000
G01 X 14.5018 Y 8.5027 Z -1.0000
G01 X 14.4872 Y 8.5325 Z -1.0000
G01 X 14.4778 Y 8.5477 Z -1.0000
G01 X 14.4827 Y 8.5586 Z -1.0000
G01 X 14.4886 Y 8.5577 Z -1.0000
G01 X 14.4891 Y 8.5509 Z -1.0000
G01 X 14.4895 Y 8.5426 Z -1.0000
G03 X 14.5192 Y 8.6042 Z -1.0000 I -0.0613 J 0.0675
G01 X 14.4951 Y 8.6299 Z -1.0000
G01 X 14.4910 Y 8.6340 Z -1.0000
G02 X 14.4946 Y 8.6785 Z -1.0000 I 0.2406 J 0.0031
G03 X 14.4898 Y 8.7496 Z -1.0000 I -0.1482 J 0.0257
G01 X 14.4665 Y 8.7674 Z -1.0000
G03 X 14.4355 Y 8.7638 Z -1.0000 I -0.0038 J -0.1029
G01 X 14.4308 Y 8.7577 Z -1.0000
G01 X 14.4345 Y 8.7504 Z -1.0000
G01 X 14.4459 Y 8.7467 Z -1.0000
G01 X 14.4530 Y 8.7433 Z -1.0000
G01 X 14.4527 Y 8.7384 Z -1.0000
G01 X 14.4441 Y 8.7361 Z -1.0000
G02 X 14.4246 Y 8.7465 Z -1.0000 I 0.0149 J 0.0516
G01 X 14.4095 Y 8.7529 Z -1.0000
G01 X 14.4049 Y 8.7488 Z -1.0000
G01 X 14.4094 Y 8.7373 Z -1.0000
G03 X 14.4319 Y 8.7202 Z -1.0000 I 0.0644 J 0.0612
G02 X 14.4522 Y 8.7047 Z -1.0000 I -0.0377 J -0.0702
G01 X 14.4521 Y 8.6988 Z -1.0000
G01 X 14.4151 Y 8.6994 Z -1.0000
G02 X 14.3830 Y 8.7726 Z -1.0000 I 0.0879 J 0.0822
G01 X 14.3873 Y 8.7888 Z -1.0000
G01 X 14.3972 Y 8.7774 Z -1.0000
G01 X 14.4147 Y 8.7726 Z -1.0000
G01 X 14.4199 Y 8.7793 Z -1.0000
G03 X 14.4071 Y 8.8026 Z -1.0000 I -0.0515 J -0.0130
G02 X 14.3829 Y 8.8492 Z -1.0000 I 0.0706 J 0.0664
G01 X 14.3951 Y 8.8599 Z -1.0000
G01 X 14.4051 Y 8.8506 Z -1.0000
G01 X 14.4072 Y 8.8316 Z -1.0000
G01 X 14.4106 Y 8.8199 Z -1.0000
G01 X 14.4189 Y 8.8187 Z -1.0000
G01 X 14.4253 Y 8.8190 Z -1.0000
G01 X 14.4264 Y 8.8150 Z -1.0000
G01 X 14.4255 Y 8.8028 Z -1.0000
G01 X 14.4398 Y 8.7838 Z -1.0000
G01 X 14.4500 Y 8.7822 Z -1.0000
G01 X 14.4531 Y 8.7888 Z -1.0000
G01 X 14.4526 Y 8.8061 Z -1.0000
G01 X 14.4604 Y 8.8120 Z -1.0000
G01 X 14.4638 Y 8.8165 Z -1.0000
G01 X 14.4563 Y 8.8282 Z -1.0000
G02 X 14.4359 Y 8.8695 Z -1.0000 I 0.0333 J 0.0420
G01 X 14.4555 Y 8.8894 Z -1.0000
G01 X 14.4720 Y 8.8778 Z -1.0000
G01 X 14.4680 Y 8.8549 Z -1.0000
G01 X 14.4639 Y 8.8423 Z -1.0000
G01 X 14.4690 Y 8.8375 Z -1.0000
G01 X 14.4767 Y 8.8318 Z -1.0000
G01 X 14.4767 Y 8.8131 Z -1.0000
G01 X 14.4772 Y 8.7927 Z -1.0000
G01 X 14.4888 Y 8.7811 Z -1.0000
G01 X 14.5040 Y 8.7801 Z -1.0000
G01 X 14.5086 Y 8.7860 Z -1.0000
G01 X 14.5048 Y 8.7947 Z -1.0000
G01 X 14.4952 Y 8.7985 Z -1.0000
G01 X 14.4900 Y 8.8035 Z -1.0000
G01 X 14.4941 Y 8.8216 Z -1.0000
G01 X 14.4996 Y 8.8445 Z -1.0000
G03 X 14.4930 Y 8.8685 Z -1.0000 I -0.0509 J -0.0011
G02 X 14.4864 Y 8.8909 Z -1.0000 I 0.0458 J 0.0258
G01 X 14.4909 Y 8.9006 Z -1.0000
G01 X 14.4971 Y 8.9114 Z -1.0000
G03 X 14.5033 Y 9.0229 Z -1.0000 I -1.2275 J 0.1241
G03 X 14.4991 Y 9.1189 Z -1.0000 I -0.8908 J 0.0091
G01 X 14.4938 Y 9.1201 Z -1.0000
G01 X 14.4879 Y 9.1200 Z -1.0000
G01 X 14.4829 Y 9.1353 Z -1.0000
G01 X 14.4827 Y 9.1674 Z -1.0000
G01 X 14.4615 Y 9.1372 Z -1.0000
G03 X 14.4485 Y 9.1084 Z -1.0000 I 0.0696 J -0.0487
G01 X 14.4522 Y 9.0986 Z -1.0000
G01 X 14.4589 Y 9.0717 Z -1.0000
G01 X 14.4286 Y 9.0522 Z -1.0000
G02 X 14.4022 Y 9.0555 Z -1.0000 I -0.0035 J 0.0794
G01 X 14.4002 Y 9.0608 Z -1.0000
G01 X 14.3994 Y 9.0671 Z -1.0000
G01 X 14.3894 Y 9.0713 Z -1.0000
G01 X 14.3863 Y 9.0766 Z -1.0000
G02 X 14.4026 Y 9.0969 Z -1.0000 I 0.0586 J -0.0303
G01 X 14.4199 Y 9.1324 Z -1.0000
G01 X 14.4040 Y 9.1416 Z -1.0000
G01 X 14.3960 Y 9.1413 Z -1.0000
G01 X 14.3919 Y 9.1479 Z -1.0000
G01 X 14.3963 Y 9.1574 Z -1.0000
G01 X 14.4082 Y 9.1619 Z -1.0000
G01 X 14.4217 Y 9.1672 Z -1.0000
G03 X 14.4550 Y 9.2040 Z -1.0000 I -0.1601 J 0.1779
G02 X 14.4740 Y 9.2205 Z -1.0000 I 0.0455 J -0.0332
G01 X 14.4789 Y 9.2168 Z -1.0000
G01 X 14.4869 Y 9.2025 Z -1.0000
G01 X 14.5012 Y 9.2092 Z -1.0000
G01 X 14.5035 Y 9.2295 Z -1.0000
G01 X 14.4961 Y 9.2442 Z -1.0000
G01 X 14.4831 Y 9.2765 Z -1.0000
G01 X 14.4970 Y 9.2840 Z -1.0000
G01 X 14.5012 Y 9.2861 Z -1.0000
G01 X 14.4988 Y 9.2995 Z -1.0000
G02 X 14.4822 Y 9.3701 Z -1.0000 I 0.1340 J 0.0688
G02 X 14.5008 Y 9.4675 Z -1.0000 I 0.2816 J -0.0034
G01 X 14.5026 Y 9.4822 Z -1.0000
G01 X 14.4985 Y 9.4858 Z -1.0000
G01 X 14.4937 Y 9.4903 Z -1.0000
G02 X 14.4899 Y 9.5904 Z -1.0000 I 1.1159 J 0.0923
G03 X 14.4863 Y 9.6925 Z -1.0000 I -1.2312 J 0.0082
G01 X 14.4814 Y 9.7006 Z -1.0000
G01 X 14.4767 Y 9.7082 Z -1.0000
G02 X 14.4786 Y 9.7355 Z -1.0000 I 0.0935 J 0.0073
G01 X 14.4764 Y 9.7453 Z -1.0000
G01 X 14.4711 Y 9.7452 Z -1.0000
G01 X 14.4628 Y 9.7436 Z -1.0000
G01 X 14.4570 Y 9.7542 Z -1.0000
G01 X 14.4648 Y 9.7730 Z -1.0000
G01 X 14.4812 Y 9.7779 Z -1.0000
G01 X 14.4955 Y 9.7827 Z -1.0000
G01 X 14.4992 Y 9.7979 Z -1.0000
G01 X 14.4898 Y 9.8153 Z -1.0000
G01 X 14.4825 Y 9.8163 Z -1.0000
G01 X 14.4783 Y 9.8182 Z -1.0000
G01 X 14.4790 Y 9.8359 Z -1.0000
G02 X 14.4892 Y 9.8574 Z -1.0000 I 0.0603 J -0.0156
G01 X 14.4981 Y 9.8619 Z -1.0000
G01 X 14.5009 Y 9.8659 Z -1.0000
G01 X 14.4901 Y 9.8823 Z -1.0000
G02 X 14.4734 Y 9.9138 Z -1.0000 I 0.0432 J 0.0432
G01 X 14.4827 Y 9.9203 Z -1.0000
G01 X 14.5090 Y 9.9354 Z -1.0000
G03 X 14.4801 Y 10.0020 Z -1.0000 I -0.0984 J -0.0031
G01 X 14.4756 Y 10.0130 Z -1.0000
G01 X 14.4801 Y 10.0175 Z -1.0000
G01 X 14.4901 Y 10.0232 Z -1.0000
G01 X 14.4957 Y 10.0435 Z -1.0000
G01 X 14.4905 Y 10.0643 Z -1.0000
G01 X 14.4820 Y 10.0694 Z -1.0000
G01 X 14.4752 Y 10.0733 Z -1.0000
G01 X 14.4754 Y 10.0809 Z -1.0000
G01 X 14.4742 Y 10.0891 Z -1.0000
G03 X 14.4534 Y 10.1003 Z -1.0000 I -0.0345 J -0.0390
G01 X 14.4408 Y 10.1113 Z -1.0000
G01 X 14.4438 Y 10.1224 Z -1.0000
G01 X 14.4438 Y 10.1277 Z -1.0000
G01 X 14.4333 Y 10.1299 Z -1.0000
G01 X 14.4005 Y 10.1445 Z -1.0000
G01 X 14.4064 Y 10.1775 Z -1.0000
G01 X 14.4147 Y 10.1804 Z -1.0000
G01 X 14.4117 Y 10.1533 Z -1.0000
G01 X 14.4341 Y 10.1397 Z -1.0000
G01 X 14.4557 Y 10.1343 Z -1.0000
G01 X 14.4601 Y 10.1245 Z -1.0000
G01 X 14.4616 Y 10.1122 Z -1.0000
G01 X 14.4677 Y 10.1083 Z -1.0000
G01 X 14.4843 Y 10.1199 Z -1.0000
G01 X 14.4823 Y 10.1481 Z -1.0000
G01 X 14.4771 Y 10.1696 Z -1.0000
G01 X 14.4828 Y 10.1796 Z -1.0000
G03 X 14.5106 Y 10.2331 Z -1.0000 I -0.0309 J 0.0501
G01 X 14.4779 Y 10.2639 Z -1.0000
G01 X 14.4398 Y 10.2834 Z -1.0000
G01 X 14.4466 Y 10.3070 Z -1.0000
G01 X 14.4501 Y 10.3116 Z -1.0000
G01 X 14.4476 Y 10.3147 Z -1.0000
G01 X 14.4111 Y 10.2978 Z -1.0000
G01 X 14.4087 Y 10.2622 Z -1.0000
G01 X 14.3953 Y 10.2759 Z -1.0000
G02 X 14.3821 Y 10.3096 Z -1.0000 I 0.0412 J 0.0354
G01 X 14.3933 Y 10.3377 Z -1.0000
G01 X 14.3995 Y 10.3532 Z -1.0000
G03 X 14.3925 Y 10.3824 Z -1.0000 I -0.0693 J -0.0011
G01 X 14.3958 Y 10.3905 Z -1.0000
G03 X 14.4144 Y 10.3743 Z -1.0000 I 0.0565 J 0.0457
G01 X 14.4211 Y 10.3751 Z -1.0000
G01 X 14.4303 Y 10.4157 Z -1.0000
G01 X 14.4035 Y 10.4251 Z -1.0000
G01 X 14.3966 Y 10.4305 Z -1.0000
G02 X 14.4172 Y 10.4682 Z -1.0000 I 0.1063 J -0.0339
G02 X 14.4437 Y 10.4927 Z -1.0000 I 0.1087 J -0.0907
G01 X 14.4581 Y 10.4973 Z -1.0000
G01 X 14.4615 Y 10.4921 Z -1.0000
G02 X 14.4468 Y 10.4713 Z -1.0000 I -0.0574 J 0.0250
G03 X 14.4288 Y 10.4281 Z -1.0000 I 0.0385 J -0.0414
G01 X 14.4494 Y 10.3905 Z -1.0000
G01 X 14.4519 Y 10.3845 Z -1.0000
G01 X 14.4476 Y 10.3808 Z -1.0000
G01 X 14.4346 Y 10.3759 Z -1.0000
G03 X 14.4186 Y 10.3559 Z -1.0000 I 0.0459 J -0.0532
G01 X 14.4216 Y 10.3427 Z -1.0000
G01 X 14.4441 Y 10.3372 Z -1.0000
G01 X 14.4683 Y 10.3278 Z -1.0000
G01 X 14.4705 Y 10.3041 Z -1.0000
G01 X 14.4679 Y 10.2870 Z -1.0000
G01 X 14.4748 Y 10.2812 Z -1.0000
G01 X 14.5162 Y 10.3220 Z -1.0000
G03 X 14.4775 Y 10.4572 Z -1.0000 I -0.2431 J 0.0037
G01 X 14.4768 Y 10.4646 Z -1.0000
G01 X 14.4809 Y 10.4660 Z -1.0000
G01 X 14.4885 Y 10.4696 Z -1.0000
G03 X 14.4927 Y 10.5548 Z -1.0000 I -0.5081 J 0.0672
G03 X 14.4801 Y 10.6434 Z -1.0000 I -0.4209 J -0.0146
G01 X 14.4679 Y 10.6529 Z -1.0000
G01 X 14.4503 Y 10.6475 Z -1.0000
G01 X 14.4391 Y 10.6335 Z -1.0000
G01 X 14.4284 Y 10.6188 Z -1.0000
G01 X 14.4151 Y 10.6142 Z -1.0000
G01 X 14.4099 Y 10.6180 Z -1.0000
G01 X 14.4119 Y 10.6239 Z -1.0000
G01 X 14.4234 Y 10.6501 Z -1.0000
G01 X 14.4050 Y 10.6791 Z -1.0000
G01 X 14.4055 Y 10.6857 Z -1.0000
G02 X 14.4341 Y 10.6916 Z -1.0000 I 0.0290 J -0.0675
G02 X 14.4764 Y 10.6853 Z -1.0000 I 0.0006 J -0.1415
G01 X 14.4828 Y 10.6767 Z -1.0000
G01 X 14.4860 Y 10.6694 Z -1.0000
G01 X 14.4908 Y 10.6696 Z -1.0000
G01 X 14.4939 Y 10.6787 Z -1.0000
G03 X 14.4854 Y 10.7160 Z -1.0000 I -0.1721 J -0.0198
G02 X 14.4763 Y 10.7535 Z -1.0000 I 0.1852 J 0.0648
G01 X 14.4790 Y 10.7615 Z -1.0000
G01 X 14.4831 Y 10.7696 Z -1.0000
G03 X 14.4885 Y 10.8196 Z -1.0000 I -0.4395 J 0.0721
G03 X 14.4834 Y 10.8603 Z -1.0000 I -0.1190 J 0.0059
G01 X 14.4748 Y 10.8645 Z -1.0000
G01 X 14.4660 Y 10.8550 Z -1.0000
G01 X 14.4667 Y 10.8367 Z -1.0000
G01 X 14.4639 Y 10.8302 Z -1.0000
G01 X 14.4544 Y 10.8316 Z -1.0000
G01 X 14.4371 Y 10.8368 Z -1.0000
G01 X 14.4266 Y 10.8288 Z -1.0000
G01 X 14.4248 Y 10.8113 Z -1.0000
G01 X 14.4310 Y 10.8021 Z -1.0000
G01 X 14.4372 Y 10.7929 Z -1.0000
G01 X 14.4353 Y 10.7752 Z -1.0000
G01 X 14.4230 Y 10.7746 Z -1.0000
G02 X 14.4099 Y 10.8257 Z -1.0000 I 0.1109 J 0.0558
G01 X 14.4140 Y 10.8639 Z -1.0000
G01 X 14.4589 Y 10.8497 Z -1.0000
G03 X 14.4959 Y 10.9192 Z -1.0000 I -0.0469 J 0.0695
G03 X 14.4897 Y 10.9452 Z -1.0000 I -0.0579 J 0.0000
G01 X 14.4797 Y 10.9515 Z -1.0000
G01 X 14.4766 Y 10.9555 Z -1.0000
G01 X 14.4829 Y 10.9642 Z -1.0000
G01 X 14.4837 Y 10.9717 Z -1.0000
G01 X 14.4699 Y 10.9779 Z -1.0000
G01 X 14.4612 Y 10.9831 Z -1.0000
G01 X 14.4633 Y 10.9891 Z -1.0000
G01 X 14.4783 Y 11.0066 Z -1.0000
G03 X 14.4892 Y 11.1049 Z -1.0000 I -0.4408 J 0.0987
G03 X 14.4834 Y 11.2066 Z -1.0000 I -0.8812 J 0.0008
G01 X 14.4763 Y 11.2161 Z -1.0000
G01 X 14.4750 Y 11.2195 Z -1.0000
G01 X 14.4795 Y 11.2226 Z -1.0000
G01 X 14.4907 Y 11.2358 Z -1.0000
G03 X 14.4736 Y 11.2750 Z -1.0000 I -0.0723 J -0.0081
G03 X 14.4524 Y 11.2905 Z -1.0000 I -0.0429 J -0.0367
G01 X 14.4434 Y 11.2876 Z -1.0000
G01 X 14.4336 Y 11.2840 Z -1.0000
G02 X 14.4039 Y 11.3008 Z -1.0000 I 0.0286 J 0.0855
G01 X 14.3953 Y 11.3195 Z -1.0000
G01 X 14.4120 Y 11.3200 Z -1.0000
G01 X 14.4181 Y 11.3292 Z -1.0000
G01 X 14.4220 Y 11.3353 Z -1.0000
G01 X 14.4278 Y 11.3338 Z -1.0000
G03 X 14.4383 Y 11.3217 Z -1.0000 I 0.0780 J 0.0571
G03 X 14.4644 Y 11.2981 Z -1.0000 I 0.3328 J 0.3407
G01 X 14.4914 Y 11.2753 Z -1.0000
G01 X 14.4814 Y 11.3486 Z -1.0000
G03 X 14.4656 Y 11.4182 Z -1.0000 I -0.4055 J -0.0553
G01 X 14.4544 Y 11.4328 Z -1.0000
G01 X 14.4497 Y 11.4401 Z -1.0000
G01 X 14.4529 Y 11.4438 Z -1.0000
G01 X 14.4659 Y 11.4394 Z -1.0000
G02 X 14.4817 Y 11.4213 Z -1.0000 I -0.0393 J -0.0502
G01 X 14.4904 Y 11.4160 Z -1.0000
G01 X 14.4953 Y 11.4205 Z -1.0000
G01 X 14.4912 Y 11.4401 Z -1.0000
G01 X 14.4813 Y 11.4513 Z -1.0000
G01 X 14.4771 Y 11.4602 Z -1.0000
G01 X 14.4837 Y 11.4706 Z -1.0000
G01 X 14.4913 Y 11.4826 Z -1.0000
G01 X 14.4869 Y 11.4981 Z -1.0000
G01 X 14.4789 Y 11.5170 Z -1.0000
G02 X 14.4778 Y 11.5607 Z -1.0000 I 0.1781 J 0.0262
G03 X 14.4904 Y 11.8331 Z -1.0000 I -2.6597 J 0.2598
G03 X 14.4760 Y 11.9243 Z -1.0000 I -0.3043 J -0.0014
G02 X 14.4739 Y 11.9441 Z -1.0000 I 0.0479 J 0.0152
G01 X 14.4780 Y 11.9461 Z -1.0000
G01 X 14.4838 Y 11.9489 Z -1.0000
G03 X 14.4891 Y 12.0276 Z -1.0000 I -0.5756 J 0.0787
G03 X 14.4838 Y 12.1063 Z -1.0000 I -0.5821 J -0.0000
G01 X 14.4780 Y 12.1090 Z -1.0000
G01 X 14.4740 Y 12.1111 Z -1.0000
G02 X 14.4771 Y 12.1329 Z -1.0000 I 0.0619 J 0.0023
G03 X 14.4845 Y 12.1640 Z -1.0000 I -0.1730 J 0.0572
G03 X 14.4847 Y 12.1864 Z -1.0000 I -0.0844 J 0.0122
G02 X 14.4806 Y 12.2483 Z -1.0000 I 0.6477 J 0.0740
G02 X 14.4808 Y 12.3972 Z -1.0000 I 3.7384 J 0.0694
G03 X 14.4774 Y 12.8408 Z -1.0000 I -7.5956 J 0.1626
G01 X 14.4641 Y 12.8480 Z -1.0000
G01 X 14.4653 Y 12.8584 Z -1.0000
G01 X 14.4733 Y 12.8797 Z -1.0000
G03 X 14.4783 Y 13.2240 Z -1.0000 I -8.2122 J 0.2914
G03 X 14.4638 Y 13.5563 Z -1.0000 I -4.4559 J -0.0282
G01 X 14.4511 Y 13.5594 Z -1.0000
G02 X 14.4108 Y 13.5302 Z -1.0000 I -0.0556 J 0.0343
G01 X 14.3918 Y 13.5452 Z -1.0000
G01 X 14.3961 Y 13.5523 Z -1.0000
G02 X 14.4199 Y 13.5602 Z -1.0000 I 0.0346 J -0.0651
G03 X 14.4438 Y 13.5695 Z -1.0000 I -0.0084 J 0.0565
G01 X 14.4545 Y 13.5838 Z -1.0000
G01 X 14.4513 Y 13.5892 Z -1.0000
G01 X 14.4404 Y 13.5864 Z -1.0000
G01 X 14.4216 Y 13.5792 Z -1.0000
G01 X 14.4104 Y 13.5852 Z -1.0000
G01 X 14.4104 Y 13.5911 Z -1.0000
G01 X 14.4148 Y 13.5921 Z -1.0000
G01 X 14.4273 Y 13.5900 Z -1.0000
G01 X 14.4374 Y 13.5972 Z -1.0000
G01 X 14.4473 Y 13.6024 Z -1.0000
G01 X 14.4642 Y 13.5958 Z -1.0000
G01 X 14.4740 Y 13.5999 Z -1.0000
G01 X 14.4663 Y 13.6220 Z -1.0000
G01 X 14.4676 Y 13.6295 Z -1.0000
G01 X 14.4762 Y 13.6335 Z -1.0000
G03 X 14.4790 Y 13.6926 Z -1.0000 I -0.2229 J 0.0401
G02 X 14.4781 Y 13.7631 Z -1.0000 I 0.4924 J 0.0416
G01 X 14.4837 Y 13.7725 Z -1.0000
G01 X 14.4884 Y 13.7813 Z -1.0000
G03 X 14.4820 Y 13.8121 Z -1.0000 I -0.0983 J -0.0044
G02 X 14.4745 Y 13.8452 Z -1.0000 I 0.1109 J 0.0423
G02 X 14.4771 Y 13.8750 Z -1.0000 I 0.0920 J 0.0071
G03 X 14.4782 Y 13.9025 Z -1.0000 I -0.0641 J 0.0162
G01 X 14.4704 Y 13.9139 Z -1.0000
G01 X 14.4632 Y 13.9243 Z -1.0000
G01 X 14.4659 Y 13.9380 Z -1.0000
G01 X 14.4719 Y 13.9544 Z -1.0000
G03 X 14.4774 Y 14.0227 Z -1.0000 I -0.6203 J 0.0845
G03 X 14.4735 Y 14.0735 Z -1.0000 I -0.2526 J 0.0065
G01 X 14.4681 Y 14.0746 Z -1.0000
G01 X 14.4628 Y 14.0762 Z -1.0000
G02 X 14.4690 Y 14.1075 Z -1.0000 I 0.0956 J -0.0027
G01 X 14.4690 Y 14.1284 Z -1.0000
G01 X 14.4593 Y 14.1331 Z -1.0000
G01 X 14.4544 Y 14.1346 Z -1.0000
G01 X 14.4551 Y 14.1388 Z -1.0000
G03 X 14.5486 Y 14.3187 Z -1.0000 I -0.1293 J 0.1814
G03 X 14.4584 Y 14.6827 Z -1.0000 I -0.7601 J 0.0049
G02 X 14.4508 Y 14.7156 Z -1.0000 I 0.0571 J 0.0305
G01 X 14.4598 Y 14.7215 Z -1.0000
G01 X 14.4693 Y 14.7277 Z -1.0000
G03 X 14.4694 Y 14.9714 Z -1.0000 I -3.2251 J 0.1238
G02 X 14.4688 Y 15.0038 Z -1.0000 I 0.8656 J 0.0322
G02 X 14.4695 Y 15.2093 Z -1.0000 I 34.8180 J -0.0078
G03 X 14.4646 Y 15.4125 Z -1.0000 I -3.3656 J 0.0206
G01 X 14.4575 Y 15.4307 Z -1.0000
G01 X 14.4521 Y 15.4463 Z -1.0000
G01 X 14.4584 Y 15.4609 Z -1.0000
G03 X 14.5403 Y 15.6617 Z -1.0000 I -0.1976 J 0.1976
G03 X 14.4541 Y 15.8161 Z -1.0000 I -0.1852 J -0.0021
G01 X 14.4497 Y 15.8233 Z -1.0000
G01 X 14.4530 Y 15.8271 Z -1.0000
G01 X 14.4611 Y 15.8350 Z -1.0000
G03 X 14.4669 Y 16.1586 Z -1.0000 I -6.7349 J 0.2823
G03 X 14.4554 Y 16.4847 Z -1.0000 I -5.5370 J -0.0330
G01 X 14.4445 Y 16.5033 Z -1.0000
G01 X 14.4430 Y 16.5077 Z -1.0000
G01 X 14.4467 Y 16.5096 Z -1.0000
G01 X 14.4588 Y 16.5162 Z -1.0000
G03 X 14.4657 Y 16.5798 Z -1.0000 I -0.1992 J 0.0538
G03 X 14.4442 Y 16.6701 Z -1.0000 I -0.2513 J -0.0121
G01 X 14.4248 Y 16.6714 Z -1.0000
G01 X 14.4144 Y 16.6603 Z -1.0000
G01 X 14.4050 Y 16.6573 Z -1.0000
G01 X 14.4028 Y 16.6613 Z -1.0000
G02 X 14.4285 Y 16.6966 Z -1.0000 I 0.2076 J -0.1242
G03 X 14.4490 Y 16.7412 Z -1.0000 I -0.0646 J 0.0567
G03 X 14.4635 Y 16.9420 Z -1.0000 I -1.4331 J 0.2042
G01 X 14.4570 Y 17.1439 Z -1.0000
G01 X 14.4232 Y 17.1632 Z -1.0000
G02 X 14.4594 Y 17.2481 Z -1.0000 I 0.1240 J -0.0027
G01 X 14.4623 Y 17.2557 Z -1.0000
G03 X 14.4565 Y 17.3061 Z -1.0000 I -0.4044 J -0.0214
G02 X 14.4516 Y 17.3538 Z -1.0000 I 0.2966 J 0.0544
G01 X 14.4553 Y 17.3576 Z -1.0000
G01 X 14.4911 Y 17.3933 Z -1.0000
G03 X 14.4554 Y 17.4797 Z -1.0000 I -0.1215 J 0.0004
G01 X 14.4522 Y 17.4872 Z -1.0000
G02 X 14.4533 Y 17.5547 Z -1.0000 I 0.7698 J 0.0207
G03 X 14.4595 Y 17.8053 Z -1.0000 I -3.3965 J 0.2085
G01 X 14.4500 Y 17.8221 Z -1.0000
G03 X 14.4364 Y 17.8284 Z -1.0000 I -0.0306 J -0.0482
G03 X 14.4114 Y 17.8342 Z -1.0000 I -0.0520 J -0.1674
G02 X 14.3876 Y 17.8415 Z -1.0000 I 0.0134 J 0.0857
G01 X 14.3725 Y 17.8527 Z -1.0000
G01 X 14.3736 Y 17.8575 Z -1.0000
G01 X 14.3852 Y 17.8575 Z -1.0000
G03 X 14.4578 Y 17.8432 Z -1.0000 I 0.0814 J 0.2204
G01 X 14.4783 Y 17.8541 Z -1.0000
G01 X 14.4777 Y 17.8585 Z -1.0000
G01 X 14.4731 Y 17.8590 Z -1.0000
G01 X 14.4618 Y 17.8644 Z -1.0000
G02 X 14.4574 Y 17.9703 Z -1.0000 I 0.5312 J 0.0747
G03 X 14.4579 Y 17.9865 Z -1.0000 I -0.2571 J 0.0150
G03 X 14.4572 Y 18.0319 Z -1.0000 I -2.0251 J -0.0093
G02 X 14.4565 Y 18.0773 Z -1.0000 I 1.9944 J 0.0539
G02 X 14.4566 Y 18.1680 Z -1.0000 I 7.9813 J 0.0339
G03 X 14.4555 Y 18.2588 Z -1.0000 I -2.3655 J 0.0169
G03 X 14.4521 Y 18.3139 Z -1.0000 I -0.9078 J -0.0284
G02 X 14.4539 Y 18.3628 Z -1.0000 I 0.1862 J 0.0175
G01 X 14.4615 Y 18.3693 Z -1.0000
G01 X 14.4656 Y 18.3728 Z -1.0000
G01 X 14.4631 Y 18.3790 Z -1.0000
G02 X 14.2795 Y 18.7390 Z -1.0000 I 0.2663 J 0.3625
G02 X 14.4601 Y 18.8402 Z -1.0000 I 0.1183 J 0.0007
G01 X 14.4501 Y 18.8748 Z -1.0000
G01 X 14.4411 Y 18.9088 Z -1.0000
G01 X 14.4502 Y 18.9097 Z -1.0000
G01 X 14.4604 Y 18.9268 Z -1.0000
G03 X 14.4619 Y 18.9485 Z -1.0000 I -0.0566 J 0.0147
G01 X 14.4573 Y 18.9526 Z -1.0000
G01 X 14.4523 Y 18.9571 Z -1.0000
G02 X 14.4516 Y 19.0077 Z -1.0000 I 0.2904 J 0.0295
G03 X 14.4491 Y 19.0365 Z -1.0000 I -0.0881 J 0.0067
G01 X 14.4441 Y 19.0369 Z -1.0000
G01 X 14.4358 Y 19.0285 Z -1.0000
G01 X 14.4315 Y 19.0311 Z -1.0000
G01 X 14.4348 Y 19.0496 Z -1.0000
G02 X 14.4462 Y 19.0668 Z -1.0000 I 0.0486 J -0.0200
G01 X 14.4519 Y 19.0782 Z -1.0000
G01 X 14.4484 Y 19.0823 Z -1.0000
G01 X 14.4395 Y 19.0869 Z -1.0000
G01 X 14.4350 Y 19.1012 Z -1.0000
G01 X 14.4387 Y 19.1134 Z -1.0000
G01 X 14.4440 Y 19.1145 Z -1.0000
G01 X 14.5027 Y 19.1483 Z -1.0000
G03 X 14.4377 Y 19.3668 Z -1.0000 I -0.4360 J -0.0108
G01 X 14.4384 Y 19.3773 Z -1.0000
G01 X 14.4443 Y 19.3804 Z -1.0000
G03 X 14.4490 Y 19.5897 Z -1.0000 I -3.7862 J 0.1888
G02 X 14.4548 Y 19.7997 Z -1.0000 I 3.1932 J 0.0173
G01 X 14.4619 Y 19.8046 Z -1.0000
G01 X 14.4698 Y 19.7954 Z -1.0000
G02 X 14.4765 Y 19.7167 Z -1.0000 I -0.4899 J -0.0813
G03 X 14.4815 Y 19.6348 Z -1.0000 I 0.7487 J 0.0039
G01 X 14.4883 Y 19.6152 Z -1.0000
G01 X 14.4877 Y 19.6043 Z -1.0000
G01 X 14.4396 Y 19.5760 Z -1.0000
G03 X 14.4966 Y 19.4235 Z -1.0000 I 0.2675 J 0.0131
G01 X 14.4956 Y 19.4152 Z -1.0000
G01 X 14.4855 Y 19.4117 Z -1.0000
G03 X 14.4775 Y 19.3438 Z -1.0000 I 0.2511 J -0.0639
G03 X 14.4827 Y 19.2583 Z -1.0000 I 0.9347 J 0.0142
G03 X 14.4894 Y 19.2326 Z -1.0000 I 0.0892 J 0.0096
G01 X 14.4920 Y 19.2171 Z -1.0000
G01 X 14.4881 Y 19.2151 Z -1.0000
G01 X 14.4812 Y 19.2129 Z -1.0000
G03 X 14.4748 Y 19.1848 Z -1.0000 I 0.0706 J -0.0309
G03 X 14.4780 Y 19.1516 Z -1.0000 I 0.1255 J -0.0046
G01 X 14.4836 Y 19.1472 Z -1.0000
G01 X 14.4879 Y 19.1428 Z -1.0000
G02 X 14.4826 Y 19.1083 Z -1.0000 I -0.1362 J 0.0032
G03 X 14.4767 Y 19.0733 Z -1.0000 I 0.1581 J -0.0451
G01 X 14.4803 Y 19.0694 Z -1.0000
G01 X 14.4848 Y 19.0650 Z -1.0000
G02 X 14.4869 Y 18.6607 Z -1.0000 I -18.7360 J -0.2959
G03 X 14.4891 Y 18.2602 Z -1.0000 I 17.4999 J -0.1012
G01 X 14.4938 Y 18.2577 Z -1.0000
G01 X 14.4990 Y 18.2562 Z -1.0000
G01 X 14.5030 Y 18.2385 Z -1.0000
G02 X 14.4991 Y 18.2175 Z -1.0000 I -0.0576 J 0.0000
G01 X 14.4932 Y 18.2135 Z -1.0000
G01 X 14.4883 Y 18.2087 Z -1.0000
G03 X 14.4863 Y 17.9943 Z -1.0000 I 4.7951 J -0.1507
G03 X 14.4949 Y 17.7854 Z -1.0000 I 3.7107 J 0.0469
G01 X 14.5009 Y 17.7823 Z -1.0000
G01 X 14.5014 Y 17.7713 Z -1.0000
G01 X 14.4952 Y 17.7518 Z -1.0000
G03 X 14.4932 Y 17.6407 Z -1.0000 I 1.2290 J -0.0773
G02 X 14.4859 Y 17.5360 Z -1.0000 I -0.5406 J -0.0149
G01 X 14.4733 Y 17.5222 Z -1.0000
G01 X 14.4691 Y 17.5179 Z -1.0000
G01 X 14.4715 Y 17.5147 Z -1.0000
G01 X 14.5091 Y 17.4872 Z -1.0000
G01 X 14.4980 Y 17.4488 Z -1.0000
G03 X 14.4694 Y 17.3905 Z -1.0000 I 0.0402 J -0.0559
G03 X 14.5021 Y 17.3286 Z -1.0000 I 0.0804 J 0.0028
G01 X 14.5049 Y 17.3223 Z -1.0000
G01 X 14.5012 Y 17.3189 Z -1.0000
G01 X 14.4822 Y 17.2997 Z -1.0000
G03 X 14.5010 Y 17.1943 Z -1.0000 I 0.3020 J -0.0007
G01 X 14.5022 Y 17.1806 Z -1.0000
G02 X 14.4953 Y 17.1625 Z -1.0000 I -0.0508 J 0.0092
G03 X 14.4885 Y 17.1449 Z -1.0000 I 0.0438 J -0.0271
G01 X 14.4903 Y 17.1353 Z -1.0000
G01 X 14.4933 Y 17.1249 Z -1.0000
G02 X 14.4977 Y 16.7946 Z -1.0000 I -18.6583 J -0.4123
G03 X 14.5053 Y 16.4745 Z -1.0000 I 8.2368 J 0.0366
G01 X 14.5117 Y 16.4712 Z -1.0000
G01 X 14.5100 Y 16.4522 Z -1.0000
G03 X 14.4710 Y 16.2942 Z -1.0000 I 0.2904 J -0.1554
G03 X 14.5119 Y 16.1912 Z -1.0000 I 0.1535 J 0.0012
G01 X 14.5141 Y 16.1815 Z -1.0000
G01 X 14.5069 Y 16.1778 Z -1.0000
G03 X 14.5010 Y 16.0731 Z -1.0000 I 0.8101 J -0.0981
G03 X 14.5062 Y 15.9613 Z -1.0000 I 1.4437 J 0.0115
G01 X 14.5109 Y 15.9570 Z -1.0000
G01 X 14.5145 Y 15.9531 Z -1.0000
G02 X 14.5078 Y 15.9149 Z -1.0000 I -0.1893 J 0.0140
G03 X 14.5010 Y 15.8615 Z -1.0000 I 0.1695 J -0.0486
G01 X 14.5095 Y 15.8533 Z -1.0000
G01 X 14.5154 Y 15.8576 Z -1.0000
G01 X 14.5140 Y 15.8682 Z -1.0000
G01 X 14.5148 Y 15.8731 Z -1.0000
G01 X 14.5203 Y 15.8735 Z -1.0000
G01 X 14.5266 Y 15.8623 Z -1.0000
G01 X 14.5208 Y 15.8457 Z -1.0000
G03 X 14.4647 Y 15.6994 Z -1.0000 I 0.1879 J -0.1559
G03 X 14.5114 Y 15.6116 Z -1.0000 I 0.0986 J -0.0039
G01 X 14.5154 Y 15.6036 Z -1.0000
G02 X 14.5087 Y 15.5810 Z -1.0000 I -0.0582 J 0.0051
G03 X 14.5009 Y 15.5518 Z -1.0000 I 0.0583 J -0.0312
G01 X 14.5077 Y 15.5478 Z -1.0000
G01 X 14.5122 Y 15.5453 Z -1.0000
G02 X 14.5068 Y 15.5088 Z -1.0000 I -0.1507 J 0.0035
G03 X 14.5022 Y 15.4641 Z -1.0000 I 0.1311 J -0.0362
G01 X 14.5110 Y 15.4414 Z -1.0000
G01 X 14.5146 Y 15.4283 Z -1.0000
G01 X 14.5076 Y 15.4250 Z -1.0000
G03 X 14.5016 Y 15.3336 Z -1.0000 I 0.6463 J -0.0882
G03 X 14.5068 Y 15.2354 Z -1.0000 I 1.0389 J 0.0050
G01 X 14.5119 Y 15.2308 Z -1.0000
G01 X 14.5182 Y 15.2275 Z -1.0000
G01 X 14.5216 Y 15.2170 Z -1.0000
G01 X 14.5177 Y 15.2101 Z -1.0000
G01 X 14.5105 Y 15.2101 Z -1.0000
G01 X 14.4640 Y 15.1806 Z -1.0000
G03 X 14.5266 Y 15.0707 Z -1.0000 I 0.1601 J 0.0184
G01 X 14.5175 Y 15.0674 Z -1.0000
G01 X 14.5057 Y 15.0632 Z -1.0000
G01 X 14.5034 Y 15.0459 Z -1.0000
G02 X 14.5095 Y 15.0164 Z -1.0000 I -0.1279 J -0.0416
G02 X 14.5103 Y 14.9693 Z -1.0000 I -0.3285 J -0.0295
G03 X 14.5139 Y 14.9248 Z -1.0000 I 0.1680 J -0.0090
G01 X 14.5225 Y 14.9125 Z -1.0000
G01 X 14.5274 Y 14.9033 Z -1.0000
G01 X 14.5216 Y 14.8936 Z -1.0000
G01 X 14.5118 Y 14.8804 Z -1.0000
G03 X 14.5035 Y 14.8244 Z -1.0000 I 0.2563 J -0.0666
G03 X 14.5066 Y 14.7816 Z -1.0000 I 0.1897 J -0.0078
G01 X 14.5117 Y 14.7806 Z -1.0000
G01 X 14.5152 Y 14.7331 Z -1.0000
G03 X 14.5151 Y 14.6720 Z -1.0000 I 0.2861 J -0.0314
G01 X 14.5238 Y 14.6511 Z -1.0000
G01 X 14.5297 Y 14.6339 Z -1.0000
G01 X 14.5228 Y 14.6220 Z -1.0000
G01 X 14.5135 Y 14.6083 Z -1.0000
G03 X 14.5125 Y 14.5646 Z -1.0000 I 0.1384 J -0.0249
G02 X 14.5132 Y 14.5226 Z -1.0000 I -0.1756 J -0.0237
G01 X 14.5076 Y 14.5176 Z -1.0000
G01 X 14.5032 Y 14.5128 Z -1.0000
G03 X 14.5096 Y 14.4829 Z -1.0000 I 0.0997 J 0.0058
G02 X 14.5179 Y 14.4483 Z -1.0000 I -0.1337 J -0.0505
G01 X 14.5155 Y 14.4294 Z -1.0000
G01 X 14.5140 Y 14.4115 Z -1.0000
G01 X 14.5230 Y 14.3927 Z -1.0000
G01 X 14.5284 Y 14.3793 Z -1.0000
G01 X 14.5243 Y 14.3749 Z -1.0000
G03 X 14.4459 Y 14.2958 Z -1.0000 I 0.0000 J -0.0784
G03 X 14.5264 Y 14.1697 Z -1.0000 I 0.1410 J 0.0013
G01 X 14.5354 Y 14.1680 Z -1.0000
G03 X 14.5511 Y 14.1712 Z -1.0000 I -0.0036 J 0.0576
G01 X 14.5575 Y 14.1803 Z -1.0000
G01 X 14.5508 Y 14.2044 Z -1.0000
G01 X 14.5476 Y 14.2232 Z -1.0000
G01 X 14.5548 Y 14.2249 Z -1.0000
G01 X 14.5594 Y 14.2244 Z -1.0000
G01 X 14.5606 Y 14.2294 Z -1.0000
G02 X 14.5521 Y 14.2595 Z -1.0000 I 0.0813 J 0.0394
G02 X 14.5548 Y 14.2862 Z -1.0000 I 0.0653 J 0.0067
G01 X 14.5534 Y 14.3006 Z -1.0000
G01 X 14.5458 Y 14.3027 Z -1.0000
G01 X 14.5445 Y 14.3123 Z -1.0000
G01 X 14.5531 Y 14.3347 Z -1.0000
G03 X 14.5503 Y 14.4310 Z -1.0000 I -0.6205 J 0.0303
G02 X 14.5501 Y 14.5102 Z -1.0000 I 0.3777 J 0.0404
G01 X 14.5588 Y 14.5138 Z -1.0000
G01 X 14.5644 Y 14.5148 Z -1.0000
G01 X 14.5645 Y 14.5240 Z -1.0000
G02 X 14.5560 Y 14.5503 Z -1.0000 I 0.0781 J 0.0400
G01 X 14.5576 Y 14.5680 Z -1.0000
G01 X 14.5556 Y 14.5756 Z -1.0000
G01 X 14.5481 Y 14.5762 Z -1.0000
G01 X 14.5431 Y 14.5782 Z -1.0000
G01 X 14.5446 Y 14.5906 Z -1.0000
G03 X 14.5524 Y 14.6157 Z -1.0000 I -0.0684 J 0.0348
G03 X 14.5526 Y 14.6537 Z -1.0000 I -0.1568 J 0.0201
G03 X 14.5482 Y 14.6926 Z -1.0000 I -8.7545 J -0.9818
G03 X 14.5425 Y 14.7413 Z -1.0000 I -32.3835 J -3.7776
G02 X 14.5417 Y 14.7854 Z -1.0000 I 0.2175 J 0.0260
G01 X 14.5466 Y 14.7899 Z -1.0000
G01 X 14.5527 Y 14.7936 Z -1.0000
G01 X 14.5564 Y 14.8091 Z -1.0000
G01 X 14.5505 Y 14.8160 Z -1.0000
G01 X 14.5368 Y 14.8123 Z -1.0000
G01 X 14.5314 Y 14.8133 Z -1.0000
G01 X 14.5313 Y 14.8217 Z -1.0000
G01 X 14.5352 Y 14.8451 Z -1.0000
G01 X 14.5239 Y 14.8639 Z -1.0000
G01 X 14.5220 Y 14.8700 Z -1.0000
G01 X 14.5266 Y 14.8722 Z -1.0000
G01 X 14.5392 Y 14.8786 Z -1.0000
G03 X 14.5449 Y 14.9305 Z -1.0000 I -0.1280 J 0.0403
G02 X 14.5452 Y 14.9918 Z -1.0000 I 0.3385 J 0.0292
G01 X 14.5513 Y 14.9973 Z -1.0000
G01 X 14.5569 Y 15.0019 Z -1.0000
G01 X 14.5554 Y 15.0184 Z -1.0000
G01 X 14.5537 Y 15.0385 Z -1.0000
G01 X 14.5637 Y 15.0598 Z -1.0000
G01 X 14.5653 Y 15.0712 Z -1.0000
G01 X 14.5564 Y 15.0740 Z -1.0000
G02 X 14.5455 Y 15.1151 Z -1.0000 I 0.1172 J 0.0533
G02 X 14.5448 Y 15.1657 Z -1.0000 I 0.3052 J 0.0295
G01 X 14.5495 Y 15.1734 Z -1.0000
G01 X 14.5668 Y 15.2058 Z -1.0000
G01 X 14.5478 Y 15.2243 Z -1.0000
G01 X 14.5415 Y 15.2470 Z -1.0000
G01 X 14.5425 Y 15.2652 Z -1.0000
G01 X 14.5487 Y 15.2697 Z -1.0000
G01 X 14.5533 Y 15.2743 Z -1.0000
G03 X 14.5488 Y 15.2995 Z -1.0000 I -0.0697 J 0.0005
G02 X 14.5420 Y 15.3301 Z -1.0000 I 0.1033 J 0.0390
G02 X 14.5412 Y 15.3976 Z -1.0000 I 0.5181 J 0.0399
G03 X 14.5373 Y 15.4553 Z -1.0000 I -0.2321 J 0.0131
G01 X 14.5291 Y 15.4598 Z -1.0000
G01 X 14.5183 Y 15.4610 Z -1.0000
G01 X 14.5132 Y 15.4707 Z -1.0000
G01 X 14.5182 Y 15.4804 Z -1.0000
G01 X 14.5287 Y 15.4817 Z -1.0000
G01 X 14.5371 Y 15.4863 Z -1.0000
G03 X 14.5464 Y 15.5673 Z -1.0000 I -0.4447 J 0.0924
G03 X 14.5409 Y 15.6513 Z -1.0000 I -0.4640 J 0.0118
G01 X 14.5321 Y 15.6589 Z -1.0000
G01 X 14.5274 Y 15.6627 Z -1.0000
G01 X 14.5299 Y 15.6686 Z -1.0000
G01 X 14.5372 Y 15.6820 Z -1.0000
G03 X 14.5444 Y 16.3868 Z -1.0000 I -35.0160 J 0.7110
G02 X 14.5489 Y 17.0942 Z -1.0000 I 57.8255 J -0.0099
G01 X 14.5534 Y 17.1098 Z -1.0000
G01 X 14.5559 Y 17.1205 Z -1.0000
G01 X 14.5518 Y 17.1241 Z -1.0000
G01 X 14.5465 Y 17.1293 Z -1.0000
G02 X 14.5445 Y 17.4167 Z -1.0000 I 8.2072 J 0.2006
G03 X 14.5406 Y 17.6966 Z -1.0000 I -5.6280 J 0.0617
G01 X 14.5335 Y 17.7004 Z -1.0000
G01 X 14.5291 Y 17.7024 Z -1.0000
G01 X 14.5312 Y 17.7159 Z -1.0000
G03 X 14.5378 Y 17.7414 Z -1.0000 I -0.0572 J 0.0283
G03 X 14.5409 Y 17.9379 Z -1.0000 I -3.5576 J 0.1553
G02 X 14.5439 Y 18.1304 Z -1.0000 I 3.6485 J 0.0403
G01 X 14.5493 Y 18.1356 Z -1.0000
G01 X 14.5547 Y 18.1395 Z -1.0000
G01 X 14.5547 Y 18.1519 Z -1.0000
G02 X 14.5509 Y 18.1684 Z -1.0000 I 0.0901 J 0.0294
G02 X 14.5418 Y 18.2459 Z -1.0000 I 2.0246 J 0.2776
G03 X 14.5263 Y 18.3560 Z -1.0000 I -1.3505 J -0.1339
G03 X 14.5175 Y 18.3787 Z -1.0000 I -0.0636 J -0.0116
G01 X 14.5180 Y 18.3861 Z -1.0000
G01 X 14.5249 Y 18.3881 Z -1.0000
G01 X 14.5337 Y 18.3938 Z -1.0000
G03 X 14.5376 Y 18.7027 Z -1.0000 I -5.5999 J 0.2258
G02 X 14.5338 Y 19.0240 Z -1.0000 I 59.6394 J 0.8774
G02 X 14.5338 Y 19.1083 Z -1.0000 I 4.1920 J 0.0391
G03 X 14.5347 Y 19.1926 Z -1.0000 I -28.0700 J 0.3348
G03 X 14.5349 Y 19.2218 Z -1.0000 I -10.8271 J 0.0966
G02 X 14.5400 Y 19.2461 Z -1.0000 I 0.0622 J -0.0002
G01 X 14.5474 Y 19.2509 Z -1.0000
G01 X 14.5542 Y 19.2443 Z -1.0000
G02 X 14.5629 Y 18.2038 Z -1.0000 I -80.9570 J -1.2028
G03 X 14.5680 Y 17.9977 Z -1.0000 I 4.5787 J 0.0092
G01 X 14.5728 Y 17.9930 Z -1.0000
G01 X 14.5787 Y 17.9894 Z -1.0000
G01 X 14.5823 Y 17.9736 Z -1.0000
G01 X 14.5788 Y 17.9576 Z -1.0000
G01 X 14.5733 Y 17.9541 Z -1.0000
G01 X 14.5688 Y 17.9497 Z -1.0000
G03 X 14.5677 Y 17.7434 Z -1.0000 I 4.8192 J -0.1273
G03 X 14.5764 Y 17.5399 Z -1.0000 I 3.8965 J 0.0639
G01 X 14.5821 Y 17.5359 Z -1.0000
G01 X 14.5878 Y 17.5432 Z -1.0000
G03 X 14.5935 Y 17.7910 Z -1.0000 I -5.7675 J 0.2566
G03 X 14.5879 Y 18.0322 Z -1.0000 I -4.8581 J 0.0075
G01 X 14.5818 Y 18.0354 Z -1.0000
G01 X 14.5802 Y 18.0449 Z -1.0000
G03 X 14.6163 Y 18.1684 Z -1.0000 I -0.2059 J 0.1272
G03 X 14.5835 Y 18.2632 Z -1.0000 I -0.1468 J 0.0023
G01 X 14.5828 Y 18.2740 Z -1.0000
G01 X 14.6247 Y 18.2981 Z -1.0000
G03 X 14.5813 Y 18.4457 Z -1.0000 I -0.2814 J -0.0026
G01 X 14.5827 Y 18.4559 Z -1.0000
G01 X 14.6494 Y 18.4932 Z -1.0000
G03 X 14.5820 Y 18.7293 Z -1.0000 I -0.4511 J -0.0011
G01 X 14.5788 Y 18.7416 Z -1.0000
G01 X 14.5827 Y 18.7452 Z -1.0000
G01 X 14.5900 Y 18.7526 Z -1.0000
G03 X 14.5797 Y 19.7827 Z -1.0000 I -72.5806 J -0.2114
G02 X 14.5748 Y 20.1134 Z -1.0000 I 66.2589 J 1.1293
G02 X 14.5752 Y 20.1523 Z -1.0000 I 0.9706 J 0.0117
G03 X 14.5798 Y 20.6540 Z -1.0000 I -12.2308 J 0.3631
G03 X 14.5690 Y 20.7148 Z -1.0000 I -0.1883 J -0.0021
G02 X 14.5660 Y 20.7356 Z -1.0000 I 0.0485 J 0.0174
G01 X 14.5705 Y 20.7379 Z -1.0000
G01 X 14.5764 Y 20.7406 Z -1.0000
G03 X 14.5779 Y 20.7849 Z -1.0000 I -0.1759 J 0.0278
G02 X 14.5741 Y 20.8396 Z -1.0000 I 1.1531 J 0.1073
G02 X 14.5737 Y 20.8778 Z -1.0000 I 0.5521 J 0.0251
G03 X 14.5702 Y 20.9058 Z -1.0000 I -0.0959 J 0.0022
G01 X 14.5656 Y 20.9070 Z -1.0000
G03 X 14.5455 Y 20.8610 Z -1.0000 I 0.0486 J -0.0486
G03 X 14.5621 Y 20.8122 Z -1.0000 I 0.0721 J -0.0027
G01 X 14.5674 Y 20.7978 Z -1.0000
G01 X 14.5624 Y 20.7887 Z -1.0000
G03 X 14.5338 Y 20.7363 Z -1.0000 I 0.0315 J -0.0512
G03 X 14.5658 Y 20.6281 Z -1.0000 I 0.2139 J 0.0044
G01 X 14.5699 Y 20.6127 Z -1.0000
G01 X 14.5649 Y 20.5965 Z -1.0000
G03 X 14.3813 Y 19.9746 Z -1.0000 I 0.9601 J -0.6213
G03 X 14.5654 Y 19.6125 Z -1.0000 I 0.4485 J 0.0002
G01 X 14.5702 Y 19.6029 Z -1.0000
G02 X 14.5648 Y 19.5801 Z -1.0000 I -0.0552 J 0.0011
G03 X 14.5583 Y 19.5546 Z -1.0000 I 0.0610 J -0.0292
G03 X 14.5555 Y 19.4099 Z -1.0000 I 2.0387 J -0.1117
G02 X 14.5523 Y 19.2695 Z -1.0000 I -1.7879 J -0.0290
G01 X 14.5464 Y 19.2640 Z -1.0000
G01 X 14.5398 Y 19.2689 Z -1.0000
G02 X 14.5343 Y 19.3061 Z -1.0000 I 0.1352 J 0.0390
G03 X 14.5260 Y 19.6951 Z -1.0000 I -21.3808 J -0.2657
G01 X 14.5225 Y 19.6984 Z -1.0000
G01 X 14.5155 Y 19.7211 Z -1.0000
G01 X 14.5162 Y 19.7397 Z -1.0000
G01 X 14.5215 Y 19.7438 Z -1.0000
G01 X 14.5364 Y 19.7586 Z -1.0000
G03 X 14.5222 Y 19.8346 Z -1.0000 I -0.2018 J 0.0015
G01 X 14.5209 Y 19.8413 Z -1.0000
G02 X 14.5221 Y 19.9059 Z -1.0000 I 1.5206 J 0.0042
G03 X 14.5227 Y 20.1018 Z -1.0000 I -2.7498 J 0.1063
G01 X 14.5154 Y 20.1124 Z -1.0000
G01 X 14.5129 Y 20.1161 Z -1.0000
G01 X 14.5154 Y 20.1189 Z -1.0000
G01 X 14.5222 Y 20.1253 Z -1.0000
G03 X 14.5247 Y 20.1815 Z -1.0000 I -0.2725 J 0.0400
G02 X 14.5217 Y 20.2568 Z -1.0000 I 1.7711 J 0.1074
G02 X 14.5210 Y 20.3858 Z -1.0000 I 5.2187 J 0.0944
G03 X 14.5148 Y 20.7029 Z -1.0000 I -6.1172 J 0.0395
G01 X 14.5054 Y 20.7277 Z -1.0000
G01 X 14.5057 Y 20.7376 Z -1.0000
G01 X 14.5163 Y 20.7426 Z -1.0000
G03 X 14.5241 Y 20.8655 Z -1.0000 I -0.7714 J 0.1110
G02 X 14.5193 Y 21.4643 Z -1.0000 I 40.5666 J 0.6240
G02 X 14.5234 Y 21.7409 Z -1.0000 I 9.0903 J 0.0057
G03 X 14.5236 Y 21.7604 Z -1.0000 I -0.6178 J 0.0188
G03 X 14.5228 Y 22.2596 Z -1.0000 I -405.0190 J -0.4167
G02 X 14.5250 Y 22.7587 Z -1.0000 I 37.6656 J 0.0852
G02 X 14.5289 Y 22.8108 Z -1.0000 I 0.4075 J -0.0045
G03 X 14.5355 Y 22.8627 Z -1.0000 I -1.9945 J 0.2796
G03 X 14.5396 Y 22.9046 Z -1.0000 I -1.3442 J 0.1529
G01 X 14.5487 Y 22.9129 Z -1.0000
G01 X 14.5575 Y 22.9044 Z -1.0000
G03 X 14.5653 Y 22.8543 Z -1.0000 I 0.2199 J 0.0088
G01 X 14.5739 Y 22.8453 Z -1.0000
G01 X 14.5769 Y 22.8388 Z -1.0000
G01 X 14.5647 Y 22.8232 Z -1.0000
G01 X 14.5618 Y 22.8134 Z -1.0000
G01 X 14.5705 Y 22.8078 Z -1.0000
G01 X 14.5892 Y 22.8196 Z -1.0000
G03 X 14.5997 Y 22.8596 Z -1.0000 I -0.0709 J 0.0400
G02 X 14.6050 Y 22.9080 Z -1.0000 I 0.2209 J 0.0000
G02 X 14.6194 Y 22.9476 Z -1.0000 I 0.1608 J -0.0361
G01 X 14.6337 Y 22.9858 Z -1.0000
G01 X 14.6472 Y 23.0474 Z -1.0000
G03 X 14.6637 Y 23.1095 Z -1.0000 I -0.7831 J 0.2418
G03 X 14.6706 Y 23.1516 Z -1.0000 I -0.3526 J 0.0792
G02 X 14.6793 Y 23.1923 Z -1.0000 I 0.1908 J -0.0196
G02 X 14.6910 Y 23.2135 Z -1.0000 I 0.0620 J -0.0205
G03 X 14.7011 Y 23.2326 Z -1.0000 I -0.0410 J 0.0339
G01 X 14.6989 Y 23.2410 Z -1.0000
G01 X 14.6976 Y 23.2487 Z -1.0000
G01 X 14.7095 Y 23.2634 Z -1.0000
G01 X 14.7236 Y 23.2803 Z -1.0000
G03 X 14.7342 Y 23.3122 Z -1.0000 I -0.1014 J 0.0512
G02 X 14.7426 Y 23.3458 Z -1.0000 I 0.2306 J -0.0401
G02 X 14.7546 Y 23.3738 Z -1.0000 I 0.1690 J -0.0561
G03 X 14.7631 Y 23.3972 Z -1.0000 I -0.0752 J 0.0404
G01 X 14.7601 Y 23.4008 Z -1.0000
G01 X 14.7747 Y 23.4268 Z -1.0000
G01 X 14.7855 Y 23.4471 Z -1.0000
G01 X 14.7812 Y 23.4527 Z -1.0000
G01 X 14.7780 Y 23.4579 Z -1.0000
G02 X 14.7946 Y 23.4791 Z -1.0000 I 0.0629 J -0.0321
G03 X 14.8331 Y 23.5366 Z -1.0000 I -0.0859 J 0.0990
G01 X 14.8179 Y 23.5486 Z -1.0000
G01 X 14.8118 Y 23.5502 Z -1.0000
G01 X 14.8110 Y 23.5608 Z -1.0000
G01 X 14.7990 Y 23.5777 Z -1.0000
G01 X 14.7699 Y 23.5596 Z -1.0000
G03 X 14.7622 Y 23.5358 Z -1.0000 I 0.0620 J -0.0331
G03 X 14.7597 Y 23.4829 Z -1.0000 I 0.3089 J -0.0411
G02 X 14.7540 Y 23.4446 Z -1.0000 I -0.1042 J -0.0040
G01 X 14.7456 Y 23.4423 Z -1.0000
G01 X 14.7356 Y 23.4566 Z -1.0000
G01 X 14.7366 Y 23.4672 Z -1.0000
G01 X 14.7312 Y 23.4756 Z -1.0000
G01 X 14.7059 Y 23.4631 Z -1.0000
G01 X 14.6998 Y 23.4668 Z -1.0000
G02 X 14.7158 Y 23.4941 Z -1.0000 I 0.0690 J -0.0220
G03 X 14.7350 Y 23.5221 Z -1.0000 I -0.0840 J 0.0783
G01 X 14.7345 Y 23.5325 Z -1.0000
G01 X 14.7343 Y 23.5398 Z -1.0000
G01 X 14.7405 Y 23.5435 Z -1.0000
G01 X 14.7500 Y 23.5485 Z -1.0000
G03 X 14.7762 Y 23.5953 Z -1.0000 I -0.2359 J 0.1626
G02 X 14.8020 Y 23.6427 Z -1.0000 I 0.2974 J -0.1312
G01 X 14.8103 Y 23.6472 Z -1.0000
G01 X 14.8150 Y 23.6509 Z -1.0000
G01 X 14.8136 Y 23.6600 Z -1.0000
G01 X 14.8152 Y 23.6650 Z -1.0000
G01 X 14.8260 Y 23.6650 Z -1.0000
G01 X 14.8364 Y 23.6670 Z -1.0000
G01 X 14.8387 Y 23.6768 Z -1.0000
G01 X 14.8374 Y 23.6943 Z -1.0000
G01 X 14.8450 Y 23.7050 Z -1.0000
G01 X 14.8563 Y 23.6990 Z -1.0000
G02 X 14.8472 Y 23.6441 Z -1.0000 I -0.1405 J -0.0050
G03 X 14.8445 Y 23.6146 Z -1.0000 I 0.0514 J -0.0196
G03 X 14.8583 Y 23.5832 Z -1.0000 I 0.0732 J 0.0134
G01 X 14.8810 Y 23.5530 Z -1.0000
G01 X 14.9056 Y 23.5890 Z -1.0000
G02 X 15.0529 Y 23.7705 Z -1.0000 I 1.1648 J -0.7949
G02 X 15.0983 Y 23.7898 Z -1.0000 I 0.0454 J -0.0436
G01 X 15.1116 Y 23.7940 Z -1.0000
G03 X 15.1628 Y 23.8352 Z -1.0000 I -0.2970 J 0.4212
G02 X 15.2131 Y 23.8787 Z -1.0000 I 0.7882 J -0.8605
G01 X 15.2184 Y 23.8806 Z -1.0000
G03 X 15.2759 Y 23.9045 Z -1.0000 I 0.0000 J 0.0811
G01 X 15.2767 Y 23.9393 Z -1.0000
G01 X 15.2900 Y 23.9415 Z -1.0000
G01 X 15.3106 Y 23.9422 Z -1.0000
G03 X 15.3445 Y 23.9654 Z -1.0000 I -0.0447 J 0.1019
G02 X 15.3780 Y 23.9935 Z -1.0000 I 0.1790 J -0.1790
G01 X 15.3900 Y 23.9973 Z -1.0000
G01 X 15.4022 Y 24.0105 Z -1.0000
G01 X 15.3873 Y 24.0300 Z -1.0000
G03 X 15.3708 Y 24.0349 Z -1.0000 I -0.0431 J -0.1163
G03 X 15.3417 Y 24.0402 Z -1.0000 I -0.0876 J -0.3984
G02 X 15.2982 Y 24.0622 Z -1.0000 I 0.0108 J 0.0752
G01 X 15.3006 Y 24.0822 Z -1.0000
G01 X 15.3065 Y 24.0819 Z -1.0000
G01 X 15.3074 Y 24.0772 Z -1.0000
G01 X 15.3077 Y 24.0675 Z -1.0000
G01 X 15.3180 Y 24.0622 Z -1.0000
G01 X 15.3290 Y 24.0682 Z -1.0000
G01 X 15.3304 Y 24.0816 Z -1.0000
G01 X 15.3164 Y 24.0932 Z -1.0000
G01 X 15.2898 Y 24.0890 Z -1.0000
G02 X 15.2280 Y 24.0619 Z -1.0000 I -0.2090 J 0.3913
G01 X 15.2119 Y 24.0616 Z -1.0000
G01 X 15.2089 Y 24.0610 Z -1.0000
G03 X 15.1754 Y 24.0298 Z -1.0000 I 0.4332 J -0.4979
G02 X 15.1416 Y 24.0037 Z -1.0000 I -0.1194 J 0.1194
G01 X 15.1312 Y 24.0038 Z -1.0000
G01 X 15.1213 Y 24.0038 Z -1.0000
G03 X 15.1028 Y 23.9868 Z -1.0000 I 0.0314 J -0.0526
G02 X 15.0529 Y 23.9523 Z -1.0000 I -0.0725 J 0.0518
G01 X 15.0373 Y 23.9696 Z -1.0000
G02 X 15.0919 Y 24.0384 Z -1.0000 I 0.1334 J -0.0500
G02 X 15.1603 Y 24.0513 Z -1.0000 I 0.0495 J -0.0746
G01 X 15.1661 Y 24.0539 Z -1.0000
G01 X 15.1700 Y 24.0692 Z -1.0000
G01 X 15.1755 Y 24.0824 Z -1.0000
G01 X 15.1863 Y 24.0855 Z -1.0000
G03 X 15.2485 Y 24.1029 Z -1.0000 I 0.0152 J 0.0657
G01 X 15.2500 Y 24.1474 Z -1.0000
G01 X 15.2636 Y 24.1490 Z -1.0000
G01 X 15.2838 Y 24.1470 Z -1.0000
G01 X 15.2936 Y 24.1534 Z -1.0000
G01 X 15.2934 Y 24.1615 Z -1.0000
G01 X 15.2854 Y 24.1658 Z -1.0000
G01 X 15.2777 Y 24.1692 Z -1.0000
G01 X 15.2778 Y 24.1741 Z -1.0000
G01 X 15.2864 Y 24.1764 Z -1.0000
G02 X 15.3059 Y 24.1660 Z -1.0000 I -0.0149 J -0.0516
G01 X 15.3256 Y 24.1583 Z -1.0000
G01 X 15.3430 Y 24.1640 Z -1.0000
G01 X 15.3602 Y 24.1725 Z -1.0000
G01 X 15.3690 Y 24.1699 Z -1.0000
G01 X 15.3735 Y 24.1712 Z -1.0000
G03 X 15.3775 Y 24.2017 Z -1.0000 I -0.1146 J 0.0306
G02 X 15.3823 Y 24.2394 Z -1.0000 I 0.1500 J 0.0000
G01 X 15.3899 Y 24.2497 Z -1.0000
G01 X 15.3958 Y 24.2473 Z -1.0000
G02 X 15.3975 Y 24.2195 Z -1.0000 I -0.0725 J -0.0182
G01 X 15.4032 Y 24.1936 Z -1.0000
G01 X 15.4171 Y 24.1881 Z -1.0000
G03 X 15.4392 Y 24.1979 Z -1.0000 I -0.0189 J 0.0723
G03 X 15.4581 Y 24.2150 Z -1.0000 I -0.0454 J 0.0692
G01 X 15.4585 Y 24.2258 Z -1.0000
G01 X 15.4476 Y 24.2252 Z -1.0000
G01 X 15.4427 Y 24.2330 Z -1.0000
G02 X 15.4627 Y 24.2914 Z -1.0000 I 0.1026 J -0.0025
G01 X 15.4812 Y 24.2853 Z -1.0000
G01 X 15.4861 Y 24.2774 Z -1.0000
G01 X 15.4985 Y 24.2769 Z -1.0000
G01 X 15.5099 Y 24.2751 Z -1.0000
G01 X 15.5158 Y 24.2630 Z -1.0000
G01 X 15.5100 Y 24.2508 Z -1.0000
G01 X 15.4985 Y 24.2490 Z -1.0000
G01 X 15.4852 Y 24.2498 Z -1.0000
G01 X 15.4812 Y 24.2445 Z -1.0000
G01 X 15.4849 Y 24.2359 Z -1.0000
G01 X 15.5006 Y 24.2259 Z -1.0000
G01 X 15.5153 Y 24.2254 Z -1.0000
G01 X 15.5201 Y 24.2318 Z -1.0000
G01 X 15.5245 Y 24.2373 Z -1.0000
G01 X 15.5363 Y 24.2354 Z -1.0000
G01 X 15.5347 Y 24.2476 Z -1.0000
G01 X 15.5289 Y 24.2640 Z -1.0000
G01 X 15.5347 Y 24.2700 Z -1.0000
G01 X 15.5370 Y 24.2746 Z -1.0000
G03 X 15.5201 Y 24.2903 Z -1.0000 I -0.0476 J -0.0343
G01 X 15.5088 Y 24.3039 Z -1.0000
G01 X 15.5286 Y 24.3033 Z -1.0000
G01 X 15.5463 Y 24.3127 Z -1.0000
G01 X 15.5514 Y 24.3135 Z -1.0000
G01 X 15.5526 Y 24.3100 Z -1.0000
G01 X 15.5530 Y 24.3010 Z -1.0000
G01 X 15.5604 Y 24.2986 Z -1.0000
G01 X 15.5730 Y 24.3081 Z -1.0000
G01 X 15.5754 Y 24.3193 Z -1.0000
G01 X 15.5786 Y 24.3260 Z -1.0000
G01 X 15.5903 Y 24.3265 Z -1.0000
G01 X 15.6063 Y 24.3253 Z -1.0000
G01 X 15.6161 Y 24.3322 Z -1.0000
G01 X 15.6262 Y 24.3390 Z -1.0000
G02 X 15.6499 Y 24.3380 Z -1.0000 I 0.0095 J -0.0543
G03 X 15.6747 Y 24.3367 Z -1.0000 I 0.0157 J 0.0605
G01 X 15.6920 Y 24.3443 Z -1.0000
G01 X 15.7099 Y 24.3518 Z -1.0000
G02 X 15.7662 Y 24.3531 Z -1.0000 I 0.0347 J -0.2927
G03 X 15.8212 Y 24.3548 Z -1.0000 I 0.0193 J 0.2568
G01 X 15.8326 Y 24.3623 Z -1.0000
G01 X 15.8431 Y 24.3677 Z -1.0000
G02 X 15.8705 Y 24.3600 Z -1.0000 I -0.0039 J -0.0661
G01 X 15.8896 Y 24.3560 Z -1.0000
G01 X 15.8933 Y 24.3619 Z -1.0000
G01 X 15.8987 Y 24.3713 Z -1.0000
G02 X 15.9983 Y 24.3796 Z -1.0000 I 0.0997 J -0.5905
G02 X 16.1088 Y 24.3750 Z -1.0000 I -0.0000 J -1.3327
G01 X 16.1267 Y 24.3689 Z -1.0000
G01 X 16.1365 Y 24.3678 Z -1.0000
G01 X 16.1396 Y 24.3737 Z -1.0000
G01 X 16.1427 Y 24.3847 Z -1.0000
G01 X 16.1588 Y 24.3930 Z -1.0000
G01 X 16.1767 Y 24.3913 Z -1.0000
G01 X 16.1814 Y 24.3845 Z -1.0000
G01 X 16.1861 Y 24.3797 Z -1.0000
G01 X 16.2041 Y 24.3836 Z -1.0000
G02 X 16.2801 Y 24.4011 Z -1.0000 I 0.0736 J -0.1463
G02 X 16.3468 Y 24.3816 Z -1.0000 I -0.0018 J -0.1303
G01 X 16.3581 Y 24.3807 Z -1.0000
G01 X 16.3634 Y 24.3885 Z -1.0000
G01 X 16.3683 Y 24.3917 Z -1.0000
G01 X 16.3829 Y 24.3803 Z -1.0000
G01 X 16.3968 Y 24.3702 Z -1.0000
G01 X 16.4019 Y 24.3738 Z -1.0000
G01 X 16.4087 Y 24.3861 Z -1.0000
G02 X 16.4342 Y 24.3944 Z -1.0000 I 0.0286 J -0.0450
G01 X 16.4565 Y 24.3902 Z -1.0000
G01 X 16.4586 Y 24.3834 Z -1.0000
G01 X 16.4795 Y 24.3860 Z -1.0000
G02 X 16.5094 Y 24.3951 Z -1.0000 I 0.0376 J -0.0698
G02 X 16.5524 Y 24.3932 Z -1.0000 I 0.0149 J -0.1522
G03 X 16.5914 Y 24.3909 Z -1.0000 I 0.0282 J 0.1517
G01 X 16.5964 Y 24.3963 Z -1.0000
G01 X 16.6006 Y 24.4035 Z -1.0000
G01 X 16.6159 Y 24.4077 Z -1.0000
G01 X 16.6314 Y 24.4038 Z -1.0000
G01 X 16.6353 Y 24.3973 Z -1.0000
G01 X 16.6393 Y 24.3927 Z -1.0000
G01 X 16.6549 Y 24.3944 Z -1.0000
G01 X 16.6644 Y 24.3914 Z -1.0000
G01 X 16.6663 Y 24.3777 Z -1.0000
G01 X 16.6803 Y 24.3834 Z -1.0000
G02 X 16.7038 Y 24.4029 Z -1.0000 I 0.0513 J -0.0383
G01 X 16.7175 Y 24.4014 Z -1.0000
G03 X 16.7719 Y 24.3822 Z -1.0000 I 0.0551 J 0.0697
G03 X 16.8451 Y 24.4003 Z -1.0000 I 0.0013 J 0.1529
G01 X 16.8641 Y 24.4052 Z -1.0000
G01 X 16.8687 Y 24.4007 Z -1.0000
G01 X 16.8734 Y 24.3942 Z -1.0000
G01 X 16.8914 Y 24.3930 Z -1.0000
G02 X 16.9998 Y 24.4061 Z -1.0000 I 0.1432 J -0.7279
G01 X 17.0044 Y 24.3983 Z -1.0000
G01 X 17.0055 Y 24.3909 Z -1.0000
G01 X 17.0179 Y 24.3861 Z -1.0000
G01 X 17.0303 Y 24.3909 Z -1.0000
G01 X 17.0313 Y 24.3982 Z -1.0000
G01 X 17.0338 Y 24.4028 Z -1.0000
G02 X 17.0633 Y 24.3990 Z -1.0000 I 0.0027 J -0.0966
G03 X 17.0927 Y 24.3953 Z -1.0000 I 0.0269 J 0.0944
G01 X 17.0952 Y 24.3999 Z -1.0000
G01 X 17.0961 Y 24.4073 Z -1.0000
G01 X 17.1079 Y 24.4120 Z -1.0000
G01 X 17.1237 Y 24.4076 Z -1.0000
G01 X 17.1281 Y 24.3998 Z -1.0000
G01 X 17.1336 Y 24.3937 Z -1.0000
G03 X 17.1832 Y 24.3936 Z -1.0000 I 0.0253 J 0.2241
G02 X 17.2176 Y 24.3915 Z -1.0000 I 0.0111 J -0.1008
G01 X 17.2189 Y 24.3852 Z -1.0000
G01 X 17.2180 Y 24.3802 Z -1.0000
G01 X 17.2232 Y 24.3784 Z -1.0000
G02 X 17.2471 Y 24.3853 Z -1.0000 I 0.1331 J -0.4141
G01 X 17.2531 Y 24.3861 Z -1.0000
G01 X 17.2514 Y 24.3988 Z -1.0000
G01 X 17.2537 Y 24.4033 Z -1.0000
G01 X 17.2732 Y 24.4006 Z -1.0000
G03 X 17.3032 Y 24.3953 Z -1.0000 I 0.0296 J 0.0797
G03 X 17.3420 Y 24.4009 Z -1.0000 I -0.0005 J 0.1407
G02 X 17.3777 Y 24.4025 Z -1.0000 I 0.0211 J -0.0736
G01 X 17.3972 Y 24.3901 Z -1.0000
G01 X 17.4090 Y 24.3815 Z -1.0000
G01 X 17.4134 Y 24.3846 Z -1.0000
G01 X 17.4202 Y 24.3929 Z -1.0000
G02 X 17.4556 Y 24.3928 Z -1.0000 I 0.0176 J -0.0906
G01 X 17.4827 Y 24.3950 Z -1.0000
G01 X 17.4842 Y 24.4004 Z -1.0000
G02 X 17.5951 Y 24.4056 Z -1.0000 I 0.1109 J -1.1888
G02 X 17.7206 Y 24.4011 Z -1.0000 I -0.0000 J -1.7669
G01 X 17.7322 Y 24.3959 Z -1.0000
G01 X 17.7430 Y 24.3888 Z -1.0000
G01 X 17.7560 Y 24.3864 Z -1.0000
G01 X 17.7585 Y 24.3901 Z -1.0000
G01 X 17.7506 Y 24.4003 Z -1.0000
G01 X 17.7536 Y 24.4084 Z -1.0000
G02 X 17.8660 Y 24.3899 Z -1.0000 I -0.0703 J -0.7773
G03 X 17.8878 Y 24.3891 Z -1.0000 I 0.0127 J 0.0530
G01 X 17.8900 Y 24.3940 Z -1.0000
G01 X 17.9245 Y 24.4558 Z -1.0000
G02 X 18.1364 Y 24.3948 Z -1.0000 I 0.0014 J -0.3940
G01 X 18.1486 Y 24.3918 Z -1.0000
G01 X 18.1526 Y 24.3961 Z -1.0000
G01 X 18.1577 Y 24.4027 Z -1.0000
G02 X 18.1980 Y 24.4077 Z -1.0000 I 0.0403 J -0.1588
G02 X 18.2385 Y 24.4028 Z -1.0000 I 0.0000 J -0.1674
G01 X 18.2434 Y 24.3965 Z -1.0000
G01 X 18.2477 Y 24.3925 Z -1.0000
G03 X 18.2685 Y 24.3987 Z -1.0000 I -0.0047 J 0.0536
G02 X 18.3091 Y 24.4091 Z -1.0000 I 0.0415 J -0.0775
G01 X 18.3147 Y 24.3991 Z -1.0000
G01 X 18.3141 Y 24.3903 Z -1.0000
G01 X 18.3204 Y 24.3861 Z -1.0000
G01 X 18.3304 Y 24.3899 Z -1.0000
G01 X 18.3341 Y 24.3980 Z -1.0000
G01 X 18.3441 Y 24.4072 Z -1.0000
G02 X 18.3839 Y 24.3941 Z -1.0000 I -0.0069 J -0.0881
G01 X 18.4004 Y 24.3903 Z -1.0000
G01 X 18.4157 Y 24.3977 Z -1.0000
G02 X 18.4585 Y 24.4147 Z -1.0000 I 0.0411 J -0.0411
G01 X 18.4770 Y 24.3959 Z -1.0000
G01 X 18.4807 Y 24.3908 Z -1.0000
G01 X 18.4867 Y 24.3927 Z -1.0000
G02 X 18.5240 Y 24.4137 Z -1.0000 I 0.0421 J -0.0309
G01 X 18.5416 Y 24.3977 Z -1.0000
G01 X 18.5458 Y 24.3903 Z -1.0000
G01 X 18.5611 Y 24.3861 Z -1.0000
G01 X 18.5768 Y 24.3899 Z -1.0000
G01 X 18.5805 Y 24.3958 Z -1.0000
G01 X 18.5849 Y 24.4014 Z -1.0000
G02 X 18.6266 Y 24.4067 Z -1.0000 I 0.0468 J -0.1991
G02 X 18.6551 Y 24.4026 Z -1.0000 I 0.0022 J -0.0852
G01 X 18.6557 Y 24.3972 Z -1.0000
G01 X 18.6539 Y 24.3908 Z -1.0000
G01 X 18.6608 Y 24.3863 Z -1.0000
G03 X 18.6807 Y 24.3899 Z -1.0000 I 0.0005 J 0.0539
G01 X 18.6898 Y 24.3975 Z -1.0000
G02 X 18.7361 Y 24.4230 Z -1.0000 I 0.0459 J -0.0285
G01 X 18.7621 Y 24.3968 Z -1.0000
G01 X 18.7665 Y 24.3924 Z -1.0000
G01 X 18.7837 Y 24.3969 Z -1.0000
G01 X 18.8060 Y 24.4030 Z -1.0000
G02 X 18.8423 Y 24.3984 Z -1.0000 I 0.0032 J -0.1200
G03 X 18.8694 Y 24.3954 Z -1.0000 I 0.0228 J 0.0802
G01 X 18.8718 Y 24.3999 Z -1.0000
G01 X 18.8739 Y 24.4068 Z -1.0000
G02 X 18.8983 Y 24.4121 Z -1.0000 I 0.0244 J -0.0533
G02 X 18.9243 Y 24.4077 Z -1.0000 I 0.0000 J -0.0793
G01 X 18.9262 Y 24.4024 Z -1.0000
G01 X 18.9279 Y 24.3967 Z -1.0000
G03 X 18.9514 Y 24.3908 Z -1.0000 I 0.0274 J 0.0590
G03 X 18.9777 Y 24.3942 Z -1.0000 I 0.0041 J 0.0710
G01 X 18.9826 Y 24.4009 Z -1.0000
G01 X 18.9872 Y 24.4053 Z -1.0000
G02 X 19.0085 Y 24.3991 Z -1.0000 I -0.0037 J -0.0532
G03 X 19.0344 Y 24.3925 Z -1.0000 I 0.0265 J 0.0498
G03 X 19.0595 Y 24.3987 Z -1.0000 I 0.0005 J 0.0519
G02 X 19.0897 Y 24.4071 Z -1.0000 I 0.0340 J -0.0635
G01 X 19.0936 Y 24.4005 Z -1.0000
G01 X 19.0938 Y 24.3914 Z -1.0000
G01 X 19.1065 Y 24.3812 Z -1.0000
G01 X 19.1179 Y 24.3807 Z -1.0000
G01 X 19.1196 Y 24.3849 Z -1.0000
G01 X 19.1205 Y 24.3930 Z -1.0000
G01 X 19.1383 Y 24.4030 Z -1.0000
G01 X 19.1586 Y 24.4024 Z -1.0000
G01 X 19.1643 Y 24.3947 Z -1.0000
G01 X 19.1678 Y 24.3911 Z -1.0000
G01 X 19.1740 Y 24.3944 Z -1.0000
G02 X 19.3933 Y 24.5134 Z -1.0000 I 0.2186 J -0.1414
G02 X 19.5144 Y 24.3936 Z -1.0000 I -0.0003 J -0.1215
G01 X 19.5180 Y 24.3914 Z -1.0000
G01 X 19.5270 Y 24.3991 Z -1.0000
G01 X 19.5418 Y 24.4080 Z -1.0000
G01 X 19.5657 Y 24.4022 Z -1.0000
G03 X 19.5871 Y 24.3947 Z -1.0000 I 0.0280 J 0.0454
G01 X 19.5920 Y 24.3990 Z -1.0000
G01 X 19.5977 Y 24.4065 Z -1.0000
G02 X 19.6374 Y 24.4121 Z -1.0000 I 0.0398 J -0.1381
G02 X 19.6772 Y 24.4066 Z -1.0000 I -0.0000 J -0.1454
G01 X 19.6828 Y 24.3992 Z -1.0000
G01 X 19.6876 Y 24.3910 Z -1.0000
G01 X 19.7055 Y 24.3864 Z -1.0000
G01 X 19.7118 Y 24.3913 Z -1.0000
G01 X 19.7087 Y 24.3992 Z -1.0000
G01 X 19.7106 Y 24.4051 Z -1.0000
G02 X 19.7371 Y 24.3979 Z -1.0000 I -0.0028 J -0.0620
G01 X 19.7527 Y 24.3939 Z -1.0000
G01 X 19.7549 Y 24.3979 Z -1.0000
G01 X 19.7538 Y 24.4078 Z -1.0000
G01 X 19.7598 Y 24.4121 Z -1.0000
G01 X 19.7693 Y 24.4078 Z -1.0000
G01 X 19.7737 Y 24.3959 Z -1.0000
G01 X 19.7774 Y 24.3921 Z -1.0000
G01 X 19.7840 Y 24.3955 Z -1.0000
G01 X 19.7971 Y 24.4045 Z -1.0000
G02 X 19.8302 Y 24.4048 Z -1.0000 I 0.0175 J -0.0865
G01 X 19.8543 Y 24.4066 Z -1.0000
G01 X 19.8569 Y 24.4137 Z -1.0000
G01 X 19.8580 Y 24.4185 Z -1.0000
G01 X 19.8647 Y 24.4184 Z -1.0000
G03 X 20.0773 Y 24.3568 Z -1.0000 I 0.2171 J 0.3512
G03 X 20.1366 Y 24.4154 Z -1.0000 I 0.0006 J 0.0587
G01 X 20.1399 Y 24.4218 Z -1.0000
G01 X 20.1503 Y 24.4251 Z -1.0000
G01 X 20.1577 Y 24.4216 Z -1.0000
G01 X 20.1580 Y 24.4154 Z -1.0000
G01 X 20.1603 Y 24.4107 Z -1.0000
G03 X 20.2189 Y 24.4090 Z -1.0000 I 0.0399 J 0.3778
G02 X 20.4719 Y 24.4138 Z -1.0000 I 0.2041 J -4.1140
G02 X 20.4996 Y 24.4058 Z -1.0000 I -0.0006 J -0.0543
G01 X 20.5123 Y 24.4032 Z -1.0000
G03 X 20.5373 Y 24.4115 Z -1.0000 I -0.0118 J 0.0771
G01 X 20.5592 Y 24.4161 Z -1.0000
G01 X 20.5690 Y 24.4089 Z -1.0000
G01 X 20.5770 Y 24.4024 Z -1.0000
G01 X 20.5863 Y 24.4058 Z -1.0000
G02 X 20.6252 Y 24.4260 Z -1.0000 I 0.0432 J -0.0357
G01 X 20.6424 Y 24.4101 Z -1.0000
G01 X 20.6465 Y 24.4053 Z -1.0000
G01 X 20.6582 Y 24.4076 Z -1.0000
G02 X 20.7181 Y 24.4182 Z -1.0000 I 0.0432 J -0.0699
G02 X 20.7770 Y 24.3830 Z -1.0000 I -0.0213 J -0.1027
G01 X 20.8014 Y 24.3540 Z -1.0000
G01 X 20.7923 Y 24.3832 Z -1.0000
G01 X 20.8020 Y 24.4013 Z -1.0000
G02 X 20.9017 Y 24.4154 Z -1.0000 I 0.0974 J -0.3308
G01 X 20.9081 Y 24.4146 Z -1.0000
G02 X 20.9390 Y 24.4060 Z -1.0000 I -0.1839 J -0.7220
G03 X 20.9608 Y 24.4035 Z -1.0000 I 0.0175 J 0.0569
G01 X 20.9629 Y 24.4077 Z -1.0000
G01 X 20.9792 Y 24.4362 Z -1.0000
G02 X 21.0844 Y 24.4052 Z -1.0000 I -0.0045 J -0.2091
G01 X 21.0894 Y 24.4062 Z -1.0000
G01 X 21.0896 Y 24.4126 Z -1.0000
G01 X 21.0915 Y 24.4193 Z -1.0000
G01 X 21.1038 Y 24.4198 Z -1.0000
G03 X 21.2350 Y 24.3895 Z -1.0000 I 0.1623 J 0.4043
G01 X 21.2471 Y 24.4095 Z -1.0000
G01 X 21.2488 Y 24.4146 Z -1.0000
G02 X 21.2713 Y 24.4188 Z -1.0000 I 0.0225 J -0.0584
G01 X 21.2926 Y 24.4140 Z -1.0000
G01 X 21.2944 Y 24.4078 Z -1.0000
G01 X 21.3151 Y 24.4115 Z -1.0000
G02 X 21.3385 Y 24.4195 Z -1.0000 I 0.0357 J -0.0667
G01 X 21.3426 Y 24.4160 Z -1.0000
G01 X 21.3469 Y 24.4101 Z -1.0000
G03 X 21.3738 Y 24.4058 Z -1.0000 I 0.0269 J 0.0824
G01 X 21.4009 Y 24.4123 Z -1.0000
G01 X 21.4917 Y 24.4188 Z -1.0000
G02 X 21.5702 Y 24.4137 Z -1.0000 I -0.0000 J -0.5989
G01 X 21.5715 Y 24.4082 Z -1.0000
G01 X 21.5887 Y 24.4068 Z -1.0000
G02 X 21.7366 Y 24.4277 Z -1.0000 I 0.1496 J -0.5256
G01 X 21.7480 Y 24.4074 Z -1.0000
G01 X 21.7573 Y 24.4058 Z -1.0000
G01 X 21.7753 Y 24.4119 Z -1.0000
G02 X 21.8766 Y 24.4186 Z -1.0000 I 0.1314 J -1.2237
G01 X 21.9639 Y 24.4117 Z -1.0000
G01 X 21.9860 Y 24.4043 Z -1.0000
G03 X 22.0224 Y 24.4094 Z -1.0000 I -0.0115 J 0.2141
G03 X 22.0393 Y 24.4164 Z -1.0000 I -0.0121 J 0.0530
G01 X 22.0555 Y 24.4201 Z -1.0000
G02 X 22.0830 Y 24.4116 Z -1.0000 I -0.0081 J -0.0748
G01 X 22.0998 Y 24.4071 Z -1.0000
G01 X 22.1020 Y 24.4110 Z -1.0000
G01 X 22.1050 Y 24.4187 Z -1.0000
G02 X 22.1515 Y 24.4253 Z -1.0000 I 0.0465 J -0.1621
G02 X 22.2068 Y 24.4197 Z -1.0000 I -0.0000 J -0.2774
G01 X 22.2183 Y 24.4117 Z -1.0000
G01 X 22.2281 Y 24.4063 Z -1.0000
G01 X 22.2431 Y 24.4117 Z -1.0000
G01 X 22.2610 Y 24.4209 Z -1.0000
G02 X 22.2906 Y 24.4242 Z -1.0000 I 0.0261 J -0.0991
G03 X 22.3217 Y 24.4239 Z -1.0000 I 0.0244 J 0.7142
G03 X 22.4086 Y 24.4253 Z -1.0000 I -0.0533 J 5.6706
G02 X 22.4947 Y 24.4241 Z -1.0000 I 0.0274 J -1.0920
G01 X 22.5077 Y 24.4200 Z -1.0000
G01 X 22.5206 Y 24.4167 Z -1.0000
G03 X 22.5763 Y 24.4229 Z -1.0000 I -0.0170 J 0.4030
G02 X 22.6328 Y 24.4285 Z -1.0000 I 0.0619 J -0.3380
G02 X 22.6748 Y 24.4245 Z -1.0000 I 0.0030 J -0.1906
G03 X 22.7073 Y 24.4224 Z -1.0000 I 0.0241 J 0.1158
G01 X 22.7097 Y 24.4270 Z -1.0000
G01 X 22.7159 Y 24.4379 Z -1.0000
G02 X 22.7558 Y 24.4258 Z -1.0000 I -0.0021 J -0.0784
G01 X 22.7731 Y 24.4213 Z -1.0000
G01 X 22.7833 Y 24.4273 Z -1.0000
G01 X 22.7938 Y 24.4330 Z -1.0000
G02 X 22.8193 Y 24.4262 Z -1.0000 I -0.0017 J -0.0575
G03 X 22.8426 Y 24.4186 Z -1.0000 I 0.0336 J 0.0629
G01 X 22.8469 Y 24.4222 Z -1.0000
G01 X 22.8680 Y 24.4436 Z -1.0000
G02 X 22.9184 Y 24.4230 Z -1.0000 I 0.0007 J -0.0703
G01 X 22.9283 Y 24.4187 Z -1.0000
G01 X 22.9475 Y 24.4220 Z -1.0000
G01 X 22.9564 Y 24.4199 Z -1.0000
G01 X 22.9573 Y 24.4114 Z -1.0000
G01 X 22.9643 Y 24.4092 Z -1.0000
G02 X 23.0420 Y 24.4396 Z -1.0000 I 0.0776 J -0.0836
G01 X 23.0592 Y 24.4092 Z -1.0000
G01 X 23.0693 Y 24.4091 Z -1.0000
G02 X 23.0911 Y 24.4196 Z -1.0000 I 0.0334 J -0.0415
G02 X 23.1399 Y 24.4248 Z -1.0000 I 0.0471 J -0.2109
G03 X 23.1906 Y 24.4245 Z -1.0000 I 0.0669 J 8.7922
G03 X 23.2100 Y 24.4246 Z -1.0000 I 0.0024 J 1.2937
G02 X 23.2295 Y 24.4241 Z -1.0000 I 0.0032 J -0.2442
G02 X 23.2749 Y 24.4203 Z -1.0000 I -0.0904 J -1.3598
G03 X 23.3203 Y 24.4164 Z -1.0000 I 0.1547 J 1.5446
G03 X 23.3916 Y 24.4120 Z -1.0000 I 0.2961 J 4.1959
G02 X 23.4611 Y 24.4033 Z -1.0000 I -0.0262 J -0.4899
G02 X 23.4816 Y 24.3941 Z -1.0000 I -0.0098 J -0.0494
G01 X 23.4906 Y 24.3962 Z -1.0000
G01 X 23.4884 Y 24.4082 Z -1.0000
G01 X 23.4935 Y 24.4124 Z -1.0000
G01 X 23.5037 Y 24.4089 Z -1.0000
G01 X 23.5106 Y 24.3991 Z -1.0000
G01 X 23.5192 Y 24.3914 Z -1.0000
G03 X 23.5927 Y 24.3812 Z -1.0000 I 0.1023 J 0.4689
G02 X 23.6620 Y 24.3702 Z -1.0000 I -0.0219 J -0.3611
G01 X 23.6671 Y 24.3618 Z -1.0000
G01 X 23.6715 Y 24.3549 Z -1.0000
G03 X 23.6963 Y 24.3552 Z -1.0000 I 0.0118 J 0.0522
G02 X 23.7285 Y 24.3590 Z -1.0000 I 0.0312 J -0.1239
G02 X 23.7511 Y 24.3547 Z -1.0000 I -0.0005 J -0.0645
G01 X 23.7593 Y 24.3446 Z -1.0000
G01 X 23.7544 Y 24.3335 Z -1.0000
G01 X 23.7711 Y 24.3292 Z -1.0000
G02 X 23.8054 Y 24.3307 Z -1.0000 I 0.0212 J -0.0921
G01 X 23.8263 Y 24.3215 Z -1.0000
G01 X 23.8421 Y 24.3127 Z -1.0000
G01 X 23.8455 Y 24.3152 Z -1.0000
G01 X 23.8489 Y 24.3176 Z -1.0000
G01 X 23.8650 Y 24.3087 Z -1.0000
G01 X 23.8844 Y 24.3009 Z -1.0000
G01 X 23.9201 Y 24.2865 Z -1.0000
G01 X 23.9342 Y 24.2832 Z -1.0000
G01 X 23.9363 Y 24.2882 Z -1.0000
G01 X 23.9399 Y 24.2933 Z -1.0000
G02 X 24.0025 Y 24.2656 Z -1.0000 I -0.1267 J -0.3718
G03 X 24.0879 Y 24.2237 Z -1.0000 I 0.4982 J 0.9069
G01 X 24.0966 Y 24.2247 Z -1.0000
G01 X 24.0987 Y 24.2224 Z -1.0000
G01 X 24.1031 Y 24.1982 Z -1.0000
G03 X 24.1665 Y 24.1794 Z -1.0000 I 0.0652 J 0.1028
G02 X 24.1904 Y 24.1737 Z -1.0000 I -0.0008 J -0.0565
G01 X 24.1957 Y 24.1652 Z -1.0000
G01 X 24.1999 Y 24.1588 Z -1.0000
G01 X 24.2085 Y 24.1594 Z -1.0000
G01 X 24.2135 Y 24.1578 Z -1.0000
G01 X 24.2136 Y 24.1472 Z -1.0000
G01 X 24.2151 Y 24.1334 Z -1.0000
G01 X 24.2268 Y 24.1271 Z -1.0000
G01 X 24.2424 Y 24.1218 Z -1.0000
G01 X 24.2478 Y 24.1109 Z -1.0000
G01 X 24.2516 Y 24.1074 Z -1.0000
G01 X 24.2590 Y 24.1120 Z -1.0000
G01 X 24.2689 Y 24.1156 Z -1.0000
G01 X 24.2803 Y 24.1055 Z -1.0000
G02 X 24.2882 Y 24.0815 Z -1.0000 I -0.1270 J -0.0553
G01 X 24.2883 Y 24.0710 Z -1.0000
G01 X 24.2907 Y 24.0671 Z -1.0000
G01 X 24.2992 Y 24.0685 Z -1.0000
G02 X 24.3590 Y 24.0688 Z -1.0000 I 0.0302 J -0.0488
G02 X 24.3903 Y 24.0133 Z -1.0000 I -0.0336 J -0.0555
G01 X 24.3953 Y 24.0048 Z -1.0000
G01 X 24.4053 Y 24.0051 Z -1.0000
G01 X 24.4109 Y 24.0050 Z -1.0000
G01 X 24.4119 Y 24.0009 Z -1.0000
G01 X 24.4109 Y 23.9886 Z -1.0000
G03 X 24.4253 Y 23.9697 Z -1.0000 I 0.0459 J 0.0199
G01 X 24.4375 Y 23.9681 Z -1.0000
G01 X 24.4385 Y 23.9752 Z -1.0000
G01 X 24.4472 Y 23.9768 Z -1.0000
G01 X 24.4588 Y 23.9660 Z -1.0000
G01 X 24.4594 Y 23.9509 Z -1.0000
G01 X 24.4624 Y 23.9423 Z -1.0000
G01 X 24.4764 Y 23.9411 Z -1.0000
G01 X 24.4914 Y 23.9397 Z -1.0000
G01 X 24.4893 Y 23.9297 Z -1.0000
G01 X 24.5004 Y 23.9115 Z -1.0000
G01 X 24.5124 Y 23.8916 Z -1.0000
G01 X 24.5137 Y 23.8684 Z -1.0000
G01 X 24.5175 Y 23.8537 Z -1.0000
G01 X 24.5285 Y 23.8509 Z -1.0000
G01 X 24.5354 Y 23.8597 Z -1.0000
G01 X 24.5309 Y 23.8694 Z -1.0000
G01 X 24.5261 Y 23.8768 Z -1.0000
G01 X 24.5294 Y 23.8806 Z -1.0000
G01 X 24.5422 Y 23.8758 Z -1.0000
G02 X 24.5595 Y 23.8538 Z -1.0000 I -0.0527 J -0.0594
G03 X 24.6152 Y 23.7811 Z -1.0000 I 0.2510 J 0.1343
G01 X 24.6433 Y 23.7749 Z -1.0000
G01 X 24.6471 Y 23.7735 Z -1.0000
G01 X 24.6467 Y 23.7696 Z -1.0000
G01 X 24.6436 Y 23.7596 Z -1.0000
G01 X 24.6514 Y 23.7427 Z -1.0000
G01 X 24.6597 Y 23.7245 Z -1.0000
G01 X 24.6576 Y 23.7044 Z -1.0000
G01 X 24.6597 Y 23.6935 Z -1.0000
G01 X 24.6698 Y 23.6911 Z -1.0000
G01 X 24.6805 Y 23.6910 Z -1.0000
G01 X 24.6821 Y 23.6860 Z -1.0000
G01 X 24.6820 Y 23.6758 Z -1.0000
G01 X 24.6943 Y 23.6654 Z -1.0000
G01 X 24.7071 Y 23.6551 Z -1.0000
G01 X 24.7073 Y 23.6459 Z -1.0000
G01 X 24.7074 Y 23.6367 Z -1.0000
G01 X 24.7203 Y 23.6264 Z -1.0000
G01 X 24.7344 Y 23.6144 Z -1.0000
G01 X 24.7408 Y 23.5909 Z -1.0000
G01 X 24.7462 Y 23.5810 Z -1.0000
G01 X 24.7536 Y 23.5826 Z -1.0000
G01 X 24.7619 Y 23.5851 Z -1.0000
G01 X 24.7684 Y 23.5761 Z -1.0000
G02 X 24.7700 Y 23.5501 Z -1.0000 I -0.6096 J -0.0513
G02 X 24.7700 Y 23.5339 Z -1.0000 I -0.1878 J -0.0078
G01 X 24.7735 Y 23.5217 Z -1.0000
G01 X 24.7809 Y 23.5177 Z -1.0000
G01 X 24.7878 Y 23.5132 Z -1.0000
G02 X 24.7924 Y 23.4910 Z -1.0000 I -0.0511 J -0.0222
G01 X 24.7978 Y 23.4739 Z -1.0000
G01 X 24.8054 Y 23.4723 Z -1.0000
G01 X 24.8142 Y 23.4699 Z -1.0000
G02 X 24.8236 Y 23.4367 Z -1.0000 I -0.0792 J -0.0403
G01 X 24.8275 Y 23.4219 Z -1.0000
G01 X 24.8343 Y 23.4134 Z -1.0000
G01 X 24.8405 Y 23.4044 Z -1.0000
G02 X 24.8500 Y 23.3579 Z -1.0000 I -0.3091 J -0.0873
G03 X 24.8589 Y 23.3105 Z -1.0000 I 0.4012 J 0.0513
G03 X 24.8661 Y 23.2936 Z -1.0000 I 0.0569 J 0.0143
G01 X 24.8723 Y 23.2770 Z -1.0000
G02 X 24.8721 Y 23.2537 Z -1.0000 I -0.0741 J -0.0111
G01 X 24.8750 Y 23.2398 Z -1.0000
G01 X 24.8822 Y 23.2382 Z -1.0000
G01 X 24.8921 Y 23.2396 Z -1.0000
G01 X 24.8962 Y 23.2342 Z -1.0000
G01 X 24.8925 Y 23.2241 Z -1.0000
G01 X 24.8800 Y 23.2150 Z -1.0000
G01 X 24.8886 Y 23.2074 Z -1.0000
G01 X 24.9051 Y 23.2031 Z -1.0000
G01 X 24.9058 Y 23.1987 Z -1.0000
G01 X 24.9031 Y 23.1900 Z -1.0000
G03 X 24.9170 Y 23.1377 Z -1.0000 I 0.3363 J 0.0615
G02 X 24.9310 Y 23.0844 Z -1.0000 I -0.3160 J -0.1115
G01 X 24.9293 Y 23.0676 Z -1.0000
G01 X 24.9297 Y 23.0555 Z -1.0000
G01 X 24.9370 Y 23.0508 Z -1.0000
G01 X 24.9412 Y 23.0461 Z -1.0000
G01 X 24.9350 Y 23.0313 Z -1.0000
G01 X 24.9289 Y 23.0166 Z -1.0000
G01 X 24.9331 Y 23.0119 Z -1.0000
G01 X 24.9391 Y 23.0062 Z -1.0000
G02 X 24.9344 Y 22.9780 Z -1.0000 I -0.0712 J -0.0027
G01 X 24.9325 Y 22.9551 Z -1.0000
G01 X 24.9397 Y 22.9511 Z -1.0000
G01 X 24.9492 Y 22.9483 Z -1.0000
G01 X 24.9518 Y 22.9344 Z -1.0000
G03 X 24.9508 Y 22.9114 Z -1.0000 I 0.0528 J -0.0138
G03 X 24.9607 Y 22.8827 Z -1.0000 I 0.0928 J 0.0159
G02 X 24.9680 Y 22.8554 Z -1.0000 I -0.0544 J -0.0291
G01 X 24.9620 Y 22.8380 Z -1.0000
G03 X 24.9525 Y 22.8216 Z -1.0000 I 0.0423 J -0.0354
G01 X 24.9538 Y 22.8159 Z -1.0000
G01 X 24.9577 Y 22.8093 Z -1.0000
G02 X 24.9661 Y 22.7733 Z -1.0000 I -0.3522 J -0.1014
G03 X 24.9748 Y 22.7374 Z -1.0000 I 0.3114 J 0.0567
G01 X 24.9794 Y 22.7298 Z -1.0000
G01 X 24.9815 Y 22.7225 Z -1.0000
G02 X 24.9722 Y 22.6974 Z -1.0000 I -0.0959 J 0.0212
G01 X 24.9687 Y 22.6825 Z -1.0000
G01 X 24.9726 Y 22.6804 Z -1.0000
G01 X 24.9817 Y 22.6799 Z -1.0000
G01 X 24.9869 Y 22.6690 Z -1.0000
G01 X 24.9817 Y 22.6540 Z -1.0000
G01 X 24.9707 Y 22.6486 Z -1.0000
G01 X 24.9675 Y 22.6447 Z -1.0000
G01 X 24.9726 Y 22.6369 Z -1.0000
G01 X 24.9833 Y 22.6226 Z -1.0000
G01 X 24.9835 Y 22.5982 Z -1.0000
G03 X 24.9820 Y 22.5732 Z -1.0000 I 0.0627 J -0.0163
G01 X 24.9882 Y 22.5637 Z -1.0000
G01 X 24.9932 Y 22.5546 Z -1.0000
G01 X 24.9875 Y 22.5330 Z -1.0000
G03 X 24.9805 Y 22.5104 Z -1.0000 I 0.0549 J -0.0294
G01 X 24.9840 Y 22.5005 Z -1.0000
G01 X 24.9889 Y 22.4896 Z -1.0000
G02 X 24.9952 Y 22.3246 Z -1.0000 I -3.2549 J -0.2070
G03 X 25.0009 Y 22.1588 Z -1.0000 I 3.8899 J 0.0509
G01 X 25.0053 Y 22.1448 Z -1.0000
G01 X 25.0068 Y 22.1334 Z -1.0000
G01 X 24.9987 Y 22.1228 Z -1.0000
G01 X 24.9945 Y 22.1137 Z -1.0000
G01 X 25.0017 Y 22.1025 Z -1.0000
G01 X 25.0075 Y 22.0908 Z -1.0000
G01 X 24.9998 Y 22.0772 Z -1.0000
G01 X 24.9920 Y 22.0646 Z -1.0000
G01 X 24.9965 Y 22.0567 Z -1.0000
G01 X 25.0039 Y 22.0470 Z -1.0000
G01 X 25.0002 Y 22.0269 Z -1.0000
G03 X 24.9921 Y 22.0044 Z -1.0000 I 0.0733 J -0.0391
G01 X 24.9942 Y 21.9974 Z -1.0000
G02 X 25.0765 Y 21.7994 Z -1.0000 I -0.1987 J -0.1987
G02 X 24.9947 Y 21.6018 Z -1.0000 I -0.2779 J -0.0007
G01 X 24.9927 Y 21.5940 Z -1.0000
G03 X 25.0024 Y 21.5758 Z -1.0000 I 0.0491 J 0.0144
G01 X 25.0074 Y 21.5591 Z -1.0000
G01 X 24.9990 Y 21.5457 Z -1.0000
G01 X 24.9919 Y 21.5371 Z -1.0000
G01 X 24.9942 Y 21.5337 Z -1.0000
G02 X 25.1085 Y 21.4182 Z -1.0000 I -0.0017 J -0.1160
G02 X 24.9957 Y 21.0310 Z -1.0000 I -0.7116 J -0.0027
G01 X 24.9941 Y 21.0196 Z -1.0000
G01 X 25.0005 Y 21.0148 Z -1.0000
G01 X 25.0079 Y 21.0087 Z -1.0000
G02 X 25.0072 Y 20.9813 Z -1.0000 I -0.0611 J -0.0122
G01 X 25.0077 Y 20.9599 Z -1.0000
G01 X 25.0143 Y 20.9573 Z -1.0000
G01 X 25.0202 Y 20.9573 Z -1.0000
G01 X 25.0212 Y 20.9529 Z -1.0000
G01 X 25.0165 Y 20.9378 Z -1.0000
G03 X 25.0134 Y 20.7791 Z -1.0000 I 3.1446 J -0.1408
G02 X 25.0139 Y 20.5662 Z -1.0000 I -34.8794 J -0.1862
G02 X 25.0132 Y 20.4669 Z -1.0000 I -7.5968 J 0.0058
G03 X 25.0133 Y 20.4118 Z -1.0000 I 1.7979 J -0.0249
G03 X 25.0159 Y 20.3060 Z -1.0000 I 6.6423 J 0.1115
G02 X 25.0135 Y 20.2105 Z -1.0000 I -0.8204 J -0.0270
G01 X 25.0076 Y 20.2075 Z -1.0000
G01 X 25.0051 Y 20.1998 Z -1.0000
G01 X 25.0104 Y 20.1837 Z -1.0000
G02 X 25.0183 Y 20.0373 Z -1.0000 I -2.6907 J -0.2182
G03 X 25.0266 Y 19.8911 Z -1.0000 I 2.4679 J 0.0669
G01 X 25.0325 Y 19.8732 Z -1.0000
G01 X 25.0330 Y 19.8663 Z -1.0000
G01 X 25.0291 Y 19.8650 Z -1.0000
G01 X 25.0223 Y 19.8623 Z -1.0000
G03 X 25.0197 Y 19.8270 Z -1.0000 I 0.1036 J -0.0255
G02 X 25.0232 Y 19.7805 Z -1.0000 I -1.3039 J -0.1225
G02 X 25.0271 Y 19.7006 Z -1.0000 I -4.1179 J -0.2393
G03 X 25.0384 Y 19.6251 Z -1.0000 I 0.3483 J 0.0138
G01 X 25.0525 Y 19.6047 Z -1.0000
G01 X 25.0658 Y 19.5839 Z -1.0000
G02 X 25.0775 Y 19.4750 Z -1.0000 I -0.6461 J -0.1246
G03 X 25.0882 Y 19.2615 Z -1.0000 I 4.1066 J 0.0985
G01 X 25.0954 Y 19.2399 Z -1.0000
G01 X 25.1067 Y 19.2338 Z -1.0000
G01 X 25.1179 Y 19.2399 Z -1.0000
G01 X 25.1258 Y 19.2460 Z -1.0000
G01 X 25.1293 Y 19.2434 Z -1.0000
G01 X 25.1172 Y 19.2244 Z -1.0000
G01 X 25.0942 Y 19.2274 Z -1.0000
G01 X 25.0863 Y 19.2256 Z -1.0000
G01 X 25.0844 Y 19.2046 Z -1.0000
G03 X 25.0932 Y 19.1668 Z -1.0000 I 1.5390 J 0.3394
G03 X 25.0976 Y 19.1509 Z -1.0000 I 0.2896 J 0.0714
G01 X 25.0975 Y 19.1370 Z -1.0000
G01 X 25.0900 Y 19.1275 Z -1.0000
G01 X 25.0708 Y 19.0882 Z -1.0000
G03 X 25.0987 Y 19.0460 Z -1.0000 I 0.0549 J 0.0059
G01 X 25.1085 Y 19.0339 Z -1.0000
G01 X 25.1052 Y 19.0251 Z -1.0000
G01 X 25.0939 Y 19.0142 Z -1.0000
G01 X 25.0906 Y 19.0031 Z -1.0000
G01 X 25.0945 Y 18.9973 Z -1.0000
G01 X 25.1034 Y 18.9981 Z -1.0000
G01 X 25.1083 Y 18.9965 Z -1.0000
G01 X 25.1085 Y 18.9860 Z -1.0000
G01 X 25.0989 Y 18.9717 Z -1.0000
G01 X 25.0924 Y 18.9711 Z -1.0000
G03 X 24.9960 Y 18.9169 Z -1.0000 I -0.0332 J -0.0538
G03 X 25.0959 Y 18.3870 Z -1.0000 I 1.4946 J 0.0074
G01 X 25.1071 Y 18.3741 Z -1.0000
G01 X 25.1211 Y 18.3732 Z -1.0000
G01 X 25.1264 Y 18.3690 Z -1.0000
G02 X 25.1163 Y 18.3364 Z -1.0000 I -0.0994 J 0.0130
G03 X 25.1030 Y 18.2909 Z -1.0000 I 0.1143 J -0.0583
G03 X 25.0956 Y 18.1301 Z -1.0000 I 1.4740 J -0.1478
G02 X 25.0908 Y 17.9733 Z -1.0000 I -1.9780 J -0.0174
G01 X 25.0841 Y 17.9670 Z -1.0000
G01 X 25.0815 Y 17.9638 Z -1.0000
G01 X 25.0859 Y 17.9573 Z -1.0000
G01 X 25.0945 Y 17.9447 Z -1.0000
G02 X 25.0976 Y 17.8992 Z -1.0000 I -0.1722 J -0.0347
G03 X 25.0992 Y 17.8549 Z -1.0000 I 0.2222 J -0.0141
G01 X 25.1042 Y 17.8505 Z -1.0000
G01 X 25.1085 Y 17.8462 Z -1.0000
G02 X 25.1047 Y 17.8084 Z -1.0000 I -0.1700 J -0.0018
G03 X 25.0979 Y 17.7456 Z -1.0000 I 0.2943 J -0.0635
G03 X 25.1040 Y 17.5101 Z -1.0000 I 4.1436 J -0.0110
G03 X 25.1164 Y 17.4441 Z -1.0000 I 0.2559 J 0.0138
G01 X 25.1285 Y 17.4351 Z -1.0000
G01 X 25.1325 Y 17.4305 Z -1.0000
G01 X 25.1266 Y 17.4217 Z -1.0000
G01 X 25.1128 Y 17.4040 Z -1.0000
G03 X 25.1067 Y 17.3517 Z -1.0000 I 0.1585 J -0.0451
G03 X 25.1150 Y 17.3057 Z -1.0000 I 0.1720 J 0.0073
G01 X 25.1226 Y 17.3028 Z -1.0000
G01 X 25.1184 Y 17.2890 Z -1.0000
G02 X 25.0996 Y 17.2740 Z -1.0000 I -0.0434 J 0.0351
G01 X 25.0889 Y 17.2745 Z -1.0000
G01 X 25.0828 Y 17.2737 Z -1.0000
G01 X 25.0806 Y 17.2652 Z -1.0000
G01 X 25.0783 Y 17.2533 Z -1.0000
G01 X 25.0690 Y 17.2481 Z -1.0000
G01 X 25.0522 Y 17.2355 Z -1.0000
G01 X 25.0579 Y 17.2153 Z -1.0000
G02 X 25.0750 Y 17.1881 Z -1.0000 I -0.0328 J -0.0396
G01 X 25.0662 Y 17.1817 Z -1.0000
G01 X 25.0557 Y 17.1760 Z -1.0000
G03 X 25.0526 Y 16.6185 Z -1.0000 I 14.9584 J -0.3613
G02 X 25.0538 Y 16.4694 Z -1.0000 I -14.2350 J -0.1909
G02 X 25.0536 Y 16.3087 Z -1.0000 I -18.6940 J -0.0549
G03 X 25.0586 Y 16.1496 Z -1.0000 I 2.1343 J -0.0123
G03 X 25.0664 Y 16.1224 Z -1.0000 I 0.0673 J 0.0046
G01 X 25.0701 Y 16.1074 Z -1.0000
G01 X 25.0662 Y 16.1053 Z -1.0000
G01 X 25.0146 Y 16.0762 Z -1.0000
G03 X 25.0679 Y 15.9495 Z -1.0000 I 0.1824 J 0.0021
G01 X 25.0711 Y 15.9400 Z -1.0000
G02 X 25.0631 Y 15.9155 Z -1.0000 I -0.0720 J 0.0099
G01 X 25.0592 Y 15.8913 Z -1.0000
G03 X 25.0718 Y 15.8655 Z -1.0000 I 0.0509 J 0.0089
G02 X 25.0848 Y 15.8406 Z -1.0000 I -0.0411 J -0.0372
G01 X 25.0811 Y 15.8245 Z -1.0000
G03 X 25.0524 Y 15.7589 Z -1.0000 I 0.1117 J -0.0880
G01 X 25.0659 Y 15.7294 Z -1.0000
G01 X 25.0704 Y 15.7204 Z -1.0000
G01 X 25.0643 Y 15.7106 Z -1.0000
G01 X 25.0559 Y 15.6989 Z -1.0000
G01 X 25.0583 Y 15.6845 Z -1.0000
G02 X 25.0718 Y 15.6405 Z -1.0000 I -0.0783 J -0.0481
G02 X 25.0645 Y 15.5454 Z -1.0000 I -0.3917 J -0.0177
G03 X 25.0629 Y 15.5290 Z -1.0000 I 0.0774 J -0.0159
G03 X 25.0670 Y 15.1055 Z -1.0000 I 55.7655 J 0.3310
G03 X 25.0807 Y 14.9546 Z -1.0000 I 0.9872 J 0.0136
G01 X 25.0961 Y 14.9333 Z -1.0000
G01 X 25.1230 Y 14.9190 Z -1.0000
G01 X 25.0962 Y 14.9240 Z -1.0000
G01 X 25.0793 Y 14.9163 Z -1.0000
G03 X 25.0664 Y 14.8725 Z -1.0000 I 0.0846 J -0.0489
G03 X 25.0696 Y 14.8218 Z -1.0000 I 0.2219 J -0.0113
G01 X 25.0766 Y 14.8159 Z -1.0000
G01 X 25.0827 Y 14.8111 Z -1.0000
G01 X 25.0815 Y 14.7944 Z -1.0000
G01 X 25.0819 Y 14.7833 Z -1.0000
G01 X 25.0875 Y 14.7816 Z -1.0000
G01 X 25.1003 Y 14.7841 Z -1.0000
G01 X 25.1096 Y 14.7778 Z -1.0000
G01 X 25.1194 Y 14.7714 Z -1.0000
G01 X 25.1392 Y 14.7736 Z -1.0000
G01 X 25.1445 Y 14.7708 Z -1.0000
G01 X 25.1420 Y 14.7614 Z -1.0000
G02 X 25.1223 Y 14.7460 Z -1.0000 I -0.0569 J 0.0526
G01 X 25.1142 Y 14.7462 Z -1.0000
G01 X 25.1065 Y 14.7466 Z -1.0000
G01 X 25.0972 Y 14.7384 Z -1.0000
G01 X 25.0973 Y 14.7298 Z -1.0000
G01 X 25.1057 Y 14.7252 Z -1.0000
G01 X 25.1084 Y 14.7209 Z -1.0000
G01 X 25.0962 Y 14.7070 Z -1.0000
G01 X 25.0808 Y 14.6830 Z -1.0000
G03 X 25.0680 Y 14.5509 Z -1.0000 I 0.7987 J -0.1445
G03 X 25.0729 Y 14.4257 Z -1.0000 I 1.1424 J -0.0175
G01 X 25.0802 Y 14.4221 Z -1.0000
G01 X 25.0840 Y 14.4206 Z -1.0000
G01 X 25.0828 Y 14.4128 Z -1.0000
G03 X 25.0451 Y 14.2868 Z -1.0000 I 0.1992 J -0.1283
G03 X 25.0806 Y 14.1840 Z -1.0000 I 0.1618 J -0.0016
G01 X 25.0874 Y 14.1671 Z -1.0000
G01 X 25.0840 Y 14.1451 Z -1.0000
G03 X 25.0664 Y 14.0664 Z -1.0000 I 0.2199 J -0.0907
G03 X 25.0782 Y 14.0307 Z -1.0000 I 0.0518 J -0.0026
G01 X 25.0836 Y 14.0157 Z -1.0000
G01 X 25.0780 Y 14.0058 Z -1.0000
G01 X 25.0707 Y 13.9957 Z -1.0000
G01 X 25.0727 Y 13.9835 Z -1.0000
G02 X 25.0990 Y 13.8941 Z -1.0000 I -0.1499 J -0.0926
G01 X 25.0747 Y 13.8694 Z -1.0000
G01 X 25.0705 Y 13.8658 Z -1.0000
G01 X 25.0720 Y 13.8521 Z -1.0000
G02 X 25.0758 Y 13.8342 Z -1.0000 I -0.0538 J -0.0209
G02 X 25.0817 Y 13.6738 Z -1.0000 I -4.6503 J -0.2499
G03 X 25.0890 Y 13.5140 Z -1.0000 I 2.9799 J 0.0572
G01 X 25.0947 Y 13.4968 Z -1.0000
G01 X 25.0984 Y 13.4806 Z -1.0000
G02 X 25.0902 Y 13.4538 Z -1.0000 I -0.0734 J 0.0079
G03 X 25.0839 Y 13.4276 Z -1.0000 I 0.0468 J -0.0251
G01 X 25.0912 Y 13.4082 Z -1.0000
G01 X 25.0966 Y 13.3943 Z -1.0000
G01 X 25.0921 Y 13.3896 Z -1.0000
G01 X 25.0761 Y 13.3729 Z -1.0000
G03 X 25.0950 Y 13.3187 Z -1.0000 I 0.0985 J 0.0040
G01 X 25.1120 Y 13.3064 Z -1.0000
G01 X 25.1218 Y 13.3099 Z -1.0000
G01 X 25.1326 Y 13.3187 Z -1.0000
G01 X 25.1432 Y 13.3176 Z -1.0000
G01 X 25.1512 Y 13.3175 Z -1.0000
G01 X 25.1553 Y 13.3246 Z -1.0000
G01 X 25.1595 Y 13.3317 Z -1.0000
G01 X 25.1678 Y 13.3314 Z -1.0000
G01 X 25.2202 Y 13.3357 Z -1.0000
G01 X 25.2256 Y 13.3819 Z -1.0000
G01 X 25.2292 Y 13.3826 Z -1.0000
G01 X 25.2465 Y 13.3521 Z -1.0000
G01 X 25.2335 Y 13.3439 Z -1.0000
G01 X 25.1866 Y 13.3362 Z -1.0000
G03 X 25.1553 Y 13.2489 Z -1.0000 I 0.1064 J -0.0873
G01 X 25.1452 Y 13.2393 Z -1.0000
G02 X 25.1058 Y 13.2519 Z -1.0000 I 0.0050 J 0.0835
G01 X 25.1015 Y 13.2497 Z -1.0000
G01 X 25.1050 Y 13.2363 Z -1.0000
G01 X 25.1125 Y 13.2107 Z -1.0000
G01 X 25.1055 Y 13.1910 Z -1.0000
G03 X 25.0726 Y 13.1144 Z -1.0000 I 0.1133 J -0.0940
G01 X 25.0947 Y 13.1001 Z -1.0000
G01 X 25.0940 Y 13.0895 Z -1.0000
G01 X 25.0856 Y 13.0683 Z -1.0000
G03 X 25.0894 Y 13.0304 Z -1.0000 I 0.1064 J -0.0083
G02 X 25.0948 Y 12.9919 Z -1.0000 I -0.1353 J -0.0385
G01 X 25.0893 Y 12.9731 Z -1.0000
G01 X 25.0819 Y 12.9446 Z -1.0000
G01 X 25.0913 Y 12.9357 Z -1.0000
G01 X 25.0973 Y 12.9402 Z -1.0000
G01 X 25.0959 Y 12.9519 Z -1.0000
G01 X 25.1048 Y 12.9513 Z -1.0000
G01 X 25.1113 Y 12.9356 Z -1.0000
G01 X 25.1035 Y 12.9222 Z -1.0000
G01 X 25.0968 Y 12.9097 Z -1.0000
G01 X 25.1037 Y 12.8970 Z -1.0000
G01 X 25.1043 Y 12.8873 Z -1.0000
G01 X 25.0869 Y 12.8824 Z -1.0000
G01 X 25.0836 Y 12.8791 Z -1.0000
G03 X 25.0914 Y 12.8565 Z -1.0000 I 0.0753 J 0.0133
G01 X 25.0949 Y 12.8408 Z -1.0000
G01 X 25.0905 Y 12.8385 Z -1.0000
G01 X 25.0838 Y 12.8367 Z -1.0000
G01 X 25.0825 Y 12.8238 Z -1.0000
G02 X 25.0869 Y 12.7990 Z -1.0000 I -0.0911 J -0.0286
G02 X 25.0934 Y 12.5488 Z -1.0000 I -9.2212 J -0.3646
G03 X 25.1013 Y 12.3008 Z -1.0000 I 6.2965 J 0.0776
G01 X 25.1065 Y 12.2919 Z -1.0000
G01 X 25.1135 Y 12.2841 Z -1.0000
G01 X 25.1163 Y 12.2703 Z -1.0000
G01 X 25.1125 Y 12.2675 Z -1.0000
G01 X 25.1036 Y 12.2743 Z -1.0000
G01 X 25.0969 Y 12.2737 Z -1.0000
G03 X 25.0908 Y 12.2449 Z -1.0000 I 0.0671 J -0.0292
G03 X 25.1015 Y 12.2088 Z -1.0000 I 0.0651 J -0.0003
G01 X 25.1198 Y 12.2008 Z -1.0000
G01 X 25.1360 Y 12.2007 Z -1.0000
G03 X 25.0982 Y 12.1616 Z -1.0000 I 0.0231 J -0.0602
G01 X 25.1078 Y 12.1196 Z -1.0000
G01 X 25.1115 Y 12.1099 Z -1.0000
G01 X 25.1071 Y 12.1057 Z -1.0000
G03 X 25.0446 Y 12.0431 Z -1.0000 I 0.0000 J -0.0625
G03 X 25.1074 Y 11.8245 Z -1.0000 I 0.4137 J 0.0005
G01 X 25.1104 Y 11.8108 Z -1.0000
G01 X 25.1043 Y 11.8014 Z -1.0000
G01 X 25.0986 Y 11.7912 Z -1.0000
G03 X 25.1042 Y 11.7605 Z -1.0000 I 0.0849 J -0.0004
G02 X 25.1121 Y 11.7279 Z -1.0000 I -0.1257 J -0.0477
G01 X 25.1093 Y 11.7153 Z -1.0000
G03 X 25.0837 Y 11.6259 Z -1.0000 I 0.1453 J -0.0898
G03 X 25.1088 Y 11.5372 Z -1.0000 I 0.1679 J -0.0004
G01 X 25.1204 Y 11.5262 Z -1.0000
G01 X 25.1368 Y 11.5221 Z -1.0000
G01 X 25.1509 Y 11.5175 Z -1.0000
G01 X 25.1555 Y 11.5084 Z -1.0000
G01 X 25.1515 Y 11.5018 Z -1.0000
G01 X 25.1437 Y 11.5020 Z -1.0000
G01 X 25.1315 Y 11.5054 Z -1.0000
G03 X 25.1125 Y 11.5018 Z -1.0000 I 0.0004 J -0.0547
G01 X 25.1024 Y 11.4897 Z -1.0000
G03 X 25.1042 Y 11.4555 Z -1.0000 I 0.0744 J -0.0133
G02 X 25.1096 Y 11.4169 Z -1.0000 I -0.1349 J -0.0386
G02 X 25.1041 Y 11.3873 Z -1.0000 I -0.0834 J 0.0000
G03 X 25.0988 Y 11.3585 Z -1.0000 I 0.0774 J -0.0292
G01 X 25.1039 Y 11.3402 Z -1.0000
G01 X 25.1099 Y 11.3223 Z -1.0000
G01 X 25.1070 Y 11.3088 Z -1.0000
G01 X 25.1249 Y 11.3177 Z -1.0000
G01 X 25.1398 Y 11.3179 Z -1.0000
G01 X 25.1483 Y 11.2983 Z -1.0000
G02 X 25.1371 Y 11.2115 Z -1.0000 I -0.5943 J 0.0332
G01 X 25.1302 Y 11.2103 Z -1.0000
G01 X 25.1234 Y 11.2293 Z -1.0000
G01 X 25.1260 Y 11.2427 Z -1.0000
G01 X 25.1219 Y 11.2455 Z -1.0000
G01 X 25.1100 Y 11.2226 Z -1.0000
G03 X 25.1028 Y 11.1007 Z -1.0000 I 0.8385 J -0.1108
G02 X 25.1033 Y 11.0618 Z -1.0000 I -29.3804 J -0.3911
G03 X 25.1047 Y 10.9483 Z -1.0000 I 137.5697 J 1.6486
G03 X 25.1114 Y 10.8378 Z -1.0000 I 1.1453 J 0.0139
G01 X 25.1178 Y 10.8276 Z -1.0000
G01 X 25.1265 Y 10.8186 Z -1.0000
G01 X 25.1295 Y 10.8074 Z -1.0000
G01 X 25.1258 Y 10.8011 Z -1.0000
G01 X 25.1181 Y 10.8015 Z -1.0000
G01 X 25.1121 Y 10.7992 Z -1.0000
G03 X 25.1082 Y 10.7706 Z -1.0000 I 0.0790 J -0.0253
G01 X 25.1187 Y 10.7531 Z -1.0000
G01 X 25.1356 Y 10.7545 Z -1.0000
G01 X 25.1449 Y 10.7549 Z -1.0000
G01 X 25.1370 Y 10.7350 Z -1.0000
G01 X 25.1419 Y 10.7250 Z -1.0000
G01 X 25.1512 Y 10.7244 Z -1.0000
G01 X 25.1555 Y 10.7311 Z -1.0000
G01 X 25.1598 Y 10.7380 Z -1.0000
G01 X 25.1683 Y 10.7377 Z -1.0000
G01 X 25.1732 Y 10.7394 Z -1.0000
G01 X 25.1729 Y 10.7512 Z -1.0000
G01 X 25.1791 Y 10.7794 Z -1.0000
G02 X 25.2186 Y 10.7957 Z -1.0000 I 0.0401 J -0.0412
G01 X 25.2281 Y 10.7895 Z -1.0000
G01 X 25.2296 Y 10.7700 Z -1.0000
G01 X 25.2296 Y 10.7533 Z -1.0000
G01 X 25.2346 Y 10.7513 Z -1.0000
G01 X 25.2427 Y 10.7606 Z -1.0000
G01 X 25.2463 Y 10.7772 Z -1.0000
G01 X 25.2510 Y 10.7913 Z -1.0000
G01 X 25.2601 Y 10.7959 Z -1.0000
G01 X 25.2664 Y 10.7918 Z -1.0000
G01 X 25.2658 Y 10.7830 Z -1.0000
G01 X 25.2710 Y 10.7740 Z -1.0000
G01 X 25.2942 Y 10.7842 Z -1.0000
G01 X 25.3099 Y 10.7927 Z -1.0000
G01 X 25.3325 Y 10.7922 Z -1.0000
G01 X 25.3343 Y 10.7882 Z -1.0000
G01 X 25.3286 Y 10.7845 Z -1.0000
G01 X 25.3108 Y 10.7755 Z -1.0000
G01 X 25.3070 Y 10.7585 Z -1.0000
G01 X 25.3068 Y 10.7367 Z -1.0000
G01 X 25.2971 Y 10.7239 Z -1.0000
G01 X 25.2899 Y 10.7248 Z -1.0000
G01 X 25.2882 Y 10.7332 Z -1.0000
G01 X 25.2872 Y 10.7469 Z -1.0000
G01 X 25.2775 Y 10.7526 Z -1.0000
G01 X 25.2653 Y 10.7466 Z -1.0000
G01 X 25.2592 Y 10.7289 Z -1.0000
G01 X 25.2542 Y 10.7101 Z -1.0000
G01 X 25.2455 Y 10.7051 Z -1.0000
G01 X 25.2395 Y 10.7008 Z -1.0000
G01 X 25.2406 Y 10.6909 Z -1.0000
G01 X 25.2389 Y 10.6840 Z -1.0000
G01 X 25.2252 Y 10.6817 Z -1.0000
G01 X 25.2081 Y 10.6920 Z -1.0000
G01 X 25.2028 Y 10.7093 Z -1.0000
G01 X 25.1974 Y 10.7181 Z -1.0000
G01 X 25.1858 Y 10.7163 Z -1.0000
G01 X 25.1791 Y 10.7017 Z -1.0000
G01 X 25.1864 Y 10.6897 Z -1.0000
G01 X 25.1962 Y 10.6751 Z -1.0000
G02 X 25.1924 Y 10.6401 Z -1.0000 I -0.0772 J -0.0093
G01 X 25.1682 Y 10.6137 Z -1.0000
G01 X 25.1428 Y 10.6176 Z -1.0000
G01 X 25.1480 Y 10.5966 Z -1.0000
G01 X 25.1564 Y 10.5684 Z -1.0000
G01 X 25.1495 Y 10.5659 Z -1.0000
G03 X 25.1480 Y 10.5409 Z -1.0000 I 0.0517 J -0.0157
G01 X 25.1441 Y 10.5279 Z -1.0000
G01 X 25.1362 Y 10.5283 Z -1.0000
G01 X 25.1271 Y 10.5265 Z -1.0000
G03 X 25.1205 Y 10.4677 Z -1.0000 I 0.2039 J -0.0526
G03 X 25.1329 Y 10.4061 Z -1.0000 I 0.1861 J 0.0054
G01 X 25.1454 Y 10.4031 Z -1.0000
G03 X 25.1620 Y 10.4242 Z -1.0000 I -0.0529 J 0.0587
G01 X 25.1617 Y 10.4332 Z -1.0000
G01 X 25.1618 Y 10.4409 Z -1.0000
G01 X 25.1728 Y 10.4497 Z -1.0000
G01 X 25.1846 Y 10.4483 Z -1.0000
G01 X 25.1900 Y 10.4381 Z -1.0000
G01 X 25.1859 Y 10.4240 Z -1.0000
G01 X 25.1785 Y 10.4199 Z -1.0000
G01 X 25.1731 Y 10.4163 Z -1.0000
G01 X 25.1737 Y 10.4088 Z -1.0000
G01 X 25.1729 Y 10.3998 Z -1.0000
G02 X 25.1495 Y 10.3812 Z -1.0000 I -0.0632 J 0.0556
G01 X 25.1302 Y 10.3602 Z -1.0000
G01 X 25.1296 Y 10.3352 Z -1.0000
G02 X 25.1357 Y 10.3069 Z -1.0000 I -0.0883 J -0.0338
G01 X 25.1319 Y 10.2969 Z -1.0000
G01 X 25.1269 Y 10.2864 Z -1.0000
G03 X 25.1230 Y 10.2189 Z -1.0000 I 0.5927 J -0.0675
G03 X 25.1300 Y 10.1646 Z -1.0000 I 0.2142 J -0.0000
G01 X 25.1379 Y 10.1621 Z -1.0000
G01 X 25.1459 Y 10.1610 Z -1.0000
G01 X 25.1509 Y 10.1432 Z -1.0000
G01 X 25.1437 Y 10.1202 Z -1.0000
G01 X 25.1351 Y 10.1173 Z -1.0000
G01 X 25.0687 Y 10.0716 Z -1.0000
G03 X 25.1354 Y 9.8373 Z -1.0000 I 0.4468 J 0.0005
G01 X 25.1359 Y 9.8299 Z -1.0000
G01 X 25.1315 Y 9.8286 Z -1.0000
G01 X 25.1134 Y 9.8184 Z -1.0000
G03 X 25.1315 Y 9.7746 Z -1.0000 I 0.0621 J 0.0000
G01 X 25.1382 Y 9.7592 Z -1.0000
G01 X 25.1325 Y 9.7427 Z -1.0000
G03 X 25.0900 Y 9.6338 Z -1.0000 I 0.1427 J -0.1184
G03 X 25.1227 Y 9.5543 Z -1.0000 I 0.1004 J -0.0051
G01 X 25.1247 Y 9.5598 Z -1.0000
G01 X 25.1221 Y 9.5735 Z -1.0000
G01 X 25.1280 Y 9.5826 Z -1.0000
G01 X 25.1338 Y 9.5809 Z -1.0000
G01 X 25.1357 Y 9.5673 Z -1.0000
G01 X 25.1289 Y 9.5445 Z -1.0000
G01 X 25.1235 Y 9.4570 Z -1.0000
G03 X 25.1262 Y 9.3749 Z -1.0000 I 0.6224 J -0.0207
G01 X 25.1322 Y 9.3694 Z -1.0000
G01 X 25.1372 Y 9.3657 Z -1.0000
G01 X 25.1359 Y 9.3565 Z -1.0000
G01 X 25.1361 Y 9.3479 Z -1.0000
G01 X 25.1449 Y 9.3431 Z -1.0000
G01 X 25.1476 Y 9.3390 Z -1.0000
G01 X 25.1389 Y 9.3293 Z -1.0000
G01 X 25.1252 Y 9.3110 Z -1.0000
G03 X 25.1195 Y 9.2519 Z -1.0000 I 0.1918 J -0.0482
G03 X 25.1272 Y 9.1923 Z -1.0000 I 0.3975 J 0.0214
G01 X 25.1327 Y 9.1879 Z -1.0000
G01 X 25.1391 Y 9.1846 Z -1.0000
G01 X 25.1424 Y 9.1741 Z -1.0000
G01 X 25.1388 Y 9.1670 Z -1.0000
G01 X 25.1322 Y 9.1667 Z -1.0000
G01 X 25.1261 Y 9.1650 Z -1.0000
G03 X 25.1194 Y 9.1416 Z -1.0000 I 0.0564 J -0.0287
G03 X 25.1225 Y 9.1153 Z -1.0000 I 0.0673 J -0.0054
