%
(Header)
(Generated by gcodetools from Inkscape.)
(Using default header. To add your own header create file "header" in the output dir.)
M3
(Header end.)
G21 (All units in mm)

(Start cutting path id: path2)
(Change tool to Default tool)

G00 Z5.000000
G00 X19.715997 Y1.633953

G01 Z-1.000000 F100.0(Penetrate)
G02 X19.721616 Y1.676737 Z-1.000000 I0.172321 J-0.000869 F3500.000000
G01 X19.727147 Y1.676553 Z-1.000000
G02 X19.732264 Y1.621295 Z-1.000000 I-0.276187 J-0.053444
G02 X19.726652 Y1.578523 Z-1.000000 I-0.174357 J0.001124
G01 X19.721130 Y1.578700 Z-1.000000
G02 X19.715992 Y1.633953 Z-1.000000 I0.279226 J0.053829
G01 X19.715997 Y1.633953 Z-1.000000
G00 Z5.000000

(End cutting path id: path2)


(Start cutting path id: path2)
(Change tool to Default tool)

G00 Z5.000000
G00 X19.738197 Y1.793256

G01 Z-1.000000 F100.0(Penetrate)
G02 X19.744156 Y1.823904 Z-1.000000 I0.081790 J0.000000 F3500.000000
G01 X19.750557 Y1.823896 Z-1.000000
G02 X19.756505 Y1.793261 Z-1.000000 I-0.075912 J-0.030635
G02 X19.750557 Y1.762626 Z-1.000000 I-0.081860 J-0.000000
G01 X19.744148 Y1.762626 Z-1.000000
G02 X19.738197 Y1.793266 Z-1.000000 I0.075904 J0.030640
G01 X19.738197 Y1.793256 Z-1.000000
G00 Z5.000000

(End cutting path id: path2)


(Start cutting path id: path2)
(Change tool to Default tool)

G00 Z5.000000
G00 X19.084858 Y2.773584

G01 Z-1.000000 F100.0(Penetrate)
G02 X19.101955 Y2.794579 Z-1.000000 I0.087908 J-0.054127 F3500.000000
G01 X19.110808 Y2.798094 Z-1.000000
G01 X19.117323 Y2.793857 Z-1.000000
G01 X19.121618 Y2.773584 Z-1.000000
G01 X19.114235 Y2.756456 Z-1.000000
G01 X19.095668 Y2.749074 Z-1.000000
G01 X19.083703 Y2.756872 Z-1.000000
G01 X19.084858 Y2.773584 Z-1.000000
G01 X19.084858 Y2.773584 Z-1.000000
G00 Z5.000000

(End cutting path id: path2)


(Start cutting path id: path2)
(Change tool to Default tool)

G00 Z5.000000
G00 X18.803014 Y3.092179

G01 Z-1.000000 F100.0(Penetrate)
G01 X18.810193 Y3.109510 Z-1.000000 F3500.000000
G01 X18.827524 Y3.116689 Z-1.000000
G01 X18.844855 Y3.109510 Z-1.000000
G01 X18.852034 Y3.092179 Z-1.000000
G01 X18.844855 Y3.074848 Z-1.000000
G01 X18.827524 Y3.067669 Z-1.000000
G01 X18.810193 Y3.074848 Z-1.000000
G01 X18.803014 Y3.092179 Z-1.000000
G01 X18.803014 Y3.092179 Z-1.000000
G00 Z5.000000

(End cutting path id: path2)


(Start cutting path id: path2)
(Change tool to Default tool)

G00 Z5.000000
G00 X18.549763 Y2.985986

G01 Z-1.000000 F100.0(Penetrate)
G02 X18.537855 Y3.004185 Z-1.000000 I0.037594 J0.037594 F3500.000000
G02 X18.533423 Y3.027646 Z-1.000000 I0.059880 J0.023461
G01 X18.541105 Y3.034411 Z-1.000000
G01 X18.562423 Y3.023946 Z-1.000000
G02 X18.581406 Y2.994942 Z-1.000000 I-0.059954 J-0.059954
G01 X18.578763 Y2.982286 Z-1.000000
G01 X18.566064 Y2.977959 Z-1.000000
G01 X18.549763 Y2.985986 Z-1.000000
G01 X18.549763 Y2.985986 Z-1.000000
G00 Z5.000000

(End cutting path id: path2)


(Start cutting path id: path2)
(Change tool to Default tool)

G00 Z5.000000
G00 X18.534170 Y3.348299

G01 Z-1.000000 F100.0(Penetrate)
G02 X18.545611 Y3.391622 Z-1.000000 I0.084447 J0.000871 F3500.000000
G01 X18.560470 Y3.393549 Z-1.000000
G01 X18.572654 Y3.364567 Z-1.000000
G02 X18.561216 Y3.321249 Z-1.000000 I-0.084453 J-0.000870
G01 X18.546347 Y3.319314 Z-1.000000
G01 X18.534166 Y3.348299 Z-1.000000
G01 X18.534170 Y3.348299 Z-1.000000
G00 Z5.000000

(End cutting path id: path2)


(Start cutting path id: path2)
(Change tool to Default tool)

G00 Z5.000000
G00 X18.121532 Y3.073379

G01 Z-1.000000 F100.0(Penetrate)
G03 X18.107718 Y3.124064 Z-1.000000 I-0.058705 J0.011226 F3500.000000
G03 X18.033572 Y3.173466 Z-1.000000 I-0.129195 J-0.113564
G02 X17.962213 Y3.226804 Z-1.000000 I0.045850 J0.135743
G02 X17.940402 Y3.305993 Z-1.000000 I0.099616 J0.070036
G03 X17.932030 Y3.394497 Z-1.000000 I-0.262325 J0.019834
G01 X17.909762 Y3.419153 Z-1.000000
G01 X17.882960 Y3.457815 Z-1.000000
G01 X17.909248 Y3.484313 Z-1.000000
G03 X17.978010 Y3.531910 Z-1.000000 I0.000000 J0.073468
G03 X17.962778 Y3.626589 Z-1.000000 I-0.090416 J0.034019
G01 X17.981506 Y3.649626 Z-1.000000
G02 X18.132876 Y3.539459 Z-1.000000 I-0.275061 J-0.537008
G03 X18.190968 Y3.491334 Z-1.000000 I0.286840 J0.287124
G01 X18.213696 Y3.484319 Z-1.000000
G01 X18.230476 Y3.475478 Z-1.000000
G02 X18.239316 Y3.446949 Z-1.000000 I-0.041616 J-0.028529
G02 X18.195796 Y3.379610 Z-1.000000 I-0.073857 J0.000000
G02 X18.082705 Y3.376389 Z-1.000000 I-0.060411 J0.134094
G01 X18.041772 Y3.355630 Z-1.000000
G03 X18.054755 Y3.273701 Z-1.000000 I0.097515 J-0.026540
G03 X18.101242 Y3.229858 Z-1.000000 I0.114988 J0.075357
G01 X18.137925 Y3.225911 Z-1.000000
G01 X18.174991 Y3.221434 Z-1.000000
G02 X18.234595 Y3.166851 Z-1.000000 I-0.110051 J-0.180012
G02 X18.261670 Y3.094882 Z-1.000000 I-0.113135 J-0.083638
G01 X18.241895 Y3.079111 Z-1.000000
G03 X18.199061 Y3.079102 Z-1.000000 I-0.021403 J-0.067408
G03 X18.152175 Y3.050561 Z-1.000000 I0.035135 J-0.110500
G01 X18.131002 Y3.049019 Z-1.000000
G01 X18.121525 Y3.073381 Z-1.000000
G01 X18.121532 Y3.073379 Z-1.000000
G00 Z5.000000

(End cutting path id: path2)


(Start cutting path id: path2)
(Change tool to Default tool)

G00 Z5.000000
G00 X17.357033 Y2.284866

G01 Z-1.000000 F100.0(Penetrate)
G01 X17.364831 Y2.296831 Z-1.000000 F3500.000000
G01 X17.381543 Y2.295676 Z-1.000000
G02 X17.402538 Y2.278579 Z-1.000000 I-0.054127 J-0.087908
G01 X17.406053 Y2.269726 Z-1.000000
G01 X17.401816 Y2.263211 Z-1.000000
G01 X17.381543 Y2.258916 Z-1.000000
G01 X17.364415 Y2.266299 Z-1.000000
G01 X17.357033 Y2.284866 Z-1.000000
G01 X17.357033 Y2.284866 Z-1.000000
G00 Z5.000000

(End cutting path id: path2)


(Start cutting path id: path2)
(Change tool to Default tool)

G00 Z5.000000
G00 X18.019971 Y1.952559

G01 Z-1.000000 F100.0(Penetrate)
G02 X18.022697 Y1.976657 Z-1.000000 I0.098259 J0.001086 F3500.000000
G02 X18.055391 Y2.099608 Z-1.000000 I2.629875 J-0.633479
G01 X18.091081 Y2.222149 Z-1.000000
G01 X18.076671 Y2.111862 Z-1.000000
G02 X18.037664 Y1.949606 Z-1.000000 I-0.781983 J0.102176
G01 X18.019981 Y1.952559 Z-1.000000
G01 X18.019971 Y1.952559 Z-1.000000
G00 Z5.000000

(End cutting path id: path2)


(Start cutting path id: path2)
(Change tool to Default tool)

G00 Z5.000000
G00 X19.827762 Y2.986389

G01 Z-1.000000 F100.0(Penetrate)
G02 X19.858383 Y2.991642 Z-1.000000 I0.027526 J-0.068582 F3500.000000
G01 X19.874732 Y2.984489 Z-1.000000
G01 X19.873181 Y2.976894 Z-1.000000
G02 X19.842562 Y2.971619 Z-1.000000 I-0.027567 J0.068516
G01 X19.826186 Y2.978807 Z-1.000000
G01 X19.827752 Y2.986429 Z-1.000000
G01 X19.827762 Y2.986389 Z-1.000000
G00 Z5.000000

(End cutting path id: path2)


(Start cutting path id: path2)
(Change tool to Default tool)

G00 Z5.000000
G00 X20.028422 Y3.037039

G01 Z-1.000000 F100.0(Penetrate)
G01 X20.039108 Y3.056992 Z-1.000000 F3500.000000
G02 X20.074442 Y3.067679 Z-1.000000 I0.035334 J-0.053067
G02 X20.116414 Y3.059058 Z-1.000000 I0.000000 J-0.106476
G02 X20.145882 Y3.037039 Z-1.000000 I-0.030942 J-0.072139
G01 X20.143324 Y3.019551 Z-1.000000
G02 X20.099862 Y3.006399 Z-1.000000 I-0.043462 J0.065237
G02 X20.040600 Y3.018568 Z-1.000000 I0.000000 J0.150387
G01 X20.028422 Y3.037039 Z-1.000000
G01 X20.028422 Y3.037039 Z-1.000000
G00 Z5.000000

(End cutting path id: path2)


(Start cutting path id: path2)
(Change tool to Default tool)

G00 Z5.000000
G00 X20.028422 Y3.190179

G01 Z-1.000000 F100.0(Penetrate)
G01 X20.037082 Y3.206025 Z-1.000000 F3500.000000
G02 X20.066632 Y3.214689 Z-1.000000 I0.029550 J-0.046058
G01 X20.088157 Y3.205385 Z-1.000000
G01 X20.089692 Y3.190179 Z-1.000000
G02 X20.071320 Y3.171478 Z-1.000000 I-0.050115 J0.030857
G01 X20.051482 Y3.165669 Z-1.000000
G01 X20.035382 Y3.172626 Z-1.000000
G01 X20.028422 Y3.190179 Z-1.000000
G01 X20.028422 Y3.190179 Z-1.000000
G00 Z5.000000

(End cutting path id: path2)


(Start cutting path id: path2)
(Change tool to Default tool)

G00 Z5.000000
G00 X20.255111 Y3.098279

G01 Z-1.000000 F100.0(Penetrate)
G01 X20.272127 Y3.121136 Z-1.000000 F3500.000000
G02 X20.311521 Y3.137869 Z-1.000000 I0.058930 J-0.083998
G01 X20.327988 Y3.129197 Z-1.000000
G01 X20.324871 Y3.107229 Z-1.000000
G02 X20.271756 Y3.078004 Z-1.000000 I-0.063681 J0.052859
G01 X20.255111 Y3.098229 Z-1.000000
G01 X20.255111 Y3.098279 Z-1.000000
G00 Z5.000000

(End cutting path id: path2)


(Start cutting path id: path2)
(Change tool to Default tool)

G00 Z5.000000
G00 X20.502246 Y3.164769

G01 Z-1.000000 F100.0(Penetrate)
G01 X20.516637 Y3.196969 Z-1.000000 F3500.000000
G01 X20.536466 Y3.195409 Z-1.000000
G03 X20.567403 Y3.175922 Z-1.000000 I0.044387 J0.036166
G01 X20.583436 Y3.184059 Z-1.000000
G02 X20.664118 Y3.246386 Z-1.000000 I0.094943 J-0.039518
G01 X20.714648 Y3.202439 Z-1.000000
G02 X20.677106 Y3.129705 Z-1.000000 I-0.089227 J-0.000000
G02 X20.559430 Y3.092153 Z-1.000000 I-0.117676 J0.165600
G01 X20.520929 Y3.110838 Z-1.000000
G02 X20.502240 Y3.164773 Z-1.000000 I0.068480 J0.053935
G01 X20.502246 Y3.164769 Z-1.000000
G00 Z5.000000

(End cutting path id: path2)


(Start cutting path id: path2)
(Change tool to Default tool)

G00 Z5.000000
G00 X20.592110 Y2.969646

G01 Z-1.000000 F100.0(Penetrate)
G01 X20.599493 Y2.986774 Z-1.000000 F3500.000000
G01 X20.618060 Y2.994156 Z-1.000000
G01 X20.630025 Y2.986358 Z-1.000000
G01 X20.628870 Y2.969646 Z-1.000000
G02 X20.611773 Y2.948651 Z-1.000000 I-0.087908 J0.054127
G01 X20.602920 Y2.945136 Z-1.000000
G01 X20.596405 Y2.949373 Z-1.000000
G01 X20.592110 Y2.969646 Z-1.000000
G01 X20.592110 Y2.969646 Z-1.000000
G00 Z5.000000

(End cutting path id: path2)


(Start cutting path id: path2)
(Change tool to Default tool)

G00 Z5.000000
G00 X20.744770 Y3.219269

G01 Z-1.000000 F100.0(Penetrate)
G02 X20.786578 Y3.262168 Z-1.000000 I0.065211 J-0.021731 F3500.000000
G01 X20.812680 Y3.243859 Z-1.000000
G01 X20.804968 Y3.225235 Z-1.000000
G02 X20.773870 Y3.205039 Z-1.000000 I-0.063002 J0.062972
G01 X20.750305 Y3.206070 Z-1.000000
G01 X20.744770 Y3.219269 Z-1.000000
G01 X20.744770 Y3.219269 Z-1.000000
G00 Z5.000000

(End cutting path id: path2)


(Start cutting path id: path2)
(Change tool to Default tool)

G00 Z5.000000
G00 X20.657131 Y3.384679

G01 Z-1.000000 F100.0(Penetrate)
G01 X20.640350 Y3.405887 Z-1.000000 F3500.000000
G01 X20.651631 Y3.433839 Z-1.000000
G01 X20.694539 Y3.438636 Z-1.000000
G01 X20.710721 Y3.403819 Z-1.000000
G01 X20.693607 Y3.384673 Z-1.000000
G02 X20.657161 Y3.384669 Z-1.000000 I-0.018228 J0.050951
G01 X20.657131 Y3.384679 Z-1.000000
G00 Z5.000000

(End cutting path id: path2)


(Start cutting path id: path2)
(Change tool to Default tool)

G00 Z5.000000
G00 X20.705099 Y3.651519

G01 Z-1.000000 F100.0(Penetrate)
G01 X20.713897 Y3.709860 Z-1.000000 F3500.000000
G02 X20.789229 Y3.724979 Z-1.000000 I0.050877 J-0.058267
G01 X20.795459 Y3.711482 Z-1.000000
G02 X20.767979 Y3.672049 Z-1.000000 I-0.099273 J0.039890
G02 X20.721952 Y3.645353 Z-1.000000 I-0.085649 J0.094643
G01 X20.705099 Y3.651519 Z-1.000000
G01 X20.705099 Y3.651519 Z-1.000000
G00 Z5.000000

(End cutting path id: path2)


(Start cutting path id: path2)
(Change tool to Default tool)

G00 Z5.000000
G00 X20.812683 Y3.851961

G01 Z-1.000000 F100.0(Penetrate)
G01 X20.822120 Y3.867035 Z-1.000000 F3500.000000
G02 X20.863143 Y3.876471 Z-1.000000 I0.041023 J-0.084461
G02 X20.895465 Y3.866356 Z-1.000000 I0.000000 J-0.056699
G01 X20.898463 Y3.851961 Z-1.000000
G01 X20.879324 Y3.834649 Z-1.000000
G02 X20.848003 Y3.827451 Z-1.000000 I-0.031321 J0.064548
G01 X20.821104 Y3.835868 Z-1.000000
G01 X20.812683 Y3.851961 Z-1.000000
G01 X20.812683 Y3.851961 Z-1.000000
G00 Z5.000000

(End cutting path id: path2)


(Start cutting path id: path2)
(Change tool to Default tool)

G00 Z5.000000
G00 X20.702396 Y3.949951

G01 Z-1.000000 F100.0(Penetrate)
G02 X20.720879 Y3.968454 Z-1.000000 I0.048237 J-0.029701 F3500.000000
G01 X20.742046 Y3.974461 Z-1.000000
G01 X20.753026 Y3.966907 Z-1.000000
G01 X20.751446 Y3.949951 Z-1.000000
G02 X20.732963 Y3.931448 Z-1.000000 I-0.048237 J0.029701
G01 X20.711796 Y3.925441 Z-1.000000
G01 X20.700816 Y3.932995 Z-1.000000
G01 X20.702396 Y3.949951 Z-1.000000
G01 X20.702396 Y3.949951 Z-1.000000
G00 Z5.000000

(End cutting path id: path2)


(Start cutting path id: path2)
(Change tool to Default tool)

G00 Z5.000000
G00 X20.698630 Y4.156171

G01 Z-1.000000 F100.0(Penetrate)
G01 X20.714034 Y4.171862 Z-1.000000 F3500.000000
G01 X20.742220 Y4.173191 Z-1.000000
G03 X20.807978 Y4.164386 Z-1.000000 I0.063211 J0.222132
G03 X20.877851 Y4.174691 Z-1.000000 I-0.002885 J0.261614
G01 X20.898798 Y4.172471 Z-1.000000
G01 X20.908221 Y4.158281 Z-1.000000
G01 X20.898486 Y4.144558 Z-1.000000
G02 X20.799683 Y4.131661 Z-1.000000 I-0.107367 J0.437611
G02 X20.706215 Y4.141918 Z-1.000000 I-0.006820 J0.368865
G01 X20.698624 Y4.156171 Z-1.000000
G01 X20.698630 Y4.156171 Z-1.000000
G00 Z5.000000

(End cutting path id: path2)


(Start cutting path id: path2)
(Change tool to Default tool)

G00 Z5.000000
G00 X20.622733 Y4.348172

G01 Z-1.000000 F100.0(Penetrate)
G01 X20.639694 Y4.371095 Z-1.000000 F3500.000000
G02 X20.678183 Y4.387572 Z-1.000000 I0.057300 J-0.080659
G01 X20.690796 Y4.379025 Z-1.000000
G01 X20.683983 Y4.356942 Z-1.000000
G02 X20.635565 Y4.332716 Z-1.000000 I-0.060581 J0.060581
G01 X20.622683 Y4.348142 Z-1.000000
G01 X20.622733 Y4.348172 Z-1.000000
G00 Z5.000000

(End cutting path id: path2)


(Start cutting path id: path2)
(Change tool to Default tool)

G00 Z5.000000
G00 X20.814394 Y4.372522

G01 Z-1.000000 F100.0(Penetrate)
G03 X20.836479 Y4.452106 Z-1.000000 I-4.598231 J1.318889 F3500.000000
G01 X20.837194 Y4.457532 Z-1.000000
G01 X20.856300 Y4.469522 Z-1.000000
G02 X20.951720 Y4.402202 Z-1.000000 I-0.155045 J-0.321046
G01 X20.953010 Y4.378456 Z-1.000000
G02 X20.895740 Y4.333432 Z-1.000000 I-0.128831 J0.104936
G02 X20.831888 Y4.333528 Z-1.000000 I-0.031826 J0.066746
G01 X20.814390 Y4.372522 Z-1.000000
G01 X20.814394 Y4.372522 Z-1.000000
G00 Z5.000000

(End cutting path id: path2)


(Start cutting path id: path2)
(Change tool to Default tool)

G00 Z5.000000
G00 X20.935224 Y4.206141

G01 Z-1.000000 F100.0(Penetrate)
G01 X20.939817 Y4.214328 Z-1.000000 F3500.000000
G02 X21.016764 Y4.255941 Z-1.000000 I0.434006 J-0.710574
G02 X21.098958 Y4.279911 Z-1.000000 I0.115659 J-0.243697
G02 X21.155864 Y4.273341 Z-1.000000 I0.014991 J-0.119899
G01 X21.159359 Y4.254959 Z-1.000000
G02 X21.100234 Y4.223541 Z-1.000000 I-0.093286 J0.104211
G02 X20.946284 Y4.196186 Z-1.000000 I-0.269811 J1.071578
G01 X20.935224 Y4.206141 Z-1.000000
G01 X20.935224 Y4.206141 Z-1.000000
G00 Z5.000000

(End cutting path id: path2)


(Start cutting path id: path2)
(Change tool to Default tool)

G00 Z5.000000
G00 X20.746103 Y4.685165

G01 Z-1.000000 F100.0(Penetrate)
G01 X20.776304 Y4.696439 Z-1.000000 F3500.000000
G01 X20.781413 Y4.715805 Z-1.000000
G01 X20.762540 Y4.734182 Z-1.000000
G03 X20.702863 Y4.741415 Z-1.000000 I-0.048163 J-0.147570
G03 X20.640617 Y4.714154 Z-1.000000 I0.007576 J-0.101992
G01 X20.631543 Y4.674775 Z-1.000000
G01 X20.652191 Y4.654317 Z-1.000000
G01 X20.673783 Y4.659015 Z-1.000000
G02 X20.703072 Y4.677633 Z-1.000000 I0.056439 J-0.056439
G02 X20.746093 Y4.685175 Z-1.000000 I0.043021 J-0.118933
G01 X20.746103 Y4.685165 Z-1.000000
G00 Z5.000000

(End cutting path id: path2)


(Start cutting path id: path2)
(Change tool to Default tool)

G00 Z5.000000
G00 X20.977600 Y4.748962

G01 Z-1.000000 F100.0(Penetrate)
G01 X20.961288 Y4.756122 Z-1.000000 F3500.000000
G03 X20.930630 Y4.750862 Z-1.000000 I-0.003096 J-0.073933
G01 X20.929061 Y4.743239 Z-1.000000
G01 X20.945440 Y4.736052 Z-1.000000
G03 X20.976035 Y4.741277 Z-1.000000 I0.003141 J0.073793
G01 X20.977610 Y4.748922 Z-1.000000
G01 X20.977600 Y4.748962 Z-1.000000
G00 Z5.000000

(End cutting path id: path2)


(Start cutting path id: path2)
(Change tool to Default tool)

G00 Z5.000000
G00 X21.155797 Y4.746435

G01 Z-1.000000 F100.0(Penetrate)
G01 X21.132101 Y4.775400 Z-1.000000 F3500.000000
G03 X21.047515 Y4.768325 Z-1.000000 I-0.030124 J-0.149026
G01 X21.036239 Y4.735905 Z-1.000000
G03 X21.082275 Y4.709675 Z-1.000000 I0.046036 J0.027282
G03 X21.141754 Y4.723716 Z-1.000000 I0.000000 J0.132999
G01 X21.155795 Y4.746435 Z-1.000000
G01 X21.155797 Y4.746435 Z-1.000000
G00 Z5.000000

(End cutting path id: path2)


(Start cutting path id: path2)
(Change tool to Default tool)

G00 Z5.000000
G00 X22.001326 Y4.856682

G01 Z-1.000000 F100.0(Penetrate)
G01 X22.004259 Y4.871105 Z-1.000000 F3500.000000
G02 X22.035876 Y4.881192 Z-1.000000 I0.031617 J-0.044507
G01 X22.066618 Y4.894216 Z-1.000000
G01 X22.071466 Y4.917952 Z-1.000000
G01 X22.078053 Y4.940500 Z-1.000000
G02 X22.121246 Y4.954712 Z-1.000000 I0.043193 J-0.058530
G02 X22.175151 Y4.944727 Z-1.000000 I-0.000000 J-0.150495
G01 X22.185136 Y4.930202 Z-1.000000
G01 X22.176593 Y4.914237 Z-1.000000
G02 X22.148376 Y4.905692 Z-1.000000 I-0.028217 J0.042315
G03 X22.119577 Y4.897787 Z-1.000000 I-0.000000 J-0.056412
G01 X22.111616 Y4.883802 Z-1.000000
G01 X22.139254 Y4.845706 Z-1.000000
G03 X22.221903 Y4.847812 Z-1.000000 I0.038358 J0.117494
G03 X22.249308 Y4.868372 Z-1.000000 I-0.022664 J0.058753
G01 X22.258663 Y4.896062 Z-1.000000
G01 X22.282343 Y4.918536 Z-1.000000
G02 X22.342693 Y4.891662 Z-1.000000 I-0.004814 J-0.092010
G01 X22.370050 Y4.880073 Z-1.000000
G01 X22.381203 Y4.891049 Z-1.000000
G01 X22.396131 Y4.911629 Z-1.000000
G02 X22.460853 Y4.917069 Z-1.000000 I0.043883 J-0.134365
G03 X22.508904 Y4.914845 Z-1.000000 I0.034995 J0.235863
G01 X22.509873 Y4.919769 Z-1.000000
G02 X22.477945 Y4.966502 Z-1.000000 I0.024069 J0.050717
G02 X22.503073 Y5.015569 Z-1.000000 I0.053094 J0.003777
G01 X22.526744 Y5.018662 Z-1.000000
G02 X22.588853 Y4.989689 Z-1.000000 I-0.069891 J-0.230883
G03 X22.635521 Y4.977807 Z-1.000000 I0.040635 J0.062011
G01 X22.651363 Y4.994789 Z-1.000000
G01 X22.664517 Y5.004377 Z-1.000000
G02 X22.701793 Y4.979229 Z-1.000000 I-0.022837 J-0.074051
G01 X22.751673 Y4.917959 Z-1.000000
G01 X22.735623 Y5.003739 Z-1.000000
G02 X22.741607 Y5.039763 Z-1.000000 I0.052395 J0.009805
G01 X22.756543 Y5.040769 Z-1.000000
G02 X22.783857 Y4.991565 Z-1.000000 I-0.158097 J-0.119943
G01 X22.782163 Y4.973649 Z-1.000000
G01 X22.785204 Y4.967182 Z-1.000000
G01 X22.808843 Y4.969849 Z-1.000000
G01 X22.836992 Y5.004860 Z-1.000000
G01 X22.819753 Y5.042089 Z-1.000000
G01 X22.811990 Y5.059044 Z-1.000000
G01 X22.825853 Y5.080299 Z-1.000000
G01 X22.836592 Y5.101916 Z-1.000000
G01 X22.822353 Y5.126249 Z-1.000000
G01 X22.808871 Y5.150565 Z-1.000000
G01 X22.820953 Y5.173499 Z-1.000000
G01 X22.853572 Y5.178646 Z-1.000000
G02 X22.890353 Y5.155119 Z-1.000000 I-0.018266 J-0.069070
G01 X22.906054 Y5.147826 Z-1.000000
G01 X22.911513 Y5.155321 Z-1.000000
G02 X22.937617 Y5.294549 Z-1.000000 I0.144323 J0.045002
G02 X23.026485 Y5.299555 Z-1.000000 I0.046670 J-0.037198
G01 X23.060337 Y5.290818 Z-1.000000
G01 X23.066585 Y5.311095 Z-1.000000
G02 X23.052273 Y5.348102 Z-1.000000 I0.047999 J0.039834
G01 X23.063585 Y5.377265 Z-1.000000
G03 X23.099711 Y5.460553 Z-1.000000 I-0.087380 J0.087380
G01 X23.067485 Y5.493865 Z-1.000000
G01 X23.052070 Y5.502879 Z-1.000000
G02 X23.043355 Y5.536755 Z-1.000000 I0.059133 J0.033272
G01 X23.052326 Y5.549546 Z-1.000000
G01 X23.065635 Y5.545055 Z-1.000000
G01 X23.090109 Y5.533470 Z-1.000000
G03 X23.130095 Y5.552955 Z-1.000000 I-0.008321 J0.067847
G02 X23.170265 Y5.575081 Z-1.000000 I0.058280 J-0.058280
G01 X23.190525 Y5.566565 Z-1.000000
G01 X23.208408 Y5.557187 Z-1.000000
G01 X23.227465 Y5.568465 Z-1.000000
G01 X23.230426 Y5.596157 Z-1.000000
G03 X23.206025 Y5.628925 Z-1.000000 I-0.065228 J-0.023104
G01 X23.197446 Y5.661189 Z-1.000000
G01 X23.226785 Y5.675455 Z-1.000000
G01 X23.256569 Y5.696747 Z-1.000000
G03 X23.232885 Y5.748295 Z-1.000000 I-0.057460 J0.004815
G02 X23.208784 Y5.776690 Z-1.000000 I0.045692 J0.063207
G01 X23.214505 Y5.785145 Z-1.000000
G03 X23.336191 Y5.799952 Z-1.000000 I0.024778 J0.303800
G03 X23.374380 Y5.838755 Z-1.000000 I-0.019116 J0.057008
G03 X23.374045 Y5.884615 Z-1.000000 I-0.070667 J0.022415
G03 X23.345400 Y5.925805 Z-1.000000 I-0.084390 J-0.028132
G01 X23.341133 Y5.941193 Z-1.000000
G01 X23.353400 Y5.947505 Z-1.000000
G01 X23.384879 Y5.954844 Z-1.000000
G01 X23.393430 Y5.982995 Z-1.000000
G03 X23.374122 Y6.024946 Z-1.000000 I-0.128035 J-0.033510
G01 X23.358700 Y6.033015 Z-1.000000
G01 X23.329564 Y6.067873 Z-1.000000
G02 X23.374840 Y6.122585 Z-1.000000 I0.071206 J-0.012836
G01 X23.396013 Y6.146677 Z-1.000000
G03 X23.399050 Y6.222587 Z-1.000000 I-0.188126 J0.045543
G02 X23.403254 Y6.286157 Z-1.000000 I0.141816 J0.022545
G01 X23.420500 Y6.294637 Z-1.000000
G01 X23.449198 Y6.295425 Z-1.000000
G01 X23.469050 Y6.316407 Z-1.000000
G01 X23.468221 Y6.341898 Z-1.000000
G01 X23.452700 Y6.351997 Z-1.000000
G01 X23.446944 Y6.359188 Z-1.000000
G01 X23.457400 Y6.374237 Z-1.000000
G03 X23.480910 Y6.402940 Z-1.000000 I-0.031539 J0.049813
G03 X23.501500 Y6.489218 Z-1.000000 I-0.314830 J0.120730
G02 X23.518883 Y6.579053 Z-1.000000 I0.517732 J-0.053583
G02 X23.537350 Y6.614024 Z-1.000000 I0.092622 J-0.026549
G01 X23.544463 Y6.636699 Z-1.000000
G01 X23.534650 Y6.645714 Z-1.000000
G01 X23.520831 Y6.654152 Z-1.000000
G01 X23.521510 Y6.671304 Z-1.000000
G01 X23.525199 Y6.696728 Z-1.000000
G03 X23.498450 Y6.756224 Z-1.000000 I-0.201356 J-0.054769
G02 X23.482133 Y6.838566 Z-1.000000 I0.093613 J0.061338
G02 X23.522310 Y6.881106 Z-1.000000 I0.053416 J-0.010206
G03 X23.566230 Y6.906626 Z-1.000000 I-0.022324 J0.088973
G01 X23.571410 Y6.932366 Z-1.000000
G02 X23.567718 Y6.967246 Z-1.000000 I0.063396 J0.024346
G02 X23.585050 Y7.018836 Z-1.000000 I0.160426 J-0.025190
G01 X23.587357 Y7.047771 Z-1.000000
G01 X23.572710 Y7.054596 Z-1.000000
G01 X23.556130 Y7.065749 Z-1.000000
G02 X23.571710 Y7.104436 Z-1.000000 I0.053156 J0.001074
G03 X23.589194 Y7.140551 Z-1.000000 I-0.043208 J0.043208
G01 X23.578510 Y7.162636 Z-1.000000
G01 X23.571875 Y7.179905 Z-1.000000
G01 X23.588950 Y7.198456 Z-1.000000
G01 X23.613103 Y7.234023 Z-1.000000
G01 X23.588264 Y7.258796 Z-1.000000
G01 X23.574849 Y7.267571 Z-1.000000
G01 X23.578664 Y7.280246 Z-1.000000
G03 X23.613117 Y7.358122 Z-1.000000 I-0.040981 J0.064690
G03 X23.556774 Y7.405471 Z-1.000000 I-0.056343 J-0.009849
G01 X23.546511 Y7.413604 Z-1.000000
G01 X23.548374 Y7.441211 Z-1.000000
G01 X23.543292 Y7.467182 Z-1.000000
G03 X23.500354 Y7.492441 Z-1.000000 I-0.064442 J-0.060420
G03 X23.388181 Y7.479419 Z-1.000000 I-0.038867 J-0.154837
G03 X23.264920 Y7.370733 Z-1.000000 I0.155209 J-0.300263
G03 X23.219873 Y7.257834 Z-1.000000 I0.226430 J-0.155783
G03 X23.203230 Y6.980188 Z-1.000000 I1.421325 J-0.224520
G02 X23.195034 Y6.697672 Z-1.000000 I-2.138726 J-0.079328
G02 X23.163160 Y6.559339 Z-1.000000 I-0.539376 J0.051440
G02 X22.970676 Y6.232940 Z-1.000000 I-1.020313 J0.381744
G02 X22.870594 Y6.217323 Z-1.000000 I-0.059156 J0.050603
G01 X22.855574 Y6.216389 Z-1.000000
G01 X22.846884 Y6.198183 Z-1.000000
G02 X22.793346 Y6.056422 Z-1.000000 I-0.214452 J0.000000
G02 X22.625629 Y5.947028 Z-1.000000 I-0.281004 J0.247558
G03 X22.584209 Y5.926637 Z-1.000000 I0.046132 J-0.145975
G01 X22.577289 Y5.913378 Z-1.000000
G02 X22.406573 Y5.515126 Z-1.000000 I-0.549885 J-0.000000
G02 X22.128649 Y5.486216 Z-1.000000 I-0.157695 J0.165632
G01 X22.121418 Y5.484089 Z-1.000000
G01 X22.122049 Y5.472386 Z-1.000000
G01 X22.120752 Y5.433152 Z-1.000000
G02 X21.921007 Y5.190623 Z-1.000000 I-1.848301 J1.318726
G03 X21.878063 Y5.138334 Z-1.000000 I0.348150 J-0.329713
G01 X21.881307 Y5.134653 Z-1.000000
G01 X21.894282 Y5.128082 Z-1.000000
G02 X21.896667 Y5.028390 Z-1.000000 I-0.412968 J-0.059756
G03 X21.916200 Y4.866959 Z-1.000000 I0.377225 J-0.036254
G03 X21.965307 Y4.832117 Z-1.000000 I0.049107 J0.017185
G03 X21.998327 Y4.842271 Z-1.000000 I-0.000000 J0.058765
G01 X22.001387 Y4.856627 Z-1.000000
G01 X22.001326 Y4.856682 Z-1.000000
G00 Z5.000000

(End cutting path id: path2)


(Start cutting path id: path2)
(Change tool to Default tool)

G00 Z5.000000
G00 X22.178499 Y4.773472

G01 Z-1.000000 F100.0(Penetrate)
G01 X22.162187 Y4.780632 Z-1.000000 F3500.000000
G03 X22.131529 Y4.775372 Z-1.000000 I-0.003096 J-0.073933
G01 X22.129960 Y4.767749 Z-1.000000
G01 X22.146339 Y4.760562 Z-1.000000
G03 X22.176934 Y4.765787 Z-1.000000 I0.003141 J0.073793
G01 X22.178509 Y4.773432 Z-1.000000
G01 X22.178499 Y4.773472 Z-1.000000
G00 Z5.000000

(End cutting path id: path2)


(Start cutting path id: path2)
(Change tool to Default tool)

G00 Z5.000000
G00 X22.768341 Y4.855582

G01 Z-1.000000 F100.0(Penetrate)
G03 X22.737543 Y4.895734 Z-1.000000 I-0.223393 J-0.139462 F3500.000000
G01 X22.730791 Y4.895852 Z-1.000000
G01 X22.722156 Y4.840630 Z-1.000000
G03 X22.776161 Y4.807682 Z-1.000000 I0.054005 J0.027785
G01 X22.783238 Y4.816012 Z-1.000000
G03 X22.768361 Y4.855582 Z-1.000000 I-0.106420 J-0.017427
G01 X22.768341 Y4.855582 Z-1.000000
G00 Z5.000000

(End cutting path id: path2)


(Start cutting path id: path2)
(Change tool to Default tool)

G00 Z5.000000
G00 X22.934802 Y5.021988

G01 Z-1.000000 F100.0(Penetrate)
G01 X22.912631 Y5.017226 Z-1.000000 F3500.000000
G03 X22.912952 Y4.964348 Z-1.000000 I0.068662 J-0.026024
G01 X22.928063 Y4.953389 Z-1.000000
G01 X22.940202 Y4.962748 Z-1.000000
G03 X22.942502 Y5.005544 Z-1.000000 I-0.143852 J0.029191
G01 X22.934802 Y5.021978 Z-1.000000
G01 X22.934802 Y5.021988 Z-1.000000
G00 Z5.000000

(End cutting path id: path2)


(Start cutting path id: path2)
(Change tool to Default tool)

G00 Z5.000000
G00 X23.533088 Y4.574875

G01 Z-1.000000 F100.0(Penetrate)
G01 X23.522538 Y4.601083 Z-1.000000 F3500.000000
G01 X23.497768 Y4.611635 Z-1.000000
G03 X23.450030 Y4.588513 Z-1.000000 I-0.000000 J-0.060843
G01 X23.452058 Y4.553785 Z-1.000000
G03 X23.505548 Y4.539248 Z-1.000000 I0.039439 J0.039439
G01 X23.533088 Y4.574875 Z-1.000000
G01 X23.533088 Y4.574875 Z-1.000000
G00 Z5.000000

(End cutting path id: path2)


(Start cutting path id: path2)
(Change tool to Default tool)

G00 Z5.000000
G00 X23.214482 Y4.219541

G01 Z-1.000000 F100.0(Penetrate)
G01 X23.221661 Y4.236872 Z-1.000000 F3500.000000
G01 X23.238992 Y4.244051 Z-1.000000
G01 X23.256323 Y4.236872 Z-1.000000
G01 X23.263502 Y4.219541 Z-1.000000
G01 X23.256323 Y4.202210 Z-1.000000
G01 X23.238992 Y4.195031 Z-1.000000
G01 X23.221661 Y4.202210 Z-1.000000
G01 X23.214482 Y4.219541 Z-1.000000
G01 X23.214482 Y4.219541 Z-1.000000
G00 Z5.000000

(End cutting path id: path2)


(Start cutting path id: path2)
(Change tool to Default tool)

G00 Z5.000000
G00 X23.238990 Y4.133771

G01 Z-1.000000 F100.0(Penetrate)
G01 X23.248766 Y4.161061 Z-1.000000 F3500.000000
G01 X23.265340 Y4.165831 Z-1.000000
G01 X23.285064 Y4.152288 Z-1.000000
G01 X23.291690 Y4.133771 Z-1.000000
G01 X23.285058 Y4.115264 Z-1.000000
G01 X23.265340 Y4.101711 Z-1.000000
G01 X23.248767 Y4.106499 Z-1.000000
G01 X23.238990 Y4.133771 Z-1.000000
G01 X23.238990 Y4.133771 Z-1.000000
G00 Z5.000000

(End cutting path id: path2)


(Start cutting path id: path2)
(Change tool to Default tool)

G00 Z5.000000
G00 X23.475903 Y3.990801

G01 Z-1.000000 F100.0(Penetrate)
G02 X23.463998 Y4.008992 Z-1.000000 I0.037592 J0.037592 F3500.000000
G02 X23.459563 Y4.032461 Z-1.000000 I0.059875 J0.023469
G01 X23.467245 Y4.039226 Z-1.000000
G01 X23.488563 Y4.028761 Z-1.000000
G02 X23.507546 Y3.999757 Z-1.000000 I-0.059954 J-0.059954
G01 X23.504903 Y3.987101 Z-1.000000
G01 X23.492204 Y3.982774 Z-1.000000
G01 X23.475903 Y3.990801 Z-1.000000
G01 X23.475903 Y3.990801 Z-1.000000
G00 Z5.000000

(End cutting path id: path2)


(Start cutting path id: path2)
(Change tool to Default tool)

G00 Z5.000000
G00 X22.650795 Y3.923963

G01 Z-1.000000 F100.0(Penetrate)
G01 X22.625024 Y3.954852 Z-1.000000 F3500.000000
G03 X22.577045 Y3.937393 Z-1.000000 I-0.009062 J-0.049751
G01 X22.575243 Y3.914279 Z-1.000000
G01 X22.598775 Y3.900903 Z-1.000000
G03 X22.641708 Y3.909994 Z-1.000000 I-0.000000 J0.105926
G01 X22.650795 Y3.923963 Z-1.000000
G01 X22.650795 Y3.923963 Z-1.000000
G00 Z5.000000

(End cutting path id: path2)


(Start cutting path id: path2)
(Change tool to Default tool)

G00 Z5.000000
G00 X22.368951 Y3.508849

G01 Z-1.000000 F100.0(Penetrate)
G02 X22.386048 Y3.529844 Z-1.000000 I0.087908 J-0.054127 F3500.000000
G01 X22.394901 Y3.533359 Z-1.000000
G01 X22.401416 Y3.529122 Z-1.000000
G01 X22.405711 Y3.508849 Z-1.000000
G01 X22.398328 Y3.491721 Z-1.000000
G01 X22.379761 Y3.484339 Z-1.000000
G01 X22.367794 Y3.492141 Z-1.000000
G01 X22.368951 Y3.508849 Z-1.000000
G01 X22.368951 Y3.508849 Z-1.000000
G00 Z5.000000

(End cutting path id: path2)


(Start cutting path id: path2)
(Change tool to Default tool)

G00 Z5.000000
G00 X22.087107 Y3.611439

G01 Z-1.000000 F100.0(Penetrate)
G02 X22.133289 Y3.699632 Z-1.000000 I0.107301 J-0.000000 F3500.000000
G02 X22.205041 Y3.693179 Z-1.000000 I0.032012 J-0.046193
G01 X22.209262 Y3.638894 Z-1.000000
G02 X22.127371 Y3.586700 Z-1.000000 I-0.107604 J0.078487
G01 X22.097965 Y3.591997 Z-1.000000
G01 X22.087111 Y3.611440 Z-1.000000
G01 X22.087107 Y3.611439 Z-1.000000
G00 Z5.000000

(End cutting path id: path2)


(Start cutting path id: path2)
(Change tool to Default tool)

G00 Z5.000000
G00 X22.038091 Y3.143459

G01 Z-1.000000 F100.0(Penetrate)
G01 X22.046801 Y3.156965 Z-1.000000 F3500.000000
G02 X22.087111 Y3.165669 Z-1.000000 I0.040310 J-0.088997
G02 X22.131855 Y3.161439 Z-1.000000 I0.000000 J-0.238732
G01 X22.136131 Y3.156269 Z-1.000000
G01 X22.132062 Y3.149966 Z-1.000000
G02 X22.087111 Y3.134059 Z-1.000000 I-0.116553 J0.257906
G02 X22.046951 Y3.132747 Z-1.000000 I-0.022995 J0.088563
G01 X22.038091 Y3.143459 Z-1.000000
G01 X22.038091 Y3.143459 Z-1.000000
G00 Z5.000000

(End cutting path id: path2)


(Start cutting path id: path2)
(Change tool to Default tool)

G00 Z5.000000
G00 X21.866534 Y3.120349

G01 Z-1.000000 F100.0(Penetrate)
G01 X21.901656 Y3.166150 Z-1.000000 F3500.000000
G02 X21.989255 Y3.153309 Z-1.000000 I0.028945 J-0.107758
G01 X22.003164 Y3.135152 Z-1.000000
G01 X22.000515 Y3.115339 Z-1.000000
G02 X21.915173 Y3.069839 Z-1.000000 I-0.081733 J0.050517
G02 X21.866535 Y3.120339 Z-1.000000 I0.001898 J0.050500
G01 X21.866534 Y3.120349 Z-1.000000
G00 Z5.000000

(End cutting path id: path2)


(Start cutting path id: path2)
(Change tool to Default tool)

G00 Z5.000000
G00 X22.283172 Y3.141059

G01 Z-1.000000 F100.0(Penetrate)
G01 X22.272818 Y3.154813 Z-1.000000 F3500.000000
G03 X22.237062 Y3.154329 Z-1.000000 I-0.017077 J-0.059340
G02 X22.198498 Y3.155378 Z-1.000000 I-0.017767 J0.056197
G01 X22.176562 Y3.177189 Z-1.000000
G01 X22.178081 Y3.203741 Z-1.000000
G01 X22.196162 Y3.214679 Z-1.000000
G03 X22.229618 Y3.217667 Z-1.000000 I0.000000 J0.188783
G03 X22.262792 Y3.226679 Z-1.000000 I-0.035019 J0.194477
G02 X22.294482 Y3.229932 Z-1.000000 I0.022214 J-0.060415
G02 X22.330042 Y3.216649 Z-1.000000 I-0.013419 J-0.090164
G01 X22.341992 Y3.192133 Z-1.000000
G02 X22.323942 Y3.153889 Z-1.000000 I-0.062403 J0.006071
G02 X22.292069 Y3.134555 Z-1.000000 I-0.055414 J0.055414
G01 X22.283202 Y3.141059 Z-1.000000
G01 X22.283172 Y3.141059 Z-1.000000
G00 Z5.000000

(End cutting path id: path2)


(Start cutting path id: path2)
(Change tool to Default tool)

G00 Z5.000000
G00 X22.503746 Y3.028049

G01 Z-1.000000 F100.0(Penetrate)
G01 X22.545449 Y3.074808 Z-1.000000 F3500.000000
G02 X22.615454 Y3.040859 Z-1.000000 I0.008268 J-0.072103
G01 X22.611650 Y3.028425 Z-1.000000
G02 X22.566464 Y3.018649 Z-1.000000 I-0.045186 J0.099540
G02 X22.508118 Y3.022974 Z-1.000000 I0.000000 J0.395684
G01 X22.503744 Y3.028049 Z-1.000000
G01 X22.503746 Y3.028049 Z-1.000000
G00 Z5.000000

(End cutting path id: path2)


(Start cutting path id: path2)
(Change tool to Default tool)

G00 Z5.000000
G00 X22.646199 Y2.912866

G01 Z-1.000000 F100.0(Penetrate)
G02 X22.676820 Y2.918119 Z-1.000000 I0.027526 J-0.068582 F3500.000000
G01 X22.693169 Y2.910966 Z-1.000000
G01 X22.691618 Y2.903371 Z-1.000000
G02 X22.660999 Y2.898096 Z-1.000000 I-0.027567 J0.068516
G01 X22.644623 Y2.905284 Z-1.000000
G01 X22.646189 Y2.912906 Z-1.000000
G01 X22.646199 Y2.912866 Z-1.000000
G00 Z5.000000

(End cutting path id: path2)


(Start cutting path id: path2)
(Change tool to Default tool)

G00 Z5.000000
G00 X22.822352 Y3.022029

G01 Z-1.000000 F100.0(Penetrate)
G01 X22.813241 Y3.034064 Z-1.000000 F3500.000000
G03 X22.747382 Y3.043169 Z-1.000000 I-0.065859 J-0.233624
G02 X22.691981 Y3.054078 Z-1.000000 I0.000000 J0.146127
G01 X22.687562 Y3.067679 Z-1.000000
G02 X22.737966 Y3.094554 Z-1.000000 I0.048275 J-0.029836
G02 X22.850400 Y3.061579 Z-1.000000 I-0.008962 J-0.238721
G03 X22.895724 Y3.049197 Z-1.000000 I0.045324 J0.076760
G01 X22.913380 Y3.061579 Z-1.000000
G02 X22.961427 Y3.098752 Z-1.000000 I0.053358 J-0.019329
G01 X22.993910 Y3.069179 Z-1.000000
G01 X22.987960 Y3.049436 Z-1.000000
G02 X22.968000 Y3.030109 Z-1.000000 I-0.054006 J0.035804
G02 X22.852300 Y2.993767 Z-1.000000 I-0.129233 J0.209084
G01 X22.822352 Y3.022109 Z-1.000000
G01 X22.822352 Y3.022029 Z-1.000000
G00 Z5.000000

(End cutting path id: path2)


(Start cutting path id: path2)
(Change tool to Default tool)

G00 Z5.000000
G00 X22.805411 Y3.276299

G01 Z-1.000000 F100.0(Penetrate)
G02 X22.759639 Y3.350363 Z-1.000000 I0.161867 J0.151211 F3500.000000
G02 X22.738021 Y3.457644 Z-1.000000 I0.328277 J0.121968
G01 X22.727463 Y3.485439 Z-1.000000
G03 X22.699811 Y3.504514 Z-1.000000 I-0.046642 J-0.038036
G01 X22.690564 Y3.497843 Z-1.000000
G01 X22.699811 Y3.472004 Z-1.000000
G01 X22.709110 Y3.446044 Z-1.000000
G01 X22.699811 Y3.439304 Z-1.000000
G02 X22.672813 Y3.459552 Z-1.000000 I0.016254 J0.049795
G02 X22.655221 Y3.504564 Z-1.000000 I0.088748 J0.060629
G03 X22.625224 Y3.547299 Z-1.000000 I-0.057521 J-0.008480
G01 X22.601781 Y3.533284 Z-1.000000
G01 X22.592922 Y3.517636 Z-1.000000
G02 X22.560931 Y3.508774 Z-1.000000 I-0.031991 J0.053312
G01 X22.536578 Y3.501919 Z-1.000000
G01 X22.535561 Y3.493294 Z-1.000000
G01 X22.540998 Y3.476354 Z-1.000000
G02 X22.524761 Y3.428714 Z-1.000000 I-0.151877 J0.025177
G01 X22.497512 Y3.406073 Z-1.000000
G01 X22.476981 Y3.413554 Z-1.000000
G02 X22.460591 Y3.466509 Z-1.000000 I0.089581 J0.056741
G01 X22.474781 Y3.474754 Z-1.000000
G01 X22.483922 Y3.478989 Z-1.000000
G03 X22.484081 Y3.535894 Z-1.000000 I-0.190599 J0.028987
G03 X22.458122 Y3.589069 Z-1.000000 I-0.096466 J-0.014169
G01 X22.421121 Y3.601804 Z-1.000000
G02 X22.373738 Y3.606483 Z-1.000000 I-0.014286 J0.097590
G02 X22.338781 Y3.631124 Z-1.000000 I0.026729 J0.075034
G01 X22.309286 Y3.645181 Z-1.000000
G01 X22.282031 Y3.631313 Z-1.000000
G01 X22.273389 Y3.631677 Z-1.000000
G01 X22.270961 Y3.649693 Z-1.000000
G03 X22.269315 Y3.691831 Z-1.000000 I-0.065846 J0.018529
G01 X22.250681 Y3.704833 Z-1.000000
G02 X22.221315 Y3.714189 Z-1.000000 I0.000000 J0.050764
G02 X22.201511 Y3.739693 Z-1.000000 I0.032265 J0.045495
G01 X22.180340 Y3.759377 Z-1.000000
G03 X22.133481 Y3.760263 Z-1.000000 I-0.025000 J-0.082671
G01 X22.100640 Y3.765474 Z-1.000000
G01 X22.094041 Y3.785593 Z-1.000000
G01 X22.086988 Y3.809160 Z-1.000000
G03 X22.043031 Y3.822213 Z-1.000000 I-0.040784 J-0.056802
G02 X21.978032 Y3.825701 Z-1.000000 I-0.015161 J0.324810
G02 X21.929908 Y3.839713 Z-1.000000 I0.029756 J0.191846
G01 X21.904601 Y3.841466 Z-1.000000
G01 X21.900718 Y3.831513 Z-1.000000
G01 X21.893652 Y3.819919 Z-1.000000
G02 X21.805258 Y3.838913 Z-1.000000 I0.026103 J0.336661
G02 X21.736531 Y3.869638 Z-1.000000 I0.170887 J0.474470
G01 X21.737858 Y3.875303 Z-1.000000
G01 X21.760744 Y3.883864 Z-1.000000
G01 X21.768498 Y3.900123 Z-1.000000
G01 X21.759682 Y3.911035 Z-1.000000
G03 X21.728888 Y3.908623 Z-1.000000 I-0.011355 J-0.052817
G01 X21.714094 Y3.915331 Z-1.000000
G01 X21.716048 Y3.943453 Z-1.000000
G01 X21.717725 Y3.982608 Z-1.000000
G01 X21.688268 Y4.008103 Z-1.000000
G03 X21.633237 Y4.019168 Z-1.000000 I-0.116491 J-0.436989
G03 X21.578567 Y4.023063 Z-1.000000 I-0.057166 J-0.416749
G02 X21.536031 Y4.035928 Z-1.000000 I0.000476 J0.078321
G01 X21.523427 Y4.059293 Z-1.000000
G03 X21.488223 Y4.127368 Z-1.000000 I-0.083423 J0.000000
G03 X21.408006 Y4.141063 Z-1.000000 I-0.054386 J-0.076781
G02 X21.317841 Y4.156365 Z-1.000000 I-0.029100 J0.101823
G02 X21.278345 Y4.232583 Z-1.000000 I0.053793 J0.076218
G01 X21.286818 Y4.260015 Z-1.000000
G01 X21.302855 Y4.268483 Z-1.000000
G01 X21.320186 Y4.275662 Z-1.000000
G01 X21.327365 Y4.292993 Z-1.000000
G01 X21.318003 Y4.308141 Z-1.000000
G03 X21.278345 Y4.317503 Z-1.000000 I-0.039658 J-0.079316
G02 X21.243338 Y4.331512 Z-1.000000 I0.000000 J0.050744
G01 X21.229325 Y4.364223 Z-1.000000
G01 X21.215274 Y4.392744 Z-1.000000
G01 X21.183965 Y4.399083 Z-1.000000
G02 X21.097887 Y4.418033 Z-1.000000 I-0.024499 J0.093690
G02 X21.057771 Y4.503063 Z-1.000000 I0.070057 J0.085030
G01 X21.069829 Y4.526022 Z-1.000000
G02 X21.108541 Y4.538073 Z-1.000000 I0.038712 J-0.056153
G03 X21.200485 Y4.566904 Z-1.000000 I0.000000 J0.161026
G03 X21.229331 Y4.622103 Z-1.000000 I-0.038392 J0.055199
G01 X21.191341 Y4.656293 Z-1.000000
G03 X21.118284 Y4.610373 Z-1.000000 I0.010286 J-0.097440
G01 X21.096074 Y4.596764 Z-1.000000
G02 X20.939153 Y4.595263 Z-1.000000 I-0.088504 J1.049579
G03 X20.777097 Y4.597840 Z-1.000000 I-0.107513 J-1.664038
G03 X20.728001 Y4.588263 Z-1.000000 I0.005137 J-0.156962
G01 X20.713619 Y4.567656 Z-1.000000
G01 X20.728001 Y4.542553 Z-1.000000
G01 X20.748897 Y4.513503 Z-1.000000
G01 X20.739171 Y4.489273 Z-1.000000
G02 X20.700149 Y4.472998 Z-1.000000 I-0.058567 J0.085504
G02 X20.641141 Y4.470443 Z-1.000000 I-0.038163 J0.198729
G02 X20.596950 Y4.492795 Z-1.000000 I0.007153 J0.069002
G02 X20.577451 Y4.540533 Z-1.000000 I0.055689 J0.050598
G03 X20.548502 Y4.633939 Z-1.000000 I-0.188120 J-0.007115
G01 X20.510511 Y4.646553 Z-1.000000
G01 X20.482711 Y4.648703 Z-1.000000
G02 X20.419391 Y4.698613 Z-1.000000 I0.134474 J0.235728
G02 X20.388561 Y4.759861 Z-1.000000 I0.088032 J0.082695
G01 X20.402191 Y4.793943 Z-1.000000
G01 X20.418331 Y4.839010 Z-1.000000
G03 X20.377391 Y4.890413 Z-1.000000 I-0.077877 J-0.020021
G03 X20.309750 Y4.906530 Z-1.000000 I-0.066270 J-0.128127
G03 X20.240433 Y4.889113 Z-1.000000 I0.001449 J-0.152406
G01 X20.171163 Y4.852823 Z-1.000000
G01 X20.245873 Y4.797703 Z-1.000000
G01 X20.320583 Y4.742583 Z-1.000000
G01 X20.168383 Y4.740183 Z-1.000000
G03 X20.017829 Y4.729248 Z-1.000000 I0.020581 J-1.325277
G03 X19.947086 Y4.711403 Z-1.000000 I0.040137 J-0.308257
G02 X19.877373 Y4.695326 Z-1.000000 I-0.092690 J0.242745
G02 X19.818418 Y4.699973 Z-1.000000 I-0.015711 J0.176978
G01 X19.787895 Y4.681555 Z-1.000000
G03 X19.796468 Y4.609923 Z-1.000000 I0.099962 J-0.024365
G02 X19.811201 Y4.545892 Z-1.000000 I-0.117425 J-0.060729
G01 X19.794268 Y4.521913 Z-1.000000
G02 X19.754158 Y4.516268 Z-1.000000 I-0.032289 J0.084105
G02 X19.669431 Y4.532753 Z-1.000000 I0.035669 J0.409298
G03 X19.585161 Y4.542762 Z-1.000000 I-0.069701 J-0.227077
G03 X19.496459 Y4.522123 Z-1.000000 I0.016778 J-0.273032
G03 X19.355787 Y4.412973 Z-1.000000 I0.131483 J-0.314679
G01 X19.378930 Y4.366494 Z-1.000000
G02 X19.407147 Y4.357949 Z-1.000000 I0.000000 J-0.050861
G01 X19.415690 Y4.341984 Z-1.000000
G01 X19.425975 Y4.327760 Z-1.000000
G03 X19.489980 Y4.317474 Z-1.000000 I0.064005 J0.193992
G02 X19.570966 Y4.276220 Z-1.000000 I0.000000 J-0.100119
G01 X19.565990 Y4.212892 Z-1.000000
G01 X19.545865 Y4.203564 Z-1.000000
G01 X19.538230 Y4.210592 Z-1.000000
G01 X19.529286 Y4.230313 Z-1.000000
G03 X19.477560 Y4.263712 Z-1.000000 I-0.139493 J-0.159285
G03 X19.329757 Y4.255325 Z-1.000000 I-0.065929 J-0.144689
G03 X19.285544 Y4.148372 Z-1.000000 I0.050036 J-0.083299
G01 X19.277570 Y4.112322 Z-1.000000
G01 X19.248604 Y4.102822 Z-1.000000
G03 X19.206652 Y4.098535 Z-1.000000 I-0.015237 J-0.058313
G01 X19.182084 Y4.069922 Z-1.000000
G02 X19.157674 Y4.033769 Z-1.000000 I-0.073503 J0.023312
G02 X19.107704 Y4.008512 Z-1.000000 I-0.080892 J0.097982
G03 X19.059760 Y3.984426 Z-1.000000 I0.029739 J-0.118957
G01 X19.048064 Y3.959732 Z-1.000000
G01 X19.034404 Y3.937570 Z-1.000000
G02 X18.949484 Y3.910152 Z-1.000000 I-0.130909 J0.260243
G03 X18.855664 Y3.887250 Z-1.000000 I0.095343 J-0.594192
G01 X18.837751 Y3.873102 Z-1.000000
G01 X18.789908 Y3.850654 Z-1.000000
G02 X18.700749 Y3.892372 Z-1.000000 I0.023358 J0.166053
G01 X18.668318 Y3.905012 Z-1.000000
G01 X18.655929 Y3.892720 Z-1.000000
G01 X18.669008 Y3.859528 Z-1.000000
G03 X18.753959 Y3.787632 Z-1.000000 I0.346419 J0.323186
G02 X18.844252 Y3.718599 Z-1.000000 I-0.460383 J-0.695736
G01 X18.851989 Y3.701502 Z-1.000000
G01 X18.837756 Y3.689948 Z-1.000000
G02 X18.726586 Y3.727852 Z-1.000000 I0.099601 J0.474108
G03 X18.627541 Y3.763058 Z-1.000000 I-0.211091 J-0.436937
G03 X18.589042 Y3.760482 Z-1.000000 I-0.015083 J-0.063557
G01 X18.582609 Y3.745707 Z-1.000000
G01 X18.602972 Y3.725922 Z-1.000000
G02 X18.647150 Y3.700231 Z-1.000000 I-0.051643 J-0.139633
G01 X18.655922 Y3.681392 Z-1.000000
G02 X18.593472 Y3.624167 Z-1.000000 I-0.057443 J0.000000
G02 X18.399738 Y3.703802 Z-1.000000 I0.030615 J0.349955
G03 X18.323499 Y3.713798 Z-1.000000 I-0.046049 J-0.055481
G01 X18.301928 Y3.658702 Z-1.000000
G02 X18.292077 Y3.592183 Z-1.000000 I-0.060478 J-0.025033
G01 X18.249288 Y3.594462 Z-1.000000
G03 X18.202494 Y3.643417 Z-1.000000 I-0.155796 J-0.102076
G03 X18.164388 Y3.655732 Z-1.000000 I-0.038106 J-0.052799
G02 X18.124277 Y3.664049 Z-1.000000 I0.000000 J0.100887
G01 X18.103258 Y3.682222 Z-1.000000
G01 X18.081975 Y3.696608 Z-1.000000
G03 X18.031088 Y3.694712 Z-1.000000 I-0.020965 J-0.121158
G02 X17.979957 Y3.694957 Z-1.000000 I-0.025089 J0.099683
G02 X17.944978 Y3.717232 Z-1.000000 I0.017172 J0.065567
G03 X17.908968 Y3.741621 Z-1.000000 I-0.059961 J-0.049754
G03 X17.831887 Y3.753762 Z-1.000000 I-0.077081 J-0.238611
G03 X17.769177 Y3.726860 Z-1.000000 I0.000000 J-0.086542
G01 X17.773617 Y3.692492 Z-1.000000
G02 X17.813376 Y3.621604 Z-1.000000 I-0.044092 J-0.071324
G01 X17.774182 Y3.582205 Z-1.000000
G02 X17.697744 Y3.629305 Z-1.000000 I0.000000 J0.085576
G02 X17.687832 Y3.753738 Z-1.000000 I0.147771 J0.074382
G03 X17.691754 Y3.802695 Z-1.000000 I-0.103552 J0.032932
G03 X17.674872 Y3.840408 Z-1.000000 I-0.075819 J-0.011306
G02 X17.668052 Y3.910382 Z-1.000000 I0.048210 J0.040018
G02 X17.734442 Y3.949831 Z-1.000000 I0.066390 J-0.036140
G03 X17.810407 Y3.992042 Z-1.000000 I0.000000 J0.089461
G03 X17.810522 Y4.072153 Z-1.000000 I-0.064547 J0.040148
G01 X17.759151 Y4.090176 Z-1.000000
G03 X17.710374 Y4.036453 Z-1.000000 I0.025827 J-0.072453
G02 X17.680248 Y3.995954 Z-1.000000 I-0.063824 J0.016023
G02 X17.614134 Y3.979073 Z-1.000000 I-0.061590 J0.103305
G02 X17.554979 Y3.996586 Z-1.000000 I0.004656 J0.124391
G01 X17.547224 Y4.019013 Z-1.000000
G01 X17.544833 Y4.035916 Z-1.000000
G01 X17.532714 Y4.038193 Z-1.000000
G03 X17.512025 Y4.016057 Z-1.000000 I0.030001 J-0.048776
G03 X17.504044 Y3.983713 Z-1.000000 I0.061545 J-0.032344
G01 X17.495405 Y3.962438 Z-1.000000
G01 X17.481714 Y3.960743 Z-1.000000
G01 X17.468659 Y3.978621 Z-1.000000
G02 X17.467584 Y4.017333 Z-1.000000 I0.087231 J0.021793
G03 X17.475190 Y4.060204 Z-1.000000 I-1.607494 J0.307295
G03 X17.477654 Y4.078503 Z-1.000000 I-0.320636 J0.052494
G01 X17.485075 Y4.090726 Z-1.000000
G01 X17.505784 Y4.096883 Z-1.000000
G01 X17.529343 Y4.103385 Z-1.000000
G03 X17.571034 Y4.135873 Z-1.000000 I-0.110092 J0.184272
G03 X17.588715 Y4.172371 Z-1.000000 I-0.043732 J0.043718
G01 X17.577934 Y4.194673 Z-1.000000
G01 X17.559108 Y4.218947 Z-1.000000
G01 X17.560154 Y4.251693 Z-1.000000
G01 X17.559349 Y4.282182 Z-1.000000
G01 X17.537214 Y4.303183 Z-1.000000
G03 X17.474527 Y4.306306 Z-1.000000 I-0.036109 J-0.094107
G01 X17.454984 Y4.280703 Z-1.000000
G01 X17.430346 Y4.266915 Z-1.000000
G02 X17.366714 Y4.334873 Z-1.000000 I0.091976 J0.149890
G03 X17.208308 Y4.515592 Z-1.000000 I-0.456598 J-0.240441
G01 X17.142094 Y4.493908 Z-1.000000
G01 X17.096156 Y4.461383 Z-1.000000
G01 X17.068984 Y4.495108 Z-1.000000
G01 X17.060916 Y4.511913 Z-1.000000
G03 X17.026094 Y4.517288 Z-1.000000 I-0.025417 J-0.049182
G02 X16.997183 Y4.519344 Z-1.000000 I-0.010319 J0.059193
G01 X16.995244 Y4.527288 Z-1.000000
G01 X17.000978 Y4.546279 Z-1.000000
G03 X16.985084 Y4.579878 Z-1.000000 I-0.073652 J-0.014282
G01 X16.982257 Y4.605808 Z-1.000000
G01 X17.009804 Y4.627878 Z-1.000000
G03 X17.054209 Y4.648422 Z-1.000000 I-0.034722 J0.133315
G01 X17.062854 Y4.665048 Z-1.000000
G01 X17.053674 Y4.675789 Z-1.000000
G03 X17.013834 Y4.672748 Z-1.000000 I-0.013500 J-0.085612
G02 X16.974851 Y4.670915 Z-1.000000 I-0.022944 J0.072493
G01 X16.964814 Y4.683348 Z-1.000000
G01 X16.956603 Y4.701518 Z-1.000000
G01 X16.934174 Y4.710328 Z-1.000000
G02 X16.828144 Y4.748058 Z-1.000000 I0.004828 J0.181416
G02 X16.793252 Y4.819048 Z-1.000000 I0.054771 J0.070990
G01 X16.798839 Y4.824872 Z-1.000000
G01 X16.817482 Y4.819973 Z-1.000000
G01 X16.826835 Y4.822946 Z-1.000000
G01 X16.827182 Y4.842893 Z-1.000000
G03 X16.807967 Y4.866923 Z-1.000000 I-0.047379 J-0.018188
G01 X16.790702 Y4.867223 Z-1.000000
G01 X16.777985 Y4.870210 Z-1.000000
G02 X16.768762 Y4.902683 Z-1.000000 I0.052556 J0.032473
G03 X16.760475 Y4.947077 Z-1.000000 I-0.123060 J-0.000000
G01 X16.743852 Y4.967093 Z-1.000000
G01 X16.736932 Y5.005274 Z-1.000000
G01 X16.783492 Y5.018303 Z-1.000000
G01 X16.796546 Y5.034693 Z-1.000000
G03 X16.738122 Y5.085763 Z-1.000000 I-0.125040 J-0.084092
G02 X16.692474 Y5.117372 Z-1.000000 I0.083486 J0.169330
G01 X16.695652 Y5.125583 Z-1.000000
G01 X16.718052 Y5.141089 Z-1.000000
G03 X16.735472 Y5.226774 Z-1.000000 I-0.234661 J0.092321
G03 X16.726637 Y5.292353 Z-1.000000 I-0.207830 J0.005385
G01 X16.715072 Y5.294174 Z-1.000000
G01 X16.708149 Y5.295136 Z-1.000000
G01 X16.707572 Y5.316084 Z-1.000000
G03 X16.709422 Y5.360910 Z-1.000000 I-0.093808 J0.026323
G01 X16.696922 Y5.371224 Z-1.000000
G01 X16.678867 Y5.379328 Z-1.000000
G01 X16.670762 Y5.400634 Z-1.000000
G01 X16.679368 Y5.409240 Z-1.000000
G01 X16.700172 Y5.400634 Z-1.000000
G03 X16.776539 Y5.368219 Z-1.000000 I0.078281 J0.078260
G03 X16.831688 Y5.398334 Z-1.000000 I0.001099 J0.063542
G01 X16.827571 Y5.409181 Z-1.000000
G03 X16.796368 Y5.408934 Z-1.000000 I-0.015201 J-0.050646
G01 X16.764068 Y5.425979 Z-1.000000
G01 X16.780908 Y5.460314 Z-1.000000
G01 X16.803806 Y5.478988 Z-1.000000
G01 X16.803928 Y5.496374 Z-1.000000
G01 X16.786813 Y5.505282 Z-1.000000
G03 X16.742478 Y5.492774 Z-1.000000 I0.006266 J-0.107042
G02 X16.694866 Y5.480609 Z-1.000000 I-0.048534 J0.090700
G02 X16.652058 Y5.491963 Z-1.000000 I-0.000749 J0.083556
G01 X16.642957 Y5.508035 Z-1.000000
G01 X16.652383 Y5.517503 Z-1.000000
G01 X16.683733 Y5.529590 Z-1.000000
G01 X16.695273 Y5.555013 Z-1.000000
G01 X16.686054 Y5.582552 Z-1.000000
G01 X16.667553 Y5.591773 Z-1.000000
G01 X16.653704 Y5.603573 Z-1.000000
G02 X16.653763 Y5.677553 Z-1.000000 I0.228970 J0.036808
G03 X16.655224 Y5.752757 Z-1.000000 I-0.263477 J0.042735
G01 X16.643273 Y5.763333 Z-1.000000
G01 X16.632358 Y5.770870 Z-1.000000
G01 X16.633973 Y5.787843 Z-1.000000
G01 X16.684232 Y5.808584 Z-1.000000
G02 X16.731633 Y5.764513 Z-1.000000 I-0.015280 J-0.063961
G01 X16.758040 Y5.743674 Z-1.000000
G03 X16.826293 Y5.757613 Z-1.000000 I0.009345 J0.128315
G03 X16.883612 Y5.809918 Z-1.000000 I-0.068033 J0.132113
G03 X16.895753 Y5.866723 Z-1.000000 I-0.070223 J0.044710
G03 X16.875345 Y5.922875 Z-1.000000 I-0.146598 J-0.021495
G01 X16.853803 Y5.934913 Z-1.000000
G01 X16.827330 Y5.943117 Z-1.000000
G02 X16.809113 Y5.965553 Z-1.000000 I0.028794 J0.041993
G01 X16.793063 Y5.973543 Z-1.000000
G03 X16.761483 Y5.953303 Z-1.000000 I0.014925 J-0.058044
G02 X16.719610 Y5.925766 Z-1.000000 I-0.064466 J0.052422
G01 X16.709843 Y5.938713 Z-1.000000
G01 X16.709109 Y5.948775 Z-1.000000
G01 X16.700143 Y5.950223 Z-1.000000
G02 X16.603612 Y5.960216 Z-1.000000 I-0.041782 J0.067621
G02 X16.598491 Y6.046783 Z-1.000000 I0.043722 J0.046022
G03 X16.607301 Y6.117048 Z-1.000000 I-0.050650 J0.042035
G01 X16.555261 Y6.137863 Z-1.000000
G01 X16.535626 Y6.146804 Z-1.000000
G02 X16.527861 Y6.212933 Z-1.000000 I0.135406 J0.049419
G03 X16.529313 Y6.294467 Z-1.000000 I-0.408259 J0.048050
G01 X16.520561 Y6.302533 Z-1.000000
G01 X16.492895 Y6.327070 Z-1.000000
G02 X16.502121 Y6.455709 Z-1.000000 I0.336669 J0.040504
G01 X16.487000 Y6.492763 Z-1.000000
G01 X16.450161 Y6.486349 Z-1.000000
G02 X16.416335 Y6.456670 Z-1.000000 I-0.110104 J0.091372
G01 X16.392021 Y6.449709 Z-1.000000
G01 X16.387935 Y6.458034 Z-1.000000
G02 X16.435911 Y6.507059 Z-1.000000 I0.226046 J-0.173223
G03 X16.488692 Y6.569375 Z-1.000000 I-0.132878 J0.166055
G01 X16.491331 Y6.606239 Z-1.000000
G01 X16.490433 Y6.629802 Z-1.000000
G01 X16.499431 Y6.633219 Z-1.000000
G01 X16.513855 Y6.637157 Z-1.000000
G03 X16.527851 Y6.687089 Z-1.000000 I-0.108694 J0.057394
G02 X16.542746 Y6.815257 Z-1.000000 I1.176542 J-0.071782
G02 X16.559931 Y6.873404 Z-1.000000 I0.256146 J-0.044090
G03 X16.569818 Y6.915619 Z-1.000000 I-0.115007 J0.049200
G01 X16.563231 Y6.932824 Z-1.000000
G01 X16.562717 Y6.946747 Z-1.000000
G02 X16.614221 Y6.991904 Z-1.000000 I0.186773 J-0.161075
G03 X16.658125 Y7.046810 Z-1.000000 I-0.062089 J0.094655
G03 X16.673631 Y7.150332 Z-1.000000 I-0.234976 J0.088117
G02 X16.678539 Y7.258975 Z-1.000000 I0.510786 J0.031356
G01 X16.693721 Y7.281939 Z-1.000000
G01 X16.710840 Y7.304533 Z-1.000000
G03 X16.724261 Y7.388818 Z-1.000000 I-0.341670 J0.097615
G02 X16.734066 Y7.471933 Z-1.000000 I0.529223 J-0.020293
G01 X16.742061 Y7.478138 Z-1.000000
G02 X16.815080 Y7.447012 Z-1.000000 I-0.006114 J-0.115555
G02 X16.842250 Y7.384308 Z-1.000000 I-0.058771 J-0.062704
G01 X16.849890 Y7.364019 Z-1.000000
G01 X16.866760 Y7.356378 Z-1.000000
G01 X16.882528 Y7.376798 Z-1.000000
G03 X16.840650 Y7.456258 Z-1.000000 I-0.191106 J-0.049953
G01 X16.840246 Y7.499268 Z-1.000000
G01 X16.883780 Y7.507918 Z-1.000000
G03 X16.928730 Y7.496274 Z-1.000000 I0.047409 J0.090431
G03 X16.983170 Y7.505518 Z-1.000000 I0.003480 J0.144431
G01 X16.995684 Y7.527342 Z-1.000000
G01 X16.977070 Y7.541388 Z-1.000000
G02 X16.928440 Y7.548782 Z-1.000000 I-0.010366 J0.095438
G01 X16.915800 Y7.568058 Z-1.000000
G01 X16.924915 Y7.592333 Z-1.000000
G01 X16.944990 Y7.601448 Z-1.000000
G01 X16.949907 Y7.609376 Z-1.000000
G03 X16.928330 Y7.634968 Z-1.000000 I-0.063081 J-0.031293
G01 X16.922493 Y7.664714 Z-1.000000
G02 X16.976410 Y7.713058 Z-1.000000 I0.108587 J-0.066865
G02 X17.072678 Y7.745583 Z-1.000000 I0.186282 J-0.392629
G02 X17.161551 Y7.752248 Z-1.000000 I0.069196 J-0.326828
G03 X17.238351 Y7.766716 Z-1.000000 I0.009539 J0.160432
G03 X17.266851 Y7.800728 Z-1.000000 I-0.021728 J0.047153
G01 X17.289208 Y7.828866 Z-1.000000
G01 X17.315221 Y7.826138 Z-1.000000
G01 X17.348028 Y7.818343 Z-1.000000
G03 X17.391041 Y7.843588 Z-1.000000 I-0.018646 J0.081034
G03 X17.407226 Y7.883439 Z-1.000000 I-0.046520 J0.042106
G01 X17.393241 Y7.904598 Z-1.000000
G01 X17.369413 Y7.924951 Z-1.000000
G01 X17.369731 Y7.945368 Z-1.000000
G01 X17.365195 Y7.956124 Z-1.000000
G03 X17.323981 Y7.955568 Z-1.000000 I-0.019434 J-0.087217
G01 X17.285458 Y7.962971 Z-1.000000
G01 X17.275561 Y7.990538 Z-1.000000
G02 X17.298165 Y8.032052 Z-1.000000 I0.095655 J-0.025172
G02 X17.335121 Y8.055688 Z-1.000000 I0.062564 J-0.057113
G03 X17.373411 Y8.076317 Z-1.000000 I-0.035489 J0.111723
G01 X17.381491 Y8.093258 Z-1.000000
G01 X17.388496 Y8.109110 Z-1.000000
G01 X17.406601 Y8.116118 Z-1.000000
G02 X17.452211 Y8.087348 Z-1.000000 I0.000000 J-0.050539
G02 X17.500961 Y7.918401 Z-1.000000 I-0.484846 J-0.231410
G01 X17.512986 Y7.905598 Z-1.000000
G03 X17.559171 Y7.907751 Z-1.000000 I0.018445 J0.100772
G02 X17.583631 Y7.908657 Z-1.000000 I0.014111 J-0.050341
G01 X17.584911 Y7.902551 Z-1.000000
G01 X17.582251 Y7.884502 Z-1.000000
G03 X17.625391 Y7.850941 Z-1.000000 I0.088950 J0.069829
G02 X17.682837 Y7.809525 Z-1.000000 I-0.069453 J-0.156882
G02 X17.711171 Y7.756671 Z-1.000000 I-0.091010 J-0.082810
G03 X17.744410 Y7.718348 Z-1.000000 I0.054479 J0.013675
G03 X17.836120 Y7.705631 Z-1.000000 I0.070756 J0.173221
G02 X17.915834 Y7.692273 Z-1.000000 I0.016479 J-0.146189
G01 X17.914540 Y7.668301 Z-1.000000
G01 X17.905735 Y7.651920 Z-1.000000
G03 X17.930590 Y7.604991 Z-1.000000 I0.108776 J0.027565
G02 X17.948296 Y7.565422 Z-1.000000 I-0.053945 J-0.047885
G01 X17.936690 Y7.552391 Z-1.000000
G01 X17.913031 Y7.529705 Z-1.000000
G03 X17.932890 Y7.461841 Z-1.000000 I0.110080 J-0.004626
G02 X17.950702 Y7.415659 Z-1.000000 I-0.084266 J-0.059026
G01 X17.940690 Y7.399771 Z-1.000000
G01 X17.925595 Y7.383642 Z-1.000000
G03 X17.927540 Y7.349141 Z-1.000000 I0.054759 J-0.014219
G01 X17.950373 Y7.324049 Z-1.000000
G01 X17.980970 Y7.322601 Z-1.000000
G01 X18.005212 Y7.309171 Z-1.000000
G01 X17.992020 Y7.265961 Z-1.000000
G01 X17.998999 Y7.233129 Z-1.000000
G03 X18.077880 Y7.233001 Z-1.000000 I0.039608 J0.103181
G03 X18.131010 Y7.264117 Z-1.000000 I-0.065985 J0.173584
G01 X18.141210 Y7.285941 Z-1.000000
G01 X18.150058 Y7.291104 Z-1.000000
G02 X18.190380 Y7.258111 Z-1.000000 I-0.075131 J-0.132957
G03 X18.240104 Y7.217126 Z-1.000000 I0.146407 J0.126967
G01 X18.257570 Y7.219441 Z-1.000000
G01 X18.259319 Y7.235195 Z-1.000000
G03 X18.229970 Y7.262991 Z-1.000000 I-0.069507 J-0.043996
G01 X18.209772 Y7.289215 Z-1.000000
G01 X18.217920 Y7.309791 Z-1.000000
G01 X18.221886 Y7.322610 Z-1.000000
G01 X18.208620 Y7.331431 Z-1.000000
G02 X18.174202 Y7.340209 Z-1.000000 I0.000650 J0.074411
G01 X18.165730 Y7.354341 Z-1.000000
G01 X18.175467 Y7.362597 Z-1.000000
G02 X18.264800 Y7.337961 Z-1.000000 I-0.072414 J-0.436871
G02 X18.344590 Y7.290551 Z-1.000000 I-0.105286 J-0.268039
G01 X18.351040 Y7.265611 Z-1.000000
G01 X18.357676 Y7.257935 Z-1.000000
G03 X18.396490 Y7.275861 Z-1.000000 I-0.022430 J0.099550
G03 X18.442768 Y7.321856 Z-1.000000 I-0.141024 J0.188169
G01 X18.443600 Y7.337921 Z-1.000000
G01 X18.443753 Y7.349930 Z-1.000000
G01 X18.455380 Y7.356301 Z-1.000000
G02 X18.521211 Y7.322583 Z-1.000000 I0.000000 J-0.081124
G02 X18.523350 Y7.261911 Z-1.000000 I-0.044351 J-0.031937
G01 X18.523963 Y7.243903 Z-1.000000
G03 X18.551410 Y7.222671 Z-1.000000 I0.049014 J0.035006
G03 X18.587390 Y7.219785 Z-1.000000 I0.022906 J0.059840
G01 X18.602670 Y7.233381 Z-1.000000
G01 X18.616776 Y7.242507 Z-1.000000
G02 X18.650010 Y7.228681 Z-1.000000 I-0.006132 J-0.061595
G03 X18.682629 Y7.217136 Z-1.000000 I0.032128 J0.038924
G01 X18.699180 Y7.229156 Z-1.000000
G01 X18.716011 Y7.238916 Z-1.000000
G02 X18.760680 Y7.216906 Z-1.000000 I-0.018826 J-0.094538
G03 X18.787656 Y7.201168 Z-1.000000 I0.054187 J0.061890
G01 X18.791670 Y7.206046 Z-1.000000
G02 X18.775830 Y7.241096 Z-1.000000 I0.155891 J0.091557
G02 X18.753070 Y7.323356 Z-1.000000 I0.845674 J0.278261
G02 X18.757743 Y7.381460 Z-1.000000 I0.095580 J0.021553
G01 X18.780810 Y7.392336 Z-1.000000
G01 X18.808876 Y7.402909 Z-1.000000
G03 X18.827450 Y7.469646 Z-1.000000 I-0.110607 J0.066737
G02 X18.842974 Y7.514489 Z-1.000000 I0.072530 J0.000000
G01 X18.862500 Y7.514186 Z-1.000000
G02 X18.881196 Y7.471613 Z-1.000000 I-0.085315 J-0.062857
G01 X18.873450 Y7.458006 Z-1.000000
G01 X18.868503 Y7.446270 Z-1.000000
G03 X18.893540 Y7.414456 Z-1.000000 I0.079061 J0.036461
G01 X18.907075 Y7.380312 Z-1.000000
G02 X18.882590 Y7.340416 Z-1.000000 I-0.058950 J0.008718
G01 X18.870889 Y7.298212 Z-1.000000
G01 X18.913230 Y7.270546 Z-1.000000
G03 X18.990815 Y7.278784 Z-1.000000 I-0.000000 J0.369452
G01 X18.999010 Y7.288926 Z-1.000000
G01 X18.992882 Y7.301180 Z-1.000000
G01 X18.974500 Y7.307306 Z-1.000000
G01 X18.957402 Y7.314716 Z-1.000000
G01 X18.949990 Y7.333466 Z-1.000000
G01 X18.988960 Y7.363938 Z-1.000000
G02 X19.075000 Y7.302346 Z-1.000000 I-0.034593 J-0.139215
G01 X19.087755 Y7.301358 Z-1.000000
G03 X19.120270 Y7.353246 Z-1.000000 I-0.137479 J0.122282
G02 X19.162912 Y7.412557 Z-1.000000 I0.147578 J-0.061118
G02 X19.223132 Y7.442886 Z-1.000000 I0.089448 J-0.102655
G03 X19.266157 Y7.468829 Z-1.000000 I-0.016819 J0.076541
G01 X19.266272 Y7.493916 Z-1.000000
G01 X19.270093 Y7.526366 Z-1.000000
G01 X19.308302 Y7.525436 Z-1.000000
G01 X19.326110 Y7.525775 Z-1.000000
G01 X19.331752 Y7.546456 Z-1.000000
G01 X19.349467 Y7.577786 Z-1.000000
G02 X19.401452 Y7.563086 Z-1.000000 I0.012847 J-0.053838
G03 X19.441281 Y7.537663 Z-1.000000 I0.077494 J0.077494
G01 X19.464472 Y7.540026 Z-1.000000
G01 X19.481338 Y7.541258 Z-1.000000
G01 X19.489172 Y7.529336 Z-1.000000
G01 X19.512803 Y7.517489 Z-1.000000
G03 X19.542692 Y7.569296 Z-1.000000 I-0.045291 J0.060656
G01 X19.563146 Y7.598451 Z-1.000000
G01 X19.591582 Y7.593806 Z-1.000000
G03 X19.634123 Y7.555790 Z-1.000000 I0.341979 J0.339876
G01 X19.643872 Y7.552396 Z-1.000000
G01 X19.678182 Y7.586443 Z-1.000000
G03 X19.645672 Y7.781042 Z-1.000000 I-0.572384 J0.004392
G02 X19.640179 Y7.867867 Z-1.000000 I0.150544 J0.053111
G01 X19.666082 Y7.875492 Z-1.000000
G03 X19.697087 Y7.851345 Z-1.000000 I0.112597 J0.112597
G01 X19.714692 Y7.846492 Z-1.000000
G01 X19.746573 Y7.879450 Z-1.000000
G03 X19.708892 Y8.019660 Z-1.000000 I-0.319155 J-0.010604
G01 X19.720744 Y8.045221 Z-1.000000
G01 X19.765952 Y8.031880 Z-1.000000
G03 X19.801149 Y8.014831 Z-1.000000 I0.042140 J0.042140
G01 X19.828972 Y8.024480 Z-1.000000
G01 X19.847845 Y8.030689 Z-1.000000
G01 X19.856802 Y8.020280 Z-1.000000
G01 X19.867040 Y8.003142 Z-1.000000
G01 X19.891532 Y8.001580 Z-1.000000
G01 X19.927182 Y7.985817 Z-1.000000
G02 X19.955202 Y7.838315 Z-1.000000 I-0.382019 J-0.148981
G03 X19.966226 Y7.773151 Z-1.000000 I0.202500 J0.000743
G01 X19.978102 Y7.771765 Z-1.000000
G03 X19.990547 Y7.809243 Z-1.000000 I-0.069184 J0.043779
G03 X19.986402 Y7.878727 Z-1.000000 I-0.254778 J0.019667
G01 X19.996746 Y7.916911 Z-1.000000
G01 X20.024772 Y7.921907 Z-1.000000
G02 X20.069492 Y7.888994 Z-1.000000 I-0.092013 J-0.171857
G01 X20.077412 Y7.870087 Z-1.000000
G01 X20.084459 Y7.853490 Z-1.000000
G01 X20.101922 Y7.846437 Z-1.000000
G01 X20.116307 Y7.856561 Z-1.000000
G03 X20.126432 Y7.914797 Z-1.000000 I-0.162414 J0.058236
G02 X20.146385 Y7.962947 Z-1.000000 I0.068073 J-0.000000
G02 X20.193832 Y7.982197 Z-1.000000 I0.046511 J-0.046539
G02 X20.254744 Y7.968541 Z-1.000000 I-0.002183 J-0.152415
G02 X20.294651 Y7.936347 Z-1.000000 I-0.042549 J-0.093574
G02 X20.307721 Y7.889975 Z-1.000000 I-0.054070 J-0.040268
G02 X20.282951 Y7.807680 Z-1.000000 I-0.213617 J0.019422
G02 X20.220121 Y7.741387 Z-1.000000 I-0.153758 J0.082806
G01 X20.187171 Y7.749270 Z-1.000000
G01 X20.170187 Y7.752671 Z-1.000000
G03 X20.103821 Y7.689510 Z-1.000000 I0.193097 J-0.269345
G02 X20.029475 Y7.635686 Z-1.000000 I-0.133422 J0.106033
G02 X19.968461 Y7.639490 Z-1.000000 I-0.026204 J0.070908
G03 X19.901087 Y7.665916 Z-1.000000 I-0.159193 J-0.306767
G01 X19.882341 Y7.663230 Z-1.000000
G01 X19.874350 Y7.666975 Z-1.000000
G02 X19.875541 Y7.712380 Z-1.000000 I0.137778 J0.019105
G03 X19.873889 Y7.761977 Z-1.000000 I-0.110843 J0.021134
G01 X19.859741 Y7.772910 Z-1.000000
G01 X19.842222 Y7.763066 Z-1.000000
G03 X19.832381 Y7.727980 Z-1.000000 I0.057625 J-0.035086
G01 X19.805492 Y7.690072 Z-1.000000
G01 X19.766061 Y7.704750 Z-1.000000
G01 X19.754863 Y7.706042 Z-1.000000
G01 X19.749621 Y7.687140 Z-1.000000
G03 X19.773586 Y7.617863 Z-1.000000 I0.291014 J0.061887
G03 X19.809961 Y7.564221 Z-1.000000 I0.209443 J0.102870
G02 X19.839227 Y7.513425 Z-1.000000 I-0.103029 J-0.093189
G01 X19.835641 Y7.484101 Z-1.000000
G01 X19.817469 Y7.479656 Z-1.000000
G02 X19.783611 Y7.515111 Z-1.000000 I0.046891 J0.078672
G03 X19.746188 Y7.569543 Z-1.000000 I-0.262871 J-0.140647
G01 X19.730201 Y7.576851 Z-1.000000
G01 X19.715832 Y7.556903 Z-1.000000
G03 X19.758851 Y7.491071 Z-1.000000 I0.147018 J0.049099
G02 X19.802588 Y7.407220 Z-1.000000 I-0.091431 J-0.101022
G02 X19.778461 Y7.336669 Z-1.000000 I-0.084008 J-0.010672
G01 X19.768270 Y7.315222 Z-1.000000
G01 X19.775461 Y7.307259 Z-1.000000
G03 X19.835840 Y7.340057 Z-1.000000 I0.000000 J0.071976
G03 X19.843391 Y7.411960 Z-1.000000 I-0.066835 J0.043367
G01 X19.862149 Y7.460305 Z-1.000000
G01 X19.910351 Y7.445490 Z-1.000000
G03 X19.937066 Y7.412476 Z-1.000000 I0.109581 J0.061358
G01 X19.956141 Y7.405290 Z-1.000000
G01 X19.985609 Y7.437524 Z-1.000000
G03 X19.948841 Y7.487090 Z-1.000000 I-0.058931 J-0.005295
G01 X19.943228 Y7.495411 Z-1.000000
G01 X19.948841 Y7.501390 Z-1.000000
G01 X19.968392 Y7.513751 Z-1.000000
G03 X19.979481 Y7.556430 Z-1.000000 I-0.076587 J0.042679
G01 X19.996793 Y7.561130 Z-1.000000
G02 X20.019971 Y7.487350 Z-1.000000 I-0.149033 J-0.087349
G03 X20.054702 Y7.424465 Z-1.000000 I0.086642 J0.006818
G01 X20.099981 Y7.427760 Z-1.000000
G02 X20.179290 Y7.444411 Z-1.000000 I0.052407 J-0.052414
G02 X20.236307 Y7.374660 Z-1.000000 I-0.033248 J-0.085357
G03 X20.257277 Y7.301197 Z-1.000000 I0.352663 J0.060942
G01 X20.266037 Y7.301290 Z-1.000000
G01 X20.290725 Y7.302887 Z-1.000000
G02 X20.303107 Y7.232340 Z-1.000000 I-0.100451 J-0.053991
G02 X20.284855 Y7.187888 Z-1.000000 I-0.098386 J0.014424
G01 X20.270807 Y7.188370 Z-1.000000
G01 X20.258733 Y7.190343 Z-1.000000
G01 X20.249447 Y7.171030 Z-1.000000
G03 X20.257645 Y7.123412 Z-1.000000 I0.136482 J-0.001018
G03 X20.285057 Y7.073000 Z-1.000000 I0.180930 J0.065724
G01 X20.307732 Y7.066359 Z-1.000000
G01 X20.322197 Y7.086700 Z-1.000000
G02 X20.347815 Y7.190135 Z-1.000000 I0.239531 J-0.004435
G01 X20.371617 Y7.184730 Z-1.000000
G01 X20.379996 Y7.175333 Z-1.000000
G01 X20.393757 Y7.181730 Z-1.000000
G02 X20.418223 Y7.202181 Z-1.000000 I0.044167 J-0.027979
G01 X20.439607 Y7.200390 Z-1.000000
G01 X20.457301 Y7.202486 Z-1.000000
G03 X20.479107 Y7.240140 Z-1.000000 I-0.060673 J0.060278
G01 X20.499090 Y7.263735 Z-1.000000
G01 X20.518277 Y7.258250 Z-1.000000
G01 X20.535512 Y7.245124 Z-1.000000
G01 X20.542787 Y7.250350 Z-1.000000
G01 X20.551486 Y7.272543 Z-1.000000
G01 X20.575957 Y7.287110 Z-1.000000
G01 X20.590312 Y7.304433 Z-1.000000
G03 X20.579957 Y7.364670 Z-1.000000 I-0.138728 J0.007161
G03 X20.544376 Y7.400296 Z-1.000000 I-0.060823 J-0.025165
G01 X20.510397 Y7.393550 Z-1.000000
G01 X20.481267 Y7.380850 Z-1.000000
G01 X20.469647 Y7.392050 Z-1.000000
G02 X20.479499 Y7.424567 Z-1.000000 I0.058588 J-0.000000
G02 X20.504857 Y7.444850 Z-1.000000 I0.044585 J-0.029747
G01 X20.526215 Y7.464516 Z-1.000000
G01 X20.527317 Y7.491610 Z-1.000000
G02 X20.524081 Y7.524094 Z-1.000000 I0.057898 J0.022171
G02 X20.540377 Y7.569230 Z-1.000000 I0.132627 J-0.022375
G01 X20.559464 Y7.587394 Z-1.000000
G01 X20.566937 Y7.582970 Z-1.000000
G01 X20.575930 Y7.560786 Z-1.000000
G01 X20.595257 Y7.552330 Z-1.000000
G01 X20.608686 Y7.563929 Z-1.000000
G03 X20.606957 Y7.631980 Z-1.000000 I-0.197468 J0.029031
G01 X20.614299 Y7.657386 Z-1.000000
G01 X20.629977 Y7.656230 Z-1.000000
G02 X20.654926 Y7.598687 Z-1.000000 I-0.127422 J-0.089425
G02 X20.652417 Y7.549001 Z-1.000000 I-0.095892 J-0.020065
G03 X20.652226 Y7.518053 Z-1.000000 I0.049714 J-0.015782
G01 X20.663097 Y7.513941 Z-1.000000
G01 X20.681583 Y7.535512 Z-1.000000
G03 X20.690227 Y7.578281 Z-1.000000 I-0.101488 J0.042769
G02 X20.699510 Y7.616567 Z-1.000000 I0.083595 J0.000000
G01 X20.714737 Y7.625851 Z-1.000000
G01 X20.730339 Y7.616866 Z-1.000000
G02 X20.739617 Y7.582961 Z-1.000000 I-0.059438 J-0.034487
G03 X20.745734 Y7.541758 Z-1.000000 I0.150694 J0.001316
G03 X20.762867 Y7.503901 Z-1.000000 I0.143899 J0.042320
G01 X20.790307 Y7.492079 Z-1.000000
G03 X20.860527 Y7.523011 Z-1.000000 I-0.033524 J0.171275
G02 X20.924789 Y7.557441 Z-1.000000 I0.150186 J-0.203129
G01 X20.935307 Y7.550061 Z-1.000000
G01 X20.944537 Y7.541495 Z-1.000000
G01 X20.972657 Y7.552861 Z-1.000000
G01 X21.004008 Y7.545638 Z-1.000000
G02 X20.999897 Y7.492731 Z-1.000000 I-0.050167 J-0.022715
G03 X20.966192 Y7.402226 Z-1.000000 I0.182233 J-0.119395
G01 X20.984927 Y7.380817 Z-1.000000
G01 X21.003812 Y7.389842 Z-1.000000
G03 X21.032397 Y7.439617 Z-1.000000 I-0.142050 J0.114673
G02 X21.062566 Y7.492333 Z-1.000000 I0.182276 J-0.069326
G02 X21.111427 Y7.538117 Z-1.000000 I0.184871 J-0.148331
G02 X21.164473 Y7.555864 Z-1.000000 I0.056456 J-0.080599
G01 X21.195047 Y7.541017 Z-1.000000
G03 X21.223114 Y7.518735 Z-1.000000 I0.054527 J0.039866
G01 X21.239787 Y7.521967 Z-1.000000
G01 X21.255364 Y7.523720 Z-1.000000
G02 X21.282627 Y7.495017 Z-1.000000 I-0.042593 J-0.067755
G03 X21.315124 Y7.467548 Z-1.000000 I0.052850 J0.029567
G03 X21.366567 Y7.465057 Z-1.000000 I0.029829 J0.083593
G01 X21.412207 Y7.451403 Z-1.000000
G02 X21.428017 Y7.398207 Z-1.000000 I-0.046513 J-0.042771
G01 X21.460209 Y7.377104 Z-1.000000
G03 X21.532099 Y7.465977 Z-1.000000 I-0.101042 J0.155246
G01 X21.527724 Y7.490534 Z-1.000000
G01 X21.499349 Y7.503417 Z-1.000000
G01 X21.483529 Y7.520578 Z-1.000000
G02 X21.506249 Y7.588157 Z-1.000000 I0.147642 J-0.012027
G02 X21.586517 Y7.651714 Z-1.000000 I0.131842 J-0.084041
G01 X21.614433 Y7.625957 Z-1.000000
G03 X21.616958 Y7.588778 Z-1.000000 I0.056890 J-0.014812
G01 X21.634633 Y7.576937 Z-1.000000
G02 X21.663458 Y7.569415 Z-1.000000 I0.000000 J-0.058990
G02 X21.685143 Y7.548647 Z-1.000000 I-0.029277 J-0.052275
G01 X21.682955 Y7.540028 Z-1.000000
G01 X21.670473 Y7.540247 Z-1.000000
G01 X21.655633 Y7.536684 Z-1.000000
G01 X21.651623 Y7.509227 Z-1.000000
G01 X21.644787 Y7.470260 Z-1.000000
G02 X21.606463 Y7.443657 Z-1.000000 I-0.054396 J0.037458
G03 X21.557310 Y7.421701 Z-1.000000 I0.038112 J-0.151319
G01 X21.547993 Y7.404177 Z-1.000000
G01 X21.586286 Y7.357100 Z-1.000000
G03 X21.647623 Y7.383457 Z-1.000000 I0.011849 J0.056974
G01 X21.665291 Y7.385842 Z-1.000000
G02 X21.696563 Y7.338007 Z-1.000000 I-0.080693 J-0.086891
G03 X21.764622 Y7.276220 Z-1.000000 I0.090845 J0.031689
G01 X21.807274 Y7.311017 Z-1.000000
G02 X21.817020 Y7.355669 Z-1.000000 I0.091279 J0.003467
G01 X21.839864 Y7.375627 Z-1.000000
G01 X21.857692 Y7.371415 Z-1.000000
G01 X21.861364 Y7.353597 Z-1.000000
G01 X21.870823 Y7.335444 Z-1.000000
G03 X21.986127 Y7.322587 Z-1.000000 I0.105858 J0.425882
G03 X22.108031 Y7.350311 Z-1.000000 I-0.006779 J0.311673
G03 X22.160693 Y7.401707 Z-1.000000 I-0.044570 J0.098346
G02 X22.203843 Y7.467884 Z-1.000000 I0.278662 J-0.134540
G01 X22.226053 Y7.478387 Z-1.000000
G01 X22.249178 Y7.486602 Z-1.000000
G03 X22.265883 Y7.509557 Z-1.000000 I-0.031930 J0.040793
G01 X22.281777 Y7.520395 Z-1.000000
G01 X22.310613 Y7.508557 Z-1.000000
G01 X22.323049 Y7.479054 Z-1.000000
G01 X22.309772 Y7.455677 Z-1.000000
G02 X22.274612 Y7.443258 Z-1.000000 I-0.046137 J0.074641
G02 X22.242302 Y7.447177 Z-1.000000 I-0.008355 J0.066269
G01 X22.226513 Y7.442550 Z-1.000000
G01 X22.223742 Y7.421897 Z-1.000000
G03 X22.246871 Y7.393857 Z-1.000000 I0.053289 J0.020398
G03 X22.310012 Y7.368157 Z-1.000000 I0.106270 J0.170672
G02 X22.365748 Y7.345647 Z-1.000000 I-0.039034 J-0.176910
G01 X22.369022 Y7.331887 Z-1.000000
G01 X22.393546 Y7.272842 Z-1.000000
G03 X22.527727 Y7.294757 Z-1.000000 I0.040570 J0.173338
G01 X22.545198 Y7.296591 Z-1.000000
G01 X22.552837 Y7.285757 Z-1.000000
G01 X22.546947 Y7.264528 Z-1.000000
G02 X22.529397 Y7.246767 Z-1.000000 I-0.045356 J0.027266
G01 X22.510152 Y7.194558 Z-1.000000
G01 X22.557107 Y7.160327 Z-1.000000
G01 X22.567995 Y7.169582 Z-1.000000
G03 X22.565107 Y7.209347 Z-1.000000 I-0.084756 J0.013832
G02 X22.564857 Y7.247164 Z-1.000000 I0.060562 J0.019310
G01 X22.579977 Y7.258367 Z-1.000000
G01 X22.586661 Y7.268640 Z-1.000000
G03 X22.552847 Y7.319637 Z-1.000000 I-0.167009 J-0.074027
G02 X22.530523 Y7.365666 Z-1.000000 I0.062564 J0.058772
G01 X22.543647 Y7.380907 Z-1.000000
G02 X22.588624 Y7.372692 Z-1.000000 I0.000000 J-0.127226
G02 X22.621447 Y7.351497 Z-1.000000 I-0.032817 J-0.086834
G01 X22.637553 Y7.359408 Z-1.000000
G03 X22.611947 Y7.425607 Z-1.000000 I-0.147264 J-0.018911
G02 X22.603741 Y7.512715 Z-1.000000 I0.072482 J0.050769
G02 X22.664407 Y7.542085 Z-1.000000 I0.047883 J-0.021565
G03 X22.756488 Y7.561725 Z-1.000000 I0.026018 J0.103697
G03 X22.797948 Y7.647042 Z-1.000000 I-0.067054 J0.085317
G02 X22.812523 Y7.683854 Z-1.000000 I0.053775 J-0.000000
G02 X22.853088 Y7.705752 Z-1.000000 I0.053124 J-0.049888
G01 X22.868612 Y7.720217 Z-1.000000
G01 X22.860688 Y7.736372 Z-1.000000
G03 X22.819888 Y7.742078 Z-1.000000 I-0.030457 J-0.069051
G01 X22.803498 Y7.728472 Z-1.000000
G01 X22.786957 Y7.709123 Z-1.000000
G02 X22.747658 Y7.699552 Z-1.000000 I-0.039299 J0.075901
G01 X22.719572 Y7.712006 Z-1.000000
G01 X22.715198 Y7.735382 Z-1.000000
G02 X22.777379 Y7.791830 Z-1.000000 I0.087028 J-0.033394
G02 X22.857284 Y7.774682 Z-1.000000 I0.023532 J-0.085089
G03 X22.931335 Y7.764479 Z-1.000000 I0.045239 J0.054511
G01 X22.942614 Y7.812702 Z-1.000000
G01 X22.938468 Y7.835335 Z-1.000000
G01 X22.954244 Y7.846602 Z-1.000000
G03 X22.985224 Y7.855384 Z-1.000000 I0.000000 J0.059033
G01 X22.994004 Y7.871112 Z-1.000000
G01 X23.003366 Y7.886260 Z-1.000000
G02 X23.043024 Y7.895622 Z-1.000000 I0.039658 J-0.079316
G03 X23.082682 Y7.904984 Z-1.000000 I0.000000 J0.088678
G01 X23.092044 Y7.920132 Z-1.000000
G01 X23.120701 Y7.943120 Z-1.000000
G02 X23.202331 Y7.895622 Z-1.000000 I-0.033755 J-0.151906
G02 X23.225272 Y7.856109 Z-1.000000 I-0.081418 J-0.073686
G01 X23.218381 Y7.846602 Z-1.000000
G01 X23.197758 Y7.838915 Z-1.000000
G01 X23.190071 Y7.822092 Z-1.000000
G01 X23.221092 Y7.797999 Z-1.000000
G03 X23.344906 Y7.861642 Z-1.000000 I-0.077306 J0.302654
G02 X23.415222 Y7.905076 Z-1.000000 I0.182750 J-0.217220
G01 X23.430136 Y7.898402 Z-1.000000
G01 X23.446343 Y7.880979 Z-1.000000
G03 X23.495846 Y7.871102 Z-1.000000 I0.049503 J0.119120
G02 X23.559915 Y7.837451 Z-1.000000 I0.000000 J-0.077817
G02 X23.568456 Y7.765766 Z-1.000000 I-0.063750 J-0.043947
G03 X23.596513 Y7.634504 Z-1.000000 I0.114873 J-0.044076
G03 X23.689325 Y7.645410 Z-1.000000 I0.042081 J0.042260
G01 X23.690175 Y7.666565 Z-1.000000
G03 X23.655145 Y7.712320 Z-1.000000 I-0.141441 J-0.071999
G02 X23.612290 Y7.758632 Z-1.000000 I0.239340 J0.264455
G01 X23.606705 Y7.774990 Z-1.000000
G01 X23.651897 Y7.801183 Z-1.000000
G02 X23.785484 Y7.672580 Z-1.000000 I-0.189146 J-0.330159
G03 X23.821010 Y7.636893 Z-1.000000 I0.095727 J0.059768
G03 X23.863804 Y7.623180 Z-1.000000 I0.047965 J0.076055
G01 X23.873674 Y7.616416 Z-1.000000
G01 X23.870204 Y7.609130 Z-1.000000
G03 X23.838645 Y7.589150 Z-1.000000 I0.015689 J-0.059696
G01 X23.827314 Y7.558060 Z-1.000000
G01 X23.837713 Y7.543322 Z-1.000000
G01 X23.856724 Y7.547600 Z-1.000000
G02 X23.923620 Y7.577391 Z-1.000000 I0.072262 J-0.072262
G01 X23.949854 Y7.552500 Z-1.000000
G01 X23.941436 Y7.536411 Z-1.000000
G01 X23.914534 Y7.527990 Z-1.000000
G03 X23.882903 Y7.521435 Z-1.000000 I-0.000000 J-0.079593
G01 X23.866254 Y7.507020 Z-1.000000
G01 X23.870128 Y7.497644 Z-1.000000
G03 X23.909184 Y7.496740 Z-1.000000 I0.021626 J0.090219
G02 X24.017464 Y7.467567 Z-1.000000 I0.024102 J-0.126074
G01 X24.006514 Y7.412190 Z-1.000000
G01 X23.990450 Y7.354573 Z-1.000000
G03 X24.084634 Y7.319870 Z-1.000000 I0.077718 J0.065767
G01 X24.091328 Y7.317657 Z-1.000000
G01 X24.090734 Y7.313570 Z-1.000000
G01 X24.077920 Y7.277414 Z-1.000000
G03 X24.145894 Y7.175288 Z-1.000000 I0.276339 J0.110246
G02 X24.185218 Y7.099157 Z-1.000000 I-0.095935 J-0.097776
G01 X24.160344 Y7.084968 Z-1.000000
G03 X24.024794 Y7.132124 Z-1.000000 I-0.130839 J-0.157700
G03 X23.974374 Y7.080668 Z-1.000000 I0.001186 J-0.051593
G01 X23.980472 Y7.068418 Z-1.000000
G01 X23.998834 Y7.062288 Z-1.000000
G01 X24.015962 Y7.054905 Z-1.000000
G01 X24.023344 Y7.036338 Z-1.000000
G01 X24.015542 Y7.024371 Z-1.000000
G01 X23.998834 Y7.025528 Z-1.000000
G01 X23.983874 Y7.023544 Z-1.000000
G01 X23.974324 Y6.999468 Z-1.000000
G01 X23.961925 Y6.984543 Z-1.000000
G01 X23.933574 Y6.991868 Z-1.000000
G01 X23.911500 Y6.998463 Z-1.000000
G01 X23.905334 Y6.988768 Z-1.000000
G01 X23.927169 Y6.965427 Z-1.000000
G03 X23.988974 Y6.953958 Z-1.000000 I0.057691 J0.138626
G02 X24.055199 Y6.946005 Z-1.000000 I0.006373 J-0.226646
G01 X24.078954 Y6.929448 Z-1.000000
G01 X24.098145 Y6.923658 Z-1.000000
G03 X24.134094 Y6.950558 Z-1.000000 I-0.029390 J0.076749
G01 X24.158178 Y6.961985 Z-1.000000
G01 X24.170394 Y6.949358 Z-1.000000
G03 X24.178646 Y6.903795 Z-1.000000 I0.129911 J-0.000000
G03 X24.201034 Y6.867538 Z-1.000000 I0.103063 J0.038599
G01 X24.202044 Y6.853959 Z-1.000000
G01 X24.188784 Y6.849618 Z-1.000000
G01 X24.159039 Y6.837285 Z-1.000000
G01 X24.168104 Y6.806398 Z-1.000000
G01 X24.179751 Y6.788486 Z-1.000000
G02 X24.176804 Y6.741178 Z-1.000000 I-0.121225 J-0.016194
G03 X24.173667 Y6.693355 Z-1.000000 I0.122760 J-0.032066
G01 X24.185204 Y6.673808 Z-1.000000
G02 X24.202170 Y6.654277 Z-1.000000 I-0.033257 J-0.046024
G02 X24.235574 Y6.578358 Z-1.000000 I-0.517708 J-0.273095
G02 X24.231374 Y6.527171 Z-1.000000 I-0.058577 J-0.020960
G01 X24.198814 Y6.512238 Z-1.000000
G01 X24.190865 Y6.503710 Z-1.000000
G01 X24.207114 Y6.482668 Z-1.000000
G02 X24.244344 Y6.445525 Z-1.000000 I-0.052674 J-0.090028
G01 X24.237754 Y6.430588 Z-1.000000
G01 X24.216293 Y6.401267 Z-1.000000
G01 X24.243854 Y6.368998 Z-1.000000
G02 X24.283522 Y6.348939 Z-1.000000 I-0.027068 J-0.102781
G01 X24.292874 Y6.329378 Z-1.000000
G01 X24.272472 Y6.308685 Z-1.000000
G02 X24.193234 Y6.327978 Z-1.000000 I-0.002307 J0.162895
G01 X24.174820 Y6.318603 Z-1.000000
G01 X24.186934 Y6.282478 Z-1.000000
G01 X24.200028 Y6.249938 Z-1.000000
G01 X24.185934 Y6.233218 Z-1.000000
G01 X24.161957 Y6.214288 Z-1.000000
G03 X24.159674 Y6.175008 Z-1.000000 I0.050172 J-0.022622
G01 X24.158821 Y6.146407 Z-1.000000
G01 X24.147164 Y6.142478 Z-1.000000
G01 X24.131932 Y6.138694 Z-1.000000
G03 X24.123844 Y6.102658 Z-1.000000 I0.052354 J-0.030676
G02 X24.102781 Y5.968456 Z-1.000000 I-0.279832 J-0.024835
G02 X24.047784 Y5.922738 Z-1.000000 I-0.071687 J0.030298
G03 X23.991172 Y5.884051 Z-1.000000 I0.019665 J-0.089541
G01 X23.998764 Y5.849208 Z-1.000000
G02 X24.016961 Y5.830566 Z-1.000000 I-0.028091 J-0.045622
G01 X24.023274 Y5.807198 Z-1.000000
G01 X24.014196 Y5.800799 Z-1.000000
G02 X23.974254 Y5.824698 Z-1.000000 I0.040087 J0.112325
G03 X23.934741 Y5.847639 Z-1.000000 I-0.073686 J-0.081418
G01 X23.925234 Y5.840748 Z-1.000000
G01 X23.916210 Y5.821458 Z-1.000000
G01 X23.891334 Y5.812438 Z-1.000000
G03 X23.834047 Y5.773230 Z-1.000000 I0.000000 J-0.061456
G03 X23.842084 Y5.685644 Z-1.000000 I0.091981 J-0.035721
G01 X23.857945 Y5.671869 Z-1.000000
G03 X23.883794 Y5.667324 Z-1.000000 I0.022212 J0.050552
G01 X23.888735 Y5.673152 Z-1.000000
G01 X23.882394 Y5.681624 Z-1.000000
G02 X23.858365 Y5.698451 Z-1.000000 I0.024356 J0.060352
G01 X23.851754 Y5.715684 Z-1.000000
G01 X23.859840 Y5.725613 Z-1.000000
G02 X23.888514 Y5.723284 Z-1.000000 I0.010360 J-0.050109
G02 X23.932442 Y5.659861 Z-1.000000 I-0.024534 J-0.063917
G01 X23.889283 Y5.616389 Z-1.000000
G01 X23.869971 Y5.604925 Z-1.000000
G01 X23.868153 Y5.577649 Z-1.000000
G01 X23.890351 Y5.553237 Z-1.000000
G01 X23.924463 Y5.549749 Z-1.000000
G02 X23.989737 Y5.534394 Z-1.000000 I0.018134 J-0.069327
G02 X24.081301 Y5.412774 Z-1.000000 I-0.243020 J-0.278241
G02 X24.106626 Y5.321803 Z-1.000000 I-0.258249 J-0.120904
G02 X24.094971 Y5.283281 Z-1.000000 I-0.051515 J-0.005438
G03 X24.073362 Y5.243699 Z-1.000000 I0.090412 J-0.075048
G03 X24.058821 Y5.169096 Z-1.000000 I0.318187 J-0.100737
G02 X24.043742 Y5.098067 Z-1.000000 I-0.278949 J0.022103
G01 X24.028391 Y5.082986 Z-1.000000
G01 X24.017654 Y5.067919 Z-1.000000
G03 X24.029391 Y4.992426 Z-1.000000 I0.267795 J0.002978
G02 X24.030433 Y4.866759 Z-1.000000 I-0.210397 J-0.064583
G01 X23.989491 Y4.854175 Z-1.000000
G01 X23.958058 Y4.862517 Z-1.000000
G03 X23.923801 Y4.842625 Z-1.000000 I0.009945 J-0.056570
G03 X23.916619 Y4.762906 Z-1.000000 I0.054312 J-0.045076
G03 X23.987311 Y4.729880 Z-1.000000 I0.058442 J0.032924
G01 X23.999211 Y4.721395 Z-1.000000
G01 X23.991911 Y4.699240 Z-1.000000
G02 X23.923954 Y4.664160 Z-1.000000 I-0.088948 J0.088948
G01 X23.900711 Y4.683800 Z-1.000000
G01 X23.890929 Y4.693266 Z-1.000000
G03 X23.827181 Y4.681400 Z-1.000000 I0.007044 J-0.215007
G03 X23.762416 Y4.649548 Z-1.000000 I0.097950 J-0.280928
G01 X23.753661 Y4.633370 Z-1.000000
G01 X23.743675 Y4.622677 Z-1.000000
G02 X23.655631 Y4.626670 Z-1.000000 I-0.026543 J0.387409
G03 X23.577967 Y4.618464 Z-1.000000 I-0.023641 J-0.147874
G01 X23.557601 Y4.588750 Z-1.000000
G03 X23.567862 Y4.553562 Z-1.000000 I0.065465 J0.000000
G01 X23.582111 Y4.550300 Z-1.000000
G01 X23.597383 Y4.548880 Z-1.000000
G01 X23.606621 Y4.528010 Z-1.000000
G01 X23.595186 Y4.507208 Z-1.000000
G01 X23.569861 Y4.504680 Z-1.000000
G01 X23.542549 Y4.505045 Z-1.000000
G01 X23.533101 Y4.491660 Z-1.000000
G01 X23.540031 Y4.471484 Z-1.000000
G01 X23.554261 Y4.464530 Z-1.000000
G01 X23.566460 Y4.456057 Z-1.000000
G02 X23.572641 Y4.415200 Z-1.000000 I-0.094436 J-0.035182
G02 X23.560788 Y4.378357 Z-1.000000 I-0.076300 J0.004219
G01 X23.545351 Y4.372310 Z-1.000000
G01 X23.530799 Y4.385378 Z-1.000000
G02 X23.526681 Y4.421640 Z-1.000000 I0.069450 J0.026251
G01 X23.518704 Y4.452461 Z-1.000000
G01 X23.494601 Y4.464530 Z-1.000000
G01 X23.473320 Y4.455251 Z-1.000000
G01 X23.471831 Y4.440020 Z-1.000000
G01 X23.467973 Y4.426107 Z-1.000000
G02 X23.424261 Y4.415510 Z-1.000000 I-0.043712 J0.084852
G02 X23.374933 Y4.428900 Z-1.000000 I0.000000 J0.097559
G01 X23.361541 Y4.452270 Z-1.000000
G01 X23.321847 Y4.488626 Z-1.000000
G03 X23.245993 Y4.442110 Z-1.000000 I0.008740 J-0.099359
G03 X23.235040 Y4.398148 Z-1.000000 I0.062197 J-0.038842
G01 X23.251293 Y4.366480 Z-1.000000
G03 X23.286655 Y4.348815 Z-1.000000 I0.055520 J0.066912
G01 X23.309773 Y4.352540 Z-1.000000
G01 X23.339048 Y4.340087 Z-1.000000
G02 X23.325843 Y4.278210 Z-1.000000 I-0.075303 J-0.016277
G01 X23.296806 Y4.269498 Z-1.000000
G02 X23.265403 Y4.300580 Z-1.000000 I0.018566 J0.050162
G01 X23.223829 Y4.314631 Z-1.000000
G03 X23.190003 Y4.253910 Z-1.000000 I0.037586 J-0.060721
G02 X23.179016 Y4.171994 Z-1.000000 I-0.310869 J0.000000
G02 X23.150083 Y4.107790 Z-1.000000 I-0.217604 J0.059441
G03 X23.124769 Y4.043545 Z-1.000000 I0.142047 J-0.093080
G03 X23.123043 Y3.950854 Z-1.000000 I0.301682 J-0.051977
G02 X23.118422 Y3.861251 Z-1.000000 I-0.242211 J-0.032430
G02 X23.089893 Y3.813194 Z-1.000000 I-0.092053 J0.022152
G02 X23.043437 Y3.791773 Z-1.000000 I-0.057424 J0.063451
G01 X23.006653 Y3.802434 Z-1.000000
G03 X22.969432 Y3.815974 Z-1.000000 I-0.037526 J-0.045226
G03 X22.932663 Y3.802815 Z-1.000000 I-0.000297 J-0.057120
G03 X22.903986 Y3.768507 Z-1.000000 I0.078940 J-0.095124
G03 X22.895903 Y3.737775 Z-1.000000 I0.054383 J-0.030732
G03 X22.931260 Y3.688555 Z-1.000000 I0.051938 J-0.000000
G03 X23.002630 Y3.701825 Z-1.000000 I0.023789 J0.070617
G01 X23.041625 Y3.700622 Z-1.000000
G02 X23.067460 Y3.640875 Z-1.000000 I-0.056170 J-0.059747
G02 X23.034078 Y3.579526 Z-1.000000 I-0.073064 J0.000000
G02 X22.920411 Y3.545765 Z-1.000000 I-0.114363 J0.176808
G03 X22.855443 Y3.524756 Z-1.000000 I0.000369 J-0.112097
G01 X22.834631 Y3.484215 Z-1.000000
G01 X22.855447 Y3.443764 Z-1.000000
G03 X22.920411 Y3.422945 Z-1.000000 I0.064964 J0.090946
G02 X22.983101 Y3.399854 Z-1.000000 I-0.000000 J-0.096644
G02 X23.006191 Y3.349835 Z-1.000000 I-0.042632 J-0.050019
G02 X22.983797 Y3.295780 Z-1.000000 I-0.076437 J0.000000
G02 X22.918851 Y3.262525 Z-1.000000 I-0.084015 J0.084032
G02 X22.835809 Y3.260814 Z-1.000000 I-0.047592 J0.293766
G01 X22.805436 Y3.276245 Z-1.000000
G01 X22.805411 Y3.276299 Z-1.000000
G00 Z5.000000

(End cutting path id: path2)


(Start cutting path id: path2)
(Change tool to Default tool)

G00 Z5.000000
G00 X22.581600 Y3.229839

G01 Z-1.000000 F100.0(Penetrate)
G02 X22.688173 Y3.328580 Z-1.000000 I0.121520 J-0.024275 F3500.000000
G02 X22.773335 Y3.253139 Z-1.000000 I0.009166 J-0.075441
G01 X22.748506 Y3.216325 Z-1.000000
G02 X22.618362 Y3.190519 Z-1.000000 I-0.132791 J0.328609
G01 X22.589230 Y3.203033 Z-1.000000
G01 X22.581602 Y3.229839 Z-1.000000
G01 X22.581600 Y3.229839 Z-1.000000
G00 Z5.000000

(End cutting path id: path2)


(Start cutting path id: path2)
(Change tool to Default tool)

G00 Z5.000000
G00 X21.302846 Y3.043159

G01 Z-1.000000 F100.0(Penetrate)
G02 X21.340890 Y3.062574 Z-1.000000 I0.113895 J-0.176201 F3500.000000
G02 X21.364116 Y3.066919 Z-1.000000 I0.023226 J-0.059898
G01 X21.367853 Y3.060793 Z-1.000000
G01 X21.351866 Y3.043159 Z-1.000000
G02 X21.313822 Y3.023744 Z-1.000000 I-0.113895 J0.176201
G02 X21.290596 Y3.019399 Z-1.000000 I-0.023226 J0.059898
G01 X21.286859 Y3.025525 Z-1.000000
G01 X21.302846 Y3.043159 Z-1.000000
G01 X21.302846 Y3.043159 Z-1.000000
G00 Z5.000000

(End cutting path id: path2)


(Start cutting path id: path2)
(Change tool to Default tool)

G00 Z5.000000
G00 X21.143543 Y3.141159

G01 Z-1.000000 F100.0(Penetrate)
G01 X21.142385 Y3.157851 Z-1.000000 F3500.000000
G01 X21.154353 Y3.165669 Z-1.000000
G01 X21.172924 Y3.158283 Z-1.000000
G01 X21.180303 Y3.141159 Z-1.000000
G02 X21.176015 Y3.120893 Z-1.000000 I-0.050033 J-0.000000
G01 X21.169493 Y3.116649 Z-1.000000
G01 X21.160692 Y3.120142 Z-1.000000
G02 X21.143543 Y3.141159 Z-1.000000 I0.071266 J0.075654
G01 X21.143543 Y3.141159 Z-1.000000
G00 Z5.000000

(End cutting path id: path2)


(Start cutting path id: path2)
(Change tool to Default tool)

G00 Z5.000000
G00 X21.106781 Y3.028049

G01 Z-1.000000 F100.0(Penetrate)
G01 X21.148483 Y3.074807 Z-1.000000 F3500.000000
G02 X21.218490 Y3.040859 Z-1.000000 I0.008269 J-0.072106
G01 X21.214686 Y3.028425 Z-1.000000
G02 X21.169500 Y3.018649 Z-1.000000 I-0.045186 J0.099540
G02 X21.111154 Y3.022974 Z-1.000000 I0.000000 J0.395684
G01 X21.106780 Y3.028049 Z-1.000000
G01 X21.106781 Y3.028049 Z-1.000000
G00 Z5.000000

(End cutting path id: path2)


(Start cutting path id: path2)
(Change tool to Default tool)

G00 Z5.000000
G00 X20.970860 Y3.044989

G01 Z-1.000000 F100.0(Penetrate)
G01 X20.950567 Y3.057361 Z-1.000000 F3500.000000
G03 X20.865915 Y3.053389 Z-1.000000 I-0.026736 J-0.334246
G01 X20.775925 Y3.037599 Z-1.000000
G01 X20.824945 Y3.087959 Z-1.000000
G02 X20.879747 Y3.119362 Z-1.000000 I0.082317 J-0.080134
G02 X20.957908 Y3.120749 Z-1.000000 I0.042122 J-0.170750
G02 X21.034413 Y3.094820 Z-1.000000 I-0.069546 J-0.331024
G01 X21.050848 Y3.076199 Z-1.000000
G01 X21.027363 Y3.026115 Z-1.000000
G01 X20.970868 Y3.044999 Z-1.000000
G01 X20.970860 Y3.044989 Z-1.000000
G00 Z5.000000

(End cutting path id: path2)


(Start cutting path id: path2)
(Change tool to Default tool)

G00 Z5.000000
G00 X20.248996 Y4.049401

G01 Z-1.000000 F100.0(Penetrate)
G01 X20.256798 Y4.061368 Z-1.000000 F3500.000000
G01 X20.273506 Y4.060211 Z-1.000000
G02 X20.294501 Y4.043114 Z-1.000000 I-0.054127 J-0.087908
G01 X20.298016 Y4.034261 Z-1.000000
G01 X20.293779 Y4.027746 Z-1.000000
G01 X20.273506 Y4.023451 Z-1.000000
G01 X20.256378 Y4.030834 Z-1.000000
G01 X20.248996 Y4.049401 Z-1.000000
G01 X20.248996 Y4.049401 Z-1.000000
G00 Z5.000000

(End cutting path id: path2)


(Start cutting path id: path2)
(Change tool to Default tool)

G00 Z5.000000
G00 X20.044761 Y4.284862

G01 Z-1.000000 F100.0(Penetrate)
G02 X20.032699 Y4.337707 Z-1.000000 I0.036021 J0.036021 F3500.000000
G01 X20.073351 Y4.366552 Z-1.000000
G02 X20.118972 Y4.341697 Z-1.000000 I0.000000 J-0.054296
G01 X20.114781 Y4.302362 Z-1.000000
G02 X20.071016 Y4.277581 Z-1.000000 I-0.066622 J0.066622
G01 X20.044761 Y4.284852 Z-1.000000
G01 X20.044761 Y4.284862 Z-1.000000
G00 Z5.000000

(End cutting path id: path2)


(Start cutting path id: path2)
(Change tool to Default tool)

G00 Z5.000000
G00 X19.984834 Y4.464849

G01 Z-1.000000 F100.0(Penetrate)
G02 X19.955464 Y4.538187 Z-1.000000 I0.063236 J0.067874 F3500.000000
G02 X19.992334 Y4.591949 Z-1.000000 I0.063056 J-0.003720
G02 X20.064877 Y4.583246 Z-1.000000 I0.029126 J-0.063918
G02 X20.109058 Y4.500169 Z-1.000000 I-0.072016 J-0.091585
G02 X20.069996 Y4.444324 Z-1.000000 I-0.053820 J-0.003938
G02 X19.984843 Y4.464849 Z-1.000000 I-0.024381 J0.085753
G01 X19.984834 Y4.464849 Z-1.000000
G00 Z5.000000

(End cutting path id: path2)


(Start cutting path id: path2)
(Change tool to Default tool)

G00 Z5.000000
G00 X19.742394 Y4.287562

G01 Z-1.000000 F100.0(Penetrate)
G02 X19.720632 Y4.310815 Z-1.000000 I0.034301 J0.053911 F3500.000000
G02 X19.697824 Y4.369082 Z-1.000000 I0.216184 J0.118221
G01 X19.710587 Y4.409193 Z-1.000000
G02 X19.768114 Y4.429352 Z-1.000000 I0.054614 J-0.063690
G02 X19.846192 Y4.393880 Z-1.000000 I-0.003923 J-0.112299
G02 X19.858154 Y4.333232 Z-1.000000 I-0.042592 J-0.039905
G02 X19.806950 Y4.281386 Z-1.000000 I-0.084298 J0.032045
G02 X19.742391 Y4.287562 Z-1.000000 I-0.026217 J0.066459
G01 X19.742394 Y4.287562 Z-1.000000
G00 Z5.000000

(End cutting path id: path2)


(Start cutting path id: path2)
(Change tool to Default tool)

G00 Z5.000000
G00 X19.709816 Y4.146021

G01 Z-1.000000 F100.0(Penetrate)
G01 X19.717199 Y4.163149 Z-1.000000 F3500.000000
G01 X19.735766 Y4.170531 Z-1.000000
G01 X19.747731 Y4.162733 Z-1.000000
G01 X19.746576 Y4.146021 Z-1.000000
G02 X19.729479 Y4.125026 Z-1.000000 I-0.087908 J0.054127
G01 X19.720626 Y4.121511 Z-1.000000
G01 X19.714111 Y4.125748 Z-1.000000
G01 X19.709816 Y4.146021 Z-1.000000
G01 X19.709816 Y4.146021 Z-1.000000
G00 Z5.000000

(End cutting path id: path2)


(Start cutting path id: path2)
(Change tool to Default tool)

G00 Z5.000000
G00 X19.848284 Y4.083871

G01 Z-1.000000 F100.0(Penetrate)
G02 X19.822540 Y4.142656 Z-1.000000 I0.039709 J0.052419 F3500.000000
G01 X19.855584 Y4.159031 Z-1.000000
G02 X19.922444 Y4.078154 Z-1.000000 I-0.085245 J-0.138545
G01 X19.897444 Y4.048742 Z-1.000000
G01 X19.893959 Y4.050260 Z-1.000000
G02 X19.848264 Y4.083872 Z-1.000000 I1.174987 J1.645247
G01 X19.848284 Y4.083871 Z-1.000000
G00 Z5.000000

(End cutting path id: path2)


(Start cutting path id: path2)
(Change tool to Default tool)

G00 Z5.000000
G00 X19.415718 Y4.121521

G01 Z-1.000000 F100.0(Penetrate)
G01 X19.424261 Y4.137486 Z-1.000000 F3500.000000
G02 X19.452478 Y4.146031 Z-1.000000 I0.028217 J-0.042315
G02 X19.480695 Y4.137486 Z-1.000000 I-0.000000 J-0.050861
G01 X19.489238 Y4.121521 Z-1.000000
G01 X19.480695 Y4.105556 Z-1.000000
G02 X19.452478 Y4.097011 Z-1.000000 I-0.028217 J0.042315
G02 X19.424261 Y4.105556 Z-1.000000 I-0.000000 J0.050861
G01 X19.415718 Y4.121521 Z-1.000000
G01 X19.415718 Y4.121521 Z-1.000000
G00 Z5.000000

(End cutting path id: path2)


(Start cutting path id: path2)
(Change tool to Default tool)

G00 Z5.000000
G00 X19.440226 Y4.611635

G01 Z-1.000000 F100.0(Penetrate)
G01 X19.431566 Y4.627481 Z-1.000000 F3500.000000
G03 X19.402016 Y4.636145 Z-1.000000 I-0.029550 J-0.046058
G01 X19.380493 Y4.626844 Z-1.000000
G01 X19.378956 Y4.611635 Z-1.000000
G03 X19.397328 Y4.592934 Z-1.000000 I0.050115 J0.030857
G01 X19.417166 Y4.587125 Z-1.000000
G01 X19.433266 Y4.594082 Z-1.000000
G01 X19.440226 Y4.611635 Z-1.000000
G01 X19.440226 Y4.611635 Z-1.000000
G00 Z5.000000

(End cutting path id: path2)


(Start cutting path id: path2)
(Change tool to Default tool)

G00 Z5.000000
G00 X19.501497 Y4.685165

G01 Z-1.000000 F100.0(Penetrate)
G01 X19.502655 Y4.701857 Z-1.000000 F3500.000000
G01 X19.490687 Y4.709675 Z-1.000000
G01 X19.472116 Y4.702289 Z-1.000000
G01 X19.464737 Y4.685165 Z-1.000000
G03 X19.469025 Y4.664899 Z-1.000000 I0.050033 J0.000000
G01 X19.475547 Y4.660655 Z-1.000000
G01 X19.484347 Y4.664147 Z-1.000000
G03 X19.501507 Y4.685165 Z-1.000000 I-0.071414 J0.075818
G01 X19.501497 Y4.685165 Z-1.000000
G00 Z5.000000

(End cutting path id: path2)


(Start cutting path id: path2)
(Change tool to Default tool)

G00 Z5.000000
G00 X18.813177 Y4.832165

G01 Z-1.000000 F100.0(Penetrate)
G02 X18.799583 Y4.869448 Z-1.000000 I0.523828 J0.212118 F3500.000000
G02 X18.761347 Y4.991519 Z-1.000000 I5.541148 J1.802659
G03 X18.651849 Y5.219268 Z-1.000000 I-0.780439 J-0.235028
G03 X18.213530 Y5.785748 Z-1.000000 I-5.389665 J-3.717478
G02 X18.168924 Y5.854507 Z-1.000000 I0.225609 J0.195208
G01 X18.178050 Y5.861558 Z-1.000000
G03 X18.206030 Y5.849758 Z-1.000000 I0.033501 J0.040366
G01 X18.214810 Y5.857658 Z-1.000000
G01 X18.206345 Y5.879239 Z-1.000000
G03 X18.165790 Y5.910538 Z-1.000000 I-0.113766 J-0.105485
G03 X18.126845 Y5.919955 Z-1.000000 I-0.037599 J-0.070257
G01 X18.116770 Y5.909708 Z-1.000000
G02 X18.014534 Y5.867108 Z-1.000000 I-0.059993 J-0.000000
G02 X17.585532 Y6.436484 Z-1.000000 I1.750159 J1.764981
G02 X17.541800 Y6.565955 Z-1.000000 I0.342082 J0.187667
G02 X17.522542 Y6.854102 Z-1.000000 I1.722776 J0.259859
G03 X17.480685 Y7.312798 Z-1.000000 I-2.153588 J0.034738
G03 X17.410792 Y7.410492 Z-1.000000 I-0.143489 J-0.028807
G03 X17.281013 Y7.432154 Z-1.000000 I-0.093528 J-0.160743
G03 X17.234479 Y7.375462 Z-1.000000 I0.011267 J-0.056692
G01 X17.225491 Y7.348791 Z-1.000000
G02 X17.188659 Y7.315192 Z-1.000000 I-0.110107 J0.083715
G03 X17.122112 Y7.218634 Z-1.000000 I0.078101 J-0.125038
G03 X17.152719 Y7.132613 Z-1.000000 I0.087670 J-0.017262
G01 X17.151210 Y7.110667 Z-1.000000
G01 X17.115519 Y7.109523 Z-1.000000
G03 X17.069388 Y7.123050 Z-1.000000 I-0.055375 J-0.103424
G01 X17.052549 Y7.114523 Z-1.000000
G01 X17.056109 Y7.100080 Z-1.000000
G03 X17.118459 Y7.075403 Z-1.000000 I0.108014 J0.181804
G02 X17.167919 Y7.055558 Z-1.000000 I-0.034934 J-0.158623
G01 X17.167079 Y7.045873 Z-1.000000
G01 X17.152242 Y7.013583 Z-1.000000
G01 X17.186959 Y6.988933 Z-1.000000
G01 X17.214082 Y6.968791 Z-1.000000
G02 X17.220709 Y6.877138 Z-1.000000 I-0.200582 J-0.060570
G03 X17.226776 Y6.780402 Z-1.000000 I0.228339 J-0.034237
G01 X17.255969 Y6.751739 Z-1.000000
G01 X17.288032 Y6.707274 Z-1.000000
G02 X17.246769 Y6.611372 Z-1.000000 I-0.155846 J0.010227
G03 X17.203944 Y6.546613 Z-1.000000 I0.175348 J-0.162496
G01 X17.213869 Y6.537922 Z-1.000000
G01 X17.226013 Y6.533504 Z-1.000000
G02 X17.227149 Y6.497752 Z-1.000000 I-0.059864 J-0.019797
G03 X17.222304 Y6.442302 Z-1.000000 I0.160442 J-0.041956
G03 X17.233949 Y6.413652 Z-1.000000 I0.051388 J0.004195
G02 X17.250161 Y6.384669 Z-1.000000 I-0.070332 J-0.058367
G02 X17.267669 Y6.314342 Z-1.000000 I-0.412250 J-0.139971
G03 X17.280599 Y6.241730 Z-1.000000 I2.345610 J0.380211
G03 X17.284209 Y6.229172 Z-1.000000 I0.072797 J0.014131
G01 X17.286556 Y6.216633 Z-1.000000
G02 X17.284159 Y6.159392 Z-1.000000 I-0.686959 J0.000095
G03 X17.292939 Y6.107102 Z-1.000000 I0.107613 J-0.008812
G03 X17.330459 Y6.054277 Z-1.000000 I0.146980 J0.064658
G02 X17.367520 Y6.000551 Z-1.000000 I-0.103382 J-0.110960
G02 X17.381919 Y5.927990 Z-1.000000 I-0.180351 J-0.073497
G03 X17.390004 Y5.851587 Z-1.000000 I0.382240 J0.001819
G03 X17.406049 Y5.812531 Z-1.000000 I0.113124 J0.023650
G01 X17.420821 Y5.806720 Z-1.000000
G01 X17.430179 Y5.818631 Z-1.000000
G02 X17.438780 Y5.853220 Z-1.000000 I0.076555 J-0.000672
G01 X17.452439 Y5.861521 Z-1.000000
G02 X17.501980 Y5.822822 Z-1.000000 I0.000000 J-0.051059
G02 X17.477259 Y5.762061 Z-1.000000 I-0.053949 J-0.013460
G01 X17.462082 Y5.741313 Z-1.000000
G01 X17.465869 Y5.716811 Z-1.000000
G01 X17.485749 Y5.700989 Z-1.000000
G01 X17.505769 Y5.703261 Z-1.000000
G01 X17.521052 Y5.703833 Z-1.000000
G01 X17.528579 Y5.691411 Z-1.000000
G01 X17.519771 Y5.674257 Z-1.000000
G01 X17.492379 Y5.665451 Z-1.000000
G01 X17.461877 Y5.654910 Z-1.000000
G03 X17.417859 Y5.606961 Z-1.000000 I0.124118 J-0.158123
G02 X17.369460 Y5.568385 Z-1.000000 I-0.082821 J0.054262
G02 X17.275271 Y5.554091 Z-1.000000 I-0.081563 J0.219977
G02 X17.174725 Y5.571035 Z-1.000000 I0.024421 J0.451702
G02 X17.104711 Y5.603141 Z-1.000000 I0.071166 J0.247588
G03 X17.048778 Y5.627400 Z-1.000000 I-0.098302 J-0.150042
G01 X17.038411 Y5.619251 Z-1.000000
G01 X17.046208 Y5.599717 Z-1.000000
G01 X17.064361 Y5.591921 Z-1.000000
G01 X17.076902 Y5.584438 Z-1.000000
G01 X17.076461 Y5.569511 Z-1.000000
G01 X17.075520 Y5.551777 Z-1.000000
G01 X17.091871 Y5.537341 Z-1.000000
G01 X17.101535 Y5.521091 Z-1.000000
G02 X17.079771 Y5.468521 Z-1.000000 I-0.129338 J0.022755
G02 X17.043727 Y5.426349 Z-1.000000 I-0.236554 J0.165690
G01 X17.038401 Y5.428611 Z-1.000000
G01 X17.031920 Y5.436153 Z-1.000000
G01 X17.013491 Y5.432411 Z-1.000000
G01 X17.000174 Y5.414259 Z-1.000000
G01 X17.003421 Y5.393011 Z-1.000000
G01 X17.020799 Y5.384548 Z-1.000000
G03 X17.053871 Y5.398611 Z-1.000000 I-0.006855 J0.062039
G02 X17.088747 Y5.412193 Z-1.000000 I0.037828 J-0.045569
G01 X17.115951 Y5.401711 Z-1.000000
G03 X17.144677 Y5.385911 Z-1.000000 I0.041578 J0.041578
G03 X17.176181 Y5.388211 Z-1.000000 I0.011942 J0.053319
G01 X17.198712 Y5.384841 Z-1.000000
G01 X17.209951 Y5.361791 Z-1.000000
G03 X17.218704 Y5.331163 Z-1.000000 I0.057960 J-0.000000
G01 X17.234461 Y5.322411 Z-1.000000
G01 X17.250380 Y5.331003 Z-1.000000
G03 X17.258971 Y5.359741 Z-1.000000 I-0.043771 J0.028738
G01 X17.272073 Y5.372823 Z-1.000000
G02 X17.316071 Y5.359655 Z-1.000000 I-0.000122 J-0.080496
G03 X17.373316 Y5.327935 Z-1.000000 I0.242034 J0.369284
G01 X17.383761 Y5.328455 Z-1.000000
G01 X17.363421 Y5.307455 Z-1.000000
G03 X17.340485 Y5.276633 Z-1.000000 I0.061060 J-0.069380
G03 X17.332491 Y5.240055 Z-1.000000 I0.079681 J-0.036578
G01 X17.345126 Y5.230374 Z-1.000000
G03 X17.387501 Y5.254875 Z-1.000000 I-0.024669 J0.091561
G03 X17.431496 Y5.313045 Z-1.000000 I-0.187636 J0.187636
G01 X17.435441 Y5.340655 Z-1.000000
G01 X17.441519 Y5.360950 Z-1.000000
G01 X17.467661 Y5.371425 Z-1.000000
G01 X17.488617 Y5.361210 Z-1.000000
G01 X17.489601 Y5.343365 Z-1.000000
G01 X17.494376 Y5.330545 Z-1.000000
G03 X17.538591 Y5.327985 Z-1.000000 I0.027195 J0.086592
G02 X17.584673 Y5.323712 Z-1.000000 I0.015673 J-0.081600
G01 X17.592021 Y5.307025 Z-1.000000
G01 X17.603926 Y5.291898 Z-1.000000
G03 X17.696584 Y5.320605 Z-1.000000 I-0.036646 J0.282168
G01 X17.789134 Y5.367815 Z-1.000000
G01 X17.778054 Y5.289965 Z-1.000000
G01 X17.790168 Y5.255356 Z-1.000000
G01 X17.815124 Y5.255005 Z-1.000000
G01 X17.845092 Y5.257571 Z-1.000000
G01 X17.849274 Y5.233745 Z-1.000000
G03 X17.811768 Y5.168862 Z-1.000000 I0.207569 J-0.163266
G01 X17.813794 Y5.145355 Z-1.000000
G01 X17.828856 Y5.139207 Z-1.000000
G01 X17.849844 Y5.154355 Z-1.000000
G01 X17.861355 Y5.154332 Z-1.000000
G02 X17.871284 Y5.120205 Z-1.000000 I-0.054916 J-0.034485
G03 X17.881688 Y5.062893 Z-1.000000 I0.168235 J0.000939
G01 X17.896164 Y5.052805 Z-1.000000
G01 X17.912010 Y5.044145 Z-1.000000
G02 X17.920674 Y5.014595 Z-1.000000 I-0.046058 J-0.029550
G01 X17.911370 Y4.993070 Z-1.000000
G01 X17.896164 Y4.991535 Z-1.000000
G01 X17.871663 Y4.997913 Z-1.000000
G03 X17.843434 Y4.989235 Z-1.000000 I0.002484 J-0.058331
G01 X17.836642 Y4.970960 Z-1.000000
G03 X17.859054 Y4.939735 Z-1.000000 I0.058791 J0.018543
G01 X17.899464 Y4.931983 Z-1.000000
G03 X17.944884 Y4.961855 Z-1.000000 I-0.020962 J0.081337
G03 X17.984206 Y5.017627 Z-1.000000 I-0.595416 J0.461547
G03 X18.003014 Y5.052795 Z-1.000000 I-0.216439 J0.138365
G01 X18.008861 Y5.051815 Z-1.000000
G02 X18.007814 Y4.995065 Z-1.000000 I-0.280640 J-0.023207
G03 X18.016314 Y4.914115 Z-1.000000 I0.182090 J-0.021802
G01 X18.044354 Y4.888047 Z-1.000000
G02 X18.083892 Y4.869061 Z-1.000000 I-0.029201 J-0.111472
G01 X18.092254 Y4.852427 Z-1.000000
G01 X18.099586 Y4.842485 Z-1.000000
G01 X18.117164 Y4.844727 Z-1.000000
G01 X18.132094 Y4.862498 Z-1.000000
G01 X18.130714 Y4.878497 Z-1.000000
G01 X18.134693 Y4.886804 Z-1.000000
G02 X18.191584 Y4.886297 Z-1.000000 I0.026597 J-0.207666
G02 X18.254201 Y4.867392 Z-1.000000 I-0.031984 J-0.219089
G01 X18.263814 Y4.852217 Z-1.000000
G01 X18.271486 Y4.847265 Z-1.000000
G03 X18.306704 Y4.871627 Z-1.000000 I-0.049079 J0.108587
G02 X18.341023 Y4.886559 Z-1.000000 I0.036125 J-0.036125
G01 X18.357514 Y4.873427 Z-1.000000
G01 X18.386411 Y4.842508 Z-1.000000
G01 X18.415414 Y4.858197 Z-1.000000
G01 X18.430084 Y4.871267 Z-1.000000
G02 X18.464924 Y4.868417 Z-1.000000 I0.012556 J-0.060897
G02 X18.491143 Y4.846222 Z-1.000000 I-0.018556 J-0.048504
G01 X18.493294 Y4.820157 Z-1.000000
G01 X18.501682 Y4.799531 Z-1.000000
G03 X18.611255 Y4.765847 Z-1.000000 I0.180513 J0.392144
G03 X18.788665 Y4.779407 Z-1.000000 I0.061159 J0.367160
G01 X18.813151 Y4.832237 Z-1.000000
G01 X18.813177 Y4.832165 Z-1.000000
G00 Z5.000000

(End cutting path id: path2)


(Start cutting path id: path2)
(Change tool to Default tool)

G00 Z5.000000
G00 X17.822685 Y5.052748

G01 Z-1.000000 F100.0(Penetrate)
G01 X17.815302 Y5.069876 Z-1.000000 F3500.000000
G01 X17.796735 Y5.077258 Z-1.000000
G01 X17.784770 Y5.069460 Z-1.000000
G01 X17.785925 Y5.052748 Z-1.000000
G03 X17.803022 Y5.031753 Z-1.000000 I0.087908 J0.054127
G01 X17.811875 Y5.028238 Z-1.000000
G01 X17.818390 Y5.032475 Z-1.000000
G01 X17.822685 Y5.052748 Z-1.000000
G01 X17.822685 Y5.052748 Z-1.000000
G00 Z5.000000

(End cutting path id: path2)


(Start cutting path id: path2)
(Change tool to Default tool)

G00 Z5.000000
G00 X17.632051 Y5.399933

G01 Z-1.000000 F100.0(Penetrate)
G02 X17.647274 Y5.423973 Z-1.000000 I0.055756 J-0.018467 F3500.000000
G02 X17.701491 Y5.466213 Z-1.000000 I0.238073 J-0.249662
G01 X17.761421 Y5.503953 Z-1.000000
G01 X17.702001 Y5.437673 Z-1.000000
G02 X17.642721 Y5.390965 Z-1.000000 I-0.163587 J0.146646
G01 X17.632051 Y5.399933 Z-1.000000
G01 X17.632051 Y5.399933 Z-1.000000
G00 Z5.000000

(End cutting path id: path2)


(Start cutting path id: path2)
(Change tool to Default tool)

G00 Z5.000000
G00 X17.545216 Y5.441933

G01 Z-1.000000 F100.0(Penetrate)
G02 X17.626344 Y5.557277 Z-1.000000 I0.195087 J-0.051013 F3500.000000
G01 X17.675639 Y5.531293 Z-1.000000
G02 X17.636242 Y5.435295 Z-1.000000 I-0.136655 J-0.000000
G02 X17.542025 Y5.395909 Z-1.000000 I-0.094217 J0.092996
G01 X17.538305 Y5.399904 Z-1.000000
G02 X17.545225 Y5.441939 Z-1.000000 I0.231704 J-0.016559
G01 X17.545216 Y5.441933 Z-1.000000
G00 Z5.000000

(End cutting path id: path2)


(Start cutting path id: path2)
(Change tool to Default tool)

G00 Z5.000000
G00 X17.406050 Y5.420413

G01 Z-1.000000 F100.0(Penetrate)
G01 X17.413433 Y5.437541 Z-1.000000 F3500.000000
G01 X17.432000 Y5.444923 Z-1.000000
G01 X17.443967 Y5.437121 Z-1.000000
G01 X17.442810 Y5.420413 Z-1.000000
G02 X17.425713 Y5.399418 Z-1.000000 I-0.087908 J0.054127
G01 X17.416860 Y5.395903 Z-1.000000
G01 X17.410345 Y5.400140 Z-1.000000
G01 X17.406050 Y5.420413 Z-1.000000
G01 X17.406050 Y5.420413 Z-1.000000
G00 Z5.000000

(End cutting path id: path2)


(Start cutting path id: path2)
(Change tool to Default tool)

G00 Z5.000000
G00 X17.260601 Y5.447333

G01 Z-1.000000 F100.0(Penetrate)
G03 X17.200869 Y5.462717 Z-1.000000 I-0.089654 J-0.224443 F3500.000000
G03 X17.168691 Y5.458803 Z-1.000000 I-0.008267 J-0.066260
G01 X17.144226 Y5.457763 Z-1.000000
G01 X17.136451 Y5.468103 Z-1.000000
G01 X17.160165 Y5.496808 Z-1.000000
G02 X17.263019 Y5.492423 Z-1.000000 I0.042165 J-0.219436
G03 X17.322794 Y5.493886 Z-1.000000 I0.027518 J0.097538
G03 X17.383705 Y5.532953 Z-1.000000 I-0.047219 J0.140639
G02 X17.442873 Y5.583175 Z-1.000000 I0.251019 J-0.235770
G02 X17.471585 Y5.591913 Z-1.000000 I0.028712 J-0.042801
G01 X17.495647 Y5.600344 Z-1.000000
G01 X17.504075 Y5.617863 Z-1.000000
G01 X17.511873 Y5.629828 Z-1.000000
G01 X17.528585 Y5.628673 Z-1.000000
G01 X17.544345 Y5.591087 Z-1.000000
G01 X17.514685 Y5.567403 Z-1.000000
G01 X17.494632 Y5.553968 Z-1.000000
G03 X17.493005 Y5.514683 Z-1.000000 I0.053198 J-0.021880
G01 X17.489502 Y5.483410 Z-1.000000
G01 X17.470855 Y5.476883 Z-1.000000
G03 X17.434779 Y5.478572 Z-1.000000 I-0.020591 J-0.053687
G03 X17.396255 Y5.456083 Z-1.000000 I0.023746 J-0.084918
G02 X17.346627 Y5.433618 Z-1.000000 I-0.054627 J0.054627
G02 X17.260601 Y5.447283 Z-1.000000 I-0.012782 J0.197140
G01 X17.260601 Y5.447333 Z-1.000000
G00 Z5.000000

(End cutting path id: path2)


(Start cutting path id: path2)
(Change tool to Default tool)

G00 Z5.000000
G00 X17.321276 Y5.618076

G01 Z-1.000000 F100.0(Penetrate)
G01 X17.312478 Y5.638736 Z-1.000000 F3500.000000
G03 X17.269466 Y5.629226 Z-1.000000 I-0.011127 J-0.051697
G01 X17.254285 Y5.603919 Z-1.000000
G01 X17.263666 Y5.592716 Z-1.000000
G03 X17.300634 Y5.600130 Z-1.000000 I0.001650 J0.087646
G01 X17.321266 Y5.618076 Z-1.000000
G01 X17.321276 Y5.618076 Z-1.000000
G00 Z5.000000

(End cutting path id: path2)


(Start cutting path id: path2)
(Change tool to Default tool)

G00 Z5.000000
G00 X17.252360 Y5.729286

G01 Z-1.000000 F100.0(Penetrate)
G01 X17.236048 Y5.736446 Z-1.000000 F3500.000000
G03 X17.205390 Y5.731186 Z-1.000000 I-0.003096 J-0.073933
G01 X17.203821 Y5.723563 Z-1.000000
G01 X17.220200 Y5.716376 Z-1.000000
G03 X17.250795 Y5.721601 Z-1.000000 I0.003141 J0.073793
G01 X17.252370 Y5.729246 Z-1.000000
G01 X17.252360 Y5.729286 Z-1.000000
G00 Z5.000000

(End cutting path id: path2)


(Start cutting path id: path2)
(Change tool to Default tool)

G00 Z5.000000
G00 X17.357030 Y5.886036

G01 Z-1.000000 F100.0(Penetrate)
G03 X17.352742 Y5.906302 Z-1.000000 I-0.050033 J0.000000 F3500.000000
G01 X17.346220 Y5.910546 Z-1.000000
G01 X17.337419 Y5.907053 Z-1.000000
G03 X17.320270 Y5.886036 Z-1.000000 I0.071266 J-0.075654
G01 X17.319112 Y5.869344 Z-1.000000
G01 X17.331080 Y5.861526 Z-1.000000
G01 X17.349651 Y5.868912 Z-1.000000
G01 X17.357030 Y5.886036 Z-1.000000
G01 X17.357030 Y5.886036 Z-1.000000
G00 Z5.000000

(End cutting path id: path2)


(Start cutting path id: path2)
(Change tool to Default tool)

G00 Z5.000000
G00 X17.407984 Y6.071895

G01 Z-1.000000 F100.0(Penetrate)
