%
(Header)
(Generated by gcodetools from Inkscape.)
(Using default header. To add your own header create file "header" in the output dir.)
M3
(Header end.)
G21 (All units in mm)

(Start cutting path id: path141054)
(Change tool to Default tool)

G00 Z 5.0000
G00 X 13.2600 Y -3.3945

G01 Z -1.0000 F 100.0000(Penetrate)
G01 X 13.2856 Y -3.3877 Z -1.0000 F 3500.0000
G01 X 13.3027 Y -3.3949 Z -1.0000
G01 X 13.3016 Y -3.4037 Z -1.0000
G01 X 13.2760 Y -3.4105 Z -1.0000
G01 X 13.2588 Y -3.4033 Z -1.0000
G01 X 13.2600 Y -3.3945 Z -1.0000
G01 X 13.2600 Y -3.3945 Z -1.0000
G00 Z 5.0000

(End cutting path id: path141054)


(Start cutting path id: path141054)
(Change tool to Default tool)

G00 Z 5.0000
G00 X 13.4259 Y -3.2632

G01 Z -1.0000 F 100.0000(Penetrate)
G01 X 13.4433 Y -3.2560 Z -1.0000 F 3500.0000
G01 X 13.4606 Y -3.2632 Z -1.0000
G01 X 13.4606 Y -3.2734 Z -1.0000
G01 X 13.4433 Y -3.2806 Z -1.0000
G01 X 13.4259 Y -3.2734 Z -1.0000
G01 X 13.4259 Y -3.2632 Z -1.0000
G01 X 13.4259 Y -3.2632 Z -1.0000
G00 Z 5.0000

(End cutting path id: path141054)


(Start cutting path id: path141054)
(Change tool to Default tool)

G00 Z 5.0000
G00 X 13.4116 Y -3.0389

G01 Z -1.0000 F 100.0000(Penetrate)
G01 X 13.4297 Y -3.0358 Z -1.0000 F 3500.0000
G01 X 13.4393 Y -3.0400 Z -1.0000
G01 X 13.4384 Y -3.0445 Z -1.0000
G01 X 13.4203 Y -3.0476 Z -1.0000
G01 X 13.4106 Y -3.0434 Z -1.0000
G01 X 13.4115 Y -3.0388 Z -1.0000
G01 X 13.4116 Y -3.0389 Z -1.0000
G00 Z 5.0000

(End cutting path id: path141054)


(Start cutting path id: path141054)
(Change tool to Default tool)

G00 Z 5.0000
G00 X 13.8171 Y -2.2857

G01 Z -1.0000 F 100.0000(Penetrate)
G01 X 13.8352 Y -2.2826 Z -1.0000 F 3500.0000
G01 X 13.8449 Y -2.2868 Z -1.0000
G01 X 13.8440 Y -2.2913 Z -1.0000
G01 X 13.8259 Y -2.2944 Z -1.0000
G01 X 13.8162 Y -2.2902 Z -1.0000
G01 X 13.8171 Y -2.2856 Z -1.0000
G01 X 13.8171 Y -2.2857 Z -1.0000
G00 Z 5.0000

(End cutting path id: path141054)


(Start cutting path id: path141054)
(Change tool to Default tool)

G00 Z 5.0000
G00 X 13.9740 Y -2.0105

G01 Z -1.0000 F 100.0000(Penetrate)
G01 X 13.9693 Y -1.9889 Z -1.0000 F 3500.0000
G01 X 13.9864 Y -1.9771 Z -1.0000
G01 X 14.0033 Y -1.9819 Z -1.0000
G01 X 14.0082 Y -1.9907 Z -1.0000
G01 X 13.9951 Y -2.0132 Z -1.0000
G01 X 13.9740 Y -2.0105 Z -1.0000
G01 X 13.9740 Y -2.0105 Z -1.0000
G00 Z 5.0000

(End cutting path id: path141054)


(Start cutting path id: path141054)
(Change tool to Default tool)

G00 Z 5.0000
G00 X 13.8343 Y -1.6438

G01 Z -1.0000 F 100.0000(Penetrate)
G01 X 13.8413 Y -1.6221 Z -1.0000 F 3500.0000
G01 X 13.8524 Y -1.6185 Z -1.0000
G01 X 13.8656 Y -1.6282 Z -1.0000
G01 X 13.8706 Y -1.6438 Z -1.0000
G01 X 13.8656 Y -1.6595 Z -1.0000
G01 X 13.8524 Y -1.6692 Z -1.0000
G01 X 13.8413 Y -1.6656 Z -1.0000
G01 X 13.8343 Y -1.6438 Z -1.0000
G01 X 13.8343 Y -1.6438 Z -1.0000
G00 Z 5.0000

(End cutting path id: path141054)


(Start cutting path id: path141054)
(Change tool to Default tool)

G00 Z 5.0000
G00 X 13.8778 Y -1.2962

G01 Z -1.0000 F 100.0000(Penetrate)
G01 X 13.8833 Y -1.2872 Z -1.0000 F 3500.0000
G02 X 13.9068 Y -1.2817 Z -1.0000 I 0.0234 J -0.0470
G02 X 13.9302 Y -1.2872 Z -1.0000 I 0.0000 J -0.0524
G01 X 13.9357 Y -1.2962 Z -1.0000
G01 X 13.9302 Y -1.3052 Z -1.0000
G02 X 13.9068 Y -1.3107 Z -1.0000 I -0.0234 J 0.0470
G02 X 13.8833 Y -1.3052 Z -1.0000 I 0.0000 J 0.0525
G01 X 13.8778 Y -1.2962 Z -1.0000
G01 X 13.8778 Y -1.2962 Z -1.0000
G00 Z 5.0000

(End cutting path id: path141054)


(Start cutting path id: path141054)
(Change tool to Default tool)

G00 Z 5.0000
G00 X 13.9212 Y -1.2237

G01 Z -1.0000 F 100.0000(Penetrate)
G01 X 13.9255 Y -1.2135 Z -1.0000 F 3500.0000
G01 X 13.9357 Y -1.2093 Z -1.0000
G01 X 13.9460 Y -1.2135 Z -1.0000
G01 X 13.9502 Y -1.2237 Z -1.0000
G01 X 13.9460 Y -1.2340 Z -1.0000
G01 X 13.9357 Y -1.2382 Z -1.0000
G01 X 13.9255 Y -1.2340 Z -1.0000
G01 X 13.9212 Y -1.2237 Z -1.0000
G01 X 13.9212 Y -1.2237 Z -1.0000
G00 Z 5.0000

(End cutting path id: path141054)


(Start cutting path id: path141054)
(Change tool to Default tool)

G00 Z 5.0000
G00 X 13.9502 Y -0.9856

G01 Z -1.0000 F 100.0000(Penetrate)
G01 X 13.9545 Y -0.9671 Z -1.0000 F 3500.0000
G01 X 13.9647 Y -0.9557 Z -1.0000
G01 X 13.9732 Y -0.9575 Z -1.0000
G01 X 13.9792 Y -0.9766 Z -1.0000
G02 X 13.9736 Y -1.0008 Z -1.0000 I -0.0556 J 0.0000
G01 X 13.9647 Y -1.0064 Z -1.0000
G01 X 13.9552 Y -1.0014 Z -1.0000
G01 X 13.9502 Y -0.9856 Z -1.0000
G01 X 13.9502 Y -0.9856 Z -1.0000
G00 Z 5.0000

(End cutting path id: path141054)


(Start cutting path id: path141054)
(Change tool to Default tool)

G00 Z 5.0000
G00 X 13.9575 Y -0.9050

G01 Z -1.0000 F 100.0000(Penetrate)
G01 X 13.9585 Y -0.8961 Z -1.0000 F 3500.0000
G01 X 13.9719 Y -0.8905 Z -1.0000
G01 X 13.9854 Y -0.8961 Z -1.0000
G01 X 13.9864 Y -0.9050 Z -1.0000
G02 X 13.9764 Y -0.9176 Z -1.0000 I -0.0575 J 0.0352
G01 X 13.9719 Y -0.9195 Z -1.0000
G01 X 13.9675 Y -0.9177 Z -1.0000
G02 X 13.9575 Y -0.9050 Z -1.0000 I 0.0469 J 0.0475
G01 X 13.9575 Y -0.9050 Z -1.0000
G00 Z 5.0000

(End cutting path id: path141054)


(Start cutting path id: path141054)
(Change tool to Default tool)

G00 Z 5.0000
G00 X 13.6534 Y -0.9918

G01 Z -1.0000 F 100.0000(Penetrate)
G01 X 13.6641 Y -0.9837 Z -1.0000 F 3500.0000
G01 X 13.6760 Y -0.9854 Z -1.0000
G01 X 13.6800 Y -0.9979 Z -1.0000
G01 X 13.6669 Y -1.0065 Z -1.0000
G01 X 13.6543 Y -1.0009 Z -1.0000
G01 X 13.6534 Y -0.9917 Z -1.0000
G01 X 13.6534 Y -0.9918 Z -1.0000
G00 Z 5.0000

(End cutting path id: path141054)


(Start cutting path id: path141054)
(Change tool to Default tool)

G00 Z 5.0000
G00 X 13.3998 Y -1.3397

G01 Z -1.0000 F 100.0000(Penetrate)
G01 X 13.4054 Y -1.3307 Z -1.0000 F 3500.0000
G02 X 13.4288 Y -1.3252 Z -1.0000 I 0.0234 J -0.0470
G02 X 13.4522 Y -1.3307 Z -1.0000 I 0.0000 J -0.0524
G01 X 13.4577 Y -1.3397 Z -1.0000
G01 X 13.4522 Y -1.3486 Z -1.0000
G02 X 13.4288 Y -1.3541 Z -1.0000 I -0.0234 J 0.0470
G02 X 13.4053 Y -1.3486 Z -1.0000 I 0.0000 J 0.0525
G01 X 13.3998 Y -1.3397 Z -1.0000
G01 X 13.3998 Y -1.3397 Z -1.0000
G00 Z 5.0000

(End cutting path id: path141054)


(Start cutting path id: path141054)
(Change tool to Default tool)

G00 Z 5.0000
G00 X 12.9363 Y -1.4190

G01 Z -1.0000 F 100.0000(Penetrate)
G02 X 12.9530 Y -1.3709 Z -1.0000 I 0.0778 J -0.0000 F 3500.0000
G01 X 12.9875 Y -1.3541 Z -1.0000
G01 X 13.0044 Y -1.3583 Z -1.0000
G01 X 13.0083 Y -1.3650 Z -1.0000
G02 X 12.9708 Y -1.4363 Z -1.0000 I -0.0940 J 0.0039
G01 X 12.9363 Y -1.4190 Z -1.0000
G01 X 12.9363 Y -1.4190 Z -1.0000
G00 Z 5.0000

(End cutting path id: path141054)


(Start cutting path id: path141054)
(Change tool to Default tool)

G00 Z 5.0000
G00 X 12.8639 Y -0.8905

G01 Z -1.0000 F 100.0000(Penetrate)
G01 X 12.8690 Y -0.8811 Z -1.0000 F 3500.0000
G01 X 12.8865 Y -0.8761 Z -1.0000
G01 X 12.8992 Y -0.8815 Z -1.0000
G01 X 12.9001 Y -0.8905 Z -1.0000
G01 X 12.8892 Y -0.9016 Z -1.0000
G01 X 12.8775 Y -0.9050 Z -1.0000
G01 X 12.8680 Y -0.9009 Z -1.0000
G01 X 12.8639 Y -0.8905 Z -1.0000
G01 X 12.8639 Y -0.8905 Z -1.0000
G00 Z 5.0000

(End cutting path id: path141054)


(Start cutting path id: path141054)
(Change tool to Default tool)

G00 Z 5.0000
G00 X 12.7118 Y -0.8181

G01 Z -1.0000 F 100.0000(Penetrate)
G01 X 12.7109 Y -0.8081 Z -1.0000 F 3500.0000
G01 X 12.7173 Y -0.8036 Z -1.0000
G01 X 12.7298 Y -0.8072 Z -1.0000
G01 X 12.7407 Y -0.8181 Z -1.0000
G01 X 12.7417 Y -0.8282 Z -1.0000
G01 X 12.7352 Y -0.8326 Z -1.0000
G01 X 12.7227 Y -0.8291 Z -1.0000
G01 X 12.7118 Y -0.8181 Z -1.0000
G01 X 12.7118 Y -0.8181 Z -1.0000
G00 Z 5.0000

(End cutting path id: path141054)


(Start cutting path id: path141054)
(Change tool to Default tool)

G00 Z 5.0000
G00 X 13.5736 Y -0.4263

G01 Z -1.0000 F 100.0000(Penetrate)
G01 X 13.5794 Y -0.4069 Z -1.0000 F 3500.0000
G01 X 13.5875 Y -0.4051 Z -1.0000
G01 X 13.5949 Y -0.4158 Z -1.0000
G01 X 13.5932 Y -0.4349 Z -1.0000
G01 X 13.5822 Y -0.4394 Z -1.0000
G01 X 13.5736 Y -0.4263 Z -1.0000
G01 X 13.5736 Y -0.4263 Z -1.0000
G00 Z 5.0000

(End cutting path id: path141054)


(Start cutting path id: path141054)
(Change tool to Default tool)

G00 Z 5.0000
G00 X 14.1385 Y -0.6299

G01 Z -1.0000 F 100.0000(Penetrate)
G01 X 14.1428 Y -0.6197 Z -1.0000 F 3500.0000
G01 X 14.1530 Y -0.6154 Z -1.0000
G01 X 14.1632 Y -0.6197 Z -1.0000
G01 X 14.1675 Y -0.6299 Z -1.0000
G01 X 14.1632 Y -0.6402 Z -1.0000
G01 X 14.1530 Y -0.6444 Z -1.0000
G01 X 14.1427 Y -0.6401 Z -1.0000
G01 X 14.1385 Y -0.6299 Z -1.0000
G01 X 14.1385 Y -0.6299 Z -1.0000
G00 Z 5.0000

(End cutting path id: path141054)


(Start cutting path id: path141054)
(Change tool to Default tool)

G00 Z 5.0000
G00 X 14.3975 Y -1.1979

G01 Z -1.0000 F 100.0000(Penetrate)
G02 X 14.3968 Y -1.1876 Z -1.0000 I 0.0548 J 0.0091 F 3500.0000
G02 X 14.3981 Y -1.1750 Z -1.0000 I 0.0812 J -0.0019
G01 X 14.3817 Y -1.1391 Z -1.0000
G03 X 14.3274 Y -1.1326 Z -1.0000 I -0.0344 J -0.0571
G01 X 14.3239 Y -1.1302 Z -1.0000
G01 X 14.3268 Y -1.1240 Z -1.0000
G02 X 14.3500 Y -1.1127 Z -1.0000 I 0.0445 J -0.0618
G02 X 14.3811 Y -1.1081 Z -1.0000 I 0.0319 J -0.1095
G01 X 14.4048 Y -1.0990 Z -1.0000
G01 X 14.4137 Y -1.0789 Z -1.0000
G01 X 14.4284 Y -1.0643 Z -1.0000
G02 X 14.4693 Y -1.0792 Z -1.0000 I -0.0003 J -0.0643
G02 X 14.4868 Y -1.1081 Z -1.0000 I -0.0331 J -0.0397
G01 X 14.4802 Y -1.1304 Z -1.0000
G01 X 14.4639 Y -1.1373 Z -1.0000
G01 X 14.4572 Y -1.1307 Z -1.0000
G01 X 14.4518 Y -1.1133 Z -1.0000
G01 X 14.4415 Y -1.1079 Z -1.0000
G01 X 14.4340 Y -1.1144 Z -1.0000
G03 X 14.4350 Y -1.1495 Z -1.0000 I 0.0942 J -0.0147
G02 X 14.4343 Y -1.1858 Z -1.0000 I -0.0748 J -0.0165
G01 X 14.4217 Y -1.1998 Z -1.0000
G01 X 14.4025 Y -1.2026 Z -1.0000
G01 X 14.3975 Y -1.1980 Z -1.0000
G01 X 14.3975 Y -1.1979 Z -1.0000
G00 Z 5.0000

(End cutting path id: path141054)


(Start cutting path id: path141054)
(Change tool to Default tool)

G00 Z 5.0000
G00 X 14.4137 Y -2.0205

G01 Z -1.0000 F 100.0000(Penetrate)
G01 X 14.4193 Y -2.0115 Z -1.0000 F 3500.0000
G02 X 14.4435 Y -2.0060 Z -1.0000 I 0.0242 J -0.0501
G01 X 14.4626 Y -2.0120 Z -1.0000
G01 X 14.4644 Y -2.0205 Z -1.0000
G01 X 14.4531 Y -2.0307 Z -1.0000
G01 X 14.4346 Y -2.0350 Z -1.0000
G01 X 14.4187 Y -2.0300 Z -1.0000
G01 X 14.4137 Y -2.0205 Z -1.0000
G01 X 14.4137 Y -2.0205 Z -1.0000
G00 Z 5.0000

(End cutting path id: path141054)


(Start cutting path id: path141054)
(Change tool to Default tool)

G00 Z 5.0000
G00 X 15.4023 Y -2.7785

G01 Z -1.0000 F 100.0000(Penetrate)
G01 X 15.3833 Y -2.7525 Z -1.0000 F 3500.0000
G01 X 15.3984 Y -2.7231 Z -1.0000
G01 X 15.4486 Y -2.7243 Z -1.0000
G01 X 15.4618 Y -2.7666 Z -1.0000
G01 X 15.4432 Y -2.7823 Z -1.0000
G02 X 15.4023 Y -2.7785 Z -1.0000 I -0.0141 J 0.0702
G01 X 15.4023 Y -2.7785 Z -1.0000
G00 Z 5.0000

(End cutting path id: path141054)


(Start cutting path id: path141054)
(Change tool to Default tool)

G00 Z 5.0000
G00 X 15.7752 Y -1.4283

G01 Z -1.0000 F 100.0000(Penetrate)
G01 X 15.7954 Y -1.3906 Z -1.0000 F 3500.0000
G01 X 15.8325 Y -1.3900 Z -1.0000
G01 X 15.8424 Y -1.4204 Z -1.0000
G01 X 15.8115 Y -1.4411 Z -1.0000
G02 X 15.7805 Y -1.4358 Z -1.0000 I -0.0000 J 0.0935
G01 X 15.7752 Y -1.4283 Z -1.0000
G01 X 15.7752 Y -1.4283 Z -1.0000
G00 Z 5.0000

(End cutting path id: path141054)


(Start cutting path id: path141054)
(Change tool to Default tool)

G00 Z 5.0000
G00 X 16.1180 Y -1.2865

G01 Z -1.0000 F 100.0000(Penetrate)
G01 X 16.1180 Y -1.2621 Z -1.0000 F 3500.0000
G01 X 16.1543 Y -1.2500 Z -1.0000
G01 X 16.1754 Y -1.2629 Z -1.0000
G01 X 16.1733 Y -1.2765 Z -1.0000
G02 X 16.1365 Y -1.2923 Z -1.0000 I -0.0528 J 0.0723
G01 X 16.1180 Y -1.2865 Z -1.0000
G01 X 16.1180 Y -1.2865 Z -1.0000
G00 Z 5.0000

(End cutting path id: path141054)


(Start cutting path id: path141054)
(Change tool to Default tool)

G00 Z 5.0000
G00 X 15.6235 Y -1.0071

G01 Z -1.0000 F 100.0000(Penetrate)
G01 X 15.6233 Y -0.9975 Z -1.0000 F 3500.0000
G01 X 15.6341 Y -0.9884 Z -1.0000
G02 X 15.6753 Y -0.9871 Z -1.0000 I 0.0225 J -0.0613
G01 X 15.6883 Y -1.0046 Z -1.0000
G01 X 15.6648 Y -1.0291 Z -1.0000
G01 X 15.6235 Y -1.0071 Z -1.0000
G01 X 15.6235 Y -1.0071 Z -1.0000
G00 Z 5.0000

(End cutting path id: path141054)


(Start cutting path id: path141054)
(Change tool to Default tool)

G00 Z 5.0000
G00 X 15.5391 Y -0.5482

G01 Z -1.0000 F 100.0000(Penetrate)
G01 X 15.5385 Y -0.5033 Z -1.0000 F 3500.0000
G02 X 15.6123 Y -0.4708 Z -1.0000 I 0.0753 J -0.0712
G01 X 15.6257 Y -0.4834 Z -1.0000
G02 X 15.6154 Y -0.5295 Z -1.0000 I -0.0878 J -0.0046
G02 X 15.5774 Y -0.5590 Z -1.0000 I -0.0521 J 0.0279
G01 X 15.5391 Y -0.5482 Z -1.0000
G01 X 15.5391 Y -0.5482 Z -1.0000
G00 Z 5.0000

(End cutting path id: path141054)


(Start cutting path id: path141054)
(Change tool to Default tool)

G00 Z 5.0000
G00 X 15.1379 Y -0.4980

G01 Z -1.0000 F 100.0000(Penetrate)
G01 X 15.1366 Y -0.4926 Z -1.0000 F 3500.0000
G01 X 15.1415 Y -0.4905 Z -1.0000
G01 X 15.1616 Y -0.4913 Z -1.0000
G01 X 15.1669 Y -0.4846 Z -1.0000
G01 X 15.1724 Y -0.4761 Z -1.0000
G02 X 15.1976 Y -0.4706 Z -1.0000 I 0.0253 J -0.0553
G01 X 15.2115 Y -0.4785 Z -1.0000
G01 X 15.2103 Y -0.4923 Z -1.0000
G01 X 15.1778 Y -0.5091 Z -1.0000
G02 X 15.1379 Y -0.4980 Z -1.0000 I -0.0047 J 0.0602
G01 X 15.1379 Y -0.4980 Z -1.0000
G00 Z 5.0000

(End cutting path id: path141054)


(Start cutting path id: path141054)
(Change tool to Default tool)

G00 Z 5.0000
G00 X 16.5106 Y -1.8820

G01 Z -1.0000 F 100.0000(Penetrate)
G01 X 16.5066 Y -1.8715 Z -1.0000 F 3500.0000
G02 X 16.5128 Y -1.8416 Z -1.0000 I 0.1027 J -0.0056
G03 X 16.5199 Y -1.8105 Z -1.0000 I -0.1180 J 0.0435
G01 X 16.5177 Y -1.7919 Z -1.0000
G01 X 16.5269 Y -1.7527 Z -1.0000
G02 X 16.5808 Y -1.7309 Z -1.0000 I 0.0539 J -0.0558
G01 X 16.5980 Y -1.7489 Z -1.0000
G01 X 16.5782 Y -1.7835 Z -1.0000
G03 X 16.5553 Y -1.8076 Z -1.0000 I 0.0399 J -0.0609
G01 X 16.5579 Y -1.8181 Z -1.0000
G01 X 16.5738 Y -1.8563 Z -1.0000
G01 X 16.5420 Y -1.8869 Z -1.0000
G02 X 16.5209 Y -1.8873 Z -1.0000 I -0.0116 J 0.0593
G01 X 16.5105 Y -1.8820 Z -1.0000
G01 X 16.5106 Y -1.8820 Z -1.0000
G00 Z 5.0000

(End cutting path id: path141054)


(Start cutting path id: path141054)
(Change tool to Default tool)

G00 Z 5.0000
G00 X 16.5928 Y -1.8455

G01 Z -1.0000 F 100.0000(Penetrate)
G01 X 16.5984 Y -1.8120 Z -1.0000 F 3500.0000
G01 X 16.6315 Y -1.8136 Z -1.0000
G01 X 16.6387 Y -1.8445 Z -1.0000
G01 X 16.6154 Y -1.8612 Z -1.0000
G01 X 16.6045 Y -1.8578 Z -1.0000
G01 X 16.5928 Y -1.8455 Z -1.0000
G01 X 16.5928 Y -1.8455 Z -1.0000
G00 Z 5.0000

(End cutting path id: path141054)


(Start cutting path id: path141054)
(Change tool to Default tool)

G00 Z 5.0000
G00 X 17.2677 Y -1.7748

G01 Z -1.0000 F 100.0000(Penetrate)
G01 X 17.2585 Y -1.7580 Z -1.0000 F 3500.0000
G02 X 17.2677 Y -1.7168 Z -1.0000 I 0.0961 J 0.0000
G01 X 17.2941 Y -1.6919 Z -1.0000
G01 X 17.3215 Y -1.6951 Z -1.0000
G02 X 17.3479 Y -1.7310 Z -1.0000 I -0.0401 J -0.0573
G01 X 17.3375 Y -1.7452 Z -1.0000
G01 X 17.3232 Y -1.7495 Z -1.0000
G03 X 17.3049 Y -1.7667 Z -1.0000 I 0.0406 J -0.0614
G01 X 17.2870 Y -1.7782 Z -1.0000
G01 X 17.2677 Y -1.7748 Z -1.0000
G01 X 17.2677 Y -1.7748 Z -1.0000
G00 Z 5.0000

(End cutting path id: path141054)


(Start cutting path id: path141054)
(Change tool to Default tool)

G00 Z 5.0000
G00 X 17.5257 Y -1.7225

G01 Z -1.0000 F 100.0000(Penetrate)
G02 X 17.5554 Y -1.6567 Z -1.0000 I 0.1063 J -0.0084 F 3500.0000
G01 X 17.5897 Y -1.6564 Z -1.0000
G01 X 17.5962 Y -1.6728 Z -1.0000
G01 X 17.5887 Y -1.6902 Z -1.0000
G03 X 17.5748 Y -1.7090 Z -1.0000 I 0.0551 J -0.0551
G01 X 17.5715 Y -1.7228 Z -1.0000
G01 X 17.5754 Y -1.7252 Z -1.0000
G01 X 17.5852 Y -1.7167 Z -1.0000
G01 X 17.5996 Y -1.7032 Z -1.0000
G01 X 17.6077 Y -1.7043 Z -1.0000
G01 X 17.6084 Y -1.7540 Z -1.0000
G02 X 17.5279 Y -1.7887 Z -1.0000 I -0.0805 J 0.0761
G01 X 17.5243 Y -1.7852 Z -1.0000
G02 X 17.5257 Y -1.7224 Z -1.0000 I 0.5556 J 0.0186
G01 X 17.5257 Y -1.7225 Z -1.0000
G00 Z 5.0000

(End cutting path id: path141054)


(Start cutting path id: path141054)
(Change tool to Default tool)

G00 Z 5.0000
G00 X 17.6727 Y -1.8412

G01 Z -1.0000 F 100.0000(Penetrate)
G01 X 17.6926 Y -1.8140 Z -1.0000 F 3500.0000
G02 X 17.7572 Y -1.8145 Z -1.0000 I 0.0315 J -0.0997
G01 X 17.7642 Y -1.8238 Z -1.0000
G01 X 17.7585 Y -1.8409 Z -1.0000
G02 X 17.7001 Y -1.8684 Z -1.0000 I -0.0586 J 0.0487
G01 X 17.6727 Y -1.8412 Z -1.0000
G01 X 17.6727 Y -1.8412 Z -1.0000
G00 Z 5.0000

(End cutting path id: path141054)


(Start cutting path id: path141054)
(Change tool to Default tool)

G00 Z 5.0000
G00 X 17.5308 Y -1.5120

G01 Z -1.0000 F 100.0000(Penetrate)
G01 X 17.5401 Y -1.4998 Z -1.0000 F 3500.0000
G02 X 17.5857 Y -1.4752 Z -1.0000 I 0.1512 J -0.2264
G01 X 17.6354 Y -1.4543 Z -1.0000
G01 X 17.6008 Y -1.4911 Z -1.0000
G02 X 17.5443 Y -1.5260 Z -1.0000 I -0.0930 J 0.0873
G01 X 17.5308 Y -1.5120 Z -1.0000
G01 X 17.5308 Y -1.5120 Z -1.0000
G00 Z 5.0000

(End cutting path id: path141054)


(Start cutting path id: path141054)
(Change tool to Default tool)

G00 Z 5.0000
G00 X 17.3541 Y -0.9485

G01 Z -1.0000 F 100.0000(Penetrate)
G01 X 17.3723 Y -0.9260 Z -1.0000 F 3500.0000
G01 X 17.4091 Y -0.9369 Z -1.0000
G01 X 17.4136 Y -0.9625 Z -1.0000
G01 X 17.3903 Y -0.9775 Z -1.0000
G01 X 17.3635 Y -0.9681 Z -1.0000
G01 X 17.3541 Y -0.9485 Z -1.0000
G01 X 17.3541 Y -0.9485 Z -1.0000
G00 Z 5.0000

(End cutting path id: path141054)


(Start cutting path id: path141054)
(Change tool to Default tool)

G00 Z 5.0000
G00 X 17.5669 Y -0.8668

G01 Z -1.0000 F 100.0000(Penetrate)
G01 X 17.5672 Y -0.8471 Z -1.0000 F 3500.0000
G01 X 17.5934 Y -0.8420 Z -1.0000
G01 X 17.6066 Y -0.8528 Z -1.0000
G01 X 17.6066 Y -0.8631 Z -1.0000
G01 X 17.5882 Y -0.8745 Z -1.0000
G01 X 17.5669 Y -0.8668 Z -1.0000
G01 X 17.5669 Y -0.8668 Z -1.0000
G00 Z 5.0000

(End cutting path id: path141054)


(Start cutting path id: path141054)
(Change tool to Default tool)

G00 Z 5.0000
G00 X 17.3106 Y -0.6963

G01 Z -1.0000 F 100.0000(Penetrate)
G01 X 17.3173 Y -0.6801 Z -1.0000 F 3500.0000
G01 X 17.3335 Y -0.6734 Z -1.0000
G01 X 17.3477 Y -0.6897 Z -1.0000
G01 X 17.3278 Y -0.7135 Z -1.0000
G01 X 17.3166 Y -0.7109 Z -1.0000
G01 X 17.3106 Y -0.6963 Z -1.0000
G01 X 17.3106 Y -0.6963 Z -1.0000
G00 Z 5.0000

(End cutting path id: path141054)


(Start cutting path id: path141054)
(Change tool to Default tool)

G00 Z 5.0000
G00 X 18.0566 Y -0.2968

G01 Z -1.0000 F 100.0000(Penetrate)
G02 X 18.0791 Y -0.2603 Z -1.0000 I 0.0592 J -0.0114 F 3500.0000
G01 X 18.1002 Y -0.2633 Z -1.0000
G02 X 18.1100 Y -0.2892 Z -1.0000 I -0.0419 J -0.0307
G01 X 18.1043 Y -0.3076 Z -1.0000
G01 X 18.0710 Y -0.3189 Z -1.0000
G01 X 18.0566 Y -0.2968 Z -1.0000
G01 X 18.0566 Y -0.2968 Z -1.0000
G00 Z 5.0000

(End cutting path id: path141054)


(Start cutting path id: path141054)
(Change tool to Default tool)

G00 Z 5.0000
G00 X 17.8621 Y 0.2198

G01 Z -1.0000 F 100.0000(Penetrate)
G03 X 17.8598 Y 0.2365 Z -1.0000 I -0.1141 J -0.0077 F 3500.0000
G03 X 17.8526 Y 0.2633 Z -1.0000 I -0.2995 J -0.0654
G01 X 17.8551 Y 0.2668 Z -1.0000
G01 X 17.8609 Y 0.2639 Z -1.0000
G02 X 17.8719 Y 0.2375 Z -1.0000 I -0.0687 J -0.0439
G01 X 17.8704 Y 0.2205 Z -1.0000
G01 X 17.8656 Y 0.2169 Z -1.0000
G01 X 17.8621 Y 0.2198 Z -1.0000
G01 X 17.8621 Y 0.2198 Z -1.0000
G00 Z 5.0000

(End cutting path id: path141054)


(Start cutting path id: path141054)
(Change tool to Default tool)

G00 Z 5.0000
G00 X 18.5203 Y -0.7080

G01 Z -1.0000 F 100.0000(Penetrate)
G01 X 18.5192 Y -0.6965 Z -1.0000 F 3500.0000
G01 X 18.5390 Y -0.6879 Z -1.0000
G02 X 18.5796 Y -0.6934 Z -1.0000 I -0.0000 J -0.1511
G01 X 18.5852 Y -0.7008 Z -1.0000
G01 X 18.5675 Y -0.7206 Z -1.0000
G02 X 18.5203 Y -0.7080 Z -1.0000 I -0.0074 J 0.0671
G01 X 18.5203 Y -0.7080 Z -1.0000
G00 Z 5.0000

(End cutting path id: path141054)


(Start cutting path id: path141054)
(Change tool to Default tool)

G00 Z 5.0000
G00 X 18.6251 Y -0.6638

G01 Z -1.0000 F 100.0000(Penetrate)
G01 X 18.6432 Y -0.6603 Z -1.0000 F 3500.0000
G01 X 18.6613 Y -0.6638 Z -1.0000
G01 X 18.6432 Y -0.6711 Z -1.0000
G01 X 18.6250 Y -0.6638 Z -1.0000
G01 X 18.6251 Y -0.6638 Z -1.0000
G00 Z 5.0000

(End cutting path id: path141054)


(Start cutting path id: path141054)
(Change tool to Default tool)

G00 Z 5.0000
G00 X 18.3100 Y -0.9408

G01 Z -1.0000 F 100.0000(Penetrate)
G01 X 18.3163 Y -0.9258 Z -1.0000 F 3500.0000
G01 X 18.3318 Y -0.9195 Z -1.0000
G01 X 18.3488 Y -0.9242 Z -1.0000
G01 X 18.3535 Y -0.9324 Z -1.0000
G01 X 18.3493 Y -0.9425 Z -1.0000
G02 X 18.3318 Y -0.9537 Z -1.0000 I -0.0359 J 0.0367
G01 X 18.3166 Y -0.9524 Z -1.0000
G01 X 18.3100 Y -0.9408 Z -1.0000
G01 X 18.3100 Y -0.9408 Z -1.0000
G00 Z 5.0000

(End cutting path id: path141054)


(Start cutting path id: path141054)
(Change tool to Default tool)

G00 Z 5.0000
G00 X 18.6579 Y -1.4012

G01 Z -1.0000 F 100.0000(Penetrate)
G02 X 18.6888 Y -1.3475 Z -1.0000 I 0.0644 J -0.0013 F 3500.0000
G02 X 18.7459 Y -1.3477 Z -1.0000 I 0.0284 J -0.0467
G01 X 18.7520 Y -1.3842 Z -1.0000
G02 X 18.6933 Y -1.4121 Z -1.0000 I -0.0587 J 0.0479
G02 X 18.6624 Y -1.4074 Z -1.0000 I -0.0000 J 0.1057
G01 X 18.6579 Y -1.4012 Z -1.0000
G01 X 18.6579 Y -1.4012 Z -1.0000
G00 Z 5.0000

(End cutting path id: path141054)


(Start cutting path id: path141054)
(Change tool to Default tool)

G00 Z 5.0000
G00 X 18.7690 Y -1.5950

G01 Z -1.0000 F 100.0000(Penetrate)
G01 X 18.7792 Y -1.5613 Z -1.0000 F 3500.0000
G02 X 18.8293 Y -1.5521 Z -1.0000 I 0.0349 J -0.0491
G01 X 18.8526 Y -1.5665 Z -1.0000
G01 X 18.8574 Y -1.5841 Z -1.0000
G01 X 18.8158 Y -1.6231 Z -1.0000
G01 X 18.7690 Y -1.5950 Z -1.0000
G01 X 18.7690 Y -1.5950 Z -1.0000
G00 Z 5.0000

(End cutting path id: path141054)


(Start cutting path id: path141054)
(Change tool to Default tool)

G00 Z 5.0000
G00 X 18.9908 Y -1.5706

G01 Z -1.0000 F 100.0000(Penetrate)
G01 X 18.9954 Y -1.5635 Z -1.0000 F 3500.0000
G01 X 19.0053 Y -1.5642 Z -1.0000
G02 X 19.0177 Y -1.5743 Z -1.0000 I -0.0313 J -0.0511
G01 X 19.0198 Y -1.5795 Z -1.0000
G01 X 19.0173 Y -1.5834 Z -1.0000
G01 X 19.0053 Y -1.5859 Z -1.0000
G01 X 18.9951 Y -1.5815 Z -1.0000
G01 X 18.9908 Y -1.5706 Z -1.0000
G01 X 18.9908 Y -1.5706 Z -1.0000
G00 Z 5.0000

(End cutting path id: path141054)


(Start cutting path id: path141054)
(Change tool to Default tool)

G00 Z 5.0000
G00 X 19.0053 Y -1.4426

G01 Z -1.0000 F 100.0000(Penetrate)
G01 X 19.0255 Y -1.4126 Z -1.0000 F 3500.0000
G01 X 19.0612 Y -1.4198 Z -1.0000
G01 X 19.0622 Y -1.4273 Z -1.0000
G01 X 19.0483 Y -1.4416 Z -1.0000
G02 X 19.0147 Y -1.4518 Z -1.0000 I -0.0351 J 0.0555
G01 X 19.0053 Y -1.4426 Z -1.0000
G01 X 19.0053 Y -1.4426 Z -1.0000
G00 Z 5.0000

(End cutting path id: path141054)


(Start cutting path id: path141054)
(Change tool to Default tool)

G00 Z 5.0000
G00 X 19.1103 Y -1.6632

G01 Z -1.0000 F 100.0000(Penetrate)
G01 X 19.0980 Y -1.6519 Z -1.0000 F 3500.0000
G02 X 19.0922 Y -1.6271 Z -1.0000 I 0.0498 J 0.0248
G01 X 19.1173 Y -1.6072 Z -1.0000
G01 X 19.1475 Y -1.6404 Z -1.0000
G01 X 19.1378 Y -1.6609 Z -1.0000
G01 X 19.1103 Y -1.6632 Z -1.0000
G01 X 19.1103 Y -1.6632 Z -1.0000
G00 Z 5.0000

(End cutting path id: path141054)


(Start cutting path id: path141054)
(Change tool to Default tool)

G00 Z 5.0000
G00 X 18.9763 Y -1.7468

G01 Z -1.0000 F 100.0000(Penetrate)
G01 X 18.9963 Y -1.7190 Z -1.0000 F 3500.0000
G01 X 19.0265 Y -1.7299 Z -1.0000
G01 X 19.0261 Y -1.7395 Z -1.0000
G01 X 19.0112 Y -1.7509 Z -1.0000
G02 X 18.9831 Y -1.7544 Z -1.0000 I -0.0211 J 0.0550
G01 X 18.9763 Y -1.7467 Z -1.0000
G01 X 18.9763 Y -1.7468 Z -1.0000
G00 Z 5.0000

(End cutting path id: path141054)


(Start cutting path id: path141054)
(Change tool to Default tool)

G00 Z 5.0000
G00 X 19.5346 Y -2.1952

G01 Z -1.0000 F 100.0000(Penetrate)
G01 X 19.5329 Y -2.1833 Z -1.0000 F 3500.0000
G01 X 19.5410 Y -2.1727 Z -1.0000
G01 X 19.5703 Y -2.1715 Z -1.0000
G01 X 19.5847 Y -2.1951 Z -1.0000
G01 X 19.5667 Y -2.2131 Z -1.0000
G01 X 19.5346 Y -2.1952 Z -1.0000
G01 X 19.5346 Y -2.1952 Z -1.0000
G00 Z 5.0000

(End cutting path id: path141054)


(Start cutting path id: path141054)
(Change tool to Default tool)

G00 Z 5.0000
G00 X 19.8526 Y -2.1507

G01 Z -1.0000 F 100.0000(Penetrate)
G01 X 19.8603 Y -2.1257 Z -1.0000 F 3500.0000
G01 X 19.9026 Y -2.1286 Z -1.0000
G01 X 19.9143 Y -2.1400 Z -1.0000
G01 X 19.9178 Y -2.1516 Z -1.0000
G01 X 19.8946 Y -2.1745 Z -1.0000
G02 X 19.8526 Y -2.1507 Z -1.0000 I 0.0007 J 0.0503
G01 X 19.8526 Y -2.1507 Z -1.0000
G00 Z 5.0000

(End cutting path id: path141054)


(Start cutting path id: path141054)
(Change tool to Default tool)

G00 Z 5.0000
G00 X 19.8743 Y -2.2502

G01 Z -1.0000 F 100.0000(Penetrate)
G01 X 19.8908 Y -2.2131 Z -1.0000 F 3500.0000
G02 X 19.9359 Y -2.1947 Z -1.0000 I 0.0481 J -0.0534
G01 X 19.9421 Y -2.1991 Z -1.0000
G02 X 19.9468 Y -2.2305 Z -1.0000 I -0.1035 J -0.0313
G01 X 19.9362 Y -2.2560 Z -1.0000
G01 X 19.9106 Y -2.2667 Z -1.0000
G02 X 19.8808 Y -2.2602 Z -1.0000 I -0.0000 J 0.0718
G01 X 19.8743 Y -2.2502 Z -1.0000
G01 X 19.8743 Y -2.2502 Z -1.0000
G00 Z 5.0000

(End cutting path id: path141054)


(Start cutting path id: path141054)
(Change tool to Default tool)

G00 Z 5.0000
G00 X 19.8375 Y -1.9906

G01 Z -1.0000 F 100.0000(Penetrate)
G01 X 19.8419 Y -1.9731 Z -1.0000 F 3500.0000
G01 X 19.8735 Y -1.9695 Z -1.0000
G01 X 19.8944 Y -1.9826 Z -1.0000
G01 X 19.8954 Y -1.9926 Z -1.0000
G01 X 19.8671 Y -2.0078 Z -1.0000
G01 X 19.8375 Y -1.9906 Z -1.0000
G01 X 19.8375 Y -1.9906 Z -1.0000
G00 Z 5.0000

(End cutting path id: path141054)


(Start cutting path id: path141054)
(Change tool to Default tool)

G00 Z 5.0000
G00 X 20.1273 Y -1.8893

G01 Z -1.0000 F 100.0000(Penetrate)
G01 X 20.1255 Y -1.8744 Z -1.0000 F 3500.0000
G01 X 20.1368 Y -1.8598 Z -1.0000
G01 X 20.1665 Y -1.8554 Z -1.0000
G01 X 20.1759 Y -1.8708 Z -1.0000
G01 X 20.1530 Y -1.8980 Z -1.0000
G01 X 20.1273 Y -1.8893 Z -1.0000
G01 X 20.1273 Y -1.8893 Z -1.0000
G00 Z 5.0000

(End cutting path id: path141054)


(Start cutting path id: path141054)
(Change tool to Default tool)

G00 Z 5.0000
G00 X 20.3161 Y -1.7639

G01 Z -1.0000 F 100.0000(Penetrate)
G02 X 20.2833 Y -1.7387 Z -1.0000 I 0.0119 J 0.0496 F 3500.0000
G01 X 20.2873 Y -1.7110 Z -1.0000
G02 X 20.3318 Y -1.6894 Z -1.0000 I 0.0534 J -0.0534
G02 X 20.3792 Y -1.7001 Z -1.0000 I 0.0085 J -0.0721
G01 X 20.3883 Y -1.7153 Z -1.0000
G02 X 20.3823 Y -1.7434 Z -1.0000 I -0.0514 J -0.0037
G02 X 20.3636 Y -1.7697 Z -1.0000 I -0.1137 J 0.0611
G01 X 20.3554 Y -1.7725 Z -1.0000
G02 X 20.3451 Y -1.7705 Z -1.0000 I 0.0306 J 0.1886
G02 X 20.3161 Y -1.7639 Z -1.0000 I 0.3436 J 1.5685
G01 X 20.3161 Y -1.7639 Z -1.0000
G00 Z 5.0000

(End cutting path id: path141054)


(Start cutting path id: path141054)
(Change tool to Default tool)

G00 Z 5.0000
G00 X 20.4267 Y -1.6824

G01 Z -1.0000 F 100.0000(Penetrate)
G01 X 20.4219 Y -1.6649 Z -1.0000 F 3500.0000
G01 X 20.4312 Y -1.6534 Z -1.0000
G01 X 20.4597 Y -1.6617 Z -1.0000
G01 X 20.4576 Y -1.6892 Z -1.0000
G01 X 20.4443 Y -1.6931 Z -1.0000
G01 X 20.4267 Y -1.6824 Z -1.0000
G01 X 20.4267 Y -1.6824 Z -1.0000
G00 Z 5.0000

(End cutting path id: path141054)


(Start cutting path id: path141054)
(Change tool to Default tool)

G00 Z 5.0000
G00 X 20.0573 Y -1.4875

G01 Z -1.0000 F 100.0000(Penetrate)
G01 X 20.0589 Y -1.4805 Z -1.0000 F 3500.0000
G01 X 20.0787 Y -1.4739 Z -1.0000
G03 X 20.1041 Y -1.4655 Z -1.0000 I -0.0042 J 0.0554
G03 X 20.1334 Y -1.4395 Z -1.0000 I -0.0638 J 0.1015
G02 X 20.1622 Y -1.4171 Z -1.0000 I 0.0622 J -0.0504
G01 X 20.1835 Y -1.4164 Z -1.0000
G01 X 20.1932 Y -1.4376 Z -1.0000
G02 X 20.1628 Y -1.4736 Z -1.0000 I -0.0642 J 0.0233
G02 X 20.0839 Y -1.5001 Z -1.0000 I -0.1072 J 0.1883
G01 X 20.0573 Y -1.4875 Z -1.0000
G01 X 20.0573 Y -1.4875 Z -1.0000
G00 Z 5.0000

(End cutting path id: path141054)


(Start cutting path id: path141054)
(Change tool to Default tool)

G00 Z 5.0000
G00 X 19.8309 Y -1.6293

G01 Z -1.0000 F 100.0000(Penetrate)
G01 X 19.8353 Y -1.6192 Z -1.0000 F 3500.0000
G01 X 19.8462 Y -1.6148 Z -1.0000
G01 X 19.8533 Y -1.6194 Z -1.0000
G01 X 19.8526 Y -1.6293 Z -1.0000
G02 X 19.8425 Y -1.6417 Z -1.0000 I -0.0511 J 0.0313
G01 X 19.8373 Y -1.6438 Z -1.0000
G01 X 19.8334 Y -1.6413 Z -1.0000
G01 X 19.8309 Y -1.6293 Z -1.0000
G01 X 19.8309 Y -1.6293 Z -1.0000
G00 Z 5.0000

(End cutting path id: path141054)


(Start cutting path id: path141054)
(Change tool to Default tool)

G00 Z 5.0000
G00 X 19.7150 Y -1.3919

G01 Z -1.0000 F 100.0000(Penetrate)
G01 X 19.7344 Y -1.3692 Z -1.0000 F 3500.0000
G01 X 19.7661 Y -1.3837 Z -1.0000
G01 X 19.7643 Y -1.3918 Z -1.0000
G01 X 19.7448 Y -1.3976 Z -1.0000
G02 X 19.7176 Y -1.3949 Z -1.0000 I 0.0000 J 0.1439
G01 X 19.7150 Y -1.3919 Z -1.0000
G01 X 19.7150 Y -1.3919 Z -1.0000
G00 Z 5.0000

(End cutting path id: path141054)


(Start cutting path id: path141054)
(Change tool to Default tool)

G00 Z 5.0000
G00 X 20.1351 Y -1.1883

G01 Z -1.0000 F 100.0000(Penetrate)
G01 X 20.1503 Y -1.1668 Z -1.0000 F 3500.0000
G01 X 20.1685 Y -1.1764 Z -1.0000
G01 X 20.1768 Y -1.1685 Z -1.0000
G01 X 20.1843 Y -1.1461 Z -1.0000
G01 X 20.1932 Y -1.1442 Z -1.0000
G01 X 20.2008 Y -1.1550 Z -1.0000
G01 X 20.1986 Y -1.1684 Z -1.0000
G01 X 20.1974 Y -1.1816 Z -1.0000
G01 X 20.2092 Y -1.1961 Z -1.0000
G01 X 20.2088 Y -1.2029 Z -1.0000
G02 X 20.1821 Y -1.2090 Z -1.0000 I -0.0270 J 0.0569
G02 X 20.1433 Y -1.2010 Z -1.0000 I -0.0005 J 0.0956
G01 X 20.1350 Y -1.1884 Z -1.0000
G01 X 20.1351 Y -1.1883 Z -1.0000
G00 Z 5.0000

(End cutting path id: path141054)


(Start cutting path id: path141054)
(Change tool to Default tool)

G00 Z 5.0000
G00 X 19.9270 Y -0.7531

G01 Z -1.0000 F 100.0000(Penetrate)
G02 X 19.9369 Y -0.7336 Z -1.0000 I 0.0996 J -0.0383 F 3500.0000
G01 X 19.9411 Y -0.7314 Z -1.0000
G01 X 19.9443 Y -0.7338 Z -1.0000
G02 X 19.9468 Y -0.7531 Z -1.0000 I -0.0729 J -0.0193
G01 X 19.9418 Y -0.7699 Z -1.0000
G01 X 19.9327 Y -0.7748 Z -1.0000
G01 X 19.9261 Y -0.7697 Z -1.0000
G01 X 19.9270 Y -0.7531 Z -1.0000
G01 X 19.9270 Y -0.7531 Z -1.0000
G00 Z 5.0000

(End cutting path id: path141054)


(Start cutting path id: path141054)
(Change tool to Default tool)

G00 Z 5.0000
G00 X 19.5929 Y -0.7909

G01 Z -1.0000 F 100.0000(Penetrate)
G01 X 19.5940 Y -0.7817 Z -1.0000 F 3500.0000
G01 X 19.6138 Y -0.7705 Z -1.0000
G01 X 19.6354 Y -0.7723 Z -1.0000
G01 X 19.6426 Y -0.7834 Z -1.0000
G01 X 19.6238 Y -0.8052 Z -1.0000
G01 X 19.5929 Y -0.7909 Z -1.0000
G01 X 19.5929 Y -0.7909 Z -1.0000
G00 Z 5.0000

(End cutting path id: path141054)


(Start cutting path id: path141054)
(Change tool to Default tool)

G00 Z 5.0000
G00 X 19.5991 Y -0.8897

G01 Z -1.0000 F 100.0000(Penetrate)
G01 X 19.6037 Y -0.8826 Z -1.0000 F 3500.0000
G01 X 19.6136 Y -0.8833 Z -1.0000
G02 X 19.6260 Y -0.8934 Z -1.0000 I -0.0313 J -0.0511
G01 X 19.6281 Y -0.8986 Z -1.0000
G01 X 19.6256 Y -0.9025 Z -1.0000
G01 X 19.6136 Y -0.9050 Z -1.0000
G01 X 19.6035 Y -0.9006 Z -1.0000
G01 X 19.5991 Y -0.8897 Z -1.0000
G01 X 19.5991 Y -0.8897 Z -1.0000
G00 Z 5.0000

(End cutting path id: path141054)


(Start cutting path id: path141054)
(Change tool to Default tool)

G00 Z 5.0000
G00 X 19.8816 Y -0.3113

G01 Z -1.0000 F 100.0000(Penetrate)
G02 X 19.8917 Y -0.2989 Z -1.0000 I 0.0512 J -0.0314 F 3500.0000
G01 X 19.8969 Y -0.2968 Z -1.0000
G01 X 19.9008 Y -0.2993 Z -1.0000
G01 X 19.9033 Y -0.3113 Z -1.0000
G01 X 19.8989 Y -0.3214 Z -1.0000
G01 X 19.8880 Y -0.3258 Z -1.0000
G01 X 19.8809 Y -0.3212 Z -1.0000
G01 X 19.8816 Y -0.3113 Z -1.0000
G01 X 19.8816 Y -0.3113 Z -1.0000
G00 Z 5.0000

(End cutting path id: path141054)


(Start cutting path id: path141054)
(Change tool to Default tool)

G00 Z 5.0000
G00 X 20.3706 Y -0.5186

G01 Z -1.0000 F 100.0000(Penetrate)
G02 X 20.3951 Y -0.5015 Z -1.0000 I 0.0600 J -0.0600 F 3500.0000
G01 X 20.4041 Y -0.5031 Z -1.0000
G01 X 20.4051 Y -0.5269 Z -1.0000
G01 X 20.3701 Y -0.5430 Z -1.0000
G01 X 20.3632 Y -0.5360 Z -1.0000
G01 X 20.3706 Y -0.5186 Z -1.0000
G01 X 20.3706 Y -0.5186 Z -1.0000
G00 Z 5.0000

(End cutting path id: path141054)


(Start cutting path id: path141054)
(Change tool to Default tool)

G00 Z 5.0000
G00 X 20.7445 Y -0.6408

G01 Z -1.0000 F 100.0000(Penetrate)
G01 X 20.7506 Y -0.6223 Z -1.0000 F 3500.0000
G01 X 20.7651 Y -0.6154 Z -1.0000
G01 X 20.7816 Y -0.6207 Z -1.0000
G01 X 20.7869 Y -0.6308 Z -1.0000
G01 X 20.7824 Y -0.6382 Z -1.0000
G01 X 20.7736 Y -0.6380 Z -1.0000
G01 X 20.7629 Y -0.6374 Z -1.0000
G01 X 20.7530 Y -0.6480 Z -1.0000
G01 X 20.7486 Y -0.6491 Z -1.0000
G01 X 20.7445 Y -0.6408 Z -1.0000
G01 X 20.7445 Y -0.6408 Z -1.0000
G00 Z 5.0000

(End cutting path id: path141054)


(Start cutting path id: path141054)
(Change tool to Default tool)

G00 Z 5.0000
G00 X 20.9851 Y -0.5337

G01 Z -1.0000 F 100.0000(Penetrate)
G01 X 20.9825 Y -0.5126 Z -1.0000 F 3500.0000
G01 X 21.0053 Y -0.4996 Z -1.0000
G01 X 21.0263 Y -0.5062 Z -1.0000
G01 X 21.0298 Y -0.5168 Z -1.0000
G01 X 21.0086 Y -0.5388 Z -1.0000
G01 X 20.9851 Y -0.5337 Z -1.0000
G01 X 20.9851 Y -0.5337 Z -1.0000
G00 Z 5.0000

(End cutting path id: path141054)


(Start cutting path id: path141054)
(Change tool to Default tool)

G00 Z 5.0000
G00 X 20.5008 Y -0.0470

G01 Z -1.0000 F 100.0000(Penetrate)
G01 X 20.5105 Y -0.0339 Z -1.0000 F 3500.0000
G01 X 20.5261 Y -0.0289 Z -1.0000
G01 X 20.5418 Y -0.0339 Z -1.0000
G01 X 20.5515 Y -0.0470 Z -1.0000
G01 X 20.5479 Y -0.0581 Z -1.0000
G01 X 20.5261 Y -0.0651 Z -1.0000
G01 X 20.5044 Y -0.0581 Z -1.0000
G01 X 20.5008 Y -0.0470 Z -1.0000
G01 X 20.5008 Y -0.0470 Z -1.0000
G00 Z 5.0000

(End cutting path id: path141054)


(Start cutting path id: path141054)
(Change tool to Default tool)

G00 Z 5.0000
G00 X 20.2686 Y 0.1110

G01 Z -1.0000 F 100.0000(Penetrate)
G01 X 20.2924 Y 0.1305 Z -1.0000 F 3500.0000
G01 X 20.3096 Y 0.1160 Z -1.0000
G01 X 20.3051 Y 0.1056 Z -1.0000
G01 X 20.2862 Y 0.0965 Z -1.0000
G01 X 20.2717 Y 0.1001 Z -1.0000
G01 X 20.2686 Y 0.1110 Z -1.0000
G01 X 20.2686 Y 0.1110 Z -1.0000
G00 Z 5.0000

(End cutting path id: path141054)


(Start cutting path id: path141054)
(Change tool to Default tool)

G00 Z 5.0000
G00 X 21.2166 Y -1.1996

G01 Z -1.0000 F 100.0000(Penetrate)
G01 X 21.2095 Y -1.1888 Z -1.0000 F 3500.0000
G01 X 21.2069 Y -1.1749 Z -1.0000
G01 X 21.2114 Y -1.1710 Z -1.0000
G01 X 21.2240 Y -1.1771 Z -1.0000
G02 X 21.2352 Y -1.1943 Z -1.0000 I -0.0356 J -0.0356
G01 X 21.2337 Y -1.2018 Z -1.0000
G01 X 21.2262 Y -1.2043 Z -1.0000
G01 X 21.2166 Y -1.1996 Z -1.0000
G01 X 21.2166 Y -1.1996 Z -1.0000
G00 Z 5.0000

(End cutting path id: path141054)


(Start cutting path id: path141054)
(Change tool to Default tool)

G00 Z 5.0000
G00 X 21.1490 Y -1.7742

G01 Z -1.0000 F 100.0000(Penetrate)
G01 X 21.1545 Y -1.7652 Z -1.0000 F 3500.0000
G02 X 21.1779 Y -1.7597 Z -1.0000 I 0.0234 J -0.0470
G02 X 21.2014 Y -1.7652 Z -1.0000 I -0.0000 J -0.0525
G01 X 21.2069 Y -1.7742 Z -1.0000
G01 X 21.2014 Y -1.7832 Z -1.0000
G02 X 21.1779 Y -1.7887 Z -1.0000 I -0.0234 J 0.0470
G02 X 21.1545 Y -1.7832 Z -1.0000 I 0.0000 J 0.0524
G01 X 21.1490 Y -1.7742 Z -1.0000
G01 X 21.1490 Y -1.7742 Z -1.0000
G00 Z 5.0000

(End cutting path id: path141054)


(Start cutting path id: path141054)
(Change tool to Default tool)

G00 Z 5.0000
G00 X 20.9317 Y -1.8176

G01 Z -1.0000 F 100.0000(Penetrate)
G01 X 20.9361 Y -1.8075 Z -1.0000 F 3500.0000
G01 X 20.9470 Y -1.8032 Z -1.0000
G01 X 20.9541 Y -1.8078 Z -1.0000
G01 X 20.9534 Y -1.8176 Z -1.0000
G02 X 20.9433 Y -1.8301 Z -1.0000 I -0.0511 J 0.0313
G01 X 20.9381 Y -1.8321 Z -1.0000
G01 X 20.9342 Y -1.8296 Z -1.0000
G01 X 20.9317 Y -1.8176 Z -1.0000
G01 X 20.9317 Y -1.8176 Z -1.0000
G00 Z 5.0000

(End cutting path id: path141054)


(Start cutting path id: path141054)
(Change tool to Default tool)

G00 Z 5.0000
G00 X 20.8919 Y -1.9155

G01 Z -1.0000 F 100.0000(Penetrate)
G01 X 20.9017 Y -1.9017 Z -1.0000 F 3500.0000
G01 X 20.9220 Y -1.8927 Z -1.0000
G01 X 20.9350 Y -1.8973 Z -1.0000
G01 X 20.9373 Y -1.9108 Z -1.0000
G01 X 20.9068 Y -1.9342 Z -1.0000
G01 X 20.8919 Y -1.9155 Z -1.0000
G01 X 20.8919 Y -1.9155 Z -1.0000
G00 Z 5.0000

(End cutting path id: path141054)


(Start cutting path id: path141054)
(Change tool to Default tool)

G00 Z 5.0000
G00 X 21.3554 Y -2.0169

G01 Z -1.0000 F 100.0000(Penetrate)
G01 X 21.3873 Y -1.9916 Z -1.0000 F 3500.0000
G01 X 21.4097 Y -2.0122 Z -1.0000
G01 X 21.4021 Y -2.0274 Z -1.0000
G01 X 21.3795 Y -2.0350 Z -1.0000
G01 X 21.3589 Y -2.0281 Z -1.0000
G01 X 21.3554 Y -2.0168 Z -1.0000
G01 X 21.3554 Y -2.0169 Z -1.0000
G00 Z 5.0000

(End cutting path id: path141054)


(Start cutting path id: path141054)
(Change tool to Default tool)

G00 Z 5.0000
G00 X 21.5643 Y -2.1160

G01 Z -1.0000 F 100.0000(Penetrate)
G01 X 21.5700 Y -2.0922 Z -1.0000 F 3500.0000
G02 X 21.6061 Y -2.0784 Z -1.0000 I 0.0361 J -0.0400
G02 X 21.6470 Y -2.0981 Z -1.0000 I 0.0000 J -0.0522
G01 X 21.6453 Y -2.1277 Z -1.0000
G02 X 21.5985 Y -2.1433 Z -1.0000 I -0.0390 J 0.0390
G01 X 21.5643 Y -2.1160 Z -1.0000
G01 X 21.5643 Y -2.1160 Z -1.0000
G00 Z 5.0000

(End cutting path id: path141054)


(Start cutting path id: path141054)
(Change tool to Default tool)

G00 Z 5.0000
G00 X 21.5726 Y -2.2196

G01 Z -1.0000 F 100.0000(Penetrate)
G01 X 21.5829 Y -2.2073 Z -1.0000 F 3500.0000
G01 X 21.6052 Y -2.2015 Z -1.0000
G01 X 21.6276 Y -2.2072 Z -1.0000
G01 X 21.6378 Y -2.2196 Z -1.0000
G01 X 21.6336 Y -2.2303 Z -1.0000
G02 X 21.6052 Y -2.2377 Z -1.0000 I -0.0284 J 0.0511
G02 X 21.5768 Y -2.2303 Z -1.0000 I 0.0000 J 0.0586
G01 X 21.5726 Y -2.2196 Z -1.0000
G01 X 21.5726 Y -2.2196 Z -1.0000
G00 Z 5.0000

(End cutting path id: path141054)


(Start cutting path id: path141054)
(Change tool to Default tool)

G00 Z 5.0000
G00 X 20.7443 Y -2.4632

G01 Z -1.0000 F 100.0000(Penetrate)
G01 X 20.7366 Y -2.4170 Z -1.0000 F 3500.0000
G02 X 20.7765 Y -2.3788 Z -1.0000 I 0.0603 J -0.0230
G02 X 20.8387 Y -2.3798 Z -1.0000 I 0.0297 J -0.0891
G01 X 20.8593 Y -2.4093 Z -1.0000
G02 X 20.8150 Y -2.4790 Z -1.0000 I -0.0770 J 0.0000
G02 X 20.7443 Y -2.4632 Z -1.0000 I -0.0251 J 0.0536
G01 X 20.7443 Y -2.4632 Z -1.0000
G00 Z 5.0000

(End cutting path id: path141054)


(Start cutting path id: path141054)
(Change tool to Default tool)

G00 Z 5.0000
G00 X 20.7579 Y -2.6158

G01 Z -1.0000 F 100.0000(Penetrate)
G01 X 20.7694 Y -2.5969 Z -1.0000 F 3500.0000
G02 X 20.8166 Y -2.5853 Z -1.0000 I 0.0471 J -0.0906
G01 X 20.8225 Y -2.5901 Z -1.0000
G01 X 20.8211 Y -2.6071 Z -1.0000
G01 X 20.7827 Y -2.6375 Z -1.0000
G01 X 20.7579 Y -2.6159 Z -1.0000
G01 X 20.7579 Y -2.6158 Z -1.0000
G00 Z 5.0000

(End cutting path id: path141054)


(Start cutting path id: path141054)
(Change tool to Default tool)

G00 Z 5.0000
G00 X 20.3378 Y -2.5708

G01 Z -1.0000 F 100.0000(Penetrate)
G01 X 20.3429 Y -2.5614 Z -1.0000 F 3500.0000
G01 X 20.3596 Y -2.5564 Z -1.0000
G01 X 20.3762 Y -2.5614 Z -1.0000
G01 X 20.3813 Y -2.5708 Z -1.0000
G01 X 20.3762 Y -2.5803 Z -1.0000
G01 X 20.3596 Y -2.5853 Z -1.0000
G01 X 20.3429 Y -2.5803 Z -1.0000
G01 X 20.3378 Y -2.5708 Z -1.0000
G01 X 20.3378 Y -2.5708 Z -1.0000
G00 Z 5.0000

(End cutting path id: path141054)


(Start cutting path id: path141054)
(Change tool to Default tool)

G00 Z 5.0000
G00 X 19.3190 Y -2.5912

G01 Z -1.0000 F 100.0000(Penetrate)
G02 X 19.2982 Y -2.5131 Z -1.0000 I 0.0904 J 0.0659 F 3500.0000
G01 X 19.3308 Y -2.4839 Z -1.0000
G02 X 19.4179 Y -2.5251 Z -1.0000 I -0.0000 J -0.1128
G02 X 19.4310 Y -2.6059 Z -1.0000 I -0.0628 J -0.0516
G01 X 19.3874 Y -2.6319 Z -1.0000
G02 X 19.3190 Y -2.5912 Z -1.0000 I 0.0131 J 0.1000
G01 X 19.3190 Y -2.5912 Z -1.0000
G00 Z 5.0000

(End cutting path id: path141054)


(Start cutting path id: path141054)
(Change tool to Default tool)

G00 Z 5.0000
G00 X 19.1860 Y -2.5994

G01 Z -1.0000 F 100.0000(Penetrate)
G01 X 19.1829 Y -2.5836 Z -1.0000 F 3500.0000
G01 X 19.1909 Y -2.5677 Z -1.0000
G01 X 19.2333 Y -2.5585 Z -1.0000
G01 X 19.2479 Y -2.5890 Z -1.0000
G01 X 19.2185 Y -2.6141 Z -1.0000
G01 X 19.1860 Y -2.5994 Z -1.0000
G01 X 19.1860 Y -2.5994 Z -1.0000
G00 Z 5.0000

(End cutting path id: path141054)


(Start cutting path id: path141054)
(Change tool to Default tool)

G00 Z 5.0000
G00 X 19.2805 Y -3.3385

G01 Z -1.0000 F 100.0000(Penetrate)
G01 X 19.2774 Y -3.3299 Z -1.0000 F 3500.0000
G01 X 19.2850 Y -3.3243 Z -1.0000
G01 X 19.2994 Y -3.3174 Z -1.0000
G01 X 19.3003 Y -3.3059 Z -1.0000
G01 X 19.3138 Y -3.3075 Z -1.0000
G01 X 19.3147 Y -3.3355 Z -1.0000
G01 X 19.2805 Y -3.3385 Z -1.0000
G01 X 19.2805 Y -3.3385 Z -1.0000
G00 Z 5.0000

(End cutting path id: path141054)


(Start cutting path id: path141054)
(Change tool to Default tool)

G00 Z 5.0000
G00 X 18.1507 Y -2.1734

G01 Z -1.0000 F 100.0000(Penetrate)
G01 X 18.1688 Y -2.1443 Z -1.0000 F 3500.0000
G01 X 18.1948 Y -2.1519 Z -1.0000
G02 X 18.2020 Y -2.1711 Z -1.0000 I -0.0434 J -0.0270
G01 X 18.1996 Y -2.1827 Z -1.0000
G01 X 18.1694 Y -2.1960 Z -1.0000
G01 X 18.1507 Y -2.1734 Z -1.0000
G01 X 18.1507 Y -2.1734 Z -1.0000
G00 Z 5.0000

(End cutting path id: path141054)


(Start cutting path id: path141054)
(Change tool to Default tool)

G00 Z 5.0000
G00 X 18.0733 Y -1.8515

G01 Z -1.0000 F 100.0000(Penetrate)
G02 X 18.0529 Y -1.7978 Z -1.0000 I 0.0496 J 0.0496 F 3500.0000
G01 X 18.0777 Y -1.7743 Z -1.0000
G01 X 18.1145 Y -1.8006 Z -1.0000
G01 X 18.1019 Y -1.8451 Z -1.0000
G01 X 18.0831 Y -1.8543 Z -1.0000
G01 X 18.0733 Y -1.8514 Z -1.0000
G01 X 18.0733 Y -1.8515 Z -1.0000
G00 Z 5.0000

(End cutting path id: path141054)


(Start cutting path id: path141054)
(Change tool to Default tool)

G00 Z 5.0000
G00 X 21.7501 Y -0.7893

G01 Z -1.0000 F 100.0000(Penetrate)
G01 X 21.7519 Y -0.7808 Z -1.0000 F 3500.0000
G01 X 21.7718 Y -0.7748 Z -1.0000
G01 X 21.7917 Y -0.7808 Z -1.0000
G01 X 21.7935 Y -0.7893 Z -1.0000
G01 X 21.7827 Y -0.8005 Z -1.0000
G01 X 21.7718 Y -0.8038 Z -1.0000
G01 X 21.7609 Y -0.8005 Z -1.0000
G01 X 21.7501 Y -0.7893 Z -1.0000
G01 X 21.7501 Y -0.7893 Z -1.0000
G00 Z 5.0000

(End cutting path id: path141054)


(Start cutting path id: path141054)
(Change tool to Default tool)

G00 Z 5.0000
G00 X 22.0122 Y -0.8348

G01 Z -1.0000 F 100.0000(Penetrate)
G01 X 22.0124 Y -0.8241 Z -1.0000 F 3500.0000
G01 X 22.0274 Y -0.8121 Z -1.0000
G01 X 22.0432 Y -0.8167 Z -1.0000
G01 X 22.0414 Y -0.8313 Z -1.0000
G01 X 22.0221 Y -0.8396 Z -1.0000
G01 X 22.0122 Y -0.8349 Z -1.0000
G01 X 22.0122 Y -0.8348 Z -1.0000
G00 Z 5.0000

(End cutting path id: path141054)


(Start cutting path id: path141054)
(Change tool to Default tool)

G00 Z 5.0000
G00 X 22.0542 Y -0.8616

G01 Z -1.0000 F 100.0000(Penetrate)
G01 X 22.0553 Y -0.8527 Z -1.0000 F 3500.0000
G01 X 22.0687 Y -0.8471 Z -1.0000
G01 X 22.0822 Y -0.8527 Z -1.0000
G01 X 22.0832 Y -0.8616 Z -1.0000
G02 X 22.0732 Y -0.8742 Z -1.0000 I -0.0577 J 0.0353
G01 X 22.0687 Y -0.8761 Z -1.0000
G01 X 22.0643 Y -0.8742 Z -1.0000
G02 X 22.0542 Y -0.8616 Z -1.0000 I 0.0471 J 0.0476
G01 X 22.0542 Y -0.8616 Z -1.0000
G00 Z 5.0000

(End cutting path id: path141054)


(Start cutting path id: path141054)
(Change tool to Default tool)

G00 Z 5.0000
G00 X 21.9891 Y -0.6575

G01 Z -1.0000 F 100.0000(Penetrate)
G02 X 22.0095 Y -0.5924 Z -1.0000 I 0.1138 J -0.0000 F 3500.0000
G01 X 22.0487 Y -0.5720 Z -1.0000
G01 X 22.0568 Y -0.5766 Z -1.0000
G01 X 22.0615 Y -0.5937 Z -1.0000
G01 X 22.0568 Y -0.6107 Z -1.0000
G01 X 22.0484 Y -0.6154 Z -1.0000
G01 X 22.0418 Y -0.6205 Z -1.0000
G01 X 22.0420 Y -0.6413 Z -1.0000
G01 X 22.0380 Y -0.6594 Z -1.0000
G01 X 22.0189 Y -0.6693 Z -1.0000
G02 X 21.9946 Y -0.6656 Z -1.0000 I -0.0040 J 0.0550
G01 X 21.9890 Y -0.6575 Z -1.0000
G01 X 21.9891 Y -0.6575 Z -1.0000
G00 Z 5.0000

(End cutting path id: path141054)


(Start cutting path id: path141054)
(Change tool to Default tool)

G00 Z 5.0000
G00 X 22.3801 Y -0.9428

G01 Z -1.0000 F 100.0000(Penetrate)
G01 X 22.3898 Y -0.9291 Z -1.0000 F 3500.0000
G02 X 22.4453 Y -0.9195 Z -1.0000 I 0.0556 J -0.1555
G02 X 22.5040 Y -0.9259 Z -1.0000 I 0.0000 J -0.2712
G01 X 22.5105 Y -0.9340 Z -1.0000
G01 X 22.5044 Y -0.9425 Z -1.0000
G02 X 22.4682 Y -0.9485 Z -1.0000 I -0.0362 J 0.1060
G03 X 22.4265 Y -0.9513 Z -1.0000 I 0.0000 J -0.3096
G03 X 22.4031 Y -0.9573 Z -1.0000 I 0.0143 J -0.1049
G01 X 22.3873 Y -0.9557 Z -1.0000
G01 X 22.3801 Y -0.9428 Z -1.0000
G01 X 22.3801 Y -0.9428 Z -1.0000
G00 Z 5.0000

(End cutting path id: path141054)


(Start cutting path id: path141054)
(Change tool to Default tool)

G00 Z 5.0000
G00 X 22.3323 Y -1.0675

G01 Z -1.0000 F 100.0000(Penetrate)
G01 X 22.3248 Y -1.0439 Z -1.0000 F 3500.0000
G01 X 22.3376 Y -1.0237 Z -1.0000
G02 X 22.3666 Y -1.0147 Z -1.0000 I 0.0317 J -0.0508
G02 X 22.3949 Y -1.0211 Z -1.0000 I 0.0025 J -0.0547
G01 X 22.4182 Y -1.0563 Z -1.0000
G01 X 22.4006 Y -1.0846 Z -1.0000
G02 X 22.3644 Y -1.0868 Z -1.0000 I -0.0216 J 0.0564
G02 X 22.3322 Y -1.0675 Z -1.0000 I 0.0156 J 0.0625
G01 X 22.3323 Y -1.0675 Z -1.0000
G00 Z 5.0000

(End cutting path id: path141054)


(Start cutting path id: path141054)
(Change tool to Default tool)

G00 Z 5.0000
G00 X 22.9740 Y -0.4577

G01 Z -1.0000 F 100.0000(Penetrate)
G01 X 22.9482 Y -0.4283 Z -1.0000 F 3500.0000
G01 X 22.9663 Y -0.4040 Z -1.0000
G02 X 23.0138 Y -0.4154 Z -1.0000 I 0.0095 J -0.0648
G01 X 23.0320 Y -0.4507 Z -1.0000
G01 X 23.0225 Y -0.4613 Z -1.0000
G02 X 22.9740 Y -0.4577 Z -1.0000 I -0.0150 J 0.1241
G01 X 22.9740 Y -0.4577 Z -1.0000
G00 Z 5.0000

(End cutting path id: path141054)


(Start cutting path id: path141054)
(Change tool to Default tool)

G00 Z 5.0000
G00 X 23.1480 Y -0.5611

G01 Z -1.0000 F 100.0000(Penetrate)
G01 X 23.1502 Y -0.5508 Z -1.0000 F 3500.0000
G02 X 23.1612 Y -0.5298 Z -1.0000 I 0.1280 J -0.0535
G01 X 23.1756 Y -0.5224 Z -1.0000
G01 X 23.1965 Y -0.5317 Z -1.0000
G02 X 23.2116 Y -0.5540 Z -1.0000 I -0.0503 J -0.0503
G01 X 23.2099 Y -0.5630 Z -1.0000
G02 X 23.1663 Y -0.5803 Z -1.0000 I -0.0418 J 0.0418
G01 X 23.1480 Y -0.5611 Z -1.0000
G01 X 23.1480 Y -0.5611 Z -1.0000
G00 Z 5.0000

(End cutting path id: path141054)


(Start cutting path id: path141054)
(Change tool to Default tool)

G00 Z 5.0000
G00 X 22.8907 Y 0.0033

G01 Z -1.0000 F 100.0000(Penetrate)
G01 X 22.8777 Y 0.0134 Z -1.0000 F 3500.0000
G01 X 22.8726 Y 0.0303 Z -1.0000
G01 X 22.8871 Y 0.0471 Z -1.0000
G02 X 22.9276 Y 0.0385 Z -1.0000 I 0.0087 J -0.0588
G01 X 22.9345 Y 0.0259 Z -1.0000
G01 X 22.9276 Y 0.0117 Z -1.0000
G01 X 22.9079 Y 0.0023 Z -1.0000
G01 X 22.8907 Y 0.0033 Z -1.0000
G01 X 22.8907 Y 0.0033 Z -1.0000
G00 Z 5.0000

(End cutting path id: path141054)


(Start cutting path id: path141054)
(Change tool to Default tool)

G00 Z 5.0000
G00 X 24.2124 Y -0.7458

G01 Z -1.0000 F 100.0000(Penetrate)
G01 X 24.2233 Y -0.7347 Z -1.0000 F 3500.0000
G01 X 24.2350 Y -0.7313 Z -1.0000
G01 X 24.2445 Y -0.7354 Z -1.0000
G01 X 24.2486 Y -0.7458 Z -1.0000
G01 X 24.2435 Y -0.7552 Z -1.0000
G01 X 24.2260 Y -0.7603 Z -1.0000
G01 X 24.2133 Y -0.7548 Z -1.0000
G01 X 24.2124 Y -0.7458 Z -1.0000
G01 X 24.2124 Y -0.7458 Z -1.0000
G00 Z 5.0000

(End cutting path id: path141054)


(Start cutting path id: path141054)
(Change tool to Default tool)

G00 Z 5.0000
G00 X 24.6353 Y -1.2435

G01 Z -1.0000 F 100.0000(Penetrate)
G01 X 24.6325 Y -1.2223 Z -1.0000 F 3500.0000
G01 X 24.6550 Y -1.2093 Z -1.0000
G01 X 24.6638 Y -1.2141 Z -1.0000
G01 X 24.6687 Y -1.2310 Z -1.0000
G01 X 24.6568 Y -1.2481 Z -1.0000
G01 X 24.6353 Y -1.2435 Z -1.0000
G01 X 24.6353 Y -1.2435 Z -1.0000
G00 Z 5.0000

(End cutting path id: path141054)


(Start cutting path id: path141054)
(Change tool to Default tool)

G00 Z 5.0000
G00 X 24.3283 Y -1.5714

G01 Z -1.0000 F 100.0000(Penetrate)
G02 X 24.3384 Y -1.5590 Z -1.0000 I 0.0511 J -0.0313 F 3500.0000
G01 X 24.3436 Y -1.5569 Z -1.0000
G01 X 24.3475 Y -1.5594 Z -1.0000
G01 X 24.3500 Y -1.5714 Z -1.0000
G01 X 24.3457 Y -1.5816 Z -1.0000
G01 X 24.3347 Y -1.5859 Z -1.0000
G01 X 24.3276 Y -1.5813 Z -1.0000
G01 X 24.3283 Y -1.5714 Z -1.0000
G01 X 24.3283 Y -1.5714 Z -1.0000
G00 Z 5.0000

(End cutting path id: path141054)


(Start cutting path id: path141054)
(Change tool to Default tool)

G00 Z 5.0000
G00 X 24.9410 Y -1.9162

G01 Z -1.0000 F 100.0000(Penetrate)
G01 X 24.9584 Y -1.9090 Z -1.0000 F 3500.0000
G01 X 24.9757 Y -1.9162 Z -1.0000
G01 X 24.9758 Y -1.9264 Z -1.0000
G01 X 24.9584 Y -1.9336 Z -1.0000
G01 X 24.9410 Y -1.9264 Z -1.0000
G01 X 24.9410 Y -1.9162 Z -1.0000
G01 X 24.9410 Y -1.9162 Z -1.0000
G00 Z 5.0000

(End cutting path id: path141054)


(Start cutting path id: path141054)
(Change tool to Default tool)

G00 Z 5.0000
G00 X 25.1422 Y -1.9533

G01 Z -1.0000 F 100.0000(Penetrate)
G01 X 25.1395 Y -1.9321 Z -1.0000 F 3500.0000
G01 X 25.1620 Y -1.9191 Z -1.0000
G01 X 25.1708 Y -1.9240 Z -1.0000
G01 X 25.1756 Y -1.9409 Z -1.0000
G01 X 25.1637 Y -1.9580 Z -1.0000
G01 X 25.1422 Y -1.9533 Z -1.0000
G01 X 25.1422 Y -1.9533 Z -1.0000
G00 Z 5.0000

(End cutting path id: path141054)


(Start cutting path id: path141054)
(Change tool to Default tool)

G00 Z 5.0000
G00 X 25.1467 Y -2.2658

G01 Z -1.0000 F 100.0000(Penetrate)
G01 X 25.1513 Y -2.2587 Z -1.0000 F 3500.0000
G01 X 25.1611 Y -2.2594 Z -1.0000
G02 X 25.1736 Y -2.2695 Z -1.0000 I -0.0314 J -0.0512
G01 X 25.1756 Y -2.2747 Z -1.0000
G01 X 25.1731 Y -2.2786 Z -1.0000
G01 X 25.1611 Y -2.2811 Z -1.0000
G01 X 25.1510 Y -2.2768 Z -1.0000
G01 X 25.1467 Y -2.2658 Z -1.0000
G01 X 25.1467 Y -2.2658 Z -1.0000
G00 Z 5.0000

(End cutting path id: path141054)


(Start cutting path id: path141054)
(Change tool to Default tool)

G00 Z 5.0000
G00 X 25.8926 Y -2.3245

G01 Z -1.0000 F 100.0000(Penetrate)
G01 X 25.9006 Y -2.2998 Z -1.0000 F 3500.0000
G01 X 25.9442 Y -2.3034 Z -1.0000
G01 X 25.9491 Y -2.3138 Z -1.0000
G01 X 25.9413 Y -2.3262 Z -1.0000
G02 X 25.9101 Y -2.3346 Z -1.0000 I -0.0293 J 0.0462
G01 X 25.8926 Y -2.3245 Z -1.0000
G01 X 25.8926 Y -2.3245 Z -1.0000
G00 Z 5.0000

(End cutting path id: path141054)


(Start cutting path id: path141054)
(Change tool to Default tool)

G00 Z 5.0000
G00 X 25.9969 Y -1.6206

G01 Z -1.0000 F 100.0000(Penetrate)
G01 X 25.9892 Y -1.5950 Z -1.0000 F 3500.0000
G01 X 25.9988 Y -1.5859 Z -1.0000
G01 X 26.0208 Y -1.5937 Z -1.0000
G01 X 26.0344 Y -1.6149 Z -1.0000
G01 X 26.0235 Y -1.6315 Z -1.0000
G01 X 25.9969 Y -1.6207 Z -1.0000
G01 X 25.9969 Y -1.6206 Z -1.0000
G00 Z 5.0000

(End cutting path id: path141054)


(Start cutting path id: path141054)
(Change tool to Default tool)

G00 Z 5.0000
G00 X 26.4694 Y -1.3781

G01 Z -1.0000 F 100.0000(Penetrate)
G02 X 26.4568 Y -1.3466 Z -1.0000 I 0.0388 J 0.0338 F 3500.0000
G01 X 26.4671 Y -1.3271 Z -1.0000
G02 X 26.4946 Y -1.3187 Z -1.0000 I 0.0292 J -0.0468
G02 X 26.5230 Y -1.3254 Z -1.0000 I 0.0017 J -0.0564
G02 X 26.5509 Y -1.3683 Z -1.0000 I -0.0251 J -0.0468
G01 X 26.5287 Y -1.4033 Z -1.0000
G01 X 26.5034 Y -1.4028 Z -1.0000
G02 X 26.4693 Y -1.3781 Z -1.0000 I 0.0366 J 0.0863
G01 X 26.4694 Y -1.3781 Z -1.0000
G00 Z 5.0000

(End cutting path id: path141054)


(Start cutting path id: path141054)
(Change tool to Default tool)

G00 Z 5.0000
G00 X 26.6603 Y -1.4411

G01 Z -1.0000 F 100.0000(Penetrate)
G02 X 26.6704 Y -1.4287 Z -1.0000 I 0.0512 J -0.0314 F 3500.0000
G01 X 26.6756 Y -1.4266 Z -1.0000
G01 X 26.6795 Y -1.4291 Z -1.0000
G01 X 26.6820 Y -1.4411 Z -1.0000
G01 X 26.6776 Y -1.4512 Z -1.0000
G01 X 26.6667 Y -1.4556 Z -1.0000
G01 X 26.6596 Y -1.4510 Z -1.0000
G01 X 26.6603 Y -1.4411 Z -1.0000
G01 X 26.6603 Y -1.4411 Z -1.0000
G00 Z 5.0000

(End cutting path id: path141054)


(Start cutting path id: path141054)
(Change tool to Default tool)

G00 Z 5.0000
G00 X 27.0007 Y -1.1508

G01 Z -1.0000 F 100.0000(Penetrate)
G01 X 27.0203 Y -1.1215 Z -1.0000 F 3500.0000
G01 X 27.0552 Y -1.1286 Z -1.0000
G01 X 27.0567 Y -1.1374 Z -1.0000
G01 X 27.0437 Y -1.1518 Z -1.0000
G02 X 27.0106 Y -1.1610 Z -1.0000 I -0.0317 J 0.0502
G01 X 27.0007 Y -1.1508 Z -1.0000
G01 X 27.0007 Y -1.1508 Z -1.0000
G00 Z 5.0000

(End cutting path id: path141054)


(Start cutting path id: path141054)
(Change tool to Default tool)

G00 Z 5.0000
G00 X 27.4207 Y -1.3397

G01 Z -1.0000 F 100.0000(Penetrate)
G01 X 27.4306 Y -1.3298 Z -1.0000 F 3500.0000
G02 X 27.4642 Y -1.3397 Z -1.0000 I -0.0000 J -0.0618
G01 X 27.4656 Y -1.3478 Z -1.0000
G01 X 27.4533 Y -1.3539 Z -1.0000
G02 X 27.4264 Y -1.3484 Z -1.0000 I -0.0004 J 0.0659
G01 X 27.4207 Y -1.3397 Z -1.0000
G01 X 27.4207 Y -1.3397 Z -1.0000
G00 Z 5.0000

(End cutting path id: path141054)


(Start cutting path id: path141054)
(Change tool to Default tool)

G00 Z 5.0000
G00 X 27.7232 Y -1.5968

G01 Z -1.0000 F 100.0000(Penetrate)
G01 X 27.7221 Y -1.5930 Z -1.0000 F 3500.0000
G02 X 27.7168 Y -1.5497 Z -1.0000 I 1.5888 J 0.2168
G01 X 27.7228 Y -1.5335 Z -1.0000
G01 X 27.7330 Y -1.5344 Z -1.0000
G02 X 27.7528 Y -1.5856 Z -1.0000 I -0.0823 J -0.0612
G01 X 27.7394 Y -1.6004 Z -1.0000
G02 X 27.7259 Y -1.5989 Z -1.0000 I -0.0000 J 0.0625
G01 X 27.7232 Y -1.5968 Z -1.0000
G01 X 27.7232 Y -1.5968 Z -1.0000
G00 Z 5.0000

(End cutting path id: path141054)


(Start cutting path id: path141054)
(Change tool to Default tool)

G00 Z 5.0000
G00 X 27.8697 Y -1.7742

G01 Z -1.0000 F 100.0000(Penetrate)
G01 X 27.8741 Y -1.7641 Z -1.0000 F 3500.0000
G01 X 27.8851 Y -1.7597 Z -1.0000
G01 X 27.8921 Y -1.7643 Z -1.0000
G01 X 27.8915 Y -1.7742 Z -1.0000
G02 X 27.8814 Y -1.7866 Z -1.0000 I -0.0512 J 0.0314
G01 X 27.8761 Y -1.7887 Z -1.0000
G01 X 27.8723 Y -1.7862 Z -1.0000
G01 X 27.8697 Y -1.7742 Z -1.0000
G01 X 27.8697 Y -1.7742 Z -1.0000
G00 Z 5.0000

(End cutting path id: path141054)


(Start cutting path id: path141054)
(Change tool to Default tool)

G00 Z 5.0000
G00 X 28.1331 Y -1.7923

G01 Z -1.0000 F 100.0000(Penetrate)
G01 X 28.1449 Y -1.7744 Z -1.0000 F 3500.0000
G02 X 28.1777 Y -1.7624 Z -1.0000 I 0.0412 J -0.0613
G01 X 28.1948 Y -1.7766 Z -1.0000
G01 X 28.1805 Y -1.8008 Z -1.0000
G02 X 28.1423 Y -1.8056 Z -1.0000 I -0.0268 J 0.0587
G01 X 28.1331 Y -1.7923 Z -1.0000
G01 X 28.1331 Y -1.7923 Z -1.0000
G00 Z 5.0000

(End cutting path id: path141054)


(Start cutting path id: path141054)
(Change tool to Default tool)

G00 Z 5.0000
G00 X 28.1849 Y -2.0294

G01 Z -1.0000 F 100.0000(Penetrate)
G01 X 28.1754 Y -2.0095 Z -1.0000 F 3500.0000
G01 X 28.1860 Y -1.9864 Z -1.0000
G01 X 28.2374 Y -1.9846 Z -1.0000
G01 X 28.2401 Y -2.0287 Z -1.0000
G01 X 28.2150 Y -2.0393 Z -1.0000
G01 X 28.1849 Y -2.0294 Z -1.0000
G01 X 28.1849 Y -2.0294 Z -1.0000
G00 Z 5.0000

(End cutting path id: path141054)


(Start cutting path id: path141054)
(Change tool to Default tool)

G00 Z 5.0000
G00 X 28.3405 Y -1.9771

G01 Z -1.0000 F 100.0000(Penetrate)
G01 X 28.3415 Y -1.9681 Z -1.0000 F 3500.0000
G01 X 28.3550 Y -1.9626 Z -1.0000
G01 X 28.3684 Y -1.9681 Z -1.0000
G01 X 28.3695 Y -1.9771 Z -1.0000
G02 X 28.3595 Y -1.9897 Z -1.0000 I -0.0575 J 0.0352
G01 X 28.3550 Y -1.9915 Z -1.0000
G01 X 28.3505 Y -1.9897 Z -1.0000
G02 X 28.3405 Y -1.9771 Z -1.0000 I 0.0471 J 0.0477
G01 X 28.3405 Y -1.9771 Z -1.0000
G00 Z 5.0000

(End cutting path id: path141054)


(Start cutting path id: path141054)
(Change tool to Default tool)

G00 Z 5.0000
G00 X 28.6084 Y -1.8560

G01 Z -1.0000 F 100.0000(Penetrate)
G01 X 28.6160 Y -1.8454 Z -1.0000 F 3500.0000
G02 X 28.6449 Y -1.8433 Z -1.0000 I 0.0184 J -0.0527
G01 X 28.6640 Y -1.8614 Z -1.0000
G01 X 28.6528 Y -1.8757 Z -1.0000
G02 X 28.6162 Y -1.8679 Z -1.0000 I 0.0000 J 0.0898
G01 X 28.6085 Y -1.8560 Z -1.0000
G01 X 28.6084 Y -1.8560 Z -1.0000
G00 Z 5.0000

(End cutting path id: path141054)


(Start cutting path id: path141054)
(Change tool to Default tool)

G00 Z 5.0000
G00 X 28.3405 Y -1.6148

G01 Z -1.0000 F 100.0000(Penetrate)
G02 X 28.3506 Y -1.6024 Z -1.0000 I 0.0512 J -0.0314 F 3500.0000
G01 X 28.3558 Y -1.6004 Z -1.0000
G01 X 28.3597 Y -1.6029 Z -1.0000
G01 X 28.3622 Y -1.6148 Z -1.0000
G01 X 28.3578 Y -1.6250 Z -1.0000
G01 X 28.3469 Y -1.6293 Z -1.0000
G01 X 28.3398 Y -1.6247 Z -1.0000
G01 X 28.3405 Y -1.6148 Z -1.0000
G01 X 28.3405 Y -1.6148 Z -1.0000
G00 Z 5.0000

(End cutting path id: path141054)


(Start cutting path id: path141054)
(Change tool to Default tool)

G00 Z 5.0000
G00 X 28.0081 Y -1.1380

G01 Z -1.0000 F 100.0000(Penetrate)
G01 X 28.0061 Y -1.1259 Z -1.0000 F 3500.0000
G01 X 28.0133 Y -1.1158 Z -1.0000
G01 X 28.0255 Y -1.1138 Z -1.0000
G01 X 28.0355 Y -1.1210 Z -1.0000
G01 X 28.0375 Y -1.1332 Z -1.0000
G01 X 28.0303 Y -1.1432 Z -1.0000
G01 X 28.0181 Y -1.1452 Z -1.0000
G01 X 28.0081 Y -1.1380 Z -1.0000
G01 X 28.0081 Y -1.1380 Z -1.0000
G00 Z 5.0000

(End cutting path id: path141054)


(Start cutting path id: path141054)
(Change tool to Default tool)

G00 Z 5.0000
G00 X 28.5075 Y -0.7517

G01 Z -1.0000 F 100.0000(Penetrate)
G02 X 28.5135 Y -0.7242 Z -1.0000 I 0.0615 J 0.0009 F 3500.0000
G02 X 28.5335 Y -0.6974 Z -1.0000 I 0.0782 J -0.0375
G01 X 28.5533 Y -0.7036 Z -1.0000
G01 X 28.5437 Y -0.7414 Z -1.0000
G02 X 28.5166 Y -0.7585 Z -1.0000 I -0.0426 J 0.0374
G01 X 28.5075 Y -0.7517 Z -1.0000
G01 X 28.5075 Y -0.7517 Z -1.0000
G00 Z 5.0000

(End cutting path id: path141054)


(Start cutting path id: path141054)
(Change tool to Default tool)

G00 Z 5.0000
G00 X 28.3885 Y -0.4317

G01 Z -1.0000 F 100.0000(Penetrate)
G01 X 28.4066 Y -0.4286 Z -1.0000 F 3500.0000
G01 X 28.4162 Y -0.4328 Z -1.0000
G01 X 28.4153 Y -0.4373 Z -1.0000
G01 X 28.3972 Y -0.4404 Z -1.0000
G01 X 28.3875 Y -0.4362 Z -1.0000
G01 X 28.3884 Y -0.4316 Z -1.0000
G01 X 28.3885 Y -0.4317 Z -1.0000
G00 Z 5.0000

(End cutting path id: path141054)


(Start cutting path id: path141054)
(Change tool to Default tool)

G00 Z 5.0000
G00 X 28.0457 Y -0.3621

G01 Z -1.0000 F 100.0000(Penetrate)
G01 X 28.0567 Y -0.3413 Z -1.0000 F 3500.0000
G02 X 28.0834 Y -0.3242 Z -1.0000 I 0.0521 J -0.0519
G01 X 28.1067 Y -0.3255 Z -1.0000
G01 X 28.1160 Y -0.3407 Z -1.0000
G02 X 28.1108 Y -0.3640 Z -1.0000 I -0.0551 J -0.0000
G01 X 28.1027 Y -0.3692 Z -1.0000
G03 X 28.0897 Y -0.3708 Z -1.0000 I 0.0000 J -0.0540
G03 X 28.0650 Y -0.3786 Z -1.0000 I 0.0491 J -0.1982
G01 X 28.0506 Y -0.3761 Z -1.0000
G01 X 28.0457 Y -0.3621 Z -1.0000
G01 X 28.0457 Y -0.3621 Z -1.0000
G00 Z 5.0000

(End cutting path id: path141054)


(Start cutting path id: path141054)
(Change tool to Default tool)

G00 Z 5.0000
G00 X 27.9093 Y -0.3095

G01 Z -1.0000 F 100.0000(Penetrate)
G02 X 27.9272 Y -0.2979 Z -1.0000 I 0.0358 J -0.0354 F 3500.0000
G01 X 27.9353 Y -0.2996 Z -1.0000
G01 X 27.9353 Y -0.3060 Z -1.0000
G02 X 27.9174 Y -0.3176 Z -1.0000 I -0.0360 J 0.0360
G01 X 27.9093 Y -0.3159 Z -1.0000
G01 X 27.9093 Y -0.3095 Z -1.0000
G01 X 27.9093 Y -0.3095 Z -1.0000
G00 Z 5.0000

(End cutting path id: path141054)


(Start cutting path id: path141054)
(Change tool to Default tool)

G00 Z 5.0000
G00 X 27.5977 Y -0.4394

G01 Z -1.0000 F 100.0000(Penetrate)
G01 X 27.6083 Y -0.4246 Z -1.0000 F 3500.0000
G02 X 27.6300 Y -0.4149 Z -1.0000 I 0.0316 J -0.0417
G01 X 27.6459 Y -0.4186 Z -1.0000
G01 X 27.6493 Y -0.4294 Z -1.0000
G01 X 27.6387 Y -0.4442 Z -1.0000
G02 X 27.6170 Y -0.4539 Z -1.0000 I -0.0316 J 0.0417
G01 X 27.6011 Y -0.4502 Z -1.0000
G01 X 27.5977 Y -0.4394 Z -1.0000
G01 X 27.5977 Y -0.4394 Z -1.0000
G00 Z 5.0000

(End cutting path id: path141054)


(Start cutting path id: path141054)
(Change tool to Default tool)

G00 Z 5.0000
G00 X 28.7750 Y -0.4416

G01 Z -1.0000 F 100.0000(Penetrate)
G01 X 28.7761 Y -0.4327 Z -1.0000 F 3500.0000
G01 X 28.7895 Y -0.4271 Z -1.0000
G01 X 28.8029 Y -0.4327 Z -1.0000
G01 X 28.8040 Y -0.4416 Z -1.0000
G02 X 28.7940 Y -0.4542 Z -1.0000 I -0.0575 J 0.0352
G01 X 28.7895 Y -0.4561 Z -1.0000
G01 X 28.7850 Y -0.4543 Z -1.0000
G02 X 28.7750 Y -0.4416 Z -1.0000 I 0.0469 J 0.0475
G01 X 28.7750 Y -0.4416 Z -1.0000
G00 Z 5.0000

(End cutting path id: path141054)


(Start cutting path id: path141054)
(Change tool to Default tool)

G00 Z 5.0000
G00 X 29.0403 Y -0.4317

G01 Z -1.0000 F 100.0000(Penetrate)
G01 X 29.0584 Y -0.4286 Z -1.0000 F 3500.0000
G01 X 29.0680 Y -0.4328 Z -1.0000
G01 X 29.0671 Y -0.4373 Z -1.0000
G01 X 29.0490 Y -0.4404 Z -1.0000
G01 X 29.0393 Y -0.4362 Z -1.0000
G01 X 29.0402 Y -0.4316 Z -1.0000
G01 X 29.0403 Y -0.4317 Z -1.0000
G00 Z 5.0000

(End cutting path id: path141054)


(Start cutting path id: path141054)
(Change tool to Default tool)

G00 Z 5.0000
G00 X 28.7533 Y -0.0940

G01 Z -1.0000 F 100.0000(Penetrate)
G01 X 28.7584 Y -0.0846 Z -1.0000 F 3500.0000
G01 X 28.7759 Y -0.0795 Z -1.0000
G01 X 28.7886 Y -0.0850 Z -1.0000
G01 X 28.7895 Y -0.0940 Z -1.0000
G01 X 28.7786 Y -0.1051 Z -1.0000
G01 X 28.7669 Y -0.1085 Z -1.0000
G01 X 28.7574 Y -0.1044 Z -1.0000
G01 X 28.7533 Y -0.0940 Z -1.0000
G01 X 28.7533 Y -0.0940 Z -1.0000
G00 Z 5.0000

(End cutting path id: path141054)


(Start cutting path id: path141054)
(Change tool to Default tool)

G00 Z 5.0000
G00 X 29.5129 Y -0.3624

G01 Z -1.0000 F 100.0000(Penetrate)
G01 X 29.5100 Y -0.3495 Z -1.0000 F 3500.0000
G01 X 29.5246 Y -0.3407 Z -1.0000
G02 X 29.5563 Y -0.3484 Z -1.0000 I 0.0008 J -0.0657
G01 X 29.5644 Y -0.3620 Z -1.0000
G01 X 29.5513 Y -0.3751 Z -1.0000
G02 X 29.5129 Y -0.3624 Z -1.0000 I -0.0006 J 0.0629
G01 X 29.5129 Y -0.3624 Z -1.0000
G00 Z 5.0000

(End cutting path id: path141054)


(Start cutting path id: path141054)
(Change tool to Default tool)

G00 Z 5.0000
G00 X 29.4920 Y -0.7748

G01 Z -1.0000 F 100.0000(Penetrate)
G01 X 29.4964 Y -0.7647 Z -1.0000 F 3500.0000
G01 X 29.5073 Y -0.7603 Z -1.0000
G01 X 29.5144 Y -0.7649 Z -1.0000
G01 X 29.5137 Y -0.7748 Z -1.0000
G02 X 29.5036 Y -0.7872 Z -1.0000 I -0.0511 J 0.0313
G01 X 29.4984 Y -0.7893 Z -1.0000
G01 X 29.4945 Y -0.7868 Z -1.0000
G01 X 29.4920 Y -0.7748 Z -1.0000
G01 X 29.4920 Y -0.7748 Z -1.0000
G00 Z 5.0000

(End cutting path id: path141054)


(Start cutting path id: path141054)
(Change tool to Default tool)

G00 Z 5.0000
G00 X 29.0403 Y -1.1269

G01 Z -1.0000 F 100.0000(Penetrate)
G01 X 29.0584 Y -1.1238 Z -1.0000 F 3500.0000
G01 X 29.0680 Y -1.1280 Z -1.0000
G01 X 29.0671 Y -1.1325 Z -1.0000
G01 X 29.0490 Y -1.1356 Z -1.0000
G01 X 29.0393 Y -1.1313 Z -1.0000
G01 X 29.0402 Y -1.1268 Z -1.0000
G01 X 29.0403 Y -1.1269 Z -1.0000
G00 Z 5.0000

(End cutting path id: path141054)


(Start cutting path id: path141054)
(Change tool to Default tool)

G00 Z 5.0000
G00 X 29.3399 Y -1.5714

G01 Z -1.0000 F 100.0000(Penetrate)
G01 X 29.3408 Y -1.5624 Z -1.0000 F 3500.0000
G01 X 29.3535 Y -1.5569 Z -1.0000
G01 X 29.3710 Y -1.5620 Z -1.0000
G01 X 29.3761 Y -1.5714 Z -1.0000
G01 X 29.3720 Y -1.5818 Z -1.0000
G01 X 29.3625 Y -1.5859 Z -1.0000
G01 X 29.3508 Y -1.5825 Z -1.0000
G01 X 29.3399 Y -1.5714 Z -1.0000
G01 X 29.3399 Y -1.5714 Z -1.0000
G00 Z 5.0000

(End cutting path id: path141054)


(Start cutting path id: path141054)
(Change tool to Default tool)

G00 Z 5.0000
G00 X 29.7093 Y -1.5633

G01 Z -1.0000 F 100.0000(Penetrate)
G01 X 29.7147 Y -1.5506 Z -1.0000 F 3500.0000
G01 X 29.7237 Y -1.5497 Z -1.0000
G01 X 29.7348 Y -1.5606 Z -1.0000
G01 X 29.7382 Y -1.5723 Z -1.0000
G01 X 29.7341 Y -1.5818 Z -1.0000
G01 X 29.7237 Y -1.5859 Z -1.0000
G01 X 29.7144 Y -1.5808 Z -1.0000
G01 X 29.7093 Y -1.5633 Z -1.0000
G01 X 29.7093 Y -1.5633 Z -1.0000
G00 Z 5.0000

(End cutting path id: path141054)


(Start cutting path id: path141054)
(Change tool to Default tool)

G00 Z 5.0000
G00 X 30.0714 Y -1.1892

G01 Z -1.0000 F 100.0000(Penetrate)
G01 X 30.0975 Y -1.1554 Z -1.0000 F 3500.0000
G02 X 30.1537 Y -1.1680 Z -1.0000 I 0.0158 J -0.0613
G01 X 30.1550 Y -1.1918 Z -1.0000
G02 X 30.1140 Y -1.2092 Z -1.0000 I -0.0411 J 0.0396
G02 X 30.0792 Y -1.2015 Z -1.0000 I -0.0000 J 0.0819
G01 X 30.0714 Y -1.1892 Z -1.0000
G01 X 30.0714 Y -1.1892 Z -1.0000
G00 Z 5.0000

(End cutting path id: path141054)


(Start cutting path id: path141054)
(Change tool to Default tool)

G00 Z 5.0000
G00 X 31.2026 Y -1.6409

G01 Z -1.0000 F 100.0000(Penetrate)
G01 X 31.2042 Y -1.6249 Z -1.0000 F 3500.0000
G01 X 31.2246 Y -1.6175 Z -1.0000
G01 X 31.2572 Y -1.6400 Z -1.0000
G01 X 31.2475 Y -1.6618 Z -1.0000
G01 X 31.2239 Y -1.6596 Z -1.0000
G01 X 31.2026 Y -1.6409 Z -1.0000
G01 X 31.2026 Y -1.6409 Z -1.0000
G00 Z 5.0000

(End cutting path id: path141054)


(Start cutting path id: path141054)
(Change tool to Default tool)

G00 Z 5.0000
G00 X 31.3257 Y -0.9218

G01 Z -1.0000 F 100.0000(Penetrate)
G01 X 31.3237 Y -0.9088 Z -1.0000 F 3500.0000
G01 X 31.3323 Y -0.8973 Z -1.0000
G01 X 31.3517 Y -0.9009 Z -1.0000
G01 X 31.3503 Y -0.9210 Z -1.0000
G01 X 31.3359 Y -0.9272 Z -1.0000
G01 X 31.3257 Y -0.9218 Z -1.0000
G01 X 31.3257 Y -0.9218 Z -1.0000
G00 Z 5.0000

(End cutting path id: path141054)


(Start cutting path id: path141054)
(Change tool to Default tool)

G00 Z 5.0000
G00 X 31.2948 Y -0.7740

G01 Z -1.0000 F 100.0000(Penetrate)
G02 X 31.2869 Y -0.7091 Z -1.0000 I 0.0664 J 0.0410 F 3500.0000
G01 X 31.3212 Y -0.6916 Z -1.0000
G01 X 31.3516 Y -0.7318 Z -1.0000
G01 X 31.3244 Y -0.7603 Z -1.0000
G01 X 31.3108 Y -0.7659 Z -1.0000
G01 X 31.3097 Y -0.7748 Z -1.0000
G01 X 31.3114 Y -0.7893 Z -1.0000
G01 X 31.3055 Y -0.7870 Z -1.0000
G02 X 31.2947 Y -0.7740 Z -1.0000 I 0.0418 J 0.0454
G01 X 31.2948 Y -0.7740 Z -1.0000
G00 Z 5.0000

(End cutting path id: path141054)


(Start cutting path id: path141054)
(Change tool to Default tool)

G00 Z 5.0000
G00 X 31.9254 Y -1.8838

G01 Z -1.0000 F 100.0000(Penetrate)
G01 X 31.9406 Y -1.8498 Z -1.0000 F 3500.0000
G01 X 31.9629 Y -1.8504 Z -1.0000
G01 X 31.9691 Y -1.8848 Z -1.0000
G01 X 31.9383 Y -1.9046 Z -1.0000
G01 X 31.9300 Y -1.9000 Z -1.0000
G01 X 31.9254 Y -1.8838 Z -1.0000
G01 X 31.9254 Y -1.8838 Z -1.0000
G00 Z 5.0000

(End cutting path id: path141054)


(Start cutting path id: path141054)
(Change tool to Default tool)

G00 Z 5.0000
G00 X 32.2967 Y -1.8395

G01 Z -1.0000 F 100.0000(Penetrate)
G02 X 32.3066 Y -1.8200 Z -1.0000 I 0.0996 J -0.0383 F 3500.0000
G01 X 32.3108 Y -1.8178 Z -1.0000
G01 X 32.3140 Y -1.8202 Z -1.0000
G02 X 32.3165 Y -1.8395 Z -1.0000 I -0.0729 J -0.0193
G01 X 32.3115 Y -1.8563 Z -1.0000
G01 X 32.3024 Y -1.8612 Z -1.0000
G01 X 32.2958 Y -1.8561 Z -1.0000
G01 X 32.2967 Y -1.8395 Z -1.0000
G01 X 32.2967 Y -1.8395 Z -1.0000
G00 Z 5.0000

(End cutting path id: path141054)


(Start cutting path id: path141054)
(Change tool to Default tool)

G00 Z 5.0000
G00 X 32.9603 Y -1.5728

G01 Z -1.0000 F 100.0000(Penetrate)
G03 X 32.9450 Y -1.5625 Z -1.0000 I -0.0385 J -0.0407 F 3500.0000
G03 X 32.9175 Y -1.5533 Z -1.0000 I -0.0573 J -0.1257
G01 X 32.9097 Y -1.5449 Z -1.0000
G01 X 32.9148 Y -1.5355 Z -1.0000
G02 X 32.9923 Y -1.5345 Z -1.0000 I 0.0400 J -0.0922
G01 X 33.0044 Y -1.5715 Z -1.0000
G01 X 32.9855 Y -1.5824 Z -1.0000
G01 X 32.9603 Y -1.5728 Z -1.0000
G01 X 32.9603 Y -1.5728 Z -1.0000
G00 Z 5.0000

(End cutting path id: path141054)


(Start cutting path id: path141054)
(Change tool to Default tool)

G00 Z 5.0000
G00 X 33.4173 Y -2.6134

G01 Z -1.0000 F 100.0000(Penetrate)
G01 X 33.4221 Y -2.6068 Z -1.0000 F 3500.0000
G01 X 33.4334 Y -2.6080 Z -1.0000
G01 X 33.4476 Y -2.6100 Z -1.0000
G01 X 33.4603 Y -2.6004 Z -1.0000
G01 X 33.4699 Y -2.5967 Z -1.0000
G01 X 33.4800 Y -2.6058 Z -1.0000
G01 X 33.4763 Y -2.6202 Z -1.0000
G01 X 33.4530 Y -2.6288 Z -1.0000
G02 X 33.4234 Y -2.6227 Z -1.0000 I 0.0000 J 0.0753
G01 X 33.4173 Y -2.6134 Z -1.0000
G01 X 33.4173 Y -2.6134 Z -1.0000
G00 Z 5.0000

(End cutting path id: path141054)


(Start cutting path id: path141054)
(Change tool to Default tool)

G00 Z 5.0000
G00 X 32.7510 Y -0.3672

G01 Z -1.0000 F 100.0000(Penetrate)
G01 X 32.7696 Y -0.3313 Z -1.0000 F 3500.0000
G02 X 32.8295 Y -0.3118 Z -1.0000 I 0.0617 J -0.0875
G01 X 32.8369 Y -0.3204 Z -1.0000
G02 X 32.8234 Y -0.3475 Z -1.0000 I -0.0519 J 0.0089
G02 X 32.7685 Y -0.3805 Z -1.0000 I -0.0859 J 0.0807
G01 X 32.7510 Y -0.3672 Z -1.0000
G01 X 32.7510 Y -0.3672 Z -1.0000
G00 Z 5.0000

(End cutting path id: path141054)


(Start cutting path id: path141054)
(Change tool to Default tool)

G00 Z 5.0000
G00 X 32.8239 Y -0.2540

G01 Z -1.0000 F 100.0000(Penetrate)
G01 X 32.8058 Y -0.1996 Z -1.0000 F 3500.0000
G02 X 32.8618 Y -0.1548 Z -1.0000 I 0.0660 J -0.0252
G01 X 32.8849 Y -0.1614 Z -1.0000
G02 X 32.9019 Y -0.1888 Z -1.0000 I -0.0340 J -0.0401
G02 X 32.8820 Y -0.2501 Z -1.0000 I -0.0589 J -0.0148
G01 X 32.8239 Y -0.2540 Z -1.0000
G01 X 32.8239 Y -0.2540 Z -1.0000
G00 Z 5.0000

(End cutting path id: path141054)


(Start cutting path id: path141054)
(Change tool to Default tool)

G00 Z 5.0000
G00 X 32.4178 Y -0.1608

G01 Z -1.0000 F 100.0000(Penetrate)
G01 X 32.4201 Y -0.1567 Z -1.0000 F 3500.0000
G02 X 32.4396 Y -0.1467 Z -1.0000 I 0.0588 J -0.0914
G01 X 32.4562 Y -0.1458 Z -1.0000
G01 X 32.4613 Y -0.1524 Z -1.0000
G01 X 32.4564 Y -0.1615 Z -1.0000
G01 X 32.4396 Y -0.1665 Z -1.0000
G02 X 32.4203 Y -0.1640 Z -1.0000 I 0.0000 J 0.0753
G01 X 32.4178 Y -0.1608 Z -1.0000
G01 X 32.4178 Y -0.1608 Z -1.0000
G00 Z 5.0000

(End cutting path id: path141054)


(Start cutting path id: path141054)
(Change tool to Default tool)

G00 Z 5.0000
G00 X 29.5354 Y -2.6935

G01 Z -1.0000 F 100.0000(Penetrate)
G02 X 29.5730 Y -2.6783 Z -1.0000 I 0.0784 J -0.1406 F 3500.0000
G02 X 29.6144 Y -2.6727 Z -1.0000 I 0.0434 J -0.1654
G01 X 29.6184 Y -2.6858 Z -1.0000
G02 X 29.5644 Y -2.7056 Z -1.0000 I -0.0695 J 0.1056
G02 X 29.5359 Y -2.7017 Z -1.0000 I -0.0069 J 0.0556
G01 X 29.5354 Y -2.6935 Z -1.0000
G01 X 29.5354 Y -2.6935 Z -1.0000
G00 Z 5.0000

(End cutting path id: path141054)


(Start cutting path id: path141054)
(Change tool to Default tool)

G00 Z 5.0000
G00 X 28.8651 Y -2.4937

G01 Z -1.0000 F 100.0000(Penetrate)
G01 X 28.8625 Y -2.4765 Z -1.0000 F 3500.0000
G02 X 28.8661 Y -2.4506 Z -1.0000 I 0.1159 J -0.0029
G01 X 28.9104 Y -2.4188 Z -1.0000
G01 X 28.9530 Y -2.4569 Z -1.0000
G02 X 28.9199 Y -2.5185 Z -1.0000 I -0.0547 J -0.0103
G01 X 28.8651 Y -2.4937 Z -1.0000
G01 X 28.8651 Y -2.4937 Z -1.0000
G00 Z 5.0000

(End cutting path id: path141054)


(Start cutting path id: path141054)
(Change tool to Default tool)

G00 Z 5.0000
G00 X 28.2756 Y -2.6144

G01 Z -1.0000 F 100.0000(Penetrate)
G01 X 28.2692 Y -2.5901 Z -1.0000 F 3500.0000
G01 X 28.2967 Y -2.5765 Z -1.0000
G01 X 28.3158 Y -2.5906 Z -1.0000
G01 X 28.3122 Y -2.6092 Z -1.0000
G01 X 28.2933 Y -2.6181 Z -1.0000
G01 X 28.2756 Y -2.6144 Z -1.0000
G01 X 28.2756 Y -2.6144 Z -1.0000
G00 Z 5.0000

(End cutting path id: path141054)


(Start cutting path id: path141054)
(Change tool to Default tool)

G00 Z 5.0000
G00 X 26.3271 Y -0.5430

G01 Z -1.0000 F 100.0000(Penetrate)
G01 X 26.3234 Y -0.5354 Z -1.0000 F 3500.0000
G01 X 26.3307 Y -0.5296 Z -1.0000
G02 X 26.3576 Y -0.5345 Z -1.0000 I 0.0020 J -0.0650
G01 X 26.3633 Y -0.5430 Z -1.0000
G01 X 26.3597 Y -0.5565 Z -1.0000
G01 X 26.3562 Y -0.5553 Z -1.0000
G02 X 26.3271 Y -0.5430 Z -1.0000 I 0.7438 J 1.8043
G01 X 26.3271 Y -0.5430 Z -1.0000
G00 Z 5.0000

(End cutting path id: path141054)


(Start cutting path id: path141054)
(Change tool to Default tool)

G00 Z 5.0000
G00 X 26.0480 Y -0.5838

G01 Z -1.0000 F 100.0000(Penetrate)
G01 X 26.0727 Y -0.5584 Z -1.0000 F 3500.0000
G01 X 26.0882 Y -0.5692 Z -1.0000
G01 X 26.0836 Y -0.5803 Z -1.0000
G02 X 26.0652 Y -0.5922 Z -1.0000 I -0.0372 J 0.0373
G01 X 26.0513 Y -0.5916 Z -1.0000
G01 X 26.0480 Y -0.5838 Z -1.0000
G01 X 26.0480 Y -0.5838 Z -1.0000
G00 Z 5.0000

(End cutting path id: path141054)


(Start cutting path id: path141054)
(Change tool to Default tool)

G00 Z 5.0000
G00 X 25.9868 Y -0.4126

G01 Z -1.0000 F 100.0000(Penetrate)
G01 X 25.9910 Y -0.4024 Z -1.0000 F 3500.0000
G01 X 26.0012 Y -0.3982 Z -1.0000
G01 X 26.0115 Y -0.4024 Z -1.0000
G01 X 26.0157 Y -0.4126 Z -1.0000
G01 X 26.0115 Y -0.4229 Z -1.0000
G01 X 26.0012 Y -0.4271 Z -1.0000
G01 X 25.9910 Y -0.4229 Z -1.0000
G01 X 25.9868 Y -0.4126 Z -1.0000
G01 X 25.9868 Y -0.4126 Z -1.0000
G00 Z 5.0000

(End cutting path id: path141054)


(Start cutting path id: path141054)
(Change tool to Default tool)

G00 Z 5.0000
G00 X 25.1068 Y -1.0608

G01 Z -1.0000 F 100.0000(Penetrate)
G01 X 25.1165 Y -1.0477 Z -1.0000 F 3500.0000
G01 X 25.1322 Y -1.0427 Z -1.0000
G01 X 25.1479 Y -1.0477 Z -1.0000
G01 X 25.1575 Y -1.0608 Z -1.0000
G01 X 25.1539 Y -1.0719 Z -1.0000
G01 X 25.1322 Y -1.0789 Z -1.0000
G01 X 25.1105 Y -1.0720 Z -1.0000
G01 X 25.1068 Y -1.0608 Z -1.0000
G01 X 25.1068 Y -1.0608 Z -1.0000
G00 Z 5.0000

(End cutting path id: path141054)


(Start cutting path id: path141054)
(Change tool to Default tool)

G00 Z 5.0000
G00 X 24.5007 Y -2.6940

G01 Z -1.0000 F 100.0000(Penetrate)
G01 X 24.4587 Y -2.6578 Z -1.0000 F 3500.0000
G01 X 24.5057 Y -2.6578 Z -1.0000
G02 X 24.5436 Y -2.6653 Z -1.0000 I 0.0000 J -0.0983
G01 X 24.5492 Y -2.6759 Z -1.0000
G01 X 24.5547 Y -2.6857 Z -1.0000
G03 X 24.5890 Y -2.6901 Z -1.0000 I 0.0272 J 0.0759
G01 X 24.6055 Y -2.6969 Z -1.0000
G01 X 24.6043 Y -2.7082 Z -1.0000
G02 X 24.5593 Y -2.7204 Z -1.0000 I -0.0369 J 0.0473
G02 X 24.5007 Y -2.6940 Z -1.0000 I 0.0155 J 0.1125
G01 X 24.5007 Y -2.6940 Z -1.0000
G00 Z 5.0000

(End cutting path id: path141054)


(Start cutting path id: path141054)
(Change tool to Default tool)

G00 Z 5.0000
G00 X 23.8286 Y -3.3673

G01 Z -1.0000 F 100.0000(Penetrate)
G02 X 23.8856 Y -3.3492 Z -1.0000 I 0.0625 J -0.0980 F 3500.0000
G01 X 23.9010 Y -3.3639 Z -1.0000
G01 X 23.8962 Y -3.3703 Z -1.0000
G02 X 23.8539 Y -3.3780 Z -1.0000 I -0.0556 J 0.1864
G02 X 23.8291 Y -3.3739 Z -1.0000 I -0.0037 J 0.0541
G01 X 23.8286 Y -3.3674 Z -1.0000
G01 X 23.8286 Y -3.3673 Z -1.0000
G00 Z 5.0000

(End cutting path id: path141054)


(Start cutting path id: path141054)
(Change tool to Default tool)

G00 Z 5.0000
G00 X 23.1969 Y -2.6725

G01 Z -1.0000 F 100.0000(Penetrate)
G02 X 23.1635 Y -2.6321 Z -1.0000 I 0.0206 J 0.0510 F 3500.0000
G02 X 23.1755 Y -2.5625 Z -1.0000 I 0.0976 J 0.0190
G03 X 23.1924 Y -2.5185 Z -1.0000 I -0.1229 J 0.0725
G01 X 23.1866 Y -2.5077 Z -1.0000
G01 X 23.1954 Y -2.4996 Z -1.0000
G01 X 23.2151 Y -2.5083 Z -1.0000
G02 X 23.2498 Y -2.5648 Z -1.0000 I -0.1767 J -0.1471
G02 X 23.2475 Y -2.6532 Z -1.0000 I -0.0974 J -0.0417
G01 X 23.1969 Y -2.6725 Z -1.0000
G01 X 23.1969 Y -2.6725 Z -1.0000
G00 Z 5.0000

(End cutting path id: path141054)


(Start cutting path id: path141054)
(Change tool to Default tool)

G00 Z 5.0000
G00 X 23.3998 Y -2.3656

G01 Z -1.0000 F 100.0000(Penetrate)
G01 X 23.4043 Y -2.3417 Z -1.0000 F 3500.0000
G02 X 23.4548 Y -2.3248 Z -1.0000 I 0.0512 J -0.0691
G01 X 23.4706 Y -2.3415 Z -1.0000
G01 X 23.4523 Y -2.3658 Z -1.0000
G02 X 23.4121 Y -2.3725 Z -1.0000 I -0.0397 J 0.1137
G01 X 23.3997 Y -2.3656 Z -1.0000
G01 X 23.3998 Y -2.3656 Z -1.0000
G00 Z 5.0000

(End cutting path id: path141054)


(Start cutting path id: path141054)
(Change tool to Default tool)

G00 Z 5.0000
G00 X 23.1003 Y -1.9143

G01 Z -1.0000 F 100.0000(Penetrate)
G02 X 23.0954 Y -1.8748 Z -1.0000 I 0.0750 J 0.0295 F 3500.0000
G01 X 23.1057 Y -1.8712 Z -1.0000
G01 X 23.1156 Y -1.8888 Z -1.0000
G02 X 23.1162 Y -1.9139 Z -1.0000 I -0.0561 J -0.0137
G01 X 23.1089 Y -1.9200 Z -1.0000
G01 X 23.1003 Y -1.9143 Z -1.0000
G01 X 23.1003 Y -1.9143 Z -1.0000
G00 Z 5.0000

(End cutting path id: path141054)


(Start cutting path id: path141054)
(Change tool to Default tool)

G00 Z 5.0000
G00 X 22.7893 Y -1.9300

G01 Z -1.0000 F 100.0000(Penetrate)
G01 X 22.8002 Y -1.9186 Z -1.0000 F 3500.0000
G02 X 22.8364 Y -1.9119 Z -1.0000 I 0.0362 J -0.0944
G02 X 22.8726 Y -1.9186 Z -1.0000 I 0.0000 J -0.1011
G01 X 22.8835 Y -1.9300 Z -1.0000
G01 X 22.8786 Y -1.9402 Z -1.0000
G02 X 22.8364 Y -1.9481 Z -1.0000 I -0.0422 J 0.1099
G02 X 22.7942 Y -1.9403 Z -1.0000 I -0.0000 J 0.1177
G01 X 22.7893 Y -1.9300 Z -1.0000
G01 X 22.7893 Y -1.9300 Z -1.0000
G00 Z 5.0000

(End cutting path id: path141054)


(Start cutting path id: path141054)
(Change tool to Default tool)

G00 Z 5.0000
G00 X 22.7966 Y -2.1340

G01 Z -1.0000 F 100.0000(Penetrate)
G02 X 22.7606 Y -2.1167 Z -1.0000 I 0.0699 J 0.1914 F 3500.0000
G01 X 22.7567 Y -2.1098 Z -1.0000
G02 X 22.7875 Y -2.0512 Z -1.0000 I 0.0711 J -0.0000
G02 X 22.8863 Y -2.0204 Z -1.0000 I 0.0988 J -0.1434
G01 X 22.9220 Y -2.0570 Z -1.0000
G02 X 22.8839 Y -2.1282 Z -1.0000 I -0.0895 J 0.0020
G02 X 22.8471 Y -2.1412 Z -1.0000 I -0.0415 J 0.0593
G02 X 22.7966 Y -2.1339 Z -1.0000 I -0.0080 J 0.1234
G01 X 22.7966 Y -2.1340 Z -1.0000
G00 Z 5.0000

(End cutting path id: path141054)


(Start cutting path id: path141054)
(Change tool to Default tool)

G00 Z 5.0000
G00 X 18.6504 Y 5.3521

G01 Z -1.0000 F 100.0000(Penetrate)
G01 X 18.6498 Y 5.3620 Z -1.0000 F 3500.0000
G01 X 18.6568 Y 5.3666 Z -1.0000
G01 X 18.6678 Y 5.3623 Z -1.0000
G01 X 18.6721 Y 5.3521 Z -1.0000
G01 X 18.6696 Y 5.3402 Z -1.0000
G01 X 18.6657 Y 5.3376 Z -1.0000
G01 X 18.6605 Y 5.3397 Z -1.0000
G02 X 18.6504 Y 5.3521 Z -1.0000 I 0.0417 J 0.0444
G01 X 18.6504 Y 5.3521 Z -1.0000
G00 Z 5.0000

(End cutting path id: path141054)


(Start cutting path id: path141054)
(Change tool to Default tool)

G00 Z 5.0000
G00 X 19.2262 Y 5.9562

G01 Z -1.0000 F 100.0000(Penetrate)
G03 X 19.1936 Y 5.9593 Z -1.0000 I -0.0326 J -0.1668 F 3500.0000
G03 X 19.1610 Y 5.9562 Z -1.0000 I 0.0000 J -0.1702
G01 X 19.1936 Y 5.9499 Z -1.0000
G01 X 19.2262 Y 5.9562 Z -1.0000
G01 X 19.2262 Y 5.9562 Z -1.0000
G00 Z 5.0000

(End cutting path id: path141054)


(Start cutting path id: path141054)
(Change tool to Default tool)

G00 Z 5.0000
G00 X 20.4103 Y 6.5471

G01 Z -1.0000 F 100.0000(Penetrate)
G01 X 20.4014 Y 6.5599 Z -1.0000 F 3500.0000
G03 X 20.3523 Y 6.5688 Z -1.0000 I -0.0490 J -0.1307
G03 X 20.3033 Y 6.5600 Z -1.0000 I 0.0000 J -0.1398
G01 X 20.2944 Y 6.5471 Z -1.0000
G01 X 20.3033 Y 6.5343 Z -1.0000
G03 X 20.3523 Y 6.5254 Z -1.0000 I 0.0490 J 0.1307
G03 X 20.4013 Y 6.5342 Z -1.0000 I -0.0000 J 0.1398
G01 X 20.4103 Y 6.5471 Z -1.0000
G01 X 20.4103 Y 6.5471 Z -1.0000
G00 Z 5.0000

(End cutting path id: path141054)


(Start cutting path id: path141054)
(Change tool to Default tool)

G00 Z 5.0000
G00 X 21.0041 Y 6.5833

G01 Z -1.0000 F 100.0000(Penetrate)
G02 X 21.0105 Y 6.6349 Z -1.0000 I 0.2130 J -0.0000 F 3500.0000
G01 X 21.0186 Y 6.6413 Z -1.0000
G01 X 21.0268 Y 6.6349 Z -1.0000
G02 X 21.0331 Y 6.5833 Z -1.0000 I -0.2071 J -0.0516
G02 X 21.0268 Y 6.5317 Z -1.0000 I -0.2131 J 0.0000
G01 X 21.0186 Y 6.5254 Z -1.0000
G01 X 21.0105 Y 6.5317 Z -1.0000
G02 X 21.0041 Y 6.5833 Z -1.0000 I 0.2068 J 0.0516
G01 X 21.0041 Y 6.5833 Z -1.0000
G00 Z 5.0000

(End cutting path id: path141054)


(Start cutting path id: path141054)
(Change tool to Default tool)

G00 Z 5.0000
G00 X 21.5690 Y 6.9671

G01 Z -1.0000 F 100.0000(Penetrate)
G01 X 21.5764 Y 6.9815 Z -1.0000 F 3500.0000
G01 X 21.5998 Y 6.9889 Z -1.0000
G01 X 21.6136 Y 6.9809 Z -1.0000
G01 X 21.6125 Y 6.9671 Z -1.0000
G02 X 21.5928 Y 6.9489 Z -1.0000 I -0.0784 J 0.0650
G01 X 21.5817 Y 6.9454 Z -1.0000
G01 X 21.5736 Y 6.9501 Z -1.0000
G01 X 21.5690 Y 6.9671 Z -1.0000
G01 X 21.5690 Y 6.9671 Z -1.0000
G00 Z 5.0000

(End cutting path id: path141054)


(Start cutting path id: path141054)
(Change tool to Default tool)

G00 Z 5.0000
G00 X 22.7278 Y 7.4379

G01 Z -1.0000 F 100.0000(Penetrate)
G01 X 22.7320 Y 7.4481 Z -1.0000 F 3500.0000
G01 X 22.7423 Y 7.4524 Z -1.0000
G01 X 22.7525 Y 7.4481 Z -1.0000
G01 X 22.7567 Y 7.4379 Z -1.0000
G01 X 22.7525 Y 7.4276 Z -1.0000
G01 X 22.7423 Y 7.4234 Z -1.0000
G01 X 22.7320 Y 7.4277 Z -1.0000
G01 X 22.7278 Y 7.4379 Z -1.0000
G01 X 22.7278 Y 7.4379 Z -1.0000
G00 Z 5.0000

(End cutting path id: path141054)


(Start cutting path id: path141054)
(Change tool to Default tool)

G00 Z 5.0000
G00 X 22.7278 Y 7.5397

G01 Z -1.0000 F 100.0000(Penetrate)
G01 X 22.7361 Y 7.5599 Z -1.0000 F 3500.0000
G01 X 22.7563 Y 7.5682 Z -1.0000
G01 X 22.7726 Y 7.5490 Z -1.0000
G01 X 22.7484 Y 7.5191 Z -1.0000
G01 X 22.7351 Y 7.5219 Z -1.0000
G01 X 22.7278 Y 7.5397 Z -1.0000
G01 X 22.7278 Y 7.5397 Z -1.0000
G00 Z 5.0000

(End cutting path id: path141054)


(Start cutting path id: path141054)
(Change tool to Default tool)

G00 Z 5.0000
G00 X 22.8476 Y 8.3214

G01 Z -1.0000 F 100.0000(Penetrate)
G01 X 22.8539 Y 8.3540 Z -1.0000 F 3500.0000
G02 X 22.8570 Y 8.3214 Z -1.0000 I -0.1670 J -0.0326
G02 X 22.8539 Y 8.2889 Z -1.0000 I -0.1700 J 0.0000
G01 X 22.8476 Y 8.3214 Z -1.0000
G01 X 22.8476 Y 8.3214 Z -1.0000
G00 Z 5.0000

(End cutting path id: path141054)


(Start cutting path id: path141054)
(Change tool to Default tool)

G00 Z 5.0000
G00 X 22.9632 Y 8.5459

G01 Z -1.0000 F 100.0000(Penetrate)
G01 X 22.9698 Y 8.5711 Z -1.0000 F 3500.0000
G02 X 22.9728 Y 8.5385 Z -1.0000 I -0.1621 J -0.0315
G02 X 22.9695 Y 8.5132 Z -1.0000 I -0.1036 J 0.0007
G01 X 22.9632 Y 8.5459 Z -1.0000
G01 X 22.9632 Y 8.5459 Z -1.0000
G00 Z 5.0000

(End cutting path id: path141054)


(Start cutting path id: path141054)
(Change tool to Default tool)

G00 Z 5.0000
G00 X 22.6119 Y 8.8664

G01 Z -1.0000 F 100.0000(Penetrate)
G01 X 22.6050 Y 8.8752 Z -1.0000 F 3500.0000
G01 X 22.5902 Y 8.8719 Z -1.0000
G03 X 22.5702 Y 8.8530 Z -1.0000 I 0.1316 J -0.1588
G01 X 22.5684 Y 8.8484 Z -1.0000
G01 X 22.5708 Y 8.8453 Z -1.0000
G03 X 22.5902 Y 8.8429 Z -1.0000 I 0.0193 J 0.0760
G01 X 22.6053 Y 8.8495 Z -1.0000
G01 X 22.6119 Y 8.8664 Z -1.0000
G01 X 22.6119 Y 8.8664 Z -1.0000
G00 Z 5.0000

(End cutting path id: path141054)


(Start cutting path id: path141054)
(Change tool to Default tool)

G00 Z 5.0000
G00 X 23.8865 Y 9.8278

G01 Z -1.0000 F 100.0000(Penetrate)
G03 X 23.8802 Y 9.8794 Z -1.0000 I -0.2131 J 0.0000 F 3500.0000
G01 X 23.8720 Y 9.8858 Z -1.0000
G01 X 23.8639 Y 9.8794 Z -1.0000
G03 X 23.8575 Y 9.8278 Z -1.0000 I 0.2068 J -0.0516
G03 X 23.8639 Y 9.7762 Z -1.0000 I 0.2130 J 0.0000
G01 X 23.8720 Y 9.7699 Z -1.0000
G01 X 23.8802 Y 9.7763 Z -1.0000
G03 X 23.8865 Y 9.8278 Z -1.0000 I -0.2071 J 0.0516
G01 X 23.8865 Y 9.8278 Z -1.0000
G00 Z 5.0000

(End cutting path id: path141054)


(Start cutting path id: path141054)
(Change tool to Default tool)

G00 Z 5.0000
G00 X 24.4659 Y 10.5231

G01 Z -1.0000 F 100.0000(Penetrate)
G03 X 24.4570 Y 10.5721 Z -1.0000 I -0.1398 J -0.0000 F 3500.0000
G01 X 24.4442 Y 10.5810 Z -1.0000
G01 X 24.4313 Y 10.5721 Z -1.0000
G03 X 24.4224 Y 10.5231 Z -1.0000 I 0.1307 J -0.0490
G03 X 24.4313 Y 10.4740 Z -1.0000 I 0.1398 J 0.0000
G01 X 24.4442 Y 10.4651 Z -1.0000
G01 X 24.4570 Y 10.4740 Z -1.0000
G03 X 24.4659 Y 10.5231 Z -1.0000 I -0.1307 J 0.0490
G01 X 24.4659 Y 10.5231 Z -1.0000
G00 Z 5.0000

(End cutting path id: path141054)


(Start cutting path id: path141054)
(Change tool to Default tool)

G00 Z 5.0000
G00 X 24.7121 Y 10.5231

G01 Z -1.0000 F 100.0000(Penetrate)
G02 X 24.7232 Y 10.5699 Z -1.0000 I 0.1049 J 0.0000 F 3500.0000
G01 X 24.7411 Y 10.5810 Z -1.0000
G01 X 24.7590 Y 10.5699 Z -1.0000
G02 X 24.7701 Y 10.5231 Z -1.0000 I -0.0938 J -0.0469
G02 X 24.7590 Y 10.4762 Z -1.0000 I -0.1049 J -0.0000
G01 X 24.7411 Y 10.4651 Z -1.0000
G01 X 24.7232 Y 10.4762 Z -1.0000
G02 X 24.7121 Y 10.5231 Z -1.0000 I 0.0938 J 0.0469
G01 X 24.7121 Y 10.5231 Z -1.0000
G00 Z 5.0000

(End cutting path id: path141054)


(Start cutting path id: path141054)
(Change tool to Default tool)

G00 Z 5.0000
G00 X 25.2770 Y 12.0294

G01 Z -1.0000 F 100.0000(Penetrate)
G03 X 25.2707 Y 12.0810 Z -1.0000 I -0.2130 J -0.0000 F 3500.0000
G01 X 25.2625 Y 12.0874 Z -1.0000
G01 X 25.2544 Y 12.0810 Z -1.0000
G03 X 25.2481 Y 12.0294 Z -1.0000 I 0.2071 J -0.0516
G03 X 25.2544 Y 11.9779 Z -1.0000 I 0.2131 J 0.0000
G01 X 25.2625 Y 11.9715 Z -1.0000
G01 X 25.2707 Y 11.9779 Z -1.0000
G03 X 25.2770 Y 12.0294 Z -1.0000 I -0.2068 J 0.0516
G01 X 25.2770 Y 12.0294 Z -1.0000
G00 Z 5.0000

(End cutting path id: path141054)


(Start cutting path id: path141054)
(Change tool to Default tool)

G00 Z 5.0000
G00 X 25.5088 Y 13.5358

G01 Z -1.0000 F 100.0000(Penetrate)
G03 X 25.4977 Y 13.5827 Z -1.0000 I -0.1049 J -0.0000 F 3500.0000
G01 X 25.4798 Y 13.5938 Z -1.0000
G01 X 25.4619 Y 13.5827 Z -1.0000
G03 X 25.4508 Y 13.5358 Z -1.0000 I 0.0938 J -0.0469
G03 X 25.4619 Y 13.4890 Z -1.0000 I 0.1049 J -0.0000
G01 X 25.4798 Y 13.4779 Z -1.0000
G01 X 25.4977 Y 13.4890 Z -1.0000
G03 X 25.5088 Y 13.5358 Z -1.0000 I -0.0938 J 0.0469
G01 X 25.5088 Y 13.5358 Z -1.0000
G00 Z 5.0000

(End cutting path id: path141054)


(Start cutting path id: path141054)
(Change tool to Default tool)

G00 Z 5.0000
G00 X 25.7405 Y 13.5069

G01 Z -1.0000 F 100.0000(Penetrate)
G01 X 25.7295 Y 13.5248 Z -1.0000 F 3500.0000
G03 X 25.6826 Y 13.5358 Z -1.0000 I -0.0469 J -0.0938
G03 X 25.6357 Y 13.5248 Z -1.0000 I 0.0000 J -0.1049
G01 X 25.6246 Y 13.5069 Z -1.0000
G01 X 25.6357 Y 13.4889 Z -1.0000
G03 X 25.6826 Y 13.4779 Z -1.0000 I 0.0469 J 0.0938
G03 X 25.7294 Y 13.4889 Z -1.0000 I -0.0000 J 0.1049
G01 X 25.7405 Y 13.5069 Z -1.0000
G01 X 25.7405 Y 13.5069 Z -1.0000
G00 Z 5.0000

(End cutting path id: path141054)


(Start cutting path id: path141054)
(Change tool to Default tool)

G00 Z 5.0000
G00 X 21.8225 Y 14.5484

G01 Z -1.0000 F 100.0000(Penetrate)
G02 X 22.0398 Y 14.5626 Z -1.0000 I 2.4158 J -35.2051 F 3500.0000
G02 X 22.3150 Y 14.5791 Z -1.0000 I 3.2264 J -51.6853
G03 X 22.5900 Y 14.5967 Z -1.0000 I -1.1006 J 19.3701
G03 X 22.8306 Y 14.6157 Z -1.0000 I -1.0850 J 15.2634
G02 X 23.0711 Y 14.6363 Z -1.0000 I 9.6633 J -111.2277
G02 X 23.2472 Y 14.6510 Z -1.0000 I 4.9143 J -58.0195
G03 X 23.4232 Y 14.6671 Z -1.0000 I -0.7019 J 8.6070
G03 X 23.5934 Y 14.6863 Z -1.0000 I -0.8387 J 8.2085
G02 X 23.7635 Y 14.7064 Z -1.0000 I 2.0735 J -16.8306
G02 X 23.8612 Y 14.7166 Z -1.0000 I 0.6281 J -5.5608
G03 X 23.9521 Y 14.7321 Z -1.0000 I -0.0588 J 0.6195
G01 X 23.9589 Y 14.7408 Z -1.0000
G01 X 23.9651 Y 14.7478 Z -1.0000
G02 X 23.9964 Y 14.7463 Z -1.0000 I 0.0117 J -0.0796
G03 X 24.0233 Y 14.7446 Z -1.0000 I 0.0181 J 0.0720
G01 X 24.0258 Y 14.7498 Z -1.0000
G03 X 23.9775 Y 14.7857 Z -1.0000 I -0.0695 J -0.0430
G03 X 23.7215 Y 14.8315 Z -1.0000 I -0.3953 J -1.4722
G02 X 23.6229 Y 14.8450 Z -1.0000 I 0.0994 J 1.0918
G02 X 23.5957 Y 14.8545 Z -1.0000 I 0.0169 J 0.0920
G03 X 23.5685 Y 14.8634 Z -1.0000 I -0.0385 J -0.0722
G03 X 23.4964 Y 14.8684 Z -1.0000 I -0.0721 J -0.5151
G02 X 23.4289 Y 14.8743 Z -1.0000 I 0.0000 J 0.3895
G01 X 23.4230 Y 14.8813 Z -1.0000
G01 X 23.4086 Y 14.8983 Z -1.0000
G03 X 23.0040 Y 14.9482 Z -1.0000 I -0.9052 J -5.6738
G02 X 22.9113 Y 14.9589 Z -1.0000 I 0.1507 J 1.7152
G02 X 22.8519 Y 14.9699 Z -1.0000 I 0.1003 J 0.7020
G03 X 22.7925 Y 14.9795 Z -1.0000 I -0.1011 J -0.4372
G03 X 22.7024 Y 14.9839 Z -1.0000 I -0.0939 J -1.0058
G02 X 22.6185 Y 14.9909 Z -1.0000 I 0.0021 J 0.5295
G01 X 22.6119 Y 14.9987 Z -1.0000
G01 X 22.6055 Y 15.0069 Z -1.0000
G03 X 22.5540 Y 15.0132 Z -1.0000 I -0.0516 J -0.2071
G02 X 22.5016 Y 15.0188 Z -1.0000 I 0.0000 J 0.2489
G01 X 22.4960 Y 15.0257 Z -1.0000
G01 X 22.4902 Y 15.0329 Z -1.0000
G03 X 22.4048 Y 15.0455 Z -1.0000 I -0.1370 J -0.6312
G02 X 22.3155 Y 15.0591 Z -1.0000 I 0.0503 J 0.6305
G02 X 22.2680 Y 15.0765 Z -1.0000 I 0.0440 J 0.1942
G03 X 22.2205 Y 15.0929 Z -1.0000 I -0.0797 J -0.1541
G03 X 22.1429 Y 15.1001 Z -1.0000 I -0.0776 J -0.4106
G02 X 22.0669 Y 15.1082 Z -1.0000 I -0.0000 J 0.3617
G02 X 22.0418 Y 15.1218 Z -1.0000 I 0.0106 J 0.0493
G03 X 22.0172 Y 15.1365 Z -1.0000 I -0.0412 J -0.0412
G03 X 21.9684 Y 15.1436 Z -1.0000 I -0.0488 J -0.1650
G02 X 21.9216 Y 15.1485 Z -1.0000 I 0.0000 J 0.2232
G01 X 21.9166 Y 15.1546 Z -1.0000
G01 X 21.8981 Y 15.1769 Z -1.0000
G03 X 21.6088 Y 15.2116 Z -1.0000 I -0.4177 J -2.2569
G02 X 21.4623 Y 15.2290 Z -1.0000 I 0.0660 J 1.1855
G01 X 21.4531 Y 15.2399 Z -1.0000
G01 X 21.4442 Y 15.2505 Z -1.0000
G03 X 21.3373 Y 15.2595 Z -1.0000 I -0.1069 J -0.6333
G02 X 21.2282 Y 15.2662 Z -1.0000 I 0.0000 J 0.8826
G01 X 21.2214 Y 15.2739 Z -1.0000
G01 X 21.2152 Y 15.2822 Z -1.0000
G03 X 21.1715 Y 15.2884 Z -1.0000 I -0.0436 J -0.1506
G02 X 21.1249 Y 15.2941 Z -1.0000 I 0.0000 J 0.1955
G01 X 21.1128 Y 15.3029 Z -1.0000
G01 X 21.1002 Y 15.3110 Z -1.0000
G03 X 20.9852 Y 15.3196 Z -1.0000 I -0.1342 J -1.0317
G02 X 20.9315 Y 15.3262 Z -1.0000 I 0.0049 J 0.2608
G01 X 20.9317 Y 15.3319 Z -1.0000
G01 X 20.9322 Y 15.3380 Z -1.0000
G03 X 20.8883 Y 15.3454 Z -1.0000 I -0.0491 J -0.1572
G02 X 20.7799 Y 15.3516 Z -1.0000 I 0.0703 J 2.2102
G02 X 20.7072 Y 15.3602 Z -1.0000 I 0.0799 J 0.9856
G01 X 20.6348 Y 15.3714 Z -1.0000
G01 X 20.6963 Y 15.3733 Z -1.0000
G03 X 20.7516 Y 15.3815 Z -1.0000 I -0.0080 J 0.2447
G01 X 20.7579 Y 15.3898 Z -1.0000
G01 X 20.7510 Y 15.3974 Z -1.0000
G03 X 20.6152 Y 15.4042 Z -1.0000 I -0.1358 J -1.3425
G02 X 20.3092 Y 15.4190 Z -1.0000 I 0.0000 J 3.1782
G01 X 20.2944 Y 15.4353 Z -1.0000
G01 X 20.3002 Y 15.4418 Z -1.0000
G02 X 20.4103 Y 15.4477 Z -1.0000 I 0.1100 J -1.0222
G03 X 20.5163 Y 15.4575 Z -1.0000 I 0.0000 J 0.5758
G01 X 20.5261 Y 15.4694 Z -1.0000
G01 X 20.5173 Y 15.4823 Z -1.0000
G03 X 20.4682 Y 15.4912 Z -1.0000 I -0.0490 J -0.1307
G02 X 20.4166 Y 15.4975 Z -1.0000 I -0.0000 J 0.2131
G01 X 20.4103 Y 15.5056 Z -1.0000
G01 X 20.4035 Y 15.5133 Z -1.0000
G03 X 20.2944 Y 15.5201 Z -1.0000 I -0.1091 J -0.8678
G02 X 20.1884 Y 15.5300 Z -1.0000 I 0.0000 J 0.5758
G01 X 20.1785 Y 15.5419 Z -1.0000
G01 X 20.1707 Y 15.5557 Z -1.0000
G03 X 20.1423 Y 15.5636 Z -1.0000 I -0.0284 J -0.0472
G01 X 20.1190 Y 15.5765 Z -1.0000
G02 X 20.1061 Y 15.6215 Z -1.0000 I 0.0721 J 0.0450
G03 X 20.0972 Y 15.6706 Z -1.0000 I -0.1398 J -0.0000
G01 X 20.0844 Y 15.6795 Z -1.0000
G01 X 20.0703 Y 15.6718 Z -1.0000
G01 X 20.0626 Y 15.6453 Z -1.0000
G01 X 20.0490 Y 15.6235 Z -1.0000
G02 X 19.9736 Y 15.6019 Z -1.0000 I -0.0988 J 0.2025
G02 X 19.8845 Y 15.5948 Z -1.0000 I -0.1847 J 1.7735
G02 X 19.7998 Y 15.5926 Z -1.0000 I -0.0847 J 1.5776
G01 X 19.7150 Y 15.5926 Z -1.0000
G01 X 19.7150 Y 15.6505 Z -1.0000
G01 X 19.7150 Y 15.7084 Z -1.0000
G01 X 19.5991 Y 15.7084 Z -1.0000
G02 X 19.4931 Y 15.7183 Z -1.0000 I 0.0000 J 0.5759
G01 X 19.4833 Y 15.7302 Z -1.0000
G01 X 19.4744 Y 15.7430 Z -1.0000
G03 X 19.4253 Y 15.7519 Z -1.0000 I -0.0490 J -0.1307
G02 X 19.3803 Y 15.7648 Z -1.0000 I -0.0000 J 0.0850
G01 X 19.3674 Y 15.7881 Z -1.0000
G01 X 19.3545 Y 15.8114 Z -1.0000
G03 X 19.3094 Y 15.8243 Z -1.0000 I -0.0450 J -0.0721
G01 X 19.2515 Y 15.8243 Z -1.0000
G01 X 19.2515 Y 15.7519 Z -1.0000
G01 X 19.2515 Y 15.6795 Z -1.0000
G01 X 19.4253 Y 15.6795 Z -1.0000
G02 X 19.5889 Y 15.6693 Z -1.0000 I 0.0000 J -1.3203
G01 X 19.5991 Y 15.6578 Z -1.0000
G01 X 19.5902 Y 15.6449 Z -1.0000
G02 X 19.5412 Y 15.6360 Z -1.0000 I -0.0490 J 0.1307
G03 X 19.4943 Y 15.6250 Z -1.0000 I 0.0000 J -0.1049
G01 X 19.4832 Y 15.6071 Z -1.0000
G01 X 19.4765 Y 15.5848 Z -1.0000
G01 X 19.4638 Y 15.5781 Z -1.0000
G01 X 19.4465 Y 15.5831 Z -1.0000
G02 X 19.4181 Y 15.6071 Z -1.0000 I 0.0740 J 0.1167
G03 X 19.3876 Y 15.6263 Z -1.0000 I -0.0499 J -0.0451
G03 X 19.3217 Y 15.6360 Z -1.0000 I -0.0659 J -0.2192
G02 X 19.2607 Y 15.6452 Z -1.0000 I 0.0000 J 0.2061
G01 X 19.2515 Y 15.6578 Z -1.0000
G01 X 19.2426 Y 15.6706 Z -1.0000
G03 X 19.1936 Y 15.6795 Z -1.0000 I -0.0490 J -0.1307
G03 X 19.1420 Y 15.6731 Z -1.0000 I -0.0000 J -0.2131
G01 X 19.1356 Y 15.6650 Z -1.0000
G01 X 19.1292 Y 15.6568 Z -1.0000
G02 X 19.0777 Y 15.6505 Z -1.0000 I -0.0516 J 0.2068
G02 X 19.0261 Y 15.6569 Z -1.0000 I 0.0000 J 0.2130
G01 X 19.0197 Y 15.6650 Z -1.0000
G01 X 19.0261 Y 15.6732 Z -1.0000
G02 X 19.0777 Y 15.6795 Z -1.0000 I 0.0516 J -0.2071
G03 X 19.1227 Y 15.6924 Z -1.0000 I 0.0000 J 0.0850
G01 X 19.1356 Y 15.7157 Z -1.0000
G01 X 19.1203 Y 15.7366 Z -1.0000
G03 X 19.0197 Y 15.7519 Z -1.0000 I -0.1005 J -0.3217
G02 X 18.9137 Y 15.7617 Z -1.0000 I 0.0000 J 0.5758
G01 X 18.9039 Y 15.7736 Z -1.0000
G01 X 18.9137 Y 15.7855 Z -1.0000
G02 X 19.0197 Y 15.7954 Z -1.0000 I 0.1060 J -0.5652
G03 X 19.1288 Y 15.8021 Z -1.0000 I 0.0000 J 0.8826
G01 X 19.1356 Y 15.8098 Z -1.0000
G01 X 19.1286 Y 15.8174 Z -1.0000
G03 X 18.9618 Y 15.8243 Z -1.0000 I -0.1668 J -2.0133
G01 X 18.7880 Y 15.8243 Z -1.0000
G01 X 18.7880 Y 15.9040 Z -1.0000
G01 X 18.7880 Y 15.9836 Z -1.0000
G01 X 18.7301 Y 15.9836 Z -1.0000
G02 X 18.6850 Y 15.9965 Z -1.0000 I -0.0000 J 0.0850
G01 X 18.6721 Y 16.0199 Z -1.0000
G01 X 18.6568 Y 16.0407 Z -1.0000
G03 X 18.5562 Y 16.0561 Z -1.0000 I -0.1005 J -0.3217
G03 X 18.4472 Y 16.0493 Z -1.0000 I 0.0000 J -0.8824
G01 X 18.4404 Y 16.0416 Z -1.0000
G01 X 18.4467 Y 16.0334 Z -1.0000
G03 X 18.4983 Y 16.0271 Z -1.0000 I 0.0516 J 0.2071
G02 X 18.5499 Y 16.0208 Z -1.0000 I 0.0000 J -0.2131
G01 X 18.5562 Y 16.0126 Z -1.0000
G01 X 18.5508 Y 16.0035 Z -1.0000
G01 X 18.5294 Y 15.9981 Z -1.0000
G03 X 18.5026 Y 15.9970 Z -1.0000 I 0.0000 J -0.3338
G03 X 18.4135 Y 15.9888 Z -1.0000 I 0.3059 J -3.8001
G02 X 18.3349 Y 15.9911 Z -1.0000 I -0.0309 J 0.2960
G01 X 18.3245 Y 16.0033 Z -1.0000
G01 X 18.3149 Y 16.0175 Z -1.0000
G03 X 18.2666 Y 16.0271 Z -1.0000 I -0.0484 J -0.1179
G02 X 18.2215 Y 16.0400 Z -1.0000 I -0.0000 J 0.0850
G01 X 18.2086 Y 16.0633 Z -1.0000
G01 X 18.2086 Y 16.0995 Z -1.0000
G01 X 18.0348 Y 16.0995 Z -1.0000
G01 X 17.8610 Y 16.0995 Z -1.0000
G01 X 17.8610 Y 16.1357 Z -1.0000
G01 X 17.8481 Y 16.1590 Z -1.0000
G03 X 17.8031 Y 16.1719 Z -1.0000 I -0.0450 J -0.0721
G03 X 17.7515 Y 16.1656 Z -1.0000 I 0.0000 J -0.2131
G01 X 17.7451 Y 16.1575 Z -1.0000
G01 X 17.7390 Y 16.1490 Z -1.0000
G02 X 17.7017 Y 16.1430 Z -1.0000 I -0.0374 J 0.1124
G01 X 17.6727 Y 16.1574 Z -1.0000
G02 X 17.6582 Y 16.2009 Z -1.0000 I 0.0579 J 0.0435
G03 X 17.6519 Y 16.2525 Z -1.0000 I -0.2130 J -0.0000
G01 X 17.6437 Y 16.2588 Z -1.0000
G01 X 17.6343 Y 16.2538 Z -1.0000
G01 X 17.6292 Y 16.2371 Z -1.0000
G01 X 17.6203 Y 16.2243 Z -1.0000
G02 X 17.5713 Y 16.2154 Z -1.0000 I -0.0490 J 0.1307
G03 X 17.5223 Y 16.2065 Z -1.0000 I -0.0000 J -0.1398
G01 X 17.5134 Y 16.1937 Z -1.0000
G01 X 17.5009 Y 16.1801 Z -1.0000
G02 X 17.3706 Y 16.1812 Z -1.0000 I -0.0592 J 0.6807
G02 X 17.2902 Y 16.1983 Z -1.0000 I 0.0413 J 0.3918
G01 X 17.2816 Y 16.2102 Z -1.0000
G01 X 17.2898 Y 16.2217 Z -1.0000
G02 X 17.3396 Y 16.2299 Z -1.0000 I 0.0497 J -0.1466
G03 X 17.3915 Y 16.2359 Z -1.0000 I -0.0000 J 0.2283
G01 X 17.3975 Y 16.2434 Z -1.0000
G01 X 17.4030 Y 16.2519 Z -1.0000
G02 X 17.4373 Y 16.2615 Z -1.0000 I 0.0474 J -0.1038
G01 X 17.4772 Y 16.2661 Z -1.0000
G01 X 17.4409 Y 16.3023 Z -1.0000
G01 X 17.4047 Y 16.3385 Z -1.0000
G01 X 17.4001 Y 16.2987 Z -1.0000
G01 X 17.3837 Y 16.2722 Z -1.0000
G02 X 17.3386 Y 16.2589 Z -1.0000 I -0.0451 J 0.0698
G03 X 17.2879 Y 16.2525 Z -1.0000 I -0.0000 J -0.2058
G01 X 17.2816 Y 16.2444 Z -1.0000
G01 X 17.2746 Y 16.2368 Z -1.0000
G02 X 17.1078 Y 16.2299 Z -1.0000 I -0.1668 J 2.0133
G02 X 16.9409 Y 16.2368 Z -1.0000 I 0.0000 J 2.0163
G01 X 16.9340 Y 16.2444 Z -1.0000
G01 X 16.9403 Y 16.2525 Z -1.0000
G02 X 16.9919 Y 16.2589 Z -1.0000 I 0.0516 J -0.2068
G03 X 17.0435 Y 16.2652 Z -1.0000 I 0.0000 J 0.2131
G01 X 17.0498 Y 16.2733 Z -1.0000
G01 X 17.0428 Y 16.2808 Z -1.0000
G03 X 16.7602 Y 16.2878 Z -1.0000 I -0.2826 J -5.6711
G03 X 16.4775 Y 16.2808 Z -1.0000 I 0.0000 J -5.6667
G01 X 16.4705 Y 16.2733 Z -1.0000
G01 X 16.4774 Y 16.2658 Z -1.0000
G03 X 16.6443 Y 16.2589 Z -1.0000 I 0.1668 J 2.0133
G01 X 16.8181 Y 16.2589 Z -1.0000
G01 X 16.8181 Y 16.2154 Z -1.0000
G01 X 16.8036 Y 16.1864 Z -1.0000
G02 X 16.7602 Y 16.1720 Z -1.0000 I -0.0435 J 0.0579
G02 X 16.7111 Y 16.1808 Z -1.0000 I -0.0000 J 0.1398
G01 X 16.7022 Y 16.1937 Z -1.0000
G01 X 16.6919 Y 16.2051 Z -1.0000
G03 X 16.5016 Y 16.2154 Z -1.0000 I -0.1904 J -1.7580
G02 X 16.1377 Y 16.2303 Z -1.0000 I -0.0000 J 4.4557
G01 X 16.1228 Y 16.2464 Z -1.0000
G01 X 16.1287 Y 16.2530 Z -1.0000
G02 X 16.2387 Y 16.2589 Z -1.0000 I 0.1100 J -1.0222
G03 X 16.3392 Y 16.2742 Z -1.0000 I -0.0000 J 0.3371
G01 X 16.3546 Y 16.2951 Z -1.0000
G01 X 16.3417 Y 16.3184 Z -1.0000
G03 X 16.2967 Y 16.3313 Z -1.0000 I -0.0450 J -0.0721
G03 X 16.2476 Y 16.3224 Z -1.0000 I -0.0000 J -0.1398
G01 X 16.2387 Y 16.3096 Z -1.0000
G01 X 16.2284 Y 16.2982 Z -1.0000
G02 X 16.0070 Y 16.2878 Z -1.0000 I -0.2214 J 2.3612
G03 X 15.7888 Y 16.2742 Z -1.0000 I 0.0000 J -1.7592
G01 X 15.7752 Y 16.2589 Z -1.0000
G01 X 15.7641 Y 16.2409 Z -1.0000
G02 X 15.7173 Y 16.2299 Z -1.0000 I -0.0469 J 0.0938
G01 X 15.6593 Y 16.2299 Z -1.0000
G01 X 15.6593 Y 16.3023 Z -1.0000
G01 X 15.6593 Y 16.3747 Z -1.0000
G01 X 15.6014 Y 16.3747 Z -1.0000
G03 X 15.5524 Y 16.3659 Z -1.0000 I -0.0000 J -0.1398
G01 X 15.5435 Y 16.3530 Z -1.0000
G01 X 15.5346 Y 16.3402 Z -1.0000
G02 X 15.4855 Y 16.3313 Z -1.0000 I -0.0490 J 0.1307
G02 X 15.4365 Y 16.3401 Z -1.0000 I -0.0000 J 0.1398
G01 X 15.4276 Y 16.3530 Z -1.0000
G01 X 15.4187 Y 16.3658 Z -1.0000
G03 X 15.3696 Y 16.3747 Z -1.0000 I -0.0490 J -0.1307
G02 X 15.3181 Y 16.3811 Z -1.0000 I -0.0000 J 0.2131
G01 X 15.3117 Y 16.3892 Z -1.0000
G01 X 15.3053 Y 16.3974 Z -1.0000
G03 X 15.2538 Y 16.4037 Z -1.0000 I -0.0516 J -0.2068
G03 X 15.2064 Y 16.3930 Z -1.0000 I -0.0000 J -0.1104
G01 X 15.1958 Y 16.3762 Z -1.0000
G01 X 15.1838 Y 16.3597 Z -1.0000
G02 X 15.0799 Y 16.3385 Z -1.0000 I -0.1453 J 0.4464
G02 X 14.9641 Y 16.3334 Z -1.0000 I -0.1159 J 1.3187
G02 X 14.8482 Y 16.3385 Z -1.0000 I -0.0000 J 1.3238
G01 X 14.7323 Y 16.3488 Z -1.0000
G01 X 14.7323 Y 16.3038 Z -1.0000
G01 X 14.7175 Y 16.2736 Z -1.0000
G02 X 14.6744 Y 16.2589 Z -1.0000 I -0.0432 J 0.0556
G02 X 14.6294 Y 16.2718 Z -1.0000 I 0.0000 J 0.0850
G01 X 14.6164 Y 16.2951 Z -1.0000
G01 X 14.6035 Y 16.3184 Z -1.0000
G03 X 14.5585 Y 16.3313 Z -1.0000 I -0.0450 J -0.0721
G02 X 14.5095 Y 16.3402 Z -1.0000 I -0.0000 J 0.1398
G01 X 14.5006 Y 16.3530 Z -1.0000
G01 X 14.4917 Y 16.3658 Z -1.0000
G03 X 14.4426 Y 16.3747 Z -1.0000 I -0.0490 J -0.1307
G01 X 14.3847 Y 16.3747 Z -1.0000
G01 X 14.3847 Y 16.3168 Z -1.0000
G01 X 14.3847 Y 16.2589 Z -1.0000
G01 X 14.3267 Y 16.2589 Z -1.0000
G01 X 14.2688 Y 16.2589 Z -1.0000
G01 X 14.2688 Y 16.3168 Z -1.0000
G01 X 14.2688 Y 16.3747 Z -1.0000
G01 X 14.0950 Y 16.3747 Z -1.0000
G01 X 13.9212 Y 16.3747 Z -1.0000
G01 X 13.9212 Y 16.4310 Z -1.0000
G01 X 13.9212 Y 16.4872 Z -1.0000
G01 X 13.8115 Y 16.4975 Z -1.0000
G03 X 13.7033 Y 16.5033 Z -1.0000 I -0.1261 J -1.3348
G01 X 13.6932 Y 16.4992 Z -1.0000
G01 X 13.6946 Y 16.4948 Z -1.0000
G03 X 13.7449 Y 16.4906 Z -1.0000 I 0.0504 J 0.3016
G01 X 13.8053 Y 16.4906 Z -1.0000
G01 X 13.8053 Y 16.4327 Z -1.0000
G01 X 13.8053 Y 16.3747 Z -1.0000
G01 X 13.6315 Y 16.3747 Z -1.0000
G01 X 13.4577 Y 16.3747 Z -1.0000
G01 X 13.4577 Y 16.3240 Z -1.0000
G01 X 13.4577 Y 16.2733 Z -1.0000
G01 X 13.3729 Y 16.2733 Z -1.0000
G03 X 13.2882 Y 16.2710 Z -1.0000 I -0.0000 J -1.5800
G03 X 13.1991 Y 16.2640 Z -1.0000 I 0.0955 J -1.7802
G02 X 13.1254 Y 16.2718 Z -1.0000 I -0.0185 J 0.1772
G01 X 13.1100 Y 16.2930 Z -1.0000
G01 X 13.1100 Y 16.3313 Z -1.0000
G01 X 12.9362 Y 16.3313 Z -1.0000
G01 X 12.7624 Y 16.3313 Z -1.0000
G01 X 12.7624 Y 16.2733 Z -1.0000
G01 X 12.7624 Y 16.2154 Z -1.0000
G01 X 12.8240 Y 16.2129 Z -1.0000
G01 X 12.8855 Y 16.2104 Z -1.0000
G01 X 12.8240 Y 16.2049 Z -1.0000
G03 X 12.7732 Y 16.1895 Z -1.0000 I 0.0115 J -0.1290
G01 X 12.7624 Y 16.1712 Z -1.0000
G01 X 12.7492 Y 16.1563 Z -1.0000
G02 X 12.5307 Y 16.1431 Z -1.0000 I -0.2185 J 1.7997
G01 X 12.2989 Y 16.1431 Z -1.0000
G01 X 12.2989 Y 16.0851 Z -1.0000
G01 X 12.2989 Y 16.0272 Z -1.0000
G01 X 12.3568 Y 16.0272 Z -1.0000
G02 X 12.4059 Y 16.0183 Z -1.0000 I -0.0000 J -0.1398
G01 X 12.4148 Y 16.0054 Z -1.0000
G01 X 12.4059 Y 15.9926 Z -1.0000
G02 X 12.3568 Y 15.9837 Z -1.0000 I -0.0490 J 0.1307
G03 X 12.3147 Y 15.9679 Z -1.0000 I -0.0000 J -0.0640
G01 X 12.2989 Y 15.9330 Z -1.0000
G02 X 12.2773 Y 15.8910 Z -1.0000 I -0.0517 J 0.0000
G01 X 12.2482 Y 15.8968 Z -1.0000
G01 X 12.2082 Y 15.9137 Z -1.0000
G01 X 12.1830 Y 15.8823 Z -1.0000
G01 X 12.1906 Y 15.8609 Z -1.0000
G01 X 12.2062 Y 15.8534 Z -1.0000
G01 X 12.2268 Y 15.8473 Z -1.0000
G02 X 12.2678 Y 15.8135 Z -1.0000 I -0.1261 J -0.1951
G03 X 12.3193 Y 15.7738 Z -1.0000 I 0.1603 J 0.1548
G03 X 12.4691 Y 15.7009 Z -1.0000 I 0.7144 J 1.2768
G02 X 12.5257 Y 15.6718 Z -1.0000 I -0.1560 J -0.3731
G01 X 12.5307 Y 15.6629 Z -1.0000
G01 X 12.5355 Y 15.6554 Z -1.0000
G03 X 12.5586 Y 15.6506 Z -1.0000 I 0.0231 J 0.0526
G02 X 12.5844 Y 15.6454 Z -1.0000 I -0.0000 J -0.0674
G02 X 12.6063 Y 15.6308 Z -1.0000 I -0.0259 J -0.0625
G03 X 12.6282 Y 15.6143 Z -1.0000 I 0.0703 J 0.0703
G03 X 12.6617 Y 15.5998 Z -1.0000 I 0.0864 J 0.1548
G02 X 12.6957 Y 15.5866 Z -1.0000 I -0.0790 J -0.2529
G01 X 12.7045 Y 15.5797 Z -1.0000
G03 X 12.7308 Y 15.5602 Z -1.0000 I 0.0500 J 0.0399
G03 X 12.9290 Y 15.4904 Z -1.0000 I 0.9712 J 2.4422
G02 X 12.9853 Y 15.4702 Z -1.0000 I -0.1894 J -0.6159
G01 X 12.9942 Y 15.4635 Z -1.0000
G01 X 13.0031 Y 15.4569 Z -1.0000
G03 X 13.1028 Y 15.4201 Z -1.0000 I 0.7460 J 1.8673
G02 X 13.2026 Y 15.3829 Z -1.0000 I -0.5830 J -1.7172
G02 X 13.2179 Y 15.3733 Z -1.0000 I -0.0198 J -0.0487
G01 X 13.2331 Y 15.3644 Z -1.0000
