%
(Header)
(Generated by gcodetools from Inkscape.)
(Using default header. To add your own header create file "header" in the output dir.)
M3
(Header end.)
G21 (All units in mm)

(Start cutting path id: path222635)
(Change tool to Default tool)

G00 Z 5.0000
G00 X 26.2391 Y 0.0575

G01 Z -1.0000 F 100.0000(Penetrate)
G01 X 26.2408 Y 0.0617 Z -1.0000 F 3500.0000
G01 X 26.2451 Y 0.0635 Z -1.0000
G01 X 26.2493 Y 0.0617 Z -1.0000
G01 X 26.2511 Y 0.0575 Z -1.0000
G01 X 26.2493 Y 0.0532 Z -1.0000
G01 X 26.2451 Y 0.0515 Z -1.0000
G01 X 26.2408 Y 0.0532 Z -1.0000
G01 X 26.2391 Y 0.0575 Z -1.0000
G01 X 26.2391 Y 0.0575 Z -1.0000
G00 Z 5.0000

(End cutting path id: path222635)


(Start cutting path id: path222635)
(Change tool to Default tool)

G00 Z 5.0000
G00 X 26.4064 Y 0.0590

G01 Z -1.0000 F 100.0000(Penetrate)
G02 X 26.4201 Y 0.0982 Z -1.0000 I 0.0639 J -0.0003 F 3500.0000
G01 X 26.4382 Y 0.0993 Z -1.0000
G01 X 26.4402 Y 0.0959 Z -1.0000
G02 X 26.4454 Y 0.0739 Z -1.0000 I -0.2290 J -0.0657
G01 X 26.4496 Y 0.0515 Z -1.0000
G01 X 26.4280 Y 0.0515 Z -1.0000
G02 X 26.4096 Y 0.0546 Z -1.0000 I 0.0000 J 0.0560
G01 X 26.4065 Y 0.0590 Z -1.0000
G01 X 26.4064 Y 0.0590 Z -1.0000
G00 Z 5.0000

(End cutting path id: path222635)


(Start cutting path id: path222635)
(Change tool to Default tool)

G00 Z 5.0000
G00 X 26.2403 Y 0.7757

G01 Z -1.0000 F 100.0000(Penetrate)
G01 X 26.2344 Y 0.7960 Z -1.0000 F 3500.0000
G02 X 26.2516 Y 0.8271 Z -1.0000 I 0.0607 J -0.0134
G02 X 26.2848 Y 0.8481 Z -1.0000 I 0.0665 J -0.0680
G01 X 26.2929 Y 0.8425 Z -1.0000
G02 X 26.2872 Y 0.8174 Z -1.0000 I -0.0581 J 0.0000
G02 X 26.2639 Y 0.7820 Z -1.0000 I -0.1415 J 0.0678
G01 X 26.2497 Y 0.7732 Z -1.0000
G01 X 26.2403 Y 0.7757 Z -1.0000
G01 X 26.2403 Y 0.7757 Z -1.0000
G00 Z 5.0000

(End cutting path id: path222635)


(Start cutting path id: path222635)
(Change tool to Default tool)

G00 Z 5.0000
G00 X 27.1703 Y 1.0322

G01 Z -1.0000 F 100.0000(Penetrate)
G02 X 27.1699 Y 1.0464 Z -1.0000 I 0.1939 J 0.0129 F 3500.0000
G02 X 27.1705 Y 1.0554 Z -1.0000 I 0.0784 J -0.0005
G03 X 27.1711 Y 1.0643 Z -1.0000 I -0.0812 J 0.0100
G03 X 27.1718 Y 1.1564 Z -1.0000 I -8.2991 J 0.1084
G02 X 27.1898 Y 1.2729 Z -1.0000 I 0.3891 J -0.0007
G01 X 27.2174 Y 1.3008 Z -1.0000
G03 X 27.2394 Y 1.3093 Z -1.0000 I -0.0736 J 0.2225
G03 X 27.2534 Y 1.3169 Z -1.0000 I -0.0416 J 0.0931
G01 X 27.2674 Y 1.3227 Z -1.0000
G01 X 27.2788 Y 1.3225 Z -1.0000
G01 X 27.2887 Y 1.3221 Z -1.0000
G01 X 27.2908 Y 1.3246 Z -1.0000
G01 X 27.2932 Y 1.3274 Z -1.0000
G02 X 27.3359 Y 1.3293 Z -1.0000 I 0.0395 J -0.3949
G02 X 27.3835 Y 1.3193 Z -1.0000 I -0.0015 J -0.1251
G01 X 27.4045 Y 1.3001 Z -1.0000
G02 X 27.4294 Y 1.2029 Z -1.0000 I -0.1859 J -0.0996
G02 X 27.4069 Y 1.0774 Z -1.0000 I -0.3391 J -0.0038
G01 X 27.4009 Y 1.0705 Z -1.0000
G01 X 27.3891 Y 1.0674 Z -1.0000
G01 X 27.3761 Y 1.0655 Z -1.0000
G01 X 27.3721 Y 1.0626 Z -1.0000
G01 X 27.3680 Y 1.0593 Z -1.0000
G02 X 27.3300 Y 1.0496 Z -1.0000 I -0.1277 J 0.4176
G03 X 27.2927 Y 1.0398 Z -1.0000 I 0.0799 J -0.3827
G01 X 27.2908 Y 1.0372 Z -1.0000
G01 X 27.2889 Y 1.0347 Z -1.0000
G02 X 27.2609 Y 1.0293 Z -1.0000 I -0.0560 J 0.2143
G01 X 27.2011 Y 1.0218 Z -1.0000
G02 X 27.1764 Y 1.0243 Z -1.0000 I -0.0069 J 0.0546
G01 X 27.1703 Y 1.0323 Z -1.0000
G01 X 27.1703 Y 1.0322 Z -1.0000
G00 Z 5.0000

(End cutting path id: path222635)


(Start cutting path id: path222635)
(Change tool to Default tool)

G00 Z 5.0000
G00 X 28.7636 Y 1.4379

G01 Z -1.0000 F 100.0000(Penetrate)
G01 X 28.7685 Y 1.4413 Z -1.0000 F 3500.0000
G01 X 28.7690 Y 1.4532 Z -1.0000
G01 X 28.7702 Y 1.4655 Z -1.0000
G01 X 28.7778 Y 1.4718 Z -1.0000
G01 X 28.7880 Y 1.4772 Z -1.0000
G01 X 28.7912 Y 1.4834 Z -1.0000
G02 X 28.7920 Y 1.4916 Z -1.0000 I 1.6337 J -0.1492
G02 X 28.7927 Y 1.4991 Z -1.0000 I 6.6141 J -0.6377
G01 X 28.7959 Y 1.5043 Z -1.0000
G01 X 28.8069 Y 1.5085 Z -1.0000
G01 X 28.8164 Y 1.5139 Z -1.0000
G01 X 28.8204 Y 1.5250 Z -1.0000
G01 X 28.8148 Y 1.5333 Z -1.0000
G01 X 28.7995 Y 1.5335 Z -1.0000
G01 X 28.7876 Y 1.5262 Z -1.0000
G01 X 28.7871 Y 1.5223 Z -1.0000
G01 X 28.7867 Y 1.5185 Z -1.0000
G01 X 28.7794 Y 1.5141 Z -1.0000
G01 X 28.7699 Y 1.5150 Z -1.0000
G01 X 28.7613 Y 1.5226 Z -1.0000
G01 X 28.7534 Y 1.5308 Z -1.0000
G01 X 28.7492 Y 1.5309 Z -1.0000
G01 X 28.7325 Y 1.5046 Z -1.0000
G01 X 28.7426 Y 1.4708 Z -1.0000
G01 X 28.7456 Y 1.4627 Z -1.0000
G01 X 28.7430 Y 1.4476 Z -1.0000
G03 X 28.7394 Y 1.4320 Z -1.0000 I 0.0522 J -0.0200
G01 X 28.7409 Y 1.4221 Z -1.0000
G01 X 28.7446 Y 1.4203 Z -1.0000
G01 X 28.7495 Y 1.4249 Z -1.0000
G01 X 28.7562 Y 1.4350 Z -1.0000
G01 X 28.7635 Y 1.4379 Z -1.0000
G01 X 28.7636 Y 1.4379 Z -1.0000
G00 Z 5.0000

(End cutting path id: path222635)


(Start cutting path id: path222635)
(Change tool to Default tool)

G00 Z 5.0000
G00 X 28.8143 Y 1.8797

G01 Z -1.0000 F 100.0000(Penetrate)
G03 X 28.8240 Y 1.9202 Z -1.0000 I -0.0724 J 0.0388 F 3500.0000
G01 X 28.8130 Y 1.9356 Z -1.0000
G01 X 28.8102 Y 1.9395 Z -1.0000
G01 X 28.8127 Y 1.9460 Z -1.0000
G01 X 28.8149 Y 1.9533 Z -1.0000
G01 X 28.8102 Y 1.9609 Z -1.0000
G01 X 28.8021 Y 1.9690 Z -1.0000
G01 X 28.7991 Y 1.9763 Z -1.0000
G01 X 28.7970 Y 1.9845 Z -1.0000
G03 X 28.7855 Y 2.0145 Z -1.0000 I -0.7190 J -0.2580
G01 X 28.7781 Y 2.0150 Z -1.0000
G01 X 28.7725 Y 1.9918 Z -1.0000
G02 X 28.7711 Y 1.9699 Z -1.0000 I -0.0978 J -0.0046
G01 X 28.7670 Y 1.9611 Z -1.0000
G01 X 28.7628 Y 1.9522 Z -1.0000
G03 X 28.7569 Y 1.9106 Z -1.0000 I 0.3498 J -0.0707
G01 X 28.7534 Y 1.8681 Z -1.0000
G01 X 28.7808 Y 1.8681 Z -1.0000
G03 X 28.8056 Y 1.8722 Z -1.0000 I 0.0000 J 0.0764
G01 X 28.8143 Y 1.8796 Z -1.0000
G01 X 28.8143 Y 1.8797 Z -1.0000
G00 Z 5.0000

(End cutting path id: path222635)


(Start cutting path id: path222635)
(Change tool to Default tool)

G00 Z 5.0000
G00 X 28.4858 Y 2.2738

G01 Z -1.0000 F 100.0000(Penetrate)
G02 X 28.4886 Y 2.2952 Z -1.0000 I 0.0825 J -0.0000 F 3500.0000
G01 X 28.4927 Y 2.2995 Z -1.0000
G01 X 28.4961 Y 2.3038 Z -1.0000
G01 X 28.4948 Y 2.3194 Z -1.0000
G01 X 28.4900 Y 2.3371 Z -1.0000
G01 X 28.4850 Y 2.3221 Z -1.0000
G01 X 28.4826 Y 2.3303 Z -1.0000
G02 X 28.4859 Y 2.3531 Z -1.0000 I 0.4375 J -0.0516
G01 X 28.4870 Y 2.3552 Z -1.0000
G01 X 28.4890 Y 2.3559 Z -1.0000
G02 X 28.5056 Y 2.3537 Z -1.0000 I -0.0127 J -0.1559
G01 X 28.5157 Y 2.3458 Z -1.0000
G01 X 28.5183 Y 2.3258 Z -1.0000
G02 X 28.5124 Y 2.3026 Z -1.0000 I -0.1303 J 0.0212
G01 X 28.5090 Y 2.2992 Z -1.0000
G01 X 28.5064 Y 2.2958 Z -1.0000
G01 X 28.5074 Y 2.2828 Z -1.0000
G01 X 28.5077 Y 2.2709 Z -1.0000
G01 X 28.5046 Y 2.2683 Z -1.0000
G01 X 28.5015 Y 2.2661 Z -1.0000
G01 X 28.5016 Y 2.2593 Z -1.0000
G01 X 28.5009 Y 2.2532 Z -1.0000
G01 X 28.4954 Y 2.2503 Z -1.0000
G01 X 28.4897 Y 2.2542 Z -1.0000
G02 X 28.4858 Y 2.2737 Z -1.0000 I 0.0477 J 0.0195
G01 X 28.4858 Y 2.2738 Z -1.0000
G00 Z 5.0000

(End cutting path id: path222635)


(Start cutting path id: path222635)
(Change tool to Default tool)

G00 Z 5.0000
G00 X 28.5067 Y 2.3625

G01 Z -1.0000 F 100.0000(Penetrate)
G01 X 28.5167 Y 2.3816 Z -1.0000 F 3500.0000
G01 X 28.5079 Y 2.4035 Z -1.0000
G01 X 28.5049 Y 2.4083 Z -1.0000
G01 X 28.5037 Y 2.4155 Z -1.0000
G01 X 28.5020 Y 2.4226 Z -1.0000
G03 X 28.4889 Y 2.4449 Z -1.0000 I -0.1682 J -0.0837
G02 X 28.4789 Y 2.4680 Z -1.0000 I 0.0559 J 0.0380
G02 X 28.4763 Y 2.5010 Z -1.0000 I 0.1144 J 0.0258
G02 X 28.4807 Y 2.5347 Z -1.0000 I 0.2516 J -0.0160
G02 X 28.4861 Y 2.5497 Z -1.0000 I 0.0543 J -0.0109
G03 X 28.4931 Y 2.5642 Z -1.0000 I -0.1786 J 0.0950
G01 X 28.4936 Y 2.5671 Z -1.0000
G01 X 28.4978 Y 2.5797 Z -1.0000
G01 X 28.5097 Y 2.5850 Z -1.0000
G01 X 28.5188 Y 2.5826 Z -1.0000
G01 X 28.5233 Y 2.5775 Z -1.0000
G01 X 28.5281 Y 2.5721 Z -1.0000
G03 X 28.5533 Y 2.5621 Z -1.0000 I 0.0656 J 0.1271
G01 X 28.5804 Y 2.5541 Z -1.0000
G01 X 28.5784 Y 2.4935 Z -1.0000
G02 X 28.5707 Y 2.4358 Z -1.0000 I -0.2866 J 0.0091
G01 X 28.5610 Y 2.4206 Z -1.0000
G03 X 28.5481 Y 2.4070 Z -1.0000 I 0.0437 J -0.0546
G01 X 28.5455 Y 2.3992 Z -1.0000
G02 X 28.5354 Y 2.3681 Z -1.0000 I -0.0530 J 0.0000
G01 X 28.5157 Y 2.3580 Z -1.0000
G01 X 28.5067 Y 2.3624 Z -1.0000
G01 X 28.5067 Y 2.3625 Z -1.0000
G00 Z 5.0000

(End cutting path id: path222635)


(Start cutting path id: path222635)
(Change tool to Default tool)

G00 Z 5.0000
G00 X 28.5336 Y 2.4267

G01 Z -1.0000 F 100.0000(Penetrate)
G01 X 28.5305 Y 2.4385 Z -1.0000 F 3500.0000
G01 X 28.5252 Y 2.4416 Z -1.0000
G01 X 28.5217 Y 2.4385 Z -1.0000
G01 X 28.5237 Y 2.4267 Z -1.0000
G01 X 28.5297 Y 2.4228 Z -1.0000
G01 X 28.5336 Y 2.4267 Z -1.0000
G01 X 28.5336 Y 2.4267 Z -1.0000
G00 Z 5.0000

(End cutting path id: path222635)


(Start cutting path id: path222635)
(Change tool to Default tool)

G00 Z 5.0000
G00 X 28.6683 Y 2.3994

G01 Z -1.0000 F 100.0000(Penetrate)
G01 X 28.6676 Y 2.4044 Z -1.0000 F 3500.0000
G01 X 28.6709 Y 2.4087 Z -1.0000
G01 X 28.6747 Y 2.4083 Z -1.0000
G01 X 28.6770 Y 2.4031 Z -1.0000
G01 X 28.6734 Y 2.3977 Z -1.0000
G01 X 28.6683 Y 2.3993 Z -1.0000
G01 X 28.6683 Y 2.3994 Z -1.0000
G00 Z 5.0000

(End cutting path id: path222635)


(Start cutting path id: path222635)
(Change tool to Default tool)

G00 Z 5.0000
G00 X 28.8229 Y 2.4515

G01 Z -1.0000 F 100.0000(Penetrate)
G01 X 28.8247 Y 2.4615 Z -1.0000 F 3500.0000
G03 X 28.8229 Y 2.4814 Z -1.0000 I -0.1143 J -0.0007
G02 X 28.8225 Y 2.5011 Z -1.0000 I 0.0605 J 0.0111
G02 X 28.8286 Y 2.5214 Z -1.0000 I 0.0688 J -0.0097
G03 X 28.8353 Y 2.5419 Z -1.0000 I -0.0762 J 0.0362
G03 X 28.8375 Y 2.5683 Z -1.0000 I -0.1254 J 0.0238
G02 X 28.8400 Y 2.5943 Z -1.0000 I 0.1115 J 0.0022
G01 X 28.8467 Y 2.6101 Z -1.0000
G01 X 28.8522 Y 2.6257 Z -1.0000
G03 X 28.8507 Y 2.6513 Z -1.0000 I -0.0828 J 0.0081
G03 X 28.8352 Y 2.7078 Z -1.0000 I -0.5357 J -0.1162
G01 X 28.8288 Y 2.7171 Z -1.0000
G01 X 28.8242 Y 2.7163 Z -1.0000
G01 X 28.8205 Y 2.7024 Z -1.0000
G01 X 28.8171 Y 2.6842 Z -1.0000
G01 X 28.8119 Y 2.6807 Z -1.0000
G01 X 28.8025 Y 2.6735 Z -1.0000
G03 X 28.7935 Y 2.6117 Z -1.0000 I 0.2596 J -0.0694
G02 X 28.7895 Y 2.5703 Z -1.0000 I -0.3043 J 0.0086
G01 X 28.7840 Y 2.5549 Z -1.0000
G01 X 28.7757 Y 2.5403 Z -1.0000
G01 X 28.7738 Y 2.5597 Z -1.0000
G01 X 28.7686 Y 2.5755 Z -1.0000
G01 X 28.7621 Y 2.5792 Z -1.0000
G01 X 28.7583 Y 2.5767 Z -1.0000
G01 X 28.7590 Y 2.5725 Z -1.0000
G01 X 28.7632 Y 2.5652 Z -1.0000
G01 X 28.7628 Y 2.5581 Z -1.0000
G01 X 28.7626 Y 2.5514 Z -1.0000
G01 X 28.7663 Y 2.5465 Z -1.0000
G01 X 28.7708 Y 2.5415 Z -1.0000
G01 X 28.7729 Y 2.5325 Z -1.0000
G01 X 28.7759 Y 2.5237 Z -1.0000
G03 X 28.7909 Y 2.5077 Z -1.0000 I 0.0705 J 0.0512
G01 X 28.8009 Y 2.4869 Z -1.0000
G01 X 28.7916 Y 2.4702 Z -1.0000
G03 X 28.7775 Y 2.4585 Z -1.0000 I 0.0297 J -0.0502
G01 X 28.7747 Y 2.4509 Z -1.0000
G01 X 28.7943 Y 2.4316 Z -1.0000
G01 X 28.8229 Y 2.4515 Z -1.0000
G01 X 28.8229 Y 2.4515 Z -1.0000
G00 Z 5.0000

(End cutting path id: path222635)


(Start cutting path id: path222635)
(Change tool to Default tool)

G00 Z 5.0000
G00 X 28.7264 Y 2.8341

G01 Z -1.0000 F 100.0000(Penetrate)
G01 X 28.7369 Y 2.8354 Z -1.0000 F 3500.0000
G01 X 28.7443 Y 2.8339 Z -1.0000
G01 X 28.7338 Y 2.8311 Z -1.0000
G01 X 28.7264 Y 2.8341 Z -1.0000
G01 X 28.7264 Y 2.8341 Z -1.0000
G00 Z 5.0000

(End cutting path id: path222635)


(Start cutting path id: path222635)
(Change tool to Default tool)

G00 Z 5.0000
G00 X 28.7347 Y 2.8746

G01 Z -1.0000 F 100.0000(Penetrate)
G01 X 28.7340 Y 2.8825 Z -1.0000 F 3500.0000
G01 X 28.7370 Y 2.8869 Z -1.0000
G01 X 28.7427 Y 2.8781 Z -1.0000
G01 X 28.7392 Y 2.8727 Z -1.0000
G01 X 28.7346 Y 2.8746 Z -1.0000
G01 X 28.7347 Y 2.8746 Z -1.0000
G00 Z 5.0000

(End cutting path id: path222635)


(Start cutting path id: path222635)
(Change tool to Default tool)

G00 Z 5.0000
G00 X 28.7710 Y 2.9413

G01 Z -1.0000 F 100.0000(Penetrate)
G01 X 28.7670 Y 2.9430 Z -1.0000 F 3500.0000
G01 X 28.7596 Y 2.9418 Z -1.0000
G01 X 28.7632 Y 2.9382 Z -1.0000
G01 X 28.7710 Y 2.9413 Z -1.0000
G01 X 28.7710 Y 2.9413 Z -1.0000
G00 Z 5.0000

(End cutting path id: path222635)


(Start cutting path id: path222635)
(Change tool to Default tool)

G00 Z 5.0000
G00 X 28.6997 Y 2.9708

G01 Z -1.0000 F 100.0000(Penetrate)
G01 X 28.6971 Y 2.9767 Z -1.0000 F 3500.0000
G02 X 28.6922 Y 2.9958 Z -1.0000 I 0.2315 J 0.0700
G01 X 28.6936 Y 3.0107 Z -1.0000
G01 X 28.7005 Y 3.0152 Z -1.0000
G01 X 28.7090 Y 3.0114 Z -1.0000
G01 X 28.7125 Y 3.0018 Z -1.0000
G02 X 28.7060 Y 2.9713 Z -1.0000 I -0.0870 J 0.0027
G01 X 28.6997 Y 2.9708 Z -1.0000
G01 X 28.6997 Y 2.9708 Z -1.0000
G00 Z 5.0000

(End cutting path id: path222635)


(Start cutting path id: path222635)
(Change tool to Default tool)

G00 Z 5.0000
G00 X 28.7368 Y 3.1289

G01 Z -1.0000 F 100.0000(Penetrate)
G01 X 28.7350 Y 3.1331 Z -1.0000 F 3500.0000
G01 X 28.7308 Y 3.1349 Z -1.0000
G01 X 28.7265 Y 3.1331 Z -1.0000
G01 X 28.7248 Y 3.1289 Z -1.0000
G01 X 28.7265 Y 3.1246 Z -1.0000
G01 X 28.7308 Y 3.1229 Z -1.0000
G01 X 28.7350 Y 3.1246 Z -1.0000
G01 X 28.7368 Y 3.1289 Z -1.0000
G01 X 28.7368 Y 3.1289 Z -1.0000
G00 Z 5.0000

(End cutting path id: path222635)


(Start cutting path id: path222635)
(Change tool to Default tool)

G00 Z 5.0000
G00 X 28.7103 Y 3.2109

G01 Z -1.0000 F 100.0000(Penetrate)
G03 X 28.7155 Y 3.2157 Z -1.0000 I -0.0367 J 0.0441 F 3500.0000
G03 X 28.7202 Y 3.2214 Z -1.0000 I -0.0543 J 0.0510
G01 X 28.7248 Y 3.2169 Z -1.0000
G01 X 28.7219 Y 3.2094 Z -1.0000
G01 X 28.7149 Y 3.2064 Z -1.0000
G01 X 28.7103 Y 3.2109 Z -1.0000
G01 X 28.7103 Y 3.2109 Z -1.0000
G00 Z 5.0000

(End cutting path id: path222635)


(Start cutting path id: path222635)
(Change tool to Default tool)

G00 Z 5.0000
G00 X 28.7411 Y 3.2938

G01 Z -1.0000 F 100.0000(Penetrate)
G01 X 28.7372 Y 3.2956 Z -1.0000 F 3500.0000
G01 X 28.7297 Y 3.2943 Z -1.0000
G01 X 28.7333 Y 3.2907 Z -1.0000
G01 X 28.7411 Y 3.2938 Z -1.0000
G01 X 28.7411 Y 3.2938 Z -1.0000
G00 Z 5.0000

(End cutting path id: path222635)


(Start cutting path id: path222635)
(Change tool to Default tool)

G00 Z 5.0000
G00 X 28.8204 Y 3.3231

G01 Z -1.0000 F 100.0000(Penetrate)
G01 X 28.8178 Y 3.3294 Z -1.0000 F 3500.0000
G01 X 28.8114 Y 3.3321 Z -1.0000
G01 X 28.8044 Y 3.3271 Z -1.0000
G01 X 28.8064 Y 3.3181 Z -1.0000
G01 X 28.8154 Y 3.3161 Z -1.0000
G01 X 28.8204 Y 3.3231 Z -1.0000
G01 X 28.8204 Y 3.3231 Z -1.0000
G00 Z 5.0000

(End cutting path id: path222635)


(Start cutting path id: path222635)
(Change tool to Default tool)

G00 Z 5.0000
G00 X 28.7428 Y 3.4396

G01 Z -1.0000 F 100.0000(Penetrate)
G01 X 28.7407 Y 3.4435 Z -1.0000 F 3500.0000
G01 X 28.7338 Y 3.4456 Z -1.0000
G01 X 28.7269 Y 3.4435 Z -1.0000
G01 X 28.7248 Y 3.4396 Z -1.0000
G01 X 28.7268 Y 3.4357 Z -1.0000
G01 X 28.7338 Y 3.4336 Z -1.0000
G01 X 28.7406 Y 3.4357 Z -1.0000
G01 X 28.7428 Y 3.4396 Z -1.0000
G01 X 28.7428 Y 3.4396 Z -1.0000
G00 Z 5.0000

(End cutting path id: path222635)


(Start cutting path id: path222635)
(Change tool to Default tool)

G00 Z 5.0000
G00 X 28.7786 Y 3.5292

G01 Z -1.0000 F 100.0000(Penetrate)
G01 X 28.7741 Y 3.5351 Z -1.0000 F 3500.0000
G01 X 28.7630 Y 3.5328 Z -1.0000
G01 X 28.7607 Y 3.5292 Z -1.0000
G01 X 28.7647 Y 3.5251 Z -1.0000
G01 X 28.7786 Y 3.5292 Z -1.0000
G01 X 28.7786 Y 3.5292 Z -1.0000
G00 Z 5.0000

(End cutting path id: path222635)


(Start cutting path id: path222635)
(Change tool to Default tool)

G00 Z 5.0000
G00 X 28.6995 Y 3.5689

G01 Z -1.0000 F 100.0000(Penetrate)
G01 X 28.7069 Y 3.5704 Z -1.0000 F 3500.0000
G01 X 28.7144 Y 3.5689 Z -1.0000
G01 X 28.7069 Y 3.5659 Z -1.0000
G01 X 28.6994 Y 3.5689 Z -1.0000
G01 X 28.6995 Y 3.5689 Z -1.0000
G00 Z 5.0000

(End cutting path id: path222635)


(Start cutting path id: path222635)
(Change tool to Default tool)

G00 Z 5.0000
G00 X 28.7900 Y 3.7094

G01 Z -1.0000 F 100.0000(Penetrate)
G01 X 28.7920 Y 3.7324 Z -1.0000 F 3500.0000
G01 X 28.7888 Y 3.7305 Z -1.0000
G03 X 28.7809 Y 3.7115 Z -1.0000 I 0.0967 J -0.0514
G01 X 28.7840 Y 3.7061 Z -1.0000
G01 X 28.7899 Y 3.7094 Z -1.0000
G01 X 28.7900 Y 3.7094 Z -1.0000
G00 Z 5.0000

(End cutting path id: path222635)


(Start cutting path id: path222635)
(Change tool to Default tool)

G00 Z 5.0000
G00 X 28.6401 Y 4.2502

G01 Z -1.0000 F 100.0000(Penetrate)
G01 X 28.6476 Y 4.2515 Z -1.0000 F 3500.0000
G01 X 28.6515 Y 4.2497 Z -1.0000
G01 X 28.6437 Y 4.2466 Z -1.0000
G01 X 28.6401 Y 4.2502 Z -1.0000
G01 X 28.6401 Y 4.2502 Z -1.0000
G00 Z 5.0000

(End cutting path id: path222635)


(Start cutting path id: path222635)
(Change tool to Default tool)

G00 Z 5.0000
G00 X 28.6640 Y 4.2681

G01 Z -1.0000 F 100.0000(Penetrate)
G01 X 28.6715 Y 4.2694 Z -1.0000 F 3500.0000
G01 X 28.6754 Y 4.2677 Z -1.0000
G01 X 28.6676 Y 4.2646 Z -1.0000
G01 X 28.6640 Y 4.2682 Z -1.0000
G01 X 28.6640 Y 4.2681 Z -1.0000
G00 Z 5.0000

(End cutting path id: path222635)


(Start cutting path id: path222635)
(Change tool to Default tool)

G00 Z 5.0000
G00 X 28.7368 Y 4.2967

G01 Z -1.0000 F 100.0000(Penetrate)
G01 X 28.7360 Y 4.2988 Z -1.0000 F 3500.0000
G01 X 28.7308 Y 4.3030 Z -1.0000
G01 X 28.7267 Y 4.3033 Z -1.0000
G01 X 28.7248 Y 4.3004 Z -1.0000
G01 X 28.7266 Y 4.2959 Z -1.0000
G01 X 28.7308 Y 4.2941 Z -1.0000
G01 X 28.7368 Y 4.2967 Z -1.0000
G01 X 28.7368 Y 4.2967 Z -1.0000
G00 Z 5.0000

(End cutting path id: path222635)


(Start cutting path id: path222635)
(Change tool to Default tool)

G00 Z 5.0000
G00 X 28.7308 Y 4.5836

G01 Z -1.0000 F 100.0000(Penetrate)
G01 X 28.7300 Y 4.5857 Z -1.0000 F 3500.0000
G01 X 28.7248 Y 4.5899 Z -1.0000
G01 X 28.7207 Y 4.5901 Z -1.0000
G01 X 28.7188 Y 4.5873 Z -1.0000
G01 X 28.7206 Y 4.5827 Z -1.0000
G01 X 28.7248 Y 4.5810 Z -1.0000
G01 X 28.7308 Y 4.5836 Z -1.0000
G01 X 28.7308 Y 4.5836 Z -1.0000
G00 Z 5.0000

(End cutting path id: path222635)


(Start cutting path id: path222635)
(Change tool to Default tool)

G00 Z 5.0000
G00 X 28.6502 Y 4.5987

G01 Z -1.0000 F 100.0000(Penetrate)
G01 X 28.6506 Y 4.6024 Z -1.0000 F 3500.0000
G01 X 28.6562 Y 4.6047 Z -1.0000
G01 X 28.6617 Y 4.6024 Z -1.0000
G01 X 28.6622 Y 4.5987 Z -1.0000
G01 X 28.6581 Y 4.5935 Z -1.0000
G01 X 28.6562 Y 4.5927 Z -1.0000
G01 X 28.6543 Y 4.5935 Z -1.0000
G01 X 28.6502 Y 4.5987 Z -1.0000
G01 X 28.6502 Y 4.5987 Z -1.0000
G00 Z 5.0000

(End cutting path id: path222635)


(Start cutting path id: path222635)
(Change tool to Default tool)

G00 Z 5.0000
G00 X 28.6493 Y 4.6241

G01 Z -1.0000 F 100.0000(Penetrate)
G01 X 28.6532 Y 4.6355 Z -1.0000 F 3500.0000
G01 X 28.6567 Y 4.6375 Z -1.0000
G01 X 28.6603 Y 4.6354 Z -1.0000
G01 X 28.6640 Y 4.6241 Z -1.0000
G01 X 28.6621 Y 4.6139 Z -1.0000
G01 X 28.6566 Y 4.6106 Z -1.0000
G01 X 28.6511 Y 4.6139 Z -1.0000
G01 X 28.6493 Y 4.6241 Z -1.0000
G01 X 28.6493 Y 4.6241 Z -1.0000
G00 Z 5.0000

(End cutting path id: path222635)


(Start cutting path id: path222635)
(Change tool to Default tool)

G00 Z 5.0000
G00 X 28.6950 Y 4.6704

G01 Z -1.0000 F 100.0000(Penetrate)
G01 X 28.6974 Y 4.6740 Z -1.0000 F 3500.0000
G01 X 28.7099 Y 4.6764 Z -1.0000
G01 X 28.7224 Y 4.6740 Z -1.0000
G01 X 28.7249 Y 4.6704 Z -1.0000
G01 X 28.7224 Y 4.6668 Z -1.0000
G01 X 28.7099 Y 4.6644 Z -1.0000
G01 X 28.6974 Y 4.6668 Z -1.0000
G01 X 28.6950 Y 4.6704 Z -1.0000
G01 X 28.6950 Y 4.6704 Z -1.0000
G00 Z 5.0000

(End cutting path id: path222635)


(Start cutting path id: path222635)
(Change tool to Default tool)

G00 Z 5.0000
G00 X 28.7027 Y 5.0908

G01 Z -1.0000 F 100.0000(Penetrate)
G01 X 28.7021 Y 5.0963 Z -1.0000 F 3500.0000
G01 X 28.6974 Y 5.0988 Z -1.0000
G01 X 28.6913 Y 5.0945 Z -1.0000
G01 X 28.6930 Y 5.0869 Z -1.0000
G01 X 28.6979 Y 5.0859 Z -1.0000
G01 X 28.7027 Y 5.0909 Z -1.0000
G01 X 28.7027 Y 5.0908 Z -1.0000
G00 Z 5.0000

(End cutting path id: path222635)


(Start cutting path id: path222635)
(Change tool to Default tool)

G00 Z 5.0000
G00 X 28.6531 Y 5.1599

G01 Z -1.0000 F 100.0000(Penetrate)
G01 X 28.6590 Y 5.1784 Z -1.0000 F 3500.0000
G01 X 28.6702 Y 5.1842 Z -1.0000
G01 X 28.6727 Y 5.1820 Z -1.0000
G01 X 28.6711 Y 5.1783 Z -1.0000
G01 X 28.6696 Y 5.1724 Z -1.0000
G01 X 28.6747 Y 5.1700 Z -1.0000
G01 X 28.6771 Y 5.1633 Z -1.0000
G01 X 28.6741 Y 5.1573 Z -1.0000
G01 X 28.6651 Y 5.1543 Z -1.0000
G01 X 28.6553 Y 5.1564 Z -1.0000
G01 X 28.6532 Y 5.1598 Z -1.0000
G01 X 28.6531 Y 5.1599 Z -1.0000
G00 Z 5.0000

(End cutting path id: path222635)


(Start cutting path id: path222635)
(Change tool to Default tool)

G00 Z 5.0000
G00 X 28.6465 Y 5.2664

G01 Z -1.0000 F 100.0000(Penetrate)
G02 X 28.6451 Y 5.3048 Z -1.0000 I 0.2169 J 0.0277 F 3500.0000
G01 X 28.6489 Y 5.3136 Z -1.0000
G01 X 28.6579 Y 5.3124 Z -1.0000
G02 X 28.6651 Y 5.2855 Z -1.0000 I -0.0467 J -0.0269
G02 X 28.6614 Y 5.2656 Z -1.0000 I -0.0558 J -0.0000
G01 X 28.6561 Y 5.2619 Z -1.0000
G01 X 28.6486 Y 5.2636 Z -1.0000
G01 X 28.6466 Y 5.2664 Z -1.0000
G01 X 28.6465 Y 5.2664 Z -1.0000
G00 Z 5.0000

(End cutting path id: path222635)


(Start cutting path id: path222635)
(Change tool to Default tool)

G00 Z 5.0000
G00 X 28.7189 Y 5.2442

G01 Z -1.0000 F 100.0000(Penetrate)
G01 X 28.7171 Y 5.2484 Z -1.0000 F 3500.0000
G01 X 28.7126 Y 5.2502 Z -1.0000
G01 X 28.7097 Y 5.2483 Z -1.0000
G01 X 28.7100 Y 5.2442 Z -1.0000
G01 X 28.7142 Y 5.2390 Z -1.0000
G01 X 28.7163 Y 5.2382 Z -1.0000
G01 X 28.7189 Y 5.2442 Z -1.0000
G01 X 28.7189 Y 5.2442 Z -1.0000
G00 Z 5.0000

(End cutting path id: path222635)


(Start cutting path id: path222635)
(Change tool to Default tool)

G00 Z 5.0000
G00 X 28.1153 Y 5.4764

G01 Z -1.0000 F 100.0000(Penetrate)
G02 X 28.0614 Y 5.5006 Z -1.0000 I 0.0857 J 0.2635 F 3500.0000
G02 X 28.0197 Y 5.5322 Z -1.0000 I 0.1090 J 0.1868
G02 X 27.8772 Y 5.6765 Z -1.0000 I 3.2864 J 3.3888
G02 X 27.8405 Y 5.7216 Z -1.0000 I 0.2835 J 0.2682
G01 X 27.8368 Y 5.7251 Z -1.0000
G03 X 27.8270 Y 5.7297 Z -1.0000 I -0.0300 J -0.0506
G01 X 27.8195 Y 5.7357 Z -1.0000
G01 X 27.8166 Y 5.7457 Z -1.0000
G01 X 27.8138 Y 5.7551 Z -1.0000
G01 X 27.8086 Y 5.7579 Z -1.0000
G01 X 27.8012 Y 5.7597 Z -1.0000
G02 X 27.7872 Y 5.7694 Z -1.0000 I 0.0368 J 0.0682
G01 X 27.7733 Y 5.7780 Z -1.0000
G01 X 27.7659 Y 5.7780 Z -1.0000
G01 X 27.7590 Y 5.7777 Z -1.0000
G01 X 27.7541 Y 5.7814 Z -1.0000
G01 X 27.7356 Y 5.7901 Z -1.0000
G03 X 27.6900 Y 5.7720 Z -1.0000 I 0.0155 J -0.1060
G02 X 27.6658 Y 5.7605 Z -1.0000 I -0.0476 J 0.0687
G02 X 27.6260 Y 5.7533 Z -1.0000 I -0.0534 J 0.1827
G02 X 27.5867 Y 5.7569 Z -1.0000 I -0.0087 J 0.1231
G02 X 27.5588 Y 5.7706 Z -1.0000 I 0.0189 J 0.0739
G02 X 27.5236 Y 5.8047 Z -1.0000 I 0.1391 J 0.1788
G01 X 27.5180 Y 5.8198 Z -1.0000
G01 X 27.5156 Y 5.8301 Z -1.0000
G03 X 27.4999 Y 5.8574 Z -1.0000 I -0.1996 J -0.0965
G02 X 27.4830 Y 5.8843 Z -1.0000 I 0.3754 J 0.2544
G01 X 27.4820 Y 5.8882 Z -1.0000
G01 X 27.4806 Y 5.8916 Z -1.0000
G03 X 27.4700 Y 5.8999 Z -1.0000 I -0.0434 J -0.0443
G01 X 27.4606 Y 5.9088 Z -1.0000
G01 X 27.4581 Y 5.9165 Z -1.0000
G01 X 27.4485 Y 5.9455 Z -1.0000
G01 X 27.4293 Y 5.9551 Z -1.0000
G01 X 27.4259 Y 5.9576 Z -1.0000
G01 X 27.4270 Y 5.9623 Z -1.0000
G01 X 27.4299 Y 5.9733 Z -1.0000
G01 X 27.4224 Y 5.9790 Z -1.0000
G01 X 27.4150 Y 5.9820 Z -1.0000
G01 X 27.4138 Y 5.9874 Z -1.0000
G01 X 27.4142 Y 5.9948 Z -1.0000
G01 X 27.4106 Y 5.9997 Z -1.0000
G01 X 27.4063 Y 6.0048 Z -1.0000
G01 X 27.4042 Y 6.0152 Z -1.0000
G01 X 27.4016 Y 6.0241 Z -1.0000
G01 X 27.3965 Y 6.0268 Z -1.0000
G01 X 27.3898 Y 6.0291 Z -1.0000
G02 X 27.3609 Y 6.0544 Z -1.0000 I 0.1965 J 0.2540
G03 X 27.3254 Y 6.0741 Z -1.0000 I -0.0530 J -0.0538
G01 X 27.3145 Y 6.0655 Z -1.0000
G01 X 27.3111 Y 6.0622 Z -1.0000
G01 X 27.2981 Y 6.0659 Z -1.0000
G02 X 27.2357 Y 6.1362 Z -1.0000 I 0.0807 J 0.1346
G01 X 27.2539 Y 6.1643 Z -1.0000
G02 X 27.2949 Y 6.1566 Z -1.0000 I 0.0000 J -0.1138
G01 X 27.3026 Y 6.1455 Z -1.0000
G01 X 27.3048 Y 6.1414 Z -1.0000
G03 X 27.3205 Y 6.1335 Z -1.0000 I 0.0391 J 0.0586
G02 X 27.3365 Y 6.1259 Z -1.0000 I -0.0246 J -0.0716
G01 X 27.3385 Y 6.1222 Z -1.0000
G01 X 27.3400 Y 6.1178 Z -1.0000
G03 X 27.3638 Y 6.0909 Z -1.0000 I 0.3242 J 0.2638
G02 X 27.3889 Y 6.0644 Z -1.0000 I -0.9411 J -0.9118
G02 X 27.4012 Y 6.0502 Z -1.0000 I -0.2687 J -0.2462
G03 X 27.4702 Y 5.9681 Z -1.0000 I 4.1838 J 3.4454
G03 X 27.4863 Y 5.9509 Z -1.0000 I 0.2005 J 0.1719
G02 X 27.4982 Y 5.9372 Z -1.0000 I -0.0753 J -0.0774
G01 X 27.4998 Y 5.9324 Z -1.0000
G01 X 27.5015 Y 5.9279 Z -1.0000
G03 X 27.5352 Y 5.8933 Z -1.0000 I 0.4828 J 0.4361
G03 X 27.5857 Y 5.8540 Z -1.0000 I 0.2223 J 0.2331
G01 X 27.6077 Y 5.8476 Z -1.0000
G01 X 27.6127 Y 5.8545 Z -1.0000
G03 X 27.5978 Y 5.8779 Z -1.0000 I -0.0529 J -0.0173
G01 X 27.5823 Y 5.8924 Z -1.0000
G01 X 27.6053 Y 5.8955 Z -1.0000
G02 X 27.6698 Y 5.8931 Z -1.0000 I 0.0252 J -0.1908
G02 X 27.7358 Y 5.8682 Z -1.0000 I -0.0470 J -0.2249
G02 X 27.7649 Y 5.8505 Z -1.0000 I -0.2706 J -0.4781
G01 X 27.7689 Y 5.8467 Z -1.0000
G01 X 27.7904 Y 5.8380 Z -1.0000
G03 X 27.8231 Y 5.8574 Z -1.0000 I -0.0106 J 0.0552
G01 X 27.8367 Y 5.8616 Z -1.0000
G02 X 27.9104 Y 5.8327 Z -1.0000 I -0.1095 J -0.3877
G03 X 27.9755 Y 5.8027 Z -1.0000 I 0.4048 J 0.7933
G01 X 27.9897 Y 5.8000 Z -1.0000
G03 X 28.0444 Y 5.8116 Z -1.0000 I -0.0012 J 0.1405
G01 X 28.0555 Y 5.8285 Z -1.0000
G01 X 28.0574 Y 5.8325 Z -1.0000
G02 X 28.0719 Y 5.8412 Z -1.0000 I 0.0431 J -0.0552
G03 X 28.0878 Y 5.8496 Z -1.0000 I -0.0671 J 0.1473
G03 X 28.1289 Y 5.8753 Z -1.0000 I -0.5771 J 0.9663
G02 X 28.1706 Y 5.9001 Z -1.0000 I 0.2920 J -0.4444
G02 X 28.2029 Y 5.9148 Z -1.0000 I 0.1342 J -0.2514
G02 X 28.2343 Y 5.9211 Z -1.0000 I 0.0342 J -0.0893
G01 X 28.2447 Y 5.9160 Z -1.0000
G02 X 28.2576 Y 5.8856 Z -1.0000 I -0.0583 J -0.0427
G01 X 28.2535 Y 5.8648 Z -1.0000
G01 X 28.2483 Y 5.8533 Z -1.0000
G01 X 28.2466 Y 5.8411 Z -1.0000
G01 X 28.2430 Y 5.8339 Z -1.0000
G01 X 28.2361 Y 5.8330 Z -1.0000
G03 X 28.1996 Y 5.8362 Z -1.0000 I -0.0231 J -0.0531
G03 X 28.1363 Y 5.8092 Z -1.0000 I 0.0476 J -0.1990
G02 X 28.0832 Y 5.7770 Z -1.0000 I -0.6206 J 0.9621
G02 X 28.0409 Y 5.7547 Z -1.0000 I -0.3379 J 0.5919
G03 X 28.0014 Y 5.7303 Z -1.0000 I 0.0950 J -0.1975
G01 X 27.9881 Y 5.7136 Z -1.0000
G01 X 27.9784 Y 5.6933 Z -1.0000
G01 X 28.0393 Y 5.6309 Z -1.0000
G03 X 28.1029 Y 5.5732 Z -1.0000 I 0.5064 J 0.4943
G03 X 28.1241 Y 5.5629 Z -1.0000 I 0.0335 J 0.0418
G03 X 28.1694 Y 5.5606 Z -1.0000 I 0.0287 J 0.1219
G03 X 28.2203 Y 5.5757 Z -1.0000 I -0.0227 J 0.1703
G01 X 28.2404 Y 5.5773 Z -1.0000
G01 X 28.2518 Y 5.5665 Z -1.0000
G02 X 28.2535 Y 5.5071 Z -1.0000 I -0.0929 J -0.0324
G01 X 28.2297 Y 5.4891 Z -1.0000
G01 X 28.2198 Y 5.4875 Z -1.0000
G01 X 28.2134 Y 5.4836 Z -1.0000
G02 X 28.1798 Y 5.4686 Z -1.0000 I -0.0376 J 0.0390
G02 X 28.1152 Y 5.4765 Z -1.0000 I -0.0123 J 0.1680
G01 X 28.1153 Y 5.4764 Z -1.0000
G00 Z 5.0000

(End cutting path id: path222635)


(Start cutting path id: path222635)
(Change tool to Default tool)

G00 Z 5.0000
G00 X 28.4260 Y 5.8923

G01 Z -1.0000 F 100.0000(Penetrate)
G01 X 28.4281 Y 5.8992 Z -1.0000 F 3500.0000
G01 X 28.4320 Y 5.9013 Z -1.0000
G01 X 28.4359 Y 5.8993 Z -1.0000
G01 X 28.4380 Y 5.8923 Z -1.0000
G01 X 28.4360 Y 5.8854 Z -1.0000
G01 X 28.4320 Y 5.8833 Z -1.0000
G01 X 28.4282 Y 5.8854 Z -1.0000
G01 X 28.4260 Y 5.8923 Z -1.0000
G01 X 28.4260 Y 5.8923 Z -1.0000
G00 Z 5.0000

(End cutting path id: path222635)


(Start cutting path id: path222635)
(Change tool to Default tool)

G00 Z 5.0000
G00 X 28.6341 Y 6.2579

G01 Z -1.0000 F 100.0000(Penetrate)
G01 X 28.6415 Y 6.2592 Z -1.0000 F 3500.0000
G01 X 28.6455 Y 6.2574 Z -1.0000
G01 X 28.6377 Y 6.2543 Z -1.0000
G01 X 28.6341 Y 6.2579 Z -1.0000
G01 X 28.6341 Y 6.2579 Z -1.0000
G00 Z 5.0000

(End cutting path id: path222635)


(Start cutting path id: path222635)
(Change tool to Default tool)

G00 Z 5.0000
G00 X 28.5993 Y 6.3435

G01 Z -1.0000 F 100.0000(Penetrate)
G01 X 28.6018 Y 6.3469 Z -1.0000 F 3500.0000
G01 X 28.6158 Y 6.3491 Z -1.0000
G01 X 28.6203 Y 6.3435 Z -1.0000
G01 X 28.6029 Y 6.3399 Z -1.0000
G01 X 28.5993 Y 6.3435 Z -1.0000
G01 X 28.5993 Y 6.3435 Z -1.0000
G00 Z 5.0000

(End cutting path id: path222635)


(Start cutting path id: path222635)
(Change tool to Default tool)

G00 Z 5.0000
G00 X 28.5754 Y 6.4026

G01 Z -1.0000 F 100.0000(Penetrate)
G01 X 28.5814 Y 6.4149 Z -1.0000 F 3500.0000
G01 X 28.5902 Y 6.4143 Z -1.0000
G01 X 28.5838 Y 6.4045 Z -1.0000
G01 X 28.5754 Y 6.4027 Z -1.0000
G01 X 28.5754 Y 6.4026 Z -1.0000
G00 Z 5.0000

(End cutting path id: path222635)


(Start cutting path id: path222635)
(Change tool to Default tool)

G00 Z 5.0000
G00 X 28.5736 Y 6.4349

G01 Z -1.0000 F 100.0000(Penetrate)
G01 X 28.5657 Y 6.4559 Z -1.0000 F 3500.0000
G01 X 28.5724 Y 6.4630 Z -1.0000
G01 X 28.5780 Y 6.4664 Z -1.0000
G01 X 28.5814 Y 6.4809 Z -1.0000
G01 X 28.5840 Y 6.4963 Z -1.0000
G01 X 28.5875 Y 6.4988 Z -1.0000
G01 X 28.6042 Y 6.4875 Z -1.0000
G01 X 28.6020 Y 6.4625 Z -1.0000
G01 X 28.6139 Y 6.4570 Z -1.0000
G01 X 28.6292 Y 6.4536 Z -1.0000
G01 X 28.6242 Y 6.4430 Z -1.0000
G02 X 28.5980 Y 6.4277 Z -1.0000 I -0.0593 J 0.0717
G01 X 28.5852 Y 6.4272 Z -1.0000
G01 X 28.5737 Y 6.4349 Z -1.0000
G01 X 28.5736 Y 6.4349 Z -1.0000
G00 Z 5.0000

(End cutting path id: path222635)


(Start cutting path id: path222635)
(Change tool to Default tool)

G00 Z 5.0000
G00 X 28.4834 Y 6.4679

G01 Z -1.0000 F 100.0000(Penetrate)
G01 X 28.4888 Y 6.4729 Z -1.0000 F 3500.0000
G01 X 28.4942 Y 6.4679 Z -1.0000
G01 X 28.4907 Y 6.4637 Z -1.0000
G01 X 28.4888 Y 6.4629 Z -1.0000
G01 X 28.4869 Y 6.4637 Z -1.0000
G01 X 28.4834 Y 6.4679 Z -1.0000
G01 X 28.4834 Y 6.4679 Z -1.0000
G00 Z 5.0000

(End cutting path id: path222635)


(Start cutting path id: path222635)
(Change tool to Default tool)

G00 Z 5.0000
G00 X 28.4833 Y 6.5026

G01 Z -1.0000 F 100.0000(Penetrate)
G01 X 28.4906 Y 6.5157 Z -1.0000 F 3500.0000
G01 X 28.4952 Y 6.5148 Z -1.0000
G01 X 28.4954 Y 6.5058 Z -1.0000
G01 X 28.4891 Y 6.4953 Z -1.0000
G01 X 28.4849 Y 6.4955 Z -1.0000
G01 X 28.4834 Y 6.5026 Z -1.0000
G01 X 28.4833 Y 6.5026 Z -1.0000
G00 Z 5.0000

(End cutting path id: path222635)


(Start cutting path id: path222635)
(Change tool to Default tool)

G00 Z 5.0000
G00 X 28.6575 Y 6.3710

G01 Z -1.0000 F 100.0000(Penetrate)
G01 X 28.6535 Y 6.3728 Z -1.0000 F 3500.0000
G01 X 28.6461 Y 6.3715 Z -1.0000
G01 X 28.6497 Y 6.3679 Z -1.0000
G01 X 28.6575 Y 6.3710 Z -1.0000
G01 X 28.6575 Y 6.3710 Z -1.0000
G00 Z 5.0000

(End cutting path id: path222635)


(Start cutting path id: path222635)
(Change tool to Default tool)

G00 Z 5.0000
G00 X 28.7688 Y 6.3226

G01 Z -1.0000 F 100.0000(Penetrate)
G01 X 28.7642 Y 6.3298 Z -1.0000 F 3500.0000
G01 X 28.7600 Y 6.3316 Z -1.0000
G01 X 28.7567 Y 6.3297 Z -1.0000
G01 X 28.7547 Y 6.3226 Z -1.0000
G01 X 28.7573 Y 6.3163 Z -1.0000
G01 X 28.7635 Y 6.3136 Z -1.0000
G01 X 28.7683 Y 6.3163 Z -1.0000
G01 X 28.7688 Y 6.3226 Z -1.0000
G01 X 28.7688 Y 6.3226 Z -1.0000
G00 Z 5.0000

(End cutting path id: path222635)


(Start cutting path id: path222635)
(Change tool to Default tool)

G00 Z 5.0000
G00 X 28.7547 Y 6.1609

G01 Z -1.0000 F 100.0000(Penetrate)
G01 X 28.7490 Y 6.1681 Z -1.0000 F 3500.0000
G01 X 28.7398 Y 6.1643 Z -1.0000
G01 X 28.7402 Y 6.1605 Z -1.0000
G01 X 28.7454 Y 6.1582 Z -1.0000
G01 X 28.7547 Y 6.1608 Z -1.0000
G01 X 28.7547 Y 6.1609 Z -1.0000
G00 Z 5.0000

(End cutting path id: path222635)


(Start cutting path id: path222635)
(Change tool to Default tool)

G00 Z 5.0000
G00 X 28.7004 Y 6.6124

G01 Z -1.0000 F 100.0000(Penetrate)
G01 X 28.7040 Y 6.6152 Z -1.0000 F 3500.0000
G03 X 28.7078 Y 6.6463 Z -1.0000 I -0.1681 J 0.0367
G01 X 28.7055 Y 6.6582 Z -1.0000
G03 X 28.6957 Y 6.6728 Z -1.0000 I -0.0494 J -0.0225
G02 X 28.6844 Y 6.6869 Z -1.0000 I 0.0884 J 0.0824
G01 X 28.6831 Y 6.6912 Z -1.0000
G01 X 28.6812 Y 6.6942 Z -1.0000
G01 X 28.6740 Y 6.6960 Z -1.0000
G01 X 28.6691 Y 6.6925 Z -1.0000
G01 X 28.6685 Y 6.6796 Z -1.0000
G02 X 28.6715 Y 6.6631 Z -1.0000 I -0.2427 J -0.0539
G02 X 28.6754 Y 6.6344 Z -1.0000 I -0.7585 J -0.1156
G03 X 28.6820 Y 6.6112 Z -1.0000 I 0.0737 J 0.0084
G01 X 28.6873 Y 6.6090 Z -1.0000
G02 X 28.6961 Y 6.6118 Z -1.0000 I 0.0294 J -0.0785
G01 X 28.7005 Y 6.6123 Z -1.0000
G01 X 28.7004 Y 6.6124 Z -1.0000
G00 Z 5.0000

(End cutting path id: path222635)


(Start cutting path id: path222635)
(Change tool to Default tool)

G00 Z 5.0000
G00 X 28.6635 Y 6.8789

G01 Z -1.0000 F 100.0000(Penetrate)
G01 X 28.6595 Y 6.8807 Z -1.0000 F 3500.0000
G01 X 28.6520 Y 6.8794 Z -1.0000
G01 X 28.6556 Y 6.8758 Z -1.0000
G01 X 28.6634 Y 6.8789 Z -1.0000
G01 X 28.6635 Y 6.8789 Z -1.0000
G00 Z 5.0000

(End cutting path id: path222635)


(Start cutting path id: path222635)
(Change tool to Default tool)

G00 Z 5.0000
G00 X 28.8285 Y 6.9917

G01 Z -1.0000 F 100.0000(Penetrate)
G01 X 28.8227 Y 7.0007 Z -1.0000 F 3500.0000
G01 X 28.8204 Y 6.9917 Z -1.0000
G01 X 28.8225 Y 6.9848 Z -1.0000
G01 X 28.8262 Y 6.9827 Z -1.0000
G01 X 28.8289 Y 6.9848 Z -1.0000
G01 X 28.8285 Y 6.9917 Z -1.0000
G01 X 28.8285 Y 6.9917 Z -1.0000
G00 Z 5.0000

(End cutting path id: path222635)


(Start cutting path id: path222635)
(Change tool to Default tool)

G00 Z 5.0000
G00 X 29.1490 Y 7.0574

G01 Z -1.0000 F 100.0000(Penetrate)
G01 X 29.1470 Y 7.0643 Z -1.0000 F 3500.0000
G01 X 29.1430 Y 7.0664 Z -1.0000
G01 X 29.1392 Y 7.0644 Z -1.0000
G01 X 29.1370 Y 7.0574 Z -1.0000
G01 X 29.1391 Y 7.0505 Z -1.0000
G01 X 29.1430 Y 7.0484 Z -1.0000
G01 X 29.1469 Y 7.0505 Z -1.0000
G01 X 29.1490 Y 7.0574 Z -1.0000
G01 X 29.1490 Y 7.0574 Z -1.0000
G00 Z 5.0000

(End cutting path id: path222635)


(Start cutting path id: path222635)
(Change tool to Default tool)

G00 Z 5.0000
G00 X 29.2267 Y 7.0123

G01 Z -1.0000 F 100.0000(Penetrate)
G03 X 29.2247 Y 7.0288 Z -1.0000 I -0.0663 J 0.0000 F 3500.0000
G01 X 29.2214 Y 7.0332 Z -1.0000
G01 X 29.2117 Y 7.0294 Z -1.0000
G01 X 29.2128 Y 7.0031 Z -1.0000
G01 X 29.2205 Y 7.0007 Z -1.0000
G01 X 29.2267 Y 7.0123 Z -1.0000
G01 X 29.2267 Y 7.0123 Z -1.0000
G00 Z 5.0000

(End cutting path id: path222635)


(Start cutting path id: path222635)
(Change tool to Default tool)

G00 Z 5.0000
G00 X 29.1311 Y 7.1460

G01 Z -1.0000 F 100.0000(Penetrate)
G01 X 29.1301 Y 7.1539 Z -1.0000 F 3500.0000
G03 X 29.1190 Y 7.1910 Z -1.0000 I -0.7449 J -0.2024
G02 X 29.1097 Y 7.2407 Z -1.0000 I 0.1826 J 0.0600
G01 X 29.1152 Y 7.2621 Z -1.0000
G01 X 29.1156 Y 7.2672 Z -1.0000
G01 X 29.1121 Y 7.2697 Z -1.0000
G01 X 29.1147 Y 7.2759 Z -1.0000
G01 X 29.1223 Y 7.2837 Z -1.0000
G01 X 29.1251 Y 7.2947 Z -1.0000
G02 X 29.1332 Y 7.3308 Z -1.0000 I 0.0850 J 0.0000
G02 X 29.1820 Y 7.4159 Z -1.0000 I 0.5404 J -0.2534
G02 X 29.2338 Y 7.4787 Z -1.0000 I 0.3872 J -0.2666
G02 X 29.2665 Y 7.5020 Z -1.0000 I 0.0813 J -0.0799
G03 X 29.3089 Y 7.5258 Z -1.0000 I -0.1424 J 0.3022
G03 X 29.3427 Y 7.5525 Z -1.0000 I -0.1459 J 0.2198
G03 X 29.3636 Y 7.5796 Z -1.0000 I -0.0708 J 0.0760
G01 X 29.3622 Y 7.5890 Z -1.0000
G03 X 29.3186 Y 7.6156 Z -1.0000 I -0.0768 J -0.0768
G01 X 29.2961 Y 7.6102 Z -1.0000
G01 X 29.2890 Y 7.6065 Z -1.0000
G02 X 29.2612 Y 7.6041 Z -1.0000 I -0.0278 J 0.1609
G03 X 29.2347 Y 7.6006 Z -1.0000 I 0.0000 J -0.1018
G01 X 29.2290 Y 7.5954 Z -1.0000
G01 X 29.2240 Y 7.5884 Z -1.0000
G01 X 29.2142 Y 7.5830 Z -1.0000
G01 X 29.2058 Y 7.5772 Z -1.0000
G01 X 29.2028 Y 7.5685 Z -1.0000
G01 X 29.2003 Y 7.5594 Z -1.0000
G01 X 29.1943 Y 7.5543 Z -1.0000
G01 X 29.1870 Y 7.5494 Z -1.0000
G03 X 29.1610 Y 7.5182 Z -1.0000 I 0.3066 J -0.2823
G03 X 29.1378 Y 7.4808 Z -1.0000 I 0.1911 J -0.1443
G03 X 29.1316 Y 7.4592 Z -1.0000 I 0.0560 J -0.0279
G01 X 29.1297 Y 7.4563 Z -1.0000
G01 X 29.1245 Y 7.4547 Z -1.0000
G01 X 29.1212 Y 7.4570 Z -1.0000
G01 X 29.1213 Y 7.4637 Z -1.0000
G01 X 29.1217 Y 7.4706 Z -1.0000
G01 X 29.1190 Y 7.4727 Z -1.0000
G01 X 29.1144 Y 7.4688 Z -1.0000
G03 X 29.1130 Y 7.4380 Z -1.0000 I 0.1213 J -0.0209
G01 X 29.1120 Y 7.4249 Z -1.0000
G01 X 29.1082 Y 7.4171 Z -1.0000
G03 X 29.0547 Y 7.2906 Z -1.0000 I 0.1847 J -0.1526
G03 X 29.0869 Y 7.2230 Z -1.0000 I 0.0707 J -0.0078
G01 X 29.0918 Y 7.2176 Z -1.0000
G02 X 29.1012 Y 7.1949 Z -1.0000 I -0.1371 J -0.0696
G03 X 29.1214 Y 7.1410 Z -1.0000 I 0.5495 J 0.1759
G01 X 29.1258 Y 7.1381 Z -1.0000
G01 X 29.1292 Y 7.1400 Z -1.0000
G01 X 29.1311 Y 7.1461 Z -1.0000
G01 X 29.1311 Y 7.1460 Z -1.0000
G00 Z 5.0000

(End cutting path id: path222635)


(Start cutting path id: path222635)
(Change tool to Default tool)

G00 Z 5.0000
G00 X 29.4231 Y 7.1700

G01 Z -1.0000 F 100.0000(Penetrate)
G03 X 29.4360 Y 7.2033 Z -1.0000 I -0.0432 J 0.0359 F 3500.0000
G03 X 29.4266 Y 7.2460 Z -1.0000 I -0.0841 J 0.0039
G03 X 29.4170 Y 7.2619 Z -1.0000 I -0.1239 J -0.0647
G01 X 29.4122 Y 7.2663 Z -1.0000
G01 X 29.3927 Y 7.2638 Z -1.0000
G03 X 29.3556 Y 7.2070 Z -1.0000 I 0.1346 J -0.1285
G01 X 29.3598 Y 7.1796 Z -1.0000
G01 X 29.3918 Y 7.1639 Z -1.0000
G03 X 29.4159 Y 7.1657 Z -1.0000 I 0.0043 J 0.1022
G01 X 29.4231 Y 7.1700 Z -1.0000
G01 X 29.4231 Y 7.1700 Z -1.0000
G00 Z 5.0000

(End cutting path id: path222635)


(Start cutting path id: path222635)
(Change tool to Default tool)

G00 Z 5.0000
G00 X 29.4388 Y 6.9350

G01 Z -1.0000 F 100.0000(Penetrate)
G01 X 29.4440 Y 6.9451 Z -1.0000 F 3500.0000
G01 X 29.4475 Y 6.9470 Z -1.0000
G01 X 29.4513 Y 6.9487 Z -1.0000
G01 X 29.4565 Y 6.9574 Z -1.0000
G03 X 29.4688 Y 6.9987 Z -1.0000 I -0.2399 J 0.0940
G03 X 29.4796 Y 7.0684 Z -1.0000 I -0.6573 J 0.1373
G02 X 29.4833 Y 7.0840 Z -1.0000 I 0.0612 J -0.0062
G01 X 29.4876 Y 7.0893 Z -1.0000
G01 X 29.5062 Y 7.1140 Z -1.0000
G03 X 29.5104 Y 7.1642 Z -1.0000 I -0.1141 J 0.0347
G03 X 29.4961 Y 7.2141 Z -1.0000 I -0.1736 J -0.0227
G01 X 29.4841 Y 7.2218 Z -1.0000
G01 X 29.4776 Y 7.2174 Z -1.0000
G03 X 29.4691 Y 7.1850 Z -1.0000 I 0.1178 J -0.0479
G01 X 29.4679 Y 7.1813 Z -1.0000
G01 X 29.4641 Y 7.1765 Z -1.0000
G01 X 29.4611 Y 7.1713 Z -1.0000
G01 X 29.4596 Y 7.1620 Z -1.0000
G01 X 29.4573 Y 7.1528 Z -1.0000
G02 X 29.4449 Y 7.1348 Z -1.0000 I -0.0894 J 0.0483
G01 X 29.4364 Y 7.1177 Z -1.0000
G01 X 29.4389 Y 7.1080 Z -1.0000
G01 X 29.4451 Y 7.0974 Z -1.0000
G02 X 29.4476 Y 7.0816 Z -1.0000 I -0.0479 J -0.0157
G01 X 29.4440 Y 7.0728 Z -1.0000
G01 X 29.4385 Y 7.0725 Z -1.0000
G01 X 29.4317 Y 7.0703 Z -1.0000
G01 X 29.4334 Y 7.0524 Z -1.0000
G01 X 29.4380 Y 7.0310 Z -1.0000
G02 X 29.4322 Y 7.0084 Z -1.0000 I -0.0535 J 0.0015
G02 X 29.4201 Y 6.9863 Z -1.0000 I -0.3419 J 0.1736
G01 X 29.4171 Y 6.9828 Z -1.0000
G01 X 29.4147 Y 6.9791 Z -1.0000
G03 X 29.4093 Y 6.9514 Z -1.0000 I 0.2847 J -0.0705
G01 X 29.4117 Y 6.9288 Z -1.0000
G01 X 29.4200 Y 6.9230 Z -1.0000
G01 X 29.4323 Y 6.9266 Z -1.0000
G01 X 29.4387 Y 6.9350 Z -1.0000
G01 X 29.4388 Y 6.9350 Z -1.0000
G00 Z 5.0000

(End cutting path id: path222635)


(Start cutting path id: path222635)
(Change tool to Default tool)

G00 Z 5.0000
G00 X 29.3877 Y 6.8863

G01 Z -1.0000 F 100.0000(Penetrate)
G02 X 29.3892 Y 6.9071 Z -1.0000 I 0.0619 J 0.0060 F 3500.0000
G01 X 29.3932 Y 6.9087 Z -1.0000
G01 X 29.3950 Y 6.9218 Z -1.0000
G01 X 29.3892 Y 6.9263 Z -1.0000
G02 X 29.3855 Y 6.9152 Z -1.0000 I -0.0562 J 0.0123
G02 X 29.3778 Y 6.9010 Z -1.0000 I -0.0928 J 0.0415
G01 X 29.3718 Y 6.8870 Z -1.0000
G01 X 29.3725 Y 6.8779 Z -1.0000
G01 X 29.3816 Y 6.8746 Z -1.0000
G01 X 29.3877 Y 6.8862 Z -1.0000
G01 X 29.3877 Y 6.8863 Z -1.0000
G00 Z 5.0000

(End cutting path id: path222635)


(Start cutting path id: path222635)
(Change tool to Default tool)

G00 Z 5.0000
G00 X 29.3333 Y 6.8734

G01 Z -1.0000 F 100.0000(Penetrate)
G01 X 29.3239 Y 6.8823 Z -1.0000 F 3500.0000
G01 X 29.3164 Y 6.8759 Z -1.0000
G01 X 29.3195 Y 6.8665 Z -1.0000
G01 X 29.3258 Y 6.8634 Z -1.0000
G01 X 29.3317 Y 6.8664 Z -1.0000
G01 X 29.3333 Y 6.8734 Z -1.0000
G01 X 29.3333 Y 6.8734 Z -1.0000
G00 Z 5.0000

(End cutting path id: path222635)


(Start cutting path id: path222635)
(Change tool to Default tool)

G00 Z 5.0000
G00 X 29.7466 Y 6.9975

G01 Z -1.0000 F 100.0000(Penetrate)
G01 X 29.7487 Y 7.0046 Z -1.0000 F 3500.0000
G01 X 29.7526 Y 7.0068 Z -1.0000
G01 X 29.7569 Y 7.0051 Z -1.0000
G01 X 29.7586 Y 7.0012 Z -1.0000
G01 X 29.7572 Y 6.9963 Z -1.0000
G01 X 29.7526 Y 6.9919 Z -1.0000
G01 X 29.7489 Y 6.9922 Z -1.0000
G01 X 29.7466 Y 6.9975 Z -1.0000
G01 X 29.7466 Y 6.9975 Z -1.0000
G00 Z 5.0000

(End cutting path id: path222635)


(Start cutting path id: path222635)
(Change tool to Default tool)

G00 Z 5.0000
G00 X 29.7765 Y 6.9393

G01 Z -1.0000 F 100.0000(Penetrate)
G01 X 29.7792 Y 6.9534 Z -1.0000 F 3500.0000
G02 X 29.8034 Y 7.0061 Z -1.0000 I 0.5707 J -0.2296
G03 X 29.8165 Y 7.0727 Z -1.0000 I -0.1082 J 0.0559
G01 X 29.7954 Y 7.0968 Z -1.0000
G01 X 29.7680 Y 7.0933 Z -1.0000
G01 X 29.7585 Y 7.0777 Z -1.0000
G01 X 29.7556 Y 7.0694 Z -1.0000
G01 X 29.7494 Y 7.0665 Z -1.0000
G01 X 29.7160 Y 7.0359 Z -1.0000
G03 X 29.7417 Y 6.9783 Z -1.0000 I 0.0645 J -0.0057
G01 X 29.7486 Y 6.9693 Z -1.0000
G01 X 29.7513 Y 6.9544 Z -1.0000
G03 X 29.7521 Y 6.9382 Z -1.0000 I 0.1034 J -0.0029
G03 X 29.7552 Y 6.9243 Z -1.0000 I 0.0791 J 0.0102
G01 X 29.7614 Y 6.9169 Z -1.0000
G01 X 29.7681 Y 6.9176 Z -1.0000
G01 X 29.7740 Y 6.9258 Z -1.0000
G01 X 29.7766 Y 6.9393 Z -1.0000
G01 X 29.7765 Y 6.9393 Z -1.0000
G00 Z 5.0000

(End cutting path id: path222635)


(Start cutting path id: path222635)
(Change tool to Default tool)

G00 Z 5.0000
G00 X 29.8094 Y 6.8634

G01 Z -1.0000 F 100.0000(Penetrate)
G01 X 29.8073 Y 6.8699 Z -1.0000 F 3500.0000
G01 X 29.8019 Y 6.8738 Z -1.0000
G01 X 29.7973 Y 6.8723 Z -1.0000
G01 X 29.7944 Y 6.8634 Z -1.0000
G01 X 29.7972 Y 6.8544 Z -1.0000
G01 X 29.8019 Y 6.8529 Z -1.0000
G01 X 29.8073 Y 6.8569 Z -1.0000
G01 X 29.8094 Y 6.8634 Z -1.0000
G01 X 29.8094 Y 6.8634 Z -1.0000
G00 Z 5.0000

(End cutting path id: path222635)


(Start cutting path id: path222635)
(Change tool to Default tool)

G00 Z 5.0000
G00 X 30.0337 Y 6.8529

G01 Z -1.0000 F 100.0000(Penetrate)
G01 X 30.0447 Y 6.8559 Z -1.0000 F 3500.0000
G01 X 30.0507 Y 6.8524 Z -1.0000
G01 X 30.0564 Y 6.8505 Z -1.0000
G03 X 30.0741 Y 6.8614 Z -1.0000 I -0.0199 J 0.0519
G03 X 30.0879 Y 6.8803 Z -1.0000 I -0.0407 J 0.0445
G01 X 30.0919 Y 6.8992 Z -1.0000
G02 X 30.0917 Y 6.9202 Z -1.0000 I 0.3903 J 0.0128
G02 X 30.0931 Y 6.9578 Z -1.0000 I 1.3053 J -0.0271
G03 X 30.0925 Y 6.9945 Z -1.0000 I -0.2872 J 0.0139
G01 X 30.0896 Y 7.0006 Z -1.0000
G01 X 30.0833 Y 7.0042 Z -1.0000
G03 X 30.0633 Y 7.0078 Z -1.0000 I -0.0315 J -0.1160
G01 X 30.0481 Y 7.0040 Z -1.0000
G01 X 30.0436 Y 6.9949 Z -1.0000
G02 X 30.0402 Y 6.9357 Z -1.0000 I -0.2110 J -0.0174
G01 X 30.0265 Y 6.9103 Z -1.0000
G01 X 30.0184 Y 6.8984 Z -1.0000
G01 X 30.0187 Y 6.8928 Z -1.0000
G01 X 30.0196 Y 6.8869 Z -1.0000
G01 X 30.0133 Y 6.8729 Z -1.0000
G01 X 30.0085 Y 6.8595 Z -1.0000
G01 X 30.0110 Y 6.8523 Z -1.0000
G01 X 30.0198 Y 6.8488 Z -1.0000
G01 X 30.0336 Y 6.8530 Z -1.0000
G01 X 30.0337 Y 6.8529 Z -1.0000
G00 Z 5.0000

(End cutting path id: path222635)


(Start cutting path id: path222635)
(Change tool to Default tool)

G00 Z 5.0000
G00 X 30.1216 Y 6.9493

G01 Z -1.0000 F 100.0000(Penetrate)
G01 X 30.1198 Y 6.9619 Z -1.0000 F 3500.0000
G01 X 30.1151 Y 6.9666 Z -1.0000
G01 X 30.1112 Y 6.9649 Z -1.0000
G01 X 30.1099 Y 6.9523 Z -1.0000
G01 X 30.1161 Y 6.9454 Z -1.0000
G01 X 30.1216 Y 6.9493 Z -1.0000
G01 X 30.1216 Y 6.9493 Z -1.0000
G00 Z 5.0000

(End cutting path id: path222635)


(Start cutting path id: path222635)
(Change tool to Default tool)

G00 Z 5.0000
G00 X 30.1214 Y 7.0186

G01 Z -1.0000 F 100.0000(Penetrate)
G01 X 30.1199 Y 7.0283 Z -1.0000 F 3500.0000
G01 X 30.1167 Y 7.0305 Z -1.0000
G01 X 30.1132 Y 7.0284 Z -1.0000
G01 X 30.1111 Y 7.0186 Z -1.0000
G01 X 30.1130 Y 7.0086 Z -1.0000
G01 X 30.1158 Y 7.0066 Z -1.0000
G01 X 30.1187 Y 7.0085 Z -1.0000
G01 X 30.1214 Y 7.0186 Z -1.0000
G01 X 30.1214 Y 7.0186 Z -1.0000
G00 Z 5.0000

(End cutting path id: path222635)


(Start cutting path id: path222635)
(Change tool to Default tool)

G00 Z 5.0000
G00 X 30.0827 Y 7.0747

G01 Z -1.0000 F 100.0000(Penetrate)
G01 X 30.0904 Y 7.0841 Z -1.0000 F 3500.0000
G01 X 30.0931 Y 7.0960 Z -1.0000
G03 X 30.0837 Y 7.1346 Z -1.0000 I -0.0831 J 0.0000
G01 X 30.0679 Y 7.1441 Z -1.0000
G01 X 30.0650 Y 7.1458 Z -1.0000
G01 X 30.0632 Y 7.1529 Z -1.0000
G01 X 30.0605 Y 7.1577 Z -1.0000
G01 X 30.0542 Y 7.1582 Z -1.0000
G01 X 30.0455 Y 7.1577 Z -1.0000
G02 X 30.0303 Y 7.1645 Z -1.0000 I 0.0132 J 0.0501
G01 X 30.0155 Y 7.1678 Z -1.0000
G01 X 30.0135 Y 7.1646 Z -1.0000
G01 X 30.0098 Y 7.1648 Z -1.0000
G01 X 30.0051 Y 7.1647 Z -1.0000
G01 X 29.9977 Y 7.1565 Z -1.0000
G01 X 29.9953 Y 7.1444 Z -1.0000
G03 X 30.0013 Y 7.1190 Z -1.0000 I 0.0971 J 0.0096
G03 X 30.0429 Y 7.0717 Z -1.0000 I 0.0853 J 0.0331
G01 X 30.0826 Y 7.0747 Z -1.0000
G01 X 30.0827 Y 7.0747 Z -1.0000
G00 Z 5.0000

(End cutting path id: path222635)


(Start cutting path id: path222635)
(Change tool to Default tool)

G00 Z 5.0000
G00 X 30.0581 Y 7.3846

G01 Z -1.0000 F 100.0000(Penetrate)
G01 X 30.0540 Y 7.3643 Z -1.0000 F 3500.0000
G01 X 30.0617 Y 7.3465 Z -1.0000
G03 X 30.0613 Y 7.3778 Z -1.0000 I -0.1942 J 0.0132
G01 X 30.0581 Y 7.3846 Z -1.0000
G01 X 30.0581 Y 7.3846 Z -1.0000
G00 Z 5.0000

(End cutting path id: path222635)


(Start cutting path id: path222635)
(Change tool to Default tool)

G00 Z 5.0000
G00 X 30.0633 Y 7.4069

G01 Z -1.0000 F 100.0000(Penetrate)
G01 X 30.0612 Y 7.4109 Z -1.0000 F 3500.0000
G01 X 30.0549 Y 7.4129 Z -1.0000
G01 X 30.0501 Y 7.4158 Z -1.0000
G01 X 30.0492 Y 7.4234 Z -1.0000
G01 X 30.0491 Y 7.4334 Z -1.0000
G01 X 30.0434 Y 7.4455 Z -1.0000
G01 X 30.0343 Y 7.4506 Z -1.0000
G01 X 30.0251 Y 7.4474 Z -1.0000
G01 X 30.0187 Y 7.4244 Z -1.0000
G01 X 30.0348 Y 7.4076 Z -1.0000
G03 X 30.0600 Y 7.4038 Z -1.0000 I 0.0274 J 0.0947
G01 X 30.0632 Y 7.4069 Z -1.0000
G01 X 30.0633 Y 7.4069 Z -1.0000
G00 Z 5.0000

(End cutting path id: path222635)


(Start cutting path id: path222635)
(Change tool to Default tool)

G00 Z 5.0000
G00 X 30.0155 Y 7.4562

G01 Z -1.0000 F 100.0000(Penetrate)
G01 X 29.9766 Y 7.4607 Z -1.0000 F 3500.0000
G01 X 29.9378 Y 7.4562 Z -1.0000
G01 X 29.9766 Y 7.4517 Z -1.0000
G01 X 30.0155 Y 7.4562 Z -1.0000
G01 X 30.0155 Y 7.4562 Z -1.0000
G00 Z 5.0000

(End cutting path id: path222635)


(Start cutting path id: path222635)
(Change tool to Default tool)

G00 Z 5.0000
G00 X 29.8045 Y 7.4225

G01 Z -1.0000 F 100.0000(Penetrate)
G02 X 29.8223 Y 7.4366 Z -1.0000 I 0.0996 J -0.1066 F 3500.0000
G02 X 29.8482 Y 7.4521 Z -1.0000 I 0.1496 J -0.2206
G03 X 29.8745 Y 7.4671 Z -1.0000 I -0.2158 J 0.4092
G03 X 29.8888 Y 7.4772 Z -1.0000 I -0.0767 J 0.1249
G01 X 29.9026 Y 7.4881 Z -1.0000
G01 X 29.8874 Y 7.4963 Z -1.0000
G02 X 29.8746 Y 7.5061 Z -1.0000 I 0.0237 J 0.0443
G01 X 29.8721 Y 7.5125 Z -1.0000
G01 X 29.8696 Y 7.5180 Z -1.0000
G01 X 29.8631 Y 7.5205 Z -1.0000
G01 X 29.8562 Y 7.5184 Z -1.0000
G01 X 29.8541 Y 7.5143 Z -1.0000
G01 X 29.8514 Y 7.5109 Z -1.0000
G02 X 29.8339 Y 7.5095 Z -1.0000 I -0.0137 J 0.0589
G01 X 29.8154 Y 7.5062 Z -1.0000
G03 X 29.7944 Y 7.4916 Z -1.0000 I 0.0295 J -0.0649
G03 X 29.7793 Y 7.4715 Z -1.0000 I 0.0639 J -0.0639
G01 X 29.7787 Y 7.4632 Z -1.0000
G01 X 29.7767 Y 7.4575 Z -1.0000
G01 X 29.7699 Y 7.4559 Z -1.0000
G03 X 29.7583 Y 7.4272 Z -1.0000 I 0.0817 J -0.0498
G01 X 29.7607 Y 7.4126 Z -1.0000
G01 X 29.7707 Y 7.4070 Z -1.0000
G01 X 29.7864 Y 7.4104 Z -1.0000
G03 X 29.8044 Y 7.4225 Z -1.0000 I -0.0293 J 0.0632
G01 X 29.8045 Y 7.4225 Z -1.0000
G00 Z 5.0000

(End cutting path id: path222635)


(Start cutting path id: path222635)
(Change tool to Default tool)

G00 Z 5.0000
G00 X 30.3728 Y 7.3954

G01 Z -1.0000 F 100.0000(Penetrate)
G01 X 30.3695 Y 7.4002 Z -1.0000 F 3500.0000
G01 X 30.3650 Y 7.4018 Z -1.0000
G01 X 30.3605 Y 7.4002 Z -1.0000
G01 X 30.3572 Y 7.3954 Z -1.0000
G01 X 30.3584 Y 7.3914 Z -1.0000
G01 X 30.3650 Y 7.3890 Z -1.0000
G01 X 30.3717 Y 7.3914 Z -1.0000
G01 X 30.3728 Y 7.3954 Z -1.0000
G01 X 30.3728 Y 7.3954 Z -1.0000
G00 Z 5.0000

(End cutting path id: path222635)


(Start cutting path id: path222635)
(Change tool to Default tool)

G00 Z 5.0000
G00 X 30.4098 Y 7.4364

G01 Z -1.0000 F 100.0000(Penetrate)
G01 X 30.4084 Y 7.4413 Z -1.0000 F 3500.0000
G01 X 30.4038 Y 7.4457 Z -1.0000
G01 X 30.4001 Y 7.4453 Z -1.0000
G01 X 30.3978 Y 7.4401 Z -1.0000
G01 X 30.3999 Y 7.4330 Z -1.0000
G01 X 30.4038 Y 7.4308 Z -1.0000
G01 X 30.4081 Y 7.4325 Z -1.0000
G01 X 30.4098 Y 7.4364 Z -1.0000
G01 X 30.4098 Y 7.4364 Z -1.0000
G00 Z 5.0000

(End cutting path id: path222635)


(Start cutting path id: path222635)
(Change tool to Default tool)

G00 Z 5.0000
G00 X 30.5592 Y 7.2546

G01 Z -1.0000 F 100.0000(Penetrate)
G01 X 30.5673 Y 7.2659 Z -1.0000 F 3500.0000
G01 X 30.5770 Y 7.2695 Z -1.0000
G01 X 30.5878 Y 7.2740 Z -1.0000
G01 X 30.5886 Y 7.2780 Z -1.0000
G02 X 30.6176 Y 7.3092 Z -1.0000 I 0.3674 J -0.3123
G03 X 30.6475 Y 7.3405 Z -1.0000 I -0.4858 J 0.4933
G01 X 30.6488 Y 7.3440 Z -1.0000
G01 X 30.6502 Y 7.3476 Z -1.0000
G02 X 30.6757 Y 7.3750 Z -1.0000 I 0.4068 J -0.3539
G03 X 30.7006 Y 7.4027 Z -1.0000 I -0.2443 J 0.2443
G01 X 30.7026 Y 7.4084 Z -1.0000
G01 X 30.7113 Y 7.4282 Z -1.0000
G01 X 30.7334 Y 7.4368 Z -1.0000
G01 X 30.7422 Y 7.4391 Z -1.0000
G01 X 30.7445 Y 7.4428 Z -1.0000
G01 X 30.7468 Y 7.4465 Z -1.0000
G01 X 30.7568 Y 7.4488 Z -1.0000
G01 X 30.7656 Y 7.4545 Z -1.0000
G01 X 30.7612 Y 7.4576 Z -1.0000
G01 X 30.7536 Y 7.4570 Z -1.0000
G01 X 30.7464 Y 7.4576 Z -1.0000
G01 X 30.7374 Y 7.4662 Z -1.0000
G01 X 30.7285 Y 7.4766 Z -1.0000
G01 X 30.7230 Y 7.4787 Z -1.0000
G03 X 30.6827 Y 7.4623 Z -1.0000 I -0.0000 J -0.0579
G03 X 30.6597 Y 7.4173 Z -1.0000 I 0.0545 J -0.0561
G01 X 30.6549 Y 7.4076 Z -1.0000
G01 X 30.6474 Y 7.4048 Z -1.0000
G01 X 30.6397 Y 7.4026 Z -1.0000
G01 X 30.6369 Y 7.3971 Z -1.0000
G01 X 30.6346 Y 7.3902 Z -1.0000
G01 X 30.6277 Y 7.3851 Z -1.0000
G01 X 30.6218 Y 7.3796 Z -1.0000
G01 X 30.6202 Y 7.3689 Z -1.0000
G01 X 30.6193 Y 7.3583 Z -1.0000
G01 X 30.6160 Y 7.3557 Z -1.0000
G01 X 30.5923 Y 7.3416 Z -1.0000
G01 X 30.5966 Y 7.3272 Z -1.0000
G01 X 30.5937 Y 7.3237 Z -1.0000
G01 X 30.5859 Y 7.3201 Z -1.0000
G01 X 30.5798 Y 7.3090 Z -1.0000
G02 X 30.5628 Y 7.2786 Z -1.0000 I -0.0652 J 0.0165
G01 X 30.5413 Y 7.2695 Z -1.0000
G01 X 30.5377 Y 7.2659 Z -1.0000
G01 X 30.5415 Y 7.2511 Z -1.0000
G01 X 30.5502 Y 7.2470 Z -1.0000
G01 X 30.5592 Y 7.2546 Z -1.0000
G01 X 30.5592 Y 7.2546 Z -1.0000
G00 Z 5.0000

(End cutting path id: path222635)


(Start cutting path id: path222635)
(Change tool to Default tool)

G00 Z 5.0000
G00 X 30.5293 Y 7.2277

G01 Z -1.0000 F 100.0000(Penetrate)
G01 X 30.5270 Y 7.2374 Z -1.0000 F 3500.0000
G01 X 30.5233 Y 7.2396 Z -1.0000
G01 X 30.5196 Y 7.2373 Z -1.0000
G01 X 30.5173 Y 7.2277 Z -1.0000
G01 X 30.5196 Y 7.2180 Z -1.0000
G01 X 30.5233 Y 7.2157 Z -1.0000
G01 X 30.5270 Y 7.2180 Z -1.0000
G01 X 30.5293 Y 7.2277 Z -1.0000
G01 X 30.5293 Y 7.2277 Z -1.0000
G00 Z 5.0000

(End cutting path id: path222635)


(Start cutting path id: path222635)
(Change tool to Default tool)

G00 Z 5.0000
G00 X 31.3957 Y 7.4189

G01 Z -1.0000 F 100.0000(Penetrate)
G01 X 31.3863 Y 7.4229 Z -1.0000 F 3500.0000
G03 X 31.3704 Y 7.4248 Z -1.0000 I -0.0168 J -0.0735
G01 X 31.3580 Y 7.4290 Z -1.0000
G01 X 31.3539 Y 7.4373 Z -1.0000
G01 X 31.3464 Y 7.4438 Z -1.0000
G01 X 31.3371 Y 7.4348 Z -1.0000
G01 X 31.3387 Y 7.4278 Z -1.0000
G01 X 31.3446 Y 7.4248 Z -1.0000
G01 X 31.3518 Y 7.4227 Z -1.0000
G01 X 31.3540 Y 7.4188 Z -1.0000
G01 X 31.3566 Y 7.4155 Z -1.0000
G03 X 31.3793 Y 7.4129 Z -1.0000 I 0.0227 J 0.0993
G01 X 31.3958 Y 7.4188 Z -1.0000
G01 X 31.3957 Y 7.4189 Z -1.0000
G00 Z 5.0000

(End cutting path id: path222635)


(Start cutting path id: path222635)
(Change tool to Default tool)

G00 Z 5.0000
G00 X 31.4031 Y 7.0199

G01 Z -1.0000 F 100.0000(Penetrate)
G01 X 31.3972 Y 7.0260 Z -1.0000 F 3500.0000
G01 X 31.3929 Y 7.0213 Z -1.0000
G01 X 31.3794 Y 7.0187 Z -1.0000
G01 X 31.3733 Y 7.0146 Z -1.0000
G01 X 31.3747 Y 7.0069 Z -1.0000
G01 X 31.3950 Y 7.0028 Z -1.0000
G01 X 31.4032 Y 7.0200 Z -1.0000
G01 X 31.4031 Y 7.0199 Z -1.0000
G00 Z 5.0000

(End cutting path id: path222635)


(Start cutting path id: path222635)
(Change tool to Default tool)

G00 Z 5.0000
G00 X 31.9491 Y 7.4582

G01 Z -1.0000 F 100.0000(Penetrate)
G02 X 31.9461 Y 7.4678 Z -1.0000 I 0.0704 J 0.0271 F 3500.0000
G01 X 31.9455 Y 7.4731 Z -1.0000
G01 X 31.9435 Y 7.4766 Z -1.0000
G01 X 31.9365 Y 7.4786 Z -1.0000
G01 X 31.9302 Y 7.4760 Z -1.0000
G01 X 31.9275 Y 7.4696 Z -1.0000
G01 X 31.9251 Y 7.4630 Z -1.0000
G01 X 31.9200 Y 7.4605 Z -1.0000
G01 X 31.9186 Y 7.4547 Z -1.0000
G01 X 31.9415 Y 7.4488 Z -1.0000
G01 X 31.9481 Y 7.4519 Z -1.0000
G01 X 31.9490 Y 7.4582 Z -1.0000
G01 X 31.9491 Y 7.4582 Z -1.0000
G00 Z 5.0000

(End cutting path id: path222635)


(Start cutting path id: path222635)
(Change tool to Default tool)

G00 Z 5.0000
G00 X 32.4475 Y 7.2698

G01 Z -1.0000 F 100.0000(Penetrate)
G02 X 32.4553 Y 7.2917 Z -1.0000 I 0.1388 J -0.0372 F 3500.0000
G01 X 32.4595 Y 7.2965 Z -1.0000
G01 X 32.4633 Y 7.3012 Z -1.0000
G01 X 32.4653 Y 7.3136 Z -1.0000
G01 X 32.4684 Y 7.3259 Z -1.0000
G02 X 32.4832 Y 7.3472 Z -1.0000 I 0.0972 J -0.0520
G03 X 32.4991 Y 7.3680 Z -1.0000 I -0.1197 J 0.1073
G01 X 32.5012 Y 7.3751 Z -1.0000
G01 X 32.5036 Y 7.3806 Z -1.0000
G01 X 32.5098 Y 7.3830 Z -1.0000
G01 X 32.5322 Y 7.3939 Z -1.0000
G03 X 32.5430 Y 7.4252 Z -1.0000 I -0.0397 J 0.0313
G01 X 32.5631 Y 7.4619 Z -1.0000
G02 X 32.6684 Y 7.5055 Z -1.0000 I 0.1747 J -0.2726
G03 X 32.6957 Y 7.5219 Z -1.0000 I -0.0108 J 0.0489
G01 X 32.6976 Y 7.5398 Z -1.0000
G01 X 32.6900 Y 7.5446 Z -1.0000
G01 X 32.6698 Y 7.5408 Z -1.0000
G02 X 32.6474 Y 7.5318 Z -1.0000 I -0.1625 J 0.3744
G02 X 32.6288 Y 7.5257 Z -1.0000 I -0.0994 J 0.2720
G03 X 32.6119 Y 7.5181 Z -1.0000 I 0.0179 J -0.0618
G01 X 32.6066 Y 7.5115 Z -1.0000
G01 X 32.6017 Y 7.5061 Z -1.0000
G01 X 32.5952 Y 7.5059 Z -1.0000
G01 X 32.5879 Y 7.5056 Z -1.0000
G01 X 32.5761 Y 7.4968 Z -1.0000
G02 X 32.5641 Y 7.4867 Z -1.0000 I -0.0441 J 0.0402
G01 X 32.5570 Y 7.4846 Z -1.0000
G01 X 32.5510 Y 7.4827 Z -1.0000
G01 X 32.5490 Y 7.4788 Z -1.0000
G01 X 32.5469 Y 7.4761 Z -1.0000
G01 X 32.5397 Y 7.4766 Z -1.0000
G01 X 32.5189 Y 7.4722 Z -1.0000
G01 X 32.5072 Y 7.4438 Z -1.0000
G01 X 32.5048 Y 7.4334 Z -1.0000
G01 X 32.4979 Y 7.4246 Z -1.0000
G01 X 32.4900 Y 7.4159 Z -1.0000
G03 X 32.4801 Y 7.3985 Z -1.0000 I 0.1009 J -0.0687
G02 X 32.4558 Y 7.3528 Z -1.0000 I -0.4178 J 0.1932
G02 X 32.4407 Y 7.3337 Z -1.0000 I -0.0870 J 0.0528
G03 X 32.4170 Y 7.2917 Z -1.0000 I 0.0640 J -0.0640
G03 X 32.4195 Y 7.2492 Z -1.0000 I 0.0684 J -0.0172
G01 X 32.4311 Y 7.2458 Z -1.0000
G01 X 32.4476 Y 7.2699 Z -1.0000
G01 X 32.4475 Y 7.2698 Z -1.0000
G00 Z 5.0000

(End cutting path id: path222635)


(Start cutting path id: path222635)
(Change tool to Default tool)

G00 Z 5.0000
G00 X 32.7509 Y 7.5167

G01 Z -1.0000 F 100.0000(Penetrate)
G03 X 32.7848 Y 7.5174 Z -1.0000 I 0.0156 J 0.0640 F 3500.0000
G01 X 32.7983 Y 7.5304 Z -1.0000
G01 X 32.7914 Y 7.5443 Z -1.0000
G03 X 32.7459 Y 7.5482 Z -1.0000 I -0.0307 J -0.0901
G01 X 32.7255 Y 7.5349 Z -1.0000
G01 X 32.7269 Y 7.5186 Z -1.0000
G01 X 32.7388 Y 7.5133 Z -1.0000
G01 X 32.7422 Y 7.5165 Z -1.0000
G01 X 32.7509 Y 7.5167 Z -1.0000
G01 X 32.7509 Y 7.5167 Z -1.0000
G00 Z 5.0000

(End cutting path id: path222635)


(Start cutting path id: path222635)
(Change tool to Default tool)

G00 Z 5.0000
G00 X 32.8916 Y 7.3745

G01 Z -1.0000 F 100.0000(Penetrate)
G01 X 32.8908 Y 7.3833 Z -1.0000 F 3500.0000
G01 X 32.8947 Y 7.3905 Z -1.0000
G01 X 32.9016 Y 7.3909 Z -1.0000
G01 X 32.9102 Y 7.3785 Z -1.0000
G01 X 32.9097 Y 7.3685 Z -1.0000
G01 X 32.9048 Y 7.3651 Z -1.0000
G01 X 32.8969 Y 7.3676 Z -1.0000
G01 X 32.8916 Y 7.3745 Z -1.0000
G01 X 32.8916 Y 7.3745 Z -1.0000
G00 Z 5.0000

(End cutting path id: path222635)


(Start cutting path id: path222635)
(Change tool to Default tool)

G00 Z 5.0000
G00 X 32.9269 Y 7.3452

G01 Z -1.0000 F 100.0000(Penetrate)
G01 X 32.9199 Y 7.3564 Z -1.0000 F 3500.0000
G01 X 32.9284 Y 7.3662 Z -1.0000
G01 X 32.9369 Y 7.3865 Z -1.0000
G03 X 32.8710 Y 7.4563 Z -1.0000 I -0.2145 J -0.1368
G03 X 32.8205 Y 7.4779 Z -1.0000 I -0.0741 J -0.1029
G01 X 32.8105 Y 7.4677 Z -1.0000
G01 X 32.8063 Y 7.4634 Z -1.0000
G01 X 32.8014 Y 7.4634 Z -1.0000
G01 X 32.7944 Y 7.4556 Z -1.0000
G01 X 32.7932 Y 7.4448 Z -1.0000
G01 X 32.8019 Y 7.4295 Z -1.0000
G03 X 32.8161 Y 7.4155 Z -1.0000 I 0.1642 J 0.1520
G03 X 32.8241 Y 7.4094 Z -1.0000 I 0.0394 J 0.0437
G01 X 32.8368 Y 7.3971 Z -1.0000
G02 X 32.8552 Y 7.3636 Z -1.0000 I -0.1666 J -0.1130
G01 X 32.8685 Y 7.3506 Z -1.0000
G01 X 32.8812 Y 7.3532 Z -1.0000
G01 X 32.8874 Y 7.3552 Z -1.0000
G01 X 32.8988 Y 7.3504 Z -1.0000
G01 X 32.9111 Y 7.3437 Z -1.0000
G01 X 32.9224 Y 7.3419 Z -1.0000
G01 X 32.9269 Y 7.3452 Z -1.0000
G01 X 32.9269 Y 7.3452 Z -1.0000
G00 Z 5.0000

(End cutting path id: path222635)


(Start cutting path id: path222635)
(Change tool to Default tool)

G00 Z 5.0000
G00 X 32.9046 Y 6.9865

G01 Z -1.0000 F 100.0000(Penetrate)
G01 X 32.9004 Y 6.9863 Z -1.0000 F 3500.0000
G01 X 32.8987 Y 6.9790 Z -1.0000
G03 X 32.9075 Y 6.9593 Z -1.0000 I 0.0526 J 0.0115
G01 X 32.9120 Y 6.9604 Z -1.0000
G01 X 32.9109 Y 6.9758 Z -1.0000
G01 X 32.9046 Y 6.9865 Z -1.0000
G01 X 32.9046 Y 6.9865 Z -1.0000
G00 Z 5.0000

(End cutting path id: path222635)


(Start cutting path id: path222635)
(Change tool to Default tool)

G00 Z 5.0000
G00 X 33.3001 Y 6.9776

G01 Z -1.0000 F 100.0000(Penetrate)
G03 X 33.2943 Y 7.0011 Z -1.0000 I -0.1088 J -0.0144 F 3500.0000
G01 X 33.2877 Y 7.0114 Z -1.0000
G01 X 33.2808 Y 7.0126 Z -1.0000
G01 X 33.2748 Y 7.0052 Z -1.0000
G01 X 33.2743 Y 6.9904 Z -1.0000
G03 X 33.2806 Y 6.9714 Z -1.0000 I 0.0639 J 0.0109
G01 X 33.2929 Y 6.9663 Z -1.0000
G01 X 33.3001 Y 6.9776 Z -1.0000
G01 X 33.3001 Y 6.9776 Z -1.0000
G00 Z 5.0000

(End cutting path id: path222635)


(Start cutting path id: path222635)
(Change tool to Default tool)

G00 Z 5.0000
G00 X 33.6185 Y 7.0418

G01 Z -1.0000 F 100.0000(Penetrate)
G03 X 33.6131 Y 7.0848 Z -1.0000 I -0.1744 J -0.0000 F 3500.0000
G01 X 33.6061 Y 7.0903 Z -1.0000
G01 X 33.6033 Y 7.0875 Z -1.0000
G03 X 33.6058 Y 7.0380 Z -1.0000 I 0.4330 J -0.0027
G01 X 33.6124 Y 7.0336 Z -1.0000
G01 X 33.6185 Y 7.0417 Z -1.0000
G01 X 33.6185 Y 7.0418 Z -1.0000
G00 Z 5.0000

(End cutting path id: path222635)


(Start cutting path id: path222635)
(Change tool to Default tool)

G00 Z 5.0000
G00 X 33.9113 Y 7.0783

G01 Z -1.0000 F 100.0000(Penetrate)
G01 X 33.9091 Y 7.0821 Z -1.0000 F 3500.0000
G01 X 33.9009 Y 7.0842 Z -1.0000
G01 X 33.8980 Y 7.0819 Z -1.0000
G01 X 33.8994 Y 7.0783 Z -1.0000
G01 X 33.9086 Y 7.0756 Z -1.0000
G01 X 33.9113 Y 7.0783 Z -1.0000
G01 X 33.9113 Y 7.0783 Z -1.0000
G00 Z 5.0000

(End cutting path id: path222635)


(Start cutting path id: path222635)
(Change tool to Default tool)

G00 Z 5.0000
G00 X 33.9327 Y 6.9604

G01 Z -1.0000 F 100.0000(Penetrate)
G02 X 33.9301 Y 6.9739 Z -1.0000 I 0.6026 J 0.1221 F 3500.0000
G02 X 33.9263 Y 6.9962 Z -1.0000 I 1.3349 J 0.2397
G03 X 33.9209 Y 7.0165 Z -1.0000 I -0.1038 J -0.0168
G01 X 33.9178 Y 7.0186 Z -1.0000
G01 X 33.9084 Y 7.0084 Z -1.0000
G03 X 33.9225 Y 6.9602 Z -1.0000 I 0.1243 J 0.0103
G01 X 33.9293 Y 6.9562 Z -1.0000
G01 X 33.9326 Y 6.9604 Z -1.0000
G01 X 33.9327 Y 6.9604 Z -1.0000
G00 Z 5.0000

(End cutting path id: path222635)


(Start cutting path id: path222635)
(Change tool to Default tool)

G00 Z 5.0000
G00 X 34.8375 Y 6.2572

G01 Z -1.0000 F 100.0000(Penetrate)
G01 X 34.8350 Y 6.2632 Z -1.0000 F 3500.0000
G01 X 34.8285 Y 6.2658 Z -1.0000
G01 X 34.8231 Y 6.2621 Z -1.0000
G01 X 34.8232 Y 6.2514 Z -1.0000
G01 X 34.8313 Y 6.2479 Z -1.0000
G01 X 34.8376 Y 6.2572 Z -1.0000
G01 X 34.8375 Y 6.2572 Z -1.0000
G00 Z 5.0000

(End cutting path id: path222635)


(Start cutting path id: path222635)
(Change tool to Default tool)

G00 Z 5.0000
G00 X 35.3096 Y 6.7487

G01 Z -1.0000 F 100.0000(Penetrate)
G02 X 35.3425 Y 6.7550 Z -1.0000 I 0.2062 J -0.9806 F 3500.0000
G02 X 35.4011 Y 6.7648 Z -1.0000 I 0.6202 J -3.5332
G03 X 35.5154 Y 6.8021 Z -1.0000 I -0.0598 J 0.3774
G03 X 35.5551 Y 6.8437 Z -1.0000 I -0.0399 J 0.0779
G03 X 35.5652 Y 6.8716 Z -1.0000 I -0.1661 J 0.0753
G03 X 35.5707 Y 6.9017 Z -1.0000 I -0.1849 J 0.0498
G03 X 35.5677 Y 6.9290 Z -1.0000 I -0.0643 J 0.0067
G01 X 35.5580 Y 6.9398 Z -1.0000
G03 X 35.5417 Y 6.9456 Z -1.0000 I -0.0441 J -0.0969
G01 X 35.5308 Y 6.9471 Z -1.0000
G01 X 35.5204 Y 6.9492 Z -1.0000
G01 X 35.5114 Y 6.9553 Z -1.0000
G01 X 35.5024 Y 6.9621 Z -1.0000
G03 X 35.4886 Y 6.9681 Z -1.0000 I -0.0361 J -0.0643
G01 X 35.4636 Y 6.9887 Z -1.0000
G02 X 35.4544 Y 7.0307 Z -1.0000 I 0.0672 J 0.0367
G02 X 35.4581 Y 7.0632 Z -1.0000 I 0.3892 J -0.0279
G01 X 35.4612 Y 7.0733 Z -1.0000
G01 X 35.4536 Y 7.0864 Z -1.0000
G03 X 35.4115 Y 7.0779 Z -1.0000 I -0.0069 J -0.0745
G03 X 35.3610 Y 7.0234 Z -1.0000 I 0.0540 J -0.1008
G03 X 35.3299 Y 6.8933 Z -1.0000 I 0.3384 J -0.1497
G02 X 35.3265 Y 6.8306 Z -1.0000 I -18.0444 J 0.9412
G02 X 35.3253 Y 6.8097 Z -1.0000 I -4.0176 J 0.2236
G01 X 35.3241 Y 6.7888 Z -1.0000
G01 X 35.2803 Y 6.7904 Z -1.0000
G01 X 35.2366 Y 6.7920 Z -1.0000
G01 X 35.2407 Y 6.7755 Z -1.0000
G03 X 35.2583 Y 6.7383 Z -1.0000 I 0.1001 J 0.0246
G01 X 35.2697 Y 6.7367 Z -1.0000
G01 X 35.2775 Y 6.7407 Z -1.0000
G02 X 35.3096 Y 6.7489 Z -1.0000 I 0.1034 J -0.3376
G01 X 35.3096 Y 6.7487 Z -1.0000
G00 Z 5.0000

(End cutting path id: path222635)


(Start cutting path id: path222635)
(Change tool to Default tool)

G00 Z 5.0000
G00 X 35.1881 Y 6.9480

G01 Z -1.0000 F 100.0000(Penetrate)
G01 X 35.1845 Y 6.9444 Z -1.0000 F 3500.0000
G01 X 35.1876 Y 6.9366 Z -1.0000
G01 X 35.1894 Y 6.9406 Z -1.0000
G01 X 35.1881 Y 6.9481 Z -1.0000
G01 X 35.1881 Y 6.9480 Z -1.0000
G00 Z 5.0000

(End cutting path id: path222635)


(Start cutting path id: path222635)
(Change tool to Default tool)

G00 Z 5.0000
G00 X 35.8920 Y 7.2335

G01 Z -1.0000 F 100.0000(Penetrate)
G02 X 35.9182 Y 7.2599 Z -1.0000 I 0.0703 J -0.0436 F 3500.0000
G02 X 35.9728 Y 7.2844 Z -1.0000 I 0.1138 J -0.1801
G03 X 36.0222 Y 7.3043 Z -1.0000 I -0.0723 J 0.2507
G03 X 36.0930 Y 7.3477 Z -1.0000 I -0.2991 J 0.5671
G03 X 36.1065 Y 7.3605 Z -1.0000 I -0.0382 J 0.0539
G03 X 36.1161 Y 7.3769 Z -1.0000 I -0.0535 J 0.0425
G02 X 36.1248 Y 7.3931 Z -1.0000 I 0.0852 J -0.0353
G01 X 36.1283 Y 7.3950 Z -1.0000
G01 X 36.1484 Y 7.4131 Z -1.0000
G03 X 36.1388 Y 7.4973 Z -1.0000 I -0.1975 J 0.0202
G01 X 36.1293 Y 7.5078 Z -1.0000
G03 X 36.0981 Y 7.5156 Z -1.0000 I -0.0380 J -0.0846
G02 X 36.0645 Y 7.5228 Z -1.0000 I 0.0091 J 0.1239
G02 X 36.0390 Y 7.5373 Z -1.0000 I 0.0309 J 0.0847
G03 X 36.0147 Y 7.5546 Z -1.0000 I -0.1676 J -0.2086
G01 X 36.0090 Y 7.5563 Z -1.0000
G01 X 36.0048 Y 7.5584 Z -1.0000
G01 X 36.0027 Y 7.5644 Z -1.0000
G01 X 36.0006 Y 7.5716 Z -1.0000
G03 X 35.9870 Y 7.5895 Z -1.0000 I -0.1022 J -0.0641
G01 X 35.9712 Y 7.6064 Z -1.0000
G01 X 35.9547 Y 7.5879 Z -1.0000
G03 X 35.9410 Y 7.5678 Z -1.0000 I 0.0688 J -0.0614
G03 X 35.9281 Y 7.5347 Z -1.0000 I 0.1753 J -0.0878
G02 X 35.9157 Y 7.5017 Z -1.0000 I -0.2163 J 0.0625
G01 X 35.9088 Y 7.4934 Z -1.0000
G01 X 35.9050 Y 7.4856 Z -1.0000
G01 X 35.9098 Y 7.4709 Z -1.0000
G01 X 35.9163 Y 7.4545 Z -1.0000
G01 X 35.9159 Y 7.4364 Z -1.0000
G03 X 35.9147 Y 7.4175 Z -1.0000 I 0.0591 J -0.0132
G03 X 35.9222 Y 7.3676 Z -1.0000 I 0.4458 J 0.0415
G02 X 35.9160 Y 7.3171 Z -1.0000 I -0.0776 J -0.0163
G01 X 35.8888 Y 7.2980 Z -1.0000
G03 X 35.8595 Y 7.2937 Z -1.0000 I 0.0292 J -0.3001
G01 X 35.8550 Y 7.2913 Z -1.0000
G01 X 35.8477 Y 7.2510 Z -1.0000
G01 X 35.8837 Y 7.2277 Z -1.0000
G01 X 35.8876 Y 7.2290 Z -1.0000
G01 X 35.8919 Y 7.2335 Z -1.0000
G01 X 35.8920 Y 7.2335 Z -1.0000
G00 Z 5.0000

(End cutting path id: path222635)


(Start cutting path id: path222635)
(Change tool to Default tool)

G00 Z 5.0000
G00 X 35.8898 Y 7.4187

G01 Z -1.0000 F 100.0000(Penetrate)
G01 X 35.8864 Y 7.4230 Z -1.0000 F 3500.0000
G02 X 35.8808 Y 7.4444 Z -1.0000 I 0.1392 J 0.0483
G03 X 35.8746 Y 7.4625 Z -1.0000 I -0.0648 J -0.0120
G01 X 35.8710 Y 7.4635 Z -1.0000
G01 X 35.8647 Y 7.4529 Z -1.0000
G03 X 35.8690 Y 7.4147 Z -1.0000 I 0.1253 J -0.0055
G01 X 35.8749 Y 7.4079 Z -1.0000
G01 X 35.8836 Y 7.4085 Z -1.0000
G01 X 35.8898 Y 7.4187 Z -1.0000
G01 X 35.8898 Y 7.4187 Z -1.0000
G00 Z 5.0000

(End cutting path id: path222635)


(Start cutting path id: path222635)
(Change tool to Default tool)

G00 Z 5.0000
G00 X 35.8834 Y 7.4927

G01 Z -1.0000 F 100.0000(Penetrate)
G01 X 35.8792 Y 7.4998 Z -1.0000 F 3500.0000
G02 X 35.8764 Y 7.5172 Z -1.0000 I 0.0701 J 0.0203
G01 X 35.8728 Y 7.5205 Z -1.0000
G02 X 35.8687 Y 7.5062 Z -1.0000 I -0.0746 J 0.0136
G01 X 35.8639 Y 7.4981 Z -1.0000
G01 X 35.8645 Y 7.4806 Z -1.0000
G01 X 35.8812 Y 7.4795 Z -1.0000
G01 X 35.8853 Y 7.4867 Z -1.0000
G01 X 35.8834 Y 7.4927 Z -1.0000
G01 X 35.8834 Y 7.4927 Z -1.0000
G00 Z 5.0000

(End cutting path id: path222635)


(Start cutting path id: path222635)
(Change tool to Default tool)

G00 Z 5.0000
G00 X 36.2457 Y 7.5848

G01 Z -1.0000 F 100.0000(Penetrate)
G01 X 36.2437 Y 7.5896 Z -1.0000 F 3500.0000
G02 X 36.2389 Y 7.6141 Z -1.0000 I 0.4182 J 0.0958
G01 X 36.2415 Y 7.6363 Z -1.0000
G01 X 36.2565 Y 7.6559 Z -1.0000
G03 X 36.2780 Y 7.6733 Z -1.0000 I -0.6471 J 0.8233
G03 X 36.2924 Y 7.6858 Z -1.0000 I -0.2872 J 0.3462
G02 X 36.3070 Y 7.6980 Z -1.0000 I 0.1643 J -0.1805
G01 X 36.3116 Y 7.7007 Z -1.0000
G03 X 36.3396 Y 7.7227 Z -1.0000 I -0.0271 J 0.0635
G03 X 36.3730 Y 7.7823 Z -1.0000 I -0.2021 J 0.1522
G01 X 36.3716 Y 7.8187 Z -1.0000
G01 X 36.3505 Y 7.8286 Z -1.0000
G02 X 36.3342 Y 7.8250 Z -1.0000 I -0.0790 J 0.3197
G02 X 36.3220 Y 7.8231 Z -1.0000 I -0.0320 J 0.1651
G03 X 36.3101 Y 7.8205 Z -1.0000 I 0.0083 J -0.0684
G01 X 36.3026 Y 7.8172 Z -1.0000
G01 X 36.2979 Y 7.8173 Z -1.0000
G01 X 36.2954 Y 7.8221 Z -1.0000
G01 X 36.2981 Y 7.8286 Z -1.0000
G01 X 36.3049 Y 7.8314 Z -1.0000
G01 X 36.3107 Y 7.8339 Z -1.0000
G01 X 36.3118 Y 7.8389 Z -1.0000
G01 X 36.3129 Y 7.8450 Z -1.0000
G02 X 36.3266 Y 7.8569 Z -1.0000 I 0.0423 J -0.0347
G01 X 36.3372 Y 7.8707 Z -1.0000
G03 X 36.3398 Y 7.9017 Z -1.0000 I -0.0739 J 0.0218
G02 X 36.3362 Y 7.9360 Z -1.0000 I 0.9101 J 0.1112
G02 X 36.3339 Y 7.9706 Z -1.0000 I 1.0940 J 0.0921
G02 X 36.3379 Y 7.9976 Z -1.0000 I 0.0676 J 0.0037
G01 X 36.3451 Y 8.0011 Z -1.0000
G02 X 36.3575 Y 7.9961 Z -1.0000 I -0.0223 J -0.0730
G01 X 36.3611 Y 7.9931 Z -1.0000
G01 X 36.3648 Y 7.9906 Z -1.0000
G03 X 36.3790 Y 7.9882 Z -1.0000 I 0.0184 J 0.0676
G01 X 36.3938 Y 7.9818 Z -1.0000
G01 X 36.3969 Y 7.9712 Z -1.0000
G01 X 36.3976 Y 7.9679 Z -1.0000
G01 X 36.4039 Y 7.9622 Z -1.0000
G01 X 36.4044 Y 7.9571 Z -1.0000
G01 X 36.3992 Y 7.9547 Z -1.0000
G01 X 36.3969 Y 7.9488 Z -1.0000
G01 X 36.3941 Y 7.9425 Z -1.0000
G02 X 36.3789 Y 7.9330 Z -1.0000 I -0.0363 J 0.0415
G03 X 36.3617 Y 7.9245 Z -1.0000 I 0.0549 J -0.1326
G01 X 36.3579 Y 7.9208 Z -1.0000
G01 X 36.3577 Y 7.8780 Z -1.0000
G01 X 36.3981 Y 7.8554 Z -1.0000
G01 X 36.4029 Y 7.8571 Z -1.0000
G03 X 36.4318 Y 7.8838 Z -1.0000 I -0.2915 J 0.3458
G02 X 36.5120 Y 7.9582 Z -1.0000 I 0.9864 J -0.9830
G02 X 36.5436 Y 7.9796 Z -1.0000 I 0.1100 J -0.1284
G03 X 36.5562 Y 7.9884 Z -1.0000 I -0.0278 J 0.0530
G01 X 36.5582 Y 7.9930 Z -1.0000
G01 X 36.5603 Y 7.9968 Z -1.0000
G01 X 36.5670 Y 7.9988 Z -1.0000
G01 X 36.5736 Y 8.0018 Z -1.0000
G01 X 36.5795 Y 8.0133 Z -1.0000
G01 X 36.5855 Y 8.0263 Z -1.0000
G02 X 36.5976 Y 8.0387 Z -1.0000 I 0.0460 J -0.0328
G01 X 36.6083 Y 8.0513 Z -1.0000
G01 X 36.6120 Y 8.0660 Z -1.0000
G01 X 36.6145 Y 8.0800 Z -1.0000
G01 X 36.6180 Y 8.0825 Z -1.0000
G01 X 36.6213 Y 8.0851 Z -1.0000
G03 X 36.6240 Y 8.1064 Z -1.0000 I -0.0848 J 0.0213
G01 X 36.6307 Y 8.1091 Z -1.0000
G01 X 36.6396 Y 8.0900 Z -1.0000
G02 X 36.6442 Y 8.0496 Z -1.0000 I -6.3426 J -0.7435
G02 X 36.6446 Y 8.0456 Z -1.0000 I -0.2028 J -0.0225
G01 X 36.6510 Y 8.0371 Z -1.0000
G01 X 36.6594 Y 8.0399 Z -1.0000
G01 X 36.6685 Y 8.0255 Z -1.0000
G02 X 36.6699 Y 8.0042 Z -1.0000 I -0.0889 J -0.0166
G01 X 36.6672 Y 7.9995 Z -1.0000
G01 X 36.6625 Y 7.9950 Z -1.0000
G03 X 36.6364 Y 7.9586 Z -1.0000 I 0.7174 J -0.5412
G02 X 36.6095 Y 7.9227 Z -1.0000 I -0.3979 J 0.2701
G02 X 36.5956 Y 7.9091 Z -1.0000 I -0.0701 J 0.0578
G03 X 36.5067 Y 7.8294 Z -1.0000 I 0.5786 J -0.7357
G03 X 36.4623 Y 7.7734 Z -1.0000 I 0.2395 J -0.2354
G03 X 36.4397 Y 7.7359 Z -1.0000 I 0.8632 J -0.5451
G01 X 36.4388 Y 7.7324 Z -1.0000
G02 X 36.4264 Y 7.6949 Z -1.0000 I -0.0631 J -0.0000
G02 X 36.3646 Y 7.6322 Z -1.0000 I -0.2519 J 0.1865
G02 X 36.2678 Y 7.5775 Z -1.0000 I -0.2462 J 0.3228
G01 X 36.2456 Y 7.5851 Z -1.0000
G01 X 36.2457 Y 7.5848 Z -1.0000
G00 Z 5.0000

(End cutting path id: path222635)


(Start cutting path id: path222635)
(Change tool to Default tool)

G00 Z 5.0000
G00 X 36.3129 Y 8.0808

G01 Z -1.0000 F 100.0000(Penetrate)
G02 X 36.3126 Y 8.0913 Z -1.0000 I 0.2200 J 0.0106 F 3500.0000
G02 X 36.3128 Y 8.1420 Z -1.0000 I 5.1118 J 0.0021
G02 X 36.3189 Y 8.2203 Z -1.0000 I 0.5771 J -0.0055
G01 X 36.3251 Y 8.2257 Z -1.0000
G01 X 36.3283 Y 8.2277 Z -1.0000
G03 X 36.3337 Y 8.2460 Z -1.0000 I -0.0772 J 0.0330
G02 X 36.3399 Y 8.2650 Z -1.0000 I 0.0780 J -0.0147
G01 X 36.3467 Y 8.2739 Z -1.0000
G01 X 36.3548 Y 8.2825 Z -1.0000
G03 X 36.3653 Y 8.2996 Z -1.0000 I -0.1118 J 0.0803
G02 X 36.3882 Y 8.3261 Z -1.0000 I 0.0664 J -0.0343
G02 X 36.4187 Y 8.3378 Z -1.0000 I 0.0378 J -0.0529
G03 X 36.4436 Y 8.3437 Z -1.0000 I -0.0121 J 0.1059
G01 X 36.4489 Y 8.3490 Z -1.0000
G01 X 36.4539 Y 8.3544 Z -1.0000
G01 X 36.4660 Y 8.3571 Z -1.0000
G01 X 36.4788 Y 8.3591 Z -1.0000
G01 X 36.4834 Y 8.3627 Z -1.0000
G01 X 36.4882 Y 8.3658 Z -1.0000
G02 X 36.5173 Y 8.3676 Z -1.0000 I 0.0249 J -0.1727
G03 X 36.5455 Y 8.3708 Z -1.0000 I 0.0024 J 0.1036
G01 X 36.5533 Y 8.3769 Z -1.0000
G01 X 36.5695 Y 8.3854 Z -1.0000
G01 X 36.5907 Y 8.3735 Z -1.0000
G01 X 36.5973 Y 8.3671 Z -1.0000
G01 X 36.5967 Y 8.3733 Z -1.0000
G01 X 36.6000 Y 8.3779 Z -1.0000
G01 X 36.6038 Y 8.3776 Z -1.0000
G01 X 36.6061 Y 8.3725 Z -1.0000
G01 X 36.6087 Y 8.3670 Z -1.0000
G01 X 36.6136 Y 8.3661 Z -1.0000
G01 X 36.6261 Y 8.3597 Z -1.0000
G02 X 36.6401 Y 8.2684 Z -1.0000 I -0.3988 J -0.1082
G01 X 36.6438 Y 8.1777 Z -1.0000
G01 X 36.6282 Y 8.1777 Z -1.0000
G01 X 36.6146 Y 8.1811 Z -1.0000
G01 X 36.6063 Y 8.1893 Z -1.0000
G01 X 36.5974 Y 8.1958 Z -1.0000
G03 X 36.5593 Y 8.1975 Z -1.0000 I -0.0257 J -0.1472
G02 X 36.5069 Y 8.2078 Z -1.0000 I -0.0081 J 0.0976
G02 X 36.4772 Y 8.2391 Z -1.0000 I 0.0290 J 0.0573
G01 X 36.4506 Y 8.2601 Z -1.0000
G01 X 36.4243 Y 8.2489 Z -1.0000
G03 X 36.4105 Y 8.2235 Z -1.0000 I 0.1349 J -0.0895
G03 X 36.4012 Y 8.1955 Z -1.0000 I 0.1562 J -0.0673
G01 X 36.3811 Y 8.1714 Z -1.0000
G01 X 36.3576 Y 8.1766 Z -1.0000
G01 X 36.3439 Y 8.1861 Z -1.0000
G01 X 36.3378 Y 8.1840 Z -1.0000
G01 X 36.3346 Y 8.1749 Z -1.0000
G03 X 36.3354 Y 8.1587 Z -1.0000 I 0.0555 J -0.0053
G01 X 36.3355 Y 8.1425 Z -1.0000
G02 X 36.3285 Y 8.1206 Z -1.0000 I -0.0863 J 0.0157
G03 X 36.3214 Y 8.0988 Z -1.0000 I 0.0808 J -0.0381
G01 X 36.3219 Y 8.0847 Z -1.0000
G01 X 36.3223 Y 8.0727 Z -1.0000
G01 X 36.3194 Y 8.0702 Z -1.0000
G01 X 36.3154 Y 8.0724 Z -1.0000
G01 X 36.3128 Y 8.0807 Z -1.0000
G01 X 36.3129 Y 8.0808 Z -1.0000
G00 Z 5.0000

(End cutting path id: path222635)


(Start cutting path id: path222635)
(Change tool to Default tool)

G00 Z 5.0000
G00 X 36.6238 Y 8.1486

G01 Z -1.0000 F 100.0000(Penetrate)
G01 X 36.6204 Y 8.1607 Z -1.0000 F 3500.0000
G01 X 36.6228 Y 8.1670 Z -1.0000
G01 X 36.6313 Y 8.1544 Z -1.0000
G01 X 36.6285 Y 8.1476 Z -1.0000
G01 X 36.6238 Y 8.1486 Z -1.0000
G01 X 36.6238 Y 8.1486 Z -1.0000
G00 Z 5.0000

(End cutting path id: path222635)


(Start cutting path id: path222635)
(Change tool to Default tool)

G00 Z 5.0000
G00 X 36.7077 Y 8.2985

G01 Z -1.0000 F 100.0000(Penetrate)
G01 X 36.7053 Y 8.3063 Z -1.0000 F 3500.0000
G01 X 36.6987 Y 8.3115 Z -1.0000
G01 X 36.6921 Y 8.3165 Z -1.0000
G01 X 36.6897 Y 8.3233 Z -1.0000
G01 X 36.6878 Y 8.3308 Z -1.0000
G01 X 36.6808 Y 8.3392 Z -1.0000
G01 X 36.6740 Y 8.3477 Z -1.0000
G01 X 36.6718 Y 8.3570 Z -1.0000
G02 X 36.6829 Y 8.3897 Z -1.0000 I 0.0534 J -0.0000
G01 X 36.7037 Y 8.3984 Z -1.0000
G01 X 36.7379 Y 8.4081 Z -1.0000
G01 X 36.7458 Y 8.4323 Z -1.0000
G01 X 36.7495 Y 8.4533 Z -1.0000
G02 X 36.8077 Y 8.5225 Z -1.0000 I 0.3801 J -0.2606
G03 X 36.8246 Y 8.5425 Z -1.0000 I -0.0963 J 0.0986
G01 X 36.8271 Y 8.5505 Z -1.0000
G01 X 36.8298 Y 8.5575 Z -1.0000
G01 X 36.8384 Y 8.5631 Z -1.0000
G01 X 36.8479 Y 8.5690 Z -1.0000
G03 X 36.8662 Y 8.5918 Z -1.0000 I -0.1112 J 0.1077
G02 X 36.8846 Y 8.6155 Z -1.0000 I 0.1594 J -0.1047
G02 X 36.9428 Y 8.6760 Z -1.0000 I 1.0973 J -0.9987
G03 X 37.0017 Y 8.7361 Z -1.0000 I -1.5068 J 1.5366
G03 X 37.0105 Y 8.7477 Z -1.0000 I -0.0478 J 0.0451
G03 X 37.0310 Y 8.7960 Z -1.0000 I -0.1721 J 0.1015
G03 X 37.0386 Y 8.8495 Z -1.0000 I -0.2036 J 0.0562
G01 X 37.0412 Y 8.8868 Z -1.0000
G01 X 37.0451 Y 8.8794 Z -1.0000
G01 X 37.0509 Y 8.8770 Z -1.0000
G01 X 37.0553 Y 8.8735 Z -1.0000
G02 X 37.0615 Y 8.8316 Z -1.0000 I -0.2494 J -0.0584
G03 X 37.0696 Y 8.7888 Z -1.0000 I 0.1802 J 0.0118
G01 X 37.0802 Y 8.7727 Z -1.0000
G02 X 37.0939 Y 8.7581 Z -1.0000 I -0.0603 J -0.0699
G01 X 37.0960 Y 8.7515 Z -1.0000
G01 X 37.0907 Y 8.7329 Z -1.0000
G02 X 37.0487 Y 8.6760 Z -1.0000 I -0.3939 J 0.2471
G02 X 36.9823 Y 8.5994 Z -1.0000 I -19.1191 J 16.5083
G02 X 36.9557 Y 8.5693 Z -1.0000 I -2.8478 J 2.4789
G03 X 36.9353 Y 8.5448 Z -1.0000 I 0.3910 J -0.3476
G03 X 36.9205 Y 8.5245 Z -1.0000 I 0.2527 J -0.1984
G03 X 36.8715 Y 8.4462 Z -1.0000 I 1.3955 J -0.9292
G01 X 36.8690 Y 8.4369 Z -1.0000
G02 X 36.8191 Y 8.3182 Z -1.0000 I -0.1662 J 0.0000
G02 X 36.7287 Y 8.2995 Z -1.0000 I -0.0598 J 0.0610
G01 X 36.7216 Y 8.2999 Z -1.0000
G01 X 36.7144 Y 8.2957 Z -1.0000
G01 X 36.7101 Y 8.2949 Z -1.0000
G01 X 36.7077 Y 8.2985 Z -1.0000
G01 X 36.7077 Y 8.2985 Z -1.0000
G00 Z 5.0000

(End cutting path id: path222635)


(Start cutting path id: path222635)
(Change tool to Default tool)

G00 Z 5.0000
G00 X 36.7137 Y 8.4225

G01 Z -1.0000 F 100.0000(Penetrate)
G01 X 36.7152 Y 8.4273 Z -1.0000 F 3500.0000
G01 X 36.7197 Y 8.4318 Z -1.0000
G01 X 36.7235 Y 8.4314 Z -1.0000
G01 X 36.7257 Y 8.4262 Z -1.0000
G01 X 36.7236 Y 8.4190 Z -1.0000
G01 X 36.7197 Y 8.4169 Z -1.0000
G01 X 36.7154 Y 8.4186 Z -1.0000
G01 X 36.7137 Y 8.4225 Z -1.0000
G01 X 36.7137 Y 8.4225 Z -1.0000
G00 Z 5.0000

(End cutting path id: path222635)


(Start cutting path id: path222635)
(Change tool to Default tool)

G00 Z 5.0000
G00 X 36.7717 Y 8.6537

G01 Z -1.0000 F 100.0000(Penetrate)
G01 X 36.7691 Y 8.6585 Z -1.0000 F 3500.0000
G02 X 36.7676 Y 8.6742 Z -1.0000 I 0.0799 J 0.0157
G01 X 36.7718 Y 8.6851 Z -1.0000
G01 X 36.7796 Y 8.6875 Z -1.0000
G01 X 36.7906 Y 8.6829 Z -1.0000
G01 X 36.7953 Y 8.6785 Z -1.0000
G01 X 36.7927 Y 8.6540 Z -1.0000
G01 X 36.7717 Y 8.6537 Z -1.0000
G01 X 36.7717 Y 8.6537 Z -1.0000
G00 Z 5.0000

(End cutting path id: path222635)


(Start cutting path id: path222635)
(Change tool to Default tool)

G00 Z 5.0000
G00 X 36.7403 Y 8.7149

G01 Z -1.0000 F 100.0000(Penetrate)
G01 X 36.7387 Y 8.7181 Z -1.0000 F 3500.0000
G02 X 36.7376 Y 8.7321 Z -1.0000 I 0.0898 J 0.0140
G01 X 36.7341 Y 8.7439 Z -1.0000
G01 X 36.7263 Y 8.7496 Z -1.0000
G01 X 36.7177 Y 8.7552 Z -1.0000
G01 X 36.7117 Y 8.7684 Z -1.0000
G03 X 36.7083 Y 8.7842 Z -1.0000 I -1.2073 J -0.2498
G03 X 36.7043 Y 8.8016 Z -1.0000 I -0.8751 J -0.1931
G01 X 36.7093 Y 8.8045 Z -1.0000
G01 X 36.7200 Y 8.7864 Z -1.0000
G03 X 36.7296 Y 8.7651 Z -1.0000 I 0.0705 J 0.0190
G01 X 36.7381 Y 8.7590 Z -1.0000
G01 X 36.7461 Y 8.7534 Z -1.0000
G01 X 36.7496 Y 8.7418 Z -1.0000
G01 X 36.7528 Y 8.7307 Z -1.0000
G01 X 36.7586 Y 8.7275 Z -1.0000
G01 X 36.7650 Y 8.7250 Z -1.0000
G01 X 36.7676 Y 8.7189 Z -1.0000
G01 X 36.7589 Y 8.7088 Z -1.0000
G01 X 36.7404 Y 8.7148 Z -1.0000
G01 X 36.7403 Y 8.7149 Z -1.0000
G00 Z 5.0000

(End cutting path id: path222635)


(Start cutting path id: path222635)
(Change tool to Default tool)

G00 Z 5.0000
G00 X 36.6956 Y 8.8352

G01 Z -1.0000 F 100.0000(Penetrate)
G01 X 36.6935 Y 8.8399 Z -1.0000 F 3500.0000
G01 X 36.6971 Y 8.8443 Z -1.0000
G01 X 36.7072 Y 8.8466 Z -1.0000
G01 X 36.7179 Y 8.8459 Z -1.0000
G01 X 36.7203 Y 8.8424 Z -1.0000
G01 X 36.7164 Y 8.8368 Z -1.0000
G01 X 36.7042 Y 8.8331 Z -1.0000
G01 X 36.6956 Y 8.8352 Z -1.0000
G01 X 36.6956 Y 8.8352 Z -1.0000
G00 Z 5.0000

(End cutting path id: path222635)


(Start cutting path id: path222635)
(Change tool to Default tool)

G00 Z 5.0000
G00 X 36.7447 Y 8.9105

G01 Z -1.0000 F 100.0000(Penetrate)
G01 X 36.7376 Y 8.9172 Z -1.0000 F 3500.0000
G01 X 36.7241 Y 8.9202 Z -1.0000
G01 X 36.7127 Y 8.9248 Z -1.0000
G01 X 36.7053 Y 8.9383 Z -1.0000
G02 X 36.7044 Y 8.9556 Z -1.0000 I 0.0585 J 0.0118
G01 X 36.7076 Y 8.9635 Z -1.0000
G01 X 36.7112 Y 8.9705 Z -1.0000
G01 X 36.7101 Y 8.9741 Z -1.0000
G01 X 36.7191 Y 8.9842 Z -1.0000
G01 X 36.7279 Y 8.9931 Z -1.0000
G01 X 36.7316 Y 9.0082 Z -1.0000
G01 X 36.7406 Y 9.0352 Z -1.0000
G01 X 36.7586 Y 9.0442 Z -1.0000
G01 X 36.7656 Y 9.0464 Z -1.0000
G01 X 36.7746 Y 9.0551 Z -1.0000
G01 X 36.7837 Y 9.0646 Z -1.0000
G02 X 36.8110 Y 9.0828 Z -1.0000 I 0.1640 J -0.2165
G02 X 36.8405 Y 9.0948 Z -1.0000 I 0.0570 J -0.0979
G02 X 36.8629 Y 9.0957 Z -1.0000 I 0.0135 J -0.0541
G03 X 36.8849 Y 9.0958 Z -1.0000 I 0.0109 J 0.0697
G01 X 36.8950 Y 9.1009 Z -1.0000
G01 X 36.9239 Y 9.1107 Z -1.0000
G01 X 36.9449 Y 9.0941 Z -1.0000
G01 X 36.9498 Y 9.0888 Z -1.0000
G01 X 36.9623 Y 9.0860 Z -1.0000
G01 X 36.9742 Y 9.0836 Z -1.0000
G01 X 36.9766 Y 9.0800 Z -1.0000
G01 X 36.9785 Y 9.0760 Z -1.0000
G01 X 36.9841 Y 9.0740 Z -1.0000
G01 X 36.9896 Y 9.0709 Z -1.0000
G02 X 37.0139 Y 9.0238 Z -1.0000 I -0.3893 J -0.2306
G02 X 37.0315 Y 8.9727 Z -1.0000 I -0.2849 J -0.1265
G02 X 37.0347 Y 8.9402 Z -1.0000 I -0.1109 J -0.0276
G01 X 37.0282 Y 8.9199 Z -1.0000
G01 X 37.0221 Y 8.9210 Z -1.0000
G01 X 37.0078 Y 8.9366 Z -1.0000
G01 X 36.9785 Y 8.9362 Z -1.0000
G02 X 36.8927 Y 8.9290 Z -1.0000 I -0.0554 J 0.1456
G01 X 36.8690 Y 8.9580 Z -1.0000
G03 X 36.8578 Y 8.9972 Z -1.0000 I -0.0745 J -0.0000
G01 X 36.8379 Y 9.0083 Z -1.0000
G03 X 36.7816 Y 8.9869 Z -1.0000 I 0.0000 J -0.0844
G01 X 36.7768 Y 8.9538 Z -1.0000
G01 X 36.7776 Y 8.9328 Z -1.0000
G01 X 36.7632 Y 8.9273 Z -1.0000
G01 X 36.7584 Y 8.9256 Z -1.0000
G01 X 36.7569 Y 8.9158 Z -1.0000
G01 X 36.7526 Y 8.9078 Z -1.0000
G01 X 36.7446 Y 8.9105 Z -1.0000
G01 X 36.7447 Y 8.9105 Z -1.0000
G00 Z 5.0000

(End cutting path id: path222635)


(Start cutting path id: path222635)
(Change tool to Default tool)

G00 Z 5.0000
G00 X 37.0839 Y 9.0898

G01 Z -1.0000 F 100.0000(Penetrate)
G02 X 37.0808 Y 9.1193 Z -1.0000 I 0.0540 J 0.0206 F 3500.0000
G01 X 37.0901 Y 9.1296 Z -1.0000
G01 X 37.0978 Y 9.1361 Z -1.0000
G01 X 37.1021 Y 9.1562 Z -1.0000
G02 X 37.1061 Y 9.1778 Z -1.0000 I 0.0602 J -0.0000
G01 X 37.1163 Y 9.1930 Z -1.0000
G03 X 37.1274 Y 9.2080 Z -1.0000 I -0.0353 J 0.0377
G03 X 37.1343 Y 9.2297 Z -1.0000 I -0.0696 J 0.0340
G02 X 37.1415 Y 9.2509 Z -1.0000 I 0.0653 J -0.0106
G01 X 37.1523 Y 9.2625 Z -1.0000
G01 X 37.1643 Y 9.2737 Z -1.0000
G03 X 37.1738 Y 9.2910 Z -1.0000 I -0.0558 J 0.0418
G02 X 37.2038 Y 9.3514 Z -1.0000 I 0.3097 J -0.1165
G02 X 37.2324 Y 9.3837 Z -1.0000 I 0.1142 J -0.0723
G03 X 37.2565 Y 9.4067 Z -1.0000 I -0.1358 J 0.1658
G01 X 37.2639 Y 9.4189 Z -1.0000
G01 X 37.2711 Y 9.4297 Z -1.0000
G01 X 37.2782 Y 9.4326 Z -1.0000
G01 X 37.2846 Y 9.4353 Z -1.0000
G01 X 37.2873 Y 9.4421 Z -1.0000
G01 X 37.2902 Y 9.4494 Z -1.0000
G01 X 37.2993 Y 9.4548 Z -1.0000
G01 X 37.3088 Y 9.4597 Z -1.0000
G01 X 37.3112 Y 9.4648 Z -1.0000
G01 X 37.3130 Y 9.4709 Z -1.0000
G02 X 37.3261 Y 9.4877 Z -1.0000 I 0.1040 J -0.0678
G03 X 37.3394 Y 9.5045 Z -1.0000 I -0.1029 J 0.0948
G01 X 37.3411 Y 9.5101 Z -1.0000
G01 X 37.3514 Y 9.5197 Z -1.0000
G02 X 37.3876 Y 9.5070 Z -1.0000 I -0.0047 J -0.0711
G01 X 37.3976 Y 9.4866 Z -1.0000
G01 X 37.3859 Y 9.4635 Z -1.0000
G03 X 37.3734 Y 9.4506 Z -1.0000 I 0.0418 J -0.0528
G01 X 37.3709 Y 9.4431 Z -1.0000
G01 X 37.3688 Y 9.4352 Z -1.0000
G02 X 37.3575 Y 9.4198 Z -1.0000 I -0.0769 J 0.0446
G03 X 37.3442 Y 9.4050 Z -1.0000 I 0.4967 J -0.4595
G03 X 37.3276 Y 9.3855 Z -1.0000 I 1.0088 J -0.8798
G02 X 37.3086 Y 9.3712 Z -1.0000 I -0.0411 J 0.0344
G02 X 37.2842 Y 9.3659 Z -1.0000 I -0.0244 J 0.0538
G01 X 37.2642 Y 9.3574 Z -1.0000
G01 X 37.2627 Y 9.3438 Z -1.0000
G01 X 37.2646 Y 9.3354 Z -1.0000
G01 X 37.2597 Y 9.3199 Z -1.0000
G03 X 37.2531 Y 9.3037 Z -1.0000 I 0.0859 J -0.0444
G01 X 37.2513 Y 9.2922 Z -1.0000
G01 X 37.2491 Y 9.2809 Z -1.0000
G02 X 37.2423 Y 9.2686 Z -1.0000 I -0.0472 J 0.0182
G03 X 37.2355 Y 9.2564 Z -1.0000 I 0.0423 J -0.0318
G01 X 37.2335 Y 9.2462 Z -1.0000
G01 X 37.2315 Y 9.2375 Z -1.0000
G01 X 37.2282 Y 9.2354 Z -1.0000
G01 X 37.2243 Y 9.2336 Z -1.0000
G01 X 37.2194 Y 9.2250 Z -1.0000
G02 X 37.2153 Y 9.2147 Z -1.0000 I -0.0793 J 0.0260
G02 X 37.2102 Y 9.2055 Z -1.0000 I -0.0842 J 0.0405
G03 X 37.2051 Y 9.1964 Z -1.0000 I 0.0821 J -0.0519
G03 X 37.1947 Y 9.1738 Z -1.0000 I 0.4953 J -0.2427
G02 X 37.1830 Y 9.1529 Z -1.0000 I -0.1124 J 0.0494
G01 X 37.1765 Y 9.1479 Z -1.0000
G01 X 37.1699 Y 9.1431 Z -1.0000
G01 X 37.1644 Y 9.1327 Z -1.0000
G02 X 37.1595 Y 9.1212 Z -1.0000 I -0.0613 J 0.0195
G02 X 37.1459 Y 9.0990 Z -1.0000 I -0.2424 J 0.1331
G02 X 37.1285 Y 9.0821 Z -1.0000 I -0.0504 J 0.0342
G01 X 37.1104 Y 9.0761 Z -1.0000
G01 X 37.0927 Y 9.0798 Z -1.0000
G01 X 37.0838 Y 9.0897 Z -1.0000
G01 X 37.0839 Y 9.0898 Z -1.0000
G00 Z 5.0000

(End cutting path id: path222635)


(Start cutting path id: path222635)
(Change tool to Default tool)

G00 Z 5.0000
G00 X 37.1113 Y 9.3964

G01 Z -1.0000 F 100.0000(Penetrate)
G01 X 37.1106 Y 9.4014 Z -1.0000 F 3500.0000
G01 X 37.1139 Y 9.4057 Z -1.0000
G01 X 37.1177 Y 9.4054 Z -1.0000
G01 X 37.1200 Y 9.4001 Z -1.0000
G01 X 37.1165 Y 9.3947 Z -1.0000
G01 X 37.1113 Y 9.3963 Z -1.0000
G01 X 37.1113 Y 9.3964 Z -1.0000
G00 Z 5.0000

(End cutting path id: path222635)


(Start cutting path id: path222635)
(Change tool to Default tool)

G00 Z 5.0000
G00 X 37.0125 Y 9.5910

G01 Z -1.0000 F 100.0000(Penetrate)
G01 X 37.0146 Y 9.5979 Z -1.0000 F 3500.0000
G01 X 37.0185 Y 9.6000 Z -1.0000
G01 X 37.0224 Y 9.5979 Z -1.0000
G01 X 37.0245 Y 9.5910 Z -1.0000
G01 X 37.0224 Y 9.5841 Z -1.0000
G01 X 37.0185 Y 9.5820 Z -1.0000
G01 X 37.0146 Y 9.5841 Z -1.0000
G01 X 37.0125 Y 9.5910 Z -1.0000
G01 X 37.0125 Y 9.5910 Z -1.0000
G00 Z 5.0000

(End cutting path id: path222635)


(Start cutting path id: path222635)
(Change tool to Default tool)

G00 Z 5.0000
G00 X 37.0215 Y 9.6179

G01 Z -1.0000 F 100.0000(Penetrate)
G01 X 37.0219 Y 9.6221 Z -1.0000 F 3500.0000
G01 X 37.0194 Y 9.6239 Z -1.0000
G01 X 36.9921 Y 9.6484 Z -1.0000
G01 X 37.0122 Y 9.6894 Z -1.0000
G01 X 37.0168 Y 9.6952 Z -1.0000
G03 X 37.0220 Y 9.7171 Z -1.0000 I -0.0921 J 0.0332
G02 X 37.0275 Y 9.7395 Z -1.0000 I 0.0987 J -0.0123
G02 X 37.0385 Y 9.7613 Z -1.0000 I 0.1032 J -0.0384
G03 X 37.0514 Y 9.7826 Z -1.0000 I -0.3029 J 0.1976
G03 X 37.0560 Y 9.7927 Z -1.0000 I -0.0635 J 0.0354
G01 X 37.0616 Y 9.8007 Z -1.0000
G01 X 37.0684 Y 9.8032 Z -1.0000
G01 X 37.0747 Y 9.8058 Z -1.0000
G01 X 37.0799 Y 9.8150 Z -1.0000
G01 X 37.0856 Y 9.8245 Z -1.0000
G01 X 37.0999 Y 9.8333 Z -1.0000
G03 X 37.1158 Y 9.8410 Z -1.0000 I -0.0338 J 0.0897
G01 X 37.1205 Y 9.8457 Z -1.0000
G01 X 37.1254 Y 9.8497 Z -1.0000
G02 X 37.1445 Y 9.8537 Z -1.0000 I 0.0277 J -0.0832
G03 X 37.1647 Y 9.8564 Z -1.0000 I -0.0281 J 0.2854
G03 X 37.1808 Y 9.8598 Z -1.0000 I -0.0361 J 0.2114
G01 X 37.1946 Y 9.8591 Z -1.0000
G01 X 37.2034 Y 9.8515 Z -1.0000
G01 X 37.2116 Y 9.8450 Z -1.0000
G01 X 37.2218 Y 9.8464 Z -1.0000
G01 X 37.2315 Y 9.8549 Z -1.0000
G01 X 37.2336 Y 9.8607 Z -1.0000
G01 X 37.2356 Y 9.8661 Z -1.0000
G01 X 37.2426 Y 9.8710 Z -1.0000
G01 X 37.2491 Y 9.8709 Z -1.0000
G01 X 37.2517 Y 9.8672 Z -1.0000
G01 X 37.2537 Y 9.8608 Z -1.0000
G03 X 37.2666 Y 9.8458 Z -1.0000 I 0.0812 J 0.0570
G02 X 37.2792 Y 9.8308 Z -1.0000 I -0.0571 J -0.0608
G01 X 37.2814 Y 9.8234 Z -1.0000
G01 X 37.2866 Y 9.8179 Z -1.0000
G01 X 37.2982 Y 9.8222 Z -1.0000
G01 X 37.3055 Y 9.8237 Z -1.0000
G01 X 37.3112 Y 9.8268 Z -1.0000
G01 X 37.3159 Y 9.8286 Z -1.0000
G01 X 37.3209 Y 9.8238 Z -1.0000
G03 X 37.3255 Y 9.8122 Z -1.0000 I 0.1612 J 0.0570
G03 X 37.3429 Y 9.7737 Z -1.0000 I 1.6640 J 0.7298
G02 X 37.3563 Y 9.7356 Z -1.0000 I -0.1861 J -0.0868
G01 X 37.3546 Y 9.7259 Z -1.0000
G01 X 37.3473 Y 9.7195 Z -1.0000
G01 X 37.3403 Y 9.7190 Z -1.0000
G01 X 37.3322 Y 9.7207 Z -1.0000
G03 X 37.3144 Y 9.7220 Z -1.0000 I -0.0245 J -0.2187
G02 X 37.2969 Y 9.7240 Z -1.0000 I 0.0024 J 0.0979
G01 X 37.2890 Y 9.7273 Z -1.0000
G01 X 37.2843 Y 9.7269 Z -1.0000
G01 X 37.2815 Y 9.7205 Z -1.0000
G01 X 37.2781 Y 9.7116 Z -1.0000
G01 X 37.2680 Y 9.7056 Z -1.0000
G03 X 37.2547 Y 9.7022 Z -1.0000 I 0.1114 J -0.4581
G03 X 37.2421 Y 9.6985 Z -1.0000 I 0.1185 J -0.4318
G01 X 37.2314 Y 9.6995 Z -1.0000
G01 X 37.2191 Y 9.7108 Z -1.0000
G02 X 37.2095 Y 9.7273 Z -1.0000 I 0.1513 J 0.0986
G01 X 37.2075 Y 9.7336 Z -1.0000
G01 X 37.2057 Y 9.7401 Z -1.0000
G01 X 37.2018 Y 9.7478 Z -1.0000
G01 X 37.2013 Y 9.7530 Z -1.0000
G01 X 37.2047 Y 9.7553 Z -1.0000
G01 X 37.2050 Y 9.7625 Z -1.0000
G01 X 37.1998 Y 9.7704 Z -1.0000
G01 X 37.1978 Y 9.7811 Z -1.0000
G01 X 37.1946 Y 9.7878 Z -1.0000
G01 X 37.1883 Y 9.7889 Z -1.0000
G02 X 37.1787 Y 9.7862 Z -1.0000 I -0.0188 J 0.0490
G02 X 37.1683 Y 9.7853 Z -1.0000 I -0.0104 J 0.0582
G01 X 37.1586 Y 9.7830 Z -1.0000
G03 X 37.1440 Y 9.7733 Z -1.0000 I 0.0305 J -0.0619
G02 X 37.1297 Y 9.7627 Z -1.0000 I -0.0775 J 0.0892
G01 X 37.1252 Y 9.7614 Z -1.0000
G01 X 37.1220 Y 9.7595 Z -1.0000
G01 X 37.1201 Y 9.7524 Z -1.0000
G01 X 37.1176 Y 9.7459 Z -1.0000
G01 X 37.1119 Y 9.7434 Z -1.0000
G01 X 37.1062 Y 9.7403 Z -1.0000
G01 X 37.1001 Y 9.7254 Z -1.0000
G01 X 37.0939 Y 9.7105 Z -1.0000
G01 X 37.0883 Y 9.7075 Z -1.0000
G01 X 37.0824 Y 9.7044 Z -1.0000
G03 X 37.0723 Y 9.6836 Z -1.0000 I 0.0710 J -0.0476
G02 X 37.0622 Y 9.6628 Z -1.0000 I -0.0809 J 0.0265
G01 X 37.0564 Y 9.6597 Z -1.0000
G01 X 37.0513 Y 9.6569 Z -1.0000
G01 X 37.0484 Y 9.6470 Z -1.0000
G01 X 37.0455 Y 9.6356 Z -1.0000
G01 X 37.0355 Y 9.6231 Z -1.0000
G01 X 37.0215 Y 9.6179 Z -1.0000
G01 X 37.0215 Y 9.6179 Z -1.0000
G00 Z 5.0000

(End cutting path id: path222635)


(Start cutting path id: path222635)
(Change tool to Default tool)

G00 Z 5.0000
G00 X 37.3591 Y 9.6657

G01 Z -1.0000 F 100.0000(Penetrate)
G01 X 37.3608 Y 9.6699 Z -1.0000 F 3500.0000
G01 X 37.3651 Y 9.6717 Z -1.0000
G01 X 37.3693 Y 9.6699 Z -1.0000
G01 X 37.3711 Y 9.6657 Z -1.0000
G01 X 37.3693 Y 9.6614 Z -1.0000
G01 X 37.3651 Y 9.6597 Z -1.0000
G01 X 37.3608 Y 9.6614 Z -1.0000
G01 X 37.3591 Y 9.6657 Z -1.0000
G01 X 37.3591 Y 9.6657 Z -1.0000
G00 Z 5.0000

(End cutting path id: path222635)


(Start cutting path id: path222635)
(Change tool to Default tool)

G00 Z 5.0000
G00 X 37.3595 Y 9.5377

G01 Z -1.0000 F 100.0000(Penetrate)
G01 X 37.3631 Y 9.5413 Z -1.0000 F 3500.0000
G01 X 37.3644 Y 9.5338 Z -1.0000
G01 X 37.3627 Y 9.5299 Z -1.0000
G01 X 37.3596 Y 9.5377 Z -1.0000
G01 X 37.3595 Y 9.5377 Z -1.0000
G00 Z 5.0000

(End cutting path id: path222635)


(Start cutting path id: path222635)
(Change tool to Default tool)

G00 Z 5.0000
G00 X 37.4203 Y 9.9077

G01 Z -1.0000 F 100.0000(Penetrate)
G01 X 37.4122 Y 9.9275 Z -1.0000 F 3500.0000
G01 X 37.4188 Y 9.9346 Z -1.0000
G01 X 37.4230 Y 9.9363 Z -1.0000
G01 X 37.4248 Y 9.9409 Z -1.0000
G01 X 37.4230 Y 9.9439 Z -1.0000
G01 X 37.4192 Y 9.9438 Z -1.0000
G01 X 37.4118 Y 9.9468 Z -1.0000
G01 X 37.4155 Y 9.9582 Z -1.0000
G01 X 37.4221 Y 9.9665 Z -1.0000
G03 X 37.4279 Y 9.9830 Z -1.0000 I -0.0641 J 0.0320
G02 X 37.4344 Y 9.9990 Z -1.0000 I 0.0519 J -0.0116
G01 X 37.4432 Y 10.0080 Z -1.0000
G01 X 37.4517 Y 10.0167 Z -1.0000
G01 X 37.4547 Y 10.0277 Z -1.0000
G01 X 37.4574 Y 10.0390 Z -1.0000
G01 X 37.4666 Y 10.0511 Z -1.0000
G03 X 37.4888 Y 10.0812 Z -1.0000 I -0.0627 J 0.0693
G03 X 37.4967 Y 10.1162 Z -1.0000 I -0.0784 J 0.0362
G02 X 37.5089 Y 10.1590 Z -1.0000 I 0.0854 J -0.0012
G02 X 37.5412 Y 10.1904 Z -1.0000 I 0.0755 J -0.0453
G03 X 37.5581 Y 10.2015 Z -1.0000 I -0.0717 J 0.1278
G01 X 37.5660 Y 10.2092 Z -1.0000
G01 X 37.5733 Y 10.2133 Z -1.0000
G01 X 37.5812 Y 10.2110 Z -1.0000
G01 X 37.5897 Y 10.2073 Z -1.0000
G01 X 37.5975 Y 10.2090 Z -1.0000
G01 X 37.5994 Y 10.2139 Z -1.0000
G01 X 37.5943 Y 10.2206 Z -1.0000
G01 X 37.5904 Y 10.2279 Z -1.0000
G01 X 37.5952 Y 10.2377 Z -1.0000
G01 X 37.6049 Y 10.2497 Z -1.0000
G03 X 37.6159 Y 10.2747 Z -1.0000 I -0.1202 J 0.0679
G02 X 37.6267 Y 10.3000 Z -1.0000 I 0.1527 J -0.0502
G02 X 37.6375 Y 10.3152 Z -1.0000 I 0.0637 J -0.0339
G01 X 37.6517 Y 10.3238 Z -1.0000
G01 X 37.6661 Y 10.3232 Z -1.0000
G01 X 37.6774 Y 10.3117 Z -1.0000
G01 X 37.6728 Y 10.3050 Z -1.0000
G01 X 37.6669 Y 10.2997 Z -1.0000
G01 X 37.6710 Y 10.2882 Z -1.0000
G01 X 37.6712 Y 10.2839 Z -1.0000
G01 X 37.6650 Y 10.2810 Z -1.0000
G01 X 37.6560 Y 10.2745 Z -1.0000
G03 X 37.6509 Y 10.2377 Z -1.0000 I 0.1003 J -0.0325
G02 X 37.6482 Y 10.2188 Z -1.0000 I -0.0523 J -0.0021
G01 X 37.6433 Y 10.2153 Z -1.0000
G01 X 37.6371 Y 10.2121 Z -1.0000
G03 X 37.6279 Y 10.1944 Z -1.0000 I 0.0512 J -0.0376
G02 X 37.6197 Y 10.1753 Z -1.0000 I -0.1113 J 0.0368
G01 X 37.6166 Y 10.1735 Z -1.0000
G01 X 37.6131 Y 10.1718 Z -1.0000
G03 X 37.5887 Y 10.1377 Z -1.0000 I 0.4003 J -0.3127
G02 X 37.5642 Y 10.1036 Z -1.0000 I -0.4266 J 0.2798
G01 X 37.5607 Y 10.1018 Z -1.0000
G01 X 37.5578 Y 10.1002 Z -1.0000
G01 X 37.5562 Y 10.0947 Z -1.0000
G02 X 37.5473 Y 10.0565 Z -1.0000 I -0.0869 J 0.0000
G02 X 37.5258 Y 10.0328 Z -1.0000 I -0.0520 J 0.0254
G01 X 37.5223 Y 10.0329 Z -1.0000
G01 X 37.5202 Y 10.0372 Z -1.0000
G01 X 37.5153 Y 10.0382 Z -1.0000
G03 X 37.4977 Y 9.9882 Z -1.0000 I 0.2640 J -0.1213
G01 X 37.4894 Y 9.9715 Z -1.0000
G01 X 37.4819 Y 9.9682 Z -1.0000
G01 X 37.4758 Y 9.9651 Z -1.0000
G01 X 37.4741 Y 9.9549 Z -1.0000
G01 X 37.4725 Y 9.9425 Z -1.0000
G01 X 37.4632 Y 9.9317 Z -1.0000
G03 X 37.4515 Y 9.9213 Z -1.0000 I 0.0287 J -0.0439
G01 X 37.4457 Y 9.9107 Z -1.0000
G01 X 37.4351 Y 9.9019 Z -1.0000
G01 X 37.4202 Y 9.9075 Z -1.0000
G01 X 37.4203 Y 9.9077 Z -1.0000
G00 Z 5.0000

(End cutting path id: path222635)


(Start cutting path id: path222635)
(Change tool to Default tool)

G00 Z 5.0000
G00 X 37.4128 Y 10.1859

G01 Z -1.0000 F 100.0000(Penetrate)
G01 X 37.4147 Y 10.1888 Z -1.0000 F 3500.0000
G01 X 37.4188 Y 10.1885 Z -1.0000
G01 X 37.4240 Y 10.1843 Z -1.0000
G01 X 37.4248 Y 10.1822 Z -1.0000
G01 X 37.4188 Y 10.1796 Z -1.0000
G01 X 37.4147 Y 10.1814 Z -1.0000
G01 X 37.4128 Y 10.1859 Z -1.0000
G01 X 37.4128 Y 10.1859 Z -1.0000
G00 Z 5.0000

(End cutting path id: path222635)


(Start cutting path id: path222635)
(Change tool to Default tool)

G00 Z 5.0000
G00 X 37.2885 Y 10.4138

G01 Z -1.0000 F 100.0000(Penetrate)
G01 X 37.2833 Y 10.4217 Z -1.0000 F 3500.0000
G01 X 37.2813 Y 10.4314 Z -1.0000
G02 X 37.2895 Y 10.4642 Z -1.0000 I 0.0703 J -0.0000
G01 X 37.3029 Y 10.4724 Z -1.0000
G01 X 37.3059 Y 10.4693 Z -1.0000
G01 X 37.3023 Y 10.4523 Z -1.0000
G03 X 37.2978 Y 10.4331 Z -1.0000 I 0.0541 J -0.0226
G01 X 37.3008 Y 10.4255 Z -1.0000
G01 X 37.3039 Y 10.4186 Z -1.0000
G01 X 37.3017 Y 10.4126 Z -1.0000
G01 X 37.2957 Y 10.4104 Z -1.0000
G01 X 37.2885 Y 10.4138 Z -1.0000
G01 X 37.2885 Y 10.4138 Z -1.0000
G00 Z 5.0000

(End cutting path id: path222635)


(Start cutting path id: path222635)
(Change tool to Default tool)

G00 Z 5.0000
G00 X 37.2874 Y 10.4896

G01 Z -1.0000 F 100.0000(Penetrate)
G01 X 37.2952 Y 10.5052 Z -1.0000 F 3500.0000
G01 X 37.3073 Y 10.5043 Z -1.0000
G01 X 37.3082 Y 10.4922 Z -1.0000
G01 X 37.2926 Y 10.4843 Z -1.0000
G01 X 37.2889 Y 10.4859 Z -1.0000
G01 X 37.2874 Y 10.4895 Z -1.0000
G01 X 37.2874 Y 10.4896 Z -1.0000
G00 Z 5.0000

(End cutting path id: path222635)


(Start cutting path id: path222635)
(Change tool to Default tool)

G00 Z 5.0000
G00 X 37.3003 Y 10.5360

G01 Z -1.0000 F 100.0000(Penetrate)
G01 X 37.3062 Y 10.5491 Z -1.0000 F 3500.0000
G01 X 37.3172 Y 10.5548 Z -1.0000
G01 X 37.3243 Y 10.5512 Z -1.0000
G01 X 37.3183 Y 10.5448 Z -1.0000
G01 X 37.3148 Y 10.5349 Z -1.0000
G01 X 37.3066 Y 10.5283 Z -1.0000
G01 X 37.3003 Y 10.5360 Z -1.0000
G01 X 37.3003 Y 10.5360 Z -1.0000
G00 Z 5.0000

(End cutting path id: path222635)


(Start cutting path id: path222635)
(Change tool to Default tool)

G00 Z 5.0000
G00 X 37.6544 Y 10.4873

G01 Z -1.0000 F 100.0000(Penetrate)
G01 X 37.6482 Y 10.4983 Z -1.0000 F 3500.0000
G03 X 37.6338 Y 10.5142 Z -1.0000 I -0.1084 J -0.0836
G01 X 37.6169 Y 10.5239 Z -1.0000
G01 X 37.6023 Y 10.5236 Z -1.0000
G01 X 37.5897 Y 10.5155 Z -1.0000
G01 X 37.5849 Y 10.5057 Z -1.0000
G01 X 37.5790 Y 10.4984 Z -1.0000
G02 X 37.5562 Y 10.4952 Z -1.0000 I -0.0188 J 0.0516
G02 X 37.5309 Y 10.5000 Z -1.0000 I 0.0084 J 0.1131
G01 X 37.5226 Y 10.5058 Z -1.0000
G01 X 37.5181 Y 10.5152 Z -1.0000
G02 X 37.5119 Y 10.5499 Z -1.0000 I 0.2777 J 0.0671
G03 X 37.5016 Y 10.5801 Z -1.0000 I -0.0733 J -0.0083
G01 X 37.4867 Y 10.5913 Z -1.0000
G03 X 37.4659 Y 10.5938 Z -1.0000 I -0.0182 J -0.0654
G01 X 37.4542 Y 10.5902 Z -1.0000
G01 X 37.4434 Y 10.5872 Z -1.0000
G01 X 37.4360 Y 10.5902 Z -1.0000
G01 X 37.4357 Y 10.5953 Z -1.0000
G01 X 37.4448 Y 10.6012 Z -1.0000
G03 X 37.4585 Y 10.6068 Z -1.0000 I -0.0128 J 0.0505
G01 X 37.4606 Y 10.6105 Z -1.0000
G01 X 37.4629 Y 10.6135 Z -1.0000
G02 X 37.4782 Y 10.6158 Z -1.0000 I 0.0153 J -0.0506
G03 X 37.4946 Y 10.6178 Z -1.0000 I 0.0000 J 0.0661
G01 X 37.4991 Y 10.6212 Z -1.0000
G01 X 37.5103 Y 10.6261 Z -1.0000
G02 X 37.5369 Y 10.6141 Z -1.0000 I -0.0112 J -0.0602
G01 X 37.5493 Y 10.6132 Z -1.0000
G03 X 37.5756 Y 10.6367 Z -1.0000 I -0.0451 J 0.0771
G01 X 37.5846 Y 10.6371 Z -1.0000
G01 X 37.5920 Y 10.6182 Z -1.0000
G01 X 37.5936 Y 10.6122 Z -1.0000
G03 X 37.6034 Y 10.5985 Z -1.0000 I 0.0780 J 0.0454
G01 X 37.6114 Y 10.5845 Z -1.0000
G01 X 37.6123 Y 10.5722 Z -1.0000
G01 X 37.6134 Y 10.5664 Z -1.0000
G01 X 37.6252 Y 10.5736 Z -1.0000
G01 X 37.6304 Y 10.5657 Z -1.0000
G01 X 37.6313 Y 10.5596 Z -1.0000
G01 X 37.6388 Y 10.5545 Z -1.0000
G01 X 37.6470 Y 10.5482 Z -1.0000
G02 X 37.6576 Y 10.5210 Z -1.0000 I -0.0926 J -0.0519
G02 X 37.6599 Y 10.4880 Z -1.0000 I -0.0978 J -0.0235
G01 X 37.6544 Y 10.4872 Z -1.0000
G01 X 37.6544 Y 10.4873 Z -1.0000
G00 Z 5.0000

(End cutting path id: path222635)


(Start cutting path id: path222635)
(Change tool to Default tool)

G00 Z 5.0000
G00 X 37.6618 Y 10.3329

G01 Z -1.0000 F 100.0000(Penetrate)
G01 X 37.6593 Y 10.3375 Z -1.0000 F 3500.0000
G01 X 37.6582 Y 10.3494 Z -1.0000
G01 X 37.6643 Y 10.3475 Z -1.0000
G01 X 37.6618 Y 10.3329 Z -1.0000
G01 X 37.6618 Y 10.3329 Z -1.0000
G00 Z 5.0000

(End cutting path id: path222635)


(Start cutting path id: path222635)
(Change tool to Default tool)

G00 Z 5.0000
G00 X 37.8372 Y 10.9834

G01 Z -1.0000 F 100.0000(Penetrate)
G01 X 37.8475 Y 10.9898 Z -1.0000 F 3500.0000
G01 X 37.8482 Y 10.9805 Z -1.0000
G01 X 37.8360 Y 10.9743 Z -1.0000
G01 X 37.8372 Y 10.9834 Z -1.0000
G01 X 37.8372 Y 10.9834 Z -1.0000
G00 Z 5.0000

(End cutting path id: path222635)


(Start cutting path id: path222635)
(Change tool to Default tool)

G00 Z 5.0000
G00 X 37.8849 Y 11.1177

G01 Z -1.0000 F 100.0000(Penetrate)
G01 X 37.8867 Y 11.1219 Z -1.0000 F 3500.0000
G01 X 37.8912 Y 11.1237 Z -1.0000
G01 X 37.8941 Y 11.1218 Z -1.0000
G01 X 37.8938 Y 11.1177 Z -1.0000
G01 X 37.8896 Y 11.1125 Z -1.0000
G01 X 37.8875 Y 11.1117 Z -1.0000
G01 X 37.8849 Y 11.1177 Z -1.0000
G01 X 37.8849 Y 11.1177 Z -1.0000
G00 Z 5.0000

(End cutting path id: path222635)


(Start cutting path id: path222635)
(Change tool to Default tool)

G00 Z 5.0000
G00 X 37.9177 Y 11.1834

G01 Z -1.0000 F 100.0000(Penetrate)
G01 X 37.9219 Y 11.1886 Z -1.0000 F 3500.0000
G01 X 37.9240 Y 11.1894 Z -1.0000
G01 X 37.9266 Y 11.1834 Z -1.0000
G01 X 37.9248 Y 11.1792 Z -1.0000
G01 X 37.9203 Y 11.1774 Z -1.0000
G01 X 37.9174 Y 11.1793 Z -1.0000
G01 X 37.9177 Y 11.1834 Z -1.0000
G01 X 37.9177 Y 11.1834 Z -1.0000
G00 Z 5.0000

(End cutting path id: path222635)


(Start cutting path id: path222635)
(Change tool to Default tool)

G00 Z 5.0000
G00 X 37.7971 Y 11.5793

G01 Z -1.0000 F 100.0000(Penetrate)
G02 X 37.8002 Y 11.5985 Z -1.0000 I 3.0900 J -0.4974 F 3500.0000
G02 X 37.8033 Y 11.6164 Z -1.0000 I 3.6603 J -0.6126
G03 X 37.8181 Y 11.7250 Z -1.0000 I -1.4119 J 0.2476
G03 X 37.8159 Y 11.7458 Z -1.0000 I -0.0517 J 0.0050
G01 X 37.8149 Y 11.7573 Z -1.0000
G01 X 37.8182 Y 11.7623 Z -1.0000
G01 X 37.8225 Y 11.7685 Z -1.0000
G03 X 37.8373 Y 11.8525 Z -1.0000 I -1.1871 J 0.2516
G02 X 37.8563 Y 11.9740 Z -1.0000 I 3.5850 J -0.5000
G02 X 37.8789 Y 12.0915 Z -1.0000 I 3.4702 J -0.6049
G03 X 37.8836 Y 12.1185 Z -1.0000 I -0.4092 J 0.0858
G03 X 37.8882 Y 12.1572 Z -1.0000 I -0.8107 J 0.1150
G02 X 37.8928 Y 12.1959 Z -1.0000 I 0.7177 J -0.0672
G02 X 37.8970 Y 12.2170 Z -1.0000 I 0.2324 J -0.0345
G03 X 37.9087 Y 12.2768 Z -1.0000 I -0.6254 J 0.1540
G03 X 37.9437 Y 12.5324 Z -1.0000 I -11.6479 J 1.7221
G03 X 37.9458 Y 12.5688 Z -1.0000 I -0.2675 J 0.0336
G01 X 37.9433 Y 12.5732 Z -1.0000
G01 X 37.9391 Y 12.5809 Z -1.0000
G02 X 37.9440 Y 12.6098 Z -1.0000 I 0.0987 J -0.0018
G01 X 37.9442 Y 12.6113 Z -1.0000
G01 X 37.9440 Y 12.6151 Z -1.0000
G01 X 37.9449 Y 12.6183 Z -1.0000
G01 X 37.9515 Y 12.6239 Z -1.0000
G01 X 37.9569 Y 12.6304 Z -1.0000
G01 X 37.9604 Y 12.6455 Z -1.0000
G02 X 37.9618 Y 12.6622 Z -1.0000 I 0.2761 J -0.0148
G02 X 37.9645 Y 12.6823 Z -1.0000 I 0.5338 J -0.0612
G03 X 37.9642 Y 12.7014 Z -1.0000 I -0.0557 J 0.0088
G01 X 37.9591 Y 12.7112 Z -1.0000
G01 X 37.9545 Y 12.7104 Z -1.0000
G01 X 37.9555 Y 12.7037 Z -1.0000
G01 X 37.9580 Y 12.6974 Z -1.0000
G01 X 37.9561 Y 12.6830 Z -1.0000
G01 X 37.9510 Y 12.6789 Z -1.0000
G01 X 37.9482 Y 12.6855 Z -1.0000
G01 X 37.9444 Y 12.6860 Z -1.0000
G01 X 37.9410 Y 12.6810 Z -1.0000
G03 X 37.9396 Y 12.6543 Z -1.0000 I 0.1339 J -0.0205
G02 X 37.9364 Y 12.6275 Z -1.0000 I -0.0855 J -0.0034
G02 X 37.9241 Y 12.6002 Z -1.0000 I -0.0991 J 0.0282
G03 X 37.9120 Y 12.5732 Z -1.0000 I 0.0858 J -0.0546
G03 X 37.9102 Y 12.5509 Z -1.0000 I 0.0556 J -0.0156
G01 X 37.9089 Y 12.5277 Z -1.0000
G01 X 37.9040 Y 12.5239 Z -1.0000
G03 X 37.8849 Y 12.4351 Z -1.0000 I 1.0396 J -0.2706
G02 X 37.8577 Y 12.2957 Z -1.0000 I -3.1086 J 0.5338
G02 X 37.8418 Y 12.2379 Z -1.0000 I -0.5469 J 0.1195
G03 X 37.8304 Y 12.2018 Z -1.0000 I 0.9668 J -0.3236
G03 X 37.8242 Y 12.1781 Z -1.0000 I 0.4399 J -0.1293
G03 X 37.8143 Y 12.1000 Z -1.0000 I 0.3597 J -0.0849
G01 X 37.8222 Y 12.0802 Z -1.0000
G01 X 37.8229 Y 12.0772 Z -1.0000
G02 X 37.8162 Y 12.0643 Z -1.0000 I -0.0672 J 0.0262
G01 X 37.8104 Y 12.0513 Z -1.0000
G01 X 37.8115 Y 12.0471 Z -1.0000
G01 X 37.8178 Y 12.0302 Z -1.0000
G02 X 37.8068 Y 11.9792 Z -1.0000 I -0.1812 J 0.0126
G03 X 37.7981 Y 11.9473 Z -1.0000 I 0.1673 J -0.0624
G01 X 37.8006 Y 11.9432 Z -1.0000
G01 X 37.8047 Y 11.9395 Z -1.0000
G01 X 37.8070 Y 11.9293 Z -1.0000
G01 X 37.8013 Y 11.9210 Z -1.0000
G01 X 37.7923 Y 11.9171 Z -1.0000
G03 X 37.7830 Y 11.8285 Z -1.0000 I 0.4856 J -0.0955
G02 X 37.7794 Y 11.7143 Z -1.0000 I -3.1184 J 0.0423
G01 X 37.7770 Y 11.7091 Z -1.0000
G01 X 37.7652 Y 11.6889 Z -1.0000
G03 X 37.7591 Y 11.6447 Z -1.0000 I 0.1590 J -0.0442
G03 X 37.7627 Y 11.6022 Z -1.0000 I 0.2531 J -0.0000
G03 X 37.7745 Y 11.5545 Z -1.0000 I 0.3272 J 0.0557
G01 X 37.7840 Y 11.5525 Z -1.0000
G03 X 37.7968 Y 11.5793 Z -1.0000 I -0.0389 J 0.0350
G01 X 37.7971 Y 11.5793 Z -1.0000
G00 Z 5.0000

(End cutting path id: path222635)


(Start cutting path id: path222635)
(Change tool to Default tool)

G00 Z 5.0000
G00 X 37.9386 Y 11.8586

G01 Z -1.0000 F 100.0000(Penetrate)
G01 X 37.9404 Y 11.8629 Z -1.0000 F 3500.0000
G01 X 37.9446 Y 11.8646 Z -1.0000
G01 X 37.9489 Y 11.8629 Z -1.0000
G01 X 37.9506 Y 11.8586 Z -1.0000
G01 X 37.9489 Y 11.8544 Z -1.0000
G01 X 37.9446 Y 11.8526 Z -1.0000
G01 X 37.9404 Y 11.8544 Z -1.0000
G01 X 37.9386 Y 11.8586 Z -1.0000
G01 X 37.9386 Y 11.8586 Z -1.0000
G00 Z 5.0000

(End cutting path id: path222635)


(Start cutting path id: path222635)
(Change tool to Default tool)

G00 Z 5.0000
G00 X 37.9566 Y 11.9005

G01 Z -1.0000 F 100.0000(Penetrate)
G01 X 37.9583 Y 11.9047 Z -1.0000 F 3500.0000
G01 X 37.9626 Y 11.9065 Z -1.0000
G01 X 37.9668 Y 11.9047 Z -1.0000
G01 X 37.9686 Y 11.9005 Z -1.0000
G01 X 37.9668 Y 11.8962 Z -1.0000
G01 X 37.9626 Y 11.8945 Z -1.0000
G01 X 37.9583 Y 11.8962 Z -1.0000
G01 X 37.9566 Y 11.9005 Z -1.0000
G01 X 37.9566 Y 11.9005 Z -1.0000
G00 Z 5.0000

(End cutting path id: path222635)


(Start cutting path id: path222635)
(Change tool to Default tool)

G00 Z 5.0000
G00 X 37.9993 Y 11.9722

G01 Z -1.0000 F 100.0000(Penetrate)
G01 X 38.0023 Y 11.9797 Z -1.0000 F 3500.0000
G01 X 38.0038 Y 11.9722 Z -1.0000
G01 X 38.0023 Y 11.9647 Z -1.0000
G01 X 37.9993 Y 11.9722 Z -1.0000
