%
(Header)
(Generated by gcodetools from Inkscape.)
(Using default header. To add your own header create file "header" in the output dir.)
M3
(Header end.)
G21 (All units in mm)

(Start cutting path id: path239539)
(Change tool to Default tool)

G00 Z 5.0000
G00 X 34.2139 Y 19.6393

G01 Z -1.0000 F 100.0000(Penetrate)
G01 X 34.2092 Y 19.6446 Z -1.0000 F 3500.0000
G03 X 34.1338 Y 19.6491 Z -1.0000 I -0.0744 J -0.6087
G02 X 34.0552 Y 19.6519 Z -1.0000 I -0.0021 J 1.0767
G01 X 34.0498 Y 19.6551 Z -1.0000
G01 X 34.0447 Y 19.6582 Z -1.0000
G03 X 34.0266 Y 19.6564 Z -1.0000 I -0.0034 J -0.0597
G01 X 34.0107 Y 19.6560 Z -1.0000
G01 X 34.0073 Y 19.6601 Z -1.0000
G01 X 34.0042 Y 19.6643 Z -1.0000
G01 X 33.9953 Y 19.6641 Z -1.0000
G01 X 33.9872 Y 19.6651 Z -1.0000
G01 X 33.9834 Y 19.6722 Z -1.0000
G01 X 33.9795 Y 19.6806 Z -1.0000
G01 X 33.9695 Y 19.6838 Z -1.0000
G02 X 33.9344 Y 19.6865 Z -1.0000 I -0.0091 J 0.1079
G01 X 33.9318 Y 19.6931 Z -1.0000
G01 X 33.9312 Y 19.6980 Z -1.0000
G01 X 33.9243 Y 19.7010 Z -1.0000
G01 X 33.9165 Y 19.7057 Z -1.0000
G01 X 33.9113 Y 19.7268 Z -1.0000
G01 X 33.9033 Y 19.7367 Z -1.0000
G01 X 33.8986 Y 19.7470 Z -1.0000
G03 X 33.8982 Y 19.7716 Z -1.0000 I -0.1005 J 0.0105
G01 X 33.8943 Y 19.7775 Z -1.0000
G01 X 33.8921 Y 19.7826 Z -1.0000
G01 X 33.8976 Y 19.7943 Z -1.0000
G01 X 33.9016 Y 19.8050 Z -1.0000
G01 X 33.8980 Y 19.8102 Z -1.0000
G01 X 33.8908 Y 19.8155 Z -1.0000
G01 X 33.8881 Y 19.8239 Z -1.0000
G01 X 33.8851 Y 19.8323 Z -1.0000
G01 X 33.8755 Y 19.8392 Z -1.0000
G01 X 33.8673 Y 19.8460 Z -1.0000
G01 X 33.8664 Y 19.8539 Z -1.0000
G01 X 33.8662 Y 19.8633 Z -1.0000
G03 X 33.8552 Y 19.8828 Z -1.0000 I -0.0738 J -0.0290
G02 X 33.8428 Y 19.9026 Z -1.0000 I 0.0912 J 0.0708
G01 X 33.8405 Y 19.9126 Z -1.0000
G01 X 33.8329 Y 19.9206 Z -1.0000
G01 X 33.8218 Y 19.9135 Z -1.0000
G01 X 33.8184 Y 19.9195 Z -1.0000
G03 X 33.8122 Y 19.9616 Z -1.0000 I -0.1109 J 0.0051
G01 X 33.7974 Y 19.9788 Z -1.0000
G01 X 33.7827 Y 19.9925 Z -1.0000
G02 X 33.7699 Y 20.0223 Z -1.0000 I 0.0865 J 0.0548
G03 X 33.7441 Y 20.0794 Z -1.0000 I -0.1732 J -0.0436
G01 X 33.7233 Y 20.0904 Z -1.0000
G02 X 33.6946 Y 20.0960 Z -1.0000 I -0.0000 J 0.0764
G02 X 33.5842 Y 20.1469 Z -1.0000 I 0.4921 J 1.2136
G03 X 33.5700 Y 20.1523 Z -1.0000 I -0.0332 J -0.0646
G01 X 33.5579 Y 20.1540 Z -1.0000
G01 X 33.5508 Y 20.1570 Z -1.0000
G01 X 33.5503 Y 20.1619 Z -1.0000
G01 X 33.5498 Y 20.1668 Z -1.0000
G01 X 33.5427 Y 20.1698 Z -1.0000
G01 X 33.5306 Y 20.1714 Z -1.0000
G02 X 33.5164 Y 20.1769 Z -1.0000 I 0.0189 J 0.0699
G03 X 33.5025 Y 20.1838 Z -1.0000 I -0.3095 J -0.6031
G03 X 33.4470 Y 20.2105 Z -1.0000 I -4.0946 J -8.4503
G02 X 33.3920 Y 20.2379 Z -1.0000 I 0.7654 J 1.6063
G01 X 33.3874 Y 20.2414 Z -1.0000
G01 X 33.3826 Y 20.2448 Z -1.0000
G03 X 33.3495 Y 20.2568 Z -1.0000 I -0.1772 J -0.4372
G02 X 33.3171 Y 20.2700 Z -1.0000 I 0.0714 J 0.2217
G01 X 33.3072 Y 20.2779 Z -1.0000
G01 X 33.2978 Y 20.2841 Z -1.0000
G01 X 33.2874 Y 20.2837 Z -1.0000
G01 X 33.2791 Y 20.2837 Z -1.0000
G01 X 33.2761 Y 20.2881 Z -1.0000
G01 X 33.2728 Y 20.2936 Z -1.0000
G01 X 33.2602 Y 20.2969 Z -1.0000
G01 X 33.2473 Y 20.2999 Z -1.0000
G01 X 33.2443 Y 20.3048 Z -1.0000
G01 X 33.2412 Y 20.3097 Z -1.0000
G01 X 33.2284 Y 20.3127 Z -1.0000
G01 X 33.2155 Y 20.3157 Z -1.0000
G01 X 33.2125 Y 20.3206 Z -1.0000
G01 X 33.2098 Y 20.3259 Z -1.0000
G01 X 33.2021 Y 20.3285 Z -1.0000
G01 X 33.1921 Y 20.3302 Z -1.0000
G02 X 33.1603 Y 20.3432 Z -1.0000 I 0.1101 J 0.3135
G03 X 33.1289 Y 20.3577 Z -1.0000 I -0.9300 J -1.9759
G03 X 33.1038 Y 20.3687 Z -1.0000 I -0.5593 J -1.2390
G02 X 33.0832 Y 20.3810 Z -1.0000 I 0.0344 J 0.0809
G01 X 33.0824 Y 20.3858 Z -1.0000
G01 X 33.0815 Y 20.3894 Z -1.0000
G01 X 33.0719 Y 20.3921 Z -1.0000
G02 X 32.9036 Y 20.4311 Z -1.0000 I 0.0000 J 0.3828
G02 X 32.8243 Y 20.5133 Z -1.0000 I 0.0735 J 0.1501
G01 X 32.8203 Y 20.5172 Z -1.0000
G01 X 32.8097 Y 20.5193 Z -1.0000
G01 X 32.7985 Y 20.5218 Z -1.0000
G02 X 32.7746 Y 20.5357 Z -1.0000 I 0.0650 J 0.1388
G01 X 32.7515 Y 20.5467 Z -1.0000
G01 X 32.7394 Y 20.5513 Z -1.0000
G03 X 32.7264 Y 20.5601 Z -1.0000 I -0.0541 J -0.0658
G03 X 32.6460 Y 20.6026 Z -1.0000 I -1.3123 J -2.3838
G02 X 32.5648 Y 20.6442 Z -1.0000 I 6.2735 J 12.3563
G02 X 32.5172 Y 20.6691 Z -1.0000 I 2.2274 J 4.3166
G03 X 32.4693 Y 20.6922 Z -1.0000 I -0.3293 J -0.6213
G01 X 32.4596 Y 20.6942 Z -1.0000
G01 X 32.4520 Y 20.6968 Z -1.0000
G01 X 32.4495 Y 20.7021 Z -1.0000
G01 X 32.4467 Y 20.7074 Z -1.0000
G01 X 32.4382 Y 20.7100 Z -1.0000
G01 X 32.4283 Y 20.7122 Z -1.0000
G01 X 32.4243 Y 20.7163 Z -1.0000
G01 X 32.4201 Y 20.7213 Z -1.0000
G03 X 32.3899 Y 20.7388 Z -1.0000 I -0.1765 J -0.2697
G02 X 32.3354 Y 20.7672 Z -1.0000 I 1.4946 J 2.9356
G02 X 32.1753 Y 20.8532 Z -1.0000 I 13.5741 J 25.4741
G03 X 32.1115 Y 20.8872 Z -1.0000 I -3.3175 J -6.1318
G03 X 32.0938 Y 20.8961 Z -1.0000 I -0.2433 J -0.4610
G02 X 32.0782 Y 20.9061 Z -1.0000 I 0.0342 J 0.0713
G01 X 32.0760 Y 20.9107 Z -1.0000
G01 X 32.0738 Y 20.9145 Z -1.0000
G01 X 32.0660 Y 20.9167 Z -1.0000
G01 X 32.0566 Y 20.9190 Z -1.0000
G02 X 32.0074 Y 20.9476 Z -1.0000 I 0.3378 J 0.6388
G03 X 31.9581 Y 20.9768 Z -1.0000 I -0.5096 J -0.8035
G03 X 31.9419 Y 20.9838 Z -1.0000 I -0.0431 J -0.0780
G02 X 31.9259 Y 20.9907 Z -1.0000 I 0.0285 J 0.0885
G02 X 31.9150 Y 20.9986 Z -1.0000 I 0.0252 J 0.0461
G03 X 31.9040 Y 21.0067 Z -1.0000 I -0.0388 J -0.0410
G03 X 31.8494 Y 21.0358 Z -1.0000 I -0.5871 J -1.0358
G02 X 31.7952 Y 21.0650 Z -1.0000 I 0.4472 J 0.8945
G01 X 31.7911 Y 21.0696 Z -1.0000
G01 X 31.7871 Y 21.0735 Z -1.0000
G01 X 31.7772 Y 21.0756 Z -1.0000
G01 X 31.7681 Y 21.0778 Z -1.0000
G01 X 31.7659 Y 21.0816 Z -1.0000
G01 X 31.7636 Y 21.0862 Z -1.0000
G03 X 31.7480 Y 21.0962 Z -1.0000 I -0.0517 J -0.0640
G02 X 31.6939 Y 21.1247 Z -1.0000 I 0.3690 J 0.7642
G02 X 31.6088 Y 21.1762 Z -1.0000 I 1.1214 J 1.9501
G03 X 31.5665 Y 21.2015 Z -1.0000 I -0.4839 J -0.7616
G01 X 31.5611 Y 21.2029 Z -1.0000
G01 X 31.5413 Y 21.2090 Z -1.0000
G02 X 31.4742 Y 21.2583 Z -1.0000 I 0.3342 J 0.5252
G01 X 31.4639 Y 21.2647 Z -1.0000
G01 X 31.4560 Y 21.2664 Z -1.0000
G01 X 31.4480 Y 21.2683 Z -1.0000
G02 X 31.4258 Y 21.2816 Z -1.0000 I 0.0760 J 0.1517
G03 X 31.3625 Y 21.3232 Z -1.0000 I -0.6532 J -0.9256
G03 X 31.2998 Y 21.3584 Z -1.0000 I -0.5290 J -0.8674
G02 X 31.2681 Y 21.3771 Z -1.0000 I 0.1595 J 0.3071
G02 X 31.2487 Y 21.3924 Z -1.0000 I 0.0831 J 0.1253
G03 X 31.2294 Y 21.4069 Z -1.0000 I -0.0756 J -0.0808
G01 X 31.2200 Y 21.4095 Z -1.0000
G01 X 31.2118 Y 21.4117 Z -1.0000
G01 X 31.2096 Y 21.4155 Z -1.0000
G01 X 31.2072 Y 21.4199 Z -1.0000
G03 X 31.1837 Y 21.4327 Z -1.0000 I -0.0831 J -0.1246
G02 X 31.1587 Y 21.4454 Z -1.0000 I 0.0950 J 0.2178
G02 X 31.1126 Y 21.4744 Z -1.0000 I 0.4375 J 0.7475
G03 X 31.0667 Y 21.5028 Z -1.0000 I -0.3971 J -0.5899
G01 X 31.0590 Y 21.5048 Z -1.0000
G01 X 31.0527 Y 21.5069 Z -1.0000
G01 X 31.0506 Y 21.5109 Z -1.0000
G01 X 31.0470 Y 21.5173 Z -1.0000
G03 X 30.9930 Y 21.5460 Z -1.0000 I -0.2703 J -0.4436
G02 X 30.9735 Y 21.5576 Z -1.0000 I 0.0452 J 0.0987
G01 X 30.9711 Y 21.5623 Z -1.0000
G01 X 30.9688 Y 21.5662 Z -1.0000
G01 X 30.9607 Y 21.5685 Z -1.0000
G01 X 30.9512 Y 21.5708 Z -1.0000
G02 X 30.9346 Y 21.5824 Z -1.0000 I 0.0411 J 0.0768
G03 X 30.9182 Y 21.5951 Z -1.0000 I -0.1073 J -0.1215
G03 X 30.8914 Y 21.6116 Z -1.0000 I -0.1990 J -0.2937
G02 X 30.8644 Y 21.6276 Z -1.0000 I 0.2597 J 0.4691
G01 X 30.8598 Y 21.6315 Z -1.0000
G03 X 30.8142 Y 21.6703 Z -1.0000 I -0.1446 J -0.1239
G03 X 30.7805 Y 21.6797 Z -1.0000 I -0.0337 J -0.0554
G01 X 30.7747 Y 21.6821 Z -1.0000
G01 X 30.7724 Y 21.6876 Z -1.0000
G01 X 30.7697 Y 21.6929 Z -1.0000
G01 X 30.7612 Y 21.6955 Z -1.0000
G01 X 30.7513 Y 21.6977 Z -1.0000
G01 X 30.7472 Y 21.7019 Z -1.0000
G03 X 30.6466 Y 21.8246 Z -1.0000 I -0.2497 J -0.1023
G03 X 30.4944 Y 21.8704 Z -1.0000 I -0.1522 J -0.2296
G01 X 30.4887 Y 21.8721 Z -1.0000
G01 X 30.4849 Y 21.8764 Z -1.0000
G03 X 30.4200 Y 21.9538 Z -1.0000 I -0.1653 J -0.0729
G03 X 30.3279 Y 21.9817 Z -1.0000 I -0.0921 J -0.1378
G01 X 30.3215 Y 21.9839 Z -1.0000
G01 X 30.3193 Y 21.9883 Z -1.0000
G01 X 30.3168 Y 21.9934 Z -1.0000
G03 X 30.2577 Y 22.0333 Z -1.0000 I -0.5742 J -0.7849
G02 X 30.1970 Y 22.0731 Z -1.0000 I 0.8957 J 1.4342
G02 X 30.1630 Y 22.0983 Z -1.0000 I 0.3267 J 0.4763
G03 X 30.1294 Y 22.1234 Z -1.0000 I -0.3939 J -0.4926
G01 X 30.1249 Y 22.1248 Z -1.0000
G01 X 30.1204 Y 22.1259 Z -1.0000
G02 X 30.1104 Y 22.1327 Z -1.0000 I 0.0276 J 0.0518
G03 X 30.0219 Y 22.2007 Z -1.0000 I -1.1098 J -1.3517
G01 X 30.0108 Y 22.2043 Z -1.0000
G01 X 30.0048 Y 22.2063 Z -1.0000
G02 X 29.9895 Y 22.2202 Z -1.0000 I 0.0651 J 0.0871
G03 X 29.9742 Y 22.2341 Z -1.0000 I -0.0790 J -0.0717
G01 X 29.9680 Y 22.2361 Z -1.0000
G01 X 29.9617 Y 22.2380 Z -1.0000
G02 X 29.9453 Y 22.2507 Z -1.0000 I 0.0643 J 0.0996
G03 X 29.9287 Y 22.2640 Z -1.0000 I -0.0976 J -0.1049
G03 X 29.9079 Y 22.2763 Z -1.0000 I -0.1031 J -0.1503
G02 X 29.8870 Y 22.2886 Z -1.0000 I 0.0825 J 0.1642
G02 X 29.8504 Y 22.3154 Z -1.0000 I 0.3768 J 0.5542
G03 X 29.7677 Y 22.3754 Z -1.0000 I -0.8560 J -1.0919
G01 X 29.7553 Y 22.3792 Z -1.0000
G01 X 29.7491 Y 22.3812 Z -1.0000
G01 X 29.7470 Y 22.3854 Z -1.0000
G01 X 29.7448 Y 22.3903 Z -1.0000
G03 X 29.7241 Y 22.4052 Z -1.0000 I -0.0931 J -0.1077
G02 X 29.6149 Y 22.4780 Z -1.0000 I 0.6080 J 1.0292
G02 X 29.5973 Y 22.5002 Z -1.0000 I 0.0333 J 0.0444
G01 X 29.5935 Y 22.5045 Z -1.0000
G01 X 29.5871 Y 22.5063 Z -1.0000
G01 X 29.5800 Y 22.5079 Z -1.0000
G01 X 29.5698 Y 22.5143 Z -1.0000
G03 X 29.5600 Y 22.5221 Z -1.0000 I -0.1903 J -0.2293
G03 X 29.5126 Y 22.5580 Z -1.0000 I -3.9382 J -5.1709
G02 X 29.4650 Y 22.5938 Z -1.0000 I 4.0896 J 5.4729
G02 X 29.4490 Y 22.6063 Z -1.0000 I 0.4937 J 0.6489
G03 X 29.4328 Y 22.6186 Z -1.0000 I -0.2063 J -0.2564
G03 X 29.3772 Y 22.6572 Z -1.0000 I -2.2302 J -3.1518
G02 X 29.3226 Y 22.6966 Z -1.0000 I 0.6872 J 1.0084
G02 X 29.3107 Y 22.7081 Z -1.0000 I 0.0450 J 0.0588
G03 X 29.2991 Y 22.7191 Z -1.0000 I -0.0519 J -0.0431
G01 X 29.2934 Y 22.7210 Z -1.0000
G01 X 29.2876 Y 22.7228 Z -1.0000
G02 X 29.2654 Y 22.7408 Z -1.0000 I 0.1234 J 0.1746
G03 X 29.2429 Y 22.7580 Z -1.0000 I -0.0989 J -0.1067
G01 X 29.2332 Y 22.7607 Z -1.0000
G01 X 29.2250 Y 22.7632 Z -1.0000
G01 X 29.2224 Y 22.7679 Z -1.0000
G01 X 29.2197 Y 22.7738 Z -1.0000
G03 X 29.1648 Y 22.8175 Z -1.0000 I -0.6051 J -0.7040
G02 X 29.1077 Y 22.8605 Z -1.0000 I 1.8336 J 2.4917
G02 X 29.0918 Y 22.8739 Z -1.0000 I 0.1595 J 0.2065
G03 X 29.0757 Y 22.8861 Z -1.0000 I -0.0771 J -0.0851
G01 X 29.0695 Y 22.8879 Z -1.0000
G02 X 29.0280 Y 22.9018 Z -1.0000 I 0.0000 J 0.0689
G02 X 28.9933 Y 22.9455 Z -1.0000 I 0.0672 J 0.0889
G01 X 28.9893 Y 22.9494 Z -1.0000
G01 X 28.9794 Y 22.9515 Z -1.0000
G01 X 28.9706 Y 22.9540 Z -1.0000
G01 X 28.9681 Y 22.9585 Z -1.0000
G01 X 28.9655 Y 22.9641 Z -1.0000
G03 X 28.9182 Y 23.0002 Z -1.0000 I -0.4318 J -0.5160
G02 X 28.8687 Y 23.0356 Z -1.0000 I 1.3642 J 1.9602
G02 X 28.7930 Y 23.0922 Z -1.0000 I 3.4369 J 4.6798
G03 X 28.7176 Y 23.1491 Z -1.0000 I -8.8401 J -11.6341
G03 X 28.6581 Y 23.1933 Z -1.0000 I -5.5372 J -7.3860
G02 X 28.5988 Y 23.2375 Z -1.0000 I 3.7760 J 5.1227
G02 X 28.5880 Y 23.2462 Z -1.0000 I 0.1338 J 0.1772
G03 X 28.5773 Y 23.2548 Z -1.0000 I -0.1687 J -0.1997
G03 X 28.3814 Y 23.4027 Z -1.0000 I -38.1602 J -50.3346
G02 X 28.1856 Y 23.5507 Z -1.0000 I 32.1509 J 42.7507
G02 X 28.0998 Y 23.6165 Z -1.0000 I 6.3143 J 8.3164
G03 X 28.0137 Y 23.6806 Z -1.0000 I -1.6662 J -2.1478
G01 X 28.0071 Y 23.6828 Z -1.0000
G01 X 28.0009 Y 23.6845 Z -1.0000
G01 X 27.9971 Y 23.6888 Z -1.0000
G01 X 27.9858 Y 23.7036 Z -1.0000
G03 X 27.8434 Y 23.8142 Z -1.0000 I -2.3965 J -2.9379
G02 X 27.7802 Y 23.8615 Z -1.0000 I 3.9127 J 5.2911
G01 X 27.7759 Y 23.8654 Z -1.0000
G03 X 27.7621 Y 23.8777 Z -1.0000 I -0.0867 J -0.0831
G03 X 27.6589 Y 23.9546 Z -1.0000 I -3.1802 J -4.1621
G02 X 27.5315 Y 24.0481 Z -1.0000 I 8.2958 J 11.4296
G02 X 27.4849 Y 24.0839 Z -1.0000 I 1.1614 J 1.5631
G03 X 27.4438 Y 24.1153 Z -1.0000 I -1.0509 J -1.3288
G03 X 27.3828 Y 24.1597 Z -1.0000 I -2.1340 J -2.8746
G02 X 27.3216 Y 24.2039 Z -1.0000 I 2.4576 J 3.4604
G02 X 27.3066 Y 24.2158 Z -1.0000 I 0.1635 J 0.2218
G03 X 27.2918 Y 24.2278 Z -1.0000 I -0.2652 J -0.3120
G03 X 27.2706 Y 24.2436 Z -1.0000 I -0.4584 J -0.5933
G02 X 27.2493 Y 24.2593 Z -1.0000 I 0.8984 J 1.2472
G02 X 27.1542 Y 24.3306 Z -1.0000 I 16.0819 J 21.5347
G03 X 27.0591 Y 24.4018 Z -1.0000 I -11.1183 J -14.7499
G03 X 27.0420 Y 24.4140 Z -1.0000 I -0.3451 J -0.4640
G02 X 26.9639 Y 24.4701 Z -1.0000 I 1.4014 J 2.0336
G02 X 26.9037 Y 24.5175 Z -1.0000 I 0.9328 J 1.2467
G03 X 26.8936 Y 24.5251 Z -1.0000 I -0.1113 J -0.1366
G03 X 26.8560 Y 24.5508 Z -1.0000 I -1.0714 J -1.5268
G02 X 26.8185 Y 24.5767 Z -1.0000 I 0.7509 J 1.1278
G02 X 26.7563 Y 24.6222 Z -1.0000 I 2.2623 J 3.1617
G03 X 26.6941 Y 24.6675 Z -1.0000 I -2.0078 J -2.6915
G01 X 26.6914 Y 24.6684 Z -1.0000
G01 X 26.6886 Y 24.6693 Z -1.0000
G02 X 26.6698 Y 24.6842 Z -1.0000 I 0.1849 J 0.2530
G03 X 26.5840 Y 24.7525 Z -1.0000 I -1.0573 J -1.2399
G03 X 26.4556 Y 24.8432 Z -1.0000 I -1.9946 J -2.6857
G02 X 26.4380 Y 24.8555 Z -1.0000 I 0.3280 J 0.4871
G02 X 26.3718 Y 24.9042 Z -1.0000 I 4.8928 J 6.7213
G03 X 26.3053 Y 24.9527 Z -1.0000 I -2.7026 J -3.6361
G03 X 26.2440 Y 24.9956 Z -1.0000 I -2.1711 J -3.0346
G02 X 26.1830 Y 25.0388 Z -1.0000 I 1.4408 J 2.1009
G02 X 26.1624 Y 25.0552 Z -1.0000 I 0.1856 J 0.2542
G03 X 26.1419 Y 25.0717 Z -1.0000 I -0.2214 J -0.2554
G03 X 26.0988 Y 25.1022 Z -1.0000 I -0.8069 J -1.0923
G02 X 26.0565 Y 25.1331 Z -1.0000 I 0.4354 J 0.6398
G01 X 26.0524 Y 25.1386 Z -1.0000
G01 X 26.0485 Y 25.1434 Z -1.0000
G01 X 26.0422 Y 25.1452 Z -1.0000
G01 X 26.0354 Y 25.1473 Z -1.0000
G02 X 26.0170 Y 25.1619 Z -1.0000 I 0.0746 J 0.1126
G03 X 25.9986 Y 25.1776 Z -1.0000 I -0.1646 J -0.1736
G03 X 25.9637 Y 25.2031 Z -1.0000 I -0.4699 J -0.6082
G02 X 25.9286 Y 25.2283 Z -1.0000 I 0.5616 J 0.8177
G01 X 25.9239 Y 25.2330 Z -1.0000
G01 X 25.9192 Y 25.2377 Z -1.0000
G03 X 25.8286 Y 25.3042 Z -1.0000 I -3.9554 J -5.3049
G02 X 25.6629 Y 25.4253 Z -1.0000 I 8.1917 J 11.3837
G02 X 25.6411 Y 25.4433 Z -1.0000 I 0.1584 J 0.2134
G03 X 25.6322 Y 25.4509 Z -1.0000 I -0.0895 J -0.0956
G03 X 25.6133 Y 25.4651 Z -1.0000 I -0.4027 J -0.5155
G03 X 25.5168 Y 25.5346 Z -1.0000 I -13.0557 J -18.0311
G03 X 25.4717 Y 25.5665 Z -1.0000 I -2.7584 J -3.8527
G02 X 25.4339 Y 25.5954 Z -1.0000 I 0.3064 J 0.4386
G01 X 25.4315 Y 25.6002 Z -1.0000
G01 X 25.4290 Y 25.6040 Z -1.0000
G01 X 25.4192 Y 25.6062 Z -1.0000
G01 X 25.4096 Y 25.6087 Z -1.0000
G01 X 25.4073 Y 25.6125 Z -1.0000
G01 X 25.4048 Y 25.6176 Z -1.0000
G03 X 25.3258 Y 25.6777 Z -1.0000 I -1.2569 J -1.5725
G02 X 25.2449 Y 25.7370 Z -1.0000 I 3.7002 J 5.1286
G01 X 25.2404 Y 25.7414 Z -1.0000
G01 X 25.2358 Y 25.7457 Z -1.0000
G03 X 25.1967 Y 25.7733 Z -1.0000 I -0.8027 J -1.0978
G02 X 25.1571 Y 25.8006 Z -1.0000 I 1.7360 J 2.5590
G02 X 25.1490 Y 25.8068 Z -1.0000 I 0.0802 J 0.1144
G03 X 25.0311 Y 25.8979 Z -1.0000 I -1.8016 J -2.2079
G03 X 24.8549 Y 26.0221 Z -1.0000 I -3.5400 J -4.8338
G02 X 24.8074 Y 26.0548 Z -1.0000 I 2.4532 J 3.6170
G02 X 24.7993 Y 26.0610 Z -1.0000 I 0.0801 J 0.1148
G03 X 24.7329 Y 26.1127 Z -1.0000 I -1.3028 J -1.6029
G03 X 24.6284 Y 26.1886 Z -1.0000 I -2.9164 J -3.9030
G03 X 24.5403 Y 26.2501 Z -1.0000 I -5.0327 J -7.1213
G03 X 24.5104 Y 26.2699 Z -1.0000 I -0.5555 J -0.8069
G02 X 24.4982 Y 26.2783 Z -1.0000 I 0.1151 J 0.1805
G02 X 24.4889 Y 26.2858 Z -1.0000 I 0.0792 J 0.1071
G03 X 24.4797 Y 26.2934 Z -1.0000 I -0.1046 J -0.1165
G03 X 24.4608 Y 26.3075 Z -1.0000 I -0.4552 J -0.5923
G02 X 24.4416 Y 26.3214 Z -1.0000 I 1.6359 J 2.2730
G02 X 24.3876 Y 26.3612 Z -1.0000 I 11.7416 J 16.0274
G03 X 24.3332 Y 26.4000 Z -1.0000 I -1.3273 J -1.7991
G01 X 24.3300 Y 26.4010 Z -1.0000
G01 X 24.3269 Y 26.4020 Z -1.0000
G02 X 24.2887 Y 26.4295 Z -1.0000 I 0.6153 J 0.8944
G03 X 24.2508 Y 26.4580 Z -1.0000 I -13.0498 J -17.3110
G03 X 24.2277 Y 26.4752 Z -1.0000 I -4.2528 J -5.6672
G03 X 24.2047 Y 26.4925 Z -1.0000 I -10.2246 J -13.6688
G02 X 24.1781 Y 26.5123 Z -1.0000 I 9.5577 J 12.8223
G03 X 24.1513 Y 26.5318 Z -1.0000 I -0.7361 J -0.9826
G03 X 24.1108 Y 26.5600 Z -1.0000 I -1.6083 J -2.2722
G02 X 24.0705 Y 26.5885 Z -1.0000 I 0.7485 J 1.0987
G02 X 24.0568 Y 26.5997 Z -1.0000 I 0.1018 J 0.1381
G03 X 24.0431 Y 26.6109 Z -1.0000 I -0.1039 J -0.1134
G03 X 24.0100 Y 26.6337 Z -1.0000 I -0.4997 J -0.6900
G02 X 23.9767 Y 26.6564 Z -1.0000 I 0.6288 J 0.9606
G02 X 23.9625 Y 26.6672 Z -1.0000 I 0.1300 J 0.1842
G03 X 23.9485 Y 26.6783 Z -1.0000 I -0.2438 J -0.2941
G03 X 23.9232 Y 26.6968 Z -1.0000 I -0.6571 J -0.8729
G03 X 23.8976 Y 26.7150 Z -1.0000 I -17.2542 J -24.2941
G02 X 23.7801 Y 26.7982 Z -1.0000 I 1725.0688 J 2434.5935
G02 X 23.6640 Y 26.8826 Z -1.0000 I 3.5446 J 5.0015
G01 X 23.6600 Y 26.8876 Z -1.0000
G01 X 23.6562 Y 26.8920 Z -1.0000
G01 X 23.6497 Y 26.8938 Z -1.0000
G01 X 23.6427 Y 26.8959 Z -1.0000
G02 X 23.5808 Y 26.9397 Z -1.0000 I 0.7478 J 1.1246
G03 X 23.5190 Y 26.9847 Z -1.0000 I -1.7059 J -2.2777
G03 X 23.4441 Y 27.0364 Z -1.0000 I -2.3267 J -3.2870
G02 X 23.3701 Y 27.0886 Z -1.0000 I 1.2351 J 1.8319
G01 X 23.3659 Y 27.0939 Z -1.0000
G01 X 23.3618 Y 27.0983 Z -1.0000
G01 X 23.3527 Y 27.1005 Z -1.0000
G01 X 23.3435 Y 27.1026 Z -1.0000
G01 X 23.3394 Y 27.1069 Z -1.0000
G01 X 23.3354 Y 27.1122 Z -1.0000
G03 X 23.2970 Y 27.1402 Z -1.0000 I -0.4014 J -0.5097
G02 X 23.2579 Y 27.1677 Z -1.0000 I 0.7034 J 1.0418
G01 X 23.2533 Y 27.1722 Z -1.0000
G03 X 23.2418 Y 27.1833 Z -1.0000 I -0.0414 J -0.0315
G03 X 23.1066 Y 27.2754 Z -1.0000 I -3.2602 J -4.6404
G02 X 23.0888 Y 27.2876 Z -1.0000 I 0.4898 J 0.7347
G02 X 23.0389 Y 27.3230 Z -1.0000 I 3.0559 J 4.3491
G03 X 22.9888 Y 27.3580 Z -1.0000 I -1.1622 J -1.6136
G03 X 22.9743 Y 27.3667 Z -1.0000 I -0.0843 J -0.1250
G02 X 22.9613 Y 27.3758 Z -1.0000 I 0.0267 J 0.0516
G01 X 22.9593 Y 27.3806 Z -1.0000
G01 X 22.9570 Y 27.3844 Z -1.0000
G01 X 22.9480 Y 27.3867 Z -1.0000
G01 X 22.9381 Y 27.3887 Z -1.0000
G01 X 22.9341 Y 27.3927 Z -1.0000
G03 X 22.8995 Y 27.4367 Z -1.0000 I -0.1056 J -0.0473
G03 X 22.8600 Y 27.4503 Z -1.0000 I -0.0395 J -0.0507
G01 X 22.8420 Y 27.4557 Z -1.0000
G02 X 22.8003 Y 27.4900 Z -1.0000 I 0.1519 J 0.2275
G01 X 22.7960 Y 27.4936 Z -1.0000
G03 X 22.7446 Y 27.5288 Z -1.0000 I -2.1870 J -3.1360
G02 X 22.6030 Y 27.6261 Z -1.0000 I 5.3624 J 7.9597
G02 X 22.5869 Y 27.6392 Z -1.0000 I 0.0810 J 0.1157
G03 X 22.5754 Y 27.6483 Z -1.0000 I -0.0533 J -0.0562
G03 X 22.5511 Y 27.6622 Z -1.0000 I -0.1562 J -0.2437
G02 X 22.5267 Y 27.6759 Z -1.0000 I 0.1791 J 0.3478
G01 X 22.5221 Y 27.6800 Z -1.0000
G03 X 22.4434 Y 27.7530 Z -1.0000 I -0.2923 J -0.2358
G03 X 22.3948 Y 27.7682 Z -1.0000 I -0.0487 J -0.0704
G01 X 22.3890 Y 27.7703 Z -1.0000
G01 X 22.3870 Y 27.7748 Z -1.0000
G01 X 22.3846 Y 27.7799 Z -1.0000
G03 X 22.3651 Y 27.7927 Z -1.0000 I -0.0692 J -0.0841
G02 X 22.3437 Y 27.8045 Z -1.0000 I 0.1954 J 0.3788
G01 X 22.3393 Y 27.8080 Z -1.0000
G03 X 22.3251 Y 27.8197 Z -1.0000 I -0.0632 J -0.0615
G03 X 22.2270 Y 27.8833 Z -1.0000 I -2.1716 J -3.2426
G02 X 22.1877 Y 27.9094 Z -1.0000 I 0.4776 J 0.7627
G02 X 22.0293 Y 28.0221 Z -1.0000 I 9.0083 J 12.8346
G03 X 21.9848 Y 28.0514 Z -1.0000 I -0.3768 J -0.5230
G01 X 21.9763 Y 28.0540 Z -1.0000
G01 X 21.9683 Y 28.0562 Z -1.0000
G01 X 21.9644 Y 28.0607 Z -1.0000
G03 X 21.9304 Y 28.1023 Z -1.0000 I -0.0863 J -0.0359
G03 X 21.8795 Y 28.1179 Z -1.0000 I -0.0509 J -0.0753
G01 X 21.8729 Y 28.1198 Z -1.0000
G01 X 21.8690 Y 28.1245 Z -1.0000
G03 X 21.8139 Y 28.1925 Z -1.0000 I -0.1370 J -0.0546
G03 X 21.6219 Y 28.2895 Z -1.0000 I -0.4948 J -0.7407
G01 X 21.6105 Y 28.2963 Z -1.0000
G01 X 21.6080 Y 28.3018 Z -1.0000
G01 X 21.6053 Y 28.3073 Z -1.0000
G03 X 21.5862 Y 28.3187 Z -1.0000 I -0.0571 J -0.0736
G02 X 21.5576 Y 28.3349 Z -1.0000 I 0.0690 J 0.1548
G02 X 21.5242 Y 28.3623 Z -1.0000 I 0.1701 J 0.2418
G03 X 21.5132 Y 28.3708 Z -1.0000 I -0.0488 J -0.0515
G01 X 21.5086 Y 28.3722 Z -1.0000
G01 X 21.5038 Y 28.3736 Z -1.0000
G02 X 21.4027 Y 28.4398 Z -1.0000 I 2.8734 J 4.4956
G02 X 21.2645 Y 28.5351 Z -1.0000 I 3.8172 J 5.6834
G01 X 21.2596 Y 28.5411 Z -1.0000
G01 X 21.2559 Y 28.5453 Z -1.0000
G01 X 21.2496 Y 28.5471 Z -1.0000
G01 X 21.2429 Y 28.5489 Z -1.0000
G02 X 21.1907 Y 28.5832 Z -1.0000 I 0.5347 J 0.8739
G01 X 21.1390 Y 28.6150 Z -1.0000
G01 X 21.0964 Y 28.6468 Z -1.0000
G03 X 21.0868 Y 28.6545 Z -1.0000 I -0.0570 J -0.0620
G03 X 20.9581 Y 28.7410 Z -1.0000 I -7.4420 J -10.9392
G02 X 20.8293 Y 28.8275 Z -1.0000 I 6.6226 J 9.9844
G02 X 20.8188 Y 28.8359 Z -1.0000 I 0.0510 J 0.0748
G03 X 20.8083 Y 28.8442 Z -1.0000 I -0.0511 J -0.0541
G03 X 20.7812 Y 28.8605 Z -1.0000 I -0.2473 J -0.3805
G02 X 20.7543 Y 28.8770 Z -1.0000 I 0.1944 J 0.3481
G02 X 20.6860 Y 28.9242 Z -1.0000 I 1.4374 J 2.1529
G03 X 20.5452 Y 29.0201 Z -1.0000 I -2.1651 J -3.0285
G01 X 20.5320 Y 29.0240 Z -1.0000
G01 X 20.5270 Y 29.0255 Z -1.0000
G02 X 20.5093 Y 29.0398 Z -1.0000 I 0.0993 J 0.1405
G03 X 20.4912 Y 29.0540 Z -1.0000 I -0.0945 J -0.1021
G03 X 20.4699 Y 29.0656 Z -1.0000 I -0.0810 J -0.1234
G02 X 20.4499 Y 29.0770 Z -1.0000 I 0.0450 J 0.1024
G01 X 20.4476 Y 29.0815 Z -1.0000
G01 X 20.4453 Y 29.0852 Z -1.0000
G01 X 20.4356 Y 29.0875 Z -1.0000
G01 X 20.4264 Y 29.0903 Z -1.0000
G01 X 20.4237 Y 29.0954 Z -1.0000
G01 X 20.4209 Y 29.1006 Z -1.0000
G01 X 20.4118 Y 29.1033 Z -1.0000
G01 X 20.4026 Y 29.1061 Z -1.0000
G01 X 20.3999 Y 29.1112 Z -1.0000
G01 X 20.3976 Y 29.1169 Z -1.0000
G01 X 20.3925 Y 29.1191 Z -1.0000
G01 X 20.3856 Y 29.1210 Z -1.0000
G02 X 20.3372 Y 29.1509 Z -1.0000 I 0.4468 J 0.7755
G03 X 20.2888 Y 29.1807 Z -1.0000 I -0.4381 J -0.6594
G01 X 20.2810 Y 29.1827 Z -1.0000
G01 X 20.2749 Y 29.1849 Z -1.0000
G01 X 20.2727 Y 29.1894 Z -1.0000
G01 X 20.2700 Y 29.1945 Z -1.0000
G03 X 20.2231 Y 29.2221 Z -1.0000 I -0.2979 J -0.4528
G02 X 20.1740 Y 29.2492 Z -1.0000 I 0.5561 J 1.0646
G02 X 20.1392 Y 29.2710 Z -1.0000 I 0.3264 J 0.5597
G03 X 20.1048 Y 29.2932 Z -1.0000 I -0.5984 J -0.8908
G01 X 20.1020 Y 29.2939 Z -1.0000
G01 X 20.0993 Y 29.2947 Z -1.0000
G02 X 20.0329 Y 29.3348 Z -1.0000 I 1.9867 J 3.3637
G03 X 19.9662 Y 29.3748 Z -1.0000 I -1.5665 J -2.5347
G03 X 19.9167 Y 29.4025 Z -1.0000 I -0.8051 J -1.3820
G02 X 19.8670 Y 29.4300 Z -1.0000 I 0.9479 J 1.7698
G02 X 19.8354 Y 29.4491 Z -1.0000 I 0.4237 J 0.7401
G03 X 19.8039 Y 29.4679 Z -1.0000 I -0.3808 J -0.6030
G01 X 19.8003 Y 29.4688 Z -1.0000
G01 X 19.7967 Y 29.4697 Z -1.0000
G02 X 19.6999 Y 29.5244 Z -1.0000 I 3.2278 J 5.8226
G03 X 19.6032 Y 29.5793 Z -1.0000 I -3.8551 J -6.6872
G01 X 19.6001 Y 29.5801 Z -1.0000
G01 X 19.5971 Y 29.5809 Z -1.0000
G02 X 19.5672 Y 29.5987 Z -1.0000 I 0.3806 J 0.6716
G03 X 19.5334 Y 29.6185 Z -1.0000 I -0.3304 J -0.5255
G03 X 19.2117 Y 29.7922 Z -1.0000 I -26.1922 J -48.1362
G03 X 18.6692 Y 30.0668 Z -1.0000 I -6.2281 J -11.6305
G03 X 18.3175 Y 30.2192 Z -1.0000 I -2.2611 J -4.7344
G02 X 18.2421 Y 30.2490 Z -1.0000 I 4.4031 J 11.2697
G02 X 18.2261 Y 30.2556 Z -1.0000 I 0.2034 J 0.5105
G03 X 18.2014 Y 30.2654 Z -1.0000 I -0.1544 J -0.3549
G03 X 18.0433 Y 30.3206 Z -1.0000 I -5.1242 J -14.4129
G02 X 18.0196 Y 30.3291 Z -1.0000 I 0.3107 J 0.9052
G02 X 18.0035 Y 30.3355 Z -1.0000 I 0.1550 J 0.4157
G03 X 17.8777 Y 30.3816 Z -1.0000 I -0.5815 J -1.3923
G03 X 17.7532 Y 30.4148 Z -1.0000 I -0.4216 J -1.3309
G02 X 17.7100 Y 30.4257 Z -1.0000 I 0.1428 J 0.6553
G02 X 17.6957 Y 30.4314 Z -1.0000 I 0.0220 J 0.0763
G03 X 17.6813 Y 30.4364 Z -1.0000 I -0.0247 J -0.0481
G03 X 17.6595 Y 30.4385 Z -1.0000 I -0.0218 J -0.1114
G02 X 17.6380 Y 30.4409 Z -1.0000 I -0.0000 J 0.0974
G01 X 17.6296 Y 30.4452 Z -1.0000
G03 X 17.5939 Y 30.4650 Z -1.0000 I -0.0615 J -0.0688
G03 X 17.4750 Y 30.4904 Z -1.0000 I -0.2301 J -0.7878
G02 X 17.3889 Y 30.5031 Z -1.0000 I 0.5685 J 4.1575
G02 X 17.2778 Y 30.5215 Z -1.0000 I 1.0863 J 6.8782
G03 X 17.2038 Y 30.5306 Z -1.0000 I -0.1254 J -0.7182
G03 X 17.1626 Y 30.5297 Z -1.0000 I -0.0157 J -0.2221
G02 X 17.1213 Y 30.5252 Z -1.0000 I -0.3601 J 3.1211
G02 X 17.0458 Y 30.5178 Z -1.0000 I -1.0682 J 10.4748
G03 X 16.9421 Y 30.5046 Z -1.0000 I 0.1550 J -1.6368
G03 X 16.8510 Y 30.4867 Z -1.0000 I 0.2037 J -1.2785
G03 X 16.7301 Y 30.4570 Z -1.0000 I 1.2421 J -5.3114
G03 X 16.6800 Y 30.4426 Z -1.0000 I 0.2375 J -0.9205
G02 X 16.6437 Y 30.4328 Z -1.0000 I -0.1319 J 0.4156
G02 X 16.6105 Y 30.4270 Z -1.0000 I -0.0771 J 0.3431
G03 X 16.5774 Y 30.4210 Z -1.0000 I 0.0388 J -0.3092
G03 X 16.5629 Y 30.4157 Z -1.0000 I 0.0150 J -0.0634
G02 X 16.5273 Y 30.4018 Z -1.0000 I -0.0901 J 0.1780
G02 X 16.4616 Y 30.3869 Z -1.0000 I -0.1693 J 0.5964
G03 X 16.4303 Y 30.3797 Z -1.0000 I 0.0456 J -0.2695
G03 X 16.4020 Y 30.3695 Z -1.0000 I 0.0682 J -0.2327
G02 X 16.3480 Y 30.3471 Z -1.0000 I -0.7075 J 1.6299
G02 X 16.3126 Y 30.3341 Z -1.0000 I -0.2728 J 0.6898
G03 X 16.2854 Y 30.3221 Z -1.0000 I 0.0536 J -0.1585
G01 X 16.2828 Y 30.3177 Z -1.0000
G01 X 16.2804 Y 30.3137 Z -1.0000
G01 X 16.2706 Y 30.3113 Z -1.0000
G01 X 16.2606 Y 30.3081 Z -1.0000
G01 X 16.2538 Y 30.2994 Z -1.0000
G01 X 16.2469 Y 30.2909 Z -1.0000
G01 X 16.2349 Y 30.2875 Z -1.0000
G03 X 16.2044 Y 30.2795 Z -1.0000 I -0.0000 J -0.0618
G01 X 16.2003 Y 30.2679 Z -1.0000
G01 X 16.1994 Y 30.2589 Z -1.0000
G02 X 16.1819 Y 30.2396 Z -1.0000 I -0.0695 J 0.0452
G01 X 16.1794 Y 30.2280 Z -1.0000
G02 X 16.1996 Y 30.2323 Z -1.0000 I 0.0314 J -0.0978
G02 X 16.2443 Y 30.2351 Z -1.0000 I 0.0527 J -0.4807
G03 X 16.2883 Y 30.2383 Z -1.0000 I -0.0063 J 0.3861
G01 X 16.2953 Y 30.2418 Z -1.0000
G01 X 16.3165 Y 30.2504 Z -1.0000
G02 X 16.3650 Y 30.2408 Z -1.0000 I -0.0018 J -0.1374
G01 X 16.3658 Y 30.2297 Z -1.0000
G02 X 16.3026 Y 30.2039 Z -1.0000 I -0.1186 J 0.2004
G03 X 16.2480 Y 30.1883 Z -1.0000 I 0.1776 J -0.7254
G01 X 16.2394 Y 30.1833 Z -1.0000
G01 X 16.2310 Y 30.1783 Z -1.0000
G01 X 16.2175 Y 30.1762 Z -1.0000
G01 X 16.2063 Y 30.1732 Z -1.0000
G01 X 16.2032 Y 30.1679 Z -1.0000
G01 X 16.2001 Y 30.1632 Z -1.0000
G01 X 16.1893 Y 30.1619 Z -1.0000
G01 X 16.1800 Y 30.1598 Z -1.0000
G01 X 16.1776 Y 30.1538 Z -1.0000
G01 X 16.1760 Y 30.1487 Z -1.0000
G01 X 16.1717 Y 30.1483 Z -1.0000
G01 X 16.1636 Y 30.1494 Z -1.0000
G03 X 16.1459 Y 30.1409 Z -1.0000 I 0.0163 J -0.0570
G02 X 16.1274 Y 30.1310 Z -1.0000 I -0.0500 J 0.0712
G01 X 16.1141 Y 30.1285 Z -1.0000
G01 X 16.1030 Y 30.1254 Z -1.0000
G01 X 16.0999 Y 30.1201 Z -1.0000
G01 X 16.0975 Y 30.1159 Z -1.0000
G01 X 16.0929 Y 30.1160 Z -1.0000
G01 X 16.0861 Y 30.1165 Z -1.0000
G03 X 16.0658 Y 30.1045 Z -1.0000 I 0.0347 J -0.0818
G02 X 16.0450 Y 30.0933 Z -1.0000 I -0.0427 J 0.0543
G01 X 16.0331 Y 30.0936 Z -1.0000
G01 X 16.0234 Y 30.0942 Z -1.0000
G01 X 16.0205 Y 30.0905 Z -1.0000
G01 X 16.0171 Y 30.0854 Z -1.0000
G02 X 15.9907 Y 30.0770 Z -1.0000 I -0.0477 J 0.1055
G03 X 15.9619 Y 30.0693 Z -1.0000 I 0.0350 J -0.1876
G01 X 15.9503 Y 30.0627 Z -1.0000
G01 X 15.9366 Y 30.0559 Z -1.0000
G02 X 15.8814 Y 30.0462 Z -1.0000 I -0.1063 J 0.4430
G03 X 15.8544 Y 30.0407 Z -1.0000 I 0.0179 J -0.1589
G03 X 15.8075 Y 30.0245 Z -1.0000 I 0.1457 J -0.4978
G02 X 15.7889 Y 30.0190 Z -1.0000 I -0.0385 J 0.0960
G02 X 15.7702 Y 30.0172 Z -1.0000 I -0.0187 J 0.0956
G03 X 15.7528 Y 30.0143 Z -1.0000 I -0.0000 J -0.0527
G01 X 15.7459 Y 30.0087 Z -1.0000
G01 X 15.7394 Y 30.0039 Z -1.0000
G01 X 15.7298 Y 30.0044 Z -1.0000
G01 X 15.7201 Y 30.0051 Z -1.0000
G01 X 15.7142 Y 30.0010 Z -1.0000
G01 X 15.7078 Y 29.9965 Z -1.0000
G02 X 15.6762 Y 29.9933 Z -1.0000 I -0.0321 J 0.1584
G03 X 15.6432 Y 29.9907 Z -1.0000 I 0.0006 J -0.2231
G03 X 15.5998 Y 29.9817 Z -1.0000 I 0.0625 J -0.4099
G02 X 15.5572 Y 29.9733 Z -1.0000 I -0.0859 J 0.3231
G01 X 15.5489 Y 29.9751 Z -1.0000
G01 X 15.5467 Y 29.9708 Z -1.0000
G01 X 15.5457 Y 29.9654 Z -1.0000
G01 X 15.5341 Y 29.9614 Z -1.0000
G03 X 15.5158 Y 29.9609 Z -1.0000 I 0.0074 J -0.5727
G03 X 15.4561 Y 29.9578 Z -1.0000 I 0.2082 J -4.6248
G02 X 15.3793 Y 29.9617 Z -1.0000 I -0.0203 J 0.3644
G01 X 15.3776 Y 29.9702 Z -1.0000
G01 X 15.3889 Y 29.9740 Z -1.0000
G01 X 15.4035 Y 29.9725 Z -1.0000
G01 X 15.4133 Y 29.9761 Z -1.0000
G01 X 15.4151 Y 29.9838 Z -1.0000
G02 X 15.4482 Y 29.9976 Z -1.0000 I 0.0597 J -0.0968
G01 X 15.4521 Y 29.9988 Z -1.0000
G03 X 15.4720 Y 30.0072 Z -1.0000 I -0.2906 J 0.7156
G02 X 15.4921 Y 30.0155 Z -1.0000 I 0.1969 J -0.4483
G02 X 15.5063 Y 30.0205 Z -1.0000 I 0.0872 J -0.2252
G01 X 15.5155 Y 30.0270 Z -1.0000
G01 X 15.5158 Y 30.0331 Z -1.0000
G01 X 15.5163 Y 30.0381 Z -1.0000
G01 X 15.5232 Y 30.0411 Z -1.0000
G01 X 15.5320 Y 30.0446 Z -1.0000
G01 X 15.5356 Y 30.0530 Z -1.0000
G01 X 15.5328 Y 30.0622 Z -1.0000
G01 X 15.5277 Y 30.0649 Z -1.0000
G01 X 15.5221 Y 30.0625 Z -1.0000
G01 X 15.5198 Y 30.0565 Z -1.0000
G01 X 15.5172 Y 30.0528 Z -1.0000
G01 X 15.5110 Y 30.0535 Z -1.0000
G03 X 15.4351 Y 30.0736 Z -1.0000 I -0.0709 J -0.1146
G03 X 15.3487 Y 30.0475 Z -1.0000 I 0.0066 J -0.1780
G01 X 15.3403 Y 30.0449 Z -1.0000
G02 X 15.1859 Y 30.0416 Z -1.0000 I -0.1932 J 5.3384
G03 X 15.0310 Y 30.0391 Z -1.0000 I 0.0625 J -8.6342
G03 X 15.0031 Y 30.0370 Z -1.0000 I 0.0071 J -0.2827
G02 X 14.9404 Y 30.0308 Z -1.0000 I -0.1488 J 1.1905
G02 X 14.6176 Y 30.0092 Z -1.0000 I -2.2633 J 31.4378
G02 X 14.2240 Y 30.0114 Z -1.0000 I -0.1808 J 2.9308
G02 X 13.8600 Y 30.0643 Z -1.0000 I 0.1858 J 2.5569
G02 X 13.7864 Y 30.0815 Z -1.0000 I 0.6168 J 2.8102
G01 X 13.7805 Y 30.0840 Z -1.0000
G01 X 13.7747 Y 30.0865 Z -1.0000
G03 X 13.6757 Y 30.1128 Z -1.0000 I -1.5462 J -5.6213
G02 X 13.5776 Y 30.1417 Z -1.0000 I 0.3563 J 1.3906
G02 X 13.5208 Y 30.1645 Z -1.0000 I 0.1634 J 0.4896
G03 X 13.4646 Y 30.1892 Z -1.0000 I -0.5067 J -1.0739
G03 X 13.4333 Y 30.2003 Z -1.0000 I -0.1310 J -0.3195
G02 X 13.3054 Y 30.2549 Z -1.0000 I 0.1830 J 0.6063
G02 X 13.0320 Y 30.4265 Z -1.0000 I 1.6761 J 2.9743
G03 X 12.9722 Y 30.4678 Z -1.0000 I -5.9928 J -8.6160
G03 X 12.8965 Y 30.5194 Z -1.0000 I -9.3510 J -13.6445
G02 X 12.8215 Y 30.5725 Z -1.0000 I 1.9617 J 2.8487
G02 X 12.7067 Y 30.6581 Z -1.0000 I 3.9341 J 5.4003
G03 X 12.5925 Y 30.7449 Z -1.0000 I -60.7891 J -79.7918
G03 X 12.5719 Y 30.7604 Z -1.0000 I -1.9829 J -2.6104
G02 X 12.3188 Y 30.9651 Z -1.0000 I 2.5491 J 3.4117
G02 X 11.8758 Y 31.3687 Z -1.0000 I 9.4976 J 10.8696
G02 X 11.2489 Y 31.9951 Z -1.0000 I 12.0049 J 12.6394
G02 X 10.7271 Y 32.5766 Z -1.0000 I 9.8173 J 9.3364
G03 X 10.7150 Y 32.5905 Z -1.0000 I -0.9847 J -0.8397
G03 X 10.6665 Y 32.6454 Z -1.0000 I -10.2381 J -8.9858
G02 X 10.6184 Y 32.7006 Z -1.0000 I 3.1710 J 2.8134
G02 X 10.5753 Y 32.7519 Z -1.0000 I 2.7204 J 2.3310
G03 X 10.5322 Y 32.8031 Z -1.0000 I -2.7735 J -2.2879
G03 X 10.4766 Y 32.8671 Z -1.0000 I -4.3486 J -3.7255
G02 X 10.4209 Y 32.9311 Z -1.0000 I 4.8460 J 4.2776
G02 X 10.3058 Y 33.0658 Z -1.0000 I 21.2055 J 18.2288
G03 X 10.1910 Y 33.2009 Z -1.0000 I -113.4200 J -96.2578
G03 X 10.1739 Y 33.2208 Z -1.0000 I -2.4573 J -2.0905
G02 X 10.0798 Y 33.3326 Z -1.0000 I 4.0624 J 3.5137
G02 X 9.8357 Y 33.6341 Z -1.0000 I 29.3511 J 24.0222
G03 X 9.8133 Y 33.6619 Z -1.0000 I -6.9419 J -5.5639
G03 X 9.7650 Y 33.7215 Z -1.0000 I -31.6365 J -25.5656
G02 X 9.7085 Y 33.7919 Z -1.0000 I 7.2316 J 5.8664
G02 X 9.6702 Y 33.8408 Z -1.0000 I 3.4635 J 2.7545
G03 X 9.6423 Y 33.8763 Z -1.0000 I -2.0380 J -1.5745
G01 X 9.6384 Y 33.8805 Z -1.0000
G02 X 9.6100 Y 33.9115 Z -1.0000 I 0.2019 J 0.2133
G02 X 9.3401 Y 34.2573 Z -1.0000 I 25.1377 J 19.8989
G03 X 9.2921 Y 34.3189 Z -1.0000 I -5.1225 J -3.9422
G03 X 9.2777 Y 34.3363 Z -1.0000 I -0.4216 J -0.3326
G02 X 9.2634 Y 34.3537 Z -1.0000 I 0.3806 J 0.3271
G02 X 9.1903 Y 34.4478 Z -1.0000 I 11.0500 J 8.6671
G03 X 9.1174 Y 34.5420 Z -1.0000 I -27.3140 J -21.0555
G03 X 9.0659 Y 34.6080 Z -1.0000 I -13.1620 J -10.2189
G02 X 9.0143 Y 34.6740 Z -1.0000 I 18.5061 J 14.5175
G02 X 8.9661 Y 34.7362 Z -1.0000 I 16.4205 J 12.7873
G02 X 8.7478 Y 35.0191 Z -1.0000 I 198.1516 J 153.1079
G02 X 8.6731 Y 35.1164 Z -1.0000 I 23.4117 J 18.0365
G01 X 8.5192 Y 35.3179 Z -1.0000
G02 X 8.4263 Y 35.4400 Z -1.0000 I 36.2869 J 27.7189
G02 X 8.3943 Y 35.4826 Z -1.0000 I 4.3842 J 3.3257
G03 X 8.3622 Y 35.5252 Z -1.0000 I -2.9122 J -2.1650
G03 X 8.3148 Y 35.5863 Z -1.0000 I -6.0748 J -4.6562
G02 X 8.2091 Y 35.7232 Z -1.0000 I 10.1630 J 7.9542
G02 X 8.0553 Y 35.9271 Z -1.0000 I 22.3950 J 17.0487
G03 X 8.0074 Y 35.9904 Z -1.0000 I -4.4839 J -3.3497
G03 X 7.9825 Y 36.0219 Z -1.0000 I -1.1348 J -0.8731
G02 X 7.9470 Y 36.0677 Z -1.0000 I 0.8666 J 0.7063
G02 X 7.7638 Y 36.3206 Z -1.0000 I 26.1917 J 19.1757
G03 X 7.7095 Y 36.3960 Z -1.0000 I -28.0427 J -20.1194
G03 X 7.6436 Y 36.4871 Z -1.0000 I -40.9635 J -29.5568
G02 X 7.5803 Y 36.5795 Z -1.0000 I 1.7230 J 1.2490
G02 X 7.5694 Y 36.6017 Z -1.0000 I 0.0869 J 0.0563
G01 X 7.5691 Y 36.6231 Z -1.0000
G01 X 7.5828 Y 36.6438 Z -1.0000
G02 X 7.6054 Y 36.6596 Z -1.0000 I 0.0881 J -0.1024
G01 X 7.6178 Y 36.6632 Z -1.0000
G02 X 7.6687 Y 36.6587 Z -1.0000 I 0.0106 J -0.1703
G02 X 7.7107 Y 36.6406 Z -1.0000 I -0.0323 J -0.1329
G02 X 7.8683 Y 36.5134 Z -1.0000 I -0.5257 J -0.8123
G02 X 7.8896 Y 36.4623 Z -1.0000 I -0.0512 J -0.0513
G01 X 7.8988 Y 36.4402 Z -1.0000
G03 X 7.9718 Y 36.3806 Z -1.0000 I 0.3420 J 0.3443
G02 X 8.0354 Y 36.3283 Z -1.0000 I -0.2260 J -0.3395
G02 X 8.4380 Y 35.9106 Z -1.0000 I -14.3860 J -14.2692
G02 X 8.5904 Y 35.7462 Z -1.0000 I -15.6945 J -14.6999
G02 X 8.6931 Y 35.6325 Z -1.0000 I -7.4043 J -6.7915
G03 X 8.7362 Y 35.5844 Z -1.0000 I 5.8576 J 5.2108
G03 X 8.8155 Y 35.4971 Z -1.0000 I 19.2613 J 17.4208
G02 X 8.8947 Y 35.4097 Z -1.0000 I -12.5198 J -11.4273
G02 X 8.9506 Y 35.3470 Z -1.0000 I -6.4185 J -5.7771
G03 X 9.0064 Y 35.2841 Z -1.0000 I 11.9548 J 10.5511
G03 X 9.0426 Y 35.2439 Z -1.0000 I 4.9275 J 4.3953
G02 X 9.0788 Y 35.2037 Z -1.0000 I -6.0688 J -5.5032
G02 X 9.1101 Y 35.1684 Z -1.0000 I -4.6516 J -4.1625
G03 X 9.1416 Y 35.1331 Z -1.0000 I 4.1344 J 3.6441
G03 X 9.1779 Y 35.0929 Z -1.0000 I 5.3460 J 4.7941
G02 X 9.2140 Y 35.0526 Z -1.0000 I -2.5543 J -2.3256
G02 X 9.2375 Y 35.0253 Z -1.0000 I -1.1410 J -1.0066
G03 X 9.2609 Y 34.9981 Z -1.0000 I 1.1941 J 1.0042
G03 X 9.2970 Y 34.9578 Z -1.0000 I 2.6521 J 2.3370
G02 X 9.3332 Y 34.9176 Z -1.0000 I -4.4519 J -4.0455
G02 X 9.3606 Y 34.8865 Z -1.0000 I -2.6198 J -2.3380
G03 X 9.3880 Y 34.8555 Z -1.0000 I 2.5066 J 2.1846
G03 X 9.3997 Y 34.8427 Z -1.0000 I 0.4332 J 0.3871
G02 X 9.4115 Y 34.8300 Z -1.0000 I -0.4932 J -0.4682
G02 X 9.5544 Y 34.6713 Z -1.0000 I -78.7782 J -71.0623
G03 X 9.6974 Y 34.5126 Z -1.0000 I 45.4593 J 40.8406
G03 X 9.7341 Y 34.4726 Z -1.0000 I 2.9286 J 2.6497
G02 X 9.8327 Y 34.3654 Z -1.0000 I -9.5479 J -8.8800
G02 X 10.0666 Y 34.1070 Z -1.0000 I -55.2468 J -50.2430
G03 X 10.3123 Y 33.8376 Z -1.0000 I 22.6548 J 20.4088
G03 X 10.5323 Y 33.6023 Z -1.0000 I 17.6238 J 16.2625
G02 X 10.5887 Y 33.5426 Z -1.0000 I -20.5651 J -19.4950
G02 X 10.6520 Y 33.4753 Z -1.0000 I -26.5917 J -25.0620
G03 X 10.7152 Y 33.4080 Z -1.0000 I 34.1860 J 32.0563
G03 X 10.7271 Y 33.3956 Z -1.0000 I 1.1746 J 1.1058
G02 X 10.8588 Y 33.2579 Z -1.0000 I -32.1722 J -30.9245
G02 X 10.9735 Y 33.1370 Z -1.0000 I -24.2788 J -23.1386
G03 X 11.0413 Y 33.0657 Z -1.0000 I 9.9541 J 9.3934
G03 X 11.1495 Y 32.9531 Z -1.0000 I 24.6052 J 23.5562
G02 X 11.2548 Y 32.8389 Z -1.0000 I -2.3448 J -2.2655
G01 X 11.2636 Y 32.8232 Z -1.0000
G01 X 11.2721 Y 32.8074 Z -1.0000
G03 X 11.2980 Y 32.7807 Z -1.0000 I 0.1619 J 0.1308
G02 X 11.4464 Y 32.6385 Z -1.0000 I -1.3013 J -1.5073
G01 X 11.4434 Y 32.6263 Z -1.0000
G01 X 11.4423 Y 32.6221 Z -1.0000
G03 X 11.4681 Y 32.6014 Z -1.0000 I 0.1057 J 0.1051
G02 X 11.5002 Y 32.5772 Z -1.0000 I -0.1343 J -0.2118
G02 X 11.5160 Y 32.5589 Z -1.0000 I -0.0606 J -0.0684
G03 X 11.5305 Y 32.5391 Z -1.0000 I 0.1817 J 0.1184
G03 X 11.5495 Y 32.5183 Z -1.0000 I 0.2307 J 0.1908
G02 X 11.5672 Y 32.4973 Z -1.0000 I -0.1125 J -0.1124
G01 X 11.5696 Y 32.4897 Z -1.0000
G03 X 11.6115 Y 32.3884 Z -1.0000 I 0.1434 J 0.0000
G03 X 11.7125 Y 32.3465 Z -1.0000 I 0.1010 J 0.1009
G01 X 11.7306 Y 32.3355 Z -1.0000
G01 X 11.7277 Y 32.3171 Z -1.0000
G01 X 11.7286 Y 32.3118 Z -1.0000
G03 X 11.7557 Y 32.3033 Z -1.0000 I 0.0407 J 0.0825
G03 X 11.7916 Y 32.3000 Z -1.0000 I 0.0460 J 0.3067
G01 X 11.7986 Y 32.3019 Z -1.0000
G01 X 11.8047 Y 32.3014 Z -1.0000
G02 X 11.9043 Y 32.2129 Z -1.0000 I -1.5940 J -1.8940
G03 X 12.0038 Y 32.1204 Z -1.0000 I 11.3861 J 12.1396
G03 X 12.0826 Y 32.0484 Z -1.0000 I 6.9568 J 7.5396
G02 X 12.1616 Y 31.9768 Z -1.0000 I -20.5863 J -22.7801
G02 X 12.1657 Y 31.9728 Z -1.0000 I -0.0592 J -0.0650
G03 X 12.2170 Y 31.9242 Z -1.0000 I 0.5595 J 0.5397
G03 X 12.4558 Y 31.7223 Z -1.0000 I 9.7187 J 11.2509
G02 X 12.5032 Y 31.6826 Z -1.0000 I -3.3218 J -4.0132
G01 X 12.5075 Y 31.6785 Z -1.0000
G03 X 12.5347 Y 31.6527 Z -1.0000 I 0.1928 J 0.1765
G03 X 12.7737 Y 31.4605 Z -1.0000 I 11.1920 J 13.6717
G02 X 12.8519 Y 31.3967 Z -1.0000 I -1.9642 J -2.4860
G01 X 12.8559 Y 31.3912 Z -1.0000
G01 X 12.8600 Y 31.3869 Z -1.0000
G01 X 12.8698 Y 31.3848 Z -1.0000
G01 X 12.8787 Y 31.3824 Z -1.0000
G01 X 12.8810 Y 31.3784 Z -1.0000
G01 X 12.8834 Y 31.3733 Z -1.0000
G03 X 12.9415 Y 31.3287 Z -1.0000 I 0.7046 J 0.8576
G02 X 13.0016 Y 31.2849 Z -1.0000 I -2.7244 J -3.8021
G02 X 13.0241 Y 31.2675 Z -1.0000 I -0.4065 J -0.5487
G03 X 13.0473 Y 31.2525 Z -1.0000 I 0.0843 J 0.1043
G01 X 13.0590 Y 31.2497 Z -1.0000
G01 X 13.0690 Y 31.2469 Z -1.0000
G01 X 13.0718 Y 31.2420 Z -1.0000
G01 X 13.0794 Y 31.2292 Z -1.0000
G03 X 13.1261 Y 31.2125 Z -1.0000 I 0.0775 J 0.1427
G02 X 13.1473 Y 31.2083 Z -1.0000 I -0.4300 J -2.2346
G02 X 13.1592 Y 31.2058 Z -1.0000 I -0.1467 J -0.7250
G03 X 13.1713 Y 31.2039 Z -1.0000 I 0.0214 J 0.0981
G03 X 13.1950 Y 31.2024 Z -1.0000 I 0.0353 J 0.3773
G01 X 13.2076 Y 31.1946 Z -1.0000
G01 X 13.2068 Y 31.1897 Z -1.0000
G01 X 13.2155 Y 31.1846 Z -1.0000
G01 X 13.2296 Y 31.1782 Z -1.0000
G01 X 13.2322 Y 31.1706 Z -1.0000
G01 X 13.2435 Y 31.1708 Z -1.0000
G01 X 13.2553 Y 31.1756 Z -1.0000
G01 X 13.2605 Y 31.1722 Z -1.0000
G01 X 13.2658 Y 31.1651 Z -1.0000
G01 X 13.2751 Y 31.1622 Z -1.0000
G01 X 13.2841 Y 31.1600 Z -1.0000
G01 X 13.2864 Y 31.1563 Z -1.0000
G01 X 13.2890 Y 31.1528 Z -1.0000
G03 X 13.3118 Y 31.1494 Z -1.0000 I 0.0265 J 0.0982
G02 X 13.3350 Y 31.1453 Z -1.0000 I -0.0031 J -0.0854
G01 X 13.3400 Y 31.1403 Z -1.0000
G01 X 13.3448 Y 31.1359 Z -1.0000
G01 X 13.3582 Y 31.1362 Z -1.0000
G01 X 13.3684 Y 31.1423 Z -1.0000
G01 X 13.3689 Y 31.1478 Z -1.0000
G01 X 13.3630 Y 31.1519 Z -1.0000
G01 X 13.3531 Y 31.1511 Z -1.0000
G01 X 13.3451 Y 31.1514 Z -1.0000
G01 X 13.3419 Y 31.1565 Z -1.0000
G03 X 13.2913 Y 31.2803 Z -1.0000 I -0.1828 J -0.0024
G03 X 13.1772 Y 31.3291 Z -1.0000 I -0.1142 J -0.1089
G01 X 13.1575 Y 31.3440 Z -1.0000
G02 X 13.1569 Y 31.4007 Z -1.0000 I 0.1036 J 0.0294
G01 X 13.1631 Y 31.4138 Z -1.0000
G01 X 13.1685 Y 31.4166 Z -1.0000
G01 X 13.1716 Y 31.4190 Z -1.0000
G01 X 13.1707 Y 31.4252 Z -1.0000
G01 X 13.1881 Y 31.4221 Z -1.0000
G03 X 13.2116 Y 31.4126 Z -1.0000 I 0.0652 J 0.1274
G03 X 13.2446 Y 31.4049 Z -1.0000 I 0.0754 J 0.2469
G02 X 13.2754 Y 31.3967 Z -1.0000 I -0.0275 J -0.1654
G01 X 13.2784 Y 31.3924 Z -1.0000
G01 X 13.2811 Y 31.3870 Z -1.0000
G03 X 13.3162 Y 31.3636 Z -1.0000 I 0.2019 J 0.2653
G02 X 13.3533 Y 31.3411 Z -1.0000 I -0.5344 J -0.9248
G01 X 13.3579 Y 31.3372 Z -1.0000
G01 X 13.3623 Y 31.3330 Z -1.0000
G03 X 13.4016 Y 31.3013 Z -1.0000 I 1.5185 J 1.8466
G02 X 13.4411 Y 31.2696 Z -1.0000 I -1.7987 J -2.2841
G02 X 13.4695 Y 31.2459 Z -1.0000 I -0.9758 J -1.1957
G03 X 13.6078 Y 31.1414 Z -1.0000 I 0.9233 J 1.0781
G03 X 13.7156 Y 31.0825 Z -1.0000 I 0.3934 J 0.5928
G02 X 13.7509 Y 31.0660 Z -1.0000 I -0.3292 J -0.7503
G02 X 13.7633 Y 31.0588 Z -1.0000 I -0.0488 J -0.0982
G03 X 13.8068 Y 31.0431 Z -1.0000 I 0.0535 J 0.0795
G01 X 13.8137 Y 31.0536 Z -1.0000
G03 X 13.7454 Y 31.1351 Z -1.0000 I -0.2571 J -0.1459
G03 X 13.6924 Y 31.1543 Z -1.0000 I -0.0530 J -0.0638
G02 X 13.6591 Y 31.1644 Z -1.0000 I 0.0000 J 0.0598
G02 X 13.5954 Y 31.2195 Z -1.0000 I 0.1934 J 0.2878
G03 X 13.5815 Y 31.2315 Z -1.0000 I -0.0557 J -0.0505
G01 X 13.5741 Y 31.2338 Z -1.0000
G01 X 13.5669 Y 31.2362 Z -1.0000
G02 X 13.5512 Y 31.2516 Z -1.0000 I 0.0596 J 0.0766
G03 X 13.5352 Y 31.2681 Z -1.0000 I -0.1027 J -0.0835
G03 X 13.4573 Y 31.3331 Z -1.0000 I -1.6895 J -1.9469
G02 X 13.3705 Y 31.4044 Z -1.0000 I 2.7492 J 3.4314
G02 X 13.1406 Y 31.6004 Z -1.0000 I 20.5387 J 24.3351
G02 X 12.8077 Y 31.8890 Z -1.0000 I 38.1744 J 44.3698
G02 X 12.6427 Y 32.0353 Z -1.0000 I 9.6528 J 11.0501
G02 X 12.2589 Y 32.3963 Z -1.0000 I 8.1382 J 9.0383
G02 X 11.8160 Y 32.8472 Z -1.0000 I 12.2644 J 12.4880
G03 X 11.5328 Y 33.1448 Z -1.0000 I -61.9816 J -58.7127
G03 X 11.2116 Y 33.4791 Z -1.0000 I -78.5163 J -75.0953
G02 X 11.0612 Y 33.6354 Z -1.0000 I 68.5500 J 66.1251
G02 X 10.9482 Y 33.7535 Z -1.0000 I 38.8941 J 37.3476
G02 X 10.8172 Y 33.8925 Z -1.0000 I 10.2407 J 9.7740
G02 X 10.6865 Y 34.0352 Z -1.0000 I 10.6433 J 9.8873
G03 X 10.6435 Y 34.0825 Z -1.0000 I -13.1933 J -11.9327
G03 X 10.5562 Y 34.1782 Z -1.0000 I -53.9486 J -49.1472
G02 X 10.4689 Y 34.2740 Z -1.0000 I 36.4974 J 33.3673
G02 X 10.4403 Y 34.3057 Z -1.0000 I 3.9740 J 3.6141
G03 X 10.4117 Y 34.3375 Z -1.0000 I -8.8257 J -7.8991
G03 X 10.3327 Y 34.4249 Z -1.0000 I -66.4122 J -59.8721
G02 X 10.2539 Y 34.5126 Z -1.0000 I 16.9036 J 15.2790
G02 X 10.1585 Y 34.6197 Z -1.0000 I 25.1110 J 22.4627
G03 X 10.0633 Y 34.7269 Z -1.0000 I -83.3936 J -73.9621
G03 X 10.0554 Y 34.7356 Z -1.0000 I -0.5540 J -0.4926
G02 X 10.0078 Y 34.7885 Z -1.0000 I 2.8074 J 2.5770
G02 X 9.9120 Y 34.8979 Z -1.0000 I 11.9431 J 10.5589
G03 X 9.8737 Y 34.9412 Z -1.0000 I -2.3064 J -2.0019
G01 X 9.8690 Y 34.9455 Z -1.0000
G01 X 9.8644 Y 34.9500 Z -1.0000
G02 X 9.7376 Y 35.0966 Z -1.0000 I 23.4475 J 20.3999
G03 X 9.6108 Y 35.2432 Z -1.0000 I -23.5126 J -20.2003
G03 X 9.5750 Y 35.2834 Z -1.0000 I -1.8027 J -1.5684
G02 X 9.5393 Y 35.3236 Z -1.0000 I 1.6837 J 1.5329
G02 X 9.5030 Y 35.3664 Z -1.0000 I 1.8635 J 1.6177
G03 X 9.4643 Y 35.4120 Z -1.0000 I -2.0283 J -1.6816
G03 X 9.4130 Y 35.4701 Z -1.0000 I -3.3329 J -2.8935
G02 X 9.3953 Y 35.4902 Z -1.0000 I 1.0686 J 0.9612
G02 X 9.2722 Y 35.6326 Z -1.0000 I 53.8778 J 46.6776
G03 X 9.1491 Y 35.7750 Z -1.0000 I -47.7241 J -41.1263
G03 X 9.1136 Y 35.8155 Z -1.0000 I -3.9122 J -3.3918
G02 X 9.0782 Y 35.8563 Z -1.0000 I 2.0526 J 1.8174
G02 X 9.0500 Y 35.8903 Z -1.0000 I 1.4002 J 1.1914
G03 X 9.0220 Y 35.9244 Z -1.0000 I -2.7821 J -2.2543
G03 X 9.0072 Y 35.9418 Z -1.0000 I -0.7323 J -0.6085
G02 X 8.7849 Y 36.2034 Z -1.0000 I 9.9760 J 8.7012
G02 X 8.6410 Y 36.3843 Z -1.0000 I 4.6224 J 3.8253
G03 X 8.5497 Y 36.4996 Z -1.0000 I -3.5068 J -2.6814
G03 X 8.5174 Y 36.5352 Z -1.0000 I -0.3644 J -0.2983
G02 X 8.4819 Y 36.5750 Z -1.0000 I 0.3220 J 0.3238
G02 X 8.3375 Y 36.7617 Z -1.0000 I 6.9873 J 5.5491
G02 X 8.2250 Y 36.9186 Z -1.0000 I 3.3961 J 2.5536
G02 X 8.1736 Y 37.0017 Z -1.0000 I 0.8971 J 0.6128
G01 X 8.1597 Y 37.0267 Z -1.0000
G01 X 8.1893 Y 37.0511 Z -1.0000
G02 X 8.2598 Y 37.0719 Z -1.0000 I 0.0596 J -0.0723
G02 X 8.3545 Y 37.0318 Z -1.0000 I -0.0213 J -0.1822
G02 X 8.4128 Y 36.9785 Z -1.0000 I -0.4390 J -0.5380
G02 X 8.4346 Y 36.9497 Z -1.0000 I -0.1039 J -0.1012
G03 X 8.4531 Y 36.9265 Z -1.0000 I 0.0863 J 0.0497
G03 X 8.4797 Y 36.9079 Z -1.0000 I 0.0808 J 0.0871
G02 X 8.5583 Y 36.8506 Z -1.0000 I -0.1440 J -0.2806
G02 X 9.1290 Y 36.2603 Z -1.0000 I -15.8617 J -15.9054
G03 X 9.1803 Y 36.2054 Z -1.0000 I 19.8771 J 18.5255
G03 X 9.2327 Y 36.1497 Z -1.0000 I 20.6244 J 19.3287
G02 X 9.4760 Y 35.8874 Z -1.0000 I -17.0964 J -16.1096
G02 X 9.6649 Y 35.6768 Z -1.0000 I -10.8401 J -9.9070
G03 X 9.6967 Y 35.6414 Z -1.0000 I 1.6238 J 1.4276
G03 X 9.7489 Y 35.5854 Z -1.0000 I 4.1097 J 3.7768
G02 X 9.8010 Y 35.5294 Z -1.0000 I -3.9091 J -3.6925
G02 X 9.9203 Y 35.3986 Z -1.0000 I -21.2255 J -19.4857
G03 X 10.0396 Y 35.2678 Z -1.0000 I 23.7893 J 21.5713
G03 X 10.0880 Y 35.2158 Z -1.0000 I 3.8091 J 3.4925
G02 X 10.2198 Y 35.0748 Z -1.0000 I -18.1816 J -17.1345
G02 X 10.2497 Y 35.0415 Z -1.0000 I -0.9764 J -0.9060
G03 X 10.3049 Y 34.9798 Z -1.0000 I 2.0116 J 1.7444
G03 X 10.4886 Y 34.7827 Z -1.0000 I 20.8416 J 19.2401
G02 X 10.5560 Y 34.7107 Z -1.0000 I -19.5885 J -18.4323
G02 X 10.6113 Y 34.6514 Z -1.0000 I -14.1362 J -13.2044
G03 X 10.8772 Y 34.3686 Z -1.0000 I 18.6535 J 17.2751
G03 X 11.2484 Y 33.9841 Z -1.0000 I 34.8576 J 33.2846
G02 X 11.3921 Y 33.8366 Z -1.0000 I -59.2730 J -57.8655
G02 X 11.5028 Y 33.7223 Z -1.0000 I -34.8549 J -33.8585
G03 X 11.7851 Y 33.4355 Z -1.0000 I 14.4538 J 13.9488
G03 X 11.9278 Y 33.2991 Z -1.0000 I 3.4111 J 3.4265
G02 X 12.0016 Y 33.2292 Z -1.0000 I -2.1555 J -2.3496
G02 X 12.1188 Y 33.1123 Z -1.0000 I -5.9004 J -6.0338
G03 X 12.4131 Y 32.8184 Z -1.0000 I 16.5630 J 16.2856
G03 X 12.4480 Y 32.7893 Z -1.0000 I 0.1944 J 0.1981
G02 X 12.4777 Y 32.7651 Z -1.0000 I -0.1491 J -0.2125
G02 X 12.4995 Y 32.7405 Z -1.0000 I -0.1324 J -0.1395
G03 X 12.5214 Y 32.7165 Z -1.0000 I 0.1311 J 0.0976
G03 X 12.5368 Y 32.7070 Z -1.0000 I 0.0338 J 0.0376
G02 X 12.5527 Y 32.6977 Z -1.0000 I -0.0214 J -0.0550
G02 X 12.6560 Y 32.6095 Z -1.0000 I -2.0421 J -2.4977
G03 X 12.8650 Y 32.4254 Z -1.0000 I 18.1413 J 20.3745
G03 X 12.8841 Y 32.4105 Z -1.0000 I 0.1360 J 0.1560
G02 X 12.9005 Y 32.3986 Z -1.0000 I -0.1914 J -0.2795
G01 X 12.9049 Y 32.3944 Z -1.0000
G01 X 12.9092 Y 32.3902 Z -1.0000
G03 X 12.9406 Y 32.3651 Z -1.0000 I 0.9449 J 1.1500
G02 X 12.9719 Y 32.3397 Z -1.0000 I -0.5926 J -0.7623
G02 X 13.0038 Y 32.3116 Z -1.0000 I -0.7038 J -0.8314
G03 X 13.0360 Y 32.2851 Z -1.0000 I 0.2649 J 0.2892
G01 X 13.0428 Y 32.2829 Z -1.0000
G01 X 13.0494 Y 32.2805 Z -1.0000
G02 X 13.0806 Y 32.2511 Z -1.0000 I -0.2476 J -0.2947
G03 X 13.1120 Y 32.2219 Z -1.0000 I 0.2581 J 0.2455
G01 X 13.1192 Y 32.2193 Z -1.0000
G01 X 13.1249 Y 32.2168 Z -1.0000
G01 X 13.1275 Y 32.2101 Z -1.0000
G01 X 13.1327 Y 32.2059 Z -1.0000
G01 X 13.1376 Y 32.2065 Z -1.0000
G02 X 13.1532 Y 32.1933 Z -1.0000 I -0.0347 J -0.0568
G03 X 13.1695 Y 32.1776 Z -1.0000 I 0.0987 J 0.0860
G01 X 13.1751 Y 32.1756 Z -1.0000
G01 X 13.1806 Y 32.1735 Z -1.0000
G02 X 13.1990 Y 32.1537 Z -1.0000 I -0.1142 J -0.1240
G03 X 13.2173 Y 32.1372 Z -1.0000 I 0.0567 J 0.0448
G01 X 13.2255 Y 32.1371 Z -1.0000
G01 X 13.2288 Y 32.1358 Z -1.0000
G01 X 13.2286 Y 32.1144 Z -1.0000
G01 X 13.2599 Y 32.1001 Z -1.0000
G01 X 13.2680 Y 32.0975 Z -1.0000
G01 X 13.2706 Y 32.0925 Z -1.0000
G01 X 13.2733 Y 32.0864 Z -1.0000
G03 X 13.3045 Y 32.0616 Z -1.0000 I 0.1980 J 0.2175
G02 X 13.3373 Y 32.0367 Z -1.0000 I -0.2420 J -0.3517
G02 X 13.3710 Y 32.0057 Z -1.0000 I -0.3403 J -0.4049
G03 X 13.4035 Y 31.9787 Z -1.0000 I 0.1635 J 0.1635
G01 X 13.4098 Y 31.9791 Z -1.0000
G01 X 13.4114 Y 31.9764 Z -1.0000
G01 X 13.4126 Y 31.9686 Z -1.0000
G03 X 13.5050 Y 31.8881 Z -1.0000 I 1.0615 J 1.1243
G02 X 13.5515 Y 31.8486 Z -1.0000 I -0.7225 J -0.8988
G01 X 13.5592 Y 31.8396 Z -1.0000
G01 X 13.5664 Y 31.8333 Z -1.0000
G01 X 13.5722 Y 31.8336 Z -1.0000
G01 X 13.5774 Y 31.8335 Z -1.0000
G01 X 13.5834 Y 31.8258 Z -1.0000
G01 X 13.5902 Y 31.8172 Z -1.0000
G01 X 13.6006 Y 31.8140 Z -1.0000
G01 X 13.6078 Y 31.8109 Z -1.0000
G01 X 13.6083 Y 31.8060 Z -1.0000
G01 X 13.6092 Y 31.8013 Z -1.0000
G01 X 13.6189 Y 31.7981 Z -1.0000
G01 X 13.6321 Y 31.7940 Z -1.0000
G02 X 13.6469 Y 31.7789 Z -1.0000 I -0.0308 J -0.0450
G01 X 13.6619 Y 31.7658 Z -1.0000
G01 X 13.6776 Y 31.7641 Z -1.0000
G01 X 13.6897 Y 31.7621 Z -1.0000
G01 X 13.6912 Y 31.7368 Z -1.0000
G03 X 13.7408 Y 31.7186 Z -1.0000 I 0.0496 J 0.0583
G02 X 13.7600 Y 31.7153 Z -1.0000 I 0.0000 J -0.0574
G01 X 13.7633 Y 31.7106 Z -1.0000
G01 X 13.7664 Y 31.7058 Z -1.0000
G01 X 13.7814 Y 31.7027 Z -1.0000
G02 X 13.7987 Y 31.6999 Z -1.0000 I -0.0000 J -0.0542
G02 X 13.8161 Y 31.6910 Z -1.0000 I -0.0218 J -0.0649
G03 X 13.8324 Y 31.6830 Z -1.0000 I 0.0343 J 0.0488
G01 X 13.8376 Y 31.6842 Z -1.0000
G01 X 13.8426 Y 31.6854 Z -1.0000
G01 X 13.8547 Y 31.6788 Z -1.0000
G01 X 13.8668 Y 31.6723 Z -1.0000
G01 X 13.8720 Y 31.6736 Z -1.0000
G01 X 13.8772 Y 31.6752 Z -1.0000
G01 X 13.8867 Y 31.6707 Z -1.0000
G01 X 13.8910 Y 31.6717 Z -1.0000
G01 X 13.8925 Y 31.6826 Z -1.0000
G01 X 13.8860 Y 31.6964 Z -1.0000
G01 X 13.8803 Y 31.6973 Z -1.0000
G01 X 13.8770 Y 31.7053 Z -1.0000
G01 X 13.8763 Y 31.7187 Z -1.0000
G01 X 13.8714 Y 31.7205 Z -1.0000
G02 X 13.8285 Y 31.7581 Z -1.0000 I 0.5833 J 0.7105
G03 X 13.7150 Y 31.8561 Z -1.0000 I -1.3900 J -1.4940
G01 X 13.6993 Y 31.8616 Z -1.0000
G01 X 13.6936 Y 31.8661 Z -1.0000
G01 X 13.6941 Y 31.8916 Z -1.0000
G03 X 13.6536 Y 31.9093 Z -1.0000 I -0.0405 J -0.0373
G01 X 13.6486 Y 31.9110 Z -1.0000
G02 X 13.6265 Y 31.9292 Z -1.0000 I 0.1463 J 0.1999
G03 X 13.6045 Y 31.9477 Z -1.0000 I -0.2004 J -0.2162
G01 X 13.6004 Y 31.9491 Z -1.0000
G01 X 13.5963 Y 31.9506 Z -1.0000
G02 X 13.5772 Y 31.9689 Z -1.0000 I 0.1528 J 0.1777
G03 X 13.5580 Y 31.9869 Z -1.0000 I -0.1356 J -0.1256
G01 X 13.5527 Y 31.9888 Z -1.0000
G01 X 13.5474 Y 31.9907 Z -1.0000
G02 X 13.5282 Y 32.0086 Z -1.0000 I 0.1164 J 0.1435
G03 X 13.5086 Y 32.0228 Z -1.0000 I -0.0451 J -0.0418
G01 X 13.4962 Y 32.0231 Z -1.0000
G01 X 13.4896 Y 32.0237 Z -1.0000
G01 X 13.4886 Y 32.0277 Z -1.0000
G01 X 13.4852 Y 32.0467 Z -1.0000
G03 X 13.4472 Y 32.0601 Z -1.0000 I -0.0389 J -0.0497
G01 X 13.4326 Y 32.0653 Z -1.0000
G01 X 13.4213 Y 32.0810 Z -1.0000
G01 X 13.4106 Y 32.0954 Z -1.0000
G01 X 13.4007 Y 32.0968 Z -1.0000
G01 X 13.3943 Y 32.0982 Z -1.0000
G01 X 13.3930 Y 32.1049 Z -1.0000
G01 X 13.3919 Y 32.1116 Z -1.0000
G01 X 13.3860 Y 32.1132 Z -1.0000
G01 X 13.3764 Y 32.1147 Z -1.0000
G02 X 13.3614 Y 32.1330 Z -1.0000 I 0.0362 J 0.0448
G01 X 13.3451 Y 32.1498 Z -1.0000
G01 X 13.3256 Y 32.1528 Z -1.0000
G01 X 13.3069 Y 32.1537 Z -1.0000
G01 X 13.3024 Y 32.1599 Z -1.0000
G01 X 13.3060 Y 32.1681 Z -1.0000
G01 X 13.3152 Y 32.1716 Z -1.0000
G01 X 13.3220 Y 32.1763 Z -1.0000
G01 X 13.3230 Y 32.1915 Z -1.0000
G01 X 13.3247 Y 32.2061 Z -1.0000
G01 X 13.3334 Y 32.2114 Z -1.0000
G01 X 13.3470 Y 32.2088 Z -1.0000
G01 X 13.3514 Y 32.2045 Z -1.0000
G01 X 13.3557 Y 32.1993 Z -1.0000
G03 X 13.3710 Y 32.1923 Z -1.0000 I 0.0347 J 0.0556
G01 X 13.3886 Y 32.2011 Z -1.0000
G01 X 13.3849 Y 32.2315 Z -1.0000
G01 X 13.3722 Y 32.2508 Z -1.0000
G01 X 13.3989 Y 32.2419 Z -1.0000
G02 X 13.4235 Y 32.2298 Z -1.0000 I -0.0319 J -0.0955
G02 X 13.4457 Y 32.2103 Z -1.0000 I -0.0661 J -0.0976
G03 X 13.4675 Y 32.1912 Z -1.0000 I 0.0850 J 0.0751
G01 X 13.4796 Y 32.1875 Z -1.0000
G02 X 13.5072 Y 32.1804 Z -1.0000 I -0.0000 J -0.0573
G02 X 13.5423 Y 32.1530 Z -1.0000 I -0.0673 J -0.1224
G01 X 13.5565 Y 32.1430 Z -1.0000
G01 X 13.5642 Y 32.1435 Z -1.0000
G01 X 13.5695 Y 32.1431 Z -1.0000
G01 X 13.5726 Y 32.1361 Z -1.0000
G01 X 13.5762 Y 32.1258 Z -1.0000
G01 X 13.5866 Y 32.1181 Z -1.0000
G02 X 13.5996 Y 32.1116 Z -1.0000 I -0.0256 J -0.0671
G02 X 13.6110 Y 32.1025 Z -1.0000 I -0.0370 J -0.0580
G01 X 13.6226 Y 32.0948 Z -1.0000
G01 X 13.6365 Y 32.0921 Z -1.0000
G01 X 13.6492 Y 32.0882 Z -1.0000
G01 X 13.6602 Y 32.0760 Z -1.0000
G01 X 13.6703 Y 32.0653 Z -1.0000
G01 X 13.6776 Y 32.0653 Z -1.0000
G01 X 13.6810 Y 32.0621 Z -1.0000
G01 X 13.6815 Y 32.0549 Z -1.0000
G03 X 13.6996 Y 32.0393 Z -1.0000 I 0.0532 J 0.0436
G02 X 13.7213 Y 32.0238 Z -1.0000 I -0.0791 J -0.1339
G01 X 13.7236 Y 32.0189 Z -1.0000
G01 X 13.7257 Y 32.0147 Z -1.0000
G01 X 13.7318 Y 32.0126 Z -1.0000
G01 X 13.7445 Y 32.0081 Z -1.0000
G02 X 13.8103 Y 31.9481 Z -1.0000 I -0.5547 J -0.6749
G03 X 13.8239 Y 31.9366 Z -1.0000 I 0.0749 J 0.0743
G03 X 13.8426 Y 31.9251 Z -1.0000 I 0.0918 J 0.1286
G02 X 13.9438 Y 31.8614 Z -1.0000 I -0.3430 J -0.6577
G02 X 14.0018 Y 31.8060 Z -1.0000 I -0.2003 J -0.2679
G01 X 14.0062 Y 31.8016 Z -1.0000
G03 X 14.1131 Y 31.7110 Z -1.0000 I 11.5401 J 13.5055
G03 X 14.2715 Y 31.5910 Z -1.0000 I 1.2566 J 1.4943
G03 X 14.3584 Y 31.5441 Z -1.0000 I 0.2719 J 0.3997
G02 X 14.4107 Y 31.5212 Z -1.0000 I -0.5569 J -1.3449
G02 X 14.4425 Y 31.5053 Z -1.0000 I -0.2376 J -0.5157
G01 X 14.4508 Y 31.5149 Z -1.0000
G03 X 14.3993 Y 31.5630 Z -1.0000 I -0.1606 J -0.1204
G02 X 14.3484 Y 31.5975 Z -1.0000 I 0.7555 J 1.1668
G02 X 14.3357 Y 31.6083 Z -1.0000 I 0.0596 J 0.0837
G03 X 14.3230 Y 31.6191 Z -1.0000 I -0.0798 J -0.0811
G03 X 14.3118 Y 31.6257 Z -1.0000 I -0.0396 J -0.0541
G02 X 14.3001 Y 31.6318 Z -1.0000 I 0.0583 J 0.1257
G02 X 14.2681 Y 31.6512 Z -1.0000 I 0.6102 J 1.0429
G03 X 14.2358 Y 31.6702 Z -1.0000 I -0.3691 J -0.5882
G03 X 14.2183 Y 31.6788 Z -1.0000 I -0.0907 J -0.1635
G02 X 14.2015 Y 31.6883 Z -1.0000 I 0.0341 J 0.0802
G02 X 14.1771 Y 31.7085 Z -1.0000 I 0.1375 J 0.1910
G03 X 14.1533 Y 31.7299 Z -1.0000 I -0.4254 J -0.4488
G03 X 14.1002 Y 31.7742 Z -1.0000 I -1.8767 J -2.1969
G02 X 14.0469 Y 31.8185 Z -1.0000 I 1.9903 J 2.4462
G02 X 14.0278 Y 31.8358 Z -1.0000 I 0.2845 J 0.3344
G03 X 14.0083 Y 31.8517 Z -1.0000 I -0.1091 J -0.1138
G01 X 14.0019 Y 31.8537 Z -1.0000
G01 X 13.9959 Y 31.8558 Z -1.0000
G01 X 13.9883 Y 31.8648 Z -1.0000
G01 X 13.9803 Y 31.8745 Z -1.0000
G03 X 13.8786 Y 31.9599 Z -1.0000 I -2.7248 J -3.1428
G02 X 13.6449 Y 32.1513 Z -1.0000 I 25.5527 J 31.4449
G02 X 13.5321 Y 32.2458 Z -1.0000 I 6.1135 J 7.4096
G03 X 13.4553 Y 32.3101 Z -1.0000 I -3.9241 J -4.6100
G03 X 13.4291 Y 32.3306 Z -1.0000 I -0.4276 J -0.5195
G02 X 13.4033 Y 32.3515 Z -1.0000 I 0.2442 J 0.3285
G02 X 13.3464 Y 32.4032 Z -1.0000 I 1.4359 J 1.6352
G03 X 13.2899 Y 32.4552 Z -1.0000 I -2.1059 J -2.2341
G03 X 13.2547 Y 32.4854 Z -1.0000 I -0.7505 J -0.8372
G02 X 13.2196 Y 32.5159 Z -1.0000 I 0.5435 J 0.6624
G02 X 13.1036 Y 32.6237 Z -1.0000 I 7.0230 J 7.6698
G03 X 12.9880 Y 32.7322 Z -1.0000 I -20.9174 J -22.1563
G03 X 12.9534 Y 32.7641 Z -1.0000 I -1.8346 J -1.9636
G02 X 12.7499 Y 32.9573 Z -1.0000 I 3.6738 J 4.0727
G02 X 12.4196 Y 33.2975 Z -1.0000 I 11.0758 J 11.0824
G03 X 12.3022 Y 33.4203 Z -1.0000 I -8.5198 J -8.0239
G03 X 11.8001 Y 33.9365 Z -1.0000 I -150.9113 J -146.3174
G02 X 11.4818 Y 34.2649 Z -1.0000 I 46.6360 J 45.5274
G02 X 11.3264 Y 34.4285 Z -1.0000 I 11.4288 J 11.0016
G03 X 11.2631 Y 34.4953 Z -1.0000 I -4.5623 J -4.2683
G03 X 11.2000 Y 34.5598 Z -1.0000 I -4.3296 J -4.1719
G02 X 11.1372 Y 34.6245 Z -1.0000 I 2.6835 J 2.6646
G02 X 11.0529 Y 34.7151 Z -1.0000 I 5.1623 J 4.8869
G03 X 10.9694 Y 34.8063 Z -1.0000 I -32.7314 J -29.9227
G03 X 10.9138 Y 34.8664 Z -1.0000 I -14.1932 J -13.0482
G02 X 10.7249 Y 35.0717 Z -1.0000 I 27.8310 J 25.8039
G02 X 10.6309 Y 35.1760 Z -1.0000 I 7.0850 J 6.4728
G03 X 10.5566 Y 35.2592 Z -1.0000 I -10.1912 J -9.0409
G03 X 10.5089 Y 35.3114 Z -1.0000 I -4.0539 J -3.6561
G02 X 10.4613 Y 35.3638 Z -1.0000 I 2.8421 J 2.6306
G02 X 10.4171 Y 35.4143 Z -1.0000 I 2.5842 J 2.3057
G03 X 10.3730 Y 35.4649 Z -1.0000 I -3.9016 J -3.3477
G03 X 10.3535 Y 35.4865 Z -1.0000 I -0.7437 J -0.6552
G02 X 10.3340 Y 35.5080 Z -1.0000 I 0.6344 J 0.5933
G02 X 10.2979 Y 35.5501 Z -1.0000 I 2.3649 J 2.0679
G03 X 10.2616 Y 35.5920 Z -1.0000 I -1.6507 J -1.3928
G03 X 10.2363 Y 35.6194 Z -1.0000 I -0.7304 J -0.6491
G02 X 10.2115 Y 35.6468 Z -1.0000 I 0.4695 J 0.4505
G01 X 10.2104 Y 35.6496 Z -1.0000
G01 X 10.2093 Y 35.6524 Z -1.0000
G03 X 10.1627 Y 35.7013 Z -1.0000 I -1.5330 J -1.4147
G02 X 10.1165 Y 35.7503 Z -1.0000 I 1.1545 J 1.1368
G01 X 10.1151 Y 35.7539 Z -1.0000
G01 X 10.1310 Y 35.7540 Z -1.0000
G01 X 10.1401 Y 35.7593 Z -1.0000
G01 X 10.1350 Y 35.7693 Z -1.0000
G01 X 10.1262 Y 35.7761 Z -1.0000
G01 X 10.1230 Y 35.7858 Z -1.0000
G01 X 10.1186 Y 35.7921 Z -1.0000
G01 X 10.1037 Y 35.7929 Z -1.0000
G01 X 10.0846 Y 35.7963 Z -1.0000
G02 X 10.0475 Y 35.8310 Z -1.0000 I 0.0916 J 0.1349
G03 X 10.0310 Y 35.8509 Z -1.0000 I -0.2731 J -0.2115
G03 X 9.9700 Y 35.9171 Z -1.0000 I -3.3008 J -2.9758
G02 X 9.9138 Y 35.9842 Z -1.0000 I 0.5668 J 0.5321
G01 X 9.9114 Y 35.9957 Z -1.0000
G01 X 9.9088 Y 36.0028 Z -1.0000
G01 X 9.8995 Y 36.0047 Z -1.0000
G01 X 9.8873 Y 36.0044 Z -1.0000
G01 X 9.8846 Y 36.0077 Z -1.0000
G01 X 9.8824 Y 36.0137 Z -1.0000
G03 X 9.8397 Y 36.0623 Z -1.0000 I -0.7453 J -0.6130
G02 X 9.7954 Y 36.1105 Z -1.0000 I 1.8474 J 1.7417
G02 X 9.7472 Y 36.1656 Z -1.0000 I 2.4118 J 2.1590
G03 X 9.6992 Y 36.2209 Z -1.0000 I -3.6428 J -3.1155
G03 X 9.6420 Y 36.2848 Z -1.0000 I -4.9348 J -4.3527
G02 X 9.5849 Y 36.3488 Z -1.0000 I 4.8651 J 4.4053
G02 X 9.5264 Y 36.4160 Z -1.0000 I 5.3099 J 4.6832
G03 X 9.4682 Y 36.4835 Z -1.0000 I -68.0348 J -58.5001
G03 X 9.4598 Y 36.4932 Z -1.0000 I -1.4083 J -1.2133
G02 X 9.4515 Y 36.5029 Z -1.0000 I 0.4491 J 0.3924
G02 X 9.4432 Y 36.5130 Z -1.0000 I 0.4762 J 0.3984
G03 X 9.4047 Y 36.5602 Z -1.0000 I -2.5659 J -2.0560
G03 X 9.3388 Y 36.6385 Z -1.0000 I -7.1419 J -5.9432
G01 X 9.2813 Y 36.7061 Z -1.0000
G02 X 9.1421 Y 36.8743 Z -1.0000 I 6.0245 J 5.1259
G02 X 9.0699 Y 36.9689 Z -1.0000 I 1.8337 J 1.4749
G03 X 9.0531 Y 36.9902 Z -1.0000 I -0.2758 J -0.1997
G03 X 9.0235 Y 37.0233 Z -1.0000 I -0.7003 J -0.5974
G02 X 8.8726 Y 37.2057 Z -1.0000 I 1.3614 J 1.2799
G02 X 8.7729 Y 37.3686 Z -1.0000 I 0.9836 J 0.7138
G01 X 8.7705 Y 37.4071 Z -1.0000
G02 X 8.7981 Y 37.4386 Z -1.0000 I 0.0539 J -0.0194
G02 X 8.8504 Y 37.4469 Z -1.0000 I 0.0387 J -0.0748
G02 X 8.9233 Y 37.4180 Z -1.0000 I -0.0299 J -0.1818
G02 X 9.0235 Y 37.3379 Z -1.0000 I -0.4307 J -0.6412
G01 X 9.0341 Y 37.3132 Z -1.0000
G01 X 9.0420 Y 37.2962 Z -1.0000
G03 X 9.1011 Y 37.2569 Z -1.0000 I 0.2052 J 0.2442
G02 X 9.2013 Y 37.1833 Z -1.0000 I -0.1819 J -0.3529
G02 X 10.0713 Y 36.2773 Z -1.0000 I -28.8000 J -28.5242
G03 X 10.0872 Y 36.2603 Z -1.0000 I 1.7279 J 1.6009
G03 X 10.1548 Y 36.1889 Z -1.0000 I 57.7562 J 54.5830
G02 X 10.2222 Y 36.1174 Z -1.0000 I -17.1577 J -16.2557
G02 X 10.3297 Y 36.0028 Z -1.0000 I -44.7662 J -42.0610
G03 X 10.5040 Y 35.8172 Z -1.0000 I 39.0232 J 36.4777
G03 X 10.6370 Y 35.6771 Z -1.0000 I 22.3543 J 21.0966
G02 X 10.7016 Y 35.6090 Z -1.0000 I -10.1373 J -9.6870
G02 X 10.7235 Y 35.5854 Z -1.0000 I -1.1749 J -1.1078
G03 X 10.7453 Y 35.5618 Z -1.0000 I 1.0338 J 0.9366
G03 X 10.8291 Y 35.4741 Z -1.0000 I 14.4079 J 13.6701
G02 X 10.9130 Y 35.3866 Z -1.0000 I -74.9869 J -72.0287
G02 X 11.0004 Y 35.2953 Z -1.0000 I -89.2933 J -85.5708
G03 X 11.9645 Y 34.3016 Z -1.0000 I 69.5916 J 66.5539
G03 X 12.3896 Y 33.8839 Z -1.0000 I 12.7157 J 12.5156
G02 X 12.4309 Y 33.8427 Z -1.0000 I -0.8409 J -0.8848
G02 X 12.4671 Y 33.8028 Z -1.0000 I -0.7472 J -0.7144
G03 X 12.5029 Y 33.7666 Z -1.0000 I 0.2804 J 0.2415
G01 X 12.5088 Y 33.7661 Z -1.0000
G01 X 12.5130 Y 33.7657 Z -1.0000
G01 X 12.5157 Y 33.7598 Z -1.0000
G01 X 12.5194 Y 33.7512 Z -1.0000
G03 X 12.5475 Y 33.7276 Z -1.0000 I 0.1403 J 0.1385
G02 X 12.5751 Y 33.7037 Z -1.0000 I -0.0958 J -0.1385
G01 X 12.5790 Y 33.6937 Z -1.0000
G01 X 12.5833 Y 33.6839 Z -1.0000
G03 X 12.6207 Y 33.6549 Z -1.0000 I 0.1797 J 0.1933
G02 X 12.6597 Y 33.6248 Z -1.0000 I -0.1503 J -0.2349
G02 X 12.7419 Y 33.5429 Z -1.0000 I -1.0558 J -1.1431
G03 X 12.8660 Y 33.4136 Z -1.0000 I 4.6804 J 4.3640
G03 X 13.0363 Y 33.2445 Z -1.0000 I 8.1557 J 8.0431
G03 X 13.0537 Y 33.2316 Z -1.0000 I 0.0561 J 0.0577
G01 X 13.0650 Y 33.2287 Z -1.0000
G01 X 13.0751 Y 33.2245 Z -1.0000
G02 X 13.1004 Y 33.1924 Z -1.0000 I -0.1405 J -0.1368
G03 X 13.1264 Y 33.1631 Z -1.0000 I 0.1029 J 0.0650
G01 X 13.1409 Y 33.1594 Z -1.0000
G01 X 13.1590 Y 33.1557 Z -1.0000
G02 X 13.2548 Y 33.0830 Z -1.0000 I -0.5714 J -0.8513
G03 X 13.2750 Y 33.0660 Z -1.0000 I 0.7324 J 0.8549
G03 X 13.3144 Y 33.0343 Z -1.0000 I 2.6537 J 3.2486
G02 X 13.3530 Y 33.0018 Z -1.0000 I -0.5648 J -0.7090
G02 X 13.3701 Y 32.9846 Z -1.0000 I -0.1401 J -0.1571
G03 X 13.3873 Y 32.9688 Z -1.0000 I 0.0861 J 0.0767
G01 X 13.3945 Y 32.9665 Z -1.0000
G01 X 13.4017 Y 32.9640 Z -1.0000
G02 X 13.4401 Y 32.9307 Z -1.0000 I -0.3145 J -0.4016
G03 X 13.4788 Y 32.8984 Z -1.0000 I 0.2549 J 0.2660
G01 X 13.4895 Y 32.8949 Z -1.0000
G01 X 13.4993 Y 32.8917 Z -1.0000
G01 X 13.5062 Y 32.8825 Z -1.0000
G01 X 13.5131 Y 32.8748 Z -1.0000
G01 X 13.5219 Y 32.8743 Z -1.0000
G01 X 13.5301 Y 32.8746 Z -1.0000
G01 X 13.5328 Y 32.8708 Z -1.0000
G01 X 13.5303 Y 32.8656 Z -1.0000
G01 X 13.5229 Y 32.8630 Z -1.0000
G01 X 13.5249 Y 32.8552 Z -1.0000
G01 X 13.5358 Y 32.8531 Z -1.0000
G01 X 13.5456 Y 32.8593 Z -1.0000
G01 X 13.5577 Y 32.8654 Z -1.0000
G01 X 13.5619 Y 32.8594 Z -1.0000
G01 X 13.5671 Y 32.8465 Z -1.0000
G01 X 13.5883 Y 32.8471 Z -1.0000
G01 X 13.5989 Y 32.8465 Z -1.0000
G01 X 13.6044 Y 32.8361 Z -1.0000
G01 X 13.6148 Y 32.8134 Z -1.0000
G01 X 13.6282 Y 32.8154 Z -1.0000
G01 X 13.6354 Y 32.8210 Z -1.0000
G01 X 13.6432 Y 32.8200 Z -1.0000
G01 X 13.6487 Y 32.8206 Z -1.0000
G01 X 13.6523 Y 32.8289 Z -1.0000
G01 X 13.6561 Y 32.8326 Z -1.0000
G01 X 13.6635 Y 32.8289 Z -1.0000
G01 X 13.6733 Y 32.8223 Z -1.0000
G01 X 13.6785 Y 32.8250 Z -1.0000
G01 X 13.6833 Y 32.8254 Z -1.0000
G01 X 13.6864 Y 32.8181 Z -1.0000
G01 X 13.6925 Y 32.8154 Z -1.0000
G01 X 13.6965 Y 32.8191 Z -1.0000
G03 X 13.6955 Y 32.8413 Z -1.0000 I -0.0672 J 0.0079
G03 X 13.6830 Y 32.8650 Z -1.0000 I -0.0490 J -0.0105
G01 X 13.6751 Y 32.8630 Z -1.0000
G01 X 13.6688 Y 32.8694 Z -1.0000
G03 X 13.6630 Y 32.8933 Z -1.0000 I -0.0606 J -0.0018
G03 X 13.6461 Y 32.9175 Z -1.0000 I -0.0780 J -0.0367
G02 X 13.5914 Y 32.9829 Z -1.0000 I 0.3516 J 0.3493
G01 X 13.5952 Y 32.9903 Z -1.0000
G01 X 13.6015 Y 32.9883 Z -1.0000
G02 X 13.6129 Y 32.9777 Z -1.0000 I -0.0351 J -0.0491
G01 X 13.6249 Y 32.9697 Z -1.0000
G01 X 13.6416 Y 32.9687 Z -1.0000
G01 X 13.6559 Y 32.9672 Z -1.0000
G01 X 13.6600 Y 32.9609 Z -1.0000
G01 X 13.6630 Y 32.9550 Z -1.0000
G01 X 13.6685 Y 32.9549 Z -1.0000
G01 X 13.6733 Y 32.9545 Z -1.0000
G01 X 13.6752 Y 32.9494 Z -1.0000
G03 X 13.6790 Y 32.9189 Z -1.0000 I 0.0527 J -0.0088
G03 X 13.7021 Y 32.8883 Z -1.0000 I 0.0766 J 0.0338
G03 X 13.7369 Y 32.8718 Z -1.0000 I 0.0499 J 0.0601
G01 X 13.7427 Y 32.8803 Z -1.0000
G01 X 13.7538 Y 32.8835 Z -1.0000
G01 X 13.7634 Y 32.8859 Z -1.0000
G01 X 13.7666 Y 32.8966 Z -1.0000
G01 X 13.7679 Y 32.9048 Z -1.0000
G01 X 13.7750 Y 32.8987 Z -1.0000
G03 X 13.8008 Y 32.8949 Z -1.0000 I 0.0257 J 0.0849
G01 X 13.8188 Y 32.8902 Z -1.0000
G01 X 13.8199 Y 32.8841 Z -1.0000
G01 X 13.8205 Y 32.8789 Z -1.0000
G01 X 13.8298 Y 32.8769 Z -1.0000
G02 X 13.8675 Y 32.8727 Z -1.0000 I 0.0121 J -0.0631
G02 X 13.9060 Y 32.8438 Z -1.0000 I -0.0413 J -0.0951
G01 X 13.9175 Y 32.8339 Z -1.0000
G01 X 13.9268 Y 32.8313 Z -1.0000
G01 X 13.9362 Y 32.8285 Z -1.0000
G02 X 13.9632 Y 32.8076 Z -1.0000 I -0.1153 J -0.1767
G03 X 14.0278 Y 32.7610 Z -1.0000 I 0.2351 J 0.2574
G01 X 14.0515 Y 32.7581 Z -1.0000
G01 X 14.0551 Y 32.7566 Z -1.0000
G01 X 14.0575 Y 32.7476 Z -1.0000
G01 X 14.0609 Y 32.7377 Z -1.0000
G01 X 14.0714 Y 32.7297 Z -1.0000
G02 X 14.1413 Y 32.6898 Z -1.0000 I -0.1186 J -0.2891
G01 X 14.1525 Y 32.6683 Z -1.0000
G01 X 14.1672 Y 32.6400 Z -1.0000
G01 X 14.1906 Y 32.6393 Z -1.0000
G01 X 14.1937 Y 32.6391 Z -1.0000
G02 X 14.2652 Y 32.5770 Z -1.0000 I -1.5666 J -1.8745
G03 X 14.2876 Y 32.5575 Z -1.0000 I 0.5284 J 0.5845
G03 X 14.3098 Y 32.5396 Z -1.0000 I 0.4721 J 0.5634
G02 X 14.3317 Y 32.5215 Z -1.0000 I -0.2642 J -0.3418
G02 X 14.3609 Y 32.4944 Z -1.0000 I -0.5633 J -0.6371
G03 X 14.3895 Y 32.4699 Z -1.0000 I 0.2113 J 0.2176
G01 X 14.3931 Y 32.4701 Z -1.0000
G01 X 14.3966 Y 32.4704 Z -1.0000
G02 X 14.4317 Y 32.4392 Z -1.0000 I -0.2890 J -0.3608
G03 X 14.4677 Y 32.4060 Z -1.0000 I 0.5241 J 0.5330
G01 X 14.4755 Y 32.4014 Z -1.0000
G02 X 14.4960 Y 32.3893 Z -1.0000 I -0.0242 J -0.0646
G02 X 14.6079 Y 32.2889 Z -1.0000 I -1.7959 J -2.1123
G03 X 14.6317 Y 32.2688 Z -1.0000 I 0.1855 J 0.1957
G01 X 14.6371 Y 32.2670 Z -1.0000
G01 X 14.6424 Y 32.2651 Z -1.0000
G02 X 14.6582 Y 32.2504 Z -1.0000 I -0.0800 J -0.1014
G03 X 14.7028 Y 32.2097 Z -1.0000 I 0.2339 J 0.2117
G03 X 14.8849 Y 32.0805 Z -1.0000 I 2.5819 J 3.4438
G03 X 15.1208 Y 31.9432 Z -1.0000 I 1.1774 J 1.7529
G01 X 15.1384 Y 31.9542 Z -1.0000
G01 X 15.1244 Y 31.9822 Z -1.0000
G03 X 14.9958 Y 32.0609 Z -1.0000 I -0.4860 J -0.6491
G02 X 14.8900 Y 32.1213 Z -1.0000 I 0.4337 J 0.8831
G02 X 14.8593 Y 32.1504 Z -1.0000 I 0.0651 J 0.0993
G01 X 14.8514 Y 32.1549 Z -1.0000
G01 X 14.8467 Y 32.1547 Z -1.0000
G02 X 14.7373 Y 32.2273 Z -1.0000 I 1.6903 J 2.6679
G02 X 14.6765 Y 32.2723 Z -1.0000 I 0.6783 J 0.9783
G02 X 14.6258 Y 32.3156 Z -1.0000 I 0.5733 J 0.7239
G03 X 14.5675 Y 32.3673 Z -1.0000 I -1.6301 J -1.7784
G03 X 14.4232 Y 32.4896 Z -1.0000 I -9.2283 J -10.7452
G02 X 14.3331 Y 32.5653 Z -1.0000 I 14.0822 J 16.8462
G02 X 14.2962 Y 32.5969 Z -1.0000 I 2.3876 J 2.8253
G03 X 14.2594 Y 32.6284 Z -1.0000 I -2.0578 J -2.3713
G03 X 14.2206 Y 32.6604 Z -1.0000 I -2.1741 J -2.5849
G02 X 14.0429 Y 32.8087 Z -1.0000 I 6.8921 J 8.4461
G02 X 13.9221 Y 32.9148 Z -1.0000 I 3.3983 J 3.9886
G03 X 13.8692 Y 32.9621 Z -1.0000 I -3.5442 J -3.9105
G03 X 13.8423 Y 32.9852 Z -1.0000 I -0.8634 J -0.9788
G02 X 13.7594 Y 33.0575 Z -1.0000 I 1.6628 J 1.9912
G02 X 13.6045 Y 33.2016 Z -1.0000 I 6.4647 J 7.1059
G03 X 13.5367 Y 33.2656 Z -1.0000 I -10.6235 J -11.1734
G03 X 13.4733 Y 33.3247 Z -1.0000 I -8.9164 J -9.4923
G02 X 12.6676 Y 34.1009 Z -1.0000 I 19.4518 J 20.9978
G02 X 11.5815 Y 35.2195 Z -1.0000 I 39.8191 J 39.7486
G03 X 11.4422 Y 35.3669 Z -1.0000 I -111.5366 J -105.3332
G03 X 11.3515 Y 35.4624 Z -1.0000 I -46.6804 J -44.2010
G02 X 11.1911 Y 35.6334 Z -1.0000 I 13.0262 J 12.3849
G02 X 11.0825 Y 35.7528 Z -1.0000 I 6.2497 J 5.7887
G03 X 11.0533 Y 35.7848 Z -1.0000 I -1.4026 J -1.2506
G03 X 11.0116 Y 35.8288 Z -1.0000 I -2.6695 J -2.4931
G02 X 10.9698 Y 35.8727 Z -1.0000 I 2.9858 J 2.8827
G02 X 10.8821 Y 35.9669 Z -1.0000 I 13.6540 J 12.8027
G03 X 10.7945 Y 36.0614 Z -1.0000 I -45.5719 J -42.1501
G03 X 10.7469 Y 36.1124 Z -1.0000 I -12.9443 J -12.0223
G02 X 10.7010 Y 36.1645 Z -1.0000 I 0.8473 J 0.7932
G01 X 10.6938 Y 36.1764 Z -1.0000
G01 X 10.6878 Y 36.1823 Z -1.0000
G01 X 10.6664 Y 36.1982 Z -1.0000
G03 X 10.5982 Y 36.2727 Z -1.0000 I -12.6029 J -11.4616
G03 X 10.4528 Y 36.4302 Z -1.0000 I -54.7263 J -50.3662
G03 X 10.4128 Y 36.4729 Z -1.0000 I -4.1472 J -3.8395
G03 X 10.3585 Y 36.5300 Z -1.0000 I -7.4558 J -7.0473
G02 X 10.3045 Y 36.5873 Z -1.0000 I 3.1891 J 3.0611
G02 X 10.2433 Y 36.6544 Z -1.0000 I 4.2987 J 3.9814
G03 X 10.1822 Y 36.7215 Z -1.0000 I -5.0229 J -4.5095
G03 X 10.1655 Y 36.7388 Z -1.0000 I -0.3483 J -0.3213
G02 X 10.1489 Y 36.7561 Z -1.0000 I 0.2537 J 0.2578
G02 X 10.0983 Y 36.8143 Z -1.0000 I 2.6000 J 2.3135
G03 X 10.0478 Y 36.8724 Z -1.0000 I -2.7568 J -2.3458
G03 X 10.0241 Y 36.8979 Z -1.0000 I -0.5506 J -0.4891
G02 X 10.0001 Y 36.9232 Z -1.0000 I 0.8168 J 0.7977
G02 X 9.9560 Y 36.9719 Z -1.0000 I 3.0126 J 2.7679
G03 X 9.9122 Y 37.0209 Z -1.0000 I -7.9331 J -7.0569
G03 X 9.8885 Y 37.0469 Z -1.0000 I -2.2657 J -2.0407
G02 X 9.8125 Y 37.1413 Z -1.0000 I 0.6655 J 0.6135
G01 X 9.8099 Y 37.1591 Z -1.0000
G01 X 9.8083 Y 37.1653 Z -1.0000
G03 X 9.7869 Y 37.1799 Z -1.0000 I -0.0642 J -0.0710
G02 X 9.7665 Y 37.1953 Z -1.0000 I 0.0317 J 0.0635
G01 X 9.7636 Y 37.2053 Z -1.0000
G01 X 9.7532 Y 37.2309 Z -1.0000
G01 X 9.7306 Y 37.2290 Z -1.0000
G01 X 9.7255 Y 37.2328 Z -1.0000
G01 X 9.7224 Y 37.2415 Z -1.0000
G03 X 9.6219 Y 37.3576 Z -1.0000 I -2.8983 J -2.4076
G02 X 9.5867 Y 37.3982 Z -1.0000 I 0.9966 J 0.8990
G02 X 9.5655 Y 37.4254 Z -1.0000 I 0.4220 J 0.3510
G02 X 9.4701 Y 37.5633 Z -1.0000 I 2.5870 J 1.8907
G02 X 9.4394 Y 37.6183 Z -1.0000 I 0.3785 J 0.2473
G03 X 9.3983 Y 37.6834 Z -1.0000 I -0.2829 J -0.1329
G03 X 9.3679 Y 37.7056 Z -1.0000 I -0.0579 J -0.0474
G01 X 9.3652 Y 37.7117 Z -1.0000
G01 X 9.3756 Y 37.7262 Z -1.0000
G02 X 9.4313 Y 37.7508 Z -1.0000 I 0.0737 J -0.0913
G02 X 9.4808 Y 37.7425 Z -1.0000 I 0.0122 J -0.0788
G02 X 9.5173 Y 37.7191 Z -1.0000 I -0.1196 J -0.2258
G02 X 9.5829 Y 37.6638 Z -1.0000 I -0.6102 J -0.7916
G03 X 9.5961 Y 37.6521 Z -1.0000 I 0.3892 J 0.4236
G03 X 9.6335 Y 37.6201 Z -1.0000 I 3.0400 J 3.5194
G02 X 9.6702 Y 37.5874 Z -1.0000 I -0.6434 J -0.7611
G02 X 9.6924 Y 37.5651 Z -1.0000 I -0.2776 J -0.2973
G03 X 9.8184 Y 37.4372 Z -1.0000 I 1.8463 J 1.6937
G03 X 9.9384 Y 37.3328 Z -1.0000 I 1.3488 J 1.4284
G02 X 10.0869 Y 37.2092 Z -1.0000 I -3.3408 J -4.1671
G02 X 10.1671 Y 37.1354 Z -1.0000 I -1.1107 J -1.2871
G03 X 10.1837 Y 37.1196 Z -1.0000 I 0.5471 J 0.5576
G03 X 10.2228 Y 37.0840 Z -1.0000 I 2.7735 J 2.9979
G02 X 10.3714 Y 36.9477 Z -1.0000 I -8.1163 J -9.0029
G02 X 10.5561 Y 36.7732 Z -1.0000 I -13.0881 J -14.0409
G03 X 10.6278 Y 36.7049 Z -1.0000 I 18.5448 J 19.3726
G03 X 10.7110 Y 36.6260 Z -1.0000 I 25.3951 J 26.7255
G03 X 10.7944 Y 36.5473 Z -1.0000 I 1651.6101 J 1750.1596
G02 X 10.8071 Y 36.5353 Z -1.0000 I -58.4594 J -61.9170
G03 X 10.8198 Y 36.5233 Z -1.0000 I 11.8261 J 12.5239
G03 X 10.9463 Y 36.4041 Z -1.0000 I 965.6603 J 1024.7230
G02 X 11.0726 Y 36.2848 Z -1.0000 I -57.4038 J -60.9341
G02 X 11.1563 Y 36.2054 Z -1.0000 I -25.7538 J -27.2242
G03 X 11.5320 Y 35.8482 Z -1.0000 I 361.9392 J 380.2514
G03 X 11.5413 Y 35.8397 Z -1.0000 I 0.2146 J 0.2259
G02 X 11.5580 Y 35.8246 Z -1.0000 I -0.4227 J -0.4829
G02 X 11.8000 Y 35.5967 Z -1.0000 I -96.1152 J -102.3218
G03 X 12.0942 Y 35.3222 Z -1.0000 I 24.4487 J 25.9045
G03 X 12.4324 Y 35.0132 Z -1.0000 I 31.3218 J 33.9470
G02 X 12.5105 Y 34.9409 Z -1.0000 I -3.0747 J -3.3997
G02 X 12.5918 Y 34.8622 Z -1.0000 I -3.5730 J -3.7708
G03 X 12.9351 Y 34.5325 Z -1.0000 I 11.0875 J 11.2024
G01 X 12.9542 Y 34.5245 Z -1.0000
G01 X 12.9592 Y 34.5227 Z -1.0000
G02 X 12.9867 Y 34.4985 Z -1.0000 I -0.2488 J -0.3103
G03 X 13.0136 Y 34.4728 Z -1.0000 I 1.9126 J 1.9803
G03 X 13.0287 Y 34.4590 Z -1.0000 I 0.5822 J 0.6193
G02 X 13.0436 Y 34.4450 Z -1.0000 I -0.3479 J -0.3892
G02 X 13.0636 Y 34.4252 Z -1.0000 I -0.7166 J -0.7409
G03 X 13.0848 Y 34.4085 Z -1.0000 I 0.0747 J 0.0731
G01 X 13.0974 Y 34.4051 Z -1.0000
G01 X 13.1086 Y 34.4027 Z -1.0000
G01 X 13.1105 Y 34.3991 Z -1.0000
G01 X 13.1151 Y 34.3812 Z -1.0000
G01 X 13.1316 Y 34.3718 Z -1.0000
G01 X 13.1495 Y 34.3642 Z -1.0000
G01 X 13.1540 Y 34.3396 Z -1.0000
G01 X 13.1877 Y 34.3256 Z -1.0000
G01 X 13.1954 Y 34.3222 Z -1.0000
G01 X 13.2030 Y 34.3091 Z -1.0000
G01 X 13.2108 Y 34.2979 Z -1.0000
G01 X 13.2188 Y 34.2967 Z -1.0000
G02 X 13.3373 Y 34.2776 Z -1.0000 I 0.0428 J -0.1115
G02 X 13.3976 Y 34.1503 Z -1.0000 I -0.1042 J -0.1273
G02 X 13.3975 Y 34.1428 Z -1.0000 I -0.2104 J -0.0000
G02 X 13.3971 Y 34.1374 Z -1.0000 I -0.1096 J 0.0039
G01 X 13.3992 Y 34.1336 Z -1.0000
G03 X 13.4230 Y 34.1235 Z -1.0000 I 0.0680 J 0.1264
G02 X 13.4448 Y 34.1117 Z -1.0000 I -0.0213 J -0.0658
G01 X 13.4493 Y 34.1025 Z -1.0000
G01 X 13.4521 Y 34.0912 Z -1.0000
G03 X 13.4632 Y 34.0761 Z -1.0000 I 0.0563 J 0.0298
G01 X 13.4771 Y 34.0707 Z -1.0000
G01 X 13.4802 Y 34.0737 Z -1.0000
G01 X 13.4925 Y 34.0697 Z -1.0000
G02 X 13.5045 Y 34.0593 Z -1.0000 I -0.0268 J -0.0432
G01 X 13.5048 Y 34.0552 Z -1.0000
G01 X 13.5093 Y 34.0283 Z -1.0000
G01 X 13.5361 Y 34.0296 Z -1.0000
G01 X 13.5780 Y 34.0286 Z -1.0000
G02 X 13.5910 Y 33.9690 Z -1.0000 I -0.0454 J -0.0411
G01 X 13.5949 Y 33.9672 Z -1.0000
G01 X 13.6040 Y 33.9692 Z -1.0000
G02 X 13.6652 Y 33.9262 Z -1.0000 I -0.2225 J -0.3816
G02 X 13.7758 Y 33.8241 Z -1.0000 I -1.0088 J -1.2039
G01 X 13.7728 Y 33.8169 Z -1.0000
G01 X 13.7659 Y 33.8143 Z -1.0000
G01 X 13.7633 Y 33.8085 Z -1.0000
G01 X 13.7655 Y 33.8042 Z -1.0000
G01 X 13.7698 Y 33.8041 Z -1.0000
G01 X 13.7755 Y 33.8040 Z -1.0000
G01 X 13.7872 Y 33.7929 Z -1.0000
G01 X 13.7990 Y 33.7845 Z -1.0000
G01 X 13.8085 Y 33.7864 Z -1.0000
G01 X 13.8193 Y 33.7888 Z -1.0000
G02 X 13.8467 Y 33.7762 Z -1.0000 I -0.0234 J -0.0872
G02 X 13.8726 Y 33.7563 Z -1.0000 I -0.1607 J -0.2359
G01 X 13.8745 Y 33.7522 Z -1.0000
G01 X 13.8764 Y 33.7480 Z -1.0000
G03 X 13.9356 Y 33.7005 Z -1.0000 I 0.9700 J 1.1480
G02 X 13.9961 Y 33.6532 Z -1.0000 I -1.8864 J -2.4760
G02 X 14.0171 Y 33.6352 Z -1.0000 I -0.2534 J -0.3161
G03 X 14.0383 Y 33.6175 Z -1.0000 I 0.1957 J 0.2126
G03 X 14.0951 Y 33.5761 Z -1.0000 I 1.1259 J 1.4863
G02 X 14.1504 Y 33.5346 Z -1.0000 I -0.6007 J -0.8583
G01 X 14.1527 Y 33.5298 Z -1.0000
G01 X 14.1550 Y 33.5256 Z -1.0000
G03 X 14.1691 Y 33.5187 Z -1.0000 I 0.0307 J 0.0451
G02 X 14.1844 Y 33.5114 Z -1.0000 I -0.0191 J -0.0598
G02 X 14.2109 Y 33.4914 Z -1.0000 I -0.1308 J -0.2005
G03 X 14.2374 Y 33.4715 Z -1.0000 I 0.1477 J 0.1693
G03 X 14.2540 Y 33.4637 Z -1.0000 I 0.0373 J 0.0582
G01 X 14.2682 Y 33.4554 Z -1.0000
G01 X 14.2719 Y 33.4468 Z -1.0000
G01 X 14.2795 Y 33.4385 Z -1.0000
G01 X 14.2911 Y 33.4453 Z -1.0000
G01 X 14.2909 Y 33.4366 Z -1.0000
G01 X 14.2936 Y 33.4258 Z -1.0000
G01 X 14.3030 Y 33.4232 Z -1.0000
G01 X 14.3171 Y 33.4231 Z -1.0000
G01 X 14.3245 Y 33.4161 Z -1.0000
G01 X 14.3320 Y 33.4091 Z -1.0000
G01 X 14.3495 Y 33.4088 Z -1.0000
G01 X 14.3620 Y 33.4062 Z -1.0000
G01 X 14.3653 Y 33.3968 Z -1.0000
G01 X 14.3697 Y 33.3897 Z -1.0000
G01 X 14.3809 Y 33.3937 Z -1.0000
G01 X 14.3856 Y 33.3937 Z -1.0000
G01 X 14.3876 Y 33.3857 Z -1.0000
G03 X 14.3871 Y 33.3672 Z -1.0000 I 0.0494 J -0.0106
G01 X 14.3910 Y 33.3639 Z -1.0000
G01 X 14.3964 Y 33.3666 Z -1.0000
G01 X 14.3991 Y 33.3748 Z -1.0000
G01 X 14.4109 Y 33.3933 Z -1.0000
G01 X 14.4306 Y 33.3894 Z -1.0000
G01 X 14.4317 Y 33.3839 Z -1.0000
G01 X 14.4280 Y 33.3822 Z -1.0000
G01 X 14.4194 Y 33.3810 Z -1.0000
G01 X 14.4166 Y 33.3738 Z -1.0000
G01 X 14.4229 Y 33.3646 Z -1.0000
G01 X 14.4351 Y 33.3617 Z -1.0000
G02 X 14.5106 Y 33.3630 Z -1.0000 I 0.0439 J -0.3706
G01 X 14.5325 Y 33.3535 Z -1.0000
G01 X 14.5487 Y 33.3445 Z -1.0000
G01 X 14.5622 Y 33.3452 Z -1.0000
G01 X 14.5698 Y 33.3439 Z -1.0000
G01 X 14.5715 Y 33.3374 Z -1.0000
G01 X 14.5709 Y 33.3272 Z -1.0000
G01 X 14.5749 Y 33.3241 Z -1.0000
G01 X 14.5794 Y 33.3213 Z -1.0000
G01 X 14.5797 Y 33.3142 Z -1.0000
G01 X 14.5813 Y 33.3063 Z -1.0000
G03 X 14.6029 Y 33.2904 Z -1.0000 I 0.0598 J 0.0584
G03 X 14.6272 Y 33.2837 Z -1.0000 I 0.0282 J 0.0549
G01 X 14.6346 Y 33.2884 Z -1.0000
G01 X 14.6443 Y 33.2930 Z -1.0000
G01 X 14.6491 Y 33.2836 Z -1.0000
G01 X 14.6513 Y 33.2744 Z -1.0000
G01 X 14.6605 Y 33.2722 Z -1.0000
G01 X 14.6728 Y 33.2716 Z -1.0000
G01 X 14.6772 Y 33.2650 Z -1.0000
G01 X 14.6835 Y 33.2553 Z -1.0000
G01 X 14.7070 Y 33.2520 Z -1.0000
G01 X 14.7129 Y 33.2486 Z -1.0000
G01 X 14.7169 Y 33.2291 Z -1.0000
G01 X 14.7253 Y 33.2121 Z -1.0000
G01 X 14.7355 Y 33.2148 Z -1.0000
G01 X 14.7409 Y 33.2089 Z -1.0000
G01 X 14.7484 Y 33.2128 Z -1.0000
G01 X 14.7545 Y 33.2327 Z -1.0000
G01 X 14.7625 Y 33.2128 Z -1.0000
G02 X 14.7665 Y 33.1947 Z -1.0000 I -0.0499 J -0.0204
G01 X 14.7637 Y 33.1903 Z -1.0000
G01 X 14.7579 Y 33.1797 Z -1.0000
G01 X 14.7698 Y 33.1613 Z -1.0000
G01 X 14.7823 Y 33.1587 Z -1.0000
G01 X 14.7995 Y 33.1683 Z -1.0000
G01 X 14.8129 Y 33.1747 Z -1.0000
G01 X 14.8188 Y 33.1703 Z -1.0000
G01 X 14.8236 Y 33.1566 Z -1.0000
G03 X 14.8348 Y 33.1399 Z -1.0000 I 0.0839 J 0.0442
G03 X 14.8480 Y 33.1241 Z -1.0000 I 1.8926 J 1.5681
G03 X 14.8619 Y 33.1076 Z -1.0000 I 9.0314 J 7.6111
G02 X 14.8746 Y 33.0907 Z -1.0000 I -0.1245 J -0.1060
G01 X 14.8758 Y 33.0864 Z -1.0000
G01 X 14.8776 Y 33.0825 Z -1.0000
G03 X 14.8924 Y 33.0712 Z -1.0000 I 0.0704 J 0.0772
G01 X 14.9012 Y 33.0709 Z -1.0000
G01 X 14.9038 Y 33.0772 Z -1.0000
G01 X 14.9045 Y 33.0893 Z -1.0000
G01 X 14.9112 Y 33.0936 Z -1.0000
G01 X 14.9183 Y 33.0890 Z -1.0000
G01 X 14.9202 Y 33.0736 Z -1.0000
G01 X 14.9233 Y 33.0577 Z -1.0000
G01 X 14.9442 Y 33.0575 Z -1.0000
G01 X 14.9553 Y 33.0371 Z -1.0000
G01 X 14.9642 Y 33.0244 Z -1.0000
G03 X 14.9980 Y 33.0215 Z -1.0000 I 0.0222 J 0.0605
G01 X 15.0011 Y 33.0191 Z -1.0000
G02 X 14.9997 Y 33.0019 Z -1.0000 I -0.0513 J -0.0046
G01 X 15.0026 Y 32.9897 Z -1.0000
G01 X 15.0126 Y 32.9868 Z -1.0000
G01 X 15.0197 Y 32.9851 Z -1.0000
G01 X 15.0199 Y 32.9795 Z -1.0000
G01 X 15.0231 Y 32.9730 Z -1.0000
G01 X 15.0393 Y 32.9800 Z -1.0000
G01 X 15.0449 Y 32.9805 Z -1.0000
G01 X 15.0469 Y 32.9748 Z -1.0000
G01 X 15.0481 Y 32.9637 Z -1.0000
G01 X 15.0547 Y 32.9614 Z -1.0000
G01 X 15.0619 Y 32.9592 Z -1.0000
G01 X 15.0639 Y 32.9486 Z -1.0000
G01 X 15.0682 Y 32.9253 Z -1.0000
G03 X 15.0959 Y 32.9025 Z -1.0000 I 0.0539 J 0.0375
G02 X 15.1156 Y 32.8898 Z -1.0000 I -0.0289 J -0.0664
G01 X 15.1165 Y 32.8839 Z -1.0000
G01 X 15.1243 Y 32.8811 Z -1.0000
G01 X 15.1343 Y 32.8794 Z -1.0000
G02 X 15.1495 Y 32.8595 Z -1.0000 I -0.0394 J -0.0458
G03 X 15.1642 Y 32.8354 Z -1.0000 I 0.1187 J 0.0563
G01 X 15.1732 Y 32.8288 Z -1.0000
G01 X 15.1813 Y 32.8218 Z -1.0000
G02 X 15.1900 Y 32.7991 Z -1.0000 I -0.0715 J -0.0403
G03 X 15.1995 Y 32.7775 Z -1.0000 I 0.0579 J 0.0126
G01 X 15.2106 Y 32.7698 Z -1.0000
G01 X 15.2231 Y 32.7639 Z -1.0000
G01 X 15.2257 Y 32.7589 Z -1.0000
G01 X 15.2331 Y 32.7532 Z -1.0000
G01 X 15.2441 Y 32.7639 Z -1.0000
G01 X 15.2463 Y 32.7619 Z -1.0000
G01 X 15.2544 Y 32.7382 Z -1.0000
G03 X 15.2902 Y 32.7158 Z -1.0000 I 0.0615 J 0.0584
G01 X 15.3025 Y 32.7091 Z -1.0000
G01 X 15.3051 Y 32.7036 Z -1.0000
G01 X 15.3078 Y 32.6988 Z -1.0000
G01 X 15.3171 Y 32.6962 Z -1.0000
G01 X 15.3254 Y 32.6926 Z -1.0000
G01 X 15.3290 Y 32.6834 Z -1.0000
G01 X 15.3328 Y 32.6762 Z -1.0000
G01 X 15.3409 Y 32.6752 Z -1.0000
G01 X 15.3487 Y 32.6738 Z -1.0000
G01 X 15.3528 Y 32.6644 Z -1.0000
G01 X 15.3570 Y 32.6552 Z -1.0000
G01 X 15.3651 Y 32.6537 Z -1.0000
G01 X 15.3750 Y 32.6515 Z -1.0000
G01 X 15.3756 Y 32.6467 Z -1.0000
G01 X 15.3797 Y 32.6445 Z -1.0000
G01 X 15.3849 Y 32.6419 Z -1.0000
G02 X 15.3933 Y 32.6267 Z -1.0000 I -0.0469 J -0.0357
G01 X 15.4031 Y 32.6133 Z -1.0000
G01 X 15.4166 Y 32.6088 Z -1.0000
G01 X 15.4277 Y 32.6057 Z -1.0000
G01 X 15.4287 Y 32.6016 Z -1.0000
G01 X 15.4322 Y 32.5809 Z -1.0000
G03 X 15.5077 Y 32.5371 Z -1.0000 I 0.1749 J 0.2145
G01 X 15.5209 Y 32.5292 Z -1.0000
G02 X 15.5798 Y 32.4756 Z -1.0000 I -0.8032 J -0.9420
G01 X 15.5908 Y 32.4676 Z -1.0000
G01 X 15.5986 Y 32.4657 Z -1.0000
G01 X 15.6051 Y 32.4637 Z -1.0000
G01 X 15.6072 Y 32.4597 Z -1.0000
G01 X 15.6096 Y 32.4553 Z -1.0000
G03 X 15.6387 Y 32.4387 Z -1.0000 I 0.1316 J 0.1975
G02 X 15.6691 Y 32.4221 Z -1.0000 I -0.1384 J -0.2890
G02 X 15.6843 Y 32.4105 Z -1.0000 I -0.0517 J -0.0835
G03 X 15.8075 Y 32.3233 Z -1.0000 I 0.3848 J 0.4131
G03 X 16.2430 Y 32.1183 Z -1.0000 I 2.6600 J 5.0864
G03 X 16.4984 Y 32.0184 Z -1.0000 I 2.1128 J 5.0255
G03 X 16.8868 Y 31.8850 Z -1.0000 I 4.1608 J 11.4821
G02 X 17.3446 Y 31.7107 Z -1.0000 I -1.5196 J -4.6788
G02 X 17.4558 Y 31.6352 Z -1.0000 I -0.1489 J -0.3392
G02 X 17.5216 Y 31.5562 Z -1.0000 I -0.3686 J -0.3738
G02 X 17.5600 Y 31.4816 Z -1.0000 I -0.2893 J -0.1963
G02 X 17.5742 Y 31.4275 Z -1.0000 I -0.2633 J -0.0978
G02 X 17.5789 Y 31.3614 Z -1.0000 I -0.3887 J -0.0611
G02 X 17.5651 Y 31.2562 Z -1.0000 I -0.4502 J 0.0055
G02 X 17.5426 Y 31.2179 Z -1.0000 I -0.0768 J 0.0195
G01 X 17.5344 Y 31.1582 Z -1.0000
G03 X 17.6351 Y 31.0655 Z -1.0000 I 0.2111 J 0.1283
G03 X 17.7475 Y 31.0175 Z -1.0000 I 0.4557 J 0.9123
G03 X 17.7838 Y 31.0124 Z -1.0000 I 0.0309 J 0.0864
G01 X 17.8029 Y 31.0244 Z -1.0000
G01 X 17.7997 Y 31.0411 Z -1.0000
G02 X 17.7827 Y 31.0550 Z -1.0000 I 0.9038 J 1.1164
G02 X 17.7569 Y 31.0768 Z -1.0000 I 2.6795 J 3.2082
G03 X 17.7302 Y 31.0960 Z -1.0000 I -0.1352 J -0.1593
G01 X 17.7209 Y 31.0986 Z -1.0000
G01 X 17.7149 Y 31.1029 Z -1.0000
G01 X 17.7152 Y 31.1071 Z -1.0000
G03 X 17.6862 Y 31.1406 Z -1.0000 I -0.2767 J -0.2101
G02 X 17.6476 Y 31.2026 Z -1.0000 I 0.1193 J 0.1173
G02 X 17.6369 Y 31.2813 Z -1.0000 I 0.1868 J 0.0654
G02 X 17.6492 Y 31.3437 Z -1.0000 I 0.2516 J -0.0170
G01 X 17.6580 Y 31.3448 Z -1.0000
G01 X 17.6655 Y 31.3432 Z -1.0000
G01 X 17.6692 Y 31.3467 Z -1.0000
G01 X 17.6835 Y 31.3421 Z -1.0000
G03 X 17.7020 Y 31.3321 Z -1.0000 I 0.0831 J 0.1313
G03 X 17.7209 Y 31.3249 Z -1.0000 I 0.0613 J 0.1340
G02 X 17.7395 Y 31.3175 Z -1.0000 I -0.0338 J -0.1124
G02 X 17.7504 Y 31.3102 Z -1.0000 I -0.0225 J -0.0450
G03 X 17.7852 Y 31.2838 Z -1.0000 I 0.1907 J 0.2153
G01 X 17.7904 Y 31.2844 Z -1.0000
G01 X 17.7953 Y 31.2853 Z -1.0000
G02 X 17.8177 Y 31.2728 Z -1.0000 I -0.0468 J -0.1098
G03 X 17.8413 Y 31.2592 Z -1.0000 I 0.0804 J 0.1129
G01 X 17.8563 Y 31.2554 Z -1.0000
G01 X 17.8685 Y 31.2507 Z -1.0000
G01 X 17.8723 Y 31.2430 Z -1.0000
G01 X 17.8763 Y 31.2371 Z -1.0000
G01 X 17.8896 Y 31.2364 Z -1.0000
G01 X 17.9053 Y 31.2360 Z -1.0000
G01 X 17.9180 Y 31.2274 Z -1.0000
G01 X 17.9240 Y 31.2258 Z -1.0000
G01 X 17.9302 Y 31.2238 Z -1.0000
G03 X 17.9428 Y 31.2123 Z -1.0000 I 0.0465 J 0.0383
G01 X 17.9506 Y 31.2099 Z -1.0000
G01 X 17.9573 Y 31.2074 Z -1.0000
G01 X 17.9597 Y 31.2019 Z -1.0000
G01 X 17.9628 Y 31.1970 Z -1.0000
G01 X 17.9756 Y 31.1940 Z -1.0000
G01 X 17.9891 Y 31.1915 Z -1.0000
G01 X 17.9915 Y 31.1879 Z -1.0000
G01 X 17.9947 Y 31.1824 Z -1.0000
G03 X 18.0696 Y 31.1423 Z -1.0000 I 0.5774 J 0.9882
G02 X 18.1139 Y 31.1156 Z -1.0000 I -0.1299 J -0.2659
G01 X 18.1187 Y 31.1066 Z -1.0000
G01 X 18.1216 Y 31.1037 Z -1.0000
G01 X 18.1270 Y 31.1066 Z -1.0000
G01 X 18.1352 Y 31.1104 Z -1.0000
G01 X 18.1456 Y 31.1046 Z -1.0000
G03 X 18.1575 Y 31.0931 Z -1.0000 I 0.0440 J 0.0339
G01 X 18.1653 Y 31.0907 Z -1.0000
G01 X 18.1720 Y 31.0882 Z -1.0000
G01 X 18.1744 Y 31.0830 Z -1.0000
G01 X 18.1772 Y 31.0793 Z -1.0000
G01 X 18.1863 Y 31.0798 Z -1.0000
G01 X 18.1950 Y 31.0797 Z -1.0000
G01 X 18.1983 Y 31.0748 Z -1.0000
G01 X 18.2015 Y 31.0698 Z -1.0000
G01 X 18.2101 Y 31.0696 Z -1.0000
G01 X 18.2199 Y 31.0689 Z -1.0000
G01 X 18.2303 Y 31.0584 Z -1.0000
G01 X 18.2401 Y 31.0472 Z -1.0000
G01 X 18.2460 Y 31.0470 Z -1.0000
G01 X 18.2522 Y 31.0466 Z -1.0000
G02 X 18.2664 Y 31.0313 Z -1.0000 I -0.0386 J -0.0500
G01 X 18.2850 Y 31.0169 Z -1.0000
G01 X 18.2908 Y 31.0230 Z -1.0000
G01 X 18.2929 Y 31.0267 Z -1.0000
G01 X 18.3019 Y 31.0250 Z -1.0000
G02 X 18.3156 Y 31.0143 Z -1.0000 I -0.0431 J -0.0691
G01 X 18.3175 Y 31.0099 Z -1.0000
G01 X 18.3198 Y 31.0061 Z -1.0000
G03 X 18.3452 Y 30.9953 Z -1.0000 I 0.0779 J 0.1482
G02 X 18.3702 Y 30.9822 Z -1.0000 I -0.0272 J -0.0824
G02 X 18.4012 Y 30.9531 Z -1.0000 I -0.1181 J -0.1567
G03 X 18.4289 Y 30.9279 Z -1.0000 I 0.1153 J 0.0987
G01 X 18.4351 Y 30.9291 Z -1.0000
G01 X 18.4418 Y 30.9314 Z -1.0000
G02 X 18.4630 Y 30.9191 Z -1.0000 I -0.0231 J -0.0639
G01 X 18.4799 Y 30.8999 Z -1.0000
G01 X 18.4847 Y 30.8876 Z -1.0000
G01 X 18.4945 Y 30.8823 Z -1.0000
G01 X 18.5014 Y 30.8856 Z -1.0000
G01 X 18.5053 Y 30.8865 Z -1.0000
G01 X 18.5081 Y 30.8815 Z -1.0000
G01 X 18.5112 Y 30.8726 Z -1.0000
G01 X 18.5156 Y 30.8717 Z -1.0000
G01 X 18.5211 Y 30.8711 Z -1.0000
G01 X 18.5284 Y 30.8592 Z -1.0000
G01 X 18.5350 Y 30.8515 Z -1.0000
G01 X 18.5408 Y 30.8531 Z -1.0000
G01 X 18.5452 Y 30.8551 Z -1.0000
G01 X 18.5479 Y 30.8520 Z -1.0000
G01 X 18.5513 Y 30.8415 Z -1.0000
G03 X 18.5648 Y 30.8281 Z -1.0000 I 0.0453 J 0.0323
G02 X 18.6457 Y 30.7650 Z -1.0000 I -0.5293 J -0.7610
G01 X 18.6513 Y 30.7525 Z -1.0000
G01 X 18.6553 Y 30.7448 Z -1.0000
G01 X 18.6672 Y 30.7409 Z -1.0000
G01 X 18.6792 Y 30.7370 Z -1.0000
G01 X 18.6831 Y 30.7290 Z -1.0000
G01 X 18.6872 Y 30.7212 Z -1.0000
G01 X 18.6998 Y 30.7171 Z -1.0000
G01 X 18.7130 Y 30.7126 Z -1.0000
G01 X 18.7206 Y 30.7012 Z -1.0000
G01 X 18.7275 Y 30.6888 Z -1.0000
G01 X 18.7357 Y 30.6853 Z -1.0000
G01 X 18.7441 Y 30.6827 Z -1.0000
G01 X 18.7467 Y 30.6776 Z -1.0000
G01 X 18.7496 Y 30.6715 Z -1.0000
G03 X 18.7718 Y 30.6568 Z -1.0000 I 0.0799 J 0.0968
G02 X 18.7959 Y 30.6425 Z -1.0000 I -0.1072 J -0.2075
G02 X 18.8131 Y 30.6288 Z -1.0000 I -0.0808 J -0.1188
G03 X 18.8299 Y 30.6156 Z -1.0000 I 0.0869 J 0.0934
G01 X 18.8360 Y 30.6138 Z -1.0000
G01 X 18.8442 Y 30.6111 Z -1.0000
G02 X 18.8824 Y 30.5800 Z -1.0000 I -0.2702 J -0.3709
G03 X 18.8981 Y 30.5672 Z -1.0000 I 0.1225 J 0.1346
G01 X 18.9016 Y 30.5661 Z -1.0000
G01 X 18.9051 Y 30.5651 Z -1.0000
G02 X 18.9502 Y 30.5374 Z -1.0000 I -0.7363 J -1.2491
G03 X 19.0334 Y 30.4876 Z -1.0000 I 0.8765 J 1.3701
G03 X 19.1182 Y 30.4435 Z -1.0000 I 0.7712 J 1.3804
G02 X 19.1339 Y 30.4336 Z -1.0000 I -0.0345 J -0.0716
G01 X 19.1361 Y 30.4290 Z -1.0000
G01 X 19.1383 Y 30.4252 Z -1.0000
G01 X 19.1461 Y 30.4230 Z -1.0000
G01 X 19.1585 Y 30.4201 Z -1.0000
G02 X 19.2276 Y 30.3832 Z -1.0000 I -0.4771 J -0.9775
G03 X 19.2597 Y 30.3654 Z -1.0000 I 0.4462 J 0.7684
G03 X 19.3071 Y 30.3413 Z -1.0000 I 0.8591 J 1.6313
G02 X 19.3539 Y 30.3169 Z -1.0000 I -0.4859 J -0.9909
G01 X 19.3587 Y 30.3129 Z -1.0000
G03 X 19.3886 Y 30.2887 Z -1.0000 I 0.0663 J 0.0515
G03 X 19.4269 Y 30.2799 Z -1.0000 I 0.0383 J 0.0795
G01 X 19.4357 Y 30.2774 Z -1.0000
G01 X 19.4382 Y 30.2728 Z -1.0000
G01 X 19.4410 Y 30.2679 Z -1.0000
G03 X 19.4575 Y 30.2609 Z -1.0000 I 0.0309 J 0.0500
G02 X 19.4758 Y 30.2542 Z -1.0000 I -0.0226 J -0.0899
G01 X 19.4876 Y 30.2461 Z -1.0000
G03 X 19.4992 Y 30.2375 Z -1.0000 I 0.0460 J 0.0497
G03 X 19.5378 Y 30.2165 Z -1.0000 I 0.3152 J 0.5346
G02 X 19.5767 Y 30.1960 Z -1.0000 I -0.4119 J -0.8278
G01 X 19.5813 Y 30.1923 Z -1.0000
G01 X 19.5860 Y 30.1886 Z -1.0000
G03 X 19.6131 Y 30.1766 Z -1.0000 I 0.1627 J 0.3302
G02 X 19.6402 Y 30.1647 Z -1.0000 I -0.1462 J -0.3692
G01 X 19.6449 Y 30.1612 Z -1.0000
G03 X 19.6609 Y 30.1487 Z -1.0000 I 0.0449 J 0.0411
G03 X 19.7700 Y 30.0936 Z -1.0000 I 1.0371 J 1.9178
G02 X 19.7857 Y 30.0838 Z -1.0000 I -0.0333 J -0.0709
G01 X 19.7879 Y 30.0792 Z -1.0000
G01 X 19.7901 Y 30.0755 Z -1.0000
G01 X 19.7985 Y 30.0733 Z -1.0000
G02 X 19.8213 Y 30.0679 Z -1.0000 I -0.0000 J -0.0509
G02 X 19.9588 Y 29.9930 Z -1.0000 I -1.0152 J -2.0272
G03 X 19.9829 Y 29.9794 Z -1.0000 I 0.4123 J 0.7020
G03 X 20.0164 Y 29.9618 Z -1.0000 I 0.6435 J 1.1861
G02 X 20.0480 Y 29.9433 Z -1.0000 I -0.1323 J -0.2615
G01 X 20.0502 Y 29.9390 Z -1.0000
G01 X 20.0526 Y 29.9351 Z -1.0000
G03 X 20.0800 Y 29.9227 Z -1.0000 I 0.0922 J 0.1684
G02 X 20.1088 Y 29.9107 Z -1.0000 I -0.1075 J -0.2987
G01 X 20.1138 Y 29.9066 Z -1.0000
G01 X 20.1187 Y 29.9022 Z -1.0000
G03 X 20.1615 Y 29.8782 Z -1.0000 I 0.4638 J 0.7780
G02 X 20.2047 Y 29.8543 Z -1.0000 I -0.5212 J -0.9928
G02 X 20.2370 Y 29.8342 Z -1.0000 I -0.3339 J -0.5733
G03 X 20.2696 Y 29.8148 Z -1.0000 I 0.2266 J 0.3422
G03 X 20.2867 Y 29.8076 Z -1.0000 I 0.0465 J 0.0867
G02 X 20.3018 Y 29.8000 Z -1.0000 I -0.0161 J -0.0509
G01 X 20.3046 Y 29.7945 Z -1.0000
G01 X 20.3071 Y 29.7896 Z -1.0000
G01 X 20.3149 Y 29.7871 Z -1.0000
G02 X 20.3582 Y 29.7774 Z -1.0000 I 0.0000 J -0.1014
G01 X 20.3681 Y 29.7620 Z -1.0000
G01 X 20.3703 Y 29.7581 Z -1.0000
G03 X 20.4039 Y 29.7395 Z -1.0000 I 0.1857 J 0.2952
G02 X 20.4368 Y 29.7204 Z -1.0000 I -0.1088 J -0.2253
G01 X 20.4397 Y 29.7149 Z -1.0000
G01 X 20.4424 Y 29.7103 Z -1.0000
G01 X 20.4522 Y 29.7077 Z -1.0000
G01 X 20.4639 Y 29.7050 Z -1.0000
G02 X 20.4979 Y 29.6852 Z -1.0000 I -0.1268 J -0.2572
G03 X 20.5315 Y 29.6634 Z -1.0000 I 0.5861 J 0.8650
G03 X 20.5430 Y 29.6571 Z -1.0000 I 0.0595 J 0.0955
G02 X 20.5548 Y 29.6511 Z -1.0000 I -0.0894 J -0.1904
G02 X 20.5710 Y 29.6418 Z -1.0000 I -0.2608 J -0.4752
G03 X 20.5871 Y 29.6323 Z -1.0000 I 0.8232 J 1.3669
G03 X 20.6545 Y 29.5928 Z -1.0000 I 19.9054 J 33.9437
G02 X 20.7211 Y 29.5526 Z -1.0000 I -1.3022 J -2.2298
G01 X 20.7258 Y 29.5482 Z -1.0000
G01 X 20.7307 Y 29.5442 Z -1.0000
G03 X 20.7467 Y 29.5377 Z -1.0000 I 0.0489 J 0.0974
G02 X 20.7625 Y 29.5304 Z -1.0000 I -0.0202 J -0.0647
G02 X 20.7865 Y 29.5128 Z -1.0000 I -0.1048 J -0.1672
G03 X 20.8102 Y 29.4956 Z -1.0000 I 0.1125 J 0.1308
G01 X 20.8192 Y 29.4931 Z -1.0000
G01 X 20.8266 Y 29.4905 Z -1.0000
G01 X 20.8291 Y 29.4854 Z -1.0000
G01 X 20.8318 Y 29.4816 Z -1.0000
G01 X 20.8394 Y 29.4817 Z -1.0000
G01 X 20.8487 Y 29.4811 Z -1.0000
G02 X 20.8686 Y 29.4656 Z -1.0000 I -0.0397 J -0.0715
G03 X 20.8888 Y 29.4483 Z -1.0000 I 0.0890 J 0.0836
G01 X 20.8981 Y 29.4455 Z -1.0000
G01 X 20.9061 Y 29.4431 Z -1.0000
G01 X 20.9086 Y 29.4385 Z -1.0000
G01 X 20.9113 Y 29.4334 Z -1.0000
G03 X 20.9344 Y 29.4210 Z -1.0000 I 0.0695 J 0.1026
G02 X 20.9595 Y 29.4095 Z -1.0000 I -0.1048 J -0.2613
G01 X 20.9642 Y 29.4056 Z -1.0000
G03 X 21.0214 Y 29.3554 Z -1.0000 I 0.1669 J 0.1322
G03 X 21.0690 Y 29.3421 Z -1.0000 I 0.0477 J 0.0792
G01 X 21.0736 Y 29.3407 Z -1.0000
G02 X 21.0927 Y 29.3256 Z -1.0000 I -0.1139 J -0.1642
G03 X 21.1315 Y 29.2971 Z -1.0000 I 0.1728 J 0.1942
G03 X 21.2289 Y 29.2437 Z -1.0000 I 0.7111 J 1.1820
G02 X 21.2641 Y 29.2232 Z -1.0000 I -0.1366 J -0.2750
G01 X 21.2661 Y 29.2185 Z -1.0000
G01 X 21.2680 Y 29.2139 Z -1.0000
G03 X 21.2876 Y 29.2017 Z -1.0000 I 0.0643 J 0.0819
G02 X 21.3096 Y 29.1903 Z -1.0000 I -0.1721 J -0.3594
G02 X 21.3497 Y 29.1670 Z -1.0000 I -0.6271 J -1.1241
G03 X 21.3897 Y 29.1434 Z -1.0000 I 0.9934 J 1.6390
G03 X 21.4003 Y 29.1380 Z -1.0000 I 0.0627 J 0.1093
G02 X 21.4103 Y 29.1320 Z -1.0000 I -0.0221 J -0.0483
G02 X 21.4312 Y 29.1144 Z -1.0000 I -0.1689 J -0.2224
G03 X 21.4523 Y 29.0981 Z -1.0000 I 0.1015 J 0.1095
G01 X 21.4605 Y 29.0957 Z -1.0000
G01 X 21.4687 Y 29.0933 Z -1.0000
G02 X 21.4971 Y 29.0722 Z -1.0000 I -0.1405 J -0.2186
G03 X 21.5255 Y 29.0511 Z -1.0000 I 0.1643 J 0.1922
G01 X 21.5345 Y 29.0484 Z -1.0000
G01 X 21.5420 Y 29.0457 Z -1.0000
G01 X 21.5444 Y 29.0410 Z -1.0000
G01 X 21.5472 Y 29.0361 Z -1.0000
G03 X 21.5663 Y 29.0285 Z -1.0000 I 0.0363 J 0.0636
G02 X 21.5868 Y 29.0205 Z -1.0000 I -0.0189 J -0.0782
G02 X 21.6175 Y 28.9999 Z -1.0000 I -0.1129 J -0.2011
G03 X 21.6479 Y 28.9797 Z -1.0000 I 0.1299 J 0.1633
G01 X 21.6605 Y 28.9765 Z -1.0000
G01 X 21.6692 Y 28.9715 Z -1.0000
G01 X 21.6694 Y 28.9670 Z -1.0000
G03 X 21.7017 Y 28.9426 Z -1.0000 I 0.1685 J 0.1899
G02 X 21.7390 Y 28.9186 Z -1.0000 I -1.7673 J -2.7797
G02 X 21.7607 Y 28.9040 Z -1.0000 I -0.6168 J -0.9419
G03 X 21.7828 Y 28.8910 Z -1.0000 I 0.0971 J 0.1403
G01 X 21.7909 Y 28.8891 Z -1.0000
G01 X 21.7985 Y 28.8868 Z -1.0000
G02 X 21.8195 Y 28.8691 Z -1.0000 I -0.0885 J -0.1271
G03 X 21.8400 Y 28.8533 Z -1.0000 I 0.0710 J 0.0710
G01 X 21.8465 Y 28.8534 Z -1.0000
G01 X 21.8530 Y 28.8534 Z -1.0000
G02 X 21.8780 Y 28.8338 Z -1.0000 I -0.0795 J -0.1269
G03 X 21.9041 Y 28.8128 Z -1.0000 I 0.1206 J 0.1235
G03 X 21.9221 Y 28.8049 Z -1.0000 I 0.0324 J 0.0495
G01 X 21.9365 Y 28.7979 Z -1.0000
G01 X 21.9374 Y 28.7929 Z -1.0000
G01 X 21.9380 Y 28.7886 Z -1.0000
G01 X 21.9454 Y 28.7858 Z -1.0000
G01 X 21.9550 Y 28.7830 Z -1.0000
G01 X 21.9578 Y 28.7779 Z -1.0000
G01 X 21.9602 Y 28.7724 Z -1.0000
G01 X 21.9663 Y 28.7700 Z -1.0000
G01 X 21.9739 Y 28.7679 Z -1.0000
G02 X 21.9868 Y 28.7580 Z -1.0000 I -0.0322 J -0.0550
G01 X 21.9992 Y 28.7499 Z -1.0000
G01 X 22.0061 Y 28.7505 Z -1.0000
G01 X 22.0112 Y 28.7511 Z -1.0000
G01 X 22.0134 Y 28.7479 Z -1.0000
G01 X 22.0158 Y 28.7423 Z -1.0000
G03 X 22.0312 Y 28.7315 Z -1.0000 I 0.0478 J 0.0517
G02 X 22.0488 Y 28.7217 Z -1.0000 I -0.1699 J -0.3265
G02 X 22.0809 Y 28.7021 Z -1.0000 I -0.6341 J -1.0713
G03 X 22.1133 Y 28.6831 Z -1.0000 I 0.2899 J 0.4572
G03 X 22.1266 Y 28.6773 Z -1.0000 I 0.0387 J 0.0716
G01 X 22.1381 Y 28.6710 Z -1.0000
G01 X 22.1405 Y 28.6658 Z -1.0000
G01 X 22.1431 Y 28.6613 Z -1.0000
G01 X 22.1525 Y 28.6588 Z -1.0000
G01 X 22.1617 Y 28.6560 Z -1.0000
G01 X 22.1644 Y 28.6509 Z -1.0000
G01 X 22.1675 Y 28.6460 Z -1.0000
G01 X 22.1807 Y 28.6430 Z -1.0000
G01 X 22.1913 Y 28.6397 Z -1.0000
G01 X 22.1922 Y 28.6351 Z -1.0000
G01 X 22.1926 Y 28.6301 Z -1.0000
G01 X 22.1990 Y 28.6272 Z -1.0000
G01 X 22.2093 Y 28.6250 Z -1.0000
G01 X 22.2134 Y 28.6210 Z -1.0000
G01 X 22.2176 Y 28.6162 Z -1.0000
G03 X 22.2609 Y 28.5922 Z -1.0000 I 0.3212 J 0.5305
G02 X 22.3044 Y 28.5676 Z -1.0000 I -0.2150 J -0.4292
G02 X 22.3290 Y 28.5488 Z -1.0000 I -0.0994 J -0.1556
G03 X 22.3536 Y 28.5312 Z -1.0000 I 0.0873 J 0.0963
G01 X 22.3715 Y 28.5254 Z -1.0000
G01 X 22.3891 Y 28.5196 Z -1.0000
G02 X 22.4068 Y 28.5055 Z -1.0000 I -0.0352 J -0.0624
G03 X 22.4401 Y 28.4788 Z -1.0000 I 0.1019 J 0.0930
G03 X 22.4691 Y 28.4698 Z -1.0000 I 0.0347 J 0.0605
G01 X 22.4749 Y 28.4676 Z -1.0000
G02 X 22.4850 Y 28.4574 Z -1.0000 I -0.0363 J -0.0463
G01 X 22.4957 Y 28.4474 Z -1.0000
G03 X 22.5275 Y 28.4285 Z -1.0000 I 0.1652 J 0.2422
G02 X 22.5594 Y 28.4099 Z -1.0000 I -0.1532 J -0.2980
G01 X 22.5702 Y 28.4001 Z -1.0000
G01 X 22.5805 Y 28.3907 Z -1.0000
G01 X 22.5868 Y 28.3887 Z -1.0000
G01 X 22.5936 Y 28.3869 Z -1.0000
G02 X 22.6484 Y 28.3530 Z -1.0000 I -0.5798 J -0.9968
G03 X 22.7034 Y 28.3196 Z -1.0000 I 0.4789 J 0.7270
G01 X 22.7125 Y 28.3172 Z -1.0000
G02 X 22.7436 Y 28.3073 Z -1.0000 I 0.0000 J -0.0537
G02 X 22.7923 Y 28.2609 Z -1.0000 I -0.1333 J -0.1884
G01 X 22.7971 Y 28.2570 Z -1.0000
G03 X 22.8141 Y 28.2502 Z -1.0000 I 0.0533 J 0.1091
G02 X 22.8291 Y 28.2425 Z -1.0000 I -0.0152 J -0.0482
G01 X 22.8320 Y 28.2367 Z -1.0000
G01 X 22.8343 Y 28.2330 Z -1.0000
G01 X 22.8390 Y 28.2332 Z -1.0000
G01 X 22.8454 Y 28.2336 Z -1.0000
G01 X 22.8559 Y 28.2257 Z -1.0000
G01 X 22.8670 Y 28.2167 Z -1.0000
G01 X 22.8781 Y 28.2139 Z -1.0000
G01 X 22.8895 Y 28.2112 Z -1.0000
G02 X 22.9070 Y 28.1991 Z -1.0000 I -0.0364 J -0.0715
G03 X 22.9244 Y 28.1859 Z -1.0000 I 0.0862 J 0.0958
G03 X 22.9668 Y 28.1614 Z -1.0000 I 0.3432 J 0.5440
G02 X 23.0095 Y 28.1373 Z -1.0000 I -0.4397 J -0.8310
G02 X 23.0198 Y 28.1297 Z -1.0000 I -0.0328 J -0.0548
G03 X 23.0301 Y 28.1223 Z -1.0000 I 0.0357 J 0.0387
G03 X 23.0538 Y 28.1108 Z -1.0000 I 0.1151 J 0.2089
G02 X 23.0759 Y 28.0991 Z -1.0000 I -0.0501 J -0.1206
G01 X 23.0783 Y 28.0946 Z -1.0000
G01 X 23.0808 Y 28.0903 Z -1.0000
G03 X 23.0969 Y 28.0838 Z -1.0000 I 0.0314 J 0.0542
G02 X 23.1482 Y 28.0615 Z -1.0000 I -0.0425 J -0.1678
G02 X 23.2465 Y 27.9872 Z -1.0000 I -0.4498 J -0.6979
G03 X 23.2675 Y 27.9721 Z -1.0000 I 0.0883 J 0.1005
G01 X 23.2716 Y 27.9726 Z -1.0000
G01 X 23.2836 Y 27.9745 Z -1.0000
G02 X 23.3533 Y 27.9305 Z -1.0000 I -0.2164 J -0.4203
G03 X 23.3786 Y 27.9139 Z -1.0000 I 0.1337 J 0.1759
G01 X 23.3865 Y 27.9119 Z -1.0000
G01 X 23.3942 Y 27.9098 Z -1.0000
G02 X 23.4063 Y 27.9007 Z -1.0000 I -0.0268 J -0.0479
G03 X 23.4516 Y 27.8647 Z -1.0000 I 0.1805 J 0.1805
G03 X 23.5294 Y 27.8238 Z -1.0000 I 0.3125 J 0.5003
G02 X 23.5528 Y 27.8110 Z -1.0000 I -0.0613 J -0.1405
G01 X 23.5552 Y 27.8066 Z -1.0000
G01 X 23.5577 Y 27.8030 Z -1.0000
G01 X 23.5716 Y 27.8006 Z -1.0000
G01 X 23.5814 Y 27.7969 Z -1.0000
G01 X 23.5822 Y 27.7913 Z -1.0000
G01 X 23.5831 Y 27.7874 Z -1.0000
G01 X 23.5890 Y 27.7868 Z -1.0000
G01 X 23.5994 Y 27.7868 Z -1.0000
G01 X 23.6060 Y 27.7802 Z -1.0000
G01 X 23.6128 Y 27.7723 Z -1.0000
G01 X 23.6265 Y 27.7688 Z -1.0000
G01 X 23.6399 Y 27.7660 Z -1.0000
G01 X 23.6426 Y 27.7618 Z -1.0000
G01 X 23.6451 Y 27.7564 Z -1.0000
G01 X 23.6566 Y 27.7497 Z -1.0000
G02 X 23.6892 Y 27.7340 Z -1.0000 I -0.0604 J -0.1670
G02 X 23.7216 Y 27.7097 Z -1.0000 I -0.1154 J -0.1876
G01 X 23.7375 Y 27.7005 Z -1.0000
G01 X 23.7467 Y 27.7017 Z -1.0000
G01 X 23.7507 Y 27.6985 Z -1.0000
G01 X 23.7499 Y 27.6920 Z -1.0000
G01 X 23.7536 Y 27.6893 Z -1.0000
G01 X 23.7616 Y 27.6874 Z -1.0000
G02 X 23.7946 Y 27.6688 Z -1.0000 I -0.1686 J -0.3379
G03 X 23.8274 Y 27.6526 Z -1.0000 I 0.0941 J 0.1491
G01 X 23.8381 Y 27.6527 Z -1.0000
G01 X 23.8457 Y 27.6517 Z -1.0000
G01 X 23.8493 Y 27.6449 Z -1.0000
G01 X 23.8521 Y 27.6378 Z -1.0000
G01 X 23.8564 Y 27.6372 Z -1.0000
G01 X 23.8621 Y 27.6374 Z -1.0000
G01 X 23.8675 Y 27.6313 Z -1.0000
G01 X 23.8740 Y 27.6236 Z -1.0000
G03 X 23.9037 Y 27.6103 Z -1.0000 I 0.0792 J 0.1368
G02 X 23.9331 Y 27.5968 Z -1.0000 I -0.0448 J -0.1368
G01 X 23.9402 Y 27.5884 Z -1.0000
G01 X 23.9461 Y 27.5818 Z -1.0000
G01 X 23.9526 Y 27.5821 Z -1.0000
G01 X 23.9575 Y 27.5816 Z -1.0000
G01 X 23.9606 Y 27.5747 Z -1.0000
G01 X 23.9639 Y 27.5657 Z -1.0000
G01 X 23.9714 Y 27.5623 Z -1.0000
G02 X 24.0001 Y 27.5556 Z -1.0000 I 0.0000 J -0.0651
G02 X 24.0877 Y 27.5051 Z -1.0000 I -0.3382 J -0.6882
G03 X 24.1084 Y 27.4937 Z -1.0000 I 0.0768 J 0.1149
G03 X 24.1301 Y 27.4863 Z -1.0000 I 0.0526 J 0.1185
G02 X 24.1502 Y 27.4781 Z -1.0000 I -0.0171 J -0.0705
G01 X 24.1565 Y 27.4706 Z -1.0000
G01 X 24.1626 Y 27.4627 Z -1.0000
G03 X 24.1857 Y 27.4502 Z -1.0000 I 0.0671 J 0.0960
G02 X 24.2091 Y 27.4376 Z -1.0000 I -0.0449 J -0.1114
G02 X 24.2213 Y 27.4256 Z -1.0000 I -0.0290 J -0.0420
G01 X 24.2331 Y 27.4140 Z -1.0000
G01 X 24.2417 Y 27.4113 Z -1.0000
G01 X 24.2508 Y 27.4090 Z -1.0000
G02 X 24.2670 Y 27.3974 Z -1.0000 I -0.0423 J -0.0768
G03 X 24.2836 Y 27.3858 Z -1.0000 I 0.0574 J 0.0642
G01 X 24.2982 Y 27.3807 Z -1.0000
G01 X 24.3127 Y 27.3755 Z -1.0000
G02 X 24.3419 Y 27.3559 Z -1.0000 I -0.1149 J -0.2023
G03 X 24.3712 Y 27.3358 Z -1.0000 I 0.1650 J 0.2092
G03 X 24.4374 Y 27.2993 Z -1.0000 I 0.6161 J 1.0406
G02 X 24.5041 Y 27.2638 Z -1.0000 I -1.0016 J -1.9620
G01 X 24.5090 Y 27.2597 Z -1.0000
G01 X 24.5138 Y 27.2557 Z -1.0000
G03 X 24.5308 Y 27.2489 Z -1.0000 I 0.0511 J 0.1027
G02 X 24.5459 Y 27.2413 Z -1.0000 I -0.0161 J -0.0509
G01 X 24.5487 Y 27.2359 Z -1.0000
G01 X 24.5513 Y 27.2311 Z -1.0000
G01 X 24.5602 Y 27.2285 Z -1.0000
G01 X 24.5703 Y 27.2259 Z -1.0000
G01 X 24.5781 Y 27.2186 Z -1.0000
G01 X 24.5886 Y 27.2085 Z -1.0000
G03 X 24.6798 Y 27.1587 Z -1.0000 I 0.8183 J 1.3894
G02 X 24.7179 Y 27.1371 Z -1.0000 I -0.2068 J -0.4094
G01 X 24.7222 Y 27.1319 Z -1.0000
G01 X 24.7266 Y 27.1276 Z -1.0000
G01 X 24.7393 Y 27.1252 Z -1.0000
G01 X 24.7513 Y 27.1217 Z -1.0000
G01 X 24.7582 Y 27.1133 Z -1.0000
G01 X 24.7652 Y 27.1048 Z -1.0000
G01 X 24.7772 Y 27.1014 Z -1.0000
G01 X 24.7898 Y 27.0978 Z -1.0000
G01 X 24.8030 Y 27.0855 Z -1.0000
G01 X 24.8162 Y 27.0730 Z -1.0000
G01 X 24.8278 Y 27.0696 Z -1.0000
G01 X 24.8388 Y 27.0663 Z -1.0000
G01 X 24.8456 Y 27.0578 Z -1.0000
G01 X 24.8522 Y 27.0506 Z -1.0000
G01 X 24.8611 Y 27.0502 Z -1.0000
G01 X 24.8709 Y 27.0502 Z -1.0000
G01 X 24.8822 Y 27.0421 Z -1.0000
G01 X 24.8939 Y 27.0329 Z -1.0000
G01 X 24.9074 Y 27.0298 Z -1.0000
G01 X 24.9185 Y 27.0260 Z -1.0000
G01 X 24.9223 Y 27.0184 Z -1.0000
G01 X 24.9349 Y 27.0000 Z -1.0000
G01 X 24.9632 Y 27.0027 Z -1.0000
G01 X 24.9671 Y 26.9998 Z -1.0000
G01 X 24.9674 Y 26.9933 Z -1.0000
G01 X 24.9778 Y 26.9861 Z -1.0000
G01 X 24.9911 Y 26.9791 Z -1.0000
G01 X 24.9938 Y 26.9736 Z -1.0000
G01 X 24.9967 Y 26.9691 Z -1.0000
G01 X 25.0097 Y 26.9662 Z -1.0000
G01 X 25.0226 Y 26.9632 Z -1.0000
G01 X 25.0256 Y 26.9583 Z -1.0000
G01 X 25.0286 Y 26.9533 Z -1.0000
G01 X 25.0408 Y 26.9504 Z -1.0000
G01 X 25.0546 Y 26.9482 Z -1.0000
G01 X 25.0587 Y 26.9444 Z -1.0000
G03 X 25.0971 Y 26.9023 Z -1.0000 I 0.0821 J 0.0364
G03 X 25.1396 Y 26.8993 Z -1.0000 I 0.0245 J 0.0439
G01 X 25.1486 Y 26.8984 Z -1.0000
G01 X 25.1527 Y 26.8908 Z -1.0000
G01 X 25.1567 Y 26.8804 Z -1.0000
G01 X 25.1686 Y 26.8732 Z -1.0000
G01 X 25.1817 Y 26.8668 Z -1.0000
G01 X 25.1845 Y 26.8611 Z -1.0000
G01 X 25.1872 Y 26.8572 Z -1.0000
G01 X 25.1950 Y 26.8572 Z -1.0000
G01 X 25.2048 Y 26.8573 Z -1.0000
G02 X 25.2248 Y 26.8463 Z -1.0000 I -0.0256 J -0.0703
G03 X 25.2448 Y 26.8334 Z -1.0000 I 0.0870 J 0.1131
G01 X 25.2531 Y 26.8313 Z -1.0000
G01 X 25.2609 Y 26.8288 Z -1.0000
G02 X 25.2730 Y 26.8179 Z -1.0000 I -0.0314 J -0.0470
G03 X 25.2854 Y 26.8069 Z -1.0000 I 0.0432 J 0.0360
G03 X 25.3097 Y 26.7940 Z -1.0000 I 0.0824 J 0.1261
G02 X 25.3326 Y 26.7812 Z -1.0000 I -0.0431 J -0.1038
G01 X 25.3356 Y 26.7753 Z -1.0000
G01 X 25.3382 Y 26.7702 Z -1.0000
G01 X 25.3464 Y 26.7675 Z -1.0000
G01 X 25.3566 Y 26.7655 Z -1.0000
G02 X 25.4040 Y 26.7438 Z -1.0000 I -0.2527 J -0.6138
G03 X 25.4512 Y 26.7218 Z -1.0000 I 0.3558 J 0.7015
G01 X 25.4599 Y 26.7200 Z -1.0000
G01 X 25.4672 Y 26.7172 Z -1.0000
G01 X 25.4733 Y 26.7085 Z -1.0000
G01 X 25.4802 Y 26.6996 Z -1.0000
G03 X 25.5079 Y 26.6830 Z -1.0000 I 0.0972 J 0.1314
G02 X 25.5373 Y 26.6674 Z -1.0000 I -0.1376 J -0.2938
G02 X 25.5487 Y 26.6586 Z -1.0000 I -0.0321 J -0.0536
G01 X 25.5603 Y 26.6503 Z -1.0000
G03 X 25.5785 Y 26.6435 Z -1.0000 I 0.0392 J 0.0772
G02 X 25.5951 Y 26.6365 Z -1.0000 I -0.0148 J -0.0582
G01 X 25.5978 Y 26.6316 Z -1.0000
G01 X 25.6004 Y 26.6270 Z -1.0000
G01 X 25.6098 Y 26.6245 Z -1.0000
G01 X 25.6206 Y 26.6216 Z -1.0000
G02 X 25.6376 Y 26.6086 Z -1.0000 I -0.0411 J -0.0714
G03 X 25.6542 Y 26.5943 Z -1.0000 I 0.1048 J 0.1048
G01 X 25.6594 Y 26.5924 Z -1.0000
G01 X 25.6650 Y 26.5907 Z -1.0000
G02 X 25.7048 Y 26.5651 Z -1.0000 I -0.4127 J -0.6857
G03 X 25.7443 Y 26.5418 Z -1.0000 I 0.1948 J 0.2841
G01 X 25.7505 Y 26.5420 Z -1.0000
G01 X 25.7546 Y 26.5419 Z -1.0000
G01 X 25.7568 Y 26.5375 Z -1.0000
G01 X 25.7596 Y 26.5319 Z -1.0000
G01 X 25.7676 Y 26.5291 Z -1.0000
G01 X 25.7775 Y 26.5263 Z -1.0000
G02 X 25.8049 Y 26.5061 Z -1.0000 I -0.1103 J -0.1779
G03 X 25.8321 Y 26.4876 Z -1.0000 I 0.0899 J 0.1029
G01 X 25.8417 Y 26.4871 Z -1.0000
G01 X 25.8491 Y 26.4866 Z -1.0000
G01 X 25.8522 Y 26.4815 Z -1.0000
G01 X 25.8554 Y 26.4765 Z -1.0000
G01 X 25.8641 Y 26.4764 Z -1.0000
G01 X 25.8723 Y 26.4755 Z -1.0000
G01 X 25.8760 Y 26.4685 Z -1.0000
G01 X 25.8798 Y 26.4614 Z -1.0000
G01 X 25.8879 Y 26.4606 Z -1.0000
G01 X 25.8962 Y 26.4598 Z -1.0000
G01 X 25.8998 Y 26.4532 Z -1.0000
G01 X 25.9031 Y 26.4451 Z -1.0000
