%
(Header)
(Generated by gcodetools from Inkscape.)
(Using default header. To add your own header create file "header" in the output dir.)
M3
(Header end.)
G21 (All units in mm)

(Start cutting path id: path5247)
(Change tool to Default tool)

G00 Z 5.0000
G00 X 20.0508 Y 1.9337

G01 Z -1.0000 F 100.0000(Penetrate)
G02 X 18.6750 Y 2.0362 Z -1.0000 I 0.2767 J 12.9992 F 3500.0000
G02 X 17.3363 Y 2.2816 Z -1.0000 I 1.6082 J 12.5501
G02 X 15.7436 Y 2.7759 Z -1.0000 I 2.9497 J 12.3166
G02 X 14.2199 Y 3.4790 Z -1.0000 I 4.5997 J 11.9717
G02 X 13.7581 Y 3.7427 Z -1.0000 I 5.9814 J 11.0071
G02 X 13.3180 Y 4.0199 Z -1.0000 I 6.1629 J 10.2760
G02 X 13.0508 Y 4.1999 Z -1.0000 I 9.4519 J 14.3128
G02 X 12.8836 Y 4.3186 Z -1.0000 I 3.9356 J 5.7228
G03 X 12.8683 Y 4.3298 Z -1.0000 I -1.2522 J -1.6966
G03 X 12.8117 Y 4.3708 Z -1.0000 I -170.5273 J -235.4429
G02 X 12.7553 Y 4.4121 Z -1.0000 I 3.7164 J 5.1337
G02 X 12.6678 Y 4.4774 Z -1.0000 I 8.9953 J 12.1416
G02 X 11.3421 Y 5.6281 Z -1.0000 I 7.5417 J 10.0279
G02 X 10.1866 Y 6.9559 Z -1.0000 I 8.9140 J 8.9238
G02 X 9.9255 Y 7.3153 Z -1.0000 I 9.7975 J 7.3908
G02 X 9.6795 Y 7.6814 Z -1.0000 I 9.9107 J 6.9279
G03 X 9.6656 Y 7.7028 Z -1.0000 I -29.0332 J -18.7401
G02 X 9.6454 Y 7.7342 Z -1.0000 I 234.2680 J 151.4685
G02 X 9.4112 Y 8.1134 Z -1.0000 I 9.0839 J 5.8716
G02 X 9.1649 Y 8.5492 Z -1.0000 I 11.7576 J 6.9303
G02 X 8.9586 Y 8.9472 Z -1.0000 I 11.1237 J 6.0182
G02 X 8.7845 Y 9.3161 Z -1.0000 I 9.3811 J 4.6535
G03 X 8.7653 Y 9.3590 Z -1.0000 I -75.9526 J -34.0573
G03 X 8.7433 Y 9.4079 Z -1.0000 I -99.7131 J -44.7798
G02 X 8.5989 Y 9.7440 Z -1.0000 I 9.8873 J 4.4461
G02 X 8.4611 Y 10.0967 Z -1.0000 I 10.7606 J 4.4088
G02 X 8.2649 Y 10.6604 Z -1.0000 I 13.0400 J 4.8530
G02 X 8.1069 Y 11.1896 Z -1.0000 I 11.3359 J 3.6736
G02 X 7.8179 Y 12.5250 Z -1.0000 I 12.2233 J 3.3439
G02 X 7.6764 Y 13.8713 Z -1.0000 I 12.2854 J 1.9721
G02 X 7.6613 Y 14.5494 Z -1.0000 I 12.1035 J 0.6095
G02 X 7.6841 Y 15.2351 Z -1.0000 I 12.4033 J -0.0702
G02 X 7.8416 Y 16.5893 Z -1.0000 I 12.4210 J -0.7585
G02 X 8.1466 Y 17.9199 Z -1.0000 I 12.2974 J -2.1185
G02 X 8.5828 Y 19.1811 Z -1.0000 I 12.1242 J -3.4870
G02 X 9.1496 Y 20.3889 Z -1.0000 I 11.6838 J -4.7464
G02 X 9.2494 Y 20.5719 Z -1.0000 I 12.4662 J -6.6769
G02 X 9.3262 Y 20.7072 Z -1.0000 I 6.8934 J -3.8239
G03 X 9.3422 Y 20.7348 Z -1.0000 I -65.3612 J 37.9668
G03 X 9.3662 Y 20.7761 Z -1.0000 I -176.9525 J 102.6786
G02 X 9.4245 Y 20.8754 Z -1.0000 I 9.2972 J -5.3922
G02 X 9.4881 Y 20.9812 Z -1.0000 I 10.5941 J -6.2970
G02 X 9.5646 Y 21.1059 Z -1.0000 I 16.0881 J -9.7811
G02 X 9.5989 Y 21.1603 Z -1.0000 I 3.1326 J -1.9380
G03 X 9.6087 Y 21.1756 Z -1.0000 I -4.2242 J 2.7206
G03 X 9.6527 Y 21.2445 Z -1.0000 I -112.8820 J 72.1252
G02 X 9.8347 Y 21.5212 Z -1.0000 I 10.2614 J -6.5487
G02 X 9.9968 Y 21.7527 Z -1.0000 I 7.3373 J -4.9686
G03 X 10.0157 Y 21.7787 Z -1.0000 I -14.4039 J 10.4400
G03 X 10.0565 Y 21.8353 Z -1.0000 I -78.7575 J 56.8674
G02 X 10.7933 Y 22.7587 Z -1.0000 I 9.8290 J -7.0866
G02 X 11.6208 Y 23.6110 Z -1.0000 I 9.1956 J -8.1011
G02 X 11.9175 Y 23.8815 Z -1.0000 I 11.0773 J -11.8521
G02 X 12.1078 Y 24.0441 Z -1.0000 I 4.1930 J -4.7149
G03 X 12.1190 Y 24.0534 Z -1.0000 I -1.4603 J 1.7753
G03 X 12.1722 Y 24.0978 Z -1.0000 I -21.9873 J 26.3868
G02 X 12.3481 Y 24.2419 Z -1.0000 I 7.2736 J -8.6945
G02 X 12.5346 Y 24.3888 Z -1.0000 I 7.7548 J -9.6569
G03 X 12.5955 Y 24.4365 Z -1.0000 I -3.5404 J 4.5879
G03 X 12.6051 Y 24.4446 Z -1.0000 I -0.0974 J 0.1229
G02 X 12.6147 Y 24.4527 Z -1.0000 I 0.0879 J -0.0953
G02 X 12.6334 Y 24.4660 Z -1.0000 I 0.2359 J -0.3118
G03 X 12.6522 Y 24.4791 Z -1.0000 I -0.2957 J 0.4443
G03 X 12.7374 Y 24.5418 Z -1.0000 I -7.3683 J 10.1021
G02 X 13.0373 Y 24.7575 Z -1.0000 I 7.2723 J -9.7945
G02 X 13.3526 Y 24.9703 Z -1.0000 I 7.3977 J -10.6206
G03 X 13.4347 Y 25.0262 Z -1.0000 I -1.4709 J 2.2497
G03 X 13.4493 Y 25.0388 Z -1.0000 I -0.0583 J 0.0824
G02 X 13.4636 Y 25.0505 Z -1.0000 I 0.0567 J -0.0545
G01 X 13.4712 Y 25.0528 Z -1.0000
G01 X 13.4792 Y 25.0549 Z -1.0000
G03 X 13.5680 Y 25.1078 Z -1.0000 I -1.2627 J 2.2180
G02 X 13.9720 Y 25.3502 Z -1.0000 I 7.0309 J -11.2631
G02 X 14.3546 Y 25.5609 Z -1.0000 I 5.6938 J -9.8855
G03 X 14.4143 Y 25.5923 Z -1.0000 I -51.1985 J 97.3274
G03 X 14.4449 Y 25.6085 Z -1.0000 I -12.3049 J 23.3567
G02 X 14.7190 Y 25.7474 Z -1.0000 I 4.2566 J -8.0587
G02 X 15.0418 Y 25.8985 Z -1.0000 I 5.3479 J -11.0084
G02 X 15.7338 Y 26.1869 Z -1.0000 I 5.4653 J -12.1371
G02 X 16.4531 Y 26.4406 Z -1.0000 I 4.9412 J -12.8623
G02 X 17.1635 Y 26.6457 Z -1.0000 I 3.7398 J -11.6183
G02 X 17.8215 Y 26.7912 Z -1.0000 I 2.5166 J -9.8221
G03 X 17.8552 Y 26.7977 Z -1.0000 I -0.7568 J 4.0046
G03 X 17.9225 Y 26.8113 Z -1.0000 I -2.0854 J 10.5477
G02 X 18.1546 Y 26.8544 Z -1.0000 I 1.3270 J -6.4912
G02 X 18.4981 Y 26.9077 Z -1.0000 I 2.3749 J -14.1729
G02 X 19.7861 Y 27.0252 Z -1.0000 I 1.7968 J -12.5831
G02 X 21.0619 Y 27.0104 Z -1.0000 I 0.4950 J -12.3587
G02 X 23.1104 Y 26.7120 Z -1.0000 I -0.8025 J -12.6872
G02 X 25.0809 Y 26.0855 Z -1.0000 I -2.8445 J -12.3609
G02 X 25.3902 Y 25.9545 Z -1.0000 I -5.5686 J -13.5710
G02 X 25.6294 Y 25.8457 Z -1.0000 I -3.5980 J -8.2270
G03 X 25.6799 Y 25.8218 Z -1.0000 I 173.9864 J 368.0760
G03 X 25.7396 Y 25.7936 Z -1.0000 I 244.1477 J 516.8069
G02 X 25.9727 Y 25.6806 Z -1.0000 I -5.4012 J -11.4355
G02 X 26.1104 Y 25.6091 Z -1.0000 I -2.0172 J -4.0536
G03 X 26.1299 Y 25.5986 Z -1.0000 I 1.3224 J 2.4510
G03 X 26.1666 Y 25.5793 Z -1.0000 I 3.4086 J 6.4401
G02 X 26.8806 Y 25.1758 Z -1.0000 I -5.6967 J -10.9115
G02 X 27.5580 Y 24.7305 Z -1.0000 I -6.2630 J -10.2659
G02 X 27.5749 Y 24.7186 Z -1.0000 I -1.9465 J -2.7851
G03 X 27.6146 Y 24.6905 Z -1.0000 I 22.5082 J 31.7913
G02 X 27.9906 Y 24.4135 Z -1.0000 I -6.5293 J -9.2553
G02 X 28.3738 Y 24.1067 Z -1.0000 I -7.6297 J -9.9202
G02 X 29.0137 Y 23.5352 Z -1.0000 I -8.0608 J -9.6710
G02 X 29.6303 Y 22.9052 Z -1.0000 I -9.1842 J -9.6051
G02 X 29.8242 Y 22.6870 Z -1.0000 I -7.2313 J -6.6222
G02 X 30.0487 Y 22.4200 Z -1.0000 I -10.6027 J -9.1444
G02 X 30.2923 Y 22.1125 Z -1.0000 I -9.0085 J -7.3862
G02 X 30.5628 Y 21.7481 Z -1.0000 I -12.3849 J -9.4756
G02 X 30.7737 Y 21.4439 Z -1.0000 I -8.4304 J -6.0694
G02 X 30.9948 Y 21.1006 Z -1.0000 I -10.5176 J -7.0170
G02 X 31.1489 Y 20.8469 Z -1.0000 I -12.4216 J -7.7198
G02 X 31.2729 Y 20.6322 Z -1.0000 I -8.7680 J -5.2054
G03 X 31.2995 Y 20.5848 Z -1.0000 I 85.6633 J 48.0831
G03 X 31.3142 Y 20.5588 Z -1.0000 I 17.9533 J 10.0903
G02 X 31.5274 Y 20.1600 Z -1.0000 I -8.8716 J -4.9987
G02 X 31.7536 Y 19.6909 Z -1.0000 I -12.0470 J -6.0997
G02 X 32.5275 Y 17.4787 Z -1.0000 I -11.3937 J -5.2271
G02 X 32.8770 Y 15.1571 Z -1.0000 I -12.2098 J -3.0253
G02 X 32.8848 Y 13.9659 Z -1.0000 I -12.0342 J -0.6744
G02 X 32.7742 Y 12.7616 Z -1.0000 I -12.4244 J 0.5332
G02 X 32.6210 Y 11.8952 Z -1.0000 I -12.5027 J 1.7648
G02 X 32.4067 Y 11.0366 Z -1.0000 I -12.4939 J 2.6620
G02 X 32.3220 Y 10.7545 Z -1.0000 I -11.4862 J 3.2931
G02 X 32.2315 Y 10.4779 Z -1.0000 I -11.1374 J 3.4924
G02 X 31.9956 Y 9.8413 Z -1.0000 I -12.3272 J 4.2058
G02 X 31.7278 Y 9.2200 Z -1.0000 I -12.0114 J 4.8103
G02 X 31.5179 Y 8.7880 Z -1.0000 I -11.4630 J 5.3019
G02 X 31.3142 Y 8.4084 Z -1.0000 I -9.0535 J 4.6131
G02 X 31.0401 Y 7.9418 Z -1.0000 I -13.4890 J 7.6100
G02 X 30.7857 Y 7.5436 Z -1.0000 I -10.0733 J 6.1566
G02 X 30.6654 Y 7.3663 Z -1.0000 I -11.9775 J 7.9957
G02 X 30.5472 Y 7.1977 Z -1.0000 I -10.9475 J 7.5460
G02 X 30.3852 Y 6.9761 Z -1.0000 I -8.9972 J 6.4095
G02 X 30.2049 Y 6.7416 Z -1.0000 I -10.2508 J 7.6936
G02 X 30.0913 Y 6.5987 Z -1.0000 I -14.7161 J 11.5854
G02 X 30.0438 Y 6.5410 Z -1.0000 I -2.4419 J 1.9613
G03 X 30.0297 Y 6.5241 Z -1.0000 I 4.3583 J -3.6554
G03 X 29.9840 Y 6.4691 Z -1.0000 I 19.8412 J -16.5104
G02 X 29.7704 Y 6.2182 Z -1.0000 I -8.9622 J 7.4158
G02 X 29.5603 Y 5.9855 Z -1.0000 I -7.9197 J 6.9403
G02 X 29.4251 Y 5.8423 Z -1.0000 I -10.4257 J 9.7001
G02 X 29.2937 Y 5.7068 Z -1.0000 I -9.4460 J 9.0354
G02 X 28.9164 Y 5.3390 Z -1.0000 I -9.1645 J 9.0230
G02 X 28.5376 Y 4.9994 Z -1.0000 I -8.1935 J 8.7563
G02 X 28.2721 Y 4.7772 Z -1.0000 I -8.6141 J 10.0264
G02 X 28.0094 Y 4.5691 Z -1.0000 I -7.8236 J 9.6041
G02 X 27.4891 Y 4.1883 Z -1.0000 I -7.9481 J 10.3146
G02 X 26.9810 Y 3.8548 Z -1.0000 I -6.5979 J 9.5005
G03 X 26.9228 Y 3.8188 Z -1.0000 I 16.2596 J -26.2566
G03 X 26.8998 Y 3.8043 Z -1.0000 I 2.2934 J -3.6852
G02 X 26.7863 Y 3.7351 Z -1.0000 I -2.4325 J 3.8573
G02 X 26.5616 Y 3.6046 Z -1.0000 I -8.8869 J 15.0478
G02 X 25.1188 Y 2.8972 Z -1.0000 I -6.3500 J 11.1268
G02 X 23.6150 Y 2.3827 Z -1.0000 I -4.8011 J 11.5783
G02 X 23.4258 Y 2.3325 Z -1.0000 I -3.7500 J 13.7540
G02 X 23.2569 Y 2.2903 Z -1.0000 I -2.8154 J 10.9144
G02 X 22.0271 Y 2.0556 Z -1.0000 I -3.0373 J 12.5751
G02 X 20.7956 Y 1.9430 Z -1.0000 I -1.7636 J 12.4985
G02 X 20.3994 Y 1.9322 Z -1.0000 I -0.5613 J 13.2751
G02 X 20.0508 Y 1.9337 Z -1.0000 I -0.1287 J 10.3522
G01 X 20.0508 Y 1.9337 Z -1.0000
G00 Z 5.0000

(End cutting path id: path5247)


(Start cutting path id: path5247)
(Change tool to Default tool)

G00 Z 5.0000
G00 X 19.9040 Y 8.0402

G01 Z -1.0000 F 100.0000(Penetrate)
G01 X 19.8986 Y 8.0409 Z -1.0000 F 3500.0000
G01 X 19.8933 Y 8.0402 Z -1.0000
G01 X 19.8987 Y 8.0388 Z -1.0000
G01 X 19.9041 Y 8.0402 Z -1.0000
G01 X 19.9040 Y 8.0402 Z -1.0000
G00 Z 5.0000

(End cutting path id: path5247)


(Start cutting path id: path5247)
(Change tool to Default tool)

G00 Z 5.0000
G00 X 19.6829 Y 8.1450

G01 Z -1.0000 F 100.0000(Penetrate)
G01 X 19.6807 Y 8.1465 Z -1.0000 F 3500.0000
G01 X 19.6766 Y 8.1462 Z -1.0000
G01 X 19.6784 Y 8.1421 Z -1.0000
G01 X 19.6829 Y 8.1450 Z -1.0000
G01 X 19.6829 Y 8.1450 Z -1.0000
G00 Z 5.0000

(End cutting path id: path5247)


(Start cutting path id: path5247)
(Change tool to Default tool)

G00 Z 5.0000
G00 X 19.6025 Y 8.1961

G01 Z -1.0000 F 100.0000(Penetrate)
G01 X 19.5987 Y 8.1968 Z -1.0000 F 3500.0000
G01 X 19.5948 Y 8.1961 Z -1.0000
G01 X 19.5986 Y 8.1946 Z -1.0000
G01 X 19.6024 Y 8.1961 Z -1.0000
G01 X 19.6025 Y 8.1961 Z -1.0000
G00 Z 5.0000

(End cutting path id: path5247)


(Start cutting path id: path5247)
(Change tool to Default tool)

G00 Z 5.0000
G00 X 19.5672 Y 8.2021

G01 Z -1.0000 F 100.0000(Penetrate)
G01 X 19.5652 Y 8.2030 Z -1.0000 F 3500.0000
G01 X 19.5613 Y 8.2023 Z -1.0000
G01 X 19.5631 Y 8.2005 Z -1.0000
G01 X 19.5671 Y 8.2021 Z -1.0000
G01 X 19.5672 Y 8.2021 Z -1.0000
G00 Z 5.0000

(End cutting path id: path5247)


(Start cutting path id: path5247)
(Change tool to Default tool)

G00 Z 5.0000
G00 X 19.5442 Y 8.2040

G01 Z -1.0000 F 100.0000(Penetrate)
G01 X 19.5375 Y 8.2054 Z -1.0000 F 3500.0000
G01 X 19.5336 Y 8.2038 Z -1.0000
G01 X 19.5406 Y 8.2004 Z -1.0000
G01 X 19.5442 Y 8.2040 Z -1.0000
G01 X 19.5442 Y 8.2040 Z -1.0000
G00 Z 5.0000

(End cutting path id: path5247)


(Start cutting path id: path5247)
(Change tool to Default tool)

G00 Z 5.0000
G00 X 19.5274 Y 8.2082

G01 Z -1.0000 F 100.0000(Penetrate)
G01 X 19.5254 Y 8.2091 Z -1.0000 F 3500.0000
G01 X 19.5215 Y 8.2085 Z -1.0000
G01 X 19.5233 Y 8.2067 Z -1.0000
G01 X 19.5273 Y 8.2083 Z -1.0000
G01 X 19.5274 Y 8.2082 Z -1.0000
G00 Z 5.0000

(End cutting path id: path5247)


(Start cutting path id: path5247)
(Change tool to Default tool)

G00 Z 5.0000
G00 X 19.4831 Y 8.2084

G01 Z -1.0000 F 100.0000(Penetrate)
G01 X 19.4793 Y 8.2092 Z -1.0000 F 3500.0000
G01 X 19.4739 Y 8.2085 Z -1.0000
G01 X 19.4777 Y 8.2070 Z -1.0000
G01 X 19.4831 Y 8.2084 Z -1.0000
G01 X 19.4831 Y 8.2084 Z -1.0000
G00 Z 5.0000

(End cutting path id: path5247)


(Start cutting path id: path5247)
(Change tool to Default tool)

G00 Z 5.0000
G00 X 19.4617 Y 8.2146

G01 Z -1.0000 F 100.0000(Penetrate)
G01 X 19.4548 Y 8.2153 Z -1.0000 F 3500.0000
G03 X 19.4464 Y 8.2147 Z -1.0000 I -0.0002 J -0.0553
G01 X 19.4532 Y 8.2134 Z -1.0000
G01 X 19.4617 Y 8.2147 Z -1.0000
G01 X 19.4617 Y 8.2146 Z -1.0000
G00 Z 5.0000

(End cutting path id: path5247)


(Start cutting path id: path5247)
(Change tool to Default tool)

G00 Z 5.0000
G00 X 19.4202 Y 8.2205

G01 Z -1.0000 F 100.0000(Penetrate)
G01 X 19.4182 Y 8.2214 Z -1.0000 F 3500.0000
G01 X 19.4143 Y 8.2207 Z -1.0000
G01 X 19.4162 Y 8.2189 Z -1.0000
G01 X 19.4202 Y 8.2205 Z -1.0000
G01 X 19.4202 Y 8.2205 Z -1.0000
G00 Z 5.0000

(End cutting path id: path5247)


(Start cutting path id: path5247)
(Change tool to Default tool)

G00 Z 5.0000
G00 X 19.4066 Y 8.2206

G01 Z -1.0000 F 100.0000(Penetrate)
G01 X 19.4028 Y 8.2214 Z -1.0000 F 3500.0000
G01 X 19.3974 Y 8.2208 Z -1.0000
G01 X 19.4012 Y 8.2193 Z -1.0000
G01 X 19.4066 Y 8.2207 Z -1.0000
G01 X 19.4066 Y 8.2206 Z -1.0000
G00 Z 5.0000

(End cutting path id: path5247)


(Start cutting path id: path5247)
(Change tool to Default tool)

G00 Z 5.0000
G00 X 19.3714 Y 8.2269

G01 Z -1.0000 F 100.0000(Penetrate)
G01 X 19.3661 Y 8.2276 Z -1.0000 F 3500.0000
G01 X 19.3591 Y 8.2269 Z -1.0000
G01 X 19.3644 Y 8.2255 Z -1.0000
G01 X 19.3713 Y 8.2268 Z -1.0000
G01 X 19.3714 Y 8.2269 Z -1.0000
G00 Z 5.0000

(End cutting path id: path5247)


(Start cutting path id: path5247)
(Change tool to Default tool)

G00 Z 5.0000
G00 X 19.3253 Y 8.2328

G01 Z -1.0000 F 100.0000(Penetrate)
G01 X 19.3233 Y 8.2337 Z -1.0000 F 3500.0000
G01 X 19.3194 Y 8.2330 Z -1.0000
G01 X 19.3213 Y 8.2312 Z -1.0000
G01 X 19.3253 Y 8.2328 Z -1.0000
G01 X 19.3253 Y 8.2328 Z -1.0000
G00 Z 5.0000

(End cutting path id: path5247)


(Start cutting path id: path5247)
(Change tool to Default tool)

G00 Z 5.0000
G00 X 19.2864 Y 8.2395

G01 Z -1.0000 F 100.0000(Penetrate)
G01 X 19.2757 Y 8.2407 Z -1.0000 F 3500.0000
G01 X 19.2649 Y 8.2383 Z -1.0000
G01 X 19.2757 Y 8.2371 Z -1.0000
G01 X 19.2864 Y 8.2395 Z -1.0000
G01 X 19.2864 Y 8.2395 Z -1.0000
G00 Z 5.0000

(End cutting path id: path5247)


(Start cutting path id: path5247)
(Change tool to Default tool)

G00 Z 5.0000
G00 X 19.2489 Y 8.2453

G01 Z -1.0000 F 100.0000(Penetrate)
G01 X 19.2435 Y 8.2460 Z -1.0000 F 3500.0000
G01 X 19.2382 Y 8.2453 Z -1.0000
G01 X 19.2436 Y 8.2439 Z -1.0000
G01 X 19.2490 Y 8.2453 Z -1.0000
G01 X 19.2489 Y 8.2453 Z -1.0000
G00 Z 5.0000

(End cutting path id: path5247)


(Start cutting path id: path5247)
(Change tool to Default tool)

G00 Z 5.0000
G00 X 19.2320 Y 8.1961

G01 Z -1.0000 F 100.0000(Penetrate)
G01 X 19.2283 Y 8.1968 Z -1.0000 F 3500.0000
G01 X 19.2243 Y 8.1961 Z -1.0000
G01 X 19.2281 Y 8.1946 Z -1.0000
G01 X 19.2319 Y 8.1961 Z -1.0000
G01 X 19.2320 Y 8.1961 Z -1.0000
G00 Z 5.0000

(End cutting path id: path5247)


(Start cutting path id: path5247)
(Change tool to Default tool)

G00 Z 5.0000
G00 X 19.2488 Y 8.1929

G01 Z -1.0000 F 100.0000(Penetrate)
G01 X 19.2468 Y 8.1938 Z -1.0000 F 3500.0000
G01 X 19.2429 Y 8.1931 Z -1.0000
G01 X 19.2447 Y 8.1913 Z -1.0000
G01 X 19.2487 Y 8.1929 Z -1.0000
G01 X 19.2488 Y 8.1929 Z -1.0000
G00 Z 5.0000

(End cutting path id: path5247)


(Start cutting path id: path5247)
(Change tool to Default tool)

G00 Z 5.0000
G00 X 19.2702 Y 8.1898

G01 Z -1.0000 F 100.0000(Penetrate)
G01 X 19.2682 Y 8.1907 Z -1.0000 F 3500.0000
G01 X 19.2643 Y 8.1900 Z -1.0000
G01 X 19.2661 Y 8.1882 Z -1.0000
G01 X 19.2701 Y 8.1898 Z -1.0000
G01 X 19.2702 Y 8.1898 Z -1.0000
G00 Z 5.0000

(End cutting path id: path5247)


(Start cutting path id: path5247)
(Change tool to Default tool)

G00 Z 5.0000
G00 X 19.2053 Y 8.2002

G01 Z -1.0000 F 100.0000(Penetrate)
G01 X 19.1989 Y 8.2020 Z -1.0000 F 3500.0000
G01 X 19.1899 Y 8.2027 Z -1.0000
G01 X 19.1807 Y 8.2026 Z -1.0000
G01 X 19.1899 Y 8.2003 Z -1.0000
G03 X 19.1992 Y 8.1983 Z -1.0000 I 0.0261 J 0.1024
G01 X 19.2053 Y 8.1978 Z -1.0000
G01 X 19.2114 Y 8.1976 Z -1.0000
G01 X 19.2053 Y 8.2002 Z -1.0000
G00 Z 5.0000

(End cutting path id: path5247)


(Start cutting path id: path5247)
(Change tool to Default tool)

G00 Z 5.0000
G00 X 19.1655 Y 8.2064

G01 Z -1.0000 F 100.0000(Penetrate)
G01 X 19.1631 Y 8.2085 Z -1.0000 F 3500.0000
G01 X 19.1584 Y 8.2092 Z -1.0000
G01 X 19.1593 Y 8.2064 Z -1.0000
G01 X 19.1654 Y 8.2064 Z -1.0000
G01 X 19.1655 Y 8.2064 Z -1.0000
G00 Z 5.0000

(End cutting path id: path5247)


(Start cutting path id: path5247)
(Change tool to Default tool)

G00 Z 5.0000
G00 X 19.1294 Y 8.2143

G01 Z -1.0000 F 100.0000(Penetrate)
G01 X 19.1274 Y 8.2152 Z -1.0000 F 3500.0000
G01 X 19.1235 Y 8.2146 Z -1.0000
G01 X 19.1253 Y 8.2127 Z -1.0000
G01 X 19.1293 Y 8.2143 Z -1.0000
G01 X 19.1294 Y 8.2143 Z -1.0000
G00 Z 5.0000

(End cutting path id: path5247)


(Start cutting path id: path5247)
(Change tool to Default tool)

G00 Z 5.0000
G00 X 19.1066 Y 8.2697

G01 Z -1.0000 F 100.0000(Penetrate)
G01 X 19.1027 Y 8.2704 Z -1.0000 F 3500.0000
G01 X 19.0974 Y 8.2698 Z -1.0000
G01 X 19.1012 Y 8.2683 Z -1.0000
G01 X 19.1066 Y 8.2697 Z -1.0000
G01 X 19.1066 Y 8.2697 Z -1.0000
G00 Z 5.0000

(End cutting path id: path5247)


(Start cutting path id: path5247)
(Change tool to Default tool)

G00 Z 5.0000
G00 X 19.0407 Y 8.2820

G01 Z -1.0000 F 100.0000(Penetrate)
G01 X 19.0354 Y 8.2827 Z -1.0000 F 3500.0000
G01 X 19.0300 Y 8.2820 Z -1.0000
G01 X 19.0354 Y 8.2806 Z -1.0000
G01 X 19.0408 Y 8.2820 Z -1.0000
G01 X 19.0407 Y 8.2820 Z -1.0000
G00 Z 5.0000

(End cutting path id: path5247)


(Start cutting path id: path5247)
(Change tool to Default tool)

G00 Z 5.0000
G00 X 18.9243 Y 8.1684

G01 Z -1.0000 F 100.0000(Penetrate)
G01 X 18.9223 Y 8.1693 Z -1.0000 F 3500.0000
G01 X 18.9184 Y 8.1686 Z -1.0000
G01 X 18.9203 Y 8.1668 Z -1.0000
G01 X 18.9243 Y 8.1684 Z -1.0000
G01 X 18.9243 Y 8.1684 Z -1.0000
G00 Z 5.0000

(End cutting path id: path5247)


(Start cutting path id: path5247)
(Change tool to Default tool)

G00 Z 5.0000
G00 X 18.8264 Y 8.1929

G01 Z -1.0000 F 100.0000(Penetrate)
G01 X 18.8243 Y 8.1938 Z -1.0000 F 3500.0000
G01 X 18.8205 Y 8.1931 Z -1.0000
G01 X 18.8224 Y 8.1913 Z -1.0000
G01 X 18.8264 Y 8.1929 Z -1.0000
G01 X 18.8264 Y 8.1929 Z -1.0000
G00 Z 5.0000

(End cutting path id: path5247)


(Start cutting path id: path5247)
(Change tool to Default tool)

G00 Z 5.0000
G00 X 18.6504 Y 8.2360

G01 Z -1.0000 F 100.0000(Penetrate)
G01 X 18.6466 Y 8.2367 Z -1.0000 F 3500.0000
G01 X 18.6427 Y 8.2360 Z -1.0000
G01 X 18.6465 Y 8.2345 Z -1.0000
G01 X 18.6503 Y 8.2360 Z -1.0000
G01 X 18.6504 Y 8.2360 Z -1.0000
G00 Z 5.0000

(End cutting path id: path5247)


(Start cutting path id: path5247)
(Change tool to Default tool)

G00 Z 5.0000
G00 X 18.6251 Y 8.2401

G01 Z -1.0000 F 100.0000(Penetrate)
G01 X 18.6182 Y 8.2429 Z -1.0000 F 3500.0000
G01 X 18.6175 Y 8.2401 Z -1.0000
G02 X 18.6237 Y 8.2375 Z -1.0000 I -0.5783 J -1.4045
G01 X 18.6244 Y 8.2373 Z -1.0000
G01 X 18.6251 Y 8.2401 Z -1.0000
G01 X 18.6251 Y 8.2401 Z -1.0000
G00 Z 5.0000

(End cutting path id: path5247)


(Start cutting path id: path5247)
(Change tool to Default tool)

G00 Z 5.0000
G00 X 18.5096 Y 8.2728

G01 Z -1.0000 F 100.0000(Penetrate)
G01 X 18.5058 Y 8.2735 Z -1.0000 F 3500.0000
G01 X 18.5019 Y 8.2728 Z -1.0000
G01 X 18.5057 Y 8.2713 Z -1.0000
G01 X 18.5095 Y 8.2728 Z -1.0000
G01 X 18.5096 Y 8.2728 Z -1.0000
G00 Z 5.0000

(End cutting path id: path5247)


(Start cutting path id: path5247)
(Change tool to Default tool)

G00 Z 5.0000
G00 X 18.4590 Y 8.2848

G01 Z -1.0000 F 100.0000(Penetrate)
G01 X 18.4569 Y 8.2857 Z -1.0000 F 3500.0000
G01 X 18.4531 Y 8.2850 Z -1.0000
G01 X 18.4549 Y 8.2831 Z -1.0000
G01 X 18.4589 Y 8.2847 Z -1.0000
G01 X 18.4590 Y 8.2848 Z -1.0000
G00 Z 5.0000

(End cutting path id: path5247)


(Start cutting path id: path5247)
(Change tool to Default tool)

G00 Z 5.0000
G00 X 18.4445 Y 8.2891

G01 Z -1.0000 F 100.0000(Penetrate)
G01 X 18.4391 Y 8.2921 Z -1.0000 F 3500.0000
G01 X 18.4383 Y 8.2891 Z -1.0000
G01 X 18.4444 Y 8.2891 Z -1.0000
G01 X 18.4445 Y 8.2891 Z -1.0000
G00 Z 5.0000

(End cutting path id: path5247)


(Start cutting path id: path5247)
(Change tool to Default tool)

G00 Z 5.0000
G00 X 18.4223 Y 8.2971

G01 Z -1.0000 F 100.0000(Penetrate)
G01 X 18.4202 Y 8.2979 Z -1.0000 F 3500.0000
G01 X 18.4164 Y 8.2973 Z -1.0000
G01 X 18.4183 Y 8.2954 Z -1.0000
G01 X 18.4223 Y 8.2970 Z -1.0000
G01 X 18.4223 Y 8.2971 Z -1.0000
G00 Z 5.0000

(End cutting path id: path5247)


(Start cutting path id: path5247)
(Change tool to Default tool)

G00 Z 5.0000
G00 X 18.4062 Y 8.3013

G01 Z -1.0000 F 100.0000(Penetrate)
G01 X 18.4010 Y 8.3043 Z -1.0000 F 3500.0000
G01 X 18.3985 Y 8.3013 Z -1.0000
G01 X 18.4036 Y 8.2998 Z -1.0000
G01 X 18.4062 Y 8.3013 Z -1.0000
G01 X 18.4062 Y 8.3013 Z -1.0000
G00 Z 5.0000

(End cutting path id: path5247)


(Start cutting path id: path5247)
(Change tool to Default tool)

G00 Z 5.0000
G00 X 18.3703 Y 8.3158

G01 Z -1.0000 F 100.0000(Penetrate)
G01 X 18.3649 Y 8.3165 Z -1.0000 F 3500.0000
G01 X 18.3596 Y 8.3158 Z -1.0000
G01 X 18.3650 Y 8.3144 Z -1.0000
G01 X 18.3704 Y 8.3158 Z -1.0000
G01 X 18.3703 Y 8.3158 Z -1.0000
G00 Z 5.0000

(End cutting path id: path5247)


(Start cutting path id: path5247)
(Change tool to Default tool)

G00 Z 5.0000
G00 X 18.3159 Y 8.3305

G01 Z -1.0000 F 100.0000(Penetrate)
G01 X 18.3117 Y 8.3341 Z -1.0000 F 3500.0000
G01 X 18.3086 Y 8.3350 Z -1.0000
G01 X 18.3111 Y 8.3304 Z -1.0000
G01 X 18.3159 Y 8.3305 Z -1.0000
G01 X 18.3159 Y 8.3305 Z -1.0000
G00 Z 5.0000

(End cutting path id: path5247)


(Start cutting path id: path5247)
(Change tool to Default tool)

G00 Z 5.0000
G00 X 18.2976 Y 8.3627

G01 Z -1.0000 F 100.0000(Penetrate)
G01 X 18.3007 Y 8.3640 Z -1.0000 F 3500.0000
G01 X 18.3038 Y 8.3608 Z -1.0000
G01 X 18.3007 Y 8.3595 Z -1.0000
G01 X 18.2985 Y 8.3605 Z -1.0000
G01 X 18.2976 Y 8.3627 Z -1.0000
G01 X 18.2976 Y 8.3627 Z -1.0000
G00 Z 5.0000

(End cutting path id: path5247)


(Start cutting path id: path5247)
(Change tool to Default tool)

G00 Z 5.0000
G00 X 18.3221 Y 8.3686

G01 Z -1.0000 F 100.0000(Penetrate)
G01 X 18.3228 Y 8.3716 Z -1.0000 F 3500.0000
G01 X 18.3282 Y 8.3686 Z -1.0000
G01 X 18.3221 Y 8.3686 Z -1.0000
G01 X 18.3221 Y 8.3686 Z -1.0000
G00 Z 5.0000

(End cutting path id: path5247)


(Start cutting path id: path5247)
(Change tool to Default tool)

G00 Z 5.0000
G00 X 18.2590 Y 8.3713

G01 Z -1.0000 F 100.0000(Penetrate)
G01 X 18.2569 Y 8.3741 Z -1.0000 F 3500.0000
G01 X 18.2533 Y 8.3746 Z -1.0000
G02 X 18.2455 Y 8.3763 Z -1.0000 I 0.0209 J 0.1122
G01 X 18.2470 Y 8.3737 Z -1.0000
G03 X 18.2562 Y 8.3693 Z -1.0000 I 1.4890 J 3.0376
G01 X 18.2568 Y 8.3690 Z -1.0000
G01 X 18.2590 Y 8.3713 Z -1.0000
G01 X 18.2590 Y 8.3713 Z -1.0000
G00 Z 5.0000

(End cutting path id: path5247)


(Start cutting path id: path5247)
(Change tool to Default tool)

G00 Z 5.0000
G00 X 18.2508 Y 8.3523

G01 Z -1.0000 F 100.0000(Penetrate)
G01 X 18.2488 Y 8.3532 Z -1.0000 F 3500.0000
G01 X 18.2449 Y 8.3525 Z -1.0000
G01 X 18.2468 Y 8.3507 Z -1.0000
G01 X 18.2508 Y 8.3523 Z -1.0000
G01 X 18.2508 Y 8.3523 Z -1.0000
G00 Z 5.0000

(End cutting path id: path5247)


(Start cutting path id: path5247)
(Change tool to Default tool)

G00 Z 5.0000
G00 X 18.2363 Y 8.3827

G01 Z -1.0000 F 100.0000(Penetrate)
G01 X 18.2332 Y 8.3856 Z -1.0000 F 3500.0000
G01 X 18.2309 Y 8.3834 Z -1.0000
G01 X 18.2301 Y 8.3808 Z -1.0000
G01 X 18.2310 Y 8.3788 Z -1.0000
G01 X 18.2332 Y 8.3779 Z -1.0000
G01 X 18.2363 Y 8.3827 Z -1.0000
G01 X 18.2363 Y 8.3827 Z -1.0000
G00 Z 5.0000

(End cutting path id: path5247)


(Start cutting path id: path5247)
(Change tool to Default tool)

G00 Z 5.0000
G00 X 18.2256 Y 8.3841

G01 Z -1.0000 F 100.0000(Penetrate)
G01 X 18.2204 Y 8.3871 Z -1.0000 F 3500.0000
G01 X 18.2179 Y 8.3841 Z -1.0000
G01 X 18.2230 Y 8.3826 Z -1.0000
G01 X 18.2256 Y 8.3841 Z -1.0000
G01 X 18.2256 Y 8.3841 Z -1.0000
G00 Z 5.0000

(End cutting path id: path5247)


(Start cutting path id: path5247)
(Change tool to Default tool)

G00 Z 5.0000
G00 X 18.2057 Y 8.3904

G01 Z -1.0000 F 100.0000(Penetrate)
G01 X 18.2026 Y 8.3917 Z -1.0000 F 3500.0000
G01 X 18.1995 Y 8.3926 Z -1.0000
G01 X 18.1945 Y 8.3953 Z -1.0000
G01 X 18.1951 Y 8.3912 Z -1.0000
G01 X 18.2057 Y 8.3903 Z -1.0000
G01 X 18.2057 Y 8.3904 Z -1.0000
G00 Z 5.0000

(End cutting path id: path5247)


(Start cutting path id: path5247)
(Change tool to Default tool)

G00 Z 5.0000
G00 X 18.1858 Y 8.3964

G01 Z -1.0000 F 100.0000(Penetrate)
G01 X 18.1835 Y 8.3986 Z -1.0000 F 3500.0000
G01 X 18.1803 Y 8.3994 Z -1.0000
G01 X 18.1813 Y 8.3964 Z -1.0000
G01 X 18.1859 Y 8.3964 Z -1.0000
G01 X 18.1858 Y 8.3964 Z -1.0000
G00 Z 5.0000

(End cutting path id: path5247)


(Start cutting path id: path5247)
(Change tool to Default tool)

G00 Z 5.0000
G00 X 18.1762 Y 8.4018

G01 Z -1.0000 F 100.0000(Penetrate)
G01 X 18.1705 Y 8.4041 Z -1.0000 F 3500.0000
G01 X 18.1649 Y 8.4018 Z -1.0000
G01 X 18.1667 Y 8.4003 Z -1.0000
G01 X 18.1705 Y 8.3995 Z -1.0000
G01 X 18.1743 Y 8.4002 Z -1.0000
G01 X 18.1762 Y 8.4018 Z -1.0000
G01 X 18.1762 Y 8.4018 Z -1.0000
G00 Z 5.0000

(End cutting path id: path5247)


(Start cutting path id: path5247)
(Change tool to Default tool)

G00 Z 5.0000
G00 X 18.1782 Y 8.4117

G01 Z -1.0000 F 100.0000(Penetrate)
G01 X 18.1797 Y 8.4147 Z -1.0000 F 3500.0000
G01 X 18.1768 Y 8.4142 Z -1.0000
G01 X 18.1720 Y 8.4117 Z -1.0000
G01 X 18.1705 Y 8.4087 Z -1.0000
G01 X 18.1734 Y 8.4093 Z -1.0000
G01 X 18.1782 Y 8.4117 Z -1.0000
G01 X 18.1782 Y 8.4117 Z -1.0000
G00 Z 5.0000

(End cutting path id: path5247)


(Start cutting path id: path5247)
(Change tool to Default tool)

G00 Z 5.0000
G00 X 18.1690 Y 8.3771

G01 Z -1.0000 F 100.0000(Penetrate)
G01 X 18.1647 Y 8.3791 Z -1.0000 F 3500.0000
G01 X 18.1605 Y 8.3819 Z -1.0000
G01 X 18.1585 Y 8.3800 Z -1.0000
G01 X 18.1615 Y 8.3765 Z -1.0000
G01 X 18.1670 Y 8.3752 Z -1.0000
G01 X 18.1690 Y 8.3771 Z -1.0000
G01 X 18.1690 Y 8.3771 Z -1.0000
G00 Z 5.0000

(End cutting path id: path5247)


(Start cutting path id: path5247)
(Change tool to Default tool)

G00 Z 5.0000
G00 X 18.1912 Y 8.3708

G01 Z -1.0000 F 100.0000(Penetrate)
G01 X 18.1874 Y 8.3715 Z -1.0000 F 3500.0000
G01 X 18.1835 Y 8.3708 Z -1.0000
G01 X 18.1873 Y 8.3693 Z -1.0000
G01 X 18.1911 Y 8.3708 Z -1.0000
G01 X 18.1912 Y 8.3708 Z -1.0000
G00 Z 5.0000

(End cutting path id: path5247)


(Start cutting path id: path5247)
(Change tool to Default tool)

G00 Z 5.0000
G00 X 18.2180 Y 8.3608

G01 Z -1.0000 F 100.0000(Penetrate)
G01 X 18.2134 Y 8.3638 Z -1.0000 F 3500.0000
G01 X 18.2088 Y 8.3626 Z -1.0000
G01 X 18.2134 Y 8.3596 Z -1.0000
G01 X 18.2180 Y 8.3608 Z -1.0000
G01 X 18.2180 Y 8.3608 Z -1.0000
G00 Z 5.0000

(End cutting path id: path5247)


(Start cutting path id: path5247)
(Change tool to Default tool)

G00 Z 5.0000
G00 X 18.1215 Y 8.3933

G01 Z -1.0000 F 100.0000(Penetrate)
G01 X 18.1184 Y 8.3964 Z -1.0000 F 3500.0000
G01 X 18.1153 Y 8.3933 Z -1.0000
G01 X 18.1184 Y 8.3902 Z -1.0000
G01 X 18.1215 Y 8.3933 Z -1.0000
G01 X 18.1215 Y 8.3933 Z -1.0000
G00 Z 5.0000

(End cutting path id: path5247)


(Start cutting path id: path5247)
(Change tool to Default tool)

G00 Z 5.0000
G00 X 18.1231 Y 8.4190

G01 Z -1.0000 F 100.0000(Penetrate)
G01 X 18.1170 Y 8.4218 Z -1.0000 F 3500.0000
G01 X 18.1126 Y 8.4206 Z -1.0000
G01 X 18.1196 Y 8.4160 Z -1.0000
G01 X 18.1231 Y 8.4190 Z -1.0000
G01 X 18.1231 Y 8.4190 Z -1.0000
G00 Z 5.0000

(End cutting path id: path5247)


(Start cutting path id: path5247)
(Change tool to Default tool)

G00 Z 5.0000
G00 X 18.1506 Y 8.4390

G01 Z -1.0000 F 100.0000(Penetrate)
G01 X 18.1583 Y 8.4390 Z -1.0000 F 3500.0000
G01 X 18.1598 Y 8.4362 Z -1.0000
G01 X 18.1554 Y 8.4368 Z -1.0000
G01 X 18.1506 Y 8.4390 Z -1.0000
G01 X 18.1506 Y 8.4390 Z -1.0000
G00 Z 5.0000

(End cutting path id: path5247)


(Start cutting path id: path5247)
(Change tool to Default tool)

G00 Z 5.0000
G00 X 18.1427 Y 8.4493

G01 Z -1.0000 F 100.0000(Penetrate)
G01 X 18.1325 Y 8.4536 Z -1.0000 F 3500.0000
G01 X 18.1185 Y 8.4541 Z -1.0000
G01 X 18.1277 Y 8.4500 Z -1.0000
G03 X 18.1369 Y 8.4460 Z -1.0000 I 0.1713 J 0.3798
G01 X 18.1379 Y 8.4457 Z -1.0000
G01 X 18.1427 Y 8.4493 Z -1.0000
G01 X 18.1427 Y 8.4493 Z -1.0000
G00 Z 5.0000

(End cutting path id: path5247)


(Start cutting path id: path5247)
(Change tool to Default tool)

G00 Z 5.0000
G00 X 18.1167 Y 8.4589

G01 Z -1.0000 F 100.0000(Penetrate)
G01 X 18.1152 Y 8.4598 Z -1.0000 F 3500.0000
G03 X 18.1062 Y 8.4620 Z -1.0000 I -0.0281 J -0.0947
G01 X 18.0970 Y 8.4638 Z -1.0000
G01 X 18.1062 Y 8.4595 Z -1.0000
G01 X 18.1167 Y 8.4590 Z -1.0000
G01 X 18.1167 Y 8.4589 Z -1.0000
G00 Z 5.0000

(End cutting path id: path5247)


(Start cutting path id: path5247)
(Change tool to Default tool)

G00 Z 5.0000
G00 X 18.0947 Y 8.4656

G01 Z -1.0000 F 100.0000(Penetrate)
G01 X 18.0927 Y 8.4665 Z -1.0000 F 3500.0000
G01 X 18.0888 Y 8.4658 Z -1.0000
G01 X 18.0907 Y 8.4639 Z -1.0000
G01 X 18.0947 Y 8.4655 Z -1.0000
G01 X 18.0947 Y 8.4656 Z -1.0000
G00 Z 5.0000

(End cutting path id: path5247)


(Start cutting path id: path5247)
(Change tool to Default tool)

G00 Z 5.0000
G00 X 18.0848 Y 8.4698

G01 Z -1.0000 F 100.0000(Penetrate)
G01 X 18.0819 Y 8.4710 Z -1.0000 F 3500.0000
G01 X 18.0800 Y 8.4668 Z -1.0000
G01 X 18.0825 Y 8.4675 Z -1.0000
G01 X 18.0848 Y 8.4698 Z -1.0000
G01 X 18.0848 Y 8.4698 Z -1.0000
G00 Z 5.0000

(End cutting path id: path5247)


(Start cutting path id: path5247)
(Change tool to Default tool)

G00 Z 5.0000
G00 X 18.0756 Y 8.4362

G01 Z -1.0000 F 100.0000(Penetrate)
G01 X 18.0733 Y 8.4384 Z -1.0000 F 3500.0000
G01 X 18.0701 Y 8.4392 Z -1.0000
G01 X 18.0711 Y 8.4362 Z -1.0000
G01 X 18.0757 Y 8.4362 Z -1.0000
G01 X 18.0756 Y 8.4362 Z -1.0000
G00 Z 5.0000

(End cutting path id: path5247)


(Start cutting path id: path5247)
(Change tool to Default tool)

G00 Z 5.0000
G00 X 18.0419 Y 8.4239

G01 Z -1.0000 F 100.0000(Penetrate)
G01 X 18.0390 Y 8.4270 Z -1.0000 F 3500.0000
G01 X 18.0342 Y 8.4239 Z -1.0000
G01 X 18.0351 Y 8.4217 Z -1.0000
G01 X 18.0371 Y 8.4208 Z -1.0000
G01 X 18.0396 Y 8.4216 Z -1.0000
G01 X 18.0419 Y 8.4239 Z -1.0000
G01 X 18.0419 Y 8.4239 Z -1.0000
G00 Z 5.0000

(End cutting path id: path5247)


(Start cutting path id: path5247)
(Change tool to Default tool)

G00 Z 5.0000
G00 X 17.9562 Y 8.4790

G01 Z -1.0000 F 100.0000(Penetrate)
G01 X 17.9539 Y 8.4812 Z -1.0000 F 3500.0000
G01 X 17.9507 Y 8.4820 Z -1.0000
G01 X 17.9517 Y 8.4790 Z -1.0000
G01 X 17.9563 Y 8.4790 Z -1.0000
G01 X 17.9562 Y 8.4790 Z -1.0000
G00 Z 5.0000

(End cutting path id: path5247)


(Start cutting path id: path5247)
(Change tool to Default tool)

G00 Z 5.0000
G00 X 17.9379 Y 8.4607

G01 Z -1.0000 F 100.0000(Penetrate)
G01 X 17.9355 Y 8.4629 Z -1.0000 F 3500.0000
G01 X 17.9316 Y 8.4638 Z -1.0000
G01 X 17.9272 Y 8.4669 Z -1.0000
G01 X 17.9203 Y 8.4699 Z -1.0000
G01 X 17.9257 Y 8.4639 Z -1.0000
G01 X 17.9379 Y 8.4608 Z -1.0000
G01 X 17.9379 Y 8.4607 Z -1.0000
G00 Z 5.0000

(End cutting path id: path5247)


(Start cutting path id: path5247)
(Change tool to Default tool)

G00 Z 5.0000
G00 X 17.8912 Y 8.4810

G01 Z -1.0000 F 100.0000(Penetrate)
G01 X 17.8874 Y 8.4817 Z -1.0000 F 3500.0000
G01 X 17.8835 Y 8.4810 Z -1.0000
G01 X 17.8873 Y 8.4795 Z -1.0000
G01 X 17.8911 Y 8.4810 Z -1.0000
G01 X 17.8912 Y 8.4810 Z -1.0000
G00 Z 5.0000

(End cutting path id: path5247)


(Start cutting path id: path5247)
(Change tool to Default tool)

G00 Z 5.0000
G00 X 17.8821 Y 8.4871

G01 Z -1.0000 F 100.0000(Penetrate)
G01 X 17.8782 Y 8.4878 Z -1.0000 F 3500.0000
G01 X 17.8729 Y 8.4872 Z -1.0000
G01 X 17.8767 Y 8.4857 Z -1.0000
G01 X 17.8821 Y 8.4871 Z -1.0000
G01 X 17.8821 Y 8.4871 Z -1.0000
G00 Z 5.0000

(End cutting path id: path5247)


(Start cutting path id: path5247)
(Change tool to Default tool)

G00 Z 5.0000
G00 X 17.8743 Y 8.5114

G01 Z -1.0000 F 100.0000(Penetrate)
G01 X 17.8722 Y 8.5123 Z -1.0000 F 3500.0000
G01 X 17.8684 Y 8.5116 Z -1.0000
G01 X 17.8703 Y 8.5097 Z -1.0000
G01 X 17.8743 Y 8.5113 Z -1.0000
G01 X 17.8743 Y 8.5114 Z -1.0000
G00 Z 5.0000

(End cutting path id: path5247)


(Start cutting path id: path5247)
(Change tool to Default tool)

G00 Z 5.0000
G00 X 17.8858 Y 8.5341

G01 Z -1.0000 F 100.0000(Penetrate)
G01 X 17.8827 Y 8.5372 Z -1.0000 F 3500.0000
G01 X 17.8796 Y 8.5341 Z -1.0000
G01 X 17.8827 Y 8.5310 Z -1.0000
G01 X 17.8858 Y 8.5341 Z -1.0000
G01 X 17.8858 Y 8.5341 Z -1.0000
G00 Z 5.0000

(End cutting path id: path5247)


(Start cutting path id: path5247)
(Change tool to Default tool)

G00 Z 5.0000
G00 X 17.9263 Y 8.6003

G01 Z -1.0000 F 100.0000(Penetrate)
G01 X 17.9242 Y 8.6012 Z -1.0000 F 3500.0000
G01 X 17.9204 Y 8.6006 Z -1.0000
G01 X 17.9223 Y 8.5988 Z -1.0000
G01 X 17.9263 Y 8.6004 Z -1.0000
G01 X 17.9263 Y 8.6003 Z -1.0000
G00 Z 5.0000

(End cutting path id: path5247)


(Start cutting path id: path5247)
(Change tool to Default tool)

G00 Z 5.0000
G00 X 17.8613 Y 8.6261

G01 Z -1.0000 F 100.0000(Penetrate)
G01 X 17.8582 Y 8.6292 Z -1.0000 F 3500.0000
G01 X 17.8551 Y 8.6261 Z -1.0000
G01 X 17.8582 Y 8.6230 Z -1.0000
G01 X 17.8613 Y 8.6261 Z -1.0000
G01 X 17.8613 Y 8.6261 Z -1.0000
G00 Z 5.0000

(End cutting path id: path5247)


(Start cutting path id: path5247)
(Change tool to Default tool)

G00 Z 5.0000
G00 X 17.8414 Y 8.6322

G01 Z -1.0000 F 100.0000(Penetrate)
G01 X 17.8400 Y 8.6353 Z -1.0000 F 3500.0000
G01 X 17.8368 Y 8.6322 Z -1.0000
G01 X 17.8381 Y 8.6291 Z -1.0000
G01 X 17.8404 Y 8.6300 Z -1.0000
G01 X 17.8413 Y 8.6322 Z -1.0000
G01 X 17.8414 Y 8.6322 Z -1.0000
G00 Z 5.0000

(End cutting path id: path5247)


(Start cutting path id: path5247)
(Change tool to Default tool)

G00 Z 5.0000
G00 X 17.8292 Y 8.6371

G01 Z -1.0000 F 100.0000(Penetrate)
G01 X 17.8264 Y 8.6406 Z -1.0000 F 3500.0000
G01 X 17.8219 Y 8.6389 Z -1.0000
G01 X 17.8247 Y 8.6363 Z -1.0000
G01 X 17.8292 Y 8.6371 Z -1.0000
G01 X 17.8292 Y 8.6371 Z -1.0000
G00 Z 5.0000

(End cutting path id: path5247)


(Start cutting path id: path5247)
(Change tool to Default tool)

G00 Z 5.0000
G00 X 17.7878 Y 8.5219

G01 Z -1.0000 F 100.0000(Penetrate)
G01 X 17.7826 Y 8.5249 Z -1.0000 F 3500.0000
G01 X 17.7801 Y 8.5219 Z -1.0000
G01 X 17.7852 Y 8.5204 Z -1.0000
G01 X 17.7878 Y 8.5219 Z -1.0000
G01 X 17.7878 Y 8.5219 Z -1.0000
G00 Z 5.0000

(End cutting path id: path5247)


(Start cutting path id: path5247)
(Change tool to Default tool)

G00 Z 5.0000
G00 X 17.7977 Y 8.5176

G01 Z -1.0000 F 100.0000(Penetrate)
G01 X 17.7957 Y 8.5185 Z -1.0000 F 3500.0000
G01 X 17.7918 Y 8.5178 Z -1.0000
G01 X 17.7937 Y 8.5160 Z -1.0000
G01 X 17.7977 Y 8.5176 Z -1.0000
G01 X 17.7977 Y 8.5176 Z -1.0000
G00 Z 5.0000

(End cutting path id: path5247)


(Start cutting path id: path5247)
(Change tool to Default tool)

G00 Z 5.0000
G00 X 17.7457 Y 8.5421

G01 Z -1.0000 F 100.0000(Penetrate)
G01 X 17.7436 Y 8.5430 Z -1.0000 F 3500.0000
G01 X 17.7398 Y 8.5423 Z -1.0000
G01 X 17.7417 Y 8.5404 Z -1.0000
G01 X 17.7457 Y 8.5420 Z -1.0000
G01 X 17.7457 Y 8.5421 Z -1.0000
G00 Z 5.0000

(End cutting path id: path5247)


(Start cutting path id: path5247)
(Change tool to Default tool)

G00 Z 5.0000
G00 X 17.7358 Y 8.5464

G01 Z -1.0000 F 100.0000(Penetrate)
G01 X 17.7329 Y 8.5495 Z -1.0000 F 3500.0000
G01 X 17.7281 Y 8.5464 Z -1.0000
G01 X 17.7290 Y 8.5442 Z -1.0000
G01 X 17.7310 Y 8.5433 Z -1.0000
G01 X 17.7335 Y 8.5440 Z -1.0000
G01 X 17.7358 Y 8.5464 Z -1.0000
G01 X 17.7358 Y 8.5464 Z -1.0000
G00 Z 5.0000

(End cutting path id: path5247)


(Start cutting path id: path5247)
(Change tool to Default tool)

G00 Z 5.0000
G00 X 17.7081 Y 8.5585

G01 Z -1.0000 F 100.0000(Penetrate)
G01 X 17.7039 Y 8.5609 Z -1.0000 F 3500.0000
G01 X 17.6994 Y 8.5579 Z -1.0000
G01 X 17.7036 Y 8.5557 Z -1.0000
G01 X 17.7081 Y 8.5584 Z -1.0000
G01 X 17.7081 Y 8.5585 Z -1.0000
G00 Z 5.0000

(End cutting path id: path5247)


(Start cutting path id: path5247)
(Change tool to Default tool)

G00 Z 5.0000
G00 X 17.6853 Y 8.5648

G01 Z -1.0000 F 100.0000(Penetrate)
G01 X 17.6843 Y 8.5670 Z -1.0000 F 3500.0000
G01 X 17.6821 Y 8.5678 Z -1.0000
G01 X 17.6808 Y 8.5648 Z -1.0000
G01 X 17.6840 Y 8.5617 Z -1.0000
G01 X 17.6853 Y 8.5648 Z -1.0000
G01 X 17.6853 Y 8.5648 Z -1.0000
G00 Z 5.0000

(End cutting path id: path5247)


(Start cutting path id: path5247)
(Change tool to Default tool)

G00 Z 5.0000
G00 X 17.5578 Y 8.6246

G01 Z -1.0000 F 100.0000(Penetrate)
G01 X 17.5506 Y 8.6264 Z -1.0000 F 3500.0000
G01 X 17.5518 Y 8.6241 Z -1.0000
G01 X 17.5589 Y 8.6203 Z -1.0000
G01 X 17.5578 Y 8.6247 Z -1.0000
G01 X 17.5578 Y 8.6246 Z -1.0000
G00 Z 5.0000

(End cutting path id: path5247)


(Start cutting path id: path5247)
(Change tool to Default tool)

G00 Z 5.0000
G00 X 17.5734 Y 8.7499

G01 Z -1.0000 F 100.0000(Penetrate)
G01 X 17.5666 Y 8.7501 Z -1.0000 F 3500.0000
G01 X 17.5709 Y 8.7466 Z -1.0000
G01 X 17.5750 Y 8.7455 Z -1.0000
G01 X 17.5735 Y 8.7499 Z -1.0000
G01 X 17.5734 Y 8.7499 Z -1.0000
G00 Z 5.0000

(End cutting path id: path5247)


(Start cutting path id: path5247)
(Change tool to Default tool)

G00 Z 5.0000
G00 X 17.5353 Y 8.7668

G01 Z -1.0000 F 100.0000(Penetrate)
G01 X 17.5340 Y 8.7699 Z -1.0000 F 3500.0000
G01 X 17.5308 Y 8.7668 Z -1.0000
G01 X 17.5321 Y 8.7637 Z -1.0000
G01 X 17.5344 Y 8.7647 Z -1.0000
G01 X 17.5353 Y 8.7668 Z -1.0000
G01 X 17.5353 Y 8.7668 Z -1.0000
G00 Z 5.0000

(End cutting path id: path5247)


(Start cutting path id: path5247)
(Change tool to Default tool)

G00 Z 5.0000
G00 X 17.5253 Y 8.7717

G01 Z -1.0000 F 100.0000(Penetrate)
G01 X 17.5232 Y 8.7726 Z -1.0000 F 3500.0000
G01 X 17.5194 Y 8.7720 Z -1.0000
G01 X 17.5212 Y 8.7702 Z -1.0000
G01 X 17.5252 Y 8.7718 Z -1.0000
G01 X 17.5253 Y 8.7717 Z -1.0000
G00 Z 5.0000

(End cutting path id: path5247)


(Start cutting path id: path5247)
(Change tool to Default tool)

G00 Z 5.0000
G00 X 17.5016 Y 8.7835

G01 Z -1.0000 F 100.0000(Penetrate)
G01 X 17.4986 Y 8.7873 Z -1.0000 F 3500.0000
G01 X 17.4940 Y 8.7853 Z -1.0000
G01 X 17.4968 Y 8.7822 Z -1.0000
G01 X 17.5016 Y 8.7836 Z -1.0000
G01 X 17.5016 Y 8.7835 Z -1.0000
G00 Z 5.0000

(End cutting path id: path5247)


(Start cutting path id: path5247)
(Change tool to Default tool)

G00 Z 5.0000
G00 X 17.4894 Y 8.7894

G01 Z -1.0000 F 100.0000(Penetrate)
G01 X 17.4853 Y 8.7943 Z -1.0000 F 3500.0000
G01 X 17.4786 Y 8.7911 Z -1.0000
G01 X 17.4831 Y 8.7882 Z -1.0000
G01 X 17.4894 Y 8.7894 Z -1.0000
G01 X 17.4894 Y 8.7894 Z -1.0000
G00 Z 5.0000

(End cutting path id: path5247)


(Start cutting path id: path5247)
(Change tool to Default tool)

G00 Z 5.0000
G00 X 17.4618 Y 8.8019

G01 Z -1.0000 F 100.0000(Penetrate)
G01 X 17.4588 Y 8.8056 Z -1.0000 F 3500.0000
G01 X 17.4542 Y 8.8037 Z -1.0000
G01 X 17.4570 Y 8.8006 Z -1.0000
G01 X 17.4618 Y 8.8019 Z -1.0000
G01 X 17.4618 Y 8.8019 Z -1.0000
G00 Z 5.0000

(End cutting path id: path5247)


(Start cutting path id: path5247)
(Change tool to Default tool)

G00 Z 5.0000
G00 X 17.4485 Y 8.8101

G01 Z -1.0000 F 100.0000(Penetrate)
G01 X 17.4431 Y 8.8115 Z -1.0000 F 3500.0000
G01 X 17.4395 Y 8.8100 Z -1.0000
G01 X 17.4452 Y 8.8067 Z -1.0000
G01 X 17.4486 Y 8.8101 Z -1.0000
G01 X 17.4485 Y 8.8101 Z -1.0000
G00 Z 5.0000

(End cutting path id: path5247)


(Start cutting path id: path5247)
(Change tool to Default tool)

G00 Z 5.0000
G00 X 17.4350 Y 8.8148

G01 Z -1.0000 F 100.0000(Penetrate)
G01 X 17.4312 Y 8.8155 Z -1.0000 F 3500.0000
G01 X 17.4273 Y 8.8148 Z -1.0000
G01 X 17.4311 Y 8.8133 Z -1.0000
G01 X 17.4349 Y 8.8148 Z -1.0000
G01 X 17.4350 Y 8.8148 Z -1.0000
G00 Z 5.0000

(End cutting path id: path5247)


(Start cutting path id: path5247)
(Change tool to Default tool)

G00 Z 5.0000
G00 X 17.4098 Y 8.8279

G01 Z -1.0000 F 100.0000(Penetrate)
G01 X 17.4052 Y 8.8292 Z -1.0000 F 3500.0000
G01 X 17.4006 Y 8.8262 Z -1.0000
G01 X 17.4052 Y 8.8249 Z -1.0000
G01 X 17.4098 Y 8.8279 Z -1.0000
G01 X 17.4098 Y 8.8279 Z -1.0000
G00 Z 5.0000

(End cutting path id: path5247)


(Start cutting path id: path5247)
(Change tool to Default tool)

G00 Z 5.0000
G00 X 17.3891 Y 8.7077

G01 Z -1.0000 F 100.0000(Penetrate)
G01 X 17.3853 Y 8.7084 Z -1.0000 F 3500.0000
G01 X 17.3814 Y 8.7077 Z -1.0000
G01 X 17.3852 Y 8.7062 Z -1.0000
G01 X 17.3890 Y 8.7077 Z -1.0000
G01 X 17.3891 Y 8.7077 Z -1.0000
G00 Z 5.0000

(End cutting path id: path5247)


(Start cutting path id: path5247)
(Change tool to Default tool)

G00 Z 5.0000
G00 X 17.4242 Y 8.6891

G01 Z -1.0000 F 100.0000(Penetrate)
G01 X 17.4222 Y 8.6900 Z -1.0000 F 3500.0000
G01 X 17.4183 Y 8.6893 Z -1.0000
G01 X 17.4201 Y 8.6875 Z -1.0000
G01 X 17.4241 Y 8.6891 Z -1.0000
G01 X 17.4242 Y 8.6891 Z -1.0000
G00 Z 5.0000

(End cutting path id: path5247)


(Start cutting path id: path5247)
(Change tool to Default tool)

G00 Z 5.0000
G00 X 17.3079 Y 8.7503

G01 Z -1.0000 F 100.0000(Penetrate)
G01 X 17.3059 Y 8.7512 Z -1.0000 F 3500.0000
G01 X 17.3020 Y 8.7506 Z -1.0000
G01 X 17.3038 Y 8.7487 Z -1.0000
G01 X 17.3078 Y 8.7503 Z -1.0000
G01 X 17.3079 Y 8.7503 Z -1.0000
G00 Z 5.0000

(End cutting path id: path5247)


(Start cutting path id: path5247)
(Change tool to Default tool)

G00 Z 5.0000
G00 X 17.2674 Y 8.7699

G01 Z -1.0000 F 100.0000(Penetrate)
G01 X 17.2651 Y 8.7723 Z -1.0000 F 3500.0000
G01 X 17.2624 Y 8.7730 Z -1.0000
G01 X 17.2612 Y 8.7699 Z -1.0000
G01 X 17.2635 Y 8.7676 Z -1.0000
G01 X 17.2662 Y 8.7668 Z -1.0000
G01 X 17.2674 Y 8.7699 Z -1.0000
G01 X 17.2674 Y 8.7699 Z -1.0000
G00 Z 5.0000

(End cutting path id: path5247)


(Start cutting path id: path5247)
(Change tool to Default tool)

G00 Z 5.0000
G00 X 17.2506 Y 8.7791

G01 Z -1.0000 F 100.0000(Penetrate)
G01 X 17.2496 Y 8.7813 Z -1.0000 F 3500.0000
G01 X 17.2474 Y 8.7822 Z -1.0000
G01 X 17.2460 Y 8.7791 Z -1.0000
G01 X 17.2492 Y 8.7760 Z -1.0000
G01 X 17.2506 Y 8.7791 Z -1.0000
G01 X 17.2506 Y 8.7791 Z -1.0000
G00 Z 5.0000

(End cutting path id: path5247)


(Start cutting path id: path5247)
(Change tool to Default tool)

G00 Z 5.0000
G00 X 17.2276 Y 8.7913

G01 Z -1.0000 F 100.0000(Penetrate)
G01 X 17.2224 Y 8.7943 Z -1.0000 F 3500.0000
G01 X 17.2199 Y 8.7913 Z -1.0000
G01 X 17.2249 Y 8.7898 Z -1.0000
G01 X 17.2276 Y 8.7913 Z -1.0000
G01 X 17.2276 Y 8.7913 Z -1.0000
G00 Z 5.0000

(End cutting path id: path5247)


(Start cutting path id: path5247)
(Change tool to Default tool)

G00 Z 5.0000
G00 X 17.2031 Y 8.8036

G01 Z -1.0000 F 100.0000(Penetrate)
G01 X 17.2008 Y 8.8058 Z -1.0000 F 3500.0000
G01 X 17.1976 Y 8.8066 Z -1.0000
G01 X 17.1986 Y 8.8036 Z -1.0000
G01 X 17.2032 Y 8.8036 Z -1.0000
G01 X 17.2031 Y 8.8036 Z -1.0000
G00 Z 5.0000

(End cutting path id: path5247)


(Start cutting path id: path5247)
(Change tool to Default tool)

G00 Z 5.0000
G00 X 17.1849 Y 8.8156

G01 Z -1.0000 F 100.0000(Penetrate)
G01 X 17.1823 Y 8.8179 Z -1.0000 F 3500.0000
G01 X 17.1779 Y 8.8189 Z -1.0000
G01 X 17.1788 Y 8.8146 Z -1.0000
G01 X 17.1849 Y 8.8157 Z -1.0000
G01 X 17.1849 Y 8.8156 Z -1.0000
G00 Z 5.0000

(End cutting path id: path5247)


(Start cutting path id: path5247)
(Change tool to Default tool)

G00 Z 5.0000
G00 X 17.1242 Y 8.8483

G01 Z -1.0000 F 100.0000(Penetrate)
G01 X 17.1222 Y 8.8492 Z -1.0000 F 3500.0000
G01 X 17.1183 Y 8.8485 Z -1.0000
G01 X 17.1202 Y 8.8466 Z -1.0000
G01 X 17.1242 Y 8.8482 Z -1.0000
G01 X 17.1242 Y 8.8483 Z -1.0000
G00 Z 5.0000

(End cutting path id: path5247)


(Start cutting path id: path5247)
(Change tool to Default tool)

G00 Z 5.0000
G00 X 17.1120 Y 8.8547

G01 Z -1.0000 F 100.0000(Penetrate)
G01 X 17.1076 Y 8.8569 Z -1.0000 F 3500.0000
G01 X 17.1066 Y 8.8589 Z -1.0000
G01 X 17.1058 Y 8.8608 Z -1.0000
G01 X 17.1036 Y 8.8617 Z -1.0000
G01 X 17.1024 Y 8.8571 Z -1.0000
G01 X 17.1052 Y 8.8540 Z -1.0000
G01 X 17.1107 Y 8.8529 Z -1.0000
G01 X 17.1119 Y 8.8547 Z -1.0000
G01 X 17.1120 Y 8.8547 Z -1.0000
G00 Z 5.0000

(End cutting path id: path5247)


(Start cutting path id: path5247)
(Change tool to Default tool)

G00 Z 5.0000
G00 X 17.0814 Y 8.8729

G01 Z -1.0000 F 100.0000(Penetrate)
G01 X 17.0793 Y 8.8738 Z -1.0000 F 3500.0000
G01 X 17.0755 Y 8.8731 Z -1.0000
G01 X 17.0773 Y 8.8712 Z -1.0000
G01 X 17.0813 Y 8.8728 Z -1.0000
G01 X 17.0814 Y 8.8729 Z -1.0000
G00 Z 5.0000

(End cutting path id: path5247)


(Start cutting path id: path5247)
(Change tool to Default tool)

G00 Z 5.0000
G00 X 17.0018 Y 8.9160

G01 Z -1.0000 F 100.0000(Penetrate)
G01 X 16.9974 Y 8.9182 Z -1.0000 F 3500.0000
G01 X 16.9964 Y 8.9202 Z -1.0000
G01 X 16.9930 Y 8.9230 Z -1.0000
G01 X 16.9934 Y 8.9184 Z -1.0000
G01 X 16.9978 Y 8.9151 Z -1.0000
G01 X 17.0022 Y 8.9142 Z -1.0000
G01 X 17.0018 Y 8.9160 Z -1.0000
G01 X 17.0018 Y 8.9160 Z -1.0000
G00 Z 5.0000

(End cutting path id: path5247)


(Start cutting path id: path5247)
(Change tool to Default tool)

G00 Z 5.0000
G00 X 16.9934 Y 8.9281

G01 Z -1.0000 F 100.0000(Penetrate)
G01 X 16.9873 Y 8.9293 Z -1.0000 F 3500.0000
G01 X 16.9812 Y 8.9265 Z -1.0000
G01 X 16.9873 Y 8.9253 Z -1.0000
G01 X 16.9934 Y 8.9281 Z -1.0000
G01 X 16.9934 Y 8.9281 Z -1.0000
G00 Z 5.0000

(End cutting path id: path5247)


(Start cutting path id: path5247)
(Change tool to Default tool)

G00 Z 5.0000
G00 X 16.9681 Y 8.9403

G01 Z -1.0000 F 100.0000(Penetrate)
G01 X 16.9661 Y 8.9411 Z -1.0000 F 3500.0000
G01 X 16.9622 Y 8.9405 Z -1.0000
G01 X 16.9640 Y 8.9386 Z -1.0000
G01 X 16.9680 Y 8.9402 Z -1.0000
G01 X 16.9681 Y 8.9403 Z -1.0000
G00 Z 5.0000

(End cutting path id: path5247)


(Start cutting path id: path5247)
(Change tool to Default tool)

G00 Z 5.0000
G00 X 16.9261 Y 8.9629

G01 Z -1.0000 F 100.0000(Penetrate)
G01 X 16.9252 Y 8.9650 Z -1.0000 F 3500.0000
G01 X 16.9230 Y 8.9660 Z -1.0000
G01 X 16.9208 Y 8.9650 Z -1.0000
G01 X 16.9199 Y 8.9629 Z -1.0000
G01 X 16.9208 Y 8.9607 Z -1.0000
G01 X 16.9230 Y 8.9598 Z -1.0000
G01 X 16.9252 Y 8.9607 Z -1.0000
G01 X 16.9261 Y 8.9629 Z -1.0000
G01 X 16.9261 Y 8.9629 Z -1.0000
G00 Z 5.0000

(End cutting path id: path5247)


(Start cutting path id: path5247)
(Change tool to Default tool)

G00 Z 5.0000
G00 X 16.9155 Y 8.9715

G01 Z -1.0000 F 100.0000(Penetrate)
G01 X 16.9100 Y 8.9694 Z -1.0000 F 3500.0000
G01 X 16.9117 Y 8.9677 Z -1.0000
G01 X 16.9155 Y 8.9715 Z -1.0000
G01 X 16.9155 Y 8.9715 Z -1.0000
G00 Z 5.0000

(End cutting path id: path5247)


(Start cutting path id: path5247)
(Change tool to Default tool)

G00 Z 5.0000
G00 X 16.7899 Y 9.0486

G01 Z -1.0000 F 100.0000(Penetrate)
G01 X 16.7870 Y 9.0517 Z -1.0000 F 3500.0000
G01 X 16.7822 Y 9.0486 Z -1.0000
G01 X 16.7831 Y 9.0464 Z -1.0000
G01 X 16.7851 Y 9.0455 Z -1.0000
G01 X 16.7876 Y 9.0463 Z -1.0000
G01 X 16.7899 Y 9.0486 Z -1.0000
G01 X 16.7899 Y 9.0486 Z -1.0000
G00 Z 5.0000

(End cutting path id: path5247)


(Start cutting path id: path5247)
(Change tool to Default tool)

G00 Z 5.0000
G00 X 16.7126 Y 9.0997

G01 Z -1.0000 F 100.0000(Penetrate)
G01 X 16.7088 Y 9.1004 Z -1.0000 F 3500.0000
G01 X 16.7049 Y 9.0997 Z -1.0000
G01 X 16.7087 Y 9.0982 Z -1.0000
G01 X 16.7125 Y 9.0997 Z -1.0000
G01 X 16.7126 Y 9.0997 Z -1.0000
G00 Z 5.0000

(End cutting path id: path5247)


(Start cutting path id: path5247)
(Change tool to Default tool)

G00 Z 5.0000
G00 X 16.7019 Y 9.1059

G01 Z -1.0000 F 100.0000(Penetrate)
G01 X 16.6975 Y 9.1081 Z -1.0000 F 3500.0000
G01 X 16.6965 Y 9.1101 Z -1.0000
G01 X 16.6911 Y 9.1128 Z -1.0000
G01 X 16.6917 Y 9.1082 Z -1.0000
G01 X 16.6979 Y 9.1047 Z -1.0000
G01 X 16.7024 Y 9.1041 Z -1.0000
G01 X 16.7018 Y 9.1059 Z -1.0000
G01 X 16.7019 Y 9.1059 Z -1.0000
G00 Z 5.0000

(End cutting path id: path5247)


(Start cutting path id: path5247)
(Change tool to Default tool)

G00 Z 5.0000
G00 X 16.6759 Y 9.1242

G01 Z -1.0000 F 100.0000(Penetrate)
G01 X 16.6721 Y 9.1249 Z -1.0000 F 3500.0000
G01 X 16.6682 Y 9.1242 Z -1.0000
G01 X 16.6720 Y 9.1227 Z -1.0000
G01 X 16.6758 Y 9.1242 Z -1.0000
G01 X 16.6759 Y 9.1242 Z -1.0000
G00 Z 5.0000

(End cutting path id: path5247)


(Start cutting path id: path5247)
(Change tool to Default tool)

G00 Z 5.0000
G00 X 16.6483 Y 9.1425

G01 Z -1.0000 F 100.0000(Penetrate)
G01 X 16.6445 Y 9.1432 Z -1.0000 F 3500.0000
G01 X 16.6406 Y 9.1425 Z -1.0000
G01 X 16.6444 Y 9.1410 Z -1.0000
G01 X 16.6482 Y 9.1425 Z -1.0000
G01 X 16.6483 Y 9.1425 Z -1.0000
G00 Z 5.0000

(End cutting path id: path5247)


(Start cutting path id: path5247)
(Change tool to Default tool)

G00 Z 5.0000
G00 X 16.6039 Y 9.1730

G01 Z -1.0000 F 100.0000(Penetrate)
G01 X 16.6018 Y 9.1739 Z -1.0000 F 3500.0000
G01 X 16.5980 Y 9.1732 Z -1.0000
G01 X 16.5998 Y 9.1714 Z -1.0000
G01 X 16.6038 Y 9.1730 Z -1.0000
G01 X 16.6039 Y 9.1730 Z -1.0000
G00 Z 5.0000

(End cutting path id: path5247)


(Start cutting path id: path5247)
(Change tool to Default tool)

G00 Z 5.0000
G00 X 16.5855 Y 9.1852

G01 Z -1.0000 F 100.0000(Penetrate)
G01 X 16.5834 Y 9.1861 Z -1.0000 F 3500.0000
G01 X 16.5796 Y 9.1854 Z -1.0000
G01 X 16.5814 Y 9.1835 Z -1.0000
G01 X 16.5854 Y 9.1851 Z -1.0000
G01 X 16.5855 Y 9.1852 Z -1.0000
G00 Z 5.0000

(End cutting path id: path5247)


(Start cutting path id: path5247)
(Change tool to Default tool)

G00 Z 5.0000
G00 X 16.5381 Y 9.2160

G01 Z -1.0000 F 100.0000(Penetrate)
G01 X 16.5360 Y 9.2204 Z -1.0000 F 3500.0000
G01 X 16.5307 Y 9.2231 Z -1.0000
G01 X 16.5296 Y 9.2185 Z -1.0000
G01 X 16.5358 Y 9.2147 Z -1.0000
G01 X 16.5388 Y 9.2142 Z -1.0000
G01 X 16.5382 Y 9.2160 Z -1.0000
G01 X 16.5381 Y 9.2160 Z -1.0000
G00 Z 5.0000

(End cutting path id: path5247)


(Start cutting path id: path5247)
(Change tool to Default tool)

G00 Z 5.0000
G00 X 16.5181 Y 9.2342

G01 Z -1.0000 F 100.0000(Penetrate)
G01 X 16.5161 Y 9.2351 Z -1.0000 F 3500.0000
G01 X 16.5122 Y 9.2344 Z -1.0000
G01 X 16.5140 Y 9.2326 Z -1.0000
G01 X 16.5180 Y 9.2342 Z -1.0000
G01 X 16.5181 Y 9.2342 Z -1.0000
G00 Z 5.0000

(End cutting path id: path5247)


(Start cutting path id: path5247)
(Change tool to Default tool)

G00 Z 5.0000
G00 X 16.4037 Y 9.3161

G01 Z -1.0000 F 100.0000(Penetrate)
G01 X 16.4013 Y 9.3197 Z -1.0000 F 3500.0000
G01 X 16.3988 Y 9.3207 Z -1.0000
G01 X 16.3995 Y 9.3161 Z -1.0000
G01 X 16.4044 Y 9.3115 Z -1.0000
G01 X 16.4037 Y 9.3161 Z -1.0000
G01 X 16.4037 Y 9.3161 Z -1.0000
G00 Z 5.0000

(End cutting path id: path5247)


(Start cutting path id: path5247)
(Change tool to Default tool)

G00 Z 5.0000
G00 X 16.3598 Y 9.3483

G01 Z -1.0000 F 100.0000(Penetrate)
G01 X 16.3588 Y 9.3505 Z -1.0000 F 3500.0000
G01 X 16.3566 Y 9.3514 Z -1.0000
G01 X 16.3553 Y 9.3483 Z -1.0000
G01 X 16.3585 Y 9.3452 Z -1.0000
G01 X 16.3598 Y 9.3483 Z -1.0000
G01 X 16.3598 Y 9.3483 Z -1.0000
G00 Z 5.0000

(End cutting path id: path5247)


(Start cutting path id: path5247)
(Change tool to Default tool)

G00 Z 5.0000
G00 X 15.6940 Y 9.9363

G01 Z -1.0000 F 100.0000(Penetrate)
G01 X 15.6926 Y 9.9394 Z -1.0000 F 3500.0000
G01 X 15.6903 Y 9.9385 Z -1.0000
G01 X 15.6894 Y 9.9363 Z -1.0000
G01 X 15.6908 Y 9.9332 Z -1.0000
G01 X 15.6940 Y 9.9363 Z -1.0000
G01 X 15.6940 Y 9.9363 Z -1.0000
G00 Z 5.0000

(End cutting path id: path5247)


(Start cutting path id: path5247)
(Change tool to Default tool)

G00 Z 5.0000
G00 X 15.6818 Y 9.9486

G01 Z -1.0000 F 100.0000(Penetrate)
G01 X 15.6804 Y 9.9517 Z -1.0000 F 3500.0000
G01 X 15.6781 Y 9.9508 Z -1.0000
G01 X 15.6772 Y 9.9486 Z -1.0000
G01 X 15.6786 Y 9.9455 Z -1.0000
G01 X 15.6818 Y 9.9486 Z -1.0000
G01 X 15.6818 Y 9.9486 Z -1.0000
G00 Z 5.0000

(End cutting path id: path5247)


(Start cutting path id: path5247)
(Change tool to Default tool)

G00 Z 5.0000
G00 X 15.6451 Y 9.9870

G01 Z -1.0000 F 100.0000(Penetrate)
G01 X 15.6409 Y 9.9857 Z -1.0000 F 3500.0000
G01 X 15.6503 Y 9.9782 Z -1.0000
G01 X 15.6451 Y 9.9870 Z -1.0000
G01 X 15.6451 Y 9.9870 Z -1.0000
G00 Z 5.0000

(End cutting path id: path5247)


(Start cutting path id: path5247)
(Change tool to Default tool)

G00 Z 5.0000
G00 X 15.5934 Y 10.0390

G01 Z -1.0000 F 100.0000(Penetrate)
G01 X 15.5892 Y 10.0443 Z -1.0000 F 3500.0000
G01 X 15.5884 Y 10.0473 Z -1.0000
G01 X 15.5865 Y 10.0487 Z -1.0000
G01 X 15.5898 Y 10.0387 Z -1.0000
G01 X 15.5967 Y 10.0323 Z -1.0000
G01 X 15.5934 Y 10.0389 Z -1.0000
G01 X 15.5934 Y 10.0390 Z -1.0000
G00 Z 5.0000

(End cutting path id: path5247)


(Start cutting path id: path5247)
(Change tool to Default tool)

G00 Z 5.0000
G00 X 15.5780 Y 10.0574

G01 Z -1.0000 F 100.0000(Penetrate)
G01 X 15.5730 Y 10.0597 Z -1.0000 F 3500.0000
G01 X 15.5766 Y 10.0512 Z -1.0000
G01 X 15.5816 Y 10.0511 Z -1.0000
G01 X 15.5780 Y 10.0574 Z -1.0000
G01 X 15.5780 Y 10.0574 Z -1.0000
G00 Z 5.0000

(End cutting path id: path5247)


(Start cutting path id: path5247)
(Change tool to Default tool)

G00 Z 5.0000
G00 X 15.5547 Y 10.0821

G01 Z -1.0000 F 100.0000(Penetrate)
G01 X 15.5542 Y 10.0836 Z -1.0000 F 3500.0000
G01 X 15.5501 Y 10.0884 Z -1.0000
G01 X 15.5474 Y 10.0852 Z -1.0000
G01 X 15.5547 Y 10.0821 Z -1.0000
G01 X 15.5547 Y 10.0821 Z -1.0000
G00 Z 5.0000

(End cutting path id: path5247)


(Start cutting path id: path5247)
(Change tool to Default tool)

G00 Z 5.0000
G00 X 15.5355 Y 10.1036

G01 Z -1.0000 F 100.0000(Penetrate)
G01 X 15.5335 Y 10.1045 Z -1.0000 F 3500.0000
G01 X 15.5296 Y 10.1038 Z -1.0000
G01 X 15.5314 Y 10.1020 Z -1.0000
G01 X 15.5354 Y 10.1036 Z -1.0000
G01 X 15.5355 Y 10.1036 Z -1.0000
G00 Z 5.0000

(End cutting path id: path5247)


(Start cutting path id: path5247)
(Change tool to Default tool)

G00 Z 5.0000
G00 X 15.5222 Y 10.1186

G01 Z -1.0000 F 100.0000(Penetrate)
G01 X 15.5197 Y 10.1222 Z -1.0000 F 3500.0000
G01 X 15.5173 Y 10.1232 Z -1.0000
G01 X 15.5180 Y 10.1186 Z -1.0000
G01 X 15.5229 Y 10.1140 Z -1.0000
G01 X 15.5222 Y 10.1186 Z -1.0000
G01 X 15.5222 Y 10.1186 Z -1.0000
G00 Z 5.0000

(End cutting path id: path5247)


(Start cutting path id: path5247)
(Change tool to Default tool)

G00 Z 5.0000
G00 X 15.5036 Y 10.1397

G01 Z -1.0000 F 100.0000(Penetrate)
G01 X 15.4957 Y 10.1455 Z -1.0000 F 3500.0000
G01 X 15.5000 Y 10.1382 Z -1.0000
G01 X 15.5037 Y 10.1397 Z -1.0000
G01 X 15.5036 Y 10.1397 Z -1.0000
G00 Z 5.0000

(End cutting path id: path5247)


(Start cutting path id: path5247)
(Change tool to Default tool)

G00 Z 5.0000
G00 X 15.4261 Y 10.2242

G01 Z -1.0000 F 100.0000(Penetrate)
G01 X 15.4252 Y 10.2264 Z -1.0000 F 3500.0000
G01 X 15.4229 Y 10.2273 Z -1.0000
G01 X 15.4216 Y 10.2242 Z -1.0000
G01 X 15.4248 Y 10.2211 Z -1.0000
G01 X 15.4262 Y 10.2242 Z -1.0000
G01 X 15.4261 Y 10.2242 Z -1.0000
G00 Z 5.0000

(End cutting path id: path5247)


(Start cutting path id: path5247)
(Change tool to Default tool)

G00 Z 5.0000
G00 X 15.3557 Y 10.3050

G01 Z -1.0000 F 100.0000(Penetrate)
G01 X 15.3503 Y 10.3104 Z -1.0000 F 3500.0000
G01 X 15.3491 Y 10.3092 Z -1.0000
G01 X 15.3556 Y 10.3050 Z -1.0000
G01 X 15.3557 Y 10.3050 Z -1.0000
G00 Z 5.0000

(End cutting path id: path5247)


(Start cutting path id: path5247)
(Change tool to Default tool)

G00 Z 5.0000
G00 X 15.2939 Y 10.3804

G01 Z -1.0000 F 100.0000(Penetrate)
G01 X 15.2888 Y 10.3851 Z -1.0000 F 3500.0000
G01 X 15.2883 Y 10.3786 Z -1.0000
G01 X 15.2964 Y 10.3744 Z -1.0000
G01 X 15.2938 Y 10.3804 Z -1.0000
G01 X 15.2939 Y 10.3804 Z -1.0000
G00 Z 5.0000

(End cutting path id: path5247)


(Start cutting path id: path5247)
(Change tool to Default tool)

G00 Z 5.0000
G00 X 15.2694 Y 10.4123

G01 Z -1.0000 F 100.0000(Penetrate)
G01 X 15.2644 Y 10.4156 Z -1.0000 F 3500.0000
G01 X 15.2641 Y 10.4112 Z -1.0000
G01 X 15.2704 Y 10.4081 Z -1.0000
G01 X 15.2694 Y 10.4124 Z -1.0000
G01 X 15.2694 Y 10.4123 Z -1.0000
G00 Z 5.0000

(End cutting path id: path5247)


(Start cutting path id: path5247)
(Change tool to Default tool)

G00 Z 5.0000
G00 X 15.2593 Y 10.4264

G01 Z -1.0000 F 100.0000(Penetrate)
G01 X 15.2579 Y 10.4295 Z -1.0000 F 3500.0000
G01 X 15.2556 Y 10.4285 Z -1.0000
G01 X 15.2547 Y 10.4264 Z -1.0000
G01 X 15.2561 Y 10.4233 Z -1.0000
G01 X 15.2593 Y 10.4264 Z -1.0000
G01 X 15.2593 Y 10.4264 Z -1.0000
G00 Z 5.0000

(End cutting path id: path5247)


(Start cutting path id: path5247)
(Change tool to Default tool)

G00 Z 5.0000
G00 X 15.2486 Y 10.4356

G01 Z -1.0000 F 100.0000(Penetrate)
G01 X 15.2465 Y 10.4386 Z -1.0000 F 3500.0000
G01 X 15.2485 Y 10.4432 Z -1.0000
G01 X 15.2380 Y 10.4478 Z -1.0000
G01 X 15.2412 Y 10.4401 Z -1.0000
G01 X 15.2468 Y 10.4336 Z -1.0000
G01 X 15.2497 Y 10.4325 Z -1.0000
G01 X 15.2486 Y 10.4355 Z -1.0000
G01 X 15.2486 Y 10.4356 Z -1.0000
G00 Z 5.0000

(End cutting path id: path5247)


(Start cutting path id: path5247)
(Change tool to Default tool)

G00 Z 5.0000
G00 X 15.2275 Y 10.4640

G01 Z -1.0000 F 100.0000(Penetrate)
G01 X 15.2258 Y 10.4623 Z -1.0000 F 3500.0000
G01 X 15.2296 Y 10.4585 Z -1.0000
G01 X 15.2275 Y 10.4640 Z -1.0000
G01 X 15.2275 Y 10.4640 Z -1.0000
G00 Z 5.0000

(End cutting path id: path5247)


(Start cutting path id: path5247)
(Change tool to Default tool)

G00 Z 5.0000
G00 X 15.0527 Y 10.7387

G01 Z -1.0000 F 100.0000(Penetrate)
G01 X 15.0518 Y 10.7409 Z -1.0000 F 3500.0000
G01 X 15.0496 Y 10.7418 Z -1.0000
G01 X 15.0474 Y 10.7409 Z -1.0000
G01 X 15.0465 Y 10.7387 Z -1.0000
G01 X 15.0474 Y 10.7365 Z -1.0000
G01 X 15.0496 Y 10.7356 Z -1.0000
G01 X 15.0518 Y 10.7365 Z -1.0000
G01 X 15.0527 Y 10.7387 Z -1.0000
G01 X 15.0527 Y 10.7387 Z -1.0000
G00 Z 5.0000

(End cutting path id: path5247)


(Start cutting path id: path5247)
(Change tool to Default tool)

G00 Z 5.0000
G00 X 15.0481 Y 10.7510

G01 Z -1.0000 F 100.0000(Penetrate)
G01 X 15.0437 Y 10.7541 Z -1.0000 F 3500.0000
G01 X 15.0374 Y 10.7510 Z -1.0000
G01 X 15.0418 Y 10.7479 Z -1.0000
G01 X 15.0457 Y 10.7488 Z -1.0000
G01 X 15.0481 Y 10.7510 Z -1.0000
G01 X 15.0481 Y 10.7510 Z -1.0000
G00 Z 5.0000

(End cutting path id: path5247)


(Start cutting path id: path5247)
(Change tool to Default tool)

G00 Z 5.0000
G00 X 15.0304 Y 10.7559

G01 Z -1.0000 F 100.0000(Penetrate)
G01 X 15.0283 Y 10.7567 Z -1.0000 F 3500.0000
G01 X 15.0245 Y 10.7561 Z -1.0000
G01 X 15.0264 Y 10.7543 Z -1.0000
G01 X 15.0304 Y 10.7559 Z -1.0000
G01 X 15.0304 Y 10.7559 Z -1.0000
G00 Z 5.0000

(End cutting path id: path5247)


(Start cutting path id: path5247)
(Change tool to Default tool)

G00 Z 5.0000
G00 X 15.0190 Y 10.7722

G01 Z -1.0000 F 100.0000(Penetrate)
G01 X 15.0182 Y 10.7747 Z -1.0000 F 3500.0000
G01 X 15.0159 Y 10.7770 Z -1.0000
G01 X 15.0128 Y 10.7741 Z -1.0000
G01 X 15.0159 Y 10.7693 Z -1.0000
G01 X 15.0181 Y 10.7702 Z -1.0000
G01 X 15.0190 Y 10.7722 Z -1.0000
G01 X 15.0190 Y 10.7722 Z -1.0000
G00 Z 5.0000

(End cutting path id: path5247)


(Start cutting path id: path5247)
(Change tool to Default tool)

G00 Z 5.0000
G00 X 18.4568 Y 8.3579

G01 Z -1.0000 F 100.0000(Penetrate)
G01 X 18.4537 Y 8.3611 Z -1.0000 F 3500.0000
G01 X 18.4506 Y 8.3598 Z -1.0000
G01 X 18.4515 Y 8.3575 Z -1.0000
G01 X 18.4537 Y 8.3566 Z -1.0000
G01 X 18.4568 Y 8.3579 Z -1.0000
G01 X 18.4568 Y 8.3579 Z -1.0000
G00 Z 5.0000

(End cutting path id: path5247)


(Start cutting path id: path5247)
(Change tool to Default tool)

G00 Z 5.0000
G00 X 19.5182 Y 8.1623

G01 Z -1.0000 F 100.0000(Penetrate)
G01 X 19.5162 Y 8.1632 Z -1.0000 F 3500.0000
G01 X 19.5123 Y 8.1625 Z -1.0000
G01 X 19.5141 Y 8.1607 Z -1.0000
G01 X 19.5181 Y 8.1623 Z -1.0000
G01 X 19.5182 Y 8.1623 Z -1.0000
G00 Z 5.0000

(End cutting path id: path5247)


(Start cutting path id: path5247)
(Change tool to Default tool)

G00 Z 5.0000
G00 X 19.5335 Y 8.1592

G01 Z -1.0000 F 100.0000(Penetrate)
G01 X 19.5315 Y 8.1601 Z -1.0000 F 3500.0000
G01 X 19.5276 Y 8.1594 Z -1.0000
G01 X 19.5295 Y 8.1575 Z -1.0000
G01 X 19.5335 Y 8.1591 Z -1.0000
G01 X 19.5335 Y 8.1592 Z -1.0000
G00 Z 5.0000

(End cutting path id: path5247)


(Start cutting path id: path5247)
(Change tool to Default tool)

G00 Z 5.0000
G00 X 19.5612 Y 8.1564

G01 Z -1.0000 F 100.0000(Penetrate)
G01 X 19.5559 Y 8.1571 Z -1.0000 F 3500.0000
G01 X 19.5489 Y 8.1564 Z -1.0000
G01 X 19.5542 Y 8.1550 Z -1.0000
G01 X 19.5611 Y 8.1563 Z -1.0000
G01 X 19.5612 Y 8.1564 Z -1.0000
G00 Z 5.0000

(End cutting path id: path5247)


(Start cutting path id: path5247)
(Change tool to Default tool)

G00 Z 5.0000
G00 X 19.5588 Y 8.0686

G01 Z -1.0000 F 100.0000(Penetrate)
G01 X 19.5579 Y 8.0708 Z -1.0000 F 3500.0000
G01 X 19.5557 Y 8.0717 Z -1.0000
G01 X 19.5535 Y 8.0708 Z -1.0000
G01 X 19.5526 Y 8.0686 Z -1.0000
G01 X 19.5535 Y 8.0664 Z -1.0000
G01 X 19.5557 Y 8.0655 Z -1.0000
G01 X 19.5579 Y 8.0664 Z -1.0000
G01 X 19.5588 Y 8.0686 Z -1.0000
G01 X 19.5588 Y 8.0686 Z -1.0000
G00 Z 5.0000

(End cutting path id: path5247)


(Start cutting path id: path5247)
(Change tool to Default tool)

G00 Z 5.0000
G00 X 19.5496 Y 8.0686

G01 Z -1.0000 F 100.0000(Penetrate)
G01 X 19.5448 Y 8.0717 Z -1.0000 F 3500.0000
G01 X 19.5419 Y 8.0686 Z -1.0000
G01 X 19.5442 Y 8.0662 Z -1.0000
G01 X 19.5467 Y 8.0655 Z -1.0000
G01 X 19.5488 Y 8.0664 Z -1.0000
G01 X 19.5496 Y 8.0686 Z -1.0000
G01 X 19.5496 Y 8.0686 Z -1.0000
G00 Z 5.0000

(End cutting path id: path5247)


(Start cutting path id: path5247)
(Change tool to Default tool)

G00 Z 5.0000
G00 X 19.5015 Y 8.0769

G01 Z -1.0000 F 100.0000(Penetrate)
G01 X 19.4946 Y 8.0775 Z -1.0000 F 3500.0000
G03 X 19.4862 Y 8.0769 Z -1.0000 I -0.0002 J -0.0553
G01 X 19.4930 Y 8.0756 Z -1.0000
G01 X 19.5015 Y 8.0769 Z -1.0000
G01 X 19.5015 Y 8.0769 Z -1.0000
G00 Z 5.0000

(End cutting path id: path5247)


(Start cutting path id: path5247)
(Change tool to Default tool)

G00 Z 5.0000
G00 X 20.3892 Y 8.0339

G01 Z -1.0000 F 100.0000(Penetrate)
G01 X 20.3854 Y 8.0346 Z -1.0000 F 3500.0000
G01 X 20.3815 Y 8.0339 Z -1.0000
G01 X 20.3853 Y 8.0324 Z -1.0000
G01 X 20.3891 Y 8.0339 Z -1.0000
G01 X 20.3892 Y 8.0339 Z -1.0000
G00 Z 5.0000

(End cutting path id: path5247)


(Start cutting path id: path5247)
(Change tool to Default tool)

G00 Z 5.0000
G00 X 20.4252 Y 8.0486

G01 Z -1.0000 F 100.0000(Penetrate)
G03 X 20.5960 Y 8.0533 Z -1.0000 I -0.2738 J 12.9455 F 3500.0000
G03 X 20.6165 Y 8.0552 Z -1.0000 I -0.0063 J 0.1845
G02 X 20.6288 Y 8.0565 Z -1.0000 I 0.0230 J -0.1561
G02 X 20.6594 Y 8.0582 Z -1.0000 I 0.0784 J -1.1468
G03 X 20.6900 Y 8.0598 Z -1.0000 I -0.0449 J 1.1747
G03 X 20.7237 Y 8.0624 Z -1.0000 I -0.0797 J 1.2377
G02 X 20.7574 Y 8.0652 Z -1.0000 I 0.1980 J -2.1575
G02 X 20.7879 Y 8.0673 Z -1.0000 I 0.1400 J -1.8402
G03 X 20.8185 Y 8.0695 Z -1.0000 I -0.0715 J 1.2072
G03 X 20.8247 Y 8.0704 Z -1.0000 I -0.0044 J 0.0517
G02 X 20.8309 Y 8.0713 Z -1.0000 I 0.0110 J -0.0550
G02 X 20.8593 Y 8.0734 Z -1.0000 I 0.1133 J -1.3268
G03 X 20.8875 Y 8.0760 Z -1.0000 I -0.0279 J 0.4486
G01 X 20.8952 Y 8.0780 Z -1.0000
G01 X 20.9026 Y 8.0797 Z -1.0000
G01 X 20.9072 Y 8.0791 Z -1.0000
G01 X 20.9119 Y 8.0784 Z -1.0000
G03 X 20.9386 Y 8.0808 Z -1.0000 I -0.0206 J 0.3744
G02 X 20.9655 Y 8.0841 Z -1.0000 I 0.4547 J -3.5367
G02 X 20.9793 Y 8.0858 Z -1.0000 I 0.8010 J -6.6288
G03 X 20.9930 Y 8.0875 Z -1.0000 I -0.0561 J 0.5181
G03 X 21.0035 Y 8.0890 Z -1.0000 I -0.0672 J 0.4965
G02 X 21.0216 Y 8.0914 Z -1.0000 I 0.0593 J -0.3713
G02 X 21.0552 Y 8.0946 Z -1.0000 I 0.1146 J -1.0410
G03 X 21.0744 Y 8.0967 Z -1.0000 I -0.0279 J 0.3432
G01 X 21.0767 Y 8.0975 Z -1.0000
G01 X 21.0790 Y 8.0983 Z -1.0000
G02 X 21.1124 Y 8.1022 Z -1.0000 I 0.1597 J -1.2272
G03 X 21.1461 Y 8.1058 Z -1.0000 I -0.3566 J 3.4758
G03 X 21.1522 Y 8.1068 Z -1.0000 I -0.0075 J 0.0669
G02 X 21.1584 Y 8.1077 Z -1.0000 I 0.0181 J -0.0990
G02 X 21.1783 Y 8.1100 Z -1.0000 I 0.2570 J -2.1600
G03 X 21.1981 Y 8.1124 Z -1.0000 I -0.0457 J 0.4545
G03 X 21.2227 Y 8.1164 Z -1.0000 I -0.1103 J 0.7607
G02 X 21.2472 Y 8.1206 Z -1.0000 I 0.3177 J -1.7829
G02 X 21.3053 Y 8.1300 Z -1.0000 I 1.8685 J -11.3906
G03 X 21.3634 Y 8.1395 Z -1.0000 I -1.0359 J 6.4975
G03 X 21.3773 Y 8.1422 Z -1.0000 I -0.0483 J 0.2864
G02 X 21.4219 Y 8.1509 Z -1.0000 I 0.2119 J -0.9615
G02 X 21.4936 Y 8.1623 Z -1.0000 I 0.4664 J -2.7046
G03 X 21.5012 Y 8.1637 Z -1.0000 I -0.0194 J 0.1335
G03 X 21.5380 Y 8.1714 Z -1.0000 I -0.6042 J 2.9518
G02 X 21.5748 Y 8.1790 Z -1.0000 I 0.3626 J -1.6648
G02 X 21.5870 Y 8.1809 Z -1.0000 I 0.0318 J -0.1632
G03 X 21.5991 Y 8.1829 Z -1.0000 I -0.0164 J 0.1369
G03 X 21.6069 Y 8.1851 Z -1.0000 I -0.0125 J 0.0592
G02 X 21.6146 Y 8.1874 Z -1.0000 I 0.0211 J -0.0592
G02 X 21.6558 Y 8.1957 Z -1.0000 I 0.3339 J -1.5351
G03 X 21.6970 Y 8.2040 Z -1.0000 I -0.3255 J 1.7206
G03 X 21.7140 Y 8.2082 Z -1.0000 I -0.0583 J 0.2722
G02 X 21.7308 Y 8.2129 Z -1.0000 I 0.6421 J -2.2968
G03 X 21.7354 Y 8.2141 Z -1.0000 I -0.2681 J 0.9869
G02 X 21.7400 Y 8.2153 Z -1.0000 I 0.0254 J -0.0927
G02 X 21.7627 Y 8.2202 Z -1.0000 I 1.0581 J -4.7773
G03 X 21.7853 Y 8.2254 Z -1.0000 I -0.2672 J 1.2339
G03 X 21.8071 Y 8.2308 Z -1.0000 I -0.1914 J 0.8115
G02 X 21.8288 Y 8.2363 Z -1.0000 I 0.3691 J -1.4217
G02 X 21.8518 Y 8.2416 Z -1.0000 I 0.2918 J -1.1991
G03 X 21.8746 Y 8.2471 Z -1.0000 I -0.1532 J 0.6910
G03 X 21.9131 Y 8.2573 Z -1.0000 I -0.6426 J 2.5018
G02 X 21.9516 Y 8.2676 Z -1.0000 I 0.8560 J -3.1172
G02 X 21.9583 Y 8.2691 Z -1.0000 I 0.0268 J -0.1027
G03 X 21.9648 Y 8.2708 Z -1.0000 I -0.0096 J 0.0494
G01 X 21.9687 Y 8.2727 Z -1.0000
G01 X 21.9726 Y 8.2744 Z -1.0000
G02 X 21.9817 Y 8.2760 Z -1.0000 I 0.0182 J -0.0757
G03 X 22.0013 Y 8.2798 Z -1.0000 I -0.0123 J 0.1152
G03 X 22.0278 Y 8.2891 Z -1.0000 I -0.0649 J 0.2267
G02 X 22.0341 Y 8.2913 Z -1.0000 I 0.0206 J -0.0501
G02 X 22.0553 Y 8.2966 Z -1.0000 I 0.1365 J -0.4976
G03 X 22.1337 Y 8.3180 Z -1.0000 I -0.2332 J 1.0113
G01 X 22.1451 Y 8.3249 Z -1.0000
G01 X 22.1498 Y 8.3275 Z -1.0000
G02 X 22.1621 Y 8.3290 Z -1.0000 I 0.0123 J -0.0516
G03 X 22.1747 Y 8.3300 Z -1.0000 I 0.0000 J 0.0762
G01 X 22.1779 Y 8.3316 Z -1.0000
G01 X 22.1812 Y 8.3334 Z -1.0000
G02 X 22.2022 Y 8.3398 Z -1.0000 I 0.1029 J -0.3033
G03 X 22.2232 Y 8.3460 Z -1.0000 I -0.0937 J 0.3544
G03 X 22.2312 Y 8.3495 Z -1.0000 I -0.0157 J 0.0477
G01 X 22.2393 Y 8.3526 Z -1.0000
G01 X 22.2468 Y 8.3536 Z -1.0000
G01 X 22.2542 Y 8.3546 Z -1.0000
G01 X 22.2575 Y 8.3565 Z -1.0000
G01 X 22.2620 Y 8.3590 Z -1.0000
G02 X 22.2810 Y 8.3626 Z -1.0000 I 0.0373 J -0.1465
G01 X 22.2829 Y 8.3634 Z -1.0000
G03 X 22.2894 Y 8.3696 Z -1.0000 I -0.0430 J 0.0517
G01 X 22.2956 Y 8.3730 Z -1.0000
G01 X 22.3239 Y 8.3789 Z -1.0000
G02 X 22.3523 Y 8.3875 Z -1.0000 I 0.2290 J -0.6992
G01 X 22.3568 Y 8.3882 Z -1.0000
G01 X 22.3611 Y 8.3889 Z -1.0000
G01 X 22.3650 Y 8.3911 Z -1.0000
G01 X 22.3690 Y 8.3934 Z -1.0000
G02 X 22.3865 Y 8.3997 Z -1.0000 I 0.1135 J -0.2872
G03 X 22.4479 Y 8.4203 Z -1.0000 I -0.7882 J 2.4502
G03 X 22.4671 Y 8.4279 Z -1.0000 I -0.0846 J 0.2418
G02 X 22.4778 Y 8.4324 Z -1.0000 I 0.0984 J -0.2196
G02 X 22.4869 Y 8.4358 Z -1.0000 I 0.1152 J -0.2941
G03 X 22.5820 Y 8.4706 Z -1.0000 I -0.8441 J 2.4553
G03 X 22.6294 Y 8.4911 Z -1.0000 I -0.2453 J 0.6321
G02 X 22.6497 Y 8.5000 Z -1.0000 I 0.1470 J -0.3061
G01 X 22.6532 Y 8.5007 Z -1.0000
G01 X 22.6567 Y 8.5012 Z -1.0000
G01 X 22.6622 Y 8.5035 Z -1.0000
G02 X 22.6676 Y 8.5060 Z -1.0000 I 0.0295 J -0.0570
G02 X 22.6928 Y 8.5158 Z -1.0000 I 0.4005 J -0.9889
G03 X 22.7179 Y 8.5260 Z -1.0000 I -0.2274 J 0.5974
G03 X 22.7290 Y 8.5315 Z -1.0000 I -0.0460 J 0.1071
G02 X 22.7399 Y 8.5363 Z -1.0000 I 0.0311 J -0.0548
G01 X 22.7423 Y 8.5361 Z -1.0000
G01 X 22.7447 Y 8.5358 Z -1.0000
G03 X 22.7612 Y 8.5426 Z -1.0000 I -0.0463 J 0.1358
G02 X 22.7927 Y 8.5570 Z -1.0000 I 0.3577 J -0.7397
G02 X 22.8313 Y 8.5729 Z -1.0000 I 0.4775 J -1.1038
G03 X 22.8601 Y 8.5848 Z -1.0000 I -0.3166 J 0.8041
G01 X 22.8666 Y 8.5883 Z -1.0000
G01 X 22.8730 Y 8.5918 Z -1.0000
G02 X 22.8863 Y 8.5971 Z -1.0000 I 0.0674 J -0.1501
G03 X 22.9294 Y 8.6152 Z -1.0000 I -0.1325 J 0.3762
G01 X 22.9349 Y 8.6209 Z -1.0000
G01 X 22.9386 Y 8.6215 Z -1.0000
G01 X 22.9414 Y 8.6213 Z -1.0000
G03 X 22.9624 Y 8.6305 Z -1.0000 I -0.0735 J 0.1958
G03 X 22.9848 Y 8.6468 Z -1.0000 I -0.0388 J 0.0770
G01 X 22.9878 Y 8.6561 Z -1.0000
G01 X 22.9904 Y 8.6599 Z -1.0000
G01 X 22.9926 Y 8.6588 Z -1.0000
G01 X 22.9936 Y 8.6563 Z -1.0000
G01 X 23.0022 Y 8.6486 Z -1.0000
G01 X 23.0210 Y 8.6592 Z -1.0000
G01 X 23.0231 Y 8.6607 Z -1.0000
G01 X 23.0287 Y 8.6623 Z -1.0000
G01 X 23.0344 Y 8.6641 Z -1.0000
G03 X 23.0425 Y 8.6686 Z -1.0000 I -0.0227 J 0.0500
G02 X 23.0504 Y 8.6735 Z -1.0000 I 0.0460 J -0.0666
G02 X 23.0625 Y 8.6794 Z -1.0000 I 0.0945 J -0.1772
G03 X 23.1098 Y 8.7016 Z -1.0000 I -0.5374 J 1.2074
G03 X 23.1222 Y 8.7088 Z -1.0000 I -0.0436 J 0.0883
G02 X 23.1301 Y 8.7136 Z -1.0000 I 0.0412 J -0.0597
G02 X 23.1466 Y 8.7214 Z -1.0000 I 0.1220 J -0.2363
G01 X 23.2072 Y 8.7532 Z -1.0000
G01 X 23.1962 Y 8.7517 Z -1.0000
G01 X 23.1865 Y 8.7534 Z -1.0000
G01 X 23.1886 Y 8.7569 Z -1.0000
G02 X 23.2028 Y 8.7621 Z -1.0000 I 0.0261 J -0.0491
G01 X 23.2076 Y 8.7654 Z -1.0000
G01 X 23.2074 Y 8.7692 Z -1.0000
G01 X 23.2086 Y 8.7702 Z -1.0000
G01 X 23.2142 Y 8.7675 Z -1.0000
G01 X 23.2201 Y 8.7676 Z -1.0000
G01 X 23.2265 Y 8.7657 Z -1.0000
G01 X 23.2283 Y 8.7660 Z -1.0000
G01 X 23.2327 Y 8.7681 Z -1.0000
G01 X 23.2355 Y 8.7696 Z -1.0000
G01 X 23.2366 Y 8.7718 Z -1.0000
G01 X 23.2401 Y 8.7728 Z -1.0000
G01 X 23.2447 Y 8.7758 Z -1.0000
G01 X 23.2490 Y 8.7771 Z -1.0000
G01 X 23.2528 Y 8.7770 Z -1.0000
G01 X 23.2556 Y 8.7792 Z -1.0000
G01 X 23.2539 Y 8.7805 Z -1.0000
G01 X 23.2520 Y 8.7815 Z -1.0000
G01 X 23.2547 Y 8.7833 Z -1.0000
G01 X 23.2588 Y 8.7831 Z -1.0000
G01 X 23.2631 Y 8.7832 Z -1.0000
G01 X 23.2696 Y 8.7879 Z -1.0000
G01 X 23.2759 Y 8.7927 Z -1.0000
G01 X 23.2786 Y 8.7927 Z -1.0000
G01 X 23.2796 Y 8.7957 Z -1.0000
G01 X 23.2823 Y 8.7987 Z -1.0000
G01 X 23.2865 Y 8.7985 Z -1.0000
G01 X 23.2916 Y 8.8017 Z -1.0000
G01 X 23.2968 Y 8.8054 Z -1.0000
G01 X 23.3009 Y 8.8065 Z -1.0000
G01 X 23.3069 Y 8.8110 Z -1.0000
G01 X 23.3040 Y 8.8170 Z -1.0000
G01 X 23.3012 Y 8.8139 Z -1.0000
G01 X 23.2985 Y 8.8107 Z -1.0000
G01 X 23.2938 Y 8.8113 Z -1.0000
G01 X 23.2858 Y 8.8094 Z -1.0000
G01 X 23.2786 Y 8.8087 Z -1.0000
G01 X 23.2737 Y 8.8118 Z -1.0000
G01 X 23.2695 Y 8.8134 Z -1.0000
G01 X 23.2681 Y 8.8109 Z -1.0000
G01 X 23.2630 Y 8.8096 Z -1.0000
G01 X 23.2589 Y 8.8079 Z -1.0000
G01 X 23.2583 Y 8.8052 Z -1.0000
G01 X 23.2550 Y 8.8027 Z -1.0000
G01 X 23.2521 Y 8.7993 Z -1.0000
G01 X 23.2512 Y 8.7958 Z -1.0000
G01 X 23.2482 Y 8.7963 Z -1.0000
G01 X 23.2417 Y 8.7941 Z -1.0000
G01 X 23.2372 Y 8.7939 Z -1.0000
G01 X 23.2359 Y 8.7973 Z -1.0000
G01 X 23.2333 Y 8.7963 Z -1.0000
G01 X 23.2308 Y 8.7927 Z -1.0000
G01 X 23.2260 Y 8.7900 Z -1.0000
G01 X 23.2200 Y 8.7884 Z -1.0000
G01 X 23.2209 Y 8.7800 Z -1.0000
G01 X 23.2219 Y 8.7767 Z -1.0000
G01 X 23.2202 Y 8.7741 Z -1.0000
G01 X 23.2185 Y 8.7750 Z -1.0000
G01 X 23.2188 Y 8.7780 Z -1.0000
G01 X 23.2158 Y 8.7820 Z -1.0000
G01 X 23.2133 Y 8.7803 Z -1.0000
G01 X 23.2111 Y 8.7775 Z -1.0000
G01 X 23.2000 Y 8.7778 Z -1.0000
G01 X 23.1945 Y 8.7741 Z -1.0000
G01 X 23.1885 Y 8.7731 Z -1.0000
G03 X 23.1764 Y 8.7682 Z -1.0000 I 0.0344 J -0.1036
G01 X 23.1645 Y 8.7624 Z -1.0000
G01 X 23.1742 Y 8.7578 Z -1.0000
G01 X 23.1823 Y 8.7499 Z -1.0000
G01 X 23.1800 Y 8.7462 Z -1.0000
G03 X 23.1504 Y 8.7411 Z -1.0000 I 0.0006 J -0.0915
G03 X 23.1229 Y 8.7263 Z -1.0000 I 0.0328 J -0.0940
G01 X 23.1151 Y 8.7221 Z -1.0000
G01 X 23.1069 Y 8.7207 Z -1.0000
G01 X 23.1000 Y 8.7188 Z -1.0000
G01 X 23.0981 Y 8.7153 Z -1.0000
G01 X 23.0956 Y 8.7136 Z -1.0000
G01 X 23.0821 Y 8.7248 Z -1.0000
G01 X 23.0766 Y 8.7211 Z -1.0000
G01 X 23.0686 Y 8.7104 Z -1.0000
G01 X 23.0489 Y 8.7131 Z -1.0000
G01 X 23.0470 Y 8.7123 Z -1.0000
G01 X 23.0439 Y 8.7013 Z -1.0000
G01 X 23.0230 Y 8.7003 Z -1.0000
G01 X 23.0196 Y 8.7005 Z -1.0000
G01 X 23.0178 Y 8.6988 Z -1.0000
G01 X 23.0160 Y 8.6966 Z -1.0000
G01 X 23.0116 Y 8.6950 Z -1.0000
G01 X 23.0066 Y 8.6937 Z -1.0000
G01 X 23.0045 Y 8.6923 Z -1.0000
G01 X 23.0024 Y 8.6914 Z -1.0000
G01 X 22.9983 Y 8.6921 Z -1.0000
G01 X 22.9940 Y 8.6905 Z -1.0000
G01 X 22.9877 Y 8.6890 Z -1.0000
G01 X 22.9828 Y 8.6884 Z -1.0000
G01 X 22.9797 Y 8.6844 Z -1.0000
G01 X 22.9707 Y 8.6738 Z -1.0000
G02 X 22.9407 Y 8.6671 Z -1.0000 I -0.0316 J 0.0716
G01 X 22.9297 Y 8.6654 Z -1.0000
G01 X 22.9275 Y 8.6632 Z -1.0000
G01 X 22.9254 Y 8.6612 Z -1.0000
G01 X 22.9217 Y 8.6613 Z -1.0000
G01 X 22.9178 Y 8.6604 Z -1.0000
G01 X 22.9152 Y 8.6552 Z -1.0000
G01 X 22.9123 Y 8.6565 Z -1.0000
G01 X 22.9010 Y 8.6530 Z -1.0000
G02 X 22.8892 Y 8.6487 Z -1.0000 I -0.0263 J 0.0534
G01 X 22.8860 Y 8.6492 Z -1.0000
G01 X 22.8846 Y 8.6446 Z -1.0000
G01 X 22.8836 Y 8.6416 Z -1.0000
G01 X 22.8802 Y 8.6413 Z -1.0000
G01 X 22.8742 Y 8.6414 Z -1.0000
G01 X 22.8732 Y 8.6378 Z -1.0000
G01 X 22.8761 Y 8.6358 Z -1.0000
G01 X 22.8836 Y 8.6359 Z -1.0000
G01 X 22.8945 Y 8.6307 Z -1.0000
G01 X 22.8921 Y 8.6280 Z -1.0000
G01 X 22.8929 Y 8.6244 Z -1.0000
G01 X 22.8925 Y 8.6207 Z -1.0000
G01 X 22.8886 Y 8.6217 Z -1.0000
G01 X 22.8847 Y 8.6237 Z -1.0000
G01 X 22.8808 Y 8.6250 Z -1.0000
G01 X 22.8779 Y 8.6242 Z -1.0000
G01 X 22.8749 Y 8.6236 Z -1.0000
G01 X 22.8692 Y 8.6254 Z -1.0000
G01 X 22.8637 Y 8.6269 Z -1.0000
G01 X 22.8607 Y 8.6258 Z -1.0000
G01 X 22.8575 Y 8.6240 Z -1.0000
G02 X 22.8472 Y 8.6221 Z -1.0000 I -0.0171 J 0.0645
G01 X 22.8390 Y 8.6188 Z -1.0000
G01 X 22.8364 Y 8.6135 Z -1.0000
G01 X 22.8339 Y 8.6085 Z -1.0000
G01 X 22.8272 Y 8.6066 Z -1.0000
G03 X 22.8181 Y 8.6073 Z -1.0000 I -0.0400 J -0.4716
G03 X 22.8127 Y 8.6075 Z -1.0000 I -0.0111 J -0.1702
G01 X 22.8092 Y 8.6109 Z -1.0000
G01 X 22.8047 Y 8.6106 Z -1.0000
G01 X 22.7981 Y 8.6095 Z -1.0000
G01 X 22.7933 Y 8.6043 Z -1.0000
G01 X 22.7901 Y 8.6015 Z -1.0000
G01 X 22.7896 Y 8.6049 Z -1.0000
G01 X 22.7872 Y 8.6063 Z -1.0000
G01 X 22.7847 Y 8.5999 Z -1.0000
G01 X 22.7815 Y 8.5997 Z -1.0000
G01 X 22.7748 Y 8.6020 Z -1.0000
G01 X 22.7724 Y 8.5992 Z -1.0000
G01 X 22.7691 Y 8.5982 Z -1.0000
G01 X 22.7654 Y 8.5973 Z -1.0000
G01 X 22.7631 Y 8.5951 Z -1.0000
G01 X 22.7695 Y 8.5952 Z -1.0000
G01 X 22.7793 Y 8.5968 Z -1.0000
G01 X 22.7750 Y 8.5935 Z -1.0000
G03 X 22.7693 Y 8.5914 Z -1.0000 I 0.0157 J -0.0520
G03 X 22.7603 Y 8.5872 Z -1.0000 I 0.0541 J -0.1260
G01 X 22.7499 Y 8.5843 Z -1.0000
G01 X 22.7520 Y 8.5859 Z -1.0000
G01 X 22.7538 Y 8.5891 Z -1.0000
G01 X 22.7515 Y 8.5904 Z -1.0000
G01 X 22.7480 Y 8.5891 Z -1.0000
G01 X 22.7422 Y 8.5879 Z -1.0000
G01 X 22.7359 Y 8.5862 Z -1.0000
G01 X 22.7305 Y 8.5855 Z -1.0000
G01 X 22.7259 Y 8.5845 Z -1.0000
G01 X 22.7251 Y 8.5728 Z -1.0000
G01 X 22.7380 Y 8.5666 Z -1.0000
G01 X 22.7416 Y 8.5637 Z -1.0000
G01 X 22.7390 Y 8.5591 Z -1.0000
G01 X 22.7321 Y 8.5574 Z -1.0000
G01 X 22.7288 Y 8.5587 Z -1.0000
G01 X 22.7259 Y 8.5595 Z -1.0000
G01 X 22.7219 Y 8.5569 Z -1.0000
G01 X 22.7137 Y 8.5532 Z -1.0000
G01 X 22.7071 Y 8.5571 Z -1.0000
G01 X 22.7036 Y 8.5597 Z -1.0000
G01 X 22.6985 Y 8.5590 Z -1.0000
G01 X 22.6926 Y 8.5571 Z -1.0000
G01 X 22.6889 Y 8.5574 Z -1.0000
G01 X 22.6853 Y 8.5573 Z -1.0000
G01 X 22.6770 Y 8.5524 Z -1.0000
G01 X 22.6805 Y 8.5491 Z -1.0000
G01 X 22.6884 Y 8.5508 Z -1.0000
G01 X 22.6932 Y 8.5496 Z -1.0000
G01 X 22.6948 Y 8.5466 Z -1.0000
G01 X 22.6926 Y 8.5418 Z -1.0000
G01 X 22.6873 Y 8.5391 Z -1.0000
G01 X 22.6828 Y 8.5404 Z -1.0000
G01 X 22.6786 Y 8.5416 Z -1.0000
G01 X 22.6744 Y 8.5390 Z -1.0000
G01 X 22.6646 Y 8.5328 Z -1.0000
G01 X 22.6619 Y 8.5366 Z -1.0000
G01 X 22.6598 Y 8.5412 Z -1.0000
G01 X 22.6632 Y 8.5411 Z -1.0000
G01 X 22.6684 Y 8.5427 Z -1.0000
G01 X 22.6550 Y 8.5494 Z -1.0000
G01 X 22.6497 Y 8.5408 Z -1.0000
G01 X 22.6482 Y 8.5369 Z -1.0000
G01 X 22.6455 Y 8.5360 Z -1.0000
G03 X 22.6344 Y 8.5258 Z -1.0000 I 0.0764 J -0.0948
G01 X 22.6218 Y 8.5165 Z -1.0000
G01 X 22.6135 Y 8.5149 Z -1.0000
G01 X 22.6106 Y 8.5158 Z -1.0000
G01 X 22.6068 Y 8.5201 Z -1.0000
G01 X 22.5994 Y 8.5176 Z -1.0000
G01 X 22.5959 Y 8.5173 Z -1.0000
G01 X 22.5922 Y 8.5187 Z -1.0000
G01 X 22.5837 Y 8.5192 Z -1.0000
G01 X 22.5766 Y 8.5207 Z -1.0000
G01 X 22.5750 Y 8.5233 Z -1.0000
G01 X 22.5721 Y 8.5262 Z -1.0000
G01 X 22.5658 Y 8.5231 Z -1.0000
G01 X 22.5614 Y 8.5197 Z -1.0000
G01 X 22.5560 Y 8.5185 Z -1.0000
G01 X 22.5546 Y 8.5139 Z -1.0000
G01 X 22.5595 Y 8.5101 Z -1.0000
G01 X 22.5625 Y 8.5093 Z -1.0000
G01 X 22.5652 Y 8.5061 Z -1.0000
G01 X 22.5612 Y 8.5012 Z -1.0000
G01 X 22.5566 Y 8.5004 Z -1.0000
G01 X 22.5513 Y 8.5015 Z -1.0000
G01 X 22.5448 Y 8.5031 Z -1.0000
G01 X 22.5415 Y 8.5060 Z -1.0000
G01 X 22.5285 Y 8.5107 Z -1.0000
G01 X 22.5198 Y 8.4990 Z -1.0000
G01 X 22.5162 Y 8.4908 Z -1.0000
G01 X 22.5097 Y 8.4896 Z -1.0000
G01 X 22.5112 Y 8.4969 Z -1.0000
G01 X 22.5141 Y 8.5045 Z -1.0000
G01 X 22.5113 Y 8.5027 Z -1.0000
G01 X 22.5037 Y 8.4985 Z -1.0000
G01 X 22.4958 Y 8.4973 Z -1.0000
G01 X 22.4918 Y 8.4948 Z -1.0000
G01 X 22.4948 Y 8.4930 Z -1.0000
G01 X 22.5001 Y 8.4899 Z -1.0000
G01 X 22.4975 Y 8.4829 Z -1.0000
G01 X 22.4808 Y 8.4782 Z -1.0000
G01 X 22.4761 Y 8.4842 Z -1.0000
G01 X 22.4654 Y 8.4859 Z -1.0000
G02 X 22.4539 Y 8.4839 Z -1.0000 I -0.0336 J 0.1629
G01 X 22.4473 Y 8.4835 Z -1.0000
G01 X 22.4424 Y 8.4805 Z -1.0000
G01 X 22.4390 Y 8.4796 Z -1.0000
G01 X 22.4353 Y 8.4795 Z -1.0000
G01 X 22.4339 Y 8.4772 Z -1.0000
G01 X 22.4329 Y 8.4734 Z -1.0000
G01 X 22.4304 Y 8.4707 Z -1.0000
G01 X 22.4289 Y 8.4718 Z -1.0000
G01 X 22.4227 Y 8.4742 Z -1.0000
G01 X 22.4156 Y 8.4718 Z -1.0000
G01 X 22.4122 Y 8.4675 Z -1.0000
G01 X 22.4096 Y 8.4659 Z -1.0000
G01 X 22.4039 Y 8.4705 Z -1.0000
G03 X 22.3736 Y 8.4598 Z -1.0000 I 0.0157 J -0.0930
G02 X 22.3617 Y 8.4546 Z -1.0000 I -0.0359 J 0.0646
G02 X 22.3511 Y 8.4521 Z -1.0000 I -0.0165 J 0.0479
G03 X 22.3403 Y 8.4498 Z -1.0000 I 0.0066 J -0.0572
G03 X 22.3284 Y 8.4449 Z -1.0000 I 0.0226 J -0.0718
G01 X 22.3168 Y 8.4411 Z -1.0000
G01 X 22.3113 Y 8.4419 Z -1.0000
G01 X 22.3070 Y 8.4357 Z -1.0000
G01 X 22.3052 Y 8.4265 Z -1.0000
G01 X 22.3023 Y 8.4308 Z -1.0000
G01 X 22.3006 Y 8.4333 Z -1.0000
G01 X 22.2924 Y 8.4342 Z -1.0000
G03 X 22.2600 Y 8.4285 Z -1.0000 I 0.0186 J -0.1999
G01 X 22.2480 Y 8.4226 Z -1.0000
G01 X 22.2442 Y 8.4219 Z -1.0000
G01 X 22.2367 Y 8.4192 Z -1.0000
G01 X 22.2289 Y 8.4153 Z -1.0000
G01 X 22.2232 Y 8.4143 Z -1.0000
G01 X 22.2183 Y 8.4129 Z -1.0000
G01 X 22.2155 Y 8.4097 Z -1.0000
G01 X 22.2126 Y 8.4071 Z -1.0000
G01 X 22.2014 Y 8.4063 Z -1.0000
G01 X 22.1898 Y 8.4060 Z -1.0000
G01 X 22.1871 Y 8.4043 Z -1.0000
G01 X 22.1894 Y 8.4036 Z -1.0000
G01 X 22.1911 Y 8.4033 Z -1.0000
G01 X 22.1883 Y 8.4009 Z -1.0000
G01 X 22.1865 Y 8.4003 Z -1.0000
G01 X 22.1845 Y 8.4000 Z -1.0000
G03 X 22.1746 Y 8.3978 Z -1.0000 I 0.0602 J -0.2930
G02 X 22.1647 Y 8.3958 Z -1.0000 I -0.0308 J 0.1279
G02 X 22.1538 Y 8.3944 Z -1.0000 I -0.0291 J 0.1808
G03 X 22.1434 Y 8.3923 Z -1.0000 I 0.0050 J -0.0535
G01 X 22.1386 Y 8.3898 Z -1.0000
G01 X 22.1341 Y 8.3871 Z -1.0000
G01 X 22.1273 Y 8.3854 Z -1.0000
G01 X 22.1203 Y 8.3838 Z -1.0000
G03 X 22.1079 Y 8.3791 Z -1.0000 I 0.0387 J -0.1196
G02 X 22.0954 Y 8.3745 Z -1.0000 I -0.0373 J 0.0833
G01 X 22.0875 Y 8.3733 Z -1.0000
G01 X 22.0810 Y 8.3702 Z -1.0000
G01 X 22.0764 Y 8.3695 Z -1.0000
G01 X 22.0707 Y 8.3697 Z -1.0000
G01 X 22.0656 Y 8.3668 Z -1.0000
G01 X 22.0592 Y 8.3659 Z -1.0000
G01 X 22.0572 Y 8.3663 Z -1.0000
G01 X 22.0524 Y 8.3637 Z -1.0000
G02 X 22.0414 Y 8.3608 Z -1.0000 I -0.0265 J 0.0779
G03 X 22.0303 Y 8.3581 Z -1.0000 I 0.0144 J -0.0814
G03 X 22.0216 Y 8.3544 Z -1.0000 I 0.0178 J -0.0549
G01 X 22.0138 Y 8.3522 Z -1.0000
G01 X 22.0109 Y 8.3537 Z -1.0000
G01 X 22.0067 Y 8.3522 Z -1.0000
G01 X 22.0034 Y 8.3492 Z -1.0000
G01 X 21.9914 Y 8.3479 Z -1.0000
G01 X 21.9795 Y 8.3463 Z -1.0000
G01 X 21.9771 Y 8.3388 Z -1.0000
G01 X 21.9663 Y 8.3410 Z -1.0000
G01 X 21.9628 Y 8.3422 Z -1.0000
G01 X 21.9538 Y 8.3393 Z -1.0000
G02 X 21.9441 Y 8.3355 Z -1.0000 I -0.0236 J 0.0455
G01 X 21.9364 Y 8.3344 Z -1.0000
G01 X 21.9301 Y 8.3317 Z -1.0000
G01 X 21.9274 Y 8.3273 Z -1.0000
G01 X 21.9247 Y 8.3300 Z -1.0000
G01 X 21.9141 Y 8.3301 Z -1.0000
G01 X 21.9000 Y 8.3276 Z -1.0000
G01 X 21.8982 Y 8.3257 Z -1.0000
G01 X 21.8951 Y 8.3238 Z -1.0000
G01 X 21.8920 Y 8.3223 Z -1.0000
G01 X 21.8889 Y 8.3208 Z -1.0000
G01 X 21.8856 Y 8.3187 Z -1.0000
G01 X 21.8839 Y 8.3182 Z -1.0000
G01 X 21.8790 Y 8.3208 Z -1.0000
G01 X 21.8630 Y 8.3142 Z -1.0000
G01 X 21.8536 Y 8.3131 Z -1.0000
G01 X 21.8446 Y 8.3112 Z -1.0000
G01 X 21.8378 Y 8.3079 Z -1.0000
G01 X 21.8287 Y 8.3068 Z -1.0000
G02 X 21.8211 Y 8.3045 Z -1.0000 I -0.0183 J 0.0469
G02 X 21.8011 Y 8.3008 Z -1.0000 I -0.0694 J 0.3191
G03 X 21.7813 Y 8.2965 Z -1.0000 I 0.0308 J -0.1904
G01 X 21.7718 Y 8.2928 Z -1.0000
G01 X 21.7647 Y 8.2914 Z -1.0000
G01 X 21.7635 Y 8.2947 Z -1.0000
G01 X 21.7613 Y 8.2935 Z -1.0000
G01 X 21.7600 Y 8.2893 Z -1.0000
G01 X 21.7583 Y 8.2874 Z -1.0000
G01 X 21.7560 Y 8.2890 Z -1.0000
G01 X 21.7455 Y 8.2880 Z -1.0000
G02 X 21.7342 Y 8.2852 Z -1.0000 I -0.1346 J 0.5215
G02 X 21.7304 Y 8.2844 Z -1.0000 I -0.0229 J 0.0973
G01 X 21.7269 Y 8.2831 Z -1.0000
G01 X 21.7245 Y 8.2815 Z -1.0000
G01 X 21.7220 Y 8.2802 Z -1.0000
G02 X 21.7127 Y 8.2794 Z -1.0000 I -0.0093 J 0.0541
G03 X 21.6737 Y 8.2747 Z -1.0000 I 0.0000 J -0.1634
G01 X 21.6661 Y 8.2680 Z -1.0000
G01 X 21.6620 Y 8.2675 Z -1.0000
G01 X 21.6590 Y 8.2691 Z -1.0000
G01 X 21.6509 Y 8.2672 Z -1.0000
G02 X 21.6401 Y 8.2633 Z -1.0000 I -0.0232 J 0.0476
G02 X 21.6209 Y 8.2600 Z -1.0000 I -0.0345 J 0.1434
G03 X 21.6117 Y 8.2585 Z -1.0000 I 0.0090 J -0.0841
G03 X 21.6040 Y 8.2564 Z -1.0000 I 0.0162 J -0.0740
G02 X 21.5964 Y 8.2541 Z -1.0000 I -0.0441 J 0.1324
G01 X 21.5933 Y 8.2535 Z -1.0000
G01 X 21.5903 Y 8.2529 Z -1.0000
G03 X 21.5769 Y 8.2493 Z -1.0000 I 0.1339 J -0.5147
G02 X 21.5636 Y 8.2465 Z -1.0000 I -0.0267 J 0.0928
G01 X 21.5596 Y 8.2469 Z -1.0000
G01 X 21.5558 Y 8.2475 Z -1.0000
G01 X 21.5538 Y 8.2466 Z -1.0000
G01 X 21.5508 Y 8.2451 Z -1.0000
G02 X 21.5208 Y 8.2420 Z -1.0000 I -0.0573 J 0.4101
G01 X 21.5111 Y 8.2389 Z -1.0000
G01 X 21.5039 Y 8.2363 Z -1.0000
G03 X 21.4954 Y 8.2356 Z -1.0000 I 0.0023 J -0.0833
G01 X 21.4892 Y 8.2344 Z -1.0000
G01 X 21.4830 Y 8.2332 Z -1.0000
G02 X 21.4716 Y 8.2323 Z -1.0000 I -0.0154 J 0.1272
G01 X 21.4619 Y 8.2302 Z -1.0000
G01 X 21.4601 Y 8.2276 Z -1.0000
G01 X 21.4582 Y 8.2252 Z -1.0000
G01 X 21.4561 Y 8.2259 Z -1.0000
G01 X 21.4505 Y 8.2241 Z -1.0000
G01 X 21.4448 Y 8.2246 Z -1.0000
G01 X 21.4173 Y 8.2222 Z -1.0000
G02 X 21.4096 Y 8.2207 Z -1.0000 I -0.0257 J 0.1123
G01 X 21.4043 Y 8.2202 Z -1.0000
G01 X 21.3989 Y 8.2172 Z -1.0000
G01 X 21.3943 Y 8.2162 Z -1.0000
G01 X 21.3896 Y 8.2169 Z -1.0000
G03 X 21.3736 Y 8.2147 Z -1.0000 I 0.0093 J -0.1272
G02 X 21.3575 Y 8.2122 Z -1.0000 I -0.0358 J 0.1751
G02 X 21.3476 Y 8.2118 Z -1.0000 I -0.0074 J 0.0670
G01 X 21.3377 Y 8.2094 Z -1.0000
G01 X 21.3316 Y 8.2081 Z -1.0000
G01 X 21.3134 Y 8.2084 Z -1.0000
G01 X 21.3113 Y 8.2035 Z -1.0000
G01 X 21.2954 Y 8.2011 Z -1.0000
G03 X 21.2508 Y 8.1977 Z -1.0000 I 0.0031 J -0.3316
G01 X 21.2404 Y 8.1931 Z -1.0000
G01 X 21.2374 Y 8.1923 Z -1.0000
G01 X 21.2336 Y 8.1955 Z -1.0000
G01 X 21.2297 Y 8.1926 Z -1.0000
G01 X 21.2268 Y 8.1915 Z -1.0000
G01 X 21.2223 Y 8.1919 Z -1.0000
G01 X 21.2182 Y 8.1897 Z -1.0000
G01 X 21.2165 Y 8.1900 Z -1.0000
G01 X 21.2154 Y 8.1938 Z -1.0000
G01 X 21.2132 Y 8.1928 Z -1.0000
G01 X 21.2122 Y 8.1902 Z -1.0000
G01 X 21.2102 Y 8.1886 Z -1.0000
G01 X 21.2035 Y 8.1868 Z -1.0000
G01 X 21.2014 Y 8.1873 Z -1.0000
G01 X 21.1997 Y 8.1889 Z -1.0000
G01 X 21.1950 Y 8.1872 Z -1.0000
G02 X 21.1786 Y 8.1860 Z -1.0000 I -0.0179 J 0.1307
G03 X 21.1620 Y 8.1847 Z -1.0000 I 0.0017 J -0.1283
G01 X 21.1571 Y 8.1829 Z -1.0000
G01 X 21.1523 Y 8.1811 Z -1.0000
G01 X 21.1440 Y 8.1810 Z -1.0000
G01 X 21.1363 Y 8.1782 Z -1.0000
G01 X 21.1289 Y 8.1740 Z -1.0000
G01 X 21.1240 Y 8.1775 Z -1.0000
G01 X 21.1223 Y 8.1796 Z -1.0000
G01 X 21.1186 Y 8.1767 Z -1.0000
G01 X 21.1171 Y 8.1726 Z -1.0000
G01 X 21.1143 Y 8.1737 Z -1.0000
G01 X 21.1114 Y 8.1752 Z -1.0000
G01 X 21.1083 Y 8.1750 Z -1.0000
G01 X 21.1049 Y 8.1772 Z -1.0000
G01 X 21.0984 Y 8.1760 Z -1.0000
G01 X 21.0789 Y 8.1718 Z -1.0000
G01 X 21.0762 Y 8.1733 Z -1.0000
G01 X 21.0724 Y 8.1707 Z -1.0000
G01 X 21.0714 Y 8.1680 Z -1.0000
G01 X 21.0684 Y 8.1691 Z -1.0000
G01 X 21.0654 Y 8.1705 Z -1.0000
G01 X 21.0454 Y 8.1674 Z -1.0000
G01 X 21.0255 Y 8.1652 Z -1.0000
G01 X 21.0209 Y 8.1629 Z -1.0000
G01 X 21.0163 Y 8.1599 Z -1.0000
G01 X 21.0092 Y 8.1596 Z -1.0000
G01 X 21.0023 Y 8.1609 Z -1.0000
G01 X 20.9978 Y 8.1596 Z -1.0000
G01 X 20.9904 Y 8.1598 Z -1.0000
G01 X 20.9862 Y 8.1629 Z -1.0000
G01 X 20.9806 Y 8.1619 Z -1.0000
G01 X 20.9782 Y 8.1598 Z -1.0000
G01 X 20.9756 Y 8.1579 Z -1.0000
G01 X 20.9658 Y 8.1567 Z -1.0000
G01 X 20.9571 Y 8.1521 Z -1.0000
G01 X 20.9471 Y 8.1521 Z -1.0000
G01 X 20.9337 Y 8.1557 Z -1.0000
G01 X 20.9306 Y 8.1529 Z -1.0000
G01 X 20.9276 Y 8.1536 Z -1.0000
G01 X 20.9246 Y 8.1544 Z -1.0000
G01 X 20.9234 Y 8.1518 Z -1.0000
G01 X 20.9198 Y 8.1506 Z -1.0000
G01 X 20.9168 Y 8.1535 Z -1.0000
G01 X 20.9101 Y 8.1552 Z -1.0000
G02 X 20.9016 Y 8.1542 Z -1.0000 I -0.0437 J 0.3342
G02 X 20.8977 Y 8.1539 Z -1.0000 I -0.0070 J 0.0670
G01 X 20.8955 Y 8.1508 Z -1.0000
G01 X 20.8880 Y 8.1490 Z -1.0000
G01 X 20.8787 Y 8.1476 Z -1.0000
G01 X 20.8653 Y 8.1334 Z -1.0000
G01 X 20.8509 Y 8.1460 Z -1.0000
G01 X 20.8493 Y 8.1458 Z -1.0000
G01 X 20.8469 Y 8.1441 Z -1.0000
G02 X 20.8250 Y 8.1432 Z -1.0000 I -0.0172 J 0.1619
G01 X 20.8035 Y 8.1416 Z -1.0000
G01 X 20.8000 Y 8.1356 Z -1.0000
G01 X 20.7845 Y 8.1428 Z -1.0000
G01 X 20.7891 Y 8.1431 Z -1.0000
G01 X 20.7960 Y 8.1438 Z -1.0000
G01 X 20.7891 Y 8.1462 Z -1.0000
G01 X 20.7845 Y 8.1440 Z -1.0000
G01 X 20.7832 Y 8.1397 Z -1.0000
G01 X 20.7803 Y 8.1375 Z -1.0000
G01 X 20.7694 Y 8.1423 Z -1.0000
G01 X 20.7670 Y 8.1382 Z -1.0000
G01 X 20.7564 Y 8.1359 Z -1.0000
G01 X 20.7457 Y 8.1385 Z -1.0000
G01 X 20.7439 Y 8.1412 Z -1.0000
G01 X 20.7402 Y 8.1420 Z -1.0000
G01 X 20.7361 Y 8.1394 Z -1.0000
G01 X 20.7293 Y 8.1383 Z -1.0000
G01 X 20.7240 Y 8.1352 Z -1.0000
G01 X 20.7041 Y 8.1321 Z -1.0000
G01 X 20.6838 Y 8.1345 Z -1.0000
G01 X 20.6741 Y 8.1354 Z -1.0000
G01 X 20.6628 Y 8.1339 Z -1.0000
G01 X 20.6720 Y 8.1318 Z -1.0000
G01 X 20.6697 Y 8.1293 Z -1.0000
G01 X 20.6581 Y 8.1328 Z -1.0000
G01 X 20.6552 Y 8.1322 Z -1.0000
G01 X 20.6514 Y 8.1297 Z -1.0000
G02 X 20.6147 Y 8.1266 Z -1.0000 I -0.0477 J 0.3485
G03 X 20.5770 Y 8.1252 Z -1.0000 I 0.1035 J -3.3072
G03 X 20.5602 Y 8.1243 Z -1.0000 I 0.0327 J -0.7653
G02 X 20.5433 Y 8.1234 Z -1.0000 I -0.0404 J 0.6005
G02 X 20.4764 Y 8.1211 Z -1.0000 I -0.2866 J 7.3503
G02 X 20.4106 Y 8.1211 Z -1.0000 I -0.0324 J 1.0506
G01 X 20.4068 Y 8.1233 Z -1.0000
G01 X 20.4041 Y 8.1233 Z -1.0000
G01 X 20.3995 Y 8.1229 Z -1.0000
G01 X 20.3949 Y 8.1233 Z -1.0000
G01 X 20.3865 Y 8.1199 Z -1.0000
G01 X 20.3827 Y 8.1229 Z -1.0000
G01 X 20.3820 Y 8.1259 Z -1.0000
G01 X 20.3779 Y 8.1247 Z -1.0000
G01 X 20.3766 Y 8.1224 Z -1.0000
G01 X 20.2273 Y 8.1210 Z -1.0000
G02 X 20.0781 Y 8.1235 Z -1.0000 I 0.4707 J 32.1940
G02 X 20.0536 Y 8.1244 Z -1.0000 I 0.0145 J 0.7505
G02 X 20.0291 Y 8.1257 Z -1.0000 I 0.3949 J 7.7208
G02 X 20.0000 Y 8.1273 Z -1.0000 I 0.8114 J 14.9340
G03 X 19.8203 Y 8.1355 Z -1.0000 I -0.5126 J -9.2875
G01 X 19.8102 Y 8.1341 Z -1.0000
G01 X 19.8071 Y 8.1349 Z -1.0000
G01 X 19.8025 Y 8.1383 Z -1.0000
G03 X 19.7725 Y 8.1386 Z -1.0000 I -0.0330 J -1.6233
G03 X 19.6984 Y 8.1385 Z -1.0000 I -0.0182 J -9.9275
G02 X 19.6587 Y 8.1393 Z -1.0000 I -0.0044 J 0.7844
G02 X 19.6280 Y 8.1417 Z -1.0000 I 0.0206 J 0.4565
G03 X 19.5974 Y 8.1450 Z -1.0000 I -0.3600 J -3.1911
G01 X 19.5936 Y 8.1452 Z -1.0000
G01 X 19.5932 Y 8.1494 Z -1.0000
G01 X 19.5823 Y 8.1535 Z -1.0000
G01 X 19.5698 Y 8.1505 Z -1.0000
G01 X 19.5631 Y 8.1489 Z -1.0000
G03 X 19.5545 Y 8.1500 Z -1.0000 I -0.0185 J -0.1110
G03 X 19.5301 Y 8.1518 Z -1.0000 I -0.0750 J -0.8497
G02 X 19.5056 Y 8.1536 Z -1.0000 I 0.0588 J 0.9643
G02 X 19.4895 Y 8.1553 Z -1.0000 I 0.0372 J 0.4297
G01 X 19.4734 Y 8.1538 Z -1.0000
G01 X 19.4658 Y 8.1553 Z -1.0000
G01 X 19.4578 Y 8.1587 Z -1.0000
G01 X 19.4490 Y 8.1590 Z -1.0000
G01 X 19.4396 Y 8.1609 Z -1.0000
G01 X 19.4378 Y 8.1603 Z -1.0000
G01 X 19.4335 Y 8.1582 Z -1.0000
G01 X 19.4296 Y 8.1597 Z -1.0000
G03 X 19.3955 Y 8.1639 Z -1.0000 I -0.1042 J -0.6952
G02 X 19.3437 Y 8.1702 Z -1.0000 I 0.1318 J 1.3064
G02 X 19.2394 Y 8.1859 Z -1.0000 I 0.7795 J 5.5200
G02 X 18.9827 Y 8.2289 Z -1.0000 I 3.0622 J 19.0622
G02 X 18.9348 Y 8.2391 Z -1.0000 I 0.1181 J 0.6771
G03 X 18.9240 Y 8.2414 Z -1.0000 I -0.0348 J -0.1367
G03 X 18.9103 Y 8.2433 Z -1.0000 I -0.0358 J -0.2079
G02 X 18.8965 Y 8.2453 Z -1.0000 I 0.0224 J 0.1999
G02 X 18.8659 Y 8.2514 Z -1.0000 I 0.1882 J 1.0300
G03 X 18.8352 Y 8.2578 Z -1.0000 I -0.5593 J -2.6161
G03 X 18.8184 Y 8.2610 Z -1.0000 I -0.1950 J -0.9673
G02 X 18.6848 Y 8.2899 Z -1.0000 I 0.4136 J 2.2375
G02 X 18.4863 Y 8.3434 Z -1.0000 I 1.2187 J 4.9192
G03 X 18.4433 Y 8.3555 Z -1.0000 I -0.6162 J -2.1047
G03 X 18.4370 Y 8.3568 Z -1.0000 I -0.0137 J -0.0505
G01 X 18.4308 Y 8.3581 Z -1.0000
G01 X 18.4273 Y 8.3597 Z -1.0000
G01 X 18.4238 Y 8.3612 Z -1.0000
G03 X 18.4154 Y 8.3630 Z -1.0000 I -0.0187 J -0.0672
G02 X 18.4068 Y 8.3647 Z -1.0000 I 0.0109 J 0.0747
G02 X 18.3869 Y 8.3705 Z -1.0000 I 0.1237 J 0.4642
G01 X 18.3659 Y 8.3754 Z -1.0000
G01 X 18.3566 Y 8.3787 Z -1.0000
G03 X 18.3482 Y 8.3824 Z -1.0000 I -0.0248 J -0.0437
G03 X 18.3118 Y 8.3941 Z -1.0000 I -0.2570 J -0.7397
G02 X 18.2751 Y 8.4049 Z -1.0000 I 3.1832 J 10.8985
G03 X 18.2659 Y 8.4076 Z -1.0000 I -4.2615 J -14.4094
G02 X 18.1756 Y 8.4355 Z -1.0000 I 1.1397 J 3.8523
G01 X 18.1662 Y 8.4398 Z -1.0000
G01 X 18.1669 Y 8.4449 Z -1.0000
G01 X 18.1638 Y 8.4457 Z -1.0000
G01 X 18.1571 Y 8.4454 Z -1.0000
G01 X 18.1543 Y 8.4473 Z -1.0000
G01 X 18.1470 Y 8.4459 Z -1.0000
G01 X 18.1413 Y 8.4436 Z -1.0000
G02 X 18.1259 Y 8.4461 Z -1.0000 I 0.0003 J 0.0509
G02 X 18.1099 Y 8.4515 Z -1.0000 I 0.2571 J 0.7803
G02 X 18.1006 Y 8.4551 Z -1.0000 I 0.0598 J 0.1698
G03 X 18.0494 Y 8.4739 Z -1.0000 I -0.2257 J -0.5345
G03 X 18.0329 Y 8.4765 Z -1.0000 I -0.0172 J -0.0544
G01 X 18.0298 Y 8.4773 Z -1.0000
G01 X 18.0252 Y 8.4800 Z -1.0000
G03 X 17.9924 Y 8.4977 Z -1.0000 I -0.0628 J -0.0773
G01 X 17.9697 Y 8.4977 Z -1.0000
G01 X 17.9655 Y 8.4989 Z -1.0000
G01 X 17.9608 Y 8.5003 Z -1.0000
G01 X 17.9567 Y 8.5026 Z -1.0000
G01 X 17.9559 Y 8.5046 Z -1.0000
G01 X 17.9516 Y 8.5053 Z -1.0000
G01 X 17.9397 Y 8.5181 Z -1.0000
G03 X 17.9114 Y 8.5240 Z -1.0000 I -0.0266 J -0.0573
G01 X 17.9222 Y 8.5175 Z -1.0000
G01 X 17.9353 Y 8.5088 Z -1.0000
G01 X 17.9751 Y 8.4886 Z -1.0000
G02 X 17.9843 Y 8.4850 Z -1.0000 I -0.7133 J -1.8189
G02 X 18.0115 Y 8.4740 Z -1.0000 I -1.6633 J -4.1788
G03 X 18.0387 Y 8.4642 Z -1.0000 I 0.1567 J 0.3915
G01 X 18.0411 Y 8.4645 Z -1.0000
G01 X 18.0435 Y 8.4648 Z -1.0000
G02 X 18.0536 Y 8.4601 Z -1.0000 I -0.0215 J -0.0605
G03 X 18.0641 Y 8.4551 Z -1.0000 I 0.0408 J 0.0714
G03 X 18.0738 Y 8.4522 Z -1.0000 I 0.0207 J 0.0523
G01 X 18.0837 Y 8.4470 Z -1.0000
G01 X 18.0929 Y 8.4452 Z -1.0000
G01 X 18.1021 Y 8.4445 Z -1.0000
G01 X 18.1258 Y 8.4354 Z -1.0000
G01 X 18.1459 Y 8.4271 Z -1.0000
G01 X 18.1438 Y 8.4216 Z -1.0000
G01 X 18.1516 Y 8.4171 Z -1.0000
G01 X 18.1557 Y 8.4202 Z -1.0000
G01 X 18.1736 Y 8.4187 Z -1.0000
G01 X 18.1824 Y 8.4131 Z -1.0000
G01 X 18.1831 Y 8.4103 Z -1.0000
G01 X 18.1856 Y 8.4036 Z -1.0000
G03 X 18.2129 Y 8.3946 Z -1.0000 I 0.0403 J 0.0765
G01 X 18.2167 Y 8.3936 Z -1.0000
G01 X 18.2201 Y 8.3920 Z -1.0000
G01 X 18.2235 Y 8.3905 Z -1.0000
G03 X 18.2315 Y 8.3885 Z -1.0000 I 0.0192 J 0.0616
G02 X 18.2395 Y 8.3865 Z -1.0000 I -0.0105 J -0.0580
G01 X 18.2436 Y 8.3846 Z -1.0000
G03 X 18.2780 Y 8.3688 Z -1.0000 I 0.0805 J 0.1304
G01 X 18.2876 Y 8.3709 Z -1.0000
G01 X 18.2876 Y 8.3692 Z -1.0000
G01 X 18.2850 Y 8.3671 Z -1.0000
G01 X 18.2810 Y 8.3672 Z -1.0000
G01 X 18.2765 Y 8.3656 Z -1.0000
G01 X 18.2778 Y 8.3633 Z -1.0000
G01 X 18.2849 Y 8.3604 Z -1.0000
G02 X 18.2932 Y 8.3582 Z -1.0000 I -0.0221 J -0.1015
G02 X 18.2995 Y 8.3559 Z -1.0000 I -0.0160 J -0.0523
G01 X 18.3377 Y 8.3458 Z -1.0000
G01 X 18.3418 Y 8.3441 Z -1.0000
G01 X 18.3464 Y 8.3417 Z -1.0000
G03 X 18.3571 Y 8.3399 Z -1.0000 I 0.0141 J 0.0508
G01 X 18.3684 Y 8.3370 Z -1.0000
G01 X 18.3744 Y 8.3285 Z -1.0000
G01 X 18.3938 Y 8.3278 Z -1.0000
G01 X 18.3961 Y 8.3276 Z -1.0000
G01 X 18.4029 Y 8.3238 Z -1.0000
G01 X 18.4099 Y 8.3203 Z -1.0000
G01 X 18.4173 Y 8.3192 Z -1.0000
G01 X 18.4249 Y 8.3184 Z -1.0000
G02 X 18.4388 Y 8.3147 Z -1.0000 I -0.0258 J -0.1239
G03 X 18.4935 Y 8.2981 Z -1.0000 I 0.3657 J 1.1097
G03 X 18.5191 Y 8.2924 Z -1.0000 I 0.0715 J 0.2591
G01 X 18.5275 Y 8.2889 Z -1.0000
G01 X 18.5331 Y 8.2864 Z -1.0000
G01 X 18.5387 Y 8.2855 Z -1.0000
G02 X 18.5676 Y 8.2782 Z -1.0000 I -0.2109 J -0.8907
G03 X 18.5964 Y 8.2707 Z -1.0000 I 0.4065 J 1.4975
G03 X 18.6040 Y 8.2689 Z -1.0000 I 0.0540 J 0.2150
G02 X 18.6291 Y 8.2630 Z -1.0000 I -0.0680 J -0.3443
G02 X 18.6882 Y 8.2457 Z -1.0000 I -0.5161 J -1.8764
G03 X 18.6975 Y 8.2432 Z -1.0000 I 0.0365 J 0.1165
G03 X 18.7078 Y 8.2411 Z -1.0000 I 0.0446 J 0.1947
G02 X 18.7182 Y 8.2389 Z -1.0000 I -0.0230 J -0.1351
G01 X 18.7204 Y 8.2380 Z -1.0000
G01 X 18.7227 Y 8.2371 Z -1.0000
G03 X 18.7329 Y 8.2352 Z -1.0000 I 0.0273 J 0.1203
G02 X 18.7433 Y 8.2334 Z -1.0000 I -0.0284 J -0.1937
G02 X 18.7556 Y 8.2307 Z -1.0000 I -0.0738 J -0.3655
G03 X 18.7678 Y 8.2279 Z -1.0000 I 0.1180 J 0.4940
G03 X 18.7784 Y 8.2259 Z -1.0000 I 0.0564 J 0.2649
G02 X 18.7887 Y 8.2234 Z -1.0000 I -0.0130 J -0.0754
G01 X 18.7922 Y 8.2216 Z -1.0000
G01 X 18.7957 Y 8.2198 Z -1.0000
G03 X 18.8061 Y 8.2174 Z -1.0000 I 0.0255 J 0.0872
G02 X 18.8166 Y 8.2152 Z -1.0000 I -0.0163 J -0.1034
G02 X 18.8260 Y 8.2121 Z -1.0000 I -0.0214 J -0.0806
G03 X 18.8354 Y 8.2092 Z -1.0000 I 0.0253 J 0.0645
G03 X 18.8459 Y 8.2074 Z -1.0000 I 0.0188 J 0.0797
G02 X 18.8565 Y 8.2060 Z -1.0000 I -0.0176 J -0.1781
G02 X 18.8642 Y 8.2044 Z -1.0000 I -0.0129 J -0.0804
G03 X 18.8736 Y 8.2022 Z -1.0000 I 0.0662 J 0.2609
G03 X 18.9056 Y 8.1955 Z -1.0000 I 0.5512 J 2.5493
G02 X 18.9117 Y 8.1941 Z -1.0000 I -0.0290 J -0.1441
G02 X 18.9347 Y 8.1883 Z -1.0000 I -0.4005 J -1.6250
G03 X 18.9743 Y 8.1788 Z -1.0000 I 0.2642 J 1.0188
G03 X 19.0151 Y 8.1708 Z -1.0000 I 0.2118 J 0.9695
G02 X 19.0220 Y 8.1696 Z -1.0000 I -32.2355 J -185.9979
G03 X 19.0387 Y 8.1667 Z -1.0000 I 4.4547 J 25.6822
G02 X 19.0952 Y 8.1562 Z -1.0000 I -0.3661 J -2.1243
G02 X 19.1183 Y 8.1509 Z -1.0000 I -0.0784 J -0.3920
G01 X 19.1301 Y 8.1511 Z -1.0000
G01 X 19.1357 Y 8.1495 Z -1.0000
G01 X 19.1408 Y 8.1463 Z -1.0000
G01 X 19.1515 Y 8.1447 Z -1.0000
G02 X 19.1627 Y 8.1441 Z -1.0000 I -0.0036 J -0.1726
G02 X 19.1689 Y 8.1432 Z -1.0000 I -0.0045 J -0.0518
G03 X 19.1751 Y 8.1421 Z -1.0000 I 0.0236 J 0.1159
G03 X 19.1886 Y 8.1402 Z -1.0000 I 0.1362 J 0.9156
G02 X 19.2020 Y 8.1379 Z -1.0000 I -0.0247 J -0.1919
G01 X 19.2046 Y 8.1369 Z -1.0000
G01 X 19.2072 Y 8.1359 Z -1.0000
G03 X 19.2400 Y 8.1310 Z -1.0000 I 0.1625 J 0.9734
G02 X 19.2779 Y 8.1255 Z -1.0000 I -0.2334 J -1.7627
G02 X 19.3082 Y 8.1205 Z -1.0000 I -0.1867 J -1.2091
G03 X 19.3281 Y 8.1170 Z -1.0000 I 0.1827 J 0.9992
G03 X 19.3357 Y 8.1159 Z -1.0000 I 0.0639 J 0.3939
G02 X 19.3685 Y 8.1112 Z -1.0000 I -0.3918 J -2.8856
G02 X 19.3790 Y 8.1094 Z -1.0000 I -0.0261 J -0.1773
G03 X 19.3870 Y 8.1081 Z -1.0000 I 0.0193 J 0.0965
G03 X 19.4028 Y 8.1066 Z -1.0000 I 0.0537 J 0.4691
G02 X 19.4184 Y 8.1049 Z -1.0000 I -0.0208 J -0.2772
G01 X 19.4238 Y 8.1038 Z -1.0000
G01 X 19.4291 Y 8.1026 Z -1.0000
G03 X 19.4459 Y 8.1003 Z -1.0000 I 0.0738 J 0.4778
G02 X 19.4627 Y 8.0982 Z -1.0000 I -0.2082 J -1.7604
G02 X 19.4689 Y 8.0972 Z -1.0000 I -0.0102 J -0.0797
G03 X 19.5150 Y 8.0904 Z -1.0000 I 0.1112 J 0.5937
G03 X 19.6939 Y 8.0727 Z -1.0000 I 0.9868 J 9.1021
G02 X 19.7107 Y 8.0712 Z -1.0000 I -0.1468 J -1.6652
G02 X 19.7230 Y 8.0698 Z -1.0000 I -0.0595 J -0.6044
G03 X 19.7565 Y 8.0666 Z -1.0000 I 0.0819 J 0.6813
G03 X 19.8515 Y 8.0607 Z -1.0000 I 0.3955 J 5.6000
G02 X 19.8912 Y 8.0580 Z -1.0000 I -0.0844 J -1.5399
G01 X 19.8959 Y 8.0570 Z -1.0000
G01 X 19.9006 Y 8.0562 Z -1.0000
G03 X 19.9615 Y 8.0539 Z -1.0000 I 0.1455 J 3.1509
G02 X 20.0224 Y 8.0518 Z -1.0000 I -0.0796 J -3.1898
G02 X 20.0503 Y 8.0500 Z -1.0000 I -0.0302 J -0.6851
G03 X 20.0781 Y 8.0486 Z -1.0000 I 0.0357 J 0.4201
G03 X 20.2049 Y 8.0472 Z -1.0000 I 0.1499 J 8.0678
G01 X 20.3327 Y 8.0457 Z -1.0000
G01 X 20.3421 Y 8.0456 Z -1.0000
G02 X 20.3505 Y 8.0462 Z -1.0000 I 0.0116 J -0.1086
G02 X 20.4255 Y 8.0481 Z -1.0000 I 0.2866 J -9.6948
G01 X 20.4252 Y 8.0486 Z -1.0000
G00 Z 5.0000

(End cutting path id: path5247)


(Start cutting path id: path5247)
(Change tool to Default tool)

G00 Z 5.0000
G00 X 20.4641 Y 8.0337

G01 Z -1.0000 F 100.0000(Penetrate)
G01 X 20.4621 Y 8.0346 Z -1.0000 F 3500.0000
G01 X 20.4582 Y 8.0340 Z -1.0000
G01 X 20.4601 Y 8.0322 Z -1.0000
G01 X 20.4641 Y 8.0338 Z -1.0000
G01 X 20.4641 Y 8.0337 Z -1.0000
G00 Z 5.0000

(End cutting path id: path5247)


(Start cutting path id: path5247)
(Change tool to Default tool)

G00 Z 5.0000
G00 X 20.5813 Y 8.0380

G01 Z -1.0000 F 100.0000(Penetrate)
G01 X 20.5744 Y 8.0408 Z -1.0000 F 3500.0000
G01 X 20.5736 Y 8.0380 Z -1.0000
G02 X 20.5798 Y 8.0355 Z -1.0000 I -0.5783 J -1.4045
G01 X 20.5805 Y 8.0352 Z -1.0000
G01 X 20.5813 Y 8.0380 Z -1.0000
G01 X 20.5813 Y 8.0380 Z -1.0000
G00 Z 5.0000

(End cutting path id: path5247)


(Start cutting path id: path5247)
(Change tool to Default tool)

G00 Z 5.0000
G00 X 20.6100 Y 8.0387

G01 Z -1.0000 F 100.0000(Penetrate)
G01 X 20.6080 Y 8.0401 Z -1.0000 F 3500.0000
G01 X 20.6003 Y 8.0411 Z -1.0000
G01 X 20.5958 Y 8.0387 Z -1.0000
G01 X 20.6100 Y 8.0387 Z -1.0000
G01 X 20.6100 Y 8.0387 Z -1.0000
G00 Z 5.0000

(End cutting path id: path5247)


(Start cutting path id: path5247)
(Change tool to Default tool)

G00 Z 5.0000
G00 X 20.7138 Y 8.1380

G01 Z -1.0000 F 100.0000(Penetrate)
G01 X 20.7099 Y 8.1387 Z -1.0000 F 3500.0000
G01 X 20.7046 Y 8.1381 Z -1.0000
G01 X 20.7084 Y 8.1366 Z -1.0000
G01 X 20.7138 Y 8.1380 Z -1.0000
G01 X 20.7138 Y 8.1380 Z -1.0000
G00 Z 5.0000

(End cutting path id: path5247)


(Start cutting path id: path5247)
(Change tool to Default tool)

G00 Z 5.0000
G00 X 20.7901 Y 8.1318

G01 Z -1.0000 F 100.0000(Penetrate)
G01 X 20.7955 Y 8.1351 Z -1.0000 F 3500.0000
G01 X 20.8001 Y 8.1349 Z -1.0000
G01 X 20.8013 Y 8.1305 Z -1.0000
G01 X 20.7932 Y 8.1268 Z -1.0000
G01 X 20.7901 Y 8.1318 Z -1.0000
G01 X 20.7901 Y 8.1318 Z -1.0000
G00 Z 5.0000

(End cutting path id: path5247)


(Start cutting path id: path5247)
(Change tool to Default tool)

G00 Z 5.0000
G00 X 21.0611 Y 8.0766

G01 Z -1.0000 F 100.0000(Penetrate)
G01 X 21.0591 Y 8.0775 Z -1.0000 F 3500.0000
G01 X 21.0552 Y 8.0768 Z -1.0000
G01 X 21.0570 Y 8.0750 Z -1.0000
G01 X 21.0610 Y 8.0766 Z -1.0000
G01 X 21.0611 Y 8.0766 Z -1.0000
G00 Z 5.0000

(End cutting path id: path5247)


(Start cutting path id: path5247)
(Change tool to Default tool)

G00 Z 5.0000
G00 X 21.1966 Y 8.0931

G01 Z -1.0000 F 100.0000(Penetrate)
G01 X 21.1957 Y 8.0953 Z -1.0000 F 3500.0000
G01 X 21.1934 Y 8.0962 Z -1.0000
G01 X 21.1921 Y 8.0931 Z -1.0000
G01 X 21.1953 Y 8.0900 Z -1.0000
G01 X 21.1966 Y 8.0931 Z -1.0000
G01 X 21.1966 Y 8.0931 Z -1.0000
G00 Z 5.0000

(End cutting path id: path5247)


(Start cutting path id: path5247)
(Change tool to Default tool)

G00 Z 5.0000
G00 X 21.2632 Y 8.1072

G01 Z -1.0000 F 100.0000(Penetrate)
G01 X 21.2611 Y 8.1081 Z -1.0000 F 3500.0000
G01 X 21.2573 Y 8.1074 Z -1.0000
G01 X 21.2592 Y 8.1055 Z -1.0000
G01 X 21.2632 Y 8.1071 Z -1.0000
G01 X 21.2632 Y 8.1072 Z -1.0000
G00 Z 5.0000

(End cutting path id: path5247)


(Start cutting path id: path5247)
(Change tool to Default tool)

G00 Z 5.0000
G00 X 21.3635 Y 8.1237

G01 Z -1.0000 F 100.0000(Penetrate)
G01 X 21.3604 Y 8.1268 Z -1.0000 F 3500.0000
G01 X 21.3573 Y 8.1237 Z -1.0000
G01 X 21.3604 Y 8.1206 Z -1.0000
G01 X 21.3635 Y 8.1237 Z -1.0000
G01 X 21.3635 Y 8.1237 Z -1.0000
G00 Z 5.0000

(End cutting path id: path5247)


(Start cutting path id: path5247)
(Change tool to Default tool)

G00 Z 5.0000
G00 X 21.5389 Y 8.2361

G01 Z -1.0000 F 100.0000(Penetrate)
G01 X 21.5428 Y 8.2367 Z -1.0000 F 3500.0000
G01 X 21.5448 Y 8.2358 Z -1.0000
G01 X 21.5408 Y 8.2342 Z -1.0000
G01 X 21.5389 Y 8.2360 Z -1.0000
G01 X 21.5389 Y 8.2361 Z -1.0000
G00 Z 5.0000

(End cutting path id: path5247)


(Start cutting path id: path5247)
(Change tool to Default tool)

G00 Z 5.0000
G00 X 21.6183 Y 8.1745

G01 Z -1.0000 F 100.0000(Penetrate)
G01 X 21.6162 Y 8.1754 Z -1.0000 F 3500.0000
G01 X 21.6124 Y 8.1747 Z -1.0000
G01 X 21.6142 Y 8.1728 Z -1.0000
G01 X 21.6182 Y 8.1744 Z -1.0000
G01 X 21.6183 Y 8.1745 Z -1.0000
G00 Z 5.0000

(End cutting path id: path5247)


(Start cutting path id: path5247)
(Change tool to Default tool)

G00 Z 5.0000
G00 X 21.7232 Y 8.2734

G01 Z -1.0000 F 100.0000(Penetrate)
G02 X 21.7462 Y 8.2810 Z -1.0000 I 0.0312 J -0.0559 F 3500.0000
G01 X 21.7507 Y 8.2770 Z -1.0000
G01 X 21.7479 Y 8.2735 Z -1.0000
G02 X 21.7232 Y 8.2708 Z -1.0000 I -0.0236 J 0.1044
G01 X 21.7232 Y 8.2734 Z -1.0000
G01 X 21.7232 Y 8.2734 Z -1.0000
G00 Z 5.0000

(End cutting path id: path5247)


(Start cutting path id: path5247)
(Change tool to Default tool)

G00 Z 5.0000
G00 X 21.7883 Y 8.2114

G01 Z -1.0000 F 100.0000(Penetrate)
