%
(Header)
(Generated by gcodetools from Inkscape.)
(Using default header. To add your own header create file "header" in the output dir.)
M3
(Header end.)
G21 (All units in mm)

(Start cutting path id: path10112)
(Change tool to Default tool)

G00 Z 5.0000
G00 X 27.5640 Y 0.1679

G01 Z -1.0000 F 100.0000(Penetrate)
G01 X 27.5579 Y 0.1880 Z -1.0000 F 3500.0000
G01 X 27.5419 Y 0.2007 Z -1.0000
G01 X 27.5290 Y 0.2142 Z -1.0000
G02 X 27.5274 Y 0.2440 Z -1.0000 I 0.0531 J 0.0179
G01 X 27.5240 Y 0.2554 Z -1.0000
G01 X 27.5165 Y 0.2549 Z -1.0000
G01 X 27.4999 Y 0.2450 Z -1.0000
G01 X 27.4900 Y 0.2505 Z -1.0000
G01 X 27.4794 Y 0.2577 Z -1.0000
G01 X 27.4611 Y 0.2505 Z -1.0000
G01 X 27.4504 Y 0.2293 Z -1.0000
G01 X 27.4556 Y 0.2019 Z -1.0000
G01 X 27.4535 Y 0.1736 Z -1.0000
G01 X 27.4337 Y 0.1721 Z -1.0000
G01 X 27.4249 Y 0.1929 Z -1.0000
G02 X 27.4325 Y 0.2466 Z -1.0000 I 0.1733 J 0.0028
G03 X 27.4404 Y 0.2907 Z -1.0000 I -0.1789 J 0.0551
G01 X 27.4353 Y 0.2938 Z -1.0000
G01 X 27.4242 Y 0.3014 Z -1.0000
G02 X 27.4425 Y 0.3327 Z -1.0000 I 0.0523 J -0.0097
G01 X 27.4558 Y 0.3536 Z -1.0000
G03 X 27.4569 Y 0.3884 Z -1.0000 I -0.0768 J 0.0199
G02 X 27.4572 Y 0.4229 Z -1.0000 I 0.0858 J 0.0165
G01 X 27.4671 Y 0.4370 Z -1.0000
G01 X 27.4803 Y 0.4501 Z -1.0000
G01 X 27.4845 Y 0.4645 Z -1.0000
G01 X 27.4794 Y 0.4672 Z -1.0000
G03 X 27.4535 Y 0.4437 Z -1.0000 I 0.0677 J -0.1008
G01 X 27.4225 Y 0.4061 Z -1.0000
G01 X 27.4315 Y 0.4419 Z -1.0000
G03 X 27.4329 Y 0.4718 Z -1.0000 I -0.0745 J 0.0185
G01 X 27.4261 Y 0.4777 Z -1.0000
G01 X 27.4174 Y 0.4838 Z -1.0000
G02 X 27.4079 Y 0.5276 Z -1.0000 I 0.1543 J 0.0563
G03 X 27.3996 Y 0.5760 Z -1.0000 I -0.2604 J -0.0199
G03 X 27.3874 Y 0.6032 Z -1.0000 I -0.0926 J -0.0251
G01 X 27.3818 Y 0.6053 Z -1.0000
G01 X 27.3794 Y 0.6010 Z -1.0000
G01 X 27.3771 Y 0.5812 Z -1.0000
G01 X 27.3628 Y 0.5731 Z -1.0000
G01 X 27.3502 Y 0.5601 Z -1.0000
G03 X 27.3658 Y 0.4876 Z -1.0000 I 0.2105 J 0.0074
G01 X 27.3605 Y 0.4791 Z -1.0000
G01 X 27.3358 Y 0.4855 Z -1.0000
G02 X 27.3023 Y 0.5179 Z -1.0000 I 0.0687 J 0.1048
G01 X 27.2936 Y 0.5452 Z -1.0000
G01 X 27.2851 Y 0.5590 Z -1.0000
G01 X 27.2697 Y 0.5573 Z -1.0000
G01 X 27.2532 Y 0.5531 Z -1.0000
G01 X 27.2458 Y 0.5620 Z -1.0000
G02 X 27.2499 Y 0.5841 Z -1.0000 I 0.0616 J 0.0000
G01 X 27.2578 Y 0.5931 Z -1.0000
G01 X 27.2504 Y 0.5951 Z -1.0000
G01 X 27.2268 Y 0.6042 Z -1.0000
G02 X 27.2036 Y 0.6632 Z -1.0000 I 0.1156 J 0.0794
G02 X 27.1982 Y 0.7005 Z -1.0000 I 41.9211 J 6.1258
G02 X 27.1919 Y 0.7442 Z -1.0000 I 23.6734 J 3.4378
G02 X 27.1933 Y 0.7844 Z -1.0000 I 0.1138 J 0.0161
G01 X 27.2038 Y 0.7994 Z -1.0000
G01 X 27.2028 Y 0.8047 Z -1.0000
G03 X 27.1584 Y 0.8074 Z -1.0000 I -0.0338 J -0.1922
G01 X 27.0947 Y 0.8039 Z -1.0000
G01 X 27.0947 Y 0.6972 Z -1.0000
G01 X 27.0823 Y 0.6823 Z -1.0000
G01 X 27.0694 Y 0.6925 Z -1.0000
G03 X 27.0614 Y 0.7707 Z -1.0000 I -0.7200 J -0.0346
G01 X 27.0543 Y 0.7880 Z -1.0000
G02 X 27.0462 Y 0.8054 Z -1.0000 I 0.0445 J 0.0313
G02 X 27.0162 Y 0.9312 Z -1.0000 I 2.4239 J 0.6439
G03 X 26.9864 Y 1.0576 Z -1.0000 I -2.6719 J -0.5645
G03 X 26.9684 Y 1.1142 Z -1.0000 I -0.5495 J -0.1437
G02 X 26.8784 Y 1.4632 Z -1.0000 I 1.5683 J 0.5907
G01 X 26.9141 Y 1.4867 Z -1.0000
G02 X 26.9602 Y 1.4298 Z -1.0000 I -0.0584 J -0.0945
G02 X 27.0008 Y 1.2462 Z -1.0000 I -0.6900 J -0.2489
G03 X 27.0203 Y 1.1424 Z -1.0000 I 0.5428 J 0.0484
G03 X 27.0423 Y 1.1034 Z -1.0000 I 0.0941 J 0.0274
G02 X 27.0651 Y 1.0680 Z -1.0000 I -0.0904 J -0.0832
G01 X 27.0639 Y 1.0522 Z -1.0000
G01 X 27.0658 Y 1.0396 Z -1.0000
G03 X 27.1100 Y 1.0121 Z -1.0000 I 0.1067 J 0.1222
G02 X 27.1596 Y 0.9841 Z -1.0000 I -0.0936 J -0.2239
G01 X 27.1663 Y 0.9709 Z -1.0000
G01 X 27.1821 Y 0.9649 Z -1.0000
G03 X 27.1991 Y 1.0077 Z -1.0000 I -0.0503 J 0.0448
G01 X 27.2055 Y 1.0127 Z -1.0000
G01 X 27.2156 Y 1.0040 Z -1.0000
G02 X 27.2214 Y 0.9687 Z -1.0000 I -0.0774 J -0.0309
G01 X 27.2129 Y 0.9543 Z -1.0000
G01 X 27.2059 Y 0.9431 Z -1.0000
G01 X 27.2110 Y 0.9331 Z -1.0000
G01 X 27.2240 Y 0.9317 Z -1.0000
G01 X 27.2333 Y 0.9412 Z -1.0000
G01 X 27.2424 Y 0.9461 Z -1.0000
G02 X 27.2663 Y 0.9323 Z -1.0000 I -0.0137 J -0.0513
G03 X 27.2944 Y 0.9147 Z -1.0000 I 0.0520 J 0.0520
G01 X 27.3118 Y 0.9167 Z -1.0000
G01 X 27.3284 Y 0.9178 Z -1.0000
G02 X 27.3538 Y 0.8978 Z -1.0000 I -0.0273 J -0.0609
G01 X 27.3651 Y 0.8903 Z -1.0000
G01 X 27.3684 Y 0.8938 Z -1.0000
G01 X 27.3708 Y 0.9107 Z -1.0000
G01 X 27.3840 Y 0.9165 Z -1.0000
G02 X 27.4646 Y 0.8580 Z -1.0000 I -0.0155 J -0.1061
G01 X 27.4360 Y 0.8118 Z -1.0000
G01 X 27.4254 Y 0.8073 Z -1.0000
G01 X 27.4209 Y 0.7959 Z -1.0000
G01 X 27.4264 Y 0.7855 Z -1.0000
G01 X 27.4447 Y 0.7800 Z -1.0000
G01 X 27.4634 Y 0.7663 Z -1.0000
G02 X 27.4713 Y 0.6965 Z -1.0000 I -0.1721 J -0.0548
G01 X 27.4816 Y 0.6895 Z -1.0000
G01 X 27.5017 Y 0.7118 Z -1.0000
G03 X 27.5087 Y 0.7543 Z -1.0000 I -0.1008 J 0.0383
G03 X 27.4986 Y 0.7913 Z -1.0000 I -0.0852 J -0.0033
G02 X 27.4862 Y 0.8267 Z -1.0000 I 0.1082 J 0.0579
G01 X 27.4898 Y 0.8384 Z -1.0000
G01 X 27.4923 Y 0.8493 Z -1.0000
G03 X 27.4772 Y 0.8747 Z -1.0000 I -0.0703 J -0.0245
G01 X 27.4704 Y 0.8981 Z -1.0000
G01 X 27.4851 Y 0.9199 Z -1.0000
G01 X 27.5086 Y 0.9255 Z -1.0000
G01 X 27.5163 Y 0.9171 Z -1.0000
G03 X 27.5477 Y 0.8305 Z -1.0000 I 0.1350 J 0.0000
G01 X 27.5794 Y 0.8416 Z -1.0000
G01 X 27.5865 Y 0.8491 Z -1.0000
G01 X 27.6038 Y 0.8437 Z -1.0000
G01 X 27.6148 Y 0.8477 Z -1.0000
G03 X 27.6174 Y 0.9213 Z -1.0000 I -0.2613 J 0.0459
G02 X 27.6164 Y 1.0104 Z -1.0000 I 0.4811 J 0.0500
G01 X 27.6254 Y 1.0187 Z -1.0000
G01 X 27.6382 Y 1.0133 Z -1.0000
G01 X 27.6436 Y 1.0000 Z -1.0000
G01 X 27.6479 Y 0.9830 Z -1.0000
G03 X 27.6687 Y 0.9537 Z -1.0000 I 0.1324 J 0.0716
G02 X 27.6904 Y 0.9243 Z -1.0000 I -0.1391 J -0.1258
G02 X 27.6980 Y 0.9047 Z -1.0000 I -0.0532 J -0.0319
G03 X 27.7336 Y 0.8094 Z -1.0000 I 0.3186 J 0.0645
G01 X 27.7550 Y 0.8039 Z -1.0000
G01 X 27.7618 Y 0.8164 Z -1.0000
G03 X 27.7541 Y 0.8486 Z -1.0000 I -0.0772 J -0.0015
G01 X 27.7580 Y 0.8570 Z -1.0000
G02 X 27.7780 Y 0.8300 Z -1.0000 I -0.4671 J -0.3664
G02 X 27.7968 Y 0.8013 Z -1.0000 I -0.5033 J -0.3506
G01 X 27.8191 Y 0.7991 Z -1.0000
G01 X 27.8251 Y 0.8317 Z -1.0000
G02 X 27.8160 Y 0.8684 Z -1.0000 I 0.1227 J 0.0497
G02 X 27.8156 Y 0.9283 Z -1.0000 I 0.3272 J 0.0324
G02 X 27.8300 Y 0.9668 Z -1.0000 I 0.0755 J -0.0063
G01 X 27.8452 Y 0.9687 Z -1.0000
G01 X 27.8679 Y 0.9631 Z -1.0000
G01 X 27.8919 Y 0.9786 Z -1.0000
G01 X 27.9058 Y 0.9835 Z -1.0000
G01 X 27.9141 Y 0.9729 Z -1.0000
G03 X 27.9205 Y 0.9395 Z -1.0000 I 0.0900 J -0.0000
G03 X 27.9379 Y 0.9130 Z -1.0000 I 0.0732 J 0.0292
G01 X 27.9492 Y 0.9176 Z -1.0000
G03 X 27.9388 Y 1.0001 Z -1.0000 I -0.3081 J 0.0032
G02 X 27.9298 Y 1.0698 Z -1.0000 I 0.2594 J 0.0691
G01 X 27.9390 Y 1.0762 Z -1.0000
G01 X 27.9550 Y 1.0774 Z -1.0000
G01 X 27.9618 Y 1.0891 Z -1.0000
G01 X 27.9890 Y 1.1297 Z -1.0000
G01 X 28.0228 Y 1.1142 Z -1.0000
G03 X 28.0314 Y 1.0983 Z -1.0000 I 0.0478 J 0.0158
G03 X 28.0626 Y 1.0649 Z -1.0000 I 0.2522 J 0.2037
G01 X 28.0878 Y 1.0649 Z -1.0000
G01 X 28.0893 Y 1.0900 Z -1.0000
G01 X 28.0798 Y 1.1134 Z -1.0000
G01 X 28.0854 Y 1.1390 Z -1.0000
G01 X 28.0989 Y 1.1470 Z -1.0000
G01 X 28.1103 Y 1.1392 Z -1.0000
G01 X 28.1256 Y 1.1291 Z -1.0000
G03 X 28.1644 Y 1.1411 Z -1.0000 I -0.0027 J 0.0771
G03 X 28.2065 Y 1.1712 Z -1.0000 I -0.2654 J 0.4168
G03 X 28.2201 Y 1.1854 Z -1.0000 I -0.0446 J 0.0560
G01 X 28.2271 Y 1.1868 Z -1.0000
G01 X 28.2323 Y 1.1778 Z -1.0000
G01 X 28.2378 Y 1.1722 Z -1.0000
G01 X 28.2475 Y 1.1773 Z -1.0000
G01 X 28.2530 Y 1.2001 Z -1.0000
G01 X 28.2433 Y 1.2240 Z -1.0000
G01 X 28.2426 Y 1.2343 Z -1.0000
G01 X 28.2514 Y 1.2373 Z -1.0000
G01 X 28.2663 Y 1.2393 Z -1.0000
G01 X 28.2696 Y 1.2502 Z -1.0000
G01 X 28.2669 Y 1.2691 Z -1.0000
G01 X 28.2715 Y 1.2733 Z -1.0000
G01 X 28.3095 Y 1.2550 Z -1.0000
G02 X 28.3278 Y 1.2028 Z -1.0000 I -0.0654 J -0.0522
G01 X 28.3331 Y 1.1832 Z -1.0000
G01 X 28.3424 Y 1.1778 Z -1.0000
G02 X 28.3566 Y 1.1761 Z -1.0000 I -0.0000 J -0.0603
G02 X 28.3861 Y 1.1672 Z -1.0000 I -0.0655 J -0.2693
G01 X 28.3929 Y 1.1719 Z -1.0000
G01 X 28.3863 Y 1.1896 Z -1.0000
G01 X 28.3749 Y 1.2199 Z -1.0000
G01 X 28.3863 Y 1.2398 Z -1.0000
G01 X 28.4023 Y 1.2576 Z -1.0000
G01 X 28.3994 Y 1.2691 Z -1.0000
G02 X 28.3757 Y 1.3150 Z -1.0000 I 0.0370 J 0.0481
G01 X 28.3969 Y 1.3370 Z -1.0000
G01 X 28.4131 Y 1.3307 Z -1.0000
G01 X 28.4189 Y 1.3171 Z -1.0000
G03 X 28.4284 Y 1.2534 Z -1.0000 I 0.1754 J -0.0064
G01 X 28.4451 Y 1.2415 Z -1.0000
G03 X 28.4946 Y 1.2649 Z -1.0000 I 0.0000 J 0.0641
G01 X 28.4895 Y 1.2955 Z -1.0000
G01 X 28.4783 Y 1.3072 Z -1.0000
G02 X 28.4666 Y 1.3360 Z -1.0000 I 0.1040 J 0.0590
G01 X 28.4736 Y 1.3465 Z -1.0000
G01 X 28.5005 Y 1.3406 Z -1.0000
G02 X 28.5406 Y 1.3118 Z -1.0000 I -0.2435 J -0.3830
G02 X 28.5536 Y 1.2980 Z -1.0000 I -0.0416 J -0.0520
G01 X 28.5654 Y 1.2901 Z -1.0000
G01 X 28.5754 Y 1.2929 Z -1.0000
G01 X 28.5775 Y 1.3036 Z -1.0000
G03 X 28.5603 Y 1.3294 Z -1.0000 I -0.0731 J -0.0302
G03 X 28.5388 Y 1.3448 Z -1.0000 I -0.0568 J -0.0568
G01 X 28.5343 Y 1.3421 Z -1.0000
G01 X 28.5191 Y 1.3377 Z -1.0000
G02 X 28.5030 Y 1.3906 Z -1.0000 I 0.0847 J 0.0547
G01 X 28.5075 Y 1.3945 Z -1.0000
G01 X 28.5241 Y 1.3868 Z -1.0000
G03 X 28.5451 Y 1.3765 Z -1.0000 I 0.0325 J 0.0393
G01 X 28.5559 Y 1.3795 Z -1.0000
G01 X 28.5618 Y 1.3789 Z -1.0000
G01 X 28.5664 Y 1.3631 Z -1.0000
G01 X 28.5748 Y 1.3420 Z -1.0000
G03 X 28.6062 Y 1.3211 Z -1.0000 I 0.0614 J 0.0581
G02 X 28.6396 Y 1.3012 Z -1.0000 I -0.0401 J -0.1057
G01 X 28.6475 Y 1.2856 Z -1.0000
G01 X 28.6603 Y 1.3051 Z -1.0000
G01 X 28.6715 Y 1.3449 Z -1.0000
G01 X 28.6894 Y 1.2941 Z -1.0000
G02 X 28.6934 Y 1.2576 Z -1.0000 I -0.0765 J -0.0269
G01 X 28.6844 Y 1.2522 Z -1.0000
G01 X 28.6734 Y 1.2491 Z -1.0000
G01 X 28.6714 Y 1.2353 Z -1.0000
G01 X 28.6862 Y 1.2169 Z -1.0000
G01 X 28.7104 Y 1.2097 Z -1.0000
G02 X 28.7369 Y 1.2048 Z -1.0000 I -0.0000 J -0.0747
G01 X 28.7485 Y 1.1953 Z -1.0000
G01 X 28.7931 Y 1.1759 Z -1.0000
G01 X 28.8210 Y 1.2100 Z -1.0000
G01 X 28.8157 Y 1.2158 Z -1.0000
G03 X 28.7852 Y 1.2133 Z -1.0000 I -0.0082 J -0.0887
G01 X 28.7722 Y 1.2187 Z -1.0000
G01 X 28.7733 Y 1.2332 Z -1.0000
G03 X 28.7934 Y 1.2624 Z -1.0000 I -0.1658 J 0.1362
G01 X 28.7932 Y 1.2678 Z -1.0000
G01 X 28.7931 Y 1.2712 Z -1.0000
G01 X 28.7971 Y 1.2733 Z -1.0000
G01 X 28.8210 Y 1.2733 Z -1.0000
G01 X 28.8314 Y 1.2676 Z -1.0000
G01 X 28.8369 Y 1.2487 Z -1.0000
G03 X 28.8414 Y 1.2252 Z -1.0000 I 0.0641 J 0.0000
G03 X 28.8741 Y 1.1543 Z -1.0000 I 0.6362 J 0.2504
G03 X 28.9143 Y 1.1118 Z -1.0000 I 0.0971 J 0.0517
G01 X 28.9379 Y 1.1156 Z -1.0000
G03 X 28.9553 Y 1.1490 Z -1.0000 I -0.0633 J 0.0542
G03 X 28.9554 Y 1.1834 Z -1.0000 I -0.0674 J 0.0174
G02 X 28.9556 Y 1.2169 Z -1.0000 I 0.0654 J 0.0165
G01 X 28.9701 Y 1.2397 Z -1.0000
G01 X 28.9816 Y 1.2370 Z -1.0000
G02 X 28.9868 Y 1.2021 Z -1.0000 I -0.0603 J -0.0268
G03 X 28.9864 Y 1.1460 Z -1.0000 I 0.2421 J -0.0299
G03 X 28.9964 Y 1.1135 Z -1.0000 I 0.0883 J 0.0095
G02 X 29.0045 Y 1.0823 Z -1.0000 I -0.0603 J -0.0322
G02 X 28.9973 Y 1.0528 Z -1.0000 I -0.0605 J -0.0009
G01 X 29.0004 Y 1.0365 Z -1.0000
G01 X 29.0246 Y 1.0293 Z -1.0000
G01 X 29.0330 Y 1.0255 Z -1.0000
G01 X 29.0311 Y 1.0193 Z -1.0000
G01 X 29.0033 Y 0.9818 Z -1.0000
G03 X 29.0204 Y 0.9295 Z -1.0000 I 0.0647 J -0.0077
G02 X 29.0493 Y 0.8565 Z -1.0000 I -0.0783 J -0.0732
G02 X 29.0207 Y 0.6711 Z -1.0000 I -0.6104 J -0.0007
G01 X 29.0034 Y 0.6468 Z -1.0000
G02 X 28.9635 Y 0.6287 Z -1.0000 I -0.0624 J 0.0841
G03 X 28.9224 Y 0.6136 Z -1.0000 I 0.0349 J -0.1582
G01 X 28.9165 Y 0.6037 Z -1.0000
G01 X 28.9113 Y 0.5943 Z -1.0000
G01 X 28.8932 Y 0.5891 Z -1.0000
G01 X 28.8725 Y 0.5832 Z -1.0000
G03 X 28.8354 Y 0.5533 Z -1.0000 I 0.1014 J -0.1638
G01 X 28.8008 Y 0.5175 Z -1.0000
G01 X 28.8092 Y 0.5522 Z -1.0000
G03 X 28.8090 Y 0.5826 Z -1.0000 I -0.0614 J 0.0149
G01 X 28.7987 Y 0.5943 Z -1.0000
G01 X 28.7767 Y 0.5800 Z -1.0000
G03 X 28.7943 Y 0.5135 Z -1.0000 I 0.1116 J -0.0061
G01 X 28.7956 Y 0.4998 Z -1.0000
G01 X 28.7862 Y 0.4934 Z -1.0000
G01 X 28.7813 Y 0.4886 Z -1.0000
G01 X 28.7858 Y 0.4802 Z -1.0000
G01 X 28.7973 Y 0.4642 Z -1.0000
G01 X 28.7958 Y 0.4400 Z -1.0000
G01 X 28.7951 Y 0.4146 Z -1.0000
G03 X 28.8151 Y 0.3795 Z -1.0000 I 0.0930 J 0.0299
G01 X 28.8197 Y 0.3624 Z -1.0000
G01 X 28.8104 Y 0.3569 Z -1.0000
G03 X 28.7790 Y 0.3596 Z -1.0000 I -0.0220 J -0.0706
G01 X 28.7657 Y 0.3511 Z -1.0000
G01 X 28.7666 Y 0.3407 Z -1.0000
G01 X 28.7803 Y 0.3345 Z -1.0000
G01 X 28.8027 Y 0.3286 Z -1.0000
G02 X 28.8382 Y 0.3014 Z -1.0000 I -0.0838 J -0.1466
G01 X 28.8714 Y 0.2683 Z -1.0000
G01 X 28.8661 Y 0.3130 Z -1.0000
G02 X 28.8717 Y 0.3498 Z -1.0000 I 0.0690 J 0.0083
G01 X 28.8886 Y 0.3633 Z -1.0000
G01 X 28.9100 Y 0.3608 Z -1.0000
G01 X 28.9165 Y 0.3507 Z -1.0000
G01 X 28.9218 Y 0.3421 Z -1.0000
G01 X 28.9326 Y 0.3427 Z -1.0000
G01 X 28.9415 Y 0.3544 Z -1.0000
G01 X 28.9396 Y 0.3675 Z -1.0000
G01 X 28.9408 Y 0.3765 Z -1.0000
G01 X 28.9553 Y 0.3823 Z -1.0000
G01 X 28.9710 Y 0.3732 Z -1.0000
G02 X 28.9801 Y 0.3384 Z -1.0000 I -0.0613 J -0.0347
G03 X 28.9921 Y 0.3024 Z -1.0000 I 0.0604 J -0.0000
G03 X 29.0289 Y 0.2730 Z -1.0000 I 0.0743 J 0.0554
G02 X 29.0671 Y 0.2471 Z -1.0000 I -0.0524 J -0.1183
G01 X 29.0703 Y 0.2324 Z -1.0000
G01 X 29.0750 Y 0.2224 Z -1.0000
G03 X 29.1130 Y 0.2182 Z -1.0000 I 0.0290 J 0.0877
G01 X 29.1432 Y 0.2139 Z -1.0000
G01 X 29.1325 Y 0.1943 Z -1.0000
G01 X 29.1472 Y 0.1856 Z -1.0000
G01 X 29.1646 Y 0.1993 Z -1.0000
G01 X 29.1716 Y 0.2209 Z -1.0000
G01 X 29.1786 Y 0.2270 Z -1.0000
G01 X 29.1940 Y 0.2181 Z -1.0000
G03 X 29.2175 Y 0.1932 Z -1.0000 I 0.1274 J 0.0965
G01 X 29.2259 Y 0.1909 Z -1.0000
G01 X 29.2347 Y 0.1889 Z -1.0000
G02 X 29.2607 Y 0.1676 Z -1.0000 I -0.0929 J -0.1397
G01 X 29.2557 Y 0.1552 Z -1.0000
G02 X 28.4806 Y 0.1440 Z -1.0000 I -0.7377 J 24.3882
G02 X 27.6839 Y 0.1591 Z -1.0000 I 0.0366 J 23.0748
G01 X 27.6604 Y 0.1737 Z -1.0000
G02 X 27.6512 Y 0.2028 Z -1.0000 I 0.0721 J 0.0387
G02 X 27.6533 Y 0.2332 Z -1.0000 I 0.0815 J 0.0096
G01 X 27.6518 Y 0.2613 Z -1.0000
G03 X 27.6311 Y 0.2917 Z -1.0000 I -0.0738 J -0.0282
G01 X 27.6119 Y 0.2929 Z -1.0000
G01 X 27.5993 Y 0.2695 Z -1.0000
G03 X 27.6022 Y 0.2206 Z -1.0000 I 0.2783 J -0.0079
G03 X 27.6124 Y 0.1817 Z -1.0000 I 0.1843 J 0.0274
G01 X 27.6116 Y 0.1541 Z -1.0000
G01 X 27.5954 Y 0.1436 Z -1.0000
G01 X 27.5720 Y 0.1516 Z -1.0000
G01 X 27.5640 Y 0.1680 Z -1.0000
G01 X 27.5640 Y 0.1679 Z -1.0000
G00 Z 5.0000

(End cutting path id: path10112)


(Start cutting path id: path10112)
(Change tool to Default tool)

G00 Z 5.0000
G00 X 27.6993 Y 0.2708

G01 Z -1.0000 F 100.0000(Penetrate)
G01 X 27.7082 Y 0.2855 Z -1.0000 F 3500.0000
G01 X 27.7309 Y 0.2763 Z -1.0000
G01 X 27.7672 Y 0.2817 Z -1.0000
G03 X 27.7715 Y 0.3924 Z -1.0000 I -0.1785 J 0.0624
G01 X 27.7701 Y 0.3940 Z -1.0000
G03 X 27.7460 Y 0.4042 Z -1.0000 I -0.1611 J -0.3486
G01 X 27.7340 Y 0.4000 Z -1.0000
G01 X 27.7318 Y 0.3801 Z -1.0000
G01 X 27.7319 Y 0.3599 Z -1.0000
G01 X 27.7249 Y 0.3572 Z -1.0000
G01 X 27.7126 Y 0.3584 Z -1.0000
G01 X 27.7072 Y 0.3506 Z -1.0000
G01 X 27.7013 Y 0.3467 Z -1.0000
G02 X 27.6724 Y 0.3656 Z -1.0000 I 0.0395 J 0.0922
G03 X 27.6288 Y 0.3830 Z -1.0000 I -0.0443 J -0.0476
G01 X 27.6118 Y 0.3662 Z -1.0000
G03 X 27.6167 Y 0.3392 Z -1.0000 I 0.0769 J -0.0000
G01 X 27.6237 Y 0.3343 Z -1.0000
G01 X 27.6331 Y 0.3298 Z -1.0000
G02 X 27.6627 Y 0.2866 Z -1.0000 I -0.2432 J -0.1985
G03 X 27.6899 Y 0.2622 Z -1.0000 I 0.0499 J 0.0284
G01 X 27.6993 Y 0.2708 Z -1.0000
G01 X 27.6993 Y 0.2708 Z -1.0000
G00 Z 5.0000

(End cutting path id: path10112)


(Start cutting path id: path10112)
(Change tool to Default tool)

G00 Z 5.0000
G00 X 27.7569 Y 0.1955

G01 Z -1.0000 F 100.0000(Penetrate)
G01 X 27.7499 Y 0.1955 Z -1.0000 F 3500.0000
G01 X 27.7480 Y 0.1866 Z -1.0000
G03 X 27.7608 Y 0.1670 Z -1.0000 I 0.0521 J 0.0199
G01 X 27.7678 Y 0.1670 Z -1.0000
G01 X 27.7697 Y 0.1759 Z -1.0000
G03 X 27.7570 Y 0.1955 Z -1.0000 I -0.0519 J -0.0197
G01 X 27.7569 Y 0.1955 Z -1.0000
G00 Z 5.0000

(End cutting path id: path10112)


(Start cutting path id: path10112)
(Change tool to Default tool)

G00 Z 5.0000
G00 X 27.6516 Y 0.4458

G01 Z -1.0000 F 100.0000(Penetrate)
G01 X 27.6504 Y 0.4557 Z -1.0000 F 3500.0000
G01 X 27.6356 Y 0.4617 Z -1.0000
G01 X 27.6209 Y 0.4556 Z -1.0000
G01 X 27.6197 Y 0.4458 Z -1.0000
G03 X 27.6307 Y 0.4319 Z -1.0000 I 0.0635 J 0.0390
G01 X 27.6356 Y 0.4299 Z -1.0000
G01 X 27.6405 Y 0.4319 Z -1.0000
G03 X 27.6516 Y 0.4458 Z -1.0000 I -0.0547 J 0.0547
G01 X 27.6516 Y 0.4458 Z -1.0000
G00 Z 5.0000

(End cutting path id: path10112)


(Start cutting path id: path10112)
(Change tool to Default tool)

G00 Z 5.0000
G00 X 27.4606 Y 0.5254

G01 Z -1.0000 F 100.0000(Penetrate)
G01 X 27.4614 Y 0.5362 Z -1.0000 F 3500.0000
G01 X 27.4536 Y 0.5413 Z -1.0000
G01 X 27.4415 Y 0.5365 Z -1.0000
G01 X 27.4368 Y 0.5254 Z -1.0000
G01 X 27.4396 Y 0.5122 Z -1.0000
G01 X 27.4438 Y 0.5095 Z -1.0000
G01 X 27.4496 Y 0.5118 Z -1.0000
G03 X 27.4606 Y 0.5254 Z -1.0000 I -0.0477 J 0.0501
G01 X 27.4606 Y 0.5254 Z -1.0000
G00 Z 5.0000

(End cutting path id: path10112)


(Start cutting path id: path10112)
(Change tool to Default tool)

G00 Z 5.0000
G00 X 27.3413 Y 0.6049

G01 Z -1.0000 F 100.0000(Penetrate)
G01 X 27.3365 Y 0.6161 Z -1.0000 F 3500.0000
G01 X 27.3244 Y 0.6209 Z -1.0000
G01 X 27.3167 Y 0.6158 Z -1.0000
G01 X 27.3174 Y 0.6049 Z -1.0000
G03 X 27.3285 Y 0.5913 Z -1.0000 I 0.0564 J 0.0346
G01 X 27.3343 Y 0.5890 Z -1.0000
G01 X 27.3386 Y 0.5918 Z -1.0000
G01 X 27.3413 Y 0.6049 Z -1.0000
G01 X 27.3413 Y 0.6049 Z -1.0000
G00 Z 5.0000

(End cutting path id: path10112)


(Start cutting path id: path10112)
(Change tool to Default tool)

G00 Z 5.0000
G00 X 27.3471 Y 0.6606

G01 Z -1.0000 F 100.0000(Penetrate)
G03 X 27.3346 Y 0.6797 Z -1.0000 I -0.0496 J -0.0189 F 3500.0000
G01 X 27.3228 Y 0.6845 Z -1.0000
G01 X 27.3162 Y 0.6893 Z -1.0000
G01 X 27.3176 Y 0.7007 Z -1.0000
G01 X 27.3293 Y 0.7096 Z -1.0000
G01 X 27.3422 Y 0.7078 Z -1.0000
G01 X 27.3477 Y 0.7098 Z -1.0000
G01 X 27.3474 Y 0.7234 Z -1.0000
G01 X 27.3335 Y 0.7417 Z -1.0000
G01 X 27.3141 Y 0.7481 Z -1.0000
G01 X 27.3002 Y 0.7550 Z -1.0000
G01 X 27.2983 Y 0.7692 Z -1.0000
G01 X 27.2945 Y 0.7811 Z -1.0000
G01 X 27.2721 Y 0.7864 Z -1.0000
G01 X 27.2488 Y 0.7743 Z -1.0000
G01 X 27.2507 Y 0.7623 Z -1.0000
G01 X 27.2653 Y 0.7430 Z -1.0000
G01 X 27.2609 Y 0.7231 Z -1.0000
G01 X 27.2563 Y 0.7044 Z -1.0000
G01 X 27.2679 Y 0.6909 Z -1.0000
G01 X 27.2844 Y 0.6781 Z -1.0000
G01 X 27.2847 Y 0.6671 Z -1.0000
G01 X 27.2866 Y 0.6618 Z -1.0000
G01 X 27.2991 Y 0.6619 Z -1.0000
G01 X 27.3197 Y 0.6632 Z -1.0000
G01 X 27.3327 Y 0.6538 Z -1.0000
G01 X 27.3431 Y 0.6507 Z -1.0000
G01 X 27.3471 Y 0.6607 Z -1.0000
G01 X 27.3471 Y 0.6606 Z -1.0000
G00 Z 5.0000

(End cutting path id: path10112)


(Start cutting path id: path10112)
(Change tool to Default tool)

G00 Z 5.0000
G00 X 27.0967 Y 0.8522

G01 Z -1.0000 F 100.0000(Penetrate)
G01 X 27.0944 Y 0.8760 Z -1.0000 F 3500.0000
G02 X 27.1069 Y 0.9084 Z -1.0000 I 0.0918 J -0.0168
G01 X 27.1137 Y 0.9371 Z -1.0000
G01 X 27.1027 Y 0.9552 Z -1.0000
G01 X 27.0993 Y 0.9645 Z -1.0000
G01 X 27.1076 Y 0.9707 Z -1.0000
G01 X 27.1247 Y 0.9773 Z -1.0000
G01 X 27.1261 Y 0.9875 Z -1.0000
G01 X 27.1130 Y 0.9961 Z -1.0000
G03 X 27.0834 Y 0.9938 Z -1.0000 I -0.0096 J -0.0657
G01 X 27.0644 Y 0.9939 Z -1.0000
G01 X 27.0618 Y 1.0011 Z -1.0000
G01 X 27.0637 Y 1.0137 Z -1.0000
G01 X 27.0572 Y 1.0187 Z -1.0000
G01 X 27.0369 Y 0.9999 Z -1.0000
G03 X 27.0512 Y 0.9432 Z -1.0000 I 0.0906 J -0.0072
G02 X 27.0672 Y 0.9068 Z -1.0000 I -0.1026 J -0.0666
G01 X 27.0659 Y 0.8855 Z -1.0000
G01 X 27.0645 Y 0.8649 Z -1.0000
G01 X 27.0753 Y 0.8456 Z -1.0000
G01 X 27.0916 Y 0.8416 Z -1.0000
G01 X 27.0967 Y 0.8522 Z -1.0000
G01 X 27.0967 Y 0.8522 Z -1.0000
G00 Z 5.0000

(End cutting path id: path10112)


(Start cutting path id: path10112)
(Change tool to Default tool)

G00 Z 5.0000
G00 X 27.3777 Y 0.9874

G01 Z -1.0000 F 100.0000(Penetrate)
G02 X 27.3818 Y 1.0233 Z -1.0000 I 0.0988 J 0.0068 F 3500.0000
G01 X 27.3896 Y 1.0262 Z -1.0000
G02 X 27.4225 Y 0.9697 Z -1.0000 I -0.0366 J -0.0592
G01 X 27.3930 Y 0.9391 Z -1.0000
G01 X 27.3859 Y 0.9443 Z -1.0000
G02 X 27.3777 Y 0.9874 Z -1.0000 I 0.1773 J 0.0561
G01 X 27.3777 Y 0.9874 Z -1.0000
G00 Z 5.0000

(End cutting path id: path10112)


(Start cutting path id: path10112)
(Change tool to Default tool)

G00 Z 5.0000
G00 X 28.1210 Y 1.0027

G01 Z -1.0000 F 100.0000(Penetrate)
G01 X 28.1162 Y 1.0139 Z -1.0000 F 3500.0000
G01 X 28.1041 Y 1.0186 Z -1.0000
G01 X 28.0963 Y 1.0135 Z -1.0000
G01 X 28.0971 Y 1.0027 Z -1.0000
G03 X 28.1082 Y 0.9891 Z -1.0000 I 0.0564 J 0.0346
G01 X 28.1140 Y 0.9868 Z -1.0000
G01 X 28.1183 Y 0.9896 Z -1.0000
G01 X 28.1210 Y 1.0027 Z -1.0000
G01 X 28.1210 Y 1.0027 Z -1.0000
G00 Z 5.0000

(End cutting path id: path10112)


(Start cutting path id: path10112)
(Change tool to Default tool)

G00 Z 5.0000
G00 X 28.1626 Y 1.0793

G01 Z -1.0000 F 100.0000(Penetrate)
G01 X 28.1429 Y 1.0904 Z -1.0000 F 3500.0000
G01 X 28.1369 Y 1.0857 Z -1.0000
G01 X 28.1420 Y 1.0715 Z -1.0000
G01 X 28.1528 Y 1.0664 Z -1.0000
G01 X 28.1632 Y 1.0606 Z -1.0000
G01 X 28.1700 Y 1.0385 Z -1.0000
G01 X 28.1746 Y 1.0305 Z -1.0000
G01 X 28.1798 Y 1.0321 Z -1.0000
G01 X 28.1801 Y 1.0519 Z -1.0000
G03 X 28.1626 Y 1.0793 Z -1.0000 I -0.0704 J -0.0256
G01 X 28.1626 Y 1.0793 Z -1.0000
G00 Z 5.0000

(End cutting path id: path10112)


(Start cutting path id: path10112)
(Change tool to Default tool)

G00 Z 5.0000
G00 X 28.3676 Y 1.3687

G01 Z -1.0000 F 100.0000(Penetrate)
G01 X 28.3668 Y 1.3795 Z -1.0000 F 3500.0000
G01 X 28.3746 Y 1.3846 Z -1.0000
G01 X 28.3866 Y 1.3798 Z -1.0000
G01 X 28.3914 Y 1.3687 Z -1.0000
G01 X 28.3886 Y 1.3555 Z -1.0000
G01 X 28.3844 Y 1.3528 Z -1.0000
G01 X 28.3786 Y 1.3551 Z -1.0000
G02 X 28.3676 Y 1.3687 Z -1.0000 I 0.0477 J 0.0501
G01 X 28.3676 Y 1.3687 Z -1.0000
G00 Z 5.0000

(End cutting path id: path10112)


(Start cutting path id: path10112)
(Change tool to Default tool)

G00 Z 5.0000
G00 X 28.4775 Y 1.5095

G01 Z -1.0000 F 100.0000(Penetrate)
G01 X 28.4792 Y 1.5234 Z -1.0000 F 3500.0000
G03 X 28.4545 Y 1.5845 Z -1.0000 I -0.3604 J -0.1102
G02 X 28.4254 Y 1.6812 Z -1.0000 I 0.2537 J 0.1293
G01 X 28.4399 Y 1.7112 Z -1.0000
G01 X 28.4463 Y 1.7232 Z -1.0000
G01 X 28.4385 Y 1.7433 Z -1.0000
G02 X 28.4276 Y 1.7656 Z -1.0000 I 0.0411 J 0.0340
G01 X 28.4301 Y 1.7807 Z -1.0000
G01 X 28.4303 Y 1.7940 Z -1.0000
G03 X 28.4116 Y 1.8127 Z -1.0000 I -0.0446 J -0.0257
G01 X 28.4004 Y 1.8248 Z -1.0000
G01 X 28.4033 Y 1.8296 Z -1.0000
G01 X 28.4158 Y 1.8460 Z -1.0000
G01 X 28.3953 Y 1.8622 Z -1.0000
G01 X 28.3829 Y 1.8674 Z -1.0000
G01 X 28.3834 Y 1.8741 Z -1.0000
G01 X 28.3947 Y 1.8884 Z -1.0000
G03 X 28.4021 Y 1.9176 Z -1.0000 I -0.0880 J 0.0376
G01 X 28.3963 Y 1.9279 Z -1.0000
G01 X 28.3861 Y 1.9256 Z -1.0000
G01 X 28.3494 Y 1.9085 Z -1.0000
G01 X 28.3361 Y 1.9272 Z -1.0000
G01 X 28.3374 Y 1.9491 Z -1.0000
G01 X 28.3313 Y 1.9517 Z -1.0000
G01 X 28.3194 Y 1.9393 Z -1.0000
G03 X 28.3068 Y 1.9082 Z -1.0000 I 0.1134 J -0.0640
G01 X 28.3096 Y 1.8812 Z -1.0000
G01 X 28.3277 Y 1.8666 Z -1.0000
G02 X 28.3528 Y 1.8537 Z -1.0000 I -0.0168 J -0.0637
G01 X 28.3668 Y 1.8343 Z -1.0000
G01 X 28.3634 Y 1.8276 Z -1.0000
G01 X 28.3517 Y 1.8301 Z -1.0000
G01 X 28.3274 Y 1.8377 Z -1.0000
G01 X 28.2996 Y 1.8255 Z -1.0000
G02 X 28.2708 Y 1.8116 Z -1.0000 I -0.0380 J 0.0420
G01 X 28.2438 Y 1.8163 Z -1.0000
G02 X 28.2242 Y 1.8343 Z -1.0000 I 0.0289 J 0.0515
G01 X 28.2239 Y 1.8453 Z -1.0000
G01 X 28.2238 Y 1.8558 Z -1.0000
G01 X 28.2103 Y 1.8670 Z -1.0000
G01 X 28.2007 Y 1.8612 Z -1.0000
G03 X 28.2030 Y 1.8108 Z -1.0000 I 0.1435 J -0.0187
G02 X 28.2126 Y 1.7477 Z -1.0000 I -0.4427 J -0.0999
G01 X 28.2090 Y 1.7379 Z -1.0000
G01 X 28.2041 Y 1.7381 Z -1.0000
G01 X 28.2005 Y 1.7479 Z -1.0000
G01 X 28.1953 Y 1.7613 Z -1.0000
G01 X 28.1835 Y 1.7665 Z -1.0000
G01 X 28.1607 Y 1.7370 Z -1.0000
G03 X 28.2032 Y 1.6893 Z -1.0000 I 0.0674 J 0.0173
G01 X 28.2079 Y 1.6812 Z -1.0000
G01 X 28.1981 Y 1.6603 Z -1.0000
G01 X 28.1913 Y 1.6384 Z -1.0000
G01 X 28.2014 Y 1.6207 Z -1.0000
G01 X 28.2008 Y 1.6150 Z -1.0000
G01 X 28.1845 Y 1.6137 Z -1.0000
G03 X 28.1446 Y 1.6218 Z -1.0000 I -0.1963 J -0.8592
G03 X 28.1328 Y 1.6230 Z -1.0000 I -0.0129 J -0.0716
G01 X 28.1247 Y 1.6271 Z -1.0000
G01 X 28.1209 Y 1.6386 Z -1.0000
G01 X 28.1265 Y 1.6459 Z -1.0000
G01 X 28.1449 Y 1.6448 Z -1.0000
G01 X 28.1568 Y 1.6478 Z -1.0000
G01 X 28.1591 Y 1.6612 Z -1.0000
G01 X 28.1442 Y 1.6795 Z -1.0000
G01 X 28.1192 Y 1.6869 Z -1.0000
G02 X 28.0950 Y 1.6929 Z -1.0000 I 0.0000 J 0.0516
G01 X 28.0890 Y 1.7028 Z -1.0000
G01 X 28.0835 Y 1.7132 Z -1.0000
G01 X 28.0652 Y 1.7187 Z -1.0000
G01 X 28.0471 Y 1.7244 Z -1.0000
G01 X 28.0413 Y 1.7357 Z -1.0000
G01 X 28.0350 Y 1.7439 Z -1.0000
G01 X 28.0120 Y 1.7434 Z -1.0000
G01 X 27.9879 Y 1.7460 Z -1.0000
G02 X 27.9654 Y 1.7701 Z -1.0000 I 0.0278 J 0.0485
G01 X 27.9480 Y 1.8062 Z -1.0000
G01 X 27.9469 Y 1.7691 Z -1.0000
G01 X 27.9253 Y 1.7535 Z -1.0000
G02 X 27.8853 Y 1.7875 Z -1.0000 I 0.0187 J 0.0626
G03 X 27.8514 Y 1.8184 Z -1.0000 I -0.0559 J -0.0272
G01 X 27.8344 Y 1.8067 Z -1.0000
G01 X 27.8271 Y 1.7940 Z -1.0000
G01 X 27.8099 Y 1.7927 Z -1.0000
G01 X 27.8015 Y 1.8060 Z -1.0000
G01 X 27.8128 Y 1.8325 Z -1.0000
G01 X 27.8240 Y 1.8623 Z -1.0000
G01 X 27.8118 Y 1.8902 Z -1.0000
G01 X 27.7987 Y 1.8923 Z -1.0000
G01 X 27.7940 Y 1.8818 Z -1.0000
G01 X 27.7848 Y 1.8569 Z -1.0000
G01 X 27.7629 Y 1.8619 Z -1.0000
G01 X 27.7508 Y 1.8738 Z -1.0000
G01 X 27.7361 Y 1.8778 Z -1.0000
G01 X 27.7308 Y 1.8723 Z -1.0000
G01 X 27.7369 Y 1.8565 Z -1.0000
G02 X 27.7473 Y 1.8354 Z -1.0000 I -0.0393 J -0.0325
G01 X 27.7442 Y 1.8246 Z -1.0000
G01 X 27.7225 Y 1.8245 Z -1.0000
G02 X 27.7072 Y 1.8610 Z -1.0000 I 0.0358 J 0.0364
G03 X 27.6897 Y 1.9050 Z -1.0000 I -0.0639 J -0.0000
G01 X 27.6693 Y 1.9009 Z -1.0000
G01 X 27.6231 Y 1.8843 Z -1.0000
G01 X 27.6026 Y 1.9387 Z -1.0000
G01 X 27.5987 Y 1.9423 Z -1.0000
G01 X 27.5814 Y 1.9295 Z -1.0000
G01 X 27.5501 Y 1.9132 Z -1.0000
G01 X 27.5401 Y 1.9255 Z -1.0000
G01 X 27.5395 Y 1.9494 Z -1.0000
G01 X 27.5280 Y 1.9573 Z -1.0000
G01 X 27.5065 Y 1.9389 Z -1.0000
G01 X 27.5189 Y 1.8988 Z -1.0000
G02 X 27.5412 Y 1.8672 Z -1.0000 I -0.1020 J -0.0959
G01 X 27.5380 Y 1.8619 Z -1.0000
G01 X 27.5015 Y 1.8789 Z -1.0000
G02 X 27.4276 Y 1.9934 Z -1.0000 I 0.4186 J 0.3512
G03 X 27.3772 Y 2.0702 Z -1.0000 I -0.3121 J -0.1500
G01 X 27.3558 Y 2.0762 Z -1.0000
G02 X 27.3305 Y 2.0743 Z -1.0000 I -0.0166 J 0.0517
G01 X 27.3188 Y 2.0821 Z -1.0000
G01 X 27.3206 Y 2.0903 Z -1.0000
G01 X 27.3374 Y 2.0947 Z -1.0000
G01 X 27.3558 Y 2.1018 Z -1.0000
G01 X 27.3627 Y 2.1215 Z -1.0000
G01 X 27.3687 Y 2.1391 Z -1.0000
G01 X 27.3818 Y 2.1422 Z -1.0000
G01 X 27.3909 Y 2.1464 Z -1.0000
G01 X 27.3908 Y 2.1677 Z -1.0000
G03 X 27.3720 Y 2.1932 Z -1.0000 I -0.0538 J -0.0199
G03 X 27.3438 Y 2.2040 Z -1.0000 I -0.0320 J -0.0414
G01 X 27.3204 Y 2.1916 Z -1.0000
G01 X 27.3253 Y 2.1721 Z -1.0000
G01 X 27.3361 Y 2.1595 Z -1.0000
G02 X 27.3407 Y 2.1354 Z -1.0000 I -0.0551 J -0.0230
G01 X 27.3334 Y 2.1293 Z -1.0000
G01 X 27.3168 Y 2.1394 Z -1.0000
G02 X 27.3007 Y 2.1952 Z -1.0000 I 0.0649 J 0.0491
G01 X 27.3238 Y 2.2228 Z -1.0000
G03 X 27.3481 Y 2.2369 Z -1.0000 I -0.0135 J 0.0512
G03 X 27.3624 Y 2.2620 Z -1.0000 I -0.0400 J 0.0393
G01 X 27.3584 Y 2.2742 Z -1.0000
G01 X 27.3476 Y 2.2742 Z -1.0000
G02 X 27.3249 Y 2.2625 Z -1.0000 I -0.0381 J 0.0458
G01 X 27.3143 Y 2.2653 Z -1.0000
G01 X 27.3137 Y 2.2715 Z -1.0000
G01 X 27.3212 Y 2.2755 Z -1.0000
G01 X 27.3298 Y 2.2821 Z -1.0000
G03 X 27.3297 Y 2.3082 Z -1.0000 I -0.0500 J 0.0130
G01 X 27.3156 Y 2.3298 Z -1.0000
G01 X 27.2994 Y 2.3321 Z -1.0000
G01 X 27.2498 Y 2.3192 Z -1.0000
G01 X 27.2631 Y 2.3436 Z -1.0000
G03 X 27.2419 Y 2.4494 Z -1.0000 I -0.3924 J -0.0238
G03 X 27.2031 Y 2.4976 Z -1.0000 I -0.0872 J -0.0304
G01 X 27.1791 Y 2.4881 Z -1.0000
G03 X 27.1805 Y 2.4505 Z -1.0000 I 0.0611 J -0.0165
G03 X 27.2072 Y 2.4081 Z -1.0000 I 0.1071 J 0.0378
G02 X 27.2363 Y 2.3677 Z -1.0000 I -0.1091 J -0.1091
G01 X 27.2355 Y 2.3513 Z -1.0000
G01 X 27.2262 Y 2.3496 Z -1.0000
G01 X 27.2115 Y 2.3693 Z -1.0000
G03 X 27.1942 Y 2.3931 Z -1.0000 I -0.0515 J -0.0192
G01 X 27.1806 Y 2.3939 Z -1.0000
G01 X 27.1748 Y 2.3829 Z -1.0000
G01 X 27.1818 Y 2.3712 Z -1.0000
G01 X 27.1833 Y 2.3621 Z -1.0000
G01 X 27.1643 Y 2.3499 Z -1.0000
G02 X 27.1289 Y 2.3445 Z -1.0000 I -0.0443 J 0.1707
G01 X 27.1205 Y 2.3477 Z -1.0000
G01 X 27.1211 Y 2.3518 Z -1.0000
G01 X 27.1337 Y 2.3550 Z -1.0000
G01 X 27.1406 Y 2.3614 Z -1.0000
G01 X 27.1356 Y 2.3775 Z -1.0000
G01 X 27.1275 Y 2.3982 Z -1.0000
G01 X 27.1339 Y 2.4104 Z -1.0000
G01 X 27.1439 Y 2.4225 Z -1.0000
G01 X 27.1428 Y 2.4339 Z -1.0000
G01 X 27.1400 Y 2.4474 Z -1.0000
G02 X 27.1522 Y 2.4968 Z -1.0000 I 0.2666 J -0.0396
G03 X 27.1602 Y 2.5450 Z -1.0000 I -0.1362 J 0.0475
G01 X 27.1518 Y 2.5680 Z -1.0000
G01 X 27.1415 Y 2.5916 Z -1.0000
G02 X 27.1416 Y 2.6480 Z -1.0000 I 0.2203 J 0.0281
G03 X 27.1389 Y 2.7005 Z -1.0000 I -0.1484 J 0.0188
G01 X 27.1259 Y 2.7155 Z -1.0000
G01 X 27.1117 Y 2.7274 Z -1.0000
G01 X 27.1117 Y 2.7388 Z -1.0000
G01 X 27.1222 Y 2.7471 Z -1.0000
G01 X 27.1330 Y 2.7457 Z -1.0000
G01 X 27.1834 Y 2.7745 Z -1.0000
G03 X 27.1285 Y 2.9568 Z -1.0000 I -0.3552 J -0.0075
G02 X 27.1212 Y 2.9770 Z -1.0000 I 0.0424 J 0.0269
G01 X 27.1245 Y 2.9869 Z -1.0000
G01 X 27.1318 Y 2.9871 Z -1.0000
G01 X 27.1437 Y 2.9699 Z -1.0000
G03 X 27.1573 Y 2.9489 Z -1.0000 I 0.0564 J 0.0216
G01 X 27.1697 Y 2.9438 Z -1.0000
G01 X 27.1774 Y 2.9494 Z -1.0000
G01 X 27.1770 Y 2.9663 Z -1.0000
G01 X 27.1778 Y 2.9847 Z -1.0000
G01 X 27.1925 Y 2.9981 Z -1.0000
G01 X 27.2200 Y 2.9989 Z -1.0000
G01 X 27.2354 Y 2.9844 Z -1.0000
G01 X 27.2329 Y 2.9727 Z -1.0000
G01 X 27.2212 Y 2.9702 Z -1.0000
G01 X 27.2039 Y 2.9706 Z -1.0000
G01 X 27.1981 Y 2.9627 Z -1.0000
G02 X 27.1962 Y 2.9467 Z -1.0000 I -0.0679 J -0.0000
G02 X 27.1875 Y 2.9186 Z -1.0000 I -0.2226 J 0.0539
G01 X 27.1870 Y 2.9031 Z -1.0000
G01 X 27.1931 Y 2.9008 Z -1.0000
G01 X 27.2088 Y 2.9029 Z -1.0000
G02 X 27.2395 Y 2.8867 Z -1.0000 I -0.0265 J -0.0876
G01 X 27.2414 Y 2.8770 Z -1.0000
G01 X 27.2318 Y 2.8730 Z -1.0000
G01 X 27.1940 Y 2.8835 Z -1.0000
G01 X 27.2239 Y 2.8431 Z -1.0000
G03 X 27.2580 Y 2.8088 Z -1.0000 I 0.1331 J 0.0984
G03 X 27.2910 Y 2.7930 Z -1.0000 I 0.0569 J 0.0762
G01 X 27.3106 Y 2.7777 Z -1.0000
G01 X 27.3089 Y 2.7601 Z -1.0000
G01 X 27.3038 Y 2.7431 Z -1.0000
G01 X 27.3115 Y 2.7357 Z -1.0000
G02 X 27.3332 Y 2.7337 Z -1.0000 I -0.0166 J -0.2968
G02 X 27.3601 Y 2.7293 Z -1.0000 I -0.0535 J -0.4120
G01 X 27.3754 Y 2.7337 Z -1.0000
G01 X 27.3783 Y 2.7463 Z -1.0000
G01 X 27.3675 Y 2.7616 Z -1.0000
G01 X 27.3595 Y 2.7622 Z -1.0000
G01 X 27.3542 Y 2.7646 Z -1.0000
G02 X 27.3496 Y 2.8259 Z -1.0000 I 0.3807 J 0.0594
G03 X 27.3453 Y 2.8914 Z -1.0000 I -0.4555 J 0.0025
G01 X 27.3399 Y 2.8960 Z -1.0000
G01 X 27.3352 Y 2.9005 Z -1.0000
G02 X 27.3372 Y 2.9346 Z -1.0000 I 0.1315 J 0.0091
G03 X 27.3324 Y 3.0589 Z -1.0000 I -0.2720 J 0.0517
G01 X 27.2958 Y 3.0869 Z -1.0000
G01 X 27.2692 Y 3.1129 Z -1.0000
G02 X 27.2940 Y 3.1587 Z -1.0000 I 0.0523 J 0.0013
G01 X 27.3014 Y 3.1700 Z -1.0000
G03 X 27.2994 Y 3.1949 Z -1.0000 I -0.0539 J 0.0081
G01 X 27.3019 Y 3.2002 Z -1.0000
G01 X 27.3084 Y 3.1984 Z -1.0000
G01 X 27.3262 Y 3.1912 Z -1.0000
G01 X 27.3497 Y 3.2054 Z -1.0000
G01 X 27.3668 Y 3.2104 Z -1.0000
G01 X 27.3756 Y 3.1959 Z -1.0000
G01 X 27.3779 Y 3.1869 Z -1.0000
G03 X 27.3976 Y 3.1661 Z -1.0000 I 0.0943 J 0.0693
G02 X 27.4159 Y 3.1443 Z -1.0000 I -0.0509 J -0.0614
G01 X 27.4210 Y 3.1253 Z -1.0000
G01 X 27.4279 Y 3.1140 Z -1.0000
G01 X 27.4449 Y 3.1131 Z -1.0000
G01 X 27.4587 Y 3.1091 Z -1.0000
G01 X 27.4648 Y 3.0865 Z -1.0000
G03 X 27.4696 Y 3.0566 Z -1.0000 I 0.0555 J -0.0064
G01 X 27.4846 Y 3.0437 Z -1.0000
G01 X 27.4894 Y 3.0459 Z -1.0000
G01 X 27.4880 Y 3.0512 Z -1.0000
G01 X 27.4760 Y 3.0682 Z -1.0000
G01 X 27.4770 Y 3.0903 Z -1.0000
G01 X 27.4753 Y 3.1119 Z -1.0000
G03 X 27.4418 Y 3.1508 Z -1.0000 I -0.1210 J -0.0702
G02 X 27.4127 Y 3.1841 Z -1.0000 I 0.0790 J 0.0984
G01 X 27.4160 Y 3.1936 Z -1.0000
G01 X 27.4270 Y 3.2046 Z -1.0000
G01 X 27.4277 Y 3.2272 Z -1.0000
G01 X 27.4446 Y 3.2023 Z -1.0000
G03 X 27.4705 Y 3.1534 Z -1.0000 I 0.4923 J 0.2299
G01 X 27.4755 Y 3.1506 Z -1.0000
G01 X 27.4787 Y 3.1538 Z -1.0000
G03 X 27.4740 Y 3.2341 Z -1.0000 I -1.0159 J -0.0188
G02 X 27.4798 Y 3.3106 Z -1.0000 I 0.2203 J 0.0218
G01 X 27.5007 Y 3.3387 Z -1.0000
G02 X 27.5224 Y 3.3467 Z -1.0000 I 0.0316 J -0.0524
G01 X 27.5251 Y 3.3427 Z -1.0000
G01 X 27.5233 Y 3.3306 Z -1.0000
G01 X 27.5298 Y 3.3256 Z -1.0000
G01 X 27.5408 Y 3.3197 Z -1.0000
G02 X 27.5621 Y 3.2767 Z -1.0000 I -0.1611 J -0.1066
G01 X 27.5881 Y 3.2685 Z -1.0000
G01 X 27.6068 Y 3.3090 Z -1.0000
G02 X 27.6236 Y 3.4044 Z -1.0000 I 0.1926 J 0.0153
G01 X 27.6510 Y 3.4061 Z -1.0000
G01 X 27.6511 Y 3.3949 Z -1.0000
G01 X 27.6406 Y 3.3888 Z -1.0000
G01 X 27.6371 Y 3.3838 Z -1.0000
G01 X 27.6455 Y 3.3733 Z -1.0000
G01 X 27.6615 Y 3.3539 Z -1.0000
G02 X 27.6640 Y 3.3203 Z -1.0000 I -0.0613 J -0.0213
G03 X 27.6673 Y 3.2883 Z -1.0000 I 0.0546 J -0.0105
G01 X 27.6842 Y 3.2718 Z -1.0000
G01 X 27.6938 Y 3.2742 Z -1.0000
G01 X 27.6940 Y 3.2828 Z -1.0000
G01 X 27.6927 Y 3.3341 Z -1.0000
G01 X 27.7436 Y 3.3487 Z -1.0000
G02 X 27.7661 Y 3.3348 Z -1.0000 I -0.0261 J -0.0679
G01 X 27.7710 Y 3.3239 Z -1.0000
G01 X 27.7755 Y 3.3142 Z -1.0000
G01 X 27.7878 Y 3.3097 Z -1.0000
G01 X 27.7957 Y 3.3148 Z -1.0000
G01 X 27.7949 Y 3.3255 Z -1.0000
G01 X 27.7969 Y 3.3315 Z -1.0000
G01 X 27.8103 Y 3.3316 Z -1.0000
G01 X 27.8210 Y 3.3181 Z -1.0000
G01 X 27.8151 Y 3.2973 Z -1.0000
G01 X 27.8070 Y 3.2762 Z -1.0000
G01 X 27.8138 Y 3.2663 Z -1.0000
G01 X 27.8250 Y 3.2562 Z -1.0000
G01 X 27.8254 Y 3.2406 Z -1.0000
G01 X 27.8250 Y 3.2224 Z -1.0000
G03 X 27.8428 Y 3.1899 Z -1.0000 I 0.1031 J 0.0353
G01 X 27.8550 Y 3.1918 Z -1.0000
G03 X 27.8630 Y 3.2421 Z -1.0000 I -0.1128 J 0.0437
G02 X 27.8670 Y 3.3175 Z -1.0000 I 0.3516 J 0.0194
G01 X 27.8765 Y 3.3257 Z -1.0000
G01 X 27.9066 Y 3.3040 Z -1.0000
G02 X 27.9314 Y 3.1626 Z -1.0000 I -0.4522 J -0.1523
G01 X 27.9549 Y 3.1432 Z -1.0000
G01 X 27.9784 Y 3.1706 Z -1.0000
G01 X 27.9789 Y 3.2064 Z -1.0000
G01 X 27.9983 Y 3.1722 Z -1.0000
G01 X 28.0195 Y 3.1549 Z -1.0000
G01 X 28.0375 Y 3.1596 Z -1.0000
G03 X 28.0535 Y 3.1826 Z -1.0000 I -0.0755 J 0.0696
G01 X 28.0574 Y 3.1987 Z -1.0000
G01 X 28.0625 Y 3.2069 Z -1.0000
G01 X 28.0733 Y 3.2064 Z -1.0000
G01 X 28.0830 Y 3.2079 Z -1.0000
G01 X 28.0897 Y 3.2253 Z -1.0000
G01 X 28.0956 Y 3.2332 Z -1.0000
G01 X 28.1044 Y 3.2297 Z -1.0000
G02 X 28.1132 Y 3.1782 Z -1.0000 I -0.0638 J -0.0374
G01 X 28.0907 Y 3.1593 Z -1.0000
G01 X 28.0649 Y 3.1458 Z -1.0000
G03 X 28.0499 Y 3.1029 Z -1.0000 I 0.0643 J -0.0465
G03 X 28.0519 Y 3.0479 Z -1.0000 I 0.3380 J -0.0154
G03 X 28.0609 Y 3.0088 Z -1.0000 I 0.1815 J 0.0214
G02 X 28.0646 Y 2.9737 Z -1.0000 I -0.0706 J -0.0250
G01 X 28.0540 Y 2.9573 Z -1.0000
G01 X 28.0542 Y 2.9502 Z -1.0000
G01 X 28.0765 Y 2.9440 Z -1.0000
G02 X 28.1772 Y 2.9198 Z -1.0000 I -0.0013 J -0.2258
G01 X 28.2001 Y 2.8816 Z -1.0000
G01 X 28.1933 Y 2.8757 Z -1.0000
G01 X 28.1785 Y 2.8842 Z -1.0000
G03 X 28.1532 Y 2.9036 Z -1.0000 I -0.0480 J -0.0364
G03 X 28.1113 Y 2.9115 Z -1.0000 I -0.0406 J -0.0998
G01 X 28.0654 Y 2.9110 Z -1.0000
G01 X 28.1029 Y 2.8797 Z -1.0000
G03 X 28.1422 Y 2.8531 Z -1.0000 I 0.1540 J 0.1848
G01 X 28.1606 Y 2.8484 Z -1.0000
G01 X 28.1744 Y 2.8406 Z -1.0000
G02 X 28.1916 Y 2.7967 Z -1.0000 I -0.1222 J -0.0732
G01 X 28.2024 Y 2.7450 Z -1.0000
G01 X 28.2242 Y 2.8066 Z -1.0000
G02 X 28.2635 Y 2.8678 Z -1.0000 I 0.1491 J -0.0526
G01 X 28.2802 Y 2.8607 Z -1.0000
G03 X 28.2862 Y 2.8213 Z -1.0000 I 0.1311 J -0.0000
G03 X 28.3000 Y 2.7978 Z -1.0000 I 0.0576 J 0.0181
G02 X 28.3297 Y 2.7305 Z -1.0000 I -0.0796 J -0.0753
G02 X 28.3083 Y 2.6852 Z -1.0000 I -0.0508 J -0.0037
G01 X 28.3013 Y 2.6725 Z -1.0000
G01 X 28.3071 Y 2.6632 Z -1.0000
G01 X 28.3176 Y 2.6517 Z -1.0000
G01 X 28.3169 Y 2.6314 Z -1.0000
G01 X 28.3201 Y 2.6176 Z -1.0000
G01 X 28.3371 Y 2.6125 Z -1.0000
G01 X 28.3558 Y 2.6040 Z -1.0000
G02 X 28.3715 Y 2.5553 Z -1.0000 I -0.0962 J -0.0579
G02 X 28.3698 Y 2.4963 Z -1.0000 I -0.2677 J -0.0218
G01 X 28.3615 Y 2.4835 Z -1.0000
G03 X 28.3333 Y 2.4061 Z -1.0000 I 0.0349 J -0.0565
G03 X 28.4038 Y 2.3552 Z -1.0000 I 0.0705 J 0.0233
G01 X 28.4194 Y 2.3482 Z -1.0000
G02 X 28.4393 Y 2.3154 Z -1.0000 I -0.0789 J -0.0704
G03 X 28.4580 Y 2.2807 Z -1.0000 I 0.1409 J 0.0534
G01 X 28.4680 Y 2.2756 Z -1.0000
G01 X 28.4755 Y 2.2697 Z -1.0000
G02 X 28.4812 Y 2.2239 Z -1.0000 I -0.1746 J -0.0447
G03 X 28.4850 Y 2.1730 Z -1.0000 I 0.3159 J -0.0020
G03 X 28.4942 Y 2.1404 Z -1.0000 I 0.1379 J 0.0216
G01 X 28.4932 Y 2.1292 Z -1.0000
G01 X 28.4862 Y 2.1284 Z -1.0000
G01 X 28.4599 Y 2.1326 Z -1.0000
G01 X 28.4430 Y 2.1085 Z -1.0000
G03 X 28.4470 Y 2.0755 Z -1.0000 I 0.0823 J -0.0068
G01 X 28.4564 Y 2.0688 Z -1.0000
G01 X 28.4642 Y 2.0638 Z -1.0000
G01 X 28.4637 Y 2.0535 Z -1.0000
G01 X 28.4516 Y 2.0454 Z -1.0000
G02 X 28.4269 Y 2.0470 Z -1.0000 I -0.0090 J 0.0512
G01 X 28.4171 Y 2.0423 Z -1.0000
G01 X 28.4303 Y 2.0262 Z -1.0000
G02 X 28.4429 Y 1.9891 Z -1.0000 I -0.1430 J -0.0695
G03 X 28.4525 Y 1.9497 Z -1.0000 I 0.6473 J 0.1361
G03 X 28.4627 Y 1.9175 Z -1.0000 I 0.4174 J 0.1149
G01 X 28.4616 Y 1.9095 Z -1.0000
G01 X 28.4570 Y 1.9095 Z -1.0000
G01 X 28.4447 Y 1.9182 Z -1.0000
G01 X 28.4396 Y 1.9144 Z -1.0000
G01 X 28.4437 Y 1.8979 Z -1.0000
G01 X 28.4555 Y 1.8855 Z -1.0000
G01 X 28.4642 Y 1.8737 Z -1.0000
G01 X 28.4621 Y 1.8600 Z -1.0000
G01 X 28.4599 Y 1.8450 Z -1.0000
G03 X 28.4723 Y 1.8206 Z -1.0000 I 0.0610 J 0.0159
G01 X 28.4816 Y 1.7973 Z -1.0000
G01 X 28.4749 Y 1.7796 Z -1.0000
G01 X 28.4661 Y 1.7402 Z -1.0000
G01 X 28.4968 Y 1.7186 Z -1.0000
G01 X 28.5139 Y 1.7135 Z -1.0000
G01 X 28.5189 Y 1.7042 Z -1.0000
G01 X 28.5133 Y 1.6971 Z -1.0000
G02 X 28.4893 Y 1.6975 Z -1.0000 I -0.0112 J 0.0494
G01 X 28.4664 Y 1.6937 Z -1.0000
G01 X 28.4510 Y 1.6721 Z -1.0000
G03 X 28.4499 Y 1.6448 Z -1.0000 I 0.0617 J -0.0163
G01 X 28.4568 Y 1.6390 Z -1.0000
G01 X 28.4661 Y 1.6444 Z -1.0000
G03 X 28.4726 Y 1.6668 Z -1.0000 I -0.0438 J 0.0249
G01 X 28.4772 Y 1.6683 Z -1.0000
G02 X 28.4878 Y 1.6483 Z -1.0000 I -0.0444 J -0.0365
G02 X 28.4965 Y 1.6026 Z -1.0000 I -0.2209 J -0.0658
G01 X 28.4930 Y 1.5879 Z -1.0000
G01 X 28.4911 Y 1.5744 Z -1.0000
G03 X 28.5030 Y 1.5515 Z -1.0000 I 0.0593 J 0.0164
G01 X 28.5103 Y 1.5141 Z -1.0000
G01 X 28.4852 Y 1.4958 Z -1.0000
G01 X 28.4775 Y 1.5004 Z -1.0000
G01 X 28.4777 Y 1.5093 Z -1.0000
G01 X 28.4775 Y 1.5095 Z -1.0000
G00 Z 5.0000

(End cutting path id: path10112)


(Start cutting path id: path10112)
(Change tool to Default tool)

G00 Z 5.0000
G00 X 28.5754 Y 1.4277

G01 Z -1.0000 F 100.0000(Penetrate)
G01 X 28.5773 Y 1.4365 Z -1.0000 F 3500.0000
G01 X 28.5843 Y 1.4366 Z -1.0000
G02 X 28.5971 Y 1.4169 Z -1.0000 I -0.0391 J -0.0394
G01 X 28.5952 Y 1.4080 Z -1.0000
G01 X 28.5882 Y 1.4080 Z -1.0000
G02 X 28.5754 Y 1.4277 Z -1.0000 I 0.0389 J 0.0393
G01 X 28.5754 Y 1.4277 Z -1.0000
G00 Z 5.0000

(End cutting path id: path10112)


(Start cutting path id: path10112)
(Change tool to Default tool)

G00 Z 5.0000
G00 X 28.5933 Y 1.5813

G01 Z -1.0000 F 100.0000(Penetrate)
G02 X 28.5858 Y 1.6256 Z -1.0000 I 0.2184 J 0.0600 F 3500.0000
G01 X 28.5895 Y 1.6357 Z -1.0000
G01 X 28.6045 Y 1.6326 Z -1.0000
G02 X 28.6112 Y 1.5809 Z -1.0000 I -0.0989 J -0.0392
G01 X 28.6058 Y 1.5357 Z -1.0000
G01 X 28.5933 Y 1.5813 Z -1.0000
G00 Z 5.0000

(End cutting path id: path10112)


(Start cutting path id: path10112)
(Change tool to Default tool)

G00 Z 5.0000
G00 X 28.6374 Y 1.6402

G01 Z -1.0000 F 100.0000(Penetrate)
G01 X 28.6316 Y 1.6566 Z -1.0000 F 3500.0000
G01 X 28.6345 Y 1.6647 Z -1.0000
G01 X 28.6405 Y 1.6647 Z -1.0000
G01 X 28.6515 Y 1.6478 Z -1.0000
G01 X 28.6476 Y 1.6374 Z -1.0000
G01 X 28.6374 Y 1.6402 Z -1.0000
G01 X 28.6374 Y 1.6402 Z -1.0000
G00 Z 5.0000

(End cutting path id: path10112)


(Start cutting path id: path10112)
(Change tool to Default tool)

G00 Z 5.0000
G00 X 28.5346 Y 1.6541

G01 Z -1.0000 F 100.0000(Penetrate)
G01 X 28.5384 Y 1.6669 Z -1.0000 F 3500.0000
G01 X 28.5503 Y 1.6788 Z -1.0000
G01 X 28.5564 Y 1.6768 Z -1.0000
G01 X 28.5566 Y 1.6638 Z -1.0000
G01 X 28.5425 Y 1.6490 Z -1.0000
G01 X 28.5347 Y 1.6541 Z -1.0000
G01 X 28.5346 Y 1.6541 Z -1.0000
G00 Z 5.0000

(End cutting path id: path10112)


(Start cutting path id: path10112)
(Change tool to Default tool)

G00 Z 5.0000
G00 X 28.4928 Y 1.7552

G01 Z -1.0000 F 100.0000(Penetrate)
G01 X 28.4948 Y 1.7626 Z -1.0000 F 3500.0000
G01 X 28.5080 Y 1.7588 Z -1.0000
G01 X 28.5292 Y 1.7685 Z -1.0000
G01 X 28.5453 Y 1.7750 Z -1.0000
G01 X 28.5505 Y 1.7701 Z -1.0000
G01 X 28.5276 Y 1.7405 Z -1.0000
G01 X 28.4928 Y 1.7552 Z -1.0000
G01 X 28.4928 Y 1.7552 Z -1.0000
G00 Z 5.0000

(End cutting path id: path10112)


(Start cutting path id: path10112)
(Change tool to Default tool)

G00 Z 5.0000
G00 X 28.5907 Y 1.7710

G01 Z -1.0000 F 100.0000(Penetrate)
G03 X 28.5904 Y 1.8155 Z -1.0000 I -0.1800 J 0.0211 F 3500.0000
G01 X 28.5847 Y 1.8168 Z -1.0000
G01 X 28.5777 Y 1.8173 Z -1.0000
G02 X 28.5726 Y 1.8438 Z -1.0000 I 0.0543 J 0.0243
G02 X 28.5839 Y 1.8843 Z -1.0000 I 0.0901 J -0.0033
G01 X 28.6038 Y 1.8997 Z -1.0000
G01 X 28.6206 Y 1.8948 Z -1.0000
G01 X 28.6252 Y 1.8767 Z -1.0000
G01 X 28.6252 Y 1.8522 Z -1.0000
G01 X 28.6333 Y 1.8459 Z -1.0000
G01 X 28.6408 Y 1.8400 Z -1.0000
G01 X 28.6395 Y 1.8201 Z -1.0000
G01 X 28.6371 Y 1.7954 Z -1.0000
G03 X 28.6480 Y 1.7720 Z -1.0000 I 0.0501 J 0.0090
G01 X 28.6485 Y 1.7626 Z -1.0000
G01 X 28.6401 Y 1.7598 Z -1.0000
G01 X 28.6260 Y 1.7577 Z -1.0000
G01 X 28.6228 Y 1.7464 Z -1.0000
G01 X 28.6221 Y 1.7271 Z -1.0000
G01 X 28.6073 Y 1.7133 Z -1.0000
G01 X 28.5949 Y 1.7195 Z -1.0000
G02 X 28.5906 Y 1.7710 Z -1.0000 I 0.1250 J 0.0362
G01 X 28.5907 Y 1.7710 Z -1.0000
G00 Z 5.0000

(End cutting path id: path10112)


(Start cutting path id: path10112)
(Change tool to Default tool)

G00 Z 5.0000
G00 X 28.7270 Y 1.7983

G01 Z -1.0000 F 100.0000(Penetrate)
G02 X 28.7435 Y 1.8545 Z -1.0000 I 0.0912 J 0.0038 F 3500.0000
G01 X 28.7680 Y 1.8566 Z -1.0000
G01 X 28.7714 Y 1.8452 Z -1.0000
G01 X 28.7633 Y 1.8332 Z -1.0000
G03 X 28.7490 Y 1.8198 Z -1.0000 I 0.0302 J -0.0466
G03 X 28.7371 Y 1.7983 Z -1.0000 I 0.0713 J -0.0533
G01 X 28.7313 Y 1.7942 Z -1.0000
G01 X 28.7270 Y 1.7983 Z -1.0000
G01 X 28.7270 Y 1.7983 Z -1.0000
G00 Z 5.0000

(End cutting path id: path10112)


(Start cutting path id: path10112)
(Change tool to Default tool)

G00 Z 5.0000
G00 X 28.7417 Y 1.7274

G01 Z -1.0000 F 100.0000(Penetrate)
G02 X 28.7613 Y 1.7791 Z -1.0000 I 0.0764 J 0.0006 F 3500.0000
G02 X 28.8043 Y 1.7970 Z -1.0000 I 0.0402 J -0.0362
G01 X 28.8109 Y 1.7927 Z -1.0000
G01 X 28.8090 Y 1.7877 Z -1.0000
G01 X 28.7974 Y 1.7769 Z -1.0000
G01 X 28.7979 Y 1.7652 Z -1.0000
G01 X 28.7957 Y 1.7600 Z -1.0000
G01 X 28.7795 Y 1.7613 Z -1.0000
G01 X 28.7639 Y 1.7621 Z -1.0000
G01 X 28.7617 Y 1.7564 Z -1.0000
G01 X 28.7650 Y 1.7410 Z -1.0000
G02 X 28.7566 Y 1.7179 Z -1.0000 I -0.0571 J 0.0076
G01 X 28.7480 Y 1.7160 Z -1.0000
G01 X 28.7417 Y 1.7274 Z -1.0000
G01 X 28.7417 Y 1.7274 Z -1.0000
G00 Z 5.0000

(End cutting path id: path10112)


(Start cutting path id: path10112)
(Change tool to Default tool)

G00 Z 5.0000
G00 X 28.7936 Y 1.6729

G01 Z -1.0000 F 100.0000(Penetrate)
G01 X 28.7807 Y 1.7144 Z -1.0000 F 3500.0000
G01 X 28.8050 Y 1.7346 Z -1.0000
G01 X 28.8131 Y 1.7295 Z -1.0000
G02 X 28.8249 Y 1.6948 Z -1.0000 I -0.1194 J -0.0598
G01 X 28.8152 Y 1.6710 Z -1.0000
G01 X 28.7936 Y 1.6729 Z -1.0000
G01 X 28.7936 Y 1.6729 Z -1.0000
G00 Z 5.0000

(End cutting path id: path10112)


(Start cutting path id: path10112)
(Change tool to Default tool)

G00 Z 5.0000
G00 X 28.8244 Y 1.6009

G01 Z -1.0000 F 100.0000(Penetrate)
G01 X 28.8154 Y 1.6181 Z -1.0000 F 3500.0000
G01 X 28.8195 Y 1.6232 Z -1.0000
G01 X 28.8521 Y 1.6074 Z -1.0000
G01 X 28.8505 Y 1.5840 Z -1.0000
G01 X 28.8450 Y 1.5835 Z -1.0000
G02 X 28.8244 Y 1.6009 Z -1.0000 I 0.0589 J 0.0907
G01 X 28.8244 Y 1.6009 Z -1.0000
G00 Z 5.0000

(End cutting path id: path10112)


(Start cutting path id: path10112)
(Change tool to Default tool)

G00 Z 5.0000
G00 X 28.8926 Y 1.4642

G01 Z -1.0000 F 100.0000(Penetrate)
G01 X 28.8916 Y 1.4752 Z -1.0000 F 3500.0000
G01 X 28.8987 Y 1.4801 Z -1.0000
G01 X 28.9125 Y 1.4761 Z -1.0000
G01 X 28.9245 Y 1.4642 Z -1.0000
G01 X 28.9255 Y 1.4531 Z -1.0000
G01 X 28.9184 Y 1.4482 Z -1.0000
G01 X 28.9046 Y 1.4522 Z -1.0000
G01 X 28.8926 Y 1.4642 Z -1.0000
G01 X 28.8926 Y 1.4642 Z -1.0000
G00 Z 5.0000

(End cutting path id: path10112)


(Start cutting path id: path10112)
(Change tool to Default tool)

G00 Z 5.0000
G00 X 28.9874 Y 1.5765

G01 Z -1.0000 F 100.0000(Penetrate)
G01 X 28.9817 Y 1.5929 Z -1.0000 F 3500.0000
G01 X 28.9845 Y 1.6011 Z -1.0000
G01 X 28.9905 Y 1.6011 Z -1.0000
G01 X 29.0015 Y 1.5841 Z -1.0000
G01 X 28.9977 Y 1.5738 Z -1.0000
G01 X 28.9874 Y 1.5765 Z -1.0000
G01 X 28.9874 Y 1.5765 Z -1.0000
G00 Z 5.0000

(End cutting path id: path10112)


(Start cutting path id: path10112)
(Change tool to Default tool)

G00 Z 5.0000
G00 X 28.9483 Y 1.7992

G01 Z -1.0000 F 100.0000(Penetrate)
G01 X 28.9534 Y 1.8070 Z -1.0000 F 3500.0000
G01 X 28.9642 Y 1.8062 Z -1.0000
G02 X 28.9779 Y 1.7951 Z -1.0000 I -0.0346 J -0.0564
G01 X 28.9801 Y 1.7893 Z -1.0000
G01 X 28.9773 Y 1.7851 Z -1.0000
G01 X 28.9642 Y 1.7823 Z -1.0000
G01 X 28.9531 Y 1.7872 Z -1.0000
G01 X 28.9483 Y 1.7992 Z -1.0000
G01 X 28.9483 Y 1.7992 Z -1.0000
G00 Z 5.0000

(End cutting path id: path10112)


(Start cutting path id: path10112)
(Change tool to Default tool)

G00 Z 5.0000
G00 X 29.0995 Y 2.1483

G01 Z -1.0000 F 100.0000(Penetrate)
G01 X 29.0987 Y 2.1592 Z -1.0000 F 3500.0000
G01 X 29.1065 Y 2.1642 Z -1.0000
G01 X 29.1186 Y 2.1594 Z -1.0000
G01 X 29.1233 Y 2.1483 Z -1.0000
G01 X 29.1205 Y 2.1351 Z -1.0000
G01 X 29.1163 Y 2.1324 Z -1.0000
G01 X 29.1105 Y 2.1347 Z -1.0000
G02 X 29.0995 Y 2.1483 Z -1.0000 I 0.0477 J 0.0501
G01 X 29.0995 Y 2.1483 Z -1.0000
G00 Z 5.0000

(End cutting path id: path10112)


(Start cutting path id: path10112)
(Change tool to Default tool)

G00 Z 5.0000
G00 X 29.0756 Y 2.2129

G01 Z -1.0000 F 100.0000(Penetrate)
G01 X 29.0807 Y 2.2206 Z -1.0000 F 3500.0000
G01 X 29.0915 Y 2.2199 Z -1.0000
G02 X 29.1051 Y 2.2087 Z -1.0000 I -0.0346 J -0.0564
G01 X 29.1074 Y 2.2030 Z -1.0000
G01 X 29.1046 Y 2.1987 Z -1.0000
G01 X 29.0915 Y 2.1960 Z -1.0000
G01 X 29.0804 Y 2.2008 Z -1.0000
G01 X 29.0756 Y 2.2129 Z -1.0000
G01 X 29.0756 Y 2.2129 Z -1.0000
G00 Z 5.0000

(End cutting path id: path10112)


(Start cutting path id: path10112)
(Change tool to Default tool)

G00 Z 5.0000
G00 X 28.8959 Y 2.6258

G01 Z -1.0000 F 100.0000(Penetrate)
G02 X 28.8943 Y 2.6522 Z -1.0000 I 0.0649 J 0.0171 F 3500.0000
G01 X 28.9003 Y 2.6574 Z -1.0000
G01 X 28.9299 Y 2.6357 Z -1.0000
G01 X 28.9176 Y 2.6024 Z -1.0000
G01 X 28.9080 Y 2.6037 Z -1.0000
G02 X 28.8959 Y 2.6258 Z -1.0000 I 0.0382 J 0.0352
G01 X 28.8959 Y 2.6258 Z -1.0000
G00 Z 5.0000

(End cutting path id: path10112)


(Start cutting path id: path10112)
(Change tool to Default tool)

G00 Z 5.0000
G00 X 28.8688 Y 3.0392

G01 Z -1.0000 F 100.0000(Penetrate)
G01 X 28.8735 Y 3.0505 Z -1.0000 F 3500.0000
G01 X 28.8847 Y 3.0552 Z -1.0000
G01 X 28.8960 Y 3.0505 Z -1.0000
G01 X 28.9006 Y 3.0392 Z -1.0000
G01 X 28.8959 Y 3.0280 Z -1.0000
G01 X 28.8847 Y 3.0233 Z -1.0000
G01 X 28.8734 Y 3.0280 Z -1.0000
G01 X 28.8688 Y 3.0392 Z -1.0000
G01 X 28.8688 Y 3.0392 Z -1.0000
G00 Z 5.0000

(End cutting path id: path10112)


(Start cutting path id: path10112)
(Change tool to Default tool)

G00 Z 5.0000
G00 X 29.1074 Y 3.3009

G01 Z -1.0000 F 100.0000(Penetrate)
G01 X 29.1051 Y 3.3067 Z -1.0000 F 3500.0000
G03 X 29.0915 Y 3.3178 Z -1.0000 I -0.0501 J -0.0477
G01 X 29.0807 Y 3.3185 Z -1.0000
G01 X 29.0756 Y 3.3108 Z -1.0000
G01 X 29.0804 Y 3.2987 Z -1.0000
G01 X 29.0915 Y 3.2939 Z -1.0000
G01 X 29.1047 Y 3.2967 Z -1.0000
G01 X 29.1074 Y 3.3009 Z -1.0000
G01 X 29.1074 Y 3.3009 Z -1.0000
G00 Z 5.0000

(End cutting path id: path10112)


(Start cutting path id: path10112)
(Change tool to Default tool)

G00 Z 5.0000
G00 X 28.4498 Y 3.1613

G01 Z -1.0000 F 100.0000(Penetrate)
G01 X 28.4429 Y 3.1734 Z -1.0000 F 3500.0000
G02 X 28.4391 Y 3.2037 Z -1.0000 I 0.1208 J 0.0303
G01 X 28.4510 Y 3.2144 Z -1.0000
G01 X 28.4633 Y 3.2010 Z -1.0000
G01 X 28.4654 Y 3.1910 Z -1.0000
G03 X 28.4761 Y 3.1705 Z -1.0000 I 0.1258 J 0.0528
G01 X 28.4712 Y 3.1563 Z -1.0000
G01 X 28.4497 Y 3.1612 Z -1.0000
G01 X 28.4498 Y 3.1613 Z -1.0000
G00 Z 5.0000

(End cutting path id: path10112)


(Start cutting path id: path10112)
(Change tool to Default tool)

G00 Z 5.0000
G00 X 28.4743 Y 3.0170

G01 Z -1.0000 F 100.0000(Penetrate)
G01 X 28.4654 Y 3.0342 Z -1.0000 F 3500.0000
G01 X 28.4694 Y 3.0393 Z -1.0000
G01 X 28.5021 Y 3.0234 Z -1.0000
G01 X 28.5004 Y 3.0000 Z -1.0000
G01 X 28.4950 Y 2.9995 Z -1.0000
G02 X 28.4743 Y 3.0170 Z -1.0000 I 0.0589 J 0.0907
G01 X 28.4743 Y 3.0170 Z -1.0000
G00 Z 5.0000

(End cutting path id: path10112)


(Start cutting path id: path10112)
(Change tool to Default tool)

G00 Z 5.0000
G00 X 28.4232 Y 2.9915

G01 Z -1.0000 F 100.0000(Penetrate)
G01 X 28.4281 Y 3.0027 Z -1.0000 F 3500.0000
G01 X 28.4401 Y 3.0074 Z -1.0000
G01 X 28.4479 Y 3.0023 Z -1.0000
G01 X 28.4471 Y 2.9915 Z -1.0000
G02 X 28.4360 Y 2.9779 Z -1.0000 I -0.0564 J 0.0346
G01 X 28.4302 Y 2.9756 Z -1.0000
G01 X 28.4260 Y 2.9784 Z -1.0000
G01 X 28.4232 Y 2.9915 Z -1.0000
G01 X 28.4232 Y 2.9915 Z -1.0000
G00 Z 5.0000

(End cutting path id: path10112)


(Start cutting path id: path10112)
(Change tool to Default tool)

G00 Z 5.0000
G00 X 28.4184 Y 2.9018

G01 Z -1.0000 F 100.0000(Penetrate)
G01 X 28.4201 Y 2.9315 Z -1.0000 F 3500.0000
G01 X 28.4404 Y 2.9438 Z -1.0000
G01 X 28.4548 Y 2.9283 Z -1.0000
G02 X 28.4363 Y 2.8879 Z -1.0000 I -0.0637 J 0.0047
G01 X 28.4291 Y 2.8874 Z -1.0000
G01 X 28.4184 Y 2.9018 Z -1.0000
G01 X 28.4184 Y 2.9018 Z -1.0000
G00 Z 5.0000

(End cutting path id: path10112)


(Start cutting path id: path10112)
(Change tool to Default tool)

G00 Z 5.0000
G00 X 28.1779 Y 2.9557

G01 Z -1.0000 F 100.0000(Penetrate)
G03 X 28.1648 Y 2.9654 Z -1.0000 I -0.0382 J -0.0382 F 3500.0000
G01 X 28.1514 Y 2.9696 Z -1.0000
G03 X 28.1369 Y 2.9716 Z -1.0000 I -0.3114 J -2.2646
G03 X 28.1209 Y 2.9736 Z -1.0000 I -0.4046 J -3.0900
G01 X 28.1098 Y 2.9799 Z -1.0000
G01 X 28.1050 Y 2.9932 Z -1.0000
G01 X 28.1113 Y 3.0017 Z -1.0000
G01 X 28.1307 Y 3.0010 Z -1.0000
G01 X 28.1446 Y 3.0030 Z -1.0000
G01 X 28.1477 Y 3.0137 Z -1.0000
G01 X 28.1462 Y 3.0352 Z -1.0000
G02 X 28.1594 Y 3.0641 Z -1.0000 I 0.0772 J -0.0179
G01 X 28.1753 Y 3.0685 Z -1.0000
G01 X 28.1902 Y 3.0510 Z -1.0000
G02 X 28.1951 Y 3.0103 Z -1.0000 I -0.1571 J -0.0397
G02 X 28.1898 Y 2.9823 Z -1.0000 I -0.0798 J 0.0005
G01 X 28.1904 Y 2.9681 Z -1.0000
G01 X 28.1978 Y 2.9660 Z -1.0000
G01 X 28.2111 Y 2.9678 Z -1.0000
G01 X 28.2164 Y 2.9607 Z -1.0000
G01 X 28.2042 Y 2.9468 Z -1.0000
G01 X 28.1780 Y 2.9558 Z -1.0000
G01 X 28.1779 Y 2.9557 Z -1.0000
G00 Z 5.0000

(End cutting path id: path10112)


(Start cutting path id: path10112)
(Change tool to Default tool)

G00 Z 5.0000
G00 X 28.1209 Y 3.1109

G01 Z -1.0000 F 100.0000(Penetrate)
G01 X 28.1281 Y 3.1233 Z -1.0000 F 3500.0000
G01 X 28.1448 Y 3.1246 Z -1.0000
G02 X 28.1668 Y 3.1142 Z -1.0000 I -0.0543 J -0.1426
G01 X 28.1687 Y 3.1109 Z -1.0000
G01 X 28.1668 Y 3.1076 Z -1.0000
G02 X 28.1448 Y 3.0972 Z -1.0000 I -0.0768 J 0.1332
G01 X 28.1281 Y 3.0985 Z -1.0000
G01 X 28.1209 Y 3.1109 Z -1.0000
G01 X 28.1209 Y 3.1109 Z -1.0000
G00 Z 5.0000

(End cutting path id: path10112)


(Start cutting path id: path10112)
(Change tool to Default tool)

G00 Z 5.0000
G00 X 28.0770 Y 3.3856

G01 Z -1.0000 F 100.0000(Penetrate)
G01 X 28.0827 Y 3.4008 Z -1.0000 F 3500.0000
G01 X 28.0911 Y 3.3997 Z -1.0000
G02 X 28.0999 Y 3.3715 Z -1.0000 I -0.0560 J -0.0327
G01 X 28.0941 Y 3.3563 Z -1.0000
G01 X 28.0857 Y 3.3573 Z -1.0000
G02 X 28.0770 Y 3.3856 Z -1.0000 I 0.0562 J 0.0328
G01 X 28.0770 Y 3.3856 Z -1.0000
G00 Z 5.0000

(End cutting path id: path10112)


(Start cutting path id: path10112)
(Change tool to Default tool)

G00 Z 5.0000
G00 X 28.1050 Y 3.7713

G01 Z -1.0000 F 100.0000(Penetrate)
G01 X 28.0967 Y 3.7822 Z -1.0000 F 3500.0000
G01 X 28.1001 Y 3.7869 Z -1.0000
G01 X 28.1167 Y 3.7828 Z -1.0000
G01 X 28.1289 Y 3.7713 Z -1.0000
G01 X 28.1255 Y 3.7652 Z -1.0000
G01 X 28.1050 Y 3.7713 Z -1.0000
G01 X 28.1050 Y 3.7713 Z -1.0000
G00 Z 5.0000

(End cutting path id: path10112)


(Start cutting path id: path10112)
(Change tool to Default tool)

G00 Z 5.0000
G00 X 28.2800 Y 3.8031

G01 Z -1.0000 F 100.0000(Penetrate)
G01 X 28.2849 Y 3.8142 Z -1.0000 F 3500.0000
G01 X 28.2969 Y 3.8190 Z -1.0000
G01 X 28.3047 Y 3.8139 Z -1.0000
G01 X 28.3039 Y 3.8031 Z -1.0000
G02 X 28.2928 Y 3.7894 Z -1.0000 I -0.0564 J 0.0346
G01 X 28.2870 Y 3.7872 Z -1.0000
G01 X 28.2828 Y 3.7900 Z -1.0000
G01 X 28.2800 Y 3.8031 Z -1.0000
G01 X 28.2800 Y 3.8031 Z -1.0000
G00 Z 5.0000

(End cutting path id: path10112)


(Start cutting path id: path10112)
(Change tool to Default tool)

G00 Z 5.0000
G00 X 28.2857 Y 3.8891

G01 Z -1.0000 F 100.0000(Penetrate)
G02 X 28.2926 Y 3.9185 Z -1.0000 I 0.0909 J -0.0056 F 3500.0000
G01 X 28.2989 Y 3.9206 Z -1.0000
G01 X 28.3216 Y 3.8764 Z -1.0000
G01 X 28.2942 Y 3.8508 Z -1.0000
G01 X 28.2883 Y 3.8555 Z -1.0000
G02 X 28.2857 Y 3.8891 Z -1.0000 I 0.1179 J 0.0261
G01 X 28.2857 Y 3.8891 Z -1.0000
G00 Z 5.0000

(End cutting path id: path10112)


(Start cutting path id: path10112)
(Change tool to Default tool)

G00 Z 5.0000
G00 X 28.3437 Y 3.9304

G01 Z -1.0000 F 100.0000(Penetrate)
G01 X 28.3482 Y 3.9418 Z -1.0000 F 3500.0000
G01 X 28.3587 Y 3.9463 Z -1.0000
G01 X 28.3715 Y 3.9425 Z -1.0000
G01 X 28.3835 Y 3.9304 Z -1.0000
G01 X 28.3824 Y 3.9205 Z -1.0000
G01 X 28.3685 Y 3.9145 Z -1.0000
G01 X 28.3493 Y 3.9201 Z -1.0000
G01 X 28.3437 Y 3.9304 Z -1.0000
G01 X 28.3437 Y 3.9304 Z -1.0000
G00 Z 5.0000

(End cutting path id: path10112)


(Start cutting path id: path10112)
(Change tool to Default tool)

G00 Z 5.0000
G00 X 28.2721 Y 4.0099

G01 Z -1.0000 F 100.0000(Penetrate)
G02 X 28.2832 Y 4.0236 Z -1.0000 I 0.0564 J -0.0346 F 3500.0000
G01 X 28.2889 Y 4.0258 Z -1.0000
G01 X 28.2932 Y 4.0230 Z -1.0000
G01 X 28.2959 Y 4.0099 Z -1.0000
G01 X 28.2911 Y 3.9988 Z -1.0000
G01 X 28.2791 Y 3.9940 Z -1.0000
G01 X 28.2713 Y 3.9991 Z -1.0000
G01 X 28.2721 Y 4.0099 Z -1.0000
G01 X 28.2721 Y 4.0099 Z -1.0000
G00 Z 5.0000

(End cutting path id: path10112)


(Start cutting path id: path10112)
(Change tool to Default tool)

G00 Z 5.0000
G00 X 28.2721 Y 4.0577

G01 Z -1.0000 F 100.0000(Penetrate)
G01 X 28.2713 Y 4.0685 Z -1.0000 F 3500.0000
G01 X 28.2791 Y 4.0736 Z -1.0000
G01 X 28.2912 Y 4.0687 Z -1.0000
G01 X 28.2959 Y 4.0577 Z -1.0000
G01 X 28.2931 Y 4.0445 Z -1.0000
G01 X 28.2889 Y 4.0417 Z -1.0000
G01 X 28.2831 Y 4.0441 Z -1.0000
G02 X 28.2721 Y 4.0577 Z -1.0000 I 0.0477 J 0.0501
G01 X 28.2721 Y 4.0577 Z -1.0000
G00 Z 5.0000

(End cutting path id: path10112)


(Start cutting path id: path10112)
(Change tool to Default tool)

G00 Z 5.0000
G00 X 28.4153 Y 3.8190

G01 Z -1.0000 F 100.0000(Penetrate)
G01 X 28.4145 Y 3.8298 Z -1.0000 F 3500.0000
G01 X 28.4223 Y 3.8349 Z -1.0000
G01 X 28.4344 Y 3.8301 Z -1.0000
G01 X 28.4391 Y 3.8190 Z -1.0000
G01 X 28.4363 Y 3.8058 Z -1.0000
G01 X 28.4321 Y 3.8031 Z -1.0000
G01 X 28.4263 Y 3.8054 Z -1.0000
G02 X 28.4153 Y 3.8190 Z -1.0000 I 0.0477 J 0.0501
G01 X 28.4153 Y 3.8190 Z -1.0000
G00 Z 5.0000

(End cutting path id: path10112)


(Start cutting path id: path10112)
(Change tool to Default tool)

G00 Z 5.0000
G00 X 28.6517 Y 4.2883

G01 Z -1.0000 F 100.0000(Penetrate)
G03 X 28.6409 Y 4.3097 Z -1.0000 I -0.1064 J -0.0405 F 3500.0000
G01 X 28.6363 Y 4.3122 Z -1.0000
G01 X 28.6328 Y 4.3095 Z -1.0000
G03 X 28.6300 Y 4.2883 Z -1.0000 I 0.0790 J -0.0212
G01 X 28.6355 Y 4.2699 Z -1.0000
G01 X 28.6454 Y 4.2645 Z -1.0000
G01 X 28.6527 Y 4.2701 Z -1.0000
G01 X 28.6517 Y 4.2883 Z -1.0000
G01 X 28.6517 Y 4.2883 Z -1.0000
G00 Z 5.0000

(End cutting path id: path10112)


(Start cutting path id: path10112)
(Change tool to Default tool)

G00 Z 5.0000
G00 X 28.8369 Y 4.7455

G01 Z -1.0000 F 100.0000(Penetrate)
G01 X 28.8315 Y 4.7501 Z -1.0000 F 3500.0000
G01 X 28.8131 Y 4.7418 Z -1.0000
G03 X 28.7910 Y 4.7211 Z -1.0000 I 0.1573 J -0.1896
G01 X 28.7892 Y 4.7164 Z -1.0000
G01 X 28.8131 Y 4.7201 Z -1.0000
G03 X 28.8319 Y 4.7327 Z -1.0000 I -0.0180 J 0.0472
G01 X 28.8369 Y 4.7455 Z -1.0000
G01 X 28.8369 Y 4.7455 Z -1.0000
G00 Z 5.0000

(End cutting path id: path10112)


(Start cutting path id: path10112)
(Change tool to Default tool)

G00 Z 5.0000
G00 X 29.2456 Y 5.1267

G01 Z -1.0000 F 100.0000(Penetrate)
G01 X 29.2406 Y 5.1277 Z -1.0000 F 3500.0000
G01 X 29.2360 Y 5.1171 Z -1.0000
G01 X 29.2394 Y 5.0972 Z -1.0000
G01 X 29.2444 Y 5.0962 Z -1.0000
G01 X 29.2491 Y 5.1068 Z -1.0000
G01 X 29.2457 Y 5.1267 Z -1.0000
G01 X 29.2456 Y 5.1267 Z -1.0000
G00 Z 5.0000

(End cutting path id: path10112)


(Start cutting path id: path10112)
(Change tool to Default tool)

G00 Z 5.0000
G00 X 29.3461 Y 5.1406

G01 Z -1.0000 F 100.0000(Penetrate)
G01 X 29.3512 Y 5.1484 Z -1.0000 F 3500.0000
G01 X 29.3620 Y 5.1476 Z -1.0000
G02 X 29.3756 Y 5.1365 Z -1.0000 I -0.0346 J -0.0564
G01 X 29.3779 Y 5.1307 Z -1.0000
G01 X 29.3751 Y 5.1265 Z -1.0000
G01 X 29.3620 Y 5.1237 Z -1.0000
G01 X 29.3509 Y 5.1286 Z -1.0000
G01 X 29.3461 Y 5.1406 Z -1.0000
G01 X 29.3461 Y 5.1406 Z -1.0000
G00 Z 5.0000

(End cutting path id: path10112)


(Start cutting path id: path10112)
(Change tool to Default tool)

G00 Z 5.0000
G00 X 29.7468 Y 4.4430

G01 Z -1.0000 F 100.0000(Penetrate)
G01 X 29.7330 Y 4.4497 Z -1.0000 F 3500.0000
G01 X 29.7280 Y 4.4454 Z -1.0000
G01 X 29.7402 Y 4.4159 Z -1.0000
G01 X 29.7574 Y 4.4159 Z -1.0000
G01 X 29.7591 Y 4.4241 Z -1.0000
G03 X 29.7468 Y 4.4430 Z -1.0000 I -0.0512 J -0.0200
G01 X 29.7468 Y 4.4430 Z -1.0000
G00 Z 5.0000

(End cutting path id: path10112)


(Start cutting path id: path10112)
(Change tool to Default tool)

G00 Z 5.0000
G00 X 30.1098 Y 4.3599

G01 Z -1.0000 F 100.0000(Penetrate)
G01 X 30.1145 Y 4.3712 Z -1.0000 F 3500.0000
G01 X 30.1257 Y 4.3758 Z -1.0000
G01 X 30.1370 Y 4.3711 Z -1.0000
G01 X 30.1416 Y 4.3599 Z -1.0000
G01 X 30.1369 Y 4.3486 Z -1.0000
G01 X 30.1257 Y 4.3440 Z -1.0000
G01 X 30.1144 Y 4.3487 Z -1.0000
G01 X 30.1098 Y 4.3599 Z -1.0000
G01 X 30.1098 Y 4.3599 Z -1.0000
G00 Z 5.0000

(End cutting path id: path10112)


(Start cutting path id: path10112)
(Change tool to Default tool)

G00 Z 5.0000
G00 X 30.1387 Y 4.3072

G01 Z -1.0000 F 100.0000(Penetrate)
G01 X 30.1585 Y 4.3106 Z -1.0000 F 3500.0000
G01 X 30.1692 Y 4.3059 Z -1.0000
G01 X 30.1681 Y 4.3009 Z -1.0000
G01 X 30.1483 Y 4.2975 Z -1.0000
G01 X 30.1377 Y 4.3021 Z -1.0000
G01 X 30.1387 Y 4.3071 Z -1.0000
G01 X 30.1387 Y 4.3072 Z -1.0000
G00 Z 5.0000

(End cutting path id: path10112)


(Start cutting path id: path10112)
(Change tool to Default tool)

G00 Z 5.0000
G00 X 30.7861 Y 4.1691

G01 Z -1.0000 F 100.0000(Penetrate)
G01 X 30.7868 Y 4.1799 Z -1.0000 F 3500.0000
G01 X 30.7791 Y 4.1850 Z -1.0000
G01 X 30.7670 Y 4.1801 Z -1.0000
G01 X 30.7622 Y 4.1691 Z -1.0000
G01 X 30.7650 Y 4.1559 Z -1.0000
G01 X 30.7692 Y 4.1531 Z -1.0000
G01 X 30.7750 Y 4.1555 Z -1.0000
G03 X 30.7861 Y 4.1691 Z -1.0000 I -0.0477 J 0.0501
G01 X 30.7861 Y 4.1691 Z -1.0000
G00 Z 5.0000

(End cutting path id: path10112)


(Start cutting path id: path10112)
(Change tool to Default tool)

G00 Z 5.0000
G00 X 30.9531 Y 3.7563

G01 Z -1.0000 F 100.0000(Penetrate)
G01 X 30.9582 Y 3.7641 Z -1.0000 F 3500.0000
G01 X 30.9690 Y 3.7633 Z -1.0000
G02 X 30.9827 Y 3.7522 Z -1.0000 I -0.0346 J -0.0564
G01 X 30.9849 Y 3.7464 Z -1.0000
G01 X 30.9821 Y 3.7422 Z -1.0000
G01 X 30.9690 Y 3.7394 Z -1.0000
G01 X 30.9579 Y 3.7443 Z -1.0000
G01 X 30.9531 Y 3.7563 Z -1.0000
G01 X 30.9531 Y 3.7563 Z -1.0000
G00 Z 5.0000

(End cutting path id: path10112)


(Start cutting path id: path10112)
(Change tool to Default tool)

G00 Z 5.0000
G00 X 31.0804 Y 3.7395

G01 Z -1.0000 F 100.0000(Penetrate)
G01 X 31.0776 Y 3.7526 Z -1.0000 F 3500.0000
G01 X 31.0734 Y 3.7554 Z -1.0000
G01 X 31.0676 Y 3.7530 Z -1.0000
G03 X 31.0566 Y 3.7395 Z -1.0000 I 0.0477 J -0.0501
G01 X 31.0558 Y 3.7286 Z -1.0000
G01 X 31.0636 Y 3.7235 Z -1.0000
G01 X 31.0757 Y 3.7284 Z -1.0000
G01 X 31.0804 Y 3.7395 Z -1.0000
G01 X 31.0804 Y 3.7395 Z -1.0000
G00 Z 5.0000

(End cutting path id: path10112)


(Start cutting path id: path10112)
(Change tool to Default tool)

G00 Z 5.0000
G00 X 31.0665 Y 3.6241

G01 Z -1.0000 F 100.0000(Penetrate)
G01 X 31.0652 Y 3.6295 Z -1.0000 F 3500.0000
G01 X 31.0565 Y 3.6286 Z -1.0000
G02 X 31.0246 Y 3.6053 Z -1.0000 I -3.6412 J 4.9626
G02 X 31.0181 Y 3.6008 Z -1.0000 I -0.1544 J 0.2133
G01 X 31.0281 Y 3.5963 Z -1.0000
G01 X 31.0424 Y 3.6009 Z -1.0000
G03 X 31.0665 Y 3.6241 Z -1.0000 I -0.0704 J 0.0974
G01 X 31.0665 Y 3.6241 Z -1.0000
G00 Z 5.0000

(End cutting path id: path10112)


(Start cutting path id: path10112)
(Change tool to Default tool)

G00 Z 5.0000
G00 X 31.0486 Y 3.3735

G01 Z -1.0000 F 100.0000(Penetrate)
G01 X 31.0438 Y 3.3846 Z -1.0000 F 3500.0000
G01 X 31.0317 Y 3.3894 Z -1.0000
G01 X 31.0240 Y 3.3843 Z -1.0000
G01 X 31.0247 Y 3.3735 Z -1.0000
G03 X 31.0359 Y 3.3599 Z -1.0000 I 0.0564 J 0.0346
G01 X 31.0416 Y 3.3576 Z -1.0000
G01 X 31.0459 Y 3.3604 Z -1.0000
G01 X 31.0486 Y 3.3735 Z -1.0000
G01 X 31.0486 Y 3.3735 Z -1.0000
G00 Z 5.0000

(End cutting path id: path10112)


(Start cutting path id: path10112)
(Change tool to Default tool)

G00 Z 5.0000
G00 X 30.0698 Y 3.1229

G01 Z -1.0000 F 100.0000(Penetrate)
G03 X 30.0272 Y 3.2255 Z -1.0000 I -0.2923 J -0.0609 F 3500.0000
G01 X 29.9890 Y 3.2462 Z -1.0000
G01 X 29.9819 Y 3.2389 Z -1.0000
G01 X 29.9893 Y 3.2212 Z -1.0000
G02 X 30.0096 Y 3.1936 Z -1.0000 I -0.0795 J -0.0795
G02 X 30.0245 Y 3.1536 Z -1.0000 I -0.1547 J -0.0804
G03 X 30.0532 Y 3.0826 Z -1.0000 I 0.2488 J 0.0593
G01 X 30.0733 Y 3.0712 Z -1.0000
G01 X 30.0764 Y 3.0745 Z -1.0000
G03 X 30.0698 Y 3.1229 Z -1.0000 I -0.3577 J -0.0245
G01 X 30.0698 Y 3.1229 Z -1.0000
G00 Z 5.0000

(End cutting path id: path10112)


(Start cutting path id: path10112)
(Change tool to Default tool)

G00 Z 5.0000
G00 X 29.8871 Y 3.1825

G01 Z -1.0000 F 100.0000(Penetrate)
G01 X 29.8824 Y 3.1938 Z -1.0000 F 3500.0000
G01 X 29.8712 Y 3.1984 Z -1.0000
G01 X 29.8599 Y 3.1937 Z -1.0000
G01 X 29.8553 Y 3.1825 Z -1.0000
G01 X 29.8600 Y 3.1712 Z -1.0000
G01 X 29.8712 Y 3.1666 Z -1.0000
G01 X 29.8825 Y 3.1713 Z -1.0000
G01 X 29.8871 Y 3.1825 Z -1.0000
G01 X 29.8871 Y 3.1825 Z -1.0000
G00 Z 5.0000

(End cutting path id: path10112)


(Start cutting path id: path10112)
(Change tool to Default tool)

G00 Z 5.0000
G00 X 29.8600 Y 3.1295

G01 Z -1.0000 F 100.0000(Penetrate)
G01 X 29.8493 Y 3.1378 Z -1.0000 F 3500.0000
G01 X 29.8374 Y 3.1322 Z -1.0000
G01 X 29.8328 Y 3.1038 Z -1.0000
G01 X 29.8463 Y 3.0969 Z -1.0000
G01 X 29.8597 Y 3.1098 Z -1.0000
G01 X 29.8600 Y 3.1295 Z -1.0000
G01 X 29.8600 Y 3.1295 Z -1.0000
G00 Z 5.0000

(End cutting path id: path10112)


(Start cutting path id: path10112)
(Change tool to Default tool)

G00 Z 5.0000
G00 X 29.9109 Y 2.0687

G01 Z -1.0000 F 100.0000(Penetrate)
G01 X 29.9102 Y 2.0796 Z -1.0000 F 3500.0000
G01 X 29.9179 Y 2.0847 Z -1.0000
G01 X 29.9300 Y 2.0798 Z -1.0000
G01 X 29.9348 Y 2.0687 Z -1.0000
G01 X 29.9320 Y 2.0556 Z -1.0000
G01 X 29.9278 Y 2.0528 Z -1.0000
G01 X 29.9220 Y 2.0552 Z -1.0000
G02 X 29.9109 Y 2.0687 Z -1.0000 I 0.0477 J 0.0501
G01 X 29.9109 Y 2.0687 Z -1.0000
G00 Z 5.0000

(End cutting path id: path10112)


(Start cutting path id: path10112)
(Change tool to Default tool)

G00 Z 5.0000
G00 X 29.9905 Y 2.0050

G01 Z -1.0000 F 100.0000(Penetrate)
G02 X 29.9828 Y 2.0217 Z -1.0000 I 0.0651 J 0.0404 F 3500.0000
G02 X 29.9741 Y 2.0551 Z -1.0000 I 0.2627 J 0.0857
G03 X 29.9297 Y 2.1416 Z -1.0000 I -0.1693 J -0.0325
G01 X 29.8914 Y 2.1420 Z -1.0000
G01 X 29.8856 Y 2.1310 Z -1.0000
G03 X 29.8805 Y 2.0847 Z -1.0000 I 0.2895 J -0.0550
G03 X 29.8927 Y 2.0501 Z -1.0000 I 0.0512 J -0.0015
G01 X 29.9212 Y 2.0369 Z -1.0000
G02 X 29.9577 Y 2.0288 Z -1.0000 I 0.0000 J -0.0864
G01 X 29.9724 Y 2.0131 Z -1.0000
G03 X 29.9839 Y 1.9926 Z -1.0000 I 0.0737 J 0.0281
G01 X 29.9909 Y 1.9892 Z -1.0000
G01 X 29.9942 Y 1.9926 Z -1.0000
G01 X 29.9905 Y 2.0050 Z -1.0000
G01 X 29.9905 Y 2.0050 Z -1.0000
G00 Z 5.0000

(End cutting path id: path10112)


(Start cutting path id: path10112)
(Change tool to Default tool)

G00 Z 5.0000
G00 X 30.0462 Y 2.0617

G01 Z -1.0000 F 100.0000(Penetrate)
G01 X 30.0401 Y 2.0757 Z -1.0000 F 3500.0000
G01 X 30.0303 Y 2.0767 Z -1.0000
G01 X 30.0181 Y 2.0648 Z -1.0000
G01 X 30.0144 Y 2.0519 Z -1.0000
G01 X 30.0189 Y 2.0415 Z -1.0000
G01 X 30.0303 Y 2.0369 Z -1.0000
G01 X 30.0406 Y 2.0426 Z -1.0000
G01 X 30.0462 Y 2.0617 Z -1.0000
G01 X 30.0462 Y 2.0617 Z -1.0000
G00 Z 5.0000

(End cutting path id: path10112)


(Start cutting path id: path10112)
(Change tool to Default tool)

G00 Z 5.0000
G00 X 29.8791 Y 1.9574

G01 Z -1.0000 F 100.0000(Penetrate)
G01 X 29.8784 Y 1.9682 Z -1.0000 F 3500.0000
G01 X 29.8861 Y 1.9733 Z -1.0000
G01 X 29.8982 Y 1.9685 Z -1.0000
G01 X 29.9030 Y 1.9574 Z -1.0000
G01 X 29.9002 Y 1.9442 Z -1.0000
G01 X 29.8960 Y 1.9415 Z -1.0000
G01 X 29.8902 Y 1.9438 Z -1.0000
G02 X 29.8791 Y 1.9574 Z -1.0000 I 0.0477 J 0.0501
G01 X 29.8791 Y 1.9574 Z -1.0000
G00 Z 5.0000

(End cutting path id: path10112)


(Start cutting path id: path10112)
(Change tool to Default tool)

G00 Z 5.0000
G00 X 29.6086 Y 1.7346

G01 Z -1.0000 F 100.0000(Penetrate)
G01 X 29.6096 Y 1.7445 Z -1.0000 F 3500.0000
G01 X 29.6236 Y 1.7505 Z -1.0000
G01 X 29.6428 Y 1.7449 Z -1.0000
G01 X 29.6484 Y 1.7346 Z -1.0000
G01 X 29.6439 Y 1.7232 Z -1.0000
G01 X 29.6334 Y 1.7187 Z -1.0000
G01 X 29.6206 Y 1.7225 Z -1.0000
G01 X 29.6086 Y 1.7346 Z -1.0000
G01 X 29.6086 Y 1.7346 Z -1.0000
G00 Z 5.0000

(End cutting path id: path10112)


(Start cutting path id: path10112)
(Change tool to Default tool)

G00 Z 5.0000
G00 X 29.5370 Y 1.7664

G01 Z -1.0000 F 100.0000(Penetrate)
G01 X 29.5415 Y 1.7778 Z -1.0000 F 3500.0000
G01 X 29.5520 Y 1.7823 Z -1.0000
G01 X 29.5648 Y 1.7786 Z -1.0000
G01 X 29.5768 Y 1.7664 Z -1.0000
G01 X 29.5758 Y 1.7566 Z -1.0000
G01 X 29.5618 Y 1.7505 Z -1.0000
G01 X 29.5426 Y 1.7562 Z -1.0000
G01 X 29.5370 Y 1.7664 Z -1.0000
G01 X 29.5370 Y 1.7664 Z -1.0000
G00 Z 5.0000

(End cutting path id: path10112)


(Start cutting path id: path10112)
(Change tool to Default tool)

G00 Z 5.0000
G00 X 29.3461 Y 1.4571

G01 Z -1.0000 F 100.0000(Penetrate)
G01 X 29.3521 Y 1.4711 Z -1.0000 F 3500.0000
G01 X 29.3620 Y 1.4721 Z -1.0000
G01 X 29.3742 Y 1.4602 Z -1.0000
G01 X 29.3779 Y 1.4473 Z -1.0000
G01 X 29.3734 Y 1.4368 Z -1.0000
G01 X 29.3620 Y 1.4323 Z -1.0000
G01 X 29.3517 Y 1.4380 Z -1.0000
G01 X 29.3461 Y 1.4571 Z -1.0000
G01 X 29.3461 Y 1.4571 Z -1.0000
G00 Z 5.0000

(End cutting path id: path10112)


(Start cutting path id: path10112)
(Change tool to Default tool)

G00 Z 5.0000
G00 X 29.0438 Y 1.2573

G01 Z -1.0000 F 100.0000(Penetrate)
G01 X 29.0355 Y 1.2683 Z -1.0000 F 3500.0000
G01 X 29.0389 Y 1.2730 Z -1.0000
G01 X 29.0554 Y 1.2689 Z -1.0000
G01 X 29.0677 Y 1.2573 Z -1.0000
G01 X 29.0643 Y 1.2513 Z -1.0000
G01 X 29.0438 Y 1.2573 Z -1.0000
G01 X 29.0438 Y 1.2573 Z -1.0000
G00 Z 5.0000

(End cutting path id: path10112)


(Start cutting path id: path10112)
(Change tool to Default tool)

G00 Z 5.0000
G00 X 28.9587 Y 1.3279

G01 Z -1.0000 F 100.0000(Penetrate)
G03 X 28.9533 Y 1.3688 Z -1.0000 I -0.0858 J 0.0095 F 3500.0000
G01 X 28.9405 Y 1.3745 Z -1.0000
G01 X 28.9281 Y 1.3771 Z -1.0000
G01 X 28.9255 Y 1.3895 Z -1.0000
G02 X 28.9387 Y 1.4101 Z -1.0000 I 0.0566 J -0.0219
G02 X 28.9583 Y 1.4229 Z -1.0000 I 0.0393 J -0.0385
G01 X 28.9712 Y 1.4232 Z -1.0000
G01 X 28.9731 Y 1.4179 Z -1.0000
G03 X 28.9727 Y 1.3519 Z -1.0000 I 0.0539 J -0.0333
G01 X 29.0242 Y 1.3329 Z -1.0000
G01 X 29.0386 Y 1.3322 Z -1.0000
G01 X 29.0438 Y 1.3241 Z -1.0000
G01 X 29.0386 Y 1.3124 Z -1.0000
G02 X 29.0159 Y 1.2989 Z -1.0000 I -0.0449 J 0.0497
G03 X 28.9883 Y 1.2885 Z -1.0000 I 0.2218 J -0.6292
G03 X 28.9703 Y 1.2806 Z -1.0000 I 0.1114 J -0.2763
G01 X 28.9616 Y 1.2847 Z -1.0000
G02 X 28.9587 Y 1.3279 Z -1.0000 I 0.1208 J 0.0296
G01 X 28.9587 Y 1.3279 Z -1.0000
G00 Z 5.0000

(End cutting path id: path10112)


(Start cutting path id: path10112)
(Change tool to Default tool)

G00 Z 5.0000
G00 X 28.8840 Y 1.1946

G01 Z -1.0000 F 100.0000(Penetrate)
G02 X 28.8558 Y 1.2427 Z -1.0000 I 0.2581 J 0.1837 F 3500.0000
G01 X 28.8573 Y 1.2511 Z -1.0000
G01 X 28.9004 Y 1.2490 Z -1.0000
G02 X 28.9324 Y 1.1597 Z -1.0000 I -0.1088 J -0.0893
G01 X 28.9233 Y 1.1550 Z -1.0000
G02 X 28.8840 Y 1.1946 Z -1.0000 I 0.1000 J 0.1388
G01 X 28.8840 Y 1.1946 Z -1.0000
G00 Z 5.0000

(End cutting path id: path10112)


(Start cutting path id: path10112)
(Change tool to Default tool)

G00 Z 5.0000
G00 X 28.7420 Y 1.2851

G01 Z -1.0000 F 100.0000(Penetrate)
G02 X 28.7445 Y 1.3179 Z -1.0000 I 0.1788 J 0.0024 F 3500.0000
G01 X 28.7482 Y 1.3209 Z -1.0000
G01 X 28.7547 Y 1.3218 Z -1.0000
G03 X 28.7840 Y 1.3304 Z -1.0000 I -0.1495 J 0.5595
G01 X 28.7958 Y 1.3264 Z -1.0000
G03 X 28.7806 Y 1.3112 Z -1.0000 I 0.0539 J -0.0692
G03 X 28.7605 Y 1.2812 Z -1.0000 I 0.1940 J -0.1515
G01 X 28.7493 Y 1.2762 Z -1.0000
G01 X 28.7420 Y 1.2852 Z -1.0000
G01 X 28.7420 Y 1.2851 Z -1.0000
G00 Z 5.0000

(End cutting path id: path10112)


(Start cutting path id: path10112)
(Change tool to Default tool)

G00 Z 5.0000
G00 X 29.0467 Y 1.1061

G01 Z -1.0000 F 100.0000(Penetrate)
G02 X 29.0373 Y 1.1403 Z -1.0000 I 0.1019 J 0.0465 F 3500.0000
G01 X 29.0423 Y 1.1459 Z -1.0000
G01 X 29.0803 Y 1.1193 Z -1.0000
G01 X 29.0696 Y 1.0710 Z -1.0000
G01 X 29.0467 Y 1.1061 Z -1.0000
G01 X 29.0467 Y 1.1061 Z -1.0000
G00 Z 5.0000

(End cutting path id: path10112)


(Start cutting path id: path10112)
(Change tool to Default tool)

G00 Z 5.0000
G00 X 29.2517 Y 0.8953

G01 Z -1.0000 F 100.0000(Penetrate)
G01 X 29.2589 Y 0.9161 Z -1.0000 F 3500.0000
G01 X 29.2665 Y 0.9152 Z -1.0000
G02 X 29.2787 Y 0.8558 Z -1.0000 I -0.1382 J -0.0594
G01 X 29.2665 Y 0.8436 Z -1.0000
G01 X 29.2575 Y 0.8504 Z -1.0000
G02 X 29.2517 Y 0.8953 Z -1.0000 I 0.1461 J 0.0416
G01 X 29.2517 Y 0.8953 Z -1.0000
G00 Z 5.0000

(End cutting path id: path10112)


(Start cutting path id: path10112)
(Change tool to Default tool)

G00 Z 5.0000
G00 X 29.1992 Y 0.8436

G01 Z -1.0000 F 100.0000(Penetrate)
G03 X 29.1761 Y 0.8696 Z -1.0000 I -0.0873 J -0.0545 F 3500.0000
G01 X 29.1593 Y 0.8754 Z -1.0000
G01 X 29.1444 Y 0.8806 Z -1.0000
G01 X 29.1393 Y 0.8913 Z -1.0000
G01 X 29.1498 Y 0.9032 Z -1.0000
G02 X 29.1936 Y 0.8976 Z -1.0000 I 0.0107 J -0.0924
G01 X 29.2117 Y 0.8831 Z -1.0000
G01 X 29.2188 Y 0.8592 Z -1.0000
G03 X 29.2251 Y 0.8346 Z -1.0000 I 0.0517 J -0.0000
G01 X 29.2387 Y 0.8224 Z -1.0000
G01 X 29.2424 Y 0.8169 Z -1.0000
G01 X 29.2388 Y 0.8131 Z -1.0000
G01 X 29.2223 Y 0.8181 Z -1.0000
G02 X 29.1992 Y 0.8436 Z -1.0000 I 0.0594 J 0.0770
G01 X 29.1992 Y 0.8436 Z -1.0000
G00 Z 5.0000

(End cutting path id: path10112)


(Start cutting path id: path10112)
(Change tool to Default tool)

G00 Z 5.0000
G00 X 29.1712 Y 0.7322

G01 Z -1.0000 F 100.0000(Penetrate)
G02 X 29.1550 Y 0.8056 Z -1.0000 I 0.1240 J 0.0658 F 3500.0000
G01 X 29.1757 Y 0.8135 Z -1.0000
G01 X 29.1836 Y 0.7976 Z -1.0000
G02 X 29.1826 Y 0.7618 Z -1.0000 I -0.1114 J -0.0149
G01 X 29.1712 Y 0.7322 Z -1.0000
G01 X 29.1712 Y 0.7322 Z -1.0000
G00 Z 5.0000

(End cutting path id: path10112)


(Start cutting path id: path10112)
(Change tool to Default tool)

G00 Z 5.0000
G00 X 29.0077 Y 0.6782

G01 Z -1.0000 F 100.0000(Penetrate)
G01 X 28.9971 Y 0.6829 Z -1.0000 F 3500.0000
G01 X 28.9772 Y 0.6795 Z -1.0000
G01 X 28.9762 Y 0.6746 Z -1.0000
G01 X 28.9868 Y 0.6699 Z -1.0000
G01 X 29.0067 Y 0.6733 Z -1.0000
G01 X 29.0077 Y 0.6783 Z -1.0000
G01 X 29.0077 Y 0.6782 Z -1.0000
G00 Z 5.0000

(End cutting path id: path10112)


(Start cutting path id: path10112)
(Change tool to Default tool)

G00 Z 5.0000
G00 X 28.8608 Y 0.5571

G01 Z -1.0000 F 100.0000(Penetrate)
G02 X 28.8719 Y 0.5708 Z -1.0000 I 0.0564 J -0.0346 F 3500.0000
G01 X 28.8777 Y 0.5731 Z -1.0000
G01 X 28.8819 Y 0.5702 Z -1.0000
G01 X 28.8847 Y 0.5571 Z -1.0000
G01 X 28.8798 Y 0.5460 Z -1.0000
G01 X 28.8678 Y 0.5412 Z -1.0000
G01 X 28.8600 Y 0.5463 Z -1.0000
G01 X 28.8608 Y 0.5571 Z -1.0000
G01 X 28.8608 Y 0.5571 Z -1.0000
G00 Z 5.0000

(End cutting path id: path10112)


(Start cutting path id: path10112)
(Change tool to Default tool)

G00 Z 5.0000
G00 X 28.9589 Y 0.4087

G01 Z -1.0000 F 100.0000(Penetrate)
G01 X 28.9512 Y 0.4204 Z -1.0000 F 3500.0000
G01 X 28.9483 Y 0.4357 Z -1.0000
G01 X 28.9533 Y 0.4401 Z -1.0000
G01 X 28.9671 Y 0.4333 Z -1.0000
G02 X 28.9795 Y 0.4145 Z -1.0000 I -0.0388 J -0.0389
G01 X 28.9778 Y 0.4063 Z -1.0000
G01 X 28.9696 Y 0.4035 Z -1.0000
G01 X 28.9589 Y 0.4087 Z -1.0000
G01 X 28.9589 Y 0.4087 Z -1.0000
G00 Z 5.0000

(End cutting path id: path10112)


(Start cutting path id: path10112)
(Change tool to Default tool)

G00 Z 5.0000
G00 X 29.1313 Y 0.2549

G01 Z -1.0000 F 100.0000(Penetrate)
G01 X 29.1305 Y 0.2657 Z -1.0000 F 3500.0000
G01 X 29.1383 Y 0.2708 Z -1.0000
G01 X 29.1504 Y 0.2660 Z -1.0000
G01 X 29.1551 Y 0.2549 Z -1.0000
G01 X 29.1523 Y 0.2417 Z -1.0000
G01 X 29.1481 Y 0.2390 Z -1.0000
G01 X 29.1423 Y 0.2413 Z -1.0000
G02 X 29.1313 Y 0.2549 Z -1.0000 I 0.0477 J 0.0501
G01 X 29.1313 Y 0.2549 Z -1.0000
G00 Z 5.0000

(End cutting path id: path10112)


(Start cutting path id: path10112)
(Change tool to Default tool)

G00 Z 5.0000
G00 X 29.3217 Y 0.1585

G01 Z -1.0000 F 100.0000(Penetrate)
G01 X 29.3222 Y 0.1711 Z -1.0000 F 3500.0000
G01 X 29.3074 Y 0.1865 Z -1.0000
G01 X 29.2959 Y 0.2024 Z -1.0000
G01 X 29.3003 Y 0.2233 Z -1.0000
G01 X 29.3150 Y 0.2321 Z -1.0000
G01 X 29.3251 Y 0.2260 Z -1.0000
G01 X 29.3378 Y 0.2094 Z -1.0000
G03 X 29.3717 Y 0.1906 Z -1.0000 I 0.0821 J 0.1079
G02 X 29.4024 Y 0.1713 Z -1.0000 I -0.0333 J -0.0872
G01 X 29.4085 Y 0.1558 Z -1.0000
G01 X 29.4046 Y 0.1520 Z -1.0000
G01 X 29.3992 Y 0.1554 Z -1.0000
G01 X 29.3881 Y 0.1708 Z -1.0000
G01 X 29.3757 Y 0.1753 Z -1.0000
G01 X 29.3688 Y 0.1705 Z -1.0000
G01 X 29.3700 Y 0.1594 Z -1.0000
G01 X 29.3679 Y 0.1501 Z -1.0000
G01 X 29.3461 Y 0.1435 Z -1.0000
G01 X 29.3237 Y 0.1498 Z -1.0000
G01 X 29.3216 Y 0.1584 Z -1.0000
G01 X 29.3217 Y 0.1585 Z -1.0000
G00 Z 5.0000

(End cutting path id: path10112)


(Start cutting path id: path10112)
(Change tool to Default tool)

G00 Z 5.0000
G00 X 29.3713 Y 0.2333

G01 Z -1.0000 F 100.0000(Penetrate)
G01 X 29.3767 Y 0.2438 Z -1.0000 F 3500.0000
G01 X 29.3906 Y 0.2383 Z -1.0000
G02 X 29.4003 Y 0.2126 Z -1.0000 I -0.0592 J -0.0370
G01 X 29.3957 Y 0.2072 Z -1.0000
G01 X 29.3846 Y 0.2120 Z -1.0000
G02 X 29.3713 Y 0.2333 Z -1.0000 I 0.0482 J 0.0450
G01 X 29.3713 Y 0.2333 Z -1.0000
G00 Z 5.0000

(End cutting path id: path10112)


(Start cutting path id: path10112)
(Change tool to Default tool)

G00 Z 5.0000
G00 X 29.4575 Y 0.1575

G01 Z -1.0000 F 100.0000(Penetrate)
G01 X 29.4613 Y 0.1697 Z -1.0000 F 3500.0000
G02 X 29.4794 Y 0.1896 Z -1.0000 I 0.0808 J -0.0553
G01 X 29.4962 Y 0.1918 Z -1.0000
G01 X 29.5098 Y 0.1757 Z -1.0000
G01 X 29.5059 Y 0.1530 Z -1.0000
G01 X 29.4879 Y 0.1435 Z -1.0000
G02 X 29.4630 Y 0.1490 Z -1.0000 I 0.0000 J 0.0594
G01 X 29.4575 Y 0.1575 Z -1.0000
G01 X 29.4575 Y 0.1575 Z -1.0000
G00 Z 5.0000

(End cutting path id: path10112)


(Start cutting path id: path10112)
(Change tool to Default tool)

G00 Z 5.0000
G00 X 29.5401 Y 0.1718

G01 Z -1.0000 F 100.0000(Penetrate)
G01 X 29.5529 Y 0.1910 Z -1.0000 F 3500.0000
G02 X 29.5889 Y 0.2042 Z -1.0000 I 0.0454 J -0.0683
G03 X 29.6262 Y 0.2150 Z -1.0000 I -0.0137 J 0.1177
G01 X 29.6326 Y 0.2251 Z -1.0000
G01 X 29.6274 Y 0.2316 Z -1.0000
G01 X 29.6142 Y 0.2295 Z -1.0000
G01 X 29.6081 Y 0.2305 Z -1.0000
G01 X 29.6077 Y 0.2373 Z -1.0000
G01 X 29.6214 Y 0.2451 Z -1.0000
G01 X 29.6418 Y 0.2379 Z -1.0000
G01 X 29.6558 Y 0.2181 Z -1.0000
G01 X 29.6543 Y 0.2036 Z -1.0000
G01 X 29.6569 Y 0.1975 Z -1.0000
G01 X 29.6783 Y 0.1985 Z -1.0000
G01 X 29.7033 Y 0.1971 Z -1.0000
G01 X 29.7122 Y 0.1834 Z -1.0000
G01 X 29.7183 Y 0.1685 Z -1.0000
G01 X 29.7281 Y 0.1673 Z -1.0000
G01 X 29.7395 Y 0.1691 Z -1.0000
G01 X 29.7440 Y 0.1632 Z -1.0000
G01 X 29.7375 Y 0.1557 Z -1.0000
G02 X 29.6395 Y 0.1468 Z -1.0000 I -0.1163 J 0.7355
G02 X 29.5497 Y 0.1567 Z -1.0000 I -0.0081 J 0.3360
G01 X 29.5401 Y 0.1717 Z -1.0000
G01 X 29.5401 Y 0.1718 Z -1.0000
G00 Z 5.0000

(End cutting path id: path10112)


(Start cutting path id: path10112)
(Change tool to Default tool)

G00 Z 5.0000
G00 X 29.5928 Y 0.1754

G01 Z -1.0000 F 100.0000(Penetrate)
G01 X 29.5805 Y 0.1869 Z -1.0000 F 3500.0000
G01 X 29.5640 Y 0.1910 Z -1.0000
G01 X 29.5606 Y 0.1863 Z -1.0000
G01 X 29.5689 Y 0.1754 Z -1.0000
G01 X 29.5894 Y 0.1693 Z -1.0000
G01 X 29.5928 Y 0.1754 Z -1.0000
G01 X 29.5928 Y 0.1754 Z -1.0000
G00 Z 5.0000

(End cutting path id: path10112)


(Start cutting path id: path10112)
(Change tool to Default tool)

G00 Z 5.0000
G00 X 29.9604 Y 0.5505

G01 Z -1.0000 F 100.0000(Penetrate)
G01 X 29.9611 Y 0.5658 Z -1.0000 F 3500.0000
G01 X 29.9696 Y 0.5694 Z -1.0000
G01 X 29.9974 Y 0.5423 Z -1.0000
G01 X 29.9855 Y 0.5253 Z -1.0000
G01 X 29.9735 Y 0.5303 Z -1.0000
G02 X 29.9603 Y 0.5505 Z -1.0000 I 0.0408 J 0.0409
G01 X 29.9604 Y 0.5505 Z -1.0000
G00 Z 5.0000

(End cutting path id: path10112)


(Start cutting path id: path10112)
(Change tool to Default tool)

G00 Z 5.0000
G00 X 29.8950 Y 0.7958

G01 Z -1.0000 F 100.0000(Penetrate)
G01 X 29.8943 Y 0.8067 Z -1.0000 F 3500.0000
G01 X 29.9020 Y 0.8117 Z -1.0000
G01 X 29.9141 Y 0.8069 Z -1.0000
G01 X 29.9189 Y 0.7958 Z -1.0000
G01 X 29.9161 Y 0.7826 Z -1.0000
G01 X 29.9119 Y 0.7799 Z -1.0000
G01 X 29.9061 Y 0.7822 Z -1.0000
G02 X 29.8950 Y 0.7958 Z -1.0000 I 0.0477 J 0.0501
G01 X 29.8950 Y 0.7958 Z -1.0000
G00 Z 5.0000

(End cutting path id: path10112)


(Start cutting path id: path10112)
(Change tool to Default tool)

G00 Z 5.0000
G00 X 30.1417 Y 0.3022

G01 Z -1.0000 F 100.0000(Penetrate)
G01 X 30.1475 Y 0.3108 Z -1.0000 F 3500.0000
G01 X 30.1615 Y 0.3101 Z -1.0000
G01 X 30.1417 Y 0.3328 Z -1.0000
G03 X 30.1005 Y 0.3579 Z -1.0000 I -0.1077 J -0.1301
G01 X 30.0818 Y 0.3584 Z -1.0000
G01 X 30.0726 Y 0.3632 Z -1.0000
G02 X 30.0722 Y 0.3929 Z -1.0000 I 0.0559 J 0.0156
G03 X 30.0722 Y 0.4202 Z -1.0000 I -0.0538 J 0.0136
G01 X 30.0644 Y 0.4234 Z -1.0000
G01 X 30.0568 Y 0.4293 Z -1.0000
G02 X 30.0774 Y 0.4648 Z -1.0000 I 0.0886 J -0.0279
G03 X 30.0998 Y 0.4992 Z -1.0000 I -0.0861 J 0.0802
G01 X 30.0986 Y 0.5148 Z -1.0000
G01 X 30.0900 Y 0.5167 Z -1.0000
G01 X 30.0780 Y 0.5015 Z -1.0000
G01 X 30.0658 Y 0.4878 Z -1.0000
G01 X 30.0558 Y 0.4907 Z -1.0000
G01 X 30.0585 Y 0.5443 Z -1.0000
G01 X 30.0987 Y 0.5470 Z -1.0000
G01 X 30.1027 Y 0.5969 Z -1.0000
G03 X 30.0891 Y 0.6512 Z -1.0000 I -0.1673 J -0.0132
G03 X 30.0620 Y 0.6899 Z -1.0000 I -0.1098 J -0.0482
G01 X 30.0350 Y 0.7075 Z -1.0000
G01 X 30.0346 Y 0.6933 Z -1.0000
G02 X 30.0124 Y 0.6710 Z -1.0000 I -0.0592 J 0.0367
G01 X 29.9998 Y 0.6717 Z -1.0000
G01 X 29.9975 Y 0.6827 Z -1.0000
G01 X 30.0010 Y 0.7185 Z -1.0000
G01 X 29.9825 Y 0.7322 Z -1.0000
G02 X 29.9570 Y 0.7385 Z -1.0000 I -0.0000 J 0.0544
G01 X 29.9507 Y 0.7491 Z -1.0000
G01 X 29.9562 Y 0.7561 Z -1.0000
G01 X 29.9706 Y 0.7540 Z -1.0000
G01 X 29.9696 Y 0.7678 Z -1.0000
G02 X 29.9390 Y 0.8481 Z -1.0000 I 0.1071 J 0.0868
G02 X 29.9629 Y 0.9098 Z -1.0000 I 0.0818 J 0.0039
G01 X 29.9704 Y 0.9292 Z -1.0000
G03 X 29.9591 Y 0.9960 Z -1.0000 I -0.2727 J -0.0120
G02 X 29.9491 Y 1.0555 Z -1.0000 I 0.2301 J 0.0693
G01 X 29.9564 Y 1.0618 Z -1.0000
G01 X 29.9665 Y 1.0661 Z -1.0000
G01 X 29.9694 Y 1.0818 Z -1.0000
G02 X 29.9657 Y 1.1053 Z -1.0000 I 0.1951 J 0.0425
G02 X 29.9630 Y 1.1494 Z -1.0000 I 0.6647 J 0.0633
G03 X 29.9558 Y 1.1875 Z -1.0000 I -0.1238 J -0.0035
G01 X 29.9472 Y 1.1936 Z -1.0000
G01 X 29.9404 Y 1.1993 Z -1.0000
G02 X 29.9420 Y 1.2232 Z -1.0000 I 0.0496 J 0.0087
G01 X 29.9422 Y 1.2501 Z -1.0000
G01 X 29.9271 Y 1.2729 Z -1.0000
G02 X 29.9079 Y 1.2953 Z -1.0000 I 0.0564 J 0.0679
G01 X 29.9029 Y 1.3132 Z -1.0000
G01 X 29.8971 Y 1.3295 Z -1.0000
G01 X 29.8790 Y 1.3426 Z -1.0000
G01 X 29.8617 Y 1.3562 Z -1.0000
G01 X 29.8552 Y 1.3770 Z -1.0000
G01 X 29.8618 Y 1.3904 Z -1.0000
G01 X 29.8735 Y 1.3910 Z -1.0000
G01 X 29.8798 Y 1.3918 Z -1.0000
G01 X 29.8804 Y 1.3983 Z -1.0000
G01 X 29.8672 Y 1.4097 Z -1.0000
G01 X 29.8558 Y 1.4088 Z -1.0000
G01 X 29.8455 Y 1.4091 Z -1.0000
G01 X 29.8335 Y 1.4244 Z -1.0000
G01 X 29.8350 Y 1.4410 Z -1.0000
G01 X 29.8478 Y 1.4482 Z -1.0000
G01 X 29.8660 Y 1.4614 Z -1.0000
G01 X 29.8602 Y 1.4857 Z -1.0000
G02 X 29.8364 Y 1.5389 Z -1.0000 I 0.0578 J 0.0578
G01 X 29.8565 Y 1.5509 Z -1.0000
G01 X 29.8687 Y 1.5478 Z -1.0000
G03 X 29.8924 Y 1.5529 Z -1.0000 I -0.0044 J 0.0782
G01 X 29.9033 Y 1.5682 Z -1.0000
G03 X 29.8947 Y 1.6241 Z -1.0000 I -0.1530 J 0.0049
G02 X 29.8809 Y 1.6833 Z -1.0000 I 0.2618 J 0.0924
G01 X 29.8862 Y 1.6944 Z -1.0000
G01 X 29.8924 Y 1.7057 Z -1.0000
G03 X 29.8850 Y 1.7674 Z -1.0000 I -0.3060 J -0.0054
G02 X 29.8896 Y 1.8285 Z -1.0000 I 0.1027 J 0.0231
G01 X 29.9088 Y 1.8288 Z -1.0000
G01 X 29.9196 Y 1.8270 Z -1.0000
G01 X 29.9312 Y 1.8533 Z -1.0000
G03 X 29.9270 Y 2.0032 Z -1.0000 I -0.6247 J 0.0574
G01 X 29.9062 Y 2.0208 Z -1.0000
G01 X 29.8769 Y 2.0071 Z -1.0000
G03 X 29.8443 Y 1.9494 Z -1.0000 I 0.1267 J -0.1098
G02 X 29.8224 Y 1.9088 Z -1.0000 I -0.1238 J 0.0406
G01 X 29.8022 Y 1.8966 Z -1.0000
G01 X 29.7883 Y 1.9019 Z -1.0000
G01 X 29.7860 Y 1.9183 Z -1.0000
G01 X 29.7818 Y 1.9315 Z -1.0000
G01 X 29.7621 Y 1.9343 Z -1.0000
G01 X 29.7387 Y 1.9383 Z -1.0000
G01 X 29.7276 Y 1.9603 Z -1.0000
G01 X 29.7216 Y 1.9771 Z -1.0000
G01 X 29.7144 Y 1.9767 Z -1.0000
G01 X 29.6986 Y 1.9635 Z -1.0000
G01 X 29.6789 Y 1.9622 Z -1.0000
G01 X 29.6682 Y 1.9614 Z -1.0000
G01 X 29.6734 Y 1.9433 Z -1.0000
G01 X 29.6544 Y 1.9364 Z -1.0000
G01 X 29.6451 Y 1.9318 Z -1.0000
G01 X 29.6470 Y 1.9120 Z -1.0000
G02 X 29.6536 Y 1.8849 Z -1.0000 I -0.0490 J -0.0262
G01 X 29.6464 Y 1.8778 Z -1.0000
G01 X 29.6416 Y 1.8716 Z -1.0000
G03 X 29.6538 Y 1.8487 Z -1.0000 I 0.0523 J 0.0133
G02 X 29.6680 Y 1.8034 Z -1.0000 I -0.0420 J -0.0380
G01 X 29.6445 Y 1.7767 Z -1.0000
G01 X 29.6131 Y 1.7816 Z -1.0000
G02 X 29.5403 Y 1.8421 Z -1.0000 I 0.1881 J 0.3000
G03 X 29.4735 Y 1.8973 Z -1.0000 I -0.2333 J -0.2142
G01 X 29.4572 Y 1.8935 Z -1.0000
G01 X 29.4249 Y 1.8940 Z -1.0000
G02 X 29.3911 Y 2.0083 Z -1.0000 I 0.2213 J 0.1274
G03 X 29.3814 Y 2.0458 Z -1.0000 I -0.0961 J -0.0049
G01 X 29.3657 Y 2.0602 Z -1.0000
G01 X 29.3541 Y 2.0575 Z -1.0000
G01 X 29.3517 Y 2.0451 Z -1.0000
G01 X 29.3521 Y 2.0270 Z -1.0000
G01 X 29.3438 Y 2.0210 Z -1.0000
G01 X 29.3354 Y 2.0150 Z -1.0000
G01 X 29.3358 Y 1.9971 Z -1.0000
G01 X 29.3322 Y 1.9820 Z -1.0000
G01 X 29.3095 Y 1.9733 Z -1.0000
G03 X 29.2786 Y 1.9651 Z -1.0000 I 0.0000 J -0.0624
G03 X 29.2544 Y 1.9419 Z -1.0000 I 0.0339 J -0.0594
G02 X 29.2312 Y 1.9214 Z -1.0000 I -0.0457 J 0.0286
G01 X 29.2083 Y 1.9207 Z -1.0000
G01 X 29.1945 Y 1.9166 Z -1.0000
G01 X 29.1906 Y 1.8967 Z -1.0000
G01 X 29.1857 Y 1.8800 Z -1.0000
G01 X 29.1703 Y 1.8781 Z -1.0000
G03 X 29.1434 Y 1.8850 Z -1.0000 I -0.0275 J -0.0512
G01 X 29.1316 Y 1.8785 Z -1.0000
G01 X 29.1197 Y 1.8704 Z -1.0000
G01 X 29.0986 Y 1.8723 Z -1.0000
G01 X 29.0871 Y 1.8693 Z -1.0000
G01 X 29.0849 Y 1.8557 Z -1.0000
G01 X 29.0862 Y 1.8360 Z -1.0000
G01 X 29.0787 Y 1.8301 Z -1.0000
G01 X 29.0504 Y 1.8518 Z -1.0000
G02 X 29.0405 Y 1.9706 Z -1.0000 I 0.3164 J 0.0860
G02 X 29.0542 Y 2.0100 Z -1.0000 I 0.0896 J -0.0091
G01 X 29.0688 Y 2.0148 Z -1.0000
G01 X 29.0796 Y 2.0196 Z -1.0000
G01 X 29.0813 Y 2.0477 Z -1.0000
G01 X 29.0826 Y 2.0733 Z -1.0000
G01 X 29.0917 Y 2.0765 Z -1.0000
G01 X 29.1007 Y 2.0780 Z -1.0000
G01 X 29.1025 Y 2.0900 Z -1.0000
G01 X 29.1034 Y 2.1089 Z -1.0000
G01 X 29.1157 Y 2.1165 Z -1.0000
G01 X 29.1325 Y 2.1099 Z -1.0000
G01 X 29.1391 Y 2.0946 Z -1.0000
G01 X 29.1443 Y 2.0751 Z -1.0000
G03 X 29.1630 Y 2.0529 Z -1.0000 I 0.0708 J 0.0405
G01 X 29.1747 Y 2.0585 Z -1.0000
G03 X 29.1621 Y 2.0970 Z -1.0000 I -0.0697 J -0.0014
G02 X 29.1502 Y 2.1257 Z -1.0000 I 0.0585 J 0.0410
G01 X 29.1559 Y 2.1324 Z -1.0000
G01 X 29.1650 Y 2.1397 Z -1.0000
G03 X 29.1648 Y 2.1709 Z -1.0000 I -0.0648 J 0.0150
G02 X 29.1642 Y 2.2047 Z -1.0000 I 0.0714 J 0.0180
G01 X 29.1750 Y 2.2174 Z -1.0000
G01 X 29.1809 Y 2.2270 Z -1.0000
G01 X 29.1729 Y 2.2408 Z -1.0000
G01 X 29.1597 Y 2.2579 Z -1.0000
G01 X 29.1612 Y 2.2727 Z -1.0000
G01 X 29.1634 Y 2.2874 Z -1.0000
G01 X 29.1539 Y 2.3002 Z -1.0000
G01 X 29.1446 Y 2.3147 Z -1.0000
G02 X 29.1464 Y 2.3648 Z -1.0000 I 0.1659 J 0.0193
G03 X 29.1452 Y 2.4153 Z -1.0000 I -0.1189 J 0.0224
G03 X 29.1257 Y 2.4516 Z -1.0000 I -0.0785 J -0.0187
G02 X 29.1008 Y 2.4876 Z -1.0000 I 0.1107 J 0.1031
G02 X 29.0852 Y 2.5335 Z -1.0000 I 0.1663 J 0.0823
G03 X 29.0691 Y 2.5784 Z -1.0000 I -0.1598 J -0.0321
G03 X 29.0476 Y 2.6035 Z -1.0000 I -0.0682 J -0.0365
G01 X 29.0366 Y 2.6192 Z -1.0000
G01 X 29.0408 Y 2.6251 Z -1.0000
G01 X 29.0466 Y 2.6318 Z -1.0000
G01 X 29.0380 Y 2.6495 Z -1.0000
G03 X 29.0124 Y 2.6692 Z -1.0000 I -0.0890 J -0.0890
G01 X 28.9971 Y 2.6734 Z -1.0000
G01 X 28.9835 Y 2.6587 Z -1.0000
G01 X 28.9999 Y 2.6362 Z -1.0000
G01 X 29.0039 Y 2.6272 Z -1.0000
G01 X 28.9888 Y 2.6294 Z -1.0000
G02 X 28.9641 Y 2.6418 Z -1.0000 I 0.0414 J 0.1126
G01 X 28.9556 Y 2.6575 Z -1.0000
G01 X 28.9641 Y 2.6734 Z -1.0000
G01 X 28.9732 Y 2.6892 Z -1.0000
G01 X 28.9660 Y 2.7034 Z -1.0000
G01 X 28.9533 Y 2.7197 Z -1.0000
G01 X 28.9550 Y 2.7353 Z -1.0000
G01 X 28.9544 Y 2.7465 Z -1.0000
G01 X 28.9412 Y 2.7530 Z -1.0000
G01 X 28.9250 Y 2.7640 Z -1.0000
G02 X 28.9076 Y 2.8405 Z -1.0000 I 0.2591 J 0.0994
G03 X 28.8915 Y 2.9550 Z -1.0000 I -1.0204 J -0.0847
G03 X 28.8781 Y 2.9892 Z -1.0000 I -0.1013 J -0.0201
G01 X 28.8796 Y 3.0003 Z -1.0000
G01 X 28.8981 Y 3.0075 Z -1.0000
G01 X 28.9178 Y 3.0180 Z -1.0000
G01 X 28.9251 Y 3.0472 Z -1.0000
G02 X 28.9282 Y 3.0839 Z -1.0000 I 0.0955 J 0.0105
G01 X 28.9411 Y 3.1037 Z -1.0000
G01 X 28.9515 Y 3.1236 Z -1.0000
G03 X 28.9469 Y 3.1714 Z -1.0000 I -0.1322 J 0.0113
G02 X 28.9407 Y 3.2472 Z -1.0000 I 0.1864 J 0.0535
G01 X 28.9574 Y 3.2621 Z -1.0000
G01 X 28.9721 Y 3.2719 Z -1.0000
G03 X 28.9790 Y 3.3138 Z -1.0000 I -0.0854 J 0.0356
G02 X 28.9809 Y 3.4324 Z -1.0000 I 0.7024 J 0.0480
G01 X 28.9910 Y 3.4332 Z -1.0000
G03 X 29.0021 Y 3.4102 Z -1.0000 I 0.0637 J 0.0166
G01 X 29.0119 Y 3.4053 Z -1.0000
G01 X 29.0209 Y 3.3999 Z -1.0000
G02 X 29.0306 Y 3.3695 Z -1.0000 I -0.0833 J -0.0436
G01 X 29.0455 Y 3.3448 Z -1.0000
G03 X 29.0810 Y 3.3330 Z -1.0000 I 0.0365 J 0.0502
G02 X 29.1216 Y 3.3231 Z -1.0000 I -0.0016 J -0.0953
G02 X 29.1526 Y 3.2976 Z -1.0000 I -0.0389 J -0.0787
G01 X 29.1900 Y 3.2822 Z -1.0000
G01 X 29.2123 Y 3.3059 Z -1.0000
G02 X 29.2261 Y 3.3421 Z -1.0000 I 0.0690 J -0.0055
G01 X 29.2435 Y 3.3471 Z -1.0000
G01 X 29.2581 Y 3.3330 Z -1.0000
G01 X 29.2585 Y 3.3118 Z -1.0000
G01 X 29.2609 Y 3.3049 Z -1.0000
G01 X 29.2687 Y 3.3059 Z -1.0000
G01 X 29.2807 Y 3.3289 Z -1.0000
G03 X 29.2843 Y 3.3974 Z -1.0000 I -0.2934 J 0.0502
G02 X 29.2883 Y 3.4611 Z -1.0000 I 0.2566 J 0.0160
G01 X 29.2978 Y 3.4690 Z -1.0000
G01 X 29.3091 Y 3.4633 Z -1.0000
G01 X 29.3130 Y 3.4491 Z -1.0000
G03 X 29.3140 Y 3.3819 Z -1.0000 I 0.2304 J -0.0301
G01 X 29.3245 Y 3.3785 Z -1.0000
G03 X 29.3567 Y 3.4542 Z -1.0000 I -0.0778 J 0.0778
G01 X 29.3266 Y 3.4849 Z -1.0000
G01 X 29.3191 Y 3.4906 Z -1.0000
G01 X 29.3200 Y 3.5087 Z -1.0000
G01 X 29.3225 Y 3.5281 Z -1.0000
G01 X 29.3175 Y 3.5326 Z -1.0000
G01 X 29.3098 Y 3.5378 Z -1.0000
G02 X 29.2754 Y 3.6400 Z -1.0000 I 1.0335 J 0.4046
G03 X 29.2379 Y 3.7434 Z -1.0000 I -0.7392 J -0.2094
G03 X 29.2120 Y 3.7824 Z -1.0000 I -0.1272 J -0.0567
G02 X 29.1825 Y 3.8190 Z -1.0000 I 0.2110 J 0.1994
G01 X 29.1769 Y 3.8341 Z -1.0000
G02 X 29.1751 Y 3.8508 Z -1.0000 I 0.7997 J 0.0956
G02 X 29.1729 Y 3.8747 Z -1.0000 I 1.6535 J 0.1627
G01 X 29.1642 Y 3.8916 Z -1.0000
G01 X 29.1431 Y 3.8998 Z -1.0000
G01 X 29.1327 Y 3.9041 Z -1.0000
G01 X 29.1335 Y 3.9085 Z -1.0000
G01 X 29.1436 Y 3.9200 Z -1.0000
G03 X 29.1436 Y 3.9470 Z -1.0000 I -0.0516 J 0.0135
G02 X 29.1426 Y 3.9726 Z -1.0000 I 0.0565 J 0.0149
G01 X 29.1493 Y 3.9781 Z -1.0000
G02 X 29.2393 Y 3.9324 Z -1.0000 I -0.0000 J -0.1116
G02 X 29.2425 Y 3.8506 Z -1.0000 I -0.0591 J -0.0433
G01 X 29.2418 Y 3.8399 Z -1.0000
G01 X 29.2496 Y 3.8349 Z -1.0000
G01 X 29.2607 Y 3.8288 Z -1.0000
G01 X 29.2675 Y 3.8070 Z -1.0000
G01 X 29.2731 Y 3.8042 Z -1.0000
G01 X 29.2852 Y 3.8190 Z -1.0000
G01 X 29.3019 Y 3.8588 Z -1.0000
G01 X 29.3173 Y 3.8150 Z -1.0000
G03 X 29.3454 Y 3.7851 Z -1.0000 I 0.0479 J 0.0169
G01 X 29.3619 Y 3.7961 Z -1.0000
G01 X 29.3550 Y 3.8091 Z -1.0000
G01 X 29.3420 Y 3.8096 Z -1.0000
G01 X 29.3410 Y 3.8188 Z -1.0000
G01 X 29.3602 Y 3.8260 Z -1.0000
G01 X 29.3848 Y 3.8143 Z -1.0000
G02 X 29.4040 Y 3.7870 Z -1.0000 I -0.0688 J -0.0688
G02 X 29.4102 Y 3.7605 Z -1.0000 I -0.0588 J -0.0277
G01 X 29.4179 Y 3.7535 Z -1.0000
G01 X 29.4341 Y 3.7624 Z -1.0000
G01 X 29.4514 Y 3.7748 Z -1.0000
G01 X 29.4577 Y 3.7704 Z -1.0000
G01 X 29.4630 Y 3.7652 Z -1.0000
G01 X 29.4725 Y 3.7705 Z -1.0000
G03 X 29.4820 Y 3.7937 Z -1.0000 I -0.0608 J 0.0383
G01 X 29.4799 Y 3.8052 Z -1.0000
G01 X 29.4803 Y 3.8153 Z -1.0000
G02 X 29.5029 Y 3.8380 Z -1.0000 I 0.0756 J -0.0530
G01 X 29.5202 Y 3.8646 Z -1.0000
G03 X 29.5216 Y 3.9344 Z -1.0000 I -0.2013 J 0.0391
G02 X 29.5146 Y 4.0083 Z -1.0000 I 0.6630 J 0.1008
G01 X 29.5182 Y 4.0178 Z -1.0000
G01 X 29.5401 Y 4.0218 Z -1.0000
G01 X 29.5528 Y 4.0020 Z -1.0000
G01 X 29.5584 Y 3.9837 Z -1.0000
G01 X 29.5687 Y 3.9781 Z -1.0000
G01 X 29.5796 Y 3.9832 Z -1.0000
G01 X 29.5846 Y 3.9971 Z -1.0000
G01 X 29.5899 Y 4.0003 Z -1.0000
G02 X 29.6080 Y 3.9852 Z -1.0000 I -0.0238 J -0.0467
G01 X 29.6155 Y 3.9864 Z -1.0000
G01 X 29.6159 Y 4.0100 Z -1.0000
G02 X 29.6130 Y 4.0613 Z -1.0000 I 0.1164 J 0.0324
G01 X 29.6279 Y 4.0859 Z -1.0000
G01 X 29.6419 Y 4.1088 Z -1.0000
G01 X 29.6360 Y 4.1374 Z -1.0000
G02 X 29.6184 Y 4.1692 Z -1.0000 I 0.3085 J 0.1926
G01 X 29.6166 Y 4.1769 Z -1.0000
G01 X 29.6350 Y 4.1877 Z -1.0000
G02 X 29.6992 Y 4.1298 Z -1.0000 I -0.1003 J -0.1757
G01 X 29.7109 Y 4.1216 Z -1.0000
G01 X 29.7200 Y 4.1241 Z -1.0000
G01 X 29.7213 Y 4.1339 Z -1.0000
G03 X 29.6900 Y 4.1766 Z -1.0000 I -0.2022 J -0.1153
G02 X 29.6652 Y 4.2380 Z -1.0000 I 0.0683 J 0.0633
G01 X 29.6884 Y 4.2543 Z -1.0000
G01 X 29.7010 Y 4.2421 Z -1.0000
G01 X 29.7013 Y 4.2235 Z -1.0000
G01 X 29.7011 Y 4.2068 Z -1.0000
G01 X 29.7094 Y 4.2009 Z -1.0000
G01 X 29.7178 Y 4.2086 Z -1.0000
G03 X 29.7182 Y 4.2924 Z -1.0000 I -0.4588 J 0.0440
G02 X 29.7112 Y 4.3840 Z -1.0000 I 4.3221 J 0.3779
G02 X 29.7049 Y 4.4934 Z -1.0000 I 6.2753 J 0.4151
G01 X 29.6996 Y 4.6028 Z -1.0000
G01 X 29.7554 Y 4.5411 Z -1.0000
G03 X 29.7927 Y 4.5120 Z -1.0000 I 0.1018 J 0.0920
G01 X 29.7995 Y 4.5176 Z -1.0000
G01 X 29.8016 Y 4.5411 Z -1.0000
G01 X 29.8140 Y 4.5458 Z -1.0000
G01 X 29.8242 Y 4.5498 Z -1.0000
G01 X 29.8240 Y 4.5659 Z -1.0000
G03 X 29.8047 Y 4.5922 Z -1.0000 I -0.1046 J -0.0563
G01 X 29.7878 Y 4.6031 Z -1.0000
G01 X 29.7781 Y 4.6128 Z -1.0000
G01 X 29.7804 Y 4.6238 Z -1.0000
G01 X 29.7942 Y 4.6287 Z -1.0000
G02 X 29.8242 Y 4.6179 Z -1.0000 I -0.0099 J -0.0746
G03 X 29.8498 Y 4.6084 Z -1.0000 I 0.0356 J 0.0571
G01 X 29.8553 Y 4.6132 Z -1.0000
G01 X 29.8510 Y 4.6248 Z -1.0000
G01 X 29.8378 Y 4.6337 Z -1.0000
G01 X 29.8268 Y 4.6448 Z -1.0000
G02 X 29.8119 Y 4.7146 Z -1.0000 I 0.3438 J 0.1103
G03 X 29.7985 Y 4.7842 Z -1.0000 I -0.4651 J -0.0530
G01 X 29.7914 Y 4.7896 Z -1.0000
G01 X 29.7630 Y 4.8133 Z -1.0000
G02 X 29.7743 Y 4.8821 Z -1.0000 I 0.1009 J 0.0187
G01 X 29.7896 Y 4.8889 Z -1.0000
G02 X 29.8213 Y 4.8713 Z -1.0000 I -0.0146 J -0.0638
G03 X 29.8811 Y 4.8426 Z -1.0000 I 0.0710 J 0.0710
G01 X 29.9030 Y 4.8621 Z -1.0000
G01 X 29.8981 Y 4.8782 Z -1.0000
G01 X 29.8911 Y 4.8797 Z -1.0000
G01 X 29.8684 Y 4.8830 Z -1.0000
G02 X 29.8421 Y 4.9334 Z -1.0000 I 0.0821 J 0.0748
G03 X 29.8336 Y 4.9550 Z -1.0000 I -0.0760 J -0.0172
G03 X 29.8142 Y 4.9818 Z -1.0000 I -0.1360 J -0.0782
G02 X 29.7910 Y 5.0295 Z -1.0000 I 0.0716 J 0.0644
G01 X 29.8036 Y 5.0423 Z -1.0000
G01 X 29.8273 Y 5.0491 Z -1.0000
G01 X 29.8294 Y 5.0648 Z -1.0000
G01 X 29.8429 Y 5.0556 Z -1.0000
G03 X 29.8715 Y 5.0342 Z -1.0000 I 0.0716 J 0.0658
G01 X 29.8850 Y 5.0349 Z -1.0000
G01 X 29.8953 Y 5.0329 Z -1.0000
G02 X 29.9114 Y 5.0003 Z -1.0000 I -0.0751 J -0.0572
G02 X 29.9326 Y 4.8574 Z -1.0000 I -0.6067 J -0.1633
G01 X 29.9170 Y 4.8281 Z -1.0000
G01 X 29.9006 Y 4.7769 Z -1.0000
G03 X 29.9533 Y 4.7418 Z -1.0000 I 0.0527 J 0.0222
G01 X 29.9623 Y 4.7375 Z -1.0000
G01 X 29.9667 Y 4.7250 Z -1.0000
G01 X 29.9616 Y 4.7172 Z -1.0000
G01 X 29.9508 Y 4.7180 Z -1.0000
G01 X 29.9330 Y 4.7092 Z -1.0000
G01 X 29.9463 Y 4.6721 Z -1.0000
G02 X 29.9904 Y 4.5650 Z -1.0000 I -0.1066 J -0.1066
G02 X 29.9457 Y 4.4838 Z -1.0000 I -0.0965 J 0.0003
G01 X 29.9438 Y 4.4767 Z -1.0000
G01 X 29.9522 Y 4.4716 Z -1.0000
G01 X 29.9724 Y 4.4635 Z -1.0000
G02 X 29.9964 Y 4.4300 Z -1.0000 I -0.0735 J -0.0779
G03 X 30.0192 Y 4.4059 Z -1.0000 I 0.0462 J 0.0210
G01 X 30.0387 Y 4.4080 Z -1.0000
G01 X 30.0563 Y 4.4151 Z -1.0000
G01 X 30.0622 Y 4.4096 Z -1.0000
G01 X 30.0572 Y 4.3967 Z -1.0000
G01 X 30.0462 Y 4.3918 Z -1.0000
G01 X 30.0358 Y 4.3863 Z -1.0000
G01 X 30.0303 Y 4.3690 Z -1.0000
G03 X 30.0614 Y 4.3115 Z -1.0000 I 0.0687 J 0.0000
G03 X 30.1658 Y 4.2804 Z -1.0000 I 0.1043 J 0.1595
G01 X 30.1937 Y 4.2700 Z -1.0000
G01 X 30.1982 Y 4.2526 Z -1.0000
G01 X 30.1998 Y 4.2436 Z -1.0000
G01 X 30.2064 Y 4.2434 Z -1.0000
G01 X 30.2120 Y 4.2632 Z -1.0000
G03 X 30.1897 Y 4.3119 Z -1.0000 I -0.1380 J -0.0336
G02 X 30.1780 Y 4.3556 Z -1.0000 I 0.0527 J 0.0375
G01 X 30.1945 Y 4.3624 Z -1.0000
G03 X 30.2159 Y 4.3517 Z -1.0000 I 0.0335 J 0.0405
G01 X 30.2267 Y 4.3548 Z -1.0000
G01 X 30.2330 Y 4.3552 Z -1.0000
G01 X 30.2371 Y 4.3467 Z -1.0000
G01 X 30.2432 Y 4.3342 Z -1.0000
G01 X 30.2610 Y 4.3281 Z -1.0000
G01 X 30.2790 Y 4.3340 Z -1.0000
G01 X 30.2849 Y 4.3457 Z -1.0000
G01 X 30.2911 Y 4.3543 Z -1.0000
G01 X 30.3096 Y 4.3538 Z -1.0000
G01 X 30.3226 Y 4.3540 Z -1.0000
G01 X 30.3245 Y 4.3601 Z -1.0000
G01 X 30.3122 Y 4.3711 Z -1.0000
G03 X 30.2902 Y 4.3758 Z -1.0000 I -0.0220 J -0.0483
G01 X 30.2763 Y 4.3832 Z -1.0000
G01 X 30.2746 Y 4.3993 Z -1.0000
G01 X 30.2733 Y 4.4196 Z -1.0000
G03 X 30.2494 Y 4.4466 Z -1.0000 I -0.0684 J -0.0364
G02 X 30.2252 Y 4.4715 Z -1.0000 I 0.0533 J 0.0761
G01 X 30.2262 Y 4.4816 Z -1.0000
G01 X 30.2375 Y 4.4836 Z -1.0000
G02 X 30.2730 Y 4.4599 Z -1.0000 I -0.0592 J -0.1272
G03 X 30.3348 Y 4.4231 Z -1.0000 I 0.1203 J 0.1314
G03 X 30.4431 Y 4.4008 Z -1.0000 I 0.1382 J 0.3974
G03 X 30.4897 Y 4.4077 Z -1.0000 I 0.0079 J 0.1088
G01 X 30.4955 Y 4.4207 Z -1.0000
G01 X 30.4989 Y 4.4323 Z -1.0000
G01 X 30.5141 Y 4.4343 Z -1.0000
G03 X 30.5422 Y 4.4246 Z -1.0000 I 0.1609 J 0.4189
G01 X 30.5487 Y 4.4236 Z -1.0000
G01 X 30.5524 Y 4.4206 Z -1.0000
G02 X 30.5554 Y 4.3918 Z -1.0000 I -0.1373 J -0.0288
G03 X 30.5615 Y 4.3660 Z -1.0000 I 0.0575 J 0.0000
G01 X 30.5713 Y 4.3599 Z -1.0000
G01 X 30.5816 Y 4.3543 Z -1.0000
G01 X 30.5872 Y 4.3351 Z -1.0000
G01 X 30.5926 Y 4.3199 Z -1.0000
G01 X 30.6005 Y 4.3185 Z -1.0000
G01 X 30.6106 Y 4.3143 Z -1.0000
G02 X 30.6195 Y 4.2367 Z -1.0000 I -0.3324 J -0.0771
G03 X 30.6264 Y 4.2096 Z -1.0000 I 0.0558 J -0.0001
G01 X 30.6370 Y 4.2049 Z -1.0000
G01 X 30.6630 Y 4.1844 Z -1.0000
G02 X 30.6398 Y 4.0357 Z -1.0000 I -0.4410 J -0.0074
G03 X 30.6249 Y 3.9715 Z -1.0000 I 0.3202 J -0.1080
G01 X 30.6309 Y 3.9677 Z -1.0000
G01 X 30.6371 Y 3.9650 Z -1.0000
G02 X 30.6416 Y 3.9129 Z -1.0000 I -0.2428 J -0.0471
G03 X 30.6468 Y 3.8571 Z -1.0000 I 0.2508 J -0.0050
G01 X 30.6545 Y 3.8508 Z -1.0000
G01 X 30.6603 Y 3.8461 Z -1.0000
G01 X 30.6582 Y 3.8339 Z -1.0000
G01 X 30.6566 Y 3.8177 Z -1.0000
G03 X 30.6771 Y 3.7834 Z -1.0000 I 0.1044 J 0.0391
G01 X 30.6866 Y 3.7615 Z -1.0000
G01 X 30.6692 Y 3.7517 Z -1.0000
G03 X 30.6858 Y 3.7108 Z -1.0000 I 0.0566 J -0.0009
G01 X 30.6863 Y 3.6994 Z -1.0000
G01 X 30.6699 Y 3.6917 Z -1.0000
G02 X 30.6416 Y 3.6984 Z -1.0000 I -0.0000 J 0.0630
G01 X 30.6349 Y 3.7093 Z -1.0000
G01 X 30.6289 Y 3.7183 Z -1.0000
G01 X 30.6130 Y 3.7185 Z -1.0000
G01 X 30.5924 Y 3.7172 Z -1.0000
G01 X 30.5710 Y 3.7287 Z -1.0000
G01 X 30.5625 Y 3.7277 Z -1.0000
G01 X 30.5597 Y 3.7116 Z -1.0000
G02 X 30.5601 Y 3.6822 Z -1.0000 I -0.0656 J -0.0157
G01 X 30.5522 Y 3.6758 Z -1.0000
G01 X 30.5445 Y 3.6691 Z -1.0000
G03 X 30.5460 Y 3.6360 Z -1.0000 I 0.0830 J -0.0128
G01 X 30.5434 Y 3.6056 Z -1.0000
G01 X 30.5278 Y 3.5949 Z -1.0000
G01 X 30.5184 Y 3.5905 Z -1.0000
G01 X 30.5195 Y 3.5856 Z -1.0000
G01 X 30.5338 Y 3.5739 Z -1.0000
G01 X 30.5394 Y 3.5551 Z -1.0000
G01 X 30.5448 Y 3.5379 Z -1.0000
G01 X 30.5553 Y 3.5325 Z -1.0000
G01 X 30.5652 Y 3.5264 Z -1.0000
G02 X 30.5712 Y 3.5007 Z -1.0000 I -0.0516 J -0.0257
G01 X 30.5641 Y 3.4758 Z -1.0000
G01 X 30.5513 Y 3.4686 Z -1.0000
G01 X 30.5468 Y 3.4640 Z -1.0000
G01 X 30.5515 Y 3.4556 Z -1.0000
G01 X 30.5609 Y 3.4392 Z -1.0000
G02 X 30.5535 Y 3.3910 Z -1.0000 I -0.1339 J -0.0041
G03 X 30.5446 Y 3.3395 Z -1.0000 I 0.1503 J -0.0524
G03 X 30.5530 Y 3.3006 Z -1.0000 I 0.0926 J -0.0005
G02 X 30.5617 Y 3.2677 Z -1.0000 I -0.0913 J -0.0418
G01 X 30.5565 Y 3.2620 Z -1.0000
G01 X 30.5497 Y 3.2564 Z -1.0000
G03 X 30.5507 Y 3.2302 Z -1.0000 I 0.0597 J -0.0110
G03 X 30.5630 Y 3.2036 Z -1.0000 I 0.0803 J 0.0211
G01 X 30.5731 Y 3.1984 Z -1.0000
G01 X 30.5815 Y 3.1927 Z -1.0000
G02 X 30.5876 Y 3.1626 Z -1.0000 I -0.0768 J -0.0313
G01 X 30.5946 Y 3.1517 Z -1.0000
G01 X 30.6044 Y 3.1548 Z -1.0000
G03 X 30.6136 Y 3.1828 Z -1.0000 I -0.0611 J 0.0358
G01 X 30.6097 Y 3.2025 Z -1.0000
G01 X 30.6361 Y 3.1866 Z -1.0000
G02 X 30.6603 Y 3.1451 Z -1.0000 I -0.0597 J -0.0627
G02 X 30.6756 Y 3.0299 Z -1.0000 I -0.4913 J -0.1240
G03 X 30.6869 Y 2.9141 Z -1.0000 I 0.7345 J 0.0132
G01 X 30.6996 Y 2.8954 Z -1.0000
G01 X 30.7042 Y 2.8835 Z -1.0000
G01 X 30.6925 Y 2.8708 Z -1.0000
G01 X 30.6665 Y 2.8686 Z -1.0000
G01 X 30.6514 Y 2.8792 Z -1.0000
G01 X 30.6419 Y 2.8812 Z -1.0000
G01 X 30.6305 Y 2.8652 Z -1.0000
G03 X 30.6226 Y 2.8316 Z -1.0000 I 0.7626 J -0.1985
G03 X 30.6214 Y 2.8226 Z -1.0000 I 0.0516 J -0.0110
G01 X 30.6183 Y 2.8150 Z -1.0000
G02 X 30.5922 Y 2.7917 Z -1.0000 I -0.1546 J 0.1463
G01 X 30.5818 Y 2.7754 Z -1.0000
G01 X 30.5872 Y 2.7683 Z -1.0000
G01 X 30.5893 Y 2.7631 Z -1.0000
G01 X 30.5713 Y 2.7502 Z -1.0000
G01 X 30.5565 Y 2.7341 Z -1.0000
G01 X 30.5623 Y 2.7221 Z -1.0000
G01 X 30.5778 Y 2.7091 Z -1.0000
G01 X 30.5755 Y 2.6997 Z -1.0000
G01 X 30.5706 Y 2.6858 Z -1.0000
G03 X 30.6112 Y 2.6004 Z -1.0000 I 0.4524 J 0.1626
G02 X 30.6513 Y 2.5085 Z -1.0000 I -0.3301 J -0.1988
G02 X 30.6614 Y 2.4266 Z -1.0000 I -0.2508 J -0.0724
G02 X 30.6536 Y 2.3434 Z -1.0000 I -0.7327 J 0.0265
G01 X 30.6466 Y 2.3296 Z -1.0000
G01 X 30.6402 Y 2.3066 Z -1.0000
G01 X 30.6536 Y 2.3011 Z -1.0000
G01 X 30.6609 Y 2.2988 Z -1.0000
G01 X 30.6613 Y 2.2841 Z -1.0000
G03 X 30.6579 Y 2.2568 Z -1.0000 I 0.0535 J -0.0205
G01 X 30.6671 Y 2.2354 Z -1.0000
G02 X 30.6798 Y 2.2142 Z -1.0000 I -0.0620 J -0.0514
G01 X 30.6808 Y 2.2016 Z -1.0000
G03 X 30.7059 Y 2.0867 Z -1.0000 I 0.1352 J -0.0307
G03 X 30.8068 Y 2.0368 Z -1.0000 I 0.1010 J 0.0772
G01 X 30.8184 Y 2.0312 Z -1.0000
G02 X 30.8475 Y 1.9851 Z -1.0000 I -0.2054 J -0.1617
G03 X 30.8689 Y 1.9518 Z -1.0000 I 0.1588 J 0.0783
G01 X 30.8733 Y 1.9533 Z -1.0000
G01 X 30.8789 Y 1.9679 Z -1.0000
G01 X 30.8907 Y 1.9732 Z -1.0000
G01 X 30.8989 Y 1.9668 Z -1.0000
G01 X 30.8983 Y 1.9435 Z -1.0000
G03 X 30.8951 Y 1.9139 Z -1.0000 I 0.0709 J -0.0225
G03 X 30.9050 Y 1.8710 Z -1.0000 I 0.1648 J 0.0156
G02 X 30.9103 Y 1.8416 Z -1.0000 I -0.0746 J -0.0284
G01 X 30.9046 Y 1.8385 Z -1.0000
G01 X 30.8996 Y 1.8352 Z -1.0000
G03 X 30.9120 Y 1.7913 Z -1.0000 I 0.1856 J 0.0289
G02 X 30.9291 Y 1.7335 Z -1.0000 I -0.2551 J -0.1066
G02 X 30.9273 Y 1.7063 Z -1.0000 I -0.0555 J -0.0099
G01 X 30.9292 Y 1.7003 Z -1.0000
G01 X 30.9343 Y 1.7011 Z -1.0000
G01 X 30.9486 Y 1.7040 Z -1.0000
G02 X 30.9734 Y 1.6772 Z -1.0000 I -0.0347 J -0.0569
