%
(Header)
(Generated by gcodetools from Inkscape.)
(Using default header. To add your own header create file "header" in the output dir.)
M3
(Header end.)
G21 (All units in mm)

(Start cutting path id: path6706)
(Change tool to Default tool)

G00 Z 5.0000
G00 X 41.0557 Y 2.1816

G01 Z -1.0000 F 100.0000(Penetrate)
G01 X 41.0559 Y 2.1857 Z -1.0000 F 3500.0000
G01 X 41.0600 Y 2.1859 Z -1.0000
G02 X 41.0781 Y 2.1661 Z -1.0000 I -0.0501 J -0.0638
G01 X 41.0757 Y 2.1616 Z -1.0000
G01 X 41.0720 Y 2.1631 Z -1.0000
G02 X 41.0557 Y 2.1816 Z -1.0000 I 0.1477 J 0.1473
G01 X 41.0557 Y 2.1816 Z -1.0000
G00 Z 5.0000

(End cutting path id: path6706)


(Start cutting path id: path6706)
(Change tool to Default tool)

G00 Z 5.0000
G00 X 34.8867 Y 5.5893

G01 Z -1.0000 F 100.0000(Penetrate)
G02 X 34.8856 Y 5.5949 Z -1.0000 I 1.5863 J 0.2952 F 3500.0000
G03 X 34.8814 Y 5.6176 Z -1.0000 I -2.3146 J -0.4223
G03 X 34.8738 Y 5.6374 Z -1.0000 I -0.0567 J -0.0105
G01 X 34.8650 Y 5.6443 Z -1.0000
G01 X 34.8586 Y 5.6504 Z -1.0000
G01 X 34.8593 Y 5.6588 Z -1.0000
G01 X 34.8596 Y 5.6658 Z -1.0000
G01 X 34.8537 Y 5.6693 Z -1.0000
G01 X 34.8454 Y 5.6731 Z -1.0000
G01 X 34.8416 Y 5.6834 Z -1.0000
G03 X 34.8188 Y 5.7807 Z -1.0000 I -0.2192 J -0.0000
G03 X 34.7702 Y 5.8273 Z -1.0000 I -0.0889 J -0.0441
G01 X 34.7643 Y 5.8328 Z -1.0000
G01 X 34.7616 Y 5.8435 Z -1.0000
G01 X 34.7594 Y 5.8554 Z -1.0000
G03 X 34.7261 Y 5.9331 Z -1.0000 I -1.4490 J -0.5749
G01 X 34.6905 Y 6.0102 Z -1.0000
G01 X 34.6507 Y 5.9740 Z -1.0000
G02 X 34.6100 Y 5.9402 Z -1.0000 I -0.4028 J 0.4428
G01 X 34.6034 Y 5.9381 Z -1.0000
G01 X 34.5661 Y 5.9182 Z -1.0000
G03 X 34.5445 Y 5.8412 Z -1.0000 I 0.1268 J -0.0770
G02 X 34.5397 Y 5.8136 Z -1.0000 I -0.0816 J -0.0000
G01 X 34.5339 Y 5.8116 Z -1.0000
G01 X 34.5261 Y 5.8108 Z -1.0000
G01 X 34.5158 Y 5.7943 Z -1.0000
G01 X 34.5044 Y 5.7843 Z -1.0000
G01 X 34.4876 Y 5.7891 Z -1.0000
G01 X 34.4690 Y 5.7977 Z -1.0000
G01 X 34.4600 Y 5.7928 Z -1.0000
G01 X 34.4531 Y 5.7881 Z -1.0000
G01 X 34.4465 Y 5.7921 Z -1.0000
G01 X 34.4373 Y 5.8025 Z -1.0000
G01 X 34.4236 Y 5.8064 Z -1.0000
G01 X 34.4123 Y 5.8112 Z -1.0000
G01 X 34.4074 Y 5.8235 Z -1.0000
G01 X 34.4042 Y 5.8374 Z -1.0000
G01 X 34.3988 Y 5.8407 Z -1.0000
G01 X 34.3939 Y 5.8445 Z -1.0000
G02 X 34.3882 Y 5.8815 Z -1.0000 I 0.1785 J 0.0466
G03 X 34.3819 Y 5.9210 Z -1.0000 I -0.1918 J -0.0103
G03 X 34.3704 Y 5.9472 Z -1.0000 I -0.0920 J -0.0246
G02 X 34.3370 Y 6.0223 Z -1.0000 I 0.2454 J 0.1544
G02 X 34.3229 Y 6.1143 Z -1.0000 I 0.3579 J 0.1018
G03 X 34.3179 Y 6.1566 Z -1.0000 I -0.2329 J -0.0061
G01 X 34.3131 Y 6.1605 Z -1.0000
G01 X 34.3075 Y 6.1635 Z -1.0000
G01 X 34.3045 Y 6.1727 Z -1.0000
G01 X 34.3080 Y 6.1786 Z -1.0000
G01 X 34.3148 Y 6.1785 Z -1.0000
G01 X 34.3228 Y 6.1785 Z -1.0000
G01 X 34.3315 Y 6.1892 Z -1.0000
G01 X 34.3416 Y 6.2012 Z -1.0000
G01 X 34.3599 Y 6.2063 Z -1.0000
G01 X 34.3797 Y 6.2106 Z -1.0000
G01 X 34.3950 Y 6.2222 Z -1.0000
G01 X 34.4100 Y 6.2326 Z -1.0000
G01 X 34.4278 Y 6.2333 Z -1.0000
G01 X 34.4458 Y 6.2350 Z -1.0000
G03 X 34.4803 Y 6.2571 Z -1.0000 I -0.0583 J 0.1286
G02 X 34.5136 Y 6.2805 Z -1.0000 I 0.1266 J -0.1453
G01 X 34.5221 Y 6.2802 Z -1.0000
G01 X 34.5263 Y 6.2813 Z -1.0000
G01 X 34.5275 Y 6.2890 Z -1.0000
G03 X 34.5064 Y 6.3456 Z -1.0000 I -0.2547 J -0.0628
G01 X 34.4973 Y 6.3482 Z -1.0000
G01 X 34.4923 Y 6.3405 Z -1.0000
G01 X 34.4947 Y 6.3294 Z -1.0000
G01 X 34.4941 Y 6.3252 Z -1.0000
G01 X 34.4898 Y 6.3248 Z -1.0000
G01 X 34.4826 Y 6.3352 Z -1.0000
G02 X 34.4815 Y 6.3666 Z -1.0000 I 0.0956 J 0.0191
G03 X 34.4813 Y 6.3965 Z -1.0000 I -0.1104 J 0.0142
G01 X 34.4767 Y 6.4005 Z -1.0000
G01 X 34.4716 Y 6.4048 Z -1.0000
G02 X 34.4624 Y 6.4897 Z -1.0000 I 0.8326 J 0.1336
G03 X 34.4423 Y 6.5878 Z -1.0000 I -0.3472 J -0.0202
G01 X 34.4255 Y 6.5918 Z -1.0000
G01 X 34.4160 Y 6.5764 Z -1.0000
G01 X 34.4166 Y 6.5615 Z -1.0000
G01 X 34.4156 Y 6.5540 Z -1.0000
G01 X 34.4104 Y 6.5529 Z -1.0000
G01 X 34.4001 Y 6.5540 Z -1.0000
G01 X 34.3922 Y 6.5462 Z -1.0000
G01 X 34.3850 Y 6.5421 Z -1.0000
G01 X 34.3733 Y 6.5490 Z -1.0000
G01 X 34.3689 Y 6.5489 Z -1.0000
G01 X 34.3675 Y 6.5404 Z -1.0000
G01 X 34.3649 Y 6.5222 Z -1.0000
G01 X 34.3515 Y 6.5147 Z -1.0000
G01 X 34.3376 Y 6.5081 Z -1.0000
G01 X 34.3354 Y 6.4947 Z -1.0000
G01 X 34.3338 Y 6.4826 Z -1.0000
G01 X 34.3106 Y 6.4805 Z -1.0000
G01 X 34.3016 Y 6.4408 Z -1.0000
G01 X 34.2965 Y 6.4316 Z -1.0000
G01 X 34.2864 Y 6.4349 Z -1.0000
G01 X 34.2702 Y 6.4230 Z -1.0000
G02 X 34.2517 Y 6.4045 Z -1.0000 I -0.0666 J 0.0482
G01 X 34.2388 Y 6.4004 Z -1.0000
G01 X 34.2351 Y 6.4071 Z -1.0000
G02 X 34.2787 Y 6.4646 Z -1.0000 I 0.3293 J -0.2045
G03 X 34.3027 Y 6.4931 Z -1.0000 I -0.3178 J 0.2915
G01 X 34.3064 Y 6.5006 Z -1.0000
G02 X 34.3263 Y 6.5304 Z -1.0000 I 0.0549 J -0.0152
G01 X 34.3433 Y 6.5293 Z -1.0000
G01 X 34.3504 Y 6.5506 Z -1.0000
G02 X 34.3555 Y 6.5769 Z -1.0000 I 0.0695 J 0.0000
G02 X 34.3709 Y 6.6010 Z -1.0000 I 0.0745 J -0.0305
G03 X 34.3898 Y 6.6244 Z -1.0000 I -0.1597 J 0.1483
G03 X 34.4204 Y 6.6718 Z -1.0000 I -0.6294 J 0.4402
G02 X 34.4502 Y 6.7130 Z -1.0000 I 0.2443 J -0.1455
G01 X 34.4565 Y 6.7132 Z -1.0000
G01 X 34.4566 Y 6.7494 Z -1.0000
G02 X 34.4591 Y 6.7809 Z -1.0000 I 0.0661 J 0.0107
G01 X 34.4685 Y 6.7854 Z -1.0000
G01 X 34.4827 Y 6.7852 Z -1.0000
G01 X 34.4876 Y 6.7921 Z -1.0000
G01 X 34.4911 Y 6.7947 Z -1.0000
G01 X 34.4992 Y 6.7889 Z -1.0000
G02 X 34.5471 Y 6.6239 Z -1.0000 I -0.2394 J -0.1590
G02 X 34.4945 Y 6.5716 Z -1.0000 I -0.0533 J 0.0011
G01 X 34.4909 Y 6.5685 Z -1.0000
G01 X 34.4931 Y 6.5630 Z -1.0000
G01 X 34.5033 Y 6.5467 Z -1.0000
G02 X 34.5112 Y 6.4639 Z -1.0000 I -0.4785 J -0.0873
G03 X 34.5144 Y 6.4197 Z -1.0000 I 0.3434 J 0.0032
G01 X 34.5192 Y 6.4068 Z -1.0000
G02 X 34.5254 Y 6.3942 Z -1.0000 I -0.0548 J -0.0349
G02 X 34.5289 Y 6.3806 Z -1.0000 I -0.0671 J -0.0245
G03 X 34.5462 Y 6.3433 Z -1.0000 I 0.0735 J 0.0114
G01 X 34.5713 Y 6.3319 Z -1.0000
G01 X 34.5764 Y 6.3382 Z -1.0000
G03 X 34.5601 Y 6.3833 Z -1.0000 I -0.1741 J -0.0376
G02 X 34.5533 Y 6.4067 Z -1.0000 I 0.0536 J 0.0281
G02 X 34.5560 Y 6.4347 Z -1.0000 I 0.0816 J 0.0064
G03 X 34.5569 Y 6.4618 Z -1.0000 I -0.0564 J 0.0155
G03 X 34.5456 Y 6.4859 Z -1.0000 I -0.0551 J -0.0111
G01 X 34.5456 Y 6.4910 Z -1.0000
G01 X 34.5502 Y 6.4916 Z -1.0000
G02 X 34.5917 Y 6.4487 Z -1.0000 I -0.1091 J -0.1468
G01 X 34.5948 Y 6.4269 Z -1.0000
G01 X 34.5982 Y 6.4201 Z -1.0000
G01 X 34.6260 Y 6.4218 Z -1.0000
G02 X 34.6408 Y 6.3739 Z -1.0000 I -0.0429 J -0.0394
G01 X 34.6440 Y 6.3600 Z -1.0000
G01 X 34.6541 Y 6.3547 Z -1.0000
G01 X 34.6653 Y 6.3498 Z -1.0000
G01 X 34.6702 Y 6.3375 Z -1.0000
G01 X 34.6743 Y 6.3246 Z -1.0000
G01 X 34.6823 Y 6.3204 Z -1.0000
G01 X 34.6879 Y 6.3168 Z -1.0000
G01 X 34.6873 Y 6.3090 Z -1.0000
G01 X 34.6875 Y 6.3015 Z -1.0000
G01 X 34.6952 Y 6.2974 Z -1.0000
G01 X 34.6982 Y 6.2937 Z -1.0000
G01 X 34.6930 Y 6.2861 Z -1.0000
G01 X 34.6873 Y 6.2783 Z -1.0000
G01 X 34.6899 Y 6.2749 Z -1.0000
G01 X 34.6974 Y 6.2686 Z -1.0000
G02 X 34.7005 Y 6.2176 Z -1.0000 I -0.2060 J -0.0382
G03 X 34.7016 Y 6.1648 Z -1.0000 I 0.3239 J -0.0196
G01 X 34.7064 Y 6.1604 Z -1.0000
G01 X 34.7127 Y 6.1574 Z -1.0000
G01 X 34.7158 Y 6.1483 Z -1.0000
G01 X 34.7122 Y 6.1428 Z -1.0000
G01 X 34.7044 Y 6.1433 Z -1.0000
G01 X 34.6977 Y 6.1419 Z -1.0000
G01 X 34.6929 Y 6.1262 Z -1.0000
G01 X 34.6977 Y 6.1105 Z -1.0000
G01 X 34.7044 Y 6.1091 Z -1.0000
G01 X 34.7139 Y 6.1059 Z -1.0000
G02 X 34.7170 Y 6.0773 Z -1.0000 I -0.0499 J -0.0199
G01 X 34.7179 Y 6.0688 Z -1.0000
G03 X 34.7346 Y 6.0316 Z -1.0000 I 0.3399 J 0.1308
G02 X 34.7510 Y 5.9938 Z -1.0000 I -0.2631 J -0.1364
G02 X 34.7738 Y 5.9205 Z -1.0000 I -0.9686 J -0.3417
G03 X 34.8324 Y 5.7464 Z -1.0000 I 1.4766 J 0.3997
G03 X 34.8629 Y 5.7003 Z -1.0000 I 0.1289 J 0.0522
G02 X 34.8733 Y 5.6865 Z -1.0000 I -0.0442 J -0.0442
G01 X 34.8758 Y 5.6772 Z -1.0000
G01 X 34.8782 Y 5.6678 Z -1.0000
G03 X 34.8999 Y 5.6332 Z -1.0000 I 0.3010 J 0.1643
G02 X 34.9184 Y 5.5998 Z -1.0000 I -0.1413 J -0.1006
G01 X 34.9170 Y 5.5924 Z -1.0000
G01 X 34.9130 Y 5.5926 Z -1.0000
G01 X 34.9099 Y 5.6016 Z -1.0000
G01 X 34.9061 Y 5.6051 Z -1.0000
G01 X 34.8986 Y 5.6006 Z -1.0000
G01 X 34.8865 Y 5.5892 Z -1.0000
G01 X 34.8867 Y 5.5893 Z -1.0000
G00 Z 5.0000

(End cutting path id: path6706)


(Start cutting path id: path6706)
(Change tool to Default tool)

G00 Z 5.0000
G00 X 34.4255 Y 5.6187

G01 Z -1.0000 F 100.0000(Penetrate)
G02 X 34.4116 Y 5.6383 Z -1.0000 I 0.0496 J 0.0496 F 3500.0000
G01 X 34.4079 Y 5.6558 Z -1.0000
G02 X 34.4253 Y 5.7242 Z -1.0000 I 0.1562 J -0.0033
G01 X 34.4414 Y 5.7207 Z -1.0000
G01 X 34.4646 Y 5.7435 Z -1.0000
G02 X 34.4820 Y 5.7602 Z -1.0000 I 0.0453 J -0.0300
G01 X 34.4874 Y 5.7571 Z -1.0000
G01 X 34.4920 Y 5.7445 Z -1.0000
G01 X 34.4988 Y 5.7434 Z -1.0000
G01 X 34.5226 Y 5.7293 Z -1.0000
G02 X 34.4933 Y 5.6351 Z -1.0000 I -0.1999 J 0.0105
G01 X 34.4927 Y 5.6272 Z -1.0000
G01 X 34.4983 Y 5.6235 Z -1.0000
G01 X 34.5070 Y 5.6201 Z -1.0000
G01 X 34.5104 Y 5.6121 Z -1.0000
G01 X 34.4869 Y 5.5904 Z -1.0000
G02 X 34.4255 Y 5.6186 Z -1.0000 I 0.0075 J 0.0972
G01 X 34.4255 Y 5.6187 Z -1.0000
G00 Z 5.0000

(End cutting path id: path6706)


(Start cutting path id: path6706)
(Change tool to Default tool)

G00 Z 5.0000
G00 X 34.4304 Y 5.7588

G01 Z -1.0000 F 100.0000(Penetrate)
G01 X 34.4339 Y 5.7647 Z -1.0000 F 3500.0000
G01 X 34.4475 Y 5.7683 Z -1.0000
G01 X 34.4611 Y 5.7647 Z -1.0000
G01 X 34.4646 Y 5.7588 Z -1.0000
G01 X 34.4611 Y 5.7528 Z -1.0000
G01 X 34.4475 Y 5.7493 Z -1.0000
G01 X 34.4339 Y 5.7528 Z -1.0000
G01 X 34.4304 Y 5.7588 Z -1.0000
G01 X 34.4304 Y 5.7588 Z -1.0000
G00 Z 5.0000

(End cutting path id: path6706)


(Start cutting path id: path6706)
(Change tool to Default tool)

G00 Z 5.0000
G00 X 34.4937 Y 6.0974

G01 Z -1.0000 F 100.0000(Penetrate)
G03 X 34.5223 Y 6.1302 Z -1.0000 I -0.0655 J 0.0859 F 3500.0000
G03 X 34.5350 Y 6.1706 Z -1.0000 I -0.0889 J 0.0501
G03 X 34.5299 Y 6.2015 Z -1.0000 I -0.0612 J 0.0058
G01 X 34.5196 Y 6.2051 Z -1.0000
G02 X 34.4995 Y 6.1968 Z -1.0000 I -0.0514 J 0.0962
G01 X 34.4908 Y 6.1966 Z -1.0000
G01 X 34.4818 Y 6.1968 Z -1.0000
G03 X 34.4525 Y 6.1904 Z -1.0000 I 0.0431 J -0.2650
G02 X 34.3978 Y 6.1772 Z -1.0000 I -0.1915 J 0.6763
G02 X 34.3646 Y 6.1729 Z -1.0000 I -0.0484 J 0.2438
G01 X 34.3551 Y 6.1676 Z -1.0000
G01 X 34.3504 Y 6.1530 Z -1.0000
G01 X 34.3571 Y 6.1407 Z -1.0000
G01 X 34.3639 Y 6.1413 Z -1.0000
G02 X 34.4051 Y 6.1083 Z -1.0000 I -0.1818 J -0.2695
G03 X 34.4472 Y 6.0709 Z -1.0000 I 0.6673 J 0.7074
G01 X 34.4517 Y 6.0692 Z -1.0000
G01 X 34.4563 Y 6.0706 Z -1.0000
G03 X 34.4937 Y 6.0974 Z -1.0000 I -0.4178 J 0.6239
G01 X 34.4937 Y 6.0974 Z -1.0000
G00 Z 5.0000

(End cutting path id: path6706)


(Start cutting path id: path6706)
(Change tool to Default tool)

G00 Z 5.0000
G00 X 34.6573 Y 6.1615

G01 Z -1.0000 F 100.0000(Penetrate)
G01 X 34.6474 Y 6.1574 Z -1.0000 F 3500.0000
G01 X 34.6498 Y 6.1310 Z -1.0000
G01 X 34.6614 Y 6.1209 Z -1.0000
G01 X 34.6684 Y 6.1254 Z -1.0000
G03 X 34.6665 Y 6.1496 Z -1.0000 I -0.0553 J 0.0078
G01 X 34.6573 Y 6.1615 Z -1.0000
G01 X 34.6573 Y 6.1615 Z -1.0000
G00 Z 5.0000

(End cutting path id: path6706)


(Start cutting path id: path6706)
(Change tool to Default tool)

G00 Z 5.0000
G00 X 34.6390 Y 6.2048

G01 Z -1.0000 F 100.0000(Penetrate)
G01 X 34.6309 Y 6.2140 Z -1.0000 F 3500.0000
G02 X 34.6204 Y 6.2434 Z -1.0000 I 0.1356 J 0.0652
G03 X 34.6079 Y 6.2687 Z -1.0000 I -0.0626 J -0.0152
G01 X 34.5951 Y 6.2748 Z -1.0000
G01 X 34.5860 Y 6.2795 Z -1.0000
G01 X 34.5857 Y 6.2880 Z -1.0000
G01 X 34.5849 Y 6.2922 Z -1.0000
G01 X 34.5796 Y 6.2924 Z -1.0000
G01 X 34.5713 Y 6.2811 Z -1.0000
G03 X 34.5705 Y 6.2568 Z -1.0000 I 0.0535 J -0.0138
G02 X 34.5700 Y 6.2330 Z -1.0000 I -0.0565 J -0.0107
G01 X 34.5630 Y 6.2247 Z -1.0000
G01 X 34.5747 Y 6.2186 Z -1.0000
G02 X 34.5969 Y 6.2133 Z -1.0000 I -0.0021 J -0.0572
G01 X 34.6131 Y 6.2007 Z -1.0000
G01 X 34.6283 Y 6.1898 Z -1.0000
G01 X 34.6386 Y 6.1907 Z -1.0000
G01 X 34.6427 Y 6.1978 Z -1.0000
G01 X 34.6391 Y 6.2049 Z -1.0000
G01 X 34.6390 Y 6.2048 Z -1.0000
G00 Z 5.0000

(End cutting path id: path6706)


(Start cutting path id: path6706)
(Change tool to Default tool)

G00 Z 5.0000
G00 X 34.0954 Y 6.1856

G01 Z -1.0000 F 100.0000(Penetrate)
G01 X 34.0885 Y 6.1787 Z -1.0000 F 3500.0000
G01 X 34.0945 Y 6.1637 Z -1.0000
G01 X 34.0978 Y 6.1713 Z -1.0000
G01 X 34.0954 Y 6.1856 Z -1.0000
G01 X 34.0954 Y 6.1856 Z -1.0000
G00 Z 5.0000

(End cutting path id: path6706)


(Start cutting path id: path6706)
(Change tool to Default tool)

G00 Z 5.0000
G00 X 33.9255 Y 5.9970

G01 Z -1.0000 F 100.0000(Penetrate)
G01 X 33.9397 Y 5.9995 Z -1.0000 F 3500.0000
G01 X 33.9474 Y 5.9961 Z -1.0000
G01 X 33.9324 Y 5.9901 Z -1.0000
G01 X 33.9255 Y 5.9970 Z -1.0000
G01 X 33.9255 Y 5.9970 Z -1.0000
G00 Z 5.0000

(End cutting path id: path6706)


(Start cutting path id: path6706)
(Change tool to Default tool)

G00 Z 5.0000
G00 X 33.7785 Y 5.9555

G01 Z -1.0000 F 100.0000(Penetrate)
G01 X 33.7735 Y 5.9627 Z -1.0000 F 3500.0000
G01 X 33.7763 Y 5.9662 Z -1.0000
G01 X 33.7861 Y 5.9708 Z -1.0000
G01 X 33.7906 Y 5.9827 Z -1.0000
G01 X 33.7955 Y 5.9954 Z -1.0000
G01 X 33.8122 Y 6.0059 Z -1.0000
G01 X 33.8296 Y 6.0168 Z -1.0000
G01 X 33.8394 Y 6.0343 Z -1.0000
G01 X 33.8498 Y 6.0520 Z -1.0000
G02 X 33.8803 Y 6.0740 Z -1.0000 I 0.0895 J -0.0921
G01 X 33.9041 Y 6.0794 Z -1.0000
G01 X 33.9083 Y 6.0731 Z -1.0000
G01 X 33.9161 Y 6.0662 Z -1.0000
G03 X 33.9483 Y 6.0942 Z -1.0000 I -0.0432 J 0.0823
G02 X 33.9659 Y 6.1096 Z -1.0000 I 0.0423 J -0.0305
G01 X 33.9868 Y 6.1149 Z -1.0000
G01 X 34.0003 Y 6.1224 Z -1.0000
G01 X 34.0028 Y 6.1406 Z -1.0000
G02 X 33.9828 Y 6.2404 Z -1.0000 I 0.5518 J 0.1623
G02 X 33.9691 Y 6.4481 Z -1.0000 I 2.3923 J 0.2617
G03 X 33.9616 Y 6.4996 Z -1.0000 I -0.2155 J -0.0050
G01 X 33.9545 Y 6.5019 Z -1.0000
G01 X 33.9434 Y 6.4991 Z -1.0000
G01 X 33.9354 Y 6.5057 Z -1.0000
G01 X 33.9286 Y 6.4996 Z -1.0000
G01 X 33.9239 Y 6.4805 Z -1.0000
G02 X 33.9105 Y 6.4616 Z -1.0000 I -0.0610 J 0.0289
G01 X 33.8958 Y 6.4558 Z -1.0000
G01 X 33.8865 Y 6.4624 Z -1.0000
G01 X 33.8774 Y 6.4738 Z -1.0000
G01 X 33.8694 Y 6.4740 Z -1.0000
G01 X 33.8645 Y 6.4773 Z -1.0000
G02 X 33.8801 Y 6.5280 Z -1.0000 I 0.2549 J -0.0505
G03 X 33.8984 Y 6.5784 Z -1.0000 I -0.4798 J 0.2030
G03 X 33.9215 Y 6.6632 Z -1.0000 I -1.3395 J 0.4104
G02 X 33.9435 Y 6.7484 Z -1.0000 I 2.4331 J -0.5813
G02 X 33.9515 Y 6.7718 Z -1.0000 I 0.1892 J -0.0523
G03 X 33.9593 Y 6.7951 Z -1.0000 I -0.1644 J 0.0680
G03 X 33.9663 Y 6.8289 Z -1.0000 I -0.3219 J 0.0835
G02 X 33.9727 Y 6.8629 Z -1.0000 I 0.4913 J -0.0756
G02 X 33.9903 Y 6.9348 Z -1.0000 I 2.0726 J -0.4685
G03 X 34.0072 Y 7.0068 Z -1.0000 I -1.3562 J 0.3567
G03 X 34.0104 Y 7.0320 Z -1.0000 I -0.1616 J 0.0335
G02 X 34.0141 Y 7.0566 Z -1.0000 I 0.1303 J -0.0066
G01 X 34.0195 Y 7.0688 Z -1.0000
G03 X 34.0257 Y 7.0810 Z -1.0000 I -0.0434 J 0.0296
G03 X 34.0356 Y 7.1144 Z -1.0000 I -0.3178 J 0.1119
G02 X 34.0464 Y 7.1466 Z -1.0000 I 0.1840 J -0.0441
G01 X 34.0532 Y 7.1544 Z -1.0000
G01 X 34.0590 Y 7.1624 Z -1.0000
G03 X 34.0658 Y 7.2059 Z -1.0000 I -0.2541 J 0.0621
G02 X 34.0724 Y 7.2504 Z -1.0000 I 0.2943 J -0.0211
G01 X 34.0793 Y 7.2654 Z -1.0000
G01 X 34.0851 Y 7.2794 Z -1.0000
G01 X 34.0827 Y 7.2903 Z -1.0000
G01 X 34.0791 Y 7.3225 Z -1.0000
G02 X 34.1102 Y 7.3716 Z -1.0000 I 0.1160 J -0.0391
G03 X 34.1606 Y 7.4437 Z -1.0000 I -0.1569 J 0.1633
G03 X 34.1647 Y 7.4955 Z -1.0000 I -0.0723 J 0.0318
G01 X 34.1711 Y 7.5311 Z -1.0000
G01 X 34.1975 Y 7.5423 Z -1.0000
G01 X 34.2037 Y 7.5438 Z -1.0000
G01 X 34.2128 Y 7.5537 Z -1.0000
G01 X 34.2533 Y 7.5599 Z -1.0000
G01 X 34.2675 Y 7.5064 Z -1.0000
G01 X 34.2658 Y 7.4915 Z -1.0000
G03 X 34.2720 Y 7.4652 Z -1.0000 I 0.1124 J 0.0126
G01 X 34.2743 Y 7.4479 Z -1.0000
G01 X 34.2703 Y 7.4459 Z -1.0000
G01 X 34.2553 Y 7.4365 Z -1.0000
G03 X 34.2810 Y 7.3503 Z -1.0000 I 0.2529 J 0.0285
G02 X 34.3180 Y 7.2434 Z -1.0000 I -0.3773 J -0.1905
G01 X 34.3075 Y 7.2191 Z -1.0000
G01 X 34.3025 Y 7.2117 Z -1.0000
G03 X 34.2953 Y 7.1483 Z -1.0000 I 0.5442 J -0.0937
G02 X 34.2869 Y 7.0839 Z -1.0000 I -0.4323 J 0.0240
G02 X 34.2689 Y 7.0217 Z -1.0000 I -0.4167 J 0.0870
G03 X 34.2511 Y 6.9611 Z -1.0000 I 0.4088 J -0.1529
G01 X 34.2532 Y 6.9490 Z -1.0000
G01 X 34.2545 Y 6.9406 Z -1.0000
G01 X 34.2505 Y 6.9374 Z -1.0000
G01 X 34.2439 Y 6.9331 Z -1.0000
G03 X 34.2192 Y 6.8626 Z -1.0000 I 0.5895 J -0.2461
G02 X 34.1952 Y 6.7898 Z -1.0000 I -0.9153 J 0.2618
G01 X 34.1891 Y 6.7824 Z -1.0000
G01 X 34.1820 Y 6.7755 Z -1.0000
G03 X 34.1633 Y 6.7428 Z -1.0000 I 0.2743 J -0.1788
G01 X 34.1569 Y 6.7152 Z -1.0000
G01 X 34.1654 Y 6.7151 Z -1.0000
G01 X 34.1745 Y 6.7040 Z -1.0000
G01 X 34.1835 Y 6.6927 Z -1.0000
G01 X 34.1915 Y 6.6925 Z -1.0000
G01 X 34.1994 Y 6.6868 Z -1.0000
G02 X 34.1829 Y 6.6575 Z -1.0000 I -0.0606 J 0.0148
G01 X 34.1653 Y 6.6488 Z -1.0000
G01 X 34.1546 Y 6.6538 Z -1.0000
G01 X 34.1491 Y 6.6546 Z -1.0000
G01 X 34.1448 Y 6.6452 Z -1.0000
G01 X 34.1390 Y 6.6239 Z -1.0000
G02 X 34.1158 Y 6.5944 Z -1.0000 I -0.1098 J 0.0627
G03 X 34.0931 Y 6.5642 Z -1.0000 I 0.0748 J -0.0797
G03 X 34.0801 Y 6.5239 Z -1.0000 I 0.1223 J -0.0620
G02 X 34.0694 Y 6.4847 Z -1.0000 I -0.1876 J 0.0298
G01 X 34.0631 Y 6.4804 Z -1.0000
G01 X 34.0567 Y 6.4768 Z -1.0000
G01 X 34.0531 Y 6.4639 Z -1.0000
G01 X 34.0501 Y 6.4491 Z -1.0000
G01 X 34.0438 Y 6.4417 Z -1.0000
G01 X 34.0394 Y 6.4438 Z -1.0000
G02 X 34.0382 Y 6.4823 Z -1.0000 I 0.1779 J 0.0244
G03 X 34.0341 Y 6.5181 Z -1.0000 I -0.0930 J 0.0074
G01 X 34.0254 Y 6.5223 Z -1.0000
G01 X 34.0116 Y 6.5220 Z -1.0000
G01 X 34.0037 Y 6.5296 Z -1.0000
G01 X 34.0034 Y 6.4815 Z -1.0000
G03 X 34.0187 Y 6.4102 Z -1.0000 I 0.2772 J 0.0223
G01 X 34.0303 Y 6.4061 Z -1.0000
G01 X 34.0412 Y 6.4005 Z -1.0000
G02 X 34.0354 Y 6.3147 Z -1.0000 I -0.3501 J -0.0195
G03 X 34.0247 Y 6.1665 Z -1.0000 I 0.6217 J -0.1195
G01 X 34.0429 Y 6.1491 Z -1.0000
G01 X 34.0504 Y 6.1529 Z -1.0000
G03 X 34.0762 Y 6.1952 Z -1.0000 I -0.2644 J 0.1902
G02 X 34.1023 Y 6.2321 Z -1.0000 I 0.1405 J -0.0717
G01 X 34.1124 Y 6.2334 Z -1.0000
G01 X 34.1162 Y 6.2345 Z -1.0000
G01 X 34.1159 Y 6.2404 Z -1.0000
G01 X 34.1141 Y 6.2539 Z -1.0000
G01 X 34.1238 Y 6.2679 Z -1.0000
G03 X 34.1386 Y 6.2818 Z -1.0000 I -0.0486 J 0.0662
G01 X 34.1418 Y 6.2897 Z -1.0000
G02 X 34.1733 Y 6.3642 Z -1.0000 I 0.1317 J -0.0118
G02 X 34.2273 Y 6.3889 Z -1.0000 I 0.0540 J -0.0465
G01 X 34.2307 Y 6.3852 Z -1.0000
G01 X 34.2259 Y 6.3736 Z -1.0000
G01 X 34.2189 Y 6.3584 Z -1.0000
G01 X 34.2216 Y 6.3489 Z -1.0000
G01 X 34.2140 Y 6.3489 Z -1.0000
G01 X 34.2065 Y 6.3471 Z -1.0000
G01 X 34.2044 Y 6.3336 Z -1.0000
G01 X 34.2047 Y 6.3172 Z -1.0000
G01 X 34.2004 Y 6.3154 Z -1.0000
G01 X 34.1726 Y 6.3128 Z -1.0000
G03 X 34.1559 Y 6.2750 Z -1.0000 I 0.0342 J -0.0378
G01 X 34.1526 Y 6.2636 Z -1.0000
G02 X 34.1330 Y 6.2378 Z -1.0000 I -0.1384 J 0.0849
G03 X 34.1150 Y 6.2113 Z -1.0000 I 0.0779 J -0.0726
G03 X 34.1099 Y 6.1897 Z -1.0000 I 0.0462 J -0.0222
G01 X 34.1039 Y 6.1684 Z -1.0000
G02 X 34.0700 Y 6.1221 Z -1.0000 I -0.2477 J 0.1463
G03 X 34.0366 Y 6.0775 Z -1.0000 I 0.2274 J -0.2048
G01 X 34.0366 Y 6.0678 Z -1.0000
G01 X 34.0361 Y 6.0615 Z -1.0000
G01 X 34.0273 Y 6.0576 Z -1.0000
G01 X 34.0130 Y 6.0541 Z -1.0000
G03 X 33.9895 Y 6.0376 Z -1.0000 I 0.0543 J -0.1028
G02 X 33.9657 Y 6.0210 Z -1.0000 I -0.0777 J 0.0860
G02 X 33.9445 Y 6.0140 Z -1.0000 I -0.0320 J 0.0610
G03 X 33.9239 Y 6.0066 Z -1.0000 I 0.0092 J -0.0579
G03 X 33.9077 Y 5.9922 Z -1.0000 I 0.0292 J -0.0493
G01 X 33.8912 Y 5.9788 Z -1.0000
G02 X 33.8677 Y 5.9725 Z -1.0000 I -0.0275 J 0.0558
G03 X 33.8425 Y 5.9680 Z -1.0000 I 0.0074 J -0.1149
G03 X 33.8182 Y 5.9579 Z -1.0000 I 0.0346 J -0.1173
G02 X 33.7949 Y 5.9511 Z -1.0000 I -0.0267 J 0.0486
G01 X 33.7782 Y 5.9554 Z -1.0000
G01 X 33.7785 Y 5.9555 Z -1.0000
G00 Z 5.0000

(End cutting path id: path6706)


(Start cutting path id: path6706)
(Change tool to Default tool)

G00 Z 5.0000
G00 X 33.6789 Y 6.3455

G01 Z -1.0000 F 100.0000(Penetrate)
G01 X 33.6977 Y 6.3611 Z -1.0000 F 3500.0000
G01 X 33.7105 Y 6.3500 Z -1.0000
G01 X 33.7053 Y 6.3372 Z -1.0000
G01 X 33.6925 Y 6.3319 Z -1.0000
G01 X 33.6810 Y 6.3367 Z -1.0000
G01 X 33.6789 Y 6.3455 Z -1.0000
G01 X 33.6789 Y 6.3455 Z -1.0000
G00 Z 5.0000

(End cutting path id: path6706)


(Start cutting path id: path6706)
(Change tool to Default tool)

G00 Z 5.0000
G00 X 33.7126 Y 6.5287

G01 Z -1.0000 F 100.0000(Penetrate)
G02 X 33.7015 Y 6.5432 Z -1.0000 I 0.0494 J 0.0494 F 3500.0000
G01 X 33.6991 Y 6.5522 Z -1.0000
G01 X 33.7176 Y 6.5437 Z -1.0000
G02 X 33.7318 Y 6.5252 Z -1.0000 I -0.0629 J -0.0629
G01 X 33.7311 Y 6.5202 Z -1.0000
G01 X 33.7262 Y 6.5193 Z -1.0000
G01 X 33.7126 Y 6.5287 Z -1.0000
G01 X 33.7126 Y 6.5287 Z -1.0000
G00 Z 5.0000

(End cutting path id: path6706)


(Start cutting path id: path6706)
(Change tool to Default tool)

G00 Z 5.0000
G00 X 33.7206 Y 6.6312

G01 Z -1.0000 F 100.0000(Penetrate)
G01 X 33.7139 Y 6.6370 Z -1.0000 F 3500.0000
G01 X 33.7051 Y 6.6229 Z -1.0000
G01 X 33.6953 Y 6.6210 Z -1.0000
G01 X 33.6814 Y 6.6437 Z -1.0000
G01 X 33.7031 Y 6.6774 Z -1.0000
G01 X 33.7046 Y 6.6826 Z -1.0000
G01 X 33.6991 Y 6.6863 Z -1.0000
G01 X 33.6956 Y 6.6912 Z -1.0000
G01 X 33.7048 Y 6.7041 Z -1.0000
G01 X 33.7163 Y 6.7208 Z -1.0000
G01 X 33.7125 Y 6.7307 Z -1.0000
G01 X 33.7077 Y 6.7411 Z -1.0000
G01 X 33.7173 Y 6.7598 Z -1.0000
G01 X 33.7264 Y 6.7785 Z -1.0000
G01 X 33.7210 Y 6.7899 Z -1.0000
G01 X 33.7189 Y 6.7961 Z -1.0000
G01 X 33.7249 Y 6.8002 Z -1.0000
G01 X 33.7395 Y 6.8058 Z -1.0000
G01 X 33.7449 Y 6.8176 Z -1.0000
G02 X 33.7502 Y 6.8465 Z -1.0000 I 0.0810 J 0.0000
G01 X 33.7623 Y 6.8633 Z -1.0000
G01 X 33.7722 Y 6.8770 Z -1.0000
G03 X 33.7828 Y 6.9176 Z -1.0000 I -0.1855 J 0.0698
G02 X 33.7938 Y 6.9583 Z -1.0000 I 0.1788 J -0.0265
G02 X 33.8071 Y 6.9785 Z -1.0000 I 0.0559 J -0.0224
G03 X 33.8193 Y 6.9972 Z -1.0000 I -0.0386 J 0.0386
G01 X 33.8184 Y 7.0072 Z -1.0000
G01 X 33.8179 Y 7.0175 Z -1.0000
G02 X 33.8402 Y 7.0517 Z -1.0000 I 0.1495 J -0.0732
G03 X 33.8648 Y 7.0876 Z -1.0000 I -0.1684 J 0.1417
G03 X 33.8824 Y 7.1286 Z -1.0000 I -0.2040 J 0.1119
G02 X 33.8983 Y 7.1705 Z -1.0000 I 0.4061 J -0.1301
G01 X 33.9062 Y 7.1826 Z -1.0000
G01 X 33.9132 Y 7.1947 Z -1.0000
G03 X 33.9162 Y 7.2140 Z -1.0000 I -0.0603 J 0.0194
G01 X 33.9198 Y 7.2309 Z -1.0000
G01 X 33.9254 Y 7.2346 Z -1.0000
G01 X 33.9318 Y 7.2385 Z -1.0000
G03 X 33.9557 Y 7.2946 Z -1.0000 I -0.4186 J 0.2114
G02 X 33.9795 Y 7.3529 Z -1.0000 I 0.5924 J -0.2079
G02 X 33.9922 Y 7.3726 Z -1.0000 I 0.0785 J -0.0368
G03 X 34.0025 Y 7.3905 Z -1.0000 I -0.0421 J 0.0362
G01 X 34.0009 Y 7.3975 Z -1.0000
G01 X 33.9967 Y 7.4211 Z -1.0000
G02 X 34.0420 Y 7.4859 Z -1.0000 I 0.2051 J -0.0950
G03 X 34.0905 Y 7.6025 Z -1.0000 I -0.1171 J 0.1171
G03 X 34.0429 Y 7.7182 Z -1.0000 I -0.1628 J 0.0006
G01 X 34.0336 Y 7.7318 Z -1.0000
G01 X 34.0306 Y 7.7464 Z -1.0000
G01 X 34.0261 Y 7.7605 Z -1.0000
G03 X 33.9967 Y 7.7941 Z -1.0000 I -0.1811 J -0.1289
G02 X 33.9694 Y 7.8258 Z -1.0000 I 0.1313 J 0.1406
G01 X 33.9700 Y 7.8329 Z -1.0000
G01 X 33.9694 Y 7.8369 Z -1.0000
G01 X 33.9563 Y 7.8401 Z -1.0000
G01 X 33.9434 Y 7.8368 Z -1.0000
G01 X 33.9428 Y 7.8327 Z -1.0000
G01 X 33.9438 Y 7.8257 Z -1.0000
G01 X 33.9304 Y 7.8102 Z -1.0000
G01 X 33.9221 Y 7.7989 Z -1.0000
G01 X 33.9249 Y 7.7948 Z -1.0000
G01 X 33.9354 Y 7.7907 Z -1.0000
G01 X 33.9392 Y 7.7824 Z -1.0000
G01 X 33.9355 Y 7.7768 Z -1.0000
G01 X 33.9279 Y 7.7773 Z -1.0000
G01 X 33.8972 Y 7.7782 Z -1.0000
G01 X 33.8857 Y 7.7545 Z -1.0000
G01 X 33.8830 Y 7.7456 Z -1.0000
G02 X 33.8640 Y 7.7326 Z -1.0000 I -0.0435 J 0.0430
G03 X 33.8443 Y 7.7182 Z -1.0000 I 0.0224 J -0.0513
G03 X 33.8254 Y 7.6886 Z -1.0000 I 0.0875 J -0.0767
G01 X 33.8096 Y 7.6688 Z -1.0000
G01 X 33.8008 Y 7.6705 Z -1.0000
G01 X 33.7951 Y 7.6714 Z -1.0000
G01 X 33.7908 Y 7.6625 Z -1.0000
G02 X 33.7869 Y 7.6406 Z -1.0000 I -0.0652 J 0.0005
G01 X 33.7775 Y 7.6259 Z -1.0000
G01 X 33.7690 Y 7.6108 Z -1.0000
G03 X 33.7617 Y 7.5607 Z -1.0000 I 0.2632 J -0.0639
G02 X 33.7544 Y 7.5104 Z -1.0000 I -0.2748 J 0.0144
G01 X 33.7450 Y 7.4917 Z -1.0000
G01 X 33.7362 Y 7.4740 Z -1.0000
G01 X 33.7373 Y 7.4584 Z -1.0000
G01 X 33.7345 Y 7.4455 Z -1.0000
G02 X 33.6977 Y 7.4193 Z -1.0000 I -0.0999 J 0.1011
G03 X 33.6705 Y 7.3985 Z -1.0000 I 0.0398 J -0.0805
G01 X 33.6727 Y 7.3912 Z -1.0000
G01 X 33.6756 Y 7.3875 Z -1.0000
G01 X 33.6729 Y 7.3845 Z -1.0000
G01 X 33.6613 Y 7.3783 Z -1.0000
G01 X 33.6608 Y 7.3689 Z -1.0000
G01 X 33.6478 Y 7.3718 Z -1.0000
G01 X 33.6343 Y 7.3756 Z -1.0000
G01 X 33.6363 Y 7.3629 Z -1.0000
G01 X 33.6276 Y 7.3470 Z -1.0000
G01 X 33.6170 Y 7.3301 Z -1.0000
G03 X 33.6133 Y 7.3089 Z -1.0000 I 0.0543 J -0.0204
G02 X 33.6094 Y 7.2875 Z -1.0000 I -0.0565 J -0.0008
G02 X 33.5936 Y 7.2588 Z -1.0000 I -0.1180 J 0.0464
G03 X 33.5767 Y 7.2306 Z -1.0000 I 0.1406 J -0.1033
G01 X 33.5735 Y 7.2168 Z -1.0000
G01 X 33.5692 Y 7.2042 Z -1.0000
G02 X 33.5440 Y 7.1789 Z -1.0000 I -0.1155 J 0.0896
G03 X 33.5234 Y 7.1529 Z -1.0000 I 0.0444 J -0.0564
G01 X 33.5221 Y 7.1320 Z -1.0000
G01 X 33.5205 Y 7.1107 Z -1.0000
G02 X 33.4941 Y 7.0753 Z -1.0000 I -0.1101 J 0.0543
G03 X 33.4632 Y 7.0410 Z -1.0000 I 0.1852 J -0.1983
G01 X 33.4618 Y 7.0327 Z -1.0000
G01 X 33.4615 Y 7.0250 Z -1.0000
G01 X 33.4564 Y 7.0204 Z -1.0000
G03 X 33.4155 Y 6.9928 Z -1.0000 I 0.0287 J -0.0868
G03 X 33.4022 Y 6.9566 Z -1.0000 I 0.0427 J -0.0362
G01 X 33.3970 Y 6.9446 Z -1.0000
G02 X 33.3708 Y 6.9267 Z -1.0000 I -0.0674 J 0.0708
G02 X 33.2333 Y 6.8909 Z -1.0000 I -0.1674 J 0.3613
G01 X 33.2079 Y 6.9144 Z -1.0000
G01 X 33.2033 Y 6.9214 Z -1.0000
G03 X 33.1822 Y 6.9253 Z -1.0000 I -0.0193 J -0.0461
G01 X 33.1708 Y 6.9186 Z -1.0000
G01 X 33.1736 Y 6.9067 Z -1.0000
G01 X 33.1499 Y 6.8951 Z -1.0000
G02 X 33.1172 Y 6.8995 Z -1.0000 I -0.0059 J 0.0816
G02 X 33.0899 Y 6.9159 Z -1.0000 I 0.0253 J 0.0727
G01 X 33.0692 Y 6.9264 Z -1.0000
G01 X 33.0614 Y 6.9212 Z -1.0000
G01 X 33.0546 Y 6.9072 Z -1.0000
G01 X 33.0459 Y 6.9033 Z -1.0000
G01 X 33.0403 Y 6.9082 Z -1.0000
G02 X 33.0416 Y 6.9333 Z -1.0000 I 0.0648 J 0.0092
G01 X 33.0397 Y 6.9526 Z -1.0000
G01 X 33.0306 Y 6.9562 Z -1.0000
G02 X 32.9852 Y 6.9571 Z -1.0000 I -0.0215 J 0.0559
G01 X 32.9680 Y 6.9833 Z -1.0000
G01 X 32.9721 Y 6.9884 Z -1.0000
G01 X 32.9880 Y 6.9877 Z -1.0000
G01 X 32.9871 Y 6.9948 Z -1.0000
G03 X 32.9668 Y 7.0034 Z -1.0000 I -0.0357 J -0.0561
G01 X 32.9595 Y 7.0013 Z -1.0000
G01 X 32.9526 Y 6.9999 Z -1.0000
G02 X 32.9342 Y 7.0113 Z -1.0000 I 0.0218 J 0.0556
G01 X 32.9142 Y 7.0167 Z -1.0000
G03 X 32.8419 Y 6.9913 Z -1.0000 I 0.0653 J -0.3021
G03 X 32.7774 Y 6.9494 Z -1.0000 I 0.1485 J -0.2988
G01 X 32.7700 Y 6.9318 Z -1.0000
G01 X 32.7657 Y 6.9258 Z -1.0000
G01 X 32.7574 Y 6.9289 Z -1.0000
G03 X 32.7411 Y 6.9458 Z -1.0000 I -0.0727 J -0.0535
G01 X 32.7324 Y 6.9489 Z -1.0000
G01 X 32.7130 Y 6.9650 Z -1.0000
G02 X 32.6985 Y 7.1317 Z -1.0000 I 0.8530 J 0.1582
G02 X 32.7078 Y 7.2720 Z -1.0000 I 1.2387 J -0.0119
G02 X 32.7197 Y 7.3040 Z -1.0000 I 0.0729 J -0.0090
G03 X 32.7345 Y 7.3330 Z -1.0000 I -0.1111 J 0.0748
G01 X 32.7329 Y 7.3401 Z -1.0000
G01 X 32.7307 Y 7.3475 Z -1.0000
G02 X 32.7395 Y 7.3716 Z -1.0000 I 0.0890 J -0.0188
G02 X 32.7536 Y 7.3907 Z -1.0000 I 0.0716 J -0.0383
G01 X 32.7585 Y 7.3907 Z -1.0000
G01 X 32.7954 Y 7.3906 Z -1.0000
G01 X 32.8003 Y 7.4320 Z -1.0000
G01 X 32.8022 Y 7.4360 Z -1.0000
G01 X 32.8183 Y 7.4348 Z -1.0000
G03 X 32.8381 Y 7.4324 Z -1.0000 I 0.0162 J 0.0507
G01 X 32.8412 Y 7.4364 Z -1.0000
G01 X 32.8469 Y 7.4514 Z -1.0000
G01 X 32.8597 Y 7.4513 Z -1.0000
G01 X 32.8676 Y 7.4501 Z -1.0000
G01 X 32.8700 Y 7.4555 Z -1.0000
G01 X 32.8736 Y 7.4657 Z -1.0000
G01 X 32.8954 Y 7.4699 Z -1.0000
G02 X 32.9275 Y 7.4636 Z -1.0000 I -0.0351 J -0.2627
G02 X 32.9598 Y 7.4530 Z -1.0000 I -0.0721 J -0.2748
G03 X 33.0062 Y 7.4499 Z -1.0000 I 0.0280 J 0.0704
G03 X 33.0480 Y 7.4750 Z -1.0000 I -0.0203 J 0.0812
G02 X 33.1232 Y 7.5174 Z -1.0000 I 0.1008 J -0.0908
G01 X 33.1675 Y 7.4980 Z -1.0000
G03 X 33.2134 Y 7.4726 Z -1.0000 I 0.0457 J 0.0285
G03 X 33.4179 Y 7.4992 Z -1.0000 I -0.0037 J 0.8292
G01 X 33.4359 Y 7.5089 Z -1.0000
G03 X 33.4534 Y 7.5311 Z -1.0000 I -0.0549 J 0.0609
G01 X 33.4678 Y 7.5463 Z -1.0000
G01 X 33.4755 Y 7.5445 Z -1.0000
G01 X 33.4778 Y 7.5347 Z -1.0000
G01 X 33.4743 Y 7.5314 Z -1.0000
G01 X 33.4822 Y 7.5201 Z -1.0000
G01 X 33.4873 Y 7.5125 Z -1.0000
G01 X 33.4844 Y 7.5089 Z -1.0000
G01 X 33.4762 Y 7.5050 Z -1.0000
G01 X 33.4758 Y 7.4985 Z -1.0000
G01 X 33.4756 Y 7.4904 Z -1.0000
G01 X 33.4642 Y 7.4814 Z -1.0000
G01 X 33.4540 Y 7.4709 Z -1.0000
G01 X 33.4536 Y 7.4517 Z -1.0000
G01 X 33.4513 Y 7.4391 Z -1.0000
G01 X 33.4413 Y 7.4364 Z -1.0000
G01 X 33.4310 Y 7.4329 Z -1.0000
G01 X 33.4275 Y 7.4138 Z -1.0000
G02 X 33.4278 Y 7.3916 Z -1.0000 I -0.0620 J -0.0120
G01 X 33.4236 Y 7.3897 Z -1.0000
G01 X 33.4156 Y 7.3886 Z -1.0000
G03 X 33.3811 Y 7.3439 Z -1.0000 I 0.2266 J -0.2102
G02 X 33.3475 Y 7.2997 Z -1.0000 I -0.2771 J 0.1758
G01 X 33.3410 Y 7.2995 Z -1.0000
G01 X 33.3370 Y 7.2991 Z -1.0000
G01 X 33.3337 Y 7.2878 Z -1.0000
G01 X 33.3288 Y 7.2737 Z -1.0000
G01 X 33.3186 Y 7.2688 Z -1.0000
G03 X 33.1948 Y 7.2258 Z -1.0000 I -0.0000 J -0.1997
G03 X 33.1712 Y 7.1523 Z -1.0000 I 0.0429 J -0.0543
G01 X 33.1693 Y 7.1480 Z -1.0000
G01 X 33.1632 Y 7.1483 Z -1.0000
G03 X 33.0646 Y 7.1495 Z -1.0000 I -0.0503 J -0.0814
G03 X 33.0138 Y 7.0610 Z -1.0000 I 0.0517 J -0.0885
G01 X 33.0182 Y 7.0561 Z -1.0000
G03 X 33.0395 Y 7.0581 Z -1.0000 I 0.0059 J 0.0521
G01 X 33.0438 Y 7.0546 Z -1.0000
G01 X 33.0377 Y 7.0437 Z -1.0000
G01 X 33.0247 Y 7.0235 Z -1.0000
G01 X 33.0297 Y 7.0137 Z -1.0000
G01 X 33.0406 Y 7.0133 Z -1.0000
G01 X 33.0422 Y 7.0175 Z -1.0000
G01 X 33.0415 Y 7.0253 Z -1.0000
G01 X 33.0464 Y 7.0288 Z -1.0000
G03 X 33.0574 Y 7.0299 Z -1.0000 I -0.0000 J 0.0540
G03 X 33.0785 Y 7.0354 Z -1.0000 I -0.0447 J 0.2159
G01 X 33.0792 Y 7.0290 Z -1.0000
G01 X 33.0655 Y 7.0146 Z -1.0000
G01 X 33.0656 Y 7.0053 Z -1.0000
G01 X 33.0937 Y 6.9904 Z -1.0000
G01 X 33.1235 Y 7.0079 Z -1.0000
G01 X 33.1220 Y 7.0132 Z -1.0000
G01 X 33.1121 Y 7.0137 Z -1.0000
G01 X 33.1011 Y 7.0133 Z -1.0000
G01 X 33.0995 Y 7.0175 Z -1.0000
G01 X 33.1081 Y 7.0258 Z -1.0000
G01 X 33.1194 Y 7.0288 Z -1.0000
G01 X 33.1310 Y 7.0321 Z -1.0000
G03 X 33.1569 Y 7.0519 Z -1.0000 I -0.0859 J 0.1390
G02 X 33.1990 Y 7.0651 Z -1.0000 I 0.0347 J -0.0369
G01 X 33.2069 Y 7.0446 Z -1.0000
G02 X 33.1924 Y 7.0317 Z -1.0000 I -0.0486 J 0.0402
G01 X 33.1823 Y 7.0287 Z -1.0000
G01 X 33.1791 Y 7.0326 Z -1.0000
G01 X 33.1851 Y 7.0459 Z -1.0000
G01 X 33.1911 Y 7.0591 Z -1.0000
G01 X 33.1877 Y 7.0630 Z -1.0000
G01 X 33.1651 Y 7.0471 Z -1.0000
G01 X 33.1735 Y 7.0232 Z -1.0000
G01 X 33.1837 Y 7.0219 Z -1.0000
G03 X 33.2215 Y 7.0381 Z -1.0000 I -0.0575 J 0.1856
G02 X 33.2598 Y 7.0549 Z -1.0000 I 0.1055 J -0.1884
G01 X 33.2726 Y 7.0549 Z -1.0000
G01 X 33.2817 Y 7.0578 Z -1.0000
G03 X 33.2934 Y 7.0848 Z -1.0000 I -0.0623 J 0.0432
G02 X 33.3060 Y 7.1145 Z -1.0000 I 0.0874 J -0.0194
G01 X 33.3202 Y 7.1253 Z -1.0000
G03 X 33.4168 Y 7.1844 Z -1.0000 I -0.0744 J 0.2303
G01 X 33.4105 Y 7.2155 Z -1.0000
G01 X 33.4194 Y 7.2224 Z -1.0000
G03 X 33.4815 Y 7.2416 Z -1.0000 I -0.0074 J 0.1346
G01 X 33.4771 Y 7.2572 Z -1.0000
G01 X 33.5007 Y 7.2826 Z -1.0000
G03 X 33.5322 Y 7.3094 Z -1.0000 I -0.2735 J 0.3549
G03 X 33.5468 Y 7.3255 Z -1.0000 I -0.0834 J 0.0897
G02 X 33.5602 Y 7.3426 Z -1.0000 I 0.3675 J -0.2756
G02 X 33.5882 Y 7.3756 Z -1.0000 I 1.4502 J -1.1993
G03 X 33.6126 Y 7.4105 Z -1.0000 I -0.1574 J 0.1364
G03 X 33.6310 Y 7.4523 Z -1.0000 I -0.2102 J 0.1174
G02 X 33.6483 Y 7.4888 Z -1.0000 I 0.1544 J -0.0509
G01 X 33.6553 Y 7.4904 Z -1.0000
G01 X 33.6669 Y 7.4959 Z -1.0000
G03 X 33.6664 Y 7.5686 Z -1.0000 I -0.2424 J 0.0345
G01 X 33.6684 Y 7.5742 Z -1.0000
G01 X 33.6764 Y 7.5772 Z -1.0000
G01 X 33.6838 Y 7.5812 Z -1.0000
G01 X 33.6879 Y 7.5950 Z -1.0000
G01 X 33.6835 Y 7.6049 Z -1.0000
G01 X 33.6762 Y 7.6056 Z -1.0000
G01 X 33.6825 Y 7.6432 Z -1.0000
G03 X 33.6969 Y 7.6883 Z -1.0000 I -0.3045 J 0.1223
G01 X 33.6970 Y 7.7030 Z -1.0000
G01 X 33.7003 Y 7.7139 Z -1.0000
G01 X 33.7200 Y 7.7247 Z -1.0000
G03 X 33.7430 Y 7.7346 Z -1.0000 I -0.0196 J 0.0769
G01 X 33.7486 Y 7.7428 Z -1.0000
G01 X 33.7530 Y 7.7505 Z -1.0000
G01 X 33.7589 Y 7.7515 Z -1.0000
G01 X 33.7606 Y 7.7657 Z -1.0000
G01 X 33.7611 Y 7.7795 Z -1.0000
G01 X 33.7717 Y 7.7894 Z -1.0000
G01 X 33.7825 Y 7.7992 Z -1.0000
G01 X 33.7831 Y 7.8125 Z -1.0000
G01 X 33.7853 Y 7.8203 Z -1.0000
G01 X 33.7952 Y 7.8218 Z -1.0000
G01 X 33.8086 Y 7.8222 Z -1.0000
G01 X 33.8138 Y 7.8302 Z -1.0000
G01 X 33.8178 Y 7.8336 Z -1.0000
G01 X 33.8262 Y 7.8286 Z -1.0000
G01 X 33.8308 Y 7.8286 Z -1.0000
G01 X 33.8326 Y 7.8378 Z -1.0000
G01 X 33.8350 Y 7.8507 Z -1.0000
G01 X 33.8418 Y 7.8517 Z -1.0000
G01 X 33.8561 Y 7.8502 Z -1.0000
G03 X 33.8948 Y 7.8796 Z -1.0000 I -0.0690 J 0.1310
G02 X 33.9348 Y 7.9156 Z -1.0000 I 0.2431 J -0.2293
G01 X 33.9475 Y 7.9200 Z -1.0000
G01 X 33.9586 Y 7.9235 Z -1.0000
G01 X 33.9621 Y 7.9304 Z -1.0000
G01 X 33.9764 Y 7.9401 Z -1.0000
G02 X 34.0153 Y 7.9096 Z -1.0000 I -0.0312 J -0.0796
G02 X 34.0293 Y 7.8821 Z -1.0000 I -0.0914 J -0.0640
G02 X 34.0335 Y 7.8568 Z -1.0000 I -0.0729 J -0.0253
G01 X 34.0402 Y 7.8328 Z -1.0000
G03 X 34.0776 Y 7.7830 Z -1.0000 I 0.2522 J 0.1504
G02 X 34.1251 Y 7.7125 Z -1.0000 I -0.1980 J -0.1846
G02 X 34.1520 Y 7.6229 Z -1.0000 I -0.2972 J -0.1382
G02 X 34.1600 Y 7.5400 Z -1.0000 I -0.7893 J -0.1184
G01 X 34.1558 Y 7.5375 Z -1.0000
G01 X 34.1487 Y 7.5376 Z -1.0000
G01 X 34.1411 Y 7.5287 Z -1.0000
G01 X 34.1339 Y 7.5372 Z -1.0000
G01 X 34.1281 Y 7.5397 Z -1.0000
G03 X 34.1097 Y 7.5169 Z -1.0000 I 0.0493 J -0.0586
G03 X 34.0919 Y 7.4739 Z -1.0000 I 0.2186 J -0.1154
G01 X 34.0933 Y 7.4633 Z -1.0000
G01 X 34.0933 Y 7.4546 Z -1.0000
G01 X 34.0805 Y 7.4422 Z -1.0000
G01 X 34.0687 Y 7.4289 Z -1.0000
G01 X 34.0685 Y 7.4130 Z -1.0000
G01 X 34.0685 Y 7.3993 Z -1.0000
G01 X 34.0613 Y 7.3944 Z -1.0000
G01 X 34.0517 Y 7.3893 Z -1.0000
G01 X 34.0451 Y 7.3697 Z -1.0000
G02 X 34.0399 Y 7.3471 Z -1.0000 I -0.0753 J 0.0055
G01 X 34.0325 Y 7.3383 Z -1.0000
G03 X 34.0112 Y 7.3142 Z -1.0000 I 0.0304 J -0.0483
G03 X 33.9339 Y 7.1279 Z -1.0000 I 2.0312 J -0.9522
G02 X 33.9099 Y 7.0768 Z -1.0000 I -0.2924 J 0.1062
G01 X 33.8980 Y 7.0667 Z -1.0000
G01 X 33.8853 Y 7.0585 Z -1.0000
G01 X 33.8822 Y 7.0511 Z -1.0000
G01 X 33.8802 Y 7.0419 Z -1.0000
G02 X 33.8308 Y 6.9352 Z -1.0000 I -3.2931 J 1.4600
G03 X 33.7831 Y 6.8280 Z -1.0000 I 1.7185 J -0.8300
G01 X 33.7794 Y 6.8095 Z -1.0000
G01 X 33.7759 Y 6.7921 Z -1.0000
G01 X 33.7689 Y 6.7838 Z -1.0000
G01 X 33.7553 Y 6.7642 Z -1.0000
G03 X 33.7426 Y 6.6531 Z -1.0000 I 0.6455 J -0.1299
G01 X 33.7315 Y 6.6270 Z -1.0000
G01 X 33.7209 Y 6.6311 Z -1.0000
G01 X 33.7206 Y 6.6312 Z -1.0000
G00 Z 5.0000

(End cutting path id: path6706)


(Start cutting path id: path6706)
(Change tool to Default tool)

G00 Z 5.0000
G00 X 33.8705 Y 6.4348

G01 Z -1.0000 F 100.0000(Penetrate)
G01 X 33.8610 Y 6.4458 Z -1.0000 F 3500.0000
G01 X 33.8625 Y 6.4534 Z -1.0000
G01 X 33.8709 Y 6.4558 Z -1.0000
G01 X 33.8843 Y 6.4485 Z -1.0000
G01 X 33.8933 Y 6.4352 Z -1.0000
G01 X 33.8923 Y 6.4299 Z -1.0000
G01 X 33.8866 Y 6.4282 Z -1.0000
G02 X 33.8705 Y 6.4348 Z -1.0000 I 0.0115 J 0.0511
G01 X 33.8705 Y 6.4348 Z -1.0000
G00 Z 5.0000

(End cutting path id: path6706)


(Start cutting path id: path6706)
(Change tool to Default tool)

G00 Z 5.0000
G00 X 33.9048 Y 6.4335

G01 Z -1.0000 F 100.0000(Penetrate)
G01 X 33.9076 Y 6.4433 Z -1.0000 F 3500.0000
G01 X 33.9162 Y 6.4520 Z -1.0000
G01 X 33.9241 Y 6.4527 Z -1.0000
G01 X 33.9276 Y 6.4476 Z -1.0000
G01 X 33.9249 Y 6.4377 Z -1.0000
G01 X 33.9162 Y 6.4291 Z -1.0000
G01 X 33.9083 Y 6.4283 Z -1.0000
G01 X 33.9048 Y 6.4335 Z -1.0000
G01 X 33.9048 Y 6.4335 Z -1.0000
G00 Z 5.0000

(End cutting path id: path6706)


(Start cutting path id: path6706)
(Change tool to Default tool)

G00 Z 5.0000
G00 X 34.0362 Y 6.6976

G01 Z -1.0000 F 100.0000(Penetrate)
G01 X 34.0370 Y 6.7046 Z -1.0000 F 3500.0000
G01 X 34.0476 Y 6.7090 Z -1.0000
G01 X 34.0582 Y 6.7134 Z -1.0000
G01 X 34.0590 Y 6.7204 Z -1.0000
G01 X 34.0605 Y 6.7271 Z -1.0000
G01 X 34.0762 Y 6.7319 Z -1.0000
G01 X 34.0929 Y 6.7361 Z -1.0000
G01 X 34.0943 Y 6.7416 Z -1.0000
G01 X 34.0933 Y 6.7511 Z -1.0000
G02 X 34.1047 Y 6.7730 Z -1.0000 I 0.0724 J -0.0241
G03 X 34.1176 Y 6.7959 Z -1.0000 I -0.0778 J 0.0588
G03 X 34.1215 Y 6.8155 Z -1.0000 I -0.0520 J 0.0206
G01 X 34.1259 Y 6.8346 Z -1.0000
G02 X 34.1390 Y 6.8534 Z -1.0000 I 0.0597 J -0.0276
G03 X 34.1525 Y 6.8724 Z -1.0000 I -0.0500 J 0.0500
G03 X 34.1622 Y 6.9012 Z -1.0000 I -0.1068 J 0.0520
G02 X 34.1693 Y 6.9315 Z -1.0000 I 0.5250 J -0.1060
G02 X 34.1802 Y 6.9690 Z -1.0000 I 0.7609 J -0.2003
G03 X 34.1895 Y 7.0066 Z -1.0000 I -0.2820 J 0.0896
G03 X 34.1929 Y 7.0404 Z -1.0000 I -0.2263 J 0.0404
G02 X 34.1979 Y 7.0704 Z -1.0000 I 0.1120 J -0.0032
G01 X 34.2036 Y 7.0746 Z -1.0000
G01 X 34.2096 Y 7.0783 Z -1.0000
G01 X 34.2135 Y 7.0946 Z -1.0000
G02 X 34.2160 Y 7.1142 Z -1.0000 I 0.0848 J -0.0007
G02 X 34.2297 Y 7.1603 Z -1.0000 I 0.4975 J -0.1229
G03 X 34.2407 Y 7.2063 Z -1.0000 I -0.2195 J 0.0768
G03 X 34.2398 Y 7.2360 Z -1.0000 I -0.0904 J 0.0121
G02 X 34.2390 Y 7.2653 Z -1.0000 I 0.0876 J 0.0170
G02 X 34.2476 Y 7.2917 Z -1.0000 I 0.0790 J -0.0110
G03 X 34.2537 Y 7.3154 Z -1.0000 I -0.0458 J 0.0245
G01 X 34.2481 Y 7.3256 Z -1.0000
G01 X 34.2388 Y 7.3360 Z -1.0000
G02 X 34.2332 Y 7.3576 Z -1.0000 I 0.0556 J 0.0262
G01 X 34.2281 Y 7.3751 Z -1.0000
G01 X 34.2232 Y 7.3764 Z -1.0000
G01 X 34.2173 Y 7.3773 Z -1.0000
G01 X 34.2097 Y 7.3915 Z -1.0000
G01 X 34.2031 Y 7.3853 Z -1.0000
G01 X 34.1973 Y 7.3675 Z -1.0000
G01 X 34.1904 Y 7.3660 Z -1.0000
G01 X 34.1800 Y 7.3615 Z -1.0000
G03 X 34.1783 Y 7.3053 Z -1.0000 I 0.1673 J -0.0334
G01 X 34.1779 Y 7.2906 Z -1.0000
G02 X 34.1686 Y 7.2539 Z -1.0000 I -0.3058 J 0.0580
G03 X 34.1596 Y 7.2170 Z -1.0000 I 0.2553 J -0.0815
G03 X 34.1542 Y 7.1682 Z -1.0000 I 0.4263 J -0.0719
G02 X 34.1466 Y 7.1220 Z -1.0000 I -0.2115 J 0.0109
G01 X 34.1382 Y 7.1111 Z -1.0000
G01 X 34.1279 Y 7.1008 Z -1.0000
G03 X 34.1164 Y 7.0746 Z -1.0000 I 0.0984 J -0.0585
G01 X 34.1193 Y 7.0676 Z -1.0000
G01 X 34.1264 Y 7.0689 Z -1.0000
G01 X 34.1448 Y 7.0918 Z -1.0000
G01 X 34.1373 Y 7.0689 Z -1.0000
G02 X 34.1283 Y 7.0469 Z -1.0000 I -0.1573 J 0.0513
G02 X 34.1194 Y 7.0326 Z -1.0000 I -0.0769 J 0.0381
G01 X 34.1124 Y 7.0179 Z -1.0000
G03 X 34.1069 Y 6.9795 Z -1.0000 I 0.2117 J -0.0500
G02 X 34.1015 Y 6.9459 Z -1.0000 I -0.1656 J 0.0091
G01 X 34.0975 Y 6.9443 Z -1.0000
G01 X 34.0925 Y 6.9424 Z -1.0000
G03 X 34.0696 Y 6.8490 Z -1.0000 I 1.0628 J -0.3107
G02 X 34.0587 Y 6.8161 Z -1.0000 I -0.1401 J 0.0281
G01 X 34.0520 Y 6.8119 Z -1.0000
G01 X 34.0463 Y 6.8074 Z -1.0000
G03 X 34.0419 Y 6.7712 Z -1.0000 I 0.1459 J -0.0362
G02 X 34.0360 Y 6.7411 Z -1.0000 I -0.0800 J 0.0000
G01 X 34.0287 Y 6.7387 Z -1.0000
G01 X 34.0244 Y 6.7380 Z -1.0000
G01 X 34.0240 Y 6.7332 Z -1.0000
G01 X 34.0266 Y 6.7199 Z -1.0000
G01 X 34.0187 Y 6.7029 Z -1.0000
G01 X 34.0166 Y 6.6917 Z -1.0000
G01 X 34.0241 Y 6.6862 Z -1.0000
G01 X 34.0353 Y 6.6907 Z -1.0000
G01 X 34.0363 Y 6.6977 Z -1.0000
G01 X 34.0362 Y 6.6976 Z -1.0000
G00 Z 5.0000

(End cutting path id: path6706)


(Start cutting path id: path6706)
(Change tool to Default tool)

G00 Z 5.0000
G00 X 34.1904 Y 7.3374

G01 Z -1.0000 F 100.0000(Penetrate)
G01 X 34.1945 Y 7.3448 Z -1.0000 F 3500.0000
G01 X 34.2082 Y 7.3488 Z -1.0000
G01 X 34.2182 Y 7.3445 Z -1.0000
G01 X 34.2190 Y 7.3374 Z -1.0000
G01 X 34.2104 Y 7.3287 Z -1.0000
G01 X 34.2012 Y 7.3260 Z -1.0000
G01 X 34.1937 Y 7.3292 Z -1.0000
G01 X 34.1904 Y 7.3374 Z -1.0000
G01 X 34.1904 Y 7.3374 Z -1.0000
G00 Z 5.0000

(End cutting path id: path6706)


(Start cutting path id: path6706)
(Change tool to Default tool)

G00 Z 5.0000
G00 X 34.7731 Y 7.4180

G01 Z -1.0000 F 100.0000(Penetrate)
G01 X 34.7768 Y 7.4235 Z -1.0000 F 3500.0000
G01 X 34.7845 Y 7.4230 Z -1.0000
G01 X 34.7943 Y 7.4150 Z -1.0000
G01 X 34.7960 Y 7.4109 Z -1.0000
G01 X 34.7940 Y 7.4078 Z -1.0000
G01 X 34.7845 Y 7.4059 Z -1.0000
G01 X 34.7766 Y 7.4093 Z -1.0000
G01 X 34.7731 Y 7.4180 Z -1.0000
G01 X 34.7731 Y 7.4180 Z -1.0000
G00 Z 5.0000

(End cutting path id: path6706)


(Start cutting path id: path6706)
(Change tool to Default tool)

G00 Z 5.0000
G00 X 34.9333 Y 7.5380

G01 Z -1.0000 F 100.0000(Penetrate)
G03 X 34.8919 Y 7.5579 Z -1.0000 I -0.0801 J -0.1134 F 3500.0000
G03 X 34.8589 Y 7.5595 Z -1.0000 I -0.0198 J -0.0685
G02 X 34.8282 Y 7.5631 Z -1.0000 I -0.0096 J 0.0513
G02 X 34.8008 Y 7.5852 Z -1.0000 I 0.0275 J 0.0623
G02 X 34.7489 Y 7.6890 Z -1.0000 I 0.2816 J 0.2056
G02 X 34.7549 Y 7.7356 Z -1.0000 I 0.0544 J 0.0166
G03 X 34.7594 Y 7.7841 Z -1.0000 I -0.0467 J 0.0288
G01 X 34.7277 Y 7.8059 Z -1.0000
G01 X 34.7211 Y 7.8079 Z -1.0000
G02 X 34.6981 Y 7.8259 Z -1.0000 I 0.1157 J 0.1710
G03 X 34.5779 Y 7.9222 Z -1.0000 I -0.8491 J -0.9379
G03 X 34.5483 Y 7.9315 Z -1.0000 I -0.0296 J -0.0420
G02 X 34.5263 Y 7.9361 Z -1.0000 I -0.0000 J 0.0557
G01 X 34.5217 Y 7.9430 Z -1.0000
G03 X 34.5039 Y 7.9840 Z -1.0000 I -0.0561 J -0.0000
G03 X 34.3846 Y 8.0708 Z -1.0000 I -0.4165 J -0.4465
G02 X 34.3359 Y 8.1031 Z -1.0000 I 0.1883 J 0.3379
G02 X 34.2807 Y 8.1514 Z -1.0000 I 0.3744 J 0.4829
G03 X 34.2260 Y 8.2003 Z -1.0000 I -0.5129 J -0.5187
G03 X 34.1950 Y 8.2206 Z -1.0000 I -0.1167 J -0.1445
G02 X 34.1382 Y 8.2630 Z -1.0000 I 0.1020 J 0.1961
G02 X 34.1076 Y 8.3109 Z -1.0000 I 0.1021 J 0.0989
G01 X 34.0960 Y 8.3211 Z -1.0000
G03 X 34.0626 Y 8.3215 Z -1.0000 I -0.0176 J -0.0749
G02 X 33.9954 Y 8.3267 Z -1.0000 I -0.0247 J 0.1186
G02 X 33.9223 Y 8.3741 Z -1.0000 I 0.0711 J 0.1897
G01 X 33.8703 Y 8.4162 Z -1.0000
G01 X 33.8594 Y 8.4228 Z -1.0000
G01 X 33.8465 Y 8.4364 Z -1.0000
G01 X 33.8338 Y 8.4410 Z -1.0000
G02 X 33.7979 Y 8.4514 Z -1.0000 I 0.0077 J 0.0941
G01 X 33.7905 Y 8.4635 Z -1.0000
G01 X 33.7862 Y 8.4735 Z -1.0000
G01 X 33.7791 Y 8.4743 Z -1.0000
G01 X 33.7719 Y 8.4748 Z -1.0000
G01 X 33.7677 Y 8.4837 Z -1.0000
G01 X 33.7630 Y 8.4976 Z -1.0000
G03 X 33.7431 Y 8.5164 Z -1.0000 I -0.0647 J -0.0486
G01 X 33.7184 Y 8.5328 Z -1.0000
G01 X 33.7540 Y 8.5691 Z -1.0000
G03 X 33.8201 Y 8.6714 Z -1.0000 I -0.2192 J 0.2143
G03 X 33.8202 Y 8.7380 Z -1.0000 I -0.0853 J 0.0335
G01 X 33.8099 Y 8.7458 Z -1.0000
G01 X 33.7970 Y 8.7400 Z -1.0000
G01 X 33.7704 Y 8.7258 Z -1.0000
G01 X 33.7517 Y 8.7381 Z -1.0000
G01 X 33.7498 Y 8.7598 Z -1.0000
G01 X 33.7569 Y 8.7657 Z -1.0000
G01 X 33.7625 Y 8.7621 Z -1.0000
G01 X 33.7619 Y 8.7543 Z -1.0000
G01 X 33.7627 Y 8.7472 Z -1.0000
G01 X 33.7727 Y 8.7429 Z -1.0000
G01 X 33.7841 Y 8.7493 Z -1.0000
G01 X 33.7905 Y 8.7726 Z -1.0000
G01 X 33.7978 Y 8.7921 Z -1.0000
G01 X 33.8105 Y 8.7955 Z -1.0000
G01 X 33.8097 Y 8.8047 Z -1.0000
G01 X 33.7991 Y 8.8226 Z -1.0000
G01 X 33.8034 Y 8.8439 Z -1.0000
G01 X 33.8202 Y 8.8582 Z -1.0000
G01 X 33.8356 Y 8.8575 Z -1.0000
G01 X 33.8447 Y 8.8612 Z -1.0000
G03 X 33.8492 Y 8.8997 Z -1.0000 I -0.0950 J 0.0306
G02 X 33.8516 Y 8.9409 Z -1.0000 I 0.1500 J 0.0121
G01 X 33.8578 Y 8.9436 Z -1.0000
G01 X 33.8646 Y 8.9464 Z -1.0000
G03 X 33.8705 Y 8.9928 Z -1.0000 I -0.1800 J 0.0464
G03 X 33.8599 Y 9.0445 Z -1.0000 I -0.1315 J -0.0000
G03 X 33.8338 Y 9.0785 Z -1.0000 I -0.0792 J -0.0339
G03 X 33.7972 Y 9.0988 Z -1.0000 I -0.0823 J -0.1052
G01 X 33.7842 Y 9.0966 Z -1.0000
G01 X 33.7715 Y 9.0901 Z -1.0000
G01 X 33.7654 Y 9.0918 Z -1.0000
G01 X 33.7585 Y 9.0950 Z -1.0000
G03 X 33.6871 Y 9.0987 Z -1.0000 I -0.0863 J -0.9817
G03 X 33.6188 Y 9.0907 Z -1.0000 I -0.0037 J -0.2658
G01 X 33.5951 Y 9.0756 Z -1.0000
G03 X 33.5852 Y 9.0003 Z -1.0000 I 0.0564 J -0.0457
G01 X 33.6392 Y 8.9771 Z -1.0000
G01 X 33.6497 Y 8.9768 Z -1.0000
G01 X 33.6534 Y 8.9711 Z -1.0000
G01 X 33.6504 Y 8.9632 Z -1.0000
G01 X 33.6433 Y 8.9601 Z -1.0000
G01 X 33.6256 Y 8.9477 Z -1.0000
G03 X 33.6182 Y 8.8915 Z -1.0000 I 0.1213 J -0.0444
G03 X 33.6325 Y 8.8332 Z -1.0000 I 0.2024 J 0.0186
G01 X 33.6436 Y 8.8296 Z -1.0000
G01 X 33.6486 Y 8.8279 Z -1.0000
G01 X 33.6488 Y 8.8148 Z -1.0000
G03 X 33.6523 Y 8.7224 Z -1.0000 I 0.1304 J -0.0413
G01 X 33.6873 Y 8.7194 Z -1.0000
G01 X 33.6963 Y 8.7251 Z -1.0000
G01 X 33.7041 Y 8.7213 Z -1.0000
G01 X 33.7003 Y 8.7081 Z -1.0000
G02 X 33.6225 Y 8.6808 Z -1.0000 I -0.1489 J 0.2995
G01 X 33.5881 Y 8.6519 Z -1.0000
G03 X 33.5838 Y 8.5864 Z -1.0000 I 0.0952 J -0.0391
G02 X 33.5929 Y 8.5427 Z -1.0000 I -0.4085 J -0.1078
G02 X 33.5957 Y 8.5087 Z -1.0000 I -0.2388 J -0.0366
G03 X 33.6133 Y 8.3376 Z -1.0000 I 0.9343 J 0.0100
G03 X 33.6448 Y 8.2600 Z -1.0000 I 0.2179 J 0.0430
G02 X 33.6632 Y 8.2218 Z -1.0000 I -0.1427 J -0.0924
G02 X 33.6841 Y 8.1431 Z -1.0000 I -0.5954 J -0.2004
G02 X 33.6872 Y 8.1201 Z -1.0000 I -0.1771 J -0.0352
G02 X 33.6930 Y 8.0117 Z -1.0000 I -3.9528 J -0.2675
G02 X 33.6737 Y 7.8875 Z -1.0000 I -0.3257 J -0.0131
G01 X 33.6413 Y 7.8691 Z -1.0000
G01 X 33.6235 Y 7.8692 Z -1.0000
G01 X 33.6208 Y 7.8654 Z -1.0000
G02 X 33.6193 Y 7.8334 Z -1.0000 I -0.0853 J -0.0120
G01 X 33.6128 Y 7.8315 Z -1.0000
G02 X 33.5877 Y 7.8878 Z -1.0000 I 0.0609 J 0.0609
G01 X 33.6076 Y 7.9259 Z -1.0000
G01 X 33.6119 Y 7.9243 Z -1.0000
G01 X 33.6115 Y 7.9124 Z -1.0000
G01 X 33.6293 Y 7.9286 Z -1.0000
G01 X 33.6307 Y 7.9435 Z -1.0000
G01 X 33.6238 Y 7.9469 Z -1.0000
G01 X 33.6168 Y 7.9501 Z -1.0000
G01 X 33.6178 Y 7.9635 Z -1.0000
G01 X 33.6220 Y 7.9879 Z -1.0000
G01 X 33.6133 Y 7.9930 Z -1.0000
G01 X 33.6048 Y 7.9951 Z -1.0000
G01 X 33.6031 Y 8.0047 Z -1.0000
G01 X 33.6034 Y 8.0185 Z -1.0000
G01 X 33.5968 Y 8.0232 Z -1.0000
G01 X 33.5908 Y 8.0272 Z -1.0000
G01 X 33.5916 Y 8.0363 Z -1.0000
G01 X 33.5915 Y 8.0412 Z -1.0000
G01 X 33.5876 Y 8.0420 Z -1.0000
G01 X 33.5810 Y 8.0323 Z -1.0000
G03 X 33.5819 Y 8.0099 Z -1.0000 I 0.0523 J -0.0091
G01 X 33.5815 Y 7.9945 Z -1.0000
G01 X 33.5765 Y 7.9926 Z -1.0000
G01 X 33.5329 Y 7.9850 Z -1.0000
G03 X 33.5049 Y 7.9026 Z -1.0000 I 0.1012 J -0.0803
G01 X 33.5162 Y 7.9089 Z -1.0000
G01 X 33.5222 Y 7.9066 Z -1.0000
G02 X 33.5105 Y 7.8705 Z -1.0000 I -0.1135 J 0.0169
G03 X 33.4978 Y 7.8381 Z -1.0000 I 0.1398 J -0.0733
G01 X 33.4992 Y 7.8287 Z -1.0000
G01 X 33.4997 Y 7.8213 Z -1.0000
G01 X 33.4933 Y 7.8155 Z -1.0000
G01 X 33.4864 Y 7.8081 Z -1.0000
G03 X 33.4774 Y 7.7508 Z -1.0000 I 0.3324 J -0.0812
G02 X 33.4682 Y 7.6922 Z -1.0000 I -0.3368 J 0.0231
G01 X 33.4590 Y 7.6766 Z -1.0000
G01 X 33.4593 Y 7.6918 Z -1.0000
G01 X 33.4578 Y 7.6997 Z -1.0000
G01 X 33.4504 Y 7.6997 Z -1.0000
G01 X 33.4350 Y 7.6959 Z -1.0000
G01 X 33.4278 Y 7.7054 Z -1.0000
G03 X 33.4265 Y 7.7316 Z -1.0000 I -0.1689 J 0.0047
G03 X 33.4200 Y 7.7661 Z -1.0000 I -0.2984 J -0.0383
G01 X 33.4242 Y 7.7832 Z -1.0000
G01 X 33.4289 Y 7.7840 Z -1.0000
G01 X 33.4299 Y 7.8004 Z -1.0000
G03 X 33.4223 Y 7.8345 Z -1.0000 I -1.2035 J -0.2490
G03 X 33.4180 Y 7.8502 Z -1.0000 I -0.2158 J -0.0511
G01 X 33.4205 Y 7.8578 Z -1.0000
G01 X 33.4304 Y 7.8591 Z -1.0000
G01 X 33.4406 Y 7.8646 Z -1.0000
G01 X 33.4355 Y 7.8822 Z -1.0000
G02 X 33.4183 Y 7.9447 Z -1.0000 I 0.0464 J 0.0464
G01 X 33.4574 Y 7.9689 Z -1.0000
G01 X 33.4655 Y 7.9722 Z -1.0000
G01 X 33.4705 Y 7.9895 Z -1.0000
G01 X 33.4653 Y 8.0038 Z -1.0000
G01 X 33.4576 Y 8.0051 Z -1.0000
G01 X 33.4516 Y 8.0058 Z -1.0000
G01 X 33.4500 Y 8.0130 Z -1.0000
G01 X 33.4583 Y 8.0245 Z -1.0000
G01 X 33.4714 Y 8.0288 Z -1.0000
G01 X 33.4823 Y 8.0348 Z -1.0000
G03 X 33.4913 Y 8.0606 Z -1.0000 I -0.0526 J 0.0329
G02 X 33.5026 Y 8.0876 Z -1.0000 I 0.0522 J -0.0060
G02 X 33.5398 Y 8.1208 Z -1.0000 I 0.1187 J -0.0958
G03 X 33.5801 Y 8.1517 Z -1.0000 I -0.1480 J 0.2344
G01 X 33.5848 Y 8.1623 Z -1.0000
G01 X 33.5877 Y 8.1684 Z -1.0000
G01 X 33.5921 Y 8.1681 Z -1.0000
G01 X 33.5942 Y 8.1605 Z -1.0000
G01 X 33.5865 Y 8.1451 Z -1.0000
G01 X 33.5790 Y 8.1298 Z -1.0000
G01 X 33.5814 Y 8.1217 Z -1.0000
G01 X 33.5883 Y 8.1212 Z -1.0000
G03 X 33.6049 Y 8.1398 Z -1.0000 I -0.0414 J 0.0536
G01 X 33.6141 Y 8.1449 Z -1.0000
G03 X 33.6090 Y 8.1238 Z -1.0000 I 0.1586 J -0.0496
G03 X 33.6076 Y 8.1078 Z -1.0000 I 0.0920 J -0.0160
G01 X 33.6026 Y 8.0966 Z -1.0000
G01 X 33.5898 Y 8.0916 Z -1.0000
G01 X 33.5802 Y 8.0871 Z -1.0000
G01 X 33.5796 Y 8.0792 Z -1.0000
G01 X 33.5952 Y 8.0784 Z -1.0000
G03 X 33.6268 Y 8.1402 Z -1.0000 I -0.1491 J 0.1152
G03 X 33.6349 Y 8.1868 Z -1.0000 I -0.1964 J 0.0578
G01 X 33.6300 Y 8.1994 Z -1.0000
G01 X 33.6222 Y 8.2118 Z -1.0000
G02 X 33.6190 Y 8.2310 Z -1.0000 I 0.0551 J 0.0192
G01 X 33.6148 Y 8.2473 Z -1.0000
G01 X 33.6076 Y 8.2516 Z -1.0000
G01 X 33.6005 Y 8.2560 Z -1.0000
G01 X 33.5962 Y 8.2744 Z -1.0000
G01 X 33.5921 Y 8.2933 Z -1.0000
G01 X 33.5860 Y 8.2973 Z -1.0000
G01 X 33.5792 Y 8.3014 Z -1.0000
G02 X 33.5696 Y 8.3287 Z -1.0000 I 0.0911 J 0.0475
G03 X 33.5628 Y 8.3600 Z -1.0000 I -1.2842 J -0.2601
G03 X 33.5506 Y 8.4115 Z -1.0000 I -3.0943 J -0.7059
G02 X 33.5397 Y 8.4633 Z -1.0000 I 0.7607 J 0.1883
G02 X 33.5323 Y 8.5144 Z -1.0000 I 0.7747 J 0.1371
G03 X 33.5254 Y 8.5655 Z -1.0000 I -1.0022 J -0.1099
G03 X 33.5203 Y 8.5886 Z -1.0000 I -0.1998 J -0.0323
G02 X 33.5148 Y 8.6117 Z -1.0000 I 0.2877 J 0.0801
G02 X 33.5048 Y 8.6686 Z -1.0000 I 1.6492 J 0.3210
G03 X 33.4938 Y 8.7253 Z -1.0000 I -0.8702 J -0.1385
G03 X 33.4775 Y 8.7886 Z -1.0000 I -1.0891 J -0.2474
G02 X 33.4566 Y 8.9260 Z -1.0000 I 0.5122 J 0.1482
G02 X 33.4721 Y 9.0543 Z -1.0000 I 0.4616 J 0.0093
G03 X 33.4775 Y 9.1034 Z -1.0000 I -0.1591 J 0.0425
G03 X 33.4673 Y 9.1739 Z -1.0000 I -0.3403 J -0.0135
G02 X 33.4537 Y 9.2444 Z -1.0000 I 0.6135 J 0.1550
G02 X 33.4550 Y 9.2658 Z -1.0000 I 0.0549 J 0.0074
G01 X 33.4546 Y 9.2867 Z -1.0000
G03 X 33.4255 Y 9.3638 Z -1.0000 I -0.5770 J -0.1738
G02 X 33.3937 Y 9.4411 Z -1.0000 I 0.9623 J 0.4407
G02 X 33.3903 Y 9.4601 Z -1.0000 I 0.0529 J 0.0193
G03 X 33.3843 Y 9.5029 Z -1.0000 I -0.1629 J -0.0010
G03 X 33.3512 Y 9.6002 Z -1.0000 I -0.8914 J -0.2487
G01 X 33.3552 Y 9.6100 Z -1.0000
G02 X 33.3873 Y 9.6161 Z -1.0000 I 0.0293 J -0.0664
G03 X 33.4662 Y 9.6258 Z -1.0000 I 0.0096 J 0.2491
G01 X 33.4942 Y 9.6470 Z -1.0000
G01 X 33.5038 Y 9.6544 Z -1.0000
G02 X 33.5436 Y 9.6619 Z -1.0000 I 0.0548 J -0.1814
G02 X 33.5774 Y 9.6540 Z -1.0000 I 0.0044 J -0.0569
G01 X 33.5924 Y 9.6327 Z -1.0000
G03 X 33.6016 Y 9.6063 Z -1.0000 I 0.1006 J 0.0202
G01 X 33.6065 Y 9.6049 Z -1.0000
G01 X 33.6111 Y 9.6037 Z -1.0000
G01 X 33.6158 Y 9.5876 Z -1.0000
G01 X 33.6126 Y 9.5700 Z -1.0000
G01 X 33.6054 Y 9.5655 Z -1.0000
G01 X 33.5994 Y 9.5609 Z -1.0000
G01 X 33.5993 Y 9.5427 Z -1.0000
G01 X 33.5981 Y 9.5254 Z -1.0000
G01 X 33.5896 Y 9.5198 Z -1.0000
G01 X 33.5811 Y 9.5149 Z -1.0000
G01 X 33.5801 Y 9.5035 Z -1.0000
G01 X 33.5774 Y 9.4953 Z -1.0000
G01 X 33.5638 Y 9.4931 Z -1.0000
G01 X 33.5476 Y 9.4886 Z -1.0000
G03 X 33.5329 Y 9.4614 Z -1.0000 I 0.0406 J -0.0394
G03 X 33.5306 Y 9.4271 Z -1.0000 I 0.1140 J -0.0249
G01 X 33.5363 Y 9.4198 Z -1.0000
G01 X 33.5425 Y 9.4128 Z -1.0000
G02 X 33.5425 Y 9.3907 Z -1.0000 I -0.0514 J -0.0110
G01 X 33.5445 Y 9.3826 Z -1.0000
G01 X 33.5491 Y 9.3827 Z -1.0000
G01 X 33.5543 Y 9.3820 Z -1.0000
G01 X 33.5564 Y 9.3611 Z -1.0000
G02 X 33.5480 Y 9.3240 Z -1.0000 I -0.1886 J 0.0230
G01 X 33.5395 Y 9.3102 Z -1.0000
G01 X 33.5290 Y 9.2760 Z -1.0000
G01 X 33.5519 Y 9.2448 Z -1.0000
G01 X 33.5637 Y 9.2313 Z -1.0000
G01 X 33.5605 Y 9.2217 Z -1.0000
G01 X 33.5584 Y 9.2156 Z -1.0000
G01 X 33.5643 Y 9.2115 Z -1.0000
G01 X 33.5756 Y 9.2057 Z -1.0000
G01 X 33.5771 Y 9.1937 Z -1.0000
G01 X 33.5876 Y 9.1655 Z -1.0000
G03 X 33.6700 Y 9.1440 Z -1.0000 I 0.0860 J 0.1608
G02 X 33.7568 Y 9.1383 Z -1.0000 I -0.0191 J -0.9529
G02 X 33.8417 Y 9.1248 Z -1.0000 I -0.1029 J -0.9206
G02 X 34.1163 Y 9.0192 Z -1.0000 I -0.1834 J -0.8872
G01 X 34.1034 Y 8.9714 Z -1.0000
G01 X 34.1003 Y 8.9606 Z -1.0000
G03 X 34.2384 Y 8.8876 Z -1.0000 I 0.5935 J 0.9566
G02 X 34.2963 Y 8.8551 Z -1.0000 I -0.1404 J -0.3174
G02 X 34.3251 Y 8.8273 Z -1.0000 I -0.0722 J -0.1038
G03 X 34.3502 Y 8.7945 Z -1.0000 I 2.0294 J 1.5254
G03 X 34.3617 Y 8.7803 Z -1.0000 I 0.3849 J 0.2992
G02 X 34.3719 Y 8.7657 Z -1.0000 I -0.0759 J -0.0641
G01 X 34.3732 Y 8.7603 Z -1.0000
G03 X 34.3763 Y 8.7257 Z -1.0000 I 0.1356 J -0.0055
G01 X 34.3815 Y 8.7226 Z -1.0000
G02 X 34.5173 Y 8.7107 Z -1.0000 I 0.0528 J -0.1782
G02 X 34.5672 Y 8.6300 Z -1.0000 I -0.0403 J -0.0807
G01 X 34.5697 Y 8.6217 Z -1.0000
G03 X 34.5958 Y 8.5876 Z -1.0000 I 0.3038 J 0.2047
G02 X 34.6225 Y 8.5537 Z -1.0000 I -0.3999 J -0.3438
G01 X 34.6243 Y 8.5483 Z -1.0000
G01 X 34.6270 Y 8.5446 Z -1.0000
G03 X 34.6490 Y 8.5403 Z -1.0000 I 0.0289 J 0.0892
G02 X 34.6712 Y 8.5343 Z -1.0000 I -0.0045 J -0.0604
G01 X 34.6831 Y 8.5236 Z -1.0000
G01 X 34.6737 Y 8.5652 Z -1.0000
G02 X 34.6642 Y 8.6041 Z -1.0000 I 0.0888 J 0.0423
G01 X 34.6716 Y 8.6256 Z -1.0000
G03 X 34.7236 Y 8.7566 Z -1.0000 I -0.1707 J 0.1435
G01 X 34.6804 Y 8.7823 Z -1.0000
G01 X 34.6747 Y 8.7844 Z -1.0000
G01 X 34.6748 Y 8.8011 Z -1.0000
G03 X 34.6906 Y 8.8729 Z -1.0000 I -0.4308 J 0.1322
G01 X 34.6850 Y 8.8765 Z -1.0000
G01 X 34.6793 Y 8.8783 Z -1.0000
G01 X 34.6767 Y 8.8948 Z -1.0000
G03 X 34.6793 Y 8.9200 Z -1.0000 I -2.3488 J 0.2544
G03 X 34.6805 Y 8.9336 Z -1.0000 I -0.7892 J 0.0769
G01 X 34.6861 Y 8.9413 Z -1.0000
G01 X 34.7037 Y 8.9429 Z -1.0000
G01 X 34.7137 Y 8.9483 Z -1.0000
G01 X 34.7134 Y 8.9663 Z -1.0000
G01 X 34.6992 Y 8.9785 Z -1.0000
G01 X 34.6862 Y 8.9741 Z -1.0000
G01 X 34.6793 Y 8.9747 Z -1.0000
G01 X 34.6753 Y 8.9971 Z -1.0000
G03 X 34.6717 Y 9.0331 Z -1.0000 I -0.0960 J 0.0085
G01 X 34.6625 Y 9.0399 Z -1.0000
G01 X 34.6535 Y 9.0442 Z -1.0000
G01 X 34.6529 Y 9.0514 Z -1.0000
G01 X 34.6535 Y 9.0592 Z -1.0000
G01 X 34.6479 Y 9.0628 Z -1.0000
G01 X 34.6392 Y 9.0662 Z -1.0000
G01 X 34.6358 Y 9.0737 Z -1.0000
G01 X 34.6577 Y 9.0921 Z -1.0000
G02 X 34.7171 Y 9.0599 Z -1.0000 I -0.0174 J -0.1032
G03 X 34.7366 Y 9.0421 Z -1.0000 I 0.1183 J 0.1092
G01 X 34.7429 Y 9.0399 Z -1.0000
G01 X 34.7791 Y 9.0236 Z -1.0000
G02 X 34.7960 Y 8.9800 Z -1.0000 I -0.0502 J -0.0444
G01 X 34.8109 Y 8.9942 Z -1.0000
G03 X 34.8194 Y 9.0212 Z -1.0000 I -0.0722 J 0.0374
G01 X 34.8155 Y 9.0298 Z -1.0000
G01 X 34.8140 Y 9.0357 Z -1.0000
G01 X 34.8225 Y 9.0434 Z -1.0000
G01 X 34.8325 Y 9.0548 Z -1.0000
G03 X 34.8370 Y 9.1056 Z -1.0000 I -0.1783 J 0.0415
G03 X 34.8318 Y 9.1603 Z -1.0000 I -0.6074 J -0.0298
G01 X 34.8277 Y 9.1719 Z -1.0000
G02 X 34.8227 Y 9.1834 Z -1.0000 I 0.0461 J 0.0269
G02 X 34.8133 Y 9.2199 Z -1.0000 I 0.4377 J 0.1324
G03 X 34.8018 Y 9.2527 Z -1.0000 I -0.1367 J -0.0295
G01 X 34.7948 Y 9.2570 Z -1.0000
G01 X 34.7880 Y 9.2607 Z -1.0000
G01 X 34.7843 Y 9.2734 Z -1.0000
G01 X 34.7807 Y 9.2882 Z -1.0000
G03 X 34.7671 Y 9.3069 Z -1.0000 I -0.0658 J -0.0337
G01 X 34.7628 Y 9.3209 Z -1.0000
G01 X 34.7716 Y 9.3309 Z -1.0000
G01 X 34.7888 Y 9.3421 Z -1.0000
G03 X 34.8002 Y 9.3631 Z -1.0000 I -0.0393 J 0.0349
G01 X 34.8094 Y 9.3742 Z -1.0000
G01 X 34.8178 Y 9.3719 Z -1.0000
G01 X 34.8260 Y 9.3705 Z -1.0000
G01 X 34.8362 Y 9.3862 Z -1.0000
G03 X 34.8404 Y 9.4167 Z -1.0000 I -0.1329 J 0.0337
G01 X 34.8373 Y 9.4341 Z -1.0000
G01 X 34.8361 Y 9.4475 Z -1.0000
G01 X 34.8407 Y 9.4513 Z -1.0000
G01 X 34.8448 Y 9.4556 Z -1.0000
G03 X 34.8390 Y 9.4896 Z -1.0000 I -0.1382 J -0.0063
G03 X 34.8205 Y 9.5183 Z -1.0000 I -0.0606 J -0.0186
G01 X 34.7972 Y 9.5267 Z -1.0000
G03 X 34.7741 Y 9.5201 Z -1.0000 I 0.0019 J -0.0507
G01 X 34.7700 Y 9.5113 Z -1.0000
G01 X 34.7674 Y 9.5014 Z -1.0000
G01 X 34.7575 Y 9.4970 Z -1.0000
G01 X 34.7461 Y 9.5032 Z -1.0000
G02 X 34.7117 Y 9.5684 Z -1.0000 I 0.3705 J 0.2371
G02 X 34.6845 Y 9.6568 Z -1.0000 I 0.4175 J 0.1772
G01 X 34.6929 Y 9.6627 Z -1.0000
G01 X 34.7020 Y 9.6667 Z -1.0000
G03 X 34.7052 Y 9.7290 Z -1.0000 I -0.2346 J 0.0435
G02 X 34.7067 Y 9.7600 Z -1.0000 I 0.1206 J 0.0096
G01 X 34.7133 Y 9.7747 Z -1.0000
G03 X 34.7267 Y 9.8048 Z -1.0000 I -0.0535 J 0.0419
G03 X 34.7429 Y 9.9426 Z -1.0000 I -1.1780 J 0.2085
G02 X 34.7471 Y 9.9703 Z -1.0000 I 0.1571 J -0.0093
G01 X 34.7532 Y 9.9845 Z -1.0000
G03 X 34.7639 Y 10.0103 Z -1.0000 I -0.0697 J 0.0443
G03 X 34.7894 Y 10.1425 Z -1.0000 I -1.8576 J 0.4268
G02 X 34.8105 Y 10.1922 Z -1.0000 I 0.1099 J -0.0173
G01 X 34.8369 Y 10.2054 Z -1.0000
G02 X 34.8596 Y 10.2008 Z -1.0000 I -0.0000 J -0.0592
G01 X 34.8642 Y 10.1939 Z -1.0000
G01 X 34.8677 Y 10.1860 Z -1.0000
G01 X 34.8763 Y 10.1825 Z -1.0000
G01 X 34.8815 Y 10.1864 Z -1.0000
G01 X 34.8802 Y 10.1957 Z -1.0000
G01 X 34.8806 Y 10.2004 Z -1.0000
G01 X 34.8847 Y 10.2010 Z -1.0000
G01 X 34.8916 Y 10.1912 Z -1.0000
G01 X 34.8902 Y 10.1745 Z -1.0000
G01 X 34.8910 Y 10.1654 Z -1.0000
G01 X 34.8964 Y 10.1641 Z -1.0000
G01 X 34.9060 Y 10.1654 Z -1.0000
G01 X 34.9098 Y 10.1603 Z -1.0000
G01 X 34.9055 Y 10.1523 Z -1.0000
G01 X 34.8898 Y 10.1473 Z -1.0000
G01 X 34.8841 Y 10.1406 Z -1.0000
G01 X 34.8972 Y 10.1182 Z -1.0000
G02 X 34.8693 Y 10.0282 Z -1.0000 I -0.2771 J 0.0365
G03 X 34.8305 Y 9.9056 Z -1.0000 I 0.3539 J -0.1795
G01 X 34.8470 Y 9.8740 Z -1.0000
G01 X 34.8559 Y 9.8752 Z -1.0000
G03 X 34.8698 Y 9.8941 Z -1.0000 I -0.0359 J 0.0408
G02 X 34.8840 Y 9.9129 Z -1.0000 I 0.0461 J -0.0201
G01 X 34.8949 Y 9.9147 Z -1.0000
G01 X 34.9015 Y 9.9165 Z -1.0000
G01 X 34.9028 Y 9.9248 Z -1.0000
G01 X 34.9038 Y 9.9381 Z -1.0000
G02 X 34.9208 Y 9.9569 Z -1.0000 I 0.0492 J -0.0274
G01 X 34.9368 Y 9.9760 Z -1.0000
G01 X 34.9374 Y 9.9925 Z -1.0000
G01 X 34.9398 Y 10.0017 Z -1.0000
G01 X 34.9504 Y 10.0036 Z -1.0000
G01 X 34.9612 Y 10.0064 Z -1.0000
G01 X 34.9643 Y 10.0202 Z -1.0000
G02 X 34.9621 Y 10.0409 Z -1.0000 I 0.0674 J 0.0176
G01 X 34.9653 Y 10.0436 Z -1.0000
G03 X 34.9926 Y 10.0475 Z -1.0000 I 0.0066 J 0.0514
G01 X 34.9955 Y 10.0568 Z -1.0000
G01 X 34.9957 Y 10.0642 Z -1.0000
G01 X 35.0034 Y 10.0684 Z -1.0000
G01 X 35.0064 Y 10.0720 Z -1.0000
G01 X 35.0012 Y 10.0796 Z -1.0000
G01 X 34.9982 Y 10.0866 Z -1.0000
G01 X 35.0031 Y 10.0909 Z -1.0000
G01 X 35.0193 Y 10.0867 Z -1.0000
G01 X 35.0279 Y 10.0768 Z -1.0000
G01 X 35.0346 Y 10.0825 Z -1.0000
G01 X 35.0394 Y 10.0984 Z -1.0000
G01 X 35.0466 Y 10.1025 Z -1.0000
G01 X 35.0520 Y 10.0983 Z -1.0000
G01 X 35.0515 Y 10.0825 Z -1.0000
G01 X 35.0582 Y 10.0826 Z -1.0000
G01 X 35.0724 Y 10.0909 Z -1.0000
G01 X 35.0895 Y 10.0844 Z -1.0000
G01 X 35.0974 Y 10.0672 Z -1.0000
G01 X 35.0917 Y 10.0559 Z -1.0000
G01 X 35.0896 Y 10.0497 Z -1.0000
G01 X 35.0956 Y 10.0455 Z -1.0000
G01 X 35.1097 Y 10.0395 Z -1.0000
G01 X 35.1154 Y 10.0253 Z -1.0000
G01 X 35.1113 Y 10.0190 Z -1.0000
G01 X 35.1054 Y 10.0207 Z -1.0000
G01 X 35.1001 Y 10.0200 Z -1.0000
G03 X 35.0946 Y 9.9832 Z -1.0000 I 0.1375 J -0.0397
G02 X 35.0909 Y 9.9310 Z -1.0000 I -0.5296 J 0.0106
G01 X 35.0869 Y 9.9194 Z -1.0000
G03 X 35.0748 Y 9.8883 Z -1.0000 I 0.0767 J -0.0477
G03 X 35.0676 Y 9.8168 Z -1.0000 I 0.4202 J -0.0786
G03 X 35.0692 Y 9.7999 Z -1.0000 I 0.0743 J -0.0012
G03 X 35.0792 Y 9.7625 Z -1.0000 I 0.3871 J 0.0832
G02 X 35.0845 Y 9.7302 Z -1.0000 I -0.1058 J -0.0339
G01 X 35.0797 Y 9.7254 Z -1.0000
G01 X 35.0744 Y 9.7209 Z -1.0000
G01 X 35.0756 Y 9.7025 Z -1.0000
G01 X 35.0755 Y 9.6848 Z -1.0000
G01 X 35.0678 Y 9.6789 Z -1.0000
G01 X 35.0756 Y 9.6690 Z -1.0000
G01 X 35.0948 Y 9.6682 Z -1.0000
G01 X 35.1057 Y 9.6784 Z -1.0000
G01 X 35.1120 Y 9.6800 Z -1.0000
G01 X 35.1213 Y 9.6652 Z -1.0000
G02 X 35.1235 Y 9.6350 Z -1.0000 I -0.0807 J -0.0211
G01 X 35.1160 Y 9.6172 Z -1.0000
G01 X 35.1078 Y 9.5997 Z -1.0000
G01 X 35.1091 Y 9.5794 Z -1.0000
G01 X 35.1101 Y 9.5585 Z -1.0000
G02 X 35.0969 Y 9.5200 Z -1.0000 I -0.1548 J 0.0318
G02 X 35.0765 Y 9.4981 Z -1.0000 I -0.0472 J 0.0236
G01 X 35.0642 Y 9.5006 Z -1.0000
G01 X 35.0498 Y 9.5123 Z -1.0000
G01 X 35.0412 Y 9.5110 Z -1.0000
G01 X 35.0403 Y 9.5171 Z -1.0000
G01 X 35.0501 Y 9.5257 Z -1.0000
G01 X 35.0593 Y 9.5250 Z -1.0000
G01 X 35.0666 Y 9.5245 Z -1.0000
G01 X 35.0699 Y 9.5296 Z -1.0000
G01 X 35.0712 Y 9.5404 Z -1.0000
G02 X 35.0768 Y 9.5588 Z -1.0000 I 0.1393 J -0.0327
G01 X 35.0750 Y 9.5709 Z -1.0000
G01 X 35.0625 Y 9.5770 Z -1.0000
G01 X 35.0562 Y 9.5815 Z -1.0000
G01 X 35.0584 Y 9.5883 Z -1.0000
G01 X 35.0613 Y 9.5952 Z -1.0000
G01 X 35.0559 Y 9.5996 Z -1.0000
G01 X 35.0396 Y 9.5942 Z -1.0000
G03 X 35.0219 Y 9.5740 Z -1.0000 I 0.0389 J -0.0518
G03 X 35.0043 Y 9.5138 Z -1.0000 I 0.1227 J -0.0686
G01 X 35.0178 Y 9.5056 Z -1.0000
G01 X 35.0137 Y 9.4930 Z -1.0000
G01 X 35.0098 Y 9.4737 Z -1.0000
G03 X 35.0282 Y 9.4414 Z -1.0000 I 0.0737 J 0.0206
G02 X 35.0511 Y 9.4095 Z -1.0000 I -0.1014 J -0.0972
G01 X 35.0499 Y 9.4000 Z -1.0000
G01 X 35.0555 Y 9.3986 Z -1.0000
G01 X 35.0659 Y 9.4001 Z -1.0000
G01 X 35.0698 Y 9.3951 Z -1.0000
G01 X 35.0739 Y 9.3893 Z -1.0000
G01 X 35.0858 Y 9.3895 Z -1.0000
G01 X 35.1001 Y 9.3906 Z -1.0000
G01 X 35.1086 Y 9.3845 Z -1.0000
G01 X 35.1175 Y 9.3784 Z -1.0000
G01 X 35.1371 Y 9.3790 Z -1.0000
G01 X 35.1563 Y 9.3788 Z -1.0000
G01 X 35.1674 Y 9.3705 Z -1.0000
G01 X 35.1664 Y 9.3658 Z -1.0000
G01 X 35.1601 Y 9.3655 Z -1.0000
G01 X 35.1583 Y 9.3593 Z -1.0000
G01 X 35.1645 Y 9.3366 Z -1.0000
G01 X 35.1510 Y 9.3256 Z -1.0000
G02 X 35.0821 Y 9.3434 Z -1.0000 I -0.0000 J 0.1429
G01 X 35.0785 Y 9.3656 Z -1.0000
G01 X 35.0612 Y 9.3684 Z -1.0000
G02 X 35.0374 Y 9.3666 Z -1.0000 I -0.0172 J 0.0693
G01 X 35.0297 Y 9.3714 Z -1.0000
G01 X 35.0222 Y 9.3763 Z -1.0000
G01 X 35.0040 Y 9.3755 Z -1.0000
G01 X 34.9920 Y 9.3639 Z -1.0000
G03 X 34.9823 Y 9.3023 Z -1.0000 I 0.2279 J -0.0676
G02 X 34.9736 Y 9.2023 Z -1.0000 I -0.8183 J 0.0205
G01 X 34.9642 Y 9.1804 Z -1.0000
G01 X 34.9570 Y 9.1651 Z -1.0000
G03 X 34.9521 Y 9.1261 Z -1.0000 I 0.1988 J -0.0447
G02 X 34.9475 Y 9.0894 Z -1.0000 I -0.1922 J 0.0055
G01 X 34.9430 Y 9.0858 Z -1.0000
G01 X 34.9387 Y 9.0821 Z -1.0000
G03 X 34.9361 Y 9.0401 Z -1.0000 I 0.2403 J -0.0362
G01 X 34.9516 Y 9.0100 Z -1.0000
G01 X 34.9743 Y 9.0116 Z -1.0000
G01 X 34.9979 Y 9.0144 Z -1.0000
G01 X 35.0126 Y 8.9880 Z -1.0000
G03 X 35.0174 Y 8.9650 Z -1.0000 I 0.0574 J -0.0000
G01 X 35.0248 Y 8.9601 Z -1.0000
G01 X 35.0277 Y 8.9562 Z -1.0000
G01 X 35.0191 Y 8.9422 Z -1.0000
G03 X 35.0037 Y 8.9231 Z -1.0000 I 0.0827 J -0.0827
G01 X 35.0012 Y 8.9145 Z -1.0000
G01 X 35.0000 Y 8.9051 Z -1.0000
G02 X 34.9935 Y 8.8849 Z -1.0000 I -0.1670 J 0.0427
G01 X 34.9939 Y 8.8748 Z -1.0000
G01 X 34.9992 Y 8.8732 Z -1.0000
G01 X 35.0087 Y 8.8745 Z -1.0000
G01 X 35.0125 Y 8.8694 Z -1.0000
G01 X 35.0091 Y 8.8608 Z -1.0000
G01 X 35.0009 Y 8.8573 Z -1.0000
G01 X 34.9866 Y 8.8390 Z -1.0000
G03 X 35.0200 Y 8.7797 Z -1.0000 I 0.1230 J 0.0302
G03 X 35.0366 Y 8.7676 Z -1.0000 I 0.0465 J 0.0465
G03 X 35.0581 Y 8.7602 Z -1.0000 I 0.0368 J 0.0723
G02 X 35.0905 Y 8.7406 Z -1.0000 I -0.0103 J -0.0535
G01 X 35.0973 Y 8.7109 Z -1.0000
G03 X 35.0924 Y 8.6800 Z -1.0000 I 0.2370 J -0.0533
G03 X 35.0868 Y 8.5981 Z -1.0000 I 1.6698 J -0.1546
G02 X 35.0630 Y 8.4695 Z -1.0000 I -0.4707 J 0.0207
G02 X 35.0293 Y 8.4259 Z -1.0000 I -0.0793 J 0.0265
G01 X 35.0136 Y 8.3957 Z -1.0000
G01 X 35.0307 Y 8.3797 Z -1.0000
G02 X 35.0685 Y 8.3751 Z -1.0000 I 0.0046 J -0.1212
G01 X 35.0820 Y 8.3651 Z -1.0000
G01 X 35.0932 Y 8.3604 Z -1.0000
G01 X 35.1032 Y 8.3489 Z -1.0000
G02 X 35.1041 Y 8.3108 Z -1.0000 I -0.0511 J -0.0202
G01 X 35.0854 Y 8.2975 Z -1.0000
G01 X 35.0676 Y 8.2873 Z -1.0000
G03 X 35.0309 Y 8.2033 Z -1.0000 I 0.3546 J -0.2051
G01 X 35.0195 Y 8.1901 Z -1.0000
G02 X 34.9872 Y 8.1824 Z -1.0000 I -0.0342 J 0.0714
G01 X 34.9641 Y 8.1757 Z -1.0000
G01 X 34.9724 Y 8.1679 Z -1.0000
G01 X 34.9720 Y 8.1594 Z -1.0000
G01 X 34.9715 Y 8.1519 Z -1.0000
G01 X 34.9776 Y 8.1475 Z -1.0000
G02 X 35.0030 Y 8.1418 Z -1.0000 I -0.0150 J -0.1257
G02 X 35.0251 Y 8.1315 Z -1.0000 I -0.0354 J -0.1051
G02 X 35.0707 Y 8.0851 Z -1.0000 I -0.0685 J -0.1127
G01 X 35.0615 Y 8.0690 Z -1.0000
G01 X 35.0563 Y 8.0649 Z -1.0000
G03 X 35.0484 Y 8.0147 Z -1.0000 I 0.3049 J -0.0740
G03 X 35.0442 Y 7.9605 Z -1.0000 I 39.4849 J -3.0434
G03 X 35.0404 Y 7.9090 Z -1.0000 I 36.2141 J -2.7413
G02 X 35.0227 Y 7.6999 Z -1.0000 I -10.4309 J 0.7773
G02 X 35.0191 Y 7.6846 Z -1.0000 I -0.0585 J 0.0055
G01 X 35.0171 Y 7.6712 Z -1.0000
G03 X 35.0237 Y 7.6046 Z -1.0000 I 0.7756 J 0.0438
G02 X 35.0248 Y 7.5411 Z -1.0000 I -0.2538 J -0.0362
G01 X 35.0150 Y 7.5234 Z -1.0000
G01 X 34.9857 Y 7.5162 Z -1.0000
G02 X 34.9329 Y 7.5383 Z -1.0000 I 0.0236 J 0.1303
G01 X 34.9333 Y 7.5380 Z -1.0000
G00 Z 5.0000

(End cutting path id: path6706)


(Start cutting path id: path6706)
(Change tool to Default tool)

G00 Z 5.0000
G00 X 35.1198 Y 7.4580

G01 Z -1.0000 F 100.0000(Penetrate)
G01 X 35.1175 Y 7.4757 Z -1.0000 F 3500.0000
G02 X 35.1245 Y 7.5008 Z -1.0000 I 0.0825 J -0.0093
G01 X 35.1303 Y 7.5012 Z -1.0000
G01 X 35.1351 Y 7.4831 Z -1.0000
G02 X 35.1275 Y 7.4573 Z -1.0000 I -0.0515 J 0.0011
G01 X 35.1197 Y 7.4580 Z -1.0000
G01 X 35.1198 Y 7.4580 Z -1.0000
G00 Z 5.0000

(End cutting path id: path6706)


(Start cutting path id: path6706)
(Change tool to Default tool)

G00 Z 5.0000
G00 X 35.1048 Y 7.3887

G01 Z -1.0000 F 100.0000(Penetrate)
G01 X 35.1068 Y 7.3996 Z -1.0000 F 3500.0000
G02 X 35.1159 Y 7.4173 Z -1.0000 I 0.0919 J -0.0357
G01 X 35.1270 Y 7.4230 Z -1.0000
G01 X 35.1249 Y 7.4122 Z -1.0000
G02 X 35.1159 Y 7.3944 Z -1.0000 I -0.0921 J 0.0358
G01 X 35.1048 Y 7.3887 Z -1.0000
G01 X 35.1048 Y 7.3887 Z -1.0000
G00 Z 5.0000

(End cutting path id: path6706)


(Start cutting path id: path6706)
(Change tool to Default tool)

G00 Z 5.0000
G00 X 35.0816 Y 7.3602

G01 Z -1.0000 F 100.0000(Penetrate)
G01 X 35.0848 Y 7.3684 Z -1.0000 F 3500.0000
G01 X 35.0924 Y 7.3717 Z -1.0000
G01 X 35.1016 Y 7.3690 Z -1.0000
G01 X 35.1102 Y 7.3602 Z -1.0000
G01 X 35.1094 Y 7.3531 Z -1.0000
G01 X 35.0994 Y 7.3488 Z -1.0000
G01 X 35.0857 Y 7.3528 Z -1.0000
G01 X 35.0816 Y 7.3602 Z -1.0000
G01 X 35.0816 Y 7.3602 Z -1.0000
G00 Z 5.0000

(End cutting path id: path6706)


(Start cutting path id: path6706)
(Change tool to Default tool)

G00 Z 5.0000
G00 X 35.0887 Y 7.2551

G01 Z -1.0000 F 100.0000(Penetrate)
G01 X 35.0871 Y 7.2642 Z -1.0000 F 3500.0000
G01 X 35.0936 Y 7.2808 Z -1.0000
G01 X 35.0997 Y 7.2817 Z -1.0000
G01 X 35.1043 Y 7.2717 Z -1.0000
G01 X 35.0975 Y 7.2542 Z -1.0000
G01 X 35.0888 Y 7.2551 Z -1.0000
G01 X 35.0887 Y 7.2551 Z -1.0000
G00 Z 5.0000

(End cutting path id: path6706)


(Start cutting path id: path6706)
(Change tool to Default tool)

G00 Z 5.0000
G00 X 35.1502 Y 7.7551

G01 Z -1.0000 F 100.0000(Penetrate)
G02 X 35.1547 Y 7.7762 Z -1.0000 I 0.0509 J 0.0000 F 3500.0000
G01 X 35.1605 Y 7.7779 Z -1.0000
G01 X 35.1660 Y 7.7696 Z -1.0000
G02 X 35.1649 Y 7.7487 Z -1.0000 I -0.0512 J -0.0078
G01 X 35.1569 Y 7.7448 Z -1.0000
G01 X 35.1502 Y 7.7551 Z -1.0000
G01 X 35.1502 Y 7.7551 Z -1.0000
G00 Z 5.0000

(End cutting path id: path6706)


(Start cutting path id: path6706)
(Change tool to Default tool)

G00 Z 5.0000
G00 X 35.1680 Y 7.8139

G01 Z -1.0000 F 100.0000(Penetrate)
G01 X 35.1694 Y 7.8203 Z -1.0000 F 3500.0000
G01 X 35.1744 Y 7.8203 Z -1.0000
G01 X 35.1836 Y 7.8062 Z -1.0000
G01 X 35.1822 Y 7.7998 Z -1.0000
G01 X 35.1772 Y 7.7998 Z -1.0000
G01 X 35.1680 Y 7.8139 Z -1.0000
G01 X 35.1680 Y 7.8139 Z -1.0000
G00 Z 5.0000

(End cutting path id: path6706)


(Start cutting path id: path6706)
(Change tool to Default tool)

G00 Z 5.0000
G00 X 35.1706 Y 7.9392

G01 Z -1.0000 F 100.0000(Penetrate)
G01 X 35.1766 Y 7.9474 Z -1.0000 F 3500.0000
G01 X 35.1724 Y 7.9608 Z -1.0000
G01 X 35.1639 Y 7.9773 Z -1.0000
G01 X 35.1643 Y 7.9911 Z -1.0000
G01 X 35.1703 Y 7.9933 Z -1.0000
G01 X 35.1831 Y 7.9798 Z -1.0000
G01 X 35.1868 Y 7.9446 Z -1.0000
G01 X 35.1695 Y 7.9324 Z -1.0000
G01 X 35.1707 Y 7.9392 Z -1.0000
G01 X 35.1706 Y 7.9392 Z -1.0000
G00 Z 5.0000

(End cutting path id: path6706)


(Start cutting path id: path6706)
(Change tool to Default tool)

G00 Z 5.0000
G00 X 34.8752 Y 8.3665

G01 Z -1.0000 F 100.0000(Penetrate)
G01 X 34.8697 Y 8.3771 Z -1.0000 F 3500.0000
G01 X 34.8759 Y 8.3882 Z -1.0000
G01 X 34.8894 Y 8.3903 Z -1.0000
G01 X 34.8968 Y 8.3825 Z -1.0000
G01 X 34.9116 Y 8.3707 Z -1.0000
G01 X 34.9289 Y 8.3826 Z -1.0000
G03 X 34.9325 Y 8.5016 Z -1.0000 I -0.1675 J 0.0646
G01 X 34.8857 Y 8.5189 Z -1.0000
G01 X 34.8799 Y 8.5116 Z -1.0000
G01 X 34.8807 Y 8.5043 Z -1.0000
G01 X 34.8821 Y 8.4960 Z -1.0000
G02 X 34.8753 Y 8.4794 Z -1.0000 I -0.0494 J 0.0106
G01 X 34.8689 Y 8.4770 Z -1.0000
G01 X 34.8646 Y 8.4828 Z -1.0000
G03 X 34.8624 Y 8.5006 Z -1.0000 I -0.0772 J -0.0007
G01 X 34.8596 Y 8.5028 Z -1.0000
G01 X 34.8550 Y 8.5035 Z -1.0000
G02 X 34.8355 Y 8.5102 Z -1.0000 I 0.0826 J 0.2721
G01 X 34.8261 Y 8.5059 Z -1.0000
G03 X 34.8241 Y 8.4788 Z -1.0000 I 0.0470 J -0.0171
G03 X 34.8328 Y 8.4401 Z -1.0000 I 1.0233 J 0.2107
G03 X 34.8421 Y 8.4056 Z -1.0000 I 0.7645 J 0.1879
G02 X 34.8516 Y 8.3712 Z -1.0000 I -0.8511 J -0.2529
G02 X 34.8596 Y 8.3371 Z -1.0000 I -0.9462 J -0.2401
G01 X 34.8695 Y 8.3255 Z -1.0000
G01 X 34.8793 Y 8.3294 Z -1.0000
G01 X 34.8831 Y 8.3535 Z -1.0000
G01 X 34.8751 Y 8.3665 Z -1.0000
G01 X 34.8752 Y 8.3665 Z -1.0000
G00 Z 5.0000

(End cutting path id: path6706)


(Start cutting path id: path6706)
(Change tool to Default tool)

G00 Z 5.0000
G00 X 34.8417 Y 8.5370

G01 Z -1.0000 F 100.0000(Penetrate)
G01 X 34.8377 Y 8.5445 Z -1.0000 F 3500.0000
G01 X 34.8245 Y 8.5485 Z -1.0000
G01 X 34.8114 Y 8.5445 Z -1.0000
G01 X 34.8074 Y 8.5370 Z -1.0000
G01 X 34.8114 Y 8.5296 Z -1.0000
G01 X 34.8245 Y 8.5256 Z -1.0000
G01 X 34.8377 Y 8.5295 Z -1.0000
G01 X 34.8417 Y 8.5370 Z -1.0000
G01 X 34.8417 Y 8.5370 Z -1.0000
G00 Z 5.0000

(End cutting path id: path6706)


(Start cutting path id: path6706)
(Change tool to Default tool)

G00 Z 5.0000
G00 X 34.8098 Y 8.6370

G01 Z -1.0000 F 100.0000(Penetrate)
G03 X 34.8008 Y 8.7012 Z -1.0000 I -0.5522 J -0.0443 F 3500.0000
G01 X 34.7940 Y 8.7160 Z -1.0000
G01 X 34.7902 Y 8.7280 Z -1.0000
G01 X 34.7954 Y 8.7366 Z -1.0000
G01 X 34.8088 Y 8.7645 Z -1.0000
G03 X 34.7845 Y 8.8227 Z -1.0000 I -0.1175 J -0.0148
G01 X 34.7622 Y 8.8512 Z -1.0000
G01 X 34.7606 Y 8.8112 Z -1.0000
G03 X 34.7603 Y 8.7714 Z -1.0000 I 0.5908 J -0.0238
G03 X 34.7620 Y 8.7598 Z -1.0000 I 0.0508 J 0.0014
G02 X 34.7648 Y 8.7483 Z -1.0000 I -0.2732 J -0.0737
G02 X 34.7814 Y 8.6741 Z -1.0000 I -16.3875 J -3.6932
G03 X 34.8003 Y 8.6334 Z -1.0000 I 0.1015 J 0.0224
G01 X 34.8098 Y 8.6370 Z -1.0000
G01 X 34.8098 Y 8.6370 Z -1.0000
G00 Z 5.0000

(End cutting path id: path6706)


(Start cutting path id: path6706)
(Change tool to Default tool)

G00 Z 5.0000
G00 X 35.0273 Y 8.5887

G01 Z -1.0000 F 100.0000(Penetrate)
G03 X 35.0388 Y 8.6383 Z -1.0000 I -0.2603 J 0.0861 F 3500.0000
G01 X 35.0351 Y 8.6461 Z -1.0000
G01 X 35.0300 Y 8.6535 Z -1.0000
G02 X 35.0301 Y 8.6736 Z -1.0000 I 0.0545 J 0.0097
G01 X 35.0182 Y 8.7068 Z -1.0000
G01 X 34.9977 Y 8.7004 Z -1.0000
G03 X 34.9881 Y 8.6452 Z -1.0000 I 0.2452 J -0.0710
G03 X 34.9888 Y 8.5570 Z -1.0000 I 0.6310 J -0.0391
G01 X 35.0019 Y 8.5514 Z -1.0000
G03 X 35.0274 Y 8.5887 Z -1.0000 I -0.0512 J 0.0625
G01 X 35.0273 Y 8.5887 Z -1.0000
G00 Z 5.0000

(End cutting path id: path6706)


(Start cutting path id: path6706)
(Change tool to Default tool)

G00 Z 5.0000
G00 X 34.6298 Y 8.3536

G01 Z -1.0000 F 100.0000(Penetrate)
G03 X 34.6403 Y 8.4045 Z -1.0000 I -0.0543 J 0.0376 F 3500.0000
G01 X 34.6174 Y 8.4141 Z -1.0000
G03 X 34.5670 Y 8.3416 Z -1.0000 I 0.0644 J -0.0985
G01 X 34.5935 Y 8.3085 Z -1.0000
G01 X 34.5975 Y 8.3105 Z -1.0000
G03 X 34.6298 Y 8.3536 Z -1.0000 I -0.5608 J 0.4540
G01 X 34.6298 Y 8.3536 Z -1.0000
G00 Z 5.0000

(End cutting path id: path6706)


(Start cutting path id: path6706)
(Change tool to Default tool)

G00 Z 5.0000
G00 X 34.6108 Y 8.2200

G01 Z -1.0000 F 100.0000(Penetrate)
G01 X 34.6198 Y 8.2219 Z -1.0000 F 3500.0000
G01 X 34.6218 Y 8.2309 Z -1.0000
G01 X 34.6204 Y 8.2475 Z -1.0000
G01 X 34.6278 Y 8.2615 Z -1.0000
G01 X 34.6326 Y 8.2743 Z -1.0000
G01 X 34.6188 Y 8.2743 Z -1.0000
G01 X 34.6160 Y 8.2727 Z -1.0000
G01 X 34.6159 Y 8.2695 Z -1.0000
G01 X 34.6158 Y 8.2650 Z -1.0000
G02 X 34.5904 Y 8.2324 Z -1.0000 I -0.2854 J 0.1960
G01 X 34.5775 Y 8.2134 Z -1.0000
G01 X 34.5939 Y 8.2214 Z -1.0000
G01 X 34.6107 Y 8.2200 Z -1.0000
G01 X 34.6108 Y 8.2200 Z -1.0000
G00 Z 5.0000

(End cutting path id: path6706)


(Start cutting path id: path6706)
(Change tool to Default tool)

G00 Z 5.0000
G00 X 34.1219 Y 8.3693

G01 Z -1.0000 F 100.0000(Penetrate)
G01 X 34.1244 Y 8.3825 Z -1.0000 F 3500.0000
G02 X 34.1454 Y 8.4271 Z -1.0000 I 0.4386 J -0.1792
G03 X 34.1635 Y 8.4714 Z -1.0000 I -0.2017 J 0.1081
G01 X 34.1629 Y 8.4871 Z -1.0000
G01 X 34.1623 Y 8.5026 Z -1.0000
G02 X 34.1792 Y 8.5401 Z -1.0000 I 0.1598 J -0.0495
G03 X 34.1905 Y 8.5819 Z -1.0000 I -0.0662 J 0.0404
G01 X 34.1781 Y 8.5977 Z -1.0000
G01 X 34.1635 Y 8.5957 Z -1.0000
G01 X 34.1606 Y 8.5876 Z -1.0000
G01 X 34.1608 Y 8.5754 Z -1.0000
G01 X 34.1551 Y 8.5713 Z -1.0000
G01 X 34.1487 Y 8.5666 Z -1.0000
G01 X 34.1469 Y 8.5457 Z -1.0000
G01 X 34.1439 Y 8.5259 Z -1.0000
G01 X 34.1346 Y 8.5200 Z -1.0000
G01 X 34.1033 Y 8.4936 Z -1.0000
G01 X 34.1223 Y 8.4511 Z -1.0000
G01 X 34.1247 Y 8.4439 Z -1.0000
G02 X 34.1114 Y 8.4237 Z -1.0000 I -0.0554 J 0.0220
G03 X 34.0975 Y 8.4004 Z -1.0000 I 0.0395 J -0.0395
G03 X 34.0960 Y 8.3728 Z -1.0000 I 0.0552 J -0.0167
G01 X 34.1104 Y 8.3592 Z -1.0000
G01 X 34.1219 Y 8.3693 Z -1.0000
G01 X 34.1219 Y 8.3693 Z -1.0000
G00 Z 5.0000

(End cutting path id: path6706)


(Start cutting path id: path6706)
(Change tool to Default tool)

G00 Z 5.0000
G00 X 33.8362 Y 8.4863

G01 Z -1.0000 F 100.0000(Penetrate)
G01 X 33.8323 Y 8.4988 Z -1.0000 F 3500.0000
G01 X 33.8248 Y 8.5027 Z -1.0000
G01 X 33.8178 Y 8.4983 Z -1.0000
G01 X 33.8134 Y 8.4792 Z -1.0000
G01 X 33.8181 Y 8.4642 Z -1.0000
G01 X 33.8248 Y 8.4628 Z -1.0000
G01 X 33.8329 Y 8.4717 Z -1.0000
G01 X 33.8362 Y 8.4863 Z -1.0000
G01 X 33.8362 Y 8.4863 Z -1.0000
G00 Z 5.0000

(End cutting path id: path6706)


(Start cutting path id: path6706)
(Change tool to Default tool)

G00 Z 5.0000
G00 X 33.7505 Y 8.7884

G01 Z -1.0000 F 100.0000(Penetrate)
G01 X 33.7500 Y 8.7963 Z -1.0000 F 3500.0000
G01 X 33.7555 Y 8.7999 Z -1.0000
G01 X 33.7642 Y 8.7964 Z -1.0000
G01 X 33.7676 Y 8.7884 Z -1.0000
G01 X 33.7656 Y 8.7790 Z -1.0000
G01 X 33.7626 Y 8.7770 Z -1.0000
G01 X 33.7585 Y 8.7787 Z -1.0000
G01 X 33.7505 Y 8.7884 Z -1.0000
G01 X 33.7505 Y 8.7884 Z -1.0000
G00 Z 5.0000

(End cutting path id: path6706)


(Start cutting path id: path6706)
(Change tool to Default tool)

G00 Z 5.0000
G00 X 33.7563 Y 8.8350

G01 Z -1.0000 F 100.0000(Penetrate)
G02 X 33.7734 Y 8.8764 Z -1.0000 I 0.0587 J -0.0000 F 3500.0000
G01 X 33.7977 Y 8.8764 Z -1.0000
G01 X 33.7985 Y 8.8703 Z -1.0000
G02 X 33.7801 Y 8.8465 Z -1.0000 I -0.1041 J 0.0619
G02 X 33.7603 Y 8.8324 Z -1.0000 I -0.0517 J 0.0517
G01 X 33.7563 Y 8.8350 Z -1.0000
G01 X 33.7563 Y 8.8350 Z -1.0000
G00 Z 5.0000

(End cutting path id: path6706)


(Start cutting path id: path6706)
(Change tool to Default tool)

G00 Z 5.0000
G00 X 33.5539 Y 8.0813

G01 Z -1.0000 F 100.0000(Penetrate)
G01 X 33.5402 Y 8.0887 Z -1.0000 F 3500.0000
G01 X 33.5204 Y 8.0881 Z -1.0000
G01 X 33.5249 Y 8.0813 Z -1.0000
G01 X 33.5456 Y 8.0753 Z -1.0000
G01 X 33.5506 Y 8.0666 Z -1.0000
G01 X 33.5536 Y 8.0607 Z -1.0000
G01 X 33.5584 Y 8.0611 Z -1.0000
G01 X 33.5607 Y 8.0689 Z -1.0000
G01 X 33.5539 Y 8.0813 Z -1.0000
G01 X 33.5539 Y 8.0813 Z -1.0000
G00 Z 5.0000

(End cutting path id: path6706)


(Start cutting path id: path6706)
(Change tool to Default tool)

G00 Z 5.0000
G00 X 33.5692 Y 7.8689

G01 Z -1.0000 F 100.0000(Penetrate)
G01 X 33.5730 Y 7.8931 Z -1.0000 F 3500.0000
G01 X 33.5876 Y 7.8919 Z -1.0000
G01 X 33.5925 Y 7.8730 Z -1.0000
G01 X 33.5876 Y 7.8611 Z -1.0000
G01 X 33.5784 Y 7.8593 Z -1.0000
G01 X 33.5692 Y 7.8689 Z -1.0000
G01 X 33.5692 Y 7.8689 Z -1.0000
G00 Z 5.0000

(End cutting path id: path6706)


(Start cutting path id: path6706)
(Change tool to Default tool)

G00 Z 5.0000
G00 X 33.8984 Y 8.0626

G01 Z -1.0000 F 100.0000(Penetrate)
G01 X 33.8943 Y 8.0734 Z -1.0000 F 3500.0000
G01 X 33.9019 Y 8.0797 Z -1.0000
G01 X 33.9216 Y 8.0740 Z -1.0000
G01 X 33.9276 Y 8.0629 Z -1.0000
G01 X 33.9202 Y 8.0554 Z -1.0000
G01 X 33.8984 Y 8.0625 Z -1.0000
G01 X 33.8984 Y 8.0626 Z -1.0000
G00 Z 5.0000

(End cutting path id: path6706)


(Start cutting path id: path6706)
(Change tool to Default tool)

G00 Z 5.0000
G00 X 33.3906 Y 7.2517

G01 Z -1.0000 F 100.0000(Penetrate)
G02 X 33.3926 Y 7.2668 Z -1.0000 I 0.0603 J 0.0000 F 3500.0000
G01 X 33.3951 Y 7.2688 Z -1.0000
G01 X 33.3984 Y 7.2670 Z -1.0000
G02 X 33.4062 Y 7.2517 Z -1.0000 I -0.0734 J -0.0469
G01 X 33.4069 Y 7.2386 Z -1.0000
G01 X 33.4017 Y 7.2345 Z -1.0000
G01 X 33.3945 Y 7.2385 Z -1.0000
G01 X 33.3906 Y 7.2517 Z -1.0000
G01 X 33.3906 Y 7.2517 Z -1.0000
G00 Z 5.0000

(End cutting path id: path6706)


(Start cutting path id: path6706)
(Change tool to Default tool)

G00 Z 5.0000
G00 X 33.2535 Y 6.9604

G01 Z -1.0000 F 100.0000(Penetrate)
G01 X 33.2501 Y 6.9683 Z -1.0000 F 3500.0000
G01 X 33.2414 Y 6.9718 Z -1.0000
G01 X 33.2359 Y 6.9681 Z -1.0000
G01 X 33.2364 Y 6.9604 Z -1.0000
G01 X 33.2444 Y 6.9506 Z -1.0000
G01 X 33.2485 Y 6.9489 Z -1.0000
G01 X 33.2516 Y 6.9509 Z -1.0000
G01 X 33.2535 Y 6.9604 Z -1.0000
G01 X 33.2535 Y 6.9604 Z -1.0000
G00 Z 5.0000

(End cutting path id: path6706)


(Start cutting path id: path6706)
(Change tool to Default tool)

G00 Z 5.0000
G00 X 33.2276 Y 6.9444

G01 Z -1.0000 F 100.0000(Penetrate)
G01 X 33.2199 Y 6.9478 Z -1.0000 F 3500.0000
G01 X 33.2057 Y 6.9453 Z -1.0000
G01 X 33.2126 Y 6.9384 Z -1.0000
G01 X 33.2276 Y 6.9444 Z -1.0000
G01 X 33.2276 Y 6.9444 Z -1.0000
G00 Z 5.0000

(End cutting path id: path6706)


(Start cutting path id: path6706)
(Change tool to Default tool)

G00 Z 5.0000
G00 X 33.2535 Y 6.9261

G01 Z -1.0000 F 100.0000(Penetrate)
G01 X 33.2592 Y 6.9372 Z -1.0000 F 3500.0000
G01 X 33.2484 Y 6.9351 Z -1.0000
G03 X 33.2307 Y 6.9261 Z -1.0000 I 0.0357 J -0.0919
G01 X 33.2250 Y 6.9150 Z -1.0000
G01 X 33.2358 Y 6.9170 Z -1.0000
G03 X 33.2535 Y 6.9261 Z -1.0000 I -0.0358 J 0.0921
G01 X 33.2535 Y 6.9261 Z -1.0000
G00 Z 5.0000

(End cutting path id: path6706)


(Start cutting path id: path6706)
(Change tool to Default tool)

G00 Z 5.0000
G00 X 32.9851 Y 6.9374

G01 Z -1.0000 F 100.0000(Penetrate)
G01 X 32.9865 Y 6.9417 Z -1.0000 F 3500.0000
G01 X 32.9959 Y 6.9419 Z -1.0000
G01 X 33.0065 Y 6.9317 Z -1.0000
G01 X 33.0029 Y 6.9261 Z -1.0000
G01 X 32.9936 Y 6.9288 Z -1.0000
G01 X 32.9851 Y 6.9374 Z -1.0000
G01 X 32.9851 Y 6.9374 Z -1.0000
G00 Z 5.0000

(End cutting path id: path6706)


(Start cutting path id: path6706)
(Change tool to Default tool)

G00 Z 5.0000
G00 X 32.9679 Y 7.4631

G01 Z -1.0000 F 100.0000(Penetrate)
G01 X 32.9652 Y 7.4700 Z -1.0000 F 3500.0000
G01 X 32.9708 Y 7.4744 Z -1.0000
G01 X 32.9866 Y 7.4703 Z -1.0000
G01 X 32.9908 Y 7.4631 Z -1.0000
G01 X 32.9856 Y 7.4579 Z -1.0000
G01 X 32.9679 Y 7.4631 Z -1.0000
G01 X 32.9679 Y 7.4631 Z -1.0000
G00 Z 5.0000

(End cutting path id: path6706)


(Start cutting path id: path6706)
(Change tool to Default tool)

G00 Z 5.0000
G00 X 32.9643 Y 9.2685

G01 Z -1.0000 F 100.0000(Penetrate)
G02 X 32.9332 Y 9.2801 Z -1.0000 I 0.0746 J 0.2487 F 3500.0000
G02 X 32.9186 Y 9.2889 Z -1.0000 I 0.0278 J 0.0624
G01 X 32.9037 Y 9.2959 Z -1.0000
G03 X 32.8653 Y 9.3004 Z -1.0000 I -0.0425 J -0.1965
G02 X 32.8291 Y 9.3060 Z -1.0000 I 0.0028 J 0.1374
G01 X 32.8215 Y 9.3133 Z -1.0000
G01 X 32.8142 Y 9.3210 Z -1.0000
G03 X 32.7905 Y 9.3254 Z -1.0000 I -0.0237 J -0.0609
G02 X 32.7659 Y 9.3295 Z -1.0000 I 0.0000 J 0.0778
G01 X 32.7565 Y 9.3369 Z -1.0000
G01 X 32.7471 Y 9.3440 Z -1.0000
G03 X 32.7168 Y 9.3483 Z -1.0000 I -0.0303 J -0.1053
G02 X 32.6850 Y 9.3525 Z -1.0000 I -0.0000 J 0.1238
G02 X 32.6308 Y 9.3711 Z -1.0000 I 0.1014 J 0.3816
G03 X 32.5767 Y 9.3898 Z -1.0000 I -0.1546 J -0.3606
G03 X 32.5446 Y 9.3940 Z -1.0000 I -0.0321 J -0.1213
G01 X 32.5213 Y 9.4007 Z -1.0000
G01 X 32.5179 Y 9.4105 Z -1.0000
G01 X 32.5150 Y 9.4225 Z -1.0000
G03 X 32.4862 Y 9.4381 Z -1.0000 I -0.0499 J -0.0576
G01 X 32.4746 Y 9.4459 Z -1.0000
G01 X 32.4766 Y 9.4503 Z -1.0000
G01 X 32.4907 Y 9.4553 Z -1.0000
G01 X 32.4905 Y 9.4607 Z -1.0000
G01 X 32.4887 Y 9.4691 Z -1.0000
G01 X 32.5053 Y 9.4834 Z -1.0000
G02 X 32.5321 Y 9.4902 Z -1.0000 I 0.0322 J -0.0707
G01 X 32.5337 Y 9.4854 Z -1.0000
G01 X 32.5316 Y 9.4782 Z -1.0000
G01 X 32.5394 Y 9.4728 Z -1.0000
G03 X 32.5622 Y 9.4722 Z -1.0000 I 0.0185 J 0.2770
G03 X 32.5777 Y 9.4734 Z -1.0000 I -0.0020 J 0.1284
G01 X 32.5852 Y 9.4704 Z -1.0000
G01 X 32.5856 Y 9.4633 Z -1.0000
G01 X 32.5890 Y 9.4538 Z -1.0000
G03 X 32.6234 Y 9.4506 Z -1.0000 I 0.0242 J 0.0714
G01 X 32.6312 Y 9.4477 Z -1.0000
G01 X 32.6318 Y 9.4414 Z -1.0000
G01 X 32.6372 Y 9.4252 Z -1.0000
G03 X 32.7200 Y 9.4068 Z -1.0000 I 0.1004 J 0.2567
G01 X 32.7333 Y 9.4017 Z -1.0000
G01 X 32.7344 Y 9.3953 Z -1.0000
G01 X 32.7345 Y 9.3872 Z -1.0000
G01 X 32.7461 Y 9.3781 Z -1.0000
G01 X 32.7614 Y 9.3774 Z -1.0000
G01 X 32.7622 Y 9.3826 Z -1.0000
G01 X 32.7579 Y 9.3939 Z -1.0000
G01 X 32.7693 Y 9.3907 Z -1.0000
G02 X 32.7843 Y 9.3777 Z -1.0000 I -0.0319 J -0.0520
G01 X 32.7999 Y 9.3670 Z -1.0000
G01 X 32.8198 Y 9.3656 Z -1.0000
G01 X 32.8397 Y 9.3652 Z -1.0000
G01 X 32.8483 Y 9.3591 Z -1.0000
G01 X 32.8654 Y 9.3528 Z -1.0000
G01 X 32.8773 Y 9.3684 Z -1.0000
G01 X 32.8840 Y 9.3740 Z -1.0000
G01 X 32.8918 Y 9.3658 Z -1.0000
G01 X 32.9008 Y 9.3664 Z -1.0000
G01 X 32.9053 Y 9.3743 Z -1.0000
G01 X 32.9013 Y 9.3864 Z -1.0000
G01 X 32.8925 Y 9.4043 Z -1.0000
G02 X 32.8685 Y 9.5197 Z -1.0000 I 1.5879 J 0.3900
G01 X 32.8595 Y 9.5381 Z -1.0000
G01 X 32.8527 Y 9.5368 Z -1.0000
G01 X 32.8467 Y 9.5312 Z -1.0000
G01 X 32.8429 Y 9.5339 Z -1.0000
G01 X 32.8383 Y 9.5499 Z -1.0000
G01 X 32.8312 Y 9.5539 Z -1.0000
G01 X 32.8241 Y 9.5585 Z -1.0000
G02 X 32.8129 Y 9.5935 Z -1.0000 I 0.1350 J 0.0625
G03 X 32.7995 Y 9.6278 Z -1.0000 I -0.0974 J -0.0183
G01 X 32.7838 Y 9.6400 Z -1.0000
G01 X 32.7671 Y 9.6505 Z -1.0000
G01 X 32.7621 Y 9.6632 Z -1.0000
G01 X 32.7575 Y 9.6749 Z -1.0000
G01 X 32.7468 Y 9.6796 Z -1.0000
G01 X 32.7319 Y 9.6821 Z -1.0000
G02 X 32.6949 Y 9.6978 Z -1.0000 I 0.1078 J 0.3065
G03 X 32.6582 Y 9.7106 Z -1.0000 I -0.0694 J -0.1391
G01 X 32.6412 Y 9.7093 Z -1.0000
G01 X 32.6322 Y 9.7095 Z -1.0000
G01 X 32.6308 Y 9.7139 Z -1.0000
G01 X 32.6285 Y 9.7199 Z -1.0000
G03 X 32.5943 Y 9.7243 Z -1.0000 I -0.0319 J -0.1128
G02 X 32.5512 Y 9.7267 Z -1.0000 I -0.0057 J 0.2855
G02 X 32.5136 Y 9.7350 Z -1.0000 I 0.0293 J 0.2220
G03 X 32.4816 Y 9.7396 Z -1.0000 I -0.0306 J -0.0983
G01 X 32.4765 Y 9.7345 Z -1.0000
G01 X 32.4641 Y 9.7297 Z -1.0000
G02 X 32.4323 Y 9.7831 Z -1.0000 I 0.1146 J 0.1044
G01 X 32.4357 Y 9.8043 Z -1.0000
G01 X 32.4492 Y 9.8052 Z -1.0000
G01 X 32.4624 Y 9.7977 Z -1.0000
G03 X 32.5086 Y 9.7909 Z -1.0000 I 0.0612 J 0.2535
G02 X 32.5526 Y 9.7845 Z -1.0000 I -0.0144 J -0.2533
G01 X 32.5565 Y 9.7796 Z -1.0000
G01 X 32.5604 Y 9.7749 Z -1.0000
G03 X 32.6020 Y 9.7710 Z -1.0000 I 0.0416 J 0.2188
G02 X 32.6466 Y 9.7665 Z -1.0000 I -0.0000 J -0.2256
G02 X 32.6933 Y 9.7526 Z -1.0000 I -0.0536 J -0.2656
G03 X 32.9342 Y 9.7088 Z -1.0000 I 0.2281 J 0.5699
G03 X 33.0255 Y 9.7595 Z -1.0000 I -0.0023 J 0.1118
G01 X 33.0303 Y 9.7587 Z -1.0000
G02 X 33.0321 Y 9.7315 Z -1.0000 I -0.0798 J -0.0188
G02 X 33.0202 Y 9.6902 Z -1.0000 I -0.1193 J 0.0121
G02 X 32.9962 Y 9.6593 Z -1.0000 I -0.0883 J 0.0439
G01 X 32.9648 Y 9.6324 Z -1.0000
G01 X 32.9897 Y 9.6149 Z -1.0000
G01 X 33.0040 Y 9.5961 Z -1.0000
G01 X 33.0013 Y 9.5815 Z -1.0000
G01 X 32.9933 Y 9.5647 Z -1.0000
G01 X 32.9947 Y 9.5483 Z -1.0000
G01 X 32.9936 Y 9.5363 Z -1.0000
G01 X 32.9842 Y 9.5310 Z -1.0000
G01 X 32.9704 Y 9.5262 Z -1.0000
G01 X 32.9597 Y 9.5119 Z -1.0000
G02 X 32.9502 Y 9.4942 Z -1.0000 I -0.0732 J 0.0278
G02 X 32.9304 Y 9.4707 Z -1.0000 I -0.1515 J 0.1083
G01 X 32.9254 Y 9.4508 Z -1.0000
G01 X 32.9438 Y 9.4272 Z -1.0000
G02 X 32.9715 Y 9.3953 Z -1.0000 I -0.0361 J -0.0594
G01 X 32.9631 Y 9.3825 Z -1.0000
G01 X 32.9535 Y 9.3771 Z -1.0000
G01 X 32.9508 Y 9.3625 Z -1.0000
G02 X 32.9543 Y 9.3424 Z -1.0000 I -0.7558 J -0.1443
G02 X 32.9555 Y 9.3339 Z -1.0000 I -0.1505 J -0.0246
G01 X 32.9693 Y 9.3247 Z -1.0000
G03 X 33.0438 Y 9.3596 Z -1.0000 I -0.0741 J 0.2550
G02 X 33.1204 Y 9.3887 Z -1.0000 I 0.1000 J -0.1482
G01 X 33.1392 Y 9.3722 Z -1.0000
G02 X 33.1184 Y 9.3238 Z -1.0000 I -0.0667 J 0.0000
G02 X 33.0286 Y 9.2675 Z -1.0000 I -0.1856 J 0.1958
G02 X 33.0006 Y 9.2576 Z -1.0000 I -0.1874 J 0.4898
G01 X 32.9985 Y 9.2578 Z -1.0000
G01 X 32.9962 Y 9.2586 Z -1.0000
G03 X 32.9642 Y 9.2684 Z -1.0000 I -1.3262 J -4.2830
G01 X 32.9643 Y 9.2685 Z -1.0000
G00 Z 5.0000

(End cutting path id: path6706)


(Start cutting path id: path6706)
(Change tool to Default tool)

G00 Z 5.0000
G00 X 32.9449 Y 9.5511

G01 Z -1.0000 F 100.0000(Penetrate)
G01 X 32.9431 Y 9.5592 Z -1.0000 F 3500.0000
G03 X 32.9336 Y 9.5768 Z -1.0000 I -0.1177 J -0.0518
G01 X 32.9272 Y 9.5779 Z -1.0000
G01 X 32.9224 Y 9.5682 Z -1.0000
G03 X 32.9268 Y 9.5470 Z -1.0000 I 0.0519 J -0.0004
G01 X 32.9336 Y 9.5425 Z -1.0000
G01 X 32.9421 Y 9.5454 Z -1.0000
G01 X 32.9449 Y 9.5511 Z -1.0000
G01 X 32.9449 Y 9.5511 Z -1.0000
G00 Z 5.0000

(End cutting path id: path6706)


(Start cutting path id: path6706)
(Change tool to Default tool)

G00 Z 5.0000
G00 X 32.8957 Y 9.5675

G01 Z -1.0000 F 100.0000(Penetrate)
G01 X 32.8888 Y 9.5606 Z -1.0000 F 3500.0000
G01 X 32.8948 Y 9.5456 Z -1.0000
G01 X 32.8982 Y 9.5533 Z -1.0000
G01 X 32.8957 Y 9.5675 Z -1.0000
G01 X 32.8957 Y 9.5675 Z -1.0000
G00 Z 5.0000

(End cutting path id: path6706)


(Start cutting path id: path6706)
(Change tool to Default tool)

G00 Z 5.0000
G00 X 32.8879 Y 9.5997

G01 Z -1.0000 F 100.0000(Penetrate)
G01 X 32.8936 Y 9.6108 Z -1.0000 F 3500.0000
G01 X 32.8828 Y 9.6087 Z -1.0000
G03 X 32.8651 Y 9.5997 Z -1.0000 I 0.0357 J -0.0919
G01 X 32.8594 Y 9.5886 Z -1.0000
G01 X 32.8702 Y 9.5907 Z -1.0000
G03 X 32.8879 Y 9.5997 Z -1.0000 I -0.0358 J 0.0921
G01 X 32.8879 Y 9.5997 Z -1.0000
G00 Z 5.0000

(End cutting path id: path6706)


(Start cutting path id: path6706)
(Change tool to Default tool)

G00 Z 5.0000
G00 X 32.8448 Y 9.5950

G01 Z -1.0000 F 100.0000(Penetrate)
G01 X 32.8366 Y 9.6110 Z -1.0000 F 3500.0000
G01 X 32.8303 Y 9.6103 Z -1.0000
G01 X 32.8254 Y 9.5782 Z -1.0000
G01 X 32.8419 Y 9.5654 Z -1.0000
G01 X 32.8460 Y 9.5691 Z -1.0000
G03 X 32.8449 Y 9.5950 Z -1.0000 I -0.0888 J 0.0092
G01 X 32.8448 Y 9.5950 Z -1.0000
G00 Z 5.0000

(End cutting path id: path6706)


(Start cutting path id: path6706)
(Change tool to Default tool)

G00 Z 5.0000
G00 X 33.0025 Y 9.6221

G01 Z -1.0000 F 100.0000(Penetrate)
G01 X 32.9923 Y 9.6334 Z -1.0000 F 3500.0000
G01 X 32.9934 Y 9.6404 Z -1.0000
G01 X 33.0011 Y 9.6420 Z -1.0000
G02 X 33.0196 Y 9.6296 Z -1.0000 I -0.0215 J -0.0523
G01 X 33.0180 Y 9.6210 Z -1.0000
G01 X 33.0025 Y 9.6221 Z -1.0000
G01 X 33.0025 Y 9.6221 Z -1.0000
G00 Z 5.0000

(End cutting path id: path6706)


(Start cutting path id: path6706)
(Change tool to Default tool)

G00 Z 5.0000
G00 X 33.4478 Y 9.6569

G01 Z -1.0000 F 100.0000(Penetrate)
G01 X 33.4512 Y 9.6649 Z -1.0000 F 3500.0000
G01 X 33.4599 Y 9.6683 Z -1.0000
G01 X 33.4654 Y 9.6647 Z -1.0000
G01 X 33.4649 Y 9.6569 Z -1.0000
G01 X 33.4569 Y 9.6471 Z -1.0000
G01 X 33.4528 Y 9.6455 Z -1.0000
G01 X 33.4497 Y 9.6475 Z -1.0000
G01 X 33.4478 Y 9.6569 Z -1.0000
G01 X 33.4478 Y 9.6569 Z -1.0000
G00 Z 5.0000

(End cutting path id: path6706)


(Start cutting path id: path6706)
(Change tool to Default tool)

G00 Z 5.0000
G00 X 33.5658 Y 9.6351

G01 Z -1.0000 F 100.0000(Penetrate)
G03 X 33.5406 Y 9.6493 Z -1.0000 I -0.0377 J -0.0377 F 3500.0000
G01 X 33.5204 Y 9.6460 Z -1.0000
G01 X 33.5190 Y 9.6414 Z -1.0000
G01 X 33.5232 Y 9.6393 Z -1.0000
G01 X 33.5452 Y 9.6392 Z -1.0000
G01 X 33.5618 Y 9.6284 Z -1.0000
G03 X 33.5772 Y 9.6131 Z -1.0000 I 0.0840 J 0.0691
G01 X 33.5831 Y 9.6110 Z -1.0000
G01 X 33.5658 Y 9.6351 Z -1.0000
G01 X 33.5658 Y 9.6351 Z -1.0000
G00 Z 5.0000

(End cutting path id: path6706)


(Start cutting path id: path6706)
(Change tool to Default tool)

G00 Z 5.0000
G00 X 32.3738 Y 9.4441

G01 Z -1.0000 F 100.0000(Penetrate)
G01 X 32.3757 Y 9.4470 Z -1.0000 F 3500.0000
G02 X 32.3966 Y 9.4545 Z -1.0000 I 0.0531 J -0.1166
G01 X 32.4114 Y 9.4544 Z -1.0000
G01 X 32.4131 Y 9.4501 Z -1.0000
G01 X 32.3870 Y 9.4327 Z -1.0000
G01 X 32.3738 Y 9.4441 Z -1.0000
G01 X 32.3738 Y 9.4441 Z -1.0000
G00 Z 5.0000

(End cutting path id: path6706)


(Start cutting path id: path6706)
(Change tool to Default tool)

G00 Z 5.0000
G00 X 32.3167 Y 9.4358

G01 Z -1.0000 F 100.0000(Penetrate)
G01 X 32.3052 Y 9.4508 Z -1.0000 F 3500.0000
G02 X 32.3494 Y 9.4392 Z -1.0000 I -0.0000 J -0.0897
G01 X 32.3506 Y 9.4252 Z -1.0000
G01 X 32.3448 Y 9.4241 Z -1.0000
G02 X 32.3167 Y 9.4358 Z -1.0000 I 0.0515 J 0.1636
G01 X 32.3167 Y 9.4358 Z -1.0000
G00 Z 5.0000

(End cutting path id: path6706)


(Start cutting path id: path6706)
(Change tool to Default tool)

G00 Z 5.0000
G00 X 32.1795 Y 9.3984

G01 Z -1.0000 F 100.0000(Penetrate)
G01 X 32.1810 Y 9.4020 Z -1.0000 F 3500.0000
G02 X 32.1969 Y 9.4171 Z -1.0000 I 0.1227 J -0.1138
G01 X 32.2048 Y 9.4183 Z -1.0000
G01 X 32.2071 Y 9.4128 Z -1.0000
G01 X 32.1891 Y 9.3926 Z -1.0000
G01 X 32.1795 Y 9.3984 Z -1.0000
G01 X 32.1795 Y 9.3984 Z -1.0000
G00 Z 5.0000

(End cutting path id: path6706)


(Start cutting path id: path6706)
(Change tool to Default tool)

G00 Z 5.0000
G00 X 32.0424 Y 9.3141

G01 Z -1.0000 F 100.0000(Penetrate)
G01 X 32.0458 Y 9.3221 Z -1.0000 F 3500.0000
G01 X 32.0539 Y 9.3255 Z -1.0000
G01 X 32.0619 Y 9.3222 Z -1.0000
G01 X 32.0653 Y 9.3141 Z -1.0000
G01 X 32.0620 Y 9.3060 Z -1.0000
G01 X 32.0539 Y 9.3026 Z -1.0000
G01 X 32.0458 Y 9.3060 Z -1.0000
G01 X 32.0424 Y 9.3141 Z -1.0000
G01 X 32.0424 Y 9.3141 Z -1.0000
G00 Z 5.0000

(End cutting path id: path6706)


(Start cutting path id: path6706)
(Change tool to Default tool)

G00 Z 5.0000
G00 X 31.9233 Y 9.2884

G01 Z -1.0000 F 100.0000(Penetrate)
G03 X 31.9330 Y 9.2975 Z -1.0000 I -0.0676 J 0.0819 F 3500.0000
G03 X 31.9422 Y 9.3084 Z -1.0000 I -0.0907 J 0.0854
G01 X 31.9471 Y 9.3087 Z -1.0000
G01 X 31.9509 Y 9.2998 Z -1.0000
G01 X 31.9453 Y 9.2855 Z -1.0000
G01 X 31.9320 Y 9.2798 Z -1.0000
G01 X 31.9231 Y 9.2834 Z -1.0000
G01 X 31.9233 Y 9.2884 Z -1.0000
G01 X 31.9233 Y 9.2884 Z -1.0000
G00 Z 5.0000

(End cutting path id: path6706)


(Start cutting path id: path6706)
(Change tool to Default tool)

G00 Z 5.0000
G00 X 31.6654 Y 9.1769

G01 Z -1.0000 F 100.0000(Penetrate)
G01 X 31.6597 Y 9.1880 Z -1.0000 F 3500.0000
G01 X 31.6705 Y 9.1860 Z -1.0000
G02 X 31.6883 Y 9.1769 Z -1.0000 I -0.0357 J -0.0919
G01 X 31.6940 Y 9.1658 Z -1.0000
G01 X 31.6831 Y 9.1679 Z -1.0000
G02 X 31.6654 Y 9.1769 Z -1.0000 I 0.0358 J 0.0921
G01 X 31.6654 Y 9.1769 Z -1.0000
G00 Z 5.0000

(End cutting path id: path6706)


(Start cutting path id: path6706)
(Change tool to Default tool)

G00 Z 5.0000
G00 X 31.5595 Y 9.1381

G01 Z -1.0000 F 100.0000(Penetrate)
G01 X 31.5518 Y 9.1414 Z -1.0000 F 3500.0000
G01 X 31.5376 Y 9.1390 Z -1.0000
G01 X 31.5445 Y 9.1321 Z -1.0000
G01 X 31.5595 Y 9.1381 Z -1.0000
G01 X 31.5595 Y 9.1381 Z -1.0000
G00 Z 5.0000

(End cutting path id: path6706)


(Start cutting path id: path6706)
(Change tool to Default tool)

G00 Z 5.0000
G00 X 31.5347 Y 9.1604

G01 Z -1.0000 F 100.0000(Penetrate)
G01 X 31.5352 Y 9.1645 Z -1.0000 F 3500.0000
G01 X 31.5309 Y 9.1656 Z -1.0000
G02 X 31.5052 Y 9.1581 Z -1.0000 I -0.0353 J 0.0730
G01 X 31.4920 Y 9.1610 Z -1.0000
G01 X 31.4876 Y 9.1604 Z -1.0000
G01 X 31.4872 Y 9.1558 Z -1.0000
G01 X 31.5035 Y 9.1477 Z -1.0000
G03 X 31.5346 Y 9.1604 Z -1.0000 I -0.0057 J 0.0587
G01 X 31.5347 Y 9.1604 Z -1.0000
G00 Z 5.0000

(End cutting path id: path6706)


(Start cutting path id: path6706)
(Change tool to Default tool)

G00 Z 5.0000
G00 X 31.3893 Y 9.0955

G01 Z -1.0000 F 100.0000(Penetrate)
G01 X 31.3909 Y 9.1030 Z -1.0000 F 3500.0000
G01 X 31.3784 Y 9.1120 Z -1.0000
G03 X 31.3530 Y 9.1159 Z -1.0000 I -0.0315 J -0.1195
G01 X 31.3469 Y 9.1136 Z -1.0000
G01 X 31.3556 Y 9.1083 Z -1.0000
G01 X 31.3626 Y 9.1044 Z -1.0000
G01 X 31.3625 Y 9.0969 Z -1.0000
G01 X 31.3664 Y 9.0895 Z -1.0000
G01 X 31.3892 Y 9.0955 Z -1.0000
G01 X 31.3893 Y 9.0955 Z -1.0000
G00 Z 5.0000

(End cutting path id: path6706)


(Start cutting path id: path6706)
(Change tool to Default tool)

G00 Z 5.0000
G00 X 31.3951 Y 9.2516

G01 Z -1.0000 F 100.0000(Penetrate)
G01 X 31.3872 Y 9.2638 Z -1.0000 F 3500.0000
G01 X 31.3829 Y 9.2638 Z -1.0000
G01 X 31.3809 Y 9.2580 Z -1.0000
G01 X 31.3850 Y 9.2462 Z -1.0000
G01 X 31.3924 Y 9.2442 Z -1.0000
G01 X 31.3951 Y 9.2516 Z -1.0000
G01 X 31.3951 Y 9.2516 Z -1.0000
G00 Z 5.0000

(End cutting path id: path6706)


(Start cutting path id: path6706)
(Change tool to Default tool)

G00 Z 5.0000
G00 X 31.0725 Y 9.3939

G01 Z -1.0000 F 100.0000(Penetrate)
G02 X 31.1132 Y 9.4330 Z -1.0000 I 0.1731 J -0.1391 F 3500.0000
G02 X 31.1594 Y 9.4583 Z -1.0000 I 0.1149 J -0.1547
G03 X 31.2479 Y 9.5205 Z -1.0000 I -0.0788 J 0.2064
G03 X 31.2770 Y 9.5948 Z -1.0000 I -0.0910 J 0.0785
G03 X 31.2752 Y 9.7050 Z -1.0000 I -1.0831 J 0.0381
G01 X 31.2696 Y 9.7060 Z -1.0000
G01 X 31.2615 Y 9.6981 Z -1.0000
G01 X 31.2490 Y 9.6981 Z -1.0000
G01 X 31.2379 Y 9.6955 Z -1.0000
G03 X 31.2217 Y 9.6687 Z -1.0000 I 0.0554 J -0.0517
G02 X 31.2055 Y 9.6374 Z -1.0000 I -0.1163 J 0.0403
G01 X 31.1918 Y 9.6268 Z -1.0000
G01 X 31.1774 Y 9.6177 Z -1.0000
G01 X 31.1741 Y 9.6100 Z -1.0000
G01 X 31.1711 Y 9.6012 Z -1.0000
G02 X 31.1348 Y 9.5595 Z -1.0000 I -0.4001 J 0.3117
G03 X 31.0988 Y 9.5171 Z -1.0000 I 0.2945 J -0.2861
G03 X 31.0883 Y 9.4965 Z -1.0000 I 0.0570 J -0.0420
G02 X 31.0786 Y 9.4774 Z -1.0000 I -0.0620 J 0.0195
G01 X 31.0717 Y 9.4739 Z -1.0000
G01 X 31.0652 Y 9.4702 Z -1.0000
G03 X 31.0552 Y 9.4454 Z -1.0000 I 0.0833 J -0.0483
G02 X 31.0438 Y 9.4221 Z -1.0000 I -0.0601 J 0.0149
G01 X 31.0329 Y 9.4168 Z -1.0000
G01 X 31.0067 Y 9.4014 Z -1.0000
G03 X 30.9913 Y 9.3416 Z -1.0000 I 0.1080 J -0.0598
G01 X 31.0057 Y 9.3337 Z -1.0000
G03 X 31.0725 Y 9.3938 Z -1.0000 I -0.1517 J 0.2358
G01 X 31.0725 Y 9.3939 Z -1.0000
G00 Z 5.0000

(End cutting path id: path6706)


(Start cutting path id: path6706)
(Change tool to Default tool)

G00 Z 5.0000
G00 X 30.9082 Y 9.2409

G01 Z -1.0000 F 100.0000(Penetrate)
G01 X 30.9006 Y 9.2443 Z -1.0000 F 3500.0000
G01 X 30.8863 Y 9.2418 Z -1.0000
G01 X 30.8932 Y 9.2349 Z -1.0000
G01 X 30.9082 Y 9.2409 Z -1.0000
G01 X 30.9082 Y 9.2409 Z -1.0000
G00 Z 5.0000

(End cutting path id: path6706)


(Start cutting path id: path6706)
(Change tool to Default tool)

G00 Z 5.0000
G00 X 30.8370 Y 9.3368

G01 Z -1.0000 F 100.0000(Penetrate)
G01 X 30.8376 Y 9.3447 Z -1.0000 F 3500.0000
G01 X 30.8320 Y 9.3483 Z -1.0000
G01 X 30.8234 Y 9.3448 Z -1.0000
G01 X 30.8199 Y 9.3368 Z -1.0000
G01 X 30.8220 Y 9.3274 Z -1.0000
G01 X 30.8249 Y 9.3254 Z -1.0000
G01 X 30.8291 Y 9.3271 Z -1.0000
G01 X 30.8370 Y 9.3368 Z -1.0000
G01 X 30.8370 Y 9.3368 Z -1.0000
G00 Z 5.0000

(End cutting path id: path6706)


(Start cutting path id: path6706)
(Change tool to Default tool)

G00 Z 5.0000
G00 X 30.7401 Y 9.3597

G01 Z -1.0000 F 100.0000(Penetrate)
G01 X 30.7594 Y 9.3639 Z -1.0000 F 3500.0000
G03 X 30.7787 Y 9.3772 Z -1.0000 I -0.0272 J 0.0598
G02 X 30.7972 Y 9.3933 Z -1.0000 I 0.1237 J -0.1237
G01 X 30.8052 Y 9.3972 Z -1.0000
G01 X 30.8110 Y 9.4014 Z -1.0000
G01 X 30.8117 Y 9.4070 Z -1.0000
G01 X 30.8317 Y 9.4085 Z -1.0000
G01 X 30.8477 Y 9.4111 Z -1.0000
G01 X 30.8542 Y 9.4230 Z -1.0000
G01 X 30.8575 Y 9.4353 Z -1.0000
G01 X 30.8617 Y 9.4359 Z -1.0000
G01 X 30.8681 Y 9.4357 Z -1.0000
G03 X 30.8820 Y 9.4540 Z -1.0000 I -0.0409 J 0.0456
G02 X 30.8971 Y 9.4762 Z -1.0000 I 0.0891 J -0.0442
G01 X 30.9059 Y 9.4806 Z -1.0000
G03 X 30.9951 Y 9.5170 Z -1.0000 I -0.0145 J 0.1632
G03 X 31.0396 Y 9.5899 Z -1.0000 I -0.0815 J 0.0997
G01 X 31.0452 Y 9.6029 Z -1.0000
G02 X 31.0685 Y 9.6312 Z -1.0000 I 0.1945 J -0.1363
G03 X 31.0877 Y 9.6589 Z -1.0000 I -0.0754 J 0.0725
G01 X 31.0870 Y 9.6702 Z -1.0000
G01 X 31.0790 Y 9.6720 Z -1.0000
G03 X 31.0516 Y 9.6465 Z -1.0000 I 0.0658 J -0.0982
G02 X 31.0224 Y 9.6177 Z -1.0000 I -0.1258 J 0.0984
G01 X 31.0131 Y 9.6173 Z -1.0000
G01 X 31.0062 Y 9.6174 Z -1.0000
G01 X 31.0026 Y 9.6113 Z -1.0000
G01 X 30.9979 Y 9.6066 Z -1.0000
G01 X 30.9784 Y 9.6117 Z -1.0000
G01 X 30.9652 Y 9.6144 Z -1.0000
G01 X 30.9631 Y 9.6102 Z -1.0000
G01 X 30.9620 Y 9.6041 Z -1.0000
G01 X 30.9536 Y 9.6028 Z -1.0000
G01 X 30.9434 Y 9.6017 Z -1.0000
G01 X 30.9411 Y 9.5945 Z -1.0000
G01 X 30.9414 Y 9.5810 Z -1.0000
G01 X 30.9330 Y 9.5705 Z -1.0000
G01 X 30.9280 Y 9.5708 Z -1.0000
G01 X 30.9272 Y 9.5751 Z -1.0000
G01 X 30.9201 Y 9.5854 Z -1.0000
G01 X 30.8928 Y 9.5683 Z -1.0000
G01 X 30.8813 Y 9.5598 Z -1.0000
G01 X 30.8773 Y 9.5626 Z -1.0000
G01 X 30.8654 Y 9.5734 Z -1.0000
G01 X 30.8353 Y 9.5597 Z -1.0000
G01 X 30.8286 Y 9.5469 Z -1.0000
G01 X 30.8322 Y 9.5426 Z -1.0000
G01 X 30.8347 Y 9.5383 Z -1.0000
G02 X 30.8187 Y 9.5186 Z -1.0000 I -0.0654 J 0.0369
G03 X 30.7970 Y 9.4928 Z -1.0000 I 0.0717 J -0.0822
G01 X 30.7946 Y 9.4786 Z -1.0000
G01 X 30.7924 Y 9.4672 Z -1.0000
G01 X 30.7838 Y 9.4626 Z -1.0000
G01 X 30.7795 Y 9.4585 Z -1.0000
G01 X 30.7832 Y 9.4489 Z -1.0000
G02 X 30.7942 Y 9.4341 Z -1.0000 I -0.0435 J -0.0435
G01 X 30.7968 Y 9.4232 Z -1.0000
G01 X 30.7845 Y 9.4283 Z -1.0000
G01 X 30.7736 Y 9.4348 Z -1.0000
G01 X 30.7664 Y 9.4305 Z -1.0000
G02 X 30.7584 Y 9.4168 Z -1.0000 I -0.0515 J 0.0207
G02 X 30.7329 Y 9.3881 Z -1.0000 I -0.2569 J 0.2027
G03 X 30.7098 Y 9.3591 Z -1.0000 I 0.1169 J -0.1169
G01 X 30.7065 Y 9.3459 Z -1.0000
G01 X 30.7093 Y 9.3430 Z -1.0000
G01 X 30.7132 Y 9.3454 Z -1.0000
G01 X 30.7220 Y 9.3552 Z -1.0000
G01 X 30.7400 Y 9.3597 Z -1.0000
G01 X 30.7401 Y 9.3597 Z -1.0000
G00 Z 5.0000

(End cutting path id: path6706)


(Start cutting path id: path6706)
(Change tool to Default tool)

G00 Z 5.0000
G00 X 30.3972 Y 9.5642

G01 Z -1.0000 F 100.0000(Penetrate)
G01 X 30.4025 Y 9.5821 Z -1.0000 F 3500.0000
G01 X 30.4159 Y 9.5930 Z -1.0000
G01 X 30.4288 Y 9.5885 Z -1.0000
G01 X 30.4305 Y 9.5682 Z -1.0000
G01 X 30.4104 Y 9.5525 Z -1.0000
G01 X 30.3972 Y 9.5641 Z -1.0000
G01 X 30.3972 Y 9.5642 Z -1.0000
G00 Z 5.0000

(End cutting path id: path6706)


(Start cutting path id: path6706)
(Change tool to Default tool)

G00 Z 5.0000
G00 X 30.4366 Y 9.9672

G01 Z -1.0000 F 100.0000(Penetrate)
G01 X 30.4272 Y 9.9814 Z -1.0000 F 3500.0000
G01 X 30.4192 Y 9.9820 Z -1.0000
G01 X 30.4120 Y 9.9816 Z -1.0000
G01 X 30.4086 Y 9.9869 Z -1.0000
G01 X 30.4115 Y 9.9968 Z -1.0000
G01 X 30.4210 Y 10.0060 Z -1.0000
G01 X 30.4281 Y 10.0158 Z -1.0000
G01 X 30.4280 Y 10.0345 Z -1.0000
G01 X 30.4292 Y 10.0520 Z -1.0000
G01 X 30.4392 Y 10.0617 Z -1.0000
G01 X 30.4493 Y 10.0703 Z -1.0000
G01 X 30.4492 Y 10.0788 Z -1.0000
G01 X 30.4517 Y 10.0942 Z -1.0000
G02 X 30.4868 Y 10.1099 Z -1.0000 I 0.0458 J -0.0554
G01 X 30.4930 Y 10.1185 Z -1.0000
G01 X 30.4837 Y 10.1280 Z -1.0000
G03 X 30.4624 Y 10.1284 Z -1.0000 I -0.0118 J -0.0622
G01 X 30.4606 Y 10.1245 Z -1.0000
G01 X 30.4615 Y 10.1167 Z -1.0000
G01 X 30.4555 Y 10.1090 Z -1.0000
G01 X 30.4500 Y 10.1103 Z -1.0000
G01 X 30.4477 Y 10.1219 Z -1.0000
G01 X 30.4544 Y 10.1381 Z -1.0000
G01 X 30.4661 Y 10.1465 Z -1.0000
G03 X 30.4806 Y 10.1537 Z -1.0000 I -0.0192 J 0.0569
G03 X 30.5031 Y 10.1716 Z -1.0000 I -0.1044 J 0.1542
G02 X 30.5260 Y 10.1849 Z -1.0000 I 0.0407 J -0.0437
G01 X 30.5474 Y 10.1854 Z -1.0000
G01 X 30.5588 Y 10.1776 Z -1.0000
G01 X 30.5576 Y 10.1715 Z -1.0000
G01 X 30.5463 Y 10.1433 Z -1.0000
G01 X 30.5693 Y 10.1254 Z -1.0000
G01 X 30.5738 Y 10.1216 Z -1.0000
G01 X 30.5721 Y 10.1054 Z -1.0000
G01 X 30.5742 Y 10.0992 Z -1.0000
G01 X 30.5805 Y 10.0997 Z -1.0000
G01 X 30.6074 Y 10.1041 Z -1.0000
G01 X 30.6231 Y 10.0804 Z -1.0000
G02 X 30.6178 Y 10.0557 Z -1.0000 I -0.0525 J -0.0015
G01 X 30.6094 Y 10.0524 Z -1.0000
G01 X 30.5981 Y 10.0500 Z -1.0000
G03 X 30.5803 Y 10.0235 Z -1.0000 I 0.0572 J -0.0575
G02 X 30.5463 Y 9.9794 Z -1.0000 I -0.0984 J 0.0408
G02 X 30.4886 Y 9.9540 Z -1.0000 I -0.0822 J 0.1084
G02 X 30.4491 Y 9.9554 Z -1.0000 I -0.0167 J 0.0914
G01 X 30.4366 Y 9.9672 Z -1.0000
G01 X 30.4366 Y 9.9672 Z -1.0000
G00 Z 5.0000

(End cutting path id: path6706)


(Start cutting path id: path6706)
(Change tool to Default tool)

G00 Z 5.0000
G00 X 30.4200 Y 10.0802

G01 Z -1.0000 F 100.0000(Penetrate)
G01 X 30.4236 Y 10.0858 Z -1.0000 F 3500.0000
G01 X 30.4314 Y 10.0852 Z -1.0000
G01 X 30.4412 Y 10.0773 Z -1.0000
G01 X 30.4429 Y 10.0731 Z -1.0000
G01 X 30.4409 Y 10.0701 Z -1.0000
G01 X 30.4314 Y 10.0681 Z -1.0000
G01 X 30.4235 Y 10.0715 Z -1.0000
G01 X 30.4200 Y 10.0802 Z -1.0000
G01 X 30.4200 Y 10.0802 Z -1.0000
