%
(Header)
(Generated by gcodetools from Inkscape.)
(Using default header. To add your own header create file "header" in the output dir.)
M3
(Header end.)
G21 (All units in mm)

(Start cutting path id: path268)
(Change tool to Default tool)

G00 Z 5.0000
G00 X 21.0368 Y 14.3863

G01 Z -1.0000 F 100.0000(Penetrate)
G01 X 21.0267 Y 14.3923 Z -1.0000 F 3500.0000
G03 X 20.9671 Y 14.4107 Z -1.0000 I -0.2826 J -0.8096
G02 X 20.9078 Y 14.4298 Z -1.0000 I 0.1635 J 0.6073
G02 X 20.8923 Y 14.4390 Z -1.0000 I 0.0186 J 0.0491
G03 X 20.8772 Y 14.4489 Z -1.0000 I -0.0464 J -0.0541
G03 X 20.8549 Y 14.4573 Z -1.0000 I -0.0555 J -0.1137
G02 X 20.8318 Y 14.4644 Z -1.0000 I 0.1053 J 0.3866
G02 X 20.8129 Y 14.4716 Z -1.0000 I 0.0854 J 0.2523
G03 X 20.7594 Y 14.4915 Z -1.0000 I -0.2476 J -0.5849
G01 X 20.7495 Y 14.4919 Z -1.0000
G01 X 20.7430 Y 14.4930 Z -1.0000
G02 X 20.7229 Y 14.5084 Z -1.0000 I 0.0662 J 0.1077
G03 X 20.7020 Y 14.5236 Z -1.0000 I -0.0735 J -0.0789
G03 X 20.6801 Y 14.5322 Z -1.0000 I -0.0436 J -0.0780
G02 X 20.6187 Y 14.5586 Z -1.0000 I 0.0516 J 0.2048
G02 X 20.5947 Y 14.5864 Z -1.0000 I 0.0339 J 0.0535
G01 X 20.5899 Y 14.5908 Z -1.0000
G01 X 20.5746 Y 14.5934 Z -1.0000
G01 X 20.5595 Y 14.5982 Z -1.0000
G02 X 20.5090 Y 14.6402 Z -1.0000 I 0.2596 J 0.3636
G03 X 20.4583 Y 14.6830 Z -1.0000 I -0.3520 J -0.3651
G03 X 20.4380 Y 14.6926 Z -1.0000 I -0.0343 J -0.0465
G02 X 20.4185 Y 14.7005 Z -1.0000 I 0.0187 J 0.0745
G01 X 20.4156 Y 14.7055 Z -1.0000
G01 X 20.4128 Y 14.7106 Z -1.0000
G03 X 20.3969 Y 14.7176 Z -1.0000 I -0.0302 J -0.0468
G01 X 20.3827 Y 14.7260 Z -1.0000
G01 X 20.3782 Y 14.7374 Z -1.0000
G01 X 20.3743 Y 14.7484 Z -1.0000
G01 X 20.3661 Y 14.7523 Z -1.0000
G01 X 20.3553 Y 14.7558 Z -1.0000
G02 X 20.3145 Y 14.7891 Z -1.0000 I 0.2370 J 0.3314
G03 X 20.2734 Y 14.8232 Z -1.0000 I -0.3116 J -0.3341
G03 X 20.2564 Y 14.8318 Z -1.0000 I -0.0349 J -0.0475
G01 X 20.2437 Y 14.8400 Z -1.0000
G01 X 20.2430 Y 14.8464 Z -1.0000
G01 X 20.2423 Y 14.8517 Z -1.0000
G01 X 20.2334 Y 14.8551 Z -1.0000
G01 X 20.2185 Y 14.8601 Z -1.0000
G02 X 20.1431 Y 14.9229 Z -1.0000 I 0.5830 J 0.7769
G03 X 20.0935 Y 14.9637 Z -1.0000 I -0.3818 J -0.4140
G01 X 20.0823 Y 14.9673 Z -1.0000
G01 X 20.0726 Y 14.9701 Z -1.0000
G01 X 20.0697 Y 14.9754 Z -1.0000
G01 X 20.0667 Y 14.9820 Z -1.0000
G03 X 20.0340 Y 15.0071 Z -1.0000 I -0.1946 J -0.2195
G02 X 19.9994 Y 15.0320 Z -1.0000 I 0.2999 J 0.4531
G02 X 19.9697 Y 15.0574 Z -1.0000 I 0.2798 J 0.3582
G03 X 19.9147 Y 15.1040 Z -1.0000 I -0.5320 J -0.5721
G01 X 19.9042 Y 15.1079 Z -1.0000
G01 X 19.8979 Y 15.1106 Z -1.0000
G02 X 19.8738 Y 15.1360 Z -1.0000 I 0.1817 J 0.1962
G03 X 19.8491 Y 15.1598 Z -1.0000 I -0.1174 J -0.0974
G01 X 19.8377 Y 15.1636 Z -1.0000
G01 X 19.8262 Y 15.1677 Z -1.0000
G02 X 19.7812 Y 15.2088 Z -1.0000 I 0.2899 J 0.3619
G03 X 19.7356 Y 15.2510 Z -1.0000 I -0.3749 J -0.3592
G03 X 19.7098 Y 15.2674 Z -1.0000 I -0.0799 J -0.0973
G02 X 19.6862 Y 15.2835 Z -1.0000 I 0.0392 J 0.0827
G01 X 19.6818 Y 15.2938 Z -1.0000
G01 X 19.6772 Y 15.3041 Z -1.0000
G03 X 19.6444 Y 15.3275 Z -1.0000 I -0.1179 J -0.1310
G02 X 19.6103 Y 15.3512 Z -1.0000 I 0.0966 J 0.1751
G01 X 19.5980 Y 15.3675 Z -1.0000
G01 X 19.5858 Y 15.3832 Z -1.0000
G01 X 19.5676 Y 15.3923 Z -1.0000
G02 X 19.5502 Y 15.3998 Z -1.0000 I 0.0140 J 0.0565
G01 X 19.5485 Y 15.4045 Z -1.0000
G03 X 19.5283 Y 15.4832 Z -1.0000 I -0.0721 J 0.0235
G03 X 19.4171 Y 15.5280 Z -1.0000 I -0.1131 J -0.1204
G01 X 19.4105 Y 15.5313 Z -1.0000
G01 X 19.4101 Y 15.5367 Z -1.0000
G01 X 19.4092 Y 15.5434 Z -1.0000
G03 X 19.3872 Y 15.5578 Z -1.0000 I -0.0547 J -0.0596
G02 X 19.3654 Y 15.5729 Z -1.0000 I 0.0288 J 0.0648
G01 X 19.3635 Y 15.5819 Z -1.0000
G01 X 19.3635 Y 15.5905 Z -1.0000
G01 X 19.3589 Y 15.5936 Z -1.0000
G02 X 19.3192 Y 15.6106 Z -1.0000 I -0.0000 J 0.0549
G01 X 19.3194 Y 15.6349 Z -1.0000
G01 X 19.3130 Y 15.6404 Z -1.0000
G01 X 19.3025 Y 15.6437 Z -1.0000
G02 X 19.2671 Y 15.6725 Z -1.0000 I 0.1790 J 0.2568
G02 X 19.1654 Y 15.7708 Z -1.0000 I 3.4149 J 3.6315
G02 X 19.1321 Y 15.8068 Z -1.0000 I 0.4220 J 0.4240
G03 X 19.1051 Y 15.8310 Z -1.0000 I -0.1029 J -0.0877
G01 X 19.0961 Y 15.8312 Z -1.0000
G01 X 19.0922 Y 15.8328 Z -1.0000
G01 X 19.0927 Y 15.8458 Z -1.0000
G01 X 19.0908 Y 15.8583 Z -1.0000
G01 X 19.0820 Y 15.8614 Z -1.0000
G01 X 19.0669 Y 15.8640 Z -1.0000
G02 X 19.0133 Y 15.9129 Z -1.0000 I 0.2284 J 0.3042
G03 X 18.9615 Y 15.9694 Z -1.0000 I -4.5904 J -4.1555
G03 X 18.9334 Y 15.9990 Z -1.0000 I -1.2937 J -1.2006
G02 X 18.9069 Y 16.0297 Z -1.0000 I 0.2481 J 0.2412
G02 X 18.8989 Y 16.0440 Z -1.0000 I 0.0451 J 0.0346
G01 X 18.8898 Y 16.0535 Z -1.0000
G01 X 18.8741 Y 16.0547 Z -1.0000
G01 X 18.8599 Y 16.0576 Z -1.0000
G01 X 18.8491 Y 16.0741 Z -1.0000
G03 X 18.8401 Y 16.0948 Z -1.0000 I -0.0682 J -0.0173
G01 X 18.8334 Y 16.0985 Z -1.0000
G02 X 18.7832 Y 16.1208 Z -1.0000 I 0.0000 J 0.0678
G02 X 18.7609 Y 16.1786 Z -1.0000 I 0.0639 J 0.0578
G01 X 18.7569 Y 16.1879 Z -1.0000
G01 X 18.7469 Y 16.1920 Z -1.0000
G01 X 18.7369 Y 16.1960 Z -1.0000
G01 X 18.7329 Y 16.2057 Z -1.0000
G01 X 18.7179 Y 16.2348 Z -1.0000
G01 X 18.6838 Y 16.2407 Z -1.0000
G01 X 18.6797 Y 16.2426 Z -1.0000
G01 X 18.6768 Y 16.2574 Z -1.0000
G01 X 18.6729 Y 16.2723 Z -1.0000
G01 X 18.6665 Y 16.2761 Z -1.0000
G02 X 18.6258 Y 16.2952 Z -1.0000 I 0.0000 J 0.0527
G01 X 18.6184 Y 16.3343 Z -1.0000
G01 X 18.6167 Y 16.3386 Z -1.0000
G01 X 18.6059 Y 16.3415 Z -1.0000
G01 X 18.5945 Y 16.3466 Z -1.0000
G02 X 18.5806 Y 16.3690 Z -1.0000 I 0.0515 J 0.0471
G03 X 18.5662 Y 16.3919 Z -1.0000 I -0.0625 J -0.0234
G01 X 18.5491 Y 16.4018 Z -1.0000
G01 X 18.5349 Y 16.4108 Z -1.0000
G01 X 18.5332 Y 16.4211 Z -1.0000
G01 X 18.5337 Y 16.4316 Z -1.0000
G01 X 18.5292 Y 16.4350 Z -1.0000
G02 X 18.4331 Y 16.4762 Z -1.0000 I 0.0000 J 0.1328
G02 X 18.4127 Y 16.5574 Z -1.0000 I 0.0615 J 0.0586
G01 X 18.4109 Y 16.5628 Z -1.0000
G01 X 18.4016 Y 16.5659 Z -1.0000
G01 X 18.3912 Y 16.5700 Z -1.0000
G01 X 18.3826 Y 16.5835 Z -1.0000
G01 X 18.3739 Y 16.5992 Z -1.0000
G03 X 18.3023 Y 16.6775 Z -1.0000 I -1.1935 J -1.0199
G02 X 18.2336 Y 16.7545 Z -1.0000 I 0.8028 J 0.7856
G01 X 18.2330 Y 16.7627 Z -1.0000
G01 X 18.2327 Y 16.7684 Z -1.0000
G01 X 18.2260 Y 16.7716 Z -1.0000
G01 X 18.2154 Y 16.7751 Z -1.0000
G02 X 18.1998 Y 16.7912 Z -1.0000 I 0.0419 J 0.0562
G03 X 18.1854 Y 16.8104 Z -1.0000 I -0.3177 J -0.2233
G03 X 18.1605 Y 16.8403 Z -1.0000 I -0.7493 J -0.5992
G02 X 18.1368 Y 16.8705 Z -1.0000 I 0.2856 J 0.2482
G01 X 18.1347 Y 16.8768 Z -1.0000
G01 X 18.1319 Y 16.8811 Z -1.0000
G01 X 18.1206 Y 16.8838 Z -1.0000
G01 X 18.1097 Y 16.8869 Z -1.0000
G01 X 18.1066 Y 16.8927 Z -1.0000
G03 X 18.0797 Y 16.9691 Z -1.0000 I -0.1221 J 0.0000
G03 X 18.0238 Y 16.9960 Z -1.0000 I -0.0560 J -0.0449
G01 X 18.0170 Y 17.0000 Z -1.0000
G01 X 18.0165 Y 17.0100 Z -1.0000
G01 X 18.0146 Y 17.0190 Z -1.0000
G01 X 18.0029 Y 17.0240 Z -1.0000
G01 X 17.9907 Y 17.0278 Z -1.0000
G01 X 17.9896 Y 17.0332 Z -1.0000
G01 X 17.9902 Y 17.0419 Z -1.0000
G03 X 17.9762 Y 17.0630 Z -1.0000 I -0.0705 J -0.0317
G02 X 17.9591 Y 17.0844 Z -1.0000 I 0.1313 J 0.1224
G01 X 17.9570 Y 17.0912 Z -1.0000
G01 X 17.9540 Y 17.0958 Z -1.0000
G01 X 17.9393 Y 17.0988 Z -1.0000
G01 X 17.9258 Y 17.1042 Z -1.0000
G01 X 17.9161 Y 17.1208 Z -1.0000
G03 X 17.9069 Y 17.1408 Z -1.0000 I -0.0560 J -0.0139
G03 X 17.8684 Y 17.1869 Z -1.0000 I -0.3535 J -0.2557
G02 X 17.8313 Y 17.2332 Z -1.0000 I 0.2440 J 0.2338
G01 X 17.8254 Y 17.2513 Z -1.0000
G01 X 17.8199 Y 17.2600 Z -1.0000
G01 X 17.8070 Y 17.2520 Z -1.0000
G01 X 17.7981 Y 17.2617 Z -1.0000
G01 X 17.7940 Y 17.2720 Z -1.0000
G01 X 17.7817 Y 17.2794 Z -1.0000
G01 X 17.7797 Y 17.2823 Z -1.0000
G01 X 17.7822 Y 17.2848 Z -1.0000
G01 X 17.7873 Y 17.2948 Z -1.0000
G01 X 17.7695 Y 17.3045 Z -1.0000
G01 X 17.7559 Y 17.3092 Z -1.0000
G01 X 17.7513 Y 17.3186 Z -1.0000
G01 X 17.7465 Y 17.3279 Z -1.0000
G01 X 17.7303 Y 17.3335 Z -1.0000
G01 X 17.7093 Y 17.3344 Z -1.0000
G01 X 17.7300 Y 17.3405 Z -1.0000
G01 X 17.7421 Y 17.3499 Z -1.0000
G01 X 17.7420 Y 17.3606 Z -1.0000
G01 X 17.7314 Y 17.3671 Z -1.0000
G01 X 17.7142 Y 17.3629 Z -1.0000
G01 X 17.6985 Y 17.3570 Z -1.0000
G01 X 17.6952 Y 17.3598 Z -1.0000
G01 X 17.6978 Y 17.3667 Z -1.0000
G01 X 17.7059 Y 17.3720 Z -1.0000
G01 X 17.7149 Y 17.3964 Z -1.0000
G01 X 17.6790 Y 17.4168 Z -1.0000
G01 X 17.6705 Y 17.4202 Z -1.0000
G01 X 17.6669 Y 17.4285 Z -1.0000
G01 X 17.6638 Y 17.4391 Z -1.0000
G03 X 17.6440 Y 17.4677 Z -1.0000 I -0.1904 J -0.1108
G01 X 17.6214 Y 17.4953 Z -1.0000
G01 X 17.6003 Y 17.4771 Z -1.0000
G01 X 17.5791 Y 17.4589 Z -1.0000
G01 X 17.5953 Y 17.4845 Z -1.0000
G01 X 17.5989 Y 17.5085 Z -1.0000
G03 X 17.5809 Y 17.5380 Z -1.0000 I -0.0594 J -0.0160
G03 X 17.5495 Y 17.5639 Z -1.0000 I -0.2838 J -0.3120
G01 X 17.5433 Y 17.5661 Z -1.0000
G01 X 17.5393 Y 17.5693 Z -1.0000
G02 X 17.5363 Y 17.5907 Z -1.0000 I 0.0763 J 0.0215
G01 X 17.5309 Y 17.6072 Z -1.0000
G01 X 17.5223 Y 17.6097 Z -1.0000
G01 X 17.5126 Y 17.6105 Z -1.0000
G01 X 17.5083 Y 17.6180 Z -1.0000
G01 X 17.5049 Y 17.6284 Z -1.0000
G01 X 17.4984 Y 17.6317 Z -1.0000
G01 X 17.4939 Y 17.6348 Z -1.0000
G01 X 17.4945 Y 17.6415 Z -1.0000
G01 X 17.4960 Y 17.6510 Z -1.0000
G01 X 17.4889 Y 17.6654 Z -1.0000
G01 X 17.4778 Y 17.6713 Z -1.0000
G01 X 17.4698 Y 17.6674 Z -1.0000
G01 X 17.4615 Y 17.6625 Z -1.0000
G01 X 17.4510 Y 17.6666 Z -1.0000
G01 X 17.4484 Y 17.6760 Z -1.0000
G01 X 17.4555 Y 17.6840 Z -1.0000
G01 X 17.4603 Y 17.6920 Z -1.0000
G01 X 17.4526 Y 17.7062 Z -1.0000
G02 X 17.4390 Y 17.7226 Z -1.0000 I 0.0426 J 0.0493
G01 X 17.4397 Y 17.7283 Z -1.0000
G01 X 17.4395 Y 17.7328 Z -1.0000
G03 X 17.4210 Y 17.7434 Z -1.0000 I -0.0422 J -0.0522
G01 X 17.4038 Y 17.7559 Z -1.0000
G01 X 17.4020 Y 17.7670 Z -1.0000
G01 X 17.4030 Y 17.7783 Z -1.0000
G01 X 17.3994 Y 17.7813 Z -1.0000
G02 X 17.3406 Y 17.8099 Z -1.0000 I -0.0000 J 0.0747
G02 X 17.3121 Y 17.8925 Z -1.0000 I 0.1052 J 0.0826
G01 X 17.3085 Y 17.8971 Z -1.0000
G01 X 17.2964 Y 17.8963 Z -1.0000
G01 X 17.2888 Y 17.8983 Z -1.0000
G01 X 17.2873 Y 17.9074 Z -1.0000
G01 X 17.2872 Y 17.9229 Z -1.0000
G03 X 17.2728 Y 17.9440 Z -1.0000 I -0.0540 J -0.0213
G03 X 17.2510 Y 17.9618 Z -1.0000 I -0.1467 J -0.1574
G01 X 17.2453 Y 17.9637 Z -1.0000
G01 X 17.2395 Y 17.9651 Z -1.0000
G01 X 17.2319 Y 17.9707 Z -1.0000
G01 X 17.2313 Y 17.9750 Z -1.0000
G01 X 17.2358 Y 17.9777 Z -1.0000
G01 X 17.2439 Y 17.9804 Z -1.0000
G01 X 17.2467 Y 17.9862 Z -1.0000
G01 X 17.2432 Y 17.9903 Z -1.0000
G01 X 17.2256 Y 17.9896 Z -1.0000
G01 X 17.2164 Y 17.9914 Z -1.0000
G01 X 17.2158 Y 17.9966 Z -1.0000
G01 X 17.2194 Y 18.0092 Z -1.0000
G03 X 17.2082 Y 18.0352 Z -1.0000 I -0.0660 J -0.0129
G03 X 17.1871 Y 18.0576 Z -1.0000 I -0.0918 J -0.0654
G01 X 17.1753 Y 18.0618 Z -1.0000
G01 X 17.1625 Y 18.0648 Z -1.0000
G02 X 17.1472 Y 18.0758 Z -1.0000 I 0.0261 J 0.0523
G01 X 17.1456 Y 18.0862 Z -1.0000
G01 X 17.1552 Y 18.0911 Z -1.0000
G01 X 17.1566 Y 18.1039 Z -1.0000
G01 X 17.1496 Y 18.1128 Z -1.0000
G01 X 17.1435 Y 18.1129 Z -1.0000
G01 X 17.1369 Y 18.1128 Z -1.0000
G01 X 17.1280 Y 18.1218 Z -1.0000
G01 X 17.1182 Y 18.1330 Z -1.0000
G03 X 17.0971 Y 18.1448 Z -1.0000 I -0.0558 J -0.0751
G01 X 17.0855 Y 18.1547 Z -1.0000
G01 X 17.0936 Y 18.1586 Z -1.0000
G01 X 17.0971 Y 18.1679 Z -1.0000
G03 X 17.0800 Y 18.2138 Z -1.0000 I -0.0702 J 0.0000
G01 X 17.0494 Y 18.2231 Z -1.0000
G01 X 17.0446 Y 18.2254 Z -1.0000
G01 X 17.0411 Y 18.2433 Z -1.0000
G01 X 17.0355 Y 18.2632 Z -1.0000
G03 X 17.0127 Y 18.2896 Z -1.0000 I -0.0925 J -0.0565
G02 X 16.9863 Y 18.3143 Z -1.0000 I 0.2324 J 0.2761
G01 X 16.9847 Y 18.3185 Z -1.0000
G01 X 16.9803 Y 18.3341 Z -1.0000
G01 X 16.9719 Y 18.3366 Z -1.0000
G01 X 16.9530 Y 18.3433 Z -1.0000
G01 X 16.9575 Y 18.3613 Z -1.0000
G01 X 16.9624 Y 18.3701 Z -1.0000
G01 X 16.9575 Y 18.3836 Z -1.0000
G03 X 16.9439 Y 18.3952 Z -1.0000 I -0.0397 J -0.0329
G01 X 16.9324 Y 18.3983 Z -1.0000
G01 X 16.9226 Y 18.4013 Z -1.0000
G01 X 16.9195 Y 18.4070 Z -1.0000
G01 X 16.9173 Y 18.4148 Z -1.0000
G03 X 16.9049 Y 18.4304 Z -1.0000 I -0.0754 J -0.0474
G01 X 16.8983 Y 18.4417 Z -1.0000
G01 X 16.9009 Y 18.4451 Z -1.0000
G01 X 16.9035 Y 18.4484 Z -1.0000
G01 X 16.8976 Y 18.4591 Z -1.0000
G03 X 16.8825 Y 18.4707 Z -1.0000 I -0.0523 J -0.0523
G01 X 16.8735 Y 18.4731 Z -1.0000
G01 X 16.8671 Y 18.4759 Z -1.0000
G01 X 16.8658 Y 18.4812 Z -1.0000
G01 X 16.8645 Y 18.4883 Z -1.0000
G03 X 16.8448 Y 18.5091 Z -1.0000 I -0.1041 J -0.0790
G01 X 16.8318 Y 18.5282 Z -1.0000
G01 X 16.8351 Y 18.5378 Z -1.0000
G01 X 16.8367 Y 18.5455 Z -1.0000
G01 X 16.8228 Y 18.5567 Z -1.0000
G02 X 16.8036 Y 18.5688 Z -1.0000 I 0.0202 J 0.0535
G01 X 16.8027 Y 18.5759 Z -1.0000
G01 X 16.8031 Y 18.5824 Z -1.0000
G01 X 16.7986 Y 18.5853 Z -1.0000
G01 X 16.7915 Y 18.5825 Z -1.0000
G01 X 16.7887 Y 18.5760 Z -1.0000
G01 X 16.7858 Y 18.5696 Z -1.0000
G01 X 16.7782 Y 18.5667 Z -1.0000
G01 X 16.7729 Y 18.5707 Z -1.0000
G01 X 16.7726 Y 18.5851 Z -1.0000
G01 X 16.7724 Y 18.6018 Z -1.0000
G01 X 16.7641 Y 18.6144 Z -1.0000
G01 X 16.7560 Y 18.6269 Z -1.0000
G01 X 16.7563 Y 18.6428 Z -1.0000
G01 X 16.7542 Y 18.6519 Z -1.0000
G01 X 16.7456 Y 18.6538 Z -1.0000
G01 X 16.7372 Y 18.6554 Z -1.0000
G01 X 16.7353 Y 18.6632 Z -1.0000
G01 X 16.7374 Y 18.6762 Z -1.0000
G01 X 16.7345 Y 18.6789 Z -1.0000
G02 X 16.6935 Y 18.6959 Z -1.0000 I -0.0000 J 0.0581
G02 X 16.6765 Y 18.7368 Z -1.0000 I 0.0408 J 0.0409
G01 X 16.6800 Y 18.7393 Z -1.0000
G01 X 16.6952 Y 18.7303 Z -1.0000
G01 X 16.7139 Y 18.7227 Z -1.0000
G01 X 16.7014 Y 18.7505 Z -1.0000
G01 X 16.6687 Y 18.7630 Z -1.0000
G01 X 16.6614 Y 18.7666 Z -1.0000
G01 X 16.6578 Y 18.7770 Z -1.0000
G01 X 16.6550 Y 18.7874 Z -1.0000
G01 X 16.6508 Y 18.7890 Z -1.0000
G01 X 16.6441 Y 18.7894 Z -1.0000
G02 X 16.6236 Y 18.8001 Z -1.0000 I 0.0477 J 0.1164
G01 X 16.6137 Y 18.8153 Z -1.0000
G01 X 16.6178 Y 18.8349 Z -1.0000
G01 X 16.6214 Y 18.8481 Z -1.0000
G01 X 16.6169 Y 18.8509 Z -1.0000
G01 X 16.6064 Y 18.8519 Z -1.0000
G01 X 16.6017 Y 18.8601 Z -1.0000
G01 X 16.5969 Y 18.8703 Z -1.0000
G01 X 16.5833 Y 18.8752 Z -1.0000
G01 X 16.5718 Y 18.8799 Z -1.0000
G01 X 16.5700 Y 18.8882 Z -1.0000
G01 X 16.5706 Y 18.8999 Z -1.0000
G01 X 16.5649 Y 18.9076 Z -1.0000
G01 X 16.5591 Y 18.9149 Z -1.0000
G01 X 16.5601 Y 18.9226 Z -1.0000
G01 X 16.5603 Y 18.9284 Z -1.0000
G01 X 16.5558 Y 18.9313 Z -1.0000
G01 X 16.5482 Y 18.9347 Z -1.0000
G02 X 16.5316 Y 18.9593 Z -1.0000 I 0.0960 J 0.0828
G03 X 16.5140 Y 18.9826 Z -1.0000 I -0.0772 J -0.0400
G01 X 16.5010 Y 18.9881 Z -1.0000
G01 X 16.4963 Y 18.9935 Z -1.0000
G01 X 16.5004 Y 19.0060 Z -1.0000
G03 X 16.4349 Y 19.0917 Z -1.0000 I -0.4855 J -0.3033
G02 X 16.4090 Y 19.1265 Z -1.0000 I 0.1509 J 0.1397
G01 X 16.4090 Y 19.1353 Z -1.0000
G01 X 16.4095 Y 19.1443 Z -1.0000
G03 X 16.3914 Y 19.1725 Z -1.0000 I -0.1172 J -0.0554
G02 X 16.3697 Y 19.2010 Z -1.0000 I 0.2847 J 0.2395
G01 X 16.3680 Y 19.2066 Z -1.0000
G01 X 16.3661 Y 19.2120 Z -1.0000
G03 X 16.3400 Y 19.2426 Z -1.0000 I -0.3441 J -0.2675
G02 X 16.3152 Y 19.2737 Z -1.0000 I 0.1824 J 0.1710
G01 X 16.3119 Y 19.2842 Z -1.0000
G01 X 16.3083 Y 19.2923 Z -1.0000
G01 X 16.2990 Y 19.2958 Z -1.0000
G01 X 16.2889 Y 19.2997 Z -1.0000
G01 X 16.2809 Y 19.3122 Z -1.0000
G03 X 16.2543 Y 19.3702 Z -1.0000 I -0.2486 J -0.0789
G03 X 16.2132 Y 19.4218 Z -1.0000 I -0.2340 J -0.1443
G02 X 16.1963 Y 19.4424 Z -1.0000 I 0.0871 J 0.0884
G02 X 16.1734 Y 19.4828 Z -1.0000 I 0.3151 J 0.2053
G03 X 16.0819 Y 19.6394 Z -1.0000 I -1.0909 J -0.5323
G01 X 16.0677 Y 19.6360 Z -1.0000
G01 X 16.0602 Y 19.6557 Z -1.0000
G03 X 16.0502 Y 19.6781 Z -1.0000 I -0.0598 J -0.0135
G01 X 16.0420 Y 19.6812 Z -1.0000
G01 X 16.0363 Y 19.6830 Z -1.0000
G01 X 16.0358 Y 19.6878 Z -1.0000
G01 X 16.0355 Y 19.7025 Z -1.0000
G03 X 15.9918 Y 19.7527 Z -1.0000 I -0.2300 J -0.1564
G02 X 15.9784 Y 19.7687 Z -1.0000 I 0.0486 J 0.0540
G01 X 15.9754 Y 19.7794 Z -1.0000
G01 X 15.9723 Y 19.7883 Z -1.0000
G01 X 15.9661 Y 19.7913 Z -1.0000
G01 X 15.9599 Y 19.7944 Z -1.0000
G01 X 15.9568 Y 19.8039 Z -1.0000
G01 X 15.9539 Y 19.8154 Z -1.0000
G03 X 15.9383 Y 19.8378 Z -1.0000 I -0.1104 J -0.0600
G02 X 15.9244 Y 19.8595 Z -1.0000 I 0.0683 J 0.0593
G01 X 15.9248 Y 19.8673 Z -1.0000
G01 X 15.9249 Y 19.8726 Z -1.0000
G01 X 15.9199 Y 19.8754 Z -1.0000
G01 X 15.9133 Y 19.8786 Z -1.0000
G01 X 15.9100 Y 19.8877 Z -1.0000
G01 X 15.9063 Y 19.8984 Z -1.0000
G03 X 15.8773 Y 19.9290 Z -1.0000 I -0.1884 J -0.1496
G02 X 15.8490 Y 19.9599 Z -1.0000 I 0.1317 J 0.1487
G01 X 15.8446 Y 19.9734 Z -1.0000
G01 X 15.8399 Y 19.9833 Z -1.0000
G01 X 15.8290 Y 19.9859 Z -1.0000
G01 X 15.8153 Y 19.9714 Z -1.0000
G01 X 15.8234 Y 19.9451 Z -1.0000
G02 X 15.8384 Y 19.9257 Z -1.0000 I -0.1166 J -0.1055
G02 X 15.8584 Y 19.8917 Z -1.0000 I -0.3472 J -0.2275
G03 X 15.8786 Y 19.8595 Z -1.0000 I 0.2283 J 0.1204
G01 X 15.8841 Y 19.8567 Z -1.0000
G01 X 15.8886 Y 19.8539 Z -1.0000
G01 X 15.8913 Y 19.8421 Z -1.0000
G01 X 15.8952 Y 19.8345 Z -1.0000
G01 X 15.9021 Y 19.8342 Z -1.0000
G01 X 15.9072 Y 19.8316 Z -1.0000
G01 X 15.9072 Y 19.8087 Z -1.0000
G03 X 16.0455 Y 19.6094 Z -1.0000 I 2.0708 J 1.2900
G02 X 16.0570 Y 19.5903 Z -1.0000 I -0.0768 J -0.0589
G01 X 16.0596 Y 19.5780 Z -1.0000
G01 X 16.0638 Y 19.5711 Z -1.0000
G01 X 16.0741 Y 19.5704 Z -1.0000
G01 X 16.0830 Y 19.5669 Z -1.0000
G01 X 16.0811 Y 19.5427 Z -1.0000
G03 X 16.1063 Y 19.5108 Z -1.0000 I 0.0684 J 0.0282
G01 X 16.1118 Y 19.5051 Z -1.0000
G02 X 16.2483 Y 19.3051 Z -1.0000 I -18.0446 J -12.4585
G03 X 16.3840 Y 19.1043 Z -1.0000 I 85.8736 J 57.8995
G03 X 16.4288 Y 19.0387 Z -1.0000 I 9.4019 J 6.3712
G03 X 16.5640 Y 18.8425 Z -1.0000 I 107.0142 J 73.6166
G03 X 16.6193 Y 18.7629 Z -1.0000 I 17.3709 J 11.9967
G02 X 16.6485 Y 18.7208 Z -1.0000 I -7.4288 J -5.1783
G02 X 16.7062 Y 18.6367 Z -1.0000 I -29.5985 J -20.3838
G03 X 16.7644 Y 18.5531 Z -1.0000 I 5.5589 J 3.8049
G03 X 16.7832 Y 18.5277 Z -1.0000 I 0.5227 J 0.3695
G02 X 16.8022 Y 18.5024 Z -1.0000 I -0.5308 J -0.4160
G02 X 16.9009 Y 18.3622 Z -1.0000 I -16.0763 J -11.4259
G03 X 17.0012 Y 18.2280 Z -1.0000 I 2.1093 J 1.4716
G01 X 17.0103 Y 18.2253 Z -1.0000
G01 X 17.0155 Y 18.2233 Z -1.0000
G01 X 17.0161 Y 18.2150 Z -1.0000
G01 X 17.0164 Y 18.2020 Z -1.0000
G03 X 17.0336 Y 18.1758 Z -1.0000 I 0.0902 J 0.0406
G02 X 17.0555 Y 18.1498 Z -1.0000 I -0.3060 J -0.2794
G02 X 17.1000 Y 18.0899 Z -1.0000 I -1.5878 J -1.2272
G03 X 17.2226 Y 17.9278 Z -1.0000 I 3.1195 J 2.2307
G01 X 17.2341 Y 17.9220 Z -1.0000
G01 X 17.2410 Y 17.9184 Z -1.0000
G01 X 17.2434 Y 17.9093 Z -1.0000
G01 X 17.2474 Y 17.8942 Z -1.0000
G03 X 17.4664 Y 17.6013 Z -1.0000 I 9.7120 J 7.0363
G02 X 17.5224 Y 17.5287 Z -1.0000 I -30.4971 J -23.5527
G02 X 17.5505 Y 17.4919 Z -1.0000 I -8.4312 J -6.4794
G03 X 17.6667 Y 17.3431 Z -1.0000 I 6.3301 J 4.8191
G03 X 17.7333 Y 17.2633 Z -1.0000 I 1.8956 J 1.5155
G02 X 17.7658 Y 17.2246 Z -1.0000 I -1.0937 J -0.9537
G02 X 17.7984 Y 17.1831 Z -1.0000 I -1.2314 J -1.0006
G03 X 17.8308 Y 17.1414 Z -1.0000 I 2.0590 J 1.5616
G03 X 17.8465 Y 17.1224 Z -1.0000 I 0.4487 J 0.3549
G02 X 17.9279 Y 17.0258 Z -1.0000 I -4.0391 J -3.4900
G02 X 17.9511 Y 16.9954 Z -1.0000 I -0.3794 J -0.3125
G03 X 17.9662 Y 16.9812 Z -1.0000 I 0.0411 J 0.0288
G01 X 17.9745 Y 16.9813 Z -1.0000
G01 X 17.9828 Y 16.9823 Z -1.0000
G01 X 17.9907 Y 16.9762 Z -1.0000
G01 X 17.9903 Y 16.9724 Z -1.0000
G01 X 17.9867 Y 16.9719 Z -1.0000
G01 X 17.9759 Y 16.9728 Z -1.0000
G01 X 17.9828 Y 16.9535 Z -1.0000
G03 X 18.1269 Y 16.7898 Z -1.0000 I 2.6116 J 2.1546
G02 X 18.1489 Y 16.7653 Z -1.0000 I -0.4871 J -0.4576
G02 X 18.1866 Y 16.7197 Z -1.0000 I -1.6446 J -1.3991
G03 X 18.2242 Y 16.6742 Z -1.0000 I 1.7645 J 1.4196
G03 X 18.2574 Y 16.6363 Z -1.0000 I 1.2604 J 1.0695
G02 X 18.2910 Y 16.5987 Z -1.0000 I -5.1852 J -4.6788
G02 X 18.3779 Y 16.5007 Z -1.0000 I -33.6479 J -29.9239
G03 X 18.4654 Y 16.4031 Z -1.0000 I 7.3630 J 6.5093
G03 X 18.5647 Y 16.2951 Z -1.0000 I 9.1768 J 8.3333
G02 X 18.6642 Y 16.1872 Z -1.0000 I -13.6726 J -12.7130
G02 X 18.6956 Y 16.1520 Z -1.0000 I -1.3903 J -1.2725
G03 X 18.7279 Y 16.1223 Z -1.0000 I 0.1501 J 0.1306
G01 X 18.7380 Y 16.1209 Z -1.0000
G01 X 18.7452 Y 16.1198 Z -1.0000
G01 X 18.7483 Y 16.1126 Z -1.0000
G01 X 18.7573 Y 16.0872 Z -1.0000
G03 X 19.1832 Y 15.6640 Z -1.0000 I 11.4814 J 11.1296
G03 X 19.2754 Y 15.5776 Z -1.0000 I 4.1665 J 4.3541
G03 X 19.5700 Y 15.3091 Z -1.0000 I 40.4729 J 44.1112
G03 X 19.6427 Y 15.2447 Z -1.0000 I 3.0863 J 3.4093
G03 X 19.6724 Y 15.2203 Z -1.0000 I 0.4767 J 0.5495
G02 X 19.7024 Y 15.1962 Z -1.0000 I -0.7602 J -0.9770
G02 X 19.8372 Y 15.0836 Z -1.0000 I -16.4888 J -19.8827
G03 X 19.9932 Y 14.9557 Z -1.0000 I 5.2238 J 6.2126
G03 X 20.1259 Y 14.8528 Z -1.0000 I 3.5122 J 4.3943
G02 X 20.1767 Y 14.8134 Z -1.0000 I -1.1564 J -1.5390
G02 X 20.2007 Y 14.7926 Z -1.0000 I -0.2966 J -0.3684
G03 X 20.2253 Y 14.7732 Z -1.0000 I 0.1394 J 0.1510
G03 X 20.2404 Y 14.7659 Z -1.0000 I 0.0331 J 0.0491
G01 X 20.2538 Y 14.7585 Z -1.0000
G01 X 20.2568 Y 14.7520 Z -1.0000
G01 X 20.2594 Y 14.7459 Z -1.0000
G01 X 20.2660 Y 14.7433 Z -1.0000
G02 X 20.3334 Y 14.7212 Z -1.0000 I 0.0000 J -0.1140
G02 X 20.3591 Y 14.6750 Z -1.0000 I -0.0374 J -0.0510
G01 X 20.3374 Y 14.6633 Z -1.0000
G02 X 19.6344 Y 15.2302 Z -1.0000 I 10.9913 J 14.3479
G02 X 18.8373 Y 15.9747 Z -1.0000 I 7.4127 J 8.7354
G02 X 17.9747 Y 16.9354 Z -1.0000 I 11.5019 J 11.1951
G02 X 17.3378 Y 17.7393 Z -1.0000 I 18.4478 J 15.2700
G02 X 16.6249 Y 18.7161 Z -1.0000 I 26.5290 J 20.1086
G02 X 16.1863 Y 19.3480 Z -1.0000 I 57.7983 J 40.5916
G02 X 15.9707 Y 19.6696 Z -1.0000 I 14.7533 J 10.1231
G03 X 15.8880 Y 19.7958 Z -1.0000 I -157.6589 J -103.2361
G03 X 15.7653 Y 19.9828 Z -1.0000 I -345.1170 J -226.3782
G02 X 15.6429 Y 20.1700 Z -1.0000 I 39.6340 J 26.0290
G02 X 15.5739 Y 20.2772 Z -1.0000 I 12.9252 J 8.4014
G03 X 15.5051 Y 20.3847 Z -1.0000 I -39.0835 J -24.9452
G03 X 15.4568 Y 20.4595 Z -1.0000 I -19.3655 J -12.4352
G02 X 15.2780 Y 20.7387 Z -1.0000 I 28.0038 J 18.1351
G02 X 15.0659 Y 21.0765 Z -1.0000 I 40.8334 J 25.8712
G03 X 15.0134 Y 21.1605 Z -1.0000 I -16.2546 J -10.1104
G03 X 14.9542 Y 21.2541 Z -1.0000 I -20.0746 J -12.6310
G02 X 14.8951 Y 21.3478 Z -1.0000 I 12.2163 J 7.7656
G02 X 14.8256 Y 21.4598 Z -1.0000 I 17.6853 J 11.0530
G03 X 14.7562 Y 21.5717 Z -1.0000 I -20.5322 J -12.6521
G03 X 14.7178 Y 21.6327 Z -1.0000 I -6.0369 J -3.7657
G02 X 14.6795 Y 21.6938 Z -1.0000 I 3.4802 J 2.2202
G02 X 14.6288 Y 21.7776 Z -1.0000 I 6.4756 J 3.9737
G03 X 14.5779 Y 21.8612 Z -1.0000 I -4.4022 J -2.6250
G03 X 14.5503 Y 21.9038 Z -1.0000 I -1.1534 J -0.7180
G02 X 14.5222 Y 21.9461 Z -1.0000 I 2.4142 J 1.6307
G02 X 14.5107 Y 21.9645 Z -1.0000 I 0.4596 J 0.2989
G03 X 14.4995 Y 21.9831 Z -1.0000 I -0.8976 J -0.5326
G03 X 14.4500 Y 22.0623 Z -1.0000 I -18.0234 J -11.2088
G02 X 14.4011 Y 22.1417 Z -1.0000 I 4.1363 J 2.5977
G02 X 14.3965 Y 22.1511 Z -1.0000 I 0.0525 J 0.0316
G01 X 14.3917 Y 22.1603 Z -1.0000
G03 X 14.3708 Y 22.1898 Z -1.0000 I -0.4845 J -0.3220
G02 X 14.3506 Y 22.2193 Z -1.0000 I 0.3120 J 0.2363
G01 X 14.3489 Y 22.2250 Z -1.0000
G01 X 14.3473 Y 22.2309 Z -1.0000
G03 X 14.3146 Y 22.2849 Z -1.0000 I -1.1317 J -0.6502
G02 X 14.2803 Y 22.3385 Z -1.0000 I 13.7112 J 8.7858
G02 X 14.2597 Y 22.3712 Z -1.0000 I 5.1684 J 3.2833
G03 X 14.2391 Y 22.4038 Z -1.0000 I -5.0562 J -3.1675
G03 X 14.1884 Y 22.4834 Z -1.0000 I -29.5961 J -18.8084
G02 X 14.1381 Y 22.5631 Z -1.0000 I 7.6522 J 4.8925
G02 X 14.0979 Y 22.6282 Z -1.0000 I 5.1367 J 3.2096
G03 X 13.9816 Y 22.8179 Z -1.0000 I -23.5809 J -14.3214
G03 X 13.9037 Y 22.9423 Z -1.0000 I -10.1672 J -6.2877
G02 X 13.8363 Y 23.0512 Z -1.0000 I 4.4187 J 2.8082
G01 X 13.8348 Y 23.0568 Z -1.0000
G01 X 13.8428 Y 23.0605 Z -1.0000
G02 X 13.8684 Y 23.0279 Z -1.0000 I -0.0698 J -0.0811
G03 X 13.8885 Y 22.9948 Z -1.0000 I 0.2215 J 0.1126
G03 X 13.9025 Y 22.9806 Z -1.0000 I 0.0535 J 0.0387
G02 X 13.9158 Y 22.9669 Z -1.0000 I -0.0353 J -0.0474
G01 X 13.9189 Y 22.9570 Z -1.0000
G01 X 13.9216 Y 22.9464 Z -1.0000
G03 X 13.9516 Y 22.8960 Z -1.0000 I 0.5756 J 0.3089
G02 X 13.9830 Y 22.8459 Z -1.0000 I -1.0731 J -0.7071
G01 X 13.9843 Y 22.8410 Z -1.0000
G01 X 13.9857 Y 22.8362 Z -1.0000
G03 X 14.0061 Y 22.8067 Z -1.0000 I 0.3908 J 0.2482
G02 X 14.0263 Y 22.7770 Z -1.0000 I -0.3039 J -0.2283
G02 X 14.0338 Y 22.7615 Z -1.0000 I -0.0753 J -0.0461
G01 X 14.0420 Y 22.7483 Z -1.0000
G01 X 14.0495 Y 22.7451 Z -1.0000
G01 X 14.0559 Y 22.7419 Z -1.0000
G01 X 14.0591 Y 22.7320 Z -1.0000
G01 X 14.0621 Y 22.7199 Z -1.0000
G03 X 14.0918 Y 22.6703 Z -1.0000 I 0.4866 J 0.2580
G02 X 14.1224 Y 22.6211 Z -1.0000 I -0.6718 J -0.4522
G01 X 14.1245 Y 22.6133 Z -1.0000
G01 X 14.1271 Y 22.6075 Z -1.0000
G01 X 14.1338 Y 22.6049 Z -1.0000
G01 X 14.1403 Y 22.6077 Z -1.0000
G01 X 14.1431 Y 22.6148 Z -1.0000
G01 X 14.1462 Y 22.6191 Z -1.0000
G01 X 14.1537 Y 22.6182 Z -1.0000
G01 X 14.1584 Y 22.6189 Z -1.0000
G01 X 14.1595 Y 22.6247 Z -1.0000
G01 X 14.1525 Y 22.6335 Z -1.0000
G01 X 14.1435 Y 22.6351 Z -1.0000
G01 X 14.1384 Y 22.6381 Z -1.0000
G01 X 14.1383 Y 22.6515 Z -1.0000
G01 X 14.1381 Y 22.6675 Z -1.0000
G01 X 14.1297 Y 22.6761 Z -1.0000
G01 X 14.1193 Y 22.6847 Z -1.0000
G01 X 14.1151 Y 22.6994 Z -1.0000
G01 X 14.1118 Y 22.7139 Z -1.0000
G01 X 14.1067 Y 22.7171 Z -1.0000
G01 X 14.1002 Y 22.7203 Z -1.0000
G02 X 14.0801 Y 22.7522 Z -1.0000 I 0.1746 J 0.1326
G03 X 14.0588 Y 22.7841 Z -1.0000 I -0.1543 J -0.0800
G03 X 14.0421 Y 22.7973 Z -1.0000 I -0.0408 J -0.0343
G01 X 14.0313 Y 22.8088 Z -1.0000
G01 X 14.0331 Y 22.8183 Z -1.0000
G01 X 14.0358 Y 22.8259 Z -1.0000
G01 X 14.0321 Y 22.8293 Z -1.0000
G01 X 14.0251 Y 22.8329 Z -1.0000
G01 X 14.0239 Y 22.8406 Z -1.0000
G01 X 14.0230 Y 22.8507 Z -1.0000
G03 X 14.0071 Y 22.8710 Z -1.0000 I -0.0715 J -0.0396
G02 X 13.9882 Y 22.8907 Z -1.0000 I 0.1614 J 0.1742
G01 X 13.9868 Y 22.8947 Z -1.0000
G03 X 13.9786 Y 22.9277 Z -1.0000 I -0.0593 J 0.0029
G03 X 13.9245 Y 23.0004 Z -1.0000 I -0.3632 J -0.2144
G02 X 13.9036 Y 23.0279 Z -1.0000 I 0.1252 J 0.1164
G01 X 13.9001 Y 23.0404 Z -1.0000
G01 X 13.8965 Y 23.0517 Z -1.0000
G01 X 13.8861 Y 23.0596 Z -1.0000
G01 X 13.8755 Y 23.0673 Z -1.0000
G01 X 13.8721 Y 23.0769 Z -1.0000
G01 X 13.8692 Y 23.0873 Z -1.0000
G03 X 13.8581 Y 23.1004 Z -1.0000 I -0.0433 J -0.0257
G01 X 13.8474 Y 23.1136 Z -1.0000
G01 X 13.8441 Y 23.1275 Z -1.0000
G01 X 13.8403 Y 23.1412 Z -1.0000
G03 X 13.8254 Y 23.1590 Z -1.0000 I -0.0610 J -0.0362
G02 X 13.8106 Y 23.1768 Z -1.0000 I 0.0445 J 0.0520
G01 X 13.8066 Y 23.1914 Z -1.0000
G01 X 13.8029 Y 23.2064 Z -1.0000
G03 X 13.7836 Y 23.2347 Z -1.0000 I -0.1371 J -0.0729
G02 X 13.7627 Y 23.2629 Z -1.0000 I 0.1828 J 0.1571
G02 X 13.7407 Y 23.3025 Z -1.0000 I 0.3383 J 0.2141
G03 X 13.7192 Y 23.3408 Z -1.0000 I -0.3348 J -0.1621
G01 X 13.7145 Y 23.3434 Z -1.0000
G01 X 13.7096 Y 23.3459 Z -1.0000
G02 X 13.6899 Y 23.3785 Z -1.0000 I 0.2330 J 0.1632
G03 X 13.6709 Y 23.4130 Z -1.0000 I -0.7262 J -0.3766
G03 X 13.6478 Y 23.4509 Z -1.0000 I -0.8495 J -0.4939
G02 X 13.6242 Y 23.4886 Z -1.0000 I 1.4630 J 0.9414
G02 X 13.6138 Y 23.5068 Z -1.0000 I 0.3276 J 0.1992
G01 X 13.6011 Y 23.5215 Z -1.0000
G03 X 13.5815 Y 23.5306 Z -1.0000 I -0.0320 J -0.0435
G01 X 13.5700 Y 23.5376 Z -1.0000
G01 X 13.5709 Y 23.5431 Z -1.0000
G01 X 13.5746 Y 23.5520 Z -1.0000
G03 X 13.5631 Y 23.5779 Z -1.0000 I -0.0705 J -0.0159
G03 X 13.5422 Y 23.5991 Z -1.0000 I -0.0769 J -0.0548
G01 X 13.5339 Y 23.5994 Z -1.0000
G01 X 13.5300 Y 23.6009 Z -1.0000
G01 X 13.5303 Y 23.6126 Z -1.0000
G01 X 13.5299 Y 23.6300 Z -1.0000
G03 X 13.5163 Y 23.6504 Z -1.0000 I -0.0500 J -0.0186
G02 X 13.5021 Y 23.6700 Z -1.0000 I 0.0431 J 0.0463
G01 X 13.5026 Y 23.6796 Z -1.0000
G01 X 13.5027 Y 23.6888 Z -1.0000
G03 X 13.4849 Y 23.7090 Z -1.0000 I -0.0633 J -0.0378
G02 X 13.4646 Y 23.7299 Z -1.0000 I 0.0688 J 0.0874
G01 X 13.4608 Y 23.7414 Z -1.0000
G01 X 13.4568 Y 23.7507 Z -1.0000
G01 X 13.4467 Y 23.7547 Z -1.0000
G01 X 13.4359 Y 23.7516 Z -1.0000
G01 X 13.4327 Y 23.7458 Z -1.0000
G03 X 13.4436 Y 23.7002 Z -1.0000 I 0.1013 J 0.0000
G01 X 13.4613 Y 23.6893 Z -1.0000
G01 X 13.4662 Y 23.6864 Z -1.0000
G02 X 13.4830 Y 23.6519 Z -1.0000 I -0.2288 J -0.1329
G03 X 13.5005 Y 23.6182 Z -1.0000 I 0.1771 J 0.0706
G01 X 13.5074 Y 23.6145 Z -1.0000
G01 X 13.5136 Y 23.6112 Z -1.0000
G01 X 13.5168 Y 23.6003 Z -1.0000
G01 X 13.5205 Y 23.5874 Z -1.0000
G03 X 13.5589 Y 23.5325 Z -1.0000 I 0.5162 J 0.3203
G02 X 13.5977 Y 23.4779 Z -1.0000 I -0.5522 J -0.4334
G01 X 13.6010 Y 23.4669 Z -1.0000
G01 X 13.6032 Y 23.4556 Z -1.0000
G01 X 13.6105 Y 23.4435 Z -1.0000
G02 X 13.6370 Y 23.4070 Z -1.0000 I -0.2472 J -0.2075
G02 X 13.6802 Y 23.3318 Z -1.0000 I -1.0053 J -0.6277
G03 X 13.7018 Y 23.3044 Z -1.0000 I 0.0845 J 0.0445
G01 X 13.7145 Y 23.3018 Z -1.0000
G01 X 13.7233 Y 23.2994 Z -1.0000
G01 X 13.7257 Y 23.2893 Z -1.0000
G03 X 13.7309 Y 23.2320 Z -1.0000 I 0.0823 J -0.0215
G03 X 13.7757 Y 23.1817 Z -1.0000 I 0.1057 J 0.0491
G01 X 13.7848 Y 23.1724 Z -1.0000
G01 X 13.7879 Y 23.1607 Z -1.0000
G01 X 13.7906 Y 23.1498 Z -1.0000
G01 X 13.7951 Y 23.1471 Z -1.0000
G01 X 13.8391 Y 23.1206 Z -1.0000
G01 X 13.8324 Y 23.0763 Z -1.0000
G01 X 13.8015 Y 23.0777 Z -1.0000
G02 X 13.7786 Y 23.1409 Z -1.0000 I 0.0755 J 0.0632
G01 X 13.7770 Y 23.1465 Z -1.0000
G03 X 13.6944 Y 23.2780 Z -1.0000 I -6.3916 J -3.9213
G02 X 13.6119 Y 23.4094 Z -1.0000 I 6.3843 J 4.1011
G01 X 13.6103 Y 23.4150 Z -1.0000
G01 X 13.6087 Y 23.4205 Z -1.0000
G03 X 13.5887 Y 23.4500 Z -1.0000 I -0.3288 J -0.2021
G02 X 13.4879 Y 23.5990 Z -1.0000 I 1.5224 J 1.1383
G02 X 13.4794 Y 23.6292 Z -1.0000 I 0.0497 J 0.0303
G01 X 13.4782 Y 23.6335 Z -1.0000
G03 X 13.4698 Y 23.6453 Z -1.0000 I -0.0747 J -0.0446
G02 X 13.4175 Y 23.7159 Z -1.0000 I 0.4945 J 0.4209
G02 X 13.3339 Y 23.8575 Z -1.0000 I 1.9166 J 1.2276
G03 X 13.3149 Y 23.8895 Z -1.0000 I -0.4547 J -0.2476
G03 X 13.3008 Y 23.9089 Z -1.0000 I -0.1763 J -0.1131
G02 X 13.2681 Y 23.9549 Z -1.0000 I 0.3342 J 0.2729
G02 X 13.1601 Y 24.1365 Z -1.0000 I 5.1454 J 3.1826
G03 X 13.1343 Y 24.1795 Z -1.0000 I -0.9993 J -0.5710
G03 X 13.0666 Y 24.2847 Z -1.0000 I -6.0358 J -3.8067
G02 X 12.9988 Y 24.3899 Z -1.0000 I 6.6793 J 4.3782
G02 X 12.9334 Y 24.4950 Z -1.0000 I 6.6314 J 4.1998
G03 X 12.8683 Y 24.6004 Z -1.0000 I -10.6822 J -6.5321
G03 X 12.8271 Y 24.6650 Z -1.0000 I -4.0142 J -2.5096
G02 X 12.7860 Y 24.7297 Z -1.0000 I 3.4758 J 2.2517
G02 X 12.7399 Y 24.8052 Z -1.0000 I 4.6513 J 2.8925
G03 X 12.6935 Y 24.8805 Z -1.0000 I -3.0865 J -1.8509
G03 X 12.6803 Y 24.8994 Z -1.0000 I -0.2087 J -0.1322
G02 X 12.6686 Y 24.9257 Z -1.0000 I 0.0476 J 0.0368
G01 X 12.6744 Y 24.9325 Z -1.0000
G01 X 12.6805 Y 24.9292 Z -1.0000
G02 X 12.7078 Y 24.8810 Z -1.0000 I -0.3815 J -0.2482
G03 X 12.7350 Y 24.8361 Z -1.0000 I 0.2666 J 0.1304
G01 X 12.7417 Y 24.8348 Z -1.0000
G01 X 12.7469 Y 24.8341 Z -1.0000
G01 X 12.7503 Y 24.8255 Z -1.0000
G01 X 12.7535 Y 24.8143 Z -1.0000
G01 X 12.7596 Y 24.8110 Z -1.0000
G01 X 12.7655 Y 24.8077 Z -1.0000
G01 X 12.7689 Y 24.7963 Z -1.0000
G01 X 12.7802 Y 24.7662 Z -1.0000
G01 X 12.8053 Y 24.7549 Z -1.0000
G01 X 12.8099 Y 24.7514 Z -1.0000
G01 X 12.8096 Y 24.7409 Z -1.0000
G01 X 12.8096 Y 24.7306 Z -1.0000
G01 X 12.8151 Y 24.7268 Z -1.0000
G01 X 12.8208 Y 24.7239 Z -1.0000
G01 X 12.8210 Y 24.7187 Z -1.0000
G01 X 12.8208 Y 24.7113 Z -1.0000
G03 X 12.8345 Y 24.6938 Z -1.0000 I 0.0579 J 0.0316
G02 X 12.8496 Y 24.6749 Z -1.0000 I -0.0494 J -0.0548
G02 X 12.8638 Y 24.6412 Z -1.0000 I -0.1481 J -0.0823
G03 X 12.8789 Y 24.6112 Z -1.0000 I 0.0915 J 0.0272
G01 X 12.8907 Y 24.6053 Z -1.0000
G01 X 12.9187 Y 24.5913 Z -1.0000
G01 X 12.9238 Y 24.5611 Z -1.0000
G01 X 12.9246 Y 24.5460 Z -1.0000
G01 X 12.9371 Y 24.5305 Z -1.0000
G02 X 12.9518 Y 24.5150 Z -1.0000 I -0.0335 J -0.0465
G01 X 12.9557 Y 24.5015 Z -1.0000
G01 X 12.9604 Y 24.4896 Z -1.0000
G01 X 12.9745 Y 24.4811 Z -1.0000
G01 X 12.9862 Y 24.4726 Z -1.0000
G01 X 12.9874 Y 24.4610 Z -1.0000
G01 X 12.9879 Y 24.4473 Z -1.0000
G03 X 13.0039 Y 24.4251 Z -1.0000 I 0.0647 J 0.0298
G02 X 13.0207 Y 24.4025 Z -1.0000 I -0.0533 J -0.0572
G01 X 13.0228 Y 24.3869 Z -1.0000
G01 X 13.0242 Y 24.3764 Z -1.0000
G01 X 13.0287 Y 24.3752 Z -1.0000
G01 X 13.0356 Y 24.3741 Z -1.0000
G02 X 13.0478 Y 24.3529 Z -1.0000 I -0.0497 J -0.0428
G03 X 13.0602 Y 24.3286 Z -1.0000 I 0.0947 J 0.0332
G01 X 13.0674 Y 24.3249 Z -1.0000
G01 X 13.0740 Y 24.3216 Z -1.0000
G01 X 13.0772 Y 24.3120 Z -1.0000
G01 X 13.0802 Y 24.3005 Z -1.0000
G01 X 13.0906 Y 24.2880 Z -1.0000
G01 X 13.1010 Y 24.2750 Z -1.0000
G02 X 13.1101 Y 24.2495 Z -1.0000 I -0.0971 J -0.0489
G03 X 13.1197 Y 24.2244 Z -1.0000 I 0.0868 J 0.0190
G01 X 13.1324 Y 24.2104 Z -1.0000
G02 X 13.1464 Y 24.1967 Z -1.0000 I -0.0374 J -0.0525
G02 X 13.1643 Y 24.1683 Z -1.0000 I -0.1573 J -0.1191
G03 X 13.1801 Y 24.1379 Z -1.0000 I 5.8877 J 3.0302
G03 X 13.1951 Y 24.1092 Z -1.0000 I 12.8913 J 6.7191
G03 X 13.2122 Y 24.0828 Z -1.0000 I 0.1511 J 0.0794
G01 X 13.2212 Y 24.0762 Z -1.0000
G01 X 13.2288 Y 24.0695 Z -1.0000
G01 X 13.2336 Y 24.0528 Z -1.0000
G01 X 13.2389 Y 24.0354 Z -1.0000
G03 X 13.2537 Y 24.0174 Z -1.0000 I 0.0597 J 0.0337
G02 X 13.2689 Y 23.9992 Z -1.0000 I -0.0497 J -0.0571
G02 X 13.2787 Y 23.9755 Z -1.0000 I -0.0749 J -0.0449
G01 X 13.2887 Y 23.9567 Z -1.0000
G01 X 13.2976 Y 23.9546 Z -1.0000
G01 X 13.3036 Y 23.9530 Z -1.0000
G01 X 13.3048 Y 23.9458 Z -1.0000
G01 X 13.3048 Y 23.9358 Z -1.0000
G01 X 13.3100 Y 23.9322 Z -1.0000
G01 X 13.3173 Y 23.9292 Z -1.0000
G01 X 13.3203 Y 23.9220 Z -1.0000
G01 X 13.3226 Y 23.9125 Z -1.0000
G03 X 13.3399 Y 23.8843 Z -1.0000 I 0.2088 J 0.1081
G02 X 13.3583 Y 23.8561 Z -1.0000 I -0.3465 J -0.2467
G02 X 13.3852 Y 23.8085 Z -1.0000 I -0.9633 J -0.5768
G03 X 13.4219 Y 23.7645 Z -1.0000 I 0.1251 J 0.0668
G01 X 13.4357 Y 23.7682 Z -1.0000
G01 X 13.4362 Y 23.7791 Z -1.0000
G01 X 13.4315 Y 23.7827 Z -1.0000
G01 X 13.4035 Y 23.7962 Z -1.0000
G01 X 13.4046 Y 23.8165 Z -1.0000
G01 X 13.4093 Y 23.8589 Z -1.0000
G03 X 13.3608 Y 23.8855 Z -1.0000 I -0.0485 J -0.0308
G01 X 13.3535 Y 23.8902 Z -1.0000
G01 X 13.3527 Y 23.9031 Z -1.0000
G01 X 13.3517 Y 23.9194 Z -1.0000
G03 X 13.3252 Y 23.9615 Z -1.0000 I -0.1888 J -0.0894
G02 X 13.2940 Y 24.0035 Z -1.0000 I 0.4690 J 0.3808
G02 X 13.2864 Y 24.0187 Z -1.0000 I 0.0535 J 0.0362
G01 X 13.2780 Y 24.0311 Z -1.0000
G01 X 13.2673 Y 24.0351 Z -1.0000
G01 X 13.2586 Y 24.0395 Z -1.0000
G01 X 13.2554 Y 24.0514 Z -1.0000
G03 X 13.2512 Y 24.0837 Z -1.0000 I -0.0704 J 0.0072
G01 X 13.2404 Y 24.0911 Z -1.0000
G01 X 13.2319 Y 24.0945 Z -1.0000
G01 X 13.2312 Y 24.0998 Z -1.0000
G01 X 13.2321 Y 24.1075 Z -1.0000
G01 X 13.2264 Y 24.1148 Z -1.0000
G01 X 13.2206 Y 24.1225 Z -1.0000
G01 X 13.2213 Y 24.1342 Z -1.0000
G01 X 13.2203 Y 24.1431 Z -1.0000
G01 X 13.2127 Y 24.1472 Z -1.0000
G01 X 13.1942 Y 24.1575 Z -1.0000
G02 X 13.1665 Y 24.2220 Z -1.0000 I 0.2041 J 0.1259
G03 X 13.1453 Y 24.2715 Z -1.0000 I -0.1762 J -0.0462
G03 X 13.1175 Y 24.3016 Z -1.0000 I -0.0911 J -0.0562
G02 X 13.0999 Y 24.3206 Z -1.0000 I 0.0407 J 0.0556
G02 X 13.0677 Y 24.3809 Z -1.0000 I 0.4083 J 0.2566
G03 X 13.0557 Y 24.4032 Z -1.0000 I -0.1560 J -0.0693
G03 X 13.0425 Y 24.4206 Z -1.0000 I -0.1094 J -0.0695
G01 X 13.0349 Y 24.4370 Z -1.0000
G01 X 13.0193 Y 24.4674 Z -1.0000
G02 X 12.9980 Y 24.4986 Z -1.0000 I 0.3301 J 0.2481
G02 X 12.9904 Y 24.5141 Z -1.0000 I 0.0738 J 0.0455
G01 X 12.9823 Y 24.5275 Z -1.0000
G01 X 12.9755 Y 24.5305 Z -1.0000
G01 X 12.9694 Y 24.5341 Z -1.0000
G02 X 12.9604 Y 24.5585 Z -1.0000 I 0.0834 J 0.0448
G03 X 12.9514 Y 24.5831 Z -1.0000 I -0.0959 J -0.0211
G01 X 12.9456 Y 24.5866 Z -1.0000
G01 X 12.9399 Y 24.5894 Z -1.0000
G01 X 12.9370 Y 24.5975 Z -1.0000
G01 X 12.9221 Y 24.6311 Z -1.0000
G01 X 12.8941 Y 24.6364 Z -1.0000
G01 X 12.8845 Y 24.6364 Z -1.0000
G01 X 12.8810 Y 24.6417 Z -1.0000
G01 X 12.8838 Y 24.6491 Z -1.0000
G01 X 12.8904 Y 24.6520 Z -1.0000
G01 X 12.8941 Y 24.6581 Z -1.0000
G03 X 12.8331 Y 24.7642 Z -1.0000 I -1.0991 J -0.5612
G02 X 12.8008 Y 24.8160 Z -1.0000 I 1.7682 J 1.1367
G02 X 12.7937 Y 24.8296 Z -1.0000 I 0.1129 J 0.0680
G03 X 12.7866 Y 24.8432 Z -1.0000 I -0.1282 J -0.0583
G03 X 12.7687 Y 24.8717 Z -1.0000 I -0.5752 J -0.3414
G02 X 12.7512 Y 24.9004 Z -1.0000 I 0.3707 J 0.2462
G02 X 12.7360 Y 24.9301 Z -1.0000 I 0.3865 J 0.2166
G03 X 12.7196 Y 24.9571 Z -1.0000 I -0.1314 J -0.0613
G01 X 12.7126 Y 24.9605 Z -1.0000
G01 X 12.7065 Y 24.9636 Z -1.0000
G01 X 12.7034 Y 24.9731 Z -1.0000
G03 X 12.6758 Y 25.0731 Z -1.0000 I -0.1951 J 0.0000
G03 X 12.6272 Y 25.1007 Z -1.0000 I -0.0486 J -0.0290
G01 X 12.6220 Y 25.1035 Z -1.0000
G01 X 12.6192 Y 25.1124 Z -1.0000
G01 X 12.6164 Y 25.1232 Z -1.0000
G03 X 12.5819 Y 25.1802 Z -1.0000 I -0.6985 J -0.3849
G02 X 12.5473 Y 25.2371 Z -1.0000 I 0.6671 J 0.4440
G01 X 12.5445 Y 25.2479 Z -1.0000
G01 X 12.5417 Y 25.2567 Z -1.0000
G01 X 12.5360 Y 25.2596 Z -1.0000
G01 X 12.5297 Y 25.2628 Z -1.0000
G02 X 12.5170 Y 25.2853 Z -1.0000 I 0.0840 J 0.0622
G03 X 12.4942 Y 25.3322 Z -1.0000 I -0.3826 J -0.1572
G03 X 12.4725 Y 25.3638 Z -1.0000 I -0.1944 J -0.1102
G02 X 12.4631 Y 25.3772 Z -1.0000 I 0.0901 J 0.0734
G02 X 12.4396 Y 25.4185 Z -1.0000 I 0.7883 J 0.4754
G03 X 12.3945 Y 25.4973 Z -1.0000 I -1.3701 J -0.7329
G03 X 12.3638 Y 25.5422 Z -1.0000 I -0.4765 J -0.2919
G02 X 12.3428 Y 25.5774 Z -1.0000 I 0.1524 J 0.1152
G01 X 12.3434 Y 25.5866 Z -1.0000
G01 X 12.3442 Y 25.5933 Z -1.0000
G01 X 12.3404 Y 25.5961 Z -1.0000
G01 X 12.3335 Y 25.5996 Z -1.0000
G02 X 12.3081 Y 25.6405 Z -1.0000 I 0.2698 J 0.1962
G03 X 12.2844 Y 25.6848 Z -1.0000 I -2.7949 J -1.4696
G03 X 12.2507 Y 25.7457 Z -1.0000 I -5.5359 J -3.0240
G02 X 12.2171 Y 25.8068 Z -1.0000 I 3.3186 J 1.8619
G02 X 12.2006 Y 25.8389 Z -1.0000 I 0.9108 J 0.4893
G03 X 12.1828 Y 25.8701 Z -1.0000 I -0.2675 J -0.1320
G03 X 12.1691 Y 25.8871 Z -1.0000 I -0.0928 J -0.0606
G02 X 12.1556 Y 25.9043 Z -1.0000 I 0.0727 J 0.0711
G02 X 12.1368 Y 25.9388 Z -1.0000 I 0.2715 J 0.1697
G03 X 12.1184 Y 25.9732 Z -1.0000 I -0.3098 J -0.1444
G01 X 12.1110 Y 25.9810 Z -1.0000
G01 X 12.1041 Y 25.9886 Z -1.0000
G01 X 12.0995 Y 26.0027 Z -1.0000
G03 X 12.0784 Y 26.0661 Z -1.0000 I -0.1872 J -0.0273
G03 X 12.0118 Y 26.1636 Z -1.0000 I -0.5222 J -0.2850
G01 X 12.0048 Y 26.1758 Z -1.0000
G01 X 12.0023 Y 26.1896 Z -1.0000
G01 X 11.9985 Y 26.2017 Z -1.0000
G01 X 11.9883 Y 26.2097 Z -1.0000
G01 X 11.9799 Y 26.2169 Z -1.0000
G01 X 11.9800 Y 26.2242 Z -1.0000
G01 X 11.9798 Y 26.2324 Z -1.0000
G03 X 11.9543 Y 26.2602 Z -1.0000 I -0.1270 J -0.0907
G02 X 11.9336 Y 26.2833 Z -1.0000 I 0.0764 J 0.0893
G01 X 11.9357 Y 26.2875 Z -1.0000
G01 X 11.9398 Y 26.2918 Z -1.0000
G01 X 11.9357 Y 26.3033 Z -1.0000
G02 X 11.9243 Y 26.3193 Z -1.0000 I 0.1000 J 0.0835
G01 X 11.9229 Y 26.3244 Z -1.0000
G01 X 11.9210 Y 26.3274 Z -1.0000
G01 X 11.9166 Y 26.3279 Z -1.0000
G01 X 11.9124 Y 26.3296 Z -1.0000
G02 X 11.9043 Y 26.3526 Z -1.0000 I 0.0903 J 0.0444
G03 X 11.8950 Y 26.3774 Z -1.0000 I -0.0881 J -0.0191
G03 X 11.8803 Y 26.3959 Z -1.0000 I -0.0634 J -0.0353
G02 X 11.8658 Y 26.4140 Z -1.0000 I 0.0477 J 0.0530
G01 X 11.8621 Y 26.4281 Z -1.0000
G01 X 11.8584 Y 26.4423 Z -1.0000
G03 X 11.8434 Y 26.4609 Z -1.0000 I -0.0656 J -0.0375
G02 X 11.8285 Y 26.4795 Z -1.0000 I 0.0502 J 0.0554
G01 X 11.8247 Y 26.4939 Z -1.0000
G01 X 11.8212 Y 26.5084 Z -1.0000
G01 X 11.8107 Y 26.5216 Z -1.0000
G01 X 11.8003 Y 26.5349 Z -1.0000
G01 X 11.7967 Y 26.5508 Z -1.0000
G01 X 11.7934 Y 26.5652 Z -1.0000
G01 X 11.7884 Y 26.5684 Z -1.0000
G01 X 11.7826 Y 26.5716 Z -1.0000
G02 X 11.7742 Y 26.5917 Z -1.0000 I 0.0626 J 0.0379
G03 X 11.7656 Y 26.6116 Z -1.0000 I -0.0641 J -0.0160
G01 X 11.7591 Y 26.6151 Z -1.0000
G01 X 11.7535 Y 26.6186 Z -1.0000
G01 X 11.7499 Y 26.6338 Z -1.0000
G01 X 11.7453 Y 26.6478 Z -1.0000
G01 X 11.7359 Y 26.6525 Z -1.0000
G01 X 11.7273 Y 26.6578 Z -1.0000
G02 X 11.7219 Y 26.6805 Z -1.0000 I 0.0452 J 0.0227
G03 X 11.7180 Y 26.7047 Z -1.0000 I -0.0766 J -0.0000
G01 X 11.7126 Y 26.7086 Z -1.0000
G01 X 11.7063 Y 26.7116 Z -1.0000
G01 X 11.7033 Y 26.7205 Z -1.0000
G01 X 11.6999 Y 26.7308 Z -1.0000
G03 X 11.6846 Y 26.7460 Z -1.0000 I -0.0558 J -0.0410
G02 X 11.6692 Y 26.7612 Z -1.0000 I 0.0405 J 0.0562
G01 X 11.6659 Y 26.7714 Z -1.0000
G01 X 11.6628 Y 26.7803 Z -1.0000
G01 X 11.6566 Y 26.7834 Z -1.0000
G01 X 11.6508 Y 26.7869 Z -1.0000
G01 X 11.6473 Y 26.8014 Z -1.0000
G01 X 11.6438 Y 26.8180 Z -1.0000
G03 X 11.6333 Y 26.8334 Z -1.0000 I -0.0461 J -0.0201
G02 X 11.6222 Y 26.8487 Z -1.0000 I 0.0425 J 0.0425
G01 X 11.6193 Y 26.8610 Z -1.0000
G01 X 11.6161 Y 26.8730 Z -1.0000
G01 X 11.6052 Y 26.8862 Z -1.0000
G01 X 11.5948 Y 26.8995 Z -1.0000
G01 X 11.5912 Y 26.9154 Z -1.0000
G01 X 11.5883 Y 26.9301 Z -1.0000
G01 X 11.5842 Y 26.9329 Z -1.0000
G01 X 11.5788 Y 26.9357 Z -1.0000
G02 X 11.5549 Y 26.9750 Z -1.0000 I 0.3132 J 0.2180
G03 X 11.5298 Y 27.0124 Z -1.0000 I -0.1927 J -0.1022
G01 X 11.5198 Y 27.0171 Z -1.0000
G01 X 11.5115 Y 27.0215 Z -1.0000
G01 X 11.5071 Y 27.0358 Z -1.0000
G01 X 11.5039 Y 27.0512 Z -1.0000
G01 X 11.4988 Y 27.0545 Z -1.0000
G01 X 11.4934 Y 27.0580 Z -1.0000
G02 X 11.4843 Y 27.0874 Z -1.0000 I 0.1246 J 0.0546
G03 X 11.4751 Y 27.1135 Z -1.0000 I -0.0874 J -0.0164
G01 X 11.4694 Y 27.1150 Z -1.0000
G01 X 11.4658 Y 27.1231 Z -1.0000
G01 X 11.4665 Y 27.1352 Z -1.0000
G01 X 11.4610 Y 27.1428 Z -1.0000
G01 X 11.4540 Y 27.1507 Z -1.0000
G01 X 11.4510 Y 27.1653 Z -1.0000
G01 X 11.4465 Y 27.1798 Z -1.0000
G03 X 11.4182 Y 27.2133 Z -1.0000 I -0.1790 J -0.1221
G02 X 11.3894 Y 27.2462 Z -1.0000 I 0.1879 J 0.1938
G01 X 11.3874 Y 27.2549 Z -1.0000
G03 X 11.3766 Y 27.3213 Z -1.0000 I -0.0968 J 0.0184
G01 X 11.3376 Y 27.3442 Z -1.0000
G01 X 11.3326 Y 27.3478 Z -1.0000
G01 X 11.3328 Y 27.3581 Z -1.0000
G01 X 11.3309 Y 27.3683 Z -1.0000
G01 X 11.3149 Y 27.3779 Z -1.0000
G02 X 11.2962 Y 27.3868 Z -1.0000 I 0.0127 J 0.0508
G01 X 11.2930 Y 27.3943 Z -1.0000
G03 X 11.2886 Y 27.4353 Z -1.0000 I -0.0919 J 0.0109
G01 X 11.2759 Y 27.4436 Z -1.0000
G01 X 11.2652 Y 27.4492 Z -1.0000
G02 X 11.2545 Y 27.4800 Z -1.0000 I 0.0721 J 0.0423
G03 X 11.2428 Y 27.5145 Z -1.0000 I -0.0959 J -0.0133
G03 X 11.2104 Y 27.5577 Z -1.0000 I -0.1852 J -0.1051
G02 X 11.1779 Y 27.5991 Z -1.0000 I 0.1816 J 0.1763
G01 X 11.1767 Y 27.6112 Z -1.0000
G01 X 11.1747 Y 27.6198 Z -1.0000
G01 X 11.1622 Y 27.6246 Z -1.0000
G01 X 11.1462 Y 27.6284 Z -1.0000
G01 X 11.1425 Y 27.6345 Z -1.0000
G01 X 11.1454 Y 27.6391 Z -1.0000
G01 X 11.1518 Y 27.6386 Z -1.0000
G01 X 11.1577 Y 27.6419 Z -1.0000
G01 X 11.1518 Y 27.6620 Z -1.0000
G01 X 11.1455 Y 27.6654 Z -1.0000
G01 X 11.1419 Y 27.6620 Z -1.0000
G01 X 11.1336 Y 27.6667 Z -1.0000
G01 X 11.1302 Y 27.6852 Z -1.0000
G01 X 11.1342 Y 27.7010 Z -1.0000
G01 X 11.1369 Y 27.7144 Z -1.0000
G01 X 11.1326 Y 27.7198 Z -1.0000
G01 X 11.1262 Y 27.7257 Z -1.0000
G02 X 11.1201 Y 27.7493 Z -1.0000 I 0.0762 J 0.0324
G03 X 11.1141 Y 27.7742 Z -1.0000 I -0.0962 J -0.0100
G03 X 11.1040 Y 27.7913 Z -1.0000 I -0.0552 J -0.0213
G01 X 11.0950 Y 27.8081 Z -1.0000
G01 X 11.0943 Y 27.8256 Z -1.0000
G01 X 11.0979 Y 27.8443 Z -1.0000
G01 X 11.0766 Y 27.8256 Z -1.0000
G01 X 11.0554 Y 27.8069 Z -1.0000
G01 X 11.0605 Y 27.8275 Z -1.0000
G01 X 11.0607 Y 27.8456 Z -1.0000
G01 X 11.0550 Y 27.8525 Z -1.0000
G01 X 11.0522 Y 27.8578 Z -1.0000
G01 X 11.0583 Y 27.8668 Z -1.0000
G01 X 11.0630 Y 27.8772 Z -1.0000
G01 X 11.0709 Y 27.8907 Z -1.0000
G01 X 11.0799 Y 27.9126 Z -1.0000
G01 X 11.0670 Y 27.9187 Z -1.0000
G01 X 11.0610 Y 27.9183 Z -1.0000
G01 X 11.0583 Y 27.9226 Z -1.0000
G01 X 11.0616 Y 27.9294 Z -1.0000
G02 X 11.0776 Y 27.9380 Z -1.0000 I 0.0312 J -0.0391
G01 X 11.0859 Y 27.9472 Z -1.0000
G01 X 11.0823 Y 27.9604 Z -1.0000
G02 X 11.0704 Y 27.9778 Z -1.0000 I 0.0569 J 0.0518
G01 X 11.0675 Y 27.9899 Z -1.0000
G03 X 11.0515 Y 28.0566 Z -1.0000 I -0.1540 J -0.0016
G01 X 11.0301 Y 28.0655 Z -1.0000
G01 X 11.0264 Y 28.0679 Z -1.0000
G01 X 11.0289 Y 28.0764 Z -1.0000
G01 X 11.0326 Y 28.0894 Z -1.0000
G01 X 11.0260 Y 28.0978 Z -1.0000
G01 X 11.0160 Y 28.1063 Z -1.0000
G01 X 11.0151 Y 28.1161 Z -1.0000
G01 X 11.0138 Y 28.1223 Z -1.0000
G01 X 11.0072 Y 28.1236 Z -1.0000
G01 X 10.9962 Y 28.1234 Z -1.0000
G01 X 10.9874 Y 28.1305 Z -1.0000
G01 X 10.9858 Y 28.1402 Z -1.0000
G01 X 10.9911 Y 28.1460 Z -1.0000
G01 X 11.0057 Y 28.1691 Z -1.0000
G03 X 10.9834 Y 28.2110 Z -1.0000 I -0.0648 J -0.0077
G01 X 10.9784 Y 28.2382 Z -1.0000
G02 X 11.0184 Y 28.2753 Z -1.0000 I 0.0751 J -0.0409
G02 X 11.1604 Y 28.3383 Z -1.0000 I 7.5850 J -16.8914
G02 X 11.5115 Y 28.4917 Z -1.0000 I 45.2844 J -103.1525
G03 X 12.4884 Y 28.9560 Z -1.0000 I -6.4657 J 14.8652
G03 X 12.6747 Y 29.0929 Z -1.0000 I -0.3402 J 0.6583
G03 X 12.7487 Y 29.1851 Z -1.0000 I -0.4047 J 0.4008
G03 X 12.7978 Y 29.2838 Z -1.0000 I -0.4169 J 0.2687
G01 X 12.8154 Y 29.3119 Z -1.0000
G01 X 12.8207 Y 29.3077 Z -1.0000
G01 X 12.8331 Y 29.3155 Z -1.0000
G02 X 12.8532 Y 29.3324 Z -1.0000 I 0.0490 J -0.0377
G02 X 12.8795 Y 29.3401 Z -1.0000 I 0.0317 J -0.0597
G01 X 12.9049 Y 29.3362 Z -1.0000
G01 X 12.9635 Y 29.3603 Z -1.0000
G02 X 13.0264 Y 29.3884 Z -1.0000 I 0.4746 J -0.9780
G01 X 13.0384 Y 29.3909 Z -1.0000
G01 X 13.0500 Y 29.3940 Z -1.0000
G03 X 13.0748 Y 29.4100 Z -1.0000 I -0.0746 J 0.1421
G02 X 13.0995 Y 29.4258 Z -1.0000 I 0.0911 J -0.1159
G01 X 13.1119 Y 29.4287 Z -1.0000
G03 X 13.1837 Y 29.4401 Z -1.0000 I -0.0000 J 0.2323
G03 X 13.2311 Y 29.4675 Z -1.0000 I -0.0407 J 0.1252
G01 X 13.2410 Y 29.4728 Z -1.0000
G02 X 13.2617 Y 29.4755 Z -1.0000 I 0.0207 J -0.0791
G01 X 13.2794 Y 29.4813 Z -1.0000
G01 X 13.2919 Y 29.4977 Z -1.0000
G01 X 13.3052 Y 29.5149 Z -1.0000
G02 X 13.3477 Y 29.5369 Z -1.0000 I 0.1035 J -0.1475
G03 X 13.3924 Y 29.5559 Z -1.0000 I -0.1452 J 0.4028
G01 X 13.3951 Y 29.5604 Z -1.0000
G01 X 13.4216 Y 29.6015 Z -1.0000
G01 X 13.4675 Y 29.5932 Z -1.0000
G01 X 13.4671 Y 29.5891 Z -1.0000
G02 X 13.4434 Y 29.5775 Z -1.0000 I -0.0599 J 0.0921
G03 X 13.4152 Y 29.5587 Z -1.0000 I 0.0225 J -0.0644
G01 X 13.4190 Y 29.5503 Z -1.0000
G03 X 13.4443 Y 29.5565 Z -1.0000 I -0.0000 J 0.0543
G03 X 13.4980 Y 29.5919 Z -1.0000 I -0.1535 J 0.2913
G02 X 13.5129 Y 29.6017 Z -1.0000 I 0.0566 J -0.0703
G02 X 13.5447 Y 29.6162 Z -1.0000 I 0.1558 J -0.2991
G03 X 13.6461 Y 29.6687 Z -1.0000 I -0.2075 J 0.5254
G01 X 13.6460 Y 29.6824 Z -1.0000
G01 X 13.6646 Y 29.6845 Z -1.0000
G01 X 13.6880 Y 29.6862 Z -1.0000
G01 X 13.6926 Y 29.6943 Z -1.0000
G01 X 13.6991 Y 29.7095 Z -1.0000
G02 X 13.8111 Y 29.7705 Z -1.0000 I 0.4742 J -0.7371
G03 X 13.8858 Y 29.8047 Z -1.0000 I -7.2186 J 15.9025
G03 X 13.9513 Y 29.8350 Z -1.0000 I -5.2907 J 11.5112
G02 X 14.0171 Y 29.8648 Z -1.0000 I 1.4835 J -3.1800
G02 X 14.0470 Y 29.8773 Z -1.0000 I 0.2862 J -0.6478
G03 X 14.0713 Y 29.8910 Z -1.0000 I -0.0358 J 0.0916
G01 X 14.0724 Y 29.8969 Z -1.0000
G01 X 14.0660 Y 29.9003 Z -1.0000
G03 X 14.0448 Y 29.8962 Z -1.0000 I 0.0016 J -0.0644
G01 X 14.0362 Y 29.9040 Z -1.0000
G01 X 14.0524 Y 29.9234 Z -1.0000
G02 X 14.0930 Y 29.9418 Z -1.0000 I 0.3728 J -0.7698
G01 X 14.0988 Y 29.9429 Z -1.0000
G01 X 14.1044 Y 29.9443 Z -1.0000
G03 X 14.1496 Y 29.9694 Z -1.0000 I -0.4524 J 0.8692
G02 X 14.1955 Y 29.9935 Z -1.0000 I 0.2740 J -0.4647
G02 X 14.2202 Y 30.0023 Z -1.0000 I 0.0581 J -0.1244
G03 X 14.2422 Y 30.0115 Z -1.0000 I -0.0194 J 0.0774
G01 X 14.2458 Y 30.0179 Z -1.0000
G01 X 14.2485 Y 30.0244 Z -1.0000
G01 X 14.2551 Y 30.0271 Z -1.0000
G01 X 14.2806 Y 30.0380 Z -1.0000
G03 X 14.3002 Y 30.0746 Z -1.0000 I -0.0570 J 0.0541
G01 X 14.3053 Y 30.0860 Z -1.0000
G01 X 14.3119 Y 30.0909 Z -1.0000
G01 X 14.3182 Y 30.0957 Z -1.0000
G01 X 14.3205 Y 30.1027 Z -1.0000
G01 X 14.3089 Y 30.1099 Z -1.0000
G03 X 14.2716 Y 30.0785 Z -1.0000 I 0.0458 J -0.0926
G01 X 14.2662 Y 30.0809 Z -1.0000
G02 X 14.2790 Y 30.1091 Z -1.0000 I 0.0806 J -0.0194
G01 X 14.2815 Y 30.1236 Z -1.0000
G01 X 14.2733 Y 30.1299 Z -1.0000
G01 X 14.2605 Y 30.1350 Z -1.0000
G01 X 14.2585 Y 30.1441 Z -1.0000
G01 X 14.2556 Y 30.1550 Z -1.0000
G03 X 14.2071 Y 30.1858 Z -1.0000 I -0.1574 J -0.1940
G02 X 14.1510 Y 30.2146 Z -1.0000 I 0.6149 J 1.2694
G02 X 14.1391 Y 30.2226 Z -1.0000 I 0.0347 J 0.0641
G01 X 14.1266 Y 30.2282 Z -1.0000
G03 X 14.0350 Y 30.2379 Z -1.0000 I -0.1673 J -1.1350
G03 X 13.6899 Y 30.2056 Z -1.0000 I -0.0720 J -1.0895
G03 X 13.3343 Y 30.0570 Z -1.0000 I 0.3377 J -1.3078
G03 X 13.0229 Y 29.8312 Z -1.0000 I 1.1204 J -1.8731
G03 X 12.9143 Y 29.6919 Z -1.0000 I 0.3017 J -0.3471
G01 X 12.8957 Y 29.6745 Z -1.0000
G01 X 12.8888 Y 29.6810 Z -1.0000
G03 X 12.8954 Y 29.7097 Z -1.0000 I -0.1315 J 0.0457
G01 X 12.8939 Y 29.7226 Z -1.0000
G01 X 12.8934 Y 29.7339 Z -1.0000
G01 X 12.8994 Y 29.7418 Z -1.0000
G01 X 12.9035 Y 29.7494 Z -1.0000
G01 X 12.8994 Y 29.7609 Z -1.0000
G01 X 12.8945 Y 29.7741 Z -1.0000
G01 X 12.8991 Y 29.7925 Z -1.0000
G01 X 12.9034 Y 29.8115 Z -1.0000
G01 X 12.8974 Y 29.8311 Z -1.0000
G01 X 12.8949 Y 29.8491 Z -1.0000
G01 X 12.9079 Y 29.8690 Z -1.0000
G03 X 12.9244 Y 29.8876 Z -1.0000 I -0.0501 J 0.0612
G01 X 12.9237 Y 29.8938 Z -1.0000
G01 X 12.9178 Y 29.8948 Z -1.0000
G01 X 12.9089 Y 29.8868 Z -1.0000
G01 X 12.8999 Y 29.8788 Z -1.0000
G01 X 12.8940 Y 29.8798 Z -1.0000
G01 X 12.8933 Y 29.8862 Z -1.0000
G02 X 12.9099 Y 29.9060 Z -1.0000 I 0.0739 J -0.0451
G01 X 12.9210 Y 29.9200 Z -1.0000
G01 X 12.8949 Y 29.9293 Z -1.0000
G01 X 12.9000 Y 29.9668 Z -1.0000
G01 X 12.8986 Y 29.9728 Z -1.0000
G01 X 12.8820 Y 29.9744 Z -1.0000
G01 X 12.8585 Y 29.9755 Z -1.0000
G01 X 12.8528 Y 29.9830 Z -1.0000
G03 X 12.8514 Y 29.9972 Z -1.0000 I -0.0712 J -0.0000
G03 X 12.8465 Y 30.0138 Z -1.0000 I -0.0988 J -0.0200
G01 X 12.8469 Y 30.0221 Z -1.0000
G01 X 12.8512 Y 30.0233 Z -1.0000
G01 X 12.8580 Y 30.0272 Z -1.0000
G01 X 12.8509 Y 30.0439 Z -1.0000
G01 X 12.8463 Y 30.0551 Z -1.0000
G01 X 12.8509 Y 30.0663 Z -1.0000
G01 X 12.8549 Y 30.0824 Z -1.0000
G01 X 12.8442 Y 30.0880 Z -1.0000
G01 X 12.8280 Y 30.0870 Z -1.0000
G01 X 12.8201 Y 30.0925 Z -1.0000
G01 X 12.8121 Y 30.0979 Z -1.0000
G01 X 12.7959 Y 30.0969 Z -1.0000
G01 X 12.7826 Y 30.0975 Z -1.0000
G01 X 12.7780 Y 30.1045 Z -1.0000
G01 X 12.7836 Y 30.1122 Z -1.0000
G02 X 12.8177 Y 30.1172 Z -1.0000 I 0.0326 J -0.1017
G03 X 12.8524 Y 30.1264 Z -1.0000 I 0.0010 J 0.0664
G01 X 12.8621 Y 30.1434 Z -1.0000
G01 X 12.8570 Y 30.1482 Z -1.0000
G03 X 12.8339 Y 30.1411 Z -1.0000 I 0.0047 J -0.0562
G02 X 12.8070 Y 30.1313 Z -1.0000 I -0.0431 J 0.0763
G01 X 12.7988 Y 30.1345 Z -1.0000
G01 X 12.7907 Y 30.1416 Z -1.0000
G01 X 12.7803 Y 30.1448 Z -1.0000
G03 X 12.7687 Y 30.1457 Z -1.0000 I -0.3353 J -4.1744
G03 X 12.7501 Y 30.1471 Z -1.0000 I -0.7691 J -9.9214
G01 X 12.7239 Y 30.1699 Z -1.0000
G01 X 12.7354 Y 30.2134 Z -1.0000
G01 X 12.7441 Y 30.2298 Z -1.0000
G01 X 12.7411 Y 30.2370 Z -1.0000
G01 X 12.7331 Y 30.2372 Z -1.0000
G01 X 12.7254 Y 30.2283 Z -1.0000
G01 X 12.7182 Y 30.2239 Z -1.0000
G01 X 12.7071 Y 30.2301 Z -1.0000
G01 X 12.6992 Y 30.2531 Z -1.0000
G01 X 12.7067 Y 30.2607 Z -1.0000
G01 X 12.7182 Y 30.2638 Z -1.0000
G01 X 12.7312 Y 30.2747 Z -1.0000
G01 X 12.7280 Y 30.2828 Z -1.0000
G03 X 12.6998 Y 30.2783 Z -1.0000 I -0.0060 J -0.0532
G01 X 12.6782 Y 30.2762 Z -1.0000
G02 X 12.6549 Y 30.2890 Z -1.0000 I 0.0117 J 0.0489
G01 X 12.6439 Y 30.3041 Z -1.0000
G01 X 12.6550 Y 30.3012 Z -1.0000
G01 X 12.6704 Y 30.3041 Z -1.0000
G01 X 12.6766 Y 30.3112 Z -1.0000
G01 X 12.6736 Y 30.3188 Z -1.0000
G01 X 12.6693 Y 30.3267 Z -1.0000
G01 X 12.6728 Y 30.3323 Z -1.0000
G01 X 12.6819 Y 30.3388 Z -1.0000
G01 X 12.6845 Y 30.3458 Z -1.0000
G01 X 12.6811 Y 30.3484 Z -1.0000
G03 X 12.6611 Y 30.3393 Z -1.0000 I 0.0193 J -0.0691
G02 X 12.6414 Y 30.3308 Z -1.0000 I -0.0345 J 0.0527
G01 X 12.6378 Y 30.3337 Z -1.0000
G01 X 12.6367 Y 30.3431 Z -1.0000
G03 X 12.6321 Y 30.3581 Z -1.0000 I -0.1151 J -0.0271
G01 X 12.6330 Y 30.3684 Z -1.0000
G01 X 12.6411 Y 30.3729 Z -1.0000
G01 X 12.6744 Y 30.3900 Z -1.0000
G01 X 12.6723 Y 30.4162 Z -1.0000
G01 X 12.6680 Y 30.4168 Z -1.0000
G03 X 12.6520 Y 30.4045 Z -1.0000 I 0.0382 J -0.0664
G01 X 12.6370 Y 30.3973 Z -1.0000
G01 X 12.6279 Y 30.4016 Z -1.0000
G01 X 12.6264 Y 30.4130 Z -1.0000
G01 X 12.6342 Y 30.4227 Z -1.0000
G01 X 12.6380 Y 30.4313 Z -1.0000
G01 X 12.6291 Y 30.4445 Z -1.0000
G01 X 12.6178 Y 30.4601 Z -1.0000
G01 X 12.6194 Y 30.4765 Z -1.0000
G01 X 12.6307 Y 30.4896 Z -1.0000
G01 X 12.6375 Y 30.4899 Z -1.0000
G01 X 12.6447 Y 30.4890 Z -1.0000
G01 X 12.6520 Y 30.4949 Z -1.0000
G01 X 12.6474 Y 30.5031 Z -1.0000
G03 X 12.6166 Y 30.4945 Z -1.0000 I 0.0006 J -0.0619
G02 X 12.5870 Y 30.4843 Z -1.0000 I -0.0399 J 0.0676
G01 X 12.5783 Y 30.4895 Z -1.0000
G01 X 12.5806 Y 30.4985 Z -1.0000
G01 X 12.5948 Y 30.5038 Z -1.0000
G03 X 12.6148 Y 30.5078 Z -1.0000 I -0.0000 J 0.0520
G01 X 12.6284 Y 30.5178 Z -1.0000
G01 X 12.6262 Y 30.5245 Z -1.0000
G01 X 12.6100 Y 30.5227 Z -1.0000
G01 X 12.5943 Y 30.5205 Z -1.0000
G01 X 12.5803 Y 30.5291 Z -1.0000
G01 X 12.5781 Y 30.5385 Z -1.0000
G01 X 12.5876 Y 30.5381 Z -1.0000
G03 X 12.6061 Y 30.5521 Z -1.0000 I -0.0258 J 0.0534
G01 X 12.6070 Y 30.5588 Z -1.0000
G01 X 12.6019 Y 30.5605 Z -1.0000
G02 X 12.5806 Y 30.5526 Z -1.0000 I -0.0407 J 0.0776
G01 X 12.5748 Y 30.5543 Z -1.0000
G01 X 12.5699 Y 30.5549 Z -1.0000
G01 X 12.5581 Y 30.5440 Z -1.0000
G01 X 12.5476 Y 30.5402 Z -1.0000
G01 X 12.5354 Y 30.5496 Z -1.0000
G01 X 12.5321 Y 30.5689 Z -1.0000
G01 X 12.5403 Y 30.5826 Z -1.0000
G01 X 12.5490 Y 30.5941 Z -1.0000
G01 X 12.5468 Y 30.6004 Z -1.0000
G01 X 12.5380 Y 30.6013 Z -1.0000
G01 X 12.5256 Y 30.5925 Z -1.0000
G01 X 12.5067 Y 30.5840 Z -1.0000
G01 X 12.4976 Y 30.5934 Z -1.0000
G01 X 12.5021 Y 30.6049 Z -1.0000
G01 X 12.5162 Y 30.6132 Z -1.0000
G01 X 12.5288 Y 30.6204 Z -1.0000
G01 X 12.5296 Y 30.6265 Z -1.0000
G01 X 12.5233 Y 30.6307 Z -1.0000
G01 X 12.5146 Y 30.6289 Z -1.0000
G01 X 12.5060 Y 30.6280 Z -1.0000
G01 X 12.4973 Y 30.6352 Z -1.0000
G01 X 12.4885 Y 30.6401 Z -1.0000
G01 X 12.4749 Y 30.6352 Z -1.0000
G01 X 12.4674 Y 30.6378 Z -1.0000
G01 X 12.4714 Y 30.6515 Z -1.0000
G01 X 12.4729 Y 30.6586 Z -1.0000
G01 X 12.4667 Y 30.6627 Z -1.0000
G01 X 12.4544 Y 30.6662 Z -1.0000
G01 X 12.4509 Y 30.6726 Z -1.0000
G01 X 12.4477 Y 30.6768 Z -1.0000
G01 X 12.4402 Y 30.6759 Z -1.0000
G01 X 12.4353 Y 30.6777 Z -1.0000
G01 X 12.4345 Y 30.6954 Z -1.0000
G03 X 12.4278 Y 30.7730 Z -1.0000 I -0.1411 J 0.0270
G01 X 12.4044 Y 30.7753 Z -1.0000
G01 X 12.3877 Y 30.7706 Z -1.0000
G01 X 12.3761 Y 30.7894 Z -1.0000
G01 X 12.3729 Y 30.7997 Z -1.0000
G01 X 12.3670 Y 30.8029 Z -1.0000
G01 X 12.3627 Y 30.8062 Z -1.0000
G01 X 12.3633 Y 30.8169 Z -1.0000
G01 X 12.3712 Y 30.8274 Z -1.0000
G01 X 12.3817 Y 30.8309 Z -1.0000
G01 X 12.3917 Y 30.8340 Z -1.0000
G01 X 12.3947 Y 30.8396 Z -1.0000
G01 X 12.3910 Y 30.8434 Z -1.0000
G03 X 12.3676 Y 30.8405 Z -1.0000 I -0.0025 J -0.0760
G01 X 12.3475 Y 30.8451 Z -1.0000
G02 X 12.3300 Y 30.8739 Z -1.0000 I 0.0380 J 0.0428
G03 X 12.3154 Y 30.9096 Z -1.0000 I -0.1305 J -0.0327
G01 X 12.3058 Y 30.9151 Z -1.0000
G01 X 12.2949 Y 30.9240 Z -1.0000
G01 X 12.3013 Y 30.9384 Z -1.0000
G01 X 12.3055 Y 30.9526 Z -1.0000
G01 X 12.2878 Y 30.9672 Z -1.0000
G01 X 12.2649 Y 30.9729 Z -1.0000
G01 X 12.2901 Y 30.9946 Z -1.0000
G03 X 12.3091 Y 31.0166 Z -1.0000 I -0.0648 J 0.0752
G01 X 12.3084 Y 31.0233 Z -1.0000
G01 X 12.3013 Y 31.0248 Z -1.0000
G03 X 12.2826 Y 31.0132 Z -1.0000 I 0.0220 J -0.0565
G02 X 12.2639 Y 31.0012 Z -1.0000 I -0.0460 J 0.0509
G01 X 12.2576 Y 31.0024 Z -1.0000
G01 X 12.2574 Y 31.0061 Z -1.0000
G01 X 12.2623 Y 31.0086 Z -1.0000
G01 X 12.2698 Y 31.0119 Z -1.0000
G01 X 12.2729 Y 31.0202 Z -1.0000
G03 X 12.2543 Y 31.0662 Z -1.0000 I -0.0707 J -0.0019
G01 X 12.2274 Y 31.0699 Z -1.0000
G01 X 12.2195 Y 31.0687 Z -1.0000
G01 X 12.2126 Y 31.0738 Z -1.0000
G01 X 12.2121 Y 31.0804 Z -1.0000
G01 X 12.2166 Y 31.0833 Z -1.0000
G01 X 12.2235 Y 31.0862 Z -1.0000
G01 X 12.2265 Y 31.0933 Z -1.0000
G01 X 12.2227 Y 31.0981 Z -1.0000
G01 X 12.2081 Y 31.0975 Z -1.0000
G01 X 12.1943 Y 31.0999 Z -1.0000
G01 X 12.1834 Y 31.1168 Z -1.0000
G01 X 12.1954 Y 31.1552 Z -1.0000
G02 X 12.2522 Y 31.1766 Z -1.0000 I 0.0573 J -0.0660
G03 X 12.2790 Y 31.1804 Z -1.0000 I -0.0007 J 0.1021
G01 X 12.2826 Y 31.1851 Z -1.0000
G01 X 12.2999 Y 31.2138 Z -1.0000
G02 X 12.3545 Y 31.2227 Z -1.0000 I 0.0408 J -0.0780
G01 X 12.3620 Y 31.2229 Z -1.0000
G03 X 12.3838 Y 31.2285 Z -1.0000 I -0.0383 J 0.1940
G01 X 12.3950 Y 31.2368 Z -1.0000
G01 X 12.3937 Y 31.2429 Z -1.0000
G01 X 12.3816 Y 31.2459 Z -1.0000
G01 X 12.3641 Y 31.2408 Z -1.0000
G01 X 12.3547 Y 31.2446 Z -1.0000
G01 X 12.3578 Y 31.2593 Z -1.0000
G01 X 12.3667 Y 31.2753 Z -1.0000
G01 X 12.3634 Y 31.2796 Z -1.0000
G01 X 12.3455 Y 31.2933 Z -1.0000
G01 X 12.3532 Y 31.3175 Z -1.0000
G03 X 12.3641 Y 31.3299 Z -1.0000 I -0.0339 J 0.0408
G01 X 12.3667 Y 31.3387 Z -1.0000
G01 X 12.3637 Y 31.3415 Z -1.0000
G01 X 12.3555 Y 31.3376 Z -1.0000
G01 X 12.3430 Y 31.3295 Z -1.0000
G01 X 12.3263 Y 31.3264 Z -1.0000
G01 X 12.3192 Y 31.3315 Z -1.0000
G01 X 12.3210 Y 31.3416 Z -1.0000
G01 X 12.3194 Y 31.3483 Z -1.0000
G01 X 12.3011 Y 31.3500 Z -1.0000
G03 X 12.2697 Y 31.3405 Z -1.0000 I 0.0386 J -0.1834
G03 X 12.2405 Y 31.3256 Z -1.0000 I 0.0694 J -0.1721
G01 X 12.2402 Y 31.3188 Z -1.0000
G01 X 12.2523 Y 31.3164 Z -1.0000
G01 X 12.2759 Y 31.3162 Z -1.0000
G01 X 12.2826 Y 31.3070 Z -1.0000
G01 X 12.2861 Y 31.2925 Z -1.0000
G01 X 12.2919 Y 31.2890 Z -1.0000
G01 X 12.2985 Y 31.2917 Z -1.0000
G01 X 12.3012 Y 31.2983 Z -1.0000
G01 X 12.3139 Y 31.3079 Z -1.0000
G01 X 12.3318 Y 31.2897 Z -1.0000
G01 X 12.3301 Y 31.2789 Z -1.0000
G01 X 12.3235 Y 31.2767 Z -1.0000
G01 X 12.3140 Y 31.2766 Z -1.0000
G01 X 12.3105 Y 31.2713 Z -1.0000
G01 X 12.3072 Y 31.2643 Z -1.0000
G01 X 12.2976 Y 31.2610 Z -1.0000
G01 X 12.2862 Y 31.2579 Z -1.0000
G01 X 12.2731 Y 31.2469 Z -1.0000
G01 X 12.2684 Y 31.2362 Z -1.0000
G01 X 12.2712 Y 31.2329 Z -1.0000
G01 X 12.2790 Y 31.2356 Z -1.0000
G01 X 12.2844 Y 31.2432 Z -1.0000
G01 X 12.2906 Y 31.2489 Z -1.0000
G02 X 12.3108 Y 31.2500 Z -1.0000 I 0.0127 J -0.0494
G01 X 12.3140 Y 31.2434 Z -1.0000
G01 X 12.2993 Y 31.2295 Z -1.0000
G02 X 12.2586 Y 31.2258 Z -1.0000 I -0.0252 J 0.0514
G01 X 12.2482 Y 31.2439 Z -1.0000
G01 X 12.2461 Y 31.2556 Z -1.0000
G01 X 12.2374 Y 31.2590 Z -1.0000
G01 X 12.2254 Y 31.2530 Z -1.0000
G01 X 12.2217 Y 31.2449 Z -1.0000
G01 X 12.2186 Y 31.2353 Z -1.0000
G02 X 12.2035 Y 31.2204 Z -1.0000 I -0.0570 J 0.0424
G01 X 12.1832 Y 31.2156 Z -1.0000
G02 X 12.1430 Y 31.2307 Z -1.0000 I 0.0191 J 0.1125
G01 X 12.1570 Y 31.2477 Z -1.0000
G01 X 12.1602 Y 31.2551 Z -1.0000
G01 X 12.1563 Y 31.2580 Z -1.0000
G03 X 12.1378 Y 31.2530 Z -1.0000 I 0.0548 J -0.2375
G03 X 12.1213 Y 31.2470 Z -1.0000 I 0.0620 J -0.1968
G01 X 12.1085 Y 31.2456 Z -1.0000
G01 X 12.1049 Y 31.2500 Z -1.0000
G01 X 12.1083 Y 31.2572 Z -1.0000
G01 X 12.1236 Y 31.2656 Z -1.0000
G01 X 12.1407 Y 31.2839 Z -1.0000
G01 X 12.1329 Y 31.3030 Z -1.0000
G01 X 12.1272 Y 31.3023 Z -1.0000
G01 X 12.1236 Y 31.2931 Z -1.0000
G01 X 12.1189 Y 31.2873 Z -1.0000
G01 X 12.1087 Y 31.2897 Z -1.0000
G01 X 12.1025 Y 31.3018 Z -1.0000
G01 X 12.1071 Y 31.3119 Z -1.0000
G01 X 12.1176 Y 31.3236 Z -1.0000
G03 X 12.1261 Y 31.3440 Z -1.0000 I -0.0677 J 0.0400
G01 X 12.1216 Y 31.3488 Z -1.0000
G01 X 12.1045 Y 31.3400 Z -1.0000
G02 X 12.0772 Y 31.3202 Z -1.0000 I -0.0868 J 0.0906
G01 X 12.0700 Y 31.3213 Z -1.0000
G01 X 12.0688 Y 31.3275 Z -1.0000
G01 X 12.0746 Y 31.3331 Z -1.0000
G01 X 12.0830 Y 31.3396 Z -1.0000
G01 X 12.0862 Y 31.3498 Z -1.0000
G01 X 12.0830 Y 31.3601 Z -1.0000
G01 X 12.0746 Y 31.3669 Z -1.0000
G01 X 12.0839 Y 31.3724 Z -1.0000
G01 X 12.0984 Y 31.3825 Z -1.0000
G01 X 12.0932 Y 31.3950 Z -1.0000
G01 X 12.1065 Y 31.4004 Z -1.0000
G01 X 12.1287 Y 31.4067 Z -1.0000
G03 X 12.1509 Y 31.4258 Z -1.0000 I -0.0379 J 0.0663
G01 X 12.1703 Y 31.4381 Z -1.0000
G01 X 12.1673 Y 31.4269 Z -1.0000
G02 X 12.1520 Y 31.4063 Z -1.0000 I -0.0952 J 0.0546
G01 X 12.1438 Y 31.3755 Z -1.0000
G01 X 12.1609 Y 31.3684 Z -1.0000
G01 X 12.1648 Y 31.3755 Z -1.0000
G01 X 12.1607 Y 31.3826 Z -1.0000
G01 X 12.1544 Y 31.3909 Z -1.0000
G01 X 12.1556 Y 31.4001 Z -1.0000
G01 X 12.1706 Y 31.4070 Z -1.0000
G01 X 12.1797 Y 31.3965 Z -1.0000
G01 X 12.1831 Y 31.3858 Z -1.0000
G01 X 12.1896 Y 31.3825 Z -1.0000
G01 X 12.1943 Y 31.3796 Z -1.0000
G01 X 12.1941 Y 31.3738 Z -1.0000
G01 X 12.1930 Y 31.3661 Z -1.0000
G01 X 12.1982 Y 31.3592 Z -1.0000
G01 X 12.2047 Y 31.3587 Z -1.0000
G01 X 12.2077 Y 31.3632 Z -1.0000
G01 X 12.2114 Y 31.3695 Z -1.0000
G01 X 12.2258 Y 31.3731 Z -1.0000
G01 X 12.2422 Y 31.3762 Z -1.0000
G01 X 12.2497 Y 31.3825 Z -1.0000
G01 X 12.2568 Y 31.3895 Z -1.0000
G01 X 12.2654 Y 31.3918 Z -1.0000
G01 X 12.2685 Y 31.3886 Z -1.0000
G01 X 12.2647 Y 31.3789 Z -1.0000
G01 X 12.2616 Y 31.3680 Z -1.0000
G01 X 12.2675 Y 31.3608 Z -1.0000
G01 X 12.2784 Y 31.3612 Z -1.0000
G01 X 12.2864 Y 31.3698 Z -1.0000
G01 X 12.2857 Y 31.3993 Z -1.0000
G01 X 12.2685 Y 31.4105 Z -1.0000
G01 X 12.2520 Y 31.4206 Z -1.0000
G01 X 12.2559 Y 31.4348 Z -1.0000
G01 X 12.2596 Y 31.4344 Z -1.0000
G01 X 12.2600 Y 31.4307 Z -1.0000
G01 X 12.2592 Y 31.4232 Z -1.0000
G01 X 12.2640 Y 31.4199 Z -1.0000
G01 X 12.2705 Y 31.4225 Z -1.0000
G01 X 12.2713 Y 31.4269 Z -1.0000
G03 X 12.2678 Y 31.4339 Z -1.0000 I -1.2911 J -0.6355
G02 X 12.2547 Y 31.4603 Z -1.0000 I 16.4507 J 8.2089
G02 X 12.2485 Y 31.4846 Z -1.0000 I 0.0526 J 0.0263
G01 X 12.2536 Y 31.4941 Z -1.0000
G01 X 12.2544 Y 31.4998 Z -1.0000
G01 X 12.2414 Y 31.5076 Z -1.0000
G02 X 12.2204 Y 31.5163 Z -1.0000 I 0.0192 J 0.0765
G01 X 12.2171 Y 31.5220 Z -1.0000
G01 X 12.2138 Y 31.5260 Z -1.0000
G01 X 12.1984 Y 31.5254 Z -1.0000
G01 X 12.1871 Y 31.5322 Z -1.0000
G01 X 12.1937 Y 31.5448 Z -1.0000
G01 X 12.2050 Y 31.5520 Z -1.0000
G01 X 12.2077 Y 31.5585 Z -1.0000
G01 X 12.1941 Y 31.5701 Z -1.0000
G03 X 12.1444 Y 31.5482 Z -1.0000 I 0.0174 J -0.1068
G01 X 12.1351 Y 31.5513 Z -1.0000
G02 X 12.1360 Y 31.5813 Z -1.0000 I 0.0534 J 0.0135
G02 X 12.1510 Y 31.6124 Z -1.0000 I 0.1116 J -0.0347
G01 X 12.1633 Y 31.6216 Z -1.0000
G01 X 12.1692 Y 31.6316 Z -1.0000
G01 X 12.1599 Y 31.6373 Z -1.0000
G01 X 12.1493 Y 31.6408 Z -1.0000
G01 X 12.1470 Y 31.6536 Z -1.0000
G01 X 12.1456 Y 31.6664 Z -1.0000
G01 X 12.1380 Y 31.6690 Z -1.0000
G02 X 12.1219 Y 31.6640 Z -1.0000 I -0.0468 J 0.1216
G01 X 12.1130 Y 31.6629 Z -1.0000
G01 X 12.1090 Y 31.6601 Z -1.0000
G01 X 12.1096 Y 31.6536 Z -1.0000
G01 X 12.1039 Y 31.6441 Z -1.0000
G01 X 12.0787 Y 31.6554 Z -1.0000
G01 X 12.0758 Y 31.6696 Z -1.0000
G01 X 12.0863 Y 31.6749 Z -1.0000
G01 X 12.0975 Y 31.6769 Z -1.0000
G01 X 12.0997 Y 31.6842 Z -1.0000
G01 X 12.1073 Y 31.7026 Z -1.0000
G01 X 12.1284 Y 31.6971 Z -1.0000
G03 X 12.1409 Y 31.6840 Z -1.0000 I 0.0559 J 0.0408
G01 X 12.1475 Y 31.6816 Z -1.0000
G01 X 12.1449 Y 31.6921 Z -1.0000
G01 X 12.1382 Y 31.7034 Z -1.0000
G01 X 12.1386 Y 31.7135 Z -1.0000
G01 X 12.1275 Y 31.7306 Z -1.0000
G03 X 12.0894 Y 31.7160 Z -1.0000 I -0.0026 J -0.0501
G01 X 12.0614 Y 31.7055 Z -1.0000
G01 X 12.0489 Y 31.7190 Z -1.0000
G01 X 12.0522 Y 31.7250 Z -1.0000
G01 X 12.0639 Y 31.7284 Z -1.0000
G01 X 12.0725 Y 31.7327 Z -1.0000
G01 X 12.0738 Y 31.7418 Z -1.0000
G01 X 12.0735 Y 31.7532 Z -1.0000
G01 X 12.0798 Y 31.7602 Z -1.0000
G01 X 12.0536 Y 31.7594 Z -1.0000
G03 X 12.0185 Y 31.7509 Z -1.0000 I 0.0312 J -0.2043
G01 X 12.0130 Y 31.7457 Z -1.0000
G01 X 12.0081 Y 31.7404 Z -1.0000
G01 X 11.9961 Y 31.7377 Z -1.0000
G01 X 11.9891 Y 31.7415 Z -1.0000
G01 X 11.9889 Y 31.7484 Z -1.0000
G01 X 11.9870 Y 31.7532 Z -1.0000
G01 X 11.9686 Y 31.7540 Z -1.0000
G01 X 11.9594 Y 31.7565 Z -1.0000
G01 X 11.9596 Y 31.7620 Z -1.0000
G02 X 11.9787 Y 31.7718 Z -1.0000 I 0.0415 J -0.0569
G02 X 11.9986 Y 31.7751 Z -1.0000 I 0.0199 J -0.0592
G03 X 12.0177 Y 31.7787 Z -1.0000 I -0.0000 J 0.0519
G01 X 12.0264 Y 31.7860 Z -1.0000
G01 X 12.0256 Y 31.7906 Z -1.0000
G01 X 12.0191 Y 31.7916 Z -1.0000
G01 X 12.0055 Y 31.7898 Z -1.0000
G01 X 11.9919 Y 31.7945 Z -1.0000
G01 X 11.9892 Y 31.8030 Z -1.0000
G01 X 11.9956 Y 31.8072 Z -1.0000
G01 X 11.9997 Y 31.8269 Z -1.0000
G01 X 11.9938 Y 31.8373 Z -1.0000
G01 X 11.9838 Y 31.8362 Z -1.0000
G02 X 11.9483 Y 31.8200 Z -1.0000 I -0.0434 J 0.0479
G01 X 11.9366 Y 31.8304 Z -1.0000
G01 X 11.9398 Y 31.8369 Z -1.0000
G02 X 11.9644 Y 31.8512 Z -1.0000 I 0.0752 J -0.1001
G03 X 11.9853 Y 31.8676 Z -1.0000 I -0.0220 J 0.0496
G01 X 11.9904 Y 31.8847 Z -1.0000
G01 X 11.9784 Y 31.8975 Z -1.0000
G01 X 11.9580 Y 31.8896 Z -1.0000
G01 X 11.9501 Y 31.8843 Z -1.0000
G01 X 11.9513 Y 31.8941 Z -1.0000
G01 X 11.9465 Y 31.9009 Z -1.0000
G01 X 11.9416 Y 31.9080 Z -1.0000
G01 X 11.9427 Y 31.9205 Z -1.0000
G01 X 11.9397 Y 31.9260 Z -1.0000
G01 X 11.9230 Y 31.9248 Z -1.0000
G02 X 11.8975 Y 31.9173 Z -1.0000 I -0.0609 J 0.1599
G02 X 11.8780 Y 31.9153 Z -1.0000 I -0.0195 J 0.0921
G01 X 11.8726 Y 31.9201 Z -1.0000
G01 X 11.8763 Y 31.9287 Z -1.0000
G01 X 11.8828 Y 31.9405 Z -1.0000
G01 X 11.8775 Y 31.9486 Z -1.0000
G01 X 11.8616 Y 31.9504 Z -1.0000
G01 X 11.8500 Y 31.9446 Z -1.0000
G01 X 11.8312 Y 31.9353 Z -1.0000
G01 X 11.8244 Y 31.9413 Z -1.0000
G01 X 11.8273 Y 31.9466 Z -1.0000
G02 X 11.8531 Y 31.9594 Z -1.0000 I 0.0762 J -0.1207
G02 X 11.8975 Y 31.9644 Z -1.0000 I 0.0319 J -0.0845
G01 X 11.9085 Y 31.9517 Z -1.0000
G01 X 11.9197 Y 31.9427 Z -1.0000
G01 X 11.9471 Y 31.9597 Z -1.0000
G01 X 11.9444 Y 31.9639 Z -1.0000
G01 X 11.9276 Y 31.9646 Z -1.0000
G01 X 11.9231 Y 31.9835 Z -1.0000
G01 X 11.9193 Y 31.9884 Z -1.0000
G03 X 11.8694 Y 31.9765 Z -1.0000 I 0.0320 J -0.2428
G03 X 11.8107 Y 31.9548 Z -1.0000 I 0.8665 J -2.4442
G03 X 11.7742 Y 31.9401 Z -1.0000 I 0.3663 J -0.9589
G02 X 11.7477 Y 31.9362 Z -1.0000 I -0.0207 J 0.0485
G01 X 11.7449 Y 31.9433 Z -1.0000
G02 X 11.7633 Y 31.9588 Z -1.0000 I 0.0659 J -0.0596
G01 X 11.7744 Y 31.9620 Z -1.0000
G01 X 11.7830 Y 31.9660 Z -1.0000
G01 X 11.7870 Y 31.9772 Z -1.0000
G01 X 11.7920 Y 31.9858 Z -1.0000
G01 X 11.8050 Y 31.9876 Z -1.0000
G01 X 11.8157 Y 31.9894 Z -1.0000
G01 X 11.8178 Y 31.9963 Z -1.0000
G01 X 11.7917 Y 32.0120 Z -1.0000
G01 X 11.7730 Y 31.9909 Z -1.0000
G01 X 11.7696 Y 31.9801 Z -1.0000
G01 X 11.7610 Y 31.9736 Z -1.0000
G01 X 11.7539 Y 31.9751 Z -1.0000
G01 X 11.7517 Y 31.9819 Z -1.0000
G01 X 11.7479 Y 31.9884 Z -1.0000
G03 X 11.7221 Y 31.9912 Z -1.0000 I -0.0198 J -0.0632
G01 X 11.7035 Y 31.9955 Z -1.0000
G01 X 11.7022 Y 32.0032 Z -1.0000
G01 X 11.7064 Y 32.0184 Z -1.0000
G01 X 11.7164 Y 32.0324 Z -1.0000
G01 X 11.7156 Y 32.0415 Z -1.0000
G01 X 11.6899 Y 32.0464 Z -1.0000
G01 X 11.6794 Y 32.0500 Z -1.0000
G01 X 11.6775 Y 32.0583 Z -1.0000
G01 X 11.6754 Y 32.0654 Z -1.0000
G01 X 11.6648 Y 32.0674 Z -1.0000
G01 X 11.6507 Y 32.0678 Z -1.0000
G01 X 11.6468 Y 32.0731 Z -1.0000
G01 X 11.6497 Y 32.0807 Z -1.0000
G01 X 11.6561 Y 32.0836 Z -1.0000
G01 X 11.6622 Y 32.0868 Z -1.0000
G01 X 11.6654 Y 32.0976 Z -1.0000
G01 X 11.6564 Y 32.1076 Z -1.0000
G01 X 11.6436 Y 32.0999 Z -1.0000
G01 X 11.6381 Y 32.1038 Z -1.0000
G01 X 11.6410 Y 32.1170 Z -1.0000
G01 X 11.6490 Y 32.1241 Z -1.0000
G01 X 11.6455 Y 32.1296 Z -1.0000
G01 X 11.6318 Y 32.1334 Z -1.0000
G01 X 11.6192 Y 32.1437 Z -1.0000
G01 X 11.6181 Y 32.1552 Z -1.0000
G01 X 11.6344 Y 32.1714 Z -1.0000
G01 X 11.6485 Y 32.1860 Z -1.0000
G01 X 11.6423 Y 32.1896 Z -1.0000
G01 X 11.6423 Y 32.1961 Z -1.0000
G01 X 11.6388 Y 32.2017 Z -1.0000
G03 X 11.5825 Y 32.1901 Z -1.0000 I 0.0279 J -0.2792
G01 X 11.5760 Y 32.1928 Z -1.0000
G01 X 11.5746 Y 32.2048 Z -1.0000
G01 X 11.5675 Y 32.2441 Z -1.0000
G03 X 11.5250 Y 32.2752 Z -1.0000 I -0.0674 J -0.0475
G01 X 11.5134 Y 32.2857 Z -1.0000
G02 X 11.5089 Y 32.3120 Z -1.0000 I 0.0507 J 0.0222
G01 X 11.5165 Y 32.3347 Z -1.0000
G01 X 11.5252 Y 32.3377 Z -1.0000
G01 X 11.5290 Y 32.3398 Z -1.0000
G01 X 11.5271 Y 32.3474 Z -1.0000
G01 X 11.5299 Y 32.3623 Z -1.0000
G01 X 11.5568 Y 32.3644 Z -1.0000
G03 X 11.5790 Y 32.3603 Z -1.0000 I 0.0223 J 0.0587
G01 X 11.5862 Y 32.3643 Z -1.0000
G01 X 11.5856 Y 32.3699 Z -1.0000
G01 X 11.5772 Y 32.3733 Z -1.0000
G01 X 11.5660 Y 32.3766 Z -1.0000
G01 X 11.5627 Y 32.3827 Z -1.0000
G01 X 11.5666 Y 32.3881 Z -1.0000
G02 X 11.5910 Y 32.3920 Z -1.0000 I 0.0244 J -0.0740
G03 X 11.6159 Y 32.3970 Z -1.0000 I 0.0000 J 0.0649
G01 X 11.6247 Y 32.4061 Z -1.0000
G01 X 11.6326 Y 32.4165 Z -1.0000
G01 X 11.6431 Y 32.4201 Z -1.0000
G01 X 11.6530 Y 32.4233 Z -1.0000
G01 X 11.6561 Y 32.4294 Z -1.0000
G01 X 11.6489 Y 32.4362 Z -1.0000
G01 X 11.6301 Y 32.4277 Z -1.0000
G01 X 11.6191 Y 32.4216 Z -1.0000
G01 X 11.6122 Y 32.4236 Z -1.0000
G01 X 11.6109 Y 32.4299 Z -1.0000
G01 X 11.6191 Y 32.4399 Z -1.0000
G01 X 11.6118 Y 32.4434 Z -1.0000
G01 X 11.5947 Y 32.4427 Z -1.0000
G01 X 11.5907 Y 32.4475 Z -1.0000
G01 X 11.5936 Y 32.4546 Z -1.0000
G01 X 11.6003 Y 32.4575 Z -1.0000
G01 X 11.6271 Y 32.4734 Z -1.0000
G01 X 11.6242 Y 32.5015 Z -1.0000
G01 X 11.5804 Y 32.4909 Z -1.0000
G02 X 11.5128 Y 32.4929 Z -1.0000 I -0.0308 J 0.1022
G02 X 11.4575 Y 32.5361 Z -1.0000 I 0.0396 J 0.1076
G03 X 11.4340 Y 32.5627 Z -1.0000 I -0.1165 J -0.0791
G01 X 11.4273 Y 32.5626 Z -1.0000
G01 X 11.4316 Y 32.5781 Z -1.0000
G01 X 11.4329 Y 32.5913 Z -1.0000
G01 X 11.4269 Y 32.5942 Z -1.0000
G01 X 11.4219 Y 32.5961 Z -1.0000
G01 X 11.4226 Y 32.6026 Z -1.0000
G01 X 11.4306 Y 32.6187 Z -1.0000
G03 X 11.4336 Y 32.6492 Z -1.0000 I -0.1114 J 0.0262
G02 X 11.4361 Y 32.6791 Z -1.0000 I 0.1254 J 0.0047
G01 X 11.4413 Y 32.6866 Z -1.0000
G01 X 11.4427 Y 32.6930 Z -1.0000
G03 X 11.4137 Y 32.7291 Z -1.0000 I -0.1902 J -0.1236
G03 X 11.3499 Y 32.7621 Z -1.0000 I -0.0831 J -0.0823
G03 X 11.2810 Y 32.7513 Z -1.0000 I -0.0183 J -0.1088
G03 X 11.2359 Y 32.7075 Z -1.0000 I 0.0500 J -0.0966
G03 X 11.2170 Y 32.6359 Z -1.0000 I 0.1316 J -0.0730
G01 X 11.2115 Y 32.6349 Z -1.0000
G02 X 11.2025 Y 32.6735 Z -1.0000 I 0.1332 J 0.0514
G03 X 11.1889 Y 32.7602 Z -1.0000 I -0.6660 J -0.0595
G01 X 11.1817 Y 32.7660 Z -1.0000
G01 X 11.1731 Y 32.7690 Z -1.0000
G01 X 11.1700 Y 32.7753 Z -1.0000
G01 X 11.1726 Y 32.7821 Z -1.0000
G01 X 11.1783 Y 32.7847 Z -1.0000
G01 X 11.1837 Y 32.7875 Z -1.0000
G01 X 11.1862 Y 32.7963 Z -1.0000
G02 X 11.1909 Y 32.8333 Z -1.0000 I 0.1150 J 0.0042
G01 X 11.1981 Y 32.8361 Z -1.0000
G01 X 11.2043 Y 32.8358 Z -1.0000
G01 X 11.2074 Y 32.8408 Z -1.0000
G01 X 11.2034 Y 32.8459 Z -1.0000
G01 X 11.1887 Y 32.8454 Z -1.0000
G01 X 11.1795 Y 32.8529 Z -1.0000
G01 X 11.1910 Y 32.8680 Z -1.0000
G03 X 11.2107 Y 32.8783 Z -1.0000 I -0.0345 J 0.0899
G03 X 11.2367 Y 32.8991 Z -1.0000 I -0.1226 J 0.1802
G01 X 11.2614 Y 32.9221 Z -1.0000
G01 X 11.2741 Y 32.8953 Z -1.0000
G01 X 11.2812 Y 32.8951 Z -1.0000
G03 X 11.2880 Y 32.9204 Z -1.0000 I -0.0477 J 0.0266
G03 X 11.2832 Y 32.9545 Z -1.0000 I -0.1050 J 0.0026
G01 X 11.2770 Y 32.9555 Z -1.0000
G01 X 11.2704 Y 32.9560 Z -1.0000
G01 X 11.2652 Y 32.9772 Z -1.0000
G03 X 11.2499 Y 33.0373 Z -1.0000 I -0.1201 J 0.0014
G03 X 11.2134 Y 33.0698 Z -1.0000 I -0.0654 J -0.0366
G03 X 11.0938 Y 33.0479 Z -1.0000 I -0.0430 J -0.1028
G03 X 11.0534 Y 32.9182 Z -1.0000 I 0.0955 J -0.1008
G01 X 11.0483 Y 32.9089 Z -1.0000
G02 X 11.0413 Y 32.9267 Z -1.0000 I 0.0433 J 0.0273
G02 X 11.0361 Y 32.9743 Z -1.0000 I 0.3099 J 0.0584
G03 X 11.0290 Y 33.0209 Z -1.0000 I -0.2053 J -0.0072
G03 X 11.0179 Y 33.0413 Z -1.0000 I -0.0483 J -0.0131
G01 X 11.0112 Y 33.0670 Z -1.0000
G01 X 11.0269 Y 33.0801 Z -1.0000
G03 X 11.0457 Y 33.0822 Z -1.0000 I -0.0090 J 0.1709
G03 X 11.0705 Y 33.0873 Z -1.0000 I -0.0496 J 0.3014
G02 X 11.0911 Y 33.0882 Z -1.0000 I 0.0125 J -0.0500
G01 X 11.0952 Y 33.0834 Z -1.0000
G01 X 11.0984 Y 33.0790 Z -1.0000
G01 X 11.1056 Y 33.0797 Z -1.0000
G01 X 11.1085 Y 33.0862 Z -1.0000
G01 X 11.1033 Y 33.0942 Z -1.0000
G01 X 11.1000 Y 33.1025 Z -1.0000
G01 X 11.0964 Y 33.1110 Z -1.0000
G01 X 11.0945 Y 33.1188 Z -1.0000
G01 X 11.1091 Y 33.1327 Z -1.0000
G01 X 11.1347 Y 33.1461 Z -1.0000
G01 X 11.1014 Y 33.1620 Z -1.0000
G01 X 11.0776 Y 33.1880 Z -1.0000
G01 X 11.0839 Y 33.2093 Z -1.0000
G01 X 11.0990 Y 33.2155 Z -1.0000
G01 X 11.1019 Y 33.2117 Z -1.0000
G01 X 11.1022 Y 33.2003 Z -1.0000
G01 X 11.1088 Y 33.1960 Z -1.0000
G01 X 11.1197 Y 33.1931 Z -1.0000
G01 X 11.1249 Y 33.1866 Z -1.0000
G01 X 11.1280 Y 33.2286 Z -1.0000
G03 X 11.1245 Y 33.2765 Z -1.0000 I -0.3289 J 0.0000
G01 X 11.1204 Y 33.2801 Z -1.0000
G01 X 11.1163 Y 33.2831 Z -1.0000
G01 X 11.1152 Y 33.2965 Z -1.0000
G03 X 11.0939 Y 33.3618 Z -1.0000 I -0.0768 J 0.0112
G03 X 11.0216 Y 33.3922 Z -1.0000 I -0.0722 J -0.0706
G03 X 10.9589 Y 33.3728 Z -1.0000 I 0.0001 J -0.1110
G03 X 10.9096 Y 33.3155 Z -1.0000 I 0.0833 J -0.1215
G03 X 10.8929 Y 33.2563 Z -1.0000 I 0.1590 J -0.0770
G03 X 10.8990 Y 33.2101 Z -1.0000 I 0.1008 J -0.0102
G01 X 10.8933 Y 33.2052 Z -1.0000
G01 X 10.8770 Y 33.2223 Z -1.0000
G02 X 10.8638 Y 33.2848 Z -1.0000 I 0.1149 J 0.0570
G02 X 10.8818 Y 33.3347 Z -1.0000 I 0.0884 J -0.0038
G01 X 10.8700 Y 33.3292 Z -1.0000
G02 X 10.8457 Y 33.3097 Z -1.0000 I -0.2061 J 0.2322
G01 X 10.8409 Y 33.3081 Z -1.0000
G01 X 10.8292 Y 33.3231 Z -1.0000
G02 X 10.8661 Y 33.4073 Z -1.0000 I 0.2713 J -0.0687
G02 X 10.9397 Y 33.4722 Z -1.0000 I 0.1539 J -0.1003
G01 X 10.9719 Y 33.4587 Z -1.0000
G01 X 10.9775 Y 33.4515 Z -1.0000
G01 X 10.9884 Y 33.4484 Z -1.0000
G01 X 10.9926 Y 33.4534 Z -1.0000
G03 X 10.9830 Y 33.4787 Z -1.0000 I -0.0724 J -0.0129
G02 X 10.9652 Y 33.5332 Z -1.0000 I 0.1064 J 0.0649
G02 X 10.9743 Y 33.5822 Z -1.0000 I 0.0940 J 0.0079
G01 X 10.9695 Y 33.5843 Z -1.0000
G01 X 10.9632 Y 33.5854 Z -1.0000
G01 X 10.9607 Y 33.6087 Z -1.0000
G03 X 10.9605 Y 33.6500 Z -1.0000 I -0.1431 J 0.0198
G03 X 10.9508 Y 33.6754 Z -1.0000 I -0.0629 J -0.0094
G03 X 10.9090 Y 33.7121 Z -1.0000 I -0.0871 J -0.0570
G03 X 10.8683 Y 33.7152 Z -1.0000 I -0.0243 J -0.0504
G02 X 10.8568 Y 33.7120 Z -1.0000 I -0.0640 J 0.2101
G02 X 10.8313 Y 33.7061 Z -1.0000 I -0.2440 J 0.9913
G03 X 10.7705 Y 33.6739 Z -1.0000 I 0.0275 J -0.1255
G03 X 10.7301 Y 33.6103 Z -1.0000 I 0.1058 J -0.1118
G03 X 10.7250 Y 33.5769 Z -1.0000 I 0.0975 J -0.0321
G03 X 10.7310 Y 33.5407 Z -1.0000 I 0.1211 J 0.0016
G03 X 10.7454 Y 33.5077 Z -1.0000 I 0.1901 J 0.0630
G01 X 10.7509 Y 33.5045 Z -1.0000
G01 X 10.7559 Y 33.5017 Z -1.0000
G01 X 10.7585 Y 33.4928 Z -1.0000
G01 X 10.7354 Y 33.4848 Z -1.0000
G02 X 10.7119 Y 33.5494 Z -1.0000 I 0.0796 J 0.0655
G01 X 10.7085 Y 33.5538 Z -1.0000
G01 X 10.7032 Y 33.5517 Z -1.0000
G01 X 10.7000 Y 33.5779 Z -1.0000
G03 X 10.6948 Y 33.6401 Z -1.0000 I -0.1435 J 0.0194
G03 X 10.6700 Y 33.6749 Z -1.0000 I -0.0651 J -0.0202
G01 X 10.6713 Y 33.6815 Z -1.0000
G02 X 10.7040 Y 33.6835 Z -1.0000 I 0.0215 J -0.0853
G01 X 10.7082 Y 33.6855 Z -1.0000
G03 X 10.7146 Y 33.7002 Z -1.0000 I -0.0434 J 0.0276
G01 X 10.7104 Y 33.7082 Z -1.0000
G01 X 10.6918 Y 33.7082 Z -1.0000
G01 X 10.6672 Y 33.7124 Z -1.0000
G01 X 10.6642 Y 33.7305 Z -1.0000
G01 X 10.6692 Y 33.7484 Z -1.0000
G01 X 10.6638 Y 33.7580 Z -1.0000
G01 X 10.6624 Y 33.7661 Z -1.0000
G01 X 10.6722 Y 33.7638 Z -1.0000
G01 X 10.6788 Y 33.7577 Z -1.0000
G01 X 10.7045 Y 33.7483 Z -1.0000
G01 X 10.7214 Y 33.7717 Z -1.0000
G01 X 10.7255 Y 33.7784 Z -1.0000
G01 X 10.7354 Y 33.7789 Z -1.0000
G01 X 10.7458 Y 33.7788 Z -1.0000
G01 X 10.7494 Y 33.7839 Z -1.0000
G01 X 10.7464 Y 33.7911 Z -1.0000
G01 X 10.7387 Y 33.7942 Z -1.0000
G01 X 10.7457 Y 33.8107 Z -1.0000
G03 X 10.7621 Y 33.8283 Z -1.0000 I -0.1105 J 0.1194
G03 X 10.7738 Y 33.8458 Z -1.0000 I -0.0989 J 0.0794
G02 X 10.7862 Y 33.8609 Z -1.0000 I 0.0480 J -0.0268
G01 X 10.7957 Y 33.8644 Z -1.0000
G01 X 10.8043 Y 33.8685 Z -1.0000
G03 X 10.8199 Y 33.8947 Z -1.0000 I -0.0868 J 0.0693
G03 X 10.8271 Y 33.9214 Z -1.0000 I -0.0956 J 0.0400
G01 X 10.8238 Y 33.9251 Z -1.0000
G01 X 10.8185 Y 33.9288 Z -1.0000
G02 X 10.8149 Y 33.9492 Z -1.0000 I 0.0553 J 0.0204
G03 X 10.7904 Y 34.0035 Z -1.0000 I -0.0725 J 0.0000
G03 X 10.7259 Y 34.0279 Z -1.0000 I -0.0646 J -0.0730
G03 X 10.6115 Y 33.9883 Z -1.0000 I 0.0000 J -0.1849
G03 X 10.5719 Y 33.9066 Z -1.0000 I 0.0643 J -0.0817
G02 X 10.5684 Y 33.8814 Z -1.0000 I -0.0927 J 0.0000
G01 X 10.5626 Y 33.8737 Z -1.0000
G01 X 10.5574 Y 33.8756 Z -1.0000
G02 X 10.5533 Y 33.9012 Z -1.0000 I 0.0764 J 0.0256
G03 X 10.5492 Y 33.9305 Z -1.0000 I -0.1085 J 0.0000
G01 X 10.5440 Y 33.9345 Z -1.0000
G01 X 10.5374 Y 33.9372 Z -1.0000
G01 X 10.5347 Y 33.9438 Z -1.0000
G01 X 10.5374 Y 33.9505 Z -1.0000
G01 X 10.5439 Y 33.9532 Z -1.0000
G03 X 10.5781 Y 33.9658 Z -1.0000 I -0.0000 J 0.0527
G01 X 10.5907 Y 33.9932 Z -1.0000
G01 X 10.5881 Y 33.9964 Z -1.0000
G01 X 10.5814 Y 33.9952 Z -1.0000
G01 X 10.5749 Y 33.9945 Z -1.0000
G01 X 10.5721 Y 33.9983 Z -1.0000
G01 X 10.5748 Y 34.0053 Z -1.0000
G01 X 10.5851 Y 34.0122 Z -1.0000
G01 X 10.5956 Y 34.0199 Z -1.0000
G03 X 10.6127 Y 34.0466 Z -1.0000 I -0.1142 J 0.0922
G01 X 10.6172 Y 34.0681 Z -1.0000
G01 X 10.6114 Y 34.0726 Z -1.0000
G01 X 10.6006 Y 34.0658 Z -1.0000
G01 X 10.5979 Y 34.0546 Z -1.0000
G01 X 10.5877 Y 34.0285 Z -1.0000
G01 X 10.5588 Y 34.0243 Z -1.0000
G01 X 10.5540 Y 34.0329 Z -1.0000
G01 X 10.5646 Y 34.0538 Z -1.0000
G02 X 10.5875 Y 34.0755 Z -1.0000 I 0.1686 J -0.1552
G02 X 10.6142 Y 34.0946 Z -1.0000 I 0.1566 J -0.1902
G01 X 10.6267 Y 34.1120 Z -1.0000
G01 X 10.6179 Y 34.1172 Z -1.0000
G01 X 10.6161 Y 34.1308 Z -1.0000
G02 X 10.6231 Y 34.1467 Z -1.0000 I 0.0537 J -0.0141
G01 X 10.6282 Y 34.1495 Z -1.0000
G01 X 10.6332 Y 34.1522 Z -1.0000
G03 X 10.6417 Y 34.1705 Z -1.0000 I -0.0604 J 0.0389
G01 X 10.6488 Y 34.1768 Z -1.0000
G01 X 10.6561 Y 34.1728 Z -1.0000
G01 X 10.6613 Y 34.1697 Z -1.0000
G01 X 10.6649 Y 34.1734 Z -1.0000
G02 X 10.6686 Y 34.1915 Z -1.0000 I 0.0561 J -0.0019
G02 X 10.6793 Y 34.2108 Z -1.0000 I 0.0727 J -0.0278
G01 X 10.6832 Y 34.2363 Z -1.0000
G03 X 10.6529 Y 34.2852 Z -1.0000 I -0.1271 J -0.0452
G03 X 10.6083 Y 34.3180 Z -1.0000 I -0.1214 J -0.1180
G03 X 10.5706 Y 34.3271 Z -1.0000 I -0.0377 J -0.0741
G03 X 10.5308 Y 34.3209 Z -1.0000 I 0.0000 J -0.1311
G03 X 10.4874 Y 34.3006 Z -1.0000 I 0.0563 J -0.1769
G03 X 10.4377 Y 34.2577 Z -1.0000 I 0.1214 J -0.1907
G03 X 10.4174 Y 34.2196 Z -1.0000 I 0.0738 J -0.0638
G01 X 10.4108 Y 34.2115 Z -1.0000
G01 X 10.4060 Y 34.2140 Z -1.0000
G02 X 10.4109 Y 34.2543 Z -1.0000 I 0.0704 J 0.0119
G02 X 10.4435 Y 34.3001 Z -1.0000 I 0.1246 J -0.0542
G01 X 10.4478 Y 34.3134 Z -1.0000
G01 X 10.4400 Y 34.3171 Z -1.0000
G01 X 10.4162 Y 34.3183 Z -1.0000
G01 X 10.4042 Y 34.3411 Z -1.0000
G01 X 10.4142 Y 34.3336 Z -1.0000
G01 X 10.4255 Y 34.3249 Z -1.0000
G01 X 10.4369 Y 34.3273 Z -1.0000
G01 X 10.4505 Y 34.3334 Z -1.0000
G01 X 10.4686 Y 34.3319 Z -1.0000
G01 X 10.4871 Y 34.3300 Z -1.0000
G01 X 10.5041 Y 34.3356 Z -1.0000
G01 X 10.5081 Y 34.3419 Z -1.0000
G01 X 10.5049 Y 34.3455 Z -1.0000
G01 X 10.4835 Y 34.3575 Z -1.0000
G01 X 10.4872 Y 34.3734 Z -1.0000
G01 X 10.4942 Y 34.3826 Z -1.0000
G03 X 10.5017 Y 34.4230 Z -1.0000 I -0.1933 J 0.0568
G02 X 10.5084 Y 34.4648 Z -1.0000 I 0.2715 J -0.0219
G02 X 10.5172 Y 34.4876 Z -1.0000 I 0.0883 J -0.0213
G03 X 10.5441 Y 34.5789 Z -1.0000 I -0.1919 J 0.1061
G01 X 10.5244 Y 34.5953 Z -1.0000
G01 X 10.5184 Y 34.5966 Z -1.0000
G02 X 10.5044 Y 34.6108 Z -1.0000 I 0.0448 J 0.0582
G03 X 10.4562 Y 34.6378 Z -1.0000 I -0.0544 J -0.0406
G03 X 10.3774 Y 34.6224 Z -1.0000 I -0.0130 J -0.1425
G03 X 10.2958 Y 34.5651 Z -1.0000 I 0.1700 J -0.3288
G01 X 10.2821 Y 34.5341 Z -1.0000
G02 X 10.2798 Y 34.5193 Z -1.0000 I -0.0513 J 0.0005
G02 X 10.2730 Y 34.5047 Z -1.0000 I -0.0585 J 0.0182
G01 X 10.2697 Y 34.5281 Z -1.0000
G02 X 10.2804 Y 34.5630 Z -1.0000 I 0.1221 J -0.0181
G02 X 10.3008 Y 34.5935 Z -1.0000 I 0.1134 J -0.0540
G03 X 10.3242 Y 34.6228 Z -1.0000 I -0.2140 J 0.1945
G03 X 10.3325 Y 34.6390 Z -1.0000 I -0.0554 J 0.0385
G01 X 10.3420 Y 34.6499 Z -1.0000
G01 X 10.3572 Y 34.6515 Z -1.0000
G01 X 10.3742 Y 34.6506 Z -1.0000
G01 X 10.3810 Y 34.6551 Z -1.0000
G01 X 10.3809 Y 34.6606 Z -1.0000
G01 X 10.3752 Y 34.6636 Z -1.0000
G01 X 10.3715 Y 34.6671 Z -1.0000
G01 X 10.3744 Y 34.6760 Z -1.0000
G01 X 10.3787 Y 34.6881 Z -1.0000
G01 X 10.3741 Y 34.6989 Z -1.0000
G01 X 10.3697 Y 34.7098 Z -1.0000
G01 X 10.3744 Y 34.7227 Z -1.0000
G01 X 10.3780 Y 34.7352 Z -1.0000
G01 X 10.3712 Y 34.7476 Z -1.0000
G01 X 10.3588 Y 34.7674 Z -1.0000
G01 X 10.3650 Y 34.7720 Z -1.0000
G01 X 10.3706 Y 34.7733 Z -1.0000
G03 X 10.3840 Y 34.8038 Z -1.0000 I -0.1168 J 0.0695
G03 X 10.3799 Y 34.8754 Z -1.0000 I -0.1008 J 0.0302
G03 X 10.3335 Y 34.9213 Z -1.0000 I -0.0798 J -0.0342
G03 X 10.2667 Y 34.9248 Z -1.0000 I -0.0383 J -0.0916
G03 X 10.1821 Y 34.8758 Z -1.0000 I 0.0610 J -0.2030
G01 X 10.1327 Y 34.8384 Z -1.0000
G02 X 10.1532 Y 34.8966 Z -1.0000 I 0.0926 J 0.0000
G02 X 10.2084 Y 34.9322 Z -1.0000 I 0.0817 J -0.0659
G01 X 10.2232 Y 34.9392 Z -1.0000
G01 X 10.2262 Y 34.9451 Z -1.0000
G01 X 10.2292 Y 34.9504 Z -1.0000
G01 X 10.2408 Y 34.9534 Z -1.0000
G01 X 10.2487 Y 34.9571 Z -1.0000
G01 X 10.2491 Y 34.9635 Z -1.0000
G01 X 10.2409 Y 34.9689 Z -1.0000
G03 X 10.2202 Y 34.9679 Z -1.0000 I -0.0080 J -0.0519
G01 X 10.2131 Y 34.9711 Z -1.0000
G01 X 10.2142 Y 34.9792 Z -1.0000
G02 X 10.2297 Y 34.9904 Z -1.0000 I 0.0397 J -0.0387
G01 X 10.2339 Y 34.9888 Z -1.0000
G01 X 10.2384 Y 34.9835 Z -1.0000
G01 X 10.2454 Y 34.9814 Z -1.0000
G01 X 10.2481 Y 34.9849 Z -1.0000
G03 X 10.2376 Y 35.0129 Z -1.0000 I -0.1255 J -0.0310
G03 X 10.2190 Y 35.0381 Z -1.0000 I -0.0859 J -0.0441
G01 X 10.2098 Y 35.0400 Z -1.0000
G01 X 10.2022 Y 35.0414 Z -1.0000
G01 X 10.1981 Y 35.0505 Z -1.0000
G01 X 10.2010 Y 35.0627 Z -1.0000
G01 X 10.2056 Y 35.0656 Z -1.0000
G01 X 10.2291 Y 35.0820 Z -1.0000
G03 X 10.2335 Y 35.1418 Z -1.0000 I -0.1021 J 0.0375
G01 X 10.2355 Y 35.1498 Z -1.0000
G01 X 10.2422 Y 35.1521 Z -1.0000
G01 X 10.2477 Y 35.1548 Z -1.0000
G01 X 10.2482 Y 35.1638 Z -1.0000
G01 X 10.2410 Y 35.1750 Z -1.0000
G01 X 10.2345 Y 35.1777 Z -1.0000
G01 X 10.2287 Y 35.1803 Z -1.0000
G01 X 10.2262 Y 35.1871 Z -1.0000
G01 X 10.2237 Y 35.1954 Z -1.0000
G03 X 10.2075 Y 35.2151 Z -1.0000 I -0.1071 J -0.0713
G03 X 10.1355 Y 35.2369 Z -1.0000 I -0.0562 J -0.0562
G03 X 10.0394 Y 35.1812 Z -1.0000 I 0.0344 J -0.1702
G02 X 10.0099 Y 35.1528 Z -1.0000 I -0.1810 J 0.1589
G01 X 10.0047 Y 35.1531 Z -1.0000
G01 X 10.0034 Y 35.1704 Z -1.0000
G02 X 10.0618 Y 35.2292 Z -1.0000 I 0.2418 J -0.1816
G03 X 10.0876 Y 35.2558 Z -1.0000 I -0.0757 J 0.0993
G01 X 10.0891 Y 35.2672 Z -1.0000
G01 X 10.0903 Y 35.2762 Z -1.0000
G01 X 10.0990 Y 35.2806 Z -1.0000
G01 X 10.1076 Y 35.2887 Z -1.0000
G01 X 10.1006 Y 35.3115 Z -1.0000
G01 X 10.0888 Y 35.3193 Z -1.0000
G01 X 10.0823 Y 35.3161 Z -1.0000
G01 X 10.0822 Y 35.3460 Z -1.0000
G02 X 10.0903 Y 35.3873 Z -1.0000 I 0.3246 J -0.0421
G02 X 10.1001 Y 35.4138 Z -1.0000 I 0.1421 J -0.0374
G03 X 10.1053 Y 35.4400 Z -1.0000 I -0.0481 J 0.0232
G03 X 10.0953 Y 35.4979 Z -1.0000 I -0.2555 J -0.0145
G01 X 10.0773 Y 35.5353 Z -1.0000
G01 X 10.0684 Y 35.5235 Z -1.0000
G01 X 10.0450 Y 35.5248 Z -1.0000
G03 X 9.9893 Y 35.5284 Z -1.0000 I -0.0326 J -0.0715
G03 X 9.9105 Y 35.4833 Z -1.0000 I 0.0612 J -0.1984
G02 X 9.8889 Y 35.4705 Z -1.0000 I -0.0418 J 0.0457
G01 X 9.8854 Y 35.4747 Z -1.0000
G02 X 9.9414 Y 35.5309 Z -1.0000 I 0.1353 J -0.0788
G02 X 10.0180 Y 35.5526 Z -1.0000 I 0.0800 J -0.1360
G01 X 10.0626 Y 35.5536 Z -1.0000
G01 X 10.0299 Y 35.5628 Z -1.0000
G03 X 9.9969 Y 35.5703 Z -1.0000 I -0.0887 J -0.3146
G03 X 9.9758 Y 35.5722 Z -1.0000 I -0.0220 J -0.1273
G01 X 9.9653 Y 35.5774 Z -1.0000
G01 X 9.9654 Y 35.5856 Z -1.0000
G01 X 9.9659 Y 35.5913 Z -1.0000
G01 X 9.9611 Y 35.5929 Z -1.0000
G01 X 9.9494 Y 35.5925 Z -1.0000
G01 X 9.9457 Y 35.5974 Z -1.0000
G01 X 9.9485 Y 35.6050 Z -1.0000
G01 X 9.9546 Y 35.6077 Z -1.0000
G01 X 9.9578 Y 35.6115 Z -1.0000
G03 X 9.9495 Y 35.6413 Z -1.0000 I -0.1256 J -0.0192
G02 X 9.9417 Y 35.6739 Z -1.0000 I 0.0961 J 0.0402
G01 X 9.9461 Y 35.6876 Z -1.0000
G01 X 9.9520 Y 35.7016 Z -1.0000
G03 X 9.9504 Y 35.7293 Z -1.0000 I -0.0865 J 0.0090
G02 X 9.9491 Y 35.7569 Z -1.0000 I 0.0804 J 0.0177
G01 X 9.9556 Y 35.7719 Z -1.0000
G01 X 9.9627 Y 35.7856 Z -1.0000
G01 X 9.9611 Y 35.7918 Z -1.0000
G01 X 9.9575 Y 35.7920 Z -1.0000
G01 X 9.9551 Y 35.7869 Z -1.0000
G01 X 9.9521 Y 35.7790 Z -1.0000
G01 X 9.9457 Y 35.7760 Z -1.0000
G01 X 9.9394 Y 35.7790 Z -1.0000
G01 X 9.9363 Y 35.7877 Z -1.0000
G01 X 9.9228 Y 35.8094 Z -1.0000
G03 X 9.8662 Y 35.8228 Z -1.0000 I -0.0566 J -0.1131
G03 X 9.7832 Y 35.7983 Z -1.0000 I 0.0000 J -0.1531
G03 X 9.7588 Y 35.7534 Z -1.0000 I 0.0290 J -0.0449
G01 X 9.7560 Y 35.7413 Z -1.0000
G01 X 9.7494 Y 35.7339 Z -1.0000
G01 X 9.7436 Y 35.7345 Z -1.0000
G01 X 9.7401 Y 35.7424 Z -1.0000
G02 X 9.7595 Y 35.7889 Z -1.0000 I 0.0654 J -0.0000
G02 X 9.8317 Y 35.8329 Z -1.0000 I 0.1291 J -0.1308
G03 X 9.8645 Y 35.8464 Z -1.0000 I -0.0724 J 0.2220
G01 X 9.8722 Y 35.8533 Z -1.0000
G01 X 9.8897 Y 35.8575 Z -1.0000
G01 X 9.8939 Y 35.8408 Z -1.0000
G01 X 9.8947 Y 35.8355 Z -1.0000
G01 X 9.9037 Y 35.8321 Z -1.0000
G01 X 9.9119 Y 35.8359 Z -1.0000
G01 X 9.9124 Y 35.8425 Z -1.0000
G01 X 9.9113 Y 35.8517 Z -1.0000
G01 X 9.9188 Y 35.8616 Z -1.0000
G01 X 9.9209 Y 35.8663 Z -1.0000
G01 X 9.9177 Y 35.8688 Z -1.0000
G02 X 9.9037 Y 35.8679 Z -1.0000 I -0.0165 J 0.1545
G02 X 9.8933 Y 35.8684 Z -1.0000 I -0.0014 J 0.0853
G02 X 9.8216 Y 35.8981 Z -1.0000 I 0.0145 J 0.1363
G01 X 9.8200 Y 35.9276 Z -1.0000
G01 X 9.8217 Y 35.9328 Z -1.0000
G03 X 9.8156 Y 35.9546 Z -1.0000 I -0.1020 J -0.0166
G01 X 9.8061 Y 35.9653 Z -1.0000
G01 X 9.8025 Y 35.9567 Z -1.0000
G01 X 9.7955 Y 35.9536 Z -1.0000
G01 X 9.7933 Y 35.9573 Z -1.0000
G02 X 9.8142 Y 35.9885 Z -1.0000 I 0.1684 J -0.0904
G03 X 9.8387 Y 36.0286 Z -1.0000 I -0.1302 J 0.1074
G01 X 9.8335 Y 36.0331 Z -1.0000
G01 X 9.8270 Y 36.0324 Z -1.0000
G01 X 9.8242 Y 36.0364 Z -1.0000
G01 X 9.8269 Y 36.0436 Z -1.0000
G01 X 9.8353 Y 36.0492 Z -1.0000
G01 X 9.8380 Y 36.0549 Z -1.0000
G03 X 9.8256 Y 36.0737 Z -1.0000 I -0.0515 J -0.0204
G02 X 9.8095 Y 36.0951 Z -1.0000 I 0.0677 J 0.0677
G01 X 9.8097 Y 36.1024 Z -1.0000
G01 X 9.8088 Y 36.1085 Z -1.0000
G03 X 9.7868 Y 36.1219 Z -1.0000 I -0.0536 J -0.0631
G03 X 9.7031 Y 36.1210 Z -1.0000 I -0.0408 J -0.0986
G03 X 9.6309 Y 36.0533 Z -1.0000 I 0.0599 J -0.1363
G02 X 9.6163 Y 36.0337 Z -1.0000 I -0.0682 J 0.0354
G01 X 9.6118 Y 36.0347 Z -1.0000
G02 X 9.6185 Y 36.0852 Z -1.0000 I 0.0546 J 0.0184
G02 X 9.6728 Y 36.1260 Z -1.0000 I 0.0854 J -0.0571
G03 X 9.7276 Y 36.1611 Z -1.0000 I -0.0380 J 0.1197
G01 X 9.7202 Y 36.1780 Z -1.0000
G01 X 9.7075 Y 36.1753 Z -1.0000
G01 X 9.6952 Y 36.1668 Z -1.0000
G01 X 9.6871 Y 36.1631 Z -1.0000
G01 X 9.6840 Y 36.1660 Z -1.0000
G01 X 9.6868 Y 36.1744 Z -1.0000
G01 X 9.6944 Y 36.1799 Z -1.0000
G01 X 9.6979 Y 36.1861 Z -1.0000
G03 X 9.6851 Y 36.2203 Z -1.0000 I -0.1349 J -0.0313
G02 X 9.6706 Y 36.2675 Z -1.0000 I 0.1126 J 0.0604
G02 X 9.6762 Y 36.3059 Z -1.0000 I 0.0787 J 0.0082
G03 X 9.6914 Y 36.3709 Z -1.0000 I -0.1905 J 0.0789
G01 X 9.6810 Y 36.3771 Z -1.0000
G01 X 9.6763 Y 36.3896 Z -1.0000
G01 X 9.6716 Y 36.4021 Z -1.0000
G03 X 9.6397 Y 36.4194 Z -1.0000 I -0.0615 J -0.0755
G03 X 9.5597 Y 36.4172 Z -1.0000 I -0.0368 J -0.1153
G03 X 9.4922 Y 36.3630 Z -1.0000 I 0.0506 J -0.1323
G02 X 9.4671 Y 36.3306 Z -1.0000 I -0.2307 J 0.1527
G01 X 9.4629 Y 36.3305 Z -1.0000
G01 X 9.4611 Y 36.3543 Z -1.0000
G02 X 9.5320 Y 36.4249 Z -1.0000 I 0.2602 J -0.1902
G02 X 9.5775 Y 36.4487 Z -1.0000 I 0.1023 J -0.1410
G02 X 9.6088 Y 36.4514 Z -1.0000 I 0.0211 J -0.0613
G02 X 9.6401 Y 36.4433 Z -1.0000 I -0.0263 J -0.1670
G01 X 9.6478 Y 36.4373 Z -1.0000
G01 X 9.6535 Y 36.4346 Z -1.0000
G01 X 9.6601 Y 36.4389 Z -1.0000
G01 X 9.6676 Y 36.4452 Z -1.0000
G01 X 9.6743 Y 36.4446 Z -1.0000
G01 X 9.6804 Y 36.4447 Z -1.0000
G01 X 9.6872 Y 36.4533 Z -1.0000
G01 X 9.6834 Y 36.4607 Z -1.0000
G03 X 9.6344 Y 36.4672 Z -1.0000 I -0.0501 J -0.1910
G02 X 9.5533 Y 36.4738 Z -1.0000 I 0.0030 J 0.5373
G01 X 9.5493 Y 36.4807 Z -1.0000
G01 X 9.5500 Y 36.4921 Z -1.0000
G03 X 9.5395 Y 36.5198 Z -1.0000 I -0.1227 J -0.0308
G02 X 9.5293 Y 36.5607 Z -1.0000 I 0.0798 J 0.0416
G01 X 9.5391 Y 36.5706 Z -1.0000
G01 X 9.5486 Y 36.5661 Z -1.0000
G01 X 9.5531 Y 36.5532 Z -1.0000
G01 X 9.5567 Y 36.5370 Z -1.0000
G03 X 9.5733 Y 36.5101 Z -1.0000 I 0.1257 J 0.0589
G03 X 9.5972 Y 36.4931 Z -1.0000 I 0.0406 J 0.0319
G03 X 9.6366 Y 36.4885 Z -1.0000 I 0.0303 J 0.0890
G03 X 9.7428 Y 36.5336 Z -1.0000 I -0.0183 J 0.1910
G03 X 9.7775 Y 36.6088 Z -1.0000 I -0.0642 J 0.0752
G03 X 9.7168 Y 36.6834 Z -1.0000 I -0.0762 J 0.0000
G03 X 9.5921 Y 36.6473 Z -1.0000 I -0.0282 J -0.1358
G02 X 9.5656 Y 36.6224 Z -1.0000 I -0.8063 J 0.8340
G02 X 9.5500 Y 36.6090 Z -1.0000 I -0.2515 J 0.2769
G01 X 9.5426 Y 36.6081 Z -1.0000
G01 X 9.5403 Y 36.6137 Z -1.0000
G02 X 9.5479 Y 36.6307 Z -1.0000 I 0.1189 J -0.0427
G02 X 9.5569 Y 36.6446 Z -1.0000 I 0.0874 J -0.0468
G01 X 9.5600 Y 36.6556 Z -1.0000
G01 X 9.5551 Y 36.6618 Z -1.0000
G01 X 9.5504 Y 36.6680 Z -1.0000
G01 X 9.5540 Y 36.6792 Z -1.0000
G01 X 9.5540 Y 36.6846 Z -1.0000
G01 X 9.5481 Y 36.6860 Z -1.0000
G01 X 9.5394 Y 36.6877 Z -1.0000
G01 X 9.5374 Y 36.6959 Z -1.0000
G01 X 9.5279 Y 36.7198 Z -1.0000
G03 X 9.4675 Y 36.7292 Z -1.0000 I -0.0460 J -0.0967
G03 X 9.3965 Y 36.7066 Z -1.0000 I 0.0290 J -0.2137
G03 X 9.3512 Y 36.6684 Z -1.0000 I 0.0633 J -0.1211
G02 X 9.3259 Y 36.6397 Z -1.0000 I -0.2109 J 0.1608
G01 X 9.3220 Y 36.6397 Z -1.0000
G01 X 9.3205 Y 36.6638 Z -1.0000
G02 X 9.3957 Y 36.7336 Z -1.0000 I 0.2590 J -0.2033
G02 X 9.4288 Y 36.7470 Z -1.0000 I 0.0481 J -0.0714
G02 X 9.4807 Y 36.7486 Z -1.0000 I 0.0316 J -0.1793
G03 X 9.5338 Y 36.7460 Z -1.0000 I 0.0470 J 0.4180
G01 X 9.5459 Y 36.7495 Z -1.0000
G01 X 9.5444 Y 36.7611 Z -1.0000
G03 X 9.4958 Y 36.7647 Z -1.0000 I -0.0324 J -0.1070
G01 X 9.4693 Y 36.7684 Z -1.0000
G02 X 9.4351 Y 36.7920 Z -1.0000 I 0.0474 J 0.1052
G02 X 9.4098 Y 36.8488 Z -1.0000 I 0.0613 J 0.0613
G02 X 9.4282 Y 36.9242 Z -1.0000 I 0.1349 J 0.0071
G03 X 9.4439 Y 36.9645 Z -1.0000 I -0.1186 J 0.0695
G01 X 9.4395 Y 36.9764 Z -1.0000
G01 X 9.4307 Y 36.9883 Z -1.0000
G01 X 9.4296 Y 37.0029 Z -1.0000
G01 X 9.4271 Y 37.0145 Z -1.0000
G01 X 9.4177 Y 37.0193 Z -1.0000
G01 X 9.4086 Y 37.0227 Z -1.0000
G01 X 9.4078 Y 37.0280 Z -1.0000
G01 X 9.4044 Y 37.0392 Z -1.0000
G03 X 9.3560 Y 37.0515 Z -1.0000 I -0.0584 J -0.1289
G02 X 9.2714 Y 37.1013 Z -1.0000 I 0.0079 J 0.1102
G02 X 9.2673 Y 37.1875 Z -1.0000 I 0.0714 J 0.0466
G03 X 9.3017 Y 37.2709 Z -1.0000 I -0.4372 J 0.2293
G01 X 9.2968 Y 37.2830 Z -1.0000
G01 X 9.2884 Y 37.2933 Z -1.0000
G01 X 9.2904 Y 37.3032 Z -1.0000
G01 X 9.2911 Y 37.3136 Z -1.0000
G03 X 9.2680 Y 37.3398 Z -1.0000 I -0.0858 J -0.0523
G03 X 9.2351 Y 37.3618 Z -1.0000 I -0.1432 J -0.1794
G01 X 9.2218 Y 37.3652 Z -1.0000
G01 X 9.2109 Y 37.3689 Z -1.0000
G01 X 9.2070 Y 37.3769 Z -1.0000
G01 X 9.2025 Y 37.3858 Z -1.0000
G03 X 9.1696 Y 37.4057 Z -1.0000 I -0.1048 J -0.1360
G02 X 9.1371 Y 37.4258 Z -1.0000 I 0.0655 J 0.1420
G01 X 9.1325 Y 37.4355 Z -1.0000
G01 X 9.1289 Y 37.4464 Z -1.0000
G03 X 9.1136 Y 37.4615 Z -1.0000 I -0.0530 J -0.0386
G01 X 9.1011 Y 37.4767 Z -1.0000
G01 X 9.1007 Y 37.4906 Z -1.0000
G01 X 9.0994 Y 37.5027 Z -1.0000
G01 X 9.0864 Y 37.5119 Z -1.0000
G01 X 9.0724 Y 37.5205 Z -1.0000
G01 X 9.0708 Y 37.5297 Z -1.0000
G01 X 9.0709 Y 37.5407 Z -1.0000
G01 X 9.0636 Y 37.5495 Z -1.0000
G01 X 9.0537 Y 37.5585 Z -1.0000
G02 X 9.0452 Y 37.5741 Z -1.0000 I 0.0490 J 0.0367
G01 X 9.0358 Y 37.5879 Z -1.0000
G01 X 9.0202 Y 37.5962 Z -1.0000
G01 X 9.0066 Y 37.6051 Z -1.0000
G01 X 9.0008 Y 37.6210 Z -1.0000
G01 X 8.9954 Y 37.6293 Z -1.0000
G01 X 8.9829 Y 37.6240 Z -1.0000
G01 X 8.9764 Y 37.6370 Z -1.0000
G01 X 8.9745 Y 37.6486 Z -1.0000
G01 X 8.9671 Y 37.6509 Z -1.0000
G01 X 8.9598 Y 37.6524 Z -1.0000
G01 X 8.9582 Y 37.6597 Z -1.0000
G01 X 8.9555 Y 37.6666 Z -1.0000
G01 X 8.9406 Y 37.6681 Z -1.0000
G01 X 8.9355 Y 37.6794 Z -1.0000
G02 X 9.1325 Y 37.7996 Z -1.0000 I 1.2291 J -1.7937
G02 X 9.6136 Y 37.9987 Z -1.0000 I 1.2113 J -2.2461
G02 X 10.1835 Y 38.1134 Z -1.0000 I 0.9098 J -3.0472
G02 X 10.4232 Y 38.1042 Z -1.0000 I 0.0885 J -0.8229
G02 X 10.4880 Y 38.0568 Z -1.0000 I -0.0169 J -0.0911
G03 X 10.5001 Y 38.0418 Z -1.0000 I 0.0463 J 0.0249
G01 X 10.5097 Y 38.0382 Z -1.0000
G01 X 10.5191 Y 38.0339 Z -1.0000
G02 X 10.5538 Y 37.9867 Z -1.0000 I -0.3014 J -0.2577
G03 X 10.5864 Y 37.9354 Z -1.0000 I 3.4802 J 2.1798
G03 X 10.6067 Y 37.9049 Z -1.0000 I 1.2596 J 0.8151
G02 X 10.6640 Y 37.8105 Z -1.0000 I -0.8477 J -0.5785
G01 X 10.6604 Y 37.8045 Z -1.0000
G01 X 10.6874 Y 37.7648 Z -1.0000
G02 X 10.7693 Y 37.6402 Z -1.0000 I -0.5602 J -0.4577
G01 X 10.7714 Y 37.6028 Z -1.0000
G01 X 10.7728 Y 37.5940 Z -1.0000
G01 X 10.7802 Y 37.5921 Z -1.0000
G01 X 10.7881 Y 37.5906 Z -1.0000
G01 X 10.7898 Y 37.5834 Z -1.0000
G01 X 10.7895 Y 37.5707 Z -1.0000
G01 X 10.7973 Y 37.5605 Z -1.0000
G01 X 10.8017 Y 37.5520 Z -1.0000
G01 X 10.7963 Y 37.5426 Z -1.0000
G01 X 10.7914 Y 37.5328 Z -1.0000
G01 X 10.7973 Y 37.5215 Z -1.0000
G02 X 10.8098 Y 37.5082 Z -1.0000 I -0.0351 J -0.0453
G02 X 10.8188 Y 37.4895 Z -1.0000 I -0.0607 J -0.0409
G03 X 10.8281 Y 37.4706 Z -1.0000 I 0.0688 J 0.0220
G03 X 10.8573 Y 37.4335 Z -1.0000 I 0.2972 J 0.2041
G02 X 10.9103 Y 37.3549 Z -1.0000 I -0.2516 J -0.2267
G02 X 10.9189 Y 37.3068 Z -1.0000 I -0.0811 J -0.0394
G03 X 10.9210 Y 37.2852 Z -1.0000 I 0.0562 J -0.0056
G01 X 10.9265 Y 37.2810 Z -1.0000
G01 X 10.9328 Y 37.2773 Z -1.0000
G01 X 10.9366 Y 37.2624 Z -1.0000
G01 X 10.9397 Y 37.2468 Z -1.0000
G01 X 10.9444 Y 37.2437 Z -1.0000
G01 X 10.9799 Y 37.2196 Z -1.0000
G01 X 10.9659 Y 37.1896 Z -1.0000
G01 X 10.9641 Y 37.1845 Z -1.0000
G03 X 10.9893 Y 37.1519 Z -1.0000 I 0.1698 J 0.1054
G02 X 11.0507 Y 37.0690 Z -1.0000 I -0.3001 J -0.2865
G02 X 11.0711 Y 37.0067 Z -1.0000 I -0.1456 J -0.0820
G03 X 11.0903 Y 36.9411 Z -1.0000 I 0.2038 J 0.0243
G03 X 11.1645 Y 36.8149 Z -1.0000 I 0.8456 J 0.4117
G02 X 11.2022 Y 36.7322 Z -1.0000 I -0.2069 J -0.1443
G02 X 11.1964 Y 36.6884 Z -1.0000 I -0.0580 J -0.0146
G01 X 11.1935 Y 36.6766 Z -1.0000
G01 X 11.1968 Y 36.6734 Z -1.0000
G01 X 11.2029 Y 36.6701 Z -1.0000
G02 X 11.2115 Y 36.6501 Z -1.0000 I -0.0583 J -0.0367
G01 X 11.2210 Y 36.6314 Z -1.0000
G01 X 11.2312 Y 36.6267 Z -1.0000
G01 X 11.2404 Y 36.6221 Z -1.0000
G01 X 11.2450 Y 36.6085 Z -1.0000
G01 X 11.2492 Y 36.5925 Z -1.0000
G01 X 11.2621 Y 36.5781 Z -1.0000
G02 X 11.3547 Y 36.4824 Z -1.0000 I -0.2155 J -0.3012
G01 X 11.3419 Y 36.4584 Z -1.0000
G01 X 11.3480 Y 36.4442 Z -1.0000
G01 X 11.3490 Y 36.4377 Z -1.0000
G01 X 11.3445 Y 36.4358 Z -1.0000
G01 X 11.3373 Y 36.4300 Z -1.0000
G03 X 11.3505 Y 36.3985 Z -1.0000 I 0.0714 J 0.0115
G02 X 11.3702 Y 36.3686 Z -1.0000 I -0.2761 J -0.2034
G02 X 11.3949 Y 36.3229 Z -1.0000 I -0.6267 J -0.3675
G03 X 11.4200 Y 36.2775 Z -1.0000 I 0.4998 J 0.2469
G03 X 11.4352 Y 36.2574 Z -1.0000 I 0.1119 J 0.0689
G02 X 11.4781 Y 36.1944 Z -1.0000 I -0.1921 J -0.1767
G02 X 11.5008 Y 36.1218 Z -1.0000 I -0.2337 J -0.1130
G03 X 11.5091 Y 36.0923 Z -1.0000 I 0.1263 J 0.0199
G01 X 11.5157 Y 36.0862 Z -1.0000
G01 X 11.5225 Y 36.0808 Z -1.0000
G01 X 11.5255 Y 36.0697 Z -1.0000
G01 X 11.5287 Y 36.0596 Z -1.0000
G01 X 11.5348 Y 36.0565 Z -1.0000
G01 X 11.5409 Y 36.0533 Z -1.0000
G01 X 11.5441 Y 36.0427 Z -1.0000
G01 X 11.5395 Y 36.0353 Z -1.0000
G01 X 11.5277 Y 36.0343 Z -1.0000
G01 X 11.5318 Y 36.0223 Z -1.0000
G02 X 11.5826 Y 35.9669 Z -1.0000 I -0.1895 J -0.2249
G02 X 11.6231 Y 35.8929 Z -1.0000 I -0.3034 J -0.2140
G02 X 11.6295 Y 35.8738 Z -1.0000 I -0.1424 J -0.0582
G02 X 11.6335 Y 35.8532 Z -1.0000 I -0.1602 J -0.0421
G03 X 11.6372 Y 35.8324 Z -1.0000 I 0.2220 J 0.0288
G03 X 11.6430 Y 35.8112 Z -1.0000 I 0.2478 J 0.0563
G01 X 11.6403 Y 35.8036 Z -1.0000
G01 X 11.6320 Y 35.8039 Z -1.0000
G01 X 11.6727 Y 35.7501 Z -1.0000
G02 X 11.6821 Y 35.7364 Z -1.0000 I -0.0452 J -0.0411
G01 X 11.6844 Y 35.7268 Z -1.0000
G03 X 11.6926 Y 35.6985 Z -1.0000 I 0.0528 J -0.0000
G03 X 11.7460 Y 35.6296 Z -1.0000 I 0.3911 J 0.2480
G02 X 11.7545 Y 35.6176 Z -1.0000 I -0.0394 J -0.0368
G02 X 11.7678 Y 35.5875 Z -1.0000 I -0.2367 J -0.1230
G03 X 11.7801 Y 35.5567 Z -1.0000 I 0.6957 J 0.2597
G03 X 11.7881 Y 35.5399 Z -1.0000 I 0.2009 J 0.0854
G01 X 11.7929 Y 35.5229 Z -1.0000
G02 X 11.7906 Y 35.4988 Z -1.0000 I -0.0797 J -0.0048
G01 X 11.7931 Y 35.4795 Z -1.0000
G01 X 11.8170 Y 35.4735 Z -1.0000
G02 X 11.8247 Y 35.4254 Z -1.0000 I -0.0582 J -0.0339
G01 X 11.8255 Y 35.4205 Z -1.0000
G03 X 11.8652 Y 35.3605 Z -1.0000 I 1.1776 J 0.7354
G02 X 11.9044 Y 35.2997 Z -1.0000 I -0.7958 J -0.5563
G02 X 11.9135 Y 35.2791 Z -1.0000 I -0.0814 J -0.0483
G03 X 11.9222 Y 35.2583 Z -1.0000 I 0.1089 J 0.0335
G03 X 11.9338 Y 35.2417 Z -1.0000 I 0.0801 J 0.0434
G01 X 11.9430 Y 35.2248 Z -1.0000
G01 X 11.9444 Y 35.2045 Z -1.0000
G01 X 11.9479 Y 35.1875 Z -1.0000
G01 X 11.9598 Y 35.1792 Z -1.0000
G02 X 11.9943 Y 35.1595 Z -1.0000 I -0.0121 J -0.0612
G01 X 11.9962 Y 35.1383 Z -1.0000
G01 X 11.9922 Y 35.1027 Z -1.0000
G03 X 12.0337 Y 35.0282 Z -1.0000 I 0.2245 J 0.0765
G02 X 12.0429 Y 35.0129 Z -1.0000 I -0.0445 J -0.0369
G02 X 12.0620 Y 34.9581 Z -1.0000 I -0.5802 J -0.2335
G03 X 12.1116 Y 34.8304 Z -1.0000 I 0.8155 J 0.2430
G03 X 12.1706 Y 34.7336 Z -1.0000 I 0.5259 J 0.2545
G02 X 12.1928 Y 34.6940 Z -1.0000 I -0.1344 J -0.1011
G02 X 12.2000 Y 34.6588 Z -1.0000 I -0.0978 J -0.0384
G03 X 12.2058 Y 34.6231 Z -1.0000 I 0.1403 J 0.0044
G03 X 12.2185 Y 34.5967 Z -1.0000 I 0.0886 J 0.0265
G02 X 12.2343 Y 34.5714 Z -1.0000 I -0.2408 J -0.1676
G01 X 12.2358 Y 34.5654 Z -1.0000
G03 X 12.2460 Y 34.5246 Z -1.0000 I 0.0865 J 0.0000
G03 X 12.2833 Y 34.4767 Z -1.0000 I 0.1586 J 0.0849
G02 X 12.3384 Y 34.4047 Z -1.0000 I -0.1734 J -0.1897
G02 X 12.3612 Y 34.3258 Z -1.0000 I -0.1878 J -0.0968
G03 X 12.3676 Y 34.2898 Z -1.0000 I 0.1939 J 0.0160
G01 X 12.3741 Y 34.2785 Z -1.0000
G01 X 12.3797 Y 34.2678 Z -1.0000
G01 X 12.3783 Y 34.2542 Z -1.0000
G01 X 12.3802 Y 34.2471 Z -1.0000
G01 X 12.3885 Y 34.2458 Z -1.0000
G01 X 12.3965 Y 34.2430 Z -1.0000
G01 X 12.3985 Y 34.2287 Z -1.0000
G01 X 12.3999 Y 34.2112 Z -1.0000
G01 X 12.4083 Y 34.2056 Z -1.0000
G01 X 12.4179 Y 34.2022 Z -1.0000
G01 X 12.4188 Y 34.1973 Z -1.0000
G01 X 12.4183 Y 34.1898 Z -1.0000
G01 X 12.4282 Y 34.1770 Z -1.0000
G02 X 12.4826 Y 34.1118 Z -1.0000 I -0.1503 J -0.1811
G02 X 12.5116 Y 34.0296 Z -1.0000 I -0.2155 J -0.1220
G03 X 12.5224 Y 33.9927 Z -1.0000 I 0.1536 J 0.0249
G01 X 12.5312 Y 33.9843 Z -1.0000
G01 X 12.5391 Y 33.9775 Z -1.0000
G01 X 12.5390 Y 33.9707 Z -1.0000
G01 X 12.5327 Y 33.9663 Z -1.0000
G01 X 12.5250 Y 33.9676 Z -1.0000
G01 X 12.5191 Y 33.9680 Z -1.0000
G01 X 12.5163 Y 33.9636 Z -1.0000
G01 X 12.5186 Y 33.9556 Z -1.0000
G01 X 12.5256 Y 33.9485 Z -1.0000
G01 X 12.5321 Y 33.9412 Z -1.0000
G01 X 12.5349 Y 33.9280 Z -1.0000
G01 X 12.5387 Y 33.9150 Z -1.0000
G03 X 12.5550 Y 33.8959 Z -1.0000 I 0.0729 J 0.0458
G01 X 12.5679 Y 33.8784 Z -1.0000
G01 X 12.5984 Y 33.8374 Z -1.0000
G02 X 12.6545 Y 33.7533 Z -1.0000 I -0.2389 J -0.2202
G02 X 12.6583 Y 33.7075 Z -1.0000 I -0.0609 J -0.0281
G03 X 12.6565 Y 33.6643 Z -1.0000 I 0.0928 J -0.0255
G01 X 12.6709 Y 33.6400 Z -1.0000
G01 X 12.6796 Y 33.6290 Z -1.0000
G02 X 12.6883 Y 33.6046 Z -1.0000 I -0.1022 J -0.0502
G03 X 12.6972 Y 33.5853 Z -1.0000 I 0.0506 J 0.0116
G01 X 12.7035 Y 33.5841 Z -1.0000
G01 X 12.7090 Y 33.5834 Z -1.0000
G01 X 12.7126 Y 33.5749 Z -1.0000
G01 X 12.7169 Y 33.5620 Z -1.0000
G03 X 12.7458 Y 33.5308 Z -1.0000 I 0.1669 J 0.1260
G02 X 12.8036 Y 33.4555 Z -1.0000 I -0.1607 J -0.1831
G02 X 12.8103 Y 33.4000 Z -1.0000 I -0.0758 J -0.0374
G01 X 12.8139 Y 33.3825 Z -1.0000
G01 X 12.8257 Y 33.3786 Z -1.0000
G01 X 12.8319 Y 33.3761 Z -1.0000
G01 X 12.8310 Y 33.3692 Z -1.0000
G01 X 12.8222 Y 33.3526 Z -1.0000
G01 X 12.8255 Y 33.3400 Z -1.0000
G01 X 12.8371 Y 33.3321 Z -1.0000
G01 X 12.8468 Y 33.3330 Z -1.0000
G01 X 12.8457 Y 33.3264 Z -1.0000
G03 X 12.8315 Y 33.2927 Z -1.0000 I 0.0392 J -0.0364
G01 X 12.8434 Y 33.2801 Z -1.0000
G01 X 12.8500 Y 33.2774 Z -1.0000
G01 X 12.8527 Y 33.2707 Z -1.0000
G01 X 12.8486 Y 33.2661 Z -1.0000
G02 X 12.8172 Y 33.2669 Z -1.0000 I -0.0126 J 0.1184
G03 X 12.7746 Y 33.2558 Z -1.0000 I -0.0087 J -0.0543
G01 X 12.7569 Y 33.2195 Z -1.0000
G03 X 12.7889 Y 33.1441 Z -1.0000 I 0.1048 J -0.0000
G03 X 12.8846 Y 33.0962 Z -1.0000 I 0.1243 J 0.1287
G01 X 12.9061 Y 33.1095 Z -1.0000
G03 X 12.9022 Y 33.1521 Z -1.0000 I -0.0526 J 0.0165
G02 X 12.8653 Y 33.2358 Z -1.0000 I 0.5288 J 0.2831
G01 X 12.8702 Y 33.2427 Z -1.0000
G02 X 12.9247 Y 33.2211 Z -1.0000 I -0.0001 J -0.0799
G02 X 12.9462 Y 33.1715 Z -1.0000 I -0.0465 J -0.0496
G01 X 12.9483 Y 33.1634 Z -1.0000
G03 X 12.9685 Y 33.1303 Z -1.0000 I 0.3217 J 0.1735
G02 X 12.9835 Y 33.0970 Z -1.0000 I -0.0856 J -0.0587
G01 X 12.9822 Y 33.0756 Z -1.0000
G03 X 12.9777 Y 33.0532 Z -1.0000 I 0.0651 J -0.0250
G03 X 12.9805 Y 33.0335 Z -1.0000 I 0.0548 J -0.0021
G02 X 12.9867 Y 33.0136 Z -1.0000 I -0.3669 J -0.1247
G01 X 12.9877 Y 33.0075 Z -1.0000
G01 X 12.9894 Y 33.0018 Z -1.0000
G01 X 12.9952 Y 32.9942 Z -1.0000
G01 X 13.0002 Y 32.9864 Z -1.0000
