%
(Header)
(Generated by gcodetools from Inkscape.)
(Using default header. To add your own header create file "header" in the output dir.)
M3
(Header end.)
G21 (All units in mm)

(Start cutting path id: path2)
(Change tool to Default tool)

G00 Z 5.0000
G00 X 32.2983 Y 2.3542

G01 Z -1.0000 F 100.0000(Penetrate)
G01 X 32.2835 Y 2.4065 Z -1.0000 F 3500.0000
G02 X 32.3436 Y 2.4661 Z -1.0000 I 0.0998 J -0.0404
G02 X 32.8848 Y 2.5941 Z -1.0000 I 0.7104 J -1.7954
G02 X 32.9648 Y 2.5208 Z -1.0000 I 0.0065 J -0.0733
G02 X 32.8755 Y 2.3825 Z -1.0000 I -0.1517 J -0.0000
G02 X 32.4603 Y 2.2932 Z -1.0000 I -0.4151 J 0.9199
G02 X 32.3859 Y 2.3067 Z -1.0000 I 0.0000 J 0.2112
G02 X 32.2983 Y 2.3542 Z -1.0000 I 0.1291 J 0.3427
G01 X 32.2983 Y 2.3542 Z -1.0000
G00 Z 5.0000

(End cutting path id: path2)


(Start cutting path id: path2)
(Change tool to Default tool)

G00 Z 5.0000
G00 X 32.6887 Y 2.6466

G01 Z -1.0000 F 100.0000(Penetrate)
G02 X 32.7542 Y 2.7318 Z -1.0000 I 0.1462 J -0.0447 F 3500.0000
G01 X 32.7922 Y 2.7109 Z -1.0000
G02 X 32.7664 Y 2.5771 Z -1.0000 I -0.3454 J -0.0028
G01 X 32.7263 Y 2.5502 Z -1.0000
G01 X 32.6914 Y 2.5741 Z -1.0000
G02 X 32.6887 Y 2.6466 Z -1.0000 I 0.1029 J 0.0402
G01 X 32.6887 Y 2.6466 Z -1.0000
G00 Z 5.0000

(End cutting path id: path2)


(Start cutting path id: path2)
(Change tool to Default tool)

G00 Z 5.0000
G00 X 33.2219 Y 2.6787

G01 Z -1.0000 F 100.0000(Penetrate)
G02 X 33.4596 Y 2.7945 Z -1.0000 I 1.8827 J -3.5638 F 3500.0000
G02 X 33.5003 Y 2.8032 Z -1.0000 I 0.0407 J -0.0910
G01 X 33.5032 Y 2.7933 Z -1.0000
G02 X 33.3075 Y 2.6787 Z -1.0000 I -1.4101 J 2.1839
G02 X 33.0698 Y 2.5629 Z -1.0000 I -1.8827 J 3.5638
G02 X 33.0291 Y 2.5543 Z -1.0000 I -0.0407 J 0.0910
G01 X 33.0262 Y 2.5641 Z -1.0000
G02 X 33.2219 Y 2.6787 Z -1.0000 I 1.4101 J -2.1839
G01 X 33.2219 Y 2.6787 Z -1.0000
G00 Z 5.0000

(End cutting path id: path2)


(Start cutting path id: path2)
(Change tool to Default tool)

G00 Z 5.0000
G00 X 33.7395 Y 2.9089

G01 Z -1.0000 F 100.0000(Penetrate)
G02 X 33.9910 Y 3.0738 Z -1.0000 I 0.6725 J -0.7514 F 3500.0000
G01 X 34.0358 Y 3.0451 Z -1.0000
G02 X 33.9789 Y 2.9499 Z -1.0000 I -0.1080 J -0.0000
G02 X 33.7523 Y 2.8929 Z -1.0000 I -0.2265 J 0.4220
G01 X 33.7387 Y 2.8995 Z -1.0000
G01 X 33.7395 Y 2.9089 Z -1.0000
G01 X 33.7395 Y 2.9089 Z -1.0000
G00 Z 5.0000

(End cutting path id: path2)


(Start cutting path id: path2)
(Change tool to Default tool)

G00 Z 5.0000
G00 X 33.5880 Y 3.2464

G01 Z -1.0000 F 100.0000(Penetrate)
G02 X 33.5741 Y 3.3006 Z -1.0000 I 0.5204 J 0.1626 F 3500.0000
G02 X 33.5444 Y 3.4611 Z -1.0000 I 4.5269 J 0.9180
G02 X 33.5496 Y 3.6040 Z -1.0000 I 0.3533 J 0.0587
G02 X 33.5901 Y 3.6501 Z -1.0000 I 0.0642 J -0.0155
G02 X 33.6547 Y 3.6511 Z -1.0000 I 0.0337 J -0.0878
G02 X 33.7147 Y 3.6067 Z -1.0000 I -0.0413 J -0.1184
G03 X 33.7868 Y 3.5715 Z -1.0000 I 0.0694 J 0.0508
G03 X 33.8371 Y 3.6105 Z -1.0000 I -0.0017 J 0.0541
G01 X 33.8460 Y 3.6112 Z -1.0000
G02 X 33.8523 Y 3.5784 Z -1.0000 I -0.0607 J -0.0287
G03 X 33.8588 Y 3.4746 Z -1.0000 I 0.4209 J -0.0257
G03 X 33.8847 Y 3.4071 Z -1.0000 I 0.1987 J 0.0375
G01 X 33.8791 Y 3.3939 Z -1.0000
G01 X 33.8533 Y 3.3999 Z -1.0000
G03 X 33.6717 Y 3.4416 Z -1.0000 I -0.1334 J -0.1646
G03 X 33.6459 Y 3.3514 Z -1.0000 I 0.0122 J -0.0523
G02 X 33.6819 Y 3.2996 Z -1.0000 I -0.1261 J -0.1261
G02 X 33.6931 Y 3.2485 Z -1.0000 I -0.1114 J -0.0511
G01 X 33.6484 Y 3.2029 Z -1.0000
G02 X 33.5880 Y 3.2464 Z -1.0000 I -0.0013 J 0.0620
G01 X 33.5880 Y 3.2464 Z -1.0000
G00 Z 5.0000

(End cutting path id: path2)


(Start cutting path id: path2)
(Change tool to Default tool)

G00 Z 5.0000
G00 X 36.4593 Y 4.5453

G01 Z -1.0000 F 100.0000(Penetrate)
G02 X 36.3644 Y 4.7501 Z -1.0000 I 0.2318 J 0.2318 F 3500.0000
G02 X 36.4314 Y 4.8828 Z -1.0000 I 0.1418 J 0.0117
G01 X 36.4683 Y 4.8856 Z -1.0000
G02 X 36.5424 Y 4.8356 Z -1.0000 I -0.0922 J -0.2165
G03 X 36.6096 Y 4.8037 Z -1.0000 I 0.0783 J 0.0783
G01 X 36.6523 Y 4.8245 Z -1.0000
G01 X 36.6782 Y 4.8414 Z -1.0000
G01 X 36.6912 Y 4.8304 Z -1.0000
G02 X 36.6729 Y 4.7887 Z -1.0000 I -0.0552 J -0.0007
G02 X 36.5853 Y 4.7353 Z -1.0000 I -0.1870 J 0.2081
G03 X 36.5223 Y 4.6753 Z -1.0000 I 0.0400 J -0.1052
G03 X 36.5200 Y 4.5864 Z -1.0000 I 0.1075 J -0.0472
G01 X 36.5056 Y 4.5409 Z -1.0000
G01 X 36.4593 Y 4.5453 Z -1.0000
G01 X 36.4593 Y 4.5453 Z -1.0000
G00 Z 5.0000

(End cutting path id: path2)


(Start cutting path id: path2)
(Change tool to Default tool)

G00 Z 5.0000
G00 X 30.8999 Y 4.9150

G01 Z -1.0000 F 100.0000(Penetrate)
G03 X 30.9291 Y 4.9756 Z -1.0000 I -0.0718 J 0.0718 F 3500.0000
G03 X 30.9513 Y 5.3776 Z -1.0000 I -3.6177 J 0.4020
G03 X 30.9291 Y 5.7797 Z -1.0000 I -3.6409 J 0.0000
G03 X 30.8999 Y 5.8403 Z -1.0000 I -0.1010 J -0.0112
G03 X 30.8405 Y 5.8714 Z -1.0000 I -0.0795 J -0.0795
G03 X 30.6536 Y 5.8850 Z -1.0000 I -0.1567 J -0.8636
G01 X 30.4587 Y 5.8783 Z -1.0000
G01 X 30.6729 Y 5.8529 Z -1.0000
G01 X 30.8871 Y 5.8275 Z -1.0000
G01 X 30.8994 Y 5.4029 Z -1.0000
G02 X 30.8942 Y 4.9852 Z -1.0000 I -5.0102 J -0.1459
G02 X 30.8744 Y 4.9409 Z -1.0000 I -0.0678 J 0.0037
G02 X 29.1255 Y 4.2930 Z -1.0000 I -1.5798 J 1.5798
G02 X 26.6781 Y 5.2595 Z -1.0000 I 0.3368 J 4.4346
G02 X 26.4479 Y 5.7459 Z -1.0000 I 0.3854 J 0.4801
G02 X 26.6869 Y 6.0897 Z -1.0000 I 0.3723 J -0.0039
G02 X 26.7512 Y 6.1002 Z -1.0000 I 0.0576 J -0.1502
G02 X 27.8378 Y 6.0418 Z -1.0000 I -1.8604 J -44.7058
G03 X 28.9260 Y 5.9800 Z -1.0000 I 3.8972 J 59.0570
G03 X 29.0285 Y 5.9852 Z -1.0000 I 0.0249 J 0.5251
G01 X 29.0282 Y 5.9962 Z -1.0000
G03 X 27.8949 Y 6.0811 Z -1.0000 I -4.9912 J -58.9858
G03 X 26.6749 Y 6.1308 Z -1.0000 I -1.6230 J -24.8512
G03 X 26.6211 Y 6.1018 Z -1.0000 I -0.0010 J -0.0625
G03 X 26.4923 Y 5.6436 Z -1.0000 I 0.7020 J -0.4445
G03 X 26.6353 Y 5.2400 Z -1.0000 I 0.6726 J 0.0111
G03 X 26.7048 Y 5.2013 Z -1.0000 I 0.0806 J 0.0631
G03 X 28.6166 Y 5.0231 Z -1.0000 I 6.4987 J 59.3796
G03 X 30.8246 Y 4.8859 Z -1.0000 I 5.7500 J 74.6629
G03 X 30.9000 Y 4.9150 Z -1.0000 I 0.0047 J 0.0998
G01 X 30.8999 Y 4.9150 Z -1.0000
G00 Z 5.0000

(End cutting path id: path2)


(Start cutting path id: path2)
(Change tool to Default tool)

G00 Z 5.0000
G00 X 30.7229 Y 5.1017

G01 Z -1.0000 F 100.0000(Penetrate)
G03 X 30.7098 Y 5.1504 Z -1.0000 I -0.0973 J -0.0000 F 3500.0000
G01 X 30.6872 Y 5.1634 Z -1.0000
G01 X 30.6629 Y 5.1521 Z -1.0000
G01 X 30.6515 Y 5.1206 Z -1.0000
G01 X 30.6383 Y 5.0909 Z -1.0000
G02 X 30.6040 Y 5.0778 Z -1.0000 I -0.0342 J 0.0379
G01 X 30.5794 Y 5.0934 Z -1.0000
G02 X 30.5778 Y 5.1331 Z -1.0000 I 0.0456 J 0.0216
G01 X 30.5680 Y 5.1688 Z -1.0000
G03 X 30.4967 Y 5.1968 Z -1.0000 I -0.0822 J -0.1045
G03 X 30.4187 Y 5.1779 Z -1.0000 I -0.0105 J -0.1267
G03 X 30.3914 Y 5.1308 Z -1.0000 I 0.0310 J -0.0494
G01 X 30.3766 Y 5.1201 Z -1.0000
G01 X 30.3516 Y 5.1420 Z -1.0000
G03 X 30.3256 Y 5.1684 Z -1.0000 I -0.0468 J -0.0201
G01 X 30.3118 Y 5.1599 Z -1.0000
G03 X 30.3490 Y 5.0963 Z -1.0000 I 0.0678 J -0.0030
G03 X 30.5338 Y 5.0481 Z -1.0000 I 0.2045 J 0.4063
G03 X 30.6968 Y 5.0672 Z -1.0000 I 0.0224 J 0.5145
G01 X 30.7229 Y 5.1017 Z -1.0000
G01 X 30.7229 Y 5.1017 Z -1.0000
G00 Z 5.0000

(End cutting path id: path2)


(Start cutting path id: path2)
(Change tool to Default tool)

G00 Z 5.0000
G00 X 30.4373 Y 5.3428

G01 Z -1.0000 F 100.0000(Penetrate)
G01 X 30.4117 Y 5.3808 Z -1.0000 F 3500.0000
G03 X 30.3516 Y 5.3776 Z -1.0000 I -0.0267 J -0.0657
G02 X 30.2826 Y 5.3596 Z -1.0000 I -0.0716 J 0.1338
G01 X 30.2659 Y 5.3761 Z -1.0000
G01 X 30.2491 Y 5.4037 Z -1.0000
G03 X 30.1802 Y 5.4204 Z -1.0000 I -0.0689 J -0.1331
G03 X 30.1182 Y 5.3970 Z -1.0000 I -0.0000 J -0.0938
G03 X 30.0952 Y 5.3455 Z -1.0000 I 0.0449 J -0.0509
G01 X 30.1116 Y 5.3246 Z -1.0000
G01 X 30.1374 Y 5.3347 Z -1.0000
G01 X 30.1635 Y 5.3460 Z -1.0000
G01 X 30.1796 Y 5.3270 Z -1.0000
G03 X 30.2067 Y 5.2823 Z -1.0000 I 0.0510 J 0.0005
G03 X 30.3087 Y 5.2585 Z -1.0000 I 0.0962 J 0.1815
G03 X 30.4087 Y 5.2899 Z -1.0000 I -0.0054 J 0.1919
G03 X 30.4373 Y 5.3428 Z -1.0000 I -0.0347 J 0.0529
G01 X 30.4373 Y 5.3428 Z -1.0000
G00 Z 5.0000

(End cutting path id: path2)


(Start cutting path id: path2)
(Change tool to Default tool)

G00 Z 5.0000
G00 X 30.4308 Y 5.6104

G01 Z -1.0000 F 100.0000(Penetrate)
G03 X 30.3821 Y 5.7518 Z -1.0000 I -0.1478 J 0.0282 F 3500.0000
G03 X 30.2403 Y 5.7770 Z -1.0000 I -0.0918 J -0.1049
G03 X 30.1613 Y 5.6758 Z -1.0000 I 0.0446 J -0.1163
G03 X 30.2106 Y 5.5329 Z -1.0000 I 0.1714 J -0.0209
G03 X 30.3390 Y 5.5037 Z -1.0000 I 0.0874 J 0.0874
G03 X 30.4308 Y 5.6104 Z -1.0000 I -0.0469 J 0.1331
G01 X 30.4308 Y 5.6104 Z -1.0000
G00 Z 5.0000

(End cutting path id: path2)


(Start cutting path id: path2)
(Change tool to Default tool)

G00 Z 5.0000
G00 X 30.2231 Y 5.6321

G01 Z -1.0000 F 100.0000(Penetrate)
G02 X 30.2387 Y 5.7065 Z -1.0000 I 0.1851 J 0.0000 F 3500.0000
G02 X 30.2732 Y 5.7462 Z -1.0000 I 0.0810 J -0.0356
G01 X 30.2934 Y 5.7410 Z -1.0000
G01 X 30.2960 Y 5.7059 Z -1.0000
G03 X 30.2897 Y 5.6491 Z -1.0000 I 0.1050 J -0.0403
G01 X 30.3065 Y 5.6346 Z -1.0000
G01 X 30.3366 Y 5.6462 Z -1.0000
G03 X 30.3661 Y 5.6882 Z -1.0000 I -0.0760 J 0.0845
G01 X 30.3784 Y 5.6891 Z -1.0000
G02 X 30.3910 Y 5.6453 Z -1.0000 I -0.0806 J -0.0470
G02 X 30.3667 Y 5.5757 Z -1.0000 I -0.1018 J -0.0035
G02 X 30.3087 Y 5.5489 Z -1.0000 I -0.0580 J 0.0495
G02 X 30.2478 Y 5.5737 Z -1.0000 I -0.0000 J 0.0875
G02 X 30.2231 Y 5.6321 Z -1.0000 I 0.0567 J 0.0584
G01 X 30.2231 Y 5.6321 Z -1.0000
G00 Z 5.0000

(End cutting path id: path2)


(Start cutting path id: path2)
(Change tool to Default tool)

G00 Z 5.0000
G00 X 30.2542 Y 5.9229

G01 Z -1.0000 F 100.0000(Penetrate)
G03 X 30.0927 Y 5.9312 Z -1.0000 I -0.1593 J -1.5229 F 3500.0000
G03 X 29.9544 Y 5.9226 Z -1.0000 I 0.0016 J -1.1356
G01 X 29.9545 Y 5.9140 Z -1.0000
G03 X 30.1160 Y 5.9057 Z -1.0000 I 0.1597 J 1.5336
G03 X 30.2543 Y 5.9144 Z -1.0000 I -0.0013 J 1.1320
G01 X 30.2542 Y 5.9229 Z -1.0000
G01 X 30.2542 Y 5.9229 Z -1.0000
G00 Z 5.0000

(End cutting path id: path2)


(Start cutting path id: path2)
(Change tool to Default tool)

G00 Z 5.0000
G00 X 29.6116 Y 5.9658

G01 Z -1.0000 F 100.0000(Penetrate)
G03 X 29.4501 Y 5.9741 Z -1.0000 I -0.1593 J -1.5229 F 3500.0000
G03 X 29.3118 Y 5.9654 Z -1.0000 I 0.0016 J -1.1357
G01 X 29.3119 Y 5.9569 Z -1.0000
G03 X 29.4734 Y 5.9486 Z -1.0000 I 0.1597 J 1.5336
G03 X 29.6117 Y 5.9572 Z -1.0000 I -0.0013 J 1.1320
G01 X 29.6116 Y 5.9658 Z -1.0000
G01 X 29.6116 Y 5.9658 Z -1.0000
G00 Z 5.0000

(End cutting path id: path2)


(Start cutting path id: path2)
(Change tool to Default tool)

G00 Z 5.0000
G00 X 29.4520 Y 6.6396

G01 Z -1.0000 F 100.0000(Penetrate)
G03 X 29.5947 Y 6.7257 Z -1.0000 I -0.6126 J 1.1768 F 3500.0000
G03 X 29.6334 Y 6.7652 Z -1.0000 I -0.0833 J 0.1202
G02 X 29.6572 Y 6.7865 Z -1.0000 I 0.0523 J -0.0346
G01 X 29.6655 Y 6.7815 Z -1.0000
G01 X 29.6765 Y 6.7768 Z -1.0000
G03 X 29.9037 Y 6.9956 Z -1.0000 I -3.0394 J 3.3826
G03 X 30.3215 Y 7.5414 Z -1.0000 I -2.1313 J 2.0643
G03 X 30.3922 Y 7.8156 Z -1.0000 I -0.4327 J 0.2577
G01 X 30.3790 Y 7.8189 Z -1.0000
G03 X 30.3030 Y 7.6575 Z -1.0000 I 1.0597 J -0.5978
G02 X 30.0032 Y 7.1619 Z -1.0000 I -1.5340 J 0.5895
G02 X 29.5995 Y 6.8574 Z -1.0000 I -0.9406 J 0.8270
G02 X 29.4442 Y 6.7961 Z -1.0000 I -0.5332 J 1.1236
G02 X 29.2965 Y 6.7607 Z -1.0000 I -0.3123 J 0.9795
G03 X 29.2025 Y 6.7229 Z -1.0000 I 0.0370 J -0.2278
G01 X 29.2023 Y 6.6958 Z -1.0000
G01 X 29.2011 Y 6.6811 Z -1.0000
G02 X 29.1627 Y 6.6765 Z -1.0000 I -0.0258 J 0.0530
G03 X 29.0972 Y 6.6758 Z -1.0000 I -0.0311 J -0.1418
G01 X 29.0903 Y 6.6588 Z -1.0000
G01 X 29.0808 Y 6.6387 Z -1.0000
G02 X 28.8094 Y 6.6200 Z -1.0000 I -0.2714 J 1.9632
G03 X 28.5452 Y 6.5972 Z -1.0000 I 0.0000 J -1.5441
G01 X 28.5340 Y 6.5722 Z -1.0000
G03 X 28.7772 Y 6.4480 Z -1.0000 I 0.2240 J 0.1384
G03 X 29.4520 Y 6.6396 Z -1.0000 I -0.1271 J 1.7320
G01 X 29.4520 Y 6.6396 Z -1.0000
G00 Z 5.0000

(End cutting path id: path2)


(Start cutting path id: path2)
(Change tool to Default tool)

G00 Z 5.0000
G00 X 29.6587 Y 7.5749

G01 Z -1.0000 F 100.0000(Penetrate)
G03 X 29.7855 Y 7.8412 Z -1.0000 I -0.4616 J 0.3831 F 3500.0000
G03 X 29.7693 Y 8.1318 Z -1.0000 I -0.5731 J 0.1138
G01 X 29.7339 Y 8.1532 Z -1.0000
G03 X 29.6805 Y 8.1161 Z -1.0000 I 0.0135 J -0.0763
G01 X 29.6558 Y 8.0982 Z -1.0000
G01 X 29.6458 Y 8.1087 Z -1.0000
G03 X 29.6508 Y 8.1888 Z -1.0000 I -0.1925 J 0.0521
G01 X 29.6321 Y 8.2051 Z -1.0000
G01 X 29.6083 Y 8.1871 Z -1.0000
G03 X 29.5640 Y 7.9649 Z -1.0000 I 1.3705 J -0.3884
G02 X 29.5243 Y 7.7284 Z -1.0000 I -2.4007 J 0.2821
G02 X 29.4942 Y 7.6471 Z -1.0000 I -0.3089 J 0.0679
G03 X 29.4815 Y 7.5798 Z -1.0000 I 0.1008 J -0.0540
G01 X 29.5058 Y 7.5479 Z -1.0000
G03 X 29.5959 Y 7.5384 Z -1.0000 I 0.0615 J 0.1522
G03 X 29.6587 Y 7.5749 Z -1.0000 I -0.0184 J 0.1038
G01 X 29.6587 Y 7.5749 Z -1.0000
G00 Z 5.0000

(End cutting path id: path2)


(Start cutting path id: path2)
(Change tool to Default tool)

G00 Z 5.0000
G00 X 29.5805 Y 7.6053

G01 Z -1.0000 F 100.0000(Penetrate)
G01 X 29.5934 Y 7.6352 Z -1.0000 F 3500.0000
G01 X 29.6258 Y 7.6481 Z -1.0000
G01 X 29.6468 Y 7.6345 Z -1.0000
G01 X 29.6447 Y 7.6053 Z -1.0000
G02 X 29.6148 Y 7.5686 Z -1.0000 I -0.1550 J 0.0958
G01 X 29.5994 Y 7.5625 Z -1.0000
G01 X 29.5879 Y 7.5699 Z -1.0000
G02 X 29.5805 Y 7.6053 Z -1.0000 I 0.0803 J 0.0354
G01 X 29.5805 Y 7.6053 Z -1.0000
G00 Z 5.0000

(End cutting path id: path2)


(Start cutting path id: path2)
(Change tool to Default tool)

G00 Z 5.0000
G00 X 30.4228 Y 8.0444

G01 Z -1.0000 F 100.0000(Penetrate)
G01 X 30.4116 Y 8.0444 Z -1.0000 F 3500.0000
G03 X 30.4012 Y 7.9909 Z -1.0000 I 0.1326 J -0.0536
G03 X 30.4116 Y 7.9373 Z -1.0000 I 0.1432 J -0.0000
G01 X 30.4228 Y 7.9373 Z -1.0000
G03 X 30.4332 Y 7.9909 Z -1.0000 I -0.1327 J 0.0536
G03 X 30.4228 Y 8.0444 Z -1.0000 I -0.1431 J -0.0000
G01 X 30.4228 Y 8.0444 Z -1.0000
G00 Z 5.0000

(End cutting path id: path2)


(Start cutting path id: path2)
(Change tool to Default tool)

G00 Z 5.0000
G00 X 28.8354 Y 5.6527

G01 Z -1.0000 F 100.0000(Penetrate)
G03 X 28.8293 Y 5.8244 Z -1.0000 I -0.2051 J 0.0787 F 3500.0000
G03 X 28.7237 Y 5.8917 Z -1.0000 I -0.1056 J -0.0494
G03 X 28.6180 Y 5.8244 Z -1.0000 I -0.0000 J -0.1166
G03 X 28.6119 Y 5.6527 Z -1.0000 I 0.1990 J -0.0930
G03 X 28.6485 Y 5.6109 Z -1.0000 I 0.0750 J 0.0288
G03 X 28.7237 Y 5.5918 Z -1.0000 I 0.0752 J 0.1379
G03 X 28.7989 Y 5.6109 Z -1.0000 I 0.0000 J 0.1571
G03 X 28.8354 Y 5.6527 Z -1.0000 I -0.0384 J 0.0705
G01 X 28.8354 Y 5.6527 Z -1.0000
G00 Z 5.0000

(End cutting path id: path2)


(Start cutting path id: path2)
(Change tool to Default tool)

G00 Z 5.0000
G00 X 28.6380 Y 5.6989

G01 Z -1.0000 F 100.0000(Penetrate)
G02 X 28.6594 Y 5.7417 Z -1.0000 I 0.0536 J 0.0000 F 3500.0000
G02 X 28.7237 Y 5.7631 Z -1.0000 I 0.0643 J -0.0857
G02 X 28.7879 Y 5.7417 Z -1.0000 I 0.0000 J -0.1071
G02 X 28.8094 Y 5.6989 Z -1.0000 I -0.0321 J -0.0428
G02 X 28.7879 Y 5.6560 Z -1.0000 I -0.0536 J 0.0000
G02 X 28.7237 Y 5.6346 Z -1.0000 I -0.0643 J 0.0857
G02 X 28.6594 Y 5.6560 Z -1.0000 I 0.0000 J 0.1071
G02 X 28.6380 Y 5.6989 Z -1.0000 I 0.0321 J 0.0428
G01 X 28.6380 Y 5.6989 Z -1.0000
G00 Z 5.0000

(End cutting path id: path2)


(Start cutting path id: path2)
(Change tool to Default tool)

G00 Z 5.0000
G00 X 28.9443 Y 5.2726

G01 Z -1.0000 F 100.0000(Penetrate)
G02 X 28.9512 Y 5.3776 Z -1.0000 I 11.1712 J -0.6773 F 3500.0000
G02 X 28.9550 Y 5.4276 Z -1.0000 I 3.6030 J -0.2524
G03 X 28.9439 Y 5.4674 Z -1.0000 I -0.0588 J 0.0051
G03 X 28.9057 Y 5.4954 Z -1.0000 I -0.0627 J -0.0456
G01 X 28.8701 Y 5.4866 Z -1.0000
G03 X 28.8472 Y 5.4347 Z -1.0000 I 0.0592 J -0.0571
G01 X 28.8358 Y 5.4242 Z -1.0000
G01 X 28.8219 Y 5.4351 Z -1.0000
G03 X 28.7841 Y 5.4844 Z -1.0000 I -0.0768 J -0.0198
G03 X 28.7198 Y 5.4927 Z -1.0000 I -0.0424 J -0.0752
G02 X 28.6452 Y 5.4892 Z -1.0000 I -0.0454 J 0.1734
G01 X 28.6141 Y 5.5101 Z -1.0000
G03 X 28.5840 Y 5.5370 Z -1.0000 I -0.0605 J -0.0374
G03 X 28.5391 Y 5.5456 Z -1.0000 I -0.0389 J -0.0823
G01 X 28.5305 Y 5.5354 Z -1.0000
G01 X 28.5416 Y 5.5206 Z -1.0000
G02 X 28.5825 Y 5.4905 Z -1.0000 I -0.0383 J -0.0949
G02 X 28.5951 Y 5.4551 Z -1.0000 I -0.0432 J -0.0353
G01 X 28.5793 Y 5.4343 Z -1.0000
G02 X 28.5286 Y 5.4368 Z -1.0000 I -0.0216 J 0.0782
G01 X 28.4955 Y 5.4346 Z -1.0000
G01 X 28.4906 Y 5.4162 Z -1.0000
G03 X 28.5271 Y 5.3900 Z -1.0000 I 0.0498 J 0.0308
G03 X 28.5985 Y 5.3909 Z -1.0000 I 0.0339 J 0.1444
G02 X 28.8266 Y 5.3486 Z -1.0000 I 0.0691 J -0.2642
G02 X 28.8372 Y 5.2198 Z -1.0000 I -0.0494 J -0.0689
G01 X 28.8100 Y 5.2163 Z -1.0000
G02 X 28.7446 Y 5.2736 Z -1.0000 I 0.1139 J 0.1959
G03 X 28.6808 Y 5.3047 Z -1.0000 I -0.0634 J -0.0490
G03 X 28.6165 Y 5.2730 Z -1.0000 I 0.0004 J -0.0817
G02 X 28.5728 Y 5.2500 Z -1.0000 I -0.0471 J 0.0364
G01 X 28.5523 Y 5.2694 Z -1.0000
G03 X 28.5402 Y 5.3199 Z -1.0000 I -0.1121 J -0.0000
G01 X 28.5256 Y 5.3223 Z -1.0000
G03 X 28.5328 Y 5.2450 Z -1.0000 I 0.0357 J -0.0357
G03 X 28.7397 Y 5.1762 Z -1.0000 I 0.2241 J 0.3285
G03 X 28.9009 Y 5.2086 Z -1.0000 I 0.0148 J 0.3430
G03 X 28.9443 Y 5.2726 Z -1.0000 I -0.0323 J 0.0686
G01 X 28.9443 Y 5.2726 Z -1.0000
G00 Z 5.0000

(End cutting path id: path2)


(Start cutting path id: path2)
(Change tool to Default tool)

G00 Z 5.0000
G00 X 28.7879 Y 4.3942

G01 Z -1.0000 F 100.0000(Penetrate)
G03 X 25.8748 Y 4.6444 Z -1.0000 I -2181.1345 J -25383.0906 F 3500.0000
G03 X 25.8427 Y 4.6469 Z -1.0000 I -0.2628 J -3.0625
G01 X 25.8266 Y 4.6642 Z -1.0000
G02 X 25.8108 Y 12.9710 Z -1.0000 I 2151.6550 J 8.2598
G01 X 25.8109 Y 21.2926 Z -1.0000
G01 X 26.0142 Y 21.3040 Z -1.0000
G03 X 26.2173 Y 21.3184 Z -1.0000 I -0.3932 J 6.9797
G03 X 28.8736 Y 21.5489 Z -1.0000 I -99.4174 J 1161.2014
G02 X 31.5177 Y 21.7394 Z -1.0000 I 7.3649 J -83.7665
G02 X 31.6368 Y 21.7042 Z -1.0000 I 0.0104 J -0.1841
G01 X 31.7439 Y 21.6261 Z -1.0000
G01 X 31.7547 Y 12.8807 Z -1.0000
G02 X 31.7494 Y 4.1536 Z -1.0000 I -2378.5663 J -2.9176
G01 X 31.7333 Y 4.1396 Z -1.0000
G03 X 31.7009 Y 4.1432 Z -1.0000 I -0.0903 J -0.6668
G03 X 28.7879 Y 4.3942 Z -1.0000 I -513.0343 J -5936.1664
G01 X 28.7879 Y 4.3942 Z -1.0000
G00 Z 5.0000

(End cutting path id: path2)


(Start cutting path id: path2)
(Change tool to Default tool)

G00 Z 5.0000
G00 X 30.0244 Y 5.1420

G01 Z -1.0000 F 100.0000(Penetrate)
G02 X 30.0227 Y 5.1905 Z -1.0000 I 0.0696 J 0.0267 F 3500.0000
G01 X 30.0440 Y 5.2063 Z -1.0000
G01 X 30.0766 Y 5.1912 Z -1.0000
G02 X 30.1079 Y 5.1313 Z -1.0000 I -0.1152 J -0.0981
G01 X 30.1202 Y 5.1275 Z -1.0000
G01 X 30.1324 Y 5.1527 Z -1.0000
G03 X 30.1032 Y 5.2167 Z -1.0000 I -0.0760 J 0.0039
G03 X 30.0089 Y 5.2491 Z -1.0000 I -0.0944 J -0.1209
G03 X 29.8991 Y 5.2303 Z -1.0000 I -0.0000 J -0.3296
G01 X 29.8803 Y 5.2037 Z -1.0000
G01 X 29.8953 Y 5.1847 Z -1.0000
G03 X 29.9339 Y 5.1905 Z -1.0000 I 0.0123 J 0.0497
G01 X 29.9433 Y 5.1844 Z -1.0000
G02 X 29.9287 Y 5.1502 Z -1.0000 I -0.0675 J 0.0087
G01 X 29.9220 Y 5.1026 Z -1.0000
G01 X 29.9595 Y 5.0778 Z -1.0000
G03 X 30.0155 Y 5.1008 Z -1.0000 I 0.0000 J 0.0797
G01 X 30.0244 Y 5.1420 Z -1.0000
G01 X 30.0244 Y 5.1420 Z -1.0000
G00 Z 5.0000

(End cutting path id: path2)


(Start cutting path id: path2)
(Change tool to Default tool)

G00 Z 5.0000
G00 X 30.2379 Y 5.1438

G01 Z -1.0000 F 100.0000(Penetrate)
G03 X 30.2081 Y 5.1895 Z -1.0000 I -0.1220 J -0.0468 F 3500.0000
G01 X 30.1921 Y 5.1895 Z -1.0000
G01 X 30.1845 Y 5.1676 Z -1.0000
G03 X 30.1999 Y 5.1234 Z -1.0000 I 0.1077 J 0.0128
G01 X 30.2275 Y 5.1160 Z -1.0000
G01 X 30.2378 Y 5.1438 Z -1.0000
G01 X 30.2379 Y 5.1438 Z -1.0000
G00 Z 5.0000

(End cutting path id: path2)


(Start cutting path id: path2)
(Change tool to Default tool)

G00 Z 5.0000
G00 X 27.5884 Y 5.3776

G01 Z -1.0000 F 100.0000(Penetrate)
G03 X 27.5555 Y 5.4087 Z -1.0000 I -0.0751 J -0.0464 F 3500.0000
G03 X 27.5109 Y 5.4198 Z -1.0000 I -0.0434 J -0.0798
G01 X 27.5017 Y 5.4071 Z -1.0000
G03 X 27.5242 Y 5.3776 Z -1.0000 I 0.0520 J 0.0163
G03 X 27.5793 Y 5.3613 Z -1.0000 I 0.0552 J 0.0854
G01 X 27.5884 Y 5.3776 Z -1.0000
G01 X 27.5884 Y 5.3776 Z -1.0000
G00 Z 5.0000

(End cutting path id: path2)


(Start cutting path id: path2)
(Change tool to Default tool)

G00 Z 5.0000
G00 X 27.2580 Y 5.3268

G01 Z -1.0000 F 100.0000(Penetrate)
G03 X 27.3049 Y 5.3025 Z -1.0000 I 0.0618 J 0.0618 F 3500.0000
G03 X 27.3491 Y 5.3110 Z -1.0000 I 0.0108 J 0.0626
G03 X 27.3803 Y 5.3720 Z -1.0000 I -0.0348 J 0.0563
G01 X 27.3421 Y 5.4111 Z -1.0000
G02 X 27.2886 Y 5.4163 Z -1.0000 I 0.4045 J 4.4121
G02 X 27.1065 Y 5.4356 Z -1.0000 I 5.2902 J 50.8996
G03 X 26.9528 Y 5.4235 Z -1.0000 I -0.0447 J -0.4155
G01 X 26.9244 Y 5.3864 Z -1.0000
G01 X 26.9424 Y 5.3612 Z -1.0000
G01 X 26.9758 Y 5.3690 Z -1.0000
G02 X 27.0395 Y 5.3887 Z -1.0000 I 0.0506 J -0.0506
G01 X 27.0518 Y 5.3548 Z -1.0000
G01 X 27.0570 Y 5.3319 Z -1.0000
G03 X 27.1054 Y 5.3303 Z -1.0000 I 0.0261 J 0.0569
G02 X 27.2084 Y 5.3480 Z -1.0000 I 0.0968 J -0.2546
G02 X 27.2579 Y 5.3268 Z -1.0000 I -0.0017 J -0.0724
G01 X 27.2580 Y 5.3268 Z -1.0000
G00 Z 5.0000

(End cutting path id: path2)


(Start cutting path id: path2)
(Change tool to Default tool)

G00 Z 5.0000
G00 X 26.8440 Y 5.4318

G01 Z -1.0000 F 100.0000(Penetrate)
G01 X 26.8252 Y 5.4318 Z -1.0000 F 3500.0000
G01 X 26.8201 Y 5.4079 Z -1.0000
G03 X 26.8544 Y 5.3550 Z -1.0000 I 0.1397 J 0.0532
G01 X 26.8733 Y 5.3550 Z -1.0000
G01 X 26.8784 Y 5.3790 Z -1.0000
G03 X 26.8440 Y 5.4318 Z -1.0000 I -0.1396 J -0.0532
G01 X 26.8440 Y 5.4318 Z -1.0000
G00 Z 5.0000

(End cutting path id: path2)


(Start cutting path id: path2)
(Change tool to Default tool)

G00 Z 5.0000
G00 X 27.1409 Y 5.7873

G01 Z -1.0000 F 100.0000(Penetrate)
G02 X 27.1925 Y 5.8115 Z -1.0000 I 0.0517 J -0.0429 F 3500.0000
G01 X 27.2339 Y 5.7873 Z -1.0000
G03 X 27.3532 Y 5.7183 Z -1.0000 I 0.1176 J 0.0658
G03 X 27.4561 Y 5.7900 Z -1.0000 I -0.0014 J 0.1117
G03 X 27.3865 Y 5.9792 Z -1.0000 I -0.1430 J 0.0549
G03 X 27.2000 Y 5.9299 Z -1.0000 I -0.0672 J -0.1230
G01 X 27.1697 Y 5.9159 Z -1.0000
G02 X 27.1295 Y 5.9406 Z -1.0000 I 0.0091 J 0.0596
G01 X 27.1145 Y 5.9396 Z -1.0000
G03 X 27.1095 Y 5.9023 Z -1.0000 I 0.0486 J -0.0255
G02 X 27.0982 Y 5.8320 Z -1.0000 I -0.0953 J -0.0209
G02 X 27.0527 Y 5.8060 Z -1.0000 I -0.0455 J 0.0268
G01 X 27.0032 Y 5.8494 Z -1.0000
G02 X 27.0302 Y 5.9773 Z -1.0000 I 0.1950 J 0.0256
G01 X 27.0244 Y 5.9901 Z -1.0000
G01 X 26.9969 Y 5.9828 Z -1.0000
G03 X 26.9389 Y 5.8752 Z -1.0000 I 0.1001 J -0.1234
G03 X 26.9758 Y 5.7717 Z -1.0000 I 0.1277 J -0.0127
G03 X 27.0564 Y 5.7427 Z -1.0000 I 0.0712 J 0.0712
G03 X 27.1409 Y 5.7873 Z -1.0000 I -0.0117 J 0.1244
G01 X 27.1409 Y 5.7873 Z -1.0000
G00 Z 5.0000

(End cutting path id: path2)


(Start cutting path id: path2)
(Change tool to Default tool)

G00 Z 5.0000
G00 X 27.3712 Y 5.8488

G01 Z -1.0000 F 100.0000(Penetrate)
G02 X 27.3887 Y 5.8911 Z -1.0000 I 0.0597 J 0.0000 F 3500.0000
G01 X 27.4134 Y 5.8911 Z -1.0000
G02 X 27.4309 Y 5.8488 Z -1.0000 I -0.0422 J -0.0422
G02 X 27.4134 Y 5.8066 Z -1.0000 I -0.0597 J 0.0000
G01 X 27.3887 Y 5.8066 Z -1.0000
G02 X 27.3712 Y 5.8488 Z -1.0000 I 0.0422 J 0.0422
G01 X 27.3712 Y 5.8488 Z -1.0000
G00 Z 5.0000

(End cutting path id: path2)


(Start cutting path id: path2)
(Change tool to Default tool)

G00 Z 5.0000
G00 X 26.8646 Y 4.8528

G01 Z -1.0000 F 100.0000(Penetrate)
G01 X 26.8726 Y 4.8653 Z -1.0000 F 3500.0000
G01 X 26.8946 Y 4.8559 Z -1.0000
G03 X 26.9559 Y 4.8129 Z -1.0000 I 0.1013 J 0.0791
G03 X 27.0073 Y 4.8190 Z -1.0000 I 0.0191 J 0.0584
G01 X 27.0114 Y 4.8810 Z -1.0000
G03 X 26.8561 Y 4.9421 Z -1.0000 I -0.1737 J -0.2134
G02 X 26.6986 Y 4.9606 Z -1.0000 I 0.1064 J 1.5866
G02 X 26.6603 Y 4.9750 Z -1.0000 I 0.0176 J 0.1049
G01 X 26.6400 Y 4.9694 Z -1.0000
G03 X 26.6245 Y 4.9064 Z -1.0000 I 0.1207 J -0.0630
G03 X 26.6386 Y 4.8401 Z -1.0000 I 0.1630 J -0.0000
G01 X 26.6567 Y 4.8343 Z -1.0000
G02 X 26.6896 Y 4.8408 Z -1.0000 I 0.0261 J -0.0450
G02 X 26.7745 Y 4.8184 Z -1.0000 I -0.0470 J -0.3497
G03 X 26.8483 Y 4.8177 Z -1.0000 I 0.0377 J 0.0938
G01 X 26.8646 Y 4.8529 Z -1.0000
G01 X 26.8646 Y 4.8528 Z -1.0000
G00 Z 5.0000

(End cutting path id: path2)


(Start cutting path id: path2)
(Change tool to Default tool)

G00 Z 5.0000
G00 X 25.7664 Y 3.2652

G01 Z -1.0000 F 100.0000(Penetrate)
G03 X 25.7401 Y 3.6342 Z -1.0000 I -2.7416 J -0.0099 F 3500.0000
G03 X 25.7021 Y 3.7258 Z -1.0000 I -0.1950 J -0.0272
G02 X 25.6703 Y 3.8194 Z -1.0000 I 0.1252 J 0.0947
G02 X 25.6392 Y 12.5401 Z -1.0000 I 1222.0906 J 8.7207
G02 X 25.6606 Y 21.2498 Z -1.0000 I 1775.1440 J 0.0000
G01 X 25.6821 Y 21.2712 Z -1.0000
G01 X 25.7035 Y 21.2498 Z -1.0000
G02 X 25.7263 Y 12.5212 Z -1.0000 I -1782.1996 J -9.0050
G03 X 25.7587 Y 3.7816 Z -1.0000 I 1229.1942 J 0.1934
G03 X 25.7905 Y 3.6880 Z -1.0000 I 0.1570 J 0.0011
G02 X 25.9628 Y 3.1959 Z -1.0000 I -0.6798 J -0.5142
G02 X 25.8106 Y 2.9143 Z -1.0000 I -0.3211 J -0.0083
G01 X 25.7883 Y 2.9250 Z -1.0000
G02 X 25.7664 Y 3.2652 Z -1.0000 I 2.7826 J 0.3504
G01 X 25.7664 Y 3.2652 Z -1.0000
G00 Z 5.0000

(End cutting path id: path2)


(Start cutting path id: path2)
(Change tool to Default tool)

G00 Z 5.0000
G00 X 27.1617 Y 9.4872

G01 Z -1.0000 F 100.0000(Penetrate)
G02 X 27.5728 Y 9.7558 Z -1.0000 I 1.0067 J -1.0922 F 3500.0000
G02 X 28.0291 Y 9.8669 Z -1.0000 I 0.5448 J -1.2447
G03 X 28.3228 Y 9.9160 Z -1.0000 I -0.0968 J 1.4829
G03 X 28.3817 Y 9.9629 Z -1.0000 I -0.0250 J 0.0919
G03 X 28.3639 Y 10.0371 Z -1.0000 I -0.0506 J 0.0271
G03 X 28.1954 Y 10.0927 Z -1.0000 I -0.1776 J -0.2551
G01 X 28.1830 Y 10.1097 Z -1.0000
G01 X 28.2086 Y 10.1378 Z -1.0000
G02 X 28.3160 Y 10.1630 Z -1.0000 I 0.1374 J -0.3445
G02 X 28.4228 Y 10.1552 Z -1.0000 I 0.0283 J -0.3483
G03 X 28.4664 Y 10.1580 Z -1.0000 I 0.0171 J 0.0742
G01 X 28.4680 Y 10.1720 Z -1.0000
G01 X 28.4730 Y 10.1915 Z -1.0000
G02 X 28.7679 Y 10.1970 Z -1.0000 I 0.1903 J -2.2753
G02 X 29.1211 Y 10.1444 Z -1.0000 I -0.0803 J -1.7500
G02 X 29.4256 Y 10.0291 Z -1.0000 I -0.3604 J -1.4112
G03 X 29.6377 Y 9.9413 Z -1.0000 I 0.6416 J 1.2505
G01 X 29.6482 Y 9.9576 Z -1.0000
G03 X 29.5665 Y 10.0247 Z -1.0000 I -0.2665 J -0.2412
G03 X 29.3105 Y 10.1601 Z -1.0000 I -1.3884 J -2.3156
G03 X 29.0370 Y 10.2467 Z -1.0000 I -0.4779 J -1.0344
G03 X 28.6380 Y 10.2828 Z -1.0000 I -0.3990 J -2.1880
G03 X 28.2398 Y 10.2470 Z -1.0000 I 0.0000 J -2.2324
G03 X 28.0168 Y 10.1702 Z -1.0000 I 0.1386 J -0.7648
G02 X 27.8013 Y 10.0603 Z -1.0000 I -4.5783 J 8.7093
G02 X 27.5152 Y 9.9221 Z -1.0000 I -7.5363 J 15.2345
G03 X 27.0161 Y 9.5853 Z -1.0000 I 0.8431 J -1.7876
G03 X 26.9244 Y 9.3754 Z -1.0000 I 0.1941 J -0.2098
G01 X 26.9611 Y 9.3522 Z -1.0000
G03 X 27.1617 Y 9.4872 Z -1.0000 I -0.3397 J 0.7212
G01 X 27.1617 Y 9.4872 Z -1.0000
G00 Z 5.0000

(End cutting path id: path2)


(Start cutting path id: path2)
(Change tool to Default tool)

G00 Z 5.0000
G00 X 26.8730 Y 10.4413

G01 Z -1.0000 F 100.0000(Penetrate)
G03 X 26.9146 Y 10.4968 Z -1.0000 I -0.1730 J 0.1730 F 3500.0000
G03 X 26.9244 Y 10.5352 Z -1.0000 I -0.0701 J 0.0384
G01 X 26.9126 Y 10.5416 Z -1.0000
G03 X 26.8663 Y 10.4982 Z -1.0000 I 0.0921 J -0.1447
G02 X 26.8001 Y 10.4465 Z -1.0000 I -0.1244 J 0.0909
G02 X 26.7378 Y 10.4458 Z -1.0000 I -0.0320 J 0.0784
G02 X 26.6876 Y 10.5148 Z -1.0000 I 0.0281 J 0.0732
G01 X 26.7316 Y 10.5612 Z -1.0000
G03 X 26.7766 Y 10.5805 Z -1.0000 I -0.0000 J 0.0622
G03 X 26.7959 Y 10.6286 Z -1.0000 I -0.0503 J 0.0481
G01 X 26.7760 Y 10.6479 Z -1.0000
G03 X 26.7265 Y 10.6266 Z -1.0000 I 0.0021 J -0.0729
G01 X 26.6744 Y 10.6230 Z -1.0000
G01 X 26.6690 Y 10.6703 Z -1.0000
G02 X 26.7332 Y 10.7152 Z -1.0000 I 0.1137 J -0.0944
G02 X 26.8036 Y 10.7182 Z -1.0000 I 0.0401 J -0.1128
G03 X 26.8664 Y 10.7175 Z -1.0000 I 0.0329 J 0.1257
G01 X 26.8816 Y 10.7366 Z -1.0000
G03 X 26.7915 Y 10.8110 Z -1.0000 I -0.0757 J 0.0000
G03 X 26.6230 Y 10.6869 Z -1.0000 I 0.0459 J -0.2389
G03 X 26.6061 Y 10.5997 Z -1.0000 I 0.1326 J -0.0710
G03 X 26.6439 Y 10.4941 Z -1.0000 I 0.2384 J 0.0258
G03 X 26.7644 Y 10.4102 Z -1.0000 I 0.1648 J 0.1080
G03 X 26.8730 Y 10.4413 Z -1.0000 I 0.0262 J 0.1136
G01 X 26.8730 Y 10.4413 Z -1.0000
G00 Z 5.0000

(End cutting path id: path2)


(Start cutting path id: path2)
(Change tool to Default tool)

G00 Z 5.0000
G00 X 27.3956 Y 10.5888

G01 Z -1.0000 F 100.0000(Penetrate)
G03 X 27.3357 Y 10.6468 Z -1.0000 I -0.0580 J 0.0000 F 3500.0000
G03 X 27.2142 Y 10.5826 Z -1.0000 I 0.0053 J -0.1573
G01 X 27.1945 Y 10.5764 Z -1.0000
G01 X 27.1821 Y 10.5933 Z -1.0000
G03 X 27.1677 Y 10.6330 Z -1.0000 I -0.0642 J -0.0008
G01 X 27.1386 Y 10.6469 Z -1.0000
G01 X 27.1103 Y 10.6323 Z -1.0000
G03 X 27.0958 Y 10.5869 Z -1.0000 I 0.0636 J -0.0454
G01 X 27.1200 Y 10.5511 Z -1.0000
G03 X 27.2457 Y 10.5269 Z -1.0000 I 0.1257 J 0.3144
G03 X 27.3708 Y 10.5517 Z -1.0000 I -0.0000 J 0.3282
G01 X 27.3956 Y 10.5888 Z -1.0000
G01 X 27.3956 Y 10.5888 Z -1.0000
G00 Z 5.0000

(End cutting path id: path2)


(Start cutting path id: path2)
(Change tool to Default tool)

G00 Z 5.0000
G00 X 27.4505 Y 11.3201

G01 Z -1.0000 F 100.0000(Penetrate)
G01 X 27.4225 Y 11.3412 Z -1.0000 F 3500.0000
G01 X 27.3903 Y 11.3252 Z -1.0000
G01 X 27.3653 Y 11.3076 Z -1.0000
G01 X 27.3535 Y 11.3170 Z -1.0000
G03 X 27.2834 Y 11.3959 Z -1.0000 I -0.0807 J -0.0011
G03 X 27.1511 Y 11.3438 Z -1.0000 I -0.0192 J -0.1452
G01 X 27.1258 Y 11.3359 Z -1.0000
G01 X 27.1162 Y 11.3538 Z -1.0000
G01 X 27.1119 Y 11.3875 Z -1.0000
G01 X 27.0935 Y 11.3896 Z -1.0000
G01 X 27.0999 Y 11.3210 Z -1.0000
G03 X 27.2813 Y 11.2629 Z -1.0000 I 0.1905 J 0.2825
G03 X 27.4344 Y 11.2860 Z -1.0000 I 0.0119 J 0.4410
G01 X 27.4505 Y 11.3201 Z -1.0000
G01 X 27.4505 Y 11.3201 Z -1.0000
G00 Z 5.0000

(End cutting path id: path2)


(Start cutting path id: path2)
(Change tool to Default tool)

G00 Z 5.0000
G00 X 27.2627 Y 11.5165

G01 Z -1.0000 F 100.0000(Penetrate)
G01 X 27.2888 Y 11.5248 Z -1.0000 F 3500.0000
G01 X 27.2942 Y 11.5145 Z -1.0000
G03 X 27.2884 Y 11.4758 Z -1.0000 I 0.0439 J -0.0264
G01 X 27.3074 Y 11.4609 Z -1.0000
G01 X 27.3391 Y 11.4746 Z -1.0000
G03 X 27.3528 Y 11.5090 Z -1.0000 I -0.0365 J 0.0344
G01 X 27.3680 Y 11.5267 Z -1.0000
G02 X 27.4064 Y 11.5170 Z -1.0000 I 0.0076 J -0.0507
G03 X 27.5413 Y 11.4750 Z -1.0000 I 0.1268 J 0.1696
G01 X 27.5884 Y 11.5240 Z -1.0000
G03 X 27.4395 Y 11.6757 Z -1.0000 I -0.1517 J 0.0000
G03 X 27.1714 Y 11.5318 Z -1.0000 I -0.0058 J -0.3109
G01 X 27.1513 Y 11.5224 Z -1.0000
G01 X 27.1393 Y 11.5359 Z -1.0000
G01 X 27.1218 Y 11.5724 Z -1.0000
G03 X 27.0744 Y 11.5895 Z -1.0000 I -0.0474 J -0.0575
G03 X 27.0275 Y 11.5721 Z -1.0000 I -0.0000 J -0.0720
G01 X 27.0101 Y 11.5343 Z -1.0000
G03 X 27.0802 Y 11.4591 Z -1.0000 I 0.0754 J 0.0000
G03 X 27.2627 Y 11.5165 Z -1.0000 I 0.0184 J 0.2604
G01 X 27.2627 Y 11.5165 Z -1.0000
G00 Z 5.0000

(End cutting path id: path2)


(Start cutting path id: path2)
(Change tool to Default tool)

G00 Z 5.0000
G00 X 27.1450 Y 11.7699

G01 Z -1.0000 F 100.0000(Penetrate)
G03 X 27.1293 Y 11.8718 Z -1.0000 I -0.1510 J 0.0288 F 3500.0000
G03 X 27.0658 Y 11.9165 Z -1.0000 I -0.0766 J -0.0414
G03 X 26.9570 Y 11.8811 Z -1.0000 I -0.0192 J -0.1260
G03 X 26.9372 Y 11.7893 Z -1.0000 I 0.0604 J -0.0611
G03 X 27.0535 Y 11.7011 Z -1.0000 I 0.1292 J 0.0496
G03 X 27.1450 Y 11.7699 Z -1.0000 I 0.0079 J 0.0848
G01 X 27.1450 Y 11.7699 Z -1.0000
G00 Z 5.0000

(End cutting path id: path2)


(Start cutting path id: path2)
(Change tool to Default tool)

G00 Z 5.0000
G00 X 27.3652 Y 11.8464

G01 Z -1.0000 F 100.0000(Penetrate)
G03 X 27.3675 Y 11.9166 Z -1.0000 I -0.1538 J 0.0402 F 3500.0000
G01 X 27.3488 Y 11.9321 Z -1.0000
G01 X 27.3240 Y 11.9175 Z -1.0000
G03 X 27.3070 Y 11.8571 Z -1.0000 I 0.1180 J -0.0658
G01 X 27.2921 Y 11.8462 Z -1.0000
G01 X 27.2671 Y 11.8678 Z -1.0000
G01 X 27.2445 Y 11.8788 Z -1.0000
G01 X 27.2273 Y 11.8571 Z -1.0000
G03 X 27.2869 Y 11.7907 Z -1.0000 I 0.0646 J -0.0020
G03 X 27.3652 Y 11.8464 Z -1.0000 I 0.0058 J 0.0747
G01 X 27.3652 Y 11.8464 Z -1.0000
G00 Z 5.0000

(End cutting path id: path2)


(Start cutting path id: path2)
(Change tool to Default tool)

G00 Z 5.0000
G00 X 27.4813 Y 11.8464

G01 Z -1.0000 F 100.0000(Penetrate)
G03 X 27.4739 Y 11.9247 Z -1.0000 I -0.4154 J -0.0000 F 3500.0000
G01 X 27.4649 Y 11.9321 Z -1.0000
G01 X 27.4540 Y 11.9250 Z -1.0000
G03 X 27.4261 Y 11.8464 Z -1.0000 I 0.4466 J -0.2027
G03 X 27.4238 Y 11.7762 Z -1.0000 I 0.1538 J -0.0402
G01 X 27.4425 Y 11.7607 Z -1.0000
G01 X 27.4661 Y 11.7760 Z -1.0000
G03 X 27.4813 Y 11.8464 Z -1.0000 I -0.1555 J 0.0705
G01 X 27.4813 Y 11.8464 Z -1.0000
G00 Z 5.0000

(End cutting path id: path2)


(Start cutting path id: path2)
(Change tool to Default tool)

G00 Z 5.0000
G00 X 27.6286 Y 12.3477

G01 Z -1.0000 F 100.0000(Penetrate)
G01 X 27.6235 Y 12.3851 Z -1.0000 F 3500.0000
G01 X 27.5871 Y 12.4034 Z -1.0000
G03 X 27.5408 Y 12.3865 Z -1.0000 I 0.0000 J -0.0718
G01 X 27.5235 Y 12.3498 Z -1.0000
G01 X 27.5111 Y 12.3328 Z -1.0000
G01 X 27.4914 Y 12.3391 Z -1.0000
G03 X 27.4534 Y 12.3714 Z -1.0000 I -0.0870 J -0.0639
G03 X 27.3806 Y 12.3955 Z -1.0000 I -0.1159 J -0.2276
G01 X 27.3520 Y 12.3817 Z -1.0000
G01 X 27.3559 Y 12.3506 Z -1.0000
G03 X 27.5240 Y 12.2765 Z -1.0000 I 0.1705 J 0.1593
G03 X 27.6286 Y 12.3477 Z -1.0000 I 0.0012 J 0.1109
G01 X 27.6286 Y 12.3477 Z -1.0000
G00 Z 5.0000

(End cutting path id: path2)


(Start cutting path id: path2)
(Change tool to Default tool)

G00 Z 5.0000
G00 X 27.3349 Y 12.5507

G01 Z -1.0000 F 100.0000(Penetrate)
G01 X 27.3417 Y 12.5871 Z -1.0000 F 3500.0000
G01 X 27.3104 Y 12.6058 Z -1.0000
G03 X 27.2435 Y 12.5815 Z -1.0000 I 0.0100 J -0.1319
G01 X 27.2243 Y 12.5442 Z -1.0000
G01 X 27.2553 Y 12.5149 Z -1.0000
G03 X 27.3349 Y 12.5507 Z -1.0000 I -0.0072 J 0.1225
G01 X 27.3349 Y 12.5507 Z -1.0000
G00 Z 5.0000

(End cutting path id: path2)


(Start cutting path id: path2)
(Change tool to Default tool)

G00 Z 5.0000
G00 X 27.0822 Y 12.5828

G01 Z -1.0000 F 100.0000(Penetrate)
G01 X 27.0689 Y 12.5855 Z -1.0000 F 3500.0000
G01 X 27.0563 Y 12.5569 Z -1.0000
G03 X 27.0655 Y 12.5034 Z -1.0000 I 0.1290 J -0.0054
G01 X 27.0788 Y 12.5006 Z -1.0000
G01 X 27.0914 Y 12.5293 Z -1.0000
G03 X 27.0822 Y 12.5828 Z -1.0000 I -0.1295 J 0.0054
G01 X 27.0822 Y 12.5828 Z -1.0000
G00 Z 5.0000

(End cutting path id: path2)


(Start cutting path id: path2)
(Change tool to Default tool)

G00 Z 5.0000
G00 X 26.9726 Y 12.5433

G01 Z -1.0000 F 100.0000(Penetrate)
G01 X 26.9537 Y 12.5433 Z -1.0000 F 3500.0000
G01 X 26.9486 Y 12.5193 Z -1.0000
G03 X 26.9830 Y 12.4665 Z -1.0000 I 0.1396 J 0.0532
G01 X 27.0018 Y 12.4665 Z -1.0000
G01 X 27.0069 Y 12.4904 Z -1.0000
G03 X 26.9726 Y 12.5433 Z -1.0000 I -0.1396 J -0.0532
G01 X 26.9726 Y 12.5433 Z -1.0000
G00 Z 5.0000

(End cutting path id: path2)


(Start cutting path id: path2)
(Change tool to Default tool)

G00 Z 5.0000
G00 X 27.0386 Y 12.3498

G01 Z -1.0000 F 100.0000(Penetrate)
G03 X 27.0225 Y 12.3871 Z -1.0000 I -0.0512 J 0.0000 F 3500.0000
G03 X 26.9815 Y 12.4033 Z -1.0000 I -0.0409 J -0.0437
G03 X 26.9404 Y 12.3872 Z -1.0000 I -0.0000 J -0.0606
G03 X 26.9238 Y 12.3498 Z -1.0000 I 0.0353 J -0.0380
G01 X 26.9108 Y 12.3397 Z -1.0000
G01 X 26.8832 Y 12.3593 Z -1.0000
G03 X 26.8407 Y 12.3982 Z -1.0000 I -0.0928 J -0.0587
G01 X 26.8154 Y 12.3943 Z -1.0000
G01 X 26.8180 Y 12.3300 Z -1.0000
G03 X 26.9384 Y 12.2901 Z -1.0000 I 0.1099 J 0.1298
G03 X 27.0188 Y 12.3149 Z -1.0000 I -0.0110 J 0.1781
G01 X 27.0387 Y 12.3498 Z -1.0000
G01 X 27.0386 Y 12.3498 Z -1.0000
G00 Z 5.0000

(End cutting path id: path2)


(Start cutting path id: path2)
(Change tool to Default tool)

G00 Z 5.0000
G00 X 27.1672 Y 12.3391

G01 Z -1.0000 F 100.0000(Penetrate)
G03 X 27.1539 Y 12.3901 Z -1.0000 I -0.1051 J 0.0000 F 3500.0000
G01 X 27.1315 Y 12.4033 Z -1.0000
G01 X 27.1090 Y 12.3901 Z -1.0000
G03 X 27.0958 Y 12.3391 Z -1.0000 I 0.0919 J -0.0510
G03 X 27.1090 Y 12.2880 Z -1.0000 I 0.1051 J -0.0000
G01 X 27.1315 Y 12.2748 Z -1.0000
G01 X 27.1539 Y 12.2880 Z -1.0000
G03 X 27.1672 Y 12.3391 Z -1.0000 I -0.0919 J 0.0510
G01 X 27.1672 Y 12.3391 Z -1.0000
G00 Z 5.0000

(End cutting path id: path2)


(Start cutting path id: path2)
(Change tool to Default tool)

G00 Z 5.0000
G00 X 26.7395 Y 12.3685

G01 Z -1.0000 F 100.0000(Penetrate)
G01 X 26.7261 Y 12.3713 Z -1.0000 F 3500.0000
G01 X 26.7136 Y 12.3426 Z -1.0000
G03 X 26.7228 Y 12.2891 Z -1.0000 I 0.1290 J -0.0054
G01 X 26.7361 Y 12.2864 Z -1.0000
G01 X 26.7486 Y 12.3150 Z -1.0000
G03 X 26.7395 Y 12.3685 Z -1.0000 I -0.1296 J 0.0054
G01 X 26.7395 Y 12.3685 Z -1.0000
G00 Z 5.0000

(End cutting path id: path2)


(Start cutting path id: path2)
(Change tool to Default tool)

G00 Z 5.0000
G00 X 26.9672 Y 11.5247

G01 Z -1.0000 F 100.0000(Penetrate)
G01 X 26.9438 Y 11.5630 Z -1.0000 F 3500.0000
G03 X 26.8601 Y 11.5796 Z -1.0000 I -0.0709 J -0.1382
G03 X 26.7799 Y 11.5390 Z -1.0000 I 0.0099 J -0.1191
G01 X 26.7816 Y 11.4895 Z -1.0000
G03 X 26.9063 Y 11.4510 Z -1.0000 I 0.0987 J 0.0987
G03 X 26.9672 Y 11.5247 Z -1.0000 I -0.0140 J 0.0736
G01 X 26.9672 Y 11.5247 Z -1.0000
G00 Z 5.0000

(End cutting path id: path2)


(Start cutting path id: path2)
(Change tool to Default tool)

G00 Z 5.0000
G00 X 26.9458 Y 11.2007

G01 Z -1.0000 F 100.0000(Penetrate)
G01 X 26.6459 Y 11.2253 Z -1.0000 F 3500.0000
G01 X 26.6459 Y 12.1035 Z -1.0000
G01 X 26.6459 Y 12.9817 Z -1.0000
G01 X 27.6634 Y 12.9932 Z -1.0000
G03 X 28.6654 Y 13.0199 Z -1.0000 I -0.3659 J 32.4994
G01 X 28.6809 Y 13.0360 Z -1.0000
G03 X 27.9560 Y 13.7453 Z -1.0000 I -0.7087 J 0.0008
G03 X 26.6148 Y 12.9888 Z -1.0000 I 0.0373 J -1.6335
G03 X 26.3202 Y 11.9570 Z -1.0000 I 1.5916 J -1.0125
G03 X 26.6331 Y 11.2124 Z -1.0000 I 1.0684 J 0.0110
G03 X 26.6932 Y 11.1828 Z -1.0000 I 0.0737 J 0.0737
G03 X 26.9651 Y 11.1686 Z -1.0000 I 0.2255 J 1.7072
G01 X 27.2457 Y 11.1762 Z -1.0000
G01 X 26.9458 Y 11.2007 Z -1.0000
G00 Z 5.0000

(End cutting path id: path2)


(Start cutting path id: path2)
(Change tool to Default tool)

G00 Z 5.0000
G00 X 28.5530 Y 11.3072

G01 Z -1.0000 F 100.0000(Penetrate)
G01 X 28.5640 Y 11.3173 Z -1.0000 F 3500.0000
G01 X 28.5851 Y 11.3047 Z -1.0000
G03 X 28.6266 Y 11.2748 Z -1.0000 I 0.0586 J 0.0375
G03 X 28.7558 Y 11.2614 Z -1.0000 I 0.1105 J 0.4359
G03 X 28.8574 Y 11.3047 Z -1.0000 I -0.0065 J 0.1561
G01 X 28.8522 Y 11.3538 Z -1.0000
G01 X 28.8238 Y 11.3543 Z -1.0000
G01 X 28.8094 Y 11.3296 Z -1.0000
G01 X 28.7930 Y 11.3139 Z -1.0000
G02 X 28.7451 Y 11.3323 Z -1.0000 I 0.0034 J 0.0802
G03 X 28.6973 Y 11.3505 Z -1.0000 I -0.0505 J -0.0608
G01 X 28.6808 Y 11.3345 Z -1.0000
G01 X 28.6646 Y 11.3225 Z -1.0000
G02 X 28.6078 Y 11.3564 Z -1.0000 I 0.0389 J 0.1297
G03 X 28.5428 Y 11.3954 Z -1.0000 I -0.1104 J -0.1104
G01 X 28.5193 Y 11.3833 Z -1.0000
G01 X 28.4935 Y 11.3592 Z -1.0000
G02 X 28.4381 Y 11.3624 Z -1.0000 I -0.0227 J 0.0882
G03 X 28.3804 Y 11.3637 Z -1.0000 I -0.0307 J -0.0801
G03 X 28.3357 Y 11.3284 Z -1.0000 I 0.0263 J -0.0792
G01 X 28.3176 Y 11.3262 Z -1.0000
G01 X 28.3057 Y 11.3579 Z -1.0000
G02 X 28.3473 Y 11.4198 Z -1.0000 I 0.0753 J -0.0057
G02 X 28.5309 Y 11.4701 Z -1.0000 I 0.2195 J -0.4403
G03 X 28.6228 Y 11.4921 Z -1.0000 I -0.0214 J 0.2938
G01 X 28.6380 Y 11.5148 Z -1.0000
G01 X 28.6500 Y 11.5301 Z -1.0000
G01 X 28.6805 Y 11.5253 Z -1.0000
G03 X 28.7233 Y 11.5155 Z -1.0000 I 0.0359 J 0.0581
G03 X 28.7901 Y 11.5366 Z -1.0000 I -0.0176 J 0.1716
G01 X 28.7865 Y 11.5558 Z -1.0000
G03 X 28.5226 Y 11.5749 Z -1.0000 I -0.2681 J -1.8720
G03 X 28.2429 Y 11.5666 Z -1.0000 I -0.0098 J -4.3741
G01 X 28.2417 Y 11.5575 Z -1.0000
G02 X 28.2827 Y 11.5304 Z -1.0000 I -0.0311 J -0.0917
G01 X 28.2953 Y 11.4976 Z -1.0000
G01 X 28.2815 Y 11.4804 Z -1.0000
G01 X 28.2458 Y 11.4864 Z -1.0000
G01 X 28.2289 Y 11.4844 Z -1.0000
G01 X 28.2269 Y 11.4675 Z -1.0000
G01 X 28.2287 Y 11.4329 Z -1.0000
G01 X 28.2014 Y 11.4146 Z -1.0000
G01 X 28.1903 Y 11.4039 Z -1.0000
G01 X 28.1989 Y 11.3896 Z -1.0000
G02 X 28.2376 Y 11.3580 Z -1.0000 I -0.0315 J -0.0780
G02 X 28.2525 Y 11.3087 Z -1.0000 I -0.0747 J -0.0494
G01 X 28.2766 Y 11.2743 Z -1.0000
G03 X 28.4024 Y 11.2549 Z -1.0000 I 0.1132 J 0.3158
G03 X 28.5330 Y 11.2794 Z -1.0000 I -0.0169 J 0.4497
G01 X 28.5530 Y 11.3071 Z -1.0000
G01 X 28.5530 Y 11.3072 Z -1.0000
G00 Z 5.0000

(End cutting path id: path2)


(Start cutting path id: path2)
(Change tool to Default tool)

G00 Z 5.0000
G00 X 28.7884 Y 11.8087

G01 Z -1.0000 F 100.0000(Penetrate)
G03 X 28.7571 Y 11.8807 Z -1.0000 I -0.1189 J -0.0087 F 3500.0000
G03 X 28.6883 Y 11.9174 Z -1.0000 I -0.0866 J -0.0798
G03 X 28.6128 Y 11.9110 Z -1.0000 I -0.0244 J -0.1602
G01 X 28.5952 Y 11.8865 Z -1.0000
G01 X 28.6100 Y 11.8669 Z -1.0000
G03 X 28.6487 Y 11.8716 Z -1.0000 I 0.0136 J 0.0491
G01 X 28.6575 Y 11.8665 Z -1.0000
G01 X 28.6487 Y 11.8441 Z -1.0000
G03 X 28.6224 Y 11.7582 Z -1.0000 I 0.0754 J -0.0700
G03 X 28.6701 Y 11.7072 Z -1.0000 I 0.0614 J 0.0096
G03 X 28.7549 Y 11.7282 Z -1.0000 I 0.0215 J 0.0947
G03 X 28.7883 Y 11.8087 Z -1.0000 I -0.0631 J 0.0734
G01 X 28.7884 Y 11.8087 Z -1.0000
G00 Z 5.0000

(End cutting path id: path2)


(Start cutting path id: path2)
(Change tool to Default tool)

G00 Z 5.0000
G00 X 28.6112 Y 12.3069

G01 Z -1.0000 F 100.0000(Penetrate)
G01 X 28.6166 Y 12.3230 Z -1.0000 F 3500.0000
G01 X 28.6305 Y 12.3207 Z -1.0000
G03 X 28.7539 Y 12.2428 Z -1.0000 I 0.1563 J 0.1109
G01 X 28.8100 Y 12.2893 Z -1.0000
G01 X 28.8223 Y 12.2980 Z -1.0000
G02 X 28.8510 Y 12.2754 Z -1.0000 I -0.0177 J -0.0519
G01 X 28.8716 Y 12.2709 Z -1.0000
G01 X 28.8848 Y 12.2975 Z -1.0000
G03 X 28.8471 Y 12.3496 Z -1.0000 I -0.0612 J -0.0046
G03 X 28.6796 Y 12.3826 Z -1.0000 I -0.1659 J -0.3995
G03 X 28.5035 Y 12.3595 Z -1.0000 I 0.0026 J -0.7010
G01 X 28.4809 Y 12.3303 Z -1.0000
G01 X 28.4941 Y 12.3022 Z -1.0000
G01 X 28.5166 Y 12.3007 Z -1.0000
G01 X 28.5399 Y 12.3004 Z -1.0000
G01 X 28.5523 Y 12.2773 Z -1.0000
G01 X 28.5650 Y 12.2447 Z -1.0000
G01 X 28.5938 Y 12.2320 Z -1.0000
G01 X 28.6137 Y 12.2478 Z -1.0000
G03 X 28.6112 Y 12.3069 Z -1.0000 I -0.1084 J 0.0251
G01 X 28.6112 Y 12.3069 Z -1.0000
G00 Z 5.0000

(End cutting path id: path2)


(Start cutting path id: path2)
(Change tool to Default tool)

G00 Z 5.0000
G00 X 28.6808 Y 12.5105

G01 Z -1.0000 F 100.0000(Penetrate)
G03 X 28.6620 Y 12.5559 Z -1.0000 I -0.0643 J 0.0000 F 3500.0000
G03 X 28.6166 Y 12.5747 Z -1.0000 I -0.0454 J -0.0454
G03 X 28.5664 Y 12.5393 Z -1.0000 I 0.0000 J -0.0533
G03 X 28.5809 Y 12.4748 Z -1.0000 I 0.0583 J -0.0208
G03 X 28.6454 Y 12.4602 Z -1.0000 I 0.0438 J 0.0438
G03 X 28.6808 Y 12.5105 Z -1.0000 I -0.0179 J 0.0502
G01 X 28.6808 Y 12.5105 Z -1.0000
G00 Z 5.0000

(End cutting path id: path2)


(Start cutting path id: path2)
(Change tool to Default tool)

G00 Z 5.0000
G00 X 28.8957 Y 12.5089

G01 Z -1.0000 F 100.0000(Penetrate)
G01 X 28.9077 Y 12.5167 Z -1.0000 F 3500.0000
G02 X 28.9418 Y 12.4890 Z -1.0000 I -0.0320 J -0.0743
G03 X 28.9824 Y 12.4658 Z -1.0000 I 0.0454 J 0.0321
G01 X 29.0106 Y 12.4831 Z -1.0000
G01 X 29.0376 Y 12.5015 Z -1.0000
G01 X 29.0709 Y 12.4831 Z -1.0000
G01 X 29.0946 Y 12.4724 Z -1.0000
G01 X 29.1092 Y 12.4890 Z -1.0000
G01 X 29.1245 Y 12.5040 Z -1.0000
G01 X 29.1521 Y 12.4890 Z -1.0000
G01 X 29.1787 Y 12.4763 Z -1.0000
G01 X 29.1943 Y 12.4933 Z -1.0000
G01 X 29.1652 Y 12.5328 Z -1.0000
G03 X 28.9593 Y 12.5640 Z -1.0000 I -0.2126 J -0.7064
G03 X 28.7489 Y 12.5407 Z -1.0000 I -0.0079 J -0.8880
G01 X 28.7237 Y 12.5088 Z -1.0000
G01 X 28.7439 Y 12.4733 Z -1.0000
G03 X 28.8094 Y 12.4580 Z -1.0000 I 0.0571 J 0.0961
G03 X 28.8788 Y 12.4797 Z -1.0000 I -0.0123 J 0.1606
G01 X 28.8957 Y 12.5088 Z -1.0000
G01 X 28.8957 Y 12.5089 Z -1.0000
G00 Z 5.0000

(End cutting path id: path2)


(Start cutting path id: path2)
(Change tool to Default tool)

G00 Z 5.0000
G00 X 29.0236 Y 12.3152

G01 Z -1.0000 F 100.0000(Penetrate)
G03 X 29.0142 Y 12.3503 Z -1.0000 I -0.0707 J -0.0000 F 3500.0000
G03 X 28.9879 Y 12.3775 Z -1.0000 I -0.0669 J -0.0383
G01 X 28.9662 Y 12.3743 Z -1.0000
G03 X 28.9522 Y 12.3372 Z -1.0000 I 0.0419 J -0.0371
G03 X 28.9653 Y 12.2879 Z -1.0000 I 0.0992 J 0.0000
G01 X 28.9879 Y 12.2748 Z -1.0000
G01 X 29.0125 Y 12.2859 Z -1.0000
G01 X 29.0236 Y 12.3152 Z -1.0000
G01 X 29.0236 Y 12.3152 Z -1.0000
G00 Z 5.0000

(End cutting path id: path2)


(Start cutting path id: path2)
(Change tool to Default tool)

G00 Z 5.0000
G00 X 28.8536 Y 12.7488

G01 Z -1.0000 F 100.0000(Penetrate)
G03 X 28.8763 Y 12.8201 Z -1.0000 I -0.1810 J 0.0969 F 3500.0000
G01 X 28.8644 Y 12.8349 Z -1.0000
G02 X 28.8309 Y 12.8393 Z -1.0000 I 0.0513 J 0.5273
G02 X 28.7365 Y 12.8558 Z -1.0000 I 0.6314 J 3.8945
G03 X 28.6282 Y 12.8234 Z -1.0000 I -0.0227 J -0.1215
G03 X 28.6078 Y 12.7321 Z -1.0000 I 0.0586 J -0.0610
G03 X 28.7184 Y 12.6614 Z -1.0000 I 0.1032 J 0.0396
G03 X 28.8536 Y 12.7488 Z -1.0000 I -0.0112 J 0.1657
G01 X 28.8536 Y 12.7488 Z -1.0000
G00 Z 5.0000

(End cutting path id: path2)


(Start cutting path id: path2)
(Change tool to Default tool)

G00 Z 5.0000
G00 X 29.0394 Y 13.0370

G01 Z -1.0000 F 100.0000(Penetrate)
G01 X 29.0320 Y 13.0528 Z -1.0000 F 3500.0000
G03 X 28.9135 Y 13.0537 Z -1.0000 I -0.0630 J -0.4743
G03 X 28.7743 Y 13.0297 Z -1.0000 I 0.1468 J -1.2621
G01 X 28.7665 Y 13.0199 Z -1.0000
G03 X 28.8617 Y 12.9305 Z -1.0000 I 0.0896 J 0.0000
G03 X 29.0394 Y 13.0370 Z -1.0000 I -0.0142 J 0.2251
G01 X 29.0394 Y 13.0370 Z -1.0000
G00 Z 5.0000

(End cutting path id: path2)


(Start cutting path id: path2)
(Change tool to Default tool)

G00 Z 5.0000
G00 X 29.1092 Y 13.4101

G01 Z -1.0000 F 100.0000(Penetrate)
G03 X 29.0904 Y 13.4556 Z -1.0000 I -0.0643 J 0.0000 F 3500.0000
G03 X 29.0450 Y 13.4744 Z -1.0000 I -0.0454 J -0.0454
G03 X 28.9948 Y 13.4390 Z -1.0000 I 0.0000 J -0.0533
G03 X 29.0093 Y 13.3744 Z -1.0000 I 0.0583 J -0.0208
G03 X 29.0738 Y 13.3599 Z -1.0000 I 0.0438 J 0.0438
G03 X 29.1092 Y 13.4101 Z -1.0000 I -0.0179 J 0.0502
G01 X 29.1092 Y 13.4101 Z -1.0000
G00 Z 5.0000

(End cutting path id: path2)


(Start cutting path id: path2)
(Change tool to Default tool)

G00 Z 5.0000
G00 X 29.3234 Y 13.4101

G01 Z -1.0000 F 100.0000(Penetrate)
G01 X 29.3029 Y 13.4469 Z -1.0000 F 3500.0000
G03 X 29.2378 Y 13.4626 Z -1.0000 I -0.0569 J -0.0929
G03 X 29.1690 Y 13.4404 Z -1.0000 I 0.0117 J -0.1537
G01 X 29.1521 Y 13.4101 Z -1.0000
G01 X 29.1690 Y 13.3799 Z -1.0000
G03 X 29.2378 Y 13.3577 Z -1.0000 I 0.0803 J 0.1310
G03 X 29.3029 Y 13.3734 Z -1.0000 I 0.0083 J 0.1084
G01 X 29.3234 Y 13.4101 Z -1.0000
G01 X 29.3234 Y 13.4101 Z -1.0000
G00 Z 5.0000

(End cutting path id: path2)


(Start cutting path id: path2)
(Change tool to Default tool)

G00 Z 5.0000
G00 X 29.2760 Y 13.5922

G01 Z -1.0000 F 100.0000(Penetrate)
G01 X 29.3215 Y 13.6169 Z -1.0000 F 3500.0000
G02 X 29.3787 Y 13.5857 Z -1.0000 I -0.0049 J -0.0770
G03 X 29.4373 Y 13.5423 Z -1.0000 I 0.1002 J 0.0741
G01 X 29.4694 Y 13.5536 Z -1.0000
G03 X 29.4725 Y 13.6500 Z -1.0000 I -0.0825 J 0.0510
G01 X 29.4091 Y 13.6672 Z -1.0000
G01 X 29.3766 Y 13.6633 Z -1.0000
G02 X 29.3453 Y 13.6879 Z -1.0000 I 0.0179 J 0.0551
G01 X 29.3422 Y 13.7182 Z -1.0000
G01 X 29.3611 Y 13.7314 Z -1.0000
G03 X 29.4193 Y 13.7913 Z -1.0000 I 0.0000 J 0.0582
G03 X 29.3542 Y 13.9769 Z -1.0000 I -0.3228 J -0.0090
G03 X 29.3083 Y 14.0014 Z -1.0000 I -0.0495 J -0.0374
G03 X 29.2296 Y 13.9841 Z -1.0000 I -0.0086 J -0.1482
G03 X 29.1686 Y 13.9351 Z -1.0000 I 0.1001 J -0.1871
G01 X 29.1694 Y 13.9139 Z -1.0000
G01 X 29.1765 Y 13.8884 Z -1.0000
G02 X 29.1496 Y 13.8356 Z -1.0000 I -0.1300 J 0.0328
G03 X 29.1320 Y 13.7863 Z -1.0000 I 0.0590 J -0.0489
G01 X 29.1500 Y 13.7541 Z -1.0000
G01 X 29.1810 Y 13.7513 Z -1.0000
G01 X 29.1949 Y 13.7717 Z -1.0000
G01 X 29.2104 Y 13.8016 Z -1.0000
G02 X 29.2592 Y 13.8171 Z -1.0000 I 0.0488 J -0.0691
G02 X 29.3085 Y 13.8022 Z -1.0000 I 0.0000 J -0.0889
G01 X 29.3234 Y 13.7743 Z -1.0000
G01 X 29.3105 Y 13.7443 Z -1.0000
G01 X 29.2781 Y 13.7314 Z -1.0000
G01 X 29.2545 Y 13.7192 Z -1.0000
G01 X 29.2538 Y 13.6972 Z -1.0000
G01 X 29.2601 Y 13.6631 Z -1.0000
G02 X 29.2356 Y 13.6008 Z -1.0000 I -0.1757 J 0.0333
G02 X 29.2071 Y 13.5773 Z -1.0000 I -0.0503 J 0.0318
G01 X 29.1956 Y 13.5850 Z -1.0000
G01 X 29.1795 Y 13.6158 Z -1.0000
G03 X 29.1306 Y 13.6314 Z -1.0000 I -0.0488 J -0.0683
G03 X 29.0841 Y 13.6004 Z -1.0000 I 0.0000 J -0.0504
G03 X 29.0949 Y 13.5458 Z -1.0000 I 0.0462 J -0.0193
G03 X 29.1836 Y 13.5215 Z -1.0000 I 0.0656 J 0.0656
G03 X 29.2760 Y 13.5922 Z -1.0000 I -0.0369 J 0.1440
G01 X 29.2760 Y 13.5922 Z -1.0000
G00 Z 5.0000

(End cutting path id: path2)


(Start cutting path id: path2)
(Change tool to Default tool)

G00 Z 5.0000
G00 X 29.5327 Y 13.4449

G01 Z -1.0000 F 100.0000(Penetrate)
G01 X 29.5203 Y 13.4636 Z -1.0000 F 3500.0000
G01 X 29.5069 Y 13.4575 Z -1.0000
G02 X 29.4791 Y 13.4221 Z -1.0000 I -0.0541 J 0.0139
G01 X 29.4536 Y 13.4289 Z -1.0000
G01 X 29.4247 Y 13.4429 Z -1.0000
G01 X 29.3984 Y 13.4225 Z -1.0000
G01 X 29.4057 Y 13.3825 Z -1.0000
G03 X 29.4567 Y 13.3573 Z -1.0000 I 0.0567 J 0.0506
G03 X 29.5101 Y 13.3793 Z -1.0000 I 0.0049 J 0.0641
G03 X 29.5327 Y 13.4450 Z -1.0000 I -0.0700 J 0.0607
G01 X 29.5327 Y 13.4449 Z -1.0000
G00 Z 5.0000

(End cutting path id: path2)


(Start cutting path id: path2)
(Change tool to Default tool)

G00 Z 5.0000
G00 X 29.8375 Y 13.6873

G01 Z -1.0000 F 100.0000(Penetrate)
G01 X 29.8375 Y 14.1598 Z -1.0000 F 3500.0000
G01 X 30.3745 Y 14.1598 Z -1.0000
G01 X 30.9114 Y 14.1598 Z -1.0000
G01 X 30.8992 Y 13.6993 Z -1.0000
G01 X 30.8871 Y 13.2388 Z -1.0000
G01 X 30.3623 Y 13.2268 Z -1.0000
G01 X 29.8375 Y 13.2147 Z -1.0000
G01 X 29.8375 Y 13.6873 Z -1.0000
G00 Z 5.0000

(End cutting path id: path2)


(Start cutting path id: path2)
(Change tool to Default tool)

G00 Z 5.0000
G00 X 30.1374 Y 13.6029

G01 Z -1.0000 F 100.0000(Penetrate)
G01 X 30.1499 Y 13.6332 Z -1.0000 F 3500.0000
G01 X 30.1802 Y 13.6457 Z -1.0000
G01 X 30.2105 Y 13.6332 Z -1.0000
G01 X 30.2231 Y 13.6029 Z -1.0000
G01 X 30.2105 Y 13.5726 Z -1.0000
G01 X 30.1802 Y 13.5600 Z -1.0000
G01 X 30.1499 Y 13.5726 Z -1.0000
G01 X 30.1374 Y 13.6029 Z -1.0000
G01 X 30.1374 Y 13.6029 Z -1.0000
G00 Z 5.0000

(End cutting path id: path2)


(Start cutting path id: path2)
(Change tool to Default tool)

G00 Z 5.0000
G00 X 30.3284 Y 13.4500

G01 Z -1.0000 F 100.0000(Penetrate)
G02 X 30.3400 Y 13.5400 Z -1.0000 I 0.1921 J 0.0210 F 3500.0000
G02 X 30.3771 Y 13.5771 Z -1.0000 I 0.0602 J -0.0230
G02 X 30.4216 Y 13.5757 Z -1.0000 I 0.0206 J -0.0536
G01 X 30.4406 Y 13.5480 Z -1.0000
G01 X 30.4509 Y 13.5390 Z -1.0000
G01 X 30.4657 Y 13.5496 Z -1.0000
G02 X 30.4948 Y 13.5810 Z -1.0000 I 0.0557 J -0.0225
G01 X 30.5261 Y 13.5795 Z -1.0000
G01 X 30.5416 Y 13.5837 Z -1.0000
G01 X 30.5434 Y 13.6115 Z -1.0000
G03 X 30.2909 Y 13.7813 Z -1.0000 I -0.2472 J -0.0949
G03 X 30.1160 Y 13.6029 Z -1.0000 I 0.0036 J -0.1785
G03 X 30.1358 Y 13.5583 Z -1.0000 I 0.0600 J 0.0000
G03 X 30.1879 Y 13.5381 Z -1.0000 I 0.0527 J 0.0585
G02 X 30.2743 Y 13.5039 Z -1.0000 I -0.0010 J -0.1286
G01 X 30.2623 Y 13.4693 Z -1.0000
G02 X 30.2017 Y 13.4668 Z -1.0000 I -0.0606 J 0.7224
G02 X 30.1695 Y 13.4693 Z -1.0000 I -0.0000 J 0.2059
G01 X 30.1387 Y 13.4439 Z -1.0000
G03 X 30.1659 Y 13.3744 Z -1.0000 I 0.0933 J -0.0035
G03 X 30.1984 Y 13.3553 Z -1.0000 I 0.0528 J 0.0528
G03 X 30.2671 Y 13.3458 Z -1.0000 I 0.0687 J 0.2435
G03 X 30.3115 Y 13.3712 Z -1.0000 I 0.0000 J 0.0514
G03 X 30.3283 Y 13.4499 Z -1.0000 I -0.1102 J 0.0648
G01 X 30.3284 Y 13.4500 Z -1.0000
G00 Z 5.0000

(End cutting path id: path2)


(Start cutting path id: path2)
(Change tool to Default tool)

G00 Z 5.0000
G00 X 30.5229 Y 13.4340

G01 Z -1.0000 F 100.0000(Penetrate)
G01 X 30.5087 Y 13.4601 Z -1.0000 F 3500.0000
G03 X 30.4600 Y 13.4743 Z -1.0000 I -0.0487 J -0.0760
G01 X 30.4255 Y 13.4548 Z -1.0000
G03 X 30.4217 Y 13.4103 Z -1.0000 I 0.0437 J -0.0262
G01 X 30.4798 Y 13.3796 Z -1.0000
G03 X 30.5229 Y 13.4340 Z -1.0000 I -0.0128 J 0.0545
G01 X 30.5229 Y 13.4340 Z -1.0000
G00 Z 5.0000

(End cutting path id: path2)


(Start cutting path id: path2)
(Change tool to Default tool)

G00 Z 5.0000
G00 X 30.6086 Y 13.4101

G01 Z -1.0000 F 100.0000(Penetrate)
G03 X 30.6013 Y 13.4670 Z -1.0000 I -0.2242 J 0.0000 F 3500.0000
G01 X 30.5918 Y 13.4743 Z -1.0000
G01 X 30.5795 Y 13.4676 Z -1.0000
G03 X 30.5503 Y 13.4101 Z -1.0000 I 0.2639 J -0.1701
G03 X 30.5476 Y 13.3609 Z -1.0000 I 0.0751 J -0.0288
G01 X 30.5671 Y 13.3458 Z -1.0000
G01 X 30.5940 Y 13.3605 Z -1.0000
G03 X 30.6086 Y 13.4101 Z -1.0000 I -0.0769 J 0.0496
G01 X 30.6086 Y 13.4101 Z -1.0000
G00 Z 5.0000

(End cutting path id: path2)


(Start cutting path id: path2)
(Change tool to Default tool)

G00 Z 5.0000
G00 X 30.8999 Y 13.2259

G01 Z -1.0000 F 100.0000(Penetrate)
G03 X 31.5765 Y 14.8516 Z -1.0000 I -1.6335 J 1.6335 F 3500.0000
G03 X 30.9131 Y 17.1525 Z -1.0000 I -4.2723 J 0.0144
G03 X 30.8612 Y 17.1817 Z -1.0000 I -0.0530 J -0.0336
G03 X 29.9606 Y 17.1676 Z -1.0000 I -0.2265 J -14.3143
G01 X 29.0450 Y 17.1244 Z -1.0000
G01 X 29.9660 Y 17.1308 Z -1.0000
G01 X 30.8871 Y 17.1372 Z -1.0000
G01 X 30.8992 Y 16.6767 Z -1.0000
G02 X 30.9053 Y 16.2218 Z -1.0000 I -17.1978 J -0.4549
G01 X 30.8992 Y 16.2154 Z -1.0000
G02 X 29.1058 Y 16.1255 Z -1.0000 I -3.4541 J 51.0074
G02 X 26.9994 Y 16.0886 Z -1.0000 I -2.2855 J 70.3202
G01 X 26.6245 Y 16.0877 Z -1.0000
G01 X 26.6245 Y 16.5174 Z -1.0000
G02 X 26.6530 Y 16.9276 Z -1.0000 I 2.9653 J 0.0000
G02 X 26.6880 Y 16.9715 Z -1.0000 I 0.0547 J -0.0076
G02 X 26.7535 Y 16.9858 Z -1.0000 I 0.0799 J -0.2083
G02 X 27.8982 Y 17.0498 Z -1.0000 I 4.2110 J -65.0769
G03 X 28.7026 Y 17.0984 Z -1.0000 I -1.4164 J 30.1008
G01 X 28.7023 Y 17.1092 Z -1.0000
G03 X 26.8540 Y 17.0671 Z -1.0000 I -0.3805 J -23.8901
G03 X 26.6400 Y 16.9824 Z -1.0000 I 0.0228 J -0.3701
G03 X 26.6099 Y 16.9208 Z -1.0000 I 0.0533 J -0.0642
G03 X 26.5817 Y 15.1220 Z -1.0000 I 57.3818 J -1.7987
G03 X 26.5942 Y 13.3124 Z -1.0000 I 130.8414 J 0.0000
G03 X 26.6077 Y 13.2423 Z -1.0000 I 0.2035 J 0.0028
G03 X 26.6564 Y 13.2077 Z -1.0000 I 0.0505 J 0.0194
G03 X 28.7411 Y 13.1746 Z -1.0000 I 2.0847 J 65.6383
G03 X 30.8382 Y 13.1995 Z -1.0000 I -0.0000 J 88.0811
G03 X 30.8999 Y 13.2260 Z -1.0000 I -0.0022 J 0.0903
G01 X 30.8999 Y 13.2259 Z -1.0000
G00 Z 5.0000

(End cutting path id: path2)


(Start cutting path id: path2)
(Change tool to Default tool)

G00 Z 5.0000
G00 X 30.4330 Y 12.7854

G01 Z -1.0000 F 100.0000(Penetrate)
G01 X 30.4287 Y 12.8960 Z -1.0000 F 3500.0000
G01 X 30.3944 Y 12.7889 Z -1.0000
G02 X 30.3689 Y 12.7511 Z -1.0000 I -0.0777 J 0.0249
G01 X 30.3558 Y 12.7568 Z -1.0000
G03 X 30.3369 Y 12.8162 Z -1.0000 I -0.1244 J -0.0069
G01 X 30.3087 Y 12.8318 Z -1.0000
G01 X 30.2809 Y 12.8162 Z -1.0000
G03 X 30.2629 Y 12.7568 Z -1.0000 I 0.1052 J -0.0643
G01 X 30.2480 Y 12.7459 Z -1.0000
G01 X 30.2230 Y 12.7675 Z -1.0000
G01 X 30.1997 Y 12.7814 Z -1.0000
G01 X 30.1832 Y 12.7639 Z -1.0000
G03 X 30.2121 Y 12.7055 Z -1.0000 I 0.0688 J -0.0023
G03 X 30.3087 Y 12.6747 Z -1.0000 I 0.0966 J 0.1358
G03 X 30.4008 Y 12.7097 Z -1.0000 I -0.0000 J 0.1384
G03 X 30.4330 Y 12.7853 Z -1.0000 I -0.0640 J 0.0719
G01 X 30.4330 Y 12.7854 Z -1.0000
G00 Z 5.0000

(End cutting path id: path2)


(Start cutting path id: path2)
(Change tool to Default tool)

G00 Z 5.0000
G00 X 30.4939 Y 12.3006

G01 Z -1.0000 F 100.0000(Penetrate)
G01 X 30.4639 Y 12.3250 Z -1.0000 F 3500.0000
G01 X 30.4320 Y 12.3105 Z -1.0000
G01 X 30.4069 Y 12.2927 Z -1.0000
G01 X 30.3951 Y 12.3019 Z -1.0000
G01 X 30.3777 Y 12.3374 Z -1.0000
G03 X 30.3045 Y 12.3740 Z -1.0000 I -0.1233 J -0.1550
G03 X 30.2452 Y 12.3800 Z -1.0000 I -0.0486 J -0.1860
G01 X 30.2416 Y 12.3705 Z -1.0000
G01 X 30.2424 Y 12.3474 Z -1.0000
G02 X 30.1751 Y 12.2935 Z -1.0000 I -0.1787 J 0.1542
G01 X 30.1762 Y 12.2660 Z -1.0000
G03 X 30.3006 Y 12.2385 Z -1.0000 I 0.1318 J 0.3011
G03 X 30.4764 Y 12.2640 Z -1.0000 I 0.0120 J 0.5351
G01 X 30.4939 Y 12.3006 Z -1.0000
G01 X 30.4939 Y 12.3006 Z -1.0000
G00 Z 5.0000

(End cutting path id: path2)


(Start cutting path id: path2)
(Change tool to Default tool)

G00 Z 5.0000
G00 X 30.5488 Y 11.8029

G01 Z -1.0000 F 100.0000(Penetrate)
G03 X 30.5197 Y 11.8718 Z -1.0000 I -0.1052 J -0.0038 F 3500.0000
G01 X 30.4801 Y 11.8748 Z -1.0000
G03 X 30.4151 Y 11.7504 Z -1.0000 I 0.1029 J -0.1329
G03 X 30.4705 Y 11.6876 Z -1.0000 I 0.0599 J -0.0031
G03 X 30.5229 Y 11.7128 Z -1.0000 I 0.0044 J 0.0578
G03 X 30.5487 Y 11.8029 Z -1.0000 I -0.1249 J 0.0846
G01 X 30.5488 Y 11.8029 Z -1.0000
G00 Z 5.0000

(End cutting path id: path2)


(Start cutting path id: path2)
(Change tool to Default tool)

G00 Z 5.0000
G00 X 30.2849 Y 11.7569

G01 Z -1.0000 F 100.0000(Penetrate)
G03 X 30.2841 Y 11.8583 Z -1.0000 I -0.0809 J 0.0500 F 3500.0000
G03 X 30.1800 Y 11.9203 Z -1.0000 I -0.1143 J -0.0734
G03 X 30.0832 Y 11.8782 Z -1.0000 I -0.0085 J -0.1126
G03 X 30.0680 Y 11.7801 Z -1.0000 I 0.0780 J -0.0623
G03 X 30.1708 Y 11.7010 Z -1.0000 I 0.1161 J 0.0446
G03 X 30.2849 Y 11.7569 Z -1.0000 I 0.0127 J 0.1185
G01 X 30.2849 Y 11.7569 Z -1.0000
G00 Z 5.0000

(End cutting path id: path2)


(Start cutting path id: path2)
(Change tool to Default tool)

G00 Z 5.0000
G00 X 29.9874 Y 11.5037

G01 Z -1.0000 F 100.0000(Penetrate)
G02 X 30.0174 Y 11.5404 Z -1.0000 I 0.1550 J -0.0958 F 3500.0000
G01 X 30.0328 Y 11.5466 Z -1.0000
G01 X 30.0443 Y 11.5391 Z -1.0000
G02 X 30.0517 Y 11.5037 Z -1.0000 I -0.0803 J -0.0354
G01 X 30.0388 Y 11.4738 Z -1.0000
G01 X 30.0063 Y 11.4609 Z -1.0000
G01 X 29.9854 Y 11.4745 Z -1.0000
G01 X 29.9874 Y 11.5037 Z -1.0000
G01 X 29.9874 Y 11.5037 Z -1.0000
G00 Z 5.0000

(End cutting path id: path2)


(Start cutting path id: path2)
(Change tool to Default tool)

G00 Z 5.0000
G00 X 29.8539 Y 11.3132

G01 Z -1.0000 F 100.0000(Penetrate)
G01 X 29.8533 Y 11.3483 Z -1.0000 F 3500.0000
G01 X 29.8370 Y 11.3535 Z -1.0000
G03 X 29.8048 Y 11.3217 Z -1.0000 I 0.0534 J -0.0864
G03 X 29.7947 Y 11.2870 Z -1.0000 I 0.0544 J -0.0347
G01 X 29.8158 Y 11.2732 Z -1.0000
G03 X 29.8539 Y 11.3132 Z -1.0000 I -0.0290 J 0.0657
G01 X 29.8539 Y 11.3132 Z -1.0000
G00 Z 5.0000

(End cutting path id: path2)


(Start cutting path id: path2)
(Change tool to Default tool)

G00 Z 5.0000
G00 X 29.9601 Y 11.1384

G01 Z -1.0000 F 100.0000(Penetrate)
G03 X 28.6163 Y 11.6956 Z -1.0000 I -1.3453 J -1.3453 F 3500.0000
G03 X 27.2766 Y 11.1420 Z -1.0000 I -0.0015 J -1.8940
G01 X 27.2815 Y 11.1301 Z -1.0000
G03 X 28.6166 Y 11.1182 Z -1.0000 I 1.3351 J 75.1032
G03 X 29.9559 Y 11.1283 Z -1.0000 I -0.0000 J 88.9653
G01 X 29.9601 Y 11.1385 Z -1.0000
G01 X 29.9601 Y 11.1384 Z -1.0000
G00 Z 5.0000

(End cutting path id: path2)


(Start cutting path id: path2)
(Change tool to Default tool)

G00 Z 5.0000
G00 X 30.1875 Y 11.2680

G01 Z -1.0000 F 100.0000(Penetrate)
G01 X 30.2062 Y 11.2570 Z -1.0000 F 3500.0000
G03 X 30.3178 Y 11.2312 Z -1.0000 I 0.3241 J 1.1462
G03 X 30.3958 Y 11.2405 Z -1.0000 I 0.0239 J 0.1315
G01 X 30.4086 Y 11.2714 Z -1.0000
G02 X 30.4077 Y 11.3169 Z -1.0000 I 0.0629 J 0.0241
G01 X 30.4291 Y 11.3324 Z -1.0000
G02 X 30.4644 Y 11.3197 Z -1.0000 I -0.0000 J -0.0558
G02 X 30.4946 Y 11.2788 Z -1.0000 I -0.0648 J -0.0792
G01 X 30.5077 Y 11.2750 Z -1.0000
G01 X 30.5196 Y 11.2970 Z -1.0000
G01 X 30.4918 Y 11.3382 Z -1.0000
G03 X 30.3302 Y 11.3633 Z -1.0000 I -0.1487 J -0.4250
G03 X 30.1568 Y 11.3386 Z -1.0000 I 0.0219 J -0.7733
G01 X 30.1367 Y 11.3129 Z -1.0000
G01 X 30.1256 Y 11.3053 Z -1.0000
G02 X 30.0989 Y 11.3268 Z -1.0000 I 0.0183 J 0.0500
G01 X 30.0616 Y 11.3418 Z -1.0000
G03 X 30.0106 Y 11.3054 Z -1.0000 I 0.0198 J -0.0816
G01 X 29.9904 Y 11.2918 Z -1.0000
G01 X 29.9829 Y 11.3003 Z -1.0000
G03 X 29.9847 Y 11.3595 Z -1.0000 I -0.1061 J 0.0330
G01 X 29.9647 Y 11.3752 Z -1.0000
G01 X 29.9154 Y 11.3311 Z -1.0000
G03 X 29.9490 Y 11.2352 Z -1.0000 I 0.1166 J -0.0130
G01 X 29.9781 Y 11.2247 Z -1.0000
G03 X 30.0731 Y 11.2467 Z -1.0000 I -0.0335 J 0.3603
G02 X 30.1692 Y 11.2737 Z -1.0000 I 0.1981 J -0.5211
G01 X 30.1875 Y 11.2680 Z -1.0000
G01 X 30.1875 Y 11.2680 Z -1.0000
G00 Z 5.0000

(End cutting path id: path2)


(Start cutting path id: path2)
(Change tool to Default tool)

G00 Z 5.0000
G00 X 30.6300 Y 11.2895

G01 Z -1.0000 F 100.0000(Penetrate)
G01 X 30.6280 Y 11.3187 Z -1.0000 F 3500.0000
G01 X 30.6489 Y 11.3324 Z -1.0000
G01 X 30.6814 Y 11.3195 Z -1.0000
G01 X 30.6943 Y 11.2895 Z -1.0000
G02 X 30.6868 Y 11.2541 Z -1.0000 I -0.0877 J 0.0000
G01 X 30.6754 Y 11.2467 Z -1.0000
G01 X 30.6599 Y 11.2528 Z -1.0000
G02 X 30.6300 Y 11.2895 Z -1.0000 I 0.1251 J 0.1325
G01 X 30.6300 Y 11.2895 Z -1.0000
G00 Z 5.0000

(End cutting path id: path2)


(Start cutting path id: path2)
(Change tool to Default tool)

G00 Z 5.0000
G00 X 30.7821 Y 11.2467

G01 Z -1.0000 F 100.0000(Penetrate)
G01 X 30.8004 Y 11.2602 Z -1.0000 F 3500.0000
G03 X 30.7989 Y 11.3019 Z -1.0000 I -0.0614 J 0.0187
G03 X 30.6966 Y 11.3825 Z -1.0000 I -0.1187 J -0.0456
G03 X 30.5855 Y 11.3296 Z -1.0000 I -0.0146 J -0.1124
G03 X 30.5929 Y 11.2438 Z -1.0000 I 0.0614 J -0.0380
G03 X 30.6807 Y 11.2223 Z -1.0000 I 0.0594 J 0.0527
G02 X 30.7450 Y 11.2423 Z -1.0000 I 0.1842 J -0.4799
G02 X 30.7821 Y 11.2467 Z -1.0000 I 0.0372 J -0.1549
G01 X 30.7821 Y 11.2467 Z -1.0000
G00 Z 5.0000

(End cutting path id: path2)


(Start cutting path id: path2)
(Change tool to Default tool)

G00 Z 5.0000
G00 X 30.8999 Y 11.1267

G01 Z -1.0000 F 100.0000(Penetrate)
G03 X 30.9273 Y 11.1881 Z -1.0000 I -0.0664 J 0.0664 F 3500.0000
G03 X 30.9513 Y 12.0891 Z -1.0000 I -16.8660 J 0.9010
G03 X 30.9129 Y 12.9771 Z -1.0000 I -10.2792 J -0.0000
G03 X 30.8685 Y 13.0444 Z -1.0000 I -0.0844 J -0.0073
G03 X 30.7806 Y 13.0683 Z -1.0000 I -0.0958 J -0.1789
G03 X 29.9581 Y 13.0798 Z -1.0000 I -0.6430 J -16.5443
G01 X 29.1307 Y 13.0708 Z -1.0000
G01 X 30.0089 Y 13.0454 Z -1.0000
G02 X 30.8857 Y 13.0160 Z -1.0000 I -2.7717 J -95.8336
G01 X 30.8986 Y 13.0115 Z -1.0000
G01 X 30.9043 Y 13.0002 Z -1.0000
G02 X 30.8986 Y 12.0713 Z -1.0000 I -75.5624 J -0.0000
G01 X 30.8871 Y 11.1395 Z -1.0000
G01 X 30.4520 Y 11.1395 Z -1.0000
G03 X 30.0451 Y 11.1238 Z -1.0000 I 0.0000 J -5.2722
G01 X 30.0368 Y 11.1074 Z -1.0000
G03 X 30.3975 Y 10.9120 Z -1.0000 I 0.3515 J 0.2181
G03 X 30.8999 Y 11.1267 Z -1.0000 I -0.0164 J 0.7335
G01 X 30.8999 Y 11.1267 Z -1.0000
G00 Z 5.0000

(End cutting path id: path2)


(Start cutting path id: path2)
(Change tool to Default tool)

G00 Z 5.0000
G00 X 30.7190 Y 11.5171

G01 Z -1.0000 F 100.0000(Penetrate)
G01 X 30.6980 Y 11.5441 Z -1.0000 F 3500.0000
G03 X 30.6266 Y 11.5268 Z -1.0000 I -0.0114 J -0.1087
G02 X 30.5369 Y 11.4847 Z -1.0000 I -0.1938 J 0.2958
G01 X 30.5229 Y 11.4949 Z -1.0000
G01 X 30.5074 Y 11.5154 Z -1.0000
G03 X 30.3944 Y 11.5310 Z -1.0000 I -0.1130 J -0.4028
G03 X 30.2811 Y 11.5158 Z -1.0000 I -0.0000 J -0.4308
G01 X 30.2659 Y 11.4959 Z -1.0000
G01 X 30.2542 Y 11.4726 Z -1.0000
G02 X 30.2185 Y 11.4609 Z -1.0000 I -0.0357 J 0.0483
G01 X 30.1941 Y 11.4767 Z -1.0000
G02 X 30.1931 Y 11.5183 Z -1.0000 I 0.0499 J 0.0220
G01 X 30.1810 Y 11.5499 Z -1.0000
G03 X 30.1013 Y 11.5654 Z -1.0000 I -0.0665 J -0.1297
G02 X 29.9873 Y 11.5566 Z -1.0000 I -0.3701 J 4.0658
G02 X 29.8696 Y 11.5508 Z -1.0000 I -0.2771 J 4.4082
G03 X 29.7999 Y 11.5030 Z -1.0000 I 0.0028 J -0.0789
G01 X 29.8268 Y 11.4510 Z -1.0000
G03 X 29.9025 Y 11.4418 Z -1.0000 I 0.0877 J 0.4065
G03 X 30.3047 Y 11.4371 Z -1.0000 I 0.3349 J 11.5453
G03 X 30.6776 Y 11.4739 Z -1.0000 I -0.0120 J 2.0313
G03 X 30.7190 Y 11.5171 Z -1.0000 I -0.0098 J 0.0507
G01 X 30.7190 Y 11.5171 Z -1.0000
G00 Z 5.0000

(End cutting path id: path2)


(Start cutting path id: path2)
(Change tool to Default tool)

G00 Z 5.0000
G00 X 29.2592 Y 11.3110

G01 Z -1.0000 F 100.0000(Penetrate)
G01 X 29.2428 Y 11.3396 Z -1.0000 F 3500.0000
G03 X 29.1628 Y 11.3675 Z -1.0000 I -0.1108 J -0.1889
G03 X 29.0906 Y 11.3533 Z -1.0000 I -0.0157 J -0.1106
G01 X 29.0664 Y 11.3110 Z -1.0000
G01 X 29.0906 Y 11.2687 Z -1.0000
G03 X 29.1628 Y 11.2544 Z -1.0000 I 0.0565 J 0.0963
G03 X 29.2428 Y 11.2824 Z -1.0000 I -0.0306 J 0.2164
G01 X 29.2592 Y 11.3110 Z -1.0000
G01 X 29.2592 Y 11.3110 Z -1.0000
G00 Z 5.0000

(End cutting path id: path2)


(Start cutting path id: path2)
(Change tool to Default tool)

G00 Z 5.0000
G00 X 29.2095 Y 11.4498

G01 Z -1.0000 F 100.0000(Penetrate)
G01 X 29.2224 Y 11.4468 Z -1.0000 F 3500.0000
G01 X 29.2344 Y 11.4716 Z -1.0000
G03 X 29.2221 Y 11.5316 Z -1.0000 I -0.1252 J 0.0058
G01 X 29.1984 Y 11.5466 Z -1.0000
G02 X 29.1599 Y 11.5512 Z -1.0000 I -0.0000 J 0.1627
G02 X 29.0908 Y 11.5728 Z -1.0000 I 0.1339 J 0.5505
G01 X 29.0561 Y 11.5634 Z -1.0000
G01 X 29.0477 Y 11.5192 Z -1.0000
G01 X 29.0409 Y 11.5076 Z -1.0000
G01 X 29.0247 Y 11.5144 Z -1.0000
G03 X 28.9387 Y 11.5675 Z -1.0000 I -0.0984 J -0.0633
G01 X 28.8950 Y 11.5283 Z -1.0000
G03 X 28.9530 Y 11.4525 Z -1.0000 I 0.0786 J 0.0000
G03 X 29.1165 Y 11.4680 Z -1.0000 I 0.0611 J 0.2247
G02 X 29.1777 Y 11.4761 Z -1.0000 I 0.0426 J -0.0870
G01 X 29.2095 Y 11.4498 Z -1.0000
G01 X 29.2095 Y 11.4498 Z -1.0000
G00 Z 5.0000

(End cutting path id: path2)


(Start cutting path id: path2)
(Change tool to Default tool)

G00 Z 5.0000
G00 X 28.4560 Y 12.4998

G01 Z -1.0000 F 100.0000(Penetrate)
G03 X 28.3373 Y 12.5875 Z -1.0000 I -0.1217 J -0.0405 F 3500.0000
G03 X 28.2524 Y 12.5047 Z -1.0000 I -0.0020 J -0.0828
G01 X 28.2744 Y 12.4682 Z -1.0000
G03 X 28.3631 Y 12.4462 Z -1.0000 I 0.0887 J 0.1681
G03 X 28.4438 Y 12.4679 Z -1.0000 I -0.0000 J 0.1615
G01 X 28.4560 Y 12.4998 Z -1.0000
G01 X 28.4560 Y 12.4998 Z -1.0000
G00 Z 5.0000

(End cutting path id: path2)


(Start cutting path id: path2)
(Change tool to Default tool)

G00 Z 5.0000
G00 X 28.5380 Y 13.4101

G01 Z -1.0000 F 100.0000(Penetrate)
G01 X 28.5224 Y 13.4445 Z -1.0000 F 3500.0000
G03 X 28.4809 Y 13.4601 Z -1.0000 I -0.0415 J -0.0474
G03 X 28.4394 Y 13.4445 Z -1.0000 I 0.0000 J -0.0631
G01 X 28.4238 Y 13.4101 Z -1.0000
G01 X 28.4394 Y 13.3758 Z -1.0000
G03 X 28.4809 Y 13.3602 Z -1.0000 I 0.0415 J 0.0474
G03 X 28.5224 Y 13.3758 Z -1.0000 I -0.0000 J 0.0631
G01 X 28.5380 Y 13.4101 Z -1.0000
G01 X 28.5380 Y 13.4101 Z -1.0000
G00 Z 5.0000

(End cutting path id: path2)


(Start cutting path id: path2)
(Change tool to Default tool)

G00 Z 5.0000
G00 X 28.3803 Y 13.4208

G01 Z -1.0000 F 100.0000(Penetrate)
G01 X 28.3639 Y 13.4417 Z -1.0000 F 3500.0000
G01 X 28.3381 Y 13.4316 Z -1.0000
G01 X 28.3104 Y 13.4149 Z -1.0000
G01 X 28.2959 Y 13.4280 Z -1.0000
G03 X 28.2844 Y 13.4619 Z -1.0000 I -0.0574 J -0.0006
G01 X 28.2696 Y 13.4629 Z -1.0000
G03 X 28.2609 Y 13.3907 Z -1.0000 I 0.0416 J -0.0416
G03 X 28.3407 Y 13.3459 Z -1.0000 I 0.0798 J 0.0484
G01 X 28.3657 Y 13.3610 Z -1.0000
G03 X 28.3803 Y 13.4208 Z -1.0000 I -0.1111 J 0.0588
G01 X 28.3803 Y 13.4208 Z -1.0000
G00 Z 5.0000

(End cutting path id: path2)


(Start cutting path id: path2)
(Change tool to Default tool)

G00 Z 5.0000
G00 X 28.5095 Y 13.5790

G01 Z -1.0000 F 100.0000(Penetrate)
G03 X 28.4970 Y 13.6337 Z -1.0000 I -0.1262 J 0.0000 F 3500.0000
G03 X 28.4671 Y 13.6669 Z -1.0000 I -0.0717 J -0.0345
G01 X 28.4500 Y 13.6627 Z -1.0000
G01 X 28.4475 Y 13.6337 Z -1.0000
G01 X 28.4419 Y 13.5939 Z -1.0000
G01 X 28.4024 Y 13.5744 Z -1.0000
G01 X 28.3637 Y 13.5952 Z -1.0000
G02 X 28.3578 Y 13.6422 Z -1.0000 I 0.0449 J 0.0295
G01 X 28.3491 Y 13.6507 Z -1.0000
G03 X 28.3168 Y 13.6269 Z -1.0000 I 0.0257 J -0.0687
G02 X 28.2690 Y 13.5931 Z -1.0000 I -0.0791 J 0.0612
G01 X 28.2518 Y 13.6054 Z -1.0000
G01 X 28.2372 Y 13.6190 Z -1.0000
G01 X 28.2096 Y 13.6029 Z -1.0000
G01 X 28.1806 Y 13.5821 Z -1.0000
G01 X 28.1674 Y 13.5922 Z -1.0000
G03 X 28.0957 Y 13.6653 Z -1.0000 I -0.0740 J -0.0009
G03 X 27.9712 Y 13.5983 Z -1.0000 I -0.0044 J -0.1412
G01 X 27.9417 Y 13.5849 Z -1.0000
G02 X 27.9050 Y 13.6090 Z -1.0000 I 0.0085 J 0.0528
G01 X 27.8829 Y 13.6157 Z -1.0000
G01 X 27.8675 Y 13.5922 Z -1.0000
G01 X 27.9004 Y 13.5504 Z -1.0000
G03 X 28.1882 Y 13.5172 Z -1.0000 I 0.2878 J 1.2309
G03 X 28.4816 Y 13.5452 Z -1.0000 I 0.0000 J 1.5549
G01 X 28.5095 Y 13.5790 Z -1.0000
G01 X 28.5095 Y 13.5790 Z -1.0000
G00 Z 5.0000

(End cutting path id: path2)


(Start cutting path id: path2)
(Change tool to Default tool)

G00 Z 5.0000
G00 X 28.1818 Y 13.7640

G01 Z -1.0000 F 100.0000(Penetrate)
G01 X 28.1855 Y 13.8017 Z -1.0000 F 3500.0000
G03 X 28.1563 Y 13.8315 Z -1.0000 I -0.0486 J -0.0183
G01 X 28.1450 Y 13.8464 Z -1.0000
G01 X 28.1535 Y 13.8566 Z -1.0000
G02 X 28.2234 Y 13.8153 Z -1.0000 I 0.0048 J -0.0717
G02 X 28.2037 Y 13.7492 Z -1.0000 I -0.0470 J -0.0220
G01 X 28.1849 Y 13.7496 Z -1.0000
G01 X 28.1818 Y 13.7640 Z -1.0000
G01 X 28.1818 Y 13.7640 Z -1.0000
G00 Z 5.0000

(End cutting path id: path2)


(Start cutting path id: path2)
(Change tool to Default tool)

G00 Z 5.0000
G00 X 28.3381 Y 13.9290

G01 Z -1.0000 F 100.0000(Penetrate)
G01 X 28.2972 Y 13.9750 Z -1.0000 F 3500.0000
G03 X 28.2287 Y 13.9419 Z -1.0000 I -0.0083 J -0.0703
G02 X 28.1919 Y 13.9155 Z -1.0000 I -0.0502 J 0.0310
G02 X 28.1191 Y 13.9165 Z -1.0000 I -0.0343 J 0.1480
G01 X 28.0702 Y 13.8804 Z -1.0000
G03 X 28.1122 Y 13.7636 Z -1.0000 I 0.1631 J -0.0073
G03 X 28.1847 Y 13.7348 Z -1.0000 I 0.0654 J 0.0592
G03 X 28.2621 Y 13.7756 Z -1.0000 I -0.0089 J 0.1108
G03 X 28.3252 Y 13.8740 Z -1.0000 I -0.4126 J 0.3341
G03 X 28.3381 Y 13.9290 Z -1.0000 I -0.1109 J 0.0550
G01 X 28.3381 Y 13.9290 Z -1.0000
G00 Z 5.0000

(End cutting path id: path2)


(Start cutting path id: path2)
(Change tool to Default tool)

G00 Z 5.0000
G00 X 28.0736 Y 14.3276

G01 Z -1.0000 F 100.0000(Penetrate)
G02 X 28.0925 Y 14.3780 Z -1.0000 I 0.0595 J 0.0064 F 3500.0000
G01 X 28.1239 Y 14.3741 Z -1.0000
G01 X 28.1497 Y 14.3639 Z -1.0000
G01 X 28.1661 Y 14.3848 Z -1.0000
G03 X 28.1494 Y 14.4425 Z -1.0000 I -0.1052 J 0.0009
G01 X 28.1179 Y 14.4597 Z -1.0000
G03 X 28.0753 Y 14.4466 Z -1.0000 I 0.0000 J -0.0760
G03 X 28.0073 Y 14.3848 Z -1.0000 I 0.1810 J -0.2671
G01 X 27.9790 Y 14.3714 Z -1.0000
G01 X 27.9691 Y 14.3848 Z -1.0000
G03 X 27.9712 Y 14.4440 Z -1.0000 I -0.1060 J 0.0333
G01 X 27.9512 Y 14.4597 Z -1.0000
G03 X 27.9007 Y 14.4162 Z -1.0000 I 0.0000 J -0.0511
G03 X 27.9311 Y 14.3241 Z -1.0000 I 0.1067 J -0.0158
G03 X 28.0343 Y 14.2828 Z -1.0000 I 0.0997 J 0.0997
G01 X 28.0736 Y 14.3277 Z -1.0000
G01 X 28.0736 Y 14.3276 Z -1.0000
G00 Z 5.0000

(End cutting path id: path2)


(Start cutting path id: path2)
(Change tool to Default tool)

G00 Z 5.0000
G00 X 28.1886 Y 14.5461

G01 Z -1.0000 F 100.0000(Penetrate)
G01 X 28.2207 Y 14.5674 Z -1.0000 F 3500.0000
G02 X 28.2661 Y 14.5580 Z -1.0000 I 0.0101 J -0.0658
G03 X 28.3840 Y 14.5313 Z -1.0000 I 0.0973 J 0.1556
G01 X 28.4238 Y 14.5759 Z -1.0000
G01 X 28.4046 Y 14.6006 Z -1.0000
G01 X 28.3634 Y 14.5914 Z -1.0000
G02 X 28.3075 Y 14.5694 Z -1.0000 I -0.0615 J 0.0741
G01 X 28.2751 Y 14.5862 Z -1.0000
G03 X 28.1257 Y 14.6617 Z -1.0000 I -0.1364 J -0.0843
G03 X 28.0382 Y 14.5669 Z -1.0000 I 0.0077 J -0.0949
G03 X 28.0948 Y 14.5020 Z -1.0000 I 0.0655 J 0.0000
G03 X 28.1886 Y 14.5461 Z -1.0000 I 0.0130 J 0.0941
G01 X 28.1886 Y 14.5461 Z -1.0000
G00 Z 5.0000

(End cutting path id: path2)


(Start cutting path id: path2)
(Change tool to Default tool)

G00 Z 5.0000
G00 X 27.9818 Y 14.5963

G01 Z -1.0000 F 100.0000(Penetrate)
G01 X 27.9685 Y 14.5990 Z -1.0000 F 3500.0000
G01 X 27.9559 Y 14.5704 Z -1.0000
G03 X 27.9651 Y 14.5169 Z -1.0000 I 0.1290 J -0.0054
G01 X 27.9784 Y 14.5142 Z -1.0000
G01 X 27.9910 Y 14.5428 Z -1.0000
G03 X 27.9818 Y 14.5963 Z -1.0000 I -0.1296 J 0.0054
G01 X 27.9818 Y 14.5963 Z -1.0000
G00 Z 5.0000

(End cutting path id: path2)


(Start cutting path id: path2)
(Change tool to Default tool)

G00 Z 5.0000
G00 X 28.3252 Y 14.7448

G01 Z -1.0000 F 100.0000(Penetrate)
G03 X 28.2876 Y 14.9190 Z -1.0000 I -0.1520 J 0.0583 F 3500.0000
G03 X 28.1067 Y 14.9607 Z -1.0000 I -0.1243 J -0.1258
G03 X 28.0466 Y 14.8879 Z -1.0000 I 0.0287 J -0.0849
G03 X 28.0720 Y 14.7060 Z -1.0000 I 0.3357 J -0.0457
G03 X 28.1939 Y 14.6391 Z -1.0000 I 0.1046 J 0.0459
G03 X 28.3252 Y 14.7448 Z -1.0000 I -0.0254 J 0.1659
G01 X 28.3252 Y 14.7448 Z -1.0000
G00 Z 5.0000

(End cutting path id: path2)


(Start cutting path id: path2)
(Change tool to Default tool)

G00 Z 5.0000
G00 X 28.3716 Y 14.4103

G01 Z -1.0000 F 100.0000(Penetrate)
G01 X 28.3616 Y 14.4423 Z -1.0000 F 3500.0000
G03 X 28.3145 Y 14.4531 Z -1.0000 I -0.0358 J -0.0478
G03 X 28.2503 Y 14.4245 Z -1.0000 I 0.0293 J -0.1518
G03 X 28.2189 Y 14.3807 Z -1.0000 I 0.0551 J -0.0726
G01 X 28.2289 Y 14.3487 Z -1.0000
G03 X 28.2761 Y 14.3378 Z -1.0000 I 0.0358 J 0.0478
G03 X 28.3403 Y 14.3665 Z -1.0000 I -0.0293 J 0.1518
G03 X 28.3716 Y 14.4103 Z -1.0000 I -0.0551 J 0.0726
G01 X 28.3716 Y 14.4103 Z -1.0000
G00 Z 5.0000

(End cutting path id: path2)


(Start cutting path id: path2)
(Change tool to Default tool)

G00 Z 5.0000
G00 X 28.4666 Y 14.3955

G01 Z -1.0000 F 100.0000(Penetrate)
G03 X 28.4593 Y 14.4524 Z -1.0000 I -0.2242 J 0.0000 F 3500.0000
G01 X 28.4498 Y 14.4597 Z -1.0000
G01 X 28.4375 Y 14.4530 Z -1.0000
G03 X 28.4083 Y 14.3955 Z -1.0000 I 0.2639 J -0.1701
G03 X 28.4056 Y 14.3463 Z -1.0000 I 0.0751 J -0.0288
G01 X 28.4251 Y 14.3312 Z -1.0000
G01 X 28.4520 Y 14.3458 Z -1.0000
G03 X 28.4666 Y 14.3955 Z -1.0000 I -0.0768 J 0.0496
G01 X 28.4666 Y 14.3955 Z -1.0000
G00 Z 5.0000

(End cutting path id: path2)


(Start cutting path id: path2)
(Change tool to Default tool)

G00 Z 5.0000
G00 X 28.5387 Y 14.4249

G01 Z -1.0000 F 100.0000(Penetrate)
G01 X 28.5254 Y 14.4277 Z -1.0000 F 3500.0000
G01 X 28.5129 Y 14.3990 Z -1.0000
G03 X 28.5220 Y 14.3455 Z -1.0000 I 0.1290 J -0.0054
G01 X 28.5354 Y 14.3428 Z -1.0000
G01 X 28.5479 Y 14.3714 Z -1.0000
G03 X 28.5388 Y 14.4249 Z -1.0000 I -0.1296 J 0.0053
G01 X 28.5387 Y 14.4249 Z -1.0000
G00 Z 5.0000

(End cutting path id: path2)


(Start cutting path id: path2)
(Change tool to Default tool)

G00 Z 5.0000
G00 X 28.6528 Y 14.3973

G01 Z -1.0000 F 100.0000(Penetrate)
G03 X 28.6231 Y 14.4430 Z -1.0000 I -0.1220 J -0.0468 F 3500.0000
G01 X 28.6070 Y 14.4430 Z -1.0000
G01 X 28.5994 Y 14.4211 Z -1.0000
G03 X 28.6148 Y 14.3769 Z -1.0000 I 0.1077 J 0.0128
G01 X 28.6424 Y 14.3695 Z -1.0000
G01 X 28.6528 Y 14.3973 Z -1.0000
G01 X 28.6528 Y 14.3973 Z -1.0000
G00 Z 5.0000

(End cutting path id: path2)


(Start cutting path id: path2)
(Change tool to Default tool)

G00 Z 5.0000
G00 X 29.2064 Y 14.7893

G01 Z -1.0000 F 100.0000(Penetrate)
G02 X 29.2815 Y 14.7984 Z -1.0000 I 0.0716 J -0.2748 F 3500.0000
G02 X 29.3350 Y 14.7877 Z -1.0000 I -0.0018 J -0.1471
G01 X 29.3343 Y 14.7771 Z -1.0000
G02 X 29.2592 Y 14.7679 Z -1.0000 I -0.0716 J 0.2747
G02 X 29.2058 Y 14.7787 Z -1.0000 I 0.0018 J 0.1472
G01 X 29.2064 Y 14.7893 Z -1.0000
G01 X 29.2064 Y 14.7893 Z -1.0000
G00 Z 5.0000

(End cutting path id: path2)


(Start cutting path id: path2)
(Change tool to Default tool)

G00 Z 5.0000
G00 X 29.3563 Y 14.7275

G01 Z -1.0000 F 100.0000(Penetrate)
G03 X 29.3858 Y 14.7859 Z -1.0000 I -0.1205 J 0.0976 F 3500.0000
G03 X 29.3990 Y 14.8912 Z -1.0000 I -0.3944 J 0.1029
G03 X 29.3608 Y 14.9426 Z -1.0000 I -0.0541 J -0.0003
G03 X 29.2538 Y 14.9358 Z -1.0000 I -0.0445 J -0.1447
G03 X 29.1424 Y 14.8234 Z -1.0000 I 0.0917 J -0.2024
G03 X 29.1606 Y 14.7253 Z -1.0000 I 0.0806 J -0.0357
G03 X 29.2644 Y 14.6830 Z -1.0000 I 0.1022 J 0.1022
G03 X 29.3563 Y 14.7274 Z -1.0000 I -0.0013 J 0.1199
G01 X 29.3563 Y 14.7275 Z -1.0000
G00 Z 5.0000

(End cutting path id: path2)


(Start cutting path id: path2)
(Change tool to Default tool)

G00 Z 5.0000
G00 X 29.3663 Y 14.4194

G01 Z -1.0000 F 100.0000(Penetrate)
G01 X 29.3799 Y 14.4403 Z -1.0000 F 3500.0000
G01 X 29.4091 Y 14.4383 Z -1.0000
G02 X 29.4458 Y 14.4084 Z -1.0000 I -0.0958 J -0.1550
G01 X 29.4520 Y 14.3929 Z -1.0000
G01 X 29.4445 Y 14.3815 Z -1.0000
G02 X 29.4091 Y 14.3740 Z -1.0000 I -0.0354 J 0.0803
G01 X 29.3792 Y 14.3869 Z -1.0000
G01 X 29.3663 Y 14.4194 Z -1.0000
G01 X 29.3663 Y 14.4194 Z -1.0000
G00 Z 5.0000

(End cutting path id: path2)


(Start cutting path id: path2)
(Change tool to Default tool)

G00 Z 5.0000
G00 X 29.6478 Y 14.4182

G01 Z -1.0000 F 100.0000(Penetrate)
G01 X 29.6232 Y 14.4451 Z -1.0000 F 3500.0000
G03 X 29.5640 Y 14.4259 Z -1.0000 I -0.0072 J -0.0786
G02 X 29.5148 Y 14.4031 Z -1.0000 I -0.0634 J 0.0725
G01 X 29.5035 Y 14.4169 Z -1.0000
G01 X 29.4860 Y 14.4518 Z -1.0000
G03 X 29.3091 Y 14.4759 Z -1.0000 I -0.1634 J -0.5379
G03 X 29.1064 Y 14.4506 Z -1.0000 I 0.0247 J -1.0191
G01 X 29.0754 Y 14.4224 Z -1.0000
G02 X 29.0506 Y 14.3861 Z -1.0000 I -0.0766 J 0.0256
G02 X 29.0175 Y 14.3741 Z -1.0000 I -0.0331 J 0.0396
G01 X 28.9984 Y 14.3867 Z -1.0000
G01 X 29.0005 Y 14.4143 Z -1.0000
G01 X 28.9948 Y 14.4360 Z -1.0000
G03 X 28.9388 Y 14.4480 Z -1.0000 I -0.0484 J -0.0886
G03 X 28.8688 Y 14.4261 Z -1.0000 I 0.0122 J -0.1613
G01 X 28.8522 Y 14.3970 Z -1.0000
G01 X 28.8732 Y 14.3730 Z -1.0000
G03 X 29.2500 Y 14.3448 Z -1.0000 I 0.4418 J 3.3681
G03 X 29.6113 Y 14.3744 Z -1.0000 I 0.0346 J 1.7995
G01 X 29.6478 Y 14.4182 Z -1.0000
G01 X 29.6478 Y 14.4182 Z -1.0000
G00 Z 5.0000

(End cutting path id: path2)


(Start cutting path id: path2)
(Change tool to Default tool)

G00 Z 5.0000
G00 X 29.8375 Y 14.6739

G01 Z -1.0000 F 100.0000(Penetrate)
G01 X 29.8375 Y 15.1451 Z -1.0000 F 3500.0000
G01 X 30.2766 Y 15.1457 Z -1.0000
G03 X 30.7143 Y 15.1568 Z -1.0000 I -0.0122 J 9.1304
G03 X 30.8121 Y 15.1721 Z -1.0000 I -0.0230 J 0.4659
G01 X 30.8640 Y 15.1400 Z -1.0000
G02 X 30.9085 Y 14.7003 Z -1.0000 I -2.1523 J -0.4397
G01 X 30.9085 Y 14.2026 Z -1.0000
G01 X 30.3730 Y 14.2026 Z -1.0000
G01 X 29.8375 Y 14.2026 Z -1.0000
G01 X 29.8375 Y 14.6739 Z -1.0000
G00 Z 5.0000

(End cutting path id: path2)


(Start cutting path id: path2)
(Change tool to Default tool)

G00 Z 5.0000
G00 X 30.0762 Y 14.4168

G01 Z -1.0000 F 100.0000(Penetrate)
G03 X 30.0625 Y 14.4889 Z -1.0000 I -0.1970 J -0.0000 F 3500.0000
G01 X 30.0425 Y 14.5025 Z -1.0000
G01 X 30.0225 Y 14.4889 Z -1.0000
G03 X 30.0089 Y 14.4168 Z -1.0000 I 0.1834 J -0.0720
G03 X 30.0225 Y 14.3448 Z -1.0000 I 0.1970 J -0.0000
G01 X 30.0425 Y 14.3311 Z -1.0000
G01 X 30.0625 Y 14.3448 Z -1.0000
G03 X 30.0762 Y 14.4168 Z -1.0000 I -0.1834 J 0.0720
G01 X 30.0762 Y 14.4168 Z -1.0000
G00 Z 5.0000

(End cutting path id: path2)


(Start cutting path id: path2)
(Change tool to Default tool)

G00 Z 5.0000
G00 X 30.1802 Y 14.4254

G01 Z -1.0000 F 100.0000(Penetrate)
G03 X 30.1606 Y 14.4721 Z -1.0000 I -0.0653 J -0.0000 F 3500.0000
G01 X 30.1326 Y 14.4720 Z -1.0000
G03 X 30.1057 Y 14.4219 Z -1.0000 I 0.0694 J -0.0694
G03 X 30.1137 Y 14.3777 Z -1.0000 I 0.0599 J -0.0120
G01 X 30.1518 Y 14.3701 Z -1.0000
G03 X 30.1802 Y 14.4254 Z -1.0000 I -0.0396 J 0.0553
G01 X 30.1802 Y 14.4254 Z -1.0000
G00 Z 5.0000

(End cutting path id: path2)


(Start cutting path id: path2)
(Change tool to Default tool)

G00 Z 5.0000
G00 X 30.2231 Y 14.6096

G01 Z -1.0000 F 100.0000(Penetrate)
G03 X 30.2157 Y 14.6665 Z -1.0000 I -0.2242 J 0.0000 F 3500.0000
G01 X 30.2062 Y 14.6739 Z -1.0000
G01 X 30.1939 Y 14.6672 Z -1.0000
G03 X 30.1647 Y 14.6096 Z -1.0000 I 0.2639 J -0.1701
G03 X 30.1620 Y 14.5604 Z -1.0000 I 0.0751 J -0.0288
G01 X 30.1816 Y 14.5453 Z -1.0000
G01 X 30.2084 Y 14.5600 Z -1.0000
G03 X 30.2231 Y 14.6096 Z -1.0000 I -0.0768 J 0.0496
G01 X 30.2231 Y 14.6096 Z -1.0000
G00 Z 5.0000

(End cutting path id: path2)


(Start cutting path id: path2)
(Change tool to Default tool)

G00 Z 5.0000
G00 X 30.2952 Y 14.6390

G01 Z -1.0000 F 100.0000(Penetrate)
G01 X 30.2818 Y 14.6418 Z -1.0000 F 3500.0000
G01 X 30.2693 Y 14.6132 Z -1.0000
G03 X 30.2785 Y 14.5597 Z -1.0000 I 0.1290 J -0.0054
G01 X 30.2918 Y 14.5569 Z -1.0000
G01 X 30.3043 Y 14.5856 Z -1.0000
G03 X 30.2952 Y 14.6390 Z -1.0000 I -0.1296 J 0.0054
G01 X 30.2952 Y 14.6390 Z -1.0000
G00 Z 5.0000

(End cutting path id: path2)


(Start cutting path id: path2)
(Change tool to Default tool)

G00 Z 5.0000
G00 X 30.4249 Y 14.6309

G01 Z -1.0000 F 100.0000(Penetrate)
G02 X 30.4207 Y 14.7093 Z -1.0000 I 0.1888 J 0.0494 F 3500.0000
G01 X 30.4413 Y 14.7406 Z -1.0000
G03 X 30.4757 Y 14.8093 Z -1.0000 I -0.0384 J 0.0622
G03 X 30.4224 Y 14.9506 Z -1.0000 I -0.2811 J -0.0253
G03 X 30.3663 Y 14.9883 Z -1.0000 I -0.0801 J -0.0586
G01 X 30.3301 Y 14.9736 Z -1.0000
G01 X 30.3298 Y 14.9520 Z -1.0000
G01 X 30.3450 Y 14.9482 Z -1.0000
G01 X 30.3800 Y 14.9528 Z -1.0000
G01 X 30.3944 Y 14.9334 Z -1.0000
G01 X 30.3789 Y 14.9035 Z -1.0000
G02 X 30.3302 Y 14.8880 Z -1.0000 I -0.0488 J 0.0691
G03 X 30.2873 Y 14.8666 Z -1.0000 I 0.0000 J -0.0536
G03 X 30.2659 Y 14.8023 Z -1.0000 I 0.0857 J -0.0643
G03 X 30.2814 Y 14.7322 Z -1.0000 I 0.1660 J 0.0000
G01 X 30.3059 Y 14.7167 Z -1.0000
G01 X 30.3353 Y 14.7023 Z -1.0000
G02 X 30.3730 Y 14.6310 Z -1.0000 I -0.1787 J -0.1400
G01 X 30.4061 Y 14.6067 Z -1.0000
G01 X 30.4249 Y 14.6309 Z -1.0000
G01 X 30.4249 Y 14.6309 Z -1.0000
G00 Z 5.0000

(End cutting path id: path2)


(Start cutting path id: path2)
(Change tool to Default tool)

G00 Z 5.0000
G00 X 30.6132 Y 14.4227

G01 Z -1.0000 F 100.0000(Penetrate)
G02 X 30.6023 Y 14.4819 Z -1.0000 I 0.2884 J 0.0835 F 3500.0000
G02 X 30.5997 Y 14.5882 Z -1.0000 I 0.9454 J 0.0769
G01 X 30.5862 Y 14.6149 Z -1.0000
G01 X 30.5688 Y 14.6096 Z -1.0000
G02 X 30.5362 Y 14.5774 Z -1.0000 I -0.0533 J 0.0213
G01 X 30.5135 Y 14.5882 Z -1.0000
G01 X 30.5073 Y 14.5895 Z -1.0000
G01 X 30.5037 Y 14.5775 Z -1.0000
G01 X 30.4742 Y 14.5253 Z -1.0000
G02 X 30.3194 Y 14.5009 Z -1.0000 I -0.1279 J 0.3073
G03 X 30.2500 Y 14.4807 Z -1.0000 I -0.0083 J -0.1011
G03 X 30.2264 Y 14.4306 Z -1.0000 I 0.0359 J -0.0475
G01 X 30.2390 Y 14.4070 Z -1.0000
G01 X 30.2530 Y 14.4110 Z -1.0000
G01 X 30.2797 Y 14.4300 Z -1.0000
G01 X 30.3107 Y 14.4138 Z -1.0000
G01 X 30.3506 Y 14.3919 Z -1.0000
G03 X 30.4136 Y 14.4151 Z -1.0000 I -0.0013 J 0.1006
G02 X 30.4812 Y 14.4503 Z -1.0000 I 0.1154 J -0.1391
G01 X 30.5120 Y 14.4421 Z -1.0000
G01 X 30.5168 Y 14.4150 Z -1.0000
G02 X 30.4788 Y 14.3717 Z -1.0000 I -0.0945 J 0.0444
G01 X 30.4795 Y 14.3552 Z -1.0000
G03 X 30.5229 Y 14.3477 Z -1.0000 I 0.0329 J 0.0605
G03 X 30.6009 Y 14.3830 Z -1.0000 I -0.0247 J 0.1587
G01 X 30.6132 Y 14.4228 Z -1.0000
G01 X 30.6132 Y 14.4227 Z -1.0000
G00 Z 5.0000

(End cutting path id: path2)


(Start cutting path id: path2)
(Change tool to Default tool)

G00 Z 5.0000
G00 X 30.4685 Y 14.0143

G01 Z -1.0000 F 100.0000(Penetrate)
G01 X 30.4399 Y 14.0269 Z -1.0000 F 3500.0000
G03 X 30.3864 Y 14.0177 Z -1.0000 I -0.0053 J -0.1296
G01 X 30.3837 Y 14.0044 Z -1.0000
G01 X 30.4123 Y 13.9918 Z -1.0000
G03 X 30.4658 Y 14.0010 Z -1.0000 I 0.0054 J 0.1290
G01 X 30.4685 Y 14.0143 Z -1.0000
G01 X 30.4685 Y 14.0143 Z -1.0000
G00 Z 5.0000

(End cutting path id: path2)


(Start cutting path id: path2)
(Change tool to Default tool)

G00 Z 5.0000
G00 X 30.4685 Y 13.9286

G01 Z -1.0000 F 100.0000(Penetrate)
G01 X 30.4399 Y 13.9412 Z -1.0000 F 3500.0000
G03 X 30.3864 Y 13.9320 Z -1.0000 I -0.0054 J -0.1295
G01 X 30.3837 Y 13.9187 Z -1.0000
G01 X 30.4123 Y 13.9061 Z -1.0000
G03 X 30.4658 Y 13.9153 Z -1.0000 I 0.0054 J 0.1290
G01 X 30.4685 Y 13.9286 Z -1.0000
G01 X 30.4685 Y 13.9286 Z -1.0000
G00 Z 5.0000

(End cutting path id: path2)


(Start cutting path id: path2)
(Change tool to Default tool)

G00 Z 5.0000
G00 X 30.4051 Y 13.8509

G01 Z -1.0000 F 100.0000(Penetrate)
G02 X 30.3341 Y 13.8886 Z -1.0000 I 0.0189 J 0.1213 F 3500.0000
G02 X 30.3045 Y 13.9593 Z -1.0000 I 0.0815 J 0.0757
G01 X 30.2900 Y 13.9688 Z -1.0000
G01 X 30.2684 Y 13.9456 Z -1.0000
G03 X 30.2901 Y 13.8425 Z -1.0000 I 0.1061 J -0.0315
G03 X 30.3827 Y 13.8108 Z -1.0000 I 0.0729 J 0.0618
G01 X 30.4136 Y 13.8335 Z -1.0000
G01 X 30.4051 Y 13.8509 Z -1.0000
G01 X 30.4051 Y 13.8509 Z -1.0000
G00 Z 5.0000

(End cutting path id: path2)


(Start cutting path id: path2)
(Change tool to Default tool)

G00 Z 5.0000
G00 X 29.2270 Y 13.9312

G01 Z -1.0000 F 100.0000(Penetrate)
G02 X 29.2806 Y 13.9416 Z -1.0000 I 0.0536 J -0.1327 F 3500.0000
G02 X 29.3341 Y 13.9312 Z -1.0000 I 0.0000 J -0.1431
G01 X 29.3341 Y 13.9200 Z -1.0000
G02 X 29.2806 Y 13.9096 Z -1.0000 I -0.0536 J 0.1326
G02 X 29.2270 Y 13.9200 Z -1.0000 I 0.0000 J 0.1432
G01 X 29.2270 Y 13.9312 Z -1.0000
G01 X 29.2270 Y 13.9312 Z -1.0000
G00 Z 5.0000

(End cutting path id: path2)


(Start cutting path id: path2)
(Change tool to Default tool)

G00 Z 5.0000
G00 X 28.1668 Y 13.4101

G01 Z -1.0000 F 100.0000(Penetrate)
G01 X 28.1435 Y 13.4481 Z -1.0000 F 3500.0000
G03 X 28.0597 Y 13.4646 Z -1.0000 I -0.0709 J -0.1395
G03 X 27.9704 Y 13.4393 Z -1.0000 I 0.0200 J -0.2404
G01 X 27.9526 Y 13.4101 Z -1.0000
G01 X 27.9704 Y 13.3810 Z -1.0000
G03 X 28.0597 Y 13.3557 Z -1.0000 I 0.1091 J 0.2146
G03 X 28.1435 Y 13.3721 Z -1.0000 I 0.0129 J 0.1558
G01 X 28.1668 Y 13.4101 Z -1.0000
G01 X 28.1668 Y 13.4101 Z -1.0000
G00 Z 5.0000

(End cutting path id: path2)


(Start cutting path id: path2)
(Change tool to Default tool)

G00 Z 5.0000
G00 X 27.3528 Y 13.4074

G01 Z -1.0000 F 100.0000(Penetrate)
G01 X 27.3316 Y 13.4462 Z -1.0000 F 3500.0000
G03 X 27.2671 Y 13.4626 Z -1.0000 I -0.0567 J -0.0880
G03 X 27.2006 Y 13.4383 Z -1.0000 I 0.0100 J -0.1308
G01 X 27.1814 Y 13.4010 Z -1.0000
G01 X 27.2009 Y 13.3653 Z -1.0000
G03 X 27.2671 Y 13.3458 Z -1.0000 I 0.0662 J 0.1029
G03 X 27.3319 Y 13.3667 Z -1.0000 I -0.0000 J 0.1110
G03 X 27.3528 Y 13.4074 Z -1.0000 I -0.0293 J 0.0407
G01 X 27.3528 Y 13.4074 Z -1.0000
G00 Z 5.0000

(End cutting path id: path2)


(Start cutting path id: path2)
(Change tool to Default tool)

G00 Z 5.0000
G00 X 27.0994 Y 13.4078

G01 Z -1.0000 F 100.0000(Penetrate)
G01 X 27.1255 Y 13.4071 Z -1.0000 F 3500.0000
G01 X 27.1386 Y 13.4290 Z -1.0000
G01 X 27.1231 Y 13.4589 Z -1.0000
G03 X 27.0743 Y 13.4744 Z -1.0000 I -0.0488 J -0.0691
G03 X 27.0315 Y 13.4539 Z -1.0000 I -0.0000 J -0.0553
G03 X 27.0135 Y 13.3994 Z -1.0000 I 0.0627 J -0.0509
G01 X 27.0255 Y 13.3750 Z -1.0000
G01 X 27.0385 Y 13.3782 Z -1.0000
G02 X 27.0677 Y 13.4094 Z -1.0000 I 0.0551 J -0.0222
G01 X 27.0994 Y 13.4078 Z -1.0000
G01 X 27.0994 Y 13.4078 Z -1.0000
G00 Z 5.0000

(End cutting path id: path2)


(Start cutting path id: path2)
(Change tool to Default tool)

G00 Z 5.0000
G00 X 27.0078 Y 13.5708

G01 Z -1.0000 F 100.0000(Penetrate)
G01 X 27.0301 Y 13.5796 Z -1.0000 F 3500.0000
G01 X 27.0353 Y 13.5708 Z -1.0000
G03 X 27.0306 Y 13.5322 Z -1.0000 I 0.0440 J -0.0248
G01 X 27.0504 Y 13.5172 Z -1.0000
G01 X 27.0802 Y 13.5328 Z -1.0000
G03 X 27.0958 Y 13.5822 Z -1.0000 I -0.0707 J 0.0494
G01 X 27.0712 Y 13.6205 Z -1.0000
G03 X 26.9744 Y 13.6379 Z -1.0000 I -0.0819 J -0.1784
G03 X 26.8745 Y 13.6087 Z -1.0000 I 0.0192 J -0.2519
G01 X 26.8530 Y 13.5729 Z -1.0000
G01 X 26.8971 Y 13.5282 Z -1.0000
G03 X 27.0078 Y 13.5708 Z -1.0000 I 0.0022 J 0.1594
G01 X 27.0078 Y 13.5708 Z -1.0000
G00 Z 5.0000

(End cutting path id: path2)


(Start cutting path id: path2)
(Change tool to Default tool)

G00 Z 5.0000
G00 X 27.2671 Y 13.8099

G01 Z -1.0000 F 100.0000(Penetrate)
G03 X 27.1795 Y 13.9688 Z -1.0000 I -0.1879 J 0.0000 F 3500.0000
G03 X 27.0142 Y 13.9696 Z -1.0000 I -0.0833 J -0.1320
G03 X 26.9833 Y 13.8321 Z -1.0000 I 0.0518 J -0.0838
G03 X 27.1686 Y 13.7315 Z -1.0000 I 0.1853 J 0.1202
G03 X 27.2416 Y 13.7570 Z -1.0000 I 0.0000 J 0.1172
G03 X 27.2671 Y 13.8099 Z -1.0000 I -0.0421 J 0.0529
G01 X 27.2671 Y 13.8099 Z -1.0000
G00 Z 5.0000

(End cutting path id: path2)


(Start cutting path id: path2)
(Change tool to Default tool)

G00 Z 5.0000
G00 X 27.3254 Y 14.3527

G01 Z -1.0000 F 100.0000(Penetrate)
G03 X 27.2393 Y 14.4159 Z -1.0000 I -0.0923 J -0.0354 F 3500.0000
G03 X 27.1815 Y 14.3616 Z -1.0000 I -0.0034 J -0.0543
G01 X 27.1680 Y 14.3484 Z -1.0000
G02 X 27.1279 Y 14.3629 Z -1.0000 I 0.0016 J 0.0673
G03 X 26.9676 Y 14.4007 Z -1.0000 I -0.1207 J -0.1530
G01 X 26.9449 Y 14.3249 Z -1.0000
G01 X 26.9692 Y 14.3133 Z -1.0000
G03 X 27.1550 Y 14.3036 Z -1.0000 I 0.1937 J 1.9095
G03 X 27.3118 Y 14.3254 Z -1.0000 I 0.0023 J 0.5582
G01 X 27.3254 Y 14.3527 Z -1.0000
G01 X 27.3254 Y 14.3527 Z -1.0000
G00 Z 5.0000

(End cutting path id: path2)


(Start cutting path id: path2)
(Change tool to Default tool)

G00 Z 5.0000
G00 X 27.2588 Y 14.5398

G01 Z -1.0000 F 100.0000(Penetrate)
G03 X 27.2059 Y 14.5867 Z -1.0000 I -0.1455 J -0.1107 F 3500.0000
G01 X 27.1947 Y 14.5775 Z -1.0000
G02 X 27.2007 Y 14.5172 Z -1.0000 I -0.1173 J -0.0421
G01 X 27.1837 Y 14.5025 Z -1.0000
G01 X 27.1541 Y 14.5140 Z -1.0000
G02 X 27.1290 Y 14.5527 Z -1.0000 I 0.0622 J 0.0677
G03 X 27.0087 Y 14.6473 Z -1.0000 I -0.1319 J -0.0440
G03 X 26.9244 Y 14.5698 Z -1.0000 I -0.0065 J -0.0775
G03 X 26.9871 Y 14.4770 Z -1.0000 I 0.1000 J -0.0000
G03 X 27.2145 Y 14.4530 Z -1.0000 I 0.1558 J 0.3872
G03 X 27.2633 Y 14.4891 Z -1.0000 I -0.0117 J 0.0669
G01 X 27.2588 Y 14.5398 Z -1.0000
G01 X 27.2588 Y 14.5398 Z -1.0000
G00 Z 5.0000

(End cutting path id: path2)


(Start cutting path id: path2)
(Change tool to Default tool)

G00 Z 5.0000
G00 X 27.4385 Y 14.5403

G01 Z -1.0000 F 100.0000(Penetrate)
G01 X 27.4240 Y 14.5669 Z -1.0000 F 3500.0000
G03 X 27.3421 Y 14.6025 Z -1.0000 I -0.1492 J -0.2315
G01 X 27.3208 Y 14.5910 Z -1.0000
G01 X 27.3289 Y 14.5646 Z -1.0000
G03 X 27.4179 Y 14.5238 Z -1.0000 I 0.1394 J 0.1866
G01 X 27.4385 Y 14.5403 Z -1.0000
G01 X 27.4385 Y 14.5403 Z -1.0000
G00 Z 5.0000

(End cutting path id: path2)


(Start cutting path id: path2)
(Change tool to Default tool)

G00 Z 5.0000
G00 X 27.2671 Y 14.7774

G01 Z -1.0000 F 100.0000(Penetrate)
G03 X 27.2288 Y 14.8926 Z -1.0000 I -0.1923 J 0.0000 F 3500.0000
G03 X 27.1524 Y 14.9309 Z -1.0000 I -0.0764 J -0.0572
G03 X 26.9992 Y 14.8703 Z -1.0000 I -0.0000 J -0.2240
G03 X 26.9978 Y 14.7861 Z -1.0000 I 0.0401 J -0.0428
G03 X 27.1901 Y 14.7028 Z -1.0000 I 0.2013 J 0.2013
G03 X 27.2671 Y 14.7775 Z -1.0000 I 0.0024 J 0.0746
G01 X 27.2671 Y 14.7774 Z -1.0000
G00 Z 5.0000

(End cutting path id: path2)


(Start cutting path id: path2)
(Change tool to Default tool)

G00 Z 5.0000
G00 X 27.0726 Y 14.5053

G01 Z -1.0000 F 100.0000(Penetrate)
G02 X 27.0572 Y 14.5495 Z -1.0000 I 0.0921 J 0.0569 F 3500.0000
G01 X 27.0648 Y 14.5715 Z -1.0000
G01 X 27.0809 Y 14.5715 Z -1.0000
G02 X 27.1106 Y 14.5258 Z -1.0000 I -0.0922 J -0.0925
G01 X 27.1003 Y 14.4979 Z -1.0000
G01 X 27.0726 Y 14.5053 Z -1.0000
G01 X 27.0726 Y 14.5053 Z -1.0000
G00 Z 5.0000

(End cutting path id: path2)


(Start cutting path id: path2)
(Change tool to Default tool)

G00 Z 5.0000
G00 X 26.8671 Y 14.5989

G01 Z -1.0000 F 100.0000(Penetrate)
G01 X 26.8559 Y 14.5989 Z -1.0000 F 3500.0000
G03 X 26.8455 Y 14.5453 Z -1.0000 I 0.1326 J -0.0536
G03 X 26.8559 Y 14.4918 Z -1.0000 I 0.1432 J 0.0000
G01 X 26.8671 Y 14.4918 Z -1.0000
G03 X 26.8775 Y 14.5453 Z -1.0000 I -0.1327 J 0.0536
G03 X 26.8671 Y 14.5989 Z -1.0000 I -0.1431 J -0.0000
G01 X 26.8671 Y 14.5989 Z -1.0000
G00 Z 5.0000

(End cutting path id: path2)


(Start cutting path id: path2)
(Change tool to Default tool)

G00 Z 5.0000
G00 X 26.6245 Y 14.6096

G01 Z -1.0000 F 100.0000(Penetrate)
G01 X 26.6245 Y 15.0594 Z -1.0000 F 3500.0000
G01 X 26.7852 Y 15.0597 Z -1.0000
G03 X 26.9457 Y 15.0641 Z -1.0000 I -0.0049 J 3.0663
G03 X 27.2993 Y 15.0874 Z -1.0000 I -0.8064 J 14.9265
G01 X 27.6527 Y 15.1150 Z -1.0000
G01 X 27.6527 Y 14.6374 Z -1.0000
G01 X 27.6527 Y 14.1598 Z -1.0000
G01 X 27.1386 Y 14.1598 Z -1.0000
G01 X 26.6245 Y 14.1598 Z -1.0000
G01 X 26.6245 Y 14.6096 Z -1.0000
G00 Z 5.0000

(End cutting path id: path2)


(Start cutting path id: path2)
(Change tool to Default tool)

G00 Z 5.0000
G00 X 26.8387 Y 15.2904

G01 Z -1.0000 F 100.0000(Penetrate)
G03 X 26.8224 Y 15.3389 Z -1.0000 I -0.0799 J -0.0000 F 3500.0000
G03 X 26.7745 Y 15.3748 Z -1.0000 I -0.0872 J -0.0664
G01 X 26.7327 Y 15.3667 Z -1.0000
G03 X 26.7102 Y 15.3151 Z -1.0000 I 0.0479 J -0.0516
G03 X 26.7315 Y 15.2520 Z -1.0000 I 0.1040 J -0.0000
G03 X 26.7745 Y 15.2307 Z -1.0000 I 0.0430 J 0.0328
G03 X 26.8206 Y 15.2489 Z -1.0000 I 0.0000 J 0.0678
G03 X 26.8387 Y 15.2904 Z -1.0000 I -0.0386 J 0.0416
G01 X 26.8387 Y 15.2904 Z -1.0000
G00 Z 5.0000

(End cutting path id: path2)


(Start cutting path id: path2)
(Change tool to Default tool)

G00 Z 5.0000
G00 X 27.0029 Y 15.4322

G01 Z -1.0000 F 100.0000(Penetrate)
G02 X 26.9779 Y 15.4853 Z -1.0000 I 0.0904 J 0.0750 F 3500.0000
G02 X 26.9852 Y 15.5250 Z -1.0000 I 0.0547 J 0.0104
G01 X 26.9816 Y 15.5470 Z -1.0000
G01 X 26.9473 Y 15.5567 Z -1.0000
G03 X 26.8728 Y 15.5012 Z -1.0000 I 0.0142 J -0.0969
G01 X 26.8926 Y 15.4396 Z -1.0000
G02 X 26.9539 Y 15.3900 Z -1.0000 I -0.1136 J -0.2031
G02 X 26.9672 Y 15.3546 Z -1.0000 I -0.0404 J -0.0354
G01 X 26.9540 Y 15.3351 Z -1.0000
G01 X 26.9249 Y 15.3375 Z -1.0000
G01 X 26.9087 Y 15.3321 Z -1.0000
G01 X 26.9085 Y 15.2960 Z -1.0000
G01 X 26.9409 Y 15.2761 Z -1.0000
G03 X 26.9902 Y 15.3044 Z -1.0000 I -0.0072 J 0.0695
G03 X 27.0190 Y 15.3797 Z -1.0000 I -0.1236 J 0.0904
G03 X 27.0029 Y 15.4323 Z -1.0000 I -0.0710 J 0.0070
G01 X 27.0029 Y 15.4322 Z -1.0000
G00 Z 5.0000

(End cutting path id: path2)


(Start cutting path id: path2)
(Change tool to Default tool)

G00 Z 5.0000
G00 X 27.0529 Y 15.7448

G01 Z -1.0000 F 100.0000(Penetrate)
G01 X 27.0694 Y 15.7712 Z -1.0000 F 3500.0000
G02 X 27.1411 Y 15.7877 Z -1.0000 I 0.0717 J -0.1477
G02 X 27.1976 Y 15.7700 Z -1.0000 I 0.0000 J -0.0991
G01 X 27.2029 Y 15.7448 Z -1.0000
G02 X 27.1694 Y 15.7146 Z -1.0000 I -0.0688 J 0.0425
G02 X 27.1147 Y 15.7020 Z -1.0000 I -0.0547 J 0.1127
G02 X 27.0676 Y 15.7167 Z -1.0000 I 0.0000 J 0.0825
G01 X 27.0529 Y 15.7448 Z -1.0000
G01 X 27.0529 Y 15.7448 Z -1.0000
G00 Z 5.0000

(End cutting path id: path2)


(Start cutting path id: path2)
(Change tool to Default tool)

G00 Z 5.0000
G00 X 27.2658 Y 15.6913

G01 Z -1.0000 F 100.0000(Penetrate)
G03 X 27.2514 Y 15.7618 Z -1.0000 I -0.1984 J -0.0036 F 3500.0000
G03 X 27.2028 Y 15.8476 Z -1.0000 I -0.3459 J -0.1392
G03 X 27.1367 Y 15.8895 Z -1.0000 I -0.0893 J -0.0676
G03 X 27.0757 Y 15.8744 Z -1.0000 I -0.0149 J -0.0706
G03 X 27.0288 Y 15.8112 Z -1.0000 I 0.1056 J -0.1272
G03 X 27.0101 Y 15.7182 Z -1.0000 I 0.2217 J -0.0931
G03 X 27.0433 Y 15.6495 Z -1.0000 I 0.0876 J -0.0000
G03 X 27.1386 Y 15.6163 Z -1.0000 I 0.0953 J 0.1203
G03 X 27.2392 Y 15.6437 Z -1.0000 I 0.0000 J 0.1980
G03 X 27.2658 Y 15.6913 Z -1.0000 I -0.0274 J 0.0465
G01 X 27.2658 Y 15.6913 Z -1.0000
G00 Z 5.0000

(End cutting path id: path2)


(Start cutting path id: path2)
(Change tool to Default tool)

G00 Z 5.0000
G00 X 27.3366 Y 15.4584

G01 Z -1.0000 F 100.0000(Penetrate)
G01 X 27.3745 Y 15.4662 Z -1.0000 F 3500.0000
G03 X 27.3950 Y 15.5153 Z -1.0000 I -0.0473 J 0.0485
G01 X 27.3781 Y 15.5392 Z -1.0000
G01 X 27.3528 Y 15.5306 Z -1.0000
G01 X 27.3252 Y 15.5145 Z -1.0000
G01 X 27.3106 Y 15.5281 Z -1.0000
G01 X 27.2934 Y 15.5405 Z -1.0000
G03 X 27.2456 Y 15.5067 Z -1.0000 I 0.0313 J -0.0949
G02 X 27.2164 Y 15.4883 Z -1.0000 I -0.0398 J 0.0308
G01 X 27.2073 Y 15.4985 Z -1.0000
G01 X 27.1849 Y 15.5448 Z -1.0000
G03 X 27.1013 Y 15.5350 Z -1.0000 I -0.0316 J -0.0918
G01 X 27.0871 Y 15.4989 Z -1.0000
G03 X 27.1228 Y 15.4526 Z -1.0000 I 0.0724 J 0.0188
G03 X 27.2000 Y 15.4294 Z -1.0000 I 0.0903 J 0.1601
G03 X 27.2402 Y 15.4442 Z -1.0000 I 0.0037 J 0.0520
G02 X 27.2810 Y 15.4645 Z -1.0000 I 0.0515 J -0.0522
G02 X 27.3366 Y 15.4584 Z -1.0000 I 0.0161 J -0.1092
G01 X 27.3366 Y 15.4584 Z -1.0000
G00 Z 5.0000

(End cutting path id: path2)


(Start cutting path id: path2)
(Change tool to Default tool)

G00 Z 5.0000
G00 X 27.4307 Y 15.3146

G01 Z -1.0000 F 100.0000(Penetrate)
G01 X 27.4556 Y 15.3320 Z -1.0000 F 3500.0000
G02 X 27.5079 Y 15.3122 Z -1.0000 I -0.0027 J -0.0861
G01 X 27.5342 Y 15.3100 Z -1.0000
G01 X 27.5420 Y 15.3318 Z -1.0000
G03 X 27.4712 Y 15.3791 Z -1.0000 I -0.0688 J -0.0264
G03 X 27.3647 Y 15.3271 Z -1.0000 I 0.0038 J -0.1428
G02 X 27.3320 Y 15.3064 Z -1.0000 I -0.0480 J 0.0395
G01 X 27.3224 Y 15.3164 Z -1.0000
G01 X 27.3082 Y 15.3557 Z -1.0000
G03 X 27.2242 Y 15.3807 Z -1.0000 I -0.0840 J -0.1284
G03 X 27.1366 Y 15.3560 Z -1.0000 I -0.0000 J -0.1678
G01 X 27.1193 Y 15.3164 Z -1.0000
G03 X 27.1545 Y 15.2748 Z -1.0000 I 0.0551 J 0.0110
G03 X 27.2766 Y 15.2568 Z -1.0000 I 0.1022 J 0.2698
G03 X 27.4011 Y 15.2839 Z -1.0000 I -0.0308 J 0.4418
G01 X 27.4307 Y 15.3146 Z -1.0000
G01 X 27.4307 Y 15.3146 Z -1.0000
G00 Z 5.0000

(End cutting path id: path2)


(Start cutting path id: path2)
(Change tool to Default tool)

G00 Z 5.0000
G00 X 27.6955 Y 15.5862

G01 Z -1.0000 F 100.0000(Penetrate)
G01 X 27.6955 Y 16.0395 Z -1.0000 F 3500.0000
G01 X 27.8776 Y 16.0615 Z -1.0000
G02 X 28.0602 Y 16.0765 Z -1.0000 I 0.2868 J -2.3678
G02 X 28.9272 Y 16.1074 Z -1.0000 I 2.3369 J -53.4229
G01 X 29.7947 Y 16.1313 Z -1.0000
G01 X 29.7947 Y 15.6596 Z -1.0000
G01 X 29.7947 Y 15.1879 Z -1.0000
G01 X 29.5912 Y 15.1871 Z -1.0000
G03 X 29.3877 Y 15.1840 Z -1.0000 I 0.0360 J -9.1316
G03 X 28.5416 Y 15.1596 Z -1.0000 I 4.1605 J -158.6245
G01 X 27.6955 Y 15.1329 Z -1.0000
G01 X 27.6955 Y 15.5862 Z -1.0000
G00 Z 5.0000

(End cutting path id: path2)


(Start cutting path id: path2)
(Change tool to Default tool)

G00 Z 5.0000
G00 X 28.0382 Y 15.3450

G01 Z -1.0000 F 100.0000(Penetrate)
G03 X 28.0205 Y 15.3844 Z -1.0000 I -0.0527 J -0.0000 F 3500.0000
G03 X 27.9740 Y 15.4021 Z -1.0000 I -0.0466 J -0.0524
G03 X 27.9274 Y 15.3844 Z -1.0000 I -0.0000 J -0.0701
G03 X 27.9097 Y 15.3450 Z -1.0000 I 0.0350 J -0.0394
G03 X 27.9274 Y 15.3056 Z -1.0000 I 0.0527 J -0.0000
G03 X 27.9740 Y 15.2879 Z -1.0000 I 0.0466 J 0.0524
G03 X 28.0205 Y 15.3056 Z -1.0000 I 0.0000 J 0.0701
G03 X 28.0382 Y 15.3450 Z -1.0000 I -0.0350 J 0.0394
G01 X 28.0382 Y 15.3450 Z -1.0000
G00 Z 5.0000

(End cutting path id: path2)


(Start cutting path id: path2)
(Change tool to Default tool)

G00 Z 5.0000
G00 X 28.1103 Y 15.3673

G01 Z -1.0000 F 100.0000(Penetrate)
G01 X 28.0970 Y 15.3700 Z -1.0000 F 3500.0000
G01 X 28.0845 Y 15.3414 Z -1.0000
G03 X 28.0936 Y 15.2879 Z -1.0000 I 0.1290 J -0.0054
G01 X 28.1070 Y 15.2852 Z -1.0000
G01 X 28.1195 Y 15.3138 Z -1.0000
G03 X 28.1104 Y 15.3673 Z -1.0000 I -0.1297 J 0.0053
G01 X 28.1103 Y 15.3673 Z -1.0000
G00 Z 5.0000

(End cutting path id: path2)


(Start cutting path id: path2)
(Change tool to Default tool)

G00 Z 5.0000
G00 X 28.2777 Y 15.4939

G01 Z -1.0000 F 100.0000(Penetrate)
G03 X 28.2477 Y 15.5779 Z -1.0000 I -0.0485 J 0.0300 F 3500.0000
G03 X 28.1346 Y 15.5431 Z -1.0000 I -0.0326 J -0.0950
G02 X 28.0968 Y 15.5196 Z -1.0000 I -0.0487 J 0.0364
G01 X 28.0804 Y 15.5332 Z -1.0000
G01 X 28.0665 Y 15.5482 Z -1.0000
G01 X 28.0428 Y 15.5365 Z -1.0000
G01 X 28.0095 Y 15.5182 Z -1.0000
G01 X 27.9826 Y 15.5365 Z -1.0000
G01 X 27.9679 Y 15.5430 Z -1.0000
G01 X 27.9559 Y 15.5269 Z -1.0000
G03 X 28.0714 Y 15.3924 Z -1.0000 I 0.1286 J -0.0064
G03 X 28.2777 Y 15.4939 Z -1.0000 I 0.0220 J 0.2154
G01 X 28.2777 Y 15.4939 Z -1.0000
G00 Z 5.0000

(End cutting path id: path2)


(Start cutting path id: path2)
(Change tool to Default tool)

G00 Z 5.0000
G00 X 28.3810 Y 15.4547

G01 Z -1.0000 F 100.0000(Penetrate)
G03 X 28.3675 Y 15.5981 Z -1.0000 I -0.7719 J -0.0000 F 3500.0000
G01 X 28.3530 Y 15.6026 Z -1.0000
G03 X 28.3364 Y 15.5700 Z -1.0000 I 0.0417 J -0.0417
G03 X 28.3268 Y 15.4348 Z -1.0000 I 0.8008 J -0.1248
G02 X 28.3183 Y 15.3496 Z -1.0000 I -0.3806 J -0.0049
G01 X 28.3083 Y 15.3488 Z -1.0000
G03 X 28.2802 Y 15.3799 Z -1.0000 I -0.0536 J -0.0203
G01 X 28.2488 Y 15.3784 Z -1.0000
G01 X 28.2340 Y 15.3265 Z -1.0000
G03 X 28.2953 Y 15.2854 Z -1.0000 I 0.0669 J 0.0334
G03 X 28.3476 Y 15.3149 Z -1.0000 I 0.0041 J 0.0539
G03 X 28.3810 Y 15.4547 Z -1.0000 I -0.2765 J 0.1399
G01 X 28.3810 Y 15.4547 Z -1.0000
G00 Z 5.0000

(End cutting path id: path2)


(Start cutting path id: path2)
(Change tool to Default tool)

G00 Z 5.0000
G00 X 28.4821 Y 15.5520

G01 Z -1.0000 F 100.0000(Penetrate)
G03 X 28.4848 Y 15.6012 Z -1.0000 I -0.0751 J 0.0288 F 3500.0000
G01 X 28.4653 Y 15.6163 Z -1.0000
G01 X 28.4384 Y 15.6017 Z -1.0000
G03 X 28.4238 Y 15.5520 Z -1.0000 I 0.0769 J -0.0496
G03 X 28.4311 Y 15.4951 Z -1.0000 I 0.2242 J -0.0000
G01 X 28.4406 Y 15.4878 Z -1.0000
G01 X 28.4529 Y 15.4945 Z -1.0000
G03 X 28.4821 Y 15.5520 Z -1.0000 I -0.2639 J 0.1701
G01 X 28.4821 Y 15.5520 Z -1.0000
G00 Z 5.0000

(End cutting path id: path2)


(Start cutting path id: path2)
(Change tool to Default tool)

G00 Z 5.0000
G00 X 28.5309 Y 15.3521

G01 Z -1.0000 F 100.0000(Penetrate)
G01 X 28.4867 Y 15.3894 Z -1.0000 F 3500.0000
G03 X 28.4304 Y 15.3352 Z -1.0000 I 0.0115 J -0.0683
G03 X 28.4410 Y 15.2923 Z -1.0000 I 0.0501 J -0.0104
G01 X 28.4733 Y 15.2829 Z -1.0000
G03 X 28.5166 Y 15.3125 Z -1.0000 I -0.0303 J 0.0909
G03 X 28.5309 Y 15.3521 Z -1.0000 I -0.0476 J 0.0396
G01 X 28.5309 Y 15.3521 Z -1.0000
G00 Z 5.0000

(End cutting path id: path2)


