%
(Header)
(Generated by gcodetools from Inkscape.)
(Using default header. To add your own header create file "header" in the output dir.)
M3
(Header end.)
G21 (All units in mm)

(Start cutting path id: path2558)
(Change tool to Default tool)

G00 Z 5.0000
G00 X 22.8577 Y 13.0174

G01 Z -1.0000 F 100.0000(Penetrate)
G02 X 22.8789 Y 13.0248 Z -1.0000 I 0.0270 J -0.0428 F 3500.0000
G02 X 22.9119 Y 13.0237 Z -1.0000 I 0.0126 J -0.1098
G01 X 22.9459 Y 13.0172 Z -1.0000
G01 X 22.9135 Y 13.0313 Z -1.0000
G03 X 22.8807 Y 13.0400 Z -1.0000 I -0.0445 J -0.1019
G03 X 22.8559 Y 13.0375 Z -1.0000 I -0.0065 J -0.0607
G01 X 22.8362 Y 13.0370 Z -1.0000
G01 X 22.8308 Y 13.0440 Z -1.0000
G01 X 22.8258 Y 13.0536 Z -1.0000
G01 X 22.8105 Y 13.0585 Z -1.0000
G01 X 22.7952 Y 13.0635 Z -1.0000
G01 X 22.7901 Y 13.0736 Z -1.0000
G01 X 22.7830 Y 13.0811 Z -1.0000
G03 X 22.6745 Y 13.0791 Z -1.0000 I -0.0395 J -0.8284
G02 X 22.5612 Y 13.0783 Z -1.0000 I -0.0619 J 0.7398
G02 X 22.5289 Y 13.0892 Z -1.0000 I 0.0047 J 0.0673
G03 X 22.4615 Y 13.1130 Z -1.0000 I -0.0824 J -0.1258
G03 X 22.1468 Y 13.1274 Z -1.0000 I -0.2908 J -2.9051
G02 X 21.9587 Y 13.1477 Z -1.0000 I -0.0068 J 0.8187
G01 X 21.9369 Y 13.1751 Z -1.0000
G01 X 21.9317 Y 13.1888 Z -1.0000
G01 X 21.9199 Y 13.1941 Z -1.0000
G01 X 21.9167 Y 13.1982 Z -1.0000
G01 X 21.9229 Y 13.2069 Z -1.0000
G03 X 21.9371 Y 13.2197 Z -1.0000 I -0.0296 J 0.0470
G01 X 21.9365 Y 13.2242 Z -1.0000
G03 X 21.8400 Y 13.2646 Z -1.0000 I -0.1328 J -0.1818
G03 X 21.5390 Y 13.2887 Z -1.0000 I -0.2980 J -1.8245
G02 X 21.3864 Y 13.3204 Z -1.0000 I -0.0006 J 0.3806
G02 X 21.3545 Y 13.3691 Z -1.0000 I 0.0212 J 0.0487
G01 X 21.3568 Y 13.3771 Z -1.0000
G02 X 21.3702 Y 13.3938 Z -1.0000 I 0.0831 J -0.0529
G01 X 21.3679 Y 13.4070 Z -1.0000
G03 X 21.1739 Y 13.4834 Z -1.0000 I -0.8213 J -1.7998
G03 X 21.0185 Y 13.5192 Z -1.0000 I -0.2634 J -0.7877
G01 X 21.0063 Y 13.5054 Z -1.0000
G02 X 21.0070 Y 13.4832 Z -1.0000 I -0.0487 J -0.0128
G01 X 21.0011 Y 13.4783 Z -1.0000
G01 X 20.9926 Y 13.4821 Z -1.0000
G01 X 20.9888 Y 13.4918 Z -1.0000
G01 X 20.9847 Y 13.5012 Z -1.0000
G01 X 20.9738 Y 13.5054 Z -1.0000
G01 X 20.9665 Y 13.5002 Z -1.0000
G01 X 20.9666 Y 13.4851 Z -1.0000
G01 X 20.9625 Y 13.4729 Z -1.0000
G02 X 20.9334 Y 13.4647 Z -1.0000 I -0.0291 J 0.0476
G02 X 20.9038 Y 13.4711 Z -1.0000 I 0.0000 J 0.0720
G01 X 20.9013 Y 13.4792 Z -1.0000
G01 X 20.9124 Y 13.4875 Z -1.0000
G01 X 20.9286 Y 13.4866 Z -1.0000
G01 X 20.9387 Y 13.4908 Z -1.0000
G03 X 20.9442 Y 13.5219 Z -1.0000 I -0.0607 J 0.0268
G03 X 20.9306 Y 13.5583 Z -1.0000 I -0.0675 J -0.0044
G03 X 20.8771 Y 13.6106 Z -1.0000 I -0.2002 J -0.1516
G02 X 20.8291 Y 13.6555 Z -1.0000 I 0.1497 J 0.2081
G01 X 20.8342 Y 13.6625 Z -1.0000
G01 X 20.8470 Y 13.6634 Z -1.0000
G01 X 20.8501 Y 13.6712 Z -1.0000
G03 X 20.7514 Y 13.7913 Z -1.0000 I -0.2029 J -0.0661
G03 X 20.5182 Y 13.8568 Z -1.0000 I -0.2527 J -0.4517
G01 X 20.5067 Y 13.8518 Z -1.0000
G01 X 20.5012 Y 13.8367 Z -1.0000
G01 X 20.4958 Y 13.8197 Z -1.0000
G01 X 20.4810 Y 13.8082 Z -1.0000
G01 X 20.4683 Y 13.7979 Z -1.0000
G01 X 20.4683 Y 13.7883 Z -1.0000
G01 X 20.4618 Y 13.7785 Z -1.0000
G02 X 20.4311 Y 13.7941 Z -1.0000 I 0.0085 J 0.0547
G03 X 20.4121 Y 13.8098 Z -1.0000 I -0.0928 J -0.0928
G01 X 20.4027 Y 13.8134 Z -1.0000
G02 X 20.3733 Y 13.8271 Z -1.0000 I 0.0073 J 0.0542
G01 X 20.3739 Y 13.8395 Z -1.0000
G03 X 20.4061 Y 13.8975 Z -1.0000 I -0.0492 J 0.0653
G03 X 20.3857 Y 13.9709 Z -1.0000 I -0.1075 J 0.0097
G02 X 20.3734 Y 13.9963 Z -1.0000 I 0.0633 J 0.0462
G01 X 20.3743 Y 14.0127 Z -1.0000
G01 X 20.3710 Y 14.0271 Z -1.0000
G03 X 20.2481 Y 14.1305 Z -1.0000 I -1.0733 J -1.1506
G03 X 20.0855 Y 14.2320 Z -1.0000 I -0.6411 J -0.8459
G01 X 20.0599 Y 14.2256 Z -1.0000
G02 X 20.0367 Y 14.2064 Z -1.0000 I -0.0465 J 0.0326
G02 X 20.0066 Y 14.2016 Z -1.0000 I -0.0239 J 0.0530
G02 X 19.9146 Y 14.2404 Z -1.0000 I 0.0185 J 0.1725
G01 X 19.9162 Y 14.2765 Z -1.0000
G01 X 19.9252 Y 14.2911 Z -1.0000
G03 X 19.9321 Y 14.3881 Z -1.0000 I -0.6796 J 0.0972
G02 X 19.9402 Y 14.4178 Z -1.0000 I 0.0592 J -0.0000
G01 X 19.9560 Y 14.4292 Z -1.0000
G01 X 19.9603 Y 14.4402 Z -1.0000
G03 X 19.8647 Y 14.5571 Z -1.0000 I -0.9286 J -0.6625
G03 X 19.7223 Y 14.6863 Z -1.0000 I -0.8619 J -0.8065
G01 X 19.7015 Y 14.6825 Z -1.0000
G01 X 19.6887 Y 14.6756 Z -1.0000
G02 X 19.6418 Y 14.6835 Z -1.0000 I 0.0025 J 0.1578
G02 X 19.5708 Y 14.7393 Z -1.0000 I 0.0416 J 0.1261
G02 X 19.5479 Y 14.8338 Z -1.0000 I 0.1307 J 0.0816
G02 X 19.5765 Y 14.9142 Z -1.0000 I 0.1673 J -0.0143
G01 X 19.6073 Y 14.9207 Z -1.0000
G01 X 19.6142 Y 14.9273 Z -1.0000
G03 X 19.5276 Y 15.0697 Z -1.0000 I -1.3242 J -0.7086
G03 X 19.4314 Y 15.1971 Z -1.0000 I -1.4757 J -1.0143
G01 X 19.4185 Y 15.2014 Z -1.0000
G02 X 19.3728 Y 15.2103 Z -1.0000 I -0.0128 J 0.0561
G02 X 19.2986 Y 15.2851 Z -1.0000 I 0.1679 J 0.2406
G02 X 19.2718 Y 15.4240 Z -1.0000 I 0.1465 J 0.1004
G02 X 19.3385 Y 15.4647 Z -1.0000 I 0.0530 J -0.0118
G01 X 19.3484 Y 15.4738 Z -1.0000
G03 X 19.3245 Y 15.5469 Z -1.0000 I -0.2577 J -0.0439
G02 X 19.2887 Y 15.6262 Z -1.0000 I 0.9840 J 0.4922
G02 X 19.2703 Y 15.6807 Z -1.0000 I 0.4445 J 0.1800
G03 X 19.2169 Y 15.7990 Z -1.0000 I -0.3948 J -0.1070
G01 X 19.1904 Y 15.8017 Z -1.0000
G01 X 19.1839 Y 15.8019 Z -1.0000
G02 X 19.1504 Y 15.8486 Z -1.0000 I 0.2580 J 0.2205
G03 X 19.1157 Y 15.8940 Z -1.0000 I -0.2128 J -0.1269
G01 X 19.1053 Y 15.8953 Z -1.0000
G01 X 19.0696 Y 15.9153 Z -1.0000
G02 X 19.1062 Y 16.0380 Z -1.0000 I 0.2288 J -0.0015
G01 X 19.1160 Y 16.0466 Z -1.0000
G01 X 19.1196 Y 16.0443 Z -1.0000
G01 X 19.1250 Y 16.0356 Z -1.0000
G01 X 19.1469 Y 16.0303 Z -1.0000
G03 X 19.1694 Y 16.0348 Z -1.0000 I 0.0000 J 0.0581
G01 X 19.1740 Y 16.0417 Z -1.0000
G01 X 19.1779 Y 16.0461 Z -1.0000
G01 X 19.1896 Y 16.0435 Z -1.0000
G01 X 19.1967 Y 16.0466 Z -1.0000
G03 X 19.1974 Y 16.0800 Z -1.0000 I -0.0867 J 0.0185
G03 X 19.1136 Y 16.4357 Z -1.0000 I -2.9077 J -0.4976
G01 X 19.0859 Y 16.4493 Z -1.0000
G01 X 19.0722 Y 16.4511 Z -1.0000
G01 X 19.0656 Y 16.4642 Z -1.0000
G03 X 19.0612 Y 16.4851 Z -1.0000 I -0.0511 J -0.0000
G03 X 19.0471 Y 16.5055 Z -1.0000 I -0.0621 J -0.0278
G01 X 19.0365 Y 16.5278 Z -1.0000
G02 X 19.0368 Y 16.6014 Z -1.0000 I 0.3279 J 0.0353
G01 X 19.0430 Y 16.6128 Z -1.0000
G02 X 19.0733 Y 16.6319 Z -1.0000 I 0.0853 J -0.1016
G01 X 19.1001 Y 16.6350 Z -1.0000
G01 X 19.0985 Y 16.6238 Z -1.0000
G01 X 19.1056 Y 16.6141 Z -1.0000
G01 X 19.1293 Y 16.6230 Z -1.0000
G03 X 19.1725 Y 16.8359 Z -1.0000 I -1.1285 J 0.3403
G03 X 19.1787 Y 17.0225 Z -1.0000 I -1.2357 J 0.1344
G01 X 19.1641 Y 17.0354 Z -1.0000
G01 X 19.1465 Y 17.0400 Z -1.0000
G01 X 19.1404 Y 17.0510 Z -1.0000
G01 X 19.1360 Y 17.0660 Z -1.0000
G01 X 19.1227 Y 17.0791 Z -1.0000
G02 X 19.0819 Y 17.1462 Z -1.0000 I 0.0455 J 0.0737
G02 X 19.1115 Y 17.2262 Z -1.0000 I 0.1018 J 0.0078
G01 X 19.1203 Y 17.2285 Z -1.0000
G01 X 19.1356 Y 17.2196 Z -1.0000
G01 X 19.1510 Y 17.2176 Z -1.0000
G03 X 19.2116 Y 17.2640 Z -1.0000 I -0.1549 J 0.2649
G03 X 19.2610 Y 17.3303 Z -1.0000 I -0.1918 J 0.1945
G03 X 19.3030 Y 17.4360 Z -1.0000 I -0.4558 J 0.2422
G02 X 19.3343 Y 17.5481 Z -1.0000 I 12.9550 J -3.5546
G02 X 19.3435 Y 17.5787 Z -1.0000 I 0.9620 J -0.2729
G01 X 19.3430 Y 17.6018 Z -1.0000
G01 X 19.3324 Y 17.6092 Z -1.0000
G01 X 19.3184 Y 17.6176 Z -1.0000
G02 X 19.2979 Y 17.6735 Z -1.0000 I 0.1861 J 0.1000
G02 X 19.2972 Y 17.7348 Z -1.0000 I 0.1525 J 0.0325
G02 X 19.3184 Y 17.7827 Z -1.0000 I 0.1115 J -0.0210
G02 X 19.3562 Y 17.8229 Z -1.0000 I 0.2148 J -0.1638
G02 X 19.3839 Y 17.8394 Z -1.0000 I 0.0605 J -0.0697
G03 X 19.4128 Y 17.8541 Z -1.0000 I -0.0542 J 0.1431
G01 X 19.4236 Y 17.8651 Z -1.0000
G01 X 19.4344 Y 17.8723 Z -1.0000
G01 X 19.4544 Y 17.8704 Z -1.0000
G01 X 19.4656 Y 17.8729 Z -1.0000
G01 X 19.4679 Y 17.8845 Z -1.0000
G01 X 19.4687 Y 17.9007 Z -1.0000
G01 X 19.4791 Y 17.9072 Z -1.0000
G01 X 19.4942 Y 17.9121 Z -1.0000
G01 X 19.4990 Y 17.9215 Z -1.0000
G01 X 19.4949 Y 17.9285 Z -1.0000
G01 X 19.4867 Y 17.9283 Z -1.0000
G01 X 19.4768 Y 17.9365 Z -1.0000
G02 X 19.5145 Y 18.0020 Z -1.0000 I 0.2188 J -0.0824
G01 X 19.5341 Y 18.0122 Z -1.0000
G03 X 19.5292 Y 17.9830 Z -1.0000 I 0.0876 J -0.0297
G01 X 19.5340 Y 17.9817 Z -1.0000
G02 X 19.5589 Y 18.0212 Z -1.0000 I 0.4438 J -0.2528
G02 X 19.5890 Y 18.0607 Z -1.0000 I 0.4774 J -0.3330
G03 X 19.6207 Y 18.1223 Z -1.0000 I -0.1218 J 0.1014
G01 X 19.6089 Y 18.1375 Z -1.0000
G01 X 19.6017 Y 18.1429 Z -1.0000
G02 X 19.5874 Y 18.2139 Z -1.0000 I 0.4643 J 0.1308
G02 X 19.5881 Y 18.2876 Z -1.0000 I 0.2755 J 0.0343
G02 X 19.6032 Y 18.3243 Z -1.0000 I 0.0796 J -0.0114
G02 X 19.7086 Y 18.4027 Z -1.0000 I 0.1844 J -0.1377
G01 X 19.7375 Y 18.3734 Z -1.0000
G01 X 19.7512 Y 18.3610 Z -1.0000
G03 X 19.8080 Y 18.4092 Z -1.0000 I -0.0728 J 0.1434
G01 X 19.8484 Y 18.4641 Z -1.0000
G01 X 19.7976 Y 18.5818 Z -1.0000
G03 X 19.7457 Y 18.6991 Z -1.0000 I -6.4414 J -2.7799
G03 X 19.7157 Y 18.7625 Z -1.0000 I -1.9316 J -0.8758
G01 X 19.6845 Y 18.8255 Z -1.0000
G01 X 19.5714 Y 18.8255 Z -1.0000
G01 X 19.4583 Y 18.8255 Z -1.0000
G01 X 19.4493 Y 18.7695 Z -1.0000
G02 X 19.4313 Y 18.7180 Z -1.0000 I -0.1520 J 0.0241
G02 X 19.3850 Y 18.6555 Z -1.0000 I -0.2740 J 0.1546
G02 X 19.2301 Y 18.6066 Z -1.0000 I -0.1219 J 0.1162
G02 X 19.0626 Y 18.7199 Z -1.0000 I 0.0511 J 0.2561
G03 X 18.9109 Y 18.8341 Z -1.0000 I -0.2337 J -0.1526
G03 X 18.6624 Y 18.8428 Z -1.0000 I -0.1405 J -0.4572
G02 X 18.4410 Y 18.8394 Z -1.0000 I -0.1187 J 0.5122
G02 X 18.3479 Y 18.9055 Z -1.0000 I 0.0273 J 0.1372
G02 X 18.2951 Y 19.1324 Z -1.0000 I 0.3346 J 0.1975
G02 X 18.3728 Y 19.2316 Z -1.0000 I 0.1132 J -0.0086
G01 X 18.3790 Y 19.2276 Z -1.0000
G01 X 18.3750 Y 19.2078 Z -1.0000
G03 X 18.3723 Y 19.1462 Z -1.0000 I 0.0627 J -0.0336
G03 X 18.4307 Y 19.0777 Z -1.0000 I 0.1392 J 0.0596
G03 X 18.5567 Y 19.0251 Z -1.0000 I 0.2186 J 0.3463
G01 X 18.5711 Y 19.0451 Z -1.0000
G01 X 18.5724 Y 19.0528 Z -1.0000
G01 X 18.5827 Y 19.0543 Z -1.0000
G01 X 18.6310 Y 19.0667 Z -1.0000
G03 X 18.7053 Y 19.1988 Z -1.0000 I -0.3038 J 0.2577
G01 X 18.7038 Y 19.2136 Z -1.0000
G01 X 18.6949 Y 19.2168 Z -1.0000
G01 X 18.6764 Y 19.2153 Z -1.0000
G02 X 18.6390 Y 19.2288 Z -1.0000 I 0.0324 J 0.1485
G03 X 18.5993 Y 19.2364 Z -1.0000 I -0.0326 J -0.0629
G01 X 18.5945 Y 19.2243 Z -1.0000
G02 X 18.6383 Y 19.1365 Z -1.0000 I -0.1451 J -0.1271
G01 X 18.6160 Y 19.1209 Z -1.0000
G01 X 18.6055 Y 19.1216 Z -1.0000
G03 X 18.5836 Y 19.1067 Z -1.0000 I 0.0290 J -0.0658
G02 X 18.5228 Y 19.0831 Z -1.0000 I -0.0571 J 0.0571
G02 X 18.4560 Y 19.1126 Z -1.0000 I 0.0047 J 0.1009
G02 X 18.4356 Y 19.1541 Z -1.0000 I 0.0508 J 0.0508
G02 X 18.4427 Y 19.2147 Z -1.0000 I 0.1241 J 0.0162
G01 X 18.4605 Y 19.2356 Z -1.0000
G01 X 18.4766 Y 19.2343 Z -1.0000
G01 X 18.4893 Y 19.2333 Z -1.0000
G01 X 18.4967 Y 19.2464 Z -1.0000
G01 X 18.4836 Y 19.2676 Z -1.0000
G03 X 18.4323 Y 19.2787 Z -1.0000 I -0.0473 J -0.0940
G01 X 18.4202 Y 19.2910 Z -1.0000
G02 X 18.4365 Y 19.3629 Z -1.0000 I 0.2138 J -0.0107
G03 X 18.4451 Y 19.4113 Z -1.0000 I -0.1040 J 0.0435
G01 X 18.4331 Y 19.4406 Z -1.0000
G03 X 18.2793 Y 19.5518 Z -1.0000 I -0.3347 J -0.3011
G01 X 18.2394 Y 19.5257 Z -1.0000
G01 X 18.2346 Y 19.5101 Z -1.0000
G01 X 18.2258 Y 19.5053 Z -1.0000
G01 X 18.2177 Y 19.5000 Z -1.0000
G03 X 18.2125 Y 19.4749 Z -1.0000 I 0.0563 J -0.0248
G01 X 18.2179 Y 19.4628 Z -1.0000
G01 X 18.2249 Y 19.4638 Z -1.0000
G01 X 18.2335 Y 19.4640 Z -1.0000
G02 X 18.2466 Y 19.4333 Z -1.0000 I -0.0636 J -0.0451
G03 X 18.2602 Y 19.3886 Z -1.0000 I 0.2068 J 0.0385
G01 X 18.2680 Y 19.3835 Z -1.0000
G01 X 18.2755 Y 19.3790 Z -1.0000
G01 X 18.2800 Y 19.3609 Z -1.0000
G01 X 18.2759 Y 19.3481 Z -1.0000
G01 X 18.2706 Y 19.3477 Z -1.0000
G01 X 18.2636 Y 19.3470 Z -1.0000
G03 X 18.2469 Y 19.3127 Z -1.0000 I 0.1129 J -0.0762
G02 X 18.2259 Y 19.2762 Z -1.0000 I -0.0961 J 0.0311
G01 X 18.2033 Y 19.2642 Z -1.0000
G02 X 18.1459 Y 19.2725 Z -1.0000 I -0.0144 J 0.1017
G02 X 17.9752 Y 19.3691 Z -1.0000 I 0.4909 J 1.0670
G03 X 17.9329 Y 19.3913 Z -1.0000 I -0.1173 J -0.1720
G03 X 17.9032 Y 19.3969 Z -1.0000 I -0.0299 J -0.0775
G02 X 17.8447 Y 19.4144 Z -1.0000 I 0.0003 J 0.1080
G02 X 17.7993 Y 19.4645 Z -1.0000 I 0.0721 J 0.1109
G03 X 17.7722 Y 19.4952 Z -1.0000 I -0.0746 J -0.0386
G03 X 17.7280 Y 19.5134 Z -1.0000 I -0.0645 J -0.0941
G02 X 17.6398 Y 19.5437 Z -1.0000 I 0.0554 J 0.3047
G02 X 17.4447 Y 19.6617 Z -1.0000 I 0.8570 J 1.6365
G03 X 17.3582 Y 19.7144 Z -1.0000 I -0.4897 J -0.7068
G03 X 17.2306 Y 19.7754 Z -1.0000 I -0.7872 J -1.4826
G02 X 16.8721 Y 19.9481 Z -1.0000 I 1.7329 J 4.0560
G02 X 16.6067 Y 20.1114 Z -1.0000 I 1.2819 J 2.3801
G03 X 16.4854 Y 20.1960 Z -1.0000 I -70.0215 J -100.3252
G03 X 16.1807 Y 20.4080 Z -1.0000 I -433.0121 J -622.0080
G02 X 15.7039 Y 20.7497 Z -1.0000 I 11.8268 J 17.0067
G02 X 15.5893 Y 20.8446 Z -1.0000 I 0.7917 J 1.0723
G02 X 15.4155 Y 21.0544 Z -1.0000 I 0.7067 J 0.7622
G02 X 15.3083 Y 21.2925 Z -1.0000 I 0.8085 J 0.5072
G02 X 15.2392 Y 21.6320 Z -1.0000 I 1.9600 J 0.5761
G02 X 15.2056 Y 22.1738 Z -1.0000 I 4.9799 J 0.5805
G01 X 15.2023 Y 22.1773 Z -1.0000
G03 X 15.1540 Y 22.1760 Z -1.0000 I -0.0150 J -0.3501
G02 X 15.1026 Y 22.1755 Z -1.0000 I -0.0286 J 0.3005
G02 X 15.0219 Y 22.1859 Z -1.0000 I 0.0581 J 0.7692
G02 X 14.7825 Y 22.2924 Z -1.0000 I 0.1015 J 0.5506
G02 X 14.6188 Y 22.4955 Z -1.0000 I 0.3377 J 0.4398
G02 X 14.5896 Y 22.5896 Z -1.0000 I 0.3161 J 0.1493
G02 X 14.5761 Y 22.7626 Z -1.0000 I 1.0698 J 0.1709
G02 X 14.5862 Y 22.9371 Z -1.0000 I 1.5592 J -0.0030
G02 X 14.6079 Y 23.0399 Z -1.0000 I 0.5582 J -0.0640
G02 X 14.7051 Y 23.2651 Z -1.0000 I 1.1057 J -0.3435
G02 X 14.8449 Y 23.4601 Z -1.0000 I 0.9640 J -0.5437
G02 X 15.2466 Y 23.8858 Z -1.0000 I 8.4392 J -7.5623
G02 X 15.3714 Y 23.9899 Z -1.0000 I 0.6201 J -0.6163
G03 X 15.4443 Y 24.0700 Z -1.0000 I -0.1343 J 0.1954
G01 X 15.4327 Y 24.0999 Z -1.0000
G01 X 15.4270 Y 24.1093 Z -1.0000
G02 X 15.4395 Y 24.1412 Z -1.0000 I 0.0815 J -0.0134
G03 X 15.4665 Y 24.2202 Z -1.0000 I -0.1406 J 0.0921
G01 X 15.4478 Y 24.2484 Z -1.0000
G01 X 15.4439 Y 24.2575 Z -1.0000
G02 X 15.5130 Y 24.3883 Z -1.0000 I 1.3281 J -0.6182
G03 X 15.6974 Y 24.7252 Z -1.0000 I -4.6127 J 2.7440
G03 X 15.7017 Y 24.7645 Z -1.0000 I -0.0507 J 0.0254
G03 X 15.6279 Y 24.9060 Z -1.0000 I -0.3324 J -0.0834
G03 X 15.5464 Y 24.9431 Z -1.0000 I -0.0815 J -0.0709
G01 X 15.5310 Y 24.9349 Z -1.0000
G03 X 15.4958 Y 24.8686 Z -1.0000 I 0.2857 J -0.1941
G02 X 15.3469 Y 24.5225 Z -1.0000 I -6.4034 J 2.5490
G01 X 15.3276 Y 24.5053 Z -1.0000
G01 X 15.2988 Y 24.5059 Z -1.0000
G02 X 14.9854 Y 24.6366 Z -1.0000 I 2.1301 J 5.5471
G02 X 14.9133 Y 24.7260 Z -1.0000 I 0.0523 J 0.1160
G02 X 14.9195 Y 24.9447 Z -1.0000 I 0.4515 J 0.0965
G03 X 15.0333 Y 25.3961 Z -1.0000 I -10.7803 J 2.9568
G03 X 15.0430 Y 25.4815 Z -1.0000 I -0.3715 J 0.0854
G03 X 15.0353 Y 25.5103 Z -1.0000 I -0.0576 J 0.0000
G03 X 15.0014 Y 25.5534 Z -1.0000 I -0.1680 J -0.0971
G02 X 14.9151 Y 25.6600 Z -1.0000 I 0.3754 J 0.3924
G01 X 14.9114 Y 25.6988 Z -1.0000
G01 X 14.9225 Y 25.7111 Z -1.0000
G02 X 15.0086 Y 25.7477 Z -1.0000 I 0.3308 J -0.6568
G03 X 15.0917 Y 25.7875 Z -1.0000 I -0.1443 J 0.4087
G01 X 15.1111 Y 25.8109 Z -1.0000
G03 X 15.1904 Y 26.1269 Z -1.0000 I -1.3006 J 0.4945
G03 X 15.2323 Y 26.7478 Z -1.0000 I -5.0369 J 0.6518
G03 X 15.2252 Y 26.7845 Z -1.0000 I -0.0947 J 0.0006
G01 X 15.2142 Y 26.7918 Z -1.0000
G03 X 13.8788 Y 26.4797 Z -1.0000 I -0.0000 J -3.0125
G03 X 13.5667 Y 25.9771 Z -1.0000 I 0.2485 J -0.5025
G01 X 13.5623 Y 25.9688 Z -1.0000
G02 X 13.5005 Y 25.9326 Z -1.0000 I -0.3256 J 0.4842
G03 X 13.4421 Y 25.8922 Z -1.0000 I 0.1194 J -0.2355
G03 X 13.4206 Y 25.8598 Z -1.0000 I 0.0532 J -0.0585
G02 X 13.3286 Y 25.7690 Z -1.0000 I -0.1385 J 0.0483
G02 X 13.1256 Y 25.7613 Z -1.0000 I -0.1146 J 0.3433
G01 X 13.0629 Y 25.7771 Z -1.0000
G01 X 12.8442 Y 25.6665 Z -1.0000
G03 X 12.6305 Y 25.5488 Z -1.0000 I 1.5694 J -3.1026
G03 X 12.5731 Y 25.5045 Z -1.0000 I 0.1572 J -0.2631
G03 X 12.5447 Y 25.4489 Z -1.0000 I 0.0687 J -0.0701
G01 X 12.5625 Y 25.4330 Z -1.0000
G01 X 12.6051 Y 25.4162 Z -1.0000
G02 X 12.6322 Y 25.3229 Z -1.0000 I -0.1474 J -0.0933
G02 X 12.6221 Y 25.2617 Z -1.0000 I -0.1908 J 0.0000
G01 X 12.6085 Y 25.2527 Z -1.0000
G01 X 12.5923 Y 25.2469 Z -1.0000
G01 X 12.5859 Y 25.2309 Z -1.0000
G02 X 12.5868 Y 25.2072 Z -1.0000 I -0.9214 J -0.0439
G02 X 12.5893 Y 25.0796 Z -1.0000 I -38.2729 J -0.8367
G01 X 12.5916 Y 24.9520 Z -1.0000
G01 X 12.6309 Y 24.9434 Z -1.0000
G02 X 12.6608 Y 24.9257 Z -1.0000 I -0.0120 J -0.0546
G02 X 12.6788 Y 24.8890 Z -1.0000 I -0.0580 J -0.0510
G02 X 12.6748 Y 24.7980 Z -1.0000 I -0.1969 J -0.0369
G01 X 12.6444 Y 24.7666 Z -1.0000
G01 X 12.6269 Y 24.7522 Z -1.0000
G03 X 12.6165 Y 24.7153 Z -1.0000 I 0.0757 J -0.0411
G03 X 12.6145 Y 24.6722 Z -1.0000 I 8.4713 J -0.4287
G03 X 12.6110 Y 24.5935 Z -1.0000 I 19.9212 J -0.9066
G02 X 12.6055 Y 24.5151 Z -1.0000 I -1.3485 J 0.0560
G02 X 12.6002 Y 24.4847 Z -1.0000 I -0.2056 J 0.0206
G01 X 12.6031 Y 24.4599 Z -1.0000
G01 X 12.6226 Y 24.4416 Z -1.0000
G01 X 12.6432 Y 24.4218 Z -1.0000
G02 X 12.6568 Y 24.3708 Z -1.0000 I -0.1266 J -0.0611
G02 X 12.6485 Y 24.3182 Z -1.0000 I -0.1182 J -0.0085
G02 X 12.6177 Y 24.2737 Z -1.0000 I -0.1128 J 0.0453
G03 X 12.5839 Y 24.2319 Z -1.0000 I 0.1199 J -0.1313
G01 X 12.5824 Y 24.2132 Z -1.0000
G01 X 12.5841 Y 24.1945 Z -1.0000
G01 X 12.5769 Y 24.1840 Z -1.0000
G01 X 12.5699 Y 24.1732 Z -1.0000
G03 X 12.5718 Y 24.1490 Z -1.0000 I 0.0539 J -0.0079
G02 X 12.5745 Y 24.1235 Z -1.0000 I -0.0612 J -0.0192
G01 X 12.5675 Y 24.1061 Z -1.0000
G03 X 12.5391 Y 24.0457 Z -1.0000 I 0.1191 J -0.0929
G01 X 12.5522 Y 24.0365 Z -1.0000
G01 X 12.5585 Y 24.0319 Z -1.0000
G02 X 12.5426 Y 23.9946 Z -1.0000 I -0.1123 J 0.0257
G03 X 12.5291 Y 23.9657 Z -1.0000 I 0.0932 J -0.0610
G01 X 12.5325 Y 23.9612 Z -1.0000
G01 X 12.5685 Y 23.9356 Z -1.0000
G02 X 12.5725 Y 23.8463 Z -1.0000 I -0.1474 J -0.0513
G02 X 12.5580 Y 23.8184 Z -1.0000 I -0.0662 J 0.0166
G02 X 12.5237 Y 23.7897 Z -1.0000 I -0.1043 J 0.0898
G03 X 12.4902 Y 23.7617 Z -1.0000 I 0.0686 J -0.1161
G01 X 12.4832 Y 23.7427 Z -1.0000
G01 X 12.4780 Y 23.7231 Z -1.0000
G01 X 12.4662 Y 23.7128 Z -1.0000
G01 X 12.4611 Y 23.7046 Z -1.0000
G01 X 12.4676 Y 23.6931 Z -1.0000
G01 X 12.4761 Y 23.6779 Z -1.0000
G02 X 12.4701 Y 23.6507 Z -1.0000 I -0.0511 J -0.0030
G03 X 12.4575 Y 23.6202 Z -1.0000 I 0.1495 J -0.0800
G03 X 12.4500 Y 23.5846 Z -1.0000 I 0.1961 J -0.0599
G02 X 12.4455 Y 23.5481 Z -1.0000 I -5.7473 J 0.6869
G02 X 12.4441 Y 23.5372 Z -1.0000 I -1.6112 J 0.2030
G01 X 12.4397 Y 23.5323 Z -1.0000
G01 X 12.4305 Y 23.5337 Z -1.0000
G01 X 12.4078 Y 23.5227 Z -1.0000
G03 X 12.4202 Y 23.4479 Z -1.0000 I 0.1346 J -0.0161
G02 X 12.4349 Y 23.3716 Z -1.0000 I -0.1373 J -0.0660
G01 X 12.4137 Y 23.3518 Z -1.0000
G01 X 12.4075 Y 23.3478 Z -1.0000
G01 X 12.4080 Y 23.3393 Z -1.0000
G01 X 12.4062 Y 23.3310 Z -1.0000
G02 X 12.3755 Y 23.3181 Z -1.0000 I -0.0504 J 0.0768
G03 X 12.3086 Y 23.2697 Z -1.0000 I 0.0223 J -0.1014
G03 X 12.3070 Y 23.2030 Z -1.0000 I 0.0583 J -0.0347
G02 X 12.3100 Y 23.1210 Z -1.0000 I -0.0823 J -0.0440
G02 X 12.2422 Y 23.0575 Z -1.0000 I -0.1091 J 0.0487
G01 X 12.2148 Y 23.0290 Z -1.0000
G01 X 12.2202 Y 22.9893 Z -1.0000
G02 X 12.2292 Y 22.9577 Z -1.0000 I -0.0461 J -0.0302
G02 X 12.2181 Y 22.9113 Z -1.0000 I -0.1153 J 0.0031
G02 X 12.1839 Y 22.8734 Z -1.0000 I -0.0803 J 0.0381
G02 X 12.1344 Y 22.8606 Z -1.0000 I -0.0461 J 0.0760
G01 X 12.1104 Y 22.8466 Z -1.0000
G03 X 12.0712 Y 22.7390 Z -1.0000 I 0.3913 J -0.2035
G02 X 12.0628 Y 22.7018 Z -1.0000 I -358.1379 J 80.5606
G02 X 12.0605 Y 22.6916 Z -1.0000 I -11.5396 J 2.5970
G02 X 12.0380 Y 22.6550 Z -1.0000 I -0.0661 J 0.0155
G02 X 11.9889 Y 22.6316 Z -1.0000 I -0.0698 J 0.0833
G01 X 11.9724 Y 22.6178 Z -1.0000
G03 X 11.9626 Y 22.5633 Z -1.0000 I 0.1369 J -0.0527
G02 X 11.9581 Y 22.5095 Z -1.0000 I -0.2842 J -0.0036
G01 X 11.9524 Y 22.5069 Z -1.0000
G01 X 11.9453 Y 22.5068 Z -1.0000
G01 X 11.9415 Y 22.4999 Z -1.0000
G02 X 11.9194 Y 22.4529 Z -1.0000 I -0.0609 J 0.0000
G02 X 11.8580 Y 22.4309 Z -1.0000 I -0.0614 J 0.0743
G03 X 11.8093 Y 22.4070 Z -1.0000 I -0.0000 J -0.0616
G03 X 11.7933 Y 22.3473 Z -1.0000 I 0.0632 J -0.0489
G02 X 11.7879 Y 22.2941 Z -1.0000 I -0.1140 J -0.0154
G01 X 11.7722 Y 22.2868 Z -1.0000
G01 X 11.7563 Y 22.2881 Z -1.0000
G01 X 11.7519 Y 22.2826 Z -1.0000
G01 X 11.7556 Y 22.2733 Z -1.0000
G01 X 11.7688 Y 22.2649 Z -1.0000
G01 X 11.7694 Y 22.2593 Z -1.0000
G02 X 11.7248 Y 22.2391 Z -1.0000 I -0.1178 J 0.2003
G03 X 11.6744 Y 22.2102 Z -1.0000 I 0.0459 J -0.1384
G01 X 11.6594 Y 22.1816 Z -1.0000
G02 X 11.6496 Y 22.1471 Z -1.0000 I -0.1113 J 0.0131
G02 X 11.6305 Y 22.1199 Z -1.0000 I -0.0873 J 0.0410
G03 X 11.6076 Y 22.0941 Z -1.0000 I 0.2033 J -0.2033
G03 X 11.5928 Y 22.0718 Z -1.0000 I 0.1361 J -0.1068
G01 X 11.5754 Y 22.0554 Z -1.0000
G02 X 11.5438 Y 22.0482 Z -1.0000 I -0.0316 J 0.0656
G03 X 11.5151 Y 22.0412 Z -1.0000 I -0.0000 J -0.0623
G01 X 11.5081 Y 22.0296 Z -1.0000
G01 X 11.5027 Y 22.0176 Z -1.0000
G01 X 11.4911 Y 22.0144 Z -1.0000
G01 X 11.4820 Y 22.0092 Z -1.0000
G03 X 11.4784 Y 21.9788 Z -1.0000 I 0.0645 J -0.0231
G02 X 11.4717 Y 21.9441 Z -1.0000 I -0.0605 J -0.0064
G02 X 11.4377 Y 21.9014 Z -1.0000 I -0.1279 J 0.0671
G02 X 11.3902 Y 21.8702 Z -1.0000 I -0.1461 J 0.1706
G02 X 11.3581 Y 21.8626 Z -1.0000 I -0.0333 J 0.0683
G03 X 11.3277 Y 21.8522 Z -1.0000 I 0.0008 J -0.0522
G03 X 11.2565 Y 21.7869 Z -1.0000 I 0.2831 J -0.3801
G02 X 11.1867 Y 21.7220 Z -1.0000 I -0.3721 J 0.3306
G01 X 11.1662 Y 21.7179 Z -1.0000
G03 X 11.1058 Y 21.7013 Z -1.0000 I -0.0158 J -0.0607
G03 X 11.0747 Y 21.6255 Z -1.0000 I 0.0766 J -0.0758
G01 X 11.0493 Y 21.5834 Z -1.0000
G02 X 10.9460 Y 21.5575 Z -1.0000 I -0.1043 J 0.1975
G03 X 10.9013 Y 21.5463 Z -1.0000 I 0.0005 J -0.0965
G01 X 10.8875 Y 21.5266 Z -1.0000
G01 X 10.8787 Y 21.5053 Z -1.0000
G01 X 10.8705 Y 21.5037 Z -1.0000
G01 X 10.8620 Y 21.5041 Z -1.0000
G01 X 10.8580 Y 21.4976 Z -1.0000
G02 X 10.8285 Y 21.4445 Z -1.0000 I -0.0625 J 0.0000
G02 X 10.7254 Y 21.4150 Z -1.0000 I -0.1031 J 0.1657
G01 X 10.7045 Y 21.4091 Z -1.0000
G01 X 10.7026 Y 21.4009 Z -1.0000
G01 X 10.6990 Y 21.3730 Z -1.0000
G02 X 10.6166 Y 21.3184 Z -1.0000 I -0.1911 J 0.1991
G02 X 10.5109 Y 21.2944 Z -1.0000 I -0.1181 J 0.2754
G01 X 10.4972 Y 21.3135 Z -1.0000
G01 X 10.4898 Y 21.3242 Z -1.0000
G03 X 10.4558 Y 21.3135 Z -1.0000 I -0.0000 J -0.0593
G02 X 10.4260 Y 21.2945 Z -1.0000 I -0.2441 J 0.3487
G02 X 10.3410 Y 21.2466 Z -1.0000 I -1.6203 J 2.7794
G03 X 10.2621 Y 21.1960 Z -1.0000 I 0.3065 J -0.5644
G01 X 10.2553 Y 21.1823 Z -1.0000
G01 X 10.2407 Y 21.1556 Z -1.0000
G02 X 10.1553 Y 21.1175 Z -1.0000 I -0.1637 J 0.2527
G02 X 10.0994 Y 21.1125 Z -1.0000 I -0.0422 J 0.1568
G01 X 10.0715 Y 21.1246 Z -1.0000
G01 X 10.0442 Y 21.1341 Z -1.0000
G03 X 9.9848 Y 21.1187 Z -1.0000 I 0.0113 J -0.1660
G02 X 9.9234 Y 21.0900 Z -1.0000 I -14.8201 J 31.6100
G02 X 9.8591 Y 21.0601 Z -1.0000 I -17.0965 J 36.6504
G03 X 9.7973 Y 21.0270 Z -1.0000 I 0.2581 J -0.5561
G03 X 9.7812 Y 21.0125 Z -1.0000 I 0.0308 J -0.0503
G01 X 9.7641 Y 21.0014 Z -1.0000
G02 X 9.6729 Y 20.9871 Z -1.0000 I -0.1409 J 0.6008
G02 X 9.6001 Y 20.9874 Z -1.0000 I -0.0343 J 0.4235
G01 X 9.5984 Y 20.9939 Z -1.0000
G01 X 9.6119 Y 21.0096 Z -1.0000
G02 X 9.6052 Y 21.0108 Z -1.0000 I 0.2271 J 1.2353
G02 X 9.5813 Y 21.0154 Z -1.0000 I 5.7117 J 30.1347
G03 X 9.5577 Y 21.0147 Z -1.0000 I -0.0102 J -0.0538
G03 X 9.4148 Y 20.9737 Z -1.0000 I 0.5278 J -2.1099
G02 X 9.1473 Y 20.9179 Z -1.0000 I -0.3914 J 1.2073
G01 X 9.1077 Y 20.9436 Z -1.0000
G01 X 9.0971 Y 20.9511 Z -1.0000
G03 X 8.9813 Y 20.9414 Z -1.0000 I 0.0152 J -0.8748
G03 X 8.8152 Y 20.9019 Z -1.0000 I 0.1531 J -1.0121
G01 X 8.8133 Y 20.8863 Z -1.0000
G01 X 8.8164 Y 20.8785 Z -1.0000
G01 X 8.8099 Y 20.8735 Z -1.0000
G01 X 8.7904 Y 20.8794 Z -1.0000
G02 X 8.7732 Y 20.8985 Z -1.0000 I 0.0303 J 0.0445
G01 X 8.7545 Y 20.9162 Z -1.0000
G03 X 8.7019 Y 20.9315 Z -1.0000 I -0.0769 J -0.1663
G02 X 8.6484 Y 20.9444 Z -1.0000 I 0.0361 J 0.2665
G01 X 8.6393 Y 20.9537 Z -1.0000
G01 X 8.6296 Y 20.9613 Z -1.0000
G03 X 8.4697 Y 20.9679 Z -1.0000 I -0.1575 J -1.8888
G03 X 8.3269 Y 20.9612 Z -1.0000 I 0.0020 J -1.5699
G01 X 8.3253 Y 20.9545 Z -1.0000
G01 X 8.3256 Y 20.9473 Z -1.0000
G01 X 8.3078 Y 20.9412 Z -1.0000
G02 X 8.2797 Y 20.9492 Z -1.0000 I -0.0003 J 0.0523
G01 X 8.2739 Y 20.9624 Z -1.0000
G01 X 8.2549 Y 20.9956 Z -1.0000
G03 X 8.0138 Y 21.0565 Z -1.0000 I -0.4247 J -1.1750
G03 X 7.8752 Y 21.0665 Z -1.0000 I -0.1365 J -0.9187
G01 X 7.8648 Y 21.0561 Z -1.0000
G01 X 7.8569 Y 21.0436 Z -1.0000
G02 X 7.8226 Y 21.0358 Z -1.0000 I -0.0344 J 0.0714
G01 X 7.7931 Y 21.0456 Z -1.0000
G01 X 7.7873 Y 21.0622 Z -1.0000
G01 X 7.7873 Y 21.0852 Z -1.0000
G01 X 7.7787 Y 21.0951 Z -1.0000
G01 X 7.7745 Y 21.1027 Z -1.0000
G01 X 7.7821 Y 21.1147 Z -1.0000
G01 X 7.7807 Y 21.1352 Z -1.0000
G03 X 7.6189 Y 21.1979 Z -1.0000 I -0.3866 J -0.7584
G03 X 7.4030 Y 21.2446 Z -1.0000 I -0.5387 J -1.9680
G01 X 7.3872 Y 21.2350 Z -1.0000
G01 X 7.3788 Y 21.2280 Z -1.0000
G02 X 7.3494 Y 21.2295 Z -1.0000 I -0.0109 J 0.0748
G02 X 7.3072 Y 21.2739 Z -1.0000 I 0.0140 J 0.0555
G01 X 7.3341 Y 21.3067 Z -1.0000
G01 X 7.3467 Y 21.3617 Z -1.0000
G03 X 7.0084 Y 21.4631 Z -1.0000 I -0.4902 J -1.0210
G02 X 6.9096 Y 21.4945 Z -1.0000 I 0.0404 J 0.2985
G01 X 6.8926 Y 21.5234 Z -1.0000
G02 X 6.8985 Y 21.5591 Z -1.0000 I 0.1327 J -0.0038
G01 X 6.9052 Y 21.5640 Z -1.0000
G01 X 6.9139 Y 21.5918 Z -1.0000
G03 X 6.6417 Y 21.7462 Z -1.0000 I -1.0023 J -1.4502
G03 X 6.5354 Y 21.7913 Z -1.0000 I -0.9332 J -2.0506
G01 X 6.5198 Y 21.7943 Z -1.0000
G01 X 6.5102 Y 21.8008 Z -1.0000
G02 X 6.5036 Y 21.8349 Z -1.0000 I 0.0856 J 0.0341
G02 X 6.5104 Y 21.8687 Z -1.0000 I 0.0880 J 0.0000
G01 X 6.5206 Y 21.8755 Z -1.0000
G01 X 6.5331 Y 21.8799 Z -1.0000
G01 X 6.5375 Y 21.8889 Z -1.0000
G03 X 6.5071 Y 21.9516 Z -1.0000 I -0.0799 J 0.0000
G03 X 6.2702 Y 22.0999 Z -1.0000 I -0.7961 J -1.0086
G02 X 6.2073 Y 22.1336 Z -1.0000 I 0.3712 J 0.7678
G02 X 6.1731 Y 22.1573 Z -1.0000 I 0.1471 J 0.2487
G01 X 6.1405 Y 22.1836 Z -1.0000
G01 X 6.1697 Y 22.2149 Z -1.0000
G03 X 6.1960 Y 22.2475 Z -1.0000 I -0.2169 J 0.2021
G01 X 6.1989 Y 22.2568 Z -1.0000
G03 X 6.1323 Y 22.4261 Z -1.0000 I -0.2483 J 0.0000
G03 X 6.0083 Y 22.4613 Z -1.0000 I -0.0911 J -0.0849
G01 X 5.9976 Y 22.4635 Z -1.0000
G02 X 5.9275 Y 22.5236 Z -1.0000 I 0.5337 J 0.6933
G02 X 5.8721 Y 22.5930 Z -1.0000 I 0.2263 J 0.2373
G01 X 5.8675 Y 22.6242 Z -1.0000
G02 X 5.8817 Y 22.6490 Z -1.0000 I 0.0517 J -0.0130
G01 X 5.8954 Y 22.6519 Z -1.0000
G01 X 5.9095 Y 22.6636 Z -1.0000
G03 X 5.8806 Y 22.7336 Z -1.0000 I -0.1777 J -0.0321
G02 X 5.8468 Y 22.7829 Z -1.0000 I 47.7828 J 32.8240
G02 X 5.8120 Y 22.8337 Z -1.0000 I 59.0225 J 40.4555
G03 X 5.7730 Y 22.8784 Z -1.0000 I -0.2077 J -0.1421
G03 X 5.7477 Y 22.8918 Z -1.0000 I -0.0394 J -0.0437
G02 X 5.6655 Y 22.9486 Z -1.0000 I 0.0338 J 0.1369
G02 X 5.6301 Y 23.0622 Z -1.0000 I 0.1644 J 0.1136
G02 X 5.6491 Y 23.1117 Z -1.0000 I 0.0740 J -0.0000
G01 X 5.6753 Y 23.1124 Z -1.0000
G01 X 5.6860 Y 23.1186 Z -1.0000
G03 X 5.6410 Y 23.2331 Z -1.0000 I -0.6095 J -0.1736
G03 X 5.5650 Y 23.3515 Z -1.0000 I -0.6358 J -0.3244
G01 X 5.5480 Y 23.3505 Z -1.0000
G01 X 5.5392 Y 23.3502 Z -1.0000
G02 X 5.4947 Y 23.4242 Z -1.0000 I 0.4130 J 0.2992
G02 X 5.4650 Y 23.5521 Z -1.0000 I 0.2590 J 0.1275
G01 X 5.4949 Y 23.5820 Z -1.0000
G01 X 5.5100 Y 23.5980 Z -1.0000
G03 X 5.4870 Y 23.7283 Z -1.0000 I -0.5468 J -0.0295
G03 X 5.4446 Y 23.8282 Z -1.0000 I -0.4936 J -0.1506
G01 X 5.4274 Y 23.8356 Z -1.0000
G01 X 5.4098 Y 23.8423 Z -1.0000
G02 X 5.3741 Y 23.9157 Z -1.0000 I 0.2523 J 0.1679
G02 X 5.3500 Y 24.0031 Z -1.0000 I 0.8900 J 0.2922
G02 X 5.3457 Y 24.0428 Z -1.0000 I 0.1770 J 0.0396
G01 X 5.3565 Y 24.0723 Z -1.0000
G01 X 5.3799 Y 24.0831 Z -1.0000
G03 X 5.4100 Y 24.0892 Z -1.0000 I -0.0000 J 0.0780
G01 X 5.4204 Y 24.1001 Z -1.0000
G03 X 5.4352 Y 24.2811 Z -1.0000 I -0.3225 J 0.1176
G03 X 5.3761 Y 24.3354 Z -1.0000 I -0.0658 J -0.0124
G02 X 5.3592 Y 24.3373 Z -1.0000 I 0.0767 J 0.7648
G02 X 5.3478 Y 24.3388 Z -1.0000 I 0.0684 J 0.5577
G01 X 5.3232 Y 24.3607 Z -1.0000
G02 X 5.3050 Y 24.4988 Z -1.0000 I 0.5168 J 0.1381
G02 X 5.3145 Y 24.5484 Z -1.0000 I 0.1344 J 0.0000
G02 X 5.3389 Y 24.5843 Z -1.0000 I 0.0927 J -0.0367
G02 X 5.3695 Y 24.6062 Z -1.0000 I 0.0978 J -0.1041
G01 X 5.3751 Y 24.6036 Z -1.0000
G01 X 5.3852 Y 24.7129 Z -1.0000
G03 X 5.3837 Y 24.8306 Z -1.0000 I -0.7634 J 0.0490
G01 X 5.3728 Y 24.8506 Z -1.0000
G01 X 5.3541 Y 24.8579 Z -1.0000
G01 X 5.3443 Y 24.8529 Z -1.0000
G01 X 5.3288 Y 24.8564 Z -1.0000
G02 X 5.3281 Y 24.9959 Z -1.0000 I 0.6436 J 0.0730
G02 X 5.3447 Y 25.0680 Z -1.0000 I 0.2972 J -0.0307
G02 X 5.3634 Y 25.0922 Z -1.0000 I 0.0479 J -0.0176
G02 X 5.3908 Y 25.1061 Z -1.0000 I 0.0621 J -0.0886
G01 X 5.4011 Y 25.1049 Z -1.0000
G01 X 5.4157 Y 25.1095 Z -1.0000
G03 X 5.4358 Y 25.1843 Z -1.0000 I -0.2374 J 0.1037
G02 X 5.4436 Y 25.2409 Z -1.0000 I 1.1343 J -0.1274
G02 X 5.4532 Y 25.2911 Z -1.0000 I 0.8995 J -0.1469
G03 X 5.4540 Y 25.3359 Z -1.0000 I -0.1099 J 0.0244
G01 X 5.4422 Y 25.3508 Z -1.0000
G03 X 5.4199 Y 25.3583 Z -1.0000 I -0.0510 J -0.1146
G01 X 5.4100 Y 25.3584 Z -1.0000
G01 X 5.3993 Y 25.3674 Z -1.0000
G02 X 5.4151 Y 25.4937 Z -1.0000 I 0.7328 J -0.0275
G02 X 5.4469 Y 25.5711 Z -1.0000 I 0.2296 J -0.0492
G02 X 5.4904 Y 25.6114 Z -1.0000 I 0.0989 J -0.0634
G03 X 5.5135 Y 25.6320 Z -1.0000 I -0.0310 J 0.0577
G03 X 5.5359 Y 25.6778 Z -1.0000 I -0.1461 J 0.1001
G02 X 5.5542 Y 25.7278 Z -1.0000 I 0.6687 J -0.2155
G02 X 5.5623 Y 25.7423 Z -1.0000 I 0.0630 J -0.0257
G03 X 5.5700 Y 25.7567 Z -1.0000 I -0.0467 J 0.0344
G03 X 5.5815 Y 25.7948 Z -1.0000 I -0.3226 J 0.1180
G03 X 5.5809 Y 25.8308 Z -1.0000 I -0.0705 J 0.0169
G03 X 5.5640 Y 25.8587 Z -1.0000 I -0.0576 J -0.0157
G01 X 5.5488 Y 25.8870 Z -1.0000
G02 X 5.5513 Y 25.9349 Z -1.0000 I 0.1099 J 0.0184
G02 X 5.5994 Y 26.0395 Z -1.0000 I 0.3405 J -0.0933
G02 X 5.6592 Y 26.0943 Z -1.0000 I 0.1450 J -0.0982
G03 X 5.6788 Y 26.1126 Z -1.0000 I -0.0270 J 0.0486
G03 X 5.7348 Y 26.2108 Z -1.0000 I -0.8277 J 0.5370
G03 X 5.7694 Y 26.3098 Z -1.0000 I -0.3773 J 0.1874
G01 X 5.7609 Y 26.3328 Z -1.0000
G01 X 5.7480 Y 26.3549 Z -1.0000
G02 X 5.7529 Y 26.3891 Z -1.0000 I 0.0609 J 0.0086
G02 X 5.7726 Y 26.4219 Z -1.0000 I 0.1559 J -0.0710
G01 X 5.7812 Y 26.4262 Z -1.0000
G01 X 5.7883 Y 26.4305 Z -1.0000
G01 X 5.7926 Y 26.4473 Z -1.0000
G01 X 5.7978 Y 26.4591 Z -1.0000
G01 X 5.8064 Y 26.4599 Z -1.0000
G01 X 5.8170 Y 26.4614 Z -1.0000
G03 X 5.8394 Y 26.4971 Z -1.0000 I -0.0964 J 0.0853
G02 X 5.8644 Y 26.5373 Z -1.0000 I 0.1364 J -0.0570
G02 X 5.8930 Y 26.5586 Z -1.0000 I 0.0637 J -0.0555
G03 X 5.9174 Y 26.5785 Z -1.0000 I -0.0256 J 0.0562
G01 X 5.9196 Y 26.5951 Z -1.0000
G01 X 5.9192 Y 26.6106 Z -1.0000
G01 X 5.9266 Y 26.6158 Z -1.0000
G01 X 5.9365 Y 26.6208 Z -1.0000
G01 X 5.9416 Y 26.6361 Z -1.0000
G01 X 5.9463 Y 26.6517 Z -1.0000
G01 X 5.9551 Y 26.6565 Z -1.0000
G01 X 5.9639 Y 26.6612 Z -1.0000
G01 X 5.9687 Y 26.6768 Z -1.0000
G01 X 5.9734 Y 26.6924 Z -1.0000
G01 X 5.9822 Y 26.6971 Z -1.0000
G01 X 5.9912 Y 26.7017 Z -1.0000
G01 X 5.9958 Y 26.7160 Z -1.0000
G01 X 6.0011 Y 26.7311 Z -1.0000
G01 X 6.0179 Y 26.7433 Z -1.0000
G01 X 6.0256 Y 26.7553 Z -1.0000
G01 X 6.0158 Y 26.7786 Z -1.0000
G02 X 6.0028 Y 26.8005 Z -1.0000 I 0.0481 J 0.0436
G01 X 6.0063 Y 26.8054 Z -1.0000
G01 X 6.0173 Y 26.8105 Z -1.0000
G03 X 6.0297 Y 26.8327 Z -1.0000 I -0.0484 J 0.0415
G01 X 6.0420 Y 26.8502 Z -1.0000
G01 X 6.0532 Y 26.8508 Z -1.0000
G01 X 6.0590 Y 26.8526 Z -1.0000
G01 X 6.0594 Y 26.8642 Z -1.0000
G01 X 6.0598 Y 26.8805 Z -1.0000
G01 X 6.0691 Y 26.8867 Z -1.0000
G01 X 6.0844 Y 26.8923 Z -1.0000
G03 X 6.1099 Y 26.9210 Z -1.0000 I -0.0849 J 0.1010
G02 X 6.1343 Y 26.9466 Z -1.0000 I 0.0826 J -0.0541
G01 X 6.1457 Y 26.9471 Z -1.0000
G01 X 6.1526 Y 26.9479 Z -1.0000
G01 X 6.1552 Y 26.9565 Z -1.0000
G01 X 6.1596 Y 26.9685 Z -1.0000
G02 X 6.1834 Y 26.9789 Z -1.0000 I 0.0315 J -0.0396
G01 X 6.2030 Y 26.9925 Z -1.0000
G01 X 6.2076 Y 27.0225 Z -1.0000
G02 X 6.2107 Y 27.0549 Z -1.0000 I 0.0557 J 0.0111
G01 X 6.2267 Y 27.0698 Z -1.0000
G01 X 6.2454 Y 27.0813 Z -1.0000
G01 X 6.2464 Y 27.0897 Z -1.0000
G01 X 6.2467 Y 27.0999 Z -1.0000
G02 X 6.2733 Y 27.1280 Z -1.0000 I 0.1090 J -0.0767
G03 X 6.3045 Y 27.1560 Z -1.0000 I -0.1996 J 0.2536
G01 X 6.3073 Y 27.1628 Z -1.0000
G02 X 6.3257 Y 27.2069 Z -1.0000 I 0.0620 J 0.0000
G02 X 6.3706 Y 27.2253 Z -1.0000 I 0.0449 J -0.0455
G03 X 6.4699 Y 27.2658 Z -1.0000 I -0.0000 J 0.1419
G03 X 6.5104 Y 27.3622 Z -1.0000 I -0.0944 J 0.0964
G01 X 6.5141 Y 27.3705 Z -1.0000
G01 X 6.5240 Y 27.3743 Z -1.0000
G01 X 6.5330 Y 27.3788 Z -1.0000
G01 X 6.5375 Y 27.3923 Z -1.0000
G01 X 6.5433 Y 27.4075 Z -1.0000
G02 X 6.5951 Y 27.4565 Z -1.0000 I 0.3228 J -0.2895
G03 X 6.6845 Y 27.5404 Z -1.0000 I -0.4913 J 0.6135
G01 X 6.6828 Y 27.5527 Z -1.0000
G01 X 6.6826 Y 27.5601 Z -1.0000
G02 X 6.7102 Y 27.5719 Z -1.0000 I 0.0420 J -0.0597
G03 X 6.7472 Y 27.5865 Z -1.0000 I -0.0226 J 0.1117
G01 X 6.7542 Y 27.5990 Z -1.0000
G01 X 6.7603 Y 27.6083 Z -1.0000
G01 X 6.7765 Y 27.6087 Z -1.0000
G01 X 6.7965 Y 27.6081 Z -1.0000
G01 X 6.8137 Y 27.6203 Z -1.0000
G02 X 6.8807 Y 27.6797 Z -1.0000 I 0.1752 J -0.1302
G01 X 6.9167 Y 27.6791 Z -1.0000
G01 X 6.9228 Y 27.6817 Z -1.0000
G03 X 6.9225 Y 27.7051 Z -1.0000 I -0.0493 J 0.0111
G02 X 6.9298 Y 27.7862 Z -1.0000 I 0.1202 J 0.0302
G01 X 6.9678 Y 27.8054 Z -1.0000
G01 X 6.9773 Y 27.8062 Z -1.0000
G03 X 7.0515 Y 27.8388 Z -1.0000 I -0.4384 J 1.0993
G02 X 7.1245 Y 27.8662 Z -1.0000 I 0.1921 J -0.3998
G01 X 7.1395 Y 27.8633 Z -1.0000
G01 X 7.1546 Y 27.8608 Z -1.0000
G03 X 7.2689 Y 27.9072 Z -1.0000 I -0.3386 J 0.9961
G03 X 7.3617 Y 27.9595 Z -1.0000 I -0.3393 J 0.7115
G01 X 7.3603 Y 27.9672 Z -1.0000
G01 X 7.3411 Y 27.9759 Z -1.0000
G01 X 7.3366 Y 27.9848 Z -1.0000
G02 X 7.3572 Y 28.0309 Z -1.0000 I 0.0619 J 0.0000
G02 X 7.4111 Y 28.0515 Z -1.0000 I 0.0539 J -0.0602
G01 X 7.4267 Y 28.0562 Z -1.0000
G01 X 7.4314 Y 28.0650 Z -1.0000
G01 X 7.4367 Y 28.0732 Z -1.0000
G02 X 7.4630 Y 28.0786 Z -1.0000 I 0.0263 J -0.0610
G03 X 7.4931 Y 28.0822 Z -1.0000 I -0.0000 J 0.1269
G01 X 7.5048 Y 28.0887 Z -1.0000
G01 X 7.5166 Y 28.0952 Z -1.0000
G02 X 7.5578 Y 28.1006 Z -1.0000 I 0.0502 J -0.2258
G03 X 7.6006 Y 28.1027 Z -1.0000 I -0.0682 J 1.7684
G03 X 7.6278 Y 28.1049 Z -1.0000 I -0.0553 J 0.8790
G01 X 7.6548 Y 28.1076 Z -1.0000
G01 X 7.6278 Y 28.1204 Z -1.0000
G01 X 7.6345 Y 28.1263 Z -1.0000
G03 X 7.6684 Y 28.1243 Z -1.0000 I 0.0242 J 0.1187
G03 X 7.7378 Y 28.1346 Z -1.0000 I -0.0405 J 0.5090
G03 X 7.7919 Y 28.1612 Z -1.0000 I -0.0271 J 0.1234
G01 X 7.8040 Y 28.1901 Z -1.0000
G03 X 7.7955 Y 28.2272 Z -1.0000 I -0.1300 J -0.0102
G01 X 7.7844 Y 28.2406 Z -1.0000
G01 X 7.7893 Y 28.2666 Z -1.0000
G02 X 8.0058 Y 28.2806 Z -1.0000 I 0.1694 J -0.9380
G03 X 8.2685 Y 28.2872 Z -1.0000 I 0.0874 J 1.7532
G01 X 8.3060 Y 28.3106 Z -1.0000
G01 X 8.3057 Y 28.3182 Z -1.0000
G01 X 8.2974 Y 28.3224 Z -1.0000
G01 X 8.2891 Y 28.3287 Z -1.0000
G02 X 8.2879 Y 28.3558 Z -1.0000 I 0.0564 J 0.0161
G03 X 8.2875 Y 28.3857 Z -1.0000 I -0.0743 J 0.0142
G01 X 8.2793 Y 28.3961 Z -1.0000
G01 X 8.6599 Y 28.3819 Z -1.0000
G03 X 8.7686 Y 28.3853 Z -1.0000 I 0.0362 J 0.5844
G01 X 8.7729 Y 28.3960 Z -1.0000
G01 X 8.7637 Y 28.4179 Z -1.0000
G01 X 8.7690 Y 28.4330 Z -1.0000
G01 X 8.7777 Y 28.4488 Z -1.0000
G01 X 8.7765 Y 28.4662 Z -1.0000
G01 X 8.7831 Y 28.4751 Z -1.0000
G02 X 8.8890 Y 28.4574 Z -1.0000 I -0.0482 J -0.6160
G03 X 9.1510 Y 28.3994 Z -1.0000 I 0.9769 J 3.7900
G03 X 9.2512 Y 28.3902 Z -1.0000 I 0.1005 J 0.5410
G01 X 9.2771 Y 28.4001 Z -1.0000
G01 X 9.2826 Y 28.4185 Z -1.0000
G02 X 9.2789 Y 28.4467 Z -1.0000 I 0.1091 J 0.0285
G02 X 9.2825 Y 28.4659 Z -1.0000 I 0.0532 J 0.0001
G01 X 9.3137 Y 28.4873 Z -1.0000
G01 X 9.3505 Y 28.4658 Z -1.0000
G03 X 9.4509 Y 28.3824 Z -1.0000 I 0.1598 J 0.0902
G03 X 9.7300 Y 28.3360 Z -1.0000 I 0.2790 J 0.8158
G01 X 9.7525 Y 28.3437 Z -1.0000
G01 X 9.7560 Y 28.3563 Z -1.0000
G01 X 9.7557 Y 28.3715 Z -1.0000
G01 X 9.7628 Y 28.3766 Z -1.0000
G01 X 9.7699 Y 28.3817 Z -1.0000
G01 X 9.7695 Y 28.3969 Z -1.0000
G01 X 9.7789 Y 28.4116 Z -1.0000
G02 X 9.8351 Y 28.4013 Z -1.0000 I 0.0078 J -0.1164
G02 X 9.8557 Y 28.3845 Z -1.0000 I -0.0217 J -0.0475
G01 X 9.8539 Y 28.3755 Z -1.0000
G01 X 9.8536 Y 28.3662 Z -1.0000
G03 X 9.9344 Y 28.3170 Z -1.0000 I 0.3428 J 0.4711
G03 X 10.2111 Y 28.1981 Z -1.0000 I 1.1127 J 2.2094
G01 X 10.2445 Y 28.2056 Z -1.0000
G01 X 10.2487 Y 28.2134 Z -1.0000
G03 X 10.2532 Y 28.2477 Z -1.0000 I -0.2311 J 0.0476
G01 X 10.2639 Y 28.2711 Z -1.0000
G01 X 10.2823 Y 28.2759 Z -1.0000
G03 X 10.3095 Y 28.2695 Z -1.0000 I 0.1178 J 0.4388
G03 X 10.3194 Y 28.2684 Z -1.0000 I 0.0108 J 0.0533
G01 X 10.3247 Y 28.2641 Z -1.0000
G02 X 10.3262 Y 28.2384 Z -1.0000 I -0.0778 J -0.0174
G01 X 10.3345 Y 28.2140 Z -1.0000
G03 X 10.4110 Y 28.1504 Z -1.0000 I 0.3271 J 0.3152
G03 X 10.5663 Y 28.0616 Z -1.0000 I 0.7569 J 1.1441
G03 X 10.6500 Y 28.0338 Z -1.0000 I 0.1461 J 0.2995
G03 X 10.6856 Y 28.0367 Z -1.0000 I 0.0125 J 0.0656
G01 X 10.6995 Y 28.0521 Z -1.0000
G01 X 10.7211 Y 28.0756 Z -1.0000
G01 X 10.7361 Y 28.0650 Z -1.0000
G01 X 10.7409 Y 28.0564 Z -1.0000
G01 X 10.7580 Y 28.0515 Z -1.0000
G01 X 10.7704 Y 28.0442 Z -1.0000
G01 X 10.7729 Y 28.0248 Z -1.0000
G01 X 10.7782 Y 28.0021 Z -1.0000
G03 X 10.8741 Y 27.9096 Z -1.0000 I 0.6082 J 0.5346
G03 X 10.9853 Y 27.8270 Z -1.0000 I 0.9470 J 1.1592
G03 X 11.0184 Y 27.8125 Z -1.0000 I 0.0568 J 0.0844
G02 X 11.1110 Y 27.7703 Z -1.0000 I -0.0623 J -0.2596
G02 X 11.2768 Y 27.6284 Z -1.0000 I -0.7125 J -1.0002
G03 X 11.3977 Y 27.5208 Z -1.0000 I 0.8326 J 0.8136
G01 X 11.4129 Y 27.5233 Z -1.0000
G01 X 11.4222 Y 27.5295 Z -1.0000
G01 X 11.4266 Y 27.5260 Z -1.0000
G01 X 11.4505 Y 27.4877 Z -1.0000
G03 X 11.5216 Y 27.4782 Z -1.0000 I 0.0493 J 0.0979
G01 X 11.5275 Y 27.4768 Z -1.0000
G02 X 11.5554 Y 27.4519 Z -1.0000 I -0.1679 J -0.2171
G01 X 11.5634 Y 27.4366 Z -1.0000
G01 X 11.5588 Y 27.4328 Z -1.0000
G01 X 11.5351 Y 27.4355 Z -1.0000
G03 X 11.5507 Y 27.3871 Z -1.0000 I 0.0831 J 0.0000
G03 X 11.7025 Y 27.2017 Z -1.0000 I 1.5026 J 1.0754
G03 X 11.7422 Y 27.1713 Z -1.0000 I 0.1104 J 0.1031
G01 X 11.7539 Y 27.1744 Z -1.0000
G01 X 11.8136 Y 27.1826 Z -1.0000
G02 X 11.8602 Y 27.0762 Z -1.0000 I -0.0983 J -0.1064
G03 X 11.8646 Y 27.0553 Z -1.0000 I 0.0521 J 0.0000
G03 X 11.9227 Y 26.9333 Z -1.0000 I 1.9178 J 0.8391
G03 X 12.0223 Y 26.7709 Z -1.0000 I 1.1572 J 0.5981
G01 X 12.0363 Y 26.7754 Z -1.0000
G01 X 12.0568 Y 26.7873 Z -1.0000
G02 X 12.1147 Y 26.7310 Z -1.0000 I -0.0785 J -0.1385
G03 X 12.1572 Y 26.6842 Z -1.0000 I 0.1388 J 0.0836
G01 X 12.1852 Y 26.6788 Z -1.0000
G02 X 12.2193 Y 26.6862 Z -1.0000 I 0.0991 J -0.3767
G02 X 12.2418 Y 26.6885 Z -1.0000 I 0.0296 J -0.1746
G01 X 12.2575 Y 26.6931 Z -1.0000
G01 X 12.2589 Y 26.6985 Z -1.0000
G01 X 12.2647 Y 26.7298 Z -1.0000
G02 X 12.3284 Y 26.7513 Z -1.0000 I 0.0638 J -0.0839
G01 X 12.3321 Y 26.7478 Z -1.0000
G01 X 12.3291 Y 26.7303 Z -1.0000
G01 X 12.3290 Y 26.7190 Z -1.0000
G01 X 12.3340 Y 26.7173 Z -1.0000
G01 X 12.3431 Y 26.7159 Z -1.0000
G02 X 12.3550 Y 26.6932 Z -1.0000 I -0.0409 J -0.0360
G01 X 12.3731 Y 26.6744 Z -1.0000
G03 X 12.4536 Y 26.6639 Z -1.0000 I 0.0727 J 0.2443
G03 X 12.5982 Y 26.6843 Z -1.0000 I -0.0203 J 0.6682
G03 X 12.7067 Y 26.7282 Z -1.0000 I -0.1063 J 0.4176
G02 X 12.7341 Y 26.7432 Z -1.0000 I 0.2965 J -0.5137
G02 X 13.0859 Y 26.9213 Z -1.0000 I 46.5752 J -91.5174
G03 X 13.4373 Y 27.1003 Z -1.0000 I -21.0594 J 41.7770
G03 X 13.6750 Y 27.2246 Z -1.0000 I -9.8694 J 19.1748
G02 X 13.9121 Y 27.3503 Z -1.0000 I 1122.3387 J -2115.6896
G02 X 14.0339 Y 27.4149 Z -1.0000 I 292.7482 J -551.9204
G03 X 14.1558 Y 27.4797 Z -1.0000 I -30.8545 J 58.2015
G03 X 14.4470 Y 27.6350 Z -1.0000 I -173.3548 J 325.3553
G02 X 14.9240 Y 27.8834 Z -1.0000 I 12.1796 J -22.8099
G02 X 14.9474 Y 27.8890 Z -1.0000 I 0.0234 J -0.0461
G01 X 14.9538 Y 27.8841 Z -1.0000
G01 X 14.9531 Y 27.8687 Z -1.0000
G01 X 14.9529 Y 27.8535 Z -1.0000
G01 X 14.9603 Y 27.8483 Z -1.0000
G01 X 14.9688 Y 27.8548 Z -1.0000
G03 X 14.9753 Y 27.9018 Z -1.0000 I -0.1673 J 0.0470
G03 X 14.9370 Y 28.0032 Z -1.0000 I -0.1536 J -0.0000
G03 X 14.6231 Y 28.3023 Z -1.0000 I -1.8461 J -1.6231
G02 X 14.5135 Y 28.3990 Z -1.0000 I 0.9248 J 1.1601
G02 X 14.4007 Y 28.5187 Z -1.0000 I 1.3100 J 1.3468
G03 X 13.2745 Y 29.7395 Z -1.0000 I -18.7895 J -16.2042
G03 X 12.9808 Y 29.9580 Z -1.0000 I -0.8577 J -0.8461
G03 X 12.9205 Y 29.9817 Z -1.0000 I -0.1342 J -0.2532
G03 X 12.6862 Y 30.0365 Z -1.0000 I -1.0154 J -3.8110
G02 X 12.4225 Y 30.1121 Z -1.0000 I 0.3356 J 1.6672
G02 X 12.2057 Y 30.2174 Z -1.0000 I 0.4631 J 1.2301
G03 X 12.1231 Y 30.2640 Z -1.0000 I -0.8138 J -1.3464
G03 X 11.8197 Y 30.4200 Z -1.0000 I -9.4516 J -18.0064
G02 X 11.5196 Y 30.5810 Z -1.0000 I 2.9609 J 5.8784
G02 X 11.4015 Y 30.6585 Z -1.0000 I 0.5613 J 0.9841
G03 X 11.1152 Y 30.8497 Z -1.0000 I -1.9062 J -2.5435
G03 X 11.0472 Y 30.8684 Z -1.0000 I -0.0681 J -0.1149
G01 X 11.0382 Y 30.8725 Z -1.0000
G01 X 11.0342 Y 30.8835 Z -1.0000
G01 X 11.0401 Y 30.8912 Z -1.0000
G02 X 11.0646 Y 30.8918 Z -1.0000 I 0.0135 J -0.0492
G02 X 11.2406 Y 30.8472 Z -1.0000 I -0.6760 J -3.0377
G02 X 11.2905 Y 30.8275 Z -1.0000 I -0.0744 J -0.2615
G03 X 11.3123 Y 30.8178 Z -1.0000 I 0.1010 J 0.1967
G03 X 11.3795 Y 30.7934 Z -1.0000 I 0.7076 J 1.8430
G02 X 11.4466 Y 30.7685 Z -1.0000 I -0.4661 J -1.3595
G02 X 11.5556 Y 30.7230 Z -1.0000 I -1.4557 J -3.6438
G03 X 11.6640 Y 30.6760 Z -1.0000 I 22.9709 J 52.8243
G03 X 11.6978 Y 30.6615 Z -1.0000 I 2.2208 J 5.1358
G03 X 11.8034 Y 30.6344 Z -1.0000 I 0.1426 J 0.3359
G01 X 11.8197 Y 30.6491 Z -1.0000
G01 X 11.8431 Y 30.6780 Z -1.0000
G02 X 11.9923 Y 30.6857 Z -1.0000 I 0.0988 J -0.4654
G02 X 12.0829 Y 30.6636 Z -1.0000 I -0.0371 J -0.3488
G01 X 12.0829 Y 30.6503 Z -1.0000
G01 X 12.0830 Y 30.6448 Z -1.0000
G03 X 12.1143 Y 30.6391 Z -1.0000 I 0.0329 J 0.0921
G03 X 12.1646 Y 30.6455 Z -1.0000 I 0.0029 J 0.1769
G01 X 12.1718 Y 30.6551 Z -1.0000
G01 X 12.1794 Y 30.6639 Z -1.0000
G02 X 12.2473 Y 30.6673 Z -1.0000 I 0.0489 J -0.3016
G02 X 12.3128 Y 30.6589 Z -1.0000 I -0.0312 J -0.5015
G01 X 12.3143 Y 30.6541 Z -1.0000
G01 X 12.3044 Y 30.6494 Z -1.0000
G02 X 12.2558 Y 30.6480 Z -1.0000 I -0.0340 J 0.3222
G01 X 12.2057 Y 30.6502 Z -1.0000
G01 X 12.2531 Y 30.6379 Z -1.0000
G03 X 12.3007 Y 30.6305 Z -1.0000 I 0.0609 J 0.2343
G03 X 12.3426 Y 30.6330 Z -1.0000 I 0.0101 J 0.1835
G02 X 12.3845 Y 30.6350 Z -1.0000 I 0.0286 J -0.1628
G02 X 12.4374 Y 30.6254 Z -1.0000 I -0.0219 J -0.2714
G03 X 12.4905 Y 30.6118 Z -1.0000 I 0.2629 J 0.9200
G03 X 12.6245 Y 30.5833 Z -1.0000 I 1.3076 J 5.8155
G02 X 12.7572 Y 30.5528 Z -1.0000 I -0.4766 J -2.3734
G01 X 12.7735 Y 30.5446 Z -1.0000
G01 X 12.7895 Y 30.5363 Z -1.0000
G03 X 12.8422 Y 30.5257 Z -1.0000 I 0.1043 J 0.3797
G02 X 12.9700 Y 30.5029 Z -1.0000 I -0.1888 J -1.4305
G02 X 13.0928 Y 30.4693 Z -1.0000 I -0.3048 J -1.3555
G03 X 13.1539 Y 30.4499 Z -1.0000 I 1.8903 J 5.8436
G03 X 13.2960 Y 30.4060 Z -1.0000 I 9.8691 J 31.6321
G02 X 13.4359 Y 30.3564 Z -1.0000 I -0.5154 J -1.6785
G02 X 13.6142 Y 30.2779 Z -1.0000 I -1.1300 J -2.8088
G02 X 13.8282 Y 30.1590 Z -1.0000 I -0.8748 J -1.8257
G02 X 14.0950 Y 29.9712 Z -1.0000 I -1.9341 J -3.0318
G03 X 14.1698 Y 29.9138 Z -1.0000 I 7.6579 J 9.8941
G03 X 14.2237 Y 29.8731 Z -1.0000 I 3.9470 J 5.1798
G02 X 14.2922 Y 29.8199 Z -1.0000 I -1.2939 J -1.7348
G02 X 14.5623 Y 29.5988 Z -1.0000 I -22.0556 J -27.2231
G02 X 14.8930 Y 29.3136 Z -1.0000 I -6.6763 J -8.0748
G02 X 15.3970 Y 28.8480 Z -1.0000 I -17.3051 J -19.2380
G03 X 15.6142 Y 28.6562 Z -1.0000 I 2.7936 J 2.9446
G03 X 15.6662 Y 28.6269 Z -1.0000 I 0.1092 J 0.1330
G03 X 15.7237 Y 28.6174 Z -1.0000 I 0.0554 J 0.1571
G01 X 15.7338 Y 28.6277 Z -1.0000
G01 X 15.7387 Y 28.6400 Z -1.0000
G01 X 15.7464 Y 28.6410 Z -1.0000
G01 X 15.7576 Y 28.6394 Z -1.0000
G01 X 15.7676 Y 28.6470 Z -1.0000
G01 X 15.7790 Y 28.6556 Z -1.0000
G02 X 15.8159 Y 28.6608 Z -1.0000 I 0.0369 J -0.1299
G03 X 15.8501 Y 28.6664 Z -1.0000 I 0.0000 J 0.1061
G01 X 15.8557 Y 28.6743 Z -1.0000
G01 X 15.8608 Y 28.6827 Z -1.0000
G01 X 15.8818 Y 28.6879 Z -1.0000
G01 X 15.9052 Y 28.6948 Z -1.0000
G03 X 15.9597 Y 28.7385 Z -1.0000 I -0.1932 J 0.2970
G02 X 16.0655 Y 28.8228 Z -1.0000 I 0.4646 J -0.4746
G02 X 16.1131 Y 28.8370 Z -1.0000 I 0.0484 J -0.0753
G01 X 16.1284 Y 28.8425 Z -1.0000
G01 X 16.1280 Y 28.8492 Z -1.0000
G01 X 16.1291 Y 28.8564 Z -1.0000
G02 X 16.2115 Y 28.8708 Z -1.0000 I 0.1314 J -0.5078
G02 X 16.3129 Y 28.8758 Z -1.0000 I 0.1059 J -1.1260
G01 X 16.3286 Y 28.8714 Z -1.0000
G01 X 16.3374 Y 28.8729 Z -1.0000
G01 X 16.3433 Y 28.8899 Z -1.0000
G01 X 16.3333 Y 28.9053 Z -1.0000
G03 X 16.3006 Y 28.9089 Z -1.0000 I -0.0221 J -0.0497
G01 X 16.2933 Y 28.9213 Z -1.0000
G02 X 16.3327 Y 28.9460 Z -1.0000 I 0.0599 J -0.0519
G03 X 16.3696 Y 28.9644 Z -1.0000 I -0.0271 J 0.1008
G01 X 16.3693 Y 28.9745 Z -1.0000
G01 X 16.3699 Y 28.9799 Z -1.0000
G01 X 16.3873 Y 28.9820 Z -1.0000
G03 X 16.4175 Y 28.9843 Z -1.0000 I 0.0102 J 0.0639
G01 X 16.4246 Y 28.9941 Z -1.0000
G01 X 16.4307 Y 29.0032 Z -1.0000
G01 X 16.4471 Y 29.0035 Z -1.0000
G01 X 16.4582 Y 29.0043 Z -1.0000
G01 X 16.4598 Y 29.0107 Z -1.0000
G01 X 16.4608 Y 29.0228 Z -1.0000
G02 X 16.4856 Y 29.0400 Z -1.0000 I 0.0469 J -0.0410
G02 X 16.5309 Y 29.0400 Z -1.0000 I 0.0226 J -0.0595
G01 X 16.5479 Y 29.0163 Z -1.0000
G01 X 16.5526 Y 29.0148 Z -1.0000
G01 X 16.5617 Y 29.0340 Z -1.0000
G02 X 16.6001 Y 29.0862 Z -1.0000 I 0.0790 J -0.0178
G02 X 16.7269 Y 29.1298 Z -1.0000 I 0.1739 J -0.2998
G03 X 16.7883 Y 29.1427 Z -1.0000 I -0.0586 J 0.4301
G01 X 16.7982 Y 29.1502 Z -1.0000
G01 X 16.8181 Y 29.1582 Z -1.0000
G01 X 16.8309 Y 29.1415 Z -1.0000
G01 X 16.8425 Y 29.1277 Z -1.0000
G01 X 16.8667 Y 29.1353 Z -1.0000
G01 X 16.8821 Y 29.1402 Z -1.0000
G02 X 16.9242 Y 29.1252 Z -1.0000 I -0.0233 J -0.1320
G01 X 16.9677 Y 29.1009 Z -1.0000
G01 X 16.9952 Y 29.1381 Z -1.0000
G02 X 17.0260 Y 29.1689 Z -1.0000 I 0.1174 J -0.0868
G01 X 17.0458 Y 29.1754 Z -1.0000
G01 X 17.0625 Y 29.1823 Z -1.0000
G01 X 17.0708 Y 29.2006 Z -1.0000
G01 X 17.0619 Y 29.2149 Z -1.0000
G03 X 17.0195 Y 29.2213 Z -1.0000 I -0.0346 J -0.0857
G01 X 16.9841 Y 29.2341 Z -1.0000
G01 X 16.9833 Y 29.2570 Z -1.0000
G01 X 16.9731 Y 29.2550 Z -1.0000
G02 X 16.9444 Y 29.2421 Z -1.0000 I -0.0405 J 0.0516
G02 X 16.9121 Y 29.2438 Z -1.0000 I -0.0125 J 0.0682
G01 X 16.9024 Y 29.2553 Z -1.0000
G03 X 16.9253 Y 29.2605 Z -1.0000 I -0.0039 J 0.0698
G03 X 16.9628 Y 29.2803 Z -1.0000 I -0.0871 J 0.2100
G02 X 17.0529 Y 29.3257 Z -1.0000 I 0.2436 J -0.3718
G02 X 17.1187 Y 29.3377 Z -1.0000 I 0.0675 J -0.1833
G01 X 17.1355 Y 29.3447 Z -1.0000
G01 X 17.1426 Y 29.3616 Z -1.0000
G01 X 17.1478 Y 29.3682 Z -1.0000
G01 X 17.1559 Y 29.3650 Z -1.0000
G01 X 17.1651 Y 29.3584 Z -1.0000
G01 X 17.1693 Y 29.3616 Z -1.0000
G01 X 17.1760 Y 29.3721 Z -1.0000
G02 X 17.2067 Y 29.3795 Z -1.0000 I 0.0327 J -0.0683
G01 X 17.2185 Y 29.3853 Z -1.0000
G01 X 17.2169 Y 29.3920 Z -1.0000
G01 X 17.2091 Y 29.4001 Z -1.0000
G01 X 17.2121 Y 29.4046 Z -1.0000
G01 X 17.2307 Y 29.4105 Z -1.0000
G01 X 17.2411 Y 29.4233 Z -1.0000
G01 X 17.2524 Y 29.4363 Z -1.0000
G02 X 17.3019 Y 29.4573 Z -1.0000 I 0.1209 J -0.2173
G03 X 17.3530 Y 29.4778 Z -1.0000 I -0.0860 J 0.2870
G03 X 17.3727 Y 29.4937 Z -1.0000 I -0.0290 J 0.0563
G02 X 17.3921 Y 29.5084 Z -1.0000 I 0.0412 J -0.0341
G02 X 17.4183 Y 29.5141 Z -1.0000 I 0.0267 J -0.0596
G01 X 17.4302 Y 29.5192 Z -1.0000
G01 X 17.4294 Y 29.5256 Z -1.0000
G01 X 17.4264 Y 29.5369 Z -1.0000
G02 X 17.4482 Y 29.5608 Z -1.0000 I 0.0575 J -0.0307
G01 X 17.4847 Y 29.5847 Z -1.0000
G01 X 17.4757 Y 29.5487 Z -1.0000
G03 X 17.4806 Y 29.5042 Z -1.0000 I 0.0624 J -0.0157
G01 X 17.5022 Y 29.4958 Z -1.0000
G01 X 17.5140 Y 29.5077 Z -1.0000
G01 X 17.5147 Y 29.5282 Z -1.0000
G02 X 17.5176 Y 29.5743 Z -1.0000 I 0.0609 J 0.0192
G02 X 17.5623 Y 29.6311 Z -1.0000 I 0.1418 J -0.0656
G02 X 17.6341 Y 29.6774 Z -1.0000 I 0.2716 J -0.3424
G02 X 17.7535 Y 29.7294 Z -1.0000 I 0.4645 J -0.9038
G03 X 17.7997 Y 29.7814 Z -1.0000 I -0.0247 J 0.0683
G03 X 17.7783 Y 29.8373 Z -1.0000 I -0.0523 J 0.0120
G02 X 17.7588 Y 29.8594 Z -1.0000 I 0.0366 J 0.0519
G02 X 17.7519 Y 29.8869 Z -1.0000 I 0.0519 J 0.0275
G01 X 17.7412 Y 29.9107 Z -1.0000
G03 X 17.6903 Y 29.9415 Z -1.0000 I -0.1102 J -0.1243
G02 X 17.6172 Y 30.0064 Z -1.0000 I 0.0494 J 0.1293
G02 X 17.6189 Y 30.0771 Z -1.0000 I 0.0642 J 0.0338
G02 X 17.6482 Y 30.1170 Z -1.0000 I 0.2112 J -0.1247
G01 X 17.6660 Y 30.1291 Z -1.0000
G02 X 17.7068 Y 30.1324 Z -1.0000 I 0.0261 J -0.0680
G02 X 17.8374 Y 30.0937 Z -1.0000 I -0.1627 J -0.7883
G03 X 17.8740 Y 30.0897 Z -1.0000 I 0.0257 J 0.0656
G03 X 17.9119 Y 30.1054 Z -1.0000 I -0.0136 J 0.0862
G02 X 17.9494 Y 30.1301 Z -1.0000 I 0.2691 J -0.3691
G02 X 17.9720 Y 30.1408 Z -1.0000 I 0.0726 J -0.1233
G01 X 17.9907 Y 30.1531 Z -1.0000
G01 X 17.9957 Y 30.1657 Z -1.0000
G01 X 17.9986 Y 30.1810 Z -1.0000
G02 X 18.0290 Y 30.2507 Z -1.0000 I 0.9299 J -0.3636
G03 X 18.0743 Y 30.4032 Z -1.0000 I -0.4502 J 0.2169
G01 X 18.0515 Y 30.4242 Z -1.0000
G02 X 18.0327 Y 30.4213 Z -1.0000 I -0.0352 J 0.1655
G02 X 17.9635 Y 30.4156 Z -1.0000 I -0.2174 J 2.2372
G03 X 17.8942 Y 30.4103 Z -1.0000 I 0.2014 J -3.0498
G03 X 17.7986 Y 30.4010 Z -1.0000 I 0.5157 J -5.7993
G02 X 17.6656 Y 30.4183 Z -1.0000 I -0.0302 J 0.2867
G02 X 17.5907 Y 30.4802 Z -1.0000 I 0.0540 J 0.1416
G02 X 17.5645 Y 30.5747 Z -1.0000 I 0.1491 J 0.0922
G02 X 17.5932 Y 30.6663 Z -1.0000 I 0.1679 J -0.0022
G02 X 17.6615 Y 30.7212 Z -1.0000 I 0.1223 J -0.0824
G02 X 17.7926 Y 30.7449 Z -1.0000 I 0.1252 J -0.3178
G03 X 17.8936 Y 30.7481 Z -1.0000 I 0.0177 J 1.0186
G03 X 17.9594 Y 30.7586 Z -1.0000 I -0.0361 J 0.4399
G02 X 18.0230 Y 30.7634 Z -1.0000 I 0.0472 J -0.1992
G02 X 18.0653 Y 30.7501 Z -1.0000 I -0.0079 J -0.0990
G03 X 18.1031 Y 30.7406 Z -1.0000 I 0.0351 J 0.0597
G01 X 18.1254 Y 30.7524 Z -1.0000
G03 X 18.1399 Y 30.7803 Z -1.0000 I -0.0820 J 0.0602
G03 X 18.1447 Y 30.8100 Z -1.0000 I -0.0885 J 0.0297
G01 X 18.1514 Y 30.8346 Z -1.0000
G01 X 18.1630 Y 30.8412 Z -1.0000
G01 X 18.1916 Y 30.8640 Z -1.0000
G03 X 18.3199 Y 31.5252 Z -1.0000 I -9.7277 J 2.2317
G02 X 18.3477 Y 31.6872 Z -1.0000 I 6.9358 J -1.1049
G02 X 18.3535 Y 31.7080 Z -1.0000 I 0.1194 J -0.0219
G03 X 18.3631 Y 31.7521 Z -1.0000 I -0.1476 J 0.0552
G03 X 18.3818 Y 32.1092 Z -1.0000 I -9.7656 J 0.6908
G02 X 18.3932 Y 32.2858 Z -1.0000 I 2.8393 J -0.0959
G02 X 18.4026 Y 32.3256 Z -1.0000 I 0.1528 J -0.0147
G03 X 18.4091 Y 32.3605 Z -1.0000 I -0.0937 J 0.0356
G01 X 18.4029 Y 32.3691 Z -1.0000
G01 X 18.3945 Y 32.3782 Z -1.0000
G02 X 18.3885 Y 32.4267 Z -1.0000 I 0.1938 J 0.0485
G03 X 18.3739 Y 32.5957 Z -1.0000 I -0.9830 J 0.0000
G03 X 18.3331 Y 32.7444 Z -1.0000 I -0.7997 J -0.1396
G02 X 18.3116 Y 32.8132 Z -1.0000 I 0.5575 J 0.2117
G02 X 18.3072 Y 32.8490 Z -1.0000 I 0.1450 J 0.0358
G03 X 18.2873 Y 32.9644 Z -1.0000 I -0.3434 J 0.0000
G03 X 18.1981 Y 33.1549 Z -1.0000 I -1.0430 J -0.3722
G02 X 18.1160 Y 33.3325 Z -1.0000 I 0.8435 J 0.4977
G02 X 18.1134 Y 33.3998 Z -1.0000 I 0.1097 J 0.0379
G03 X 18.1069 Y 33.4700 Z -1.0000 I -0.0998 J 0.0261
G03 X 18.0180 Y 33.6017 Z -1.0000 I -0.4743 J -0.2242
G02 X 17.9939 Y 33.6360 Z -1.0000 I 0.1162 J 0.1073
G02 X 17.9686 Y 33.6964 Z -1.0000 I 0.3428 J 0.1785
G03 X 17.9385 Y 33.7522 Z -1.0000 I -0.1636 J -0.0525
G03 X 17.8823 Y 33.8028 Z -1.0000 I -0.1900 J -0.1542
G02 X 17.7624 Y 33.8990 Z -1.0000 I 0.4325 J 0.6622
G02 X 17.7029 Y 33.9778 Z -1.0000 I 0.2280 J 0.2337
G03 X 17.6724 Y 34.0145 Z -1.0000 I -0.1051 J -0.0566
G01 X 17.6452 Y 34.0240 Z -1.0000
G03 X 17.6129 Y 34.0200 Z -1.0000 I 0.0000 J -0.1328
G03 X 17.3623 Y 33.9531 Z -1.0000 I 2.0507 J -8.1797
G03 X 17.1209 Y 33.8727 Z -1.0000 I 0.7705 J -2.7163
G01 X 17.1011 Y 33.8528 Z -1.0000
G02 X 17.0872 Y 33.8258 Z -1.0000 I -0.1247 J 0.0471
G01 X 17.0756 Y 33.8146 Z -1.0000
G01 X 17.0664 Y 33.8028 Z -1.0000
G03 X 17.0612 Y 33.7693 Z -1.0000 I 0.1056 J -0.0335
G01 X 17.0732 Y 33.7383 Z -1.0000
G03 X 17.2102 Y 33.6042 Z -1.0000 I 1.1463 J 1.0342
G02 X 17.3549 Y 33.4736 Z -1.0000 I -2.9727 J -3.4409
G01 X 17.3592 Y 33.4639 Z -1.0000
G02 X 17.3121 Y 33.3264 Z -1.0000 I -0.2229 J -0.0005
G02 X 17.2152 Y 33.2791 Z -1.0000 I -0.0969 J 0.0755
G02 X 17.1813 Y 33.2910 Z -1.0000 I -0.0000 J 0.0545
G02 X 16.9675 Y 33.4763 Z -1.0000 I 2.1027 J 2.6410
G03 X 16.8757 Y 33.5565 Z -1.0000 I -1.0816 J -1.1464
G01 X 16.8687 Y 33.5561 Z -1.0000
G02 X 16.8265 Y 33.5362 Z -1.0000 I -0.0487 J 0.0487
G02 X 16.7463 Y 33.5445 Z -1.0000 I -0.0194 J 0.2051
G01 X 16.7284 Y 33.5560 Z -1.0000
G01 X 16.7226 Y 33.5712 Z -1.0000
G01 X 16.7087 Y 33.5829 Z -1.0000
G03 X 16.6445 Y 33.5574 Z -1.0000 I 0.0297 J -0.1685
G03 X 16.5528 Y 33.4644 Z -1.0000 I 0.1704 J -0.2595
G03 X 16.4933 Y 33.3194 Z -1.0000 I 0.3771 J -0.2395
G02 X 16.4787 Y 33.2776 Z -1.0000 I -0.1779 J 0.0385
G01 X 16.4735 Y 33.2791 Z -1.0000
G02 X 16.4837 Y 33.3668 Z -1.0000 I 1.7344 J -0.1576
G02 X 16.5004 Y 33.4687 Z -1.0000 I 2.3465 J -0.3339
G03 X 16.5146 Y 33.5923 Z -1.0000 I -0.8630 J 0.1615
G01 X 16.5059 Y 33.5961 Z -1.0000
G01 X 16.4936 Y 33.5720 Z -1.0000
G03 X 16.4460 Y 33.2249 Z -1.0000 I 7.2973 J -1.1791
G03 X 16.4462 Y 33.1724 Z -1.0000 I 0.2262 J -0.0254
G01 X 16.4525 Y 33.1708 Z -1.0000
G01 X 16.4580 Y 33.1702 Z -1.0000
G01 X 16.4598 Y 33.1558 Z -1.0000
G03 X 16.4539 Y 33.1202 Z -1.0000 I 0.3585 J -0.0775
G03 X 16.4387 Y 32.9729 Z -1.0000 I 6.1256 J -0.7057
G02 X 16.4045 Y 32.7364 Z -1.0000 I -2.2562 J 0.2052
G01 X 16.3892 Y 32.7238 Z -1.0000
G01 X 16.3825 Y 32.7252 Z -1.0000
G02 X 16.3526 Y 32.7397 Z -1.0000 I 0.1607 J 0.3702
G03 X 16.3216 Y 32.7496 Z -1.0000 I -0.0424 J -0.0790
G03 X 16.2452 Y 32.7534 Z -1.0000 I -0.0629 J -0.4921
G02 X 16.1686 Y 32.7588 Z -1.0000 I -0.0107 J 0.3933
G02 X 16.0991 Y 32.7782 Z -1.0000 I 0.0583 J 0.3438
G03 X 16.0298 Y 32.7999 Z -1.0000 I -0.1866 J -0.4735
G03 X 15.9856 Y 32.8051 Z -1.0000 I -0.0443 J -0.1867
G02 X 15.9412 Y 32.8096 Z -1.0000 I 0.0000 J 0.2190
G02 X 15.8946 Y 32.8239 Z -1.0000 I 0.0529 J 0.2560
G03 X 15.8481 Y 32.8397 Z -1.0000 I -0.1475 J -0.3584
G03 X 15.7880 Y 32.8526 Z -1.0000 I -0.1581 J -0.5859
G02 X 15.7307 Y 32.8703 Z -1.0000 I 0.0358 J 0.2183
G02 X 15.6826 Y 32.9016 Z -1.0000 I 0.0851 J 0.1834
G03 X 15.6348 Y 32.9318 Z -1.0000 I -0.1208 J -0.1380
G03 X 15.5929 Y 32.9405 Z -1.0000 I -0.0420 J -0.0967
G02 X 15.4883 Y 32.9644 Z -1.0000 I -0.0000 J 0.2409
G02 X 15.4563 Y 33.0063 Z -1.0000 I 0.0253 J 0.0526
G03 X 15.4437 Y 33.0546 Z -1.0000 I -0.3411 J -0.0628
G03 X 15.4066 Y 33.1534 Z -1.0000 I -1.4861 J -0.5028
G02 X 15.3805 Y 33.2617 Z -1.0000 I 0.3289 J 0.1365
G01 X 15.3966 Y 33.2791 Z -1.0000
G01 X 15.4085 Y 33.2825 Z -1.0000
G03 X 15.4368 Y 33.3042 Z -1.0000 I -0.0978 J 0.1570
G02 X 15.4662 Y 33.3249 Z -1.0000 I 0.0907 J -0.0973
G02 X 15.5142 Y 33.3443 Z -1.0000 I 0.1272 J -0.2450
G03 X 15.5891 Y 33.3964 Z -1.0000 I -0.0422 J 0.1407
G03 X 15.6543 Y 33.5295 Z -1.0000 I -0.3088 J 0.2337
G02 X 15.6714 Y 33.5829 Z -1.0000 I 0.5685 J -0.1523
G02 X 15.6890 Y 33.6226 Z -1.0000 I 0.3397 J -0.1267
G03 X 15.7025 Y 33.6632 Z -1.0000 I -0.1221 J 0.0631
G03 X 15.7148 Y 33.7784 Z -1.0000 I -0.9940 J 0.1650
G01 X 15.7027 Y 33.7850 Z -1.0000
G01 X 15.6870 Y 33.7582 Z -1.0000
G02 X 15.6259 Y 33.5736 Z -1.0000 I -0.4765 J 0.0552
G02 X 15.5524 Y 33.5253 Z -1.0000 I -0.0848 J 0.0490
G02 X 15.4404 Y 33.5468 Z -1.0000 I -0.0219 J 0.1879
G02 X 15.3327 Y 33.6442 Z -1.0000 I 0.1460 J 0.2698
G02 X 15.3000 Y 33.7226 Z -1.0000 I 0.1758 J 0.1195
G01 X 15.3140 Y 33.7396 Z -1.0000
G01 X 15.3220 Y 33.7451 Z -1.0000
G03 X 15.3275 Y 33.7746 Z -1.0000 I -0.0761 J 0.0296
G03 X 15.3178 Y 33.8056 Z -1.0000 I -0.0546 J 0.0000
G03 X 15.2537 Y 33.8817 Z -1.0000 I -0.4237 J -0.2921
G02 X 15.1939 Y 33.9587 Z -1.0000 I 0.2484 J 0.2544
G02 X 15.1860 Y 33.9991 Z -1.0000 I 0.0551 J 0.0317
G03 X 15.1767 Y 34.0372 Z -1.0000 I -0.0528 J 0.0073
G03 X 15.1211 Y 34.0906 Z -1.0000 I -0.1678 J -0.1192
G03 X 15.0464 Y 34.1266 Z -1.0000 I -0.1788 J -0.2753
G03 X 14.9644 Y 34.1430 Z -1.0000 I -0.1059 J -0.3166
G03 X 14.8830 Y 34.1378 Z -1.0000 I -0.0216 J -0.3004
G03 X 14.8472 Y 34.1193 Z -1.0000 I 0.0146 J -0.0722
G02 X 14.8138 Y 34.1000 Z -1.0000 I -0.0582 J 0.0619
G01 X 14.7904 Y 34.1019 Z -1.0000
G03 X 14.7192 Y 34.1068 Z -1.0000 I -0.0414 J -0.0826
G01 X 14.7119 Y 34.0753 Z -1.0000
G01 X 14.7112 Y 34.0696 Z -1.0000
G02 X 14.6670 Y 34.0472 Z -1.0000 I -0.1474 J 0.2354
G03 X 14.6176 Y 34.0226 Z -1.0000 I 0.1253 J -0.3133
G03 X 14.5971 Y 34.0048 Z -1.0000 I 0.0423 J -0.0698
G02 X 14.5686 Y 33.9871 Z -1.0000 I -0.0409 J 0.0340
G01 X 14.5619 Y 33.9964 Z -1.0000
G01 X 14.5633 Y 34.0102 Z -1.0000
G03 X 14.5321 Y 34.0767 Z -1.0000 I -0.4124 J -0.1529
G01 X 14.5078 Y 34.0787 Z -1.0000
G03 X 14.4878 Y 34.0223 Z -1.0000 I 0.0692 J -0.0563
G01 X 14.4734 Y 34.0144 Z -1.0000
G02 X 14.4297 Y 34.0591 Z -1.0000 I 0.0727 J 0.1149
G02 X 14.4023 Y 34.1230 Z -1.0000 I 0.2154 J 0.1301
G02 X 14.4006 Y 34.1660 Z -1.0000 I 0.0927 J 0.0253
G03 X 14.3909 Y 34.2439 Z -1.0000 I -0.1268 J 0.0238
G01 X 14.3535 Y 34.2678 Z -1.0000
G02 X 14.3310 Y 34.2730 Z -1.0000 I -0.0000 J 0.0515
G02 X 14.3117 Y 34.2881 Z -1.0000 I 0.0253 J 0.0522
G03 X 14.2933 Y 34.3051 Z -1.0000 I -0.0734 J -0.0611
G01 X 14.2828 Y 34.3084 Z -1.0000
G01 X 14.2717 Y 34.3055 Z -1.0000
G03 X 14.1253 Y 34.2183 Z -1.0000 I 2.4181 J -4.2266
G02 X 13.6344 Y 33.9208 Z -1.0000 I -15.2676 J 24.6440
G02 X 13.4729 Y 33.8318 Z -1.0000 I -1.5247 J 2.5735
G02 X 13.3278 Y 33.7779 Z -1.0000 I -0.3007 J 0.5873
G01 X 13.3162 Y 33.7938 Z -1.0000
G01 X 13.3157 Y 33.8023 Z -1.0000
G01 X 13.3053 Y 33.8073 Z -1.0000
G01 X 13.2875 Y 33.8116 Z -1.0000
G02 X 13.2503 Y 33.8354 Z -1.0000 I 0.1034 J 0.2025
G03 X 13.2223 Y 33.8478 Z -1.0000 I -0.0383 J -0.0487
G01 X 13.2147 Y 33.8413 Z -1.0000
G01 X 13.2094 Y 33.8286 Z -1.0000
G01 X 13.2011 Y 33.8276 Z -1.0000
G01 X 13.1883 Y 33.8577 Z -1.0000
G02 X 13.2211 Y 33.9208 Z -1.0000 I 0.1312 J -0.0281
G03 X 13.2522 Y 33.9580 Z -1.0000 I -0.3500 J 0.3243
G01 X 13.2557 Y 33.9668 Z -1.0000
G01 X 13.2591 Y 33.9756 Z -1.0000
G02 X 13.2884 Y 34.0121 Z -1.0000 I 0.3719 J -0.2687
G03 X 13.3167 Y 34.0495 Z -1.0000 I -0.2151 J 0.1916
G03 X 13.3292 Y 34.0764 Z -1.0000 I -0.0977 J 0.0619
G02 X 13.3416 Y 34.1008 Z -1.0000 I 0.0797 J -0.0251
G01 X 13.3504 Y 34.1053 Z -1.0000
G01 X 13.3582 Y 34.1103 Z -1.0000
G03 X 13.3713 Y 34.1527 Z -1.0000 I -0.1764 J 0.0779
G02 X 13.3840 Y 34.1955 Z -1.0000 I 0.2170 J -0.0408
G01 X 13.3907 Y 34.2001 Z -1.0000
G01 X 13.3973 Y 34.2039 Z -1.0000
G01 X 13.4006 Y 34.2170 Z -1.0000
G02 X 13.4009 Y 34.2339 Z -1.0000 I 0.1654 J 0.0061
G02 X 13.4035 Y 34.2610 Z -1.0000 I 0.4128 J -0.0269
G01 X 13.4092 Y 34.2641 Z -1.0000
G01 X 13.4179 Y 34.2543 Z -1.0000
G01 X 13.4242 Y 34.2525 Z -1.0000
G01 X 13.4300 Y 34.2648 Z -1.0000
G02 X 13.4377 Y 34.3049 Z -1.0000 I 0.1299 J -0.0039
G01 X 13.4483 Y 34.3158 Z -1.0000
G01 X 13.4599 Y 34.3262 Z -1.0000
G03 X 13.4673 Y 34.3526 Z -1.0000 I -0.0600 J 0.0310
G02 X 13.5225 Y 34.5126 Z -1.0000 I 0.3225 J -0.0218
G01 X 13.5668 Y 34.4990 Z -1.0000
G01 X 13.5722 Y 34.4923 Z -1.0000
G03 X 13.6041 Y 34.4906 Z -1.0000 I 0.0211 J 0.0937
G02 X 13.6402 Y 34.4905 Z -1.0000 I 0.0178 J -0.1566
G01 X 13.6549 Y 34.4847 Z -1.0000
G03 X 13.6693 Y 34.4764 Z -1.0000 I 0.0392 J 0.0519
G03 X 13.7190 Y 34.4582 Z -1.0000 I 0.2544 J 0.6173
G02 X 13.7587 Y 34.4317 Z -1.0000 I -0.0267 J -0.0828
G01 X 13.7517 Y 34.4197 Z -1.0000
G03 X 13.7230 Y 34.4179 Z -1.0000 I -0.0109 J -0.0570
G01 X 13.7158 Y 34.4081 Z -1.0000
G01 X 13.7458 Y 34.3933 Z -1.0000
G03 X 14.1216 Y 34.7175 Z -1.0000 I -2.4891 J 3.2648
G03 X 14.4033 Y 35.0198 Z -1.0000 I -2.9864 J 3.0654
G01 X 14.3941 Y 35.0398 Z -1.0000
G01 X 14.3857 Y 35.0449 Z -1.0000
G02 X 14.3727 Y 35.0806 Z -1.0000 I 0.1265 J 0.0663
G03 X 14.3601 Y 35.1194 Z -1.0000 I -0.2027 J -0.0443
G03 X 14.3476 Y 35.1381 Z -1.0000 I -0.0587 J -0.0257
G02 X 14.3154 Y 35.2353 Z -1.0000 I 0.0853 J 0.0821
G02 X 14.3821 Y 35.4067 Z -1.0000 I 0.3792 J -0.0489
G01 X 14.3945 Y 35.4053 Z -1.0000
G02 X 14.4058 Y 35.3487 Z -1.0000 I -0.1416 J -0.0578
G03 X 14.4124 Y 35.2614 Z -1.0000 I 0.6487 J 0.0051
G01 X 14.4201 Y 35.2497 Z -1.0000
G01 X 14.4271 Y 35.2530 Z -1.0000
G03 X 14.4336 Y 35.3505 Z -1.0000 I -0.7255 J 0.0975
G03 X 14.4259 Y 35.4525 Z -1.0000 I -0.6728 J 0.0000
G01 X 14.4167 Y 35.4610 Z -1.0000
G03 X 14.3040 Y 35.4582 Z -1.0000 I -0.0427 J -0.5518
G01 X 14.2867 Y 35.4444 Z -1.0000
G01 X 14.2797 Y 35.4399 Z -1.0000
G01 X 14.2639 Y 35.4464 Z -1.0000
G01 X 14.2259 Y 35.4400 Z -1.0000
G03 X 14.1995 Y 35.3400 Z -1.0000 I 0.1565 J -0.0948
G02 X 14.1929 Y 35.2932 Z -1.0000 I -0.1415 J -0.0040
G02 X 14.1554 Y 35.2012 Z -1.0000 I -0.5959 J 0.1892
G02 X 14.0847 Y 35.1032 Z -1.0000 I -0.3406 J 0.1715
G01 X 14.0476 Y 35.0932 Z -1.0000
G03 X 14.0341 Y 35.0964 Z -1.0000 I -0.0649 J -0.2437
G03 X 14.0176 Y 35.0995 Z -1.0000 I -0.0783 J -0.3766
G01 X 14.0100 Y 35.1161 Z -1.0000
G02 X 14.0883 Y 35.2141 Z -1.0000 I 0.4421 J -0.2729
G03 X 14.1745 Y 35.3170 Z -1.0000 I -0.4815 J 0.4909
G01 X 14.1813 Y 35.3502 Z -1.0000
G02 X 14.1837 Y 35.3937 Z -1.0000 I 0.0849 J 0.0170
G02 X 14.2577 Y 35.5883 Z -1.0000 I 1.8838 J -0.6045
G03 X 14.2797 Y 35.6432 Z -1.0000 I -0.8013 J 0.3536
G03 X 14.2994 Y 35.7034 Z -1.0000 I -0.9443 J 0.3427
G02 X 14.3207 Y 35.7629 Z -1.0000 I 0.5120 J -0.1497
G02 X 14.3552 Y 35.8342 Z -1.0000 I 0.7742 J -0.3301
G03 X 14.3905 Y 35.9046 Z -1.0000 I -1.0833 J 0.5874
G01 X 14.3927 Y 35.9154 Z -1.0000
G01 X 14.3665 Y 35.9236 Z -1.0000
G03 X 14.3391 Y 35.8422 Z -1.0000 I 0.1147 J -0.0839
G01 X 14.3349 Y 35.8293 Z -1.0000
G01 X 14.3271 Y 35.8253 Z -1.0000
G01 X 14.3189 Y 35.8204 Z -1.0000
G03 X 14.2920 Y 35.7610 Z -1.0000 I 0.3787 J -0.2072
G02 X 14.2676 Y 35.6970 Z -1.0000 I -2.2619 J 0.8240
G02 X 14.2495 Y 35.6540 Z -1.0000 I -1.0393 J 0.4124
G03 X 14.2330 Y 35.6107 Z -1.0000 I 0.3856 J -0.1720
G03 X 14.2300 Y 35.5930 Z -1.0000 I 0.0606 J -0.0194
G02 X 14.2264 Y 35.5757 Z -1.0000 I -0.0505 J 0.0013
G02 X 14.2092 Y 35.5409 Z -1.0000 I -0.2207 J 0.0879
G01 X 14.2015 Y 35.5403 Z -1.0000
G01 X 14.1978 Y 35.5544 Z -1.0000
G02 X 14.2089 Y 35.6012 Z -1.0000 I 0.5473 J -0.1050
G02 X 14.2209 Y 35.6357 Z -1.0000 I 0.2975 J -0.0842
G03 X 14.2348 Y 35.6696 Z -1.0000 I -4.0943 J 1.6929
G03 X 14.2372 Y 35.6763 Z -1.0000 I -0.1105 J 0.0446
G02 X 14.3533 Y 35.9197 Z -1.0000 I 1.0544 J -0.3534
G01 X 14.4032 Y 35.9372 Z -1.0000
G01 X 14.4153 Y 35.9381 Z -1.0000
G01 X 14.4201 Y 35.9461 Z -1.0000
G01 X 14.4158 Y 35.9565 Z -1.0000
G01 X 14.4057 Y 35.9608 Z -1.0000
G01 X 14.3992 Y 35.9651 Z -1.0000
G01 X 14.3999 Y 35.9745 Z -1.0000
G01 X 14.4098 Y 35.9825 Z -1.0000
G01 X 14.4195 Y 35.9815 Z -1.0000
G01 X 14.4518 Y 35.9954 Z -1.0000
G03 X 14.4779 Y 36.2655 Z -1.0000 I -1.2488 J 0.2567
G02 X 14.4924 Y 36.3113 Z -1.0000 I 0.0771 J 0.0008
G02 X 14.6775 Y 36.5431 Z -1.0000 I 2.3845 J -1.7145
G02 X 14.7337 Y 36.5878 Z -1.0000 I 0.1553 J -0.1375
G01 X 14.7584 Y 36.5871 Z -1.0000
G03 X 14.8071 Y 36.5744 Z -1.0000 I 0.0448 J 0.0717
G01 X 14.8403 Y 36.5909 Z -1.0000
G01 X 14.8583 Y 36.5988 Z -1.0000
G01 X 14.8826 Y 36.5888 Z -1.0000
G02 X 14.9084 Y 36.5448 Z -1.0000 I -0.0573 J -0.0633
G01 X 14.8963 Y 36.5296 Z -1.0000
G01 X 14.8824 Y 36.5218 Z -1.0000
G03 X 14.8423 Y 36.4415 Z -1.0000 I 0.4425 J -0.2716
G01 X 14.9195 Y 36.5160 Z -1.0000
G03 X 14.9989 Y 36.6054 Z -1.0000 I -1.6490 J 1.5469
G01 X 15.0023 Y 36.6142 Z -1.0000
G01 X 15.0056 Y 36.6212 Z -1.0000
G01 X 15.0145 Y 36.6244 Z -1.0000
G01 X 15.0224 Y 36.6135 Z -1.0000
G02 X 14.9718 Y 36.4903 Z -1.0000 I -0.7741 J 0.2457
G03 X 14.9507 Y 36.4436 Z -1.0000 I 0.4973 J -0.2532
G01 X 14.9483 Y 36.4314 Z -1.0000
G01 X 14.9464 Y 36.4190 Z -1.0000
G02 X 14.9301 Y 36.3759 Z -1.0000 I -0.5062 J 0.1663
G03 X 14.8867 Y 36.2576 Z -1.0000 I 1.1132 J -0.4756
G03 X 14.8811 Y 36.2171 Z -1.0000 I 0.1216 J -0.0375
G01 X 14.9098 Y 36.2655 Z -1.0000
G02 X 14.9384 Y 36.3330 Z -1.0000 I 6.3797 J -2.6635
G02 X 14.9680 Y 36.4009 Z -1.0000 I 6.6493 J -2.8594
G03 X 14.9974 Y 36.4689 Z -1.0000 I -4.2891 J 1.8978
G03 X 15.0239 Y 36.5329 Z -1.0000 I -3.7721 J 1.5983
G02 X 15.0528 Y 36.5930 Z -1.0000 I 0.4833 J -0.1952
G01 X 15.0601 Y 36.5973 Z -1.0000
G01 X 15.0664 Y 36.6011 Z -1.0000
G01 X 15.0702 Y 36.6171 Z -1.0000
G01 X 15.0747 Y 36.6357 Z -1.0000
G02 X 15.1313 Y 36.7376 Z -1.0000 I 1.3629 J -0.6911
G02 X 15.2259 Y 36.8242 Z -1.0000 I 0.1958 J -0.1189
G02 X 15.3536 Y 36.8471 Z -1.0000 I 0.1035 J -0.2102
G02 X 15.4677 Y 36.8248 Z -1.0000 I -0.0673 J -0.6494
G01 X 15.4664 Y 36.8144 Z -1.0000
G01 X 15.4541 Y 36.8095 Z -1.0000
G01 X 15.4495 Y 36.7990 Z -1.0000
G01 X 15.4547 Y 36.7916 Z -1.0000
G01 X 15.4701 Y 36.7919 Z -1.0000
G01 X 15.4785 Y 36.7889 Z -1.0000
G01 X 15.4787 Y 36.7764 Z -1.0000
G03 X 15.4696 Y 36.7521 Z -1.0000 I 0.1003 J -0.0515
G03 X 15.4495 Y 36.6582 Z -1.0000 I 1.4625 J -0.3620
G02 X 15.4296 Y 36.5644 Z -1.0000 I -1.5365 J 0.2770
G02 X 15.4209 Y 36.5413 Z -1.0000 I -0.1024 J 0.0250
G01 X 15.4228 Y 36.5254 Z -1.0000
G01 X 15.4464 Y 36.5114 Z -1.0000
G03 X 15.4800 Y 36.5139 Z -1.0000 I 0.0125 J 0.0606
G03 X 15.5104 Y 36.5346 Z -1.0000 I -0.0252 J 0.0697
G02 X 15.5993 Y 36.6000 Z -1.0000 I 0.1945 J -0.1711
G02 X 15.7120 Y 36.6247 Z -1.0000 I 0.1157 J -0.2590
G03 X 15.7388 Y 36.6303 Z -1.0000 I -0.0007 J 0.0699
G03 X 15.7745 Y 36.6515 Z -1.0000 I -0.0634 J 0.1479
G02 X 15.8199 Y 36.6675 Z -1.0000 I 0.0466 J -0.0596
G01 X 15.8292 Y 36.6524 Z -1.0000
G01 X 15.8243 Y 36.6221 Z -1.0000
G01 X 15.8355 Y 36.6157 Z -1.0000
G01 X 15.8515 Y 36.6044 Z -1.0000
G02 X 15.8341 Y 36.5639 Z -1.0000 I -0.0595 J 0.0016
G02 X 15.8105 Y 36.5497 Z -1.0000 I -0.0407 J 0.0408
G01 X 15.7886 Y 36.5497 Z -1.0000
G01 X 15.7671 Y 36.5496 Z -1.0000
G01 X 15.7471 Y 36.5359 Z -1.0000
G02 X 15.7267 Y 36.5179 Z -1.0000 I -0.0682 J 0.0568
G02 X 15.6842 Y 36.4956 Z -1.0000 I -0.1495 J 0.2334
G03 X 15.6450 Y 36.4709 Z -1.0000 I 0.0540 J -0.1293
G03 X 15.6267 Y 36.4444 Z -1.0000 I 0.0451 J -0.0506
G02 X 15.5686 Y 36.3666 Z -1.0000 I -0.1651 J 0.0627
G02 X 15.4896 Y 36.3400 Z -1.0000 I -0.0790 J 0.1038
G02 X 15.4614 Y 36.3475 Z -1.0000 I -0.0000 J 0.0562
G01 X 15.4575 Y 36.3585 Z -1.0000
G01 X 15.4563 Y 36.3734 Z -1.0000
G01 X 15.4416 Y 36.3859 Z -1.0000
G01 X 15.4238 Y 36.3796 Z -1.0000
G01 X 15.4242 Y 36.3557 Z -1.0000
G02 X 15.4327 Y 36.3277 Z -1.0000 I -0.0476 J -0.0297
G02 X 15.4260 Y 36.2968 Z -1.0000 I -0.0653 J -0.0020
G03 X 15.4122 Y 36.2649 Z -1.0000 I 0.3171 J -0.1565
G03 X 15.4015 Y 36.2316 Z -1.0000 I 0.3379 J -0.1272
G02 X 15.3908 Y 36.1983 Z -1.0000 I -0.3459 J 0.0929
G02 X 15.3730 Y 36.1558 Z -1.0000 I -0.5941 J 0.2236
G03 X 15.3663 Y 36.1142 Z -1.0000 I 0.0707 J -0.0326
G03 X 15.3848 Y 36.0544 Z -1.0000 I 0.1704 J 0.0198
G03 X 15.4208 Y 36.0015 Z -1.0000 I 0.2474 J 0.1295
G01 X 15.4402 Y 35.9903 Z -1.0000
G03 X 15.4980 Y 36.0193 Z -1.0000 I 0.0100 J 0.0522
G03 X 15.4845 Y 36.0818 Z -1.0000 I -0.0466 J 0.0226
G01 X 15.4756 Y 36.0814 Z -1.0000
G01 X 15.4725 Y 36.0701 Z -1.0000
G02 X 15.4756 Y 36.0426 Z -1.0000 I -0.0946 J -0.0249
G02 X 15.4713 Y 36.0204 Z -1.0000 I -0.0677 J 0.0018
G01 X 15.4596 Y 36.0107 Z -1.0000
G01 X 15.4426 Y 36.0150 Z -1.0000
G02 X 15.4162 Y 36.0652 Z -1.0000 I 0.0473 J 0.0570
G01 X 15.4345 Y 36.1020 Z -1.0000
G01 X 15.4428 Y 36.1120 Z -1.0000
G03 X 15.4555 Y 36.1570 Z -1.0000 I -0.2454 J 0.0934
G02 X 15.4701 Y 36.1976 Z -1.0000 I 0.1328 J -0.0249
G01 X 15.4818 Y 36.2045 Z -1.0000
G01 X 15.4953 Y 36.1979 Z -1.0000
G02 X 15.5382 Y 36.1302 Z -1.0000 I -0.3843 J -0.2912
G01 X 15.5771 Y 36.0559 Z -1.0000
G01 X 15.5462 Y 36.0049 Z -1.0000
G03 X 15.5169 Y 35.9532 Z -1.0000 I 0.8920 J -0.5397
G03 X 15.5007 Y 35.9190 Z -1.0000 I 0.3710 J -0.1965
G02 X 15.4797 Y 35.8903 Z -1.0000 I -0.0708 J 0.0298
G02 X 15.4321 Y 35.8607 Z -1.0000 I -0.1233 J 0.1449
G01 X 15.3781 Y 35.8373 Z -1.0000
G01 X 15.3323 Y 35.8816 Z -1.0000
G02 X 15.2951 Y 35.9279 Z -1.0000 I 0.1661 J 0.1714
G01 X 15.2936 Y 35.9445 Z -1.0000
G01 X 15.2921 Y 35.9548 Z -1.0000
G01 X 15.2838 Y 35.9574 Z -1.0000
G01 X 15.2733 Y 35.9469 Z -1.0000
G03 X 15.2654 Y 35.9024 Z -1.0000 I 0.1464 J -0.0490
G02 X 15.2587 Y 35.8551 Z -1.0000 I -0.2122 J 0.0062
G02 X 15.2473 Y 35.8330 Z -1.0000 I -0.0551 J 0.0143
G03 X 15.2369 Y 35.8125 Z -1.0000 I 0.0393 J -0.0327
G01 X 15.2390 Y 35.7994 Z -1.0000
G01 X 15.2637 Y 35.7904 Z -1.0000
G03 X 15.3112 Y 35.8235 Z -1.0000 I -0.0324 J 0.0973
G01 X 15.3302 Y 35.8342 Z -1.0000
G01 X 15.3536 Y 35.8292 Z -1.0000
G03 X 15.3797 Y 35.8195 Z -1.0000 I 0.0366 J 0.0586
G03 X 15.4075 Y 35.8210 Z -1.0000 I 0.0104 J 0.0678
G01 X 15.4280 Y 35.8179 Z -1.0000
G01 X 15.4361 Y 35.8034 Z -1.0000
G02 X 15.4252 Y 35.7410 Z -1.0000 I -0.1846 J 0.0000
G02 X 15.3616 Y 35.5963 Z -1.0000 I -1.0804 J 0.3886
G03 X 15.3534 Y 35.5632 Z -1.0000 I 0.0639 J -0.0335
G03 X 15.3612 Y 35.5218 Z -1.0000 I 0.1101 J -0.0007
G02 X 15.3714 Y 35.4796 Z -1.0000 I -0.1428 J -0.0571
G02 X 15.3686 Y 35.4461 Z -1.0000 I -0.0924 J -0.0090
G01 X 15.3573 Y 35.4415 Z -1.0000
G02 X 15.3366 Y 35.4651 Z -1.0000 I 0.0259 J 0.0436
G01 X 15.3219 Y 35.4703 Z -1.0000
G01 X 15.3156 Y 35.4542 Z -1.0000
G02 X 15.3263 Y 35.4077 Z -1.0000 I -0.1839 J -0.0668
G01 X 15.3218 Y 35.3956 Z -1.0000
G01 X 15.3128 Y 35.3942 Z -1.0000
G01 X 15.3039 Y 35.4040 Z -1.0000
G03 X 15.1920 Y 35.5529 Z -1.0000 I -0.2937 J -0.1042
G03 X 15.0190 Y 35.6086 Z -1.0000 I -0.1730 J -0.2408
G02 X 14.9594 Y 35.6356 Z -1.0000 I -0.0000 J 0.0793
G02 X 14.8394 Y 35.8135 Z -1.0000 I 0.6410 J 0.5620
G02 X 14.8117 Y 35.9458 Z -1.0000 I 0.2336 J 0.1179
G02 X 14.8541 Y 36.0794 Z -1.0000 I 0.2806 J -0.0155
G03 X 14.8925 Y 36.1499 Z -1.0000 I -0.5617 J 0.3514
G01 X 14.8910 Y 36.1583 Z -1.0000
G01 X 14.8853 Y 36.1580 Z -1.0000
G03 X 14.8744 Y 36.1378 Z -1.0000 I 0.0480 J -0.0388
G02 X 14.8622 Y 36.1143 Z -1.0000 I -0.0732 J 0.0232
G01 X 14.8529 Y 36.1097 Z -1.0000
G01 X 14.8443 Y 36.1058 Z -1.0000
G01 X 14.8403 Y 36.0949 Z -1.0000
G01 X 14.8370 Y 36.0811 Z -1.0000
G02 X 14.8150 Y 36.0441 Z -1.0000 I -0.2552 J 0.1266
G03 X 14.7932 Y 36.0065 Z -1.0000 I 0.2100 J -0.1472
G03 X 14.7725 Y 35.9540 Z -1.0000 I 0.3897 J -0.1842
G02 X 14.7515 Y 35.9023 Z -1.0000 I -0.3649 J 0.1176
G01 X 14.7401 Y 35.8884 Z -1.0000
G01 X 14.7488 Y 35.8845 Z -1.0000
G01 X 14.7649 Y 35.8817 Z -1.0000
G01 X 14.7725 Y 35.8663 Z -1.0000
G03 X 14.7770 Y 35.8429 Z -1.0000 I 0.0635 J 0.0000
G01 X 14.7861 Y 35.8321 Z -1.0000
G01 X 14.7969 Y 35.8211 Z -1.0000
G02 X 14.8263 Y 35.7652 Z -1.0000 I -0.4771 J -0.2866
G03 X 14.9229 Y 35.6264 Z -1.0000 I 0.4281 J 0.1951
G03 X 15.0160 Y 35.5768 Z -1.0000 I 0.1290 J 0.1299
G02 X 15.1845 Y 35.5222 Z -1.0000 I -0.1501 J -0.7506
G01 X 15.2063 Y 35.4897 Z -1.0000
G01 X 15.2094 Y 35.4811 Z -1.0000
G03 X 15.2619 Y 35.4196 Z -1.0000 I 0.8946 J 0.7101
G03 X 15.3162 Y 35.3790 Z -1.0000 I 0.1345 J 0.1232
G01 X 15.3352 Y 35.3837 Z -1.0000
G02 X 15.3547 Y 35.4001 Z -1.0000 I 0.0438 J -0.0322
G01 X 15.3670 Y 35.3995 Z -1.0000
G01 X 15.3945 Y 35.4113 Z -1.0000
G03 X 15.3942 Y 35.5258 Z -1.0000 I -0.2620 J 0.0564
G02 X 15.3900 Y 35.5707 Z -1.0000 I 0.1754 J 0.0390
G01 X 15.3965 Y 35.5935 Z -1.0000
G03 X 15.4406 Y 35.6980 Z -1.0000 I -0.4240 J 0.2407
G03 X 15.4551 Y 35.7948 Z -1.0000 I -0.3485 J 0.1014
G02 X 15.4605 Y 35.8477 Z -1.0000 I 0.2931 J -0.0037
G01 X 15.4663 Y 35.8524 Z -1.0000
G01 X 15.4729 Y 35.8485 Z -1.0000
G01 X 15.4768 Y 35.8335 Z -1.0000
G01 X 15.4819 Y 35.8166 Z -1.0000
G03 X 15.5194 Y 35.7692 Z -1.0000 I 0.3000 J 0.1985
G02 X 15.5564 Y 35.7206 Z -1.0000 I -0.2198 J -0.2060
G02 X 15.5742 Y 35.6797 Z -1.0000 I -0.1367 J -0.0838
G03 X 15.5901 Y 35.6404 Z -1.0000 I 0.1806 J 0.0500
G01 X 15.5980 Y 35.6357 Z -1.0000
G01 X 15.6149 Y 35.6481 Z -1.0000
G03 X 15.7464 Y 36.1109 Z -1.0000 I -8.8711 J 2.7712
G02 X 15.8036 Y 36.3210 Z -1.0000 I 7.3179 J -1.8761
G02 X 15.8286 Y 36.3968 Z -1.0000 I 0.9822 J -0.2822
G03 X 15.8832 Y 36.5945 Z -1.0000 I -1.0859 J 0.4063
G03 X 15.8749 Y 36.6496 Z -1.0000 I -0.0844 J 0.0154
G02 X 15.8557 Y 36.7253 Z -1.0000 I 0.1500 J 0.0782
G02 X 15.8730 Y 36.7758 Z -1.0000 I 0.0790 J 0.0012
G02 X 15.9219 Y 36.8072 Z -1.0000 I 0.0708 J -0.0566
G02 X 15.9761 Y 36.8014 Z -1.0000 I 0.0191 J -0.0771
G03 X 16.0537 Y 36.7696 Z -1.0000 I 0.2752 J 0.5607
G03 X 16.1305 Y 36.7499 Z -1.0000 I 0.1761 J 0.5280
G02 X 16.1654 Y 36.7396 Z -1.0000 I -0.0300 J -0.1654
G01 X 16.1753 Y 36.7312 Z -1.0000
G01 X 16.1961 Y 36.7204 Z -1.0000
G01 X 16.2082 Y 36.7333 Z -1.0000
G01 X 16.2026 Y 36.7438 Z -1.0000
G03 X 16.1506 Y 36.7730 Z -1.0000 I -0.1828 J -0.2651
G02 X 16.1240 Y 36.7920 Z -1.0000 I 0.0328 J 0.0738
G01 X 16.1269 Y 36.7987 Z -1.0000
G02 X 16.1602 Y 36.7951 Z -1.0000 I 0.0006 J -0.1532
G02 X 16.2618 Y 36.7692 Z -1.0000 I -0.3203 J -1.4636
G02 X 16.3529 Y 36.7300 Z -1.0000 I -0.1160 J -0.3954
G01 X 16.3710 Y 36.7056 Z -1.0000
G03 X 16.3852 Y 36.6809 Z -1.0000 I 0.0494 J 0.0119
G01 X 16.4021 Y 36.6758 Z -1.0000
G01 X 16.4181 Y 36.6714 Z -1.0000
G01 X 16.4259 Y 36.6555 Z -1.0000
G01 X 16.4335 Y 36.6473 Z -1.0000
G01 X 16.4429 Y 36.6517 Z -1.0000
G02 X 16.4718 Y 36.6358 Z -1.0000 I -0.0225 J -0.0750
G02 X 16.4923 Y 36.6049 Z -1.0000 I -0.0458 J -0.0527
G02 X 16.4929 Y 36.5715 Z -1.0000 I -0.0540 J -0.0178
G02 X 16.4371 Y 36.4827 Z -1.0000 I -0.1812 J 0.0520
G01 X 16.4095 Y 36.4972 Z -1.0000
G03 X 16.4102 Y 36.6054 Z -1.0000 I -0.4525 J 0.0571
G01 X 16.3955 Y 36.6214 Z -1.0000
G01 X 16.3825 Y 36.6143 Z -1.0000
G03 X 16.3729 Y 36.5631 Z -1.0000 I 0.1324 J -0.0512
G02 X 16.3697 Y 36.5016 Z -1.0000 I -0.5914 J 0.0000
G01 X 16.3655 Y 36.4928 Z -1.0000
G01 X 16.3627 Y 36.4847 Z -1.0000
G03 X 16.3693 Y 36.4635 Z -1.0000 I 0.0638 J 0.0082
G01 X 16.3724 Y 36.4410 Z -1.0000
G02 X 16.3412 Y 36.3264 Z -1.0000 I -0.9114 J 0.1868
G03 X 16.2307 Y 35.9650 Z -1.0000 I 5.3822 J -1.8429
G01 X 16.2372 Y 35.9407 Z -1.0000
G01 X 16.2449 Y 35.9367 Z -1.0000
G03 X 16.3383 Y 35.9209 Z -1.0000 I 0.3426 J 1.7411
G02 X 16.4319 Y 35.9034 Z -1.0000 I -0.1529 J -1.0774
G02 X 16.4797 Y 35.8880 Z -1.0000 I -0.0685 J -0.2946
G03 X 16.5273 Y 35.8719 Z -1.0000 I 0.1393 J 0.3343
G03 X 16.5907 Y 35.8589 Z -1.0000 I 0.1520 J 0.5810
G02 X 16.6390 Y 35.8355 Z -1.0000 I -0.0133 J -0.0889
G02 X 16.6551 Y 35.7984 Z -1.0000 I -0.0349 J -0.0371
G01 X 16.6551 Y 35.7475 Z -1.0000
G01 X 16.5907 Y 35.7593 Z -1.0000
G02 X 16.5270 Y 35.7732 Z -1.0000 I 0.1783 J 0.9718
G02 X 16.4925 Y 35.7841 Z -1.0000 I 0.0742 J 0.2936
G03 X 16.4230 Y 35.8043 Z -1.0000 I -0.1537 J -0.4002
G03 X 16.2467 Y 35.8334 Z -1.0000 I -0.5114 J -2.5554
G01 X 16.2123 Y 35.8152 Z -1.0000
G01 X 16.2220 Y 35.7845 Z -1.0000
G03 X 16.2497 Y 35.7741 Z -1.0000 I 0.0535 J 0.0999
G03 X 16.3739 Y 35.7490 Z -1.0000 I 0.4736 J 2.0258
G02 X 16.4976 Y 35.7238 Z -1.0000 I -0.3321 J -1.9489
G01 X 16.5139 Y 35.7158 Z -1.0000
G01 X 16.5301 Y 35.7082 Z -1.0000
G03 X 16.5927 Y 35.7003 Z -1.0000 I 0.0891 J 0.4534
G02 X 16.6395 Y 35.6831 Z -1.0000 I -0.0049 J -0.0858
G01 X 16.6492 Y 35.6577 Z -1.0000
G03 X 16.6425 Y 35.6187 Z -1.0000 I 0.8759 J -0.1718
G03 X 16.6415 Y 35.6061 Z -1.0000 I 0.0837 J -0.0126
G01 X 16.6282 Y 35.5941 Z -1.0000
G02 X 16.4587 Y 35.6255 Z -1.0000 I 0.1181 J 1.1114
G03 X 16.4044 Y 35.6392 Z -1.0000 I -0.5158 J -1.9381
G03 X 16.3842 Y 35.6431 Z -1.0000 I -0.0614 J -0.2595
G03 X 16.1770 Y 35.6699 Z -1.0000 I -0.6081 J -3.8896
G01 X 16.1649 Y 35.6656 Z -1.0000
G03 X 16.1172 Y 35.5843 Z -1.0000 I 0.1321 J -0.1321
G03 X 16.0811 Y 35.3695 Z -1.0000 I 0.9618 J -0.2720
G02 X 16.0754 Y 35.3483 Z -1.0000 I -0.0529 J 0.0030
G01 X 16.0693 Y 35.3466 Z -1.0000
G01 X 16.0627 Y 35.3465 Z -1.0000
G01 X 16.0592 Y 35.3400 Z -1.0000
G01 X 16.0633 Y 35.3300 Z -1.0000
G01 X 16.0806 Y 35.3189 Z -1.0000
G01 X 16.1036 Y 35.3194 Z -1.0000
G01 X 16.1084 Y 35.3310 Z -1.0000
G01 X 16.1162 Y 35.3423 Z -1.0000
G01 X 16.1404 Y 35.3310 Z -1.0000
G03 X 16.2050 Y 35.3006 Z -1.0000 I 0.0647 J 0.0537
G01 X 16.2352 Y 35.3308 Z -1.0000
G01 X 16.2281 Y 35.3430 Z -1.0000
G01 X 16.2048 Y 35.3477 Z -1.0000
G01 X 16.1823 Y 35.3518 Z -1.0000
G01 X 16.1777 Y 35.3614 Z -1.0000
G01 X 16.1729 Y 35.3717 Z -1.0000
G03 X 16.1472 Y 35.3784 Z -1.0000 I -0.0257 J -0.0463
G01 X 16.1223 Y 35.3873 Z -1.0000
G01 X 16.1133 Y 35.4062 Z -1.0000
G01 X 16.1231 Y 35.4169 Z -1.0000
G02 X 16.1542 Y 35.4099 Z -1.0000 I 0.0047 J -0.0518
G02 X 16.1858 Y 35.3825 Z -1.0000 I -0.0585 J -0.0991
G01 X 16.1881 Y 35.3674 Z -1.0000
G01 X 16.1896 Y 35.3573 Z -1.0000
G01 X 16.1980 Y 35.3549 Z -1.0000
G01 X 16.2084 Y 35.3646 Z -1.0000
G01 X 16.2106 Y 35.3846 Z -1.0000
G01 X 16.2141 Y 35.3993 Z -1.0000
G01 X 16.2242 Y 35.4024 Z -1.0000
G01 X 16.2352 Y 35.3913 Z -1.0000
G02 X 16.2461 Y 35.3333 Z -1.0000 I -0.2324 J -0.0739
G01 X 16.2641 Y 35.3154 Z -1.0000
G01 X 16.2833 Y 35.3309 Z -1.0000
G02 X 16.2982 Y 35.3852 Z -1.0000 I 0.2357 J -0.0352
G01 X 16.3079 Y 35.3917 Z -1.0000
G02 X 16.3232 Y 35.3901 Z -1.0000 I -0.0014 J -0.0921
G02 X 16.4181 Y 35.3713 Z -1.0000 I -0.6660 J -3.6104
G03 X 16.5129 Y 35.3516 Z -1.0000 I 3.3174 J 15.6620
G01 X 16.5158 Y 35.3513 Z -1.0000
G01 X 16.5180 Y 35.3525 Z -1.0000
G03 X 16.5332 Y 35.3783 Z -1.0000 I -0.3312 J 0.2121
G01 X 16.5193 Y 35.4264 Z -1.0000
G03 X 16.3368 Y 35.4902 Z -1.0000 I -0.2651 J -0.4655
G01 X 16.3199 Y 35.5023 Z -1.0000
G02 X 16.3136 Y 35.5346 Z -1.0000 I 0.0511 J 0.0267
G01 X 16.3438 Y 35.5749 Z -1.0000
G02 X 16.4345 Y 35.5831 Z -1.0000 I 0.0589 J -0.1467
G02 X 16.5390 Y 35.5560 Z -1.0000 I -0.2131 J -1.0377
G02 X 16.5753 Y 35.5388 Z -1.0000 I -0.0438 J -0.1392
G02 X 16.6417 Y 35.4230 Z -1.0000 I -0.0808 J -0.1233
G02 X 16.5885 Y 35.2780 Z -1.0000 I -0.1969 J -0.0100
G03 X 16.5734 Y 35.2426 Z -1.0000 I 0.0407 J -0.0382
G01 X 16.5860 Y 35.2294 Z -1.0000
G01 X 16.6059 Y 35.2378 Z -1.0000
G03 X 16.6285 Y 35.2734 Z -1.0000 I -0.0755 J 0.0729
G02 X 16.6440 Y 35.2957 Z -1.0000 I 0.0530 J -0.0202
G01 X 16.6512 Y 35.2934 Z -1.0000
G02 X 16.6542 Y 35.2696 Z -1.0000 I -0.0979 J -0.0245
G02 X 16.6516 Y 35.2530 Z -1.0000 I -0.0522 J -0.0003
G01 X 16.6624 Y 35.2120 Z -1.0000
G03 X 16.7233 Y 35.1887 Z -1.0000 I 0.0608 J 0.0679
G01 X 16.7314 Y 35.1964 Z -1.0000
G03 X 16.7303 Y 35.2979 Z -1.0000 I -0.6703 J 0.0430
G02 X 16.7269 Y 35.4051 Z -1.0000 I 0.9573 J 0.0833
G01 X 16.7335 Y 35.4232 Z -1.0000
G01 X 16.7397 Y 35.4410 Z -1.0000
G03 X 16.7341 Y 35.5206 Z -1.0000 I -0.5171 J 0.0039
G02 X 16.7265 Y 35.6021 Z -1.0000 I 0.7521 J 0.1111
G02 X 16.7231 Y 35.8050 Z -1.0000 I 4.6461 J 0.1804
G02 X 16.7481 Y 36.1037 Z -1.0000 I 1.9081 J -0.0092
G02 X 16.7815 Y 36.1620 Z -1.0000 I 0.0946 J -0.0155
G01 X 16.7872 Y 36.1590 Z -1.0000
G02 X 16.7753 Y 36.1062 Z -1.0000 I -0.2425 J 0.0270
G03 X 16.7408 Y 35.9100 Z -1.0000 I 0.5953 J -0.2057
G03 X 16.7704 Y 35.7842 Z -1.0000 I 0.2655 J -0.0040
G03 X 16.8505 Y 35.7468 Z -1.0000 I 0.0643 J 0.0333
G03 X 16.9559 Y 35.8257 Z -1.0000 I -0.0351 J 0.1567
G03 X 16.9727 Y 35.8746 Z -1.0000 I -0.1302 J 0.0721
G03 X 16.9750 Y 35.9472 Z -1.0000 I -0.2900 J 0.0457
G02 X 16.9790 Y 35.9869 Z -1.0000 I 0.1044 J 0.0096
G01 X 16.9872 Y 35.9878 Z -1.0000
G02 X 17.0032 Y 35.8711 Z -1.0000 I -0.1403 J -0.0787
G02 X 16.9263 Y 35.7377 Z -1.0000 I -0.2670 J 0.0650
G02 X 16.8834 Y 35.7116 Z -1.0000 I -0.0802 J 0.0837
G02 X 16.8321 Y 35.7056 Z -1.0000 I -0.0396 J 0.1165
G03 X 16.7834 Y 35.7037 Z -1.0000 I -0.0173 J -0.1812
G01 X 16.7769 Y 35.6959 Z -1.0000
G01 X 16.7793 Y 35.6815 Z -1.0000
G03 X 16.8120 Y 35.5946 Z -1.0000 I 1.6714 J 0.5789
G02 X 16.8336 Y 35.5091 Z -1.0000 I -0.2964 J -0.1204
G02 X 16.8256 Y 35.4716 Z -1.0000 I -0.0603 J -0.0066
G03 X 16.8078 Y 35.4341 Z -1.0000 I 0.1957 J -0.1156
G03 X 16.8040 Y 35.4126 Z -1.0000 I 0.0588 J -0.0215
G01 X 16.7965 Y 35.4003 Z -1.0000
G01 X 16.7769 Y 35.3987 Z -1.0000
G01 X 16.7609 Y 35.3920 Z -1.0000
G03 X 16.7498 Y 35.3462 Z -1.0000 I 0.0888 J -0.0458
G03 X 16.7558 Y 35.2885 Z -1.0000 I 0.2782 J -0.0000
G01 X 16.7647 Y 35.2759 Z -1.0000
G01 X 16.7729 Y 35.2638 Z -1.0000
G02 X 16.7726 Y 35.2311 Z -1.0000 I -0.0881 J -0.0155
G03 X 16.7699 Y 35.1955 Z -1.0000 I 0.1449 J -0.0288
G03 X 16.7770 Y 35.1346 Z -1.0000 I 0.4384 J 0.0201
G02 X 16.7784 Y 35.0744 Z -1.0000 I -0.1843 J -0.0345
G02 X 16.7555 Y 34.9788 Z -1.0000 I -0.4963 J 0.0687
G03 X 16.4426 Y 33.9865 Z -1.0000 I 16.9039 J -5.8750
G01 X 16.4655 Y 33.9563 Z -1.0000
G01 X 16.4721 Y 33.9612 Z -1.0000
G03 X 16.4920 Y 34.0474 Z -1.0000 I -0.7679 J 0.2234
G02 X 16.5113 Y 34.1371 Z -1.0000 I 1.1287 J -0.1958
G01 X 16.5190 Y 34.1524 Z -1.0000
G01 X 16.5269 Y 34.1676 Z -1.0000
G03 X 16.5395 Y 34.2234 Z -1.0000 I -0.4686 J 0.1352
G02 X 16.5540 Y 34.2731 Z -1.0000 I 0.2142 J -0.0354
G01 X 16.5626 Y 34.2775 Z -1.0000
G01 X 16.5738 Y 34.2802 Z -1.0000
G03 X 16.5920 Y 34.3016 Z -1.0000 I -0.0498 J 0.0608
G02 X 16.6077 Y 34.3286 Z -1.0000 I 2.4460 J -1.4120
G02 X 16.6117 Y 34.3351 Z -1.0000 I 0.1652 J -0.0978
G01 X 16.6158 Y 34.3357 Z -1.0000
G02 X 16.6283 Y 34.3215 Z -1.0000 I -0.0371 J -0.0452
G01 X 16.6322 Y 34.3544 Z -1.0000
G02 X 16.6324 Y 34.4038 Z -1.0000 I 0.1493 J 0.0242
G01 X 16.6435 Y 34.4222 Z -1.0000
G03 X 16.7141 Y 34.5312 Z -1.0000 I -0.1132 J 0.1506
G03 X 16.6969 Y 34.6581 Z -1.0000 I -0.1788 J 0.0404
G01 X 16.6942 Y 34.6801 Z -1.0000
G02 X 16.7104 Y 34.7129 Z -1.0000 I 0.0812 J -0.0199
G01 X 16.7363 Y 34.7448 Z -1.0000
G01 X 16.7363 Y 34.7086 Z -1.0000
G02 X 16.7304 Y 34.6831 Z -1.0000 I -0.0584 J 0.0000
G01 X 16.7227 Y 34.6808 Z -1.0000
G01 X 16.7105 Y 34.6745 Z -1.0000
G03 X 16.7204 Y 34.6367 Z -1.0000 I 0.0640 J -0.0034
G01 X 16.7459 Y 34.6398 Z -1.0000
G03 X 16.7972 Y 34.8648 Z -1.0000 I -1.0899 J 0.3669
G02 X 16.8072 Y 34.9121 Z -1.0000 I 0.2807 J -0.0347
G02 X 16.8238 Y 34.9528 Z -1.0000 I 0.2258 J -0.0684
G03 X 16.8418 Y 34.9930 Z -1.0000 I -0.3278 J 0.1709
G01 X 16.8445 Y 35.0076 Z -1.0000
G02 X 16.9471 Y 35.4601 Z -1.0000 I 1.0755 J -0.0059
G02 X 17.1815 Y 35.7227 Z -1.0000 I 0.5596 J -0.2637
G01 X 17.1921 Y 35.7347 Z -1.0000
G03 X 17.1968 Y 35.7568 Z -1.0000 I -0.0497 J 0.0221
G02 X 17.2316 Y 35.8636 Z -1.0000 I 0.1811 J -0.0000
G02 X 17.3405 Y 35.9538 Z -1.0000 I 0.2321 J -0.1694
G02 X 17.4398 Y 35.9703 Z -1.0000 I 0.0786 J -0.1656
G02 X 17.5073 Y 35.9348 Z -1.0000 I -0.0119 J -0.1044
G03 X 17.5622 Y 35.8927 Z -1.0000 I 0.1296 J 0.1124
G03 X 17.6877 Y 35.8475 Z -1.0000 I 0.2782 J 0.5751
G02 X 17.7177 Y 35.8326 Z -1.0000 I -0.0184 J -0.0746
G01 X 17.7250 Y 35.8173 Z -1.0000
G02 X 17.6925 Y 35.7359 Z -1.0000 I -0.1184 J 0.0000
G02 X 17.6169 Y 35.7034 Z -1.0000 I -0.0756 J 0.0717
G01 X 17.6097 Y 35.7070 Z -1.0000
G02 X 17.5894 Y 35.7406 Z -1.0000 I 0.1705 J 0.1259
G01 X 17.5736 Y 35.7579 Z -1.0000
G01 X 17.5660 Y 35.7546 Z -1.0000
G01 X 17.5735 Y 35.7199 Z -1.0000
G03 X 17.6626 Y 35.6280 Z -1.0000 I 0.4311 J 0.3294
G01 X 17.7425 Y 35.5632 Z -1.0000
G01 X 17.7684 Y 35.5951 Z -1.0000
G01 X 17.7970 Y 35.6118 Z -1.0000
G02 X 17.8308 Y 35.6055 Z -1.0000 I 0.0082 J -0.0496
G03 X 17.8690 Y 35.5889 Z -1.0000 I 0.0849 J 0.1437
G03 X 17.9282 Y 35.5771 Z -1.0000 I 0.0979 J 0.3364
G02 X 17.9889 Y 35.5692 Z -1.0000 I -0.1793 J -1.6092
G02 X 18.0675 Y 35.5562 Z -1.0000 I -0.4022 J -2.6834
G03 X 18.1454 Y 35.5465 Z -1.0000 I 0.1303 J 0.7241
G01 X 18.1646 Y 35.5493 Z -1.0000
G01 X 18.1830 Y 35.5512 Z -1.0000
G02 X 18.2108 Y 35.5418 Z -1.0000 I -0.0144 J -0.0882
G01 X 18.2369 Y 35.5396 Z -1.0000
G03 X 18.2830 Y 35.5660 Z -1.0000 I -0.0432 J 0.1288
G02 X 18.3297 Y 35.6013 Z -1.0000 I 0.2741 J -0.3143
G02 X 18.3569 Y 35.6141 Z -1.0000 I 0.0599 J -0.0921
G03 X 18.3924 Y 35.6524 Z -1.0000 I -0.0156 J 0.0501
G03 X 18.3796 Y 35.7129 Z -1.0000 I -0.0718 J 0.0165
G03 X 18.3393 Y 35.7626 Z -1.0000 I -0.6318 J -0.4716
G03 X 18.2863 Y 35.8188 Z -1.0000 I -0.8610 J -0.7588
G02 X 18.2347 Y 35.8755 Z -1.0000 I 0.5287 J 0.5333
G02 X 18.2223 Y 35.8967 Z -1.0000 I 0.0592 J 0.0486
G01 X 18.2094 Y 35.9143 Z -1.0000
G01 X 18.1926 Y 35.9201 Z -1.0000
G01 X 18.1798 Y 35.9280 Z -1.0000
G02 X 18.1719 Y 35.9612 Z -1.0000 I 0.0658 J 0.0332
G01 X 18.1818 Y 35.9857 Z -1.0000
G01 X 18.1982 Y 35.9883 Z -1.0000
G01 X 18.2276 Y 35.9915 Z -1.0000
G01 X 18.2315 Y 36.0170 Z -1.0000
G01 X 18.2322 Y 36.0223 Z -1.0000
G01 X 18.2375 Y 36.0230 Z -1.0000
G01 X 18.2494 Y 36.0112 Z -1.0000
G01 X 18.2532 Y 35.9980 Z -1.0000
G01 X 18.2571 Y 35.9843 Z -1.0000
G03 X 18.2814 Y 35.9527 Z -1.0000 I 0.1724 J 0.1075
G01 X 18.3096 Y 35.9227 Z -1.0000
G01 X 18.3643 Y 35.9519 Z -1.0000
G03 X 18.4156 Y 35.9852 Z -1.0000 I -0.1690 J 0.3167
G03 X 18.4515 Y 36.0196 Z -1.0000 I -0.1453 J 0.1869
G02 X 18.4863 Y 36.0491 Z -1.0000 I 0.1034 J -0.0870
G01 X 18.5040 Y 36.0505 Z -1.0000
G03 X 18.6050 Y 36.0489 Z -1.0000 I 0.0528 J 0.1376
G03 X 18.7363 Y 36.1311 Z -1.0000 I -0.1133 J 0.3267
G02 X 18.7734 Y 36.1534 Z -1.0000 I 0.0635 J -0.0635
G02 X 18.8431 Y 36.1639 Z -1.0000 I 0.0697 J -0.2269
G03 X 18.9164 Y 36.1693 Z -1.0000 I -0.0000 J 0.4969
G03 X 19.0379 Y 36.1930 Z -1.0000 I -0.2075 J 1.3903
G03 X 19.1486 Y 36.2321 Z -1.0000 I -0.1326 J 0.5511
G01 X 19.1668 Y 36.2542 Z -1.0000
G02 X 19.2058 Y 36.3175 Z -1.0000 I 0.1193 J -0.0299
G02 X 19.2662 Y 36.3399 Z -1.0000 I 0.0605 J -0.0702
G03 X 19.3020 Y 36.3452 Z -1.0000 I -0.0000 J 0.1245
G01 X 19.3204 Y 36.3562 Z -1.0000
G01 X 19.3286 Y 36.3533 Z -1.0000
G01 X 19.3236 Y 36.3274 Z -1.0000
G01 X 19.3244 Y 36.3119 Z -1.0000
G01 X 19.3392 Y 36.3046 Z -1.0000
G01 X 19.3615 Y 36.3156 Z -1.0000
G03 X 19.4077 Y 36.3849 Z -1.0000 I -0.2681 J 0.2287
G02 X 19.4700 Y 36.4207 Z -1.0000 I 0.0585 J -0.0297
G01 X 19.5043 Y 36.3793 Z -1.0000
G03 X 19.5048 Y 36.3187 Z -1.0000 I 0.2197 J -0.0286
G03 X 19.5201 Y 36.2710 Z -1.0000 I 0.1496 J 0.0219
G03 X 19.5909 Y 36.1617 Z -1.0000 I 0.5944 J 0.3073
G01 X 19.6097 Y 36.1584 Z -1.0000
G01 X 19.6175 Y 36.1591 Z -1.0000
G01 X 19.6211 Y 36.1539 Z -1.0000
G01 X 19.6546 Y 36.1253 Z -1.0000
G03 X 19.7781 Y 36.1792 Z -1.0000 I -0.0430 J 0.2670
G02 X 19.9040 Y 36.2288 Z -1.0000 I 0.1467 J -0.1877
G01 X 19.9266 Y 36.1922 Z -1.0000
G01 X 19.9445 Y 36.1648 Z -1.0000
G03 X 20.0784 Y 36.2134 Z -1.0000 I -0.0472 J 0.3388
G01 X 20.1087 Y 36.2208 Z -1.0000
G02 X 20.1423 Y 36.2084 Z -1.0000 I -0.0051 J -0.0657
G02 X 20.1706 Y 36.1816 Z -1.0000 I -0.0899 J -0.1235
G01 X 20.1759 Y 36.1673 Z -1.0000
G01 X 20.1803 Y 36.1544 Z -1.0000
G01 X 20.1883 Y 36.1503 Z -1.0000
G01 X 20.1971 Y 36.1458 Z -1.0000
G02 X 20.2166 Y 36.1107 Z -1.0000 I -0.1433 J -0.1026
G03 X 20.2371 Y 36.0752 Z -1.0000 I 0.1442 J 0.0595
G01 X 20.2528 Y 36.0634 Z -1.0000
G01 X 20.2633 Y 36.0635 Z -1.0000
G01 X 20.2649 Y 36.0683 Z -1.0000
G01 X 20.2634 Y 36.0793 Z -1.0000
G01 X 20.2710 Y 36.0892 Z -1.0000
G01 X 20.2827 Y 36.1216 Z -1.0000
G03 X 20.2306 Y 36.2097 Z -1.0000 I -0.2321 J -0.0779
G02 X 20.1812 Y 36.2703 Z -1.0000 I 0.4690 J 0.4324
G01 X 20.1764 Y 36.2852 Z -1.0000
G01 X 20.1698 Y 36.2904 Z -1.0000
G03 X 20.1282 Y 36.2736 Z -1.0000 I 0.0359 J -0.1481
G02 X 20.0399 Y 36.2460 Z -1.0000 I -0.1028 J 0.1742
G02 X 19.9195 Y 36.2585 Z -1.0000 I -0.0249 J 0.3457
G03 X 19.8746 Y 36.2649 Z -1.0000 I -0.0449 J -0.1567
G01 X 19.8593 Y 36.2585 Z -1.0000
G01 X 19.8443 Y 36.2491 Z -1.0000
G02 X 19.8216 Y 36.2451 Z -1.0000 I -0.0227 J 0.0640
G01 X 19.8022 Y 36.2401 Z -1.0000
G01 X 19.7972 Y 36.2316 Z -1.0000
G01 X 19.7920 Y 36.2232 Z -1.0000
G01 X 19.7699 Y 36.2180 Z -1.0000
G03 X 19.7437 Y 36.2142 Z -1.0000 I 0.0000 J -0.0912
G03 X 19.7175 Y 36.2024 Z -1.0000 I 0.0310 J -0.1035
G01 X 19.6750 Y 36.2002 Z -1.0000
G02 X 19.6329 Y 36.2441 Z -1.0000 I 0.0394 J 0.0800
G03 X 19.6097 Y 36.2784 Z -1.0000 I -0.1072 J -0.0474
G01 X 19.5924 Y 36.2858 Z -1.0000
G01 X 19.5542 Y 36.3070 Z -1.0000
G02 X 19.5439 Y 36.3637 Z -1.0000 I 0.0665 J 0.0414
G03 X 19.5444 Y 36.3994 Z -1.0000 I -0.0960 J 0.0192
G03 X 19.5333 Y 36.4254 Z -1.0000 I -0.0607 J -0.0104
G01 X 19.5238 Y 36.4514 Z -1.0000
G02 X 19.5283 Y 36.4967 Z -1.0000 I 0.1338 J 0.0094
G03 X 19.5365 Y 36.5428 Z -1.0000 I -0.2403 J 0.0663
G01 X 19.5331 Y 36.5565 Z -1.0000
G01 X 19.5345 Y 36.6002 Z -1.0000
G02 X 19.5812 Y 36.6244 Z -1.0000 I 0.0467 J -0.0331
G01 X 19.6032 Y 36.6167 Z -1.0000
G02 X 19.6235 Y 36.5906 Z -1.0000 I -0.0443 J -0.0555
G01 X 19.6420 Y 36.5705 Z -1.0000
G01 X 19.6571 Y 36.5719 Z -1.0000
G01 X 19.6705 Y 36.5969 Z -1.0000
G01 X 19.6605 Y 36.6032 Z -1.0000
G01 X 19.6469 Y 36.6032 Z -1.0000
G02 X 19.6087 Y 36.6345 Z -1.0000 I 0.0891 J 0.1475
G03 X 19.5704 Y 36.6610 Z -1.0000 I -0.0770 J -0.0703
G01 X 19.5491 Y 36.6583 Z -1.0000
G03 X 19.5304 Y 36.6396 Z -1.0000 I 0.0504 J -0.0689
G01 X 19.5263 Y 36.6270 Z -1.0000
G01 X 19.5071 Y 36.6084 Z -1.0000
G02 X 19.4661 Y 36.6289 Z -1.0000 I 0.0016 J 0.0545
G01 X 19.4371 Y 36.6460 Z -1.0000
G01 X 19.4143 Y 36.6378 Z -1.0000
G01 X 19.4161 Y 36.6263 Z -1.0000
G01 X 19.4305 Y 36.6277 Z -1.0000
G01 X 19.4352 Y 36.6268 Z -1.0000
G01 X 19.4350 Y 36.6176 Z -1.0000
G03 X 19.4310 Y 36.5729 Z -1.0000 I 0.0558 J -0.0276
G01 X 19.4525 Y 36.5566 Z -1.0000
G01 X 19.4626 Y 36.5626 Z -1.0000
G01 X 19.4635 Y 36.5770 Z -1.0000
G01 X 19.4636 Y 36.5918 Z -1.0000
G01 X 19.4718 Y 36.5973 Z -1.0000
G01 X 19.4796 Y 36.5906 Z -1.0000
G02 X 19.4784 Y 36.5533 Z -1.0000 I -0.1028 J -0.0154
G02 X 19.4570 Y 36.4983 Z -1.0000 I -0.1819 J 0.0390
G01 X 19.4407 Y 36.4889 Z -1.0000
G01 X 19.4262 Y 36.4846 Z -1.0000
G03 X 19.3848 Y 36.4521 Z -1.0000 I 0.1734 J -0.2641
G02 X 19.3564 Y 36.4320 Z -1.0000 I -0.0901 J 0.0972
G01 X 19.3527 Y 36.4353 Z -1.0000
G01 X 19.3532 Y 36.4535 Z -1.0000
G01 X 19.3402 Y 36.4740 Z -1.0000
G01 X 19.3318 Y 36.4743 Z -1.0000
G01 X 19.3289 Y 36.4649 Z -1.0000
G02 X 19.3314 Y 36.4394 Z -1.0000 I -0.0577 J -0.0184
G01 X 19.3246 Y 36.4289 Z -1.0000
G01 X 19.2964 Y 36.4408 Z -1.0000
G02 X 19.3096 Y 36.4957 Z -1.0000 I 0.0624 J 0.0141
G01 X 19.3139 Y 36.5144 Z -1.0000
G03 X 19.2980 Y 36.5441 Z -1.0000 I -0.0640 J -0.0152
G01 X 19.2707 Y 36.5734 Z -1.0000
G01 X 19.3071 Y 36.6041 Z -1.0000
G02 X 19.3678 Y 36.6482 Z -1.0000 I 0.3389 J -0.4027
G02 X 19.4992 Y 36.7236 Z -1.0000 I 1.1340 J -1.8216
G02 X 19.5623 Y 36.7461 Z -1.0000 I 0.1088 J -0.2058
G02 X 19.6423 Y 36.7523 Z -1.0000 I 0.0654 J -0.3269
G03 X 19.7189 Y 36.7591 Z -1.0000 I 0.0126 J 0.2891
G01 X 19.7406 Y 36.7745 Z -1.0000
G01 X 19.7352 Y 36.7853 Z -1.0000
G03 X 19.6846 Y 36.7789 Z -1.0000 I -0.0098 J -0.1258
G02 X 19.6215 Y 36.7620 Z -1.0000 I -0.1591 J 0.4668
G01 X 19.6046 Y 36.7630 Z -1.0000
G01 X 19.6039 Y 36.7689 Z -1.0000
G02 X 19.6484 Y 36.7904 Z -1.0000 I 0.1222 J -0.1952
G03 X 19.7090 Y 36.8123 Z -1.0000 I -5.3830 J 15.0176
G03 X 19.8270 Y 36.8553 Z -1.0000 I -20.6052 J 56.7617
G02 X 19.9458 Y 36.8904 Z -1.0000 I 0.3365 J -0.9210
G02 X 19.9919 Y 36.8928 Z -1.0000 I 0.0303 J -0.1332
G03 X 20.0318 Y 36.8941 Z -1.0000 I 0.0157 J 0.1344
G01 X 20.0366 Y 36.9010 Z -1.0000
G01 X 20.0411 Y 36.9103 Z -1.0000
G02 X 20.0951 Y 36.9328 Z -1.0000 I 0.1344 J -0.2469
G02 X 20.3264 Y 36.9986 Z -1.0000 I 2.6998 J -9.0472
G02 X 20.4337 Y 37.0245 Z -1.0000 I 0.5192 J -1.9168
G02 X 20.6632 Y 37.0610 Z -1.0000 I 0.4727 J -2.2291
G02 X 20.9890 Y 37.0841 Z -1.0000 I 0.4799 J -4.4714
G03 X 21.2917 Y 37.1094 Z -1.0000 I -0.1058 J 3.0865
G03 X 21.5781 Y 37.1627 Z -1.0000 I -0.3758 J 2.8161
G03 X 21.8619 Y 37.2332 Z -1.0000 I -4.0949 J 17.0821
G03 X 21.9844 Y 37.2673 Z -1.0000 I -0.8280 J 3.2168
G02 X 22.4920 Y 37.3195 Z -1.0000 I 0.3913 J -1.3103
G02 X 22.5871 Y 37.2159 Z -1.0000 I -0.0088 J -0.1036
G01 X 22.5919 Y 37.2000 Z -1.0000
G03 X 22.6183 Y 37.1686 Z -1.0000 I 0.1471 J 0.0971
G03 X 22.6519 Y 37.1517 Z -1.0000 I 0.0455 J 0.0485
G03 X 22.6917 Y 37.1553 Z -1.0000 I 0.0134 J 0.0735
G02 X 22.7313 Y 37.1563 Z -1.0000 I 0.0213 J -0.0563
G02 X 22.7877 Y 37.1247 Z -1.0000 I -0.0489 J -0.1531
G03 X 22.8430 Y 37.0803 Z -1.0000 I 0.6009 J 0.6931
G03 X 22.9005 Y 37.0412 Z -1.0000 I 0.5233 J 0.7075
G02 X 22.9592 Y 37.0037 Z -1.0000 I -1.7330 J -2.7769
G02 X 22.9814 Y 36.9883 Z -1.0000 I -0.2709 J -0.4142
G01 X 23.0031 Y 36.9844 Z -1.0000
G03 X 23.0504 Y 37.0082 Z -1.0000 I -0.0400 J 0.1382
G02 X 23.0996 Y 37.0381 Z -1.0000 I 0.1657 J -0.2172
G02 X 23.1268 Y 37.0442 Z -1.0000 I 0.0271 J -0.0576
G02 X 23.1938 Y 37.0167 Z -1.0000 I -0.0000 J -0.0952
G01 X 23.2044 Y 36.9674 Z -1.0000
G03 X 23.1910 Y 36.8933 Z -1.0000 I 0.1877 J -0.0720
G01 X 23.2053 Y 36.8740 Z -1.0000
G02 X 23.2299 Y 36.8647 Z -1.0000 I -0.0688 J -0.2186
G02 X 23.3862 Y 36.7933 Z -1.0000 I -4.0031 J -8.9742
G03 X 23.5420 Y 36.7207 Z -1.0000 I 54.9137 J 117.5360
G03 X 23.6706 Y 36.6609 Z -1.0000 I 38.2855 J 82.2293
G02 X 23.7951 Y 36.5955 Z -1.0000 I -0.5920 J -1.2769
G02 X 23.8321 Y 36.5654 Z -1.0000 I -0.0826 J -0.1397
G03 X 23.8669 Y 36.5341 Z -1.0000 I 0.1803 J 0.1651
G01 X 23.8806 Y 36.5296 Z -1.0000
G01 X 23.8943 Y 36.5251 Z -1.0000
G02 X 23.9290 Y 36.4944 Z -1.0000 I -0.1429 J -0.1965
G03 X 23.9648 Y 36.4631 Z -1.0000 I 0.1692 J 0.1578
G03 X 24.0231 Y 36.4279 Z -1.0000 I 0.2741 J 0.3886
G02 X 24.2421 Y 36.2545 Z -1.0000 I -0.3207 J -0.6299
G02 X 24.4520 Y 35.9209 Z -1.0000 I -1.0743 J -0.9087
G03 X 24.4987 Y 35.8189 Z -1.0000 I 6.2274 J 2.7888
G03 X 24.5109 Y 35.7949 Z -1.0000 I 0.3565 J 0.1667
G02 X 24.5203 Y 35.7702 Z -1.0000 I -0.0811 J -0.0450
G02 X 24.5374 Y 35.6766 Z -1.0000 I -1.1730 J -0.2623
G03 X 24.5529 Y 35.5823 Z -1.0000 I 2.1322 J 0.3028
G03 X 24.5785 Y 35.4578 Z -1.0000 I 3.7079 J 0.6958
G02 X 24.5995 Y 35.3327 Z -1.0000 I -1.1675 J -0.2601
G02 X 24.6143 Y 35.1427 Z -1.0000 I -2.6880 J -0.3056
G02 X 24.6094 Y 34.9539 Z -1.0000 I -1.3785 J -0.0588
G02 X 24.5879 Y 34.8637 Z -1.0000 I -0.3304 J 0.0312
G03 X 24.5541 Y 34.7753 Z -1.0000 I 4.8472 J -1.9051
G03 X 24.5189 Y 34.6783 Z -1.0000 I 5.8144 J -2.1642
G02 X 24.3205 Y 34.2838 Z -1.0000 I -1.6551 J 0.5851
G02 X 23.9059 Y 33.7666 Z -1.0000 I -3.2836 J 2.2079
G03 X 23.7808 Y 33.6170 Z -1.0000 I 1.1138 J -1.0580
G03 X 23.6725 Y 33.4484 Z -1.0000 I 1.3097 J -0.9604
G02 X 23.5727 Y 33.2731 Z -1.0000 I -10.4333 J 5.8244
G02 X 23.4798 Y 33.1165 Z -1.0000 I -8.4517 J 4.9070
G03 X 23.3879 Y 32.9594 Z -1.0000 I 5.0353 J -3.0501
G03 X 23.3117 Y 32.8186 Z -1.0000 I 3.9619 J -2.2355
G02 X 23.1768 Y 32.6013 Z -1.0000 I -1.4743 J 0.7647
G02 X 23.0969 Y 32.5256 Z -1.0000 I -0.2481 J 0.1819
G03 X 23.0023 Y 32.4209 Z -1.0000 I 0.1513 J -0.2317
G03 X 22.9664 Y 32.2729 Z -1.0000 I 0.2866 J -0.1480
G03 X 22.9861 Y 32.2153 Z -1.0000 I 0.0936 J 0.0000
G03 X 23.0266 Y 32.1956 Z -1.0000 I 0.0405 J 0.0316
G02 X 23.1459 Y 32.1614 Z -1.0000 I -0.0000 J -0.2255
G01 X 23.1508 Y 32.1182 Z -1.0000
G01 X 23.1429 Y 32.1161 Z -1.0000
G01 X 23.1248 Y 32.1256 Z -1.0000
G01 X 23.1052 Y 32.1298 Z -1.0000
G03 X 23.0075 Y 32.0933 Z -1.0000 I 0.1556 J -0.5652
G03 X 22.9166 Y 32.0444 Z -1.0000 I 0.4826 J -1.0069
G01 X 22.9158 Y 32.0384 Z -1.0000
G01 X 22.9241 Y 32.0363 Z -1.0000
G03 X 22.9644 Y 32.0524 Z -1.0000 I -0.0604 J 0.2108
G02 X 23.0066 Y 32.0697 Z -1.0000 I 0.1197 J -0.2315
G02 X 23.0300 Y 32.0728 Z -1.0000 I 0.0210 J -0.0673
G01 X 23.0326 Y 32.0680 Z -1.0000
G01 X 23.0205 Y 32.0577 Z -1.0000
G01 X 22.9867 Y 32.0435 Z -1.0000
G01 X 23.0273 Y 32.0297 Z -1.0000
G02 X 23.0668 Y 32.0137 Z -1.0000 I -0.1206 J -0.3547
G02 X 23.0849 Y 32.0025 Z -1.0000 I -0.0401 J -0.0848
G01 X 23.0958 Y 32.0014 Z -1.0000
G01 X 23.1018 Y 32.0111 Z -1.0000
G01 X 23.1086 Y 32.0262 Z -1.0000
G01 X 23.1266 Y 32.0330 Z -1.0000
G01 X 23.1426 Y 32.0167 Z -1.0000
G02 X 23.1255 Y 31.9777 Z -1.0000 I -0.0554 J 0.0011
G03 X 23.1001 Y 31.9340 Z -1.0000 I 0.0631 J -0.0660
G03 X 23.1019 Y 31.8837 Z -1.0000 I 0.0874 J -0.0220
G01 X 23.1198 Y 31.8295 Z -1.0000
G01 X 23.1576 Y 31.8737 Z -1.0000
G03 X 23.1929 Y 31.9190 Z -1.0000 I -0.4669 J 0.3997
G01 X 23.1960 Y 31.9281 Z -1.0000
G01 X 23.2083 Y 31.9328 Z -1.0000
G01 X 23.2203 Y 31.9044 Z -1.0000
G01 X 23.2116 Y 31.8792 Z -1.0000
G01 X 23.1937 Y 31.8705 Z -1.0000
G01 X 23.1793 Y 31.8602 Z -1.0000
G03 X 23.1759 Y 31.8184 Z -1.0000 I 0.0810 J -0.0276
G02 X 23.1831 Y 31.7661 Z -1.0000 I -0.8858 J -0.1482
G02 X 23.1860 Y 31.7236 Z -1.0000 I -0.5256 J -0.0565
G03 X 23.1920 Y 31.6859 Z -1.0000 I 0.1464 J 0.0042
G01 X 23.1987 Y 31.6809 Z -1.0000
G01 X 23.2053 Y 31.6761 Z -1.0000
G02 X 23.2101 Y 31.6470 Z -1.0000 I -0.0856 J -0.0291
G03 X 23.2171 Y 31.6201 Z -1.0000 I 0.0556 J -0.0000
G01 X 23.2289 Y 31.6132 Z -1.0000
G01 X 23.2446 Y 31.6072 Z -1.0000
G02 X 23.2859 Y 31.5624 Z -1.0000 I -0.2065 J -0.2320
G03 X 23.3534 Y 31.4827 Z -1.0000 I 0.7543 J 0.5698
G01 X 23.3591 Y 31.4850 Z -1.0000
G01 X 23.3752 Y 31.4913 Z -1.0000
G02 X 23.4532 Y 31.3847 Z -1.0000 I -0.3968 J -0.3723
G03 X 23.4663 Y 31.3694 Z -1.0000 I 0.0437 J 0.0244
G01 X 23.4724 Y 31.3698 Z -1.0000
G01 X 23.4734 Y 31.3773 Z -1.0000
G03 X 23.4131 Y 31.4713 Z -1.0000 I -1.1573 J -0.6755
G02 X 23.2711 Y 31.7654 Z -1.0000 I 0.8309 J 0.5827
G02 X 23.2973 Y 31.8618 Z -1.0000 I 0.0910 J 0.0270
G03 X 23.3519 Y 31.9217 Z -1.0000 I -0.3448 J 0.3692
G03 X 23.3775 Y 31.9653 Z -1.0000 I -0.1552 J 0.1202
G01 X 23.3914 Y 31.9799 Z -1.0000
G01 X 23.3986 Y 31.9755 Z -1.0000
G02 X 23.3925 Y 31.9411 Z -1.0000 I -0.0850 J -0.0025
G02 X 23.3727 Y 31.9111 Z -1.0000 I -0.0836 J 0.0338
G03 X 23.3492 Y 31.8825 Z -1.0000 I 0.1326 J -0.1327
G01 X 23.3456 Y 31.8705 Z -1.0000
G01 X 23.3414 Y 31.8612 Z -1.0000
G01 X 23.3306 Y 31.8570 Z -1.0000
G01 X 23.3231 Y 31.8518 Z -1.0000
G01 X 23.3231 Y 31.8373 Z -1.0000
G01 X 23.3211 Y 31.8272 Z -1.0000
G01 X 23.3116 Y 31.8250 Z -1.0000
G01 X 23.2715 Y 31.8074 Z -1.0000
G03 X 23.2830 Y 31.7525 Z -1.0000 I 0.0476 J -0.0188
G01 X 23.2875 Y 31.7535 Z -1.0000
G03 X 23.2914 Y 31.7749 Z -1.0000 I -0.0570 J 0.0214
G01 X 23.2984 Y 31.7955 Z -1.0000
G01 X 23.3097 Y 31.7987 Z -1.0000
G01 X 23.3266 Y 31.7993 Z -1.0000
G03 X 23.3633 Y 31.8243 Z -1.0000 I -0.0639 J 0.1335
G02 X 23.3998 Y 31.8538 Z -1.0000 I 0.2385 J -0.2572
G01 X 23.4097 Y 31.8570 Z -1.0000
G01 X 23.4192 Y 31.8603 Z -1.0000
G03 X 23.4440 Y 31.8841 Z -1.0000 I -0.1093 J 0.1385
G02 X 23.4705 Y 31.9034 Z -1.0000 I 0.0542 J -0.0464
G02 X 23.5045 Y 31.9095 Z -1.0000 I 0.0306 J -0.0728
G01 X 23.5419 Y 31.9079 Z -1.0000
G01 X 23.5013 Y 31.8965 Z -1.0000
G01 X 23.5081 Y 31.8901 Z -1.0000
G03 X 23.5550 Y 31.8975 Z -1.0000 I -0.0552 J 0.5068
G03 X 23.5792 Y 31.9047 Z -1.0000 I -0.0290 J 0.1418
G01 X 23.5950 Y 31.9025 Z -1.0000
G01 X 23.6029 Y 31.8866 Z -1.0000
G03 X 23.6351 Y 31.8094 Z -1.0000 I 0.1086 J 0.0000
G03 X 23.7545 Y 31.7367 Z -1.0000 I 0.2130 J 0.2154
G03 X 23.7999 Y 31.7268 Z -1.0000 I 0.0711 J 0.2188
G03 X 23.8562 Y 31.7252 Z -1.0000 I 0.0379 J 0.3367
G01 X 23.8885 Y 31.7136 Z -1.0000
G01 X 23.8840 Y 31.6997 Z -1.0000
G03 X 23.7144 Y 31.6695 Z -1.0000 I 0.1700 J -1.4482
G03 X 23.6715 Y 31.6488 Z -1.0000 I 0.0260 J -0.1084
G01 X 23.6632 Y 31.6488 Z -1.0000
G01 X 23.6609 Y 31.6572 Z -1.0000
G01 X 23.6586 Y 31.6732 Z -1.0000
G01 X 23.6431 Y 31.6809 Z -1.0000
G01 X 23.6350 Y 31.6664 Z -1.0000
G03 X 23.6811 Y 31.6189 Z -1.0000 I 0.1284 J 0.0787
G03 X 23.7970 Y 31.5561 Z -1.0000 I 0.4466 J 0.6855
G03 X 23.8473 Y 31.5455 Z -1.0000 I 0.0503 J 0.1138
G01 X 23.8686 Y 31.5403 Z -1.0000
G01 X 23.8738 Y 31.5319 Z -1.0000
G01 X 23.8663 Y 31.5254 Z -1.0000
G02 X 23.7786 Y 31.5456 Z -1.0000 I 0.0768 J 0.5350
G03 X 23.7094 Y 31.5535 Z -1.0000 I -0.0547 J -0.1713
G01 X 23.7054 Y 31.5397 Z -1.0000
G01 X 23.7098 Y 31.5248 Z -1.0000
G01 X 23.6943 Y 31.5112 Z -1.0000
G03 X 23.6612 Y 31.4987 Z -1.0000 I 0.0374 J -0.1488
G01 X 23.6571 Y 31.4920 Z -1.0000
G03 X 23.6886 Y 31.4415 Z -1.0000 I 0.0561 J 0.0000
G03 X 23.8248 Y 31.4100 Z -1.0000 I 0.1362 J 0.2789
G02 X 23.8547 Y 31.4045 Z -1.0000 I -0.0000 J -0.0837
G01 X 23.8602 Y 31.3965 Z -1.0000
G01 X 23.8555 Y 31.3877 Z -1.0000
G01 X 23.8399 Y 31.3829 Z -1.0000
G01 X 23.8281 Y 31.3744 Z -1.0000
G03 X 23.8196 Y 31.3220 Z -1.0000 I 0.1573 J -0.0524
G03 X 23.8370 Y 31.2815 Z -1.0000 I 0.0556 J 0.0000
G01 X 23.8591 Y 31.2847 Z -1.0000
G01 X 23.8683 Y 31.2907 Z -1.0000
G01 X 23.8733 Y 31.2862 Z -1.0000
G01 X 23.8809 Y 31.2696 Z -1.0000
G03 X 23.9071 Y 31.2556 Z -1.0000 I 0.0412 J 0.0455
G01 X 23.9301 Y 31.2418 Z -1.0000
G01 X 23.9328 Y 31.2270 Z -1.0000
G01 X 23.9344 Y 31.2133 Z -1.0000
G01 X 23.9468 Y 31.2069 Z -1.0000
G01 X 23.9635 Y 31.2123 Z -1.0000
G01 X 23.9699 Y 31.2238 Z -1.0000
G01 X 23.9809 Y 31.2069 Z -1.0000
G01 X 23.9880 Y 31.2065 Z -1.0000
G03 X 24.0003 Y 31.2530 Z -1.0000 I -0.1611 J 0.0675
G03 X 23.9970 Y 31.3299 Z -1.0000 I -0.2347 J 0.0284
G03 X 23.9723 Y 31.3869 Z -1.0000 I -0.1521 J -0.0318
G02 X 23.8983 Y 31.5091 Z -1.0000 I 0.9072 J 0.6335
G02 X 23.8879 Y 31.5489 Z -1.0000 I 0.0811 J 0.0422
G01 X 23.9030 Y 31.5632 Z -1.0000
G02 X 23.9454 Y 31.5444 Z -1.0000 I -0.0054 J -0.0696
G03 X 24.0115 Y 31.4975 Z -1.0000 I 0.2001 J 0.2123
G01 X 24.0227 Y 31.5044 Z -1.0000
G01 X 24.0370 Y 31.5136 Z -1.0000
