%
(Header)
(Generated by gcodetools from Inkscape.)
(Using default header. To add your own header create file "header" in the output dir.)
M3
(Header end.)
G21 (All units in mm)

(Start cutting path id: path66511)
(Change tool to Default tool)

G00 Z 5.0000
G00 X 10.2887 Y 1.1676

G01 Z -1.0000 F 100.0000(Penetrate)
G02 X 8.8486 Y 1.8647 Z -1.0000 I 2.0575 J 6.0867 F 3500.0000
G02 X 7.7847 Y 2.7926 Z -1.0000 I 2.7231 J 4.1962
G02 X 6.7456 Y 4.3864 Z -1.0000 I 5.3792 J 4.6424
G02 X 6.3667 Y 5.7779 Z -1.0000 I 3.6877 J 1.7516
G02 X 6.5208 Y 6.3998 Z -1.0000 I 0.9809 J 0.0869
G02 X 8.0322 Y 8.3517 Z -1.0000 I 12.2738 J -7.9427
G03 X 13.8340 Y 14.7081 Z -1.0000 I -880.8144 J 809.7871
G03 X 17.6841 Y 19.0029 Z -1.0000 I -398.2761 J 360.9084
G02 X 21.5262 Y 23.0911 Z -1.0000 I 72.6661 J -64.4417
G02 X 23.9902 Y 25.3361 Z -1.0000 I 24.2959 J -24.1921
G02 X 25.3885 Y 26.3142 Z -1.0000 I 6.8101 J -8.2466
G02 X 25.8836 Y 26.4468 Z -1.0000 I 0.4881 J -0.8320
G02 X 27.0711 Y 26.2642 Z -1.0000 I -0.0296 J -4.1448
G02 X 28.9592 Y 25.5021 Z -1.0000 I -3.4967 J -11.3829
G02 X 31.9647 Y 23.3146 Z -1.0000 I -5.2784 J -10.4109
G02 X 32.5566 Y 21.8782 Z -1.0000 I -1.4470 J -1.4364
G02 X 31.9983 Y 20.4844 Z -1.0000 I -2.0190 J 0.0000
G02 X 23.8023 Y 12.7044 Z -1.0000 I -82.7330 J 78.9499
G03 X 21.2886 Y 10.3487 Z -1.0000 I 26.1004 J -30.3700
G03 X 16.2303 Y 4.9702 Z -1.0000 I 131.4286 J -128.6729
G02 X 12.9185 Y 1.3744 Z -1.0000 I -188.1931 J 170.0029
G02 X 12.6148 Y 1.1197 Z -1.0000 I -1.2152 J 1.1410
G02 X 11.8363 Y 0.8967 Z -1.0000 I -0.7503 J 1.1488
G02 X 10.2887 Y 1.1676 Z -1.0000 I 0.1063 J 5.1636
G01 X 10.2887 Y 1.1676 Z -1.0000
G00 Z 5.0000

(End cutting path id: path66511)


(Start cutting path id: path66511)
(Change tool to Default tool)

G00 Z 5.0000
G00 X 12.7948 Y 2.9834

G01 Z -1.0000 F 100.0000(Penetrate)
G02 X 13.2933 Y 3.5534 Z -1.0000 I 14.2772 J -11.9829 F 3500.0000
G02 X 13.5913 Y 3.8576 Z -1.0000 I 4.3589 J -3.9711
G03 X 13.7739 Y 4.1512 Z -1.0000 I -0.4725 J 0.4974
G03 X 13.7322 Y 4.3103 Z -1.0000 I -0.1483 J 0.0462
G03 X 13.5878 Y 4.3678 Z -1.0000 I -0.1446 J -0.1531
G03 X 13.5058 Y 4.3105 Z -1.0000 I -0.0001 J -0.0873
G02 X 13.4314 Y 4.1617 Z -1.0000 I -0.6945 J 0.2543
G02 X 13.3022 Y 3.9974 Z -1.0000 I -0.9793 J 0.6365
G03 X 13.1725 Y 3.8320 Z -1.0000 I 0.8478 J -0.7986
G03 X 12.9792 Y 3.4986 Z -1.0000 I 3.2854 J -2.1284
G02 X 12.7727 Y 3.2011 Z -1.0000 I -1.2398 J 0.6397
G02 X 12.6661 Y 3.1534 Z -1.0000 I -0.1075 J 0.0975
G03 X 12.5580 Y 3.1059 Z -1.0000 I 0.0009 J -0.1486
G03 X 12.3173 Y 2.7777 Z -1.0000 I 1.2952 J -1.2022
G03 X 12.3977 Y 2.6879 Z -1.0000 I 0.0552 J -0.0314
G03 X 12.7948 Y 2.9834 Z -1.0000 I -0.4240 J 0.9846
G01 X 12.7948 Y 2.9834 Z -1.0000
G00 Z 5.0000

(End cutting path id: path66511)


(Start cutting path id: path66511)
(Change tool to Default tool)

G00 Z 5.0000
G00 X 14.1544 Y 4.7306

G01 Z -1.0000 F 100.0000(Penetrate)
G03 X 14.3138 Y 5.0491 Z -1.0000 I -1.2874 J 0.8435 F 3500.0000
G03 X 14.2972 Y 5.1241 Z -1.0000 I -0.0672 J 0.0244
G03 X 13.9807 Y 5.1173 Z -1.0000 I -0.1550 J -0.1550
G03 X 13.7246 Y 4.5006 Z -1.0000 I 0.7187 J -0.6600
G03 X 13.8303 Y 4.4340 Z -1.0000 I 0.0718 J -0.0032
G03 X 14.1544 Y 4.7306 Z -1.0000 I -0.4195 J 0.7838
G01 X 14.1544 Y 4.7306 Z -1.0000
G00 Z 5.0000

(End cutting path id: path66511)


(Start cutting path id: path66511)
(Change tool to Default tool)

G00 Z 5.0000
G00 X 14.6544 Y 5.2920

G01 Z -1.0000 F 100.0000(Penetrate)
G02 X 14.6515 Y 5.3700 Z -1.0000 I 0.0673 J 0.0416 F 3500.0000
G02 X 14.7150 Y 5.4086 Z -1.0000 I 0.0635 J -0.0330
G03 X 15.2631 Y 5.6342 Z -1.0000 I -0.0000 J 0.7786
G03 X 15.2638 Y 5.9526 Z -1.0000 I -0.1581 J 0.1595
G01 X 15.2609 Y 6.0158 Z -1.0000
G02 X 15.7752 Y 6.5677 Z -1.0000 I 5.1262 J -4.2614
G03 X 16.3227 Y 7.1309 Z -1.0000 I -7.6660 J 8.0006
G03 X 16.3505 Y 7.2031 Z -1.0000 I -0.0797 J 0.0722
G02 X 16.3734 Y 7.2784 Z -1.0000 I 0.1351 J -0.0000
G02 X 16.5697 Y 7.5297 Z -1.0000 I 1.8431 J -1.2368
G03 X 16.7874 Y 7.7736 Z -1.0000 I -20.0887 J 18.1534
G03 X 17.3259 Y 8.3871 Z -1.0000 I -126.6356 J 111.6883
G02 X 17.8661 Y 8.9992 Z -1.0000 I 59.0995 J -51.6181
G02 X 18.2965 Y 9.4754 Z -1.0000 I 36.1982 J -32.2858
G03 X 18.6758 Y 9.9695 Z -1.0000 I -2.6475 J 2.4250
G03 X 18.7282 Y 10.1521 Z -1.0000 I -0.2815 J 0.1796
G01 X 18.6838 Y 10.1768 Z -1.0000
G03 X 18.5717 Y 10.0565 Z -1.0000 I 0.1592 J -0.2606
G02 X 18.3909 Y 9.7998 Z -1.0000 I -1.0276 J 0.5316
G02 X 18.2917 Y 9.7558 Z -1.0000 I -0.1009 J 0.0940
G03 X 18.1841 Y 9.7200 Z -1.0000 I 0.0024 J -0.1869
G03 X 18.0264 Y 9.5627 Z -1.0000 I 0.4246 J -0.5832
G02 X 17.8965 Y 9.5163 Z -1.0000 I -0.0991 J 0.0725
G02 X 17.7449 Y 9.6355 Z -1.0000 I 0.0601 J 0.2325
G03 X 17.5719 Y 9.8720 Z -1.0000 I -0.9257 J -0.4954
G03 X 17.2274 Y 10.1675 Z -1.0000 I -1.8044 J -1.7548
G03 X 16.9224 Y 10.2976 Z -1.0000 I -0.4495 J -0.6312
G03 X 16.8515 Y 10.2388 Z -1.0000 I -0.0111 J -0.0588
G03 X 16.8945 Y 10.0855 Z -1.0000 I 0.2950 J -0.0000
G03 X 16.9710 Y 10.0425 Z -1.0000 I 0.0765 J 0.0466
G02 X 17.0764 Y 10.0082 Z -1.0000 I 0.0000 J -0.1790
G02 X 17.4101 Y 9.7229 Z -1.0000 I -1.6545 J -2.2735
G02 X 17.5273 Y 9.3916 Z -1.0000 I -0.2884 J -0.2884
G02 X 17.3219 Y 8.8880 Z -1.0000 I -0.9719 J 0.1027
G02 X 16.9031 Y 8.3822 Z -1.0000 I -11.5910 J 9.1705
G02 X 16.5384 Y 7.9834 Z -1.0000 I -7.5678 J 6.5545
G03 X 16.1778 Y 7.5812 Z -1.0000 I 5.2742 J -5.0912
G03 X 15.6959 Y 6.9710 Z -1.0000 I 11.6779 J -9.7180
G02 X 15.2241 Y 6.3519 Z -1.0000 I -37.3875 J 28.0037
G02 X 15.0697 Y 6.1634 Z -1.0000 I -3.6184 J 2.8055
G03 X 14.4108 Y 5.2917 Z -1.0000 I 6.3122 J -5.4559
G03 X 14.4090 Y 5.1586 Z -1.0000 I 0.1034 J -0.0680
G03 X 14.5031 Y 5.0875 Z -1.0000 I 0.1387 J 0.0857
G03 X 14.6078 Y 5.1021 Z -1.0000 I 0.0358 J 0.1261
G03 X 14.6707 Y 5.1885 Z -1.0000 I -0.0742 J 0.1201
G03 X 14.6544 Y 5.2920 Z -1.0000 I -0.1315 J 0.0322
G01 X 14.6544 Y 5.2920 Z -1.0000
G00 Z 5.0000

(End cutting path id: path66511)


(Start cutting path id: path66511)
(Change tool to Default tool)

G00 Z 5.0000
G00 X 12.5665 Y 7.0600

G01 Z -1.0000 F 100.0000(Penetrate)
G03 X 12.5743 Y 7.4164 Z -1.0000 I -0.1823 J 0.1823 F 3500.0000
G03 X 12.0142 Y 7.6629 Z -1.0000 I -0.5601 J -0.5131
G02 X 11.8143 Y 7.7246 Z -1.0000 I -0.0000 J 0.3545
G02 X 11.7846 Y 7.8197 Z -1.0000 I 0.0453 J 0.0663
G03 X 11.6634 Y 8.1613 Z -1.0000 I -0.2603 J 0.0999
G03 X 11.0826 Y 8.2240 Z -1.0000 I -0.3616 J -0.6280
G03 X 10.9579 Y 8.0232 Z -1.0000 I 0.0550 J -0.1732
G03 X 11.1530 Y 7.7653 Z -1.0000 I 0.3361 J 0.0516
G02 X 11.4273 Y 7.5977 Z -1.0000 I -0.5521 J -1.2118
G02 X 11.4661 Y 7.5175 Z -1.0000 I -0.0635 J -0.0802
G02 X 11.3815 Y 7.4483 Z -1.0000 I -0.0706 J 0.0000
G02 X 11.0351 Y 7.6043 Z -1.0000 I 0.1683 J 0.8364
G03 X 10.7802 Y 7.7527 Z -1.0000 I -0.7420 J -0.9810
G03 X 10.6087 Y 7.7881 Z -1.0000 I -0.1715 J -0.3976
G03 X 10.5594 Y 7.7287 Z -1.0000 I 0.0000 J -0.0502
G03 X 10.6569 Y 7.5323 Z -1.0000 I 0.3973 J 0.0749
G02 X 10.7042 Y 7.3961 Z -1.0000 I -0.1367 J -0.1237
G01 X 10.6450 Y 7.3562 Z -1.0000
G03 X 10.5659 Y 7.3525 Z -1.0000 I -0.0347 J -0.1058
G01 X 10.5624 Y 7.3202 Z -1.0000
G03 X 10.8375 Y 7.2340 Z -1.0000 I 0.2677 J 0.3718
G03 X 11.4284 Y 7.3341 Z -1.0000 I -0.0317 J 1.9812
G02 X 11.6827 Y 7.3363 Z -1.0000 I 0.1307 J -0.3948
G02 X 11.9607 Y 7.1683 Z -1.0000 I -0.2016 J -0.6476
G03 X 12.3178 Y 6.9819 Z -1.0000 I 0.4754 J 0.4754
G03 X 12.5665 Y 7.0600 Z -1.0000 I 0.0496 J 0.2773
G01 X 12.5665 Y 7.0600 Z -1.0000
G00 Z 5.0000

(End cutting path id: path66511)


(Start cutting path id: path66511)
(Change tool to Default tool)

G00 Z 5.0000
G00 X 12.1562 Y 7.2892

G01 Z -1.0000 F 100.0000(Penetrate)
G02 X 12.2485 Y 7.3588 Z -1.0000 I 0.1357 J -0.0839 F 3500.0000
G02 X 12.3515 Y 7.3444 Z -1.0000 I 0.0351 J -0.1242
G02 X 12.3856 Y 7.2361 Z -1.0000 I -0.0457 J -0.0739
G02 X 12.2728 Y 7.1619 Z -1.0000 I -0.1128 J 0.0486
G02 X 12.1637 Y 7.2100 Z -1.0000 I -0.0000 J 0.1480
G02 X 12.1562 Y 7.2892 Z -1.0000 I 0.0487 J 0.0446
G01 X 12.1562 Y 7.2892 Z -1.0000
G00 Z 5.0000

(End cutting path id: path66511)


(Start cutting path id: path66511)
(Change tool to Default tool)

G00 Z 5.0000
G00 X 11.6682 Y 6.6065

G01 Z -1.0000 F 100.0000(Penetrate)
G02 X 11.6987 Y 6.7029 Z -1.0000 I 0.0756 J 0.0290 F 3500.0000
G02 X 11.8426 Y 6.7233 Z -1.0000 I 0.0932 J -0.1392
G03 X 11.9696 Y 6.8218 Z -1.0000 I 0.0295 J 0.0930
G03 X 11.8225 Y 7.0863 Z -1.0000 I -0.3458 J -0.0192
G03 X 11.5479 Y 7.1964 Z -1.0000 I -0.3729 J -0.5323
G03 X 11.3380 Y 7.1604 Z -1.0000 I -0.0510 J -0.3330
G02 X 11.1298 Y 7.0889 Z -1.0000 I -0.3249 J 0.6070
G02 X 11.0568 Y 7.1121 Z -1.0000 I -0.0141 J 0.0820
G03 X 10.9967 Y 7.1231 Z -1.0000 I -0.0380 J -0.0380
G03 X 10.9077 Y 7.0450 Z -1.0000 I 0.0829 J -0.1844
G03 X 10.9119 Y 6.9598 Z -1.0000 I 0.0639 J -0.0395
G03 X 11.0100 Y 6.9115 Z -1.0000 I 0.0980 J 0.0750
G02 X 11.1762 Y 6.8798 Z -1.0000 I -0.0000 J -0.4517
G02 X 11.2473 Y 6.8175 Z -1.0000 I -0.0518 J -0.1310
G01 X 11.2614 Y 6.8202 Z -1.0000
G03 X 11.2576 Y 6.8906 Z -1.0000 I -0.1811 J 0.0257
G02 X 11.2835 Y 6.9841 Z -1.0000 I 0.0951 J 0.0240
G02 X 11.3721 Y 7.0047 Z -1.0000 I 0.0610 J -0.0612
G02 X 11.4718 Y 6.9133 Z -1.0000 I -0.0535 J -0.1585
G02 X 11.5137 Y 6.6812 Z -1.0000 I -0.4661 J -0.2040
G03 X 11.5499 Y 6.4589 Z -1.0000 I 0.5243 J -0.0289
G03 X 11.6211 Y 6.4105 Z -1.0000 I 0.0712 J 0.0282
G03 X 11.6781 Y 6.4554 Z -1.0000 I 0.0000 J 0.0586
G03 X 11.6682 Y 6.6065 Z -1.0000 I -0.2483 J 0.0596
G01 X 11.6682 Y 6.6065 Z -1.0000
G00 Z 5.0000

(End cutting path id: path66511)


(Start cutting path id: path66511)
(Change tool to Default tool)

G00 Z 5.0000
G00 X 11.1530 Y 8.0386

G01 Z -1.0000 F 100.0000(Penetrate)
G02 X 11.2404 Y 8.1459 Z -1.0000 I 0.4532 J -0.2801 F 3500.0000
G02 X 11.2857 Y 8.1639 Z -1.0000 I 0.0452 J -0.0479
G01 X 11.3191 Y 8.1421 Z -1.0000
G02 X 11.3409 Y 8.0386 Z -1.0000 I -0.2346 J -0.1034
G02 X 11.3032 Y 7.9511 Z -1.0000 I -0.1204 J 0.0000
G02 X 11.2083 Y 7.9134 Z -1.0000 I -0.0949 J 0.1005
G02 X 11.1471 Y 7.9532 Z -1.0000 I 0.0000 J 0.0668
G02 X 11.1530 Y 8.0386 Z -1.0000 I 0.0841 J 0.0371
G01 X 11.1530 Y 8.0386 Z -1.0000
G00 Z 5.0000

(End cutting path id: path66511)


(Start cutting path id: path66511)
(Change tool to Default tool)

G00 Z 5.0000
G00 X 12.5620 Y 10.0002

G01 Z -1.0000 F 100.0000(Penetrate)
G02 X 12.7185 Y 10.0306 Z -1.0000 I 0.1565 J -0.3880 F 3500.0000
G02 X 12.8751 Y 10.0002 Z -1.0000 I 0.0000 J -0.4184
G01 X 12.8751 Y 9.9674 Z -1.0000
G02 X 12.7185 Y 9.9370 Z -1.0000 I -0.1566 J 0.3879
G02 X 12.5620 Y 9.9674 Z -1.0000 I 0.0000 J 0.4184
G01 X 12.5620 Y 10.0002 Z -1.0000
G01 X 12.5620 Y 10.0002 Z -1.0000
G00 Z 5.0000

(End cutting path id: path66511)


(Start cutting path id: path66511)
(Change tool to Default tool)

G00 Z 5.0000
G00 X 14.1964 Y 10.0675

G01 Z -1.0000 F 100.0000(Penetrate)
G03 X 14.2360 Y 10.3032 Z -1.0000 I -0.1456 J 0.1456 F 3500.0000
G03 X 13.9023 Y 10.6724 Z -1.0000 I -0.8032 J -0.3905
G03 X 13.4701 Y 10.8135 Z -1.0000 I -0.5067 J -0.8199
G03 X 13.2135 Y 10.7258 Z -1.0000 I -0.0265 J -0.3419
G02 X 13.0978 Y 10.7439 Z -1.0000 I -0.0505 J 0.0558
G02 X 13.1172 Y 10.8920 Z -1.0000 I 0.1061 J 0.0614
G03 X 13.0979 Y 11.0687 Z -1.0000 I -0.0806 J 0.0806
G03 X 12.8381 Y 11.0699 Z -1.0000 I -0.1308 J -0.2053
G02 X 12.7151 Y 11.1060 Z -1.0000 I -0.0454 J 0.0727
G02 X 12.7436 Y 11.2698 Z -1.0000 I 0.1306 J 0.0617
G03 X 12.7454 Y 11.3586 Z -1.0000 I -0.0453 J 0.0453
G03 X 12.6049 Y 11.4201 Z -1.0000 I -0.1404 J -0.1295
G03 X 12.4153 Y 11.3518 Z -1.0000 I -0.0000 J -0.2974
G03 X 12.3856 Y 11.2386 Z -1.0000 I 0.0639 J -0.0773
G02 X 12.3615 Y 11.1510 Z -1.0000 I -0.0715 J -0.0274
G02 X 12.2533 Y 11.1347 Z -1.0000 I -0.0685 J 0.0872
G03 X 12.1559 Y 11.1255 Z -1.0000 I -0.0394 J -0.1028
G01 X 12.1418 Y 11.0657 Z -1.0000
G03 X 12.2547 Y 10.9592 Z -1.0000 I 0.2560 J 0.1582
G03 X 12.4128 Y 10.9191 Z -1.0000 I 0.1582 J 0.2925
G02 X 12.5487 Y 10.8746 Z -1.0000 I -0.0000 J -0.2295
G02 X 12.5933 Y 10.7865 Z -1.0000 I -0.0647 J -0.0881
G03 X 12.6331 Y 10.7254 Z -1.0000 I 0.0668 J -0.0000
G03 X 12.7185 Y 10.7313 Z -1.0000 I 0.0371 J 0.0841
G02 X 12.8044 Y 10.7382 Z -1.0000 I 0.0497 J -0.0804
G02 X 12.8438 Y 10.6793 Z -1.0000 I -0.0245 J -0.0589
G03 X 12.8896 Y 10.5778 Z -1.0000 I 0.1353 J -0.0000
G03 X 13.1997 Y 10.3658 Z -1.0000 I 1.0165 J 1.1542
G03 X 13.5387 Y 10.2908 Z -1.0000 I 0.3107 J 0.6007
G03 X 13.7633 Y 10.3894 Z -1.0000 I -0.0141 J 0.3373
G02 X 13.9087 Y 10.4468 Z -1.0000 I 0.1388 J -0.1388
G02 X 13.9709 Y 10.3824 Z -1.0000 I -0.0022 J -0.0644
G02 X 13.9252 Y 10.2134 Z -1.0000 I -0.3354 J 0.0000
G02 X 13.8457 Y 10.1677 Z -1.0000 I -0.0795 J 0.0464
G03 X 13.7571 Y 10.1310 Z -1.0000 I 0.0000 J -0.1252
G03 X 13.7205 Y 10.0425 Z -1.0000 I 0.0886 J -0.0886
G03 X 13.8545 Y 9.9153 Z -1.0000 I 0.1274 J 0.0000
G03 X 14.1964 Y 10.0675 Z -1.0000 I -0.0275 J 0.5215
G01 X 14.1964 Y 10.0675 Z -1.0000
G00 Z 5.0000

(End cutting path id: path66511)


(Start cutting path id: path66511)
(Change tool to Default tool)

G00 Z 5.0000
G00 X 14.3467 Y 9.7140

G01 Z -1.0000 F 100.0000(Penetrate)
G02 X 14.3630 Y 9.7534 Z -1.0000 I 0.0557 J -0.0000 F 3500.0000
G02 X 14.5658 Y 9.9332 Z -1.0000 I 1.5944 J -1.5944
G01 X 14.6104 Y 9.9305 Z -1.0000
G01 X 14.6131 Y 9.8859 Z -1.0000
G02 X 14.3955 Y 9.6874 Z -1.0000 I -0.6997 J 0.5487
G01 X 14.3467 Y 9.7140 Z -1.0000
G01 X 14.3467 Y 9.7140 Z -1.0000
G00 Z 5.0000

(End cutting path id: path66511)


(Start cutting path id: path66511)
(Change tool to Default tool)

G00 Z 5.0000
G00 X 14.7268 Y 9.7347

G01 Z -1.0000 F 100.0000(Penetrate)
G03 X 14.8018 Y 9.9239 Z -1.0000 I -0.2525 J 0.2095 F 3500.0000
G03 X 14.7474 Y 10.0675 Z -1.0000 I -0.1864 J 0.0116
G03 X 14.4264 Y 10.0987 Z -1.0000 I -0.1795 J -0.1795
G03 X 14.2214 Y 9.7140 Z -1.0000 I 0.2585 J -0.3847
G03 X 14.3791 Y 9.5626 Z -1.0000 I 0.1515 J 0.0000
G03 X 14.7268 Y 9.7347 Z -1.0000 I -0.0195 J 0.4767
G01 X 14.7268 Y 9.7347 Z -1.0000
G00 Z 5.0000

(End cutting path id: path66511)


(Start cutting path id: path66511)
(Change tool to Default tool)

G00 Z 5.0000
G00 X 15.2979 Y 9.3123

G01 Z -1.0000 F 100.0000(Penetrate)
G03 X 15.3694 Y 9.4698 Z -1.0000 I -0.2241 J 0.1967 F 3500.0000
G01 X 15.3236 Y 9.5065 Z -1.0000
G02 X 15.2064 Y 9.5230 Z -1.0000 I -0.0431 J 0.1184
G02 X 15.1805 Y 9.6105 Z -1.0000 I 0.0441 J 0.0607
G03 X 15.0945 Y 9.7103 Z -1.0000 I -0.0698 J 0.0268
G03 X 14.7731 Y 9.5203 Z -1.0000 I 0.1299 J -0.5863
G03 X 14.7058 Y 9.3657 Z -1.0000 I 0.2077 J -0.1824
G01 X 14.7537 Y 9.3285 Z -1.0000
G02 X 14.9118 Y 9.3211 Z -1.0000 I 0.0702 J -0.1925
G02 X 14.9729 Y 9.2245 Z -1.0000 I -0.0459 J -0.0966
G03 X 15.0554 Y 9.1613 Z -1.0000 I 0.0655 J 0.0000
G03 X 15.2979 Y 9.3123 Z -1.0000 I -0.1289 J 0.4770
G01 X 15.2979 Y 9.3123 Z -1.0000
G00 Z 5.0000

(End cutting path id: path66511)


(Start cutting path id: path66511)
(Change tool to Default tool)

G00 Z 5.0000
G00 X 15.7014 Y 8.9092

G01 Z -1.0000 F 100.0000(Penetrate)
G03 X 15.6778 Y 8.9756 Z -1.0000 I -0.0542 J 0.0181 F 3500.0000
G03 X 15.5960 Y 8.9760 Z -1.0000 I -0.0413 J -0.0652
G02 X 15.5324 Y 8.9739 Z -1.0000 I -0.0336 J 0.0543
G01 X 15.5211 Y 9.0157 Z -1.0000
G02 X 15.6291 Y 9.0904 Z -1.0000 I 0.1393 J -0.0861
G02 X 15.8222 Y 9.0742 Z -1.0000 I 0.0680 J -0.3500
G01 X 15.8824 Y 9.1050 Z -1.0000
G03 X 15.8598 Y 9.2118 Z -1.0000 I -0.1151 J 0.0315
G03 X 15.6753 Y 9.2925 Z -1.0000 I -0.1708 J -0.1390
G03 X 15.4376 Y 9.1852 Z -1.0000 I 0.0231 J -0.3681
G03 X 15.2704 Y 8.9315 Z -1.0000 I 0.5334 J -0.5334
G03 X 15.2822 Y 8.7961 Z -1.0000 I 0.1403 J -0.0560
G03 X 15.4931 Y 8.7127 Z -1.0000 I 0.1614 J 0.0997
G03 X 15.7014 Y 8.9092 Z -1.0000 I -0.0789 J 0.2923
G01 X 15.7014 Y 8.9092 Z -1.0000
G00 Z 5.0000

(End cutting path id: path66511)


(Start cutting path id: path66511)
(Change tool to Default tool)

G00 Z 5.0000
G00 X 14.0962 Y 8.6648

G01 Z -1.0000 F 100.0000(Penetrate)
G03 X 14.0184 Y 8.8930 Z -1.0000 I -0.3735 J -0.0000 F 3500.0000
G03 X 13.8827 Y 8.9416 Z -1.0000 I -0.1058 J -0.0816
G02 X 13.8004 Y 8.9712 Z -1.0000 I -0.0181 J 0.0788
G02 X 13.7866 Y 9.0671 Z -1.0000 I 0.0787 J 0.0603
G03 X 13.7725 Y 9.2034 Z -1.0000 I -0.1416 J 0.0543
G03 X 13.5711 Y 9.4023 Z -1.0000 I -0.5441 J -0.3498
G03 X 13.3260 Y 9.4853 Z -1.0000 I -0.2987 J -0.4783
G03 X 13.2461 Y 9.4333 Z -1.0000 I -0.0073 J -0.0762
G02 X 13.1157 Y 9.4069 Z -1.0000 I -0.0728 J 0.0243
G02 X 13.0133 Y 9.6980 Z -1.0000 I 0.3101 J 0.2726
G03 X 12.9310 Y 10.0216 Z -1.0000 I -0.5755 J 0.0259
G03 X 12.7429 Y 10.1460 Z -1.0000 I -0.2250 J -0.1358
G03 X 12.2585 Y 10.0447 Z -1.0000 I -0.1021 J -0.7203
G03 X 12.0942 Y 9.7453 Z -1.0000 I 0.1820 J -0.2946
G01 X 12.1273 Y 9.7140 Z -1.0000
G03 X 12.1885 Y 9.7492 Z -1.0000 I -0.0032 J 0.0761
G02 X 12.7187 Y 9.9831 Z -1.0000 I 0.4402 J -0.2801
G02 X 12.9273 Y 9.6198 Z -1.0000 I -0.0470 J -0.2685
G02 X 12.8487 Y 9.5274 Z -1.0000 I -0.1660 J 0.0615
G02 X 12.7342 Y 9.5102 Z -1.0000 I -0.0795 J 0.1401
G01 X 12.6888 Y 9.4508 Z -1.0000
G03 X 12.8518 Y 9.2867 Z -1.0000 I 0.3491 J 0.1837
G03 X 13.1023 Y 9.2272 Z -1.0000 I 0.2380 J 0.4446
G03 X 13.2901 Y 9.2977 Z -1.0000 I -0.0076 J 0.3059
G02 X 13.3915 Y 9.2637 Z -1.0000 I 0.0402 J -0.0484
G02 X 13.3447 Y 9.0656 Z -1.0000 I -0.2218 J -0.0522
G01 X 13.3458 Y 9.0416 Z -1.0000
G01 X 13.3698 Y 9.0405 Z -1.0000
G02 X 13.5759 Y 9.0953 Z -1.0000 I 0.1620 J -0.1944
G02 X 13.6116 Y 8.9977 Z -1.0000 I -0.0105 J -0.0592
G03 X 13.6127 Y 8.8092 Z -1.0000 I 0.1128 J -0.0936
G03 X 13.8159 Y 8.7574 Z -1.0000 I 0.1382 J 0.1174
G02 X 13.9084 Y 8.7468 Z -1.0000 I 0.0361 J -0.0942
G01 X 13.9215 Y 8.6861 Z -1.0000
G03 X 13.9071 Y 8.5821 Z -1.0000 I 0.1104 J -0.0682
G03 X 13.9635 Y 8.5396 Z -1.0000 I 0.0564 J 0.0162
G03 X 14.0584 Y 8.5773 Z -1.0000 I -0.0000 J 0.1382
G03 X 14.0962 Y 8.6648 Z -1.0000 I -0.0826 J 0.0875
G01 X 14.0962 Y 8.6648 Z -1.0000
G00 Z 5.0000

(End cutting path id: path66511)


(Start cutting path id: path66511)
(Change tool to Default tool)

G00 Z 5.0000
G00 X 13.8457 Y 12.4720

G01 Z -1.0000 F 100.0000(Penetrate)
G03 X 13.6303 Y 12.8329 Z -1.0000 I -0.4100 J -0.0000 F 3500.0000
G03 X 12.7773 Y 13.0482 Z -1.0000 I -0.8530 J -1.5816
G01 X 12.7417 Y 13.0251 Z -1.0000
G03 X 12.7185 Y 12.9156 Z -1.0000 I 0.2471 J -0.1095
G03 X 12.7564 Y 12.8508 Z -1.0000 I 0.0744 J -0.0000
G03 X 12.8307 Y 12.8523 Z -1.0000 I 0.0359 J 0.0637
G02 X 12.9386 Y 12.8601 Z -1.0000 I 0.0614 J -0.0994
G02 X 13.2378 Y 12.6760 Z -1.0000 I -0.4901 J -1.1315
G03 X 13.7397 Y 12.3958 Z -1.0000 I 0.9979 J 1.1977
G03 X 13.8457 Y 12.4720 Z -1.0000 I 0.0256 J 0.0762
G01 X 13.8457 Y 12.4720 Z -1.0000
G00 Z 5.0000

(End cutting path id: path66511)


(Start cutting path id: path66511)
(Change tool to Default tool)

G00 Z 5.0000
G00 X 13.8535 Y 13.4386

G01 Z -1.0000 F 100.0000(Penetrate)
G03 X 13.9081 Y 13.6897 Z -1.0000 I -0.4139 J 0.2215 F 3500.0000
G03 X 13.8266 Y 13.8645 Z -1.0000 I -0.2640 J -0.0167
G03 X 13.3576 Y 13.9476 Z -1.0000 I -0.2972 J -0.3119
G03 X 13.0943 Y 13.5458 Z -1.0000 I 0.1748 J -0.4018
G03 X 13.1461 Y 13.3770 Z -1.0000 I 0.3006 J -0.0000
G03 X 13.2195 Y 13.3613 Z -1.0000 I 0.0449 J 0.0304
G02 X 13.3049 Y 13.3672 Z -1.0000 I 0.0483 J -0.0782
G02 X 13.3447 Y 13.3061 Z -1.0000 I -0.0270 J -0.0611
G03 X 13.5166 Y 13.1733 Z -1.0000 I 0.1373 J 0.0000
G03 X 13.8535 Y 13.4386 Z -1.0000 I -0.1348 J 0.5178
G01 X 13.8535 Y 13.4386 Z -1.0000
G00 Z 5.0000

(End cutting path id: path66511)


(Start cutting path id: path66511)
(Change tool to Default tool)

G00 Z 5.0000
G00 X 15.3009 Y 13.1138

G01 Z -1.0000 F 100.0000(Penetrate)
G03 X 15.1338 Y 13.2303 Z -1.0000 I -0.4103 J -0.4103 F 3500.0000
G01 X 15.0981 Y 13.2075 Z -1.0000
G03 X 15.2435 Y 12.8565 Z -1.0000 I 0.4963 J -0.0000
G03 X 15.4491 Y 12.8565 Z -1.0000 I 0.1028 J 0.1028
G01 X 15.4563 Y 12.9111 Z -1.0000
G03 X 15.3009 Y 13.1138 Z -1.0000 I -0.8446 J -0.4864
G01 X 15.3009 Y 13.1138 Z -1.0000
G00 Z 5.0000

(End cutting path id: path66511)


(Start cutting path id: path66511)
(Change tool to Default tool)

G00 Z 5.0000
G00 X 15.5908 Y 14.0502

G01 Z -1.0000 F 100.0000(Penetrate)
G03 X 15.8860 Y 14.3418 Z -1.0000 I 0.0000 J 0.2952 F 3500.0000
G03 X 15.5990 Y 14.7390 Z -1.0000 I -0.4115 J 0.0049
G03 X 15.0782 Y 14.6623 Z -1.0000 I -0.1817 J -0.5726
G03 X 14.8476 Y 14.2252 Z -1.0000 I 0.2989 J -0.4371
G03 X 14.9434 Y 13.9508 Z -1.0000 I 0.4409 J 0.0000
G03 X 15.0898 Y 13.9205 Z -1.0000 I 0.0914 J 0.0727
G02 X 15.3401 Y 14.0182 Z -1.0000 I 0.5335 J -0.9968
G02 X 15.5908 Y 14.0502 Z -1.0000 I 0.2507 J -0.9688
G01 X 15.5908 Y 14.0502 Z -1.0000
G00 Z 5.0000

(End cutting path id: path66511)


(Start cutting path id: path66511)
(Change tool to Default tool)

G00 Z 5.0000
G00 X 15.0981 Y 15.1921

G01 Z -1.0000 F 100.0000(Penetrate)
G03 X 15.0595 Y 15.2481 Z -1.0000 I -0.0600 J 0.0000 F 3500.0000
G03 X 14.9729 Y 15.2399 Z -1.0000 I -0.0350 J -0.0917
G03 X 14.8783 Y 15.1454 Z -1.0000 I 0.1529 J -0.2475
G03 X 14.8476 Y 15.0373 Z -1.0000 I 0.1749 J -0.1081
G03 X 14.8862 Y 14.9813 Z -1.0000 I 0.0600 J -0.0000
G03 X 14.9729 Y 14.9895 Z -1.0000 I 0.0350 J 0.0917
G03 X 15.0674 Y 15.0840 Z -1.0000 I -0.1529 J 0.2475
G03 X 15.0981 Y 15.1921 Z -1.0000 I -0.1749 J 0.1081
G01 X 15.0981 Y 15.1921 Z -1.0000
G00 Z 5.0000

(End cutting path id: path66511)


(Start cutting path id: path66511)
(Change tool to Default tool)

G00 Z 5.0000
G00 X 16.6902 Y 15.8176

G01 Z -1.0000 F 100.0000(Penetrate)
G02 X 16.8484 Y 15.9259 Z -1.0000 I 0.3688 J -0.3688 F 3500.0000
G02 X 17.4980 Y 16.1740 Z -1.0000 I 2.7670 J -6.2712
G03 X 18.0652 Y 16.4744 Z -1.0000 I -0.5761 J 1.7736
G03 X 18.2061 Y 16.7235 Z -1.0000 I -0.2275 J 0.2931
G03 X 18.1129 Y 16.9379 Z -1.0000 I -0.2301 J 0.0274
G03 X 17.7518 Y 17.0559 Z -1.0000 I -0.3611 J -0.4936
G03 X 16.9545 Y 16.9239 Z -1.0000 I -0.0000 J -2.4732
G03 X 16.0098 Y 16.4627 Z -1.0000 I 1.3493 J -3.9624
G03 X 15.9105 Y 16.2539 Z -1.0000 I 0.1218 J -0.1858
G03 X 16.0603 Y 15.9760 Z -1.0000 I 0.4122 J 0.0428
G03 X 16.4869 Y 15.7614 Z -1.0000 I 0.6937 J 0.8478
G03 X 16.6902 Y 15.8176 Z -1.0000 I 0.0521 J 0.2073
G01 X 16.6902 Y 15.8176 Z -1.0000
G00 Z 5.0000

(End cutting path id: path66511)


(Start cutting path id: path66511)
(Change tool to Default tool)

G00 Z 5.0000
G00 X 18.7299 Y 17.8387

G01 Z -1.0000 F 100.0000(Penetrate)
G03 X 18.6374 Y 17.9653 Z -1.0000 I -0.1327 J 0.0001 F 3500.0000
G03 X 18.0412 Y 18.0579 Z -1.0000 I -0.5961 J -1.8730
G03 X 17.4532 Y 17.9571 Z -1.0000 I -0.0000 J -1.7659
G03 X 17.3524 Y 17.8146 Z -1.0000 I 0.0503 J -0.1425
G03 X 17.4536 Y 17.6762 Z -1.0000 I 0.1453 J 0.0000
G03 X 18.0410 Y 17.5954 Z -1.0000 I 0.5267 J 1.6548
G03 X 18.6376 Y 17.7084 Z -1.0000 I -0.0700 J 2.0006
G03 X 18.7299 Y 17.8387 Z -1.0000 I -0.0460 J 0.1304
G01 X 18.7299 Y 17.8387 Z -1.0000
G00 Z 5.0000

(End cutting path id: path66511)


(Start cutting path id: path66511)
(Change tool to Default tool)

G00 Z 5.0000
G00 X 19.6054 Y 18.7451

G01 Z -1.0000 F 100.0000(Penetrate)
G03 X 19.6629 Y 19.1170 Z -1.0000 I -0.2818 J 0.2339 F 3500.0000
G03 X 19.3755 Y 19.3103 Z -1.0000 I -0.2873 J -0.1169
G03 X 18.9663 Y 19.0973 Z -1.0000 I 0.0000 J -0.4998
G03 X 18.9806 Y 18.7467 Z -1.0000 I 0.2368 J -0.1660
G03 X 19.2937 Y 18.5992 Z -1.0000 I 0.3141 J 0.2607
G03 X 19.6054 Y 18.7451 Z -1.0000 I 0.0010 J 0.4038
G01 X 19.6054 Y 18.7451 Z -1.0000
G00 Z 5.0000

(End cutting path id: path66511)


(Start cutting path id: path66511)
(Change tool to Default tool)

G00 Z 5.0000
G00 X 20.6924 Y 19.7583

G01 Z -1.0000 F 100.0000(Penetrate)
G03 X 20.6996 Y 19.9413 Z -1.0000 I -0.2663 J 0.1022 F 3500.0000
G03 X 20.5778 Y 20.1463 Z -1.0000 I -0.4640 J -0.1371
G03 X 20.3737 Y 20.2438 Z -1.0000 I -0.2401 J -0.2401
G03 X 20.1223 Y 20.1948 Z -1.0000 I -0.0461 J -0.4326
G03 X 19.8787 Y 19.9050 Z -1.0000 I 0.2406 J -0.4495
G03 X 19.9407 Y 19.6442 Z -1.0000 I 0.2427 J -0.0801
G03 X 20.3738 Y 19.5020 Z -1.0000 I 0.3572 J 0.3572
G03 X 20.6924 Y 19.7583 Z -1.0000 I -0.0610 J 0.4020
G01 X 20.6924 Y 19.7583 Z -1.0000
G00 Z 5.0000

(End cutting path id: path66511)


(Start cutting path id: path66511)
(Change tool to Default tool)

G00 Z 5.0000
G00 X 21.9470 Y 20.3826

G01 Z -1.0000 F 100.0000(Penetrate)
G03 X 21.6718 Y 21.0653 Z -1.0000 I -0.5397 J 0.1793 F 3500.0000
G03 X 20.5186 Y 21.1330 Z -1.0000 I -0.6514 J -1.2400
G03 X 20.4861 Y 20.9887 Z -1.0000 I 0.0319 J -0.0830
G03 X 21.1209 Y 20.5010 Z -1.0000 I 1.8841 J 1.7953
G03 X 21.7823 Y 20.2807 Z -1.0000 I 0.9386 J 1.7152
G03 X 21.9470 Y 20.3826 Z -1.0000 I 0.0214 J 0.1496
G01 X 21.9470 Y 20.3826 Z -1.0000
G00 Z 5.0000

(End cutting path id: path66511)


(Start cutting path id: path66511)
(Change tool to Default tool)

G00 Z 5.0000
G00 X 23.2043 Y 21.0707

G01 Z -1.0000 F 100.0000(Penetrate)
G02 X 23.3100 Y 21.2512 Z -1.0000 I 0.3739 J -0.0978 F 3500.0000
G02 X 23.4117 Y 21.2706 Z -1.0000 I 0.0657 J -0.0682
G03 X 23.6605 Y 21.2359 Z -1.0000 I 0.1918 J 0.4659
G01 X 23.6771 Y 21.3008 Z -1.0000
G03 X 23.2936 Y 21.5032 Z -1.0000 I -0.9901 J -1.4114
G03 X 23.1383 Y 21.5033 Z -1.0000 I -0.0778 J -0.2069
G02 X 23.0592 Y 21.5112 Z -1.0000 I -0.0315 J 0.0841
G01 X 23.0479 Y 21.5597 Z -1.0000
G03 X 23.0070 Y 21.7864 Z -1.0000 I -0.1466 J 0.0906
G03 X 22.5581 Y 21.9403 Z -1.0000 I -0.4489 J -0.5776
G03 X 22.4857 Y 21.8151 Z -1.0000 I 0.0000 J -0.0836
G03 X 22.7065 Y 21.6819 Z -1.0000 I 0.2304 J 0.1322
G01 X 22.7329 Y 21.6402 Z -1.0000
G02 X 22.6567 Y 21.5654 Z -1.0000 I -0.1286 J 0.0550
G03 X 22.3359 Y 21.2715 Z -1.0000 I 0.2322 J -0.5754
G03 X 22.3666 Y 20.9955 Z -1.0000 I 0.2252 J -0.1146
G03 X 22.8686 Y 20.7867 Z -1.0000 I 0.4498 J 0.3733
G03 X 23.2043 Y 21.0707 Z -1.0000 I -0.0342 J 0.3808
G01 X 23.2043 Y 21.0707 Z -1.0000
G00 Z 5.0000

(End cutting path id: path66511)


(Start cutting path id: path66511)
(Change tool to Default tool)

G00 Z 5.0000
G00 X 24.1154 Y 21.8777

G01 Z -1.0000 F 100.0000(Penetrate)
G03 X 24.1339 Y 22.2303 Z -1.0000 I -0.2274 J 0.1887 F 3500.0000
G03 X 23.7397 Y 22.4413 Z -1.0000 I -0.3942 J -0.2628
G03 X 23.3455 Y 22.2303 Z -1.0000 I 0.0000 J -0.4738
G03 X 23.3640 Y 21.8777 Z -1.0000 I 0.2459 J -0.1639
G03 X 23.5418 Y 21.7365 Z -1.0000 I 0.4246 J 0.3524
G03 X 23.7397 Y 21.6898 Z -1.0000 I 0.1979 J 0.3958
G03 X 23.9376 Y 21.7365 Z -1.0000 I -0.0000 J 0.4425
G03 X 24.1154 Y 21.8777 Z -1.0000 I -0.2468 J 0.4936
G01 X 24.1154 Y 21.8777 Z -1.0000
G00 Z 5.0000

(End cutting path id: path66511)


(Start cutting path id: path66511)
(Change tool to Default tool)

G00 Z 5.0000
G00 X 22.8630 Y 22.5022

G01 Z -1.0000 F 100.0000(Penetrate)
G03 X 22.8375 Y 22.5467 Z -1.0000 I -0.0516 J -0.0000 F 3500.0000
G03 X 22.3934 Y 22.7774 Z -1.0000 I -2.4809 J -4.2342
G02 X 21.9246 Y 22.9935 Z -1.0000 I 26.6109 J 58.3338
G02 X 21.8298 Y 23.0400 Z -1.0000 I 1.1336 J 2.4329
G03 X 21.7677 Y 23.0360 Z -1.0000 I -0.0277 J -0.0538
G03 X 21.7358 Y 22.9754 Z -1.0000 I 0.0417 J -0.0606
G03 X 21.7783 Y 22.8887 Z -1.0000 I 0.1096 J 0.0000
G03 X 22.1429 Y 22.6599 Z -1.0000 I 1.3365 J 1.7240
G03 X 22.7800 Y 22.4354 Z -1.0000 I 1.2253 J 2.4619
G03 X 22.8630 Y 22.5022 Z -1.0000 I 0.0146 J 0.0668
G01 X 22.8630 Y 22.5022 Z -1.0000
G00 Z 5.0000

(End cutting path id: path66511)


(Start cutting path id: path66511)
(Change tool to Default tool)

G00 Z 5.0000
G00 X 22.3620 Y 22.2639

G01 Z -1.0000 F 100.0000(Penetrate)
G03 X 22.2004 Y 22.5302 Z -1.0000 I -0.3001 J 0.0000 F 3500.0000
G03 X 21.5398 Y 22.6918 Z -1.0000 I -0.6606 J -1.2695
G03 X 21.4559 Y 22.5605 Z -1.0000 I 0.0000 J -0.0924
G03 X 21.7616 Y 22.2116 Z -1.0000 I 0.7444 J 0.3439
G03 X 22.2133 Y 22.1017 Z -1.0000 I 0.3887 J 0.6139
G03 X 22.3620 Y 22.2639 Z -1.0000 I -0.0141 J 0.1622
G01 X 22.3620 Y 22.2639 Z -1.0000
G00 Z 5.0000

(End cutting path id: path66511)


(Start cutting path id: path66511)
(Change tool to Default tool)

G00 Z 5.0000
G00 X 23.3640 Y 23.1223

G01 Z -1.0000 F 100.0000(Penetrate)
G03 X 23.1056 Y 23.5077 Z -1.0000 I -0.4165 J 0.0000 F 3500.0000
G03 X 22.4053 Y 23.5157 Z -1.0000 I -0.3603 J -0.8779
G03 X 22.3479 Y 23.4194 Z -1.0000 I 0.0325 J -0.0846
G03 X 22.4358 Y 23.2823 Z -1.0000 I 0.1896 J 0.0248
G03 X 23.2044 Y 22.9879 Z -1.0000 I 1.1291 J 1.7973
G03 X 23.3640 Y 23.1223 Z -1.0000 I 0.0232 J 0.1344
G01 X 23.3640 Y 23.1223 Z -1.0000
G00 Z 5.0000

(End cutting path id: path66511)


(Start cutting path id: path66511)
(Change tool to Default tool)

G00 Z 5.0000
G00 X 24.6085 Y 24.0117

G01 Z -1.0000 F 100.0000(Penetrate)
G03 X 24.7007 Y 24.0028 Z -1.0000 I 0.0551 J 0.0892 F 3500.0000
G03 X 24.7416 Y 24.0620 Z -1.0000 I -0.0224 J 0.0592
G03 X 24.6947 Y 24.1516 Z -1.0000 I -0.1090 J 0.0000
G03 X 24.5224 Y 24.2137 Z -1.0000 I -0.2032 J -0.2935
G02 X 24.3033 Y 24.2331 Z -1.0000 I 7.1665 J 82.3530
G02 X 24.1556 Y 24.2466 Z -1.0000 I 3.3689 J 37.5556
G02 X 24.0203 Y 24.2855 Z -1.0000 I 0.0353 J 0.3772
G02 X 23.9051 Y 24.3729 Z -1.0000 I 0.1802 J 0.3574
G01 X 23.9107 Y 24.3983 Z -1.0000
G02 X 23.9589 Y 24.3952 Z -1.0000 I 0.0209 J -0.0504
G03 X 24.0900 Y 24.3490 Z -1.0000 I 0.1901 J 0.3303
G01 X 24.1154 Y 24.3707 Z -1.0000
G03 X 24.0911 Y 24.4218 Z -1.0000 I -0.0659 J 0.0000
G03 X 23.8807 Y 24.5619 Z -1.0000 I -0.8320 J -1.0212
G03 X 23.6629 Y 24.5901 Z -1.0000 I -0.1460 J -0.2729
G03 X 23.4365 Y 24.4560 Z -1.0000 I 0.1030 J -0.4322
G03 X 23.4018 Y 24.2505 Z -1.0000 I 0.1435 J -0.1299
G03 X 23.6399 Y 23.9769 Z -1.0000 I 0.5396 J 0.2291
G03 X 24.0431 Y 23.8423 Z -1.0000 I 0.5054 J 0.8426
G03 X 24.2641 Y 23.9116 Z -1.0000 I 0.0304 J 0.2902
G02 X 24.4805 Y 24.0291 Z -1.0000 I 0.3778 J -0.4377
G02 X 24.6085 Y 24.0116 Z -1.0000 I 0.0444 J -0.1527
G01 X 24.6085 Y 24.0117 Z -1.0000
G00 Z 5.0000

(End cutting path id: path66511)


(Start cutting path id: path66511)
(Change tool to Default tool)

G00 Z 5.0000
G00 X 25.0547 Y 22.9422

G01 Z -1.0000 F 100.0000(Penetrate)
G03 X 24.9611 Y 23.1718 Z -1.0000 I -0.3284 J -0.0000 F 3500.0000
G03 X 24.7096 Y 23.2950 Z -1.0000 I -0.2993 J -0.2928
G03 X 24.3460 Y 23.1183 Z -1.0000 I -0.0430 J -0.3740
G03 X 24.3722 Y 22.7467 Z -1.0000 I 0.2722 J -0.1675
G03 X 24.8063 Y 22.6127 Z -1.0000 I 0.3197 J 0.2653
G03 X 25.0547 Y 22.9422 Z -1.0000 I -0.0944 J 0.3296
G01 X 25.0547 Y 22.9422 Z -1.0000
G00 Z 5.0000

(End cutting path id: path66511)


(Start cutting path id: path66511)
(Change tool to Default tool)

G00 Z 5.0000
G00 X 25.9927 Y 23.6295

G01 Z -1.0000 F 100.0000(Penetrate)
G03 X 26.0883 Y 23.8254 Z -1.0000 I -0.3543 J 0.2940 F 3500.0000
G03 X 26.0746 Y 24.0052 Z -1.0000 I -0.3075 J 0.0670
G03 X 25.7369 Y 24.2412 Z -1.0000 I -0.3434 J -0.1318
G03 X 25.2519 Y 24.0181 Z -1.0000 I -0.0097 J -0.6176
G03 X 25.2243 Y 23.8575 Z -1.0000 I 0.1257 J -0.1044
G03 X 25.3897 Y 23.6423 Z -1.0000 I 0.4254 J 0.1560
G03 X 25.7574 Y 23.5220 Z -1.0000 I 0.3819 J 0.5453
G03 X 25.9927 Y 23.6295 Z -1.0000 I 0.0064 J 0.2974
G01 X 25.9927 Y 23.6295 Z -1.0000
G00 Z 5.0000

(End cutting path id: path66511)


(Start cutting path id: path66511)
(Change tool to Default tool)

G00 Z 5.0000
G00 X 27.4200 Y 22.7580

G01 Z -1.0000 F 100.0000(Penetrate)
G03 X 27.4298 Y 23.2215 Z -1.0000 I -0.2368 J 0.2368 F 3500.0000
G03 X 26.8531 Y 23.3750 Z -1.0000 I -0.4088 J -0.3757
G03 X 26.6348 Y 23.1127 Z -1.0000 I 0.0957 J -0.3017
G03 X 26.7705 Y 22.7168 Z -1.0000 I 0.4724 J -0.0592
G03 X 27.0747 Y 22.6020 Z -1.0000 I 0.2792 J 0.2792
G03 X 27.4200 Y 22.7580 Z -1.0000 I -0.0340 J 0.5353
G01 X 27.4200 Y 22.7580 Z -1.0000
G00 Z 5.0000

(End cutting path id: path66511)


(Start cutting path id: path66511)
(Change tool to Default tool)

G00 Z 5.0000
G00 X 26.5421 Y 21.9693

G01 Z -1.0000 F 100.0000(Penetrate)
G03 X 26.4989 Y 22.3904 Z -1.0000 I -0.2905 J 0.1830 F 3500.0000
G03 X 26.0196 Y 22.5120 Z -1.0000 I -0.3376 J -0.3250
G03 X 25.7384 Y 22.2271 Z -1.0000 I 0.1299 J -0.4094
G03 X 25.8267 Y 21.8751 Z -1.0000 I 0.3380 J -0.1023
G03 X 26.1982 Y 21.7489 Z -1.0000 I 0.3136 J 0.3136
G03 X 26.5421 Y 21.9693 Z -1.0000 I -0.0627 J 0.4764
G01 X 26.5421 Y 21.9693 Z -1.0000
G00 Z 5.0000

(End cutting path id: path66511)


(Start cutting path id: path66511)
(Change tool to Default tool)

G00 Z 5.0000
G00 X 25.5993 Y 21.1180

G01 Z -1.0000 F 100.0000(Penetrate)
G03 X 25.4329 Y 21.5279 Z -1.0000 I -0.4001 J 0.0763 F 3500.0000
G03 X 24.9748 Y 21.5553 Z -1.0000 I -0.2513 J -0.3589
G03 X 24.7254 Y 21.1888 Z -1.0000 I 0.2256 J -0.4216
G03 X 24.8982 Y 20.8938 Z -1.0000 I 0.2824 J -0.0327
G03 X 25.3821 Y 20.8728 Z -1.0000 I 0.2705 J 0.6466
G03 X 25.5993 Y 21.1180 Z -1.0000 I -0.0976 J 0.3052
G01 X 25.5993 Y 21.1180 Z -1.0000
G00 Z 5.0000

(End cutting path id: path66511)


(Start cutting path id: path66511)
(Change tool to Default tool)

G00 Z 5.0000
G00 X 24.5448 Y 20.0080

G01 Z -1.0000 F 100.0000(Penetrate)
G03 X 24.7146 Y 20.2160 Z -1.0000 I -0.9444 J 0.9444 F 3500.0000
G03 X 24.7416 Y 20.3058 Z -1.0000 I -0.1358 J 0.0898
G03 X 24.5828 Y 20.5756 Z -1.0000 I -0.3086 J 0.0000
G03 X 24.0923 Y 20.6662 Z -1.0000 I -0.3801 J -0.6848
G03 X 23.7851 Y 20.3823 Z -1.0000 I 0.0519 J -0.3642
G03 X 23.9379 Y 19.9760 Z -1.0000 I 0.3866 J -0.0865
G03 X 24.2586 Y 19.8806 Z -1.0000 I 0.2945 J 0.4027
G03 X 24.5448 Y 20.0080 Z -1.0000 I -0.0230 J 0.4367
G01 X 24.5448 Y 20.0080 Z -1.0000
G00 Z 5.0000

(End cutting path id: path66511)


(Start cutting path id: path66511)
(Change tool to Default tool)

G00 Z 5.0000
G00 X 24.1129 Y 19.0285

G01 Z -1.0000 F 100.0000(Penetrate)
G03 X 23.7914 Y 19.6386 Z -1.0000 I -0.7559 J -0.0085 F 3500.0000
G03 X 22.8004 Y 19.9501 Z -1.0000 I -0.9856 J -1.4037
G03 X 22.6988 Y 19.7753 Z -1.0000 I 0.0004 J -0.1171
G03 X 23.2074 Y 19.2296 Z -1.0000 I 1.3892 J 0.7847
G03 X 23.9645 Y 18.9080 Z -1.0000 I 1.2471 J 1.8842
G03 X 24.1129 Y 19.0285 Z -1.0000 I 0.0264 J 0.1191
G01 X 24.1129 Y 19.0285 Z -1.0000
G00 Z 5.0000

(End cutting path id: path66511)


(Start cutting path id: path66511)
(Change tool to Default tool)

G00 Z 5.0000
G00 X 23.3395 Y 17.4562

G01 Z -1.0000 F 100.0000(Penetrate)
G03 X 23.3078 Y 17.6481 Z -1.0000 I -0.2779 J 0.0527 F 3500.0000
G03 X 22.9605 Y 18.1261 Z -1.0000 I -2.2705 J -1.2845
G03 X 22.5371 Y 18.3281 Z -1.0000 I -0.4618 J -0.4232
G03 X 22.1430 Y 18.1763 Z -1.0000 I -0.0311 J -0.5067
G03 X 22.0024 Y 17.7282 Z -1.0000 I 0.3706 J -0.3623
G03 X 22.2777 Y 17.3729 Z -1.0000 I 0.4683 J 0.0785
G03 X 23.0907 Y 17.2332 Z -1.0000 I 0.6818 J 1.5320
G03 X 23.3395 Y 17.4562 Z -1.0000 I -0.0215 J 0.2743
G01 X 23.3395 Y 17.4562 Z -1.0000
G00 Z 5.0000

(End cutting path id: path66511)


(Start cutting path id: path66511)
(Change tool to Default tool)

G00 Z 5.0000
G00 X 24.0370 Y 16.2755

G01 Z -1.0000 F 100.0000(Penetrate)
G03 X 23.8659 Y 16.4301 Z -1.0000 I -0.3612 J -0.2278 F 3500.0000
G03 X 23.6008 Y 16.4923 Z -1.0000 I -0.2651 J -0.5334
G03 X 23.2778 Y 16.2090 Z -1.0000 I 0.0000 J -0.3258
G03 X 23.5117 Y 15.8152 Z -1.0000 I 0.3672 J -0.0483
G03 X 23.9823 Y 15.8988 Z -1.0000 I 0.1662 J 0.4310
G03 X 24.0370 Y 16.2755 Z -1.0000 I -0.1931 J 0.2204
G01 X 24.0370 Y 16.2755 Z -1.0000
G00 Z 5.0000

(End cutting path id: path66511)


(Start cutting path id: path66511)
(Change tool to Default tool)

G00 Z 5.0000
G00 X 25.0413 Y 16.8783

G01 Z -1.0000 F 100.0000(Penetrate)
G03 X 25.0535 Y 17.2099 Z -1.0000 I -0.4785 J 0.1836 F 3500.0000
G03 X 24.8759 Y 17.4268 Z -1.0000 I -0.3502 J -0.1056
G03 X 24.4256 Y 17.4580 Z -1.0000 I -0.2599 J -0.4857
G03 X 24.2407 Y 17.1928 Z -1.0000 I 0.0977 J -0.2652
G03 X 24.5904 Y 16.6796 Z -1.0000 I 0.5514 J 0.0000
G03 X 25.0413 Y 16.8783 Z -1.0000 I 0.1269 J 0.3230
G01 X 25.0413 Y 16.8783 Z -1.0000
G00 Z 5.0000

(End cutting path id: path66511)


(Start cutting path id: path66511)
(Change tool to Default tool)

G00 Z 5.0000
G00 X 26.3697 Y 17.5570

G01 Z -1.0000 F 100.0000(Penetrate)
G03 X 25.8524 Y 18.4971 Z -1.0000 I -1.1129 J 0.0000 F 3500.0000
G03 X 24.8771 Y 18.5025 Z -1.0000 I -0.4920 J -0.7766
G03 X 24.8369 Y 18.3212 Z -1.0000 I 0.0682 J -0.1103
G03 X 25.3365 Y 17.8023 Z -1.0000 I 1.6291 J 1.0688
G02 X 25.9102 Y 17.3622 Z -1.0000 I -5.8125 J -8.1699
G02 X 25.9749 Y 17.2749 Z -1.0000 I -0.1441 J -0.1744
G03 X 26.1927 Y 17.2129 Z -1.0000 I 0.1336 J 0.0558
G03 X 26.3697 Y 17.5570 Z -1.0000 I -0.2458 J 0.3441
G01 X 26.3697 Y 17.5570 Z -1.0000
G00 Z 5.0000

(End cutting path id: path66511)


(Start cutting path id: path66511)
(Change tool to Default tool)

G00 Z 5.0000
G00 X 26.0966 Y 19.2787

G01 Z -1.0000 F 100.0000(Penetrate)
G02 X 26.2067 Y 19.4283 Z -1.0000 I 0.1941 J -0.0276 F 3500.0000
G02 X 26.4097 Y 19.4272 Z -1.0000 I 0.1004 J -0.2117
G01 X 26.4358 Y 19.4571 Z -1.0000
G03 X 26.2445 Y 19.6731 Z -1.0000 I -0.9018 J -0.6060
G03 X 25.8204 Y 19.9159 Z -1.0000 I -0.8337 J -0.9645
G03 X 25.6671 Y 19.8690 Z -1.0000 I -0.0441 J -0.1299
G02 X 25.5098 Y 19.7228 Z -1.0000 I -0.4980 J 0.3784
G02 X 25.3853 Y 19.6860 Z -1.0000 I -0.1245 J 0.1916
G03 X 25.1241 Y 19.4193 Z -1.0000 I 0.0000 J -0.2613
G03 X 25.3991 Y 19.0152 Z -1.0000 I 0.4480 J 0.0092
G03 X 25.8788 Y 19.0068 Z -1.0000 I 0.2504 J 0.5986
G03 X 26.0966 Y 19.2787 Z -1.0000 I -0.1209 J 0.3200
G01 X 26.0966 Y 19.2787 Z -1.0000
G00 Z 5.0000

(End cutting path id: path66511)


(Start cutting path id: path66511)
(Change tool to Default tool)

G00 Z 5.0000
G00 X 27.0989 Y 20.0990

G01 Z -1.0000 F 100.0000(Penetrate)
G03 X 26.8083 Y 20.6523 Z -1.0000 I -0.4930 J 0.0940 F 3500.0000
G03 X 26.2596 Y 20.4688 Z -1.0000 I -0.1734 J -0.3936
G03 X 26.2247 Y 20.2597 Z -1.0000 I 0.2735 J -0.1530
G03 X 26.3404 Y 20.0250 Z -1.0000 I 0.4694 J 0.0854
G03 X 26.8162 Y 19.8410 Z -1.0000 I 0.4207 J 0.3807
G03 X 27.0989 Y 20.0990 Z -1.0000 I -0.0310 J 0.3179
G01 X 27.0989 Y 20.0990 Z -1.0000
G00 Z 5.0000

(End cutting path id: path66511)


(Start cutting path id: path66511)
(Change tool to Default tool)

G00 Z 5.0000
G00 X 27.9263 Y 20.8847

G01 Z -1.0000 F 100.0000(Penetrate)
G03 X 28.0552 Y 21.1836 Z -1.0000 I -0.3116 J 0.3116 F 3500.0000
G03 X 27.9421 Y 21.4336 Z -1.0000 I -0.3131 J 0.0090
G03 X 27.4266 Y 21.5718 Z -1.0000 I -0.4080 J -0.4917
G03 X 27.1475 Y 21.2980 Z -1.0000 I 0.0577 J -0.3379
G03 X 27.2508 Y 20.8695 Z -1.0000 I 0.5254 J -0.1001
G03 X 27.6221 Y 20.6879 Z -1.0000 I 0.3714 J 0.2889
G03 X 27.7178 Y 20.7161 Z -1.0000 I 0.0000 J 0.1761
G03 X 27.9263 Y 20.8847 Z -1.0000 I -0.6912 J 1.0682
G01 X 27.9263 Y 20.8847 Z -1.0000
G00 Z 5.0000

(End cutting path id: path66511)


(Start cutting path id: path66511)
(Change tool to Default tool)

G00 Z 5.0000
G00 X 28.9761 Y 22.0258

G01 Z -1.0000 F 100.0000(Penetrate)
G03 X 28.8021 Y 22.4296 Z -1.0000 I -0.4177 J 0.0595 F 3500.0000
G03 X 28.3200 Y 22.4900 Z -1.0000 I -0.2975 J -0.4204
G03 X 28.0559 Y 22.1279 Z -1.0000 I 0.1478 J -0.3852
G03 X 28.2797 Y 21.7705 Z -1.0000 I 0.3647 J -0.0205
G03 X 28.7607 Y 21.7597 Z -1.0000 I 0.2543 J 0.6079
G03 X 28.9761 Y 22.0258 Z -1.0000 I -0.1148 J 0.3131
G01 X 28.9761 Y 22.0258 Z -1.0000
G00 Z 5.0000

(End cutting path id: path66511)


(Start cutting path id: path66511)
(Change tool to Default tool)

G00 Z 5.0000
G00 X 29.9917 Y 20.4061

G01 Z -1.0000 F 100.0000(Penetrate)
G02 X 30.0812 Y 20.4778 Z -1.0000 I 0.1378 J -0.0803 F 3500.0000
G01 X 30.1231 Y 20.4479 Z -1.0000
G03 X 30.1606 Y 20.3543 Z -1.0000 I 0.1433 J 0.0031
G01 X 30.2097 Y 20.3532 Z -1.0000
G03 X 30.2242 Y 20.7020 Z -1.0000 I -0.1823 J 0.1823
G03 X 29.7143 Y 20.9384 Z -1.0000 I -0.5098 J -0.4315
G02 X 29.6090 Y 20.9741 Z -1.0000 I -0.0000 J 0.1732
G02 X 29.4284 Y 21.1576 Z -1.0000 I 0.5641 J 0.7360
G03 X 29.2648 Y 21.2310 Z -1.0000 I -0.1474 J -0.1093
G03 X 29.0749 Y 21.1262 Z -1.0000 I 0.0237 J -0.2675
G03 X 29.0387 Y 20.8926 Z -1.0000 I 0.1972 J -0.1502
G03 X 29.2863 Y 20.5347 Z -1.0000 I 0.7906 J 0.2826
G03 X 29.7721 Y 20.3050 Z -1.0000 I 0.6722 J 0.7929
G03 X 29.9917 Y 20.4061 Z -1.0000 I 0.0378 J 0.2070
G01 X 29.9917 Y 20.4061 Z -1.0000
G00 Z 5.0000

(End cutting path id: path66511)


(Start cutting path id: path66511)
(Change tool to Default tool)

G00 Z 5.0000
G00 X 29.1052 Y 19.6107

G01 Z -1.0000 F 100.0000(Penetrate)
G03 X 28.2696 Y 20.1300 Z -1.0000 I -3.9487 J -5.4218 F 3500.0000
G03 X 28.1240 Y 20.1248 Z -1.0000 I -0.0683 J -0.1303
G03 X 28.0734 Y 19.9335 Z -1.0000 I 0.0756 J -0.1223
G03 X 28.4633 Y 19.5040 Z -1.0000 I 1.0846 J 0.5928
G03 X 28.8976 Y 19.3196 Z -1.0000 I 0.6834 J 1.0057
G03 X 29.0384 Y 19.3836 Z -1.0000 I 0.0268 J 0.1279
G03 X 29.1180 Y 19.5730 Z -1.0000 I -0.8022 J 0.4489
G01 X 29.1052 Y 19.6107 Z -1.0000
G01 X 29.1052 Y 19.6107 Z -1.0000
G00 Z 5.0000

(End cutting path id: path66511)


(Start cutting path id: path66511)
(Change tool to Default tool)

G00 Z 5.0000
G00 X 28.1836 Y 19.1319

G01 Z -1.0000 F 100.0000(Penetrate)
G03 X 27.9619 Y 19.1707 Z -1.0000 I -0.1540 J -0.2269 F 3500.0000
G03 X 27.9420 Y 19.0703 Z -1.0000 I 0.0140 J -0.0549
G03 X 28.4342 Y 18.7630 Z -1.0000 I 2.1044 J 2.8224
G03 X 28.5313 Y 18.7668 Z -1.0000 I 0.0452 J 0.0878
G01 X 28.5395 Y 18.8303 Z -1.0000
G03 X 28.1836 Y 19.1319 Z -1.0000 I -1.5848 J -1.5092
G01 X 28.1836 Y 19.1319 Z -1.0000
G00 Z 5.0000

(End cutting path id: path66511)


(Start cutting path id: path66511)
(Change tool to Default tool)

G00 Z 5.0000
G00 X 28.0906 Y 18.5239

G01 Z -1.0000 F 100.0000(Penetrate)
G03 X 28.0683 Y 18.6403 Z -1.0000 I -0.1149 J 0.0383 F 3500.0000
G03 X 27.6856 Y 19.0050 Z -1.0000 I -1.8465 J -1.5544
G03 X 27.2427 Y 19.2355 Z -1.0000 I -0.8863 J -1.1620
G03 X 27.0841 Y 19.1965 Z -1.0000 I -0.0475 J -0.1491
G03 X 27.0641 Y 19.0506 Z -1.0000 I 0.0871 J -0.0863
G03 X 27.3717 Y 18.6799 Z -1.0000 I 1.1460 J 0.6379
G03 X 27.9066 Y 18.4191 Z -1.0000 I 0.8005 J 0.9629
G03 X 28.0906 Y 18.5239 Z -1.0000 I 0.0336 J 0.1549
G01 X 28.0906 Y 18.5239 Z -1.0000
G00 Z 5.0000

(End cutting path id: path66511)


(Start cutting path id: path66511)
(Change tool to Default tool)

G00 Z 5.0000
G00 X 31.5046 Y 22.4289

G01 Z -1.0000 F 100.0000(Penetrate)
G03 X 31.4645 Y 22.5198 Z -1.0000 I -0.1231 J -0.0000 F 3500.0000
G03 X 31.0976 Y 22.8006 Z -1.0000 I -1.7970 J -1.9676
G02 X 30.6914 Y 23.0608 Z -1.0000 I 40.9839 J 64.4392
G02 X 30.3774 Y 23.2651 Z -1.0000 I 24.9712 J 38.7201
G03 X 30.2869 Y 23.3048 Z -1.0000 I -0.1628 J -0.2480
G01 X 30.2791 Y 23.2897 Z -1.0000
G02 X 30.3874 Y 23.1041 Z -1.0000 I -0.2059 J -0.2445
G02 X 30.3418 Y 22.9555 Z -1.0000 I -0.1644 J -0.0308
G01 X 30.3413 Y 22.9008 Z -1.0000
G03 X 30.4087 Y 22.8856 Z -1.0000 I 0.0452 J 0.0433
G02 X 30.5753 Y 22.8927 Z -1.0000 I 0.0940 J -0.2470
G02 X 30.6279 Y 22.8230 Z -1.0000 I -0.0199 J -0.0697
G03 X 30.6668 Y 22.7467 Z -1.0000 I 0.0944 J 0.0000
G03 X 30.7364 Y 22.7440 Z -1.0000 I 0.0368 J 0.0505
G02 X 30.8358 Y 22.7468 Z -1.0000 I 0.0521 J -0.0843
G02 X 31.0689 Y 22.5636 Z -1.0000 I -0.4205 J -0.7748
G03 X 31.4006 Y 22.3522 Z -1.0000 I 0.5511 J 0.4988
G03 X 31.5046 Y 22.4289 Z -1.0000 I 0.0237 J 0.0767
G01 X 31.5046 Y 22.4289 Z -1.0000
G00 Z 5.0000

(End cutting path id: path66511)


(Start cutting path id: path66511)
(Change tool to Default tool)

G00 Z 5.0000
G00 X 27.2464 Y 25.1734

G01 Z -1.0000 F 100.0000(Penetrate)
G03 X 26.8872 Y 25.7488 Z -1.0000 I -0.6405 J 0.0000 F 3500.0000
G03 X 26.2775 Y 25.6470 Z -1.0000 I -0.2336 J -0.4779
G03 X 26.3103 Y 25.3261 Z -1.0000 I 0.1471 J -0.1471
G03 X 27.1525 Y 25.0718 Z -1.0000 I 0.8499 J 1.2928
G03 X 27.2178 Y 25.1001 Z -1.0000 I 0.0004 J 0.0883
G03 X 27.2464 Y 25.1734 Z -1.0000 I -0.0792 J 0.0732
G01 X 27.2464 Y 25.1734 Z -1.0000
G00 Z 5.0000

(End cutting path id: path66511)


(Start cutting path id: path66511)
(Change tool to Default tool)

G00 Z 5.0000
G00 X 25.9940 Y 25.8228

G01 Z -1.0000 F 100.0000(Penetrate)
G03 X 25.7978 Y 25.9159 Z -1.0000 I -0.4526 J -0.7004 F 3500.0000
G03 X 25.6183 Y 25.9442 Z -1.0000 I -0.1795 J -0.5555
G01 X 25.5755 Y 25.9014 Z -1.0000
G03 X 25.6183 Y 25.8228 Z -1.0000 I 0.0936 J 0.0000
G03 X 25.8145 Y 25.7296 Z -1.0000 I 0.4526 J 0.7004
G03 X 25.9940 Y 25.7014 Z -1.0000 I 0.1795 J 0.5555
G01 X 26.0368 Y 25.7442 Z -1.0000
G03 X 25.9940 Y 25.8228 Z -1.0000 I -0.0936 J 0.0000
G01 X 25.9940 Y 25.8228 Z -1.0000
G00 Z 5.0000

(End cutting path id: path66511)


(Start cutting path id: path66511)
(Change tool to Default tool)

G00 Z 5.0000
G00 X 21.7628 Y 18.3160

G01 Z -1.0000 F 100.0000(Penetrate)
G03 X 21.7940 Y 18.7159 Z -1.0000 I -0.2182 J 0.2182 F 3500.0000
G03 X 21.2423 Y 19.0308 Z -1.0000 I -0.6259 J -0.4558
G03 X 20.7038 Y 18.9869 Z -1.0000 I -0.1467 J -1.5267
G03 X 20.6087 Y 18.8634 Z -1.0000 I 0.0326 J -0.1235
G03 X 20.8461 Y 18.1700 Z -1.0000 I 1.1314 J -0.0000
G03 X 21.3306 Y 17.9326 Z -1.0000 I 0.4845 J 0.3758
G03 X 21.3728 Y 17.9486 Z -1.0000 I -0.0000 J 0.0636
G03 X 21.7628 Y 18.3160 Z -1.0000 I -5.9485 J 6.7060
G01 X 21.7628 Y 18.3160 Z -1.0000
G00 Z 5.0000

(End cutting path id: path66511)


(Start cutting path id: path66511)
(Change tool to Default tool)

G00 Z 5.0000
G00 X 20.7154 Y 17.6141

G01 Z -1.0000 F 100.0000(Penetrate)
G03 X 19.9525 Y 18.0443 Z -1.0000 I -1.2791 J -1.3764 F 3500.0000
G03 X 19.4502 Y 17.9755 Z -1.0000 I -0.1729 J -0.6052
G03 X 19.4076 Y 17.7637 Z -1.0000 I 0.0772 J -0.1257
G03 X 19.8885 Y 17.3658 Z -1.0000 I 0.9995 J 0.7186
G03 X 20.3881 Y 17.2480 Z -1.0000 I 0.5357 J 1.1533
G03 X 20.5901 Y 17.3458 Z -1.0000 I 0.0069 J 0.2433
G03 X 20.7240 Y 17.5699 Z -1.0000 I -1.0301 J 0.7675
G01 X 20.7154 Y 17.6141 Z -1.0000
G01 X 20.7154 Y 17.6141 Z -1.0000
G00 Z 5.0000

(End cutting path id: path66511)


(Start cutting path id: path66511)
(Change tool to Default tool)

G00 Z 5.0000
G00 X 21.9832 Y 16.5593

G01 Z -1.0000 F 100.0000(Penetrate)
G03 X 21.4313 Y 17.0768 Z -1.0000 I -1.5604 J -1.1111 F 3500.0000
G03 X 21.1761 Y 17.0591 Z -1.0000 I -0.1153 J -0.1862
G03 X 21.1275 Y 16.8928 Z -1.0000 I 0.0989 J -0.1192
G03 X 21.3785 Y 16.4256 Z -1.0000 I 1.3815 J 0.4413
G03 X 21.7880 Y 16.0811 Z -1.0000 I 1.0793 J 0.8673
G03 X 21.9919 Y 16.0866 Z -1.0000 I 0.0973 J 0.1761
G03 X 22.0835 Y 16.2553 Z -1.0000 I -0.1032 J 0.1652
G03 X 21.9832 Y 16.5593 Z -1.0000 I -0.5411 J -0.0100
G01 X 21.9832 Y 16.5593 Z -1.0000
G00 Z 5.0000

(End cutting path id: path66511)


(Start cutting path id: path66511)
(Change tool to Default tool)

G00 Z 5.0000
G00 X 20.6676 Y 15.4794

G01 Z -1.0000 F 100.0000(Penetrate)
G03 X 20.8427 Y 15.7257 Z -1.0000 I -0.0857 J 0.2463 F 3500.0000
G03 X 20.6676 Y 16.1461 Z -1.0000 I -0.5924 J 0.0000
G03 X 19.3441 Y 17.1018 Z -1.0000 I -3.6934 J -3.7207
G03 X 18.9164 Y 17.0336 Z -1.0000 I -0.1668 J -0.3291
G03 X 18.8755 Y 16.9656 Z -1.0000 I 0.1167 J -0.1167
G03 X 18.7841 Y 16.6059 Z -1.0000 I 3.4528 J -1.0686
G03 X 18.8431 Y 16.3116 Z -1.0000 I 0.3822 J -0.0764
G03 X 19.1370 Y 16.0824 Z -1.0000 I 0.4982 J 0.3359
G02 X 19.5351 Y 15.8847 Z -1.0000 I -0.6641 J -1.8365
G02 X 19.8575 Y 15.6153 Z -1.0000 I -0.9486 J -1.4634
G03 X 20.1528 Y 15.3070 Z -1.0000 I 16.4846 J 15.4865
G01 X 20.1609 Y 15.3044 Z -1.0000
G03 X 20.1701 Y 15.3069 Z -1.0000 I -0.0127 J 0.0662
G03 X 20.6676 Y 15.4794 Z -1.0000 I -72.6300 J 210.3011
G01 X 20.6676 Y 15.4794 Z -1.0000
G00 Z 5.0000

(End cutting path id: path66511)


(Start cutting path id: path66511)
(Change tool to Default tool)

G00 Z 5.0000
G00 X 22.3203 Y 14.8851

G01 Z -1.0000 F 100.0000(Penetrate)
G02 X 22.2699 Y 14.9817 Z -1.0000 I 0.1285 J 0.1285 F 3500.0000
G02 X 22.2476 Y 15.2921 Z -1.0000 I 1.4613 J 0.2611
G01 X 22.2960 Y 15.3244 Z -1.0000
G02 X 22.3687 Y 15.2462 Z -1.0000 I -0.0427 J -0.1126
G02 X 22.3951 Y 14.9104 Z -1.0000 I -0.7682 J -0.2294
G01 X 22.3203 Y 14.8851 Z -1.0000
G01 X 22.3203 Y 14.8851 Z -1.0000
G00 Z 5.0000

(End cutting path id: path66511)


(Start cutting path id: path66511)
(Change tool to Default tool)

G00 Z 5.0000
G00 X 22.7378 Y 14.5623

G01 Z -1.0000 F 100.0000(Penetrate)
G03 X 22.6059 Y 15.4222 Z -1.0000 I -2.8707 J -0.0000 F 3500.0000
G03 X 22.3984 Y 15.6431 Z -1.0000 I -0.3323 J -0.1043
G03 X 22.1711 Y 15.5415 Z -1.0000 I -0.0630 J -0.1642
G03 X 22.1237 Y 14.9224 Z -1.0000 I 1.0221 J -0.3896
G03 X 22.3208 Y 14.4473 Z -1.0000 I 1.3914 J 0.2986
G03 X 22.4917 Y 14.3543 Z -1.0000 I 0.1710 J 0.1107
G03 X 22.6718 Y 14.4202 Z -1.0000 I -0.0000 J 0.2790
G03 X 22.7378 Y 14.5623 Z -1.0000 I -0.1201 J 0.1421
G01 X 22.7378 Y 14.5623 Z -1.0000
G00 Z 5.0000

(End cutting path id: path66511)


(Start cutting path id: path66511)
(Change tool to Default tool)

G00 Z 5.0000
G00 X 21.0866 Y 13.2845

G01 Z -1.0000 F 100.0000(Penetrate)
G03 X 21.2866 Y 13.7904 Z -1.0000 I -1.7542 J 0.9859 F 3500.0000
G03 X 21.3601 Y 14.3982 Z -1.0000 I -2.4748 J 0.6078
G03 X 21.1413 Y 14.9498 Z -1.0000 I -0.8045 J 0.0000
G03 X 20.7088 Y 15.0899 Z -1.0000 I -0.3438 J -0.3238
G03 X 20.4765 Y 14.9408 Z -1.0000 I 0.0695 J -0.3638
G03 X 20.3057 Y 14.5233 Z -1.0000 I 0.8064 J -0.5738
G02 X 20.1838 Y 14.0351 Z -1.0000 I -2.8936 J 0.4627
G02 X 20.0436 Y 13.7595 Z -1.0000 I -1.0460 J 0.3589
G03 X 20.0125 Y 13.5196 Z -1.0000 I 0.2136 J -0.1496
G03 X 20.2668 Y 13.1543 Z -1.0000 I 0.8288 J 0.3056
G03 X 20.6788 Y 12.8263 Z -1.0000 I 4.7926 J 5.5976
G03 X 20.7422 Y 12.8028 Z -1.0000 I 0.0720 J 0.0974
G03 X 20.7966 Y 12.8284 Z -1.0000 I 0.0044 J 0.0613
G03 X 21.0866 Y 13.2845 Z -1.0000 I -4.0443 J 2.8921
G01 X 21.0866 Y 13.2845 Z -1.0000
G00 Z 5.0000

(End cutting path id: path66511)


(Start cutting path id: path66511)
(Change tool to Default tool)

G00 Z 5.0000
G00 X 19.7529 Y 11.7313

G01 Z -1.0000 F 100.0000(Penetrate)
G03 X 19.8283 Y 11.7521 Z -1.0000 I -0.0039 J 0.1610 F 3500.0000
G03 X 19.9407 Y 11.8376 Z -1.0000 I -0.2574 J 0.4553
G03 X 19.9560 Y 11.8942 Z -1.0000 I -0.0416 J 0.0416
G01 X 19.9199 Y 11.9167 Z -1.0000
G02 X 19.7941 Y 11.9891 Z -1.0000 I -0.0217 J 0.1077
G02 X 19.8515 Y 12.1185 Z -1.0000 I 0.0990 J 0.0335
G03 X 20.2827 Y 12.4012 Z -1.0000 I -0.6027 J 1.3893
G03 X 20.3010 Y 12.5385 Z -1.0000 I -0.0746 J 0.0798
G03 X 20.1959 Y 12.5889 Z -1.0000 I -0.0919 J -0.0568
G03 X 19.8539 Y 12.4829 Z -1.0000 I 0.1255 J -1.0098
G02 X 19.4851 Y 12.3195 Z -1.0000 I -1.5432 J 2.9841
G02 X 19.3914 Y 12.3104 Z -1.0000 I -0.0640 J 0.1715
G03 X 19.1054 Y 12.1397 Z -1.0000 I -0.0419 J -0.2547
G03 X 19.2436 Y 11.8815 Z -1.0000 I 0.1888 J -0.0650
G02 X 19.4067 Y 11.7727 Z -1.0000 I -0.0759 J -0.2904
G02 X 19.4122 Y 11.6597 Z -1.0000 I -0.0796 J -0.0605
G01 X 19.4246 Y 11.6149 Z -1.0000
G03 X 19.4935 Y 11.6180 Z -1.0000 I 0.0317 J 0.0618
G02 X 19.6741 Y 11.7139 Z -1.0000 I 0.7173 J -1.1330
G02 X 19.7529 Y 11.7313 Z -1.0000 I 0.0836 J -0.1914
G01 X 19.7529 Y 11.7313 Z -1.0000
G00 Z 5.0000

(End cutting path id: path66511)


(Start cutting path id: path66511)
(Change tool to Default tool)

G00 Z 5.0000
G00 X 18.8536 Y 12.0395

G01 Z -1.0000 F 100.0000(Penetrate)
G03 X 18.6752 Y 12.6245 Z -1.0000 I -1.0789 J -0.0094 F 3500.0000
G03 X 18.3531 Y 12.7978 Z -1.0000 I -0.3220 J -0.2126
G03 X 18.0236 Y 12.6275 Z -1.0000 I 0.0000 J -0.4041
G03 X 17.8534 Y 12.0936 Z -1.0000 I 0.7523 J -0.5339
G03 X 17.9649 Y 11.9040 Z -1.0000 I 0.2169 J 0.0000
G03 X 18.3543 Y 11.8152 Z -1.0000 I 0.3473 J 0.6250
G03 X 18.7762 Y 11.9187 Z -1.0000 I -0.0708 J 1.2003
G03 X 18.8536 Y 12.0395 Z -1.0000 I -0.0537 J 0.1196
G01 X 18.8536 Y 12.0395 Z -1.0000
G00 Z 5.0000

(End cutting path id: path66511)


(Start cutting path id: path66511)
(Change tool to Default tool)

G00 Z 5.0000
G00 X 17.1019 Y 11.9211

G01 Z -1.0000 F 100.0000(Penetrate)
G03 X 17.0642 Y 12.0086 Z -1.0000 I -0.1204 J -0.0000 F 3500.0000
G03 X 16.9693 Y 12.0463 Z -1.0000 I -0.0949 J -0.1005
G03 X 16.9082 Y 12.0064 Z -1.0000 I -0.0000 J -0.0668
G03 X 16.9141 Y 11.9211 Z -1.0000 I 0.0841 J -0.0371
G03 X 17.0015 Y 11.8138 Z -1.0000 I 0.4532 J 0.2801
G03 X 17.0467 Y 11.7958 Z -1.0000 I 0.0452 J 0.0479
G01 X 17.0802 Y 11.8176 Z -1.0000
G03 X 17.1019 Y 11.9211 Z -1.0000 I -0.2346 J 0.1034
G01 X 17.1019 Y 11.9211 Z -1.0000
G00 Z 5.0000

(End cutting path id: path66511)


(Start cutting path id: path66511)
(Change tool to Default tool)

G00 Z 5.0000
G00 X 16.6081 Y 12.5786

G01 Z -1.0000 F 100.0000(Penetrate)
G03 X 16.7623 Y 12.9945 Z -1.0000 I -0.5104 J 0.4258 F 3500.0000
G03 X 16.6182 Y 13.2589 Z -1.0000 I -0.3064 J 0.0046
G03 X 16.3843 Y 13.3076 Z -1.0000 I -0.1830 J -0.2930
G03 X 15.9920 Y 13.1656 Z -1.0000 I 0.1553 J -1.0425
G03 X 15.7468 Y 12.8045 Z -1.0000 I 0.2733 J -0.4493
G03 X 15.8774 Y 12.4918 Z -1.0000 I 0.3124 J -0.0531
G03 X 16.2672 Y 12.3937 Z -1.0000 I 0.3233 J 0.4615
G03 X 16.6081 Y 12.5786 Z -1.0000 I -0.0619 J 0.5208
G01 X 16.6081 Y 12.5786 Z -1.0000
G00 Z 5.0000

(End cutting path id: path66511)


(Start cutting path id: path66511)
(Change tool to Default tool)

G00 Z 5.0000
G00 X 18.2815 Y 9.9932

G01 Z -1.0000 F 100.0000(Penetrate)
G03 X 18.5611 Y 10.4118 Z -1.0000 I -0.1562 J 0.4070 F 3500.0000
G03 X 18.2572 Y 10.9041 Z -1.0000 I -0.5756 J -0.0154
G03 X 17.8087 Y 10.9107 Z -1.0000 I -0.2306 J -0.4309
G03 X 17.6029 Y 10.5784 Z -1.0000 I 0.1655 J -0.3324
G03 X 17.6454 Y 10.3917 Z -1.0000 I 0.4318 J -0.0000
G03 X 17.8102 Y 10.1463 Z -1.0000 I 0.9276 J 0.4449
G03 X 18.0557 Y 9.9873 Z -1.0000 I 0.4207 J 0.3807
G03 X 18.2815 Y 9.9932 Z -1.0000 I 0.1045 J 0.3220
G01 X 18.2815 Y 9.9932 Z -1.0000
G00 Z 5.0000

(End cutting path id: path66511)



(Footer)
M5
G00 X0.0000 Y0.0000
M2
(Using default footer. To add your own footer create file "footer" in the output dir.)
(end)
%