%
(Header)
(Generated by gcodetools from Inkscape.)
(Using default header. To add your own header create file "header" in the output dir.)
M3
(Header end.)
G21 (All units in mm)

(Start cutting path id: path65645)
(Change tool to Default tool)

G00 Z 5.0000
G00 X 17.3381 Y 11.4700

G01 Z -1.0000 F 100.0000(Penetrate)
G02 X 17.2728 Y 11.5235 Z -1.0000 I 0.0256 J 0.0979 F 3500.0000
G02 X 17.2365 Y 11.6786 Z -1.0000 I 0.3230 J 0.1574
G03 X 17.1628 Y 11.8179 Z -1.0000 I -0.1707 J -0.0011
G03 X 15.8943 Y 12.6050 Z -1.0000 I -8.6946 J -12.5959
G03 X 14.5505 Y 13.3333 Z -1.0000 I -37.3081 J -67.2358
G03 X 14.5034 Y 13.3410 Z -1.0000 I -0.0351 J -0.0662
G02 X 14.4581 Y 13.3484 Z -1.0000 I -0.0117 J 0.0711
G02 X 14.3628 Y 13.4151 Z -1.0000 I 0.2169 J 0.4116
G03 X 14.2727 Y 13.4707 Z -1.0000 I -0.1958 J -0.2164
G01 X 14.2383 Y 13.4635 Z -1.0000
G01 X 14.2093 Y 13.4620 Z -1.0000
G02 X 14.1460 Y 13.5392 Z -1.0000 I 0.1622 J 0.1978
G03 X 14.0686 Y 13.6285 Z -1.0000 I -0.2359 J -0.1263
G03 X 13.8543 Y 13.7537 Z -1.0000 I -0.6997 J -0.9513
G02 X 13.7360 Y 13.9330 Z -1.0000 I 0.0826 J 0.1831
G02 X 13.6212 Y 25.9824 Z -1.0000 I 632.1082 J 12.0494
G02 X 14.3163 Y 37.5673 Z -1.0000 I 96.8860 J -0.0000
G02 X 15.1281 Y 38.4943 Z -1.0000 I 1.0842 J -0.1306
G03 X 16.6306 Y 38.8950 Z -1.0000 I -22.8733 J 88.7794
G03 X 16.8072 Y 38.9574 Z -1.0000 I -0.3533 J 1.2808
G02 X 17.3060 Y 39.1081 Z -1.0000 I 0.8927 J -2.0531
G02 X 17.9733 Y 39.1658 Z -1.0000 I 0.6505 J -3.6400
G02 X 18.9712 Y 39.1322 Z -1.0000 I -0.0779 J -17.1664
G02 X 23.6957 Y 38.8064 Z -1.0000 I -24.2018 J -385.4112
G03 X 25.3031 Y 38.7097 Z -1.0000 I 4.0464 J 53.8676
G03 X 25.7108 Y 38.7153 Z -1.0000 I 0.1564 J 3.4606
G02 X 26.1004 Y 38.7014 Z -1.0000 I 0.1308 J -1.7983
G02 X 26.2054 Y 38.6436 Z -1.0000 I -0.0245 J -0.1686
G02 X 26.2503 Y 38.5266 Z -1.0000 I -0.1419 J -0.1215
G02 X 26.3143 Y 34.1280 Z -1.0000 I -230.1386 J -5.5493
G02 X 26.1063 Y 29.9147 Z -1.0000 I -38.8416 J -0.1942
G02 X 25.8484 Y 29.6499 Z -1.0000 I -0.2966 J 0.0309
G03 X 25.5878 Y 29.5966 Z -1.0000 I 0.2424 J -1.8480
G01 X 25.5901 Y 29.5775 Z -1.0000
G02 X 25.8190 Y 29.5621 Z -1.0000 I -0.1364 J -3.7442
G02 X 26.0283 Y 29.5346 Z -1.0000 I -0.3110 J -3.1741
G02 X 26.1820 Y 29.4462 Z -1.0000 I -0.0413 J -0.2497
G02 X 26.2769 Y 29.2339 Z -1.0000 I -0.3351 J -0.2771
G02 X 26.2982 Y 28.9661 Z -1.0000 I -1.8985 J -0.2860
G02 X 26.3554 Y 20.9883 Z -1.0000 I -1693.4291 J -16.1238
G02 X 26.3402 Y 13.0311 Z -1.0000 I -591.8960 J -2.8476
G02 X 26.2856 Y 12.9008 Z -1.0000 I -0.1865 J 0.0016
G03 X 26.2390 Y 12.8012 Z -1.0000 I 0.1140 J -0.1140
G03 X 26.2712 Y 12.7401 Z -1.0000 I 0.0632 J -0.0056
G02 X 26.3622 Y 12.5750 Z -1.0000 I -0.0871 J -0.1557
G02 X 26.2552 Y 12.4365 Z -1.0000 I -0.1536 J 0.0081
G02 X 25.9404 Y 12.4331 Z -1.0000 I -0.1629 J 0.5134
G02 X 25.8484 Y 12.5560 Z -1.0000 I 0.0361 J 0.1229
G03 X 25.8290 Y 12.6164 Z -1.0000 I -0.1035 J -0.0000
G01 X 25.7910 Y 12.6359 Z -1.0000
G01 X 25.7540 Y 12.6562 Z -1.0000
G02 X 25.7336 Y 12.7259 Z -1.0000 I 0.1092 J 0.0697
G03 X 25.7046 Y 12.7764 Z -1.0000 I -0.0584 J -0.0000
G03 X 25.6332 Y 12.7844 Z -1.0000 I -0.0448 J -0.0770
G02 X 25.5313 Y 12.7593 Z -1.0000 I -0.2529 J 0.8073
G02 X 25.3031 Y 12.7245 Z -1.0000 I -0.7330 J 4.0382
G03 X 25.0743 Y 12.6906 Z -1.0000 I 0.5982 J -4.8276
G03 X 23.6384 Y 12.4372 Z -1.0000 I 32.8254 J -190.2657
G02 X 18.0636 Y 11.5199 Z -1.0000 I -32.7645 J 181.7107
G02 X 17.8171 Y 11.5706 Z -1.0000 I -0.0539 J 0.3622
G01 X 17.7719 Y 11.5735 Z -1.0000
G03 X 17.6964 Y 11.5159 Z -1.0000 I 0.0874 J -0.1928
G02 X 17.5842 Y 11.4542 Z -1.0000 I -0.1344 J 0.1115
G02 X 17.3382 Y 11.4700 Z -1.0000 I -0.0823 J 0.6424
G01 X 17.3381 Y 11.4700 Z -1.0000
G00 Z 5.0000

(End cutting path id: path65645)


(Start cutting path id: path65645)
(Change tool to Default tool)

G00 Z 5.0000
G00 X 18.2640 Y 11.7533

G01 Z -1.0000 F 100.0000(Penetrate)
G03 X 18.3508 Y 11.8301 Z -1.0000 I -0.0226 J 0.1130 F 3500.0000
G03 X 18.3352 Y 11.9686 Z -1.0000 I -0.1581 J 0.0523
G02 X 18.2306 Y 12.3338 Z -1.0000 I 0.6214 J 0.3757
G02 X 18.3260 Y 12.6043 Z -1.0000 I 0.4142 J 0.0060
G03 X 18.3541 Y 12.6718 Z -1.0000 I -0.0957 J 0.0795
G01 X 18.3346 Y 12.6933 Z -1.0000
G01 X 18.3004 Y 12.7234 Z -1.0000
G02 X 18.2810 Y 13.1118 Z -1.0000 I 2.4874 J 0.3186
G03 X 18.2734 Y 13.5251 Z -1.0000 I -4.4778 J 0.1245
G03 X 18.2495 Y 13.6001 Z -1.0000 I -0.1624 J -0.0105
G02 X 18.2457 Y 13.6567 Z -1.0000 I 0.0516 J 0.0319
G02 X 18.2961 Y 13.7044 Z -1.0000 I 0.0829 J -0.0370
G03 X 18.3567 Y 13.7589 Z -1.0000 I -0.0408 J 0.1064
G03 X 18.3858 Y 13.8796 Z -1.0000 I -0.2357 J 0.1207
G03 X 18.3610 Y 13.9760 Z -1.0000 I -0.1998 J 0.0000
G01 X 18.3280 Y 13.9847 Z -1.0000
G01 X 18.2821 Y 13.9843 Z -1.0000
G02 X 18.2354 Y 14.0397 Z -1.0000 I 0.0564 J 0.0950
G03 X 18.1854 Y 14.1028 Z -1.0000 I -0.1260 J -0.0484
G03 X 18.1247 Y 14.1151 Z -1.0000 I -0.0448 J -0.0658
G02 X 18.0735 Y 14.1247 Z -1.0000 I -0.0138 J 0.0677
G01 X 18.0595 Y 14.1571 Z -1.0000
G02 X 18.0857 Y 14.1959 Z -1.0000 I 0.0574 J -0.0105
G02 X 18.1505 Y 14.2148 Z -1.0000 I 0.0653 J -0.1030
G03 X 18.2072 Y 14.2427 Z -1.0000 I -0.0002 J 0.0720
G03 X 18.2506 Y 14.3440 Z -1.0000 I -0.1734 J 0.1344
G03 X 18.2213 Y 14.4328 Z -1.0000 I -0.1020 J 0.0156
G03 X 18.1128 Y 14.4807 Z -1.0000 I -0.1167 J -0.1176
G02 X 18.0739 Y 14.4970 Z -1.0000 I 0.0031 J 0.0616
G01 X 18.0784 Y 14.5126 Z -1.0000
G03 X 18.1860 Y 14.6189 Z -1.0000 I -0.0263 J 0.1342
G03 X 18.2266 Y 15.2233 Z -1.0000 I -2.1473 J 0.4479
G03 X 18.1651 Y 15.5759 Z -1.0000 I -1.7658 J -0.1263
G01 X 18.1214 Y 15.5979 Z -1.0000
G02 X 18.0537 Y 15.5941 Z -1.0000 I -0.0397 J 0.1033
G02 X 18.0087 Y 15.6273 Z -1.0000 I 0.0191 J 0.0728
G01 X 18.0130 Y 15.6699 Z -1.0000
G02 X 18.0930 Y 15.7176 Z -1.0000 I 0.1224 J -0.1143
G03 X 18.1876 Y 15.7692 Z -1.0000 I -0.0564 J 0.2157
G03 X 18.2136 Y 15.8286 Z -1.0000 I -0.0546 J 0.0593
G02 X 18.2391 Y 15.8841 Z -1.0000 I 0.0731 J -0.0000
G02 X 18.3141 Y 15.9146 Z -1.0000 I 0.0834 J -0.0973
G01 X 18.3312 Y 15.9294 Z -1.0000
G01 X 18.3210 Y 15.9462 Z -1.0000
G02 X 18.1460 Y 16.1784 Z -1.0000 I 0.0607 J 0.2278
G02 X 18.3281 Y 16.3209 Z -1.0000 I 0.1490 J -0.0028
G01 X 18.3487 Y 16.3381 Z -1.0000
G03 X 18.3246 Y 16.4007 Z -1.0000 I -0.1050 J -0.0046
G02 X 18.2701 Y 16.5056 Z -1.0000 I 0.2139 J 0.1775
G02 X 18.2615 Y 16.6335 Z -1.0000 I 0.3157 J 0.0854
G03 X 18.2340 Y 16.7315 Z -1.0000 I -0.1281 J 0.0168
G03 X 18.1460 Y 16.7766 Z -1.0000 I -0.0948 J -0.0766
G01 X 18.1409 Y 16.7938 Z -1.0000
G02 X 18.2137 Y 16.8265 Z -1.0000 I 0.1115 J -0.1513
G03 X 18.3169 Y 16.8623 Z -1.0000 I -0.0891 J 0.4234
G01 X 18.3141 Y 16.8763 Z -1.0000
G02 X 18.2345 Y 16.9031 Z -1.0000 I 0.0129 J 0.1702
G01 X 18.2137 Y 16.9413 Z -1.0000
G01 X 18.2345 Y 16.9792 Z -1.0000
G02 X 18.3141 Y 17.0053 Z -1.0000 I 0.0908 J -0.1424
G01 X 18.3307 Y 17.0201 Z -1.0000
G01 X 18.3199 Y 17.0371 Z -1.0000
G02 X 18.1118 Y 17.3041 Z -1.0000 I 0.0719 J 0.2707
G02 X 18.3141 Y 17.4723 Z -1.0000 I 0.1692 J 0.0023
G03 X 18.3667 Y 17.4814 Z -1.0000 I 0.0145 J 0.0725
G01 X 18.3859 Y 17.5153 Z -1.0000
G01 X 18.3654 Y 17.5522 Z -1.0000
G03 X 18.2937 Y 17.5727 Z -1.0000 I -0.0718 J -0.1153
G02 X 18.2414 Y 17.6002 Z -1.0000 I -0.0000 J 0.0634
G02 X 18.2344 Y 17.6588 Z -1.0000 I 0.0522 J 0.0359
G03 X 18.2338 Y 17.7233 Z -1.0000 I -0.0819 J 0.0314
G01 X 18.1975 Y 17.7495 Z -1.0000
G01 X 18.1853 Y 17.7633 Z -1.0000
G01 X 18.1993 Y 17.7829 Z -1.0000
G03 X 18.2341 Y 17.8593 Z -1.0000 I -0.0228 J 0.0565
G03 X 18.1529 Y 17.9171 Z -1.0000 I -0.0812 J -0.0281
G02 X 18.0772 Y 17.9408 Z -1.0000 I 0.0000 J 0.1328
G01 X 18.0702 Y 17.9746 Z -1.0000
G02 X 18.1162 Y 18.0130 Z -1.0000 I 0.0805 J -0.0498
G02 X 18.2171 Y 18.0320 Z -1.0000 I 0.1008 J -0.2581
G01 X 18.2493 Y 18.0903 Z -1.0000
G03 X 18.1419 Y 18.1513 Z -1.0000 I -0.1105 J -0.0696
G01 X 18.0991 Y 18.1794 Z -1.0000
G01 X 18.1132 Y 18.2135 Z -1.0000
G03 X 18.2000 Y 18.3038 Z -1.0000 I -0.0489 J 0.1338
G01 X 18.1563 Y 18.3477 Z -1.0000
G02 X 18.0665 Y 18.3454 Z -1.0000 I -0.0488 J 0.1536
G01 X 18.0415 Y 18.3779 Z -1.0000
G02 X 18.0643 Y 18.4269 Z -1.0000 I 0.0641 J 0.0000
G02 X 18.1563 Y 18.4746 Z -1.0000 I 0.1515 J -0.1799
G03 X 18.1980 Y 18.5481 Z -1.0000 I -0.0149 J 0.0571
G03 X 18.1132 Y 18.6223 Z -1.0000 I -0.1004 J -0.0293
G01 X 18.1109 Y 18.6380 Z -1.0000
G02 X 18.1850 Y 18.6566 Z -1.0000 I 0.0827 J -0.1733
G03 X 18.3131 Y 18.6919 Z -1.0000 I -0.0135 J 0.2990
G01 X 18.3137 Y 18.7257 Z -1.0000
G03 X 18.2131 Y 18.7610 Z -1.0000 I -0.1424 J -0.2445
G03 X 18.1558 Y 18.7492 Z -1.0000 I -0.0126 J -0.0841
G01 X 18.1171 Y 18.7467 Z -1.0000
G01 X 18.0989 Y 18.7748 Z -1.0000
G01 X 18.1217 Y 18.8128 Z -1.0000
G02 X 18.2137 Y 18.8356 Z -1.0000 I 0.0920 J -0.1737
G03 X 18.3066 Y 18.8575 Z -1.0000 I -0.0000 J 0.2077
G01 X 18.3285 Y 18.8930 Z -1.0000
G01 X 18.3053 Y 18.9272 Z -1.0000
G03 X 18.1850 Y 18.9504 Z -1.0000 I -0.1203 J -0.3009
G02 X 18.0647 Y 18.9736 Z -1.0000 I -0.0000 J 0.3240
G01 X 18.0415 Y 19.0078 Z -1.0000
G01 X 18.0651 Y 19.0417 Z -1.0000
G02 X 18.1993 Y 19.0661 Z -1.0000 I 0.1364 J -0.3695
G03 X 18.2781 Y 19.0897 Z -1.0000 I -0.0008 J 0.1458
G01 X 18.2779 Y 19.1172 Z -1.0000
G02 X 18.2346 Y 19.1831 Z -1.0000 I 0.0511 J 0.0808
G02 X 18.2374 Y 19.3747 Z -1.0000 I 0.5572 J 0.0875
G03 X 18.2344 Y 19.5471 Z -1.0000 I -0.4204 J 0.0789
G01 X 18.1910 Y 19.5819 Z -1.0000
G02 X 18.1099 Y 19.6522 Z -1.0000 I 0.0000 J 0.0819
G02 X 18.1670 Y 19.7509 Z -1.0000 I 0.0914 J 0.0130
G01 X 18.1898 Y 19.7954 Z -1.0000
G01 X 18.1467 Y 19.8330 Z -1.0000
G02 X 18.0943 Y 19.9124 Z -1.0000 I 0.0066 J 0.0614
G02 X 18.1946 Y 19.9894 Z -1.0000 I 0.1041 J -0.0318
G01 X 18.2255 Y 20.0108 Z -1.0000
G01 X 18.2137 Y 20.0351 Z -1.0000
G02 X 18.0907 Y 20.0909 Z -1.0000 I 0.1175 J 0.4223
G01 X 18.0693 Y 20.1298 Z -1.0000
G03 X 18.0596 Y 20.1820 Z -1.0000 I -0.1589 J -0.0025
G03 X 18.0229 Y 20.2564 Z -1.0000 I -0.3644 J -0.1337
G01 X 18.0296 Y 20.2996 Z -1.0000
G02 X 18.1099 Y 20.3290 Z -1.0000 I 0.0811 J -0.0971
G03 X 18.2377 Y 20.3457 Z -1.0000 I -0.0035 J 0.5246
G03 X 18.3285 Y 20.3855 Z -1.0000 I -0.0777 J 0.3006
G01 X 18.3440 Y 20.4234 Z -1.0000
G01 X 18.3142 Y 20.4492 Z -1.0000
G02 X 18.2142 Y 20.4603 Z -1.0000 I 0.1291 J 1.6217
G02 X 18.1563 Y 20.4717 Z -1.0000 I 0.0800 J 0.5626
G03 X 18.0987 Y 20.4852 Z -1.0000 I -0.4884 J -1.9516
G03 X 18.0272 Y 20.5000 Z -1.0000 I -0.6624 J -3.0218
G01 X 18.0247 Y 20.5155 Z -1.0000
G02 X 18.1276 Y 20.5557 Z -1.0000 I 0.2000 J -0.3607
G03 X 18.1813 Y 20.6077 Z -1.0000 I -0.0174 J 0.0716
G01 X 18.1563 Y 20.6601 Z -1.0000
G02 X 18.1121 Y 20.7052 Z -1.0000 I 0.0337 J 0.0771
G01 X 18.1276 Y 20.7300 Z -1.0000
G01 X 18.1431 Y 20.7547 Z -1.0000
G03 X 18.0989 Y 20.7999 Z -1.0000 I -0.0778 J -0.0320
G01 X 18.0739 Y 20.8522 Z -1.0000
G02 X 18.1276 Y 20.9043 Z -1.0000 I 0.0710 J -0.0195
G03 X 18.2302 Y 20.9410 Z -1.0000 I -0.1211 J 0.4997
G01 X 18.2281 Y 20.9528 Z -1.0000
G02 X 18.1779 Y 20.9792 Z -1.0000 I 0.0069 J 0.0741
G02 X 18.1563 Y 21.0387 Z -1.0000 I 0.0712 J 0.0595
G03 X 18.1373 Y 21.1088 Z -1.0000 I -0.1391 J -0.0000
G03 X 18.0666 Y 21.1922 Z -1.0000 I -0.2715 J -0.1586
G02 X 18.0530 Y 21.2561 Z -1.0000 I 0.0337 J 0.0406
G02 X 18.1384 Y 21.3381 Z -1.0000 I 0.1555 J -0.0765
G03 X 18.1801 Y 21.3863 Z -1.0000 I -0.0303 J 0.0684
G01 X 18.1597 Y 21.4142 Z -1.0000
G02 X 18.1100 Y 21.4467 Z -1.0000 I 0.0019 J 0.0571
G01 X 18.1218 Y 21.4936 Z -1.0000
G03 X 18.1640 Y 21.5702 Z -1.0000 I -0.0612 J 0.0836
G03 X 18.1321 Y 21.6447 Z -1.0000 I -0.0888 J 0.0060
G02 X 18.0837 Y 21.7251 Z -1.0000 I 0.0907 J 0.1093
G02 X 18.1010 Y 21.7945 Z -1.0000 I 0.0806 J 0.0167
G03 X 18.1256 Y 21.8619 Z -1.0000 I -0.0821 J 0.0681
G03 X 18.1017 Y 21.9051 Z -1.0000 I -0.0503 J 0.0003
G02 X 18.0819 Y 21.9891 Z -1.0000 I 0.0321 J 0.0519
G02 X 18.2281 Y 22.1096 Z -1.0000 I 0.2501 J -0.1546
G01 X 18.2502 Y 22.1694 Z -1.0000
G03 X 18.1563 Y 22.2410 Z -1.0000 I -0.1272 J -0.0694
G02 X 18.0219 Y 22.2979 Z -1.0000 I 0.0999 J 0.4232
G01 X 18.0271 Y 22.3236 Z -1.0000
G03 X 18.1269 Y 22.3702 Z -1.0000 I -0.0340 J 0.2030
G03 X 18.1563 Y 22.4341 Z -1.0000 I -0.0546 J 0.0639
G03 X 18.1260 Y 22.4837 Z -1.0000 I -0.0557 J 0.0000
G03 X 18.0415 Y 22.4929 Z -1.0000 I -0.0543 J -0.1061
G02 X 17.9768 Y 22.5277 Z -1.0000 I -0.0137 J 0.0522
G02 X 17.9267 Y 22.8306 Z -1.0000 I 0.8910 J 0.3029
G02 X 17.9798 Y 23.1484 Z -1.0000 I 0.9770 J -0.0000
G02 X 18.0558 Y 23.2062 Z -1.0000 I 0.0812 J -0.0279
G01 X 18.0702 Y 23.2215 Z -1.0000
G01 X 18.0558 Y 23.2389 Z -1.0000
G02 X 17.9642 Y 23.2948 Z -1.0000 I 0.0290 J 0.1507
G02 X 17.9267 Y 23.4033 Z -1.0000 I 0.1381 J 0.1085
G02 X 17.9686 Y 23.5009 Z -1.0000 I 0.1346 J -0.0000
G02 X 18.0736 Y 23.5428 Z -1.0000 I 0.1050 J -0.1105
G03 X 18.1760 Y 23.5676 Z -1.0000 I -0.0000 J 0.2235
G01 X 18.1850 Y 23.6002 Z -1.0000
G03 X 18.1389 Y 23.6386 Z -1.0000 I -0.0805 J -0.0498
G03 X 18.0381 Y 23.6576 Z -1.0000 I -0.1008 J -0.2581
G02 X 17.9710 Y 23.7020 Z -1.0000 I 0.0000 J 0.0729
G02 X 17.9267 Y 23.9193 Z -1.0000 I 0.5105 J 0.2174
G02 X 17.9532 Y 24.1335 Z -1.0000 I 0.8783 J -0.0000
G01 X 17.9836 Y 24.1458 Z -1.0000
G03 X 18.0409 Y 24.1341 Z -1.0000 I 0.0447 J 0.0724
G03 X 18.1415 Y 24.1694 Z -1.0000 I -0.0415 J 0.2791
G01 X 18.1463 Y 24.2028 Z -1.0000
G03 X 18.0845 Y 24.2299 Z -1.0000 I -0.0628 J -0.0591
G02 X 17.9485 Y 24.2532 Z -1.0000 I 0.0048 J 0.4369
G01 X 17.9267 Y 24.2837 Z -1.0000
G01 X 17.9472 Y 24.3092 Z -1.0000
G02 X 18.0350 Y 24.3074 Z -1.0000 I 0.0402 J -0.1839
G03 X 18.1325 Y 24.3061 Z -1.0000 I 0.0515 J 0.1970
G03 X 18.1819 Y 24.3415 Z -1.0000 I -0.0179 J 0.0770
G01 X 18.1729 Y 24.3773 Z -1.0000
G03 X 18.0736 Y 24.4039 Z -1.0000 I -0.0993 J -0.1723
G02 X 18.0188 Y 24.4638 Z -1.0000 I 0.0000 J 0.0550
G02 X 18.0845 Y 24.5273 Z -1.0000 I 0.0695 J -0.0062
G01 X 18.0992 Y 24.5428 Z -1.0000
G01 X 18.0845 Y 24.5598 Z -1.0000
G02 X 17.9685 Y 24.6197 Z -1.0000 I 0.0305 J 0.2012
G02 X 17.9267 Y 24.7234 Z -1.0000 I 0.1075 J 0.1037
G02 X 17.9797 Y 24.8307 Z -1.0000 I 0.1350 J 0.0000
G02 X 18.0601 Y 24.8254 Z -1.0000 I 0.0371 J -0.0486
G01 X 18.0714 Y 24.7864 Z -1.0000
G02 X 18.0340 Y 24.7106 Z -1.0000 I -0.1775 J 0.0404
G01 X 18.0296 Y 24.6615 Z -1.0000
G03 X 18.0775 Y 24.6336 Z -1.0000 I 0.0479 J 0.0271
G03 X 18.1493 Y 24.6720 Z -1.0000 I -0.0001 J 0.0867
G03 X 18.1975 Y 24.8122 Z -1.0000 I -0.2386 J 0.1604
G03 X 18.1582 Y 24.9322 Z -1.0000 I -0.1671 J 0.0117
G03 X 18.0691 Y 24.9637 Z -1.0000 I -0.0715 J -0.0606
G02 X 17.9958 Y 25.0194 Z -1.0000 I -0.0116 J 0.0608
G02 X 17.9079 Y 26.8948 Z -1.0000 I 25.6526 J 2.1417
G01 X 17.9011 Y 26.8947 Z -1.0000
G03 X 17.9151 Y 20.7013 Z -1.0000 I 2808.1722 J 3.2645
G02 X 17.9387 Y 12.5498 Z -1.0000 I -8579.8690 J -28.9354
G02 X 17.9358 Y 12.1336 Z -1.0000 I -22.3431 J -0.0541
G03 X 18.0467 Y 11.8280 Z -1.0000 I 0.4563 J -0.0074
G03 X 18.2641 Y 11.7533 Z -1.0000 I 0.1727 J 0.1491
G01 X 18.2640 Y 11.7533 Z -1.0000
G00 Z 5.0000

(End cutting path id: path65645)


(Start cutting path id: path65645)
(Change tool to Default tool)

G00 Z 5.0000
G00 X 18.0132 Y 15.0478

G01 Z -1.0000 F 100.0000(Penetrate)
G02 X 18.0555 Y 15.0798 Z -1.0000 I 0.0622 J -0.0384 F 3500.0000
G02 X 18.1027 Y 15.0731 Z -1.0000 I 0.0161 J -0.0569
G01 X 18.1184 Y 15.0235 Z -1.0000
G02 X 18.0667 Y 14.9895 Z -1.0000 I -0.0517 J 0.0223
G02 X 18.0167 Y 15.0115 Z -1.0000 I 0.0000 J 0.0678
G01 X 18.0132 Y 15.0478 Z -1.0000
G01 X 18.0132 Y 15.0478 Z -1.0000
G00 Z 5.0000

(End cutting path id: path65645)


(Start cutting path id: path65645)
(Change tool to Default tool)

G00 Z 5.0000
G00 X 18.0237 Y 17.3063

G01 Z -1.0000 F 100.0000(Penetrate)
G02 X 18.0164 Y 17.3876 Z -1.0000 I 0.1395 J 0.0535 F 3500.0000
G02 X 18.0477 Y 17.4331 Z -1.0000 I 0.0673 J -0.0127
G01 X 18.1134 Y 17.4155 Z -1.0000
G02 X 18.1126 Y 17.3124 Z -1.0000 I -0.0944 J -0.0507
G02 X 18.0632 Y 17.2811 Z -1.0000 I -0.0536 J 0.0300
G01 X 18.0237 Y 17.3063 Z -1.0000
G01 X 18.0237 Y 17.3063 Z -1.0000
G00 Z 5.0000

(End cutting path id: path65645)


(Start cutting path id: path65645)
(Change tool to Default tool)

G00 Z 5.0000
G00 X 18.0459 Y 17.6636

G01 Z -1.0000 F 100.0000(Penetrate)
G02 X 18.0627 Y 17.7020 Z -1.0000 I 0.0576 J -0.0024 F 3500.0000
G01 X 18.0806 Y 17.6983 Z -1.0000
G02 X 18.0929 Y 17.6266 Z -1.0000 I -0.1613 J -0.0646
G02 X 18.0761 Y 17.5883 Z -1.0000 I -0.0576 J 0.0024
G01 X 18.0582 Y 17.5919 Z -1.0000
G02 X 18.0459 Y 17.6636 Z -1.0000 I 0.1613 J 0.0645
G01 X 18.0459 Y 17.6636 Z -1.0000
G00 Z 5.0000

(End cutting path id: path65645)


(Start cutting path id: path65645)
(Change tool to Default tool)

G00 Z 5.0000
G00 X 18.0988 Y 22.9401

G01 Z -1.0000 F 100.0000(Penetrate)
G03 X 18.0756 Y 23.0604 Z -1.0000 I -0.3241 J -0.0000 F 3500.0000
G01 X 18.0414 Y 23.0836 Z -1.0000
G01 X 18.0071 Y 23.0604 Z -1.0000
G03 X 17.9840 Y 22.9401 Z -1.0000 I 0.3009 J -0.1203
G03 X 18.0071 Y 22.8197 Z -1.0000 I 0.3240 J 0.0000
G01 X 18.0414 Y 22.7966 Z -1.0000
G01 X 18.0756 Y 22.8197 Z -1.0000
G03 X 18.0988 Y 22.9401 Z -1.0000 I -0.3009 J 0.1203
G01 X 18.0988 Y 22.9401 Z -1.0000
G00 Z 5.0000

(End cutting path id: path65645)


(Start cutting path id: path65645)
(Change tool to Default tool)

G00 Z 5.0000
G00 X 18.0751 Y 23.9300

G01 Z -1.0000 F 100.0000(Penetrate)
G01 X 18.0143 Y 23.9184 Z -1.0000 F 3500.0000
G03 X 18.0144 Y 23.7893 Z -1.0000 I 0.1493 J -0.0644
G01 X 18.0521 Y 23.7653 Z -1.0000
G01 X 18.0840 Y 23.7913 Z -1.0000
G03 X 18.0925 Y 23.8916 Z -1.0000 I -0.3312 J 0.0786
G03 X 18.0751 Y 23.9300 Z -1.0000 I -0.0596 J -0.0038
G01 X 18.0751 Y 23.9300 Z -1.0000
G00 Z 5.0000

(End cutting path id: path65645)


(Start cutting path id: path65645)
(Change tool to Default tool)

G00 Z 5.0000
G00 X 18.0988 Y 25.1789

G01 Z -1.0000 F 100.0000(Penetrate)
G03 X 18.0788 Y 25.2450 Z -1.0000 I -0.1192 J -0.0000 F 3500.0000
G01 X 18.0414 Y 25.2650 Z -1.0000
G01 X 18.0040 Y 25.2450 Z -1.0000
G03 X 17.9840 Y 25.1789 Z -1.0000 I 0.0992 J -0.0661
G03 X 18.0040 Y 25.1128 Z -1.0000 I 0.1192 J 0.0000
G01 X 18.0414 Y 25.0928 Z -1.0000
G01 X 18.0788 Y 25.1128 Z -1.0000
G03 X 18.0988 Y 25.1789 Z -1.0000 I -0.0992 J 0.0661
G01 X 18.0988 Y 25.1789 Z -1.0000
G00 Z 5.0000

(End cutting path id: path65645)


(Start cutting path id: path65645)
(Change tool to Default tool)

G00 Z 5.0000
G00 X 18.0760 Y 25.4790

G01 Z -1.0000 F 100.0000(Penetrate)
G01 X 18.0149 Y 25.4703 Z -1.0000 F 3500.0000
G03 X 18.0174 Y 25.3721 Z -1.0000 I 0.0856 J -0.0469
G01 X 18.0565 Y 25.3502 Z -1.0000
G01 X 18.0866 Y 25.3719 Z -1.0000
G03 X 18.0943 Y 25.4405 Z -1.0000 I -0.1576 J 0.0525
G03 X 18.0760 Y 25.4790 Z -1.0000 I -0.0629 J -0.0061
G01 X 18.0760 Y 25.4790 Z -1.0000
G00 Z 5.0000

(End cutting path id: path65645)


(Start cutting path id: path65645)
(Change tool to Default tool)

G00 Z 5.0000
G00 X 18.0988 Y 25.8998

G01 Z -1.0000 F 100.0000(Penetrate)
G03 X 18.0751 Y 25.9755 Z -1.0000 I -0.1328 J -0.0000 F 3500.0000
G01 X 18.0414 Y 25.9825 Z -1.0000
G03 X 18.0008 Y 25.9377 Z -1.0000 I 0.0570 J -0.0922
G03 X 17.9840 Y 25.8643 Z -1.0000 I 0.1510 J -0.0733
G03 X 18.0037 Y 25.8013 Z -1.0000 I 0.1105 J 0.0000
G01 X 18.0414 Y 25.7816 Z -1.0000
G01 X 18.0767 Y 25.8037 Z -1.0000
G03 X 18.0988 Y 25.8998 Z -1.0000 I -0.1979 J 0.0961
G01 X 18.0988 Y 25.8998 Z -1.0000
G00 Z 5.0000

(End cutting path id: path65645)


(Start cutting path id: path65645)
(Change tool to Default tool)

G00 Z 5.0000
G00 X 18.1118 Y 27.2311

G01 Z -1.0000 F 100.0000(Penetrate)
G03 X 18.1040 Y 27.4200 Z -1.0000 I -0.6756 J 0.0670 F 3500.0000
G01 X 18.0725 Y 27.4464 Z -1.0000
G01 X 18.0413 Y 27.4192 Z -1.0000
G03 X 18.0348 Y 27.1737 Z -1.0000 I 1.1017 J -0.1523
G01 X 18.0703 Y 27.1577 Z -1.0000
G03 X 18.1118 Y 27.2311 Z -1.0000 I -0.0624 J 0.0837
G01 X 18.1118 Y 27.2311 Z -1.0000
G00 Z 5.0000

(End cutting path id: path65645)


(Start cutting path id: path65645)
(Change tool to Default tool)

G00 Z 5.0000
G00 X 18.0988 Y 27.5612

G01 Z -1.0000 F 100.0000(Penetrate)
G03 X 18.0820 Y 27.6018 Z -1.0000 I -0.0574 J -0.0000 F 3500.0000
G03 X 18.0414 Y 27.6186 Z -1.0000 I -0.0406 J -0.0406
G03 X 18.0008 Y 27.6018 Z -1.0000 I -0.0000 J -0.0574
G03 X 17.9840 Y 27.5612 Z -1.0000 I 0.0406 J -0.0406
G03 X 18.0008 Y 27.5206 Z -1.0000 I 0.0574 J 0.0000
G03 X 18.0414 Y 27.5038 Z -1.0000 I 0.0406 J 0.0406
G03 X 18.0820 Y 27.5206 Z -1.0000 I -0.0000 J 0.0574
G03 X 18.0988 Y 27.5612 Z -1.0000 I -0.0406 J 0.0406
G01 X 18.0988 Y 27.5612 Z -1.0000
G00 Z 5.0000

(End cutting path id: path65645)


(Start cutting path id: path65645)
(Change tool to Default tool)

G00 Z 5.0000
G00 X 18.0988 Y 28.5323

G01 Z -1.0000 F 100.0000(Penetrate)
G02 X 18.1273 Y 28.7379 Z -1.0000 I 0.7557 J -0.0000 F 3500.0000
G02 X 18.1705 Y 28.7861 Z -1.0000 I 0.0708 J -0.0200
G01 X 18.1759 Y 28.8038 Z -1.0000
G01 X 18.1476 Y 28.8196 Z -1.0000
G03 X 18.0886 Y 28.7835 Z -1.0000 I -0.0029 J -0.0615
G03 X 18.0324 Y 28.5658 Z -1.0000 I 0.5933 J -0.2694
G03 X 18.0335 Y 28.3274 Z -1.0000 I 1.4170 J -0.1127
G01 X 18.0553 Y 28.3074 Z -1.0000
G01 X 18.0791 Y 28.3271 Z -1.0000
G03 X 18.0988 Y 28.5323 Z -1.0000 I -1.0613 J 0.2052
G01 X 18.0988 Y 28.5323 Z -1.0000
G00 Z 5.0000

(End cutting path id: path65645)


(Start cutting path id: path65645)
(Change tool to Default tool)

G00 Z 5.0000
G00 X 18.2997 Y 29.5703

G01 Z -1.0000 F 100.0000(Penetrate)
G01 X 18.2863 Y 29.5999 Z -1.0000 F 3500.0000
G03 X 18.0017 Y 29.6210 Z -1.0000 I -0.2538 J -1.4943
G03 X 17.8398 Y 29.5944 Z -1.0000 I 0.0119 J -0.5804
G01 X 17.8404 Y 29.5703 Z -1.0000
G03 X 18.2154 Y 29.5234 Z -1.0000 I 0.3750 J 1.4737
G03 X 18.2997 Y 29.5703 Z -1.0000 I 0.0000 J 0.0990
G01 X 18.2997 Y 29.5703 Z -1.0000
G00 Z 5.0000

(End cutting path id: path65645)


(Start cutting path id: path65645)
(Change tool to Default tool)

G00 Z 5.0000
G00 X 18.2997 Y 29.8026

G01 Z -1.0000 F 100.0000(Penetrate)
G02 X 18.0408 Y 29.8399 Z -1.0000 I 0.1952 J 2.2747 F 3500.0000
G01 X 18.0414 Y 29.8551 Z -1.0000
G01 X 18.0680 Y 29.8769 Z -1.0000
G01 X 18.0557 Y 29.8979 Z -1.0000
G02 X 17.9544 Y 30.0038 Z -1.0000 I 0.0239 J 0.1243
G02 X 18.0270 Y 30.0937 Z -1.0000 I 0.0778 J 0.0114
G01 X 18.0409 Y 30.1085 Z -1.0000
G01 X 18.0270 Y 30.1266 Z -1.0000
G02 X 17.9761 Y 30.1911 Z -1.0000 I 0.0173 J 0.0660
G02 X 17.9266 Y 34.5939 Z -1.0000 I 195.7809 J 4.4028
G02 X 18.0177 Y 38.9526 Z -1.0000 I 104.2948 J 0.0000
G02 X 18.1131 Y 39.0540 Z -1.0000 I 0.1063 J -0.0044
G01 X 18.1246 Y 39.0765 Z -1.0000
G03 X 18.0844 Y 39.1035 Z -1.0000 I -0.0479 J -0.0278
G03 X 17.9746 Y 39.0125 Z -1.0000 I -0.0135 J -0.0955
G03 X 17.8690 Y 34.4239 Z -1.0000 I 99.7495 J -4.5913
G03 X 18.0684 Y 29.9268 Z -1.0000 I 50.7848 J -0.0014
G03 X 18.2852 Y 29.7410 Z -1.0000 I 0.2035 J 0.0181
G01 X 18.3219 Y 29.7720 Z -1.0000
G01 X 18.2997 Y 29.8026 Z -1.0000
G01 X 18.2997 Y 29.8026 Z -1.0000
G00 Z 5.0000

(End cutting path id: path65645)


(Start cutting path id: path65645)
(Change tool to Default tool)

G00 Z 5.0000
G00 X 18.1197 Y 30.6320

G01 Z -1.0000 F 100.0000(Penetrate)
G03 X 18.0758 Y 30.6853 Z -1.0000 I -0.1018 J -0.0390 F 3500.0000
G01 X 18.0344 Y 30.6854 Z -1.0000
G03 X 18.0101 Y 30.6033 Z -1.0000 I 0.0338 J -0.0546
G03 X 18.1003 Y 30.5462 Z -1.0000 I 0.0902 J 0.0427
G01 X 18.1245 Y 30.5655 Z -1.0000
G03 X 18.1197 Y 30.6320 Z -1.0000 I -0.1123 J 0.0253
G01 X 18.1197 Y 30.6320 Z -1.0000
G00 Z 5.0000

(End cutting path id: path65645)


(Start cutting path id: path65645)
(Change tool to Default tool)

G00 Z 5.0000
G00 X 18.0806 Y 31.0162

G01 Z -1.0000 F 100.0000(Penetrate)
G01 X 18.0627 Y 31.0199 Z -1.0000 F 3500.0000
G03 X 18.0459 Y 30.9816 Z -1.0000 I 0.0407 J -0.0407
G03 X 18.0582 Y 30.9099 Z -1.0000 I 0.1735 J -0.0072
G01 X 18.0760 Y 30.9062 Z -1.0000
G03 X 18.0929 Y 30.9446 Z -1.0000 I -0.0407 J 0.0407
G03 X 18.0805 Y 31.0162 Z -1.0000 I -0.1734 J 0.0071
G01 X 18.0806 Y 31.0162 Z -1.0000
G00 Z 5.0000

(End cutting path id: path65645)


(Start cutting path id: path65645)
(Change tool to Default tool)

G00 Z 5.0000
G00 X 18.1562 Y 31.8345

G01 Z -1.0000 F 100.0000(Penetrate)
G03 X 18.1008 Y 31.9040 Z -1.0000 I -0.0714 J 0.0000 F 3500.0000
G03 X 18.0132 Y 31.8675 Z -1.0000 I -0.0183 J -0.0794
G01 X 18.0167 Y 31.8312 Z -1.0000
G03 X 18.0667 Y 31.8091 Z -1.0000 I 0.0500 J 0.0458
G03 X 18.1453 Y 31.8200 Z -1.0000 I -0.0000 J 0.2887
G01 X 18.1562 Y 31.8345 Z -1.0000
G01 X 18.1562 Y 31.8345 Z -1.0000
G00 Z 5.0000

(End cutting path id: path65645)


(Start cutting path id: path65645)
(Change tool to Default tool)

G00 Z 5.0000
G00 X 18.0819 Y 32.3401

G01 Z -1.0000 F 100.0000(Penetrate)
G01 X 18.0693 Y 32.3401 Z -1.0000 F 3500.0000
G03 X 18.0570 Y 32.2110 Z -1.0000 I 0.6705 J -0.1292
G03 X 18.0693 Y 32.0818 Z -1.0000 I 0.6828 J -0.0000
G01 X 18.0819 Y 32.0818 Z -1.0000
G03 X 18.0942 Y 32.2110 Z -1.0000 I -0.6707 J 0.1292
G03 X 18.0819 Y 32.3401 Z -1.0000 I -0.6830 J 0.0000
G01 X 18.0819 Y 32.3401 Z -1.0000
G00 Z 5.0000

(End cutting path id: path65645)


(Start cutting path id: path65645)
(Change tool to Default tool)

G00 Z 5.0000
G00 X 18.0988 Y 33.1295

G01 Z -1.0000 F 100.0000(Penetrate)
G03 X 18.0819 Y 33.1700 Z -1.0000 I -0.0574 J 0.0000 F 3500.0000
G03 X 18.0414 Y 33.1869 Z -1.0000 I -0.0406 J -0.0406
G03 X 18.0008 Y 33.1700 Z -1.0000 I 0.0000 J -0.0574
G03 X 17.9840 Y 33.1295 Z -1.0000 I 0.0406 J -0.0406
G03 X 18.0008 Y 33.0889 Z -1.0000 I 0.0574 J 0.0000
G03 X 18.0414 Y 33.0720 Z -1.0000 I 0.0406 J 0.0406
G03 X 18.0819 Y 33.0889 Z -1.0000 I -0.0000 J 0.0574
G03 X 18.0988 Y 33.1295 Z -1.0000 I -0.0406 J 0.0406
G01 X 18.0988 Y 33.1295 Z -1.0000
G00 Z 5.0000

(End cutting path id: path65645)


(Start cutting path id: path65645)
(Change tool to Default tool)

G00 Z 5.0000
G00 X 18.0806 Y 34.1161

G01 Z -1.0000 F 100.0000(Penetrate)
G01 X 18.0627 Y 34.1198 Z -1.0000 F 3500.0000
G03 X 18.0459 Y 34.0814 Z -1.0000 I 0.0407 J -0.0407
G03 X 18.0582 Y 34.0097 Z -1.0000 I 0.1735 J -0.0072
G01 X 18.0760 Y 34.0061 Z -1.0000
G03 X 18.0929 Y 34.0444 Z -1.0000 I -0.0407 J 0.0407
G03 X 18.0805 Y 34.1161 Z -1.0000 I -0.1734 J 0.0071
G01 X 18.0806 Y 34.1161 Z -1.0000
G00 Z 5.0000

(End cutting path id: path65645)


(Start cutting path id: path65645)
(Change tool to Default tool)

G00 Z 5.0000
G00 X 18.1244 Y 35.4306

G01 Z -1.0000 F 100.0000(Penetrate)
G03 X 18.0847 Y 35.4592 Z -1.0000 I -0.0544 J -0.0336 F 3500.0000
G03 X 18.0364 Y 35.4513 Z -1.0000 I -0.0147 J -0.0622
G03 X 18.0078 Y 35.4116 Z -1.0000 I 0.0336 J -0.0544
G03 X 18.0157 Y 35.3633 Z -1.0000 I 0.0622 J -0.0147
G03 X 18.0554 Y 35.3347 Z -1.0000 I 0.0544 J 0.0336
G03 X 18.1037 Y 35.3426 Z -1.0000 I 0.0147 J 0.0622
G03 X 18.1323 Y 35.3823 Z -1.0000 I -0.0336 J 0.0544
G03 X 18.1244 Y 35.4306 Z -1.0000 I -0.0622 J 0.0147
G01 X 18.1244 Y 35.4306 Z -1.0000
G00 Z 5.0000

(End cutting path id: path65645)


(Start cutting path id: path65645)
(Change tool to Default tool)

G00 Z 5.0000
G00 X 25.1022 Y 37.9802

G01 Z -1.0000 F 100.0000(Penetrate)
G03 X 25.0821 Y 38.0463 Z -1.0000 I -0.1192 J 0.0000 F 3500.0000
G01 X 25.0448 Y 38.0663 Z -1.0000
G01 X 25.0074 Y 38.0463 Z -1.0000
G03 X 24.9874 Y 37.9802 Z -1.0000 I 0.0992 J -0.0661
G03 X 25.0074 Y 37.9141 Z -1.0000 I 0.1192 J 0.0000
G01 X 25.0448 Y 37.8941 Z -1.0000
G01 X 25.0821 Y 37.9141 Z -1.0000
G03 X 25.1022 Y 37.9802 Z -1.0000 I -0.0992 J 0.0661
G01 X 25.1022 Y 37.9802 Z -1.0000
G00 Z 5.0000

(End cutting path id: path65645)


(Start cutting path id: path65645)
(Change tool to Default tool)

G00 Z 5.0000
G00 X 25.8484 Y 37.9168

G01 Z -1.0000 F 100.0000(Penetrate)
G01 X 25.8132 Y 37.9621 Z -1.0000 F 3500.0000
G03 X 25.5183 Y 38.0001 Z -1.0000 I -0.3064 J -1.2153
G03 X 25.2964 Y 37.9739 Z -1.0000 I -0.0082 J -0.8853
G01 X 25.2922 Y 37.9438 Z -1.0000
G03 X 25.3978 Y 37.9057 Z -1.0000 I 0.1621 J 0.2840
G03 X 25.4696 Y 37.9126 Z -1.0000 I 0.0234 J 0.1333
G02 X 25.5411 Y 37.9205 Z -1.0000 I 0.0506 J -0.1319
G02 X 25.6240 Y 37.8896 Z -1.0000 I -0.0316 J -0.2117
G03 X 25.7909 Y 37.8520 Z -1.0000 I 0.1363 J 0.2153
G03 X 25.8484 Y 37.9168 Z -1.0000 I -0.0079 J 0.0649
G01 X 25.8484 Y 37.9168 Z -1.0000
G00 Z 5.0000

(End cutting path id: path65645)


(Start cutting path id: path65645)
(Change tool to Default tool)

G00 Z 5.0000
G00 X 24.6169 Y 29.5747

G01 Z -1.0000 F 100.0000(Penetrate)
G01 X 24.6024 Y 29.6014 Z -1.0000 F 3500.0000
G03 X 21.5177 Y 29.6278 Z -1.0000 I -3.0846 J -180.2375
G03 X 18.4133 Y 29.6002 Z -1.0000 I -0.0000 J -174.9771
G01 X 18.3858 Y 29.5722 Z -1.0000
G01 X 18.4220 Y 29.5356 Z -1.0000
G03 X 21.4843 Y 29.5184 Z -1.0000 I 2.9571 J 254.6942
G03 X 24.5519 Y 29.5380 Z -1.0000 I -0.1064 J 257.4421
G03 X 24.6169 Y 29.5748 Z -1.0000 I -0.0010 J 0.0776
G01 X 24.6169 Y 29.5747 Z -1.0000
G00 Z 5.0000

(End cutting path id: path65645)



(Footer)
M5
G00 X0.0000 Y0.0000
M2
(Using default footer. To add your own footer create file "footer" in the output dir.)
(end)
%