%
(Header)
(Generated by gcodetools from Inkscape.)
(Using default header. To add your own header create file "header" in the output dir.)
M3
(Header end.)
G21 (All units in mm)

(Start cutting path id: path67503)
(Change tool to Default tool)

G00 Z 5.0000
G00 X 18.5510 Y 22.4809

G01 Z -1.0000 F 100.0000(Penetrate)
G01 X 18.5208 Y 22.5124 Z -1.0000 F 3500.0000
G02 X 18.5333 Y 22.5914 Z -1.0000 I 0.1273 J 0.0203
G03 X 18.6841 Y 22.9145 Z -1.0000 I -4.3814 J 2.2411
G03 X 18.6967 Y 22.9774 Z -1.0000 I -0.1465 J 0.0620
G01 X 18.6888 Y 22.9963 Z -1.0000
G02 X 18.4490 Y 22.8711 Z -1.0000 I -0.2419 J 0.1711
G02 X 18.1089 Y 22.9928 Z -1.0000 I -0.0036 J 0.5258
G01 X 18.0976 Y 22.9967 Z -1.0000
G01 X 18.0899 Y 22.9923 Z -1.0000
G02 X 18.0249 Y 22.9561 Z -1.0000 I -0.0650 J 0.0401
G02 X 17.0276 Y 22.9923 Z -1.0000 I 0.0003 J 13.7523
G03 X 16.7240 Y 23.0118 Z -1.0000 I -1.2926 J -17.7949
G03 X 16.6502 Y 23.0133 Z -1.0000 I -0.0575 J -1.0361
G02 X 16.6272 Y 23.0155 Z -1.0000 I -0.0016 J 0.1037
G02 X 16.5973 Y 23.0244 Z -1.0000 I 0.0381 J 0.1810
G03 X 16.5671 Y 23.0321 Z -1.0000 I -0.0458 J -0.1174
G03 X 16.4306 Y 23.0451 Z -1.0000 I -0.2956 J -2.3710
G02 X 16.1568 Y 23.0777 Z -1.0000 I 0.1772 J 2.6576
G01 X 16.1374 Y 23.0955 Z -1.0000
G03 X 16.0945 Y 23.1470 Z -1.0000 I -0.0766 J -0.0201
G01 X 16.0661 Y 23.1290 Z -1.0000
G01 X 16.0698 Y 23.1229 Z -1.0000
G03 X 16.0898 Y 23.1163 Z -1.0000 I 0.0286 J 0.0534
G01 X 16.1090 Y 23.1083 Z -1.0000
G01 X 16.1167 Y 23.0959 Z -1.0000
G01 X 16.1103 Y 23.0864 Z -1.0000
G02 X 15.9953 Y 23.0711 Z -1.0000 I -0.1677 J 0.8182
G02 X 15.5049 Y 23.0573 Z -1.0000 I -0.4412 J 6.9895
G02 X 14.9990 Y 23.0780 Z -1.0000 I 0.0527 J 7.5005
G03 X 14.8457 Y 23.0863 Z -1.0000 I -0.2828 J -3.7820
G03 X 14.6276 Y 23.0906 Z -1.0000 I -0.2600 J -7.6124
G01 X 14.4203 Y 23.0986 Z -1.0000
G01 X 14.4217 Y 23.1056 Z -1.0000
G03 X 14.4024 Y 23.1243 Z -1.0000 I -0.0583 J -0.0408
G03 X 14.3737 Y 23.1351 Z -1.0000 I -0.0383 J -0.0584
G01 X 14.3561 Y 23.1307 Z -1.0000
G02 X 14.2996 Y 23.1007 Z -1.0000 I -0.1403 J 0.1955
G01 X 14.2803 Y 23.1026 Z -1.0000
G01 X 14.2764 Y 23.1100 Z -1.0000
G02 X 14.2822 Y 23.1397 Z -1.0000 I 0.1082 J -0.0057
G01 X 14.2833 Y 23.1685 Z -1.0000
G01 X 14.2684 Y 23.1920 Z -1.0000
G03 X 14.2356 Y 23.2089 Z -1.0000 I -0.0546 J -0.0655
G01 X 14.2231 Y 23.2039 Z -1.0000
G01 X 14.2243 Y 23.1973 Z -1.0000
G03 X 14.2436 Y 23.1879 Z -1.0000 I 0.0319 J 0.0408
G02 X 14.2650 Y 23.1774 Z -1.0000 I -0.0138 J -0.0556
G01 X 14.2700 Y 23.1674 Z -1.0000
G01 X 14.2597 Y 23.1499 Z -1.0000
G01 X 14.2415 Y 23.1516 Z -1.0000
G01 X 14.2256 Y 23.1596 Z -1.0000
G03 X 14.1956 Y 23.1628 Z -1.0000 I -0.0267 J -0.1091
G02 X 14.1700 Y 23.1678 Z -1.0000 I -0.0017 J 0.0599
G01 X 14.1643 Y 23.1765 Z -1.0000
G01 X 14.1610 Y 23.1892 Z -1.0000
G01 X 14.1521 Y 23.1985 Z -1.0000
G01 X 14.1480 Y 23.1980 Z -1.0000
G01 X 14.1475 Y 23.1938 Z -1.0000
G01 X 14.1480 Y 23.1839 Z -1.0000
G01 X 14.1386 Y 23.1752 Z -1.0000
G01 X 14.1221 Y 23.1549 Z -1.0000
G01 X 14.1326 Y 23.1377 Z -1.0000
G01 X 13.9768 Y 23.1313 Z -1.0000
G02 X 13.6033 Y 23.1420 Z -1.0000 I -0.0698 J 4.0703
G02 X 13.5207 Y 23.1654 Z -1.0000 I 0.0160 J 0.2142
G03 X 13.4864 Y 23.1759 Z -1.0000 I -0.0459 J -0.0888
G03 X 13.3798 Y 23.1819 Z -1.0000 I -0.1033 J -0.8807
G03 X 13.2717 Y 23.1805 Z -1.0000 I 0.0207 J -5.4721
G03 X 13.2505 Y 23.1789 Z -1.0000 I 0.0052 J -0.2206
G01 X 13.2376 Y 23.1857 Z -1.0000
G02 X 13.2293 Y 23.2186 Z -1.0000 I 0.0620 J 0.0330
G03 X 13.2208 Y 23.2562 Z -1.0000 I -0.0864 J 0.0000
G03 X 13.2000 Y 23.2794 Z -1.0000 I -0.0508 J -0.0245
G03 X 13.1701 Y 23.2957 Z -1.0000 I -0.1443 J -0.2287
G01 X 13.1604 Y 23.2979 Z -1.0000
G01 X 13.1302 Y 23.2655 Z -1.0000
G03 X 13.1659 Y 23.2172 Z -1.0000 I 0.0558 J 0.0039
G01 X 13.1787 Y 23.2090 Z -1.0000
G01 X 13.1817 Y 23.2017 Z -1.0000
G01 X 13.1701 Y 23.1903 Z -1.0000
G02 X 12.9018 Y 23.2080 Z -1.0000 I 0.0697 J 3.1001
G02 X 12.0647 Y 23.3047 Z -1.0000 I 7.7846 J 71.0256
G02 X 12.0430 Y 23.3123 Z -1.0000 I 0.0065 J 0.0534
G03 X 12.0163 Y 23.3215 Z -1.0000 I -0.0341 J -0.0555
G03 X 11.8498 Y 23.3345 Z -1.0000 I -0.2588 J -2.2407
G02 X 11.8023 Y 23.3393 Z -1.0000 I 0.0168 J 0.4043
G01 X 11.7890 Y 23.3442 Z -1.0000
G01 X 11.7803 Y 23.3453 Z -1.0000
G01 X 11.7766 Y 23.3401 Z -1.0000
G01 X 11.7728 Y 23.3351 Z -1.0000
G01 X 11.7637 Y 23.3362 Z -1.0000
G03 X 11.6344 Y 23.3739 Z -1.0000 I -0.1325 J -0.2143
G01 X 11.6141 Y 23.3380 Z -1.0000
G01 X 11.6129 Y 23.3331 Z -1.0000
G01 X 11.6002 Y 23.3293 Z -1.0000
G03 X 11.5812 Y 23.3282 Z -1.0000 I 0.0011 J -0.1755
G03 X 11.5398 Y 23.3224 Z -1.0000 I 0.1020 J -0.8851
G02 X 11.5076 Y 23.3217 Z -1.0000 I -0.0190 J 0.1137
G01 X 11.5053 Y 23.3264 Z -1.0000
G01 X 11.5028 Y 23.3310 Z -1.0000
G03 X 11.4635 Y 23.3281 Z -1.0000 I -0.0069 J -0.1758
G02 X 11.4157 Y 23.3228 Z -1.0000 I -0.0599 J 0.3191
G01 X 11.4040 Y 23.3259 Z -1.0000
G01 X 11.4003 Y 23.3254 Z -1.0000
G01 X 11.4000 Y 23.3214 Z -1.0000
G01 X 11.3973 Y 23.3146 Z -1.0000
G02 X 11.3124 Y 23.2967 Z -1.0000 I -0.1757 J 0.6235
G03 X 11.2249 Y 23.2800 Z -1.0000 I 0.1319 J -0.9275
G01 X 11.2229 Y 23.2751 Z -1.0000
G01 X 11.2212 Y 23.2708 Z -1.0000
G02 X 11.1985 Y 23.2676 Z -1.0000 I -0.0210 J 0.0679
G03 X 11.0748 Y 23.2589 Z -1.0000 I -0.0164 J -0.6474
G03 X 11.0346 Y 23.2401 Z -1.0000 I 0.0137 J -0.0818
G02 X 11.0133 Y 23.2289 Z -1.0000 I -0.0352 J 0.0411
G01 X 10.9940 Y 23.2294 Z -1.0000
G01 X 10.9735 Y 23.2312 Z -1.0000
G03 X 10.9151 Y 23.2189 Z -1.0000 I 0.0515 J -0.3891
G02 X 10.8573 Y 23.2062 Z -1.0000 I -0.1251 J 0.4321
G01 X 10.8460 Y 23.2085 Z -1.0000
G01 X 10.8356 Y 23.2105 Z -1.0000
G01 X 10.8226 Y 23.2047 Z -1.0000
G01 X 10.8083 Y 23.1981 Z -1.0000
G02 X 10.6989 Y 23.1816 Z -1.0000 I -0.2899 J 1.5501
G03 X 10.5629 Y 23.1625 Z -1.0000 I 0.3251 J -2.8186
G03 X 10.5358 Y 23.1547 Z -1.0000 I 0.0195 J -0.1182
G01 X 10.5184 Y 23.1528 Z -1.0000
G01 X 10.5109 Y 23.1592 Z -1.0000
G01 X 10.5042 Y 23.1636 Z -1.0000
G01 X 10.4892 Y 23.1572 Z -1.0000
G02 X 10.4615 Y 23.1443 Z -1.0000 I -0.0363 J 0.0418
G02 X 10.2695 Y 23.1226 Z -1.0000 I -0.3453 J 2.1929
G03 X 10.2260 Y 23.1175 Z -1.0000 I 0.0338 J -0.4788
G03 X 10.1850 Y 23.1088 Z -1.0000 I 0.0700 J -0.4291
G02 X 10.1438 Y 23.1004 Z -1.0000 I -0.0960 J 0.3643
G02 X 10.0386 Y 23.0873 Z -1.0000 I -0.3440 J 2.3341
G03 X 9.9332 Y 23.0749 Z -1.0000 I 0.3479 J -3.4269
G03 X 9.8770 Y 23.0658 Z -1.0000 I 0.1323 J -0.9964
G02 X 9.8210 Y 23.0564 Z -1.0000 I -0.2293 J 1.1968
G01 X 9.8136 Y 23.0567 Z -1.0000
G01 X 9.8061 Y 23.0572 Z -1.0000
G03 X 9.7586 Y 23.0514 Z -1.0000 I 0.0968 J -0.9986
G02 X 9.7110 Y 23.0456 Z -1.0000 I -0.1574 J 1.0832
G02 X 9.6266 Y 23.0382 Z -1.0000 I -0.3097 J 3.0735
G03 X 9.5420 Y 23.0319 Z -1.0000 I 2.8907 J -39.5239
G03 X 9.4998 Y 23.0287 Z -1.0000 I 1.4879 J -19.7632
G02 X 9.1728 Y 23.0158 Z -1.0000 I -0.3327 J 4.2833
G02 X 8.9028 Y 23.0280 Z -1.0000 I -0.0039 J 2.9080
G03 X 8.8658 Y 23.0309 Z -1.0000 I -0.1125 J -1.2046
G03 X 8.7391 Y 23.0383 Z -1.0000 I -1.0442 J -16.6962
G02 X 8.6125 Y 23.0475 Z -1.0000 I 0.1958 J 3.5939
G02 X 8.5489 Y 23.0554 Z -1.0000 I 0.0836 J 0.9294
G03 X 8.4853 Y 23.0629 Z -1.0000 I -0.1226 J -0.7630
G03 X 8.3429 Y 23.0712 Z -1.0000 I -0.2985 J -3.9057
G02 X 8.0673 Y 23.0833 Z -1.0000 I 1.4925 J 37.2883
G02 X 8.0447 Y 23.0854 Z -1.0000 I 0.0115 J 0.2421
G01 X 8.0413 Y 23.0889 Z -1.0000
G01 X 8.0430 Y 23.1018 Z -1.0000
G01 X 8.0395 Y 23.1077 Z -1.0000
G01 X 8.0183 Y 23.1055 Z -1.0000
G02 X 7.9323 Y 23.0972 Z -1.0000 I -0.0583 J 0.1543
G01 X 7.9097 Y 23.1239 Z -1.0000
G01 X 7.9045 Y 23.1341 Z -1.0000
G01 X 7.8886 Y 23.1393 Z -1.0000
G01 X 7.8715 Y 23.1352 Z -1.0000
G01 X 7.8674 Y 23.1287 Z -1.0000
G01 X 7.8644 Y 23.1213 Z -1.0000
G01 X 7.8569 Y 23.1182 Z -1.0000
G01 X 7.8501 Y 23.1219 Z -1.0000
G01 X 7.8463 Y 23.1348 Z -1.0000
G01 X 7.8398 Y 23.1435 Z -1.0000
G03 X 7.8139 Y 23.1444 Z -1.0000 I -0.0148 J -0.0500
G01 X 7.7972 Y 23.1484 Z -1.0000
G01 X 7.7953 Y 23.1595 Z -1.0000
G02 X 7.8116 Y 23.1774 Z -1.0000 I 0.0581 J -0.0363
G01 X 7.8251 Y 23.1824 Z -1.0000
G01 X 7.8120 Y 23.1939 Z -1.0000
G02 X 7.7867 Y 23.2071 Z -1.0000 I 0.0363 J 0.1000
G01 X 7.7829 Y 23.2144 Z -1.0000
G01 X 7.7792 Y 23.2219 Z -1.0000
G03 X 7.7565 Y 23.2344 Z -1.0000 I -0.0555 J -0.0735
G01 X 7.7354 Y 23.2547 Z -1.0000
G01 X 7.7407 Y 23.2714 Z -1.0000
G01 X 7.7454 Y 23.2948 Z -1.0000
G03 X 7.7039 Y 23.3232 Z -1.0000 I -0.0593 J -0.0421
G03 X 7.6777 Y 23.3243 Z -1.0000 I -0.0158 J -0.0627
G03 X 7.6459 Y 23.3138 Z -1.0000 I 0.0171 J -0.1051
G02 X 7.6147 Y 23.3089 Z -1.0000 I -0.0230 J 0.0444
G02 X 7.5523 Y 23.3295 Z -1.0000 I 0.0356 J 0.2135
G03 X 7.4888 Y 23.3583 Z -1.0000 I -0.3597 J -0.7078
G03 X 7.4570 Y 23.3678 Z -1.0000 I -0.0671 J -0.1668
G02 X 7.4263 Y 23.3779 Z -1.0000 I 0.0260 J 0.1305
G01 X 7.4121 Y 23.3889 Z -1.0000
G01 X 7.3982 Y 23.3996 Z -1.0000
G01 X 7.3809 Y 23.4035 Z -1.0000
G02 X 7.3272 Y 23.4275 Z -1.0000 I 0.0000 J 0.0721
G01 X 7.3237 Y 23.4674 Z -1.0000
G01 X 7.3173 Y 23.4796 Z -1.0000
G01 X 7.2904 Y 23.4696 Z -1.0000
G01 X 7.2814 Y 23.4660 Z -1.0000
G01 X 7.2788 Y 23.4699 Z -1.0000
G01 X 7.2745 Y 23.4797 Z -1.0000
G03 X 7.2439 Y 23.4836 Z -1.0000 I -0.0230 J -0.0584
G02 X 7.2101 Y 23.4883 Z -1.0000 I -0.0080 J 0.0667
G01 X 7.2006 Y 23.5018 Z -1.0000
G01 X 7.1945 Y 23.5065 Z -1.0000
G01 X 7.1827 Y 23.4965 Z -1.0000
G02 X 7.1460 Y 23.5025 Z -1.0000 I -0.0062 J 0.0771
G02 X 7.0719 Y 23.5543 Z -1.0000 I 0.0884 J 0.2056
G02 X 6.9966 Y 23.6604 Z -1.0000 I 0.3363 J 0.3182
G03 X 6.9748 Y 23.6900 Z -1.0000 I -0.1021 J -0.0526
G01 X 6.9664 Y 23.6899 Z -1.0000
G01 X 6.9552 Y 23.6855 Z -1.0000
G02 X 6.9238 Y 23.6914 Z -1.0000 I 0.0039 J 0.1071
G02 X 6.8306 Y 23.7384 Z -1.0000 I 0.1311 J 0.3760
G01 X 6.8290 Y 23.7560 Z -1.0000
G01 X 6.8194 Y 23.7626 Z -1.0000
G01 X 6.8056 Y 23.7677 Z -1.0000
G02 X 6.7630 Y 23.8100 Z -1.0000 I 0.2312 J 0.2757
G02 X 6.7148 Y 23.8791 Z -1.0000 I 0.3314 J 0.2825
G01 X 6.7134 Y 23.8982 Z -1.0000
G01 X 6.7113 Y 23.9060 Z -1.0000
G01 X 6.7018 Y 23.9074 Z -1.0000
G01 X 6.6879 Y 23.9060 Z -1.0000
G01 X 6.6841 Y 23.9104 Z -1.0000
G01 X 6.6813 Y 23.9191 Z -1.0000
G03 X 6.6568 Y 23.9475 Z -1.0000 I -0.2026 J -0.1496
G02 X 6.6358 Y 23.9763 Z -1.0000 I 0.0812 J 0.0812
G01 X 6.6351 Y 23.9898 Z -1.0000
G01 X 6.6342 Y 23.9981 Z -1.0000
G01 X 6.6281 Y 24.0001 Z -1.0000
G01 X 6.6008 Y 24.0059 Z -1.0000
G02 X 6.5749 Y 24.0499 Z -1.0000 I 0.0615 J 0.0658
G01 X 6.5626 Y 24.0711 Z -1.0000
G01 X 6.5468 Y 24.0767 Z -1.0000
G01 X 6.5292 Y 24.0718 Z -1.0000
G01 X 6.5257 Y 24.0661 Z -1.0000
G01 X 6.5098 Y 24.0729 Z -1.0000
G02 X 6.4972 Y 24.0901 Z -1.0000 I 0.0485 J 0.0486
G01 X 6.4940 Y 24.1036 Z -1.0000
G01 X 6.4882 Y 24.1143 Z -1.0000
G03 X 6.4517 Y 24.1312 Z -1.0000 I -0.0769 J -0.1181
G02 X 6.4134 Y 24.1468 Z -1.0000 I 0.0635 J 0.2108
G01 X 6.4094 Y 24.1533 Z -1.0000
G01 X 6.4061 Y 24.1603 Z -1.0000
G01 X 6.3901 Y 24.1689 Z -1.0000
G02 X 6.3350 Y 24.2080 Z -1.0000 I 0.0333 J 0.1054
G02 X 6.3144 Y 24.2699 Z -1.0000 I 0.0826 J 0.0619
G01 X 6.3119 Y 24.2769 Z -1.0000
G01 X 6.3044 Y 24.2822 Z -1.0000
G01 X 6.2962 Y 24.2878 Z -1.0000
G02 X 6.2699 Y 24.3223 Z -1.0000 I 0.2789 J 0.2394
G03 X 6.2410 Y 24.3514 Z -1.0000 I -0.0893 J -0.0600
G03 X 6.2134 Y 24.3606 Z -1.0000 I -0.0302 J -0.0446
G02 X 6.1825 Y 24.3660 Z -1.0000 I 0.0065 J 0.1293
G02 X 6.1133 Y 24.3909 Z -1.0000 I 0.2055 J 0.6798
G03 X 5.8507 Y 24.4609 Z -1.0000 I -0.3854 J -0.9185
G03 X 5.6864 Y 24.4440 Z -1.0000 I -0.0454 J -0.3652
G02 X 5.6337 Y 24.4288 Z -1.0000 I -0.1812 J 0.5301
G02 X 5.5755 Y 24.4178 Z -1.0000 I -0.1507 J 0.6396
G03 X 5.5179 Y 24.4052 Z -1.0000 I 0.0562 J -0.3955
G03 X 5.4586 Y 24.3830 Z -1.0000 I 0.1314 J -0.4420
G02 X 5.3994 Y 24.3598 Z -1.0000 I -0.2542 J 0.5594
G02 X 5.3397 Y 24.3433 Z -1.0000 I -0.1853 J 0.5538
G03 X 5.2850 Y 24.3250 Z -1.0000 I 0.0601 J -0.2717
G01 X 5.2790 Y 24.3157 Z -1.0000
G01 X 5.2888 Y 24.3041 Z -1.0000
G01 X 5.3050 Y 24.3114 Z -1.0000
G01 X 5.3304 Y 24.3198 Z -1.0000
G01 X 5.3492 Y 24.2939 Z -1.0000
G01 X 5.3411 Y 24.2800 Z -1.0000
G01 X 5.3122 Y 24.2757 Z -1.0000
G02 X 5.2489 Y 24.2939 Z -1.0000 I 0.0489 J 0.2906
G01 X 5.2482 Y 24.3021 Z -1.0000
G01 X 5.2493 Y 24.3128 Z -1.0000
G03 X 5.2208 Y 24.3278 Z -1.0000 I -0.0412 J -0.0439
G01 X 5.2099 Y 24.3247 Z -1.0000
G01 X 5.2102 Y 24.3177 Z -1.0000
G01 X 5.2201 Y 24.3012 Z -1.0000
G01 X 5.2155 Y 24.2904 Z -1.0000
G01 X 5.1990 Y 24.2839 Z -1.0000
G01 X 5.1812 Y 24.2845 Z -1.0000
G01 X 5.1677 Y 24.2809 Z -1.0000
G01 X 5.1622 Y 24.2699 Z -1.0000
G02 X 4.8722 Y 24.2533 Z -1.0000 I -0.3767 J 4.0418
G02 X 4.7365 Y 24.2590 Z -1.0000 I -0.0231 J 1.0806
G02 X 4.6814 Y 24.2733 Z -1.0000 I 0.0198 J 0.1892
G02 X 4.6034 Y 24.3235 Z -1.0000 I 0.1095 J 0.2556
G01 X 4.5880 Y 24.3586 Z -1.0000
G01 X 4.5759 Y 24.3845 Z -1.0000
G03 X 4.5431 Y 24.3966 Z -1.0000 I -0.0329 J -0.0388
G02 X 4.4267 Y 24.4182 Z -1.0000 I 0.0000 J 0.3248
G02 X 4.3228 Y 24.4811 Z -1.0000 I 0.1227 J 0.3197
G02 X 4.2548 Y 24.5453 Z -1.0000 I 0.9357 J 1.0599
G02 X 4.2243 Y 24.5804 Z -1.0000 I 0.2492 J 0.2473
G03 X 4.1946 Y 24.6150 Z -1.0000 I -0.3024 J -0.2292
G01 X 4.1878 Y 24.6181 Z -1.0000
G01 X 4.1802 Y 24.6203 Z -1.0000
G02 X 4.1111 Y 24.6617 Z -1.0000 I 0.8678 J 1.5246
G03 X 4.0404 Y 24.6989 Z -1.0000 I -0.2673 J -0.4233
G03 X 3.9978 Y 24.7101 Z -1.0000 I -0.0599 J -0.1403
G02 X 3.9114 Y 24.7313 Z -1.0000 I 0.0398 J 0.3497
G02 X 3.8721 Y 24.7584 Z -1.0000 I 0.0365 J 0.0950
G03 X 3.8522 Y 24.7739 Z -1.0000 I -0.0528 J -0.0473
G03 X 3.8245 Y 24.7834 Z -1.0000 I -0.0446 J -0.0848
G02 X 3.7761 Y 24.8030 Z -1.0000 I 0.0223 J 0.1242
G02 X 3.7082 Y 24.8621 Z -1.0000 I 0.2096 J 0.3098
G03 X 3.6549 Y 24.9008 Z -1.0000 I -0.1185 J -0.1071
G01 X 3.6413 Y 24.8920 Z -1.0000
G01 X 3.6372 Y 24.8864 Z -1.0000
G01 X 3.6242 Y 24.8869 Z -1.0000
G01 X 3.6151 Y 24.8846 Z -1.0000
G01 X 3.6125 Y 24.8729 Z -1.0000
G01 X 3.6126 Y 24.8532 Z -1.0000
G02 X 3.6017 Y 24.8293 Z -1.0000 I -0.0695 J 0.0171
G03 X 3.5800 Y 24.7630 Z -1.0000 I 0.0987 J -0.0691
G03 X 3.5989 Y 24.7085 Z -1.0000 I 0.0823 J -0.0019
G01 X 3.6144 Y 24.6970 Z -1.0000
G03 X 3.6368 Y 24.6924 Z -1.0000 I 0.0225 J 0.0531
G02 X 3.7034 Y 24.6778 Z -1.0000 I -0.0000 J -0.1592
G01 X 3.7091 Y 24.6592 Z -1.0000
G01 X 3.6711 Y 24.6414 Z -1.0000
G02 X 3.6104 Y 24.6730 Z -1.0000 I 0.0141 J 0.1014
G01 X 3.5915 Y 24.6834 Z -1.0000
G01 X 3.5824 Y 24.6783 Z -1.0000
G01 X 3.5335 Y 24.6578 Z -1.0000
G02 X 3.4507 Y 24.7356 Z -1.0000 I 0.0672 J 0.1544
G03 X 3.4273 Y 24.7730 Z -1.0000 I -0.2258 J -0.1152
G03 X 3.4097 Y 24.7900 Z -1.0000 I -0.0626 J -0.0472
G02 X 3.3530 Y 24.8525 Z -1.0000 I 0.1094 J 0.1562
G02 X 3.2869 Y 25.0075 Z -1.0000 I 0.6638 J 0.3748
G02 X 3.2624 Y 25.1492 Z -1.0000 I 0.5686 J 0.1711
G02 X 3.2714 Y 25.3201 Z -1.0000 I 0.8398 J 0.0416
G03 X 3.2722 Y 25.4055 Z -1.0000 I -0.2912 J 0.0453
G03 X 3.2460 Y 25.5051 Z -1.0000 I -0.4258 J -0.0584
G02 X 3.2208 Y 25.6055 Z -1.0000 I 0.3714 J 0.1469
G02 X 3.2176 Y 25.7475 Z -1.0000 I 0.7479 J 0.0877
G02 X 3.2307 Y 25.8912 Z -1.0000 I 3.8102 J -0.2754
G02 X 3.2388 Y 25.9392 Z -1.0000 I 0.4315 J -0.0476
G03 X 3.2472 Y 25.9870 Z -1.0000 I -0.4925 J 0.1111
G03 X 3.2501 Y 26.0290 Z -1.0000 I -0.3756 J 0.0475
G02 X 3.2839 Y 26.1679 Z -1.0000 I 0.3219 J -0.0047
G02 X 3.3996 Y 26.3289 Z -1.0000 I 0.5541 J -0.2762
G02 X 3.5600 Y 26.4498 Z -1.0000 I 0.5068 J -0.5054
G02 X 3.6691 Y 26.4780 Z -1.0000 I 0.1091 J -0.1972
G01 X 3.6870 Y 26.4852 Z -1.0000
G01 X 3.6941 Y 26.5018 Z -1.0000
G01 X 3.6858 Y 26.5211 Z -1.0000
G03 X 3.6110 Y 26.5816 Z -1.0000 I -0.3892 J -0.4053
G02 X 3.5069 Y 26.6702 Z -1.0000 I 0.3435 J 0.5089
G02 X 3.4563 Y 26.7463 Z -1.0000 I 0.1997 J 0.1875
G03 X 3.4269 Y 26.7954 Z -1.0000 I -0.2161 J -0.0962
G03 X 3.3995 Y 26.8193 Z -1.0000 I -0.0755 J -0.0588
G02 X 3.3750 Y 26.8469 Z -1.0000 I 0.0297 J 0.0512
G01 X 3.3825 Y 26.8583 Z -1.0000
G01 X 3.3941 Y 26.8626 Z -1.0000
G01 X 3.3983 Y 26.8719 Z -1.0000
G02 X 3.4239 Y 26.9164 Z -1.0000 I 0.0515 J 0.0000
G01 X 3.4734 Y 26.9158 Z -1.0000
G03 X 3.5512 Y 26.9134 Z -1.0000 I 0.0409 J 0.0662
G03 X 3.5855 Y 26.9760 Z -1.0000 I -0.0310 J 0.0577
G01 X 3.5808 Y 26.9922 Z -1.0000
G01 X 3.5751 Y 26.9957 Z -1.0000
G01 X 3.5715 Y 26.9987 Z -1.0000
G01 X 3.5731 Y 27.0070 Z -1.0000
G01 X 3.5825 Y 27.0136 Z -1.0000
G02 X 3.6186 Y 27.0165 Z -1.0000 I 0.0293 J -0.1396
G03 X 3.6959 Y 27.0199 Z -1.0000 I 0.0197 J 0.4322
G01 X 3.6994 Y 27.0273 Z -1.0000
G01 X 3.6991 Y 27.0344 Z -1.0000
G01 X 3.7047 Y 27.0379 Z -1.0000
G01 X 3.7111 Y 27.0410 Z -1.0000
G01 X 3.7114 Y 27.0463 Z -1.0000
G01 X 3.7132 Y 27.0850 Z -1.0000
G02 X 3.7861 Y 27.1446 Z -1.0000 I 0.1609 J -0.1223
G03 X 3.8317 Y 27.1702 Z -1.0000 I -0.1895 J 0.3914
G03 X 3.8599 Y 27.1920 Z -1.0000 I -0.1095 J 0.1705
G03 X 3.8756 Y 27.2199 Z -1.0000 I -0.0357 J 0.0385
G03 X 3.8755 Y 27.2671 Z -1.0000 I -0.1122 J 0.0233
G02 X 3.8734 Y 27.3164 Z -1.0000 I 0.1438 J 0.0307
G02 X 3.8870 Y 27.3574 Z -1.0000 I 0.1119 J -0.0143
G01 X 3.9140 Y 27.3794 Z -1.0000
G01 X 3.9450 Y 27.3759 Z -1.0000
G03 X 3.9796 Y 27.3643 Z -1.0000 I 0.0444 J 0.0753
G01 X 3.9961 Y 27.3701 Z -1.0000
G01 X 4.0044 Y 27.3875 Z -1.0000
G03 X 4.0019 Y 27.4279 Z -1.0000 I -0.1263 J 0.0126
G02 X 4.0017 Y 27.4651 Z -1.0000 I 0.0849 J 0.0191
G01 X 4.0123 Y 27.4768 Z -1.0000
G02 X 4.0322 Y 27.4798 Z -1.0000 I 0.0193 J -0.0604
G02 X 4.0534 Y 27.4764 Z -1.0000 I -0.0008 J -0.0725
G01 X 4.0700 Y 27.4877 Z -1.0000
G03 X 4.0568 Y 27.5260 Z -1.0000 I -0.0516 J 0.0036
G01 X 4.0469 Y 27.5454 Z -1.0000
G01 X 4.0503 Y 27.5567 Z -1.0000
G01 X 4.0545 Y 27.5691 Z -1.0000
G03 X 4.0452 Y 27.6005 Z -1.0000 I -0.0942 J -0.0109
G02 X 4.0404 Y 27.6306 Z -1.0000 I 0.0456 J 0.0228
G01 X 4.0527 Y 27.6523 Z -1.0000
G02 X 4.1196 Y 27.6840 Z -1.0000 I 0.0989 J -0.1222
G02 X 4.1938 Y 27.6817 Z -1.0000 I 0.0322 J -0.1546
G03 X 4.2327 Y 27.6744 Z -1.0000 I 0.0620 J 0.2239
G01 X 4.2429 Y 27.6768 Z -1.0000
G01 X 4.2868 Y 27.6803 Z -1.0000
G01 X 4.3069 Y 27.6503 Z -1.0000
G01 X 4.3100 Y 27.6447 Z -1.0000
G03 X 4.3389 Y 27.6295 Z -1.0000 I 0.0970 J 0.1491
G03 X 4.3694 Y 27.6247 Z -1.0000 I 0.0253 J 0.0611
G01 X 4.3899 Y 27.6335 Z -1.0000
G02 X 4.4103 Y 27.6472 Z -1.0000 I 0.0577 J -0.0636
G01 X 4.4256 Y 27.6507 Z -1.0000
G02 X 4.4967 Y 27.6422 Z -1.0000 I 0.0000 J -0.3011
G02 X 4.7507 Y 27.5719 Z -1.0000 I -0.9656 J -3.9784
G03 X 4.8570 Y 27.5481 Z -1.0000 I 0.1975 J 0.6329
G01 X 4.8718 Y 27.5550 Z -1.0000
G01 X 4.8998 Y 27.5716 Z -1.0000
G01 X 4.9348 Y 27.5583 Z -1.0000
G01 X 4.9439 Y 27.5531 Z -1.0000
G03 X 4.9655 Y 27.5504 Z -1.0000 I 0.0216 J 0.0852
G01 X 4.9829 Y 27.5450 Z -1.0000
G01 X 4.9884 Y 27.5346 Z -1.0000
G01 X 4.9976 Y 27.5254 Z -1.0000
G03 X 5.0983 Y 27.5331 Z -1.0000 I 0.0076 J 0.5626
G02 X 5.1653 Y 27.5416 Z -1.0000 I 0.1441 J -0.8640
G01 X 5.1736 Y 27.5397 Z -1.0000
G01 X 5.1819 Y 27.5369 Z -1.0000
G03 X 5.2742 Y 27.5293 Z -1.0000 I 0.2189 J 2.1131
G02 X 5.3666 Y 27.5205 Z -1.0000 I -0.0800 J -1.3191
G02 X 5.4071 Y 27.5118 Z -1.0000 I -0.0338 J -0.2570
G03 X 5.4474 Y 27.5059 Z -1.0000 I 0.0402 J 0.1349
G03 X 5.5073 Y 27.5119 Z -1.0000 I -0.0002 J 0.3058
G02 X 5.5659 Y 27.5180 Z -1.0000 I 0.0626 J -0.3135
G01 X 5.5809 Y 27.5127 Z -1.0000
G01 X 5.5960 Y 27.5050 Z -1.0000
G03 X 5.6600 Y 27.4922 Z -1.0000 I 0.1452 J 0.5613
G03 X 5.7222 Y 27.4949 Z -1.0000 I 0.0239 J 0.1685
G03 X 5.7664 Y 27.5167 Z -1.0000 I -0.0241 J 0.1045
G03 X 5.8047 Y 27.5527 Z -1.0000 I -0.2620 J 0.3171
G03 X 5.8351 Y 27.5901 Z -1.0000 I -0.2517 J 0.2356
G02 X 5.8649 Y 27.6260 Z -1.0000 I 0.2393 J -0.1682
G01 X 5.8737 Y 27.6297 Z -1.0000
G01 X 5.8840 Y 27.6316 Z -1.0000
G03 X 5.9383 Y 27.6548 Z -1.0000 I -0.3251 J 0.8357
G02 X 5.9935 Y 27.6721 Z -1.0000 I 0.0918 J -0.1967
G02 X 6.0538 Y 27.6746 Z -1.0000 I 0.0398 J -0.2326
G02 X 6.0993 Y 27.6569 Z -1.0000 I -0.0077 J -0.0875
G01 X 6.1086 Y 27.6328 Z -1.0000
G01 X 6.1126 Y 27.6068 Z -1.0000
G01 X 6.1261 Y 27.5999 Z -1.0000
G01 X 6.1455 Y 27.5977 Z -1.0000
G01 X 6.1505 Y 27.5906 Z -1.0000
G01 X 6.1688 Y 27.5659 Z -1.0000
G03 X 6.3007 Y 27.5433 Z -1.0000 I 0.1486 J 0.4721
G02 X 6.3412 Y 27.5364 Z -1.0000 I -0.0051 J -0.1522
G01 X 6.3505 Y 27.5276 Z -1.0000
G01 X 6.3585 Y 27.5170 Z -1.0000
G01 X 6.3695 Y 27.5133 Z -1.0000
G01 X 6.3817 Y 27.5096 Z -1.0000
G02 X 6.4182 Y 27.4821 Z -1.0000 I -0.1611 J -0.2517
G03 X 6.4563 Y 27.4576 Z -1.0000 I 0.0993 J 0.1127
G03 X 6.5027 Y 27.4444 Z -1.0000 I 0.0693 J 0.1553
G02 X 6.5519 Y 27.4368 Z -1.0000 I -0.1842 J -1.3514
G02 X 6.5706 Y 27.4326 Z -1.0000 I -0.0339 J -0.1950
G01 X 6.5819 Y 27.4394 Z -1.0000
G01 X 6.5764 Y 27.4585 Z -1.0000
G01 X 6.5727 Y 27.4675 Z -1.0000
G01 X 6.5764 Y 27.4712 Z -1.0000
G01 X 6.5857 Y 27.4746 Z -1.0000
G01 X 6.5890 Y 27.4818 Z -1.0000
G01 X 6.5851 Y 27.4883 Z -1.0000
G01 X 6.5685 Y 27.4923 Z -1.0000
G01 X 6.5514 Y 27.5048 Z -1.0000
G01 X 6.5561 Y 27.5304 Z -1.0000
G02 X 6.5766 Y 27.5461 Z -1.0000 I 0.0427 J -0.0346
G01 X 6.6000 Y 27.5497 Z -1.0000
G02 X 6.6260 Y 27.5469 Z -1.0000 I -0.4557 J -4.3467
G02 X 6.6339 Y 27.5460 Z -1.0000 I -0.2319 J -2.0915
G01 X 6.6407 Y 27.5346 Z -1.0000
G01 X 6.6247 Y 27.5240 Z -1.0000
G01 X 6.6185 Y 27.5189 Z -1.0000
G01 X 6.6214 Y 27.5073 Z -1.0000
G01 X 6.6265 Y 27.4921 Z -1.0000
G01 X 6.6201 Y 27.4811 Z -1.0000
G01 X 6.6184 Y 27.4754 Z -1.0000
G01 X 6.6248 Y 27.4713 Z -1.0000
G01 X 6.6426 Y 27.4663 Z -1.0000
G02 X 6.6692 Y 27.4447 Z -1.0000 I -0.0622 J -0.1039
G01 X 6.7172 Y 27.4369 Z -1.0000
G01 X 6.7427 Y 27.4847 Z -1.0000
G02 X 6.7437 Y 27.5197 Z -1.0000 I 0.1448 J 0.0135
G01 X 6.7486 Y 27.5240 Z -1.0000
G01 X 6.7552 Y 27.5210 Z -1.0000
G01 X 6.7581 Y 27.5134 Z -1.0000
G01 X 6.7621 Y 27.5069 Z -1.0000
G01 X 6.7792 Y 27.5028 Z -1.0000
G01 X 6.7931 Y 27.5128 Z -1.0000
G01 X 6.7888 Y 27.5313 Z -1.0000
G01 X 6.7902 Y 27.5383 Z -1.0000
G02 X 6.8284 Y 27.5483 Z -1.0000 I 0.0523 J -0.1222
G02 X 6.9254 Y 27.5431 Z -1.0000 I 0.0324 J -0.3042
G02 X 6.9708 Y 27.5176 Z -1.0000 I -0.0186 J -0.0861
G03 X 7.0564 Y 27.4330 Z -1.0000 I 1.2727 J 1.2035
G01 X 7.0670 Y 27.4289 Z -1.0000
G01 X 7.0718 Y 27.4256 Z -1.0000
G01 X 7.0750 Y 27.4087 Z -1.0000
G01 X 7.0906 Y 27.3975 Z -1.0000
G03 X 7.1546 Y 27.4351 Z -1.0000 I -0.0559 J 0.1686
G02 X 7.1945 Y 27.4696 Z -1.0000 I 0.6199 J -0.6770
G01 X 7.1988 Y 27.4711 Z -1.0000
G03 X 7.2837 Y 27.5010 Z -1.0000 I 0.0000 J 0.1356
G01 X 7.2914 Y 27.5455 Z -1.0000
G01 X 7.2917 Y 27.5516 Z -1.0000
G01 X 7.3026 Y 27.5596 Z -1.0000
G03 X 7.4767 Y 27.6602 Z -1.0000 I -0.2315 J 0.6015
G03 X 7.5082 Y 27.7263 Z -1.0000 I -0.0535 J 0.0661
G01 X 7.5046 Y 27.7316 Z -1.0000
G03 X 7.4838 Y 27.7353 Z -1.0000 I -0.0207 J -0.0557
G02 X 7.4609 Y 27.7394 Z -1.0000 I 0.0000 J 0.0660
G02 X 7.4389 Y 27.7519 Z -1.0000 I 0.0272 J 0.0732
G01 X 7.4377 Y 27.7590 Z -1.0000
G01 X 7.4448 Y 27.7620 Z -1.0000
G03 X 7.5337 Y 27.7583 Z -1.0000 I 0.0534 J 0.2131
G03 X 7.5769 Y 27.7836 Z -1.0000 I -0.0113 J 0.0688
G02 X 7.6100 Y 27.8220 Z -1.0000 I 0.5212 J -0.4158
G02 X 7.6909 Y 27.9061 Z -1.0000 I 2.5824 J -2.4036
G01 X 7.7622 Y 27.9889 Z -1.0000
G01 X 7.7545 Y 27.9856 Z -1.0000
G01 X 7.7512 Y 27.9777 Z -1.0000
G01 X 7.7480 Y 27.9722 Z -1.0000
G01 X 7.7416 Y 27.9724 Z -1.0000
G01 X 7.7366 Y 27.9801 Z -1.0000
G01 X 7.7376 Y 27.9994 Z -1.0000
G01 X 7.7347 Y 28.0140 Z -1.0000
G01 X 7.7215 Y 28.0206 Z -1.0000
G01 X 7.7045 Y 28.0261 Z -1.0000
G01 X 7.6965 Y 28.0386 Z -1.0000
G01 X 7.6855 Y 28.0407 Z -1.0000
G03 X 7.6221 Y 27.9228 Z -1.0000 I 0.7270 J -0.4670
G01 X 7.5983 Y 27.9032 Z -1.0000
G01 X 7.5875 Y 27.9149 Z -1.0000
G01 X 7.5874 Y 27.9313 Z -1.0000
G01 X 7.5803 Y 27.9367 Z -1.0000
G01 X 7.5901 Y 27.9469 Z -1.0000
G03 X 7.6088 Y 27.9599 Z -1.0000 I -0.0195 J 0.0481
G01 X 7.6139 Y 27.9729 Z -1.0000
G01 X 7.6172 Y 27.9883 Z -1.0000
G02 X 7.6387 Y 28.0287 Z -1.0000 I 0.2911 J -0.1296
G03 X 7.6654 Y 28.1015 Z -1.0000 I -0.1563 J 0.0987
G01 X 7.6519 Y 28.1216 Z -1.0000
G02 X 7.6130 Y 28.1478 Z -1.0000 I 0.0169 J 0.0671
G01 X 7.6138 Y 28.1736 Z -1.0000
G01 X 7.6167 Y 28.1867 Z -1.0000
G01 X 7.6078 Y 28.1967 Z -1.0000
G01 X 7.5916 Y 28.1979 Z -1.0000
G01 X 7.5846 Y 28.1915 Z -1.0000
G01 X 7.5782 Y 28.1820 Z -1.0000
G01 X 7.5701 Y 28.1790 Z -1.0000
G01 X 7.5656 Y 28.1823 Z -1.0000
G01 X 7.5665 Y 28.1899 Z -1.0000
G01 X 7.5546 Y 28.2087 Z -1.0000
G03 X 7.4078 Y 28.1733 Z -1.0000 I 0.0599 J -0.5703
G01 X 7.4044 Y 28.1765 Z -1.0000
G01 X 7.4131 Y 28.1912 Z -1.0000
G02 X 7.4408 Y 28.2117 Z -1.0000 I 0.0873 J -0.0886
G01 X 7.4527 Y 28.2128 Z -1.0000
G01 X 7.4602 Y 28.2164 Z -1.0000
G03 X 7.4660 Y 28.2482 Z -1.0000 I -0.0853 J 0.0318
G01 X 7.4579 Y 28.2698 Z -1.0000
G01 X 7.4466 Y 28.2705 Z -1.0000
G02 X 7.4262 Y 28.2559 Z -1.0000 I -0.0735 J 0.0813
G01 X 7.4149 Y 28.2530 Z -1.0000
G01 X 7.4065 Y 28.2490 Z -1.0000
G01 X 7.4026 Y 28.2382 Z -1.0000
G01 X 7.3985 Y 28.2264 Z -1.0000
G01 X 7.3860 Y 28.2172 Z -1.0000
G01 X 7.3781 Y 28.2201 Z -1.0000
G01 X 7.3765 Y 28.2345 Z -1.0000
G02 X 7.3863 Y 28.2564 Z -1.0000 I 0.0873 J -0.0259
G02 X 7.3983 Y 28.2700 Z -1.0000 I 0.0448 J -0.0276
G01 X 7.4040 Y 28.2861 Z -1.0000
G01 X 7.3926 Y 28.2952 Z -1.0000
G01 X 7.3747 Y 28.2902 Z -1.0000
G03 X 7.3564 Y 28.2728 Z -1.0000 I 0.0329 J -0.0532
G01 X 7.3460 Y 28.2708 Z -1.0000
G01 X 7.3373 Y 28.2852 Z -1.0000
G03 X 7.3059 Y 28.3357 Z -1.0000 I -0.0668 J -0.0065
G03 X 7.2150 Y 28.3611 Z -1.0000 I -0.0889 J -0.1433
G02 X 7.1767 Y 28.3677 Z -1.0000 I -0.0012 J 0.1073
G01 X 7.1689 Y 28.3781 Z -1.0000
G03 X 7.1676 Y 28.3956 Z -1.0000 I -1.9237 J -0.1343
G03 X 7.1663 Y 28.4115 Z -1.0000 I -1.5125 J -0.1194
G01 X 7.1605 Y 28.4242 Z -1.0000
G03 X 7.1411 Y 28.4377 Z -1.0000 I -0.0438 J -0.0420
G01 X 7.1275 Y 28.4561 Z -1.0000
G01 X 7.1369 Y 28.4740 Z -1.0000
G03 X 7.1543 Y 28.4870 Z -1.0000 I -0.0346 J 0.0645
G03 X 7.1747 Y 28.5123 Z -1.0000 I -0.1154 J 0.1142
G01 X 7.1821 Y 28.5380 Z -1.0000
G01 X 7.1737 Y 28.5540 Z -1.0000
G01 X 7.1541 Y 28.5617 Z -1.0000
G01 X 7.1368 Y 28.5585 Z -1.0000
G01 X 7.1218 Y 28.5559 Z -1.0000
G01 X 7.1147 Y 28.5619 Z -1.0000
G01 X 7.1074 Y 28.5663 Z -1.0000
G03 X 7.0822 Y 28.5563 Z -1.0000 I 0.0112 J -0.0656
G03 X 7.0595 Y 28.5282 Z -1.0000 I 0.0322 J -0.0491
G01 X 7.0671 Y 28.5170 Z -1.0000
G01 X 7.0696 Y 28.5137 Z -1.0000
G01 X 7.0645 Y 28.5064 Z -1.0000
G01 X 7.0587 Y 28.4958 Z -1.0000
G01 X 7.0645 Y 28.4847 Z -1.0000
G01 X 7.0646 Y 28.4776 Z -1.0000
G01 X 7.0366 Y 28.4648 Z -1.0000
G03 X 7.0170 Y 28.3779 Z -1.0000 I 0.1818 J -0.0868
G02 X 7.0139 Y 28.3090 Z -1.0000 I -0.7591 J -0.0006
G01 X 7.0105 Y 28.3058 Z -1.0000
G01 X 7.0042 Y 28.3072 Z -1.0000
G02 X 6.8783 Y 28.3690 Z -1.0000 I 2.9899 J 6.2549
G03 X 6.7510 Y 28.4278 Z -1.0000 I -0.9430 J -1.8744
G03 X 6.6603 Y 28.4610 Z -1.0000 I -0.3882 J -0.9201
G02 X 6.5739 Y 28.4943 Z -1.0000 I 0.2115 J 0.6781
G01 X 6.5679 Y 28.5037 Z -1.0000
G01 X 6.5626 Y 28.5107 Z -1.0000
G01 X 6.5415 Y 28.5109 Z -1.0000
G01 X 6.5220 Y 28.5130 Z -1.0000
G01 X 6.5152 Y 28.5239 Z -1.0000
G01 X 6.5190 Y 28.5309 Z -1.0000
G01 X 6.5241 Y 28.5298 Z -1.0000
G01 X 6.5351 Y 28.5237 Z -1.0000
G03 X 6.5621 Y 28.5294 Z -1.0000 I 0.0007 J 0.0634
G02 X 6.5891 Y 28.5341 Z -1.0000 I 0.0227 J -0.0498
G01 X 6.6035 Y 28.5261 Z -1.0000
G01 X 6.6185 Y 28.5185 Z -1.0000
G03 X 6.6683 Y 28.5265 Z -1.0000 I -0.0011 J 0.1659
G03 X 6.7206 Y 28.5639 Z -1.0000 I -0.0325 J 0.1008
G01 X 6.7151 Y 28.5890 Z -1.0000
G03 X 6.6707 Y 28.6088 Z -1.0000 I -0.1669 J -0.3127
G03 X 6.6520 Y 28.6122 Z -1.0000 I -0.0187 J -0.0507
G02 X 6.6342 Y 28.6152 Z -1.0000 I -0.0000 J 0.0532
G01 X 6.6270 Y 28.6211 Z -1.0000
G01 X 6.6195 Y 28.6266 Z -1.0000
G03 X 6.5875 Y 28.6310 Z -1.0000 I -0.0359 J -0.1421
G02 X 6.5544 Y 28.6354 Z -1.0000 I 0.0045 J 0.1592
G02 X 6.5211 Y 28.6471 Z -1.0000 I 0.0418 J 0.1720
G03 X 6.4577 Y 28.6732 Z -1.0000 I -0.2994 J -0.6393
G03 X 6.3677 Y 28.7015 Z -1.0000 I -0.4455 J -1.2563
G02 X 6.3241 Y 28.7182 Z -1.0000 I 0.0676 J 0.2428
G01 X 6.3166 Y 28.7267 Z -1.0000
G01 X 6.3092 Y 28.7343 Z -1.0000
G03 X 6.2824 Y 28.7389 Z -1.0000 I -0.0269 J -0.0756
G02 X 6.2542 Y 28.7424 Z -1.0000 I -0.0000 J 0.1146
G01 X 6.2466 Y 28.7480 Z -1.0000
G01 X 6.2390 Y 28.7545 Z -1.0000
G03 X 6.1928 Y 28.7706 Z -1.0000 I -0.1517 J -0.3605
G02 X 6.1467 Y 28.7867 Z -1.0000 I 0.1051 J 0.3756
G01 X 6.1391 Y 28.7932 Z -1.0000
G01 X 6.1316 Y 28.7989 Z -1.0000
G03 X 6.1090 Y 28.8023 Z -1.0000 I -0.0226 J -0.0749
G02 X 6.0866 Y 28.8068 Z -1.0000 I -0.0000 J 0.0578
G01 X 6.0713 Y 28.8181 Z -1.0000
G03 X 6.0566 Y 28.8307 Z -1.0000 I -0.0441 J -0.0366
G01 X 6.0448 Y 28.8340 Z -1.0000
G01 X 6.0339 Y 28.8378 Z -1.0000
G01 X 6.0253 Y 28.8497 Z -1.0000
G01 X 6.0157 Y 28.8619 Z -1.0000
G03 X 5.9773 Y 28.8836 Z -1.0000 I -0.1234 J -0.1744
G02 X 5.9400 Y 28.9058 Z -1.0000 I 0.0665 J 0.1536
G01 X 5.9304 Y 28.9206 Z -1.0000
G01 X 5.9218 Y 28.9361 Z -1.0000
G01 X 5.9059 Y 28.9464 Z -1.0000
G02 X 5.8874 Y 28.9551 Z -1.0000 I 0.0351 J 0.0990
G02 X 5.8690 Y 28.9683 Z -1.0000 I 0.0671 J 0.1132
G01 X 5.8528 Y 28.9754 Z -1.0000
G01 X 5.8442 Y 28.9713 Z -1.0000
G01 X 5.8445 Y 28.9603 Z -1.0000
G03 X 5.8806 Y 28.9177 Z -1.0000 I 0.2179 J 0.1484
G02 X 5.9059 Y 28.8798 Z -1.0000 I -0.0715 J -0.0751
G01 X 5.9002 Y 28.8670 Z -1.0000
G02 X 5.8754 Y 28.8597 Z -1.0000 I -0.0642 J 0.1715
G02 X 5.8261 Y 28.8506 Z -1.0000 I -0.1514 J 0.6862
G03 X 5.7762 Y 28.8309 Z -1.0000 I 0.0170 J -0.1158
G03 X 5.6391 Y 28.7204 Z -1.0000 I 0.7210 J -1.0353
G02 X 5.5998 Y 28.6916 Z -1.0000 I -0.1424 J 0.1535
G01 X 5.5785 Y 28.6860 Z -1.0000
G01 X 5.5637 Y 28.6733 Z -1.0000
G01 X 5.5741 Y 28.6561 Z -1.0000
G03 X 5.6031 Y 28.6527 Z -1.0000 I 0.0223 J 0.0638
G01 X 5.6177 Y 28.6604 Z -1.0000
G02 X 5.6315 Y 28.6726 Z -1.0000 I 0.0454 J -0.0376
G01 X 5.6415 Y 28.6755 Z -1.0000
G01 X 5.6322 Y 28.6604 Z -1.0000
G01 X 5.6253 Y 28.6471 Z -1.0000
G01 X 5.6316 Y 28.6376 Z -1.0000
G01 X 5.6510 Y 28.6351 Z -1.0000
G01 X 5.6708 Y 28.6420 Z -1.0000
G02 X 5.6906 Y 28.6496 Z -1.0000 I 0.0295 J -0.0475
G01 X 5.7056 Y 28.6481 Z -1.0000
G01 X 5.7210 Y 28.6471 Z -1.0000
G03 X 5.7708 Y 28.6641 Z -1.0000 I -0.0711 J 0.2893
G02 X 5.8234 Y 28.6820 Z -1.0000 I 0.1272 J -0.2876
G01 X 5.8282 Y 28.6782 Z -1.0000
G01 X 5.8148 Y 28.6570 Z -1.0000
G02 X 5.7575 Y 28.6438 Z -1.0000 I -0.0573 J 0.1180
G01 X 5.7490 Y 28.6386 Z -1.0000
G01 X 5.7438 Y 28.6174 Z -1.0000
G01 X 5.7323 Y 28.5974 Z -1.0000
G02 X 5.6961 Y 28.5896 Z -1.0000 I -0.0299 J 0.0513
G01 X 5.6872 Y 28.5871 Z -1.0000
G03 X 5.6739 Y 28.5724 Z -1.0000 I 0.0343 J -0.0443
G01 X 5.6773 Y 28.5624 Z -1.0000
G03 X 5.7231 Y 28.5545 Z -1.0000 I 0.0447 J 0.1228
G02 X 5.7736 Y 28.5479 Z -1.0000 I 0.0015 J -0.1861
G01 X 5.7778 Y 28.5396 Z -1.0000
G01 X 5.7790 Y 28.5326 Z -1.0000
G01 X 5.7843 Y 28.5318 Z -1.0000
G01 X 5.7938 Y 28.5252 Z -1.0000
G01 X 5.7781 Y 28.5000 Z -1.0000
G01 X 5.7714 Y 28.4857 Z -1.0000
G01 X 5.7775 Y 28.4808 Z -1.0000
G02 X 5.7780 Y 28.4587 Z -1.0000 I -0.0503 J -0.0124
G01 X 5.7687 Y 28.4439 Z -1.0000
G01 X 5.7583 Y 28.4442 Z -1.0000
G01 X 5.7421 Y 28.4511 Z -1.0000
G03 X 5.6964 Y 28.4510 Z -1.0000 I -0.0224 J -0.2032
G02 X 5.6516 Y 28.4519 Z -1.0000 I -0.0189 J 0.1669
G01 X 5.6371 Y 28.4602 Z -1.0000
G01 X 5.6096 Y 28.4724 Z -1.0000
G03 X 5.5732 Y 28.4574 Z -1.0000 I 0.0025 J -0.0579
G01 X 5.5567 Y 28.4511 Z -1.0000
G01 X 5.5474 Y 28.4574 Z -1.0000
G01 X 5.5192 Y 28.4766 Z -1.0000
G03 X 5.4469 Y 28.4565 Z -1.0000 I 0.0012 J -0.1446
G02 X 5.4156 Y 28.4468 Z -1.0000 I -0.0362 J 0.0612
G02 X 5.3819 Y 28.4521 Z -1.0000 I -0.0052 J 0.0764
G03 X 5.2923 Y 28.4801 Z -1.0000 I -0.2244 J -0.5612
G03 X 5.1651 Y 28.5018 Z -1.0000 I -0.2549 J -1.1140
G02 X 5.0940 Y 28.5208 Z -1.0000 I 0.0275 J 0.2450
G01 X 5.0915 Y 28.5339 Z -1.0000
G01 X 5.0973 Y 28.5370 Z -1.0000
G02 X 5.1850 Y 28.5548 Z -1.0000 I 0.4807 J -2.1442
G03 X 5.2624 Y 28.5912 Z -1.0000 I -0.0298 J 0.1638
G01 X 5.2632 Y 28.6206 Z -1.0000
G02 X 5.2386 Y 28.6543 Z -1.0000 I 0.0776 J 0.0824
G01 X 5.2431 Y 28.6627 Z -1.0000
G02 X 5.2644 Y 28.6632 Z -1.0000 I 0.0123 J -0.0849
G02 X 5.3106 Y 28.6556 Z -1.0000 I -0.0424 J -0.4012
G03 X 5.3965 Y 28.6558 Z -1.0000 I 0.0424 J 0.1884
G03 X 5.5603 Y 28.7133 Z -1.0000 I -0.1777 J 0.7680
G03 X 5.6370 Y 28.7765 Z -1.0000 I -0.0900 J 0.1873
G01 X 5.6418 Y 28.8228 Z -1.0000
G03 X 5.6190 Y 28.8601 Z -1.0000 I -0.1707 J -0.0787
G01 X 5.6084 Y 28.8654 Z -1.0000
G03 X 5.5724 Y 28.8563 Z -1.0000 I -0.0014 J -0.0706
G03 X 5.5355 Y 28.8243 Z -1.0000 I 0.0599 J -0.1063
G01 X 5.5271 Y 28.8210 Z -1.0000
G01 X 5.5223 Y 28.8266 Z -1.0000
G01 X 5.5158 Y 28.8412 Z -1.0000
G03 X 5.4905 Y 28.8566 Z -1.0000 I -0.0485 J -0.0513
G02 X 5.4648 Y 28.8708 Z -1.0000 I 0.0285 J 0.0819
G01 X 5.4615 Y 28.8798 Z -1.0000
G01 X 5.4575 Y 28.8866 Z -1.0000
G03 X 5.4294 Y 28.8906 Z -1.0000 I -0.0246 J -0.0731
G02 X 5.3978 Y 28.8964 Z -1.0000 I -0.0032 J 0.0718
G02 X 5.3623 Y 28.9196 Z -1.0000 I 0.0490 J 0.1136
G03 X 5.3284 Y 28.9474 Z -1.0000 I -0.2315 J -0.2479
G01 X 5.3196 Y 28.9502 Z -1.0000
G02 X 5.2592 Y 28.9745 Z -1.0000 I 0.0000 J 0.0874
G01 X 5.2593 Y 29.0079 Z -1.0000
G01 X 5.2635 Y 29.0086 Z -1.0000
G02 X 5.3159 Y 28.9857 Z -1.0000 I -0.2522 J -0.6475
G03 X 5.3696 Y 28.9623 Z -1.0000 I 0.3033 J 0.6231
G03 X 5.4254 Y 28.9435 Z -1.0000 I 0.2512 J 0.6509
G03 X 5.4819 Y 28.9357 Z -1.0000 I 0.0541 J 0.1854
G03 X 5.5389 Y 28.9449 Z -1.0000 I -0.0025 J 0.1982
G03 X 5.5918 Y 28.9658 Z -1.0000 I -0.1202 J 0.3803
G01 X 5.5959 Y 28.9724 Z -1.0000
G01 X 5.5994 Y 28.9785 Z -1.0000
G01 X 5.6117 Y 28.9820 Z -1.0000
G01 X 5.6239 Y 28.9857 Z -1.0000
G01 X 5.6276 Y 28.9925 Z -1.0000
G01 X 5.6305 Y 29.0001 Z -1.0000
G01 X 5.6371 Y 29.0031 Z -1.0000
G01 X 5.6454 Y 29.0061 Z -1.0000
G03 X 5.7137 Y 29.0671 Z -1.0000 I -0.8964 J 1.0720
G03 X 5.7719 Y 29.1514 Z -1.0000 I -0.1747 J 0.1831
G01 X 5.7582 Y 29.1721 Z -1.0000
G01 X 5.7388 Y 29.1666 Z -1.0000
G01 X 5.7332 Y 29.1565 Z -1.0000
G01 X 5.7284 Y 29.1435 Z -1.0000
G02 X 5.7042 Y 29.1224 Z -1.0000 I -0.0825 J 0.0704
G03 X 5.6763 Y 29.1027 Z -1.0000 I 0.1882 J -0.2957
G01 X 5.6684 Y 29.0944 Z -1.0000
G01 X 5.6630 Y 29.0939 Z -1.0000
G01 X 5.6540 Y 29.1087 Z -1.0000
G01 X 5.6448 Y 29.1200 Z -1.0000
G01 X 5.6372 Y 29.1180 Z -1.0000
G01 X 5.6315 Y 29.1162 Z -1.0000
G01 X 5.6277 Y 29.1215 Z -1.0000
G03 X 5.6249 Y 29.1391 Z -1.0000 I -0.0586 J -0.0005
G03 X 5.6098 Y 29.1770 Z -1.0000 I -0.2953 J -0.0957
G02 X 5.6012 Y 29.2153 Z -1.0000 I 0.0801 J 0.0382
G02 X 5.6099 Y 29.2909 Z -1.0000 I 0.3339 J -0.0004
G03 X 5.6239 Y 29.3680 Z -1.0000 I -0.7551 J 0.1766
G03 X 5.6277 Y 29.4283 Z -1.0000 I -0.4579 J 0.0593
G02 X 5.6324 Y 29.4842 Z -1.0000 I 0.3260 J 0.0007
G01 X 5.6382 Y 29.4890 Z -1.0000
G01 X 5.6461 Y 29.4864 Z -1.0000
G01 X 5.6488 Y 29.4811 Z -1.0000
G01 X 5.6604 Y 29.4526 Z -1.0000
G03 X 5.7602 Y 29.3623 Z -1.0000 I 0.5973 J 0.5602
G03 X 5.7817 Y 29.3476 Z -1.0000 I 0.1515 J 0.1985
G03 X 5.8205 Y 29.3255 Z -1.0000 I 0.3762 J 0.6166
G02 X 5.8569 Y 29.3028 Z -1.0000 I -0.1361 J -0.2576
G01 X 5.8600 Y 29.2965 Z -1.0000
G01 X 5.8727 Y 29.2880 Z -1.0000
G03 X 5.9294 Y 29.3253 Z -1.0000 I -0.0693 J 0.1670
G02 X 5.9699 Y 29.3533 Z -1.0000 I 0.1038 J -0.1069
G01 X 5.9939 Y 29.3556 Z -1.0000
G01 X 6.0072 Y 29.3595 Z -1.0000
G01 X 6.0089 Y 29.3715 Z -1.0000
G02 X 5.9974 Y 29.3940 Z -1.0000 I 6.0357 J 3.0910
G02 X 5.9868 Y 29.4150 Z -1.0000 I 6.8066 J 3.4538
G02 X 5.9798 Y 29.4368 Z -1.0000 I 0.0662 J 0.0333
G02 X 5.9764 Y 29.4810 Z -1.0000 I 0.2739 J 0.0430
G03 X 5.9691 Y 29.5243 Z -1.0000 I -0.1275 J 0.0005
G03 X 5.9210 Y 29.6369 Z -1.0000 I -0.9350 J -0.3327
G03 X 5.8523 Y 29.7546 Z -1.0000 I -0.9719 J -0.4880
G03 X 5.7887 Y 29.8341 Z -1.0000 I -0.5044 J -0.3382
G02 X 5.7491 Y 29.8835 Z -1.0000 I 0.2812 J 0.2665
G01 X 5.7446 Y 29.8992 Z -1.0000
G01 X 5.7508 Y 29.9037 Z -1.0000
G01 X 5.7579 Y 29.8956 Z -1.0000
G01 X 5.7647 Y 29.8957 Z -1.0000
G01 X 5.7737 Y 29.8973 Z -1.0000
G02 X 5.8397 Y 29.8798 Z -1.0000 I -0.1446 J -0.6781
G03 X 5.9032 Y 29.8665 Z -1.0000 I 0.0965 J 0.3020
G01 X 5.9146 Y 29.8720 Z -1.0000
G01 X 5.9233 Y 29.8748 Z -1.0000
G01 X 5.9262 Y 29.8653 Z -1.0000
G03 X 5.9543 Y 29.8282 Z -1.0000 I 0.3216 J 0.2138
G02 X 5.9803 Y 29.7898 Z -1.0000 I -0.1583 J -0.1353
G02 X 5.9917 Y 29.7571 Z -1.0000 I -0.1030 J -0.0542
G03 X 6.0029 Y 29.7241 Z -1.0000 I 0.1197 J 0.0224
G03 X 6.0326 Y 29.6769 Z -1.0000 I 0.2788 J 0.1424
G02 X 6.1101 Y 29.5519 Z -1.0000 I -0.6144 J -0.4677
G02 X 6.1242 Y 29.4920 Z -1.0000 I -0.1209 J -0.0599
G01 X 6.1296 Y 29.4711 Z -1.0000
G01 X 6.1415 Y 29.4607 Z -1.0000
G03 X 6.2398 Y 29.4576 Z -1.0000 I 0.0537 J 0.1401
G01 X 6.2721 Y 29.5014 Z -1.0000
G01 X 6.2752 Y 29.5071 Z -1.0000
G01 X 6.2863 Y 29.5102 Z -1.0000
G01 X 6.3203 Y 29.5254 Z -1.0000
G03 X 6.3355 Y 29.5647 Z -1.0000 I -0.0435 J 0.0393
G01 X 6.3397 Y 29.5787 Z -1.0000
G02 X 6.3632 Y 29.6061 Z -1.0000 I 0.1281 J -0.0857
G01 X 6.3792 Y 29.6131 Z -1.0000
G01 X 6.3835 Y 29.6077 Z -1.0000
G01 X 6.3887 Y 29.5993 Z -1.0000
G01 X 6.4106 Y 29.6029 Z -1.0000
G03 X 6.4419 Y 29.6247 Z -1.0000 I -0.0945 J 0.1692
G01 X 6.4497 Y 29.6363 Z -1.0000
G01 X 6.4477 Y 29.6420 Z -1.0000
G01 X 6.4408 Y 29.6421 Z -1.0000
G01 X 6.4358 Y 29.6422 Z -1.0000
G01 X 6.4349 Y 29.6461 Z -1.0000
G01 X 6.4437 Y 29.6535 Z -1.0000
G01 X 6.4519 Y 29.6527 Z -1.0000
G01 X 6.4595 Y 29.6532 Z -1.0000
G03 X 6.4735 Y 29.6699 Z -1.0000 I -0.0340 J 0.0425
G02 X 6.5195 Y 29.7284 Z -1.0000 I 0.1877 J -0.1004
G02 X 6.5547 Y 29.7423 Z -1.0000 I 0.0365 J -0.0410
G01 X 6.5636 Y 29.7469 Z -1.0000
G01 X 6.5679 Y 29.7596 Z -1.0000
G01 X 6.5727 Y 29.7696 Z -1.0000
G01 X 6.5823 Y 29.7711 Z -1.0000
G01 X 6.6254 Y 29.7893 Z -1.0000
G03 X 6.6387 Y 29.9030 Z -1.0000 I -0.1859 J 0.0795
G01 X 6.6382 Y 29.9249 Z -1.0000
G01 X 6.6461 Y 29.9154 Z -1.0000
G01 X 6.6586 Y 29.9117 Z -1.0000
G01 X 6.6797 Y 29.9330 Z -1.0000
G03 X 6.6579 Y 30.0244 Z -1.0000 I -0.2078 J -0.0013
G03 X 6.6389 Y 30.0534 Z -1.0000 I -0.1343 J -0.0670
G03 X 6.5927 Y 30.1026 Z -1.0000 I -0.4366 J -0.3636
G02 X 6.5433 Y 30.1494 Z -1.0000 I 1318.9714 J 1399.7260
G02 X 6.5070 Y 30.1837 Z -1.0000 I 493.5264 J 520.6703
G03 X 6.4695 Y 30.2151 Z -1.0000 I -0.2781 J -0.2939
G01 X 6.4606 Y 30.2181 Z -1.0000
G01 X 6.4559 Y 30.2211 Z -1.0000
G01 X 6.4564 Y 30.2277 Z -1.0000
G01 X 6.4569 Y 30.2358 Z -1.0000
G01 X 6.4491 Y 30.2436 Z -1.0000
G01 X 6.4515 Y 30.2526 Z -1.0000
G02 X 6.6027 Y 30.2294 Z -1.0000 I -0.1158 J -1.2623
G03 X 6.6740 Y 30.2352 Z -1.0000 I 0.0261 J 0.1211
G01 X 6.6948 Y 30.2655 Z -1.0000
G02 X 6.7066 Y 30.3043 Z -1.0000 I 0.0719 J -0.0005
G01 X 6.7201 Y 30.3042 Z -1.0000
G01 X 6.7247 Y 30.2921 Z -1.0000
G02 X 6.7336 Y 30.2229 Z -1.0000 I -0.9639 J -0.1600
G03 X 6.7490 Y 30.1596 Z -1.0000 I 0.2250 J 0.0210
G01 X 6.7657 Y 30.1432 Z -1.0000
G01 X 6.7916 Y 30.1427 Z -1.0000
G01 X 6.8003 Y 30.1547 Z -1.0000
G01 X 6.7970 Y 30.1725 Z -1.0000
G01 X 6.7920 Y 30.1758 Z -1.0000
G01 X 6.7642 Y 30.1925 Z -1.0000
G02 X 6.7475 Y 30.2596 Z -1.0000 I 0.1261 J 0.0671
G01 X 6.7679 Y 30.2896 Z -1.0000
G02 X 6.8446 Y 30.2981 Z -1.0000 I 0.0540 J -0.1360
G01 X 6.8692 Y 30.3070 Z -1.0000
G01 X 6.8783 Y 30.3364 Z -1.0000
G03 X 6.8188 Y 30.5429 Z -1.0000 I -0.6677 J -0.0805
G03 X 6.7646 Y 30.5773 Z -1.0000 I -0.0542 J -0.0256
G02 X 6.7106 Y 30.6023 Z -1.0000 I 0.0000 J 0.0708
G02 X 6.7005 Y 30.6529 Z -1.0000 I 0.0406 J 0.0345
G01 X 6.6965 Y 30.6650 Z -1.0000
G01 X 6.6736 Y 30.6724 Z -1.0000
G01 X 6.6665 Y 30.6829 Z -1.0000
G01 X 6.6836 Y 30.6971 Z -1.0000
G03 X 6.7524 Y 30.7617 Z -1.0000 I -0.0175 J 0.0876
G03 X 6.7274 Y 30.8614 Z -1.0000 I -0.1025 J 0.0273
G03 X 6.6926 Y 30.8846 Z -1.0000 I -0.0664 J -0.0621
G03 X 6.6389 Y 30.8943 Z -1.0000 I -0.0537 J -0.1448
G02 X 6.5874 Y 30.9138 Z -1.0000 I 0.0000 J 0.0778
G01 X 6.5915 Y 30.9362 Z -1.0000
G03 X 6.6869 Y 30.9841 Z -1.0000 I -0.1761 J 0.4698
G03 X 6.7146 Y 31.0154 Z -1.0000 I -0.0417 J 0.0648
G03 X 6.7295 Y 31.0618 Z -1.0000 I -0.1581 J 0.0762
G03 X 6.7679 Y 31.3245 Z -1.0000 I -5.1312 J 0.8842
G02 X 6.7975 Y 31.4534 Z -1.0000 I 0.6194 J -0.0745
G02 X 6.8240 Y 31.4872 Z -1.0000 I 0.0623 J -0.0215
G02 X 6.8750 Y 31.4894 Z -1.0000 I 0.0273 J -0.0423
G02 X 7.0428 Y 31.3707 Z -1.0000 I -0.3842 J -0.7215
G03 X 7.1335 Y 31.3197 Z -1.0000 I 0.1546 J 0.1688
G01 X 7.1784 Y 31.3312 Z -1.0000
G01 X 7.1892 Y 31.3538 Z -1.0000
G03 X 7.2138 Y 31.6682 Z -1.0000 I -5.9252 J 0.6221
G02 X 7.2195 Y 31.7040 Z -1.0000 I 0.1716 J -0.0089
G01 X 7.2245 Y 31.7078 Z -1.0000
G01 X 7.2318 Y 31.7021 Z -1.0000
G02 X 7.2551 Y 31.5863 Z -1.0000 I -1.1817 J -0.2976
G03 X 7.3125 Y 31.3736 Z -1.0000 I 0.9583 J 0.1446
G01 X 7.3493 Y 31.3486 Z -1.0000
G01 X 7.3824 Y 31.3676 Z -1.0000
G03 X 7.4092 Y 31.4516 Z -1.0000 I -0.1765 J 0.1025
G02 X 7.4200 Y 31.5240 Z -1.0000 I 0.6315 J -0.0576
G01 X 7.4252 Y 31.5282 Z -1.0000
G01 X 7.4307 Y 31.5317 Z -1.0000
G01 X 7.4341 Y 31.5467 Z -1.0000
G01 X 7.4303 Y 31.5525 Z -1.0000
G01 X 7.4249 Y 31.5508 Z -1.0000
G01 X 7.4149 Y 31.5513 Z -1.0000
G02 X 7.4038 Y 31.5916 Z -1.0000 I 0.0903 J 0.0467
G03 X 7.3998 Y 31.6283 Z -1.0000 I -0.4099 J -0.0256
G03 X 7.3884 Y 31.6918 Z -1.0000 I -1.2395 J -0.1904
G03 X 7.3645 Y 31.7442 Z -1.0000 I -0.1267 J -0.0262
G03 X 7.3335 Y 31.7636 Z -1.0000 I -0.0414 J -0.0317
G02 X 7.2569 Y 31.7893 Z -1.0000 I 0.0658 J 0.3229
G01 X 7.2560 Y 31.8008 Z -1.0000
G02 X 7.2860 Y 31.8146 Z -1.0000 I 0.0533 J -0.0761
G02 X 7.3424 Y 31.8231 Z -1.0000 I 0.0691 J -0.2672
G01 X 7.3537 Y 31.8282 Z -1.0000
G01 X 7.3545 Y 31.8354 Z -1.0000
G01 X 7.3453 Y 31.8415 Z -1.0000
G03 X 7.3222 Y 31.8405 Z -1.0000 I -0.0090 J -0.0572
G02 X 7.3013 Y 31.8397 Z -1.0000 I -0.0122 J 0.0487
G01 X 7.2969 Y 31.8449 Z -1.0000
G01 X 7.2924 Y 31.8512 Z -1.0000
G03 X 7.2652 Y 31.8557 Z -1.0000 I -0.0272 J -0.0801
G02 X 7.2377 Y 31.8599 Z -1.0000 I 0.0000 J 0.0913
G01 X 7.2335 Y 31.8657 Z -1.0000
G01 X 7.2291 Y 31.8697 Z -1.0000
G03 X 7.1825 Y 31.8606 Z -1.0000 I 0.0253 J -0.2510
G02 X 7.1311 Y 31.8478 Z -1.0000 I -0.1643 J 0.5531
G02 X 7.0928 Y 31.8426 Z -1.0000 I -0.0604 J 0.3029
G03 X 7.0575 Y 31.8366 Z -1.0000 I 0.0130 J -0.1810
G01 X 7.0539 Y 31.8319 Z -1.0000
G01 X 7.0502 Y 31.8277 Z -1.0000
G02 X 7.0005 Y 31.8240 Z -1.0000 I -0.0498 J 0.3364
G03 X 6.9542 Y 31.8200 Z -1.0000 I 0.0000 J -0.2709
G01 X 6.9522 Y 31.8156 Z -1.0000
G01 X 6.9509 Y 31.8106 Z -1.0000
G01 X 6.9343 Y 31.8057 Z -1.0000
G03 X 6.9114 Y 31.8035 Z -1.0000 I 0.0263 J -0.3878
G03 X 6.8637 Y 31.7967 Z -1.0000 I 0.2121 J -1.6594
G02 X 6.8161 Y 31.7900 Z -1.0000 I -0.2180 J 1.3872
G02 X 6.7739 Y 31.7857 Z -1.0000 I -0.1327 J 1.0855
G03 X 6.7047 Y 31.7743 Z -1.0000 I 0.0361 J -0.4341
G01 X 6.7021 Y 31.7678 Z -1.0000
G01 X 6.6828 Y 31.7665 Z -1.0000
G03 X 6.6092 Y 31.7781 Z -1.0000 I -0.0726 J -0.2223
G01 X 6.5804 Y 31.7661 Z -1.0000
G01 X 6.5757 Y 31.7646 Z -1.0000
G02 X 6.5531 Y 31.7708 Z -1.0000 I 0.0207 J 0.1203
G03 X 6.5302 Y 31.7746 Z -1.0000 I -0.0210 J -0.0553
G01 X 6.5117 Y 31.7695 Z -1.0000
G02 X 6.4925 Y 31.7630 Z -1.0000 I -0.0271 J 0.0484
G02 X 6.4013 Y 31.7536 Z -1.0000 I -0.1614 J 1.1224
G03 X 6.3110 Y 31.7446 Z -1.0000 I 0.0740 J -1.1911
G01 X 6.3038 Y 31.7401 Z -1.0000
G01 X 6.2967 Y 31.7355 Z -1.0000
G02 X 6.2513 Y 31.7306 Z -1.0000 I -0.0567 J 0.3133
G03 X 6.2044 Y 31.7270 Z -1.0000 I 0.0207 J -0.5847
G03 X 6.1851 Y 31.7229 Z -1.0000 I 0.0119 J -0.1025
G01 X 6.1668 Y 31.7227 Z -1.0000
G02 X 6.1295 Y 31.7395 Z -1.0000 I 0.0446 J 0.1493
G03 X 6.0928 Y 31.7561 Z -1.0000 I -0.0825 J -0.1334
G01 X 6.0805 Y 31.7545 Z -1.0000
G01 X 6.0742 Y 31.7568 Z -1.0000
G01 X 6.0732 Y 31.7645 Z -1.0000
G03 X 6.0492 Y 31.7805 Z -1.0000 I -0.0582 J -0.0613
G02 X 6.0231 Y 31.7972 Z -1.0000 I 0.0416 J 0.0939
G01 X 6.0195 Y 31.8065 Z -1.0000
G01 X 6.0136 Y 31.8357 Z -1.0000
G01 X 5.9974 Y 31.8451 Z -1.0000
G01 X 5.9801 Y 31.8490 Z -1.0000
G01 X 5.9762 Y 31.8550 Z -1.0000
G01 X 5.9722 Y 31.8613 Z -1.0000
G03 X 5.9472 Y 31.8682 Z -1.0000 I -0.0346 J -0.0760
G01 X 5.9156 Y 31.8929 Z -1.0000
G01 X 5.9225 Y 31.9339 Z -1.0000
G01 X 5.9216 Y 31.9438 Z -1.0000
G03 X 5.8907 Y 31.9604 Z -1.0000 I -0.0560 J -0.0671
G02 X 5.8486 Y 31.9756 Z -1.0000 I 0.1189 J 0.3972
G02 X 5.8101 Y 31.9944 Z -1.0000 I 0.1477 J 0.3503
G01 X 5.7778 Y 31.9953 Z -1.0000
G01 X 5.7753 Y 31.9774 Z -1.0000
G01 X 5.7846 Y 31.9541 Z -1.0000
G01 X 5.7729 Y 31.9461 Z -1.0000
G02 X 5.7202 Y 31.9773 Z -1.0000 I 0.0382 J 0.1245
G01 X 5.7201 Y 31.9975 Z -1.0000
G01 X 5.7250 Y 32.0051 Z -1.0000
G03 X 5.7294 Y 32.0218 Z -1.0000 I -0.0735 J 0.0281
G02 X 5.7325 Y 32.0393 Z -1.0000 I 0.3060 J -0.0450
G02 X 5.7378 Y 32.0625 Z -1.0000 I 0.5502 J -0.1134
G01 X 5.7363 Y 32.0818 Z -1.0000
G01 X 5.7252 Y 32.0922 Z -1.0000
G02 X 5.7070 Y 32.0991 Z -1.0000 I 0.1550 J 0.4391
G02 X 5.6936 Y 32.1049 Z -1.0000 I 0.0995 J 0.2483
G01 X 5.6849 Y 32.1040 Z -1.0000
G01 X 5.6804 Y 32.0952 Z -1.0000
G01 X 5.6627 Y 32.0863 Z -1.0000
G02 X 5.6243 Y 32.1366 Z -1.0000 I 0.0671 J 0.0910
G03 X 5.6039 Y 32.1884 Z -1.0000 I -3.7750 J -1.4531
G03 X 5.5950 Y 32.2096 Z -1.0000 I -0.6480 J -0.2597
G02 X 5.5887 Y 32.2313 Z -1.0000 I 0.0801 J 0.0352
G02 X 5.5867 Y 32.2625 Z -1.0000 I 0.1642 J 0.0257
G03 X 5.5867 Y 32.2941 Z -1.0000 I -0.4738 J 0.0154
G03 X 5.5853 Y 32.3047 Z -1.0000 I -0.0552 J -0.0019
G01 X 5.5901 Y 32.3281 Z -1.0000
G01 X 5.6070 Y 32.3341 Z -1.0000
G01 X 5.6513 Y 32.3479 Z -1.0000
G03 X 5.6636 Y 32.3999 Z -1.0000 I -0.0441 J 0.0379
G03 X 5.6376 Y 32.4373 Z -1.0000 I -0.0625 J -0.0157
G01 X 5.6032 Y 32.4414 Z -1.0000
G01 X 5.5725 Y 32.4547 Z -1.0000
G02 X 5.5718 Y 32.5182 Z -1.0000 I 0.0797 J 0.0326
G01 X 5.5701 Y 32.5272 Z -1.0000
G01 X 5.5618 Y 32.5292 Z -1.0000
G01 X 5.5482 Y 32.5349 Z -1.0000
G02 X 5.5267 Y 32.6111 Z -1.0000 I 0.2819 J 0.1206
G03 X 5.5243 Y 32.6214 Z -1.0000 I -0.0609 J -0.0089
G03 X 5.5173 Y 32.6398 Z -1.0000 I -0.2005 J -0.0659
G02 X 5.5128 Y 32.6580 Z -1.0000 I 0.0512 J 0.0223
G01 X 5.5149 Y 32.6715 Z -1.0000
G01 X 5.5200 Y 32.6730 Z -1.0000
G01 X 5.5274 Y 32.6626 Z -1.0000
G03 X 5.5383 Y 32.6435 Z -1.0000 I 0.0484 J 0.0149
G03 X 5.5605 Y 32.6261 Z -1.0000 I 0.0611 J 0.0554
G01 X 5.5845 Y 32.6206 Z -1.0000
G01 X 5.5964 Y 32.6275 Z -1.0000
G03 X 5.6036 Y 32.6436 Z -1.0000 I -0.0521 J 0.0329
G03 X 5.6063 Y 32.6623 Z -1.0000 I -0.0681 J 0.0193
G01 X 5.6120 Y 32.6775 Z -1.0000
G01 X 5.6275 Y 32.6873 Z -1.0000
G01 X 5.6428 Y 32.6950 Z -1.0000
G01 X 5.6437 Y 32.7005 Z -1.0000
G01 X 5.6386 Y 32.7402 Z -1.0000
G02 X 5.6762 Y 32.8074 Z -1.0000 I 0.1724 J -0.0523
G03 X 5.6871 Y 32.8255 Z -1.0000 I -0.0440 J 0.0390
G01 X 5.6903 Y 32.8444 Z -1.0000
G01 X 5.6865 Y 32.8470 Z -1.0000
G01 X 5.6801 Y 32.8409 Z -1.0000
G01 X 5.6662 Y 32.8239 Z -1.0000
G01 X 5.6464 Y 32.8184 Z -1.0000
G01 X 5.6408 Y 32.8244 Z -1.0000
G01 X 5.6560 Y 32.8390 Z -1.0000
G03 X 5.6602 Y 32.8880 Z -1.0000 I -0.1123 J 0.0343
G01 X 5.6633 Y 32.8986 Z -1.0000
G02 X 5.6854 Y 32.9183 Z -1.0000 I 0.0768 J -0.0639
G03 X 5.7069 Y 32.9386 Z -1.0000 I -0.0462 J 0.0706
G01 X 5.7121 Y 32.9544 Z -1.0000
G01 X 5.7276 Y 32.9869 Z -1.0000
G01 X 5.7507 Y 32.9856 Z -1.0000
G01 X 5.7836 Y 32.9930 Z -1.0000
G03 X 5.7826 Y 33.0750 Z -1.0000 I -0.1113 J 0.0397
G01 X 5.7603 Y 33.0871 Z -1.0000
G01 X 5.7438 Y 33.0667 Z -1.0000
G01 X 5.7322 Y 33.0415 Z -1.0000
G02 X 5.6737 Y 33.0068 Z -1.0000 I -0.1291 J 0.1511
G01 X 5.6552 Y 32.9942 Z -1.0000
G01 X 5.6544 Y 32.9856 Z -1.0000
G01 X 5.6576 Y 32.9430 Z -1.0000
G02 X 5.6213 Y 32.9081 Z -1.0000 I -0.0594 J 0.0253
G01 X 5.6104 Y 32.8996 Z -1.0000
G01 X 5.6065 Y 32.8872 Z -1.0000
G01 X 5.6011 Y 32.8789 Z -1.0000
G01 X 5.5853 Y 32.8775 Z -1.0000
G01 X 5.5697 Y 32.8759 Z -1.0000
G01 X 5.5642 Y 32.8671 Z -1.0000
G01 X 5.5599 Y 32.8541 Z -1.0000
G01 X 5.5475 Y 32.8447 Z -1.0000
G01 X 5.5286 Y 32.8446 Z -1.0000
G01 X 5.5219 Y 32.8541 Z -1.0000
G01 X 5.5266 Y 32.8654 Z -1.0000
G01 X 5.5378 Y 32.8700 Z -1.0000
G01 X 5.5498 Y 32.8793 Z -1.0000
G03 X 5.5564 Y 32.9420 Z -1.0000 I -0.2071 J 0.0534
G01 X 5.5604 Y 32.9495 Z -1.0000
G01 X 5.5705 Y 32.9503 Z -1.0000
G01 X 5.5853 Y 32.9476 Z -1.0000
G01 X 5.6010 Y 32.9506 Z -1.0000
G01 X 5.6082 Y 32.9598 Z -1.0000
G01 X 5.6047 Y 32.9793 Z -1.0000
G03 X 5.5913 Y 33.0008 Z -1.0000 I -0.1517 J -0.0798
G01 X 5.5838 Y 33.0080 Z -1.0000
G01 X 5.5822 Y 33.0151 Z -1.0000
G02 X 5.6386 Y 33.0978 Z -1.0000 I 0.8378 J -0.5117
G03 X 5.7023 Y 33.1818 Z -1.0000 I -23.9333 J 18.2053
G03 X 5.7258 Y 33.2132 Z -1.0000 I -3.2881 J 2.4830
G02 X 5.7504 Y 33.2435 Z -1.0000 I 0.3576 J -0.2648
G02 X 5.7702 Y 33.2633 Z -1.0000 I 0.1720 J -0.1524
G02 X 5.8525 Y 33.3314 Z -1.0000 I 1.0871 J -1.2308
G01 X 5.8627 Y 33.3349 Z -1.0000
G01 X 5.8676 Y 33.3379 Z -1.0000
G01 X 5.8706 Y 33.3511 Z -1.0000
G01 X 5.8752 Y 33.3640 Z -1.0000
G01 X 5.8891 Y 33.3740 Z -1.0000
G03 X 5.9068 Y 33.3822 Z -1.0000 I -0.0380 J 0.1043
G03 X 5.9498 Y 33.4092 Z -1.0000 I -0.3761 J 0.6491
G02 X 5.9933 Y 33.4351 Z -1.0000 I 0.2573 J -0.3820
G02 X 6.0185 Y 33.4452 Z -1.0000 I 0.0617 J -0.1176
G03 X 6.0443 Y 33.4544 Z -1.0000 I -0.0581 J 0.2035
G03 X 6.1315 Y 33.4940 Z -1.0000 I -1.0216 J 2.3654
G02 X 6.2335 Y 33.5350 Z -1.0000 I 0.3775 J -0.7918
G02 X 6.3547 Y 33.5678 Z -1.0000 I 0.3593 J -1.0862
G03 X 6.4080 Y 33.5913 Z -1.0000 I -0.0298 J 0.1400
G01 X 6.4144 Y 33.6105 Z -1.0000
G01 X 6.4154 Y 33.6257 Z -1.0000
G01 X 6.4246 Y 33.6320 Z -1.0000
G03 X 6.4410 Y 33.6339 Z -1.0000 I -0.0201 J 0.2522
G03 X 6.4517 Y 33.6360 Z -1.0000 I -0.0158 J 0.1081
G02 X 6.4623 Y 33.6383 Z -1.0000 I 0.0507 J -0.2032
G02 X 6.4721 Y 33.6399 Z -1.0000 I 0.0316 J -0.1618
G01 X 6.4809 Y 33.6433 Z -1.0000
G03 X 6.4987 Y 33.6581 Z -1.0000 I -0.0697 J 0.1023
G02 X 6.5180 Y 33.6703 Z -1.0000 I 0.0372 J -0.0372
G02 X 6.5855 Y 33.6895 Z -1.0000 I 0.1690 J -0.4662
G03 X 6.6538 Y 33.7079 Z -1.0000 I -0.1280 J 0.6118
G03 X 6.6817 Y 33.7214 Z -1.0000 I -0.0374 J 0.1130
G02 X 6.7421 Y 33.7446 Z -1.0000 I 0.0839 J -0.1281
G02 X 6.9166 Y 33.7579 Z -1.0000 I 0.1719 J -1.1062
G02 X 7.4111 Y 33.7438 Z -1.0000 I -0.0221 J -9.4425
G02 X 7.5399 Y 33.7237 Z -1.0000 I -0.0359 J -0.6551
G02 X 7.5858 Y 33.7079 Z -1.0000 I -0.0787 J -0.3034
G02 X 7.6153 Y 33.6911 Z -1.0000 I -0.0611 J -0.1411
G03 X 7.6453 Y 33.6774 Z -1.0000 I 0.0483 J 0.0662
G03 X 7.7010 Y 33.6714 Z -1.0000 I 0.0529 J 0.2309
G02 X 7.7571 Y 33.6666 Z -1.0000 I 0.0034 J -0.2887
G02 X 7.7788 Y 33.6570 Z -1.0000 I -0.0094 J -0.0508
G03 X 7.8465 Y 33.6321 Z -1.0000 I 0.0747 J 0.0987
G01 X 7.8828 Y 33.6511 Z -1.0000
G01 X 7.8912 Y 33.6564 Z -1.0000
G02 X 7.9442 Y 33.6585 Z -1.0000 I 0.0392 J -0.3224
G03 X 7.9974 Y 33.6635 Z -1.0000 I 0.0084 J 0.1969
G03 X 8.0340 Y 33.6795 Z -1.0000 I -0.0250 J 0.1069
G02 X 8.0702 Y 33.6985 Z -1.0000 I 0.1029 J -0.1520
G02 X 8.1132 Y 33.7104 Z -1.0000 I 0.0794 J -0.2037
G03 X 8.1570 Y 33.7212 Z -1.0000 I -0.0501 J 0.2969
G03 X 8.2130 Y 33.7431 Z -1.0000 I -0.1676 J 0.5111
G02 X 8.2700 Y 33.7586 Z -1.0000 I 0.0752 J -0.1645
G02 X 8.4032 Y 33.7624 Z -1.0000 I 0.0930 J -0.9178
G02 X 8.5380 Y 33.7539 Z -1.0000 I -0.1534 J -3.5177
G02 X 8.5753 Y 33.7483 Z -1.0000 I -0.0226 J -0.2752
G03 X 8.6120 Y 33.7440 Z -1.0000 I 0.0387 J 0.1742
G03 X 8.6334 Y 33.7476 Z -1.0000 I 0.0007 J 0.0613
G02 X 8.6549 Y 33.7541 Z -1.0000 I 0.0716 J -0.1996
G02 X 8.7391 Y 33.7734 Z -1.0000 I 0.7442 J -3.0568
G03 X 8.8220 Y 33.7963 Z -1.0000 I -0.1545 J 0.7197
G03 X 8.9104 Y 33.8317 Z -1.0000 I -0.2906 J 0.8527
G02 X 8.9981 Y 33.8696 Z -1.0000 I 0.7500 J -1.6174
G02 X 9.0530 Y 33.8888 Z -1.0000 I 0.2457 J -0.6140
G03 X 9.1615 Y 33.9409 Z -1.0000 I -0.1124 J 0.3732
G01 X 9.1637 Y 33.9650 Z -1.0000
G01 X 9.1560 Y 33.9672 Z -1.0000
G01 X 9.1435 Y 33.9602 Z -1.0000
G01 X 9.1294 Y 33.9517 Z -1.0000
G02 X 9.1022 Y 33.9477 Z -1.0000 I -0.0272 J 0.0902
G03 X 9.0738 Y 33.9448 Z -1.0000 I -0.0000 J -0.1421
G03 X 9.0435 Y 33.9357 Z -1.0000 I 0.0349 J -0.1713
G02 X 8.8936 Y 33.9054 Z -1.0000 I -0.1574 J 0.3919
G02 X 8.7612 Y 33.9307 Z -1.0000 I -0.0058 J 0.3283
G03 X 8.7265 Y 33.9408 Z -1.0000 I -0.0610 J -0.1461
G03 X 8.6329 Y 33.9524 Z -1.0000 I -0.1795 J -1.0640
G02 X 8.5391 Y 33.9637 Z -1.0000 I 0.0926 J 1.1612
G02 X 8.4924 Y 33.9751 Z -1.0000 I 0.0483 J 0.2979
G03 X 8.4458 Y 33.9856 Z -1.0000 I -0.0763 J -0.2301
G03 X 8.3815 Y 33.9888 Z -1.0000 I -0.0538 J -0.4363
G02 X 8.3168 Y 33.9898 Z -1.0000 I -0.0195 J 0.8135
G02 X 8.2900 Y 33.9939 Z -1.0000 I 0.0079 J 0.1412
G03 X 8.2635 Y 34.0000 Z -1.0000 I -0.1525 J -0.6052
G03 X 8.2161 Y 34.0091 Z -1.0000 I -0.4016 J -1.9492
G02 X 8.1694 Y 34.0202 Z -1.0000 I 0.0808 J 0.4468
G02 X 8.1473 Y 34.0293 Z -1.0000 I 0.0316 J 0.1081
G03 X 8.1254 Y 34.0362 Z -1.0000 I -0.0292 J -0.0539
G03 X 8.0971 Y 34.0353 Z -1.0000 I -0.0109 J -0.0915
G02 X 8.0720 Y 34.0344 Z -1.0000 I -0.0152 J 0.0795
G01 X 8.0679 Y 34.0389 Z -1.0000
G01 X 8.0656 Y 34.0473 Z -1.0000
G03 X 8.0495 Y 34.0717 Z -1.0000 I -0.1776 J -0.1000
G03 X 7.9806 Y 34.1190 Z -1.0000 I -0.1078 J -0.0831
G03 X 7.8837 Y 34.1212 Z -1.0000 I -0.0523 J -0.1753
G01 X 7.8648 Y 34.1253 Z -1.0000
G02 X 7.8474 Y 34.1502 Z -1.0000 I 0.0333 J 0.0416
G03 X 7.8325 Y 34.1835 Z -1.0000 I -0.1701 J -0.0563
G03 X 7.8093 Y 34.2161 Z -1.0000 I -0.1854 J -0.1071
G02 X 7.7887 Y 34.2489 Z -1.0000 I 0.0980 J 0.0843
G02 X 7.7829 Y 34.2769 Z -1.0000 I 0.0645 J 0.0280
G03 X 7.7639 Y 34.3551 Z -1.0000 I -0.1703 J 0.0000
G03 X 7.6962 Y 34.4448 Z -1.0000 I -0.2954 J -0.1527
G02 X 7.6600 Y 34.4841 Z -1.0000 I 0.2550 J 0.2715
G01 X 7.6561 Y 34.4950 Z -1.0000
G01 X 7.6520 Y 34.5035 Z -1.0000
G01 X 7.6401 Y 34.5076 Z -1.0000
G02 X 7.6247 Y 34.5098 Z -1.0000 I 0.0000 J 0.0563
G02 X 7.6058 Y 34.5174 Z -1.0000 I 0.0264 J 0.0926
G03 X 7.5871 Y 34.5263 Z -1.0000 I -0.1067 J -0.1997
G03 X 7.5696 Y 34.5327 Z -1.0000 I -0.0717 J -0.1699
G01 X 7.5563 Y 34.5428 Z -1.0000
G02 X 7.5385 Y 34.5820 Z -1.0000 I 0.1352 J 0.0850
G03 X 7.5195 Y 34.6204 Z -1.0000 I -0.1221 J -0.0366
G01 X 7.4995 Y 34.6357 Z -1.0000
G03 X 7.4743 Y 34.6423 Z -1.0000 I -0.0431 J -0.1133
G01 X 7.4684 Y 34.6404 Z -1.0000
G01 X 7.4417 Y 34.6391 Z -1.0000
G01 X 7.4237 Y 34.6776 Z -1.0000
G03 X 7.4144 Y 34.7188 Z -1.0000 I -0.0959 J -0.0000
G03 X 7.3694 Y 34.7917 Z -1.0000 I -0.3560 J -0.1695
G02 X 7.3542 Y 34.8184 Z -1.0000 I 0.0828 J 0.0646
G02 X 7.3497 Y 34.8425 Z -1.0000 I 0.0625 J 0.0241
G03 X 7.3404 Y 34.8846 Z -1.0000 I -0.0992 J 0.0000
G03 X 7.3056 Y 34.9368 Z -1.0000 I -0.1900 J -0.0890
G02 X 7.2703 Y 34.9953 Z -1.0000 I 0.1309 J 0.1190
G02 X 7.1971 Y 35.2350 Z -1.0000 I 2.2358 J 0.8134
G03 X 7.1772 Y 35.3006 Z -1.0000 I -0.6411 J -0.1592
G03 X 7.1647 Y 35.3245 Z -1.0000 I -0.0965 J -0.0349
G02 X 7.1510 Y 35.3687 Z -1.0000 I 0.0621 J 0.0435
G02 X 7.1655 Y 35.4140 Z -1.0000 I 0.0801 J -0.0007
G01 X 7.1740 Y 35.4386 Z -1.0000
G03 X 7.1687 Y 35.4744 Z -1.0000 I -0.0912 J 0.0048
G03 X 7.1529 Y 35.5079 Z -1.0000 I -0.1870 J -0.0676
G01 X 7.1469 Y 35.5113 Z -1.0000
G01 X 7.1422 Y 35.5151 Z -1.0000
G02 X 7.1384 Y 35.5538 Z -1.0000 I 0.1950 J 0.0387
G03 X 7.1298 Y 35.5904 Z -1.0000 I -0.0813 J 0.0000
G01 X 7.1120 Y 35.6064 Z -1.0000
G02 X 7.0901 Y 35.6213 Z -1.0000 I 0.0203 J 0.0535
G02 X 7.0711 Y 35.6511 Z -1.0000 I 0.0756 J 0.0693
G02 X 7.0385 Y 35.7398 Z -1.0000 I 1.0227 J 0.4263
G02 X 7.0276 Y 35.7871 Z -1.0000 I 0.2780 J 0.0889
G03 X 6.9630 Y 36.0188 Z -1.0000 I -0.9283 J -0.1337
G03 X 6.8408 Y 36.2285 Z -1.0000 I -0.8799 J -0.3723
G02 X 6.8216 Y 36.2907 Z -1.0000 I 0.0741 J 0.0569
G01 X 6.8462 Y 36.3242 Z -1.0000
G03 X 6.8685 Y 36.3371 Z -1.0000 I -0.0286 J 0.0753
G03 X 6.9009 Y 36.3688 Z -1.0000 I -0.1587 J 0.1946
G01 X 6.9238 Y 36.3847 Z -1.0000
G03 X 6.9178 Y 36.3652 Z -1.0000 I 0.1626 J -0.0603
G01 X 6.9166 Y 36.3551 Z -1.0000
G01 X 6.9137 Y 36.3499 Z -1.0000
G01 X 6.9081 Y 36.3500 Z -1.0000
G01 X 6.9009 Y 36.3498 Z -1.0000
G01 X 6.8879 Y 36.3363 Z -1.0000
G01 X 6.8945 Y 36.3017 Z -1.0000
G03 X 6.9575 Y 36.2852 Z -1.0000 I 0.0523 J 0.0713
G02 X 7.0278 Y 36.2781 Z -1.0000 I 0.0193 J -0.1590
G01 X 7.0434 Y 36.2564 Z -1.0000
G01 X 7.0469 Y 36.2458 Z -1.0000
G03 X 7.0698 Y 36.2212 Z -1.0000 I 0.1273 J 0.0955
G02 X 7.0883 Y 36.1946 Z -1.0000 I -0.0437 J -0.0503
G02 X 7.0962 Y 36.1519 Z -1.0000 I -0.1121 J -0.0427
G02 X 7.0905 Y 36.1083 Z -1.0000 I -0.1695 J 0.0000
G01 X 7.0803 Y 36.0924 Z -1.0000
G01 X 7.0736 Y 36.0450 Z -1.0000
G01 X 7.1259 Y 36.0254 Z -1.0000
G01 X 7.1444 Y 36.0228 Z -1.0000
G01 X 7.1605 Y 36.0048 Z -1.0000
G01 X 7.1775 Y 35.9891 Z -1.0000
G01 X 7.2057 Y 35.9886 Z -1.0000
G03 X 7.2384 Y 36.0001 Z -1.0000 I -0.1719 J 0.5442
G03 X 7.2620 Y 36.0102 Z -1.0000 I -0.1123 J 0.2923
G02 X 7.3317 Y 36.0120 Z -1.0000 I 0.0367 J -0.0763
G01 X 7.3603 Y 35.9688 Z -1.0000
G01 X 7.3641 Y 35.9531 Z -1.0000
G03 X 7.3872 Y 35.9166 Z -1.0000 I 0.2175 J 0.1119
G02 X 7.4075 Y 35.8796 Z -1.0000 I -0.1139 J -0.0868
G02 X 7.4109 Y 35.8526 Z -1.0000 I -0.0558 J -0.0207
G01 X 7.4156 Y 35.8296 Z -1.0000
G01 X 7.4290 Y 35.8202 Z -1.0000
G01 X 7.4379 Y 35.8251 Z -1.0000
G01 X 7.4387 Y 35.8297 Z -1.0000
G02 X 7.4723 Y 35.8346 Z -1.0000 I 0.0366 J -0.1321
G02 X 7.5143 Y 35.8310 Z -1.0000 I 0.0043 J -0.1960
G01 X 7.5188 Y 35.8255 Z -1.0000
G01 X 7.5231 Y 35.8206 Z -1.0000
G03 X 7.5479 Y 35.8213 Z -1.0000 I 0.0102 J 0.0716
G02 X 7.6779 Y 35.8410 Z -1.0000 I 0.2471 J -1.1949
G01 X 7.6901 Y 35.8350 Z -1.0000
G01 X 7.7277 Y 35.8143 Z -1.0000
G03 X 7.8010 Y 35.8350 Z -1.0000 I 0.0000 J 0.1400
G02 X 7.8258 Y 35.8448 Z -1.0000 I 0.0401 J -0.0652
G02 X 7.8710 Y 35.8494 Z -1.0000 I 0.0453 J -0.2202
G03 X 7.9169 Y 35.8534 Z -1.0000 I -0.0000 J 0.2702
G03 X 7.9622 Y 35.8651 Z -1.0000 I -0.0472 J 0.2736
G02 X 8.0062 Y 35.8749 Z -1.0000 I 0.0618 J -0.1752
G01 X 8.0248 Y 35.8711 Z -1.0000
G03 X 8.0777 Y 35.8604 Z -1.0000 I 0.0444 J 0.0829
G03 X 8.1554 Y 35.8830 Z -1.0000 I -0.0191 J 0.2110
G02 X 8.2146 Y 35.9024 Z -1.0000 I 0.0903 J -0.1757
G02 X 8.3656 Y 35.9166 Z -1.0000 I 0.1852 J -1.1588
G02 X 8.4123 Y 35.9112 Z -1.0000 I 0.0048 J -0.1648
G02 X 8.4370 Y 35.8978 Z -1.0000 I -0.0151 J -0.0575
G01 X 8.4605 Y 35.8870 Z -1.0000
G01 X 8.4854 Y 35.8916 Z -1.0000
G03 X 8.5080 Y 35.9086 Z -1.0000 I -0.0429 J 0.0802
G01 X 8.5178 Y 35.9251 Z -1.0000
G01 X 8.5286 Y 35.9364 Z -1.0000
G01 X 8.5523 Y 35.9379 Z -1.0000
G03 X 8.5858 Y 35.9344 Z -1.0000 I 0.0305 J 0.1297
G03 X 8.6149 Y 35.9393 Z -1.0000 I -0.0023 J 0.1028
G03 X 8.6353 Y 35.9494 Z -1.0000 I -0.0233 J 0.0725
G01 X 8.6387 Y 35.9560 Z -1.0000
G01 X 8.6421 Y 35.9600 Z -1.0000
G01 X 8.6554 Y 35.9586 Z -1.0000
G01 X 8.6721 Y 35.9566 Z -1.0000
G03 X 8.7139 Y 35.9660 Z -1.0000 I -0.0282 J 0.2214
G02 X 8.7538 Y 35.9713 Z -1.0000 I 0.0338 J -0.1025
G01 X 8.7729 Y 35.9627 Z -1.0000
G01 X 8.7813 Y 35.9452 Z -1.0000
G01 X 8.7765 Y 35.9292 Z -1.0000
G01 X 8.7790 Y 35.9205 Z -1.0000
G01 X 8.7961 Y 35.9225 Z -1.0000
G01 X 8.8048 Y 35.9338 Z -1.0000
G01 X 8.8044 Y 35.9487 Z -1.0000
G01 X 8.8060 Y 35.9600 Z -1.0000
G01 X 8.8174 Y 35.9656 Z -1.0000
G01 X 8.8350 Y 35.9697 Z -1.0000
G01 X 8.8504 Y 35.9820 Z -1.0000
G01 X 8.8655 Y 35.9924 Z -1.0000
G01 X 8.8799 Y 35.9922 Z -1.0000
G01 X 8.8940 Y 35.9916 Z -1.0000
G01 X 8.9039 Y 35.9991 Z -1.0000
G02 X 8.9765 Y 36.0488 Z -1.0000 I 0.0926 J -0.0572
G02 X 9.0575 Y 36.0278 Z -1.0000 I 0.0181 J -0.0969
G01 X 9.0722 Y 36.0226 Z -1.0000
G03 X 9.1069 Y 36.0284 Z -1.0000 I -0.0013 J 0.1146
G02 X 9.1425 Y 36.0362 Z -1.0000 I 0.0553 J -0.1675
G01 X 9.1584 Y 36.0341 Z -1.0000
G01 X 9.1726 Y 36.0339 Z -1.0000
G01 X 9.1876 Y 36.0443 Z -1.0000
G01 X 9.2064 Y 36.0490 Z -1.0000
G01 X 9.2129 Y 36.0340 Z -1.0000
G01 X 9.2209 Y 36.0273 Z -1.0000
G01 X 9.2413 Y 36.0509 Z -1.0000
G02 X 9.2596 Y 36.0736 Z -1.0000 I 0.0475 J -0.0197
G01 X 9.2794 Y 36.0772 Z -1.0000
G03 X 9.3035 Y 36.0753 Z -1.0000 I 0.0177 J 0.0706
G01 X 9.3227 Y 36.0810 Z -1.0000
G02 X 9.3998 Y 36.1086 Z -1.0000 I 0.1293 J -0.2396
G01 X 9.4276 Y 36.1015 Z -1.0000
G01 X 9.4419 Y 36.0976 Z -1.0000
G01 X 9.4615 Y 36.1071 Z -1.0000
G02 X 9.4820 Y 36.1186 Z -1.0000 I 0.0356 J -0.0394
G01 X 9.4983 Y 36.1180 Z -1.0000
G01 X 9.5114 Y 36.1174 Z -1.0000
G01 X 9.5156 Y 36.1230 Z -1.0000
G01 X 9.5196 Y 36.1307 Z -1.0000
G01 X 9.5321 Y 36.1347 Z -1.0000
G01 X 9.5420 Y 36.1310 Z -1.0000
G01 X 9.5429 Y 36.1254 Z -1.0000
G01 X 9.5488 Y 36.1178 Z -1.0000
G03 X 9.6516 Y 36.1603 Z -1.0000 I -0.2077 J 0.6482
G02 X 9.6803 Y 36.1710 Z -1.0000 I 0.0605 J -0.1180
G02 X 9.7088 Y 36.1744 Z -1.0000 I 0.0282 J -0.1139
G03 X 9.7363 Y 36.1792 Z -1.0000 I 0.0003 J 0.0794
G03 X 9.7583 Y 36.1925 Z -1.0000 I -0.0230 J 0.0630
G02 X 9.7790 Y 36.2047 Z -1.0000 I 0.0402 J -0.0444
G01 X 9.7901 Y 36.2035 Z -1.0000
G01 X 9.8015 Y 36.2015 Z -1.0000
G01 X 9.8171 Y 36.2089 Z -1.0000
G01 X 9.8331 Y 36.2169 Z -1.0000
G01 X 9.8470 Y 36.2159 Z -1.0000
G01 X 9.8614 Y 36.2148 Z -1.0000
G03 X 9.8905 Y 36.2253 Z -1.0000 I -0.0243 J 0.1133
G02 X 9.9192 Y 36.2362 Z -1.0000 I 0.0617 J -0.1188
G01 X 9.9281 Y 36.2348 Z -1.0000
G01 X 9.9357 Y 36.2339 Z -1.0000
G01 X 9.9433 Y 36.2400 Z -1.0000
G01 X 9.9707 Y 36.2454 Z -1.0000
G01 X 9.9911 Y 36.2056 Z -1.0000
G01 X 9.9864 Y 36.1919 Z -1.0000
G01 X 9.9779 Y 36.1883 Z -1.0000
G03 X 9.9646 Y 36.1893 Z -1.0000 I -0.0148 J -0.1142
G03 X 9.9450 Y 36.1888 Z -1.0000 I -0.0036 J -0.2537
G01 X 9.9405 Y 36.1827 Z -1.0000
G01 X 9.9497 Y 36.1678 Z -1.0000
G01 X 9.9718 Y 36.1633 Z -1.0000
G01 X 9.9965 Y 36.1810 Z -1.0000
G03 X 10.0097 Y 36.2119 Z -1.0000 I -0.0701 J 0.0480
G01 X 10.0051 Y 36.2224 Z -1.0000
G01 X 9.9989 Y 36.2386 Z -1.0000
G01 X 10.0122 Y 36.2456 Z -1.0000
G01 X 10.0290 Y 36.2448 Z -1.0000
G01 X 10.0333 Y 36.2502 Z -1.0000
G01 X 10.0373 Y 36.2575 Z -1.0000
G01 X 10.0508 Y 36.2615 Z -1.0000
G01 X 10.0559 Y 36.2560 Z -1.0000
G01 X 10.0492 Y 36.2403 Z -1.0000
G01 X 10.0441 Y 36.2254 Z -1.0000
G01 X 10.0508 Y 36.2192 Z -1.0000
G03 X 10.1038 Y 36.2348 Z -1.0000 I -0.0000 J 0.0977
G01 X 10.0994 Y 36.2506 Z -1.0000
G01 X 10.0873 Y 36.2657 Z -1.0000
G01 X 10.1082 Y 36.2937 Z -1.0000
G02 X 10.1297 Y 36.3018 Z -1.0000 I 0.0423 J -0.0790
G01 X 10.1355 Y 36.3002 Z -1.0000
G01 X 10.1415 Y 36.2982 Z -1.0000
G03 X 10.1732 Y 36.3062 Z -1.0000 I -0.0292 J 0.1826
G02 X 10.2028 Y 36.3086 Z -1.0000 I 0.0195 J -0.0558
G01 X 10.2198 Y 36.2980 Z -1.0000
G01 X 10.2340 Y 36.2909 Z -1.0000
G01 X 10.2485 Y 36.2983 Z -1.0000
G02 X 10.2652 Y 36.3142 Z -1.0000 I 0.0517 J -0.0377
G01 X 10.2828 Y 36.3208 Z -1.0000
G03 X 10.3939 Y 36.3455 Z -1.0000 I -0.0979 J 0.7017
G01 X 10.3979 Y 36.3563 Z -1.0000
G01 X 10.4058 Y 36.3786 Z -1.0000
G01 X 10.4339 Y 36.3689 Z -1.0000
G01 X 10.4417 Y 36.3616 Z -1.0000
G03 X 10.4638 Y 36.3520 Z -1.0000 I 0.0558 J 0.0985
G01 X 10.4793 Y 36.3547 Z -1.0000
G01 X 10.4850 Y 36.3679 Z -1.0000
G01 X 10.4879 Y 36.3878 Z -1.0000
G01 X 10.4972 Y 36.3965 Z -1.0000
G01 X 10.5045 Y 36.3943 Z -1.0000
G01 X 10.5057 Y 36.3851 Z -1.0000
G01 X 10.5101 Y 36.3785 Z -1.0000
G03 X 10.5489 Y 36.3835 Z -1.0000 I 0.0043 J 0.1189
G02 X 10.6138 Y 36.3925 Z -1.0000 I 0.0606 J -0.1998
G01 X 10.6208 Y 36.3821 Z -1.0000
G01 X 10.6215 Y 36.3723 Z -1.0000
G01 X 10.6276 Y 36.3700 Z -1.0000
G01 X 10.6361 Y 36.3778 Z -1.0000
G01 X 10.6400 Y 36.3973 Z -1.0000
G01 X 10.6463 Y 36.4131 Z -1.0000
G01 X 10.6631 Y 36.4200 Z -1.0000
G03 X 10.6851 Y 36.4235 Z -1.0000 I 0.0000 J 0.0707
G01 X 10.6932 Y 36.4298 Z -1.0000
G01 X 10.7015 Y 36.4350 Z -1.0000
G02 X 10.7355 Y 36.4338 Z -1.0000 I 0.0126 J -0.1328
G03 X 10.8014 Y 36.4353 Z -1.0000 I 0.0289 J 0.1781
G03 X 10.8385 Y 36.4554 Z -1.0000 I -0.0151 J 0.0723
G01 X 10.8542 Y 36.4631 Z -1.0000
G01 X 10.8777 Y 36.4605 Z -1.0000
G01 X 10.8885 Y 36.4478 Z -1.0000
G01 X 10.8836 Y 36.4303 Z -1.0000
G01 X 10.8847 Y 36.4153 Z -1.0000
G01 X 10.9030 Y 36.4144 Z -1.0000
G03 X 10.9223 Y 36.4350 Z -1.0000 I -0.0324 J 0.0495
G01 X 10.9266 Y 36.4566 Z -1.0000
G01 X 10.9334 Y 36.4745 Z -1.0000
G02 X 10.9620 Y 36.4887 Z -1.0000 I 0.0393 J -0.0432
G03 X 10.9988 Y 36.4985 Z -1.0000 I -0.0459 J 0.2458
G01 X 11.0131 Y 36.5066 Z -1.0000
G01 X 11.0269 Y 36.5128 Z -1.0000
G01 X 11.0426 Y 36.5111 Z -1.0000
G01 X 11.0588 Y 36.5088 Z -1.0000
G01 X 11.0771 Y 36.5140 Z -1.0000
G02 X 11.1488 Y 36.5435 Z -1.0000 I 0.2237 J -0.4414
G01 X 11.1633 Y 36.5418 Z -1.0000
G01 X 11.1749 Y 36.5396 Z -1.0000
G01 X 11.1900 Y 36.5465 Z -1.0000
G01 X 11.2199 Y 36.5580 Z -1.0000
G02 X 11.3302 Y 36.5520 Z -1.0000 I 0.0233 J -0.5919
G03 X 11.3811 Y 36.5491 Z -1.0000 I 0.0415 J 0.2791
G01 X 11.3857 Y 36.5539 Z -1.0000
G01 X 11.3895 Y 36.5615 Z -1.0000
G02 X 11.4230 Y 36.5818 Z -1.0000 I 0.1193 J -0.1597
G02 X 11.4635 Y 36.5958 Z -1.0000 I 0.0824 J -0.1728
G01 X 11.4665 Y 36.5915 Z -1.0000
G01 X 11.4685 Y 36.5689 Z -1.0000
G03 X 11.5052 Y 36.5488 Z -1.0000 I 0.0475 J 0.0430
G01 X 11.5135 Y 36.5534 Z -1.0000
G01 X 11.5127 Y 36.5673 Z -1.0000
G01 X 11.5121 Y 36.5854 Z -1.0000
G01 X 11.5279 Y 36.6013 Z -1.0000
G03 X 11.5514 Y 36.6156 Z -1.0000 I -0.0480 J 0.1053
G01 X 11.5547 Y 36.6224 Z -1.0000
G01 X 11.5579 Y 36.6280 Z -1.0000
G01 X 11.5697 Y 36.6313 Z -1.0000
G01 X 11.5821 Y 36.6348 Z -1.0000
G01 X 11.5885 Y 36.6429 Z -1.0000
G01 X 11.5952 Y 36.6518 Z -1.0000
G02 X 11.6264 Y 36.6688 Z -1.0000 I 0.0996 J -0.1458
G01 X 11.6516 Y 36.6699 Z -1.0000
G01 X 11.6604 Y 36.6579 Z -1.0000
G02 X 11.6559 Y 36.6346 Z -1.0000 I -0.0629 J -0.0000
G02 X 11.6438 Y 36.6162 Z -1.0000 I -0.0511 J 0.0204
G01 X 11.6372 Y 36.5996 Z -1.0000
G01 X 11.6455 Y 36.6028 Z -1.0000
G03 X 11.6622 Y 36.6221 Z -1.0000 I -0.0682 J 0.0757
G01 X 11.6784 Y 36.6317 Z -1.0000
G01 X 11.6969 Y 36.6249 Z -1.0000
G01 X 11.7146 Y 36.6143 Z -1.0000
G01 X 11.7209 Y 36.6176 Z -1.0000
G01 X 11.7277 Y 36.6245 Z -1.0000
G01 X 11.7403 Y 36.6243 Z -1.0000
G01 X 11.7505 Y 36.6256 Z -1.0000
G01 X 11.7554 Y 36.6354 Z -1.0000
G01 X 11.7602 Y 36.6476 Z -1.0000
G01 X 11.7713 Y 36.6524 Z -1.0000
G01 X 11.7835 Y 36.6560 Z -1.0000
G01 X 11.7871 Y 36.6626 Z -1.0000
G01 X 11.7908 Y 36.6676 Z -1.0000
G01 X 11.8019 Y 36.6672 Z -1.0000
G01 X 11.8111 Y 36.6690 Z -1.0000
G01 X 11.8151 Y 36.6796 Z -1.0000
G01 X 11.8186 Y 36.6941 Z -1.0000
G01 X 11.8294 Y 36.7023 Z -1.0000
G01 X 11.8294 Y 36.6956 Z -1.0000
G01 X 11.8256 Y 36.6882 Z -1.0000
G01 X 11.8294 Y 36.6844 Z -1.0000
G03 X 11.8445 Y 36.6867 Z -1.0000 I 0.0000 J 0.0507
G03 X 11.8608 Y 36.6943 Z -1.0000 I -0.0206 J 0.0659
G01 X 11.8750 Y 36.6981 Z -1.0000
G01 X 11.8829 Y 36.6936 Z -1.0000
G01 X 11.8913 Y 36.6893 Z -1.0000
G03 X 11.9193 Y 36.6966 Z -1.0000 I -0.0071 J 0.0845
G02 X 11.9459 Y 36.7026 Z -1.0000 I 0.0276 J -0.0606
G01 X 11.9536 Y 36.6972 Z -1.0000
G01 X 11.9613 Y 36.6887 Z -1.0000
G03 X 11.9835 Y 36.6841 Z -1.0000 I 0.0222 J 0.0507
G02 X 12.0050 Y 36.6807 Z -1.0000 I -0.0000 J -0.0694
G01 X 12.0077 Y 36.6762 Z -1.0000
G01 X 12.0145 Y 36.6643 Z -1.0000
G01 X 12.0407 Y 36.6630 Z -1.0000
G02 X 12.0663 Y 36.6639 Z -1.0000 I 0.0146 J -0.0511
G01 X 12.0724 Y 36.6563 Z -1.0000
G01 X 12.0765 Y 36.6480 Z -1.0000
G01 X 12.0837 Y 36.6476 Z -1.0000
G01 X 12.0944 Y 36.6483 Z -1.0000
G02 X 12.1206 Y 36.6307 Z -1.0000 I -0.0409 J -0.0891
G02 X 12.1367 Y 36.6061 Z -1.0000 I -0.0432 J -0.0460
G01 X 12.1344 Y 36.5926 Z -1.0000
G01 X 12.1307 Y 36.5822 Z -1.0000
G01 X 12.1345 Y 36.5784 Z -1.0000
G01 X 12.1431 Y 36.5817 Z -1.0000
G01 X 12.1464 Y 36.5888 Z -1.0000
G01 X 12.1502 Y 36.5968 Z -1.0000
G02 X 12.1860 Y 36.6204 Z -1.0000 I 0.1480 J -0.1854
G03 X 12.3027 Y 36.6892 Z -1.0000 I -0.8183 J 1.5231
G01 X 12.3125 Y 36.7018 Z -1.0000
G01 X 12.3007 Y 36.7252 Z -1.0000
G03 X 12.1569 Y 36.7528 Z -1.0000 I -0.1797 J -0.5480
G02 X 12.1221 Y 36.7620 Z -1.0000 I 0.0057 J 0.0919
G01 X 12.1231 Y 36.7693 Z -1.0000
G02 X 12.1681 Y 36.7734 Z -1.0000 I 0.0417 J -0.2118
G02 X 12.1949 Y 36.7682 Z -1.0000 I -0.0012 J -0.0788
G03 X 12.2212 Y 36.7645 Z -1.0000 I 0.0212 J 0.0559
G03 X 12.2582 Y 36.7736 Z -1.0000 I -0.0104 J 0.1226
G02 X 12.2960 Y 36.7838 Z -1.0000 I 0.0568 J -0.1358
G02 X 12.3449 Y 36.7849 Z -1.0000 I 0.0299 J -0.2291
G03 X 12.3932 Y 36.7866 Z -1.0000 I 0.0171 J 0.2070
G03 X 12.4184 Y 36.7961 Z -1.0000 I -0.0097 J 0.0638
G01 X 12.4422 Y 36.8045 Z -1.0000
G01 X 12.4579 Y 36.8108 Z -1.0000
G01 X 12.4744 Y 36.8190 Z -1.0000
G01 X 12.4888 Y 36.8180 Z -1.0000
G01 X 12.5196 Y 36.8234 Z -1.0000
G01 X 12.5204 Y 36.8454 Z -1.0000
G01 X 12.5281 Y 36.8619 Z -1.0000
G02 X 12.5988 Y 36.8384 Z -1.0000 I -0.0143 J -0.1611
G01 X 12.6096 Y 36.8377 Z -1.0000
G03 X 12.6280 Y 36.8514 Z -1.0000 I -0.0209 J 0.0473
G02 X 12.6474 Y 36.8653 Z -1.0000 I 0.0384 J -0.0329
G01 X 12.6652 Y 36.8665 Z -1.0000
G01 X 12.6816 Y 36.8679 Z -1.0000
G01 X 12.6915 Y 36.8783 Z -1.0000
G01 X 12.7003 Y 36.8921 Z -1.0000
G01 X 12.7080 Y 36.8954 Z -1.0000
G01 X 12.7167 Y 36.8984 Z -1.0000
G03 X 12.7424 Y 36.9218 Z -1.0000 I -0.1262 J 0.1642
G01 X 12.7630 Y 36.9336 Z -1.0000
G01 X 12.7674 Y 36.9274 Z -1.0000
G01 X 12.7617 Y 36.9073 Z -1.0000
G01 X 12.7673 Y 36.8935 Z -1.0000
G01 X 12.7751 Y 36.8931 Z -1.0000
G01 X 12.7803 Y 36.9039 Z -1.0000
G01 X 12.7844 Y 36.9230 Z -1.0000
G01 X 12.7908 Y 36.9271 Z -1.0000
G01 X 12.7977 Y 36.9234 Z -1.0000
G01 X 12.8014 Y 36.9115 Z -1.0000
G01 X 12.8073 Y 36.9045 Z -1.0000
G01 X 12.8295 Y 36.9066 Z -1.0000
G02 X 12.8564 Y 36.9115 Z -1.0000 I 0.0264 J -0.0694
G01 X 12.8686 Y 36.9064 Z -1.0000
G01 X 12.8874 Y 36.9004 Z -1.0000
G01 X 12.8965 Y 36.9112 Z -1.0000
G01 X 12.9030 Y 36.9226 Z -1.0000
G02 X 12.9308 Y 36.9313 Z -1.0000 I 0.0331 J -0.0566
G01 X 12.9431 Y 36.9342 Z -1.0000
G01 X 12.9493 Y 36.9387 Z -1.0000
G02 X 12.9869 Y 36.9641 Z -1.0000 I 0.0629 J -0.0526
G02 X 13.1283 Y 36.9968 Z -1.0000 I 0.2597 J -0.7996
G03 X 13.1640 Y 37.0044 Z -1.0000 I -0.0377 J 0.2657
G03 X 13.1970 Y 37.0164 Z -1.0000 I -0.0681 J 0.2396
G02 X 13.2855 Y 37.0431 Z -1.0000 I 0.1507 J -0.3391
G01 X 13.2926 Y 37.0326 Z -1.0000
G01 X 13.2967 Y 37.0264 Z -1.0000
G03 X 13.3220 Y 37.0371 Z -1.0000 I -0.0084 J 0.0551
G01 X 13.3261 Y 37.0487 Z -1.0000
G01 X 13.3167 Y 37.0586 Z -1.0000
G01 X 13.3153 Y 37.0655 Z -1.0000
G02 X 13.3402 Y 37.0786 Z -1.0000 I 0.0415 J -0.0488
G02 X 13.3859 Y 37.0861 Z -1.0000 I 0.0611 J -0.2289
G01 X 13.3943 Y 37.0821 Z -1.0000
G01 X 13.4026 Y 37.0765 Z -1.0000
G03 X 13.4287 Y 37.0740 Z -1.0000 I 0.0224 J 0.0946
G03 X 13.4565 Y 37.0750 Z -1.0000 I -0.4335 J 11.6806
G03 X 13.4829 Y 37.0761 Z -1.0000 I -0.3296 J 8.3438
G03 X 13.5054 Y 37.0810 Z -1.0000 I -0.0029 J 0.0684
G01 X 13.5093 Y 37.0867 Z -1.0000
G01 X 13.5262 Y 37.1030 Z -1.0000
G01 X 13.5571 Y 37.0851 Z -1.0000
G01 X 13.5651 Y 37.0802 Z -1.0000
G01 X 13.5762 Y 37.0836 Z -1.0000
G01 X 13.5897 Y 37.0898 Z -1.0000
G02 X 13.6287 Y 37.0944 Z -1.0000 I 0.0456 J -0.2219
G03 X 13.6680 Y 37.0983 Z -1.0000 I -0.0083 J 0.2834
G01 X 13.6815 Y 37.1034 Z -1.0000
G01 X 13.6757 Y 37.0829 Z -1.0000
G01 X 13.6750 Y 37.0634 Z -1.0000
G01 X 13.6889 Y 37.0592 Z -1.0000
G03 X 13.7141 Y 37.0797 Z -1.0000 I -0.0367 J 0.0710
G01 X 13.7214 Y 37.0991 Z -1.0000
G01 X 13.7276 Y 37.1093 Z -1.0000
G01 X 13.7350 Y 37.0992 Z -1.0000
G01 X 13.7433 Y 37.0961 Z -1.0000
G01 X 13.7476 Y 37.0995 Z -1.0000
G01 X 13.7463 Y 37.1080 Z -1.0000
G01 X 13.7577 Y 37.1094 Z -1.0000
G03 X 13.7771 Y 37.1029 Z -1.0000 I 0.0270 J 0.0482
G03 X 13.7988 Y 37.1037 Z -1.0000 I 0.0085 J 0.0616
G01 X 13.8056 Y 37.1017 Z -1.0000
G01 X 13.8052 Y 37.0972 Z -1.0000
G01 X 13.7999 Y 37.0856 Z -1.0000
G01 X 13.7960 Y 37.0761 Z -1.0000
G01 X 13.7863 Y 37.0652 Z -1.0000
G01 X 13.7856 Y 37.0544 Z -1.0000
G01 X 13.7923 Y 37.0514 Z -1.0000
G03 X 13.8213 Y 37.0693 Z -1.0000 I -0.0412 J 0.0986
G02 X 13.8546 Y 37.0930 Z -1.0000 I 0.1366 J -0.1571
G02 X 13.8791 Y 37.1024 Z -1.0000 I 0.0428 J -0.0749
G03 X 13.9048 Y 37.1101 Z -1.0000 I -0.0363 J 0.1680
G03 X 13.9346 Y 37.1238 Z -1.0000 I -0.0927 J 0.2397
G02 X 13.9596 Y 37.1327 Z -1.0000 I 0.0408 J -0.0753
G01 X 13.9637 Y 37.1293 Z -1.0000
G01 X 13.9606 Y 37.1212 Z -1.0000
G01 X 13.9505 Y 37.1143 Z -1.0000
G01 X 13.9429 Y 37.1082 Z -1.0000
G01 X 13.9435 Y 37.1028 Z -1.0000
G01 X 13.9843 Y 37.0913 Z -1.0000
G03 X 14.0213 Y 37.1252 Z -1.0000 I -0.0156 J 0.0541
G01 X 14.0193 Y 37.1299 Z -1.0000
G01 X 14.0124 Y 37.1288 Z -1.0000
G01 X 13.9985 Y 37.1242 Z -1.0000
G01 X 13.9885 Y 37.1300 Z -1.0000
G02 X 13.9806 Y 37.1741 Z -1.0000 I 0.0492 J 0.0315
G02 X 14.0106 Y 37.2300 Z -1.0000 I 0.1141 J -0.0253
G03 X 14.0425 Y 37.2639 Z -1.0000 I -1.2663 J 1.2222
G03 X 14.0566 Y 37.2802 Z -1.0000 I -0.2826 J 0.2587
G02 X 14.0716 Y 37.2939 Z -1.0000 I 0.0530 J -0.0433
G01 X 14.0816 Y 37.2969 Z -1.0000
G01 X 14.0850 Y 37.2931 Z -1.0000
G01 X 14.0799 Y 37.2810 Z -1.0000
G01 X 14.0849 Y 37.2722 Z -1.0000
G03 X 14.1140 Y 37.2863 Z -1.0000 I -0.0084 J 0.0544
G02 X 14.1455 Y 37.3008 Z -1.0000 I 0.0377 J -0.0404
G01 X 14.1606 Y 37.2916 Z -1.0000
G01 X 14.1857 Y 37.2734 Z -1.0000
G01 X 14.2104 Y 37.2890 Z -1.0000
G01 X 14.2176 Y 37.2920 Z -1.0000
G01 X 14.2361 Y 37.2791 Z -1.0000
G01 X 14.2594 Y 37.2654 Z -1.0000
G03 X 14.2973 Y 37.2654 Z -1.0000 I 0.0189 J 0.0840
G02 X 14.3375 Y 37.2723 Z -1.0000 I 0.0894 J -0.3967
G01 X 14.3419 Y 37.2708 Z -1.0000
G01 X 14.3427 Y 37.2667 Z -1.0000
G02 X 14.3285 Y 37.2407 Z -1.0000 I -0.1725 J 0.0775
G03 X 14.3189 Y 37.2160 Z -1.0000 I 0.0533 J -0.0349
G01 X 14.3230 Y 37.2070 Z -1.0000
G01 X 14.3291 Y 37.1974 Z -1.0000
G02 X 14.3279 Y 37.1664 Z -1.0000 I -0.0943 J -0.0116
G01 X 14.3317 Y 37.1573 Z -1.0000
G01 X 14.3398 Y 37.1588 Z -1.0000
G03 X 14.3524 Y 37.1865 Z -1.0000 I -0.0613 J 0.0447
G03 X 14.3586 Y 37.2407 Z -1.0000 I -0.2376 J 0.0545
G02 X 14.3646 Y 37.2909 Z -1.0000 I 0.2153 J -0.0003
G01 X 14.3721 Y 37.2969 Z -1.0000
G01 X 14.3791 Y 37.2924 Z -1.0000
G01 X 14.3795 Y 37.2810 Z -1.0000
G01 X 14.3918 Y 37.2606 Z -1.0000
G01 X 14.4232 Y 37.2757 Z -1.0000
G01 X 14.4395 Y 37.2828 Z -1.0000
G01 X 14.4497 Y 37.2705 Z -1.0000
G01 X 14.4528 Y 37.2582 Z -1.0000
G01 X 14.4576 Y 37.2559 Z -1.0000
G01 X 14.4840 Y 37.2516 Z -1.0000
G01 X 14.4885 Y 37.2398 Z -1.0000
G01 X 14.4903 Y 37.2288 Z -1.0000
G01 X 14.5058 Y 37.2188 Z -1.0000
G03 X 14.5374 Y 37.2180 Z -1.0000 I 0.0176 J 0.0657
G01 X 14.5447 Y 37.2270 Z -1.0000
G01 X 14.5495 Y 37.2379 Z -1.0000
G01 X 14.5669 Y 37.2474 Z -1.0000
G01 X 14.5814 Y 37.2563 Z -1.0000
G01 X 14.5821 Y 37.2645 Z -1.0000
G01 X 14.5828 Y 37.2715 Z -1.0000
G01 X 14.5923 Y 37.2758 Z -1.0000
G01 X 14.6025 Y 37.2719 Z -1.0000
G01 X 14.6034 Y 37.2661 Z -1.0000
G01 X 14.6007 Y 37.2562 Z -1.0000
G01 X 14.6039 Y 37.2397 Z -1.0000
G01 X 14.6297 Y 37.2206 Z -1.0000
G01 X 14.6530 Y 37.2361 Z -1.0000
G01 X 14.6584 Y 37.2381 Z -1.0000
G01 X 14.6701 Y 37.2255 Z -1.0000
G03 X 14.6850 Y 37.2054 Z -1.0000 I 0.0768 J 0.0412
G01 X 14.6936 Y 37.2018 Z -1.0000
G01 X 14.6985 Y 37.2051 Z -1.0000
G01 X 14.6979 Y 37.2124 Z -1.0000
G01 X 14.6974 Y 37.2196 Z -1.0000
G01 X 14.7026 Y 37.2229 Z -1.0000
G01 X 14.7101 Y 37.2192 Z -1.0000
G01 X 14.7138 Y 37.2084 Z -1.0000
G01 X 14.7173 Y 37.1955 Z -1.0000
G03 X 14.7303 Y 37.1801 Z -1.0000 I 0.0496 J 0.0289
G01 X 14.7362 Y 37.1674 Z -1.0000
G01 X 14.7301 Y 37.1570 Z -1.0000
G01 X 14.7194 Y 37.1461 Z -1.0000
G01 X 14.7196 Y 37.1376 Z -1.0000
G01 X 14.7269 Y 37.1322 Z -1.0000
G01 X 14.7357 Y 37.1336 Z -1.0000
G01 X 14.7423 Y 37.1340 Z -1.0000
G01 X 14.7455 Y 37.1291 Z -1.0000
G01 X 14.7428 Y 37.1200 Z -1.0000
G01 X 14.7344 Y 37.1117 Z -1.0000
G01 X 14.7311 Y 37.0909 Z -1.0000
G01 X 14.7653 Y 37.0752 Z -1.0000
G01 X 14.7702 Y 37.0788 Z -1.0000
G01 X 14.7682 Y 37.0844 Z -1.0000
G01 X 14.7617 Y 37.0934 Z -1.0000
G01 X 14.7645 Y 37.1000 Z -1.0000
G01 X 14.7816 Y 37.0923 Z -1.0000
G01 X 14.7715 Y 37.0601 Z -1.0000
G01 X 14.7635 Y 37.0456 Z -1.0000
G01 X 14.7667 Y 37.0381 Z -1.0000
G01 X 14.7742 Y 37.0371 Z -1.0000
G01 X 14.7773 Y 37.0414 Z -1.0000
G01 X 14.7996 Y 37.0604 Z -1.0000
G02 X 14.8541 Y 37.0291 Z -1.0000 I -0.0139 J -0.0874
G01 X 14.8630 Y 37.0297 Z -1.0000
G01 X 14.8679 Y 37.0512 Z -1.0000
G02 X 14.8697 Y 37.0901 Z -1.0000 I 0.1246 J 0.0136
G01 X 14.8771 Y 37.0961 Z -1.0000
G01 X 14.8996 Y 37.1102 Z -1.0000
G01 X 14.8982 Y 37.1394 Z -1.0000
G01 X 14.8980 Y 37.1458 Z -1.0000
G01 X 14.9034 Y 37.1490 Z -1.0000
G01 X 14.9154 Y 37.1631 Z -1.0000
G01 X 14.8976 Y 37.1849 Z -1.0000
G01 X 14.8902 Y 37.1940 Z -1.0000
G01 X 14.8938 Y 37.2075 Z -1.0000
G01 X 14.9023 Y 37.2232 Z -1.0000
G01 X 14.9007 Y 37.2298 Z -1.0000
G01 X 14.8986 Y 37.2369 Z -1.0000
G02 X 14.9078 Y 37.2639 Z -1.0000 I 0.1134 J -0.0236
G03 X 14.9077 Y 37.3102 Z -1.0000 I -0.0474 J 0.0231
G03 X 14.8685 Y 37.3438 Z -1.0000 I -0.0587 J -0.0289
G01 X 14.8566 Y 37.3548 Z -1.0000
G02 X 14.8535 Y 37.3817 Z -1.0000 I 0.0487 J 0.0193
G03 X 14.8527 Y 37.4114 Z -1.0000 I -0.0866 J 0.0125
G01 X 14.8449 Y 37.4245 Z -1.0000
G01 X 14.8393 Y 37.4235 Z -1.0000
G01 X 14.8378 Y 37.4120 Z -1.0000
G01 X 14.8370 Y 37.3980 Z -1.0000
G01 X 14.8317 Y 37.3962 Z -1.0000
G01 X 14.8231 Y 37.4147 Z -1.0000
G02 X 14.8402 Y 37.4553 Z -1.0000 I 0.0862 J -0.0124
G01 X 14.8579 Y 37.4640 Z -1.0000
G01 X 14.8704 Y 37.4553 Z -1.0000
G02 X 14.8770 Y 37.4293 Z -1.0000 I -0.1088 J -0.0412
G01 X 14.8750 Y 37.4200 Z -1.0000
G01 X 14.8915 Y 37.4226 Z -1.0000
G01 X 14.9116 Y 37.4281 Z -1.0000
G01 X 14.9198 Y 37.4237 Z -1.0000
G01 X 14.9203 Y 37.4164 Z -1.0000
G01 X 14.9152 Y 37.4131 Z -1.0000
G01 X 14.9078 Y 37.4093 Z -1.0000
G01 X 14.9040 Y 37.3972 Z -1.0000
G01 X 14.9227 Y 37.3871 Z -1.0000
G01 X 14.9436 Y 37.4228 Z -1.0000
G02 X 14.9641 Y 37.4723 Z -1.0000 I 0.0827 J -0.0052
G01 X 14.9863 Y 37.4712 Z -1.0000
G03 X 15.0304 Y 37.4469 Z -1.0000 I 0.0475 J 0.0339
G01 X 15.0681 Y 37.4665 Z -1.0000
G01 X 15.0662 Y 37.4715 Z -1.0000
G01 X 15.0506 Y 37.4714 Z -1.0000
G01 X 15.0464 Y 37.4743 Z -1.0000
G01 X 15.0502 Y 37.4820 Z -1.0000
G02 X 15.0755 Y 37.4924 Z -1.0000 I 0.0336 J -0.0459
G01 X 15.0977 Y 37.4890 Z -1.0000
G01 X 15.1074 Y 37.4772 Z -1.0000
G01 X 15.0903 Y 37.4605 Z -1.0000
G01 X 15.1048 Y 37.4448 Z -1.0000
G01 X 15.1129 Y 37.4474 Z -1.0000
G01 X 15.1157 Y 37.4527 Z -1.0000
G02 X 15.1391 Y 37.5044 Z -1.0000 I 0.0765 J -0.0034
G01 X 15.1663 Y 37.5014 Z -1.0000
G01 X 15.1754 Y 37.4930 Z -1.0000
G03 X 15.2052 Y 37.4801 Z -1.0000 I 0.0845 J 0.1537
G03 X 15.2550 Y 37.4804 Z -1.0000 I 0.0244 J 0.0742
G03 X 15.2980 Y 37.5120 Z -1.0000 I -0.0292 J 0.0850
G02 X 15.3746 Y 37.5591 Z -1.0000 I 0.0966 J -0.0713
G02 X 15.5016 Y 37.5464 Z -1.0000 I 0.0403 J -0.2386
G01 X 15.5151 Y 37.5447 Z -1.0000
G03 X 15.5819 Y 37.5553 Z -1.0000 I -0.0782 J 0.7048
G02 X 15.6492 Y 37.5672 Z -1.0000 I 0.2275 J -1.0896
G02 X 15.7282 Y 37.5766 Z -1.0000 I 0.2160 J -1.4851
G02 X 15.8042 Y 37.5746 Z -1.0000 I 0.0298 J -0.3246
G01 X 15.8307 Y 37.5619 Z -1.0000
G03 X 15.8563 Y 37.5457 Z -1.0000 I 0.0540 J 0.0573
G01 X 15.8602 Y 37.5504 Z -1.0000
G01 X 15.8610 Y 37.5570 Z -1.0000
G01 X 15.8708 Y 37.5610 Z -1.0000
G01 X 15.8803 Y 37.5652 Z -1.0000
G01 X 15.8809 Y 37.5723 Z -1.0000
G01 X 15.8722 Y 37.5783 Z -1.0000
G01 X 15.8565 Y 37.5769 Z -1.0000
G01 X 15.8515 Y 37.5784 Z -1.0000
G01 X 15.8519 Y 37.5833 Z -1.0000
G01 X 15.8669 Y 37.5898 Z -1.0000
G02 X 15.9451 Y 37.5861 Z -1.0000 I 0.0150 J -0.5016
G03 X 16.0231 Y 37.5807 Z -1.0000 I 0.0863 J 0.6812
G01 X 16.0310 Y 37.5850 Z -1.0000
G01 X 16.0602 Y 37.6054 Z -1.0000
G02 X 16.1055 Y 37.6003 Z -1.0000 I 0.0148 J -0.0722
G03 X 16.1282 Y 37.5954 Z -1.0000 I 0.0225 J 0.0494
G01 X 16.1425 Y 37.6004 Z -1.0000
G01 X 16.1614 Y 37.6076 Z -1.0000
G02 X 16.2326 Y 37.6049 Z -1.0000 I 0.0204 J -0.4086
G01 X 16.2419 Y 37.5997 Z -1.0000
G01 X 16.2458 Y 37.5885 Z -1.0000
G01 X 16.2400 Y 37.5799 Z -1.0000
G02 X 16.2141 Y 37.5759 Z -1.0000 I -0.0218 J 0.0549
G03 X 16.1861 Y 37.5741 Z -1.0000 I -0.0073 J -0.1052
G01 X 16.1824 Y 37.5695 Z -1.0000
G01 X 16.1890 Y 37.5630 Z -1.0000
G03 X 16.3008 Y 37.5703 Z -1.0000 I -0.0064 J 0.9519
G02 X 16.3473 Y 37.5703 Z -1.0000 I 0.0231 J -0.1850
G01 X 16.3497 Y 37.5641 Z -1.0000
G01 X 16.3454 Y 37.5538 Z -1.0000
G01 X 16.3485 Y 37.5504 Z -1.0000
G01 X 16.3790 Y 37.5723 Z -1.0000
G01 X 16.3697 Y 37.6125 Z -1.0000
G01 X 16.3720 Y 37.6187 Z -1.0000
G01 X 16.3938 Y 37.6138 Z -1.0000
G01 X 16.4120 Y 37.6092 Z -1.0000
G01 X 16.4201 Y 37.6138 Z -1.0000
G01 X 16.4288 Y 37.6206 Z -1.0000
G02 X 16.4518 Y 37.6244 Z -1.0000 I 0.0231 J -0.0691
G03 X 16.4748 Y 37.6284 Z -1.0000 I 0.0000 J 0.0673
G01 X 16.4843 Y 37.6361 Z -1.0000
G01 X 16.4942 Y 37.6421 Z -1.0000
G02 X 16.5456 Y 37.6397 Z -1.0000 I 0.0144 J -0.2474
G03 X 16.5998 Y 37.6334 Z -1.0000 I 0.1229 J 0.8129
G03 X 16.6283 Y 37.6328 Z -1.0000 I 0.0187 J 0.2224
G01 X 16.6478 Y 37.6276 Z -1.0000
G01 X 16.6509 Y 37.6184 Z -1.0000
G01 X 16.6415 Y 37.6083 Z -1.0000
G01 X 16.6223 Y 37.6047 Z -1.0000
G03 X 16.5511 Y 37.6010 Z -1.0000 I -0.0219 J -0.2659
G01 X 16.5416 Y 37.5895 Z -1.0000
G01 X 16.5558 Y 37.5670 Z -1.0000
G03 X 16.6028 Y 37.5602 Z -1.0000 I 0.0343 J 0.0716
G03 X 16.6363 Y 37.5746 Z -1.0000 I -0.0121 J 0.0746
G03 X 16.6631 Y 37.6059 Z -1.0000 I -0.0583 J 0.0771
G02 X 16.6881 Y 37.6359 Z -1.0000 I 0.0857 J -0.0460
G01 X 16.7044 Y 37.6389 Z -1.0000
G01 X 16.7155 Y 37.6409 Z -1.0000
G01 X 16.7179 Y 37.6496 Z -1.0000
G01 X 16.7239 Y 37.6590 Z -1.0000
G01 X 16.7422 Y 37.6510 Z -1.0000
G01 X 16.7566 Y 37.6429 Z -1.0000
G01 X 16.7754 Y 37.6462 Z -1.0000
G02 X 16.7955 Y 37.6529 Z -1.0000 I 0.0289 J -0.0539
G01 X 16.8060 Y 37.6507 Z -1.0000
G01 X 16.8132 Y 37.6500 Z -1.0000
G01 X 16.8163 Y 37.6546 Z -1.0000
G01 X 16.8133 Y 37.6628 Z -1.0000
G01 X 16.8031 Y 37.6702 Z -1.0000
G01 X 16.8010 Y 37.6738 Z -1.0000
G01 X 16.8037 Y 37.6764 Z -1.0000
G01 X 16.8169 Y 37.6746 Z -1.0000
G02 X 16.8497 Y 37.6605 Z -1.0000 I -0.0802 J -0.2324
G03 X 16.8822 Y 37.6516 Z -1.0000 I 0.0375 J 0.0724
G03 X 16.9130 Y 37.6567 Z -1.0000 I 0.0042 J 0.0693
G02 X 16.9420 Y 37.6599 Z -1.0000 I 0.0198 J -0.0478
G01 X 16.9647 Y 37.6475 Z -1.0000
G02 X 16.9827 Y 37.6242 Z -1.0000 I -0.1164 J -0.1084
G01 X 16.9854 Y 37.6149 Z -1.0000
G01 X 16.9972 Y 37.5977 Z -1.0000
G01 X 17.0202 Y 37.6015 Z -1.0000
G01 X 17.0346 Y 37.6079 Z -1.0000
G02 X 17.1281 Y 37.6168 Z -1.0000 I 0.1436 J -1.0141
G03 X 17.2227 Y 37.6236 Z -1.0000 I -0.1027 J 2.0966
G03 X 17.2389 Y 37.6273 Z -1.0000 I -0.0061 J 0.0646
G02 X 17.2952 Y 37.6404 Z -1.0000 I 0.0810 J -0.2210
G01 X 17.3023 Y 37.6340 Z -1.0000
G01 X 17.3053 Y 37.6273 Z -1.0000
G01 X 17.3129 Y 37.6244 Z -1.0000
G01 X 17.3186 Y 37.6293 Z -1.0000
G03 X 17.3235 Y 37.6880 Z -1.0000 I -0.3558 J 0.0588
G02 X 17.3339 Y 37.7445 Z -1.0000 I 0.1573 J 0.0000
G01 X 17.3521 Y 37.7626 Z -1.0000
G02 X 17.4084 Y 37.7634 Z -1.0000 I 0.0292 J -0.0768
G01 X 17.4358 Y 37.7334 Z -1.0000
G01 X 17.4467 Y 37.7228 Z -1.0000
G01 X 17.4611 Y 37.7278 Z -1.0000
G02 X 17.4796 Y 37.7440 Z -1.0000 I 0.0559 J -0.0453
G01 X 17.4864 Y 37.7432 Z -1.0000
G03 X 17.5307 Y 37.7199 Z -1.0000 I 0.0595 J 0.0596
G03 X 17.5947 Y 37.7232 Z -1.0000 I 0.0250 J 0.1359
G02 X 17.6262 Y 37.7250 Z -1.0000 I 0.0195 J -0.0662
G01 X 17.6474 Y 37.7139 Z -1.0000
G01 X 17.6562 Y 37.6972 Z -1.0000
G01 X 17.6518 Y 37.6898 Z -1.0000
G01 X 17.6504 Y 37.6844 Z -1.0000
G01 X 17.6678 Y 37.6721 Z -1.0000
G03 X 17.6976 Y 37.6680 Z -1.0000 I 0.0226 J 0.0539
G03 X 17.7276 Y 37.6795 Z -1.0000 I -0.0082 J 0.0663
G01 X 17.7492 Y 37.6810 Z -1.0000
G01 X 17.7579 Y 37.6640 Z -1.0000
G01 X 17.7674 Y 37.6552 Z -1.0000
G03 X 17.8253 Y 37.6799 Z -1.0000 I -0.0421 J 0.1791
G03 X 17.8573 Y 37.7109 Z -1.0000 I -0.0628 J 0.0969
G01 X 17.8528 Y 37.7195 Z -1.0000
G01 X 17.8455 Y 37.7164 Z -1.0000
G01 X 17.8373 Y 37.7036 Z -1.0000
G01 X 17.8286 Y 37.6917 Z -1.0000
G01 X 17.8177 Y 37.6881 Z -1.0000
G01 X 17.8154 Y 37.6926 Z -1.0000
G02 X 17.8387 Y 37.7198 Z -1.0000 I 0.1205 J -0.0795
G02 X 17.8745 Y 37.7476 Z -1.0000 I 0.1949 J -0.2143
G01 X 17.8862 Y 37.7510 Z -1.0000
G01 X 17.8886 Y 37.7479 Z -1.0000
G01 X 17.8837 Y 37.7410 Z -1.0000
G01 X 17.8740 Y 37.7306 Z -1.0000
G01 X 17.8749 Y 37.7245 Z -1.0000
G01 X 17.8816 Y 37.7233 Z -1.0000
G03 X 17.9010 Y 37.7371 Z -1.0000 I -0.0311 J 0.0643
G02 X 17.9219 Y 37.7528 Z -1.0000 I 0.0656 J -0.0655
G01 X 17.9362 Y 37.7565 Z -1.0000
G01 X 17.9455 Y 37.7622 Z -1.0000
G01 X 17.9487 Y 37.7809 Z -1.0000
G01 X 17.9555 Y 37.7909 Z -1.0000
G01 X 17.9787 Y 37.7881 Z -1.0000
G02 X 18.0060 Y 37.7698 Z -1.0000 I -0.0667 J -0.1289
G01 X 18.0062 Y 37.7647 Z -1.0000
G01 X 17.9999 Y 37.7633 Z -1.0000
G01 X 17.9840 Y 37.7721 Z -1.0000
G01 X 17.9718 Y 37.7772 Z -1.0000
G01 X 17.9679 Y 37.7736 Z -1.0000
G01 X 17.9713 Y 37.7651 Z -1.0000
G01 X 17.9791 Y 37.7618 Z -1.0000
G01 X 17.9841 Y 37.7582 Z -1.0000
G01 X 17.9831 Y 37.7501 Z -1.0000
G01 X 17.9971 Y 37.7499 Z -1.0000
G01 X 18.0140 Y 37.7646 Z -1.0000
G03 X 18.0253 Y 37.7888 Z -1.0000 I -0.0575 J 0.0415
G01 X 18.0362 Y 37.8043 Z -1.0000
G01 X 18.0476 Y 37.8037 Z -1.0000
G01 X 18.0581 Y 37.8014 Z -1.0000
G01 X 18.0630 Y 37.8080 Z -1.0000
G01 X 18.0661 Y 37.8224 Z -1.0000
G01 X 18.0709 Y 37.8259 Z -1.0000
G02 X 18.0789 Y 37.8265 Z -1.0000 I 0.0226 J -0.2363
G02 X 18.1399 Y 37.8302 Z -1.0000 I 0.8006 J -13.0062
G03 X 18.2567 Y 37.8544 Z -1.0000 I -0.0230 J 0.4041
G01 X 18.2743 Y 37.8796 Z -1.0000
G01 X 18.2783 Y 37.8850 Z -1.0000
G01 X 18.2906 Y 37.8846 Z -1.0000
G01 X 18.3065 Y 37.8826 Z -1.0000
G01 X 18.3249 Y 37.8887 Z -1.0000
G02 X 18.4157 Y 37.9205 Z -1.0000 I 0.1299 J -0.2260
G01 X 18.4450 Y 37.9069 Z -1.0000
G01 X 18.4540 Y 37.9021 Z -1.0000
G03 X 18.4822 Y 37.9082 Z -1.0000 I -0.0028 J 0.0808
G02 X 18.5599 Y 37.9294 Z -1.0000 I 0.1213 J -0.2929
G01 X 18.5702 Y 37.9204 Z -1.0000
G01 X 18.5745 Y 37.9140 Z -1.0000
G03 X 18.5972 Y 37.9097 Z -1.0000 I 0.0227 J 0.0569
G01 X 18.6168 Y 37.9138 Z -1.0000
G01 X 18.6184 Y 37.9191 Z -1.0000
G01 X 18.6242 Y 37.9344 Z -1.0000
G01 X 18.6556 Y 37.9300 Z -1.0000
G03 X 18.6866 Y 37.9214 Z -1.0000 I 0.0297 J 0.0469
G01 X 18.6917 Y 37.9308 Z -1.0000
G01 X 18.6924 Y 37.9373 Z -1.0000
G01 X 18.7020 Y 37.9414 Z -1.0000
G01 X 18.7092 Y 37.9356 Z -1.0000
G01 X 18.7070 Y 37.9192 Z -1.0000
G01 X 18.7071 Y 37.9093 Z -1.0000
G01 X 18.7138 Y 37.9075 Z -1.0000
G01 X 18.7414 Y 37.9018 Z -1.0000
G02 X 18.7555 Y 37.8532 Z -1.0000 I -0.0549 J -0.0422
G03 X 18.7612 Y 37.8203 Z -1.0000 I 0.0634 J -0.0058
G01 X 18.7799 Y 37.8013 Z -1.0000
G03 X 18.8286 Y 37.7935 Z -1.0000 I 0.0371 J 0.0754
G01 X 18.8346 Y 37.8090 Z -1.0000
G01 X 18.8322 Y 37.8203 Z -1.0000
G01 X 18.8405 Y 37.8293 Z -1.0000
G01 X 18.8484 Y 37.8384 Z -1.0000
G01 X 18.8456 Y 37.8507 Z -1.0000
G01 X 18.8441 Y 37.8640 Z -1.0000
G02 X 18.8645 Y 37.8875 Z -1.0000 I 0.0585 J -0.0300
G02 X 18.8970 Y 37.9055 Z -1.0000 I 0.0951 J -0.1335
G02 X 18.9182 Y 37.9097 Z -1.0000 I 0.0212 J -0.0512
G03 X 18.9396 Y 37.9133 Z -1.0000 I 0.0000 J 0.0658
G03 X 18.9657 Y 37.9261 Z -1.0000 I -0.0383 J 0.1111
G02 X 18.9919 Y 37.9380 Z -1.0000 I 0.0524 J -0.0799
G02 X 19.0155 Y 37.9403 Z -1.0000 I 0.0179 J -0.0627
G03 X 19.0887 Y 37.9425 Z -1.0000 I 0.0273 J 0.3080
G01 X 19.0931 Y 37.9519 Z -1.0000
G01 X 19.0974 Y 37.9577 Z -1.0000
G02 X 19.1218 Y 37.9446 Z -1.0000 I -0.0143 J -0.0559
G01 X 19.1313 Y 37.9418 Z -1.0000
G01 X 19.1340 Y 37.9464 Z -1.0000
G01 X 19.1353 Y 37.9573 Z -1.0000
G01 X 19.1432 Y 37.9597 Z -1.0000
G01 X 19.1572 Y 37.9596 Z -1.0000
G01 X 19.1656 Y 37.9677 Z -1.0000
G01 X 19.1957 Y 37.9884 Z -1.0000
G02 X 19.3317 Y 37.9676 Z -1.0000 I -0.0003 J -0.4582
G01 X 19.3389 Y 37.9715 Z -1.0000
G01 X 19.3360 Y 37.9835 Z -1.0000
G01 X 19.3358 Y 37.9952 Z -1.0000
G01 X 19.3493 Y 38.0000 Z -1.0000
G03 X 19.3789 Y 37.9984 Z -1.0000 I 0.0198 J 0.0913
G01 X 19.3836 Y 38.0036 Z -1.0000
G01 X 19.3876 Y 38.0088 Z -1.0000
G01 X 19.4012 Y 38.0079 Z -1.0000
G01 X 19.4102 Y 38.0083 Z -1.0000
G01 X 19.4115 Y 38.0129 Z -1.0000
G01 X 19.4128 Y 38.0194 Z -1.0000
G01 X 19.4254 Y 38.0230 Z -1.0000
G01 X 19.4435 Y 38.0174 Z -1.0000
G01 X 19.4517 Y 38.0078 Z -1.0000
G01 X 19.4804 Y 37.9872 Z -1.0000
G01 X 19.4998 Y 38.0059 Z -1.0000
G01 X 19.5040 Y 38.0115 Z -1.0000
G01 X 19.5172 Y 38.0109 Z -1.0000
G01 X 19.5339 Y 38.0098 Z -1.0000
G03 X 19.5603 Y 38.0212 Z -1.0000 I -0.0192 J 0.0810
G02 X 19.5866 Y 38.0332 Z -1.0000 I 0.0525 J -0.0801
G01 X 19.6004 Y 38.0326 Z -1.0000
G01 X 19.6122 Y 38.0325 Z -1.0000
G01 X 19.6187 Y 38.0392 Z -1.0000
G01 X 19.6264 Y 38.0464 Z -1.0000
G02 X 19.6728 Y 38.0533 Z -1.0000 I 0.0551 J -0.2116
G03 X 19.7218 Y 38.0579 Z -1.0000 I -0.0184 J 0.4609
G01 X 19.7293 Y 38.0616 Z -1.0000
G01 X 19.7358 Y 38.0636 Z -1.0000
G01 X 19.7480 Y 38.0577 Z -1.0000
G01 X 19.7614 Y 38.0527 Z -1.0000
G03 X 19.7928 Y 38.0568 Z -1.0000 I 0.0023 J 0.1055
G02 X 19.8238 Y 38.0607 Z -1.0000 I 0.0283 J -0.0987
G01 X 19.8357 Y 38.0556 Z -1.0000
G01 X 19.8453 Y 38.0520 Z -1.0000
G01 X 19.8532 Y 38.0567 Z -1.0000
G01 X 19.8808 Y 38.0692 Z -1.0000
G01 X 19.9119 Y 38.0470 Z -1.0000
G01 X 19.9377 Y 38.0297 Z -1.0000
G01 X 19.9582 Y 38.0423 Z -1.0000
G01 X 19.9675 Y 38.0505 Z -1.0000
G01 X 19.9828 Y 38.0485 Z -1.0000
G01 X 20.0011 Y 38.0448 Z -1.0000
G03 X 20.0314 Y 38.0540 Z -1.0000 I -0.0097 J 0.0864
G02 X 20.0620 Y 38.0649 Z -1.0000 I 0.0560 J -0.1082
G01 X 20.0771 Y 38.0637 Z -1.0000
G01 X 20.0850 Y 38.0641 Z -1.0000
G01 X 20.0861 Y 38.0683 Z -1.0000
G01 X 20.0859 Y 38.0752 Z -1.0000
G01 X 20.0916 Y 38.0787 Z -1.0000
G01 X 20.1024 Y 38.0815 Z -1.0000
G03 X 20.1190 Y 38.0941 Z -1.0000 I -0.0377 J 0.0668
G01 X 20.1509 Y 38.1040 Z -1.0000
G01 X 20.1586 Y 38.0866 Z -1.0000
G01 X 20.1605 Y 38.0817 Z -1.0000
G01 X 20.1794 Y 38.0809 Z -1.0000
G01 X 20.1984 Y 38.0803 Z -1.0000
G01 X 20.2004 Y 38.0754 Z -1.0000
G01 X 20.2019 Y 38.0714 Z -1.0000
G01 X 20.2126 Y 38.0718 Z -1.0000
G01 X 20.2228 Y 38.0694 Z -1.0000
G01 X 20.2258 Y 38.0577 Z -1.0000
G01 X 20.2258 Y 38.0440 Z -1.0000
G01 X 20.2298 Y 38.0423 Z -1.0000
G01 X 20.2357 Y 38.0415 Z -1.0000
G01 X 20.2394 Y 38.0318 Z -1.0000
G01 X 20.2429 Y 38.0188 Z -1.0000
G01 X 20.2488 Y 38.0153 Z -1.0000
G01 X 20.2680 Y 38.0287 Z -1.0000
G01 X 20.2650 Y 38.0590 Z -1.0000
G01 X 20.2668 Y 38.0631 Z -1.0000
G01 X 20.2855 Y 38.0623 Z -1.0000
G03 X 20.3111 Y 38.0617 Z -1.0000 I 0.0142 J 0.0565
G03 X 20.3363 Y 38.0724 Z -1.0000 I -0.0131 J 0.0654
G02 X 20.3615 Y 38.0856 Z -1.0000 I 0.0629 J -0.0898
G02 X 20.3823 Y 38.0893 Z -1.0000 I 0.0208 J -0.0568
G03 X 20.4027 Y 38.0929 Z -1.0000 I -0.0000 J 0.0602
G01 X 20.4167 Y 38.1017 Z -1.0000
G01 X 20.4313 Y 38.1090 Z -1.0000
G02 X 20.5156 Y 38.1152 Z -1.0000 I 0.0926 J -0.6806
G02 X 20.5979 Y 38.1063 Z -1.0000 I 0.0042 J -0.3492
G02 X 20.6268 Y 38.0896 Z -1.0000 I -0.0127 J -0.0552
G03 X 20.6473 Y 38.0737 Z -1.0000 I 0.0592 J 0.0549
G01 X 20.6514 Y 38.0762 Z -1.0000
G01 X 20.6556 Y 38.0851 Z -1.0000
G01 X 20.6673 Y 38.0893 Z -1.0000
G01 X 20.6792 Y 38.0932 Z -1.0000
G01 X 20.6831 Y 38.1011 Z -1.0000
G01 X 20.6870 Y 38.1048 Z -1.0000
G01 X 20.6985 Y 38.1002 Z -1.0000
G01 X 20.7143 Y 38.0928 Z -1.0000
G01 X 20.7261 Y 38.0950 Z -1.0000
G01 X 20.7297 Y 38.1025 Z -1.0000
G01 X 20.7242 Y 38.1111 Z -1.0000
G01 X 20.7162 Y 38.1205 Z -1.0000
G01 X 20.7175 Y 38.1272 Z -1.0000
G01 X 20.7250 Y 38.1293 Z -1.0000
G01 X 20.7409 Y 38.1212 Z -1.0000
G01 X 20.7570 Y 38.1159 Z -1.0000
G01 X 20.7545 Y 38.1227 Z -1.0000
G03 X 20.7385 Y 38.1375 Z -1.0000 I -0.0717 J -0.0612
G01 X 20.7357 Y 38.1490 Z -1.0000
G01 X 20.7506 Y 38.1627 Z -1.0000
G02 X 20.7797 Y 38.1667 Z -1.0000 I 0.0231 J -0.0605
G01 X 20.7990 Y 38.1583 Z -1.0000
G03 X 20.8423 Y 38.1432 Z -1.0000 I 0.0394 J 0.0435
G01 X 20.8733 Y 38.1632 Z -1.0000
G01 X 20.9043 Y 38.1865 Z -1.0000
G01 X 20.9305 Y 38.1752 Z -1.0000
G01 X 20.9382 Y 38.1691 Z -1.0000
G03 X 20.9797 Y 38.1590 Z -1.0000 I 0.0842 J 0.2571
G02 X 21.0211 Y 38.1478 Z -1.0000 I -0.0317 J -0.1983
G02 X 21.0398 Y 38.1356 Z -1.0000 I -0.0198 J -0.0507
G01 X 21.0548 Y 38.1294 Z -1.0000
G01 X 21.0656 Y 38.1359 Z -1.0000
G01 X 21.0778 Y 38.1480 Z -1.0000
G01 X 21.0956 Y 38.1527 Z -1.0000
G01 X 21.1123 Y 38.1566 Z -1.0000
G01 X 21.1162 Y 38.1629 Z -1.0000
G01 X 21.1200 Y 38.1676 Z -1.0000
G01 X 21.1332 Y 38.1666 Z -1.0000
G01 X 21.1481 Y 38.1661 Z -1.0000
G01 X 21.1590 Y 38.1746 Z -1.0000
G01 X 21.1690 Y 38.1735 Z -1.0000
G01 X 21.1678 Y 38.1487 Z -1.0000
G03 X 21.1649 Y 38.0899 Z -1.0000 I 0.0726 J -0.0331
G01 X 21.1953 Y 38.0681 Z -1.0000
G01 X 21.2189 Y 38.0897 Z -1.0000
G01 X 21.2006 Y 38.1264 Z -1.0000
G01 X 21.1984 Y 38.1412 Z -1.0000
G01 X 21.2238 Y 38.1527 Z -1.0000
G01 X 21.2334 Y 38.1470 Z -1.0000
G01 X 21.2324 Y 38.1368 Z -1.0000
G01 X 21.2300 Y 38.1260 Z -1.0000
G01 X 21.2364 Y 38.1210 Z -1.0000
G01 X 21.2505 Y 38.1347 Z -1.0000
G01 X 21.2374 Y 38.1673 Z -1.0000
G01 X 21.2331 Y 38.1816 Z -1.0000
G01 X 21.2431 Y 38.1950 Z -1.0000
G02 X 21.2918 Y 38.2017 Z -1.0000 I 0.0334 J -0.0624
G01 X 21.2999 Y 38.1825 Z -1.0000
G01 X 21.2932 Y 38.1793 Z -1.0000
G01 X 21.2851 Y 38.1846 Z -1.0000
G01 X 21.2756 Y 38.1916 Z -1.0000
G01 X 21.2646 Y 38.1899 Z -1.0000
G01 X 21.2607 Y 38.1810 Z -1.0000
G01 X 21.2703 Y 38.1622 Z -1.0000
G01 X 21.3031 Y 38.1499 Z -1.0000
G03 X 21.3576 Y 38.1726 Z -1.0000 I -0.0128 J 0.1078
G02 X 21.3953 Y 38.1925 Z -1.0000 I 0.0731 J -0.0924
G01 X 21.4093 Y 38.1889 Z -1.0000
G01 X 21.4214 Y 38.1621 Z -1.0000
G01 X 21.4129 Y 38.1527 Z -1.0000
G01 X 21.4083 Y 38.1488 Z -1.0000
G01 X 21.4088 Y 38.1315 Z -1.0000
G01 X 21.4197 Y 38.1174 Z -1.0000
G03 X 21.4460 Y 38.1104 Z -1.0000 I 0.0263 J 0.0463
G01 X 21.4678 Y 38.1181 Z -1.0000
G01 X 21.4722 Y 38.1315 Z -1.0000
G01 X 21.4730 Y 38.1478 Z -1.0000
G01 X 21.4800 Y 38.1527 Z -1.0000
G01 X 21.4919 Y 38.1561 Z -1.0000
G03 X 21.5229 Y 38.1800 Z -1.0000 I -0.1175 J 0.1841
G02 X 21.5548 Y 38.1996 Z -1.0000 I 0.0648 J -0.0699
G02 X 21.5846 Y 38.2027 Z -1.0000 I 0.0209 J -0.0570
G03 X 21.6147 Y 38.2047 Z -1.0000 I 0.0104 J 0.0708
G03 X 21.6383 Y 38.2181 Z -1.0000 I -0.0160 J 0.0560
G01 X 21.6631 Y 38.2293 Z -1.0000
G02 X 21.7710 Y 38.2318 Z -1.0000 I 0.0695 J -0.6701
G03 X 21.8821 Y 38.2256 Z -1.0000 I 2.0748 J 36.3186
G03 X 21.9264 Y 38.2234 Z -1.0000 I 0.3277 J 6.0622
G02 X 21.9688 Y 38.2169 Z -1.0000 I -0.0094 J -0.2020
G01 X 21.9840 Y 38.2081 Z -1.0000
G01 X 21.9894 Y 38.1949 Z -1.0000
G01 X 22.0023 Y 38.1727 Z -1.0000
G03 X 22.0239 Y 38.1566 Z -1.0000 I 0.0550 J 0.0512
G01 X 22.0338 Y 38.1570 Z -1.0000
G02 X 22.0752 Y 38.1712 Z -1.0000 I 0.0520 J -0.0842
G02 X 22.2186 Y 38.1769 Z -1.0000 I 0.1135 J -1.0557
G02 X 22.2576 Y 38.1717 Z -1.0000 I -0.0053 J -0.1876
G01 X 22.2709 Y 38.1642 Z -1.0000
G01 X 22.2841 Y 38.1564 Z -1.0000
G03 X 22.3103 Y 38.1527 Z -1.0000 I 0.0262 J 0.0890
G01 X 22.3340 Y 38.1459 Z -1.0000
G01 X 22.3517 Y 38.1271 Z -1.0000
G03 X 22.3681 Y 38.1088 Z -1.0000 I 0.0456 J 0.0244
G01 X 22.3806 Y 38.1073 Z -1.0000
G01 X 22.3918 Y 38.1056 Z -1.0000
G01 X 22.4016 Y 38.0908 Z -1.0000
G01 X 22.4100 Y 38.0748 Z -1.0000
G01 X 22.4163 Y 38.0739 Z -1.0000
G01 X 22.4213 Y 38.0808 Z -1.0000
G01 X 22.4205 Y 38.0922 Z -1.0000
G01 X 22.4195 Y 38.1047 Z -1.0000
G01 X 22.4258 Y 38.1210 Z -1.0000
G02 X 22.5934 Y 38.2041 Z -1.0000 I 0.1524 J -0.0967
G02 X 22.6902 Y 38.0987 Z -1.0000 I -0.0089 J -0.1054
G01 X 22.6938 Y 38.0928 Z -1.0000
G01 X 22.7087 Y 38.0893 Z -1.0000
G02 X 22.7268 Y 38.0867 Z -1.0000 I -0.0000 J -0.0654
G02 X 22.7842 Y 38.0676 Z -1.0000 I -0.1991 J -0.6939
G03 X 22.8412 Y 38.0501 Z -1.0000 I 0.1601 J 0.4212
G01 X 22.8546 Y 38.0510 Z -1.0000
G02 X 22.9285 Y 38.0543 Z -1.0000 I 0.0418 J -0.1090
G01 X 22.9391 Y 38.0269 Z -1.0000
G01 X 23.0005 Y 38.0240 Z -1.0000
G02 X 23.0626 Y 38.0185 Z -1.0000 I 0.0117 J -0.2216
G02 X 23.0927 Y 38.0025 Z -1.0000 I -0.0151 J -0.0649
G02 X 23.1144 Y 37.9762 Z -1.0000 I -0.0860 J -0.0928
G01 X 23.1156 Y 37.9654 Z -1.0000
G01 X 23.1172 Y 37.9556 Z -1.0000
G01 X 23.1333 Y 37.9417 Z -1.0000
G01 X 23.1514 Y 37.9363 Z -1.0000
G01 X 23.1551 Y 37.9397 Z -1.0000
G01 X 23.1585 Y 37.9469 Z -1.0000
G01 X 23.1736 Y 37.9548 Z -1.0000
G03 X 23.1919 Y 37.9606 Z -1.0000 I -0.0922 J 0.3213
G03 X 23.2110 Y 37.9679 Z -1.0000 I -0.1288 J 0.3674
G01 X 23.2236 Y 37.9682 Z -1.0000
G01 X 23.2269 Y 37.9625 Z -1.0000
G01 X 23.2286 Y 37.9519 Z -1.0000
G01 X 23.2385 Y 37.9439 Z -1.0000
G01 X 23.2454 Y 37.9449 Z -1.0000
G01 X 23.2464 Y 37.9496 Z -1.0000
G01 X 23.2506 Y 37.9618 Z -1.0000
G02 X 23.2887 Y 37.9648 Z -1.0000 I 0.0244 J -0.0683
G01 X 23.3045 Y 37.9560 Z -1.0000
G01 X 23.3065 Y 37.9455 Z -1.0000
G01 X 23.3132 Y 37.9344 Z -1.0000
G01 X 23.3303 Y 37.9427 Z -1.0000
G02 X 23.4697 Y 38.0030 Z -1.0000 I 0.1130 J -0.0699
G02 X 23.5566 Y 37.8967 Z -1.0000 I -0.0216 J -0.1063
G01 X 23.5608 Y 37.8914 Z -1.0000
G01 X 23.5778 Y 37.8916 Z -1.0000
G01 X 23.5913 Y 37.8915 Z -1.0000
G01 X 23.5929 Y 37.8874 Z -1.0000
G01 X 23.5888 Y 37.8512 Z -1.0000
G01 X 23.6104 Y 37.8357 Z -1.0000
G01 X 23.6151 Y 37.8398 Z -1.0000
G03 X 23.6141 Y 37.8610 Z -1.0000 I -0.0535 J 0.0079
G01 X 23.6245 Y 37.8847 Z -1.0000
G01 X 23.6479 Y 37.8791 Z -1.0000
G03 X 23.6857 Y 37.8560 Z -1.0000 I 0.0454 J 0.0318
G03 X 23.7448 Y 37.8657 Z -1.0000 I 0.0138 J 0.1003
G01 X 23.7630 Y 37.8703 Z -1.0000
G02 X 23.7891 Y 37.8668 Z -1.0000 I 0.0020 J -0.0843
G01 X 23.7996 Y 37.8577 Z -1.0000
G01 X 23.7957 Y 37.8535 Z -1.0000
G01 X 23.7996 Y 37.8463 Z -1.0000
G01 X 23.8222 Y 37.8397 Z -1.0000
G01 X 23.8259 Y 37.8464 Z -1.0000
G01 X 23.8570 Y 37.8392 Z -1.0000
G02 X 23.8897 Y 37.8181 Z -1.0000 I -0.0655 J -0.1373
G01 X 23.8947 Y 37.8073 Z -1.0000
G01 X 23.9047 Y 37.7979 Z -1.0000
G01 X 23.9302 Y 37.8093 Z -1.0000
G01 X 23.9563 Y 37.8199 Z -1.0000
G02 X 24.0395 Y 37.8078 Z -1.0000 I -0.0044 J -0.3214
G03 X 24.1012 Y 37.7927 Z -1.0000 I 0.2410 J 0.8522
G03 X 24.1476 Y 37.7855 Z -1.0000 I 0.0980 J 0.4741
G02 X 24.1924 Y 37.7760 Z -1.0000 I -0.0241 J -0.2247
G01 X 24.2091 Y 37.7658 Z -1.0000
G01 X 24.2253 Y 37.7569 Z -1.0000
G01 X 24.2478 Y 37.7572 Z -1.0000
G01 X 24.2670 Y 37.7536 Z -1.0000
G02 X 24.2853 Y 37.7308 Z -1.0000 I -0.0302 J -0.0429
G03 X 24.3016 Y 37.7023 Z -1.0000 I 0.1194 J 0.0495
G01 X 24.3107 Y 37.6973 Z -1.0000
G01 X 24.2987 Y 37.6894 Z -1.0000
G01 X 24.2907 Y 37.6781 Z -1.0000
G01 X 24.3012 Y 37.6541 Z -1.0000
G02 X 24.3158 Y 37.6258 Z -1.0000 I -0.0435 J -0.0404
G01 X 24.3107 Y 37.6087 Z -1.0000
G01 X 24.3126 Y 37.6008 Z -1.0000
G01 X 24.3260 Y 37.6038 Z -1.0000
G03 X 24.3452 Y 37.6269 Z -1.0000 I -0.0790 J 0.0848
G01 X 24.3490 Y 37.6404 Z -1.0000
G01 X 24.3691 Y 37.6741 Z -1.0000
G02 X 24.4304 Y 37.6848 Z -1.0000 I 0.0465 J -0.0850
G02 X 24.4488 Y 37.6802 Z -1.0000 I -0.0155 J -0.0997
G02 X 24.4638 Y 37.6729 Z -1.0000 I -0.0261 J -0.0731
G01 X 24.4770 Y 37.6695 Z -1.0000
G01 X 24.4849 Y 37.6740 Z -1.0000
G01 X 24.4931 Y 37.6822 Z -1.0000
G02 X 24.5102 Y 37.6909 Z -1.0000 I 0.0452 J -0.0676
G01 X 24.5214 Y 37.6873 Z -1.0000
G01 X 24.5286 Y 37.6635 Z -1.0000
G03 X 24.5492 Y 37.5804 Z -1.0000 I 0.1778 J -0.0000
G03 X 24.5876 Y 37.5519 Z -1.0000 I 0.0492 J 0.0260
G01 X 24.5948 Y 37.5554 Z -1.0000
G01 X 24.5938 Y 37.5641 Z -1.0000
G01 X 24.5970 Y 37.5810 Z -1.0000
G01 X 24.6189 Y 37.5779 Z -1.0000
G01 X 24.6366 Y 37.5690 Z -1.0000
G01 X 24.6611 Y 37.5717 Z -1.0000
G01 X 24.6871 Y 37.5754 Z -1.0000
G01 X 24.7056 Y 37.5918 Z -1.0000
G01 X 24.7296 Y 37.6061 Z -1.0000
G02 X 24.8163 Y 37.6126 Z -1.0000 I 0.0727 J -0.3882
G01 X 24.8333 Y 37.6047 Z -1.0000
G01 X 24.8348 Y 37.5923 Z -1.0000
G03 X 24.8254 Y 37.5727 Z -1.0000 I 0.2155 J -0.1157
G01 X 24.8245 Y 37.5682 Z -1.0000
G01 X 24.8431 Y 37.5481 Z -1.0000
G03 X 24.9008 Y 37.5627 Z -1.0000 I 0.0068 J 0.0947
G01 X 24.9012 Y 37.5675 Z -1.0000
G01 X 24.8905 Y 37.5714 Z -1.0000
G02 X 24.8704 Y 37.5752 Z -1.0000 I 0.0004 J 0.0582
G01 X 24.8668 Y 37.5804 Z -1.0000
G01 X 24.8764 Y 37.5936 Z -1.0000
G01 X 24.9025 Y 37.5917 Z -1.0000
G01 X 24.9011 Y 37.6017 Z -1.0000
G01 X 24.8962 Y 37.6150 Z -1.0000
G01 X 24.9036 Y 37.6183 Z -1.0000
G03 X 24.9314 Y 37.6057 Z -1.0000 I 0.0538 J 0.0822
G03 X 24.9770 Y 37.5981 Z -1.0000 I 0.0598 J 0.2175
G02 X 25.0219 Y 37.5894 Z -1.0000 I -0.0112 J -0.1780
G02 X 25.0520 Y 37.5732 Z -1.0000 I -0.0312 J -0.0941
G03 X 25.0816 Y 37.5584 Z -1.0000 I 0.0505 J 0.0642
G03 X 25.1133 Y 37.5570 Z -1.0000 I 0.0190 J 0.0722
G01 X 25.1321 Y 37.5525 Z -1.0000
G01 X 25.1348 Y 37.5336 Z -1.0000
G03 X 25.2115 Y 37.5252 Z -1.0000 I 0.0570 J 0.1660
G02 X 25.2625 Y 37.5255 Z -1.0000 I 0.0265 J -0.2354
G02 X 25.3264 Y 37.5133 Z -1.0000 I -0.0397 J -0.3817
G03 X 25.3900 Y 37.4964 Z -1.0000 I 0.6766 J 2.4147
G03 X 25.4162 Y 37.4906 Z -1.0000 I 0.1015 J 0.4028
G02 X 25.4814 Y 37.4722 Z -1.0000 I -0.0661 J -0.3585
G01 X 25.4840 Y 37.4645 Z -1.0000
G01 X 25.4856 Y 37.4599 Z -1.0000
G01 X 25.4977 Y 37.4597 Z -1.0000
G01 X 25.5182 Y 37.4612 Z -1.0000
G02 X 25.5565 Y 37.4504 Z -1.0000 I -0.0262 J -0.1652
G03 X 25.5947 Y 37.4392 Z -1.0000 I 0.0697 J 0.1668
G01 X 25.6110 Y 37.4407 Z -1.0000
G01 X 25.6270 Y 37.4415 Z -1.0000
G02 X 25.6704 Y 37.4246 Z -1.0000 I -0.0568 J -0.2092
G03 X 25.7133 Y 37.4063 Z -1.0000 I 0.1400 J 0.2687
G01 X 25.7216 Y 37.4072 Z -1.0000
G02 X 25.7825 Y 37.4159 Z -1.0000 I 0.0403 J -0.0653
G01 X 25.8071 Y 37.3835 Z -1.0000
G01 X 25.8106 Y 37.3794 Z -1.0000
G03 X 25.8573 Y 37.3744 Z -1.0000 I 0.0575 J 0.3173
G02 X 25.9272 Y 37.3582 Z -1.0000 I -0.0062 J -0.1855
G02 X 25.9889 Y 37.3153 Z -1.0000 I -0.0835 J -0.1859
G03 X 26.0203 Y 37.2930 Z -1.0000 I 0.0787 J 0.0775
G03 X 26.0523 Y 37.2853 Z -1.0000 I 0.0341 J 0.0722
G02 X 26.1429 Y 37.2757 Z -1.0000 I -0.0162 J -0.5794
G01 X 26.1536 Y 37.2664 Z -1.0000
G01 X 26.1514 Y 37.2605 Z -1.0000
G01 X 26.1440 Y 37.2605 Z -1.0000
G01 X 26.1438 Y 37.2515 Z -1.0000
G01 X 26.1591 Y 37.2393 Z -1.0000
G01 X 26.1680 Y 37.2398 Z -1.0000
G01 X 26.1775 Y 37.2413 Z -1.0000
