%
(Header)
(Generated by gcodetools from Inkscape.)
(Using default header. To add your own header create file "header" in the output dir.)
M3
(Header end.)
G21 (All units in mm)

(Start cutting path id: path124110)
(Change tool to Default tool)

G00 Z 5.0000
G00 X 9.0824 Y 18.5273

G01 Z -1.0000 F 100.0000(Penetrate)
G01 X 9.0646 Y 18.5634 Z -1.0000 F 3500.0000
G01 X 9.0809 Y 18.5851 Z -1.0000
G01 X 9.0929 Y 18.5970 Z -1.0000
G01 X 9.0885 Y 18.6134 Z -1.0000
G03 X 9.0654 Y 18.6286 Z -1.0000 I -0.0485 J -0.0485
G03 X 9.0366 Y 18.6340 Z -1.0000 I -0.0282 J -0.0710
G01 X 9.0236 Y 18.6286 Z -1.0000
G01 X 9.0244 Y 18.6219 Z -1.0000
G01 X 9.0233 Y 18.6151 Z -1.0000
G02 X 8.9575 Y 18.6048 Z -1.0000 I -0.0875 J 0.3419
G02 X 8.8745 Y 18.6073 Z -1.0000 I -0.0277 J 0.4498
G01 X 8.8494 Y 18.6182 Z -1.0000
G01 X 8.8170 Y 18.6180 Z -1.0000
G01 X 8.8034 Y 18.5791 Z -1.0000
G02 X 8.8021 Y 18.5480 Z -1.0000 I -0.0644 J -0.0129
G01 X 8.7923 Y 18.5406 Z -1.0000
G01 X 8.7611 Y 18.5615 Z -1.0000
G02 X 8.7648 Y 18.6072 Z -1.0000 I 0.0465 J 0.0192
G01 X 8.7621 Y 18.6129 Z -1.0000
G03 X 8.7309 Y 18.6121 Z -1.0000 I -0.0131 J -0.0917
G01 X 8.7084 Y 18.6172 Z -1.0000
G01 X 8.7059 Y 18.6309 Z -1.0000
G01 X 8.7119 Y 18.6569 Z -1.0000
G01 X 8.7005 Y 18.6806 Z -1.0000
G02 X 8.6839 Y 18.7055 Z -1.0000 I 0.0540 J 0.0540
G02 X 8.6766 Y 18.7388 Z -1.0000 I 0.0912 J 0.0375
G01 X 8.6685 Y 18.7488 Z -1.0000
G02 X 8.6262 Y 18.6974 Z -1.0000 I -0.0760 J 0.0194
G01 X 8.5979 Y 18.7152 Z -1.0000
G01 X 8.5924 Y 18.7328 Z -1.0000
G01 X 8.5845 Y 18.7344 Z -1.0000
G01 X 8.5394 Y 18.7320 Z -1.0000
G01 X 8.5177 Y 18.7664 Z -1.0000
G03 X 8.4852 Y 18.8390 Z -1.0000 I -0.0971 J 0.0000
G01 X 8.4430 Y 18.8328 Z -1.0000
G01 X 8.4342 Y 18.8285 Z -1.0000
G01 X 8.4240 Y 18.8350 Z -1.0000
G01 X 8.4120 Y 18.8439 Z -1.0000
G01 X 8.3981 Y 18.8418 Z -1.0000
G01 X 8.3955 Y 18.8307 Z -1.0000
G03 X 8.4377 Y 18.7780 Z -1.0000 I 0.2394 J 0.1485
G02 X 8.4784 Y 18.7254 Z -1.0000 I -0.1708 J -0.1742
G01 X 8.4752 Y 18.7126 Z -1.0000
G01 X 8.4494 Y 18.7055 Z -1.0000
G02 X 8.4044 Y 18.7142 Z -1.0000 I 0.0031 J 0.1355
G01 X 8.3798 Y 18.7151 Z -1.0000
G01 X 8.3735 Y 18.7047 Z -1.0000
G01 X 8.3557 Y 18.6780 Z -1.0000
G01 X 8.3260 Y 18.6937 Z -1.0000
G01 X 8.3250 Y 18.7097 Z -1.0000
G01 X 8.3310 Y 18.7144 Z -1.0000
G01 X 8.3473 Y 18.7322 Z -1.0000
G01 X 8.3273 Y 18.7584 Z -1.0000
G01 X 8.3210 Y 18.7670 Z -1.0000
G01 X 8.3262 Y 18.7812 Z -1.0000
G03 X 8.3370 Y 18.7990 Z -1.0000 I -0.0369 J 0.0346
G01 X 8.3374 Y 18.8129 Z -1.0000
G02 X 8.3332 Y 18.8281 Z -1.0000 I 0.2819 J 0.0846
G02 X 8.3250 Y 18.8639 Z -1.0000 I 1.5350 J 0.3723
G03 X 8.3109 Y 18.8940 Z -1.0000 I -0.0734 J -0.0160
G01 X 8.2905 Y 18.9082 Z -1.0000
G02 X 8.2698 Y 18.9211 Z -1.0000 I 0.0153 J 0.0477
G01 X 8.2638 Y 18.9359 Z -1.0000
G01 X 8.2599 Y 18.9505 Z -1.0000
G01 X 8.2537 Y 18.9534 Z -1.0000
G02 X 8.1677 Y 18.9520 Z -1.0000 I -0.0480 J 0.3025
G01 X 8.1615 Y 18.9650 Z -1.0000
G01 X 8.1594 Y 18.9704 Z -1.0000
G03 X 8.1266 Y 18.9751 Z -1.0000 I -0.0328 J -0.1137
G01 X 8.0998 Y 18.9491 Z -1.0000
G03 X 8.1238 Y 18.8920 Z -1.0000 I 0.0740 J -0.0025
G03 X 8.1761 Y 18.8600 Z -1.0000 I 0.1086 J 0.1185
G01 X 8.2044 Y 18.8619 Z -1.0000
G02 X 8.2466 Y 18.8650 Z -1.0000 I 0.0247 J -0.0461
G01 X 8.2638 Y 18.8406 Z -1.0000
G01 X 8.2676 Y 18.8251 Z -1.0000
G01 X 8.2738 Y 18.8213 Z -1.0000
G01 X 8.2794 Y 18.8166 Z -1.0000
G02 X 8.2874 Y 18.7482 Z -1.0000 I -0.5011 J -0.0932
G02 X 8.2788 Y 18.6814 Z -1.0000 I -0.1907 J -0.0093
G02 X 8.2574 Y 18.6533 Z -1.0000 I -0.0502 J 0.0158
G03 X 8.2318 Y 18.6295 Z -1.0000 I 0.0577 J -0.0881
G01 X 8.2313 Y 18.6194 Z -1.0000
G01 X 8.2314 Y 18.6115 Z -1.0000
G01 X 8.2245 Y 18.6075 Z -1.0000
G01 X 8.2143 Y 18.6114 Z -1.0000
G01 X 8.2103 Y 18.6204 Z -1.0000
G01 X 8.2056 Y 18.6265 Z -1.0000
G01 X 8.1903 Y 18.6257 Z -1.0000
G01 X 8.1777 Y 18.6295 Z -1.0000
G01 X 8.1687 Y 18.6562 Z -1.0000
G01 X 8.1610 Y 18.6710 Z -1.0000
G01 X 8.1442 Y 18.6626 Z -1.0000
G01 X 8.1301 Y 18.6836 Z -1.0000
G01 X 8.1231 Y 18.6984 Z -1.0000
G01 X 8.1134 Y 18.6972 Z -1.0000
G01 X 8.0949 Y 18.6849 Z -1.0000
G01 X 8.0766 Y 18.6880 Z -1.0000
G01 X 8.0682 Y 18.7011 Z -1.0000
G01 X 8.0729 Y 18.7117 Z -1.0000
G01 X 8.0806 Y 18.7258 Z -1.0000
G03 X 8.0729 Y 18.7877 Z -1.0000 I -0.2547 J 0.0000
G03 X 8.0426 Y 18.8386 Z -1.0000 I -0.1001 J -0.0251
G03 X 7.9840 Y 18.8693 Z -1.0000 I -0.0867 J -0.0945
G03 X 7.8904 Y 18.8756 Z -1.0000 I -0.0674 J -0.3006
G01 X 7.8761 Y 18.8601 Z -1.0000
G01 X 7.8718 Y 18.8524 Z -1.0000
G01 X 7.8561 Y 18.8481 Z -1.0000
G01 X 7.8433 Y 18.8634 Z -1.0000
G01 X 7.8628 Y 18.8844 Z -1.0000
G01 X 7.8855 Y 18.9096 Z -1.0000
G01 X 7.8694 Y 18.9283 Z -1.0000
G01 X 7.8539 Y 18.9328 Z -1.0000
G01 X 7.8494 Y 18.9409 Z -1.0000
G01 X 7.8446 Y 18.9477 Z -1.0000
G01 X 7.8260 Y 18.9492 Z -1.0000
G02 X 7.7656 Y 18.9618 Z -1.0000 I -0.0148 J 0.0803
G02 X 7.7434 Y 19.0048 Z -1.0000 I 0.0281 J 0.0417
G01 X 7.7487 Y 19.0173 Z -1.0000
G01 X 7.7545 Y 19.0161 Z -1.0000
G01 X 7.7660 Y 19.0054 Z -1.0000
G01 X 7.7763 Y 19.0093 Z -1.0000
G01 X 7.7857 Y 19.0113 Z -1.0000
G01 X 7.7974 Y 18.9951 Z -1.0000
G01 X 7.8030 Y 18.9923 Z -1.0000
G01 X 7.8080 Y 18.9993 Z -1.0000
G01 X 7.8210 Y 19.0161 Z -1.0000
G01 X 7.8527 Y 19.0126 Z -1.0000
G02 X 7.8946 Y 18.9867 Z -1.0000 I -0.2465 J -0.4436
G01 X 7.9047 Y 18.9767 Z -1.0000
G01 X 7.9145 Y 18.9717 Z -1.0000
G01 X 7.9314 Y 18.9767 Z -1.0000
G02 X 7.9508 Y 18.9845 Z -1.0000 I 0.0307 J -0.0480
G02 X 7.9894 Y 18.9884 Z -1.0000 I 0.0389 J -0.1916
G01 X 8.0181 Y 19.0153 Z -1.0000
G01 X 7.9940 Y 19.0608 Z -1.0000
G02 X 7.9505 Y 19.0883 Z -1.0000 I 0.4819 J 0.8130
G02 X 7.9335 Y 19.1013 Z -1.0000 I 0.0912 J 0.1363
G01 X 7.9154 Y 19.1103 Z -1.0000
G03 X 7.8633 Y 19.1155 Z -1.0000 I -0.0521 J -0.2584
G02 X 7.8159 Y 19.1220 Z -1.0000 I -0.0000 J 0.1755
G01 X 7.8093 Y 19.1307 Z -1.0000
G01 X 7.8025 Y 19.1383 Z -1.0000
G03 X 7.7442 Y 19.1382 Z -1.0000 I -0.0287 J -0.2494
G02 X 7.6837 Y 19.1425 Z -1.0000 I -0.0190 J 0.1605
G02 X 7.6507 Y 19.1631 Z -1.0000 I 0.0170 J 0.0640
G03 X 7.5902 Y 19.1961 Z -1.0000 I -0.0747 J -0.0650
G03 X 7.5443 Y 19.1785 Z -1.0000 I -0.0072 J -0.0497
G01 X 7.5357 Y 19.1592 Z -1.0000
G03 X 7.5306 Y 19.0929 Z -1.0000 I 0.3937 J -0.0633
G03 X 7.5440 Y 19.0352 Z -1.0000 I 0.1362 J 0.0011
G01 X 7.5666 Y 19.0176 Z -1.0000
G03 X 7.5987 Y 19.0167 Z -1.0000 I 0.0189 J 0.0972
G01 X 7.6066 Y 19.0230 Z -1.0000
G01 X 7.6399 Y 19.0460 Z -1.0000
G02 X 7.6823 Y 19.0219 Z -1.0000 I -0.0007 J -0.0508
G01 X 7.6827 Y 19.0129 Z -1.0000
G01 X 7.6756 Y 19.0085 Z -1.0000
G01 X 7.6689 Y 19.0039 Z -1.0000
G01 X 7.6699 Y 18.9937 Z -1.0000
G01 X 7.6713 Y 18.9806 Z -1.0000
G01 X 7.6606 Y 18.9672 Z -1.0000
G01 X 7.6591 Y 18.9603 Z -1.0000
G01 X 7.6682 Y 18.9553 Z -1.0000
G01 X 7.6747 Y 18.9488 Z -1.0000
G01 X 7.6687 Y 18.9365 Z -1.0000
G03 X 7.6351 Y 18.8793 Z -1.0000 I 0.0494 J -0.0676
G03 X 7.6556 Y 18.8316 Z -1.0000 I 0.0509 J -0.0064
G01 X 7.6573 Y 18.8256 Z -1.0000
G01 X 7.6515 Y 18.8216 Z -1.0000
G01 X 7.6424 Y 18.8168 Z -1.0000
G01 X 7.6422 Y 18.8081 Z -1.0000
G01 X 7.6810 Y 18.7858 Z -1.0000
G01 X 7.7024 Y 18.8067 Z -1.0000
G01 X 7.7064 Y 18.8159 Z -1.0000
G02 X 7.7244 Y 18.8270 Z -1.0000 I 0.0380 J -0.0411
G01 X 7.7715 Y 18.8189 Z -1.0000
G02 X 7.7959 Y 18.7659 Z -1.0000 I -0.0453 J -0.0530
G01 X 7.8029 Y 18.7481 Z -1.0000
G01 X 7.8193 Y 18.7408 Z -1.0000
G02 X 7.8926 Y 18.7205 Z -1.0000 I -0.0031 J -0.1538
G01 X 7.8878 Y 18.7016 Z -1.0000
G01 X 7.8683 Y 18.6965 Z -1.0000
G03 X 7.8494 Y 18.6811 Z -1.0000 I 0.0299 J -0.0559
G01 X 7.8139 Y 18.6676 Z -1.0000
G01 X 7.8000 Y 18.6886 Z -1.0000
G01 X 7.7940 Y 18.7034 Z -1.0000
G01 X 7.7682 Y 18.7076 Z -1.0000
G02 X 7.7350 Y 18.7063 Z -1.0000 I -0.0201 J 0.0923
G01 X 7.7291 Y 18.7131 Z -1.0000
G01 X 7.7235 Y 18.7234 Z -1.0000
G03 X 7.6627 Y 18.7557 Z -1.0000 I -0.2262 J -0.3520
G02 X 7.5988 Y 18.7877 Z -1.0000 I 0.2422 J 0.5631
G02 X 7.5808 Y 18.8029 Z -1.0000 I 0.0332 J 0.0576
G03 X 7.5631 Y 18.8165 Z -1.0000 I -0.0388 J -0.0322
G03 X 7.5403 Y 18.8215 Z -1.0000 I -0.0228 J -0.0496
G01 X 7.5264 Y 18.8329 Z -1.0000
G01 X 7.5339 Y 18.8534 Z -1.0000
G03 X 7.5492 Y 18.8706 Z -1.0000 I -0.0423 J 0.0531
G03 X 7.5612 Y 18.8972 Z -1.0000 I -0.0923 J 0.0576
G01 X 7.5581 Y 18.9216 Z -1.0000
G03 X 7.5292 Y 18.9502 Z -1.0000 I -0.0713 J -0.0432
G02 X 7.5015 Y 18.9842 Z -1.0000 I 0.0322 J 0.0545
G02 X 7.4820 Y 19.0879 Z -1.0000 I 0.3467 J 0.1186
G03 X 7.4746 Y 19.1384 Z -1.0000 I -0.2440 J -0.0100
G03 X 7.4636 Y 19.1601 Z -1.0000 I -0.0537 J -0.0137
G01 X 7.4599 Y 19.1794 Z -1.0000
G02 X 7.4826 Y 19.2178 Z -1.0000 I 0.0992 J -0.0326
G03 X 7.5069 Y 19.2593 Z -1.0000 I -0.0819 J 0.0759
G03 X 7.5111 Y 19.3060 Z -1.0000 I -0.1007 J 0.0326
G02 X 7.5125 Y 19.3442 Z -1.0000 I 0.1117 J 0.0150
G01 X 7.5198 Y 19.3475 Z -1.0000
G01 X 7.5219 Y 19.3518 Z -1.0000
G03 X 7.4146 Y 19.3916 Z -1.0000 I -0.0989 J -0.1021
G01 X 7.3682 Y 19.3424 Z -1.0000
G01 X 7.3711 Y 19.3325 Z -1.0000
G03 X 7.3883 Y 19.3112 Z -1.0000 I 0.1082 J 0.0696
G02 X 7.4015 Y 19.2888 Z -1.0000 I -0.0370 J -0.0370
G02 X 7.4032 Y 19.2601 Z -1.0000 I -0.0620 J -0.0181
G03 X 7.4049 Y 19.2304 Z -1.0000 I 0.0670 J -0.0112
G03 X 7.4243 Y 19.1857 Z -1.0000 I 0.1760 J 0.0499
G02 X 7.4330 Y 19.1521 Z -1.0000 I -0.0519 J -0.0313
G01 X 7.4227 Y 19.1422 Z -1.0000
G01 X 7.4103 Y 19.1279 Z -1.0000
G01 X 7.4283 Y 19.1021 Z -1.0000
G02 X 7.4542 Y 19.0739 Z -1.0000 I -0.0273 J -0.0511
G01 X 7.4484 Y 19.0553 Z -1.0000
G01 X 7.4405 Y 19.0440 Z -1.0000
G03 X 7.4350 Y 18.9869 Z -1.0000 I 0.2926 J -0.0571
G03 X 7.4420 Y 18.9392 Z -1.0000 I 0.1675 J 0.0000
G01 X 7.4501 Y 18.9361 Z -1.0000
G01 X 7.4572 Y 18.9352 Z -1.0000
G01 X 7.4590 Y 18.9269 Z -1.0000
G01 X 7.4491 Y 18.9126 Z -1.0000
G01 X 7.4307 Y 18.9040 Z -1.0000
G01 X 7.4192 Y 18.9103 Z -1.0000
G02 X 7.4165 Y 18.9392 Z -1.0000 I 0.0468 J 0.0190
G03 X 7.4170 Y 18.9754 Z -1.0000 I -0.0985 J 0.0197
G01 X 7.4082 Y 18.9886 Z -1.0000
G01 X 7.4017 Y 18.9861 Z -1.0000
G01 X 7.4020 Y 18.9668 Z -1.0000
G01 X 7.3981 Y 18.9561 Z -1.0000
G01 X 7.3867 Y 18.9569 Z -1.0000
G03 X 7.3599 Y 18.9759 Z -1.0000 I -0.1103 J -0.1272
G03 X 7.3338 Y 18.9871 Z -1.0000 I -0.0631 J -0.1104
G02 X 7.3084 Y 18.9993 Z -1.0000 I 0.0267 J 0.0882
G02 X 7.2670 Y 19.0329 Z -1.0000 I 0.1869 J 0.2727
G03 X 7.1727 Y 19.1077 Z -1.0000 I -0.4536 J -0.4752
G03 X 7.1133 Y 19.1333 Z -1.0000 I -0.1040 J -0.1591
G02 X 7.0837 Y 19.1477 Z -1.0000 I 0.0177 J 0.0741
G02 X 7.0616 Y 19.1741 Z -1.0000 I 0.0525 J 0.0664
G03 X 7.0406 Y 19.2037 Z -1.0000 I -0.1267 J -0.0678
G03 X 6.9857 Y 19.2565 Z -1.0000 I -0.4657 J -0.4292
G02 X 6.9345 Y 19.3099 Z -1.0000 I 0.2398 J 0.2812
G01 X 6.9271 Y 19.3313 Z -1.0000
G01 X 6.9209 Y 19.3500 Z -1.0000
G01 X 6.9088 Y 19.3562 Z -1.0000
G01 X 6.8938 Y 19.3623 Z -1.0000
G02 X 6.8558 Y 19.4087 Z -1.0000 I 0.2058 J 0.2078
G03 X 6.8031 Y 19.4644 Z -1.0000 I -0.1863 J -0.1233
G03 X 6.7105 Y 19.5171 Z -1.0000 I -0.2577 J -0.3453
G02 X 6.6841 Y 19.5384 Z -1.0000 I 0.0230 J 0.0555
G01 X 6.6754 Y 19.5678 Z -1.0000
G03 X 6.6743 Y 19.6033 Z -1.0000 I -0.3045 J 0.0088
G03 X 6.6669 Y 19.6636 Z -1.0000 I -0.8835 J -0.0780
G02 X 6.6602 Y 19.7463 Z -1.0000 I 0.5463 J 0.0862
G02 X 6.6659 Y 19.8193 Z -1.0000 I 0.4307 J 0.0027
G03 X 6.6683 Y 19.8716 Z -1.0000 I -0.2197 J 0.0363
G01 X 6.6613 Y 19.8832 Z -1.0000
G01 X 6.6538 Y 19.8938 Z -1.0000
G01 X 6.6551 Y 19.9113 Z -1.0000
G01 X 6.6554 Y 19.9260 Z -1.0000
G01 X 6.6484 Y 19.9309 Z -1.0000
G01 X 6.6392 Y 19.9369 Z -1.0000
G02 X 6.6252 Y 19.9811 Z -1.0000 I 0.1652 J 0.0765
G03 X 6.6132 Y 20.0299 Z -1.0000 I -0.3995 J -0.0720
G01 X 6.6052 Y 20.0451 Z -1.0000
G01 X 6.5971 Y 20.0604 Z -1.0000
G02 X 6.5863 Y 20.1041 Z -1.0000 I 0.3167 J 0.1015
G03 X 6.5763 Y 20.1485 Z -1.0000 I -0.4630 J -0.0815
G03 X 6.5700 Y 20.1627 Z -1.0000 I -0.0534 J -0.0148
G02 X 6.5561 Y 20.1966 Z -1.0000 I 0.0954 J 0.0590
G02 X 6.4988 Y 20.4723 Z -1.0000 I 6.4885 J 1.4932
G02 X 6.4713 Y 20.7806 Z -1.0000 I 1.6073 J 0.2989
G02 X 6.5025 Y 21.1244 Z -1.0000 I 2.0333 J -0.0116
G01 X 6.5161 Y 21.1337 Z -1.0000
G01 X 6.5284 Y 21.1195 Z -1.0000
G03 X 6.5349 Y 21.0167 Z -1.0000 I 2.0714 J 0.0803
G03 X 6.5392 Y 20.9969 Z -1.0000 I 0.0800 J 0.0071
G02 X 6.5445 Y 20.9620 Z -1.0000 I -0.0877 J -0.0311
G02 X 6.5364 Y 20.9299 Z -1.0000 I -0.0807 J 0.0033
G01 X 6.5350 Y 20.9074 Z -1.0000
G03 X 6.5596 Y 20.8609 Z -1.0000 I 0.1530 J 0.0515
G03 X 6.6208 Y 20.8206 Z -1.0000 I 0.0884 J 0.0674
G01 X 6.6680 Y 20.8336 Z -1.0000
G02 X 6.7025 Y 20.8597 Z -1.0000 I 0.1115 J -0.1114
G01 X 6.7141 Y 20.8594 Z -1.0000
G01 X 6.7402 Y 20.8618 Z -1.0000
G01 X 6.7419 Y 20.8845 Z -1.0000
G02 X 6.7320 Y 20.9013 Z -1.0000 I 0.0474 J 0.0390
G02 X 6.7229 Y 20.9335 Z -1.0000 I 0.1688 J 0.0655
G01 X 6.7149 Y 20.9416 Z -1.0000
G01 X 6.7067 Y 20.9370 Z -1.0000
G01 X 6.6906 Y 20.9342 Z -1.0000
G01 X 6.6808 Y 20.9706 Z -1.0000
G03 X 6.6867 Y 21.0204 Z -1.0000 I -2.2748 J 0.2954
G03 X 6.6951 Y 21.1037 Z -1.0000 I -6.1938 J 0.6670
G02 X 6.7128 Y 21.1457 Z -1.0000 I 0.0753 J -0.0071
G01 X 6.7266 Y 21.1407 Z -1.0000
G01 X 6.7410 Y 21.1096 Z -1.0000
G01 X 6.7582 Y 21.1140 Z -1.0000
G01 X 6.7929 Y 21.1337 Z -1.0000
G02 X 6.8360 Y 21.1006 Z -1.0000 I -0.0099 J -0.0573
G03 X 6.8538 Y 21.0712 Z -1.0000 I 0.1337 J 0.0609
G01 X 6.8620 Y 21.0671 Z -1.0000
G01 X 6.8668 Y 21.0630 Z -1.0000
G01 X 6.8651 Y 21.0471 Z -1.0000
G01 X 6.8649 Y 21.0322 Z -1.0000
G01 X 6.8722 Y 21.0270 Z -1.0000
G01 X 6.8900 Y 21.0460 Z -1.0000
G03 X 6.8653 Y 21.1421 Z -1.0000 I -0.2599 J -0.0155
G03 X 6.8377 Y 21.1802 Z -1.0000 I -0.1156 J -0.0549
G03 X 6.8085 Y 21.1959 Z -1.0000 I -0.0434 J -0.0459
G02 X 6.7761 Y 21.2084 Z -1.0000 I 0.0279 J 0.1201
G02 X 6.7567 Y 21.2250 Z -1.0000 I 0.0325 J 0.0580
G01 X 6.7468 Y 21.2265 Z -1.0000
G01 X 6.7399 Y 21.2138 Z -1.0000
G01 X 6.7323 Y 21.2056 Z -1.0000
G01 X 6.7184 Y 21.2124 Z -1.0000
G02 X 6.7057 Y 21.2424 Z -1.0000 I 0.0630 J 0.0441
G01 X 6.7101 Y 21.2566 Z -1.0000
G01 X 6.7219 Y 21.2992 Z -1.0000
G01 X 6.6937 Y 21.3211 Z -1.0000
G03 X 6.6061 Y 21.2963 Z -1.0000 I 0.0000 J -0.1669
G03 X 6.5445 Y 21.2291 Z -1.0000 I 0.0877 J -0.1422
G01 X 6.5329 Y 21.2244 Z -1.0000
G01 X 6.5221 Y 21.2368 Z -1.0000
G02 X 6.5204 Y 21.2727 Z -1.0000 I 0.1210 J 0.0237
G01 X 6.5271 Y 21.2871 Z -1.0000
G01 X 6.5356 Y 21.3013 Z -1.0000
G03 X 6.5394 Y 21.3262 Z -1.0000 I -0.0789 J 0.0249
G02 X 6.5418 Y 21.3523 Z -1.0000 I 0.1438 J -0.0000
G02 X 6.5519 Y 21.3937 Z -1.0000 I 0.3739 J -0.0690
G03 X 6.5638 Y 21.4349 Z -1.0000 I -1.6422 J 0.4982
G03 X 6.5799 Y 21.4949 Z -1.0000 I -3.4215 J 0.9453
G02 X 6.5981 Y 21.5541 Z -1.0000 I 0.6346 J -0.1635
G02 X 6.6233 Y 21.6152 Z -1.0000 I 0.7025 J -0.2537
G03 X 6.6475 Y 21.6757 Z -1.0000 I -0.5443 J 0.2530
G01 X 6.6480 Y 21.6880 Z -1.0000
G01 X 6.6490 Y 21.7057 Z -1.0000
G02 X 6.6904 Y 21.7957 Z -1.0000 I 0.8285 J -0.3264
G03 X 6.7398 Y 21.8979 Z -1.0000 I -1.3809 J 0.7305
G03 X 6.7667 Y 21.9694 Z -1.0000 I -0.6466 J 0.2840
G02 X 6.8570 Y 22.2003 Z -1.0000 I 1.7594 J -0.5552
G01 X 6.8737 Y 22.1966 Z -1.0000
G01 X 6.9261 Y 22.2702 Z -1.0000
G02 X 6.9809 Y 22.3552 Z -1.0000 I 1.4265 J -0.8593
G02 X 7.0062 Y 22.3866 Z -1.0000 I 0.2183 J -0.1503
G03 X 7.0292 Y 22.4180 Z -1.0000 I -0.1140 J 0.1073
G01 X 7.0340 Y 22.4367 Z -1.0000
G01 X 7.0380 Y 22.4533 Z -1.0000
G01 X 7.0445 Y 22.4573 Z -1.0000
G01 X 7.0528 Y 22.4612 Z -1.0000
G03 X 7.0798 Y 22.4993 Z -1.0000 I -0.2164 J 0.1819
G02 X 7.1061 Y 22.5401 Z -1.0000 I 0.5270 J -0.3113
G02 X 7.1261 Y 22.5651 Z -1.0000 I 0.2192 J -0.1542
G03 X 7.1536 Y 22.5978 Z -1.0000 I -0.4877 J 0.4391
G03 X 7.2149 Y 22.6777 Z -1.0000 I -2.8721 J 2.2660
G02 X 7.2567 Y 22.7289 Z -1.0000 I 0.5977 J -0.4454
G02 X 7.2883 Y 22.7599 Z -1.0000 I 0.2480 J -0.2215
G03 X 7.3173 Y 22.7921 Z -1.0000 I -0.1089 J 0.1271
G03 X 7.3405 Y 22.8357 Z -1.0000 I -0.1785 J 0.1227
G02 X 7.3629 Y 22.8734 Z -1.0000 I 0.1254 J -0.0492
G01 X 7.3749 Y 22.8765 Z -1.0000
G01 X 7.3884 Y 22.8782 Z -1.0000
G03 X 7.4123 Y 22.9030 Z -1.0000 I -0.0532 J 0.0752
G02 X 7.6011 Y 23.1351 Z -1.0000 I 1.2220 J -0.8008
G02 X 7.6751 Y 23.1658 Z -1.0000 I 0.0740 J -0.0740
G01 X 7.6829 Y 23.1688 Z -1.0000
G03 X 7.7377 Y 23.2226 Z -1.0000 I -0.6571 J 0.7243
G02 X 7.8967 Y 23.3819 Z -1.0000 I 2.8109 J -2.6476
G02 X 8.1043 Y 23.5690 Z -1.0000 I 4.0935 J -4.3328
G03 X 8.1768 Y 23.6314 Z -1.0000 I -40.5258 J 47.1399
G03 X 8.3506 Y 23.7814 Z -1.0000 I -238.9808 J 277.1205
G02 X 8.5265 Y 23.9286 Z -1.0000 I 4.8898 J -5.6632
G02 X 8.5679 Y 23.9576 Z -1.0000 I 0.2287 J -0.2819
G03 X 8.6051 Y 23.9873 Z -1.0000 I -0.0950 J 0.1577
G01 X 8.6113 Y 24.0025 Z -1.0000
G01 X 8.6167 Y 24.0159 Z -1.0000
G01 X 8.6294 Y 24.0212 Z -1.0000
G01 X 8.6457 Y 24.0257 Z -1.0000
G03 X 8.6801 Y 24.0513 Z -1.0000 I -0.1042 J 0.1756
G02 X 8.7135 Y 24.0804 Z -1.0000 I 0.5370 J -0.5819
G02 X 8.7409 Y 24.1015 Z -1.0000 I 0.3066 J -0.3720
G03 X 8.7687 Y 24.1220 Z -1.0000 I -0.5261 J 0.7407
G03 X 8.8843 Y 24.2117 Z -1.0000 I -9.7936 J 12.7315
G02 X 8.9999 Y 24.3003 Z -1.0000 I 3.9948 J -5.0971
G01 X 9.0049 Y 24.3020 Z -1.0000
G01 X 9.0100 Y 24.3034 Z -1.0000
G03 X 9.0935 Y 24.3588 Z -1.0000 I -1.8177 J 2.8351
G02 X 9.2423 Y 24.4562 Z -1.0000 I 2.5083 J -3.6677
G02 X 9.2930 Y 24.4838 Z -1.0000 I 0.2486 J -0.3968
G03 X 9.3121 Y 24.4946 Z -1.0000 I -0.0569 J 0.1231
G03 X 9.3359 Y 24.5128 Z -1.0000 I -0.1473 J 0.2177
G02 X 9.3609 Y 24.5251 Z -1.0000 I 0.0365 J -0.0426
G02 X 9.4002 Y 24.5263 Z -1.0000 I 0.0230 J -0.1094
G03 X 9.4375 Y 24.5304 Z -1.0000 I 0.0108 J 0.0734
G03 X 9.4662 Y 24.5515 Z -1.0000 I -0.0239 J 0.0625
G02 X 9.4933 Y 24.5737 Z -1.0000 I 0.0633 J -0.0498
G01 X 9.5122 Y 24.5746 Z -1.0000
G01 X 9.5287 Y 24.5736 Z -1.0000
G01 X 9.5336 Y 24.5798 Z -1.0000
G02 X 9.5644 Y 24.6339 Z -1.0000 I 0.0628 J -0.0000
G02 X 9.6739 Y 24.6630 Z -1.0000 I 0.1063 J -0.1794
G03 X 9.7099 Y 24.6695 Z -1.0000 I 0.0014 J 0.0942
G01 X 9.7128 Y 24.6783 Z -1.0000
G01 X 9.7142 Y 24.6828 Z -1.0000
G01 X 9.7216 Y 24.6824 Z -1.0000
G03 X 9.7742 Y 24.6684 Z -1.0000 I 0.0495 J 0.0801
G03 X 9.8327 Y 24.6860 Z -1.0000 I -0.0039 J 0.1189
G02 X 9.8667 Y 24.6977 Z -1.0000 I 0.0428 J -0.0693
G02 X 10.0382 Y 24.7085 Z -1.0000 I 0.2026 J -1.8534
G03 X 10.1044 Y 24.7136 Z -1.0000 I -0.0092 J 0.5508
G01 X 10.1084 Y 24.7182 Z -1.0000
G01 X 10.1186 Y 24.7297 Z -1.0000
G02 X 10.3632 Y 24.7493 Z -1.0000 I 0.3594 J -2.9389
G03 X 10.4672 Y 24.7598 Z -1.0000 I -0.0335 J 0.8531
G01 X 10.4895 Y 24.7700 Z -1.0000
G01 X 10.5045 Y 24.7760 Z -1.0000
G01 X 10.5094 Y 24.7715 Z -1.0000
G03 X 10.5598 Y 24.7204 Z -1.0000 I 0.0511 J 0.0000
G03 X 10.6497 Y 24.7699 Z -1.0000 I 0.0013 J 0.1041
G01 X 10.6608 Y 24.7783 Z -1.0000
G02 X 10.6965 Y 24.7832 Z -1.0000 I 0.0357 J -0.1260
G03 X 10.7327 Y 24.7873 Z -1.0000 I -0.0000 J 0.1629
G01 X 10.7414 Y 24.7935 Z -1.0000
G01 X 10.7503 Y 24.7991 Z -1.0000
G02 X 10.8124 Y 24.8008 Z -1.0000 I 0.0429 J -0.4249
G03 X 10.8761 Y 24.8025 Z -1.0000 I 0.0204 J 0.4265
G03 X 10.9037 Y 24.8100 Z -1.0000 I -0.0090 J 0.0879
G02 X 10.9313 Y 24.8195 Z -1.0000 I 0.0626 J -0.1373
G02 X 11.0106 Y 24.8356 Z -1.0000 I 0.2711 J -1.1364
G03 X 11.1828 Y 24.8682 Z -1.0000 I -0.6336 J 3.8074
G03 X 11.3181 Y 24.9012 Z -1.0000 I -0.5078 J 2.3791
G02 X 11.3719 Y 24.9140 Z -1.0000 I 0.2057 J -0.7467
G02 X 11.4183 Y 24.9213 Z -1.0000 I 0.1134 J -0.5674
G03 X 11.4866 Y 24.9354 Z -1.0000 I -0.0458 J 0.3947
G03 X 11.5425 Y 24.9585 Z -1.0000 I -0.0865 J 0.2885
G02 X 11.5663 Y 24.9667 Z -1.0000 I 0.0369 J -0.0685
G01 X 11.5775 Y 24.9645 Z -1.0000
G01 X 11.5893 Y 24.9620 Z -1.0000
G03 X 11.6805 Y 24.9785 Z -1.0000 I -0.1445 J 1.0632
G02 X 11.7728 Y 24.9972 Z -1.0000 I 0.4686 J -2.0712
G02 X 11.7951 Y 24.9991 Z -1.0000 I 0.0213 J -0.1183
G01 X 11.8154 Y 25.0037 Z -1.0000
G03 X 11.8328 Y 25.0173 Z -1.0000 I -0.0227 J 0.0470
G01 X 11.8498 Y 25.0290 Z -1.0000
G01 X 11.8661 Y 25.0287 Z -1.0000
G03 X 11.9094 Y 25.0300 Z -1.0000 I 0.0202 J 0.0528
G03 X 11.9563 Y 25.0693 Z -1.0000 I -0.0461 J 0.1028
G01 X 11.9662 Y 25.0736 Z -1.0000
G01 X 11.9781 Y 25.0659 Z -1.0000
G01 X 11.9897 Y 25.0584 Z -1.0000
G01 X 11.9989 Y 25.0626 Z -1.0000
G01 X 12.0108 Y 25.0723 Z -1.0000
G02 X 12.0399 Y 25.0774 Z -1.0000 I 0.0291 J -0.0803
G03 X 12.0691 Y 25.0821 Z -1.0000 I 0.0000 J 0.0925
G01 X 12.0800 Y 25.0908 Z -1.0000
G01 X 12.0909 Y 25.0994 Z -1.0000
G02 X 12.1209 Y 25.1041 Z -1.0000 I 0.0300 J -0.0924
G03 X 12.1483 Y 25.1093 Z -1.0000 I 0.0000 J 0.0756
G01 X 12.1535 Y 25.1169 Z -1.0000
G01 X 12.1589 Y 25.1251 Z -1.0000
G02 X 12.2036 Y 25.1381 Z -1.0000 I 0.0779 J -0.1838
G03 X 12.2892 Y 25.1641 Z -1.0000 I -0.0582 J 0.3448
G01 X 12.3007 Y 25.1819 Z -1.0000
G01 X 12.3054 Y 25.1887 Z -1.0000
G01 X 12.3124 Y 25.1864 Z -1.0000
G01 X 12.3249 Y 25.1799 Z -1.0000
G01 X 12.3418 Y 25.1877 Z -1.0000
G01 X 12.3618 Y 25.2003 Z -1.0000
G01 X 12.3835 Y 25.2008 Z -1.0000
G01 X 12.4031 Y 25.2027 Z -1.0000
G01 X 12.4152 Y 25.2157 Z -1.0000
G01 X 12.4282 Y 25.2278 Z -1.0000
G02 X 12.4596 Y 25.2294 Z -1.0000 I 0.0189 J -0.0609
G03 X 12.4930 Y 25.2303 Z -1.0000 I 0.0147 J 0.0732
G01 X 12.5134 Y 25.2433 Z -1.0000
G02 X 12.5334 Y 25.2596 Z -1.0000 I 0.0522 J -0.0435
G01 X 12.5528 Y 25.2646 Z -1.0000
G03 X 12.5734 Y 25.2686 Z -1.0000 I -0.0001 J 0.0549
G03 X 12.6183 Y 25.2913 Z -1.0000 I -0.1190 J 0.2916
G02 X 12.6631 Y 25.3142 Z -1.0000 I 0.1749 J -0.2868
G01 X 12.6818 Y 25.3180 Z -1.0000
G01 X 12.6957 Y 25.3238 Z -1.0000
G01 X 12.7015 Y 25.3380 Z -1.0000
G01 X 12.7133 Y 25.3511 Z -1.0000
G01 X 12.7390 Y 25.3420 Z -1.0000
G01 X 12.7505 Y 25.3369 Z -1.0000
G01 X 12.7550 Y 25.3411 Z -1.0000
G01 X 12.7601 Y 25.3525 Z -1.0000
G02 X 12.7817 Y 25.3648 Z -1.0000 I 0.0397 J -0.0449
G01 X 12.8014 Y 25.3787 Z -1.0000
G01 X 12.8100 Y 25.4024 Z -1.0000
G01 X 12.8177 Y 25.4082 Z -1.0000
G01 X 12.8387 Y 25.3872 Z -1.0000
G01 X 12.8676 Y 25.3948 Z -1.0000
G01 X 12.8792 Y 25.4014 Z -1.0000
G02 X 12.9066 Y 25.4049 Z -1.0000 I 0.0274 J -0.1063
G01 X 12.9269 Y 25.4128 Z -1.0000
G01 X 12.9334 Y 25.4295 Z -1.0000
G01 X 12.9399 Y 25.4440 Z -1.0000
G01 X 12.9568 Y 25.4474 Z -1.0000
G01 X 12.9763 Y 25.4485 Z -1.0000
G01 X 12.9823 Y 25.4572 Z -1.0000
G01 X 12.9888 Y 25.4686 Z -1.0000
G02 X 13.0324 Y 25.4866 Z -1.0000 I 0.0859 J -0.1464
G03 X 13.0739 Y 25.5048 Z -1.0000 I -0.0349 J 0.1360
G01 X 13.0789 Y 25.5167 Z -1.0000
G01 X 13.0833 Y 25.5250 Z -1.0000
G01 X 13.1011 Y 25.5257 Z -1.0000
G03 X 13.1246 Y 25.5240 Z -1.0000 I 0.0153 J 0.0486
G01 X 13.1357 Y 25.5314 Z -1.0000
G01 X 13.1465 Y 25.5414 Z -1.0000
G01 X 13.1629 Y 25.5453 Z -1.0000
G01 X 13.1806 Y 25.5492 Z -1.0000
G03 X 13.2496 Y 25.5854 Z -1.0000 I -0.3297 J 0.7126
G02 X 13.3187 Y 25.6215 Z -1.0000 I 0.3846 J -0.6522
G01 X 13.3371 Y 25.6255 Z -1.0000
G01 X 13.3518 Y 25.6303 Z -1.0000
G01 X 13.3566 Y 25.6397 Z -1.0000
G01 X 13.3607 Y 25.6463 Z -1.0000
G01 X 13.3694 Y 25.6459 Z -1.0000
G01 X 13.3821 Y 25.6452 Z -1.0000
G03 X 13.4495 Y 25.6852 Z -1.0000 I -0.2226 J 0.4524
G02 X 13.5185 Y 25.7267 Z -1.0000 I 0.3283 J -0.4671
G02 X 13.5421 Y 25.7324 Z -1.0000 I 0.0236 J -0.0464
G01 X 13.5636 Y 25.7381 Z -1.0000
G01 X 13.5746 Y 25.7509 Z -1.0000
G01 X 13.5859 Y 25.7658 Z -1.0000
G02 X 13.6549 Y 25.8113 Z -1.0000 I 0.3978 J -0.5291
G03 X 13.7237 Y 25.8569 Z -1.0000 I -0.3095 J 0.5410
G01 X 13.7357 Y 25.8730 Z -1.0000
G01 X 13.7475 Y 25.8867 Z -1.0000
G01 X 13.7705 Y 25.8928 Z -1.0000
G01 X 13.7913 Y 25.8993 Z -1.0000
G01 X 13.7976 Y 25.9114 Z -1.0000
G01 X 13.8049 Y 25.9239 Z -1.0000
G02 X 13.8458 Y 25.9390 Z -1.0000 I 0.0650 J -0.1135
G03 X 13.8851 Y 25.9508 Z -1.0000 I -0.0365 J 0.1936
G01 X 13.8861 Y 25.9558 Z -1.0000
G01 X 13.8868 Y 25.9845 Z -1.0000
G02 X 13.9710 Y 26.0330 Z -1.0000 I 0.1529 J -0.1681
G03 X 13.9939 Y 26.0447 Z -1.0000 I -0.0231 J 0.0734
G01 X 13.9981 Y 26.0532 Z -1.0000
G01 X 14.0024 Y 26.0617 Z -1.0000
G02 X 14.0252 Y 26.0734 Z -1.0000 I 0.0462 J -0.0623
G03 X 14.0480 Y 26.0876 Z -1.0000 I -0.0163 J 0.0516
G03 X 14.0973 Y 26.1488 Z -1.0000 I -0.3356 J 0.3204
G02 X 14.1421 Y 26.2024 Z -1.0000 I 0.2807 J -0.1890
G01 X 14.1512 Y 26.2013 Z -1.0000
G01 X 14.1695 Y 26.1944 Z -1.0000
G03 X 14.2149 Y 26.2203 Z -1.0000 I -0.0330 J 0.1106
G02 X 14.2521 Y 26.2508 Z -1.0000 I 0.2643 J -0.2851
G01 X 14.2616 Y 26.2539 Z -1.0000
G01 X 14.2709 Y 26.2572 Z -1.0000
G03 X 14.3263 Y 26.3040 Z -1.0000 I -0.5104 J 0.6594
G02 X 14.3818 Y 26.3522 Z -1.0000 I 0.7978 J -0.8637
G02 X 14.4451 Y 26.4008 Z -1.0000 I 0.8770 J -1.0775
G03 X 14.5080 Y 26.4497 Z -1.0000 I -0.6588 J 0.9118
G03 X 14.5703 Y 26.5055 Z -1.0000 I -0.7953 J 0.9508
G02 X 14.6322 Y 26.5615 Z -1.0000 I 1.0280 J -1.0725
G02 X 14.6615 Y 26.5835 Z -1.0000 I 0.1866 J -0.2180
G03 X 14.6879 Y 26.6069 Z -1.0000 I -0.0678 J 0.1035
G03 X 14.7003 Y 26.6292 Z -1.0000 I -0.0492 J 0.0418
G02 X 14.7120 Y 26.6498 Z -1.0000 I 0.0548 J -0.0175
G01 X 14.7230 Y 26.6547 Z -1.0000
G01 X 14.7355 Y 26.6596 Z -1.0000
G03 X 14.8839 Y 26.8018 Z -1.0000 I -2.9184 J 3.1948
G02 X 15.0322 Y 26.9442 Z -1.0000 I 3.2312 J -3.2156
G01 X 15.0441 Y 26.9488 Z -1.0000
G01 X 15.0762 Y 26.9654 Z -1.0000
G03 X 15.0938 Y 27.0190 Z -1.0000 I -0.0780 J 0.0553
G01 X 15.1004 Y 27.0361 Z -1.0000
G01 X 15.1143 Y 27.0424 Z -1.0000
G01 X 15.1362 Y 27.0503 Z -1.0000
G03 X 15.2863 Y 27.1847 Z -1.0000 I -1.6422 J 1.9855
G03 X 15.3832 Y 27.2856 Z -1.0000 I -1.3263 J 1.3698
G01 X 15.3883 Y 27.2990 Z -1.0000
G01 X 15.3923 Y 27.3131 Z -1.0000
G02 X 15.4174 Y 27.3456 Z -1.0000 I 0.1781 J -0.1112
G03 X 15.4345 Y 27.3714 Z -1.0000 I -0.0678 J 0.0637
G01 X 15.4311 Y 27.3765 Z -1.0000
G01 X 15.4140 Y 27.4048 Z -1.0000
G02 X 15.5185 Y 27.5449 Z -1.0000 I 0.4797 J -0.2490
G03 X 15.5680 Y 27.5996 Z -1.0000 I -0.3716 J 0.3853
G01 X 15.5675 Y 27.6073 Z -1.0000
G01 X 15.5672 Y 27.6138 Z -1.0000
G02 X 15.5860 Y 27.6290 Z -1.0000 I 0.0493 J -0.0418
G03 X 15.6084 Y 27.6472 Z -1.0000 I -0.0358 J 0.0670
G03 X 15.6571 Y 27.7136 Z -1.0000 I -0.4767 J 0.4003
G02 X 15.7038 Y 27.7820 Z -1.0000 I 1.0393 J -0.6606
G01 X 15.7122 Y 27.7887 Z -1.0000
G01 X 15.7194 Y 27.7952 Z -1.0000
G01 X 15.7225 Y 27.8066 Z -1.0000
G01 X 15.7264 Y 27.8182 Z -1.0000
G02 X 15.7505 Y 27.8427 Z -1.0000 I 0.1182 J -0.0917
G03 X 15.8105 Y 27.9099 Z -1.0000 I -0.1767 J 0.2182
G03 X 15.8645 Y 28.0215 Z -1.0000 I -0.4481 J 0.2858
G01 X 15.8762 Y 28.0399 Z -1.0000
G01 X 15.8887 Y 28.0449 Z -1.0000
G01 X 15.9090 Y 28.0560 Z -1.0000
G03 X 15.9936 Y 28.2085 Z -1.0000 I -1.1500 J 0.7370
G02 X 16.0201 Y 28.2543 Z -1.0000 I 0.2847 J -0.1348
G01 X 16.0287 Y 28.2588 Z -1.0000
G01 X 16.0370 Y 28.2632 Z -1.0000
G03 X 16.0576 Y 28.3022 Z -1.0000 I -0.1802 J 0.1203
G02 X 16.0774 Y 28.3439 Z -1.0000 I 0.3832 J -0.1556
G01 X 16.0850 Y 28.3525 Z -1.0000
G03 X 16.2194 Y 28.5090 Z -1.0000 I -0.2391 J 0.3413
G03 X 16.2705 Y 28.7277 Z -1.0000 I -0.4421 J 0.2187
G01 X 16.2754 Y 28.7478 Z -1.0000
G02 X 16.2902 Y 28.7664 Z -1.0000 I 0.0528 J -0.0270
G03 X 16.3050 Y 28.7857 Z -1.0000 I -0.0348 J 0.0419
G03 X 16.3185 Y 28.8283 Z -1.0000 I -0.1684 J 0.0768
G02 X 16.3307 Y 28.8714 Z -1.0000 I 0.2408 J -0.0452
G01 X 16.3389 Y 28.8813 Z -1.0000
G01 X 16.3464 Y 28.8909 Z -1.0000
G03 X 16.3507 Y 28.9185 Z -1.0000 I -0.0868 J 0.0276
G02 X 16.3544 Y 28.9471 Z -1.0000 I 0.1134 J 0.0000
G01 X 16.3618 Y 28.9612 Z -1.0000
G03 X 16.3904 Y 29.0148 Z -1.0000 I -0.1009 J 0.0883
G03 X 16.4042 Y 29.1191 Z -1.0000 I -0.3893 J 0.1044
G02 X 16.4101 Y 29.1485 Z -1.0000 I 0.0755 J -0.0000
G01 X 16.4190 Y 29.1543 Z -1.0000
G01 X 16.4262 Y 29.1595 Z -1.0000
G01 X 16.4260 Y 29.1746 Z -1.0000
G02 X 16.4223 Y 29.2271 Z -1.0000 I 0.0845 J 0.0323
G02 X 16.4816 Y 29.4172 Z -1.0000 I 1.2584 J -0.2881
G02 X 16.5096 Y 29.4568 Z -1.0000 I 0.0963 J -0.0384
G01 X 16.5295 Y 29.4591 Z -1.0000
G01 X 16.5440 Y 29.4581 Z -1.0000
G01 X 16.5474 Y 29.4658 Z -1.0000
G01 X 16.5520 Y 29.4748 Z -1.0000
G02 X 16.5800 Y 29.4746 Z -1.0000 I 0.0136 J -0.0504
G03 X 16.6093 Y 29.4731 Z -1.0000 I 0.0177 J 0.0620
G01 X 16.6136 Y 29.4808 Z -1.0000
G01 X 16.6158 Y 29.4918 Z -1.0000
G01 X 16.6291 Y 29.4969 Z -1.0000
G01 X 16.6444 Y 29.5038 Z -1.0000
G03 X 16.6557 Y 29.5320 Z -1.0000 I -0.0459 J 0.0348
G02 X 16.6644 Y 29.5636 Z -1.0000 I 0.1047 J -0.0119
G01 X 16.6724 Y 29.5687 Z -1.0000
G01 X 16.6804 Y 29.5732 Z -1.0000
G01 X 16.6849 Y 29.5888 Z -1.0000
G01 X 16.6903 Y 29.6022 Z -1.0000
G01 X 16.7012 Y 29.6055 Z -1.0000
G01 X 16.7134 Y 29.6106 Z -1.0000
G03 X 16.7743 Y 29.7148 Z -1.0000 I -0.8236 J 0.5512
G02 X 16.8333 Y 29.8256 Z -1.0000 I 2.6647 J -1.3461
G01 X 16.8416 Y 29.8351 Z -1.0000
G01 X 16.8524 Y 29.8473 Z -1.0000
G03 X 16.9382 Y 30.0046 Z -1.0000 I -4.1636 J 2.3735
G02 X 16.9940 Y 30.1096 Z -1.0000 I 7.1226 J -3.7148
G02 X 17.0061 Y 30.1301 Z -1.0000 I 0.2832 J -0.1531
G03 X 17.0178 Y 30.1508 Z -1.0000 I -0.1781 J 0.1146
G03 X 17.0868 Y 30.2930 Z -1.0000 I -8.8293 J 4.3692
G03 X 17.1421 Y 30.4355 Z -1.0000 I -0.9445 J 0.4486
G01 X 17.1393 Y 30.4645 Z -1.0000
G01 X 17.1203 Y 30.4831 Z -1.0000
G01 X 17.1016 Y 30.4839 Z -1.0000
G02 X 17.0435 Y 30.4719 Z -1.0000 I -0.0606 J 0.1467
G01 X 17.0324 Y 30.4828 Z -1.0000
G01 X 17.0204 Y 30.4967 Z -1.0000
G01 X 16.9948 Y 30.4882 Z -1.0000
G01 X 16.9786 Y 30.4840 Z -1.0000
G02 X 16.9494 Y 30.5012 Z -1.0000 I 0.0188 J 0.0653
G01 X 16.9381 Y 30.5309 Z -1.0000
G02 X 16.9529 Y 30.5664 Z -1.0000 I 0.0572 J -0.0031
G01 X 16.9689 Y 30.5926 Z -1.0000
G01 X 16.9580 Y 30.5930 Z -1.0000
G01 X 16.9522 Y 30.6038 Z -1.0000
G01 X 16.9235 Y 30.6318 Z -1.0000
G03 X 16.8740 Y 30.6019 Z -1.0000 I 0.0014 J -0.0584
G01 X 16.8590 Y 30.5913 Z -1.0000
G01 X 16.8409 Y 30.5960 Z -1.0000
G02 X 16.7887 Y 30.6689 Z -1.0000 I 0.1130 J 0.1361
G01 X 16.8043 Y 30.6915 Z -1.0000
G01 X 16.8258 Y 30.7097 Z -1.0000
G03 X 16.8185 Y 30.7764 Z -1.0000 I -0.1220 J 0.0204
G01 X 16.8061 Y 30.7875 Z -1.0000
G01 X 16.8017 Y 30.7714 Z -1.0000
G02 X 16.7870 Y 30.7516 Z -1.0000 I -0.0727 J 0.0384
G01 X 16.7699 Y 30.7481 Z -1.0000
G02 X 16.7421 Y 30.7696 Z -1.0000 I 0.0238 J 0.0596
G02 X 16.7181 Y 30.8071 Z -1.0000 I 0.2656 J 0.1964
G02 X 16.7059 Y 30.8355 Z -1.0000 I 0.1395 J 0.0765
G03 X 16.6919 Y 30.8615 Z -1.0000 I -0.0753 J -0.0239
G03 X 16.6702 Y 30.8794 Z -1.0000 I -0.0554 J -0.0451
G02 X 16.6512 Y 30.8969 Z -1.0000 I 0.0240 J 0.0450
G01 X 16.6477 Y 30.9146 Z -1.0000
G01 X 16.6438 Y 30.9303 Z -1.0000
G01 X 16.6281 Y 30.9395 Z -1.0000
G01 X 16.6118 Y 30.9348 Z -1.0000
G01 X 16.6047 Y 30.9192 Z -1.0000
G01 X 16.5948 Y 30.9063 Z -1.0000
G02 X 16.5412 Y 30.9021 Z -1.0000 I -0.0382 J 0.1412
G02 X 16.4801 Y 30.9143 Z -1.0000 I 0.0358 J 0.3381
G02 X 16.4565 Y 30.9273 Z -1.0000 I 0.0181 J 0.0610
G01 X 16.4333 Y 30.9381 Z -1.0000
G03 X 16.3930 Y 30.9373 Z -1.0000 I -0.0178 J -0.1131
G02 X 16.3571 Y 30.9365 Z -1.0000 I -0.0202 J 0.1006
G01 X 16.3507 Y 30.9439 Z -1.0000
G01 X 16.3551 Y 30.9546 Z -1.0000
G01 X 16.3653 Y 30.9589 Z -1.0000
G01 X 16.3787 Y 30.9623 Z -1.0000
G03 X 16.4139 Y 30.9856 Z -1.0000 I -0.1245 J 0.2264
G03 X 16.4294 Y 31.0060 Z -1.0000 I -0.0316 J 0.0402
G01 X 16.4252 Y 31.0124 Z -1.0000
G03 X 16.4032 Y 31.0093 Z -1.0000 I -0.0000 J -0.0793
G03 X 16.3757 Y 30.9980 Z -1.0000 I 0.0386 J -0.1340
G01 X 16.3494 Y 30.9932 Z -1.0000
G02 X 16.3153 Y 31.0058 Z -1.0000 I 0.0103 J 0.0801
G02 X 16.2887 Y 31.0286 Z -1.0000 I 0.0743 J 0.1133
G01 X 16.2889 Y 31.0352 Z -1.0000
G01 X 16.2909 Y 31.0433 Z -1.0000
G03 X 16.2742 Y 31.0843 Z -1.0000 I -0.2178 J -0.0651
G02 X 16.2570 Y 31.1273 Z -1.0000 I 0.1960 J 0.1034
G02 X 16.2513 Y 31.1650 Z -1.0000 I 0.1446 J 0.0409
G03 X 16.2338 Y 31.2025 Z -1.0000 I -0.0513 J -0.0011
G01 X 16.2171 Y 31.1949 Z -1.0000
G02 X 16.1924 Y 31.1440 Z -1.0000 I -0.0650 J 0.0000
G02 X 16.1217 Y 31.1193 Z -1.0000 I -0.0707 J 0.0892
G01 X 16.1015 Y 31.1146 Z -1.0000
G01 X 16.0968 Y 31.1070 Z -1.0000
G01 X 16.0918 Y 31.0983 Z -1.0000
G02 X 16.0483 Y 31.0787 Z -1.0000 I -0.1151 J 0.1973
G03 X 16.0015 Y 31.0595 Z -1.0000 I 0.1138 J -0.3450
G03 X 15.9781 Y 31.0441 Z -1.0000 I 0.0497 J -0.1009
G02 X 15.9553 Y 31.0281 Z -1.0000 I -0.0941 J 0.1100
G01 X 15.9430 Y 31.0243 Z -1.0000
G01 X 15.9303 Y 31.0208 Z -1.0000
G03 X 15.8464 Y 30.9788 Z -1.0000 I 0.8381 J -1.7797
G02 X 15.7322 Y 30.9438 Z -1.0000 I -0.1481 J 0.2790
G01 X 15.7078 Y 30.9638 Z -1.0000
G01 X 15.6974 Y 30.9464 Z -1.0000
G02 X 15.6809 Y 30.9196 Z -1.0000 I -0.0551 J 0.0153
G02 X 15.6222 Y 30.8774 Z -1.0000 I -0.2045 J 0.2229
G03 X 15.5597 Y 30.8382 Z -1.0000 I 0.3118 J -0.5665
G01 X 15.5516 Y 30.8273 Z -1.0000
G01 X 15.5431 Y 30.8174 Z -1.0000
G02 X 15.4810 Y 30.7916 Z -1.0000 I -0.2057 J 0.4068
G03 X 15.4194 Y 30.7665 Z -1.0000 I 0.1586 J -0.4775
G01 X 15.4151 Y 30.7595 Z -1.0000
G01 X 15.4107 Y 30.7525 Z -1.0000
G02 X 15.3621 Y 30.7334 Z -1.0000 I -0.1392 J 0.2831
G03 X 15.3126 Y 30.7126 Z -1.0000 I 0.0712 J -0.2383
G03 X 15.2919 Y 30.6946 Z -1.0000 I 0.0318 J -0.0573
G02 X 15.2715 Y 30.6754 Z -1.0000 I -0.0650 J 0.0488
G02 X 15.2079 Y 30.6395 Z -1.0000 I -0.3008 J 0.4585
G03 X 15.1411 Y 30.6074 Z -1.0000 I 13.7263 J -28.6205
G03 X 15.1178 Y 30.5961 Z -1.0000 I 1.7098 J -3.5439
G02 X 15.0938 Y 30.5881 Z -1.0000 I -0.0410 J 0.0831
G02 X 15.0570 Y 30.5847 Z -1.0000 I -0.0368 J 0.1976
G03 X 15.0211 Y 30.5805 Z -1.0000 I 0.0000 J -0.1577
G01 X 15.0067 Y 30.5729 Z -1.0000
G02 X 14.9928 Y 30.5627 Z -1.0000 I -0.0492 J 0.0530
G02 X 14.8737 Y 30.4985 Z -1.0000 I -2.1668 J 3.8757
G03 X 14.7537 Y 30.4355 Z -1.0000 I 7.7868 J -14.9826
G03 X 14.6999 Y 30.4064 Z -1.0000 I 1.6345 J -3.0842
G02 X 14.4950 Y 30.3088 Z -1.0000 I -0.9100 J 1.6466
G01 X 14.4648 Y 30.3114 Z -1.0000
G01 X 14.4526 Y 30.3127 Z -1.0000
G03 X 14.4158 Y 30.2943 Z -1.0000 I 0.0529 J -0.1515
G02 X 14.3782 Y 30.2712 Z -1.0000 I -0.2893 J 0.4291
G02 X 14.3457 Y 30.2553 Z -1.0000 I -0.1704 J 0.3060
G03 X 14.3125 Y 30.2405 Z -1.0000 I 0.5588 J -1.3000
G03 X 14.2193 Y 30.1970 Z -1.0000 I 4.3320 J -9.4051
G02 X 14.1251 Y 30.1566 Z -1.0000 I -0.6023 J 1.2740
G02 X 14.0609 Y 30.1358 Z -1.0000 I -0.2192 J 0.5671
G03 X 13.9980 Y 30.1140 Z -1.0000 I 0.1120 J -0.4243
G03 X 13.9717 Y 30.0970 Z -1.0000 I 0.0385 J -0.0885
G02 X 13.9458 Y 30.0837 Z -1.0000 I -0.0379 J 0.0418
G02 X 13.9129 Y 30.0842 Z -1.0000 I -0.0153 J 0.0706
G03 X 13.8832 Y 30.0861 Z -1.0000 I -0.0201 J -0.0800
G01 X 13.8779 Y 30.0801 Z -1.0000
G02 X 13.8529 Y 30.0233 Z -1.0000 I -0.0772 J -0.0000
G02 X 13.7634 Y 29.9750 Z -1.0000 I -0.1397 J 0.1522
G02 X 13.7308 Y 29.9731 Z -1.0000 I -0.0215 J 0.0861
G01 X 13.7138 Y 29.9814 Z -1.0000
G01 X 13.6763 Y 29.9941 Z -1.0000
G03 X 13.6309 Y 29.9701 Z -1.0000 I 0.0101 J -0.0742
G02 X 13.6042 Y 29.9476 Z -1.0000 I -0.0968 J 0.0876
G02 X 13.5453 Y 29.9156 Z -1.0000 I -0.2581 J 0.4054
G03 X 13.4839 Y 29.8868 Z -1.0000 I 1.1906 J -2.6146
G03 X 13.4485 Y 29.8687 Z -1.0000 I 0.4254 J -0.8787
G02 X 13.4116 Y 29.8573 Z -1.0000 I -0.0480 J 0.0896
G02 X 13.2881 Y 29.8511 Z -1.0000 I -0.1141 J 1.0377
G03 X 13.0971 Y 29.8208 Z -1.0000 I -0.0054 J -0.5832
G03 X 13.0358 Y 29.7664 Z -1.0000 I 0.0334 J -0.0995
G02 X 13.0079 Y 29.7333 Z -1.0000 I -0.0775 J 0.0369
G02 X 12.9438 Y 29.7013 Z -1.0000 I -0.1354 J 0.1913
G03 X 12.8744 Y 29.6750 Z -1.0000 I 0.2149 J -0.6724
G01 X 12.8636 Y 29.6660 Z -1.0000
G02 X 12.8387 Y 29.6445 Z -1.0000 I -0.0515 J 0.0345
G02 X 12.8012 Y 29.6364 Z -1.0000 I -0.0361 J 0.0761
G01 X 12.7950 Y 29.6344 Z -1.0000
G03 X 12.7737 Y 29.6160 Z -1.0000 I 0.1128 J -0.1522
G02 X 12.7506 Y 29.6017 Z -1.0000 I -0.0421 J 0.0421
G02 X 12.7127 Y 29.5955 Z -1.0000 I -0.0378 J 0.1122
G03 X 12.6789 Y 29.5870 Z -1.0000 I -0.0000 J -0.0722
G01 X 12.6658 Y 29.5705 Z -1.0000
G01 X 12.6516 Y 29.5544 Z -1.0000
G02 X 12.5850 Y 29.5379 Z -1.0000 I -0.0918 J 0.2272
G03 X 12.5108 Y 29.5117 Z -1.0000 I 0.0172 J -0.1673
G03 X 12.4824 Y 29.4715 Z -1.0000 I 0.0358 J -0.0553
G01 X 12.4851 Y 29.4406 Z -1.0000
G01 X 12.5030 Y 29.4236 Z -1.0000
G01 X 12.5053 Y 29.4117 Z -1.0000
G02 X 12.4465 Y 29.3727 Z -1.0000 I -0.1598 J 0.1771
G02 X 12.3594 Y 29.3362 Z -1.0000 I -0.4854 J 1.0383
G02 X 12.2942 Y 29.3162 Z -1.0000 I -0.2077 J 0.5605
G03 X 12.2296 Y 29.2971 Z -1.0000 I 0.1726 J -0.7017
G01 X 12.2207 Y 29.2906 Z -1.0000
G01 X 12.2116 Y 29.2852 Z -1.0000
G02 X 12.1486 Y 29.2796 Z -1.0000 I -0.0766 J 0.5010
G03 X 12.0863 Y 29.2728 Z -1.0000 I 0.0104 J -0.3867
G01 X 12.0751 Y 29.2656 Z -1.0000
G01 X 12.0642 Y 29.2576 Z -1.0000
G02 X 12.0263 Y 29.2507 Z -1.0000 I -0.0488 J 0.1583
G03 X 11.8886 Y 29.2359 Z -1.0000 I 0.1132 J -1.7016
G03 X 11.7325 Y 29.2069 Z -1.0000 I 0.3290 J -2.2120
G02 X 11.4862 Y 29.1677 Z -1.0000 I -0.4453 J 2.0032
G02 X 11.2179 Y 29.1568 Z -1.0000 I -0.2306 J 2.3671
G03 X 11.1349 Y 29.1505 Z -1.0000 I -0.0072 J -0.4522
G03 X 11.0441 Y 29.1273 Z -1.0000 I 0.0968 J -0.5695
G02 X 10.9840 Y 29.1134 Z -1.0000 I -0.0964 J 0.2804
G02 X 10.7830 Y 29.0951 Z -1.0000 I -0.3881 J 3.1468
G03 X 10.7435 Y 29.0897 Z -1.0000 I 0.0150 J -0.2569
G03 X 10.7266 Y 29.0829 Z -1.0000 I 0.0113 J -0.0523
G01 X 10.7095 Y 29.0773 Z -1.0000
G02 X 10.6201 Y 29.0741 Z -1.0000 I -0.0781 J 0.9369
G03 X 10.5091 Y 29.0678 Z -1.0000 I -0.0089 J -0.8309
G03 X 10.4168 Y 29.0489 Z -1.0000 I 0.0731 J -0.5906
G02 X 10.3572 Y 29.0371 Z -1.0000 I -0.0994 J 0.3443
G02 X 10.3167 Y 29.0378 Z -1.0000 I -0.0176 J 0.1573
G03 X 10.2760 Y 29.0387 Z -1.0000 I -0.0239 J -0.1630
G03 X 10.1888 Y 29.0247 Z -1.0000 I 0.0791 J -0.7720
G02 X 10.1013 Y 29.0087 Z -1.0000 I -0.2643 J 1.2035
G02 X 10.0215 Y 29.0004 Z -1.0000 I -0.1444 J 0.9959
G03 X 9.7360 Y 28.9794 Z -1.0000 I 1.0132 J -15.7442
G03 X 9.6272 Y 28.9678 Z -1.0000 I 0.1898 J -2.2977
G02 X 9.3774 Y 28.9473 Z -1.0000 I -0.3394 J 2.5977
G02 X 9.3374 Y 28.9579 Z -1.0000 I -0.0024 J 0.0712
G01 X 9.3230 Y 28.9617 Z -1.0000
G01 X 9.3150 Y 28.9569 Z -1.0000
G01 X 9.3056 Y 28.9513 Z -1.0000
G02 X 9.2003 Y 28.9485 Z -1.0000 I -0.0811 J 1.1022
G03 X 9.0955 Y 28.9451 Z -1.0000 I -0.0209 J -0.9536
G01 X 9.0845 Y 28.9383 Z -1.0000
G01 X 9.0740 Y 28.9317 Z -1.0000
G02 X 9.0401 Y 28.9336 Z -1.0000 I -0.0112 J 0.1060
G03 X 9.0035 Y 28.9362 Z -1.0000 I -0.0276 J -0.1261
G03 X 8.9377 Y 28.9265 Z -1.0000 I 0.0295 J -0.4251
G02 X 8.8714 Y 28.9157 Z -1.0000 I -0.1170 J 0.5097
G02 X 8.7183 Y 28.9051 Z -1.0000 I -0.2634 J 2.7076
G03 X 8.5653 Y 28.8944 Z -1.0000 I 0.1041 J -2.5888
G03 X 8.5225 Y 28.8857 Z -1.0000 I 0.0212 J -0.2123
G02 X 8.4795 Y 28.8777 Z -1.0000 I -0.0537 J 0.1703
G02 X 8.2083 Y 28.8667 Z -1.0000 I -0.4188 J 6.9370
G03 X 7.8109 Y 28.8491 Z -1.0000 I 0.1863 J -8.7303
G03 X 7.6957 Y 28.8323 Z -1.0000 I 0.0498 J -0.7435
G02 X 7.6284 Y 28.8216 Z -1.0000 I -0.1153 J 0.5109
G02 X 7.5386 Y 28.8179 Z -1.0000 I -0.0817 J 0.8867
G03 X 7.4591 Y 28.8079 Z -1.0000 I -0.0027 J -0.3016
G01 X 7.4484 Y 28.7941 Z -1.0000
G01 X 7.4183 Y 28.7618 Z -1.0000
G02 X 7.3368 Y 28.7860 Z -1.0000 I -0.0087 J 0.1199
G03 X 7.2745 Y 28.8124 Z -1.0000 I -0.0824 J -0.1080
G03 X 7.1410 Y 28.8153 Z -1.0000 I -0.0784 J -0.5240
G02 X 6.9410 Y 28.8038 Z -1.0000 I -0.2229 J 2.1291
G02 X 6.7009 Y 28.8106 Z -1.0000 I -0.0328 J 3.0767
G03 X 6.5754 Y 28.8132 Z -1.0000 I -0.0898 J -1.3254
G03 X 6.5149 Y 28.8057 Z -1.0000 I 0.0086 J -0.3184
G02 X 6.4583 Y 28.8003 Z -1.0000 I -0.0495 J 0.2202
G01 X 6.4452 Y 28.8079 Z -1.0000
G01 X 6.4337 Y 28.8155 Z -1.0000
G01 X 6.4173 Y 28.8119 Z -1.0000
G01 X 6.3977 Y 28.8050 Z -1.0000
G02 X 6.2989 Y 28.7984 Z -1.0000 I -0.1181 J 1.0357
G03 X 6.1996 Y 28.7916 Z -1.0000 I 0.0178 J -0.9817
G03 X 6.1619 Y 28.7820 Z -1.0000 I 0.0179 J -0.1491
G02 X 6.1305 Y 28.7752 Z -1.0000 I -0.0355 J 0.0890
G01 X 6.1251 Y 28.7804 Z -1.0000
G01 X 6.0984 Y 28.8031 Z -1.0000
G03 X 6.0305 Y 28.7654 Z -1.0000 I 0.0177 J -0.1120
G01 X 5.9975 Y 28.7537 Z -1.0000
G01 X 5.9865 Y 28.7731 Z -1.0000
G01 X 5.9670 Y 28.8084 Z -1.0000
G03 X 5.8592 Y 28.7981 Z -1.0000 I -0.0367 J -0.1866
G02 X 5.8152 Y 28.7879 Z -1.0000 I -0.0546 J 0.1355
G01 X 5.7973 Y 28.7936 Z -1.0000
G01 X 5.7785 Y 28.8013 Z -1.0000
G03 X 5.5820 Y 28.8104 Z -1.0000 I -0.2442 J -3.1402
G02 X 5.3858 Y 28.8185 Z -1.0000 I 0.0598 J 3.8475
G01 X 5.3753 Y 28.8242 Z -1.0000
G01 X 5.3649 Y 28.8303 Z -1.0000
G03 X 5.2350 Y 28.8411 Z -1.0000 I -0.2111 J -1.7528
G02 X 4.7043 Y 28.8770 Z -1.0000 I 0.5636 J 12.2601
G02 X 4.6686 Y 28.8918 Z -1.0000 I 0.0058 J 0.0645
G03 X 4.6462 Y 28.9042 Z -1.0000 I -0.0439 J -0.0526
G03 X 4.6093 Y 28.9113 Z -1.0000 I -0.0459 J -0.1392
G02 X 4.5723 Y 28.9180 Z -1.0000 I 0.0097 J 0.1598
G02 X 4.5526 Y 28.9287 Z -1.0000 I 0.0166 J 0.0542
G01 X 4.5332 Y 28.9375 Z -1.0000
G03 X 4.5061 Y 28.9362 Z -1.0000 I -0.0105 J -0.0653
G02 X 4.4786 Y 28.9351 Z -1.0000 I -0.0161 J 0.0617
G02 X 4.4492 Y 28.9465 Z -1.0000 I 0.0149 J 0.0819
G03 X 4.4192 Y 28.9599 Z -1.0000 I -0.0626 J -0.0997
G03 X 4.3556 Y 28.9735 Z -1.0000 I -0.1283 J -0.4450
G02 X 4.2935 Y 28.9891 Z -1.0000 I 0.0432 J 0.3040
G02 X 4.2645 Y 29.0069 Z -1.0000 I 0.0294 J 0.0804
G03 X 4.2027 Y 29.0443 Z -1.0000 I -0.1207 J -0.1296
G03 X 4.1441 Y 29.0494 Z -1.0000 I -0.0391 J -0.1108
G01 X 4.1351 Y 29.0506 Z -1.0000
G02 X 4.0452 Y 29.0944 Z -1.0000 I 0.7769 J 1.7062
G03 X 3.9548 Y 29.1365 Z -1.0000 I -0.5119 J -0.9822
G03 X 3.9320 Y 29.1410 Z -1.0000 I -0.0228 J -0.0554
G02 X 3.9099 Y 29.1453 Z -1.0000 I 0.0000 J 0.0587
G02 X 3.8905 Y 29.1580 Z -1.0000 I 0.0231 J 0.0567
G03 X 3.8719 Y 29.1739 Z -1.0000 I -0.1559 J -0.1628
G03 X 3.7993 Y 29.2280 Z -1.0000 I -1.8273 J -2.3764
G02 X 3.7279 Y 29.2837 Z -1.0000 I 0.6980 J 0.9669
G02 X 3.6413 Y 29.3614 Z -1.0000 I 1.2737 J 1.5085
G03 X 3.5553 Y 29.4379 Z -1.0000 I -1.1928 J -1.2544
G01 X 3.5447 Y 29.4417 Z -1.0000
G01 X 3.5343 Y 29.4455 Z -1.0000
G02 X 3.4929 Y 29.4852 Z -1.0000 I 0.2779 J 0.3313
G02 X 3.4659 Y 29.5231 Z -1.0000 I 0.1424 J 0.1301
G01 X 3.4692 Y 29.5288 Z -1.0000
G01 X 3.4723 Y 29.5327 Z -1.0000
G01 X 3.4667 Y 29.5407 Z -1.0000
G01 X 3.4561 Y 29.5541 Z -1.0000
G01 X 3.4575 Y 29.5672 Z -1.0000
G01 X 3.4565 Y 29.5787 Z -1.0000
G03 X 3.4321 Y 29.5953 Z -1.0000 I -0.0467 J -0.0423
G02 X 3.4024 Y 29.6130 Z -1.0000 I 0.0351 J 0.0926
G01 X 3.3897 Y 29.6320 Z -1.0000
G03 X 3.3531 Y 29.7116 Z -1.0000 I -0.3863 J -0.1294
G01 X 3.3420 Y 29.7117 Z -1.0000
G01 X 3.3365 Y 29.7118 Z -1.0000
G01 X 3.3316 Y 29.7292 Z -1.0000
G03 X 3.3244 Y 29.7588 Z -1.0000 I -0.0656 J -0.0004
G03 X 3.3064 Y 29.7784 Z -1.0000 I -0.0446 J -0.0229
G01 X 3.2886 Y 29.7989 Z -1.0000
G02 X 3.2721 Y 29.8552 Z -1.0000 I 0.1986 J 0.0886
G03 X 3.2582 Y 29.9107 Z -1.0000 I -0.2947 J -0.0442
G01 X 3.2504 Y 29.9162 Z -1.0000
G01 X 3.2423 Y 29.9206 Z -1.0000
G01 X 3.2379 Y 29.9352 Z -1.0000
G01 X 3.2344 Y 29.9519 Z -1.0000
G01 X 3.2278 Y 29.9586 Z -1.0000
G02 X 3.1885 Y 30.0003 Z -1.0000 I 0.0298 J 0.0675
G02 X 3.1689 Y 30.1167 Z -1.0000 I 0.2940 J 0.1095
G02 X 3.1707 Y 30.1366 Z -1.0000 I 0.1385 J -0.0031
G02 X 3.1784 Y 30.1734 Z -1.0000 I 0.4813 J -0.0808
G03 X 3.1829 Y 30.2101 Z -1.0000 I -0.1489 J 0.0369
G03 X 3.1785 Y 30.2576 Z -1.0000 I -0.2553 J 0.0004
G03 X 3.1621 Y 30.2927 Z -1.0000 I -0.0762 J -0.0143
G01 X 3.1454 Y 30.2976 Z -1.0000
G01 X 3.1035 Y 30.3105 Z -1.0000
G01 X 3.1041 Y 30.3505 Z -1.0000
G01 X 3.1217 Y 30.3635 Z -1.0000
G01 X 3.1334 Y 30.3625 Z -1.0000
G01 X 3.1290 Y 30.3821 Z -1.0000
G01 X 3.1248 Y 30.4084 Z -1.0000
G02 X 3.1438 Y 30.4437 Z -1.0000 I 0.0758 J -0.0181
G03 X 3.1588 Y 30.4704 Z -1.0000 I -0.0470 J 0.0441
G01 X 3.1533 Y 30.4776 Z -1.0000
G01 X 3.1359 Y 30.4817 Z -1.0000
G01 X 3.1330 Y 30.4877 Z -1.0000
G01 X 3.1329 Y 30.4974 Z -1.0000
G03 X 3.1244 Y 30.5224 Z -1.0000 I -0.1542 J -0.0383
G01 X 3.1222 Y 30.5445 Z -1.0000
G01 X 3.1323 Y 30.5590 Z -1.0000
G01 X 3.1368 Y 30.5668 Z -1.0000
G01 X 3.1328 Y 30.5710 Z -1.0000
G01 X 3.1235 Y 30.5772 Z -1.0000
G01 X 3.1231 Y 30.5931 Z -1.0000
G01 X 3.1226 Y 30.6124 Z -1.0000
G03 X 3.1054 Y 30.6333 Z -1.0000 I -0.0461 J -0.0203
G01 X 3.0893 Y 30.6563 Z -1.0000
G02 X 3.0836 Y 30.7144 Z -1.0000 I 0.1712 J 0.0462
G03 X 3.0823 Y 30.7762 Z -1.0000 I -0.3511 J 0.0235
G03 X 3.0732 Y 30.8091 Z -1.0000 I -0.1071 J -0.0117
G01 X 3.0697 Y 30.8375 Z -1.0000
G01 X 3.0814 Y 30.8539 Z -1.0000
G01 X 3.0957 Y 30.8716 Z -1.0000
G03 X 3.1044 Y 30.9294 Z -1.0000 I -0.1921 J 0.0585
G02 X 3.1085 Y 30.9918 Z -1.0000 I 0.5011 J -0.0017
G02 X 3.1220 Y 31.0663 Z -1.0000 I 0.7283 J -0.0938
G03 X 3.1353 Y 31.1402 Z -1.0000 I -0.6877 J 0.1619
G01 X 3.1336 Y 31.1581 Z -1.0000
G01 X 3.1339 Y 31.1735 Z -1.0000
G01 X 3.1443 Y 31.1861 Z -1.0000
G01 X 3.1552 Y 31.2000 Z -1.0000
G03 X 3.1649 Y 31.2481 Z -1.0000 I -0.1905 J 0.0634
G02 X 3.1704 Y 31.2995 Z -1.0000 I 0.8697 J -0.0664
G02 X 3.1756 Y 31.3265 Z -1.0000 I 0.2458 J -0.0335
G03 X 3.1811 Y 31.3534 Z -1.0000 I -0.2955 J 0.0744
G03 X 3.1834 Y 31.3756 Z -1.0000 I -0.1991 J 0.0314
G02 X 3.1883 Y 31.3964 Z -1.0000 I 0.0579 J -0.0026
G02 X 3.2011 Y 31.4157 Z -1.0000 I 0.0625 J -0.0276
G03 X 3.2144 Y 31.4351 Z -1.0000 I -0.0553 J 0.0524
G03 X 3.2225 Y 31.4601 Z -1.0000 I -0.0863 J 0.0416
G02 X 3.2296 Y 31.4853 Z -1.0000 I 0.1247 J -0.0218
G01 X 3.2358 Y 31.4935 Z -1.0000
G01 X 3.2424 Y 31.5016 Z -1.0000
G03 X 3.2488 Y 31.5203 Z -1.0000 I -0.0735 J 0.0356
G02 X 3.2547 Y 31.5398 Z -1.0000 I 0.1182 J -0.0251
G02 X 3.2720 Y 31.5787 Z -1.0000 I 0.4930 J -0.1956
G03 X 3.2860 Y 31.6169 Z -1.0000 I -0.1718 J 0.0847
G01 X 3.2843 Y 31.6278 Z -1.0000
G01 X 3.2830 Y 31.6386 Z -1.0000
G02 X 3.3029 Y 31.6830 Z -1.0000 I 0.2414 J -0.0813
G03 X 3.3253 Y 31.7287 Z -1.0000 I -0.3786 J 0.2146
G03 X 3.3525 Y 31.8010 Z -1.0000 I -0.9226 J 0.3885
G02 X 3.3825 Y 31.8718 Z -1.0000 I 0.4626 J -0.1540
G02 X 3.4346 Y 31.9590 Z -1.0000 I 0.7563 J -0.3930
G03 X 3.4893 Y 32.0451 Z -1.0000 I -1.2725 J 0.8679
G03 X 3.5114 Y 32.0893 Z -1.0000 I -0.3123 J 0.1839
G02 X 3.5341 Y 32.1298 Z -1.0000 I 0.1856 J -0.0776
G01 X 3.5446 Y 32.1351 Z -1.0000
G01 X 3.5542 Y 32.1397 Z -1.0000
G01 X 3.5587 Y 32.1522 Z -1.0000
G01 X 3.5630 Y 32.1674 Z -1.0000
G02 X 3.5820 Y 32.1901 Z -1.0000 I 0.0869 J -0.0537
G03 X 3.6759 Y 32.2861 Z -1.0000 I -0.6324 J 0.7119
G01 X 3.6715 Y 32.2955 Z -1.0000
G01 X 3.7248 Y 32.3582 Z -1.0000
G03 X 3.7813 Y 32.4236 Z -1.0000 I -0.5319 J 0.5170
G03 X 3.7940 Y 32.4485 Z -1.0000 I -0.0617 J 0.0474
G02 X 3.8335 Y 32.5130 Z -1.0000 I 0.1431 J -0.0432
G02 X 3.9059 Y 32.5561 Z -1.0000 I 0.1285 J -0.1336
G03 X 3.9275 Y 32.5686 Z -1.0000 I -0.0173 J 0.0545
G01 X 3.9329 Y 32.5810 Z -1.0000
G02 X 3.9646 Y 32.6648 Z -1.0000 I 0.1266 J -0.0000
G02 X 4.0350 Y 32.6965 Z -1.0000 I 0.0703 J -0.0621
G01 X 4.0680 Y 32.7114 Z -1.0000
G03 X 4.1110 Y 32.7822 Z -1.0000 I -0.1729 J 0.1537
G01 X 4.1235 Y 32.7997 Z -1.0000
G02 X 4.1513 Y 32.8160 Z -1.0000 I 0.0620 J -0.0738
G03 X 4.1792 Y 32.8323 Z -1.0000 I -0.0350 J 0.0919
G01 X 4.1913 Y 32.8492 Z -1.0000
G01 X 4.2041 Y 32.8636 Z -1.0000
G02 X 4.2313 Y 32.8703 Z -1.0000 I 0.0273 J -0.0517
G01 X 4.2558 Y 32.8801 Z -1.0000
G03 X 4.2753 Y 32.9124 Z -1.0000 I -0.0498 J 0.0521
G02 X 4.2929 Y 32.9500 Z -1.0000 I 0.1268 J -0.0364
G02 X 4.3138 Y 32.9692 Z -1.0000 I 0.0508 J -0.0344
G03 X 4.3382 Y 32.9863 Z -1.0000 I -0.0714 J 0.1279
G03 X 4.3579 Y 33.0073 Z -1.0000 I -0.0897 J 0.1037
G02 X 4.3776 Y 33.0267 Z -1.0000 I 0.0749 J -0.0566
G01 X 4.3901 Y 33.0307 Z -1.0000
G01 X 4.4030 Y 33.0349 Z -1.0000
G03 X 4.4782 Y 33.0936 Z -1.0000 I -0.6368 J 0.8922
G02 X 4.5907 Y 33.1758 Z -1.0000 I 0.5974 J -0.6992
G02 X 4.6674 Y 33.2110 Z -1.0000 I 0.1780 J -0.2869
G03 X 4.6979 Y 33.2254 Z -1.0000 I -0.0378 J 0.1201
G03 X 4.7840 Y 33.2864 Z -1.0000 I -0.6662 J 1.0304
G02 X 4.8695 Y 33.3466 Z -1.0000 I 0.6759 J -0.8709
G01 X 4.8866 Y 33.3515 Z -1.0000
G01 X 4.9034 Y 33.3559 Z -1.0000
G03 X 4.9221 Y 33.3716 Z -1.0000 I -0.0332 J 0.0587
G02 X 4.9408 Y 33.3873 Z -1.0000 I 0.0526 J -0.0437
G01 X 4.9571 Y 33.3916 Z -1.0000
G01 X 4.9710 Y 33.3961 Z -1.0000
G01 X 4.9755 Y 33.4050 Z -1.0000
G01 X 4.9811 Y 33.4128 Z -1.0000
G02 X 5.0138 Y 33.4183 Z -1.0000 I 0.0327 J -0.0935
G01 X 5.0390 Y 33.4076 Z -1.0000
G01 X 5.0456 Y 33.3849 Z -1.0000
G03 X 5.0465 Y 33.3575 Z -1.0000 I 0.0619 J -0.0118
G01 X 5.0542 Y 33.3515 Z -1.0000
G01 X 5.0650 Y 33.3556 Z -1.0000
G01 X 5.0691 Y 33.3646 Z -1.0000
G01 X 5.0741 Y 33.3746 Z -1.0000
G02 X 5.1226 Y 33.4050 Z -1.0000 I 0.1971 J -0.2610
G03 X 5.1662 Y 33.4420 Z -1.0000 I -0.0565 J 0.1107
G01 X 5.1593 Y 33.4549 Z -1.0000
G01 X 5.1357 Y 33.4708 Z -1.0000
G01 X 5.1438 Y 33.4976 Z -1.0000
G02 X 5.2493 Y 33.5500 Z -1.0000 I 0.2028 J -0.2757
G01 X 5.2696 Y 33.5348 Z -1.0000
G01 X 5.2642 Y 33.5185 Z -1.0000
G01 X 5.2487 Y 33.5068 Z -1.0000
G01 X 5.2365 Y 33.4958 Z -1.0000
G01 X 5.2370 Y 33.4838 Z -1.0000
G01 X 5.2348 Y 33.4779 Z -1.0000
G01 X 5.2178 Y 33.4780 Z -1.0000
G01 X 5.1967 Y 33.4770 Z -1.0000
G01 X 5.1894 Y 33.4660 Z -1.0000
G01 X 5.2083 Y 33.4498 Z -1.0000
G03 X 5.2488 Y 33.4748 Z -1.0000 I -0.0088 J 0.0596
G01 X 5.2696 Y 33.4900 Z -1.0000
G01 X 5.2755 Y 33.4826 Z -1.0000
G03 X 5.3030 Y 33.4819 Z -1.0000 I 0.0153 J 0.0633
G03 X 5.3291 Y 33.4944 Z -1.0000 I -0.0107 J 0.0559
G01 X 5.3365 Y 33.5102 Z -1.0000
G01 X 5.3454 Y 33.5229 Z -1.0000
G02 X 5.3933 Y 33.5306 Z -1.0000 I 0.0445 J -0.1237
G02 X 5.4493 Y 33.5257 Z -1.0000 I -0.0115 J -0.4526
G02 X 5.4760 Y 33.5182 Z -1.0000 I -0.0164 J -0.1087
G01 X 5.4982 Y 33.5153 Z -1.0000
G01 X 5.5072 Y 33.5229 Z -1.0000
G01 X 5.5161 Y 33.5336 Z -1.0000
G01 X 5.5354 Y 33.5387 Z -1.0000
G03 X 5.5568 Y 33.5425 Z -1.0000 I -0.0000 J 0.0621
G01 X 5.5716 Y 33.5519 Z -1.0000
G01 X 5.5868 Y 33.5612 Z -1.0000
G02 X 5.6217 Y 33.5683 Z -1.0000 I 0.0476 J -0.1459
G03 X 5.6556 Y 33.5772 Z -1.0000 I -0.0083 J 0.1006
G03 X 5.6800 Y 33.5951 Z -1.0000 I -0.0315 J 0.0685
G02 X 5.7044 Y 33.6123 Z -1.0000 I 0.0501 J -0.0453
G02 X 5.7379 Y 33.6189 Z -1.0000 I 0.0335 J -0.0815
G03 X 5.7714 Y 33.6251 Z -1.0000 I -0.0000 J 0.0929
G01 X 5.7914 Y 33.6395 Z -1.0000
G01 X 5.8079 Y 33.6502 Z -1.0000
G01 X 5.8170 Y 33.6467 Z -1.0000
G01 X 5.8277 Y 33.6416 Z -1.0000
G03 X 5.8631 Y 33.6527 Z -1.0000 I -0.0140 J 0.1064
G02 X 5.9017 Y 33.6690 Z -1.0000 I 0.1204 J -0.2321
G02 X 5.9228 Y 33.6724 Z -1.0000 I 0.0212 J -0.0644
G03 X 5.9434 Y 33.6767 Z -1.0000 I -0.0001 J 0.0524
G03 X 5.9914 Y 33.7020 Z -1.0000 I -0.1376 J 0.3194
G02 X 6.0385 Y 33.7310 Z -1.0000 I 1.5568 J -2.4661
G02 X 6.0649 Y 33.7464 Z -1.0000 I 0.4629 J -0.7651
G03 X 6.0850 Y 33.7644 Z -1.0000 I -0.0301 J 0.0538
G01 X 6.0879 Y 33.7784 Z -1.0000
G02 X 6.1084 Y 33.8449 Z -1.0000 I 0.0684 J 0.0153
G02 X 6.1961 Y 33.8795 Z -1.0000 I 0.0877 J -0.0939
G01 X 6.2068 Y 33.8835 Z -1.0000
G01 X 6.2153 Y 33.8962 Z -1.0000
G01 X 6.2115 Y 33.9062 Z -1.0000
G03 X 6.1864 Y 33.9129 Z -1.0000 I -0.0252 J -0.0436
G02 X 6.1573 Y 33.9184 Z -1.0000 I 0.0000 J 0.0806
G01 X 6.1518 Y 33.9263 Z -1.0000
G01 X 6.1565 Y 33.9350 Z -1.0000
G01 X 6.1719 Y 33.9397 Z -1.0000
G01 X 6.1873 Y 33.9443 Z -1.0000
G01 X 6.1919 Y 33.9530 Z -1.0000
G01 X 6.1967 Y 33.9617 Z -1.0000
G01 X 6.2129 Y 33.9664 Z -1.0000
G01 X 6.2242 Y 33.9594 Z -1.0000
G01 X 6.2257 Y 33.9408 Z -1.0000
G01 X 6.2376 Y 33.9163 Z -1.0000
G01 X 6.2788 Y 33.9208 Z -1.0000
G03 X 6.3029 Y 33.9468 Z -1.0000 I -0.0404 J 0.0616
G01 X 6.3050 Y 33.9682 Z -1.0000
G01 X 6.3068 Y 33.9860 Z -1.0000
G01 X 6.3188 Y 33.9931 Z -1.0000
G01 X 6.3304 Y 33.9872 Z -1.0000
G01 X 6.3311 Y 33.9764 Z -1.0000
G01 X 6.3504 Y 33.9893 Z -1.0000
G02 X 6.3928 Y 34.0184 Z -1.0000 I 0.0938 J -0.0912
G02 X 6.4994 Y 34.0529 Z -1.0000 I 0.2438 J -0.5705
G03 X 6.6482 Y 34.0892 Z -1.0000 I -1.0693 J 4.7135
G03 X 6.6798 Y 34.0999 Z -1.0000 I -0.0578 J 0.2217
G02 X 6.7071 Y 34.1097 Z -1.0000 I 0.0988 J -0.2331
G02 X 6.7968 Y 34.1344 Z -1.0000 I 0.7412 J -2.5175
G03 X 6.8828 Y 34.1608 Z -1.0000 I -0.2361 J 0.9213
G01 X 6.8870 Y 34.1668 Z -1.0000
G01 X 6.8911 Y 34.1722 Z -1.0000
G02 X 6.9280 Y 34.1774 Z -1.0000 I 0.0416 J -0.1623
G03 X 7.0293 Y 34.1894 Z -1.0000 I -0.0162 J 0.5676
G03 X 7.0675 Y 34.2069 Z -1.0000 I -0.0199 J 0.0939
G01 X 7.0831 Y 34.2142 Z -1.0000
G02 X 7.2217 Y 34.2439 Z -1.0000 I 0.6630 J -2.7563
G03 X 7.2814 Y 34.2576 Z -1.0000 I -0.1455 J 0.7725
G03 X 7.2967 Y 34.2642 Z -1.0000 I -0.0150 J 0.0556
G02 X 7.3190 Y 34.2731 Z -1.0000 I 0.0362 J -0.0585
G02 X 7.6368 Y 34.3338 Z -1.0000 I 2.4926 J -12.1801
G03 X 7.7380 Y 34.3534 Z -1.0000 I -0.6167 J 3.4715
G03 X 7.7905 Y 34.3658 Z -1.0000 I -0.1971 J 0.9477
G02 X 7.9475 Y 34.3962 Z -1.0000 I 0.2958 J -1.1084
G02 X 8.2905 Y 34.4268 Z -1.0000 I 0.6445 J -5.2853
G03 X 8.4308 Y 34.4358 Z -1.0000 I -0.5455 J 9.6148
G03 X 8.5044 Y 34.4421 Z -1.0000 I -0.1888 J 2.6440
G02 X 8.5780 Y 34.4468 Z -1.0000 I 0.1055 J -1.0607
G02 X 8.8014 Y 34.4509 Z -1.0000 I 0.2907 J -9.7405
G02 X 9.0206 Y 34.4411 Z -1.0000 I 0.0148 J -2.1315
G02 X 9.0534 Y 34.4266 Z -1.0000 I -0.0055 J -0.0569
G03 X 9.0825 Y 34.4056 Z -1.0000 I 0.1104 J 0.1220
G01 X 9.0906 Y 34.4055 Z -1.0000
G01 X 9.0947 Y 34.4034 Z -1.0000
G02 X 9.0949 Y 34.3688 Z -1.0000 I -0.1568 J -0.0182
G03 X 9.0995 Y 34.3354 Z -1.0000 I 0.0693 J -0.0073
G01 X 9.1116 Y 34.3273 Z -1.0000
G01 X 9.1273 Y 34.3327 Z -1.0000
G01 X 9.1328 Y 34.3440 Z -1.0000
G01 X 9.1369 Y 34.3472 Z -1.0000
G01 X 9.1452 Y 34.3415 Z -1.0000
G03 X 9.1997 Y 34.3050 Z -1.0000 I 0.0684 J 0.0433
G01 X 9.2262 Y 34.3273 Z -1.0000
G01 X 9.2315 Y 34.3327 Z -1.0000
G01 X 9.2526 Y 34.3275 Z -1.0000
G01 X 9.2650 Y 34.3295 Z -1.0000
G01 X 9.2679 Y 34.3437 Z -1.0000
G03 X 9.2508 Y 34.3666 Z -1.0000 I -0.0469 J -0.0172
G03 X 9.2214 Y 34.3783 Z -1.0000 I -0.0367 J -0.0493
G02 X 9.1914 Y 34.3872 Z -1.0000 I 0.0111 J 0.0922
G01 X 9.1861 Y 34.3957 Z -1.0000
G02 X 9.2566 Y 34.4634 Z -1.0000 I 0.0677 J 0.0000
G02 X 9.5607 Y 34.3806 Z -1.0000 I -0.0285 J -0.7042
G03 X 9.5863 Y 34.3713 Z -1.0000 I 0.0446 J 0.0833
G03 X 9.6252 Y 34.3674 Z -1.0000 I 0.0389 J 0.1901
G02 X 9.6611 Y 34.3613 Z -1.0000 I -0.0000 J -0.1080
G01 X 9.6726 Y 34.3507 Z -1.0000
G01 X 9.6771 Y 34.3593 Z -1.0000
G01 X 9.6685 Y 34.3808 Z -1.0000
G03 X 9.6473 Y 34.3994 Z -1.0000 I -0.0535 J -0.0398
G02 X 9.6221 Y 34.4160 Z -1.0000 I 0.0952 J 0.1719
G02 X 9.6109 Y 34.4275 Z -1.0000 I 0.0344 J 0.0445
G01 X 9.6212 Y 34.4574 Z -1.0000
G02 X 9.6733 Y 34.4456 Z -1.0000 I 0.0153 J -0.0530
G03 X 9.7295 Y 34.4235 Z -1.0000 I 0.0579 J 0.0648
G03 X 9.7790 Y 34.4435 Z -1.0000 I 0.0014 J 0.0681
G02 X 9.9632 Y 34.4971 Z -1.0000 I 0.1409 J -0.1409
G02 X 10.0073 Y 34.3927 Z -1.0000 I -0.0151 J -0.0679
G01 X 10.0041 Y 34.3808 Z -1.0000
G01 X 10.0082 Y 34.3673 Z -1.0000
G01 X 10.0379 Y 34.3636 Z -1.0000
G01 X 10.0518 Y 34.4093 Z -1.0000
G01 X 10.0639 Y 34.4254 Z -1.0000
G02 X 10.1552 Y 34.4169 Z -1.0000 I 0.0205 J -0.2764
G03 X 10.1958 Y 34.4091 Z -1.0000 I 0.0798 J 0.3020
G03 X 10.2889 Y 34.4000 Z -1.0000 I 0.2012 J 1.5886
G02 X 10.3822 Y 34.3914 Z -1.0000 I -0.1298 J -1.9188
G02 X 10.4567 Y 34.3804 Z -1.0000 I -0.1446 J -1.2382
G03 X 10.5312 Y 34.3689 Z -1.0000 I 0.2785 J 1.5585
G03 X 10.6166 Y 34.3596 Z -1.0000 I 0.2661 J 2.0477
G02 X 10.7015 Y 34.3500 Z -1.0000 I -0.1499 J -1.7046
G01 X 10.7113 Y 34.3465 Z -1.0000
G01 X 10.7210 Y 34.3429 Z -1.0000
G03 X 10.8052 Y 34.3326 Z -1.0000 I 0.2514 J 1.6914
G02 X 10.8893 Y 34.3213 Z -1.0000 I -0.1185 J -1.2043
G02 X 10.9189 Y 34.3132 Z -1.0000 I -0.0263 J -0.1550
G03 X 10.9469 Y 34.3065 Z -1.0000 I 0.0402 J 0.1057
G01 X 10.9548 Y 34.3093 Z -1.0000
G01 X 10.9631 Y 34.3119 Z -1.0000
G02 X 11.0380 Y 34.2943 Z -1.0000 I -0.1326 J -0.7315
G03 X 11.1139 Y 34.2769 Z -1.0000 I 0.1872 J 0.6440
G01 X 11.1309 Y 34.2786 Z -1.0000
G01 X 11.1468 Y 34.2802 Z -1.0000
G01 X 11.1594 Y 34.2737 Z -1.0000
G01 X 11.1729 Y 34.2655 Z -1.0000
G03 X 11.3983 Y 34.1950 Z -1.0000 I 2.4557 J 7.4538
G02 X 11.9512 Y 34.0081 Z -1.0000 I -2.1891 J -7.3853
G02 X 12.1402 Y 33.9124 Z -1.0000 I -0.3609 J -0.9473
G03 X 12.1608 Y 33.9006 Z -1.0000 I 0.1214 J 0.1881
G03 X 12.1936 Y 33.8855 Z -1.0000 I 0.2328 J 0.4618
G02 X 12.3379 Y 33.8161 Z -1.0000 I -0.6060 J -1.4454
G02 X 12.4288 Y 33.7572 Z -1.0000 I -0.3435 J -0.6299
G03 X 12.4709 Y 33.7280 Z -1.0000 I 0.3526 J 0.4636
G01 X 12.4788 Y 33.7258 Z -1.0000
G02 X 12.5207 Y 33.7132 Z -1.0000 I -0.0000 J -0.0764
G02 X 12.8278 Y 33.4965 Z -1.0000 I -3.0924 J -4.7083
G03 X 12.8940 Y 33.4504 Z -1.0000 I 0.6255 J 0.8266
G01 X 12.8990 Y 33.4509 Z -1.0000
G01 X 12.9038 Y 33.4514 Z -1.0000
G02 X 12.9341 Y 33.4270 Z -1.0000 I -0.1401 J -0.2054
G03 X 12.9650 Y 33.3988 Z -1.0000 I 0.8764 J 0.9308
G03 X 13.0401 Y 33.3335 Z -1.0000 I 4.8430 J 5.4927
G02 X 13.3588 Y 33.0279 Z -1.0000 I -2.5958 J -3.0262
G02 X 13.3833 Y 32.9659 Z -1.0000 I -0.0665 J -0.0620
G01 X 13.3684 Y 32.9459 Z -1.0000
G01 X 13.3333 Y 32.9508 Z -1.0000
G01 X 13.3331 Y 32.9586 Z -1.0000
G03 X 13.3536 Y 32.9553 Z -1.0000 I 0.0219 J 0.0704
G01 X 13.3565 Y 32.9582 Z -1.0000
G01 X 13.3475 Y 32.9797 Z -1.0000
G03 X 13.2830 Y 33.0297 Z -1.0000 I -0.2556 J -0.2625
G01 X 13.2806 Y 33.0384 Z -1.0000
G01 X 13.2846 Y 33.0431 Z -1.0000
G03 X 13.2643 Y 33.0715 Z -1.0000 I -0.0964 J -0.0476
G02 X 13.2261 Y 33.1142 Z -1.0000 I 0.3635 J 0.3635
G02 X 13.2002 Y 33.1517 Z -1.0000 I 0.2534 J 0.2024
G03 X 13.1675 Y 33.1844 Z -1.0000 I -0.0797 J -0.0471
G01 X 13.1560 Y 33.1777 Z -1.0000
G01 X 13.1522 Y 33.1682 Z -1.0000
G01 X 13.1430 Y 33.1644 Z -1.0000
G01 X 13.1368 Y 33.1689 Z -1.0000
G01 X 13.1371 Y 33.1827 Z -1.0000
G01 X 13.1223 Y 33.2189 Z -1.0000
G01 X 13.0842 Y 33.2066 Z -1.0000
G01 X 13.0819 Y 33.1972 Z -1.0000
G03 X 13.0884 Y 33.1279 Z -1.0000 I 0.9111 J 0.0497
G03 X 13.1230 Y 33.0316 Z -1.0000 I 0.2402 J 0.0318
G03 X 13.2794 Y 32.8217 Z -1.0000 I 1.3430 J 0.8375
G02 X 13.3580 Y 32.7224 Z -1.0000 I -0.8864 J -0.7823
G02 X 13.4223 Y 32.6198 Z -1.0000 I -0.8813 J -0.6237
G03 X 13.4885 Y 32.5208 Z -1.0000 I 0.6066 J 0.3343
G03 X 13.5280 Y 32.4879 Z -1.0000 I 0.1006 J 0.0807
G02 X 13.6391 Y 32.3999 Z -1.0000 I -0.1923 J -0.3572
G02 X 13.6639 Y 32.3346 Z -1.0000 I -0.0736 J -0.0653
G02 X 13.6549 Y 32.3000 Z -1.0000 I -0.0712 J -0.0000
G01 X 13.6368 Y 32.2859 Z -1.0000
G01 X 13.6205 Y 32.2728 Z -1.0000
G01 X 13.6185 Y 32.2504 Z -1.0000
G03 X 13.6587 Y 32.1649 Z -1.0000 I 0.3225 J 0.0993
G03 X 13.6948 Y 32.1339 Z -1.0000 I 0.0716 J 0.0469
G02 X 13.7449 Y 32.0825 Z -1.0000 I -0.0411 J -0.0903
G02 X 13.7709 Y 31.9556 Z -1.0000 I -0.2973 J -0.1269
G03 X 13.7801 Y 31.8753 Z -1.0000 I 0.3538 J 0.0000
G03 X 13.7976 Y 31.8411 Z -1.0000 I 0.0779 J 0.0181
G02 X 13.8223 Y 31.8095 Z -1.0000 I -0.3042 J -0.2638
G01 X 13.8243 Y 31.8032 Z -1.0000
G01 X 13.8222 Y 31.7896 Z -1.0000
G02 X 13.7681 Y 31.6284 Z -1.0000 I -6.5310 J 2.0996
G03 X 13.7272 Y 31.3630 Z -1.0000 I 0.6975 J -0.2435
G01 X 13.7762 Y 31.3547 Z -1.0000
G01 X 13.7903 Y 31.3663 Z -1.0000
G02 X 13.8479 Y 31.3670 Z -1.0000 I 0.0312 J -0.1808
G02 X 13.9383 Y 31.2991 Z -1.0000 I -0.0169 J -0.1167
G02 X 13.9314 Y 31.1831 Z -1.0000 I -0.1132 J -0.0514
G02 X 13.8970 Y 31.1529 Z -1.0000 I -0.0654 J 0.0398
G02 X 13.8312 Y 31.1386 Z -1.0000 I -0.0674 J 0.1517
G02 X 13.7749 Y 31.1429 Z -1.0000 I -0.0032 J 0.3314
G01 X 13.7739 Y 31.1479 Z -1.0000
G01 X 13.7769 Y 31.1567 Z -1.0000
G01 X 13.7666 Y 31.1669 Z -1.0000
G01 X 13.7446 Y 31.1681 Z -1.0000
G03 X 13.7192 Y 31.1543 Z -1.0000 I 0.0159 J -0.0594
G02 X 13.6932 Y 31.1378 Z -1.0000 I -0.0608 J 0.0672
G02 X 13.6672 Y 31.1326 Z -1.0000 I -0.0261 J 0.0625
G03 X 13.6218 Y 31.1050 Z -1.0000 I 0.0000 J -0.0510
G03 X 13.5990 Y 31.0001 Z -1.0000 I 0.1852 J -0.0953
G02 X 13.5943 Y 30.9143 Z -1.0000 I -0.4269 J -0.0198
G02 X 13.5800 Y 30.8788 Z -1.0000 I -0.0834 J 0.0130
G03 X 13.5628 Y 30.8441 Z -1.0000 I 0.1056 J -0.0740
G03 X 13.5566 Y 30.8055 Z -1.0000 I 0.1250 J -0.0400
G02 X 13.5506 Y 30.7669 Z -1.0000 I -0.1381 J 0.0015
G02 X 13.5365 Y 30.7391 Z -1.0000 I -0.0855 J 0.0259
G03 X 13.5211 Y 30.7117 Z -1.0000 I 0.0944 J -0.0714
G03 X 13.5169 Y 30.6901 Z -1.0000 I 0.0541 J -0.0217
G01 X 13.5122 Y 30.6703 Z -1.0000
G01 X 13.5032 Y 30.6624 Z -1.0000
G01 X 13.4949 Y 30.6533 Z -1.0000
G03 X 13.4716 Y 30.5176 Z -1.0000 I 1.5394 J -0.3340
G02 X 13.4291 Y 30.3329 Z -1.0000 I -0.9407 J 0.1194
G02 X 13.3942 Y 30.2891 Z -1.0000 I -0.0783 J 0.0265
G01 X 13.3923 Y 30.2658 Z -1.0000
G03 X 13.4424 Y 30.2471 Z -1.0000 I 0.0500 J 0.0574
G02 X 13.4716 Y 30.2419 Z -1.0000 I -0.0000 J -0.0860
G01 X 13.4768 Y 30.2346 Z -1.0000
G01 X 13.4808 Y 30.2293 Z -1.0000
G01 X 13.4907 Y 30.2307 Z -1.0000
G01 X 13.5043 Y 30.2329 Z -1.0000
G01 X 13.5245 Y 30.2229 Z -1.0000
G03 X 13.5440 Y 30.2127 Z -1.0000 I 0.0335 J 0.0405
G01 X 13.5529 Y 30.2151 Z -1.0000
G01 X 13.5535 Y 30.2204 Z -1.0000
G01 X 13.5475 Y 30.2237 Z -1.0000
G01 X 13.5092 Y 30.2665 Z -1.0000
G02 X 13.5575 Y 30.3113 Z -1.0000 I 0.0503 J -0.0057
G03 X 13.5767 Y 30.3139 Z -1.0000 I -0.0041 J 0.1021
G03 X 13.6005 Y 30.3214 Z -1.0000 I -0.0398 J 0.1690
G02 X 13.6240 Y 30.3302 Z -1.0000 I 0.2701 J -0.6815
G02 X 13.6439 Y 30.3369 Z -1.0000 I 0.1747 J -0.4892
G01 X 13.6607 Y 30.3567 Z -1.0000
G01 X 13.6485 Y 30.3707 Z -1.0000
G01 X 13.6443 Y 30.3759 Z -1.0000
G01 X 13.6533 Y 30.3941 Z -1.0000
G03 X 13.6689 Y 30.4197 Z -1.0000 I -0.0676 J 0.0586
G03 X 13.6812 Y 30.4643 Z -1.0000 I -0.1986 J 0.0789
G01 X 13.6820 Y 30.4944 Z -1.0000
G01 X 13.6713 Y 30.4833 Z -1.0000
G02 X 13.6461 Y 30.4781 Z -1.0000 I -0.0243 J 0.0535
G01 X 13.6357 Y 30.4847 Z -1.0000
G01 X 13.6380 Y 30.4948 Z -1.0000
G03 X 13.6560 Y 30.5133 Z -1.0000 I -0.0591 J 0.0754
G03 X 13.6681 Y 30.5356 Z -1.0000 I -0.0739 J 0.0546
G01 X 13.6917 Y 30.5424 Z -1.0000
G02 X 13.7188 Y 30.4967 Z -1.0000 I -0.0434 J -0.0566
G01 X 13.7238 Y 30.4949 Z -1.0000
G01 X 13.7288 Y 30.5058 Z -1.0000
G03 X 13.7260 Y 30.5665 Z -1.0000 I -0.4022 J 0.0119
G03 X 13.7160 Y 30.6096 Z -1.0000 I -0.2042 J -0.0250
G02 X 13.7111 Y 30.6507 Z -1.0000 I 0.0909 J 0.0317
G02 X 13.7235 Y 30.6859 Z -1.0000 I 0.0777 J -0.0076
G03 X 13.7483 Y 30.7687 Z -1.0000 I -0.1272 J 0.0833
G01 X 13.7238 Y 30.7895 Z -1.0000
G03 X 13.7102 Y 30.7869 Z -1.0000 I 0.0801 J -0.4622
G03 X 13.6703 Y 30.7786 Z -1.0000 I 0.7129 J -3.4971
G01 X 13.6543 Y 30.7814 Z -1.0000
G01 X 13.6539 Y 30.7890 Z -1.0000
G03 X 13.6725 Y 30.8103 Z -1.0000 I -0.0530 J 0.0649
G01 X 13.6769 Y 30.8267 Z -1.0000
G01 X 13.6716 Y 30.8303 Z -1.0000
G01 X 13.6569 Y 30.8195 Z -1.0000
G01 X 13.6373 Y 30.8141 Z -1.0000
G01 X 13.6179 Y 30.8352 Z -1.0000
G01 X 13.6253 Y 30.8573 Z -1.0000
G01 X 13.6608 Y 30.8663 Z -1.0000
G01 X 13.6742 Y 30.8698 Z -1.0000
G01 X 13.6856 Y 30.8847 Z -1.0000
G01 X 13.6982 Y 30.8987 Z -1.0000
G02 X 13.7266 Y 30.9054 Z -1.0000 I 0.0284 J -0.0563
G01 X 13.7501 Y 30.8987 Z -1.0000
G01 X 13.7536 Y 30.8887 Z -1.0000
G01 X 13.7446 Y 30.8771 Z -1.0000
G01 X 13.7339 Y 30.8749 Z -1.0000
G01 X 13.7240 Y 30.8716 Z -1.0000
G01 X 13.7134 Y 30.8515 Z -1.0000
G01 X 13.7127 Y 30.8300 Z -1.0000
G01 X 13.7186 Y 30.8252 Z -1.0000
G01 X 13.7272 Y 30.8287 Z -1.0000
G01 X 13.7307 Y 30.8371 Z -1.0000
G01 X 13.7347 Y 30.8447 Z -1.0000
G01 X 13.7474 Y 30.8484 Z -1.0000
G03 X 13.7982 Y 30.8592 Z -1.0000 I 0.0040 J 0.1064
G01 X 13.8109 Y 30.8795 Z -1.0000
G01 X 13.8173 Y 30.8965 Z -1.0000
G01 X 13.8276 Y 30.8985 Z -1.0000
G01 X 13.8149 Y 30.9160 Z -1.0000
G02 X 13.7903 Y 30.9449 Z -1.0000 I 0.0892 J 0.1008
G02 X 13.7771 Y 30.9759 Z -1.0000 I 0.0900 J 0.0569
G01 X 13.7795 Y 31.0037 Z -1.0000
G01 X 13.7964 Y 31.0187 Z -1.0000
G03 X 13.8179 Y 31.0322 Z -1.0000 I -0.0156 J 0.0487
G01 X 13.8243 Y 31.0481 Z -1.0000
G01 X 13.8306 Y 31.0594 Z -1.0000
G01 X 13.8451 Y 31.0607 Z -1.0000
G03 X 13.8959 Y 31.0677 Z -1.0000 I 0.0191 J 0.0497
G03 X 13.9676 Y 31.1519 Z -1.0000 I -0.1472 J 0.1978
G03 X 13.9991 Y 31.3317 Z -1.0000 I -0.2696 J 0.1400
G03 X 13.9365 Y 31.3866 Z -1.0000 I -0.0626 J -0.0083
G01 X 13.9234 Y 31.3922 Z -1.0000
G01 X 13.9178 Y 31.4060 Z -1.0000
G01 X 13.9128 Y 31.4224 Z -1.0000
G01 X 13.8969 Y 31.4371 Z -1.0000
G01 X 13.8844 Y 31.4534 Z -1.0000
G02 X 13.8809 Y 31.5013 Z -1.0000 I 0.1381 J 0.0344
G01 X 13.8882 Y 31.5060 Z -1.0000
G01 X 13.8971 Y 31.4958 Z -1.0000
G03 X 13.9170 Y 31.4520 Z -1.0000 I 0.1008 J 0.0195
G01 X 13.9364 Y 31.4455 Z -1.0000
G02 X 13.9648 Y 31.4519 Z -1.0000 I 0.0901 J -0.3326
G02 X 13.9792 Y 31.4533 Z -1.0000 I 0.0155 J -0.0850
G01 X 13.9905 Y 31.4584 Z -1.0000
G03 X 14.0085 Y 31.4858 Z -1.0000 I -0.0802 J 0.0722
G02 X 14.0283 Y 31.5118 Z -1.0000 I 0.0673 J -0.0306
G02 X 14.0541 Y 31.5241 Z -1.0000 I 0.0365 J -0.0435
G01 X 14.0579 Y 31.5283 Z -1.0000
G01 X 14.0549 Y 31.5318 Z -1.0000
G02 X 14.0300 Y 31.5385 Z -1.0000 I 0.0039 J 0.0637
G01 X 14.0248 Y 31.5470 Z -1.0000
G01 X 14.0209 Y 31.5565 Z -1.0000
G01 X 14.0114 Y 31.5604 Z -1.0000
G01 X 14.0034 Y 31.5561 Z -1.0000
G01 X 14.0014 Y 31.5453 Z -1.0000
G01 X 13.9992 Y 31.5333 Z -1.0000
G01 X 13.9880 Y 31.5242 Z -1.0000
G01 X 13.9770 Y 31.5262 Z -1.0000
G01 X 13.9713 Y 31.5386 Z -1.0000
G01 X 13.9668 Y 31.5566 Z -1.0000
G01 X 13.9546 Y 31.5697 Z -1.0000
G02 X 13.9106 Y 31.6191 Z -1.0000 I 0.0661 J 0.1033
G01 X 13.9124 Y 31.6559 Z -1.0000
G01 X 13.9212 Y 31.6603 Z -1.0000
G01 X 13.9311 Y 31.6541 Z -1.0000
G01 X 13.9423 Y 31.6508 Z -1.0000
G03 X 13.9752 Y 31.6748 Z -1.0000 I -0.0451 J 0.0961
G02 X 14.0124 Y 31.6971 Z -1.0000 I 0.0570 J -0.0528
G02 X 14.0505 Y 31.6945 Z -1.0000 I 0.0151 J -0.0578
G02 X 14.0866 Y 31.6741 Z -1.0000 I -0.0658 J -0.1584
G01 X 14.0916 Y 31.6641 Z -1.0000
G01 X 14.0960 Y 31.6595 Z -1.0000
G01 X 14.1083 Y 31.6632 Z -1.0000
G02 X 14.1259 Y 31.6727 Z -1.0000 I 0.0408 J -0.0544
G01 X 14.1384 Y 31.6742 Z -1.0000
G02 X 14.2017 Y 31.6569 Z -1.0000 I -0.0234 J -0.2099
G01 X 14.2119 Y 31.6410 Z -1.0000
G01 X 14.2160 Y 31.6323 Z -1.0000
G03 X 14.2595 Y 31.6018 Z -1.0000 I 0.2153 J 0.2609
G03 X 14.3464 Y 31.5766 Z -1.0000 I 0.0930 J 0.1576
G03 X 14.4931 Y 31.5941 Z -1.0000 I 0.0160 J 0.4865
G02 X 14.5662 Y 31.6142 Z -1.0000 I 2.5187 J -9.0405
G02 X 14.5825 Y 31.6183 Z -1.0000 I 0.1144 J -0.4240
G03 X 14.5978 Y 31.6238 Z -1.0000 I -0.0156 J 0.0667
G01 X 14.6081 Y 31.6313 Z -1.0000
G01 X 14.6187 Y 31.6373 Z -1.0000
G02 X 14.6469 Y 31.6406 Z -1.0000 I 0.0282 J -0.1175
G03 X 14.6738 Y 31.6464 Z -1.0000 I -0.0000 J 0.0649
G03 X 14.6943 Y 31.6620 Z -1.0000 I -0.0240 J 0.0527
G02 X 14.7208 Y 31.6839 Z -1.0000 I 0.0703 J -0.0583
G02 X 14.7934 Y 31.7162 Z -1.0000 I 0.2357 J -0.4310
G02 X 14.8070 Y 31.7202 Z -1.0000 I 0.0411 J -0.1170
G02 X 14.8502 Y 31.7291 Z -1.0000 I 0.2447 J -1.0779
G03 X 14.8870 Y 31.7427 Z -1.0000 I -0.0216 J 0.1149
G01 X 14.8936 Y 31.7542 Z -1.0000
G02 X 14.9140 Y 31.7960 Z -1.0000 I 0.0532 J -0.0000
G02 X 14.9636 Y 31.8091 Z -1.0000 I 0.0400 J -0.0509
G01 X 14.9717 Y 31.8117 Z -1.0000
G03 X 14.9944 Y 31.8378 Z -1.0000 I -0.1116 J 0.1201
G02 X 15.0189 Y 31.8612 Z -1.0000 I 0.0716 J -0.0502
G01 X 15.0414 Y 31.8678 Z -1.0000
G01 X 15.0623 Y 31.8729 Z -1.0000
G01 X 15.0674 Y 31.8812 Z -1.0000
G01 X 15.0726 Y 31.8895 Z -1.0000
G02 X 15.0949 Y 31.8946 Z -1.0000 I 0.0223 J -0.0462
G01 X 15.1146 Y 31.8902 Z -1.0000
G01 X 15.1163 Y 31.8846 Z -1.0000
G01 X 15.1181 Y 31.8790 Z -1.0000
G03 X 15.1409 Y 31.8745 Z -1.0000 I 0.0229 J 0.0561
G03 X 15.1638 Y 31.8790 Z -1.0000 I 0.0000 J 0.0607
G01 X 15.1656 Y 31.8846 Z -1.0000
G01 X 15.1575 Y 31.8912 Z -1.0000
G03 X 15.1390 Y 31.8946 Z -1.0000 I -0.0185 J -0.0489
G01 X 15.1308 Y 31.9087 Z -1.0000
G02 X 15.1680 Y 31.9458 Z -1.0000 I 0.0851 J -0.0482
G03 X 15.2054 Y 31.9706 Z -1.0000 I -0.1505 J 0.2677
G03 X 15.2185 Y 31.9848 Z -1.0000 I -0.0346 J 0.0447
G01 X 15.2316 Y 31.9971 Z -1.0000
G01 X 15.2485 Y 32.0015 Z -1.0000
G01 X 15.2635 Y 32.0059 Z -1.0000
G01 X 15.2679 Y 32.0140 Z -1.0000
G01 X 15.2725 Y 32.0232 Z -1.0000
G02 X 15.2956 Y 32.0352 Z -1.0000 I 0.0461 J -0.0603
G01 X 15.3136 Y 32.0487 Z -1.0000
G01 X 15.3155 Y 32.0645 Z -1.0000
G01 X 15.3184 Y 32.0753 Z -1.0000
G01 X 15.3326 Y 32.0784 Z -1.0000
G03 X 15.3830 Y 32.0845 Z -1.0000 I 0.0175 J 0.0665
G01 X 15.4016 Y 32.1158 Z -1.0000
G01 X 15.4140 Y 32.1320 Z -1.0000
G01 X 15.4305 Y 32.1237 Z -1.0000
G01 X 15.4383 Y 32.1163 Z -1.0000
G03 X 15.4885 Y 32.1040 Z -1.0000 I 0.0955 J 0.2798
G01 X 15.5152 Y 32.1078 Z -1.0000
G01 X 15.5140 Y 32.1165 Z -1.0000
G01 X 15.5386 Y 32.1272 Z -1.0000
G01 X 15.5535 Y 32.1251 Z -1.0000
G01 X 15.5659 Y 32.1155 Z -1.0000
G01 X 15.5711 Y 32.1164 Z -1.0000
G03 X 15.5745 Y 32.1418 Z -1.0000 I -0.0667 J 0.0219
G02 X 15.5783 Y 32.2056 Z -1.0000 I 0.2923 J 0.0147
G01 X 15.5856 Y 32.2071 Z -1.0000
G01 X 15.5979 Y 32.1956 Z -1.0000
G03 X 15.6288 Y 32.1828 Z -1.0000 I 0.0689 J 0.1228
G01 X 15.6437 Y 32.1862 Z -1.0000
G01 X 15.6365 Y 32.2010 Z -1.0000
G02 X 15.6461 Y 32.2288 Z -1.0000 I 0.0537 J -0.0030
G02 X 15.6765 Y 32.2590 Z -1.0000 I 0.0990 J -0.0694
G02 X 15.7758 Y 32.3183 Z -1.0000 I 0.5020 J -0.7274
G03 X 15.8216 Y 32.3436 Z -1.0000 I -0.3768 J 0.7361
G01 X 15.8293 Y 32.3501 Z -1.0000
G01 X 15.8372 Y 32.3564 Z -1.0000
G02 X 15.9295 Y 32.4032 Z -1.0000 I 1.3059 J -2.4663
G03 X 16.0199 Y 32.4519 Z -1.0000 I -0.5030 J 1.0415
G01 X 16.0338 Y 32.4655 Z -1.0000
G01 X 16.0470 Y 32.4780 Z -1.0000
G01 X 16.0647 Y 32.4826 Z -1.0000
G03 X 16.2248 Y 32.5146 Z -1.0000 I 0.0000 J 0.4163
G03 X 16.2572 Y 32.5628 Z -1.0000 I -0.0203 J 0.0487
G01 X 16.2618 Y 32.5675 Z -1.0000
G01 X 16.2698 Y 32.5633 Z -1.0000
G01 X 16.2869 Y 32.5519 Z -1.0000
G03 X 16.3933 Y 32.5419 Z -1.0000 I 0.1171 J 0.6778
G02 X 16.5036 Y 32.5354 Z -1.0000 I -0.0197 J -1.2706
G02 X 16.5584 Y 32.5250 Z -1.0000 I -0.0335 J -0.3256
G03 X 16.6131 Y 32.5134 Z -1.0000 I 0.1143 J 0.4048
G03 X 16.6787 Y 32.5077 Z -1.0000 I 0.0844 J 0.5901
G02 X 16.7440 Y 32.5025 Z -1.0000 I -0.0203 J -0.6721
G01 X 16.7583 Y 32.4975 Z -1.0000
G03 X 16.7776 Y 32.4903 Z -1.0000 I 0.0294 J 0.0486
G03 X 16.8719 Y 32.4770 Z -1.0000 I 0.2167 J 1.1985
G02 X 16.9181 Y 32.4700 Z -1.0000 I -0.0478 J -0.4734
G02 X 16.9414 Y 32.4629 Z -1.0000 I -0.0248 J -0.1231
G03 X 16.9638 Y 32.4580 Z -1.0000 I 0.0245 J 0.0588
G01 X 16.9773 Y 32.4616 Z -1.0000
G01 X 16.9889 Y 32.4633 Z -1.0000
G01 X 16.9988 Y 32.4561 Z -1.0000
G01 X 17.0099 Y 32.4475 Z -1.0000
G03 X 17.0431 Y 32.4425 Z -1.0000 I 0.0332 J 0.1090
G02 X 17.3421 Y 32.4119 Z -1.0000 I 0.0002 J -1.4739
G02 X 17.4601 Y 32.3562 Z -1.0000 I -0.0563 J -0.2720
G03 X 17.5845 Y 32.2844 Z -1.0000 I 0.2918 J 0.3621
G03 X 17.6342 Y 32.2890 Z -1.0000 I 0.0202 J 0.0524
G01 X 17.6430 Y 32.2895 Z -1.0000
G01 X 17.6472 Y 32.2829 Z -1.0000
G01 X 17.6508 Y 32.2734 Z -1.0000
G01 X 17.6572 Y 32.2713 Z -1.0000
G02 X 17.7080 Y 32.2706 Z -1.0000 I 0.0240 J -0.0953
G02 X 17.7920 Y 32.2330 Z -1.0000 I -0.0872 J -0.3075
G01 X 17.8211 Y 32.2260 Z -1.0000
G01 X 17.8429 Y 32.2377 Z -1.0000
G01 X 17.8473 Y 32.2380 Z -1.0000
G01 X 17.8483 Y 32.2326 Z -1.0000
G03 X 17.8373 Y 32.2028 Z -1.0000 I 0.1410 J -0.0686
G01 X 17.8375 Y 32.1907 Z -1.0000
G01 X 17.8355 Y 32.1797 Z -1.0000
G02 X 17.7801 Y 32.1133 Z -1.0000 I -0.6046 J 0.4483
G03 X 17.7224 Y 32.0458 Z -1.0000 I 0.7013 J -0.6572
G03 X 17.6932 Y 32.0015 Z -1.0000 I 0.2718 J -0.2112
G02 X 17.6647 Y 31.9569 Z -1.0000 I -0.3749 J 0.2080
G02 X 17.6472 Y 31.9384 Z -1.0000 I -0.0801 J 0.0584
G01 X 17.6403 Y 31.9266 Z -1.0000
G01 X 17.6444 Y 31.9217 Z -1.0000
G01 X 17.6595 Y 31.9268 Z -1.0000
G03 X 17.7429 Y 32.0015 Z -1.0000 I -0.7160 J 0.8840
G02 X 17.8254 Y 32.0785 Z -1.0000 I 1.4026 J -1.4201
G01 X 17.8339 Y 32.0817 Z -1.0000
G03 X 17.8853 Y 32.1061 Z -1.0000 I 0.0000 J 0.0663
G01 X 17.8930 Y 32.1543 Z -1.0000
G01 X 17.8968 Y 32.1658 Z -1.0000
G01 X 17.9162 Y 32.1692 Z -1.0000
G03 X 17.9459 Y 32.1703 Z -1.0000 I 0.0128 J 0.0548
G03 X 17.9814 Y 32.1897 Z -1.0000 I -0.0314 J 0.0995
G01 X 17.9981 Y 32.2090 Z -1.0000
G01 X 17.9878 Y 32.2109 Z -1.0000
G01 X 17.9814 Y 32.2279 Z -1.0000
G01 X 18.0025 Y 32.2472 Z -1.0000
G01 X 18.0369 Y 32.2227 Z -1.0000
G01 X 18.0578 Y 32.2016 Z -1.0000
G03 X 18.0901 Y 32.1977 Z -1.0000 I 0.0221 J 0.0470
G02 X 18.1220 Y 32.1976 Z -1.0000 I 0.0157 J -0.0788
G01 X 18.1284 Y 32.1898 Z -1.0000
G01 X 18.1341 Y 32.1838 Z -1.0000
G01 X 18.1556 Y 32.1888 Z -1.0000
G02 X 18.1834 Y 32.1970 Z -1.0000 I 0.0335 J -0.0623
G02 X 18.2124 Y 32.1934 Z -1.0000 I 0.0058 J -0.0722
G03 X 18.2421 Y 32.1838 Z -1.0000 I 0.4727 J 1.3975
G03 X 18.2554 Y 32.1799 Z -1.0000 I 0.1057 J 0.3356
G02 X 18.2688 Y 32.1762 Z -1.0000 I -0.7226 J -2.6736
G02 X 18.3222 Y 32.1614 Z -1.0000 I -20.6949 J -75.0711
G03 X 18.3759 Y 32.1474 Z -1.0000 I 0.5704 J 2.0711
G03 X 18.4235 Y 32.1364 Z -1.0000 I 0.3710 J 1.4971
G02 X 18.4704 Y 32.1238 Z -1.0000 I -0.0963 J -0.4523
G02 X 18.4892 Y 32.1151 Z -1.0000 I -0.0270 J -0.0829
G03 X 18.5084 Y 32.1075 Z -1.0000 I 0.0306 J 0.0497
G03 X 18.5951 Y 32.0940 Z -1.0000 I 0.2058 J 1.0326
G02 X 18.6829 Y 32.0826 Z -1.0000 I -0.3280 J -2.8854
G02 X 18.7232 Y 32.0755 Z -1.0000 I -0.0902 J -0.6236
G03 X 18.7636 Y 32.0687 Z -1.0000 I 0.0998 J 0.4680
G03 X 18.8235 Y 32.0629 Z -1.0000 I 0.1335 J 1.0670
G02 X 18.8827 Y 32.0548 Z -1.0000 I -0.0320 J -0.4598
G02 X 18.9233 Y 32.0426 Z -1.0000 I -0.0453 J -0.2243
G03 X 18.9634 Y 32.0316 Z -1.0000 I 0.0682 J 0.1694
G03 X 18.9868 Y 32.0327 Z -1.0000 I 0.0090 J 0.0574
G01 X 19.0055 Y 32.0323 Z -1.0000
G01 X 19.0106 Y 32.0254 Z -1.0000
G01 X 19.0155 Y 32.0189 Z -1.0000
G01 X 19.0303 Y 32.0194 Z -1.0000
G01 X 19.0500 Y 32.0214 Z -1.0000
G02 X 19.0955 Y 32.0080 Z -1.0000 I -0.0372 J -0.2112
G03 X 19.1400 Y 31.9935 Z -1.0000 I 0.1112 J 0.2660
G01 X 19.1475 Y 31.9957 Z -1.0000
G01 X 19.1552 Y 31.9983 Z -1.0000
G02 X 19.2193 Y 31.9874 Z -1.0000 I -0.0673 J -0.5871
G03 X 19.2848 Y 31.9736 Z -1.0000 I 0.4288 J 1.8772
G03 X 19.3247 Y 31.9671 Z -1.0000 I 0.1311 J 0.6821
G02 X 19.3647 Y 31.9612 Z -1.0000 I -0.1709 J -1.2998
G02 X 19.4277 Y 31.9504 Z -1.0000 I -0.5647 J -3.4647
G03 X 19.4896 Y 31.9444 Z -1.0000 I 0.0661 J 0.3631
G01 X 19.5076 Y 31.9494 Z -1.0000
G01 X 19.5228 Y 31.9523 Z -1.0000
G01 X 19.5338 Y 31.9448 Z -1.0000
G01 X 19.5456 Y 31.9336 Z -1.0000
G03 X 19.5676 Y 31.9264 Z -1.0000 I 0.0306 J 0.0563
G02 X 19.5920 Y 31.9230 Z -1.0000 I -0.2139 J -1.5985
G02 X 19.6522 Y 31.9139 Z -1.0000 I -2.8558 J -19.1100
G03 X 19.7125 Y 31.9062 Z -1.0000 I 0.1703 J 1.1049
G03 X 19.7424 Y 31.9048 Z -1.0000 I 0.0300 J 0.3029
G02 X 19.7682 Y 31.9007 Z -1.0000 I 0.0005 J -0.0802
G01 X 19.7725 Y 31.8947 Z -1.0000
G01 X 19.7771 Y 31.8885 Z -1.0000
G03 X 19.8360 Y 31.8759 Z -1.0000 I 0.1109 J 0.3741
G02 X 19.9587 Y 31.8531 Z -1.0000 I -0.1676 J -1.2437
G02 X 20.0063 Y 31.8354 Z -1.0000 I -0.0481 J -0.2021
G03 X 20.0437 Y 31.8230 Z -1.0000 I 0.0581 J 0.1120
G03 X 20.0781 Y 31.8235 Z -1.0000 I 0.0158 J 0.0946
G02 X 20.1134 Y 31.8300 Z -1.0000 I 0.2934 J -1.4980
G02 X 20.1401 Y 31.8340 Z -1.0000 I 0.1121 J -0.6533
G03 X 20.1666 Y 31.8384 Z -1.0000 I -0.0467 J 0.3613
G01 X 20.1735 Y 31.8407 Z -1.0000
G01 X 20.1805 Y 31.8424 Z -1.0000
G02 X 20.2103 Y 31.8414 Z -1.0000 I 0.0055 J -0.2975
G03 X 20.2350 Y 31.8448 Z -1.0000 I 0.0046 J 0.0585
G01 X 20.2404 Y 31.8525 Z -1.0000
G01 X 20.2462 Y 31.8609 Z -1.0000
G02 X 20.3023 Y 31.8753 Z -1.0000 I 0.0982 J -0.2664
G03 X 20.3610 Y 31.8909 Z -1.0000 I -0.0407 J 0.2717
G03 X 20.3883 Y 31.9087 Z -1.0000 I -0.0286 J 0.0737
G02 X 20.4102 Y 31.9231 Z -1.0000 I 0.0463 J -0.0463
G01 X 20.4167 Y 31.9201 Z -1.0000
G01 X 20.4250 Y 31.9143 Z -1.0000
G03 X 20.5007 Y 31.9222 Z -1.0000 I -0.0120 J 0.4792
G02 X 20.5806 Y 31.9361 Z -1.0000 I 0.6858 J -3.7159
G02 X 20.6130 Y 31.9404 Z -1.0000 I 0.0960 J -0.5909
G03 X 20.6422 Y 31.9497 Z -1.0000 I -0.0081 J 0.0763
G03 X 20.6635 Y 31.9685 Z -1.0000 I -0.0322 J 0.0580
G01 X 20.6771 Y 31.9798 Z -1.0000
G01 X 20.6815 Y 31.9770 Z -1.0000
G01 X 20.7038 Y 31.9552 Z -1.0000
G03 X 20.7852 Y 31.9793 Z -1.0000 I -0.0035 J 0.1612
G01 X 20.7970 Y 31.9841 Z -1.0000
G02 X 20.8491 Y 31.9933 Z -1.0000 I 0.1408 J -0.6479
G03 X 20.9017 Y 32.0018 Z -1.0000 I -0.1278 J 0.9529
G03 X 20.9538 Y 32.0132 Z -1.0000 I -0.1872 J 0.9799
G02 X 21.0052 Y 32.0216 Z -1.0000 I 0.0783 J -0.3183
G01 X 21.0239 Y 32.0189 Z -1.0000
G01 X 21.0376 Y 32.0187 Z -1.0000
G01 X 21.0424 Y 32.0254 Z -1.0000
G01 X 21.0563 Y 32.0428 Z -1.0000
G02 X 21.2028 Y 32.0611 Z -1.0000 I 0.1695 J -0.7618
G03 X 21.2225 Y 32.0638 Z -1.0000 I -0.0028 J 0.0958
G03 X 21.2871 Y 32.0814 Z -1.0000 I -0.2605 J 1.0772
G03 X 21.3380 Y 32.1087 Z -1.0000 I -0.0445 J 0.1447
G01 X 21.3445 Y 32.1281 Z -1.0000
G01 X 21.3481 Y 32.1334 Z -1.0000
G01 X 21.3567 Y 32.1297 Z -1.0000
G01 X 21.3803 Y 32.1167 Z -1.0000
G03 X 21.4567 Y 32.1216 Z -1.0000 I 0.0214 J 0.2640
G03 X 21.5351 Y 32.1426 Z -1.0000 I -0.1630 J 0.7651
G01 X 21.5448 Y 32.1503 Z -1.0000
G01 X 21.5544 Y 32.1573 Z -1.0000
G02 X 21.5904 Y 32.1618 Z -1.0000 I 0.0360 J -0.1430
G03 X 21.6285 Y 32.1648 Z -1.0000 I -0.0000 J 0.2429
G03 X 21.7132 Y 32.1812 Z -1.0000 I -0.1996 J 1.2551
G02 X 21.7979 Y 32.1990 Z -1.0000 I 0.5023 J -2.1787
G02 X 21.8444 Y 32.2062 Z -1.0000 I 0.1243 J -0.6539
G03 X 21.8907 Y 32.2135 Z -1.0000 I -0.0647 J 0.5547
G03 X 21.9112 Y 32.2197 Z -1.0000 I -0.0233 J 0.1150
G02 X 21.9318 Y 32.2260 Z -1.0000 I 0.0491 J -0.1231
G02 X 22.0783 Y 32.2565 Z -1.0000 I 1.3428 J -6.0843
G03 X 22.2466 Y 32.2916 Z -1.0000 I -1.3630 J 6.9650
G03 X 22.2755 Y 32.3001 Z -1.0000 I -0.0468 J 0.2120
G02 X 22.2988 Y 32.3088 Z -1.0000 I 11.8815 J -31.8570
G03 X 22.3222 Y 32.3175 Z -1.0000 I -5.2081 J 13.9956
G02 X 22.3460 Y 32.3233 Z -1.0000 I 0.0361 J -0.0967
G02 X 22.3700 Y 32.3232 Z -1.0000 I 0.0117 J -0.0972
G01 X 22.3888 Y 32.3284 Z -1.0000
G01 X 22.4016 Y 32.3478 Z -1.0000
G01 X 22.4126 Y 32.3659 Z -1.0000
G01 X 22.4226 Y 32.3668 Z -1.0000
G03 X 22.4979 Y 32.3437 Z -1.0000 I 0.0818 J 0.1323
G01 X 22.5327 Y 32.3621 Z -1.0000
G01 X 22.5415 Y 32.3678 Z -1.0000
G02 X 22.5662 Y 32.3661 Z -1.0000 I 0.0079 J -0.0664
G01 X 22.5880 Y 32.3654 Z -1.0000
G01 X 22.5929 Y 32.3714 Z -1.0000
G01 X 22.5982 Y 32.3783 Z -1.0000
G02 X 22.6384 Y 32.3836 Z -1.0000 I 0.0402 J -0.1489
G03 X 22.6820 Y 32.3892 Z -1.0000 I -0.0000 J 0.1739
G03 X 22.7046 Y 32.4008 Z -1.0000 I -0.0146 J 0.0564
G02 X 22.7276 Y 32.4119 Z -1.0000 I 0.0341 J -0.0411
G02 X 22.8021 Y 32.4215 Z -1.0000 I 0.0960 J -0.4512
G03 X 22.8741 Y 32.4314 Z -1.0000 I -0.0187 J 0.4026
G01 X 22.8841 Y 32.4404 Z -1.0000
G01 X 22.8932 Y 32.4484 Z -1.0000
G02 X 22.9215 Y 32.4476 Z -1.0000 I 0.0123 J -0.0638
G03 X 22.9477 Y 32.4475 Z -1.0000 I 0.0134 J 0.0539
G01 X 22.9538 Y 32.4552 Z -1.0000
G01 X 22.9597 Y 32.4629 Z -1.0000
G01 X 22.9805 Y 32.4624 Z -1.0000
G03 X 23.0024 Y 32.4605 Z -1.0000 I 0.0152 J 0.0477
G01 X 23.0073 Y 32.4660 Z -1.0000
G01 X 23.0126 Y 32.4729 Z -1.0000
G02 X 23.0615 Y 32.4802 Z -1.0000 I 0.0578 J -0.2198
G03 X 23.1147 Y 32.4862 Z -1.0000 I -0.0151 J 0.3750
G03 X 23.1383 Y 32.4945 Z -1.0000 I -0.0149 J 0.0808
G02 X 23.1620 Y 32.5027 Z -1.0000 I 0.0372 J -0.0692
G02 X 23.2078 Y 32.5067 Z -1.0000 I 0.0468 J -0.2665
G03 X 23.2538 Y 32.5110 Z -1.0000 I -0.0010 J 0.2628
G03 X 23.2946 Y 32.5226 Z -1.0000 I -0.0393 J 0.2162
G02 X 23.3529 Y 32.5401 Z -1.0000 I 0.1377 J -0.3524
G02 X 23.5465 Y 32.5766 Z -1.0000 I 0.8323 J -3.8779
G03 X 23.6236 Y 32.5921 Z -1.0000 I -0.1777 J 1.0891
G03 X 23.6399 Y 32.5988 Z -1.0000 I -0.0127 J 0.0535
G02 X 23.6558 Y 32.6061 Z -1.0000 I 0.0380 J -0.0617
G02 X 23.6754 Y 32.6101 Z -1.0000 I 0.0283 J -0.0885
G03 X 23.7951 Y 32.6282 Z -1.0000 I -0.1001 J 1.0661
G03 X 23.8761 Y 32.6522 Z -1.0000 I -0.1072 J 0.5110
G02 X 23.9174 Y 32.6643 Z -1.0000 I 0.0914 J -0.2364
G02 X 23.9697 Y 32.6711 Z -1.0000 I 0.0752 J -0.3732
G03 X 24.0761 Y 32.6926 Z -1.0000 I -0.0236 J 0.3906
G01 X 24.0826 Y 32.7109 Z -1.0000
G01 X 24.0850 Y 32.7163 Z -1.0000
G02 X 24.1088 Y 32.7155 Z -1.0000 I 0.0099 J -0.0561
G01 X 24.1373 Y 32.7185 Z -1.0000
G01 X 24.1559 Y 32.7384 Z -1.0000
G01 X 24.1652 Y 32.7510 Z -1.0000
G01 X 24.1693 Y 32.7491 Z -1.0000
G01 X 24.2130 Y 32.7054 Z -1.0000
G03 X 24.2729 Y 32.7448 Z -1.0000 I 0.0026 J 0.0614
G01 X 24.2829 Y 32.7538 Z -1.0000
G01 X 24.2958 Y 32.7509 Z -1.0000
G01 X 24.3119 Y 32.7450 Z -1.0000
G01 X 24.3310 Y 32.7504 Z -1.0000
G02 X 24.3517 Y 32.7593 Z -1.0000 I 0.0382 J -0.0604
G02 X 24.3807 Y 32.7630 Z -1.0000 I 0.0299 J -0.1178
G03 X 24.4062 Y 32.7677 Z -1.0000 I -0.0005 J 0.0745
G01 X 24.4108 Y 32.7742 Z -1.0000
G01 X 24.4156 Y 32.7804 Z -1.0000
G02 X 24.4542 Y 32.7854 Z -1.0000 I 0.0393 J -0.1523
G03 X 24.6405 Y 32.7996 Z -1.0000 I -0.0055 J 1.2985
G03 X 24.6885 Y 32.8204 Z -1.0000 I -0.0150 J 0.1006
G01 X 24.7052 Y 32.8280 Z -1.0000
G01 X 24.7141 Y 32.8252 Z -1.0000
G01 X 24.7229 Y 32.8235 Z -1.0000
G03 X 24.7480 Y 32.8395 Z -1.0000 I -0.0343 J 0.0817
G01 X 24.7716 Y 32.8506 Z -1.0000
G01 X 24.7842 Y 32.8448 Z -1.0000
G01 X 24.7951 Y 32.8379 Z -1.0000
G01 X 24.8046 Y 32.8425 Z -1.0000
G01 X 24.8166 Y 32.8510 Z -1.0000
G01 X 24.8388 Y 32.8500 Z -1.0000
G03 X 24.8631 Y 32.8475 Z -1.0000 I 0.0180 J 0.0569
G03 X 24.8878 Y 32.8551 Z -1.0000 I -0.0070 J 0.0667
G02 X 24.9541 Y 32.8843 Z -1.0000 I 0.2181 J -0.4055
G01 X 24.9753 Y 32.8857 Z -1.0000
G01 X 24.9851 Y 32.8855 Z -1.0000
G03 X 25.1290 Y 32.9105 Z -1.0000 I -0.9548 J 5.9213
G02 X 25.2730 Y 32.9368 Z -1.0000 I 3.6139 J -19.3946
G02 X 25.3598 Y 32.9517 Z -1.0000 I 1.2563 J -7.0318
G03 X 25.4463 Y 32.9680 Z -1.0000 I -0.3261 J 1.9653
G03 X 25.5135 Y 32.9843 Z -1.0000 I -0.2552 J 1.2056
G02 X 25.5807 Y 33.0006 Z -1.0000 I 0.3450 J -1.2721
G02 X 25.6272 Y 33.0088 Z -1.0000 I 0.1296 J -0.6011
G03 X 25.7486 Y 33.0288 Z -1.0000 I -0.2940 J 2.1545
G03 X 26.2621 Y 33.1323 Z -1.0000 I -7.5384 J 38.7298
G02 X 26.4228 Y 33.1642 Z -1.0000 I 1.6952 J -8.1321
G02 X 26.5027 Y 33.1776 Z -1.0000 I 0.3753 J -1.9966
G03 X 26.7160 Y 33.2190 Z -1.0000 I -0.3445 J 2.3441
G01 X 26.7383 Y 33.2346 Z -1.0000
G01 X 26.7465 Y 33.2386 Z -1.0000
G01 X 26.7552 Y 33.2333 Z -1.0000
G01 X 26.7963 Y 33.2131 Z -1.0000
G03 X 26.8782 Y 33.2461 Z -1.0000 I -0.0166 J 0.1591
G01 X 26.8924 Y 33.2521 Z -1.0000
G01 X 26.9013 Y 33.2491 Z -1.0000
G01 X 26.9100 Y 33.2467 Z -1.0000
G03 X 26.9290 Y 33.2566 Z -1.0000 I -0.0131 J 0.0484
G02 X 26.9503 Y 33.2673 Z -1.0000 I 0.0339 J -0.0409
G02 X 27.0148 Y 33.2775 Z -1.0000 I 0.0939 J -0.3849
G03 X 27.1939 Y 33.3014 Z -1.0000 I -0.1150 J 1.5444
G01 X 27.2044 Y 33.3142 Z -1.0000
G01 X 27.2091 Y 33.3207 Z -1.0000
G01 X 27.2222 Y 33.3206 Z -1.0000
G03 X 27.3288 Y 33.3096 Z -1.0000 I 0.0738 J 0.1923
G03 X 27.5520 Y 33.3738 Z -1.0000 I -0.1540 J 0.9547
G02 X 27.5722 Y 33.3803 Z -1.0000 I 0.0462 J -0.1091
G01 X 27.5814 Y 33.3804 Z -1.0000
G01 X 27.5908 Y 33.3802 Z -1.0000
G03 X 27.6616 Y 33.3925 Z -1.0000 I -0.2394 J 1.5782
G02 X 27.7325 Y 33.4060 Z -1.0000 I 0.8525 J -4.3024
G02 X 27.8126 Y 33.4199 Z -1.0000 I 0.9866 J -5.4480
G03 X 27.8928 Y 33.4334 Z -1.0000 I -3.0034 J 18.0985
G03 X 27.9263 Y 33.4393 Z -1.0000 I -0.5395 J 3.1644
G02 X 27.9598 Y 33.4447 Z -1.0000 I 0.1603 J -0.8849
G02 X 28.0131 Y 33.4516 Z -1.0000 I 0.3128 J -2.1963
G03 X 28.0797 Y 33.4617 Z -1.0000 I -0.1186 J 1.0057
G03 X 28.3062 Y 33.5061 Z -1.0000 I -2.1719 J 11.6794
G02 X 28.4123 Y 33.5270 Z -1.0000 I 1.2246 J -5.9408
G02 X 28.4399 Y 33.5312 Z -1.0000 I 0.0744 J -0.3963
G03 X 28.4675 Y 33.5351 Z -1.0000 I -0.0664 J 0.5689
G03 X 28.5634 Y 33.5518 Z -1.0000 I -1.1446 J 6.8770
G03 X 28.6458 Y 33.5769 Z -1.0000 I -0.0656 J 0.3628
G01 X 28.6518 Y 33.5905 Z -1.0000
G01 X 28.6545 Y 33.5940 Z -1.0000
G01 X 28.6630 Y 33.5896 Z -1.0000
G01 X 28.6855 Y 33.5786 Z -1.0000
G03 X 28.7750 Y 33.5864 Z -1.0000 I 0.0112 J 0.3903
G02 X 29.0070 Y 33.6280 Z -1.0000 I 0.9701 J -4.7364
G01 X 29.0233 Y 33.6247 Z -1.0000
G01 X 29.0326 Y 33.6237 Z -1.0000
G01 X 29.0417 Y 33.6310 Z -1.0000
G01 X 29.0521 Y 33.6393 Z -1.0000
G02 X 29.0794 Y 33.6443 Z -1.0000 I 0.0292 J -0.0823
G02 X 29.1092 Y 33.6449 Z -1.0000 I 0.1967 J -9.4578
G02 X 29.1387 Y 33.6454 Z -1.0000 I 0.1751 J -9.9237
G03 X 29.1645 Y 33.6522 Z -1.0000 I -0.0008 J 0.0552
G01 X 29.1818 Y 33.6690 Z -1.0000
G01 X 29.1914 Y 33.6770 Z -1.0000
G01 X 29.1957 Y 33.6740 Z -1.0000
G01 X 29.2027 Y 33.6644 Z -1.0000
G01 X 29.2262 Y 33.6633 Z -1.0000
G02 X 29.2565 Y 33.6693 Z -1.0000 I 0.0780 J -0.3155
G02 X 29.3763 Y 33.6856 Z -1.0000 I 0.7262 J -4.8965
G03 X 29.4934 Y 33.7071 Z -1.0000 I -0.1235 J 1.0008
G03 X 29.5187 Y 33.7206 Z -1.0000 I -0.0140 J 0.0569
G01 X 29.5397 Y 33.7319 Z -1.0000
G01 X 29.5487 Y 33.7283 Z -1.0000
G01 X 29.5695 Y 33.7176 Z -1.0000
G03 X 29.6506 Y 33.7354 Z -1.0000 I -0.0198 J 0.2842
G02 X 29.6710 Y 33.7401 Z -1.0000 I 0.0276 J -0.0731
G02 X 29.7007 Y 33.7400 Z -1.0000 I 0.0144 J -0.1559
G03 X 29.7262 Y 33.7421 Z -1.0000 I 0.0070 J 0.0716
G01 X 29.7309 Y 33.7480 Z -1.0000
G01 X 29.7358 Y 33.7543 Z -1.0000
G02 X 29.7810 Y 33.7609 Z -1.0000 I 0.0534 J -0.2076
G03 X 29.8308 Y 33.7647 Z -1.0000 I -0.0253 J 0.6641
G03 X 29.8778 Y 33.7719 Z -1.0000 I -0.0682 J 0.5993
G02 X 29.9248 Y 33.7793 Z -1.0000 I 0.1264 J -0.6493
G02 X 29.9503 Y 33.7807 Z -1.0000 I 0.0230 J -0.1899
G03 X 29.9759 Y 33.7821 Z -1.0000 I 0.0025 J 0.1891
G03 X 30.1107 Y 33.8005 Z -1.0000 I -0.6534 J 5.3021
G02 X 30.2456 Y 33.8191 Z -1.0000 I 0.9491 J -6.3608
G02 X 30.3122 Y 33.8262 Z -1.0000 I 0.1974 J -1.5467
G03 X 30.3788 Y 33.8334 Z -1.0000 I -0.1210 J 1.4389
G03 X 30.4072 Y 33.8386 Z -1.0000 I -0.0350 J 0.2671
G02 X 30.4357 Y 33.8440 Z -1.0000 I 0.0682 J -0.2819
G02 X 30.7013 Y 33.8794 Z -1.0000 I 3.4186 J -24.6651
G03 X 30.9670 Y 33.9146 Z -1.0000 I -3.7005 J 28.9906
G03 X 31.0407 Y 33.9259 Z -1.0000 I -0.3068 J 2.2400
G02 X 31.1145 Y 33.9368 Z -1.0000 I 0.2769 J -1.6225
G02 X 31.2078 Y 33.9467 Z -1.0000 I 0.3211 J -2.5815
G03 X 31.3010 Y 33.9570 Z -1.0000 I -0.1789 J 2.0363
G03 X 31.3531 Y 33.9662 Z -1.0000 I -0.0868 J 0.6460
G02 X 31.4046 Y 33.9733 Z -1.0000 I 0.0711 J -0.3261
G01 X 31.4235 Y 33.9703 Z -1.0000
G01 X 31.4412 Y 33.9687 Z -1.0000
G01 X 31.4586 Y 33.9768 Z -1.0000
G01 X 31.4768 Y 33.9847 Z -1.0000
G02 X 31.5206 Y 33.9850 Z -1.0000 I 0.0231 J -0.1746
G03 X 31.5647 Y 33.9845 Z -1.0000 I 0.0244 J 0.2061
G01 X 31.5807 Y 33.9907 Z -1.0000
G01 X 31.5970 Y 33.9974 Z -1.0000
G02 X 31.6878 Y 34.0046 Z -1.0000 I 0.1183 J -0.9123
G03 X 31.7793 Y 34.0102 Z -1.0000 I -0.0441 J 1.4756
G01 X 31.7912 Y 34.0142 Z -1.0000
G01 X 31.8029 Y 34.0182 Z -1.0000
G02 X 31.9193 Y 34.0277 Z -1.0000 I 0.2570 J -2.4427
G03 X 32.0361 Y 34.0365 Z -1.0000 I -0.1847 J 3.2189
G03 X 32.0542 Y 34.0403 Z -1.0000 I -0.0075 J 0.0793
G02 X 32.0722 Y 34.0443 Z -1.0000 I 0.0271 J -0.0802
G02 X 32.1745 Y 34.0532 Z -1.0000 I 0.2789 J -2.6031
G03 X 32.4075 Y 34.0791 Z -1.0000 I -0.1841 J 2.7240
G01 X 32.4177 Y 34.0908 Z -1.0000
G01 X 32.4214 Y 34.0944 Z -1.0000
G01 X 32.4280 Y 34.0907 Z -1.0000
G01 X 32.4413 Y 34.0816 Z -1.0000
G03 X 32.4846 Y 34.0797 Z -1.0000 I 0.0281 J 0.1444
G03 X 32.5311 Y 34.0846 Z -1.0000 I -6.4976 J 62.5097
G03 X 32.6247 Y 34.0944 Z -1.0000 I -15.2205 J 145.3719
G02 X 32.7183 Y 34.1023 Z -1.0000 I 0.2338 J -2.2202
G02 X 32.7550 Y 34.1026 Z -1.0000 I 0.0215 J -0.3414
G03 X 32.7873 Y 34.1056 Z -1.0000 I 0.0053 J 0.1185
G01 X 32.7918 Y 34.1112 Z -1.0000
G01 X 32.7966 Y 34.1167 Z -1.0000
G02 X 32.8686 Y 34.1224 Z -1.0000 I 0.0790 J -0.5411
G03 X 33.0655 Y 34.1327 Z -1.0000 I -0.0318 J 2.4948
G01 X 33.0804 Y 34.1419 Z -1.0000
G01 X 33.0892 Y 34.1474 Z -1.0000
G01 X 33.1033 Y 34.1442 Z -1.0000
G03 X 33.1754 Y 34.1279 Z -1.0000 I 0.0598 J 0.0967
G03 X 33.2218 Y 34.1571 Z -1.0000 I -0.0068 J 0.0622
G01 X 33.2323 Y 34.1627 Z -1.0000
G01 X 33.2498 Y 34.1559 Z -1.0000
G03 X 33.2685 Y 34.1457 Z -1.0000 I 0.0354 J 0.0427
G01 X 33.2762 Y 34.1476 Z -1.0000
G01 X 33.2850 Y 34.1518 Z -1.0000
G02 X 33.3952 Y 34.1603 Z -1.0000 I 0.1976 J -1.8606
G03 X 33.5068 Y 34.1670 Z -1.0000 I -0.1954 J 4.1671
G03 X 33.5871 Y 34.1744 Z -1.0000 I -0.1599 J 2.1673
G02 X 33.6674 Y 34.1813 Z -1.0000 I 0.1790 J -1.6079
G02 X 33.7275 Y 34.1830 Z -1.0000 I 0.0546 J -0.8940
G03 X 33.7858 Y 34.1878 Z -1.0000 I 0.0019 J 0.3288
G01 X 33.8043 Y 34.1964 Z -1.0000
G01 X 33.8162 Y 34.1998 Z -1.0000
G01 X 33.8210 Y 34.1943 Z -1.0000
G01 X 33.8257 Y 34.1869 Z -1.0000
G01 X 33.8354 Y 34.1874 Z -1.0000
G01 X 33.8510 Y 34.1924 Z -1.0000
G02 X 34.0460 Y 34.2018 Z -1.0000 I 0.3305 J -4.8353
G03 X 34.2415 Y 34.2103 Z -1.0000 I -0.1742 J 6.2208
G03 X 34.2621 Y 34.2147 Z -1.0000 I -0.0043 J 0.0722
G02 X 34.2828 Y 34.2190 Z -1.0000 I 0.0253 J -0.0689
G02 X 34.4755 Y 34.2282 Z -1.0000 I 0.3870 J -6.1037
G03 X 34.6646 Y 34.2416 Z -1.0000 I -0.0772 J 2.4267
G01 X 34.6791 Y 34.2506 Z -1.0000
G01 X 34.6858 Y 34.2541 Z -1.0000
G01 X 34.6897 Y 34.2500 Z -1.0000
G01 X 34.6978 Y 34.2415 Z -1.0000
G03 X 34.8403 Y 34.2408 Z -1.0000 I 0.0777 J 1.2650
G02 X 34.9906 Y 34.2484 Z -1.0000 I 11.0640 J -216.3365
G02 X 35.0724 Y 34.2525 Z -1.0000 I 2.6625 J -52.7795
G03 X 35.1530 Y 34.2601 Z -1.0000 I -0.0434 J 0.8869
G01 X 35.1699 Y 34.2662 Z -1.0000
G01 X 35.1853 Y 34.2699 Z -1.0000
G01 X 35.2017 Y 34.2636 Z -1.0000
G01 X 35.2194 Y 34.2561 Z -1.0000
G03 X 35.2646 Y 34.2542 Z -1.0000 I 0.0318 J 0.2119
G02 X 35.3660 Y 34.2582 Z -1.0000 I 0.1368 J -2.1734
G02 X 35.6790 Y 34.2609 Z -1.0000 I 0.3375 J -20.7181
G03 X 36.0870 Y 34.2699 Z -1.0000 I -0.0114 J 9.7614
G03 X 36.1193 Y 34.2798 Z -1.0000 I -0.0029 J 0.0668
G01 X 36.1285 Y 34.2822 Z -1.0000
G02 X 36.2276 Y 34.2731 Z -1.0000 I -0.1072 J -1.7205
G03 X 36.3274 Y 34.2620 Z -1.0000 I 0.6227 J 5.1584
G03 X 36.3985 Y 34.2558 Z -1.0000 I 0.2667 J 2.6368
G02 X 36.4667 Y 34.2438 Z -1.0000 I -0.0253 J -0.3424
G02 X 36.4905 Y 34.2298 Z -1.0000 I -0.0149 J -0.0528
G01 X 36.4981 Y 34.2075 Z -1.0000
G02 X 36.4817 Y 34.1611 Z -1.0000 I -0.1155 J 0.0148
G02 X 36.4498 Y 34.1175 Z -1.0000 I -0.2921 J 0.1806
G01 X 36.4405 Y 34.1133 Z -1.0000
G01 X 36.4297 Y 34.1105 Z -1.0000
G03 X 36.3781 Y 34.0785 Z -1.0000 I 0.3176 J -0.5704
G02 X 36.2291 Y 33.9947 Z -1.0000 I -0.5445 J 0.7941
G02 X 36.1586 Y 33.9796 Z -1.0000 I -0.0705 J 0.1565
G03 X 36.1379 Y 33.9752 Z -1.0000 I -0.0000 J -0.0511
G01 X 36.1335 Y 33.9685 Z -1.0000
G01 X 36.1171 Y 33.9381 Z -1.0000
G02 X 35.7860 Y 33.7418 Z -1.0000 I -2.4571 J 3.7662
G03 X 35.6736 Y 33.6793 Z -1.0000 I 2.0992 J -3.9125
G01 X 35.6657 Y 33.6727 Z -1.0000
G01 X 35.6502 Y 33.6604 Z -1.0000
G02 X 35.0441 Y 33.3645 Z -1.0000 I -24.3425 J 49.0932
G02 X 34.7815 Y 33.2435 Z -1.0000 I -3.8138 J 7.9354
G02 X 34.5161 Y 33.1317 Z -1.0000 I -3.5223 J 7.9910
G03 X 34.4298 Y 33.0956 Z -1.0000 I 1.2008 J -2.9877
G03 X 34.4060 Y 33.0837 Z -1.0000 I 0.1041 J -0.2388
G02 X 34.3823 Y 33.0728 Z -1.0000 I -0.0788 J 0.1397
G01 X 34.3702 Y 33.0706 Z -1.0000
G01 X 34.3582 Y 33.0683 Z -1.0000
G03 X 34.2731 Y 33.0320 Z -1.0000 I 0.6765 J -1.7022
G02 X 33.9987 Y 32.9125 Z -1.0000 I -3.4977 J 7.6518
G02 X 33.7212 Y 32.8031 Z -1.0000 I -3.2022 J 7.7207
G03 X 33.5873 Y 32.7526 Z -1.0000 I 7.7797 J -20.8290
G03 X 33.5537 Y 32.7393 Z -1.0000 I 0.5057 J -1.3277
G02 X 33.5201 Y 32.7262 Z -1.0000 I -0.3818 J 0.9308
G02 X 33.4000 Y 32.6826 Z -1.0000 I -4.3411 J 11.7682
G03 X 33.2801 Y 32.6385 Z -1.0000 I 2.3475 J -6.5680
G03 X 33.2396 Y 32.6220 Z -1.0000 I 0.2892 J -0.7646
G02 X 33.1990 Y 32.6056 Z -1.0000 I -0.2830 J 0.6423
G02 X 33.0658 Y 32.5580 Z -1.0000 I -2.5147 J 6.8335
G03 X 32.9325 Y 32.5109 Z -1.0000 I 3.5098 J -10.1392
G03 X 32.8186 Y 32.4687 Z -1.0000 I 2.6844 J -7.4361
G03 X 32.7049 Y 32.4257 Z -1.0000 I 194.9624 J -515.1431
G03 X 32.6180 Y 32.3928 Z -1.0000 I 140.1128 J -369.9731
G02 X 32.5308 Y 32.3610 Z -1.0000 I -1.2627 J 3.3322
G02 X 32.4174 Y 32.3227 Z -1.0000 I -1.9713 J 5.6417
G03 X 32.3041 Y 32.2842 Z -1.0000 I 1.6111 J -4.9278
G03 X 32.2369 Y 32.2590 Z -1.0000 I 0.6205 J -1.7593
G02 X 32.1698 Y 32.2340 Z -1.0000 I -0.6328 J 1.5959
G02 X 32.0633 Y 32.1985 Z -1.0000 I -1.3870 J 3.9749
G03 X 31.3194 Y 31.9587 Z -1.0000 I 43.6159 J -136.5995
G03 X 31.2546 Y 31.9354 Z -1.0000 I 0.3434 J -1.0556
G02 X 31.1940 Y 31.9131 Z -1.0000 I -0.4758 J 1.2033
G02 X 31.0942 Y 31.8811 Z -1.0000 I -1.0841 J 3.2007
G03 X 30.8732 Y 31.8112 Z -1.0000 I 3.2942 J -10.8132
G03 X 30.8114 Y 31.7885 Z -1.0000 I 0.2847 J -0.8700
G02 X 30.7796 Y 31.7774 Z -1.0000 I -0.1269 J 0.3119
G02 X 30.6264 Y 31.7342 Z -1.0000 I -2.0377 J 6.9266
G03 X 30.4734 Y 31.6906 Z -1.0000 I 1.5633 J -5.7812
G03 X 30.4459 Y 31.6802 Z -1.0000 I 0.0582 J -0.1946
G02 X 30.3962 Y 31.6614 Z -1.0000 I -0.1523 J 0.3276
G02 X 30.1786 Y 31.6010 Z -1.0000 I -1.8491 J 6.2442
G03 X 30.1388 Y 31.5897 Z -1.0000 I 0.2117 J -0.8192
G03 X 30.0382 Y 31.5573 Z -1.0000 I 1.6551 J -5.3167
G02 X 29.9377 Y 31.5250 Z -1.0000 I -1.8460 J 5.5591
G02 X 29.8110 Y 31.4864 Z -1.0000 I -2.7329 J 8.7548
G03 X 29.4770 Y 31.3850 Z -1.0000 I 7.3092 J -24.6660
G03 X 29.4234 Y 31.3658 Z -1.0000 I 0.2036 J -0.6544
G02 X 29.3760 Y 31.3486 Z -1.0000 I -0.2614 J 0.6454
G02 X 29.2763 Y 31.3183 Z -1.0000 I -0.9112 J 2.8213
G03 X 29.1761 Y 31.2898 Z -1.0000 I 196.9425 J -691.9482
G03 X 29.0625 Y 31.2574 Z -1.0000 I 248.7863 J -874.0849
G02 X 28.9488 Y 31.2252 Z -1.0000 I -11.3983 J 40.0157
G02 X 28.8820 Y 31.2066 Z -1.0000 I -4.1898 J 14.8691
G03 X 28.8153 Y 31.1877 Z -1.0000 I 1.8146 J -6.5527
G03 X 28.6980 Y 31.1536 Z -1.0000 I 5.6900 J -19.7609
G02 X 28.5805 Y 31.1215 Z -1.0000 I -0.8844 J 3.0041
G02 X 28.5615 Y 31.1191 Z -1.0000 I -0.0191 J 0.0754
G03 X 28.5426 Y 31.1164 Z -1.0000 I -0.0000 J -0.0667
G03 X 28.4982 Y 31.1005 Z -1.0000 I 0.1170 J -0.3969
G02 X 28.4535 Y 31.0841 Z -1.0000 I -0.1819 J 0.4284
G02 X 28.3407 Y 31.0519 Z -1.0000 I -0.8378 J 2.7151
G03 X 28.2274 Y 31.0206 Z -1.0000 I 1.3661 J -5.1770
G03 X 28.1535 Y 30.9981 Z -1.0000 I 0.6397 J -2.2250
G02 X 28.0797 Y 30.9754 Z -1.0000 I -0.7514 J 2.3191
G02 X 27.8862 Y 30.9207 Z -1.0000 I -4.5828 J 15.8387
G03 X 27.6925 Y 30.8667 Z -1.0000 I 11.6739 J -42.2706
G03 X 27.5788 Y 30.8343 Z -1.0000 I 4.0559 J -14.4280
G02 X 27.2434 Y 30.7410 Z -1.0000 I -4.6338 J 16.0038
G02 X 26.9906 Y 30.6772 Z -1.0000 I -2.4160 J 9.0476
G03 X 26.7914 Y 30.6255 Z -1.0000 I 1.1256 J -4.7422
G03 X 26.6965 Y 30.5942 Z -1.0000 I 0.3127 J -1.1070
G02 X 26.6762 Y 30.5877 Z -1.0000 I -0.0678 J 0.1781
G02 X 26.6431 Y 30.5804 Z -1.0000 I -0.1229 J 0.4782
G03 X 26.5958 Y 30.5698 Z -1.0000 I 0.1217 J -0.6546
G03 X 26.0416 Y 30.4226 Z -1.0000 I 23.2378 J -88.6005
G03 X 25.8883 Y 30.3798 Z -1.0000 I 2.1514 J -7.9991
G03 X 25.8611 Y 30.3703 Z -1.0000 I 0.0756 J -0.2611
G02 X 25.8338 Y 30.3611 Z -1.0000 I -0.0876 J 0.2147
G02 X 25.6406 Y 30.3109 Z -1.0000 I -2.8726 J 10.6592
G03 X 25.4473 Y 30.2606 Z -1.0000 I 2.6081 J -10.4249
G03 X 25.4200 Y 30.2513 Z -1.0000 I 0.0586 J -0.2171
G02 X 25.3926 Y 30.2423 Z -1.0000 I -0.0748 J 0.1803
G02 X 25.2930 Y 30.2195 Z -1.0000 I -0.6088 J 2.4288
G03 X 25.1930 Y 30.1976 Z -1.0000 I 0.9558 J -4.6028
G03 X 25.0792 Y 30.1702 Z -1.0000 I 1.3719 J -5.9524
G02 X 24.9653 Y 30.1429 Z -1.0000 I -1.4266 J 5.6929
G02 X 24.9488 Y 30.1403 Z -1.0000 I -0.0268 J 0.1166
G01 X 24.9357 Y 30.1355 Z -1.0000
G01 X 24.9321 Y 30.1287 Z -1.0000
G01 X 24.9275 Y 30.1223 Z -1.0000
G02 X 24.8553 Y 30.1030 Z -1.0000 I -0.1918 J 0.5741
G03 X 24.6510 Y 30.0584 Z -1.0000 I 1.3230 J -6.5592
G03 X 24.6247 Y 30.0489 Z -1.0000 I 0.0273 J -0.1164
G02 X 24.5595 Y 30.0251 Z -1.0000 I -0.1366 J 0.2724
G02 X 24.4295 Y 30.0018 Z -1.0000 I -0.2592 J 1.0750
G03 X 24.3662 Y 29.9902 Z -1.0000 I 0.0589 J -0.4968
G03 X 24.3178 Y 29.9736 Z -1.0000 I 0.0761 J -0.3020
G02 X 24.2696 Y 29.9557 Z -1.0000 I -0.1853 J 0.4248
G02 X 24.1903 Y 29.9342 Z -1.0000 I -0.3495 J 1.1286
G03 X 24.1101 Y 29.9151 Z -1.0000 I 3.3910 J -14.4378
G03 X 24.0900 Y 29.9100 Z -1.0000 I 0.2238 J -0.9298
G02 X 24.0697 Y 29.9062 Z -1.0000 I -0.0368 J 0.1399
G02 X 24.0342 Y 29.9037 Z -1.0000 I -0.0458 J 0.3982
G03 X 24.0007 Y 29.8972 Z -1.0000 I 0.0030 J -0.1047
G03 X 23.9789 Y 29.8833 Z -1.0000 I 0.0212 J -0.0570
G02 X 23.9595 Y 29.8698 Z -1.0000 I -0.0472 J 0.0472
G01 X 23.9523 Y 29.8711 Z -1.0000
G03 X 23.8931 Y 29.8891 Z -1.0000 I -0.0464 J -0.0464
G03 X 23.7759 Y 29.8361 Z -1.0000 I 0.0549 J -0.2777
G02 X 23.7613 Y 29.8285 Z -1.0000 I -0.0302 J 0.0399
G02 X 23.7224 Y 29.8186 Z -1.0000 I -0.0904 J 0.2747
G03 X 23.6826 Y 29.8102 Z -1.0000 I 0.1239 J -0.6829
G03 X 23.6288 Y 29.7959 Z -1.0000 I 0.3034 J -1.2501
G02 X 23.5750 Y 29.7818 Z -1.0000 I -0.3112 J 1.0766
G02 X 23.5052 Y 29.7667 Z -1.0000 I -0.4205 J 1.7820
G03 X 23.4400 Y 29.7489 Z -1.0000 I 0.0860 J -0.4426
G01 X 23.4350 Y 29.7418 Z -1.0000
G01 X 23.4306 Y 29.7351 Z -1.0000
G01 X 23.4116 Y 29.7317 Z -1.0000
G03 X 23.3885 Y 29.7298 Z -1.0000 I -0.0043 J -0.0916
G03 X 23.2746 Y 29.7030 Z -1.0000 I 0.4796 J -2.2884
G02 X 23.1609 Y 29.6734 Z -1.0000 I -6.7237 J 25.6198
G02 X 23.0986 Y 29.6576 Z -1.0000 I -2.0727 J 8.0429
G03 X 23.0378 Y 29.6393 Z -1.0000 I 0.1661 J -0.6626
G01 X 23.0262 Y 29.6320 Z -1.0000
G01 X 23.0147 Y 29.6255 Z -1.0000
G02 X 22.9856 Y 29.6220 Z -1.0000 I -0.0291 J 0.1177
G03 X 22.9556 Y 29.6190 Z -1.0000 I 0.0000 J -0.1535
G03 X 22.9244 Y 29.6098 Z -1.0000 I 0.0356 J -0.1785
G02 X 22.8302 Y 29.5824 Z -1.0000 I -0.1927 J 0.4861
G02 X 22.5854 Y 29.5448 Z -1.0000 I -0.6272 J 3.2688
G02 X 22.4080 Y 29.5401 Z -1.0000 I -0.1153 J 0.9962
G01 X 22.3924 Y 29.5567 Z -1.0000
G01 X 22.3879 Y 29.5641 Z -1.0000
G01 X 22.3690 Y 29.5687 Z -1.0000
G01 X 22.3617 Y 29.5735 Z -1.0000
G01 X 22.3637 Y 29.5804 Z -1.0000
G01 X 22.3712 Y 29.5919 Z -1.0000
G01 X 22.3668 Y 29.6012 Z -1.0000
G01 X 22.3588 Y 29.6123 Z -1.0000
G01 X 22.3608 Y 29.6263 Z -1.0000
G01 X 22.3587 Y 29.6320 Z -1.0000
G01 X 22.3471 Y 29.6292 Z -1.0000
G02 X 22.3133 Y 29.6443 Z -1.0000 I 0.0309 J 0.1138
G03 X 22.2110 Y 29.6800 Z -1.0000 I -0.1224 J -0.1868
G03 X 22.1634 Y 29.6579 Z -1.0000 I -0.0047 J -0.0522
G01 X 22.1526 Y 29.6509 Z -1.0000
G02 X 22.1033 Y 29.6464 Z -1.0000 I -0.0476 J 0.2495
G03 X 22.0521 Y 29.6422 Z -1.0000 I -0.0019 J -0.2919
G03 X 21.9941 Y 29.6277 Z -1.0000 I 0.0660 J -0.3863
G02 X 21.9362 Y 29.6128 Z -1.0000 I -0.1372 J 0.4123
G02 X 21.8913 Y 29.6086 Z -1.0000 I -0.0449 J 0.2419
G03 X 21.8485 Y 29.6038 Z -1.0000 I 0.0000 J -0.1940
G01 X 21.8384 Y 29.5967 Z -1.0000
G01 X 21.8283 Y 29.5888 Z -1.0000
G02 X 21.7808 Y 29.5784 Z -1.0000 I -0.0809 J 0.2556
G03 X 21.6632 Y 29.5598 Z -1.0000 I 0.2298 J -1.8291
G03 X 21.5100 Y 29.5264 Z -1.0000 I 0.6007 J -3.1309
G02 X 21.4497 Y 29.5129 Z -1.0000 I -0.4370 J 1.8070
G02 X 21.4165 Y 29.5072 Z -1.0000 I -0.1041 J 0.5032
G03 X 21.3401 Y 29.4933 Z -1.0000 I 0.1253 J -0.9073
G03 X 20.9687 Y 29.4061 Z -1.0000 I 4.9470 J -21.9108
G02 X 20.8481 Y 29.3797 Z -1.0000 I -0.6227 J 2.5560
G02 X 20.8253 Y 29.3782 Z -1.0000 I -0.0173 J 0.0888
G03 X 20.8043 Y 29.3754 Z -1.0000 I -0.0034 J -0.0541
G01 X 20.7948 Y 29.3677 Z -1.0000
G01 X 20.7854 Y 29.3617 Z -1.0000
G01 X 20.7664 Y 29.3638 Z -1.0000
G01 X 20.7475 Y 29.3655 Z -1.0000
G01 X 20.7368 Y 29.3582 Z -1.0000
G01 X 20.7249 Y 29.3495 Z -1.0000
G02 X 20.6555 Y 29.3359 Z -1.0000 I -0.1261 J 0.4578
G03 X 20.5845 Y 29.3234 Z -1.0000 I 0.0790 J -0.6570
G01 X 20.5686 Y 29.3157 Z -1.0000
G01 X 20.5528 Y 29.3076 Z -1.0000
G02 X 20.5008 Y 29.2969 Z -1.0000 I -0.1046 J 0.3764
G03 X 20.4477 Y 29.2877 Z -1.0000 I 0.1015 J -0.7459
G03 X 20.3605 Y 29.2674 Z -1.0000 I 0.4276 J -2.0385
G02 X 20.2731 Y 29.2478 Z -1.0000 I -0.3945 J 1.5479
G02 X 20.1867 Y 29.2334 Z -1.0000 I -0.2942 J 1.5013
G03 X 20.1003 Y 29.2193 Z -1.0000 I 0.2198 J -1.6163
G03 X 20.0464 Y 29.2066 Z -1.0000 I 0.1267 J -0.6627
G02 X 19.9926 Y 29.1933 Z -1.0000 I -0.2527 J 0.9064
G02 X 19.9261 Y 29.1806 Z -1.0000 I -0.3082 J 1.4253
G03 X 19.7721 Y 29.1470 Z -1.0000 I 0.2684 J -1.5983
G03 X 19.7061 Y 29.1212 Z -1.0000 I 0.0853 J -0.3160
G02 X 19.6584 Y 29.1024 Z -1.0000 I -0.1137 J 0.2183
G02 X 19.5992 Y 29.0914 Z -1.0000 I -0.0911 J 0.3271
G03 X 19.4764 Y 29.0750 Z -1.0000 I 0.1496 J -1.5865
G03 X 19.4315 Y 29.0623 Z -1.0000 I 0.0387 J -0.2229
G02 X 19.3642 Y 29.0441 Z -1.0000 I -0.1141 J 0.2870
G01 X 19.3477 Y 29.0495 Z -1.0000
G01 X 19.3329 Y 29.0553 Z -1.0000
G03 X 19.3060 Y 29.0480 Z -1.0000 I 0.0023 J -0.0619
G02 X 19.2815 Y 29.0391 Z -1.0000 I -0.0430 J 0.0803
G01 X 19.2778 Y 29.0421 Z -1.0000
G01 X 19.2511 Y 29.0271 Z -1.0000
G01 X 19.2400 Y 28.9883 Z -1.0000
G01 X 19.2678 Y 28.9694 Z -1.0000
G03 X 19.3093 Y 28.9770 Z -1.0000 I -0.0239 J 0.2478
G01 X 19.3184 Y 28.9833 Z -1.0000
G01 X 19.3277 Y 28.9893 Z -1.0000
G02 X 19.3920 Y 29.0005 Z -1.0000 I 0.1279 J -0.5444
G03 X 19.4579 Y 29.0098 Z -1.0000 I -0.1539 J 1.3360
G03 X 19.4833 Y 29.0157 Z -1.0000 I -0.0331 J 0.1996
G01 X 19.5055 Y 29.0158 Z -1.0000
G01 X 19.5197 Y 29.0051 Z -1.0000
G01 X 19.5334 Y 28.9977 Z -1.0000
G03 X 19.5614 Y 29.0061 Z -1.0000 I -0.0013 J 0.0551
G02 X 19.6815 Y 29.0531 Z -1.0000 I 0.1839 J -0.2927
G01 X 19.7055 Y 29.0332 Z -1.0000
G01 X 19.7264 Y 29.0094 Z -1.0000
G03 X 19.7712 Y 29.0246 Z -1.0000 I 0.0069 J 0.0531
G01 X 19.7817 Y 29.0408 Z -1.0000
G03 X 19.7857 Y 29.0631 Z -1.0000 I -0.0596 J 0.0223
G01 X 19.7931 Y 29.0798 Z -1.0000
G01 X 19.8125 Y 29.0872 Z -1.0000
G01 X 19.8341 Y 29.0821 Z -1.0000
G01 X 19.8392 Y 29.0738 Z -1.0000
G01 X 19.8443 Y 29.0655 Z -1.0000
G01 X 19.8659 Y 29.0605 Z -1.0000
G01 X 19.8875 Y 29.0656 Z -1.0000
G01 X 19.8926 Y 29.0738 Z -1.0000
G01 X 19.8986 Y 29.0813 Z -1.0000
G02 X 19.9506 Y 29.0872 Z -1.0000 I 0.0520 J -0.2263
G03 X 20.0069 Y 29.0910 Z -1.0000 I -0.0000 J 0.4174
G01 X 20.0176 Y 29.0964 Z -1.0000
G02 X 20.1780 Y 29.1687 Z -1.0000 I 0.1758 J -0.1758
G02 X 20.2402 Y 29.1103 Z -1.0000 I 0.0036 J -0.0584
G01 X 20.2224 Y 29.0797 Z -1.0000
G02 X 20.1533 Y 29.0605 Z -1.0000 I -0.0722 J 0.1261
G01 X 20.1356 Y 29.0524 Z -1.0000
G01 X 20.1366 Y 29.0419 Z -1.0000
G01 X 20.1543 Y 29.0101 Z -1.0000
