%
(Header)
(Generated by gcodetools from Inkscape.)
(Using default header. To add your own header create file "header" in the output dir.)
M3
(Header end.)
G21 (All units in mm)

(Start cutting path id: path134739)
(Change tool to Default tool)

G00 Z 5.0000
G00 X 7.1013 Y 1.6301

G01 Z -1.0000 F 100.0000(Penetrate)
G02 X 7.1763 Y 2.0030 Z -1.0000 I 0.3347 J 0.1266 F 3500.0000
G02 X 7.6597 Y 2.2189 Z -1.0000 I 0.5031 J -0.4771
G03 X 7.9755 Y 2.4402 Z -1.0000 I -0.0100 J 0.3503
G03 X 7.8786 Y 2.7716 Z -1.0000 I -0.2612 J 0.1035
G02 X 7.5515 Y 3.0935 Z -1.0000 I 0.8806 J 1.2218
G02 X 7.4816 Y 3.3045 Z -1.0000 I 0.2831 J 0.2109
G02 X 7.5643 Y 3.3453 Z -1.0000 I 0.0514 J -0.0000
G02 X 8.3749 Y 2.6189 Z -1.0000 I -4.3583 J -5.6794
G02 X 8.7355 Y 1.6166 Z -1.0000 I -0.9457 J -0.9062
G02 X 8.2692 Y 1.1834 Z -1.0000 I -0.4662 J 0.0343
G02 X 7.3833 Y 1.3470 Z -1.0000 I 0.0000 J 2.4803
G02 X 7.1013 Y 1.6301 Z -1.0000 I 0.1743 J 0.4557
G01 X 7.1013 Y 1.6301 Z -1.0000
G00 Z 5.0000

(End cutting path id: path134739)


(Start cutting path id: path134739)
(Change tool to Default tool)

G00 Z 5.0000
G00 X 6.0919 Y 2.9639

G01 Z -1.0000 F 100.0000(Penetrate)
G02 X 6.1618 Y 3.0544 Z -1.0000 I 0.0936 J 0.0000 F 3500.0000
G02 X 6.3897 Y 3.0419 Z -1.0000 I 0.0944 J -0.3604
G02 X 6.6566 Y 2.9064 Z -1.0000 I -0.5191 J -1.3527
G02 X 6.6875 Y 2.8496 Z -1.0000 I -0.0367 J -0.0568
G01 X 6.6535 Y 2.8055 Z -1.0000
G02 X 6.3897 Y 2.7716 Z -1.0000 I -0.2638 J 1.0068
G02 X 6.1597 Y 2.8394 Z -1.0000 I -0.0000 J 0.4239
G02 X 6.0919 Y 2.9639 Z -1.0000 I 0.0804 J 0.1245
G01 X 6.0919 Y 2.9639 Z -1.0000
G00 Z 5.0000

(End cutting path id: path134739)


(Start cutting path id: path134739)
(Change tool to Default tool)

G00 Z 5.0000
G00 X 7.7708 Y 3.5160

G01 Z -1.0000 F 100.0000(Penetrate)
G02 X 7.6406 Y 3.8696 Z -1.0000 I 3.1024 J 1.3424 F 3500.0000
G02 X 7.5463 Y 4.2499 Z -1.0000 I 3.4937 J 1.0687
G02 X 7.6358 Y 4.3389 Z -1.0000 I 0.0748 J 0.0143
G02 X 7.9732 Y 4.1656 Z -1.0000 I -0.1330 J -0.6739
G02 X 8.4025 Y 3.6639 Z -1.0000 I -2.0821 J -2.2162
G02 X 8.4742 Y 3.4318 Z -1.0000 I -0.3401 J -0.2322
G02 X 8.2045 Y 3.1925 Z -1.0000 I -0.2410 J 0.0000
G02 X 7.7708 Y 3.5160 Z -1.0000 I 0.0646 J 0.5391
G01 X 7.7708 Y 3.5160 Z -1.0000
G00 Z 5.0000

(End cutting path id: path134739)


(Start cutting path id: path134739)
(Change tool to Default tool)

G00 Z 5.0000
G00 X 5.7610 Y 6.6238

G01 Z -1.0000 F 100.0000(Penetrate)
G02 X 5.8447 Y 6.7810 Z -1.0000 I 0.1896 J 0.0000 F 3500.0000
G02 X 6.0246 Y 6.8015 Z -1.0000 I 0.1097 J -0.1626
G02 X 6.1819 Y 6.6645 Z -1.0000 I -0.1089 J -0.2837
G02 X 6.1783 Y 6.5227 Z -1.0000 I -0.1232 J -0.0679
G02 X 5.9231 Y 6.4178 Z -1.0000 I -0.1999 J 0.1235
G02 X 5.7610 Y 6.6238 Z -1.0000 I 0.0499 J 0.2060
G01 X 5.7610 Y 6.6238 Z -1.0000
G00 Z 5.0000

(End cutting path id: path134739)


(Start cutting path id: path134739)
(Change tool to Default tool)

G00 Z 5.0000
G00 X 4.3083 Y 9.1077

G01 Z -1.0000 F 100.0000(Penetrate)
G02 X 4.3603 Y 9.4062 Z -1.0000 I 0.9331 J -0.0090 F 3500.0000
G02 X 4.5219 Y 9.7198 Z -1.0000 I 1.1946 J -0.4169
G02 X 4.6106 Y 9.7657 Z -1.0000 I 0.0887 J -0.0627
G01 X 4.6450 Y 9.7198 Z -1.0000
G03 X 4.6206 Y 9.4279 Z -1.0000 I 0.6979 J -0.2052
G03 X 4.7184 Y 9.1077 Z -1.0000 I 0.9443 J 0.1133
G02 X 4.7286 Y 8.8855 Z -1.0000 I -0.2388 J -0.1223
G02 X 4.5923 Y 8.7934 Z -1.0000 I -0.1363 J 0.0547
G02 X 4.3941 Y 8.8814 Z -1.0000 I 0.0000 J 0.2671
G02 X 4.3083 Y 9.1077 Z -1.0000 I 0.2469 J 0.2231
G01 X 4.3083 Y 9.1077 Z -1.0000
G00 Z 5.0000

(End cutting path id: path134739)


(Start cutting path id: path134739)
(Change tool to Default tool)

G00 Z 5.0000
G00 X 4.1067 Y 10.3587

G01 Z -1.0000 F 100.0000(Penetrate)
G02 X 4.2758 Y 11.1389 Z -1.0000 I 1.8849 J 0.0000 F 3500.0000
G02 X 4.5384 Y 11.3079 Z -1.0000 I 0.2626 J -0.1194
G02 X 4.6255 Y 11.2310 Z -1.0000 I 0.0000 J -0.0878
G02 X 4.5941 Y 10.8613 Z -1.0000 I -0.8885 J -0.1108
G02 X 4.2615 Y 10.2959 Z -1.0000 I -1.3300 J 0.4018
G02 X 4.1067 Y 10.3587 Z -1.0000 I -0.0647 J 0.0627
G01 X 4.1067 Y 10.3587 Z -1.0000
G00 Z 5.0000

(End cutting path id: path134739)


(Start cutting path id: path134739)
(Change tool to Default tool)

G00 Z 5.0000
G00 X 4.9038 Y 10.6628

G01 Z -1.0000 F 100.0000(Penetrate)
G02 X 4.9333 Y 10.8037 Z -1.0000 I 0.3898 J -0.0080 F 3500.0000
G02 X 5.0747 Y 11.0764 Z -1.0000 I 1.6414 J -0.6781
G02 X 5.2233 Y 11.1481 Z -1.0000 I 0.1319 J -0.0836
G02 X 5.3558 Y 11.0462 Z -1.0000 I -0.0171 J -0.1593
G02 X 5.4061 Y 10.7646 Z -1.0000 I -0.7078 J -0.2716
G02 X 5.3503 Y 10.6325 Z -1.0000 I -0.1903 J 0.0025
G02 X 5.0386 Y 10.5156 Z -1.0000 I -0.2846 J 0.2846
G02 X 4.9038 Y 10.6628 Z -1.0000 I 0.0098 J 0.1442
G01 X 4.9038 Y 10.6628 Z -1.0000
G00 Z 5.0000

(End cutting path id: path134739)


(Start cutting path id: path134739)
(Change tool to Default tool)

G00 Z 5.0000
G00 X 5.2978 Y 10.0176

G01 Z -1.0000 F 100.0000(Penetrate)
G02 X 5.3656 Y 10.2475 Z -1.0000 I 0.4239 J -0.0000 F 3500.0000
G02 X 5.4901 Y 10.3153 Z -1.0000 I 0.1245 J -0.0804
G02 X 5.5807 Y 10.2454 Z -1.0000 I 0.0000 J -0.0936
G02 X 5.5681 Y 10.0176 Z -1.0000 I -0.3604 J -0.0944
G02 X 5.4326 Y 9.7507 Z -1.0000 I -1.3525 J 0.5190
G02 X 5.3759 Y 9.7198 Z -1.0000 I -0.0568 J 0.0367
G01 X 5.3318 Y 9.7538 Z -1.0000
G02 X 5.2978 Y 10.0176 Z -1.0000 I 1.0068 J 0.2638
G01 X 5.2978 Y 10.0176 Z -1.0000
G00 Z 5.0000

(End cutting path id: path134739)


(Start cutting path id: path134739)
(Change tool to Default tool)

G00 Z 5.0000
G00 X 6.1912 Y 9.7198

G01 Z -1.0000 F 100.0000(Penetrate)
G02 X 6.1907 Y 9.8502 Z -1.0000 I 0.1061 J 0.0656 F 3500.0000
G02 X 6.3118 Y 9.9183 Z -1.0000 I 0.1211 J -0.0736
G03 X 6.4353 Y 9.9679 Z -1.0000 I 0.0000 J 0.1783
G01 X 6.4360 Y 10.0374 Z -1.0000
G03 X 6.0671 Y 10.0622 Z -1.0000 I -0.1987 J -0.1987
G03 X 6.0011 Y 9.7061 Z -1.0000 I 0.1634 J -0.2144
G03 X 6.1324 Y 9.5519 Z -1.0000 I 0.5694 J 0.3519
G03 X 6.2146 Y 9.5213 Z -1.0000 I 0.0822 J 0.0949
G01 X 6.2475 Y 9.5583 Z -1.0000
G03 X 6.1912 Y 9.7198 Z -1.0000 I -0.3927 J -0.0463
G01 X 6.1912 Y 9.7198 Z -1.0000
G00 Z 5.0000

(End cutting path id: path134739)


(Start cutting path id: path134739)
(Change tool to Default tool)

G00 Z 5.0000
G00 X 5.6161 Y 11.3410

G01 Z -1.0000 F 100.0000(Penetrate)
G02 X 5.7424 Y 11.4632 Z -1.0000 I 0.3037 J -0.1877 F 3500.0000
G02 X 5.9051 Y 11.5065 Z -1.0000 I 0.1627 J -0.2842
G02 X 6.0406 Y 11.4551 Z -1.0000 I 0.0000 J -0.2043
G02 X 6.0919 Y 11.3410 Z -1.0000 I -0.1010 J -0.1141
G02 X 6.0312 Y 11.2363 Z -1.0000 I -0.1207 J 0.0000
G02 X 5.8029 Y 11.1756 Z -1.0000 I -0.2283 J 0.3989
G02 X 5.6308 Y 11.2408 Z -1.0000 I 0.0000 J 0.2595
G02 X 5.6161 Y 11.3410 Z -1.0000 I 0.0521 J 0.0589
G01 X 5.6161 Y 11.3410 Z -1.0000
G00 Z 5.0000

(End cutting path id: path134739)


(Start cutting path id: path134739)
(Change tool to Default tool)

G00 Z 5.0000
G00 X 8.2359 Y 11.1491

G01 Z -1.0000 F 100.0000(Penetrate)
G03 X 8.4203 Y 11.4097 Z -1.0000 I -0.6686 J 0.6686 F 3500.0000
G03 X 8.4742 Y 11.6471 Z -1.0000 I -0.4964 J 0.2374
G03 X 8.3825 Y 11.7415 Z -1.0000 I -0.0945 J 0.0000
G03 X 8.0771 Y 11.6589 Z -1.0000 I -0.0162 J -0.5456
G03 X 7.7533 Y 11.3703 Z -1.0000 I 0.6800 J -1.0889
G03 X 7.6801 Y 11.1609 Z -1.0000 I 0.2626 J -0.2094
G03 X 7.8453 Y 10.9922 Z -1.0000 I 0.1688 J 0.0000
G03 X 8.2359 Y 11.1491 Z -1.0000 I 0.0114 J 0.5362
G01 X 8.2359 Y 11.1491 Z -1.0000
G00 Z 5.0000

(End cutting path id: path134739)


(Start cutting path id: path134739)
(Change tool to Default tool)

G00 Z 5.0000
G00 X 8.7415 Y 10.6692

G01 Z -1.0000 F 100.0000(Penetrate)
G03 X 8.5776 Y 10.9801 Z -1.0000 I -0.7479 J -0.1956 F 3500.0000
G03 X 8.4557 Y 10.9987 Z -1.0000 I -0.0719 J -0.0624
G03 X 8.3932 Y 10.8669 Z -1.0000 I 0.0705 J -0.1141
G03 X 8.5203 Y 10.5137 Z -1.0000 I 0.8808 J 0.1175
G03 X 8.6732 Y 10.4827 Z -1.0000 I 0.0911 J 0.0569
G03 X 8.7415 Y 10.6692 Z -1.0000 I -0.1001 J 0.1424
G01 X 8.7415 Y 10.6692 Z -1.0000
G00 Z 5.0000

(End cutting path id: path134739)


(Start cutting path id: path134739)
(Change tool to Default tool)

G00 Z 5.0000
G00 X 7.1965 Y 14.1454

G01 Z -1.0000 F 100.0000(Penetrate)
G02 X 7.3558 Y 14.3904 Z -1.0000 I 0.6470 J -0.2464 F 3500.0000
G02 X 7.4432 Y 14.3903 Z -1.0000 I 0.0436 J -0.0439
G02 X 7.4670 Y 14.2793 Z -1.0000 I -0.0738 J -0.0738
G02 X 7.3077 Y 14.0343 Z -1.0000 I -0.6470 J 0.2464
G02 X 7.2203 Y 14.0345 Z -1.0000 I -0.0436 J 0.0439
G02 X 7.1965 Y 14.1454 Z -1.0000 I 0.0738 J 0.0738
G01 X 7.1965 Y 14.1454 Z -1.0000
G00 Z 5.0000

(End cutting path id: path134739)


(Start cutting path id: path134739)
(Change tool to Default tool)

G00 Z 5.0000
G00 X 8.0771 Y 15.3659

G01 Z -1.0000 F 100.0000(Penetrate)
G02 X 8.1323 Y 15.6212 Z -1.0000 I 0.6187 J 0.0000 F 3500.0000
G02 X 8.2571 Y 15.7632 Z -1.0000 I 0.2953 J -0.1338
G02 X 8.3327 Y 15.7332 Z -1.0000 I 0.0266 J -0.0431
G02 X 8.3332 Y 15.4771 Z -1.0000 I -0.4850 J -0.1290
G02 X 8.1801 Y 15.2984 Z -1.0000 I -0.2604 J 0.0681
G02 X 8.0771 Y 15.3659 Z -1.0000 I -0.0293 J 0.0675
G01 X 8.0771 Y 15.3659 Z -1.0000
G00 Z 5.0000

(End cutting path id: path134739)


(Start cutting path id: path134739)
(Change tool to Default tool)

G00 Z 5.0000
G00 X 9.9013 Y 16.2710

G01 Z -1.0000 F 100.0000(Penetrate)
G03 X 10.0021 Y 16.3415 Z -1.0000 I -0.0000 J 0.1074 F 3500.0000
G03 X 10.0005 Y 16.5429 Z -1.0000 I -0.2699 J 0.0984
G02 X 10.0673 Y 16.6938 Z -1.0000 I 0.1092 J 0.0419
G02 X 10.6503 Y 16.7950 Z -1.0000 I 0.5436 J -1.4010
G02 X 11.2345 Y 16.6526 Z -1.0000 I -0.0373 J -1.4228
G02 X 11.3128 Y 16.4735 Z -1.0000 I -0.0657 J -0.1354
G01 X 11.3592 Y 16.4312 Z -1.0000
G03 X 11.5445 Y 16.5687 Z -1.0000 I -0.1783 J 0.4338
G03 X 11.6091 Y 16.9002 Z -1.0000 I -0.2776 J 0.2261
G03 X 11.3575 Y 17.1762 Z -1.0000 I -0.4184 J -0.1288
G02 X 10.9615 Y 17.4185 Z -1.0000 I 0.5611 J 1.3614
G02 X 10.9493 Y 17.5252 Z -1.0000 I 0.0512 J 0.0599
G01 X 10.9366 Y 17.5414 Z -1.0000
G03 X 10.8237 Y 17.4724 Z -1.0000 I 0.1714 J -0.4074
G02 X 10.5895 Y 17.4221 Z -1.0000 I -0.1644 J 0.1957
G02 X 9.9816 Y 17.7111 Z -1.0000 I 0.5508 J 1.9426
G03 X 9.6741 Y 17.8541 Z -1.0000 I -0.5560 J -0.7935
G01 X 9.6400 Y 17.8017 Z -1.0000
G02 X 9.7421 Y 17.5438 Z -1.0000 I -0.3671 J -0.2945
G02 X 9.6664 Y 17.4621 Z -1.0000 I -0.0756 J -0.0059
G03 X 9.5378 Y 17.3715 Z -1.0000 I 0.0000 J -0.1367
G03 X 9.5243 Y 17.0650 Z -1.0000 I 0.4889 J -0.1751
G02 X 9.5440 Y 16.7330 Z -1.0000 I -0.8240 J -0.2155
G02 X 9.4694 Y 16.6680 Z -1.0000 I -0.0746 J 0.0103
G03 X 9.3483 Y 16.6133 Z -1.0000 I -0.0000 J -0.1613
G03 X 9.1880 Y 16.3481 Z -1.0000 I 0.6585 J -0.5794
G03 X 9.2216 Y 16.1846 Z -1.0000 I 0.1445 J -0.0554
G03 X 9.3815 Y 16.1496 Z -1.0000 I 0.1065 J 0.1039
G02 X 9.7020 Y 16.2480 Z -1.0000 I 0.8773 J -2.2862
G02 X 9.9013 Y 16.2710 Z -1.0000 I 0.1993 J -0.8535
G01 X 9.9013 Y 16.2710 Z -1.0000
G00 Z 5.0000

(End cutting path id: path134739)


(Start cutting path id: path134739)
(Change tool to Default tool)

G00 Z 5.0000
G00 X 9.8638 Y 17.2636

G01 Z -1.0000 F 100.0000(Penetrate)
G02 X 9.9236 Y 17.4023 Z -1.0000 I 0.1908 J 0.0000 F 3500.0000
G02 X 10.0740 Y 17.4621 Z -1.0000 I 0.1504 J -0.1593
G02 X 10.1710 Y 17.3989 Z -1.0000 I 0.0000 J -0.1059
G02 X 10.1616 Y 17.2636 Z -1.0000 I -0.1333 J -0.0588
G02 X 10.0230 Y 17.0935 Z -1.0000 I -0.7183 J 0.4440
G02 X 9.9513 Y 17.0650 Z -1.0000 I -0.0717 J 0.0759
G02 X 9.8984 Y 17.0996 Z -1.0000 I 0.0000 J 0.0579
G02 X 9.8638 Y 17.2636 Z -1.0000 I 0.3718 J 0.1640
G01 X 9.8638 Y 17.2636 Z -1.0000
G00 Z 5.0000

(End cutting path id: path134739)


(Start cutting path id: path134739)
(Change tool to Default tool)

G00 Z 5.0000
G00 X 8.0771 Y 18.0576

G01 Z -1.0000 F 100.0000(Penetrate)
G02 X 8.1880 Y 18.7409 Z -1.0000 I 2.1605 J -0.0000 F 3500.0000
G02 X 8.3418 Y 18.8517 Z -1.0000 I 0.1538 J -0.0513
G02 X 8.5245 Y 18.7697 Z -1.0000 I -0.0000 J -0.2444
G02 X 8.6065 Y 18.5539 Z -1.0000 I -0.2427 J -0.2158
G02 X 8.5452 Y 18.3174 Z -1.0000 I -0.4870 J 0.0000
G02 X 8.4411 Y 18.2562 Z -1.0000 I -0.1042 J 0.0579
G03 X 8.3297 Y 18.2021 Z -1.0000 I -0.0000 J -0.1417
G03 X 8.2756 Y 18.0459 Z -1.0000 I 0.1985 J -0.1562
G03 X 8.3414 Y 17.9537 Z -1.0000 I 0.0976 J -0.0000
G03 X 8.4940 Y 17.9706 Z -1.0000 I 0.0584 J 0.1693
G01 X 8.5534 Y 17.9365 Z -1.0000
G02 X 8.4870 Y 17.6846 Z -1.0000 I -0.5629 J 0.0137
G02 X 8.2593 Y 17.6454 Z -1.0000 I -0.1291 J 0.0691
G02 X 8.0771 Y 18.0576 Z -1.0000 I 0.3753 J 0.4123
G01 X 8.0771 Y 18.0576 Z -1.0000
G00 Z 5.0000

(End cutting path id: path134739)


(Start cutting path id: path134739)
(Change tool to Default tool)

G00 Z 5.0000
G00 X 7.0845 Y 18.4547

G01 Z -1.0000 F 100.0000(Penetrate)
G02 X 7.1409 Y 18.5968 Z -1.0000 I 0.2074 J -0.0000 F 3500.0000
G02 X 7.2713 Y 18.6532 Z -1.0000 I 0.1304 J -0.1227
G02 X 7.4319 Y 18.6061 Z -1.0000 I -0.0000 J -0.2974
G02 X 7.5808 Y 18.4547 Z -1.0000 I -0.2587 J -0.4034
G02 X 7.5684 Y 18.3315 Z -1.0000 I -0.0865 J -0.0535
G02 X 7.3940 Y 18.2562 Z -1.0000 I -0.1744 J 0.1641
G02 X 7.1547 Y 18.3263 Z -1.0000 I 0.0000 J 0.4433
G02 X 7.0845 Y 18.4547 Z -1.0000 I 0.0823 J 0.1284
G01 X 7.0845 Y 18.4547 Z -1.0000
G00 Z 5.0000

(End cutting path id: path134739)


(Start cutting path id: path134739)
(Change tool to Default tool)

G00 Z 5.0000
G00 X 8.2756 Y 19.2488

G01 Z -1.0000 F 100.0000(Penetrate)
G02 X 8.3338 Y 19.3891 Z -1.0000 I 0.1985 J 0.0000 F 3500.0000
G02 X 8.4742 Y 19.4473 Z -1.0000 I 0.1404 J -0.1404
G02 X 8.6145 Y 19.3891 Z -1.0000 I 0.0000 J -0.1985
G02 X 8.6727 Y 19.2488 Z -1.0000 I -0.1404 J -0.1404
G02 X 8.6145 Y 19.1084 Z -1.0000 I -0.1985 J 0.0000
G02 X 8.4742 Y 19.0502 Z -1.0000 I -0.1404 J 0.1404
G02 X 8.3338 Y 19.1084 Z -1.0000 I 0.0000 J 0.1985
G02 X 8.2756 Y 19.2488 Z -1.0000 I 0.1404 J 0.1404
G01 X 8.2756 Y 19.2488 Z -1.0000
G00 Z 5.0000

(End cutting path id: path134739)


(Start cutting path id: path134739)
(Change tool to Default tool)

G00 Z 5.0000
G00 X 9.1804 Y 20.4214

G01 Z -1.0000 F 100.0000(Penetrate)
G02 X 9.2105 Y 20.4969 Z -1.0000 I 0.0431 J 0.0266 F 3500.0000
G02 X 9.4665 Y 20.4975 Z -1.0000 I 0.1290 J -0.4850
G02 X 9.6453 Y 20.3443 Z -1.0000 I -0.0681 J -0.2604
G02 X 9.5777 Y 20.2414 Z -1.0000 I -0.0675 J -0.0293
G02 X 9.3224 Y 20.2965 Z -1.0000 I 0.0000 J 0.6187
G02 X 9.1804 Y 20.4214 Z -1.0000 I 0.1338 J 0.2953
G01 X 9.1804 Y 20.4214 Z -1.0000
G00 Z 5.0000

(End cutting path id: path134739)


(Start cutting path id: path134739)
(Change tool to Default tool)

G00 Z 5.0000
G00 X 9.1573 Y 20.9471

G01 Z -1.0000 F 100.0000(Penetrate)
G02 X 9.1460 Y 21.0196 Z -1.0000 I 0.0340 J 0.0424 F 3500.0000
G02 X 9.2186 Y 21.0394 Z -1.0000 I 0.0476 J -0.0317
G02 X 9.6289 Y 20.8001 Z -1.0000 I -1.3503 J -2.7864
G02 X 9.6653 Y 20.7307 Z -1.0000 I -0.0480 J -0.0695
G01 X 9.5958 Y 20.6848 Z -1.0000
G02 X 9.1573 Y 20.9471 Z -1.0000 I 0.7370 J 1.7297
G01 X 9.1573 Y 20.9471 Z -1.0000
G00 Z 5.0000

(End cutting path id: path134739)


(Start cutting path id: path134739)
(Change tool to Default tool)

G00 Z 5.0000
G00 X 9.8638 Y 21.0417

G01 Z -1.0000 F 100.0000(Penetrate)
G02 X 9.9316 Y 21.1662 Z -1.0000 I 0.1482 J 0.0000 F 3500.0000
G02 X 10.1616 Y 21.2340 Z -1.0000 I 0.2300 J -0.3561
G02 X 10.4254 Y 21.2000 Z -1.0000 I 0.0000 J -1.0408
G01 X 10.4594 Y 21.1560 Z -1.0000
G02 X 10.4285 Y 21.0992 Z -1.0000 I -0.0676 J -0.0000
G02 X 10.1616 Y 20.9637 Z -1.0000 I -0.7859 J 1.2170
G02 X 9.9337 Y 20.9511 Z -1.0000 I -0.1335 J 0.3478
G02 X 9.8638 Y 21.0417 Z -1.0000 I 0.0237 J 0.0906
G01 X 9.8638 Y 21.0417 Z -1.0000
G00 Z 5.0000

(End cutting path id: path134739)


(Start cutting path id: path134739)
(Change tool to Default tool)

G00 Z 5.0000
G00 X 10.9721 Y 20.8103

G01 Z -1.0000 F 100.0000(Penetrate)
G02 X 10.8901 Y 21.0533 Z -1.0000 I 0.4828 J 0.2984 F 3500.0000
G02 X 10.9358 Y 21.1810 Z -1.0000 I 0.1579 J 0.0155
G02 X 11.1546 Y 21.1648 Z -1.0000 I 0.1024 J -0.1024
G02 X 11.2112 Y 20.8095 Z -1.0000 I -0.3131 J -0.2321
G02 X 11.1071 Y 20.7347 Z -1.0000 I -0.1037 J 0.0346
G02 X 10.9721 Y 20.8103 Z -1.0000 I 0.0005 J 0.1593
G01 X 10.9721 Y 20.8103 Z -1.0000
G00 Z 5.0000

(End cutting path id: path134739)


(Start cutting path id: path134739)
(Change tool to Default tool)

G00 Z 5.0000
G00 X 11.4520 Y 21.4325

G01 Z -1.0000 F 100.0000(Penetrate)
G02 X 11.5221 Y 21.5609 Z -1.0000 I 0.1525 J 0.0000 F 3500.0000
G02 X 11.7615 Y 21.6310 Z -1.0000 I 0.2393 J -0.3731
G02 X 11.9358 Y 21.5557 Z -1.0000 I 0.0000 J -0.2394
G02 X 11.9483 Y 21.4325 Z -1.0000 I -0.0741 J -0.0697
G02 X 11.7993 Y 21.2810 Z -1.0000 I -0.4077 J 0.2520
G02 X 11.6388 Y 21.2340 Z -1.0000 I -0.1606 J 0.2503
G02 X 11.5083 Y 21.2903 Z -1.0000 I -0.0000 J 0.1791
G02 X 11.4520 Y 21.4325 Z -1.0000 I 0.1511 J 0.1422
G01 X 11.4520 Y 21.4325 Z -1.0000
G00 Z 5.0000

(End cutting path id: path134739)


(Start cutting path id: path134739)
(Change tool to Default tool)

G00 Z 5.0000
G00 X 11.8490 Y 20.1304

G01 Z -1.0000 F 100.0000(Penetrate)
G03 X 11.6577 Y 20.3710 Z -1.0000 I -0.2469 J 0.0000 F 3500.0000
G03 X 11.3547 Y 20.2446 Z -1.0000 I -0.0634 J -0.2744
G03 X 11.3666 Y 20.1190 Z -1.0000 I 0.0890 J -0.0550
G03 X 11.5395 Y 20.0429 Z -1.0000 I 0.1730 J 0.1584
G03 X 11.8113 Y 20.0805 Z -1.0000 I -0.0000 J 0.9986
G03 X 11.8490 Y 20.1304 Z -1.0000 I -0.0141 J 0.0499
G01 X 11.8490 Y 20.1304 Z -1.0000
G00 Z 5.0000

(End cutting path id: path134739)


(Start cutting path id: path134739)
(Change tool to Default tool)

G00 Z 5.0000
G00 X 12.1466 Y 18.9980

G01 Z -1.0000 F 100.0000(Penetrate)
G03 X 12.0298 Y 19.1962 Z -1.0000 I -0.2013 J 0.0148 F 3500.0000
G03 X 11.7151 Y 19.1969 Z -1.0000 I -0.1581 J -0.3431
G03 X 11.4205 Y 18.7607 Z -1.0000 I 0.2090 J -0.4587
G03 X 11.6850 Y 18.5230 Z -1.0000 I 0.2298 J -0.0103
G03 X 12.0079 Y 18.6893 Z -1.0000 I -0.0860 J 0.5637
G03 X 12.1466 Y 18.9980 Z -1.0000 I -0.3551 J 0.3451
G01 X 12.1466 Y 18.9980 Z -1.0000
G00 Z 5.0000

(End cutting path id: path134739)


(Start cutting path id: path134739)
(Change tool to Default tool)

G00 Z 5.0000
G00 X 13.1086 Y 17.9670

G01 Z -1.0000 F 100.0000(Penetrate)
G03 X 12.9710 Y 18.1787 Z -1.0000 I -0.5656 J -0.2171 F 3500.0000
G03 X 12.8965 Y 18.1787 Z -1.0000 I -0.0372 J -0.0373
G03 X 12.8613 Y 18.0771 Z -1.0000 I 0.0871 J -0.0871
G03 X 12.9327 Y 17.8723 Z -1.0000 I 0.4982 J 0.0589
G03 X 13.0608 Y 17.8380 Z -1.0000 I 0.0823 J 0.0508
G03 X 13.1086 Y 17.9669 Z -1.0000 I -0.0493 J 0.0917
G01 X 13.1086 Y 17.9670 Z -1.0000
G00 Z 5.0000

(End cutting path id: path134739)


(Start cutting path id: path134739)
(Change tool to Default tool)

G00 Z 5.0000
G00 X 13.8638 Y 16.3208

G01 Z -1.0000 F 100.0000(Penetrate)
G03 X 13.6357 Y 16.4255 Z -1.0000 I -0.2552 J -0.2552 F 3500.0000
G03 X 13.4395 Y 16.3527 Z -1.0000 I -0.0188 J -0.2501
G03 X 13.4395 Y 16.2293 Z -1.0000 I 0.0617 J -0.0617
G03 X 13.6677 Y 16.1246 Z -1.0000 I 0.2552 J 0.2552
G03 X 13.8638 Y 16.1974 Z -1.0000 I 0.0188 J 0.2501
G03 X 13.8638 Y 16.3208 Z -1.0000 I -0.0617 J 0.0617
G01 X 13.8638 Y 16.3208 Z -1.0000
G00 Z 5.0000

(End cutting path id: path134739)


(Start cutting path id: path134739)
(Change tool to Default tool)

G00 Z 5.0000
G00 X 16.0189 Y 15.7735

G01 Z -1.0000 F 100.0000(Penetrate)
G02 X 15.9654 Y 16.0526 Z -1.0000 I 0.2267 J 0.1882 F 3500.0000
G02 X 16.2427 Y 16.4632 Z -1.0000 I 0.8518 J -0.2765
G03 X 16.2149 Y 16.5639 Z -1.0000 I -0.0368 J 0.0440
G03 X 15.8492 Y 16.5257 Z -1.0000 I -0.1115 J -0.7023
G03 X 15.3649 Y 16.1973 Z -1.0000 I 0.4581 J -1.1967
G03 X 15.4025 Y 16.0409 Z -1.0000 I 0.0712 J -0.0656
G02 X 15.7482 Y 15.8371 Z -1.0000 I -0.3923 J -1.0604
G02 X 15.8194 Y 15.6818 Z -1.0000 I -0.1338 J -0.1553
G03 X 15.8819 Y 15.5394 Z -1.0000 I 0.1935 J -0.0000
G03 X 16.0423 Y 15.4769 Z -1.0000 I 0.1603 J 0.1743
G03 X 16.1097 Y 15.5498 Z -1.0000 I 0.0000 J 0.0677
G03 X 16.0189 Y 15.7735 Z -1.0000 I -0.3982 J -0.0314
G01 X 16.0189 Y 15.7735 Z -1.0000
G00 Z 5.0000

(End cutting path id: path134739)


(Start cutting path id: path134739)
(Change tool to Default tool)

G00 Z 5.0000
G00 X 17.7422 Y 15.4070

G01 Z -1.0000 F 100.0000(Penetrate)
G03 X 17.4245 Y 15.4200 Z -1.0000 I -0.1659 J -0.1659 F 3500.0000
G03 X 17.2091 Y 14.9547 Z -1.0000 I 0.3947 J -0.4653
G03 X 17.2987 Y 14.8708 Z -1.0000 I 0.0841 J 0.0000
G03 X 17.5305 Y 14.9759 Z -1.0000 I -0.0238 J 0.3606
G03 X 17.7604 Y 15.2973 Z -1.0000 I -0.8535 J 0.8535
G03 X 17.7422 Y 15.4070 Z -1.0000 I -0.0858 J 0.0421
G01 X 17.7422 Y 15.4070 Z -1.0000
G00 Z 5.0000

(End cutting path id: path134739)


(Start cutting path id: path134739)
(Change tool to Default tool)

G00 Z 5.0000
G00 X 17.7550 Y 16.3219

G01 Z -1.0000 F 100.0000(Penetrate)
G02 X 18.0018 Y 16.4029 Z -1.0000 I 0.2336 J -0.2955 F 3500.0000
G02 X 18.2609 Y 16.3042 Z -1.0000 I -0.0150 J -0.4290
G03 X 18.5172 Y 16.2555 Z -1.0000 I 0.1722 J 0.2075
G03 X 19.0809 Y 16.5734 Z -1.0000 I -0.5173 J 1.5759
G02 X 19.6520 Y 16.9422 Z -1.0000 I 1.6281 J -1.8948
G02 X 19.8464 Y 16.9308 Z -1.0000 I 0.0867 J -0.1856
G01 X 19.9098 Y 16.9451 Z -1.0000
G03 X 19.9106 Y 17.0303 Z -1.0000 I -0.0670 J 0.0432
G02 X 19.8595 Y 17.2581 Z -1.0000 I 0.3040 J 0.1879
G02 X 19.9797 Y 17.6444 Z -1.0000 I 1.0664 J -0.1200
G03 X 20.0716 Y 18.0022 Z -1.0000 I -0.6852 J 0.3667
G03 X 19.9856 Y 18.1586 Z -1.0000 I -0.1813 J 0.0021
G02 X 19.8799 Y 18.3064 Z -1.0000 I 0.1237 J 0.2001
G02 X 19.9103 Y 18.4890 Z -1.0000 I 0.2380 J 0.0543
G01 X 19.8773 Y 18.5302 Z -1.0000
G03 X 19.5165 Y 18.3532 Z -1.0000 I 0.5299 J -1.5364
G02 X 19.0710 Y 18.1513 Z -1.0000 I -0.8707 J 1.3289
G02 X 18.9957 Y 18.2085 Z -1.0000 I -0.0159 J 0.0572
G03 X 18.5449 Y 18.7303 Z -1.0000 I -0.5274 J 0.0000
G03 X 17.4784 Y 18.4311 Z -1.0000 I -0.1975 J -1.3463
G03 X 17.2600 Y 18.1836 Z -1.0000 I 0.6826 J -0.8225
G03 X 17.2090 Y 18.0090 Z -1.0000 I 0.2736 J -0.1746
G03 X 17.2757 Y 17.9524 Z -1.0000 I 0.0574 J 0.0000
G03 X 17.5068 Y 18.0576 Z -1.0000 I -0.0780 J 0.4778
G02 X 17.7346 Y 18.1557 Z -1.0000 I 0.2805 J -0.3380
G02 X 17.8046 Y 18.0937 Z -1.0000 I 0.0075 J -0.0620
G02 X 17.7543 Y 17.9106 Z -1.0000 I -0.3581 J 0.0000
G02 X 17.6061 Y 17.7599 Z -1.0000 I -0.3816 J 0.2270
G03 X 17.4758 Y 17.5991 Z -1.0000 I 0.1649 J -0.2669
G03 X 17.4075 Y 17.2077 Z -1.0000 I 1.0888 J -0.3915
G03 X 17.5120 Y 17.1095 Z -1.0000 I 0.0983 J 0.0000
G03 X 17.7222 Y 17.2274 Z -1.0000 I -0.0174 J 0.2773
G02 X 18.0897 Y 17.5307 Z -1.0000 I 0.7319 J -0.5126
G02 X 18.4667 Y 17.5599 Z -1.0000 I 0.2294 J -0.5138
G03 X 18.5581 Y 17.5911 Z -1.0000 I 0.0226 J 0.0833
G01 X 18.5449 Y 17.6633 Z -1.0000
G02 X 18.4860 Y 17.9674 Z -1.0000 I 0.1124 J 0.1795
G02 X 18.8219 Y 18.0444 Z -1.0000 I 0.2122 J -0.1543
G03 X 19.2072 Y 17.9549 Z -1.0000 I 0.3588 J 0.6704
G03 X 19.5047 Y 18.0682 Z -1.0000 I -0.0171 J 0.4925
G02 X 19.6499 Y 18.0416 Z -1.0000 I 0.0615 J -0.0741
G02 X 19.6697 Y 17.7772 Z -1.0000 I -0.2700 J -0.1531
G02 X 19.5109 Y 17.5794 Z -1.0000 I -0.3879 J 0.1489
G02 X 19.3670 Y 17.5772 Z -1.0000 I -0.0736 J 0.1114
G03 X 19.2737 Y 17.5626 Z -1.0000 I -0.0382 J -0.0617
G03 X 19.2389 Y 17.4272 Z -1.0000 I 0.1208 J -0.1032
G02 X 19.1911 Y 17.2423 Z -1.0000 I -0.2115 J -0.0439
G02 X 18.9957 Y 17.1451 Z -1.0000 I -0.2135 J 0.1841
G03 X 16.8146 Y 16.6037 Z -1.0000 I 0.4074 J -6.3057
G03 X 16.4149 Y 15.9862 Z -1.0000 I 0.2773 J -0.6175
G03 X 16.6692 Y 15.7877 Z -1.0000 I 0.2046 J 0.0000
G03 X 17.7550 Y 16.3219 Z -1.0000 I -0.6997 J 2.7924
G01 X 17.7550 Y 16.3219 Z -1.0000
G00 Z 5.0000

(End cutting path id: path134739)


(Start cutting path id: path134739)
(Change tool to Default tool)

G00 Z 5.0000
G00 X 18.3009 Y 16.6680

G01 Z -1.0000 F 100.0000(Penetrate)
G02 X 18.4508 Y 16.8178 Z -1.0000 I 0.3923 J -0.2424 F 3500.0000
G02 X 18.6221 Y 16.8665 Z -1.0000 I 0.1714 J -0.2773
G02 X 18.7110 Y 16.8054 Z -1.0000 I 0.0000 J -0.0951
G02 X 18.6980 Y 16.6680 Z -1.0000 I -0.1454 J -0.0555
G02 X 18.5481 Y 16.5182 Z -1.0000 I -0.3923 J 0.2424
G02 X 18.3768 Y 16.4695 Z -1.0000 I -0.1714 J 0.2773
G02 X 18.2879 Y 16.5306 Z -1.0000 I 0.0000 J 0.0951
G02 X 18.3009 Y 16.6680 Z -1.0000 I 0.1454 J 0.0555
G01 X 18.3009 Y 16.6680 Z -1.0000
G00 Z 5.0000

(End cutting path id: path134739)


(Start cutting path id: path134739)
(Change tool to Default tool)

G00 Z 5.0000
G00 X 18.7840 Y 15.5602

G01 Z -1.0000 F 100.0000(Penetrate)
G03 X 18.8030 Y 15.7213 Z -1.0000 I -0.1147 J 0.0952 F 3500.0000
G03 X 18.6702 Y 15.7910 Z -1.0000 I -0.1143 J -0.0564
G03 X 18.3746 Y 15.6778 Z -1.0000 I 0.1053 J -0.7173
G03 X 18.2455 Y 15.5092 Z -1.0000 I 0.1803 J -0.2717
G03 X 18.3763 Y 15.3447 Z -1.0000 I 0.1190 J -0.0397
G03 X 18.7840 Y 15.5602 Z -1.0000 I -0.0570 J 0.6012
G01 X 18.7840 Y 15.5602 Z -1.0000
G00 Z 5.0000

(End cutting path id: path134739)


(Start cutting path id: path134739)
(Change tool to Default tool)

G00 Z 5.0000
G00 X 19.5530 Y 16.5740

G01 Z -1.0000 F 100.0000(Penetrate)
G03 X 19.4656 Y 16.5742 Z -1.0000 I -0.0438 J -0.0438 F 3500.0000
G03 X 19.3063 Y 16.3292 Z -1.0000 I 0.4877 J -0.4914
G03 X 19.3300 Y 16.2182 Z -1.0000 I 0.0976 J -0.0371
G03 X 19.4174 Y 16.2180 Z -1.0000 I 0.0438 J 0.0438
G03 X 19.5767 Y 16.4630 Z -1.0000 I -0.4877 J 0.4914
G03 X 19.5530 Y 16.5740 Z -1.0000 I -0.0976 J 0.0371
G01 X 19.5530 Y 16.5740 Z -1.0000
G00 Z 5.0000

(End cutting path id: path134739)


(Start cutting path id: path134739)
(Change tool to Default tool)

G00 Z 5.0000
G00 X 17.1934 Y 17.5234

G01 Z -1.0000 F 100.0000(Penetrate)
G01 X 17.1462 Y 17.5629 Z -1.0000 F 3500.0000
G03 X 17.0772 Y 17.5105 Z -1.0000 I 0.0094 J -0.0840
G02 X 16.9391 Y 17.3754 Z -1.0000 I -0.2231 J 0.0899
G02 X 16.7644 Y 17.3923 Z -1.0000 I -0.0703 J 0.1859
G01 X 16.6976 Y 17.3780 Z -1.0000
G03 X 16.6958 Y 17.2910 Z -1.0000 I 0.0663 J -0.0449
G03 X 17.0020 Y 17.1996 Z -1.0000 I 0.2045 J 0.1264
G03 X 17.1934 Y 17.5234 Z -1.0000 I -0.1410 J 0.3018
G01 X 17.1934 Y 17.5234 Z -1.0000
G00 Z 5.0000

(End cutting path id: path134739)


(Start cutting path id: path134739)
(Change tool to Default tool)

G00 Z 5.0000
G00 X 16.9568 Y 17.9791

G01 Z -1.0000 F 100.0000(Penetrate)
G03 X 16.8242 Y 18.0372 Z -1.0000 I -0.1408 J -0.1408 F 3500.0000
G03 X 16.5763 Y 17.9947 Z -1.0000 I -0.0247 J -0.6001
G01 X 16.5636 Y 17.9330 Z -1.0000
G03 X 16.6962 Y 17.8748 Z -1.0000 I 0.1408 J 0.1408
G03 X 16.9441 Y 17.9173 Z -1.0000 I 0.0247 J 0.6004
G01 X 16.9568 Y 17.9791 Z -1.0000
G01 X 16.9568 Y 17.9791 Z -1.0000
G00 Z 5.0000

(End cutting path id: path134739)


(Start cutting path id: path134739)
(Change tool to Default tool)

G00 Z 5.0000
G00 X 16.2863 Y 17.7651

G01 Z -1.0000 F 100.0000(Penetrate)
G03 X 16.1389 Y 17.9488 Z -1.0000 I -0.3608 J -0.1385 F 3500.0000
G03 X 16.0058 Y 17.9509 Z -1.0000 I -0.0682 J -0.1029
G03 X 15.9190 Y 17.8187 Z -1.0000 I 0.0984 J -0.1593
G03 X 15.9482 Y 17.5561 Z -1.0000 I 0.5167 J -0.0755
G03 X 16.0955 Y 17.3724 Z -1.0000 I 0.3608 J 0.1385
G03 X 16.2286 Y 17.3703 Z -1.0000 I 0.0682 J 0.1029
G03 X 16.3154 Y 17.5025 Z -1.0000 I -0.0984 J 0.1593
G03 X 16.2863 Y 17.7651 Z -1.0000 I -0.5167 J 0.0755
G01 X 16.2863 Y 17.7651 Z -1.0000
G00 Z 5.0000

(End cutting path id: path134739)


(Start cutting path id: path134739)
(Change tool to Default tool)

G00 Z 5.0000
G00 X 14.9162 Y 18.8674

G01 Z -1.0000 F 100.0000(Penetrate)
G03 X 15.0811 Y 18.9252 Z -1.0000 I -0.0114 J 0.2970 F 3500.0000
G01 X 15.0737 Y 18.9836 Z -1.0000
G02 X 14.9382 Y 19.1215 Z -1.0000 I 0.0905 J 0.2246
G02 X 14.9545 Y 19.2947 Z -1.0000 I 0.1830 J 0.0702
G03 X 14.9156 Y 19.3816 Z -1.0000 I -0.0489 J 0.0302
G03 X 14.5392 Y 19.3683 Z -1.0000 I -0.1572 J -0.8864
G02 X 14.1455 Y 19.3705 Z -1.0000 I -0.1926 J 0.7676
G02 X 14.0826 Y 19.4883 Z -1.0000 I 0.0231 J 0.0880
G02 X 14.2415 Y 19.6353 Z -1.0000 I 0.2167 J -0.0749
G02 X 14.8182 Y 19.6799 Z -1.0000 I 0.4126 J -1.5837
G03 X 15.2846 Y 19.7275 Z -1.0000 I 0.1170 J 1.1614
G03 X 15.3263 Y 19.8392 Z -1.0000 I -0.0226 J 0.0720
G03 X 15.1578 Y 19.9795 Z -1.0000 I -0.2935 J -0.1814
G03 X 14.9575 Y 19.9826 Z -1.0000 I -0.1043 J -0.2684
G02 X 14.7280 Y 19.9587 Z -1.0000 I -0.1644 J 0.4655
G02 X 14.2564 Y 20.0758 Z -1.0000 I 0.2890 J 2.1728
G03 X 13.8250 Y 20.1028 Z -1.0000 I -0.2608 J -0.7045
G03 X 13.4957 Y 19.8984 Z -1.0000 I 0.1372 J -0.5883
G02 X 13.3516 Y 19.8164 Z -1.0000 I -0.1793 J 0.1475
G01 X 13.3060 Y 19.8693 Z -1.0000
G03 X 13.2672 Y 20.0815 Z -1.0000 I -0.2229 J 0.0689
G03 X 13.0741 Y 20.1671 Z -1.0000 I -0.1763 J -0.1374
G02 X 12.8486 Y 20.2361 Z -1.0000 I -0.0243 J 0.3232
G02 X 12.7920 Y 20.3903 Z -1.0000 I 0.0976 J 0.1233
G03 X 12.7574 Y 20.5694 Z -1.0000 I -0.2362 J 0.0473
G03 X 12.6297 Y 20.6384 Z -1.0000 I -0.1277 J -0.0835
G03 X 12.5277 Y 20.5547 Z -1.0000 I -0.0000 J -0.1040
G03 X 12.5407 Y 20.1917 Z -1.0000 I 0.7727 J -0.1539
G02 X 12.4860 Y 20.0937 Z -1.0000 I -0.0771 J -0.0212
G02 X 12.3512 Y 20.1364 Z -1.0000 I -0.0356 J 0.1219
G02 X 12.1417 Y 20.5439 Z -1.0000 I 0.9069 J 0.7240
G02 X 12.1542 Y 20.8312 Z -1.0000 I 0.4401 J 0.1248
G03 X 12.1268 Y 20.9151 Z -1.0000 I -0.0657 J 0.0250
G03 X 12.0391 Y 20.9061 Z -1.0000 I -0.0383 J -0.0588
G03 X 11.8714 Y 19.9840 Z -1.0000 I 0.5765 J -0.5812
G03 X 12.6347 Y 19.6055 Z -1.0000 I 0.6153 J 0.2818
G02 X 12.8903 Y 19.5988 Z -1.0000 I 0.1145 J -0.5105
G02 X 13.5794 Y 19.3409 Z -1.0000 I -1.1685 J -4.1724
G02 X 14.0901 Y 18.9487 Z -1.0000 I -0.6565 J -1.3834
G02 X 14.1352 Y 18.6864 Z -1.0000 I -0.1993 J -0.1693
G03 X 14.1646 Y 18.5944 Z -1.0000 I 0.0724 J -0.0276
G03 X 14.2592 Y 18.6036 Z -1.0000 I 0.0417 J 0.0625
G02 X 14.5375 Y 18.7866 Z -1.0000 I 0.5908 J -0.5952
G02 X 14.9162 Y 18.8674 Z -1.0000 I 0.4223 J -1.0515
G01 X 14.9162 Y 18.8674 Z -1.0000
G00 Z 5.0000

(End cutting path id: path134739)


(Start cutting path id: path134739)
(Change tool to Default tool)

G00 Z 5.0000
G00 X 14.8268 Y 20.3816

G01 Z -1.0000 F 100.0000(Penetrate)
G02 X 14.5502 Y 20.5253 Z -1.0000 I 0.4170 J 1.1408 F 3500.0000
G02 X 14.0713 Y 20.9072 Z -1.0000 I 2.6769 J 3.8477
G03 X 13.8025 Y 21.0474 Z -1.0000 I -0.4004 J -0.4397
G01 X 13.7452 Y 20.9812 Z -1.0000
G02 X 13.7666 Y 20.7141 Z -1.0000 I -0.4428 J -0.1699
G02 X 13.6735 Y 20.6384 Z -1.0000 I -0.0931 J 0.0195
G02 X 13.5097 Y 20.6969 Z -1.0000 I 0.0000 J 0.2587
G02 X 13.3701 Y 20.8866 Z -1.0000 I 0.3004 J 0.3672
G01 X 13.3108 Y 20.8980 Z -1.0000
G03 X 13.2543 Y 20.7658 Z -1.0000 I 0.1469 J -0.1409
G03 X 13.3733 Y 20.5622 Z -1.0000 I 0.2178 J -0.0093
G03 X 13.7350 Y 20.5214 Z -1.0000 I 0.2353 J 0.4627
G02 X 14.1487 Y 20.5402 Z -1.0000 I 0.2530 J -1.0079
G02 X 14.2313 Y 20.4437 Z -1.0000 I -0.0151 J -0.0965
G03 X 14.3110 Y 20.3239 Z -1.0000 I 0.1298 J -0.0000
G03 X 14.6779 Y 20.2570 Z -1.0000 I 0.3363 J 0.8050
G03 X 14.8379 Y 20.3183 Z -1.0000 I -0.0092 J 0.2636
G01 X 14.8268 Y 20.3816 Z -1.0000
G01 X 14.8268 Y 20.3816 Z -1.0000
G00 Z 5.0000

(End cutting path id: path134739)


(Start cutting path id: path134739)
(Change tool to Default tool)

G00 Z 5.0000
G00 X 13.5364 Y 21.6310

G01 Z -1.0000 F 100.0000(Penetrate)
G03 X 13.5222 Y 21.7532 Z -1.0000 I -0.0843 J 0.0521 F 3500.0000
G03 X 13.3379 Y 21.8295 Z -1.0000 I -0.1843 J -0.1843
G03 X 13.1536 Y 21.7532 Z -1.0000 I 0.0000 J -0.2606
G03 X 13.1394 Y 21.6310 Z -1.0000 I 0.0701 J -0.0701
G03 X 13.2763 Y 21.4580 Z -1.0000 I 0.8114 J 0.5014
G03 X 13.3379 Y 21.4325 Z -1.0000 I 0.0616 J 0.0616
G03 X 13.3995 Y 21.4580 Z -1.0000 I -0.0000 J 0.0871
G03 X 13.5364 Y 21.6310 Z -1.0000 I -0.6744 J 0.6744
G01 X 13.5364 Y 21.6310 Z -1.0000
G00 Z 5.0000

(End cutting path id: path134739)


(Start cutting path id: path134739)
(Change tool to Default tool)

G00 Z 5.0000
G00 X 14.3801 Y 22.3581

G01 Z -1.0000 F 100.0000(Penetrate)
G02 X 14.6283 Y 22.4062 Z -1.0000 I 0.2482 J -0.6150 F 3500.0000
G02 X 14.8765 Y 22.3581 Z -1.0000 I -0.0000 J -0.6632
G01 X 14.8765 Y 22.3061 Z -1.0000
G02 X 14.6283 Y 22.2579 Z -1.0000 I -0.2482 J 0.6150
G02 X 14.3801 Y 22.3061 Z -1.0000 I -0.0000 J 0.6632
G01 X 14.3801 Y 22.3581 Z -1.0000
G01 X 14.3801 Y 22.3581 Z -1.0000
G00 Z 5.0000

(End cutting path id: path134739)


(Start cutting path id: path134739)
(Change tool to Default tool)

G00 Z 5.0000
G00 X 16.5157 Y 21.4302

G01 Z -1.0000 F 100.0000(Penetrate)
G02 X 16.5399 Y 21.5058 Z -1.0000 I 0.0444 J 0.0275 F 3500.0000
G02 X 16.7025 Y 21.5082 Z -1.0000 I 0.0842 J -0.2016
G02 X 16.8876 Y 21.3321 Z -1.0000 I -0.1193 J -0.3108
G02 X 16.8237 Y 21.2339 Z -1.0000 I -0.0639 J -0.0283
G02 X 16.6630 Y 21.2808 Z -1.0000 I -0.0000 J 0.2991
G02 X 16.5157 Y 21.4302 Z -1.0000 I 0.2527 J 0.3967
G01 X 16.5157 Y 21.4302 Z -1.0000
G00 Z 5.0000

(End cutting path id: path134739)


(Start cutting path id: path134739)
(Change tool to Default tool)

G00 Z 5.0000
G00 X 16.7128 Y 20.2414

G01 Z -1.0000 F 100.0000(Penetrate)
G02 X 16.6998 Y 20.3787 Z -1.0000 I 0.1324 J 0.0818 F 3500.0000
G02 X 16.7886 Y 20.4399 Z -1.0000 I 0.0888 J -0.0339
G02 X 16.9600 Y 20.3912 Z -1.0000 I -0.0000 J -0.3260
G02 X 17.1098 Y 20.2414 Z -1.0000 I -0.2424 J -0.3923
G02 X 17.1228 Y 20.1040 Z -1.0000 I -0.1324 J -0.0818
G02 X 17.0340 Y 20.0429 Z -1.0000 I -0.0888 J 0.0339
G02 X 16.8626 Y 20.0915 Z -1.0000 I -0.0000 J 0.3260
G02 X 16.7128 Y 20.2414 Z -1.0000 I 0.2425 J 0.3923
G01 X 16.7128 Y 20.2414 Z -1.0000
G00 Z 5.0000

(End cutting path id: path134739)


(Start cutting path id: path134739)
(Change tool to Default tool)

G00 Z 5.0000
G00 X 16.5142 Y 19.6458

G01 Z -1.0000 F 100.0000(Penetrate)
G02 X 16.5049 Y 19.7811 Z -1.0000 I 0.1239 J 0.0766 F 3500.0000
G02 X 16.6018 Y 19.8443 Z -1.0000 I 0.0969 J -0.0427
G02 X 16.7522 Y 19.7845 Z -1.0000 I 0.0000 J -0.2191
G02 X 16.8120 Y 19.6458 Z -1.0000 I -0.1310 J -0.1387
G02 X 16.7775 Y 19.4818 Z -1.0000 I -0.4064 J 0.0000
G02 X 16.7245 Y 19.4473 Z -1.0000 I -0.0530 J 0.0234
G02 X 16.6528 Y 19.4758 Z -1.0000 I -0.0000 J 0.1044
G02 X 16.5142 Y 19.6458 Z -1.0000 I 0.5797 J 0.6139
G01 X 16.5142 Y 19.6458 Z -1.0000
G00 Z 5.0000

(End cutting path id: path134739)


(Start cutting path id: path134739)
(Change tool to Default tool)

G00 Z 5.0000
G00 X 18.2991 Y 20.4895

G01 Z -1.0000 F 100.0000(Penetrate)
G02 X 18.2677 Y 21.2494 Z -1.0000 I 1.2050 J 0.4304 F 3500.0000
G02 X 18.5941 Y 21.5964 Z -1.0000 I 0.4851 J -0.1293
G02 X 18.6951 Y 21.5580 Z -1.0000 I 0.0270 J -0.0810
G02 X 18.6930 Y 21.4245 Z -1.0000 I -0.1129 J -0.0650
G03 X 18.7056 Y 21.3090 Z -1.0000 I 0.0804 J -0.0497
G03 X 18.8323 Y 21.2811 Z -1.0000 I 0.0845 J 0.0820
G02 X 19.5124 Y 21.2612 Z -1.0000 I 0.3162 J -0.8241
G02 X 19.5696 Y 20.9475 Z -1.0000 I -0.0799 J -0.1766
G02 X 19.4423 Y 20.8764 Z -1.0000 I -0.1895 J 0.1895
G02 X 18.9257 Y 20.7938 Z -1.0000 I -0.8013 J 3.3564
G03 X 18.5391 Y 20.6567 Z -1.0000 I 0.0662 J -0.8003
G03 X 18.4887 Y 20.4955 Z -1.0000 I 0.0768 J -0.1124
G02 X 18.5276 Y 20.2817 Z -1.0000 I -0.5468 J -0.2098
G01 X 18.4870 Y 20.2414 Z -1.0000
G02 X 18.4135 Y 20.2779 Z -1.0000 I -0.0000 J 0.0922
G02 X 18.2992 Y 20.4895 Z -1.0000 I 0.6311 J 0.4779
G01 X 18.2991 Y 20.4895 Z -1.0000
G00 Z 5.0000

(End cutting path id: path134739)


(Start cutting path id: path134739)
(Change tool to Default tool)

G00 Z 5.0000
G00 X 20.0735 Y 20.6613

G01 Z -1.0000 F 100.0000(Penetrate)
G02 X 20.1033 Y 20.7598 Z -1.0000 I 0.0584 J 0.0361 F 3500.0000
G02 X 20.4567 Y 20.8369 Z -1.0000 I 0.3534 J -0.7712
G03 X 21.2880 Y 21.0818 Z -1.0000 I 0.0000 J 1.5337
G03 X 21.3785 Y 21.4315 Z -1.0000 I -0.1445 J 0.2240
G02 X 21.3182 Y 21.7623 Z -1.0000 I 0.4847 J 0.2594
G02 X 21.4542 Y 22.0089 Z -1.0000 I 0.3824 J -0.0501
G02 X 21.5811 Y 21.9938 Z -1.0000 I 0.0563 J -0.0678
G02 X 21.6326 Y 21.7696 Z -1.0000 I -0.2290 J -0.1706
G03 X 21.6567 Y 21.3493 Z -1.0000 I 0.8483 J -0.1622
G03 X 21.8583 Y 21.0487 Z -1.0000 I 0.6095 J 0.1909
G02 X 22.1185 Y 20.7631 Z -1.0000 I -0.8890 J -1.0712
G02 X 22.1721 Y 20.5898 Z -1.0000 I -0.2536 J -0.1734
G02 X 22.1070 Y 20.5300 Z -1.0000 I -0.0601 J 0.0000
G02 X 21.9057 Y 20.6124 Z -1.0000 I 0.0307 J 0.3619
G03 X 21.6434 Y 20.7438 Z -1.0000 I -0.4139 J -0.4987
G03 X 21.5127 Y 20.7069 Z -1.0000 I -0.0325 J -0.1350
G02 X 20.6688 Y 20.3416 Z -1.0000 I -0.8835 J 0.8835
G02 X 20.0735 Y 20.6613 Z -1.0000 I -0.0214 J 0.6744
G01 X 20.0735 Y 20.6613 Z -1.0000
G00 Z 5.0000

(End cutting path id: path134739)


(Start cutting path id: path134739)
(Change tool to Default tool)

G00 Z 5.0000
G00 X 20.3482 Y 21.3696

G01 Z -1.0000 F 100.0000(Penetrate)
G02 X 20.5961 Y 21.4120 Z -1.0000 I 0.2231 J -0.5576 F 3500.0000
G02 X 20.7287 Y 21.3539 Z -1.0000 I -0.0082 J -0.1990
G01 X 20.7160 Y 21.2921 Z -1.0000
G02 X 20.4681 Y 21.2496 Z -1.0000 I -0.2232 J 0.5577
G02 X 20.3355 Y 21.3078 Z -1.0000 I 0.0082 J 0.1989
G01 X 20.3482 Y 21.3696 Z -1.0000
G01 X 20.3482 Y 21.3696 Z -1.0000
G00 Z 5.0000

(End cutting path id: path134739)


(Start cutting path id: path134739)
(Change tool to Default tool)

G00 Z 5.0000
G00 X 22.6811 Y 22.2848

G01 Z -1.0000 F 100.0000(Penetrate)
G02 X 22.8404 Y 22.5298 Z -1.0000 I 0.6470 J -0.2464 F 3500.0000
G02 X 22.9278 Y 22.5296 Z -1.0000 I 0.0436 J -0.0439
G02 X 22.9516 Y 22.4187 Z -1.0000 I -0.0738 J -0.0738
G02 X 22.7923 Y 22.1736 Z -1.0000 I -0.6470 J 0.2464
G02 X 22.7049 Y 22.1738 Z -1.0000 I -0.0436 J 0.0439
G02 X 22.6811 Y 22.2848 Z -1.0000 I 0.0738 J 0.0738
G01 X 22.6811 Y 22.2848 Z -1.0000
G00 Z 5.0000

(End cutting path id: path134739)


(Start cutting path id: path134739)
(Change tool to Default tool)

G00 Z 5.0000
G00 X 24.5543 Y 22.4251

G01 Z -1.0000 F 100.0000(Penetrate)
G02 X 24.6125 Y 22.5655 Z -1.0000 I 0.1985 J 0.0000 F 3500.0000
G02 X 24.7528 Y 22.6236 Z -1.0000 I 0.1404 J -0.1404
G02 X 24.8932 Y 22.5655 Z -1.0000 I 0.0000 J -0.1985
G02 X 24.9514 Y 22.4251 Z -1.0000 I -0.1404 J -0.1404
G02 X 24.8932 Y 22.2847 Z -1.0000 I -0.1985 J 0.0000
G02 X 24.7528 Y 22.2266 Z -1.0000 I -0.1404 J 0.1404
G02 X 24.6125 Y 22.2847 Z -1.0000 I -0.0000 J 0.1985
G02 X 24.5543 Y 22.4251 Z -1.0000 I 0.1404 J 0.1404
G01 X 24.5543 Y 22.4251 Z -1.0000
G00 Z 5.0000

(End cutting path id: path134739)


(Start cutting path id: path134739)
(Change tool to Default tool)

G00 Z 5.0000
G00 X 25.0520 Y 22.8199

G01 Z -1.0000 F 100.0000(Penetrate)
G02 X 25.0763 Y 22.8955 Z -1.0000 I 0.0444 J 0.0275 F 3500.0000
G02 X 25.2388 Y 22.8979 Z -1.0000 I 0.0842 J -0.2016
G02 X 25.4240 Y 22.7217 Z -1.0000 I -0.1193 J -0.3108
G02 X 25.3601 Y 22.6236 Z -1.0000 I -0.0639 J -0.0283
G02 X 25.1994 Y 22.6705 Z -1.0000 I 0.0000 J 0.2991
G02 X 25.0520 Y 22.8199 Z -1.0000 I 0.2527 J 0.3967
G01 X 25.0520 Y 22.8199 Z -1.0000
G00 Z 5.0000

(End cutting path id: path134739)


(Start cutting path id: path134739)
(Change tool to Default tool)

G00 Z 5.0000
G00 X 25.7455 Y 22.7844

G01 Z -1.0000 F 100.0000(Penetrate)
G02 X 25.8149 Y 22.9207 Z -1.0000 I 0.1685 J 0.0000 F 3500.0000
G02 X 26.1538 Y 23.0811 Z -1.0000 I 0.5950 J -0.8190
G02 X 26.4322 Y 23.0662 Z -1.0000 I 0.1158 J -0.4429
G02 X 26.4848 Y 22.9554 Z -1.0000 I -0.0315 J -0.0828
G02 X 26.0398 Y 22.5504 Z -1.0000 I -0.5836 J 0.1943
G02 X 25.7455 Y 22.7844 Z -1.0000 I -0.0541 J 0.2340
G01 X 25.7455 Y 22.7844 Z -1.0000
G00 Z 5.0000

(End cutting path id: path134739)


(Start cutting path id: path134739)
(Change tool to Default tool)

G00 Z 5.0000
G00 X 29.4406 Y 22.5372

G01 Z -1.0000 F 100.0000(Penetrate)
G02 X 29.4107 Y 22.7719 Z -1.0000 I 0.4659 J 0.1788 F 3500.0000
G02 X 29.4789 Y 22.8760 Z -1.0000 I 0.1373 J -0.0155
G01 X 29.4742 Y 22.8978 Z -1.0000
G03 X 29.3522 Y 22.8889 Z -1.0000 I -0.0356 J -0.3513
G02 X 29.0857 Y 22.8392 Z -1.0000 I -0.5284 J 2.0938
G02 X 28.8063 Y 22.8221 Z -1.0000 I -0.2794 J 2.2867
G03 X 28.6207 Y 22.7305 Z -1.0000 I -0.0000 J -0.2337
G03 X 28.5404 Y 22.4747 Z -1.0000 I 0.3111 J -0.2381
G03 X 28.5960 Y 22.3608 Z -1.0000 I 0.1594 J 0.0072
G01 X 28.6562 Y 22.3755 Z -1.0000
G02 X 28.8051 Y 22.5513 Z -1.0000 I 0.3405 J -0.1374
G02 X 29.0619 Y 22.6236 Z -1.0000 I 0.2568 J -0.4197
G02 X 29.1718 Y 22.5318 Z -1.0000 I 0.0000 J -0.1117
G02 X 29.1165 Y 22.3213 Z -1.0000 I -0.2537 J -0.0458
G03 X 29.1012 Y 22.1879 Z -1.0000 I 0.0946 J -0.0785
G03 X 29.2029 Y 22.1484 Z -1.0000 I 0.0726 J 0.0363
G03 X 29.4217 Y 22.3306 Z -1.0000 I -0.1584 J 0.4129
G03 X 29.4406 Y 22.5372 Z -1.0000 I -0.2003 J 0.1225
G01 X 29.4406 Y 22.5372 Z -1.0000
G00 Z 5.0000

(End cutting path id: path134739)


(Start cutting path id: path134739)
(Change tool to Default tool)

G00 Z 5.0000
G00 X 31.7011 Y 22.1486

G01 Z -1.0000 F 100.0000(Penetrate)
G01 X 31.6657 Y 22.1913 Z -1.0000 F 3500.0000
G03 X 31.2923 Y 22.2266 Z -1.0000 I -0.3734 J -1.9565
G03 X 31.0256 Y 22.1474 Z -1.0000 I 0.0000 J -0.4886
G03 X 31.0009 Y 22.0367 Z -1.0000 I 0.0443 J -0.0680
G03 X 31.4358 Y 21.8376 Z -1.0000 I 0.3669 J 0.2268
G03 X 31.7011 Y 22.1486 Z -1.0000 I -0.0497 J 0.3110
G01 X 31.7011 Y 22.1486 Z -1.0000
G00 Z 5.0000

(End cutting path id: path134739)


(Start cutting path id: path134739)
(Change tool to Default tool)

G00 Z 5.0000
G00 X 33.0712 Y 21.5551

G01 Z -1.0000 F 100.0000(Penetrate)
G01 X 33.0594 Y 21.5883 Z -1.0000 F 3500.0000
G03 X 32.2420 Y 21.5855 Z -1.0000 I -0.3736 J -10.1966
G03 X 31.4699 Y 21.4736 Z -1.0000 I 0.1692 J -3.8880
G03 X 31.4333 Y 21.3839 Z -1.0000 I 0.0145 J -0.0582
G03 X 32.0202 Y 21.0957 Z -1.0000 I 0.5229 J 0.3231
G03 X 33.0712 Y 21.5551 Z -1.0000 I -0.1970 J 1.8824
G01 X 33.0712 Y 21.5551 Z -1.0000
G00 Z 5.0000

(End cutting path id: path134739)


(Start cutting path id: path134739)
(Change tool to Default tool)

G00 Z 5.0000
G00 X 36.2174 Y 21.8084

G01 Z -1.0000 F 100.0000(Penetrate)
G02 X 35.9979 Y 22.2337 Z -1.0000 I 0.5729 J 0.5650 F 3500.0000
G02 X 36.1181 Y 22.3718 Z -1.0000 I 0.1159 J 0.0204
G03 X 36.7691 Y 22.5781 Z -1.0000 I 0.0376 J 1.0114
G03 X 36.9366 Y 22.9954 Z -1.0000 I -0.2659 J 0.3490
G02 X 37.0031 Y 23.4634 Z -1.0000 I 0.7963 J 0.1255
G02 X 37.2543 Y 23.6723 Z -1.0000 I 0.3486 J -0.1636
G02 X 37.6038 Y 23.6460 Z -1.0000 I 0.1365 J -0.5219
G02 X 37.8578 Y 23.4128 Z -1.0000 I -0.2061 J -0.4794
G02 X 37.9632 Y 22.7983 Z -1.0000 I -0.8698 J -0.4655
G02 X 37.6432 Y 22.0091 Z -1.0000 I -1.8189 J 0.2781
G02 X 36.9210 Y 21.5703 Z -1.0000 I -0.8713 J 0.6204
G02 X 36.2174 Y 21.8084 Z -1.0000 I -0.1152 J 0.8183
G01 X 36.2174 Y 21.8084 Z -1.0000
G00 Z 5.0000

(End cutting path id: path134739)


(Start cutting path id: path134739)
(Change tool to Default tool)

G00 Z 5.0000
G00 X 32.4808 Y 24.7255

G01 Z -1.0000 F 100.0000(Penetrate)
G02 X 32.4715 Y 24.9081 Z -1.0000 I 0.1175 J 0.0975 F 3500.0000
G02 X 32.8076 Y 25.2123 Z -1.0000 I 0.7788 J -0.5229
G02 X 33.3092 Y 25.3471 Z -1.0000 I 0.5402 J -1.0094
G02 X 33.6992 Y 25.2424 Z -1.0000 I 0.0234 J -0.6918
G03 X 33.9751 Y 25.1564 Z -1.0000 I 0.3018 J 0.4833
G03 X 34.0344 Y 25.2271 Z -1.0000 I 0.0026 J 0.0580
G02 X 34.0604 Y 25.4111 Z -1.0000 I 0.2574 J 0.0575
G02 X 34.2018 Y 25.5334 Z -1.0000 I 0.2344 J -0.1281
G02 X 34.3300 Y 25.4815 Z -1.0000 I 0.0357 J -0.0961
G02 X 34.4358 Y 25.0432 Z -1.0000 I -0.9829 J -0.4692
G02 X 34.2420 Y 24.6806 Z -1.0000 I -0.4141 J -0.0118
G02 X 33.5561 Y 24.4909 Z -1.0000 I -0.6600 J 1.0512
G02 X 32.7000 Y 24.5922 Z -1.0000 I 0.0928 J 4.4503
G02 X 32.4808 Y 24.7255 Z -1.0000 I 0.0840 J 0.3850
G01 X 32.4808 Y 24.7255 Z -1.0000
G00 Z 5.0000

(End cutting path id: path134739)


(Start cutting path id: path134739)
(Change tool to Default tool)

G00 Z 5.0000
G00 X 31.7044 Y 25.7979

G01 Z -1.0000 F 100.0000(Penetrate)
G02 X 31.6707 Y 25.9398 Z -1.0000 I 0.0543 J 0.0879 F 3500.0000
G02 X 31.9991 Y 26.2782 Z -1.0000 I 0.9201 J -0.5646
G02 X 32.3722 Y 26.2998 Z -1.0000 I 0.2053 J -0.3134
G02 X 32.4015 Y 26.0766 Z -1.0000 I -0.0608 J -0.1215
G02 X 31.9195 Y 25.7792 Z -1.0000 I -1.0945 J 1.2344
G02 X 31.7044 Y 25.7979 Z -1.0000 I -0.0890 J 0.2227
G01 X 31.7044 Y 25.7979 Z -1.0000
G00 Z 5.0000

(End cutting path id: path134739)


(Start cutting path id: path134739)
(Change tool to Default tool)

G00 Z 5.0000
G00 X 30.5099 Y 26.3955

G01 Z -1.0000 F 100.0000(Penetrate)
G02 X 30.5681 Y 26.5359 Z -1.0000 I 0.1985 J 0.0000 F 3500.0000
G02 X 30.7085 Y 26.5940 Z -1.0000 I 0.1404 J -0.1404
G02 X 30.8488 Y 26.5359 Z -1.0000 I -0.0000 J -0.1985
G02 X 30.9070 Y 26.3955 Z -1.0000 I -0.1404 J -0.1404
G02 X 30.8488 Y 26.2551 Z -1.0000 I -0.1985 J 0.0000
G02 X 30.7085 Y 26.1970 Z -1.0000 I -0.1404 J 0.1404
G02 X 30.5681 Y 26.2551 Z -1.0000 I 0.0000 J 0.1985
G02 X 30.5099 Y 26.3955 Z -1.0000 I 0.1404 J 0.1404
G01 X 30.5099 Y 26.3955 Z -1.0000
G00 Z 5.0000

(End cutting path id: path134739)


(Start cutting path id: path134739)
(Change tool to Default tool)

G00 Z 5.0000
G00 X 25.4808 Y 18.7856

G01 Z -1.0000 F 100.0000(Penetrate)
G02 X 25.3665 Y 19.1042 Z -1.0000 I 0.2804 J 0.2804 F 3500.0000
G02 X 25.5257 Y 19.2488 Z -1.0000 I 0.1592 J -0.0154
G02 X 25.6632 Y 19.1909 Z -1.0000 I 0.0000 J -0.1925
G02 X 25.8172 Y 18.9510 Z -1.0000 I -0.5023 J -0.4918
G02 X 25.7358 Y 18.7433 Z -1.0000 I -0.1544 J -0.0593
G02 X 25.4808 Y 18.7856 Z -1.0000 I -0.0980 J 0.1993
G01 X 25.4808 Y 18.7856 Z -1.0000
G00 Z 5.0000

(End cutting path id: path134739)


(Start cutting path id: path134739)
(Change tool to Default tool)

G00 Z 5.0000
G00 X 26.2622 Y 18.0978

G01 Z -1.0000 F 100.0000(Penetrate)
G02 X 26.1985 Y 18.3785 Z -1.0000 I 0.0946 J 0.1690 F 3500.0000
G02 X 26.5844 Y 18.5547 Z -1.0000 I 0.3439 J -0.2426
G03 X 26.6901 Y 18.5691 Z -1.0000 I 0.0228 J 0.2275
G01 X 26.6884 Y 18.5951 Z -1.0000
G02 X 26.6190 Y 18.8018 Z -1.0000 I 0.0309 J 0.1254
G02 X 26.9862 Y 18.9629 Z -1.0000 I 0.3395 J -0.2749
G02 X 27.5314 Y 18.8441 Z -1.0000 I -0.1173 J -1.8488
G02 X 27.5955 Y 18.7295 Z -1.0000 I -0.0367 J -0.0957
G03 X 27.6499 Y 18.6066 Z -1.0000 I 0.1169 J -0.0218
G03 X 27.9552 Y 18.5073 Z -1.0000 I 0.3562 J 0.5766
G03 X 28.0265 Y 18.6036 Z -1.0000 I 0.0053 J 0.0706
G03 X 27.7976 Y 18.9126 Z -1.0000 I -0.6798 J -0.2643
G03 X 27.2243 Y 19.2575 Z -1.0000 I -1.6605 J -2.1110
G03 X 26.9616 Y 19.2827 Z -1.0000 I -0.1692 J -0.3822
G02 X 26.8986 Y 19.3395 Z -1.0000 I -0.0116 J 0.0505
G02 X 26.9920 Y 19.5310 Z -1.0000 I 0.3246 J -0.0397
G02 X 27.3262 Y 19.7938 Z -1.0000 I 1.2649 J -1.2649
G02 X 27.5062 Y 19.8443 Z -1.0000 I 0.1801 J -0.2956
G03 X 27.6823 Y 19.8891 Z -1.0000 I -0.0000 J 0.3684
G03 X 27.8090 Y 20.0090 Z -1.0000 I -0.1624 J 0.2986
G03 X 27.6653 Y 20.2250 Z -1.0000 I -0.1214 J 0.0750
G03 X 26.8539 Y 19.8581 Z -1.0000 I 0.2624 J -1.6609
G02 X 26.5917 Y 19.7084 Z -1.0000 I -0.5574 J 0.6716
G01 X 26.5395 Y 19.7451 Z -1.0000
G01 X 26.4881 Y 19.7834 Z -1.0000
G03 X 26.2611 Y 19.6618 Z -1.0000 I 0.1846 J -0.6176
G02 X 26.0244 Y 19.5854 Z -1.0000 I -0.2140 J 0.2578
G02 X 25.8888 Y 19.6872 Z -1.0000 I 0.0106 J 0.1552
G03 X 25.7575 Y 19.7851 Z -1.0000 I -0.1405 J -0.0514
G03 X 25.5448 Y 19.7082 Z -1.0000 I -0.0174 J -0.2845
G02 X 25.2968 Y 19.6234 Z -1.0000 I -0.2177 J 0.2314
G02 X 25.0077 Y 19.7597 Z -1.0000 I 0.0451 J 0.4705
G03 X 24.7081 Y 19.9374 Z -1.0000 I -0.4977 J -0.4977
G03 X 24.4985 Y 19.9091 Z -1.0000 I -0.0731 J -0.2492
G03 X 24.4394 Y 19.7907 Z -1.0000 I 0.0660 J -0.1069
G03 X 24.5187 Y 19.6908 Z -1.0000 I 0.1161 J 0.0107
G02 X 24.7154 Y 19.5564 Z -1.0000 I -0.1376 J -0.4126
G02 X 25.0487 Y 19.0539 Z -1.0000 I -2.1413 J -1.7822
G02 X 25.1071 Y 18.5982 Z -1.0000 I -0.5953 J -0.3078
G02 X 24.8957 Y 18.3770 Z -1.0000 I -0.2901 J 0.0656
G03 X 24.8733 Y 18.1615 Z -1.0000 I 0.0307 J -0.1121
G03 X 25.7532 Y 17.9367 Z -1.0000 I 0.9328 J 1.8167
G03 X 26.2529 Y 18.0073 Z -1.0000 I 0.0395 J 1.5247
G01 X 26.2622 Y 18.0978 Z -1.0000
G01 X 26.2622 Y 18.0978 Z -1.0000
G00 Z 5.0000

(End cutting path id: path134739)


(Start cutting path id: path134739)
(Change tool to Default tool)

G00 Z 5.0000
G00 X 25.9164 Y 17.2423

G01 Z -1.0000 F 100.0000(Penetrate)
G03 X 25.9139 Y 17.3513 Z -1.0000 I -0.0340 J 0.0537 F 3500.0000
G03 X 25.4697 Y 17.4972 Z -1.0000 I -0.5798 J -1.0161
G03 X 25.3124 Y 17.3282 Z -1.0000 I -0.0166 J -0.1423
G03 X 25.5469 Y 17.0911 Z -1.0000 I 0.2935 J 0.0558
G03 X 25.6408 Y 17.1001 Z -1.0000 I 0.0322 J 0.1598
G03 X 25.9164 Y 17.2423 Z -1.0000 I -0.6672 J 1.6303
G01 X 25.9164 Y 17.2423 Z -1.0000
G00 Z 5.0000

(End cutting path id: path134739)


(Start cutting path id: path134739)
(Change tool to Default tool)

G00 Z 5.0000
G00 X 24.5543 Y 16.3585

G01 Z -1.0000 F 100.0000(Penetrate)
G03 X 24.3630 Y 16.5991 Z -1.0000 I -0.2469 J 0.0000 F 3500.0000
G03 X 24.0600 Y 16.4727 Z -1.0000 I -0.0634 J -0.2744
G03 X 24.0719 Y 16.3471 Z -1.0000 I 0.0890 J -0.0550
G03 X 24.2448 Y 16.2710 Z -1.0000 I 0.1730 J 0.1584
G03 X 24.5166 Y 16.3087 Z -1.0000 I -0.0000 J 0.9987
G03 X 24.5543 Y 16.3585 Z -1.0000 I -0.0141 J 0.0498
G01 X 24.5543 Y 16.3585 Z -1.0000
G00 Z 5.0000

(End cutting path id: path134739)


(Start cutting path id: path134739)
(Change tool to Default tool)

G00 Z 5.0000
G00 X 23.4709 Y 16.8528

G01 Z -1.0000 F 100.0000(Penetrate)
G02 X 23.5974 Y 17.1197 Z -1.0000 I 0.1496 J 0.0925 F 3500.0000
G02 X 24.2904 Y 16.9618 Z -1.0000 I 0.1344 J -1.0104
G03 X 24.4280 Y 16.9851 Z -1.0000 I 0.0562 J 0.0858
G03 X 24.4306 Y 17.1440 Z -1.0000 I -0.1055 J 0.0812
G03 X 24.0062 Y 17.5127 Z -1.0000 I -0.9918 J -0.7131
G03 X 23.6610 Y 17.5478 Z -1.0000 I -0.2163 J -0.4124
G02 X 23.2611 Y 17.4490 Z -1.0000 I -1.4791 J 5.1320
G02 X 23.0158 Y 17.4146 Z -1.0000 I -0.3906 J 1.8932
G03 X 22.7991 Y 17.3668 Z -1.0000 I 0.0589 J -0.7812
G01 X 22.7676 Y 17.3214 Z -1.0000
G03 X 22.7886 Y 17.2547 Z -1.0000 I 0.1166 J 0.0000
G03 X 23.0158 Y 16.9650 Z -1.0000 I 2.6594 J 1.8516
G03 X 23.3881 Y 16.7391 Z -1.0000 I 0.5466 J 0.4812
G03 X 23.4709 Y 16.8528 Z -1.0000 I 0.0182 J 0.0738
G01 X 23.4709 Y 16.8528 Z -1.0000
G00 Z 5.0000

(End cutting path id: path134739)


(Start cutting path id: path134739)
(Change tool to Default tool)

G00 Z 5.0000
G00 X 22.4840 Y 16.5546

G01 Z -1.0000 F 100.0000(Penetrate)
G03 X 22.6509 Y 16.9227 Z -1.0000 I -0.4058 J 0.4058 F 3500.0000
G03 X 22.5176 Y 17.0650 Z -1.0000 I -0.1333 J 0.0088
G03 X 22.3082 Y 16.9918 Z -1.0000 I -0.0000 J -0.3359
G03 X 22.0196 Y 16.6680 Z -1.0000 I 0.8004 J -1.0038
G03 X 22.1086 Y 16.4495 Z -1.0000 I 0.1235 J -0.0771
G03 X 22.4840 Y 16.5546 Z -1.0000 I 0.0943 J 0.3862
G01 X 22.4840 Y 16.5546 Z -1.0000
G00 Z 5.0000

(End cutting path id: path134739)


(Start cutting path id: path134739)
(Change tool to Default tool)

G00 Z 5.0000
G00 X 22.1066 Y 15.6313

G01 Z -1.0000 F 100.0000(Penetrate)
G02 X 22.4724 Y 15.6921 Z -1.0000 I 0.6848 J -2.9927 F 3500.0000
G02 X 22.9165 Y 15.7159 Z -1.0000 I 0.4587 J -4.3912
G03 X 23.2910 Y 15.7894 Z -1.0000 I -0.0033 J 1.0085
G03 X 23.3632 Y 15.8964 Z -1.0000 I -0.0432 J 0.1070
G03 X 23.2823 Y 15.9897 Z -1.0000 I -0.0943 J 0.0000
G03 X 22.4700 Y 16.0243 Z -1.0000 I -0.5790 J -4.0439
G03 X 21.6378 Y 15.9155 Z -1.0000 I 0.3293 J -5.7555
G03 X 21.5766 Y 15.8405 Z -1.0000 I 0.0154 J -0.0750
G02 X 21.5613 Y 15.7103 Z -1.0000 I -0.5646 J 0.0005
G02 X 21.4585 Y 15.3442 Z -1.0000 I -4.6164 J 1.0984
G03 X 21.4801 Y 15.2585 Z -1.0000 I 0.0791 J -0.0257
G01 X 21.5419 Y 15.2644 Z -1.0000
G02 X 21.7801 Y 15.4931 Z -1.0000 I 0.7178 J -0.5093
G02 X 22.1066 Y 15.6313 Z -1.0000 I 0.5527 J -0.8505
G01 X 22.1066 Y 15.6313 Z -1.0000
G00 Z 5.0000

(End cutting path id: path134739)


(Start cutting path id: path134739)
(Change tool to Default tool)

G00 Z 5.0000
G00 X 22.7022 Y 17.5780

G01 Z -1.0000 F 100.0000(Penetrate)
G02 X 22.8389 Y 17.7219 Z -1.0000 I 0.2417 J -0.0928 F 3500.0000
G02 X 22.9494 Y 17.6877 Z -1.0000 I 0.0357 J -0.0804
G03 X 23.1018 Y 17.5927 Z -1.0000 I 0.1722 J 0.1064
G03 X 23.3442 Y 17.6489 Z -1.0000 I 0.0381 J 0.3869
G03 X 23.4971 Y 17.8420 Z -1.0000 I -0.1900 J 0.3074
G03 X 23.4742 Y 18.0387 Z -1.0000 I -0.2216 J 0.0739
G03 X 23.3112 Y 18.1586 Z -1.0000 I -0.2302 J -0.1423
G03 X 23.1203 Y 18.1295 Z -1.0000 I -0.0613 J -0.2388
G02 X 23.0507 Y 18.1422 Z -1.0000 I -0.0277 J 0.0449
G02 X 23.0465 Y 18.2255 Z -1.0000 I 0.0582 J 0.0447
G03 X 23.0638 Y 18.3854 Z -1.0000 I -0.1588 J 0.0982
G03 X 22.9662 Y 18.4547 Z -1.0000 I -0.0977 J -0.0342
G02 X 22.8654 Y 18.5223 Z -1.0000 I -0.0000 J 0.1089
G02 X 22.8776 Y 18.6705 Z -1.0000 I 0.1515 J 0.0622
G02 X 23.0264 Y 18.7535 Z -1.0000 I 0.1488 J -0.0920
G02 X 23.2268 Y 18.6705 Z -1.0000 I -0.0000 J -0.2833
G03 X 23.4504 Y 18.6505 Z -1.0000 I 0.1237 J 0.1237
G03 X 23.4722 Y 18.8410 Z -1.0000 I -0.0728 J 0.1048
G02 X 23.3929 Y 19.0950 Z -1.0000 I 0.2351 J 0.2128
G02 X 23.5189 Y 19.1974 Z -1.0000 I 0.1171 J -0.0153
G02 X 23.7857 Y 19.0856 Z -1.0000 I -0.0344 J -0.4563
G02 X 23.8242 Y 18.9305 Z -1.0000 I -0.0919 J -0.1051
G03 X 23.8232 Y 18.7237 Z -1.0000 I 0.2727 J -0.1046
G03 X 23.9664 Y 18.5492 Z -1.0000 I 0.3264 J 0.1218
G02 X 24.0443 Y 18.4051 Z -1.0000 I -0.0864 J -0.1398
G02 X 23.9587 Y 18.2562 Z -1.0000 I -0.1805 J 0.0047
G03 X 23.8688 Y 18.1073 Z -1.0000 I 0.1002 J -0.1621
G03 X 23.9389 Y 17.9706 Z -1.0000 I 0.1482 J -0.0103
G03 X 24.1132 Y 17.9712 Z -1.0000 I 0.0867 J 0.1403
G03 X 24.2952 Y 18.1940 Z -1.0000 I -0.2387 J 0.3808
G02 X 24.4737 Y 18.5215 Z -1.0000 I 1.2541 J -0.4709
G02 X 24.7280 Y 18.7769 Z -1.0000 I 1.0045 J -0.7457
G03 X 24.7808 Y 18.9584 Z -1.0000 I -0.0943 J 0.1258
G03 X 24.5914 Y 19.1377 Z -1.0000 I -0.2799 J -0.1060
G02 X 24.2340 Y 19.3317 Z -1.0000 I 0.3261 J 1.0275
G02 X 24.1572 Y 19.4938 Z -1.0000 I 0.1329 J 0.1621
G03 X 24.1064 Y 19.5891 Z -1.0000 I -0.1149 J 0.0000
G03 X 24.0266 Y 19.5814 Z -1.0000 I -0.0351 J -0.0524
G02 X 23.8918 Y 19.5415 Z -1.0000 I -0.1040 J 0.1040
G02 X 23.6383 Y 19.6646 Z -1.0000 I 0.1239 J 0.5778
G03 X 23.2021 Y 19.7199 Z -1.0000 I -0.2615 J -0.3150
G03 X 22.9661 Y 19.3476 Z -1.0000 I 0.1756 J -0.3723
G02 X 22.8875 Y 19.1136 Z -1.0000 I -0.3875 J 0.0000
G02 X 22.5195 Y 18.7581 Z -1.0000 I -1.3264 J 1.0051
G03 X 22.2821 Y 18.4493 Z -1.0000 I 0.3773 J -0.5357
G03 X 22.3414 Y 18.2758 Z -1.0000 I 0.1363 J -0.0503
G02 X 22.4657 Y 18.0696 Z -1.0000 I -0.1406 J -0.2253
G02 X 22.3841 Y 17.6858 Z -1.0000 I -0.7037 J -0.0509
G03 X 22.2922 Y 17.3439 Z -1.0000 I 0.6882 J -0.3683
G03 X 22.3698 Y 17.2636 Z -1.0000 I 0.0776 J -0.0026
G03 X 22.5361 Y 17.3297 Z -1.0000 I -0.0000 J 0.2419
G03 X 22.7022 Y 17.5780 Z -1.0000 I -0.4633 J 0.4898
G01 X 22.7022 Y 17.5780 Z -1.0000
G00 Z 5.0000

(End cutting path id: path134739)


(Start cutting path id: path134739)
(Change tool to Default tool)

G00 Z 5.0000
G00 X 24.0419 Y 13.9584

G01 Z -1.0000 F 100.0000(Penetrate)
G03 X 23.8772 Y 14.1649 Z -1.0000 I -0.4082 J -0.1566 F 3500.0000
G03 X 23.7298 Y 14.1677 Z -1.0000 I -0.0758 J -0.1131
G03 X 23.6646 Y 14.0319 Z -1.0000 I 0.0734 J -0.1188
G03 X 23.7789 Y 13.7670 Z -1.0000 I 0.5085 J 0.0623
G03 X 23.9779 Y 13.7421 Z -1.0000 I 0.1128 J 0.0936
G03 X 24.0419 Y 13.9584 Z -1.0000 I -0.1091 J 0.1499
G01 X 24.0419 Y 13.9584 Z -1.0000
G00 Z 5.0000

(End cutting path id: path134739)


(Start cutting path id: path134739)
(Change tool to Default tool)

G00 Z 5.0000
G00 X 25.0506 Y 12.1020

G01 Z -1.0000 F 100.0000(Penetrate)
G03 X 25.0600 Y 12.2374 Z -1.0000 I -0.1239 J 0.0766 F 3500.0000
G03 X 24.9631 Y 12.3005 Z -1.0000 I -0.0969 J -0.0427
G03 X 24.8127 Y 12.2407 Z -1.0000 I 0.0000 J -0.2191
G03 X 24.7529 Y 12.1020 Z -1.0000 I 0.1310 J -0.1387
G03 X 24.7874 Y 11.9381 Z -1.0000 I 0.4064 J -0.0000
G03 X 24.8404 Y 11.9035 Z -1.0000 I 0.0530 J 0.0234
G03 X 24.9121 Y 11.9320 Z -1.0000 I 0.0000 J 0.1044
G03 X 25.0506 Y 12.1020 Z -1.0000 I -0.5799 J 0.6141
G01 X 25.0506 Y 12.1020 Z -1.0000
G00 Z 5.0000

(End cutting path id: path134739)


(Start cutting path id: path134739)
(Change tool to Default tool)

G00 Z 5.0000
G00 X 24.3498 Y 9.2118

G01 Z -1.0000 F 100.0000(Penetrate)
G03 X 24.2740 Y 9.3474 Z -1.0000 I -0.1635 J -0.0024 F 3500.0000
G03 X 24.1753 Y 9.3227 Z -1.0000 I -0.0376 J -0.0592
G03 X 24.0308 Y 9.0151 Z -1.0000 I 1.9553 J -1.1062
G03 X 23.8732 Y 8.5287 Z -1.0000 I 4.7542 J -1.8082
G03 X 23.9244 Y 8.3972 Z -1.0000 I 0.1150 J -0.0310
G03 X 24.0477 Y 8.4177 Z -1.0000 I 0.0502 J 0.0790
G03 X 24.2822 Y 8.8283 Z -1.0000 I -1.1924 J 0.9533
G03 X 24.3498 Y 9.2118 Z -1.0000 I -0.9682 J 0.3682
G01 X 24.3498 Y 9.2118 Z -1.0000
G00 Z 5.0000

(End cutting path id: path134739)


(Start cutting path id: path134739)
(Change tool to Default tool)

G00 Z 5.0000
G00 X 24.1573 Y 6.6544

G01 Z -1.0000 F 100.0000(Penetrate)
G03 X 24.0812 Y 6.8274 Z -1.0000 I -0.2345 J 0.0000 F 3500.0000
G03 X 23.9555 Y 6.8392 Z -1.0000 I -0.0706 J -0.0771
G03 X 23.8452 Y 6.6930 Z -1.0000 I 0.1329 J -0.2151
G03 X 23.8680 Y 6.5297 Z -1.0000 I 0.1968 J -0.0557
G03 X 24.0397 Y 6.4757 Z -1.0000 I 0.1172 J 0.0724
G03 X 24.1573 Y 6.6544 Z -1.0000 I -0.0771 J 0.1788
G01 X 24.1573 Y 6.6544 Z -1.0000
G00 Z 5.0000

(End cutting path id: path134739)


(Start cutting path id: path134739)
(Change tool to Default tool)

G00 Z 5.0000
G00 X 23.6584 Y 3.8287

G01 Z -1.0000 F 100.0000(Penetrate)
G02 X 23.5594 Y 4.4648 Z -1.0000 I 4.6332 J 1.0474 F 3500.0000
G02 X 23.4268 Y 6.4938 Z -1.0000 I 47.2116 J 4.1033
G03 X 23.1297 Y 8.0894 Z -1.0000 I -5.7975 J -0.2540
G03 X 22.8928 Y 8.0820 Z -1.0000 I -0.1174 J -0.0395
G03 X 22.8019 Y 7.6314 Z -1.0000 I 3.5350 J -0.9474
G03 X 22.7704 Y 7.1886 Z -1.0000 I 3.3827 J -0.4635
G02 X 22.6871 Y 6.8230 Z -1.0000 I -0.8684 J 0.0053
G02 X 22.5593 Y 6.7420 Z -1.0000 I -0.1278 J 0.0604
G02 X 21.8252 Y 7.5055 Z -1.0000 I 0.0000 J 0.7347
G02 X 22.6467 Y 8.9645 Z -1.0000 I 1.8345 J -0.0721
G03 X 22.7522 Y 9.1130 Z -1.0000 I -0.1395 J 0.2109
G03 X 22.7171 Y 9.2410 Z -1.0000 I -0.1300 J 0.0331
G03 X 22.5741 Y 9.2802 Z -1.0000 I -0.1058 J -0.1058
G03 X 22.2761 Y 9.1282 Z -1.0000 I 0.1889 J -0.7386
G02 X 22.0468 Y 9.0332 Z -1.0000 I -0.2684 J 0.3234
G02 X 21.9736 Y 9.0999 Z -1.0000 I -0.0062 J 0.0668
G03 X 21.8955 Y 9.2481 Z -1.0000 I -0.1798 J 0.0000
G03 X 21.6261 Y 9.3384 Z -1.0000 I -0.2927 J -0.4263
G02 X 21.5122 Y 9.3940 Z -1.0000 I 0.0072 J 0.1594
G01 X 21.5269 Y 9.4542 Z -1.0000
G03 X 21.7076 Y 9.5999 Z -1.0000 I -0.1493 J 0.3701
G03 X 21.7750 Y 9.8190 Z -1.0000 I -0.3222 J 0.2192
G03 X 21.7089 Y 10.0416 Z -1.0000 I -0.4074 J 0.0000
G03 X 21.5269 Y 10.1995 Z -1.0000 I -0.3676 J -0.2397
G02 X 21.4531 Y 10.3153 Z -1.0000 I 0.0540 J 0.1158
G02 X 21.5269 Y 10.4311 Z -1.0000 I 0.1278 J -0.0000
G03 X 21.7097 Y 10.5885 Z -1.0000 I -0.1884 J 0.4038
G03 X 21.7750 Y 10.8050 Z -1.0000 I -0.3262 J 0.2165
G02 X 21.8623 Y 10.9985 Z -1.0000 I 0.2580 J -0.0000
G02 X 22.2217 Y 11.1993 Z -1.0000 I 0.6426 J -0.7280
G03 X 22.3045 Y 11.3580 Z -1.0000 I -0.0366 J 0.1201
G03 X 22.0952 Y 11.5909 Z -1.0000 I -0.3659 J -0.1182
G02 X 22.0205 Y 11.8145 Z -1.0000 I 0.0651 J 0.1460
G02 X 22.2712 Y 11.9084 Z -1.0000 I 0.1804 J -0.1000
G03 X 22.6289 Y 11.8927 Z -1.0000 I 0.2039 J 0.5618
G03 X 22.8949 Y 12.0746 Z -1.0000 I -0.1246 J 0.4675
G02 X 23.1464 Y 12.2085 Z -1.0000 I 0.2644 J -0.1933
G02 X 23.4906 Y 12.0980 Z -1.0000 I 0.0207 J -0.5266
G01 X 23.5349 Y 12.1213 Z -1.0000
G03 X 23.4813 Y 12.2543 Z -1.0000 I -0.2252 J -0.0134
G03 X 22.9694 Y 12.6212 Z -1.0000 I -0.9968 J -0.8505
G03 X 22.8669 Y 12.4991 Z -1.0000 I -0.0311 J -0.0780
G02 X 22.9258 Y 12.3361 Z -1.0000 I -0.3588 J -0.2217
G01 X 22.8948 Y 12.3006 Z -1.0000
G03 X 22.8026 Y 12.2872 Z -1.0000 I 0.0000 J -0.3264
G03 X 22.4861 Y 12.1801 Z -1.0000 I 1.1847 J -4.0188
G02 X 22.2696 Y 12.2015 Z -1.0000 I -0.0869 J 0.2264
G02 X 22.1721 Y 12.3786 Z -1.0000 I 0.1120 J 0.1771
G02 X 22.2376 Y 12.6321 Z -1.0000 I 0.5229 J -0.0000
G02 X 22.3489 Y 12.6976 Z -1.0000 I 0.1113 J -0.0617
G03 X 22.4581 Y 12.7735 Z -1.0000 I 0.0000 J 0.1165
G03 X 22.6068 Y 13.3924 Z -1.0000 I -2.5004 J 0.9281
G03 X 22.4468 Y 13.8727 Z -1.0000 I -0.5931 J 0.0692
G03 X 21.9475 Y 14.0872 Z -1.0000 I -0.4993 J -0.4737
G03 X 21.4723 Y 13.8875 Z -1.0000 I 0.0000 J -0.6653
G03 X 21.3749 Y 13.5026 Z -1.0000 I 0.2819 J -0.2761
G02 X 21.4391 Y 12.9724 Z -1.0000 I -1.6248 J -0.4660
G02 X 21.3502 Y 12.8538 Z -1.0000 I -0.1301 J 0.0049
G03 X 21.2127 Y 12.7437 Z -1.0000 I 0.0804 J -0.2412
G03 X 21.1082 Y 12.4516 Z -1.0000 I 0.6758 J -0.4066
G02 X 21.0252 Y 12.1303 Z -1.0000 I -1.5358 J 0.2254
G02 X 20.9342 Y 11.9891 Z -1.0000 I -0.3723 J 0.1401
G03 X 20.8764 Y 11.8502 Z -1.0000 I 0.1396 J -0.1396
G03 X 20.9325 Y 11.5367 Z -1.0000 I 0.8856 J -0.0033
G02 X 20.8918 Y 11.4359 Z -1.0000 I -0.0753 J -0.0282
G02 X 20.7553 Y 11.4521 Z -1.0000 I -0.0554 J 0.1162
G03 X 20.4240 Y 11.5734 Z -1.0000 I -0.3422 J -0.4217
G03 X 19.2788 Y 11.4818 Z -1.0000 I -0.1159 J -5.7575
G02 X 17.5271 Y 11.2382 Z -1.0000 I -3.8087 J 20.9656
G02 X 15.3879 Y 11.1045 Z -1.0000 I -3.0213 J 31.1524
G02 X 12.6431 Y 11.1793 Z -1.0000 I -0.6983 J 24.7679
G02 X 12.5627 Y 11.3386 Z -1.0000 I 0.0086 J 0.1043
G03 X 12.5614 Y 11.4249 Z -1.0000 I -0.0682 J 0.0421
G01 X 12.4963 Y 11.4392 Z -1.0000
G02 X 12.2792 Y 11.3953 Z -1.0000 I -0.1679 J 0.2717
G02 X 11.4703 Y 11.5992 Z -1.0000 I 0.6981 J 4.4754
G03 X 10.6489 Y 11.8645 Z -1.0000 I -5.3517 J -15.1682
G03 X 10.5111 Y 11.8808 Z -1.0000 I -0.1170 J -0.3986
G02 X 10.4027 Y 11.9217 Z -1.0000 I -0.0073 J 0.1449
G02 X 10.2988 Y 12.0873 Z -1.0000 I 0.2882 J 0.2963
G02 X 10.3423 Y 12.1809 Z -1.0000 I 0.0713 J 0.0238
G02 X 10.5369 Y 12.1822 Z -1.0000 I 0.0989 J -0.2482
G03 X 11.2706 Y 12.2937 Z -1.0000 I 0.2688 J 0.7005
G03 X 11.2993 Y 12.7840 Z -1.0000 I -0.2036 J 0.2579
G02 X 11.2768 Y 12.9048 Z -1.0000 I 0.0768 J 0.0768
G02 X 11.4311 Y 13.0818 Z -1.0000 I 0.3631 J -0.1607
G03 X 11.5577 Y 13.2819 Z -1.0000 I -0.1422 J 0.2301
G03 X 11.4905 Y 13.6141 Z -1.0000 I -0.5510 J 0.0615
G03 X 11.3266 Y 13.6653 Z -1.0000 I -0.1090 J -0.0610
G03 X 11.1502 Y 13.4474 Z -1.0000 I 0.1464 J -0.2989
G02 X 10.9535 Y 12.9517 Z -1.0000 I -1.9680 J 0.4939
G02 X 10.7090 Y 12.6577 Z -1.0000 I -0.9110 J 0.5089
G02 X 10.5831 Y 12.6763 Z -1.0000 I -0.0546 J 0.0657
G02 X 10.5505 Y 12.8977 Z -1.0000 I 0.2203 J 0.1455
G03 X 10.5035 Y 13.0176 Z -1.0000 I -0.0999 J 0.0300
G03 X 10.3844 Y 12.9954 Z -1.0000 I -0.0468 J -0.0795
G02 X 10.0784 Y 12.7946 Z -1.0000 I -0.4557 J 0.3610
G02 X 9.8942 Y 12.8647 Z -1.0000 I -0.0434 J 0.1629
G03 X 9.7694 Y 12.8759 Z -1.0000 I -0.0669 J -0.0441
G03 X 9.6102 Y 12.5670 Z -1.0000 I 0.4458 J -0.4252
G03 X 9.6595 Y 12.0630 Z -1.0000 I 0.8775 J -0.1685
G03 X 9.8129 Y 12.0663 Z -1.0000 I 0.0761 J 0.0308
G02 X 9.9344 Y 12.1198 Z -1.0000 I 0.0860 J -0.0306
G02 X 10.2058 Y 11.9006 Z -1.0000 I -0.2451 J -0.5810
G02 X 10.2420 Y 11.5024 Z -1.0000 I -0.3292 J -0.2306
G02 X 9.6579 Y 10.7057 Z -1.0000 I -2.2310 J 1.0231
G02 X 8.7983 Y 9.9951 Z -1.0000 I -8.3575 J 9.2350
G02 X 8.6919 Y 9.9774 Z -1.0000 I -0.0701 J 0.0930
G03 X 8.5822 Y 9.9645 Z -1.0000 I -0.0409 J -0.1249
G03 X 7.8306 Y 9.4486 Z -1.0000 I 4.6862 J -7.6328
G03 X 7.2089 Y 8.7999 Z -1.0000 I 1.7759 J -2.3243
G03 X 6.8708 Y 8.0752 Z -1.0000 I 1.8989 J -1.3271
G02 X 6.6165 Y 7.5244 Z -1.0000 I -1.7359 J 0.4674
G02 X 6.4943 Y 7.5274 Z -1.0000 I -0.0601 J 0.0413
G03 X 6.3080 Y 7.6719 Z -1.0000 I -0.2867 J -0.1772
G03 X 6.1109 Y 7.6470 Z -1.0000 I -0.0713 J -0.2285
G03 X 5.9868 Y 7.4850 Z -1.0000 I 0.1507 J -0.2439
G03 X 6.0102 Y 7.3092 Z -1.0000 I 0.2077 J -0.0619
G01 X 5.9788 Y 7.2645 Z -1.0000
G02 X 5.7090 Y 7.3725 Z -1.0000 I 0.1732 J 0.8236
G02 X 5.5189 Y 7.5944 Z -1.0000 I 0.2535 J 0.4095
G02 X 5.5720 Y 7.6962 Z -1.0000 I 0.0686 J 0.0290
G03 X 5.8092 Y 7.8162 Z -1.0000 I -0.1073 J 0.5066
G03 X 5.9735 Y 8.0540 Z -1.0000 I -0.4073 J 0.4571
G03 X 5.9850 Y 8.2272 Z -1.0000 I -0.2743 J 0.1052
G01 X 5.9265 Y 8.2514 Z -1.0000
G02 X 5.7809 Y 8.2495 Z -1.0000 I -0.0743 J 0.1203
G02 X 5.4347 Y 8.5385 Z -1.0000 I 0.6835 J 1.1706
G02 X 5.3180 Y 8.8922 Z -1.0000 I 0.3725 J 0.3190
G02 X 5.4787 Y 9.1593 Z -1.0000 I 0.3427 J -0.0243
G03 X 5.7399 Y 9.4316 Z -1.0000 I -0.4071 J 0.6519
G03 X 5.7562 Y 9.6478 Z -1.0000 I -0.2206 J 0.1253
G02 X 6.0911 Y 10.5803 Z -1.0000 I 0.7086 J 0.2719
G02 X 7.2257 Y 10.4791 Z -1.0000 I 0.4939 J -0.8732
G03 X 7.3527 Y 10.4957 Z -1.0000 I 0.0558 J 0.0672
G03 X 7.4076 Y 10.7354 Z -1.0000 I -0.2625 J 0.1863
G03 X 7.2579 Y 11.1048 Z -1.0000 I -0.9077 J -0.1527
G03 X 7.1141 Y 11.1614 Z -1.0000 I -0.1139 J -0.0785
G02 X 7.0168 Y 11.2145 Z -1.0000 I -0.0182 J 0.0824
G02 X 7.0180 Y 11.4210 Z -1.0000 I 0.2744 J 0.1016
G02 X 7.1858 Y 11.6155 Z -1.0000 I 0.3542 J -0.1359
G02 X 7.3893 Y 11.6305 Z -1.0000 I 0.1177 J -0.2085
G03 X 7.6173 Y 11.6399 Z -1.0000 I 0.1032 J 0.2689
G03 X 7.9942 Y 11.9216 Z -1.0000 I -0.5307 J 1.1031
G02 X 8.4910 Y 12.0519 Z -1.0000 I 0.3481 J -0.3151
G02 X 8.7719 Y 11.6620 Z -1.0000 I -0.1302 J -0.3899
G03 X 8.8284 Y 11.4811 Z -1.0000 I 0.3181 J 0.0000
G03 X 8.9705 Y 11.3748 Z -1.0000 I 0.2296 J 0.1587
G03 X 9.0832 Y 11.4306 Z -1.0000 I 0.0281 J 0.0850
G03 X 9.1835 Y 11.9934 Z -1.0000 I -1.7482 J 0.6019
G03 X 9.1012 Y 12.5083 Z -1.0000 I -1.4587 J 0.0309
G03 X 8.9884 Y 12.5481 Z -1.0000 I -0.0724 J -0.0255
G02 X 8.3043 Y 12.3924 Z -1.0000 I -0.5695 J 0.9215
G02 X 8.0771 Y 12.6450 Z -1.0000 I 0.0269 J 0.2527
G03 X 7.9751 Y 12.7252 Z -1.0000 I -0.0825 J 0.0000
G03 X 7.4829 Y 12.5000 Z -1.0000 I 0.3401 J -1.3940
G02 X 6.7445 Y 12.2885 Z -1.0000 I -0.6683 J 0.9385
G02 X 6.4920 Y 12.5604 Z -1.0000 I 0.0164 J 0.2684
G01 X 6.5495 Y 12.6042 Z -1.0000
G02 X 6.6752 Y 12.5122 Z -1.0000 I -0.0542 J -0.2057
G03 X 6.8903 Y 12.4442 Z -1.0000 I 0.1478 J 0.0936
G03 X 7.7478 Y 12.9589 Z -1.0000 I -1.3219 J 3.1743
G02 X 8.6524 Y 13.5028 Z -1.0000 I 2.3128 J -2.8225
G02 X 8.8050 Y 13.4011 Z -1.0000 I 0.0425 J -0.1016
G02 X 8.7437 Y 13.2222 Z -1.0000 I -0.2918 J 0.0000
G02 X 8.6533 Y 13.2059 Z -1.0000 I -0.0542 J 0.0421
G03 X 8.5209 Y 13.2179 Z -1.0000 I -0.0783 J -0.1266
G03 X 8.3769 Y 13.0979 Z -1.0000 I 0.1076 J -0.2755
G03 X 8.5270 Y 12.8566 Z -1.0000 I 0.1349 J -0.0834
G03 X 9.3792 Y 13.1944 Z -1.0000 I -0.1582 J 1.6432
G03 X 9.4333 Y 13.3154 Z -1.0000 I -0.0860 J 0.1111
G03 X 9.3675 Y 13.3592 Z -1.0000 I -0.0499 J -0.0035
G02 X 9.2709 Y 13.4287 Z -1.0000 I -0.0233 J 0.0695
G02 X 9.3675 Y 13.6907 Z -1.0000 I 0.4033 J 0.0000
G03 X 9.5675 Y 13.9911 Z -1.0000 I -1.1516 J 0.9836
G01 X 9.5349 Y 14.0218 Z -1.0000
G02 X 9.4312 Y 14.0538 Z -1.0000 I -0.0371 J 0.0638
G02 X 9.4092 Y 14.2855 Z -1.0000 I 0.3059 J 0.1459
G02 X 9.5734 Y 14.6047 Z -1.0000 I 0.7984 J -0.2088
G02 X 9.7399 Y 14.6828 Z -1.0000 I 0.1666 J -0.1387
G03 X 10.1862 Y 14.8953 Z -1.0000 I -0.0000 J 0.5748
G03 X 10.5417 Y 15.6703 Z -1.0000 I -1.3279 J 1.0781
G01 X 10.5061 Y 15.7241 Z -1.0000
G03 X 9.8904 Y 15.8186 Z -1.0000 I -0.9679 J -4.2491
G03 X 9.4291 Y 15.6993 Z -1.0000 I -0.0587 J -0.7240
G03 X 9.3334 Y 15.4477 Z -1.0000 I 0.1284 J -0.1929
G02 X 9.3208 Y 15.2384 Z -1.0000 I -0.3268 J -0.0855
G01 X 9.2446 Y 15.2226 Z -1.0000
G02 X 9.1131 Y 15.4519 Z -1.0000 I 0.3574 J 0.3574
G02 X 9.0267 Y 16.0548 Z -1.0000 I 2.5935 J 0.6790
G03 X 8.9009 Y 16.5254 Z -1.0000 I -1.0553 J -0.0300
G03 X 8.7415 Y 16.5845 Z -1.0000 I -0.1134 J -0.0610
G02 X 8.6234 Y 16.6939 Z -1.0000 I -0.0321 J 0.0837
G02 X 8.8712 Y 17.0190 Z -1.0000 I 0.5542 J -0.1655
G03 X 9.3517 Y 17.7187 Z -1.0000 I -0.5629 J 0.9014
G03 X 9.0719 Y 18.0577 Z -1.0000 I -0.2797 J 0.0541
G02 X 8.9628 Y 18.1379 Z -1.0000 I 0.0000 J 0.1144
G02 X 8.9167 Y 18.5540 Z -1.0000 I 1.0423 J 0.3260
G02 X 9.1176 Y 18.7609 Z -1.0000 I 0.2264 J -0.0187
G02 X 9.3559 Y 18.6036 Z -1.0000 I 0.0250 J -0.2213
G03 X 9.5086 Y 18.4697 Z -1.0000 I 0.1832 J 0.0550
G03 X 9.6629 Y 18.5540 Z -1.0000 I 0.0229 J 0.1415
G02 X 9.7776 Y 18.6421 Z -1.0000 I 0.1372 J -0.0598
G02 X 9.8499 Y 18.5823 Z -1.0000 I 0.0094 J -0.0621
G03 X 9.9644 Y 18.3661 Z -1.0000 I 0.2817 J 0.0107
G03 X 10.1837 Y 18.3364 Z -1.0000 I 0.1367 J 0.1856
G02 X 10.3570 Y 18.3126 Z -1.0000 I 0.0650 J -0.1694
G02 X 10.3959 Y 18.1786 Z -1.0000 I -0.0689 J -0.0927
G03 X 10.4900 Y 17.8828 Z -1.0000 I 0.2320 J -0.0890
G03 X 10.8665 Y 17.8645 Z -1.0000 I 0.2035 J 0.3050
G02 X 11.1720 Y 17.9303 Z -1.0000 I 0.2675 J -0.4998
G02 X 11.2943 Y 17.8358 Z -1.0000 I -0.0093 J -0.1384
G03 X 11.3981 Y 17.7816 Z -1.0000 I 0.0799 J 0.0266
G03 X 11.6315 Y 17.9355 Z -1.0000 I -0.1362 J 0.4605
G03 X 11.6089 Y 18.0983 Z -1.0000 I -0.0857 J 0.0711
G03 X 11.2738 Y 18.1815 Z -1.0000 I -0.2783 J -0.4046
G02 X 10.9092 Y 18.2486 Z -1.0000 I -0.0730 J 0.6273
G02 X 10.8815 Y 18.3857 Z -1.0000 I 0.0415 J 0.0797
G03 X 10.8890 Y 18.5030 Z -1.0000 I -0.0768 J 0.0638
G03 X 10.7852 Y 18.5373 Z -1.0000 I -0.0728 J -0.0463
G02 X 10.5298 Y 18.5147 Z -1.0000 I -0.1671 J 0.4354
G02 X 10.4594 Y 18.6001 Z -1.0000 I 0.0165 J 0.0854
G03 X 10.1248 Y 19.1591 Z -1.0000 I -0.6343 J 0.0000
G03 X 9.1977 Y 19.2765 Z -1.0000 I -0.6165 J -1.1500
G02 X 9.0404 Y 19.2892 Z -1.0000 I -0.0595 J 0.2429
G02 X 8.7473 Y 19.4677 Z -1.0000 I 0.4625 J 1.0890
G03 X 8.4700 Y 19.5459 Z -1.0000 I -0.2266 J -0.2731
G03 X 8.1074 Y 19.3754 Z -1.0000 I 0.0980 J -0.6795
G02 X 7.4851 Y 19.0847 Z -1.0000 I -0.7836 J 0.8659
G02 X 7.2830 Y 19.2605 Z -1.0000 I -0.0245 J 0.1758
G02 X 7.3442 Y 19.3611 Z -1.0000 I 0.1134 J 0.0000
G02 X 7.4678 Y 19.3565 Z -1.0000 I 0.0578 J -0.1112
G03 X 7.6318 Y 19.3306 Z -1.0000 I 0.1128 J 0.1826
G03 X 7.7689 Y 19.4303 Z -1.0000 I -0.0533 J 0.2174
G03 X 7.7097 Y 19.6721 Z -1.0000 I -0.1485 J 0.0918
G03 X 6.6942 Y 20.0710 Z -1.0000 I -1.7183 J -2.8820
G01 X 6.6838 Y 20.1148 Z -1.0000
G02 X 6.7867 Y 20.1458 Z -1.0000 I 0.0895 J -0.1108
G02 X 8.2328 Y 19.9520 Z -1.0000 I -1.8030 J -18.9520
G02 X 9.0333 Y 19.7566 Z -1.0000 I -1.0361 J -5.9817
G03 X 9.3980 Y 19.7251 Z -1.0000 I 0.2524 J 0.7954
G03 X 9.5557 Y 19.8276 Z -1.0000 I -0.0296 J 0.2182
G02 X 9.7093 Y 19.9327 Z -1.0000 I 0.1955 J -0.1208
G02 X 9.9861 Y 19.9073 Z -1.0000 I 0.0933 J -0.5036
G02 X 10.1060 Y 19.7714 Z -1.0000 I -0.0701 J -0.1828
G02 X 10.0522 Y 19.6395 Z -1.0000 I -0.1175 J -0.0290
G03 X 10.0078 Y 19.4961 Z -1.0000 I 0.0600 J -0.0971
G03 X 10.2145 Y 19.2735 Z -1.0000 I 0.4273 J 0.1896
G03 X 10.4447 Y 19.2781 Z -1.0000 I 0.1110 J 0.2073
G03 X 10.5160 Y 19.4507 Z -1.0000 I -0.0784 J 0.1334
G02 X 10.5218 Y 19.7604 Z -1.0000 I 0.5528 J 0.1446
G02 X 10.6347 Y 19.8443 Z -1.0000 I 0.1130 J -0.0341
G02 X 10.8012 Y 19.7891 Z -1.0000 I 0.0000 J -0.2782
G02 X 10.8564 Y 19.6789 Z -1.0000 I -0.0822 J -0.1102
G03 X 10.9164 Y 19.5735 Z -1.0000 I 0.1226 J 0.0000
G03 X 11.1352 Y 19.5135 Z -1.0000 I 0.2188 J 0.3687
G03 X 11.2438 Y 19.6086 Z -1.0000 I 0.0000 J 0.1096
G03 X 11.1848 Y 19.8859 Z -1.0000 I -0.4190 J 0.0558
G03 X 10.9063 Y 20.1362 Z -1.0000 I -0.5630 J -0.3464
G03 X 10.5969 Y 20.1663 Z -1.0000 I -0.1961 J -0.4112
G02 X 10.3641 Y 20.1911 Z -1.0000 I -0.0832 J 0.3237
G02 X 10.3166 Y 20.3066 Z -1.0000 I 0.0426 J 0.0851
G02 X 10.4545 Y 20.4571 Z -1.0000 I 0.2388 J -0.0805
G02 X 10.8587 Y 20.5435 Z -1.0000 I 0.4138 J -0.9473
G03 X 11.2627 Y 20.6300 Z -1.0000 I -0.0097 J 1.0316
G03 X 11.4001 Y 20.7804 Z -1.0000 I -0.1006 J 0.2298
G02 X 11.5375 Y 20.9531 Z -1.0000 I 0.3048 J -0.1016
G02 X 12.1388 Y 21.2313 Z -1.0000 I 1.5092 J -2.4727
G03 X 12.6308 Y 21.5416 Z -1.0000 I -0.3776 J 1.1441
G03 X 12.7031 Y 21.8198 Z -1.0000 I -0.2125 J 0.2038
G03 X 12.4957 Y 22.0445 Z -1.0000 I -0.3144 J -0.0822
G03 X 11.6817 Y 22.1757 Z -1.0000 I -0.7772 J -2.2304
G03 X 11.0093 Y 22.1222 Z -1.0000 I 0.0821 J -5.2819
G01 X 11.0053 Y 22.0782 Z -1.0000
G02 X 11.1388 Y 21.8268 Z -1.0000 I -0.0657 J -0.1960
G02 X 10.8812 Y 21.6310 Z -1.0000 I -0.2576 J 0.0715
G02 X 10.6331 Y 21.7551 Z -1.0000 I 0.0000 J 0.3102
G02 X 10.5090 Y 22.1273 Z -1.0000 I 0.4963 J 0.3722
G02 X 10.6088 Y 22.5238 Z -1.0000 I 0.8376 J -0.0000
G02 X 10.7757 Y 22.6236 Z -1.0000 I 0.1669 J -0.0897
G03 X 10.9177 Y 22.7151 Z -1.0000 I -0.0000 J 0.1559
G03 X 10.9332 Y 22.9710 Z -1.0000 I -0.3269 J 0.1482
G02 X 10.9751 Y 23.0517 Z -1.0000 I 0.0615 J 0.0193
G02 X 11.0884 Y 23.0207 Z -1.0000 I 0.0328 J -0.1025
G03 X 11.3821 Y 22.7808 Z -1.0000 I 0.8896 J 0.7897
G03 X 11.6505 Y 22.6953 Z -1.0000 I 0.3290 J 0.5684
G02 X 11.9422 Y 22.6429 Z -1.0000 I -0.1602 J -1.7295
G02 X 12.3282 Y 22.5127 Z -1.0000 I -0.8538 J -3.1688
G03 X 12.5147 Y 22.5260 Z -1.0000 I 0.0797 J 0.1954
G03 X 12.5446 Y 22.6395 Z -1.0000 I -0.0421 J 0.0717
G02 X 12.5247 Y 22.7428 Z -1.0000 I 0.1381 J 0.0802
G01 X 12.5616 Y 22.7560 Z -1.0000
G02 X 12.6972 Y 22.5707 Z -1.0000 I -0.3947 J -0.4311
G02 X 12.7424 Y 22.3661 Z -1.0000 I -0.4413 J -0.2046
G03 X 12.8297 Y 22.2256 Z -1.0000 I 0.1566 J 0.0000
G03 X 13.2387 Y 22.1215 Z -1.0000 I 0.4502 J 0.9136
G02 X 14.4155 Y 21.9239 Z -1.0000 I -0.1930 J -4.7517
G02 X 14.5055 Y 21.7404 Z -1.0000 I -0.0402 J -0.1335
G03 X 14.5577 Y 21.5348 Z -1.0000 I 0.1716 J -0.0659
G03 X 15.0576 Y 21.2690 Z -1.0000 I 0.8498 J 0.9953
G02 X 15.2981 Y 21.0575 Z -1.0000 I -0.0983 J -0.3542
G02 X 15.2239 Y 20.8744 Z -1.0000 I -0.1290 J -0.0543
G03 X 14.9568 Y 20.7042 Z -1.0000 I 0.3754 J -0.8838
G01 X 14.9757 Y 20.6510 Z -1.0000
G02 X 15.1455 Y 20.5640 Z -1.0000 I -0.0117 J -0.2322
G02 X 15.2239 Y 20.3406 Z -1.0000 I -0.2794 J -0.2234
G03 X 15.4135 Y 20.1197 Z -1.0000 I 0.2235 J 0.0000
G03 X 15.6646 Y 20.2731 Z -1.0000 I 0.0346 J 0.2256
G02 X 15.7929 Y 20.3669 Z -1.0000 I 0.1301 J -0.0434
G02 X 16.1278 Y 20.2791 Z -1.0000 I 0.0084 J -0.6503
G02 X 16.2172 Y 20.1322 Z -1.0000 I -0.0903 J -0.1557
G02 X 16.1391 Y 20.0488 Z -1.0000 I -0.0794 J -0.0039
G03 X 15.4390 Y 19.6836 Z -1.0000 I 0.0141 J -0.8807
G03 X 15.4585 Y 19.1059 Z -1.0000 I 0.3827 J -0.2762
G02 X 15.4121 Y 18.5777 Z -1.0000 I -0.2900 J -0.2407
G02 X 14.6232 Y 18.3984 Z -1.0000 I -0.5669 J 0.6693
G03 X 14.3460 Y 18.3865 Z -1.0000 I -0.1192 J -0.4559
G03 X 14.3112 Y 18.2874 Z -1.0000 I 0.0226 J -0.0636
G03 X 14.4933 Y 18.1295 Z -1.0000 I 0.3434 J 0.2122
G03 X 14.8385 Y 18.0576 Z -1.0000 I 0.3452 J 0.7922
G02 X 15.1487 Y 17.9824 Z -1.0000 I -0.0000 J -0.6772
G02 X 15.2239 Y 17.8591 Z -1.0000 I -0.0635 J -0.1233
G02 X 15.1437 Y 17.7407 Z -1.0000 I -0.1275 J 0.0000
G02 X 14.7276 Y 17.6606 Z -1.0000 I -0.4162 J 1.0404
G02 X 14.3389 Y 17.7682 Z -1.0000 I -0.0000 J 0.7554
G02 X 14.2313 Y 17.9583 Z -1.0000 I 0.1141 J 0.1901
G03 X 14.1458 Y 18.1707 Z -1.0000 I -0.3065 J 0.0000
G03 X 13.9452 Y 18.2561 Z -1.0000 I -0.2006 J -0.1927
G02 X 13.6921 Y 18.3152 Z -1.0000 I 0.0000 J 0.5714
G02 X 13.5334 Y 18.4596 Z -1.0000 I 0.1724 J 0.3490
G02 X 13.5261 Y 18.5737 Z -1.0000 I 0.1033 J 0.0638
G02 X 13.6011 Y 18.6085 Z -1.0000 I 0.0577 J -0.0262
G03 X 13.7390 Y 18.6319 Z -1.0000 I 0.0443 J 0.1569
G03 X 13.8062 Y 18.7524 Z -1.0000 I -0.0911 J 0.1299
G03 X 13.7372 Y 18.8718 Z -1.0000 I -0.1251 J 0.0073
G03 X 13.4389 Y 18.9362 Z -1.0000 I -0.2745 J -0.5485
G02 X 13.1839 Y 18.9939 Z -1.0000 I -0.0197 J 0.5060
G02 X 13.1596 Y 19.0829 Z -1.0000 I 0.0293 J 0.0558
G01 X 13.1346 Y 19.1409 Z -1.0000
G03 X 12.9512 Y 19.1259 Z -1.0000 I -0.0662 J -0.3203
G03 X 12.7026 Y 18.8354 Z -1.0000 I 0.1437 J -0.3746
G03 X 12.8499 Y 18.6532 Z -1.0000 I 0.1473 J -0.0316
G02 X 13.0359 Y 18.6003 Z -1.0000 I -0.0000 J -0.3540
G02 X 13.4635 Y 18.2742 Z -1.0000 I -1.4387 J -2.3294
G02 X 13.6234 Y 17.8908 Z -1.0000 I -0.3428 J -0.3680
G02 X 13.4387 Y 17.4635 Z -1.0000 I -0.6313 J 0.0193
G03 X 13.0857 Y 17.0319 Z -1.0000 I 1.9771 J -1.9771
G03 X 13.0944 Y 16.9445 Z -1.0000 I 0.0578 J -0.0383
G03 X 13.6168 Y 16.8624 Z -1.0000 I 0.3175 J 0.3175
G03 X 13.7306 Y 17.2706 Z -1.0000 I -0.1315 J 0.2566
G02 X 13.7148 Y 17.4144 Z -1.0000 I 0.1432 J 0.0885
G02 X 13.8310 Y 17.5593 Z -1.0000 I 0.2621 J -0.0911
G02 X 13.9566 Y 17.5475 Z -1.0000 I 0.0550 J -0.0890
G02 X 14.0327 Y 17.3745 Z -1.0000 I -0.1584 J -0.1730
G03 X 14.2099 Y 17.1751 Z -1.0000 I 0.2008 J 0.0000
G03 X 14.5935 Y 17.3082 Z -1.0000 I 0.0546 J 0.4620
G02 X 14.8527 Y 17.4114 Z -1.0000 I 0.2496 J -0.2496
G02 X 15.2548 Y 17.2902 Z -1.0000 I -0.0217 J -0.7999
G03 X 15.4796 Y 17.2947 Z -1.0000 I 0.1090 J 0.1745
G03 X 15.5559 Y 17.4954 Z -1.0000 I -0.1056 J 0.1550
G02 X 15.6595 Y 18.2533 Z -1.0000 I 0.9958 J 0.2499
G02 X 16.0712 Y 18.4005 Z -1.0000 I 0.2915 J -0.1660
G03 X 16.3542 Y 18.3879 Z -1.0000 I 0.1604 J 0.4180
G03 X 16.9659 Y 18.6550 Z -1.0000 I -0.6806 J 2.3922
G02 X 17.5583 Y 18.9363 Z -1.0000 I 1.6548 J -2.7210
G02 X 17.6818 Y 18.9083 Z -1.0000 I 0.0396 J -0.1118
G03 X 17.7989 Y 18.8793 Z -1.0000 I 0.0826 J 0.0826
G03 X 18.0799 Y 19.0316 Z -1.0000 I -0.2424 J 0.7829
G02 X 18.3446 Y 19.1441 Z -1.0000 I 0.3206 J -0.3863
G02 X 18.4830 Y 19.0768 Z -1.0000 I 0.0161 J -0.1430
G02 X 18.4932 Y 18.9210 Z -1.0000 I -0.1416 J -0.0875
G02 X 18.3518 Y 18.7851 Z -1.0000 I -0.2397 J 0.1079
G01 X 18.3271 Y 18.7221 Z -1.0000
G03 X 18.4063 Y 18.6688 Z -1.0000 I 0.0840 J 0.0394
G03 X 18.6371 Y 18.7649 Z -1.0000 I 0.0149 J 0.2897
G03 X 18.9413 Y 19.2656 Z -1.0000 I -1.1855 J 1.0630
G02 X 19.2617 Y 19.6938 Z -1.0000 I 0.9010 J -0.3401
G02 X 19.5804 Y 19.7485 Z -1.0000 I 0.2122 J -0.2808
G03 X 19.9065 Y 19.7309 Z -1.0000 I 0.1971 J 0.6209
G03 X 19.9884 Y 19.8309 Z -1.0000 I -0.0202 J 0.1000
G02 X 20.0605 Y 19.9707 Z -1.0000 I 0.1716 J 0.0000
G02 X 20.2861 Y 20.0428 Z -1.0000 I 0.2257 J -0.3171
G02 X 20.4936 Y 19.9525 Z -1.0000 I 0.0000 J -0.2835
G02 X 20.5839 Y 19.7230 Z -1.0000 I -0.2464 J -0.2295
G03 X 20.6766 Y 19.6592 Z -1.0000 I 0.0683 J 0.0000
G03 X 20.9744 Y 19.8719 Z -1.0000 I -0.2575 J 0.6754
G02 X 21.3062 Y 20.1741 Z -1.0000 I 1.2571 J -1.0473
G01 X 21.3684 Y 20.1421 Z -1.0000
G02 X 21.1090 Y 19.6379 Z -1.0000 I -0.5987 J -0.0108
G02 X 20.2124 Y 19.3470 Z -1.0000 I -0.9381 J 1.3638
G02 X 19.5520 Y 19.4041 Z -1.0000 I -0.0748 J 2.9811
G02 X 19.5162 Y 19.4864 Z -1.0000 I 0.0107 J 0.0536
G03 X 19.5187 Y 19.5922 Z -1.0000 I -0.0890 J 0.0550
G03 X 19.4277 Y 19.6458 Z -1.0000 I -0.0910 J -0.0506
G03 X 19.2934 Y 19.5774 Z -1.0000 I 0.0000 J -0.1660
G03 X 19.1355 Y 19.2440 Z -1.0000 I 0.8046 J -0.5851
G03 X 19.1459 Y 18.9432 Z -1.0000 I 0.5088 J -0.1331
G03 X 19.2612 Y 18.8705 Z -1.0000 I 0.1023 J 0.0344
G02 X 19.9891 Y 18.7603 Z -1.0000 I 0.1664 J -1.3599
G02 X 20.1869 Y 18.4547 Z -1.0000 I -0.1373 J -0.3057
G03 X 20.4213 Y 18.2202 Z -1.0000 I 0.2344 J 0.0000
G03 X 20.7249 Y 18.4547 Z -1.0000 I 0.0000 J 0.3138
G02 X 20.9201 Y 18.5664 Z -1.0000 I 0.1524 J -0.0399
G02 X 21.0717 Y 18.3568 Z -1.0000 I -0.0566 J -0.2005
G02 X 20.9145 Y 17.7865 Z -1.0000 I -1.3238 J 0.0579
G02 X 20.7824 Y 17.8198 Z -1.0000 I -0.0618 J 0.0333
G03 X 20.7017 Y 17.9276 Z -1.0000 I -0.1124 J 0.0000
G03 X 20.4495 Y 17.9174 Z -1.0000 I -0.1109 J -0.3782
G03 X 20.3793 Y 17.7919 Z -1.0000 I 0.0403 J -0.1049
G03 X 20.4992 Y 17.6504 Z -1.0000 I 0.1838 J 0.0342
G03 X 21.1188 Y 17.7222 Z -1.0000 I 0.2382 J 0.6542
G03 X 21.2555 Y 18.1458 Z -1.0000 I -0.1942 J 0.2966
G02 X 21.2704 Y 18.3528 Z -1.0000 I 0.2284 J 0.0876
G02 X 21.4658 Y 18.5221 Z -1.0000 I 0.3315 J -0.1853
G03 X 21.6923 Y 18.6976 Z -1.0000 I -0.1778 J 0.4633
G03 X 21.7750 Y 18.9564 Z -1.0000 I -0.3637 J 0.2589
G02 X 21.8431 Y 19.1501 Z -1.0000 I 0.3096 J -0.0000
G02 X 21.9443 Y 19.1675 Z -1.0000 I 0.0605 J -0.0485
G03 X 22.1096 Y 19.1481 Z -1.0000 I 0.1035 J 0.1674
G03 X 22.4902 Y 19.3480 Z -1.0000 I -0.4126 J 1.2479
G03 X 22.6560 Y 19.5652 Z -1.0000 I -0.3081 J 0.4070
G03 X 22.6070 Y 19.6395 Z -1.0000 I -0.0503 J 0.0201
G02 X 22.4722 Y 19.7135 Z -1.0000 I 0.0041 J 0.1671
G02 X 22.4699 Y 19.8443 Z -1.0000 I 0.1004 J 0.0672
G03 X 22.4774 Y 19.9786 Z -1.0000 I -0.1199 J 0.0741
G03 X 22.3761 Y 20.0428 Z -1.0000 I -0.1013 J -0.0479
G03 X 22.2048 Y 19.9771 Z -1.0000 I -0.0000 J -0.2560
G03 X 22.0453 Y 19.7450 Z -1.0000 I 0.4034 J -0.4480
G02 X 21.8810 Y 19.5202 Z -1.0000 I -0.4968 J 0.1906
G02 X 21.6731 Y 19.4472 Z -1.0000 I -0.2078 J 0.2598
G02 X 21.4239 Y 19.7953 Z -1.0000 I 0.0000 J 0.2633
G02 X 21.9618 Y 20.2958 Z -1.0000 I 0.7342 J -0.2498
G03 X 22.2347 Y 20.4627 Z -1.0000 I -0.1400 J 0.5353
G03 X 22.4213 Y 20.8107 Z -1.0000 I -0.6291 J 0.5613
G03 X 22.4169 Y 21.0787 Z -1.0000 I -0.4826 J 0.1262
G03 X 22.3323 Y 21.1110 Z -1.0000 I -0.0547 J -0.0162
G01 X 22.2786 Y 21.1430 Z -1.0000
G02 X 22.3482 Y 21.3906 Z -1.0000 I 0.5957 J -0.0339
G02 X 22.6253 Y 21.6531 Z -1.0000 I 0.5333 J -0.2854
G02 X 22.9785 Y 21.6853 Z -1.0000 I 0.2211 J -0.4729
G03 X 23.2752 Y 21.7093 Z -1.0000 I 0.1140 J 0.4361
G03 X 23.3546 Y 21.8521 Z -1.0000 I -0.0550 J 0.1240
G02 X 23.4283 Y 22.4657 Z -1.0000 I 1.1976 J 0.1673
G02 X 23.6610 Y 22.6236 Z -1.0000 I 0.2326 J -0.0924
G02 X 23.8870 Y 22.5518 Z -1.0000 I 0.0000 J -0.3919
G02 X 23.9588 Y 22.4133 Z -1.0000 I -0.0978 J -0.1385
G02 X 23.8956 Y 22.3164 Z -1.0000 I -0.1059 J 0.0000
G02 X 23.7602 Y 22.3258 Z -1.0000 I -0.0588 J 0.1333
G03 X 23.6249 Y 22.3352 Z -1.0000 I -0.0766 J -0.1239
G03 X 23.5617 Y 22.2383 Z -1.0000 I 0.0427 J -0.0969
G03 X 23.6207 Y 22.0870 Z -1.0000 I 0.2232 J -0.0000
G03 X 23.7553 Y 22.0280 Z -1.0000 I 0.1346 J 0.1239
G02 X 23.8337 Y 21.9486 Z -1.0000 I 0.0000 J -0.0784
G02 X 23.7479 Y 21.4994 Z -1.0000 I -1.3153 J 0.0184
G03 X 23.6679 Y 20.9994 Z -1.0000 I 1.1650 J -0.4429
G03 X 23.7821 Y 20.7549 Z -1.0000 I 0.3534 J 0.0162
G03 X 23.8814 Y 20.7460 Z -1.0000 I 0.0555 J 0.0605
G03 X 23.9136 Y 20.8379 Z -1.0000 I -0.0418 J 0.0663
G02 X 23.9085 Y 21.1124 Z -1.0000 I 0.4182 J 0.1450
G02 X 24.0829 Y 21.3917 Z -1.0000 I 0.6093 J -0.1863
G02 X 24.2901 Y 21.4953 Z -1.0000 I 0.2788 J -0.2984
G02 X 24.3558 Y 21.4403 Z -1.0000 I 0.0098 J -0.0550
G03 X 24.4536 Y 21.0302 Z -1.0000 I 0.9085 J 0.0000
G03 X 24.7331 Y 20.6943 Z -1.0000 I 0.8710 J 0.4406
G02 X 24.8303 Y 20.5148 Z -1.0000 I -0.1504 J -0.1975
G02 X 24.7528 Y 20.4227 Z -1.0000 I -0.0861 J -0.0062
G02 X 24.4554 Y 20.4057 Z -1.0000 I -0.3465 J 3.4607
G02 X 24.3061 Y 20.4164 Z -1.0000 I -0.0124 J 0.8768
G03 X 24.2077 Y 20.3809 Z -1.0000 I -0.0170 J -0.1074
G03 X 24.1573 Y 20.2476 Z -1.0000 I 0.1511 J -0.1333
G02 X 23.9770 Y 20.1186 Z -1.0000 I -0.1363 J 0.0000
G02 X 23.0688 Y 20.6189 Z -1.0000 I 0.9627 J 2.8217
G03 X 22.9376 Y 20.6675 Z -1.0000 I -0.1380 J -0.1713
G01 X 22.9152 Y 20.6237 Z -1.0000
G02 X 23.0354 Y 20.3136 Z -1.0000 I -0.4686 J -0.3600
G02 X 22.9614 Y 20.0778 Z -1.0000 I -0.3249 J -0.0275
G01 X 22.9610 Y 20.0373 Z -1.0000
G01 X 22.9966 Y 20.0335 Z -1.0000
G02 X 23.2359 Y 20.1183 Z -1.0000 I 0.2356 J -0.2851
G02 X 23.5903 Y 20.0275 Z -1.0000 I -0.0078 J -0.7676
G03 X 23.9560 Y 19.9583 Z -1.0000 I 0.2930 J 0.5475
G03 X 24.5521 Y 20.1409 Z -1.0000 I -0.2040 J 1.7296
G02 X 25.1399 Y 20.2721 Z -1.0000 I 0.5425 J -1.0492
G02 X 25.6877 Y 20.0973 Z -1.0000 I -0.0413 J -1.0755
G03 X 26.0632 Y 19.9127 Z -1.0000 I 0.9395 J 1.4367
G01 X 26.0971 Y 19.9549 Z -1.0000
G02 X 26.1394 Y 20.0922 Z -1.0000 I 0.0813 J 0.0501
G02 X 27.1512 Y 20.4273 Z -1.0000 I 2.1510 J -4.7998
G03 X 27.8917 Y 20.7760 Z -1.0000 I -0.4030 J 1.8166
G03 X 27.8299 Y 20.9560 Z -1.0000 I -0.0619 J 0.0794
G03 X 27.3187 Y 20.8630 Z -1.0000 I 0.0000 J -1.4508
G03 X 27.2763 Y 20.7476 Z -1.0000 I 0.0286 J -0.0760
G01 X 27.2525 Y 20.7170 Z -1.0000
G02 X 27.1245 Y 20.7873 Z -1.0000 I 0.0759 J 0.2900
G03 X 26.7091 Y 20.9850 Z -1.0000 I -0.5229 J -0.5634
G03 X 26.6259 Y 20.8577 Z -1.0000 I -0.0117 J -0.0831
G02 X 26.6270 Y 20.7167 Z -1.0000 I -0.1155 J -0.0714
G02 X 26.4555 Y 20.5725 Z -1.0000 I -0.2942 J 0.1757
G02 X 26.2249 Y 20.5762 Z -1.0000 I -0.1108 J 0.2887
G02 X 26.0722 Y 20.7338 Z -1.0000 I 0.1085 J 0.2578
G02 X 26.1802 Y 21.0258 Z -1.0000 I 0.2202 J 0.0845
G02 X 27.0024 Y 21.2370 Z -1.0000 I 0.8346 J -1.5429
G03 X 27.1690 Y 21.3155 Z -1.0000 I -0.0015 J 0.2191
G03 X 27.1531 Y 21.4172 Z -1.0000 I -0.0524 J 0.0439
G03 X 26.8663 Y 21.5235 Z -1.0000 I -0.3935 J -0.6216
G03 X 26.6166 Y 21.4958 Z -1.0000 I -0.0719 J -0.4907
G02 X 26.1555 Y 21.5671 Z -1.0000 I -0.1683 J 0.4385
G02 X 26.1709 Y 21.8513 Z -1.0000 I 0.1090 J 0.1366
G03 X 26.2475 Y 21.9674 Z -1.0000 I -0.0907 J 0.1432
G01 X 26.1991 Y 22.0250 Z -1.0000
G03 X 25.6952 Y 21.6785 Z -1.0000 I -0.0067 J -0.5299
G03 X 25.7545 Y 20.8199 Z -1.0000 I 0.9848 J -0.3633
G02 X 25.8974 Y 20.4175 Z -1.0000 I -1.2575 J -0.6730
G02 X 25.8575 Y 20.2872 Z -1.0000 I -0.1427 J -0.0276
G02 X 25.5429 Y 20.3179 Z -1.0000 I -0.1447 J 0.1447
G02 X 25.2988 Y 21.1198 Z -1.0000 I 1.1950 J 0.8019
G03 X 25.2015 Y 21.5337 Z -1.0000 I -0.9290 J 0.0000
G03 X 25.0444 Y 21.6310 Z -1.0000 I -0.1571 J -0.0782
G03 X 24.9051 Y 21.5353 Z -1.0000 I 0.0000 J -0.1492
G03 X 24.8729 Y 21.1843 Z -1.0000 I 0.6058 J -0.2326
G02 X 24.8646 Y 21.0375 Z -1.0000 I -0.3045 J -0.0565
G01 X 24.8275 Y 21.0354 Z -1.0000
G03 X 24.6940 Y 21.3308 Z -1.0000 I -8.5074 J -3.6652
G03 X 24.5361 Y 21.6515 Z -1.0000 I -10.1803 J -4.8149
G02 X 24.5812 Y 21.8137 Z -1.0000 I 0.1105 J 0.0566
G02 X 24.8902 Y 21.8708 Z -1.0000 I 0.2278 J -0.3677
G03 X 25.2431 Y 21.8851 Z -1.0000 I 0.1459 J 0.7634
G03 X 25.2798 Y 21.9785 Z -1.0000 I -0.0167 J 0.0604
G02 X 25.3508 Y 22.2316 Z -1.0000 I 0.1519 J 0.0939
G02 X 26.1587 Y 22.4251 Z -1.0000 I 0.8079 J -1.5899
G02 X 26.4343 Y 22.3189 Z -1.0000 I 0.0000 J -0.4106
G02 X 26.5426 Y 22.0777 Z -1.0000 I -0.2209 J -0.2441
G03 X 26.6175 Y 21.9818 Z -1.0000 I 0.1000 J 0.0009
G03 X 26.7347 Y 22.0281 Z -1.0000 I 0.0268 J 0.1037
G03 X 26.8084 Y 22.2854 Z -1.0000 I -0.3991 J 0.2535
G03 X 26.7317 Y 22.3920 Z -1.0000 I -0.1137 J -0.0009
G02 X 26.6481 Y 22.5984 Z -1.0000 I 0.0481 J 0.1396
G02 X 26.8870 Y 22.6979 Z -1.0000 I 0.1778 J -0.0902
G03 X 26.9549 Y 22.7256 Z -1.0000 I 0.0175 J 0.0543
G03 X 26.9383 Y 22.7951 Z -1.0000 I -0.0479 J 0.0253
G02 X 26.8068 Y 23.0182 Z -1.0000 I 0.1815 J 0.2572
G02 X 26.8886 Y 23.2506 Z -1.0000 I 0.2833 J 0.0309
G02 X 27.0647 Y 23.3270 Z -1.0000 I 0.1848 J -0.1848
G02 X 27.1351 Y 23.2589 Z -1.0000 I 0.0023 J -0.0681
G03 X 27.3289 Y 23.1039 Z -1.0000 I 0.1588 J 0.0000
G03 X 27.6200 Y 23.3681 Z -1.0000 I -0.0876 J 0.3891
G02 X 27.7972 Y 23.6688 Z -1.0000 I 0.7807 J -0.2575
G02 X 28.3152 Y 24.1197 Z -1.0000 I 2.3359 J -2.1607
G03 X 28.4992 Y 24.5641 Z -1.0000 I -0.2546 J 0.3657
G03 X 28.0909 Y 25.3697 Z -1.0000 I -1.5466 J -0.2774
G02 X 27.3863 Y 26.2144 Z -1.0000 I 6.1053 J 5.8092
G02 X 27.3949 Y 26.3245 Z -1.0000 I 0.0686 J 0.0500
G02 X 28.0609 Y 26.4745 Z -1.0000 I 0.4516 J -0.4516
G02 X 29.0162 Y 25.7466 Z -1.0000 I -0.6636 J -1.8618
G03 X 29.3201 Y 25.4464 Z -1.0000 I 0.9750 J 0.6829
G03 X 29.4396 Y 25.4576 Z -1.0000 I 0.0530 J 0.0777
G02 X 29.5819 Y 25.5040 Z -1.0000 I 0.1169 J -0.1169
G02 X 29.9653 Y 25.3757 Z -1.0000 I -0.1855 J -1.1914
G03 X 30.3611 Y 25.2862 Z -1.0000 I 0.3602 J 0.6731
G03 X 30.8323 Y 25.4161 Z -1.0000 I -0.0515 J 1.1066
G02 X 31.3308 Y 25.4054 Z -1.0000 I 0.2398 J -0.4481
G02 X 31.6091 Y 24.9567 Z -1.0000 I -0.2901 J -0.4906
G02 X 31.1677 Y 23.5908 Z -1.0000 I -1.9007 J -0.1400
G02 X 30.4349 Y 23.5590 Z -1.0000 I -0.3810 J 0.3200
G01 X 30.3667 Y 23.5490 Z -1.0000
G03 X 30.3114 Y 23.3303 Z -1.0000 I 0.4051 J -0.2187
G03 X 30.4111 Y 23.1232 Z -1.0000 I 0.2651 J 0.0000
G03 X 30.6092 Y 23.0925 Z -1.0000 I 0.1259 J 0.1576
G02 X 30.8371 Y 23.1050 Z -1.0000 I 0.1335 J -0.3478
G02 X 30.9070 Y 23.0145 Z -1.0000 I -0.0237 J -0.0906
G02 X 30.8498 Y 22.8794 Z -1.0000 I -0.1880 J -0.0000
G02 X 30.7085 Y 22.8222 Z -1.0000 I -0.1413 J 0.1459
G03 X 30.5733 Y 22.7588 Z -1.0000 I 0.0000 J -0.1760
G03 X 30.5100 Y 22.5839 Z -1.0000 I 0.2099 J -0.1749
G03 X 30.5797 Y 22.5142 Z -1.0000 I 0.0698 J 0.0000
G03 X 30.7482 Y 22.5839 Z -1.0000 I 0.0000 J 0.2382
G02 X 31.1223 Y 22.7586 Z -1.0000 I 0.4272 J -0.4272
G02 X 31.2052 Y 22.6242 Z -1.0000 I 0.0078 J -0.0879
G01 X 31.2410 Y 22.5569 Z -1.0000
G03 X 31.5653 Y 22.6097 Z -1.0000 I 0.0330 J 0.8191
G02 X 32.0232 Y 22.6774 Z -1.0000 I 0.3827 J -1.0066
G02 X 32.2832 Y 22.5595 Z -1.0000 I -0.0286 J -0.4088
G03 X 32.3647 Y 22.5626 Z -1.0000 I 0.0393 J 0.0396
G03 X 32.3849 Y 22.6772 Z -1.0000 I -0.0859 J 0.0742
G03 X 32.1746 Y 22.9038 Z -1.0000 I -0.3850 J -0.1466
G03 X 31.7488 Y 22.9750 Z -1.0000 I -0.3406 J -0.7276
G02 X 31.3095 Y 23.0213 Z -1.0000 I -0.1117 J 1.0476
G02 X 31.1601 Y 23.1675 Z -1.0000 I 0.0734 J 0.2244
G02 X 31.2225 Y 23.2947 Z -1.0000 I 0.0938 J 0.0329
G02 X 31.6852 Y 23.3425 Z -1.0000 I 0.3388 J -1.0169
G03 X 32.1881 Y 23.3932 Z -1.0000 I 0.1361 J 1.1689
G03 X 32.2966 Y 23.5430 Z -1.0000 I -0.0491 J 0.1498
G02 X 32.3635 Y 23.7479 Z -1.0000 I 0.3473 J -0.0000
G02 X 32.4952 Y 23.8148 Z -1.0000 I 0.1317 J -0.0962
G02 X 32.6355 Y 23.7566 Z -1.0000 I 0.0000 J -0.1985
G02 X 32.6937 Y 23.6163 Z -1.0000 I -0.1404 J -0.1404
G03 X 32.7741 Y 23.4981 Z -1.0000 I 0.1270 J -0.0000
G03 X 33.1962 Y 23.4177 Z -1.0000 I 0.4222 J 1.0687
G02 X 33.6305 Y 23.3184 Z -1.0000 I 0.0000 J -0.9988
G02 X 33.8130 Y 23.1199 Z -1.0000 I -0.1591 J -0.3295
G03 X 33.9683 Y 22.8818 Z -1.0000 I 0.6330 J 0.2429
G03 X 34.1129 Y 22.8222 Z -1.0000 I 0.1446 J 0.1456
G02 X 34.7172 Y 22.5306 Z -1.0000 I 0.0000 J -0.7720
G02 X 34.9874 Y 21.7224 Z -1.0000 I -0.9750 J -0.7753
G02 X 34.8106 Y 21.1717 Z -1.0000 I -1.0311 J 0.0273
G02 X 33.4409 Y 19.4366 Z -1.0000 I -12.4788 J 8.4428
G03 X 32.9710 Y 18.8046 Z -1.0000 I 2.8433 J -2.6050
G03 X 32.7652 Y 18.3018 Z -1.0000 I 1.5768 J -0.9389
G02 X 32.1630 Y 16.7736 Z -1.0000 I -5.9103 J 1.4461
G02 X 30.8765 Y 14.9311 Z -1.0000 I -9.9349 J 5.5669
G03 X 30.3524 Y 14.2649 Z -1.0000 I 7.6852 J -6.5842
G03 X 29.6334 Y 13.2067 Z -1.0000 I 18.6993 J -13.4799
G02 X 28.4671 Y 12.0808 Z -1.0000 I -2.9459 J 1.8845
G02 X 27.0931 Y 11.7050 Z -1.0000 I -1.3740 J 2.3243
G03 X 25.6613 Y 11.0381 Z -1.0000 I 0.0000 J -1.8704
G03 X 24.5579 Y 8.6887 Z -1.0000 I 3.8662 J -3.2496
G03 X 24.5536 Y 6.5757 Z -1.0000 I 5.8985 J -1.0685
G03 X 25.2700 Y 4.6646 Z -1.0000 I 5.5064 J 0.9744
G02 X 25.8693 Y 3.5282 Z -1.0000 I -9.6702 J -5.8253
G02 X 25.8465 Y 3.4020 Z -1.0000 I -0.1022 J -0.0467
G02 X 25.7109 Y 3.3338 Z -1.0000 I -0.1708 J 0.1708
G02 X 24.7663 Y 3.2428 Z -1.0000 I -1.3784 J 9.3505
G02 X 23.9706 Y 3.4209 Z -1.0000 I -0.0711 J 1.5480
G02 X 23.6585 Y 3.8287 Z -1.0000 I 0.2874 J 0.5433
G01 X 23.6584 Y 3.8287 Z -1.0000
G00 Z 5.0000

(End cutting path id: path134739)


(Start cutting path id: path134739)
(Change tool to Default tool)

G00 Z 5.0000
G00 X 22.7555 Y 4.0285

G01 Z -1.0000 F 100.0000(Penetrate)
G02 X 22.5706 Y 4.3049 Z -1.0000 I 0.3009 J 0.4014 F 3500.0000
G02 X 22.5681 Y 4.7568 Z -1.0000 I 0.8971 J 0.2308
G02 X 22.7110 Y 4.8226 Z -1.0000 I 0.0977 J -0.0240
G02 X 22.9283 Y 4.5757 Z -1.0000 I -0.1975 J -0.3928
G02 X 22.9362 Y 4.0866 Z -1.0000 I -0.7291 J -0.2564
G02 X 22.7555 Y 4.0285 Z -1.0000 I -0.1109 J 0.0350
G01 X 22.7555 Y 4.0285 Z -1.0000
G00 Z 5.0000

(End cutting path id: path134739)


(Start cutting path id: path134739)
(Change tool to Default tool)

G00 Z 5.0000
G00 X 21.3780 Y 3.9627

G01 Z -1.0000 F 100.0000(Penetrate)
G02 X 21.4124 Y 4.3253 Z -1.0000 I 1.9260 J 0.0000 F 3500.0000
G01 X 21.4541 Y 4.3597 Z -1.0000
G02 X 21.5049 Y 4.3270 Z -1.0000 I 0.0000 J -0.0558
G02 X 21.6340 Y 3.9627 Z -1.0000 I -2.0767 J -0.9411
G02 X 21.6448 Y 3.6375 Z -1.0000 I -0.7130 J -0.1865
G02 X 21.5579 Y 3.5656 Z -1.0000 I -0.0869 J 0.0167
G02 X 21.4485 Y 3.6362 Z -1.0000 I 0.0000 J 0.1201
G02 X 21.3780 Y 3.9627 Z -1.0000 I 0.7204 J 0.3265
G01 X 21.3780 Y 3.9627 Z -1.0000
G00 Z 5.0000

(End cutting path id: path134739)


(Start cutting path id: path134739)
(Change tool to Default tool)

G00 Z 5.0000
G00 X 21.8468 Y 2.2753

G01 Z -1.0000 F 100.0000(Penetrate)
G02 X 21.9539 Y 2.8086 Z -1.0000 I 0.4747 J 0.1821 F 3500.0000
G02 X 22.5533 Y 3.0148 Z -1.0000 I 0.4992 J -0.4769
G03 X 22.9789 Y 3.0771 Z -1.0000 I 0.1088 J 0.7414
G03 X 23.0467 Y 3.2450 Z -1.0000 I -0.0561 J 0.1203
G02 X 23.1909 Y 3.3862 Z -1.0000 I 0.1027 J 0.0394
G02 X 23.7320 Y 2.9658 Z -1.0000 I -0.4782 J -1.1740
G02 X 24.0713 Y 2.3617 Z -1.0000 I -2.2354 J -1.6527
G02 X 24.0554 Y 2.1717 Z -1.0000 I -0.1948 J -0.0793
G02 X 22.8615 Y 1.5423 Z -1.0000 I -1.1316 J 0.6994
G02 X 21.8468 Y 2.2753 Z -1.0000 I 0.0536 J 1.1429
G01 X 21.8468 Y 2.2753 Z -1.0000
G00 Z 5.0000

(End cutting path id: path134739)


(Start cutting path id: path134739)
(Change tool to Default tool)

G00 Z 5.0000
G00 X 21.9736 Y 13.2932

G01 Z -1.0000 F 100.0000(Penetrate)
G02 X 22.0317 Y 13.4335 Z -1.0000 I 0.1985 J 0.0000 F 3500.0000
G02 X 22.1721 Y 13.4917 Z -1.0000 I 0.1404 J -0.1404
G02 X 22.3125 Y 13.4335 Z -1.0000 I 0.0000 J -0.1985
G02 X 22.3706 Y 13.2932 Z -1.0000 I -0.1404 J -0.1404
G02 X 22.3125 Y 13.1528 Z -1.0000 I -0.1985 J 0.0000
G02 X 22.1721 Y 13.0946 Z -1.0000 I -0.1404 J 0.1404
G02 X 22.0317 Y 13.1528 Z -1.0000 I -0.0000 J 0.1985
G02 X 21.9736 Y 13.2932 Z -1.0000 I 0.1404 J 0.1404
G01 X 21.9736 Y 13.2932 Z -1.0000
G00 Z 5.0000

(End cutting path id: path134739)


(Start cutting path id: path134739)
(Change tool to Default tool)

G00 Z 5.0000
G00 X 12.2461 Y 14.6098

G01 Z -1.0000 F 100.0000(Penetrate)
G03 X 12.1874 Y 14.8252 Z -1.0000 I -0.4250 J 0.0000 F 3500.0000
G03 X 12.0169 Y 14.9995 Z -1.0000 I -0.4372 J -0.2571
G03 X 11.9336 Y 14.9953 Z -1.0000 I -0.0386 J -0.0624
G03 X 11.9208 Y 14.9257 Z -1.0000 I 0.0322 J -0.0418
G02 X 11.9553 Y 14.7335 Z -1.0000 I -0.2260 J -0.1397
G02 X 11.8522 Y 14.5855 Z -1.0000 I -0.2222 J 0.0448
G03 X 11.7211 Y 14.4222 Z -1.0000 I 0.1649 J -0.2668
G03 X 11.6568 Y 14.0259 Z -1.0000 I 1.0869 J -0.3796
G03 X 11.7645 Y 13.9006 Z -1.0000 I 0.1289 J 0.0019
G03 X 11.9546 Y 13.9763 Z -1.0000 I 0.0325 J 0.1949
G03 X 12.1954 Y 14.3786 Z -1.0000 I -1.7322 J 1.3101
G03 X 12.2461 Y 14.6098 Z -1.0000 I -0.5023 J 0.2311
G01 X 12.2461 Y 14.6098 Z -1.0000
G00 Z 5.0000

(End cutting path id: path134739)


(Start cutting path id: path134739)
(Change tool to Default tool)

G00 Z 5.0000
G00 X 11.0214 Y 13.9476

G01 Z -1.0000 F 100.0000(Penetrate)
G03 X 11.6040 Y 15.5994 Z -1.0000 I -1.9458 J 1.6149 F 3500.0000
G03 X 10.9924 Y 15.9345 Z -1.0000 I -0.4008 J -0.0059
G03 X 10.9020 Y 15.7886 Z -1.0000 I 0.1011 J -0.1635
G03 X 10.9303 Y 15.2565 Z -1.0000 I 1.8441 J -0.1689
G02 X 10.8300 Y 14.3612 Z -1.0000 I -1.4526 J -0.2905
G02 X 10.4074 Y 14.0872 Z -1.0000 I -0.4226 J 0.1890
G02 X 10.2722 Y 14.2077 Z -1.0000 I 0.0000 J 0.1361
G02 X 10.3612 Y 14.4855 Z -1.0000 I 0.3511 J 0.0407
G03 X 10.6342 Y 14.8816 Z -1.0000 I -1.3545 J 1.2258
G03 X 10.6174 Y 14.9880 Z -1.0000 I -0.0816 J 0.0416
G03 X 10.1871 Y 14.9363 Z -1.0000 I -0.1948 J -0.1948
G03 X 9.9790 Y 13.9383 Z -1.0000 I 1.3030 J -0.7925
G02 X 10.0119 Y 13.6901 Z -1.0000 I -36.6317 J -4.9809
G02 X 10.0375 Y 13.4847 Z -1.0000 I -25.0530 J -3.2338
G03 X 10.2627 Y 13.3601 Z -1.0000 I 0.1576 J 0.0190
G03 X 11.0214 Y 13.9476 Z -1.0000 I -0.9395 J 1.9969
G01 X 11.0214 Y 13.9476 Z -1.0000
G00 Z 5.0000

(End cutting path id: path134739)


(Start cutting path id: path134739)
(Change tool to Default tool)

G00 Z 5.0000
G00 X 4.7827 Y 16.0436

G01 Z -1.0000 F 100.0000(Penetrate)
G02 X 5.1923 Y 16.3459 Z -1.0000 I 0.9180 J -0.8151 F 3500.0000
G02 X 5.2978 Y 16.2779 Z -1.0000 I 0.0309 J -0.0679
G02 X 5.2327 Y 16.1258 Z -1.0000 I -0.2102 J -0.0000
G02 X 4.8512 Y 15.8520 Z -1.0000 I -1.1679 J 1.2248
G02 X 4.7530 Y 15.8903 Z -1.0000 I -0.0324 J 0.0618
G02 X 4.7827 Y 16.0436 Z -1.0000 I 0.1442 J 0.0516
G01 X 4.7827 Y 16.0436 Z -1.0000
G00 Z 5.0000

(End cutting path id: path134739)


(Start cutting path id: path134739)
(Change tool to Default tool)

G00 Z 5.0000
G00 X 4.3052 Y 15.2784

G01 Z -1.0000 F 100.0000(Penetrate)
G02 X 4.3609 Y 15.4212 Z -1.0000 I 0.2112 J 0.0000 F 3500.0000
G02 X 4.4875 Y 15.4769 Z -1.0000 I 0.1266 J -0.1163
G03 X 4.6664 Y 15.4972 Z -1.0000 I -0.0000 J 0.7955
G03 X 5.0334 Y 15.6028 Z -1.0000 I -0.8056 J 3.4910
G01 X 5.0868 Y 15.5575 Z -1.0000
G02 X 5.0001 Y 15.4106 Z -1.0000 I -0.2375 J 0.0413
G02 X 4.4511 Y 15.1576 Z -1.0000 I -0.7832 J 0.9773
G02 X 4.3052 Y 15.2784 Z -1.0000 I -0.0230 J 0.1207
G01 X 4.3052 Y 15.2784 Z -1.0000
G00 Z 5.0000

(End cutting path id: path134739)


(Start cutting path id: path134739)
(Change tool to Default tool)

G00 Z 5.0000
G00 X 4.0889 Y 16.6347

G01 Z -1.0000 F 100.0000(Penetrate)
G02 X 4.3141 Y 16.9735 Z -1.0000 I 1.8850 J -1.0088 F 3500.0000
G02 X 4.5922 Y 17.2546 Z -1.0000 I 1.5677 J -1.2729
G02 X 4.8140 Y 17.3259 Z -1.0000 I 0.1997 J -0.2407
G02 X 4.9008 Y 17.2327 Z -1.0000 I -0.0066 J -0.0932
G02 X 4.6281 Y 16.5437 Z -1.0000 I -1.0069 J 0.0000
G02 X 3.9982 Y 16.2710 Z -1.0000 I -0.6299 J 0.5911
G01 X 3.9650 Y 16.3134 Z -1.0000
G02 X 4.0889 Y 16.6347 Z -1.0000 I 1.3559 J -0.3381
G01 X 4.0889 Y 16.6347 Z -1.0000
G00 Z 5.0000

(End cutting path id: path134739)


(Start cutting path id: path134739)
(Change tool to Default tool)

G00 Z 5.0000
G00 X 3.2261 Y 16.9247

G01 Z -1.0000 F 100.0000(Penetrate)
G02 X 3.3854 Y 17.1697 Z -1.0000 I 0.6470 J -0.2464 F 3500.0000
G02 X 3.4728 Y 17.1696 Z -1.0000 I 0.0436 J -0.0439
G02 X 3.4966 Y 17.0586 Z -1.0000 I -0.0738 J -0.0738
G02 X 3.3373 Y 16.8136 Z -1.0000 I -0.6470 J 0.2464
G02 X 3.2499 Y 16.8137 Z -1.0000 I -0.0436 J 0.0439
G02 X 3.2261 Y 16.9247 Z -1.0000 I 0.0738 J 0.0738
G01 X 3.2261 Y 16.9247 Z -1.0000
G00 Z 5.0000

(End cutting path id: path134739)


(Start cutting path id: path134739)
(Change tool to Default tool)

G00 Z 5.0000
G00 X 3.5246 Y 18.1073

G01 Z -1.0000 F 100.0000(Penetrate)
G02 X 3.5505 Y 18.6148 Z -1.0000 I 3.3588 J 0.0827 F 3500.0000
G01 X 3.5942 Y 18.6532 Z -1.0000
G03 X 3.6755 Y 18.6638 Z -1.0000 I 0.0000 J 0.3185
G03 X 4.0408 Y 18.7712 Z -1.0000 I -1.7543 J 6.6409
G02 X 4.1906 Y 18.7721 Z -1.0000 I 0.0763 J -0.2352
G01 X 4.2005 Y 18.7216 Z -1.0000
G03 X 4.0283 Y 18.5294 Z -1.0000 I 0.5394 J -0.6566
G03 X 3.7672 Y 18.0576 Z -1.0000 I 3.1061 J -2.0269
G02 X 3.6259 Y 17.9862 Z -1.0000 I -0.1158 J 0.0535
G02 X 3.5246 Y 18.1073 Z -1.0000 I 0.0254 J 0.1242
G01 X 3.5246 Y 18.1073 Z -1.0000
G00 Z 5.0000

(End cutting path id: path134739)


(Start cutting path id: path134739)
(Change tool to Default tool)

G00 Z 5.0000
G00 X 7.8414 Y 22.7592

G01 Z -1.0000 F 100.0000(Penetrate)
G02 X 8.0893 Y 22.8017 Z -1.0000 I 0.2231 J -0.5576 F 3500.0000
G02 X 8.2219 Y 22.7436 Z -1.0000 I -0.0082 J -0.1990
G01 X 8.2092 Y 22.6818 Z -1.0000
G02 X 7.9613 Y 22.6393 Z -1.0000 I -0.2232 J 0.5577
G02 X 7.8287 Y 22.6974 Z -1.0000 I 0.0082 J 0.1989
G01 X 7.8414 Y 22.7592 Z -1.0000
G01 X 7.8414 Y 22.7592 Z -1.0000
G00 Z 5.0000

(End cutting path id: path134739)


(Start cutting path id: path134739)
(Change tool to Default tool)

G00 Z 5.0000
G00 X 7.8786 Y 23.0968

G01 Z -1.0000 F 100.0000(Penetrate)
G02 X 7.9114 Y 23.1476 Z -1.0000 I 0.0558 J 0.0000 F 3500.0000
G02 X 8.2756 Y 23.2767 Z -1.0000 I 0.9411 J -2.0766
G02 X 8.6008 Y 23.2875 Z -1.0000 I 0.1865 J -0.7130
G02 X 8.6727 Y 23.2006 Z -1.0000 I -0.0167 J -0.0869
G02 X 8.6022 Y 23.0912 Z -1.0000 I -0.1201 J 0.0000
G02 X 8.2756 Y 23.0207 Z -1.0000 I -0.3265 J 0.7205
G02 X 7.9130 Y 23.0551 Z -1.0000 I -0.0000 J 1.9260
G01 X 7.8786 Y 23.0968 Z -1.0000
G01 X 7.8786 Y 23.0968 Z -1.0000
G00 Z 5.0000

(End cutting path id: path134739)


(Start cutting path id: path134739)
(Change tool to Default tool)

G00 Z 5.0000
G00 X 9.0697 Y 23.4177

G01 Z -1.0000 F 100.0000(Penetrate)
G02 X 8.9402 Y 23.5605 Z -1.0000 I 0.2032 J 0.3144 F 3500.0000
G01 X 8.9705 Y 23.6101 Z -1.0000
G02 X 9.1586 Y 23.5749 Z -1.0000 I 0.0000 J -0.5204
G02 X 9.4668 Y 23.4177 Z -1.0000 I -0.6147 J -1.5853
G02 X 9.5963 Y 23.2749 Z -1.0000 I -0.2032 J -0.3144
G01 X 9.5660 Y 23.2253 Z -1.0000
G02 X 9.3779 Y 23.2605 Z -1.0000 I 0.0000 J 0.5204
G02 X 9.0697 Y 23.4177 Z -1.0000 I 0.6147 J 1.5853
G01 X 9.0697 Y 23.4177 Z -1.0000
G00 Z 5.0000

(End cutting path id: path134739)


(Start cutting path id: path134739)
(Change tool to Default tool)

G00 Z 5.0000
G00 X 9.9569 Y 22.8321

G01 Z -1.0000 F 100.0000(Penetrate)
G02 X 9.9955 Y 23.0261 Z -1.0000 I 0.1234 J 0.0763 F 3500.0000
G02 X 10.2382 Y 23.0347 Z -1.0000 I 0.1277 J -0.1773
G02 X 10.3512 Y 22.8718 Z -1.0000 I -0.1306 J -0.2113
G02 X 10.2958 Y 22.7445 Z -1.0000 I -0.1195 J -0.0237
G02 X 10.1133 Y 22.7168 Z -1.0000 I -0.1236 J 0.2000
G02 X 9.9569 Y 22.8321 Z -1.0000 I 0.0652 J 0.2522
G01 X 9.9569 Y 22.8321 Z -1.0000
G00 Z 5.0000

(End cutting path id: path134739)


(Start cutting path id: path134739)
(Change tool to Default tool)

G00 Z 5.0000
G00 X 10.0623 Y 22.2383

G01 Z -1.0000 F 100.0000(Penetrate)
G02 X 10.1255 Y 22.3352 Z -1.0000 I 0.1059 J 0.0000 F 3500.0000
G02 X 10.2608 Y 22.3258 Z -1.0000 I 0.0588 J -0.1333
G02 X 10.4309 Y 22.1873 Z -1.0000 I -0.4440 J -0.7183
G02 X 10.4594 Y 22.1156 Z -1.0000 I -0.0759 J -0.0717
G02 X 10.4248 Y 22.0626 Z -1.0000 I -0.0579 J 0.0000
G02 X 10.2608 Y 22.0281 Z -1.0000 I -0.1640 J 0.3719
G02 X 10.1221 Y 22.0879 Z -1.0000 I -0.0000 J 0.1908
G02 X 10.0623 Y 22.2383 Z -1.0000 I 0.1593 J 0.1504
G01 X 10.0623 Y 22.2383 Z -1.0000
G00 Z 5.0000

(End cutting path id: path134739)


(Start cutting path id: path134739)
(Change tool to Default tool)

G00 Z 5.0000
G00 X 11.2691 Y 23.5335

G01 Z -1.0000 F 100.0000(Penetrate)
G02 X 11.3273 Y 23.6661 Z -1.0000 I 0.1989 J -0.0082 F 3500.0000
G01 X 11.3891 Y 23.6534 Z -1.0000
G02 X 11.4315 Y 23.4056 Z -1.0000 I -0.5576 J -0.2231
G02 X 11.3734 Y 23.2729 Z -1.0000 I -0.1990 J 0.0082
G01 X 11.3116 Y 23.2856 Z -1.0000
G02 X 11.2691 Y 23.5335 Z -1.0000 I 0.5577 J 0.2232
G01 X 11.2691 Y 23.5335 Z -1.0000
G00 Z 5.0000

(End cutting path id: path134739)



(Footer)
M5
G00 X0.0000 Y0.0000
M2
(Using default footer. To add your own footer create file "footer" in the output dir.)
(end)
%