%
(Header)
(Generated by gcodetools from Inkscape.)
(Using default header. To add your own header create file "header" in the output dir.)
M3
(Header end.)
G21 (All units in mm)

(Start cutting path id: path179927)
(Change tool to Default tool)

G00 Z 5.0000
G00 X 21.4207 Y 1.6597

G01 Z -1.0000 F 100.0000(Penetrate)
G02 X 20.9749 Y 1.8492 Z -1.0000 I 0.0793 J 0.8053 F 3500.0000
G02 X 20.7210 Y 2.2562 Z -1.0000 I 0.5150 J 0.6040
G02 X 20.6598 Y 2.6522 Z -1.0000 I 1.9917 J 0.5104
G02 X 20.6194 Y 4.0796 Z -1.0000 I 26.0849 J 1.4541
G02 X 20.6476 Y 4.5715 Z -1.0000 I 4.2175 J 0.0043
G02 X 20.6836 Y 4.6313 Z -1.0000 I 0.0838 J -0.0098
G01 X 20.6929 Y 4.6511 Z -1.0000
G01 X 20.6812 Y 4.6595 Z -1.0000
G01 X 20.6466 Y 4.6828 Z -1.0000
G02 X 20.6307 Y 4.9995 Z -1.0000 I 1.6183 J 0.2402
G03 X 20.6451 Y 5.3559 Z -1.0000 I -27.5365 J 1.2927
G03 X 20.6649 Y 6.0055 Z -1.0000 I -93.8821 J 3.1906
G02 X 20.7175 Y 6.6143 Z -1.0000 I 5.1684 J -0.1398
G01 X 20.7585 Y 6.6453 Z -1.0000
G01 X 20.7665 Y 6.6531 Z -1.0000
G01 X 20.7565 Y 6.6663 Z -1.0000
G02 X 20.7088 Y 6.7177 Z -1.0000 I 0.0301 J 0.0759
G02 X 20.6796 Y 6.9109 Z -1.0000 I 0.6037 J 0.1899
G02 X 20.6868 Y 7.1185 Z -1.0000 I 3.5174 J -0.0184
G01 X 20.6934 Y 7.1246 Z -1.0000
G01 X 20.7056 Y 7.1223 Z -1.0000
G02 X 20.9556 Y 7.0239 Z -1.0000 I -5.7643 J -15.0139
G03 X 21.2070 Y 6.9329 Z -1.0000 I 1.3931 J 3.4552
G03 X 21.2644 Y 6.9245 Z -1.0000 I 0.0536 J 0.1666
G01 X 21.2686 Y 6.9353 Z -1.0000
G03 X 21.2229 Y 6.9643 Z -1.0000 I -0.0946 J -0.0989
G03 X 21.1222 Y 7.0027 Z -1.0000 I -63.5937 J -166.4084
G03 X 20.9137 Y 7.0822 Z -1.0000 I -339.9364 J -891.1260
G02 X 20.7821 Y 7.2147 Z -1.0000 I 0.0807 J 0.2118
G02 X 20.7052 Y 7.6400 Z -1.0000 I 1.1380 J 0.4254
G02 X 20.7248 Y 8.1122 Z -1.0000 I 5.6816 J 0.0000
G02 X 20.7504 Y 8.1830 Z -1.0000 I 0.1439 J -0.0120
G03 X 20.7713 Y 8.2311 Z -1.0000 I -0.1071 J 0.0751
G01 X 20.7624 Y 8.2398 Z -1.0000
G01 X 20.7415 Y 8.2562 Z -1.0000
G02 X 20.7540 Y 9.9288 Z -1.0000 I 67.0748 J 0.3335
G03 X 20.7661 Y 10.9067 Z -1.0000 I -64.2756 J 1.2847
G03 X 20.7753 Y 14.3898 Z -1.0000 I -815.5006 J 3.8918
G02 X 20.8127 Y 17.8098 Z -1.0000 I 163.5033 J -0.0798
G01 X 20.8490 Y 17.8298 Z -1.0000
G01 X 20.8559 Y 17.8346 Z -1.0000
G01 X 20.8444 Y 17.8554 Z -1.0000
G02 X 20.8017 Y 17.9397 Z -1.0000 I 0.0874 J 0.0972
G02 X 20.7482 Y 18.8264 Z -1.0000 I 11.4905 J 1.1383
G02 X 20.7445 Y 19.7006 Z -1.0000 I 24.8544 J 0.5417
G01 X 20.7600 Y 19.7091 Z -1.0000
G01 X 20.7820 Y 19.7067 Z -1.0000
G01 X 20.7915 Y 19.7201 Z -1.0000
G01 X 20.7828 Y 19.7419 Z -1.0000
G01 X 20.7627 Y 19.7505 Z -1.0000
G01 X 20.7455 Y 19.7621 Z -1.0000
G02 X 20.7339 Y 19.8224 Z -1.0000 I 0.1507 J 0.0603
G02 X 20.7491 Y 19.8791 Z -1.0000 I 0.1136 J -0.0000
G01 X 20.7754 Y 19.8943 Z -1.0000
G03 X 20.8118 Y 19.9033 Z -1.0000 I 0.0000 J 0.0789
G03 X 20.8365 Y 19.9262 Z -1.0000 I -0.0293 J 0.0563
G01 X 20.8315 Y 19.9388 Z -1.0000
G03 X 20.7935 Y 19.9381 Z -1.0000 I -0.0179 J -0.0641
G01 X 20.7593 Y 19.9549 Z -1.0000
G02 X 20.7396 Y 20.0852 Z -1.0000 I 0.3088 J 0.1132
G02 X 20.7832 Y 20.2245 Z -1.0000 I 0.2932 J -0.0153
G02 X 20.8634 Y 20.2851 Z -1.0000 I 0.1185 J -0.0734
G02 X 20.9766 Y 20.2989 Z -1.0000 I 0.0999 J -0.3494
G02 X 21.0575 Y 20.2780 Z -1.0000 I -0.0071 J -0.1950
G03 X 21.1305 Y 20.2479 Z -1.0000 I 0.2306 J 0.4558
G01 X 21.1366 Y 20.2524 Z -1.0000
G03 X 21.0802 Y 20.3329 Z -1.0000 I -0.0857 J 0.0000
G03 X 20.8979 Y 20.3393 Z -1.0000 I -0.1010 J -0.2772
G02 X 20.7810 Y 20.3548 Z -1.0000 I -0.0407 J 0.1420
G02 X 20.7339 Y 20.4380 Z -1.0000 I 0.0500 J 0.0832
G02 X 20.7556 Y 20.5532 Z -1.0000 I 0.3171 J -0.0000
G01 X 20.7843 Y 20.5670 Z -1.0000
G01 X 20.7921 Y 20.5740 Z -1.0000
G01 X 20.7784 Y 20.5969 Z -1.0000
G02 X 20.7437 Y 20.6535 Z -1.0000 I 0.0633 J 0.0778
G02 X 20.7104 Y 20.9113 Z -1.0000 I 1.5040 J 0.3251
G02 X 20.7201 Y 21.1658 Z -1.0000 I 1.5507 J 0.0681
G01 X 20.7450 Y 21.1977 Z -1.0000
G02 X 20.8440 Y 21.1971 Z -1.0000 I 0.0486 J -0.1267
G01 X 20.8587 Y 21.1524 Z -1.0000
G01 X 20.8601 Y 21.1422 Z -1.0000
G01 X 20.8707 Y 21.1411 Z -1.0000
G02 X 20.9602 Y 21.1492 Z -1.0000 I 0.0529 J -0.0855
G01 X 20.9767 Y 21.0996 Z -1.0000
G01 X 20.9803 Y 21.0902 Z -1.0000
G01 X 21.0054 Y 21.0912 Z -1.0000
G01 X 21.0418 Y 21.0903 Z -1.0000
G01 X 21.0668 Y 21.0639 Z -1.0000
G03 X 21.0915 Y 21.0368 Z -1.0000 I 0.0474 J 0.0183
G01 X 21.1243 Y 21.0352 Z -1.0000
G01 X 21.1571 Y 21.0333 Z -1.0000
G02 X 21.1825 Y 21.0048 Z -1.0000 I -0.0250 J -0.0479
G03 X 21.2053 Y 20.9742 Z -1.0000 I 0.0655 J 0.0251
G01 X 21.2235 Y 20.9733 Z -1.0000
G01 X 21.2454 Y 20.9744 Z -1.0000
G02 X 21.2975 Y 20.9372 Z -1.0000 I -0.0855 J -0.1748
G03 X 21.3486 Y 20.8936 Z -1.0000 I 0.3007 J 0.3007
G01 X 21.3574 Y 20.8938 Z -1.0000
G01 X 21.4010 Y 20.8999 Z -1.0000
G01 X 21.4100 Y 20.8725 Z -1.0000
G01 X 21.4140 Y 20.8620 Z -1.0000
G01 X 21.4418 Y 20.8630 Z -1.0000
G01 X 21.4645 Y 20.8599 Z -1.0000
G01 X 21.4676 Y 20.8439 Z -1.0000
G01 X 21.4659 Y 20.8277 Z -1.0000
G01 X 21.4747 Y 20.8247 Z -1.0000
G02 X 21.5650 Y 20.8337 Z -1.0000 I 0.0543 J -0.0879
G01 X 21.5817 Y 20.7849 Z -1.0000
G01 X 21.5789 Y 20.7640 Z -1.0000
G01 X 21.5938 Y 20.7446 Z -1.0000
G01 X 21.6076 Y 20.7476 Z -1.0000
G01 X 21.6137 Y 20.7744 Z -1.0000
G01 X 21.5907 Y 20.8091 Z -1.0000
G03 X 21.1563 Y 21.0549 Z -1.0000 I -3.6901 J -6.0144
G02 X 20.7868 Y 21.3386 Z -1.0000 I 0.6170 J 1.1863
G02 X 20.7051 Y 21.5481 Z -1.0000 I 0.2299 J 0.2103
G03 X 20.6979 Y 21.8061 Z -1.0000 I -5.1322 J -0.0137
G03 X 20.6882 Y 21.8674 Z -1.0000 I -0.2971 J -0.0158
G02 X 20.6887 Y 21.9233 Z -1.0000 I 0.1007 J 0.0269
G02 X 20.7194 Y 21.9752 Z -1.0000 I 0.1164 J -0.0337
G03 X 20.7371 Y 22.0104 Z -1.0000 I -0.0446 J 0.0446
G01 X 20.7266 Y 22.0226 Z -1.0000
G01 X 20.7049 Y 22.0416 Z -1.0000
G02 X 20.6795 Y 22.3735 Z -1.0000 I 2.9033 J 0.3893
G03 X 20.6684 Y 22.7232 Z -1.0000 I -14.4963 J -0.2854
G01 X 20.6634 Y 22.7402 Z -1.0000
G02 X 20.6303 Y 22.8584 Z -1.0000 I 0.2083 J 0.1220
G02 X 20.6082 Y 26.1929 Z -1.0000 I 178.2846 J 2.8524
G02 X 20.6625 Y 27.9583 Z -1.0000 I 31.4824 J -0.0849
G02 X 20.7360 Y 28.3647 Z -1.0000 I 1.7183 J -0.1012
G02 X 20.8216 Y 28.5516 Z -1.0000 I 0.7575 J -0.2337
G02 X 20.9724 Y 28.7423 Z -1.0000 I 0.9393 J -0.5882
G02 X 21.1635 Y 28.8869 Z -1.0000 I 0.5954 J -0.5881
G02 X 21.3578 Y 28.9549 Z -1.0000 I 0.2985 J -0.5408
G02 X 21.7886 Y 28.9752 Z -1.0000 I 0.2978 J -1.7407
G02 X 22.0856 Y 28.9000 Z -1.0000 I -0.0672 J -0.8892
G02 X 22.2063 Y 28.8294 Z -1.0000 I -0.2638 J -0.5895
G02 X 22.3517 Y 28.7029 Z -1.0000 I -0.7311 J -0.9870
G02 X 22.5309 Y 28.3745 Z -1.0000 I -0.4889 J -0.4800
G02 X 22.6895 Y 27.2139 Z -1.0000 I -6.5496 J -1.4858
G02 X 22.7198 Y 25.8667 Z -1.0000 I -25.9228 J -1.2570
G02 X 22.6761 Y 23.3600 Z -1.0000 I -89.8292 J 0.3124
G02 X 22.5843 Y 21.1049 Z -1.0000 I -121.4729 J 3.8137
G02 X 22.5610 Y 21.0591 Z -1.0000 I -0.0630 J 0.0032
G03 X 22.5324 Y 21.0255 Z -1.0000 I 0.0762 J -0.0940
G03 X 22.5030 Y 20.9584 Z -1.0000 I 0.2888 J -0.1664
G01 X 22.5124 Y 20.9456 Z -1.0000
G01 X 22.5392 Y 20.9582 Z -1.0000
G01 X 22.5707 Y 20.9525 Z -1.0000
G02 X 22.6005 Y 20.7784 Z -1.0000 I -0.5283 J -0.1801
G02 X 22.5879 Y 20.5422 Z -1.0000 I -1.8556 J -0.0199
G01 X 22.5710 Y 20.5271 Z -1.0000
G01 X 22.5609 Y 20.5167 Z -1.0000
G01 X 22.5723 Y 20.4867 Z -1.0000
G02 X 22.6148 Y 20.3510 Z -1.0000 I -0.1443 J -0.1198
G02 X 22.5561 Y 20.2970 Z -1.0000 I -0.0588 J 0.0050
G01 X 22.5445 Y 20.2998 Z -1.0000
G02 X 22.4657 Y 20.3436 Z -1.0000 I 0.6723 J 1.3036
G01 X 22.4570 Y 20.3408 Z -1.0000
G01 X 22.4595 Y 20.3298 Z -1.0000
G03 X 22.5335 Y 20.2750 Z -1.0000 I 0.4933 J 0.5883
G01 X 22.5530 Y 20.2689 Z -1.0000
G01 X 22.5640 Y 20.2580 Z -1.0000
G02 X 22.5745 Y 19.7824 Z -1.0000 I -10.7220 J -0.4756
G02 X 22.4735 Y 19.3678 Z -1.0000 I -0.9008 J -0.0000
G02 X 22.2654 Y 19.1861 Z -1.0000 I -0.3353 J 0.1738
G02 X 21.9561 Y 19.0802 Z -1.0000 I -4.0701 J 11.3814
G01 X 21.9418 Y 19.0801 Z -1.0000
G03 X 21.8913 Y 19.0865 Z -1.0000 I -0.0420 J -0.1298
G01 X 21.8890 Y 19.0768 Z -1.0000
G03 X 21.9684 Y 19.0620 Z -1.0000 I 0.0606 J 0.1041
G03 X 22.2428 Y 19.1325 Z -1.0000 I -0.2309 J 1.4667
G02 X 22.5206 Y 19.2286 Z -1.0000 I 3.4490 J -9.5275
G02 X 22.5472 Y 19.2328 Z -1.0000 I 0.0265 J -0.0805
G01 X 22.5609 Y 19.2206 Z -1.0000
G02 X 22.5618 Y 19.1106 Z -1.0000 I -0.4922 J -0.0588
G03 X 22.5513 Y 18.9882 Z -1.0000 I 3.3099 J -0.3446
G03 X 22.5474 Y 18.8973 Z -1.0000 I 1.8660 J -0.1249
G02 X 22.5237 Y 18.8220 Z -1.0000 I -0.1394 J 0.0025
G02 X 22.4667 Y 18.7773 Z -1.0000 I -0.0972 J 0.0654
G01 X 22.4536 Y 18.7591 Z -1.0000
G01 X 22.4658 Y 18.7462 Z -1.0000
G01 X 22.5069 Y 18.7079 Z -1.0000
G02 X 22.5422 Y 17.9889 Z -1.0000 I -6.9618 J -0.7022
G02 X 22.5333 Y 17.2343 Z -1.0000 I -40.2403 J 0.0964
G02 X 22.5215 Y 17.0116 Z -1.0000 I -3.5168 J 0.0744
G02 X 22.4493 Y 16.8964 Z -1.0000 I -0.1480 J 0.0126
G02 X 22.3301 Y 16.8980 Z -1.0000 I -0.0583 J 0.0982
G03 X 22.0922 Y 17.0402 Z -1.0000 I -3.1055 J -4.9231
G01 X 22.0856 Y 17.0364 Z -1.0000
G01 X 22.0913 Y 17.0255 Z -1.0000
G03 X 22.3015 Y 16.8878 Z -1.0000 I 3.1271 J 4.5423
G02 X 22.4167 Y 16.6973 Z -1.0000 I -0.1301 J -0.2087
G02 X 22.5167 Y 13.9923 Z -1.0000 I -36.2670 J -2.6954
G02 X 22.4847 Y 11.2456 Z -1.0000 I -120.5780 J 0.0318
G02 X 22.4518 Y 11.1752 Z -1.0000 I -0.0964 J 0.0022
G01 X 22.4416 Y 11.1548 Z -1.0000
G01 X 22.4499 Y 11.1492 Z -1.0000
G01 X 22.4821 Y 11.1314 Z -1.0000
G02 X 22.5118 Y 10.6062 Z -1.0000 I -4.5786 J -0.5217
G03 X 22.5189 Y 10.0353 Z -1.0000 I 21.5414 J -0.0166
G03 X 22.5271 Y 10.0077 Z -1.0000 I 0.0555 J 0.0014
G01 X 22.5313 Y 9.9817 Z -1.0000
G02 X 22.5029 Y 9.9051 Z -1.0000 I -0.3227 J 0.0762
G03 X 22.4885 Y 9.8437 Z -1.0000 I 0.1137 J -0.0590
G01 X 22.5044 Y 9.8281 Z -1.0000
G01 X 22.5408 Y 9.7950 Z -1.0000
G02 X 22.5145 Y 9.7220 Z -1.0000 I -0.0905 J -0.0087
G01 X 22.5025 Y 9.6930 Z -1.0000
G01 X 22.5145 Y 9.6715 Z -1.0000
G02 X 22.6384 Y 9.4477 Z -1.0000 I -0.1372 J -0.2221
G02 X 22.5113 Y 9.1436 Z -1.0000 I -0.4342 J 0.0028
G01 X 22.5044 Y 9.1203 Z -1.0000
G01 X 22.5185 Y 9.1086 Z -1.0000
G01 X 22.5278 Y 9.0988 Z -1.0000
G01 X 22.5171 Y 9.0803 Z -1.0000
G01 X 22.5032 Y 9.0608 Z -1.0000
G01 X 22.5099 Y 9.0520 Z -1.0000
G02 X 22.6770 Y 8.8833 Z -1.0000 I -0.0021 J -0.1691
G02 X 22.5113 Y 8.4821 Z -1.0000 I -0.5650 J -0.0015
G01 X 22.5021 Y 8.4581 Z -1.0000
G01 X 22.5131 Y 8.4476 Z -1.0000
G01 X 22.5587 Y 8.3988 Z -1.0000
G02 X 22.5027 Y 8.2970 Z -1.0000 I -0.1378 J 0.0096
G01 X 22.4985 Y 8.2838 Z -1.0000
G01 X 22.5099 Y 8.2755 Z -1.0000
G01 X 22.5320 Y 8.2613 Z -1.0000
G02 X 22.5459 Y 8.1998 Z -1.0000 I -0.1296 J -0.0616
G02 X 22.5245 Y 8.1533 Z -1.0000 I -0.0614 J 0.0000
G01 X 22.4811 Y 8.1441 Z -1.0000
G03 X 22.2304 Y 8.1825 Z -1.0000 I -0.2599 J -0.8595
G03 X 22.1288 Y 8.1477 Z -1.0000 I -0.0017 J -0.1609
G01 X 22.1299 Y 8.1346 Z -1.0000
G01 X 22.1562 Y 8.1325 Z -1.0000
G02 X 22.4102 Y 8.1484 Z -1.0000 I 0.1544 J -0.4309
G02 X 22.5455 Y 8.0457 Z -1.0000 I -0.0443 J -0.1988
G01 X 22.5413 Y 7.9923 Z -1.0000
G01 X 22.4927 Y 7.9759 Z -1.0000
G01 X 22.4898 Y 7.9714 Z -1.0000
G03 X 22.5103 Y 7.9550 Z -1.0000 I 0.0521 J 0.0437
G02 X 22.5544 Y 7.9100 Z -1.0000 I -0.0478 J -0.0910
G02 X 22.5647 Y 7.8462 Z -1.0000 I -0.0969 J -0.0485
G02 X 22.5244 Y 7.7989 Z -1.0000 I -0.0575 J 0.0082
G02 X 22.4021 Y 7.7958 Z -1.0000 I -0.0667 J 0.2151
G01 X 22.3988 Y 7.7893 Z -1.0000
G03 X 22.4524 Y 7.7559 Z -1.0000 I 0.1738 J 0.2191
G02 X 22.5319 Y 7.6706 Z -1.0000 I -0.0684 J -0.1435
G02 X 22.5746 Y 7.4456 Z -1.0000 I -0.5712 J -0.2250
G02 X 22.5595 Y 7.1995 Z -1.0000 I -2.0052 J -0.0000
G02 X 22.5387 Y 7.1549 Z -1.0000 I -0.0795 J 0.0098
G01 X 22.5299 Y 7.1375 Z -1.0000
G01 X 22.5348 Y 7.1340 Z -1.0000
G01 X 22.5697 Y 7.1155 Z -1.0000
G02 X 22.6031 Y 6.3647 Z -1.0000 I -8.4986 J -0.7553
G02 X 22.5814 Y 5.8861 Z -1.0000 I -5.2145 J -0.0027
G02 X 22.5531 Y 5.8187 Z -1.0000 I -0.1206 J 0.0111
G01 X 22.5442 Y 5.7990 Z -1.0000
G01 X 22.5498 Y 5.7957 Z -1.0000
G01 X 22.5746 Y 5.7850 Z -1.0000
G02 X 22.6188 Y 5.1193 Z -1.0000 I -9.3642 J -0.9559
G02 X 22.6175 Y 3.0923 Z -1.0000 I -32.1971 J -0.9928
G02 X 22.5311 Y 2.3876 Z -1.0000 I -3.9508 J 0.1269
G02 X 22.2667 Y 1.8805 Z -1.0000 I -1.0533 J 0.2267
G02 X 21.8689 Y 1.6755 Z -1.0000 I -0.4832 J 0.4494
G03 X 21.7262 Y 1.6567 Z -1.0000 I 8.3121 J -63.6587
G03 X 21.6686 Y 1.6489 Z -1.0000 I 1.2516 J -9.4212
G02 X 21.6110 Y 1.6462 Z -1.0000 I -0.0438 J 0.3151
G02 X 21.4207 Y 1.6597 Z -1.0000 I 0.1514 J 3.4845
G01 X 21.4207 Y 1.6597 Z -1.0000
G00 Z 5.0000

(End cutting path id: path179927)


(Start cutting path id: path179927)
(Change tool to Default tool)

G00 Z 5.0000
G00 X 18.6054 Y 1.6869

G01 Z -1.0000 F 100.0000(Penetrate)
G02 X 18.3424 Y 1.8280 Z -1.0000 I 0.2219 J 0.7295 F 3500.0000
G02 X 18.1655 Y 2.0494 Z -1.0000 I 0.4374 J 0.5309
G02 X 18.0834 Y 2.3406 Z -1.0000 I 0.7095 J 0.3574
G02 X 18.0143 Y 3.8603 Z -1.0000 I 20.0055 J 1.6709
G02 X 18.0137 Y 5.1255 Z -1.0000 I 90.1824 J 0.6738
G02 X 18.0248 Y 5.4460 Z -1.0000 I 5.7432 J -0.0377
G02 X 18.1324 Y 5.5966 Z -1.0000 I 0.1745 J -0.0109
G02 X 18.3468 Y 5.5792 Z -1.0000 I 0.0901 J -0.2179
G02 X 18.6479 Y 5.3908 Z -1.0000 I -21.8470 J -35.2594
G02 X 18.8425 Y 5.2661 Z -1.0000 I -9.3717 J -14.8399
G03 X 19.0384 Y 5.1472 Z -1.0000 I 2.0152 J 3.0998
G03 X 19.0654 Y 5.1401 Z -1.0000 I 0.0270 J 0.0478
G01 X 19.0861 Y 5.1316 Z -1.0000
G01 X 19.0945 Y 5.1113 Z -1.0000
G01 X 19.1026 Y 5.0907 Z -1.0000
G01 X 19.1210 Y 5.0826 Z -1.0000
G02 X 19.1457 Y 5.0762 Z -1.0000 I -0.0000 J -0.0510
G02 X 19.3727 Y 4.9433 Z -1.0000 I -2.6302 J -4.7519
G03 X 19.5993 Y 4.8067 Z -1.0000 I 6.0774 J 9.8246
G03 X 19.6697 Y 4.7688 Z -1.0000 I 0.5349 J 0.9107
G01 X 19.6789 Y 4.7745 Z -1.0000
G01 X 19.6697 Y 4.7940 Z -1.0000
G03 X 19.5946 Y 4.8496 Z -1.0000 I -0.4810 J -0.5723
G03 X 19.4828 Y 4.9149 Z -1.0000 I -0.7787 J -1.2047
G02 X 19.3711 Y 4.9790 Z -1.0000 I 0.7913 J 1.5070
G02 X 19.3534 Y 4.9959 Z -1.0000 I 0.0324 J 0.0518
G03 X 19.3356 Y 5.0127 Z -1.0000 I -0.0492 J -0.0343
G03 X 19.1664 Y 5.1109 Z -1.0000 I -2.0163 J -3.2765
G02 X 18.9595 Y 5.2320 Z -1.0000 I 2.0240 J 3.6977
G02 X 18.2749 Y 5.6670 Z -1.0000 I 25.5386 J 40.9436
G02 X 18.1196 Y 5.8566 Z -1.0000 I 0.2183 J 0.3372
G02 X 18.0455 Y 6.2474 Z -1.0000 I 0.9843 J 0.3890
G02 X 18.0652 Y 7.4233 Z -1.0000 I 39.3258 J -0.0687
G01 X 18.0833 Y 7.4403 Z -1.0000
G01 X 18.0977 Y 7.4322 Z -1.0000
G02 X 18.2158 Y 7.2378 Z -1.0000 I -2.8412 J -1.8592
G03 X 18.3356 Y 7.0411 Z -1.0000 I 2.8812 J 1.6206
G03 X 18.3715 Y 7.0011 Z -1.0000 I 0.1504 J 0.0990
G01 X 18.3811 Y 7.0088 Z -1.0000
G03 X 18.2057 Y 7.3224 Z -1.0000 I -4.7906 J -2.4728
G02 X 18.0739 Y 7.5632 Z -1.0000 I 2.7673 J 1.6707
G01 X 18.0751 Y 7.5873 Z -1.0000
G03 X 18.0828 Y 7.6132 Z -1.0000 I -0.0442 J 0.0272
G03 X 18.0903 Y 8.2371 Z -1.0000 I -27.2139 J 0.6413
G02 X 18.1071 Y 8.8539 Z -1.0000 I 11.6397 J -0.0076
G01 X 18.1250 Y 8.8842 Z -1.0000
G01 X 18.1385 Y 8.9078 Z -1.0000
G01 X 18.1260 Y 8.9386 Z -1.0000
G02 X 17.9851 Y 9.2973 Z -1.0000 I 0.3411 J 0.3411
G02 X 18.1563 Y 9.7689 Z -1.0000 I 0.8172 J -0.0299
G01 X 18.1651 Y 9.7897 Z -1.0000
G01 X 18.1597 Y 9.7932 Z -1.0000
G01 X 18.1453 Y 9.8013 Z -1.0000
G02 X 18.1298 Y 14.4397 Z -1.0000 I 748.7727 J 4.8219
G03 X 18.1189 Y 19.1030 Z -1.0000 I -1109.6449 J -0.2747
G03 X 18.1081 Y 19.3263 Z -1.0000 I -2.5503 J -0.0113
G02 X 18.0976 Y 19.5400 Z -1.0000 I 2.4776 J 0.2290
G01 X 18.1067 Y 19.5492 Z -1.0000
G01 X 18.1247 Y 19.5449 Z -1.0000
G02 X 18.2506 Y 19.4761 Z -1.0000 I -1.0795 J -2.1260
G01 X 18.2612 Y 19.4855 Z -1.0000
G03 X 18.2316 Y 19.5204 Z -1.0000 I -0.0719 J -0.0309
G02 X 18.1460 Y 19.6446 Z -1.0000 I 0.1054 J 0.1643
G02 X 18.0873 Y 20.2065 Z -1.0000 I 2.6827 J 0.5644
G03 X 18.0809 Y 20.8001 Z -1.0000 I -29.9559 J -0.0263
G03 X 18.0692 Y 21.0776 Z -1.0000 I -6.5462 J -0.1355
G02 X 18.1574 Y 21.2875 Z -1.0000 I 0.2556 J 0.0161
G02 X 18.5129 Y 21.4611 Z -1.0000 I 0.5057 J -0.5851
G03 X 18.7931 Y 21.5237 Z -1.0000 I -1.1447 J 5.7815
G01 X 18.7924 Y 21.5307 Z -1.0000
G03 X 18.7353 Y 21.5282 Z -1.0000 I -0.0154 J -0.3052
G03 X 18.4904 Y 21.4891 Z -1.0000 I 0.7829 J -5.6768
G02 X 18.2460 Y 21.4446 Z -1.0000 I -67.6832 J 371.4452
G02 X 18.1571 Y 21.4286 Z -1.0000 I -8.0323 J 44.2464
G01 X 18.1087 Y 21.4660 Z -1.0000
G02 X 18.0000 Y 23.4463 Z -1.0000 I 43.2060 J 3.3642
G02 X 17.9480 Y 26.6984 Z -1.0000 I 102.0047 J 3.2592
G02 X 17.9997 Y 27.8391 Z -1.0000 I 12.5771 J 0.0009
G02 X 18.2069 Y 28.5621 Z -1.0000 I 2.0002 J -0.1820
G02 X 18.5300 Y 28.8899 Z -1.0000 I 0.6720 J -0.3391
G02 X 18.6837 Y 28.9415 Z -1.0000 I 0.2388 J -0.4567
G02 X 18.9938 Y 28.9677 Z -1.0000 I 0.3141 J -1.8741
G02 X 19.4230 Y 28.8990 Z -1.0000 I 0.0029 J -1.3587
G02 X 19.6792 Y 28.7411 Z -1.0000 I -0.2044 J -0.6185
G02 X 19.8723 Y 28.4417 Z -1.0000 I -0.5970 J -0.5970
G02 X 20.0161 Y 27.8467 Z -1.0000 I -2.3331 J -0.8788
G02 X 20.0915 Y 26.5946 Z -1.0000 I -11.5521 J -1.3235
G02 X 20.0436 Y 23.3888 Z -1.0000 I -76.0039 J -0.4674
G02 X 19.9694 Y 22.0017 Z -1.0000 I -39.8852 J 1.4380
G02 X 19.9403 Y 21.9335 Z -1.0000 I -0.1133 J 0.0080
G03 X 19.9225 Y 21.8863 Z -1.0000 I 0.0512 J -0.0463
G03 X 19.9415 Y 21.8411 Z -1.0000 I 0.0650 J 0.0008
G02 X 19.9946 Y 21.7197 Z -1.0000 I -0.1287 J -0.1287
G01 X 19.9477 Y 21.6861 Z -1.0000
G01 X 19.9211 Y 21.6838 Z -1.0000
G01 X 19.9093 Y 21.6631 Z -1.0000
G01 X 19.9207 Y 21.6419 Z -1.0000
G01 X 19.9451 Y 21.6392 Z -1.0000
G01 X 19.9636 Y 21.6287 Z -1.0000
G02 X 19.9739 Y 21.4711 Z -1.0000 I -0.7496 J -0.1282
G03 X 19.9668 Y 21.2892 Z -1.0000 I 409.8012 J -15.9766
G02 X 19.9621 Y 21.1653 Z -1.0000 I -3411.8083 J 131.2568
G02 X 19.9446 Y 21.0651 Z -1.0000 I -0.3818 J 0.0149
G01 X 19.9285 Y 21.0591 Z -1.0000
G01 X 19.9089 Y 21.0605 Z -1.0000
G01 X 19.8997 Y 21.0465 Z -1.0000
G01 X 19.9084 Y 21.0247 Z -1.0000
G01 X 19.9285 Y 21.0160 Z -1.0000
G01 X 19.9440 Y 21.0028 Z -1.0000
G02 X 19.9573 Y 20.8347 Z -1.0000 I -1.0591 J -0.1680
G02 X 19.8971 Y 20.7008 Z -1.0000 I -0.1791 J 0.0000
G02 X 19.6768 Y 20.5856 Z -1.0000 I -0.3408 J 0.3837
G01 X 19.6702 Y 20.5636 Z -1.0000
G01 X 19.7086 Y 20.5517 Z -1.0000
G02 X 19.9390 Y 20.5843 Z -1.0000 I 0.3217 J -1.4441
G01 X 19.9573 Y 20.5671 Z -1.0000
G01 X 19.9464 Y 20.5379 Z -1.0000
G01 X 19.9228 Y 20.5271 Z -1.0000
G01 X 19.9126 Y 20.5170 Z -1.0000
G01 X 19.9228 Y 20.4926 Z -1.0000
G02 X 19.9618 Y 20.3863 Z -1.0000 I -0.0953 J -0.0953
G02 X 19.9069 Y 20.2993 Z -1.0000 I -0.1108 J 0.0091
G01 X 19.8895 Y 20.2785 Z -1.0000
G01 X 19.8959 Y 20.2691 Z -1.0000
G01 X 19.9157 Y 20.2495 Z -1.0000
G02 X 19.9241 Y 19.3929 Z -1.0000 I -19.1063 J -0.6150
G02 X 19.9041 Y 18.5213 Z -1.0000 I -42.7556 J 0.5417
G01 X 19.8945 Y 18.4990 Z -1.0000
G01 X 19.8743 Y 18.4940 Z -1.0000
G02 X 19.7944 Y 18.5300 Z -1.0000 I 0.1066 J 0.3436
G01 X 19.7878 Y 18.5254 Z -1.0000
G01 X 19.7991 Y 18.5063 Z -1.0000
G02 X 19.8431 Y 18.4135 Z -1.0000 I -0.0808 J -0.0952
G02 X 19.8761 Y 14.4972 Z -1.0000 I -181.6034 J -3.4889
G02 X 19.8431 Y 10.5729 Z -1.0000 I -324.2563 J 0.7656
G02 X 19.8186 Y 10.5226 Z -1.0000 I -0.0659 J 0.0010
G01 X 19.8146 Y 10.5069 Z -1.0000
G01 X 19.8279 Y 10.5006 Z -1.0000
G01 X 19.8591 Y 10.4830 Z -1.0000
G02 X 19.8822 Y 10.2902 Z -1.0000 I -0.7069 J -0.1824
G02 X 19.8720 Y 10.0641 Z -1.0000 I -3.7058 J 0.0533
G02 X 19.8615 Y 10.0173 Z -1.0000 I -0.1649 J 0.0125
G03 X 19.8590 Y 9.9822 Z -1.0000 I 0.0564 J -0.0217
G01 X 19.8719 Y 9.9719 Z -1.0000
G01 X 19.8864 Y 9.9585 Z -1.0000
G02 X 19.8998 Y 9.5980 Z -1.0000 I -4.8370 J -0.3605
G02 X 19.8644 Y 9.2593 Z -1.0000 I -1.6383 J 0.0000
G01 X 19.8207 Y 9.2237 Z -1.0000
G01 X 19.8027 Y 9.2089 Z -1.0000
G01 X 19.8133 Y 9.1870 Z -1.0000
G02 X 19.8842 Y 9.0993 Z -1.0000 I -0.0621 J -0.1226
G01 X 19.8511 Y 9.0429 Z -1.0000
G01 X 19.8432 Y 9.0336 Z -1.0000
G01 X 19.8495 Y 9.0261 Z -1.0000
G01 X 19.8808 Y 9.0049 Z -1.0000
G02 X 19.8999 Y 8.9204 Z -1.0000 I -0.1775 J -0.0845
G02 X 19.8841 Y 8.8451 Z -1.0000 I -0.1877 J -0.0000
G01 X 19.8639 Y 8.8384 Z -1.0000
G01 X 19.8576 Y 8.8352 Z -1.0000
G01 X 19.8617 Y 8.8222 Z -1.0000
G02 X 19.8818 Y 8.7831 Z -1.0000 I -0.0603 J -0.0557
G02 X 19.8784 Y 8.7414 Z -1.0000 I -0.0730 J -0.0150
G01 X 19.8805 Y 8.7201 Z -1.0000
G01 X 19.8938 Y 8.7171 Z -1.0000
G01 X 19.9104 Y 8.7086 Z -1.0000
G02 X 19.9271 Y 8.2631 Z -1.0000 I -6.2267 J -0.4562
G02 X 19.9144 Y 7.7965 Z -1.0000 I -8.0874 J -0.0140
G01 X 19.8995 Y 7.7715 Z -1.0000
G03 X 19.8782 Y 7.7501 Z -1.0000 I 0.0340 J -0.0553
G01 X 19.8712 Y 7.7252 Z -1.0000
G01 X 19.8795 Y 7.7114 Z -1.0000
G01 X 19.8964 Y 7.7120 Z -1.0000
G02 X 20.2632 Y 7.5209 Z -1.0000 I 0.1265 J -0.2046
G02 X 19.9527 Y 6.7076 Z -1.0000 I -1.0641 J -0.0597
G01 X 19.9401 Y 6.7047 Z -1.0000
G02 X 19.8152 Y 6.7532 Z -1.0000 I 0.4207 J 1.2675
G03 X 19.6922 Y 6.7908 Z -1.0000 I -0.2113 J -0.4721
G01 X 19.6591 Y 6.7803 Z -1.0000
G01 X 19.6575 Y 6.7623 Z -1.0000
G01 X 19.6796 Y 6.7507 Z -1.0000
G02 X 19.7277 Y 6.7425 Z -1.0000 I 0.0000 J -0.1449
G02 X 19.8407 Y 6.6940 Z -1.0000 I -0.3059 J -0.8698
G02 X 19.9224 Y 6.6179 Z -1.0000 I -0.0923 J -0.1809
G02 X 19.9618 Y 6.4930 Z -1.0000 I -0.2395 J -0.1443
G02 X 19.9034 Y 6.4310 Z -1.0000 I -0.0579 J -0.0040
G02 X 19.6345 Y 6.4956 Z -1.0000 I 0.0049 J 0.6116
G03 X 19.4101 Y 6.5977 Z -1.0000 I -1.4810 J -2.9587
G03 X 19.3635 Y 6.6069 Z -1.0000 I -0.0466 J -0.1134
G01 X 19.3607 Y 6.5963 Z -1.0000
G03 X 19.6496 Y 6.4436 Z -1.0000 I 2.4956 J 4.3723
G02 X 19.8689 Y 6.2081 Z -1.0000 I -0.1964 J -0.4027
G02 X 19.9851 Y 5.6093 Z -1.0000 I -1.4933 J -0.6005
G03 X 19.9932 Y 4.9387 Z -1.0000 I 30.3715 J 0.0315
G03 X 20.0043 Y 4.7803 Z -1.0000 I 1.6811 J 0.0389
G02 X 20.0126 Y 4.6316 Z -1.0000 I -1.2059 J -0.1417
G01 X 20.0034 Y 4.6224 Z -1.0000
G01 X 19.9847 Y 4.6261 Z -1.0000
G02 X 19.8628 Y 4.6808 Z -1.0000 I 0.9237 J 2.2220
G03 X 19.8116 Y 4.6962 Z -1.0000 I -0.0733 J -0.1519
G01 X 19.8082 Y 4.6880 Z -1.0000
G02 X 19.9327 Y 4.4797 Z -1.0000 I -0.2022 J -0.2622
G02 X 19.9902 Y 3.5850 Z -1.0000 I -4.4589 J -0.7360
G02 X 19.7172 Y 2.0489 Z -1.0000 I -5.5567 J 0.1953
G02 X 19.3770 Y 1.7138 Z -1.0000 I -0.4950 J 0.1622
G02 X 18.9519 Y 1.6415 Z -1.0000 I -0.4814 J 1.5466
G02 X 18.6055 Y 1.6869 Z -1.0000 I -0.0369 J 1.0627
G01 X 18.6054 Y 1.6869 Z -1.0000
G00 Z 5.0000

(End cutting path id: path179927)


(Start cutting path id: path179927)
(Change tool to Default tool)

G00 Z 5.0000
G00 X 18.4043 Y 4.8956

G01 Z -1.0000 F 100.0000(Penetrate)
G01 X 18.4162 Y 4.8845 Z -1.0000 F 3500.0000
G01 X 18.4330 Y 4.8956 Z -1.0000
G03 X 18.4522 Y 4.9544 Z -1.0000 I -0.3143 J 0.1350
G03 X 18.4593 Y 5.0107 Z -1.0000 I -0.2808 J 0.0642
G01 X 18.4493 Y 5.0300 Z -1.0000
G01 X 18.4348 Y 5.0269 Z -1.0000
G01 X 18.4051 Y 5.0080 Z -1.0000
G01 X 18.3693 Y 5.0183 Z -1.0000
G01 X 18.3504 Y 5.0132 Z -1.0000
G03 X 18.3424 Y 4.9446 Z -1.0000 I 0.1405 J -0.0511
G03 X 18.3622 Y 4.8937 Z -1.0000 I 0.1082 J 0.0128
G01 X 18.3776 Y 4.8956 Z -1.0000
G01 X 18.3930 Y 4.9061 Z -1.0000
G01 X 18.4043 Y 4.8956 Z -1.0000
G01 X 18.4043 Y 4.8956 Z -1.0000
G00 Z 5.0000

(End cutting path id: path179927)


(Start cutting path id: path179927)
(Change tool to Default tool)

G00 Z 5.0000
G00 X 18.6339 Y 5.0354

G01 Z -1.0000 F 100.0000(Penetrate)
G01 X 18.6201 Y 5.0401 Z -1.0000 F 3500.0000
G03 X 18.5455 Y 4.9244 Z -1.0000 I 0.5400 J -0.4301
G01 X 18.5508 Y 4.9183 Z -1.0000
G03 X 18.5752 Y 4.9348 Z -1.0000 I -0.0190 J 0.0542
G03 X 18.6261 Y 5.0057 Z -1.0000 I -0.3493 J 0.3043
G03 X 18.6339 Y 5.0354 Z -1.0000 I -0.0496 J 0.0289
G01 X 18.6339 Y 5.0354 Z -1.0000
G00 Z 5.0000

(End cutting path id: path179927)


(Start cutting path id: path179927)
(Change tool to Default tool)

G00 Z 5.0000
G00 X 18.7638 Y 4.9436

G01 Z -1.0000 F 100.0000(Penetrate)
G03 X 18.7506 Y 5.0251 Z -1.0000 I -0.2587 J -0.0000 F 3500.0000
G01 X 18.7298 Y 5.0460 Z -1.0000
G01 X 18.7114 Y 5.0367 Z -1.0000
G03 X 18.7010 Y 4.9550 Z -1.0000 I 0.2204 J -0.0697
G01 X 18.7334 Y 4.9182 Z -1.0000
G01 X 18.7638 Y 4.9436 Z -1.0000
G01 X 18.7638 Y 4.9436 Z -1.0000
G00 Z 5.0000

(End cutting path id: path179927)


(Start cutting path id: path179927)
(Change tool to Default tool)

G00 Z 5.0000
G00 X 20.8777 Y 4.7539

G01 Z -1.0000 F 100.0000(Penetrate)
G01 X 20.8718 Y 4.7583 Z -1.0000 F 3500.0000
G03 X 20.8202 Y 4.7375 Z -1.0000 I 0.0715 J -0.2510
G03 X 20.7681 Y 4.7034 Z -1.0000 I 0.1687 J -0.3152
G01 X 20.7627 Y 4.6923 Z -1.0000
G01 X 20.7686 Y 4.6878 Z -1.0000
G03 X 20.8202 Y 4.7087 Z -1.0000 I -0.0715 J 0.2510
G03 X 20.8723 Y 4.7427 Z -1.0000 I -0.1685 J 0.3149
G01 X 20.8777 Y 4.7539 Z -1.0000
G01 X 20.8777 Y 4.7539 Z -1.0000
G00 Z 5.0000

(End cutting path id: path179927)


(Start cutting path id: path179927)
(Change tool to Default tool)

G00 Z 5.0000
G00 X 21.1941 Y 4.9388

G01 Z -1.0000 F 100.0000(Penetrate)
G03 X 21.1891 Y 4.9625 Z -1.0000 I -0.0589 J -0.0000 F 3500.0000
G01 X 21.1814 Y 4.9675 Z -1.0000
G01 X 21.1710 Y 4.9634 Z -1.0000
G03 X 21.1509 Y 4.9388 Z -1.0000 I 0.0842 J -0.0891
G01 X 21.1495 Y 4.9192 Z -1.0000
G01 X 21.1636 Y 4.9100 Z -1.0000
G01 X 21.1854 Y 4.9187 Z -1.0000
G01 X 21.1941 Y 4.9388 Z -1.0000
G01 X 21.1941 Y 4.9388 Z -1.0000
G00 Z 5.0000

(End cutting path id: path179927)


(Start cutting path id: path179927)
(Change tool to Default tool)

G00 Z 5.0000
G00 X 21.3128 Y 5.0179

G01 Z -1.0000 F 100.0000(Penetrate)
G01 X 21.3104 Y 5.0276 Z -1.0000 F 3500.0000
G01 X 21.2947 Y 5.0260 Z -1.0000
G02 X 21.2371 Y 4.9840 Z -1.0000 I -6.7715 J 9.2310
G02 X 21.2252 Y 4.9756 Z -1.0000 I -0.2804 J 0.3873
G01 X 21.2433 Y 4.9675 Z -1.0000
G01 X 21.2692 Y 4.9760 Z -1.0000
G03 X 21.3128 Y 5.0179 Z -1.0000 I -0.1274 J 0.1759
G01 X 21.3128 Y 5.0179 Z -1.0000
G00 Z 5.0000

(End cutting path id: path179927)


(Start cutting path id: path179927)
(Change tool to Default tool)

G00 Z 5.0000
G00 X 21.4817 Y 5.1277

G01 Z -1.0000 F 100.0000(Penetrate)
G01 X 21.4757 Y 5.1322 Z -1.0000 F 3500.0000
G03 X 21.4241 Y 5.1113 Z -1.0000 I 0.0715 J -0.2510
G03 X 21.3720 Y 5.0773 Z -1.0000 I 0.1685 J -0.3148
G01 X 21.3666 Y 5.0662 Z -1.0000
G01 X 21.3726 Y 5.0617 Z -1.0000
G03 X 21.4241 Y 5.0826 Z -1.0000 I -0.0715 J 0.2510
G03 X 21.4763 Y 5.1166 Z -1.0000 I -0.1685 J 0.3149
G01 X 21.4817 Y 5.1277 Z -1.0000
G01 X 21.4817 Y 5.1277 Z -1.0000
G00 Z 5.0000

(End cutting path id: path179927)


(Start cutting path id: path179927)
(Change tool to Default tool)

G00 Z 5.0000
G00 X 21.7980 Y 5.3291

G01 Z -1.0000 F 100.0000(Penetrate)
G01 X 21.7921 Y 5.3335 Z -1.0000 F 3500.0000
G03 X 21.7405 Y 5.3127 Z -1.0000 I 0.0715 J -0.2510
G03 X 21.6884 Y 5.2786 Z -1.0000 I 0.1685 J -0.3149
G01 X 21.6830 Y 5.2675 Z -1.0000
G01 X 21.6889 Y 5.2630 Z -1.0000
G03 X 21.7405 Y 5.2839 Z -1.0000 I -0.0715 J 0.2510
G03 X 21.7926 Y 5.3179 Z -1.0000 I -0.1685 J 0.3148
G01 X 21.7980 Y 5.3291 Z -1.0000
G01 X 21.7980 Y 5.3291 Z -1.0000
G00 Z 5.0000

(End cutting path id: path179927)


(Start cutting path id: path179927)
(Change tool to Default tool)

G00 Z 5.0000
G00 X 22.0713 Y 5.4991

G01 Z -1.0000 F 100.0000(Penetrate)
G01 X 22.0781 Y 5.5134 Z -1.0000 F 3500.0000
G01 X 22.0713 Y 5.5177 Z -1.0000
G03 X 22.0158 Y 5.4862 Z -1.0000 I 0.2305 J -0.4696
G03 X 21.9562 Y 5.4426 Z -1.0000 I 0.3845 J -0.5891
G01 X 21.9494 Y 5.4283 Z -1.0000
G01 X 21.9562 Y 5.4240 Z -1.0000
G03 X 22.0116 Y 5.4556 Z -1.0000 I -0.2307 J 0.4700
G03 X 22.0713 Y 5.4991 Z -1.0000 I -0.3834 J 0.5875
G01 X 22.0713 Y 5.4991 Z -1.0000
G00 Z 5.0000

(End cutting path id: path179927)


(Start cutting path id: path179927)
(Change tool to Default tool)

G00 Z 5.0000
G00 X 22.4451 Y 5.7292

G01 Z -1.0000 F 100.0000(Penetrate)
G01 X 22.4520 Y 5.7435 Z -1.0000 F 3500.0000
G01 X 22.4451 Y 5.7478 Z -1.0000
G03 X 22.3897 Y 5.7163 Z -1.0000 I 0.2305 J -0.4696
G03 X 22.3301 Y 5.6727 Z -1.0000 I 0.3839 J -0.5882
G01 X 22.3233 Y 5.6584 Z -1.0000
G01 X 22.3301 Y 5.6541 Z -1.0000
G03 X 22.3855 Y 5.6856 Z -1.0000 I -0.2305 J 0.4696
G03 X 22.4451 Y 5.7292 Z -1.0000 I -0.3845 J 0.5891
G01 X 22.4451 Y 5.7292 Z -1.0000
G00 Z 5.0000

(End cutting path id: path179927)


(Start cutting path id: path179927)
(Change tool to Default tool)

G00 Z 5.0000
G00 X 22.2582 Y 5.0251

G01 Z -1.0000 F 100.0000(Penetrate)
G03 X 22.2341 Y 5.1735 Z -1.0000 I -0.4695 J 0.0000 F 3500.0000
G01 X 22.2007 Y 5.1976 Z -1.0000
G03 X 22.1526 Y 5.1869 Z -1.0000 I -0.0000 J -0.1128
G01 X 22.1396 Y 5.1689 Z -1.0000
G01 X 22.1324 Y 5.1113 Z -1.0000
G01 X 22.1226 Y 5.0896 Z -1.0000
G01 X 22.1072 Y 5.0826 Z -1.0000
G01 X 22.0578 Y 5.0826 Z -1.0000
G01 X 22.0496 Y 5.0938 Z -1.0000
G02 X 22.0894 Y 5.1832 Z -1.0000 I 0.4076 J -0.1277
G03 X 22.1000 Y 5.2560 Z -1.0000 I -0.0835 J 0.0493
G01 X 22.0643 Y 5.2839 Z -1.0000
G03 X 21.9952 Y 5.2581 Z -1.0000 I 0.0000 J -0.1054
G03 X 21.9068 Y 5.1473 Z -1.0000 I 0.2553 J -0.2942
G03 X 21.8468 Y 5.0098 Z -1.0000 I 0.8430 J -0.4499
G03 X 21.8471 Y 4.9747 Z -1.0000 I 0.0493 J -0.0171
G01 X 21.8706 Y 4.9535 Z -1.0000
G03 X 21.9883 Y 4.9388 Z -1.0000 I 0.1176 J 0.4616
G02 X 22.1045 Y 4.9218 Z -1.0000 I -0.0000 J -0.4064
G01 X 22.1327 Y 4.8956 Z -1.0000
G03 X 22.1581 Y 4.8653 Z -1.0000 I 0.0571 J 0.0219
G03 X 22.2037 Y 4.8525 Z -1.0000 I 0.0457 J 0.0752
G01 X 22.2352 Y 4.8755 Z -1.0000
G03 X 22.2582 Y 5.0251 Z -1.0000 I -0.4740 J 0.1495
G01 X 22.2582 Y 5.0251 Z -1.0000
G00 Z 5.0000

(End cutting path id: path179927)


(Start cutting path id: path179927)
(Change tool to Default tool)

G00 Z 5.0000
G00 X 21.0554 Y 5.2551

G01 Z -1.0000 F 100.0000(Penetrate)
G01 X 21.0698 Y 5.2446 Z -1.0000 F 3500.0000
G02 X 21.0686 Y 5.2120 Z -1.0000 I -0.0479 J -0.0146
G03 X 21.0671 Y 5.1792 Z -1.0000 I 0.0486 J -0.0186
G01 X 21.0808 Y 5.1689 Z -1.0000
G01 X 21.1034 Y 5.1779 Z -1.0000
G03 X 21.1261 Y 5.2118 Z -1.0000 I -0.0638 J 0.0671
G02 X 21.1481 Y 5.2386 Z -1.0000 I 0.0511 J -0.0197
G01 X 21.1688 Y 5.2386 Z -1.0000
G01 X 21.1825 Y 5.2195 Z -1.0000
G01 X 21.1785 Y 5.1956 Z -1.0000
G01 X 21.1831 Y 5.1806 Z -1.0000
G03 X 21.2375 Y 5.1689 Z -1.0000 I 0.0545 J 0.1202
G03 X 21.2890 Y 5.1898 Z -1.0000 I 0.0000 J 0.0738
G03 X 21.3039 Y 5.2336 Z -1.0000 I -0.0356 J 0.0366
G03 X 21.2725 Y 5.2733 Z -1.0000 I -0.0497 J -0.0070
G03 X 21.1274 Y 5.3027 Z -1.0000 I -0.1564 J -0.3998
G03 X 20.9882 Y 5.2871 Z -1.0000 I -0.0134 J -0.5114
G01 X 20.9764 Y 5.2644 Z -1.0000
G02 X 20.9902 Y 5.2211 Z -1.0000 I -0.3773 J -0.1446
G02 X 20.9961 Y 5.1881 Z -1.0000 I -0.2101 J -0.0544
G01 X 21.0019 Y 5.1860 Z -1.0000
G01 X 21.0126 Y 5.2048 Z -1.0000
G02 X 21.0335 Y 5.2450 Z -1.0000 I 0.0980 J -0.0255
G01 X 21.0555 Y 5.2551 Z -1.0000
G01 X 21.0554 Y 5.2551 Z -1.0000
G00 Z 5.0000

(End cutting path id: path179927)


(Start cutting path id: path179927)
(Change tool to Default tool)

G00 Z 5.0000
G00 X 21.4401 Y 7.1835

G01 Z -1.0000 F 100.0000(Penetrate)
G03 X 21.2098 Y 7.2522 Z -1.0000 I -0.6371 J -1.7148 F 3500.0000
G01 X 21.1941 Y 7.2396 Z -1.0000
G01 X 21.2045 Y 7.2209 Z -1.0000
G03 X 21.2444 Y 7.2087 Z -1.0000 I 0.0434 J 0.0706
G02 X 21.2931 Y 7.1997 Z -1.0000 I -0.0077 J -0.1774
G02 X 21.4098 Y 7.1534 Z -1.0000 I -0.3605 J -1.0773
G03 X 21.5269 Y 7.1096 Z -1.0000 I 0.3452 J 0.7457
G03 X 21.5967 Y 7.0994 Z -1.0000 I 0.0724 J 0.2507
G01 X 21.5998 Y 7.1114 Z -1.0000
G03 X 21.4401 Y 7.1835 Z -1.0000 I -0.6039 J -1.1237
G01 X 21.4401 Y 7.1835 Z -1.0000
G00 Z 5.0000

(End cutting path id: path179927)


(Start cutting path id: path179927)
(Change tool to Default tool)

G00 Z 5.0000
G00 X 21.0503 Y 7.3304

G01 Z -1.0000 F 100.0000(Penetrate)
G03 X 20.9184 Y 7.3795 Z -1.0000 I -0.4434 J -0.9904 F 3500.0000
G03 X 20.8202 Y 7.3994 Z -1.0000 I -0.1582 J -0.5277
G01 X 20.7770 Y 7.3955 Z -1.0000
G02 X 20.8381 Y 7.3760 Z -1.0000 I -0.1488 J -0.5719
G02 X 21.0215 Y 7.3026 Z -1.0000 I -1.9869 J -5.2299
G01 X 21.0541 Y 7.3087 Z -1.0000
G01 X 21.0503 Y 7.3305 Z -1.0000
G01 X 21.0503 Y 7.3304 Z -1.0000
G00 Z 5.0000

(End cutting path id: path179927)


(Start cutting path id: path179927)
(Change tool to Default tool)

G00 Z 5.0000
G00 X 21.6177 Y 7.8035

G01 Z -1.0000 F 100.0000(Penetrate)
G01 X 21.5984 Y 7.8119 Z -1.0000 F 3500.0000
G03 X 21.5626 Y 7.8058 Z -1.0000 I -0.0035 J -0.0873
G01 X 21.5607 Y 7.7968 Z -1.0000
G01 X 21.5799 Y 7.7884 Z -1.0000
G03 X 21.6158 Y 7.7945 Z -1.0000 I 0.0035 J 0.0876
G01 X 21.6177 Y 7.8035 Z -1.0000
G01 X 21.6177 Y 7.8035 Z -1.0000
G00 Z 5.0000

(End cutting path id: path179927)


(Start cutting path id: path179927)
(Change tool to Default tool)

G00 Z 5.0000
G00 X 21.7549 Y 7.7573

G01 Z -1.0000 F 100.0000(Penetrate)
G03 X 21.6871 Y 7.7713 Z -1.0000 I -0.0678 J -0.1577 F 3500.0000
G01 X 21.6830 Y 7.7573 Z -1.0000
G03 X 21.7280 Y 7.7364 Z -1.0000 I 0.0974 J 0.1508
G03 X 21.7693 Y 7.7310 Z -1.0000 I 0.0366 J 0.1201
G01 X 21.7742 Y 7.7397 Z -1.0000
G01 X 21.7549 Y 7.7573 Z -1.0000
G01 X 21.7549 Y 7.7573 Z -1.0000
G00 Z 5.0000

(End cutting path id: path179927)


(Start cutting path id: path179927)
(Change tool to Default tool)

G00 Z 5.0000
G00 X 22.0745 Y 7.3755

G01 Z -1.0000 F 100.0000(Penetrate)
G03 X 22.0504 Y 7.3910 Z -1.0000 I -0.0481 J -0.0481 F 3500.0000
G03 X 21.6612 Y 7.5318 Z -1.0000 I -5.0474 J -13.3396
G03 X 21.2707 Y 7.6480 Z -1.0000 I -1.5281 J -4.4226
G03 X 21.2242 Y 7.6414 Z -1.0000 I -0.0151 J -0.0602
G01 X 21.2203 Y 7.6260 Z -1.0000
G01 X 21.2403 Y 7.6144 Z -1.0000
G02 X 21.2994 Y 7.6053 Z -1.0000 I -0.0031 J -0.2166
G02 X 21.6717 Y 7.4849 Z -1.0000 I -2.6597 J -8.8611
G03 X 22.0671 Y 7.3628 Z -1.0000 I 1.9794 J 5.7066
G01 X 22.0745 Y 7.3754 Z -1.0000
G01 X 22.0745 Y 7.3755 Z -1.0000
G00 Z 5.0000

(End cutting path id: path179927)


(Start cutting path id: path179927)
(Change tool to Default tool)

G00 Z 5.0000
G00 X 22.1575 Y 7.4122

G01 Z -1.0000 F 100.0000(Penetrate)
G01 X 22.1589 Y 7.4318 Z -1.0000 F 3500.0000
G01 X 22.1449 Y 7.4410 Z -1.0000
G01 X 22.1231 Y 7.4323 Z -1.0000
G01 X 22.1144 Y 7.4122 Z -1.0000
G03 X 22.1194 Y 7.3885 Z -1.0000 I 0.0589 J 0.0000
G01 X 22.1271 Y 7.3834 Z -1.0000
G01 X 22.1375 Y 7.3876 Z -1.0000
G03 X 22.1575 Y 7.4122 Z -1.0000 I -0.0842 J 0.0891
G01 X 22.1575 Y 7.4122 Z -1.0000
G00 Z 5.0000

(End cutting path id: path179927)


(Start cutting path id: path179927)
(Change tool to Default tool)

G00 Z 5.0000
G00 X 22.4260 Y 7.5524

G01 Z -1.0000 F 100.0000(Penetrate)
G01 X 22.4351 Y 7.5738 Z -1.0000 F 3500.0000
G01 X 22.4173 Y 7.5948 Z -1.0000
G01 X 22.3923 Y 7.5946 Z -1.0000
G01 X 22.3885 Y 7.5833 Z -1.0000
G01 X 22.3747 Y 7.5634 Z -1.0000
G02 X 22.1468 Y 7.6317 Z -1.0000 I 0.2501 J 1.2476
G03 X 22.0913 Y 7.6407 Z -1.0000 I -0.0475 J -0.1171
G01 X 22.0857 Y 7.6278 Z -1.0000
G03 X 22.2576 Y 7.5230 Z -1.0000 I 0.2390 J 0.1983
G03 X 22.4260 Y 7.5525 Z -1.0000 I 0.0485 J 0.2188
G01 X 22.4260 Y 7.5524 Z -1.0000
G00 Z 5.0000

(End cutting path id: path179927)


(Start cutting path id: path179927)
(Change tool to Default tool)

G00 Z 5.0000
G00 X 21.7844 Y 8.7584

G01 Z -1.0000 F 100.0000(Penetrate)
G01 X 21.7683 Y 8.7618 Z -1.0000 F 3500.0000
G03 X 21.7328 Y 8.7388 Z -1.0000 I 0.0359 J -0.0939
G01 X 21.7329 Y 8.7261 Z -1.0000
G01 X 21.7489 Y 8.7227 Z -1.0000
G03 X 21.7844 Y 8.7457 Z -1.0000 I -0.0357 J 0.0937
G01 X 21.7844 Y 8.7584 Z -1.0000
G01 X 21.7844 Y 8.7584 Z -1.0000
G00 Z 5.0000

(End cutting path id: path179927)


(Start cutting path id: path179927)
(Change tool to Default tool)

G00 Z 5.0000
G00 X 21.9848 Y 8.8499

G01 Z -1.0000 F 100.0000(Penetrate)
G01 X 21.9813 Y 8.8609 Z -1.0000 F 3500.0000
G01 X 21.9577 Y 8.8612 Z -1.0000
G01 X 21.9309 Y 8.8357 Z -1.0000
G01 X 21.9401 Y 8.8215 Z -1.0000
G01 X 21.9634 Y 8.8283 Z -1.0000
G03 X 21.9848 Y 8.8499 Z -1.0000 I -0.0366 J 0.0574
G01 X 21.9848 Y 8.8499 Z -1.0000
G00 Z 5.0000

(End cutting path id: path179927)


(Start cutting path id: path179927)
(Change tool to Default tool)

G00 Z 5.0000
G00 X 22.0998 Y 8.9074

G01 Z -1.0000 F 100.0000(Penetrate)
G01 X 22.0963 Y 8.9184 Z -1.0000 F 3500.0000
G01 X 22.0728 Y 8.9187 Z -1.0000
G01 X 22.0459 Y 8.8932 Z -1.0000
G01 X 22.0552 Y 8.8790 Z -1.0000
G01 X 22.0785 Y 8.8858 Z -1.0000
G03 X 22.0998 Y 8.9074 Z -1.0000 I -0.0366 J 0.0574
G01 X 22.0998 Y 8.9074 Z -1.0000
G00 Z 5.0000

(End cutting path id: path179927)


(Start cutting path id: path179927)
(Change tool to Default tool)

G00 Z 5.0000
G00 X 22.2149 Y 8.9650

G01 Z -1.0000 F 100.0000(Penetrate)
G01 X 22.2113 Y 8.9759 Z -1.0000 F 3500.0000
G01 X 22.1878 Y 8.9763 Z -1.0000
G01 X 22.1610 Y 8.9507 Z -1.0000
G01 X 22.1702 Y 8.9365 Z -1.0000
G01 X 22.1935 Y 8.9433 Z -1.0000
G03 X 22.2149 Y 8.9650 Z -1.0000 I -0.0366 J 0.0574
G01 X 22.2149 Y 8.9650 Z -1.0000
G00 Z 5.0000

(End cutting path id: path179927)


(Start cutting path id: path179927)
(Change tool to Default tool)

G00 Z 5.0000
G00 X 22.3299 Y 9.0225

G01 Z -1.0000 F 100.0000(Penetrate)
G01 X 22.3264 Y 9.0334 Z -1.0000 F 3500.0000
G01 X 22.3028 Y 9.0338 Z -1.0000
G01 X 22.2760 Y 9.0083 Z -1.0000
G01 X 22.2853 Y 8.9940 Z -1.0000
G01 X 22.3085 Y 9.0008 Z -1.0000
G03 X 22.3299 Y 9.0225 Z -1.0000 I -0.0366 J 0.0574
G01 X 22.3299 Y 9.0225 Z -1.0000
G00 Z 5.0000

(End cutting path id: path179927)


(Start cutting path id: path179927)
(Change tool to Default tool)

G00 Z 5.0000
G00 X 22.4449 Y 9.0800

G01 Z -1.0000 F 100.0000(Penetrate)
G01 X 22.4414 Y 9.0910 Z -1.0000 F 3500.0000
G01 X 22.4179 Y 9.0913 Z -1.0000
G01 X 22.3911 Y 9.0658 Z -1.0000
G01 X 22.4003 Y 9.0516 Z -1.0000
G01 X 22.4236 Y 9.0583 Z -1.0000
G03 X 22.4449 Y 9.0800 Z -1.0000 I -0.0366 J 0.0574
G01 X 22.4449 Y 9.0800 Z -1.0000
G00 Z 5.0000

(End cutting path id: path179927)


(Start cutting path id: path179927)
(Change tool to Default tool)

G00 Z 5.0000
G00 X 22.0153 Y 9.5430

G01 Z -1.0000 F 100.0000(Penetrate)
G01 X 22.0400 Y 9.5608 Z -1.0000 F 3500.0000
G02 X 22.0889 Y 9.5601 Z -1.0000 I 0.0230 J -0.0994
G03 X 22.1334 Y 9.5585 Z -1.0000 I 0.0257 J 0.0985
G01 X 22.1432 Y 9.5703 Z -1.0000
G01 X 22.1136 Y 9.5993 Z -1.0000
G03 X 22.0120 Y 9.5679 Z -1.0000 I 0.0035 J -0.1911
G03 X 21.9577 Y 9.5211 Z -1.0000 I 0.1545 J -0.2343
G01 X 21.9617 Y 9.5120 Z -1.0000
G03 X 21.9915 Y 9.5199 Z -1.0000 I 0.0003 J 0.0587
G03 X 22.0153 Y 9.5431 Z -1.0000 I -0.0343 J 0.0590
G01 X 22.0153 Y 9.5430 Z -1.0000
G00 Z 5.0000

(End cutting path id: path179927)


(Start cutting path id: path179927)
(Change tool to Default tool)

G00 Z 5.0000
G00 X 21.9310 Y 9.7825

G01 Z -1.0000 F 100.0000(Penetrate)
G03 X 21.9721 Y 9.7981 Z -1.0000 I -0.0029 J 0.0697 F 3500.0000
G01 X 21.9782 Y 9.8209 Z -1.0000
G01 X 21.9500 Y 9.8366 Z -1.0000
G03 X 21.8491 Y 9.7963 Z -1.0000 I 0.0535 J -0.2804
G03 X 21.8089 Y 9.7631 Z -1.0000 I 0.1190 J -0.1849
G01 X 21.8124 Y 9.7579 Z -1.0000
G02 X 21.8709 Y 9.7751 Z -1.0000 I 0.1349 J -0.3504
G02 X 21.9310 Y 9.7825 Z -1.0000 I 0.0751 J -0.3615
G01 X 21.9310 Y 9.7825 Z -1.0000
G00 Z 5.0000

(End cutting path id: path179927)


(Start cutting path id: path179927)
(Change tool to Default tool)

G00 Z 5.0000
G00 X 21.7269 Y 10.0018

G01 Z -1.0000 F 100.0000(Penetrate)
G01 X 21.7506 Y 10.0175 Z -1.0000 F 3500.0000
G02 X 21.8041 Y 10.0131 Z -1.0000 I 0.0173 J -0.1181
G03 X 21.8385 Y 10.0135 Z -1.0000 I 0.0167 J 0.0526
G01 X 21.8431 Y 10.0264 Z -1.0000
G03 X 21.8189 Y 10.0498 Z -1.0000 I -0.0583 J -0.0360
G03 X 21.7891 Y 10.0573 Z -1.0000 I -0.0282 J -0.0492
G03 X 21.6621 Y 10.0129 Z -1.0000 I 0.0060 J -0.2211
G01 X 21.6758 Y 9.9719 Z -1.0000
G03 X 21.7041 Y 9.9796 Z -1.0000 I -0.0000 J 0.0559
G03 X 21.7269 Y 10.0018 Z -1.0000 I -0.0334 J 0.0570
G01 X 21.7269 Y 10.0018 Z -1.0000
G00 Z 5.0000

(End cutting path id: path179927)


(Start cutting path id: path179927)
(Change tool to Default tool)

G00 Z 5.0000
G00 X 21.6480 Y 10.2351

G01 Z -1.0000 F 100.0000(Penetrate)
G03 X 21.6651 Y 10.2104 Z -1.0000 I 0.0510 J 0.0171 F 3500.0000
G01 X 21.6889 Y 10.2020 Z -1.0000
G01 X 21.6976 Y 10.2119 Z -1.0000
G03 X 21.6830 Y 10.2451 Z -1.0000 I -0.0654 J -0.0089
G03 X 21.6295 Y 10.2662 Z -1.0000 I -0.0459 J -0.0381
G03 X 21.5392 Y 10.2267 Z -1.0000 I 0.0223 J -0.1737
G01 X 21.5395 Y 10.2179 Z -1.0000
G01 X 21.5521 Y 10.2174 Z -1.0000
G02 X 21.6288 Y 10.2465 Z -1.0000 I 0.1188 J -0.1977
G01 X 21.6480 Y 10.2352 Z -1.0000
G01 X 21.6480 Y 10.2351 Z -1.0000
G00 Z 5.0000

(End cutting path id: path179927)


(Start cutting path id: path179927)
(Change tool to Default tool)

G00 Z 5.0000
G00 X 21.4232 Y 10.4596

G01 Z -1.0000 F 100.0000(Penetrate)
G02 X 21.4643 Y 10.4704 Z -1.0000 I 0.0376 J -0.0595 F 3500.0000
G02 X 21.5023 Y 10.4556 Z -1.0000 I -0.0032 J -0.0643
G01 X 21.5294 Y 10.4458 Z -1.0000
G01 X 21.5392 Y 10.4556 Z -1.0000
G01 X 21.5057 Y 10.4950 Z -1.0000
G03 X 21.4033 Y 10.4776 Z -1.0000 I -0.0257 J -0.1588
G03 X 21.3497 Y 10.4406 Z -1.0000 I 0.1445 J -0.2666
G01 X 21.3523 Y 10.4336 Z -1.0000
G03 X 21.3796 Y 10.4381 Z -1.0000 I 0.0018 J 0.0742
G03 X 21.4232 Y 10.4596 Z -1.0000 I -0.0786 J 0.2147
G01 X 21.4232 Y 10.4596 Z -1.0000
G00 Z 5.0000

(End cutting path id: path179927)


(Start cutting path id: path179927)
(Change tool to Default tool)

G00 Z 5.0000
G00 X 21.2522 Y 10.1294

G01 Z -1.0000 F 100.0000(Penetrate)
G03 X 21.2109 Y 10.1622 Z -1.0000 I -0.0993 J -0.0824 F 3500.0000
G03 X 21.1690 Y 10.1713 Z -1.0000 I -0.0384 J -0.0762
G01 X 21.1631 Y 10.1609 Z -1.0000
G03 X 21.1869 Y 10.1381 Z -1.0000 I 0.0470 J 0.0254
G02 X 21.2416 Y 10.1007 Z -1.0000 I -0.0959 J -0.1990
G01 X 21.2516 Y 10.0778 Z -1.0000
G01 X 21.2586 Y 10.0656 Z -1.0000
G01 X 21.2701 Y 10.0671 Z -1.0000
G01 X 21.2750 Y 10.0862 Z -1.0000
G03 X 21.2522 Y 10.1294 Z -1.0000 I -0.1146 J -0.0329
G01 X 21.2522 Y 10.1294 Z -1.0000
G00 Z 5.0000

(End cutting path id: path179927)


(Start cutting path id: path179927)
(Change tool to Default tool)

G00 Z 5.0000
G00 X 21.5565 Y 9.6714

G01 Z -1.0000 F 100.0000(Penetrate)
G03 X 21.5014 Y 9.6982 Z -1.0000 I -0.1023 J -0.1399 F 3500.0000
G01 X 21.4749 Y 9.6945 Z -1.0000
G01 X 21.4720 Y 9.6786 Z -1.0000
G03 X 21.5151 Y 9.6427 Z -1.0000 I 0.1037 J 0.0805
G01 X 21.5561 Y 9.6453 Z -1.0000
G01 X 21.5565 Y 9.6714 Z -1.0000
G01 X 21.5565 Y 9.6714 Z -1.0000
G00 Z 5.0000

(End cutting path id: path179927)


(Start cutting path id: path179927)
(Change tool to Default tool)

G00 Z 5.0000
G00 X 21.2026 Y 9.4111

G01 Z -1.0000 F 100.0000(Penetrate)
G03 X 21.1449 Y 9.4959 Z -1.0000 I -0.3048 J -0.1453 F 3500.0000
G01 X 21.1096 Y 9.5109 Z -1.0000
G01 X 21.1004 Y 9.5007 Z -1.0000
G01 X 21.1117 Y 9.4825 Z -1.0000
G02 X 21.1487 Y 9.4473 Z -1.0000 I -0.0561 J -0.0960
G02 X 21.1770 Y 9.3827 Z -1.0000 I -0.1781 J -0.1165
G03 X 21.2035 Y 9.3211 Z -1.0000 I 0.2048 J 0.0515
G01 X 21.2229 Y 9.3104 Z -1.0000
G01 X 21.2323 Y 9.3220 Z -1.0000
G03 X 21.2026 Y 9.4111 Z -1.0000 I -0.3766 J -0.0760
G01 X 21.2026 Y 9.4111 Z -1.0000
G00 Z 5.0000

(End cutting path id: path179927)


(Start cutting path id: path179927)
(Change tool to Default tool)

G00 Z 5.0000
G00 X 21.3242 Y 8.5283

G01 Z -1.0000 F 100.0000(Penetrate)
G01 X 21.3081 Y 8.5318 Z -1.0000 F 3500.0000
G03 X 21.2727 Y 8.5087 Z -1.0000 I 0.0359 J -0.0939
G01 X 21.2727 Y 8.4960 Z -1.0000
G01 X 21.2888 Y 8.4926 Z -1.0000
G03 X 21.3243 Y 8.5157 Z -1.0000 I -0.0357 J 0.0938
G01 X 21.3242 Y 8.5283 Z -1.0000
G01 X 21.3242 Y 8.5283 Z -1.0000
G00 Z 5.0000

(End cutting path id: path179927)


(Start cutting path id: path179927)
(Change tool to Default tool)

G00 Z 5.0000
G00 X 21.2082 Y 8.4473

G01 Z -1.0000 F 100.0000(Penetrate)
G01 X 21.2047 Y 8.4582 Z -1.0000 F 3500.0000
G01 X 21.1812 Y 8.4586 Z -1.0000
G01 X 21.1543 Y 8.4330 Z -1.0000
G01 X 21.1636 Y 8.4188 Z -1.0000
G01 X 21.1869 Y 8.4256 Z -1.0000
G03 X 21.2082 Y 8.4473 Z -1.0000 I -0.0366 J 0.0574
G01 X 21.2082 Y 8.4473 Z -1.0000
G00 Z 5.0000

(End cutting path id: path179927)


(Start cutting path id: path179927)
(Change tool to Default tool)

G00 Z 5.0000
G00 X 21.1078 Y 8.4065

G01 Z -1.0000 F 100.0000(Penetrate)
G01 X 21.1019 Y 8.4109 Z -1.0000 F 3500.0000
G03 X 21.0503 Y 8.3901 Z -1.0000 I 0.0715 J -0.2508
G03 X 20.9982 Y 8.3560 Z -1.0000 I 0.1685 J -0.3148
G01 X 20.9927 Y 8.3449 Z -1.0000
G01 X 20.9987 Y 8.3404 Z -1.0000
G03 X 21.0503 Y 8.3613 Z -1.0000 I -0.0715 J 0.2510
G03 X 21.1024 Y 8.3953 Z -1.0000 I -0.1685 J 0.3148
G01 X 21.1078 Y 8.4065 Z -1.0000
G01 X 21.1078 Y 8.4065 Z -1.0000
G00 Z 5.0000

(End cutting path id: path179927)


(Start cutting path id: path179927)
(Change tool to Default tool)

G00 Z 5.0000
G00 X 19.7573 Y 8.3876

G01 Z -1.0000 F 100.0000(Penetrate)
G03 X 19.7149 Y 8.4292 Z -1.0000 I -0.0875 J -0.0469 F 3500.0000
G03 X 19.6472 Y 8.4437 Z -1.0000 I -0.0609 J -0.1198
G01 X 19.6317 Y 8.4354 Z -1.0000
G01 X 19.6349 Y 8.4271 Z -1.0000
G02 X 19.6930 Y 8.4033 Z -1.0000 I -0.0294 J -0.1545
G02 X 19.7345 Y 8.3605 Z -1.0000 I -0.0792 J -0.1182
G01 X 19.7543 Y 8.3591 Z -1.0000
G01 X 19.7573 Y 8.3876 Z -1.0000
G01 X 19.7573 Y 8.3876 Z -1.0000
G00 Z 5.0000

(End cutting path id: path179927)


(Start cutting path id: path179927)
(Change tool to Default tool)

G00 Z 5.0000
G00 X 19.7704 Y 8.7064

G01 Z -1.0000 F 100.0000(Penetrate)
G01 X 19.7718 Y 8.7260 Z -1.0000 F 3500.0000
G01 X 19.7577 Y 8.7352 Z -1.0000
G01 X 19.7359 Y 8.7265 Z -1.0000
G01 X 19.7273 Y 8.7064 Z -1.0000
G03 X 19.7323 Y 8.6827 Z -1.0000 I 0.0589 J 0.0000
G01 X 19.7399 Y 8.6777 Z -1.0000
G01 X 19.7503 Y 8.6818 Z -1.0000
G03 X 19.7704 Y 8.7064 Z -1.0000 I -0.0842 J 0.0891
G01 X 19.7704 Y 8.7064 Z -1.0000
G00 Z 5.0000

(End cutting path id: path179927)


(Start cutting path id: path179927)
(Change tool to Default tool)

G00 Z 5.0000
G00 X 19.4341 Y 8.8654

G01 Z -1.0000 F 100.0000(Penetrate)
G01 X 19.4214 Y 8.8654 Z -1.0000 F 3500.0000
G03 X 19.3984 Y 8.8299 Z -1.0000 I 0.0709 J -0.0712
G01 X 19.4018 Y 8.8138 Z -1.0000
G01 X 19.4145 Y 8.8138 Z -1.0000
G03 X 19.4375 Y 8.8493 Z -1.0000 I -0.0706 J 0.0712
G01 X 19.4341 Y 8.8654 Z -1.0000
G01 X 19.4341 Y 8.8654 Z -1.0000
G00 Z 5.0000

(End cutting path id: path179927)


(Start cutting path id: path179927)
(Change tool to Default tool)

G00 Z 5.0000
G00 X 19.3977 Y 8.9634

G01 Z -1.0000 F 100.0000(Penetrate)
G03 X 19.3246 Y 9.0033 Z -1.0000 I -0.0717 J -0.0443 F 3500.0000
G03 X 19.2500 Y 8.9609 Z -1.0000 I 0.0015 J -0.0895
G01 X 19.2512 Y 8.9494 Z -1.0000
G01 X 19.2624 Y 8.9480 Z -1.0000
G02 X 19.2957 Y 8.9558 Z -1.0000 I 0.0282 J -0.0457
G02 X 19.3457 Y 8.9402 Z -1.0000 I -0.0118 J -0.1260
G01 X 19.3899 Y 8.9382 Z -1.0000
G01 X 19.3977 Y 8.9634 Z -1.0000
G01 X 19.3977 Y 8.9634 Z -1.0000
G00 Z 5.0000

(End cutting path id: path179927)


(Start cutting path id: path179927)
(Change tool to Default tool)

G00 Z 5.0000
G00 X 19.0951 Y 9.4104

G01 Z -1.0000 F 100.0000(Penetrate)
G03 X 18.9938 Y 9.4649 Z -1.0000 I -0.1182 J -0.0981 F 3500.0000
G01 X 18.9507 Y 9.4263 Z -1.0000
G01 X 18.9605 Y 9.4127 Z -1.0000
G01 X 18.9893 Y 9.4133 Z -1.0000
G01 X 19.0238 Y 9.4130 Z -1.0000
G02 X 19.0653 Y 9.3829 Z -1.0000 I -0.0383 J -0.0962
G03 X 19.1033 Y 9.3504 Z -1.0000 I 0.1130 J 0.0938
G01 X 19.1171 Y 9.3521 Z -1.0000
G01 X 19.1203 Y 9.3670 Z -1.0000
G03 X 19.0951 Y 9.4104 Z -1.0000 I -0.1422 J -0.0537
G01 X 19.0951 Y 9.4104 Z -1.0000
G00 Z 5.0000

(End cutting path id: path179927)


(Start cutting path id: path179927)
(Change tool to Default tool)

G00 Z 5.0000
G00 X 19.6023 Y 9.6399

G01 Z -1.0000 F 100.0000(Penetrate)
G03 X 19.5216 Y 9.7018 Z -1.0000 I -0.0908 J -0.0348 F 3500.0000
G01 X 19.4684 Y 9.6538 Z -1.0000
G01 X 19.4773 Y 9.6393 Z -1.0000
G01 X 19.4955 Y 9.6401 Z -1.0000
G01 X 19.5206 Y 9.6425 Z -1.0000
G02 X 19.5602 Y 9.6159 Z -1.0000 I -0.0361 J -0.0965
G01 X 19.5920 Y 9.6110 Z -1.0000
G01 X 19.6023 Y 9.6399 Z -1.0000
G01 X 19.6023 Y 9.6399 Z -1.0000
G00 Z 5.0000

(End cutting path id: path179927)


(Start cutting path id: path179927)
(Change tool to Default tool)

G00 Z 5.0000
G00 X 18.5957 Y 9.1510

G01 Z -1.0000 F 100.0000(Penetrate)
G03 X 18.5682 Y 9.1793 Z -1.0000 I -0.0468 J -0.0179 F 3500.0000
G03 X 18.4986 Y 9.1914 Z -1.0000 I -0.0617 J -0.1480
G01 X 18.4821 Y 9.1831 Z -1.0000
G01 X 18.4851 Y 9.1748 Z -1.0000
G02 X 18.5426 Y 9.1514 Z -1.0000 I -0.0296 J -0.1548
G02 X 18.5678 Y 9.1200 Z -1.0000 I -0.0365 J -0.0550
G03 X 18.5869 Y 9.0919 Z -1.0000 I 0.0686 J 0.0263
G01 X 18.5983 Y 9.0922 Z -1.0000
G01 X 18.6046 Y 9.1083 Z -1.0000
G03 X 18.5957 Y 9.1510 Z -1.0000 I -0.1370 J -0.0062
G01 X 18.5957 Y 9.1510 Z -1.0000
G00 Z 5.0000

(End cutting path id: path179927)


(Start cutting path id: path179927)
(Change tool to Default tool)

G00 Z 5.0000
G00 X 18.7494 Y 8.5914

G01 Z -1.0000 F 100.0000(Penetrate)
G01 X 18.7407 Y 8.6115 Z -1.0000 F 3500.0000
G01 X 18.7189 Y 8.6201 Z -1.0000
G01 X 18.7049 Y 8.6110 Z -1.0000
G01 X 18.7063 Y 8.5914 Z -1.0000
G03 X 18.7263 Y 8.5668 Z -1.0000 I 0.1047 J 0.0648
G01 X 18.7367 Y 8.5626 Z -1.0000
G01 X 18.7444 Y 8.5676 Z -1.0000
G03 X 18.7494 Y 8.5914 Z -1.0000 I -0.0540 J 0.0237
G01 X 18.7494 Y 8.5914 Z -1.0000
G00 Z 5.0000

(End cutting path id: path179927)


(Start cutting path id: path179927)
(Change tool to Default tool)

G00 Z 5.0000
G00 X 18.8985 Y 8.6264

G01 Z -1.0000 F 100.0000(Penetrate)
G01 X 18.8648 Y 8.6390 Z -1.0000 F 3500.0000
G03 X 18.8285 Y 8.6217 Z -1.0000 I 0.0037 J -0.0545
G01 X 18.8212 Y 8.6055 Z -1.0000
G01 X 18.8265 Y 8.6020 Z -1.0000
G01 X 18.8566 Y 8.6064 Z -1.0000
G01 X 18.8797 Y 8.5899 Z -1.0000
G01 X 18.9005 Y 8.5725 Z -1.0000
G01 X 18.9157 Y 8.5756 Z -1.0000
G01 X 18.9196 Y 8.5923 Z -1.0000
G03 X 18.8985 Y 8.6264 Z -1.0000 I -0.0832 J -0.0281
G01 X 18.8985 Y 8.6264 Z -1.0000
G00 Z 5.0000

(End cutting path id: path179927)


(Start cutting path id: path179927)
(Change tool to Default tool)

G00 Z 5.0000
G00 X 19.2512 Y 8.1393

G01 Z -1.0000 F 100.0000(Penetrate)
G03 X 19.1948 Y 8.1946 Z -1.0000 I -0.0888 J -0.0341 F 3500.0000
G03 X 19.1207 Y 8.1865 Z -1.0000 I -0.0288 J -0.0796
G01 X 19.1142 Y 8.1706 Z -1.0000
G01 X 19.1270 Y 8.1604 Z -1.0000
G02 X 19.1689 Y 8.1497 Z -1.0000 I -0.0009 J -0.0911
G02 X 19.2102 Y 8.1161 Z -1.0000 I -0.0647 J -0.1215
G01 X 19.2408 Y 8.1105 Z -1.0000
G01 X 19.2512 Y 8.1393 Z -1.0000
G01 X 19.2512 Y 8.1393 Z -1.0000
G00 Z 5.0000

(End cutting path id: path179927)


(Start cutting path id: path179927)
(Change tool to Default tool)

G00 Z 5.0000
G00 X 19.3534 Y 7.7286

G01 Z -1.0000 F 100.0000(Penetrate)
G01 X 19.3428 Y 7.7467 Z -1.0000 F 3500.0000
G03 X 19.3030 Y 7.7569 Z -1.0000 I -0.0391 J -0.0694
G01 X 19.2890 Y 7.7459 Z -1.0000
G01 X 19.2958 Y 7.7286 Z -1.0000
G03 X 19.3403 Y 7.7155 Z -1.0000 I 0.0444 J 0.0687
G01 X 19.3534 Y 7.7286 Z -1.0000
G01 X 19.3534 Y 7.7286 Z -1.0000
G00 Z 5.0000

(End cutting path id: path179927)


(Start cutting path id: path179927)
(Change tool to Default tool)

G00 Z 5.0000
G00 X 19.2724 Y 7.6773

G01 Z -1.0000 F 100.0000(Penetrate)
G01 X 19.2474 Y 7.6895 Z -1.0000 F 3500.0000
G01 X 19.2383 Y 7.6816 Z -1.0000
G03 X 19.2604 Y 7.6284 Z -1.0000 I 0.0752 J -0.0000
G01 X 19.2915 Y 7.6284 Z -1.0000
G01 X 19.2947 Y 7.6433 Z -1.0000
G03 X 19.2724 Y 7.6773 Z -1.0000 I -0.0928 J -0.0365
G01 X 19.2724 Y 7.6773 Z -1.0000
G00 Z 5.0000

(End cutting path id: path179927)


(Start cutting path id: path179927)
(Change tool to Default tool)

G00 Z 5.0000
G00 X 19.0654 Y 7.5967

G01 Z -1.0000 F 100.0000(Penetrate)
G01 X 19.0370 Y 7.6084 Z -1.0000 F 3500.0000
G01 X 19.0087 Y 7.5967 Z -1.0000
G01 X 19.0087 Y 7.5801 Z -1.0000
G01 X 19.0370 Y 7.5683 Z -1.0000
G01 X 19.0654 Y 7.5801 Z -1.0000
G01 X 19.0654 Y 7.5967 Z -1.0000
G01 X 19.0654 Y 7.5967 Z -1.0000
G00 Z 5.0000

(End cutting path id: path179927)


(Start cutting path id: path179927)
(Change tool to Default tool)

G00 Z 5.0000
G00 X 18.7494 Y 7.8436

G01 Z -1.0000 F 100.0000(Penetrate)
G03 X 18.7094 Y 7.8853 Z -1.0000 I -0.0943 J -0.0505 F 3500.0000
G03 X 18.6549 Y 7.8993 Z -1.0000 I -0.0516 J -0.0875
G01 X 18.6433 Y 7.8882 Z -1.0000
G01 X 18.6530 Y 7.8726 Z -1.0000
G02 X 18.7100 Y 7.8419 Z -1.0000 I -0.1103 J -0.2733
G02 X 18.7338 Y 7.8169 Z -1.0000 I -0.0478 J -0.0693
G01 X 18.7489 Y 7.8171 Z -1.0000
G01 X 18.7494 Y 7.8436 Z -1.0000
G01 X 18.7494 Y 7.8436 Z -1.0000
G00 Z 5.0000

(End cutting path id: path179927)


(Start cutting path id: path179927)
(Change tool to Default tool)

G00 Z 5.0000
G00 X 18.6841 Y 7.7747

G01 Z -1.0000 F 100.0000(Penetrate)
G01 X 18.6648 Y 7.7831 Z -1.0000 F 3500.0000
G03 X 18.6290 Y 7.7770 Z -1.0000 I -0.0035 J -0.0872
G01 X 18.6271 Y 7.7680 Z -1.0000
G01 X 18.6464 Y 7.7596 Z -1.0000
G03 X 18.6822 Y 7.7658 Z -1.0000 I 0.0035 J 0.0876
G01 X 18.6841 Y 7.7747 Z -1.0000
G01 X 18.6841 Y 7.7747 Z -1.0000
G00 Z 5.0000

(End cutting path id: path179927)


(Start cutting path id: path179927)
(Change tool to Default tool)

G00 Z 5.0000
G00 X 18.9019 Y 11.4555

G01 Z -1.0000 F 100.0000(Penetrate)
G02 X 18.9421 Y 11.5153 Z -1.0000 I 0.0695 J -0.0033 F 3500.0000
G01 X 18.9795 Y 11.4914 Z -1.0000
G01 X 18.9875 Y 11.4754 Z -1.0000
G01 X 19.0113 Y 11.4675 Z -1.0000
G01 X 19.0270 Y 11.4785 Z -1.0000
G01 X 19.0266 Y 11.5106 Z -1.0000
G01 X 19.0279 Y 11.5415 Z -1.0000
G01 X 19.0475 Y 11.5537 Z -1.0000
G01 X 19.0920 Y 11.5130 Z -1.0000
G02 X 19.0592 Y 11.4226 Z -1.0000 I -0.1131 J -0.0101
G01 X 19.0403 Y 11.4166 Z -1.0000
G02 X 18.9843 Y 11.4361 Z -1.0000 I 0.0339 J 0.1876
G03 X 18.9341 Y 11.4469 Z -1.0000 I -0.0438 J -0.0819
G01 X 18.9128 Y 11.4312 Z -1.0000
G01 X 18.9066 Y 11.4311 Z -1.0000
G02 X 18.9019 Y 11.4554 Z -1.0000 I 0.0484 J 0.0219
G01 X 18.9019 Y 11.4555 Z -1.0000
G00 Z 5.0000

(End cutting path id: path179927)


(Start cutting path id: path179927)
(Change tool to Default tool)

G00 Z 5.0000
G00 X 18.9148 Y 11.6028

G01 Z -1.0000 F 100.0000(Penetrate)
G02 X 18.9795 Y 11.6090 Z -1.0000 I 0.0647 J -0.3338 F 3500.0000
G02 X 19.0442 Y 11.6028 Z -1.0000 I -0.0000 J -0.3400
G01 X 19.0442 Y 11.5965 Z -1.0000
G02 X 18.9795 Y 11.5903 Z -1.0000 I -0.0647 J 0.3367
G02 X 18.9148 Y 11.5965 Z -1.0000 I 0.0000 J 0.3424
G01 X 18.9148 Y 11.6028 Z -1.0000
G01 X 18.9148 Y 11.6028 Z -1.0000
G00 Z 5.0000

(End cutting path id: path179927)


(Start cutting path id: path179927)
(Change tool to Default tool)

G00 Z 5.0000
G00 X 19.1233 Y 11.4962

G01 Z -1.0000 F 100.0000(Penetrate)
G03 X 19.0842 Y 11.6009 Z -1.0000 I -0.1599 J -0.0000 F 3500.0000
G03 X 18.9987 Y 11.6400 Z -1.0000 I -0.0856 J -0.0742
G03 X 18.8763 Y 11.6345 Z -1.0000 I -0.0000 J -1.3546
G01 X 18.8617 Y 11.6277 Z -1.0000
G01 X 18.8555 Y 11.6130 Z -1.0000
G03 X 18.8598 Y 11.4839 Z -1.0000 I 1.4170 J -0.0178
G03 X 18.9045 Y 11.3895 Z -1.0000 I 0.1464 J 0.0117
G03 X 18.9968 Y 11.3524 Z -1.0000 I 0.0923 J 0.0961
G03 X 19.0839 Y 11.3918 Z -1.0000 I -0.0000 J 0.1161
G03 X 19.1233 Y 11.4962 Z -1.0000 I -0.1187 J 0.1044
G01 X 19.1233 Y 11.4962 Z -1.0000
G00 Z 5.0000

(End cutting path id: path179927)


(Start cutting path id: path179927)
(Change tool to Default tool)

G00 Z 5.0000
G00 X 19.0292 Y 13.0954

G01 Z -1.0000 F 100.0000(Penetrate)
G01 X 19.0099 Y 13.1039 Z -1.0000 F 3500.0000
G03 X 18.9741 Y 13.0977 Z -1.0000 I -0.0035 J -0.0873
G01 X 18.9723 Y 13.0888 Z -1.0000
G01 X 18.9915 Y 13.0804 Z -1.0000
G03 X 19.0274 Y 13.0865 Z -1.0000 I 0.0035 J 0.0876
G01 X 19.0292 Y 13.0955 Z -1.0000
G01 X 19.0292 Y 13.0954 Z -1.0000
G00 Z 5.0000

(End cutting path id: path179927)


(Start cutting path id: path179927)
(Change tool to Default tool)

G00 Z 5.0000
G00 X 18.9678 Y 13.1688

G01 Z -1.0000 F 100.0000(Penetrate)
G01 X 18.9652 Y 13.1788 Z -1.0000 F 3500.0000
G01 X 18.9503 Y 13.1785 Z -1.0000
G01 X 18.9333 Y 13.1805 Z -1.0000
G01 X 18.9293 Y 13.1995 Z -1.0000
G01 X 18.9227 Y 13.2229 Z -1.0000
G01 X 18.8904 Y 13.2295 Z -1.0000
G01 X 18.8716 Y 13.2074 Z -1.0000
G01 X 18.8854 Y 13.1761 Z -1.0000
G03 X 18.9402 Y 13.1550 Z -1.0000 I 0.0642 J 0.0846
G01 X 18.9679 Y 13.1688 Z -1.0000
G01 X 18.9678 Y 13.1688 Z -1.0000
G00 Z 5.0000

(End cutting path id: path179927)


(Start cutting path id: path179927)
(Change tool to Default tool)

G00 Z 5.0000
G00 X 18.8744 Y 13.1224

G01 Z -1.0000 F 100.0000(Penetrate)
G03 X 18.8544 Y 13.1531 Z -1.0000 I -0.0822 J -0.0317 F 3500.0000
G01 X 18.8436 Y 13.1531 Z -1.0000
G01 X 18.8385 Y 13.1385 Z -1.0000
G03 X 18.8489 Y 13.1087 Z -1.0000 I 0.0716 J 0.0083
G01 X 18.8675 Y 13.1038 Z -1.0000
G01 X 18.8744 Y 13.1224 Z -1.0000
G01 X 18.8744 Y 13.1224 Z -1.0000
G00 Z 5.0000

(End cutting path id: path179927)


(Start cutting path id: path179927)
(Change tool to Default tool)

G00 Z 5.0000
G00 X 18.8932 Y 13.3103

G01 Z -1.0000 F 100.0000(Penetrate)
G01 X 18.8839 Y 13.3216 Z -1.0000 F 3500.0000
G03 X 18.8501 Y 13.3185 Z -1.0000 I -0.0116 J -0.0609
G03 X 18.8151 Y 13.2963 Z -1.0000 I 0.0375 J -0.0978
G01 X 18.8069 Y 13.2772 Z -1.0000
G01 X 18.8162 Y 13.2659 Z -1.0000
G03 X 18.8501 Y 13.2690 Z -1.0000 I 0.0116 J 0.0609
G03 X 18.8850 Y 13.2912 Z -1.0000 I -0.0375 J 0.0978
G01 X 18.8932 Y 13.3103 Z -1.0000
G01 X 18.8932 Y 13.3103 Z -1.0000
G00 Z 5.0000

(End cutting path id: path179927)


(Start cutting path id: path179927)
(Change tool to Default tool)

G00 Z 5.0000
G00 X 18.9991 Y 13.2848

G01 Z -1.0000 F 100.0000(Penetrate)
G01 X 18.9902 Y 13.2866 Z -1.0000 F 3500.0000
G01 X 18.9817 Y 13.2674 Z -1.0000
G03 X 18.9879 Y 13.2315 Z -1.0000 I 0.0876 J -0.0035
G01 X 18.9969 Y 13.2296 Z -1.0000
G01 X 19.0053 Y 13.2489 Z -1.0000
G03 X 18.9992 Y 13.2848 Z -1.0000 I -0.0873 J 0.0035
G01 X 18.9991 Y 13.2848 Z -1.0000
G00 Z 5.0000

(End cutting path id: path179927)


(Start cutting path id: path179927)
(Change tool to Default tool)

G00 Z 5.0000
G00 X 21.5803 Y 13.3049

G01 Z -1.0000 F 100.0000(Penetrate)
G01 X 21.5822 Y 13.3282 Z -1.0000 F 3500.0000
G03 X 21.5556 Y 13.3641 Z -1.0000 I -0.0867 J -0.0364
G01 X 21.5339 Y 13.3657 Z -1.0000
G01 X 21.5249 Y 13.3457 Z -1.0000
G03 X 21.5351 Y 13.2939 Z -1.0000 I 3.3615 J 0.6354
G03 X 21.5370 Y 13.2866 Z -1.0000 I 0.0781 J 0.0160
G01 X 21.5512 Y 13.2800 Z -1.0000
G03 X 21.5803 Y 13.3049 Z -1.0000 I -0.0245 J 0.0581
G01 X 21.5803 Y 13.3049 Z -1.0000
G00 Z 5.0000

(End cutting path id: path179927)


(Start cutting path id: path179927)
(Change tool to Default tool)

G00 Z 5.0000
G00 X 21.6676 Y 13.2463

G01 Z -1.0000 F 100.0000(Penetrate)
G01 X 21.6253 Y 13.2493 Z -1.0000 F 3500.0000
G03 X 21.5967 Y 13.1903 Z -1.0000 I 0.0467 J -0.0590
G01 X 21.6059 Y 13.1829 Z -1.0000
G03 X 21.6370 Y 13.1992 Z -1.0000 I -0.0145 J 0.0657
G03 X 21.6685 Y 13.2365 Z -1.0000 I -0.1333 J 0.1446
G01 X 21.6676 Y 13.2463 Z -1.0000
G01 X 21.6676 Y 13.2463 Z -1.0000
G00 Z 5.0000

(End cutting path id: path179927)


(Start cutting path id: path179927)
(Change tool to Default tool)

G00 Z 5.0000
G00 X 21.7273 Y 13.3062

G01 Z -1.0000 F 100.0000(Penetrate)
G03 X 21.7044 Y 13.3297 Z -1.0000 I -0.0640 J -0.0395 F 3500.0000
G01 X 21.6802 Y 13.3369 Z -1.0000
G01 X 21.6728 Y 13.3277 Z -1.0000
G03 X 21.6891 Y 13.2967 Z -1.0000 I 0.0657 J 0.0145
G01 X 21.7197 Y 13.2875 Z -1.0000
G01 X 21.7273 Y 13.3063 Z -1.0000
G01 X 21.7273 Y 13.3062 Z -1.0000
G00 Z 5.0000

(End cutting path id: path179927)


(Start cutting path id: path179927)
(Change tool to Default tool)

G00 Z 5.0000
G00 X 21.7616 Y 13.1523

G01 Z -1.0000 F 100.0000(Penetrate)
G01 X 21.7571 Y 13.1656 Z -1.0000 F 3500.0000
G01 X 21.7501 Y 13.1643 Z -1.0000
G02 X 21.7274 Y 13.1247 Z -1.0000 I -0.1748 J 0.0737
G02 X 21.7003 Y 13.0974 Z -1.0000 I -0.1081 J 0.0805
G01 X 21.6996 Y 13.0888 Z -1.0000
G01 X 21.7118 Y 13.0854 Z -1.0000
G03 X 21.7435 Y 13.1071 Z -1.0000 I -0.0156 J 0.0569
G03 X 21.7616 Y 13.1523 Z -1.0000 I -0.0760 J 0.0566
G01 X 21.7616 Y 13.1523 Z -1.0000
G00 Z 5.0000

(End cutting path id: path179927)


(Start cutting path id: path179927)
(Change tool to Default tool)

G00 Z 5.0000
G00 X 21.7637 Y 11.5034

G01 Z -1.0000 F 100.0000(Penetrate)
G03 X 21.7279 Y 11.5982 Z -1.0000 I -0.1227 J 0.0079 F 3500.0000
G03 X 21.6270 Y 11.6400 Z -1.0000 I -0.1009 J -0.1009
G03 X 21.5209 Y 11.6008 Z -1.0000 I -0.0000 J -0.1630
G03 X 21.4817 Y 11.5154 Z -1.0000 I 0.0732 J -0.0854
G03 X 21.4902 Y 11.3943 Z -1.0000 I 0.8673 J 0.0000
G01 X 21.5022 Y 11.3702 Z -1.0000
G01 X 21.5262 Y 11.3590 Z -1.0000
G03 X 21.6388 Y 11.3583 Z -1.0000 I 0.0612 J 0.6978
G03 X 21.7215 Y 11.3999 Z -1.0000 I -0.0088 J 0.1203
G03 X 21.7637 Y 11.5034 Z -1.0000 I -0.1334 J 0.1148
G01 X 21.7637 Y 11.5034 Z -1.0000
G00 Z 5.0000

(End cutting path id: path179927)


(Start cutting path id: path179927)
(Change tool to Default tool)

G00 Z 5.0000
G00 X 21.6470 Y 11.4511

G01 Z -1.0000 F 100.0000(Penetrate)
G02 X 21.6070 Y 11.5490 Z -1.0000 I 0.0603 J 0.0818 F 3500.0000
G02 X 21.6717 Y 11.6041 Z -1.0000 I 0.0647 J -0.0104
G02 X 21.7090 Y 11.5934 Z -1.0000 I -0.0000 J -0.0706
G01 X 21.7090 Y 11.5808 Z -1.0000
G02 X 21.6714 Y 11.5670 Z -1.0000 I -0.0525 J 0.0849
G01 X 21.6484 Y 11.5717 Z -1.0000
G01 X 21.6335 Y 11.5715 Z -1.0000
G01 X 21.6255 Y 11.5568 Z -1.0000
G01 X 21.6342 Y 11.5329 Z -1.0000
G03 X 21.6723 Y 11.5016 Z -1.0000 I 0.1059 J 0.0898
G02 X 21.7054 Y 11.4702 Z -1.0000 I -0.0452 J -0.0809
G01 X 21.7083 Y 11.4447 Z -1.0000
G01 X 21.6913 Y 11.4339 Z -1.0000
G02 X 21.6470 Y 11.4511 Z -1.0000 I 0.0094 J 0.0898
G01 X 21.6470 Y 11.4511 Z -1.0000
G00 Z 5.0000

(End cutting path id: path179927)


(Start cutting path id: path179927)
(Change tool to Default tool)

G00 Z 5.0000
G00 X 21.5190 Y 11.5109

G01 Z -1.0000 F 100.0000(Penetrate)
G02 X 21.5278 Y 11.5999 Z -1.0000 I 0.3512 J 0.0102 F 3500.0000
G01 X 21.5420 Y 11.6113 Z -1.0000
G01 X 21.5804 Y 11.5734 Z -1.0000
G02 X 21.5444 Y 11.4462 Z -1.0000 I -0.2310 J -0.0034
G01 X 21.5319 Y 11.4474 Z -1.0000
G02 X 21.5190 Y 11.5109 Z -1.0000 I 0.1750 J 0.0688
G01 X 21.5190 Y 11.5109 Z -1.0000
G00 Z 5.0000

(End cutting path id: path179927)


(Start cutting path id: path179927)
(Change tool to Default tool)

G00 Z 5.0000
G00 X 21.9645 Y 10.7381

G01 Z -1.0000 F 100.0000(Penetrate)
G03 X 21.9166 Y 10.7670 Z -1.0000 I -0.0824 J -0.0824 F 3500.0000
G01 X 21.8845 Y 10.7630 Z -1.0000
G01 X 21.8796 Y 10.7430 Z -1.0000
G03 X 21.9177 Y 10.7069 Z -1.0000 I 0.0823 J 0.0487
G01 X 21.9616 Y 10.7093 Z -1.0000
G01 X 21.9645 Y 10.7381 Z -1.0000
G01 X 21.9645 Y 10.7381 Z -1.0000
G00 Z 5.0000

(End cutting path id: path179927)


(Start cutting path id: path179927)
(Change tool to Default tool)

G00 Z 5.0000
G00 X 21.8655 Y 10.6490

G01 Z -1.0000 F 100.0000(Penetrate)
G03 X 21.8455 Y 10.6797 Z -1.0000 I -0.0822 J -0.0317 F 3500.0000
G01 X 21.8347 Y 10.6797 Z -1.0000
G01 X 21.8296 Y 10.6650 Z -1.0000
G03 X 21.8400 Y 10.6353 Z -1.0000 I 0.0716 J 0.0083
G01 X 21.8586 Y 10.6303 Z -1.0000
G01 X 21.8655 Y 10.6490 Z -1.0000
G01 X 21.8655 Y 10.6490 Z -1.0000
G00 Z 5.0000

(End cutting path id: path179927)


(Start cutting path id: path179927)
(Change tool to Default tool)

G00 Z 5.0000
G00 X 22.3733 Y 10.8173

G01 Z -1.0000 F 100.0000(Penetrate)
G01 X 22.3688 Y 10.8255 Z -1.0000 F 3500.0000
G03 X 22.3286 Y 10.8457 Z -1.0000 I -0.1204 J -0.1888
G01 X 22.3051 Y 10.8453 Z -1.0000
G01 X 22.3016 Y 10.8344 Z -1.0000
G03 X 22.3503 Y 10.7992 Z -1.0000 I 0.0671 J 0.0415
G01 X 22.3733 Y 10.8173 Z -1.0000
G01 X 22.3733 Y 10.8173 Z -1.0000
G00 Z 5.0000

(End cutting path id: path179927)


(Start cutting path id: path179927)
(Change tool to Default tool)

G00 Z 5.0000
G00 X 22.4020 Y 10.9066

G01 Z -1.0000 F 100.0000(Penetrate)
G03 X 22.3614 Y 10.9392 Z -1.0000 I -0.0995 J -0.0825 F 3500.0000
G03 X 22.3194 Y 10.9489 Z -1.0000 I -0.0402 J -0.0787
G01 X 22.3092 Y 10.9360 Z -1.0000
G03 X 22.3284 Y 10.9057 Z -1.0000 I 0.0500 J 0.0104
G03 X 22.3919 Y 10.8848 Z -1.0000 I 0.0622 J 0.0823
G01 X 22.4020 Y 10.9066 Z -1.0000
G01 X 22.4020 Y 10.9066 Z -1.0000
G00 Z 5.0000

(End cutting path id: path179927)


(Start cutting path id: path179927)
(Change tool to Default tool)

G00 Z 5.0000
G00 X 22.2875 Y 10.2732

G01 Z -1.0000 F 100.0000(Penetrate)
G03 X 22.2463 Y 10.3060 Z -1.0000 I -0.0993 J -0.0824 F 3500.0000
G03 X 22.2044 Y 10.3151 Z -1.0000 I -0.0384 J -0.0762
G01 X 22.1984 Y 10.3047 Z -1.0000
G03 X 22.2223 Y 10.2819 Z -1.0000 I 0.0470 J 0.0254
G02 X 22.2770 Y 10.2445 Z -1.0000 I -0.0961 J -0.1992
G01 X 22.2870 Y 10.2215 Z -1.0000
G01 X 22.2940 Y 10.2094 Z -1.0000
G01 X 22.3054 Y 10.2109 Z -1.0000
G01 X 22.3104 Y 10.2300 Z -1.0000
G03 X 22.2875 Y 10.2732 Z -1.0000 I -0.1146 J -0.0329
G01 X 22.2875 Y 10.2732 Z -1.0000
G00 Z 5.0000

(End cutting path id: path179927)


(Start cutting path id: path179927)
(Change tool to Default tool)

G00 Z 5.0000
G00 X 22.2870 Y 10.1270

G01 Z -1.0000 F 100.0000(Penetrate)
G01 X 22.2825 Y 10.1352 Z -1.0000 F 3500.0000
G03 X 22.2423 Y 10.1554 Z -1.0000 I -0.1204 J -0.1889
G01 X 22.2188 Y 10.1551 Z -1.0000
G01 X 22.2153 Y 10.1441 Z -1.0000
G03 X 22.2640 Y 10.1089 Z -1.0000 I 0.0671 J 0.0415
G01 X 22.2870 Y 10.1270 Z -1.0000
G01 X 22.2870 Y 10.1270 Z -1.0000
G00 Z 5.0000

(End cutting path id: path179927)


(Start cutting path id: path179927)
(Change tool to Default tool)

G00 Z 5.0000
G00 X 21.7980 Y 17.2299

G01 Z -1.0000 F 100.0000(Penetrate)
G01 X 21.7885 Y 17.2479 Z -1.0000 F 3500.0000
G03 X 21.4098 Y 17.4932 Z -1.0000 I -6.0167 J -8.8735
G01 X 21.4034 Y 17.4843 Z -1.0000
G03 X 21.5820 Y 17.3528 Z -1.0000 I 1.4195 J 1.7416
G03 X 21.7898 Y 17.2251 Z -1.0000 I 1.9821 J 2.9919
G01 X 21.7980 Y 17.2299 Z -1.0000
G01 X 21.7980 Y 17.2299 Z -1.0000
G00 Z 5.0000

(End cutting path id: path179927)


(Start cutting path id: path179927)
(Change tool to Default tool)

G00 Z 5.0000
G00 X 21.1672 Y 17.6486

G01 Z -1.0000 F 100.0000(Penetrate)
G03 X 20.9597 Y 17.7874 Z -1.0000 I -1.1544 J -1.5019 F 3500.0000
G01 X 20.9496 Y 17.7742 Z -1.0000
G03 X 21.1431 Y 17.6161 Z -1.0000 I 0.8731 J 0.8713
G03 X 21.2223 Y 17.5942 Z -1.0000 I 0.0734 J 0.1113
G01 X 21.2242 Y 17.5989 Z -1.0000
G03 X 21.1672 Y 17.6486 Z -1.0000 I -0.4294 J -0.4348
G01 X 21.1672 Y 17.6486 Z -1.0000
G00 Z 5.0000

(End cutting path id: path179927)


(Start cutting path id: path179927)
(Change tool to Default tool)

G00 Z 5.0000
G00 X 21.7918 Y 19.2738

G01 Z -1.0000 F 100.0000(Penetrate)
G02 X 21.9054 Y 19.3039 Z -1.0000 I 0.2433 J -0.6895 F 3500.0000
G01 X 21.9249 Y 19.2978 Z -1.0000
G01 X 21.9348 Y 19.2977 Z -1.0000
G01 X 21.9418 Y 19.3144 Z -1.0000
G01 X 21.9555 Y 19.3343 Z -1.0000
G02 X 22.0281 Y 19.3479 Z -1.0000 I 0.0726 J -0.1869
G03 X 22.1024 Y 19.3600 Z -1.0000 I 0.0000 J 0.2348
G01 X 22.1144 Y 19.3767 Z -1.0000
G01 X 22.1251 Y 19.3947 Z -1.0000
G02 X 22.1675 Y 19.4054 Z -1.0000 I 0.0424 J -0.0782
G03 X 22.2188 Y 19.4133 Z -1.0000 I 0.0000 J 0.1710
G03 X 22.3109 Y 19.4505 Z -1.0000 I -0.1886 J 0.6002
G02 X 22.4007 Y 19.4825 Z -1.0000 I 0.1776 J -0.3558
G01 X 22.4304 Y 19.4776 Z -1.0000
G01 X 22.4503 Y 19.4761 Z -1.0000
G01 X 22.4595 Y 19.4900 Z -1.0000
G01 X 22.4314 Y 19.5129 Z -1.0000
G03 X 21.9961 Y 19.3921 Z -1.0000 I 0.7489 J -3.5432
G02 X 21.6252 Y 19.2793 Z -1.0000 I -1.6708 J 4.8289
G02 X 21.5773 Y 19.2819 Z -1.0000 I -0.0199 J 0.0755
G01 X 21.5540 Y 19.2801 Z -1.0000
G01 X 21.5505 Y 19.2665 Z -1.0000
G03 X 21.6027 Y 19.2385 Z -1.0000 I 0.0503 J 0.0311
G03 X 21.7918 Y 19.2738 Z -1.0000 I -0.0189 J 0.6250
G01 X 21.7918 Y 19.2738 Z -1.0000
G00 Z 5.0000

(End cutting path id: path179927)


(Start cutting path id: path179927)
(Change tool to Default tool)

G00 Z 5.0000
G00 X 21.6015 Y 19.6392

G01 Z -1.0000 F 100.0000(Penetrate)
G02 X 21.9733 Y 19.7345 Z -1.0000 I 1.0178 J -3.1986 F 3500.0000
G02 X 22.0445 Y 19.7261 Z -1.0000 I 0.0226 J -0.1152
G01 X 22.0565 Y 19.7353 Z -1.0000
G01 X 22.0388 Y 19.7596 Z -1.0000
G03 X 21.9609 Y 19.7714 Z -1.0000 I -0.0561 J -0.1071
G03 X 21.5715 Y 19.6738 Z -1.0000 I 0.5660 J -3.0842
G02 X 21.1789 Y 19.5647 Z -1.0000 I -1.6060 J 5.0205
G02 X 21.1077 Y 19.5641 Z -1.0000 I -0.0370 J 0.1562
G01 X 21.0798 Y 19.5609 Z -1.0000
G01 X 21.0790 Y 19.5506 Z -1.0000
G03 X 21.1620 Y 19.5326 Z -1.0000 I 0.0639 J 0.0945
G03 X 21.6015 Y 19.6392 Z -1.0000 I -0.5411 J 3.1884
G01 X 21.6015 Y 19.6392 Z -1.0000
G00 Z 5.0000

(End cutting path id: path179927)


(Start cutting path id: path179927)
(Change tool to Default tool)

G00 Z 5.0000
G00 X 21.4739 Y 19.8830

G01 Z -1.0000 F 100.0000(Penetrate)
G01 X 21.4546 Y 19.8914 Z -1.0000 F 3500.0000
G03 X 21.4188 Y 19.8853 Z -1.0000 I -0.0035 J -0.0872
G01 X 21.4169 Y 19.8763 Z -1.0000
G01 X 21.4361 Y 19.8679 Z -1.0000
G03 X 21.4720 Y 19.8741 Z -1.0000 I 0.0035 J 0.0876
G01 X 21.4739 Y 19.8830 Z -1.0000
G01 X 21.4739 Y 19.8830 Z -1.0000
G00 Z 5.0000

(End cutting path id: path179927)


(Start cutting path id: path179927)
(Change tool to Default tool)

G00 Z 5.0000
G00 X 21.3235 Y 19.8369

G01 Z -1.0000 F 100.0000(Penetrate)
G01 X 21.3428 Y 19.8544 Z -1.0000 F 3500.0000
G01 X 21.3379 Y 19.8632 Z -1.0000
G03 X 21.2966 Y 19.8578 Z -1.0000 I -0.0046 J -0.1255
G03 X 21.2516 Y 19.8369 Z -1.0000 I 0.0524 J -0.1717
G01 X 21.2557 Y 19.8229 Z -1.0000
G03 X 21.3235 Y 19.8369 Z -1.0000 I 0.0000 J 0.1717
G01 X 21.3235 Y 19.8369 Z -1.0000
G00 Z 5.0000

(End cutting path id: path179927)


(Start cutting path id: path179927)
(Change tool to Default tool)

G00 Z 5.0000
G00 X 21.3301 Y 20.0843

G01 Z -1.0000 F 100.0000(Penetrate)
G01 X 21.3108 Y 20.0928 Z -1.0000 F 3500.0000
G03 X 21.2749 Y 20.0866 Z -1.0000 I -0.0035 J -0.0873
G01 X 21.2731 Y 20.0777 Z -1.0000
G01 X 21.2923 Y 20.0692 Z -1.0000
G03 X 21.3282 Y 20.0754 Z -1.0000 I 0.0035 J 0.0876
G01 X 21.3301 Y 20.0843 Z -1.0000
G01 X 21.3301 Y 20.0843 Z -1.0000
G00 Z 5.0000

(End cutting path id: path179927)


(Start cutting path id: path179927)
(Change tool to Default tool)

G00 Z 5.0000
G00 X 21.3954 Y 20.2529

G01 Z -1.0000 F 100.0000(Penetrate)
G01 X 21.3901 Y 20.2630 Z -1.0000 F 3500.0000
G03 X 21.3307 Y 20.2976 Z -1.0000 I -0.2560 J -0.3711
G01 X 21.3201 Y 20.2947 Z -1.0000
G01 X 21.3218 Y 20.2842 Z -1.0000
G03 X 21.3853 Y 20.2462 Z -1.0000 I 0.1704 J 0.2127
G01 X 21.3954 Y 20.2529 Z -1.0000
G01 X 21.3954 Y 20.2529 Z -1.0000
G00 Z 5.0000

(End cutting path id: path179927)


(Start cutting path id: path179927)
(Change tool to Default tool)

G00 Z 5.0000
G00 X 21.1365 Y 20.3971

G01 Z -1.0000 F 100.0000(Penetrate)
G01 X 21.1308 Y 20.4074 Z -1.0000 F 3500.0000
G03 X 21.0215 Y 20.4696 Z -1.0000 I -0.7419 J -1.1777
G03 X 20.9174 Y 20.5103 Z -1.0000 I -0.2581 J -0.5059
G01 X 20.9065 Y 20.5020 Z -1.0000
G01 X 20.9169 Y 20.4827 Z -1.0000
G03 X 21.0143 Y 20.4310 Z -1.0000 I 0.3212 J 0.4879
G03 X 21.1291 Y 20.3915 Z -1.0000 I 0.3795 J 0.9149
G01 X 21.1365 Y 20.3971 Z -1.0000
G01 X 21.1365 Y 20.3971 Z -1.0000
G00 Z 5.0000

(End cutting path id: path179927)


(Start cutting path id: path179927)
(Change tool to Default tool)

G00 Z 5.0000
G00 X 21.0762 Y 19.7400

G01 Z -1.0000 F 100.0000(Penetrate)
G03 X 21.1591 Y 19.7831 Z -1.0000 I -0.1936 J 0.4730 F 3500.0000
G01 X 21.1602 Y 19.7940 Z -1.0000
G03 X 21.0287 Y 19.8237 Z -1.0000 I -0.0893 J -0.0893
G03 X 20.8597 Y 19.6873 Z -1.0000 I 0.1096 J -0.3086
G01 X 20.8700 Y 19.6731 Z -1.0000
G03 X 21.0762 Y 19.7400 Z -1.0000 I -0.3433 J 1.4091
G01 X 21.0762 Y 19.7400 Z -1.0000
G00 Z 5.0000

(End cutting path id: path179927)


(Start cutting path id: path179927)
(Change tool to Default tool)

G00 Z 5.0000
G00 X 21.6542 Y 19.9231

G01 Z -1.0000 F 100.0000(Penetrate)
G01 X 21.6734 Y 19.9383 Z -1.0000 F 3500.0000
G01 X 21.6686 Y 19.9470 Z -1.0000
G03 X 21.6123 Y 19.9416 Z -1.0000 I -0.0038 J -0.2583
G03 X 21.5536 Y 19.9231 Z -1.0000 I 0.0623 J -0.3003
G01 X 21.5567 Y 19.9079 Z -1.0000
G03 X 21.6542 Y 19.9231 Z -1.0000 I -0.0000 J 0.3199
G01 X 21.6542 Y 19.9231 Z -1.0000
G00 Z 5.0000

(End cutting path id: path179927)


(Start cutting path id: path179927)
(Change tool to Default tool)

G00 Z 5.0000
G00 X 21.8692 Y 20.6409

G01 Z -1.0000 F 100.0000(Penetrate)
G01 X 21.8670 Y 20.6632 Z -1.0000 F 3500.0000
G03 X 21.8038 Y 20.7111 Z -1.0000 I -0.1701 J -0.1587
G03 X 21.7367 Y 20.7285 Z -1.0000 I -0.0718 J -0.1388
G01 X 21.7213 Y 20.7136 Z -1.0000
G01 X 21.7299 Y 20.6889 Z -1.0000
G01 X 21.7427 Y 20.6867 Z -1.0000
G02 X 21.8245 Y 20.6906 Z -1.0000 I 0.0445 J -0.0720
G01 X 21.8393 Y 20.6391 Z -1.0000
G01 X 21.8328 Y 20.6186 Z -1.0000
G01 X 21.8378 Y 20.6134 Z -1.0000
G01 X 21.8497 Y 20.6179 Z -1.0000
G03 X 21.8692 Y 20.6409 Z -1.0000 I -0.0672 J 0.0766
G01 X 21.8692 Y 20.6409 Z -1.0000
G00 Z 5.0000

(End cutting path id: path179927)


(Start cutting path id: path179927)
(Change tool to Default tool)

G00 Z 5.0000
G00 X 22.2582 Y 20.4545

G01 Z -1.0000 F 100.0000(Penetrate)
G01 X 22.2528 Y 20.4648 Z -1.0000 F 3500.0000
G03 X 22.1767 Y 20.5102 Z -1.0000 I -0.4073 J -0.5950
G03 X 22.1106 Y 20.5272 Z -1.0000 I -0.0699 J -0.1352
G01 X 22.0952 Y 20.5122 Z -1.0000
G01 X 22.1045 Y 20.4887 Z -1.0000
G01 X 22.1190 Y 20.4868 Z -1.0000
G01 X 22.1429 Y 20.4911 Z -1.0000
G02 X 22.1933 Y 20.4720 Z -1.0000 I -0.0322 J -0.1612
G03 X 22.2501 Y 20.4483 Z -1.0000 I 0.1180 J 0.2026
G01 X 22.2582 Y 20.4545 Z -1.0000
G01 X 22.2582 Y 20.4545 Z -1.0000
G00 Z 5.0000

(End cutting path id: path179927)


(Start cutting path id: path179927)
(Change tool to Default tool)

G00 Z 5.0000
G00 X 22.3733 Y 20.3946

G01 Z -1.0000 F 100.0000(Penetrate)
G01 X 22.3688 Y 20.4028 Z -1.0000 F 3500.0000
G03 X 22.3286 Y 20.4230 Z -1.0000 I -0.1204 J -0.1888
G01 X 22.3051 Y 20.4227 Z -1.0000
G01 X 22.3016 Y 20.4117 Z -1.0000
G03 X 22.3503 Y 20.3765 Z -1.0000 I 0.0671 J 0.0415
G01 X 22.3733 Y 20.3946 Z -1.0000
G01 X 22.3733 Y 20.3946 Z -1.0000
G00 Z 5.0000

(End cutting path id: path179927)


(Start cutting path id: path179927)
(Change tool to Default tool)

G00 Z 5.0000
G00 X 22.0569 Y 21.5214

G01 Z -1.0000 F 100.0000(Penetrate)
G02 X 22.0673 Y 21.5535 Z -1.0000 I 0.0545 J 0.0000 F 3500.0000
G02 X 22.1037 Y 21.5858 Z -1.0000 I 0.0920 J -0.0669
G01 X 22.1260 Y 21.6126 Z -1.0000
G01 X 22.1192 Y 21.6314 Z -1.0000
G01 X 22.0942 Y 21.6279 Z -1.0000
G03 X 22.0251 Y 21.5278 Z -1.0000 I 0.3401 J -0.3089
G03 X 21.9988 Y 21.4504 Z -1.0000 I 0.2529 J -0.1290
G01 X 22.0096 Y 21.4440 Z -1.0000
G03 X 22.0474 Y 21.4877 Z -1.0000 I -0.1123 J 0.1353
G03 X 22.0569 Y 21.5214 Z -1.0000 I -0.0552 J 0.0337
G01 X 22.0569 Y 21.5214 Z -1.0000
G00 Z 5.0000

(End cutting path id: path179927)


(Start cutting path id: path179927)
(Change tool to Default tool)

G00 Z 5.0000
G00 X 21.9805 Y 21.8370

G01 Z -1.0000 F 100.0000(Penetrate)
G03 X 21.9606 Y 21.8676 Z -1.0000 I -0.0822 J -0.0317 F 3500.0000
G01 X 21.9498 Y 21.8676 Z -1.0000
G01 X 21.9447 Y 21.8530 Z -1.0000
G03 X 21.9551 Y 21.8232 Z -1.0000 I 0.0716 J 0.0083
G01 X 21.9736 Y 21.8183 Z -1.0000
G01 X 21.9806 Y 21.8370 Z -1.0000
G01 X 21.9805 Y 21.8370 Z -1.0000
G00 Z 5.0000

(End cutting path id: path179927)


(Start cutting path id: path179927)
(Change tool to Default tool)

G00 Z 5.0000
G00 X 21.7386 Y 21.8169

G01 Z -1.0000 F 100.0000(Penetrate)
G03 X 21.6556 Y 21.8135 Z -1.0000 I -0.0372 J -0.1081 F 3500.0000
G03 X 21.6255 Y 21.7674 Z -1.0000 I 0.0201 J -0.0461
G01 X 21.6363 Y 21.7575 Z -1.0000
G03 X 21.6964 Y 21.7737 Z -1.0000 I -0.0158 J 0.1781
G03 X 21.7413 Y 21.8056 Z -1.0000 I -0.0654 J 0.1397
G01 X 21.7386 Y 21.8169 Z -1.0000
G01 X 21.7386 Y 21.8169 Z -1.0000
G00 Z 5.0000

(End cutting path id: path179927)


(Start cutting path id: path179927)
(Change tool to Default tool)

G00 Z 5.0000
G00 X 21.4529 Y 21.8902

G01 Z -1.0000 F 100.0000(Penetrate)
G01 X 21.4484 Y 21.8983 Z -1.0000 F 3500.0000
G03 X 21.4083 Y 21.9186 Z -1.0000 I -0.1204 J -0.1889
G01 X 21.3847 Y 21.9182 Z -1.0000
G01 X 21.3812 Y 21.9073 Z -1.0000
G03 X 21.4300 Y 21.8720 Z -1.0000 I 0.0671 J 0.0415
G01 X 21.4529 Y 21.8902 Z -1.0000
G01 X 21.4529 Y 21.8902 Z -1.0000
G00 Z 5.0000

(End cutting path id: path179927)


(Start cutting path id: path179927)
(Change tool to Default tool)

G00 Z 5.0000
G00 X 21.3050 Y 21.9332

G01 Z -1.0000 F 100.0000(Penetrate)
G01 X 21.3227 Y 21.9578 Z -1.0000 F 3500.0000
G01 X 21.3154 Y 21.9756 Z -1.0000
G01 X 21.2894 Y 21.9779 Z -1.0000
G03 X 21.2513 Y 21.9504 Z -1.0000 I 0.0343 J -0.0875
G01 X 21.2581 Y 21.9272 Z -1.0000
G03 X 21.3050 Y 21.9332 Z -1.0000 I 0.0170 J 0.0531
G01 X 21.3050 Y 21.9332 Z -1.0000
G00 Z 5.0000

(End cutting path id: path179927)


(Start cutting path id: path179927)
(Change tool to Default tool)

G00 Z 5.0000
G00 X 21.2228 Y 21.7062

G01 Z -1.0000 F 100.0000(Penetrate)
G03 X 21.1290 Y 21.7379 Z -1.0000 I -0.0919 J -0.1176 F 3500.0000
G01 X 21.0833 Y 21.7044 Z -1.0000
G01 X 21.0897 Y 21.6924 Z -1.0000
G01 X 21.1104 Y 21.6966 Z -1.0000
G02 X 21.1517 Y 21.7098 Z -1.0000 I 0.0370 J -0.0448
G02 X 21.2068 Y 21.6894 Z -1.0000 I -0.0080 J -0.1066
G01 X 21.2239 Y 21.6910 Z -1.0000
G01 X 21.2228 Y 21.7062 Z -1.0000
G01 X 21.2228 Y 21.7062 Z -1.0000
G00 Z 5.0000

(End cutting path id: path179927)


(Start cutting path id: path179927)
(Change tool to Default tool)

G00 Z 5.0000
G00 X 21.4922 Y 22.1726

G01 Z -1.0000 F 100.0000(Penetrate)
G01 X 21.4742 Y 22.1879 Z -1.0000 F 3500.0000
G03 X 21.4368 Y 22.1952 Z -1.0000 I -0.0373 J -0.0915
G03 X 21.4038 Y 22.1868 Z -1.0000 I -0.0000 J -0.0690
G01 X 21.3954 Y 22.1726 Z -1.0000
G01 X 21.4045 Y 22.1591 Z -1.0000
G03 X 21.4508 Y 22.1500 Z -1.0000 I 0.0463 J 0.1136
G03 X 21.4888 Y 22.1597 Z -1.0000 I 0.0000 J 0.0794
G01 X 21.4922 Y 22.1726 Z -1.0000
G01 X 21.4922 Y 22.1726 Z -1.0000
G00 Z 5.0000

(End cutting path id: path179927)


(Start cutting path id: path179927)
(Change tool to Default tool)

G00 Z 5.0000
G00 X 21.5967 Y 22.3999

G01 Z -1.0000 F 100.0000(Penetrate)
G01 X 21.5878 Y 22.4128 Z -1.0000 F 3500.0000
G01 X 21.5679 Y 22.4109 Z -1.0000
G03 X 21.5462 Y 22.3892 Z -1.0000 I 0.0353 J -0.0570
G01 X 21.5392 Y 22.3644 Z -1.0000
G01 X 21.5480 Y 22.3515 Z -1.0000
G01 X 21.5679 Y 22.3534 Z -1.0000
G03 X 21.5897 Y 22.3751 Z -1.0000 I -0.0353 J 0.0570
G01 X 21.5967 Y 22.3999 Z -1.0000
G01 X 21.5967 Y 22.3999 Z -1.0000
G00 Z 5.0000

(End cutting path id: path179927)


(Start cutting path id: path179927)
(Change tool to Default tool)

G00 Z 5.0000
G00 X 21.7405 Y 22.3236

G01 Z -1.0000 F 100.0000(Penetrate)
G01 X 21.7352 Y 22.3337 Z -1.0000 F 3500.0000
G03 X 21.6758 Y 22.3683 Z -1.0000 I -0.2560 J -0.3711
G01 X 21.6653 Y 22.3655 Z -1.0000
G01 X 21.6669 Y 22.3550 Z -1.0000
G03 X 21.7304 Y 22.3169 Z -1.0000 I 0.1703 J 0.2126
G01 X 21.7405 Y 22.3236 Z -1.0000
G01 X 21.7405 Y 22.3236 Z -1.0000
G00 Z 5.0000

(End cutting path id: path179927)


(Start cutting path id: path179927)
(Change tool to Default tool)

G00 Z 5.0000
G00 X 21.8268 Y 22.5978

G01 Z -1.0000 F 100.0000(Penetrate)
G03 X 21.7376 Y 22.6350 Z -1.0000 I -0.1121 J -0.1433 F 3500.0000
G01 X 21.7019 Y 22.6137 Z -1.0000
G01 X 21.7060 Y 22.5921 Z -1.0000
G01 X 21.7259 Y 22.5873 Z -1.0000
G02 X 21.7649 Y 22.5913 Z -1.0000 I 0.0270 J -0.0705
G02 X 21.8179 Y 22.5724 Z -1.0000 I -0.0247 J -0.1525
G01 X 21.8326 Y 22.5778 Z -1.0000
G01 X 21.8268 Y 22.5979 Z -1.0000
G01 X 21.8268 Y 22.5978 Z -1.0000
G00 Z 5.0000

(End cutting path id: path179927)


(Start cutting path id: path179927)
(Change tool to Default tool)

G00 Z 5.0000
G00 X 22.0569 Y 22.2631

G01 Z -1.0000 F 100.0000(Penetrate)
G01 X 22.0568 Y 22.2698 Z -1.0000 F 3500.0000
G03 X 22.0284 Y 22.2736 Z -1.0000 I -0.0226 J -0.0612
G03 X 21.9716 Y 22.2511 Z -1.0000 I 0.0095 J -0.1071
G03 X 21.9467 Y 22.2096 Z -1.0000 I 0.0416 J -0.0531
G01 X 21.9558 Y 22.1938 Z -1.0000
G01 X 21.9752 Y 22.1991 Z -1.0000
G02 X 22.0177 Y 22.2407 Z -1.0000 I 0.2094 J -0.1716
G02 X 22.0569 Y 22.2631 Z -1.0000 I 0.0963 J -0.1230
G01 X 22.0569 Y 22.2631 Z -1.0000
G00 Z 5.0000

(End cutting path id: path179927)


(Start cutting path id: path179927)
(Change tool to Default tool)

G00 Z 5.0000
G00 X 21.3489 Y 22.8909

G01 Z -1.0000 F 100.0000(Penetrate)
G01 X 21.3009 Y 22.9059 Z -1.0000 F 3500.0000
G03 X 21.2418 Y 22.8439 Z -1.0000 I 0.0446 J -0.1017
G01 X 21.2498 Y 22.8308 Z -1.0000
G03 X 21.2946 Y 22.8385 Z -1.0000 I 0.0086 J 0.0842
G03 X 21.3468 Y 22.8746 Z -1.0000 I -0.0830 J 0.1759
G01 X 21.3489 Y 22.8910 Z -1.0000
G01 X 21.3489 Y 22.8909 Z -1.0000
G00 Z 5.0000

(End cutting path id: path179927)


(Start cutting path id: path179927)
(Change tool to Default tool)

G00 Z 5.0000
G00 X 20.9640 Y 23.1035

G01 Z -1.0000 F 100.0000(Penetrate)
G01 X 20.9133 Y 23.1342 Z -1.0000 F 3500.0000
G03 X 20.8255 Y 23.0308 Z -1.0000 I 0.0844 J -0.1607
G01 X 20.8339 Y 23.0214 Z -1.0000
G03 X 20.8887 Y 23.0441 Z -1.0000 I -0.0328 J 0.1563
G03 X 20.9601 Y 23.0955 Z -1.0000 I -0.5443 J 0.8307
G01 X 20.9640 Y 23.1035 Z -1.0000
G01 X 20.9640 Y 23.1035 Z -1.0000
G00 Z 5.0000

(End cutting path id: path179927)


(Start cutting path id: path179927)
(Change tool to Default tool)

G00 Z 5.0000
G00 X 20.8202 Y 23.2881

G01 Z -1.0000 F 100.0000(Penetrate)
G01 X 20.8115 Y 23.3082 Z -1.0000 F 3500.0000
G01 X 20.7897 Y 23.3169 Z -1.0000
G01 X 20.7757 Y 23.3077 Z -1.0000
G01 X 20.7770 Y 23.2881 Z -1.0000
G03 X 20.7971 Y 23.2635 Z -1.0000 I 0.1047 J 0.0648
G01 X 20.8075 Y 23.2593 Z -1.0000
G01 X 20.8152 Y 23.2644 Z -1.0000
G03 X 20.8202 Y 23.2881 Z -1.0000 I -0.0540 J 0.0237
G01 X 20.8202 Y 23.2881 Z -1.0000
G00 Z 5.0000

(End cutting path id: path179927)


(Start cutting path id: path179927)
(Change tool to Default tool)

G00 Z 5.0000
G00 X 21.0223 Y 22.4220

G01 Z -1.0000 F 100.0000(Penetrate)
G01 X 21.0416 Y 22.4413 Z -1.0000 F 3500.0000
G01 X 21.0344 Y 22.4522 Z -1.0000
G03 X 20.9394 Y 22.4217 Z -1.0000 I -0.0045 J -0.1492
G03 X 20.9069 Y 22.3548 Z -1.0000 I 0.0501 J -0.0657
G01 X 20.9142 Y 22.3489 Z -1.0000
G01 X 20.9293 Y 22.3591 Z -1.0000
G02 X 20.9566 Y 22.3872 Z -1.0000 I 0.0811 J -0.0515
G02 X 21.0223 Y 22.4220 Z -1.0000 I 0.1946 J -0.2879
G01 X 21.0223 Y 22.4220 Z -1.0000
G00 Z 5.0000

(End cutting path id: path179927)


(Start cutting path id: path179927)
(Change tool to Default tool)

G00 Z 5.0000
G00 X 19.9172 Y 22.4137

G01 Z -1.0000 F 100.0000(Penetrate)
G01 X 19.9474 Y 22.4127 Z -1.0000 F 3500.0000
G01 X 19.9574 Y 22.4262 Z -1.0000
G01 X 19.9345 Y 22.4487 Z -1.0000
G03 X 19.8404 Y 22.4243 Z -1.0000 I 0.0034 J -0.2065
G03 X 19.7978 Y 22.3867 Z -1.0000 I 0.0586 J -0.1095
G03 X 19.7848 Y 22.3460 Z -1.0000 I 0.0573 J -0.0407
G01 X 19.7974 Y 22.3373 Z -1.0000
G03 X 19.8309 Y 22.3633 Z -1.0000 I -0.0252 J 0.0672
G02 X 19.8826 Y 22.4109 Z -1.0000 I 0.1347 J -0.0943
G01 X 19.9172 Y 22.4137 Z -1.0000
G01 X 19.9172 Y 22.4137 Z -1.0000
G00 Z 5.0000

(End cutting path id: path179927)


(Start cutting path id: path179927)
(Change tool to Default tool)

G00 Z 5.0000
G00 X 19.5835 Y 22.6146

G01 Z -1.0000 F 100.0000(Penetrate)
G01 X 19.5328 Y 22.6452 Z -1.0000 F 3500.0000
G03 X 19.4450 Y 22.5419 Z -1.0000 I 0.0844 J -0.1607
G01 X 19.4534 Y 22.5324 Z -1.0000
G03 X 19.5082 Y 22.5551 Z -1.0000 I -0.0327 J 0.1563
G03 X 19.5796 Y 22.6065 Z -1.0000 I -0.5443 J 0.8307
G01 X 19.5835 Y 22.6146 Z -1.0000
G01 X 19.5835 Y 22.6146 Z -1.0000
G00 Z 5.0000

(End cutting path id: path179927)


(Start cutting path id: path179927)
(Change tool to Default tool)

G00 Z 5.0000
G00 X 19.9322 Y 22.8356

G01 Z -1.0000 F 100.0000(Penetrate)
G01 X 19.9195 Y 22.8356 Z -1.0000 F 3500.0000
G01 X 19.9161 Y 22.8195 Z -1.0000
G03 X 19.9391 Y 22.7840 Z -1.0000 I 0.0938 J 0.0357
G01 X 19.9518 Y 22.7840 Z -1.0000
G01 X 19.9552 Y 22.8002 Z -1.0000
G03 X 19.9322 Y 22.8356 Z -1.0000 I -0.0939 J -0.0359
G01 X 19.9322 Y 22.8356 Z -1.0000
G00 Z 5.0000

(End cutting path id: path179927)


(Start cutting path id: path179927)
(Change tool to Default tool)

G00 Z 5.0000
G00 X 19.8279 Y 23.0005

G01 Z -1.0000 F 100.0000(Penetrate)
G01 X 19.8298 Y 23.0204 Z -1.0000 F 3500.0000
G01 X 19.8169 Y 23.0293 Z -1.0000
G01 X 19.7921 Y 23.0222 Z -1.0000
G03 X 19.7704 Y 23.0005 Z -1.0000 I 0.0351 J -0.0568
G01 X 19.7685 Y 22.9806 Z -1.0000
G01 X 19.7814 Y 22.9717 Z -1.0000
G01 X 19.8062 Y 22.9788 Z -1.0000
G03 X 19.8279 Y 23.0005 Z -1.0000 I -0.0351 J 0.0568
G01 X 19.8279 Y 23.0005 Z -1.0000
G00 Z 5.0000

(End cutting path id: path179927)


(Start cutting path id: path179927)
(Change tool to Default tool)

G00 Z 5.0000
G00 X 19.1664 Y 23.0533

G01 Z -1.0000 F 100.0000(Penetrate)
G03 X 19.1034 Y 23.0630 Z -1.0000 I -0.0381 J -0.0381 F 3500.0000
G03 X 19.0658 Y 23.0011 Z -1.0000 I 0.0321 J -0.0619
G01 X 19.0768 Y 22.9911 Z -1.0000
G03 X 19.1220 Y 23.0063 Z -1.0000 I -0.0095 J 0.1029
G03 X 19.1665 Y 23.0428 Z -1.0000 I -0.1198 J 0.1918
G01 X 19.1664 Y 23.0533 Z -1.0000
G01 X 19.1664 Y 23.0533 Z -1.0000
G00 Z 5.0000

(End cutting path id: path179927)


(Start cutting path id: path179927)
(Change tool to Default tool)

G00 Z 5.0000
G00 X 19.2959 Y 23.5549

G01 Z -1.0000 F 100.0000(Penetrate)
G01 X 19.2869 Y 23.5627 Z -1.0000 F 3500.0000
G03 X 19.2383 Y 23.5470 Z -1.0000 I 0.0198 J -0.1435
G03 X 19.1900 Y 23.5107 Z -1.0000 I 0.0939 J -0.1754
G01 X 19.1808 Y 23.4882 Z -1.0000
G01 X 19.1913 Y 23.4791 Z -1.0000
G03 X 19.2383 Y 23.4961 Z -1.0000 I -0.0163 J 0.1187
G03 X 19.2882 Y 23.5362 Z -1.0000 I -0.1429 J 0.2288
G01 X 19.2959 Y 23.5549 Z -1.0000
G01 X 19.2959 Y 23.5549 Z -1.0000
G00 Z 5.0000

(End cutting path id: path179927)


(Start cutting path id: path179927)
(Change tool to Default tool)

G00 Z 5.0000
G00 X 19.3283 Y 24.1725

G01 Z -1.0000 F 100.0000(Penetrate)
G01 X 19.3277 Y 24.1827 Z -1.0000 F 3500.0000
G01 X 19.3174 Y 24.1834 Z -1.0000
G03 X 19.2708 Y 24.1421 Z -1.0000 I 0.3196 J -0.4075
G01 X 19.2671 Y 24.1330 Z -1.0000
G01 X 19.2783 Y 24.1269 Z -1.0000
G03 X 19.3283 Y 24.1725 Z -1.0000 I -0.1110 J 0.1719
G01 X 19.3283 Y 24.1725 Z -1.0000
G00 Z 5.0000

(End cutting path id: path179927)


(Start cutting path id: path179927)
(Change tool to Default tool)

G00 Z 5.0000
G00 X 18.5337 Y 22.6554

G01 Z -1.0000 F 100.0000(Penetrate)
G01 X 18.5356 Y 22.6753 Z -1.0000 F 3500.0000
G01 X 18.5227 Y 22.6841 Z -1.0000
G01 X 18.4979 Y 22.6771 Z -1.0000
G03 X 18.4762 Y 22.6554 Z -1.0000 I 0.0351 J -0.0568
G01 X 18.4743 Y 22.6354 Z -1.0000
G01 X 18.4872 Y 22.6266 Z -1.0000
G01 X 18.5120 Y 22.6337 Z -1.0000
G03 X 18.5337 Y 22.6554 Z -1.0000 I -0.0351 J 0.0568
G01 X 18.5337 Y 22.6554 Z -1.0000
G00 Z 5.0000

(End cutting path id: path179927)


(Start cutting path id: path179927)
(Change tool to Default tool)

G00 Z 5.0000
G00 X 18.5623 Y 22.5975

G01 Z -1.0000 F 100.0000(Penetrate)
G01 X 18.5587 Y 22.6085 Z -1.0000 F 3500.0000
G01 X 18.5352 Y 22.6088 Z -1.0000
G01 X 18.5084 Y 22.5833 Z -1.0000
G01 X 18.5176 Y 22.5691 Z -1.0000
G01 X 18.5409 Y 22.5759 Z -1.0000
G03 X 18.5623 Y 22.5975 Z -1.0000 I -0.0366 J 0.0574
G01 X 18.5623 Y 22.5975 Z -1.0000
G00 Z 5.0000

(End cutting path id: path179927)


(Start cutting path id: path179927)
(Change tool to Default tool)

G00 Z 5.0000
G00 X 18.4043 Y 22.4671

G01 Z -1.0000 F 100.0000(Penetrate)
G01 X 18.3667 Y 22.5134 Z -1.0000 F 3500.0000
G03 X 18.3065 Y 22.4875 Z -1.0000 I -0.0116 J -0.0558
G01 X 18.3097 Y 22.4744 Z -1.0000
G03 X 18.3487 Y 22.4618 Z -1.0000 I 0.0457 J 0.0749
G03 X 18.3999 Y 22.4623 Z -1.0000 I 0.0225 J 0.2994
G01 X 18.4043 Y 22.4671 Z -1.0000
G01 X 18.4043 Y 22.4671 Z -1.0000
G00 Z 5.0000

(End cutting path id: path179927)


(Start cutting path id: path179927)
(Change tool to Default tool)

G00 Z 5.0000
G00 X 18.7838 Y 22.4761

G01 Z -1.0000 F 100.0000(Penetrate)
G01 X 18.7656 Y 22.4937 Z -1.0000 F 3500.0000
G01 X 18.7680 Y 22.5185 Z -1.0000
G01 X 18.7664 Y 22.5286 Z -1.0000
G01 X 18.7551 Y 22.5295 Z -1.0000
G01 X 18.7371 Y 22.5050 Z -1.0000
G03 X 18.7393 Y 22.4677 Z -1.0000 I 0.0597 J -0.0153
G01 X 18.7615 Y 22.4437 Z -1.0000
G01 X 18.7869 Y 22.4451 Z -1.0000
G01 X 18.7952 Y 22.4619 Z -1.0000
G01 X 18.7837 Y 22.4761 Z -1.0000
G01 X 18.7838 Y 22.4761 Z -1.0000
G00 Z 5.0000

(End cutting path id: path179927)


(Start cutting path id: path179927)
(Change tool to Default tool)

G00 Z 5.0000
G00 X 18.8644 Y 22.2353

G01 Z -1.0000 F 100.0000(Penetrate)
G01 X 18.8600 Y 22.2434 Z -1.0000 F 3500.0000
G03 X 18.8198 Y 22.2637 Z -1.0000 I -0.1204 J -0.1888
G01 X 18.7963 Y 22.2633 Z -1.0000
G01 X 18.7927 Y 22.2524 Z -1.0000
G03 X 18.8415 Y 22.2171 Z -1.0000 I 0.0671 J 0.0415
G01 X 18.8644 Y 22.2353 Z -1.0000
G01 X 18.8644 Y 22.2353 Z -1.0000
G00 Z 5.0000

(End cutting path id: path179927)


(Start cutting path id: path179927)
(Change tool to Default tool)

G00 Z 5.0000
G00 X 19.2383 Y 22.0360

G01 Z -1.0000 F 100.0000(Penetrate)
G01 X 19.2330 Y 22.0461 Z -1.0000 F 3500.0000
G03 X 19.1736 Y 22.0807 Z -1.0000 I -0.2560 J -0.3711
G01 X 19.1631 Y 22.0779 Z -1.0000
G01 X 19.1647 Y 22.0674 Z -1.0000
G03 X 19.2283 Y 22.0293 Z -1.0000 I 0.1703 J 0.2126
G01 X 19.2383 Y 22.0360 Z -1.0000
G01 X 19.2383 Y 22.0360 Z -1.0000
G00 Z 5.0000

(End cutting path id: path179927)


(Start cutting path id: path179927)
(Change tool to Default tool)

G00 Z 5.0000
G00 X 19.4109 Y 21.9651

G01 Z -1.0000 F 100.0000(Penetrate)
G03 X 19.3663 Y 21.9879 Z -1.0000 I -0.1339 J -0.2072 F 3500.0000
G03 X 19.3390 Y 21.9930 Z -1.0000 I -0.0273 J -0.0703
G01 X 19.3346 Y 21.9858 Z -1.0000
G03 X 19.3534 Y 21.9651 Z -1.0000 I 0.0483 J 0.0250
G03 X 19.3980 Y 21.9423 Z -1.0000 I 0.1339 J 0.2072
G03 X 19.4253 Y 21.9372 Z -1.0000 I 0.0273 J 0.0703
G01 X 19.4297 Y 21.9444 Z -1.0000
G03 X 19.4109 Y 21.9651 Z -1.0000 I -0.0483 J -0.0250
G01 X 19.4109 Y 21.9651 Z -1.0000
G00 Z 5.0000

(End cutting path id: path179927)


(Start cutting path id: path179927)
(Change tool to Default tool)

G00 Z 5.0000
G00 X 19.3390 Y 22.1952

G01 Z -1.0000 F 100.0000(Penetrate)
G01 X 19.3399 Y 22.2145 Z -1.0000 F 3500.0000
G01 X 19.3246 Y 22.2239 Z -1.0000
G01 X 19.3094 Y 22.2334 Z -1.0000
G01 X 19.3102 Y 22.2527 Z -1.0000
G01 X 19.3121 Y 22.2726 Z -1.0000
G01 X 19.2992 Y 22.2815 Z -1.0000
G01 X 19.2744 Y 22.2744 Z -1.0000
G03 X 19.2527 Y 22.2527 Z -1.0000 I 0.0351 J -0.0568
G01 X 19.2518 Y 22.2334 Z -1.0000
G01 X 19.2671 Y 22.2239 Z -1.0000
G01 X 19.2823 Y 22.2145 Z -1.0000
G01 X 19.2815 Y 22.1952 Z -1.0000
G01 X 19.2796 Y 22.1753 Z -1.0000
G01 X 19.2925 Y 22.1664 Z -1.0000
G01 X 19.3173 Y 22.1735 Z -1.0000
G03 X 19.3390 Y 22.1952 Z -1.0000 I -0.0351 J 0.0568
G01 X 19.3390 Y 22.1952 Z -1.0000
G00 Z 5.0000

(End cutting path id: path179927)


(Start cutting path id: path179927)
(Change tool to Default tool)

G00 Z 5.0000
G00 X 19.7962 Y 21.9740

G01 Z -1.0000 F 100.0000(Penetrate)
G02 X 19.7531 Y 22.0154 Z -1.0000 I 0.0596 J 0.1053 F 3500.0000
G01 X 19.7481 Y 22.0514 Z -1.0000
G01 X 19.7434 Y 22.0587 Z -1.0000
G01 X 19.7321 Y 22.0540 Z -1.0000
G03 X 19.7285 Y 21.9850 Z -1.0000 I 0.0536 J -0.0374
G03 X 19.7927 Y 21.9441 Z -1.0000 I 0.0696 J 0.0384
G01 X 19.8059 Y 21.9550 Z -1.0000
G01 X 19.7962 Y 21.9740 Z -1.0000
G01 X 19.7962 Y 21.9740 Z -1.0000
G00 Z 5.0000

(End cutting path id: path179927)


(Start cutting path id: path179927)
(Change tool to Default tool)

G00 Z 5.0000
G00 X 19.6985 Y 21.8063

G01 Z -1.0000 F 100.0000(Penetrate)
G01 X 19.6928 Y 21.8167 Z -1.0000 F 3500.0000
G03 X 19.5835 Y 21.8788 Z -1.0000 I -0.7419 J -1.1777
G03 X 19.4746 Y 21.9275 Z -1.0000 I -0.5248 J -1.0286
G01 X 19.4684 Y 21.9232 Z -1.0000
G01 X 19.4743 Y 21.9124 Z -1.0000
G03 X 19.5763 Y 21.8520 Z -1.0000 I 0.6709 J 1.0171
G03 X 19.6905 Y 21.8008 Z -1.0000 I 0.4567 J 0.8652
G01 X 19.6985 Y 21.8063 Z -1.0000
G01 X 19.6985 Y 21.8063 Z -1.0000
G00 Z 5.0000

(End cutting path id: path179927)


(Start cutting path id: path179927)
(Change tool to Default tool)

G00 Z 5.0000
G00 X 19.8567 Y 21.7350

G01 Z -1.0000 F 100.0000(Penetrate)
G03 X 19.8346 Y 21.7559 Z -1.0000 I -0.0505 J -0.0313 F 3500.0000
G03 X 19.8047 Y 21.7633 Z -1.0000 I -0.0291 J -0.0535
G01 X 19.7985 Y 21.7548 Z -1.0000
G01 X 19.8136 Y 21.7350 Z -1.0000
G03 X 19.8506 Y 21.7241 Z -1.0000 I 0.0370 J 0.0573
G01 X 19.8567 Y 21.7350 Z -1.0000
G01 X 19.8567 Y 21.7350 Z -1.0000
G00 Z 5.0000

(End cutting path id: path179927)


(Start cutting path id: path179927)
(Change tool to Default tool)

G00 Z 5.0000
G00 X 19.7824 Y 21.1415

G01 Z -1.0000 F 100.0000(Penetrate)
G03 X 19.7695 Y 21.1507 Z -1.0000 I -0.0516 J -0.0588 F 3500.0000
G03 X 19.6985 Y 21.1894 Z -1.0000 I -1.0332 J -1.8132
G01 X 19.6698 Y 21.1918 Z -1.0000
G01 X 19.6661 Y 21.1789 Z -1.0000
G03 X 19.7105 Y 21.1415 Z -1.0000 I 0.1241 J 0.1024
G03 X 19.7500 Y 21.1310 Z -1.0000 I 0.0395 J 0.0692
G03 X 19.7812 Y 21.1360 Z -1.0000 I -0.0000 J 0.1018
G01 X 19.7824 Y 21.1415 Z -1.0000
G01 X 19.7824 Y 21.1415 Z -1.0000
G00 Z 5.0000

(End cutting path id: path179927)


(Start cutting path id: path179927)
(Change tool to Default tool)

G00 Z 5.0000
G00 X 19.4047 Y 20.6788

G01 Z -1.0000 F 100.0000(Penetrate)
G01 X 19.4187 Y 20.6893 Z -1.0000 F 3500.0000
G01 X 19.4145 Y 20.7075 Z -1.0000
G01 X 19.3837 Y 20.7193 Z -1.0000
G03 X 19.2829 Y 20.7001 Z -1.0000 I 0.0221 J -0.3918
G02 X 19.1787 Y 20.6769 Z -1.0000 I -0.1684 J 0.5102
G02 X 19.1349 Y 20.6823 Z -1.0000 I -0.0109 J 0.0909
G01 X 19.1140 Y 20.6803 Z -1.0000
G01 X 19.1110 Y 20.6675 Z -1.0000
G01 X 19.1374 Y 20.6513 Z -1.0000
G03 X 19.2491 Y 20.6566 Z -1.0000 I 0.0351 J 0.4455
G02 X 19.3679 Y 20.6754 Z -1.0000 I 0.6889 J -3.9597
G02 X 19.4046 Y 20.6788 Z -1.0000 I 0.0531 J -0.3707
G01 X 19.4047 Y 20.6788 Z -1.0000
G00 Z 5.0000

(End cutting path id: path179927)


(Start cutting path id: path179927)
(Change tool to Default tool)

G00 Z 5.0000
G00 X 19.0334 Y 20.8039

G01 Z -1.0000 F 100.0000(Penetrate)
G03 X 19.1139 Y 20.8296 Z -1.0000 I -0.0749 J 0.3741 F 3500.0000
G01 X 19.1233 Y 20.8440 Z -1.0000
G01 X 19.1134 Y 20.8538 Z -1.0000
G03 X 19.0191 Y 20.8426 Z -1.0000 I 0.0059 J -0.4536
G02 X 18.9154 Y 20.8280 Z -1.0000 I -0.1401 J 0.6212
G02 X 18.8681 Y 20.8340 Z -1.0000 I -0.0075 J 0.1307
G01 X 18.8601 Y 20.8294 Z -1.0000
G01 X 18.8644 Y 20.8178 Z -1.0000
G03 X 18.9200 Y 20.7974 Z -1.0000 I 0.0647 J 0.0899
G03 X 19.0334 Y 20.8039 Z -1.0000 I 0.0335 J 0.4060
G01 X 19.0334 Y 20.8039 Z -1.0000
G00 Z 5.0000

(End cutting path id: path179927)


(Start cutting path id: path179927)
(Change tool to Default tool)

G00 Z 5.0000
G00 X 18.9829 Y 21.0900

G01 Z -1.0000 F 100.0000(Penetrate)
G02 X 19.3395 Y 21.1518 Z -1.0000 I 1.1044 J -5.3140 F 3500.0000
G02 X 19.4354 Y 21.1529 Z -1.0000 I 0.0525 J -0.3775
G03 X 19.4794 Y 21.1624 Z -1.0000 I 0.0080 J 0.0699
G01 X 19.4802 Y 21.1796 Z -1.0000
G03 X 19.4272 Y 21.2128 Z -1.0000 I -0.2538 J -0.3471
G01 X 19.4088 Y 21.2173 Z -1.0000
G03 X 18.7685 Y 21.1481 Z -1.0000 I -0.0000 J -2.9964
G03 X 18.5525 Y 21.0300 Z -1.0000 I 0.0935 J -0.4276
G01 X 18.5592 Y 21.0165 Z -1.0000
G03 X 18.9829 Y 21.0900 Z -1.0000 I -0.8936 J 6.4125
G01 X 18.9829 Y 21.0900 Z -1.0000
G00 Z 5.0000

(End cutting path id: path179927)


(Start cutting path id: path179927)
(Change tool to Default tool)

G00 Z 5.0000
G00 X 18.4810 Y 21.1964

G01 Z -1.0000 F 100.0000(Penetrate)
G01 X 18.4758 Y 21.2088 Z -1.0000 F 3500.0000
G03 X 18.4303 Y 21.2079 Z -1.0000 I -0.0210 J -0.0926
G02 X 18.3607 Y 21.1923 Z -1.0000 I -0.2209 J 0.8260
G02 X 18.3252 Y 21.1890 Z -1.0000 I -0.0379 J 0.2109
G03 X 18.2975 Y 21.1804 Z -1.0000 I 0.0006 J -0.0506
G01 X 18.2892 Y 21.1648 Z -1.0000
G03 X 18.3530 Y 21.1106 Z -1.0000 I 0.0549 J 0.0000
G03 X 18.4810 Y 21.1964 Z -1.0000 I -0.0302 J 0.1834
G01 X 18.4810 Y 21.1964 Z -1.0000
G00 Z 5.0000

(End cutting path id: path179927)


(Start cutting path id: path179927)
(Change tool to Default tool)

G00 Z 5.0000
G00 X 18.5625 Y 19.3078

G01 Z -1.0000 F 100.0000(Penetrate)
G03 X 18.4175 Y 19.4027 Z -1.0000 I -0.6904 J -0.8958 F 3500.0000
G01 X 18.4043 Y 19.3949 Z -1.0000
G03 X 18.4521 Y 19.3063 Z -1.0000 I 0.1059 J 0.0000
G03 X 18.6056 Y 19.2630 Z -1.0000 I 0.1455 J 0.2222
G01 X 18.6074 Y 19.2675 Z -1.0000
G03 X 18.5625 Y 19.3078 Z -1.0000 I -0.2950 J -0.2842
G01 X 18.5625 Y 19.3078 Z -1.0000
G00 Z 5.0000

(End cutting path id: path179927)


(Start cutting path id: path179927)
(Change tool to Default tool)

G00 Z 5.0000
G00 X 18.8788 Y 19.1064

G01 Z -1.0000 F 100.0000(Penetrate)
G03 X 18.7339 Y 19.2014 Z -1.0000 I -0.6904 J -0.8958 F 3500.0000
G01 X 18.7206 Y 19.1935 Z -1.0000
G03 X 18.7685 Y 19.1050 Z -1.0000 I 0.1059 J 0.0000
G03 X 18.9220 Y 19.0617 Z -1.0000 I 0.1455 J 0.2222
G01 X 18.9238 Y 19.0662 Z -1.0000
G03 X 18.8788 Y 19.1064 Z -1.0000 I -0.2949 J -0.2841
G01 X 18.8788 Y 19.1064 Z -1.0000
G00 Z 5.0000

(End cutting path id: path179927)


(Start cutting path id: path179927)
(Change tool to Default tool)

G00 Z 5.0000
G00 X 19.1952 Y 18.9051

G01 Z -1.0000 F 100.0000(Penetrate)
G03 X 19.0503 Y 19.0001 Z -1.0000 I -0.6904 J -0.8958 F 3500.0000
G01 X 19.0370 Y 18.9922 Z -1.0000
G03 X 19.0849 Y 18.9036 Z -1.0000 I 0.1059 J 0.0000
G03 X 19.2383 Y 18.8604 Z -1.0000 I 0.1455 J 0.2222
G01 X 19.2402 Y 18.8649 Z -1.0000
G03 X 19.1952 Y 18.9051 Z -1.0000 I -0.2949 J -0.2841
G01 X 19.1952 Y 18.9051 Z -1.0000
G00 Z 5.0000

(End cutting path id: path179927)


(Start cutting path id: path179927)
(Change tool to Default tool)

G00 Z 5.0000
G00 X 19.4253 Y 18.7613

G01 Z -1.0000 F 100.0000(Penetrate)
G03 X 19.2804 Y 18.8563 Z -1.0000 I -0.6904 J -0.8958 F 3500.0000
G01 X 19.2671 Y 18.8484 Z -1.0000
G03 X 19.3150 Y 18.7598 Z -1.0000 I 0.1059 J 0.0000
G03 X 19.4684 Y 18.7166 Z -1.0000 I 0.1455 J 0.2222
G01 X 19.4702 Y 18.7210 Z -1.0000
G03 X 19.4253 Y 18.7613 Z -1.0000 I -0.2950 J -0.2842
G01 X 19.4253 Y 18.7613 Z -1.0000
G00 Z 5.0000

(End cutting path id: path179927)


(Start cutting path id: path179927)
(Change tool to Default tool)

G00 Z 5.0000
G00 X 19.6554 Y 18.6175

G01 Z -1.0000 F 100.0000(Penetrate)
G03 X 19.5104 Y 18.7125 Z -1.0000 I -0.6904 J -0.8958 F 3500.0000
G01 X 19.4972 Y 18.7046 Z -1.0000
G03 X 19.5450 Y 18.6160 Z -1.0000 I 0.1059 J 0.0000
G03 X 19.6985 Y 18.5728 Z -1.0000 I 0.1455 J 0.2222
G01 X 19.7003 Y 18.5772 Z -1.0000
G03 X 19.6554 Y 18.6175 Z -1.0000 I -0.2950 J -0.2842
G01 X 19.6554 Y 18.6175 Z -1.0000
G00 Z 5.0000

(End cutting path id: path179927)


(Start cutting path id: path179927)
(Change tool to Default tool)

G00 Z 5.0000
G00 X 22.5404 Y 23.6820

G01 Z -1.0000 F 100.0000(Penetrate)
G01 X 22.5200 Y 23.7210 Z -1.0000 F 3500.0000
G03 X 22.3966 Y 23.7539 Z -1.0000 I -0.1415 J -0.2830
G01 X 22.3563 Y 23.7959 Z -1.0000
G02 X 22.3948 Y 23.8732 Z -1.0000 I 0.0940 J 0.0014
G03 X 22.5245 Y 23.9945 Z -1.0000 I -0.4380 J 0.5983
G03 X 22.5458 Y 24.0530 Z -1.0000 I -0.0695 J 0.0584
G01 X 22.5158 Y 24.0921 Z -1.0000
G03 X 22.2870 Y 24.1222 Z -1.0000 I -0.2288 J -0.8558
G03 X 22.0537 Y 24.0965 Z -1.0000 I 0.0000 J -1.0747
G01 X 22.0281 Y 24.0646 Z -1.0000
G01 X 22.0513 Y 24.0303 Z -1.0000
G03 X 22.1719 Y 24.0071 Z -1.0000 I 0.1206 J 0.3015
G02 X 22.3053 Y 23.9967 Z -1.0000 I -0.0000 J -0.8583
G01 X 22.3157 Y 23.9845 Z -1.0000
G01 X 22.3075 Y 23.9660 Z -1.0000
G02 X 22.1719 Y 23.8545 Z -1.0000 I -1.2575 J 1.3912
G03 X 22.0458 Y 23.7383 Z -1.0000 I 0.4976 J -0.6664
G03 X 22.0281 Y 23.6915 Z -1.0000 I 0.0530 J -0.0468
G01 X 22.0518 Y 23.6583 Z -1.0000
G03 X 22.2222 Y 23.6253 Z -1.0000 I 0.2048 J 0.6006
G03 X 22.5022 Y 23.6424 Z -1.0000 I 0.0661 J 1.2175
G01 X 22.5404 Y 23.6820 Z -1.0000
G01 X 22.5404 Y 23.6820 Z -1.0000
G00 Z 5.0000

(End cutting path id: path179927)


(Start cutting path id: path179927)
(Change tool to Default tool)

G00 Z 5.0000
G00 X 22.4752 Y 24.2503

G01 Z -1.0000 F 100.0000(Penetrate)
G03 X 22.5510 Y 24.4453 Z -1.0000 I -0.1835 J 0.1835 F 3500.0000
G03 X 22.4576 Y 24.6470 Z -1.0000 I -0.2927 J -0.0130
G03 X 22.2907 Y 24.7138 Z -1.0000 I -0.1702 J -0.1834
G03 X 22.1166 Y 24.6516 Z -1.0000 I -0.0036 J -0.2648
G03 X 22.0520 Y 24.5662 Z -1.0000 I 0.1554 J -0.1847
G03 X 22.0290 Y 24.4575 Z -1.0000 I 0.2365 J -0.1067
G03 X 22.0419 Y 24.3420 Z -1.0000 I 0.5626 J 0.0043
G03 X 22.0650 Y 24.2926 Z -1.0000 I 0.1208 J 0.0263
G03 X 22.2714 Y 24.1779 Z -1.0000 I 0.2373 J 0.1838
G03 X 22.4752 Y 24.2502 Z -1.0000 I 0.0258 J 0.2503
G01 X 22.4752 Y 24.2503 Z -1.0000
G00 Z 5.0000

(End cutting path id: path179927)


(Start cutting path id: path179927)
(Change tool to Default tool)

G00 Z 5.0000
G00 X 22.1777 Y 24.3580

G01 Z -1.0000 F 100.0000(Penetrate)
G02 X 22.1531 Y 24.3966 Z -1.0000 I 0.0747 J 0.0747 F 3500.0000
G02 X 22.1432 Y 24.4529 Z -1.0000 I 0.1548 J 0.0563
G02 X 22.1830 Y 24.5424 Z -1.0000 I 0.1205 J -0.0000
G02 X 22.2870 Y 24.5823 Z -1.0000 I 0.1039 J -0.1155
G02 X 22.3909 Y 24.5424 Z -1.0000 I -0.0000 J -0.1553
G02 X 22.4308 Y 24.4529 Z -1.0000 I -0.0806 J -0.0895
G02 X 22.3909 Y 24.3634 Z -1.0000 I -0.1205 J -0.0000
G02 X 22.2870 Y 24.3235 Z -1.0000 I -0.1039 J 0.1155
G02 X 22.2167 Y 24.3343 Z -1.0000 I -0.0000 J 0.2334
G02 X 22.1777 Y 24.3580 Z -1.0000 I 0.0289 J 0.0916
G01 X 22.1777 Y 24.3580 Z -1.0000
G00 Z 5.0000

(End cutting path id: path179927)


(Start cutting path id: path179927)
(Change tool to Default tool)

G00 Z 5.0000
G00 X 22.5458 Y 24.8412

G01 Z -1.0000 F 100.0000(Penetrate)
G01 X 22.5202 Y 24.8731 Z -1.0000 F 3500.0000
G03 X 22.2870 Y 24.8987 Z -1.0000 I -0.2332 J -1.0496
G03 X 22.0537 Y 24.8731 Z -1.0000 I -0.0000 J -1.0747
G01 X 22.0281 Y 24.8412 Z -1.0000
G01 X 22.0537 Y 24.8093 Z -1.0000
G03 X 22.2870 Y 24.7837 Z -1.0000 I 0.2332 J 1.0496
G03 X 22.5202 Y 24.8093 Z -1.0000 I -0.0000 J 1.0747
G01 X 22.5458 Y 24.8412 Z -1.0000
G01 X 22.5458 Y 24.8412 Z -1.0000
G00 Z 5.0000

(End cutting path id: path179927)


(Start cutting path id: path179927)
(Change tool to Default tool)

G00 Z 5.0000
