%
(Header)
(Generated by gcodetools from Inkscape.)
(Using default header. To add your own header create file "header" in the output dir.)
M3
(Header end.)
G21 (All units in mm)

(Start cutting path id: path179488)
(Change tool to Default tool)

G00 Z 5.0000
G00 X 12.7663 Y 1.8969

G01 Z -1.0000 F 100.0000(Penetrate)
G03 X 12.1390 Y 1.9998 Z -1.0000 I -0.9070 J -3.5645 F 3500.0000
G03 X 10.3767 Y 2.0791 Z -1.0000 I -2.1537 J -28.2411
G02 X 8.6701 Y 2.2606 Z -1.0000 I 0.1289 J 9.3276
G02 X 8.1547 Y 2.5250 Z -1.0000 I 0.2091 J 1.0421
G02 X 7.8941 Y 3.1307 Z -1.0000 I 0.5581 J 0.5991
G02 X 8.1632 Y 3.5758 Z -1.0000 I 0.5095 J -0.0041
G03 X 9.0186 Y 4.2989 Z -1.0000 I -1.2654 J 2.3645
G03 X 9.2526 Y 4.9835 Z -1.0000 I -0.8845 J 0.6845
G02 X 9.3699 Y 5.3657 Z -1.0000 I 0.6813 J 0.0000
G02 X 9.5626 Y 5.4408 Z -1.0000 I 0.1509 J -0.1023
G03 X 11.7697 Y 5.1822 Z -1.0000 I 2.2241 J 9.4318
G03 X 13.7998 Y 5.4333 Z -1.0000 I 0.0144 J 8.2133
G02 X 14.6299 Y 5.6204 Z -1.0000 I 3.9587 J -15.6336
G02 X 14.9365 Y 5.6581 Z -1.0000 I 0.4125 J -2.0862
G03 X 15.2285 Y 5.7225 Z -1.0000 I -0.0448 J 0.8979
G03 X 15.5446 Y 5.9038 Z -1.0000 I -0.5002 J 1.2382
G02 X 15.6626 Y 5.9316 Z -1.0000 I 0.0896 J -0.1160
G01 X 15.6874 Y 5.8756 Z -1.0000
G03 X 15.7692 Y 5.7124 Z -1.0000 I 0.0927 J -0.0557
G03 X 16.4253 Y 5.8007 Z -1.0000 I 0.1437 J 1.4148
G02 X 16.9078 Y 5.9584 Z -1.0000 I 1.7379 J -4.4988
G02 X 18.0369 Y 6.2352 Z -1.0000 I 6.5827 J -24.4162
G03 X 19.1659 Y 6.5143 Z -1.0000 I -5.0182 J 22.7210
G03 X 20.1038 Y 6.8013 Z -1.0000 I -4.3728 J 15.9640
G02 X 21.0444 Y 7.0695 Z -1.0000 I 3.2114 J -9.4798
G02 X 21.8495 Y 7.2080 Z -1.0000 I 1.5843 J -6.8009
G03 X 22.6500 Y 7.3478 Z -1.0000 I -0.7420 J 6.6087
G03 X 23.0117 Y 7.4851 Z -1.0000 I -0.3497 J 1.4667
G02 X 23.3717 Y 7.6351 Z -1.0000 I 0.9541 J -1.7827
G02 X 24.3065 Y 7.8831 Z -1.0000 I 3.6548 J -11.8889
G03 X 25.2362 Y 8.1502 Z -1.0000 I -1.7844 J 7.9624
G03 X 26.4187 Y 8.6281 Z -1.0000 I -4.7190 J 13.3800
G02 X 27.5860 Y 9.0611 Z -1.0000 I 3.5151 J -7.6848
G02 X 27.8738 Y 9.0489 Z -1.0000 I 0.1257 J -0.4347
G03 X 28.0989 Y 9.0331 Z -1.0000 I 0.1385 J 0.3610
G03 X 28.1647 Y 9.1158 Z -1.0000 I -0.0190 J 0.0827
G02 X 28.2454 Y 9.2298 Z -1.0000 I 0.1209 J 0.0000
G02 X 29.5599 Y 9.6087 Z -1.0000 I 3.8663 J -10.9425
G02 X 30.9116 Y 9.7565 Z -1.0000 I 1.3283 J -5.8933
G02 X 31.3129 Y 9.6019 Z -1.0000 I -0.0023 J -0.6042
G03 X 31.6740 Y 9.4272 Z -1.0000 I 0.4831 J 0.5380
G03 X 31.9330 Y 9.4958 Z -1.0000 I 0.0544 J 0.3179
G02 X 32.6857 Y 9.7625 Z -1.0000 I 0.7457 J -0.9088
G02 X 34.0143 Y 9.4832 Z -1.0000 I -0.0205 J -3.3973
G02 X 34.5413 Y 9.0531 Z -1.0000 I -0.4953 J -1.1447
G02 X 34.5623 Y 8.6992 Z -1.0000 I -0.2776 J -0.1940
G02 X 34.3290 Y 8.5740 Z -1.0000 I -0.2108 J 0.1128
G02 X 34.0795 Y 8.7448 Z -1.0000 I 0.0293 J 0.3104
G03 X 33.7328 Y 9.0730 Z -1.0000 I -0.6249 J -0.3129
G03 X 32.9148 Y 9.2502 Z -1.0000 I -0.8550 J -1.9702
G03 X 32.0972 Y 9.0950 Z -1.0000 I -0.0352 J -2.0465
G03 X 31.7335 Y 8.7615 Z -1.0000 I 0.2751 J -0.6649
G03 X 31.5432 Y 7.7523 Z -1.0000 I 1.5823 J -0.8209
G03 X 31.9168 Y 7.0367 Z -1.0000 I 1.0951 J 0.1164
G03 X 32.4951 Y 6.7765 Z -1.0000 I 0.7225 J 0.8330
G03 X 33.2669 Y 6.8586 Z -1.0000 I 0.2160 J 1.6377
G02 X 33.4325 Y 6.8369 Z -1.0000 I 0.0616 J -0.1724
G02 X 33.4353 Y 6.7423 Z -1.0000 I -0.0334 J -0.0484
G02 X 32.4365 Y 6.4281 Z -1.0000 I -0.9163 J 1.1682
G02 X 30.7918 Y 6.8895 Z -1.0000 I 0.2197 J 3.9453
G03 X 30.4063 Y 6.9702 Z -1.0000 I -0.3305 J -0.6176
G03 X 28.9316 Y 6.7429 Z -1.0000 I 0.7897 J -10.0221
G03 X 22.2721 Y 5.1216 Z -1.0000 I 66.4545 J -287.4546
G03 X 17.9757 Y 3.9405 Z -1.0000 I 30.9022 J -120.8099
G02 X 16.6517 Y 3.8229 Z -1.0000 I -0.9556 J 3.2477
G02 X 15.9808 Y 4.1588 Z -1.0000 I 0.1174 J 1.0722
G03 X 15.3308 Y 4.6523 Z -1.0000 I -1.7617 J -1.6457
G03 X 14.7653 Y 4.7905 Z -1.0000 I -0.5655 J -1.0882
G03 X 13.2215 Y 3.7149 Z -1.0000 I 0.0000 J -1.6457
G03 X 13.7481 Y 2.0362 Z -1.0000 I 1.3498 J -0.4985
G02 X 13.8838 Y 1.8213 Z -1.0000 I -0.1874 J -0.2686
G02 X 13.7997 Y 1.7254 Z -1.0000 I -0.0813 J -0.0135
G02 X 13.3902 Y 1.7660 Z -1.0000 I 0.1034 J 3.1340
G02 X 12.7663 Y 1.8968 Z -1.0000 I 1.2292 J 7.4128
G01 X 12.7663 Y 1.8969 Z -1.0000
G00 Z 5.0000

(End cutting path id: path179488)


(Start cutting path id: path179488)
(Change tool to Default tool)

G00 Z 5.0000
G00 X 14.9441 Y 2.6112

G01 Z -1.0000 F 100.0000(Penetrate)
G02 X 14.7926 Y 2.9191 Z -1.0000 I 0.5657 J 0.4694 F 3500.0000
G02 X 14.8276 Y 3.1280 Z -1.0000 I 0.2733 J 0.0616
G02 X 15.2952 Y 3.3874 Z -1.0000 I 0.4653 J -0.2876
G02 X 15.5566 Y 3.1249 Z -1.0000 I -0.0011 J -0.2625
G03 X 15.6286 Y 3.0315 Z -1.0000 I 0.0965 J -0.0000
G03 X 15.8150 Y 3.0570 Z -1.0000 I 0.0624 J 0.2376
G01 X 15.8510 Y 3.0246 Z -1.0000
G02 X 15.6796 Y 2.7592 Z -1.0000 I -0.9836 J 0.4471
G02 X 15.2420 Y 2.5059 Z -1.0000 I -0.5932 J 0.5203
G02 X 14.9441 Y 2.6113 Z -1.0000 I -0.0608 J 0.3021
G01 X 14.9441 Y 2.6112 Z -1.0000
G00 Z 5.0000

(End cutting path id: path179488)


(Start cutting path id: path179488)
(Change tool to Default tool)

G00 Z 5.0000
G00 X 15.1045 Y 1.8314

G01 Z -1.0000 F 100.0000(Penetrate)
G02 X 15.3626 Y 1.8756 Z -1.0000 I 0.2323 J -0.5806 F 3500.0000
G02 X 15.5006 Y 1.8150 Z -1.0000 I -0.0085 J -0.2072
G01 X 15.4874 Y 1.7507 Z -1.0000
G02 X 15.2294 Y 1.7065 Z -1.0000 I -0.2323 J 0.5806
G02 X 15.0913 Y 1.7670 Z -1.0000 I 0.0085 J 0.2071
G01 X 15.1045 Y 1.8314 Z -1.0000
G01 X 15.1045 Y 1.8314 Z -1.0000
G00 Z 5.0000

(End cutting path id: path179488)


(Start cutting path id: path179488)
(Change tool to Default tool)

G00 Z 5.0000
G00 X 10.2860 Y 6.0429

G01 Z -1.0000 F 100.0000(Penetrate)
G03 X 9.4592 Y 6.2327 Z -1.0000 I -297.5938 J -1294.0362 F 3500.0000
G03 X 7.9668 Y 6.5747 Z -1.0000 I -967.5759 J -4219.7103
G02 X 6.6212 Y 6.9778 Z -1.0000 I 2.3753 J 10.3758
G02 X 6.5823 Y 7.0912 Z -1.0000 I 0.0271 J 0.0727
G01 X 6.5569 Y 7.1555 Z -1.0000
G03 X 6.3782 Y 7.1463 Z -1.0000 I -0.0752 J -0.2790
G02 X 5.8318 Y 7.1253 Z -1.0000 I -0.3040 J 0.7921
G02 X 3.4136 Y 8.0302 Z -1.0000 I 5.4057 J 18.1300
G02 X 2.8879 Y 8.5930 Z -1.0000 I 0.4157 J 0.9152
G02 X 3.1035 Y 8.8584 Z -1.0000 I 0.1856 J 0.0695
G03 X 6.0742 Y 8.6814 Z -1.0000 I 2.4394 J 15.9203
G03 X 8.1158 Y 9.0238 Z -1.0000 I -0.2571 J 7.7885
G02 X 19.3594 Y 12.0552 Z -1.0000 I 47.6231 J -154.2701
G02 X 27.2749 Y 13.4548 Z -1.0000 I 17.3342 J -74.9516
G03 X 28.9345 Y 13.7841 Z -1.0000 I -1.4180 J 11.4949
G03 X 30.3753 Y 14.3094 Z -1.0000 I -2.5281 J 9.1717
G02 X 34.8656 Y 15.6685 Z -1.0000 I 7.1957 J -15.6765
G02 X 37.1006 Y 15.3774 Z -1.0000 I 0.6245 J -3.9322
G02 X 37.9462 Y 14.8712 Z -1.0000 I -1.6249 J -3.6734
G02 X 38.1794 Y 14.5360 Z -1.0000 I -0.4242 J -0.5439
G02 X 37.9500 Y 13.2563 Z -1.0000 I -1.3298 J -0.4220
G02 X 35.8392 Y 11.5334 Z -1.0000 I -4.8333 J 3.7671
G02 X 35.2758 Y 11.3246 Z -1.0000 I -1.2692 J 2.5594
G02 X 33.7454 Y 10.9996 Z -1.0000 I -4.7857 J 18.7693
G03 X 31.1362 Y 10.4830 Z -1.0000 I 8.4038 J -49.2942
G03 X 23.6176 Y 8.7129 Z -1.0000 I 92.8759 J -411.3578
G02 X 18.2840 Y 7.4936 Z -1.0000 I -41.6660 J 169.9880
G02 X 17.4628 Y 7.4068 Z -1.0000 I -0.8279 J 3.9010
G03 X 17.0071 Y 7.3428 Z -1.0000 I 0.0028 J -1.6748
G01 X 16.9976 Y 7.2744 Z -1.0000
G02 X 16.9908 Y 7.1720 Z -1.0000 I -0.0305 J -0.0494
G02 X 15.6604 Y 6.6778 Z -1.0000 I -4.5245 J 10.1403
G02 X 14.1239 Y 6.3119 Z -1.0000 I -3.9175 J 13.0427
G02 X 13.8717 Y 6.3601 Z -1.0000 I -0.0630 J 0.3545
G03 X 13.7809 Y 6.3596 Z -1.0000 I -0.0450 J -0.0728
G01 X 13.7655 Y 6.2928 Z -1.0000
G02 X 13.5102 Y 5.7936 Z -1.0000 I -0.2788 J -0.1723
G02 X 10.2860 Y 6.0429 Z -1.0000 I -0.7810 J 10.8731
G01 X 10.2860 Y 6.0429 Z -1.0000
G00 Z 5.0000

(End cutting path id: path179488)


(Start cutting path id: path179488)
(Change tool to Default tool)

G00 Z 5.0000
G00 X 32.9883 Y 7.5292

G01 Z -1.0000 F 100.0000(Penetrate)
G02 X 32.9144 Y 8.0127 Z -1.0000 I 0.5243 J 0.3275 F 3500.0000
G02 X 33.1504 Y 8.1509 Z -1.0000 I 0.1871 J -0.0488
G03 X 33.3710 Y 8.2131 Z -1.0000 I 0.0573 J 0.2192
G03 X 33.4228 Y 8.4344 Z -1.0000 I -0.1605 J 0.1543
G01 X 33.4561 Y 8.4896 Z -1.0000
G02 X 33.5357 Y 8.4551 Z -1.0000 I 0.0141 J -0.0766
G02 X 33.7105 Y 7.5907 Z -1.0000 I -1.0228 J -0.6567
G02 X 33.3303 Y 7.2708 Z -1.0000 I -0.3802 J 0.0659
G02 X 33.1780 Y 7.3219 Z -1.0000 I 0.0000 J 0.2526
G02 X 32.9883 Y 7.5292 Z -1.0000 I 0.4662 J 0.6171
G01 X 32.9883 Y 7.5292 Z -1.0000
G00 Z 5.0000

(End cutting path id: path179488)


(Start cutting path id: path179488)
(Change tool to Default tool)

G00 Z 5.0000
G00 X 33.8773 Y 7.7875

G01 Z -1.0000 F 100.0000(Penetrate)
G02 X 34.0184 Y 8.0654 Z -1.0000 I 1.4079 J -0.5402 F 3500.0000
G02 X 34.0775 Y 8.0976 Z -1.0000 I 0.0591 J -0.0382
G01 X 34.1234 Y 8.0622 Z -1.0000
G02 X 34.1588 Y 7.7875 Z -1.0000 I -1.0483 J -0.2747
G02 X 34.0882 Y 7.5481 Z -1.0000 I -0.4414 J -0.0000
G02 X 33.9586 Y 7.4775 Z -1.0000 I -0.1296 J 0.0837
G02 X 33.8642 Y 7.5503 Z -1.0000 I 0.0000 J 0.0975
G02 X 33.8773 Y 7.7875 Z -1.0000 I 0.3752 J 0.0983
G01 X 33.8773 Y 7.7875 Z -1.0000
G00 Z 5.0000

(End cutting path id: path179488)



(Footer)
M5
G00 X0.0000 Y0.0000
M2
(Using default footer. To add your own footer create file "footer" in the output dir.)
(end)
%