%
(Header)
(Generated by gcodetools from Inkscape.)
(Using default header. To add your own header create file "header" in the output dir.)
M3
(Header end.)
G21 (All units in mm)

(Start cutting path id: path15372)
(Change tool to Default tool)

G00 Z 5.0000
G00 X 13.0642 Y 0.2660

G01 Z -1.0000 F 100.0000(Penetrate)
G01 X 13.0948 Y 0.3058 Z -1.0000 F 3500.0000
G02 X 13.1725 Y 0.2897 Z -1.0000 I 0.0209 J -0.0951
G01 X 13.1770 Y 0.2754 Z -1.0000
G01 X 13.1656 Y 0.2697 Z -1.0000
G03 X 13.1122 Y 0.2701 Z -1.0000 I -0.0274 J -0.0857
G01 X 13.0851 Y 0.2453 Z -1.0000
G01 X 13.0743 Y 0.2431 Z -1.0000
G01 X 13.0641 Y 0.2660 Z -1.0000
G01 X 13.0642 Y 0.2660 Z -1.0000
G00 Z 5.0000

(End cutting path id: path15372)


(Start cutting path id: path15372)
(Change tool to Default tool)

G00 Z 5.0000
G00 X 13.2556 Y 0.3123

G01 Z -1.0000 F 100.0000(Penetrate)
G03 X 13.2531 Y 0.3841 Z -1.0000 I -0.2558 J 0.0270 F 3500.0000
G03 X 13.2343 Y 0.4328 Z -1.0000 I -0.1340 J -0.0237
G01 X 13.2342 Y 0.4631 Z -1.0000
G01 X 13.2630 Y 0.4792 Z -1.0000
G01 X 13.3027 Y 0.4437 Z -1.0000
G02 X 13.2818 Y 0.3123 Z -1.0000 I -0.2478 J -0.0278
G01 X 13.2479 Y 0.2381 Z -1.0000
G01 X 13.2556 Y 0.3123 Z -1.0000
G00 Z 5.0000

(End cutting path id: path15372)


(Start cutting path id: path15372)
(Change tool to Default tool)

G00 Z 5.0000
G00 X 15.2043 Y 2.5649

G01 Z -1.0000 F 100.0000(Penetrate)
G02 X 15.2850 Y 2.5825 Z -1.0000 I 0.0772 J -0.1603 F 3500.0000
G02 X 15.3322 Y 2.5624 Z -1.0000 I -0.0013 J -0.0687
G01 X 15.3283 Y 2.5392 Z -1.0000
G02 X 15.2476 Y 2.5216 Z -1.0000 I -0.0772 J 0.1603
G02 X 15.2003 Y 2.5417 Z -1.0000 I 0.0014 J 0.0687
G01 X 15.2043 Y 2.5649 Z -1.0000
G01 X 15.2043 Y 2.5649 Z -1.0000
G00 Z 5.0000

(End cutting path id: path15372)


(Start cutting path id: path15372)
(Change tool to Default tool)

G00 Z 5.0000
G00 X 15.3796 Y 2.8164

G01 Z -1.0000 F 100.0000(Penetrate)
G01 X 15.4069 Y 2.8370 Z -1.0000 F 3500.0000
G01 X 15.4374 Y 2.8327 Z -1.0000
G01 X 15.4475 Y 2.8006 Z -1.0000
G01 X 15.4141 Y 2.7787 Z -1.0000
G01 X 15.3818 Y 2.7929 Z -1.0000
G01 X 15.3796 Y 2.8164 Z -1.0000
G01 X 15.3796 Y 2.8164 Z -1.0000
G00 Z 5.0000

(End cutting path id: path15372)


(Start cutting path id: path15372)
(Change tool to Default tool)

G00 Z 5.0000
G00 X 15.7038 Y 2.5446

G01 Z -1.0000 F 100.0000(Penetrate)
G02 X 15.7687 Y 2.5530 Z -1.0000 I 0.0649 J -0.2492 F 3500.0000
G02 X 15.8336 Y 2.5446 Z -1.0000 I -0.0000 J -0.2575
G01 X 15.8336 Y 2.5360 Z -1.0000
G02 X 15.7687 Y 2.5277 Z -1.0000 I -0.0649 J 0.2481
G02 X 15.7038 Y 2.5360 Z -1.0000 I 0.0000 J 0.2570
G01 X 15.7038 Y 2.5446 Z -1.0000
G01 X 15.7038 Y 2.5446 Z -1.0000
G00 Z 5.0000

(End cutting path id: path15372)


(Start cutting path id: path15372)
(Change tool to Default tool)

G00 Z 5.0000
G00 X 15.9077 Y 2.6549

G01 Z -1.0000 F 100.0000(Penetrate)
G02 X 15.9541 Y 2.6639 Z -1.0000 I 0.0464 J -0.1149 F 3500.0000
G02 X 16.0005 Y 2.6549 Z -1.0000 I -0.0000 J -0.1239
G01 X 16.0005 Y 2.6452 Z -1.0000
G02 X 15.9541 Y 2.6362 Z -1.0000 I -0.0464 J 0.1149
G02 X 15.9077 Y 2.6452 Z -1.0000 I -0.0000 J 0.1239
G01 X 15.9077 Y 2.6549 Z -1.0000
G01 X 15.9077 Y 2.6549 Z -1.0000
G00 Z 5.0000

(End cutting path id: path15372)


(Start cutting path id: path15372)
(Change tool to Default tool)

G00 Z 5.0000
G00 X 16.4293 Y 2.8040

G01 Z -1.0000 F 100.0000(Penetrate)
G02 X 16.4756 Y 2.8119 Z -1.0000 I 0.0417 J -0.1043 F 3500.0000
G01 X 16.5004 Y 2.8011 Z -1.0000
G01 X 16.4980 Y 2.7896 Z -1.0000
G02 X 16.4517 Y 2.7816 Z -1.0000 I -0.0417 J 0.1042
G01 X 16.4269 Y 2.7925 Z -1.0000
G01 X 16.4293 Y 2.8040 Z -1.0000
G01 X 16.4293 Y 2.8040 Z -1.0000
G00 Z 5.0000

(End cutting path id: path15372)


(Start cutting path id: path15372)
(Change tool to Default tool)

G00 Z 5.0000
G00 X 16.6217 Y 2.7438

G01 Z -1.0000 F 100.0000(Penetrate)
G01 X 16.6335 Y 2.7619 Z -1.0000 F 3500.0000
G01 X 16.6588 Y 2.7601 Z -1.0000
G02 X 16.6905 Y 2.7343 Z -1.0000 I -0.0830 J -0.1343
G01 X 16.6959 Y 2.7209 Z -1.0000
G01 X 16.6894 Y 2.7110 Z -1.0000
G02 X 16.6588 Y 2.7045 Z -1.0000 I -0.0306 J 0.0695
G01 X 16.6329 Y 2.7157 Z -1.0000
G01 X 16.6217 Y 2.7438 Z -1.0000
G01 X 16.6217 Y 2.7438 Z -1.0000
G00 Z 5.0000

(End cutting path id: path15372)


(Start cutting path id: path15372)
(Change tool to Default tool)

G00 Z 5.0000
G00 X 16.7238 Y 2.7491

G01 Z -1.0000 F 100.0000(Penetrate)
G02 X 16.7120 Y 2.8062 Z -1.0000 I 0.1675 J 0.0643 F 3500.0000
G01 X 16.7206 Y 2.8281 Z -1.0000
G02 X 16.7963 Y 2.8358 Z -1.0000 I 0.0426 J -0.0426
G02 X 16.8436 Y 2.7469 Z -1.0000 I -0.0580 J -0.0879
G01 X 16.8307 Y 2.7293 Z -1.0000
G01 X 16.8110 Y 2.7365 Z -1.0000
G01 X 16.7832 Y 2.7525 Z -1.0000
G01 X 16.7628 Y 2.7384 Z -1.0000
G01 X 16.7457 Y 2.7293 Z -1.0000
G01 X 16.7237 Y 2.7491 Z -1.0000
G01 X 16.7238 Y 2.7491 Z -1.0000
G00 Z 5.0000

(End cutting path id: path15372)


(Start cutting path id: path15372)
(Change tool to Default tool)

G00 Z 5.0000
G00 X 17.5771 Y 2.7307

G01 Z -1.0000 F 100.0000(Penetrate)
G02 X 17.6607 Y 2.7385 Z -1.0000 I 0.0811 J -0.4205 F 3500.0000
G02 X 17.7255 Y 2.7300 Z -1.0000 I -0.0015 J -0.2626
G01 X 17.7252 Y 2.7216 Z -1.0000
G02 X 17.6416 Y 2.7138 Z -1.0000 I -0.0814 J 0.4239
G02 X 17.5769 Y 2.7223 Z -1.0000 I 0.0013 J 0.2609
G01 X 17.5771 Y 2.7307 Z -1.0000
G01 X 17.5771 Y 2.7307 Z -1.0000
G00 Z 5.0000

(End cutting path id: path15372)


(Start cutting path id: path15372)
(Change tool to Default tool)

G00 Z 5.0000
G00 X 17.9198 Y 2.7951

G01 Z -1.0000 F 100.0000(Penetrate)
G01 X 17.9144 Y 2.8084 Z -1.0000 F 3500.0000
G03 X 17.8827 Y 2.8343 Z -1.0000 I -0.1148 J -0.1084
G01 X 17.8574 Y 2.8361 Z -1.0000
G01 X 17.8456 Y 2.8180 Z -1.0000
G01 X 17.8568 Y 2.7899 Z -1.0000
G01 X 17.8827 Y 2.7787 Z -1.0000
G03 X 17.9133 Y 2.7852 Z -1.0000 I -0.0000 J 0.0758
G01 X 17.9198 Y 2.7951 Z -1.0000
G01 X 17.9198 Y 2.7951 Z -1.0000
G00 Z 5.0000

(End cutting path id: path15372)


(Start cutting path id: path15372)
(Change tool to Default tool)

G00 Z 5.0000
G00 X 17.9939 Y 3.0754

G01 Z -1.0000 F 100.0000(Penetrate)
G01 X 18.0048 Y 3.1016 Z -1.0000 F 3500.0000
G01 X 18.0310 Y 3.1124 Z -1.0000
G01 X 18.0573 Y 3.1016 Z -1.0000
G01 X 18.0681 Y 3.0754 Z -1.0000
G01 X 18.0573 Y 3.0491 Z -1.0000
G01 X 18.0310 Y 3.0383 Z -1.0000
G01 X 18.0048 Y 3.0491 Z -1.0000
G01 X 17.9939 Y 3.0754 Z -1.0000
G01 X 17.9939 Y 3.0754 Z -1.0000
G00 Z 5.0000

(End cutting path id: path15372)


(Start cutting path id: path15372)
(Change tool to Default tool)

G00 Z 5.0000
G00 X 17.5118 Y 3.3721

G01 Z -1.0000 F 100.0000(Penetrate)
G01 X 17.5247 Y 3.3962 Z -1.0000 F 3500.0000
G02 X 17.5674 Y 3.4092 Z -1.0000 I 0.0427 J -0.0640
G02 X 17.6101 Y 3.3962 Z -1.0000 I -0.0000 J -0.0770
G01 X 17.6231 Y 3.3721 Z -1.0000
G01 X 17.6101 Y 3.3479 Z -1.0000
G02 X 17.5674 Y 3.3350 Z -1.0000 I -0.0427 J 0.0640
G02 X 17.5247 Y 3.3479 Z -1.0000 I 0.0000 J 0.0770
G01 X 17.5118 Y 3.3721 Z -1.0000
G01 X 17.5118 Y 3.3721 Z -1.0000
G00 Z 5.0000

(End cutting path id: path15372)


(Start cutting path id: path15372)
(Change tool to Default tool)

G00 Z 5.0000
G00 X 18.2037 Y 2.0277

G01 Z -1.0000 F 100.0000(Penetrate)
G01 X 18.2087 Y 2.0431 Z -1.0000 F 3500.0000
G02 X 18.2721 Y 2.0555 Z -1.0000 I 0.0634 J -0.1562
G02 X 18.3355 Y 2.0431 Z -1.0000 I -0.0000 J -0.1684
G01 X 18.3406 Y 2.0277 Z -1.0000
G01 X 18.3183 Y 2.0089 Z -1.0000
G02 X 18.2721 Y 1.9998 Z -1.0000 I -0.0462 J 0.1135
G02 X 18.2259 Y 2.0089 Z -1.0000 I -0.0000 J 0.1227
G01 X 18.2037 Y 2.0277 Z -1.0000
G01 X 18.2037 Y 2.0277 Z -1.0000
G00 Z 5.0000

(End cutting path id: path15372)


(Start cutting path id: path15372)
(Change tool to Default tool)

G00 Z 5.0000
G00 X 18.7658 Y 2.2106

G01 Z -1.0000 F 100.0000(Penetrate)
G02 X 18.8121 Y 2.2186 Z -1.0000 I 0.0417 J -0.1043 F 3500.0000
G01 X 18.8369 Y 2.2077 Z -1.0000
G01 X 18.8346 Y 2.1962 Z -1.0000
G02 X 18.7882 Y 2.1882 Z -1.0000 I -0.0417 J 0.1042
G01 X 18.7635 Y 2.1991 Z -1.0000
G01 X 18.7658 Y 2.2107 Z -1.0000
G01 X 18.7658 Y 2.2106 Z -1.0000
G00 Z 5.0000

(End cutting path id: path15372)


(Start cutting path id: path15372)
(Change tool to Default tool)

G00 Z 5.0000
G00 X 19.4800 Y 1.9786

G01 Z -1.0000 F 100.0000(Penetrate)
G03 X 19.3623 Y 2.0312 Z -1.0000 I -0.1217 J -0.1143 F 3500.0000
G03 X 19.2209 Y 1.9848 Z -1.0000 I -0.0053 J -0.2224
G01 X 19.2228 Y 1.9588 Z -1.0000
G03 X 19.3322 Y 1.9220 Z -1.0000 I 0.1506 J 0.2667
G02 X 19.4960 Y 1.8994 Z -1.0000 I -5.0283 J -37.0100
G02 X 19.5303 Y 1.8942 Z -1.0000 I -0.2200 J -1.5674
G01 X 19.5366 Y 1.9034 Z -1.0000
G03 X 19.4800 Y 1.9786 Z -1.0000 I -0.3734 J -0.2224
G01 X 19.4800 Y 1.9786 Z -1.0000
G00 Z 5.0000

(End cutting path id: path15372)


(Start cutting path id: path15372)
(Change tool to Default tool)

G00 Z 5.0000
G00 X 19.4218 Y 1.7429

G01 Z -1.0000 F 100.0000(Penetrate)
G02 X 19.0901 Y 1.7758 Z -1.0000 I 0.2958 J 4.6648 F 3500.0000
G02 X 18.9286 Y 1.8097 Z -1.0000 I 0.1536 J 1.1340
G03 X 18.7694 Y 1.8400 Z -1.0000 I -0.2465 J -0.8608
G03 X 18.6968 Y 1.8324 Z -1.0000 I -0.0177 J -0.1806
G02 X 18.6449 Y 1.8373 Z -1.0000 I -0.0202 J 0.0635
G01 X 18.6244 Y 1.8716 Z -1.0000
G01 X 18.6000 Y 1.9064 Z -1.0000
G03 X 18.4946 Y 1.9186 Z -1.0000 I -0.0787 J -0.2171
G02 X 18.3687 Y 1.9079 Z -1.0000 I -0.2407 J 2.0710
G01 X 18.3648 Y 1.9115 Z -1.0000
G02 X 18.4048 Y 1.9969 Z -1.0000 I 0.1111 J 0.0000
G02 X 18.5153 Y 2.0369 Z -1.0000 I 0.1105 J -0.1326
G03 X 18.6195 Y 2.0466 Z -1.0000 I -0.0000 J 0.5674
G03 X 18.8359 Y 2.0968 Z -1.0000 I -0.4699 J 2.5163
G02 X 19.0525 Y 2.1458 Z -1.0000 I 0.6100 J -2.1920
G02 X 19.1884 Y 2.1587 Z -1.0000 I 0.1485 J -0.8459
G01 X 19.3259 Y 2.1607 Z -1.0000
G01 X 19.2356 Y 2.3121 Z -1.0000
G03 X 19.1392 Y 2.4539 Z -1.0000 I -1.2428 J -0.7411
G01 X 19.1167 Y 2.4665 Z -1.0000
G02 X 18.7410 Y 2.5547 Z -1.0000 I 0.1620 J 1.5343
G02 X 18.7028 Y 2.6204 Z -1.0000 I 0.0209 J 0.0561
G03 X 18.6503 Y 2.7048 Z -1.0000 I -0.0747 J 0.0121
G03 X 18.2536 Y 2.7586 Z -1.0000 I -0.3609 J -1.1731
G02 X 17.8244 Y 2.7619 Z -1.0000 I -0.1694 J 5.8401
G01 X 17.8085 Y 2.7785 Z -1.0000
G01 X 17.7943 Y 2.7999 Z -1.0000
G03 X 17.6509 Y 2.8447 Z -1.0000 I -0.3074 J -0.7318
G01 X 17.4933 Y 2.8780 Z -1.0000
G01 X 17.7436 Y 2.9068 Z -1.0000
G03 X 17.9788 Y 2.9491 Z -1.0000 I -0.2163 J 1.8766
G01 X 17.9939 Y 2.9684 Z -1.0000
G01 X 18.0069 Y 2.9882 Z -1.0000
G02 X 18.0693 Y 3.0012 Z -1.0000 I 0.0624 J -0.1434
G03 X 18.1330 Y 3.0182 Z -1.0000 I -0.0000 J 0.1280
G03 X 18.1659 Y 3.0566 Z -1.0000 I -0.0376 J 0.0655
G02 X 18.1940 Y 3.0917 Z -1.0000 I 0.0688 J -0.0264
G01 X 18.2195 Y 3.0921 Z -1.0000
G03 X 18.2539 Y 3.0779 Z -1.0000 I 0.0600 J 0.0970
G03 X 18.3732 Y 3.0567 Z -1.0000 I 0.2718 J 1.1819
G03 X 18.8468 Y 3.0290 Z -1.0000 I 0.4423 J 3.4927
G01 X 18.8685 Y 3.0611 Z -1.0000
G02 X 18.4606 Y 4.2715 Z -1.0000 I 12.5533 J 4.9049
G02 X 18.1086 Y 5.7272 Z -1.0000 I 17.8180 J 5.0789
G02 X 17.8556 Y 7.1811 Z -1.0000 I 29.4794 J 5.8784
G02 X 17.6210 Y 9.0034 Z -1.0000 I 46.0846 J 6.8578
G03 X 17.5539 Y 9.4074 Z -1.0000 I -3.6095 J -0.3925
G03 X 17.5219 Y 9.4444 Z -1.0000 I -0.0505 J -0.0114
G01 X 17.5033 Y 9.4681 Z -1.0000
G01 X 17.5157 Y 9.4940 Z -1.0000
G01 X 17.5383 Y 9.5356 Z -1.0000
G03 X 17.5009 Y 10.2214 Z -1.0000 I -10.0616 J -0.2045
G02 X 17.4419 Y 10.9198 Z -1.0000 I 81.9031 J 7.2735
G02 X 17.3810 Y 11.7169 Z -1.0000 I 106.1878 J 8.5186
G03 X 17.3229 Y 12.5143 Z -1.0000 I -2451.1247 J -178.1783
G03 X 17.3035 Y 12.7772 Z -1.0000 I -254.2851 J -18.5674
G01 X 17.2841 Y 13.0402 Z -1.0000
G01 X 17.0935 Y 13.0101 Z -1.0000
G02 X 16.9118 Y 12.9992 Z -1.0000 I -0.1462 J 0.9251
G01 X 16.8793 Y 13.0182 Z -1.0000
G01 X 16.8456 Y 13.0386 Z -1.0000
G03 X 16.2970 Y 13.0613 Z -1.0000 I -0.6225 J -8.3957
G02 X 15.8419 Y 13.0913 Z -1.0000 I 0.0351 J 4.0051
G01 X 15.8370 Y 13.1181 Z -1.0000
G02 X 15.9394 Y 13.1489 Z -1.0000 I 0.1309 J -0.2490
G02 X 16.1210 Y 13.1470 Z -1.0000 I 0.0822 J -0.8071
G03 X 16.3070 Y 13.1318 Z -1.0000 I 0.2749 J 2.2267
G03 X 16.7860 Y 13.1206 Z -1.0000 I 0.5868 J 14.7945
G01 X 17.2656 Y 13.1171 Z -1.0000
G01 X 17.2565 Y 13.5389 Z -1.0000
G03 X 17.2427 Y 13.9605 Z -1.0000 I -18.9475 J -0.4084
G03 X 17.2137 Y 14.5170 Z -1.0000 I -33.4463 J -1.4661
G02 X 17.1368 Y 17.0715 Z -1.0000 I 42.0132 J 2.5429
G02 X 17.2149 Y 18.9055 Z -1.0000 I 21.7179 J -0.0060
G03 X 17.2513 Y 19.3385 Z -1.0000 I -251.5696 J 21.3963
G03 X 17.3097 Y 20.0431 Z -1.0000 I -684.6056 J 57.0402
G02 X 17.8628 Y 23.1084 Z -1.0000 I 16.1214 J -1.3265
G02 X 18.4761 Y 24.1781 Z -1.0000 I 2.4398 J -0.6883
G02 X 18.8077 Y 24.4382 Z -1.0000 I 1.0925 J -1.0515
G02 X 19.2069 Y 24.6021 Z -1.0000 I 0.7983 J -1.3759
G02 X 19.8630 Y 24.6428 Z -1.0000 I 0.4328 J -1.6703
G02 X 20.3862 Y 24.4482 Z -1.0000 I -0.1610 J -1.2336
G02 X 20.7928 Y 24.1027 Z -1.0000 I -1.2050 J -1.8300
G02 X 21.0087 Y 23.7724 Z -1.0000 I -0.8811 J -0.8116
G03 X 21.0931 Y 23.6106 Z -1.0000 I 1.2381 J 0.5431
G03 X 21.1610 Y 23.5231 Z -1.0000 I 0.4244 J 0.2593
G02 X 21.2270 Y 23.4349 Z -1.0000 I -0.3072 J -0.2987
G02 X 21.3074 Y 23.2635 Z -1.0000 I -1.1018 J -0.6215
G03 X 21.3770 Y 23.0849 Z -1.0000 I 11.7450 J 4.4716
G03 X 21.4083 Y 23.0102 Z -1.0000 I 2.0856 J 0.8307
G02 X 21.5157 Y 22.7219 Z -1.0000 I -2.4019 J -1.0588
G02 X 21.6304 Y 22.2869 Z -1.0000 I -5.3661 J -1.6478
G03 X 21.6778 Y 22.0835 Z -1.0000 I 9.0847 J 2.0106
G03 X 21.7637 Y 21.7427 Z -1.0000 I 25.5471 J 6.2588
G02 X 21.8474 Y 21.4015 Z -1.0000 I -12.9093 J -3.3462
G02 X 21.8667 Y 21.2976 Z -1.0000 I -1.1774 J -0.2723
G03 X 21.8835 Y 21.1932 Z -1.0000 I 2.6296 J 0.3695
G03 X 21.9217 Y 20.9942 Z -1.0000 I 9.7158 J 1.7625
G02 X 21.9499 Y 20.7978 Z -1.0000 I -1.6916 J -0.3430
G02 X 21.9414 Y 20.7624 Z -1.0000 I -0.0577 J -0.0049
G01 X 21.9436 Y 20.7419 Z -1.0000
G01 X 21.9734 Y 20.7292 Z -1.0000
G01 X 22.0059 Y 20.7093 Z -1.0000
G02 X 22.0252 Y 20.6273 Z -1.0000 I -0.1591 J -0.0807
G03 X 22.0627 Y 19.9108 Z -1.0000 I 5.9748 J -0.0462
G03 X 22.1133 Y 19.8458 Z -1.0000 I 0.0784 J 0.0088
G01 X 22.1290 Y 19.8251 Z -1.0000
G02 X 22.1232 Y 19.7255 Z -1.0000 I -0.3561 J -0.0294
G03 X 22.1170 Y 19.6183 Z -1.0000 I 0.3787 J -0.0758
G03 X 22.1404 Y 19.5148 Z -1.0000 I 0.3761 J 0.0307
G02 X 22.1680 Y 19.4101 Z -1.0000 I -0.4808 J -0.1828
G02 X 22.2017 Y 19.1159 Z -1.0000 I -3.7975 J -0.5834
G03 X 22.2769 Y 18.4322 Z -1.0000 I 10.0511 J 0.7591
G03 X 22.3074 Y 18.3850 Z -1.0000 I 0.0667 J 0.0096
G01 X 22.3171 Y 18.3666 Z -1.0000
G01 X 22.3064 Y 18.3562 Z -1.0000
G01 X 22.2699 Y 18.3152 Z -1.0000
G03 X 22.3423 Y 18.0091 Z -1.0000 I 1.2136 J 0.1257
G02 X 22.3556 Y 17.9125 Z -1.0000 I -0.2042 J -0.0772
G02 X 22.3299 Y 17.8700 Z -1.0000 I -0.0562 J 0.0050
G03 X 22.3052 Y 17.8354 Z -1.0000 I 0.0312 J -0.0485
G01 X 22.3148 Y 17.8086 Z -1.0000
G02 X 22.3484 Y 17.7472 Z -1.0000 I -0.0508 J -0.0677
G02 X 22.4232 Y 16.3714 Z -1.0000 I -32.7211 J -2.4689
G03 X 22.4417 Y 15.9265 Z -1.0000 I 27.1260 J 0.9087
G03 X 22.4631 Y 15.5740 Z -1.0000 I 16.7188 J 0.8348
G02 X 22.4842 Y 15.0979 Z -1.0000 I -8.9107 J -0.6336
G02 X 22.5182 Y 12.4471 Z -1.0000 I -276.3830 J -4.8719
G03 X 22.5324 Y 12.4049 Z -1.0000 I 0.0716 J 0.0006
G01 X 22.5527 Y 12.4010 Z -1.0000
G01 X 22.5808 Y 12.4027 Z -1.0000
G02 X 22.6083 Y 12.3754 Z -1.0000 I -0.0235 J -0.0511
G01 X 22.6300 Y 12.3615 Z -1.0000
G01 X 22.6516 Y 12.3752 Z -1.0000
G02 X 22.7432 Y 12.4398 Z -1.0000 I 0.1024 J -0.0478
G02 X 22.8659 Y 12.3958 Z -1.0000 I 0.0146 J -0.1522
G03 X 22.8961 Y 12.3799 Z -1.0000 I 0.0406 J 0.0406
G03 X 23.0483 Y 12.3621 Z -1.0000 I 0.2105 J 1.1413
G02 X 23.2049 Y 12.3542 Z -1.0000 I -6.3122 J -126.4344
G02 X 23.2698 Y 12.3508 Z -1.0000 I -1.1485 J -22.4457
G02 X 23.3178 Y 12.3313 Z -1.0000 I -0.0042 J -0.0795
G01 X 23.3347 Y 12.2943 Z -1.0000
G01 X 23.3526 Y 12.2561 Z -1.0000
G03 X 23.4181 Y 12.2252 Z -1.0000 I 0.0931 J 0.1123
G01 X 23.4237 Y 12.2145 Z -1.0000
G01 X 23.4088 Y 12.2043 Z -1.0000
G02 X 23.3187 Y 12.2119 Z -1.0000 I -0.0174 J 0.3282
G02 X 23.2234 Y 12.2463 Z -1.0000 I 0.0919 J 0.4052
G03 X 23.1276 Y 12.2817 Z -1.0000 I -0.2039 J -0.4038
G03 X 23.0009 Y 12.3010 Z -1.0000 I -0.1703 J -0.6919
G03 X 22.9452 Y 12.2912 Z -1.0000 I -0.0074 J -0.1206
G01 X 22.9452 Y 12.2768 Z -1.0000
G01 X 22.9553 Y 12.2495 Z -1.0000
G02 X 22.9164 Y 12.2175 Z -1.0000 I -0.0542 J 0.0263
G02 X 22.8134 Y 12.2064 Z -1.0000 I -0.0886 J 0.3371
G02 X 22.6659 Y 12.2279 Z -1.0000 I 0.0299 J 0.7204
G03 X 22.5240 Y 12.2517 Z -1.0000 I -0.2147 J -0.8455
G01 X 22.5042 Y 12.2415 Z -1.0000
G03 X 22.4965 Y 12.2157 Z -1.0000 I 0.0476 J -0.0282
G03 X 22.4855 Y 11.8281 Z -1.0000 I 11.6550 J -0.5243
G02 X 22.4790 Y 11.4387 Z -1.0000 I -38.6489 J 0.4511
G02 X 22.4582 Y 10.5707 Z -1.0000 I -194.9610 J 4.2406
G01 X 22.4354 Y 9.7028 Z -1.0000
G01 X 22.6462 Y 9.7245 Z -1.0000
G02 X 22.8289 Y 9.7237 Z -1.0000 I 0.0874 J -0.8463
G01 X 22.8426 Y 9.7024 Z -1.0000
G01 X 22.8144 Y 9.6763 Z -1.0000
G02 X 22.6178 Y 9.6473 Z -1.0000 I -0.2527 J 1.0319
G03 X 22.4533 Y 9.5819 Z -1.0000 I 0.0146 J -0.2761
G03 X 22.4056 Y 9.4670 Z -1.0000 I 0.0885 J -0.1041
G02 X 22.4063 Y 9.3868 Z -1.0000 I -0.5721 J -0.0454
G02 X 22.3741 Y 8.9478 Z -1.0000 I -17.3797 J 1.0552
G03 X 22.3386 Y 8.5086 Z -1.0000 I 41.4671 J -3.5719
G03 X 22.3143 Y 8.1564 Z -1.0000 I 26.6963 J -2.0151
G02 X 21.9536 Y 5.0579 Z -1.0000 I -28.9710 J 1.8027
G02 X 21.4603 Y 3.1710 Z -1.0000 I -11.1829 J 1.9158
G03 X 21.3831 Y 2.9119 Z -1.0000 I 2.4306 J -0.8647
G03 X 21.3690 Y 2.7929 Z -1.0000 I 0.4925 J -0.1189
G02 X 21.3485 Y 2.6819 Z -1.0000 I -0.3109 J 0.0000
G02 X 21.3040 Y 2.6231 Z -1.0000 I -0.1235 J 0.0473
G03 X 21.0792 Y 2.3542 Z -1.0000 I 0.4525 J -0.6066
G03 X 20.9981 Y 2.0096 Z -1.0000 I 0.6910 J -0.3446
G02 X 20.9756 Y 1.9360 Z -1.0000 I -0.1320 J -0.0000
G02 X 20.9239 Y 1.8993 Z -1.0000 I -0.0744 J 0.0500
G03 X 20.8662 Y 1.8671 Z -1.0000 I 0.0334 J -0.1277
G03 X 20.8497 Y 1.8286 Z -1.0000 I 0.0367 J -0.0385
G01 X 20.8332 Y 1.7927 Z -1.0000
G02 X 20.7848 Y 1.7731 Z -1.0000 I -0.0537 J 0.0628
G03 X 20.7200 Y 1.7679 Z -1.0000 I 0.1301 J -2.0198
G03 X 20.5918 Y 1.7544 Z -1.0000 I 0.7412 J -7.6600
G02 X 20.1067 Y 1.7245 Z -1.0000 I -0.5319 J 4.6800
G02 X 19.4218 Y 1.7428 Z -1.0000 I -0.0929 J 9.3539
G01 X 19.4218 Y 1.7429 Z -1.0000
G00 Z 5.0000

(End cutting path id: path15372)


(Start cutting path id: path15372)
(Change tool to Default tool)

G00 Z 5.0000
G00 X 19.6165 Y 1.2456

G01 Z -1.0000 F 100.0000(Penetrate)
G02 X 19.6629 Y 1.2546 Z -1.0000 I 0.0464 J -0.1149 F 3500.0000
G02 X 19.7093 Y 1.2456 Z -1.0000 I -0.0000 J -0.1239
G01 X 19.7093 Y 1.2359 Z -1.0000
G02 X 19.6629 Y 1.2269 Z -1.0000 I -0.0464 J 0.1149
G02 X 19.6165 Y 1.2358 Z -1.0000 I -0.0000 J 0.1239
G01 X 19.6165 Y 1.2456 Z -1.0000
G01 X 19.6165 Y 1.2456 Z -1.0000
G00 Z 5.0000

(End cutting path id: path15372)


(Start cutting path id: path15372)
(Change tool to Default tool)

G00 Z 5.0000
G00 X 18.9582 Y 1.0748

G01 Z -1.0000 F 100.0000(Penetrate)
G01 X 18.9700 Y 1.0929 Z -1.0000 F 3500.0000
G01 X 18.9953 Y 1.0912 Z -1.0000
G02 X 19.0271 Y 1.0653 Z -1.0000 I -0.0830 J -0.1343
G01 X 19.0324 Y 1.0519 Z -1.0000
G01 X 19.0260 Y 1.0420 Z -1.0000
G02 X 18.9953 Y 1.0356 Z -1.0000 I -0.0306 J 0.0695
G01 X 18.9694 Y 1.0467 Z -1.0000
G01 X 18.9582 Y 1.0748 Z -1.0000
G01 X 18.9582 Y 1.0748 Z -1.0000
G00 Z 5.0000

(End cutting path id: path15372)


(Start cutting path id: path15372)
(Change tool to Default tool)

G00 Z 5.0000
G00 X 17.2549 Y 0.5118

G01 Z -1.0000 F 100.0000(Penetrate)
G01 X 17.2452 Y 0.5380 Z -1.0000 F 3500.0000
G02 X 17.2992 Y 0.5782 Z -1.0000 I 0.0834 J -0.0557
G02 X 17.4361 Y 0.5797 Z -1.0000 I 0.0711 J -0.2318
G02 X 17.4747 Y 0.5287 Z -1.0000 I -0.0144 J -0.0510
G01 X 17.4420 Y 0.4934 Z -1.0000
G02 X 17.2549 Y 0.5118 Z -1.0000 I -0.0415 J 0.5397
G01 X 17.2549 Y 0.5118 Z -1.0000
G00 Z 5.0000

(End cutting path id: path15372)


(Start cutting path id: path15372)
(Change tool to Default tool)

G00 Z 5.0000
G00 X 23.7426 Y 0.4236

G01 Z -1.0000 F 100.0000(Penetrate)
G02 X 23.7555 Y 0.4663 Z -1.0000 I 0.0770 J 0.0000 F 3500.0000
G01 X 23.7797 Y 0.4792 Z -1.0000
G01 X 23.8038 Y 0.4663 Z -1.0000
G02 X 23.8168 Y 0.4236 Z -1.0000 I -0.0640 J -0.0427
G02 X 23.8038 Y 0.3809 Z -1.0000 I -0.0770 J -0.0000
G01 X 23.7797 Y 0.3680 Z -1.0000
G01 X 23.7555 Y 0.3809 Z -1.0000
G02 X 23.7426 Y 0.4236 Z -1.0000 I 0.0640 J 0.0427
G01 X 23.7426 Y 0.4236 Z -1.0000
G00 Z 5.0000

(End cutting path id: path15372)


(Start cutting path id: path15372)
(Change tool to Default tool)

G00 Z 5.0000
G00 X 23.8539 Y 0.4792

G01 Z -1.0000 F 100.0000(Penetrate)
G01 X 23.8647 Y 0.5055 Z -1.0000 F 3500.0000
G01 X 23.8909 Y 0.5163 Z -1.0000
G01 X 23.9172 Y 0.5055 Z -1.0000
G01 X 23.9280 Y 0.4792 Z -1.0000
G01 X 23.9172 Y 0.4530 Z -1.0000
G01 X 23.8909 Y 0.4422 Z -1.0000
G01 X 23.8647 Y 0.4530 Z -1.0000
G01 X 23.8539 Y 0.4792 Z -1.0000
G01 X 23.8539 Y 0.4792 Z -1.0000
G00 Z 5.0000

(End cutting path id: path15372)


(Start cutting path id: path15372)
(Change tool to Default tool)

G00 Z 5.0000
G00 X 24.5214 Y 0.5499

G01 Z -1.0000 F 100.0000(Penetrate)
G01 X 24.5364 Y 0.5705 Z -1.0000 F 3500.0000
G02 X 24.7069 Y 0.6091 Z -1.0000 I 0.3091 J -0.9697
G03 X 24.8645 Y 0.6477 Z -1.0000 I -0.1065 J 0.7745
G01 X 24.8716 Y 0.6682 Z -1.0000
G01 X 24.8711 Y 0.6905 Z -1.0000
G01 X 24.8901 Y 0.7018 Z -1.0000
G01 X 24.9179 Y 0.6903 Z -1.0000
G01 X 24.9294 Y 0.6625 Z -1.0000
G01 X 24.9408 Y 0.6437 Z -1.0000
G01 X 24.9639 Y 0.6445 Z -1.0000
G01 X 24.9947 Y 0.6498 Z -1.0000
G01 X 25.0191 Y 0.6325 Z -1.0000
G01 X 24.9949 Y 0.5698 Z -1.0000
G02 X 24.6163 Y 0.5163 Z -1.0000 I -0.3787 J 1.3131
G02 X 24.5354 Y 0.5302 Z -1.0000 I -0.0000 J 0.2423
G01 X 24.5214 Y 0.5499 Z -1.0000
G01 X 24.5214 Y 0.5499 Z -1.0000
G00 Z 5.0000

(End cutting path id: path15372)


(Start cutting path id: path15372)
(Change tool to Default tool)

G00 Z 5.0000
G00 X 25.2868 Y 0.5351

G01 Z -1.0000 F 100.0000(Penetrate)
G03 X 25.1784 Y 0.5818 Z -1.0000 I -0.3716 J -0.7125 F 3500.0000
G03 X 25.1270 Y 0.5905 Z -1.0000 I -0.0515 J -0.1484
G01 X 25.0979 Y 0.6042 Z -1.0000
G01 X 25.0963 Y 0.6276 Z -1.0000
G02 X 25.1266 Y 0.6515 Z -1.0000 I 0.0480 J -0.0297
G02 X 25.2086 Y 0.6647 Z -1.0000 I 0.0820 J -0.2483
G02 X 25.2674 Y 0.6437 Z -1.0000 I -0.0000 J -0.0929
G01 X 25.2766 Y 0.6091 Z -1.0000
G01 X 25.2844 Y 0.5734 Z -1.0000
G03 X 25.3334 Y 0.5534 Z -1.0000 I 0.0490 J 0.0501
G02 X 25.3972 Y 0.5391 Z -1.0000 I 0.0000 J -0.1487
G01 X 25.4115 Y 0.5163 Z -1.0000
G01 X 25.3931 Y 0.5004 Z -1.0000
G02 X 25.2868 Y 0.5351 Z -1.0000 I 0.0504 J 0.3351
G01 X 25.2868 Y 0.5351 Z -1.0000
G00 Z 5.0000

(End cutting path id: path15372)


(Start cutting path id: path15372)
(Change tool to Default tool)

G00 Z 5.0000
G00 X 25.2817 Y 1.1097

G01 Z -1.0000 F 100.0000(Penetrate)
G01 X 25.2837 Y 1.1329 Z -1.0000 F 3500.0000
G01 X 25.3145 Y 1.1468 Z -1.0000
G02 X 25.3639 Y 1.1357 Z -1.0000 I 0.0000 J -0.1158
G02 X 25.3930 Y 1.1097 Z -1.0000 I -0.0293 J -0.0621
G01 X 25.3910 Y 1.0865 Z -1.0000
G01 X 25.3603 Y 1.0726 Z -1.0000
G02 X 25.3108 Y 1.0837 Z -1.0000 I -0.0000 J 0.1158
G02 X 25.2817 Y 1.1097 Z -1.0000 I 0.0293 J 0.0621
G01 X 25.2817 Y 1.1097 Z -1.0000
G00 Z 5.0000

(End cutting path id: path15372)


(Start cutting path id: path15372)
(Change tool to Default tool)

G00 Z 5.0000
G00 X 26.1515 Y 1.1116

G01 Z -1.0000 F 100.0000(Penetrate)
G03 X 26.0945 Y 1.1355 Z -1.0000 I -0.0991 J -0.1566 F 3500.0000
G03 X 25.9864 Y 1.1501 Z -1.0000 I -0.1309 J -0.5619
G01 X 25.9788 Y 1.1659 Z -1.0000
G02 X 26.0177 Y 1.1923 Z -1.0000 I 0.0570 J -0.0423
G02 X 26.1531 Y 1.2037 Z -1.0000 I 0.1001 J -0.3780
G02 X 26.2159 Y 1.1743 Z -1.0000 I -0.0092 J -0.1015
G01 X 26.2156 Y 1.1183 Z -1.0000
G02 X 26.1515 Y 1.1116 Z -1.0000 I -0.0362 J 0.0373
G01 X 26.1515 Y 1.1116 Z -1.0000
G00 Z 5.0000

(End cutting path id: path15372)


(Start cutting path id: path15372)
(Change tool to Default tool)

G00 Z 5.0000
G00 X 27.6925 Y 0.5905

G01 Z -1.0000 F 100.0000(Penetrate)
G01 X 27.6948 Y 0.6135 Z -1.0000 F 3500.0000
G01 X 27.7274 Y 0.6276 Z -1.0000
G02 X 27.7721 Y 0.6145 Z -1.0000 I 0.0000 J -0.0828
G01 X 27.7852 Y 0.5905 Z -1.0000
G01 X 27.7747 Y 0.5639 Z -1.0000
G01 X 27.7503 Y 0.5534 Z -1.0000
G02 X 27.7203 Y 0.5622 Z -1.0000 I -0.0000 J 0.0555
G02 X 27.6925 Y 0.5905 Z -1.0000 I 0.0484 J 0.0754
G01 X 27.6925 Y 0.5905 Z -1.0000
G00 Z 5.0000

(End cutting path id: path15372)


(Start cutting path id: path15372)
(Change tool to Default tool)

G00 Z 5.0000
G00 X 27.8223 Y 0.2567

G01 Z -1.0000 F 100.0000(Penetrate)
G01 X 27.8331 Y 0.2829 Z -1.0000 F 3500.0000
G01 X 27.8594 Y 0.2938 Z -1.0000
G01 X 27.8856 Y 0.2829 Z -1.0000
G01 X 27.8965 Y 0.2567 Z -1.0000
G01 X 27.8856 Y 0.2305 Z -1.0000
G01 X 27.8594 Y 0.2196 Z -1.0000
G01 X 27.8331 Y 0.2305 Z -1.0000
G01 X 27.8223 Y 0.2567 Z -1.0000
G01 X 27.8223 Y 0.2567 Z -1.0000
G00 Z 5.0000

(End cutting path id: path15372)


(Start cutting path id: path15372)
(Change tool to Default tool)

G00 Z 5.0000
G00 X 28.8237 Y 1.2952

G01 Z -1.0000 F 100.0000(Penetrate)
G01 X 28.8140 Y 1.3178 Z -1.0000 F 3500.0000
G01 X 28.8307 Y 1.3317 Z -1.0000
G02 X 28.8870 Y 1.3205 Z -1.0000 I 0.0013 J -0.1401
G02 X 28.9164 Y 1.2952 Z -1.0000 I -0.0252 J -0.0591
G01 X 28.9033 Y 1.2717 Z -1.0000
G02 X 28.8237 Y 1.2952 Z -1.0000 I -0.0000 J 0.1467
G01 X 28.8237 Y 1.2952 Z -1.0000
G00 Z 5.0000

(End cutting path id: path15372)


(Start cutting path id: path15372)
(Change tool to Default tool)

G00 Z 5.0000
G00 X 28.5942 Y 1.5801

G01 Z -1.0000 F 100.0000(Penetrate)
G02 X 28.6405 Y 1.5881 Z -1.0000 I 0.0417 J -0.1043 F 3500.0000
G01 X 28.6653 Y 1.5772 Z -1.0000
G01 X 28.6629 Y 1.5657 Z -1.0000
G02 X 28.6166 Y 1.5577 Z -1.0000 I -0.0417 J 0.1042
G01 X 28.5918 Y 1.5686 Z -1.0000
G01 X 28.5942 Y 1.5802 Z -1.0000
G01 X 28.5942 Y 1.5801 Z -1.0000
G00 Z 5.0000

(End cutting path id: path15372)


(Start cutting path id: path15372)
(Change tool to Default tool)

G00 Z 5.0000
G00 X 29.3730 Y 0.7271

G01 Z -1.0000 F 100.0000(Penetrate)
G02 X 29.4193 Y 0.7350 Z -1.0000 I 0.0417 J -0.1043 F 3500.0000
G01 X 29.4441 Y 0.7242 Z -1.0000
G01 X 29.4417 Y 0.7127 Z -1.0000
G02 X 29.3954 Y 0.7047 Z -1.0000 I -0.0417 J 0.1042
G01 X 29.3707 Y 0.7156 Z -1.0000
G01 X 29.3730 Y 0.7271 Z -1.0000
G01 X 29.3730 Y 0.7271 Z -1.0000
G00 Z 5.0000

(End cutting path id: path15372)


(Start cutting path id: path15372)
(Change tool to Default tool)

G00 Z 5.0000
G00 X 29.5654 Y 0.8501

G01 Z -1.0000 F 100.0000(Penetrate)
G02 X 29.5412 Y 0.8768 Z -1.0000 I 0.0379 J 0.0587 F 3500.0000
G01 X 29.5469 Y 0.8861 Z -1.0000
G02 X 29.5820 Y 0.8795 Z -1.0000 I -0.0000 J -0.0972
G02 X 29.6396 Y 0.8501 Z -1.0000 I -0.1149 J -0.2964
G02 X 29.6638 Y 0.8234 Z -1.0000 I -0.0379 J -0.0587
G01 X 29.6581 Y 0.8142 Z -1.0000
G02 X 29.6230 Y 0.8207 Z -1.0000 I 0.0000 J 0.0972
G02 X 29.5654 Y 0.8501 Z -1.0000 I 0.1149 J 0.2964
G01 X 29.5654 Y 0.8501 Z -1.0000
G00 Z 5.0000

(End cutting path id: path15372)


(Start cutting path id: path15372)
(Change tool to Default tool)

G00 Z 5.0000
G00 X 29.8992 Y 0.9812

G01 Z -1.0000 F 100.0000(Penetrate)
G01 X 29.9186 Y 1.0057 Z -1.0000 F 3500.0000
G02 X 29.9734 Y 0.9985 Z -1.0000 I 0.0177 J -0.0764
G02 X 30.0410 Y 0.9548 Z -1.0000 I -0.2325 J -0.4345
G01 X 30.0476 Y 0.9415 Z -1.0000
G01 X 30.0399 Y 0.9319 Z -1.0000
G02 X 29.9734 Y 0.9243 Z -1.0000 I -0.0665 J 0.2867
G02 X 29.9180 Y 0.9431 Z -1.0000 I -0.0000 J 0.0910
G01 X 29.8992 Y 0.9812 Z -1.0000
G01 X 29.8992 Y 0.9812 Z -1.0000
G00 Z 5.0000

(End cutting path id: path15372)


(Start cutting path id: path15372)
(Change tool to Default tool)

G00 Z 5.0000
G00 X 30.1403 Y 1.0356

G01 Z -1.0000 F 100.0000(Penetrate)
G01 X 30.1385 Y 1.0609 Z -1.0000 F 3500.0000
G01 X 30.1566 Y 1.0726 Z -1.0000
G01 X 30.1847 Y 1.0615 Z -1.0000
G01 X 30.1959 Y 1.0356 Z -1.0000
G02 X 30.1894 Y 1.0049 Z -1.0000 I -0.0758 J 0.0000
G01 X 30.1796 Y 0.9985 Z -1.0000
G01 X 30.1662 Y 1.0038 Z -1.0000
G02 X 30.1403 Y 1.0356 Z -1.0000 I 0.1084 J 0.1148
G01 X 30.1403 Y 1.0356 Z -1.0000
G00 Z 5.0000

(End cutting path id: path15372)


(Start cutting path id: path15372)
(Change tool to Default tool)

G00 Z 5.0000
G00 X 30.1148 Y 1.4318

G01 Z -1.0000 F 100.0000(Penetrate)
G02 X 30.1611 Y 1.4397 Z -1.0000 I 0.0417 J -0.1043 F 3500.0000
G01 X 30.1859 Y 1.4289 Z -1.0000
G01 X 30.1835 Y 1.4173 Z -1.0000
G02 X 30.1372 Y 1.4094 Z -1.0000 I -0.0417 J 0.1042
G01 X 30.1124 Y 1.4203 Z -1.0000
G01 X 30.1148 Y 1.4318 Z -1.0000
G01 X 30.1148 Y 1.4318 Z -1.0000
G00 Z 5.0000

(End cutting path id: path15372)


(Start cutting path id: path15372)
(Change tool to Default tool)

G00 Z 5.0000
G00 X 29.8922 Y 1.3947

G01 Z -1.0000 F 100.0000(Penetrate)
G02 X 29.9386 Y 1.4026 Z -1.0000 I 0.0417 J -0.1043 F 3500.0000
G01 X 29.9633 Y 1.3918 Z -1.0000
G01 X 29.9610 Y 1.3802 Z -1.0000
G02 X 29.9147 Y 1.3723 Z -1.0000 I -0.0417 J 0.1042
G01 X 29.8899 Y 1.3832 Z -1.0000
G01 X 29.8922 Y 1.3947 Z -1.0000
G01 X 29.8922 Y 1.3947 Z -1.0000
G00 Z 5.0000

(End cutting path id: path15372)


(Start cutting path id: path15372)
(Change tool to Default tool)

G00 Z 5.0000
G00 X 30.6340 Y 1.3576

G01 Z -1.0000 F 100.0000(Penetrate)
G02 X 30.6803 Y 1.3655 Z -1.0000 I 0.0417 J -0.1043 F 3500.0000
G01 X 30.7051 Y 1.3547 Z -1.0000
G01 X 30.7027 Y 1.3431 Z -1.0000
G02 X 30.6564 Y 1.3352 Z -1.0000 I -0.0417 J 0.1042
G01 X 30.6316 Y 1.3461 Z -1.0000
G01 X 30.6340 Y 1.3576 Z -1.0000
G01 X 30.6340 Y 1.3576 Z -1.0000
G00 Z 5.0000

(End cutting path id: path15372)


(Start cutting path id: path15372)
(Change tool to Default tool)

G00 Z 5.0000
G00 X 30.2330 Y 2.2897

G01 Z -1.0000 F 100.0000(Penetrate)
G02 X 30.2667 Y 2.3375 Z -1.0000 I 0.0507 J 0.0000 F 3500.0000
G02 X 30.4555 Y 2.3691 Z -1.0000 I 0.1828 J -0.5124
G01 X 30.4673 Y 2.3572 Z -1.0000
G01 X 30.4555 Y 2.3370 Z -1.0000
G02 X 30.2641 Y 2.2645 Z -1.0000 I -0.3312 J 0.5854
G01 X 30.2330 Y 2.2897 Z -1.0000
G01 X 30.2330 Y 2.2897 Z -1.0000
G00 Z 5.0000

(End cutting path id: path15372)


(Start cutting path id: path15372)
(Change tool to Default tool)

G00 Z 5.0000
G00 X 30.2886 Y 3.0383

G01 Z -1.0000 F 100.0000(Penetrate)
G02 X 30.3145 Y 3.0700 Z -1.0000 I 0.1343 J -0.0830 F 3500.0000
G01 X 30.3279 Y 3.0754 Z -1.0000
G01 X 30.3378 Y 3.0689 Z -1.0000
G02 X 30.3443 Y 3.0383 Z -1.0000 I -0.0695 J -0.0306
G01 X 30.3331 Y 3.0124 Z -1.0000
G01 X 30.3050 Y 3.0012 Z -1.0000
G01 X 30.2869 Y 3.0130 Z -1.0000
G01 X 30.2886 Y 3.0383 Z -1.0000
G01 X 30.2886 Y 3.0383 Z -1.0000
G00 Z 5.0000

(End cutting path id: path15372)


(Start cutting path id: path15372)
(Change tool to Default tool)

G00 Z 5.0000
G00 X 30.6224 Y 3.1124

G01 Z -1.0000 F 100.0000(Penetrate)
G01 X 30.6207 Y 3.1378 Z -1.0000 F 3500.0000
G01 X 30.6388 Y 3.1495 Z -1.0000
G01 X 30.6669 Y 3.1384 Z -1.0000
G01 X 30.6780 Y 3.1124 Z -1.0000
G02 X 30.6716 Y 3.0818 Z -1.0000 I -0.0758 J 0.0000
G01 X 30.6617 Y 3.0754 Z -1.0000
G01 X 30.6483 Y 3.0807 Z -1.0000
G02 X 30.6224 Y 3.1124 Z -1.0000 I 0.1084 J 0.1148
G01 X 30.6224 Y 3.1124 Z -1.0000
G00 Z 5.0000

(End cutting path id: path15372)


(Start cutting path id: path15372)
(Change tool to Default tool)

G00 Z 5.0000
G00 X 30.7824 Y 3.3974

G01 Z -1.0000 F 100.0000(Penetrate)
G02 X 30.8287 Y 3.4053 Z -1.0000 I 0.0417 J -0.1043 F 3500.0000
G01 X 30.8535 Y 3.3945 Z -1.0000
G01 X 30.8511 Y 3.3830 Z -1.0000
G02 X 30.8048 Y 3.3750 Z -1.0000 I -0.0417 J 0.1042
G01 X 30.7800 Y 3.3859 Z -1.0000
G01 X 30.7824 Y 3.3974 Z -1.0000
G01 X 30.7824 Y 3.3974 Z -1.0000
G00 Z 5.0000

(End cutting path id: path15372)


(Start cutting path id: path15372)
(Change tool to Default tool)

G00 Z 5.0000
G00 X 31.1231 Y 3.6688

G01 Z -1.0000 F 100.0000(Penetrate)
G01 X 31.1026 Y 3.6889 Z -1.0000 F 3500.0000
G01 X 31.1116 Y 3.7022 Z -1.0000
G02 X 31.1857 Y 3.6923 Z -1.0000 I 0.0095 J -0.2118
G02 X 31.2158 Y 3.6688 Z -1.0000 I -0.0168 J -0.0525
G01 X 31.2273 Y 3.6354 Z -1.0000
G02 X 31.2158 Y 3.6391 Z -1.0000 I 1.0980 J 3.4587
G03 X 31.1231 Y 3.6688 Z -1.0000 I -35.6693 J -111.0813
G01 X 31.1231 Y 3.6688 Z -1.0000
G00 Z 5.0000

(End cutting path id: path15372)


(Start cutting path id: path15372)
(Change tool to Default tool)

G00 Z 5.0000
G00 X 32.2358 Y 0.8501

G01 Z -1.0000 F 100.0000(Penetrate)
G01 X 32.2489 Y 0.8741 Z -1.0000 F 3500.0000
G02 X 32.2936 Y 0.8872 Z -1.0000 I 0.0447 J -0.0697
G01 X 32.3261 Y 0.8731 Z -1.0000
G01 X 32.3285 Y 0.8501 Z -1.0000
G02 X 32.3006 Y 0.8218 Z -1.0000 I -0.0762 J 0.0471
G02 X 32.2707 Y 0.8130 Z -1.0000 I -0.0300 J 0.0468
G01 X 32.2463 Y 0.8236 Z -1.0000
G01 X 32.2358 Y 0.8501 Z -1.0000
G01 X 32.2358 Y 0.8501 Z -1.0000
G00 Z 5.0000

(End cutting path id: path15372)


(Start cutting path id: path15372)
(Change tool to Default tool)

G00 Z 5.0000
G00 X 33.9325 Y 0.9128

G01 Z -1.0000 F 100.0000(Penetrate)
G02 X 33.8801 Y 0.9393 Z -1.0000 I 0.0350 J 0.1343 F 3500.0000
G01 X 33.8676 Y 0.9654 Z -1.0000
G01 X 33.8813 Y 0.9783 Z -1.0000
G02 X 33.9418 Y 0.9614 Z -1.0000 I -0.0078 J -0.1448
G02 X 34.0094 Y 0.9178 Z -1.0000 I -0.2325 J -0.4345
G01 X 34.0160 Y 0.9045 Z -1.0000
G01 X 34.0123 Y 0.8930 Z -1.0000
G01 X 34.0067 Y 0.8915 Z -1.0000
G03 X 33.9971 Y 0.8951 Z -1.0000 I -0.0270 J -0.0573
G03 X 33.9325 Y 0.9128 Z -1.0000 I -0.7957 J -2.7828
G01 X 33.9325 Y 0.9128 Z -1.0000
G00 Z 5.0000

(End cutting path id: path15372)


(Start cutting path id: path15372)
(Change tool to Default tool)

G00 Z 5.0000
G00 X 35.9005 Y 1.1351

G01 Z -1.0000 F 100.0000(Penetrate)
G02 X 35.9468 Y 1.1430 Z -1.0000 I 0.0417 J -0.1043 F 3500.0000
G01 X 35.9716 Y 1.1322 Z -1.0000
G01 X 35.9692 Y 1.1206 Z -1.0000
G02 X 35.9229 Y 1.1127 Z -1.0000 I -0.0417 J 0.1042
G01 X 35.8981 Y 1.1236 Z -1.0000
G01 X 35.9005 Y 1.1351 Z -1.0000
G01 X 35.9005 Y 1.1351 Z -1.0000
G00 Z 5.0000

(End cutting path id: path15372)


(Start cutting path id: path15372)
(Change tool to Default tool)

G00 Z 5.0000
G00 X 36.0187 Y 1.1623

G01 Z -1.0000 F 100.0000(Penetrate)
G02 X 36.0643 Y 1.2157 Z -1.0000 I 0.0541 J 0.0000 F 3500.0000
G02 X 36.2119 Y 1.1930 Z -1.0000 I 0.0385 J -0.2414
G01 X 36.2270 Y 1.1455 Z -1.0000
G02 X 36.1671 Y 1.1097 Z -1.0000 I -0.0599 J 0.0322
G02 X 36.0405 Y 1.1315 Z -1.0000 I -0.0000 J 0.3792
G01 X 36.0187 Y 1.1623 Z -1.0000
G01 X 36.0187 Y 1.1623 Z -1.0000
G00 Z 5.0000

(End cutting path id: path15372)


(Start cutting path id: path15372)
(Change tool to Default tool)

G00 Z 5.0000
G00 X 36.7605 Y 1.1097

G01 Z -1.0000 F 100.0000(Penetrate)
G01 X 36.7564 Y 1.1307 Z -1.0000 F 3500.0000
G01 X 36.7861 Y 1.1463 Z -1.0000
G02 X 36.8602 Y 1.1339 Z -1.0000 I 0.0015 J -0.2194
G02 X 36.8903 Y 1.1097 Z -1.0000 I -0.0191 J -0.0546
G01 X 36.8720 Y 1.0768 Z -1.0000
G02 X 36.7605 Y 1.1097 Z -1.0000 I -0.0000 J 0.2054
G01 X 36.7605 Y 1.1097 Z -1.0000
G00 Z 5.0000

(End cutting path id: path15372)


(Start cutting path id: path15372)
(Change tool to Default tool)

G00 Z 5.0000
G00 X 37.2055 Y 1.1097

G01 Z -1.0000 F 100.0000(Penetrate)
G01 X 37.2019 Y 1.1305 Z -1.0000 F 3500.0000
G01 X 37.2334 Y 1.1463 Z -1.0000
G02 X 37.3022 Y 1.1321 Z -1.0000 I 0.0011 J -0.1688
G01 X 37.3168 Y 1.1097 Z -1.0000
G01 X 37.2915 Y 1.0844 Z -1.0000
G02 X 37.2056 Y 1.1097 Z -1.0000 I 0.0000 J 0.1583
G01 X 37.2055 Y 1.1097 Z -1.0000
G00 Z 5.0000

(End cutting path id: path15372)


(Start cutting path id: path15372)
(Change tool to Default tool)

G00 Z 5.0000
G00 X 37.1685 Y 0.3081

G01 Z -1.0000 F 100.0000(Penetrate)
G01 X 37.1751 Y 0.3167 Z -1.0000 F 3500.0000
G02 X 37.2797 Y 0.3387 Z -1.0000 I 0.2311 J -0.8393
G02 X 37.3776 Y 0.3396 Z -1.0000 I 0.0520 J -0.3537
G01 X 37.3910 Y 0.3244 Z -1.0000
G01 X 37.3777 Y 0.3070 Z -1.0000
G02 X 37.2797 Y 0.2937 Z -1.0000 I -0.0980 J 0.3558
G02 X 37.1752 Y 0.3004 Z -1.0000 I -0.0000 J 0.8226
G01 X 37.1685 Y 0.3081 Z -1.0000
G01 X 37.1685 Y 0.3081 Z -1.0000
G00 Z 5.0000

(End cutting path id: path15372)


(Start cutting path id: path15372)
(Change tool to Default tool)

G00 Z 5.0000
G00 X 37.7433 Y 0.4051

G01 Z -1.0000 F 100.0000(Penetrate)
G01 X 37.7500 Y 0.4256 Z -1.0000 F 3500.0000
G02 X 37.8339 Y 0.4422 Z -1.0000 I 0.0838 J -0.2046
G02 X 37.9317 Y 0.4266 Z -1.0000 I 0.0000 J -0.3149
G01 X 37.9473 Y 0.4051 Z -1.0000
G01 X 37.9324 Y 0.3829 Z -1.0000
G02 X 37.8568 Y 0.3680 Z -1.0000 I -0.0756 J 0.1846
G02 X 37.7736 Y 0.3812 Z -1.0000 I -0.0000 J 0.2676
G02 X 37.7433 Y 0.4051 Z -1.0000 I 0.0174 J 0.0534
G01 X 37.7433 Y 0.4051 Z -1.0000
G00 Z 5.0000

(End cutting path id: path15372)


(Start cutting path id: path15372)
(Change tool to Default tool)

G00 Z 5.0000
G00 X 39.2755 Y 3.2120

G01 Z -1.0000 F 100.0000(Penetrate)
G02 X 39.3218 Y 3.2199 Z -1.0000 I 0.0417 J -0.1043 F 3500.0000
G01 X 39.3466 Y 3.2091 Z -1.0000
G01 X 39.3442 Y 3.1975 Z -1.0000
G02 X 39.2979 Y 3.1896 Z -1.0000 I -0.0417 J 0.1042
G01 X 39.2732 Y 3.2004 Z -1.0000
G01 X 39.2755 Y 3.2120 Z -1.0000
G01 X 39.2755 Y 3.2120 Z -1.0000
G00 Z 5.0000

(End cutting path id: path15372)


(Start cutting path id: path15372)
(Change tool to Default tool)

G00 Z 5.0000
G00 X 39.5792 Y 3.1866

G01 Z -1.0000 F 100.0000(Penetrate)
G01 X 39.5897 Y 3.2132 Z -1.0000 F 3500.0000
G01 X 39.6141 Y 3.2237 Z -1.0000
G02 X 39.6441 Y 3.2149 Z -1.0000 I 0.0000 J -0.0555
G02 X 39.6719 Y 3.1866 Z -1.0000 I -0.0484 J -0.0754
G01 X 39.6696 Y 3.1636 Z -1.0000
G01 X 39.6370 Y 3.1495 Z -1.0000
G02 X 39.5923 Y 3.1626 Z -1.0000 I 0.0000 J 0.0828
G01 X 39.5792 Y 3.1866 Z -1.0000
G01 X 39.5792 Y 3.1866 Z -1.0000
G00 Z 5.0000

(End cutting path id: path15372)


(Start cutting path id: path15372)
(Change tool to Default tool)

G00 Z 5.0000
G00 X 39.6709 Y 3.2963

G01 Z -1.0000 F 100.0000(Penetrate)
G01 X 39.6984 Y 3.3152 Z -1.0000 F 3500.0000
G02 X 39.7473 Y 3.3108 Z -1.0000 I 0.0168 J -0.0880
G01 X 39.7590 Y 3.2828 Z -1.0000
G01 X 39.7254 Y 3.2608 Z -1.0000
G02 X 39.6755 Y 3.2756 Z -1.0000 I 0.0000 J 0.0913
G01 X 39.6709 Y 3.2963 Z -1.0000
G01 X 39.6709 Y 3.2963 Z -1.0000
G00 Z 5.0000

(End cutting path id: path15372)


(Start cutting path id: path15372)
(Change tool to Default tool)

G00 Z 5.0000
G00 X 37.9298 Y 4.6314

G01 Z -1.0000 F 100.0000(Penetrate)
G02 X 37.9590 Y 4.7986 Z -1.0000 I 0.1087 J 0.0672 F 3500.0000
G02 X 38.2718 Y 4.9032 Z -1.0000 I 0.3001 J -0.3777
G03 X 38.3717 Y 4.9213 Z -1.0000 I 0.0065 J 0.2486
G01 X 38.3924 Y 4.9520 Z -1.0000
G02 X 38.4050 Y 4.9914 Z -1.0000 I 0.0677 J -0.0000
G01 X 38.4295 Y 5.0040 Z -1.0000
G01 X 38.4557 Y 4.9931 Z -1.0000
G01 X 38.4665 Y 4.9669 Z -1.0000
G01 X 38.4812 Y 4.9445 Z -1.0000
G03 X 38.5510 Y 4.9298 Z -1.0000 I 0.0698 J 0.1590
G02 X 38.6312 Y 4.9163 Z -1.0000 I -0.0000 J -0.2454
G02 X 38.7179 Y 4.8721 Z -1.0000 I -0.1148 J -0.3319
G03 X 38.7859 Y 4.8420 Z -1.0000 I 0.1102 J 0.1573
G01 X 38.8003 Y 4.8535 Z -1.0000
G01 X 38.8151 Y 4.8780 Z -1.0000
G02 X 38.8745 Y 4.8927 Z -1.0000 I 0.0594 J -0.1125
G02 X 38.9343 Y 4.8559 Z -1.0000 I 0.0000 J -0.0669
G02 X 38.9534 Y 4.7361 Z -1.0000 I -0.1785 J -0.0899
G01 X 38.9633 Y 4.7238 Z -1.0000
G03 X 39.0510 Y 4.7291 Z -1.0000 I 0.0239 J 0.3332
G02 X 39.1479 Y 4.7285 Z -1.0000 I 0.0471 J -0.2413
G02 X 39.2269 Y 4.6926 Z -1.0000 I -0.0397 J -0.1921
G01 X 39.2317 Y 4.6612 Z -1.0000
G01 X 39.1898 Y 4.6406 Z -1.0000
G03 X 39.0785 Y 4.6406 Z -1.0000 I -0.0555 J -1.4762
G03 X 38.5183 Y 4.6152 Z -1.0000 I 1.3879 J -36.7568
G02 X 37.9701 Y 4.6082 Z -1.0000 I -0.3607 J 6.8094
G01 X 37.9298 Y 4.6314 Z -1.0000
G01 X 37.9298 Y 4.6314 Z -1.0000
G00 Z 5.0000

(End cutting path id: path15372)


(Start cutting path id: path15372)
(Change tool to Default tool)

G00 Z 5.0000
G00 X 35.9728 Y 3.5096

G01 Z -1.0000 F 100.0000(Penetrate)
G02 X 36.0564 Y 3.5173 Z -1.0000 I 0.0811 J -0.4205 F 3500.0000
G02 X 36.1212 Y 3.5088 Z -1.0000 I -0.0015 J -0.2626
G01 X 36.1209 Y 3.5004 Z -1.0000
G02 X 36.0373 Y 3.4927 Z -1.0000 I -0.0814 J 0.4239
G02 X 35.9725 Y 3.5012 Z -1.0000 I 0.0013 J 0.2609
G01 X 35.9728 Y 3.5096 Z -1.0000
G01 X 35.9728 Y 3.5096 Z -1.0000
G00 Z 5.0000

(End cutting path id: path15372)


(Start cutting path id: path15372)
(Change tool to Default tool)

G00 Z 5.0000
G00 X 35.7320 Y 3.5090

G01 Z -1.0000 F 100.0000(Penetrate)
G02 X 35.7970 Y 3.5170 Z -1.0000 I 0.0620 J -0.2381 F 3500.0000
G02 X 35.8433 Y 3.5076 Z -1.0000 I -0.0015 J -0.1270
G01 X 35.8427 Y 3.4985 Z -1.0000
G02 X 35.7777 Y 3.4905 Z -1.0000 I -0.0620 J 0.2379
G02 X 35.7314 Y 3.4998 Z -1.0000 I 0.0016 J 0.1274
G01 X 35.7320 Y 3.5090 Z -1.0000
G01 X 35.7320 Y 3.5090 Z -1.0000
G00 Z 5.0000

(End cutting path id: path15372)


(Start cutting path id: path15372)
(Change tool to Default tool)

G00 Z 5.0000
G00 X 35.7035 Y 3.6688

G01 Z -1.0000 F 100.0000(Penetrate)
G01 X 35.5922 Y 3.6971 Z -1.0000 F 3500.0000
G01 X 35.7035 Y 3.7009 Z -1.0000
G02 X 35.8114 Y 3.6925 Z -1.0000 I 0.0166 J -0.4827
G02 X 35.8704 Y 3.6688 Z -1.0000 I -0.0315 J -0.1639
G01 X 35.8820 Y 3.6475 Z -1.0000
G01 X 35.8704 Y 3.6367 Z -1.0000
G02 X 35.8153 Y 3.6438 Z -1.0000 I 0.0313 J 0.4558
G02 X 35.7035 Y 3.6688 Z -1.0000 I 0.3675 J 1.9088
G01 X 35.7035 Y 3.6688 Z -1.0000
G00 Z 5.0000

(End cutting path id: path15372)


(Start cutting path id: path15372)
(Change tool to Default tool)

G00 Z 5.0000
G00 X 35.2028 Y 3.6688

G01 Z -1.0000 F 100.0000(Penetrate)
G02 X 35.1786 Y 3.6955 Z -1.0000 I 0.0379 J 0.0587 F 3500.0000
G01 X 35.1843 Y 3.7048 Z -1.0000
G02 X 35.2194 Y 3.6982 Z -1.0000 I 0.0000 J -0.0972
G02 X 35.2770 Y 3.6688 Z -1.0000 I -0.1149 J -0.2964
G02 X 35.3012 Y 3.6421 Z -1.0000 I -0.0379 J -0.0587
G01 X 35.2955 Y 3.6329 Z -1.0000
G02 X 35.2604 Y 3.6394 Z -1.0000 I -0.0000 J 0.0972
G02 X 35.2028 Y 3.6688 Z -1.0000 I 0.1149 J 0.2964
G01 X 35.2028 Y 3.6688 Z -1.0000
G00 Z 5.0000

(End cutting path id: path15372)


(Start cutting path id: path15372)
(Change tool to Default tool)

G00 Z 5.0000
G00 X 34.7114 Y 3.6563

G01 Z -1.0000 F 100.0000(Penetrate)
G02 X 34.7577 Y 3.6653 Z -1.0000 I 0.0464 J -0.1149 F 3500.0000
G02 X 34.8041 Y 3.6563 Z -1.0000 I -0.0000 J -0.1239
G01 X 34.8041 Y 3.6466 Z -1.0000
G02 X 34.7577 Y 3.6376 Z -1.0000 I -0.0464 J 0.1149
G02 X 34.7114 Y 3.6466 Z -1.0000 I -0.0000 J 0.1239
G01 X 34.7114 Y 3.6563 Z -1.0000
G01 X 34.7114 Y 3.6563 Z -1.0000
G00 Z 5.0000

(End cutting path id: path15372)


(Start cutting path id: path15372)
(Change tool to Default tool)

G00 Z 5.0000
G00 X 34.4541 Y 3.7312

G01 Z -1.0000 F 100.0000(Penetrate)
G02 X 34.5004 Y 3.7392 Z -1.0000 I 0.0417 J -0.1043 F 3500.0000
G01 X 34.5252 Y 3.7283 Z -1.0000
G01 X 34.5228 Y 3.7168 Z -1.0000
G02 X 34.4765 Y 3.7088 Z -1.0000 I -0.0417 J 0.1042
G01 X 34.4517 Y 3.7197 Z -1.0000
G01 X 34.4541 Y 3.7313 Z -1.0000
G01 X 34.4541 Y 3.7312 Z -1.0000
G00 Z 5.0000

(End cutting path id: path15372)


(Start cutting path id: path15372)
(Change tool to Default tool)

G00 Z 5.0000
G00 X 34.3498 Y 3.6317

G01 Z -1.0000 F 100.0000(Penetrate)
G01 X 34.3303 Y 3.6572 Z -1.0000 F 3500.0000
G01 X 34.3383 Y 3.6682 Z -1.0000
G02 X 34.3769 Y 3.6587 Z -1.0000 I 0.0010 J -0.0786
G02 X 34.4054 Y 3.6317 Z -1.0000 I -0.0365 J -0.0671
G01 X 34.3975 Y 3.6176 Z -1.0000
G02 X 34.3498 Y 3.6317 Z -1.0000 I 0.0000 J 0.0880
G01 X 34.3498 Y 3.6317 Z -1.0000
G00 Z 5.0000

(End cutting path id: path15372)


(Start cutting path id: path15372)
(Change tool to Default tool)

G00 Z 5.0000
G00 X 29.7879 Y 0.2518

G01 Z -1.0000 F 100.0000(Penetrate)
G01 X 29.8028 Y 0.2697 Z -1.0000 F 3500.0000
G02 X 30.0012 Y 0.2925 Z -1.0000 I 0.2524 J -1.3210
G02 X 30.3597 Y 0.2859 Z -1.0000 I 0.1228 J -3.0649
G02 X 30.4492 Y 0.2580 Z -1.0000 I -0.0161 J -0.2088
G01 X 30.4455 Y 0.2395 Z -1.0000
G02 X 30.1495 Y 0.2207 Z -1.0000 I -0.3035 J 2.4413
G02 X 29.8033 Y 0.2350 Z -1.0000 I -0.0122 J 3.8998
G01 X 29.7879 Y 0.2518 Z -1.0000
G01 X 29.7879 Y 0.2518 Z -1.0000
G00 Z 5.0000

(End cutting path id: path15372)


(Start cutting path id: path15372)
(Change tool to Default tool)

G00 Z 5.0000
G00 X 29.5469 Y 0.3308

G01 Z -1.0000 F 100.0000(Penetrate)
G01 X 29.5451 Y 0.3561 Z -1.0000 F 3500.0000
G01 X 29.5632 Y 0.3679 Z -1.0000
G01 X 29.5913 Y 0.3567 Z -1.0000
G01 X 29.6025 Y 0.3308 Z -1.0000
G02 X 29.5960 Y 0.3002 Z -1.0000 I -0.0758 J 0.0000
G01 X 29.5861 Y 0.2937 Z -1.0000
G01 X 29.5728 Y 0.2991 Z -1.0000
G02 X 29.5469 Y 0.3308 Z -1.0000 I 0.1084 J 0.1148
G01 X 29.5469 Y 0.3308 Z -1.0000
G00 Z 5.0000

(End cutting path id: path15372)


(Start cutting path id: path15372)
(Change tool to Default tool)

G00 Z 5.0000
G00 X 27.0805 Y 3.0405

G01 Z -1.0000 F 100.0000(Penetrate)
G01 X 27.0923 Y 3.0586 Z -1.0000 F 3500.0000
G01 X 27.1176 Y 3.0568 Z -1.0000
G02 X 27.1494 Y 3.0309 Z -1.0000 I -0.0830 J -0.1343
G01 X 27.1547 Y 3.0175 Z -1.0000
G01 X 27.1482 Y 3.0076 Z -1.0000
G02 X 27.1176 Y 3.0012 Z -1.0000 I -0.0306 J 0.0695
G01 X 27.0917 Y 3.0124 Z -1.0000
G01 X 27.0805 Y 3.0405 Z -1.0000
G01 X 27.0805 Y 3.0405 Z -1.0000
G00 Z 5.0000

(End cutting path id: path15372)


(Start cutting path id: path15372)
(Change tool to Default tool)

G00 Z 5.0000
G00 X 26.4500 Y 3.0012

G01 Z -1.0000 F 100.0000(Penetrate)
G01 X 26.4609 Y 3.0274 Z -1.0000 F 3500.0000
G01 X 26.4871 Y 3.0383 Z -1.0000
G01 X 26.5133 Y 3.0274 Z -1.0000
G01 X 26.5242 Y 3.0012 Z -1.0000
G01 X 26.5133 Y 2.9750 Z -1.0000
G01 X 26.4871 Y 2.9641 Z -1.0000
G01 X 26.4609 Y 2.9750 Z -1.0000
G01 X 26.4500 Y 3.0012 Z -1.0000
G01 X 26.4500 Y 3.0012 Z -1.0000
G00 Z 5.0000

(End cutting path id: path15372)


(Start cutting path id: path15372)
(Change tool to Default tool)

G00 Z 5.0000
G00 X 25.8195 Y 3.2608

G01 Z -1.0000 F 100.0000(Penetrate)
G01 X 25.8304 Y 3.2870 Z -1.0000 F 3500.0000
G01 X 25.8566 Y 3.2979 Z -1.0000
G01 X 25.8828 Y 3.2870 Z -1.0000
G01 X 25.8937 Y 3.2608 Z -1.0000
G01 X 25.8828 Y 3.2346 Z -1.0000
G01 X 25.8566 Y 3.2237 Z -1.0000
G01 X 25.8304 Y 3.2346 Z -1.0000
G01 X 25.8195 Y 3.2608 Z -1.0000
G01 X 25.8195 Y 3.2608 Z -1.0000
G00 Z 5.0000

(End cutting path id: path15372)


(Start cutting path id: path15372)
(Change tool to Default tool)

G00 Z 5.0000
G00 X 25.5900 Y 3.5458

G01 Z -1.0000 F 100.0000(Penetrate)
G02 X 25.6364 Y 3.5537 Z -1.0000 I 0.0417 J -0.1043 F 3500.0000
G01 X 25.6611 Y 3.5429 Z -1.0000
G01 X 25.6588 Y 3.5313 Z -1.0000
G02 X 25.6124 Y 3.5234 Z -1.0000 I -0.0417 J 0.1042
G01 X 25.5877 Y 3.5343 Z -1.0000
G01 X 25.5900 Y 3.5458 Z -1.0000
G01 X 25.5900 Y 3.5458 Z -1.0000
G00 Z 5.0000

(End cutting path id: path15372)


(Start cutting path id: path15372)
(Change tool to Default tool)

G00 Z 5.0000
G00 X 25.2562 Y 3.5087

G01 Z -1.0000 F 100.0000(Penetrate)
G02 X 25.3026 Y 3.5166 Z -1.0000 I 0.0417 J -0.1043 F 3500.0000
G01 X 25.3273 Y 3.5058 Z -1.0000
G01 X 25.3250 Y 3.4942 Z -1.0000
G02 X 25.2787 Y 3.4863 Z -1.0000 I -0.0417 J 0.1042
G01 X 25.2539 Y 3.4972 Z -1.0000
G01 X 25.2562 Y 3.5087 Z -1.0000
G01 X 25.2562 Y 3.5087 Z -1.0000
G00 Z 5.0000

(End cutting path id: path15372)


(Start cutting path id: path15372)
(Change tool to Default tool)

G00 Z 5.0000
G00 X 23.2121 Y 8.2925

G01 Z -1.0000 F 100.0000(Penetrate)
G01 X 23.1945 Y 8.3491 Z -1.0000 F 3500.0000
G02 X 23.3640 Y 8.4739 Z -1.0000 I 0.3410 J -0.2857
G02 X 23.6283 Y 8.5092 Z -1.0000 I 0.1979 J -0.4735
G02 X 23.7769 Y 8.4200 Z -1.0000 I -0.0281 J -0.2151
G02 X 23.8215 Y 8.3225 Z -1.0000 I -0.2317 J -0.1650
G01 X 23.8073 Y 8.2958 Z -1.0000
G02 X 23.5431 Y 8.2486 Z -1.0000 I -0.2685 J 0.7397
G02 X 23.2121 Y 8.2925 Z -1.0000 I -0.0067 J 1.2191
G01 X 23.2121 Y 8.2925 Z -1.0000
G00 Z 5.0000

(End cutting path id: path15372)


(Start cutting path id: path15372)
(Change tool to Default tool)

G00 Z 5.0000
G00 X 24.0122 Y 9.7028

G01 Z -1.0000 F 100.0000(Penetrate)
G02 X 24.0772 Y 9.7107 Z -1.0000 I 0.0620 J -0.2381 F 3500.0000
G02 X 24.1234 Y 9.7014 Z -1.0000 I -0.0015 J -0.1270
G01 X 24.1229 Y 9.6922 Z -1.0000
G02 X 24.0578 Y 9.6843 Z -1.0000 I -0.0620 J 0.2379
G02 X 24.0116 Y 9.6936 Z -1.0000 I 0.0016 J 0.1274
G01 X 24.0122 Y 9.7027 Z -1.0000
G01 X 24.0122 Y 9.7028 Z -1.0000
G00 Z 5.0000

(End cutting path id: path15372)


(Start cutting path id: path15372)
(Change tool to Default tool)

G00 Z 5.0000
G00 X 23.8450 Y 9.9258

G01 Z -1.0000 F 100.0000(Penetrate)
G02 X 23.9286 Y 9.9336 Z -1.0000 I 0.0811 J -0.4205 F 3500.0000
G02 X 23.9934 Y 9.9251 Z -1.0000 I -0.0015 J -0.2626
G01 X 23.9931 Y 9.9167 Z -1.0000
G02 X 23.9095 Y 9.9089 Z -1.0000 I -0.0814 J 0.4239
G02 X 23.8447 Y 9.9174 Z -1.0000 I 0.0013 J 0.2609
G01 X 23.8450 Y 9.9258 Z -1.0000
G01 X 23.8450 Y 9.9258 Z -1.0000
G00 Z 5.0000

(End cutting path id: path15372)


(Start cutting path id: path15372)
(Change tool to Default tool)

G00 Z 5.0000
G00 X 24.2062 Y 9.9367

G01 Z -1.0000 F 100.0000(Penetrate)
G02 X 24.2359 Y 9.9616 Z -1.0000 I 0.0527 J -0.0326 F 3500.0000
G02 X 24.2989 Y 9.9738 Z -1.0000 I 0.0630 J -0.1576
G02 X 24.3619 Y 9.9616 Z -1.0000 I 0.0000 J -0.1697
G02 X 24.3916 Y 9.9367 Z -1.0000 I -0.0230 J -0.0575
G01 X 24.3849 Y 9.9161 Z -1.0000
G02 X 24.2989 Y 9.8996 Z -1.0000 I -0.0860 J 0.2149
G02 X 24.2130 Y 9.9161 Z -1.0000 I 0.0000 J 0.2314
G01 X 24.2062 Y 9.9367 Z -1.0000
G01 X 24.2062 Y 9.9367 Z -1.0000
G00 Z 5.0000

(End cutting path id: path15372)


(Start cutting path id: path15372)
(Change tool to Default tool)

G00 Z 5.0000
G00 X 24.5761 Y 9.8609

G01 Z -1.0000 F 100.0000(Penetrate)
G01 X 24.6036 Y 9.8798 Z -1.0000 F 3500.0000
G02 X 24.6524 Y 9.8755 Z -1.0000 I 0.0168 J -0.0879
G01 X 24.6641 Y 9.8474 Z -1.0000
G01 X 24.6305 Y 9.8254 Z -1.0000
G02 X 24.5807 Y 9.8402 Z -1.0000 I -0.0000 J 0.0913
G01 X 24.5761 Y 9.8609 Z -1.0000
G01 X 24.5761 Y 9.8609 Z -1.0000
G00 Z 5.0000

(End cutting path id: path15372)


(Start cutting path id: path15372)
(Change tool to Default tool)

G00 Z 5.0000
G00 X 24.7910 Y 9.7399

G01 Z -1.0000 F 100.0000(Penetrate)
G02 X 24.8560 Y 9.7478 Z -1.0000 I 0.0620 J -0.2381 F 3500.0000
G02 X 24.9023 Y 9.7385 Z -1.0000 I -0.0015 J -0.1270
G01 X 24.9017 Y 9.7293 Z -1.0000
G02 X 24.8367 Y 9.7214 Z -1.0000 I -0.0620 J 0.2379
G02 X 24.7904 Y 9.7307 Z -1.0000 I 0.0016 J 0.1274
G01 X 24.7910 Y 9.7398 Z -1.0000
G01 X 24.7910 Y 9.7399 Z -1.0000
G00 Z 5.0000

(End cutting path id: path15372)


(Start cutting path id: path15372)
(Change tool to Default tool)

G00 Z 5.0000
G00 X 24.9611 Y 9.9090

G01 Z -1.0000 F 100.0000(Penetrate)
G02 X 24.9996 Y 9.9288 Z -1.0000 I 0.0502 J -0.0502 F 3500.0000
G02 X 25.0828 Y 9.9292 Z -1.0000 I 0.0426 J -0.2571
G01 X 25.0874 Y 9.9150 Z -1.0000
G02 X 25.0488 Y 9.8952 Z -1.0000 I -0.0502 J 0.0502
G02 X 24.9657 Y 9.8948 Z -1.0000 I -0.0426 J 0.2572
G01 X 24.9611 Y 9.9090 Z -1.0000
G01 X 24.9611 Y 9.9090 Z -1.0000
G00 Z 5.0000

(End cutting path id: path15372)


(Start cutting path id: path15372)
(Change tool to Default tool)

G00 Z 5.0000
G00 X 25.2632 Y 9.9530

G01 Z -1.0000 F 100.0000(Penetrate)
G02 X 25.3056 Y 10.0128 Z -1.0000 I 0.0633 J 0.0000 F 3500.0000
G02 X 25.4292 Y 10.0112 Z -1.0000 I 0.0596 J -0.1701
G01 X 25.4531 Y 9.9491 Z -1.0000
G02 X 25.3723 Y 9.8996 Z -1.0000 I -0.0809 J 0.0413
G02 X 25.2837 Y 9.9201 Z -1.0000 I -0.0000 J 0.2013
G01 X 25.2632 Y 9.9530 Z -1.0000
G01 X 25.2632 Y 9.9530 Z -1.0000
G00 Z 5.0000

(End cutting path id: path15372)


(Start cutting path id: path15372)
(Change tool to Default tool)

G00 Z 5.0000
G00 X 25.4158 Y 9.7477

G01 Z -1.0000 F 100.0000(Penetrate)
G01 X 25.4217 Y 9.8226 Z -1.0000 F 3500.0000
G02 X 25.6358 Y 9.8436 Z -1.0000 I 0.1394 J -0.3196
G02 X 25.7015 Y 9.7898 Z -1.0000 I -0.0201 J -0.0915
G01 X 25.6764 Y 9.7513 Z -1.0000
G03 X 25.5671 Y 9.7451 Z -1.0000 I -0.0000 J -0.9656
G03 X 25.5166 Y 9.7331 Z -1.0000 I 0.0247 J -0.2172
G02 X 25.4686 Y 9.7281 Z -1.0000 I -0.0339 J 0.0921
G02 X 25.4158 Y 9.7477 Z -1.0000 I 0.0193 J 0.1330
G01 X 25.4158 Y 9.7477 Z -1.0000
G00 Z 5.0000

(End cutting path id: path15372)


(Start cutting path id: path15372)
(Change tool to Default tool)

G00 Z 5.0000
G00 X 26.0170 Y 9.7756

G01 Z -1.0000 F 100.0000(Penetrate)
G02 X 26.4051 Y 9.9430 Z -1.0000 I 0.4042 J -0.4035 F 3500.0000
G02 X 26.5612 Y 9.7909 Z -1.0000 I 0.0043 J -0.1518
G01 X 26.5511 Y 9.7795 Z -1.0000
G02 X 26.2738 Y 9.7574 Z -1.0000 I -0.4417 J 3.7833
G02 X 26.0225 Y 9.7609 Z -1.0000 I -0.0950 J 2.2082
G01 X 26.0170 Y 9.7756 Z -1.0000
G01 X 26.0170 Y 9.7756 Z -1.0000
G00 Z 5.0000

(End cutting path id: path15372)


(Start cutting path id: path15372)
(Change tool to Default tool)

G00 Z 5.0000
G00 X 26.3743 Y 10.3280

G01 Z -1.0000 F 100.0000(Penetrate)
G02 X 26.3571 Y 10.3840 Z -1.0000 I 0.0585 J 0.0486 F 3500.0000
G02 X 26.3859 Y 10.4447 Z -1.0000 I 0.0993 J -0.0098
G02 X 26.4510 Y 10.4745 Z -1.0000 I 0.0723 J -0.0723
G02 X 26.5588 Y 10.4569 Z -1.0000 I 0.0167 J -0.2374
G02 X 26.6162 Y 10.3824 Z -1.0000 I -0.0361 J -0.0870
G02 X 26.5781 Y 10.3135 Z -1.0000 I -0.0655 J -0.0088
G02 X 26.4481 Y 10.2901 Z -1.0000 I -0.1111 J 0.2438
G02 X 26.3743 Y 10.3280 Z -1.0000 I 0.0075 J 0.1053
G01 X 26.3743 Y 10.3280 Z -1.0000
G00 Z 5.0000

(End cutting path id: path15372)


(Start cutting path id: path15372)
(Change tool to Default tool)

G00 Z 5.0000
G00 X 26.6725 Y 9.9388

G01 Z -1.0000 F 100.0000(Penetrate)
G01 X 26.6881 Y 9.9582 Z -1.0000 F 3500.0000
G02 X 26.8271 Y 9.9738 Z -1.0000 I 0.1390 J -0.6141
G02 X 26.9506 Y 9.9610 Z -1.0000 I 0.0000 J -0.6016
G01 X 26.9548 Y 9.9470 Z -1.0000
G02 X 26.7534 Y 9.8602 Z -1.0000 I -0.2099 J 0.2099
G02 X 26.6725 Y 9.9388 Z -1.0000 I -0.0023 J 0.0786
G01 X 26.6725 Y 9.9388 Z -1.0000
G00 Z 5.0000

(End cutting path id: path15372)


(Start cutting path id: path15372)
(Change tool to Default tool)

G00 Z 5.0000
G00 X 27.6299 Y 9.9249

G01 Z -1.0000 F 100.0000(Penetrate)
G02 X 27.6762 Y 9.9329 Z -1.0000 I 0.0417 J -0.1043 F 3500.0000
G01 X 27.7010 Y 9.9220 Z -1.0000
G01 X 27.6986 Y 9.9105 Z -1.0000
G02 X 27.6523 Y 9.9026 Z -1.0000 I -0.0417 J 0.1042
G01 X 27.6275 Y 9.9134 Z -1.0000
G01 X 27.6299 Y 9.9250 Z -1.0000
G01 X 27.6299 Y 9.9249 Z -1.0000
G00 Z 5.0000

(End cutting path id: path15372)


(Start cutting path id: path15372)
(Change tool to Default tool)

G00 Z 5.0000
G00 X 28.3311 Y 9.8241

G01 Z -1.0000 F 100.0000(Penetrate)
G02 X 28.3701 Y 9.9054 Z -1.0000 I 0.0674 J 0.0176 F 3500.0000
G02 X 28.5479 Y 9.9208 Z -1.0000 I 0.1113 J -0.2496
G02 X 28.5986 Y 9.8546 Z -1.0000 I -0.0163 J -0.0650
G02 X 28.5454 Y 9.7828 Z -1.0000 I -0.0770 J 0.0014
G02 X 28.3858 Y 9.7729 Z -1.0000 I -0.0990 J 0.3045
G02 X 28.3311 Y 9.8241 Z -1.0000 I 0.0133 J 0.0691
G01 X 28.3311 Y 9.8241 Z -1.0000
G00 Z 5.0000

(End cutting path id: path15372)


(Start cutting path id: path15372)
(Change tool to Default tool)

G00 Z 5.0000
G00 X 28.8065 Y 9.7164

G01 Z -1.0000 F 100.0000(Penetrate)
G02 X 28.8897 Y 9.7652 Z -1.0000 I 0.0878 J -0.0542 F 3500.0000
G01 X 28.9349 Y 9.7220 Z -1.0000
G01 X 28.9232 Y 9.7037 Z -1.0000
G02 X 28.8599 Y 9.6872 Z -1.0000 I -0.0770 J 0.1656
G02 X 28.8115 Y 9.6976 Z -1.0000 I -0.0066 J 0.0872
G01 X 28.8065 Y 9.7164 Z -1.0000
G01 X 28.8065 Y 9.7164 Z -1.0000
G00 Z 5.0000

(End cutting path id: path15372)


(Start cutting path id: path15372)
(Change tool to Default tool)

G00 Z 5.0000
G00 X 28.8978 Y 9.9510

G01 Z -1.0000 F 100.0000(Penetrate)
G01 X 28.9044 Y 9.9597 Z -1.0000 F 3500.0000
G02 X 29.0091 Y 9.9817 Z -1.0000 I 0.2313 J -0.8402
G02 X 29.1070 Y 9.9825 Z -1.0000 I 0.0520 J -0.3537
G01 X 29.1204 Y 9.9674 Z -1.0000
G01 X 29.1071 Y 9.9500 Z -1.0000
G02 X 29.0091 Y 9.9367 Z -1.0000 I -0.0980 J 0.3558
G02 X 28.9045 Y 9.9435 Z -1.0000 I 0.0000 J 0.8141
G01 X 28.8978 Y 9.9510 Z -1.0000
G01 X 28.8978 Y 9.9510 Z -1.0000
G00 Z 5.0000

(End cutting path id: path15372)


(Start cutting path id: path15372)
(Change tool to Default tool)

G00 Z 5.0000
G00 X 29.2594 Y 10.1096

G01 Z -1.0000 F 100.0000(Penetrate)
G02 X 29.3058 Y 10.1186 Z -1.0000 I 0.0464 J -0.1149 F 3500.0000
G02 X 29.3522 Y 10.1096 Z -1.0000 I 0.0000 J -0.1239
G01 X 29.3522 Y 10.0999 Z -1.0000
G02 X 29.3058 Y 10.0909 Z -1.0000 I -0.0464 J 0.1149
G02 X 29.2594 Y 10.0999 Z -1.0000 I 0.0000 J 0.1239
G01 X 29.2594 Y 10.1096 Z -1.0000
G01 X 29.2594 Y 10.1096 Z -1.0000
G00 Z 5.0000

(End cutting path id: path15372)


(Start cutting path id: path15372)
(Change tool to Default tool)

G00 Z 5.0000
G00 X 29.3242 Y 10.3449

G01 Z -1.0000 F 100.0000(Penetrate)
G01 X 29.3403 Y 10.3972 Z -1.0000 F 3500.0000
G02 X 29.4767 Y 10.4127 Z -1.0000 I 0.0929 J -0.2090
G02 X 29.5308 Y 10.3889 Z -1.0000 I -0.0253 J -0.1309
G02 X 29.5562 Y 10.3539 Z -1.0000 I -0.0427 J -0.0577
G02 X 29.4892 Y 10.2571 Z -1.0000 I -0.0699 J -0.0233
G02 X 29.3242 Y 10.3449 Z -1.0000 I -0.0072 J 0.1853
G01 X 29.3242 Y 10.3449 Z -1.0000
G00 Z 5.0000

(End cutting path id: path15372)


(Start cutting path id: path15372)
(Change tool to Default tool)

G00 Z 5.0000
G00 X 29.0763 Y 10.3329

G01 Z -1.0000 F 100.0000(Penetrate)
G02 X 29.1226 Y 10.3408 Z -1.0000 I 0.0417 J -0.1043 F 3500.0000
G01 X 29.1474 Y 10.3300 Z -1.0000
G01 X 29.1450 Y 10.3185 Z -1.0000
G02 X 29.0987 Y 10.3105 Z -1.0000 I -0.0417 J 0.1042
G01 X 29.0739 Y 10.3214 Z -1.0000
G01 X 29.0763 Y 10.3329 Z -1.0000
G01 X 29.0763 Y 10.3329 Z -1.0000
G00 Z 5.0000

(End cutting path id: path15372)


(Start cutting path id: path15372)
(Change tool to Default tool)

G00 Z 5.0000
G00 X 29.4078 Y 9.8500

G01 Z -1.0000 F 100.0000(Penetrate)
G01 X 29.4204 Y 9.8982 Z -1.0000 F 3500.0000
G03 X 29.3336 Y 9.9422 Z -1.0000 I -0.0922 J -0.0741
G01 X 29.3113 Y 9.9529 Z -1.0000
G01 X 29.3151 Y 9.9632 Z -1.0000
G03 X 29.4023 Y 9.9914 Z -1.0000 I -0.0425 J 0.2805
G01 X 29.4171 Y 10.0157 Z -1.0000
G01 X 29.4328 Y 10.0352 Z -1.0000
G02 X 29.5347 Y 10.0410 Z -1.0000 I 0.0694 J -0.3223
G02 X 29.6167 Y 9.9847 Z -1.0000 I -0.0101 J -0.1025
G01 X 29.5870 Y 9.9367 Z -1.0000
G03 X 29.5315 Y 9.8977 Z -1.0000 I 0.0000 J -0.0590
G01 X 29.5561 Y 9.8510 Z -1.0000
G01 X 29.5562 Y 9.8420 Z -1.0000
G02 X 29.4912 Y 9.8326 Z -1.0000 I -0.0676 J 0.2391
G02 X 29.4086 Y 9.8407 Z -1.0000 I -0.0041 J 0.3869
G01 X 29.4078 Y 9.8500 Z -1.0000
G01 X 29.4078 Y 9.8500 Z -1.0000
G00 Z 5.0000

(End cutting path id: path15372)


(Start cutting path id: path15372)
(Change tool to Default tool)

G00 Z 5.0000
G00 X 30.1588 Y 9.9738

G01 Z -1.0000 F 100.0000(Penetrate)
G01 X 30.1926 Y 10.0076 Z -1.0000 F 3500.0000
G02 X 30.3072 Y 9.9738 Z -1.0000 I -0.0000 J -0.2111
G01 X 30.3081 Y 9.9538 Z -1.0000
G02 X 30.2608 Y 9.9373 Z -1.0000 I -0.0477 J 0.0606
G02 X 30.1741 Y 9.9521 Z -1.0000 I -0.0014 J 0.2530
G01 X 30.1588 Y 9.9738 Z -1.0000
G01 X 30.1588 Y 9.9738 Z -1.0000
G00 Z 5.0000

(End cutting path id: path15372)


(Start cutting path id: path15372)
(Change tool to Default tool)

G00 Z 5.0000
G00 X 30.4926 Y 9.8965

G01 Z -1.0000 F 100.0000(Penetrate)
G01 X 30.5235 Y 9.9360 Z -1.0000 F 3500.0000
G02 X 30.6840 Y 9.9437 Z -1.0000 I 0.0999 J -0.4048
G01 X 30.7055 Y 9.9013 Z -1.0000
G02 X 30.6410 Y 9.8625 Z -1.0000 I -0.0645 J 0.0342
G02 X 30.5077 Y 9.8776 Z -1.0000 I 0.0000 J 0.5966
G01 X 30.4926 Y 9.8965 Z -1.0000
G01 X 30.4926 Y 9.8965 Z -1.0000
G00 Z 5.0000

(End cutting path id: path15372)


(Start cutting path id: path15372)
(Change tool to Default tool)

G00 Z 5.0000
G00 X 30.6711 Y 10.0362

G01 Z -1.0000 F 100.0000(Penetrate)
G02 X 30.7174 Y 10.0441 Z -1.0000 I 0.0417 J -0.1043 F 3500.0000
G01 X 30.7422 Y 10.0333 Z -1.0000
G01 X 30.7398 Y 10.0217 Z -1.0000
G02 X 30.6935 Y 10.0138 Z -1.0000 I -0.0417 J 0.1042
G01 X 30.6687 Y 10.0247 Z -1.0000
G01 X 30.6711 Y 10.0362 Z -1.0000
G01 X 30.6711 Y 10.0362 Z -1.0000
G00 Z 5.0000

(End cutting path id: path15372)


(Start cutting path id: path15372)
(Change tool to Default tool)

G00 Z 5.0000
G00 X 31.6053 Y 10.3817

G01 Z -1.0000 F 100.0000(Penetrate)
G02 X 31.7198 Y 10.4155 Z -1.0000 I 0.1146 J -0.1773 F 3500.0000
G01 X 31.7536 Y 10.3817 Z -1.0000
G01 X 31.7383 Y 10.3600 Z -1.0000
G02 X 31.6516 Y 10.3452 Z -1.0000 I -0.0853 J 0.2383
G02 X 31.6043 Y 10.3618 Z -1.0000 I 0.0004 J 0.0771
G01 X 31.6053 Y 10.3817 Z -1.0000
G01 X 31.6053 Y 10.3817 Z -1.0000
G00 Z 5.0000

(End cutting path id: path15372)


(Start cutting path id: path15372)
(Change tool to Default tool)

G00 Z 5.0000
G00 X 32.0232 Y 9.9253

G01 Z -1.0000 F 100.0000(Penetrate)
G02 X 32.0882 Y 9.9332 Z -1.0000 I 0.0620 J -0.2380 F 3500.0000
G02 X 32.1345 Y 9.9239 Z -1.0000 I -0.0015 J -0.1270
G01 X 32.1339 Y 9.9147 Z -1.0000
G02 X 32.0689 Y 9.9068 Z -1.0000 I -0.0620 J 0.2379
G02 X 32.0226 Y 9.9161 Z -1.0000 I 0.0016 J 0.1274
G01 X 32.0232 Y 9.9253 Z -1.0000
G01 X 32.0232 Y 9.9253 Z -1.0000
G00 Z 5.0000

(End cutting path id: path15372)


(Start cutting path id: path15372)
(Change tool to Default tool)

G00 Z 5.0000
G00 X 32.3748 Y 9.9984

G01 Z -1.0000 F 100.0000(Penetrate)
G03 X 32.4082 Y 10.0258 Z -1.0000 I -0.0269 J 0.0667 F 3500.0000
G03 X 32.4212 Y 10.0696 Z -1.0000 I -0.0673 J 0.0438
G02 X 32.4331 Y 10.1103 Z -1.0000 I 0.0754 J -0.0000
G01 X 32.4548 Y 10.1222 Z -1.0000
G01 X 32.4710 Y 10.1087 Z -1.0000
G02 X 32.4690 Y 10.0480 Z -1.0000 I -0.1352 J -0.0259
G02 X 32.4354 Y 9.9931 Z -1.0000 I -0.1075 J 0.0281
G02 X 32.3890 Y 9.9767 Z -1.0000 I -0.0433 J 0.0486
G01 X 32.3712 Y 9.9869 Z -1.0000
G01 X 32.3748 Y 9.9984 Z -1.0000
G01 X 32.3748 Y 9.9984 Z -1.0000
G00 Z 5.0000

(End cutting path id: path15372)


(Start cutting path id: path15372)
(Change tool to Default tool)

G00 Z 5.0000
G00 X 32.6649 Y 9.9696

G01 Z -1.0000 F 100.0000(Penetrate)
G01 X 32.6698 Y 9.9913 Z -1.0000 F 3500.0000
G02 X 32.7459 Y 10.0218 Z -1.0000 I 0.1166 J -0.1810
G02 X 32.8693 Y 10.0116 Z -1.0000 I 0.0434 J -0.2271
G01 X 32.8832 Y 9.9713 Z -1.0000
G02 X 32.7735 Y 9.9095 Z -1.0000 I -0.1107 J 0.0684
G02 X 32.6649 Y 9.9696 Z -1.0000 I -0.0010 J 0.1266
G01 X 32.6649 Y 9.9696 Z -1.0000
G00 Z 5.0000

(End cutting path id: path15372)


(Start cutting path id: path15372)
(Change tool to Default tool)

G00 Z 5.0000
G00 X 33.4325 Y 9.9995

G01 Z -1.0000 F 100.0000(Penetrate)
G02 X 33.4976 Y 10.0074 Z -1.0000 I 0.0620 J -0.2382 F 3500.0000
G02 X 33.5438 Y 9.9981 Z -1.0000 I -0.0015 J -0.1269
G01 X 33.5432 Y 9.9889 Z -1.0000
G02 X 33.4782 Y 9.9810 Z -1.0000 I -0.0620 J 0.2379
G02 X 33.4319 Y 9.9903 Z -1.0000 I 0.0016 J 0.1274
G01 X 33.4325 Y 9.9994 Z -1.0000
G01 X 33.4325 Y 9.9995 Z -1.0000
G00 Z 5.0000

(End cutting path id: path15372)


(Start cutting path id: path15372)
(Change tool to Default tool)

G00 Z 5.0000
G00 X 33.9047 Y 10.2334

G01 Z -1.0000 F 100.0000(Penetrate)
G01 X 33.9156 Y 10.2596 Z -1.0000 F 3500.0000
G01 X 33.9418 Y 10.2705 Z -1.0000
G01 X 33.9680 Y 10.2596 Z -1.0000
G01 X 33.9789 Y 10.2334 Z -1.0000
G01 X 33.9680 Y 10.2072 Z -1.0000
G01 X 33.9418 Y 10.1963 Z -1.0000
G01 X 33.9156 Y 10.2072 Z -1.0000
G01 X 33.9047 Y 10.2334 Z -1.0000
G01 X 33.9047 Y 10.2334 Z -1.0000
G00 Z 5.0000

(End cutting path id: path15372)


(Start cutting path id: path15372)
(Change tool to Default tool)

G00 Z 5.0000
G00 X 35.0028 Y 10.3292

G01 Z -1.0000 F 100.0000(Penetrate)
G01 X 35.0043 Y 10.3649 Z -1.0000 F 3500.0000
G01 X 35.0243 Y 10.3732 Z -1.0000
G02 X 35.0892 Y 10.3100 Z -1.0000 I -0.0329 J -0.0987
G01 X 35.0615 Y 10.2705 Z -1.0000
G01 X 35.0333 Y 10.2821 Z -1.0000
G02 X 35.0028 Y 10.3292 Z -1.0000 I 0.0954 J 0.0954
G01 X 35.0028 Y 10.3292 Z -1.0000
G00 Z 5.0000

(End cutting path id: path15372)


(Start cutting path id: path15372)
(Change tool to Default tool)

G00 Z 5.0000
G00 X 34.7944 Y 12.0673

G01 Z -1.0000 F 100.0000(Penetrate)
G02 X 34.8863 Y 12.1039 Z -1.0000 I 0.1894 J -0.3421 F 3500.0000
G01 X 34.9178 Y 12.0991 Z -1.0000
G03 X 34.9504 Y 12.0830 Z -1.0000 I 0.0995 J 0.1609
G03 X 35.0481 Y 12.0499 Z -1.0000 I 0.5366 J 1.4210
G01 X 35.0478 Y 12.0342 Z -1.0000
G02 X 34.9246 Y 12.0181 Z -1.0000 I -0.1274 J 0.4948
G02 X 34.7963 Y 12.0410 Z -1.0000 I -0.0031 J 0.3545
G01 X 34.7944 Y 12.0673 Z -1.0000
G01 X 34.7944 Y 12.0673 Z -1.0000
G00 Z 5.0000

(End cutting path id: path15372)


(Start cutting path id: path15372)
(Change tool to Default tool)

G00 Z 5.0000
G00 X 34.4610 Y 12.0136

G01 Z -1.0000 F 100.0000(Penetrate)
G02 X 34.4302 Y 12.0493 Z -1.0000 I 0.0413 J 0.0669 F 3500.0000
G01 X 34.4349 Y 12.0740 Z -1.0000
G01 X 34.4623 Y 12.0819 Z -1.0000
G02 X 34.5055 Y 12.0581 Z -1.0000 I -0.0195 J -0.0866
G01 X 34.5055 Y 12.0188 Z -1.0000
G01 X 34.4610 Y 12.0136 Z -1.0000
G01 X 34.4610 Y 12.0136 Z -1.0000
G00 Z 5.0000

(End cutting path id: path15372)


(Start cutting path id: path15372)
(Change tool to Default tool)

G00 Z 5.0000
G00 X 34.3127 Y 12.1836

G01 Z -1.0000 F 100.0000(Penetrate)
G01 X 34.2200 Y 12.2351 Z -1.0000 F 3500.0000
G01 X 34.3393 Y 12.2356 Z -1.0000
G02 X 34.4255 Y 12.2133 Z -1.0000 I 0.0008 J -0.1743
G01 X 34.4374 Y 12.1805 Z -1.0000
G02 X 34.4146 Y 12.1295 Z -1.0000 I -0.4857 J 0.1863
G01 X 34.4107 Y 12.1285 Z -1.0000
G03 X 34.4053 Y 12.1319 Z -1.0000 I -0.0395 J -0.0573
G03 X 34.3127 Y 12.1836 Z -1.0000 I -9.7789 J -17.4069
G01 X 34.3127 Y 12.1836 Z -1.0000
G00 Z 5.0000

(End cutting path id: path15372)


(Start cutting path id: path15372)
(Change tool to Default tool)

G00 Z 5.0000
G00 X 33.9655 Y 12.1063

G01 Z -1.0000 F 100.0000(Penetrate)
G02 X 33.9616 Y 12.1499 Z -1.0000 I 0.0747 J 0.0287 F 3500.0000
G01 X 33.9761 Y 12.1620 Z -1.0000
G01 X 34.0008 Y 12.1514 Z -1.0000
G02 X 34.0294 Y 12.1063 Z -1.0000 I -0.0976 J -0.0935
G02 X 34.0333 Y 12.0627 Z -1.0000 I -0.0747 J -0.0287
G01 X 34.0188 Y 12.0507 Z -1.0000
G01 X 33.9941 Y 12.0612 Z -1.0000
G02 X 33.9655 Y 12.1063 Z -1.0000 I 0.0976 J 0.0935
G01 X 33.9655 Y 12.1063 Z -1.0000
G00 Z 5.0000

(End cutting path id: path15372)


(Start cutting path id: path15372)
(Change tool to Default tool)

G00 Z 5.0000
G00 X 33.7494 Y 12.0760

G01 Z -1.0000 F 100.0000(Penetrate)
G02 X 33.7957 Y 12.0840 Z -1.0000 I 0.0417 J -0.1043 F 3500.0000
G01 X 33.8205 Y 12.0731 Z -1.0000
G01 X 33.8181 Y 12.0616 Z -1.0000
G02 X 33.7718 Y 12.0537 Z -1.0000 I -0.0417 J 0.1042
G01 X 33.7470 Y 12.0645 Z -1.0000
G01 X 33.7494 Y 12.0761 Z -1.0000
G01 X 33.7494 Y 12.0760 Z -1.0000
G00 Z 5.0000

(End cutting path id: path15372)


(Start cutting path id: path15372)
(Change tool to Default tool)

G00 Z 5.0000
G00 X 33.7494 Y 12.1502

G01 Z -1.0000 F 100.0000(Penetrate)
G02 X 33.7957 Y 12.1582 Z -1.0000 I 0.0417 J -0.1043 F 3500.0000
G01 X 33.8205 Y 12.1473 Z -1.0000
G01 X 33.8181 Y 12.1358 Z -1.0000
G02 X 33.7718 Y 12.1278 Z -1.0000 I -0.0417 J 0.1042
G01 X 33.7470 Y 12.1387 Z -1.0000
G01 X 33.7494 Y 12.1503 Z -1.0000
G01 X 33.7494 Y 12.1502 Z -1.0000
G00 Z 5.0000

(End cutting path id: path15372)


(Start cutting path id: path15372)
(Change tool to Default tool)

G00 Z 5.0000
G00 X 33.1166 Y 12.1865

G01 Z -1.0000 F 100.0000(Penetrate)
G02 X 33.1630 Y 12.1955 Z -1.0000 I 0.0464 J -0.1149 F 3500.0000
G02 X 33.2093 Y 12.1865 Z -1.0000 I 0.0000 J -0.1239
G01 X 33.2093 Y 12.1768 Z -1.0000
G02 X 33.1630 Y 12.1678 Z -1.0000 I -0.0464 J 0.1149
G02 X 33.1166 Y 12.1768 Z -1.0000 I -0.0000 J 0.1239
G01 X 33.1166 Y 12.1865 Z -1.0000
G01 X 33.1166 Y 12.1865 Z -1.0000
G00 Z 5.0000

(End cutting path id: path15372)


(Start cutting path id: path15372)
(Change tool to Default tool)

G00 Z 5.0000
G00 X 32.8964 Y 12.1873

G01 Z -1.0000 F 100.0000(Penetrate)
G02 X 32.9427 Y 12.1953 Z -1.0000 I 0.0417 J -0.1043 F 3500.0000
G01 X 32.9675 Y 12.1844 Z -1.0000
G01 X 32.9651 Y 12.1729 Z -1.0000
G02 X 32.9188 Y 12.1649 Z -1.0000 I -0.0417 J 0.1042
G01 X 32.8940 Y 12.1758 Z -1.0000
G01 X 32.8964 Y 12.1873 Z -1.0000
G01 X 32.8964 Y 12.1873 Z -1.0000
G00 Z 5.0000

(End cutting path id: path15372)


(Start cutting path id: path15372)
(Change tool to Default tool)

G00 Z 5.0000
G00 X 32.6715 Y 12.1495

G01 Z -1.0000 F 100.0000(Penetrate)
G02 X 32.7179 Y 12.1585 Z -1.0000 I 0.0464 J -0.1149 F 3500.0000
G02 X 32.7643 Y 12.1495 Z -1.0000 I 0.0000 J -0.1239
G01 X 32.7643 Y 12.1397 Z -1.0000
G02 X 32.7179 Y 12.1307 Z -1.0000 I -0.0464 J 0.1149
G02 X 32.6715 Y 12.1397 Z -1.0000 I -0.0000 J 0.1239
G01 X 32.6715 Y 12.1495 Z -1.0000
G01 X 32.6715 Y 12.1495 Z -1.0000
G00 Z 5.0000

(End cutting path id: path15372)


(Start cutting path id: path15372)
(Change tool to Default tool)

G00 Z 5.0000
G00 X 32.1523 Y 12.1123

G01 Z -1.0000 F 100.0000(Penetrate)
G02 X 32.1987 Y 12.1213 Z -1.0000 I 0.0464 J -0.1149 F 3500.0000
G02 X 32.2450 Y 12.1123 Z -1.0000 I 0.0000 J -0.1239
G01 X 32.2450 Y 12.1026 Z -1.0000
G02 X 32.1987 Y 12.0936 Z -1.0000 I -0.0464 J 0.1149
G02 X 32.1523 Y 12.1026 Z -1.0000 I -0.0000 J 0.1239
G01 X 32.1523 Y 12.1123 Z -1.0000
G01 X 32.1523 Y 12.1123 Z -1.0000
G00 Z 5.0000

(End cutting path id: path15372)


(Start cutting path id: path15372)
(Change tool to Default tool)

G00 Z 5.0000
G00 X 31.6611 Y 12.0503

G01 Z -1.0000 F 100.0000(Penetrate)
G01 X 31.6657 Y 12.0644 Z -1.0000 F 3500.0000
G01 X 31.6960 Y 12.0649 Z -1.0000
G02 X 31.7306 Y 12.0319 Z -1.0000 I -0.0223 J -0.0581
G01 X 31.7187 Y 12.0136 Z -1.0000
G02 X 31.6887 Y 12.0224 Z -1.0000 I 0.0000 J 0.0559
G02 X 31.6611 Y 12.0503 Z -1.0000 I 0.0472 J 0.0741
G01 X 31.6611 Y 12.0503 Z -1.0000
G00 Z 5.0000

(End cutting path id: path15372)


(Start cutting path id: path15372)
(Change tool to Default tool)

G00 Z 5.0000
G00 X 31.1683 Y 12.2026

G01 Z -1.0000 F 100.0000(Penetrate)
G01 X 31.1688 Y 12.2175 Z -1.0000 F 3500.0000
G02 X 31.3420 Y 12.2513 Z -1.0000 I 0.2966 J -1.0565
G02 X 31.5720 Y 12.2604 Z -1.0000 I 0.1772 J -1.5666
G02 X 31.6140 Y 12.2422 Z -1.0000 I -0.0021 J -0.0623
G02 X 31.5808 Y 12.1506 Z -1.0000 I -0.0380 J -0.0380
G02 X 31.1683 Y 12.2026 Z -1.0000 I -0.0867 J 0.9744
G01 X 31.1683 Y 12.2026 Z -1.0000
G00 Z 5.0000

(End cutting path id: path15372)


(Start cutting path id: path15372)
(Change tool to Default tool)

G00 Z 5.0000
G00 X 31.3759 Y 13.0576

G01 Z -1.0000 F 100.0000(Penetrate)
G01 X 31.3709 Y 13.0733 Z -1.0000 F 3500.0000
G01 X 31.4013 Y 13.0891 Z -1.0000
G01 X 31.4280 Y 13.1069 Z -1.0000
G01 X 31.4198 Y 13.1262 Z -1.0000
G01 X 31.4201 Y 13.1422 Z -1.0000
G02 X 31.5364 Y 13.1596 Z -1.0000 I 0.1243 J -0.4339
G02 X 31.7307 Y 13.1411 Z -1.0000 I 0.0152 J -0.8672
G01 X 31.7657 Y 13.1112 Z -1.0000
G01 X 31.7528 Y 13.0798 Z -1.0000
G02 X 31.6238 Y 13.0463 Z -1.0000 I -0.1594 J 0.3482
G02 X 31.4629 Y 13.0435 Z -1.0000 I -0.1022 J 1.2815
G02 X 31.3759 Y 13.0576 Z -1.0000 I 0.0176 J 0.3852
G01 X 31.3759 Y 13.0576 Z -1.0000
G00 Z 5.0000

(End cutting path id: path15372)


(Start cutting path id: path15372)
(Change tool to Default tool)

G00 Z 5.0000
G00 X 31.8371 Y 13.0984

G01 Z -1.0000 F 100.0000(Penetrate)
G02 X 31.8613 Y 13.1315 Z -1.0000 I 0.0636 J -0.0212 F 3500.0000
G02 X 31.8958 Y 13.1411 Z -1.0000 I 0.0301 J -0.0415
G03 X 31.9391 Y 13.1379 Z -1.0000 I 0.1544 J 1.8371
G03 X 32.0503 Y 13.1318 Z -1.0000 I 0.6941 J 11.5000
G01 X 32.0695 Y 13.0914 Z -1.0000
G02 X 31.9916 Y 13.0520 Z -1.0000 I -0.0779 J 0.0574
G02 X 31.8504 Y 13.0728 Z -1.0000 I -0.0000 J 0.4915
G01 X 31.8371 Y 13.0984 Z -1.0000
G01 X 31.8371 Y 13.0984 Z -1.0000
G00 Z 5.0000

(End cutting path id: path15372)


(Start cutting path id: path15372)
(Change tool to Default tool)

G00 Z 5.0000
G00 X 30.8295 Y 13.0654

G01 Z -1.0000 F 100.0000(Penetrate)
G02 X 30.9954 Y 13.1378 Z -1.0000 I 0.1998 J -0.2317 F 3500.0000
G01 X 31.0489 Y 13.0899 Z -1.0000
G01 X 31.0330 Y 13.0680 Z -1.0000
G02 X 30.9315 Y 13.0521 Z -1.0000 I -0.1015 J 0.3155
G02 X 30.8315 Y 13.0586 Z -1.0000 I -0.0000 J 0.7711
G01 X 30.8295 Y 13.0654 Z -1.0000
G01 X 30.8295 Y 13.0654 Z -1.0000
G00 Z 5.0000

(End cutting path id: path15372)


(Start cutting path id: path15372)
(Change tool to Default tool)

G00 Z 5.0000
G00 X 30.0677 Y 12.0482

G01 Z -1.0000 F 100.0000(Penetrate)
G03 X 30.0354 Y 12.0739 Z -1.0000 I -0.0522 J -0.0323 F 3500.0000
G03 X 29.9526 Y 12.0878 Z -1.0000 I -0.0828 J -0.2403
G02 X 29.8765 Y 12.1021 Z -1.0000 I 0.0000 J 0.2095
G01 X 29.8621 Y 12.1231 Z -1.0000
G02 X 29.9418 Y 12.1961 Z -1.0000 I 0.0733 J 0.0000
G02 X 30.3072 Y 12.0839 Z -1.0000 I -0.0803 J -0.9126
G01 X 30.3108 Y 12.0661 Z -1.0000
G01 X 30.2824 Y 12.0518 Z -1.0000
G03 X 30.2031 Y 12.0448 Z -1.0000 I 0.0075 J -0.5361
G03 X 30.1471 Y 12.0296 Z -1.0000 I 0.0462 J -0.2816
G02 X 30.0981 Y 12.0263 Z -1.0000 I -0.0299 J 0.0779
G01 X 30.0677 Y 12.0482 Z -1.0000
G01 X 30.0677 Y 12.0482 Z -1.0000
G00 Z 5.0000

(End cutting path id: path15372)


(Start cutting path id: path15372)
(Change tool to Default tool)

G00 Z 5.0000
G00 X 29.4727 Y 12.1620

G01 Z -1.0000 F 100.0000(Penetrate)
G01 X 29.4703 Y 12.1877 Z -1.0000 F 3500.0000
G01 X 29.4869 Y 12.1991 Z -1.0000
G02 X 29.5189 Y 12.1900 Z -1.0000 I -0.0000 J -0.0609
G02 X 29.5469 Y 12.1620 Z -1.0000 I -0.0453 J -0.0733
G01 X 29.5493 Y 12.1363 Z -1.0000
G01 X 29.5327 Y 12.1249 Z -1.0000
G02 X 29.5007 Y 12.1340 Z -1.0000 I 0.0000 J 0.0609
G02 X 29.4727 Y 12.1620 Z -1.0000 I 0.0453 J 0.0733
G01 X 29.4727 Y 12.1620 Z -1.0000
G00 Z 5.0000

(End cutting path id: path15372)


(Start cutting path id: path15372)
(Change tool to Default tool)

G00 Z 5.0000
G00 X 29.5283 Y 12.3474

G01 Z -1.0000 F 100.0000(Penetrate)
G01 X 29.5336 Y 12.3654 Z -1.0000 F 3500.0000
G02 X 29.6210 Y 12.3474 Z -1.0000 I -0.0000 J -0.2213
G02 X 29.6460 Y 12.3247 Z -1.0000 I -0.0204 J -0.0475
G01 X 29.6396 Y 12.3135 Z -1.0000
G02 X 29.5864 Y 12.3204 Z -1.0000 I -0.0058 J 0.1624
G02 X 29.5283 Y 12.3474 Z -1.0000 I 0.0673 J 0.2210
G01 X 29.5283 Y 12.3474 Z -1.0000
G00 Z 5.0000

(End cutting path id: path15372)


(Start cutting path id: path15372)
(Change tool to Default tool)

G00 Z 5.0000
G00 X 29.0833 Y 12.3391

G01 Z -1.0000 F 100.0000(Penetrate)
G01 X 29.0963 Y 12.3535 Z -1.0000 F 3500.0000
G02 X 29.2316 Y 12.3537 Z -1.0000 I 0.0688 J -0.6970
G02 X 29.3731 Y 12.3333 Z -1.0000 I -0.1414 J -1.4792
G01 X 29.3800 Y 12.3249 Z -1.0000
G01 X 29.3730 Y 12.3172 Z -1.0000
G02 X 29.2316 Y 12.3103 Z -1.0000 I -0.1414 J 1.4384
G02 X 29.0963 Y 12.3233 Z -1.0000 I -0.0000 J 0.7102
G01 X 29.0833 Y 12.3391 Z -1.0000
G01 X 29.0833 Y 12.3391 Z -1.0000
G00 Z 5.0000

(End cutting path id: path15372)


(Start cutting path id: path15372)
(Change tool to Default tool)

G00 Z 5.0000
G00 X 28.4342 Y 12.0878

G01 Z -1.0000 F 100.0000(Penetrate)
G02 X 28.4622 Y 12.1158 Z -1.0000 I 0.0733 J -0.0453 F 3500.0000
G02 X 28.4942 Y 12.1249 Z -1.0000 I 0.0320 J -0.0518
G01 X 28.5108 Y 12.1134 Z -1.0000
G01 X 28.5084 Y 12.0878 Z -1.0000
G02 X 28.4804 Y 12.0598 Z -1.0000 I -0.0733 J 0.0453
G02 X 28.4484 Y 12.0507 Z -1.0000 I -0.0320 J 0.0518
G01 X 28.4318 Y 12.0621 Z -1.0000
G01 X 28.4342 Y 12.0878 Z -1.0000
G01 X 28.4342 Y 12.0878 Z -1.0000
G00 Z 5.0000

(End cutting path id: path15372)


(Start cutting path id: path15372)
(Change tool to Default tool)

G00 Z 5.0000
G00 X 27.7987 Y 12.2443

G01 Z -1.0000 F 100.0000(Penetrate)
G01 X 27.8041 Y 12.2602 Z -1.0000 F 3500.0000
G02 X 27.8757 Y 12.2732 Z -1.0000 I 0.0716 J -0.1903
G02 X 27.9563 Y 12.2589 Z -1.0000 I 0.0000 J -0.2343
G01 X 27.9706 Y 12.2385 Z -1.0000
G02 X 27.9099 Y 12.1798 Z -1.0000 I -0.0587 J 0.0000
G02 X 27.7987 Y 12.2443 Z -1.0000 I 0.0046 J 0.1360
G01 X 27.7987 Y 12.2443 Z -1.0000
G00 Z 5.0000

(End cutting path id: path15372)


(Start cutting path id: path15372)
(Change tool to Default tool)

G00 Z 5.0000
G00 X 27.1176 Y 12.0878

G01 Z -1.0000 F 100.0000(Penetrate)
G01 X 27.1206 Y 12.1073 Z -1.0000 F 3500.0000
G02 X 27.2660 Y 12.1293 Z -1.0000 I 0.1619 J -0.5780
G03 X 27.4699 Y 12.1361 Z -1.0000 I -0.5001 J 18.1000
G03 X 27.7481 Y 12.1481 Z -1.0000 I -1.2798 J 32.8893
G02 X 28.2275 Y 12.1310 Z -1.0000 I 0.1367 J -2.8855
G01 X 28.2673 Y 12.0861 Z -1.0000
G02 X 28.0059 Y 11.8250 Z -1.0000 I -0.2611 J 0.0000
G02 X 27.1176 Y 12.0878 Z -1.0000 I 0.0023 J 1.6403
G01 X 27.1176 Y 12.0878 Z -1.0000
G00 Z 5.0000

(End cutting path id: path15372)


(Start cutting path id: path15372)
(Change tool to Default tool)

G00 Z 5.0000
G00 X 26.6818 Y 11.5951

G01 Z -1.0000 F 100.0000(Penetrate)
G02 X 26.7838 Y 11.6028 Z -1.0000 I 0.1020 J -0.6732 F 3500.0000
G02 X 26.8858 Y 11.5951 Z -1.0000 I 0.0000 J -0.6808
G01 X 26.8858 Y 11.5874 Z -1.0000
G02 X 26.7838 Y 11.5797 Z -1.0000 I -0.1020 J 0.6733
G02 X 26.6818 Y 11.5874 Z -1.0000 I 0.0000 J 0.6798
G01 X 26.6818 Y 11.5951 Z -1.0000
G01 X 26.6818 Y 11.5951 Z -1.0000
G00 Z 5.0000

(End cutting path id: path15372)


(Start cutting path id: path15372)
(Change tool to Default tool)

G00 Z 5.0000
G00 X 26.0334 Y 11.6325

G01 Z -1.0000 F 100.0000(Penetrate)
G02 X 26.1545 Y 11.6399 Z -1.0000 I 0.1192 J -0.9575 F 3500.0000
G02 X 26.2560 Y 11.6321 Z -1.0000 I -0.0013 J -0.6832
G01 X 26.2559 Y 11.6245 Z -1.0000
G02 X 26.1348 Y 11.6171 Z -1.0000 I -0.1194 J 0.9657
G02 X 26.0333 Y 11.6249 Z -1.0000 I 0.0012 J 0.6840
G01 X 26.0334 Y 11.6325 Z -1.0000
G01 X 26.0334 Y 11.6325 Z -1.0000
G00 Z 5.0000

(End cutting path id: path15372)


(Start cutting path id: path15372)
(Change tool to Default tool)

G00 Z 5.0000
G00 X 26.1093 Y 12.1873

G01 Z -1.0000 F 100.0000(Penetrate)
G02 X 26.1556 Y 12.1953 Z -1.0000 I 0.0417 J -0.1043 F 3500.0000
G01 X 26.1804 Y 12.1844 Z -1.0000
G01 X 26.1780 Y 12.1729 Z -1.0000
G02 X 26.1317 Y 12.1649 Z -1.0000 I -0.0417 J 0.1042
G01 X 26.1069 Y 12.1758 Z -1.0000
G01 X 26.1093 Y 12.1873 Z -1.0000
G01 X 26.1093 Y 12.1873 Z -1.0000
G00 Z 5.0000

(End cutting path id: path15372)


(Start cutting path id: path15372)
(Change tool to Default tool)

G00 Z 5.0000
G00 X 26.2831 Y 13.2624

G01 Z -1.0000 F 100.0000(Penetrate)
G02 X 26.1446 Y 13.3181 Z -1.0000 I 0.0984 J 0.4447 F 3500.0000
G01 X 26.1366 Y 13.3516 Z -1.0000
G01 X 26.1646 Y 13.3673 Z -1.0000
G02 X 26.2020 Y 13.3519 Z -1.0000 I 0.0002 J -0.0526
G03 X 26.2469 Y 13.3227 Z -1.0000 I 0.0912 J 0.0911
G03 X 26.3069 Y 13.3115 Z -1.0000 I 0.0600 J 0.1560
G02 X 26.3649 Y 13.2998 Z -1.0000 I -0.0000 J -0.1486
G02 X 26.3944 Y 13.2744 Z -1.0000 I -0.0250 J -0.0590
G01 X 26.3857 Y 13.2567 Z -1.0000
G02 X 26.2831 Y 13.2624 Z -1.0000 I -0.0342 J 0.3149
G01 X 26.2831 Y 13.2624 Z -1.0000
G00 Z 5.0000

(End cutting path id: path15372)


(Start cutting path id: path15372)
(Change tool to Default tool)

G00 Z 5.0000
G00 X 25.2261 Y 13.2890

G01 Z -1.0000 F 100.0000(Penetrate)
G02 X 25.2757 Y 13.3471 Z -1.0000 I 0.0588 J -0.0000 F 3500.0000
G02 X 25.3569 Y 13.3099 Z -1.0000 I 0.0127 J -0.0796
G01 X 25.3523 Y 13.2892 Z -1.0000
G02 X 25.3025 Y 13.2744 Z -1.0000 I -0.0498 J 0.0765
G02 X 25.2327 Y 13.2810 Z -1.0000 I 0.0000 J 0.3707
G01 X 25.2261 Y 13.2890 Z -1.0000
G01 X 25.2261 Y 13.2890 Z -1.0000
G00 Z 5.0000

(End cutting path id: path15372)


(Start cutting path id: path15372)
(Change tool to Default tool)

G00 Z 5.0000
G00 X 25.0592 Y 13.3115

G01 Z -1.0000 F 100.0000(Penetrate)
G01 X 25.0723 Y 13.3350 Z -1.0000 F 3500.0000
G02 X 25.1519 Y 13.3115 Z -1.0000 I 0.0000 J -0.1467
G01 X 25.1616 Y 13.2889 Z -1.0000
G01 X 25.1448 Y 13.2750 Z -1.0000
G02 X 25.0886 Y 13.2862 Z -1.0000 I -0.0013 J 0.1401
G02 X 25.0592 Y 13.3115 Z -1.0000 I 0.0252 J 0.0591
G01 X 25.0592 Y 13.3115 Z -1.0000
G00 Z 5.0000

(End cutting path id: path15372)


(Start cutting path id: path15372)
(Change tool to Default tool)

G00 Z 5.0000
G00 X 24.3290 Y 12.1873

G01 Z -1.0000 F 100.0000(Penetrate)
G02 X 24.3754 Y 12.1953 Z -1.0000 I 0.0417 J -0.1043 F 3500.0000
G01 X 24.4001 Y 12.1844 Z -1.0000
G01 X 24.3978 Y 12.1729 Z -1.0000
G02 X 24.3515 Y 12.1649 Z -1.0000 I -0.0417 J 0.1042
G01 X 24.3267 Y 12.1758 Z -1.0000
G01 X 24.3290 Y 12.1873 Z -1.0000
G01 X 24.3290 Y 12.1873 Z -1.0000
G00 Z 5.0000

(End cutting path id: path15372)


(Start cutting path id: path15372)
(Change tool to Default tool)

G00 Z 5.0000
G00 X 24.8652 Y 11.8909

G01 Z -1.0000 F 100.0000(Penetrate)
G02 X 24.9302 Y 11.8989 Z -1.0000 I 0.0620 J -0.2381 F 3500.0000
G02 X 24.9765 Y 11.8895 Z -1.0000 I -0.0015 J -0.1270
G01 X 24.9759 Y 11.8804 Z -1.0000
G02 X 24.9109 Y 11.8724 Z -1.0000 I -0.0620 J 0.2379
G02 X 24.8646 Y 11.8817 Z -1.0000 I 0.0016 J 0.1274
G01 X 24.8652 Y 11.8909 Z -1.0000
G01 X 24.8652 Y 11.8909 Z -1.0000
G00 Z 5.0000

(End cutting path id: path15372)


(Start cutting path id: path15372)
(Change tool to Default tool)

G00 Z 5.0000
G00 X 23.6615 Y 12.2244

G01 Z -1.0000 F 100.0000(Penetrate)
G02 X 23.7078 Y 12.2323 Z -1.0000 I 0.0417 J -0.1043 F 3500.0000
G01 X 23.7325 Y 12.2215 Z -1.0000
G01 X 23.7302 Y 12.2099 Z -1.0000
G02 X 23.6839 Y 12.2020 Z -1.0000 I -0.0417 J 0.1042
G01 X 23.6591 Y 12.2129 Z -1.0000
G01 X 23.6615 Y 12.2244 Z -1.0000
G01 X 23.6615 Y 12.2244 Z -1.0000
G00 Z 5.0000

(End cutting path id: path15372)


(Start cutting path id: path15372)
(Change tool to Default tool)

G00 Z 5.0000
G00 X 23.5386 Y 12.2732

G01 Z -1.0000 F 100.0000(Penetrate)
G01 X 23.5369 Y 12.2985 Z -1.0000 F 3500.0000
G01 X 23.5550 Y 12.3103 Z -1.0000
G01 X 23.5831 Y 12.2992 Z -1.0000
G01 X 23.5942 Y 12.2732 Z -1.0000
G02 X 23.5878 Y 12.2426 Z -1.0000 I -0.0758 J -0.0000
G01 X 23.5779 Y 12.2361 Z -1.0000
G01 X 23.5645 Y 12.2415 Z -1.0000
G02 X 23.5386 Y 12.2732 Z -1.0000 I 0.1084 J 0.1148
G01 X 23.5386 Y 12.2732 Z -1.0000
G00 Z 5.0000

(End cutting path id: path15372)


(Start cutting path id: path15372)
(Change tool to Default tool)

G00 Z 5.0000
G00 X 22.9730 Y 11.9650

G01 Z -1.0000 F 100.0000(Penetrate)
G02 X 23.0379 Y 11.9733 Z -1.0000 I 0.0649 J -0.2492 F 3500.0000
G02 X 23.1028 Y 11.9650 Z -1.0000 I -0.0000 J -0.2574
G01 X 23.1028 Y 11.9564 Z -1.0000
G02 X 23.0379 Y 11.9480 Z -1.0000 I -0.0649 J 0.2481
G02 X 22.9730 Y 11.9564 Z -1.0000 I -0.0000 J 0.2570
G01 X 22.9730 Y 11.9650 Z -1.0000
G01 X 22.9730 Y 11.9650 Z -1.0000
G00 Z 5.0000

(End cutting path id: path15372)


(Start cutting path id: path15372)
(Change tool to Default tool)

G00 Z 5.0000
G00 X 22.7968 Y 13.3859

G01 Z -1.0000 F 100.0000(Penetrate)
G02 X 22.8227 Y 13.4176 Z -1.0000 I 0.1343 J -0.0830 F 3500.0000
G01 X 22.8361 Y 13.4230 Z -1.0000
G01 X 22.8460 Y 13.4165 Z -1.0000
G02 X 22.8525 Y 13.3859 Z -1.0000 I -0.0695 J -0.0306
G01 X 22.8413 Y 13.3599 Z -1.0000
G01 X 22.8132 Y 13.3488 Z -1.0000
G01 X 22.7951 Y 13.3606 Z -1.0000
G01 X 22.7968 Y 13.3859 Z -1.0000
G01 X 22.7968 Y 13.3859 Z -1.0000
G00 Z 5.0000

(End cutting path id: path15372)


(Start cutting path id: path15372)
(Change tool to Default tool)

G00 Z 5.0000
G00 X 23.3277 Y 13.3741

G01 Z -1.0000 F 100.0000(Penetrate)
G02 X 23.3740 Y 13.3821 Z -1.0000 I 0.0417 J -0.1043 F 3500.0000
G01 X 23.3988 Y 13.3712 Z -1.0000
G01 X 23.3964 Y 13.3597 Z -1.0000
G02 X 23.3501 Y 13.3517 Z -1.0000 I -0.0417 J 0.1042
G01 X 23.3253 Y 13.3626 Z -1.0000
G01 X 23.3277 Y 13.3741 Z -1.0000
G01 X 23.3277 Y 13.3741 Z -1.0000
G00 Z 5.0000

(End cutting path id: path15372)


(Start cutting path id: path15372)
(Change tool to Default tool)

G00 Z 5.0000
G00 X 23.4760 Y 13.3370

G01 Z -1.0000 F 100.0000(Penetrate)
G02 X 23.5223 Y 13.3450 Z -1.0000 I 0.0417 J -0.1043 F 3500.0000
G01 X 23.5471 Y 13.3341 Z -1.0000
G01 X 23.5447 Y 13.3226 Z -1.0000
G02 X 23.4984 Y 13.3147 Z -1.0000 I -0.0417 J 0.1042
G01 X 23.4737 Y 13.3255 Z -1.0000
G01 X 23.4760 Y 13.3371 Z -1.0000
G01 X 23.4760 Y 13.3370 Z -1.0000
G00 Z 5.0000

(End cutting path id: path15372)


(Start cutting path id: path15372)
(Change tool to Default tool)

G00 Z 5.0000
G00 X 22.5929 Y 10.1592

G01 Z -1.0000 F 100.0000(Penetrate)
G01 X 22.6034 Y 10.1858 Z -1.0000 F 3500.0000
G01 X 22.6278 Y 10.1963 Z -1.0000
G02 X 22.6577 Y 10.1875 Z -1.0000 I 0.0000 J -0.0555
G02 X 22.6856 Y 10.1592 Z -1.0000 I -0.0484 J -0.0754
G01 X 22.6833 Y 10.1362 Z -1.0000
G01 X 22.6507 Y 10.1221 Z -1.0000
G02 X 22.6060 Y 10.1352 Z -1.0000 I 0.0000 J 0.0828
G01 X 22.5929 Y 10.1592 Z -1.0000
G01 X 22.5929 Y 10.1592 Z -1.0000
G00 Z 5.0000

(End cutting path id: path15372)


(Start cutting path id: path15372)
(Change tool to Default tool)

G00 Z 5.0000
G00 X 23.1306 Y 9.9367

G01 Z -1.0000 F 100.0000(Penetrate)
G02 X 23.1604 Y 9.9615 Z -1.0000 I 0.0520 J -0.0322 F 3500.0000
G02 X 23.2255 Y 9.9738 Z -1.0000 I 0.0651 J -0.1667
G02 X 23.2835 Y 9.9597 Z -1.0000 I -0.0000 J -0.1265
G01 X 23.2975 Y 9.9367 Z -1.0000
G01 X 23.2825 Y 9.9146 Z -1.0000
G02 X 23.2026 Y 9.8996 Z -1.0000 I -0.0799 J 0.2044
G02 X 23.1365 Y 9.9156 Z -1.0000 I 0.0000 J 0.1444
G01 X 23.1306 Y 9.9367 Z -1.0000
G01 X 23.1306 Y 9.9367 Z -1.0000
G00 Z 5.0000

(End cutting path id: path15372)


(Start cutting path id: path15372)
(Change tool to Default tool)

G00 Z 5.0000
G00 X 18.7357 Y 10.9590

G01 Z -1.0000 F 100.0000(Penetrate)
G03 X 18.7279 Y 11.0151 Z -1.0000 I -0.2044 J -0.0000 F 3500.0000
G03 X 18.7002 Y 11.0835 Z -1.0000 I -0.3328 J -0.0950
G01 X 18.7073 Y 11.1321 Z -1.0000
G02 X 18.8092 Y 11.1931 Z -1.0000 I 0.1712 J -0.1702
G03 X 18.9666 Y 11.3156 Z -1.0000 I -0.0791 J 0.2639
G03 X 18.9570 Y 11.4403 Z -1.0000 I -0.0929 J 0.0555
G03 X 18.7945 Y 11.5401 Z -1.0000 I -0.2284 J -0.1896
G03 X 18.4529 Y 11.5551 Z -1.0000 I -0.2120 J -0.9302
G01 X 18.2992 Y 11.5341 Z -1.0000
G01 X 18.3365 Y 11.6811 Z -1.0000
G02 X 18.3825 Y 11.8170 Z -1.0000 I 0.8928 J -0.2266
G01 X 18.3995 Y 11.8282 Z -1.0000
G01 X 18.4217 Y 11.8201 Z -1.0000
G02 X 18.5317 Y 11.7169 Z -1.0000 I -0.9051 J -1.0757
G03 X 18.6448 Y 11.6208 Z -1.0000 I 0.5253 J 0.5033
G03 X 18.6935 Y 11.6057 Z -1.0000 I 0.0487 J 0.0708
G01 X 18.7065 Y 11.6239 Z -1.0000
G03 X 18.6615 Y 11.6984 Z -1.0000 I -0.1962 J -0.0676
G02 X 18.6211 Y 11.7709 Z -1.0000 I 0.1246 J 0.1171
G01 X 18.6365 Y 11.7911 Z -1.0000
G01 X 18.6516 Y 11.8270 Z -1.0000
G03 X 18.5502 Y 11.8795 Z -1.0000 I -0.1301 J -0.1269
G02 X 18.4176 Y 11.9166 Z -1.0000 I 0.0957 J 0.5985
G01 X 18.4019 Y 11.9399 Z -1.0000
G01 X 18.3874 Y 11.9622 Z -1.0000
G03 X 18.3184 Y 11.9771 Z -1.0000 I -0.0702 J -0.1573
G02 X 18.2378 Y 11.9873 Z -1.0000 I 0.0023 J 0.3418
G02 X 18.1819 Y 12.0113 Z -1.0000 I 0.0464 J 0.1857
G01 X 18.1811 Y 12.0348 Z -1.0000
G02 X 18.2617 Y 12.0698 Z -1.0000 I 0.1171 J -0.1595
G02 X 18.4880 Y 12.0682 Z -1.0000 I 0.1091 J -0.5816
G01 X 18.5213 Y 12.0172 Z -1.0000
G01 X 18.5301 Y 11.9910 Z -1.0000
G01 X 18.5584 Y 11.9854 Z -1.0000
G03 X 18.6116 Y 12.0637 Z -1.0000 I -0.0247 J 0.0740
G03 X 18.5498 Y 12.1436 Z -1.0000 I -0.0887 J -0.0048
G01 X 18.5201 Y 12.1766 Z -1.0000
G01 X 18.5351 Y 12.2156 Z -1.0000
G03 X 18.5468 Y 12.3072 Z -1.0000 I -0.0376 J 0.0514
G03 X 18.3870 Y 12.3968 Z -1.0000 I -0.1939 J -0.1585
G03 X 18.0910 Y 12.3339 Z -1.0000 I -0.0606 J -0.4424
G03 X 18.0895 Y 12.2123 Z -1.0000 I 0.0380 J -0.0613
G02 X 18.1289 Y 12.1547 Z -1.0000 I -0.0501 J -0.0765
G01 X 18.1092 Y 12.1191 Z -1.0000
G03 X 18.0674 Y 12.0565 Z -1.0000 I 0.0223 J -0.0602
G03 X 18.1144 Y 11.9847 Z -1.0000 I 0.0832 J 0.0032
G01 X 18.1212 Y 11.9609 Z -1.0000
G01 X 18.0866 Y 11.9414 Z -1.0000
G03 X 18.0306 Y 11.9229 Z -1.0000 I 0.0029 J -0.1025
G01 X 18.0310 Y 11.9024 Z -1.0000
G03 X 18.0899 Y 11.8774 Z -1.0000 I 0.1009 J 0.1561
G03 X 18.1886 Y 11.8659 Z -1.0000 I 0.1012 J 0.4366
G02 X 18.2485 Y 11.8220 Z -1.0000 I -0.0004 J -0.0633
G02 X 18.2516 Y 11.6706 Z -1.0000 I -0.2509 J -0.0809
G02 X 18.1798 Y 11.5523 Z -1.0000 I -0.2459 J 0.0683
G01 X 18.1422 Y 11.5686 Z -1.0000
G01 X 18.1257 Y 11.5892 Z -1.0000
G03 X 17.9754 Y 11.6057 Z -1.0000 I -0.1504 J -0.6767
G03 X 17.8611 Y 11.5584 Z -1.0000 I 0.0000 J -0.1615
G01 X 17.8641 Y 11.4944 Z -1.0000
G02 X 17.9130 Y 11.3750 Z -1.0000 I -0.0877 J -0.1056
G02 X 17.8379 Y 11.2361 Z -1.0000 I -0.2043 J 0.0207
G01 X 17.7561 Y 11.1699 Z -1.0000
G01 X 17.8753 Y 11.1437 Z -1.0000
G02 X 17.9698 Y 11.1070 Z -1.0000 I -0.0708 J -0.3223
G01 X 17.9751 Y 11.0860 Z -1.0000
G01 X 17.9899 Y 11.0502 Z -1.0000
G03 X 18.3071 Y 11.0070 Z -1.0000 I 0.3781 J 1.5895
G02 X 18.5906 Y 10.9775 Z -1.0000 I -0.0804 J -2.1528
G02 X 18.6397 Y 10.9500 Z -1.0000 I -0.0142 J -0.0829
G03 X 18.7041 Y 10.9243 Z -1.0000 I 0.0572 J 0.0499
G01 X 18.7357 Y 10.9591 Z -1.0000
G01 X 18.7357 Y 10.9590 Z -1.0000
G00 Z 5.0000

(End cutting path id: path15372)


(Start cutting path id: path15372)
(Change tool to Default tool)

G00 Z 5.0000
G00 X 18.3277 Y 11.3809

G01 Z -1.0000 F 100.0000(Penetrate)
G01 X 18.3062 Y 11.4296 Z -1.0000 F 3500.0000
G02 X 18.4112 Y 11.4845 Z -1.0000 I 0.1155 J -0.0931
G02 X 18.6790 Y 11.4838 Z -1.0000 I 0.1295 J -1.8137
G01 X 18.6986 Y 11.4626 Z -1.0000
G03 X 18.7086 Y 11.4319 Z -1.0000 I 0.0519 J 0.0000
G01 X 18.7264 Y 11.4246 Z -1.0000
G02 X 18.7543 Y 11.4267 Z -1.0000 I 0.0269 J -0.1716
G02 X 18.8099 Y 11.4240 Z -1.0000 I -0.0037 J -0.6576
G01 X 18.8239 Y 11.4088 Z -1.0000
G01 X 18.8099 Y 11.3831 Z -1.0000
G02 X 18.7525 Y 11.3560 Z -1.0000 I -0.1297 J 0.2008
G02 X 18.7172 Y 11.3537 Z -1.0000 I -0.0224 J 0.0707
G03 X 18.6798 Y 11.3583 Z -1.0000 I -0.0623 J -0.3533
G03 X 18.3277 Y 11.3809 Z -1.0000 I -2.2284 J -31.8718
G01 X 18.3277 Y 11.3809 Z -1.0000
G00 Z 5.0000

(End cutting path id: path15372)


(Start cutting path id: path15372)
(Change tool to Default tool)

G00 Z 5.0000
G00 X 18.1052 Y 11.1213

G01 Z -1.0000 F 100.0000(Penetrate)
G01 X 18.1438 Y 11.1685 Z -1.0000 F 3500.0000
G02 X 18.3840 Y 11.1775 Z -1.0000 I 0.1475 J -0.7326
G01 X 18.4116 Y 11.1300 Z -1.0000
G02 X 18.3463 Y 11.0864 Z -1.0000 I -0.0653 J 0.0271
G02 X 18.1214 Y 11.1026 Z -1.0000 I 0.0000 J 1.5699
G01 X 18.1052 Y 11.1213 Z -1.0000
G01 X 18.1052 Y 11.1213 Z -1.0000
G00 Z 5.0000

(End cutting path id: path15372)


(Start cutting path id: path15372)
(Change tool to Default tool)

G00 Z 5.0000
G00 X 17.9754 Y 11.5315

G01 Z -1.0000 F 100.0000(Penetrate)
G01 X 17.9730 Y 11.5572 Z -1.0000 F 3500.0000
G01 X 17.9896 Y 11.5686 Z -1.0000
G02 X 18.0216 Y 11.5595 Z -1.0000 I 0.0000 J -0.0609
G02 X 18.0496 Y 11.5315 Z -1.0000 I -0.0453 J -0.0733
G01 X 18.0520 Y 11.5058 Z -1.0000
G01 X 18.0354 Y 11.4944 Z -1.0000
G02 X 18.0034 Y 11.5035 Z -1.0000 I -0.0000 J 0.0609
G02 X 17.9754 Y 11.5315 Z -1.0000 I 0.0453 J 0.0733
G01 X 17.9754 Y 11.5315 Z -1.0000
G00 Z 5.0000

(End cutting path id: path15372)


(Start cutting path id: path15372)
(Change tool to Default tool)

G00 Z 5.0000
G00 X 18.0867 Y 12.2732

G01 Z -1.0000 F 100.0000(Penetrate)
G01 X 18.0953 Y 12.2927 Z -1.0000 F 3500.0000
G02 X 18.2906 Y 12.3103 Z -1.0000 I 0.1953 J -1.0741
G02 X 18.4860 Y 12.2927 Z -1.0000 I -0.0000 J -1.0917
G01 X 18.4946 Y 12.2732 Z -1.0000
G01 X 18.4630 Y 12.2517 Z -1.0000
G02 X 18.2906 Y 12.2361 Z -1.0000 I -0.1724 J 0.9481
G02 X 18.1183 Y 12.2517 Z -1.0000 I -0.0000 J 0.9637
G01 X 18.0867 Y 12.2732 Z -1.0000
G01 X 18.0867 Y 12.2732 Z -1.0000
G00 Z 5.0000

(End cutting path id: path15372)


(Start cutting path id: path15372)
(Change tool to Default tool)

G00 Z 5.0000
G00 X 18.0969 Y 12.4235

G01 Z -1.0000 F 100.0000(Penetrate)
G02 X 18.2812 Y 12.5014 Z -1.0000 I 0.3399 J -0.5467 F 3500.0000
G02 X 18.3751 Y 12.4928 Z -1.0000 I 0.0346 J -0.1389
G03 X 18.5178 Y 12.4957 Z -1.0000 I 0.0683 J 0.1499
G03 X 18.5474 Y 12.5800 Z -1.0000 I -0.0291 J 0.0575
G03 X 18.4102 Y 12.7421 Z -1.0000 I -0.3562 J -0.1623
G03 X 18.3320 Y 12.7253 Z -1.0000 I -0.0310 J -0.0460
G02 X 18.3008 Y 12.7013 Z -1.0000 I -0.0476 J 0.0295
G02 X 18.1238 Y 12.6617 Z -1.0000 I -0.3465 J 1.1334
G03 X 17.9751 Y 12.6089 Z -1.0000 I 0.0575 J -0.3980
G01 X 17.9847 Y 12.5786 Z -1.0000
G02 X 18.1293 Y 12.5765 Z -1.0000 I 0.0605 J -0.8064
G01 X 18.1423 Y 12.5621 Z -1.0000
G01 X 18.1317 Y 12.5396 Z -1.0000
G02 X 17.9939 Y 12.4401 Z -1.0000 I -0.8639 J 1.0507
G03 X 17.8527 Y 12.3426 Z -1.0000 I 1.1135 J -1.7638
G01 X 17.8456 Y 12.3284 Z -1.0000
G01 X 17.8701 Y 12.3114 Z -1.0000
G03 X 18.0969 Y 12.4235 Z -1.0000 I -0.4610 J 1.2184
G01 X 18.0969 Y 12.4235 Z -1.0000
G00 Z 5.0000

(End cutting path id: path15372)


(Start cutting path id: path15372)
(Change tool to Default tool)

G00 Z 5.0000
G00 X 18.3834 Y 12.5699

G01 Z -1.0000 F 100.0000(Penetrate)
G01 X 18.3857 Y 12.5930 Z -1.0000 F 3500.0000
G01 X 18.4183 Y 12.6070 Z -1.0000
G02 X 18.4630 Y 12.5939 Z -1.0000 I -0.0000 J -0.0828
G01 X 18.4761 Y 12.5699 Z -1.0000
G01 X 18.4656 Y 12.5434 Z -1.0000
G01 X 18.4412 Y 12.5328 Z -1.0000
G02 X 18.4112 Y 12.5416 Z -1.0000 I -0.0000 J 0.0555
G02 X 18.3834 Y 12.5699 Z -1.0000 I 0.0484 J 0.0754
G01 X 18.3834 Y 12.5699 Z -1.0000
G00 Z 5.0000

(End cutting path id: path15372)


(Start cutting path id: path15372)
(Change tool to Default tool)

G00 Z 5.0000
G00 X 17.0297 Y 13.2744

G01 Z -1.0000 F 100.0000(Penetrate)
G01 X 16.8998 Y 13.3018 Z -1.0000 F 3500.0000
G01 X 17.0367 Y 13.3067 Z -1.0000
G02 X 17.1654 Y 13.2961 Z -1.0000 I 0.0197 J -0.5505
G01 X 17.1965 Y 13.2745 Z -1.0000
G01 X 17.1874 Y 13.2580 Z -1.0000
G02 X 17.0297 Y 13.2745 Z -1.0000 I -0.0000 J 0.7659
G01 X 17.0297 Y 13.2744 Z -1.0000
G00 Z 5.0000

(End cutting path id: path15372)


(Start cutting path id: path15372)
(Change tool to Default tool)

G00 Z 5.0000
G00 X 16.0213 Y 12.9290

G01 Z -1.0000 F 100.0000(Penetrate)
G02 X 16.0676 Y 12.9370 Z -1.0000 I 0.0417 J -0.1043 F 3500.0000
G01 X 16.0924 Y 12.9261 Z -1.0000
G01 X 16.0900 Y 12.9146 Z -1.0000
G02 X 16.0437 Y 12.9067 Z -1.0000 I -0.0417 J 0.1042
G01 X 16.0190 Y 12.9175 Z -1.0000
G01 X 16.0213 Y 12.9291 Z -1.0000
G01 X 16.0213 Y 12.9290 Z -1.0000
G00 Z 5.0000

(End cutting path id: path15372)


(Start cutting path id: path15372)
(Change tool to Default tool)

G00 Z 5.0000
G00 X 15.5832 Y 12.8666

G01 Z -1.0000 F 100.0000(Penetrate)
G01 X 15.5941 Y 12.8929 Z -1.0000 F 3500.0000
G01 X 15.6203 Y 12.9037 Z -1.0000
G01 X 15.6465 Y 12.8929 Z -1.0000
G01 X 15.6574 Y 12.8666 Z -1.0000
G01 X 15.6465 Y 12.8404 Z -1.0000
G01 X 15.6203 Y 12.8295 Z -1.0000
G01 X 15.5941 Y 12.8404 Z -1.0000
G01 X 15.5832 Y 12.8666 Z -1.0000
G01 X 15.5832 Y 12.8666 Z -1.0000
G00 Z 5.0000

(End cutting path id: path15372)


(Start cutting path id: path15372)
(Change tool to Default tool)

G00 Z 5.0000
G00 X 15.5758 Y 13.0966

G01 Z -1.0000 F 100.0000(Penetrate)
G02 X 15.6203 Y 13.1150 Z -1.0000 I 0.0445 J -0.0445 F 3500.0000
G02 X 15.6648 Y 13.0966 Z -1.0000 I -0.0000 J -0.0629
G01 X 15.6648 Y 13.0705 Z -1.0000
G02 X 15.6203 Y 13.0521 Z -1.0000 I -0.0445 J 0.0445
G02 X 15.5758 Y 13.0705 Z -1.0000 I -0.0000 J 0.0629
G01 X 15.5758 Y 13.0966 Z -1.0000
G01 X 15.5758 Y 13.0966 Z -1.0000
G00 Z 5.0000

(End cutting path id: path15372)


(Start cutting path id: path15372)
(Change tool to Default tool)

G00 Z 5.0000
G00 X 15.6261 Y 13.2708

G01 Z -1.0000 F 100.0000(Penetrate)
G01 X 15.6359 Y 13.3169 Z -1.0000 F 3500.0000
G02 X 16.0278 Y 13.3251 Z -1.0000 I 0.2317 J -1.7153
G02 X 16.2656 Y 13.2921 Z -1.0000 I -0.2473 J -2.6598
G01 X 16.2692 Y 13.2805 Z -1.0000
G02 X 16.0011 Y 13.1671 Z -1.0000 I -0.2738 J 0.2738
G02 X 15.6261 Y 13.2708 Z -1.0000 I -0.0102 J 0.6935
G01 X 15.6261 Y 13.2708 Z -1.0000
G00 Z 5.0000

(End cutting path id: path15372)


(Start cutting path id: path15372)
(Change tool to Default tool)

G00 Z 5.0000
G00 X 15.2050 Y 13.2626

G01 Z -1.0000 F 100.0000(Penetrate)
G01 X 15.2172 Y 13.2869 Z -1.0000 F 3500.0000
G03 X 15.1865 Y 13.3327 Z -1.0000 I -0.0819 J -0.0217
G01 X 15.1757 Y 13.3650 Z -1.0000
G01 X 15.2012 Y 13.3846 Z -1.0000
G02 X 15.2739 Y 13.3699 Z -1.0000 I 0.0025 J -0.1740
G02 X 15.3125 Y 13.3356 Z -1.0000 I -0.0340 J -0.0772
G03 X 15.3486 Y 13.2931 Z -1.0000 I 0.1414 J 0.0835
G03 X 15.3978 Y 13.2643 Z -1.0000 I 0.1098 J 0.1314
G01 X 15.3970 Y 13.2536 Z -1.0000
G02 X 15.3051 Y 13.2433 Z -1.0000 I -0.0920 J 0.4052
G02 X 15.2060 Y 13.2528 Z -1.0000 I -0.0000 J 0.5217
G01 X 15.2050 Y 13.2627 Z -1.0000
G01 X 15.2050 Y 13.2626 Z -1.0000
G00 Z 5.0000

(End cutting path id: path15372)


(Start cutting path id: path15372)
(Change tool to Default tool)

G00 Z 5.0000
G00 X 14.9898 Y 13.2723

G01 Z -1.0000 F 100.0000(Penetrate)
G01 X 15.0243 Y 13.3129 Z -1.0000 F 3500.0000
G02 X 15.0933 Y 13.2892 Z -1.0000 I 0.0124 J -0.0760
G01 X 15.0974 Y 13.2566 Z -1.0000
G01 X 15.0654 Y 13.2374 Z -1.0000
G02 X 15.0034 Y 13.2511 Z -1.0000 I 0.0000 J 0.1480
G01 X 14.9898 Y 13.2723 Z -1.0000
G01 X 14.9898 Y 13.2723 Z -1.0000
G00 Z 5.0000

(End cutting path id: path15372)


(Start cutting path id: path15372)
(Change tool to Default tool)

G00 Z 5.0000
G00 X 15.0570 Y 13.5595

G01 Z -1.0000 F 100.0000(Penetrate)
G02 X 15.1033 Y 13.5675 Z -1.0000 I 0.0417 J -0.1043 F 3500.0000
G01 X 15.1281 Y 13.5566 Z -1.0000
G01 X 15.1258 Y 13.5451 Z -1.0000
G02 X 15.0794 Y 13.5372 Z -1.0000 I -0.0417 J 0.1042
G01 X 15.0547 Y 13.5480 Z -1.0000
G01 X 15.0570 Y 13.5596 Z -1.0000
G01 X 15.0570 Y 13.5595 Z -1.0000
G00 Z 5.0000

(End cutting path id: path15372)


(Start cutting path id: path15372)
(Change tool to Default tool)

G00 Z 5.0000
G00 X 14.9156 Y 13.5735

G01 Z -1.0000 F 100.0000(Penetrate)
G01 X 14.9274 Y 13.5916 Z -1.0000 F 3500.0000
G01 X 14.9527 Y 13.5899 Z -1.0000
G02 X 14.9845 Y 13.5640 Z -1.0000 I -0.0830 J -0.1343
G01 X 14.9898 Y 13.5506 Z -1.0000
G01 X 14.9834 Y 13.5407 Z -1.0000
G02 X 14.9527 Y 13.5342 Z -1.0000 I -0.0306 J 0.0695
G01 X 14.9268 Y 13.5454 Z -1.0000
G01 X 14.9156 Y 13.5735 Z -1.0000
G01 X 14.9156 Y 13.5735 Z -1.0000
G00 Z 5.0000

(End cutting path id: path15372)


(Start cutting path id: path15372)
(Change tool to Default tool)

G00 Z 5.0000
G00 X 14.5818 Y 13.2714

G01 Z -1.0000 F 100.0000(Penetrate)
G01 X 14.4149 Y 13.2943 Z -1.0000 F 3500.0000
G01 X 14.5757 Y 13.3184 Z -1.0000
G02 X 14.7338 Y 13.3225 Z -1.0000 I 0.0957 J -0.6384
G02 X 14.8539 Y 13.2914 Z -1.0000 I -0.0384 J -0.3956
G01 X 14.9713 Y 13.2403 Z -1.0000
G01 X 14.8600 Y 13.2444 Z -1.0000
G02 X 14.7490 Y 13.2519 Z -1.0000 I 0.0710 J 1.8889
G02 X 14.5818 Y 13.2714 Z -1.0000 I 0.4085 J 4.2232
G01 X 14.5818 Y 13.2714 Z -1.0000
G00 Z 5.0000

(End cutting path id: path15372)


(Start cutting path id: path15372)
(Change tool to Default tool)

G00 Z 5.0000
G00 X 14.7858 Y 13.0050

G01 Z -1.0000 F 100.0000(Penetrate)
G02 X 14.7154 Y 13.0292 Z -1.0000 I 0.0826 J 0.3548 F 3500.0000
G02 X 14.6764 Y 13.0557 Z -1.0000 I 0.0609 J 0.1316
G01 X 14.6927 Y 13.0963 Z -1.0000
G02 X 15.2309 Y 13.0538 Z -1.0000 I -0.0122 J -3.5750
G02 X 15.2903 Y 13.0304 Z -1.0000 I -0.0226 J -0.1449
G01 X 15.2865 Y 13.0162 Z -1.0000
G02 X 15.1567 Y 13.0076 Z -1.0000 I -11.4090 J 169.6710
G03 X 15.0084 Y 12.9977 Z -1.0000 I 21.5776 J -324.5574
G02 X 14.8606 Y 12.9951 Z -1.0000 I -0.0992 J 1.4717
G02 X 14.7858 Y 13.0050 Z -1.0000 I 0.0127 J 0.3855
G01 X 14.7858 Y 13.0050 Z -1.0000
G00 Z 5.0000

(End cutting path id: path15372)


(Start cutting path id: path15372)
(Change tool to Default tool)

G00 Z 5.0000
G00 X 14.3593 Y 13.5343

G01 Z -1.0000 F 100.0000(Penetrate)
G01 X 14.3619 Y 13.5519 Z -1.0000 F 3500.0000
G02 X 14.4628 Y 13.5646 Z -1.0000 I 0.0897 J -0.3057
G02 X 14.5720 Y 13.5454 Z -1.0000 I -0.0142 J -0.4004
G01 X 14.5741 Y 13.5286 Z -1.0000
G02 X 14.4702 Y 13.4999 Z -1.0000 I -0.0991 J 0.1562
G02 X 14.3593 Y 13.5342 Z -1.0000 I 0.0056 J 0.2144
G01 X 14.3593 Y 13.5343 Z -1.0000
G00 Z 5.0000

(End cutting path id: path15372)


(Start cutting path id: path15372)
(Change tool to Default tool)

G00 Z 5.0000
G00 X 13.7735 Y 13.1835

G01 Z -1.0000 F 100.0000(Penetrate)
G01 X 13.7693 Y 13.2272 Z -1.0000 F 3500.0000
G02 X 13.8291 Y 13.2778 Z -1.0000 I 0.1023 J -0.0604
G02 X 14.1588 Y 13.3431 Z -1.0000 I 0.3542 J -0.9240
G02 X 14.3361 Y 13.2904 Z -1.0000 I 0.0074 J -0.2998
G01 X 14.3406 Y 13.2563 Z -1.0000
G02 X 14.2744 Y 13.2180 Z -1.0000 I -0.0873 J 0.0744
G02 X 14.1440 Y 13.2059 Z -1.0000 I -0.1304 J 0.6948
G02 X 14.0656 Y 13.2180 Z -1.0000 I 0.0000 J 0.2591
G03 X 14.0002 Y 13.2174 Z -1.0000 I -0.0319 J -0.1005
G03 X 13.9657 Y 13.1844 Z -1.0000 I 0.0178 J -0.0531
G02 X 13.8893 Y 13.1316 Z -1.0000 I -0.0768 J 0.0295
G02 X 13.7735 Y 13.1835 Z -1.0000 I -0.0007 J 0.1535
G01 X 13.7735 Y 13.1835 Z -1.0000
G00 Z 5.0000

(End cutting path id: path15372)


(Start cutting path id: path15372)
(Change tool to Default tool)

G00 Z 5.0000
G00 X 12.9500 Y 13.2715

G01 Z -1.0000 F 100.0000(Penetrate)
G02 X 12.7895 Y 13.3029 Z -1.0000 I 0.0449 J 0.6552 F 3500.0000
G01 X 12.7908 Y 13.3239 Z -1.0000
G02 X 12.9461 Y 13.3408 Z -1.0000 I 0.1755 J -0.8889
G02 X 13.0272 Y 13.3292 Z -1.0000 I 0.0056 J -0.2498
G03 X 13.0735 Y 13.3303 Z -1.0000 I 0.0215 J 0.0678
G01 X 13.0798 Y 13.3487 Z -1.0000
G01 X 13.0880 Y 13.3682 Z -1.0000
G02 X 13.1679 Y 13.3683 Z -1.0000 I 0.0402 J -0.1807
G03 X 13.2669 Y 13.3638 Z -1.0000 I 0.0626 J 0.2852
G01 X 13.2838 Y 13.3829 Z -1.0000
G01 X 13.2975 Y 13.4091 Z -1.0000
G02 X 13.3416 Y 13.4229 Z -1.0000 I 0.0441 J -0.0636
G01 X 13.3742 Y 13.4088 Z -1.0000
G01 X 13.3765 Y 13.3858 Z -1.0000
G01 X 13.3810 Y 13.3640 Z -1.0000
G03 X 13.4299 Y 13.3487 Z -1.0000 I 0.0489 J 0.0705
G02 X 13.4920 Y 13.3344 Z -1.0000 I 0.0000 J -0.1421
G01 X 13.5063 Y 13.3116 Z -1.0000
G01 X 13.4943 Y 13.2864 Z -1.0000
G02 X 13.4599 Y 13.2740 Z -1.0000 I -0.0349 J 0.0431
G03 X 13.4137 Y 13.2714 Z -1.0000 I 0.0056 J -0.5108
G03 X 13.3394 Y 13.2617 Z -1.0000 I 0.1329 J -1.3047
G02 X 13.2649 Y 13.2567 Z -1.0000 I -0.0642 J 0.4032
G02 X 12.9500 Y 13.2715 Z -1.0000 I 0.1824 J 7.2610
G01 X 12.9500 Y 13.2715 Z -1.0000
G00 Z 5.0000

(End cutting path id: path15372)


(Start cutting path id: path15372)
(Change tool to Default tool)

G00 Z 5.0000
G00 X 12.5791 Y 13.3881

G01 Z -1.0000 F 100.0000(Penetrate)
G01 X 12.5909 Y 13.4062 Z -1.0000 F 3500.0000
G01 X 12.6162 Y 13.4044 Z -1.0000
G02 X 12.6479 Y 13.3785 Z -1.0000 I -0.0830 J -0.1343
G01 X 12.6533 Y 13.3651 Z -1.0000
G01 X 12.6468 Y 13.3552 Z -1.0000
