%
(Header)
(Generated by gcodetools from Inkscape.)
(Using default header. To add your own header create file "header" in the output dir.)
M3
(Header end.)
G21 (All units in mm)

(Start cutting path id: path78042)
(Change tool to Default tool)

G00 Z 5.0000
G00 X 9.8510 Y 0.2144

G01 Z -1.0000 F 100.0000(Penetrate)
G01 X 9.8535 Y 0.2278 Z -1.0000 F 3500.0000
G02 X 9.8647 Y 0.2498 Z -1.0000 I 0.1131 J -0.0439
G01 X 9.8784 Y 0.2569 Z -1.0000
G01 X 9.8759 Y 0.2434 Z -1.0000
G02 X 9.8647 Y 0.2215 Z -1.0000 I -0.1131 J 0.0439
G01 X 9.8510 Y 0.2144 Z -1.0000
G01 X 9.8510 Y 0.2144 Z -1.0000
G00 Z 5.0000

(End cutting path id: path78042)


(Start cutting path id: path78042)
(Change tool to Default tool)

G00 Z 5.0000
G00 X 10.7992 Y 1.5308

G01 Z -1.0000 F 100.0000(Penetrate)
G01 X 10.8033 Y 1.5402 Z -1.0000 F 3500.0000
G01 X 10.8077 Y 1.5393 Z -1.0000
G01 X 10.8107 Y 1.5217 Z -1.0000
G01 X 10.8066 Y 1.5122 Z -1.0000
G01 X 10.8022 Y 1.5131 Z -1.0000
G01 X 10.7992 Y 1.5308 Z -1.0000
G01 X 10.7992 Y 1.5308 Z -1.0000
G00 Z 5.0000

(End cutting path id: path78042)


(Start cutting path id: path78042)
(Change tool to Default tool)

G00 Z 5.0000
G00 X 10.8840 Y 1.7288

G01 Z -1.0000 F 100.0000(Penetrate)
G01 X 10.8881 Y 1.7382 Z -1.0000 F 3500.0000
G01 X 10.8925 Y 1.7373 Z -1.0000
G01 X 10.8956 Y 1.7196 Z -1.0000
G01 X 10.8914 Y 1.7102 Z -1.0000
G01 X 10.8870 Y 1.7111 Z -1.0000
G01 X 10.8840 Y 1.7287 Z -1.0000
G01 X 10.8840 Y 1.7288 Z -1.0000
G00 Z 5.0000

(End cutting path id: path78042)


(Start cutting path id: path78042)
(Change tool to Default tool)

G00 Z 5.0000
G00 X 10.9112 Y 2.1308

G01 Z -1.0000 F 100.0000(Penetrate)
G01 X 10.9153 Y 2.1408 Z -1.0000 F 3500.0000
G01 X 10.9253 Y 2.1449 Z -1.0000
G01 X 10.9353 Y 2.1408 Z -1.0000
G01 X 10.9394 Y 2.1308 Z -1.0000
G01 X 10.9353 Y 2.1208 Z -1.0000
G01 X 10.9253 Y 2.1166 Z -1.0000
G01 X 10.9153 Y 2.1208 Z -1.0000
G01 X 10.9112 Y 2.1308 Z -1.0000
G01 X 10.9112 Y 2.1308 Z -1.0000
G00 Z 5.0000

(End cutting path id: path78042)


(Start cutting path id: path78042)
(Change tool to Default tool)

G00 Z 5.0000
G00 X 10.7776 Y 2.6033

G01 Z -1.0000 F 100.0000(Penetrate)
G02 X 10.8046 Y 2.6182 Z -1.0000 I 0.0709 J -0.0970 F 3500.0000
G01 X 10.8117 Y 2.6167 Z -1.0000
G01 X 10.8100 Y 2.5984 Z -1.0000
G02 X 10.7635 Y 2.5835 Z -1.0000 I -0.0479 J 0.0696
G01 X 10.7776 Y 2.6033 Z -1.0000
G01 X 10.7776 Y 2.6033 Z -1.0000
G00 Z 5.0000

(End cutting path id: path78042)


(Start cutting path id: path78042)
(Change tool to Default tool)

G00 Z 5.0000
G00 X 10.7132 Y 2.8614

G01 Z -1.0000 F 100.0000(Penetrate)
G02 X 10.7392 Y 2.9210 Z -1.0000 I 0.0811 J 0.0000 F 3500.0000
G01 X 10.7769 Y 2.9203 Z -1.0000
G01 X 10.7774 Y 2.9134 Z -1.0000
G02 X 10.7485 Y 2.8802 Z -1.0000 I -0.1812 J 0.1284
G02 X 10.7181 Y 2.8584 Z -1.0000 I -0.0964 J 0.1026
G01 X 10.7132 Y 2.8614 Z -1.0000
G01 X 10.7132 Y 2.8614 Z -1.0000
G00 Z 5.0000

(End cutting path id: path78042)


(Start cutting path id: path78042)
(Change tool to Default tool)

G00 Z 5.0000
G00 X 9.8647 Y 3.4654

G01 Z -1.0000 F 100.0000(Penetrate)
G01 X 9.8665 Y 3.4698 Z -1.0000 F 3500.0000
G02 X 9.8894 Y 3.4902 Z -1.0000 I 0.1791 J -0.1787
G01 X 9.8944 Y 3.4899 Z -1.0000
G01 X 9.8947 Y 3.4849 Z -1.0000
G02 X 9.8702 Y 3.4625 Z -1.0000 I -0.0790 J 0.0619
G01 X 9.8647 Y 3.4655 Z -1.0000
G01 X 9.8647 Y 3.4654 Z -1.0000
G00 Z 5.0000

(End cutting path id: path78042)


(Start cutting path id: path78042)
(Change tool to Default tool)

G00 Z 5.0000
G00 X 10.1475 Y 3.7703

G01 Z -1.0000 F 100.0000(Penetrate)
G01 X 10.1508 Y 3.7818 Z -1.0000 F 3500.0000
G01 X 10.1615 Y 3.7923 Z -1.0000
G01 X 10.1669 Y 3.7906 Z -1.0000
G01 X 10.1671 Y 3.7790 Z -1.0000
G01 X 10.1545 Y 3.7658 Z -1.0000
G01 X 10.1475 Y 3.7704 Z -1.0000
G01 X 10.1475 Y 3.7703 Z -1.0000
G00 Z 5.0000

(End cutting path id: path78042)


(Start cutting path id: path78042)
(Change tool to Default tool)

G00 Z 5.0000
G00 X 10.1121 Y 4.2519

G01 Z -1.0000 F 100.0000(Penetrate)
G02 X 10.1220 Y 4.2640 Z -1.0000 I 0.0505 J -0.0311 F 3500.0000
G01 X 10.1271 Y 4.2660 Z -1.0000
G01 X 10.1309 Y 4.2636 Z -1.0000
G01 X 10.1333 Y 4.2519 Z -1.0000
G01 X 10.1291 Y 4.2420 Z -1.0000
G01 X 10.1183 Y 4.2378 Z -1.0000
G01 X 10.1115 Y 4.2423 Z -1.0000
G01 X 10.1121 Y 4.2519 Z -1.0000
G01 X 10.1121 Y 4.2519 Z -1.0000
G00 Z 5.0000

(End cutting path id: path78042)


(Start cutting path id: path78042)
(Change tool to Default tool)

G00 Z 5.0000
G00 X 9.8505 Y 4.3635

G01 Z -1.0000 F 100.0000(Penetrate)
G01 X 9.8540 Y 4.3757 Z -1.0000 F 3500.0000
G01 X 9.8647 Y 4.3864 Z -1.0000
G01 X 9.8744 Y 4.3873 Z -1.0000
G01 X 9.8788 Y 4.3810 Z -1.0000
G01 X 9.8753 Y 4.3687 Z -1.0000
G01 X 9.8647 Y 4.3581 Z -1.0000
G01 X 9.8549 Y 4.3571 Z -1.0000
G01 X 9.8505 Y 4.3635 Z -1.0000
G01 X 9.8505 Y 4.3635 Z -1.0000
G00 Z 5.0000

(End cutting path id: path78042)


(Start cutting path id: path78042)
(Change tool to Default tool)

G00 Z 5.0000
G00 X 10.1687 Y 4.7470

G01 Z -1.0000 F 100.0000(Penetrate)
G02 X 10.1786 Y 4.7591 Z -1.0000 I 0.0505 J -0.0311 F 3500.0000
G01 X 10.1837 Y 4.7611 Z -1.0000
G01 X 10.1875 Y 4.7587 Z -1.0000
G01 X 10.1899 Y 4.7470 Z -1.0000
G01 X 10.1856 Y 4.7371 Z -1.0000
G01 X 10.1749 Y 4.7329 Z -1.0000
G01 X 10.1680 Y 4.7374 Z -1.0000
G01 X 10.1687 Y 4.7470 Z -1.0000
G01 X 10.1687 Y 4.7470 Z -1.0000
G00 Z 5.0000

(End cutting path id: path78042)


(Start cutting path id: path78042)
(Change tool to Default tool)

G00 Z 5.0000
G00 X 9.8505 Y 4.9944

G01 Z -1.0000 F 100.0000(Penetrate)
G02 X 9.8837 Y 5.0233 Z -1.0000 I 0.1601 J -0.1504 F 3500.0000
G01 X 9.8906 Y 5.0228 Z -1.0000
G01 X 9.8902 Y 4.9856 Z -1.0000
G02 X 9.8247 Y 4.9591 Z -1.0000 I -0.0656 J 0.0679
G01 X 9.8505 Y 4.9944 Z -1.0000
G01 X 9.8505 Y 4.9944 Z -1.0000
G00 Z 5.0000

(End cutting path id: path78042)


(Start cutting path id: path78042)
(Change tool to Default tool)

G00 Z 5.0000
G00 X 9.3131 Y 5.5585

G01 Z -1.0000 F 100.0000(Penetrate)
G01 X 9.3173 Y 5.5773 Z -1.0000 F 3500.0000
G01 X 9.3273 Y 5.5884 Z -1.0000
G01 X 9.3361 Y 5.5877 Z -1.0000
G01 X 9.3414 Y 5.5759 Z -1.0000
G01 X 9.3372 Y 5.5571 Z -1.0000
G01 X 9.3273 Y 5.5460 Z -1.0000
G01 X 9.3184 Y 5.5467 Z -1.0000
G01 X 9.3131 Y 5.5585 Z -1.0000
G01 X 9.3131 Y 5.5585 Z -1.0000
G00 Z 5.0000

(End cutting path id: path78042)


(Start cutting path id: path78042)
(Change tool to Default tool)

G00 Z 5.0000
G00 X 9.1858 Y 5.6859

G01 Z -1.0000 F 100.0000(Penetrate)
G01 X 9.2047 Y 5.7080 Z -1.0000 F 3500.0000
G01 X 9.2357 Y 5.6939 Z -1.0000
G01 X 9.2340 Y 5.6860 Z -1.0000
G01 X 9.2150 Y 5.6804 Z -1.0000
G02 X 9.1884 Y 5.6829 Z -1.0000 I 0.0000 J 0.1415
G01 X 9.1858 Y 5.6860 Z -1.0000
G01 X 9.1858 Y 5.6859 Z -1.0000
G00 Z 5.0000

(End cutting path id: path78042)


(Start cutting path id: path78042)
(Change tool to Default tool)

G00 Z 5.0000
G00 X 9.0727 Y 5.8642

G01 Z -1.0000 F 100.0000(Penetrate)
G01 X 9.0770 Y 5.8741 Z -1.0000 F 3500.0000
G01 X 9.0877 Y 5.8784 Z -1.0000
G01 X 9.0946 Y 5.8739 Z -1.0000
G01 X 9.0939 Y 5.8642 Z -1.0000
G02 X 9.0840 Y 5.8521 Z -1.0000 I -0.0508 J 0.0313
G01 X 9.0789 Y 5.8501 Z -1.0000
G01 X 9.0752 Y 5.8526 Z -1.0000
G01 X 9.0727 Y 5.8642 Z -1.0000
G01 X 9.0727 Y 5.8642 Z -1.0000
G00 Z 5.0000

(End cutting path id: path78042)


(Start cutting path id: path78042)
(Change tool to Default tool)

G00 Z 5.0000
G00 X 8.6555 Y 5.8076

G01 Z -1.0000 F 100.0000(Penetrate)
G01 X 8.6666 Y 5.8176 Z -1.0000 F 3500.0000
G01 X 8.6846 Y 5.8218 Z -1.0000
G01 X 8.7002 Y 5.8169 Z -1.0000
G01 X 8.7050 Y 5.8076 Z -1.0000
G01 X 8.6996 Y 5.7989 Z -1.0000
G02 X 8.6759 Y 5.7935 Z -1.0000 I -0.0237 J 0.0488
G01 X 8.6572 Y 5.7993 Z -1.0000
G01 X 8.6555 Y 5.8076 Z -1.0000
G01 X 8.6555 Y 5.8076 Z -1.0000
G00 Z 5.0000

(End cutting path id: path78042)


(Start cutting path id: path78042)
(Change tool to Default tool)

G00 Z 5.0000
G00 X 9.6384 Y 5.9333

G01 Z -1.0000 F 100.0000(Penetrate)
G01 X 9.6419 Y 5.9455 Z -1.0000 F 3500.0000
G01 X 9.6525 Y 5.9562 Z -1.0000
G01 X 9.6623 Y 5.9571 Z -1.0000
G01 X 9.6667 Y 5.9508 Z -1.0000
G01 X 9.6632 Y 5.9386 Z -1.0000
G01 X 9.6525 Y 5.9279 Z -1.0000
G01 X 9.6428 Y 5.9270 Z -1.0000
G01 X 9.6384 Y 5.9333 Z -1.0000
G01 X 9.6384 Y 5.9333 Z -1.0000
G00 Z 5.0000

(End cutting path id: path78042)


(Start cutting path id: path78042)
(Change tool to Default tool)

G00 Z 5.0000
G00 X 10.6001 Y 6.5837

G01 Z -1.0000 F 100.0000(Penetrate)
G01 X 10.6035 Y 6.5960 Z -1.0000 F 3500.0000
G01 X 10.6142 Y 6.6066 Z -1.0000
G01 X 10.6240 Y 6.6075 Z -1.0000
G01 X 10.6283 Y 6.6012 Z -1.0000
G01 X 10.6248 Y 6.5890 Z -1.0000
G01 X 10.6142 Y 6.5783 Z -1.0000
G01 X 10.6044 Y 6.5774 Z -1.0000
G01 X 10.6001 Y 6.5837 Z -1.0000
G01 X 10.6001 Y 6.5837 Z -1.0000
G00 Z 5.0000

(End cutting path id: path78042)


(Start cutting path id: path78042)
(Change tool to Default tool)

G00 Z 5.0000
G00 X 11.0248 Y 6.8188

G01 Z -1.0000 F 100.0000(Penetrate)
G01 X 11.0273 Y 6.8322 Z -1.0000 F 3500.0000
G02 X 11.0385 Y 6.8542 Z -1.0000 I 0.1147 J -0.0447
G01 X 11.0522 Y 6.8613 Z -1.0000
G01 X 11.0496 Y 6.8478 Z -1.0000
G02 X 11.0385 Y 6.8259 Z -1.0000 I -0.1147 J 0.0447
G01 X 11.0248 Y 6.8188 Z -1.0000
G01 X 11.0248 Y 6.8188 Z -1.0000
G00 Z 5.0000

(End cutting path id: path78042)


(Start cutting path id: path78042)
(Change tool to Default tool)

G00 Z 5.0000
G00 X 11.2114 Y 6.8058

G01 Z -1.0000 F 100.0000(Penetrate)
G02 X 11.2358 Y 6.8253 Z -1.0000 I 0.0852 J -0.0816 F 3500.0000
G01 X 11.2425 Y 6.8245 Z -1.0000
G01 X 11.2426 Y 6.8186 Z -1.0000
G02 X 11.2181 Y 6.7990 Z -1.0000 I -0.0856 J 0.0819
G01 X 11.2114 Y 6.7999 Z -1.0000
G01 X 11.2113 Y 6.8058 Z -1.0000
G01 X 11.2114 Y 6.8058 Z -1.0000
G00 Z 5.0000

(End cutting path id: path78042)


(Start cutting path id: path78042)
(Change tool to Default tool)

G00 Z 5.0000
G00 X 10.9401 Y 6.9885

G01 Z -1.0000 F 100.0000(Penetrate)
G02 X 10.9544 Y 7.0348 Z -1.0000 I 0.0784 J 0.0013 F 3500.0000
G01 X 10.9739 Y 7.0365 Z -1.0000
G01 X 10.9757 Y 7.0285 Z -1.0000
G02 X 10.9610 Y 7.0016 Z -1.0000 I -0.0982 J 0.0362
G02 X 10.9443 Y 6.9862 Z -1.0000 I -0.0503 J 0.0381
G01 X 10.9401 Y 6.9885 Z -1.0000
G01 X 10.9401 Y 6.9885 Z -1.0000
G00 Z 5.0000

(End cutting path id: path78042)


(Start cutting path id: path78042)
(Change tool to Default tool)

G00 Z 5.0000
G00 X 10.9629 Y 7.1589

G01 Z -1.0000 F 100.0000(Penetrate)
G01 X 10.9834 Y 7.1768 Z -1.0000 F 3500.0000
G01 X 10.9960 Y 7.1668 Z -1.0000
G01 X 10.9920 Y 7.1570 Z -1.0000
G01 X 10.9755 Y 7.1463 Z -1.0000
G01 X 10.9651 Y 7.1485 Z -1.0000
G01 X 10.9629 Y 7.1589 Z -1.0000
G01 X 10.9629 Y 7.1589 Z -1.0000
G00 Z 5.0000

(End cutting path id: path78042)


(Start cutting path id: path78042)
(Change tool to Default tool)

G00 Z 5.0000
G00 X 11.3151 Y 7.4098

G01 Z -1.0000 F 100.0000(Penetrate)
G01 X 11.3265 Y 7.4272 Z -1.0000 F 3500.0000
G01 X 11.3327 Y 7.4272 Z -1.0000
G01 X 11.3344 Y 7.4192 Z -1.0000
G01 X 11.3230 Y 7.4018 Z -1.0000
G01 X 11.3168 Y 7.4018 Z -1.0000
G01 X 11.3151 Y 7.4097 Z -1.0000
G01 X 11.3151 Y 7.4098 Z -1.0000
G00 Z 5.0000

(End cutting path id: path78042)


(Start cutting path id: path78042)
(Change tool to Default tool)

G00 Z 5.0000
G00 X 11.1657 Y 7.6319

G01 Z -1.0000 F 100.0000(Penetrate)
G01 X 11.1700 Y 7.6418 Z -1.0000 F 3500.0000
G01 X 11.1807 Y 7.6460 Z -1.0000
G01 X 11.1876 Y 7.6415 Z -1.0000
G01 X 11.1869 Y 7.6319 Z -1.0000
G02 X 11.1770 Y 7.6198 Z -1.0000 I -0.0505 J 0.0311
G01 X 11.1719 Y 7.6178 Z -1.0000
G01 X 11.1682 Y 7.6202 Z -1.0000
G01 X 11.1657 Y 7.6319 Z -1.0000
G01 X 11.1657 Y 7.6319 Z -1.0000
G00 Z 5.0000

(End cutting path id: path78042)


(Start cutting path id: path78042)
(Change tool to Default tool)

G00 Z 5.0000
G00 X 10.8405 Y 8.1709

G01 Z -1.0000 F 100.0000(Penetrate)
G01 X 10.8349 Y 8.1784 Z -1.0000 F 3500.0000
G01 X 10.8173 Y 8.1776 Z -1.0000
G01 X 10.8105 Y 8.1805 Z -1.0000
G01 X 10.8120 Y 8.1902 Z -1.0000
G01 X 10.8365 Y 8.1993 Z -1.0000
G01 X 10.8508 Y 8.1835 Z -1.0000
G02 X 10.8499 Y 8.1581 Z -1.0000 I -0.1150 J -0.0089
G01 X 10.8467 Y 8.1553 Z -1.0000
G01 X 10.8430 Y 8.1577 Z -1.0000
G01 X 10.8405 Y 8.1709 Z -1.0000
G01 X 10.8405 Y 8.1709 Z -1.0000
G00 Z 5.0000

(End cutting path id: path78042)


(Start cutting path id: path78042)
(Change tool to Default tool)

G00 Z 5.0000
G00 X 10.7839 Y 8.8906

G01 Z -1.0000 F 100.0000(Penetrate)
G01 X 10.7881 Y 8.9006 Z -1.0000 F 3500.0000
G01 X 10.7980 Y 8.9047 Z -1.0000
G01 X 10.8081 Y 8.9006 Z -1.0000
G01 X 10.8122 Y 8.8906 Z -1.0000
G01 X 10.8080 Y 8.8806 Z -1.0000
G01 X 10.7980 Y 8.8765 Z -1.0000
G01 X 10.7880 Y 8.8806 Z -1.0000
G01 X 10.7839 Y 8.8906 Z -1.0000
G01 X 10.7839 Y 8.8906 Z -1.0000
G00 Z 5.0000

(End cutting path id: path78042)


(Start cutting path id: path78042)
(Change tool to Default tool)

G00 Z 5.0000
G00 X 10.9253 Y 8.9528

G01 Z -1.0000 F 100.0000(Penetrate)
G01 X 10.9276 Y 8.9568 Z -1.0000 F 3500.0000
G02 X 10.9473 Y 8.9668 Z -1.0000 I 0.0615 J -0.0978
G01 X 10.9588 Y 8.9666 Z -1.0000
G01 X 10.9606 Y 8.9612 Z -1.0000
G01 X 10.9366 Y 8.9438 Z -1.0000
G01 X 10.9253 Y 8.9528 Z -1.0000
G01 X 10.9253 Y 8.9528 Z -1.0000
G00 Z 5.0000

(End cutting path id: path78042)


(Start cutting path id: path78042)
(Change tool to Default tool)

G00 Z 5.0000
G00 X 10.6283 Y 9.3153

G01 Z -1.0000 F 100.0000(Penetrate)
G01 X 10.6331 Y 9.3241 Z -1.0000 F 3500.0000
G01 X 10.6495 Y 9.3290 Z -1.0000
G02 X 10.6683 Y 9.3266 Z -1.0000 I -0.0000 J -0.0738
G01 X 10.6708 Y 9.3234 Z -1.0000
G01 X 10.6685 Y 9.3193 Z -1.0000
G02 X 10.6495 Y 9.3097 Z -1.0000 I -0.0564 J 0.0876
G01 X 10.6333 Y 9.3088 Z -1.0000
G01 X 10.6283 Y 9.3153 Z -1.0000
G01 X 10.6283 Y 9.3153 Z -1.0000
G00 Z 5.0000

(End cutting path id: path78042)


(Start cutting path id: path78042)
(Change tool to Default tool)

G00 Z 5.0000
G00 X 10.6142 Y 9.4846

G01 Z -1.0000 F 100.0000(Penetrate)
G01 X 10.6095 Y 9.4921 Z -1.0000 F 3500.0000
G01 X 10.6001 Y 9.4916 Z -1.0000
G01 X 10.5904 Y 9.4910 Z -1.0000
G01 X 10.5859 Y 9.4978 Z -1.0000
G01 X 10.5956 Y 9.5082 Z -1.0000
G02 X 10.6263 Y 9.5002 Z -1.0000 I 0.0031 J -0.0516
G01 X 10.6343 Y 9.4882 Z -1.0000
G01 X 10.6298 Y 9.4784 Z -1.0000
G01 X 10.6190 Y 9.4774 Z -1.0000
G01 X 10.6142 Y 9.4845 Z -1.0000
G01 X 10.6142 Y 9.4846 Z -1.0000
G00 Z 5.0000

(End cutting path id: path78042)


(Start cutting path id: path78042)
(Change tool to Default tool)

G00 Z 5.0000
G00 X 11.2647 Y 9.7534

G01 Z -1.0000 F 100.0000(Penetrate)
G01 X 11.2690 Y 9.7632 Z -1.0000 F 3500.0000
G01 X 11.2797 Y 9.7675 Z -1.0000
G01 X 11.2866 Y 9.7630 Z -1.0000
G01 X 11.2859 Y 9.7534 Z -1.0000
G02 X 11.2760 Y 9.7413 Z -1.0000 I -0.0505 J 0.0311
G01 X 11.2709 Y 9.7392 Z -1.0000
G01 X 11.2672 Y 9.7417 Z -1.0000
G01 X 11.2647 Y 9.7534 Z -1.0000
G01 X 11.2647 Y 9.7534 Z -1.0000
G00 Z 5.0000

(End cutting path id: path78042)


(Start cutting path id: path78042)
(Change tool to Default tool)

G00 Z 5.0000
G00 X 11.3920 Y 9.8082

G01 Z -1.0000 F 100.0000(Penetrate)
G01 X 11.3955 Y 9.8205 Z -1.0000 F 3500.0000
G01 X 11.4062 Y 9.8311 Z -1.0000
G01 X 11.4159 Y 9.8321 Z -1.0000
G01 X 11.4203 Y 9.8257 Z -1.0000
G01 X 11.4168 Y 9.8135 Z -1.0000
G01 X 11.4062 Y 9.8028 Z -1.0000
G01 X 11.3964 Y 9.8019 Z -1.0000
G01 X 11.3920 Y 9.8082 Z -1.0000
G01 X 11.3920 Y 9.8082 Z -1.0000
G00 Z 5.0000

(End cutting path id: path78042)


(Start cutting path id: path78042)
(Change tool to Default tool)

G00 Z 5.0000
G00 X 11.2468 Y 9.9954

G01 Z -1.0000 F 100.0000(Penetrate)
G01 X 11.2643 Y 10.0068 Z -1.0000 F 3500.0000
G01 X 11.2722 Y 10.0051 Z -1.0000
G01 X 11.2722 Y 9.9989 Z -1.0000
G01 X 11.2547 Y 9.9876 Z -1.0000
G01 X 11.2469 Y 9.9892 Z -1.0000
G01 X 11.2468 Y 9.9955 Z -1.0000
G01 X 11.2468 Y 9.9954 Z -1.0000
G00 Z 5.0000

(End cutting path id: path78042)


(Start cutting path id: path78042)
(Change tool to Default tool)

G00 Z 5.0000
G00 X 11.1631 Y 9.9468

G01 Z -1.0000 F 100.0000(Penetrate)
G01 X 11.1807 Y 9.9499 Z -1.0000 F 3500.0000
G01 X 11.1902 Y 9.9457 Z -1.0000
G01 X 11.1893 Y 9.9413 Z -1.0000
G01 X 11.1716 Y 9.9383 Z -1.0000
G01 X 11.1622 Y 9.9425 Z -1.0000
G01 X 11.1631 Y 9.9468 Z -1.0000
G01 X 11.1631 Y 9.9468 Z -1.0000
G00 Z 5.0000

(End cutting path id: path78042)


(Start cutting path id: path78042)
(Change tool to Default tool)

G00 Z 5.0000
G00 X 11.3001 Y 10.1352

G01 Z -1.0000 F 100.0000(Penetrate)
G02 X 11.3100 Y 10.1474 Z -1.0000 I 0.0505 J -0.0311 F 3500.0000
G01 X 11.3151 Y 10.1494 Z -1.0000
G01 X 11.3188 Y 10.1469 Z -1.0000
G01 X 11.3213 Y 10.1352 Z -1.0000
G01 X 11.3170 Y 10.1254 Z -1.0000
G01 X 11.3063 Y 10.1211 Z -1.0000
G01 X 11.2994 Y 10.1256 Z -1.0000
G01 X 11.3001 Y 10.1352 Z -1.0000
G01 X 11.3001 Y 10.1352 Z -1.0000
G00 Z 5.0000

(End cutting path id: path78042)


(Start cutting path id: path78042)
(Change tool to Default tool)

G00 Z 5.0000
G00 X 11.3637 Y 10.0928

G01 Z -1.0000 F 100.0000(Penetrate)
G01 X 11.3679 Y 10.1028 Z -1.0000 F 3500.0000
G01 X 11.3779 Y 10.1069 Z -1.0000
G01 X 11.3879 Y 10.1027 Z -1.0000
G01 X 11.3920 Y 10.0928 Z -1.0000
G01 X 11.3878 Y 10.0827 Z -1.0000
G01 X 11.3779 Y 10.0786 Z -1.0000
G01 X 11.3678 Y 10.0828 Z -1.0000
G01 X 11.3637 Y 10.0928 Z -1.0000
G01 X 11.3637 Y 10.0928 Z -1.0000
G00 Z 5.0000

(End cutting path id: path78042)


(Start cutting path id: path78042)
(Change tool to Default tool)

G00 Z 5.0000
G00 X 11.2789 Y 10.3196

G01 Z -1.0000 F 100.0000(Penetrate)
G01 X 11.2834 Y 10.3265 Z -1.0000 F 3500.0000
G01 X 11.2930 Y 10.3258 Z -1.0000
G02 X 11.3051 Y 10.3160 Z -1.0000 I -0.0311 J -0.0505
G01 X 11.3072 Y 10.3109 Z -1.0000
G01 X 11.3047 Y 10.3071 Z -1.0000
G01 X 11.2930 Y 10.3047 Z -1.0000
G01 X 11.2831 Y 10.3089 Z -1.0000
G01 X 11.2789 Y 10.3196 Z -1.0000
G01 X 11.2789 Y 10.3196 Z -1.0000
G00 Z 5.0000

(End cutting path id: path78042)


(Start cutting path id: path78042)
(Change tool to Default tool)

G00 Z 5.0000
G00 X 11.1516 Y 10.4745

G01 Z -1.0000 F 100.0000(Penetrate)
G01 X 11.1558 Y 10.4843 Z -1.0000 F 3500.0000
G01 X 11.1666 Y 10.4886 Z -1.0000
G01 X 11.1735 Y 10.4841 Z -1.0000
G01 X 11.1728 Y 10.4745 Z -1.0000
G02 X 11.1629 Y 10.4624 Z -1.0000 I -0.0505 J 0.0311
G01 X 11.1578 Y 10.4603 Z -1.0000
G01 X 11.1540 Y 10.4628 Z -1.0000
G01 X 11.1516 Y 10.4745 Z -1.0000
G01 X 11.1516 Y 10.4745 Z -1.0000
G00 Z 5.0000

(End cutting path id: path78042)


(Start cutting path id: path78042)
(Change tool to Default tool)

G00 Z 5.0000
G00 X 10.9689 Y 10.2988

G01 Z -1.0000 F 100.0000(Penetrate)
G01 X 10.9730 Y 10.3082 Z -1.0000 F 3500.0000
G01 X 10.9774 Y 10.3073 Z -1.0000
G01 X 10.9804 Y 10.2896 Z -1.0000
G01 X 10.9763 Y 10.2802 Z -1.0000
G01 X 10.9719 Y 10.2811 Z -1.0000
G01 X 10.9689 Y 10.2987 Z -1.0000
G01 X 10.9689 Y 10.2988 Z -1.0000
G00 Z 5.0000

(End cutting path id: path78042)


(Start cutting path id: path78042)
(Change tool to Default tool)

G00 Z 5.0000
G00 X 10.8974 Y 10.2170

G01 Z -1.0000 F 100.0000(Penetrate)
G01 X 10.9001 Y 10.2263 Z -1.0000 F 3500.0000
G02 X 10.9242 Y 10.2617 Z -1.0000 I 0.3215 J -0.1932
G01 X 10.9507 Y 10.2962 Z -1.0000
G01 X 10.9436 Y 10.2591 Z -1.0000
G02 X 10.9154 Y 10.2087 Z -1.0000 I -0.0898 J 0.0173
G01 X 10.8973 Y 10.2170 Z -1.0000
G01 X 10.8974 Y 10.2170 Z -1.0000
G00 Z 5.0000

(End cutting path id: path78042)


(Start cutting path id: path78042)
(Change tool to Default tool)

G00 Z 5.0000
G00 X 10.8405 Y 10.5452

G01 Z -1.0000 F 100.0000(Penetrate)
G01 X 10.8447 Y 10.5551 Z -1.0000 F 3500.0000
G01 X 10.8554 Y 10.5594 Z -1.0000
G01 X 10.8623 Y 10.5549 Z -1.0000
G01 X 10.8616 Y 10.5452 Z -1.0000
G02 X 10.8518 Y 10.5331 Z -1.0000 I -0.0505 J 0.0311
G01 X 10.8467 Y 10.5311 Z -1.0000
G01 X 10.8429 Y 10.5335 Z -1.0000
G01 X 10.8405 Y 10.5452 Z -1.0000
G01 X 10.8405 Y 10.5452 Z -1.0000
G00 Z 5.0000

(End cutting path id: path78042)


(Start cutting path id: path78042)
(Change tool to Default tool)

G00 Z 5.0000
G00 X 11.0243 Y 10.7574

G01 Z -1.0000 F 100.0000(Penetrate)
G01 X 11.0293 Y 10.7665 Z -1.0000 F 3500.0000
G01 X 11.0464 Y 10.7715 Z -1.0000
G01 X 11.0588 Y 10.7661 Z -1.0000
G01 X 11.0597 Y 10.7574 Z -1.0000
G01 X 11.0491 Y 10.7466 Z -1.0000
G01 X 11.0376 Y 10.7432 Z -1.0000
G01 X 11.0283 Y 10.7472 Z -1.0000
G01 X 11.0243 Y 10.7574 Z -1.0000
G01 X 11.0243 Y 10.7574 Z -1.0000
G00 Z 5.0000

(End cutting path id: path78042)


(Start cutting path id: path78042)
(Change tool to Default tool)

G00 Z 5.0000
G00 X 10.9880 Y 10.9822

G01 Z -1.0000 F 100.0000(Penetrate)
G01 X 10.9881 Y 10.9923 Z -1.0000 F 3500.0000
G01 X 10.9761 Y 11.0024 Z -1.0000
G01 X 10.9505 Y 11.0004 Z -1.0000
G01 X 10.9395 Y 10.9813 Z -1.0000
G01 X 10.9567 Y 10.9644 Z -1.0000
G01 X 10.9880 Y 10.9822 Z -1.0000
G01 X 10.9880 Y 10.9822 Z -1.0000
G00 Z 5.0000

(End cutting path id: path78042)


(Start cutting path id: path78042)
(Change tool to Default tool)

G00 Z 5.0000
G00 X 10.9128 Y 11.1231

G01 Z -1.0000 F 100.0000(Penetrate)
G01 X 10.9190 Y 11.1335 Z -1.0000 F 3500.0000
G03 X 10.9294 Y 11.1746 Z -1.0000 I -0.3107 J 0.1001
G01 X 10.9200 Y 11.2032 Z -1.0000
G03 X 10.8819 Y 11.2191 Z -1.0000 I -0.0403 J -0.0429
G01 X 10.8266 Y 11.2212 Z -1.0000
G01 X 10.8327 Y 11.1625 Z -1.0000
G03 X 10.8390 Y 11.1039 Z -1.0000 I 15.9836 J 1.6840
G03 X 10.8396 Y 11.0994 Z -1.0000 I 0.0871 J 0.0095
G01 X 10.8575 Y 11.0887 Z -1.0000
G03 X 10.9128 Y 11.1231 Z -1.0000 I -0.0414 J 0.1283
G01 X 10.9128 Y 11.1231 Z -1.0000
G00 Z 5.0000

(End cutting path id: path78042)


(Start cutting path id: path78042)
(Change tool to Default tool)

G00 Z 5.0000
G00 X 11.0635 Y 11.3399

G01 Z -1.0000 F 100.0000(Penetrate)
G01 X 11.0403 Y 11.3593 Z -1.0000 F 3500.0000
G01 X 11.0243 Y 11.3455 Z -1.0000
G01 X 11.0309 Y 11.3297 Z -1.0000
G01 X 11.0467 Y 11.3231 Z -1.0000
G01 X 11.0609 Y 11.3290 Z -1.0000
G01 X 11.0635 Y 11.3399 Z -1.0000
G01 X 11.0635 Y 11.3399 Z -1.0000
G00 Z 5.0000

(End cutting path id: path78042)


(Start cutting path id: path78042)
(Change tool to Default tool)

G00 Z 5.0000
G00 X 11.1156 Y 11.3080

G01 Z -1.0000 F 100.0000(Penetrate)
G01 X 11.1173 Y 11.3196 Z -1.0000 F 3500.0000
G01 X 11.1094 Y 11.3300 Z -1.0000
G01 X 11.1005 Y 11.3292 Z -1.0000
G01 X 11.0951 Y 11.3168 Z -1.0000
G01 X 11.1035 Y 11.3041 Z -1.0000
G01 X 11.1157 Y 11.3079 Z -1.0000
G01 X 11.1156 Y 11.3080 Z -1.0000
G00 Z 5.0000

(End cutting path id: path78042)


(Start cutting path id: path78042)
(Change tool to Default tool)

G00 Z 5.0000
G00 X 10.9577 Y 11.4362

G01 Z -1.0000 F 100.0000(Penetrate)
G01 X 10.9445 Y 11.4570 Z -1.0000 F 3500.0000
G01 X 10.9237 Y 11.4645 Z -1.0000
G01 X 10.9066 Y 11.4511 Z -1.0000
G01 X 10.9140 Y 11.4249 Z -1.0000
G01 X 10.9459 Y 11.4162 Z -1.0000
G01 X 10.9577 Y 11.4362 Z -1.0000
G01 X 10.9577 Y 11.4362 Z -1.0000
G00 Z 5.0000

(End cutting path id: path78042)


(Start cutting path id: path78042)
(Change tool to Default tool)

G00 Z 5.0000
G00 X 10.7273 Y 11.5202

G01 Z -1.0000 F 100.0000(Penetrate)
G01 X 10.7127 Y 11.5471 Z -1.0000 F 3500.0000
G01 X 10.6896 Y 11.5446 Z -1.0000
G01 X 10.6872 Y 11.5216 Z -1.0000
G01 X 10.7140 Y 11.5069 Z -1.0000
G01 X 10.7234 Y 11.5108 Z -1.0000
G01 X 10.7273 Y 11.5202 Z -1.0000
G01 X 10.7273 Y 11.5202 Z -1.0000
G00 Z 5.0000

(End cutting path id: path78042)


(Start cutting path id: path78042)
(Change tool to Default tool)

G00 Z 5.0000
G00 X 10.8546 Y 11.7257

G01 Z -1.0000 F 100.0000(Penetrate)
G01 X 10.8611 Y 11.7371 Z -1.0000 F 3500.0000
G01 X 10.8758 Y 11.7383 Z -1.0000
G02 X 10.8929 Y 11.7273 Z -1.0000 I -0.0181 J -0.0470
G01 X 10.8970 Y 11.7175 Z -1.0000
G01 X 10.8925 Y 11.7095 Z -1.0000
G01 X 10.8758 Y 11.7049 Z -1.0000
G01 X 10.8608 Y 11.7110 Z -1.0000
G01 X 10.8546 Y 11.7257 Z -1.0000
G01 X 10.8546 Y 11.7257 Z -1.0000
G00 Z 5.0000

(End cutting path id: path78042)


(Start cutting path id: path78042)
(Change tool to Default tool)

G00 Z 5.0000
G00 X 10.8546 Y 11.8110

G01 Z -1.0000 F 100.0000(Penetrate)
G01 X 10.8596 Y 11.8273 Z -1.0000 F 3500.0000
G01 X 10.8688 Y 11.8322 Z -1.0000
G01 X 10.8780 Y 11.8273 Z -1.0000
G01 X 10.8829 Y 11.8110 Z -1.0000
G01 X 10.8779 Y 11.7947 Z -1.0000
G01 X 10.8688 Y 11.7898 Z -1.0000
G01 X 10.8595 Y 11.7947 Z -1.0000
G01 X 10.8546 Y 11.8110 Z -1.0000
G01 X 10.8546 Y 11.8110 Z -1.0000
G00 Z 5.0000

(End cutting path id: path78042)


(Start cutting path id: path78042)
(Change tool to Default tool)

G00 Z 5.0000
G00 X 10.7839 Y 11.8311

G01 Z -1.0000 F 100.0000(Penetrate)
G01 X 10.7879 Y 11.8405 Z -1.0000 F 3500.0000
G02 X 10.8051 Y 11.8514 Z -1.0000 I 0.0355 J -0.0369
G01 X 10.8217 Y 11.8529 Z -1.0000
G01 X 10.8263 Y 11.8474 Z -1.0000
G01 X 10.8223 Y 11.8380 Z -1.0000
G02 X 10.8051 Y 11.8271 Z -1.0000 I -0.0355 J 0.0369
G01 X 10.7885 Y 11.8256 Z -1.0000
G01 X 10.7839 Y 11.8311 Z -1.0000
G01 X 10.7839 Y 11.8311 Z -1.0000
G00 Z 5.0000

(End cutting path id: path78042)


(Start cutting path id: path78042)
(Change tool to Default tool)

G00 Z 5.0000
G00 X 11.0575 Y 11.7428

G01 Z -1.0000 F 100.0000(Penetrate)
G01 X 11.0617 Y 11.7574 Z -1.0000 F 3500.0000
G03 X 11.0320 Y 11.7875 Z -1.0000 I -0.0716 J -0.0409
G03 X 10.9669 Y 11.8105 Z -1.0000 I -0.0912 J -0.1546
G01 X 10.9536 Y 11.7991 Z -1.0000
G03 X 10.9846 Y 11.7172 Z -1.0000 I 0.1237 J -0.0000
G01 X 11.0243 Y 11.7189 Z -1.0000
G01 X 11.0326 Y 11.7272 Z -1.0000
G02 X 11.0575 Y 11.7428 Z -1.0000 I 0.1400 J -0.1953
G01 X 11.0575 Y 11.7428 Z -1.0000
G00 Z 5.0000

(End cutting path id: path78042)


(Start cutting path id: path78042)
(Change tool to Default tool)

G00 Z 5.0000
G00 X 11.4580 Y 11.7109

G01 Z -1.0000 F 100.0000(Penetrate)
G01 X 11.4317 Y 11.7192 Z -1.0000 F 3500.0000
G01 X 11.4104 Y 11.6838 Z -1.0000
G01 X 11.4216 Y 11.6579 Z -1.0000
G01 X 11.4413 Y 11.6565 Z -1.0000
G01 X 11.4601 Y 11.6815 Z -1.0000
G01 X 11.4580 Y 11.7109 Z -1.0000
G01 X 11.4580 Y 11.7109 Z -1.0000
G00 Z 5.0000

(End cutting path id: path78042)


(Start cutting path id: path78042)
(Change tool to Default tool)

G00 Z 5.0000
G00 X 11.6239 Y 11.7073

G01 Z -1.0000 F 100.0000(Penetrate)
G02 X 11.6171 Y 11.7541 Z -1.0000 I 0.1224 J 0.0418 F 3500.0000
G01 X 11.6262 Y 11.7669 Z -1.0000
G01 X 11.6416 Y 11.7687 Z -1.0000
G01 X 11.6447 Y 11.7645 Z -1.0000
G03 X 11.6485 Y 11.7184 Z -1.0000 I 0.0996 J -0.0149
G01 X 11.6654 Y 11.7007 Z -1.0000
G01 X 11.6731 Y 11.7058 Z -1.0000
G03 X 11.6668 Y 11.7593 Z -1.0000 I -0.1910 J 0.0046
G03 X 11.6463 Y 11.8239 Z -1.0000 I -0.7003 J -0.1858
G03 X 11.6269 Y 11.8675 Z -1.0000 I -0.3325 J -0.1225
G02 X 11.6074 Y 11.9107 Z -1.0000 I 0.3266 J 0.1733
G01 X 11.6043 Y 11.9276 Z -1.0000
G01 X 11.5986 Y 11.9396 Z -1.0000
G01 X 11.5830 Y 11.9453 Z -1.0000
G01 X 11.5519 Y 11.9128 Z -1.0000
G01 X 11.5865 Y 11.8702 Z -1.0000
G01 X 11.5735 Y 11.8621 Z -1.0000
G02 X 11.5082 Y 11.8765 Z -1.0000 I -0.0057 J 0.1296
G01 X 11.4910 Y 11.9047 Z -1.0000
G01 X 11.4828 Y 11.9262 Z -1.0000
G03 X 11.4545 Y 11.9457 Z -1.0000 I -0.0541 J -0.0482
G03 X 11.4196 Y 11.9486 Z -1.0000 I -0.0225 J -0.0592
G03 X 11.3818 Y 11.9312 Z -1.0000 I 0.0175 J -0.0876
G02 X 11.3436 Y 11.9092 Z -1.0000 I -0.0957 J 0.1217
G02 X 11.3108 Y 11.9029 Z -1.0000 I -0.0328 J 0.0821
G01 X 11.2893 Y 11.8924 Z -1.0000
G01 X 11.2843 Y 11.8690 Z -1.0000
G02 X 11.2837 Y 11.8399 Z -1.0000 I -0.0529 J -0.0134
G01 X 11.2717 Y 11.8270 Z -1.0000
G01 X 11.2576 Y 11.8140 Z -1.0000
G03 X 11.2506 Y 11.7835 Z -1.0000 I 0.0627 J -0.0305
G01 X 11.2425 Y 11.7600 Z -1.0000
G01 X 11.2292 Y 11.7564 Z -1.0000
G01 X 11.2188 Y 11.7537 Z -1.0000
G01 X 11.2167 Y 11.7414 Z -1.0000
G01 X 11.2288 Y 11.7307 Z -1.0000
G01 X 11.2450 Y 11.7343 Z -1.0000
G01 X 11.2654 Y 11.7440 Z -1.0000
G01 X 11.2855 Y 11.7423 Z -1.0000
G01 X 11.3193 Y 11.7561 Z -1.0000
G03 X 11.3308 Y 11.8412 Z -1.0000 I -0.1342 J 0.0614
G02 X 11.3351 Y 11.8785 Z -1.0000 I 0.0680 J 0.0110
G01 X 11.3505 Y 11.8887 Z -1.0000
G01 X 11.3726 Y 11.8835 Z -1.0000
G01 X 11.3779 Y 11.8749 Z -1.0000
G01 X 11.3833 Y 11.8653 Z -1.0000
G03 X 11.4168 Y 11.8515 Z -1.0000 I 0.0620 J 0.1028
G02 X 11.4534 Y 11.8388 Z -1.0000 I -0.0482 J -0.1981
G01 X 11.4634 Y 11.8302 Z -1.0000
G01 X 11.4738 Y 11.8225 Z -1.0000
G03 X 11.5193 Y 11.8131 Z -1.0000 I 0.0729 J 0.2396
G02 X 11.5593 Y 11.7978 Z -1.0000 I -0.0091 J -0.0836
G02 X 11.5803 Y 11.7693 Z -1.0000 I -0.0337 J -0.0468
G02 X 11.5862 Y 11.7311 Z -1.0000 I -0.1094 J -0.0363
G02 X 11.5791 Y 11.7001 Z -1.0000 I -0.0768 J 0.0012
G03 X 11.5744 Y 11.6700 Z -1.0000 I 0.0513 J -0.0235
G03 X 11.5872 Y 11.6314 Z -1.0000 I 0.0993 J 0.0116
G01 X 11.6093 Y 11.5933 Z -1.0000
G01 X 11.6255 Y 11.6243 Z -1.0000
G03 X 11.6329 Y 11.6561 Z -1.0000 I -0.0586 J 0.0305
G03 X 11.6239 Y 11.7073 Z -1.0000 I -0.1683 J -0.0032
G01 X 11.6239 Y 11.7073 Z -1.0000
G00 Z 5.0000

(End cutting path id: path78042)


(Start cutting path id: path78042)
(Change tool to Default tool)

G00 Z 5.0000
G00 X 11.8256 Y 11.7299

G01 Z -1.0000 F 100.0000(Penetrate)
G01 X 11.8308 Y 11.7684 Z -1.0000 F 3500.0000
G03 X 11.7638 Y 11.7979 Z -1.0000 I -0.0668 J -0.0607
G01 X 11.7418 Y 11.7625 Z -1.0000
G03 X 11.8021 Y 11.7203 Z -1.0000 I 0.0687 J 0.0339
G01 X 11.8088 Y 11.7212 Z -1.0000
G03 X 11.8256 Y 11.7300 Z -1.0000 I -0.0396 J 0.0963
G01 X 11.8256 Y 11.7299 Z -1.0000
G00 Z 5.0000

(End cutting path id: path78042)


(Start cutting path id: path78042)
(Change tool to Default tool)

G00 Z 5.0000
G00 X 11.8163 Y 11.6262

G01 Z -1.0000 F 100.0000(Penetrate)
G01 X 11.8143 Y 11.6313 Z -1.0000 F 3500.0000
G03 X 11.8021 Y 11.6412 Z -1.0000 I -0.0443 J -0.0418
G01 X 11.7925 Y 11.6419 Z -1.0000
G01 X 11.7880 Y 11.6350 Z -1.0000
G01 X 11.7923 Y 11.6243 Z -1.0000
G01 X 11.8021 Y 11.6200 Z -1.0000
G01 X 11.8138 Y 11.6225 Z -1.0000
G01 X 11.8163 Y 11.6262 Z -1.0000
G01 X 11.8163 Y 11.6262 Z -1.0000
G00 Z 5.0000

(End cutting path id: path78042)


(Start cutting path id: path78042)
(Change tool to Default tool)

G00 Z 5.0000
G00 X 11.7031 Y 11.4928

G01 Z -1.0000 F 100.0000(Penetrate)
G01 X 11.6989 Y 11.5026 Z -1.0000 F 3500.0000
G01 X 11.6882 Y 11.5069 Z -1.0000
G01 X 11.6813 Y 11.5024 Z -1.0000
G01 X 11.6820 Y 11.4928 Z -1.0000
G03 X 11.6918 Y 11.4807 Z -1.0000 I 0.0505 J 0.0311
G01 X 11.6969 Y 11.4786 Z -1.0000
G01 X 11.7007 Y 11.4811 Z -1.0000
G01 X 11.7031 Y 11.4928 Z -1.0000
G01 X 11.7031 Y 11.4928 Z -1.0000
G00 Z 5.0000

(End cutting path id: path78042)


(Start cutting path id: path78042)
(Change tool to Default tool)

G00 Z 5.0000
G00 X 11.5546 Y 11.4079

G01 Z -1.0000 F 100.0000(Penetrate)
G01 X 11.5536 Y 11.4167 Z -1.0000 F 3500.0000
G01 X 11.5405 Y 11.4221 Z -1.0000
G01 X 11.5274 Y 11.4166 Z -1.0000
G01 X 11.5264 Y 11.4079 Z -1.0000
G03 X 11.5361 Y 11.3956 Z -1.0000 I 0.0570 J 0.0351
G01 X 11.5405 Y 11.3938 Z -1.0000
G01 X 11.5449 Y 11.3956 Z -1.0000
G03 X 11.5546 Y 11.4079 Z -1.0000 I -0.0506 J 0.0500
G01 X 11.5546 Y 11.4079 Z -1.0000
G00 Z 5.0000

(End cutting path id: path78042)


(Start cutting path id: path78042)
(Change tool to Default tool)

G00 Z 5.0000
G00 X 11.5064 Y 11.3754

G01 Z -1.0000 F 100.0000(Penetrate)
G02 X 11.5021 Y 11.4051 Z -1.0000 I 0.0492 J 0.0224 F 3500.0000
G01 X 11.5137 Y 11.4287 Z -1.0000
G02 X 11.5368 Y 11.4470 Z -1.0000 I 0.0916 J -0.0916
G01 X 11.5486 Y 11.4504 Z -1.0000
G01 X 11.5560 Y 11.4561 Z -1.0000
G03 X 11.5617 Y 11.5009 Z -1.0000 I -0.1719 J 0.0448
G03 X 11.5401 Y 11.5744 Z -1.0000 I -0.1360 J 0.0000
G01 X 11.5109 Y 11.5799 Z -1.0000
G03 X 11.4711 Y 11.5331 Z -1.0000 I 0.0754 J -0.1045
G03 X 11.4558 Y 11.4700 Z -1.0000 I 0.1291 J -0.0647
G01 X 11.4395 Y 11.4557 Z -1.0000
G01 X 11.4134 Y 11.4751 Z -1.0000
G03 X 11.3810 Y 11.5060 Z -1.0000 I -0.0531 J -0.0233
G01 X 11.3637 Y 11.4941 Z -1.0000
G01 X 11.3586 Y 11.4880 Z -1.0000
G02 X 11.3338 Y 11.4891 Z -1.0000 I -0.0098 J 0.0581
G01 X 11.3206 Y 11.4837 Z -1.0000
G01 X 11.3202 Y 11.4665 Z -1.0000
G01 X 11.3492 Y 11.4427 Z -1.0000
G01 X 11.3712 Y 11.4510 Z -1.0000
G01 X 11.3819 Y 11.4566 Z -1.0000
G01 X 11.4002 Y 11.4494 Z -1.0000
G01 X 11.4135 Y 11.4319 Z -1.0000
G01 X 11.4128 Y 11.4215 Z -1.0000
G01 X 11.4144 Y 11.4140 Z -1.0000
G03 X 11.4363 Y 11.4054 Z -1.0000 I 0.0296 J 0.0429
G02 X 11.4902 Y 11.3718 Z -1.0000 I -0.0116 J -0.0787
G01 X 11.4805 Y 11.3413 Z -1.0000
G01 X 11.4730 Y 11.3311 Z -1.0000
G03 X 11.4791 Y 11.3048 Z -1.0000 I 0.0515 J -0.0020
G01 X 11.4952 Y 11.2746 Z -1.0000
G01 X 11.5080 Y 11.3092 Z -1.0000
G03 X 11.5138 Y 11.3435 Z -1.0000 I -0.0868 J 0.0321
G03 X 11.5064 Y 11.3754 Z -1.0000 I -0.0814 J -0.0020
G01 X 11.5064 Y 11.3754 Z -1.0000
G00 Z 5.0000

(End cutting path id: path78042)


(Start cutting path id: path78042)
(Change tool to Default tool)

G00 Z 5.0000
G00 X 11.6607 Y 11.2948

G01 Z -1.0000 F 100.0000(Penetrate)
G01 X 11.6417 Y 11.3243 Z -1.0000 F 3500.0000
G01 X 11.6089 Y 11.3184 Z -1.0000
G01 X 11.6067 Y 11.3122 Z -1.0000
G03 X 11.6121 Y 11.2906 Z -1.0000 I 0.0896 J 0.0107
G01 X 11.6405 Y 11.2728 Z -1.0000
G01 X 11.6607 Y 11.2948 Z -1.0000
G01 X 11.6607 Y 11.2948 Z -1.0000
G00 Z 5.0000

(End cutting path id: path78042)


(Start cutting path id: path78042)
(Change tool to Default tool)

G00 Z 5.0000
G00 X 11.5979 Y 11.2037

G01 Z -1.0000 F 100.0000(Penetrate)
G03 X 11.5727 Y 11.2320 Z -1.0000 I -0.1086 J -0.0711 F 3500.0000
G01 X 11.5645 Y 11.2316 Z -1.0000
G01 X 11.5633 Y 11.2234 Z -1.0000
G01 X 11.5763 Y 11.2094 Z -1.0000
G01 X 11.5848 Y 11.1960 Z -1.0000
G01 X 11.5815 Y 11.1917 Z -1.0000
G01 X 11.5904 Y 11.1743 Z -1.0000
G01 X 11.6024 Y 11.1769 Z -1.0000
G01 X 11.5980 Y 11.2037 Z -1.0000
G01 X 11.5979 Y 11.2037 Z -1.0000
G00 Z 5.0000

(End cutting path id: path78042)


(Start cutting path id: path78042)
(Change tool to Default tool)

G00 Z 5.0000
G00 X 11.8346 Y 11.3603

G01 Z -1.0000 F 100.0000(Penetrate)
G01 X 11.8378 Y 11.3701 Z -1.0000 F 3500.0000
G03 X 11.8286 Y 11.3972 Z -1.0000 I -0.0862 J -0.0140
G01 X 11.8025 Y 11.4038 Z -1.0000
G01 X 11.7928 Y 11.3735 Z -1.0000
G01 X 11.8125 Y 11.3549 Z -1.0000
G01 X 11.8347 Y 11.3603 Z -1.0000
G01 X 11.8346 Y 11.3603 Z -1.0000
G00 Z 5.0000

(End cutting path id: path78042)


(Start cutting path id: path78042)
(Change tool to Default tool)

G00 Z 5.0000
G00 X 12.2823 Y 11.2178

G01 Z -1.0000 F 100.0000(Penetrate)
G01 X 12.2659 Y 11.2196 Z -1.0000 F 3500.0000
G01 X 12.2630 Y 11.2029 Z -1.0000
G02 X 12.2793 Y 11.1713 Z -1.0000 I -0.1406 J -0.0921
G01 X 12.2767 Y 11.1675 Z -1.0000
G01 X 12.2736 Y 11.1641 Z -1.0000
G01 X 12.2786 Y 11.1498 Z -1.0000
G01 X 12.2863 Y 11.1489 Z -1.0000
G01 X 12.2946 Y 11.1648 Z -1.0000
G03 X 12.2933 Y 11.1957 Z -1.0000 I -0.0824 J 0.0119
G03 X 12.2823 Y 11.2178 Z -1.0000 I -0.0525 J -0.0123
G01 X 12.2823 Y 11.2178 Z -1.0000
G00 Z 5.0000

(End cutting path id: path78042)


(Start cutting path id: path78042)
(Change tool to Default tool)

G00 Z 5.0000
G00 X 12.4154 Y 11.2029

G01 Z -1.0000 F 100.0000(Penetrate)
G03 X 12.4057 Y 11.2219 Z -1.0000 I -0.0975 J -0.0376 F 3500.0000
G01 X 12.4017 Y 11.2241 Z -1.0000
G01 X 12.3985 Y 11.2216 Z -1.0000
G03 X 12.3961 Y 11.2029 Z -1.0000 I 0.0712 J -0.0188
G01 X 12.4009 Y 11.1865 Z -1.0000
G01 X 12.4098 Y 11.1817 Z -1.0000
G01 X 12.4162 Y 11.1866 Z -1.0000
G01 X 12.4154 Y 11.2029 Z -1.0000
G01 X 12.4154 Y 11.2029 Z -1.0000
G00 Z 5.0000

(End cutting path id: path78042)


(Start cutting path id: path78042)
(Change tool to Default tool)

G00 Z 5.0000
G00 X 12.4893 Y 11.4313

G01 Z -1.0000 F 100.0000(Penetrate)
G03 X 12.4589 Y 11.4648 Z -1.0000 I -0.1347 J -0.0916 F 3500.0000
G01 X 12.4527 Y 11.4619 Z -1.0000
G01 X 12.4472 Y 11.4425 Z -1.0000
G01 X 12.4350 Y 11.4326 Z -1.0000
G01 X 12.4286 Y 11.4234 Z -1.0000
G01 X 12.4360 Y 11.4040 Z -1.0000
G03 X 12.4567 Y 11.3887 Z -1.0000 I 0.0409 J 0.0338
G01 X 12.4735 Y 11.3885 Z -1.0000
G01 X 12.4899 Y 11.3891 Z -1.0000
G01 X 12.5021 Y 11.3796 Z -1.0000
G01 X 12.5127 Y 11.3696 Z -1.0000
G01 X 12.5190 Y 11.3705 Z -1.0000
G01 X 12.5202 Y 11.3780 Z -1.0000
G03 X 12.4893 Y 11.4313 Z -1.0000 I -0.3935 J -0.1926
G01 X 12.4893 Y 11.4313 Z -1.0000
G00 Z 5.0000

(End cutting path id: path78042)


(Start cutting path id: path78042)
(Change tool to Default tool)

G00 Z 5.0000
G00 X 12.4206 Y 11.4589

G01 Z -1.0000 F 100.0000(Penetrate)
G01 X 12.4111 Y 11.4630 Z -1.0000 F 3500.0000
G01 X 12.3935 Y 11.4600 Z -1.0000
G01 X 12.3926 Y 11.4556 Z -1.0000
G01 X 12.4020 Y 11.4515 Z -1.0000
G01 X 12.4196 Y 11.4545 Z -1.0000
G01 X 12.4205 Y 11.4589 Z -1.0000
G01 X 12.4206 Y 11.4589 Z -1.0000
G00 Z 5.0000

(End cutting path id: path78042)


(Start cutting path id: path78042)
(Change tool to Default tool)

G00 Z 5.0000
G00 X 12.5340 Y 11.5859

G01 Z -1.0000 F 100.0000(Penetrate)
G01 X 12.5079 Y 11.5872 Z -1.0000 F 3500.0000
G01 X 12.5035 Y 11.5613 Z -1.0000
G01 X 12.5135 Y 11.5559 Z -1.0000
G01 X 12.5276 Y 11.5620 Z -1.0000
G01 X 12.5363 Y 11.5771 Z -1.0000
G01 X 12.5340 Y 11.5859 Z -1.0000
G01 X 12.5340 Y 11.5859 Z -1.0000
G00 Z 5.0000

(End cutting path id: path78042)


(Start cutting path id: path78042)
(Change tool to Default tool)

G00 Z 5.0000
G00 X 12.6108 Y 11.4534

G01 Z -1.0000 F 100.0000(Penetrate)
G01 X 12.5985 Y 11.4595 Z -1.0000 F 3500.0000
G01 X 12.5941 Y 11.4555 Z -1.0000
G01 X 12.6049 Y 11.4294 Z -1.0000
G01 X 12.6202 Y 11.4294 Z -1.0000
G01 X 12.6218 Y 11.4367 Z -1.0000
G01 X 12.6108 Y 11.4534 Z -1.0000
G01 X 12.6108 Y 11.4534 Z -1.0000
G00 Z 5.0000

(End cutting path id: path78042)


(Start cutting path id: path78042)
(Change tool to Default tool)

G00 Z 5.0000
G00 X 12.5870 Y 11.4079

G01 Z -1.0000 F 100.0000(Penetrate)
G01 X 12.5763 Y 11.4186 Z -1.0000 F 3500.0000
G01 X 12.5641 Y 11.4221 Z -1.0000
G01 X 12.5578 Y 11.4177 Z -1.0000
G01 X 12.5587 Y 11.4079 Z -1.0000
G01 X 12.5694 Y 11.3973 Z -1.0000
G01 X 12.5816 Y 11.3938 Z -1.0000
G01 X 12.5880 Y 11.3982 Z -1.0000
G01 X 12.5870 Y 11.4079 Z -1.0000
G01 X 12.5870 Y 11.4079 Z -1.0000
G00 Z 5.0000

(End cutting path id: path78042)


(Start cutting path id: path78042)
(Change tool to Default tool)

G00 Z 5.0000
G00 X 12.6931 Y 11.5211

G01 Z -1.0000 F 100.0000(Penetrate)
G01 X 12.6888 Y 11.5310 Z -1.0000 F 3500.0000
G01 X 12.6781 Y 11.5352 Z -1.0000
G01 X 12.6712 Y 11.5307 Z -1.0000
G01 X 12.6719 Y 11.5211 Z -1.0000
G03 X 12.6818 Y 11.5090 Z -1.0000 I 0.0505 J 0.0311
G01 X 12.6869 Y 11.5069 Z -1.0000
G01 X 12.6906 Y 11.5094 Z -1.0000
G01 X 12.6931 Y 11.5211 Z -1.0000
G01 X 12.6931 Y 11.5211 Z -1.0000
G00 Z 5.0000

(End cutting path id: path78042)


(Start cutting path id: path78042)
(Change tool to Default tool)

G00 Z 5.0000
G00 X 12.7355 Y 11.6015

G01 Z -1.0000 F 100.0000(Penetrate)
G01 X 12.7430 Y 11.6119 Z -1.0000 F 3500.0000
G01 X 12.7673 Y 11.6123 Z -1.0000
G01 X 12.7992 Y 11.6027 Z -1.0000
G01 X 12.7673 Y 11.6332 Z -1.0000
G02 X 12.7394 Y 11.6653 Z -1.0000 I 0.1620 J 0.1693
G01 X 12.7355 Y 11.6772 Z -1.0000
G01 X 12.7305 Y 11.6858 Z -1.0000
G01 X 12.7119 Y 11.6908 Z -1.0000
G02 X 12.6901 Y 11.6957 Z -1.0000 I 0.0000 J 0.0508
G02 X 12.6623 Y 11.7143 Z -1.0000 I 0.0491 J 0.1036
G03 X 12.6367 Y 11.7292 Z -1.0000 I -0.0485 J -0.0536
G01 X 12.6258 Y 11.7265 Z -1.0000
G01 X 12.6241 Y 11.7173 Z -1.0000
G01 X 12.6329 Y 11.7089 Z -1.0000
G01 X 12.6422 Y 11.6981 Z -1.0000
G02 X 12.6414 Y 11.6663 Z -1.0000 I -0.0706 J -0.0141
G01 X 12.6431 Y 11.6443 Z -1.0000
G01 X 12.6521 Y 11.6413 Z -1.0000
G01 X 12.6542 Y 11.6335 Z -1.0000
G03 X 12.6356 Y 11.5826 Z -1.0000 I 0.0512 J -0.0475
G01 X 12.6573 Y 11.5684 Z -1.0000
G01 X 12.6758 Y 11.5699 Z -1.0000
G01 X 12.6868 Y 11.5622 Z -1.0000
G01 X 12.7145 Y 11.5575 Z -1.0000
G03 X 12.7355 Y 11.6016 Z -1.0000 I -0.0356 J 0.0440
G01 X 12.7355 Y 11.6015 Z -1.0000
G00 Z 5.0000

(End cutting path id: path78042)


(Start cutting path id: path78042)
(Change tool to Default tool)

G00 Z 5.0000
G00 X 12.7214 Y 11.7332

G01 Z -1.0000 F 100.0000(Penetrate)
G01 X 12.7172 Y 11.7432 Z -1.0000 F 3500.0000
G01 X 12.7072 Y 11.7474 Z -1.0000
G01 X 12.6972 Y 11.7432 Z -1.0000
G01 X 12.6931 Y 11.7332 Z -1.0000
G01 X 12.6973 Y 11.7232 Z -1.0000
G01 X 12.7072 Y 11.7191 Z -1.0000
G01 X 12.7173 Y 11.7232 Z -1.0000
G01 X 12.7214 Y 11.7332 Z -1.0000
G01 X 12.7214 Y 11.7332 Z -1.0000
G00 Z 5.0000

(End cutting path id: path78042)


(Start cutting path id: path78042)
(Change tool to Default tool)

G00 Z 5.0000
G00 X 12.8163 Y 11.7332

G01 Z -1.0000 F 100.0000(Penetrate)
G02 X 12.8155 Y 11.7564 Z -1.0000 I 0.0504 J 0.0133 F 3500.0000
G01 X 12.8217 Y 11.7615 Z -1.0000
G01 X 12.8305 Y 11.7654 Z -1.0000
G01 X 12.8345 Y 11.7756 Z -1.0000
G01 X 12.8243 Y 11.7844 Z -1.0000
G03 X 12.7868 Y 11.7688 Z -1.0000 I 0.0115 J -0.0806
G01 X 12.7716 Y 11.7282 Z -1.0000
G01 X 12.8003 Y 11.7049 Z -1.0000
G01 X 12.8136 Y 11.7127 Z -1.0000
G01 X 12.8163 Y 11.7332 Z -1.0000
G01 X 12.8163 Y 11.7332 Z -1.0000
G00 Z 5.0000

(End cutting path id: path78042)


(Start cutting path id: path78042)
(Change tool to Default tool)

G00 Z 5.0000
G00 X 12.8204 Y 11.8581

G01 Z -1.0000 F 100.0000(Penetrate)
G01 X 12.8094 Y 11.8795 Z -1.0000 F 3500.0000
G01 X 12.7899 Y 11.8803 Z -1.0000
G01 X 12.7842 Y 11.8603 Z -1.0000
G01 X 12.8071 Y 11.8463 Z -1.0000
G01 X 12.8167 Y 11.8500 Z -1.0000
G01 X 12.8204 Y 11.8581 Z -1.0000
G01 X 12.8204 Y 11.8581 Z -1.0000
G00 Z 5.0000

(End cutting path id: path78042)


(Start cutting path id: path78042)
(Change tool to Default tool)

G00 Z 5.0000
G00 X 12.5790 Y 11.8121

G01 Z -1.0000 F 100.0000(Penetrate)
G01 X 12.5755 Y 11.8285 Z -1.0000 F 3500.0000
G01 X 12.5868 Y 11.8412 Z -1.0000
G01 X 12.6083 Y 11.8422 Z -1.0000
G01 X 12.6230 Y 11.8311 Z -1.0000
G01 X 12.6359 Y 11.8212 Z -1.0000
G01 X 12.6463 Y 11.8239 Z -1.0000
G01 X 12.6485 Y 11.8339 Z -1.0000
G01 X 12.6400 Y 11.8424 Z -1.0000
G01 X 12.6272 Y 11.8521 Z -1.0000
G01 X 12.6224 Y 11.8671 Z -1.0000
G01 X 12.6153 Y 11.8795 Z -1.0000
G03 X 12.5812 Y 11.8916 Z -1.0000 I -0.0478 J -0.0804
G01 X 12.5502 Y 11.8839 Z -1.0000
G01 X 12.5339 Y 11.8566 Z -1.0000
G03 X 12.5355 Y 11.8181 Z -1.0000 I 0.1038 J -0.0152
G01 X 12.5480 Y 11.7955 Z -1.0000
G01 X 12.5750 Y 11.7915 Z -1.0000
G01 X 12.5790 Y 11.8121 Z -1.0000
G01 X 12.5790 Y 11.8121 Z -1.0000
G00 Z 5.0000

(End cutting path id: path78042)


(Start cutting path id: path78042)
(Change tool to Default tool)

G00 Z 5.0000
G00 X 12.4493 Y 11.9823

G01 Z -1.0000 F 100.0000(Penetrate)
G03 X 12.4623 Y 12.0039 Z -1.0000 I -0.0370 J 0.0370 F 3500.0000
G03 X 12.4761 Y 12.0692 Z -1.0000 I -0.3510 J 0.1085
G03 X 12.4696 Y 12.1291 Z -1.0000 I -0.1337 J 0.0158
G01 X 12.4465 Y 12.1544 Z -1.0000
G03 X 12.3744 Y 12.1628 Z -1.0000 I -0.0491 J -0.1079
G03 X 12.3030 Y 12.1260 Z -1.0000 I 0.0282 J -0.1424
G03 X 12.2501 Y 12.0413 Z -1.0000 I 0.1348 J -0.1429
G01 X 12.2688 Y 12.0160 Z -1.0000
G01 X 12.2788 Y 12.0118 Z -1.0000
G01 X 12.2830 Y 12.0018 Z -1.0000
G01 X 12.2780 Y 11.9926 Z -1.0000
G01 X 12.2617 Y 11.9877 Z -1.0000
G01 X 12.2561 Y 11.9738 Z -1.0000
G03 X 12.2936 Y 11.9567 Z -1.0000 I 0.0425 J 0.0437
G03 X 12.4085 Y 11.9613 Z -1.0000 I 0.0388 J 0.4661
G03 X 12.4493 Y 11.9823 Z -1.0000 I -0.0122 J 0.0741
G01 X 12.4493 Y 11.9823 Z -1.0000
G00 Z 5.0000

(End cutting path id: path78042)


(Start cutting path id: path78042)
(Change tool to Default tool)

G00 Z 5.0000
G00 X 12.6436 Y 12.2141

G01 Z -1.0000 F 100.0000(Penetrate)
G02 X 12.6535 Y 12.2262 Z -1.0000 I 0.0505 J -0.0311 F 3500.0000
G01 X 12.6586 Y 12.2282 Z -1.0000
G01 X 12.6623 Y 12.2258 Z -1.0000
G01 X 12.6648 Y 12.2141 Z -1.0000
G01 X 12.6605 Y 12.2042 Z -1.0000
G01 X 12.6498 Y 12.1999 Z -1.0000
G01 X 12.6429 Y 12.2044 Z -1.0000
G01 X 12.6436 Y 12.2141 Z -1.0000
G01 X 12.6436 Y 12.2141 Z -1.0000
G00 Z 5.0000

(End cutting path id: path78042)


(Start cutting path id: path78042)
(Change tool to Default tool)

G00 Z 5.0000
G00 X 12.7921 Y 12.1300

G01 Z -1.0000 F 100.0000(Penetrate)
G01 X 12.7868 Y 12.1381 Z -1.0000 F 3500.0000
G03 X 12.7621 Y 12.1433 Z -1.0000 I -0.0248 J -0.0558
G01 X 12.7485 Y 12.1356 Z -1.0000
G01 X 12.7495 Y 12.1223 Z -1.0000
G01 X 12.7772 Y 12.1122 Z -1.0000
G01 X 12.7921 Y 12.1301 Z -1.0000
G01 X 12.7921 Y 12.1300 Z -1.0000
G00 Z 5.0000

(End cutting path id: path78042)


(Start cutting path id: path78042)
(Change tool to Default tool)

G00 Z 5.0000
G00 X 13.1225 Y 12.0513

G01 Z -1.0000 F 100.0000(Penetrate)
G01 X 13.1117 Y 12.0644 Z -1.0000 F 3500.0000
G01 X 13.1015 Y 12.0644 Z -1.0000
G01 X 13.0955 Y 12.0442 Z -1.0000
G01 X 13.1177 Y 12.0301 Z -1.0000
G01 X 13.1237 Y 12.0349 Z -1.0000
G01 X 13.1225 Y 12.0513 Z -1.0000
G01 X 13.1225 Y 12.0513 Z -1.0000
G00 Z 5.0000

(End cutting path id: path78042)


(Start cutting path id: path78042)
(Change tool to Default tool)

G00 Z 5.0000
G00 X 13.3642 Y 12.0999

G01 Z -1.0000 F 100.0000(Penetrate)
G01 X 13.3659 Y 12.1115 Z -1.0000 F 3500.0000
G01 X 13.3580 Y 12.1219 Z -1.0000
G01 X 13.3491 Y 12.1211 Z -1.0000
G01 X 13.3437 Y 12.1087 Z -1.0000
G01 X 13.3520 Y 12.0960 Z -1.0000
G01 X 13.3643 Y 12.0998 Z -1.0000
G01 X 13.3642 Y 12.0999 Z -1.0000
G00 Z 5.0000

(End cutting path id: path78042)


(Start cutting path id: path78042)
(Change tool to Default tool)

G00 Z 5.0000
G00 X 13.5005 Y 12.0345

G01 Z -1.0000 F 100.0000(Penetrate)
G01 X 13.4850 Y 12.0405 Z -1.0000 F 3500.0000
G01 X 13.4681 Y 12.0331 Z -1.0000
G01 X 13.4640 Y 12.0171 Z -1.0000
G01 X 13.4787 Y 11.9958 Z -1.0000
G01 X 13.5013 Y 11.9890 Z -1.0000
G01 X 13.5111 Y 11.9972 Z -1.0000
G01 X 13.5106 Y 12.0174 Z -1.0000
G01 X 13.5005 Y 12.0345 Z -1.0000
G01 X 13.5005 Y 12.0345 Z -1.0000
G00 Z 5.0000

(End cutting path id: path78042)


(Start cutting path id: path78042)
(Change tool to Default tool)

G00 Z 5.0000
G00 X 13.7820 Y 11.7465

G01 Z -1.0000 F 100.0000(Penetrate)
G01 X 13.7678 Y 11.7645 Z -1.0000 F 3500.0000
G01 X 13.7486 Y 11.7543 Z -1.0000
G01 X 13.7499 Y 11.7396 Z -1.0000
G01 X 13.7613 Y 11.7332 Z -1.0000
G01 X 13.7773 Y 11.7379 Z -1.0000
G01 X 13.7820 Y 11.7465 Z -1.0000
G01 X 13.7820 Y 11.7465 Z -1.0000
G00 Z 5.0000

(End cutting path id: path78042)


(Start cutting path id: path78042)
(Change tool to Default tool)

G00 Z 5.0000
G00 X 13.8669 Y 11.7049

G01 Z -1.0000 F 100.0000(Penetrate)
G01 X 13.8627 Y 11.7149 Z -1.0000 F 3500.0000
G01 X 13.8527 Y 11.7190 Z -1.0000
G01 X 13.8427 Y 11.7148 Z -1.0000
G01 X 13.8386 Y 11.7049 Z -1.0000
G01 X 13.8428 Y 11.6948 Z -1.0000
G01 X 13.8527 Y 11.6907 Z -1.0000
G01 X 13.8628 Y 11.6949 Z -1.0000
G01 X 13.8669 Y 11.7049 Z -1.0000
G01 X 13.8669 Y 11.7049 Z -1.0000
G00 Z 5.0000

(End cutting path id: path78042)


(Start cutting path id: path78042)
(Change tool to Default tool)

G00 Z 5.0000
G00 X 13.8913 Y 11.6710

G01 Z -1.0000 F 100.0000(Penetrate)
G01 X 13.8819 Y 11.6751 Z -1.0000 F 3500.0000
G01 X 13.8642 Y 11.6721 Z -1.0000
G01 X 13.8633 Y 11.6677 Z -1.0000
G01 X 13.8727 Y 11.6636 Z -1.0000
G01 X 13.8904 Y 11.6666 Z -1.0000
G01 X 13.8913 Y 11.6710 Z -1.0000
G01 X 13.8913 Y 11.6710 Z -1.0000
G00 Z 5.0000

(End cutting path id: path78042)


(Start cutting path id: path78042)
(Change tool to Default tool)

G00 Z 5.0000
G00 X 13.9266 Y 11.5104

G01 Z -1.0000 F 100.0000(Penetrate)
G01 X 13.9295 Y 11.5280 Z -1.0000 F 3500.0000
G01 X 13.9430 Y 11.5352 Z -1.0000
G01 X 13.9592 Y 11.5419 Z -1.0000
G01 X 13.9659 Y 11.5579 Z -1.0000
G01 X 13.9592 Y 11.5709 Z -1.0000
G01 X 13.9451 Y 11.5727 Z -1.0000
G01 X 13.9030 Y 11.5800 Z -1.0000
G02 X 13.8810 Y 11.6281 Z -1.0000 I 0.0417 J 0.0481
G01 X 13.8737 Y 11.6410 Z -1.0000
G03 X 13.8467 Y 11.6483 Z -1.0000 I -0.0270 J -0.0459
G02 X 13.8148 Y 11.6544 Z -1.0000 I 0.0000 J 0.0871
G02 X 13.7901 Y 11.6705 Z -1.0000 I 0.0265 J 0.0674
G01 X 13.7741 Y 11.6777 Z -1.0000
G01 X 13.7679 Y 11.6717 Z -1.0000
G01 X 13.7726 Y 11.6541 Z -1.0000
G01 X 13.7831 Y 11.6456 Z -1.0000
G01 X 13.7865 Y 11.6375 Z -1.0000
G02 X 13.7619 Y 11.6013 Z -1.0000 I -0.1324 J 0.0636
G03 X 13.7431 Y 11.5541 Z -1.0000 I 0.0517 J -0.0479
G03 X 13.7609 Y 11.5126 Z -1.0000 I 0.0558 J -0.0006
G03 X 13.8003 Y 11.4904 Z -1.0000 I 0.0664 J 0.0717
G03 X 13.8648 Y 11.4827 Z -1.0000 I 0.0557 J 0.1933
G03 X 13.9195 Y 11.4957 Z -1.0000 I -0.0065 J 0.1499
G01 X 13.9266 Y 11.5105 Z -1.0000
G01 X 13.9266 Y 11.5104 Z -1.0000
G00 Z 5.0000

(End cutting path id: path78042)


(Start cutting path id: path78042)
(Change tool to Default tool)

G00 Z 5.0000
G00 X 13.8952 Y 11.3938

G01 Z -1.0000 F 100.0000(Penetrate)
G01 X 13.8897 Y 11.4026 Z -1.0000 F 3500.0000
G03 X 13.8669 Y 11.4079 Z -1.0000 I -0.0229 J -0.0458
G03 X 13.8440 Y 11.4025 Z -1.0000 I -0.0000 J -0.0511
G01 X 13.8386 Y 11.3938 Z -1.0000
G01 X 13.8440 Y 11.3850 Z -1.0000
G03 X 13.8669 Y 11.3797 Z -1.0000 I 0.0229 J 0.0458
G03 X 13.8898 Y 11.3851 Z -1.0000 I 0.0000 J 0.0511
G01 X 13.8952 Y 11.3938 Z -1.0000
G01 X 13.8952 Y 11.3938 Z -1.0000
G00 Z 5.0000

(End cutting path id: path78042)


(Start cutting path id: path78042)
(Change tool to Default tool)

G00 Z 5.0000
G00 X 13.9423 Y 11.2548

G01 Z -1.0000 F 100.0000(Penetrate)
G03 X 13.9396 Y 11.2959 Z -1.0000 I -0.0628 J 0.0165 F 3500.0000
G01 X 13.9203 Y 11.3089 Z -1.0000
G01 X 13.9132 Y 11.3054 Z -1.0000
G01 X 13.9136 Y 11.3000 Z -1.0000
G01 X 13.9169 Y 11.2903 Z -1.0000
G02 X 13.9094 Y 11.2665 Z -1.0000 I -0.0683 J 0.0086
G01 X 13.9070 Y 11.2363 Z -1.0000
G01 X 13.9242 Y 11.2241 Z -1.0000
G01 X 13.9313 Y 11.2281 Z -1.0000
G03 X 13.9424 Y 11.2548 Z -1.0000 I -0.0902 J 0.0532
G01 X 13.9423 Y 11.2548 Z -1.0000
G00 Z 5.0000

(End cutting path id: path78042)


(Start cutting path id: path78042)
(Change tool to Default tool)

G00 Z 5.0000
G00 X 13.8245 Y 11.2108

G01 Z -1.0000 F 100.0000(Penetrate)
G01 X 13.8047 Y 11.2342 Z -1.0000 F 3500.0000
G01 X 13.7776 Y 11.2188 Z -1.0000
G01 X 13.7837 Y 11.1808 Z -1.0000
G01 X 13.8126 Y 11.1760 Z -1.0000
G01 X 13.8203 Y 11.1856 Z -1.0000
G03 X 13.8245 Y 11.2108 Z -1.0000 I -0.0735 J 0.0252
G01 X 13.8245 Y 11.2108 Z -1.0000
G00 Z 5.0000

(End cutting path id: path78042)


(Start cutting path id: path78042)
(Change tool to Default tool)

G00 Z 5.0000
G00 X 13.8598 Y 11.1391

G01 Z -1.0000 F 100.0000(Penetrate)
G01 X 13.8591 Y 11.1488 Z -1.0000 F 3500.0000
G01 X 13.8660 Y 11.1532 Z -1.0000
G01 X 13.8767 Y 11.1490 Z -1.0000
G01 X 13.8810 Y 11.1391 Z -1.0000
G01 X 13.8785 Y 11.1274 Z -1.0000
G01 X 13.8748 Y 11.1250 Z -1.0000
G01 X 13.8697 Y 11.1270 Z -1.0000
G02 X 13.8598 Y 11.1391 Z -1.0000 I 0.0418 J 0.0443
G01 X 13.8598 Y 11.1391 Z -1.0000
G00 Z 5.0000

(End cutting path id: path78042)


(Start cutting path id: path78042)
(Change tool to Default tool)

G00 Z 5.0000
G00 X 13.8065 Y 10.9430

G01 Z -1.0000 F 100.0000(Penetrate)
G01 X 13.8240 Y 10.9543 Z -1.0000 F 3500.0000
G01 X 13.8319 Y 10.9527 Z -1.0000
G01 X 13.8319 Y 10.9464 Z -1.0000
G01 X 13.8145 Y 10.9351 Z -1.0000
G01 X 13.8066 Y 10.9368 Z -1.0000
G01 X 13.8066 Y 10.9430 Z -1.0000
G01 X 13.8065 Y 10.9430 Z -1.0000
G00 Z 5.0000

(End cutting path id: path78042)


(Start cutting path id: path78042)
(Change tool to Default tool)

G00 Z 5.0000
G00 X 13.6406 Y 10.9553

G01 Z -1.0000 F 100.0000(Penetrate)
G01 X 13.6448 Y 10.9654 Z -1.0000 F 3500.0000
G01 X 13.6547 Y 10.9695 Z -1.0000
G01 X 13.6648 Y 10.9653 Z -1.0000
G01 X 13.6689 Y 10.9553 Z -1.0000
G01 X 13.6647 Y 10.9453 Z -1.0000
G01 X 13.6547 Y 10.9412 Z -1.0000
G01 X 13.6447 Y 10.9454 Z -1.0000
G01 X 13.6406 Y 10.9553 Z -1.0000
G01 X 13.6406 Y 10.9553 Z -1.0000
G00 Z 5.0000

(End cutting path id: path78042)


(Start cutting path id: path78042)
(Change tool to Default tool)

G00 Z 5.0000
G00 X 13.5672 Y 10.6397

G01 Z -1.0000 F 100.0000(Penetrate)
G01 X 13.5849 Y 10.6428 Z -1.0000 F 3500.0000
G01 X 13.5944 Y 10.6386 Z -1.0000
G01 X 13.5934 Y 10.6342 Z -1.0000
G01 X 13.5758 Y 10.6312 Z -1.0000
G01 X 13.5664 Y 10.6354 Z -1.0000
G01 X 13.5673 Y 10.6397 Z -1.0000
G01 X 13.5672 Y 10.6397 Z -1.0000
G00 Z 5.0000

(End cutting path id: path78042)


(Start cutting path id: path78042)
(Change tool to Default tool)

G00 Z 5.0000
G00 X 13.3790 Y 10.5735

G01 Z -1.0000 F 100.0000(Penetrate)
G02 X 13.3889 Y 10.5856 Z -1.0000 I 0.0505 J -0.0311 F 3500.0000
G01 X 13.3940 Y 10.5877 Z -1.0000
G01 X 13.3977 Y 10.5852 Z -1.0000
G01 X 13.4002 Y 10.5735 Z -1.0000
G01 X 13.3959 Y 10.5636 Z -1.0000
G01 X 13.3852 Y 10.5594 Z -1.0000
G01 X 13.3783 Y 10.5639 Z -1.0000
G01 X 13.3790 Y 10.5735 Z -1.0000
G01 X 13.3790 Y 10.5735 Z -1.0000
G00 Z 5.0000

(End cutting path id: path78042)


(Start cutting path id: path78042)
(Change tool to Default tool)

G00 Z 5.0000
G00 X 13.5390 Y 10.3285

G01 Z -1.0000 F 100.0000(Penetrate)
G01 X 13.5566 Y 10.3316 Z -1.0000 F 3500.0000
G01 X 13.5661 Y 10.3274 Z -1.0000
G01 X 13.5652 Y 10.3230 Z -1.0000
G01 X 13.5475 Y 10.3200 Z -1.0000
G01 X 13.5381 Y 10.3241 Z -1.0000
G01 X 13.5390 Y 10.3285 Z -1.0000
G01 X 13.5390 Y 10.3285 Z -1.0000
G00 Z 5.0000

(End cutting path id: path78042)


(Start cutting path id: path78042)
(Change tool to Default tool)

G00 Z 5.0000
G00 X 13.5307 Y 10.0444

G01 Z -1.0000 F 100.0000(Penetrate)
G02 X 13.5552 Y 10.0640 Z -1.0000 I 0.0852 J -0.0816 F 3500.0000
G01 X 13.5618 Y 10.0631 Z -1.0000
G01 X 13.5619 Y 10.0572 Z -1.0000
G02 X 13.5374 Y 10.0376 Z -1.0000 I -0.0856 J 0.0819
G01 X 13.5307 Y 10.0385 Z -1.0000
G01 X 13.5306 Y 10.0444 Z -1.0000
G01 X 13.5307 Y 10.0444 Z -1.0000
G00 Z 5.0000

(End cutting path id: path78042)


(Start cutting path id: path78042)
(Change tool to Default tool)

G00 Z 5.0000
G00 X 13.6901 Y 9.7816

G01 Z -1.0000 F 100.0000(Penetrate)
G02 X 13.7000 Y 9.7938 Z -1.0000 I 0.0505 J -0.0311 F 3500.0000
G01 X 13.7051 Y 9.7958 Z -1.0000
G01 X 13.7088 Y 9.7933 Z -1.0000
G01 X 13.7113 Y 9.7816 Z -1.0000
G01 X 13.7070 Y 9.7718 Z -1.0000
G01 X 13.6963 Y 9.7675 Z -1.0000
G01 X 13.6894 Y 9.7720 Z -1.0000
G01 X 13.6901 Y 9.7816 Z -1.0000
G01 X 13.6901 Y 9.7816 Z -1.0000
G00 Z 5.0000

(End cutting path id: path78042)


(Start cutting path id: path78042)
(Change tool to Default tool)

G00 Z 5.0000
G00 X 13.6335 Y 9.6684

G01 Z -1.0000 F 100.0000(Penetrate)
G02 X 13.6434 Y 9.6805 Z -1.0000 I 0.0505 J -0.0311 F 3500.0000
G01 X 13.6485 Y 9.6826 Z -1.0000
G01 X 13.6523 Y 9.6801 Z -1.0000
G01 X 13.6547 Y 9.6684 Z -1.0000
G01 X 13.6505 Y 9.6586 Z -1.0000
G01 X 13.6397 Y 9.6543 Z -1.0000
G01 X 13.6328 Y 9.6588 Z -1.0000
G01 X 13.6335 Y 9.6684 Z -1.0000
G01 X 13.6335 Y 9.6684 Z -1.0000
G00 Z 5.0000

(End cutting path id: path78042)


(Start cutting path id: path78042)
(Change tool to Default tool)

G00 Z 5.0000
G00 X 13.5409 Y 9.5009

G01 Z -1.0000 F 100.0000(Penetrate)
G01 X 13.5397 Y 9.5059 Z -1.0000 F 3500.0000
G01 X 13.5442 Y 9.5078 Z -1.0000
G01 X 13.5646 Y 9.5077 Z -1.0000
G01 X 13.5749 Y 9.5171 Z -1.0000
G01 X 13.5796 Y 9.5203 Z -1.0000
G01 X 13.5829 Y 9.5172 Z -1.0000
G01 X 13.5703 Y 9.4973 Z -1.0000
G01 X 13.5410 Y 9.5009 Z -1.0000
G01 X 13.5409 Y 9.5009 Z -1.0000
G00 Z 5.0000

(End cutting path id: path78042)


(Start cutting path id: path78042)
(Change tool to Default tool)

G00 Z 5.0000
G00 X 14.0012 Y 9.5837

G01 Z -1.0000 F 100.0000(Penetrate)
G02 X 14.0111 Y 9.5958 Z -1.0000 I 0.0505 J -0.0311 F 3500.0000
G01 X 14.0162 Y 9.5978 Z -1.0000
G01 X 14.0200 Y 9.5953 Z -1.0000
G01 X 14.0224 Y 9.5837 Z -1.0000
G01 X 14.0182 Y 9.5738 Z -1.0000
G01 X 14.0074 Y 9.5695 Z -1.0000
G01 X 14.0005 Y 9.5740 Z -1.0000
G01 X 14.0012 Y 9.5837 Z -1.0000
G01 X 14.0012 Y 9.5837 Z -1.0000
G00 Z 5.0000

(End cutting path id: path78042)


(Start cutting path id: path78042)
(Change tool to Default tool)

G00 Z 5.0000
G00 X 14.0437 Y 9.5129

G01 Z -1.0000 F 100.0000(Penetrate)
G02 X 14.0535 Y 9.5250 Z -1.0000 I 0.0505 J -0.0311 F 3500.0000
G01 X 14.0586 Y 9.5270 Z -1.0000
G01 X 14.0624 Y 9.5246 Z -1.0000
G01 X 14.0648 Y 9.5129 Z -1.0000
G01 X 14.0606 Y 9.5030 Z -1.0000
G01 X 14.0499 Y 9.4987 Z -1.0000
G01 X 14.0430 Y 9.5032 Z -1.0000
G01 X 14.0437 Y 9.5129 Z -1.0000
G01 X 14.0437 Y 9.5129 Z -1.0000
G00 Z 5.0000

(End cutting path id: path78042)


(Start cutting path id: path78042)
(Change tool to Default tool)

G00 Z 5.0000
G00 X 14.2063 Y 9.4194

G01 Z -1.0000 F 100.0000(Penetrate)
G01 X 14.2085 Y 9.4235 Z -1.0000 F 3500.0000
G02 X 14.2282 Y 9.4334 Z -1.0000 I 0.0615 J -0.0978
G01 X 14.2398 Y 9.4332 Z -1.0000
G01 X 14.2416 Y 9.4278 Z -1.0000
G01 X 14.2176 Y 9.4105 Z -1.0000
G01 X 14.2063 Y 9.4194 Z -1.0000
G01 X 14.2063 Y 9.4194 Z -1.0000
G00 Z 5.0000

(End cutting path id: path78042)


(Start cutting path id: path78042)
(Change tool to Default tool)

G00 Z 5.0000
G00 X 13.9871 Y 9.2301

G01 Z -1.0000 F 100.0000(Penetrate)
G01 X 13.9864 Y 9.2398 Z -1.0000 F 3500.0000
G01 X 13.9933 Y 9.2443 Z -1.0000
G01 X 14.0040 Y 9.2400 Z -1.0000
G01 X 14.0083 Y 9.2301 Z -1.0000
G01 X 14.0058 Y 9.2184 Z -1.0000
G01 X 14.0021 Y 9.2160 Z -1.0000
G01 X 13.9970 Y 9.2180 Z -1.0000
G02 X 13.9871 Y 9.2301 Z -1.0000 I 0.0418 J 0.0443
G01 X 13.9871 Y 9.2301 Z -1.0000
G00 Z 5.0000

(End cutting path id: path78042)


(Start cutting path id: path78042)
(Change tool to Default tool)

G00 Z 5.0000
G00 X 13.8267 Y 9.0038

G01 Z -1.0000 F 100.0000(Penetrate)
G01 X 13.8338 Y 9.0215 Z -1.0000 F 3500.0000
G01 X 13.8372 Y 9.0038 Z -1.0000
G01 X 13.8338 Y 8.9861 Z -1.0000
G01 X 13.8267 Y 9.0038 Z -1.0000
G01 X 13.8267 Y 9.0038 Z -1.0000
G00 Z 5.0000

(End cutting path id: path78042)


(Start cutting path id: path78042)
(Change tool to Default tool)

G00 Z 5.0000
G00 X 14.3840 Y 8.6967

G01 Z -1.0000 F 100.0000(Penetrate)
G01 X 14.3953 Y 8.7141 Z -1.0000 F 3500.0000
G01 X 14.4015 Y 8.7141 Z -1.0000
G01 X 14.4032 Y 8.7062 Z -1.0000
G01 X 14.3918 Y 8.6888 Z -1.0000
G01 X 14.3856 Y 8.6888 Z -1.0000
G01 X 14.3839 Y 8.6967 Z -1.0000
G01 X 14.3840 Y 8.6967 Z -1.0000
G00 Z 5.0000

(End cutting path id: path78042)


(Start cutting path id: path78042)
(Change tool to Default tool)

G00 Z 5.0000
G00 X 14.3901 Y 8.5497

G01 Z -1.0000 F 100.0000(Penetrate)
G01 X 14.3944 Y 8.5594 Z -1.0000 F 3500.0000
G02 X 14.4133 Y 8.5712 Z -1.0000 I 0.0401 J -0.0431
G01 X 14.4201 Y 8.5683 Z -1.0000
G01 X 14.4186 Y 8.5586 Z -1.0000
G01 X 14.3974 Y 8.5443 Z -1.0000
G01 X 14.3901 Y 8.5497 Z -1.0000
G01 X 14.3901 Y 8.5497 Z -1.0000
G00 Z 5.0000

(End cutting path id: path78042)


(Start cutting path id: path78042)
(Change tool to Default tool)

G00 Z 5.0000
G00 X 14.1648 Y 8.2581

G01 Z -1.0000 F 100.0000(Penetrate)
G02 X 14.1843 Y 8.3310 Z -1.0000 I 0.1284 J 0.0046 F 3500.0000
G01 X 14.2243 Y 8.3531 Z -1.0000
G01 X 14.2279 Y 8.3482 Z -1.0000
G02 X 14.2163 Y 8.3281 Z -1.0000 I -0.0521 J 0.0166
G03 X 14.1963 Y 8.3013 Z -1.0000 I 0.1319 J -0.1194
G03 X 14.1796 Y 8.2680 Z -1.0000 I 0.1896 J -0.1157
G01 X 14.1696 Y 8.2557 Z -1.0000
G01 X 14.1647 Y 8.2582 Z -1.0000
G01 X 14.1648 Y 8.2581 Z -1.0000
G00 Z 5.0000

(End cutting path id: path78042)


(Start cutting path id: path78042)
(Change tool to Default tool)

G00 Z 5.0000
G00 X 14.1780 Y 8.1702

G01 Z -1.0000 F 100.0000(Penetrate)
G01 X 14.1825 Y 8.1771 Z -1.0000 F 3500.0000
G01 X 14.1921 Y 8.1764 Z -1.0000
G02 X 14.2043 Y 8.1665 Z -1.0000 I -0.0311 J -0.0505
G01 X 14.2063 Y 8.1614 Z -1.0000
G01 X 14.2038 Y 8.1577 Z -1.0000
G01 X 14.1921 Y 8.1552 Z -1.0000
G01 X 14.1823 Y 8.1595 Z -1.0000
G01 X 14.1780 Y 8.1702 Z -1.0000
G01 X 14.1780 Y 8.1702 Z -1.0000
G00 Z 5.0000

(End cutting path id: path78042)


(Start cutting path id: path78042)
(Change tool to Default tool)

G00 Z 5.0000
G00 X 14.1073 Y 7.9838

G01 Z -1.0000 F 100.0000(Penetrate)
G01 X 14.1108 Y 7.9961 Z -1.0000 F 3500.0000
G01 X 14.1214 Y 8.0067 Z -1.0000
G01 X 14.1312 Y 8.0076 Z -1.0000
G01 X 14.1356 Y 8.0013 Z -1.0000
G01 X 14.1321 Y 7.9891 Z -1.0000
G01 X 14.1214 Y 7.9784 Z -1.0000
G01 X 14.1117 Y 7.9775 Z -1.0000
G01 X 14.1073 Y 7.9838 Z -1.0000
G01 X 14.1073 Y 7.9838 Z -1.0000
G00 Z 5.0000

(End cutting path id: path78042)


(Start cutting path id: path78042)
(Change tool to Default tool)

G00 Z 5.0000
G00 X 13.4497 Y 8.0845

G01 Z -1.0000 F 100.0000(Penetrate)
G02 X 13.4596 Y 8.0966 Z -1.0000 I 0.0505 J -0.0311 F 3500.0000
G01 X 13.4647 Y 8.0986 Z -1.0000
G01 X 13.4684 Y 8.0962 Z -1.0000
G01 X 13.4709 Y 8.0845 Z -1.0000
G01 X 13.4666 Y 8.0746 Z -1.0000
G01 X 13.4559 Y 8.0703 Z -1.0000
G01 X 13.4490 Y 8.0748 Z -1.0000
G01 X 13.4497 Y 8.0845 Z -1.0000
G01 X 13.4497 Y 8.0845 Z -1.0000
G00 Z 5.0000

(End cutting path id: path78042)


(Start cutting path id: path78042)
(Change tool to Default tool)

G00 Z 5.0000
G00 X 13.0042 Y 7.3915

G01 Z -1.0000 F 100.0000(Penetrate)
G01 X 13.0085 Y 7.4013 Z -1.0000 F 3500.0000
G01 X 13.0192 Y 7.4056 Z -1.0000
G01 X 13.0261 Y 7.4011 Z -1.0000
G01 X 13.0254 Y 7.3915 Z -1.0000
G02 X 13.0155 Y 7.3793 Z -1.0000 I -0.0505 J 0.0311
G01 X 13.0104 Y 7.3773 Z -1.0000
G01 X 13.0067 Y 7.3798 Z -1.0000
G01 X 13.0042 Y 7.3915 Z -1.0000
G01 X 13.0042 Y 7.3915 Z -1.0000
G00 Z 5.0000

(End cutting path id: path78042)


(Start cutting path id: path78042)
(Change tool to Default tool)

G00 Z 5.0000
G00 X 13.0977 Y 7.2102

G01 Z -1.0000 F 100.0000(Penetrate)
G01 X 13.1066 Y 7.2163 Z -1.0000 F 3500.0000
G01 X 13.1183 Y 7.2141 Z -1.0000
G01 X 13.1211 Y 7.2047 Z -1.0000
G01 X 13.1109 Y 7.1982 Z -1.0000
G01 X 13.0988 Y 7.2029 Z -1.0000
G01 X 13.0978 Y 7.2102 Z -1.0000
G01 X 13.0977 Y 7.2102 Z -1.0000
G00 Z 5.0000

(End cutting path id: path78042)


(Start cutting path id: path78042)
(Change tool to Default tool)

G00 Z 5.0000
G00 X 12.4032 Y 7.6602

G01 Z -1.0000 F 100.0000(Penetrate)
G01 X 12.4139 Y 7.6709 Z -1.0000 F 3500.0000
G01 X 12.4261 Y 7.6744 Z -1.0000
G01 X 12.4324 Y 7.6700 Z -1.0000
G01 X 12.4315 Y 7.6602 Z -1.0000
G01 X 12.4208 Y 7.6496 Z -1.0000
G01 X 12.4086 Y 7.6461 Z -1.0000
G01 X 12.4022 Y 7.6505 Z -1.0000
G01 X 12.4032 Y 7.6602 Z -1.0000
G01 X 12.4032 Y 7.6602 Z -1.0000
G00 Z 5.0000

(End cutting path id: path78042)


(Start cutting path id: path78042)
(Change tool to Default tool)

G00 Z 5.0000
G00 X 12.5375 Y 7.9275

G01 Z -1.0000 F 100.0000(Penetrate)
G01 X 12.5502 Y 7.9453 Z -1.0000 F 3500.0000
G02 X 12.6224 Y 7.9567 Z -1.0000 I 0.0686 J -0.1996
G01 X 12.5960 Y 7.9357 Z -1.0000
G02 X 12.5447 Y 7.9212 Z -1.0000 I -0.0787 J 0.1813
G01 X 12.5375 Y 7.9275 Z -1.0000
G01 X 12.5375 Y 7.9275 Z -1.0000
G00 Z 5.0000

(End cutting path id: path78042)


(Start cutting path id: path78042)
(Change tool to Default tool)

G00 Z 5.0000
G00 X 12.7329 Y 8.6739

G01 Z -1.0000 F 100.0000(Penetrate)
G01 X 12.7505 Y 8.6769 Z -1.0000 F 3500.0000
G01 X 12.7600 Y 8.6728 Z -1.0000
G01 X 12.7591 Y 8.6684 Z -1.0000
G01 X 12.7414 Y 8.6654 Z -1.0000
G01 X 12.7320 Y 8.6695 Z -1.0000
G01 X 12.7329 Y 8.6739 Z -1.0000
G01 X 12.7329 Y 8.6739 Z -1.0000
G00 Z 5.0000

(End cutting path id: path78042)


(Start cutting path id: path78042)
(Change tool to Default tool)

G00 Z 5.0000
G00 X 12.6904 Y 8.9144

G01 Z -1.0000 F 100.0000(Penetrate)
G01 X 12.7081 Y 8.9175 Z -1.0000 F 3500.0000
G01 X 12.7175 Y 8.9133 Z -1.0000
G01 X 12.7166 Y 8.9089 Z -1.0000
G01 X 12.6990 Y 8.9059 Z -1.0000
G01 X 12.6896 Y 8.9101 Z -1.0000
G01 X 12.6905 Y 8.9144 Z -1.0000
G01 X 12.6904 Y 8.9144 Z -1.0000
G00 Z 5.0000

(End cutting path id: path78042)


(Start cutting path id: path78042)
(Change tool to Default tool)

G00 Z 5.0000
G00 X 12.6648 Y 9.2239

G01 Z -1.0000 F 100.0000(Penetrate)
G01 X 12.6702 Y 9.2363 Z -1.0000 F 3500.0000
G01 X 12.6792 Y 9.2371 Z -1.0000
G01 X 12.6870 Y 9.2267 Z -1.0000
G01 X 12.6854 Y 9.2150 Z -1.0000
G01 X 12.6731 Y 9.2112 Z -1.0000
G01 X 12.6648 Y 9.2239 Z -1.0000
G01 X 12.6648 Y 9.2239 Z -1.0000
G00 Z 5.0000

(End cutting path id: path78042)


(Start cutting path id: path78042)
(Change tool to Default tool)

G00 Z 5.0000
G00 X 12.5941 Y 9.4280

G01 Z -1.0000 F 100.0000(Penetrate)
G01 X 12.5983 Y 9.4379 Z -1.0000 F 3500.0000
G01 X 12.6091 Y 9.4421 Z -1.0000
G01 X 12.6160 Y 9.4376 Z -1.0000
G01 X 12.6153 Y 9.4280 Z -1.0000
G02 X 12.6054 Y 9.4159 Z -1.0000 I -0.0505 J 0.0311
G01 X 12.6003 Y 9.4139 Z -1.0000
G01 X 12.5965 Y 9.4163 Z -1.0000
G01 X 12.5941 Y 9.4280 Z -1.0000
G01 X 12.5941 Y 9.4280 Z -1.0000
G00 Z 5.0000

(End cutting path id: path78042)


(Start cutting path id: path78042)
(Change tool to Default tool)

G00 Z 5.0000
G00 X 12.3935 Y 9.3528

G01 Z -1.0000 F 100.0000(Penetrate)
G01 X 12.4111 Y 9.3559 Z -1.0000 F 3500.0000
G01 X 12.4206 Y 9.3517 Z -1.0000
G01 X 12.4196 Y 9.3473 Z -1.0000
G01 X 12.4020 Y 9.3443 Z -1.0000
G01 X 12.3926 Y 9.3484 Z -1.0000
G01 X 12.3935 Y 9.3528 Z -1.0000
G01 X 12.3935 Y 9.3528 Z -1.0000
G00 Z 5.0000

(End cutting path id: path78042)


(Start cutting path id: path78042)
(Change tool to Default tool)

G00 Z 5.0000
G00 X 12.3203 Y 8.9260

G01 Z -1.0000 F 100.0000(Penetrate)
G02 X 12.3299 Y 8.9450 Z -1.0000 I 0.0975 J -0.0376 F 3500.0000
G01 X 12.3340 Y 8.9472 Z -1.0000
G01 X 12.3371 Y 8.9448 Z -1.0000
G02 X 12.3396 Y 8.9260 Z -1.0000 I -0.0712 J -0.0188
G01 X 12.3347 Y 8.9096 Z -1.0000
G01 X 12.3259 Y 8.9048 Z -1.0000
G01 X 12.3194 Y 8.9097 Z -1.0000
G01 X 12.3203 Y 8.9260 Z -1.0000
G01 X 12.3203 Y 8.9260 Z -1.0000
G00 Z 5.0000

(End cutting path id: path78042)


(Start cutting path id: path78042)
(Change tool to Default tool)

G00 Z 5.0000
G00 X 11.7608 Y 9.2384

G01 Z -1.0000 F 100.0000(Penetrate)
G01 X 11.7649 Y 9.2478 Z -1.0000 F 3500.0000
G01 X 11.7693 Y 9.2469 Z -1.0000
G01 X 11.7724 Y 9.2293 Z -1.0000
G01 X 11.7682 Y 9.2198 Z -1.0000
G01 X 11.7638 Y 9.2207 Z -1.0000
G01 X 11.7608 Y 9.2384 Z -1.0000
G01 X 11.7608 Y 9.2384 Z -1.0000
G00 Z 5.0000

(End cutting path id: path78042)


(Start cutting path id: path78042)
(Change tool to Default tool)

G00 Z 5.0000
G00 X 11.7173 Y 9.3423

G01 Z -1.0000 F 100.0000(Penetrate)
G01 X 11.7206 Y 9.3537 Z -1.0000 F 3500.0000
G01 X 11.7313 Y 9.3642 Z -1.0000
G01 X 11.7367 Y 9.3625 Z -1.0000
G01 X 11.7369 Y 9.3509 Z -1.0000
G01 X 11.7243 Y 9.3378 Z -1.0000
G01 X 11.7173 Y 9.3423 Z -1.0000
G01 X 11.7173 Y 9.3423 Z -1.0000
G00 Z 5.0000

(End cutting path id: path78042)


(Start cutting path id: path78042)
(Change tool to Default tool)

G00 Z 5.0000
G00 X 11.5617 Y 9.2435

G01 Z -1.0000 F 100.0000(Penetrate)
G01 X 11.5650 Y 9.2550 Z -1.0000 F 3500.0000
G01 X 11.5757 Y 9.2655 Z -1.0000
G01 X 11.5811 Y 9.2638 Z -1.0000
G01 X 11.5813 Y 9.2522 Z -1.0000
G01 X 11.5688 Y 9.2390 Z -1.0000
G01 X 11.5618 Y 9.2436 Z -1.0000
G01 X 11.5617 Y 9.2435 Z -1.0000
G00 Z 5.0000

(End cutting path id: path78042)


(Start cutting path id: path78042)
(Change tool to Default tool)

G00 Z 5.0000
G00 X 11.4627 Y 8.8766

G01 Z -1.0000 F 100.0000(Penetrate)
G01 X 11.4670 Y 8.8864 Z -1.0000 F 3500.0000
G01 X 11.4777 Y 8.8907 Z -1.0000
G01 X 11.4846 Y 8.8862 Z -1.0000
G01 X 11.4839 Y 8.8766 Z -1.0000
G02 X 11.4740 Y 8.8644 Z -1.0000 I -0.0505 J 0.0311
G01 X 11.4689 Y 8.8624 Z -1.0000
G01 X 11.4652 Y 8.8649 Z -1.0000
G01 X 11.4627 Y 8.8766 Z -1.0000
G01 X 11.4627 Y 8.8766 Z -1.0000
G00 Z 5.0000

(End cutting path id: path78042)


(Start cutting path id: path78042)
(Change tool to Default tool)

G00 Z 5.0000
G00 X 11.5759 Y 8.6784

G01 Z -1.0000 F 100.0000(Penetrate)
G02 X 11.6062 Y 8.6874 Z -1.0000 I 0.0304 J -0.0470 F 3500.0000
G01 X 11.6112 Y 8.6784 Z -1.0000
G01 X 11.6000 Y 8.6687 Z -1.0000
G02 X 11.5786 Y 8.6645 Z -1.0000 I -0.0210 J 0.0493
G01 X 11.5722 Y 8.6698 Z -1.0000
G01 X 11.5759 Y 8.6784 Z -1.0000
G01 X 11.5759 Y 8.6784 Z -1.0000
G00 Z 5.0000

(End cutting path id: path78042)


(Start cutting path id: path78042)
(Change tool to Default tool)

G00 Z 5.0000
G00 X 12.1628 Y 9.8381

G01 Z -1.0000 F 100.0000(Penetrate)
G01 X 12.1734 Y 9.8488 Z -1.0000 F 3500.0000
G01 X 12.1856 Y 9.8523 Z -1.0000
G01 X 12.1920 Y 9.8479 Z -1.0000
G01 X 12.1910 Y 9.8381 Z -1.0000
G01 X 12.1804 Y 9.8275 Z -1.0000
G01 X 12.1682 Y 9.8240 Z -1.0000
G01 X 12.1618 Y 9.8284 Z -1.0000
G01 X 12.1628 Y 9.8381 Z -1.0000
G01 X 12.1628 Y 9.8381 Z -1.0000
G00 Z 5.0000

(End cutting path id: path78042)


(Start cutting path id: path78042)
(Change tool to Default tool)

G00 Z 5.0000
G00 X 12.0426 Y 10.2548

G01 Z -1.0000 F 100.0000(Penetrate)
G01 X 12.0624 Y 10.2868 Z -1.0000 F 3500.0000
G01 X 12.0906 Y 10.2787 Z -1.0000
G01 X 12.0896 Y 10.2692 Z -1.0000
G01 X 12.0707 Y 10.2582 Z -1.0000
G01 X 12.0426 Y 10.2549 Z -1.0000
G01 X 12.0426 Y 10.2548 Z -1.0000
G00 Z 5.0000

(End cutting path id: path78042)


(Start cutting path id: path78042)
(Change tool to Default tool)

G00 Z 5.0000
G00 X 11.8163 Y 10.4471

G01 Z -1.0000 F 100.0000(Penetrate)
G01 X 11.8208 Y 10.4540 Z -1.0000 F 3500.0000
G01 X 11.8304 Y 10.4533 Z -1.0000
G02 X 11.8425 Y 10.4434 Z -1.0000 I -0.0311 J -0.0505
G01 X 11.8446 Y 10.4383 Z -1.0000
G01 X 11.8421 Y 10.4345 Z -1.0000
G01 X 11.8304 Y 10.4321 Z -1.0000
G01 X 11.8205 Y 10.4363 Z -1.0000
G01 X 11.8163 Y 10.4471 Z -1.0000
G01 X 11.8163 Y 10.4471 Z -1.0000
G00 Z 5.0000

(End cutting path id: path78042)


(Start cutting path id: path78042)
(Change tool to Default tool)

G00 Z 5.0000
G00 X 11.3920 Y 10.7008

G01 Z -1.0000 F 100.0000(Penetrate)
G01 X 11.3963 Y 10.7107 Z -1.0000 F 3500.0000
G01 X 11.4070 Y 10.7149 Z -1.0000
G01 X 11.4139 Y 10.7104 Z -1.0000
G01 X 11.4132 Y 10.7008 Z -1.0000
G02 X 11.4033 Y 10.6887 Z -1.0000 I -0.0505 J 0.0311
G01 X 11.3982 Y 10.6867 Z -1.0000
G01 X 11.3945 Y 10.6891 Z -1.0000
G01 X 11.3920 Y 10.7008 Z -1.0000
G01 X 11.3920 Y 10.7008 Z -1.0000
G00 Z 5.0000

(End cutting path id: path78042)


(Start cutting path id: path78042)
(Change tool to Default tool)

G00 Z 5.0000
G00 X 11.3687 Y 10.9176

G01 Z -1.0000 F 100.0000(Penetrate)
G03 X 11.3754 Y 10.9439 Z -1.0000 I -0.1426 J 0.0500 F 3500.0000
G03 X 11.3779 Y 10.9762 Z -1.0000 I -0.2030 J 0.0323
G02 X 11.3844 Y 11.0044 Z -1.0000 I 0.0646 J -0.0000
G01 X 11.3974 Y 11.0163 Z -1.0000
G01 X 11.4233 Y 10.9966 Z -1.0000
G02 X 11.3882 Y 10.9210 Z -1.0000 I -0.1248 J 0.0120
G01 X 11.3727 Y 10.9129 Z -1.0000
G01 X 11.3687 Y 10.9176 Z -1.0000
G01 X 11.3687 Y 10.9176 Z -1.0000
G00 Z 5.0000

(End cutting path id: path78042)


(Start cutting path id: path78042)
(Change tool to Default tool)

G00 Z 5.0000
G00 X 10.6607 Y 11.0261

G01 Z -1.0000 F 100.0000(Penetrate)
G03 X 10.6626 Y 11.0522 Z -1.0000 I -0.0690 J 0.0182 F 3500.0000
G01 X 10.6569 Y 11.0613 Z -1.0000
G01 X 10.6227 Y 11.0547 Z -1.0000
G01 X 10.6209 Y 11.0126 Z -1.0000
G01 X 10.6413 Y 11.0052 Z -1.0000
G01 X 10.6607 Y 11.0261 Z -1.0000
G01 X 10.6607 Y 11.0261 Z -1.0000
G00 Z 5.0000

(End cutting path id: path78042)


(Start cutting path id: path78042)
(Change tool to Default tool)

G00 Z 5.0000
G00 X 10.3505 Y 10.8266

G01 Z -1.0000 F 100.0000(Penetrate)
G01 X 10.3486 Y 10.8432 Z -1.0000 F 3500.0000
G01 X 10.3418 Y 10.8443 Z -1.0000
G01 X 10.3237 Y 10.8329 Z -1.0000
G02 X 10.2967 Y 10.8287 Z -1.0000 I -0.0255 J 0.0739
G01 X 10.2909 Y 10.8376 Z -1.0000
G02 X 10.3141 Y 10.8690 Z -1.0000 I 0.0794 J -0.0343
G03 X 10.3432 Y 10.9086 Z -1.0000 I -0.0704 J 0.0823
G01 X 10.3389 Y 10.9267 Z -1.0000
G02 X 10.3225 Y 10.9472 Z -1.0000 I 0.0413 J 0.0497
G01 X 10.3172 Y 10.9695 Z -1.0000
G03 X 10.3120 Y 10.9919 Z -1.0000 I -0.0509 J 0.0000
G03 X 10.2966 Y 11.0114 Z -1.0000 I -0.0529 J -0.0258
G01 X 10.2833 Y 11.0315 Z -1.0000
G02 X 10.2789 Y 11.0697 Z -1.0000 I 0.1013 J 0.0308
G01 X 10.2914 Y 11.0807 Z -1.0000
G01 X 10.3030 Y 11.0685 Z -1.0000
G01 X 10.3176 Y 11.0342 Z -1.0000
G01 X 10.3490 Y 11.0244 Z -1.0000
G01 X 10.3550 Y 11.0207 Z -1.0000
G02 X 10.3596 Y 10.9907 Z -1.0000 I -0.0948 J -0.0300
G03 X 10.3653 Y 10.9610 Z -1.0000 I 0.0805 J 0.0000
G01 X 10.3736 Y 10.9553 Z -1.0000
G01 X 10.3813 Y 10.9614 Z -1.0000
G03 X 10.3856 Y 11.0086 Z -1.0000 I -0.1778 J 0.0400
G02 X 10.3899 Y 11.0602 Z -1.0000 I 0.2160 J 0.0081
G02 X 10.4031 Y 11.0932 Z -1.0000 I 0.0983 J -0.0202
G01 X 10.4103 Y 11.1232 Z -1.0000
G01 X 10.3982 Y 11.1490 Z -1.0000
G01 X 10.3809 Y 11.1550 Z -1.0000
G01 X 10.3723 Y 11.1457 Z -1.0000
G01 X 10.3577 Y 11.1745 Z -1.0000
G03 X 10.3387 Y 11.2279 Z -1.0000 I -0.2505 J -0.0588
G03 X 10.3165 Y 11.2594 Z -1.0000 I -0.1063 J -0.0515
G02 X 10.2893 Y 11.2883 Z -1.0000 I 0.5593 J 0.5517
G02 X 10.2598 Y 11.3230 Z -1.0000 I 0.7685 J 0.6851
G01 X 10.2309 Y 11.3584 Z -1.0000
G01 X 10.2383 Y 11.3160 Z -1.0000
G02 X 10.2350 Y 11.1963 Z -1.0000 I -0.2959 J -0.0517
G01 X 10.2064 Y 11.1781 Z -1.0000
G01 X 10.1957 Y 11.1743 Z -1.0000
G01 X 10.1899 Y 11.1581 Z -1.0000
G01 X 10.1837 Y 11.1373 Z -1.0000
G02 X 10.1504 Y 11.0980 Z -1.0000 I -0.1782 J 0.1172
G03 X 10.1189 Y 11.0567 Z -1.0000 I 0.1026 J -0.1108
G03 X 10.0920 Y 10.9854 Z -1.0000 I 0.2878 J -0.1491
G01 X 10.0732 Y 10.9093 Z -1.0000
G01 X 10.1189 Y 10.8736 Z -1.0000
G01 X 10.1122 Y 10.8457 Z -1.0000
G02 X 9.9525 Y 10.8404 Z -1.0000 I -0.0956 J 0.4795
G02 X 9.7878 Y 10.8761 Z -1.0000 I 0.1349 J 1.0207
G01 X 9.7608 Y 10.8988 Z -1.0000
G03 X 9.7380 Y 10.9255 Z -1.0000 I -0.0675 J -0.0344
G01 X 9.7158 Y 10.9317 Z -1.0000
G01 X 9.6917 Y 10.9368 Z -1.0000
G02 X 9.6527 Y 10.9670 Z -1.0000 I 0.0818 J 0.1457
G03 X 9.6145 Y 11.0005 Z -1.0000 I -0.2096 J -0.2003
G01 X 9.5992 Y 11.0063 Z -1.0000
G02 X 9.5635 Y 11.0174 Z -1.0000 I 0.0070 J 0.0853
G01 X 9.5641 Y 11.0265 Z -1.0000
G01 X 9.5870 Y 11.0453 Z -1.0000
G03 X 9.5959 Y 11.0751 Z -1.0000 I -0.0456 J 0.0298
G02 X 9.6029 Y 11.1040 Z -1.0000 I 0.0635 J -0.0000
G01 X 9.6142 Y 11.1109 Z -1.0000
G03 X 9.6679 Y 11.1453 Z -1.0000 I 0.0000 J 0.0591
G03 X 9.6707 Y 11.2337 Z -1.0000 I -0.1035 J 0.0476
G01 X 9.6586 Y 11.2503 Z -1.0000
G03 X 9.6290 Y 11.2673 Z -1.0000 I -0.0684 J -0.0849
G02 X 9.5995 Y 11.2845 Z -1.0000 I 0.0378 J 0.0989
G01 X 9.5868 Y 11.3021 Z -1.0000
G02 X 9.5968 Y 11.3578 Z -1.0000 I 0.0510 J 0.0196
G01 X 9.6468 Y 11.3701 Z -1.0000
G01 X 9.6626 Y 11.3688 Z -1.0000
G01 X 9.6677 Y 11.3746 Z -1.0000
G02 X 9.6692 Y 11.3867 Z -1.0000 I 0.1773 J -0.0157
G02 X 9.6734 Y 11.4105 Z -1.0000 I 0.7003 J -0.1110
G01 X 9.6695 Y 11.4240 Z -1.0000
G01 X 9.6582 Y 11.4266 Z -1.0000
G01 X 9.6447 Y 11.4283 Z -1.0000
G01 X 9.6384 Y 11.4406 Z -1.0000
G03 X 9.6363 Y 11.4618 Z -1.0000 I -0.1121 J -0.0000
G03 X 9.6292 Y 11.4881 Z -1.0000 I -0.1793 J -0.0346
G01 X 9.6313 Y 11.4969 Z -1.0000
G01 X 9.6384 Y 11.4970 Z -1.0000
G01 X 9.6579 Y 11.4884 Z -1.0000
G01 X 9.6821 Y 11.4935 Z -1.0000
G01 X 9.7052 Y 11.4990 Z -1.0000
G01 X 9.7161 Y 11.4928 Z -1.0000
G01 X 9.7181 Y 11.4824 Z -1.0000
G01 X 9.7134 Y 11.4785 Z -1.0000
G01 X 9.7425 Y 11.4573 Z -1.0000
G03 X 9.7859 Y 11.4437 Z -1.0000 I 0.0599 J 0.1150
G01 X 9.7939 Y 11.4507 Z -1.0000
G01 X 9.7886 Y 11.4616 Z -1.0000
G03 X 9.7574 Y 11.4791 Z -1.0000 I -0.0741 J -0.0955
G02 X 9.7293 Y 11.4969 Z -1.0000 I 0.0290 J 0.0767
G01 X 9.7263 Y 11.5092 Z -1.0000
G01 X 9.7669 Y 11.5408 Z -1.0000
G02 X 9.8452 Y 11.5182 Z -1.0000 I 0.0088 J -0.1166
G01 X 9.8790 Y 11.5154 Z -1.0000
G03 X 9.9216 Y 11.5572 Z -1.0000 I -0.0453 J 0.0888
G02 X 9.9410 Y 11.5857 Z -1.0000 I 0.1443 J -0.0772
G01 X 9.9459 Y 11.5859 Z -1.0000
G01 X 9.9476 Y 11.5795 Z -1.0000
G02 X 9.9360 Y 11.5506 Z -1.0000 I -0.1385 J 0.0390
G01 X 9.9327 Y 11.5286 Z -1.0000
G01 X 9.9419 Y 11.5211 Z -1.0000
G01 X 9.9552 Y 11.5296 Z -1.0000
G03 X 9.9636 Y 11.5682 Z -1.0000 I -0.0840 J 0.0387
G02 X 9.9669 Y 11.6140 Z -1.0000 I 0.3226 J 0.0000
G01 X 9.9715 Y 11.6232 Z -1.0000
G01 X 10.0116 Y 11.6312 Z -1.0000
G01 X 10.0343 Y 11.5972 Z -1.0000
G01 X 10.0391 Y 11.5824 Z -1.0000
G01 X 10.0485 Y 11.5776 Z -1.0000
G01 X 10.0568 Y 11.5835 Z -1.0000
G03 X 10.0626 Y 11.6172 Z -1.0000 I -0.0947 J 0.0337
G02 X 10.0676 Y 11.6548 Z -1.0000 I 0.1439 J -0.0000
G01 X 10.0772 Y 11.6714 Z -1.0000
G01 X 10.0832 Y 11.7101 Z -1.0000
G01 X 10.0452 Y 11.7332 Z -1.0000
G01 X 10.0330 Y 11.7408 Z -1.0000
G01 X 10.0347 Y 11.7549 Z -1.0000
G01 X 10.0333 Y 11.7628 Z -1.0000
G01 X 10.0188 Y 11.7640 Z -1.0000
G02 X 9.9848 Y 11.7561 Z -1.0000 I -0.0481 J 0.1302
G01 X 9.9648 Y 11.7585 Z -1.0000
G01 X 9.9612 Y 11.7547 Z -1.0000
G03 X 9.9754 Y 11.7326 Z -1.0000 I 0.0681 J 0.0279
G02 X 10.0089 Y 11.6679 Z -1.0000 I -0.0994 J -0.0926
G01 X 9.9931 Y 11.6484 Z -1.0000
G03 X 9.9804 Y 11.6468 Z -1.0000 I -0.0000 J -0.0524
G03 X 9.9556 Y 11.6390 Z -1.0000 I 0.0507 J -0.2034
G01 X 9.9434 Y 11.6434 Z -1.0000
G01 X 9.9403 Y 11.6662 Z -1.0000
G03 X 9.9375 Y 11.7293 Z -1.0000 I -0.1074 J 0.0270
G01 X 9.9122 Y 11.7474 Z -1.0000
G01 X 9.8958 Y 11.7528 Z -1.0000
G01 X 9.8839 Y 11.7686 Z -1.0000
G01 X 9.8725 Y 11.7852 Z -1.0000
G01 X 9.8596 Y 11.7903 Z -1.0000
G01 X 9.8446 Y 11.7939 Z -1.0000
G02 X 9.8170 Y 11.8107 Z -1.0000 I 0.0683 J 0.1428
G01 X 9.8069 Y 11.8328 Z -1.0000
G02 X 9.8206 Y 11.8687 Z -1.0000 I 0.0644 J -0.0039
G03 X 9.8457 Y 11.9085 Z -1.0000 I -0.1817 J 0.1429
G01 X 9.8509 Y 11.9296 Z -1.0000
G01 X 9.8572 Y 11.9346 Z -1.0000
G01 X 9.8722 Y 11.9250 Z -1.0000
G01 X 9.8868 Y 11.9157 Z -1.0000
G01 X 9.8929 Y 11.9206 Z -1.0000
G03 X 9.8885 Y 11.9412 Z -1.0000 I -0.0508 J 0.0000
G01 X 9.8788 Y 11.9524 Z -1.0000
G01 X 9.8722 Y 11.9737 Z -1.0000
G01 X 9.8935 Y 11.9852 Z -1.0000
G02 X 9.9167 Y 11.9765 Z -1.0000 I -0.0096 J -0.0607
G01 X 9.9206 Y 11.9681 Z -1.0000
G01 X 9.9319 Y 11.9487 Z -1.0000
G03 X 10.0078 Y 11.9337 Z -1.0000 I 0.0789 J 0.1998
G01 X 10.0440 Y 11.9572 Z -1.0000
G01 X 10.0355 Y 11.9978 Z -1.0000
G02 X 9.9902 Y 12.0752 Z -1.0000 I 0.1064 J 0.1142
G01 X 10.0105 Y 12.1009 Z -1.0000
G01 X 10.0256 Y 12.0929 Z -1.0000
G02 X 10.0419 Y 12.0549 Z -1.0000 I -0.0881 J -0.0603
G03 X 10.0571 Y 12.0120 Z -1.0000 I 0.1722 J 0.0368
G03 X 10.0778 Y 11.9842 Z -1.0000 I 0.0909 J 0.0461
G01 X 10.1036 Y 11.9723 Z -1.0000
G01 X 10.1102 Y 11.9807 Z -1.0000
G01 X 10.1131 Y 11.9943 Z -1.0000
G01 X 10.1315 Y 12.0019 Z -1.0000
G01 X 10.1467 Y 12.0118 Z -1.0000
G01 X 10.1475 Y 12.0373 Z -1.0000
G02 X 10.1402 Y 12.0691 Z -1.0000 I 0.1096 J 0.0417
G01 X 10.1443 Y 12.0742 Z -1.0000
G02 X 10.2227 Y 12.0743 Z -1.0000 I 0.0396 J -0.2711
G01 X 10.2465 Y 12.0596 Z -1.0000
G01 X 10.2846 Y 12.0415 Z -1.0000
G03 X 10.3258 Y 12.0660 Z -1.0000 I -0.0044 J 0.0544
G01 X 10.3561 Y 12.0872 Z -1.0000
G02 X 10.4726 Y 12.1009 Z -1.0000 I 0.1165 J -0.4902
G03 X 10.5923 Y 12.1101 Z -1.0000 I -0.0000 J 0.7851
G01 X 10.6147 Y 12.1228 Z -1.0000
G01 X 10.6321 Y 12.1329 Z -1.0000
G01 X 10.6432 Y 12.1280 Z -1.0000
G01 X 10.6567 Y 12.1194 Z -1.0000
G03 X 10.6940 Y 12.1223 Z -1.0000 I 0.0111 J 0.0987
G02 X 10.8085 Y 12.1339 Z -1.0000 I 0.0920 J -0.3370
G01 X 10.8187 Y 12.1142 Z -1.0000
G01 X 10.8093 Y 12.1080 Z -1.0000
G01 X 10.7906 Y 12.1101 Z -1.0000
G01 X 10.7742 Y 12.1086 Z -1.0000
G01 X 10.7603 Y 12.0918 Z -1.0000
G02 X 10.7479 Y 12.0677 Z -1.0000 I -0.1065 J 0.0391
G01 X 10.7363 Y 12.0560 Z -1.0000
G01 X 10.7312 Y 12.0452 Z -1.0000
G01 X 10.7392 Y 12.0259 Z -1.0000
G01 X 10.7440 Y 12.0084 Z -1.0000
G01 X 10.7348 Y 11.9970 Z -1.0000
G01 X 10.7203 Y 11.9837 Z -1.0000
G03 X 10.7132 Y 11.9533 Z -1.0000 I 0.0615 J -0.0304
G01 X 10.7051 Y 11.9297 Z -1.0000
G01 X 10.6921 Y 11.9261 Z -1.0000
G01 X 10.6782 Y 11.9367 Z -1.0000
G01 X 10.6779 Y 11.9454 Z -1.0000
G01 X 10.6774 Y 11.9540 Z -1.0000
G01 X 10.6625 Y 11.9651 Z -1.0000
G01 X 10.6403 Y 11.9623 Z -1.0000
G01 X 10.6250 Y 11.9386 Z -1.0000
G03 X 10.6271 Y 11.9066 Z -1.0000 I 0.0629 J -0.0119
G03 X 10.6446 Y 11.8799 Z -1.0000 I 0.0593 J 0.0196
G01 X 10.6520 Y 11.8497 Z -1.0000
G01 X 10.6259 Y 11.8296 Z -1.0000
G03 X 10.5844 Y 11.8076 Z -1.0000 I 0.0061 J -0.0618
G01 X 10.5927 Y 11.7898 Z -1.0000
G01 X 10.6058 Y 11.7841 Z -1.0000
G01 X 10.6067 Y 11.7749 Z -1.0000
G01 X 10.6041 Y 11.7509 Z -1.0000
G03 X 10.6553 Y 11.6342 Z -1.0000 I 0.7450 J 0.2577
G01 X 10.6901 Y 11.6157 Z -1.0000
G01 X 10.7188 Y 11.6403 Z -1.0000
G01 X 10.7334 Y 11.6559 Z -1.0000
G01 X 10.7529 Y 11.6511 Z -1.0000
G02 X 10.7729 Y 11.6238 Z -1.0000 I -0.0786 J -0.0786
G02 X 10.7803 Y 11.5983 Z -1.0000 I -0.0601 J -0.0312
G03 X 10.7833 Y 11.5706 Z -1.0000 I 0.5825 J 0.0496
G03 X 10.7886 Y 11.5352 Z -1.0000 I 1.1606 J 0.1548
G03 X 10.7945 Y 11.4999 Z -1.0000 I 13.7984 J 2.2714
G02 X 10.7963 Y 11.4888 Z -1.0000 I -3.7437 J -0.6261
G01 X 10.8015 Y 11.4805 Z -1.0000
G03 X 10.8299 Y 11.4659 Z -1.0000 I 0.0746 J 0.1096
G03 X 10.8602 Y 11.4637 Z -1.0000 I 0.0188 J 0.0502
G03 X 10.8951 Y 11.4802 Z -1.0000 I -0.0186 J 0.0846
G01 X 10.9260 Y 11.4850 Z -1.0000
G02 X 10.9729 Y 11.4513 Z -1.0000 I -0.0379 J -0.1022
G03 X 11.0201 Y 11.4004 Z -1.0000 I 0.3950 J 0.3192
G01 X 11.0385 Y 11.3896 Z -1.0000
G02 X 11.0595 Y 11.3824 Z -1.0000 I -0.1459 J -0.4601
G02 X 11.0852 Y 11.3724 Z -1.0000 I -0.2575 J -0.6986
G01 X 11.0980 Y 11.3766 Z -1.0000
G01 X 11.1013 Y 11.3991 Z -1.0000
G01 X 11.1081 Y 11.4241 Z -1.0000
G01 X 11.1395 Y 11.4379 Z -1.0000
G02 X 11.1869 Y 11.4387 Z -1.0000 I 0.0474 J -1.3456
G02 X 11.1976 Y 11.4379 Z -1.0000 I -0.0000 J -0.0683
G01 X 11.2046 Y 11.4404 Z -1.0000
G01 X 11.2082 Y 11.4503 Z -1.0000
G01 X 11.2039 Y 11.4602 Z -1.0000
G01 X 11.1932 Y 11.4645 Z -1.0000
G01 X 11.1851 Y 11.4709 Z -1.0000
G02 X 11.1826 Y 11.5104 Z -1.0000 I 0.1206 J 0.0277
G01 X 11.1737 Y 11.5429 Z -1.0000
G01 X 11.1519 Y 11.5525 Z -1.0000
G01 X 11.1342 Y 11.5569 Z -1.0000
G01 X 11.1335 Y 11.5651 Z -1.0000
G01 X 11.1378 Y 11.5825 Z -1.0000
G03 X 11.1143 Y 11.6285 Z -1.0000 I -0.1394 J -0.0422
G02 X 11.0866 Y 11.6758 Z -1.0000 I 0.1793 J 0.1367
G01 X 11.0876 Y 11.6901 Z -1.0000
G01 X 11.0794 Y 11.7036 Z -1.0000
G03 X 11.0113 Y 11.6842 Z -1.0000 I 0.0137 J -0.1775
G02 X 10.9676 Y 11.6774 Z -1.0000 I -0.0321 J 0.0620
G01 X 10.9537 Y 11.6939 Z -1.0000
G01 X 10.9579 Y 11.6990 Z -1.0000
G01 X 10.9696 Y 11.6966 Z -1.0000
G01 X 10.9773 Y 11.6973 Z -1.0000
G01 X 10.9794 Y 11.7054 Z -1.0000
G01 X 10.9698 Y 11.7212 Z -1.0000
G03 X 10.9458 Y 11.7392 Z -1.0000 I -0.0756 J -0.0754
G02 X 10.9184 Y 11.7544 Z -1.0000 I 3.0891 J 5.6162
G02 X 10.9129 Y 11.7575 Z -1.0000 I 0.2962 J 0.5324
G01 X 10.9054 Y 11.7994 Z -1.0000
G02 X 10.9761 Y 11.8322 Z -1.0000 I 0.0706 J -0.0598
G01 X 10.9882 Y 11.8375 Z -1.0000
G01 X 10.9891 Y 11.8463 Z -1.0000
G01 X 10.9971 Y 11.8647 Z -1.0000
G01 X 11.0266 Y 11.8538 Z -1.0000
G03 X 11.0572 Y 11.8231 Z -1.0000 I 0.1456 J 0.1145
G01 X 11.0718 Y 11.8180 Z -1.0000
G01 X 11.0846 Y 11.8117 Z -1.0000
G02 X 11.1049 Y 11.7756 Z -1.0000 I -0.1090 J -0.0850
G03 X 11.1250 Y 11.7390 Z -1.0000 I 0.1380 J 0.0520
G01 X 11.1368 Y 11.7331 Z -1.0000
G01 X 11.1429 Y 11.7390 Z -1.0000
G01 X 11.1380 Y 11.7605 Z -1.0000
G02 X 11.1341 Y 11.8168 Z -1.0000 I 0.0607 J 0.0325
G01 X 11.1666 Y 11.8378 Z -1.0000
G01 X 11.1977 Y 11.8461 Z -1.0000
G01 X 11.2055 Y 11.8637 Z -1.0000
G03 X 11.1950 Y 11.8886 Z -1.0000 I -0.0543 J -0.0082
G03 X 11.1664 Y 11.9153 Z -1.0000 I -0.0918 J -0.0694
G01 X 11.1425 Y 11.9205 Z -1.0000
G01 X 11.1446 Y 11.9078 Z -1.0000
G01 X 11.1384 Y 11.9029 Z -1.0000
G01 X 11.1285 Y 11.9079 Z -1.0000
G01 X 11.1234 Y 11.9236 Z -1.0000
G01 X 11.0981 Y 11.9635 Z -1.0000
G01 X 11.0549 Y 11.9559 Z -1.0000
G01 X 11.0563 Y 11.9777 Z -1.0000
G01 X 11.0926 Y 12.0052 Z -1.0000
G01 X 11.1194 Y 11.9877 Z -1.0000
G01 X 11.1324 Y 11.9667 Z -1.0000
G01 X 11.1517 Y 11.9594 Z -1.0000
G02 X 11.1742 Y 11.9543 Z -1.0000 I 0.0000 J -0.0521
G02 X 11.1930 Y 11.9397 Z -1.0000 I -0.0241 J -0.0503
G01 X 11.2351 Y 11.9284 Z -1.0000
G03 X 11.2712 Y 11.9685 Z -1.0000 I -0.0200 J 0.0542
G01 X 11.2539 Y 12.0126 Z -1.0000
G01 X 11.2146 Y 12.0054 Z -1.0000
G02 X 11.1966 Y 11.9870 Z -1.0000 I -0.0738 J 0.0538
G01 X 11.1918 Y 11.9877 Z -1.0000
G02 X 11.1874 Y 11.9950 Z -1.0000 I 0.0735 J 0.0490
G02 X 11.1659 Y 12.0361 Z -1.0000 I 2.3409 J 1.2540
G03 X 11.1410 Y 12.0731 Z -1.0000 I -0.1710 J -0.0879
G01 X 11.1250 Y 12.0839 Z -1.0000
G01 X 11.1162 Y 12.0818 Z -1.0000
G01 X 11.1152 Y 12.0744 Z -1.0000
G01 X 11.1170 Y 12.0629 Z -1.0000
G01 X 11.1113 Y 12.0584 Z -1.0000
G03 X 11.0978 Y 12.0569 Z -1.0000 I -0.0000 J -0.0597
G03 X 11.0761 Y 12.0502 Z -1.0000 I 0.0381 J -0.1635
G01 X 11.0583 Y 12.0532 Z -1.0000
G02 X 11.0183 Y 12.0994 Z -1.0000 I 0.1321 J 0.1548
G02 X 10.9838 Y 12.1574 Z -1.0000 I 1.0785 J 0.6809
G01 X 10.9821 Y 12.1642 Z -1.0000
G01 X 10.9854 Y 12.1681 Z -1.0000
G02 X 11.0316 Y 12.1716 Z -1.0000 I 0.0461 J -0.3039
G02 X 11.0733 Y 12.1639 Z -1.0000 I 0.0000 J -0.1159
G01 X 11.0811 Y 12.1525 Z -1.0000
G01 X 11.0897 Y 12.1419 Z -1.0000
G03 X 11.1836 Y 12.1312 Z -1.0000 I 0.1053 J 0.5052
G02 X 11.3678 Y 12.1200 Z -1.0000 I -0.0537 J -2.4123
G01 X 11.3868 Y 12.1110 Z -1.0000
G01 X 11.3960 Y 12.1071 Z -1.0000
G03 X 11.4183 Y 12.1103 Z -1.0000 I 0.0015 J 0.0690
G01 X 11.4232 Y 12.1085 Z -1.0000
G01 X 11.4222 Y 12.1038 Z -1.0000
G01 X 11.4109 Y 12.0883 Z -1.0000
G01 X 11.4128 Y 12.0736 Z -1.0000
G01 X 11.4102 Y 12.0666 Z -1.0000
G01 X 11.3879 Y 12.0661 Z -1.0000
G03 X 11.3558 Y 12.0678 Z -1.0000 I -0.0202 J -0.0799
G01 X 11.3435 Y 12.0597 Z -1.0000
G01 X 11.3490 Y 12.0110 Z -1.0000
G03 X 11.4312 Y 11.9706 Z -1.0000 I 0.0986 J 0.0970
G01 X 11.4623 Y 11.9776 Z -1.0000
G01 X 11.4685 Y 11.9941 Z -1.0000
G03 X 11.4575 Y 12.0218 Z -1.0000 I -0.1661 J -0.0500
G03 X 11.4472 Y 12.0365 Z -1.0000 I -0.0561 J -0.0281
G01 X 11.4396 Y 12.0594 Z -1.0000
G01 X 11.4503 Y 12.0646 Z -1.0000
G01 X 11.4566 Y 12.0669 Z -1.0000
G01 X 11.4568 Y 12.0838 Z -1.0000
G02 X 11.4538 Y 12.1104 Z -1.0000 I 0.0667 J 0.0210
G01 X 11.4598 Y 12.1202 Z -1.0000
G01 X 11.4730 Y 12.1245 Z -1.0000
G02 X 11.6526 Y 12.1365 Z -1.0000 I 0.4206 J -4.9431
G02 X 11.8147 Y 12.1311 Z -1.0000 I 0.0484 J -0.9937
G01 X 11.8241 Y 12.1167 Z -1.0000
G01 X 11.8247 Y 12.0906 Z -1.0000
G03 X 11.8467 Y 12.0565 Z -1.0000 I 0.0891 J 0.0333
G01 X 11.8681 Y 12.0601 Z -1.0000
G01 X 11.8658 Y 12.0960 Z -1.0000
G01 X 11.8714 Y 12.1331 Z -1.0000
G02 X 11.9296 Y 12.1484 Z -1.0000 I 0.0459 J -0.0558
G02 X 11.9861 Y 12.1267 Z -1.0000 I -0.0268 J -0.1543
G01 X 11.9827 Y 12.1150 Z -1.0000
G03 X 11.9620 Y 12.1106 Z -1.0000 I 0.0000 J -0.0505
G01 X 11.9506 Y 12.1005 Z -1.0000
G01 X 11.9513 Y 12.0928 Z -1.0000
G01 X 11.9604 Y 12.0899 Z -1.0000
G01 X 11.9719 Y 12.0850 Z -1.0000
G01 X 11.9791 Y 12.0597 Z -1.0000
G03 X 11.9854 Y 12.0300 Z -1.0000 I 0.0732 J -0.0000
G01 X 11.9968 Y 12.0196 Z -1.0000
G01 X 12.0067 Y 12.0245 Z -1.0000
G03 X 12.0145 Y 12.0703 Z -1.0000 I -0.1310 J 0.0458
G02 X 12.0299 Y 12.1561 Z -1.0000 I 0.2463 J 0.0000
G01 X 12.0522 Y 12.1716 Z -1.0000
G01 X 12.0640 Y 12.1667 Z -1.0000
G01 X 12.0649 Y 12.1589 Z -1.0000
G01 X 12.0650 Y 12.1489 Z -1.0000
G01 X 12.0782 Y 12.1382 Z -1.0000
G01 X 12.0930 Y 12.1392 Z -1.0000
G01 X 12.0993 Y 12.1499 Z -1.0000
G01 X 12.1058 Y 12.1632 Z -1.0000
G01 X 12.1241 Y 12.1692 Z -1.0000
G03 X 12.1485 Y 12.1710 Z -1.0000 I 0.0031 J 0.1219
G03 X 12.2195 Y 12.1862 Z -1.0000 I -0.1845 J 1.0365
G02 X 12.2909 Y 12.1988 Z -1.0000 I 0.1256 J -0.5035
G02 X 12.4273 Y 12.2080 Z -1.0000 I 0.1916 J -1.8251
G01 X 12.5644 Y 12.2121 Z -1.0000
G01 X 12.5700 Y 12.1600 Z -1.0000
G01 X 12.5791 Y 12.1385 Z -1.0000
G01 X 12.5866 Y 12.1399 Z -1.0000
G01 X 12.6167 Y 12.1649 Z -1.0000
G02 X 12.8842 Y 12.1850 Z -1.0000 I 0.2668 J -1.7594
G03 X 13.2348 Y 12.1941 Z -1.0000 I 0.0027 J 6.6254
G03 X 13.2706 Y 12.2054 Z -1.0000 I -0.0040 J 0.0755
G01 X 13.2837 Y 12.2076 Z -1.0000
G01 X 13.2942 Y 12.2001 Z -1.0000
G01 X 13.3056 Y 12.1902 Z -1.0000
G03 X 13.3270 Y 12.1859 Z -1.0000 I 0.0209 J 0.0484
G01 X 13.3334 Y 12.1912 Z -1.0000
G01 X 13.3297 Y 12.1998 Z -1.0000
G01 X 13.3261 Y 12.2084 Z -1.0000
G01 X 13.3327 Y 12.2138 Z -1.0000
G01 X 13.3541 Y 12.2076 Z -1.0000
G02 X 13.3924 Y 12.1756 Z -1.0000 I -0.1056 J -0.1653
G01 X 13.4280 Y 12.1373 Z -1.0000
G01 X 13.4680 Y 12.1756 Z -1.0000
G02 X 13.5160 Y 12.1984 Z -1.0000 I 0.0584 J -0.0609
G01 X 13.5423 Y 12.1848 Z -1.0000
G02 X 13.5491 Y 12.1565 Z -1.0000 I -0.0503 J -0.0269
G01 X 13.5411 Y 12.1353 Z -1.0000
G01 X 13.5335 Y 12.1137 Z -1.0000
G03 X 13.5419 Y 12.0726 Z -1.0000 I 0.1106 J 0.0013
G03 X 13.5702 Y 12.0424 Z -1.0000 I 0.0541 J 0.0224
G01 X 13.5951 Y 12.0466 Z -1.0000
G01 X 13.6034 Y 12.0454 Z -1.0000
G01 X 13.6085 Y 12.0218 Z -1.0000
G03 X 13.6169 Y 11.9899 Z -1.0000 I 0.0511 J -0.0037
G01 X 13.6389 Y 11.9760 Z -1.0000
G01 X 13.6592 Y 11.9798 Z -1.0000
G01 X 13.6615 Y 11.9887 Z -1.0000
G01 X 13.6618 Y 11.9952 Z -1.0000
G01 X 13.6671 Y 11.9961 Z -1.0000
G01 X 13.6832 Y 11.9943 Z -1.0000
G03 X 13.7257 Y 12.0161 Z -1.0000 I -0.0532 J 0.1564
G02 X 13.7682 Y 12.0394 Z -1.0000 I 0.1211 J -0.1700
G01 X 13.7806 Y 12.0384 Z -1.0000
G01 X 13.7902 Y 12.0397 Z -1.0000
G03 X 13.8101 Y 12.0715 Z -1.0000 I -0.0836 J 0.0747
G02 X 13.8323 Y 12.1063 Z -1.0000 I 0.1093 J -0.0452
G01 X 13.8542 Y 12.1195 Z -1.0000
G03 X 13.8760 Y 12.1306 Z -1.0000 I -0.0145 J 0.0554
G01 X 13.8813 Y 12.1417 Z -1.0000
G01 X 13.8708 Y 12.1561 Z -1.0000
G03 X 13.7682 Y 12.1770 Z -1.0000 I -0.1547 J -0.4971
G02 X 13.7262 Y 12.1864 Z -1.0000 I 0.0174 J 0.1757
G01 X 13.7234 Y 12.1929 Z -1.0000
G01 X 13.7163 Y 12.2131 Z -1.0000
G03 X 13.6574 Y 12.2280 Z -1.0000 I -0.0598 J -0.1124
G01 X 13.6340 Y 12.2351 Z -1.0000
G01 X 13.6303 Y 12.2459 Z -1.0000
G01 X 13.6514 Y 12.2612 Z -1.0000
G02 X 14.0581 Y 12.2503 Z -1.0000 I 0.0562 J -5.4893
G03 X 14.5848 Y 12.2424 Z -1.0000 I 0.3429 J 5.3453
G01 X 14.5919 Y 12.2687 Z -1.0000
G01 X 14.6068 Y 12.3203 Z -1.0000
G02 X 14.9263 Y 12.2687 Z -1.0000 I 0.0002 J -1.0137
G03 X 15.1531 Y 12.2297 Z -1.0000 I 0.2427 J 0.7309
G03 X 15.4833 Y 12.2573 Z -1.0000 I 0.0328 J 1.5954
G02 X 15.5540 Y 12.2702 Z -1.0000 I 0.9283 J -4.8684
G01 X 15.5591 Y 12.2707 Z -1.0000
G01 X 15.5787 Y 12.2456 Z -1.0000
G02 X 15.5430 Y 12.2051 Z -1.0000 I -0.0567 J 0.0139
G01 X 15.5300 Y 12.1913 Z -1.0000
G03 X 15.5218 Y 12.1393 Z -1.0000 I 0.1611 J -0.0520
G03 X 15.5350 Y 12.0875 Z -1.0000 I 0.1085 J -0.0000
G03 X 15.5854 Y 12.0224 Z -1.0000 I 0.2249 J 0.1224
G02 X 15.6348 Y 11.9585 Z -1.0000 I -0.1697 J -0.1822
G01 X 15.6270 Y 11.9454 Z -1.0000
G01 X 15.6141 Y 11.9403 Z -1.0000
G01 X 15.6131 Y 11.9323 Z -1.0000
G01 X 15.6119 Y 11.9226 Z -1.0000
G02 X 15.5899 Y 11.9092 Z -1.0000 I -0.0387 J 0.0391
G01 X 15.5586 Y 11.8993 Z -1.0000
G01 X 15.5927 Y 11.8717 Z -1.0000
G01 X 15.6267 Y 11.8441 Z -1.0000
G01 X 15.6626 Y 11.8878 Z -1.0000
G02 X 15.7062 Y 11.9253 Z -1.0000 I 0.1296 J -0.1066
G01 X 15.7133 Y 11.9181 Z -1.0000
G01 X 15.7118 Y 11.9065 Z -1.0000
G01 X 15.7202 Y 11.8956 Z -1.0000
G01 X 15.7258 Y 11.8848 Z -1.0000
G01 X 15.7184 Y 11.8660 Z -1.0000
G01 X 15.7209 Y 11.8462 Z -1.0000
G03 X 15.7697 Y 11.8286 Z -1.0000 I 0.0545 J 0.0746
G03 X 15.8137 Y 11.8399 Z -1.0000 I 0.0045 J 0.0735
G03 X 15.8377 Y 11.8718 Z -1.0000 I -0.0305 J 0.0480
G02 X 15.8568 Y 11.9076 Z -1.0000 I 0.0958 J -0.0281
G01 X 15.8705 Y 11.9112 Z -1.0000
G01 X 15.8846 Y 11.9109 Z -1.0000
G01 X 15.8894 Y 11.9176 Z -1.0000
G01 X 15.8842 Y 11.9260 Z -1.0000
G03 X 15.8612 Y 11.9313 Z -1.0000 I -0.0230 J -0.0474
G01 X 15.8400 Y 11.9242 Z -1.0000
G01 X 15.8329 Y 11.9101 Z -1.0000
G01 X 15.8269 Y 11.8948 Z -1.0000
G01 X 15.8132 Y 11.8888 Z -1.0000
G01 X 15.7972 Y 11.8942 Z -1.0000
G01 X 15.7853 Y 11.9101 Z -1.0000
G01 X 15.7730 Y 11.9253 Z -1.0000
G01 X 15.7520 Y 11.9317 Z -1.0000
G01 X 15.7451 Y 11.9368 Z -1.0000
G01 X 15.7480 Y 11.9443 Z -1.0000
G02 X 15.7702 Y 11.9523 Z -1.0000 I 0.0342 J -0.0596
G02 X 15.8046 Y 11.9544 Z -1.0000 I 0.0258 J -0.1450
G01 X 15.8319 Y 11.9641 Z -1.0000
G03 X 15.8561 Y 12.0019 Z -1.0000 I -0.0603 J 0.0654
G02 X 15.8692 Y 12.0271 Z -1.0000 I 0.0840 J -0.0274
G01 X 15.8738 Y 12.0257 Z -1.0000
G03 X 15.8800 Y 12.0021 Z -1.0000 I 0.0613 J 0.0035
G03 X 15.8974 Y 11.9778 Z -1.0000 I 0.0822 J 0.0405
G02 X 15.9114 Y 11.9526 Z -1.0000 I -0.0367 J -0.0367
G02 X 15.9155 Y 11.8984 Z -1.0000 I -0.1800 J -0.0409
G03 X 15.9251 Y 11.8510 Z -1.0000 I 0.0902 J -0.0064
G01 X 15.9499 Y 11.8309 Z -1.0000
G01 X 15.9768 Y 11.8358 Z -1.0000
G01 X 15.9884 Y 11.8584 Z -1.0000
G03 X 15.9807 Y 11.8932 Z -1.0000 I -0.0818 J -0.0000
G03 X 15.9525 Y 11.9349 Z -1.0000 I -0.1483 J -0.0696
G01 X 15.9259 Y 11.9737 Z -1.0000
G01 X 15.9283 Y 11.9770 Z -1.0000
G01 X 15.9197 Y 11.9925 Z -1.0000
G02 X 15.9063 Y 12.0126 Z -1.0000 I 0.0875 J 0.0729
G02 X 15.8817 Y 12.0651 Z -1.0000 I 0.5936 J 0.3107
G02 X 15.8764 Y 12.1040 Z -1.0000 I 0.0701 J 0.0293
G01 X 15.8876 Y 12.1115 Z -1.0000
G01 X 15.9117 Y 12.1123 Z -1.0000
G01 X 15.9234 Y 12.1235 Z -1.0000
G01 X 15.9345 Y 12.1346 Z -1.0000
G01 X 15.9526 Y 12.1346 Z -1.0000
G01 X 15.9677 Y 12.1358 Z -1.0000
G01 X 15.9743 Y 12.1474 Z -1.0000
G01 X 16.0035 Y 12.1824 Z -1.0000
G02 X 16.0919 Y 12.1690 Z -1.0000 I 0.0248 J -0.1348
G01 X 16.1050 Y 12.1531 Z -1.0000
G01 X 16.1015 Y 12.1363 Z -1.0000
G01 X 16.0943 Y 12.1160 Z -1.0000
G03 X 16.1018 Y 12.0865 Z -1.0000 I 0.0632 J 0.0003
G02 X 16.1126 Y 12.0569 Z -1.0000 I -0.1016 J -0.0541
G01 X 16.1101 Y 12.0481 Z -1.0000
G01 X 16.1092 Y 12.0407 Z -1.0000
G03 X 16.1266 Y 12.0220 Z -1.0000 I 0.0582 J 0.0367
G01 X 16.1390 Y 12.0030 Z -1.0000
G01 X 16.1345 Y 11.9871 Z -1.0000
G01 X 16.1267 Y 11.9687 Z -1.0000
G03 X 16.1332 Y 11.9366 Z -1.0000 I 0.0730 J -0.0019
G01 X 16.1584 Y 11.9140 Z -1.0000
G01 X 16.1836 Y 11.9200 Z -1.0000
G01 X 16.1944 Y 11.9221 Z -1.0000
G01 X 16.2005 Y 11.9129 Z -1.0000
G01 X 16.1939 Y 11.8954 Z -1.0000
G01 X 16.1792 Y 11.8888 Z -1.0000
G01 X 16.1709 Y 11.8816 Z -1.0000
G01 X 16.1755 Y 11.8605 Z -1.0000
G03 X 16.2123 Y 11.8329 Z -1.0000 I 0.0541 J 0.0338
G01 X 16.2288 Y 11.8454 Z -1.0000
G01 X 16.2335 Y 11.8553 Z -1.0000
G02 X 16.2551 Y 11.8670 Z -1.0000 I 0.0414 J -0.0507
G01 X 16.2709 Y 11.8824 Z -1.0000
G03 X 16.2774 Y 11.9312 Z -1.0000 I -0.1154 J 0.0401
G01 X 16.2734 Y 11.9870 Z -1.0000
G01 X 16.3288 Y 11.9839 Z -1.0000
G02 X 16.3721 Y 11.9627 Z -1.0000 I -0.0035 J -0.0620
G02 X 16.3870 Y 11.9171 Z -1.0000 I -0.0464 J -0.0404
G03 X 16.3874 Y 11.8962 Z -1.0000 I 0.1005 J -0.0084
G03 X 16.3920 Y 11.8767 Z -1.0000 I 0.0941 J 0.0118
G01 X 16.4021 Y 11.8693 Z -1.0000
G01 X 16.4207 Y 11.8756 Z -1.0000
G02 X 16.5356 Y 11.9164 Z -1.0000 I 0.1133 J -0.1365
G02 X 16.6111 Y 11.8739 Z -1.0000 I -0.0008 J -0.0898
G01 X 16.6234 Y 11.8647 Z -1.0000
G01 X 16.6373 Y 11.8667 Z -1.0000
G01 X 16.6483 Y 11.8679 Z -1.0000
G01 X 16.6530 Y 11.8614 Z -1.0000
G01 X 16.6570 Y 11.8481 Z -1.0000
G03 X 16.6816 Y 11.8178 Z -1.0000 I 0.1593 J 0.1044
G01 X 16.6951 Y 11.7924 Z -1.0000
G01 X 16.6888 Y 11.7809 Z -1.0000
G01 X 16.6874 Y 11.7664 Z -1.0000
G03 X 16.7243 Y 11.7586 Z -1.0000 I 0.0290 J 0.0460
G03 X 16.7636 Y 11.7711 Z -1.0000 I -0.0189 J 0.1274
G01 X 16.7760 Y 11.7849 Z -1.0000
G01 X 16.7864 Y 11.7941 Z -1.0000
G01 X 16.8002 Y 11.7909 Z -1.0000
G01 X 16.8185 Y 11.7845 Z -1.0000
G03 X 16.8783 Y 11.7927 Z -1.0000 I -0.0066 J 0.2713
G02 X 16.9385 Y 11.8003 Z -1.0000 I 0.0607 J -0.2391
G01 X 16.9645 Y 11.7928 Z -1.0000
G03 X 16.9901 Y 11.7833 Z -1.0000 I 0.0361 J 0.0578
G03 X 17.0170 Y 11.7846 Z -1.0000 I 0.0102 J 0.0657
G02 X 17.0448 Y 11.7866 Z -1.0000 I 0.0191 J -0.0729
G02 X 17.1071 Y 11.7742 Z -1.0000 I -0.0453 J -0.3889
G03 X 17.2291 Y 11.7570 Z -1.0000 I 0.1224 J 0.4282
G01 X 17.2437 Y 11.7740 Z -1.0000
G01 X 17.2749 Y 11.8146 Z -1.0000
G02 X 17.3353 Y 11.7831 Z -1.0000 I 0.0062 J -0.0618
G01 X 17.3518 Y 11.7695 Z -1.0000
G01 X 17.3771 Y 11.7694 Z -1.0000
G01 X 17.3931 Y 11.7684 Z -1.0000
G01 X 17.3953 Y 11.7611 Z -1.0000
G01 X 17.3959 Y 11.7525 Z -1.0000
G01 X 17.4041 Y 11.7501 Z -1.0000
G01 X 17.4180 Y 11.7616 Z -1.0000
G03 X 17.4309 Y 11.7979 Z -1.0000 I -0.0995 J 0.0558
G02 X 17.4461 Y 11.8309 Z -1.0000 I 0.0697 J -0.0121
G01 X 17.4687 Y 11.8435 Z -1.0000
G03 X 17.4966 Y 11.8534 Z -1.0000 I -0.0106 J 0.0741
G03 X 17.5341 Y 11.8827 Z -1.0000 I -0.0992 J 0.1659
G02 X 17.5711 Y 11.9072 Z -1.0000 I 0.0793 J -0.0794
G01 X 17.5953 Y 11.9076 Z -1.0000
G02 X 17.6247 Y 11.8788 Z -1.0000 I -0.0175 J -0.0474
G02 X 17.6273 Y 11.8267 Z -1.0000 I -0.0752 J -0.0298
G03 X 17.6272 Y 11.7868 Z -1.0000 I 0.0702 J -0.0201
G03 X 17.6465 Y 11.7582 Z -1.0000 I 0.0528 J 0.0148
G03 X 17.6994 Y 11.7375 Z -1.0000 I 0.0623 J 0.0810
G01 X 17.7215 Y 11.7512 Z -1.0000
G01 X 17.7495 Y 11.7712 Z -1.0000
G02 X 17.8121 Y 11.7547 Z -1.0000 I 0.0043 J -0.1112
G01 X 17.8210 Y 11.7602 Z -1.0000
G03 X 17.8064 Y 11.8198 Z -1.0000 I -0.2014 J -0.0177
G01 X 17.8117 Y 11.8316 Z -1.0000
G02 X 17.8530 Y 11.8363 Z -1.0000 I 0.0308 J -0.0870
G03 X 17.9462 Y 11.8477 Z -1.0000 I 0.0229 J 0.1993
G01 X 17.9683 Y 11.8795 Z -1.0000
G01 X 17.9727 Y 11.8958 Z -1.0000
G02 X 17.9971 Y 11.9285 Z -1.0000 I 0.1611 J -0.0947
G01 X 18.0157 Y 11.9594 Z -1.0000
G01 X 18.0445 Y 12.0003 Z -1.0000
G02 X 18.0865 Y 12.0308 Z -1.0000 I 0.1057 J -0.1013
G01 X 18.1130 Y 12.0334 Z -1.0000
G01 X 18.1291 Y 12.0389 Z -1.0000
G01 X 18.1333 Y 12.0597 Z -1.0000
G02 X 18.1251 Y 12.0939 Z -1.0000 I 0.6951 J 0.1856
G01 X 18.1240 Y 12.1031 Z -1.0000
G01 X 18.1200 Y 12.1073 Z -1.0000
G03 X 18.0970 Y 12.1054 Z -1.0000 I -0.0058 J -0.0693
G01 X 18.0776 Y 12.1106 Z -1.0000
G02 X 18.0605 Y 12.1421 Z -1.0000 I 0.0455 J 0.0452
G01 X 18.0385 Y 12.1725 Z -1.0000
G01 X 18.0143 Y 12.1695 Z -1.0000
G01 X 17.9969 Y 12.1638 Z -1.0000
G02 X 17.9615 Y 12.1772 Z -1.0000 I 0.0127 J 0.0869
G02 X 17.9338 Y 12.2031 Z -1.0000 I 0.0604 J 0.0922
G01 X 17.9333 Y 12.2147 Z -1.0000
G01 X 17.9318 Y 12.2227 Z -1.0000
G01 X 17.9154 Y 12.2282 Z -1.0000
G02 X 17.8910 Y 12.2329 Z -1.0000 I -0.0000 J 0.0660
G02 X 17.8718 Y 12.2455 Z -1.0000 I 0.0211 J 0.0530
G01 X 17.8812 Y 12.2762 Z -1.0000
G02 X 18.1071 Y 12.2897 Z -1.0000 I 0.1665 J -0.8863
G03 X 18.2085 Y 12.2896 Z -1.0000 I 0.0520 J 0.7814
G01 X 18.2280 Y 12.2973 Z -1.0000
G02 X 18.2468 Y 12.3078 Z -1.0000 I 0.0377 J -0.0454
G02 X 18.2730 Y 12.3126 Z -1.0000 I 0.0290 J -0.0856
G02 X 18.3006 Y 12.3134 Z -1.0000 I 0.5879 J -19.4269
G02 X 18.3530 Y 12.3149 Z -1.0000 I 1.3756 J -47.6991
G02 X 18.4052 Y 12.3134 Z -1.0000 I 0.0131 J -0.4556
G02 X 18.4414 Y 12.3074 Z -1.0000 I -0.0200 J -0.2332
G01 X 18.4647 Y 12.3182 Z -1.0000
G03 X 18.4691 Y 12.3638 Z -1.0000 I -0.0586 J 0.0287
G01 X 18.4524 Y 12.3839 Z -1.0000
G03 X 18.3748 Y 12.4094 Z -1.0000 I -0.1338 J -0.2767
G03 X 18.2905 Y 12.4174 Z -1.0000 I -0.0868 J -0.4667
G01 X 18.2698 Y 12.4099 Z -1.0000
G01 X 18.2559 Y 12.4046 Z -1.0000
G01 X 18.2511 Y 12.4091 Z -1.0000
G01 X 18.2551 Y 12.4210 Z -1.0000
G01 X 18.2657 Y 12.4287 Z -1.0000
G01 X 18.2705 Y 12.4367 Z -1.0000
G03 X 18.2600 Y 12.4614 Z -1.0000 I -0.0586 J -0.0102
G01 X 18.2419 Y 12.4656 Z -1.0000
G03 X 18.2148 Y 12.4372 Z -1.0000 I 0.0298 J -0.0556
G01 X 18.1767 Y 12.4205 Z -1.0000
G01 X 18.1454 Y 12.4589 Z -1.0000
G02 X 18.1592 Y 12.6437 Z -1.0000 I 0.5300 J 0.0534
G01 X 18.1991 Y 12.6695 Z -1.0000
G01 X 18.2175 Y 12.6718 Z -1.0000
G01 X 18.2229 Y 12.6801 Z -1.0000
G01 X 18.2170 Y 12.6890 Z -1.0000
G03 X 18.1878 Y 12.6949 Z -1.0000 I -0.0292 J -0.0694
G01 X 18.1527 Y 12.6949 Z -1.0000
G01 X 18.1606 Y 12.8253 Z -1.0000
G02 X 18.1714 Y 12.9548 Z -1.0000 I 2.9239 J -0.1794
G01 X 18.1757 Y 12.9674 Z -1.0000
G03 X 18.2126 Y 13.1001 Z -1.0000 I -0.2100 J 0.1298
G03 X 18.1733 Y 13.1565 Z -1.0000 I -0.0612 J -0.0007
G02 X 18.0578 Y 13.3341 Z -1.0000 I 0.0650 J 0.1686
G02 X 18.1938 Y 13.5642 Z -1.0000 I 0.2868 J -0.0142
G01 X 18.1996 Y 13.5747 Z -1.0000
G03 X 18.1887 Y 14.0086 Z -1.0000 I -15.8865 J -0.1816
G02 X 18.1880 Y 14.2237 Z -1.0000 I 3.0424 J 0.1180
G01 X 18.1962 Y 14.2455 Z -1.0000
G01 X 18.2034 Y 14.2647 Z -1.0000
G01 X 18.1971 Y 14.2828 Z -1.0000
G02 X 18.1682 Y 14.3627 Z -1.0000 I 0.0967 J 0.0802
G02 X 18.1968 Y 14.4437 Z -1.0000 I 0.1282 J 0.0003
G01 X 18.2020 Y 14.4588 Z -1.0000
G01 X 18.1963 Y 14.4687 Z -1.0000
G01 X 18.1890 Y 14.4805 Z -1.0000
G02 X 18.1885 Y 14.5548 Z -1.0000 I 0.4459 J 0.0401
G02 X 18.1945 Y 14.6324 Z -1.0000 I 72.9871 J -5.6443
G03 X 18.2006 Y 14.7104 Z -1.0000 I -52.8721 J 4.1454
G03 X 18.1981 Y 14.7745 Z -1.0000 I -0.2754 J 0.0216
G01 X 18.1900 Y 14.7784 Z -1.0000
G01 X 18.1942 Y 14.7940 Z -1.0000
G03 X 18.2060 Y 14.8227 Z -1.0000 I -0.0417 J 0.0338
G03 X 18.2107 Y 14.9664 Z -1.0000 I -1.1472 J 0.1101
G02 X 18.2127 Y 15.1072 Z -1.0000 I 1.6188 J 0.0481
G01 X 18.2190 Y 15.1132 Z -1.0000
G01 X 18.2253 Y 15.1192 Z -1.0000
G03 X 18.2255 Y 15.2398 Z -1.0000 I -1.2261 J 0.0625
G02 X 18.2247 Y 15.3658 Z -1.0000 I 1.5524 J 0.0736
G02 X 18.2312 Y 15.4060 Z -1.0000 I 0.1594 J -0.0054
G01 X 18.2393 Y 15.4067 Z -1.0000
G02 X 18.2506 Y 15.3678 Z -1.0000 I -0.0982 J -0.0498
G03 X 18.2654 Y 15.2996 Z -1.0000 I 0.3021 J 0.0298
G01 X 18.2760 Y 15.2935 Z -1.0000
G01 X 18.2877 Y 15.2898 Z -1.0000
G01 X 18.2936 Y 15.2750 Z -1.0000
G01 X 18.2883 Y 15.2626 Z -1.0000
G01 X 18.2794 Y 15.2617 Z -1.0000
G01 X 18.2602 Y 15.2520 Z -1.0000
G03 X 18.2696 Y 15.1393 Z -1.0000 I 0.3475 J -0.0277
G02 X 18.2865 Y 15.0533 Z -1.0000 I -0.8070 J -0.2032
G01 X 18.2844 Y 15.0351 Z -1.0000
G01 X 18.2899 Y 15.0113 Z -1.0000
G03 X 18.3307 Y 14.9914 Z -1.0000 I 0.0523 J 0.0554
G01 X 18.3402 Y 14.9965 Z -1.0000
G03 X 18.3466 Y 15.0252 Z -1.0000 I -0.0613 J 0.0287
G02 X 18.3540 Y 15.0577 Z -1.0000 I 0.0757 J -0.0000
G02 X 18.3732 Y 15.0809 Z -1.0000 I 0.0554 J -0.0264
G03 X 18.3951 Y 15.1026 Z -1.0000 I -0.0620 J 0.0849
G01 X 18.3997 Y 15.1162 Z -1.0000
G01 X 18.4039 Y 15.1289 Z -1.0000
G01 X 18.4157 Y 15.1374 Z -1.0000
G01 X 18.4262 Y 15.1332 Z -1.0000
G02 X 18.4423 Y 15.0891 Z -1.0000 I -0.1347 J -0.0740
G01 X 18.4529 Y 15.0354 Z -1.0000
G01 X 18.4745 Y 15.0849 Z -1.0000
G01 X 18.4961 Y 15.1344 Z -1.0000
G01 X 18.5057 Y 15.0907 Z -1.0000
G03 X 18.5173 Y 15.0479 Z -1.0000 I 0.4644 J 0.1025
G03 X 18.5245 Y 15.0323 Z -1.0000 I 0.0677 J 0.0217
G01 X 18.5279 Y 15.0168 Z -1.0000
G02 X 18.5173 Y 14.9706 Z -1.0000 I -0.2132 J 0.0247
G03 X 18.5103 Y 14.9284 Z -1.0000 I 0.1195 J -0.0416
G01 X 18.5176 Y 14.9183 Z -1.0000
G01 X 18.5267 Y 14.9101 Z -1.0000
G01 X 18.5261 Y 14.8997 Z -1.0000
