%
(Header)
(Generated by gcodetools from Inkscape.)
(Using default header. To add your own header create file "header" in the output dir.)
M3
(Header end.)
G21 (All units in mm)

(Start cutting path id: path19611)
(Change tool to Default tool)

G00 Z 5.0000
G00 X 24.9235 Y 1.4870

G01 Z -1.0000 F 100.0000(Penetrate)
G02 X 24.9708 Y 1.4940 Z -1.0000 I 0.1018 J -0.5266 F 3500.0000
G02 X 25.0505 Y 1.5000 Z -1.0000 I 0.1496 J -1.4651
G03 X 25.1807 Y 1.5103 Z -1.0000 I -0.0968 J 2.0415
G01 X 25.1986 Y 1.5165 Z -1.0000
G01 X 25.2090 Y 1.5197 Z -1.0000
G01 X 25.2228 Y 1.5174 Z -1.0000
G01 X 25.2353 Y 1.5163 Z -1.0000
G01 X 25.2425 Y 1.5214 Z -1.0000
G01 X 25.2502 Y 1.5258 Z -1.0000
G02 X 25.2787 Y 1.5221 Z -1.0000 I 0.0016 J -0.0982
G03 X 25.3094 Y 1.5152 Z -1.0000 I 0.0718 J 0.2501
G03 X 25.3327 Y 1.5135 Z -1.0000 I 0.0222 J 0.1387
G01 X 25.3428 Y 1.5179 Z -1.0000
G01 X 25.3422 Y 1.5236 Z -1.0000
G01 X 25.3829 Y 1.5288 Z -1.0000
G03 X 25.4376 Y 1.5279 Z -1.0000 I 0.0337 J 0.3762
G03 X 25.5287 Y 1.5369 Z -1.0000 I -0.0591 J 1.0619
G02 X 25.6198 Y 1.5482 Z -1.0000 I 0.3698 J -2.6076
G02 X 25.6479 Y 1.5496 Z -1.0000 I 0.0262 J -0.2462
G03 X 25.6759 Y 1.5518 Z -1.0000 I 0.0013 J 0.1656
G03 X 25.7326 Y 1.5635 Z -1.0000 I -0.1126 J 0.6901
G02 X 25.8781 Y 1.5978 Z -1.0000 I 1.4602 J -5.8598
G02 X 26.0007 Y 1.6233 Z -1.0000 I 0.9260 J -4.1519
G03 X 26.0792 Y 1.6410 Z -1.0000 I -0.2491 J 1.2887
G01 X 26.0854 Y 1.6452 Z -1.0000
G02 X 26.1151 Y 1.6678 Z -1.0000 I 0.0520 J -0.0375
G01 X 26.1459 Y 1.6676 Z -1.0000
G01 X 26.1570 Y 1.6673 Z -1.0000
G01 X 26.1607 Y 1.6723 Z -1.0000
G01 X 26.1647 Y 1.6786 Z -1.0000
G01 X 26.1836 Y 1.6827 Z -1.0000
G03 X 26.2046 Y 1.6862 Z -1.0000 I -0.0000 J 0.0647
G01 X 26.2128 Y 1.6927 Z -1.0000
G01 X 26.2203 Y 1.6988 Z -1.0000
G01 X 26.2298 Y 1.6987 Z -1.0000
G01 X 26.2408 Y 1.6971 Z -1.0000
G03 X 26.2924 Y 1.7031 Z -1.0000 I -0.0382 J 0.5536
G02 X 26.4941 Y 1.7317 Z -1.0000 I 0.8023 J -4.9382
G02 X 26.5834 Y 1.7383 Z -1.0000 I 0.1164 J -0.9623
G03 X 26.6529 Y 1.7422 Z -1.0000 I -0.0364 J 1.2740
G01 X 26.6607 Y 1.7447 Z -1.0000
G02 X 26.6859 Y 1.7536 Z -1.0000 I 0.0330 J -0.0532
G02 X 26.8756 Y 1.7716 Z -1.0000 I 0.3963 J -3.1743
G03 X 27.0491 Y 1.7893 Z -1.0000 I -0.1494 J 2.3225
G03 X 27.2849 Y 1.8289 Z -1.0000 I -0.6133 J 4.3783
G02 X 27.3510 Y 1.8401 Z -1.0000 I 0.2591 J -1.3219
G02 X 27.4166 Y 1.8480 Z -1.0000 I 0.1897 J -1.3102
G03 X 27.5130 Y 1.8596 Z -1.0000 I -0.1689 J 1.7986
G03 X 27.5953 Y 1.8745 Z -1.0000 I -0.1990 J 1.3405
G02 X 27.6615 Y 1.8865 Z -1.0000 I 0.2371 J -1.1151
G02 X 27.7035 Y 1.8909 Z -1.0000 I 0.0688 J -0.4539
G03 X 27.7453 Y 1.8955 Z -1.0000 I -0.0252 J 0.4189
G03 X 27.7600 Y 1.9001 Z -1.0000 I -0.0086 J 0.0535
G02 X 27.7953 Y 1.9119 Z -1.0000 I 0.0641 J -0.1335
G02 X 27.9241 Y 1.9326 Z -1.0000 I 0.3570 J -1.8066
G03 X 27.9702 Y 1.9403 Z -1.0000 I -0.0727 J 0.5808
G03 X 28.0417 Y 1.9570 Z -1.0000 I -0.2911 J 1.4040
G02 X 28.1314 Y 1.9782 Z -1.0000 I 0.5028 J -1.9242
G02 X 28.2351 Y 1.9981 Z -1.0000 I 0.5422 J -2.5532
G03 X 28.3193 Y 2.0144 Z -1.0000 I -0.3108 J 1.8319
G03 X 28.3621 Y 2.0256 Z -1.0000 I -0.1088 J 0.5001
G02 X 28.4580 Y 2.0504 Z -1.0000 I 0.3082 J -0.9932
G02 X 28.4914 Y 2.0526 Z -1.0000 I 0.0244 J -0.1169
G01 X 28.5004 Y 2.0547 Z -1.0000
G01 X 28.5032 Y 2.0595 Z -1.0000
G01 X 28.5067 Y 2.0643 Z -1.0000
G02 X 28.5479 Y 2.0738 Z -1.0000 I 0.0783 J -0.2450
G03 X 28.5921 Y 2.0823 Z -1.0000 I -0.0754 J 0.5149
G03 X 28.6516 Y 2.0983 Z -1.0000 I -0.2199 J 0.9307
G02 X 28.7101 Y 2.1127 Z -1.0000 I 0.1592 J -0.5216
G01 X 28.7192 Y 2.1110 Z -1.0000
G01 X 28.7265 Y 2.1108 Z -1.0000
G01 X 28.7356 Y 2.1195 Z -1.0000
G01 X 28.7464 Y 2.1285 Z -1.0000
G02 X 28.7949 Y 2.1388 Z -1.0000 I 0.0737 J -0.2262
G03 X 28.8703 Y 2.1496 Z -1.0000 I -0.1134 J 1.0643
G01 X 28.8844 Y 2.1549 Z -1.0000
G01 X 28.8943 Y 2.1585 Z -1.0000
G02 X 28.9548 Y 2.1672 Z -1.0000 I 0.1675 J -0.9485
G03 X 29.0148 Y 2.1767 Z -1.0000 I -0.0768 J 0.6797
G01 X 29.0255 Y 2.1818 Z -1.0000
G01 X 29.0364 Y 2.1860 Z -1.0000
G02 X 29.1431 Y 2.1894 Z -1.0000 I 0.1041 J -1.5806
G03 X 29.2510 Y 2.1911 Z -1.0000 I 0.0040 J 3.0813
G03 X 29.2793 Y 2.1939 Z -1.0000 I -0.0076 J 0.2263
G02 X 29.3076 Y 2.1980 Z -1.0000 I 0.1049 J -0.6260
G02 X 29.3673 Y 2.2047 Z -1.0000 I 0.3878 J -3.1912
G03 X 29.4265 Y 2.2129 Z -1.0000 I -0.0794 J 0.7901
G03 X 29.4486 Y 2.2190 Z -1.0000 I -0.0214 J 0.1208
G02 X 29.4695 Y 2.2237 Z -1.0000 I 0.0270 J -0.0713
G01 X 29.4763 Y 2.2212 Z -1.0000
G01 X 29.4806 Y 2.2215 Z -1.0000
G01 X 29.4879 Y 2.2363 Z -1.0000
G01 X 29.4972 Y 2.2517 Z -1.0000
G01 X 29.5087 Y 2.2551 Z -1.0000
G01 X 29.5235 Y 2.2560 Z -1.0000
G03 X 29.5569 Y 2.2685 Z -1.0000 I -0.0568 J 0.2025
G02 X 29.5908 Y 2.2802 Z -1.0000 I 0.0681 J -0.1434
G02 X 29.6415 Y 2.2871 Z -1.0000 I 0.0685 J -0.3108
G03 X 29.7536 Y 2.3131 Z -1.0000 I -0.0192 J 0.3372
G01 X 29.7732 Y 2.3428 Z -1.0000
G01 X 29.7760 Y 2.3462 Z -1.0000
G01 X 29.7853 Y 2.3455 Z -1.0000
G01 X 29.7964 Y 2.3457 Z -1.0000
G03 X 29.8179 Y 2.3599 Z -1.0000 I -0.0312 J 0.0705
G02 X 29.8396 Y 2.3757 Z -1.0000 I 0.0770 J -0.0827
G01 X 29.8518 Y 2.3789 Z -1.0000
G01 X 29.8627 Y 2.3826 Z -1.0000
G01 X 29.8709 Y 2.3936 Z -1.0000
G01 X 29.8782 Y 2.4035 Z -1.0000
G01 X 29.8838 Y 2.4039 Z -1.0000
G01 X 29.8910 Y 2.4035 Z -1.0000
G03 X 29.9313 Y 2.4268 Z -1.0000 I -0.1415 J 0.2908
G02 X 29.9725 Y 2.4510 Z -1.0000 I 0.1998 J -0.2930
G01 X 29.9876 Y 2.4549 Z -1.0000
G01 X 29.9919 Y 2.4604 Z -1.0000
G01 X 29.9886 Y 2.4725 Z -1.0000
G01 X 30.0086 Y 2.4824 Z -1.0000
G01 X 30.0241 Y 2.4877 Z -1.0000
G03 X 30.0774 Y 2.5354 Z -1.0000 I -0.2918 J 0.3791
G03 X 30.1210 Y 2.5923 Z -1.0000 I -0.2341 J 0.2249
G03 X 30.1393 Y 2.6378 Z -1.0000 I -0.1302 J 0.0788
G02 X 30.1549 Y 2.6846 Z -1.0000 I 0.2421 J -0.0543
G02 X 30.1689 Y 2.7040 Z -1.0000 I 0.0530 J -0.0236
G03 X 30.1818 Y 2.7223 Z -1.0000 I -0.0339 J 0.0375
G01 X 30.1823 Y 2.7367 Z -1.0000
G01 X 30.1808 Y 2.7526 Z -1.0000
G02 X 30.1872 Y 2.7791 Z -1.0000 I 0.1107 J -0.0129
G03 X 30.1913 Y 2.8034 Z -1.0000 I -0.0586 J 0.0224
G01 X 30.1862 Y 2.8122 Z -1.0000
G01 X 30.1833 Y 2.8205 Z -1.0000
G02 X 30.2000 Y 2.8515 Z -1.0000 I 0.1048 J -0.0364
G03 X 30.2201 Y 2.8856 Z -1.0000 I -0.1318 J 0.1005
G03 X 30.2248 Y 2.9082 Z -1.0000 I -0.0516 J 0.0226
G01 X 30.2330 Y 2.9254 Z -1.0000
G02 X 30.2624 Y 2.9387 Z -1.0000 I 0.0400 J -0.0492
G03 X 30.2955 Y 2.9489 Z -1.0000 I -0.0220 J 0.1301
G01 X 30.3000 Y 2.9560 Z -1.0000
G02 X 30.3209 Y 2.9978 Z -1.0000 I 0.0523 J -0.0000
G02 X 30.3834 Y 3.0186 Z -1.0000 I 0.0625 J -0.0832
G01 X 30.3995 Y 3.0221 Z -1.0000
G01 X 30.4052 Y 3.0283 Z -1.0000
G02 X 30.4443 Y 3.0684 Z -1.0000 I 0.0612 J -0.0206
G02 X 30.5846 Y 3.0938 Z -1.0000 I 0.1436 J -0.3933
G01 X 30.5961 Y 3.1032 Z -1.0000
G01 X 30.5893 Y 3.1163 Z -1.0000
G01 X 30.6025 Y 3.1162 Z -1.0000
G03 X 30.6265 Y 3.1165 Z -1.0000 I 0.0114 J 0.0555
G03 X 30.6528 Y 3.1277 Z -1.0000 I -0.0177 J 0.0782
G02 X 30.6935 Y 3.1428 Z -1.0000 I 0.0535 J -0.0817
G02 X 30.8477 Y 3.1535 Z -1.0000 I 0.1626 J -1.2268
G03 X 30.8976 Y 3.1594 Z -1.0000 I -0.0015 J 0.2274
G01 X 30.9066 Y 3.1672 Z -1.0000
G01 X 30.9148 Y 3.1746 Z -1.0000
G01 X 30.9354 Y 3.1746 Z -1.0000
G01 X 30.9557 Y 3.1750 Z -1.0000
G01 X 30.9645 Y 3.1830 Z -1.0000
G01 X 30.9739 Y 3.1917 Z -1.0000
G02 X 31.0113 Y 3.1974 Z -1.0000 I 0.0375 J -0.1219
G03 X 31.0489 Y 3.2012 Z -1.0000 I 0.0000 J 0.1880
G01 X 31.0527 Y 3.2058 Z -1.0000
G01 X 31.0858 Y 3.2421 Z -1.0000
G01 X 31.1306 Y 3.2128 Z -1.0000
G01 X 31.1358 Y 3.2099 Z -1.0000
G03 X 31.1646 Y 3.2204 Z -1.0000 I -0.0258 J 0.1157
G02 X 31.1964 Y 3.2314 Z -1.0000 I 0.0545 J -0.1057
G02 X 31.2185 Y 3.2308 Z -1.0000 I 0.0097 J -0.0500
G03 X 31.2407 Y 3.2291 Z -1.0000 I 0.0160 J 0.0644
G01 X 31.2591 Y 3.2347 Z -1.0000
G01 X 31.2746 Y 3.2385 Z -1.0000
G01 X 31.2802 Y 3.2343 Z -1.0000
G01 X 31.2861 Y 3.2299 Z -1.0000
G03 X 31.3069 Y 3.2332 Z -1.0000 I 0.0022 J 0.0519
G02 X 31.3546 Y 3.2414 Z -1.0000 I 0.0450 J -0.1197
G02 X 31.4179 Y 3.2308 Z -1.0000 I -0.0048 J -0.2246
G01 X 31.4376 Y 3.2304 Z -1.0000
G01 X 31.4514 Y 3.2397 Z -1.0000
G01 X 31.4662 Y 3.2490 Z -1.0000
G02 X 31.5213 Y 3.2523 Z -1.0000 I 0.0418 J -0.2315
G03 X 31.5742 Y 3.2547 Z -1.0000 I 0.0149 J 0.2618
G01 X 31.5795 Y 3.2608 Z -1.0000
G01 X 31.5833 Y 3.2688 Z -1.0000
G01 X 31.5939 Y 3.2726 Z -1.0000
G01 X 31.6075 Y 3.2752 Z -1.0000
G03 X 31.6316 Y 3.2878 Z -1.0000 I -0.0504 J 0.1257
G01 X 31.6548 Y 3.2948 Z -1.0000
G01 X 31.6574 Y 3.2881 Z -1.0000
G03 X 31.6734 Y 3.2749 Z -1.0000 I 0.0585 J 0.0548
G01 X 31.6923 Y 3.2708 Z -1.0000
G03 X 31.7275 Y 3.2818 Z -1.0000 I -0.0133 J 0.1042
G02 X 31.7641 Y 3.2965 Z -1.0000 I 0.0912 J -0.1749
G02 X 31.8053 Y 3.3043 Z -1.0000 I 0.0619 J -0.2149
G03 X 31.8472 Y 3.3100 Z -1.0000 I -0.0466 J 0.4934
G03 X 31.8641 Y 3.3150 Z -1.0000 I -0.0151 J 0.0834
G01 X 31.8766 Y 3.3159 Z -1.0000
G01 X 31.8805 Y 3.3110 Z -1.0000
G01 X 31.8845 Y 3.3069 Z -1.0000
G01 X 31.8997 Y 3.3105 Z -1.0000
G02 X 31.9193 Y 3.3166 Z -1.0000 I 0.0260 J -0.0490
G01 X 31.9373 Y 3.3149 Z -1.0000
G01 X 31.9507 Y 3.3163 Z -1.0000
G01 X 31.9565 Y 3.3261 Z -1.0000
G01 X 31.9620 Y 3.3314 Z -1.0000
G01 X 31.9690 Y 3.3228 Z -1.0000
G01 X 31.9793 Y 3.3196 Z -1.0000
G01 X 31.9896 Y 3.3229 Z -1.0000
G01 X 31.9962 Y 3.3314 Z -1.0000
G01 X 32.0022 Y 3.3358 Z -1.0000
G01 X 32.0124 Y 3.3320 Z -1.0000
G01 X 32.0241 Y 3.3281 Z -1.0000
G01 X 32.0383 Y 3.3350 Z -1.0000
G01 X 32.0525 Y 3.3423 Z -1.0000
G01 X 32.0624 Y 3.3391 Z -1.0000
G01 X 32.0927 Y 3.3282 Z -1.0000
G01 X 32.1063 Y 3.3432 Z -1.0000
G01 X 32.1144 Y 3.3496 Z -1.0000
G01 X 32.1371 Y 3.3361 Z -1.0000
G01 X 32.1541 Y 3.3240 Z -1.0000
G01 X 32.1601 Y 3.3267 Z -1.0000
G01 X 32.1670 Y 3.3347 Z -1.0000
G01 X 32.1819 Y 3.3385 Z -1.0000
G03 X 32.2306 Y 3.3481 Z -1.0000 I 0.0000 J 0.1285
G03 X 32.2578 Y 3.3696 Z -1.0000 I -0.0238 J 0.0580
G01 X 32.2651 Y 3.3731 Z -1.0000
G02 X 32.3040 Y 3.3667 Z -1.0000 I -0.0123 J -0.1964
G03 X 32.3447 Y 3.3599 Z -1.0000 I 0.0548 J 0.2033
G03 X 32.3766 Y 3.3618 Z -1.0000 I 0.0086 J 0.1272
G01 X 32.3969 Y 3.3721 Z -1.0000
G01 X 32.3975 Y 3.3814 Z -1.0000
G01 X 32.3933 Y 3.3916 Z -1.0000
G01 X 32.3963 Y 3.3949 Z -1.0000
G01 X 32.4050 Y 3.3926 Z -1.0000
G01 X 32.4121 Y 3.3855 Z -1.0000
G03 X 32.4576 Y 3.3593 Z -1.0000 I 0.0468 J 0.0287
G01 X 32.4827 Y 3.3838 Z -1.0000
G01 X 32.4863 Y 3.3883 Z -1.0000
G02 X 32.5579 Y 3.4005 Z -1.0000 I 0.1567 J -0.7058
G02 X 32.6298 Y 3.4055 Z -1.0000 I 0.0900 J -0.7604
G01 X 32.6332 Y 3.4023 Z -1.0000
G01 X 32.6638 Y 3.4138 Z -1.0000
G02 X 32.7004 Y 3.4273 Z -1.0000 I 0.0525 J -0.0860
G01 X 32.7059 Y 3.4205 Z -1.0000
G01 X 32.7272 Y 3.3912 Z -1.0000
G03 X 32.7853 Y 3.4250 Z -1.0000 I -0.0042 J 0.0739
G01 X 32.7931 Y 3.4288 Z -1.0000
G01 X 32.8020 Y 3.4234 Z -1.0000
G01 X 32.8117 Y 3.4201 Z -1.0000
G03 X 32.8349 Y 3.4357 Z -1.0000 I -0.0209 J 0.0563
G02 X 32.8541 Y 3.4492 Z -1.0000 I 0.0414 J -0.0384
G01 X 32.8590 Y 3.4460 Z -1.0000
G01 X 32.8645 Y 3.4375 Z -1.0000
G01 X 32.8802 Y 3.4363 Z -1.0000
G02 X 32.9017 Y 3.4402 Z -1.0000 I 0.0310 J -0.1094
G02 X 33.0742 Y 3.4525 Z -1.0000 I 0.5974 J -7.1233
G02 X 33.2440 Y 3.4571 Z -1.0000 I 0.1559 J -2.6335
G01 X 33.2540 Y 3.4516 Z -1.0000
G01 X 33.2601 Y 3.4494 Z -1.0000
G01 X 33.2670 Y 3.4561 Z -1.0000
G01 X 33.2771 Y 3.4646 Z -1.0000
G02 X 33.3120 Y 3.4652 Z -1.0000 I 0.0189 J -0.0935
G03 X 33.3405 Y 3.4681 Z -1.0000 I 0.0090 J 0.0527
G01 X 33.3458 Y 3.4784 Z -1.0000
G01 X 33.3550 Y 3.4925 Z -1.0000
G01 X 33.3748 Y 3.4827 Z -1.0000
G01 X 33.3858 Y 3.4737 Z -1.0000
G01 X 33.4011 Y 3.4743 Z -1.0000
G01 X 33.4056 Y 3.4815 Z -1.0000
G01 X 33.3999 Y 3.4892 Z -1.0000
G01 X 33.4325 Y 3.4876 Z -1.0000
G03 X 33.4634 Y 3.4825 Z -1.0000 I 0.0301 J 0.0861
G03 X 33.5140 Y 3.4884 Z -1.0000 I -0.0022 J 0.2413
G02 X 33.5758 Y 3.4984 Z -1.0000 I 0.1167 J -0.5201
G02 X 33.7292 Y 3.5106 Z -1.0000 I 0.3340 J -3.2298
G03 X 33.7562 Y 3.5146 Z -1.0000 I -0.0085 J 0.1531
G01 X 33.7621 Y 3.5184 Z -1.0000
G01 X 33.7683 Y 3.5219 Z -1.0000
G02 X 33.8703 Y 3.5296 Z -1.0000 I 0.1956 J -1.9015
G03 X 33.9734 Y 3.5369 Z -1.0000 I -0.1062 J 2.2391
G03 X 33.9957 Y 3.5413 Z -1.0000 I -0.0105 J 0.1122
G01 X 34.0102 Y 3.5396 Z -1.0000
G01 X 34.0145 Y 3.5302 Z -1.0000
G01 X 34.0170 Y 3.5172 Z -1.0000
G01 X 34.0256 Y 3.5125 Z -1.0000
G01 X 34.0343 Y 3.5170 Z -1.0000
G01 X 34.0369 Y 3.5289 Z -1.0000
G01 X 34.0395 Y 3.5409 Z -1.0000
G01 X 34.0479 Y 3.5454 Z -1.0000
G01 X 34.0593 Y 3.5488 Z -1.0000
G01 X 34.0659 Y 3.5571 Z -1.0000
G01 X 34.0720 Y 3.5614 Z -1.0000
G01 X 34.0827 Y 3.5571 Z -1.0000
G03 X 34.1287 Y 3.5393 Z -1.0000 I 0.0449 J 0.0476
G03 X 34.2702 Y 3.5603 Z -1.0000 I -0.0096 J 0.5511
G02 X 34.3585 Y 3.5796 Z -1.0000 I 0.1953 J -0.6838
G01 X 34.3643 Y 3.5747 Z -1.0000
G01 X 34.3605 Y 3.5678 Z -1.0000
G01 X 34.3478 Y 3.5640 Z -1.0000
G01 X 34.3429 Y 3.5606 Z -1.0000
G01 X 34.3446 Y 3.5554 Z -1.0000
G01 X 34.3572 Y 3.5529 Z -1.0000
G01 X 34.3711 Y 3.5602 Z -1.0000
G02 X 34.4157 Y 3.5837 Z -1.0000 I 0.0602 J -0.0602
G01 X 34.4398 Y 3.5730 Z -1.0000
G01 X 34.4500 Y 3.5672 Z -1.0000
G03 X 34.4845 Y 3.5717 Z -1.0000 I 0.0031 J 0.1100
G02 X 34.5772 Y 3.5861 Z -1.0000 I 0.0982 J -0.3277
G01 X 34.5900 Y 3.5734 Z -1.0000
G01 X 34.5931 Y 3.5670 Z -1.0000
G01 X 34.6013 Y 3.5640 Z -1.0000
G01 X 34.6046 Y 3.5673 Z -1.0000
G01 X 34.6013 Y 3.5753 Z -1.0000
G01 X 34.5994 Y 3.5875 Z -1.0000
G01 X 34.6088 Y 3.5901 Z -1.0000
G01 X 34.6276 Y 3.5845 Z -1.0000
G01 X 34.6457 Y 3.5896 Z -1.0000
G01 X 34.6625 Y 3.5937 Z -1.0000
G01 X 34.6750 Y 3.5872 Z -1.0000
G01 X 34.7014 Y 3.5732 Z -1.0000
G01 X 34.7269 Y 3.5821 Z -1.0000
G01 X 34.7503 Y 3.5929 Z -1.0000
G02 X 34.9499 Y 3.6048 Z -1.0000 I 0.2409 J -2.3626
G03 X 35.0381 Y 3.6098 Z -1.0000 I -0.0198 J 1.1393
G01 X 35.0416 Y 3.6136 Z -1.0000
G01 X 35.0849 Y 3.6539 Z -1.0000
G02 X 35.2167 Y 3.6008 Z -1.0000 I -0.0169 J -0.2323
G01 X 35.2300 Y 3.5973 Z -1.0000
G01 X 35.2487 Y 3.6065 Z -1.0000
G01 X 35.2625 Y 3.6124 Z -1.0000
G01 X 35.2674 Y 3.6078 Z -1.0000
G01 X 35.2766 Y 3.5981 Z -1.0000
G01 X 35.2956 Y 3.6063 Z -1.0000
G01 X 35.3088 Y 3.6173 Z -1.0000
G01 X 35.3209 Y 3.6204 Z -1.0000
G01 X 35.3333 Y 3.6234 Z -1.0000
G03 X 35.3487 Y 3.6346 Z -1.0000 I -0.0268 J 0.0531
G01 X 35.3647 Y 3.6440 Z -1.0000
G02 X 35.3927 Y 3.6476 Z -1.0000 I 0.0248 J -0.0842
G01 X 35.3983 Y 3.6441 Z -1.0000
G01 X 35.3967 Y 3.6405 Z -1.0000
G01 X 35.3708 Y 3.6346 Z -1.0000
G01 X 35.3911 Y 3.6016 Z -1.0000
G03 X 35.4102 Y 3.5791 Z -1.0000 I 0.0835 J 0.0514
G01 X 35.4154 Y 3.5805 Z -1.0000
G01 X 35.4228 Y 3.5875 Z -1.0000
G02 X 35.4563 Y 3.5922 Z -1.0000 I 0.0335 J -0.1162
G03 X 35.4869 Y 3.5987 Z -1.0000 I 0.0000 J 0.0761
G01 X 35.4937 Y 3.6087 Z -1.0000
G01 X 35.5028 Y 3.6040 Z -1.0000
G03 X 35.5134 Y 3.5859 Z -1.0000 I 0.0661 J 0.0267
G01 X 35.5199 Y 3.5828 Z -1.0000
G01 X 35.5262 Y 3.5860 Z -1.0000
G03 X 35.5353 Y 3.6040 Z -1.0000 I -0.0509 J 0.0373
G01 X 35.5418 Y 3.6108 Z -1.0000
G01 X 35.5466 Y 3.6083 Z -1.0000
G01 X 35.5470 Y 3.5923 Z -1.0000
G01 X 35.5403 Y 3.5784 Z -1.0000
G01 X 35.5384 Y 3.5671 Z -1.0000
G01 X 35.5489 Y 3.5550 Z -1.0000
G01 X 35.5649 Y 3.5504 Z -1.0000
G01 X 35.5683 Y 3.5536 Z -1.0000
G01 X 35.5657 Y 3.5607 Z -1.0000
G01 X 35.5566 Y 3.5673 Z -1.0000
G01 X 35.5561 Y 3.5801 Z -1.0000
G02 X 35.5925 Y 3.5851 Z -1.0000 I 0.0255 J -0.0516
G01 X 35.6114 Y 3.5731 Z -1.0000
G01 X 35.6165 Y 3.5523 Z -1.0000
G01 X 35.6186 Y 3.5480 Z -1.0000
G01 X 35.6295 Y 3.5452 Z -1.0000
G01 X 35.6403 Y 3.5485 Z -1.0000
G01 X 35.6436 Y 3.5546 Z -1.0000
G01 X 35.6621 Y 3.5731 Z -1.0000
G01 X 35.6955 Y 3.5544 Z -1.0000
G01 X 35.7029 Y 3.5477 Z -1.0000
G01 X 35.7125 Y 3.5461 Z -1.0000
G01 X 35.7391 Y 3.5419 Z -1.0000
G01 X 35.7512 Y 3.5282 Z -1.0000
G01 X 35.7617 Y 3.5186 Z -1.0000
G03 X 35.8130 Y 3.5152 Z -1.0000 I 0.0380 J 0.1809
G02 X 35.8621 Y 3.5112 Z -1.0000 I 0.0115 J -0.1609
G01 X 35.8697 Y 3.5017 Z -1.0000
G01 X 35.8743 Y 3.4973 Z -1.0000
G01 X 35.8837 Y 3.5021 Z -1.0000
G01 X 35.8983 Y 3.5101 Z -1.0000
G01 X 35.9147 Y 3.5045 Z -1.0000
G01 X 35.9340 Y 3.4941 Z -1.0000
G03 X 35.9760 Y 3.4888 Z -1.0000 I 0.0419 J 0.1630
G02 X 36.0113 Y 3.4801 Z -1.0000 I 0.0000 J -0.0759
G01 X 36.0199 Y 3.4658 Z -1.0000
G01 X 36.0247 Y 3.4455 Z -1.0000
G01 X 36.0364 Y 3.4330 Z -1.0000
G01 X 36.0436 Y 3.4231 Z -1.0000
G01 X 36.0404 Y 3.4151 Z -1.0000
G01 X 36.0360 Y 3.3719 Z -1.0000
G03 X 36.1174 Y 3.3383 Z -1.0000 I 0.0814 J 0.0816
G02 X 36.1382 Y 3.3343 Z -1.0000 I -0.0000 J -0.0554
G01 X 36.1422 Y 3.3283 Z -1.0000
G01 X 36.1391 Y 3.3238 Z -1.0000
G01 X 36.1322 Y 3.3245 Z -1.0000
G01 X 36.1033 Y 3.3216 Z -1.0000
G03 X 36.0857 Y 3.2811 Z -1.0000 I 0.0379 J -0.0405
G01 X 36.0821 Y 3.2672 Z -1.0000
G01 X 36.0740 Y 3.2604 Z -1.0000
G01 X 36.0704 Y 3.2542 Z -1.0000
G01 X 36.0787 Y 3.2377 Z -1.0000
G02 X 36.0919 Y 3.2179 Z -1.0000 I -0.0633 J -0.0564
G01 X 36.0951 Y 3.2034 Z -1.0000
G01 X 36.0985 Y 3.1911 Z -1.0000
G01 X 36.1045 Y 3.1877 Z -1.0000
G01 X 36.1108 Y 3.1845 Z -1.0000
G01 X 36.1139 Y 3.1748 Z -1.0000
G01 X 36.1170 Y 3.1633 Z -1.0000
G01 X 36.1281 Y 3.1501 Z -1.0000
G01 X 36.1359 Y 3.1256 Z -1.0000
G01 X 36.1187 Y 3.1148 Z -1.0000
G03 X 36.0985 Y 3.1151 Z -1.0000 I -0.0111 J -0.0576
G01 X 36.0951 Y 3.1112 Z -1.0000
G01 X 36.0982 Y 3.1060 Z -1.0000
G01 X 36.1099 Y 3.1031 Z -1.0000
G01 X 36.1234 Y 3.1000 Z -1.0000
G02 X 36.1380 Y 3.0898 Z -1.0000 I -0.0224 J -0.0474
G03 X 36.1521 Y 3.0779 Z -1.0000 I 0.0737 J 0.0737
G01 X 36.1632 Y 3.0723 Z -1.0000
G01 X 36.1690 Y 3.0665 Z -1.0000
G01 X 36.1677 Y 3.0601 Z -1.0000
G01 X 36.1591 Y 3.0568 Z -1.0000
G02 X 36.1307 Y 3.0634 Z -1.0000 I 0.0096 J 0.1065
G03 X 36.1018 Y 3.0712 Z -1.0000 I -0.0556 J -0.1484
G01 X 36.0958 Y 3.0693 Z -1.0000
G01 X 36.0960 Y 3.0586 Z -1.0000
G03 X 36.1326 Y 3.0353 Z -1.0000 I 0.0826 J 0.0894
G01 X 36.1368 Y 3.0307 Z -1.0000
G02 X 36.1448 Y 2.9973 Z -1.0000 I -0.2132 J -0.0686
G02 X 36.1439 Y 2.9676 Z -1.0000 I -0.0778 J -0.0124
G01 X 36.1369 Y 2.9620 Z -1.0000
G01 X 36.1285 Y 2.9569 Z -1.0000
G01 X 36.1234 Y 2.9354 Z -1.0000
G01 X 36.1343 Y 2.9118 Z -1.0000
G01 X 36.1504 Y 2.9124 Z -1.0000
G01 X 36.1623 Y 2.9165 Z -1.0000
G01 X 36.1692 Y 2.9100 Z -1.0000
G01 X 36.1682 Y 2.8948 Z -1.0000
G01 X 36.1621 Y 2.8887 Z -1.0000
G01 X 36.1566 Y 2.8834 Z -1.0000
G01 X 36.1575 Y 2.8756 Z -1.0000
G01 X 36.1634 Y 2.8729 Z -1.0000
G01 X 36.1708 Y 2.8779 Z -1.0000
G01 X 36.1789 Y 2.8802 Z -1.0000
G02 X 36.2022 Y 2.8624 Z -1.0000 I -0.0329 J -0.0672
G02 X 36.2227 Y 2.8229 Z -1.0000 I -0.0696 J -0.0612
G01 X 36.2151 Y 2.8087 Z -1.0000
G01 X 36.2149 Y 2.7957 Z -1.0000
G03 X 36.2769 Y 2.7832 Z -1.0000 I 0.0632 J 0.1525
G01 X 36.2843 Y 2.7792 Z -1.0000
G01 X 36.2833 Y 2.7739 Z -1.0000
G01 X 36.2837 Y 2.7690 Z -1.0000
G03 X 36.3045 Y 2.7646 Z -1.0000 I 0.0210 J 0.0477
G02 X 36.3360 Y 2.7607 Z -1.0000 I -0.0005 J -0.1338
G01 X 36.3397 Y 2.7559 Z -1.0000
G01 X 36.3434 Y 2.7504 Z -1.0000
G03 X 36.3768 Y 2.7410 Z -1.0000 I 0.0605 J 0.1509
G02 X 36.4118 Y 2.7311 Z -1.0000 I -0.0268 J -0.1609
G01 X 36.4250 Y 2.7214 Z -1.0000
G01 X 36.4377 Y 2.7113 Z -1.0000
G01 X 36.4518 Y 2.7080 Z -1.0000
G01 X 36.4668 Y 2.7054 Z -1.0000
G02 X 36.5044 Y 2.6892 Z -1.0000 I -0.1098 J -0.3061
G03 X 36.5402 Y 2.6781 Z -1.0000 I 0.0494 J 0.0968
G01 X 36.5467 Y 2.6839 Z -1.0000
G01 X 36.5523 Y 2.6908 Z -1.0000
G02 X 36.5820 Y 2.6918 Z -1.0000 I 0.0173 J -0.0769
G02 X 36.6151 Y 2.6834 Z -1.0000 I -0.0305 J -0.1911
G01 X 36.6204 Y 2.6783 Z -1.0000
G01 X 36.6253 Y 2.6754 Z -1.0000
G03 X 36.6431 Y 2.6809 Z -1.0000 I -0.0059 J 0.0504
G02 X 36.6637 Y 2.6874 Z -1.0000 I 0.0272 J -0.0507
G02 X 36.7219 Y 2.6901 Z -1.0000 I 0.0490 J -0.4228
G03 X 36.7803 Y 2.6933 Z -1.0000 I 0.0084 J 0.3896
G03 X 36.8215 Y 2.7029 Z -1.0000 I -0.0265 J 0.2049
G02 X 36.8622 Y 2.7148 Z -1.0000 I 0.1403 J -0.4051
G02 X 36.8813 Y 2.7171 Z -1.0000 I 0.0197 J -0.0827
G01 X 36.8987 Y 2.7219 Z -1.0000
G03 X 36.9210 Y 2.7406 Z -1.0000 I -0.0460 J 0.0780
G02 X 36.9436 Y 2.7601 Z -1.0000 I 0.0802 J -0.0697
G02 X 36.9671 Y 2.7703 Z -1.0000 I 0.0426 J -0.0660
G03 X 36.9914 Y 2.7797 Z -1.0000 I -0.0264 J 0.1043
G03 X 37.0115 Y 2.7941 Z -1.0000 I -0.0451 J 0.0844
G01 X 37.0182 Y 2.8067 Z -1.0000
G01 X 37.0142 Y 2.8114 Z -1.0000
G01 X 37.0018 Y 2.8147 Z -1.0000
G01 X 36.9983 Y 2.8208 Z -1.0000
G01 X 37.0020 Y 2.8266 Z -1.0000
G01 X 37.0180 Y 2.8302 Z -1.0000
G01 X 37.0335 Y 2.8355 Z -1.0000
G01 X 37.0428 Y 2.8497 Z -1.0000
G01 X 37.0517 Y 2.8628 Z -1.0000
G01 X 37.0640 Y 2.8651 Z -1.0000
G01 X 37.0860 Y 2.8755 Z -1.0000
G03 X 37.1039 Y 2.9525 Z -1.0000 I -0.1815 J 0.0826
G02 X 37.1095 Y 2.9756 Z -1.0000 I 0.0563 J -0.0016
G01 X 37.1176 Y 2.9807 Z -1.0000
G01 X 37.1281 Y 2.9842 Z -1.0000
G01 X 37.1360 Y 2.9947 Z -1.0000
G01 X 37.1432 Y 3.0036 Z -1.0000
G01 X 37.1498 Y 3.0036 Z -1.0000
G01 X 37.1547 Y 3.0048 Z -1.0000
G01 X 37.1582 Y 3.0178 Z -1.0000
G01 X 37.1547 Y 3.0337 Z -1.0000
G01 X 37.1493 Y 3.0372 Z -1.0000
G01 X 37.1447 Y 3.0414 Z -1.0000
G02 X 37.1422 Y 3.1217 Z -1.0000 I 0.7710 J 0.0642
G01 X 37.1472 Y 3.1969 Z -1.0000
G01 X 37.1524 Y 3.1906 Z -1.0000
G01 X 37.1637 Y 3.1877 Z -1.0000
G01 X 37.1715 Y 3.1932 Z -1.0000
G03 X 37.1770 Y 3.2253 Z -1.0000 I -0.0908 J 0.0321
G03 X 37.1719 Y 3.2578 Z -1.0000 I -0.1047 J -0.0000
G01 X 37.1647 Y 3.2630 Z -1.0000
G01 X 37.1589 Y 3.2687 Z -1.0000
G02 X 37.1631 Y 3.3429 Z -1.0000 I 0.4873 J 0.0097
G03 X 37.1712 Y 3.4220 Z -1.0000 I -1.2585 J 0.1688
G01 X 37.1691 Y 3.4276 Z -1.0000
G01 X 37.1568 Y 3.4286 Z -1.0000
G01 X 37.1487 Y 3.4129 Z -1.0000
G01 X 37.1395 Y 3.4102 Z -1.0000
G02 X 37.1251 Y 3.4490 Z -1.0000 I 0.0778 J 0.0510
G03 X 37.1036 Y 3.5244 Z -1.0000 I -0.2678 J -0.0356
G01 X 37.0860 Y 3.5358 Z -1.0000
G01 X 37.0778 Y 3.5402 Z -1.0000
G01 X 37.0735 Y 3.5546 Z -1.0000
G01 X 37.0705 Y 3.5699 Z -1.0000
G01 X 37.0664 Y 3.5722 Z -1.0000
G02 X 37.0138 Y 3.5789 Z -1.0000 I -0.0155 J 0.0874
G01 X 36.9982 Y 3.6034 Z -1.0000
G01 X 37.0008 Y 3.6089 Z -1.0000
G02 X 37.0240 Y 3.6245 Z -1.0000 I 0.0952 J -0.1170
G01 X 37.0499 Y 3.6385 Z -1.0000
G01 X 37.0240 Y 3.6389 Z -1.0000
G01 X 37.0034 Y 3.6445 Z -1.0000
G01 X 36.9982 Y 3.6534 Z -1.0000
G01 X 36.9949 Y 3.6642 Z -1.0000
G01 X 36.9888 Y 3.6675 Z -1.0000
G01 X 36.9822 Y 3.6699 Z -1.0000
G01 X 36.9805 Y 3.6746 Z -1.0000
G01 X 36.9740 Y 3.6955 Z -1.0000
G01 X 36.9517 Y 3.7052 Z -1.0000
G02 X 36.9260 Y 3.7087 Z -1.0000 I 0.0000 J 0.0956
G01 X 36.9183 Y 3.7145 Z -1.0000
G01 X 36.9272 Y 3.7182 Z -1.0000
G01 X 36.9381 Y 3.7179 Z -1.0000
G01 X 36.9418 Y 3.7230 Z -1.0000
G01 X 36.9389 Y 3.7305 Z -1.0000
G01 X 36.9324 Y 3.7334 Z -1.0000
G01 X 36.9263 Y 3.7367 Z -1.0000
G01 X 36.9230 Y 3.7486 Z -1.0000
G01 X 36.9134 Y 3.7580 Z -1.0000
G03 X 36.8642 Y 3.7477 Z -1.0000 I 0.0020 J -0.1322
G01 X 36.8524 Y 3.7478 Z -1.0000
G01 X 36.8477 Y 3.7549 Z -1.0000
G01 X 36.8515 Y 3.7664 Z -1.0000
G01 X 36.8624 Y 3.7747 Z -1.0000
G01 X 36.8645 Y 3.7872 Z -1.0000
G01 X 36.8398 Y 3.7934 Z -1.0000
G01 X 36.8204 Y 3.7987 Z -1.0000
G02 X 36.8049 Y 3.8243 Z -1.0000 I 0.0334 J 0.0377
G03 X 36.7900 Y 3.8538 Z -1.0000 I -0.0722 J -0.0178
G01 X 36.7725 Y 3.8636 Z -1.0000
G02 X 36.7502 Y 3.8697 Z -1.0000 I 0.0126 J 0.0903
G02 X 36.7348 Y 3.8791 Z -1.0000 I 0.0215 J 0.0520
G03 X 36.6938 Y 3.9024 Z -1.0000 I -0.0775 J -0.0888
G03 X 36.6337 Y 3.9121 Z -1.0000 I -0.0610 J -0.1872
G01 X 36.6257 Y 3.9084 Z -1.0000
G01 X 36.6219 Y 3.8980 Z -1.0000
G01 X 36.6162 Y 3.8897 Z -1.0000
G02 X 36.5843 Y 3.8839 Z -1.0000 I -0.0319 J 0.0849
G01 X 36.5688 Y 3.8958 Z -1.0000
G01 X 36.5772 Y 3.9102 Z -1.0000
G01 X 36.6078 Y 3.9183 Z -1.0000
G01 X 36.5705 Y 3.9254 Z -1.0000
G02 X 36.5359 Y 3.9375 Z -1.0000 I 0.0242 J 0.1252
G02 X 36.5112 Y 3.9562 Z -1.0000 I 0.0416 J 0.0802
G01 X 36.4872 Y 3.9705 Z -1.0000
G01 X 36.4621 Y 3.9686 Z -1.0000
G01 X 36.4278 Y 3.9684 Z -1.0000
G01 X 36.4149 Y 3.9874 Z -1.0000
G01 X 36.4118 Y 4.0034 Z -1.0000
G01 X 36.4055 Y 4.0109 Z -1.0000
G01 X 36.4000 Y 4.0097 Z -1.0000
G01 X 36.3961 Y 3.9964 Z -1.0000
G01 X 36.3905 Y 3.9844 Z -1.0000
G01 X 36.3796 Y 3.9828 Z -1.0000
G03 X 36.3336 Y 3.9933 Z -1.0000 I -0.0547 J -0.1329
G01 X 36.3200 Y 3.9864 Z -1.0000
G01 X 36.3153 Y 3.9858 Z -1.0000
G01 X 36.3116 Y 3.9945 Z -1.0000
G01 X 36.3052 Y 4.0093 Z -1.0000
G01 X 36.2890 Y 4.0156 Z -1.0000
G01 X 36.2709 Y 4.0098 Z -1.0000
G01 X 36.2598 Y 3.9945 Z -1.0000
G01 X 36.2534 Y 3.9884 Z -1.0000
G01 X 36.2483 Y 3.9915 Z -1.0000
G03 X 36.2414 Y 4.0084 Z -1.0000 I -0.0672 J -0.0175
G03 X 36.2305 Y 4.0227 Z -1.0000 I -0.0588 J -0.0336
G01 X 36.2215 Y 4.0375 Z -1.0000
G02 X 36.2174 Y 4.0634 Z -1.0000 I 0.0803 J 0.0259
G01 X 36.2120 Y 4.0856 Z -1.0000
G01 X 36.2033 Y 4.0909 Z -1.0000
G01 X 36.1933 Y 4.0868 Z -1.0000
G01 X 36.1892 Y 4.0768 Z -1.0000
G01 X 36.1859 Y 4.0660 Z -1.0000
G01 X 36.1798 Y 4.0627 Z -1.0000
G01 X 36.1735 Y 4.0658 Z -1.0000
G01 X 36.1704 Y 4.0749 Z -1.0000
G01 X 36.1659 Y 4.0840 Z -1.0000
G03 X 36.1391 Y 4.0984 Z -1.0000 I -0.0614 J -0.0814
G03 X 36.1030 Y 4.1031 Z -1.0000 I -0.0287 J -0.0794
G01 X 36.0951 Y 4.0945 Z -1.0000
G01 X 36.0890 Y 4.0867 Z -1.0000
G02 X 36.0598 Y 4.0859 Z -1.0000 I -0.0164 J 0.0675
G02 X 36.0275 Y 4.1002 Z -1.0000 I 0.0142 J 0.0756
G01 X 36.0268 Y 4.1110 Z -1.0000
G01 X 36.0264 Y 4.1329 Z -1.0000
G01 X 36.0005 Y 4.1354 Z -1.0000
G01 X 35.9859 Y 4.1342 Z -1.0000
G02 X 35.9408 Y 4.1602 Z -1.0000 I 0.0778 J 0.1871
G03 X 35.8881 Y 4.1863 Z -1.0000 I -0.0933 J -0.1222
G01 X 35.8712 Y 4.1792 Z -1.0000
G01 X 35.8602 Y 4.1741 Z -1.0000
G02 X 35.8251 Y 4.1878 Z -1.0000 I 0.0184 J 0.0988
G03 X 35.7862 Y 4.2082 Z -1.0000 I -0.1476 J -0.2339
G03 X 35.7622 Y 4.2147 Z -1.0000 I -0.0349 J -0.0815
G02 X 35.7401 Y 4.2210 Z -1.0000 I 0.0090 J 0.0733
G01 X 35.7354 Y 4.2272 Z -1.0000
G03 X 35.6741 Y 4.2907 Z -1.0000 I -0.0777 J -0.0136
G01 X 35.6247 Y 4.2507 Z -1.0000
G01 X 35.6214 Y 4.2446 Z -1.0000
G01 X 35.6106 Y 4.2413 Z -1.0000
G01 X 35.6012 Y 4.2460 Z -1.0000
G01 X 35.5965 Y 4.2601 Z -1.0000
G01 X 35.5918 Y 4.2743 Z -1.0000
G01 X 35.5824 Y 4.2790 Z -1.0000
G01 X 35.5730 Y 4.2837 Z -1.0000
G01 X 35.5683 Y 4.2978 Z -1.0000
G01 X 35.5623 Y 4.3106 Z -1.0000
G01 X 35.5456 Y 4.3166 Z -1.0000
G01 X 35.5311 Y 4.3103 Z -1.0000
G01 X 35.5279 Y 4.2978 Z -1.0000
G01 X 35.5142 Y 4.2813 Z -1.0000
G01 X 35.4859 Y 4.3012 Z -1.0000
G03 X 35.4494 Y 4.3325 Z -1.0000 I -0.0521 J -0.0238
G03 X 35.3854 Y 4.3296 Z -1.0000 I -0.0276 J -0.0976
G01 X 35.3793 Y 4.3328 Z -1.0000
G01 X 35.3802 Y 4.3498 Z -1.0000
G01 X 35.3770 Y 4.3700 Z -1.0000
G01 X 35.3603 Y 4.3745 Z -1.0000
G02 X 35.2952 Y 4.3663 Z -1.0000 I -0.0498 J 0.1321
G01 X 35.2657 Y 4.3850 Z -1.0000
G01 X 35.2559 Y 4.3918 Z -1.0000
G03 X 35.2158 Y 4.3957 Z -1.0000 I -0.0364 J -0.1686
G02 X 35.1768 Y 4.3985 Z -1.0000 I -0.0045 J 0.2106
G01 X 35.1731 Y 4.4028 Z -1.0000
G01 X 35.1702 Y 4.4078 Z -1.0000
G01 X 35.1590 Y 4.4108 Z -1.0000
G01 X 35.1479 Y 4.4137 Z -1.0000
G01 X 35.1449 Y 4.4188 Z -1.0000
G01 X 35.1428 Y 4.4260 Z -1.0000
G03 X 35.1256 Y 4.4490 Z -1.0000 I -0.1677 J -0.1073
G01 X 35.1030 Y 4.4639 Z -1.0000
G03 X 35.0574 Y 4.4703 Z -1.0000 I -0.0427 J -0.1367
G01 X 35.0250 Y 4.4737 Z -1.0000
G01 X 35.0372 Y 4.4813 Z -1.0000
G01 X 35.0414 Y 4.4925 Z -1.0000
G01 X 35.0369 Y 4.5004 Z -1.0000
G01 X 35.0264 Y 4.5012 Z -1.0000
G02 X 34.9724 Y 4.4872 Z -1.0000 I -0.0891 J 0.2321
G01 X 34.9662 Y 4.4926 Z -1.0000
G01 X 34.9434 Y 4.5247 Z -1.0000
G03 X 34.8910 Y 4.5191 Z -1.0000 I -0.0203 J -0.0577
G01 X 34.8646 Y 4.5186 Z -1.0000
G02 X 34.8007 Y 4.5705 Z -1.0000 I 0.1246 J 0.2189
G01 X 34.7794 Y 4.5835 Z -1.0000
G01 X 34.7634 Y 4.5799 Z -1.0000
G01 X 34.7490 Y 4.5739 Z -1.0000
G01 X 34.7428 Y 4.5779 Z -1.0000
G01 X 34.7360 Y 4.5858 Z -1.0000
G01 X 34.7205 Y 4.5896 Z -1.0000
G01 X 34.7050 Y 4.5939 Z -1.0000
G01 X 34.6967 Y 4.6037 Z -1.0000
G01 X 34.6878 Y 4.6128 Z -1.0000
G03 X 34.6618 Y 4.6180 Z -1.0000 I -0.0264 J -0.0651
G02 X 34.6014 Y 4.6298 Z -1.0000 I 0.0007 J 0.1636
G01 X 34.5899 Y 4.6469 Z -1.0000
G01 X 34.5852 Y 4.6576 Z -1.0000
G01 X 34.5767 Y 4.6593 Z -1.0000
G01 X 34.5650 Y 4.6586 Z -1.0000
G01 X 34.5573 Y 4.6643 Z -1.0000
G01 X 34.5493 Y 4.6710 Z -1.0000
G01 X 34.5329 Y 4.6743 Z -1.0000
G01 X 34.5201 Y 4.6800 Z -1.0000
G01 X 34.5139 Y 4.6955 Z -1.0000
G01 X 34.5084 Y 4.7049 Z -1.0000
G01 X 34.5007 Y 4.6974 Z -1.0000
G02 X 34.4777 Y 4.6931 Z -1.0000 I -0.0230 J 0.0604
G01 X 34.4559 Y 4.6995 Z -1.0000
G01 X 34.4410 Y 4.7166 Z -1.0000
G03 X 34.4280 Y 4.7366 Z -1.0000 I -0.0730 J -0.0333
G01 X 34.4202 Y 4.7402 Z -1.0000
G01 X 34.4154 Y 4.7432 Z -1.0000
G01 X 34.4159 Y 4.7497 Z -1.0000
G01 X 34.4091 Y 4.7676 Z -1.0000
G01 X 34.3807 Y 4.7605 Z -1.0000
G01 X 34.3434 Y 4.7606 Z -1.0000
G02 X 34.3170 Y 4.8248 Z -1.0000 I 0.0648 J 0.0641
G01 X 34.3246 Y 4.8298 Z -1.0000
G01 X 34.3447 Y 4.8131 Z -1.0000
G01 X 34.3649 Y 4.7825 Z -1.0000
G01 X 34.3622 Y 4.8155 Z -1.0000
G02 X 34.3665 Y 4.8407 Z -1.0000 I 0.0512 J 0.0042
G01 X 34.3757 Y 4.8457 Z -1.0000
G01 X 34.3841 Y 4.8506 Z -1.0000
G01 X 34.3859 Y 4.8739 Z -1.0000
G03 X 34.3771 Y 4.9025 Z -1.0000 I -0.1389 J -0.0269
G01 X 34.3713 Y 4.9082 Z -1.0000
G01 X 34.3890 Y 4.9252 Z -1.0000
G01 X 34.4133 Y 4.9303 Z -1.0000
G01 X 34.4271 Y 4.9227 Z -1.0000
G01 X 34.4323 Y 4.9240 Z -1.0000
G03 X 34.4330 Y 4.9715 Z -1.0000 I -0.2240 J 0.0271
G01 X 34.4271 Y 5.0365 Z -1.0000
G01 X 34.4480 Y 5.0130 Z -1.0000
G01 X 34.4689 Y 4.9895 Z -1.0000
G01 X 34.4625 Y 5.0130 Z -1.0000
G02 X 34.4491 Y 5.0903 Z -1.0000 I 0.4029 J 0.1097
G01 X 34.4559 Y 5.0977 Z -1.0000
G01 X 34.4628 Y 5.0944 Z -1.0000
G02 X 34.4725 Y 5.0765 Z -1.0000 I -0.0474 J -0.0373
G01 X 34.4776 Y 5.0754 Z -1.0000
G01 X 34.4838 Y 5.0882 Z -1.0000
G02 X 34.4913 Y 5.1189 Z -1.0000 I 0.1310 J -0.0160
G01 X 34.4988 Y 5.1282 Z -1.0000
G01 X 34.5018 Y 5.1353 Z -1.0000
G01 X 34.4957 Y 5.1446 Z -1.0000
G01 X 34.4915 Y 5.1540 Z -1.0000
G01 X 34.5005 Y 5.1521 Z -1.0000
G01 X 34.5104 Y 5.1451 Z -1.0000
G01 X 34.5152 Y 5.1460 Z -1.0000
G01 X 34.5193 Y 5.1654 Z -1.0000
G02 X 34.5237 Y 5.1914 Z -1.0000 I 0.0784 J 0.0002
G01 X 34.5310 Y 5.1987 Z -1.0000
G01 X 34.5386 Y 5.1968 Z -1.0000
G01 X 34.5427 Y 5.1866 Z -1.0000
G01 X 34.5474 Y 5.1806 Z -1.0000
G01 X 34.5575 Y 5.1828 Z -1.0000
G01 X 34.5672 Y 5.1967 Z -1.0000
G01 X 34.5679 Y 5.2119 Z -1.0000
G01 X 34.5682 Y 5.2271 Z -1.0000
G01 X 34.5761 Y 5.2391 Z -1.0000
G01 X 34.5830 Y 5.2518 Z -1.0000
G03 X 34.5832 Y 5.2959 Z -1.0000 I -0.1799 J 0.0226
G02 X 34.5880 Y 5.3331 Z -1.0000 I 0.0760 J 0.0090
G01 X 34.6015 Y 5.3422 Z -1.0000
G01 X 34.6221 Y 5.3469 Z -1.0000
G01 X 34.6308 Y 5.3563 Z -1.0000
G01 X 34.6276 Y 5.3646 Z -1.0000
G03 X 34.6035 Y 5.3705 Z -1.0000 I -0.0241 J -0.0466
G01 X 34.5787 Y 5.3808 Z -1.0000
G01 X 34.5803 Y 5.3940 Z -1.0000
G01 X 34.5858 Y 5.4082 Z -1.0000
G01 X 34.5747 Y 5.4138 Z -1.0000
G01 X 34.5633 Y 5.4150 Z -1.0000
G01 X 34.5548 Y 5.4269 Z -1.0000
G01 X 34.5460 Y 5.4407 Z -1.0000
G01 X 34.5322 Y 5.4457 Z -1.0000
G01 X 34.5194 Y 5.4506 Z -1.0000
G01 X 34.5144 Y 5.4617 Z -1.0000
G01 X 34.5185 Y 5.4678 Z -1.0000
G01 X 34.5257 Y 5.4664 Z -1.0000
G01 X 34.5490 Y 5.4608 Z -1.0000
G01 X 34.5615 Y 5.4781 Z -1.0000
G01 X 34.5488 Y 5.5026 Z -1.0000
G01 X 34.5281 Y 5.5018 Z -1.0000
G01 X 34.5189 Y 5.5005 Z -1.0000
G01 X 34.5138 Y 5.5080 Z -1.0000
G01 X 34.5106 Y 5.5109 Z -1.0000
G01 X 34.5060 Y 5.5074 Z -1.0000
G01 X 34.4980 Y 5.4986 Z -1.0000
G01 X 34.4920 Y 5.5003 Z -1.0000
G01 X 34.4885 Y 5.5115 Z -1.0000
G01 X 34.4910 Y 5.5210 Z -1.0000
G01 X 34.4918 Y 5.5301 Z -1.0000
G03 X 34.4774 Y 5.5552 Z -1.0000 I -0.0934 J -0.0370
G02 X 34.4607 Y 5.5808 Z -1.0000 I 0.1351 J 0.1064
G01 X 34.4580 Y 5.5917 Z -1.0000
G01 X 34.4547 Y 5.6013 Z -1.0000
G01 X 34.4452 Y 5.6085 Z -1.0000
G01 X 34.4369 Y 5.6169 Z -1.0000
G02 X 34.4261 Y 5.6608 Z -1.0000 I 0.1959 J 0.0714
G03 X 34.4166 Y 5.7062 Z -1.0000 I -0.3095 J -0.0415
G01 X 34.4107 Y 5.7139 Z -1.0000
G01 X 34.4056 Y 5.7218 Z -1.0000
G02 X 34.4016 Y 5.7844 Z -1.0000 I 0.4848 J 0.0626
G03 X 34.3890 Y 5.8846 Z -1.0000 I -0.4052 J 0.0000
G01 X 34.3728 Y 5.8972 Z -1.0000
G01 X 34.3688 Y 5.9003 Z -1.0000
G02 X 34.3619 Y 5.9419 Z -1.0000 I 0.2708 J 0.0659
G02 X 34.3642 Y 5.9848 Z -1.0000 I 0.1528 J 0.0134
G02 X 34.3751 Y 6.0090 Z -1.0000 I 0.0575 J -0.0113
G01 X 34.3816 Y 6.0358 Z -1.0000
G01 X 34.3691 Y 6.0440 Z -1.0000
G01 X 34.3480 Y 6.0450 Z -1.0000
G02 X 34.3264 Y 6.0592 Z -1.0000 I 0.0184 J 0.0515
G01 X 34.3141 Y 6.0829 Z -1.0000
G02 X 34.3095 Y 6.1392 Z -1.0000 I 0.2177 J 0.0460
G02 X 34.3172 Y 6.1929 Z -1.0000 I 0.2782 J -0.0127
G01 X 34.3240 Y 6.1982 Z -1.0000
G01 X 34.3365 Y 6.2105 Z -1.0000
G01 X 34.3249 Y 6.2321 Z -1.0000
G01 X 34.3152 Y 6.2327 Z -1.0000
G01 X 34.3014 Y 6.2214 Z -1.0000
G01 X 34.2944 Y 6.2214 Z -1.0000
G01 X 34.2887 Y 6.2388 Z -1.0000
G03 X 34.2833 Y 6.2682 Z -1.0000 I -0.0830 J 0.0000
G01 X 34.2756 Y 6.2735 Z -1.0000
G01 X 34.2583 Y 6.2853 Z -1.0000
G01 X 34.2607 Y 6.3115 Z -1.0000
G03 X 34.2718 Y 6.3586 Z -1.0000 I -0.0647 J 0.0402
G03 X 34.2493 Y 6.4360 Z -1.0000 I -0.2114 J -0.0195
G01 X 34.2468 Y 6.4522 Z -1.0000
G02 X 34.2553 Y 6.4733 Z -1.0000 I 0.0504 J -0.0081
G03 X 34.2653 Y 6.4955 Z -1.0000 I -0.0530 J 0.0372
G03 X 34.2699 Y 6.5343 Z -1.0000 I -0.1630 J 0.0388
G02 X 34.2735 Y 6.5709 Z -1.0000 I 0.1868 J 0.0000
G01 X 34.2780 Y 6.5746 Z -1.0000
G01 X 34.2823 Y 6.5784 Z -1.0000
G03 X 34.2911 Y 6.6739 Z -1.0000 I -1.1746 J 0.1559
G02 X 34.3016 Y 6.7710 Z -1.0000 I 0.8672 J -0.0443
G01 X 34.3101 Y 6.7891 Z -1.0000
G03 X 34.3271 Y 6.8288 Z -1.0000 I -0.0521 J 0.0457
G03 X 34.3218 Y 6.9221 Z -1.0000 I -0.3242 J 0.0283
G02 X 34.3109 Y 6.9970 Z -1.0000 I 0.6430 J 0.1314
G02 X 34.3125 Y 7.0289 Z -1.0000 I 0.1186 J 0.0103
G03 X 34.3124 Y 7.0590 Z -1.0000 I -0.0798 J 0.0150
G01 X 34.3036 Y 7.0758 Z -1.0000
G02 X 34.2917 Y 7.0919 Z -1.0000 I 0.0462 J 0.0462
G01 X 34.2887 Y 7.1045 Z -1.0000
G01 X 34.2833 Y 7.1142 Z -1.0000
G03 X 34.2534 Y 7.1267 Z -1.0000 I -0.0527 J -0.0841
G02 X 34.2241 Y 7.1405 Z -1.0000 I 0.0176 J 0.0753
G01 X 34.2151 Y 7.1558 Z -1.0000
G01 X 34.2067 Y 7.1705 Z -1.0000
G01 X 34.1892 Y 7.1767 Z -1.0000
G01 X 34.1724 Y 7.1827 Z -1.0000
G01 X 34.1664 Y 7.1955 Z -1.0000
G01 X 34.1617 Y 7.2096 Z -1.0000
G01 X 34.1523 Y 7.2143 Z -1.0000
G01 X 34.1431 Y 7.2193 Z -1.0000
G01 X 34.1381 Y 7.2362 Z -1.0000
G01 X 34.1333 Y 7.2559 Z -1.0000
G03 X 34.1153 Y 7.2796 Z -1.0000 I -0.0797 J -0.0421
G01 X 34.0924 Y 7.3011 Z -1.0000
G01 X 34.0625 Y 7.2671 Z -1.0000
G02 X 34.0313 Y 7.2363 Z -1.0000 I -0.2281 J 0.2003
G01 X 34.0227 Y 7.2331 Z -1.0000
G01 X 34.0136 Y 7.2307 Z -1.0000
G03 X 33.9954 Y 7.2175 Z -1.0000 I 0.0509 J -0.0894
G02 X 33.9782 Y 7.2067 Z -1.0000 I -0.0389 J 0.0429
G01 X 33.9719 Y 7.2080 Z -1.0000
G01 X 33.9719 Y 7.2157 Z -1.0000
G02 X 34.0369 Y 7.2739 Z -1.0000 I 0.5043 J -0.4981
G03 X 34.0563 Y 7.2999 Z -1.0000 I -0.0387 J 0.0490
G01 X 34.0505 Y 7.3084 Z -1.0000
G01 X 34.0422 Y 7.3134 Z -1.0000
G02 X 34.0262 Y 7.3554 Z -1.0000 I 0.1752 J 0.0909
G03 X 34.0080 Y 7.3978 Z -1.0000 I -0.1469 J -0.0376
G03 X 33.9870 Y 7.4184 Z -1.0000 I -0.0524 J -0.0325
G02 X 33.9683 Y 7.4379 Z -1.0000 I 0.0256 J 0.0433
G01 X 33.9656 Y 7.4584 Z -1.0000
G02 X 33.9731 Y 7.4814 Z -1.0000 I 0.1424 J -0.0334
G01 X 33.9794 Y 7.4913 Z -1.0000
G01 X 33.9861 Y 7.5142 Z -1.0000
G01 X 33.9735 Y 7.5247 Z -1.0000
G01 X 33.9628 Y 7.5282 Z -1.0000
G01 X 33.9594 Y 7.5348 Z -1.0000
G01 X 33.9570 Y 7.5438 Z -1.0000
G03 X 33.9452 Y 7.5591 Z -1.0000 I -0.0651 J -0.0380
G01 X 33.9358 Y 7.5738 Z -1.0000
G01 X 33.9366 Y 7.5824 Z -1.0000
G01 X 33.9381 Y 7.5911 Z -1.0000
G01 X 33.9319 Y 7.6038 Z -1.0000
G02 X 33.9187 Y 7.6568 Z -1.0000 I 0.0486 J 0.0403
G01 X 33.9458 Y 7.6716 Z -1.0000
G01 X 33.9548 Y 7.6738 Z -1.0000
G03 X 33.9680 Y 7.6961 Z -1.0000 I -0.0482 J 0.0437
G03 X 33.9714 Y 7.7245 Z -1.0000 I -0.0629 J 0.0219
G01 X 33.9648 Y 7.7286 Z -1.0000
G01 X 33.9492 Y 7.7366 Z -1.0000
G01 X 33.9550 Y 7.7661 Z -1.0000
G03 X 33.9752 Y 7.8254 Z -1.0000 I -0.0793 J 0.0601
G01 X 33.9556 Y 7.8390 Z -1.0000
G01 X 33.9442 Y 7.8388 Z -1.0000
G01 X 33.9349 Y 7.8463 Z -1.0000
G01 X 33.9291 Y 7.8472 Z -1.0000
G01 X 33.9218 Y 7.8351 Z -1.0000
G01 X 33.9100 Y 7.8191 Z -1.0000
G02 X 33.8767 Y 7.8088 Z -1.0000 I -0.0389 J 0.0667
G02 X 33.8432 Y 7.8125 Z -1.0000 I -0.0068 J 0.0921
G01 X 33.8371 Y 7.8207 Z -1.0000
G01 X 33.8484 Y 7.8440 Z -1.0000
G02 X 33.9073 Y 7.8758 Z -1.0000 I 0.1221 J -0.1555
G01 X 33.9253 Y 7.9012 Z -1.0000
G03 X 33.9064 Y 7.9460 Z -1.0000 I -0.0644 J -0.0008
G01 X 33.8986 Y 7.9601 Z -1.0000
G02 X 33.8954 Y 7.9927 Z -1.0000 I 0.1195 J 0.0280
G03 X 33.8921 Y 8.0238 Z -1.0000 I -0.1100 J 0.0041
G01 X 33.8857 Y 8.0307 Z -1.0000
G01 X 33.8779 Y 8.0367 Z -1.0000
G01 X 33.8747 Y 8.0477 Z -1.0000
G01 X 33.8715 Y 8.0578 Z -1.0000
G01 X 33.8653 Y 8.0610 Z -1.0000
G01 X 33.8587 Y 8.0583 Z -1.0000
G01 X 33.8559 Y 8.0516 Z -1.0000
G01 X 33.8532 Y 8.0450 Z -1.0000
G01 X 33.8465 Y 8.0422 Z -1.0000
G01 X 33.8303 Y 8.0587 Z -1.0000
G01 X 33.8472 Y 8.0817 Z -1.0000
G01 X 33.8537 Y 8.0883 Z -1.0000
G03 X 33.8705 Y 8.1540 Z -1.0000 I -0.5306 J 0.1700
G03 X 33.8762 Y 8.2219 Z -1.0000 I -0.3229 J 0.0615
G03 X 33.8686 Y 8.2522 Z -1.0000 I -0.0689 J -0.0013
G01 X 33.8632 Y 8.2788 Z -1.0000
G01 X 33.8719 Y 8.2935 Z -1.0000
G01 X 33.8818 Y 8.3090 Z -1.0000
G03 X 33.8804 Y 8.3480 Z -1.0000 I -0.1014 J 0.0158
G03 X 33.8680 Y 8.3871 Z -1.0000 I -0.2569 J -0.0596
G01 X 33.8633 Y 8.3903 Z -1.0000
G01 X 33.8582 Y 8.3880 Z -1.0000
G01 X 33.8560 Y 8.3819 Z -1.0000
G01 X 33.8532 Y 8.3755 Z -1.0000
G01 X 33.8408 Y 8.3677 Z -1.0000
G01 X 33.8336 Y 8.3697 Z -1.0000
G01 X 33.8323 Y 8.3785 Z -1.0000
G03 X 33.8593 Y 8.4624 Z -1.0000 I -0.5925 J 0.2371
G03 X 33.8654 Y 8.5123 Z -1.0000 I -0.2019 J 0.0499
G01 X 33.8618 Y 8.5273 Z -1.0000
G01 X 33.8547 Y 8.5334 Z -1.0000
G01 X 33.8508 Y 8.5394 Z -1.0000
G01 X 33.8567 Y 8.5573 Z -1.0000
G01 X 33.8551 Y 8.5750 Z -1.0000
G01 X 33.8411 Y 8.5743 Z -1.0000
G01 X 33.8271 Y 8.5641 Z -1.0000
G01 X 33.8173 Y 8.5664 Z -1.0000
G01 X 33.8149 Y 8.5765 Z -1.0000
G01 X 33.8267 Y 8.5938 Z -1.0000
G03 X 33.8423 Y 8.6128 Z -1.0000 I -0.0469 J 0.0545
G01 X 33.8466 Y 8.6289 Z -1.0000
G01 X 33.8505 Y 8.6450 Z -1.0000
G01 X 33.8630 Y 8.6603 Z -1.0000
G01 X 33.8711 Y 8.6725 Z -1.0000
G01 X 33.8682 Y 8.6784 Z -1.0000
G01 X 33.8629 Y 8.6858 Z -1.0000
G01 X 33.8658 Y 8.7067 Z -1.0000
G01 X 33.8663 Y 8.7302 Z -1.0000
G01 X 33.8561 Y 8.7357 Z -1.0000
G01 X 33.8476 Y 8.7388 Z -1.0000
G01 X 33.8470 Y 8.7487 Z -1.0000
G01 X 33.8470 Y 8.7609 Z -1.0000
G01 X 33.8374 Y 8.7666 Z -1.0000
G01 X 33.8230 Y 8.7713 Z -1.0000
G01 X 33.8183 Y 8.7807 Z -1.0000
G01 X 33.8213 Y 8.7917 Z -1.0000
G01 X 33.8268 Y 8.7948 Z -1.0000
G01 X 33.8436 Y 8.8057 Z -1.0000
G03 X 33.8604 Y 8.8701 Z -1.0000 I -0.1845 J 0.0826
G02 X 33.8632 Y 8.8839 Z -1.0000 I 0.0674 J -0.0061
G02 X 33.8729 Y 8.9107 Z -1.0000 I 0.2644 J -0.0812
G03 X 33.8777 Y 8.9453 Z -1.0000 I -0.0620 J 0.0262
G01 X 33.8676 Y 8.9528 Z -1.0000
G01 X 33.8581 Y 8.9578 Z -1.0000
G02 X 33.8532 Y 8.9830 Z -1.0000 I 0.0460 J 0.0220
G01 X 33.8494 Y 9.0018 Z -1.0000
G02 X 33.8426 Y 8.9884 Z -1.0000 I -0.0817 J 0.0335
G01 X 33.8378 Y 8.9830 Z -1.0000
G01 X 33.8331 Y 8.9774 Z -1.0000
G03 X 33.8206 Y 8.9524 Z -1.0000 I 0.2455 J -0.1383
G01 X 33.8015 Y 8.9359 Z -1.0000
G01 X 33.7925 Y 8.9447 Z -1.0000
G01 X 33.7887 Y 8.9526 Z -1.0000
G01 X 33.7748 Y 8.9526 Z -1.0000
G02 X 33.7528 Y 8.9455 Z -1.0000 I -0.0424 J 0.0937
G01 X 33.7475 Y 8.9471 Z -1.0000
G01 X 33.7464 Y 8.9524 Z -1.0000
G02 X 33.7711 Y 9.0049 Z -1.0000 I 0.5219 J -0.2126
G03 X 33.7948 Y 9.0590 Z -1.0000 I -0.3392 J 0.1810
G03 X 33.7987 Y 9.0840 Z -1.0000 I -0.0664 J 0.0232
G01 X 33.7948 Y 9.0923 Z -1.0000
G01 X 33.7903 Y 9.0912 Z -1.0000
G01 X 33.7827 Y 9.0879 Z -1.0000
G01 X 33.7724 Y 9.0982 Z -1.0000
G02 X 33.7656 Y 9.1240 Z -1.0000 I 0.1047 J 0.0414
G01 X 33.7670 Y 9.1365 Z -1.0000
G01 X 33.7684 Y 9.1491 Z -1.0000
G03 X 33.7605 Y 9.1766 Z -1.0000 I -0.1238 J -0.0203
G02 X 33.7516 Y 9.2044 Z -1.0000 I 0.1758 J 0.0721
G01 X 33.7511 Y 9.2159 Z -1.0000
G01 X 33.7472 Y 9.2227 Z -1.0000
G03 X 33.7197 Y 9.2276 Z -1.0000 I -0.0274 J -0.0736
G02 X 33.6920 Y 9.2332 Z -1.0000 I 0.0000 J 0.0712
G01 X 33.6864 Y 9.2417 Z -1.0000
G01 X 33.6806 Y 9.2501 Z -1.0000
G03 X 33.6487 Y 9.2558 Z -1.0000 I -0.0319 J -0.0849
G02 X 33.6169 Y 9.2616 Z -1.0000 I 0.0000 J 0.0908
G01 X 33.6111 Y 9.2700 Z -1.0000
G01 X 33.6179 Y 9.2769 Z -1.0000
G02 X 33.6555 Y 9.2709 Z -1.0000 I 0.0022 J -0.1064
G03 X 33.6924 Y 9.2627 Z -1.0000 I 0.0519 J 0.1468
G01 X 33.7061 Y 9.2660 Z -1.0000
G01 X 33.7197 Y 9.2706 Z -1.0000
G01 X 33.7367 Y 9.2689 Z -1.0000
G01 X 33.7453 Y 9.2721 Z -1.0000
G01 X 33.7470 Y 9.2856 Z -1.0000
G02 X 33.7295 Y 9.3664 Z -1.0000 I 0.4082 J 0.1309
G01 X 33.7359 Y 9.3798 Z -1.0000
G03 X 33.7791 Y 9.4555 Z -1.0000 I -0.0482 J 0.0777
G03 X 33.7396 Y 9.5538 Z -1.0000 I -0.1349 J 0.0028
G01 X 33.7322 Y 9.5546 Z -1.0000
G03 X 33.7110 Y 9.5358 Z -1.0000 I 0.0453 J -0.0722
G02 X 33.6875 Y 9.5158 Z -1.0000 I -0.0628 J 0.0502
G01 X 33.6648 Y 9.5099 Z -1.0000
G01 X 33.6480 Y 9.5186 Z -1.0000
G01 X 33.6393 Y 9.5457 Z -1.0000
G02 X 33.6434 Y 9.5798 Z -1.0000 I 0.1436 J -0.0000
G01 X 33.6511 Y 9.5938 Z -1.0000
G01 X 33.6422 Y 9.5938 Z -1.0000
G01 X 33.6254 Y 9.5730 Z -1.0000
G03 X 33.6054 Y 9.4864 Z -1.0000 I 0.4094 J -0.1402
G02 X 33.5965 Y 9.4532 Z -1.0000 I -0.1241 J 0.0154
G01 X 33.5916 Y 9.4535 Z -1.0000
G02 X 33.5867 Y 9.4773 Z -1.0000 I 0.1347 J 0.0395
G02 X 33.5838 Y 9.5210 Z -1.0000 I 0.4986 J 0.0561
G03 X 33.5777 Y 9.5628 Z -1.0000 I -0.1737 J -0.0037
G01 X 33.5676 Y 9.5802 Z -1.0000
G01 X 33.5586 Y 9.5980 Z -1.0000
G02 X 33.5512 Y 9.6886 Z -1.0000 I 0.6544 J 0.0994
G03 X 33.5456 Y 9.7712 Z -1.0000 I -0.7704 J -0.0104
G01 X 33.5410 Y 9.7728 Z -1.0000
G01 X 33.5314 Y 9.7654 Z -1.0000
G01 X 33.5257 Y 9.7639 Z -1.0000
G01 X 33.4773 Y 9.8082 Z -1.0000
G02 X 33.5151 Y 9.8853 Z -1.0000 I 0.0827 J 0.0073
G01 X 33.5192 Y 9.8924 Z -1.0000
G01 X 33.5164 Y 9.9097 Z -1.0000
G01 X 33.5118 Y 9.9119 Z -1.0000
G01 X 33.5083 Y 9.9073 Z -1.0000
G01 X 33.5040 Y 9.8898 Z -1.0000
G01 X 33.4982 Y 9.8862 Z -1.0000
G01 X 33.4928 Y 9.8821 Z -1.0000
G03 X 33.4888 Y 9.8538 Z -1.0000 I 0.0976 J -0.0283
G02 X 33.4862 Y 9.8220 Z -1.0000 I -0.1993 J -0.0000
G02 X 33.4796 Y 9.7974 Z -1.0000 I -0.1222 J 0.0198
G01 X 33.4561 Y 9.7762 Z -1.0000
G01 X 33.4417 Y 9.7873 Z -1.0000
G01 X 33.4387 Y 9.8001 Z -1.0000
G03 X 33.4253 Y 9.8206 Z -1.0000 I -0.0891 J -0.0440
G01 X 33.4155 Y 9.8194 Z -1.0000
G03 X 33.4041 Y 9.7782 Z -1.0000 I 0.0993 J -0.0496
G02 X 33.3955 Y 9.7199 Z -1.0000 I -0.4214 J 0.0323
G01 X 33.3900 Y 9.7143 Z -1.0000
G01 X 33.3844 Y 9.7176 Z -1.0000
G02 X 33.3752 Y 9.7638 Z -1.0000 I 0.2430 J 0.0726
G03 X 33.3668 Y 9.8149 Z -1.0000 I -0.4496 J -0.0474
G03 X 33.3541 Y 9.8579 Z -1.0000 I -0.3273 J -0.0730
G02 X 33.3404 Y 9.9006 Z -1.0000 I 0.4888 J 0.1806
G02 X 33.3384 Y 9.9153 Z -1.0000 I 0.0552 J 0.0151
G01 X 33.3346 Y 9.9287 Z -1.0000
G03 X 33.3198 Y 9.9470 Z -1.0000 I -0.0680 J -0.0402
G01 X 33.3104 Y 9.9442 Z -1.0000
G03 X 33.3041 Y 9.8873 Z -1.0000 I 0.1893 J -0.0498
G02 X 33.2988 Y 9.8186 Z -1.0000 I -0.3080 J -0.0112
G01 X 33.2895 Y 9.8109 Z -1.0000
G01 X 33.2806 Y 9.8189 Z -1.0000
G02 X 33.2770 Y 9.9214 Z -1.0000 I 0.6539 J 0.0738
G03 X 33.2751 Y 10.0085 Z -1.0000 I -0.6581 J 0.0288
G01 X 33.2692 Y 10.0098 Z -1.0000
G03 X 33.2616 Y 9.9865 Z -1.0000 I 0.0538 J -0.0307
G03 X 33.2603 Y 9.9356 Z -1.0000 I 0.2645 J -0.0318
G02 X 33.2568 Y 9.8998 Z -1.0000 I -0.1046 J -0.0076
G01 X 33.2498 Y 9.8979 Z -1.0000
G02 X 33.2097 Y 9.9726 Z -1.0000 I 0.1038 J 0.1038
G02 X 33.2214 Y 10.0379 Z -1.0000 I 0.0884 J 0.0179
G01 X 33.2117 Y 10.0402 Z -1.0000
G01 X 33.2023 Y 10.0425 Z -1.0000
G01 X 33.1964 Y 10.0568 Z -1.0000
G01 X 33.1909 Y 10.0672 Z -1.0000
G01 X 33.1843 Y 10.0581 Z -1.0000
G01 X 33.1769 Y 10.0555 Z -1.0000
G01 X 33.1725 Y 10.0596 Z -1.0000
G02 X 33.1737 Y 10.1002 Z -1.0000 I 0.1975 J 0.0143
G01 X 33.1709 Y 10.1323 Z -1.0000
G01 X 33.1642 Y 10.1309 Z -1.0000
G01 X 33.1565 Y 10.1415 Z -1.0000
G01 X 33.1480 Y 10.1533 Z -1.0000
G01 X 33.1399 Y 10.1524 Z -1.0000
G01 X 33.1281 Y 10.1458 Z -1.0000
G01 X 33.1161 Y 10.1465 Z -1.0000
G01 X 33.1074 Y 10.1452 Z -1.0000
G01 X 33.1031 Y 10.1364 Z -1.0000
G01 X 33.0942 Y 10.1323 Z -1.0000
G02 X 33.0717 Y 10.1633 Z -1.0000 I 0.0535 J 0.0623
G02 X 33.0599 Y 10.2059 Z -1.0000 I 0.1722 J 0.0708
G02 X 33.0605 Y 10.2362 Z -1.0000 I 0.0868 J 0.0133
G01 X 33.0590 Y 10.2568 Z -1.0000
G02 X 33.0246 Y 10.2368 Z -1.0000 I -0.0409 J 0.0305
G01 X 33.0091 Y 10.2504 Z -1.0000
G01 X 33.0055 Y 10.2632 Z -1.0000
G01 X 32.9935 Y 10.2764 Z -1.0000
G01 X 32.9842 Y 10.2890 Z -1.0000
G01 X 32.9853 Y 10.2996 Z -1.0000
G01 X 32.9932 Y 10.3018 Z -1.0000
G02 X 33.0139 Y 10.2848 Z -1.0000 I -0.0296 J -0.0571
G01 X 33.0351 Y 10.2582 Z -1.0000
G01 X 33.0386 Y 10.3022 Z -1.0000
G03 X 33.0352 Y 10.3429 Z -1.0000 I -0.1251 J 0.0100
G01 X 33.0245 Y 10.3584 Z -1.0000
G02 X 32.9866 Y 10.3935 Z -1.0000 I 0.1014 J 0.1471
G01 X 32.9843 Y 10.4083 Z -1.0000
G01 X 32.9855 Y 10.4201 Z -1.0000
G03 X 32.9758 Y 10.4565 Z -1.0000 I -0.2163 J -0.0380
G01 X 32.9624 Y 10.4771 Z -1.0000
G01 X 32.9590 Y 10.4626 Z -1.0000
G01 X 32.9491 Y 10.4483 Z -1.0000
G01 X 32.9392 Y 10.4337 Z -1.0000
G03 X 32.9295 Y 10.4029 Z -1.0000 I 0.1435 J -0.0618
G02 X 32.9122 Y 10.3427 Z -1.0000 I -0.3830 J 0.0775
G01 X 32.9049 Y 10.3376 Z -1.0000
G01 X 32.8926 Y 10.3499 Z -1.0000
G01 X 32.9047 Y 10.3804 Z -1.0000
G01 X 32.9101 Y 10.3908 Z -1.0000
G03 X 32.9165 Y 10.4420 Z -1.0000 I -0.3948 J 0.0755
G03 X 32.9131 Y 10.4881 Z -1.0000 I -0.1709 J 0.0105
G01 X 32.9056 Y 10.4938 Z -1.0000
G01 X 32.8978 Y 10.4996 Z -1.0000
G02 X 32.8924 Y 10.5517 Z -1.0000 I 0.2138 J 0.0487
G03 X 32.8834 Y 10.5999 Z -1.0000 I -0.1239 J 0.0019
G01 X 32.8725 Y 10.6008 Z -1.0000
G01 X 32.8661 Y 10.5990 Z -1.0000
G02 X 32.8494 Y 10.6124 Z -1.0000 I 0.0226 J 0.0452
G01 X 32.8414 Y 10.6350 Z -1.0000
G02 X 32.8494 Y 10.6771 Z -1.0000 I 0.1147 J 0.0000
G03 X 32.8599 Y 10.7211 Z -1.0000 I -0.1496 J 0.0590
G03 X 32.8573 Y 10.7616 Z -1.0000 I -0.1288 J 0.0120
G03 X 32.8457 Y 10.8014 Z -1.0000 I -0.3272 J -0.0740
G01 X 32.8381 Y 10.8146 Z -1.0000
G01 X 32.8328 Y 10.8273 Z -1.0000
G01 X 32.8352 Y 10.8432 Z -1.0000
G01 X 32.8415 Y 10.8455 Z -1.0000
G01 X 32.8495 Y 10.8363 Z -1.0000
G01 X 32.8567 Y 10.8880 Z -1.0000
G03 X 32.8470 Y 10.9953 Z -1.0000 I -0.6011 J 0.0000
G01 X 32.8371 Y 10.9962 Z -1.0000
G03 X 32.8213 Y 10.9212 Z -1.0000 I 0.2392 J -0.0893
G01 X 32.8318 Y 10.9013 Z -1.0000
G01 X 32.8311 Y 10.8905 Z -1.0000
G01 X 32.8080 Y 10.8905 Z -1.0000
G01 X 32.7855 Y 10.9008 Z -1.0000
G01 X 32.7846 Y 10.8104 Z -1.0000
G02 X 32.7789 Y 10.7226 Z -1.0000 I -0.8100 J 0.0082
G01 X 32.7731 Y 10.7135 Z -1.0000
G01 X 32.7675 Y 10.7051 Z -1.0000
G01 X 32.7689 Y 10.6869 Z -1.0000
G02 X 32.7705 Y 10.6415 Z -1.0000 I -0.0802 J -0.0256
G01 X 32.7550 Y 10.6293 Z -1.0000
G01 X 32.7260 Y 10.6601 Z -1.0000
G02 X 32.7667 Y 10.8148 Z -1.0000 I 0.4126 J -0.0258
G01 X 32.7637 Y 10.8503 Z -1.0000
G01 X 32.7390 Y 10.8535 Z -1.0000
G01 X 32.7266 Y 10.8497 Z -1.0000
G01 X 32.7169 Y 10.8557 Z -1.0000
G01 X 32.7115 Y 10.8695 Z -1.0000
G01 X 32.7126 Y 10.8809 Z -1.0000
G01 X 32.7122 Y 10.8895 Z -1.0000
G01 X 32.7072 Y 10.8927 Z -1.0000
G01 X 32.7019 Y 10.8889 Z -1.0000
G01 X 32.7004 Y 10.8715 Z -1.0000
G01 X 32.6978 Y 10.8551 Z -1.0000
G01 X 32.6902 Y 10.8504 Z -1.0000
G01 X 32.6823 Y 10.8557 Z -1.0000
G02 X 32.6761 Y 10.8856 Z -1.0000 I 0.0809 J 0.0324
G02 X 32.6784 Y 10.9177 Z -1.0000 I 0.1616 J 0.0045
G01 X 32.6822 Y 10.9209 Z -1.0000
G01 X 32.6869 Y 10.9233 Z -1.0000
G01 X 32.6893 Y 10.9303 Z -1.0000
G01 X 32.6860 Y 10.9364 Z -1.0000
G01 X 32.6748 Y 10.9397 Z -1.0000
G01 X 32.6685 Y 10.9446 Z -1.0000
G01 X 32.6701 Y 10.9579 Z -1.0000
G03 X 32.6775 Y 10.9767 Z -1.0000 I -0.0747 J 0.0403
G03 X 32.6798 Y 10.9945 Z -1.0000 I -0.0681 J 0.0178
G01 X 32.6841 Y 11.0100 Z -1.0000
G01 X 32.6943 Y 11.0185 Z -1.0000
G01 X 32.7042 Y 11.0182 Z -1.0000
G01 X 32.7073 Y 11.0125 Z -1.0000
G03 X 32.7080 Y 10.9485 Z -1.0000 I 0.2328 J -0.0297
G01 X 32.7181 Y 10.9398 Z -1.0000
G01 X 32.7229 Y 10.9436 Z -1.0000
G01 X 32.7221 Y 10.9586 Z -1.0000
G01 X 32.7209 Y 10.9771 Z -1.0000
G02 X 32.7309 Y 11.0071 Z -1.0000 I 0.1096 J -0.0199
G03 X 32.7423 Y 11.0375 Z -1.0000 I -0.1422 J 0.0707
G03 X 32.7457 Y 11.0635 Z -1.0000 I -0.0990 J 0.0260
G01 X 32.7510 Y 11.0850 Z -1.0000
G01 X 32.7598 Y 11.0903 Z -1.0000
G01 X 32.7683 Y 11.0959 Z -1.0000
G03 X 32.7739 Y 11.1224 Z -1.0000 I -0.0606 J 0.0266
G03 X 32.7647 Y 11.1730 Z -1.0000 I -0.1436 J -0.0000
G01 X 32.7545 Y 11.1740 Z -1.0000
G01 X 32.7460 Y 11.1691 Z -1.0000
G01 X 32.7334 Y 11.1734 Z -1.0000
G01 X 32.7195 Y 11.1702 Z -1.0000
G03 X 32.7151 Y 11.1330 Z -1.0000 I 0.0566 J -0.0256
G01 X 32.7143 Y 11.1148 Z -1.0000
G01 X 32.7094 Y 11.1130 Z -1.0000
G01 X 32.7020 Y 11.1216 Z -1.0000
G02 X 32.6976 Y 11.1402 Z -1.0000 I 0.0489 J 0.0212
G01 X 32.6936 Y 11.1427 Z -1.0000
G01 X 32.6866 Y 11.1356 Z -1.0000
G02 X 32.6368 Y 11.0960 Z -1.0000 I -0.0594 J 0.0236
G02 X 32.5701 Y 11.1179 Z -1.0000 I -0.0117 J 0.0769
G03 X 32.5519 Y 11.1305 Z -1.0000 I -0.0438 J -0.0438
G01 X 32.5483 Y 11.1278 Z -1.0000
G01 X 32.5438 Y 11.1001 Z -1.0000
G01 X 32.5280 Y 11.0872 Z -1.0000
G01 X 32.4991 Y 11.1013 Z -1.0000
G02 X 32.4814 Y 11.1938 Z -1.0000 I 0.1945 J 0.0852
G01 X 32.4865 Y 11.2124 Z -1.0000
G01 X 32.4917 Y 11.2126 Z -1.0000
G01 X 32.4986 Y 11.2610 Z -1.0000
G03 X 32.4911 Y 11.3119 Z -1.0000 I -0.2303 J -0.0080
G01 X 32.4846 Y 11.3140 Z -1.0000
G01 X 32.4756 Y 11.3030 Z -1.0000
G01 X 32.4728 Y 11.2920 Z -1.0000
G01 X 32.4702 Y 11.2810 Z -1.0000
G01 X 32.4637 Y 11.2739 Z -1.0000
G01 X 32.4581 Y 11.2769 Z -1.0000
G02 X 32.4530 Y 11.4572 Z -1.0000 I 2.9622 J 0.1733
G01 X 32.4532 Y 11.5278 Z -1.0000
G01 X 32.4357 Y 11.5047 Z -1.0000
G01 X 32.4170 Y 11.4913 Z -1.0000
G01 X 32.4035 Y 11.4938 Z -1.0000
G02 X 32.3912 Y 11.5075 Z -1.0000 I 0.0428 J 0.0511
G02 X 32.3832 Y 11.5239 Z -1.0000 I 0.0526 J 0.0357
G01 X 32.3677 Y 11.5322 Z -1.0000
G03 X 32.3280 Y 11.5081 Z -1.0000 I 0.0241 J -0.0842
G02 X 32.2970 Y 11.4820 Z -1.0000 I -0.1284 J 0.1210
G01 X 32.2906 Y 11.4834 Z -1.0000
G01 X 32.2878 Y 11.4931 Z -1.0000
G02 X 32.2904 Y 11.5420 Z -1.0000 I 0.4352 J 0.0016
G03 X 32.2909 Y 11.5907 Z -1.0000 I -0.2477 J 0.0269
G03 X 32.2841 Y 11.6134 Z -1.0000 I -0.0582 J -0.0051
G01 X 32.2793 Y 11.6348 Z -1.0000
G01 X 32.2864 Y 11.6567 Z -1.0000
G03 X 32.3080 Y 11.7095 Z -1.0000 I -0.1300 J 0.0838
G01 X 32.2988 Y 11.7172 Z -1.0000
G01 X 32.2809 Y 11.7278 Z -1.0000
G01 X 32.2933 Y 11.7579 Z -1.0000
G03 X 32.3089 Y 11.7748 Z -1.0000 I -0.0402 J 0.0526
G03 X 32.3235 Y 11.8053 Z -1.0000 I -0.1189 J 0.0759
G02 X 32.3371 Y 11.8364 Z -1.0000 I 0.1999 J -0.0684
G01 X 32.3447 Y 11.8447 Z -1.0000
G01 X 32.3494 Y 11.8518 Z -1.0000
G01 X 32.3474 Y 11.8586 Z -1.0000
G01 X 32.3405 Y 11.8609 Z -1.0000
G01 X 32.3336 Y 11.8568 Z -1.0000
G02 X 32.3263 Y 11.8484 Z -1.0000 I -0.0503 J 0.0362
G02 X 32.3112 Y 11.8352 Z -1.0000 I -0.1353 J 0.1404
G01 X 32.3036 Y 11.8379 Z -1.0000
G02 X 32.3006 Y 11.8776 Z -1.0000 I 0.1141 J 0.0283
G02 X 32.3103 Y 11.9305 Z -1.0000 I 0.3187 J -0.0307
G01 X 32.3196 Y 11.9480 Z -1.0000
G01 X 32.3287 Y 11.9653 Z -1.0000
G03 X 32.3316 Y 11.9951 Z -1.0000 I -0.0961 J 0.0243
G02 X 32.3361 Y 12.0606 Z -1.0000 I 0.2633 J 0.0146
G01 X 32.3461 Y 12.0687 Z -1.0000
G03 X 32.4076 Y 12.1231 Z -1.0000 I 0.0000 J 0.0621
G03 X 32.3623 Y 12.1977 Z -1.0000 I -0.0697 J 0.0088
G02 X 32.3389 Y 12.2134 Z -1.0000 I 0.0205 J 0.0557
G01 X 32.3319 Y 12.2310 Z -1.0000
G01 X 32.3427 Y 12.2398 Z -1.0000
G02 X 32.3811 Y 12.2191 Z -1.0000 I -0.0202 J -0.0836
G01 X 32.3998 Y 12.2103 Z -1.0000
G01 X 32.4098 Y 12.2152 Z -1.0000
G01 X 32.4139 Y 12.2341 Z -1.0000
G03 X 32.4021 Y 12.3045 Z -1.0000 I -0.4469 J -0.0385
G01 X 32.4065 Y 12.3229 Z -1.0000
G02 X 32.4340 Y 12.3411 Z -1.0000 I 0.0470 J -0.0408
G03 X 32.4688 Y 12.3569 Z -1.0000 I -0.0564 J 0.1704
G01 X 32.4768 Y 12.3664 Z -1.0000
G01 X 32.4841 Y 12.3756 Z -1.0000
G01 X 32.4955 Y 12.3792 Z -1.0000
G01 X 32.5160 Y 12.3921 Z -1.0000
G03 X 32.5213 Y 12.4333 Z -1.0000 I -0.0599 J 0.0286
G01 X 32.5239 Y 12.4411 Z -1.0000
G01 X 32.5336 Y 12.4450 Z -1.0000
G01 X 32.5447 Y 12.4485 Z -1.0000
G01 X 32.5481 Y 12.4549 Z -1.0000
G01 X 32.5705 Y 12.4389 Z -1.0000
G03 X 32.5972 Y 12.4226 Z -1.0000 I 0.0385 J 0.0331
G03 X 32.6759 Y 12.4138 Z -1.0000 I 0.0754 J 0.3163
G02 X 32.7415 Y 12.4088 Z -1.0000 I 0.0040 J -0.3854
G01 X 32.7429 Y 12.4029 Z -1.0000
G01 X 32.7312 Y 12.3890 Z -1.0000
G01 X 32.7269 Y 12.3710 Z -1.0000
G01 X 32.7184 Y 12.3548 Z -1.0000
G01 X 32.6963 Y 12.3498 Z -1.0000
G01 X 32.6920 Y 12.3477 Z -1.0000
G01 X 32.6892 Y 12.3371 Z -1.0000
G01 X 32.6935 Y 12.3295 Z -1.0000
G01 X 32.7033 Y 12.3287 Z -1.0000
G01 X 32.7138 Y 12.3288 Z -1.0000
G01 X 32.7174 Y 12.3237 Z -1.0000
G01 X 32.7146 Y 12.3162 Z -1.0000
G01 X 32.7080 Y 12.3133 Z -1.0000
G01 X 32.7014 Y 12.3105 Z -1.0000
G01 X 32.6986 Y 12.3039 Z -1.0000
G01 X 32.7086 Y 12.2957 Z -1.0000
G01 X 32.7319 Y 12.3106 Z -1.0000
G01 X 32.7447 Y 12.3181 Z -1.0000
G01 X 32.7589 Y 12.3140 Z -1.0000
G02 X 32.7921 Y 12.2704 Z -1.0000 I -0.0777 J -0.0936
G02 X 32.8045 Y 12.2131 Z -1.0000 I -0.1270 J -0.0573
G01 X 32.8101 Y 12.1929 Z -1.0000
G01 X 32.8221 Y 12.1840 Z -1.0000
G01 X 32.8333 Y 12.1744 Z -1.0000
G02 X 32.8398 Y 12.1428 Z -1.0000 I -0.0736 J -0.0315
G01 X 32.8506 Y 12.1211 Z -1.0000
G01 X 32.8633 Y 12.1251 Z -1.0000
G01 X 32.8755 Y 12.1292 Z -1.0000
G01 X 32.8828 Y 12.1113 Z -1.0000
G03 X 32.8829 Y 12.0797 Z -1.0000 I 0.0825 J -0.0155
G03 X 32.8969 Y 12.0390 Z -1.0000 I 0.1521 J 0.0298
G03 X 32.9337 Y 11.9810 Z -1.0000 I 0.3260 J 0.1663
G01 X 32.9469 Y 11.9746 Z -1.0000
G01 X 32.9767 Y 11.9983 Z -1.0000
G03 X 32.9666 Y 12.0595 Z -1.0000 I -0.0795 J 0.0183
G01 X 32.9686 Y 12.0644 Z -1.0000
G02 X 32.9991 Y 12.0687 Z -1.0000 I 0.0306 J -0.1077
G02 X 33.0314 Y 12.0628 Z -1.0000 I -0.0000 J -0.0917
G01 X 33.0373 Y 12.0543 Z -1.0000
G01 X 33.0412 Y 12.0425 Z -1.0000
G01 X 33.0522 Y 12.0342 Z -1.0000
G01 X 33.0641 Y 12.0256 Z -1.0000
G02 X 33.0754 Y 12.0062 Z -1.0000 I -0.0526 J -0.0437
G03 X 33.0863 Y 11.9875 Z -1.0000 I 0.0627 J 0.0236
G01 X 33.0935 Y 11.9840 Z -1.0000
G01 X 33.1054 Y 11.9958 Z -1.0000
G01 X 33.0938 Y 12.0169 Z -1.0000
G01 X 33.0841 Y 12.0374 Z -1.0000
G01 X 33.0984 Y 12.0499 Z -1.0000
G01 X 33.1257 Y 12.0315 Z -1.0000
G02 X 33.1405 Y 11.9464 Z -1.0000 I -0.1875 J -0.0763
G03 X 33.1501 Y 11.9041 Z -1.0000 I 0.0817 J -0.0036
G01 X 33.1677 Y 11.8958 Z -1.0000
G01 X 33.1869 Y 11.8901 Z -1.0000
G01 X 33.2006 Y 11.8638 Z -1.0000
G03 X 33.2221 Y 11.8101 Z -1.0000 I 0.1296 J 0.0208
G01 X 33.2349 Y 11.8141 Z -1.0000
G01 X 33.2381 Y 11.8194 Z -1.0000
G01 X 33.2447 Y 11.8192 Z -1.0000
G01 X 33.2499 Y 11.8114 Z -1.0000
G01 X 33.2488 Y 11.7951 Z -1.0000
G01 X 33.2499 Y 11.7821 Z -1.0000
G01 X 33.2581 Y 11.7771 Z -1.0000
G01 X 33.2704 Y 11.7722 Z -1.0000
G02 X 33.2921 Y 11.7450 Z -1.0000 I -0.0854 J -0.0903
G03 X 33.3134 Y 11.7157 Z -1.0000 I 0.1633 J 0.0963
G01 X 33.3253 Y 11.7074 Z -1.0000
G01 X 33.3339 Y 11.7000 Z -1.0000
G01 X 33.3337 Y 11.6924 Z -1.0000
G01 X 33.3325 Y 11.6627 Z -1.0000
G03 X 33.3626 Y 11.6357 Z -1.0000 I 0.0500 J 0.0255
G01 X 33.3780 Y 11.6240 Z -1.0000
G01 X 33.3795 Y 11.6126 Z -1.0000
G01 X 33.3782 Y 11.5988 Z -1.0000
G01 X 33.3845 Y 11.5854 Z -1.0000
G01 X 33.3914 Y 11.5715 Z -1.0000
G02 X 33.3926 Y 11.5502 Z -1.0000 I -0.0611 J -0.0142
G01 X 33.4052 Y 11.5352 Z -1.0000
G01 X 33.4213 Y 11.5482 Z -1.0000
G01 X 33.4407 Y 11.5778 Z -1.0000
G01 X 33.4588 Y 11.5712 Z -1.0000
G01 X 33.4640 Y 11.5662 Z -1.0000
G01 X 33.4745 Y 11.5666 Z -1.0000
G01 X 33.4853 Y 11.5658 Z -1.0000
G01 X 33.5007 Y 11.5519 Z -1.0000
G01 X 33.5173 Y 11.5398 Z -1.0000
G03 X 33.5440 Y 11.5384 Z -1.0000 I 0.0161 J 0.0515
G03 X 33.5682 Y 11.5488 Z -1.0000 I -0.0123 J 0.0616
G01 X 33.5738 Y 11.5596 Z -1.0000
G01 X 33.5770 Y 11.5642 Z -1.0000
G01 X 33.5817 Y 11.5627 Z -1.0000
G01 X 33.5899 Y 11.5586 Z -1.0000
G01 X 33.6010 Y 11.5645 Z -1.0000
G01 X 33.6140 Y 11.5733 Z -1.0000
G01 X 33.6270 Y 11.5730 Z -1.0000
G01 X 33.6397 Y 11.5725 Z -1.0000
G01 X 33.6489 Y 11.5796 Z -1.0000
G01 X 33.6723 Y 11.5868 Z -1.0000
G01 X 33.6860 Y 11.5632 Z -1.0000
G01 X 33.6931 Y 11.5461 Z -1.0000
G01 X 33.7046 Y 11.5480 Z -1.0000
G02 X 33.7281 Y 11.5682 Z -1.0000 I 0.0428 J -0.0261
G02 X 33.7767 Y 11.5783 Z -1.0000 I 0.0502 J -0.1196
G02 X 33.8275 Y 11.5718 Z -1.0000 I 0.0022 J -0.1865
G01 X 33.8480 Y 11.5590 Z -1.0000
G01 X 33.8602 Y 11.5526 Z -1.0000
G01 X 33.8653 Y 11.5572 Z -1.0000
G03 X 33.8507 Y 11.6026 Z -1.0000 I -0.0781 J 0.0000
G01 X 33.8224 Y 11.6172 Z -1.0000
G01 X 33.8132 Y 11.6216 Z -1.0000
G01 X 33.8088 Y 11.6343 Z -1.0000
G01 X 33.7915 Y 11.6719 Z -1.0000
G03 X 33.7374 Y 11.6953 Z -1.0000 I -0.0651 J -0.0763
G02 X 33.7006 Y 11.7111 Z -1.0000 I 0.0073 J 0.0676
G01 X 33.6889 Y 11.7366 Z -1.0000
G03 X 33.6848 Y 11.7593 Z -1.0000 I -0.0665 J 0.0000
G01 X 33.6783 Y 11.7657 Z -1.0000
G01 X 33.6714 Y 11.7719 Z -1.0000
G01 X 33.6674 Y 11.7896 Z -1.0000
G01 X 33.6634 Y 11.7957 Z -1.0000
G01 X 33.6576 Y 11.7937 Z -1.0000
G01 X 33.6542 Y 11.7773 Z -1.0000
G03 X 33.6626 Y 11.7495 Z -1.0000 I 0.0791 J 0.0089
G02 X 33.6748 Y 11.7210 Z -1.0000 I -0.1783 J -0.0927
G01 X 33.6771 Y 11.7069 Z -1.0000
G01 X 33.6808 Y 11.6939 Z -1.0000
G03 X 33.6959 Y 11.6761 Z -1.0000 I 0.0643 J 0.0395
G02 X 33.7183 Y 11.6342 Z -1.0000 I -0.0426 J -0.0497
G01 X 33.7030 Y 11.6175 Z -1.0000
G01 X 33.6669 Y 11.6368 Z -1.0000
G02 X 33.6489 Y 11.6928 Z -1.0000 I 0.0778 J 0.0560
G01 X 33.6458 Y 11.6968 Z -1.0000
G01 X 33.6362 Y 11.6964 Z -1.0000
G01 X 33.6289 Y 11.6884 Z -1.0000
G01 X 33.6279 Y 11.6684 Z -1.0000
G01 X 33.6153 Y 11.6545 Z -1.0000
G01 X 33.5958 Y 11.6712 Z -1.0000
G03 X 33.5879 Y 11.6966 Z -1.0000 I -0.2513 J -0.0636
G03 X 33.5716 Y 11.7372 Z -1.0000 I -0.6231 J -0.2278
G02 X 33.5587 Y 11.7769 Z -1.0000 I 0.1906 J 0.0838
G01 X 33.5606 Y 11.7882 Z -1.0000
G01 X 33.5595 Y 11.7927 Z -1.0000
G01 X 33.5525 Y 11.7934 Z -1.0000
G01 X 33.5402 Y 11.7934 Z -1.0000
G01 X 33.5324 Y 11.8012 Z -1.0000
G01 X 33.5243 Y 11.8096 Z -1.0000
G01 X 33.5058 Y 11.8123 Z -1.0000
G01 X 33.4905 Y 11.8177 Z -1.0000
G01 X 33.4813 Y 11.8367 Z -1.0000
G01 X 33.4740 Y 11.8562 Z -1.0000
G01 X 33.4662 Y 11.8586 Z -1.0000
G01 X 33.4554 Y 11.8591 Z -1.0000
G01 X 33.4393 Y 11.8713 Z -1.0000
G01 X 33.4227 Y 11.8827 Z -1.0000
G01 X 33.4050 Y 11.8835 Z -1.0000
G01 X 33.3929 Y 11.8880 Z -1.0000
G01 X 33.3855 Y 11.9113 Z -1.0000
G03 X 33.3665 Y 11.9506 Z -1.0000 I -0.0501 J 0.0000
G01 X 33.3338 Y 11.9521 Z -1.0000
G01 X 33.3183 Y 11.9515 Z -1.0000
G01 X 33.3103 Y 11.9651 Z -1.0000
G03 X 33.3052 Y 11.9884 Z -1.0000 I -0.0559 J 0.0000
G01 X 33.2972 Y 11.9935 Z -1.0000
G01 X 33.2883 Y 11.9985 Z -1.0000
G02 X 33.2781 Y 12.0255 Z -1.0000 I 0.0708 J 0.0422
G03 X 33.2603 Y 12.0570 Z -1.0000 I -0.0552 J -0.0104
G01 X 33.2295 Y 12.0688 Z -1.0000
G01 X 33.2207 Y 12.0642 Z -1.0000
G01 X 33.2162 Y 12.0499 Z -1.0000
G01 X 33.2123 Y 12.0351 Z -1.0000
G01 X 33.2055 Y 12.0311 Z -1.0000
G01 X 33.1827 Y 12.0439 Z -1.0000
G02 X 33.1694 Y 12.0902 Z -1.0000 I 0.0777 J 0.0474
G03 X 33.1643 Y 12.1131 Z -1.0000 I -0.0563 J -0.0006
G01 X 33.1550 Y 12.1218 Z -1.0000
G01 X 33.1458 Y 12.1305 Z -1.0000
G02 X 33.1409 Y 12.1534 Z -1.0000 I 0.0515 J 0.0229
G01 X 33.1256 Y 12.1798 Z -1.0000
G01 X 33.1021 Y 12.1755 Z -1.0000
G01 X 33.0918 Y 12.1715 Z -1.0000
G01 X 33.0832 Y 12.1784 Z -1.0000
G02 X 33.0777 Y 12.1961 Z -1.0000 I 0.1172 J 0.0464
G02 X 33.0758 Y 12.2099 Z -1.0000 I 0.0711 J 0.0166
G01 X 33.0786 Y 12.2133 Z -1.0000
G01 X 33.0834 Y 12.2112 Z -1.0000
G01 X 33.0915 Y 12.2058 Z -1.0000
G01 X 33.0980 Y 12.2088 Z -1.0000
G01 X 33.0951 Y 12.2164 Z -1.0000
G03 X 33.0633 Y 12.2197 Z -1.0000 I -0.0238 J -0.0756
G01 X 33.0529 Y 12.2247 Z -1.0000
G01 X 33.0468 Y 12.2452 Z -1.0000
G01 X 33.0403 Y 12.2654 Z -1.0000
G01 X 33.0282 Y 12.2711 Z -1.0000
G03 X 33.0105 Y 12.2677 Z -1.0000 I 0.0058 J -0.0784
G01 X 33.0031 Y 12.2633 Z -1.0000
G01 X 32.9813 Y 12.2555 Z -1.0000
G01 X 32.9716 Y 12.2662 Z -1.0000
G01 X 32.9741 Y 12.2746 Z -1.0000
G02 X 32.9907 Y 12.2947 Z -1.0000 I 0.1115 J -0.0748
G03 X 33.0243 Y 12.3525 Z -1.0000 I -0.0922 J 0.0922
G01 X 33.0112 Y 12.3697 Z -1.0000
G01 X 33.0030 Y 12.3673 Z -1.0000
G01 X 32.9982 Y 12.3614 Z -1.0000
G01 X 32.9929 Y 12.3557 Z -1.0000
G02 X 32.9664 Y 12.3469 Z -1.0000 I -0.0541 J 0.1189
G02 X 32.9217 Y 12.3579 Z -1.0000 I -0.0110 J 0.0515
G02 X 32.8992 Y 12.4026 Z -1.0000 I 0.0398 J 0.0481
G03 X 32.8966 Y 12.4306 Z -1.0000 I -0.3518 J -0.0190
G03 X 32.8912 Y 12.4614 Z -1.0000 I -0.4027 J -0.0543
G02 X 32.8900 Y 12.4877 Z -1.0000 I 0.0797 J 0.0168
G01 X 32.8948 Y 12.4919 Z -1.0000
G01 X 32.9014 Y 12.4960 Z -1.0000
G03 X 32.9110 Y 12.5249 Z -1.0000 I -0.1000 J 0.0494
G02 X 32.9201 Y 12.5542 Z -1.0000 I 0.1325 J -0.0249
G01 X 32.9256 Y 12.5578 Z -1.0000
G01 X 32.9306 Y 12.5612 Z -1.0000
G01 X 32.9340 Y 12.5789 Z -1.0000
G01 X 32.9277 Y 12.5839 Z -1.0000
G01 X 32.9094 Y 12.5734 Z -1.0000
G02 X 32.8826 Y 12.5543 Z -1.0000 I -0.0589 J 0.0546
G01 X 32.8617 Y 12.5526 Z -1.0000
G01 X 32.8403 Y 12.5516 Z -1.0000
G03 X 32.8098 Y 12.5341 Z -1.0000 I 0.0333 J -0.0933
G01 X 32.7637 Y 12.5274 Z -1.0000
G01 X 32.7505 Y 12.5601 Z -1.0000
G01 X 32.7493 Y 12.5712 Z -1.0000
G01 X 32.7390 Y 12.5766 Z -1.0000
G01 X 32.7202 Y 12.5870 Z -1.0000
G01 X 32.7180 Y 12.6105 Z -1.0000
G03 X 32.7218 Y 12.6297 Z -1.0000 I -0.0550 J 0.0208
G01 X 32.7185 Y 12.6330 Z -1.0000
G01 X 32.6938 Y 12.6202 Z -1.0000
G01 X 32.6932 Y 12.5969 Z -1.0000
G01 X 32.6939 Y 12.5889 Z -1.0000
G01 X 32.6854 Y 12.5772 Z -1.0000
G01 X 32.6727 Y 12.5816 Z -1.0000
G02 X 32.6756 Y 12.6246 Z -1.0000 I 0.0784 J 0.0162
G03 X 32.6826 Y 12.6788 Z -1.0000 I -0.1235 J 0.0436
G01 X 32.6707 Y 12.6848 Z -1.0000
G02 X 32.6347 Y 12.6717 Z -1.0000 I -0.0497 J 0.0800
G01 X 32.6128 Y 12.6762 Z -1.0000
G01 X 32.6095 Y 12.6825 Z -1.0000
G01 X 32.6146 Y 12.6996 Z -1.0000
G01 X 32.6169 Y 12.7152 Z -1.0000
G01 X 32.6099 Y 12.7236 Z -1.0000
G01 X 32.5997 Y 12.7370 Z -1.0000
G01 X 32.6080 Y 12.7459 Z -1.0000
G01 X 32.6178 Y 12.7502 Z -1.0000
G03 X 32.6322 Y 12.7714 Z -1.0000 I -0.0560 J 0.0534
G01 X 32.6357 Y 12.7948 Z -1.0000
G01 X 32.6272 Y 12.8091 Z -1.0000
G03 X 32.6098 Y 12.8189 Z -1.0000 I -0.0496 J -0.0673
G01 X 32.5983 Y 12.8212 Z -1.0000
G01 X 32.5899 Y 12.8253 Z -1.0000
G01 X 32.5856 Y 12.8377 Z -1.0000
G03 X 32.5717 Y 12.8793 Z -1.0000 I -0.0731 J -0.0013
G01 X 32.5544 Y 12.8806 Z -1.0000
G01 X 32.5508 Y 12.8804 Z -1.0000
G01 X 32.5483 Y 12.8855 Z -1.0000
G01 X 32.5444 Y 12.8925 Z -1.0000
G01 X 32.5300 Y 12.8965 Z -1.0000
G01 X 32.5142 Y 12.9009 Z -1.0000
G01 X 32.5024 Y 12.9130 Z -1.0000
G03 X 32.4917 Y 12.9269 Z -1.0000 I -0.0532 J -0.0298
G01 X 32.4855 Y 12.9294 Z -1.0000
G01 X 32.4810 Y 12.9326 Z -1.0000
G02 X 32.4782 Y 12.9506 Z -1.0000 I 0.0474 J 0.0167
G01 X 32.4617 Y 12.9699 Z -1.0000
G01 X 32.4442 Y 12.9553 Z -1.0000
G01 X 32.4360 Y 12.9577 Z -1.0000
G02 X 32.4311 Y 12.9763 Z -1.0000 I 0.0696 J 0.0282
G01 X 32.4326 Y 12.9837 Z -1.0000
G01 X 32.4329 Y 13.0115 Z -1.0000
G03 X 32.4026 Y 13.0377 Z -1.0000 I -0.0511 J -0.0284
G01 X 32.3882 Y 13.0500 Z -1.0000
G01 X 32.3860 Y 13.0668 Z -1.0000
G01 X 32.3858 Y 13.0800 Z -1.0000
G01 X 32.3816 Y 13.0816 Z -1.0000
G01 X 32.3750 Y 13.0827 Z -1.0000
G01 X 32.3673 Y 13.0989 Z -1.0000
G02 X 32.3670 Y 13.1189 Z -1.0000 I 0.0569 J 0.0110
G01 X 32.3709 Y 13.1223 Z -1.0000
G01 X 32.3772 Y 13.1314 Z -1.0000
G03 X 32.3555 Y 13.1638 Z -1.0000 I -0.0792 J -0.0295
G02 X 32.3351 Y 13.1870 Z -1.0000 I 0.1028 J 0.1109
G01 X 32.3320 Y 13.1968 Z -1.0000
G01 X 32.3365 Y 13.2052 Z -1.0000
G02 X 32.3825 Y 13.2304 Z -1.0000 I 0.1717 J -0.2591
G03 X 32.4297 Y 13.2678 Z -1.0000 I -0.0485 J 0.1096
G01 X 32.4381 Y 13.3041 Z -1.0000
G02 X 32.4379 Y 13.3282 Z -1.0000 I 0.0647 J 0.0125
G01 X 32.4451 Y 13.3437 Z -1.0000
G01 X 32.4523 Y 13.3578 Z -1.0000
G01 X 32.4504 Y 13.3645 Z -1.0000
G01 X 32.4444 Y 13.3662 Z -1.0000
G01 X 32.4373 Y 13.3612 Z -1.0000
G01 X 32.4294 Y 13.3532 Z -1.0000
G02 X 32.4143 Y 13.3453 Z -1.0000 I -0.0387 J 0.0560
G01 X 32.4017 Y 13.3365 Z -1.0000
G01 X 32.3979 Y 13.3260 Z -1.0000
G01 X 32.3947 Y 13.3142 Z -1.0000
G02 X 32.3827 Y 13.3002 Z -1.0000 I -0.0458 J 0.0268
G01 X 32.3687 Y 13.2961 Z -1.0000
G01 X 32.3558 Y 13.3038 Z -1.0000
G01 X 32.3397 Y 13.3128 Z -1.0000
G01 X 32.3320 Y 13.3058 Z -1.0000
G01 X 32.3230 Y 13.2945 Z -1.0000
G01 X 32.3089 Y 13.3004 Z -1.0000
G01 X 32.3079 Y 13.3081 Z -1.0000
G01 X 32.3135 Y 13.3153 Z -1.0000
G01 X 32.3196 Y 13.3233 Z -1.0000
G01 X 32.3207 Y 13.3398 Z -1.0000
G01 X 32.3241 Y 13.3548 Z -1.0000
G01 X 32.3414 Y 13.3700 Z -1.0000
G01 X 32.3591 Y 13.3854 Z -1.0000
G01 X 32.3642 Y 13.4026 Z -1.0000
G01 X 32.3681 Y 13.4188 Z -1.0000
G01 X 32.3758 Y 13.4233 Z -1.0000
G01 X 32.3862 Y 13.4270 Z -1.0000
G03 X 32.4001 Y 13.4429 Z -1.0000 I -0.0380 J 0.0473
G02 X 32.4610 Y 13.5020 Z -1.0000 I 0.1427 J -0.0862
G01 X 32.4825 Y 13.4894 Z -1.0000
G01 X 32.4861 Y 13.4834 Z -1.0000
G01 X 32.5008 Y 13.4798 Z -1.0000
G01 X 32.5173 Y 13.4767 Z -1.0000
G01 X 32.5248 Y 13.4704 Z -1.0000
G01 X 32.5360 Y 13.4679 Z -1.0000
G01 X 32.5390 Y 13.4798 Z -1.0000
G01 X 32.5265 Y 13.4945 Z -1.0000
G01 X 32.5145 Y 13.4986 Z -1.0000
G01 X 32.5067 Y 13.5035 Z -1.0000
G01 X 32.5059 Y 13.5168 Z -1.0000
G01 X 32.5072 Y 13.5345 Z -1.0000
G03 X 32.5001 Y 13.5536 Z -1.0000 I -0.0504 J -0.0080
G01 X 32.4858 Y 13.5642 Z -1.0000
G01 X 32.4652 Y 13.5632 Z -1.0000
G02 X 32.4429 Y 13.5594 Z -1.0000 I -0.0207 J 0.0546
G01 X 32.4321 Y 13.5641 Z -1.0000
G01 X 32.4294 Y 13.5709 Z -1.0000
G01 X 32.4325 Y 13.5739 Z -1.0000
G01 X 32.4491 Y 13.5888 Z -1.0000
G03 X 32.4384 Y 13.6299 Z -1.0000 I -0.0602 J 0.0064
G01 X 32.4236 Y 13.6356 Z -1.0000
G03 X 32.3971 Y 13.6201 Z -1.0000 I 0.0123 J -0.0517
G02 X 32.3681 Y 13.5972 Z -1.0000 I -0.0898 J 0.0839
G01 X 32.3551 Y 13.5962 Z -1.0000
G01 X 32.3410 Y 13.5977 Z -1.0000
G01 X 32.3234 Y 13.5910 Z -1.0000
G01 X 32.2887 Y 13.5849 Z -1.0000
G01 X 32.2755 Y 13.6011 Z -1.0000
G01 X 32.2896 Y 13.6295 Z -1.0000
G01 X 32.3181 Y 13.6336 Z -1.0000
G01 X 32.3263 Y 13.6365 Z -1.0000
G01 X 32.3320 Y 13.6575 Z -1.0000
G01 X 32.3226 Y 13.6798 Z -1.0000
G01 X 32.3092 Y 13.6797 Z -1.0000
G01 X 32.3011 Y 13.6751 Z -1.0000
G02 X 32.2787 Y 13.6722 Z -1.0000 I -0.0240 J 0.0971
G01 X 32.2687 Y 13.6763 Z -1.0000
G01 X 32.2692 Y 13.6820 Z -1.0000
G01 X 32.2749 Y 13.7073 Z -1.0000
G01 X 32.2463 Y 13.7244 Z -1.0000
G01 X 32.2346 Y 13.7284 Z -1.0000
G01 X 32.2336 Y 13.7344 Z -1.0000
G01 X 32.2413 Y 13.7401 Z -1.0000
G01 X 32.2530 Y 13.7394 Z -1.0000
G01 X 32.2615 Y 13.7412 Z -1.0000
G01 X 32.2661 Y 13.7521 Z -1.0000
G03 X 32.2571 Y 13.7907 Z -1.0000 I -0.0871 J -0.0000
G01 X 32.2427 Y 13.7996 Z -1.0000
G01 X 32.2337 Y 13.8036 Z -1.0000
G01 X 32.2259 Y 13.8180 Z -1.0000
G01 X 32.2322 Y 13.8571 Z -1.0000
G01 X 32.2546 Y 13.8621 Z -1.0000
G01 X 32.2637 Y 13.8616 Z -1.0000
G01 X 32.2772 Y 13.8730 Z -1.0000
G02 X 32.2908 Y 13.8890 Z -1.0000 I 0.1054 J -0.0754
G02 X 32.3010 Y 13.8970 Z -1.0000 I 0.0371 J -0.0369
G01 X 32.3335 Y 13.8962 Z -1.0000
G01 X 32.3508 Y 13.8638 Z -1.0000
G01 X 32.3605 Y 13.8536 Z -1.0000
G01 X 32.3713 Y 13.8627 Z -1.0000
G01 X 32.3811 Y 13.8827 Z -1.0000
G02 X 32.4072 Y 13.8981 Z -1.0000 I 0.0436 J -0.0441
G03 X 32.4396 Y 13.9091 Z -1.0000 I -0.1137 J 0.3884
G03 X 32.4519 Y 13.9154 Z -1.0000 I -0.0244 J 0.0631
G01 X 32.4638 Y 13.9194 Z -1.0000
G01 X 32.4731 Y 13.9172 Z -1.0000
G01 X 32.4782 Y 13.9191 Z -1.0000
G03 X 32.4825 Y 13.9460 Z -1.0000 I -0.0825 J 0.0270
G01 X 32.4886 Y 13.9676 Z -1.0000
G01 X 32.4966 Y 13.9689 Z -1.0000
G01 X 32.5066 Y 13.9658 Z -1.0000
G01 X 32.5106 Y 13.9701 Z -1.0000
G01 X 32.4985 Y 13.9975 Z -1.0000
G01 X 32.4756 Y 14.0027 Z -1.0000
G01 X 32.4402 Y 14.0075 Z -1.0000
G01 X 32.4279 Y 14.0337 Z -1.0000
G01 X 32.4236 Y 14.0520 Z -1.0000
G01 X 32.4119 Y 14.0583 Z -1.0000
G01 X 32.3965 Y 14.0531 Z -1.0000
G01 X 32.3838 Y 14.0372 Z -1.0000
G01 X 32.3717 Y 14.0204 Z -1.0000
G01 X 32.3602 Y 14.0160 Z -1.0000
G03 X 32.3462 Y 14.0140 Z -1.0000 I -0.0000 J -0.0515
G03 X 32.2966 Y 13.9980 Z -1.0000 I 0.1907 J -0.6737
G02 X 32.2490 Y 13.9840 Z -1.0000 I -0.1317 J 0.3602
G01 X 32.2444 Y 13.9862 Z -1.0000
G01 X 32.2439 Y 14.0104 Z -1.0000
G01 X 32.2581 Y 14.0182 Z -1.0000
G01 X 32.2814 Y 14.0306 Z -1.0000
G01 X 32.2792 Y 14.0647 Z -1.0000
G01 X 32.2658 Y 14.0691 Z -1.0000
G01 X 32.2606 Y 14.0572 Z -1.0000
G01 X 32.2580 Y 14.0495 Z -1.0000
G01 X 32.2451 Y 14.0477 Z -1.0000
G03 X 32.2236 Y 14.0521 Z -1.0000 I -0.0503 J -0.1903
G03 X 32.2049 Y 14.0535 Z -1.0000 I -0.0188 J -0.1266
G01 X 32.1893 Y 14.0587 Z -1.0000
G01 X 32.1766 Y 14.0748 Z -1.0000
G03 X 32.1649 Y 14.0925 Z -1.0000 I -0.0572 J -0.0251
G01 X 32.1556 Y 14.0971 Z -1.0000
G02 X 32.1438 Y 14.0984 Z -1.0000 I 0.0696 J 0.6999
G02 X 32.1353 Y 14.0995 Z -1.0000 I 0.0304 J 0.2614
G01 X 32.1156 Y 14.1247 Z -1.0000
G02 X 32.1444 Y 14.1890 Z -1.0000 I 0.1115 J -0.0113
G01 X 32.1522 Y 14.1911 Z -1.0000
G01 X 32.1674 Y 14.1819 Z -1.0000
G01 X 32.1845 Y 14.1726 Z -1.0000
G03 X 32.2080 Y 14.1734 Z -1.0000 I 0.0103 J 0.0492
G02 X 32.2335 Y 14.1778 Z -1.0000 I 0.0360 J -0.1312
G02 X 32.2826 Y 14.1792 Z -1.0000 I 0.0382 J -0.4925
G03 X 32.3219 Y 14.1884 Z -1.0000 I 0.0018 J 0.0803
G01 X 32.3320 Y 14.2052 Z -1.0000
G01 X 32.3256 Y 14.2259 Z -1.0000
G01 X 32.3137 Y 14.2323 Z -1.0000
G01 X 32.2972 Y 14.2293 Z -1.0000
G01 X 32.2899 Y 14.2233 Z -1.0000
G01 X 32.2829 Y 14.2185 Z -1.0000
G01 X 32.2705 Y 14.2196 Z -1.0000
G01 X 32.2564 Y 14.2373 Z -1.0000
G01 X 32.2658 Y 14.2526 Z -1.0000
G01 X 32.2695 Y 14.2577 Z -1.0000
G01 X 32.2660 Y 14.2699 Z -1.0000
G01 X 32.2603 Y 14.2725 Z -1.0000
G01 X 32.2569 Y 14.2686 Z -1.0000
G01 X 32.2531 Y 14.2556 Z -1.0000
G01 X 32.2444 Y 14.2484 Z -1.0000
G01 X 32.2381 Y 14.2512 Z -1.0000
G01 X 32.2361 Y 14.2709 Z -1.0000
G02 X 32.2431 Y 14.2947 Z -1.0000 I 0.0875 J -0.0128
G01 X 32.2484 Y 14.2982 Z -1.0000
G01 X 32.2538 Y 14.3012 Z -1.0000
G01 X 32.2567 Y 14.3123 Z -1.0000
G01 X 32.2530 Y 14.3227 Z -1.0000
G01 X 32.2450 Y 14.3265 Z -1.0000
G01 X 32.2226 Y 14.3395 Z -1.0000
G02 X 32.2097 Y 14.3884 Z -1.0000 I 0.0858 J 0.0489
G01 X 32.2064 Y 14.3974 Z -1.0000
G01 X 32.1956 Y 14.4051 Z -1.0000
G01 X 32.1851 Y 14.4130 Z -1.0000
G01 X 32.1815 Y 14.4241 Z -1.0000
G01 X 32.1783 Y 14.4354 Z -1.0000
G01 X 32.1708 Y 14.4413 Z -1.0000
G01 X 32.1668 Y 14.4473 Z -1.0000
G01 X 32.1727 Y 14.4650 Z -1.0000
G01 X 32.1786 Y 14.4854 Z -1.0000
G01 X 32.1730 Y 14.5080 Z -1.0000
G02 X 32.1672 Y 14.5511 Z -1.0000 I 0.0548 J 0.0293
G01 X 32.1863 Y 14.5663 Z -1.0000
G01 X 32.1995 Y 14.5718 Z -1.0000
G01 X 32.2050 Y 14.5851 Z -1.0000
G01 X 32.2240 Y 14.6069 Z -1.0000
G02 X 32.2672 Y 14.5936 Z -1.0000 I 0.0072 J -0.0530
G01 X 32.2852 Y 14.5848 Z -1.0000
G01 X 32.2968 Y 14.5884 Z -1.0000
G01 X 32.2980 Y 14.5970 Z -1.0000
G01 X 32.2872 Y 14.6053 Z -1.0000
G02 X 32.2694 Y 14.6132 Z -1.0000 I 0.0151 J 0.0581
G01 X 32.2662 Y 14.6191 Z -1.0000
G01 X 32.2632 Y 14.6244 Z -1.0000
G01 X 32.2527 Y 14.6274 Z -1.0000
G01 X 32.2278 Y 14.6461 Z -1.0000
G01 X 32.2391 Y 14.6751 Z -1.0000
G01 X 32.2503 Y 14.6773 Z -1.0000
G01 X 32.2583 Y 14.6719 Z -1.0000
G01 X 32.2671 Y 14.6676 Z -1.0000
G03 X 32.2963 Y 14.6759 Z -1.0000 I -0.0096 J 0.0895
G02 X 32.3261 Y 14.6833 Z -1.0000 I 0.0330 J -0.0692
G01 X 32.3398 Y 14.6777 Z -1.0000
G01 X 32.3577 Y 14.6742 Z -1.0000
G01 X 32.3635 Y 14.6888 Z -1.0000
G01 X 32.3547 Y 14.6978 Z -1.0000
G03 X 32.3263 Y 14.7038 Z -1.0000 I -0.0316 J -0.0783
G02 X 32.2804 Y 14.7090 Z -1.0000 I 0.0113 J 0.3085
G01 X 32.2701 Y 14.7144 Z -1.0000
G01 X 32.2703 Y 14.7185 Z -1.0000
G01 X 32.2787 Y 14.7215 Z -1.0000
G01 X 32.2882 Y 14.7324 Z -1.0000
G01 X 32.2752 Y 14.7471 Z -1.0000
G01 X 32.2688 Y 14.7543 Z -1.0000
G01 X 32.2728 Y 14.7635 Z -1.0000
G02 X 32.3114 Y 14.7755 Z -1.0000 I 0.0395 J -0.0587
G02 X 32.3502 Y 14.7645 Z -1.0000 I 0.0009 J -0.0704
G01 X 32.3616 Y 14.7620 Z -1.0000
G01 X 32.3675 Y 14.7669 Z -1.0000
G01 X 32.3737 Y 14.7745 Z -1.0000
G01 X 32.3866 Y 14.7779 Z -1.0000
G01 X 32.3892 Y 14.7820 Z -1.0000
G01 X 32.3796 Y 14.7936 Z -1.0000
G01 X 32.3572 Y 14.8093 Z -1.0000
G01 X 32.3846 Y 14.8312 Z -1.0000
G01 X 32.3975 Y 14.8481 Z -1.0000
G01 X 32.3943 Y 14.8532 Z -1.0000
G01 X 32.3870 Y 14.8580 Z -1.0000
G01 X 32.3884 Y 14.8673 Z -1.0000
G01 X 32.4017 Y 14.8779 Z -1.0000
G01 X 32.4167 Y 14.8814 Z -1.0000
G01 X 32.4353 Y 14.8909 Z -1.0000
G01 X 32.4448 Y 14.9198 Z -1.0000
G01 X 32.4417 Y 14.9254 Z -1.0000
G01 X 32.4312 Y 14.9284 Z -1.0000
G01 X 32.4196 Y 14.9320 Z -1.0000
G01 X 32.4089 Y 14.9437 Z -1.0000
G01 X 32.4002 Y 14.9508 Z -1.0000
G01 X 32.3938 Y 14.9484 Z -1.0000
G01 X 32.3929 Y 14.9410 Z -1.0000
G01 X 32.3972 Y 14.9378 Z -1.0000
G01 X 32.4037 Y 14.9344 Z -1.0000
G01 X 32.4072 Y 14.9231 Z -1.0000
G01 X 32.4020 Y 14.9155 Z -1.0000
G01 X 32.3860 Y 14.9150 Z -1.0000
G02 X 32.3665 Y 14.9236 Z -1.0000 I 0.0271 J 0.0877
G01 X 32.3588 Y 14.9310 Z -1.0000
G01 X 32.3509 Y 14.9362 Z -1.0000
G03 X 32.3285 Y 14.9358 Z -1.0000 I -0.0102 J -0.0659
G01 X 32.3062 Y 14.9370 Z -1.0000
G01 X 32.2889 Y 14.9480 Z -1.0000
G01 X 32.2831 Y 14.9727 Z -1.0000
G01 X 32.2993 Y 14.9849 Z -1.0000
G01 X 32.3119 Y 14.9874 Z -1.0000
G03 X 32.3456 Y 15.0035 Z -1.0000 I -0.1097 J 0.2727
G02 X 32.3791 Y 15.0173 Z -1.0000 I 0.0733 J -0.1306
G01 X 32.3929 Y 15.0166 Z -1.0000
G01 X 32.4039 Y 15.0158 Z -1.0000
G01 X 32.4072 Y 15.0200 Z -1.0000
G01 X 32.4112 Y 15.0244 Z -1.0000
G02 X 32.4581 Y 15.0246 Z -1.0000 I 0.0246 J -0.2655
G03 X 32.5015 Y 15.0298 Z -1.0000 I 0.0090 J 0.1082
G01 X 32.5122 Y 15.0426 Z -1.0000
G01 X 32.5225 Y 15.0574 Z -1.0000
G02 X 32.5624 Y 15.0696 Z -1.0000 I 0.0506 J -0.0940
G01 X 32.6095 Y 15.0744 Z -1.0000
G01 X 32.5718 Y 15.0813 Z -1.0000
G03 X 32.4923 Y 15.0877 Z -1.0000 I -0.0707 J -0.3842
G01 X 32.4809 Y 15.0793 Z -1.0000
G01 X 32.4759 Y 15.0755 Z -1.0000
G01 X 32.4649 Y 15.0782 Z -1.0000
G01 X 32.4613 Y 15.0873 Z -1.0000
G01 X 32.4730 Y 15.1073 Z -1.0000
G01 X 32.4969 Y 15.1200 Z -1.0000
G02 X 32.5494 Y 15.1220 Z -1.0000 I 0.0329 J -0.1704
G03 X 32.6019 Y 15.1190 Z -1.0000 I 0.0544 J 0.4872
G01 X 32.6047 Y 15.1218 Z -1.0000
G01 X 32.6034 Y 15.1275 Z -1.0000
G03 X 32.5887 Y 15.1549 Z -1.0000 I -0.3338 J -0.1609
G01 X 32.5906 Y 15.1740 Z -1.0000
G01 X 32.6058 Y 15.1741 Z -1.0000
G03 X 32.6268 Y 15.1588 Z -1.0000 I 0.0502 J 0.0468
G01 X 32.6394 Y 15.1584 Z -1.0000
G02 X 32.6534 Y 15.1630 Z -1.0000 I 0.0595 J -0.1580
G01 X 32.6585 Y 15.1637 Z -1.0000
G01 X 32.6389 Y 15.1885 Z -1.0000
G02 X 32.6166 Y 15.2143 Z -1.0000 I 0.1696 J 0.1696
G01 X 32.6141 Y 15.2216 Z -1.0000
G01 X 32.6106 Y 15.2254 Z -1.0000
G03 X 32.5906 Y 15.2240 Z -1.0000 I -0.0058 J -0.0591
G01 X 32.5741 Y 15.2302 Z -1.0000
G01 X 32.5770 Y 15.2439 Z -1.0000
G01 X 32.5808 Y 15.2510 Z -1.0000
G01 X 32.5765 Y 15.2624 Z -1.0000
G01 X 32.5770 Y 15.2711 Z -1.0000
G01 X 32.5963 Y 15.2815 Z -1.0000
G02 X 32.6233 Y 15.2814 Z -1.0000 I 0.0134 J -0.0611
G01 X 32.6348 Y 15.2729 Z -1.0000
G01 X 32.6460 Y 15.2624 Z -1.0000
G01 X 32.6666 Y 15.2577 Z -1.0000
G01 X 32.6867 Y 15.2528 Z -1.0000
G01 X 32.6957 Y 15.2427 Z -1.0000
G01 X 32.7236 Y 15.2268 Z -1.0000
G03 X 32.7701 Y 15.2554 Z -1.0000 I -0.0123 J 0.0723
G01 X 32.7846 Y 15.2619 Z -1.0000
G02 X 32.8229 Y 15.2506 Z -1.0000 I -0.0093 J -0.1021
G03 X 32.8641 Y 15.2322 Z -1.0000 I 0.1657 J 0.3171
G01 X 32.8799 Y 15.2294 Z -1.0000
G01 X 32.8921 Y 15.2439 Z -1.0000
G03 X 32.8712 Y 15.2795 Z -1.0000 I -0.0580 J -0.0101
G02 X 32.7925 Y 15.3664 Z -1.0000 I 0.2438 J 0.2997
G01 X 32.8042 Y 15.3811 Z -1.0000
G02 X 32.8225 Y 15.3706 Z -1.0000 I -0.0223 J -0.0604
G02 X 32.8347 Y 15.3563 Z -1.0000 I -0.0326 J -0.0401
G03 X 32.8683 Y 15.3115 Z -1.0000 I 0.1990 J 0.1143
G01 X 32.8843 Y 15.3047 Z -1.0000
G01 X 32.8921 Y 15.3005 Z -1.0000
G01 X 32.8963 Y 15.2865 Z -1.0000
G01 X 32.9014 Y 15.2720 Z -1.0000
G01 X 32.9152 Y 15.2624 Z -1.0000
G01 X 32.9303 Y 15.2483 Z -1.0000
G02 X 32.9347 Y 15.2130 Z -1.0000 I -0.0662 J -0.0261
G01 X 32.9376 Y 15.2051 Z -1.0000
G01 X 32.9477 Y 15.2012 Z -1.0000
G01 X 32.9588 Y 15.1978 Z -1.0000
G01 X 32.9622 Y 15.1912 Z -1.0000
G01 X 32.9922 Y 15.1638 Z -1.0000
G01 X 33.0348 Y 15.1976 Z -1.0000
G01 X 33.0340 Y 15.2074 Z -1.0000
G03 X 33.0143 Y 15.2366 Z -1.0000 I -0.1445 J -0.0757
G01 X 33.0052 Y 15.2640 Z -1.0000
G01 X 33.0163 Y 15.2725 Z -1.0000
G03 X 33.0424 Y 15.2686 Z -1.0000 I 0.0472 J 0.2239
G03 X 33.0906 Y 15.2656 Z -1.0000 I 0.0714 J 0.7691
G02 X 33.1359 Y 15.2584 Z -1.0000 I -0.0054 J -0.1800
G01 X 33.1505 Y 15.2481 Z -1.0000
G01 X 33.1642 Y 15.2405 Z -1.0000
G01 X 33.1892 Y 15.2455 Z -1.0000
G01 X 33.2070 Y 15.2710 Z -1.0000
G01 X 33.1938 Y 15.2858 Z -1.0000
G01 X 33.1746 Y 15.2906 Z -1.0000
G01 X 33.1655 Y 15.3009 Z -1.0000
G01 X 33.1563 Y 15.3096 Z -1.0000
G01 X 33.1370 Y 15.3103 Z -1.0000
G02 X 33.0955 Y 15.3112 Z -1.0000 I -0.0192 J 0.0769
G01 X 33.0846 Y 15.3257 Z -1.0000
G01 X 33.0819 Y 15.3341 Z -1.0000
G03 X 33.0681 Y 15.3483 Z -1.0000 I -0.0571 J -0.0416
G01 X 33.0619 Y 15.3611 Z -1.0000
G01 X 33.0681 Y 15.3738 Z -1.0000
G01 X 33.0822 Y 15.3991 Z -1.0000
G03 X 33.0748 Y 15.4369 Z -1.0000 I -0.0650 J 0.0069
G01 X 33.0747 Y 15.4493 Z -1.0000
G01 X 33.0842 Y 15.4551 Z -1.0000
G01 X 33.0974 Y 15.4492 Z -1.0000
G01 X 33.1034 Y 15.4332 Z -1.0000
G01 X 33.1232 Y 15.3946 Z -1.0000
G01 X 33.1589 Y 15.3934 Z -1.0000
G01 X 33.1661 Y 15.3942 Z -1.0000
G01 X 33.1692 Y 15.3898 Z -1.0000
G01 X 33.1727 Y 15.3832 Z -1.0000
G01 X 33.1833 Y 15.3798 Z -1.0000
G01 X 33.1911 Y 15.3867 Z -1.0000
G01 X 33.1865 Y 15.4069 Z -1.0000
G01 X 33.1839 Y 15.4416 Z -1.0000
G01 X 33.2062 Y 15.4525 Z -1.0000
G01 X 33.2165 Y 15.4547 Z -1.0000
G01 X 33.2186 Y 15.4625 Z -1.0000
G01 X 33.2206 Y 15.4695 Z -1.0000
G01 X 33.2295 Y 15.4708 Z -1.0000
G03 X 33.2463 Y 15.4658 Z -1.0000 I 0.0403 J 0.1049
G03 X 33.2617 Y 15.4639 Z -1.0000 I 0.0185 J 0.0862
G01 X 33.2562 Y 15.4548 Z -1.0000
G01 X 33.2395 Y 15.4433 Z -1.0000
G01 X 33.2350 Y 15.4319 Z -1.0000
G01 X 33.2309 Y 15.4217 Z -1.0000
G01 X 33.2209 Y 15.4175 Z -1.0000
G01 X 33.2101 Y 15.4141 Z -1.0000
G01 X 33.2068 Y 15.4078 Z -1.0000
G01 X 33.2105 Y 15.4042 Z -1.0000
G01 X 33.2264 Y 15.4085 Z -1.0000
G01 X 33.2444 Y 15.4118 Z -1.0000
G01 X 33.2570 Y 15.4045 Z -1.0000
G03 X 33.2697 Y 15.3924 Z -1.0000 I 0.0431 J 0.0323
G03 X 33.2915 Y 15.3809 Z -1.0000 I 0.0613 J 0.0898
G01 X 33.2919 Y 15.3758 Z -1.0000
G01 X 33.2750 Y 15.3711 Z -1.0000
G03 X 33.2396 Y 15.3660 Z -1.0000 I 0.0021 J -0.1408
G01 X 33.2350 Y 15.3600 Z -1.0000
G01 X 33.2526 Y 15.3444 Z -1.0000
G03 X 33.3424 Y 15.3725 Z -1.0000 I -0.0294 J 0.2512
G01 X 33.3491 Y 15.3823 Z -1.0000
G01 X 33.3448 Y 15.3909 Z -1.0000
G01 X 33.3342 Y 15.4079 Z -1.0000
G01 X 33.3433 Y 15.4175 Z -1.0000
G01 X 33.3506 Y 15.4316 Z -1.0000
G03 X 33.2868 Y 15.4969 Z -1.0000 I -0.2405 J -0.1710
G01 X 33.2858 Y 15.5051 Z -1.0000
G01 X 33.2986 Y 15.5113 Z -1.0000
G03 X 33.3252 Y 15.5155 Z -1.0000 I -0.0009 J 0.0911
G01 X 33.3292 Y 15.5210 Z -1.0000
G01 X 33.3253 Y 15.5265 Z -1.0000
G03 X 33.3041 Y 15.5304 Z -1.0000 I -0.0212 J -0.0569
G01 X 33.2853 Y 15.5367 Z -1.0000
G01 X 33.2866 Y 15.5431 Z -1.0000
G03 X 33.2760 Y 15.5602 Z -1.0000 I -0.0527 J -0.0210
G01 X 33.2776 Y 15.5681 Z -1.0000
G01 X 33.2922 Y 15.5677 Z -1.0000
G01 X 33.3065 Y 15.5645 Z -1.0000
G01 X 33.3104 Y 15.5685 Z -1.0000
G01 X 33.3150 Y 15.5736 Z -1.0000
G02 X 33.3503 Y 15.5720 Z -1.0000 I 0.0118 J -0.1339
G03 X 33.4425 Y 15.5642 Z -1.0000 I 0.0892 J 0.5040
G01 X 33.4490 Y 15.5726 Z -1.0000
G01 X 33.4442 Y 15.5780 Z -1.0000
G01 X 33.4311 Y 15.5792 Z -1.0000
G01 X 33.4172 Y 15.5802 Z -1.0000
G01 X 33.4094 Y 15.5864 Z -1.0000
G01 X 33.4014 Y 15.5916 Z -1.0000
G03 X 33.3803 Y 15.5905 Z -1.0000 I -0.0077 J -0.0536
G01 X 33.3637 Y 15.5928 Z -1.0000
G01 X 33.3574 Y 15.6036 Z -1.0000
G01 X 33.3617 Y 15.6195 Z -1.0000
G01 X 33.3715 Y 15.6278 Z -1.0000
G01 X 33.3816 Y 15.6274 Z -1.0000
G01 X 33.3856 Y 15.6210 Z -1.0000
G01 X 33.3894 Y 15.6126 Z -1.0000
G01 X 33.3997 Y 15.6087 Z -1.0000
G01 X 33.4081 Y 15.6145 Z -1.0000
G03 X 33.4138 Y 15.6448 Z -1.0000 I -0.0775 J 0.0303
G02 X 33.4191 Y 15.6756 Z -1.0000 I 0.0928 J 0.0000
G01 X 33.4266 Y 15.6809 Z -1.0000
G01 X 33.4379 Y 15.6843 Z -1.0000
G03 X 33.4688 Y 15.7091 Z -1.0000 I -0.1268 J 0.1898
G02 X 33.4998 Y 15.7336 Z -1.0000 I 0.1442 J -0.1509
G01 X 33.5125 Y 15.7373 Z -1.0000
G01 X 33.5234 Y 15.7406 Z -1.0000
G01 X 33.5267 Y 15.7467 Z -1.0000
G01 X 33.5413 Y 15.7600 Z -1.0000
G02 X 33.5798 Y 15.7420 Z -1.0000 I -0.0055 J -0.0620
G01 X 33.6046 Y 15.7383 Z -1.0000
G01 X 33.6155 Y 15.7608 Z -1.0000
G02 X 33.6147 Y 15.7893 Z -1.0000 I 0.0905 J 0.0168
G01 X 33.6198 Y 15.7938 Z -1.0000
G01 X 33.6274 Y 15.7909 Z -1.0000
G01 X 33.6303 Y 15.7844 Z -1.0000
G01 X 33.6331 Y 15.7778 Z -1.0000
G01 X 33.6403 Y 15.7750 Z -1.0000
G01 X 33.6451 Y 15.7788 Z -1.0000
G01 X 33.6444 Y 15.7938 Z -1.0000
G01 X 33.6473 Y 15.8061 Z -1.0000
G01 X 33.6626 Y 15.8126 Z -1.0000
G01 X 33.6797 Y 15.8196 Z -1.0000
G01 X 33.6867 Y 15.8361 Z -1.0000
G01 X 33.6646 Y 15.8566 Z -1.0000
G03 X 33.6241 Y 15.8314 Z -1.0000 I 0.0039 J -0.0514
G02 X 33.5890 Y 15.8020 Z -1.0000 I -0.0591 J 0.0349
G01 X 33.5738 Y 15.8126 Z -1.0000
G01 X 33.5766 Y 15.8192 Z -1.0000
G01 X 33.5832 Y 15.8220 Z -1.0000
G01 X 33.5894 Y 15.8253 Z -1.0000
G01 X 33.5926 Y 15.8361 Z -1.0000
G01 X 33.5959 Y 15.8469 Z -1.0000
G01 X 33.6020 Y 15.8502 Z -1.0000
G01 X 33.6084 Y 15.8533 Z -1.0000
G01 X 33.6115 Y 15.8620 Z -1.0000
G01 X 33.6153 Y 15.8720 Z -1.0000
G02 X 33.6500 Y 15.9064 Z -1.0000 I 0.2425 J -0.2106
G03 X 33.6781 Y 15.9429 Z -1.0000 I -0.0707 J 0.0833
G03 X 33.6827 Y 15.9753 Z -1.0000 I -0.0499 J 0.0237
G02 X 33.6822 Y 16.0035 Z -1.0000 I 0.0988 J 0.0158
G01 X 33.6865 Y 16.0056 Z -1.0000
G01 X 33.6939 Y 16.0063 Z -1.0000
G01 X 33.7053 Y 16.0237 Z -1.0000
G01 X 33.7245 Y 16.0372 Z -1.0000
G01 X 33.7448 Y 16.0244 Z -1.0000
G01 X 33.7554 Y 16.0010 Z -1.0000
G01 X 33.7819 Y 16.0287 Z -1.0000
G02 X 33.8076 Y 16.0489 Z -1.0000 I 0.0849 J -0.0811
G01 X 33.8139 Y 16.0474 Z -1.0000
G01 X 33.8276 Y 16.0435 Z -1.0000
G01 X 33.8372 Y 16.0591 Z -1.0000
G01 X 33.8418 Y 16.0688 Z -1.0000
G01 X 33.8485 Y 16.0685 Z -1.0000
G01 X 33.8755 Y 16.0595 Z -1.0000
G01 X 33.9009 Y 16.0760 Z -1.0000
G01 X 33.9152 Y 16.0902 Z -1.0000
G01 X 33.9314 Y 16.0948 Z -1.0000
G01 X 33.9446 Y 16.1003 Z -1.0000
G01 X 33.9501 Y 16.1138 Z -1.0000
G01 X 33.9558 Y 16.1289 Z -1.0000
G01 X 33.9753 Y 16.1424 Z -1.0000
G02 X 34.0159 Y 16.1459 Z -1.0000 I 0.0264 J -0.0694
G01 X 34.0213 Y 16.1334 Z -1.0000
G01 X 34.0211 Y 16.1267 Z -1.0000
G01 X 34.0278 Y 16.1206 Z -1.0000
G01 X 34.0545 Y 16.1208 Z -1.0000
G01 X 34.0584 Y 16.1323 Z -1.0000
G01 X 34.0724 Y 16.1351 Z -1.0000
G01 X 34.0877 Y 16.1348 Z -1.0000
G01 X 34.0913 Y 16.1393 Z -1.0000
G02 X 34.1109 Y 16.1880 Z -1.0000 I 0.0701 J 0.0000
G02 X 34.1572 Y 16.2077 Z -1.0000 I 0.0463 J -0.0446
G01 X 34.1633 Y 16.2109 Z -1.0000
G01 X 34.1665 Y 16.2218 Z -1.0000
G01 X 34.1623 Y 16.2318 Z -1.0000
G01 X 34.1524 Y 16.2359 Z -1.0000
G01 X 34.1424 Y 16.2317 Z -1.0000
G01 X 34.1383 Y 16.2218 Z -1.0000
G01 X 34.1284 Y 16.2128 Z -1.0000
G01 X 34.1018 Y 16.2253 Z -1.0000
G03 X 34.0832 Y 16.2412 Z -1.0000 I -0.1105 J -0.1105
G01 X 34.0713 Y 16.2475 Z -1.0000
G01 X 34.0626 Y 16.2765 Z -1.0000
G02 X 34.1181 Y 16.3094 Z -1.0000 I 0.0681 J -0.0515
G01 X 34.1336 Y 16.3164 Z -1.0000
G01 X 34.1383 Y 16.3265 Z -1.0000
G01 X 34.1431 Y 16.3341 Z -1.0000
G01 X 34.1558 Y 16.3350 Z -1.0000
G01 X 34.1717 Y 16.3349 Z -1.0000
G01 X 34.1851 Y 16.3437 Z -1.0000
G01 X 34.1976 Y 16.3533 Z -1.0000
G01 X 34.2052 Y 16.3528 Z -1.0000
G01 X 34.2106 Y 16.3530 Z -1.0000
G01 X 34.2135 Y 16.3586 Z -1.0000
G01 X 34.2099 Y 16.3643 Z -1.0000
G01 X 34.2002 Y 16.3645 Z -1.0000
G01 X 34.1893 Y 16.3648 Z -1.0000
G01 X 34.1817 Y 16.3729 Z -1.0000
G01 X 34.1836 Y 16.3816 Z -1.0000
G01 X 34.1956 Y 16.3864 Z -1.0000
G01 X 34.2077 Y 16.3903 Z -1.0000
G01 X 34.2088 Y 16.3958 Z -1.0000
G01 X 34.2011 Y 16.4019 Z -1.0000
G03 X 34.1800 Y 16.4052 Z -1.0000 I -0.0211 J -0.0649
G02 X 34.1606 Y 16.4088 Z -1.0000 I 0.0000 J 0.0552
G01 X 34.1571 Y 16.4138 Z -1.0000
G01 X 34.1538 Y 16.4200 Z -1.0000
G03 X 34.1312 Y 16.4311 Z -1.0000 I -0.0522 J -0.0780
G01 X 34.1054 Y 16.4397 Z -1.0000
G01 X 34.1265 Y 16.4510 Z -1.0000
G01 X 34.1426 Y 16.4538 Z -1.0000
G01 X 34.1477 Y 16.4479 Z -1.0000
G01 X 34.1517 Y 16.4375 Z -1.0000
G01 X 34.1610 Y 16.4335 Z -1.0000
G02 X 34.1741 Y 16.4322 Z -1.0000 I 0.0000 J -0.0696
G02 X 34.1876 Y 16.4284 Z -1.0000 I -0.0150 J -0.0787
G01 X 34.1944 Y 16.4314 Z -1.0000
G01 X 34.1966 Y 16.4526 Z -1.0000
G01 X 34.1888 Y 16.4713 Z -1.0000
G01 X 34.1821 Y 16.4717 Z -1.0000
G01 X 34.1732 Y 16.4703 Z -1.0000
G01 X 34.1601 Y 16.4828 Z -1.0000
G01 X 34.1480 Y 16.4920 Z -1.0000
G01 X 34.1433 Y 16.4873 Z -1.0000
G01 X 34.1265 Y 16.4914 Z -1.0000
G01 X 34.1053 Y 16.5029 Z -1.0000
G01 X 34.1288 Y 16.5086 Z -1.0000
G01 X 34.1303 Y 16.5147 Z -1.0000
G03 X 34.1077 Y 16.5269 Z -1.0000 I -0.0385 J -0.0447
G02 X 34.0733 Y 16.5463 Z -1.0000 I 0.0222 J 0.0793
G01 X 34.0771 Y 16.5558 Z -1.0000
G01 X 34.0877 Y 16.5593 Z -1.0000
G01 X 34.0912 Y 16.5663 Z -1.0000
G01 X 34.0870 Y 16.5717 Z -1.0000
G01 X 34.0677 Y 16.5723 Z -1.0000
G02 X 34.0476 Y 16.5719 Z -1.0000 I -0.0111 J 0.0576
G01 X 34.0442 Y 16.5759 Z -1.0000
G01 X 34.0301 Y 16.5864 Z -1.0000
G01 X 34.0154 Y 16.5675 Z -1.0000
G01 X 34.0113 Y 16.5640 Z -1.0000
G01 X 34.0036 Y 16.5688 Z -1.0000
G03 X 33.9559 Y 16.6269 Z -1.0000 I -0.2584 J -0.1635
G01 X 33.9426 Y 16.6267 Z -1.0000
G01 X 33.9414 Y 16.6213 Z -1.0000
G01 X 33.9483 Y 16.6102 Z -1.0000
G02 X 33.9576 Y 16.5983 Z -1.0000 I -0.0432 J -0.0432
G01 X 33.9595 Y 16.5915 Z -1.0000
G01 X 33.9490 Y 16.5825 Z -1.0000
G02 X 33.9189 Y 16.5976 Z -1.0000 I 0.0081 J 0.0533
G01 X 33.9053 Y 16.6066 Z -1.0000
G01 X 33.8994 Y 16.6054 Z -1.0000
G01 X 33.8936 Y 16.6112 Z -1.0000
G01 X 33.8893 Y 16.6169 Z -1.0000
G01 X 33.8741 Y 16.6166 Z -1.0000
G01 X 33.8566 Y 16.6164 Z -1.0000
G01 X 33.8435 Y 16.6256 Z -1.0000
G03 X 33.7864 Y 16.6624 Z -1.0000 I -0.0763 J -0.0558
G01 X 33.7619 Y 16.6425 Z -1.0000
G01 X 33.7559 Y 16.6368 Z -1.0000
G02 X 33.7055 Y 16.6466 Z -1.0000 I 0.0152 J 0.2145
G01 X 33.7021 Y 16.6522 Z -1.0000
G01 X 33.7080 Y 16.6604 Z -1.0000
G01 X 33.7196 Y 16.6711 Z -1.0000
G01 X 33.7198 Y 16.6776 Z -1.0000
G01 X 33.7246 Y 16.6913 Z -1.0000
G01 X 33.7572 Y 16.6908 Z -1.0000
G01 X 33.7679 Y 16.6903 Z -1.0000
G01 X 33.7713 Y 16.6946 Z -1.0000
G01 X 33.7675 Y 16.7009 Z -1.0000
G03 X 33.7407 Y 16.7110 Z -1.0000 I -0.0517 J -0.0968
G01 X 33.7289 Y 16.7221 Z -1.0000
G03 X 33.7967 Y 16.7500 Z -1.0000 I -0.0424 J 0.1996
G01 X 33.8065 Y 16.7718 Z -1.0000
G01 X 33.8101 Y 16.7819 Z -1.0000
G01 X 33.8261 Y 16.7893 Z -1.0000
G01 X 33.8407 Y 16.7967 Z -1.0000
G01 X 33.8427 Y 16.8062 Z -1.0000
G01 X 33.8430 Y 16.8133 Z -1.0000
G01 X 33.8467 Y 16.8143 Z -1.0000
G01 X 33.8528 Y 16.8142 Z -1.0000
G01 X 33.8560 Y 16.8195 Z -1.0000
G01 X 33.8587 Y 16.8294 Z -1.0000
G02 X 33.8800 Y 16.8590 Z -1.0000 I 0.2029 J -0.1233
G03 X 33.8988 Y 16.8885 Z -1.0000 I -0.1025 J 0.0862
G01 X 33.8992 Y 16.9001 Z -1.0000
G01 X 33.8985 Y 16.9112 Z -1.0000
G01 X 33.9034 Y 16.9181 Z -1.0000
G01 X 33.9086 Y 16.9168 Z -1.0000
G01 X 33.9125 Y 16.9020 Z -1.0000
G01 X 33.9163 Y 16.8929 Z -1.0000
G01 X 33.9209 Y 16.8934 Z -1.0000
G01 X 33.9262 Y 16.9072 Z -1.0000
G03 X 33.9267 Y 16.9289 Z -1.0000 I -0.0783 J 0.0128
G01 X 33.9312 Y 16.9428 Z -1.0000
G01 X 33.9418 Y 16.9457 Z -1.0000
G01 X 33.9560 Y 16.9468 Z -1.0000
G01 X 33.9649 Y 16.9572 Z -1.0000
G02 X 33.9899 Y 17.0086 Z -1.0000 I 0.1929 J -0.0621
G01 X 34.0056 Y 17.0174 Z -1.0000
G01 X 34.0087 Y 17.0229 Z -1.0000
G01 X 33.9995 Y 17.0294 Z -1.0000
G01 X 33.9969 Y 17.0360 Z -1.0000
G01 X 34.0001 Y 17.0398 Z -1.0000
G01 X 34.0111 Y 17.0389 Z -1.0000
G01 X 34.0206 Y 17.0400 Z -1.0000
G01 X 34.0252 Y 17.0486 Z -1.0000
G01 X 34.0209 Y 17.0595 Z -1.0000
G01 X 34.0111 Y 17.0637 Z -1.0000
G01 X 34.0002 Y 17.0670 Z -1.0000
G01 X 33.9969 Y 17.0731 Z -1.0000
G01 X 34.0001 Y 17.0794 Z -1.0000
G01 X 34.0099 Y 17.0825 Z -1.0000
G01 X 34.0316 Y 17.0984 Z -1.0000
G01 X 34.0255 Y 17.1317 Z -1.0000
G01 X 34.0170 Y 17.1545 Z -1.0000
G01 X 34.0238 Y 17.1707 Z -1.0000
G02 X 34.0416 Y 17.1837 Z -1.0000 I 0.0707 J -0.0783
G01 X 34.0503 Y 17.1860 Z -1.0000
G01 X 34.0827 Y 17.2005 Z -1.0000
G01 X 34.0894 Y 17.2295 Z -1.0000
G01 X 34.0950 Y 17.2648 Z -1.0000
G01 X 34.1239 Y 17.2801 Z -1.0000
G01 X 34.1319 Y 17.2831 Z -1.0000
G03 X 34.1452 Y 17.2989 Z -1.0000 I -0.0483 J 0.0545
G01 X 34.1507 Y 17.3142 Z -1.0000
G01 X 34.1475 Y 17.3177 Z -1.0000
G01 X 34.1412 Y 17.3209 Z -1.0000
G01 X 34.1380 Y 17.3307 Z -1.0000
G01 X 34.1338 Y 17.3405 Z -1.0000
G01 X 34.1182 Y 17.3489 Z -1.0000
G01 X 34.1141 Y 17.3644 Z -1.0000
G01 X 34.1455 Y 17.3759 Z -1.0000
G03 X 34.1815 Y 17.3798 Z -1.0000 I 0.0075 J 0.1006
G03 X 34.2041 Y 17.3931 Z -1.0000 I -0.0150 J 0.0511
G02 X 34.2253 Y 17.4081 Z -1.0000 I 0.0539 J -0.0539
G01 X 34.2365 Y 17.4085 Z -1.0000
G01 X 34.2469 Y 17.4181 Z -1.0000
G03 X 34.2240 Y 17.4510 Z -1.0000 I -0.0609 J -0.0178
G01 X 34.2203 Y 17.4494 Z -1.0000
G01 X 34.2271 Y 17.4297 Z -1.0000
G01 X 34.2186 Y 17.4244 Z -1.0000
G01 X 34.2075 Y 17.4246 Z -1.0000
G01 X 34.2015 Y 17.4186 Z -1.0000
G01 X 34.1969 Y 17.4174 Z -1.0000
G02 X 34.1801 Y 17.4380 Z -1.0000 I 0.0587 J 0.0651
G03 X 34.1497 Y 17.4665 Z -1.0000 I -0.0643 J -0.0380
G01 X 34.1381 Y 17.4594 Z -1.0000
G01 X 34.1349 Y 17.4530 Z -1.0000
G02 X 34.1193 Y 17.4447 Z -1.0000 I -0.0309 J 0.0394
G01 X 34.1047 Y 17.4356 Z -1.0000
G01 X 34.1004 Y 17.4252 Z -1.0000
G01 X 34.0877 Y 17.4128 Z -1.0000
G02 X 34.0460 Y 17.4264 Z -1.0000 I 0.0017 J 0.0757
G03 X 34.0030 Y 17.4376 Z -1.0000 I -0.0365 J -0.0522
G01 X 33.9876 Y 17.4205 Z -1.0000
G01 X 33.9800 Y 17.4155 Z -1.0000
G02 X 33.9424 Y 17.4396 Z -1.0000 I 0.0517 J 0.1220
G03 X 33.9011 Y 17.4533 Z -1.0000 I -0.0360 J -0.0394
G01 X 33.8866 Y 17.4339 Z -1.0000
G01 X 33.8820 Y 17.4191 Z -1.0000
G01 X 33.8639 Y 17.4117 Z -1.0000
G01 X 33.8458 Y 17.3978 Z -1.0000
G01 X 33.8557 Y 17.3808 Z -1.0000
G01 X 33.8836 Y 17.3603 Z -1.0000
G01 X 33.8814 Y 17.3401 Z -1.0000
G01 X 33.8761 Y 17.3387 Z -1.0000
G02 X 33.8581 Y 17.3466 Z -1.0000 I 0.0181 J 0.0654
G01 X 33.8391 Y 17.3517 Z -1.0000
G03 X 33.7984 Y 17.3444 Z -1.0000 I 0.0056 J -0.1486
G02 X 33.7370 Y 17.3377 Z -1.0000 I -0.0464 J 0.1405
G01 X 33.7241 Y 17.3520 Z -1.0000
G01 X 33.7116 Y 17.3800 Z -1.0000
G01 X 33.6819 Y 17.3898 Z -1.0000
G01 X 33.6676 Y 17.3924 Z -1.0000
G01 X 33.6608 Y 17.4000 Z -1.0000
G01 X 33.6639 Y 17.4067 Z -1.0000
G02 X 33.6909 Y 17.4118 Z -1.0000 I 0.0271 J -0.0692
G03 X 33.7175 Y 17.4161 Z -1.0000 I -0.0000 J 0.0847
G01 X 33.7194 Y 17.4212 Z -1.0000
G03 X 33.6740 Y 17.4464 Z -1.0000 I -0.0453 J -0.0281
G01 X 33.6488 Y 17.4212 Z -1.0000
G01 X 33.6302 Y 17.4029 Z -1.0000
G01 X 33.5966 Y 17.4220 Z -1.0000
G01 X 33.5948 Y 17.4317 Z -1.0000
G01 X 33.6007 Y 17.4427 Z -1.0000
G01 X 33.6079 Y 17.4454 Z -1.0000
G01 X 33.6111 Y 17.4419 Z -1.0000
G01 X 33.6153 Y 17.4347 Z -1.0000
G01 X 33.6307 Y 17.4306 Z -1.0000
G01 X 33.6425 Y 17.4376 Z -1.0000
G01 X 33.6476 Y 17.4613 Z -1.0000
G02 X 33.6479 Y 17.4913 Z -1.0000 I 0.1523 J 0.0135
G01 X 33.6521 Y 17.5036 Z -1.0000
G01 X 33.6517 Y 17.5129 Z -1.0000
G01 X 33.6352 Y 17.5261 Z -1.0000
G02 X 33.6134 Y 17.5385 Z -1.0000 I 0.0567 J 0.1250
G01 X 33.6111 Y 17.5429 Z -1.0000
G01 X 33.6277 Y 17.5664 Z -1.0000
G02 X 33.7315 Y 17.5860 Z -1.0000 I 0.1134 J -0.3160
G03 X 33.7768 Y 17.5968 Z -1.0000 I -0.0034 J 0.1148
G01 X 33.7881 Y 17.6126 Z -1.0000
G01 X 33.7973 Y 17.6306 Z -1.0000
G01 X 33.8152 Y 17.6376 Z -1.0000
G01 X 33.8283 Y 17.6325 Z -1.0000
G01 X 33.8288 Y 17.6250 Z -1.0000
G01 X 33.8246 Y 17.6123 Z -1.0000
G01 X 33.8302 Y 17.5964 Z -1.0000
G01 X 33.8441 Y 17.5892 Z -1.0000
G03 X 33.8730 Y 17.5958 Z -1.0000 I 0.0009 J 0.0627
G02 X 33.9047 Y 17.6067 Z -1.0000 I 0.0570 J -0.1144
G02 X 33.9305 Y 17.6074 Z -1.0000 I 0.0148 J -0.0736
G01 X 33.9541 Y 17.6097 Z -1.0000
G01 X 33.9676 Y 17.6205 Z -1.0000
G01 X 33.9720 Y 17.6341 Z -1.0000
G01 X 33.9687 Y 17.6376 Z -1.0000
G01 X 33.9616 Y 17.6458 Z -1.0000
G01 X 33.9733 Y 17.6691 Z -1.0000
G01 X 33.9822 Y 17.6984 Z -1.0000
G01 X 33.9647 Y 17.7128 Z -1.0000
G02 X 33.9438 Y 17.7156 Z -1.0000 I -0.0000 J 0.0789
G01 X 33.9388 Y 17.7199 Z -1.0000
G01 X 33.9342 Y 17.7256 Z -1.0000
G03 X 33.9044 Y 17.7434 Z -1.0000 I -0.1713 J -0.2517
G03 X 33.8732 Y 17.7535 Z -1.0000 I -0.0452 J -0.0861
G01 X 33.8557 Y 17.7505 Z -1.0000
G01 X 33.8403 Y 17.7531 Z -1.0000
G01 X 33.8341 Y 17.7741 Z -1.0000
G01 X 33.8394 Y 17.8070 Z -1.0000
G01 X 33.7699 Y 17.8070 Z -1.0000
G03 X 33.7008 Y 17.8038 Z -1.0000 I 0.0000 J -0.7583
G03 X 33.6679 Y 17.7977 Z -1.0000 I 0.0163 J -0.1787
G02 X 33.6367 Y 17.7933 Z -1.0000 I -0.0312 J 0.1079
G01 X 33.6261 Y 17.7977 Z -1.0000
G03 X 33.5685 Y 17.8220 Z -1.0000 I -0.0587 J -0.0587
G01 X 33.5343 Y 17.7991 Z -1.0000
G01 X 33.5289 Y 17.7939 Z -1.0000
G02 X 33.4965 Y 17.7857 Z -1.0000 I -0.0611 J 0.1729
G02 X 33.4561 Y 17.7917 Z -1.0000 I -0.0106 J 0.0670
G01 X 33.4429 Y 17.8117 Z -1.0000
G01 X 33.4391 Y 17.8181 Z -1.0000
G01 X 33.4221 Y 17.8243 Z -1.0000
G01 X 33.4100 Y 17.8195 Z -1.0000
G01 X 33.4062 Y 17.8036 Z -1.0000
G01 X 33.4017 Y 17.7856 Z -1.0000
G01 X 33.3820 Y 17.7734 Z -1.0000
G02 X 33.3562 Y 17.7723 Z -1.0000 I -0.0160 J 0.0726
G01 X 33.3497 Y 17.7777 Z -1.0000
G01 X 33.3438 Y 17.7850 Z -1.0000
G01 X 33.3318 Y 17.7883 Z -1.0000
G01 X 33.3290 Y 17.7924 Z -1.0000
G01 X 33.3387 Y 17.8055 Z -1.0000
G01 X 33.3600 Y 17.8228 Z -1.0000
G01 X 33.3408 Y 17.8362 Z -1.0000
G01 X 33.3198 Y 17.8435 Z -1.0000
G03 X 33.2193 Y 17.8433 Z -1.0000 I -0.0487 J -0.8316
G02 X 33.1181 Y 17.8427 Z -1.0000 I -0.0559 J 0.9037
G02 X 33.0859 Y 17.8500 Z -1.0000 I 0.0048 J 0.0958
G03 X 33.0034 Y 17.8560 Z -1.0000 I -0.0501 J -0.1200
G03 X 32.9670 Y 17.8194 Z -1.0000 I 0.0126 J -0.0489
G01 X 32.9580 Y 17.8023 Z -1.0000
G01 X 32.9476 Y 17.7976 Z -1.0000
G01 X 32.9380 Y 17.7933 Z -1.0000
G01 X 32.9337 Y 17.7821 Z -1.0000
G01 X 32.9290 Y 17.7770 Z -1.0000
G01 X 32.9173 Y 17.7810 Z -1.0000
G03 X 32.8695 Y 17.8082 Z -1.0000 I -0.0902 J -0.1027
G01 X 32.8585 Y 17.8002 Z -1.0000
G01 X 32.8552 Y 17.7943 Z -1.0000
G02 X 32.8251 Y 17.7800 Z -1.0000 I -0.0877 J 0.1450
G02 X 32.7928 Y 17.7740 Z -1.0000 I -0.0341 J 0.0942
G01 X 32.7781 Y 17.7791 Z -1.0000
G01 X 32.7764 Y 17.7944 Z -1.0000
G01 X 32.8016 Y 17.8103 Z -1.0000
G03 X 32.8245 Y 17.8215 Z -1.0000 I -0.0099 J 0.0492
G01 X 32.8357 Y 17.8397 Z -1.0000
G01 X 32.8475 Y 17.8560 Z -1.0000
G01 X 32.8736 Y 17.8635 Z -1.0000
G03 X 32.9023 Y 17.8667 Z -1.0000 I 0.0000 J 0.1320
G01 X 32.9055 Y 17.8706 Z -1.0000
G01 X 32.9033 Y 17.8769 Z -1.0000
G03 X 32.8730 Y 17.9130 Z -1.0000 I -0.4238 J -0.3252
G01 X 32.8494 Y 17.9482 Z -1.0000
G01 X 32.8559 Y 17.9516 Z -1.0000
G03 X 32.8720 Y 17.9812 Z -1.0000 I -0.1348 J 0.0926
G02 X 32.8996 Y 18.0104 Z -1.0000 I 0.0526 J -0.0220
G01 X 32.9170 Y 18.0031 Z -1.0000
G01 X 32.9521 Y 17.9885 Z -1.0000
G03 X 32.9808 Y 18.0346 Z -1.0000 I -0.0228 J 0.0462
G01 X 32.9744 Y 18.0432 Z -1.0000
G03 X 32.9455 Y 18.0452 Z -1.0000 I -0.0191 J -0.0634
G03 X 32.9114 Y 18.0367 Z -1.0000 I 0.0269 J -0.1797
G03 X 32.8807 Y 18.0222 Z -1.0000 I 0.0574 J -0.1612
G02 X 32.8507 Y 18.0104 Z -1.0000 I -0.0498 J 0.0830
G01 X 32.8312 Y 18.0119 Z -1.0000
G01 X 32.8248 Y 18.0229 Z -1.0000
G02 X 32.8374 Y 18.0506 Z -1.0000 I 0.0568 J -0.0091
G02 X 32.8670 Y 18.0712 Z -1.0000 I 0.0523 J -0.0437
G02 X 32.8987 Y 18.0723 Z -1.0000 I 0.0176 J -0.0498
G03 X 32.9282 Y 18.0699 Z -1.0000 I 0.0212 J 0.0766
G01 X 32.9337 Y 18.0760 Z -1.0000
G01 X 32.9290 Y 18.0846 Z -1.0000
G01 X 32.9127 Y 18.0894 Z -1.0000
G02 X 32.8925 Y 18.0929 Z -1.0000 I 0.0000 J 0.0595
G02 X 32.8409 Y 18.1152 Z -1.0000 I 0.1521 J 0.4223
G03 X 32.7932 Y 18.1333 Z -1.0000 I -0.1052 J -0.2065
G01 X 32.7859 Y 18.1294 Z -1.0000
G01 X 32.7794 Y 18.1207 Z -1.0000
G01 X 32.7698 Y 18.1176 Z -1.0000
G01 X 32.7402 Y 18.1042 Z -1.0000
G03 X 32.7267 Y 18.0683 Z -1.0000 I 0.0411 J -0.0359
G01 X 32.7310 Y 18.0554 Z -1.0000
G03 X 32.7562 Y 18.0287 Z -1.0000 I 0.1268 J 0.0941
G01 X 32.7820 Y 18.0016 Z -1.0000
G01 X 32.7783 Y 17.9997 Z -1.0000
G02 X 32.7510 Y 17.9902 Z -1.0000 I -0.3098 J 0.8488
G01 X 32.7369 Y 17.9713 Z -1.0000
G01 X 32.7502 Y 17.9577 Z -1.0000
G02 X 32.7767 Y 17.9511 Z -1.0000 I 0.0000 J -0.0569
G01 X 32.7815 Y 17.9412 Z -1.0000
G01 X 32.7733 Y 17.9303 Z -1.0000
G02 X 32.7437 Y 17.9219 Z -1.0000 I -0.0362 J 0.0706
G03 X 32.7142 Y 17.9118 Z -1.0000 I 0.0052 J -0.0633
G01 X 32.6968 Y 17.8913 Z -1.0000
G02 X 32.6825 Y 17.8666 Z -1.0000 I -0.1199 J 0.0527
G01 X 32.6766 Y 17.8636 Z -1.0000
G01 X 32.6484 Y 17.8783 Z -1.0000
G02 X 32.6330 Y 17.9260 Z -1.0000 I 0.0703 J 0.0491
G01 X 32.6274 Y 17.9420 Z -1.0000
G01 X 32.6138 Y 17.9510 Z -1.0000
G01 X 32.5981 Y 17.9520 Z -1.0000
G01 X 32.5950 Y 17.9485 Z -1.0000
G01 X 32.5922 Y 17.9432 Z -1.0000
G02 X 32.5762 Y 17.9361 Z -1.0000 I -0.0303 J 0.0466
G01 X 32.5597 Y 17.9461 Z -1.0000
G01 X 32.5676 Y 17.9736 Z -1.0000
G01 X 32.5716 Y 17.9831 Z -1.0000
G01 X 32.5676 Y 17.9901 Z -1.0000
G01 X 32.5608 Y 17.9903 Z -1.0000
G01 X 32.5574 Y 17.9844 Z -1.0000
G01 X 32.5539 Y 17.9740 Z -1.0000
G02 X 32.5326 Y 17.9511 Z -1.0000 I -0.1137 J 0.0845
G03 X 32.5169 Y 17.9290 Z -1.0000 I 0.0364 J -0.0423
G01 X 32.5190 Y 17.9162 Z -1.0000
G01 X 32.5233 Y 17.8821 Z -1.0000
G01 X 32.4940 Y 17.8636 Z -1.0000
G01 X 32.4852 Y 17.8606 Z -1.0000
G01 X 32.4821 Y 17.8542 Z -1.0000
G01 X 32.4783 Y 17.8486 Z -1.0000
G02 X 32.4591 Y 17.8448 Z -1.0000 I -0.0193 J 0.0474
G01 X 32.4388 Y 17.8401 Z -1.0000
G01 X 32.4272 Y 17.8290 Z -1.0000
G01 X 32.4137 Y 17.8169 Z -1.0000
G02 X 32.3622 Y 17.8013 Z -1.0000 I -0.0970 J 0.2278
G03 X 32.3362 Y 17.7918 Z -1.0000 I 0.0148 J -0.0801
G01 X 32.3316 Y 17.7838 Z -1.0000
G01 X 32.3268 Y 17.7761 Z -1.0000
G02 X 32.2940 Y 17.7659 Z -1.0000 I -0.0518 J 0.1087
G01 X 32.2763 Y 17.7474 Z -1.0000
G01 X 32.2902 Y 17.7319 Z -1.0000
G03 X 32.3189 Y 17.7385 Z -1.0000 I -0.0000 J 0.0657
G01 X 32.3289 Y 17.7507 Z -1.0000
G01 X 32.3374 Y 17.7651 Z -1.0000
G01 X 32.3492 Y 17.7701 Z -1.0000
G03 X 32.3646 Y 17.7710 Z -1.0000 I -0.0158 J 0.4072
G03 X 32.3950 Y 17.7737 Z -1.0000 I -0.0950 J 1.2361
G02 X 32.4236 Y 17.7711 Z -1.0000 I 0.0074 J -0.0766
G02 X 32.4458 Y 17.7590 Z -1.0000 I -0.0161 J -0.0562
G03 X 32.4744 Y 17.7445 Z -1.0000 I 0.0433 J 0.0499
G01 X 32.4822 Y 17.7507 Z -1.0000
G01 X 32.4973 Y 17.7658 Z -1.0000
G02 X 32.5480 Y 17.7506 Z -1.0000 I -0.0002 J -0.0929
G01 X 32.5478 Y 17.7359 Z -1.0000
G01 X 32.5139 Y 17.7298 Z -1.0000
G01 X 32.4950 Y 17.7271 Z -1.0000
G01 X 32.4854 Y 17.7150 Z -1.0000
G01 X 32.4750 Y 17.7012 Z -1.0000
G02 X 32.4344 Y 17.6847 Z -1.0000 I -0.0748 J 0.1259
G03 X 32.2988 Y 17.6117 Z -1.0000 I 0.0703 J -0.2931
G01 X 32.3037 Y 17.5624 Z -1.0000
G01 X 32.3075 Y 17.5552 Z -1.0000
G01 X 32.3032 Y 17.5493 Z -1.0000
G03 X 32.1867 Y 17.5023 Z -1.0000 I 0.4689 J -1.3288
G01 X 32.1811 Y 17.4936 Z -1.0000
G01 X 32.1774 Y 17.4848 Z -1.0000
G02 X 32.1599 Y 17.4731 Z -1.0000 I -0.0412 J 0.0426
G01 X 32.1434 Y 17.4603 Z -1.0000
G01 X 32.1358 Y 17.4426 Z -1.0000
G01 X 32.1287 Y 17.4261 Z -1.0000
G01 X 32.1193 Y 17.4215 Z -1.0000
G01 X 32.1098 Y 17.4175 Z -1.0000
G01 X 32.1059 Y 17.4079 Z -1.0000
G01 X 32.1002 Y 17.3993 Z -1.0000
G02 X 32.0612 Y 17.3883 Z -1.0000 I -0.0589 J 0.1339
G03 X 32.0167 Y 17.3811 Z -1.0000 I 0.1387 J -1.0025
G03 X 31.9862 Y 17.3744 Z -1.0000 I 0.0834 J -0.4530
G02 X 31.9558 Y 17.3700 Z -1.0000 I -0.0362 J 0.1432
G02 X 31.9180 Y 17.3718 Z -1.0000 I -0.0085 J 0.2198
G03 X 31.8848 Y 17.3715 Z -1.0000 I -0.0154 J -0.1156
G01 X 31.8801 Y 17.3659 Z -1.0000
G03 X 31.8994 Y 17.3185 Z -1.0000 I 0.0679 J 0.0000
G03 X 31.9454 Y 17.2992 Z -1.0000 I 0.0460 J 0.0449
G01 X 31.9499 Y 17.2960 Z -1.0000
G01 X 31.9511 Y 17.2827 Z -1.0000
G01 X 31.9526 Y 17.2777 Z -1.0000
G01 X 31.9597 Y 17.2855 Z -1.0000
G02 X 31.9912 Y 17.2957 Z -1.0000 I 0.0563 J -0.1209
G01 X 32.0141 Y 17.3062 Z -1.0000
G01 X 32.0057 Y 17.3126 Z -1.0000
G01 X 32.0023 Y 17.3235 Z -1.0000
G01 X 32.0180 Y 17.3390 Z -1.0000
G02 X 32.0719 Y 17.3225 Z -1.0000 I -0.0015 J -0.1012
G03 X 32.1242 Y 17.3158 Z -1.0000 I 0.0329 J 0.0503
G01 X 32.1391 Y 17.3452 Z -1.0000
G01 X 32.1419 Y 17.3588 Z -1.0000
G02 X 32.1637 Y 17.3736 Z -1.0000 I 0.0387 J -0.0337
G02 X 32.1919 Y 17.3785 Z -1.0000 I 0.0291 J -0.0830
G01 X 32.2002 Y 17.3739 Z -1.0000
G01 X 32.2323 Y 17.3604 Z -1.0000
G03 X 32.2901 Y 17.3942 Z -1.0000 I -0.0246 J 0.1084
G01 X 32.3088 Y 17.4065 Z -1.0000
G02 X 32.3430 Y 17.4121 Z -1.0000 I 0.0342 J -0.1013
G03 X 32.3702 Y 17.4174 Z -1.0000 I 0.0000 J 0.0730
G01 X 32.3723 Y 17.4239 Z -1.0000
G02 X 32.3414 Y 17.5313 Z -1.0000 I 0.1687 J 0.1067
G01 X 32.3728 Y 17.5626 Z -1.0000
G01 X 32.3791 Y 17.5672 Z -1.0000
