%
(Header)
(Generated by gcodetools from Inkscape.)
(Using default header. To add your own header create file "header" in the output dir.)
M3
(Header end.)
G21 (All units in mm)

(Start cutting path id: path77)
(Change tool to Default tool)

G00 Z 5.0000
G00 X 0.1292 Y 8.2426

G01 Z -1.0000 F 100.0000(Penetrate)
G02 X 0.1399 Y 16.3559 Z -1.0000 I 3079.2819 J -0.0000 F 3500.0000
G01 X 0.1507 Y 16.3705 Z -1.0000
G01 X 0.1673 Y 16.3808 Z -1.0000
G01 X 0.1721 Y 16.3927 Z -1.0000
G01 X 0.1568 Y 16.4065 Z -1.0000
G01 X 0.1369 Y 16.3893 Z -1.0000
G01 X 0.1324 Y 16.4053 Z -1.0000
G01 X 0.1440 Y 16.4268 Z -1.0000
G01 X 0.1612 Y 16.4243 Z -1.0000
G03 X 0.2042 Y 16.4047 Z -1.0000 I 0.0417 J 0.0346
G01 X 0.2182 Y 16.4256 Z -1.0000
G01 X 0.2106 Y 16.4331 Z -1.0000
G01 X 0.1986 Y 16.4332 Z -1.0000
G01 X 0.1844 Y 16.4316 Z -1.0000
G02 X 0.1653 Y 16.4382 Z -1.0000 I 0.0083 J 0.0551
G01 X 0.1652 Y 16.4429 Z -1.0000
G01 X 0.1780 Y 16.4458 Z -1.0000
G02 X 0.2537 Y 16.4270 Z -1.0000 I -0.0240 J -0.2585
G01 X 0.2572 Y 16.4128 Z -1.0000
G01 X 0.2436 Y 16.4017 Z -1.0000
G02 X 0.2221 Y 16.3941 Z -1.0000 I -0.0361 J 0.0676
G01 X 0.2192 Y 16.3909 Z -1.0000
G01 X 0.2216 Y 16.3881 Z -1.0000
G01 X 0.2423 Y 16.3914 Z -1.0000
G01 X 0.2577 Y 16.4027 Z -1.0000
G02 X 0.2724 Y 16.4159 Z -1.0000 I 0.0539 J -0.0449
G01 X 0.2816 Y 16.4187 Z -1.0000
G01 X 0.2866 Y 16.4149 Z -1.0000
G01 X 0.2860 Y 16.4027 Z -1.0000
G01 X 0.2853 Y 16.3904 Z -1.0000
G01 X 0.2902 Y 16.3866 Z -1.0000
G01 X 0.2974 Y 16.3898 Z -1.0000
G01 X 0.3006 Y 16.3981 Z -1.0000
G01 X 0.3050 Y 16.4035 Z -1.0000
G01 X 0.3220 Y 16.4027 Z -1.0000
G01 X 0.3390 Y 16.4019 Z -1.0000
G01 X 0.3434 Y 16.4073 Z -1.0000
G01 X 0.3391 Y 16.4144 Z -1.0000
G01 X 0.3215 Y 16.4187 Z -1.0000
G02 X 0.2338 Y 16.4375 Z -1.0000 I -0.0000 J 0.2137
G01 X 0.2149 Y 16.4668 Z -1.0000
G01 X 0.2310 Y 16.4654 Z -1.0000
G01 X 0.2405 Y 16.4733 Z -1.0000
G01 X 0.2259 Y 16.4935 Z -1.0000
G01 X 0.2098 Y 16.4933 Z -1.0000
G01 X 0.1979 Y 16.4778 Z -1.0000
G01 X 0.1809 Y 16.4594 Z -1.0000
G01 X 0.1652 Y 16.4668 Z -1.0000
G01 X 0.1570 Y 16.4798 Z -1.0000
G01 X 0.1498 Y 16.4829 Z -1.0000
G01 X 0.1457 Y 16.4794 Z -1.0000
G01 X 0.1468 Y 16.4668 Z -1.0000
G01 X 0.1469 Y 16.4549 Z -1.0000
G01 X 0.1411 Y 16.4508 Z -1.0000
G01 X 0.1336 Y 16.4551 Z -1.0000
G01 X 0.1292 Y 16.4710 Z -1.0000
G01 X 0.1408 Y 16.4921 Z -1.0000
G02 X 0.1908 Y 16.5104 Z -1.0000 I 0.0663 J -0.1040
G03 X 0.2386 Y 16.5326 Z -1.0000 I -0.0117 J 0.0876
G01 X 0.2368 Y 16.5522 Z -1.0000
G01 X 0.2271 Y 16.5528 Z -1.0000
G03 X 0.2054 Y 16.5376 Z -1.0000 I 0.0314 J -0.0682
G02 X 0.1825 Y 16.5234 Z -1.0000 I -0.0417 J 0.0417
G01 X 0.1611 Y 16.5227 Z -1.0000
G01 X 0.1581 Y 16.5307 Z -1.0000
G02 X 0.1790 Y 16.5483 Z -1.0000 I 0.0437 J -0.0305
G02 X 0.2467 Y 16.5682 Z -1.0000 I 0.0969 J -0.2049
G01 X 0.2577 Y 16.5585 Z -1.0000
G01 X 0.2564 Y 16.5488 Z -1.0000
G02 X 0.2473 Y 16.5211 Z -1.0000 I -0.3070 J 0.0855
G01 X 0.2539 Y 16.5082 Z -1.0000
G01 X 0.2709 Y 16.5150 Z -1.0000
G01 X 0.2878 Y 16.5237 Z -1.0000
G01 X 0.2948 Y 16.5137 Z -1.0000
G01 X 0.2955 Y 16.5011 Z -1.0000
G01 X 0.3012 Y 16.4993 Z -1.0000
G01 X 0.3070 Y 16.4983 Z -1.0000
G01 X 0.3082 Y 16.4903 Z -1.0000
G01 X 0.3060 Y 16.4744 Z -1.0000
G01 X 0.3104 Y 16.4673 Z -1.0000
G01 X 0.3387 Y 16.4807 Z -1.0000
G03 X 0.3207 Y 16.5433 Z -1.0000 I -0.0804 J 0.0109
G01 X 0.3193 Y 16.5528 Z -1.0000
G01 X 0.3269 Y 16.5578 Z -1.0000
G01 X 0.3388 Y 16.5624 Z -1.0000
G01 X 0.3410 Y 16.5704 Z -1.0000
G01 X 0.3111 Y 16.5929 Z -1.0000
G01 X 0.2898 Y 16.5725 Z -1.0000
G01 X 0.2853 Y 16.5652 Z -1.0000
G01 X 0.2738 Y 16.5647 Z -1.0000
G01 X 0.2646 Y 16.5846 Z -1.0000
G01 X 0.2872 Y 16.6028 Z -1.0000
G02 X 0.3195 Y 16.6004 Z -1.0000 I 0.0101 J -0.0852
G02 X 0.3637 Y 16.5822 Z -1.0000 I -0.0481 J -0.1787
G01 X 0.3547 Y 16.5640 Z -1.0000
G01 X 0.3461 Y 16.5235 Z -1.0000
G01 X 0.3715 Y 16.5043 Z -1.0000
G01 X 0.3804 Y 16.5083 Z -1.0000
G01 X 0.3810 Y 16.5148 Z -1.0000
G01 X 0.3779 Y 16.5260 Z -1.0000
G02 X 0.3816 Y 16.5634 Z -1.0000 I 0.2175 J -0.0028
G02 X 0.3947 Y 16.5913 Z -1.0000 I 0.0606 J -0.0114
G01 X 0.4080 Y 16.5952 Z -1.0000
G01 X 0.4254 Y 16.5942 Z -1.0000
G01 X 0.4341 Y 16.6002 Z -1.0000
G01 X 0.4426 Y 16.6085 Z -1.0000
G01 X 0.4531 Y 16.6114 Z -1.0000
G01 X 0.4554 Y 16.6075 Z -1.0000
G02 X 0.4411 Y 16.5889 Z -1.0000 I -0.0633 J 0.0339
G03 X 0.4225 Y 16.5663 Z -1.0000 I 0.0759 J -0.0815
G01 X 0.4232 Y 16.5601 Z -1.0000
G01 X 0.4294 Y 16.5587 Z -1.0000
G01 X 0.4421 Y 16.5665 Z -1.0000
G01 X 0.4552 Y 16.5686 Z -1.0000
G01 X 0.4569 Y 16.5590 Z -1.0000
G01 X 0.4565 Y 16.5456 Z -1.0000
G01 X 0.4767 Y 16.5344 Z -1.0000
G03 X 0.5109 Y 16.5343 Z -1.0000 I 0.0177 J 0.1545
G01 X 0.5147 Y 16.5385 Z -1.0000
G01 X 0.5121 Y 16.5445 Z -1.0000
G01 X 0.5052 Y 16.5471 Z -1.0000
G01 X 0.4977 Y 16.5502 Z -1.0000
G01 X 0.4899 Y 16.5620 Z -1.0000
G01 X 0.4924 Y 16.5695 Z -1.0000
G01 X 0.5050 Y 16.5714 Z -1.0000
G02 X 0.5241 Y 16.5637 Z -1.0000 I -0.0207 J -0.0790
G01 X 0.5316 Y 16.5565 Z -1.0000
G01 X 0.5481 Y 16.5479 Z -1.0000
G01 X 0.5575 Y 16.5578 Z -1.0000
G01 X 0.5538 Y 16.5648 Z -1.0000
G01 X 0.5415 Y 16.5685 Z -1.0000
G01 X 0.5292 Y 16.5723 Z -1.0000
G01 X 0.5254 Y 16.5792 Z -1.0000
G01 X 0.5315 Y 16.5856 Z -1.0000
G01 X 0.5550 Y 16.5804 Z -1.0000
G03 X 0.5738 Y 16.5712 Z -1.0000 I 0.2314 J 0.4466
G03 X 0.6057 Y 16.5567 Z -1.0000 I 0.7294 J 1.5632
G02 X 0.6378 Y 16.5424 Z -1.0000 I -3.0374 J -6.8799
G02 X 0.6474 Y 16.5381 Z -1.0000 I -0.3433 J -0.7678
G01 X 0.6484 Y 16.5474 Z -1.0000
G01 X 0.6511 Y 16.5542 Z -1.0000
G01 X 0.6625 Y 16.5524 Z -1.0000
G03 X 0.6930 Y 16.5642 Z -1.0000 I -0.0279 J 0.1169
G01 X 0.7235 Y 16.5812 Z -1.0000
G01 X 0.6914 Y 16.5761 Z -1.0000
G02 X 0.6597 Y 16.5746 Z -1.0000 I -0.0223 J 0.1404
G02 X 0.6379 Y 16.5797 Z -1.0000 I 0.0047 J 0.0701
G01 X 0.6360 Y 16.5849 Z -1.0000
G01 X 0.6432 Y 16.5893 Z -1.0000
G03 X 0.6691 Y 16.5933 Z -1.0000 I -0.0033 J 0.1079
G03 X 0.6982 Y 16.6048 Z -1.0000 I -0.0406 J 0.1442
G01 X 0.7339 Y 16.6044 Z -1.0000
G01 X 0.7407 Y 16.5814 Z -1.0000
G02 X 0.7258 Y 16.5630 Z -1.0000 I -0.0555 J 0.0297
G02 X 0.7060 Y 16.5521 Z -1.0000 I -0.0372 J 0.0441
G01 X 0.7041 Y 16.5391 Z -1.0000
G01 X 0.7327 Y 16.5333 Z -1.0000
G01 X 0.7401 Y 16.5315 Z -1.0000
G01 X 0.7399 Y 16.5272 Z -1.0000
G01 X 0.7406 Y 16.5168 Z -1.0000
G01 X 0.7690 Y 16.5121 Z -1.0000
G01 X 0.7861 Y 16.5275 Z -1.0000
G01 X 0.7771 Y 16.5427 Z -1.0000
G02 X 0.7540 Y 16.5524 Z -1.0000 I 0.0204 J 0.0811
G01 X 0.7503 Y 16.5590 Z -1.0000
G01 X 0.7614 Y 16.5695 Z -1.0000
G01 X 0.7903 Y 16.5564 Z -1.0000
G01 X 0.8232 Y 16.5477 Z -1.0000
G01 X 0.8311 Y 16.5677 Z -1.0000
G01 X 0.8303 Y 16.5765 Z -1.0000
G01 X 0.8384 Y 16.5863 Z -1.0000
G01 X 0.8387 Y 16.5922 Z -1.0000
G01 X 0.8199 Y 16.6005 Z -1.0000
G02 X 0.7942 Y 16.6124 Z -1.0000 I 0.0094 J 0.0538
G01 X 0.7843 Y 16.6302 Z -1.0000
G01 X 0.7861 Y 16.6497 Z -1.0000
G01 X 0.7924 Y 16.6542 Z -1.0000
G01 X 0.7995 Y 16.6498 Z -1.0000
G01 X 0.8038 Y 16.6320 Z -1.0000
G01 X 0.8100 Y 16.6173 Z -1.0000
G01 X 0.8226 Y 16.6136 Z -1.0000
G01 X 0.8350 Y 16.6223 Z -1.0000
G01 X 0.8403 Y 16.6427 Z -1.0000
G01 X 0.8450 Y 16.6518 Z -1.0000
G01 X 0.8522 Y 16.6504 Z -1.0000
G01 X 0.8781 Y 16.6341 Z -1.0000
G01 X 0.8895 Y 16.6435 Z -1.0000
G01 X 0.8934 Y 16.6503 Z -1.0000
G01 X 0.9082 Y 16.6541 Z -1.0000
G01 X 0.9146 Y 16.6503 Z -1.0000
G01 X 0.9133 Y 16.6452 Z -1.0000
G01 X 0.9116 Y 16.6373 Z -1.0000
G01 X 0.9275 Y 16.6238 Z -1.0000
G03 X 0.9551 Y 16.6153 Z -1.0000 I 0.0466 J 0.1021
G01 X 0.9652 Y 16.6172 Z -1.0000
G01 X 0.9719 Y 16.6174 Z -1.0000
G01 X 0.9752 Y 16.6120 Z -1.0000
G01 X 0.9708 Y 16.6050 Z -1.0000
G01 X 0.9526 Y 16.6006 Z -1.0000
G01 X 0.9379 Y 16.5952 Z -1.0000
G01 X 0.9356 Y 16.5862 Z -1.0000
G01 X 0.9317 Y 16.5647 Z -1.0000
G02 X 0.8883 Y 16.5324 Z -1.0000 I -0.0973 J 0.0856
G01 X 0.9056 Y 16.5320 Z -1.0000
G02 X 1.0006 Y 16.5441 Z -1.0000 I 0.1336 J -0.6676
G01 X 1.0073 Y 16.5378 Z -1.0000
G01 X 1.0285 Y 16.5132 Z -1.0000
G03 X 1.0786 Y 16.5272 Z -1.0000 I 0.0094 J 0.0633
G01 X 1.0900 Y 16.5310 Z -1.0000
G01 X 1.0980 Y 16.5262 Z -1.0000
G01 X 1.1065 Y 16.5178 Z -1.0000
G01 X 1.1163 Y 16.5150 Z -1.0000
G01 X 1.1195 Y 16.5189 Z -1.0000
G01 X 1.1132 Y 16.5325 Z -1.0000
G01 X 1.1147 Y 16.5402 Z -1.0000
G01 X 1.1317 Y 16.5427 Z -1.0000
G03 X 1.1609 Y 16.5449 Z -1.0000 I 0.0109 J 0.0493
G01 X 1.1824 Y 16.5623 Z -1.0000
G01 X 1.1869 Y 16.5896 Z -1.0000
G01 X 1.1726 Y 16.6007 Z -1.0000
G01 X 1.1540 Y 16.6056 Z -1.0000
G01 X 1.1523 Y 16.6121 Z -1.0000
G01 X 1.1610 Y 16.6186 Z -1.0000
G01 X 1.1743 Y 16.6178 Z -1.0000
G01 X 1.1845 Y 16.6190 Z -1.0000
G01 X 1.1893 Y 16.6282 Z -1.0000
G01 X 1.1939 Y 16.6337 Z -1.0000
G01 X 1.2040 Y 16.6306 Z -1.0000
G01 X 1.2134 Y 16.6155 Z -1.0000
G01 X 1.2132 Y 16.6007 Z -1.0000
G01 X 1.2152 Y 16.5963 Z -1.0000
G01 X 1.2215 Y 16.5975 Z -1.0000
G01 X 1.2275 Y 16.6110 Z -1.0000
G01 X 1.2218 Y 16.6270 Z -1.0000
G01 X 1.2261 Y 16.6338 Z -1.0000
G02 X 1.2659 Y 16.6156 Z -1.0000 I -0.0313 J -0.1209
G01 X 1.2817 Y 16.5822 Z -1.0000
G01 X 1.2609 Y 16.5546 Z -1.0000
G01 X 1.2489 Y 16.5448 Z -1.0000
G01 X 1.2488 Y 16.5354 Z -1.0000
G01 X 1.2563 Y 16.5319 Z -1.0000
G01 X 1.2658 Y 16.5380 Z -1.0000
G01 X 1.2757 Y 16.5421 Z -1.0000
G01 X 1.2902 Y 16.5331 Z -1.0000
G01 X 1.3046 Y 16.5225 Z -1.0000
G01 X 1.3120 Y 16.5251 Z -1.0000
G01 X 1.3209 Y 16.5330 Z -1.0000
G01 X 1.3358 Y 16.5364 Z -1.0000
G01 X 1.3419 Y 16.5315 Z -1.0000
G01 X 1.3392 Y 16.5204 Z -1.0000
G01 X 1.3362 Y 16.5091 Z -1.0000
G01 X 1.3419 Y 16.5043 Z -1.0000
G01 X 1.3564 Y 16.5078 Z -1.0000
G01 X 1.3699 Y 16.5187 Z -1.0000
G01 X 1.3711 Y 16.5306 Z -1.0000
G01 X 1.3556 Y 16.5450 Z -1.0000
G03 X 1.3311 Y 16.5509 Z -1.0000 I -0.0274 J -0.0599
G01 X 1.3228 Y 16.5465 Z -1.0000
G01 X 1.3152 Y 16.5409 Z -1.0000
G01 X 1.3062 Y 16.5423 Z -1.0000
G01 X 1.3008 Y 16.5497 Z -1.0000
G01 X 1.3023 Y 16.5588 Z -1.0000
G01 X 1.3097 Y 16.5642 Z -1.0000
G01 X 1.3185 Y 16.5628 Z -1.0000
G01 X 1.3250 Y 16.5629 Z -1.0000
G01 X 1.3285 Y 16.5696 Z -1.0000
G01 X 1.3328 Y 16.5732 Z -1.0000
G01 X 1.3472 Y 16.5665 Z -1.0000
G03 X 1.3933 Y 16.5402 Z -1.0000 I 0.0907 J 0.1056
G01 X 1.4035 Y 16.5474 Z -1.0000
G01 X 1.3998 Y 16.5542 Z -1.0000
G01 X 1.3874 Y 16.5578 Z -1.0000
G01 X 1.3744 Y 16.5609 Z -1.0000
G01 X 1.3713 Y 16.5660 Z -1.0000
G01 X 1.3685 Y 16.5726 Z -1.0000
G03 X 1.3452 Y 16.5901 Z -1.0000 I -0.0990 J -0.1073
G01 X 1.3330 Y 16.6087 Z -1.0000
G01 X 1.3392 Y 16.6327 Z -1.0000
G01 X 1.3602 Y 16.6484 Z -1.0000
G01 X 1.3734 Y 16.6455 Z -1.0000
G01 X 1.3744 Y 16.6399 Z -1.0000
G01 X 1.3700 Y 16.6381 Z -1.0000
G01 X 1.3558 Y 16.6377 Z -1.0000
G01 X 1.3460 Y 16.6273 Z -1.0000
G01 X 1.3484 Y 16.6185 Z -1.0000
G01 X 1.3598 Y 16.6164 Z -1.0000
G01 X 1.3784 Y 16.6178 Z -1.0000
G01 X 1.3871 Y 16.6119 Z -1.0000
G01 X 1.3858 Y 16.6076 Z -1.0000
G01 X 1.3772 Y 16.6073 Z -1.0000
G01 X 1.3635 Y 16.6095 Z -1.0000
G01 X 1.3606 Y 16.6064 Z -1.0000
G01 X 1.3725 Y 16.5805 Z -1.0000
G01 X 1.4045 Y 16.5686 Z -1.0000
G01 X 1.4112 Y 16.5713 Z -1.0000
G01 X 1.4112 Y 16.5751 Z -1.0000
G01 X 1.4096 Y 16.5817 Z -1.0000
G01 X 1.4175 Y 16.5954 Z -1.0000
G01 X 1.4307 Y 16.6019 Z -1.0000
G01 X 1.4444 Y 16.5976 Z -1.0000
G01 X 1.4575 Y 16.5940 Z -1.0000
G01 X 1.4693 Y 16.6014 Z -1.0000
G01 X 1.4790 Y 16.6072 Z -1.0000
G01 X 1.4855 Y 16.6034 Z -1.0000
G01 X 1.4940 Y 16.5947 Z -1.0000
G01 X 1.5141 Y 16.5909 Z -1.0000
G01 X 1.5239 Y 16.5971 Z -1.0000
G01 X 1.5137 Y 16.6046 Z -1.0000
G01 X 1.5105 Y 16.6135 Z -1.0000
G01 X 1.5316 Y 16.6304 Z -1.0000
G02 X 1.5759 Y 16.5989 Z -1.0000 I -0.0152 J -0.0682
G01 X 1.5817 Y 16.5972 Z -1.0000
G01 X 1.5890 Y 16.6051 Z -1.0000
G01 X 1.5900 Y 16.6183 Z -1.0000
G01 X 1.5852 Y 16.6221 Z -1.0000
G01 X 1.5786 Y 16.6259 Z -1.0000
G01 X 1.5748 Y 16.6400 Z -1.0000
G01 X 1.5779 Y 16.6503 Z -1.0000
G01 X 1.5818 Y 16.6508 Z -1.0000
G01 X 1.5891 Y 16.6487 Z -1.0000
G01 X 1.6035 Y 16.6559 Z -1.0000
G01 X 1.6180 Y 16.6631 Z -1.0000
G01 X 1.6250 Y 16.6612 Z -1.0000
G01 X 1.6252 Y 16.6570 Z -1.0000
G01 X 1.6194 Y 16.6543 Z -1.0000
G01 X 1.6110 Y 16.6502 Z -1.0000
G01 X 1.6069 Y 16.6385 Z -1.0000
G01 X 1.6118 Y 16.6299 Z -1.0000
G01 X 1.6230 Y 16.6289 Z -1.0000
G01 X 1.6357 Y 16.6374 Z -1.0000
G01 X 1.6390 Y 16.6456 Z -1.0000
G01 X 1.6550 Y 16.6803 Z -1.0000
G02 X 1.6979 Y 16.6964 Z -1.0000 I 0.0432 J -0.0501
G01 X 1.6899 Y 16.6855 Z -1.0000
G01 X 1.6843 Y 16.6702 Z -1.0000
G01 X 1.6979 Y 16.6623 Z -1.0000
G03 X 1.7210 Y 16.6706 Z -1.0000 I -0.0147 J 0.0772
G01 X 1.7247 Y 16.6769 Z -1.0000
G01 X 1.7371 Y 16.6875 Z -1.0000
G01 X 1.7675 Y 16.6703 Z -1.0000
G01 X 1.7830 Y 16.6589 Z -1.0000
G03 X 1.8063 Y 16.6542 Z -1.0000 I 0.0233 J 0.0561
G02 X 1.8281 Y 16.6505 Z -1.0000 I 0.0000 J -0.0660
G01 X 1.8318 Y 16.6453 Z -1.0000
G01 X 1.8447 Y 16.6327 Z -1.0000
G03 X 1.8829 Y 16.6465 Z -1.0000 I -0.0015 J 0.0640
G01 X 1.8909 Y 16.6590 Z -1.0000
G01 X 1.8902 Y 16.6772 Z -1.0000
G01 X 1.8911 Y 16.6918 Z -1.0000
G01 X 1.8994 Y 16.6971 Z -1.0000
G01 X 1.9224 Y 16.6788 Z -1.0000
G02 X 1.9152 Y 16.6285 Z -1.0000 I -0.0687 J -0.0159
G01 X 1.9189 Y 16.6211 Z -1.0000
G01 X 1.9336 Y 16.6260 Z -1.0000
G01 X 1.9404 Y 16.6406 Z -1.0000
G01 X 1.9360 Y 16.6528 Z -1.0000
G01 X 1.9363 Y 16.6598 Z -1.0000
G01 X 1.9504 Y 16.6649 Z -1.0000
G03 X 2.0088 Y 16.6818 Z -1.0000 I -0.0000 J 0.1095
G01 X 2.0237 Y 16.7111 Z -1.0000
G01 X 2.0174 Y 16.7105 Z -1.0000
G01 X 2.0092 Y 16.7013 Z -1.0000
G01 X 1.9924 Y 16.6971 Z -1.0000
G01 X 1.9758 Y 16.6928 Z -1.0000
G01 X 1.9680 Y 16.6837 Z -1.0000
G01 X 1.9616 Y 16.6769 Z -1.0000
G01 X 1.9549 Y 16.6781 Z -1.0000
G01 X 1.9541 Y 16.7060 Z -1.0000
G01 X 1.9891 Y 16.7139 Z -1.0000
G01 X 2.0008 Y 16.7155 Z -1.0000
G01 X 2.0156 Y 16.7342 Z -1.0000
G02 X 2.0407 Y 16.7628 Z -1.0000 I 0.0601 J -0.0274
G01 X 2.0496 Y 16.7554 Z -1.0000
G01 X 2.0507 Y 16.7448 Z -1.0000
G01 X 2.0596 Y 16.7399 Z -1.0000
G01 X 2.0892 Y 16.7645 Z -1.0000
G03 X 2.0735 Y 16.8153 Z -1.0000 I -0.0564 J 0.0104
G01 X 2.0809 Y 16.8197 Z -1.0000
G01 X 2.0988 Y 16.8182 Z -1.0000
G01 X 2.1177 Y 16.8271 Z -1.0000
G01 X 2.1258 Y 16.8280 Z -1.0000
G01 X 2.1283 Y 16.8221 Z -1.0000
G03 X 2.1215 Y 16.8023 Z -1.0000 I 0.3114 J -0.1169
G01 X 2.1209 Y 16.7980 Z -1.0000
G01 X 2.1189 Y 16.7954 Z -1.0000
G02 X 2.1027 Y 16.7935 Z -1.0000 I -0.0162 J 0.0661
G01 X 2.1005 Y 16.7839 Z -1.0000
G03 X 2.1553 Y 16.7687 Z -1.0000 I 0.0716 J 0.1519
G03 X 2.2031 Y 16.7700 Z -1.0000 I 0.0189 J 0.1847
G01 X 2.2182 Y 16.7786 Z -1.0000
G01 X 2.2388 Y 16.7903 Z -1.0000
G01 X 2.2439 Y 16.7826 Z -1.0000
G01 X 2.2555 Y 16.7463 Z -1.0000
G03 X 2.3328 Y 16.7450 Z -1.0000 I 0.0403 J 0.0953
G01 X 2.3477 Y 16.7457 Z -1.0000
G01 X 2.3593 Y 16.7376 Z -1.0000
G01 X 2.3632 Y 16.7426 Z -1.0000
G01 X 2.3646 Y 16.7559 Z -1.0000
G01 X 2.3740 Y 16.7613 Z -1.0000
G01 X 2.3835 Y 16.7562 Z -1.0000
G01 X 2.3847 Y 16.7452 Z -1.0000
G01 X 2.3825 Y 16.7290 Z -1.0000
G03 X 2.3887 Y 16.7023 Z -1.0000 I 0.1012 J 0.0094
G01 X 2.4025 Y 16.6897 Z -1.0000
G01 X 2.4199 Y 16.6936 Z -1.0000
G03 X 2.4357 Y 16.7124 Z -1.0000 I -0.0475 J 0.0557
G01 X 2.4356 Y 16.7204 Z -1.0000
G01 X 2.4365 Y 16.7256 Z -1.0000
G01 X 2.4469 Y 16.7292 Z -1.0000
G01 X 2.4602 Y 16.7326 Z -1.0000
G01 X 2.4635 Y 16.7381 Z -1.0000
G01 X 2.4475 Y 16.7488 Z -1.0000
G03 X 2.4186 Y 16.7194 Z -1.0000 I 0.0204 J -0.0489
G01 X 2.4077 Y 16.7092 Z -1.0000
G01 X 2.3994 Y 16.7132 Z -1.0000
G01 X 2.3974 Y 16.7335 Z -1.0000
G01 X 2.4059 Y 16.7515 Z -1.0000
G01 X 2.4137 Y 16.7733 Z -1.0000
G01 X 2.4050 Y 16.7790 Z -1.0000
G01 X 2.3908 Y 16.7775 Z -1.0000
G01 X 2.3837 Y 16.7821 Z -1.0000
G01 X 2.3849 Y 16.7885 Z -1.0000
G02 X 2.4074 Y 16.7991 Z -1.0000 I 0.0403 J -0.0565
G01 X 2.4241 Y 16.8075 Z -1.0000
G01 X 2.4234 Y 16.8118 Z -1.0000
G01 X 2.4132 Y 16.8189 Z -1.0000
G01 X 2.4100 Y 16.8278 Z -1.0000
G01 X 2.4137 Y 16.8310 Z -1.0000
G01 X 2.4266 Y 16.8252 Z -1.0000
G01 X 2.4375 Y 16.8100 Z -1.0000
G01 X 2.4375 Y 16.7968 Z -1.0000
G01 X 2.4404 Y 16.7889 Z -1.0000
G01 X 2.4580 Y 16.7856 Z -1.0000
G03 X 2.4830 Y 16.7916 Z -1.0000 I -0.0166 J 0.1260
G01 X 2.4926 Y 16.7976 Z -1.0000
G01 X 2.4863 Y 16.8025 Z -1.0000
G01 X 2.4742 Y 16.8039 Z -1.0000
G01 X 2.4667 Y 16.8123 Z -1.0000
G01 X 2.4703 Y 16.8197 Z -1.0000
G02 X 2.5068 Y 16.8257 Z -1.0000 I 0.0365 J -0.1098
G02 X 2.5366 Y 16.8185 Z -1.0000 I -0.0000 J -0.0661
G01 X 2.5385 Y 16.8096 Z -1.0000
G01 X 2.5322 Y 16.7968 Z -1.0000
G01 X 2.5348 Y 16.7935 Z -1.0000
G01 X 2.5431 Y 16.7964 Z -1.0000
G03 X 2.5637 Y 16.8160 Z -1.0000 I -0.0863 J 0.1110
G01 X 2.5786 Y 16.8190 Z -1.0000
G01 X 2.5826 Y 16.8066 Z -1.0000
G01 X 2.5804 Y 16.7819 Z -1.0000
G01 X 2.5938 Y 16.7721 Z -1.0000
G01 X 2.5994 Y 16.7755 Z -1.0000
G01 X 2.6027 Y 16.7885 Z -1.0000
G01 X 2.6070 Y 16.8020 Z -1.0000
G01 X 2.6188 Y 16.8111 Z -1.0000
G01 X 2.6300 Y 16.8206 Z -1.0000
G01 X 2.6349 Y 16.8388 Z -1.0000
G01 X 2.6408 Y 16.8478 Z -1.0000
G01 X 2.6519 Y 16.8462 Z -1.0000
G01 X 2.6594 Y 16.8322 Z -1.0000
G01 X 2.6546 Y 16.8206 Z -1.0000
G03 X 2.6410 Y 16.8084 Z -1.0000 I 0.0953 J -0.1193
G03 X 2.6201 Y 16.7856 Z -1.0000 I 0.3088 J -0.3037
G01 X 2.6129 Y 16.7623 Z -1.0000
G01 X 2.6254 Y 16.7351 Z -1.0000
G01 X 2.6424 Y 16.7324 Z -1.0000
G01 X 2.6462 Y 16.7466 Z -1.0000
G01 X 2.6234 Y 16.7853 Z -1.0000
G01 X 2.6532 Y 16.7779 Z -1.0000
G02 X 2.6804 Y 16.7676 Z -1.0000 I -0.0305 J -0.1219
G01 X 2.6866 Y 16.7606 Z -1.0000
G01 X 2.6926 Y 16.7542 Z -1.0000
G01 X 2.7080 Y 16.7515 Z -1.0000
G01 X 2.7125 Y 16.7577 Z -1.0000
G01 X 2.7039 Y 16.7723 Z -1.0000
G01 X 2.7158 Y 16.7827 Z -1.0000
G01 X 2.7254 Y 16.7866 Z -1.0000
G01 X 2.7261 Y 16.7930 Z -1.0000
G01 X 2.7296 Y 16.8257 Z -1.0000
G02 X 2.7758 Y 16.8445 Z -1.0000 I 0.0444 J -0.0427
G01 X 2.7876 Y 16.8349 Z -1.0000
G01 X 2.7801 Y 16.8255 Z -1.0000
G01 X 2.7677 Y 16.8220 Z -1.0000
G03 X 2.7513 Y 16.8075 Z -1.0000 I 0.0353 J -0.0564
G01 X 2.7498 Y 16.7989 Z -1.0000
G01 X 2.7553 Y 16.7964 Z -1.0000
G01 X 2.7701 Y 16.7978 Z -1.0000
G01 X 2.7741 Y 16.7930 Z -1.0000
G01 X 2.7772 Y 16.7858 Z -1.0000
G01 X 2.7854 Y 16.7826 Z -1.0000
G01 X 2.7907 Y 16.7860 Z -1.0000
G01 X 2.7902 Y 16.7932 Z -1.0000
G01 X 2.7917 Y 16.7971 Z -1.0000
G01 X 2.8020 Y 16.7967 Z -1.0000
G01 X 2.8121 Y 16.7965 Z -1.0000
G01 X 2.8136 Y 16.8006 Z -1.0000
G01 X 2.8154 Y 16.8057 Z -1.0000
G01 X 2.8320 Y 16.8068 Z -1.0000
G03 X 2.8550 Y 16.8071 Z -1.0000 I 0.0109 J 0.0578
G01 X 2.8645 Y 16.8137 Z -1.0000
G01 X 2.8740 Y 16.8211 Z -1.0000
G02 X 2.9022 Y 16.8254 Z -1.0000 I 0.0281 J -0.0900
G01 X 2.9233 Y 16.8182 Z -1.0000
G01 X 2.9275 Y 16.8056 Z -1.0000
G01 X 2.9279 Y 16.7873 Z -1.0000
G01 X 2.9387 Y 16.7694 Z -1.0000
G01 X 2.9407 Y 16.7531 Z -1.0000
G01 X 2.9256 Y 16.7479 Z -1.0000
G01 X 2.9204 Y 16.7456 Z -1.0000
G01 X 2.9216 Y 16.7377 Z -1.0000
G01 X 2.9254 Y 16.7235 Z -1.0000
G01 X 2.9180 Y 16.7143 Z -1.0000
G01 X 2.9060 Y 16.7188 Z -1.0000
G01 X 2.9044 Y 16.7403 Z -1.0000
G03 X 2.9115 Y 16.7720 Z -1.0000 I -0.1338 J 0.0466
G01 X 2.9086 Y 16.7802 Z -1.0000
G01 X 2.8895 Y 16.7778 Z -1.0000
G01 X 2.8862 Y 16.7426 Z -1.0000
G01 X 2.8868 Y 16.7330 Z -1.0000
G01 X 2.8834 Y 16.7309 Z -1.0000
G01 X 2.8513 Y 16.7242 Z -1.0000
G01 X 2.8383 Y 16.6991 Z -1.0000
G01 X 2.8427 Y 16.6955 Z -1.0000
G01 X 2.8527 Y 16.7019 Z -1.0000
G01 X 2.8668 Y 16.7122 Z -1.0000
G01 X 2.8748 Y 16.7093 Z -1.0000
G01 X 2.8972 Y 16.6996 Z -1.0000
G03 X 2.9397 Y 16.7225 Z -1.0000 I -0.0165 J 0.0819
G03 X 2.9556 Y 16.7507 Z -1.0000 I -0.0429 J 0.0429
G03 X 2.9561 Y 16.7881 Z -1.0000 I -0.0787 J 0.0196
G02 X 2.9601 Y 16.8506 Z -1.0000 I 0.1081 J 0.0244
G01 X 2.9854 Y 16.8683 Z -1.0000
G01 X 2.9945 Y 16.8583 Z -1.0000
G01 X 2.9829 Y 16.8430 Z -1.0000
G01 X 2.9722 Y 16.8332 Z -1.0000
G03 X 2.9668 Y 16.8098 Z -1.0000 I 0.0485 J -0.0234
G01 X 2.9780 Y 16.7926 Z -1.0000
G01 X 2.9981 Y 16.7960 Z -1.0000
G01 X 3.0103 Y 16.8009 Z -1.0000
G01 X 3.0172 Y 16.7960 Z -1.0000
G01 X 3.0303 Y 16.7898 Z -1.0000
G01 X 3.0368 Y 16.8027 Z -1.0000
G01 X 3.0380 Y 16.8188 Z -1.0000
G01 X 3.0495 Y 16.8283 Z -1.0000
G03 X 3.0684 Y 16.8341 Z -1.0000 I -0.1598 J 0.5579
G03 X 3.0899 Y 16.8413 Z -1.0000 I -0.2732 J 0.8436
G01 X 3.0971 Y 16.8387 Z -1.0000
G01 X 3.0967 Y 16.8315 Z -1.0000
G01 X 3.1161 Y 16.8219 Z -1.0000
G03 X 3.1469 Y 16.8233 Z -1.0000 I 0.0126 J 0.0633
G03 X 3.1725 Y 16.8385 Z -1.0000 I -0.0169 J 0.0578
G02 X 3.1934 Y 16.8521 Z -1.0000 I 0.0427 J -0.0427
G01 X 3.1999 Y 16.8490 Z -1.0000
G01 X 3.1957 Y 16.8275 Z -1.0000
G02 X 3.1593 Y 16.8011 Z -1.0000 I -0.0719 J 0.0608
G01 X 3.1885 Y 16.7992 Z -1.0000
G02 X 3.2310 Y 16.7989 Z -1.0000 I 0.0199 J -0.1967
G01 X 3.2399 Y 16.7932 Z -1.0000
G01 X 3.2392 Y 16.7867 Z -1.0000
G01 X 3.2291 Y 16.7826 Z -1.0000
G01 X 3.2198 Y 16.7781 Z -1.0000
G01 X 3.2194 Y 16.7704 Z -1.0000
G01 X 3.2173 Y 16.7647 Z -1.0000
G01 X 3.1985 Y 16.7636 Z -1.0000
G01 X 3.1834 Y 16.7611 Z -1.0000
G01 X 3.1822 Y 16.7544 Z -1.0000
G03 X 3.1955 Y 16.7423 Z -1.0000 I 0.0495 J 0.0412
G01 X 3.2037 Y 16.7398 Z -1.0000
G03 X 3.2478 Y 16.7598 Z -1.0000 I -0.0000 J 0.0588
G01 X 3.2506 Y 16.7932 Z -1.0000
G01 X 3.2583 Y 16.8255 Z -1.0000
G01 X 3.2960 Y 16.8211 Z -1.0000
G01 X 3.3023 Y 16.8194 Z -1.0000
G01 X 3.3170 Y 16.8273 Z -1.0000
G02 X 3.3763 Y 16.8486 Z -1.0000 I 0.0592 J -0.0713
G01 X 3.4157 Y 16.8271 Z -1.0000
G01 X 3.4236 Y 16.8201 Z -1.0000
G03 X 3.4486 Y 16.8109 Z -1.0000 I 0.0554 J 0.1121
G01 X 3.4620 Y 16.8104 Z -1.0000
G01 X 3.4513 Y 16.8182 Z -1.0000
G01 X 3.4486 Y 16.8252 Z -1.0000
G01 X 3.4648 Y 16.8474 Z -1.0000
G01 X 3.4906 Y 16.8389 Z -1.0000
G01 X 3.4981 Y 16.8317 Z -1.0000
G03 X 3.5236 Y 16.8178 Z -1.0000 I 0.1158 J 0.1818
G01 X 3.5253 Y 16.8106 Z -1.0000
G01 X 3.5129 Y 16.8044 Z -1.0000
G01 X 3.4962 Y 16.7982 Z -1.0000
G01 X 3.4968 Y 16.7912 Z -1.0000
G02 X 3.5169 Y 16.7776 Z -1.0000 I -0.0745 J -0.1310
G01 X 3.5263 Y 16.7675 Z -1.0000
G01 X 3.5342 Y 16.7640 Z -1.0000
G01 X 3.5434 Y 16.7700 Z -1.0000
G01 X 3.5592 Y 16.7822 Z -1.0000
G02 X 3.6146 Y 16.7935 Z -1.0000 I 0.0754 J -0.2281
G01 X 3.5986 Y 16.8060 Z -1.0000
G02 X 3.5640 Y 16.8204 Z -1.0000 I 0.0446 J 0.1559
G01 X 3.5525 Y 16.8318 Z -1.0000
G01 X 3.5417 Y 16.8431 Z -1.0000
G01 X 3.5284 Y 16.8469 Z -1.0000
G01 X 3.5217 Y 16.8571 Z -1.0000
G01 X 3.5387 Y 16.8707 Z -1.0000
G01 X 3.5560 Y 16.8686 Z -1.0000
G01 X 3.5590 Y 16.8612 Z -1.0000
G01 X 3.5605 Y 16.8517 Z -1.0000
G01 X 3.5706 Y 16.8468 Z -1.0000
G01 X 3.5830 Y 16.8420 Z -1.0000
G01 X 3.5878 Y 16.8308 Z -1.0000
G01 X 3.5918 Y 16.8187 Z -1.0000
G01 X 3.5998 Y 16.8147 Z -1.0000
G01 X 3.6060 Y 16.8191 Z -1.0000
G01 X 3.6065 Y 16.8335 Z -1.0000
G02 X 3.6012 Y 16.8522 Z -1.0000 I 4.0883 J 1.1539
G02 X 3.5972 Y 16.8670 Z -1.0000 I 2.0827 J 0.5775
G01 X 3.6003 Y 16.8768 Z -1.0000
G01 X 3.6173 Y 16.8839 Z -1.0000
G02 X 3.6377 Y 16.8821 Z -1.0000 I 0.0051 J -0.0569
G01 X 3.6414 Y 16.8772 Z -1.0000
G01 X 3.6379 Y 16.8717 Z -1.0000
G01 X 3.6226 Y 16.8680 Z -1.0000
G01 X 3.6180 Y 16.8640 Z -1.0000
G01 X 3.6211 Y 16.8576 Z -1.0000
G01 X 3.6387 Y 16.8533 Z -1.0000
G03 X 3.6719 Y 16.8604 Z -1.0000 I -0.0056 J 0.1086
G02 X 3.7037 Y 16.8646 Z -1.0000 I 0.0251 J -0.0663
G01 X 3.7232 Y 16.8555 Z -1.0000
G01 X 3.7313 Y 16.8379 Z -1.0000
G01 X 3.7259 Y 16.8236 Z -1.0000
G01 X 3.7092 Y 16.8135 Z -1.0000
G02 X 3.6792 Y 16.8078 Z -1.0000 I -0.0357 J 0.1053
G03 X 3.6506 Y 16.8019 Z -1.0000 I 0.0049 J -0.0954
G01 X 3.6435 Y 16.7945 Z -1.0000
G01 X 3.6371 Y 16.7863 Z -1.0000
G01 X 3.6250 Y 16.7828 Z -1.0000
G01 X 3.6126 Y 16.7787 Z -1.0000
G01 X 3.5993 Y 16.7640 Z -1.0000
G01 X 3.5879 Y 16.7566 Z -1.0000
G01 X 3.5775 Y 16.7613 Z -1.0000
G01 X 3.5666 Y 16.7661 Z -1.0000
G01 X 3.5827 Y 16.7489 Z -1.0000
G03 X 3.6222 Y 16.7634 Z -1.0000 I 0.0026 J 0.0539
G02 X 3.6567 Y 16.7882 Z -1.0000 I 0.1141 J -0.1222
G01 X 3.6695 Y 16.7891 Z -1.0000
G03 X 3.7287 Y 16.7875 Z -1.0000 I 0.0318 J 0.0827
G01 X 3.7485 Y 16.8147 Z -1.0000
G01 X 3.7521 Y 16.8202 Z -1.0000
G02 X 3.7859 Y 16.8302 Z -1.0000 I 0.0656 J -0.1594
G03 X 3.8191 Y 16.8408 Z -1.0000 I -0.0267 J 0.1411
G01 X 3.8234 Y 16.8475 Z -1.0000
G01 X 3.8121 Y 16.8582 Z -1.0000
G01 X 3.7832 Y 16.8453 Z -1.0000
G01 X 3.7573 Y 16.8456 Z -1.0000
G01 X 3.7459 Y 16.8845 Z -1.0000
G01 X 3.7595 Y 16.8983 Z -1.0000
G01 X 3.7730 Y 16.8898 Z -1.0000
G01 X 3.7819 Y 16.8727 Z -1.0000
G01 X 3.7914 Y 16.8684 Z -1.0000
G01 X 3.7980 Y 16.8727 Z -1.0000
G01 X 3.7981 Y 16.8845 Z -1.0000
G01 X 3.7974 Y 16.8967 Z -1.0000
G01 X 3.8023 Y 16.9005 Z -1.0000
G01 X 3.8096 Y 16.8974 Z -1.0000
G01 X 3.8127 Y 16.8898 Z -1.0000
G01 X 3.8253 Y 16.8785 Z -1.0000
G01 X 3.8551 Y 16.8946 Z -1.0000
G01 X 3.8698 Y 16.9028 Z -1.0000
G02 X 3.8945 Y 16.9000 Z -1.0000 I 0.0068 J -0.0501
G01 X 3.9173 Y 16.8985 Z -1.0000
G01 X 3.9198 Y 16.9059 Z -1.0000
G01 X 3.9045 Y 16.9178 Z -1.0000
G01 X 3.8864 Y 16.9220 Z -1.0000
G01 X 3.8713 Y 16.9327 Z -1.0000
G01 X 3.8770 Y 16.9488 Z -1.0000
G01 X 3.8872 Y 16.9499 Z -1.0000
G01 X 3.9039 Y 16.9394 Z -1.0000
G03 X 3.9215 Y 16.9260 Z -1.0000 I 0.0587 J 0.0588
G03 X 3.9439 Y 16.9166 Z -1.0000 I 0.0494 J 0.0869
G02 X 4.0028 Y 16.8883 Z -1.0000 I -0.0507 J -0.1810
G01 X 4.0048 Y 16.8730 Z -1.0000
G01 X 4.0080 Y 16.8600 Z -1.0000
G01 X 4.0299 Y 16.8627 Z -1.0000
G01 X 4.0404 Y 16.8789 Z -1.0000
G01 X 4.0385 Y 16.9034 Z -1.0000
G01 X 4.0407 Y 16.9231 Z -1.0000
G01 X 4.0597 Y 16.9350 Z -1.0000
G02 X 4.0855 Y 16.9332 Z -1.0000 I 0.0088 J -0.0595
G01 X 4.0911 Y 16.9257 Z -1.0000
G01 X 4.0866 Y 16.9185 Z -1.0000
G01 X 4.0751 Y 16.9180 Z -1.0000
G01 X 4.0646 Y 16.9122 Z -1.0000
G01 X 4.0705 Y 16.8933 Z -1.0000
G01 X 4.0669 Y 16.8547 Z -1.0000
G02 X 3.9952 Y 16.8419 Z -1.0000 I -0.0500 J 0.0732
G02 X 3.9688 Y 16.8565 Z -1.0000 I 0.0143 J 0.0572
G01 X 3.9707 Y 16.8654 Z -1.0000
G01 X 3.9824 Y 16.8800 Z -1.0000
G01 X 3.9738 Y 16.8898 Z -1.0000
G03 X 3.9071 Y 16.8471 Z -1.0000 I -0.0000 J -0.0736
G01 X 3.9340 Y 16.8038 Z -1.0000
G01 X 3.9278 Y 16.7925 Z -1.0000
G01 X 3.9123 Y 16.7716 Z -1.0000
G01 X 3.9204 Y 16.7613 Z -1.0000
G01 X 3.9254 Y 16.7648 Z -1.0000
G01 X 3.9244 Y 16.7731 Z -1.0000
G01 X 3.9262 Y 16.7779 Z -1.0000
G01 X 3.9399 Y 16.7777 Z -1.0000
G01 X 3.9580 Y 16.7768 Z -1.0000
G01 X 3.9626 Y 16.7825 Z -1.0000
G01 X 3.9661 Y 16.7883 Z -1.0000
G01 X 3.9733 Y 16.7879 Z -1.0000
G01 X 3.9796 Y 16.7892 Z -1.0000
G01 X 3.9840 Y 16.8030 Z -1.0000
G01 X 3.9989 Y 16.8150 Z -1.0000
G01 X 4.0198 Y 16.7950 Z -1.0000
G01 X 4.0249 Y 16.7928 Z -1.0000
G01 X 4.0325 Y 16.8019 Z -1.0000
G01 X 4.0441 Y 16.8189 Z -1.0000
G01 X 4.0557 Y 16.8207 Z -1.0000
G01 X 4.0632 Y 16.8232 Z -1.0000
G01 X 4.0647 Y 16.8349 Z -1.0000
G01 X 4.0668 Y 16.8503 Z -1.0000
G01 X 4.0815 Y 16.8609 Z -1.0000
G01 X 4.0963 Y 16.8712 Z -1.0000
G01 X 4.0979 Y 16.8844 Z -1.0000
G01 X 4.1000 Y 16.8936 Z -1.0000
G01 X 4.1099 Y 16.8959 Z -1.0000
G03 X 4.1286 Y 16.8938 Z -1.0000 I 0.0149 J 0.0479
G03 X 4.1607 Y 16.8998 Z -1.0000 I -0.0110 J 0.1472
G01 X 4.1720 Y 16.9096 Z -1.0000
G01 X 4.1687 Y 16.9169 Z -1.0000
G02 X 4.1484 Y 16.9271 Z -1.0000 I 0.0207 J 0.0669
G01 X 4.1446 Y 16.9344 Z -1.0000
G01 X 4.1480 Y 16.9386 Z -1.0000
G01 X 4.1565 Y 16.9372 Z -1.0000
G01 X 4.1611 Y 16.9392 Z -1.0000
G01 X 4.1603 Y 16.9552 Z -1.0000
G01 X 4.1624 Y 16.9656 Z -1.0000
G01 X 4.1695 Y 16.9663 Z -1.0000
G02 X 4.1827 Y 16.9504 Z -1.0000 I -0.0361 J -0.0434
G01 X 4.1845 Y 16.9396 Z -1.0000
G01 X 4.1881 Y 16.9320 Z -1.0000
G01 X 4.2089 Y 16.9264 Z -1.0000
G02 X 4.2528 Y 16.9145 Z -1.0000 I -0.0032 J -0.0994
G02 X 4.2769 Y 16.8897 Z -1.0000 I -0.0271 J -0.0503
G02 X 4.2834 Y 16.8635 Z -1.0000 I -0.0556 J -0.0278
G01 X 4.2777 Y 16.8576 Z -1.0000
G01 X 4.2661 Y 16.8540 Z -1.0000
G01 X 4.2624 Y 16.8469 Z -1.0000
G01 X 4.2667 Y 16.8405 Z -1.0000
G03 X 4.2883 Y 16.8362 Z -1.0000 I 0.0216 J 0.0522
G02 X 4.3109 Y 16.8316 Z -1.0000 I 0.0000 J -0.0575
G01 X 4.3185 Y 16.8233 Z -1.0000
G01 X 4.3238 Y 16.8195 Z -1.0000
G01 X 4.3307 Y 16.8233 Z -1.0000
G01 X 4.3321 Y 16.8325 Z -1.0000
G01 X 4.3273 Y 16.8362 Z -1.0000
G01 X 4.3201 Y 16.8404 Z -1.0000
G01 X 4.3160 Y 16.8560 Z -1.0000
G01 X 4.3114 Y 16.8737 Z -1.0000
G03 X 4.2946 Y 16.8951 Z -1.0000 I -0.0718 J -0.0393
G01 X 4.2915 Y 16.9100 Z -1.0000
G01 X 4.3027 Y 16.9130 Z -1.0000
G03 X 4.3320 Y 16.9033 Z -1.0000 I 0.0302 J 0.0424
G01 X 4.3571 Y 16.9120 Z -1.0000
G03 X 4.3752 Y 16.9331 Z -1.0000 I -0.0482 J 0.0595
G01 X 4.3750 Y 16.9430 Z -1.0000
G01 X 4.3755 Y 16.9500 Z -1.0000
G01 X 4.3840 Y 16.9540 Z -1.0000
G01 X 4.3970 Y 16.9501 Z -1.0000
G01 X 4.4044 Y 16.9406 Z -1.0000
G01 X 4.4113 Y 16.9359 Z -1.0000
G01 X 4.4263 Y 16.9416 Z -1.0000
G02 X 4.4445 Y 16.9512 Z -1.0000 I 0.0320 J -0.0389
G01 X 4.4575 Y 16.9505 Z -1.0000
G01 X 4.4519 Y 16.9441 Z -1.0000
G01 X 4.4401 Y 16.9393 Z -1.0000
G01 X 4.4391 Y 16.9326 Z -1.0000
G01 X 4.4474 Y 16.9280 Z -1.0000
G01 X 4.4665 Y 16.9329 Z -1.0000
G01 X 4.4825 Y 16.9361 Z -1.0000
G01 X 4.4873 Y 16.9308 Z -1.0000
G01 X 4.4911 Y 16.9269 Z -1.0000
G01 X 4.5001 Y 16.9305 Z -1.0000
G01 X 4.5279 Y 16.9399 Z -1.0000
G01 X 4.5364 Y 16.9258 Z -1.0000
G01 X 4.5387 Y 16.9208 Z -1.0000
G01 X 4.5464 Y 16.9222 Z -1.0000
G01 X 4.5576 Y 16.9376 Z -1.0000
G01 X 4.5576 Y 16.9507 Z -1.0000
G01 X 4.5603 Y 16.9559 Z -1.0000
G01 X 4.5725 Y 16.9543 Z -1.0000
G01 X 4.5915 Y 16.9491 Z -1.0000
G01 X 4.5991 Y 16.9531 Z -1.0000
G01 X 4.5995 Y 16.9608 Z -1.0000
G01 X 4.5918 Y 16.9675 Z -1.0000
G01 X 4.6183 Y 16.9708 Z -1.0000
G02 X 4.6702 Y 16.9526 Z -1.0000 I -0.0029 J -0.0918
G01 X 4.6718 Y 16.9309 Z -1.0000
G01 X 4.6614 Y 16.9281 Z -1.0000
G01 X 4.6525 Y 16.9363 Z -1.0000
G01 X 4.6426 Y 16.9497 Z -1.0000
G01 X 4.6301 Y 16.9541 Z -1.0000
G01 X 4.6221 Y 16.9499 Z -1.0000
G01 X 4.6219 Y 16.9422 Z -1.0000
G01 X 4.6235 Y 16.9317 Z -1.0000
G01 X 4.6168 Y 16.9226 Z -1.0000
G01 X 4.6133 Y 16.9007 Z -1.0000
G03 X 4.6509 Y 16.8821 Z -1.0000 I 0.0400 J 0.0336
G01 X 4.6854 Y 16.8805 Z -1.0000
G01 X 4.6559 Y 16.8914 Z -1.0000
G01 X 4.6460 Y 16.9066 Z -1.0000
G01 X 4.6573 Y 16.9148 Z -1.0000
G01 X 4.6725 Y 16.9186 Z -1.0000
G03 X 4.6898 Y 16.9452 Z -1.0000 I -0.0455 J 0.0485
G03 X 4.6935 Y 16.9825 Z -1.0000 I -0.0757 J 0.0264
G01 X 4.6836 Y 16.9903 Z -1.0000
G01 X 4.6772 Y 16.9937 Z -1.0000
G01 X 4.6767 Y 17.0036 Z -1.0000
G01 X 4.6961 Y 17.0136 Z -1.0000
G01 X 4.7161 Y 16.9934 Z -1.0000
G01 X 4.7273 Y 16.9726 Z -1.0000
G03 X 4.7508 Y 16.9556 Z -1.0000 I 0.0536 J 0.0490
G01 X 4.7753 Y 16.9546 Z -1.0000
G01 X 4.7764 Y 16.9649 Z -1.0000
G01 X 4.7671 Y 16.9751 Z -1.0000
G01 X 4.7682 Y 16.9816 Z -1.0000
G01 X 4.7931 Y 16.9810 Z -1.0000
G01 X 4.8005 Y 16.9460 Z -1.0000
G01 X 4.8024 Y 16.9373 Z -1.0000
G01 X 4.8130 Y 16.9327 Z -1.0000
G01 X 4.8261 Y 16.9289 Z -1.0000
G01 X 4.8299 Y 16.9220 Z -1.0000
G01 X 4.8262 Y 16.9150 Z -1.0000
G01 X 4.8139 Y 16.9113 Z -1.0000
G01 X 4.8017 Y 16.9075 Z -1.0000
G01 X 4.7978 Y 16.9001 Z -1.0000
G01 X 4.8027 Y 16.8947 Z -1.0000
G03 X 4.8349 Y 16.8959 Z -1.0000 I 0.0121 J 0.1067
G01 X 4.8623 Y 16.8932 Z -1.0000
G01 X 4.8681 Y 16.8827 Z -1.0000
G01 X 4.8683 Y 16.8631 Z -1.0000
G03 X 4.8776 Y 16.8374 Z -1.0000 I 0.0944 J 0.0198
G01 X 4.8890 Y 16.8296 Z -1.0000
G01 X 4.8969 Y 16.8351 Z -1.0000
G01 X 4.8978 Y 16.8539 Z -1.0000
G01 X 4.8932 Y 16.8578 Z -1.0000
G01 X 4.8870 Y 16.8613 Z -1.0000
G01 X 4.8835 Y 16.8739 Z -1.0000
G01 X 4.8918 Y 16.8828 Z -1.0000
G02 X 4.9386 Y 16.8775 Z -1.0000 I 0.0087 J -0.1325
G02 X 4.9701 Y 16.8597 Z -1.0000 I -0.0234 J -0.0781
G01 X 4.9739 Y 16.8454 Z -1.0000
G01 X 4.9727 Y 16.8294 Z -1.0000
G01 X 4.9770 Y 16.8257 Z -1.0000
G01 X 5.0009 Y 16.8385 Z -1.0000
G01 X 5.0040 Y 16.8662 Z -1.0000
G01 X 5.0049 Y 16.8740 Z -1.0000
G01 X 5.0101 Y 16.8750 Z -1.0000
G01 X 5.0189 Y 16.8742 Z -1.0000
G01 X 5.0227 Y 16.8797 Z -1.0000
G01 X 5.0184 Y 16.8860 Z -1.0000
G01 X 5.0066 Y 16.8860 Z -1.0000
G02 X 4.9706 Y 16.8852 Z -1.0000 I -0.0192 J 0.0499
G01 X 4.9584 Y 16.9020 Z -1.0000
G01 X 4.9625 Y 16.9065 Z -1.0000
G02 X 4.9852 Y 16.9050 Z -1.0000 I 0.0070 J -0.0639
G03 X 5.0072 Y 16.9044 Z -1.0000 I 0.0124 J 0.0498
G01 X 5.0120 Y 16.9102 Z -1.0000
G01 X 5.0080 Y 16.9180 Z -1.0000
G01 X 4.9959 Y 16.9220 Z -1.0000
G01 X 4.9836 Y 16.9258 Z -1.0000
G01 X 4.9798 Y 16.9327 Z -1.0000
G01 X 4.9952 Y 16.9461 Z -1.0000
G01 X 5.0189 Y 16.9272 Z -1.0000
G01 X 5.0275 Y 16.9196 Z -1.0000
G01 X 5.0390 Y 16.9224 Z -1.0000
G01 X 5.0519 Y 16.9275 Z -1.0000
G01 X 5.0591 Y 16.9239 Z -1.0000
G01 X 5.0598 Y 16.9147 Z -1.0000
G01 X 5.0494 Y 16.9007 Z -1.0000
G01 X 5.0389 Y 16.8867 Z -1.0000
G01 X 5.0395 Y 16.8781 Z -1.0000
G01 X 5.0396 Y 16.8718 Z -1.0000
G01 X 5.0340 Y 16.8686 Z -1.0000
G01 X 5.0265 Y 16.8647 Z -1.0000
G01 X 5.0227 Y 16.8524 Z -1.0000
G01 X 5.0410 Y 16.8424 Z -1.0000
G01 X 5.0624 Y 16.8777 Z -1.0000
G02 X 5.0643 Y 16.8953 Z -1.0000 I 0.4184 J -0.0355
G02 X 5.0674 Y 16.9168 Z -1.0000 I 0.6338 J -0.0808
G01 X 5.0626 Y 16.9304 Z -1.0000
G01 X 5.0468 Y 16.9356 Z -1.0000
G01 X 5.0330 Y 16.9447 Z -1.0000
G01 X 5.0396 Y 16.9584 Z -1.0000
G01 X 5.0603 Y 16.9596 Z -1.0000
G01 X 5.0815 Y 16.9474 Z -1.0000
G01 X 5.0990 Y 16.9382 Z -1.0000
G01 X 5.1112 Y 16.9420 Z -1.0000
G01 X 5.1119 Y 16.9494 Z -1.0000
G01 X 5.1030 Y 16.9542 Z -1.0000
G01 X 5.0940 Y 16.9589 Z -1.0000
G01 X 5.0948 Y 16.9663 Z -1.0000
G01 X 5.1243 Y 16.9719 Z -1.0000
G01 X 5.1338 Y 16.9492 Z -1.0000
G01 X 5.1399 Y 16.9391 Z -1.0000
G01 X 5.1610 Y 16.9461 Z -1.0000
G01 X 5.1605 Y 16.9354 Z -1.0000
G02 X 5.1434 Y 16.9157 Z -1.0000 I -0.0651 J 0.0393
G01 X 5.1298 Y 16.9105 Z -1.0000
G01 X 5.1262 Y 16.9076 Z -1.0000
G01 X 5.1281 Y 16.9039 Z -1.0000
G01 X 5.1418 Y 16.9037 Z -1.0000
G03 X 5.1732 Y 16.9208 Z -1.0000 I -0.0449 J 0.1199
G02 X 5.2032 Y 16.9338 Z -1.0000 I 0.0434 J -0.0587
G01 X 5.2086 Y 16.9274 Z -1.0000
G01 X 5.2145 Y 16.9183 Z -1.0000
G01 X 5.2395 Y 16.9262 Z -1.0000
G01 X 5.2487 Y 16.9448 Z -1.0000
G01 X 5.2394 Y 16.9541 Z -1.0000
G02 X 5.1990 Y 16.9746 Z -1.0000 I 0.0000 J 0.0500
G01 X 5.2044 Y 17.0021 Z -1.0000
G01 X 5.2126 Y 17.0016 Z -1.0000
G02 X 5.2275 Y 16.9839 Z -1.0000 I -0.0354 J -0.0449
G01 X 5.2381 Y 16.9808 Z -1.0000
G01 X 5.2504 Y 16.9969 Z -1.0000
G02 X 5.2780 Y 17.0471 Z -1.0000 I 0.1125 J -0.0293
G01 X 5.3104 Y 17.0610 Z -1.0000
G01 X 5.3229 Y 17.0563 Z -1.0000
G01 X 5.3225 Y 17.0505 Z -1.0000
G01 X 5.3216 Y 17.0445 Z -1.0000
G01 X 5.3311 Y 17.0400 Z -1.0000
G01 X 5.3477 Y 17.0444 Z -1.0000
G01 X 5.3492 Y 17.0505 Z -1.0000
G01 X 5.3487 Y 17.0578 Z -1.0000
G01 X 5.3540 Y 17.0612 Z -1.0000
G01 X 5.3611 Y 17.0570 Z -1.0000
G01 X 5.3653 Y 17.0401 Z -1.0000
G01 X 5.3709 Y 17.0272 Z -1.0000
G01 X 5.3813 Y 17.0252 Z -1.0000
G01 X 5.3913 Y 17.0333 Z -1.0000
G01 X 5.3914 Y 17.0409 Z -1.0000
G01 X 5.3921 Y 17.0468 Z -1.0000
G01 X 5.4012 Y 17.0505 Z -1.0000
G01 X 5.4137 Y 17.0313 Z -1.0000
G01 X 5.3804 Y 17.0030 Z -1.0000
G03 X 5.3588 Y 16.9933 Z -1.0000 I 0.0167 J -0.0656
G01 X 5.3546 Y 16.9853 Z -1.0000
G01 X 5.3683 Y 16.9749 Z -1.0000
G03 X 5.4143 Y 17.0016 Z -1.0000 I -0.0271 J 0.0997
G03 X 5.4246 Y 17.0154 Z -1.0000 I -0.0444 J 0.0442
G03 X 5.4342 Y 17.0376 Z -1.0000 I -0.1068 J 0.0592
G01 X 5.4453 Y 17.0563 Z -1.0000
G01 X 5.4567 Y 17.0612 Z -1.0000
G01 X 5.4648 Y 17.0564 Z -1.0000
G01 X 5.4656 Y 17.0452 Z -1.0000
G01 X 5.4670 Y 17.0343 Z -1.0000
G01 X 5.4772 Y 17.0291 Z -1.0000
G01 X 5.4880 Y 17.0331 Z -1.0000
G01 X 5.4889 Y 17.0391 Z -1.0000
G01 X 5.4963 Y 17.0525 Z -1.0000
G02 X 5.5422 Y 17.0397 Z -1.0000 I 0.0010 J -0.0855
G02 X 5.5627 Y 17.0189 Z -1.0000 I -0.0323 J -0.0522
G01 X 5.5580 Y 17.0131 Z -1.0000
G01 X 5.5482 Y 17.0062 Z -1.0000
G01 X 5.5569 Y 16.9895 Z -1.0000
G01 X 5.5760 Y 16.9859 Z -1.0000
G01 X 5.5954 Y 16.9969 Z -1.0000
G02 X 5.6151 Y 17.0105 Z -1.0000 I 0.0392 J -0.0355
G01 X 5.6301 Y 17.0106 Z -1.0000
G01 X 5.6391 Y 17.0120 Z -1.0000
G01 X 5.6412 Y 17.0194 Z -1.0000
G01 X 5.6333 Y 17.0302 Z -1.0000
G01 X 5.6247 Y 17.0322 Z -1.0000
G01 X 5.6159 Y 17.0341 Z -1.0000
G01 X 5.6078 Y 17.0450 Z -1.0000
G01 X 5.6108 Y 17.0515 Z -1.0000
G01 X 5.6255 Y 17.0515 Z -1.0000
G01 X 5.6428 Y 17.0377 Z -1.0000
G02 X 5.6544 Y 17.0070 Z -1.0000 I -0.0650 J -0.0422
G01 X 5.6598 Y 16.9711 Z -1.0000
G01 X 5.6731 Y 17.0005 Z -1.0000
G01 X 5.6903 Y 17.0186 Z -1.0000
G01 X 5.7079 Y 17.0185 Z -1.0000
G01 X 5.7207 Y 16.9983 Z -1.0000
G01 X 5.7093 Y 16.9891 Z -1.0000
G01 X 5.6975 Y 16.9861 Z -1.0000
G01 X 5.6943 Y 16.9750 Z -1.0000
G01 X 5.7032 Y 16.9632 Z -1.0000
G01 X 5.7161 Y 16.9621 Z -1.0000
G01 X 5.7246 Y 16.9617 Z -1.0000
G01 X 5.7259 Y 16.9572 Z -1.0000
G01 X 5.7249 Y 16.9469 Z -1.0000
G01 X 5.7353 Y 16.9322 Z -1.0000
G01 X 5.7465 Y 16.9172 Z -1.0000
G01 X 5.7467 Y 16.9053 Z -1.0000
G01 X 5.7482 Y 16.8955 Z -1.0000
G01 X 5.7619 Y 16.8867 Z -1.0000
G01 X 5.7781 Y 16.8888 Z -1.0000
G01 X 5.7886 Y 16.9017 Z -1.0000
G01 X 5.7988 Y 16.9170 Z -1.0000
G01 X 5.8125 Y 16.9220 Z -1.0000
G01 X 5.8194 Y 16.9264 Z -1.0000
G01 X 5.8180 Y 16.9341 Z -1.0000
G01 X 5.8107 Y 16.9471 Z -1.0000
G01 X 5.8117 Y 16.9608 Z -1.0000
G01 X 5.8115 Y 16.9716 Z -1.0000
G01 X 5.8055 Y 16.9756 Z -1.0000
G01 X 5.7983 Y 16.9709 Z -1.0000
G03 X 5.7936 Y 16.9488 Z -1.0000 I 0.0499 J -0.0221
G01 X 5.7818 Y 16.9326 Z -1.0000
G01 X 5.7562 Y 16.9368 Z -1.0000
G01 X 5.7507 Y 16.9491 Z -1.0000
G01 X 5.7585 Y 16.9586 Z -1.0000
G03 X 5.7875 Y 16.9824 Z -1.0000 I -0.0151 J 0.0479
G01 X 5.7867 Y 17.0102 Z -1.0000
G01 X 5.7801 Y 17.0113 Z -1.0000
G03 X 5.7644 Y 16.9922 Z -1.0000 I 0.0380 J -0.0472
G02 X 5.7482 Y 16.9691 Z -1.0000 I -0.0961 J 0.0504
G01 X 5.7431 Y 16.9690 Z -1.0000
G01 X 5.7415 Y 16.9753 Z -1.0000
G01 X 5.7497 Y 16.9904 Z -1.0000
G01 X 5.7542 Y 17.0038 Z -1.0000
G01 X 5.7486 Y 17.0120 Z -1.0000
G01 X 5.7445 Y 17.0184 Z -1.0000
G01 X 5.7486 Y 17.0248 Z -1.0000
G01 X 5.7539 Y 17.0332 Z -1.0000
G01 X 5.7486 Y 17.0482 Z -1.0000
G01 X 5.7488 Y 17.0548 Z -1.0000
G01 X 5.7561 Y 17.0563 Z -1.0000
G03 X 5.7781 Y 17.0499 Z -1.0000 I 0.0398 J 0.0956
G03 X 5.8221 Y 17.0449 Z -1.0000 I 0.0658 J 0.3773
G02 X 5.8659 Y 17.0400 Z -1.0000 I -0.0236 J -0.4131
G01 X 5.8774 Y 17.0357 Z -1.0000
G01 X 5.8860 Y 17.0350 Z -1.0000
G01 X 5.8926 Y 17.0423 Z -1.0000
G01 X 5.8998 Y 17.0456 Z -1.0000
G02 X 5.9318 Y 17.0263 Z -1.0000 I -0.0459 J -0.1120
G03 X 5.9680 Y 17.0007 Z -1.0000 I 0.1676 J 0.1992
G01 X 5.9818 Y 16.9970 Z -1.0000
G01 X 5.9932 Y 16.9932 Z -1.0000
G01 X 5.9971 Y 16.9856 Z -1.0000
G01 X 6.0015 Y 16.9802 Z -1.0000
G01 X 6.0198 Y 16.9814 Z -1.0000
G01 X 6.0335 Y 16.9815 Z -1.0000
G01 X 6.0353 Y 16.9769 Z -1.0000
G01 X 6.0365 Y 16.9721 Z -1.0000
G01 X 6.0446 Y 16.9715 Z -1.0000
G01 X 6.0483 Y 16.9853 Z -1.0000
G01 X 6.0238 Y 16.9970 Z -1.0000
G02 X 6.0005 Y 17.0008 Z -1.0000 I 0.0000 J 0.0741
G01 X 5.9917 Y 17.0077 Z -1.0000
G01 X 5.9831 Y 17.0149 Z -1.0000
G03 X 5.9643 Y 17.0184 Z -1.0000 I -0.0188 J -0.0482
G01 X 5.9474 Y 17.0222 Z -1.0000
G01 X 5.9435 Y 17.0283 Z -1.0000
G01 X 5.9614 Y 17.0486 Z -1.0000
G02 X 6.0340 Y 17.0400 Z -1.0000 I 0.0193 J -0.1488
G03 X 6.0645 Y 17.0323 Z -1.0000 I 0.0490 J 0.1282
G03 X 6.0998 Y 17.0310 Z -1.0000 I 0.0236 J 0.1735
G02 X 6.1343 Y 17.0302 Z -1.0000 I 0.0125 J -0.1886
G01 X 6.1431 Y 17.0259 Z -1.0000
G01 X 6.1512 Y 17.0238 Z -1.0000
G03 X 6.1756 Y 17.0347 Z -1.0000 I -0.0225 J 0.0824
G02 X 6.1968 Y 17.0442 Z -1.0000 I 0.0392 J -0.0598
G01 X 6.2005 Y 17.0412 Z -1.0000
G01 X 6.2155 Y 17.0189 Z -1.0000
G01 X 6.2419 Y 17.0241 Z -1.0000
G01 X 6.2427 Y 17.0298 Z -1.0000
G01 X 6.2323 Y 17.0411 Z -1.0000
G01 X 6.2418 Y 17.0448 Z -1.0000
G03 X 6.2673 Y 17.0404 Z -1.0000 I 0.0346 J 0.1228
G03 X 6.3328 Y 17.0383 Z -1.0000 I 0.0586 J 0.8264
G02 X 6.4427 Y 17.0235 Z -1.0000 I 0.0038 J -0.3859
G01 X 6.4551 Y 17.0034 Z -1.0000
G01 X 6.4639 Y 16.9693 Z -1.0000
G01 X 6.4962 Y 16.9542 Z -1.0000
G01 X 6.5017 Y 16.9598 Z -1.0000
G01 X 6.4957 Y 16.9748 Z -1.0000
G02 X 6.4812 Y 17.0148 Z -1.0000 I 0.0418 J 0.0378
G01 X 6.4981 Y 17.0373 Z -1.0000
G01 X 6.5046 Y 17.0339 Z -1.0000
G01 X 6.5050 Y 17.0141 Z -1.0000
G01 X 6.5046 Y 16.9915 Z -1.0000
G01 X 6.5111 Y 16.9863 Z -1.0000
G01 X 6.5175 Y 16.9807 Z -1.0000
G02 X 6.5172 Y 16.9461 Z -1.0000 I -0.1066 J -0.0162
G01 X 6.5210 Y 16.9221 Z -1.0000
G02 X 6.5333 Y 16.9355 Z -1.0000 I 0.0496 J -0.0332
G01 X 6.5428 Y 16.9395 Z -1.0000
G03 X 6.5539 Y 16.9408 Z -1.0000 I -1.8406 J 15.2551
G03 X 6.5642 Y 16.9422 Z -1.0000 I -0.0681 J 0.5606
G01 X 6.5693 Y 16.9467 Z -1.0000
G01 X 6.5685 Y 16.9595 Z -1.0000
G01 X 6.5605 Y 16.9700 Z -1.0000
G01 X 6.5540 Y 16.9703 Z -1.0000
G01 X 6.5464 Y 16.9700 Z -1.0000
G01 X 6.5328 Y 16.9806 Z -1.0000
G01 X 6.5235 Y 17.0232 Z -1.0000
G01 X 6.5466 Y 17.0323 Z -1.0000
G01 X 6.5599 Y 17.0272 Z -1.0000
G03 X 6.5806 Y 17.0266 Z -1.0000 I 0.0128 J 0.0777
G01 X 6.6021 Y 17.0288 Z -1.0000
G01 X 6.5806 Y 17.0196 Z -1.0000
G02 X 6.5594 Y 17.0139 Z -1.0000 I -0.0299 J 0.0691
G01 X 6.5498 Y 17.0159 Z -1.0000
G01 X 6.5459 Y 17.0146 Z -1.0000
G01 X 6.5456 Y 17.0065 Z -1.0000
G01 X 6.5633 Y 16.9962 Z -1.0000
G03 X 6.6233 Y 17.0211 Z -1.0000 I -0.0294 J 0.1556
G01 X 6.6422 Y 17.0286 Z -1.0000
G01 X 6.6434 Y 17.0179 Z -1.0000
G01 X 6.6562 Y 17.0188 Z -1.0000
G02 X 6.6823 Y 17.0354 Z -1.0000 I 0.0564 J -0.0600
G01 X 6.6910 Y 17.0326 Z -1.0000
G01 X 6.7014 Y 17.0262 Z -1.0000
G03 X 6.7870 Y 17.0241 Z -1.0000 I 0.0595 J 0.6726
G02 X 6.8667 Y 17.0224 Z -1.0000 I 0.0262 J -0.6676
G01 X 6.8692 Y 17.0175 Z -1.0000
G01 X 6.8825 Y 16.9955 Z -1.0000
G03 X 6.9735 Y 17.0250 Z -1.0000 I -0.0139 J 0.1984
G01 X 6.9791 Y 17.0248 Z -1.0000
G01 X 6.9822 Y 17.0190 Z -1.0000
G01 X 6.9795 Y 17.0104 Z -1.0000
G01 X 6.9742 Y 17.0076 Z -1.0000
G01 X 6.9669 Y 17.0054 Z -1.0000
G03 X 6.9354 Y 16.9812 Z -1.0000 I 0.2012 J -0.2949
G02 X 6.9036 Y 16.9640 Z -1.0000 I -0.0551 J 0.0641
G01 X 6.8832 Y 16.9662 Z -1.0000
G01 X 6.8691 Y 16.9659 Z -1.0000
G01 X 6.8658 Y 16.9596 Z -1.0000
G01 X 6.8429 Y 16.9649 Z -1.0000
G01 X 6.8243 Y 16.9703 Z -1.0000
G01 X 6.8174 Y 16.9668 Z -1.0000
G01 X 6.8125 Y 16.9253 Z -1.0000
G01 X 6.8337 Y 16.9176 Z -1.0000
G01 X 6.8387 Y 16.9247 Z -1.0000
G01 X 6.8372 Y 16.9335 Z -1.0000
G01 X 6.8391 Y 16.9390 Z -1.0000
G02 X 6.8638 Y 16.9435 Z -1.0000 I 0.0247 J -0.0657
G02 X 6.8904 Y 16.9374 Z -1.0000 I 0.0000 J -0.0608
G01 X 6.8965 Y 16.9276 Z -1.0000
G01 X 6.9017 Y 16.9229 Z -1.0000
G01 X 6.9179 Y 16.9300 Z -1.0000
G03 X 6.9357 Y 16.9500 Z -1.0000 I -0.0640 J 0.0747
G01 X 6.9393 Y 16.9620 Z -1.0000
G01 X 6.9435 Y 16.9715 Z -1.0000
G01 X 6.9540 Y 16.9757 Z -1.0000
G01 X 6.9674 Y 16.9789 Z -1.0000
G03 X 6.9971 Y 16.9981 Z -1.0000 I -0.0874 J 0.1680
G02 X 7.0280 Y 17.0136 Z -1.0000 I 0.0534 J -0.0678
G02 X 7.0789 Y 17.0201 Z -1.0000 I 0.0494 J -0.1833
G02 X 7.1314 Y 17.0170 Z -1.0000 I -0.0040 J -0.5161
G01 X 7.1428 Y 17.0131 Z -1.0000
G01 X 7.1506 Y 17.0118 Z -1.0000
G01 X 7.1535 Y 17.0154 Z -1.0000
G01 X 7.1729 Y 17.0355 Z -1.0000
G02 X 7.2606 Y 17.0189 Z -1.0000 I 0.0071 J -0.2026
G01 X 7.2662 Y 17.0177 Z -1.0000
G03 X 7.3222 Y 17.0183 Z -1.0000 I 0.0119 J 1.5404
G02 X 7.3729 Y 17.0144 Z -1.0000 I 0.0073 J -0.2382
G01 X 7.3784 Y 17.0079 Z -1.0000
G01 X 7.3820 Y 17.0023 Z -1.0000
G01 X 7.3900 Y 17.0029 Z -1.0000
G02 X 7.4728 Y 17.0268 Z -1.0000 I 0.0842 J -0.1363
G01 X 7.4963 Y 17.0038 Z -1.0000
G01 X 7.5070 Y 17.0077 Z -1.0000
G01 X 7.5175 Y 17.0138 Z -1.0000
G01 X 7.5272 Y 17.0088 Z -1.0000
G01 X 7.5389 Y 17.0007 Z -1.0000
G01 X 7.5566 Y 17.0024 Z -1.0000
G02 X 7.6059 Y 17.0149 Z -1.0000 I 0.0640 J -0.1489
G01 X 7.6139 Y 17.0076 Z -1.0000
G01 X 7.6098 Y 17.0009 Z -1.0000
G02 X 7.5898 Y 16.9957 Z -1.0000 I -0.0225 J 0.0459
G01 X 7.5850 Y 16.9895 Z -1.0000
G01 X 7.6033 Y 16.9890 Z -1.0000
G01 X 7.6180 Y 16.9959 Z -1.0000
G02 X 7.9648 Y 17.1197 Z -1.0000 I 0.3430 J -0.4133
G02 X 8.0346 Y 16.9933 Z -1.0000 I -0.0006 J -0.0828
G01 X 8.0417 Y 16.9913 Z -1.0000
G02 X 8.1731 Y 17.0262 Z -1.0000 I 0.1233 J -0.1996
G02 X 8.2872 Y 16.9831 Z -1.0000 I -0.0065 J -0.1899
G01 X 8.3003 Y 16.9786 Z -1.0000
G01 X 8.3072 Y 16.9837 Z -1.0000
G01 X 8.3339 Y 17.0034 Z -1.0000
G01 X 8.3528 Y 16.9851 Z -1.0000
G01 X 8.3567 Y 16.9815 Z -1.0000
G01 X 8.3688 Y 16.9864 Z -1.0000
G01 X 8.3849 Y 16.9924 Z -1.0000
G01 X 8.4000 Y 16.9872 Z -1.0000
G01 X 8.4140 Y 16.9814 Z -1.0000
G01 X 8.4217 Y 16.9853 Z -1.0000
G01 X 8.4310 Y 16.9908 Z -1.0000
G02 X 8.5110 Y 16.9910 Z -1.0000 I 0.0413 J -0.6330
G02 X 8.6670 Y 16.9744 Z -1.0000 I -0.1012 J -1.6957
G02 X 8.6933 Y 16.9631 Z -1.0000 I -0.0086 J -0.0559
G01 X 8.6955 Y 16.9692 Z -1.0000
G01 X 8.6982 Y 16.9786 Z -1.0000
G02 X 8.7314 Y 16.9817 Z -1.0000 I 0.0229 J -0.0655
G03 X 8.7750 Y 16.9795 Z -1.0000 I 0.0330 J 0.2199
G01 X 8.7772 Y 16.9838 Z -1.0000
G01 X 8.7797 Y 16.9880 Z -1.0000
G02 X 8.8525 Y 16.9796 Z -1.0000 I -0.0352 J -0.6286
G03 X 8.9332 Y 16.9694 Z -1.0000 I 0.1488 J 0.8546
G01 X 8.9451 Y 16.9723 Z -1.0000
G02 X 9.0345 Y 16.9981 Z -1.0000 I 0.0908 J -0.1469
G01 X 9.0595 Y 16.9733 Z -1.0000
G01 X 9.0562 Y 16.9695 Z -1.0000
G01 X 9.0471 Y 16.9713 Z -1.0000
G01 X 9.0428 Y 16.9709 Z -1.0000
G01 X 9.0422 Y 16.9670 Z -1.0000
G01 X 9.0517 Y 16.9614 Z -1.0000
G03 X 9.0777 Y 16.9658 Z -1.0000 I 0.0023 J 0.0660
G02 X 9.1036 Y 16.9694 Z -1.0000 I 0.0209 J -0.0553
G01 X 9.1147 Y 16.9627 Z -1.0000
G01 X 9.1236 Y 16.9610 Z -1.0000
G01 X 9.1426 Y 16.9876 Z -1.0000
G01 X 9.1765 Y 16.9800 Z -1.0000
G01 X 9.1771 Y 16.9749 Z -1.0000
G01 X 9.1663 Y 16.9636 Z -1.0000
G01 X 9.1746 Y 16.9595 Z -1.0000
G02 X 9.4301 Y 16.9962 Z -1.0000 I 0.2667 J -0.9487
G01 X 9.4490 Y 16.9627 Z -1.0000
G01 X 9.4653 Y 16.9643 Z -1.0000
G02 X 9.4881 Y 16.9716 Z -1.0000 I 0.0316 J -0.0594
G01 X 9.5006 Y 16.9689 Z -1.0000
G01 X 9.5139 Y 16.9647 Z -1.0000
G03 X 9.5967 Y 16.9630 Z -1.0000 I 0.0614 J 0.9874
G02 X 9.6750 Y 16.9590 Z -1.0000 I 0.0110 J -0.5527
G01 X 9.6805 Y 16.9528 Z -1.0000
G01 X 9.6843 Y 16.9488 Z -1.0000
G01 X 9.6939 Y 16.9519 Z -1.0000
G02 X 9.7970 Y 16.9889 Z -1.0000 I 0.1032 J -0.1253
G02 X 9.9023 Y 16.9520 Z -1.0000 I 0.0001 J -0.1681
G01 X 9.9154 Y 16.9464 Z -1.0000
G01 X 9.9270 Y 16.9490 Z -1.0000
G02 X 10.1479 Y 17.0091 Z -1.0000 I 0.2120 J -0.3430
G02 X 10.3078 Y 16.9410 Z -1.0000 I -0.0052 J -0.2338
G01 X 10.3160 Y 16.9381 Z -1.0000
G01 X 10.3277 Y 16.9431 Z -1.0000
G01 X 10.3410 Y 16.9480 Z -1.0000
G02 X 10.3816 Y 16.9437 Z -1.0000 I 0.0022 J -0.1730
G03 X 10.4226 Y 16.9393 Z -1.0000 I 0.0391 J 0.1718
G01 X 10.4421 Y 16.9443 Z -1.0000
G01 X 10.4611 Y 16.9491 Z -1.0000
G02 X 10.4871 Y 16.9443 Z -1.0000 I 0.0000 J -0.0734
G03 X 10.5137 Y 16.9383 Z -1.0000 I 0.0349 J 0.0920
G03 X 10.5360 Y 16.9402 Z -1.0000 I 0.0056 J 0.0650
G01 X 10.5536 Y 16.9397 Z -1.0000
G01 X 10.5586 Y 16.9328 Z -1.0000
G01 X 10.5626 Y 16.9280 Z -1.0000
G01 X 10.5720 Y 16.9305 Z -1.0000
G01 X 10.5868 Y 16.9376 Z -1.0000
G02 X 10.6255 Y 16.9415 Z -1.0000 I 0.0384 J -0.1890
G02 X 10.6591 Y 16.9345 Z -1.0000 I -0.0001 J -0.0849
G01 X 10.6665 Y 16.9237 Z -1.0000
G01 X 10.6727 Y 16.9194 Z -1.0000
G01 X 10.6887 Y 16.9292 Z -1.0000
G02 X 10.7210 Y 16.9151 Z -1.0000 I -0.0049 J -0.0553
G01 X 10.7365 Y 16.9066 Z -1.0000
G01 X 10.7406 Y 16.9097 Z -1.0000
G01 X 10.7372 Y 16.9187 Z -1.0000
G01 X 10.7299 Y 16.9221 Z -1.0000
G01 X 10.7222 Y 16.9252 Z -1.0000
G01 X 10.7191 Y 16.9322 Z -1.0000
G01 X 10.7238 Y 16.9372 Z -1.0000
G02 X 10.7807 Y 16.9367 Z -1.0000 I 0.0255 J -0.3494
G03 X 10.8423 Y 16.9319 Z -1.0000 I 0.2201 J 2.4044
G03 X 10.8583 Y 16.9316 Z -1.0000 I 0.0106 J 0.1606
G02 X 10.9839 Y 16.9267 Z -1.0000 I 0.0281 J -0.8832
G02 X 11.0121 Y 16.9145 Z -1.0000 I -0.0058 J -0.0522
G01 X 11.0205 Y 16.9137 Z -1.0000
G01 X 11.0244 Y 16.9227 Z -1.0000
G02 X 11.1492 Y 16.9268 Z -1.0000 I 0.0919 J -0.9011
G03 X 11.2921 Y 16.9222 Z -1.0000 I 0.7472 J 20.9620
G03 X 11.4955 Y 16.9169 Z -1.0000 I 1.0497 J 36.4164
G02 X 11.6988 Y 16.9104 Z -1.0000 I -0.2784 J -11.9820
G02 X 11.7445 Y 16.9068 Z -1.0000 I -0.0235 J -0.5844
G03 X 11.7859 Y 16.9060 Z -1.0000 I 0.0246 J 0.2054
G01 X 11.7900 Y 16.9104 Z -1.0000
G01 X 11.7940 Y 16.9144 Z -1.0000
G02 X 11.8408 Y 16.9095 Z -1.0000 I -0.0048 J -0.2728
G03 X 11.8919 Y 16.9031 Z -1.0000 I 0.0740 J 0.3833
G03 X 11.9578 Y 16.9027 Z -1.0000 I 0.0367 J 0.6247
G02 X 12.0226 Y 16.9021 Z -1.0000 I 0.0270 J -0.5775
G01 X 12.0319 Y 16.8979 Z -1.0000
G01 X 12.0316 Y 16.8934 Z -1.0000
G01 X 12.0220 Y 16.8900 Z -1.0000
G01 X 12.0076 Y 16.8866 Z -1.0000
G01 X 12.0041 Y 16.8811 Z -1.0000
G01 X 12.0151 Y 16.8701 Z -1.0000
G03 X 12.0495 Y 16.8811 Z -1.0000 I 0.0000 J 0.0591
G02 X 12.0839 Y 16.8942 Z -1.0000 I 0.0425 J -0.0597
G02 X 12.2044 Y 16.8982 Z -1.0000 I 0.0860 J -0.7790
G02 X 12.3245 Y 16.8871 Z -1.0000 I -0.0554 J -1.2477
G01 X 12.3359 Y 16.8796 Z -1.0000
G01 X 12.3441 Y 16.8750 Z -1.0000
G01 X 12.3521 Y 16.8794 Z -1.0000
G01 X 12.3605 Y 16.8835 Z -1.0000
G01 X 12.3704 Y 16.8779 Z -1.0000
G01 X 12.3795 Y 16.8727 Z -1.0000
G01 X 12.3860 Y 16.8768 Z -1.0000
G01 X 12.3948 Y 16.8852 Z -1.0000
G02 X 12.4243 Y 16.8901 Z -1.0000 I 0.0295 J -0.0848
G01 X 12.4399 Y 16.8825 Z -1.0000
G01 X 12.4395 Y 16.8706 Z -1.0000
G03 X 12.4237 Y 16.8502 Z -1.0000 I 0.1306 J -0.1177
G01 X 12.4217 Y 16.8438 Z -1.0000
G01 X 12.4357 Y 16.8326 Z -1.0000
G03 X 12.4828 Y 16.8574 Z -1.0000 I -0.0219 J 0.0988
G02 X 12.5050 Y 16.8727 Z -1.0000 I 0.0638 J -0.0685
G01 X 12.5116 Y 16.8716 Z -1.0000
G01 X 12.5155 Y 16.8714 Z -1.0000
G01 X 12.5181 Y 16.8769 Z -1.0000
G01 X 12.5664 Y 16.9252 Z -1.0000
G02 X 12.7384 Y 16.8770 Z -1.0000 I 0.0001 J -0.3306
G01 X 12.7490 Y 16.8739 Z -1.0000
G03 X 12.7805 Y 16.8758 Z -1.0000 I 0.0054 J 0.1730
G02 X 12.9266 Y 16.8861 Z -1.0000 I 0.1392 J -0.9284
G02 X 12.9672 Y 16.8745 Z -1.0000 I -0.0006 J -0.0787
G01 X 12.9749 Y 16.8739 Z -1.0000
G01 X 12.9786 Y 16.8795 Z -1.0000
G01 X 12.9820 Y 16.8852 Z -1.0000
G01 X 12.9890 Y 16.8850 Z -1.0000
G03 X 13.0592 Y 16.8624 Z -1.0000 I 0.0809 J 0.1310
G01 X 13.0696 Y 16.8795 Z -1.0000
G01 X 13.0735 Y 16.8878 Z -1.0000
G01 X 13.0902 Y 16.8822 Z -1.0000
G01 X 13.0998 Y 16.8776 Z -1.0000
G03 X 13.1536 Y 16.8742 Z -1.0000 I 0.0538 J 0.4259
G02 X 13.2015 Y 16.8681 Z -1.0000 I -0.0000 J -0.1933
G01 X 13.2061 Y 16.8608 Z -1.0000
G01 X 13.2096 Y 16.8524 Z -1.0000
G01 X 13.2260 Y 16.8474 Z -1.0000
G01 X 13.2408 Y 16.8528 Z -1.0000
G01 X 13.2431 Y 16.8617 Z -1.0000
G01 X 13.2462 Y 16.8697 Z -1.0000
G01 X 13.2688 Y 16.8741 Z -1.0000
G02 X 13.2986 Y 16.8694 Z -1.0000 I -0.0089 J -0.1528
G01 X 13.3079 Y 16.8639 Z -1.0000
G01 X 13.2918 Y 16.8629 Z -1.0000
G01 X 13.2720 Y 16.8645 Z -1.0000
G01 X 13.2677 Y 16.8596 Z -1.0000
G01 X 13.2891 Y 16.8343 Z -1.0000
G01 X 13.3227 Y 16.8505 Z -1.0000
G01 X 13.3360 Y 16.8594 Z -1.0000
G02 X 13.4630 Y 16.8668 Z -1.0000 I 0.1287 J -1.1025
G02 X 13.6614 Y 16.8523 Z -1.0000 I 0.0020 J -1.3362
G01 X 13.6689 Y 16.8362 Z -1.0000
G01 X 13.6718 Y 16.8311 Z -1.0000
G03 X 13.7013 Y 16.8367 Z -1.0000 I -0.0013 J 0.0866
G03 X 13.7233 Y 16.8495 Z -1.0000 I -0.0286 J 0.0748
G01 X 13.7244 Y 16.8556 Z -1.0000
G01 X 13.7264 Y 16.8594 Z -1.0000
G02 X 13.8061 Y 16.8574 Z -1.0000 I 0.0183 J -0.8391
G02 X 13.8889 Y 16.8458 Z -1.0000 I -0.0477 J -0.6433
G01 X 13.8971 Y 16.8385 Z -1.0000
G01 X 13.9172 Y 16.8232 Z -1.0000
G01 X 13.9316 Y 16.8368 Z -1.0000
G01 X 13.9282 Y 16.8442 Z -1.0000
G01 X 13.9191 Y 16.8475 Z -1.0000
G01 X 13.9123 Y 16.8532 Z -1.0000
G01 X 13.9189 Y 16.8559 Z -1.0000
G02 X 13.9622 Y 16.8518 Z -1.0000 I -0.0089 J -0.3301
G02 X 13.9999 Y 16.8391 Z -1.0000 I -0.0188 J -0.1177
G01 X 14.0065 Y 16.8280 Z -1.0000
G01 X 14.0108 Y 16.8243 Z -1.0000
G01 X 14.0201 Y 16.8299 Z -1.0000
G01 X 14.0378 Y 16.8402 Z -1.0000
G02 X 14.1495 Y 16.8446 Z -1.0000 I 0.0858 J -0.7564
G02 X 14.2617 Y 16.8345 Z -1.0000 I -0.0356 J -1.0291
G01 X 14.2740 Y 16.8265 Z -1.0000
G01 X 14.2809 Y 16.8243 Z -1.0000
G01 X 14.2880 Y 16.8326 Z -1.0000
G01 X 14.2938 Y 16.8358 Z -1.0000
G01 X 14.3011 Y 16.8288 Z -1.0000
G01 X 14.3172 Y 16.8129 Z -1.0000
G01 X 14.3277 Y 16.8208 Z -1.0000
G01 X 14.3352 Y 16.8295 Z -1.0000
G02 X 14.3649 Y 16.8263 Z -1.0000 I 0.0087 J -0.0585
G03 X 14.3921 Y 16.8219 Z -1.0000 I 0.0240 J 0.0627
G01 X 14.4132 Y 16.8286 Z -1.0000
G01 X 14.4333 Y 16.8271 Z -1.0000
G01 X 14.4348 Y 16.8101 Z -1.0000
G01 X 14.4373 Y 16.7966 Z -1.0000
G01 X 14.4606 Y 16.7956 Z -1.0000
G03 X 14.4818 Y 16.8116 Z -1.0000 I -0.0253 J 0.0556
G01 X 14.4837 Y 16.8227 Z -1.0000
G01 X 14.4860 Y 16.8316 Z -1.0000
G01 X 14.5000 Y 16.8369 Z -1.0000
G01 X 14.5138 Y 16.8325 Z -1.0000
G01 X 14.5151 Y 16.8262 Z -1.0000
G01 X 14.5146 Y 16.8189 Z -1.0000
G01 X 14.5198 Y 16.8155 Z -1.0000
G01 X 14.5279 Y 16.8187 Z -1.0000
G01 X 14.5311 Y 16.8262 Z -1.0000
G01 X 14.5439 Y 16.8390 Z -1.0000
G02 X 14.6539 Y 16.8265 Z -1.0000 I 0.0014 J -0.4812
G03 X 14.6956 Y 16.8209 Z -1.0000 I 0.0512 J 0.2215
G01 X 14.7075 Y 16.8242 Z -1.0000
G01 X 14.7334 Y 16.8323 Z -1.0000
G02 X 14.7615 Y 16.8241 Z -1.0000 I -0.0000 J -0.0527
G01 X 14.7729 Y 16.8211 Z -1.0000
G03 X 14.8204 Y 16.8263 Z -1.0000 I -0.0109 J 0.3138
G02 X 14.8669 Y 16.8303 Z -1.0000 I 0.0427 J -0.2277
G01 X 14.8786 Y 16.8254 Z -1.0000
G01 X 14.8784 Y 16.8197 Z -1.0000
G01 X 14.8664 Y 16.8155 Z -1.0000
G01 X 14.8471 Y 16.8109 Z -1.0000
G01 X 14.8387 Y 16.8017 Z -1.0000
G01 X 14.8406 Y 16.7929 Z -1.0000
G01 X 14.8528 Y 16.7879 Z -1.0000
G01 X 14.8659 Y 16.7915 Z -1.0000
G01 X 14.8670 Y 16.7963 Z -1.0000
G01 X 14.8684 Y 16.8011 Z -1.0000
G01 X 14.8845 Y 16.8047 Z -1.0000
G01 X 14.8988 Y 16.8000 Z -1.0000
G01 X 14.9001 Y 16.7932 Z -1.0000
G01 X 14.9022 Y 16.7879 Z -1.0000
G03 X 14.9257 Y 16.7868 Z -1.0000 I 0.0143 J 0.0569
G02 X 14.9551 Y 16.7863 Z -1.0000 I 0.0132 J -0.0851
G01 X 14.9630 Y 16.7796 Z -1.0000
G01 X 14.9750 Y 16.7953 Z -1.0000
G01 X 14.9882 Y 16.8161 Z -1.0000
G01 X 15.0085 Y 16.8235 Z -1.0000
G02 X 15.0305 Y 16.8196 Z -1.0000 I -0.0000 J -0.0650
G01 X 15.0344 Y 16.8141 Z -1.0000
G01 X 15.0374 Y 16.8076 Z -1.0000
G01 X 15.0458 Y 16.8046 Z -1.0000
G01 X 15.0510 Y 16.8080 Z -1.0000
G01 X 15.0505 Y 16.8154 Z -1.0000
G01 X 15.0550 Y 16.8226 Z -1.0000
G01 X 15.0755 Y 16.8128 Z -1.0000
G01 X 15.0879 Y 16.8073 Z -1.0000
G01 X 15.0965 Y 16.8118 Z -1.0000
G01 X 15.1065 Y 16.8194 Z -1.0000
G02 X 15.1335 Y 16.8224 Z -1.0000 I 0.0222 J -0.0777
G01 X 15.1491 Y 16.8123 Z -1.0000
G01 X 15.1442 Y 16.8015 Z -1.0000
G01 X 15.1602 Y 16.8013 Z -1.0000
G02 X 15.1902 Y 16.8001 Z -1.0000 I 0.0114 J -0.0925
G01 X 15.1950 Y 16.7942 Z -1.0000
G01 X 15.1993 Y 16.7904 Z -1.0000
G03 X 15.2191 Y 16.7974 Z -1.0000 I -0.0067 J 0.0504
G02 X 15.3131 Y 16.8200 Z -1.0000 I 0.0825 J -0.1363
G02 X 15.3565 Y 16.7875 Z -1.0000 I -0.0036 J -0.0500
G01 X 15.3642 Y 16.7815 Z -1.0000
G01 X 15.3717 Y 16.7860 Z -1.0000
G01 X 15.3874 Y 16.7954 Z -1.0000
G01 X 15.3985 Y 16.7833 Z -1.0000
G01 X 15.4096 Y 16.7701 Z -1.0000
G01 X 15.4306 Y 16.7779 Z -1.0000
G01 X 15.4331 Y 16.7889 Z -1.0000
G01 X 15.4266 Y 16.7939 Z -1.0000
G01 X 15.4123 Y 16.7971 Z -1.0000
G01 X 15.4092 Y 16.8019 Z -1.0000
G01 X 15.4126 Y 16.8065 Z -1.0000
G02 X 15.4360 Y 16.8099 Z -1.0000 I 0.0234 J -0.0782
G01 X 15.4576 Y 16.8048 Z -1.0000
G01 X 15.4627 Y 16.7966 Z -1.0000
G01 X 15.4662 Y 16.7865 Z -1.0000
G01 X 15.4731 Y 16.7832 Z -1.0000
G01 X 15.4780 Y 16.7794 Z -1.0000
G01 X 15.4773 Y 16.7671 Z -1.0000
G01 X 15.4753 Y 16.7539 Z -1.0000
G01 X 15.4784 Y 16.7511 Z -1.0000
G01 X 15.4848 Y 16.7530 Z -1.0000
G03 X 15.5017 Y 16.7671 Z -1.0000 I -0.0675 J 0.0982
G01 X 15.5061 Y 16.7783 Z -1.0000
G01 X 15.5010 Y 16.7832 Z -1.0000
G01 X 15.4954 Y 16.7934 Z -1.0000
G01 X 15.5163 Y 16.8069 Z -1.0000
G02 X 15.5452 Y 16.8080 Z -1.0000 I 0.0196 J -0.1329
G01 X 15.5484 Y 16.8046 Z -1.0000
G01 X 15.5515 Y 16.8012 Z -1.0000
G03 X 15.5817 Y 16.8025 Z -1.0000 I 0.0093 J 0.1427
G02 X 15.6123 Y 16.8014 Z -1.0000 I 0.0124 J -0.0849
G01 X 15.6237 Y 16.7934 Z -1.0000
G01 X 15.6354 Y 16.7867 Z -1.0000
G03 X 15.6894 Y 16.7920 Z -1.0000 I 0.0049 J 0.2273
G02 X 15.7904 Y 16.8006 Z -1.0000 I 0.0828 J -0.3763
G02 X 15.8296 Y 16.7854 Z -1.0000 I -0.0031 J -0.0662
G01 X 15.8439 Y 16.7795 Z -1.0000
G01 X 15.8501 Y 16.7836 Z -1.0000
G02 X 15.8964 Y 16.8182 Z -1.0000 I 0.0481 J -0.0160
G01 X 15.9416 Y 16.7868 Z -1.0000
G01 X 15.9387 Y 16.7810 Z -1.0000
G01 X 15.9221 Y 16.7805 Z -1.0000
G01 X 15.9080 Y 16.7796 Z -1.0000
G01 X 15.9062 Y 16.7741 Z -1.0000
G01 X 15.9151 Y 16.7665 Z -1.0000
G01 X 15.9232 Y 16.7672 Z -1.0000
G01 X 15.9313 Y 16.7681 Z -1.0000
G01 X 15.9391 Y 16.7620 Z -1.0000
G01 X 15.9553 Y 16.7557 Z -1.0000
G01 X 15.9617 Y 16.7684 Z -1.0000
G01 X 15.9632 Y 16.7775 Z -1.0000
G01 X 15.9709 Y 16.7796 Z -1.0000
G01 X 15.9851 Y 16.7783 Z -1.0000
G01 X 15.9930 Y 16.7838 Z -1.0000
G02 X 16.0581 Y 16.8197 Z -1.0000 I 0.0645 J -0.0398
G01 X 16.0945 Y 16.7831 Z -1.0000
G01 X 16.0989 Y 16.7778 Z -1.0000
G01 X 16.1194 Y 16.7784 Z -1.0000
G01 X 16.1422 Y 16.7782 Z -1.0000
G01 X 16.1580 Y 16.7681 Z -1.0000
G01 X 16.1719 Y 16.7633 Z -1.0000
G01 X 16.1926 Y 16.7754 Z -1.0000
G01 X 16.2134 Y 16.7993 Z -1.0000
G01 X 16.2060 Y 16.7725 Z -1.0000
G02 X 16.1969 Y 16.7469 Z -1.0000 I -0.1682 J 0.0457
G01 X 16.1917 Y 16.7404 Z -1.0000
G01 X 16.1831 Y 16.7029 Z -1.0000
G01 X 16.2149 Y 16.6939 Z -1.0000
G01 X 16.2167 Y 16.7002 Z -1.0000
G01 X 16.2075 Y 16.7080 Z -1.0000
G01 X 16.2002 Y 16.7176 Z -1.0000
G01 X 16.2055 Y 16.7322 Z -1.0000
G03 X 16.2201 Y 16.7508 Z -1.0000 I -0.0684 J 0.0684
G01 X 16.2229 Y 16.7610 Z -1.0000
G01 X 16.2261 Y 16.7693 Z -1.0000
G01 X 16.2336 Y 16.7725 Z -1.0000
G01 X 16.2405 Y 16.7686 Z -1.0000
G01 X 16.2443 Y 16.7547 Z -1.0000
G01 X 16.2477 Y 16.7451 Z -1.0000
G01 X 16.2523 Y 16.7449 Z -1.0000
G01 X 16.2582 Y 16.7538 Z -1.0000
G01 X 16.2603 Y 16.7654 Z -1.0000
G01 X 16.2652 Y 16.7736 Z -1.0000
G02 X 16.2898 Y 16.7813 Z -1.0000 I 0.0324 J -0.0601
G02 X 16.3146 Y 16.7794 Z -1.0000 I 0.0076 J -0.0644
G01 X 16.3192 Y 16.7733 Z -1.0000
G01 X 16.3149 Y 16.7661 Z -1.0000
G01 X 16.2978 Y 16.7618 Z -1.0000
G01 X 16.2814 Y 16.7512 Z -1.0000
G01 X 16.2863 Y 16.7356 Z -1.0000
G01 X 16.3137 Y 16.7378 Z -1.0000
G01 X 16.3299 Y 16.7733 Z -1.0000
G01 X 16.3344 Y 16.7789 Z -1.0000
G02 X 16.3728 Y 16.7832 Z -1.0000 I 0.0384 J -0.1675
G02 X 16.4422 Y 16.7605 Z -1.0000 I -0.0000 J -0.1176
G01 X 16.4445 Y 16.7307 Z -1.0000
G01 X 16.4413 Y 16.7225 Z -1.0000
G01 X 16.4451 Y 16.7190 Z -1.0000
G01 X 16.4553 Y 16.7225 Z -1.0000
G01 X 16.4671 Y 16.7363 Z -1.0000
G01 X 16.4798 Y 16.7492 Z -1.0000
G02 X 16.5024 Y 16.7567 Z -1.0000 I 0.0297 J -0.0517
G03 X 16.5277 Y 16.7613 Z -1.0000 I -0.0261 J 0.2166
G03 X 16.5548 Y 16.7695 Z -1.0000 I -0.0587 J 0.2421
G02 X 16.6154 Y 16.7717 Z -1.0000 I 0.0337 J -0.0925
G01 X 16.6386 Y 16.7457 Z -1.0000
G03 X 16.6454 Y 16.7261 Z -1.0000 I 0.0591 J 0.0095
G03 X 16.6595 Y 16.7083 Z -1.0000 I 0.0634 J 0.0354
G01 X 16.6619 Y 16.7120 Z -1.0000
G01 X 16.6584 Y 16.7302 Z -1.0000
G01 X 16.6732 Y 16.7519 Z -1.0000
G02 X 16.7063 Y 16.7648 Z -1.0000 I 0.0386 J -0.0503
G01 X 16.7262 Y 16.7565 Z -1.0000
G01 X 16.7493 Y 16.7414 Z -1.0000
G01 X 16.7546 Y 16.7485 Z -1.0000
G01 X 16.7561 Y 16.7532 Z -1.0000
G02 X 16.7768 Y 16.7582 Z -1.0000 I 0.0244 J -0.0555
G03 X 16.8015 Y 16.7638 Z -1.0000 I -0.0046 J 0.0768
G01 X 16.8119 Y 16.7727 Z -1.0000
G01 X 16.8198 Y 16.7775 Z -1.0000
G01 X 16.8272 Y 16.7737 Z -1.0000
G01 X 16.8281 Y 16.7654 Z -1.0000
G01 X 16.8232 Y 16.7619 Z -1.0000
G01 X 16.8164 Y 16.7574 Z -1.0000
G03 X 16.8118 Y 16.7351 Z -1.0000 I 0.0524 J -0.0223
G03 X 16.8161 Y 16.7125 Z -1.0000 I 0.0623 J 0.0000
G01 X 16.8222 Y 16.7083 Z -1.0000
G01 X 16.8269 Y 16.7122 Z -1.0000
G01 X 16.8257 Y 16.7262 Z -1.0000
G01 X 16.8278 Y 16.7352 Z -1.0000
G01 X 16.8373 Y 16.7371 Z -1.0000
G01 X 16.8472 Y 16.7371 Z -1.0000
G01 X 16.8487 Y 16.7415 Z -1.0000
G01 X 16.8510 Y 16.7472 Z -1.0000
G02 X 16.8832 Y 16.7500 Z -1.0000 I 0.0248 J -0.1008
G03 X 16.9241 Y 16.7502 Z -1.0000 I 0.0188 J 0.2534
G01 X 16.9372 Y 16.7546 Z -1.0000
G01 X 16.9483 Y 16.7570 Z -1.0000
G01 X 16.9557 Y 16.7524 Z -1.0000
G01 X 16.9857 Y 16.7396 Z -1.0000
G01 X 17.0046 Y 16.7631 Z -1.0000
G01 X 17.0077 Y 16.7695 Z -1.0000
G01 X 17.0166 Y 16.7726 Z -1.0000
G01 X 17.0202 Y 16.7687 Z -1.0000
G01 X 17.0153 Y 16.7566 Z -1.0000
G01 X 17.0162 Y 16.7472 Z -1.0000
G01 X 17.0354 Y 16.7405 Z -1.0000
G03 X 17.0643 Y 16.7450 Z -1.0000 I -0.0000 J 0.0949
G01 X 17.0688 Y 16.7512 Z -1.0000
G01 X 17.0720 Y 16.7588 Z -1.0000
G01 X 17.0795 Y 16.7619 Z -1.0000
G01 X 17.0858 Y 16.7511 Z -1.0000
G01 X 17.0635 Y 16.7342 Z -1.0000
G03 X 17.0403 Y 16.7247 Z -1.0000 I 0.0211 J -0.0840
G01 X 17.0367 Y 16.7183 Z -1.0000
G01 X 17.0403 Y 16.7142 Z -1.0000
G01 X 17.0545 Y 16.7159 Z -1.0000
G01 X 17.0645 Y 16.7162 Z -1.0000
G01 X 17.0659 Y 16.7124 Z -1.0000
G01 X 17.0658 Y 16.7035 Z -1.0000
G01 X 17.0793 Y 16.6897 Z -1.0000
G01 X 17.0961 Y 16.6861 Z -1.0000
G01 X 17.1052 Y 16.6935 Z -1.0000
G01 X 17.1053 Y 16.7022 Z -1.0000
G01 X 17.1015 Y 16.7035 Z -1.0000
G01 X 17.0893 Y 16.7101 Z -1.0000
G01 X 17.1007 Y 16.7328 Z -1.0000
G03 X 17.1154 Y 16.7484 Z -1.0000 I -0.0307 J 0.0437
G01 X 17.1146 Y 16.7554 Z -1.0000
G01 X 17.1461 Y 16.7603 Z -1.0000
G02 X 17.1787 Y 16.7543 Z -1.0000 I -0.0092 J -0.1410
G01 X 17.1803 Y 16.7499 Z -1.0000
G01 X 17.1799 Y 16.7431 Z -1.0000
G01 X 17.1870 Y 16.7349 Z -1.0000
G01 X 17.1904 Y 16.7266 Z -1.0000
G01 X 17.1796 Y 16.7067 Z -1.0000
G01 X 17.1701 Y 16.6871 Z -1.0000
G01 X 17.1745 Y 16.6771 Z -1.0000
G01 X 17.1859 Y 16.6674 Z -1.0000
G01 X 17.1875 Y 16.6617 Z -1.0000
G03 X 17.1921 Y 16.6313 Z -1.0000 I 0.0544 J -0.0074
G01 X 17.2053 Y 16.6229 Z -1.0000
G01 X 17.2106 Y 16.6270 Z -1.0000
G01 X 17.2080 Y 16.6335 Z -1.0000
G01 X 17.2028 Y 16.6407 Z -1.0000
G01 X 17.2053 Y 16.6440 Z -1.0000
G01 X 17.2283 Y 16.6673 Z -1.0000
G01 X 17.2053 Y 16.7013 Z -1.0000
G01 X 17.2175 Y 16.7075 Z -1.0000
G03 X 17.2406 Y 16.7132 Z -1.0000 I -0.0019 J 0.0571
G01 X 17.2562 Y 16.7262 Z -1.0000
G01 X 17.2726 Y 16.7373 Z -1.0000
G02 X 17.3189 Y 16.7422 Z -1.0000 I 0.0402 J -0.1579
G03 X 17.3638 Y 16.7453 Z -1.0000 I 0.0077 J 0.2129
G01 X 17.3686 Y 16.7511 Z -1.0000
G01 X 17.3717 Y 16.7587 Z -1.0000
G01 X 17.3793 Y 16.7619 Z -1.0000
G01 X 17.3863 Y 16.7582 Z -1.0000
G01 X 17.3900 Y 16.7459 Z -1.0000
G01 X 17.3935 Y 16.7332 Z -1.0000
G01 X 17.3995 Y 16.7298 Z -1.0000
G01 X 17.4062 Y 16.7260 Z -1.0000
G02 X 17.4169 Y 16.7003 Z -1.0000 I -0.0886 J -0.0520
G01 X 17.4253 Y 16.6836 Z -1.0000
G01 X 17.4297 Y 16.6843 Z -1.0000
G01 X 17.4495 Y 16.6933 Z -1.0000
G01 X 17.4649 Y 16.6709 Z -1.0000
G02 X 17.4606 Y 16.6485 Z -1.0000 I -0.0605 J -0.0000
G01 X 17.4542 Y 16.6441 Z -1.0000
G01 X 17.4473 Y 16.6403 Z -1.0000
G01 X 17.4435 Y 16.6274 Z -1.0000
G01 X 17.4395 Y 16.6180 Z -1.0000
G01 X 17.4328 Y 16.6174 Z -1.0000
G01 X 17.4257 Y 16.6175 Z -1.0000
G01 X 17.4221 Y 16.6115 Z -1.0000
G01 X 17.4266 Y 16.6054 Z -1.0000
G01 X 17.4400 Y 16.6059 Z -1.0000
G01 X 17.4559 Y 16.6068 Z -1.0000
G01 X 17.4667 Y 16.5990 Z -1.0000
G01 X 17.4758 Y 16.5932 Z -1.0000
G01 X 17.4837 Y 16.5967 Z -1.0000
G02 X 17.5153 Y 16.6175 Z -1.0000 I 0.0422 J -0.0295
G01 X 17.5292 Y 16.6063 Z -1.0000
G01 X 17.5246 Y 16.5952 Z -1.0000
G01 X 17.5131 Y 16.5905 Z -1.0000
G01 X 17.5010 Y 16.5867 Z -1.0000
G01 X 17.4971 Y 16.5791 Z -1.0000
G01 X 17.4925 Y 16.5737 Z -1.0000
G01 X 17.4730 Y 16.5749 Z -1.0000
G01 X 17.4617 Y 16.5743 Z -1.0000
G01 X 17.4607 Y 16.5697 Z -1.0000
G01 X 17.4742 Y 16.5628 Z -1.0000
G03 X 17.5010 Y 16.5643 Z -1.0000 I 0.0095 J 0.0708
G03 X 17.5298 Y 16.5812 Z -1.0000 I -0.0146 J 0.0579
G03 X 17.5451 Y 16.6111 Z -1.0000 I -0.0437 J 0.0412
G01 X 17.5412 Y 16.6239 Z -1.0000
G01 X 17.5284 Y 16.6278 Z -1.0000
G01 X 17.5123 Y 16.6293 Z -1.0000
G01 X 17.5078 Y 16.6360 Z -1.0000
G01 X 17.4926 Y 16.6274 Z -1.0000
G01 X 17.4799 Y 16.6285 Z -1.0000
G02 X 17.4751 Y 16.6628 Z -1.0000 I 0.0495 J 0.0244
G03 X 17.4749 Y 16.7012 Z -1.0000 I -0.1013 J 0.0186
G01 X 17.4661 Y 16.7085 Z -1.0000
G01 X 17.4618 Y 16.7124 Z -1.0000
G01 X 17.4649 Y 16.7190 Z -1.0000
G01 X 17.4912 Y 16.7210 Z -1.0000
G01 X 17.5055 Y 16.7008 Z -1.0000
G03 X 17.5209 Y 16.6599 Z -1.0000 I 0.0794 J 0.0067
G01 X 17.5367 Y 16.6588 Z -1.0000
G01 X 17.5382 Y 16.6659 Z -1.0000
G01 X 17.5302 Y 16.6756 Z -1.0000
G01 X 17.5256 Y 16.6944 Z -1.0000
G01 X 17.5456 Y 16.7014 Z -1.0000
G01 X 17.5574 Y 16.7010 Z -1.0000
G01 X 17.5613 Y 16.7064 Z -1.0000
G01 X 17.5576 Y 16.7143 Z -1.0000
G01 X 17.5436 Y 16.7209 Z -1.0000
G01 X 17.5411 Y 16.7266 Z -1.0000
G01 X 17.5550 Y 16.7399 Z -1.0000
G02 X 17.5819 Y 16.7472 Z -1.0000 I 0.0294 J -0.0550
G01 X 17.5929 Y 16.7414 Z -1.0000
G01 X 17.6004 Y 16.7372 Z -1.0000
G01 X 17.6063 Y 16.7415 Z -1.0000
G01 X 17.6137 Y 16.7452 Z -1.0000
G02 X 17.6364 Y 16.7320 Z -1.0000 I -0.0181 J -0.0570
G03 X 17.6706 Y 16.7118 Z -1.0000 I 0.0626 J 0.0672
G01 X 17.6791 Y 16.7180 Z -1.0000
G01 X 17.6828 Y 16.7234 Z -1.0000
G01 X 17.6979 Y 16.7249 Z -1.0000
G01 X 17.7033 Y 16.7267 Z -1.0000
G01 X 17.6931 Y 16.7336 Z -1.0000
G01 X 17.6899 Y 16.7424 Z -1.0000
G01 X 17.6939 Y 16.7476 Z -1.0000
G01 X 17.7068 Y 16.7470 Z -1.0000
G03 X 17.7239 Y 16.7415 Z -1.0000 I 0.0581 J 0.1502
G01 X 17.7313 Y 16.7405 Z -1.0000
G01 X 17.7357 Y 16.7375 Z -1.0000
G01 X 17.7388 Y 16.7213 Z -1.0000
G01 X 17.7317 Y 16.7101 Z -1.0000
G01 X 17.7063 Y 16.7060 Z -1.0000
G01 X 17.6903 Y 16.7035 Z -1.0000
G01 X 17.6898 Y 16.6986 Z -1.0000
G01 X 17.6931 Y 16.6913 Z -1.0000
G01 X 17.6884 Y 16.6871 Z -1.0000
G01 X 17.6728 Y 16.6908 Z -1.0000
G01 X 17.6577 Y 16.7030 Z -1.0000
G01 X 17.6426 Y 16.7152 Z -1.0000
G01 X 17.6269 Y 16.7189 Z -1.0000
G01 X 17.6223 Y 16.7147 Z -1.0000
G01 X 17.6255 Y 16.7074 Z -1.0000
G01 X 17.6319 Y 16.6971 Z -1.0000
G01 X 17.6282 Y 16.6906 Z -1.0000
G01 X 17.6178 Y 16.6832 Z -1.0000
G01 X 17.6148 Y 16.6753 Z -1.0000
G01 X 17.6287 Y 16.6628 Z -1.0000
G01 X 17.6513 Y 16.6789 Z -1.0000
G01 X 17.6515 Y 16.6682 Z -1.0000
G01 X 17.6520 Y 16.6492 Z -1.0000
G01 X 17.6587 Y 16.6441 Z -1.0000
G01 X 17.6657 Y 16.6379 Z -1.0000
G01 X 17.6589 Y 16.6358 Z -1.0000
G02 X 17.6388 Y 16.6428 Z -1.0000 I 0.0122 J 0.0674
G01 X 17.6191 Y 16.6474 Z -1.0000
G01 X 17.6058 Y 16.6415 Z -1.0000
G01 X 17.6000 Y 16.6249 Z -1.0000
G01 X 17.6082 Y 16.6217 Z -1.0000
G01 X 17.6186 Y 16.6219 Z -1.0000
G01 X 17.6281 Y 16.6067 Z -1.0000
G01 X 17.6227 Y 16.5812 Z -1.0000
G01 X 17.6112 Y 16.5825 Z -1.0000
G01 X 17.6049 Y 16.5778 Z -1.0000
G01 X 17.6077 Y 16.5616 Z -1.0000
G01 X 17.6149 Y 16.5530 Z -1.0000
G01 X 17.6212 Y 16.5452 Z -1.0000
G01 X 17.6204 Y 16.5375 Z -1.0000
G01 X 17.6197 Y 16.5296 Z -1.0000
G01 X 17.6283 Y 16.5179 Z -1.0000
G01 X 17.6411 Y 16.5149 Z -1.0000
G01 X 17.6573 Y 16.5241 Z -1.0000
G01 X 17.6592 Y 16.5318 Z -1.0000
G01 X 17.6546 Y 16.5341 Z -1.0000
G01 X 17.6414 Y 16.5346 Z -1.0000
G01 X 17.6362 Y 16.5428 Z -1.0000
G01 X 17.6430 Y 16.5518 Z -1.0000
G02 X 17.6898 Y 16.5586 Z -1.0000 I 0.0468 J -0.1593
G02 X 17.7389 Y 16.5542 Z -1.0000 I -0.0000 J -0.2794
G01 X 17.7433 Y 16.5490 Z -1.0000
G01 X 17.7465 Y 16.5415 Z -1.0000
G01 X 17.7601 Y 16.5330 Z -1.0000
G01 X 17.7681 Y 16.5358 Z -1.0000
G01 X 17.7696 Y 16.5493 Z -1.0000
G01 X 17.7733 Y 16.5619 Z -1.0000
G01 X 17.7891 Y 16.5654 Z -1.0000
G03 X 17.8138 Y 16.5650 Z -1.0000 I 0.0134 J 0.0537
G01 X 17.8282 Y 16.5736 Z -1.0000
G01 X 17.8433 Y 16.5822 Z -1.0000
G02 X 17.8990 Y 16.5850 Z -1.0000 I 0.0404 J -0.2513
G03 X 17.9541 Y 16.5851 Z -1.0000 I 0.0268 J 0.4528
G01 X 17.9575 Y 16.5887 Z -1.0000
G01 X 17.9606 Y 16.5930 Z -1.0000
G02 X 17.9842 Y 16.5975 Z -1.0000 I 0.0286 J -0.0863
G02 X 18.0070 Y 16.5948 Z -1.0000 I 0.0038 J -0.0658
G01 X 18.0110 Y 16.5895 Z -1.0000
G01 X 18.0080 Y 16.5829 Z -1.0000
G01 X 18.0003 Y 16.5799 Z -1.0000
G01 X 17.9929 Y 16.5766 Z -1.0000
G01 X 17.9896 Y 16.5679 Z -1.0000
G01 X 17.9935 Y 16.5642 Z -1.0000
G01 X 18.0056 Y 16.5692 Z -1.0000
G01 X 18.0166 Y 16.5717 Z -1.0000
G01 X 18.0217 Y 16.5652 Z -1.0000
G01 X 18.0182 Y 16.5513 Z -1.0000
G01 X 18.0124 Y 16.5478 Z -1.0000
G01 X 17.9871 Y 16.5204 Z -1.0000
G03 X 18.0203 Y 16.4485 Z -1.0000 I 0.1147 J 0.0093
G01 X 18.0246 Y 16.4500 Z -1.0000
G03 X 18.0244 Y 16.4879 Z -1.0000 I -0.1735 J 0.0182
G02 X 18.0379 Y 16.5509 Z -1.0000 I 0.1008 J 0.0113
G01 X 18.0686 Y 16.5626 Z -1.0000
G01 X 18.0765 Y 16.5652 Z -1.0000
G01 X 18.0763 Y 16.5733 Z -1.0000
G01 X 18.0595 Y 16.5847 Z -1.0000
G01 X 18.0415 Y 16.5848 Z -1.0000
G01 X 18.0260 Y 16.5844 Z -1.0000
G01 X 18.0216 Y 16.5899 Z -1.0000
G01 X 18.0271 Y 16.5974 Z -1.0000
G02 X 18.0730 Y 16.6066 Z -1.0000 I 0.0628 J -0.1928
G02 X 18.1012 Y 16.6040 Z -1.0000 I 0.0067 J -0.0806
G01 X 18.1044 Y 16.5979 Z -1.0000
G01 X 18.1099 Y 16.5638 Z -1.0000
G01 X 18.1418 Y 16.5478 Z -1.0000
G01 X 18.1470 Y 16.5509 Z -1.0000
G01 X 18.1501 Y 16.5630 Z -1.0000
G01 X 18.1539 Y 16.5754 Z -1.0000
G01 X 18.1635 Y 16.5829 Z -1.0000
G01 X 18.1703 Y 16.5893 Z -1.0000
G01 X 18.1691 Y 16.5960 Z -1.0000
G01 X 18.1609 Y 16.5987 Z -1.0000
G01 X 18.1463 Y 16.5918 Z -1.0000
G01 X 18.1337 Y 16.5890 Z -1.0000
G01 X 18.1243 Y 16.5972 Z -1.0000
G02 X 18.1207 Y 16.6144 Z -1.0000 I 0.0511 J 0.0198
G01 X 18.1231 Y 16.6207 Z -1.0000
G01 X 18.1267 Y 16.6213 Z -1.0000
G01 X 18.1287 Y 16.6179 Z -1.0000
G01 X 18.1438 Y 16.6220 Z -1.0000
G01 X 18.1578 Y 16.6276 Z -1.0000
G01 X 18.1658 Y 16.6234 Z -1.0000
G01 X 18.1739 Y 16.6208 Z -1.0000
G03 X 18.2002 Y 16.6378 Z -1.0000 I -0.0346 J 0.0826
G01 X 18.2042 Y 16.6662 Z -1.0000
G01 X 18.1740 Y 16.6808 Z -1.0000
G01 X 18.1555 Y 16.6861 Z -1.0000
G02 X 18.2207 Y 16.7001 Z -1.0000 I 0.0624 J -0.1317
G01 X 18.2331 Y 16.6846 Z -1.0000
G01 X 18.2364 Y 16.6756 Z -1.0000
G01 X 18.2545 Y 16.6678 Z -1.0000
G01 X 18.2734 Y 16.6702 Z -1.0000
G01 X 18.2786 Y 16.6782 Z -1.0000
G01 X 18.3185 Y 16.7153 Z -1.0000
G02 X 18.4092 Y 16.6684 Z -1.0000 I -0.0097 J -0.1302
G01 X 18.4083 Y 16.6617 Z -1.0000
G01 X 18.3974 Y 16.6599 Z -1.0000
G01 X 18.3821 Y 16.6583 Z -1.0000
G01 X 18.3789 Y 16.6494 Z -1.0000
G01 X 18.3809 Y 16.6316 Z -1.0000
G01 X 18.3739 Y 16.6160 Z -1.0000
G01 X 18.3770 Y 16.6117 Z -1.0000
G01 X 18.3950 Y 16.6236 Z -1.0000
G01 X 18.4174 Y 16.6365 Z -1.0000
G01 X 18.4392 Y 16.6334 Z -1.0000
G03 X 18.4620 Y 16.6247 Z -1.0000 I 0.0462 J 0.0859
G01 X 18.4679 Y 16.6263 Z -1.0000
G01 X 18.4679 Y 16.6309 Z -1.0000
G03 X 18.4506 Y 16.6438 Z -1.0000 I -0.0508 J -0.0497
G01 X 18.4347 Y 16.6578 Z -1.0000
G01 X 18.4344 Y 16.6663 Z -1.0000
G01 X 18.4418 Y 16.6721 Z -1.0000
G01 X 18.4495 Y 16.6712 Z -1.0000
G01 X 18.4558 Y 16.6721 Z -1.0000
G01 X 18.4638 Y 16.6871 Z -1.0000
G01 X 18.4984 Y 16.7076 Z -1.0000
G02 X 18.5403 Y 16.6682 Z -1.0000 I -0.0140 J -0.0568
G01 X 18.5338 Y 16.6541 Z -1.0000
G01 X 18.5148 Y 16.6575 Z -1.0000
G01 X 18.5089 Y 16.6579 Z -1.0000
G01 X 18.5070 Y 16.6521 Z -1.0000
G01 X 18.5066 Y 16.6384 Z -1.0000
G01 X 18.4990 Y 16.6334 Z -1.0000
G01 X 18.4873 Y 16.6293 Z -1.0000
G01 X 18.4780 Y 16.6166 Z -1.0000
G01 X 18.4694 Y 16.6064 Z -1.0000
G01 X 18.4610 Y 16.6064 Z -1.0000
G01 X 18.4500 Y 16.6086 Z -1.0000
G03 X 18.4017 Y 16.5964 Z -1.0000 I 0.0520 J -0.3076
G02 X 18.3564 Y 16.5899 Z -1.0000 I -0.0399 J 0.1176
G01 X 18.3506 Y 16.5986 Z -1.0000
G01 X 18.3482 Y 16.6041 Z -1.0000
G01 X 18.3399 Y 16.6029 Z -1.0000
G01 X 18.3226 Y 16.5973 Z -1.0000
G01 X 18.3057 Y 16.6049 Z -1.0000
G01 X 18.3072 Y 16.6195 Z -1.0000
G02 X 18.3403 Y 16.6272 Z -1.0000 I 0.0272 J -0.0421
G01 X 18.3615 Y 16.6369 Z -1.0000
G01 X 18.3590 Y 16.6548 Z -1.0000
G01 X 18.3480 Y 16.6573 Z -1.0000
G01 X 18.3429 Y 16.6508 Z -1.0000
G01 X 18.3326 Y 16.6372 Z -1.0000
G01 X 18.3166 Y 16.6435 Z -1.0000
G01 X 18.3086 Y 16.6469 Z -1.0000
G03 X 18.2785 Y 16.6355 Z -1.0000 I 0.0214 J -0.1018
G03 X 18.2556 Y 16.6122 Z -1.0000 I 0.0296 J -0.0520
G03 X 18.2466 Y 16.5772 Z -1.0000 I 0.0641 J -0.0351
G02 X 18.2402 Y 16.5435 Z -1.0000 I -0.0921 J 0.0002
G01 X 18.2308 Y 16.5371 Z -1.0000
G01 X 18.2224 Y 16.5434 Z -1.0000
G02 X 18.2206 Y 16.5719 Z -1.0000 I 0.0622 J 0.0183
G01 X 18.2262 Y 16.6067 Z -1.0000
G01 X 18.2112 Y 16.5746 Z -1.0000
G01 X 18.2168 Y 16.5355 Z -1.0000
G03 X 18.2653 Y 16.5129 Z -1.0000 I 0.0498 J 0.0437
G03 X 18.2835 Y 16.5154 Z -1.0000 I 0.0011 J 0.0597
G03 X 18.3250 Y 16.5307 Z -1.0000 I -0.1005 J 0.3377
G02 X 18.3662 Y 16.5434 Z -1.0000 I 0.0765 J -0.1739
G01 X 18.3866 Y 16.5422 Z -1.0000
G01 X 18.4029 Y 16.5416 Z -1.0000
G01 X 18.4072 Y 16.5471 Z -1.0000
G01 X 18.4111 Y 16.5546 Z -1.0000
G01 X 18.4237 Y 16.5585 Z -1.0000
G01 X 18.4341 Y 16.5637 Z -1.0000
G01 X 18.4371 Y 16.5762 Z -1.0000
G01 X 18.4390 Y 16.5909 Z -1.0000
G01 X 18.4474 Y 16.5985 Z -1.0000
G01 X 18.4561 Y 16.5963 Z -1.0000
G01 X 18.4615 Y 16.5835 Z -1.0000
G01 X 18.4657 Y 16.5807 Z -1.0000
G01 X 18.4738 Y 16.5880 Z -1.0000
G01 X 18.4990 Y 16.6083 Z -1.0000
G01 X 18.5186 Y 16.5987 Z -1.0000
G01 X 18.5188 Y 16.6094 Z -1.0000
G01 X 18.5225 Y 16.6260 Z -1.0000
G01 X 18.5382 Y 16.6335 Z -1.0000
G02 X 18.5620 Y 16.6298 Z -1.0000 I 0.0000 J -0.0769
G01 X 18.5757 Y 16.6214 Z -1.0000
G01 X 18.6056 Y 16.6136 Z -1.0000
G01 X 18.6214 Y 16.6343 Z -1.0000
G01 X 18.6165 Y 16.6403 Z -1.0000
G01 X 18.5946 Y 16.6398 Z -1.0000
G01 X 18.5809 Y 16.6459 Z -1.0000
G01 X 18.5831 Y 16.6611 Z -1.0000
G01 X 18.6005 Y 16.6713 Z -1.0000
G02 X 18.6367 Y 16.6764 Z -1.0000 I 0.0362 J -0.1264
G01 X 18.6584 Y 16.6649 Z -1.0000
G01 X 18.6535 Y 16.6518 Z -1.0000
G01 X 18.6345 Y 16.6347 Z -1.0000
G01 X 18.6428 Y 16.6228 Z -1.0000
G01 X 18.6502 Y 16.6261 Z -1.0000
G01 X 18.6535 Y 16.6343 Z -1.0000
G01 X 18.6578 Y 16.6398 Z -1.0000
G01 X 18.6736 Y 16.6394 Z -1.0000
G01 X 18.6865 Y 16.6427 Z -1.0000
G01 X 18.6936 Y 16.6605 Z -1.0000
G02 X 18.6962 Y 16.6870 Z -1.0000 I 0.1385 J -0.0000
G01 X 18.7002 Y 16.6947 Z -1.0000
G01 X 18.7322 Y 16.6993 Z -1.0000
G02 X 18.7681 Y 16.6578 Z -1.0000 I -0.0373 J -0.0685
G03 X 18.7862 Y 16.6312 Z -1.0000 I 0.0618 J 0.0227
G01 X 18.8072 Y 16.6230 Z -1.0000
G01 X 18.8115 Y 16.6262 Z -1.0000
G01 X 18.8111 Y 16.6367 Z -1.0000
G01 X 18.8104 Y 16.6499 Z -1.0000
G02 X 18.8203 Y 16.6704 Z -1.0000 I 0.0601 J -0.0163
G03 X 18.8303 Y 16.6905 Z -1.0000 I -0.0543 J 0.0398
G01 X 18.8292 Y 16.6994 Z -1.0000
G01 X 18.8329 Y 16.7036 Z -1.0000
G02 X 18.8569 Y 16.6871 Z -1.0000 I -0.0325 J -0.0732
G01 X 18.8640 Y 16.6673 Z -1.0000
G01 X 18.8542 Y 16.6607 Z -1.0000
G01 X 18.8494 Y 16.6582 Z -1.0000
G01 X 18.8514 Y 16.6517 Z -1.0000
G03 X 18.8729 Y 16.6398 Z -1.0000 I 0.0522 J 0.0686
G01 X 18.8809 Y 16.6406 Z -1.0000
G01 X 18.8955 Y 16.6699 Z -1.0000
G01 X 18.8766 Y 16.6872 Z -1.0000
G01 X 18.8700 Y 16.6931 Z -1.0000
G01 X 18.9099 Y 16.7019 Z -1.0000
G01 X 18.9319 Y 16.6703 Z -1.0000
G01 X 18.9273 Y 16.6626 Z -1.0000
G01 X 18.9158 Y 16.6619 Z -1.0000
G01 X 18.9039 Y 16.6621 Z -1.0000
G01 X 18.8998 Y 16.6562 Z -1.0000
G01 X 18.9195 Y 16.6377 Z -1.0000
G01 X 18.9490 Y 16.6594 Z -1.0000
G01 X 18.9586 Y 16.6678 Z -1.0000
G02 X 18.9888 Y 16.6691 Z -1.0000 I 0.0183 J -0.0752
G01 X 19.0028 Y 16.6746 Z -1.0000
G01 X 19.0025 Y 16.6862 Z -1.0000
G02 X 18.9915 Y 16.7045 Z -1.0000 I 0.0404 J 0.0366
G01 X 18.9945 Y 16.7087 Z -1.0000
G01 X 19.0034 Y 16.7053 Z -1.0000
G01 X 19.0068 Y 16.6976 Z -1.0000
G01 X 19.0110 Y 16.6935 Z -1.0000
G01 X 19.0274 Y 16.6975 Z -1.0000
G01 X 19.0451 Y 16.7014 Z -1.0000
G01 X 19.0521 Y 16.6961 Z -1.0000
G01 X 19.0596 Y 16.6906 Z -1.0000
G03 X 19.0898 Y 16.6954 Z -1.0000 I 0.0016 J 0.0866
G01 X 19.1129 Y 16.6967 Z -1.0000
G01 X 19.1170 Y 16.6891 Z -1.0000
G01 X 19.1190 Y 16.6838 Z -1.0000
G01 X 19.1251 Y 16.6845 Z -1.0000
G01 X 19.1446 Y 16.6913 Z -1.0000
G01 X 19.1501 Y 16.6825 Z -1.0000
G01 X 19.1487 Y 16.6675 Z -1.0000
G03 X 19.1563 Y 16.6477 Z -1.0000 I 0.0553 J 0.0100
G01 X 19.1602 Y 16.6471 Z -1.0000
G01 X 19.1618 Y 16.6523 Z -1.0000
G01 X 19.1632 Y 16.6675 Z -1.0000
G01 X 19.1706 Y 16.6704 Z -1.0000
G01 X 19.1848 Y 16.6702 Z -1.0000
G01 X 19.2030 Y 16.6816 Z -1.0000
G01 X 19.2218 Y 16.6891 Z -1.0000
G02 X 19.2606 Y 16.6806 Z -1.0000 I -0.0017 J -0.1001
G03 X 19.3016 Y 16.6655 Z -1.0000 I 0.1363 J 0.3074
G01 X 19.3146 Y 16.6646 Z -1.0000
G01 X 19.3210 Y 16.6572 Z -1.0000
G02 X 19.3049 Y 16.6323 Z -1.0000 I -0.0509 J 0.0152
G02 X 19.2729 Y 16.6166 Z -1.0000 I -0.0455 J 0.0525
G01 X 19.2583 Y 16.6230 Z -1.0000
G01 X 19.2497 Y 16.6300 Z -1.0000
G03 X 19.2282 Y 16.6338 Z -1.0000 I -0.0219 J -0.0608
G01 X 19.2195 Y 16.6382 Z -1.0000
G01 X 19.2205 Y 16.6440 Z -1.0000
G01 X 19.2298 Y 16.6547 Z -1.0000
G01 X 19.2284 Y 16.6618 Z -1.0000
G01 X 19.2206 Y 16.6642 Z -1.0000
G01 X 19.2087 Y 16.6578 Z -1.0000
G01 X 19.1993 Y 16.6201 Z -1.0000
G03 X 19.2326 Y 16.5796 Z -1.0000 I 0.0658 J 0.0201
G01 X 19.2527 Y 16.5767 Z -1.0000
G01 X 19.2691 Y 16.5873 Z -1.0000
G01 X 19.2839 Y 16.6002 Z -1.0000
G01 X 19.2912 Y 16.5991 Z -1.0000
G01 X 19.2933 Y 16.5910 Z -1.0000
G01 X 19.2840 Y 16.5730 Z -1.0000
G01 X 19.2838 Y 16.5635 Z -1.0000
G01 X 19.2912 Y 16.5634 Z -1.0000
G01 X 19.2932 Y 16.5575 Z -1.0000
G01 X 19.2852 Y 16.5474 Z -1.0000
G01 X 19.2750 Y 16.5455 Z -1.0000
G01 X 19.2692 Y 16.5434 Z -1.0000
G01 X 19.2689 Y 16.5375 Z -1.0000
G01 X 19.2777 Y 16.5302 Z -1.0000
G03 X 19.2976 Y 16.5266 Z -1.0000 I 0.0199 J 0.0520
G01 X 19.3119 Y 16.5214 Z -1.0000
G01 X 19.3142 Y 16.5127 Z -1.0000
G01 X 19.3169 Y 16.5040 Z -1.0000
G01 X 19.3371 Y 16.4969 Z -1.0000
G01 X 19.3473 Y 16.5006 Z -1.0000
G01 X 19.3466 Y 16.5059 Z -1.0000
G01 X 19.3238 Y 16.5405 Z -1.0000
G01 X 19.3397 Y 16.5587 Z -1.0000
G01 X 19.3459 Y 16.5548 Z -1.0000
G01 X 19.3463 Y 16.5450 Z -1.0000
G01 X 19.3480 Y 16.5341 Z -1.0000
G03 X 19.3674 Y 16.5188 Z -1.0000 I 0.0429 J 0.0346
G01 X 19.3767 Y 16.5212 Z -1.0000
G01 X 19.3769 Y 16.5322 Z -1.0000
G02 X 19.3664 Y 16.5664 Z -1.0000 I 0.0543 J 0.0356
G01 X 19.3761 Y 16.5733 Z -1.0000
G01 X 19.3863 Y 16.5756 Z -1.0000
G01 X 19.3922 Y 16.5903 Z -1.0000
G01 X 19.3963 Y 16.6061 Z -1.0000
G01 X 19.4018 Y 16.6076 Z -1.0000
G01 X 19.4161 Y 16.6125 Z -1.0000
G03 X 19.4205 Y 16.6586 Z -1.0000 I -0.0856 J 0.0314
G01 X 19.4212 Y 16.6690 Z -1.0000
G01 X 19.4284 Y 16.6622 Z -1.0000
G01 X 19.4428 Y 16.6628 Z -1.0000
G01 X 19.4510 Y 16.6620 Z -1.0000
G01 X 19.4522 Y 16.6569 Z -1.0000
G01 X 19.4533 Y 16.6494 Z -1.0000
G01 X 19.4665 Y 16.6444 Z -1.0000
G01 X 19.4844 Y 16.6485 Z -1.0000
G01 X 19.4886 Y 16.6551 Z -1.0000
G01 X 19.4853 Y 16.6625 Z -1.0000
G01 X 19.4766 Y 16.6658 Z -1.0000
G01 X 19.4729 Y 16.6698 Z -1.0000
G01 X 19.4779 Y 16.6819 Z -1.0000
G02 X 19.4926 Y 16.6946 Z -1.0000 I 0.0445 J -0.0369
G01 X 19.5033 Y 16.6971 Z -1.0000
G01 X 19.5020 Y 16.6909 Z -1.0000
G01 X 19.4916 Y 16.6834 Z -1.0000
G01 X 19.4886 Y 16.6751 Z -1.0000
G01 X 19.4918 Y 16.6705 Z -1.0000
G01 X 19.4993 Y 16.6713 Z -1.0000
G01 X 19.5058 Y 16.6702 Z -1.0000
G01 X 19.5102 Y 16.6585 Z -1.0000
G01 X 19.5139 Y 16.6518 Z -1.0000
G01 X 19.5191 Y 16.6529 Z -1.0000
G01 X 19.5305 Y 16.6625 Z -1.0000
G02 X 19.5687 Y 16.6733 Z -1.0000 I 0.0662 J -0.1617
G02 X 19.5990 Y 16.6728 Z -1.0000 I 0.0137 J -0.0843
G01 X 19.6016 Y 16.6668 Z -1.0000
G01 X 19.5917 Y 16.6590 Z -1.0000
G01 X 19.5791 Y 16.6592 Z -1.0000
G01 X 19.5722 Y 16.6572 Z -1.0000
G01 X 19.5711 Y 16.6480 Z -1.0000
G01 X 19.5685 Y 16.6398 Z -1.0000
G01 X 19.5562 Y 16.6380 Z -1.0000
G01 X 19.5403 Y 16.6374 Z -1.0000
G01 X 19.5350 Y 16.6295 Z -1.0000
G01 X 19.5407 Y 16.6225 Z -1.0000
G01 X 19.5612 Y 16.6242 Z -1.0000
G01 X 19.5779 Y 16.6247 Z -1.0000
G01 X 19.5812 Y 16.6179 Z -1.0000
G01 X 19.5804 Y 16.6054 Z -1.0000
G01 X 19.5853 Y 16.6016 Z -1.0000
G01 X 19.5915 Y 16.6058 Z -1.0000
G03 X 19.5956 Y 16.6273 Z -1.0000 I -0.0530 J 0.0214
G01 X 19.6069 Y 16.6546 Z -1.0000
G01 X 19.6339 Y 16.6659 Z -1.0000
G01 X 19.6408 Y 16.6575 Z -1.0000
G02 X 19.6241 Y 16.6150 Z -1.0000 I -0.1222 J 0.0234
G01 X 19.6279 Y 16.6092 Z -1.0000
G01 X 19.6453 Y 16.6177 Z -1.0000
G02 X 19.6629 Y 16.6298 Z -1.0000 I 0.0419 J -0.0419
G01 X 19.6794 Y 16.6330 Z -1.0000
G01 X 19.6818 Y 16.6297 Z -1.0000
G01 X 19.6768 Y 16.6242 Z -1.0000
G01 X 19.6713 Y 16.6128 Z -1.0000
G03 X 19.6906 Y 16.5801 Z -1.0000 I 0.0794 J 0.0248
G02 X 19.7192 Y 16.5424 Z -1.0000 I -0.1510 J -0.1443
G01 X 19.7218 Y 16.5275 Z -1.0000
G01 X 19.7234 Y 16.5125 Z -1.0000
G03 X 19.7374 Y 16.4921 Z -1.0000 I 0.0618 J 0.0274
G02 X 19.7518 Y 16.4656 Z -1.0000 I -0.0374 J -0.0374
G02 X 19.7600 Y 16.3849 Z -1.0000 I -0.3747 J -0.0790
G01 X 19.7650 Y 16.3713 Z -1.0000
G01 X 19.7762 Y 16.3661 Z -1.0000
G01 X 19.7795 Y 16.3618 Z -1.0000
G01 X 19.7717 Y 16.3504 Z -1.0000
G01 X 19.7648 Y 16.3392 Z -1.0000
G01 X 19.7687 Y 16.3344 Z -1.0000
G01 X 19.7789 Y 16.3283 Z -1.0000
G01 X 19.7809 Y 16.3126 Z -1.0000
G01 X 19.7814 Y 16.2959 Z -1.0000
G01 X 19.7880 Y 16.2912 Z -1.0000
G01 X 19.7942 Y 16.2864 Z -1.0000
G01 X 19.7939 Y 16.2698 Z -1.0000
G01 X 19.7956 Y 16.2575 Z -1.0000
G01 X 19.8039 Y 16.2549 Z -1.0000
G01 X 19.8152 Y 16.2534 Z -1.0000
G01 X 19.8206 Y 16.2428 Z -1.0000
G01 X 19.8257 Y 16.2352 Z -1.0000
G01 X 19.8356 Y 16.2367 Z -1.0000
G01 X 19.8502 Y 16.2416 Z -1.0000
G01 X 19.8650 Y 16.2353 Z -1.0000
G01 X 19.8813 Y 16.2255 Z -1.0000
G03 X 19.9106 Y 16.2199 Z -1.0000 I 0.0349 J 0.1033
G01 X 19.9310 Y 16.2253 Z -1.0000
G02 X 19.8963 Y 16.2656 Z -1.0000 I 0.0518 J 0.0795
G01 X 19.9059 Y 16.2805 Z -1.0000
G01 X 19.9132 Y 16.2767 Z -1.0000
G01 X 19.9170 Y 16.2644 Z -1.0000
G01 X 19.9220 Y 16.2535 Z -1.0000
G01 X 19.9357 Y 16.2485 Z -1.0000
G01 X 19.9410 Y 16.2525 Z -1.0000
G01 X 19.9387 Y 16.2587 Z -1.0000
G01 X 19.9347 Y 16.2674 Z -1.0000
G01 X 19.9414 Y 16.2757 Z -1.0000
G03 X 19.9567 Y 16.2850 Z -1.0000 I -0.0181 J 0.0470
G01 X 19.9599 Y 16.2920 Z -1.0000
G01 X 19.9564 Y 16.2962 Z -1.0000
G01 X 19.9438 Y 16.2951 Z -1.0000
G01 X 19.9319 Y 16.2949 Z -1.0000
G01 X 19.9278 Y 16.3008 Z -1.0000
G01 X 19.9317 Y 16.3087 Z -1.0000
G01 X 19.9438 Y 16.3127 Z -1.0000
G01 X 19.9531 Y 16.3246 Z -1.0000
G01 X 19.9358 Y 16.3444 Z -1.0000
G01 X 19.9327 Y 16.3505 Z -1.0000
G01 X 19.9385 Y 16.3552 Z -1.0000
G01 X 19.9653 Y 16.3563 Z -1.0000
G01 X 19.9397 Y 16.3704 Z -1.0000
G01 X 19.9250 Y 16.3849 Z -1.0000
G01 X 19.9269 Y 16.3924 Z -1.0000
G01 X 19.9320 Y 16.4015 Z -1.0000
G01 X 19.9270 Y 16.4154 Z -1.0000
G01 X 19.9250 Y 16.4255 Z -1.0000
G01 X 19.9318 Y 16.4305 Z -1.0000
G01 X 19.9443 Y 16.4354 Z -1.0000
G01 X 19.9492 Y 16.4465 Z -1.0000
G01 X 19.9545 Y 16.4572 Z -1.0000
G01 X 19.9706 Y 16.4626 Z -1.0000
G01 X 19.9876 Y 16.4670 Z -1.0000
G01 X 19.9920 Y 16.4747 Z -1.0000
G01 X 19.9869 Y 16.4805 Z -1.0000
G03 X 19.9575 Y 16.4798 Z -1.0000 I -0.0127 J -0.0861
G01 X 19.9375 Y 16.4807 Z -1.0000
G01 X 19.9361 Y 16.4860 Z -1.0000
G01 X 19.9448 Y 16.5073 Z -1.0000
G01 X 19.9358 Y 16.5135 Z -1.0000
G01 X 19.9224 Y 16.5118 Z -1.0000
G02 X 19.9010 Y 16.5170 Z -1.0000 I 0.0081 J 0.0791
G01 X 19.8985 Y 16.5222 Z -1.0000
G01 X 19.9037 Y 16.5262 Z -1.0000
G01 X 19.9169 Y 16.5387 Z -1.0000
G01 X 19.9071 Y 16.5638 Z -1.0000
G02 X 19.8925 Y 16.5840 Z -1.0000 I 0.0401 J 0.0443
G01 X 19.8922 Y 16.5976 Z -1.0000
G01 X 19.8907 Y 16.6077 Z -1.0000
G01 X 19.8807 Y 16.6126 Z -1.0000
G01 X 19.8684 Y 16.6175 Z -1.0000
G01 X 19.8635 Y 16.6287 Z -1.0000
G01 X 19.8719 Y 16.6369 Z -1.0000
G01 X 19.8923 Y 16.6282 Z -1.0000
G03 X 19.9089 Y 16.6168 Z -1.0000 I 0.0385 J 0.0385
G01 X 19.9154 Y 16.6181 Z -1.0000
G01 X 19.9164 Y 16.6238 Z -1.0000
G01 X 19.9090 Y 16.6324 Z -1.0000
G01 X 19.9058 Y 16.6411 Z -1.0000
G01 X 19.9175 Y 16.6586 Z -1.0000
G02 X 19.9403 Y 16.6709 Z -1.0000 I 0.0394 J -0.0460
G01 X 19.9439 Y 16.6661 Z -1.0000
G01 X 19.9444 Y 16.6594 Z -1.0000
G01 X 19.9531 Y 16.6554 Z -1.0000
G01 X 19.9665 Y 16.6592 Z -1.0000
G01 X 19.9751 Y 16.6688 Z -1.0000
G01 X 19.9814 Y 16.6732 Z -1.0000
G01 X 19.9872 Y 16.6699 Z -1.0000
G01 X 19.9956 Y 16.6631 Z -1.0000
G01 X 20.0140 Y 16.6631 Z -1.0000
G01 X 20.0292 Y 16.6611 Z -1.0000
G01 X 20.0349 Y 16.6513 Z -1.0000
G01 X 20.0408 Y 16.6401 Z -1.0000
G01 X 20.0590 Y 16.6348 Z -1.0000
G01 X 20.0697 Y 16.6410 Z -1.0000
G01 X 20.0631 Y 16.6555 Z -1.0000
G01 X 20.0772 Y 16.6630 Z -1.0000
G01 X 20.0951 Y 16.6631 Z -1.0000
G01 X 20.1022 Y 16.6699 Z -1.0000
G01 X 20.1121 Y 16.6520 Z -1.0000
G01 X 20.1105 Y 16.6307 Z -1.0000
G01 X 20.1035 Y 16.6275 Z -1.0000
G01 X 20.0907 Y 16.6284 Z -1.0000
G01 X 20.0828 Y 16.6228 Z -1.0000
G01 X 20.0847 Y 16.6171 Z -1.0000
G03 X 20.1083 Y 16.6125 Z -1.0000 I 0.0236 J 0.0582
G01 X 20.1300 Y 16.6203 Z -1.0000
G01 X 20.1344 Y 16.6338 Z -1.0000
G01 X 20.1468 Y 16.6673 Z -1.0000
G01 X 20.1711 Y 16.6592 Z -1.0000
G01 X 20.1778 Y 16.6535 Z -1.0000
G03 X 20.2066 Y 16.6531 Z -1.0000 I 0.0157 J 0.0922
G02 X 20.2371 Y 16.6526 Z -1.0000 I 0.0138 J -0.0932
G01 X 20.2545 Y 16.6445 Z -1.0000
G01 X 20.2667 Y 16.6392 Z -1.0000
G01 X 20.2705 Y 16.6426 Z -1.0000
G01 X 20.3022 Y 16.6727 Z -1.0000
G02 X 20.4423 Y 16.6337 Z -1.0000 I -0.0172 J -0.3328
G01 X 20.4703 Y 16.6292 Z -1.0000
G01 X 20.4739 Y 16.6393 Z -1.0000
G01 X 20.4778 Y 16.6483 Z -1.0000
G01 X 20.4976 Y 16.6409 Z -1.0000
G01 X 20.5119 Y 16.6351 Z -1.0000
G01 X 20.5260 Y 16.6413 Z -1.0000
G01 X 20.5414 Y 16.6509 Z -1.0000
G01 X 20.5578 Y 16.6508 Z -1.0000
G03 X 20.5759 Y 16.6472 Z -1.0000 I 0.0278 J 0.0908
G03 X 20.6319 Y 16.6431 Z -1.0000 I 0.0954 J 0.9331
G02 X 20.6833 Y 16.6359 Z -1.0000 I -0.0112 J -0.2661
G01 X 20.6889 Y 16.6293 Z -1.0000
G01 X 20.6973 Y 16.6372 Z -1.0000
G01 X 20.7080 Y 16.6438 Z -1.0000
G01 X 20.7311 Y 16.6338 Z -1.0000
G03 X 20.7595 Y 16.6191 Z -1.0000 I 0.0446 J 0.0515
G03 X 20.7950 Y 16.6182 Z -1.0000 I 0.0200 J 0.0815
G03 X 20.8305 Y 16.6284 Z -1.0000 I -0.0366 J 0.1943
G01 X 20.8389 Y 16.6354 Z -1.0000
G01 X 20.8475 Y 16.6401 Z -1.0000
G02 X 20.8925 Y 16.6351 Z -1.0000 I -0.0012 J -0.2121
G03 X 20.9399 Y 16.6263 Z -1.0000 I 0.1461 J 0.6549
G03 X 20.9558 Y 16.6256 Z -1.0000 I 0.0113 J 0.0761
G02 X 21.0202 Y 16.6189 Z -1.0000 I 0.0125 J -0.1926
G01 X 21.0316 Y 16.6045 Z -1.0000
G01 X 21.0432 Y 16.6153 Z -1.0000
G02 X 21.0564 Y 16.6379 Z -1.0000 I 0.0698 J -0.0254
G01 X 21.0633 Y 16.6390 Z -1.0000
G01 X 21.0681 Y 16.6317 Z -1.0000
G01 X 21.0666 Y 16.6175 Z -1.0000
G01 X 21.0679 Y 16.6068 Z -1.0000
G01 X 21.0775 Y 16.6018 Z -1.0000
G01 X 21.0870 Y 16.6069 Z -1.0000
G01 X 21.0882 Y 16.6179 Z -1.0000
G01 X 21.0939 Y 16.6256 Z -1.0000
G02 X 21.1243 Y 16.6153 Z -1.0000 I -0.0046 J -0.0638
G01 X 21.1421 Y 16.6100 Z -1.0000
G01 X 21.1457 Y 16.6153 Z -1.0000
G01 X 21.1541 Y 16.6280 Z -1.0000
G02 X 21.2271 Y 16.6190 Z -1.0000 I 0.0099 J -0.2188
G01 X 21.2710 Y 16.6136 Z -1.0000
G01 X 21.2732 Y 16.6187 Z -1.0000
G02 X 21.3187 Y 16.6233 Z -1.0000 I 0.0455 J -0.2225
G02 X 21.3684 Y 16.6166 Z -1.0000 I -0.0000 J -0.1880
G01 X 21.3821 Y 16.6058 Z -1.0000
G01 X 21.3942 Y 16.5971 Z -1.0000
G01 X 21.4121 Y 16.6001 Z -1.0000
G01 X 21.4146 Y 16.6073 Z -1.0000
G01 X 21.4076 Y 16.6122 Z -1.0000
G01 X 21.3905 Y 16.6167 Z -1.0000
G01 X 21.3889 Y 16.6224 Z -1.0000
G01 X 21.3971 Y 16.6268 Z -1.0000
G02 X 21.4328 Y 16.6218 Z -1.0000 I -0.0018 J -0.1400
G03 X 21.4705 Y 16.6155 Z -1.0000 I 0.0492 J 0.1792
G03 X 21.4942 Y 16.6180 Z -1.0000 I 0.0045 J 0.0724
G01 X 21.5019 Y 16.6130 Z -1.0000
G01 X 21.5032 Y 16.6081 Z -1.0000
G03 X 21.5420 Y 16.6083 Z -1.0000 I 0.0188 J 0.1607
G02 X 21.5965 Y 16.6095 Z -1.0000 I 0.0334 J -0.2681
G01 X 21.6133 Y 16.6027 Z -1.0000
G01 X 21.6274 Y 16.5968 Z -1.0000
G01 X 21.6350 Y 16.6006 Z -1.0000
G01 X 21.6523 Y 16.6098 Z -1.0000
G02 X 21.7613 Y 16.5960 Z -1.0000 I -0.0226 J -0.6143
G03 X 21.7857 Y 16.5945 Z -1.0000 I 0.0168 J 0.0760
G01 X 21.7877 Y 16.5986 Z -1.0000
G01 X 21.7896 Y 16.6038 Z -1.0000
G02 X 21.8178 Y 16.6083 Z -1.0000 I 0.0282 J -0.0870
G01 X 21.8503 Y 16.6024 Z -1.0000
G01 X 21.9982 Y 16.5975 Z -1.0000
G02 X 22.1486 Y 16.5948 Z -1.0000 I 0.0199 J -3.1562
G01 X 22.1605 Y 16.5908 Z -1.0000
G03 X 22.2256 Y 16.5707 Z -1.0000 I 0.0627 J 0.0877
G03 X 22.2788 Y 16.5935 Z -1.0000 I -0.0018 J 0.0777
G02 X 22.3642 Y 16.6240 Z -1.0000 I 0.0750 J -0.0750
G02 X 22.4212 Y 16.5793 Z -1.0000 I -0.0066 J -0.0671
G01 X 22.4268 Y 16.5756 Z -1.0000
G01 X 22.4389 Y 16.5804 Z -1.0000
G01 X 22.4519 Y 16.5852 Z -1.0000
G01 X 22.4600 Y 16.5807 Z -1.0000
G01 X 22.4683 Y 16.5744 Z -1.0000
G01 X 22.4773 Y 16.5756 Z -1.0000
G02 X 22.5591 Y 16.5995 Z -1.0000 I 0.0840 J -0.1360
G02 X 22.7413 Y 16.5792 Z -1.0000 I 0.0103 J -0.7376
G03 X 22.7908 Y 16.5725 Z -1.0000 I 0.0600 J 0.2552
G03 X 22.9475 Y 16.5714 Z -1.0000 I 0.0943 J 2.3619
G02 X 22.9742 Y 16.5715 Z -1.0000 I 0.0160 J -0.6418
G02 X 22.9957 Y 16.5706 Z -1.0000 I -0.0070 J -0.4132
G03 X 23.0171 Y 16.5697 Z -1.0000 I 0.0270 J 0.3922
G03 X 23.0886 Y 16.5692 Z -1.0000 I 0.0715 J 5.0202
G02 X 23.1541 Y 16.5614 Z -1.0000 I 0.0004 J -0.2765
G01 X 23.1650 Y 16.5507 Z -1.0000
G01 X 23.1711 Y 16.5496 Z -1.0000
G01 X 23.1791 Y 16.5591 Z -1.0000
G02 X 23.2232 Y 16.5623 Z -1.0000 I 0.0314 J -0.1295
G03 X 23.2741 Y 16.5588 Z -1.0000 I 0.0836 J 0.8663
G03 X 23.3295 Y 16.5583 Z -1.0000 I 0.0386 J 1.0268
G02 X 23.3825 Y 16.5545 Z -1.0000 I 0.0049 J -0.3032
G01 X 23.3917 Y 16.5483 Z -1.0000
G01 X 23.4073 Y 16.5413 Z -1.0000
G03 X 23.4357 Y 16.5561 Z -1.0000 I -0.0093 J 0.0525
G01 X 23.4521 Y 16.5652 Z -1.0000
G01 X 23.4588 Y 16.5615 Z -1.0000
G01 X 23.4675 Y 16.5541 Z -1.0000
G03 X 23.5486 Y 16.5482 Z -1.0000 I 0.0811 J 0.5487
G02 X 23.6248 Y 16.5430 Z -1.0000 I 0.0000 J -0.5660
G01 X 23.6274 Y 16.5375 Z -1.0000
G01 X 23.6309 Y 16.5320 Z -1.0000
G03 X 23.6710 Y 16.5425 Z -1.0000 I -0.0168 J 0.1465
G01 X 23.7032 Y 16.5495 Z -1.0000
G01 X 23.7054 Y 16.5453 Z -1.0000
G03 X 23.7965 Y 16.5451 Z -1.0000 I 0.0481 J 1.0131
G02 X 23.8776 Y 16.5434 Z -1.0000 I 0.0275 J -0.6431
G01 X 23.8790 Y 16.5382 Z -1.0000
G01 X 23.8733 Y 16.5302 Z -1.0000
G01 X 23.8757 Y 16.5269 Z -1.0000
G01 X 23.8868 Y 16.5298 Z -1.0000
G01 X 23.8955 Y 16.5382 Z -1.0000
G02 X 23.9603 Y 16.5725 Z -1.0000 I 0.0616 J -0.0379
G02 X 24.1084 Y 16.5289 Z -1.0000 I -0.0139 J -0.3209
G03 X 24.1653 Y 16.5125 Z -1.0000 I 0.0608 J 0.1038
G01 X 24.1735 Y 16.5267 Z -1.0000
G01 X 24.2762 Y 16.5322 Z -1.0000
G02 X 24.3780 Y 16.5280 Z -1.0000 I 0.0000 J -1.2450
G01 X 24.3823 Y 16.5234 Z -1.0000
G01 X 24.3858 Y 16.5195 Z -1.0000
G01 X 24.4037 Y 16.5214 Z -1.0000
G01 X 24.4193 Y 16.5202 Z -1.0000
G01 X 24.4251 Y 16.5107 Z -1.0000
G01 X 24.4293 Y 16.5008 Z -1.0000
G01 X 24.4360 Y 16.5000 Z -1.0000
G01 X 24.4421 Y 16.5079 Z -1.0000
G01 X 24.4410 Y 16.5163 Z -1.0000
G01 X 24.4476 Y 16.5281 Z -1.0000
G02 X 24.6808 Y 16.5164 Z -1.0000 I -0.0012 J -2.3580
G01 X 24.6715 Y 16.4999 Z -1.0000
G01 X 24.6663 Y 16.4839 Z -1.0000
G01 X 24.6733 Y 16.4862 Z -1.0000
G03 X 24.6863 Y 16.4993 Z -1.0000 I -0.0431 J 0.0563
G02 X 24.7296 Y 16.5246 Z -1.0000 I 0.0529 J -0.0408
G02 X 24.7999 Y 16.5158 Z -1.0000 I 0.0191 J -0.1320
G03 X 24.8379 Y 16.5077 Z -1.0000 I 0.0415 J 0.1018
G03 X 25.1350 Y 16.5052 Z -1.0000 I 0.2000 J 6.2492
G01 X 25.1864 Y 16.5060 Z -1.0000
G01 X 25.1672 Y 16.4766 Z -1.0000
G01 X 25.1640 Y 16.4572 Z -1.0000
G02 X 25.1806 Y 16.4654 Z -1.0000 I 0.0488 J -0.0781
G02 X 25.1984 Y 16.4700 Z -1.0000 I 0.0317 J -0.0852
G01 X 25.2076 Y 16.4571 Z -1.0000
G01 X 25.1818 Y 16.4382 Z -1.0000
G01 X 25.1749 Y 16.4321 Z -1.0000
G01 X 25.1778 Y 16.4256 Z -1.0000
G01 X 25.1958 Y 16.4242 Z -1.0000
G03 X 25.2196 Y 16.4371 Z -1.0000 I -0.0160 J 0.0580
G01 X 25.2324 Y 16.4407 Z -1.0000
G01 X 25.2366 Y 16.4343 Z -1.0000
G01 X 25.2422 Y 16.4276 Z -1.0000
G03 X 25.2677 Y 16.4364 Z -1.0000 I -0.0035 J 0.0514
G02 X 25.3051 Y 16.4555 Z -1.0000 I 0.0963 J -0.1419
G01 X 25.3199 Y 16.4554 Z -1.0000
G01 X 25.3303 Y 16.4568 Z -1.0000
G01 X 25.3353 Y 16.4667 Z -1.0000
G01 X 25.3392 Y 16.4801 Z -1.0000
G01 X 25.3460 Y 16.4839 Z -1.0000
G01 X 25.3538 Y 16.4809 Z -1.0000
G01 X 25.3567 Y 16.4741 Z -1.0000
G01 X 25.3579 Y 16.4645 Z -1.0000
G03 X 25.3632 Y 16.4472 Z -1.0000 I 0.1344 J 0.0322
G01 X 25.3614 Y 16.4386 Z -1.0000
G01 X 25.3525 Y 16.4368 Z -1.0000
G01 X 25.3395 Y 16.4372 Z -1.0000
G01 X 25.3353 Y 16.4316 Z -1.0000
G01 X 25.3532 Y 16.4137 Z -1.0000
G03 X 25.3966 Y 16.4317 Z -1.0000 I -0.0002 J 0.0615
G01 X 25.4035 Y 16.4449 Z -1.0000
G01 X 25.4021 Y 16.4612 Z -1.0000
G01 X 25.4045 Y 16.4661 Z -1.0000
G01 X 25.4131 Y 16.4643 Z -1.0000
G01 X 25.4405 Y 16.4594 Z -1.0000
G01 X 25.4463 Y 16.4756 Z -1.0000
G01 X 25.4469 Y 16.4794 Z -1.0000
G01 X 25.4515 Y 16.4796 Z -1.0000
G01 X 25.4579 Y 16.4629 Z -1.0000
G01 X 25.4416 Y 16.4462 Z -1.0000
G03 X 25.4249 Y 16.4378 Z -1.0000 I 0.0180 J -0.0564
G01 X 25.4246 Y 16.4339 Z -1.0000
G01 X 25.4399 Y 16.4317 Z -1.0000
G03 X 25.4902 Y 16.4691 Z -1.0000 I -0.1020 J 0.1898
G01 X 25.5075 Y 16.4802 Z -1.0000
G01 X 25.5151 Y 16.4784 Z -1.0000
G01 X 25.5162 Y 16.4719 Z -1.0000
G01 X 25.5092 Y 16.4655 Z -1.0000
G01 X 25.4986 Y 16.4588 Z -1.0000
G01 X 25.4959 Y 16.4522 Z -1.0000
G01 X 25.5145 Y 16.4356 Z -1.0000
G03 X 25.5747 Y 16.4613 Z -1.0000 I -0.0130 J 0.1137
G01 X 25.5886 Y 16.4681 Z -1.0000
G01 X 25.5922 Y 16.4652 Z -1.0000
G01 X 25.6029 Y 16.4497 Z -1.0000
G03 X 25.6913 Y 16.4267 Z -1.0000 I 0.1424 J 0.3660
G03 X 25.7265 Y 16.4267 Z -1.0000 I 0.0175 J 0.1258
G01 X 25.7314 Y 16.4324 Z -1.0000
G01 X 25.7451 Y 16.4400 Z -1.0000
G02 X 25.8038 Y 16.3885 Z -1.0000 I -0.1166 J -0.1922
G01 X 25.8121 Y 16.3702 Z -1.0000
G02 X 25.8120 Y 16.3416 Z -1.0000 I -0.0810 J -0.0143
G03 X 25.8125 Y 16.3202 Z -1.0000 I 0.0544 J -0.0096
G01 X 25.8172 Y 16.3182 Z -1.0000
G01 X 25.8244 Y 16.3181 Z -1.0000
G01 X 25.8288 Y 16.3107 Z -1.0000
G03 X 25.8300 Y 16.2967 Z -1.0000 I 0.4722 J 0.0337
G03 X 25.8340 Y 16.2592 Z -1.0000 I 3.6892 J 0.3738
G02 X 25.8433 Y 16.1095 Z -1.0000 I -1.5369 J -0.1709
G01 X 25.8361 Y 16.1054 Z -1.0000
G01 X 25.8320 Y 16.1036 Z -1.0000
G01 X 25.8328 Y 16.0889 Z -1.0000
G02 X 25.8591 Y 15.9372 Z -1.0000 I -0.5440 J -0.1727
G01 X 25.8392 Y 15.9165 Z -1.0000
G01 X 25.8260 Y 15.8996 Z -1.0000
G03 X 25.8536 Y 15.8605 Z -1.0000 I 0.0653 J 0.0168
G01 X 25.8557 Y 15.8555 Z -1.0000
G01 X 25.8522 Y 15.8525 Z -1.0000
G01 X 25.8456 Y 15.8465 Z -1.0000
G03 X 25.8443 Y 15.7854 Z -1.0000 I 0.3144 J -0.0372
G02 X 25.8477 Y 15.7096 Z -1.0000 I -1.2080 J -0.0923
G02 X 25.8467 Y 15.6044 Z -1.0000 I -2.2667 J -0.0309
G01 X 25.8510 Y 15.5162 Z -1.0000
G01 X 25.8573 Y 15.5164 Z -1.0000
G01 X 25.8660 Y 15.5082 Z -1.0000
G01 X 25.8656 Y 15.5038 Z -1.0000
G01 X 25.8614 Y 15.5033 Z -1.0000
G01 X 25.8544 Y 15.5013 Z -1.0000
G01 X 25.8491 Y 15.4791 Z -1.0000
G03 X 25.8541 Y 15.4508 Z -1.0000 I 0.0825 J 0.0000
G01 X 25.8625 Y 15.4425 Z -1.0000
G01 X 25.8663 Y 15.4354 Z -1.0000
G02 X 25.8549 Y 15.4142 Z -1.0000 I -0.0505 J 0.0136
G03 X 25.8415 Y 15.3914 Z -1.0000 I 0.0505 J -0.0448
G01 X 25.8442 Y 15.3832 Z -1.0000
G01 X 25.8501 Y 15.3735 Z -1.0000
G02 X 25.8548 Y 15.3116 Z -1.0000 I -0.4354 J -0.0646
G03 X 25.8588 Y 15.2481 Z -1.0000 I 0.5768 J 0.0037
G03 X 25.8647 Y 15.2268 Z -1.0000 I 0.0698 J 0.0082
G01 X 25.8639 Y 15.2127 Z -1.0000
G01 X 25.8473 Y 15.2034 Z -1.0000
G03 X 25.8648 Y 15.0934 Z -1.0000 I 0.3728 J 0.0028
G01 X 25.8637 Y 15.0737 Z -1.0000
G01 X 25.8588 Y 15.0717 Z -1.0000
G03 X 25.8545 Y 15.0385 Z -1.0000 I 0.1254 J -0.0332
G03 X 25.8582 Y 15.0045 Z -1.0000 I 0.1562 J -0.0000
G01 X 25.8625 Y 15.0027 Z -1.0000
G01 X 25.8671 Y 15.0017 Z -1.0000
G01 X 25.8705 Y 14.9910 Z -1.0000
G01 X 25.8667 Y 14.9781 Z -1.0000
G01 X 25.8598 Y 14.9743 Z -1.0000
G01 X 25.8543 Y 14.9700 Z -1.0000
G01 X 25.8537 Y 14.9502 Z -1.0000
G01 X 25.8600 Y 14.9261 Z -1.0000
G01 X 25.8660 Y 14.8244 Z -1.0000
G03 X 25.8704 Y 14.7227 Z -1.0000 I 27.0707 J 1.1128
G03 X 25.8733 Y 14.6611 Z -1.0000 I 11.5815 J 0.5197
G02 X 25.8729 Y 14.6029 Z -1.0000 I -0.5064 J -0.0254
G01 X 25.8693 Y 14.5995 Z -1.0000
G01 X 25.8640 Y 14.5970 Z -1.0000
G03 X 25.8558 Y 14.5829 Z -1.0000 I 0.0397 J -0.0325
G01 X 25.8557 Y 14.5739 Z -1.0000
G01 X 25.8596 Y 14.5726 Z -1.0000
G01 X 25.8649 Y 14.5708 Z -1.0000
G02 X 25.8680 Y 14.5491 Z -1.0000 I -0.0513 J -0.0184
G03 X 25.8689 Y 14.5196 Z -1.0000 I 0.1610 J -0.0096
G03 X 25.8749 Y 14.4938 Z -1.0000 I 0.1270 J 0.0157
G01 X 25.8752 Y 14.4788 Z -1.0000
G01 X 25.8699 Y 14.4768 Z -1.0000
G01 X 25.8648 Y 14.4752 Z -1.0000
G01 X 25.8648 Y 14.4648 Z -1.0000
G02 X 25.8801 Y 14.4049 Z -1.0000 I -0.1987 J -0.0829
G01 X 25.8722 Y 14.3961 Z -1.0000
G01 X 25.8659 Y 14.3923 Z -1.0000
G01 X 25.8653 Y 14.3827 Z -1.0000
G02 X 25.8842 Y 14.2794 Z -1.0000 I -0.3132 J -0.1108
G01 X 25.8684 Y 14.2502 Z -1.0000
G01 X 25.8638 Y 14.2437 Z -1.0000
G01 X 25.8651 Y 14.2357 Z -1.0000
G02 X 25.8888 Y 14.1569 Z -1.0000 I -0.1356 J -0.0838
G02 X 25.8693 Y 14.1001 Z -1.0000 I -0.0848 J -0.0026
G01 X 25.8678 Y 14.0906 Z -1.0000
G01 X 25.8753 Y 14.0856 Z -1.0000
G01 X 25.8856 Y 14.0813 Z -1.0000
G01 X 25.8864 Y 14.0744 Z -1.0000
G03 X 25.8439 Y 13.9289 Z -1.0000 I 0.2387 J -0.1485
G03 X 25.8817 Y 13.6358 Z -1.0000 I 1.0676 J -0.0116
G01 X 25.8824 Y 13.6305 Z -1.0000
G02 X 25.8860 Y 13.3136 Z -1.0000 I -79.8749 J -1.0501
G03 X 25.8921 Y 12.9976 Z -1.0000 I 15.2637 J 0.1401
G01 X 25.8960 Y 12.9850 Z -1.0000
G01 X 25.8977 Y 12.9747 Z -1.0000
G01 X 25.8921 Y 12.9666 Z -1.0000
G01 X 25.8862 Y 12.9585 Z -1.0000
G01 X 25.8879 Y 12.9487 Z -1.0000
G02 X 25.9112 Y 12.8693 Z -1.0000 I -0.1317 J -0.0818
G02 X 25.9032 Y 11.9815 Z -1.0000 I -18.0263 J -0.2814
G03 X 25.9022 Y 11.9175 Z -1.0000 I 1.7384 J -0.0590
G01 X 25.9033 Y 11.9119 Z -1.0000
G02 X 25.9344 Y 11.7632 Z -1.0000 I -0.3653 J -0.1541
G02 X 25.9138 Y 11.1249 Z -1.0000 I -6.9462 J -0.0953
G03 X 25.9126 Y 11.1035 Z -1.0000 I 0.5480 J -0.0430
G03 X 25.9126 Y 11.0928 Z -1.0000 I 0.1186 J -0.0047
G02 X 25.9130 Y 11.0820 Z -1.0000 I -0.4125 J -0.0185
G02 X 25.9185 Y 10.7822 Z -1.0000 I -433.8940 J -8.1937
G03 X 25.9349 Y 9.9195 Z -1.0000 I 485.3205 J 8.7929
G03 X 25.9405 Y 9.6793 Z -1.0000 I 37.3050 J 0.7422
G02 X 25.9447 Y 9.4652 Z -1.0000 I -16.0546 J -0.4225
G02 X 25.9451 Y 9.3206 Z -1.0000 I -7.0429 J -0.0914
G03 X 25.9448 Y 9.1761 Z -1.0000 I 15.4496 J -0.1057
G03 X 25.9455 Y 9.1332 Z -1.0000 I 1.3576 J 0.0034
G02 X 25.9469 Y 9.0904 Z -1.0000 I -14.1407 J -0.4826
G02 X 25.9515 Y 8.9405 Z -1.0000 I -194.4993 J -6.0476
G03 X 25.9563 Y 8.7906 Z -1.0000 I 54.9030 J 1.6647
G03 X 25.9567 Y 8.7799 Z -1.0000 I 0.6005 J 0.0198
G02 X 25.9568 Y 8.7692 Z -1.0000 I -0.1140 J -0.0063
G02 X 25.9536 Y 8.6976 Z -1.0000 I -5.7763 J 0.2220
G03 X 25.9549 Y 8.6344 Z -1.0000 I 0.4452 J -0.0231
G01 X 25.9595 Y 8.6321 Z -1.0000
G01 X 25.9609 Y 8.6126 Z -1.0000
G03 X 25.9546 Y 8.5870 Z -1.0000 I 0.1868 J -0.0601
G01 X 25.9544 Y 8.5764 Z -1.0000
G02 X 25.9567 Y 8.5505 Z -1.0000 I -0.1848 J -0.0288
G02 X 25.9715 Y 7.4693 Z -1.0000 I -333.9377 J -5.1132
G03 X 25.9804 Y 6.9089 Z -1.0000 I 70.4481 J 0.8447
G01 X 25.9828 Y 6.9008 Z -1.0000
G01 X 25.9852 Y 6.8928 Z -1.0000
G02 X 25.9895 Y 6.6779 Z -1.0000 I -10.0097 J -0.3078
G03 X 25.9961 Y 6.4705 Z -1.0000 I 4.8514 J 0.0491
G01 X 26.0007 Y 6.4681 Z -1.0000
G01 X 26.0057 Y 6.4667 Z -1.0000
G01 X 26.0097 Y 6.4510 Z -1.0000
G01 X 26.0052 Y 6.4363 Z -1.0000
G01 X 25.9989 Y 6.4349 Z -1.0000
G01 X 25.9923 Y 6.4342 Z -1.0000
G01 X 25.9882 Y 6.4248 Z -1.0000
G01 X 25.9920 Y 6.4119 Z -1.0000
G01 X 25.9989 Y 6.4081 Z -1.0000
G01 X 26.0048 Y 6.4034 Z -1.0000
G02 X 26.0082 Y 6.3626 Z -1.0000 I -0.1733 J -0.0353
G01 X 26.0068 Y 6.3171 Z -1.0000
G01 X 25.9989 Y 6.3546 Z -1.0000
G01 X 25.9896 Y 6.3273 Z -1.0000
G03 X 25.9931 Y 6.2645 Z -1.0000 I 0.4081 J -0.0089
G01 X 25.9999 Y 6.2509 Z -1.0000
G01 X 26.0044 Y 6.2401 Z -1.0000
G01 X 25.9999 Y 6.2320 Z -1.0000
G01 X 25.9822 Y 6.2006 Z -1.0000
G01 X 25.9993 Y 6.1833 Z -1.0000
G01 X 26.0038 Y 6.1792 Z -1.0000
G01 X 26.0010 Y 6.1645 Z -1.0000
G03 X 25.9951 Y 6.1451 Z -1.0000 I 0.0535 J -0.0270
G03 X 25.9944 Y 6.1137 Z -1.0000 I 0.1479 J -0.0188
G02 X 25.9968 Y 6.0815 Z -1.0000 I -1.5627 J -0.1327
G02 X 25.9982 Y 6.0548 Z -1.0000 I -1.1425 J -0.0734
G01 X 26.0037 Y 6.0432 Z -1.0000
G01 X 26.0105 Y 6.0441 Z -1.0000
G01 X 26.0144 Y 6.0343 Z -1.0000
G03 X 25.9987 Y 5.9276 Z -1.0000 I 0.3994 J -0.1133
G03 X 26.0117 Y 5.8700 Z -1.0000 I 0.1248 J -0.0020
G01 X 26.0143 Y 5.8555 Z -1.0000
G01 X 26.0096 Y 5.8513 Z -1.0000
G01 X 26.0053 Y 5.8471 Z -1.0000
G01 X 26.0092 Y 5.8306 Z -1.0000
G02 X 26.0177 Y 5.8092 Z -1.0000 I -0.0897 J -0.0480
G02 X 26.0201 Y 5.7904 Z -1.0000 I -0.0670 J -0.0182
G01 X 26.0160 Y 5.7848 Z -1.0000
G01 X 26.0096 Y 5.7870 Z -1.0000
G01 X 26.0022 Y 5.7847 Z -1.0000
G03 X 26.0107 Y 5.7529 Z -1.0000 I 0.0720 J 0.0023
G01 X 26.0107 Y 5.7382 Z -1.0000
G01 X 26.0025 Y 5.7391 Z -1.0000
G01 X 25.9989 Y 5.7341 Z -1.0000
G01 X 26.0021 Y 5.7260 Z -1.0000
G01 X 26.0096 Y 5.7228 Z -1.0000
G01 X 26.0166 Y 5.7190 Z -1.0000
G01 X 26.0203 Y 5.7067 Z -1.0000
G01 X 26.0169 Y 5.6941 Z -1.0000
G01 X 26.0108 Y 5.6906 Z -1.0000
G01 X 26.0019 Y 5.6815 Z -1.0000
G03 X 26.0146 Y 5.5033 Z -1.0000 I 1.7521 J 0.0355
G02 X 26.0192 Y 5.4147 Z -1.0000 I -0.6106 J -0.0755
G01 X 26.0126 Y 5.4094 Z -1.0000
G01 X 26.0063 Y 5.4064 Z -1.0000
G01 X 26.0057 Y 5.3961 Z -1.0000
G01 X 26.0141 Y 5.3834 Z -1.0000
G01 X 26.0221 Y 5.3801 Z -1.0000
G01 X 26.0267 Y 5.3771 Z -1.0000
G01 X 26.0263 Y 5.3704 Z -1.0000
G03 X 25.9920 Y 5.2534 Z -1.0000 I 0.1955 J -0.1208
G03 X 26.0207 Y 5.0359 Z -1.0000 I 0.7467 J -0.0122
G02 X 26.0235 Y 5.0097 Z -1.0000 I -0.0757 J -0.0215
G01 X 26.0189 Y 5.0053 Z -1.0000
G01 X 26.0143 Y 5.0020 Z -1.0000
G01 X 26.0154 Y 4.9939 Z -1.0000
G01 X 26.0194 Y 4.9816 Z -1.0000
G02 X 26.0227 Y 4.9109 Z -1.0000 I -0.8240 J -0.0728
G02 X 26.0159 Y 4.8293 Z -1.0000 I -0.4776 J -0.0017
G02 X 26.0020 Y 4.7886 Z -1.0000 I -0.1310 J 0.0222
G01 X 26.0143 Y 4.7871 Z -1.0000
G01 X 26.0268 Y 4.7874 Z -1.0000
