%
(Header)
(Generated by gcodetools from Inkscape.)
(Using default header. To add your own header create file "header" in the output dir.)
M3
(Header end.)
G21 (All units in mm)

(Start cutting path id: path32156)
(Change tool to Default tool)

G00 Z 5.0000
G00 X 27.1048 Y 17.0607

G01 Z -1.0000 F 100.0000(Penetrate)
G01 X 27.1091 Y 17.0641 Z -1.0000 F 3500.0000
G01 X 27.1217 Y 17.0660 Z -1.0000
G01 X 27.1332 Y 17.0639 Z -1.0000
G01 X 27.1354 Y 17.0607 Z -1.0000
G01 X 27.1332 Y 17.0577 Z -1.0000
G01 X 27.1185 Y 17.0554 Z -1.0000
G01 X 27.1048 Y 17.0607 Z -1.0000
G01 X 27.1048 Y 17.0607 Z -1.0000
G00 Z 5.0000

(End cutting path id: path32156)


(Start cutting path id: path32156)
(Change tool to Default tool)

G00 Z 5.0000
G00 X 27.1353 Y 17.0691

G01 Z -1.0000 F 100.0000(Penetrate)
G03 X 27.0963 Y 17.0750 Z -1.0000 I -0.0678 J -0.3152 F 3500.0000
G03 X 27.0731 Y 17.0748 Z -1.0000 I -0.0105 J -0.1168
G02 X 27.0505 Y 17.0755 Z -1.0000 I -0.0090 J 0.0769
G01 X 27.0344 Y 17.0817 Z -1.0000
G01 X 27.0180 Y 17.0873 Z -1.0000
G03 X 26.9508 Y 17.0897 Z -1.0000 I -0.0540 J -0.5672
G02 X 26.8889 Y 17.0926 Z -1.0000 I -0.0100 J 0.4460
G01 X 26.8861 Y 17.0973 Z -1.0000
G01 X 26.8807 Y 17.1093 Z -1.0000
G03 X 26.8502 Y 17.1112 Z -1.0000 I -0.0183 J -0.0470
G01 X 26.8353 Y 17.1105 Z -1.0000
G01 X 26.8296 Y 17.1142 Z -1.0000
G01 X 26.8235 Y 17.1186 Z -1.0000
G03 X 26.7777 Y 17.1261 Z -1.0000 I -0.0843 J -0.3706
G02 X 26.7309 Y 17.1333 Z -1.0000 I 0.0441 J 0.4426
G02 X 26.7119 Y 17.1397 Z -1.0000 I 0.0173 J 0.0831
G03 X 26.6929 Y 17.1451 Z -1.0000 I -0.0260 J -0.0546
G03 X 26.6608 Y 17.1456 Z -1.0000 I -0.0183 J -0.1560
G02 X 26.6330 Y 17.1480 Z -1.0000 I -0.0070 J 0.0793
G01 X 26.6280 Y 17.1545 Z -1.0000
G01 X 26.6248 Y 17.1615 Z -1.0000
G01 X 26.6183 Y 17.1626 Z -1.0000
G01 X 26.6092 Y 17.1617 Z -1.0000
G01 X 26.6020 Y 17.1655 Z -1.0000
G01 X 26.5924 Y 17.1708 Z -1.0000
G03 X 26.5329 Y 17.1817 Z -1.0000 I -0.1400 J -0.5942
G02 X 26.4664 Y 17.1950 Z -1.0000 I 0.0682 J 0.5125
G01 X 26.4657 Y 17.1998 Z -1.0000
G01 X 26.4385 Y 17.2025 Z -1.0000
G02 X 26.4069 Y 17.2045 Z -1.0000 I -0.0085 J 0.1166
G01 X 26.4025 Y 17.2098 Z -1.0000
G01 X 26.3939 Y 17.2225 Z -1.0000
G03 X 26.3286 Y 17.2395 Z -1.0000 I -0.0989 J -0.2463
G02 X 26.3009 Y 17.2451 Z -1.0000 I 0.0258 J 0.2000
G02 X 26.2792 Y 17.2531 Z -1.0000 I 0.0361 J 0.1313
G03 X 26.2575 Y 17.2613 Z -1.0000 I -0.0611 J -0.1293
G03 X 26.2176 Y 17.2708 Z -1.0000 I -0.1246 J -0.4348
G02 X 26.1796 Y 17.2806 Z -1.0000 I 0.0598 J 0.3098
G01 X 26.1770 Y 17.2841 Z -1.0000
G01 X 26.1744 Y 17.2875 Z -1.0000
G03 X 26.1238 Y 17.2987 Z -1.0000 I -0.1370 J -0.4976
G01 X 26.0797 Y 17.3141 Z -1.0000
G01 X 26.0608 Y 17.3156 Z -1.0000
G01 X 26.0375 Y 17.3162 Z -1.0000
G01 X 26.0334 Y 17.3332 Z -1.0000
G03 X 25.9106 Y 17.3618 Z -1.0000 I -0.1837 J -0.5107
G01 X 25.9127 Y 17.3689 Z -1.0000
G01 X 25.9118 Y 17.3736 Z -1.0000
G01 X 25.8973 Y 17.3799 Z -1.0000
G02 X 25.8781 Y 17.3855 Z -1.0000 I 0.0281 J 0.1324
G02 X 25.8592 Y 17.3941 Z -1.0000 I 0.0539 J 0.1444
G03 X 25.8400 Y 17.4015 Z -1.0000 I -0.0382 J -0.0703
G03 X 25.7993 Y 17.4088 Z -1.0000 I -0.0783 J -0.3206
G02 X 25.7591 Y 17.4157 Z -1.0000 I 0.0408 J 0.3580
G01 X 25.7541 Y 17.4191 Z -1.0000
G01 X 25.7493 Y 17.4230 Z -1.0000
G03 X 25.7304 Y 17.4283 Z -1.0000 I -0.0377 J -0.0984
G02 X 25.7113 Y 17.4340 Z -1.0000 I 0.0161 J 0.0890
G01 X 25.6988 Y 17.4416 Z -1.0000
G03 X 25.6728 Y 17.4568 Z -1.0000 I -0.0557 J -0.0657
G03 X 25.6186 Y 17.4711 Z -1.0000 I -0.1029 J -0.2802
G02 X 25.5951 Y 17.4778 Z -1.0000 I 0.0176 J 0.1063
G01 X 25.5922 Y 17.4821 Z -1.0000
G01 X 25.5897 Y 17.4866 Z -1.0000
G03 X 25.5746 Y 17.4931 Z -1.0000 I -0.0276 J -0.0438
G02 X 25.5595 Y 17.4994 Z -1.0000 I 0.0131 J 0.0528
G01 X 25.5570 Y 17.5038 Z -1.0000
G01 X 25.5544 Y 17.5075 Z -1.0000
G01 X 25.5398 Y 17.5101 Z -1.0000
G02 X 25.5239 Y 17.5126 Z -1.0000 I 0.0000 J 0.0507
G01 X 25.5182 Y 17.5171 Z -1.0000
G01 X 25.5125 Y 17.5216 Z -1.0000
G01 X 25.4970 Y 17.5241 Z -1.0000
G02 X 25.4531 Y 17.5330 Z -1.0000 I 0.0000 J 0.1129
G01 X 25.4442 Y 17.5463 Z -1.0000
G01 X 25.4418 Y 17.5499 Z -1.0000
G01 X 25.4300 Y 17.5522 Z -1.0000
G02 X 25.4162 Y 17.5538 Z -1.0000 I 0.0000 J 0.0603
G02 X 25.4036 Y 17.5584 Z -1.0000 I 0.0130 J 0.0554
G03 X 25.3913 Y 17.5643 Z -1.0000 I -0.1182 J -0.2329
G03 X 25.3456 Y 17.5842 Z -1.0000 I -1.4884 J -3.3577
G02 X 25.2999 Y 17.6040 Z -1.0000 I 1.8763 J 4.3925
G02 X 25.2645 Y 17.6198 Z -1.0000 I 1.1627 J 2.6452
G03 X 25.2289 Y 17.6347 Z -1.0000 I -0.2631 J -0.5795
G03 X 25.2102 Y 17.6406 Z -1.0000 I -0.0562 J -0.1469
G02 X 25.1925 Y 17.6473 Z -1.0000 I 0.0187 J 0.0756
G01 X 25.1829 Y 17.6551 Z -1.0000
G01 X 25.1737 Y 17.6628 Z -1.0000
G01 X 25.1651 Y 17.6650 Z -1.0000
G01 X 25.1559 Y 17.6668 Z -1.0000
G02 X 25.1120 Y 17.6861 Z -1.0000 I 0.2446 J 0.6152
G03 X 25.0680 Y 17.7059 Z -1.0000 I -0.3819 J -0.7888
G01 X 25.0573 Y 17.7090 Z -1.0000
G01 X 25.0468 Y 17.7124 Z -1.0000
G02 X 25.0249 Y 17.7257 Z -1.0000 I 0.0853 J 0.1653
G03 X 25.0027 Y 17.7384 Z -1.0000 I -0.0785 J -0.1117
G03 X 24.9804 Y 17.7458 Z -1.0000 I -0.0466 J -0.1030
G02 X 24.9594 Y 17.7537 Z -1.0000 I 0.0164 J 0.0749
G01 X 24.9533 Y 17.7608 Z -1.0000
G01 X 24.9475 Y 17.7679 Z -1.0000
G01 X 24.9382 Y 17.7707 Z -1.0000
G02 X 24.8093 Y 17.8005 Z -1.0000 I -0.0000 J 0.2935
G02 X 24.7176 Y 17.8786 Z -1.0000 I 0.1066 J 0.2181
G01 X 24.7126 Y 17.8829 Z -1.0000
G01 X 24.7085 Y 17.8834 Z -1.0000
G01 X 24.6825 Y 17.8847 Z -1.0000
G02 X 24.6550 Y 17.9045 Z -1.0000 I 0.0250 J 0.0637
G01 X 24.6509 Y 17.9078 Z -1.0000
G03 X 24.5247 Y 17.9723 Z -1.0000 I -4.4098 J -8.4785
G02 X 24.3436 Y 18.0657 Z -1.0000 I 4.0719 J 8.1200
G02 X 24.3203 Y 18.0806 Z -1.0000 I 0.0780 J 0.1472
G01 X 24.3127 Y 18.0850 Z -1.0000
G03 X 24.2868 Y 18.0945 Z -1.0000 I -0.1336 J -0.3236
G02 X 24.2631 Y 18.1050 Z -1.0000 I 0.0395 J 0.1221
G01 X 24.2604 Y 18.1095 Z -1.0000
G01 X 24.2581 Y 18.1137 Z -1.0000
G01 X 24.2502 Y 18.1160 Z -1.0000
G01 X 24.2414 Y 18.1187 Z -1.0000
G01 X 24.2309 Y 18.1290 Z -1.0000
G01 X 24.2197 Y 18.1395 Z -1.0000
G03 X 24.1953 Y 18.1507 Z -1.0000 I -0.0609 J -0.1001
G02 X 24.1703 Y 18.1610 Z -1.0000 I 0.0604 J 0.1821
G01 X 24.1650 Y 18.1658 Z -1.0000
G01 X 24.1596 Y 18.1700 Z -1.0000
G01 X 24.1448 Y 18.1723 Z -1.0000
G01 X 24.1302 Y 18.1757 Z -1.0000
G01 X 24.1160 Y 18.1864 Z -1.0000
G03 X 24.1020 Y 18.1978 Z -1.0000 I -0.0427 J -0.0383
G01 X 24.0918 Y 18.2005 Z -1.0000
G01 X 24.0810 Y 18.2026 Z -1.0000
G02 X 24.0645 Y 18.2116 Z -1.0000 I 0.0319 J 0.0782
G03 X 24.0479 Y 18.2207 Z -1.0000 I -0.0489 J -0.0698
G03 X 24.0295 Y 18.2259 Z -1.0000 I -0.0332 J -0.0809
G02 X 24.0112 Y 18.2315 Z -1.0000 I 0.0128 J 0.0751
G02 X 23.9912 Y 18.2431 Z -1.0000 I 0.0454 J 0.1016
G03 X 23.9712 Y 18.2542 Z -1.0000 I -0.0573 J -0.0792
G01 X 23.9577 Y 18.2569 Z -1.0000
G01 X 23.9460 Y 18.2596 Z -1.0000
G01 X 23.9433 Y 18.2639 Z -1.0000
G01 X 23.9409 Y 18.2685 Z -1.0000
G01 X 23.9330 Y 18.2709 Z -1.0000
G02 X 23.8868 Y 18.2809 Z -1.0000 I -0.0000 J 0.1118
G01 X 23.8670 Y 18.3009 Z -1.0000
G01 X 23.8632 Y 18.3043 Z -1.0000
G03 X 23.8370 Y 18.3106 Z -1.0000 I -0.0527 J -0.1617
G02 X 23.8114 Y 18.3167 Z -1.0000 I 0.0267 J 0.1692
G01 X 23.8094 Y 18.3194 Z -1.0000
G01 X 23.8076 Y 18.3225 Z -1.0000
G03 X 23.7865 Y 18.3332 Z -1.0000 I -0.0778 J -0.1276
G02 X 23.7638 Y 18.3430 Z -1.0000 I 0.3516 J 0.8519
G02 X 23.7193 Y 18.3631 Z -1.0000 I 1.4102 J 3.1724
G03 X 23.6745 Y 18.3818 Z -1.0000 I -0.2757 J -0.5974
G01 X 23.6647 Y 18.3836 Z -1.0000
G01 X 23.6565 Y 18.3857 Z -1.0000
G01 X 23.6544 Y 18.3893 Z -1.0000
G01 X 23.6447 Y 18.4049 Z -1.0000
G03 X 23.5945 Y 18.4189 Z -1.0000 I -0.0624 J -0.1261
G01 X 23.5878 Y 18.4207 Z -1.0000
G02 X 23.5734 Y 18.4286 Z -1.0000 I 0.0485 J 0.1055
G03 X 23.4889 Y 18.4765 Z -1.0000 I -0.4504 J -0.6953
G03 X 23.4645 Y 18.4822 Z -1.0000 I -0.0244 J -0.0496
G01 X 23.4527 Y 18.4849 Z -1.0000
G01 X 23.4500 Y 18.4891 Z -1.0000
G01 X 23.4474 Y 18.4940 Z -1.0000
G03 X 23.4324 Y 18.5005 Z -1.0000 I -0.0271 J -0.0421
G02 X 23.4173 Y 18.5067 Z -1.0000 I 0.0131 J 0.0528
G01 X 23.4148 Y 18.5112 Z -1.0000
G01 X 23.4126 Y 18.5153 Z -1.0000
G01 X 23.4051 Y 18.5175 Z -1.0000
G02 X 23.3545 Y 18.5282 Z -1.0000 I -0.0000 J 0.1242
G02 X 23.3269 Y 18.5523 Z -1.0000 I 0.0254 J 0.0568
G01 X 23.3218 Y 18.5569 Z -1.0000
G03 X 23.3027 Y 18.5631 Z -1.0000 I -0.0411 J -0.0933
G02 X 23.2839 Y 18.5702 Z -1.0000 I 0.0154 J 0.0690
G02 X 23.2700 Y 18.5813 Z -1.0000 I 0.0262 J 0.0474
G03 X 23.2565 Y 18.5925 Z -1.0000 I -0.0468 J -0.0424
G01 X 23.2479 Y 18.5950 Z -1.0000
G01 X 23.2386 Y 18.5967 Z -1.0000
G02 X 23.2034 Y 18.6126 Z -1.0000 I 0.1497 J 0.3796
G03 X 23.1682 Y 18.6284 Z -1.0000 I -0.1811 J -0.3569
G01 X 23.1584 Y 18.6302 Z -1.0000
G01 X 23.1496 Y 18.6322 Z -1.0000
G01 X 23.1458 Y 18.6362 Z -1.0000
G03 X 23.0586 Y 18.7312 Z -1.0000 I -0.1680 J -0.0668
G03 X 22.8595 Y 18.7782 Z -1.0000 I -0.1991 J -0.3984
G01 X 22.8533 Y 18.7804 Z -1.0000
G01 X 22.8510 Y 18.7852 Z -1.0000
G01 X 22.8483 Y 18.7895 Z -1.0000
G01 X 22.8374 Y 18.7922 Z -1.0000
G01 X 22.8249 Y 18.7943 Z -1.0000
G01 X 22.8198 Y 18.7985 Z -1.0000
G01 X 22.8147 Y 18.8035 Z -1.0000
G03 X 22.7648 Y 18.8305 Z -1.0000 I -0.4814 J -0.8304
G02 X 22.7138 Y 18.8565 Z -1.0000 I 2.0812 J 4.1388
G02 X 22.6960 Y 18.8661 Z -1.0000 I 0.2670 J 0.5151
G03 X 22.6781 Y 18.8754 Z -1.0000 I -0.1283 J -0.2263
G03 X 22.6555 Y 18.8851 Z -1.0000 I -0.1729 J -0.3691
G02 X 22.6347 Y 18.8957 Z -1.0000 I 0.0465 J 0.1173
G01 X 22.6326 Y 18.8996 Z -1.0000
G01 X 22.6306 Y 18.9029 Z -1.0000
G01 X 22.6228 Y 18.9049 Z -1.0000
G01 X 22.6134 Y 18.9067 Z -1.0000
G02 X 22.5703 Y 18.9260 Z -1.0000 I 0.2243 J 0.5576
G03 X 22.5274 Y 18.9457 Z -1.0000 I -0.3429 J -0.6908
G01 X 22.5203 Y 18.9471 Z -1.0000
G01 X 22.5148 Y 18.9491 Z -1.0000
G01 X 22.5129 Y 18.9531 Z -1.0000
G01 X 22.5105 Y 18.9576 Z -1.0000
G03 X 22.4847 Y 18.9718 Z -1.0000 I -0.1007 J -0.1520
G02 X 22.4584 Y 18.9858 Z -1.0000 I 0.0982 J 0.2175
G01 X 22.4565 Y 18.9891 Z -1.0000
G01 X 22.4546 Y 18.9923 Z -1.0000
G03 X 22.4301 Y 19.0031 Z -1.0000 I -0.0881 J -0.1662
G02 X 22.4046 Y 19.0138 Z -1.0000 I 0.0852 J 0.2381
G01 X 22.4001 Y 19.0177 Z -1.0000
G01 X 22.3958 Y 19.0218 Z -1.0000
G03 X 22.3684 Y 19.0369 Z -1.0000 I -0.1991 J -0.3297
G02 X 22.2384 Y 19.1043 Z -1.0000 I 2.0135 J 4.0450
G02 X 22.2252 Y 19.1140 Z -1.0000 I 0.0268 J 0.0498
G03 X 22.2139 Y 19.1234 Z -1.0000 I -0.0537 J -0.0537
G03 X 22.2000 Y 19.1310 Z -1.0000 I -0.0502 J -0.0747
G02 X 22.1856 Y 19.1382 Z -1.0000 I 0.0792 J 0.1782
G02 X 22.1500 Y 19.1585 Z -1.0000 I 0.5654 J 1.0331
G03 X 22.1145 Y 19.1789 Z -1.0000 I -0.8683 J -1.4632
G03 X 22.0936 Y 19.1901 Z -1.0000 I -0.2784 J -0.4960
G02 X 22.0728 Y 19.2014 Z -1.0000 I 0.2029 J 0.3999
G02 X 22.0513 Y 19.2144 Z -1.0000 I 0.2575 J 0.4473
G03 X 22.0295 Y 19.2259 Z -1.0000 I -0.0766 J -0.1188
G01 X 22.0179 Y 19.2285 Z -1.0000
G01 X 22.0076 Y 19.2310 Z -1.0000
G01 X 22.0055 Y 19.2343 Z -1.0000
G01 X 22.0021 Y 19.2402 Z -1.0000
G03 X 21.8857 Y 19.3048 Z -1.0000 I -1.3219 J -2.2433
G02 X 21.8122 Y 19.3443 Z -1.0000 I 1.7454 J 3.3407
G02 X 21.8012 Y 19.3514 Z -1.0000 I 0.0450 J 0.0818
G03 X 21.7830 Y 19.3633 Z -1.0000 I -0.1004 J -0.1334
G03 X 21.7096 Y 19.4033 Z -1.0000 I -1.2149 J -2.1478
G02 X 21.6640 Y 19.4276 Z -1.0000 I 1.3205 J 2.5315
G02 X 21.6215 Y 19.4512 Z -1.0000 I 1.2404 J 2.2766
G03 X 21.5789 Y 19.4748 Z -1.0000 I -1.0061 J -1.7654
G03 X 21.5405 Y 19.4949 Z -1.0000 I -0.7882 J -1.4634
G02 X 21.5023 Y 19.5151 Z -1.0000 I 0.4980 J 0.9863
G01 X 21.4947 Y 19.5203 Z -1.0000
G03 X 21.4760 Y 19.5332 Z -1.0000 I -0.0814 J -0.0977
G03 X 21.3678 Y 19.5923 Z -1.0000 I -1.8833 J -3.3226
G02 X 21.3192 Y 19.6192 Z -1.0000 I 0.5927 J 1.1292
G02 X 21.3079 Y 19.6271 Z -1.0000 I 0.0395 J 0.0678
G03 X 21.2966 Y 19.6347 Z -1.0000 I -0.0384 J -0.0455
G03 X 21.2798 Y 19.6414 Z -1.0000 I -0.0468 J -0.0915
G02 X 21.2634 Y 19.6487 Z -1.0000 I 0.0211 J 0.0699
G02 X 21.2255 Y 19.6740 Z -1.0000 I 0.2447 J 0.4078
G03 X 21.1881 Y 19.6993 Z -1.0000 I -0.3192 J -0.4321
G01 X 21.1814 Y 19.7012 Z -1.0000
G01 X 21.1761 Y 19.7032 Z -1.0000
G01 X 21.1741 Y 19.7077 Z -1.0000
G01 X 21.1714 Y 19.7123 Z -1.0000
G03 X 21.1494 Y 19.7223 Z -1.0000 I -0.0573 J -0.0969
G02 X 21.1273 Y 19.7323 Z -1.0000 I 0.0362 J 0.1092
G01 X 21.1247 Y 19.7368 Z -1.0000
G01 X 21.1223 Y 19.7416 Z -1.0000
G03 X 21.1018 Y 19.7535 Z -1.0000 I -0.0672 J -0.0921
G02 X 21.0455 Y 19.7837 Z -1.0000 I 0.1878 J 0.4184
G01 X 21.0310 Y 19.7981 Z -1.0000
G01 X 21.0243 Y 19.8048 Z -1.0000
G01 X 21.0173 Y 19.8069 Z -1.0000
G02 X 20.9826 Y 19.8174 Z -1.0000 I -0.0000 J 0.0623
G02 X 20.9465 Y 19.8544 Z -1.0000 I 0.0706 J 0.1052
G01 X 20.9396 Y 19.8610 Z -1.0000
G01 X 20.9311 Y 19.8632 Z -1.0000
G01 X 20.9224 Y 19.8655 Z -1.0000
G02 X 20.9005 Y 19.8808 Z -1.0000 I 0.0735 J 0.1283
G03 X 20.8789 Y 19.8966 Z -1.0000 I -0.1261 J -0.1497
G01 X 20.8727 Y 19.8984 Z -1.0000
G01 X 20.8666 Y 19.9003 Z -1.0000
G01 X 20.8570 Y 19.9090 Z -1.0000
G01 X 20.8469 Y 19.9169 Z -1.0000
G01 X 20.8352 Y 19.9196 Z -1.0000
G01 X 20.8234 Y 19.9226 Z -1.0000
G02 X 20.7991 Y 19.9397 Z -1.0000 I 0.0682 J 0.1234
G03 X 20.7676 Y 19.9628 Z -1.0000 I -0.1605 J -0.1851
G03 X 20.7196 Y 19.9889 Z -1.0000 I -0.2507 J -0.4047
G02 X 20.7063 Y 19.9968 Z -1.0000 I 0.0318 J 0.0689
G02 X 20.6867 Y 20.0130 Z -1.0000 I 0.1327 J 0.1796
G03 X 20.6667 Y 20.0282 Z -1.0000 I -0.0850 J -0.0913
G03 X 20.6512 Y 20.0347 Z -1.0000 I -0.0292 J -0.0478
G02 X 20.6355 Y 20.0411 Z -1.0000 I 0.0144 J 0.0578
G02 X 20.6030 Y 20.0630 Z -1.0000 I 0.1603 J 0.2734
G03 X 20.5706 Y 20.0855 Z -1.0000 I -0.2587 J -0.3376
G03 X 20.5275 Y 20.1104 Z -1.0000 I -0.3570 J -0.5682
G02 X 20.4858 Y 20.1351 Z -1.0000 I 0.2379 J 0.4490
G01 X 20.4835 Y 20.1394 Z -1.0000
G01 X 20.4815 Y 20.1430 Z -1.0000
G01 X 20.4743 Y 20.1451 Z -1.0000
G01 X 20.4657 Y 20.1471 Z -1.0000
G02 X 20.4432 Y 20.1609 Z -1.0000 I 0.0758 J 0.1486
G03 X 20.2885 Y 20.2665 Z -1.0000 I -1.9135 J -2.6369
G01 X 20.2702 Y 20.2719 Z -1.0000
G01 X 20.2650 Y 20.2735 Z -1.0000
G02 X 20.2505 Y 20.2849 Z -1.0000 I 0.0597 J 0.0906
G03 X 20.2358 Y 20.2967 Z -1.0000 I -0.0959 J -0.1040
G03 X 20.2177 Y 20.3078 Z -1.0000 I -0.0949 J -0.1355
G02 X 20.1434 Y 20.3512 Z -1.0000 I 0.4399 J 0.8387
G02 X 20.0666 Y 20.4054 Z -1.0000 I 0.6149 J 0.9509
G03 X 20.0474 Y 20.4184 Z -1.0000 I -0.1126 J -0.1468
G01 X 20.0418 Y 20.4199 Z -1.0000
G01 X 20.0366 Y 20.4218 Z -1.0000
G02 X 20.0255 Y 20.4340 Z -1.0000 I 0.0456 J 0.0529
G03 X 20.0140 Y 20.4456 Z -1.0000 I -0.0420 J -0.0302
G01 X 20.0063 Y 20.4481 Z -1.0000
G01 X 19.9981 Y 20.4502 Z -1.0000
G02 X 19.9845 Y 20.4604 Z -1.0000 I 0.0325 J 0.0576
G03 X 19.9708 Y 20.4714 Z -1.0000 I -0.0662 J -0.0682
G03 X 19.9457 Y 20.4862 Z -1.0000 I -0.1484 J -0.2237
G02 X 19.9217 Y 20.5008 Z -1.0000 I 0.0952 J 0.1838
G01 X 19.9198 Y 20.5045 Z -1.0000
G01 X 19.9177 Y 20.5082 Z -1.0000
G03 X 19.8739 Y 20.5326 Z -1.0000 I -0.3251 J -0.5298
G02 X 19.8294 Y 20.5575 Z -1.0000 I 0.2951 J 0.5815
G01 X 19.8202 Y 20.5654 Z -1.0000
G01 X 19.8113 Y 20.5727 Z -1.0000
G01 X 19.8009 Y 20.5755 Z -1.0000
G01 X 19.7989 Y 20.5798 Z -1.0000
G01 X 19.7997 Y 20.5839 Z -1.0000
G03 X 19.7812 Y 20.5970 Z -1.0000 I -0.0502 J -0.0512
G02 X 19.7251 Y 20.6280 Z -1.0000 I 0.3247 J 0.6545
G01 X 19.7162 Y 20.6368 Z -1.0000
G01 X 19.7106 Y 20.6421 Z -1.0000
G03 X 19.6801 Y 20.6580 Z -1.0000 I -0.1645 J -0.2782
G02 X 19.6495 Y 20.6741 Z -1.0000 I 0.1307 J 0.2850
G02 X 19.6343 Y 20.6856 Z -1.0000 I 0.0471 J 0.0784
G03 X 19.6170 Y 20.6985 Z -1.0000 I -0.0671 J -0.0721
G03 X 19.5382 Y 20.7417 Z -1.0000 I -0.8537 J -1.4612
G02 X 19.5206 Y 20.7526 Z -1.0000 I 0.0614 J 0.1188
G02 X 19.5109 Y 20.7618 Z -1.0000 I 0.0320 J 0.0437
G01 X 19.5012 Y 20.7700 Z -1.0000
G01 X 19.4936 Y 20.7722 Z -1.0000
G01 X 19.4859 Y 20.7743 Z -1.0000
G02 X 19.4646 Y 20.7898 Z -1.0000 I 0.0805 J 0.1335
G03 X 19.4431 Y 20.8049 Z -1.0000 I -0.0880 J -0.1021
G01 X 19.4335 Y 20.8074 Z -1.0000
G01 X 19.4241 Y 20.8103 Z -1.0000
G02 X 19.3961 Y 20.8321 Z -1.0000 I 0.1225 J 0.1857
G03 X 19.3683 Y 20.8540 Z -1.0000 I -0.1578 J -0.1717
G01 X 19.3594 Y 20.8567 Z -1.0000
G01 X 19.3506 Y 20.8591 Z -1.0000
G02 X 19.3369 Y 20.8701 Z -1.0000 I 0.0316 J 0.0535
G03 X 19.3230 Y 20.8819 Z -1.0000 I -0.0569 J -0.0530
G03 X 19.2926 Y 20.8997 Z -1.0000 I -0.1714 J -0.2580
G02 X 19.2615 Y 20.9166 Z -1.0000 I 0.2943 J 0.5768
G01 X 19.2573 Y 20.9202 Z -1.0000
G01 X 19.2532 Y 20.9237 Z -1.0000
G03 X 19.2221 Y 20.9407 Z -1.0000 I -0.3442 J -0.5931
G02 X 19.1913 Y 20.9584 Z -1.0000 I 0.1880 J 0.3642
G02 X 19.1657 Y 20.9764 Z -1.0000 I 0.1619 J 0.2564
G03 X 19.1402 Y 20.9941 Z -1.0000 I -0.1550 J -0.1969
G03 X 19.1256 Y 21.0006 Z -1.0000 I -0.0343 J -0.0570
G01 X 19.1127 Y 21.0080 Z -1.0000
G01 X 19.1059 Y 21.0185 Z -1.0000
G01 X 19.0990 Y 21.0291 Z -1.0000
G03 X 19.0784 Y 21.0427 Z -1.0000 I -0.0589 J -0.0672
G02 X 19.0561 Y 21.0553 Z -1.0000 I 0.0719 J 0.1519
G01 X 19.0461 Y 21.0645 Z -1.0000
G01 X 19.0361 Y 21.0729 Z -1.0000
G01 X 19.0275 Y 21.0752 Z -1.0000
G01 X 19.0201 Y 21.0776 Z -1.0000
G01 X 19.0178 Y 21.0822 Z -1.0000
G01 X 19.0153 Y 21.0868 Z -1.0000
G01 X 19.0077 Y 21.0892 Z -1.0000
G01 X 18.9991 Y 21.0920 Z -1.0000
G02 X 18.9838 Y 21.1068 Z -1.0000 I 0.0463 J 0.0631
G03 X 18.9688 Y 21.1221 Z -1.0000 I -0.0772 J -0.0604
G01 X 18.9624 Y 21.1244 Z -1.0000
G02 X 18.9162 Y 21.1356 Z -1.0000 I 0.0000 J 0.1010
G01 X 18.9050 Y 21.1539 Z -1.0000
G01 X 18.9031 Y 21.1577 Z -1.0000
G01 X 18.8972 Y 21.1596 Z -1.0000
G01 X 18.8901 Y 21.1616 Z -1.0000
G02 X 18.8685 Y 21.1772 Z -1.0000 I 0.0921 J 0.1505
G03 X 18.8467 Y 21.1925 Z -1.0000 I -0.0962 J -0.1141
G01 X 18.8379 Y 21.1949 Z -1.0000
G01 X 18.8296 Y 21.1972 Z -1.0000
G01 X 18.8225 Y 21.2045 Z -1.0000
G01 X 18.8154 Y 21.2125 Z -1.0000
G03 X 18.7952 Y 21.2251 Z -1.0000 I -0.0820 J -0.1083
G02 X 18.7747 Y 21.2378 Z -1.0000 I 0.0718 J 0.1402
G02 X 18.7515 Y 21.2568 Z -1.0000 I 0.1409 J 0.1947
G03 X 18.7281 Y 21.2753 Z -1.0000 I -0.1228 J -0.1314
G03 X 18.7062 Y 21.2868 Z -1.0000 I -0.0677 J -0.1021
G02 X 18.6846 Y 21.2980 Z -1.0000 I 0.0501 J 0.1229
G01 X 18.6774 Y 21.3054 Z -1.0000
G01 X 18.6704 Y 21.3123 Z -1.0000
G01 X 18.6623 Y 21.3146 Z -1.0000
G01 X 18.6546 Y 21.3173 Z -1.0000
G01 X 18.6488 Y 21.3252 Z -1.0000
G01 X 18.6431 Y 21.3334 Z -1.0000
G01 X 18.6368 Y 21.3357 Z -1.0000
G01 X 18.6295 Y 21.3376 Z -1.0000
G02 X 18.6110 Y 21.3498 Z -1.0000 I 0.0622 J 0.1143
G03 X 18.5923 Y 21.3618 Z -1.0000 I -0.0702 J -0.0892
G01 X 18.5834 Y 21.3639 Z -1.0000
G01 X 18.5748 Y 21.3663 Z -1.0000
G02 X 18.5597 Y 21.3780 Z -1.0000 I 0.0384 J 0.0650
G03 X 18.5446 Y 21.3897 Z -1.0000 I -0.0523 J -0.0523
G01 X 18.5355 Y 21.3921 Z -1.0000
G01 X 18.5278 Y 21.3954 Z -1.0000
G01 X 18.5207 Y 21.4071 Z -1.0000
G01 X 18.5148 Y 21.4139 Z -1.0000
G01 X 18.5095 Y 21.4124 Z -1.0000
G01 X 18.5028 Y 21.4095 Z -1.0000
G01 X 18.4936 Y 21.4150 Z -1.0000
G03 X 18.4834 Y 21.4257 Z -1.0000 I -0.0518 J -0.0396
G01 X 18.4787 Y 21.4274 Z -1.0000
G01 X 18.4740 Y 21.4289 Z -1.0000
G02 X 18.4619 Y 21.4397 Z -1.0000 I 0.0480 J 0.0659
G03 X 18.4492 Y 21.4504 Z -1.0000 I -0.0494 J -0.0458
G03 X 18.4170 Y 21.4689 Z -1.0000 I -0.1831 J -0.2816
G02 X 18.3871 Y 21.4879 Z -1.0000 I 0.0803 J 0.1590
G01 X 18.3836 Y 21.4953 Z -1.0000
G01 X 18.3803 Y 21.5017 Z -1.0000
G01 X 18.3702 Y 21.5049 Z -1.0000
G01 X 18.3590 Y 21.5080 Z -1.0000
G01 X 18.3528 Y 21.5155 Z -1.0000
G01 X 18.3469 Y 21.5232 Z -1.0000
G01 X 18.3382 Y 21.5260 Z -1.0000
G01 X 18.3295 Y 21.5290 Z -1.0000
G01 X 18.3201 Y 21.5401 Z -1.0000
G01 X 18.3108 Y 21.5513 Z -1.0000
G01 X 18.3025 Y 21.5542 Z -1.0000
G01 X 18.2935 Y 21.5568 Z -1.0000
G02 X 18.2684 Y 21.5754 Z -1.0000 I 0.0975 J 0.1581
G03 X 18.2432 Y 21.5937 Z -1.0000 I -0.1120 J -0.1275
G01 X 18.2329 Y 21.5965 Z -1.0000
G01 X 18.2238 Y 21.5989 Z -1.0000
G01 X 18.2215 Y 21.6029 Z -1.0000
G01 X 18.2192 Y 21.6081 Z -1.0000
G03 X 18.1915 Y 21.6312 Z -1.0000 I -0.1949 J -0.2053
G02 X 18.1077 Y 21.6998 Z -1.0000 I 0.5890 J 0.8050
G01 X 18.1017 Y 21.7133 Z -1.0000
G01 X 18.0900 Y 21.7400 Z -1.0000
G01 X 18.0607 Y 21.7515 Z -1.0000
G01 X 18.0532 Y 21.7535 Z -1.0000
G02 X 18.0398 Y 21.7638 Z -1.0000 I 0.0341 J 0.0581
G03 X 18.0270 Y 21.7758 Z -1.0000 I -0.2292 J -0.2325
G03 X 18.0028 Y 21.7966 Z -1.0000 I -0.7202 J -0.8142
G02 X 17.9808 Y 21.8181 Z -1.0000 I 0.1228 J 0.1473
G01 X 17.9784 Y 21.8247 Z -1.0000
G01 X 17.9755 Y 21.8301 Z -1.0000
G01 X 17.9629 Y 21.8347 Z -1.0000
G01 X 17.9503 Y 21.8408 Z -1.0000
G02 X 17.9383 Y 21.8576 Z -1.0000 I 0.0351 J 0.0377
G03 X 17.9274 Y 21.8757 Z -1.0000 I -0.0766 J -0.0336
G01 X 17.9220 Y 21.8784 Z -1.0000
G01 X 17.9157 Y 21.8804 Z -1.0000
G02 X 17.8924 Y 21.8995 Z -1.0000 I 0.1294 J 0.1817
G03 X 17.8695 Y 21.9196 Z -1.0000 I -0.2935 J -0.3133
G01 X 17.8664 Y 21.9206 Z -1.0000
G01 X 17.8634 Y 21.9218 Z -1.0000
G02 X 17.8307 Y 21.9523 Z -1.0000 I 0.5714 J 0.6433
G03 X 17.7972 Y 21.9806 Z -1.0000 I -0.1964 J -0.1992
G01 X 17.7863 Y 21.9842 Z -1.0000
G01 X 17.7825 Y 21.9867 Z -1.0000
G01 X 17.7837 Y 21.9905 Z -1.0000
G01 X 17.7891 Y 21.9975 Z -1.0000
G01 X 17.7881 Y 22.0052 Z -1.0000
G01 X 17.7828 Y 22.0079 Z -1.0000
G01 X 17.7767 Y 22.0042 Z -1.0000
G01 X 17.7705 Y 22.0025 Z -1.0000
G01 X 17.7686 Y 22.0097 Z -1.0000
G03 X 17.7556 Y 22.0292 Z -1.0000 I -0.1326 J -0.0743
G01 X 17.7400 Y 22.0407 Z -1.0000
G01 X 17.7296 Y 22.0390 Z -1.0000
G01 X 17.7248 Y 22.0387 Z -1.0000
G01 X 17.7233 Y 22.0429 Z -1.0000
G01 X 17.7224 Y 22.0546 Z -1.0000
G03 X 17.7018 Y 22.0809 Z -1.0000 I -0.0984 J -0.0560
G02 X 17.6755 Y 22.1061 Z -1.0000 I 1.6464 J 1.7447
G02 X 17.6137 Y 22.1665 Z -1.0000 I 9.6611 J 9.9320
G01 X 17.5520 Y 22.2202 Z -1.0000
G01 X 17.5291 Y 22.2504 Z -1.0000
G03 X 17.5034 Y 22.2840 Z -1.0000 I -0.1772 J -0.1088
G01 X 17.4903 Y 22.2917 Z -1.0000
G01 X 17.4785 Y 22.2988 Z -1.0000
G01 X 17.4745 Y 22.3092 Z -1.0000
G01 X 17.4704 Y 22.3199 Z -1.0000
G01 X 17.4565 Y 22.3295 Z -1.0000
G01 X 17.4411 Y 22.3391 Z -1.0000
G02 X 17.4266 Y 22.3577 Z -1.0000 I 0.0536 J 0.0569
G03 X 17.4121 Y 22.3759 Z -1.0000 I -0.0637 J -0.0357
G01 X 17.3987 Y 22.3832 Z -1.0000
G01 X 17.3883 Y 22.3916 Z -1.0000
G02 X 17.3828 Y 22.4147 Z -1.0000 I 0.0459 J 0.0231
G03 X 17.3780 Y 22.4374 Z -1.0000 I -0.0558 J 0.0000
G01 X 17.3705 Y 22.4424 Z -1.0000
G01 X 17.3600 Y 22.4463 Z -1.0000
G02 X 17.3356 Y 22.4723 Z -1.0000 I 0.1101 J 0.1283
G03 X 17.3122 Y 22.5014 Z -1.0000 I -0.5276 J -0.4011
G03 X 17.2861 Y 22.5303 Z -1.0000 I -0.5482 J -0.4677
G02 X 17.2607 Y 22.5596 Z -1.0000 I 0.3082 J 0.2931
G02 X 17.2430 Y 22.5849 Z -1.0000 I 0.2097 J 0.1658
G03 X 17.2246 Y 22.6076 Z -1.0000 I -0.0997 J -0.0618
G01 X 17.2155 Y 22.6113 Z -1.0000
G01 X 17.2085 Y 22.6154 Z -1.0000
G01 X 17.2101 Y 22.6201 Z -1.0000
G03 X 17.2050 Y 22.6414 Z -1.0000 I -0.1102 J -0.0151
G01 X 17.1971 Y 22.6513 Z -1.0000
G01 X 17.1920 Y 22.6496 Z -1.0000
G01 X 17.1861 Y 22.6573 Z -1.0000
G01 X 17.1804 Y 22.6764 Z -1.0000
G03 X 17.1561 Y 22.7058 Z -1.0000 I -0.1179 J -0.0726
G02 X 17.1362 Y 22.7324 Z -1.0000 I 0.0615 J 0.0669
G01 X 17.1384 Y 22.7415 Z -1.0000
G01 X 17.1424 Y 22.7505 Z -1.0000
G01 X 17.1362 Y 22.7628 Z -1.0000
G02 X 17.1246 Y 22.7766 Z -1.0000 I 0.0447 J 0.0491
G01 X 17.1221 Y 22.7852 Z -1.0000
G01 X 17.1194 Y 22.7930 Z -1.0000
G01 X 17.1116 Y 22.7989 Z -1.0000
G01 X 17.1031 Y 22.8044 Z -1.0000
G01 X 17.1010 Y 22.8095 Z -1.0000
G01 X 17.0989 Y 22.8151 Z -1.0000
G03 X 17.0763 Y 22.8376 Z -1.0000 I -0.1843 J -0.1616
G02 X 17.0557 Y 22.8599 Z -1.0000 I 0.0986 J 0.1123
G01 X 17.0554 Y 22.8653 Z -1.0000
G01 X 17.0561 Y 22.8728 Z -1.0000
G03 X 17.0364 Y 22.9142 Z -1.0000 I -0.3005 J -0.1175
G02 X 17.0308 Y 22.9250 Z -1.0000 I 0.1670 J 0.0950
G02 X 17.0227 Y 22.9424 Z -1.0000 I 0.4330 J 0.2114
G03 X 17.0146 Y 22.9599 Z -1.0000 I -0.6172 J -0.2736
G03 X 17.0075 Y 22.9741 Z -1.0000 I -0.3607 J -0.1724
G02 X 17.0012 Y 22.9886 Z -1.0000 I 0.0945 J 0.0497
G02 X 16.9976 Y 23.0023 Z -1.0000 I 0.0850 J 0.0297
G03 X 16.9952 Y 23.0165 Z -1.0000 I -2.4623 J -0.4104
G03 X 16.9909 Y 23.0411 Z -1.0000 I -5.9255 J -1.0226
G03 X 16.9824 Y 23.0636 Z -1.0000 I -0.0616 J -0.0105
G03 X 16.9559 Y 23.0975 Z -1.0000 I -0.1714 J -0.1064
G02 X 16.9325 Y 23.1326 Z -1.0000 I 0.0836 J 0.0809
G02 X 16.9204 Y 23.1803 Z -1.0000 I 0.1455 J 0.0623
G03 X 16.9131 Y 23.2286 Z -1.0000 I -0.4150 J -0.0384
G01 X 16.9097 Y 23.2313 Z -1.0000
G01 X 16.9063 Y 23.2340 Z -1.0000
G02 X 16.9037 Y 23.2595 Z -1.0000 I 0.1198 J 0.0255
G03 X 16.8994 Y 23.2834 Z -1.0000 I -0.0681 J 0.0000
G01 X 16.8931 Y 23.2877 Z -1.0000
G01 X 16.8869 Y 23.2920 Z -1.0000
G02 X 16.8825 Y 23.3159 Z -1.0000 I 0.0634 J 0.0239
G02 X 16.8868 Y 23.3397 Z -1.0000 I 0.0681 J 0.0000
G01 X 16.8931 Y 23.3441 Z -1.0000
G01 X 16.8989 Y 23.3489 Z -1.0000
G03 X 16.9037 Y 23.4005 Z -1.0000 I -0.2747 J 0.0516
G03 X 16.8988 Y 23.4521 Z -1.0000 I -0.2788 J -0.0000
G01 X 16.8931 Y 23.4568 Z -1.0000
G01 X 16.8869 Y 23.4611 Z -1.0000
G02 X 16.8825 Y 23.4852 Z -1.0000 I 0.0641 J 0.0241
G03 X 16.8767 Y 23.5096 Z -1.0000 I -0.0542 J 0.0000
G01 X 16.8649 Y 23.5203 Z -1.0000
G01 X 16.8515 Y 23.5373 Z -1.0000
G01 X 16.8614 Y 23.5484 Z -1.0000
G01 X 16.8726 Y 23.5455 Z -1.0000
G01 X 16.8755 Y 23.5404 Z -1.0000
G01 X 16.8847 Y 23.5232 Z -1.0000
G03 X 16.9160 Y 23.5135 Z -1.0000 I 0.0321 J 0.0482
G01 X 16.9250 Y 23.5065 Z -1.0000
G02 X 16.9319 Y 23.4569 Z -1.0000 I -0.1771 J -0.0496
G03 X 16.9426 Y 23.4113 Z -1.0000 I 0.1020 J 0.0000
G01 X 16.9601 Y 23.4005 Z -1.0000
G01 X 16.9773 Y 23.4114 Z -1.0000
G03 X 16.9883 Y 23.4604 Z -1.0000 I -0.1040 J 0.0490
G03 X 16.9785 Y 23.5105 Z -1.0000 I -0.1332 J -0.0000
G01 X 16.9639 Y 23.5203 Z -1.0000
G02 X 16.9401 Y 23.5226 Z -1.0000 I -0.0000 J 0.1249
G02 X 16.9216 Y 23.5285 Z -1.0000 I 0.0157 J 0.0808
G01 X 16.9104 Y 23.5410 Z -1.0000
G02 X 16.9037 Y 23.5813 Z -1.0000 I 0.1190 J 0.0404
G02 X 16.9097 Y 23.6201 Z -1.0000 I 0.1286 J -0.0000
G01 X 16.9178 Y 23.6260 Z -1.0000
G01 X 16.9277 Y 23.6301 Z -1.0000
G01 X 16.9319 Y 23.6401 Z -1.0000
G01 X 16.9360 Y 23.6501 Z -1.0000
G01 X 16.9460 Y 23.6542 Z -1.0000
G01 X 16.9559 Y 23.6583 Z -1.0000
G01 X 16.9600 Y 23.6683 Z -1.0000
G01 X 16.9657 Y 23.6767 Z -1.0000
G02 X 16.9939 Y 23.6824 Z -1.0000 I 0.0282 J -0.0677
G02 X 17.0263 Y 23.6792 Z -1.0000 I 0.0000 J -0.1656
G01 X 17.0361 Y 23.6739 Z -1.0000
G01 X 17.0407 Y 23.6750 Z -1.0000
G03 X 17.0447 Y 23.7017 Z -1.0000 I -0.0871 J 0.0267
G01 X 17.0352 Y 23.7293 Z -1.0000
G01 X 17.0147 Y 23.7406 Z -1.0000
G01 X 17.0147 Y 23.7445 Z -1.0000
G03 X 17.0403 Y 23.7499 Z -1.0000 I -0.0032 J 0.0783
G01 X 17.0447 Y 23.7563 Z -1.0000
G01 X 17.0403 Y 23.7625 Z -1.0000
G03 X 17.0165 Y 23.7669 Z -1.0000 I -0.0239 J -0.0634
G02 X 16.9923 Y 23.7710 Z -1.0000 I -0.0000 J 0.0731
G01 X 16.9883 Y 23.7767 Z -1.0000
G01 X 16.9927 Y 23.7824 Z -1.0000
G02 X 17.0446 Y 23.7915 Z -1.0000 I 0.0796 J -0.3031
G03 X 17.0906 Y 23.8060 Z -1.0000 I -0.0099 J 0.1116
G01 X 17.1010 Y 23.8239 Z -1.0000
G01 X 17.1063 Y 23.8460 Z -1.0000
G01 X 17.1151 Y 23.8514 Z -1.0000
G01 X 17.1239 Y 23.8567 Z -1.0000
G01 X 17.1292 Y 23.8782 Z -1.0000
G03 X 17.1259 Y 23.9040 Z -1.0000 I -0.1034 J 0.0000
G01 X 17.1188 Y 23.9187 Z -1.0000
G01 X 17.1139 Y 23.9366 Z -1.0000
G01 X 17.1228 Y 23.9562 Z -1.0000
G01 X 17.1324 Y 23.9736 Z -1.0000
G03 X 17.1331 Y 23.9963 Z -1.0000 I -0.0509 J 0.0130
G03 X 17.1262 Y 24.0177 Z -1.0000 I -0.0882 J -0.0166
G01 X 17.1218 Y 24.0205 Z -1.0000
G01 X 17.1181 Y 24.0235 Z -1.0000
G02 X 17.1151 Y 24.0487 Z -1.0000 I 0.1065 J 0.0252
G01 X 17.1088 Y 24.0706 Z -1.0000
G01 X 17.0975 Y 24.0769 Z -1.0000
G01 X 17.0860 Y 24.0830 Z -1.0000
G01 X 17.0799 Y 24.1034 Z -1.0000
G03 X 17.0748 Y 24.1274 Z -1.0000 I -0.0591 J -0.0000
G01 X 17.0623 Y 24.1431 Z -1.0000
G01 X 17.0453 Y 24.1697 Z -1.0000
G01 X 17.0535 Y 24.1850 Z -1.0000
G01 X 17.0323 Y 24.1891 Z -1.0000
G01 X 17.0102 Y 24.1976 Z -1.0000
G01 X 17.0015 Y 24.2160 Z -1.0000
G03 X 16.9994 Y 24.2423 Z -1.0000 I -0.2633 J -0.0083
G03 X 16.9953 Y 24.2636 Z -1.0000 I -0.1908 J -0.0252
G01 X 16.9881 Y 24.2354 Z -1.0000
G01 X 16.9808 Y 24.2249 Z -1.0000
G03 X 16.9633 Y 24.2946 Z -1.0000 I -0.3301 J -0.0461
G01 X 16.9521 Y 24.3024 Z -1.0000
G01 X 16.9399 Y 24.3057 Z -1.0000
G02 X 16.9143 Y 24.3245 Z -1.0000 I 0.0782 J 0.1332
G02 X 16.8957 Y 24.3484 Z -1.0000 I 0.0595 J 0.0654
G01 X 16.8939 Y 24.3628 Z -1.0000
G01 X 16.8919 Y 24.3761 Z -1.0000
G01 X 16.8774 Y 24.3895 Z -1.0000
G02 X 16.8402 Y 24.4285 Z -1.0000 I 0.0379 J 0.0734
G01 X 16.8418 Y 24.4674 Z -1.0000
G01 X 16.8443 Y 24.4789 Z -1.0000
G01 X 16.8400 Y 24.4895 Z -1.0000
G01 X 16.8265 Y 24.4944 Z -1.0000
G01 X 16.8192 Y 24.4856 Z -1.0000
G01 X 16.8108 Y 24.4802 Z -1.0000
G01 X 16.7946 Y 24.4970 Z -1.0000
G02 X 16.7844 Y 24.5226 Z -1.0000 I 0.6645 J 0.2792
G01 X 16.7840 Y 24.5252 Z -1.0000
G01 X 16.8157 Y 24.5279 Z -1.0000
G03 X 16.8429 Y 24.5323 Z -1.0000 I 0.0000 J 0.0865
G01 X 16.8474 Y 24.5385 Z -1.0000
G01 X 16.8438 Y 24.5455 Z -1.0000
G01 X 16.8333 Y 24.5490 Z -1.0000
G01 X 16.8230 Y 24.5529 Z -1.0000
G01 X 16.8191 Y 24.5614 Z -1.0000
G01 X 16.8156 Y 24.5638 Z -1.0000
G01 X 16.8061 Y 24.5570 Z -1.0000
G01 X 16.7918 Y 24.5470 Z -1.0000
G01 X 16.7780 Y 24.5484 Z -1.0000
G01 X 16.7665 Y 24.5587 Z -1.0000
G01 X 16.7628 Y 24.5703 Z -1.0000
G01 X 16.7589 Y 24.5803 Z -1.0000
G01 X 16.7498 Y 24.5842 Z -1.0000
G01 X 16.7398 Y 24.5888 Z -1.0000
G02 X 16.7243 Y 24.6141 Z -1.0000 I 0.0732 J 0.0622
G01 X 16.7126 Y 24.6306 Z -1.0000
G01 X 16.7074 Y 24.6291 Z -1.0000
G01 X 16.6999 Y 24.6203 Z -1.0000
G01 X 16.6878 Y 24.6198 Z -1.0000
G01 X 16.6706 Y 24.6337 Z -1.0000
G01 X 16.6743 Y 24.6406 Z -1.0000
G01 X 16.6806 Y 24.6463 Z -1.0000
G03 X 16.6769 Y 24.6733 Z -1.0000 I -0.0641 J 0.0051
G01 X 16.6593 Y 24.6949 Z -1.0000
G01 X 16.6501 Y 24.6897 Z -1.0000
G01 X 16.6418 Y 24.6831 Z -1.0000
G01 X 16.6261 Y 24.6952 Z -1.0000
G03 X 16.6144 Y 24.7133 Z -1.0000 I -0.1029 J -0.0541
G03 X 16.6007 Y 24.7273 Z -1.0000 I -0.0755 J -0.0598
G01 X 16.5901 Y 24.7413 Z -1.0000
G01 X 16.5898 Y 24.7512 Z -1.0000
G01 X 16.5904 Y 24.7617 Z -1.0000
G01 X 16.5840 Y 24.7737 Z -1.0000
G01 X 16.5760 Y 24.7861 Z -1.0000
G02 X 16.5663 Y 24.8134 Z -1.0000 I 0.1656 J 0.0739
G03 X 16.5568 Y 24.8409 Z -1.0000 I -0.2018 J -0.0543
G03 X 16.5483 Y 24.8557 Z -1.0000 I -0.0643 J -0.0273
G02 X 16.5402 Y 24.8704 Z -1.0000 I 0.0453 J 0.0346
G01 X 16.5376 Y 24.8843 Z -1.0000
G03 X 16.5356 Y 24.8982 Z -1.0000 I -0.0557 J -0.0008
G01 X 16.5321 Y 24.9043 Z -1.0000
G01 X 16.5285 Y 24.9103 Z -1.0000
G02 X 16.5263 Y 24.9248 Z -1.0000 I 0.0596 J 0.0167
G03 X 16.5178 Y 24.9720 Z -1.0000 I -0.1710 J -0.0064
G01 X 16.5084 Y 24.9788 Z -1.0000
G01 X 16.5000 Y 24.9839 Z -1.0000
G01 X 16.4983 Y 24.9982 Z -1.0000
G03 X 16.5027 Y 25.0456 Z -1.0000 I -0.1527 J 0.0382
G01 X 16.4951 Y 25.0528 Z -1.0000
G01 X 16.4793 Y 25.0631 Z -1.0000
G01 X 16.4778 Y 25.0926 Z -1.0000
G01 X 16.4784 Y 25.1031 Z -1.0000
G01 X 16.4753 Y 25.1056 Z -1.0000
G01 X 16.4671 Y 25.1113 Z -1.0000
G02 X 16.4454 Y 25.1832 Z -1.0000 I 0.4576 J 0.1770
G03 X 16.4308 Y 25.2254 Z -1.0000 I -0.1863 J -0.0409
G01 X 16.4248 Y 25.2257 Z -1.0000
G01 X 16.4151 Y 25.2549 Z -1.0000
G03 X 16.3957 Y 25.3679 Z -1.0000 I -1.1930 J -0.1465
G01 X 16.3889 Y 25.3734 Z -1.0000
G01 X 16.3853 Y 25.3763 Z -1.0000
G02 X 16.3824 Y 25.4016 Z -1.0000 I 0.1103 J 0.0253
G03 X 16.3793 Y 25.4268 Z -1.0000 I -0.1034 J -0.0000
G01 X 16.3754 Y 25.4298 Z -1.0000
G01 X 16.3710 Y 25.4325 Z -1.0000
G01 X 16.3684 Y 25.4435 Z -1.0000
G01 X 16.3653 Y 25.4555 Z -1.0000
G01 X 16.3574 Y 25.4634 Z -1.0000
G01 X 16.3499 Y 25.4718 Z -1.0000
G02 X 16.3441 Y 25.4952 Z -1.0000 I 0.0726 J 0.0307
G03 X 16.3387 Y 25.5199 Z -1.0000 I -0.1035 J -0.0095
G03 X 16.3269 Y 25.5449 Z -1.0000 I -0.1214 J -0.0423
G02 X 16.3141 Y 25.5695 Z -1.0000 I 0.1492 J 0.0927
G01 X 16.3120 Y 25.5799 Z -1.0000
G01 X 16.3088 Y 25.5886 Z -1.0000
G01 X 16.2987 Y 25.5952 Z -1.0000
G01 X 16.2880 Y 25.6021 Z -1.0000
G02 X 16.2769 Y 25.6198 Z -1.0000 I 0.0474 J 0.0419
G01 X 16.2662 Y 25.6350 Z -1.0000
G01 X 16.2585 Y 25.6365 Z -1.0000
G01 X 16.2521 Y 25.6415 Z -1.0000
G01 X 16.2606 Y 25.6543 Z -1.0000
G01 X 16.2635 Y 25.6621 Z -1.0000
G01 X 16.2509 Y 25.6813 Z -1.0000
G02 X 16.2214 Y 25.7259 Z -1.0000 I 0.0786 J 0.0841
G02 X 16.2188 Y 25.7691 Z -1.0000 I 0.0706 J 0.0258
G01 X 16.2181 Y 25.7731 Z -1.0000
G01 X 16.2096 Y 25.7823 Z -1.0000
G01 X 16.2023 Y 25.7923 Z -1.0000
G01 X 16.1993 Y 25.8077 Z -1.0000
G01 X 16.1967 Y 25.8217 Z -1.0000
G01 X 16.1927 Y 25.8244 Z -1.0000
G01 X 16.1884 Y 25.8270 Z -1.0000
G01 X 16.1839 Y 25.8403 Z -1.0000
G01 X 16.1786 Y 25.8526 Z -1.0000
G01 X 16.1711 Y 25.8562 Z -1.0000
G01 X 16.1645 Y 25.8601 Z -1.0000
G01 X 16.1605 Y 25.8757 Z -1.0000
G01 X 16.1561 Y 25.8934 Z -1.0000
G03 X 16.1376 Y 25.9187 Z -1.0000 I -0.0973 J -0.0517
G02 X 16.1169 Y 25.9431 Z -1.0000 I 0.1705 J 0.1664
G01 X 16.1147 Y 25.9495 Z -1.0000
G01 X 16.1130 Y 25.9563 Z -1.0000
G03 X 16.0901 Y 25.9935 Z -1.0000 I -0.4662 J -0.2609
G02 X 16.0669 Y 26.0307 Z -1.0000 I 0.5305 J 0.3568
G01 X 16.0654 Y 26.0363 Z -1.0000
G01 X 16.0636 Y 26.0415 Z -1.0000
G03 X 16.0354 Y 26.0741 Z -1.0000 I -0.3875 J -0.3065
G02 X 16.0061 Y 26.1063 Z -1.0000 I 0.8995 J 0.8485
G02 X 15.9934 Y 26.1219 Z -1.0000 I 0.1973 J 0.1734
G01 X 15.9815 Y 26.1307 Z -1.0000
G01 X 15.9749 Y 26.1285 Z -1.0000
G01 X 15.9697 Y 26.1278 Z -1.0000
G01 X 15.9610 Y 26.1408 Z -1.0000
G01 X 15.9497 Y 26.1574 Z -1.0000
G01 X 15.9354 Y 26.1627 Z -1.0000
G01 X 15.9220 Y 26.1673 Z -1.0000
G01 X 15.9174 Y 26.1768 Z -1.0000
G01 X 15.9228 Y 26.1855 Z -1.0000
G02 X 15.9456 Y 26.1908 Z -1.0000 I 0.0228 J -0.0456
G03 X 15.9711 Y 26.1934 Z -1.0000 I -0.0000 J 0.1263
G01 X 15.9738 Y 26.1967 Z -1.0000
G01 X 15.9759 Y 26.2013 Z -1.0000
G02 X 15.9932 Y 26.2126 Z -1.0000 I 0.0618 J -0.0752
G03 X 16.0129 Y 26.2246 Z -1.0000 I -0.0785 J 0.1515
G03 X 16.0412 Y 26.2465 Z -1.0000 I -0.2316 J 0.3291
G01 X 16.0519 Y 26.2504 Z -1.0000
G01 X 16.0590 Y 26.2465 Z -1.0000
G01 X 16.0629 Y 26.2447 Z -1.0000
G01 X 16.0653 Y 26.2474 Z -1.0000
G01 X 16.0680 Y 26.2570 Z -1.0000
G02 X 16.0812 Y 26.2737 Z -1.0000 I 0.0724 J -0.0438
G02 X 16.1345 Y 26.3217 Z -1.0000 I 0.5758 J -0.5863
G01 X 16.1432 Y 26.3248 Z -1.0000
G01 X 16.1464 Y 26.3272 Z -1.0000
G03 X 16.1518 Y 26.3583 Z -1.0000 I -0.1967 J 0.0508
G02 X 16.1575 Y 26.3912 Z -1.0000 I 0.2303 J -0.0225
G02 X 16.1682 Y 26.4248 Z -1.0000 I 0.2596 J -0.0640
G03 X 16.1734 Y 26.4564 Z -1.0000 I -0.0701 J 0.0277
G01 X 16.1656 Y 26.4746 Z -1.0000
G02 X 16.1519 Y 26.4921 Z -1.0000 I 0.0924 J 0.0864
G01 X 16.1499 Y 26.4988 Z -1.0000
G03 X 16.1300 Y 26.5586 Z -1.0000 I -0.0996 J -0.0000
G01 X 16.0902 Y 26.5785 Z -1.0000
G01 X 16.0849 Y 26.5802 Z -1.0000
G02 X 16.0323 Y 26.6207 Z -1.0000 I 0.7486 J 1.0256
G03 X 16.0078 Y 26.6326 Z -1.0000 I -0.0376 J -0.0464
G03 X 15.9545 Y 26.6382 Z -1.0000 I -0.0503 J -0.2236
G01 X 15.9406 Y 26.6345 Z -1.0000
G01 X 15.9283 Y 26.6241 Z -1.0000
G01 X 15.9209 Y 26.6196 Z -1.0000
G01 X 15.9176 Y 26.6223 Z -1.0000
G01 X 15.9139 Y 26.6292 Z -1.0000
G01 X 15.9064 Y 26.6302 Z -1.0000
G01 X 15.8995 Y 26.6242 Z -1.0000
G01 X 15.8989 Y 26.6170 Z -1.0000
G01 X 15.8958 Y 26.6068 Z -1.0000
G01 X 15.8851 Y 26.6072 Z -1.0000
G01 X 15.8773 Y 26.6084 Z -1.0000
G01 X 15.8686 Y 26.6006 Z -1.0000
G01 X 15.8592 Y 26.5888 Z -1.0000
G01 X 15.8469 Y 26.5820 Z -1.0000
G01 X 15.8363 Y 26.5749 Z -1.0000
G01 X 15.8329 Y 26.5654 Z -1.0000
G01 X 15.8244 Y 26.5447 Z -1.0000
G01 X 15.8044 Y 26.5362 Z -1.0000
G01 X 15.7944 Y 26.5331 Z -1.0000
G03 X 15.7738 Y 26.5148 Z -1.0000 I 0.0668 J -0.0959
G03 X 15.7607 Y 26.4918 Z -1.0000 I 0.0472 J -0.0421
G01 X 15.7594 Y 26.4690 Z -1.0000
G02 X 15.7600 Y 26.4479 Z -1.0000 I -0.0660 J -0.0124
G01 X 15.7562 Y 26.4446 Z -1.0000
G01 X 15.7518 Y 26.4413 Z -1.0000
G03 X 15.7484 Y 26.4164 Z -1.0000 I 0.0894 J -0.0248
G03 X 15.7524 Y 26.3923 Z -1.0000 I 0.0751 J 0.0000
G01 X 15.7580 Y 26.3882 Z -1.0000
G01 X 15.7637 Y 26.3841 Z -1.0000
G02 X 15.7721 Y 26.3448 Z -1.0000 I -0.1816 J -0.0591
G03 X 15.7778 Y 26.3018 Z -1.0000 I 0.7578 J 0.0792
G01 X 15.7796 Y 26.2983 Z -1.0000
G01 X 15.7829 Y 26.2961 Z -1.0000
G03 X 15.8076 Y 26.2867 Z -1.0000 I 0.1490 J 0.3562
G01 X 15.8223 Y 26.2748 Z -1.0000
G01 X 15.8218 Y 26.2627 Z -1.0000
G01 X 15.8091 Y 26.2511 Z -1.0000
G01 X 15.7950 Y 26.2473 Z -1.0000
G01 X 15.7841 Y 26.2551 Z -1.0000
G01 X 15.7888 Y 26.2657 Z -1.0000
G01 X 15.7894 Y 26.2705 Z -1.0000
G01 X 15.7774 Y 26.2749 Z -1.0000
G03 X 15.7493 Y 26.2690 Z -1.0000 I -0.0012 J -0.0646
G03 X 15.7219 Y 26.2494 Z -1.0000 I 0.0368 J -0.0801
G03 X 15.7036 Y 26.2248 Z -1.0000 I 0.0968 J -0.0913
G01 X 15.7052 Y 26.2206 Z -1.0000
G01 X 15.7282 Y 26.1872 Z -1.0000
G01 X 15.7026 Y 26.1627 Z -1.0000
G01 X 15.6965 Y 26.1556 Z -1.0000
G01 X 15.7052 Y 26.1454 Z -1.0000
G01 X 15.7182 Y 26.1321 Z -1.0000
G02 X 15.7272 Y 26.0699 Z -1.0000 I -0.2172 J -0.0632
G01 X 15.7224 Y 26.0552 Z -1.0000
G01 X 15.7116 Y 26.0487 Z -1.0000
G01 X 15.7077 Y 26.0425 Z -1.0000
G03 X 15.7201 Y 26.0219 Z -1.0000 I 0.0494 J 0.0156
G02 X 15.7350 Y 26.0001 Z -1.0000 I -0.0536 J -0.0525
G01 X 15.7322 Y 25.9949 Z -1.0000
G01 X 15.7255 Y 25.9883 Z -1.0000
G03 X 15.7202 Y 25.9367 Z -1.0000 I 0.2496 J -0.0515
G03 X 15.7270 Y 25.8877 Z -1.0000 I 0.1795 J 0.0000
G01 X 15.7361 Y 25.8809 Z -1.0000
G01 X 15.7442 Y 25.8732 Z -1.0000
G02 X 15.7499 Y 25.5909 Z -1.0000 I -5.1617 J -0.2454
G03 X 15.7514 Y 25.3023 Z -1.0000 I 11.5061 J -0.0828
G01 X 15.7552 Y 25.2935 Z -1.0000
G01 X 15.7671 Y 25.2643 Z -1.0000
G01 X 15.7548 Y 25.2347 Z -1.0000
G01 X 15.7505 Y 25.2257 Z -1.0000
G03 X 15.7495 Y 25.1853 Z -1.0000 I 0.2455 J -0.0261
G02 X 15.7448 Y 25.1517 Z -1.0000 I -0.0873 J -0.0050
G01 X 15.7361 Y 25.1466 Z -1.0000
G01 X 15.7272 Y 25.1412 Z -1.0000
G03 X 15.7202 Y 25.0925 Z -1.0000 I 0.1664 J -0.0488
G03 X 15.7264 Y 25.0414 Z -1.0000 I 0.2128 J 0.0000
G01 X 15.7343 Y 25.0353 Z -1.0000
G01 X 15.7458 Y 25.0326 Z -1.0000
G01 X 15.7484 Y 25.0283 Z -1.0000
G01 X 15.7453 Y 25.0243 Z -1.0000
G02 X 15.7202 Y 25.0213 Z -1.0000 I -0.0251 J 0.1021
G01 X 15.6992 Y 25.0284 Z -1.0000
G01 X 15.6920 Y 25.0430 Z -1.0000
G01 X 15.6828 Y 25.0554 Z -1.0000
G03 X 15.6233 Y 25.0640 Z -1.0000 I -0.0577 J -0.1882
G02 X 15.5129 Y 25.0698 Z -1.0000 I -0.0083 J 0.9020
G02 X 15.4853 Y 25.0798 Z -1.0000 I 0.0072 J 0.0630
G01 X 15.4694 Y 25.0858 Z -1.0000
G01 X 15.4644 Y 25.0828 Z -1.0000
G01 X 15.4599 Y 25.0797 Z -1.0000
G01 X 15.4519 Y 25.0830 Z -1.0000
G01 X 15.4416 Y 25.0893 Z -1.0000
G01 X 15.4274 Y 25.0918 Z -1.0000
G01 X 15.4155 Y 25.0967 Z -1.0000
G02 X 15.3996 Y 25.1199 Z -1.0000 I 0.0567 J 0.0560
G03 X 15.3835 Y 25.1430 Z -1.0000 I -0.0695 J -0.0313
G01 X 15.3709 Y 25.1481 Z -1.0000
G01 X 15.3571 Y 25.1451 Z -1.0000
G01 X 15.3521 Y 25.1394 Z -1.0000
G01 X 15.3471 Y 25.1357 Z -1.0000
G01 X 15.3321 Y 25.1390 Z -1.0000
G01 X 15.3284 Y 25.1443 Z -1.0000
G01 X 15.3313 Y 25.1477 Z -1.0000
G01 X 15.3350 Y 25.1550 Z -1.0000
G01 X 15.3212 Y 25.1622 Z -1.0000
G01 X 15.3074 Y 25.1684 Z -1.0000
G01 X 15.3065 Y 25.1731 Z -1.0000
G03 X 15.2780 Y 25.1890 Z -1.0000 I -0.0926 J -0.1323
G03 X 15.2462 Y 25.1987 Z -1.0000 I -0.0585 J -0.1350
G01 X 15.2401 Y 25.1960 Z -1.0000
G01 X 15.2190 Y 25.1904 Z -1.0000
G02 X 15.1609 Y 25.2384 Z -1.0000 I 0.0897 J 0.1677
G01 X 15.1465 Y 25.2501 Z -1.0000
G01 X 15.1372 Y 25.2507 Z -1.0000
G01 X 15.1315 Y 25.2514 Z -1.0000
G01 X 15.1302 Y 25.2558 Z -1.0000
G01 X 15.1279 Y 25.2604 Z -1.0000
G01 X 15.1095 Y 25.2621 Z -1.0000
G01 X 15.0879 Y 25.2662 Z -1.0000
G02 X 15.0599 Y 25.2888 Z -1.0000 I 0.0467 J 0.0866
G03 X 15.0329 Y 25.3128 Z -1.0000 I -0.1015 J -0.0869
G01 X 15.0212 Y 25.3148 Z -1.0000
G01 X 15.0104 Y 25.3167 Z -1.0000
G01 X 15.0012 Y 25.3284 Z -1.0000
G01 X 14.9923 Y 25.3420 Z -1.0000
G01 X 14.9840 Y 25.3454 Z -1.0000
G02 X 14.9651 Y 25.3480 Z -1.0000 I -0.0000 J 0.0697
G01 X 14.9539 Y 25.3539 Z -1.0000
G01 X 14.9480 Y 25.3626 Z -1.0000
G02 X 14.9446 Y 25.3833 Z -1.0000 I 0.0709 J 0.0225
G01 X 14.9409 Y 25.3905 Z -1.0000
G01 X 14.9365 Y 25.3895 Z -1.0000
G01 X 14.9237 Y 25.3836 Z -1.0000
G01 X 14.9107 Y 25.3965 Z -1.0000
G01 X 14.9035 Y 25.4020 Z -1.0000
G01 X 14.8992 Y 25.3970 Z -1.0000
G01 X 14.8921 Y 25.3999 Z -1.0000
G01 X 14.8800 Y 25.4110 Z -1.0000
G01 X 14.8718 Y 25.4116 Z -1.0000
G01 X 14.8642 Y 25.4121 Z -1.0000
G01 X 14.8582 Y 25.4188 Z -1.0000
G01 X 14.8521 Y 25.4254 Z -1.0000
G01 X 14.8436 Y 25.4256 Z -1.0000
G01 X 14.8341 Y 25.4265 Z -1.0000
G02 X 14.8046 Y 25.4498 Z -1.0000 I 0.0897 J 0.1439
G03 X 14.7741 Y 25.4746 Z -1.0000 I -0.1413 J -0.1428
G03 X 14.7549 Y 25.4827 Z -1.0000 I -0.0315 J -0.0476
G02 X 14.7368 Y 25.4899 Z -1.0000 I 0.0136 J 0.0610
G01 X 14.7337 Y 25.4952 Z -1.0000
G01 X 14.7190 Y 25.5279 Z -1.0000
G03 X 14.6800 Y 25.5426 Z -1.0000 I -0.0390 J -0.0441
G01 X 14.6672 Y 25.5467 Z -1.0000
G01 X 14.6597 Y 25.5568 Z -1.0000
G03 X 14.6280 Y 25.5956 Z -1.0000 I -0.0651 J -0.0208
G01 X 14.5917 Y 25.5948 Z -1.0000
G01 X 14.5877 Y 25.5958 Z -1.0000
G02 X 14.5813 Y 25.6126 Z -1.0000 I 0.0466 J 0.0274
G01 X 14.5713 Y 25.6260 Z -1.0000
G01 X 14.5633 Y 25.6222 Z -1.0000
G01 X 14.5587 Y 25.6206 Z -1.0000
G02 X 14.5346 Y 25.6469 Z -1.0000 I 0.0993 J 0.1152
G03 X 14.5059 Y 25.6790 Z -1.0000 I -0.1641 J -0.1179
G01 X 14.4939 Y 25.6836 Z -1.0000
G01 X 14.4819 Y 25.6869 Z -1.0000
G01 X 14.4753 Y 25.6947 Z -1.0000
G01 X 14.4685 Y 25.7034 Z -1.0000
G03 X 14.4338 Y 25.7235 Z -1.0000 I -0.1398 J -0.2020
G02 X 14.3989 Y 25.7433 Z -1.0000 I 0.1145 J 0.2419
G01 X 14.3927 Y 25.7511 Z -1.0000
G01 X 14.3866 Y 25.7577 Z -1.0000
G01 X 14.3713 Y 25.7611 Z -1.0000
G01 X 14.3595 Y 25.7651 Z -1.0000
G01 X 14.3577 Y 25.7716 Z -1.0000
G01 X 14.3497 Y 25.8051 Z -1.0000
G03 X 14.2997 Y 25.8245 Z -1.0000 I -0.0500 J -0.0548
G01 X 14.2820 Y 25.8309 Z -1.0000
G02 X 14.2649 Y 25.8533 Z -1.0000 I 0.0396 J 0.0479
G03 X 14.2483 Y 25.8752 Z -1.0000 I -0.0565 J -0.0255
G01 X 14.2347 Y 25.8787 Z -1.0000
G01 X 14.2194 Y 25.8811 Z -1.0000
G02 X 14.1966 Y 25.8993 Z -1.0000 I 0.0393 J 0.0728
G03 X 14.1750 Y 25.9190 Z -1.0000 I -0.1003 J -0.0881
G01 X 14.1693 Y 25.9192 Z -1.0000
G01 X 14.1655 Y 25.9198 Z -1.0000
G01 X 14.1630 Y 25.9263 Z -1.0000
G01 X 14.1594 Y 25.9337 Z -1.0000
G01 X 14.1489 Y 25.9373 Z -1.0000
G01 X 14.1384 Y 25.9409 Z -1.0000
G01 X 14.1348 Y 25.9481 Z -1.0000
G01 X 14.1328 Y 25.9584 Z -1.0000
G03 X 14.1233 Y 25.9764 Z -1.0000 I -0.0998 J -0.0408
G01 X 14.1109 Y 25.9872 Z -1.0000
G01 X 14.1024 Y 25.9861 Z -1.0000
G01 X 14.0933 Y 25.9854 Z -1.0000
G02 X 14.0558 Y 26.0145 Z -1.0000 I 0.1093 J 0.1801
G03 X 14.0169 Y 26.0445 Z -1.0000 I -0.1524 J -0.1569
G01 X 14.0027 Y 26.0467 Z -1.0000
G01 X 13.9913 Y 26.0485 Z -1.0000
G01 X 13.9868 Y 26.0568 Z -1.0000
G01 X 13.9833 Y 26.0686 Z -1.0000
G01 X 13.9727 Y 26.0783 Z -1.0000
G01 X 13.9615 Y 26.0875 Z -1.0000
G01 X 13.9587 Y 26.0956 Z -1.0000
G01 X 13.9548 Y 26.1027 Z -1.0000
G03 X 13.9252 Y 26.1176 Z -1.0000 I -0.0798 J -0.1215
G02 X 13.8927 Y 26.1319 Z -1.0000 I 0.1017 J 0.2755
G02 X 13.8693 Y 26.1464 Z -1.0000 I 0.0796 J 0.1549
G03 X 13.8464 Y 26.1614 Z -1.0000 I -0.1479 J -0.2006
G01 X 13.8410 Y 26.1628 Z -1.0000
G01 X 13.8363 Y 26.1647 Z -1.0000
G02 X 13.8264 Y 26.1769 Z -1.0000 I 0.0429 J 0.0448
G01 X 13.8161 Y 26.1883 Z -1.0000
G01 X 13.8082 Y 26.1910 Z -1.0000
G01 X 13.8008 Y 26.1941 Z -1.0000
G02 X 13.7908 Y 26.2086 Z -1.0000 I 0.0358 J 0.0354
G01 X 13.7804 Y 26.2225 Z -1.0000
G01 X 13.7701 Y 26.2263 Z -1.0000
G01 X 13.7587 Y 26.2292 Z -1.0000
G01 X 13.7461 Y 26.2395 Z -1.0000
G03 X 13.7339 Y 26.2515 Z -1.0000 I -0.0707 J -0.0600
G01 X 13.7252 Y 26.2566 Z -1.0000
G01 X 13.7223 Y 26.2612 Z -1.0000
G01 X 13.7261 Y 26.2679 Z -1.0000
G01 X 13.7261 Y 26.2720 Z -1.0000
G01 X 13.7155 Y 26.2755 Z -1.0000
G01 X 13.6967 Y 26.2798 Z -1.0000
G01 X 13.6853 Y 26.2900 Z -1.0000
G01 X 13.6749 Y 26.3013 Z -1.0000
G01 X 13.6678 Y 26.3032 Z -1.0000
G01 X 13.6486 Y 26.3077 Z -1.0000
G02 X 13.6272 Y 26.3302 Z -1.0000 I 0.0386 J 0.0582
G01 X 13.6125 Y 26.3448 Z -1.0000
G01 X 13.6062 Y 26.3425 Z -1.0000
G01 X 13.6009 Y 26.3390 Z -1.0000
G01 X 13.5960 Y 26.3425 Z -1.0000
G03 X 13.5766 Y 26.3817 Z -1.0000 I -0.1609 J -0.0554
G01 X 13.5694 Y 26.3824 Z -1.0000
G01 X 13.5508 Y 26.3755 Z -1.0000
G01 X 13.5453 Y 26.3843 Z -1.0000
G01 X 13.5436 Y 26.3918 Z -1.0000
G01 X 13.5279 Y 26.4017 Z -1.0000
G01 X 13.5119 Y 26.4110 Z -1.0000
G01 X 13.5111 Y 26.4164 Z -1.0000
G01 X 13.5106 Y 26.4220 Z -1.0000
G01 X 13.4993 Y 26.4298 Z -1.0000
G02 X 13.4843 Y 26.4381 Z -1.0000 I 0.0206 J 0.0546
G02 X 13.4498 Y 26.4678 Z -1.0000 I 0.2575 J 0.3346
G03 X 13.4147 Y 26.4971 Z -1.0000 I -0.2340 J -0.2443
G03 X 13.3880 Y 26.5127 Z -1.0000 I -0.0912 J -0.1254
G02 X 13.3634 Y 26.5290 Z -1.0000 I 0.0402 J 0.0880
G01 X 13.3551 Y 26.5425 Z -1.0000
G01 X 13.3495 Y 26.5494 Z -1.0000
G01 X 13.3443 Y 26.5478 Z -1.0000
G01 X 13.3327 Y 26.5439 Z -1.0000
G01 X 13.3245 Y 26.5564 Z -1.0000
G01 X 13.3182 Y 26.5719 Z -1.0000
G03 X 13.2959 Y 26.5858 Z -1.0000 I -0.0397 J -0.0386
G01 X 13.2747 Y 26.5996 Z -1.0000
G01 X 13.2709 Y 26.6134 Z -1.0000
G01 X 13.2708 Y 26.6227 Z -1.0000
G01 X 13.2614 Y 26.6188 Z -1.0000
G01 X 13.2528 Y 26.6297 Z -1.0000
G01 X 13.2464 Y 26.6408 Z -1.0000
G01 X 13.2329 Y 26.6456 Z -1.0000
G01 X 13.2177 Y 26.6505 Z -1.0000
G02 X 13.1920 Y 26.6755 Z -1.0000 I 0.0764 J 0.1042
G03 X 13.1624 Y 26.7023 Z -1.0000 I -0.0900 J -0.0698
G01 X 13.1554 Y 26.6984 Z -1.0000
G01 X 13.1529 Y 26.6938 Z -1.0000
G01 X 13.1448 Y 26.6914 Z -1.0000
G01 X 13.1396 Y 26.6972 Z -1.0000
G01 X 13.1466 Y 26.7098 Z -1.0000
G01 X 13.1503 Y 26.7163 Z -1.0000
G01 X 13.1476 Y 26.7194 Z -1.0000
G01 X 13.1370 Y 26.7220 Z -1.0000
G02 X 13.1182 Y 26.7337 Z -1.0000 I 0.0468 J 0.0952
G01 X 13.1020 Y 26.7420 Z -1.0000
G01 X 13.0975 Y 26.7395 Z -1.0000
G01 X 13.0927 Y 26.7355 Z -1.0000
G01 X 13.0810 Y 26.7367 Z -1.0000
G01 X 13.0774 Y 26.7423 Z -1.0000
G01 X 13.0814 Y 26.7480 Z -1.0000
G01 X 13.0825 Y 26.7526 Z -1.0000
G01 X 13.0720 Y 26.7588 Z -1.0000
G02 X 13.0504 Y 26.7674 Z -1.0000 I 0.0148 J 0.0684
G02 X 13.0262 Y 26.7867 Z -1.0000 I 0.0649 J 0.1065
G03 X 13.0025 Y 26.8071 Z -1.0000 I -0.1326 J -0.1299
G01 X 12.9881 Y 26.8143 Z -1.0000
G01 X 12.9750 Y 26.8255 Z -1.0000
G01 X 12.9793 Y 26.8324 Z -1.0000
G01 X 12.9854 Y 26.8398 Z -1.0000
G01 X 12.9740 Y 26.8578 Z -1.0000
G01 X 12.9517 Y 26.8633 Z -1.0000
G01 X 12.9372 Y 26.8518 Z -1.0000
G01 X 12.9304 Y 26.8588 Z -1.0000
G01 X 12.9251 Y 26.8768 Z -1.0000
G01 X 12.9163 Y 26.8817 Z -1.0000
G01 X 12.9039 Y 26.8840 Z -1.0000
G01 X 12.8983 Y 26.8887 Z -1.0000
G01 X 12.8980 Y 26.8935 Z -1.0000
G01 X 12.9014 Y 26.8957 Z -1.0000
G01 X 12.9081 Y 26.9029 Z -1.0000
G01 X 12.9001 Y 26.9129 Z -1.0000
G03 X 12.8912 Y 26.9154 Z -1.0000 I -0.0459 J -0.1469
G03 X 12.8725 Y 26.9197 Z -1.0000 I -0.1387 J -0.5589
G01 X 12.8564 Y 26.9277 Z -1.0000
G02 X 12.8384 Y 26.9485 Z -1.0000 I 0.0561 J 0.0666
G03 X 12.8206 Y 26.9686 Z -1.0000 I -0.0664 J -0.0410
G01 X 12.8074 Y 26.9732 Z -1.0000
G01 X 12.7931 Y 26.9768 Z -1.0000
G02 X 12.7750 Y 26.9908 Z -1.0000 I 0.0342 J 0.0630
G03 X 12.7570 Y 27.0052 Z -1.0000 I -0.0592 J -0.0556
G01 X 12.7452 Y 27.0084 Z -1.0000
G01 X 12.7372 Y 27.0114 Z -1.0000
G01 X 12.7366 Y 27.0159 Z -1.0000
G01 X 12.7424 Y 27.0202 Z -1.0000
G01 X 12.7511 Y 27.0196 Z -1.0000
G01 X 12.7578 Y 27.0204 Z -1.0000
G01 X 12.7610 Y 27.0262 Z -1.0000
G01 X 12.7576 Y 27.0333 Z -1.0000
G01 X 12.7483 Y 27.0366 Z -1.0000
G01 X 12.7365 Y 27.0387 Z -1.0000
G01 X 12.7281 Y 27.0441 Z -1.0000
G01 X 12.7199 Y 27.0501 Z -1.0000
G01 X 12.7108 Y 27.0532 Z -1.0000
G02 X 12.6492 Y 27.0782 Z -1.0000 I 0.0234 J 0.1460
G01 X 12.6341 Y 27.1072 Z -1.0000
G01 X 12.6296 Y 27.1163 Z -1.0000
G01 X 12.6112 Y 27.1248 Z -1.0000
G02 X 12.5901 Y 27.1330 Z -1.0000 I 0.0140 J 0.0677
G02 X 12.5637 Y 27.1528 Z -1.0000 I 0.0758 J 0.1286
G03 X 12.5377 Y 27.1737 Z -1.0000 I -0.1511 J -0.1607
G03 X 12.5231 Y 27.1808 Z -1.0000 I -0.0297 J -0.0431
G01 X 12.5096 Y 27.1886 Z -1.0000
G02 X 12.4964 Y 27.2064 Z -1.0000 I 0.0476 J 0.0493
G03 X 12.4844 Y 27.2229 Z -1.0000 I -0.0593 J -0.0305
G01 X 12.4794 Y 27.2235 Z -1.0000
G01 X 12.4738 Y 27.2236 Z -1.0000
G02 X 12.4533 Y 27.2409 Z -1.0000 I 0.0651 J 0.0977
G03 X 12.4320 Y 27.2590 Z -1.0000 I -0.0933 J -0.0881
G01 X 12.4221 Y 27.2621 Z -1.0000
G01 X 12.3917 Y 27.2759 Z -1.0000
G01 X 12.3959 Y 27.2922 Z -1.0000
G01 X 12.3858 Y 27.3007 Z -1.0000
G01 X 12.3716 Y 27.3116 Z -1.0000
G01 X 12.3748 Y 27.3201 Z -1.0000
G01 X 12.3774 Y 27.3236 Z -1.0000
G01 X 12.3748 Y 27.3281 Z -1.0000
G01 X 12.3687 Y 27.3290 Z -1.0000
G01 X 12.3663 Y 27.3259 Z -1.0000
G01 X 12.3563 Y 27.3199 Z -1.0000
G02 X 12.3012 Y 27.3607 Z -1.0000 I 0.1104 J 0.2067
G03 X 12.2584 Y 27.4021 Z -1.0000 I -1.4201 J -1.4250
G01 X 12.2562 Y 27.4030 Z -1.0000
G01 X 12.2530 Y 27.3906 Z -1.0000
G01 X 12.2458 Y 27.4010 Z -1.0000
G03 X 12.2245 Y 27.4321 Z -1.0000 I -0.0577 J -0.0166
G01 X 12.2006 Y 27.4356 Z -1.0000
G01 X 12.1958 Y 27.4367 Z -1.0000
G01 X 12.1949 Y 27.4421 Z -1.0000
G01 X 12.1939 Y 27.4489 Z -1.0000
G01 X 12.1871 Y 27.4523 Z -1.0000
G01 X 12.1801 Y 27.4549 Z -1.0000
G01 X 12.1795 Y 27.4590 Z -1.0000
G01 X 12.1793 Y 27.4645 Z -1.0000
G01 X 12.1692 Y 27.4734 Z -1.0000
G01 X 12.1593 Y 27.4824 Z -1.0000
G01 X 12.1592 Y 27.4884 Z -1.0000
G01 X 12.1583 Y 27.4924 Z -1.0000
G01 X 12.1506 Y 27.4943 Z -1.0000
G01 X 12.1275 Y 27.4984 Z -1.0000
G01 X 12.1141 Y 27.5122 Z -1.0000
G01 X 12.0959 Y 27.5277 Z -1.0000
G01 X 12.0822 Y 27.5210 Z -1.0000
G01 X 12.0781 Y 27.5233 Z -1.0000
G01 X 12.0672 Y 27.5467 Z -1.0000
G03 X 12.0293 Y 27.5685 Z -1.0000 I -0.0662 J -0.0716
G02 X 12.0139 Y 27.5754 Z -1.0000 I 0.0198 J 0.0644
G02 X 11.9994 Y 27.5869 Z -1.0000 I 0.0413 J 0.0673
G03 X 11.9846 Y 27.5972 Z -1.0000 I -0.0363 J -0.0363
G01 X 11.9705 Y 27.6003 Z -1.0000
G01 X 11.9632 Y 27.6037 Z -1.0000
G01 X 11.9635 Y 27.6088 Z -1.0000
G01 X 11.9654 Y 27.6193 Z -1.0000
G01 X 11.9571 Y 27.6233 Z -1.0000
G01 X 11.9488 Y 27.6257 Z -1.0000
G01 X 11.9469 Y 27.6343 Z -1.0000
G01 X 11.9452 Y 27.6456 Z -1.0000
G01 X 11.9336 Y 27.6537 Z -1.0000
G01 X 11.9200 Y 27.6617 Z -1.0000
G01 X 11.9156 Y 27.6729 Z -1.0000
G01 X 11.9120 Y 27.6768 Z -1.0000
G01 X 11.9055 Y 27.6739 Z -1.0000
G01 X 11.8966 Y 27.6689 Z -1.0000
G01 X 11.8907 Y 27.6726 Z -1.0000
G01 X 11.8836 Y 27.6816 Z -1.0000
G01 X 11.8725 Y 27.6849 Z -1.0000
G01 X 11.8626 Y 27.6884 Z -1.0000
G01 X 11.8592 Y 27.6955 Z -1.0000
G01 X 11.8567 Y 27.7037 Z -1.0000
G01 X 11.8522 Y 27.7061 Z -1.0000
G01 X 11.8402 Y 27.7185 Z -1.0000
G01 X 11.8530 Y 27.7357 Z -1.0000
G01 X 11.8424 Y 27.7467 Z -1.0000
G01 X 11.8268 Y 27.7508 Z -1.0000
G01 X 11.8240 Y 27.7482 Z -1.0000
G01 X 11.8216 Y 27.7437 Z -1.0000
G01 X 11.8134 Y 27.7413 Z -1.0000
G01 X 11.8057 Y 27.7442 Z -1.0000
G01 X 11.8029 Y 27.7503 Z -1.0000
G01 X 11.8002 Y 27.7580 Z -1.0000
G03 X 11.7875 Y 27.7697 Z -1.0000 I -0.0441 J -0.0351
G02 X 11.7730 Y 27.7812 Z -1.0000 I 0.0647 J 0.0965
G02 X 11.7366 Y 27.8171 Z -1.0000 I 0.6169 J 0.6622
G03 X 11.6989 Y 27.8489 Z -1.0000 I -0.1713 J -0.1642
G01 X 11.6823 Y 27.8541 Z -1.0000
G01 X 11.6659 Y 27.8577 Z -1.0000
G01 X 11.6594 Y 27.8647 Z -1.0000
G01 X 11.6533 Y 27.8733 Z -1.0000
G03 X 11.6375 Y 27.8834 Z -1.0000 I -0.0437 J -0.0510
G02 X 11.6225 Y 27.8934 Z -1.0000 I 0.0240 J 0.0524
G01 X 11.6197 Y 27.8999 Z -1.0000
G01 X 11.6166 Y 27.9064 Z -1.0000
G03 X 11.5932 Y 27.9217 Z -1.0000 I -0.0815 J -0.0991
G02 X 11.5669 Y 27.9353 Z -1.0000 I 1.1869 J 2.3305
G01 X 11.5635 Y 27.9373 Z -1.0000
G01 X 11.5702 Y 27.9456 Z -1.0000
G01 X 11.5710 Y 27.9503 Z -1.0000
G01 X 11.5612 Y 27.9565 Z -1.0000
G01 X 11.5476 Y 27.9634 Z -1.0000
G01 X 11.5468 Y 27.9686 Z -1.0000
G01 X 11.5326 Y 27.9723 Z -1.0000
G01 X 11.5184 Y 27.9740 Z -1.0000
G01 X 11.5140 Y 27.9810 Z -1.0000
G01 X 11.5105 Y 27.9914 Z -1.0000
G03 X 11.4961 Y 28.0050 Z -1.0000 I -0.0451 J -0.0335
G02 X 11.4824 Y 28.0176 Z -1.0000 I 0.0309 J 0.0473
G01 X 11.4821 Y 28.0229 Z -1.0000
G01 X 11.4810 Y 28.0331 Z -1.0000
G01 X 11.4646 Y 28.0408 Z -1.0000
G01 X 11.4476 Y 28.0481 Z -1.0000
G02 X 11.4340 Y 28.0681 Z -1.0000 I 0.0334 J 0.0373
G01 X 11.4271 Y 28.0732 Z -1.0000
G01 X 11.4156 Y 28.0692 Z -1.0000
G01 X 11.4084 Y 28.0673 Z -1.0000
G01 X 11.4059 Y 28.0715 Z -1.0000
G01 X 11.3986 Y 28.0968 Z -1.0000
G01 X 11.3711 Y 28.1039 Z -1.0000
G01 X 11.3579 Y 28.1068 Z -1.0000
G02 X 11.3409 Y 28.1285 Z -1.0000 I 0.0395 J 0.0485
G03 X 11.3239 Y 28.1533 Z -1.0000 I -0.0866 J -0.0409
G01 X 11.3096 Y 28.1617 Z -1.0000
G02 X 11.2641 Y 28.1828 Z -1.0000 I 0.0338 J 0.1330
G01 X 11.2536 Y 28.2015 Z -1.0000
G01 X 11.2457 Y 28.2168 Z -1.0000
G03 X 11.2210 Y 28.2285 Z -1.0000 I -0.0353 J -0.0425
G01 X 11.2106 Y 28.2339 Z -1.0000
G01 X 11.2072 Y 28.2416 Z -1.0000
G01 X 11.1947 Y 28.2639 Z -1.0000
G01 X 11.1827 Y 28.2574 Z -1.0000
G01 X 11.1654 Y 28.2819 Z -1.0000
G03 X 11.1458 Y 28.3129 Z -1.0000 I -0.1297 J -0.0604
G01 X 11.1380 Y 28.3149 Z -1.0000
G01 X 11.1292 Y 28.3155 Z -1.0000
G01 X 11.1171 Y 28.3264 Z -1.0000
G01 X 11.1054 Y 28.3369 Z -1.0000
G01 X 11.0983 Y 28.3367 Z -1.0000
G01 X 11.0923 Y 28.3372 Z -1.0000
G01 X 11.0862 Y 28.3469 Z -1.0000
G01 X 11.0798 Y 28.3573 Z -1.0000
G01 X 11.0729 Y 28.3585 Z -1.0000
G01 X 11.0684 Y 28.3597 Z -1.0000
G01 X 11.0675 Y 28.3651 Z -1.0000
G01 X 11.0675 Y 28.3726 Z -1.0000
G01 X 11.0633 Y 28.3754 Z -1.0000
G02 X 11.0274 Y 28.3892 Z -1.0000 I 0.0000 J 0.0536
G01 X 11.0135 Y 28.4204 Z -1.0000
G01 X 11.0102 Y 28.4266 Z -1.0000
G01 X 11.0050 Y 28.4261 Z -1.0000
G01 X 10.9872 Y 28.4208 Z -1.0000
G01 X 10.9783 Y 28.4320 Z -1.0000
G01 X 10.9750 Y 28.4441 Z -1.0000
G01 X 10.9677 Y 28.4503 Z -1.0000
G01 X 10.9606 Y 28.4568 Z -1.0000
G01 X 10.9571 Y 28.4717 Z -1.0000
G01 X 10.9540 Y 28.4833 Z -1.0000
G01 X 10.9497 Y 28.4844 Z -1.0000
G01 X 10.9199 Y 28.4864 Z -1.0000
G01 X 10.9100 Y 28.5172 Z -1.0000
G01 X 10.9079 Y 28.5250 Z -1.0000
G01 X 10.9004 Y 28.5268 Z -1.0000
G01 X 10.8885 Y 28.5272 Z -1.0000
G01 X 10.8748 Y 28.5371 Z -1.0000
G03 X 10.8613 Y 28.5491 Z -1.0000 I -0.0505 J -0.0429
G01 X 10.8534 Y 28.5515 Z -1.0000
G01 X 10.8471 Y 28.5543 Z -1.0000
G01 X 10.8444 Y 28.5616 Z -1.0000
G01 X 10.8406 Y 28.5688 Z -1.0000
G03 X 10.8179 Y 28.5801 Z -1.0000 I -0.0485 J -0.0692
G02 X 10.7749 Y 28.6043 Z -1.0000 I 0.0377 J 0.1175
G01 X 10.7738 Y 28.6183 Z -1.0000
G01 X 10.7735 Y 28.6333 Z -1.0000
G01 X 10.7518 Y 28.6431 Z -1.0000
G02 X 10.7399 Y 28.6445 Z -1.0000 I -0.0000 J 0.0534
G02 X 10.7207 Y 28.6503 Z -1.0000 I 0.0313 J 0.1366
G01 X 10.7094 Y 28.6595 Z -1.0000
G01 X 10.7098 Y 28.6671 Z -1.0000
G01 X 10.7096 Y 28.6737 Z -1.0000
G01 X 10.6967 Y 28.6808 Z -1.0000
G01 X 10.6796 Y 28.6892 Z -1.0000
G01 X 10.6711 Y 28.7031 Z -1.0000
G01 X 10.6631 Y 28.7184 Z -1.0000
G03 X 10.6462 Y 28.7317 Z -1.0000 I -0.0431 J -0.0374
G02 X 10.6284 Y 28.7437 Z -1.0000 I 0.0438 J 0.0843
G01 X 10.6259 Y 28.7491 Z -1.0000
G01 X 10.6231 Y 28.7531 Z -1.0000
G01 X 10.6074 Y 28.7560 Z -1.0000
G01 X 10.5978 Y 28.7601 Z -1.0000
G01 X 10.5975 Y 28.7662 Z -1.0000
G01 X 10.5979 Y 28.7739 Z -1.0000
G01 X 10.5877 Y 28.7811 Z -1.0000
G02 X 10.5712 Y 28.7885 Z -1.0000 I 0.0124 J 0.0501
G02 X 10.5563 Y 28.8024 Z -1.0000 I 0.0373 J 0.0550
G03 X 10.5415 Y 28.8168 Z -1.0000 I -0.0616 J -0.0482
G03 X 10.5247 Y 28.8261 Z -1.0000 I -0.0415 J -0.0555
G01 X 10.5124 Y 28.8395 Z -1.0000
G01 X 10.5185 Y 28.8478 Z -1.0000
G01 X 10.5196 Y 28.8531 Z -1.0000
G03 X 10.4807 Y 28.8648 Z -1.0000 I -0.0643 J -0.1425
G01 X 10.4573 Y 28.8759 Z -1.0000
G01 X 10.4433 Y 28.8977 Z -1.0000
G03 X 10.4310 Y 28.9185 Z -1.0000 I -0.0480 J -0.0143
G01 X 10.4203 Y 28.9211 Z -1.0000
G01 X 10.4104 Y 28.9240 Z -1.0000
G01 X 10.4105 Y 28.9306 Z -1.0000
G01 X 10.4007 Y 28.9406 Z -1.0000
G01 X 10.3890 Y 28.9510 Z -1.0000
G01 X 10.3863 Y 28.9584 Z -1.0000
G01 X 10.3797 Y 28.9651 Z -1.0000
G01 X 10.3700 Y 28.9585 Z -1.0000
G01 X 10.3582 Y 28.9726 Z -1.0000
G03 X 10.3480 Y 28.9930 Z -1.0000 I -0.0948 J -0.0346
G01 X 10.3434 Y 28.9955 Z -1.0000
G01 X 10.3393 Y 28.9977 Z -1.0000
G01 X 10.3370 Y 29.0058 Z -1.0000
G01 X 10.3330 Y 29.0131 Z -1.0000
G03 X 10.3088 Y 29.0245 Z -1.0000 I -0.0504 J -0.0758
G02 X 10.2840 Y 29.0355 Z -1.0000 I 0.0300 J 0.1010
G01 X 10.2806 Y 29.0416 Z -1.0000
G01 X 10.2776 Y 29.0479 Z -1.0000
G01 X 10.2658 Y 29.0541 Z -1.0000
G01 X 10.2559 Y 29.0599 Z -1.0000
G01 X 10.2554 Y 29.0651 Z -1.0000
G01 X 10.2555 Y 29.0711 Z -1.0000
G01 X 10.2473 Y 29.0791 Z -1.0000
G02 X 10.2357 Y 29.0873 Z -1.0000 I 0.0312 J 0.0567
G02 X 10.1906 Y 29.1293 Z -1.0000 I 0.7930 J 0.8988
G03 X 10.1444 Y 29.1696 Z -1.0000 I -0.3857 J -0.3944
G03 X 10.1223 Y 29.1825 Z -1.0000 I -0.0591 J -0.0756
G02 X 10.1001 Y 29.1947 Z -1.0000 I 0.0460 J 0.1104
G01 X 10.0890 Y 29.2056 Z -1.0000
G03 X 10.0609 Y 29.2301 Z -1.0000 I -0.0647 J -0.0459
G01 X 10.0396 Y 29.2313 Z -1.0000
G01 X 10.0305 Y 29.2309 Z -1.0000
G01 X 10.0165 Y 29.2376 Z -1.0000
G01 X 10.0021 Y 29.2424 Z -1.0000
G03 X 9.9753 Y 29.2378 Z -1.0000 I -0.0003 J -0.0800
G02 X 9.9468 Y 29.2325 Z -1.0000 I -0.0309 J 0.0876
G01 X 9.9423 Y 29.2369 Z -1.0000
G01 X 9.9283 Y 29.2603 Z -1.0000
G01 X 9.9049 Y 29.2568 Z -1.0000
G02 X 9.8665 Y 29.2407 Z -1.0000 I -0.0390 J 0.0389
G01 X 9.8507 Y 29.2562 Z -1.0000
G01 X 9.8413 Y 29.2652 Z -1.0000
G01 X 9.8281 Y 29.2552 Z -1.0000
G01 X 9.8235 Y 29.2519 Z -1.0000
G01 X 9.8103 Y 29.2552 Z -1.0000
G03 X 9.7576 Y 29.2682 Z -1.0000 I -0.0519 J -0.0971
G03 X 9.7093 Y 29.2545 Z -1.0000 I 0.0007 J -0.0941
G01 X 9.6960 Y 29.2518 Z -1.0000
G01 X 9.6857 Y 29.2580 Z -1.0000
G01 X 9.6685 Y 29.2658 Z -1.0000
G01 X 9.6517 Y 29.2555 Z -1.0000
G02 X 9.5799 Y 29.1978 Z -1.0000 I -0.1133 J 0.0676
G01 X 9.5477 Y 29.2210 Z -1.0000
G01 X 9.5457 Y 29.2260 Z -1.0000
G01 X 9.5409 Y 29.2280 Z -1.0000
G01 X 9.5377 Y 29.2255 Z -1.0000
G01 X 9.5381 Y 29.2175 Z -1.0000
G01 X 9.5362 Y 29.2110 Z -1.0000
G01 X 9.5236 Y 29.2069 Z -1.0000
G01 X 9.5075 Y 29.2105 Z -1.0000
G01 X 9.5009 Y 29.2176 Z -1.0000
G01 X 9.4953 Y 29.2227 Z -1.0000
G01 X 9.4880 Y 29.2211 Z -1.0000
G01 X 9.4787 Y 29.2190 Z -1.0000
G02 X 9.4483 Y 29.2310 Z -1.0000 I 0.0309 J 0.1228
G03 X 9.4163 Y 29.2451 Z -1.0000 I -0.0889 J -0.1592
G03 X 9.3857 Y 29.2517 Z -1.0000 I -0.0468 J -0.1425
G01 X 9.3645 Y 29.2629 Z -1.0000
G01 X 9.3403 Y 29.2737 Z -1.0000
G02 X 9.2977 Y 29.2861 Z -1.0000 I 0.0195 J 0.1466
G02 X 9.2661 Y 29.3080 Z -1.0000 I 0.0468 J 0.1012
G01 X 9.2519 Y 29.3164 Z -1.0000
G01 X 9.2383 Y 29.3163 Z -1.0000
G01 X 9.2267 Y 29.3158 Z -1.0000
G01 X 9.2236 Y 29.3196 Z -1.0000
G01 X 9.2261 Y 29.3231 Z -1.0000
G01 X 9.2317 Y 29.3225 Z -1.0000
G01 X 9.2348 Y 29.3257 Z -1.0000
G01 X 9.2289 Y 29.3307 Z -1.0000
G01 X 9.2239 Y 29.3304 Z -1.0000
G01 X 9.2183 Y 29.3300 Z -1.0000
G02 X 9.1925 Y 29.3443 Z -1.0000 I 0.0651 J 0.1481
G03 X 9.1660 Y 29.3599 Z -1.0000 I -0.1359 J -0.2000
G03 X 9.1498 Y 29.3660 Z -1.0000 I -0.0351 J -0.0691
G01 X 9.1348 Y 29.3732 Z -1.0000
G02 X 9.1216 Y 29.3872 Z -1.0000 I 0.0335 J 0.0446
G01 X 9.1082 Y 29.3999 Z -1.0000
G01 X 9.0924 Y 29.4042 Z -1.0000
G01 X 9.0777 Y 29.4085 Z -1.0000
G01 X 9.0706 Y 29.4182 Z -1.0000
G01 X 9.0646 Y 29.4293 Z -1.0000
G01 X 9.0577 Y 29.4323 Z -1.0000
G01 X 9.0496 Y 29.4349 Z -1.0000
G02 X 9.0274 Y 29.4535 Z -1.0000 I 0.0930 J 0.1337
G03 X 9.0048 Y 29.4712 Z -1.0000 I -0.0860 J -0.0860
G01 X 8.9928 Y 29.4746 Z -1.0000
G01 X 8.9807 Y 29.4775 Z -1.0000
G01 X 8.9681 Y 29.4869 Z -1.0000
G03 X 8.9567 Y 29.4992 Z -1.0000 I -0.9532 J -0.8747
G03 X 8.9354 Y 29.5217 Z -1.0000 I -4.4812 J -4.2204
G02 X 8.9206 Y 29.5425 Z -1.0000 I 0.0661 J 0.0629
G01 X 8.9223 Y 29.5468 Z -1.0000
G01 X 8.9244 Y 29.5512 Z -1.0000
G01 X 8.9157 Y 29.5655 Z -1.0000
G01 X 8.9015 Y 29.5758 Z -1.0000
G01 X 8.8966 Y 29.5743 Z -1.0000
G01 X 8.8955 Y 29.5680 Z -1.0000
G01 X 8.8993 Y 29.5628 Z -1.0000
G01 X 8.9040 Y 29.5519 Z -1.0000
G01 X 8.8955 Y 29.5451 Z -1.0000
G01 X 8.8896 Y 29.5479 Z -1.0000
G01 X 8.8892 Y 29.5527 Z -1.0000
G01 X 8.8895 Y 29.5599 Z -1.0000
G03 X 8.8738 Y 29.5819 Z -1.0000 I -0.0911 J -0.0481
G01 X 8.8660 Y 29.5992 Z -1.0000
G01 X 8.8536 Y 29.6115 Z -1.0000
G02 X 8.8329 Y 29.6245 Z -1.0000 I 0.0288 J 0.0692
G01 X 8.8290 Y 29.6332 Z -1.0000
G01 X 8.8265 Y 29.6401 Z -1.0000
G01 X 8.8227 Y 29.6407 Z -1.0000
G01 X 8.8170 Y 29.6402 Z -1.0000
G01 X 8.8083 Y 29.6466 Z -1.0000
G01 X 8.8056 Y 29.6550 Z -1.0000
G01 X 8.8093 Y 29.6601 Z -1.0000
G01 X 8.8058 Y 29.6643 Z -1.0000
G01 X 8.7955 Y 29.6686 Z -1.0000
G02 X 8.7787 Y 29.6895 Z -1.0000 I 0.0634 J 0.0682
G03 X 8.7625 Y 29.7113 Z -1.0000 I -0.1122 J -0.0661
G01 X 8.7561 Y 29.7142 Z -1.0000
G01 X 8.7500 Y 29.7174 Z -1.0000
G02 X 8.7361 Y 29.7424 Z -1.0000 I 0.1075 J 0.0760
G03 X 8.7218 Y 29.7646 Z -1.0000 I -0.0708 J -0.0298
G01 X 8.7139 Y 29.7665 Z -1.0000
G01 X 8.7063 Y 29.7684 Z -1.0000
G02 X 8.6951 Y 29.7881 Z -1.0000 I 0.0434 J 0.0378
G03 X 8.6842 Y 29.8114 Z -1.0000 I -0.1027 J -0.0339
G01 X 8.6768 Y 29.8176 Z -1.0000
G01 X 8.6698 Y 29.8234 Z -1.0000
G01 X 8.6669 Y 29.8335 Z -1.0000
G01 X 8.6633 Y 29.8435 Z -1.0000
G01 X 8.6491 Y 29.8552 Z -1.0000
G01 X 8.6353 Y 29.8661 Z -1.0000
G01 X 8.6342 Y 29.8722 Z -1.0000
G01 X 8.6343 Y 29.8795 Z -1.0000
G03 X 8.6205 Y 29.9088 Z -1.0000 I -0.1887 J -0.0705
G02 X 8.6072 Y 29.9373 Z -1.0000 I 0.1656 J 0.0945
G01 X 8.6083 Y 29.9421 Z -1.0000
G01 X 8.6084 Y 29.9455 Z -1.0000
G01 X 8.6010 Y 29.9508 Z -1.0000
G01 X 8.5919 Y 29.9570 Z -1.0000
G01 X 8.5894 Y 29.9635 Z -1.0000
G01 X 8.5796 Y 29.9861 Z -1.0000
G01 X 8.5549 Y 29.9960 Z -1.0000
G01 X 8.5505 Y 29.9983 Z -1.0000
G01 X 8.5449 Y 30.0108 Z -1.0000
G01 X 8.5388 Y 30.0200 Z -1.0000
G01 X 8.5325 Y 30.0203 Z -1.0000
G01 X 8.5285 Y 30.0217 Z -1.0000
G01 X 8.5275 Y 30.0337 Z -1.0000
G01 X 8.5266 Y 30.0486 Z -1.0000
G01 X 8.5215 Y 30.0523 Z -1.0000
G01 X 8.5152 Y 30.0557 Z -1.0000
G01 X 8.5119 Y 30.0666 Z -1.0000
G01 X 8.5078 Y 30.0782 Z -1.0000
G01 X 8.4943 Y 30.0889 Z -1.0000
G01 X 8.4806 Y 30.0995 Z -1.0000
G01 X 8.4766 Y 30.1108 Z -1.0000
G01 X 8.4735 Y 30.1234 Z -1.0000
G03 X 8.4608 Y 30.1401 Z -1.0000 I -0.0606 J -0.0328
G02 X 8.4458 Y 30.1562 Z -1.0000 I 0.1478 J 0.1525
G02 X 8.4365 Y 30.1691 Z -1.0000 I 0.0853 J 0.0715
G01 X 8.4279 Y 30.1754 Z -1.0000
G01 X 8.4214 Y 30.1730 Z -1.0000
G01 X 8.4160 Y 30.1715 Z -1.0000
G01 X 8.4099 Y 30.1784 Z -1.0000
G03 X 8.3880 Y 30.2075 Z -1.0000 I -0.0522 J -0.0166
G01 X 8.3617 Y 30.2104 Z -1.0000
G01 X 8.3424 Y 30.2117 Z -1.0000
G01 X 8.3421 Y 30.2210 Z -1.0000
G01 X 8.3437 Y 30.2265 Z -1.0000
G03 X 8.3320 Y 30.2428 Z -1.0000 I -0.0478 J -0.0222
G03 X 8.3122 Y 30.2545 Z -1.0000 I -0.0363 J -0.0386
G03 X 8.2866 Y 30.2577 Z -1.0000 I -0.0208 J -0.0635
G02 X 8.2385 Y 30.2655 Z -1.0000 I -0.0076 J 0.1051
G01 X 8.2375 Y 30.2781 Z -1.0000
G01 X 8.2379 Y 30.2824 Z -1.0000
G01 X 8.2261 Y 30.2885 Z -1.0000
G02 X 8.1368 Y 30.3193 Z -1.0000 I 0.0861 J 0.3937
G01 X 8.1346 Y 30.3327 Z -1.0000
G01 X 8.1332 Y 30.3533 Z -1.0000
G03 X 8.0859 Y 30.3696 Z -1.0000 I -0.0485 J -0.0640
G01 X 8.0794 Y 30.3718 Z -1.0000
G02 X 8.0619 Y 30.3872 Z -1.0000 I 0.0768 J 0.1048
G03 X 8.0442 Y 30.4021 Z -1.0000 I -0.0742 J -0.0705
G01 X 8.0355 Y 30.4047 Z -1.0000
G01 X 8.0281 Y 30.4071 Z -1.0000
G01 X 8.0257 Y 30.4117 Z -1.0000
G01 X 8.0230 Y 30.4161 Z -1.0000
G01 X 8.0120 Y 30.4188 Z -1.0000
G01 X 7.9998 Y 30.4218 Z -1.0000
G01 X 7.9891 Y 30.4311 Z -1.0000
G03 X 7.9471 Y 30.4745 Z -1.0000 I -0.1897 J -0.1416
G01 X 7.9251 Y 30.4822 Z -1.0000
G01 X 7.8969 Y 30.4941 Z -1.0000
G02 X 7.8311 Y 30.5787 Z -1.0000 I 0.3452 J 0.3363
G01 X 7.8218 Y 30.5887 Z -1.0000
G01 X 7.8135 Y 30.5914 Z -1.0000
G01 X 7.8073 Y 30.5954 Z -1.0000
G02 X 7.8015 Y 30.6182 Z -1.0000 I 0.0637 J 0.0286
G01 X 7.7941 Y 30.6385 Z -1.0000
G01 X 7.7839 Y 30.6429 Z -1.0000
G01 X 7.7711 Y 30.6455 Z -1.0000
G01 X 7.7615 Y 30.6565 Z -1.0000
G01 X 7.7530 Y 30.6693 Z -1.0000
G01 X 7.7474 Y 30.6710 Z -1.0000
G01 X 7.7062 Y 30.6827 Z -1.0000
G02 X 7.6874 Y 30.7248 Z -1.0000 I 0.0377 J 0.0421
G01 X 7.7015 Y 30.7288 Z -1.0000
G01 X 7.7132 Y 30.7312 Z -1.0000
G01 X 7.7156 Y 30.7348 Z -1.0000
G01 X 7.7068 Y 30.7547 Z -1.0000
G01 X 7.6833 Y 30.7643 Z -1.0000
G01 X 7.6598 Y 30.7749 Z -1.0000
G02 X 7.6412 Y 30.8089 Z -1.0000 I 0.0558 J 0.0527
G01 X 7.6339 Y 30.8240 Z -1.0000
G01 X 7.6268 Y 30.8275 Z -1.0000
G01 X 7.6199 Y 30.8304 Z -1.0000
G01 X 7.6169 Y 30.8378 Z -1.0000
G03 X 7.6046 Y 30.8851 Z -1.0000 I -0.0971 J 0.0000
G01 X 7.5835 Y 30.8978 Z -1.0000
G01 X 7.5777 Y 30.9010 Z -1.0000
G01 X 7.5747 Y 30.9113 Z -1.0000
G01 X 7.5715 Y 30.9225 Z -1.0000
G01 X 7.5641 Y 30.9287 Z -1.0000
G01 X 7.5569 Y 30.9351 Z -1.0000
G01 X 7.5535 Y 30.9489 Z -1.0000
G01 X 7.5505 Y 30.9642 Z -1.0000
G03 X 7.5359 Y 30.9911 Z -1.0000 I -0.1408 J -0.0589
G02 X 7.5196 Y 31.0174 Z -1.0000 I 0.3041 J 0.2067
G01 X 7.5181 Y 31.0227 Z -1.0000
G01 X 7.5161 Y 31.0274 Z -1.0000
G03 X 7.4899 Y 31.0526 Z -1.0000 I -0.2595 J -0.2446
G02 X 7.4655 Y 31.0784 Z -1.0000 I 0.1171 J 0.1353
G01 X 7.4619 Y 31.0888 Z -1.0000
G01 X 7.4587 Y 31.0986 Z -1.0000
G01 X 7.4496 Y 31.1058 Z -1.0000
G01 X 7.4468 Y 31.1109 Z -1.0000
G01 X 7.4513 Y 31.1167 Z -1.0000
G01 X 7.4542 Y 31.1229 Z -1.0000
G01 X 7.4364 Y 31.1328 Z -1.0000
G02 X 7.4237 Y 31.1669 Z -1.0000 I 0.0603 J 0.0419
G01 X 7.4157 Y 31.1764 Z -1.0000
G01 X 7.4045 Y 31.1726 Z -1.0000
G01 X 7.4010 Y 31.1743 Z -1.0000
G01 X 7.4018 Y 31.1853 Z -1.0000
G01 X 7.3982 Y 31.1906 Z -1.0000
G01 X 7.3937 Y 31.1960 Z -1.0000
G01 X 7.3914 Y 31.2084 Z -1.0000
G01 X 7.3868 Y 31.2175 Z -1.0000
G01 X 7.3721 Y 31.2222 Z -1.0000
G01 X 7.3548 Y 31.2273 Z -1.0000
G02 X 7.3202 Y 31.2557 Z -1.0000 I 0.1078 J 0.1670
G03 X 7.2855 Y 31.2840 Z -1.0000 I -0.1407 J -0.1370
G01 X 7.2671 Y 31.2897 Z -1.0000
G01 X 7.2481 Y 31.2943 Z -1.0000
G02 X 7.2266 Y 31.3089 Z -1.0000 I 0.0364 J 0.0771
G03 X 7.2056 Y 31.3256 Z -1.0000 I -0.1230 J -0.1328
G01 X 7.1933 Y 31.3316 Z -1.0000
G01 X 7.1824 Y 31.3375 Z -1.0000
G01 X 7.1800 Y 31.3425 Z -1.0000
G01 X 7.1773 Y 31.3457 Z -1.0000
G01 X 7.1632 Y 31.3450 Z -1.0000
G01 X 7.1482 Y 31.3457 Z -1.0000
G01 X 7.1368 Y 31.3544 Z -1.0000
G01 X 7.1254 Y 31.3660 Z -1.0000
G03 X 7.0972 Y 31.3833 Z -1.0000 I -0.1220 J -0.1670
G02 X 7.0711 Y 31.4009 Z -1.0000 I 0.0591 J 0.1161
G01 X 7.0673 Y 31.4092 Z -1.0000
G01 X 7.0638 Y 31.4141 Z -1.0000
G01 X 7.0550 Y 31.4133 Z -1.0000
G01 X 7.0432 Y 31.4126 Z -1.0000
G02 X 7.0182 Y 31.4272 Z -1.0000 I 0.0305 J 0.0809
G03 X 6.9929 Y 31.4449 Z -1.0000 I -0.1154 J -0.1379
G01 X 6.9829 Y 31.4476 Z -1.0000
G01 X 6.9737 Y 31.4506 Z -1.0000
G01 X 6.9629 Y 31.4622 Z -1.0000
G01 X 6.9517 Y 31.4743 Z -1.0000
G03 X 6.9288 Y 31.4873 Z -1.0000 I -0.0656 J -0.0894
G02 X 6.8968 Y 31.5063 Z -1.0000 I 0.0509 J 0.1218
G02 X 6.8535 Y 31.5480 Z -1.0000 I 0.2150 J 0.2664
G03 X 6.8354 Y 31.5646 Z -1.0000 I -0.0817 J -0.0710
G01 X 6.8268 Y 31.5674 Z -1.0000
G01 X 6.8190 Y 31.5705 Z -1.0000
G01 X 6.8100 Y 31.5832 Z -1.0000
G01 X 6.7999 Y 31.5943 Z -1.0000
G01 X 6.7819 Y 31.5991 Z -1.0000
G01 X 6.7660 Y 31.6046 Z -1.0000
G01 X 6.7597 Y 31.6167 Z -1.0000
G03 X 6.7586 Y 31.6343 Z -1.0000 I -4.3263 J -0.2621
G03 X 6.7579 Y 31.6440 Z -1.0000 I -1.3686 J -0.0885
G01 X 6.7540 Y 31.6493 Z -1.0000
G01 X 6.7409 Y 31.6505 Z -1.0000
G01 X 6.7275 Y 31.6536 Z -1.0000
G02 X 6.7097 Y 31.6744 Z -1.0000 I 0.0404 J 0.0526
G01 X 6.7014 Y 31.6974 Z -1.0000
G01 X 6.7079 Y 31.6971 Z -1.0000
G01 X 6.7064 Y 31.7000 Z -1.0000
G03 X 6.6876 Y 31.7114 Z -1.0000 I -0.0941 J -0.1341
G02 X 6.6703 Y 31.7251 Z -1.0000 I 0.0263 J 0.0509
G02 X 6.6451 Y 31.7612 Z -1.0000 I 0.1740 J 0.1485
G03 X 6.6216 Y 31.7955 Z -1.0000 I -0.2090 J -0.1180
G01 X 6.6163 Y 31.7964 Z -1.0000
G01 X 6.6106 Y 31.7969 Z -1.0000
G02 X 6.5900 Y 31.8211 Z -1.0000 I 0.1000 J 0.1057
G03 X 6.5697 Y 31.8495 Z -1.0000 I -0.5079 J -0.3432
G03 X 6.5509 Y 31.8726 Z -1.0000 I -0.3564 J -0.2716
G02 X 6.5334 Y 31.8962 Z -1.0000 I 0.1344 J 0.1174
G02 X 6.5272 Y 31.9109 Z -1.0000 I 0.0449 J 0.0277
G01 X 6.5213 Y 31.9243 Z -1.0000
G01 X 6.5167 Y 31.9268 Z -1.0000
G01 X 6.5117 Y 31.9291 Z -1.0000
G02 X 6.5038 Y 31.9426 Z -1.0000 I 0.0406 J 0.0330
G01 X 6.4970 Y 31.9488 Z -1.0000
G01 X 6.4937 Y 31.9455 Z -1.0000
G01 X 6.4858 Y 31.9480 Z -1.0000
G01 X 6.4791 Y 31.9581 Z -1.0000
G01 X 6.4792 Y 31.9700 Z -1.0000
G01 X 6.4777 Y 31.9803 Z -1.0000
G01 X 6.4653 Y 31.9900 Z -1.0000
G01 X 6.4525 Y 32.0030 Z -1.0000
G01 X 6.4557 Y 32.0169 Z -1.0000
G01 X 6.4579 Y 32.0229 Z -1.0000
G01 X 6.4553 Y 32.0254 Z -1.0000
G01 X 6.4486 Y 32.0288 Z -1.0000
G02 X 6.4322 Y 32.0575 Z -1.0000 I 0.1307 J 0.0938
G03 X 6.4149 Y 32.0865 Z -1.0000 I -0.1265 J -0.0559
G01 X 6.4026 Y 32.0956 Z -1.0000
G01 X 6.3972 Y 32.1016 Z -1.0000
G01 X 6.3996 Y 32.1065 Z -1.0000
G01 X 6.4059 Y 32.1168 Z -1.0000
G01 X 6.3979 Y 32.1241 Z -1.0000
G01 X 6.3872 Y 32.1274 Z -1.0000
G01 X 6.3838 Y 32.1339 Z -1.0000
G01 X 6.3810 Y 32.1418 Z -1.0000
G01 X 6.3725 Y 32.1480 Z -1.0000
G01 X 6.3658 Y 32.1544 Z -1.0000
G01 X 6.3656 Y 32.1639 Z -1.0000
G01 X 6.3663 Y 32.1748 Z -1.0000
G01 X 6.3602 Y 32.1867 Z -1.0000
G01 X 6.3527 Y 32.1992 Z -1.0000
G02 X 6.3456 Y 32.2245 Z -1.0000 I 0.1284 J 0.0496
G03 X 6.3379 Y 32.2474 Z -1.0000 I -0.0819 J -0.0146
G01 X 6.3322 Y 32.2509 Z -1.0000
G02 X 6.2625 Y 32.3001 Z -1.0000 I -0.0000 J 0.0740
G01 X 6.2926 Y 32.3625 Z -1.0000
G01 X 6.2833 Y 32.3777 Z -1.0000
G01 X 6.2712 Y 32.3931 Z -1.0000
G02 X 6.2543 Y 32.4422 Z -1.0000 I 0.2628 J 0.1179
G03 X 6.2272 Y 32.5266 Z -1.0000 I -0.6155 J -0.1514
G01 X 6.2180 Y 32.5328 Z -1.0000
G01 X 6.1933 Y 32.5548 Z -1.0000
G02 X 6.2099 Y 32.6027 Z -1.0000 I 0.0578 J 0.0067
G01 X 6.2117 Y 32.6082 Z -1.0000
G01 X 6.2082 Y 32.6134 Z -1.0000
G01 X 6.2030 Y 32.6195 Z -1.0000
G01 X 6.2006 Y 32.6318 Z -1.0000
G01 X 6.1979 Y 32.6428 Z -1.0000
G01 X 6.1935 Y 32.6455 Z -1.0000
G01 X 6.1889 Y 32.6479 Z -1.0000
G01 X 6.1865 Y 32.6556 Z -1.0000
G01 X 6.1844 Y 32.6648 Z -1.0000
G01 X 6.1769 Y 32.6752 Z -1.0000
G01 X 6.1696 Y 32.6859 Z -1.0000
G02 X 6.1635 Y 32.7057 Z -1.0000 I 0.0819 J 0.0362
G03 X 6.1591 Y 32.7265 Z -1.0000 I -0.4967 J -0.0929
G03 X 6.1494 Y 32.7666 Z -1.0000 I -1.8236 J -0.4211
G02 X 6.1425 Y 32.8061 Z -1.0000 I 0.2550 J 0.0647
G01 X 6.1447 Y 32.8154 Z -1.0000
G01 X 6.1461 Y 32.8244 Z -1.0000
G03 X 6.1354 Y 32.8529 Z -1.0000 I -0.1272 J -0.0315
G02 X 6.1117 Y 32.9049 Z -1.0000 I 0.5202 J 0.2680
G01 X 6.1090 Y 32.9195 Z -1.0000
G01 X 6.1058 Y 32.9308 Z -1.0000
G01 X 6.0984 Y 32.9370 Z -1.0000
G01 X 6.0905 Y 32.9429 Z -1.0000
G01 X 6.0878 Y 32.9505 Z -1.0000
G03 X 6.0750 Y 33.0239 Z -1.0000 I -0.2156 J -0.0000
G01 X 6.0593 Y 33.0294 Z -1.0000
G01 X 6.0554 Y 33.0302 Z -1.0000
G01 X 6.0526 Y 33.0397 Z -1.0000
G01 X 6.0496 Y 33.0513 Z -1.0000
G01 X 6.0447 Y 33.0542 Z -1.0000
G01 X 6.0460 Y 33.0653 Z -1.0000
G01 X 6.0494 Y 33.0755 Z -1.0000
G01 X 6.0451 Y 33.0829 Z -1.0000
G01 X 6.0412 Y 33.0895 Z -1.0000
G01 X 6.0441 Y 33.0954 Z -1.0000
G01 X 6.0471 Y 33.1016 Z -1.0000
G01 X 6.0425 Y 33.1102 Z -1.0000
G01 X 6.0342 Y 33.1208 Z -1.0000
G02 X 6.0197 Y 33.1572 Z -1.0000 I 0.2418 J 0.1172
G03 X 6.0065 Y 33.1864 Z -1.0000 I -0.1284 J -0.0405
G01 X 6.0021 Y 33.1864 Z -1.0000
G01 X 5.9963 Y 33.1899 Z -1.0000
G01 X 5.9933 Y 33.1994 Z -1.0000
G01 X 5.9874 Y 33.2027 Z -1.0000
G01 X 5.9927 Y 33.2093 Z -1.0000
G01 X 5.9957 Y 33.2148 Z -1.0000
G01 X 5.9909 Y 33.2202 Z -1.0000
G01 X 5.9815 Y 33.2294 Z -1.0000
G01 X 5.9819 Y 33.2476 Z -1.0000
G01 X 5.9849 Y 33.2629 Z -1.0000
G01 X 5.9823 Y 33.2656 Z -1.0000
G01 X 5.9765 Y 33.2675 Z -1.0000
G02 X 5.9572 Y 33.2841 Z -1.0000 I 0.1013 J 0.1372
G02 X 5.9440 Y 33.3041 Z -1.0000 I 0.0425 J 0.0425
G01 X 5.9430 Y 33.3193 Z -1.0000
G01 X 5.9422 Y 33.3322 Z -1.0000
G01 X 5.9365 Y 33.3361 Z -1.0000
G01 X 5.9282 Y 33.3336 Z -1.0000
G01 X 5.9258 Y 33.3290 Z -1.0000
G01 X 5.9232 Y 33.3245 Z -1.0000
G01 X 5.9144 Y 33.3220 Z -1.0000
G01 X 5.9082 Y 33.3255 Z -1.0000
G01 X 5.9074 Y 33.3332 Z -1.0000
G03 X 5.9138 Y 33.3708 Z -1.0000 I -0.0899 J 0.0345
G01 X 5.9060 Y 33.3784 Z -1.0000
G01 X 5.8936 Y 33.3755 Z -1.0000
G01 X 5.8881 Y 33.3696 Z -1.0000
G01 X 5.8840 Y 33.3865 Z -1.0000
G01 X 5.8785 Y 33.4057 Z -1.0000
G01 X 5.8706 Y 33.4089 Z -1.0000
G01 X 5.8426 Y 33.4165 Z -1.0000
G01 X 5.8465 Y 33.4330 Z -1.0000
G01 X 5.8534 Y 33.4373 Z -1.0000
G01 X 5.8553 Y 33.4420 Z -1.0000
G01 X 5.8432 Y 33.4720 Z -1.0000
G01 X 5.8148 Y 33.4841 Z -1.0000
G01 X 5.8096 Y 33.4866 Z -1.0000
G01 X 5.8040 Y 33.4978 Z -1.0000
G01 X 5.7971 Y 33.5083 Z -1.0000
G01 X 5.7803 Y 33.5164 Z -1.0000
G02 X 5.7453 Y 33.5348 Z -1.0000 I 0.0185 J 0.0776
G01 X 5.7355 Y 33.5568 Z -1.0000
G01 X 5.7237 Y 33.5873 Z -1.0000
G01 X 5.7034 Y 33.5922 Z -1.0000
G01 X 5.6965 Y 33.5937 Z -1.0000
G01 X 5.6893 Y 33.6063 Z -1.0000
G01 X 5.6812 Y 33.6207 Z -1.0000
G01 X 5.6648 Y 33.6311 Z -1.0000
G01 X 5.6479 Y 33.6418 Z -1.0000
G02 X 5.6301 Y 33.6667 Z -1.0000 I 0.0732 J 0.0713
G03 X 5.6122 Y 33.6911 Z -1.0000 I -0.0851 J -0.0434
G01 X 5.5964 Y 33.7000 Z -1.0000
G02 X 5.5792 Y 33.7081 Z -1.0000 I 0.0122 J 0.0488
G02 X 5.5423 Y 33.7393 Z -1.0000 I 0.1895 J 0.2612
G03 X 5.5054 Y 33.7675 Z -1.0000 I -0.1302 J -0.1322
G01 X 5.4892 Y 33.7702 Z -1.0000
G01 X 5.4800 Y 33.7703 Z -1.0000
G01 X 5.4832 Y 33.7827 Z -1.0000
G03 X 5.4536 Y 33.8040 Z -1.0000 I -0.0519 J -0.0408
G02 X 5.4193 Y 33.8231 Z -1.0000 I 0.0413 J 0.1147
G01 X 5.4215 Y 33.8294 Z -1.0000
G01 X 5.4300 Y 33.8318 Z -1.0000
G01 X 5.4325 Y 33.8364 Z -1.0000
G01 X 5.4297 Y 33.8407 Z -1.0000
G01 X 5.4160 Y 33.8435 Z -1.0000
G01 X 5.4024 Y 33.8479 Z -1.0000
G01 X 5.3914 Y 33.8612 Z -1.0000
G01 X 5.3810 Y 33.8711 Z -1.0000
G01 X 5.3688 Y 33.8700 Z -1.0000
G01 X 5.3558 Y 33.8674 Z -1.0000
G01 X 5.3472 Y 33.8734 Z -1.0000
G01 X 5.3381 Y 33.8822 Z -1.0000
G01 X 5.3235 Y 33.8857 Z -1.0000
G01 X 5.3109 Y 33.8909 Z -1.0000
G01 X 5.3021 Y 33.9068 Z -1.0000
G01 X 5.2884 Y 33.9315 Z -1.0000
G01 X 5.2790 Y 33.9293 Z -1.0000
G01 X 5.2662 Y 33.9208 Z -1.0000
G01 X 5.2518 Y 33.9315 Z -1.0000
G01 X 5.2376 Y 33.9408 Z -1.0000
G01 X 5.2168 Y 33.9298 Z -1.0000
G01 X 5.2104 Y 33.9266 Z -1.0000
G01 X 5.2072 Y 33.9298 Z -1.0000
G01 X 5.2037 Y 33.9388 Z -1.0000
G01 X 5.1963 Y 33.9421 Z -1.0000
G01 X 5.1861 Y 33.9439 Z -1.0000
G02 X 5.1714 Y 33.9509 Z -1.0000 I 0.0253 J 0.0716
G01 X 5.1585 Y 33.9545 Z -1.0000
G01 X 5.1515 Y 33.9505 Z -1.0000
G02 X 4.9812 Y 33.8559 Z -1.0000 I -0.1704 J 0.1061
G02 X 4.8117 Y 33.9503 Z -1.0000 I -0.0001 J 0.1991
G01 X 4.8050 Y 33.9545 Z -1.0000
G03 X 4.7726 Y 33.9546 Z -1.0000 I -0.0165 J -0.1505
G01 X 4.7482 Y 33.9545 Z -1.0000
G01 X 4.7350 Y 33.9677 Z -1.0000
G03 X 4.7059 Y 33.9732 Z -1.0000 I -0.0273 J -0.0650
G01 X 4.6996 Y 33.9668 Z -1.0000
G01 X 4.6927 Y 33.9608 Z -1.0000
G02 X 4.6682 Y 33.9714 Z -1.0000 I 0.0075 J 0.0513
G03 X 4.6500 Y 33.9805 Z -1.0000 I -0.0317 J -0.0403
G01 X 4.6437 Y 33.9780 Z -1.0000
G01 X 4.6370 Y 33.9744 Z -1.0000
G01 X 4.6195 Y 33.9782 Z -1.0000
G01 X 4.6085 Y 33.9874 Z -1.0000
G01 X 4.6096 Y 33.9926 Z -1.0000
G01 X 4.6033 Y 33.9984 Z -1.0000
G01 X 4.5901 Y 34.0014 Z -1.0000
G01 X 4.5848 Y 34.0073 Z -1.0000
G01 X 4.5803 Y 34.0105 Z -1.0000
G01 X 4.5724 Y 34.0075 Z -1.0000
G01 X 4.5643 Y 34.0066 Z -1.0000
G01 X 4.5493 Y 34.0216 Z -1.0000
G01 X 4.5324 Y 34.0355 Z -1.0000
G01 X 4.5268 Y 34.0302 Z -1.0000
G02 X 4.5017 Y 34.0267 Z -1.0000 I -0.0251 J 0.0871
G01 X 4.4795 Y 34.0320 Z -1.0000
G01 X 4.4741 Y 34.0408 Z -1.0000
G01 X 4.4690 Y 34.0499 Z -1.0000
G01 X 4.4495 Y 34.0557 Z -1.0000
G02 X 4.4191 Y 34.0602 Z -1.0000 I 0.0049 J 0.1381
G02 X 4.3918 Y 34.0710 Z -1.0000 I 0.0323 J 0.1225
G03 X 4.3691 Y 34.0796 Z -1.0000 I -0.0459 J -0.0860
G01 X 4.3590 Y 34.0790 Z -1.0000
G01 X 4.3498 Y 34.0784 Z -1.0000
G01 X 4.3441 Y 34.0826 Z -1.0000
G01 X 4.3446 Y 34.0873 Z -1.0000
G01 X 4.3522 Y 34.0907 Z -1.0000
G01 X 4.3438 Y 34.1010 Z -1.0000
G03 X 4.3222 Y 34.1074 Z -1.0000 I -0.0326 J -0.0705
G03 X 4.3015 Y 34.1070 Z -1.0000 I -0.0093 J -0.0652
G01 X 4.2908 Y 34.1105 Z -1.0000
G01 X 4.2912 Y 34.1167 Z -1.0000
G03 X 4.2661 Y 34.1330 Z -1.0000 I -0.0620 J -0.0678
G02 X 4.2328 Y 34.1504 Z -1.0000 I 0.1104 J 0.2518
G01 X 4.2254 Y 34.1580 Z -1.0000
G01 X 4.2182 Y 34.1649 Z -1.0000
G01 X 4.2078 Y 34.1676 Z -1.0000
G02 X 4.1517 Y 34.1833 Z -1.0000 I -0.0002 J 0.1069
G01 X 4.1359 Y 34.2116 Z -1.0000
G01 X 4.1325 Y 34.2206 Z -1.0000
G01 X 4.1252 Y 34.2240 Z -1.0000
G01 X 4.1150 Y 34.2257 Z -1.0000
G02 X 4.0996 Y 34.2328 Z -1.0000 I 0.0273 J 0.0793
G01 X 4.0865 Y 34.2365 Z -1.0000
G01 X 4.0817 Y 34.2332 Z -1.0000
G01 X 4.0766 Y 34.2304 Z -1.0000
G02 X 4.0562 Y 34.2384 Z -1.0000 I 0.0129 J 0.0628
G03 X 4.0299 Y 34.2464 Z -1.0000 I -0.0285 J -0.0467
G01 X 4.0214 Y 34.2398 Z -1.0000
G01 X 4.0052 Y 34.2545 Z -1.0000
G03 X 3.9880 Y 34.2741 Z -1.0000 I -0.0456 J -0.0226
G01 X 3.9705 Y 34.2779 Z -1.0000
G01 X 3.9580 Y 34.2779 Z -1.0000
G01 X 3.9621 Y 34.2859 Z -1.0000
G01 X 3.9551 Y 34.2896 Z -1.0000
G01 X 3.9495 Y 34.2918 Z -1.0000
G01 X 3.9482 Y 34.3039 Z -1.0000
G01 X 3.9457 Y 34.3170 Z -1.0000
G01 X 3.9344 Y 34.3226 Z -1.0000
G01 X 3.9219 Y 34.3185 Z -1.0000
G01 X 3.9200 Y 34.3121 Z -1.0000
G01 X 3.9159 Y 34.3043 Z -1.0000
G01 X 3.8934 Y 34.3058 Z -1.0000
G01 X 3.8833 Y 34.3192 Z -1.0000
G01 X 3.8910 Y 34.3327 Z -1.0000
G01 X 3.8681 Y 34.3341 Z -1.0000
G01 X 3.8452 Y 34.3346 Z -1.0000
G01 X 3.8480 Y 34.3462 Z -1.0000
G03 X 3.8132 Y 34.3703 Z -1.0000 I -0.0677 J -0.0607
G03 X 3.7721 Y 34.3844 Z -1.0000 I -0.2002 J -0.5164
G03 X 3.7586 Y 34.3866 Z -1.0000 I -0.0157 J -0.0522
G01 X 3.7536 Y 34.3907 Z -1.0000
G01 X 3.7574 Y 34.3960 Z -1.0000
G01 X 3.7548 Y 34.4083 Z -1.0000
G01 X 3.7463 Y 34.4132 Z -1.0000
G01 X 3.7347 Y 34.4077 Z -1.0000
G02 X 3.7208 Y 34.3957 Z -1.0000 I -0.0485 J 0.0421
G01 X 3.7123 Y 34.3933 Z -1.0000
G01 X 3.7163 Y 34.4040 Z -1.0000
G01 X 3.7223 Y 34.4149 Z -1.0000
G01 X 3.7181 Y 34.4263 Z -1.0000
G01 X 3.7067 Y 34.4305 Z -1.0000
G01 X 3.6958 Y 34.4245 Z -1.0000
G01 X 3.6884 Y 34.4202 Z -1.0000
G01 X 3.6851 Y 34.4231 Z -1.0000
G01 X 3.6875 Y 34.4328 Z -1.0000
G01 X 3.6919 Y 34.4354 Z -1.0000
G01 X 3.6970 Y 34.4374 Z -1.0000
G01 X 3.6990 Y 34.4418 Z -1.0000
G01 X 3.6900 Y 34.4542 Z -1.0000
G03 X 3.6328 Y 34.4638 Z -1.0000 I -0.0594 J -0.1783
G01 X 3.6252 Y 34.4677 Z -1.0000
G01 X 3.6262 Y 34.4726 Z -1.0000
G01 X 3.6342 Y 34.4828 Z -1.0000
G01 X 3.6322 Y 34.4940 Z -1.0000
G01 X 3.6207 Y 34.5015 Z -1.0000
G03 X 3.5975 Y 34.5020 Z -1.0000 I -0.0128 J -0.0553
G02 X 3.5765 Y 34.5025 Z -1.0000 I -0.0093 J 0.0495
G01 X 3.5722 Y 34.5080 Z -1.0000
G01 X 3.5682 Y 34.5156 Z -1.0000
G03 X 3.5493 Y 34.5237 Z -1.0000 I -0.0300 J -0.0438
G02 X 3.5271 Y 34.5302 Z -1.0000 I 0.0328 J 0.1534
G01 X 3.5179 Y 34.5355 Z -1.0000
G01 X 3.5092 Y 34.5392 Z -1.0000
G01 X 3.5017 Y 34.5376 Z -1.0000
G01 X 3.4834 Y 34.5378 Z -1.0000
G01 X 3.4735 Y 34.5560 Z -1.0000
G01 X 3.4758 Y 34.5600 Z -1.0000
G01 X 3.4841 Y 34.5622 Z -1.0000
G01 X 3.4925 Y 34.5689 Z -1.0000
G01 X 3.4880 Y 34.5796 Z -1.0000
G01 X 3.4824 Y 34.5797 Z -1.0000
G01 X 3.4752 Y 34.5725 Z -1.0000
G01 X 3.4671 Y 34.5672 Z -1.0000
G01 X 3.4501 Y 34.5700 Z -1.0000
G01 X 3.4385 Y 34.5802 Z -1.0000
G01 X 3.4389 Y 34.5877 Z -1.0000
G01 X 3.4386 Y 34.6029 Z -1.0000
G01 X 3.4199 Y 34.6085 Z -1.0000
G01 X 3.4059 Y 34.6080 Z -1.0000
G01 X 3.4030 Y 34.6114 Z -1.0000
G01 X 3.4001 Y 34.6157 Z -1.0000
G01 X 3.3850 Y 34.6186 Z -1.0000
G01 X 3.3721 Y 34.6215 Z -1.0000
G01 X 3.3710 Y 34.6252 Z -1.0000
G01 X 3.3686 Y 34.6347 Z -1.0000
G03 X 3.3361 Y 34.6448 Z -1.0000 I -0.0398 J -0.0706
G02 X 3.2908 Y 34.6542 Z -1.0000 I 0.0184 J 0.2040
G01 X 3.2817 Y 34.6626 Z -1.0000
G01 X 3.2739 Y 34.6708 Z -1.0000
G01 X 3.2553 Y 34.6750 Z -1.0000
G01 X 3.2384 Y 34.6795 Z -1.0000
G01 X 3.2338 Y 34.6873 Z -1.0000
G01 X 3.2206 Y 34.7185 Z -1.0000
G01 X 3.1893 Y 34.7313 Z -1.0000
G02 X 3.1540 Y 34.7400 Z -1.0000 I 0.0000 J 0.0765
G02 X 3.1212 Y 34.7668 Z -1.0000 I 0.0479 J 0.0922
G01 X 3.1170 Y 34.7703 Z -1.0000
G03 X 3.1054 Y 34.7756 Z -1.0000 I -0.0394 J -0.0699
G01 X 3.0981 Y 34.7824 Z -1.0000
G01 X 3.0978 Y 34.7920 Z -1.0000
G01 X 3.0956 Y 34.7982 Z -1.0000
G01 X 3.0836 Y 34.8003 Z -1.0000
G01 X 3.0679 Y 34.8005 Z -1.0000
G01 X 3.0646 Y 34.8045 Z -1.0000
G01 X 3.0540 Y 34.7987 Z -1.0000
G01 X 3.0469 Y 34.7947 Z -1.0000
G01 X 3.0437 Y 34.7976 Z -1.0000
G01 X 3.0411 Y 34.8093 Z -1.0000
G03 X 3.0296 Y 34.8281 Z -1.0000 I -0.0859 J -0.0397
G01 X 3.0154 Y 34.8362 Z -1.0000
G01 X 3.0092 Y 34.8360 Z -1.0000
G01 X 3.0016 Y 34.8415 Z -1.0000
G01 X 2.9888 Y 34.8410 Z -1.0000
G01 X 2.9761 Y 34.8417 Z -1.0000
G01 X 2.9637 Y 34.8518 Z -1.0000
G03 X 2.9123 Y 34.8987 Z -1.0000 I -0.1303 J -0.0913
G01 X 2.8939 Y 34.8916 Z -1.0000
G01 X 2.8899 Y 34.8903 Z -1.0000
G02 X 2.8652 Y 34.9103 Z -1.0000 I 0.0827 J 0.1275
G03 X 2.8376 Y 34.9311 Z -1.0000 I -0.0882 J -0.0882
G01 X 2.8256 Y 34.9323 Z -1.0000
G01 X 2.8140 Y 34.9331 Z -1.0000
G01 X 2.8010 Y 34.9442 Z -1.0000
G01 X 2.7898 Y 34.9535 Z -1.0000
G01 X 2.7843 Y 34.9519 Z -1.0000
G01 X 2.7780 Y 34.9479 Z -1.0000
G01 X 2.7687 Y 34.9500 Z -1.0000
G01 X 2.7671 Y 34.9541 Z -1.0000
G01 X 2.7706 Y 34.9567 Z -1.0000
G01 X 2.7804 Y 34.9594 Z -1.0000
G01 X 2.7829 Y 34.9639 Z -1.0000
G01 X 2.7801 Y 34.9681 Z -1.0000
G01 X 2.7653 Y 34.9709 Z -1.0000
G01 X 2.7506 Y 34.9738 Z -1.0000
G01 X 2.7477 Y 34.9780 Z -1.0000
G01 X 2.7498 Y 34.9830 Z -1.0000
G01 X 2.7548 Y 34.9850 Z -1.0000
G01 X 2.7597 Y 34.9871 Z -1.0000
G01 X 2.7618 Y 34.9921 Z -1.0000
G01 X 2.7587 Y 34.9960 Z -1.0000
G03 X 2.7344 Y 34.9991 Z -1.0000 I -0.0243 J -0.0944
G02 X 2.7099 Y 35.0045 Z -1.0000 I 0.0000 J 0.0587
G01 X 2.6953 Y 35.0171 Z -1.0000
G01 X 2.6815 Y 35.0295 Z -1.0000
G01 X 2.6691 Y 35.0305 Z -1.0000
G01 X 2.6612 Y 35.0324 Z -1.0000
G01 X 2.6593 Y 35.0405 Z -1.0000
G01 X 2.6576 Y 35.0515 Z -1.0000
G01 X 2.6458 Y 35.0596 Z -1.0000
G01 X 2.6285 Y 35.0606 Z -1.0000
G01 X 2.6182 Y 35.0562 Z -1.0000
G01 X 2.6114 Y 35.0570 Z -1.0000
G02 X 2.5997 Y 35.0802 Z -1.0000 I 0.0544 J 0.0418
G03 X 2.5819 Y 35.1147 Z -1.0000 I -0.0924 J -0.0259
G01 X 2.5731 Y 35.1131 Z -1.0000
G01 X 2.5643 Y 35.1080 Z -1.0000
G01 X 2.5575 Y 35.1163 Z -1.0000
G01 X 2.5528 Y 35.1223 Z -1.0000
G03 X 2.5293 Y 35.1232 Z -1.0000 I -0.0142 J -0.0574
G02 X 2.5061 Y 35.1247 Z -1.0000 I -0.0084 J 0.0526
G01 X 2.5011 Y 35.1314 Z -1.0000
G01 X 2.4970 Y 35.1411 Z -1.0000
G01 X 2.4799 Y 35.1520 Z -1.0000
G02 X 2.4626 Y 35.1626 Z -1.0000 I 0.0192 J 0.0510
G01 X 2.4588 Y 35.1711 Z -1.0000
G01 X 2.4547 Y 35.1782 Z -1.0000
G01 X 2.4392 Y 35.1823 Z -1.0000
G01 X 2.4216 Y 35.1866 Z -1.0000
G02 X 2.4020 Y 35.2017 Z -1.0000 I 0.0327 J 0.0628
G03 X 2.3653 Y 35.2321 Z -1.0000 I -0.1265 J -0.1155
G01 X 2.3419 Y 35.2387 Z -1.0000
G01 X 2.3357 Y 35.2428 Z -1.0000
G01 X 2.3348 Y 35.2563 Z -1.0000
G01 X 2.3306 Y 35.2671 Z -1.0000
G01 X 2.3074 Y 35.2739 Z -1.0000
G01 X 2.2823 Y 35.2809 Z -1.0000
G01 X 2.2750 Y 35.2933 Z -1.0000
G01 X 2.2709 Y 35.3039 Z -1.0000
G01 X 2.2653 Y 35.2981 Z -1.0000
G01 X 2.2503 Y 35.2951 Z -1.0000
G01 X 2.2378 Y 35.2996 Z -1.0000
G01 X 2.2333 Y 35.3092 Z -1.0000
G01 X 2.2262 Y 35.3193 Z -1.0000
G01 X 2.2190 Y 35.3144 Z -1.0000
G01 X 2.2055 Y 35.3215 Z -1.0000
G03 X 2.1909 Y 35.3343 Z -1.0000 I -0.0485 J -0.0404
G01 X 2.1806 Y 35.3373 Z -1.0000
G01 X 2.1628 Y 35.3441 Z -1.0000
G02 X 2.1469 Y 35.3671 Z -1.0000 I 0.0385 J 0.0436
G01 X 2.1398 Y 35.3764 Z -1.0000
G01 X 2.1244 Y 35.3837 Z -1.0000
G01 X 2.1099 Y 35.3909 Z -1.0000
G01 X 2.1065 Y 35.3980 Z -1.0000
G01 X 2.1033 Y 35.4046 Z -1.0000
G01 X 2.0939 Y 35.4078 Z -1.0000
G01 X 2.0828 Y 35.4109 Z -1.0000
G02 X 2.0681 Y 35.4233 Z -1.0000 I 0.0311 J 0.0517
G01 X 2.0565 Y 35.4294 Z -1.0000
G01 X 2.0498 Y 35.4251 Z -1.0000
G01 X 2.0442 Y 35.4234 Z -1.0000
G01 X 2.0321 Y 35.4378 Z -1.0000
G03 X 2.0166 Y 35.4599 Z -1.0000 I -0.0767 J -0.0371
G01 X 2.0065 Y 35.4642 Z -1.0000
G01 X 1.9969 Y 35.4674 Z -1.0000
G01 X 1.9937 Y 35.4736 Z -1.0000
G01 X 1.9901 Y 35.4804 Z -1.0000
G03 X 1.9655 Y 35.4924 Z -1.0000 I -0.0565 J -0.0850
G02 X 1.9406 Y 35.5040 Z -1.0000 I 0.0363 J 0.1099
G01 X 1.9373 Y 35.5099 Z -1.0000
G03 X 1.9173 Y 35.5569 Z -1.0000 I -0.0652 J -0.0000
G03 X 1.8677 Y 35.5769 Z -1.0000 I -0.0496 J -0.0515
G01 X 1.8545 Y 35.5801 Z -1.0000
G01 X 1.8485 Y 35.5869 Z -1.0000
G01 X 1.8426 Y 35.5947 Z -1.0000
G03 X 1.8246 Y 35.6051 Z -1.0000 I -0.0489 J -0.0641
G01 X 1.8048 Y 35.6237 Z -1.0000
G01 X 1.8107 Y 35.6333 Z -1.0000
G01 X 1.8211 Y 35.6368 Z -1.0000
G01 X 1.8246 Y 35.6439 Z -1.0000
G01 X 1.8178 Y 35.6506 Z -1.0000
G01 X 1.8035 Y 35.6439 Z -1.0000
G01 X 1.7930 Y 35.6370 Z -1.0000
G02 X 1.7674 Y 35.6333 Z -1.0000 I -0.0256 J 0.0874
G01 X 1.7454 Y 35.6386 Z -1.0000
G01 X 1.7400 Y 35.6474 Z -1.0000
G01 X 1.7365 Y 35.6580 Z -1.0000
G01 X 1.7295 Y 35.6615 Z -1.0000
G01 X 1.7224 Y 35.6651 Z -1.0000
G01 X 1.7182 Y 35.6773 Z -1.0000
G01 X 1.7124 Y 35.6756 Z -1.0000
G01 X 1.7072 Y 35.6700 Z -1.0000
G01 X 1.7031 Y 35.6721 Z -1.0000
G02 X 1.6992 Y 35.6863 Z -1.0000 I 0.2472 J 0.0743
G02 X 1.6942 Y 35.7090 Z -1.0000 I 0.6126 J 0.1467
G01 X 1.6803 Y 35.7302 Z -1.0000
G01 X 1.6655 Y 35.7289 Z -1.0000
G01 X 1.6520 Y 35.7235 Z -1.0000
G01 X 1.6375 Y 35.7298 Z -1.0000
G01 X 1.6336 Y 35.7399 Z -1.0000
G01 X 1.6382 Y 35.7462 Z -1.0000
G01 X 1.6419 Y 35.7526 Z -1.0000
G01 X 1.6338 Y 35.7673 Z -1.0000
G02 X 1.6176 Y 35.7848 Z -1.0000 I 0.1813 J 0.1854
G02 X 1.6052 Y 35.8010 Z -1.0000 I 0.1446 J 0.1230
G01 X 1.5939 Y 35.8114 Z -1.0000
G01 X 1.5890 Y 35.8101 Z -1.0000
G01 X 1.5884 Y 35.8048 Z -1.0000
G01 X 1.5919 Y 35.8024 Z -1.0000
G01 X 1.5948 Y 35.7995 Z -1.0000
G01 X 1.5921 Y 35.7883 Z -1.0000
G01 X 1.5831 Y 35.7766 Z -1.0000
G01 X 1.5771 Y 35.7742 Z -1.0000
G01 X 1.5716 Y 35.7769 Z -1.0000
G01 X 1.5659 Y 35.7883 Z -1.0000
G01 X 1.5598 Y 35.7993 Z -1.0000
G01 X 1.5525 Y 35.8024 Z -1.0000
G01 X 1.5461 Y 35.8058 Z -1.0000
G01 X 1.5427 Y 35.8165 Z -1.0000
G01 X 1.5375 Y 35.8254 Z -1.0000
G01 X 1.5171 Y 35.8306 Z -1.0000
G02 X 1.4756 Y 35.8481 Z -1.0000 I -0.0000 J 0.0580
G02 X 1.4582 Y 35.8909 Z -1.0000 I 0.0438 J 0.0428
G01 X 1.4531 Y 35.9101 Z -1.0000
G01 X 1.4446 Y 35.9152 Z -1.0000
G01 X 1.4343 Y 35.9111 Z -1.0000
G01 X 1.4278 Y 35.8993 Z -1.0000
G01 X 1.4239 Y 35.8961 Z -1.0000
G01 X 1.4195 Y 35.8993 Z -1.0000
G01 X 1.4126 Y 35.9128 Z -1.0000
G01 X 1.4080 Y 35.9152 Z -1.0000
G01 X 1.4046 Y 35.9179 Z -1.0000
G02 X 1.4018 Y 35.9434 Z -1.0000 I 0.1152 J 0.0254
G03 X 1.3964 Y 35.9662 Z -1.0000 I -0.0510 J -0.0000
G01 X 1.3877 Y 35.9715 Z -1.0000
G01 X 1.3789 Y 35.9663 Z -1.0000
G01 X 1.3736 Y 35.9458 Z -1.0000
G01 X 1.3679 Y 35.9328 Z -1.0000
G01 X 1.3595 Y 35.9328 Z -1.0000
G01 X 1.3504 Y 35.9478 Z -1.0000
G02 X 1.3454 Y 35.9867 Z -1.0000 I 0.1492 J 0.0390
G03 X 1.3392 Y 36.0217 Z -1.0000 I -0.1011 J 0.0000
G01 X 1.3303 Y 36.0279 Z -1.0000
G02 X 1.2815 Y 36.0486 Z -1.0000 I 0.0000 J 0.0678
G02 X 1.2609 Y 36.0996 Z -1.0000 I 0.0527 J 0.0510
G01 X 1.2558 Y 36.1074 Z -1.0000
G03 X 1.2327 Y 36.1125 Z -1.0000 I -0.0231 J -0.0505
G02 X 1.2099 Y 36.1179 Z -1.0000 I 0.0000 J 0.0510
G01 X 1.2045 Y 36.1266 Z -1.0000
G01 X 1.2086 Y 36.1365 Z -1.0000
G01 X 1.2186 Y 36.1407 Z -1.0000
G01 X 1.2273 Y 36.1460 Z -1.0000
G03 X 1.2327 Y 36.1689 Z -1.0000 I -0.0456 J 0.0228
G02 X 1.2361 Y 36.1937 Z -1.0000 I 0.0929 J 0.0000
G01 X 1.2405 Y 36.1970 Z -1.0000
G01 X 1.2442 Y 36.2002 Z -1.0000
G01 X 1.2435 Y 36.2164 Z -1.0000
G03 X 1.2293 Y 36.2428 Z -1.0000 I -0.0582 J -0.0144
G01 X 1.2206 Y 36.2411 Z -1.0000
G01 X 1.2113 Y 36.2353 Z -1.0000
G01 X 1.2045 Y 36.2428 Z -1.0000
G01 X 1.2069 Y 36.2510 Z -1.0000
G01 X 1.2115 Y 36.2534 Z -1.0000
G01 X 1.2155 Y 36.2565 Z -1.0000
G03 X 1.2186 Y 36.2816 Z -1.0000 I -0.1004 J 0.0251
G02 X 1.2217 Y 36.3067 Z -1.0000 I 0.1035 J 0.0000
G01 X 1.2256 Y 36.3098 Z -1.0000
G01 X 1.2296 Y 36.3129 Z -1.0000
G03 X 1.2327 Y 36.3380 Z -1.0000 I -0.1004 J 0.0251
G02 X 1.2381 Y 36.3608 Z -1.0000 I 0.0510 J 0.0000
G01 X 1.2468 Y 36.3662 Z -1.0000
G01 X 1.2552 Y 36.3718 Z -1.0000
G03 X 1.2609 Y 36.4008 Z -1.0000 I -0.0712 J 0.0290
G02 X 1.2645 Y 36.4330 Z -1.0000 I 0.1431 J 0.0000
G01 X 1.2697 Y 36.4390 Z -1.0000
G01 X 1.2697 Y 36.4431 Z -1.0000
G01 X 1.2642 Y 36.4468 Z -1.0000
G01 X 1.2609 Y 36.4613 Z -1.0000
G01 X 1.2546 Y 36.4726 Z -1.0000
G01 X 1.2327 Y 36.4789 Z -1.0000
G01 X 1.2131 Y 36.4875 Z -1.0000
G01 X 1.2045 Y 36.5099 Z -1.0000
G02 X 1.2087 Y 36.5380 Z -1.0000 I 0.0973 J 0.0000
G01 X 1.2151 Y 36.5449 Z -1.0000
G01 X 1.2226 Y 36.5559 Z -1.0000
G01 X 1.2151 Y 36.5635 Z -1.0000
G01 X 1.2076 Y 36.5666 Z -1.0000
G01 X 1.2045 Y 36.5740 Z -1.0000
G01 X 1.2076 Y 36.5815 Z -1.0000
G01 X 1.2151 Y 36.5846 Z -1.0000
G01 X 1.2206 Y 36.5901 Z -1.0000
G03 X 1.2151 Y 36.6174 Z -1.0000 I -0.0709 J -0.0000
G02 X 1.2065 Y 36.6431 Z -1.0000 I 0.1739 J 0.0726
G02 X 1.2047 Y 36.6577 Z -1.0000 I 0.0537 J 0.0138
G01 X 1.2078 Y 36.6619 Z -1.0000
G01 X 1.2121 Y 36.6604 Z -1.0000
G01 X 1.2327 Y 36.6485 Z -1.0000
G01 X 1.2530 Y 36.6604 Z -1.0000
G01 X 1.2599 Y 36.6234 Z -1.0000
G03 X 1.2730 Y 36.4921 Z -1.0000 I 0.6597 J -0.0008
G01 X 1.2891 Y 36.4789 Z -1.0000
G01 X 1.3114 Y 36.4848 Z -1.0000
G01 X 1.3173 Y 36.4948 Z -1.0000
G02 X 1.3317 Y 36.5350 Z -1.0000 I 0.0634 J -0.0000
G01 X 1.3621 Y 36.5494 Z -1.0000
G01 X 1.3699 Y 36.5531 Z -1.0000
G01 X 1.3736 Y 36.5635 Z -1.0000
G01 X 1.3695 Y 36.5734 Z -1.0000
G01 X 1.3595 Y 36.5776 Z -1.0000
G01 X 1.3496 Y 36.5734 Z -1.0000
G01 X 1.3454 Y 36.5635 Z -1.0000
G01 X 1.3413 Y 36.5535 Z -1.0000
G01 X 1.3313 Y 36.5494 Z -1.0000
G01 X 1.3214 Y 36.5535 Z -1.0000
G01 X 1.3173 Y 36.5635 Z -1.0000
G01 X 1.3214 Y 36.5734 Z -1.0000
G01 X 1.3313 Y 36.5776 Z -1.0000
G01 X 1.3427 Y 36.5802 Z -1.0000
G01 X 1.3454 Y 36.5846 Z -1.0000
G01 X 1.3481 Y 36.5890 Z -1.0000
G01 X 1.3595 Y 36.5917 Z -1.0000
G01 X 1.3695 Y 36.5958 Z -1.0000
G01 X 1.3736 Y 36.6057 Z -1.0000
G01 X 1.3763 Y 36.6171 Z -1.0000
G01 X 1.3807 Y 36.6198 Z -1.0000
G01 X 1.3850 Y 36.6225 Z -1.0000
G01 X 1.3877 Y 36.6339 Z -1.0000
G01 X 1.3904 Y 36.6453 Z -1.0000
G01 X 1.3948 Y 36.6480 Z -1.0000
G01 X 1.3991 Y 36.6453 Z -1.0000
G01 X 1.4018 Y 36.6339 Z -1.0000
G01 X 1.4045 Y 36.6225 Z -1.0000
G01 X 1.4089 Y 36.6198 Z -1.0000
G01 X 1.4132 Y 36.6225 Z -1.0000
G01 X 1.4159 Y 36.6339 Z -1.0000
G01 X 1.4207 Y 36.6430 Z -1.0000
G01 X 1.4353 Y 36.6472 Z -1.0000
G01 X 1.4424 Y 36.6432 Z -1.0000
G01 X 1.4331 Y 36.6376 Z -1.0000
G01 X 1.4300 Y 36.6299 Z -1.0000
G01 X 1.4276 Y 36.6223 Z -1.0000
G01 X 1.4230 Y 36.6198 Z -1.0000
G01 X 1.4186 Y 36.6172 Z -1.0000
G01 X 1.4159 Y 36.6062 Z -1.0000
G01 X 1.4210 Y 36.5986 Z -1.0000
G01 X 1.4398 Y 36.5964 Z -1.0000
G02 X 1.4630 Y 36.5969 Z -1.0000 I 0.0135 J -0.0831
G01 X 1.4768 Y 36.5921 Z -1.0000
G01 X 1.4741 Y 36.5883 Z -1.0000
G03 X 1.4399 Y 36.5873 Z -1.0000 I -0.0155 J -0.0567
G01 X 1.4300 Y 36.5736 Z -1.0000
G01 X 1.4342 Y 36.5676 Z -1.0000
G03 X 1.4582 Y 36.5635 Z -1.0000 I 0.0240 J 0.0671
G03 X 1.4823 Y 36.5676 Z -1.0000 I 0.0000 J 0.0721
G01 X 1.4864 Y 36.5734 Z -1.0000
G01 X 1.4889 Y 36.5818 Z -1.0000
G01 X 1.4952 Y 36.5870 Z -1.0000
G01 X 1.4952 Y 36.5911 Z -1.0000
G01 X 1.4892 Y 36.5943 Z -1.0000
G01 X 1.4864 Y 36.6022 Z -1.0000
G01 X 1.4825 Y 36.6089 Z -1.0000
G01 X 1.4684 Y 36.6128 Z -1.0000
G01 X 1.4558 Y 36.6158 Z -1.0000
G01 X 1.4547 Y 36.6198 Z -1.0000
G01 X 1.4603 Y 36.6246 Z -1.0000
G01 X 1.4727 Y 36.6269 Z -1.0000
G01 X 1.4834 Y 36.6299 Z -1.0000
G01 X 1.4864 Y 36.6354 Z -1.0000
G01 X 1.5131 Y 36.6178 Z -1.0000
G03 X 1.5423 Y 36.5977 Z -1.0000 I 0.0731 J 0.0749
G03 X 1.5695 Y 36.5917 Z -1.0000 I 0.0272 J 0.0588
G03 X 1.5935 Y 36.5973 Z -1.0000 I -0.0000 J 0.0544
G01 X 1.5991 Y 36.6063 Z -1.0000
G01 X 1.6112 Y 36.6173 Z -1.0000
G01 X 1.6260 Y 36.6039 Z -1.0000
G01 X 1.6235 Y 36.5957 Z -1.0000
G01 X 1.6137 Y 36.5917 Z -1.0000
G01 X 1.6033 Y 36.5875 Z -1.0000
G01 X 1.5991 Y 36.5776 Z -1.0000
G01 X 1.6045 Y 36.5689 Z -1.0000
G03 X 1.6273 Y 36.5635 Z -1.0000 I 0.0228 J 0.0456
G02 X 1.6502 Y 36.5582 Z -1.0000 I -0.0000 J -0.0520
G01 X 1.6555 Y 36.5497 Z -1.0000
G01 X 1.6494 Y 36.5417 Z -1.0000
G02 X 1.5974 Y 36.5335 Z -1.0000 I -0.0614 J 0.2206
G01 X 1.6273 Y 36.5306 Z -1.0000
G01 X 1.6996 Y 36.5332 Z -1.0000
G01 X 1.6899 Y 36.5414 Z -1.0000
G02 X 1.6837 Y 36.5770 Z -1.0000 I 0.0984 J 0.0356
G02 X 1.6923 Y 36.6958 Z -1.0000 I 0.8212 J 0.0000
G01 X 1.7023 Y 36.7044 Z -1.0000
G01 X 1.7079 Y 36.7004 Z -1.0000
G02 X 1.7119 Y 36.6762 Z -1.0000 I -0.0712 J -0.0242
G01 X 1.7201 Y 36.6563 Z -1.0000
G01 X 1.7401 Y 36.6480 Z -1.0000
G02 X 1.7652 Y 36.6449 Z -1.0000 I 0.0000 J -0.1035
G01 X 1.7683 Y 36.6410 Z -1.0000
G01 X 1.7652 Y 36.6370 Z -1.0000
G02 X 1.7401 Y 36.6339 Z -1.0000 I -0.0251 J 0.1004
G03 X 1.7173 Y 36.6285 Z -1.0000 I 0.0000 J -0.0510
G01 X 1.7119 Y 36.6198 Z -1.0000
G01 X 1.7173 Y 36.6111 Z -1.0000
G03 X 1.7401 Y 36.6057 Z -1.0000 I 0.0228 J 0.0456
G02 X 1.7652 Y 36.6027 Z -1.0000 I 0.0000 J -0.1035
G01 X 1.7683 Y 36.5987 Z -1.0000
G01 X 1.7703 Y 36.5937 Z -1.0000
G01 X 1.7754 Y 36.5916 Z -1.0000
G01 X 1.7737 Y 36.6058 Z -1.0000
G01 X 1.7743 Y 36.6303 Z -1.0000
G01 X 1.8024 Y 36.6467 Z -1.0000
G01 X 1.8198 Y 36.6532 Z -1.0000
G01 X 1.8246 Y 36.6626 Z -1.0000
G01 X 1.8299 Y 36.6710 Z -1.0000
G02 X 1.8528 Y 36.6762 Z -1.0000 I 0.0229 J -0.0474
G03 X 1.8756 Y 36.6816 Z -1.0000 I -0.0000 J 0.0510
G01 X 1.8810 Y 36.6903 Z -1.0000
G01 X 1.8837 Y 36.7017 Z -1.0000
G01 X 1.8881 Y 36.7044 Z -1.0000
G01 X 1.8918 Y 36.7011 Z -1.0000
G02 X 1.8951 Y 36.6480 Z -1.0000 I -0.4241 J -0.0531
G03 X 1.9013 Y 36.5978 Z -1.0000 I 0.2070 J -0.0000
G01 X 1.9092 Y 36.5916 Z -1.0000
G01 X 1.9171 Y 36.5978 Z -1.0000
G03 X 1.9233 Y 36.6480 Z -1.0000 I -0.2008 J 0.0502
G02 X 1.9266 Y 36.7011 Z -1.0000 I 0.4274 J 0.0000
G01 X 1.9303 Y 36.7044 Z -1.0000
G01 X 1.9342 Y 36.7012 Z -1.0000
G02 X 1.9374 Y 36.6621 Z -1.0000 I -0.2339 J -0.0391
G03 X 1.9455 Y 36.6279 Z -1.0000 I 0.0765 J -0.0000
G01 X 1.9585 Y 36.6198 Z -1.0000
G01 X 1.9748 Y 36.6149 Z -1.0000
G01 X 1.9797 Y 36.6057 Z -1.0000
G01 X 1.9824 Y 36.5943 Z -1.0000
G01 X 1.9867 Y 36.5916 Z -1.0000
G01 X 1.9911 Y 36.5943 Z -1.0000
G01 X 1.9938 Y 36.6057 Z -1.0000
G01 X 1.9911 Y 36.6171 Z -1.0000
G01 X 1.9867 Y 36.6198 Z -1.0000
G01 X 1.9824 Y 36.6225 Z -1.0000
G01 X 1.9797 Y 36.6339 Z -1.0000
G01 X 1.9824 Y 36.6453 Z -1.0000
G01 X 1.9867 Y 36.6480 Z -1.0000
G01 X 1.9911 Y 36.6507 Z -1.0000
G01 X 1.9938 Y 36.6621 Z -1.0000
G01 X 1.9992 Y 36.6708 Z -1.0000
G02 X 2.0220 Y 36.6762 Z -1.0000 I 0.0228 J -0.0456
G02 X 2.0458 Y 36.6719 Z -1.0000 I -0.0000 J -0.0679
G01 X 2.0502 Y 36.6656 Z -1.0000
G01 X 2.0543 Y 36.6592 Z -1.0000
G01 X 2.0742 Y 36.6551 Z -1.0000
G02 X 2.1121 Y 36.6466 Z -1.0000 I -0.0000 J -0.0887
G01 X 2.1206 Y 36.6332 Z -1.0000
G01 X 2.1267 Y 36.6259 Z -1.0000
G03 X 2.1981 Y 36.6198 Z -1.0000 I 0.0714 J 0.4150
G02 X 2.2692 Y 36.6134 Z -1.0000 I -0.0000 J -0.3975
G01 X 2.2756 Y 36.6057 Z -1.0000
G01 X 2.2814 Y 36.5975 Z -1.0000
G03 X 2.3144 Y 36.5916 Z -1.0000 I 0.0330 J 0.0906
G02 X 2.3435 Y 36.5830 Z -1.0000 I 0.0000 J -0.0534
G01 X 2.3447 Y 36.5719 Z -1.0000
G01 X 2.3434 Y 36.5664 Z -1.0000
G01 X 2.3474 Y 36.5635 Z -1.0000
G01 X 2.3573 Y 36.5659 Z -1.0000
G01 X 2.3673 Y 36.5740 Z -1.0000
G01 X 2.3768 Y 36.5829 Z -1.0000
G01 X 2.3822 Y 36.5846 Z -1.0000
G01 X 2.3861 Y 36.5823 Z -1.0000
G01 X 2.3884 Y 36.5740 Z -1.0000
G01 X 2.3932 Y 36.5683 Z -1.0000
G03 X 2.4448 Y 36.5635 Z -1.0000 I 0.0516 J 0.2750
G02 X 2.4950 Y 36.5573 Z -1.0000 I 0.0000 J -0.2070
G01 X 2.5011 Y 36.5494 Z -1.0000
G01 X 2.5075 Y 36.5423 Z -1.0000
G01 X 2.5197 Y 36.5476 Z -1.0000
G01 X 2.5293 Y 36.5523 Z -1.0000
G01 X 2.5389 Y 36.5476 Z -1.0000
G01 X 2.5496 Y 36.5376 Z -1.0000
G01 X 2.5575 Y 36.5353 Z -1.0000
G01 X 2.5653 Y 36.5377 Z -1.0000
G01 X 2.5756 Y 36.5476 Z -1.0000
G01 X 2.5852 Y 36.5517 Z -1.0000
G01 X 2.5993 Y 36.5444 Z -1.0000
G02 X 2.6113 Y 36.5278 Z -1.0000 I -0.0604 J -0.0566
G01 X 2.6139 Y 36.5179 Z -1.0000
G01 X 2.6184 Y 36.5116 Z -1.0000
G03 X 2.6457 Y 36.5071 Z -1.0000 I 0.0272 J 0.0797
G02 X 2.6753 Y 36.5024 Z -1.0000 I -0.0000 J -0.0968
G01 X 2.6895 Y 36.4930 Z -1.0000
G01 X 2.7041 Y 36.4843 Z -1.0000
G03 X 2.7548 Y 36.4789 Z -1.0000 I 0.0507 J 0.2352
G02 X 2.8056 Y 36.4735 Z -1.0000 I 0.0000 J -0.2406
G01 X 2.8201 Y 36.4648 Z -1.0000
G01 X 2.8343 Y 36.4554 Z -1.0000
G03 X 2.8640 Y 36.4507 Z -1.0000 I 0.0296 J 0.0922
G02 X 2.8902 Y 36.4452 Z -1.0000 I 0.0000 J -0.0647
G01 X 2.8957 Y 36.4366 Z -1.0000
G01 X 2.9010 Y 36.4277 Z -1.0000
G01 X 2.9209 Y 36.4225 Z -1.0000
G03 X 2.9447 Y 36.4260 Z -1.0000 I -0.0000 J 0.0837
G01 X 2.9566 Y 36.4331 Z -1.0000
G01 X 2.9784 Y 36.4421 Z -1.0000
G01 X 2.9874 Y 36.4331 Z -1.0000
G01 X 2.9975 Y 36.4249 Z -1.0000
G01 X 3.0098 Y 36.4379 Z -1.0000
G01 X 3.0153 Y 36.4433 Z -1.0000
G01 X 3.0257 Y 36.4397 Z -1.0000
G01 X 3.0293 Y 36.4294 Z -1.0000
G01 X 3.0239 Y 36.4238 Z -1.0000
G01 X 3.0140 Y 36.4167 Z -1.0000
G03 X 3.0085 Y 36.3938 Z -1.0000 I 0.0445 J -0.0229
G01 X 3.0167 Y 36.3743 Z -1.0000
G01 X 3.0367 Y 36.3661 Z -1.0000
G03 X 3.0605 Y 36.3705 Z -1.0000 I -0.0000 J 0.0679
G01 X 3.0649 Y 36.3767 Z -1.0000
G01 X 3.0716 Y 36.3835 Z -1.0000
G01 X 3.0860 Y 36.3767 Z -1.0000
G01 X 3.0961 Y 36.3689 Z -1.0000
G01 X 3.1080 Y 36.3661 Z -1.0000
G01 X 3.1172 Y 36.3622 Z -1.0000
G01 X 3.1212 Y 36.3521 Z -1.0000
G01 X 3.1254 Y 36.3421 Z -1.0000
G01 X 3.1353 Y 36.3380 Z -1.0000
G01 X 3.1453 Y 36.3421 Z -1.0000
G01 X 3.1494 Y 36.3521 Z -1.0000
G01 X 3.1548 Y 36.3608 Z -1.0000
G02 X 3.1776 Y 36.3661 Z -1.0000 I 0.0228 J -0.0456
G01 X 3.1975 Y 36.3579 Z -1.0000
G01 X 3.2058 Y 36.3380 Z -1.0000
G03 X 3.2112 Y 36.3152 Z -1.0000 I 0.0510 J 0.0000
G01 X 3.2199 Y 36.3098 Z -1.0000
G01 X 3.2286 Y 36.3044 Z -1.0000
G02 X 3.2340 Y 36.2816 Z -1.0000 I -0.0456 J -0.0228
G01 X 3.2458 Y 36.2652 Z -1.0000
G03 X 3.3185 Y 36.2534 Z -1.0000 I 0.0728 J 0.2183
G03 X 3.3997 Y 36.2568 Z -1.0000 I -0.0000 J 0.9774
G01 X 3.4031 Y 36.2605 Z -1.0000
G01 X 3.4062 Y 36.2644 Z -1.0000
G02 X 3.4313 Y 36.2675 Z -1.0000 I 0.0251 J -0.1004
G01 X 3.4506 Y 36.2586 Z -1.0000
G01 X 3.4597 Y 36.2340 Z -1.0000
G01 X 3.4652 Y 36.2194 Z -1.0000
G01 X 3.4719 Y 36.2199 Z -1.0000
G02 X 3.4847 Y 36.2379 Z -1.0000 I 0.1457 J -0.0904
G01 X 3.4877 Y 36.2393 Z -1.0000
G01 X 3.4907 Y 36.2379 Z -1.0000
G02 X 3.5035 Y 36.2199 Z -1.0000 I -0.1325 J -0.1080
G01 X 3.5123 Y 36.2123 Z -1.0000
G01 X 3.5159 Y 36.2146 Z -1.0000
G01 X 3.5200 Y 36.2181 Z -1.0000
G01 X 3.5296 Y 36.2129 Z -1.0000
G03 X 3.5441 Y 36.1999 Z -1.0000 I 0.0501 J 0.0417
G01 X 3.5540 Y 36.1970 Z -1.0000
G01 X 3.5607 Y 36.1925 Z -1.0000
G02 X 3.5652 Y 36.1700 Z -1.0000 I -0.0543 J -0.0225
G03 X 3.5666 Y 36.1436 Z -1.0000 I 0.2541 J -0.0000
G01 X 3.5683 Y 36.1399 Z -1.0000
G01 X 3.5721 Y 36.1383 Z -1.0000
G03 X 3.6001 Y 36.1394 Z -1.0000 I 0.0035 J 0.2585
G03 X 3.6234 Y 36.1468 Z -1.0000 I -0.0055 J 0.0579
G01 X 3.6286 Y 36.1558 Z -1.0000
G01 X 3.6347 Y 36.1632 Z -1.0000
G02 X 3.6867 Y 36.1674 Z -1.0000 I 0.0441 J -0.2208
G02 X 3.7403 Y 36.1601 Z -1.0000 I -0.0096 J -0.2730
G01 X 3.7471 Y 36.1530 Z -1.0000
G01 X 3.7432 Y 36.1458 Z -1.0000
G02 X 3.7172 Y 36.1407 Z -1.0000 I -0.0260 J 0.0630
G03 X 3.6906 Y 36.1351 Z -1.0000 I 0.0000 J -0.0665
G01 X 3.6850 Y 36.1266 Z -1.0000
G01 X 3.6902 Y 36.1177 Z -1.0000
G01 X 3.7100 Y 36.1125 Z -1.0000
G02 X 3.7683 Y 36.1001 Z -1.0000 I 0.0000 J -0.1440
G01 X 3.7732 Y 36.0845 Z -1.0000
G01 X 3.7776 Y 36.0683 Z -1.0000
G03 X 3.8275 Y 36.0561 Z -1.0000 I 0.0499 J 0.0955
G01 X 3.8488 Y 36.0508 Z -1.0000
G01 X 3.8541 Y 36.0420 Z -1.0000
G01 X 3.8598 Y 36.0336 Z -1.0000
G03 X 3.8893 Y 36.0279 Z -1.0000 I 0.0295 J 0.0739
G01 X 3.9154 Y 36.0188 Z -1.0000
G01 X 3.9246 Y 35.9997 Z -1.0000
G03 X 3.9299 Y 35.9769 Z -1.0000 I 0.0510 J 0.0000
G01 X 3.9387 Y 35.9715 Z -1.0000
G01 X 3.9474 Y 35.9769 Z -1.0000
G03 X 3.9527 Y 35.9997 Z -1.0000 I -0.0456 J 0.0228
G02 X 3.9558 Y 36.0248 Z -1.0000 I 0.1035 J 0.0000
G01 X 3.9598 Y 36.0279 Z -1.0000
G01 X 3.9642 Y 36.0252 Z -1.0000
G01 X 3.9668 Y 36.0138 Z -1.0000
G01 X 3.9723 Y 36.0052 Z -1.0000
G03 X 3.9971 Y 35.9997 Z -1.0000 I 0.0248 J 0.0534
G02 X 4.0358 Y 35.9853 Z -1.0000 I 0.0000 J -0.0588
G01 X 4.0320 Y 35.9694 Z -1.0000
G01 X 4.0496 Y 35.9653 Z -1.0000
G02 X 4.0755 Y 35.9605 Z -1.0000 I -0.0023 J -0.0839
G01 X 4.0796 Y 35.9547 Z -1.0000
G01 X 4.0840 Y 35.9489 Z -1.0000
G03 X 4.1360 Y 35.9398 Z -1.0000 I 0.0795 J 0.3021
G02 X 4.1792 Y 35.9228 Z -1.0000 I -0.0073 J -0.0822
G01 X 4.1923 Y 35.8961 Z -1.0000
G01 X 4.2024 Y 35.8683 Z -1.0000
G01 X 4.2227 Y 35.8598 Z -1.0000
G01 X 4.2456 Y 35.8555 Z -1.0000
G01 X 4.2501 Y 35.8465 Z -1.0000
G01 X 4.2544 Y 35.8367 Z -1.0000
G01 X 4.2761 Y 35.8306 Z -1.0000
G02 X 4.2998 Y 35.8253 Z -1.0000 I -0.0000 J -0.0559
G01 X 4.3051 Y 35.8170 Z -1.0000
G01 X 4.3010 Y 35.8069 Z -1.0000
G01 X 4.2897 Y 35.8011 Z -1.0000
G01 X 4.2843 Y 35.7956 Z -1.0000
G01 X 4.2879 Y 35.7852 Z -1.0000
G01 X 4.2982 Y 35.7816 Z -1.0000
G01 X 4.3038 Y 35.7870 Z -1.0000
G01 X 4.3109 Y 35.7969 Z -1.0000
G02 X 4.3338 Y 35.8024 Z -1.0000 I 0.0229 J -0.0445
G01 X 4.3529 Y 35.7938 Z -1.0000
G01 X 4.3615 Y 35.7710 Z -1.0000
G01 X 4.3694 Y 35.7463 Z -1.0000
G01 X 4.3875 Y 35.7347 Z -1.0000
G03 X 4.4113 Y 35.7339 Z -1.0000 I 0.0148 J 0.0789
G01 X 4.4163 Y 35.7379 Z -1.0000
