%
(Header)
(Generated by gcodetools from Inkscape.)
(Using default header. To add your own header create file "header" in the output dir.)
M3
(Header end.)
G21 (All units in mm)

(Start cutting path id: path50-9)
(Change tool to Default tool)

G00 Z 5.0000
G00 X 23.8650 Y 4.3197

G01 Z -1.0000 F 100.0000(Penetrate)
G03 X 23.9633 Y 4.2214 Z -1.0000 I 0.0983 J 0.0000 F 3500.0000
G03 X 24.2811 Y 4.3197 Z -1.0000 I -0.0000 J 0.5627
G03 X 24.2964 Y 4.3991 Z -1.0000 I -0.0315 J 0.0473
G03 X 24.1840 Y 4.4583 Z -1.0000 I -0.1124 J -0.0770
G03 X 23.9229 Y 4.4063 Z -1.0000 I -0.0000 J -0.6812
G03 X 23.8650 Y 4.3197 Z -1.0000 I 0.0360 J -0.0867
G01 X 23.8650 Y 4.3197 Z -1.0000
G00 Z 5.0000

(End cutting path id: path50-9)


(Start cutting path id: path49-3)
(Change tool to Default tool)

G00 Z 5.0000
G00 X 20.3983 Y 4.5970

G01 Z -1.0000 F 100.0000(Penetrate)
G03 X 20.4367 Y 4.5041 Z -1.0000 I 0.1314 J 0.0000 F 3500.0000
G01 X 20.4953 Y 4.5000 Z -1.0000
G03 X 20.5277 Y 4.5970 Z -1.0000 I -0.1294 J 0.0971
G03 X 20.4953 Y 4.6941 Z -1.0000 I -0.1618 J 0.0000
G01 X 20.4367 Y 4.6899 Z -1.0000
G03 X 20.3983 Y 4.5970 Z -1.0000 I 0.0929 J -0.0929
G01 X 20.3983 Y 4.5970 Z -1.0000
G00 Z 5.0000

(End cutting path id: path49-3)


(Start cutting path id: path1-0)
(Change tool to Default tool)

G00 Z 5.0000
G00 X 19.6772 Y 5.4568

G01 Z -1.0000 F 100.0000(Penetrate)
G02 X 19.6489 Y 5.3476 Z -1.0000 I -0.1069 J -0.0306 F 3500.0000
G02 X 19.5108 Y 5.2904 Z -1.0000 I -0.1381 J 0.1381
G02 X 19.3539 Y 5.3554 Z -1.0000 I 0.0000 J 0.2219
G02 X 19.2889 Y 5.5122 Z -1.0000 I 0.1569 J 0.1569
G02 X 19.4459 Y 5.6490 Z -1.0000 I 0.1381 J 0.0000
G02 X 19.6772 Y 5.4568 Z -1.0000 I -0.0392 J -0.2824
G01 X 19.6772 Y 5.4568 Z -1.0000
G00 Z 5.0000

(End cutting path id: path1-0)


(Start cutting path id: path1-0)
(Change tool to Default tool)

G00 Z 5.0000
G00 X 19.1364 Y 5.4706

G01 Z -1.0000 F 100.0000(Penetrate)
G02 X 19.0925 Y 4.9897 Z -1.0000 I -2.6575 J -0.0000 F 3500.0000
G01 X 19.0532 Y 4.9853 Z -1.0000
G03 X 18.9680 Y 5.0718 Z -1.0000 I -0.1309 J -0.0436
G03 X 18.8313 Y 5.0546 Z -1.0000 I -0.0512 J -0.1456
G01 X 18.7933 Y 5.0741 Z -1.0000
G02 X 18.8174 Y 5.1656 Z -1.0000 I 0.1294 J 0.0148
G03 X 18.9252 Y 5.3791 Z -1.0000 I -0.3621 J 0.3168
G03 X 18.9422 Y 5.7480 Z -1.0000 I -1.0638 J 0.2338
G02 X 18.9587 Y 6.0697 Z -1.0000 I 0.8742 J 0.1166
G02 X 19.0254 Y 6.1224 Z -1.0000 I 0.0667 J -0.0160
G02 X 19.0935 Y 6.0657 Z -1.0000 I 0.0000 J -0.0693
G02 X 19.1364 Y 5.4706 Z -1.0000 I -2.6654 J -0.4909
G01 X 19.1364 Y 5.4706 Z -1.0000
G00 Z 5.0000

(End cutting path id: path1-0)


(Start cutting path id: path1-0)
(Change tool to Default tool)

G00 Z 5.0000
G00 X 17.5278 Y 6.3165

G01 Z -1.0000 F 100.0000(Penetrate)
G02 X 17.2626 Y 6.1725 Z -1.0000 I -0.7673 J 1.0961 F 3500.0000
G02 X 17.0702 Y 6.1224 Z -1.0000 I -0.2875 J 0.7101
G01 X 17.0476 Y 6.1670 Z -1.0000
G02 X 17.2088 Y 6.3027 Z -1.0000 I 0.3627 J -0.2673
G03 X 17.4103 Y 6.5680 Z -1.0000 I -0.1580 J 0.3292
G03 X 17.6248 Y 8.6185 Z -1.0000 I -14.1951 J 2.5214
G01 X 17.6942 Y 10.7679 Z -1.0000
G01 X 17.7358 Y 8.6323 Z -1.0000
G02 X 17.6621 Y 6.5586 Z -1.0000 I -20.7021 J -0.3022
G02 X 17.5278 Y 6.3165 Z -1.0000 I -0.3376 J 0.0290
G01 X 17.5278 Y 6.3165 Z -1.0000
G00 Z 5.0000

(End cutting path id: path1-0)


(Start cutting path id: path1-0)
(Change tool to Default tool)

G00 Z 5.0000
G00 X 16.7512 Y 5.1933

G01 Z -1.0000 F 100.0000(Penetrate)
G02 X 16.6541 Y 5.1609 Z -1.0000 I -0.0971 J 0.1294 F 3500.0000
G02 X 16.5571 Y 5.1933 Z -1.0000 I 0.0000 J 0.1618
G01 X 16.5612 Y 5.2519 Z -1.0000
G02 X 16.6541 Y 5.2904 Z -1.0000 I 0.0929 J -0.0929
G02 X 16.7471 Y 5.2519 Z -1.0000 I 0.0000 J -0.1314
G01 X 16.7512 Y 5.1933 Z -1.0000
G01 X 16.7512 Y 5.1933 Z -1.0000
G00 Z 5.0000

(End cutting path id: path1-0)


(Start cutting path id: path1-0)
(Change tool to Default tool)

G00 Z 5.0000
G00 X 17.2504 Y 3.6679

G01 Z -1.0000 F 100.0000(Penetrate)
G02 X 17.0676 Y 3.6423 Z -1.0000 I -0.1828 J 0.6398 F 3500.0000
G02 X 16.8344 Y 3.6679 Z -1.0000 I 0.0000 J 1.0751
G01 X 16.8328 Y 3.7052 Z -1.0000
G02 X 17.0008 Y 3.7373 Z -1.0000 I 0.1680 J -0.4239
G02 X 17.2470 Y 3.7034 Z -1.0000 I -0.0000 J -0.9125
G01 X 17.2504 Y 3.6679 Z -1.0000
G01 X 17.2504 Y 3.6679 Z -1.0000
G00 Z 5.0000

(End cutting path id: path1-0)


(Start cutting path id: path1-0)
(Change tool to Default tool)

G00 Z 5.0000
G00 X 15.5032 Y 6.4413

G01 Z -1.0000 F 100.0000(Penetrate)
G01 X 15.4446 Y 6.4455 Z -1.0000 F 3500.0000
G02 X 15.4061 Y 6.5384 Z -1.0000 I 0.0929 J 0.0929
G02 X 15.4446 Y 6.6313 Z -1.0000 I 0.1314 J 0.0000
G01 X 15.5032 Y 6.6355 Z -1.0000
G02 X 15.5355 Y 6.5384 Z -1.0000 I -0.1294 J -0.0971
G02 X 15.5032 Y 6.4413 Z -1.0000 I -0.1618 J -0.0000
G01 X 15.5032 Y 6.4413 Z -1.0000
G00 Z 5.0000

(End cutting path id: path1-0)


(Start cutting path id: path1-0)
(Change tool to Default tool)

G00 Z 5.0000
G00 X 14.5463 Y 6.5800

G01 Z -1.0000 F 100.0000(Penetrate)
G02 X 14.2912 Y 6.5547 Z -1.0000 I -0.2552 J 1.2759 F 3500.0000
G02 X 14.0610 Y 6.5800 Z -1.0000 I -0.0000 J 1.0611
G01 X 14.0613 Y 6.6168 Z -1.0000
G02 X 14.2967 Y 6.6494 Z -1.0000 I 0.2354 J -0.8359
G02 X 14.5453 Y 6.6164 Z -1.0000 I 0.0000 J -0.9545
G01 X 14.5463 Y 6.5800 Z -1.0000
G01 X 14.5463 Y 6.5800 Z -1.0000
G00 Z 5.0000

(End cutting path id: path1-0)


(Start cutting path id: path1-0)
(Change tool to Default tool)

G00 Z 5.0000
G00 X 13.0903 Y 6.2611

G01 Z -1.0000 F 100.0000(Penetrate)
G02 X 12.8296 Y 6.0143 Z -1.0000 I -1.7728 J 1.6117 F 3500.0000
G02 X 12.7436 Y 5.9837 Z -1.0000 I -0.0860 J 0.1057
G01 X 12.7199 Y 6.0204 Z -1.0000
G02 X 12.8684 Y 6.2611 Z -1.0000 I 0.9759 J -0.4362
G02 X 13.1291 Y 6.5078 Z -1.0000 I 1.7728 J -1.6117
G02 X 13.2151 Y 6.5384 Z -1.0000 I 0.0860 J -0.1057
G01 X 13.2389 Y 6.5018 Z -1.0000
G02 X 13.0903 Y 6.2611 Z -1.0000 I -0.9759 J 0.4362
G01 X 13.0903 Y 6.2611 Z -1.0000
G00 Z 5.0000

(End cutting path id: path1-0)


(Start cutting path id: path1-0)
(Change tool to Default tool)

G00 Z 5.0000
G00 X 12.4247 Y 7.3982

G01 Z -1.0000 F 100.0000(Penetrate)
G03 X 12.3118 Y 7.2688 Z -1.0000 I 0.1817 J -0.2725 F 3500.0000
G03 X 12.0919 Y 6.7603 Z -1.0000 I 5.6429 J -2.7419
G02 X 11.1558 Y 5.6025 Z -1.0000 I -2.0754 J 0.7206
G02 X 10.1505 Y 5.5816 Z -1.0000 I -0.5207 J 0.8585
G02 X 9.1290 Y 6.5453 Z -1.0000 I 1.1856 J 2.2800
G02 X 9.2075 Y 7.1763 Z -1.0000 I 0.4445 J 0.2651
G01 X 9.2558 Y 7.1776 Z -1.0000
G02 X 9.5819 Y 6.6494 Z -1.0000 I -2.7839 J -2.0833
G03 X 9.9113 Y 6.0648 Z -1.0000 I 6.0775 J 3.0387
G03 X 10.1089 Y 5.8173 Z -1.0000 I 1.2040 J 0.7589
G03 X 10.8801 Y 5.6861 Z -1.0000 I 0.4642 J 0.3963
G03 X 11.9393 Y 6.8851 Z -1.0000 I -1.2785 J 2.1968
G02 X 12.2534 Y 7.4418 Z -1.0000 I 2.9543 J -1.2999
G02 X 12.3831 Y 7.5091 Z -1.0000 I 0.1297 J -0.0912
G02 X 12.4432 Y 7.4671 Z -1.0000 I 0.0000 J -0.0640
G02 X 12.4247 Y 7.3982 Z -1.0000 I -0.0582 J -0.0213
G01 X 12.4247 Y 7.3982 Z -1.0000
G00 Z 5.0000

(End cutting path id: path1-0)


(Start cutting path id: path1-0)
(Change tool to Default tool)

G00 Z 5.0000
G00 X 12.7298 Y 7.5507

G01 Z -1.0000 F 100.0000(Penetrate)
G01 X 12.6712 Y 7.5549 Z -1.0000 F 3500.0000
G02 X 12.6327 Y 7.6478 Z -1.0000 I 0.0929 J 0.0929
G02 X 12.6712 Y 7.7407 Z -1.0000 I 0.1314 J 0.0000
G01 X 12.7298 Y 7.7449 Z -1.0000
G02 X 12.7621 Y 7.6478 Z -1.0000 I -0.1294 J -0.0971
G02 X 12.7298 Y 7.5507 Z -1.0000 I -0.1618 J -0.0000
G01 X 12.7298 Y 7.5507 Z -1.0000
G00 Z 5.0000

(End cutting path id: path1-0)


(Start cutting path id: path1-0)
(Change tool to Default tool)

G00 Z 5.0000
G00 X 11.8007 Y 7.2318

G01 Z -1.0000 F 100.0000(Penetrate)
G02 X 11.7612 Y 7.1388 Z -1.0000 I -0.1293 J 0.0000 F 3500.0000
G02 X 11.6481 Y 7.0931 Z -1.0000 I -0.1131 J 0.1170
G02 X 11.5850 Y 7.1359 Z -1.0000 I 0.0000 J 0.0680
G02 X 11.5927 Y 7.2318 Z -1.0000 I 0.1005 J 0.0402
G02 X 11.6851 Y 7.3486 Z -1.0000 I 0.3265 J -0.1633
G02 X 11.7452 Y 7.3704 Z -1.0000 I 0.0601 J -0.0719
G01 X 11.7747 Y 7.3514 Z -1.0000
G02 X 11.8007 Y 7.2318 Z -1.0000 I -0.2630 J -0.1197
G01 X 11.8007 Y 7.2318 Z -1.0000
G00 Z 5.0000

(End cutting path id: path1-0)


(Start cutting path id: path1-0)
(Change tool to Default tool)

G00 Z 5.0000
G00 X 9.5126 Y 7.6478

G01 Z -1.0000 F 100.0000(Penetrate)
G02 X 9.1868 Y 7.5787 Z -1.0000 I -0.3257 J 0.7329 F 3500.0000
G01 X 9.1659 Y 7.6478 Z -1.0000
G02 X 9.3827 Y 7.7445 Z -1.0000 I 0.4537 J -0.7260
G02 X 9.5819 Y 7.7726 Z -1.0000 I 0.1993 J -0.6917
G01 X 9.6051 Y 7.7326 Z -1.0000
G02 X 9.5126 Y 7.6478 Z -1.0000 I -0.1788 J 0.1022
G01 X 9.5126 Y 7.6478 Z -1.0000
G00 Z 5.0000

(End cutting path id: path1-0)


(Start cutting path id: path1-0)
(Change tool to Default tool)

G00 Z 5.0000
G00 X 8.2923 Y 7.8281

G01 Z -1.0000 F 100.0000(Penetrate)
G02 X 8.1952 Y 7.7957 Z -1.0000 I -0.0971 J 0.1294 F 3500.0000
G02 X 8.0981 Y 7.8281 Z -1.0000 I -0.0000 J 0.1618
G01 X 8.1023 Y 7.8866 Z -1.0000
G02 X 8.1952 Y 7.9251 Z -1.0000 I 0.0929 J -0.0929
G02 X 8.2881 Y 7.8866 Z -1.0000 I -0.0000 J -0.1314
G01 X 8.2923 Y 7.8281 Z -1.0000
G01 X 8.2923 Y 7.8281 Z -1.0000
G00 Z 5.0000

(End cutting path id: path1-0)


(Start cutting path id: path1-0)
(Change tool to Default tool)

G00 Z 5.0000
G00 X 8.6528 Y 5.3320

G01 Z -1.0000 F 100.0000(Penetrate)
G02 X 8.4667 Y 5.3059 Z -1.0000 I -0.1861 J 0.6513 F 3500.0000
G02 X 8.3062 Y 5.3320 Z -1.0000 I -0.0000 J 0.5079
G01 X 8.3064 Y 5.3684 Z -1.0000
G02 X 8.4726 Y 5.4013 Z -1.0000 I 0.1662 J -0.4028
G02 X 8.6512 Y 5.3678 Z -1.0000 I -0.0000 J -0.4931
G01 X 8.6528 Y 5.3320 Z -1.0000
G01 X 8.6528 Y 5.3320 Z -1.0000
G00 Z 5.0000

(End cutting path id: path1-0)


(Start cutting path id: path1-0)
(Change tool to Default tool)

G00 Z 5.0000
G00 X 7.6960 Y 4.1949

G01 Z -1.0000 F 100.0000(Penetrate)
G02 X 7.6391 Y 3.4973 Z -1.0000 I -2.7871 J -0.1239 F 3500.0000
G02 X 7.5435 Y 3.4461 Z -1.0000 I -0.0693 J 0.0146
G02 X 7.3589 Y 3.7008 Z -1.0000 I 0.1140 J 0.2768
G02 X 7.4464 Y 4.8605 Z -1.0000 I 3.9084 J 0.2882
G02 X 7.5657 Y 4.8699 Z -1.0000 I 0.0611 J -0.0129
G02 X 7.6960 Y 4.1949 Z -1.0000 I -1.8441 J -0.7059
G01 X 7.6960 Y 4.1949 Z -1.0000
G00 Z 5.0000

(End cutting path id: path1-0)


(Start cutting path id: path1-0)
(Change tool to Default tool)

G00 Z 5.0000
G00 X 9.2630 Y 3.9453

G01 Z -1.0000 F 100.0000(Penetrate)
G01 X 9.2044 Y 3.9494 Z -1.0000 F 3500.0000
G02 X 9.1659 Y 4.0423 Z -1.0000 I 0.0929 J 0.0929
G02 X 9.2044 Y 4.1352 Z -1.0000 I 0.1314 J 0.0000
G01 X 9.2630 Y 4.1394 Z -1.0000
G02 X 9.2953 Y 4.0423 Z -1.0000 I -0.1294 J -0.0971
G02 X 9.2630 Y 3.9453 Z -1.0000 I -0.1618 J -0.0000
G01 X 9.2630 Y 3.9453 Z -1.0000
G00 Z 5.0000

(End cutting path id: path1-0)


(Start cutting path id: path1-0)
(Change tool to Default tool)

G00 Z 5.0000
G00 X 10.7884 Y 3.5293

G01 Z -1.0000 F 100.0000(Penetrate)
G02 X 10.6913 Y 3.4969 Z -1.0000 I -0.0971 J 0.1294 F 3500.0000
G02 X 10.5942 Y 3.5293 Z -1.0000 I -0.0000 J 0.1618
G01 X 10.5984 Y 3.5878 Z -1.0000
G02 X 10.6913 Y 3.6263 Z -1.0000 I 0.0929 J -0.0929
G02 X 10.7842 Y 3.5878 Z -1.0000 I -0.0000 J -0.1314
G01 X 10.7884 Y 3.5293 Z -1.0000
G01 X 10.7884 Y 3.5293 Z -1.0000
G00 Z 5.0000

(End cutting path id: path1-0)


(Start cutting path id: path1-0)
(Change tool to Default tool)

G00 Z 5.0000
G00 X 10.1782 Y 9.6308

G01 Z -1.0000 F 100.0000(Penetrate)
G03 X 10.0498 Y 9.5374 Z -1.0000 I 0.0635 J -0.2224 F 3500.0000
G03 X 9.9979 Y 9.3673 Z -1.0000 I 0.2531 J -0.1701
G02 X 9.9525 Y 9.2094 Z -1.0000 I -0.2971 J -0.0000
G02 X 9.8870 Y 9.1732 Z -1.0000 I -0.0655 J 0.0411
G02 X 9.8246 Y 9.2143 Z -1.0000 I 0.0000 J 0.0679
G02 X 9.7761 Y 9.4505 Z -1.0000 I 0.5506 J 0.2362
G02 X 9.8632 Y 9.6446 Z -1.0000 I 0.2597 J -0.0000
G02 X 10.0673 Y 9.7140 Z -1.0000 I 0.1843 J -0.2073
G02 X 10.1828 Y 9.6733 Z -1.0000 I 0.0000 J -0.1843
G01 X 10.1782 Y 9.6308 Z -1.0000
G01 X 10.1782 Y 9.6308 Z -1.0000
G00 Z 5.0000

(End cutting path id: path1-0)


(Start cutting path id: path1-0)
(Change tool to Default tool)

G00 Z 5.0000
G00 X 10.0950 Y 10.8095

G01 Z -1.0000 F 100.0000(Penetrate)
G01 X 10.0503 Y 10.7998 Z -1.0000 F 3500.0000
G02 X 10.0118 Y 10.8927 Z -1.0000 I 0.0929 J 0.0929
G02 X 10.0398 Y 11.0681 Z -1.0000 I 0.3588 J 0.0326
G01 X 10.0811 Y 11.0730 Z -1.0000
G02 X 10.1224 Y 10.9857 Z -1.0000 I -0.1011 J -0.1011
G02 X 10.0950 Y 10.8095 Z -1.0000 I -0.3574 J -0.0347
G01 X 10.0950 Y 10.8095 Z -1.0000
G00 Z 5.0000

(End cutting path id: path1-0)


(Start cutting path id: path1-0)
(Change tool to Default tool)

G00 Z 5.0000
G00 X 10.1227 Y 13.0144

G01 Z -1.0000 F 100.0000(Penetrate)
G01 X 10.1505 Y 11.8495 Z -1.0000 F 3500.0000
G01 X 9.7483 Y 11.8356 Z -1.0000
G02 X 9.4927 Y 11.9812 Z -1.0000 I -0.0097 J 0.2803
G02 X 9.3323 Y 12.5845 Z -1.0000 I 1.1452 J 0.6275
G02 X 9.3778 Y 13.2759 Z -1.0000 I 5.2783 J 0.0000
G02 X 9.4433 Y 13.3333 Z -1.0000 I 0.0655 J -0.0086
G03 X 9.4938 Y 13.3750 Z -1.0000 I 0.0000 J 0.0514
G03 X 9.4849 Y 13.6106 Z -1.0000 I -0.5112 J 0.0987
G02 X 9.4894 Y 13.8305 Z -1.0000 I 0.3746 J 0.1022
G02 X 9.5681 Y 13.8880 Z -1.0000 I 0.0786 J -0.0250
G02 X 9.6998 Y 13.7954 Z -1.0000 I 0.0000 J -0.1401
G02 X 9.7345 Y 13.4304 Z -1.0000 I -0.6938 J -0.2500
G01 X 9.7636 Y 13.3852 Z -1.0000
G03 X 9.8593 Y 13.4026 Z -1.0000 I 0.0277 J 0.1195
G03 X 9.9575 Y 13.5240 Z -1.0000 I -0.1454 J 0.2181
G03 X 9.9841 Y 13.7216 Z -1.0000 I -0.3829 J 0.1520
G02 X 9.9981 Y 14.1185 Z -1.0000 I 1.5215 J 0.1449
G02 X 10.0534 Y 14.1653 Z -1.0000 I 0.0553 J -0.0092
G01 X 10.0798 Y 14.1403 Z -1.0000
G02 X 10.1227 Y 13.0144 Z -1.0000 I -35.3723 J -1.9130
G01 X 10.1227 Y 13.0144 Z -1.0000
G00 Z 5.0000

(End cutting path id: path1-0)


(Start cutting path id: path1-0)
(Change tool to Default tool)

G00 Z 5.0000
G00 X 8.6806 Y 13.6106

G01 Z -1.0000 F 100.0000(Penetrate)
G02 X 8.6882 Y 13.5147 Z -1.0000 I -0.0928 J -0.0557 F 3500.0000
G02 X 8.6251 Y 13.4720 Z -1.0000 I -0.0632 J 0.0253
G02 X 8.5120 Y 13.5177 Z -1.0000 I 0.0000 J 0.1628
G02 X 8.4726 Y 13.6106 Z -1.0000 I 0.0898 J 0.0929
G02 X 8.4985 Y 13.7303 Z -1.0000 I 0.2890 J -0.0000
G01 X 8.5280 Y 13.7493 Z -1.0000
G02 X 8.5882 Y 13.7275 Z -1.0000 I 0.0000 J -0.0938
G02 X 8.6806 Y 13.6106 Z -1.0000 I -0.2341 J -0.2801
G01 X 8.6806 Y 13.6106 Z -1.0000
G00 Z 5.0000

(End cutting path id: path1-0)


(Start cutting path id: path21)
(Change tool to Default tool)

G00 Z 5.0000
G00 X 8.1259 Y 15.4550

G01 Z -1.0000 F 100.0000(Penetrate)
G03 X 7.8057 Y 15.2559 Z -1.0000 I 0.1333 J -0.5714 F 3500.0000
G03 X 7.8624 Y 15.1360 Z -1.0000 I 0.0567 J -0.0465
G02 X 8.1221 Y 15.0911 Z -1.0000 I 0.0000 J -0.7733
G02 X 8.2923 Y 14.9835 Z -1.0000 I -0.1539 J -0.4317
G03 X 8.5718 Y 14.9558 Z -1.0000 I 0.1566 J 0.1566
G03 X 8.7499 Y 15.2886 Z -1.0000 I -0.2218 J 0.3328
G03 X 8.6282 Y 15.4474 Z -1.0000 I -0.1645 J 0.0000
G03 X 8.1259 Y 15.4550 Z -1.0000 I -0.2662 J -0.9893
G01 X 8.1259 Y 15.4550 Z -1.0000
G00 Z 5.0000

(End cutting path id: path21)


(Start cutting path id: path19)
(Change tool to Default tool)

G00 Z 5.0000
G00 X 7.4048 Y 16.2870

G01 Z -1.0000 F 100.0000(Penetrate)
G03 X 7.5019 Y 16.2546 Z -1.0000 I 0.0971 J 0.1294 F 3500.0000
G03 X 7.5989 Y 16.2870 Z -1.0000 I 0.0000 J 0.1618
G01 X 7.5948 Y 16.3456 Z -1.0000
G03 X 7.5019 Y 16.3841 Z -1.0000 I -0.0929 J -0.0929
G03 X 7.4090 Y 16.3456 Z -1.0000 I 0.0000 J -0.1314
G01 X 7.4048 Y 16.2870 Z -1.0000
G01 X 7.4048 Y 16.2870 Z -1.0000
G00 Z 5.0000

(End cutting path id: path19)


(Start cutting path id: path1-0)
(Change tool to Default tool)

G00 Z 5.0000
G00 X 8.8470 Y 16.2870

G01 Z -1.0000 F 100.0000(Penetrate)
G01 X 8.7884 Y 16.2911 Z -1.0000 F 3500.0000
G02 X 8.7499 Y 16.3841 Z -1.0000 I 0.0929 J 0.0929
G02 X 8.7884 Y 16.4770 Z -1.0000 I 0.1314 J -0.0000
G01 X 8.8470 Y 16.4811 Z -1.0000
G02 X 8.8793 Y 16.3841 Z -1.0000 I -0.1294 J -0.0971
G02 X 8.8470 Y 16.2870 Z -1.0000 I -0.1618 J -0.0000
G01 X 8.8470 Y 16.2870 Z -1.0000
G00 Z 5.0000

(End cutting path id: path1-0)


(Start cutting path id: path1-0)
(Change tool to Default tool)

G00 Z 5.0000
G00 X 9.6513 Y 16.2454

G01 Z -1.0000 F 100.0000(Penetrate)
G02 X 9.6907 Y 16.1367 Z -1.0000 I -0.2596 J -0.1558 F 3500.0000
G01 X 9.6651 Y 16.1067 Z -1.0000
G02 X 9.6014 Y 16.1328 Z -1.0000 I 0.0000 J 0.0910
G02 X 9.5126 Y 16.2454 Z -1.0000 I 0.3958 J 0.4034
G02 X 9.4763 Y 16.3577 Z -1.0000 I 0.3504 J 0.1752
G01 X 9.4987 Y 16.3841 Z -1.0000
G02 X 9.5589 Y 16.3622 Z -1.0000 I -0.0000 J -0.0938
G02 X 9.6513 Y 16.2454 Z -1.0000 I -0.2341 J -0.2801
G01 X 9.6513 Y 16.2454 Z -1.0000
G00 Z 5.0000

(End cutting path id: path1-0)


(Start cutting path id: path1-0)
(Change tool to Default tool)

G00 Z 5.0000
G00 X 9.9563 Y 16.4257

G01 Z -1.0000 F 100.0000(Penetrate)
G02 X 9.8593 Y 16.3933 Z -1.0000 I -0.0971 J 0.1294 F 3500.0000
G02 X 9.7622 Y 16.4257 Z -1.0000 I -0.0000 J 0.1618
G01 X 9.7664 Y 16.4842 Z -1.0000
G02 X 9.8593 Y 16.5227 Z -1.0000 I 0.0929 J -0.0929
G02 X 9.9522 Y 16.4842 Z -1.0000 I -0.0000 J -0.1314
G01 X 9.9563 Y 16.4257 Z -1.0000
G01 X 9.9563 Y 16.4257 Z -1.0000
G00 Z 5.0000

(End cutting path id: path1-0)


(Start cutting path id: path1-0)
(Change tool to Default tool)

G00 Z 5.0000
G00 X 9.7206 Y 15.5798

G01 Z -1.0000 F 100.0000(Penetrate)
G02 X 9.6671 Y 15.2073 Z -1.0000 I -1.3230 J -0.0000 F 3500.0000
G02 X 9.5403 Y 14.9280 Z -1.0000 I -1.0496 J 0.3079
G02 X 9.4497 Y 14.9333 Z -1.0000 I -0.0434 J 0.0353
G02 X 9.4017 Y 15.1499 Z -1.0000 I 0.2758 J 0.1748
G02 X 9.5919 Y 15.6224 Z -1.0000 I 0.9956 J -0.1264
G02 X 9.7206 Y 15.5798 Z -1.0000 I 0.0573 J -0.0426
G01 X 9.7206 Y 15.5798 Z -1.0000
G00 Z 5.0000

(End cutting path id: path1-0)


(Start cutting path id: path1-0)
(Change tool to Default tool)

G00 Z 5.0000
G00 X 12.6050 Y 14.1376

G01 Z -1.0000 F 100.0000(Penetrate)
G02 X 13.2291 Y 14.0989 Z -1.0000 I -0.0000 J -5.0570 F 3500.0000
G01 X 13.2290 Y 14.0682 Z -1.0000
G03 X 12.8305 Y 13.9367 Z -1.0000 I 0.2026 J -1.2831
G03 X 12.6327 Y 13.7354 Z -1.0000 I 0.2120 J -0.4062
G03 X 12.6696 Y 13.5822 Z -1.0000 I 0.0978 J -0.0575
G03 X 13.0487 Y 13.4720 Z -1.0000 I 0.3791 J 0.5966
G02 X 13.4995 Y 13.3718 Z -1.0000 I -0.0000 J -1.0641
G02 X 13.6034 Y 13.2085 Z -1.0000 I -0.0764 J -0.1633
G02 X 13.5491 Y 12.9753 Z -1.0000 I -0.5280 J 0.0000
G02 X 13.4508 Y 12.8895 Z -1.0000 I -0.1517 J 0.0747
G01 X 13.4324 Y 12.8233 Z -1.0000
G03 X 13.7282 Y 12.5290 Z -1.0000 I 1.1965 J 0.9067
G03 X 14.1010 Y 12.3243 Z -1.0000 I 1.0917 J 1.5466
G01 X 14.1581 Y 12.3626 Z -1.0000
G02 X 14.2138 Y 12.4353 Z -1.0000 I 0.0753 J -0.0000
G02 X 14.7128 Y 12.5013 Z -1.0000 I 0.4990 J -1.8537
G02 X 15.1415 Y 12.3800 Z -1.0000 I 0.0000 J -0.8183
G02 X 15.2674 Y 12.1546 Z -1.0000 I -0.1386 J -0.2254
G02 X 15.1659 Y 11.9095 Z -1.0000 I -0.3467 J 0.0000
G02 X 14.9208 Y 11.8079 Z -1.0000 I -0.2451 J 0.2451
G03 X 14.6973 Y 11.6882 Z -1.0000 I -0.0000 J -0.2685
G03 X 14.5741 Y 11.2810 Z -1.0000 I 0.6117 J -0.4072
G02 X 14.5090 Y 10.7741 Z -1.0000 I -2.0074 J -0.0000
G02 X 14.3522 Y 10.4489 Z -1.0000 I -0.9055 J 0.2363
G03 X 14.3241 Y 10.2344 Z -1.0000 I 0.2036 J -0.1357
G03 X 14.4631 Y 10.1300 Z -1.0000 I 0.1460 J 0.0497
G02 X 14.6172 Y 10.0877 Z -1.0000 I 0.0000 J -0.3017
G01 X 14.6157 Y 10.0468 Z -1.0000
G03 X 14.5285 Y 9.8630 Z -1.0000 I 0.0556 J -0.1389
G03 X 14.7128 Y 9.7278 Z -1.0000 I 0.1842 J 0.0580
G02 X 14.9338 Y 9.6708 Z -1.0000 I -0.0000 J -0.4566
G02 X 14.9901 Y 9.5753 Z -1.0000 I -0.0528 J -0.0955
G03 X 15.0322 Y 9.5143 Z -1.0000 I 0.0653 J 0.0000
G03 X 15.1426 Y 9.5198 Z -1.0000 I 0.0489 J 0.1286
G02 X 15.7333 Y 9.6102 Z -1.0000 I 0.3966 J -0.6169
G02 X 15.9608 Y 9.3118 Z -1.0000 I -0.0819 J -0.2983
G01 X 15.9073 Y 9.2627 Z -1.0000
G02 X 15.6973 Y 9.3257 Z -1.0000 I 0.0445 J 0.5296
G03 X 15.1427 Y 9.4347 Z -1.0000 I -0.4041 J -0.5906
G03 X 15.0456 Y 9.2009 Z -1.0000 I 0.0324 J -0.1505
G01 X 15.0209 Y 9.1539 Z -1.0000
G02 X 14.6157 Y 9.1454 Z -1.0000 I -0.2375 J 1.6690
G02 X 14.2734 Y 9.3070 Z -1.0000 I 0.0787 J 0.6101
G02 X 14.1997 Y 9.5337 Z -1.0000 I 0.1693 J 0.1804
G03 X 14.1965 Y 9.8227 Z -1.0000 I -0.8763 J 0.1348
G03 X 14.1442 Y 9.8665 Z -1.0000 I -0.0523 J -0.0092
G03 X 14.0559 Y 9.8300 Z -1.0000 I -0.0000 J -0.1248
G03 X 14.0194 Y 9.7417 Z -1.0000 I 0.0882 J -0.0882
G02 X 13.9709 Y 9.6803 Z -1.0000 I -0.0631 J 0.0000
G02 X 13.7698 Y 9.6862 Z -1.0000 I -0.0895 J 0.3777
G03 X 13.5791 Y 9.6596 Z -1.0000 I -0.0624 J -0.2494
G03 X 13.5063 Y 9.5337 Z -1.0000 I 0.0725 J -0.1259
G03 X 13.5587 Y 9.3531 Z -1.0000 I 0.3376 J -0.0000
G03 X 13.6589 Y 9.2980 Z -1.0000 I 0.1002 J 0.0634
G01 X 13.6603 Y 9.2728 Z -1.0000
G02 X 13.2567 Y 9.1870 Z -1.0000 I -0.7814 J 2.6842
G02 X 11.8457 Y 9.1711 Z -1.0000 I -0.7601 J 4.8139
G02 X 11.6620 Y 9.3812 Z -1.0000 I 0.0283 J 0.2101
G03 X 11.6328 Y 9.5405 Z -1.0000 I -0.4496 J 0.0000
G03 X 11.5649 Y 9.6308 Z -1.0000 I -0.1895 J -0.0718
G01 X 11.5667 Y 9.6402 Z -1.0000
G02 X 11.6343 Y 9.6308 Z -1.0000 I 0.0000 J -0.2458
G03 X 11.7450 Y 9.6688 Z -1.0000 I 0.0165 J 0.1322
G03 X 11.7591 Y 9.7556 Z -1.0000 I -0.0532 J 0.0532
G03 X 11.6396 Y 9.8600 Z -1.0000 I -0.1487 J -0.0496
G03 X 11.0241 Y 9.9081 Z -1.0000 I -0.5270 J -2.7812
G02 X 10.6266 Y 9.9499 Z -1.0000 I -0.0429 J 1.5024
G01 X 10.6220 Y 10.0052 Z -1.0000
G02 X 10.9121 Y 10.0909 Z -1.0000 I 0.4505 J -0.9910
G02 X 11.4401 Y 10.1300 Z -1.0000 I 0.5280 J -3.5458
G03 X 11.7476 Y 10.2457 Z -1.0000 I -0.0136 J 0.5025
G03 X 11.7591 Y 10.3935 Z -1.0000 I -0.0660 J 0.0795
G02 X 11.5901 Y 10.6722 Z -1.0000 I 0.6488 J 0.5839
G02 X 11.4401 Y 11.2255 Z -1.0000 I 2.9075 J 1.0850
G03 X 11.2459 Y 11.6881 Z -1.0000 I -1.0745 J -0.1791
G03 X 11.0102 Y 11.8079 Z -1.0000 I -0.2357 J -0.1718
G02 X 10.8403 Y 11.9466 Z -1.0000 I 0.0000 J 0.1734
G02 X 10.7745 Y 12.9589 Z -1.0000 I 3.6360 J 0.7447
G02 X 11.0780 Y 14.1150 Z -1.0000 I 3.5095 J -0.3033
G02 X 11.3569 Y 14.2347 Z -1.0000 I 0.2052 J -0.0934
G03 X 11.5622 Y 14.1894 Z -1.0000 I 0.2614 J 0.6972
G03 X 12.6050 Y 14.1376 Z -1.0000 I 1.5241 J 20.1673
G01 X 12.6050 Y 14.1376 Z -1.0000
G00 Z 5.0000

(End cutting path id: path1-0)


(Start cutting path id: path1-0)
(Change tool to Default tool)

G00 Z 5.0000
G00 X 13.6034 Y 15.3856

G01 Z -1.0000 F 100.0000(Penetrate)
G02 X 13.5639 Y 15.2480 Z -1.0000 I -0.2595 J 0.0000 F 3500.0000
G02 X 13.2983 Y 14.9003 Z -1.0000 I -1.9936 J 1.2475
G03 X 13.1688 Y 14.6562 Z -1.0000 I 0.3752 J -0.3555
G03 X 13.2290 Y 14.5813 Z -1.0000 I 0.0602 J -0.0133
G02 X 13.4282 Y 14.5415 Z -1.0000 I -0.0000 J -0.5178
G02 X 13.5340 Y 14.4427 Z -1.0000 I -0.0799 J -0.1917
G01 X 13.5030 Y 14.3727 Z -1.0000
G02 X 12.5772 Y 14.3040 Z -1.0000 I -0.9258 J 6.2030
G02 X 11.6169 Y 14.3981 Z -1.0000 I -0.0000 J 4.9463
G02 X 11.5233 Y 14.5120 Z -1.0000 I 0.0225 J 0.1139
G03 X 11.4798 Y 14.6666 Z -1.0000 I -0.2966 J -0.0000
G03 X 11.3846 Y 14.7200 Z -1.0000 I -0.0952 J -0.0581
G03 X 11.2931 Y 14.6855 Z -1.0000 I 0.0000 J -0.1387
G03 X 11.2460 Y 14.5813 Z -1.0000 I 0.0915 J -0.1042
G02 X 11.2115 Y 14.4898 Z -1.0000 I -0.1387 J -0.0000
G02 X 11.1073 Y 14.4427 Z -1.0000 I -0.1042 J 0.0915
G02 X 11.0447 Y 14.4903 Z -1.0000 I 0.0000 J 0.0649
G02 X 11.0518 Y 14.6507 Z -1.0000 I 0.2501 J 0.0693
G03 X 11.0596 Y 14.8056 Z -1.0000 I -0.1725 J 0.0862
G03 X 10.9825 Y 14.8587 Z -1.0000 I -0.0771 J -0.0294
G02 X 10.8916 Y 14.9175 Z -1.0000 I -0.0000 J 0.0997
G02 X 10.8300 Y 15.2054 Z -1.0000 I 0.6414 J 0.2878
G02 X 10.9820 Y 15.4000 Z -1.0000 I 0.2007 J 0.0000
G02 X 12.2167 Y 15.5520 Z -1.0000 I 1.2347 J -4.9388
G02 X 13.5287 Y 15.4702 Z -1.0000 I -0.0000 J -10.5639
G02 X 13.6034 Y 15.3856 Z -1.0000 I -0.0106 J -0.0846
G01 X 13.6034 Y 15.3856 Z -1.0000
G00 Z 5.0000

(End cutting path id: path1-0)


(Start cutting path id: path1-0)
(Change tool to Default tool)

G00 Z 5.0000
G00 X 13.1458 Y 16.5643

G01 Z -1.0000 F 100.0000(Penetrate)
G02 X 12.6350 Y 16.5389 Z -1.0000 I -0.5108 J 5.1075 F 3500.0000
G02 X 12.1751 Y 16.5643 Z -1.0000 I -0.0000 J 4.1650
G01 X 12.1752 Y 16.5911 Z -1.0000
G02 X 12.7020 Y 16.6198 Z -1.0000 I 0.5268 J -4.8287
G02 X 13.1462 Y 16.5912 Z -1.0000 I 0.0000 J -3.4668
G01 X 13.1458 Y 16.5643 Z -1.0000
G01 X 13.1458 Y 16.5643 Z -1.0000
G00 Z 5.0000

(End cutting path id: path1-0)


(Start cutting path id: path14)
(Change tool to Default tool)

G00 Z 5.0000
G00 X 15.1704 Y 15.4550

G01 Z -1.0000 F 100.0000(Penetrate)
G03 X 15.2674 Y 15.4226 Z -1.0000 I 0.0971 J 0.1294 F 3500.0000
G03 X 15.3645 Y 15.4550 Z -1.0000 I 0.0000 J 0.1618
G01 X 15.3603 Y 15.5135 Z -1.0000
G03 X 15.2674 Y 15.5520 Z -1.0000 I -0.0929 J -0.0929
G03 X 15.1745 Y 15.5135 Z -1.0000 I -0.0000 J -0.1314
G01 X 15.1704 Y 15.4550 Z -1.0000
G01 X 15.1704 Y 15.4550 Z -1.0000
G00 Z 5.0000

(End cutting path id: path14)


(Start cutting path id: path1-0)
(Change tool to Default tool)

G00 Z 5.0000
G00 X 15.5170 Y 15.6075

G01 Z -1.0000 F 100.0000(Penetrate)
G02 X 15.7402 Y 15.4552 Z -1.0000 I -0.1049 J -0.3933 F 3500.0000
G02 X 15.8221 Y 15.2054 Z -1.0000 I -0.3400 J -0.2499
G03 X 16.1170 Y 14.8092 Z -1.0000 I 0.4136 J 0.0000
G03 X 17.9854 Y 14.5536 Z -1.0000 I 1.7504 J 5.8397
G02 X 20.0556 Y 14.3938 Z -1.0000 I 0.2755 J -9.9189
G02 X 20.1903 Y 14.1515 Z -1.0000 I -0.0325 J -0.1767
G02 X 20.0595 Y 14.0501 Z -1.0000 I -0.1457 J 0.0530
G02 X 18.7758 Y 14.0128 Z -1.0000 I -0.9158 J 9.4054
G03 X 17.6186 Y 13.9150 Z -1.0000 I -0.1610 J -4.9910
G03 X 17.5278 Y 13.7632 Z -1.0000 I 0.0239 J -0.1174
G01 X 17.4639 Y 13.7189 Z -1.0000
G02 X 17.2920 Y 13.9296 Z -1.0000 I 0.2861 J 0.4087
G03 X 17.1169 Y 14.2180 Z -1.0000 I -1.4448 J -0.6799
G01 X 17.0840 Y 14.2069 Z -1.0000
G02 X 16.9956 Y 14.0924 Z -1.0000 I -0.1413 J 0.0177
G02 X 16.6541 Y 14.0266 Z -1.0000 I -0.3415 J 0.8538
G03 X 16.3660 Y 13.9073 Z -1.0000 I 0.0000 J -0.4075
G03 X 16.3213 Y 13.6938 Z -1.0000 I 0.1409 J -0.1409
G03 X 16.4645 Y 13.5528 Z -1.0000 I 0.2197 J 0.0799
G03 X 16.9454 Y 13.4720 Z -1.0000 I 0.4808 J 1.3889
G02 X 17.4197 Y 13.4070 Z -1.0000 I -0.0000 J -1.7645
G02 X 17.4862 Y 13.3194 Z -1.0000 I -0.0244 J -0.0876
G01 X 17.5344 Y 13.2855 Z -1.0000
G03 X 17.7080 Y 13.3888 Z -1.0000 I -0.1810 J 0.5022
G02 X 17.9510 Y 13.5283 Z -1.0000 I 0.3379 J -0.3072
G02 X 18.7342 Y 13.6106 Z -1.0000 I 0.7832 J -3.6825
G02 X 19.7997 Y 13.4352 Z -1.0000 I -0.0000 J -3.3236
G02 X 19.9822 Y 13.1808 Z -1.0000 I -0.0861 J -0.2545
G02 X 19.8689 Y 13.0481 Z -1.0000 I -0.1343 J 0.0000
G02 X 18.9283 Y 13.0144 Z -1.0000 I -0.6086 J 3.8396
G03 X 18.0655 Y 12.9440 Z -1.0000 I -0.2136 J -2.7055
G03 X 17.9715 Y 12.7786 Z -1.0000 I 0.0313 J -0.1272
G02 X 17.9798 Y 12.5865 Z -1.0000 I -0.3319 J -0.1106
G01 X 17.9161 Y 12.5567 Z -1.0000
G02 X 17.8061 Y 12.6812 Z -1.0000 I 0.1795 J 0.2692
G02 X 17.7635 Y 12.8618 Z -1.0000 I 0.3611 J 0.1806
G03 X 17.6899 Y 12.9717 Z -1.0000 I -0.1189 J -0.0000
G03 X 17.2643 Y 13.0560 Z -1.0000 I -0.4256 J -1.0334
G03 X 16.8895 Y 12.9656 Z -1.0000 I 0.0000 J -0.8221
G03 X 16.8206 Y 12.8202 Z -1.0000 I 0.0603 J -0.1177
G03 X 16.9358 Y 12.6556 Z -1.0000 I 0.2298 J 0.0383
G03 X 17.3475 Y 12.5290 Z -1.0000 I 0.4954 J 0.8778
G02 X 17.7951 Y 12.2171 Z -1.0000 I -0.0521 J -0.5518
G02 X 17.6248 Y 11.9466 Z -1.0000 I -0.1702 J -0.0817
G03 X 17.3985 Y 11.7840 Z -1.0000 I 0.0000 J -0.2389
G03 X 17.4307 Y 11.3780 Z -1.0000 I 0.4906 J -0.1653
G02 X 17.6048 Y 10.9580 Z -1.0000 I -4.3811 J -2.0617
G02 X 17.5832 Y 10.8927 Z -1.0000 I -0.0525 J -0.0189
G01 X 17.5425 Y 10.8981 Z -1.0000
G02 X 17.2088 Y 11.5306 Z -1.0000 I 8.4376 J 4.8557
G03 X 16.7109 Y 12.1272 Z -1.0000 I -1.3856 J -0.6504
G03 X 16.4739 Y 12.0575 Z -1.0000 I -0.0911 J -0.1280
G01 X 16.4307 Y 12.0533 Z -1.0000
G02 X 16.3907 Y 12.1823 Z -1.0000 I 0.1878 J 0.1291
G02 X 16.4335 Y 12.4413 Z -1.0000 I 0.5350 J 0.0446
G02 X 16.5293 Y 12.5290 Z -1.0000 I 0.1463 J -0.0637
G03 X 16.5989 Y 12.6043 Z -1.0000 I -0.0443 J 0.1108
G03 X 16.5848 Y 12.7786 Z -1.0000 I -0.2235 J 0.0696
G03 X 16.4490 Y 12.8903 Z -1.0000 I -0.1569 J -0.0523
G03 X 15.3368 Y 12.9450 Z -1.0000 I -0.9035 J -7.0404
G02 X 14.3081 Y 13.0319 Z -1.0000 I -0.1592 J 4.2453
G02 X 14.1997 Y 13.1808 Z -1.0000 I 0.0281 J 0.1344
G02 X 14.3328 Y 13.3476 Z -1.0000 I 0.1832 J -0.0096
G02 X 15.2258 Y 13.4720 Z -1.0000 I 0.8930 J -3.1451
G03 X 16.2135 Y 13.5013 Z -1.0000 I 0.0000 J 16.6648
G01 X 16.2381 Y 13.5274 Z -1.0000
G03 X 16.0472 Y 13.8306 Z -1.0000 I -0.3362 J 0.0000
G03 X 15.1842 Y 14.0266 Z -1.0000 I -0.8629 J -1.8016
G02 X 14.3907 Y 14.1166 Z -1.0000 I 0.0000 J 3.5442
G02 X 14.2967 Y 14.2347 Z -1.0000 I 0.0271 J 0.1180
G02 X 14.4058 Y 14.3726 Z -1.0000 I 0.1417 J 0.0000
G02 X 15.3645 Y 14.4843 Z -1.0000 I 0.9587 J -4.0575
G03 X 15.6182 Y 14.6079 Z -1.0000 I 0.0000 J 0.3222
G03 X 15.6557 Y 14.8587 Z -1.0000 I -0.2025 J 0.1585
G03 X 15.4518 Y 15.0989 Z -1.0000 I -0.3909 J -0.1251
G03 X 15.1149 Y 15.1360 Z -1.0000 I -0.2172 J -0.4245
G02 X 14.8086 Y 15.0893 Z -1.0000 I -0.3063 J 0.9803
G01 X 14.7821 Y 15.1360 Z -1.0000
G03 X 14.7688 Y 15.2082 Z -1.0000 I -0.0546 J 0.0273
G03 X 14.5325 Y 15.3440 Z -1.0000 I -0.4177 J -0.4534
G02 X 14.4956 Y 15.4376 Z -1.0000 I 0.0207 J 0.0622
G02 X 14.6434 Y 15.5520 Z -1.0000 I 0.2042 J -0.1110
G03 X 15.0552 Y 15.6549 Z -1.0000 I -3.5597 J 15.1288
G03 X 15.1288 Y 15.6768 Z -1.0000 I -0.3099 J 1.1724
G02 X 15.2008 Y 15.6708 Z -1.0000 I 0.0000 J -0.4306
G02 X 15.5170 Y 15.6075 Z -1.0000 I -0.9194 J -5.4179
G01 X 15.5170 Y 15.6075 Z -1.0000
G00 Z 5.0000

(End cutting path id: path1-0)


(Start cutting path id: path1-0)
(Change tool to Default tool)

G00 Z 5.0000
G00 X 17.8051 Y 15.4272

G01 Z -1.0000 F 100.0000(Penetrate)
G02 X 17.8682 Y 15.3835 Z -1.0000 I -0.0264 J -0.1056 F 3500.0000
G02 X 17.9022 Y 15.2747 Z -1.0000 I -0.1575 J -0.1088
G02 X 17.8457 Y 15.2037 Z -1.0000 I -0.0729 J 0.0000
G02 X 17.2504 Y 15.1360 Z -1.0000 I -0.5953 J 2.5839
G01 X 16.6125 Y 15.1360 Z -1.0000
G01 X 16.8760 Y 14.8309 Z -1.0000
G01 X 16.8493 Y 14.7892 Z -1.0000
G02 X 16.5571 Y 14.9280 Z -1.0000 I 0.3091 J 1.0277
G02 X 16.1906 Y 15.2315 Z -1.0000 I 1.0253 J 1.6111
G01 X 16.2243 Y 15.2747 Z -1.0000
G03 X 16.5575 Y 15.2110 Z -1.0000 I 0.2797 J 0.5593
G03 X 16.6541 Y 15.3163 Z -1.0000 I -0.0091 J 0.1053
G02 X 16.7445 Y 15.4161 Z -1.0000 I 0.1003 J 0.0000
G02 X 17.8051 Y 15.4272 Z -1.0000 I 0.5923 J -5.9205
G01 X 17.8051 Y 15.4272 Z -1.0000
G00 Z 5.0000

(End cutting path id: path1-0)


(Start cutting path id: path1-0)
(Change tool to Default tool)

G00 Z 5.0000
G00 X 19.6772 Y 15.5659

G01 Z -1.0000 F 100.0000(Penetrate)
G02 X 20.2659 Y 15.3070 Z -1.0000 I -0.2930 J -1.4650 F 3500.0000
G02 X 20.3012 Y 15.1083 Z -1.0000 I -0.0861 J -0.1178
G02 X 18.9743 Y 14.4863 Z -1.0000 I -1.1401 J 0.7058
G02 X 18.0963 Y 15.4550 Z -1.0000 I 0.1423 J 1.0112
G02 X 18.2567 Y 15.6464 Z -1.0000 I 0.1727 J 0.0182
G02 X 19.6772 Y 15.5659 Z -1.0000 I 0.3974 J -5.5612
G01 X 19.6772 Y 15.5659 Z -1.0000
G00 Z 5.0000

(End cutting path id: path1-0)


(Start cutting path id: path1-0)
(Change tool to Default tool)

G00 Z 5.0000
G00 X 21.0916 Y 15.5382

G01 Z -1.0000 F 100.0000(Penetrate)
G02 X 21.0541 Y 15.4447 Z -1.0000 I -0.1351 J 0.0000 F 3500.0000
G02 X 20.9807 Y 15.4134 Z -1.0000 I -0.0734 J 0.0703
G02 X 20.8994 Y 15.4601 Z -1.0000 I 0.0000 J 0.0940
G02 X 20.8559 Y 15.6214 Z -1.0000 I 0.2770 J 0.1613
G02 X 20.9036 Y 15.7367 Z -1.0000 I 0.1631 J -0.0000
G02 X 20.9807 Y 15.7462 Z -1.0000 I 0.0446 J -0.0446
G02 X 21.0558 Y 15.6640 Z -1.0000 I -0.1801 J -0.2402
G02 X 21.0916 Y 15.5382 Z -1.0000 I -0.2033 J -0.1258
G01 X 21.0916 Y 15.5382 Z -1.0000
G00 Z 5.0000

(End cutting path id: path1-0)


(Start cutting path id: path1-0)
(Change tool to Default tool)

G00 Z 5.0000
G00 X 21.0223 Y 16.8001

G01 Z -1.0000 F 100.0000(Penetrate)
G03 X 21.0171 Y 16.7094 Z -1.0000 I 0.0838 J -0.0503 F 3500.0000
G03 X 21.0916 Y 16.6614 Z -1.0000 I 0.0745 J 0.0338
G01 X 21.1337 Y 16.6058 Z -1.0000
G02 X 20.9945 Y 16.3286 Z -1.0000 I -0.7886 J 0.2224
G02 X 20.7632 Y 16.1651 Z -1.0000 I -0.3757 J 0.2863
G02 X 20.6479 Y 16.2176 Z -1.0000 I -0.0288 J 0.0896
G01 X 20.5912 Y 16.2447 Z -1.0000
G03 X 20.5508 Y 16.1899 Z -1.0000 I 0.0169 J -0.0548
G02 X 20.4340 Y 16.0525 Z -1.0000 I -0.1496 J 0.0088
G02 X 19.8158 Y 16.0235 Z -1.0000 I -0.3916 J 1.7457
G03 X 14.5523 Y 16.3325 Z -1.0000 I -5.1697 J -43.0809
G03 X 13.8807 Y 15.9819 Z -1.0000 I 0.0018 J -0.8219
G02 X 13.7719 Y 15.9108 Z -1.0000 I -0.1276 J 0.0766
G02 X 12.4385 Y 15.8016 Z -1.0000 I -1.8873 J 14.8486
G02 X 11.0923 Y 15.8246 Z -1.0000 I -0.5035 J 9.9446
G02 X 10.8161 Y 15.9403 Z -1.0000 I 0.0413 J 0.4860
G02 X 10.6307 Y 16.1676 Z -1.0000 I 0.6414 J 0.7127
G02 X 10.6358 Y 16.2593 Z -1.0000 I 0.0715 J 0.0420
G01 X 10.6132 Y 16.2998 Z -1.0000
G03 X 10.3862 Y 16.2731 Z -1.0000 I -0.0493 J -0.5596
G02 X 10.2159 Y 16.2859 Z -1.0000 I -0.0635 J 0.2962
G01 X 10.1921 Y 16.3563 Z -1.0000
G02 X 10.3347 Y 16.4438 Z -1.0000 I 0.1489 J -0.0827
G02 X 11.8839 Y 16.4257 Z -1.0000 I 0.5876 J -15.9804
G03 X 13.4544 Y 16.4215 Z -1.0000 I 0.8319 J 17.4699
G03 X 13.7975 Y 16.5227 Z -1.0000 I -0.0312 J 0.7375
G02 X 14.1467 Y 16.6109 Z -1.0000 I 0.3752 J -0.7503
G02 X 17.3891 Y 16.6337 Z -1.0000 I 2.0962 J -67.6059
G03 X 20.6002 Y 16.6649 Z -1.0000 I 1.0137 J 60.8247
G03 X 20.8004 Y 16.7585 Z -1.0000 I -0.0102 J 0.2830
G02 X 20.9829 Y 16.8586 Z -1.0000 I 0.2433 J -0.2271
G01 X 21.0223 Y 16.8001 Z -1.0000
G01 X 21.0223 Y 16.8001 Z -1.0000
G00 Z 5.0000

(End cutting path id: path1-0)


(Start cutting path id: path1-0)
(Change tool to Default tool)

G00 Z 5.0000
G00 X 19.5662 Y 17.6182

G01 Z -1.0000 F 100.0000(Penetrate)
G02 X 19.5303 Y 17.5344 Z -1.0000 I -0.1156 J 0.0000 F 3500.0000
G02 X 19.4276 Y 17.4934 Z -1.0000 I -0.1027 J 0.1081
G02 X 19.3434 Y 17.5380 Z -1.0000 I -0.0000 J 0.1017
G02 X 19.2889 Y 17.7153 Z -1.0000 I 0.2611 J 0.1773
G02 X 19.3433 Y 17.8331 Z -1.0000 I 0.1548 J 0.0000
G02 X 19.4276 Y 17.8401 Z -1.0000 I 0.0470 J -0.0551
G02 X 19.5323 Y 17.7425 Z -1.0000 I -0.1132 J -0.2264
G02 X 19.5662 Y 17.6182 Z -1.0000 I -0.2103 J -0.1242
G01 X 19.5662 Y 17.6182 Z -1.0000
G00 Z 5.0000

(End cutting path id: path1-0)


(Start cutting path id: path1-0)
(Change tool to Default tool)

G00 Z 5.0000
G00 X 19.2196 Y 18.6028

G01 Z -1.0000 F 100.0000(Penetrate)
G02 X 19.2590 Y 18.4941 Z -1.0000 I -0.2596 J -0.1558 F 3500.0000
G01 X 19.2334 Y 18.4641 Z -1.0000
G02 X 19.1697 Y 18.4902 Z -1.0000 I -0.0000 J 0.0910
G02 X 19.0809 Y 18.6028 Z -1.0000 I 0.3958 J 0.4034
G02 X 19.0446 Y 18.7151 Z -1.0000 I 0.3504 J 0.1752
G01 X 19.0670 Y 18.7415 Z -1.0000
G02 X 19.1272 Y 18.7196 Z -1.0000 I 0.0000 J -0.0938
G02 X 19.2196 Y 18.6028 Z -1.0000 I -0.2341 J -0.2801
G01 X 19.2196 Y 18.6028 Z -1.0000
G00 Z 5.0000

(End cutting path id: path1-0)


(Start cutting path id: path1-0)
(Change tool to Default tool)

G00 Z 5.0000
G00 X 18.8313 Y 18.6444

G01 Z -1.0000 F 100.0000(Penetrate)
G02 X 18.7342 Y 18.6120 Z -1.0000 I -0.0971 J 0.1294 F 3500.0000
G02 X 18.6371 Y 18.6444 Z -1.0000 I 0.0000 J 0.1618
G01 X 18.6413 Y 18.7030 Z -1.0000
G02 X 18.7342 Y 18.7415 Z -1.0000 I 0.0929 J -0.0929
G02 X 18.8271 Y 18.7030 Z -1.0000 I -0.0000 J -0.1314
G01 X 18.8313 Y 18.6444 Z -1.0000
G01 X 18.8313 Y 18.6444 Z -1.0000
G00 Z 5.0000

(End cutting path id: path1-0)


(Start cutting path id: path1-0)
(Change tool to Default tool)

G00 Z 5.0000
G00 X 20.7449 Y 19.5735

G01 Z -1.0000 F 100.0000(Penetrate)
G02 X 20.7844 Y 19.4648 Z -1.0000 I -0.2596 J -0.1558 F 3500.0000
G01 X 20.7588 Y 19.4348 Z -1.0000
G02 X 20.6951 Y 19.4609 Z -1.0000 I 0.0000 J 0.0910
G02 X 20.6063 Y 19.5735 Z -1.0000 I 0.3958 J 0.4034
G02 X 20.5700 Y 19.6858 Z -1.0000 I 0.3504 J 0.1752
G01 X 20.5924 Y 19.7122 Z -1.0000
G02 X 20.6525 Y 19.6903 Z -1.0000 I 0.0000 J -0.0938
G02 X 20.7449 Y 19.5735 Z -1.0000 I -0.2341 J -0.2801
G01 X 20.7449 Y 19.5735 Z -1.0000
G00 Z 5.0000

(End cutting path id: path1-0)


(Start cutting path id: path1-0)
(Change tool to Default tool)

G00 Z 5.0000
G00 X 21.1887 Y 20.3084

G01 Z -1.0000 F 100.0000(Penetrate)
G01 X 21.1301 Y 20.3126 Z -1.0000 F 3500.0000
G02 X 21.0916 Y 20.4055 Z -1.0000 I 0.0929 J 0.0929
G02 X 21.1301 Y 20.4984 Z -1.0000 I 0.1314 J 0.0000
G01 X 21.1887 Y 20.5026 Z -1.0000
G02 X 21.2210 Y 20.4055 Z -1.0000 I -0.1294 J -0.0971
G02 X 21.1887 Y 20.3084 Z -1.0000 I -0.1618 J 0.0000
G01 X 21.1887 Y 20.3084 Z -1.0000
G00 Z 5.0000

(End cutting path id: path1-0)


(Start cutting path id: path1-0)
(Change tool to Default tool)

G00 Z 5.0000
G00 X 21.3274 Y 20.7245

G01 Z -1.0000 F 100.0000(Penetrate)
G02 X 21.2303 Y 20.6921 Z -1.0000 I -0.0971 J 0.1294 F 3500.0000
G02 X 21.1332 Y 20.7245 Z -1.0000 I 0.0000 J 0.1618
G01 X 21.1374 Y 20.7830 Z -1.0000
G02 X 21.2303 Y 20.8215 Z -1.0000 I 0.0929 J -0.0929
G02 X 21.3232 Y 20.7830 Z -1.0000 I 0.0000 J -0.1314
G01 X 21.3274 Y 20.7245 Z -1.0000
G01 X 21.3274 Y 20.7245 Z -1.0000
G00 Z 5.0000

(End cutting path id: path1-0)


(Start cutting path id: path1-0)
(Change tool to Default tool)

G00 Z 5.0000
G00 X 21.3135 Y 21.0018

G01 Z -1.0000 F 100.0000(Penetrate)
G02 X 21.1635 Y 21.0283 Z -1.0000 I -0.0657 J 0.0657 F 3500.0000
G02 X 21.1610 Y 21.3346 Z -1.0000 I 0.3356 J 0.1560
G02 X 21.2533 Y 21.3932 Z -1.0000 I 0.0924 J -0.0435
G02 X 21.3274 Y 21.3346 Z -1.0000 I 0.0000 J -0.0760
G02 X 21.3536 Y 21.0889 Z -1.0000 I -0.6435 J -0.1931
G02 X 21.3135 Y 21.0018 Z -1.0000 I -0.1381 J 0.0109
G01 X 21.3135 Y 21.0018 Z -1.0000
G00 Z 5.0000

(End cutting path id: path1-0)


(Start cutting path id: path1-0)
(Change tool to Default tool)

G00 Z 5.0000
G00 X 21.6047 Y 20.1698

G01 Z -1.0000 F 100.0000(Penetrate)
G01 X 21.5825 Y 20.1699 Z -1.0000 F 3500.0000
G02 X 21.5631 Y 21.0295 Z -1.0000 I 19.0613 J 0.8597
G02 X 21.5824 Y 21.9723 Z -1.0000 I 22.9775 J 0.0000
G01 X 21.6047 Y 21.9725 Z -1.0000
G02 X 21.6301 Y 21.1092 Z -1.0000 I -14.6767 J -0.8633
G02 X 21.6047 Y 20.1698 Z -1.0000 I -17.4040 J 0.0000
G01 X 21.6047 Y 20.1698 Z -1.0000
G00 Z 5.0000

(End cutting path id: path1-0)


(Start cutting path id: path1-0)
(Change tool to Default tool)

G00 Z 5.0000
G00 X 22.0207 Y 19.3377

G01 Z -1.0000 F 100.0000(Penetrate)
G02 X 21.9236 Y 19.3054 Z -1.0000 I -0.0971 J 0.1294 F 3500.0000
G02 X 21.8266 Y 19.3377 Z -1.0000 I 0.0000 J 0.1618
G01 X 21.8307 Y 19.3963 Z -1.0000
G02 X 21.9236 Y 19.4348 Z -1.0000 I 0.0929 J -0.0929
G02 X 22.0165 Y 19.3963 Z -1.0000 I -0.0000 J -0.1314
G01 X 22.0207 Y 19.3377 Z -1.0000
G01 X 22.0207 Y 19.3377 Z -1.0000
G00 Z 5.0000

(End cutting path id: path1-0)


(Start cutting path id: path1-0)
(Change tool to Default tool)

G00 Z 5.0000
G00 X 21.7156 Y 18.6167

G01 Z -1.0000 F 100.0000(Penetrate)
G03 X 21.7018 Y 18.5074 Z -1.0000 I 0.1172 J -0.0703 F 3500.0000
G03 X 21.7850 Y 18.3948 Z -1.0000 I 0.1973 J 0.0587
G02 X 21.8805 Y 18.2997 Z -1.0000 I -0.1442 J -0.2404
G02 X 21.9236 Y 18.1452 Z -1.0000 I -0.2550 J -0.1546
G01 X 21.8804 Y 18.1205 Z -1.0000
G02 X 21.7156 Y 18.2700 Z -1.0000 I 0.2769 J 0.4707
G02 X 21.5675 Y 18.6356 Z -1.0000 I 0.6370 J 0.4708
G02 X 21.6602 Y 18.7415 Z -1.0000 I 0.0926 J 0.0124
G02 X 21.7227 Y 18.7051 Z -1.0000 I 0.0000 J -0.0719
G02 X 21.7156 Y 18.6167 Z -1.0000 I -0.0688 J -0.0390
G01 X 21.7156 Y 18.6167 Z -1.0000
G00 Z 5.0000

(End cutting path id: path1-0)


(Start cutting path id: path1-0)
(Change tool to Default tool)

G00 Z 5.0000
G00 X 22.8527 Y 18.5196

G01 Z -1.0000 F 100.0000(Penetrate)
G02 X 23.0911 Y 18.4059 Z -1.0000 I -0.2659 J -0.8642 F 3500.0000
G01 X 23.1023 Y 18.3393 Z -1.0000
G01 X 23.1270 Y 18.2944 Z -1.0000
G03 X 23.4490 Y 18.2977 Z -1.0000 I 0.1467 J 1.4059
G02 X 23.7015 Y 18.1796 Z -1.0000 I 0.0360 J -0.2520
G02 X 23.8928 Y 17.5905 Z -1.0000 I -1.1081 J -0.6854
G02 X 23.9006 Y 16.8630 Z -1.0000 I -16.9308 J -0.5462
G01 X 23.8650 Y 16.8278 Z -1.0000
G03 X 23.5540 Y 16.7690 Z -1.0000 I -0.0337 J -0.6737
G03 X 23.5184 Y 16.6614 Z -1.0000 I 0.0317 J -0.0702
G03 X 23.6169 Y 16.5981 Z -1.0000 I 0.1133 J 0.0680
G03 X 23.8234 Y 16.6198 Z -1.0000 I 0.0539 J 0.4795
G02 X 23.9408 Y 16.5992 Z -1.0000 I 0.0426 J -0.1022
G02 X 23.9621 Y 16.4950 Z -1.0000 I -0.0612 J -0.0668
G03 X 23.9545 Y 16.2839 Z -1.0000 I 0.3557 J -0.1186
G03 X 24.0730 Y 16.0096 Z -1.0000 I 0.9164 J 0.2334
G02 X 24.2326 Y 15.7443 Z -1.0000 I -0.9100 J -0.7280
G02 X 24.2811 Y 15.5104 Z -1.0000 I -0.5407 J -0.2339
G02 X 24.2013 Y 15.4105 Z -1.0000 I -0.1025 J -0.0000
G02 X 24.0037 Y 15.4411 Z -1.0000 I -0.0602 J 0.2642
G03 X 23.4674 Y 15.4900 Z -1.0000 I -0.3156 J -0.4959
G03 X 23.2826 Y 15.1360 Z -1.0000 I 0.1157 J -0.2857
G02 X 23.2614 Y 15.0623 Z -1.0000 I -0.0878 J -0.0146
G01 X 23.1994 Y 15.0528 Z -1.0000
G03 X 23.0743 Y 15.0641 Z -1.0000 I -0.0742 J -0.1237
G03 X 22.8111 Y 14.9141 Z -1.0000 I 0.3425 J -0.9069
G03 X 22.7733 Y 14.8236 Z -1.0000 I 0.0627 J -0.0794
G01 X 22.8250 Y 14.7893 Z -1.0000
G02 X 22.9308 Y 14.7718 Z -1.0000 I 0.0356 J -0.1138
G01 X 22.9359 Y 14.7061 Z -1.0000
G03 X 22.8011 Y 14.5122 Z -1.0000 I 0.4720 J -0.4720
G03 X 22.7557 Y 14.3040 Z -1.0000 I 0.4544 J -0.2082
G01 X 22.8033 Y 14.2563 Z -1.0000
G03 X 22.8943 Y 14.3040 Z -1.0000 I 0.0000 J 0.1107
G02 X 22.9927 Y 14.3759 Z -1.0000 I 0.1474 J -0.0983
G01 X 23.0330 Y 14.3456 Z -1.0000
G02 X 23.0003 Y 14.2087 Z -1.0000 I -0.3026 J 0.0000
G02 X 22.9082 Y 14.1099 Z -1.0000 I -0.2176 J 0.1104
G02 X 22.4836 Y 14.0767 Z -1.0000 I -0.2446 J 0.3975
G02 X 22.4090 Y 14.3040 Z -1.0000 I 0.0610 J 0.1459
G03 X 22.4218 Y 14.4112 Z -1.0000 I -0.1133 J 0.0680
G03 X 22.3535 Y 14.4981 Z -1.0000 I -0.1482 J -0.0461
G02 X 22.2861 Y 14.5990 Z -1.0000 I 0.0730 J 0.1217
G02 X 22.2981 Y 14.9003 Z -1.0000 I 0.8010 J 0.1192
G03 X 22.2731 Y 14.9993 Z -1.0000 I -0.1111 J 0.0247
G01 X 22.2149 Y 14.9973 Z -1.0000
G02 X 22.0906 Y 14.8724 Z -1.0000 I -0.5096 J 0.3822
G01 X 22.0623 Y 14.8864 Z -1.0000
G03 X 22.0514 Y 14.9676 Z -1.0000 I -0.3087 J -0.0000
G03 X 21.9791 Y 15.1915 Z -1.0000 I -2.4539 J -0.6692
G02 X 22.0060 Y 15.3044 Z -1.0000 I 0.0911 J 0.0380
G02 X 22.1455 Y 15.3302 Z -1.0000 I 0.0920 J -0.1073
G01 X 22.1987 Y 15.3514 Z -1.0000
G01 X 22.1871 Y 15.3995 Z -1.0000
G02 X 21.7898 Y 15.9744 Z -1.0000 I 0.4595 J 0.7422
G02 X 21.9098 Y 16.7585 Z -1.0000 I 1.1521 J 0.2250
G03 X 22.0328 Y 17.0143 Z -1.0000 I -8.2582 J 4.1291
G03 X 22.1317 Y 17.2854 Z -1.0000 I -1.5736 J 0.7272
G02 X 22.2304 Y 17.3609 Z -1.0000 I 0.1068 J -0.0374
G02 X 22.3258 Y 17.2993 Z -1.0000 I 0.0067 J -0.0943
G03 X 22.4292 Y 17.2175 Z -1.0000 I 0.1213 J 0.0472
G03 X 22.5199 Y 17.2715 Z -1.0000 I 0.0116 J 0.0837
G02 X 22.6396 Y 17.4247 Z -1.0000 I 0.3661 J -0.1627
G02 X 22.7418 Y 17.4241 Z -1.0000 I 0.0507 J -0.0650
G03 X 22.8511 Y 17.4103 Z -1.0000 I 0.0703 J 0.1172
G03 X 22.9637 Y 17.4934 Z -1.0000 I -0.0587 J 0.1973
G03 X 22.9659 Y 17.5906 Z -1.0000 I -0.0842 J 0.0505
G03 X 22.8666 Y 17.6598 Z -1.0000 I -0.1183 J -0.0638
G02 X 22.6949 Y 17.6748 Z -1.0000 I 0.0000 J 0.9950
G03 X 22.5477 Y 17.6876 Z -1.0000 I -0.1472 J -0.8400
G02 X 22.4247 Y 17.7886 Z -1.0000 I 0.0262 J 0.1572
G02 X 22.3397 Y 18.2561 Z -1.0000 I 1.2419 J 0.4675
G02 X 22.4779 Y 18.4805 Z -1.0000 I 0.2512 J 0.0000
G02 X 22.8527 Y 18.5196 Z -1.0000 I 0.2390 J -0.4744
G01 X 22.8527 Y 18.5196 Z -1.0000
G00 Z 5.0000

(End cutting path id: path1-0)


(Start cutting path id: path1-0)
(Change tool to Default tool)

G00 Z 5.0000
G00 X 23.0330 Y 18.7969

G01 Z -1.0000 F 100.0000(Penetrate)
G02 X 23.1303 Y 18.7110 Z -1.0000 I -0.0698 J -0.1771 F 3500.0000
G01 X 23.1023 Y 18.6721 Z -1.0000
G03 X 22.6786 Y 18.7440 Z -1.0000 I -2.2696 J -12.1044
G02 X 22.5199 Y 18.7692 Z -1.0000 I 1.6373 J 10.8008
G02 X 22.3833 Y 18.8235 Z -1.0000 I 0.0443 J 0.3103
G02 X 22.3397 Y 18.9079 Z -1.0000 I 0.0596 J 0.0843
G02 X 22.4167 Y 18.9728 Z -1.0000 I 0.0659 J 0.0000
G02 X 23.0330 Y 18.7969 Z -1.0000 I -0.5130 J -2.9658
G01 X 23.0330 Y 18.7969 Z -1.0000
G00 Z 5.0000

(End cutting path id: path1-0)


(Start cutting path id: path9)
(Change tool to Default tool)

G00 Z 5.0000
G00 X 23.2133 Y 17.4241

G01 Z -1.0000 F 100.0000(Penetrate)
G03 X 23.1768 Y 17.2095 Z -1.0000 I 0.6754 J -0.2251 F 3500.0000
G03 X 23.1994 Y 17.1329 Z -1.0000 I 0.1346 J -0.0020
G01 X 23.2528 Y 17.1375 Z -1.0000
G03 X 23.3520 Y 17.3548 Z -1.0000 I -0.5363 J 0.3761
G03 X 23.3056 Y 17.4583 Z -1.0000 I -0.0877 J 0.0229
G03 X 23.2133 Y 17.4241 Z -1.0000 I -0.0304 J -0.0595
G01 X 23.2133 Y 17.4241 Z -1.0000
G00 Z 5.0000

(End cutting path id: path9)


(Start cutting path id: path10)
(Change tool to Default tool)

G00 Z 5.0000
G00 X 22.8943 Y 17.0774

G01 Z -1.0000 F 100.0000(Penetrate)
G03 X 22.9328 Y 16.9845 Z -1.0000 I 0.1314 J 0.0000 F 3500.0000
G01 X 22.9914 Y 16.9803 Z -1.0000
G03 X 23.0238 Y 17.0774 Z -1.0000 I -0.1294 J 0.0971
G03 X 22.9914 Y 17.1745 Z -1.0000 I -0.1618 J -0.0000
G01 X 22.9328 Y 17.1703 Z -1.0000
G03 X 22.8943 Y 17.0774 Z -1.0000 I 0.0929 J -0.0929
G01 X 22.8943 Y 17.0774 Z -1.0000
G00 Z 5.0000

(End cutting path id: path10)


(Start cutting path id: path1-0)
(Change tool to Default tool)

G00 Z 5.0000
G00 X 24.2811 Y 16.2870

G01 Z -1.0000 F 100.0000(Penetrate)
G02 X 24.2205 Y 16.0910 Z -1.0000 I -0.3477 J 0.0000 F 3500.0000
G01 X 24.1562 Y 16.0928 Z -1.0000
G02 X 24.0817 Y 16.2920 Z -1.0000 I 0.4528 J 0.2830
G02 X 24.1008 Y 16.4811 Z -1.0000 I 0.3675 J 0.0584
G02 X 24.1985 Y 16.4997 Z -1.0000 I 0.0546 J -0.0208
G02 X 24.2811 Y 16.2870 Z -1.0000 I -0.2329 J -0.2127
G01 X 24.2811 Y 16.2870 Z -1.0000
G00 Z 5.0000

(End cutting path id: path1-0)


(Start cutting path id: path1-0)
(Change tool to Default tool)

G00 Z 5.0000
G00 X 24.6555 Y 16.0096

G01 Z -1.0000 F 100.0000(Penetrate)
G02 X 24.5584 Y 15.9773 Z -1.0000 I -0.0971 J 0.1294 F 3500.0000
G02 X 24.4613 Y 16.0096 Z -1.0000 I 0.0000 J 0.1618
G01 X 24.4655 Y 16.0682 Z -1.0000
G02 X 24.5584 Y 16.1067 Z -1.0000 I 0.0929 J -0.0929
G02 X 24.6513 Y 16.0682 Z -1.0000 I -0.0000 J -0.1314
G01 X 24.6555 Y 16.0096 Z -1.0000
G01 X 24.6555 Y 16.0096 Z -1.0000
G00 Z 5.0000

(End cutting path id: path1-0)


(Start cutting path id: path1-0)
(Change tool to Default tool)

G00 Z 5.0000
G00 X 23.8650 Y 15.3579

G01 Z -1.0000 F 100.0000(Penetrate)
G01 X 23.8453 Y 15.3202 Z -1.0000 F 3500.0000
G02 X 23.6432 Y 15.2192 Z -1.0000 I -0.4553 J 0.6588
G02 X 23.5395 Y 15.2199 Z -1.0000 I -0.0510 J 0.1359
G01 X 23.5184 Y 15.2747 Z -1.0000
G02 X 23.7575 Y 15.4451 Z -1.0000 I 0.3149 J -0.1890
G02 X 23.8650 Y 15.3579 Z -1.0000 I 0.0184 J -0.0872
G01 X 23.8650 Y 15.3579 Z -1.0000
G00 Z 5.0000

(End cutting path id: path1-0)


(Start cutting path id: path1-0)
(Change tool to Default tool)

G00 Z 5.0000
G00 X 24.0730 Y 14.9973

G01 Z -1.0000 F 100.0000(Penetrate)
G02 X 24.0661 Y 14.9131 Z -1.0000 I -0.0621 J -0.0373 F 3500.0000
G02 X 23.9482 Y 14.8587 Z -1.0000 I -0.1178 J 0.1004
G02 X 23.7710 Y 14.9132 Z -1.0000 I 0.0000 J 0.3156
G02 X 23.7264 Y 14.9973 Z -1.0000 I 0.0572 J 0.0842
G02 X 23.7674 Y 15.1000 Z -1.0000 I 0.1491 J -0.0000
G02 X 23.8512 Y 15.1360 Z -1.0000 I 0.0838 J -0.0796
G02 X 23.9754 Y 15.1021 Z -1.0000 I 0.0000 J -0.2443
G02 X 24.0730 Y 14.9973 Z -1.0000 I -0.1287 J -0.2179
G01 X 24.0730 Y 14.9973 Z -1.0000
G00 Z 5.0000

(End cutting path id: path1-0)


(Start cutting path id: path1-0)
(Change tool to Default tool)

G00 Z 5.0000
G00 X 25.2517 Y 14.8032

G01 Z -1.0000 F 100.0000(Penetrate)
G02 X 25.1832 Y 13.6496 Z -1.0000 I -9.7374 J -0.0000 F 3500.0000
G02 X 25.1131 Y 13.5413 Z -1.0000 I -0.1455 J 0.0174
G03 X 25.0325 Y 13.4358 Z -1.0000 I 0.1135 J -0.1702
G03 X 25.0437 Y 13.3333 Z -1.0000 I 0.1171 J -0.0390
G02 X 24.9953 Y 13.0857 Z -1.0000 I -0.1616 J -0.0969
G02 X 24.7387 Y 13.1114 Z -1.0000 I -0.1144 J 0.1522
G02 X 24.7172 Y 13.1890 Z -1.0000 I 0.0577 J 0.0577
G02 X 24.8219 Y 13.3888 Z -1.0000 I 0.4672 J -0.1175
G03 X 24.9000 Y 13.5849 Z -1.0000 I -0.2316 J 0.2059
G03 X 24.8496 Y 13.9296 Z -1.0000 I -0.9910 J 0.0311
G02 X 24.7944 Y 14.2461 Z -1.0000 I 0.6199 J 0.2712
G02 X 24.8773 Y 14.4288 Z -1.0000 I 0.2847 J -0.0191
G03 X 24.9220 Y 14.5367 Z -1.0000 I -0.1079 J 0.1079
G01 X 24.8773 Y 14.5813 Z -1.0000
G02 X 24.8107 Y 14.6424 Z -1.0000 I 0.0000 J 0.0669
G02 X 24.8357 Y 15.0667 Z -1.0000 I 1.4516 J 0.1271
G03 X 24.8529 Y 15.4187 Z -1.0000 I -0.9229 J 0.2215
G01 X 24.7803 Y 15.4550 Z -1.0000
G01 X 24.7523 Y 15.4740 Z -1.0000
G02 X 24.7941 Y 15.5798 Z -1.0000 I 0.2431 J -0.0351
G03 X 24.9063 Y 15.7836 Z -1.0000 I -0.4088 J 0.3577
G03 X 24.8773 Y 15.8710 Z -1.0000 I -0.0773 J 0.0228
G01 X 24.8858 Y 15.9262 Z -1.0000
G02 X 25.0160 Y 15.9680 Z -1.0000 I 0.1302 J -0.1814
G02 X 25.1485 Y 15.8591 Z -1.0000 I 0.0000 J -0.1351
G02 X 25.2517 Y 14.8032 Z -1.0000 I -5.3501 J -1.0559
G01 X 25.2517 Y 14.8032 Z -1.0000
G00 Z 5.0000

(End cutting path id: path1-0)


(Start cutting path id: path1-0)
(Change tool to Default tool)

G00 Z 5.0000
G00 X 25.4875 Y 14.6229

G01 Z -1.0000 F 100.0000(Penetrate)
G01 X 25.4599 Y 14.6226 Z -1.0000 F 3500.0000
G02 X 25.4320 Y 14.9973 Z -1.0000 I 2.5021 J 0.3747
G02 X 25.4602 Y 15.3858 Z -1.0000 I 2.6878 J -0.0000
G01 X 25.4875 Y 15.3856 Z -1.0000
G02 X 25.5120 Y 14.9921 Z -1.0000 I -3.1484 J -0.3935
G02 X 25.4875 Y 14.6229 Z -1.0000 I -2.7931 J -0.0000
G01 X 25.4875 Y 14.6229 Z -1.0000
G00 Z 5.0000

(End cutting path id: path1-0)


(Start cutting path id: path12)
(Change tool to Default tool)

G00 Z 5.0000
G00 X 25.9867 Y 14.5536

G01 Z -1.0000 F 100.0000(Penetrate)
G03 X 26.0564 Y 14.2114 Z -1.0000 I 0.6914 J -0.0374 F 3500.0000
G03 X 26.1670 Y 14.1931 Z -1.0000 I 0.0619 J 0.0303
G03 X 26.2810 Y 14.4231 Z -1.0000 I -0.2840 J 0.2840
G03 X 26.2363 Y 14.6923 Z -1.0000 I -0.4586 J 0.0622
G02 X 26.1515 Y 14.9470 Z -1.0000 I 0.5298 J 0.3179
G02 X 26.1808 Y 15.0528 Z -1.0000 I 0.1499 J 0.0154
G01 X 26.1902 Y 15.1028 Z -1.0000
G03 X 26.1392 Y 15.1360 Z -1.0000 I -0.0510 J -0.0225
G03 X 26.0663 Y 15.0798 Z -1.0000 I 0.0000 J -0.0754
G03 X 25.9867 Y 14.5536 Z -1.0000 I 2.4152 J -0.6347
G01 X 25.9867 Y 14.5536 Z -1.0000
G00 Z 5.0000

(End cutting path id: path12)


(Start cutting path id: path1-0)
(Change tool to Default tool)

G00 Z 5.0000
G00 X 25.4875 Y 13.7216

G01 Z -1.0000 F 100.0000(Penetrate)
G01 X 25.4511 Y 13.7218 Z -1.0000 F 3500.0000
G02 X 25.4182 Y 13.8880 Z -1.0000 I 0.4028 J 0.1662
G02 X 25.4516 Y 14.0666 Z -1.0000 I 0.4931 J -0.0000
G01 X 25.4875 Y 14.0682 Z -1.0000
G02 X 25.5135 Y 13.8822 Z -1.0000 I -0.6513 J -0.1861
G02 X 25.4875 Y 13.7216 Z -1.0000 I -0.5079 J -0.0000
G01 X 25.4875 Y 13.7216 Z -1.0000
G00 Z 5.0000

(End cutting path id: path1-0)


(Start cutting path id: path1-0)
(Change tool to Default tool)

G00 Z 5.0000
G00 X 25.4875 Y 13.2362

G01 Z -1.0000 F 100.0000(Penetrate)
G01 X 25.4289 Y 13.2404 Z -1.0000 F 3500.0000
G02 X 25.3904 Y 13.3333 Z -1.0000 I 0.0929 J 0.0929
G02 X 25.4289 Y 13.4262 Z -1.0000 I 0.1314 J 0.0000
G01 X 25.4875 Y 13.4304 Z -1.0000
G02 X 25.5198 Y 13.3333 Z -1.0000 I -0.1294 J -0.0971
G02 X 25.4875 Y 13.2362 Z -1.0000 I -0.1618 J -0.0000
G01 X 25.4875 Y 13.2362 Z -1.0000
G00 Z 5.0000

(End cutting path id: path1-0)


(Start cutting path id: path13)
(Change tool to Default tool)

G00 Z 5.0000
G00 X 25.9451 Y 13.1946

G01 Z -1.0000 F 100.0000(Penetrate)
G03 X 25.9836 Y 13.1017 Z -1.0000 I 0.1314 J 0.0000 F 3500.0000
G01 X 26.0422 Y 13.0976 Z -1.0000
G03 X 26.0745 Y 13.1946 Z -1.0000 I -0.1294 J 0.0971
G03 X 26.0422 Y 13.2917 Z -1.0000 I -0.1618 J -0.0000
G01 X 25.9836 Y 13.2875 Z -1.0000
G03 X 25.9451 Y 13.1946 Z -1.0000 I 0.0929 J -0.0929
G01 X 25.9451 Y 13.1946 Z -1.0000
G00 Z 5.0000

(End cutting path id: path13)


(Start cutting path id: path1-0)
(Change tool to Default tool)

G00 Z 5.0000
G00 X 25.4875 Y 11.7108

G01 Z -1.0000 F 100.0000(Penetrate)
G01 X 25.4289 Y 11.7150 Z -1.0000 F 3500.0000
G02 X 25.3904 Y 11.8079 Z -1.0000 I 0.0929 J 0.0929
G02 X 25.4289 Y 11.9008 Z -1.0000 I 0.1314 J 0.0000
G01 X 25.4875 Y 11.9050 Z -1.0000
G02 X 25.5198 Y 11.8079 Z -1.0000 I -0.1294 J -0.0971
G02 X 25.4875 Y 11.7108 Z -1.0000 I -0.1618 J -0.0000
G01 X 25.4875 Y 11.7108 Z -1.0000
G00 Z 5.0000

(End cutting path id: path1-0)


(Start cutting path id: path1-0)
(Change tool to Default tool)

G00 Z 5.0000
G00 X 25.1408 Y 11.2532

G01 Z -1.0000 F 100.0000(Penetrate)
G01 X 25.1763 Y 11.1986 Z -1.0000 F 3500.0000
G03 X 25.2795 Y 11.2255 Z -1.0000 I 0.0256 J 0.1132
G02 X 25.5343 Y 11.3054 Z -1.0000 I 0.2363 J -0.3072
G02 X 27.1238 Y 11.1284 Z -1.0000 I -0.6049 J -12.6577
G01 X 27.6785 Y 11.0452 Z -1.0000
G01 X 27.3595 Y 10.7263 Z -1.0000
G03 X 27.0813 Y 10.3707 Z -1.0000 I 1.3178 J -1.3178
G03 X 26.9851 Y 10.1161 Z -1.0000 I 0.6461 J -0.3895
G02 X 26.8345 Y 10.0547 Z -1.0000 I -0.0965 J 0.0211
G02 X 26.5137 Y 10.4212 Z -1.0000 I 0.4994 J 0.7609
G03 X 26.1578 Y 11.0738 Z -1.0000 I -5.2256 J -2.4262
G03 X 26.0838 Y 11.1146 Z -1.0000 I -0.0740 J -0.0468
G03 X 25.7505 Y 10.8816 Z -1.0000 I 0.0000 J -0.3548
G03 X 25.5291 Y 9.6308 Z -1.0000 I 3.4217 J -1.2508
G03 X 25.6072 Y 9.3890 Z -1.0000 I 0.4134 J 0.0000
G03 X 25.8064 Y 9.2425 Z -1.0000 I 0.3266 J 0.2355
G02 X 25.8950 Y 8.9822 Z -1.0000 I -0.0499 J -0.1622
G02 X 25.4598 Y 8.7571 Z -1.0000 I -0.4352 J 0.3083
G02 X 24.9456 Y 8.8658 Z -1.0000 I -0.0000 J 1.2712
G02 X 24.8357 Y 9.0345 Z -1.0000 I 0.0746 J 0.1687
G02 X 24.9170 Y 9.2306 Z -1.0000 I 0.2773 J 0.0000
G02 X 25.1131 Y 9.3118 Z -1.0000 I 0.1961 J -0.1961
G03 X 25.3383 Y 9.5371 Z -1.0000 I 0.0000 J 0.2253
G03 X 25.1131 Y 10.5737 Z -1.0000 I -2.4979 J -0.0000
G02 X 24.8925 Y 11.3949 Z -1.0000 I 2.4146 J 1.0890
G02 X 25.0160 Y 11.4890 Z -1.0000 I 0.0906 J 0.0092
G02 X 25.1212 Y 11.4043 Z -1.0000 I -0.0612 J -0.1837
G02 X 25.1408 Y 11.2532 Z -1.0000 I -0.1652 J -0.0982
G01 X 25.1408 Y 11.2532 Z -1.0000
G00 Z 5.0000

(End cutting path id: path1-0)


(Start cutting path id: path1-0)
(Change tool to Default tool)

G00 Z 5.0000
G00 X 24.1008 Y 11.1562

G01 Z -1.0000 F 100.0000(Penetrate)
G01 X 24.0422 Y 11.1603 Z -1.0000 F 3500.0000
G02 X 24.0037 Y 11.2532 Z -1.0000 I 0.0929 J 0.0929
G02 X 24.0422 Y 11.3461 Z -1.0000 I 0.1314 J -0.0000
G01 X 24.1008 Y 11.3503 Z -1.0000
G02 X 24.1331 Y 11.2532 Z -1.0000 I -0.1294 J -0.0971
G02 X 24.1008 Y 11.1562 Z -1.0000 I -0.1618 J 0.0000
G01 X 24.1008 Y 11.1562 Z -1.0000
G00 Z 5.0000

(End cutting path id: path1-0)


(Start cutting path id: path1-0)
(Change tool to Default tool)

G00 Z 5.0000
G00 X 23.8234 Y 12.1269

G01 Z -1.0000 F 100.0000(Penetrate)
G01 X 23.7648 Y 12.1310 Z -1.0000 F 3500.0000
G02 X 23.7264 Y 12.2239 Z -1.0000 I 0.0929 J 0.0929
G02 X 23.7648 Y 12.3168 Z -1.0000 I 0.1314 J 0.0000
G01 X 23.8234 Y 12.3210 Z -1.0000
G02 X 23.8558 Y 12.2239 Z -1.0000 I -0.1294 J -0.0971
G02 X 23.8234 Y 12.1269 Z -1.0000 I -0.1618 J 0.0000
G01 X 23.8234 Y 12.1269 Z -1.0000
G00 Z 5.0000

(End cutting path id: path1-0)


(Start cutting path id: path1-0)
(Change tool to Default tool)

G00 Z 5.0000
G00 X 23.9621 Y 12.8202

G01 Z -1.0000 F 100.0000(Penetrate)
G02 X 23.8650 Y 12.7879 Z -1.0000 I -0.0971 J 0.1294 F 3500.0000
G02 X 23.7680 Y 12.8202 Z -1.0000 I -0.0000 J 0.1618
G01 X 23.7721 Y 12.8788 Z -1.0000
G02 X 23.8650 Y 12.9173 Z -1.0000 I 0.0929 J -0.0929
G02 X 23.9579 Y 12.8788 Z -1.0000 I 0.0000 J -0.1314
G01 X 23.9621 Y 12.8202 Z -1.0000
G01 X 23.9621 Y 12.8202 Z -1.0000
G00 Z 5.0000

(End cutting path id: path1-0)


(Start cutting path id: path1-0)
(Change tool to Default tool)

G00 Z 5.0000
G00 X 23.7680 Y 13.3056

G01 Z -1.0000 F 100.0000(Penetrate)
G02 X 23.9476 Y 13.2605 Z -1.0000 I -0.0000 J -0.3809 F 3500.0000
G02 X 24.0037 Y 13.1669 Z -1.0000 I -0.0501 J -0.0936
G02 X 23.9670 Y 13.0965 Z -1.0000 I -0.0858 J 0.0000
G02 X 23.9066 Y 13.0976 Z -1.0000 I -0.0295 J 0.0422
G03 X 23.8242 Y 13.1317 Z -1.0000 I -0.0700 J -0.0525
G03 X 23.6570 Y 13.0560 Z -1.0000 I 0.0465 J -0.3250
G02 X 23.5170 Y 13.0333 Z -1.0000 I -0.0886 J 0.1034
G02 X 23.2549 Y 13.2224 Z -1.0000 I 0.2600 J 0.6365
G02 X 23.1995 Y 13.3666 Z -1.0000 I 0.1603 J 0.1443
G01 X 23.2549 Y 13.4026 Z -1.0000
G03 X 23.5276 Y 13.3279 Z -1.0000 I 0.5935 J 1.6321
G03 X 23.7680 Y 13.3056 Z -1.0000 I 0.2403 J 1.2789
G01 X 23.7680 Y 13.3056 Z -1.0000
G00 Z 5.0000

(End cutting path id: path1-0)


(Start cutting path id: path1-0)
(Change tool to Default tool)

G00 Z 5.0000
G00 X 22.5477 Y 13.4720

G01 Z -1.0000 F 100.0000(Penetrate)
G02 X 22.5553 Y 13.3760 Z -1.0000 I -0.0928 J -0.0557 F 3500.0000
G02 X 22.4922 Y 13.3333 Z -1.0000 I -0.0632 J 0.0253
G02 X 22.3791 Y 13.3790 Z -1.0000 I 0.0000 J 0.1628
G02 X 22.3397 Y 13.4720 Z -1.0000 I 0.0898 J 0.0929
G02 X 22.3656 Y 13.5916 Z -1.0000 I 0.2890 J -0.0000
G01 X 22.3951 Y 13.6106 Z -1.0000
G02 X 22.4553 Y 13.5888 Z -1.0000 I -0.0000 J -0.0938
G02 X 22.5477 Y 13.4720 Z -1.0000 I -0.2341 J -0.2801
G01 X 22.5477 Y 13.4720 Z -1.0000
G00 Z 5.0000

(End cutting path id: path1-0)


(Start cutting path id: path1-0)
(Change tool to Default tool)

G00 Z 5.0000
G00 X 22.2981 Y 12.5429

G01 Z -1.0000 F 100.0000(Penetrate)
G01 X 22.2395 Y 12.5470 Z -1.0000 F 3500.0000
G02 X 22.2010 Y 12.6399 Z -1.0000 I 0.0929 J 0.0929
G02 X 22.2395 Y 12.7328 Z -1.0000 I 0.1314 J 0.0000
G01 X 22.2981 Y 12.7370 Z -1.0000
G02 X 22.3304 Y 12.6399 Z -1.0000 I -0.1294 J -0.0971
G02 X 22.2981 Y 12.5429 Z -1.0000 I -0.1618 J -0.0000
G01 X 22.2981 Y 12.5429 Z -1.0000
G00 Z 5.0000

(End cutting path id: path1-0)


(Start cutting path id: path1-0)
(Change tool to Default tool)

G00 Z 5.0000
G00 X 21.8820 Y 11.4335

G01 Z -1.0000 F 100.0000(Penetrate)
G01 X 21.8452 Y 11.4338 Z -1.0000 F 3500.0000
G02 X 21.8127 Y 11.6692 Z -1.0000 I 0.8359 J 0.2354
G02 X 21.8456 Y 11.9178 Z -1.0000 I 0.9545 J 0.0000
G01 X 21.8820 Y 11.9188 Z -1.0000
G02 X 21.9073 Y 11.6637 Z -1.0000 I -1.2759 J -0.2552
G02 X 21.8820 Y 11.4335 Z -1.0000 I -1.0611 J 0.0000
G01 X 21.8820 Y 11.4335 Z -1.0000
G00 Z 5.0000

(End cutting path id: path1-0)


(Start cutting path id: path1-0)
(Change tool to Default tool)

G00 Z 5.0000
G00 X 20.9529 Y 10.5599

G01 Z -1.0000 F 100.0000(Penetrate)
G02 X 20.9043 Y 10.4786 Z -1.0000 I -0.0922 J 0.0000 F 3500.0000
G02 X 20.6756 Y 10.4212 Z -1.0000 I -0.2286 J 0.4270
G02 X 20.4470 Y 10.4786 Z -1.0000 I -0.0000 J 0.4844
G02 X 20.3983 Y 10.5599 Z -1.0000 I 0.0435 J 0.0813
G02 X 20.4554 Y 10.6496 Z -1.0000 I 0.0991 J 0.0000
G02 X 20.6756 Y 10.6985 Z -1.0000 I 0.2202 J -0.4711
G02 X 20.8958 Y 10.6496 Z -1.0000 I 0.0000 J -0.5200
G02 X 20.9529 Y 10.5599 Z -1.0000 I -0.0420 J -0.0897
G01 X 20.9529 Y 10.5599 Z -1.0000
G00 Z 5.0000

(End cutting path id: path1-0)


(Start cutting path id: path1-0)
(Change tool to Default tool)

G00 Z 5.0000
G00 X 19.9406 Y 10.0468

G01 Z -1.0000 F 100.0000(Penetrate)
G02 X 19.8436 Y 10.0144 Z -1.0000 I -0.0971 J 0.1294 F 3500.0000
G02 X 19.7465 Y 10.0468 Z -1.0000 I -0.0000 J 0.1618
G01 X 19.7507 Y 10.1054 Z -1.0000
G02 X 19.8436 Y 10.1439 Z -1.0000 I 0.0929 J -0.0929
G02 X 19.9365 Y 10.1054 Z -1.0000 I -0.0000 J -0.1314
G01 X 19.9406 Y 10.0468 Z -1.0000
G01 X 19.9406 Y 10.0468 Z -1.0000
G00 Z 5.0000

(End cutting path id: path1-0)


(Start cutting path id: path1-0)
(Change tool to Default tool)

G00 Z 5.0000
G00 X 19.4137 Y 9.5614

G01 Z -1.0000 F 100.0000(Penetrate)
G02 X 19.4635 Y 9.6686 Z -1.0000 I 0.2023 J -0.0289 F 3500.0000
G02 X 19.5385 Y 9.6862 Z -1.0000 I 0.0500 J -0.0447
G03 X 19.6516 Y 9.6425 Z -1.0000 I 0.1344 J 0.1792
G03 X 21.1610 Y 9.5198 Z -1.0000 I 4.9854 J 52.0174
G02 X 22.6817 Y 9.3957 Z -1.0000 I -3.1258 J -47.6677
G02 X 22.7418 Y 9.3673 Z -1.0000 I -0.0096 J -0.0981
G02 X 22.7923 Y 9.2882 Z -1.0000 I -0.1539 J -0.1539
G02 X 22.8389 Y 9.0900 Z -1.0000 I -0.7980 J -0.2921
G02 X 22.7564 Y 8.9849 Z -1.0000 I -0.0905 J -0.0139
G02 X 21.4660 Y 8.9652 Z -1.0000 I -0.7806 J 8.8519
G02 X 19.4149 Y 9.4689 Z -1.0000 I 0.3297 J 5.7699
G02 X 18.9422 Y 10.1023 Z -1.0000 I 0.3364 J 0.7442
G01 X 18.9926 Y 10.1322 Z -1.0000
G02 X 19.1502 Y 9.9359 Z -1.0000 I -0.3504 J -0.4427
G03 X 19.3754 Y 9.5490 Z -1.0000 I 2.0292 J 0.9223
G01 X 19.4137 Y 9.5614 Z -1.0000
G01 X 19.4137 Y 9.5614 Z -1.0000
G00 Z 5.0000

(End cutting path id: path1-0)


(Start cutting path id: path1-0)
(Change tool to Default tool)

G00 Z 5.0000
G00 X 19.1086 Y 8.3134

G01 Z -1.0000 F 100.0000(Penetrate)
G01 X 19.0639 Y 8.3037 Z -1.0000 F 3500.0000
G02 X 19.0254 Y 8.3966 Z -1.0000 I 0.0929 J 0.0929
G02 X 19.0534 Y 8.5720 Z -1.0000 I 0.3588 J 0.0326
G01 X 19.0948 Y 8.5769 Z -1.0000
G02 X 19.1360 Y 8.4896 Z -1.0000 I -0.1011 J -0.1011
G02 X 19.1086 Y 8.3134 Z -1.0000 I -0.3574 J -0.0347
G01 X 19.1086 Y 8.3134 Z -1.0000
G00 Z 5.0000

(End cutting path id: path1-0)


(Start cutting path id: path1-0)
(Change tool to Default tool)

G00 Z 5.0000
G00 X 20.6340 Y 8.2441

G01 Z -1.0000 F 100.0000(Penetrate)
G01 X 20.5754 Y 8.2482 Z -1.0000 F 3500.0000
G02 X 20.5369 Y 8.3411 Z -1.0000 I 0.0929 J 0.0929
G02 X 20.5754 Y 8.4340 Z -1.0000 I 0.1314 J 0.0000
G01 X 20.6340 Y 8.4382 Z -1.0000
G02 X 20.6664 Y 8.3411 Z -1.0000 I -0.1294 J -0.0971
G02 X 20.6340 Y 8.2441 Z -1.0000 I -0.1618 J 0.0000
G01 X 20.6340 Y 8.2441 Z -1.0000
G00 Z 5.0000

(End cutting path id: path1-0)


(Start cutting path id: path1-0)
(Change tool to Default tool)

G00 Z 5.0000
G00 X 23.1301 Y 9.7694

G01 Z -1.0000 F 100.0000(Penetrate)
G02 X 23.0330 Y 9.7371 Z -1.0000 I -0.0971 J 0.1294 F 3500.0000
G02 X 22.9359 Y 9.7694 Z -1.0000 I 0.0000 J 0.1618
G01 X 22.9401 Y 9.8280 Z -1.0000
G02 X 23.0330 Y 9.8665 Z -1.0000 I 0.0929 J -0.0929
G02 X 23.1259 Y 9.8280 Z -1.0000 I 0.0000 J -0.1314
G01 X 23.1301 Y 9.7694 Z -1.0000
G01 X 23.1301 Y 9.7694 Z -1.0000
G00 Z 5.0000

(End cutting path id: path1-0)


(Start cutting path id: path1-0)
(Change tool to Default tool)

G00 Z 5.0000
G00 X 23.6848 Y 9.7833

G01 Z -1.0000 F 100.0000(Penetrate)
G02 X 23.5975 Y 9.7421 Z -1.0000 I -0.1011 J 0.1011 F 3500.0000
G02 X 23.4213 Y 9.7694 Z -1.0000 I -0.0347 J 0.3574
G01 X 23.4116 Y 9.8142 Z -1.0000
G02 X 23.5045 Y 9.8527 Z -1.0000 I 0.0929 J -0.0929
G02 X 23.6799 Y 9.8246 Z -1.0000 I 0.0326 J -0.3588
G01 X 23.6848 Y 9.7833 Z -1.0000
G01 X 23.6848 Y 9.7833 Z -1.0000
G00 Z 5.0000

(End cutting path id: path1-0)


(Start cutting path id: path1-0)
(Change tool to Default tool)

G00 Z 5.0000
G00 X 24.6971 Y 9.0345

G01 Z -1.0000 F 100.0000(Penetrate)
G02 X 24.6114 Y 8.8644 Z -1.0000 I -0.2118 J 0.0000 F 3500.0000
G02 X 24.3920 Y 8.8126 Z -1.0000 I -0.1699 J 0.2291
G03 X 24.0625 Y 8.8692 Z -1.0000 I -0.6624 J -2.8706
G03 X 23.8373 Y 8.8820 Z -1.0000 I -0.2252 J -1.9798
G02 X 23.6513 Y 8.9630 Z -1.0000 I 0.0330 J 0.3296
G02 X 23.5877 Y 9.1038 Z -1.0000 I 0.1241 J 0.1409
G02 X 23.6737 Y 9.2276 Z -1.0000 I 0.1320 J -0.0000
G02 X 24.1424 Y 9.3118 Z -1.0000 I 0.4687 J -1.2610
G02 X 24.5883 Y 9.2087 Z -1.0000 I -0.0000 J -1.0154
G02 X 24.6971 Y 9.0345 Z -1.0000 I -0.0851 J -0.1742
G01 X 24.6971 Y 9.0345 Z -1.0000
G00 Z 5.0000

(End cutting path id: path1-0)


(Start cutting path id: path1-0)
(Change tool to Default tool)

G00 Z 5.0000
G00 X 27.6646 Y 9.0761

G01 Z -1.0000 F 100.0000(Penetrate)
G03 X 28.0547 Y 9.1373 Z -1.0000 I 0.0982 J 0.6479 F 3500.0000
G03 X 28.1777 Y 9.3257 Z -1.0000 I -0.0990 J 0.1990
G02 X 28.2190 Y 9.3782 Z -1.0000 I 0.0605 J -0.0050
G01 X 28.2609 Y 9.3534 Z -1.0000
G03 X 28.4158 Y 9.1477 Z -1.0000 I 0.2972 J 0.0626
G03 X 28.8711 Y 9.0345 Z -1.0000 I 0.4552 J 0.8588
G02 X 29.3256 Y 8.9514 Z -1.0000 I -0.0000 J -1.2846
G02 X 29.4119 Y 8.8265 Z -1.0000 I -0.0473 J -0.1249
G02 X 29.3185 Y 8.7196 Z -1.0000 I -0.1079 J 0.0000
G02 X 27.8172 Y 8.6185 Z -1.0000 I -1.5013 J 11.0954
G02 X 26.3505 Y 8.7438 Z -1.0000 I 0.0000 J 8.6436
G02 X 26.2224 Y 8.8958 Z -1.0000 I 0.0262 J 0.1520
G02 X 26.3037 Y 9.0919 Z -1.0000 I 0.2773 J 0.0000
G02 X 26.4998 Y 9.1732 Z -1.0000 I 0.1961 J -0.1961
G03 X 26.6990 Y 9.2489 Z -1.0000 I -0.0000 J 0.3000
G03 X 26.7771 Y 9.4228 Z -1.0000 I -0.1545 J 0.1739
G02 X 26.8414 Y 9.4790 Z -1.0000 I 0.0600 J -0.0037
G02 X 26.9713 Y 9.4089 Z -1.0000 I -0.0128 J -0.1792
G03 X 27.2057 Y 9.2202 Z -1.0000 I 0.5427 J 0.4342
G03 X 27.6646 Y 9.0761 Z -1.0000 I 0.6895 J 1.3934
G01 X 27.6646 Y 9.0761 Z -1.0000
G00 Z 5.0000

(End cutting path id: path1-0)


(Start cutting path id: path1-0)
(Change tool to Default tool)

G00 Z 5.0000
G00 X 28.7185 Y 10.9759

G01 Z -1.0000 F 100.0000(Penetrate)
G02 X 28.5266 Y 10.0584 Z -1.0000 I -2.2890 J -0.0000 F 3500.0000
G02 X 28.2332 Y 9.8665 Z -1.0000 I -0.2934 J 0.1284
G02 X 27.9397 Y 10.0584 Z -1.0000 I 0.0000 J 0.3203
G02 X 27.7478 Y 10.9759 Z -1.0000 I 2.0970 J 0.9175
G02 X 27.8032 Y 11.0506 Z -1.0000 I 0.0781 J 0.0000
G02 X 28.2332 Y 11.1146 Z -1.0000 I 0.4300 J -1.4128
G02 X 28.6632 Y 11.0506 Z -1.0000 I -0.0000 J -1.4768
G02 X 28.7185 Y 10.9759 Z -1.0000 I -0.0227 J -0.0747
G01 X 28.7185 Y 10.9759 Z -1.0000
G00 Z 5.0000

(End cutting path id: path1-0)


(Start cutting path id: path1-0)
(Change tool to Default tool)

G00 Z 5.0000
G00 X 29.2871 Y 12.5429

G01 Z -1.0000 F 100.0000(Penetrate)
G02 X 29.3192 Y 11.5047 Z -1.0000 I -8.0860 J -0.7701 F 3500.0000
G01 X 29.2593 Y 11.4751 Z -1.0000
G03 X 29.1871 Y 11.4549 Z -1.0000 I -0.0266 J -0.0443
G03 X 29.1207 Y 11.2255 Z -1.0000 I 0.5190 J -0.2745
G01 X 29.0694 Y 11.1861 Z -1.0000
G02 X 28.9959 Y 11.2532 Z -1.0000 I 0.0217 J 0.0975
G02 X 28.8408 Y 12.4240 Z -1.0000 I 3.3337 J 1.0371
G02 X 29.0652 Y 12.6399 Z -1.0000 I 0.2244 J -0.0086
G02 X 29.2343 Y 12.6050 Z -1.0000 I 0.0000 J -0.4266
G02 X 29.2871 Y 12.5429 Z -1.0000 I -0.0365 J -0.0844
G01 X 29.2871 Y 12.5429 Z -1.0000
G00 Z 5.0000

(End cutting path id: path1-0)


(Start cutting path id: path1-0)
(Change tool to Default tool)

G00 Z 5.0000
G00 X 29.4119 Y 13.1946

G01 Z -1.0000 F 100.0000(Penetrate)
G02 X 29.3306 Y 12.9985 Z -1.0000 I -0.2773 J 0.0000 F 3500.0000
G02 X 29.1345 Y 12.9173 Z -1.0000 I -0.1961 J 0.1961
G02 X 28.9594 Y 13.0170 Z -1.0000 I 0.0000 J 0.2037
G02 X 28.9404 Y 13.2501 Z -1.0000 I 0.2291 J 0.1360
G02 X 29.2160 Y 13.4152 Z -1.0000 I 0.2446 J -0.0957
G02 X 29.4119 Y 13.1946 Z -1.0000 I -0.0262 J -0.2206
G01 X 29.4119 Y 13.1946 Z -1.0000
G00 Z 5.0000

(End cutting path id: path1-0)


(Start cutting path id: path1-0)
(Change tool to Default tool)

G00 Z 5.0000
G00 X 30.3826 Y 12.9311

G01 Z -1.0000 F 100.0000(Penetrate)
G02 X 30.2839 Y 12.6600 Z -1.0000 I -0.4220 J -0.0000 F 3500.0000
G02 X 30.0775 Y 12.5706 Z -1.0000 I -0.1925 J 0.1614
G02 X 29.8465 Y 12.6899 Z -1.0000 I 0.0176 J 0.3175
G02 X 29.7170 Y 13.0144 Z -1.0000 I 0.4728 J 0.3768
G02 X 29.8042 Y 13.2964 Z -1.0000 I 0.3710 J 0.0397
G02 X 30.0220 Y 13.3749 Z -1.0000 I 0.1778 J -0.1518
G02 X 30.2787 Y 13.2210 Z -1.0000 I -0.0873 J -0.4367
G02 X 30.3826 Y 12.9311 Z -1.0000 I -0.3525 J -0.2899
G01 X 30.3826 Y 12.9311 Z -1.0000
G00 Z 5.0000

(End cutting path id: path1-0)


(Start cutting path id: path1-0)
(Change tool to Default tool)

G00 Z 5.0000
G00 X 30.7986 Y 12.9173

G01 Z -1.0000 F 100.0000(Penetrate)
G02 X 30.7496 Y 12.6970 Z -1.0000 I -0.5200 J 0.0000 F 3500.0000
G02 X 30.6599 Y 12.6399 Z -1.0000 I -0.0897 J 0.0420
G02 X 30.5786 Y 12.6886 Z -1.0000 I 0.0000 J 0.0922
G02 X 30.5212 Y 12.9173 Z -1.0000 I 0.4270 J 0.2286
G02 X 30.5786 Y 13.1459 Z -1.0000 I 0.4844 J -0.0000
G02 X 30.6599 Y 13.1946 Z -1.0000 I 0.0813 J -0.0435
G02 X 30.7496 Y 13.1375 Z -1.0000 I 0.0000 J -0.0991
G02 X 30.7986 Y 12.9173 Z -1.0000 I -0.4711 J -0.2202
G01 X 30.7986 Y 12.9173 Z -1.0000
G00 Z 5.0000

(End cutting path id: path1-0)


(Start cutting path id: path27)
(Change tool to Default tool)

G00 Z 5.0000
G00 X 30.8125 Y 13.6661

G01 Z -1.0000 F 100.0000(Penetrate)
G03 X 30.8509 Y 13.5732 Z -1.0000 I 0.1314 J -0.0000 F 3500.0000
G01 X 30.8957 Y 13.5829 Z -1.0000
G03 X 30.9230 Y 13.7591 Z -1.0000 I -0.3300 J 0.1414
G03 X 30.8818 Y 13.8464 Z -1.0000 I -0.1423 J -0.0138
G01 X 30.8405 Y 13.8415 Z -1.0000
G03 X 30.8125 Y 13.6661 Z -1.0000 I 0.3308 J -0.1428
G01 X 30.8125 Y 13.6661 Z -1.0000
G00 Z 5.0000

(End cutting path id: path27)


(Start cutting path id: path28)
(Change tool to Default tool)

G00 Z 5.0000
G00 X 31.8109 Y 13.5136

G01 Z -1.0000 F 100.0000(Penetrate)
G03 X 31.9080 Y 13.4812 Z -1.0000 I 0.0971 J 0.1294 F 3500.0000
G03 X 32.0050 Y 13.5136 Z -1.0000 I -0.0000 J 0.1618
G01 X 32.0009 Y 13.5722 Z -1.0000
G03 X 31.9080 Y 13.6106 Z -1.0000 I -0.0929 J -0.0929
G03 X 31.8150 Y 13.5722 Z -1.0000 I 0.0000 J -0.1314
G01 X 31.8109 Y 13.5136 Z -1.0000
G01 X 31.8109 Y 13.5136 Z -1.0000
G00 Z 5.0000

(End cutting path id: path28)


(Start cutting path id: path32)
(Change tool to Default tool)

G00 Z 5.0000
G00 X 32.9896 Y 12.8202

G01 Z -1.0000 F 100.0000(Penetrate)
G03 X 33.1658 Y 12.7929 Z -1.0000 I 0.1414 J 0.3300 F 3500.0000
G03 X 33.2531 Y 12.8341 Z -1.0000 I -0.0138 J 0.1423
G01 X 33.2482 Y 12.8754 Z -1.0000
G03 X 33.0728 Y 12.9034 Z -1.0000 I -0.1428 J -0.3308
G03 X 32.9799 Y 12.8649 Z -1.0000 I 0.0000 J -0.1314
G01 X 32.9896 Y 12.8202 Z -1.0000
G01 X 32.9896 Y 12.8202 Z -1.0000
G00 Z 5.0000

(End cutting path id: path32)


(Start cutting path id: path29)
(Change tool to Default tool)

G00 Z 5.0000
G00 X 33.5720 Y 13.1253

G01 Z -1.0000 F 100.0000(Penetrate)
G03 X 33.6281 Y 12.9743 Z -1.0000 I 0.2315 J -0.0000 F 3500.0000
G03 X 33.7523 Y 12.9173 Z -1.0000 I 0.1242 J 0.1069
G02 X 33.9042 Y 12.9033 Z -1.0000 I -0.0000 J -0.8353
G02 X 34.2376 Y 12.8341 Z -1.0000 I -1.4104 J -7.6259
G03 X 34.4684 Y 12.8460 Z -1.0000 I 0.0992 J 0.3176
G03 X 34.5427 Y 12.9589 Z -1.0000 I -0.0486 J 0.1128
G03 X 34.4766 Y 13.1093 Z -1.0000 I -0.2042 J -0.0000
G03 X 34.2376 Y 13.2501 Z -1.0000 I -0.4488 J -0.4885
G03 X 33.6907 Y 13.2677 Z -1.0000 I -0.3141 J -1.2565
G03 X 33.5720 Y 13.1253 Z -1.0000 I 0.0260 J -0.1424
G01 X 33.5720 Y 13.1253 Z -1.0000
G00 Z 5.0000

(End cutting path id: path29)


(Start cutting path id: path33)
(Change tool to Default tool)

G00 Z 5.0000
G00 X 33.5997 Y 12.5013

G01 Z -1.0000 F 100.0000(Penetrate)
G03 X 33.5001 Y 9.3698 Z -1.0000 I 22.0348 J -2.2683 F 3500.0000
G03 X 33.7661 Y 8.7988 Z -1.0000 I 0.8140 J 0.0317
G01 X 33.8084 Y 8.8074 Z -1.0000
G03 X 33.8493 Y 9.1454 Z -1.0000 I -1.3763 J 0.3380
G02 X 33.9634 Y 9.4760 Z -1.0000 I 0.5358 J -0.0000
G02 X 34.1960 Y 9.5892 Z -1.0000 I 0.2326 J -0.1823
G02 X 34.4322 Y 9.4766 Z -1.0000 I 0.0000 J -0.3041
G02 X 34.5566 Y 9.1454 Z -1.0000 I -0.4339 J -0.3519
G01 X 34.5704 Y 8.6878 Z -1.0000
G01 X 34.6814 Y 9.0761 Z -1.0000
G03 X 34.7534 Y 9.4723 Z -1.0000 I -1.5661 J 0.4894
G03 X 34.7230 Y 9.6724 Z -1.0000 I -0.4897 J 0.0279
G02 X 34.7212 Y 9.8159 Z -1.0000 I 0.1980 J 0.0742
G02 X 34.7923 Y 9.8665 Z -1.0000 I 0.0711 J -0.0247
G02 X 34.8838 Y 9.8189 Z -1.0000 I 0.0000 J -0.1117
G02 X 35.0142 Y 9.5198 Z -1.0000 I -0.6723 J -0.4711
G03 X 35.1765 Y 9.2810 Z -1.0000 I 0.4192 J 0.1103
G03 X 35.4441 Y 9.2009 Z -1.0000 I 0.2458 J 0.3340
G03 X 35.6552 Y 9.3622 Z -1.0000 I -0.0205 J 0.2456
G03 X 35.8185 Y 10.2132 Z -1.0000 I -2.5595 J 0.9323
G01 X 35.8323 Y 11.1839 Z -1.0000
G01 X 35.9294 Y 10.4212 Z -1.0000
G03 X 36.0161 Y 10.1345 Z -1.0000 I 0.9094 J 0.1186
G01 X 36.0681 Y 10.1439 Z -1.0000
G01 X 36.1097 Y 10.6292 Z -1.0000
G01 X 36.2068 Y 10.1439 Z -1.0000
G01 X 36.2610 Y 10.1448 Z -1.0000
G03 X 36.3316 Y 10.9343 Z -1.0000 I -5.2743 J 0.8693
G03 X 36.2135 Y 12.1160 Z -1.0000 I -5.3645 J 0.0610
G03 X 36.0404 Y 12.2933 Z -1.0000 I -0.2269 J -0.0485
G03 X 33.7767 Y 12.6460 Z -1.0000 I -3.6529 J -16.0031
G03 X 33.5997 Y 12.5013 Z -1.0000 I -0.0139 J -0.1635
G01 X 33.5997 Y 12.5013 Z -1.0000
G00 Z 5.0000

(End cutting path id: path33)


(Start cutting path id: path35)
(Change tool to Default tool)

G00 Z 5.0000
G00 X 32.8509 Y 11.9882

G01 Z -1.0000 F 100.0000(Penetrate)
G03 X 33.0115 Y 11.9621 Z -1.0000 I 0.1606 J 0.4818 F 3500.0000
G03 X 33.1976 Y 11.9882 Z -1.0000 I -0.0000 J 0.6773
G01 X 33.1959 Y 12.0240 Z -1.0000
G03 X 33.0173 Y 12.0575 Z -1.0000 I -0.1786 J -0.4596
G03 X 32.8512 Y 12.0246 Z -1.0000 I 0.0000 J -0.4357
G01 X 32.8509 Y 11.9882 Z -1.0000
G01 X 32.8509 Y 11.9882 Z -1.0000
G00 Z 5.0000

(End cutting path id: path35)


(Start cutting path id: path34)
(Change tool to Default tool)

G00 Z 5.0000
G00 X 31.9218 Y 12.0021

G01 Z -1.0000 F 100.0000(Penetrate)
G03 X 31.9603 Y 11.9092 Z -1.0000 I 0.1314 J 0.0000 F 3500.0000
G01 X 32.0050 Y 11.9188 Z -1.0000
G03 X 32.0324 Y 12.0950 Z -1.0000 I -0.3300 J 0.1414
G03 X 31.9912 Y 12.1823 Z -1.0000 I -0.1423 J -0.0138
G01 X 31.9498 Y 12.1774 Z -1.0000
G03 X 31.9218 Y 12.0021 Z -1.0000 I 0.3308 J -0.1428
G01 X 31.9218 Y 12.0021 Z -1.0000
G00 Z 5.0000

(End cutting path id: path34)


(Start cutting path id: path1-0)
(Change tool to Default tool)

G00 Z 5.0000
G00 X 30.7847 Y 11.2255

G01 Z -1.0000 F 100.0000(Penetrate)
G02 X 30.7373 Y 10.3181 Z -1.0000 I -8.7140 J 0.0000 F 3500.0000
G01 X 30.6877 Y 10.3103 Z -1.0000
G02 X 30.3622 Y 11.9842 Z -1.0000 I 3.9965 J 1.6456
G02 X 30.7431 Y 12.3626 Z -1.0000 I 0.3809 J -0.0025
G01 X 30.7691 Y 12.3379 Z -1.0000
G02 X 30.7847 Y 11.2255 Z -1.0000 I -15.3231 J -0.7715
G01 X 30.7847 Y 11.2255 Z -1.0000
G00 Z 5.0000

(End cutting path id: path1-0)


(Start cutting path id: path1-0)
(Change tool to Default tool)

G00 Z 5.0000
G00 X 30.3826 Y 11.7386

G01 Z -1.0000 F 100.0000(Penetrate)
G02 X 30.2310 Y 11.3813 Z -1.0000 I -0.4970 J -0.0000 F 3500.0000
G02 X 30.0636 Y 11.4335 Z -1.0000 I -0.0694 J 0.0718
G01 X 30.0224 Y 11.4539 Z -1.0000
G03 X 29.9804 Y 11.3919 Z -1.0000 I 0.0342 J -0.0683
G02 X 29.9214 Y 11.0497 Z -1.0000 I -1.7425 J 0.1245
G02 X 29.8279 Y 10.8372 Z -1.0000 I -0.7790 J 0.2159
G01 X 29.7570 Y 10.8501 Z -1.0000
G02 X 29.6892 Y 11.5028 Z -1.0000 I 3.1111 J 0.6527
G02 X 29.8299 Y 12.2239 Z -1.0000 I 1.9179 J -0.0000
G02 X 30.0359 Y 12.3626 Z -1.0000 I 0.2060 J -0.0836
G02 X 30.2552 Y 12.2331 Z -1.0000 I 0.0000 J -0.2505
G02 X 30.3826 Y 11.7386 Z -1.0000 I -0.8965 J -0.4945
G01 X 30.3826 Y 11.7386 Z -1.0000
G00 Z 5.0000

(End cutting path id: path1-0)


(Start cutting path id: path44-2)
(Change tool to Default tool)

G00 Z 5.0000
G00 X 31.4919 Y 10.0052

G01 Z -1.0000 F 100.0000(Penetrate)
G03 X 31.5304 Y 9.9123 Z -1.0000 I 0.1314 J 0.0000 F 3500.0000
G01 X 31.5890 Y 9.9081 Z -1.0000
G03 X 31.6214 Y 10.0052 Z -1.0000 I -0.1294 J 0.0971
G03 X 31.5890 Y 10.1023 Z -1.0000 I -0.1618 J -0.0000
G01 X 31.5304 Y 10.0981 Z -1.0000
G03 X 31.4919 Y 10.0052 Z -1.0000 I 0.0929 J -0.0929
G01 X 31.4919 Y 10.0052 Z -1.0000
G00 Z 5.0000

(End cutting path id: path44-2)


(Start cutting path id: path1-0)
(Change tool to Default tool)

G00 Z 5.0000
G00 X 30.7709 Y 8.9097

G01 Z -1.0000 F 100.0000(Penetrate)
G02 X 30.9660 Y 8.6884 Z -1.0000 I -0.0122 J -0.2075 F 3500.0000
G02 X 30.7431 Y 8.4798 Z -1.0000 I -0.2229 J 0.0148
G02 X 30.5621 Y 8.4926 Z -1.0000 I 0.0000 J 1.2906
G02 X 30.1191 Y 8.5630 Z -1.0000 I 1.8533 J 13.0826
G02 X 29.9533 Y 8.7822 Z -1.0000 I 0.0441 J 0.2056
G02 X 30.1468 Y 8.9513 Z -1.0000 I 0.1809 J -0.0117
G02 X 30.5890 Y 8.9180 Z -1.0000 I -0.7955 J -13.5241
G03 X 30.7709 Y 8.9097 Z -1.0000 I 0.1819 J 1.9827
G01 X 30.7709 Y 8.9097 Z -1.0000
G00 Z 5.0000

(End cutting path id: path1-0)


(Start cutting path id: path46)
(Change tool to Default tool)

G00 Z 5.0000
G00 X 33.1560 Y 9.7278

G01 Z -1.0000 F 100.0000(Penetrate)
G03 X 33.1945 Y 9.6349 Z -1.0000 I 0.1314 J 0.0000 F 3500.0000
G01 X 33.2531 Y 9.6308 Z -1.0000
G03 X 33.2854 Y 9.7278 Z -1.0000 I -0.1294 J 0.0971
G03 X 33.2531 Y 9.8249 Z -1.0000 I -0.1618 J 0.0000
G01 X 33.1945 Y 9.8208 Z -1.0000
G03 X 33.1560 Y 9.7278 Z -1.0000 I 0.0929 J -0.0929
G01 X 33.1560 Y 9.7278 Z -1.0000
G00 Z 5.0000

(End cutting path id: path46)


(Start cutting path id: path33)
(Change tool to Default tool)

G00 Z 5.0000
G00 X 35.1667 Y 10.4212

G01 Z -1.0000 F 100.0000(Penetrate)
G02 X 35.1744 Y 10.3253 Z -1.0000 I -0.0928 J -0.0557 F 3500.0000
G02 X 35.1113 Y 10.2825 Z -1.0000 I -0.0632 J 0.0253
G02 X 34.9981 Y 10.3283 Z -1.0000 I -0.0000 J 0.1628
G02 X 34.9587 Y 10.4212 Z -1.0000 I 0.0898 J 0.0929
G02 X 34.9847 Y 10.5409 Z -1.0000 I 0.2890 J -0.0000
G01 X 35.0142 Y 10.5599 Z -1.0000
G02 X 35.0743 Y 10.5381 Z -1.0000 I -0.0000 J -0.0938
G02 X 35.1667 Y 10.4212 Z -1.0000 I -0.2341 J -0.2801
G01 X 35.1667 Y 10.4212 Z -1.0000
G00 Z 5.0000

(End cutting path id: path33)


(Start cutting path id: path33)
(Change tool to Default tool)

G00 Z 5.0000
G00 X 35.8878 Y 11.5028

G01 Z -1.0000 F 100.0000(Penetrate)
G01 X 35.8602 Y 11.5017 Z -1.0000 F 3500.0000
G02 X 35.8323 Y 11.7386 Z -1.0000 I 0.9922 J 0.2369
G02 X 35.8537 Y 12.0551 Z -1.0000 I 1.4067 J 0.0639
G01 X 35.8878 Y 12.0575 Z -1.0000
G02 X 35.9128 Y 11.8050 Z -1.0000 I -1.2627 J -0.2525
G02 X 35.8878 Y 11.5028 Z -1.0000 I -1.8379 J 0.0000
G01 X 35.8878 Y 11.5028 Z -1.0000
G00 Z 5.0000

(End cutting path id: path33)


(Start cutting path id: path37)
(Change tool to Default tool)

G00 Z 5.0000
G00 X 36.7060 Y 11.6831

G01 Z -1.0000 F 100.0000(Penetrate)
G03 X 36.7714 Y 11.5098 Z -1.0000 I 0.0919 J -0.0643 F 3500.0000
G03 X 37.4964 Y 11.5028 Z -1.0000 I 0.3775 J 1.5565
G03 X 37.6522 Y 11.5901 Z -1.0000 I -0.0673 J 0.3027
G03 X 37.6628 Y 11.6831 Z -1.0000 I -0.0553 J 0.0534
G03 X 37.1675 Y 11.9482 Z -1.0000 I -0.4953 J -0.3302
G03 X 36.7060 Y 11.6831 Z -1.0000 I 0.0000 J -0.5343
G01 X 36.7060 Y 11.6831 Z -1.0000
G00 Z 5.0000

(End cutting path id: path37)


(Start cutting path id: path39)
(Change tool to Default tool)

G00 Z 5.0000
G00 X 36.9001 Y 11.1284

G01 Z -1.0000 F 100.0000(Penetrate)
G01 X 36.5534 Y 11.0314 Z -1.0000 F 3500.0000
G01 X 36.9417 Y 10.9482 Z -1.0000
G03 X 37.2464 Y 10.9637 Z -1.0000 I 0.1230 J 0.5842
G03 X 37.3161 Y 11.0591 Z -1.0000 I -0.0305 J 0.0954
G03 X 37.3020 Y 11.2350 Z -1.0000 I -1.0991 J 0.0000
G01 X 37.2884 Y 11.2394 Z -1.0000
G02 X 37.2383 Y 11.2206 Z -1.0000 I -0.1143 J 0.2286
G03 X 36.9001 Y 11.1284 Z -1.0000 I 3.5861 J -13.8270
G01 X 36.9001 Y 11.1284 Z -1.0000
G00 Z 5.0000

(End cutting path id: path39)


(Start cutting path id: path40)
(Change tool to Default tool)

G00 Z 5.0000
G00 X 37.5657 Y 11.0175

G01 Z -1.0000 F 100.0000(Penetrate)
G03 X 37.7263 Y 10.9914 Z -1.0000 I 0.1606 J 0.4818 F 3500.0000
G03 X 37.9124 Y 11.0175 Z -1.0000 I -0.0000 J 0.6773
G01 X 37.9107 Y 11.0533 Z -1.0000
G03 X 37.7321 Y 11.0868 Z -1.0000 I -0.1786 J -0.4596
G03 X 37.5660 Y 11.0539 Z -1.0000 I -0.0000 J -0.4357
G01 X 37.5657 Y 11.0175 Z -1.0000
G01 X 37.5657 Y 11.0175 Z -1.0000
G00 Z 5.0000

(End cutting path id: path40)


(Start cutting path id: path42)
(Change tool to Default tool)

G00 Z 5.0000
G00 X 37.8708 Y 10.5737

G01 Z -1.0000 F 100.0000(Penetrate)
G01 X 37.3855 Y 10.4767 Z -1.0000 F 3500.0000
G01 X 37.9124 Y 10.4073 Z -1.0000
G03 X 38.3510 Y 10.4243 Z -1.0000 I 0.1754 J 1.1403
G03 X 38.4255 Y 10.5183 Z -1.0000 I -0.0220 J 0.0939
G03 X 38.4110 Y 10.6737 Z -1.0000 I -0.8417 J 0.0000
G01 X 38.3978 Y 10.6847 Z -1.0000
G02 X 38.3452 Y 10.6658 Z -1.0000 I -0.1056 J 0.2112
G02 X 37.8708 Y 10.5737 Z -1.0000 I -1.5501 J 6.7205
G01 X 37.8708 Y 10.5737 Z -1.0000
G00 Z 5.0000

(End cutting path id: path42)


(Start cutting path id: path41)
(Change tool to Default tool)

G00 Z 5.0000
G00 X 38.5642 Y 10.9759

G01 Z -1.0000 F 100.0000(Penetrate)
G03 X 38.6026 Y 10.8830 Z -1.0000 I 0.1314 J 0.0000 F 3500.0000
G01 X 38.6612 Y 10.8788 Z -1.0000
G03 X 38.6936 Y 10.9759 Z -1.0000 I -0.1294 J 0.0971
G03 X 38.6612 Y 11.0730 Z -1.0000 I -0.1618 J -0.0000
G01 X 38.6026 Y 11.0688 Z -1.0000
G03 X 38.5642 Y 10.9759 Z -1.0000 I 0.0929 J -0.0929
G01 X 38.5642 Y 10.9759 Z -1.0000
G00 Z 5.0000

(End cutting path id: path41)


(Start cutting path id: path38)
(Change tool to Default tool)

G00 Z 5.0000
G00 X 38.5642 Y 11.6138

G01 Z -1.0000 F 100.0000(Penetrate)
G03 X 38.6084 Y 11.4250 Z -1.0000 I 0.4254 J 0.0000 F 3500.0000
G03 X 38.7028 Y 11.3226 Z -1.0000 I 0.2218 J 0.1099
G03 X 38.7931 Y 11.3357 Z -1.0000 I 0.0357 J 0.0714
G03 X 38.8415 Y 11.4474 Z -1.0000 I -0.1046 J 0.1116
G03 X 38.8048 Y 11.6297 Z -1.0000 I -0.4708 J -0.0000
G03 X 38.7028 Y 11.7386 Z -1.0000 I -0.1980 J -0.0831
G03 X 38.6185 Y 11.7316 Z -1.0000 I -0.0373 J -0.0621
G03 X 38.5642 Y 11.6138 Z -1.0000 I 0.1004 J -0.1178
G01 X 38.5642 Y 11.6138 Z -1.0000
G00 Z 5.0000

(End cutting path id: path38)


(Start cutting path id: path36)
(Change tool to Default tool)

G00 Z 5.0000
G00 X 37.2191 Y 11.9882

G01 Z -1.0000 F 100.0000(Penetrate)
G03 X 37.3161 Y 11.9558 Z -1.0000 I 0.0971 J 0.1294 F 3500.0000
G03 X 37.4132 Y 11.9882 Z -1.0000 I -0.0000 J 0.1618
G01 X 37.4090 Y 12.0468 Z -1.0000
G03 X 37.3161 Y 12.0853 Z -1.0000 I -0.0929 J -0.0929
G03 X 37.2232 Y 12.0468 Z -1.0000 I 0.0000 J -0.1314
G01 X 37.2191 Y 11.9882 Z -1.0000
G01 X 37.2191 Y 11.9882 Z -1.0000
G00 Z 5.0000

(End cutting path id: path36)


(Start cutting path id: path43)
(Change tool to Default tool)

G00 Z 5.0000
G00 X 36.6228 Y 10.5044

G01 Z -1.0000 F 100.0000(Penetrate)
G01 X 36.6451 Y 10.4728 Z -1.0000 F 3500.0000
G03 X 36.9694 Y 10.3935 Z -1.0000 I 0.5654 J 1.6085
G03 X 37.2734 Y 10.3851 Z -1.0000 I 0.1744 J 0.8140
G03 X 37.3161 Y 10.4351 Z -1.0000 I -0.0079 J 0.0499
G03 X 37.2650 Y 10.5080 Z -1.0000 I -0.0776 J 0.0000
G03 X 36.9694 Y 10.5599 Z -1.0000 I -0.2955 J -0.8158
G03 X 36.6457 Y 10.5317 Z -1.0000 I 0.0000 J -1.8756
G01 X 36.6228 Y 10.5044 Z -1.0000
G01 X 36.6228 Y 10.5044 Z -1.0000
G00 Z 5.0000

(End cutting path id: path43)


(Start cutting path id: path45-4)
(Change tool to Default tool)

G00 Z 5.0000
G00 X 36.6921 Y 9.8665

G01 Z -1.0000 F 100.0000(Penetrate)
G03 X 36.7050 Y 9.7925 Z -1.0000 I 0.0492 J -0.0295 F 3500.0000
G03 X 36.8862 Y 9.7278 Z -1.0000 I 0.1813 J 0.2216
G02 X 37.1233 Y 9.6719 Z -1.0000 I 0.0000 J -0.5300
G02 X 37.2191 Y 9.5614 Z -1.0000 I -0.0854 J -0.1709
G03 X 37.2687 Y 9.5279 Z -1.0000 I 0.0496 J 0.0198
G01 X 37.3023 Y 9.5614 Z -1.0000
G02 X 37.3787 Y 9.6506 Z -1.0000 I 0.1082 J -0.0155
G02 X 37.8985 Y 9.7278 Z -1.0000 I 0.5199 J -1.7099
G03 X 37.9260 Y 9.8213 Z -1.0000 I 0.0000 J 0.0508
G03 X 37.5519 Y 9.9497 Z -1.0000 I -0.4480 J -0.6958
G03 X 36.8247 Y 9.9513 Z -1.0000 I -0.3725 J -4.0970
G03 X 36.6921 Y 9.8665 Z -1.0000 I 0.0146 J -0.1689
G01 X 36.6921 Y 9.8665 Z -1.0000
G00 Z 5.0000

(End cutting path id: path45-4)


(Start cutting path id: path47)
(Change tool to Default tool)

G00 Z 5.0000
G00 X 35.1390 Y 8.9374

G01 Z -1.0000 F 100.0000(Penetrate)
G03 X 35.2361 Y 8.9051 Z -1.0000 I 0.0971 J 0.1294 F 3500.0000
G03 X 35.3331 Y 8.9374 Z -1.0000 I 0.0000 J 0.1618
G01 X 35.3290 Y 8.9960 Z -1.0000
G03 X 35.2361 Y 9.0345 Z -1.0000 I -0.0929 J -0.0929
G03 X 35.1432 Y 8.9960 Z -1.0000 I -0.0000 J -0.1314
G01 X 35.1390 Y 8.9374 Z -1.0000
G01 X 35.1390 Y 8.9374 Z -1.0000
G00 Z 5.0000

(End cutting path id: path47)


(Start cutting path id: path33)
(Change tool to Default tool)

G00 Z 5.0000
G00 X 34.4040 Y 11.6138

G01 Z -1.0000 F 100.0000(Penetrate)
G03 X 34.4116 Y 11.5619 Z -1.0000 I 0.1811 J -0.0000 F 3500.0000
G03 X 34.4872 Y 11.3226 Z -1.0000 I 7.6385 J 2.2816
G02 X 34.4537 Y 11.1935 Z -1.0000 I -0.1069 J -0.0411
G02 X 34.2654 Y 11.1423 Z -1.0000 I -0.1499 J 0.1795
G02 X 33.9503 Y 11.4289 Z -1.0000 I 0.0515 J 0.3730
G02 X 34.1406 Y 11.6692 Z -1.0000 I 0.1903 J 0.0449
G02 X 34.3803 Y 11.6432 Z -1.0000 I -0.0000 J -1.1184
G01 X 34.4040 Y 11.6138 Z -1.0000
G01 X 34.4040 Y 11.6138 Z -1.0000
G00 Z 5.0000

(End cutting path id: path33)


(Start cutting path id: path33)
(Change tool to Default tool)

G00 Z 5.0000
G00 X 35.0558 Y 12.0575

G01 Z -1.0000 F 100.0000(Penetrate)
G01 X 35.0111 Y 12.0478 Z -1.0000 F 3500.0000
G02 X 34.9726 Y 12.1407 Z -1.0000 I 0.0929 J 0.0929
G02 X 35.0006 Y 12.3161 Z -1.0000 I 0.3588 J 0.0326
G01 X 35.0419 Y 12.3210 Z -1.0000
G02 X 35.0831 Y 12.2337 Z -1.0000 I -0.1011 J -0.1011
G02 X 35.0558 Y 12.0575 Z -1.0000 I -0.3574 J -0.0347
G01 X 35.0558 Y 12.0575 Z -1.0000
G00 Z 5.0000

(End cutting path id: path33)


(Start cutting path id: path30)
(Change tool to Default tool)

G00 Z 5.0000
G00 X 35.0558 Y 12.9866

G01 Z -1.0000 F 100.0000(Penetrate)
G03 X 35.1882 Y 12.7113 Z -1.0000 I 0.6776 J 0.1564 F 3500.0000
G03 X 35.4025 Y 12.5567 Z -1.0000 I 0.3799 J 0.3008
G03 X 35.7083 Y 12.5980 Z -1.0000 I 0.1057 J 0.3701
G03 X 35.6937 Y 12.7370 Z -1.0000 I -0.0402 J 0.0660
G02 X 35.5742 Y 12.8430 Z -1.0000 I 0.0997 J 0.2327
G02 X 35.5134 Y 13.0698 Z -1.0000 I 0.3925 J 0.2268
G03 X 35.4362 Y 13.2561 Z -1.0000 I -0.2635 J 0.0000
G03 X 35.2499 Y 13.3333 Z -1.0000 I -0.1863 J -0.1863
G03 X 35.1007 Y 13.2449 Z -1.0000 I 0.0000 J -0.1701
G03 X 35.0558 Y 12.9866 Z -1.0000 I 0.3560 J -0.1950
G01 X 35.0558 Y 12.9866 Z -1.0000
G00 Z 5.0000

(End cutting path id: path30)


(Start cutting path id: path1-0)
(Change tool to Default tool)

G00 Z 5.0000
G00 X 34.9171 Y 14.2069

G01 Z -1.0000 F 100.0000(Penetrate)
G02 X 34.8200 Y 14.1746 Z -1.0000 I -0.0971 J 0.1294 F 3500.0000
G02 X 34.7230 Y 14.2069 Z -1.0000 I -0.0000 J 0.1618
G01 X 34.7271 Y 14.2655 Z -1.0000
G02 X 34.8200 Y 14.3040 Z -1.0000 I 0.0929 J -0.0929
G02 X 34.9130 Y 14.2655 Z -1.0000 I -0.0000 J -0.1314
G01 X 34.9171 Y 14.2069 Z -1.0000
G01 X 34.9171 Y 14.2069 Z -1.0000
G00 Z 5.0000

(End cutting path id: path1-0)


(Start cutting path id: path1-0)
(Change tool to Default tool)

G00 Z 5.0000
G00 X 36.0265 Y 13.9296

G01 Z -1.0000 F 100.0000(Penetrate)
G02 X 35.9294 Y 13.8972 Z -1.0000 I -0.0971 J 0.1294 F 3500.0000
G02 X 35.8323 Y 13.9296 Z -1.0000 I 0.0000 J 0.1618
G01 X 35.8365 Y 13.9882 Z -1.0000
G02 X 35.9294 Y 14.0266 Z -1.0000 I 0.0929 J -0.0929
G02 X 36.0223 Y 13.9882 Z -1.0000 I 0.0000 J -0.1314
G01 X 36.0265 Y 13.9296 Z -1.0000
G01 X 36.0265 Y 13.9296 Z -1.0000
G00 Z 5.0000

(End cutting path id: path1-0)


(Start cutting path id: path26)
(Change tool to Default tool)

G00 Z 5.0000
G00 X 37.7321 Y 13.9157

G01 Z -1.0000 F 100.0000(Penetrate)
G02 X 37.6633 Y 13.8206 Z -1.0000 I -0.1002 J 0.0000 F 3500.0000
G02 X 37.2191 Y 13.7493 Z -1.0000 I -0.4442 J 1.3493
G03 X 36.8558 Y 13.5856 Z -1.0000 I 0.0000 J -0.4847
G03 X 36.6921 Y 13.1530 Z -1.0000 I 0.4895 J -0.4325
G03 X 36.7284 Y 12.5938 Z -1.0000 I 4.3242 J 0.0000
G03 X 36.8030 Y 12.4042 Z -1.0000 I 0.4160 J 0.0543
G02 X 36.8302 Y 12.2764 Z -1.0000 I -0.1472 J -0.0981
G02 X 36.7614 Y 12.1962 Z -1.0000 I -0.1013 J 0.0172
G01 X 36.7620 Y 12.1787 Z -1.0000
G03 X 37.3855 Y 12.1269 Z -1.0000 I 0.8333 J 6.2441
G03 X 38.0791 Y 12.1594 Z -1.0000 I 0.1445 J 4.3347
G03 X 38.1482 Y 12.2378 Z -1.0000 I -0.0100 J 0.0784
G03 X 38.1027 Y 12.3247 Z -1.0000 I -0.1058 J -0.0000
G03 X 37.9817 Y 12.3626 Z -1.0000 I -0.1210 J -0.1741
G02 X 37.9268 Y 12.4049 Z -1.0000 I 0.0000 J 0.0568
G02 X 37.9540 Y 12.4735 Z -1.0000 I 0.0602 J 0.0159
G03 X 38.2664 Y 13.0714 Z -1.0000 I -0.3684 J 0.5731
G03 X 37.8985 Y 13.9157 Z -1.0000 I -1.2580 J -0.0458
G03 X 37.7809 Y 13.9644 Z -1.0000 I -0.1177 J -0.1177
G01 X 37.7321 Y 13.9157 Z -1.0000
G01 X 37.7321 Y 13.9157 Z -1.0000
G00 Z 5.0000

(End cutting path id: path26)


(Start cutting path id: path23)
(Change tool to Default tool)

G00 Z 5.0000
G00 X 37.0388 Y 15.3995

G01 Z -1.0000 F 100.0000(Penetrate)
G03 X 37.0815 Y 15.3363 Z -1.0000 I 0.0680 J 0.0000 F 3500.0000
G03 X 37.1775 Y 15.3440 Z -1.0000 I 0.0402 J 0.1005
G03 X 37.2943 Y 15.4364 Z -1.0000 I -0.1633 J 0.3265
G03 X 37.3161 Y 15.4966 Z -1.0000 I -0.0719 J 0.0601
G01 X 37.2971 Y 15.5261 Z -1.0000
G03 X 37.1775 Y 15.5520 Z -1.0000 I -0.1197 J -0.2630
G03 X 37.0845 Y 15.5126 Z -1.0000 I 0.0000 J -0.1293
G03 X 37.0388 Y 15.3995 Z -1.0000 I 0.1170 J -0.1131
G01 X 37.0388 Y 15.3995 Z -1.0000
G00 Z 5.0000

(End cutting path id: path23)


(Start cutting path id: path22)
(Change tool to Default tool)

G00 Z 5.0000
G00 X 33.4195 Y 14.9973

G01 Z -1.0000 F 100.0000(Penetrate)
G03 X 33.4239 Y 14.3648 Z -1.0000 I 2.2539 J -0.3005 F 3500.0000
G03 X 33.5165 Y 14.3317 Z -1.0000 I 0.0552 J 0.0081
G03 X 33.5571 Y 14.4240 Z -1.0000 I -0.0983 J 0.0983
G03 X 33.5443 Y 15.0112 Z -1.0000 I -4.5251 J 0.1948
G01 X 33.5027 Y 15.6214 Z -1.0000
G01 X 33.4195 Y 14.9973 Z -1.0000
G00 Z 5.0000

(End cutting path id: path22)


(Start cutting path id: path25)
(Change tool to Default tool)

G00 Z 5.0000
G00 X 33.0312 Y 14.6368

G01 Z -1.0000 F 100.0000(Penetrate)
G03 X 33.0697 Y 14.5439 Z -1.0000 I 0.1314 J -0.0000 F 3500.0000
G01 X 33.1144 Y 14.5536 Z -1.0000
G03 X 33.1417 Y 14.7298 Z -1.0000 I -0.3300 J 0.1414
G03 X 33.1005 Y 14.8171 Z -1.0000 I -0.1423 J -0.0138
G01 X 33.0592 Y 14.8122 Z -1.0000
G03 X 33.0312 Y 14.6368 Z -1.0000 I 0.3308 J -0.1428
G01 X 33.0312 Y 14.6368 Z -1.0000
G00 Z 5.0000

(End cutting path id: path25)


(Start cutting path id: path1-0)
(Change tool to Default tool)

G00 Z 5.0000
G00 X 32.9896 Y 16.3702

G01 Z -1.0000 F 100.0000(Penetrate)
G02 X 32.9960 Y 16.1515 Z -1.0000 I -0.0470 J -0.1108 F 3500.0000
G02 X 32.4765 Y 16.1206 Z -1.0000 I -0.2963 J 0.5996
G02 X 32.1309 Y 16.3357 Z -1.0000 I 0.3081 J 0.8803
G02 X 32.0466 Y 16.5366 Z -1.0000 I 0.1974 J 0.2009
G02 X 32.1240 Y 16.6670 Z -1.0000 I 0.1487 J 0.0000
G02 X 32.2962 Y 16.6753 Z -1.0000 I 0.0946 J -0.1730
G01 X 32.9896 Y 16.3702 Z -1.0000
G01 X 32.9896 Y 16.3702 Z -1.0000
G00 Z 5.0000

(End cutting path id: path1-0)


(Start cutting path id: path1-0)
(Change tool to Default tool)

G00 Z 5.0000
G00 X 32.2824 Y 17.5350

G01 Z -1.0000 F 100.0000(Penetrate)
G02 X 32.1853 Y 17.5027 Z -1.0000 I -0.0971 J 0.1294 F 3500.0000
G02 X 32.0882 Y 17.5350 Z -1.0000 I 0.0000 J 0.1618
G01 X 32.0924 Y 17.5936 Z -1.0000
G02 X 32.1853 Y 17.6321 Z -1.0000 I 0.0929 J -0.0929
G02 X 32.2782 Y 17.5936 Z -1.0000 I -0.0000 J -0.1314
G01 X 32.2824 Y 17.5350 Z -1.0000
G01 X 32.2824 Y 17.5350 Z -1.0000
G00 Z 5.0000

(End cutting path id: path1-0)


(Start cutting path id: path18)
(Change tool to Default tool)

G00 Z 5.0000
G00 X 30.9650 Y 16.8001

G01 Z -1.0000 F 100.0000(Penetrate)
G03 X 30.9979 Y 16.6339 Z -1.0000 I 0.4357 J -0.0000 F 3500.0000
G01 X 31.0343 Y 16.6337 Z -1.0000
G03 X 31.0604 Y 16.7943 Z -1.0000 I -0.4818 J 0.1606
G03 X 31.0343 Y 16.9803 Z -1.0000 I -0.6773 J 0.0000
G01 X 30.9985 Y 16.9787 Z -1.0000
G03 X 30.9650 Y 16.8001 Z -1.0000 I 0.4596 J -0.1786
G01 X 30.9650 Y 16.8001 Z -1.0000
G00 Z 5.0000

(End cutting path id: path18)


(Start cutting path id: path20)
(Change tool to Default tool)

G00 Z 5.0000
G00 X 30.8402 Y 15.7323

G01 Z -1.0000 F 100.0000(Penetrate)
G03 X 30.9373 Y 15.6999 Z -1.0000 I 0.0971 J 0.1294 F 3500.0000
G03 X 31.0343 Y 15.7323 Z -1.0000 I -0.0000 J 0.1618
G01 X 31.0302 Y 15.7909 Z -1.0000
G03 X 30.9373 Y 15.8294 Z -1.0000 I -0.0929 J -0.0929
G03 X 30.8444 Y 15.7909 Z -1.0000 I 0.0000 J -0.1314
G01 X 30.8402 Y 15.7323 Z -1.0000
G01 X 30.8402 Y 15.7323 Z -1.0000
G00 Z 5.0000

(End cutting path id: path20)


(Start cutting path id: path7)
(Change tool to Default tool)

G00 Z 5.0000
G00 X 29.1345 Y 16.3841

G01 Z -1.0000 F 100.0000(Penetrate)
G03 X 29.1730 Y 16.2911 Z -1.0000 I 0.1314 J 0.0000 F 3500.0000
G01 X 29.2316 Y 16.2870 Z -1.0000
G03 X 29.2640 Y 16.3841 Z -1.0000 I -0.1294 J 0.0971
G03 X 29.2316 Y 16.4811 Z -1.0000 I -0.1618 J 0.0000
G01 X 29.1730 Y 16.4770 Z -1.0000
G03 X 29.1345 Y 16.3841 Z -1.0000 I 0.0929 J -0.0929
G01 X 29.1345 Y 16.3841 Z -1.0000
G00 Z 5.0000

(End cutting path id: path7)


(Start cutting path id: path1-0)
(Change tool to Default tool)

G00 Z 5.0000
G00 X 28.3996 Y 17.3964

G01 Z -1.0000 F 100.0000(Penetrate)
G01 X 28.3410 Y 17.4005 Z -1.0000 F 3500.0000
G02 X 28.3025 Y 17.4934 Z -1.0000 I 0.0929 J 0.0929
G02 X 28.3410 Y 17.5863 Z -1.0000 I 0.1314 J 0.0000
G01 X 28.3996 Y 17.5905 Z -1.0000
G02 X 28.4319 Y 17.4934 Z -1.0000 I -0.1294 J -0.0971
G02 X 28.3996 Y 17.3964 Z -1.0000 I -0.1618 J -0.0000
G01 X 28.3996 Y 17.3964 Z -1.0000
G00 Z 5.0000

(End cutting path id: path1-0)


(Start cutting path id: path1-0)
(Change tool to Default tool)

G00 Z 5.0000
G00 X 27.9558 Y 17.1329

G01 Z -1.0000 F 100.0000(Penetrate)
G02 X 27.9276 Y 16.6956 Z -1.0000 I -1.8721 J -0.0985 F 3500.0000
G01 X 27.8865 Y 16.6614 Z -1.0000
G01 X 27.8456 Y 16.6960 Z -1.0000
G02 X 27.7894 Y 17.2299 Z -1.0000 I 4.3121 J 0.7239
G02 X 27.8236 Y 17.6814 Z -1.0000 I 2.9996 J 0.0000
G01 X 27.8726 Y 17.7014 Z -1.0000
G02 X 27.9189 Y 17.5926 Z -1.0000 I -0.1977 J -0.1483
G02 X 27.9558 Y 17.1329 Z -1.0000 I -2.8417 J -0.4597
G01 X 27.9558 Y 17.1329 Z -1.0000
G00 Z 5.0000

(End cutting path id: path1-0)


(Start cutting path id: path1-0)
(Change tool to Default tool)

G00 Z 5.0000
G00 X 28.2609 Y 18.1590

G01 Z -1.0000 F 100.0000(Penetrate)
G01 X 28.2337 Y 18.1586 Z -1.0000 F 3500.0000
G02 X 28.2054 Y 18.4641 Z -1.0000 I 1.6367 J 0.3055
G02 X 28.2341 Y 18.7832 Z -1.0000 I 1.7914 J 0.0000
G01 X 28.2609 Y 18.7831 Z -1.0000
G02 X 28.2857 Y 18.4587 Z -1.0000 I -2.1082 J -0.3243
G02 X 28.2609 Y 18.1590 Z -1.0000 I -1.8229 J 0.0000
G01 X 28.2609 Y 18.1590 Z -1.0000
G00 Z 5.0000

(End cutting path id: path1-0)


(Start cutting path id: path1-0)
(Change tool to Default tool)

G00 Z 5.0000
G00 X 27.9836 Y 19.3377

G01 Z -1.0000 F 100.0000(Penetrate)
G02 X 27.8865 Y 19.3054 Z -1.0000 I -0.0971 J 0.1294 F 3500.0000
G02 X 27.7894 Y 19.3377 Z -1.0000 I 0.0000 J 0.1618
G01 X 27.7936 Y 19.3963 Z -1.0000
G02 X 27.8865 Y 19.4348 Z -1.0000 I 0.0929 J -0.0929
G02 X 27.9794 Y 19.3963 Z -1.0000 I 0.0000 J -0.1314
G01 X 27.9836 Y 19.3377 Z -1.0000
G01 X 27.9836 Y 19.3377 Z -1.0000
G00 Z 5.0000

(End cutting path id: path1-0)


(Start cutting path id: path1-0)
(Change tool to Default tool)

G00 Z 5.0000
G00 X 27.1931 Y 19.1713

G01 Z -1.0000 F 100.0000(Penetrate)
G02 X 27.1411 Y 19.1142 Z -1.0000 I -0.0574 J 0.0000 F 3500.0000
G02 X 27.0545 Y 19.1575 Z -1.0000 I -0.0085 J 0.0913
G03 X 26.9751 Y 19.1728 Z -1.0000 I -0.0473 J -0.0315
G03 X 26.9158 Y 19.0604 Z -1.0000 I 0.0770 J -0.1124
G03 X 27.0389 Y 18.4606 Z -1.0000 I 1.5229 J 0.0000
G03 X 27.2070 Y 18.4087 Z -1.0000 I 0.1061 J 0.0455
G02 X 27.2879 Y 18.3495 Z -1.0000 I 0.0272 J -0.0477
G02 X 27.1238 Y 17.9926 Z -1.0000 I -0.8802 J 0.1887
G02 X 26.9860 Y 17.9314 Z -1.0000 I -0.1270 J 0.1003
G02 X 26.9158 Y 18.0065 Z -1.0000 I 0.0050 J 0.0751
G03 X 26.8724 Y 18.2837 Z -1.0000 I -0.9068 J 0.0000
G03 X 26.7771 Y 18.3948 Z -1.0000 I -0.1796 J -0.0577
G02 X 26.7007 Y 18.4987 Z -1.0000 I 0.0860 J 0.1433
G02 X 26.6385 Y 19.0188 Z -1.0000 I 2.1425 J 0.5201
G02 X 26.7491 Y 19.4074 Z -1.0000 I 0.7379 J -0.0000
G02 X 26.9158 Y 19.4764 Z -1.0000 I 0.1313 J -0.0814
G02 X 27.1253 Y 19.3476 Z -1.0000 I -0.1151 J -0.4220
G02 X 27.1931 Y 19.1713 Z -1.0000 I -0.1952 J -0.1762
G01 X 27.1931 Y 19.1713 Z -1.0000
G00 Z 5.0000

(End cutting path id: path1-0)


(Start cutting path id: path1-0)
(Change tool to Default tool)

G00 Z 5.0000
G00 X 26.3195 Y 19.0604

G01 Z -1.0000 F 100.0000(Penetrate)
G01 X 26.2609 Y 19.0646 Z -1.0000 F 3500.0000
G02 X 26.2224 Y 19.1575 Z -1.0000 I 0.0929 J 0.0929
G02 X 26.2609 Y 19.2504 Z -1.0000 I 0.1314 J 0.0000
G01 X 26.3195 Y 19.2545 Z -1.0000
G02 X 26.3519 Y 19.1575 Z -1.0000 I -0.1294 J -0.0971
G02 X 26.3195 Y 19.0604 Z -1.0000 I -0.1618 J -0.0000
G01 X 26.3195 Y 19.0604 Z -1.0000
G00 Z 5.0000

(End cutting path id: path1-0)


(Start cutting path id: path1-0)
(Change tool to Default tool)

G00 Z 5.0000
G00 X 25.7787 Y 18.3809

G01 Z -1.0000 F 100.0000(Penetrate)
G02 X 25.9060 Y 17.9565 Z -1.0000 I -0.1692 J -0.2821 F 3500.0000
G02 X 25.3904 Y 17.6321 Z -1.0000 I -0.5156 J 0.2475
G02 X 25.1272 Y 17.7718 Z -1.0000 I -0.0000 J 0.3179
G02 X 24.9744 Y 18.2700 Z -1.0000 I 0.7360 J 0.4982
G02 X 25.1642 Y 18.5800 Z -1.0000 I 0.3482 J 0.0000
G02 X 25.5291 Y 18.5473 Z -1.0000 I 0.1564 J -0.3063
G02 X 25.7298 Y 18.4109 Z -1.0000 I -1.6719 J -2.6750
G03 X 25.7787 Y 18.3809 Z -1.0000 I 0.1983 J 0.2688
G01 X 25.7787 Y 18.3809 Z -1.0000
G00 Z 5.0000

(End cutting path id: path1-0)


(Start cutting path id: path1-0)
(Change tool to Default tool)

G00 Z 5.0000
G00 X 26.7771 Y 18.1868

G01 Z -1.0000 F 100.0000(Penetrate)
G02 X 26.7314 Y 18.0991 Z -1.0000 I -0.1069 J 0.0000 F 3500.0000
G02 X 26.5691 Y 18.0481 Z -1.0000 I -0.1623 J 0.2325
G02 X 26.4068 Y 18.0991 Z -1.0000 I 0.0000 J 0.2836
G02 X 26.3611 Y 18.1868 Z -1.0000 I 0.0612 J 0.0876
G02 X 26.4145 Y 18.2820 Z -1.0000 I 0.1115 J 0.0000
G02 X 26.5691 Y 18.3254 Z -1.0000 I 0.1546 J -0.2531
G02 X 26.7237 Y 18.2820 Z -1.0000 I 0.0000 J -0.2966
G02 X 26.7771 Y 18.1868 Z -1.0000 I -0.0581 J -0.0952
G01 X 26.7771 Y 18.1868 Z -1.0000
G00 Z 5.0000

(End cutting path id: path1-0)


(Start cutting path id: path1-0)
(Change tool to Default tool)

G00 Z 5.0000
G00 X 26.7771 Y 17.6876

G01 Z -1.0000 F 100.0000(Penetrate)
G02 X 26.6201 Y 17.5508 Z -1.0000 I -0.1381 J 0.0000 F 3500.0000
G02 X 26.3888 Y 17.7430 Z -1.0000 I 0.0392 J 0.2824
G02 X 26.4171 Y 17.8522 Z -1.0000 I 0.1069 J 0.0306
G02 X 26.5553 Y 17.9094 Z -1.0000 I 0.1381 J -0.1381
G02 X 26.7121 Y 17.8445 Z -1.0000 I 0.0000 J -0.2219
G02 X 26.7771 Y 17.6876 Z -1.0000 I -0.1569 J -0.1569
G01 X 26.7771 Y 17.6876 Z -1.0000
G00 Z 5.0000

(End cutting path id: path1-0)


(Start cutting path id: path1-0)
(Change tool to Default tool)

G00 Z 5.0000
G00 X 26.7771 Y 16.7862

G01 Z -1.0000 F 100.0000(Penetrate)
G02 X 26.7304 Y 16.7049 Z -1.0000 I -0.0940 J 0.0000 F 3500.0000
G02 X 26.5691 Y 16.6614 Z -1.0000 I -0.1613 J 0.2770
G02 X 26.4220 Y 16.7223 Z -1.0000 I 0.0000 J 0.2080
G02 X 26.3611 Y 16.8694 Z -1.0000 I 0.1471 J 0.1471
G02 X 26.4261 Y 16.9805 Z -1.0000 I 0.1275 J -0.0000
G02 X 26.5691 Y 16.9942 Z -1.0000 I 0.0870 J -0.1545
G02 X 26.7351 Y 16.8809 Z -1.0000 I -0.3326 J -0.6652
G02 X 26.7771 Y 16.7862 Z -1.0000 I -0.0855 J -0.0947
G01 X 26.7771 Y 16.7862 Z -1.0000
G00 Z 5.0000

(End cutting path id: path1-0)


(Start cutting path id: path1-0)
(Change tool to Default tool)

G00 Z 5.0000
G00 X 25.7648 Y 16.8417

G01 Z -1.0000 F 100.0000(Penetrate)
G01 X 25.7062 Y 16.8458 Z -1.0000 F 3500.0000
G02 X 25.6678 Y 16.9387 Z -1.0000 I 0.0929 J 0.0929
G02 X 25.7062 Y 17.0316 Z -1.0000 I 0.1314 J 0.0000
G01 X 25.7648 Y 17.0358 Z -1.0000
G02 X 25.7972 Y 16.9387 Z -1.0000 I -0.1294 J -0.0971
G02 X 25.7648 Y 16.8417 Z -1.0000 I -0.1618 J -0.0000
G01 X 25.7648 Y 16.8417 Z -1.0000
G00 Z 5.0000

(End cutting path id: path1-0)


(Start cutting path id: path1-0)
(Change tool to Default tool)

G00 Z 5.0000
G00 X 26.0283 Y 15.9958

G01 Z -1.0000 F 100.0000(Penetrate)
G03 X 26.1370 Y 15.6597 Z -1.0000 I 1.5029 J 0.3006 F 3500.0000
G01 X 26.1808 Y 15.6630 Z -1.0000
G02 X 26.2693 Y 15.7552 Z -1.0000 I 0.1927 J -0.0964
G02 X 26.3750 Y 15.7462 Z -1.0000 I 0.0461 J -0.0834
G03 X 26.4472 Y 15.7685 Z -1.0000 I 0.0261 J 0.0435
G03 X 26.4998 Y 16.0096 Z -1.0000 I -0.5261 J 0.2411
G02 X 26.7239 Y 16.3147 Z -1.0000 I 0.3197 J 0.0000
G02 X 27.0961 Y 16.1899 Z -1.0000 I 0.1000 J -0.3192
G03 X 27.2008 Y 16.1376 Z -1.0000 I 0.1047 J 0.0785
G03 X 27.2763 Y 16.1899 Z -1.0000 I 0.0000 J 0.0807
G02 X 27.3934 Y 16.2628 Z -1.0000 I 0.1122 J -0.0499
G02 X 27.9281 Y 16.1760 Z -1.0000 I -0.0868 J -2.2276
G01 X 28.5105 Y 16.0096 Z -1.0000
G01 X 28.5383 Y 14.6368 Z -1.0000
G03 X 28.5935 Y 13.2597 Z -1.0000 I 185.0875 J 6.7305
G03 X 28.6492 Y 12.4319 Z -1.0000 I 17.6843 J 0.7749
G01 X 28.7185 Y 11.5999 Z -1.0000
G01 X 28.4550 Y 12.3487 Z -1.0000
G03 X 28.1545 Y 13.0549 Z -1.0000 I -9.0182 J -3.4207
G03 X 28.0252 Y 13.1946 Z -1.0000 I -0.2868 J -0.1358
G02 X 27.9267 Y 13.3229 Z -1.0000 I 0.1392 J 0.2088
G02 X 27.9004 Y 13.6245 Z -1.0000 I 0.6039 J 0.2046
G03 X 27.8104 Y 14.9081 Z -1.0000 I -4.2966 J 0.3437
G03 X 27.5260 Y 15.1360 Z -1.0000 I -0.2844 J -0.0635
G01 X 27.4861 Y 15.1032 Z -1.0000
G03 X 27.4843 Y 14.9696 Z -1.0000 I 0.3695 J -0.0717
G02 X 27.4970 Y 14.7913 Z -1.0000 I -1.2480 J -0.1783
G02 X 27.4843 Y 14.5120 Z -1.0000 I -3.0853 J -0.0000
G02 X 27.4188 Y 14.4162 Z -1.0000 I -0.1124 J 0.0066
G02 X 27.3318 Y 14.4427 Z -1.0000 I -0.0286 J 0.0624
G01 X 27.2596 Y 14.4254 Z -1.0000
G03 X 27.1793 Y 13.4026 Z -1.0000 I 8.1625 J -1.1557
G01 X 27.1793 Y 12.1546 Z -1.0000
G01 X 26.9297 Y 12.7231 Z -1.0000
G02 X 26.7014 Y 13.2905 Z -1.0000 I 6.3074 J 2.8670
G02 X 26.5691 Y 13.7632 Z -1.0000 I 3.5413 J 1.2460
G03 X 26.4491 Y 13.9249 Z -1.0000 I -0.2509 J -0.0608
G03 X 26.3611 Y 13.8880 Z -1.0000 I -0.0302 J -0.0513
G03 X 26.3444 Y 13.5549 Z -1.0000 I 0.7710 J -0.2056
G03 X 26.4859 Y 13.1946 Z -1.0000 I 0.9005 J 0.1458
G02 X 26.5992 Y 12.9556 Z -1.0000 I -1.5027 J -0.8587
G01 X 26.5830 Y 12.9450 Z -1.0000
G03 X 26.2293 Y 12.9692 Z -1.0000 I -0.1933 J -0.2284
G03 X 25.8064 Y 12.4597 Z -1.0000 I 0.5778 J -0.9098
G01 X 25.7415 Y 12.4709 Z -1.0000
G02 X 25.6816 Y 14.4149 Z -1.0000 I 31.5155 J 1.9440
G02 X 25.7386 Y 16.5584 Z -1.0000 I 29.4943 J 0.2892
G01 X 25.8064 Y 16.5921 Z -1.0000
G02 X 25.8910 Y 16.4901 Z -1.0000 I -0.1027 J -0.1711
G02 X 26.0283 Y 15.9958 Z -1.0000 I -2.9095 J -1.0747
G01 X 26.0283 Y 15.9958 Z -1.0000
G00 Z 5.0000

(End cutting path id: path1-0)


(Start cutting path id: path11)
(Change tool to Default tool)

G00 Z 5.0000
G00 X 27.3318 Y 15.5520

G01 Z -1.0000 F 100.0000(Penetrate)
G03 X 27.3703 Y 15.4591 Z -1.0000 I 0.1314 J 0.0000 F 3500.0000
G01 X 27.4289 Y 15.4550 Z -1.0000
G03 X 27.4612 Y 15.5520 Z -1.0000 I -0.1294 J 0.0971
G03 X 27.4289 Y 15.6491 Z -1.0000 I -0.1618 J -0.0000
G01 X 27.3703 Y 15.6449 Z -1.0000
G03 X 27.3318 Y 15.5520 Z -1.0000 I 0.0929 J -0.0929
G01 X 27.3318 Y 15.5520 Z -1.0000
G00 Z 5.0000

(End cutting path id: path11)


(Start cutting path id: path1-0)
