%
(Header)
(Generated by gcodetools from Inkscape.)
(Using default header. To add your own header create file "header" in the output dir.)
M3
(Header end.)
G21 (All units in mm)

(Start cutting path id: path3127)
(Change tool to Default tool)

G00 Z 5.0000
G00 X 1.9894 Y 0.1062

G01 Z -1.0000 F 100.0000(Penetrate)
G01 X 1.9944 Y 0.1186 Z -1.0000 F 3500.0000
G01 X 1.9968 Y 0.1062 Z -1.0000
G01 X 1.9944 Y 0.0938 Z -1.0000
G01 X 1.9894 Y 0.1062 Z -1.0000
G01 X 1.9894 Y 0.1062 Z -1.0000
G00 Z 5.0000

(End cutting path id: path3127)


(Start cutting path id: path3127)
(Change tool to Default tool)

G00 Z 5.0000
G00 X 1.9482 Y 0.2153

G01 Z -1.0000 F 100.0000(Penetrate)
G01 X 1.9512 Y 0.2222 Z -1.0000 F 3500.0000
G01 X 1.9587 Y 0.2252 Z -1.0000
G01 X 1.9635 Y 0.2220 Z -1.0000
G01 X 1.9630 Y 0.2153 Z -1.0000
G01 X 1.9561 Y 0.2068 Z -1.0000
G01 X 1.9525 Y 0.2054 Z -1.0000
G01 X 1.9499 Y 0.2071 Z -1.0000
G01 X 1.9482 Y 0.2153 Z -1.0000
G01 X 1.9482 Y 0.2153 Z -1.0000
G00 Z 5.0000

(End cutting path id: path3127)


(Start cutting path id: path3127)
(Change tool to Default tool)

G00 Z 5.0000
G00 X 1.8688 Y 0.5822

G01 Z -1.0000 F 100.0000(Penetrate)
G01 X 1.8718 Y 0.5891 Z -1.0000 F 3500.0000
G01 X 1.8793 Y 0.5921 Z -1.0000
G01 X 1.8842 Y 0.5889 Z -1.0000
G01 X 1.8837 Y 0.5822 Z -1.0000
G01 X 1.8768 Y 0.5737 Z -1.0000
G01 X 1.8732 Y 0.5723 Z -1.0000
G01 X 1.8705 Y 0.5740 Z -1.0000
G01 X 1.8688 Y 0.5822 Z -1.0000
G01 X 1.8688 Y 0.5822 Z -1.0000
G00 Z 5.0000

(End cutting path id: path3127)


(Start cutting path id: path3127)
(Change tool to Default tool)

G00 Z 5.0000
G00 X 1.8887 Y 0.7247

G01 Z -1.0000 F 100.0000(Penetrate)
G01 X 1.8899 Y 0.7279 Z -1.0000 F 3500.0000
G02 X 1.9038 Y 0.7410 Z -1.0000 I 0.1079 J -0.1004
G01 X 1.9106 Y 0.7420 Z -1.0000
G01 X 1.9126 Y 0.7373 Z -1.0000
G01 X 1.8970 Y 0.7197 Z -1.0000
G01 X 1.8887 Y 0.7248 Z -1.0000
G01 X 1.8887 Y 0.7247 Z -1.0000
G00 Z 5.0000

(End cutting path id: path3127)


(Start cutting path id: path3127)
(Change tool to Default tool)

G00 Z 5.0000
G00 X 1.7945 Y 0.7706

G01 Z -1.0000 F 100.0000(Penetrate)
G01 X 1.7940 Y 0.7773 Z -1.0000 F 3500.0000
G01 X 1.7988 Y 0.7805 Z -1.0000
G01 X 1.8064 Y 0.7775 Z -1.0000
G01 X 1.8093 Y 0.7706 Z -1.0000
G01 X 1.8076 Y 0.7624 Z -1.0000
G01 X 1.8050 Y 0.7607 Z -1.0000
G01 X 1.8014 Y 0.7621 Z -1.0000
G01 X 1.7945 Y 0.7706 Z -1.0000
G01 X 1.7945 Y 0.7706 Z -1.0000
G00 Z 5.0000

(End cutting path id: path3127)


(Start cutting path id: path3127)
(Change tool to Default tool)

G00 Z 5.0000
G00 X 1.6259 Y 0.8599

G01 Z -1.0000 F 100.0000(Penetrate)
G01 X 1.6266 Y 0.8660 Z -1.0000 F 3500.0000
G01 X 1.6358 Y 0.8698 Z -1.0000
G01 X 1.6450 Y 0.8659 Z -1.0000
G01 X 1.6457 Y 0.8599 Z -1.0000
G01 X 1.6389 Y 0.8512 Z -1.0000
G01 X 1.6358 Y 0.8500 Z -1.0000
G01 X 1.6327 Y 0.8512 Z -1.0000
G01 X 1.6259 Y 0.8599 Z -1.0000
G01 X 1.6259 Y 0.8599 Z -1.0000
G00 Z 5.0000

(End cutting path id: path3127)


(Start cutting path id: path3127)
(Change tool to Default tool)

G00 Z 5.0000
G00 X 1.5813 Y 0.8202

G01 Z -1.0000 F 100.0000(Penetrate)
G01 X 1.5842 Y 0.8272 Z -1.0000 F 3500.0000
G01 X 1.5912 Y 0.8301 Z -1.0000
G01 X 1.5982 Y 0.8271 Z -1.0000
G01 X 1.6011 Y 0.8202 Z -1.0000
G01 X 1.5982 Y 0.8131 Z -1.0000
G01 X 1.5912 Y 0.8103 Z -1.0000
G01 X 1.5842 Y 0.8132 Z -1.0000
G01 X 1.5813 Y 0.8202 Z -1.0000
G01 X 1.5813 Y 0.8202 Z -1.0000
G00 Z 5.0000

(End cutting path id: path3127)


(Start cutting path id: path3127)
(Change tool to Default tool)

G00 Z 5.0000
G00 X 1.5277 Y 0.7691

G01 Z -1.0000 F 100.0000(Penetrate)
G01 X 1.5278 Y 0.7764 Z -1.0000 F 3500.0000
G01 X 1.5381 Y 0.7846 Z -1.0000
G01 X 1.5489 Y 0.7815 Z -1.0000
G01 X 1.5477 Y 0.7715 Z -1.0000
G01 X 1.5344 Y 0.7658 Z -1.0000
G01 X 1.5277 Y 0.7690 Z -1.0000
G01 X 1.5277 Y 0.7691 Z -1.0000
G00 Z 5.0000

(End cutting path id: path3127)


(Start cutting path id: path3127)
(Change tool to Default tool)

G00 Z 5.0000
G00 X 1.6160 Y 0.6020

G01 Z -1.0000 F 100.0000(Penetrate)
G01 X 1.6229 Y 0.6105 Z -1.0000 F 3500.0000
G01 X 1.6265 Y 0.6119 Z -1.0000
G01 X 1.6291 Y 0.6101 Z -1.0000
G01 X 1.6308 Y 0.6020 Z -1.0000
G01 X 1.6278 Y 0.5950 Z -1.0000
G01 X 1.6203 Y 0.5921 Z -1.0000
G01 X 1.6155 Y 0.5952 Z -1.0000
G01 X 1.6160 Y 0.6020 Z -1.0000
G01 X 1.6160 Y 0.6020 Z -1.0000
G00 Z 5.0000

(End cutting path id: path3127)


(Start cutting path id: path3127)
(Change tool to Default tool)

G00 Z 5.0000
G00 X 1.6457 Y 0.5028

G01 Z -1.0000 F 100.0000(Penetrate)
G01 X 1.6527 Y 0.5113 Z -1.0000 F 3500.0000
G01 X 1.6562 Y 0.5127 Z -1.0000
G01 X 1.6589 Y 0.5110 Z -1.0000
G01 X 1.6606 Y 0.5028 Z -1.0000
G01 X 1.6576 Y 0.4959 Z -1.0000
G01 X 1.6501 Y 0.4929 Z -1.0000
G01 X 1.6452 Y 0.4961 Z -1.0000
G01 X 1.6457 Y 0.5028 Z -1.0000
G01 X 1.6457 Y 0.5028 Z -1.0000
G00 Z 5.0000

(End cutting path id: path3127)


(Start cutting path id: path3127)
(Change tool to Default tool)

G00 Z 5.0000
G00 X 1.3491 Y 0.4420

G01 Z -1.0000 F 100.0000(Penetrate)
G01 X 1.3450 Y 0.4542 Z -1.0000 F 3500.0000
G01 X 1.3473 Y 0.4605 Z -1.0000
G01 X 1.3582 Y 0.4597 Z -1.0000
G01 X 1.3610 Y 0.4420 Z -1.0000
G01 X 1.3558 Y 0.4382 Z -1.0000
G01 X 1.3491 Y 0.4420 Z -1.0000
G01 X 1.3491 Y 0.4420 Z -1.0000
G00 Z 5.0000

(End cutting path id: path3127)


(Start cutting path id: path3127)
(Change tool to Default tool)

G00 Z 5.0000
G00 X 1.3036 Y 0.4142

G01 Z -1.0000 F 100.0000(Penetrate)
G01 X 1.3068 Y 0.4190 Z -1.0000 F 3500.0000
G01 X 1.3136 Y 0.4186 Z -1.0000
G01 X 1.3221 Y 0.4117 Z -1.0000
G01 X 1.3235 Y 0.4081 Z -1.0000
G01 X 1.3218 Y 0.4054 Z -1.0000
G01 X 1.3136 Y 0.4037 Z -1.0000
G01 X 1.3066 Y 0.4067 Z -1.0000
G01 X 1.3036 Y 0.4142 Z -1.0000
G01 X 1.3036 Y 0.4142 Z -1.0000
G00 Z 5.0000

(End cutting path id: path3127)


(Start cutting path id: path3127)
(Change tool to Default tool)

G00 Z 5.0000
G00 X 1.1505 Y 0.3432

G01 Z -1.0000 F 100.0000(Penetrate)
G01 X 1.1508 Y 0.3501 Z -1.0000 F 3500.0000
G01 X 1.1613 Y 0.3582 Z -1.0000
G01 X 1.1703 Y 0.3555 Z -1.0000
G01 X 1.1693 Y 0.3468 Z -1.0000
G01 X 1.1568 Y 0.3405 Z -1.0000
G01 X 1.1505 Y 0.3433 Z -1.0000
G01 X 1.1505 Y 0.3432 Z -1.0000
G00 Z 5.0000

(End cutting path id: path3127)


(Start cutting path id: path3127)
(Change tool to Default tool)

G00 Z 5.0000
G00 X 1.0706 Y 0.4334

G01 Z -1.0000 F 100.0000(Penetrate)
G01 X 1.0702 Y 0.4402 Z -1.0000 F 3500.0000
G01 X 1.0750 Y 0.4433 Z -1.0000
G01 X 1.0825 Y 0.4403 Z -1.0000
G01 X 1.0855 Y 0.4334 Z -1.0000
G01 X 1.0837 Y 0.4252 Z -1.0000
G01 X 1.0811 Y 0.4235 Z -1.0000
G01 X 1.0775 Y 0.4250 Z -1.0000
G01 X 1.0706 Y 0.4334 Z -1.0000
G01 X 1.0706 Y 0.4334 Z -1.0000
G00 Z 5.0000

(End cutting path id: path3127)


(Start cutting path id: path3127)
(Change tool to Default tool)

G00 Z 5.0000
G00 X 1.0855 Y 0.4681

G01 Z -1.0000 F 100.0000(Penetrate)
G01 X 1.0896 Y 0.4830 Z -1.0000 F 3500.0000
G01 X 1.0937 Y 0.4835 Z -1.0000
G03 X 1.1120 Y 0.4887 Z -1.0000 I -0.0986 J 0.3818
G01 X 1.1126 Y 0.4831 Z -1.0000
G01 X 1.1006 Y 0.4705 Z -1.0000
G01 X 1.1007 Y 0.4625 Z -1.0000
G01 X 1.1010 Y 0.4562 Z -1.0000
G01 X 1.0960 Y 0.4532 Z -1.0000
G01 X 1.0891 Y 0.4568 Z -1.0000
G01 X 1.0855 Y 0.4680 Z -1.0000
G01 X 1.0855 Y 0.4681 Z -1.0000
G00 Z 5.0000

(End cutting path id: path3127)


(Start cutting path id: path3127)
(Change tool to Default tool)

G00 Z 5.0000
G00 X 1.0557 Y 0.6020

G01 Z -1.0000 F 100.0000(Penetrate)
G01 X 1.0588 Y 0.6089 Z -1.0000 F 3500.0000
G01 X 1.0662 Y 0.6119 Z -1.0000
G01 X 1.0711 Y 0.6087 Z -1.0000
G01 X 1.0706 Y 0.6020 Z -1.0000
G01 X 1.0637 Y 0.5935 Z -1.0000
G01 X 1.0601 Y 0.5921 Z -1.0000
G01 X 1.0575 Y 0.5938 Z -1.0000
G01 X 1.0557 Y 0.6020 Z -1.0000
G01 X 1.0557 Y 0.6020 Z -1.0000
G00 Z 5.0000

(End cutting path id: path3127)


(Start cutting path id: path3127)
(Change tool to Default tool)

G00 Z 5.0000
G00 X 0.8277 Y 0.6355

G01 Z -1.0000 F 100.0000(Penetrate)
G01 X 0.8292 Y 0.6383 Z -1.0000 F 3500.0000
G02 X 0.8426 Y 0.6451 Z -1.0000 I 0.0379 J -0.0579
G01 X 0.8539 Y 0.6458 Z -1.0000
G01 X 0.8574 Y 0.6412 Z -1.0000
G01 X 0.8540 Y 0.6350 Z -1.0000
G01 X 0.8426 Y 0.6316 Z -1.0000
G01 X 0.8277 Y 0.6355 Z -1.0000
G01 X 0.8277 Y 0.6355 Z -1.0000
G00 Z 5.0000

(End cutting path id: path3127)


(Start cutting path id: path3127)
(Change tool to Default tool)

G00 Z 5.0000
G00 X 0.5401 Y 0.6168

G01 Z -1.0000 F 100.0000(Penetrate)
G01 X 0.5436 Y 0.6283 Z -1.0000 F 3500.0000
G01 X 0.5500 Y 0.6317 Z -1.0000
G01 X 0.5565 Y 0.6283 Z -1.0000
G01 X 0.5600 Y 0.6168 Z -1.0000
G01 X 0.5565 Y 0.6054 Z -1.0000
G01 X 0.5500 Y 0.6020 Z -1.0000
G01 X 0.5436 Y 0.6054 Z -1.0000
G01 X 0.5401 Y 0.6168 Z -1.0000
G01 X 0.5401 Y 0.6168 Z -1.0000
G00 Z 5.0000

(End cutting path id: path3127)


(Start cutting path id: path3127)
(Change tool to Default tool)

G00 Z 5.0000
G00 X 0.4806 Y 0.5717

G01 Z -1.0000 F 100.0000(Penetrate)
G01 X 0.4865 Y 0.5807 Z -1.0000 F 3500.0000
G01 X 0.4940 Y 0.5776 Z -1.0000
G01 X 0.4952 Y 0.5645 Z -1.0000
G01 X 0.4901 Y 0.5571 Z -1.0000
G01 X 0.4846 Y 0.5584 Z -1.0000
G01 X 0.4806 Y 0.5717 Z -1.0000
G01 X 0.4806 Y 0.5717 Z -1.0000
G00 Z 5.0000

(End cutting path id: path3127)


(Start cutting path id: path3127)
(Change tool to Default tool)

G00 Z 5.0000
G00 X 0.5203 Y 0.2336

G01 Z -1.0000 F 100.0000(Penetrate)
G01 X 0.5236 Y 0.2401 Z -1.0000 F 3500.0000
G01 X 0.5401 Y 0.2479 Z -1.0000
G01 X 0.5600 Y 0.2494 Z -1.0000
G01 X 0.5585 Y 0.2466 Z -1.0000
G02 X 0.5401 Y 0.2351 Z -1.0000 I -0.0910 J 0.1252
G01 X 0.5238 Y 0.2304 Z -1.0000
G01 X 0.5203 Y 0.2336 Z -1.0000
G01 X 0.5203 Y 0.2336 Z -1.0000
G00 Z 5.0000

(End cutting path id: path3127)


(Start cutting path id: path3127)
(Change tool to Default tool)

G00 Z 5.0000
G00 X 0.8748 Y 0.2426

G01 Z -1.0000 F 100.0000(Penetrate)
G01 X 0.8678 Y 0.2540 Z -1.0000 F 3500.0000
G01 X 0.8821 Y 0.2712 Z -1.0000
G01 X 0.8987 Y 0.2722 Z -1.0000
G01 X 0.9037 Y 0.2640 Z -1.0000
G01 X 0.8932 Y 0.2465 Z -1.0000
G01 X 0.8748 Y 0.2426 Z -1.0000
G01 X 0.8748 Y 0.2426 Z -1.0000
G00 Z 5.0000

(End cutting path id: path3127)


(Start cutting path id: path3127)
(Change tool to Default tool)

G00 Z 5.0000
G00 X 1.0359 Y 0.2153

G01 Z -1.0000 F 100.0000(Penetrate)
G01 X 1.0388 Y 0.2224 Z -1.0000 F 3500.0000
G01 X 1.0452 Y 0.2252 Z -1.0000
G01 X 1.0533 Y 0.2228 Z -1.0000
G01 X 1.0607 Y 0.2153 Z -1.0000
G01 X 1.0601 Y 0.2091 Z -1.0000
G01 X 1.0514 Y 0.2054 Z -1.0000
G01 X 1.0394 Y 0.2089 Z -1.0000
G01 X 1.0359 Y 0.2153 Z -1.0000
G01 X 1.0359 Y 0.2153 Z -1.0000
G00 Z 5.0000

(End cutting path id: path3127)


(Start cutting path id: path3127)
(Change tool to Default tool)

G00 Z 5.0000
G00 X 1.0954 Y 0.1217

G01 Z -1.0000 F 100.0000(Penetrate)
G01 X 1.0992 Y 0.1303 Z -1.0000 F 3500.0000
G01 X 1.1055 Y 0.1309 Z -1.0000
G01 X 1.1110 Y 0.1236 Z -1.0000
G01 X 1.1099 Y 0.1154 Z -1.0000
G01 X 1.1013 Y 0.1127 Z -1.0000
G01 X 1.0954 Y 0.1216 Z -1.0000
G01 X 1.0954 Y 0.1217 Z -1.0000
G00 Z 5.0000

(End cutting path id: path3127)


(Start cutting path id: path3127)
(Change tool to Default tool)

G00 Z 5.0000
G00 X 1.2243 Y 0.2450

G01 Z -1.0000 F 100.0000(Penetrate)
G01 X 1.2272 Y 0.2520 Z -1.0000 F 3500.0000
G01 X 1.2342 Y 0.2549 Z -1.0000
G01 X 1.2413 Y 0.2520 Z -1.0000
G01 X 1.2442 Y 0.2450 Z -1.0000
G01 X 1.2412 Y 0.2380 Z -1.0000
G01 X 1.2342 Y 0.2351 Z -1.0000
G01 X 1.2272 Y 0.2380 Z -1.0000
G01 X 1.2243 Y 0.2450 Z -1.0000
G01 X 1.2243 Y 0.2450 Z -1.0000
G00 Z 5.0000

(End cutting path id: path3127)


(Start cutting path id: path3127)
(Change tool to Default tool)

G00 Z 5.0000
G00 X 1.2739 Y 0.9726

G01 Z -1.0000 F 100.0000(Penetrate)
G01 X 1.2752 Y 0.9758 Z -1.0000 F 3500.0000
G02 X 1.2912 Y 0.9900 Z -1.0000 I 0.1241 J -0.1242
G01 X 1.2948 Y 0.9898 Z -1.0000
G01 X 1.2950 Y 0.9863 Z -1.0000
G02 X 1.2777 Y 0.9706 Z -1.0000 I -0.0554 J 0.0434
G01 X 1.2739 Y 0.9727 Z -1.0000
G01 X 1.2739 Y 0.9726 Z -1.0000
G00 Z 5.0000

(End cutting path id: path3127)


(Start cutting path id: path3127)
(Change tool to Default tool)

G00 Z 5.0000
G00 X 1.3334 Y 1.0184

G01 Z -1.0000 F 100.0000(Penetrate)
G01 X 1.3364 Y 1.0254 Z -1.0000 F 3500.0000
G01 X 1.3439 Y 1.0283 Z -1.0000
G01 X 1.3487 Y 1.0252 Z -1.0000
G01 X 1.3483 Y 1.0184 Z -1.0000
G01 X 1.3413 Y 1.0100 Z -1.0000
G01 X 1.3378 Y 1.0085 Z -1.0000
G01 X 1.3351 Y 1.0103 Z -1.0000
G01 X 1.3334 Y 1.0184 Z -1.0000
G01 X 1.3334 Y 1.0184 Z -1.0000
G00 Z 5.0000

(End cutting path id: path3127)


(Start cutting path id: path3127)
(Change tool to Default tool)

G00 Z 5.0000
G00 X 1.3442 Y 1.0719

G01 Z -1.0000 F 100.0000(Penetrate)
G01 X 1.3405 Y 1.0852 Z -1.0000 F 3500.0000
G01 X 1.3476 Y 1.0939 Z -1.0000
G01 X 1.3611 Y 1.0904 Z -1.0000
G01 X 1.3639 Y 1.0745 Z -1.0000
G01 X 1.3553 Y 1.0676 Z -1.0000
G01 X 1.3442 Y 1.0719 Z -1.0000
G01 X 1.3442 Y 1.0719 Z -1.0000
G00 Z 5.0000

(End cutting path id: path3127)


(Start cutting path id: path3127)
(Change tool to Default tool)

G00 Z 5.0000
G00 X 1.2171 Y 1.0909

G01 Z -1.0000 F 100.0000(Penetrate)
G01 X 1.2389 Y 1.1089 Z -1.0000 F 3500.0000
G01 X 1.2541 Y 1.0956 Z -1.0000
G01 X 1.2494 Y 1.0864 Z -1.0000
G01 X 1.2336 Y 1.0806 Z -1.0000
G01 X 1.2195 Y 1.0840 Z -1.0000
G01 X 1.2171 Y 1.0909 Z -1.0000
G01 X 1.2171 Y 1.0909 Z -1.0000
G00 Z 5.0000

(End cutting path id: path3127)


(Start cutting path id: path3127)
(Change tool to Default tool)

G00 Z 5.0000
G00 X 1.2788 Y 1.1870

G01 Z -1.0000 F 100.0000(Penetrate)
G01 X 1.2801 Y 1.1928 Z -1.0000 F 3500.0000
G01 X 1.2931 Y 1.1969 Z -1.0000
G01 X 1.3098 Y 1.1931 Z -1.0000
G01 X 1.3136 Y 1.1870 Z -1.0000
G01 X 1.3101 Y 1.1805 Z -1.0000
G01 X 1.2993 Y 1.1771 Z -1.0000
G01 X 1.2866 Y 1.1800 Z -1.0000
G01 X 1.2788 Y 1.1870 Z -1.0000
G01 X 1.2788 Y 1.1870 Z -1.0000
G00 Z 5.0000

(End cutting path id: path3127)


(Start cutting path id: path3127)
(Change tool to Default tool)

G00 Z 5.0000
G00 X 1.3490 Y 1.3313

G01 Z -1.0000 F 100.0000(Penetrate)
G01 X 1.3464 Y 1.3436 Z -1.0000 F 3500.0000
G01 X 1.3566 Y 1.3504 Z -1.0000
G01 X 1.3720 Y 1.3444 Z -1.0000
G01 X 1.3753 Y 1.3331 Z -1.0000
G01 X 1.3656 Y 1.3251 Z -1.0000
G01 X 1.3490 Y 1.3313 Z -1.0000
G01 X 1.3490 Y 1.3313 Z -1.0000
G00 Z 5.0000

(End cutting path id: path3127)


(Start cutting path id: path3127)
(Change tool to Default tool)

G00 Z 5.0000
G00 X 1.4028 Y 1.3550

G01 Z -1.0000 F 100.0000(Penetrate)
G02 X 1.4107 Y 1.3873 Z -1.0000 I 0.0699 J -0.0000 F 3500.0000
G01 X 1.4237 Y 1.3952 Z -1.0000
G01 X 1.4385 Y 1.3782 Z -1.0000
G01 X 1.4177 Y 1.3519 Z -1.0000
G01 X 1.4061 Y 1.3510 Z -1.0000
G01 X 1.4028 Y 1.3551 Z -1.0000
G01 X 1.4028 Y 1.3550 Z -1.0000
G00 Z 5.0000

(End cutting path id: path3127)


(Start cutting path id: path3127)
(Change tool to Default tool)

G00 Z 5.0000
G00 X 1.4772 Y 1.1771

G01 Z -1.0000 F 100.0000(Penetrate)
G01 X 1.4807 Y 1.1834 Z -1.0000 F 3500.0000
G01 X 1.5019 Y 1.1771 Z -1.0000
G01 X 1.5045 Y 1.1710 Z -1.0000
G01 X 1.5001 Y 1.1673 Z -1.0000
G01 X 1.4851 Y 1.1703 Z -1.0000
G01 X 1.4772 Y 1.1771 Z -1.0000
G01 X 1.4772 Y 1.1771 Z -1.0000
G00 Z 5.0000

(End cutting path id: path3127)


(Start cutting path id: path3127)
(Change tool to Default tool)

G00 Z 5.0000
G00 X 1.5317 Y 0.9589

G01 Z -1.0000 F 100.0000(Penetrate)
G01 X 1.5347 Y 0.9659 Z -1.0000 F 3500.0000
G01 X 1.5422 Y 0.9688 Z -1.0000
G01 X 1.5471 Y 0.9656 Z -1.0000
G01 X 1.5466 Y 0.9589 Z -1.0000
G01 X 1.5396 Y 0.9504 Z -1.0000
G01 X 1.5361 Y 0.9490 Z -1.0000
G01 X 1.5334 Y 0.9508 Z -1.0000
G01 X 1.5317 Y 0.9589 Z -1.0000
G01 X 1.5317 Y 0.9589 Z -1.0000
G00 Z 5.0000

(End cutting path id: path3127)


(Start cutting path id: path3127)
(Change tool to Default tool)

G00 Z 5.0000
G00 X 1.7845 Y 1.1374

G01 Z -1.0000 F 100.0000(Penetrate)
G01 X 1.7841 Y 1.1442 Z -1.0000 F 3500.0000
G01 X 1.7889 Y 1.1473 Z -1.0000
G01 X 1.7965 Y 1.1443 Z -1.0000
G01 X 1.7994 Y 1.1374 Z -1.0000
G01 X 1.7977 Y 1.1292 Z -1.0000
G01 X 1.7950 Y 1.1275 Z -1.0000
G01 X 1.7915 Y 1.1290 Z -1.0000
G01 X 1.7845 Y 1.1374 Z -1.0000
G01 X 1.7845 Y 1.1374 Z -1.0000
G00 Z 5.0000

(End cutting path id: path3127)


(Start cutting path id: path3127)
(Change tool to Default tool)

G00 Z 5.0000
G00 X 1.9382 Y 1.1182

G01 Z -1.0000 F 100.0000(Penetrate)
G01 X 1.9414 Y 1.1230 Z -1.0000 F 3500.0000
G01 X 1.9482 Y 1.1226 Z -1.0000
G01 X 1.9567 Y 1.1157 Z -1.0000
G01 X 1.9581 Y 1.1121 Z -1.0000
G01 X 1.9564 Y 1.1094 Z -1.0000
G01 X 1.9482 Y 1.1077 Z -1.0000
G01 X 1.9412 Y 1.1107 Z -1.0000
G01 X 1.9382 Y 1.1182 Z -1.0000
G01 X 1.9382 Y 1.1182 Z -1.0000
G00 Z 5.0000

(End cutting path id: path3127)


(Start cutting path id: path3127)
(Change tool to Default tool)

G00 Z 5.0000
G00 X 1.9482 Y 1.0234

G01 Z -1.0000 F 100.0000(Penetrate)
G02 X 1.9616 Y 1.0359 Z -1.0000 I 0.0535 J -0.0443 F 3500.0000
G01 X 1.9692 Y 1.0383 Z -1.0000
G01 X 1.9747 Y 1.0351 Z -1.0000
G01 X 1.9779 Y 1.0234 Z -1.0000
G01 X 1.9728 Y 1.0137 Z -1.0000
G01 X 1.9569 Y 1.0086 Z -1.0000
G01 X 1.9474 Y 1.0140 Z -1.0000
G01 X 1.9482 Y 1.0234 Z -1.0000
G01 X 1.9482 Y 1.0234 Z -1.0000
G00 Z 5.0000

(End cutting path id: path3127)


(Start cutting path id: path3127)
(Change tool to Default tool)

G00 Z 5.0000
G00 X 1.8688 Y 0.9890

G01 Z -1.0000 F 100.0000(Penetrate)
G01 X 1.8722 Y 0.9952 Z -1.0000 F 3500.0000
G01 X 1.8837 Y 0.9986 Z -1.0000
G01 X 1.8986 Y 0.9947 Z -1.0000
G01 X 1.8971 Y 0.9919 Z -1.0000
G02 X 1.8837 Y 0.9851 Z -1.0000 I -0.0378 J 0.0578
G01 X 1.8723 Y 0.9845 Z -1.0000
G01 X 1.8688 Y 0.9890 Z -1.0000
G01 X 1.8688 Y 0.9890 Z -1.0000
G00 Z 5.0000

(End cutting path id: path3127)


(Start cutting path id: path3127)
(Change tool to Default tool)

G00 Z 5.0000
G00 X 2.0820 Y 0.9391

G01 Z -1.0000 F 100.0000(Penetrate)
G01 X 2.0814 Y 0.9460 Z -1.0000 F 3500.0000
G01 X 2.0858 Y 0.9490 Z -1.0000
G01 X 2.0944 Y 0.9466 Z -1.0000
G01 X 2.1018 Y 0.9391 Z -1.0000
G01 X 2.1025 Y 0.9323 Z -1.0000
G01 X 2.0981 Y 0.9292 Z -1.0000
G01 X 2.0895 Y 0.9317 Z -1.0000
G01 X 2.0820 Y 0.9391 Z -1.0000
G01 X 2.0820 Y 0.9391 Z -1.0000
G00 Z 5.0000

(End cutting path id: path3127)


(Start cutting path id: path3127)
(Change tool to Default tool)

G00 Z 5.0000
G00 X 2.2803 Y 0.7110

G01 Z -1.0000 F 100.0000(Penetrate)
G01 X 2.2873 Y 0.7195 Z -1.0000 F 3500.0000
G01 X 2.2908 Y 0.7209 Z -1.0000
G01 X 2.2935 Y 0.7192 Z -1.0000
G01 X 2.2952 Y 0.7110 Z -1.0000
G01 X 2.2922 Y 0.7041 Z -1.0000
G01 X 2.2847 Y 0.7012 Z -1.0000
G01 X 2.2798 Y 0.7043 Z -1.0000
G01 X 2.2803 Y 0.7110 Z -1.0000
G01 X 2.2803 Y 0.7110 Z -1.0000
G00 Z 5.0000

(End cutting path id: path3127)


(Start cutting path id: path3127)
(Change tool to Default tool)

G00 Z 5.0000
G00 X 2.4339 Y 0.6464

G01 Z -1.0000 F 100.0000(Penetrate)
G01 X 2.4470 Y 0.6559 Z -1.0000 F 3500.0000
G01 X 2.4560 Y 0.6551 Z -1.0000
G01 X 2.4585 Y 0.6490 Z -1.0000
G01 X 2.4524 Y 0.6405 Z -1.0000
G01 X 2.4363 Y 0.6384 Z -1.0000
G01 X 2.4339 Y 0.6464 Z -1.0000
G01 X 2.4339 Y 0.6464 Z -1.0000
G00 Z 5.0000

(End cutting path id: path3127)


(Start cutting path id: path3127)
(Change tool to Default tool)

G00 Z 5.0000
G00 X 2.7414 Y 0.6659

G01 Z -1.0000 F 100.0000(Penetrate)
G01 X 2.7442 Y 0.6786 Z -1.0000 F 3500.0000
G01 X 2.7504 Y 0.6857 Z -1.0000
G01 X 2.7542 Y 0.6842 Z -1.0000
G01 X 2.7542 Y 0.6714 Z -1.0000
G01 X 2.7465 Y 0.6624 Z -1.0000
G01 X 2.7414 Y 0.6658 Z -1.0000
G01 X 2.7414 Y 0.6659 Z -1.0000
G00 Z 5.0000

(End cutting path id: path3127)


(Start cutting path id: path3127)
(Change tool to Default tool)

G00 Z 5.0000
G00 X 2.7712 Y 0.5921

G01 Z -1.0000 F 100.0000(Penetrate)
G01 X 2.7746 Y 0.5985 Z -1.0000 F 3500.0000
G01 X 2.7860 Y 0.6020 Z -1.0000
G01 X 2.7975 Y 0.5985 Z -1.0000
G01 X 2.8009 Y 0.5921 Z -1.0000
G01 X 2.7974 Y 0.5856 Z -1.0000
G01 X 2.7860 Y 0.5822 Z -1.0000
G01 X 2.7746 Y 0.5856 Z -1.0000
G01 X 2.7712 Y 0.5921 Z -1.0000
G01 X 2.7712 Y 0.5921 Z -1.0000
G00 Z 5.0000

(End cutting path id: path3127)


(Start cutting path id: path3127)
(Change tool to Default tool)

G00 Z 5.0000
G00 X 2.7820 Y 0.5366

G01 Z -1.0000 F 100.0000(Penetrate)
G01 X 2.7778 Y 0.5501 Z -1.0000 F 3500.0000
G01 X 2.7848 Y 0.5551 Z -1.0000
G02 X 2.8064 Y 0.5467 Z -1.0000 I -0.0122 J -0.0638
G01 X 2.8147 Y 0.5368 Z -1.0000
G01 X 2.8072 Y 0.5258 Z -1.0000
G01 X 2.7820 Y 0.5366 Z -1.0000
G01 X 2.7820 Y 0.5366 Z -1.0000
G00 Z 5.0000

(End cutting path id: path3127)


(Start cutting path id: path3127)
(Change tool to Default tool)

G00 Z 5.0000
G00 X 2.7276 Y 0.4813

G01 Z -1.0000 F 100.0000(Penetrate)
G01 X 2.7283 Y 0.4880 Z -1.0000 F 3500.0000
G01 X 2.7421 Y 0.4960 Z -1.0000
G01 X 2.7561 Y 0.4954 Z -1.0000
G01 X 2.7587 Y 0.4903 Z -1.0000
G01 X 2.7431 Y 0.4753 Z -1.0000
G01 X 2.7276 Y 0.4814 Z -1.0000
G01 X 2.7276 Y 0.4813 Z -1.0000
G00 Z 5.0000

(End cutting path id: path3127)


(Start cutting path id: path3127)
(Change tool to Default tool)

G00 Z 5.0000
G00 X 2.8108 Y 0.3293

G01 Z -1.0000 F 100.0000(Penetrate)
G01 X 2.8142 Y 0.3408 Z -1.0000 F 3500.0000
G01 X 2.8204 Y 0.3442 Z -1.0000
G01 X 2.8249 Y 0.3407 Z -1.0000
G01 X 2.8243 Y 0.3293 Z -1.0000
G02 X 2.8175 Y 0.3160 Z -1.0000 I -0.0671 J 0.0257
G01 X 2.8147 Y 0.3144 Z -1.0000
G01 X 2.8108 Y 0.3293 Z -1.0000
G01 X 2.8108 Y 0.3293 Z -1.0000
G00 Z 5.0000

(End cutting path id: path3127)


(Start cutting path id: path3127)
(Change tool to Default tool)

G00 Z 5.0000
G00 X 2.7400 Y 0.2937

G01 Z -1.0000 F 100.0000(Penetrate)
G02 X 2.7213 Y 0.3130 Z -1.0000 I 0.0731 J 0.0901 F 3500.0000
G01 X 2.7216 Y 0.3176 Z -1.0000
G01 X 2.7268 Y 0.3184 Z -1.0000
G02 X 2.7563 Y 0.2987 Z -1.0000 I -0.0957 J -0.1757
G01 X 2.7747 Y 0.2748 Z -1.0000
G01 X 2.7644 Y 0.2774 Z -1.0000
G02 X 2.7400 Y 0.2937 Z -1.0000 I 0.0776 J 0.1421
G01 X 2.7400 Y 0.2937 Z -1.0000
G00 Z 5.0000

(End cutting path id: path3127)


(Start cutting path id: path3127)
(Change tool to Default tool)

G00 Z 5.0000
G00 X 2.7860 Y 0.2153

G01 Z -1.0000 F 100.0000(Penetrate)
G01 X 2.7856 Y 0.2220 Z -1.0000 F 3500.0000
G01 X 2.7904 Y 0.2252 Z -1.0000
G01 X 2.7979 Y 0.2222 Z -1.0000
G01 X 2.8009 Y 0.2153 Z -1.0000
G01 X 2.7992 Y 0.2071 Z -1.0000
G01 X 2.7965 Y 0.2054 Z -1.0000
G01 X 2.7929 Y 0.2068 Z -1.0000
G01 X 2.7860 Y 0.2153 Z -1.0000
G01 X 2.7860 Y 0.2153 Z -1.0000
G00 Z 5.0000

(End cutting path id: path3127)


(Start cutting path id: path3127)
(Change tool to Default tool)

G00 Z 5.0000
G00 X 2.6770 Y 0.2054

G01 Z -1.0000 F 100.0000(Penetrate)
G01 X 2.6763 Y 0.2122 Z -1.0000 F 3500.0000
G01 X 2.6807 Y 0.2153 Z -1.0000
G01 X 2.6893 Y 0.2128 Z -1.0000
G01 X 2.6968 Y 0.2054 Z -1.0000
G01 X 2.6974 Y 0.1985 Z -1.0000
G01 X 2.6930 Y 0.1955 Z -1.0000
G01 X 2.6844 Y 0.1979 Z -1.0000
G01 X 2.6770 Y 0.2054 Z -1.0000
G01 X 2.6770 Y 0.2054 Z -1.0000
G00 Z 5.0000

(End cutting path id: path3127)


(Start cutting path id: path3127)
(Change tool to Default tool)

G00 Z 5.0000
G00 X 2.6965 Y 0.1166

G01 Z -1.0000 F 100.0000(Penetrate)
G01 X 2.6977 Y 0.1221 Z -1.0000 F 3500.0000
G01 X 2.7111 Y 0.1261 Z -1.0000
G01 X 2.7201 Y 0.1202 Z -1.0000
G01 X 2.7169 Y 0.1127 Z -1.0000
G01 X 2.7039 Y 0.1115 Z -1.0000
G01 X 2.6965 Y 0.1166 Z -1.0000
G01 X 2.6965 Y 0.1166 Z -1.0000
G00 Z 5.0000

(End cutting path id: path3127)


(Start cutting path id: path3127)
(Change tool to Default tool)

G00 Z 5.0000
G00 X 2.8703 Y 0.1007

G01 Z -1.0000 F 100.0000(Penetrate)
G01 X 2.8731 Y 0.1135 Z -1.0000 F 3500.0000
G01 X 2.8793 Y 0.1205 Z -1.0000
G01 X 2.8831 Y 0.1191 Z -1.0000
G01 X 2.8831 Y 0.1063 Z -1.0000
G01 X 2.8754 Y 0.0973 Z -1.0000
G01 X 2.8703 Y 0.1007 Z -1.0000
G01 X 2.8703 Y 0.1007 Z -1.0000
G00 Z 5.0000

(End cutting path id: path3127)


(Start cutting path id: path3127)
(Change tool to Default tool)

G00 Z 5.0000
G00 X 3.0833 Y 0.1853

G01 Z -1.0000 F 100.0000(Penetrate)
G02 X 3.1018 Y 0.1995 Z -1.0000 I 0.0485 J -0.0439 F 3500.0000
G01 X 3.1102 Y 0.1992 Z -1.0000
G01 X 3.1120 Y 0.1932 Z -1.0000
G01 X 3.1014 Y 0.1799 Z -1.0000
G01 X 3.0856 Y 0.1770 Z -1.0000
G01 X 3.0833 Y 0.1853 Z -1.0000
G01 X 3.0833 Y 0.1853 Z -1.0000
G00 Z 5.0000

(End cutting path id: path3127)


(Start cutting path id: path3127)
(Change tool to Default tool)

G00 Z 5.0000
G00 X 3.1777 Y 0.1360

G01 Z -1.0000 F 100.0000(Penetrate)
G01 X 3.1746 Y 0.1458 Z -1.0000 F 3500.0000
G01 X 3.1849 Y 0.1432 Z -1.0000
G01 X 3.1926 Y 0.1360 Z -1.0000
G01 X 3.1777 Y 0.1360 Z -1.0000
G01 X 3.1777 Y 0.1360 Z -1.0000
G00 Z 5.0000

(End cutting path id: path3127)


(Start cutting path id: path3127)
(Change tool to Default tool)

G00 Z 5.0000
G00 X 3.2603 Y 0.2694

G01 Z -1.0000 F 100.0000(Penetrate)
G01 X 3.2636 Y 0.2779 Z -1.0000 F 3500.0000
G01 X 3.2687 Y 0.2786 Z -1.0000
G01 X 3.2730 Y 0.2723 Z -1.0000
G01 X 3.2715 Y 0.2641 Z -1.0000
G01 X 3.2649 Y 0.2622 Z -1.0000
G01 X 3.2603 Y 0.2693 Z -1.0000
G01 X 3.2603 Y 0.2694 Z -1.0000
G00 Z 5.0000

(End cutting path id: path3127)


(Start cutting path id: path3127)
(Change tool to Default tool)

G00 Z 5.0000
G00 X 3.2931 Y 0.3393

G01 Z -1.0000 F 100.0000(Penetrate)
G01 X 3.2922 Y 0.3507 Z -1.0000 F 3500.0000
G01 X 3.2964 Y 0.3541 Z -1.0000
G01 X 3.3120 Y 0.3442 Z -1.0000
G01 X 3.3078 Y 0.3300 Z -1.0000
G01 X 3.3006 Y 0.3301 Z -1.0000
G01 X 3.2931 Y 0.3392 Z -1.0000
G01 X 3.2931 Y 0.3393 Z -1.0000
G00 Z 5.0000

(End cutting path id: path3127)


(Start cutting path id: path3127)
(Change tool to Default tool)

G00 Z 5.0000
G00 X 3.3314 Y 0.4631

G01 Z -1.0000 F 100.0000(Penetrate)
G01 X 3.3383 Y 0.4716 Z -1.0000 F 3500.0000
G01 X 3.3419 Y 0.4730 Z -1.0000
G01 X 3.3445 Y 0.4713 Z -1.0000
G01 X 3.3463 Y 0.4631 Z -1.0000
G01 X 3.3432 Y 0.4561 Z -1.0000
G01 X 3.3358 Y 0.4532 Z -1.0000
G01 X 3.3309 Y 0.4564 Z -1.0000
G01 X 3.3314 Y 0.4631 Z -1.0000
G01 X 3.3314 Y 0.4631 Z -1.0000
G00 Z 5.0000

(End cutting path id: path3127)


(Start cutting path id: path3127)
(Change tool to Default tool)

G00 Z 5.0000
G00 X 3.2372 Y 0.7116

G01 Z -1.0000 F 100.0000(Penetrate)
G01 X 3.2404 Y 0.7165 Z -1.0000 F 3500.0000
G01 X 3.2471 Y 0.7160 Z -1.0000
G01 X 3.2556 Y 0.7091 Z -1.0000
G01 X 3.2570 Y 0.7055 Z -1.0000
G01 X 3.2553 Y 0.7029 Z -1.0000
G01 X 3.2471 Y 0.7011 Z -1.0000
G01 X 3.2402 Y 0.7041 Z -1.0000
G01 X 3.2372 Y 0.7116 Z -1.0000
G01 X 3.2372 Y 0.7116 Z -1.0000
G00 Z 5.0000

(End cutting path id: path3127)


(Start cutting path id: path3127)
(Change tool to Default tool)

G00 Z 5.0000
G00 X 3.2372 Y 0.8846

G01 Z -1.0000 F 100.0000(Penetrate)
G01 X 3.2411 Y 0.8995 Z -1.0000 F 3500.0000
G01 X 3.2439 Y 0.8980 Z -1.0000
G02 X 3.2507 Y 0.8846 Z -1.0000 I -0.0605 J -0.0391
G01 X 3.2513 Y 0.8733 Z -1.0000
G01 X 3.2468 Y 0.8698 Z -1.0000
G01 X 3.2406 Y 0.8732 Z -1.0000
G01 X 3.2372 Y 0.8846 Z -1.0000
G01 X 3.2372 Y 0.8846 Z -1.0000
G00 Z 5.0000

(End cutting path id: path3127)


(Start cutting path id: path3127)
(Change tool to Default tool)

G00 Z 5.0000
G00 X 3.5123 Y 0.7687

G01 Z -1.0000 F 100.0000(Penetrate)
G01 X 3.5290 Y 0.7790 Z -1.0000 F 3500.0000
G01 X 3.5366 Y 0.7764 Z -1.0000
G01 X 3.5347 Y 0.7613 Z -1.0000
G01 X 3.5074 Y 0.7509 Z -1.0000
G01 X 3.5044 Y 0.7548 Z -1.0000
G01 X 3.5123 Y 0.7687 Z -1.0000
G01 X 3.5123 Y 0.7687 Z -1.0000
G00 Z 5.0000

(End cutting path id: path3127)


(Start cutting path id: path3127)
(Change tool to Default tool)

G00 Z 5.0000
G00 X 3.6632 Y 1.0862

G01 Z -1.0000 F 100.0000(Penetrate)
G02 X 3.6760 Y 1.1034 Z -1.0000 I 0.0572 J -0.0293 F 3500.0000
G01 X 3.6811 Y 1.1033 Z -1.0000
G01 X 3.6821 Y 1.0974 Z -1.0000
G02 X 3.6693 Y 1.0802 Z -1.0000 I -0.0572 J 0.0293
G01 X 3.6642 Y 1.0802 Z -1.0000
G01 X 3.6632 Y 1.0862 Z -1.0000
G01 X 3.6632 Y 1.0862 Z -1.0000
G00 Z 5.0000

(End cutting path id: path3127)


(Start cutting path id: path3127)
(Change tool to Default tool)

G00 Z 5.0000
G00 X 3.7528 Y 1.2267

G01 Z -1.0000 F 100.0000(Penetrate)
G01 X 3.7558 Y 1.2336 Z -1.0000 F 3500.0000
G01 X 3.7633 Y 1.2366 Z -1.0000
G01 X 3.7682 Y 1.2334 Z -1.0000
G01 X 3.7677 Y 1.2267 Z -1.0000
G01 X 3.7607 Y 1.2182 Z -1.0000
G01 X 3.7572 Y 1.2168 Z -1.0000
G01 X 3.7545 Y 1.2185 Z -1.0000
G01 X 3.7528 Y 1.2267 Z -1.0000
G01 X 3.7528 Y 1.2267 Z -1.0000
G00 Z 5.0000

(End cutting path id: path3127)


(Start cutting path id: path3127)
(Change tool to Default tool)

G00 Z 5.0000
G00 X 3.7528 Y 1.2750

G01 Z -1.0000 F 100.0000(Penetrate)
G01 X 3.7558 Y 1.2819 Z -1.0000 F 3500.0000
G01 X 3.7691 Y 1.2901 Z -1.0000
G01 X 3.7738 Y 1.2881 Z -1.0000
G01 X 3.7728 Y 1.2812 Z -1.0000
G01 X 3.7579 Y 1.2713 Z -1.0000
G01 X 3.7528 Y 1.2750 Z -1.0000
G01 X 3.7528 Y 1.2750 Z -1.0000
G00 Z 5.0000

(End cutting path id: path3127)


(Start cutting path id: path3127)
(Change tool to Default tool)

G00 Z 5.0000
G00 X 3.8222 Y 1.3481

G01 Z -1.0000 F 100.0000(Penetrate)
G02 X 3.8369 Y 1.3930 Z -1.0000 I 0.0760 J -0.0000 F 3500.0000
G01 X 3.8516 Y 1.3884 Z -1.0000
G01 X 3.8492 Y 1.3781 Z -1.0000
G01 X 3.8419 Y 1.3703 Z -1.0000
G01 X 3.8362 Y 1.3631 Z -1.0000
G01 X 3.8371 Y 1.3556 Z -1.0000
G01 X 3.8380 Y 1.3481 Z -1.0000
G01 X 3.8323 Y 1.3408 Z -1.0000
G01 X 3.8258 Y 1.3411 Z -1.0000
G01 X 3.8222 Y 1.3481 Z -1.0000
G01 X 3.8222 Y 1.3481 Z -1.0000
G00 Z 5.0000

(End cutting path id: path3127)


(Start cutting path id: path3127)
(Change tool to Default tool)

G00 Z 5.0000
G00 X 3.8836 Y 1.4852

G01 Z -1.0000 F 100.0000(Penetrate)
G02 X 3.9153 Y 1.5300 Z -1.0000 I 0.0898 J -0.0299 F 3500.0000
G01 X 3.9313 Y 1.5222 Z -1.0000
G01 X 3.9298 Y 1.5185 Z -1.0000
G02 X 3.9054 Y 1.4953 Z -1.0000 I -0.2742 J 0.2639
G01 X 3.8836 Y 1.4852 Z -1.0000
G01 X 3.8836 Y 1.4852 Z -1.0000
G00 Z 5.0000

(End cutting path id: path3127)


(Start cutting path id: path3127)
(Change tool to Default tool)

G00 Z 5.0000
G00 X 3.9649 Y 1.6190

G01 Z -1.0000 F 100.0000(Penetrate)
G03 X 3.9701 Y 1.6349 Z -1.0000 I -0.1475 J 0.0568 F 3500.0000
G01 X 3.9710 Y 1.6414 Z -1.0000
G01 X 3.9733 Y 1.6469 Z -1.0000
G02 X 3.9903 Y 1.6602 Z -1.0000 I 0.0711 J -0.0732
G01 X 3.9952 Y 1.6574 Z -1.0000
G01 X 3.9893 Y 1.6378 Z -1.0000
G02 X 3.9696 Y 1.6155 Z -1.0000 I -0.0677 J 0.0400
G01 X 3.9649 Y 1.6190 Z -1.0000
G01 X 3.9649 Y 1.6190 Z -1.0000
G00 Z 5.0000

(End cutting path id: path3127)


(Start cutting path id: path3127)
(Change tool to Default tool)

G00 Z 5.0000
G00 X 4.0205 Y 1.7064

G01 Z -1.0000 F 100.0000(Penetrate)
G01 X 4.0218 Y 1.7096 Z -1.0000 F 3500.0000
G02 X 4.0379 Y 1.7237 Z -1.0000 I 0.1241 J -0.1242
G01 X 4.0414 Y 1.7235 Z -1.0000
G01 X 4.0416 Y 1.7201 Z -1.0000
G02 X 4.0244 Y 1.7043 Z -1.0000 I -0.0554 J 0.0434
G01 X 4.0205 Y 1.7064 Z -1.0000
G01 X 4.0205 Y 1.7064 Z -1.0000
G00 Z 5.0000

(End cutting path id: path3127)


(Start cutting path id: path3127)
(Change tool to Default tool)

G00 Z 5.0000
G00 X 3.9527 Y 1.8612

G01 Z -1.0000 F 100.0000(Penetrate)
G01 X 3.9577 Y 1.8736 Z -1.0000 F 3500.0000
G01 X 3.9601 Y 1.8612 Z -1.0000
G01 X 3.9577 Y 1.8488 Z -1.0000
G01 X 3.9527 Y 1.8612 Z -1.0000
G01 X 3.9527 Y 1.8612 Z -1.0000
G00 Z 5.0000

(End cutting path id: path3127)


(Start cutting path id: path3127)
(Change tool to Default tool)

G00 Z 5.0000
G00 X 4.1153 Y 1.8803

G01 Z -1.0000 F 100.0000(Penetrate)
G01 X 4.1139 Y 1.8886 Z -1.0000 F 3500.0000
G01 X 4.1188 Y 1.8955 Z -1.0000
G01 X 4.1272 Y 1.8968 Z -1.0000
G01 X 4.1340 Y 1.8919 Z -1.0000
G01 X 4.1354 Y 1.8835 Z -1.0000
G01 X 4.1304 Y 1.8767 Z -1.0000
G01 X 4.1221 Y 1.8753 Z -1.0000
G01 X 4.1153 Y 1.8803 Z -1.0000
G01 X 4.1153 Y 1.8803 Z -1.0000
G00 Z 5.0000

(End cutting path id: path3127)


(Start cutting path id: path3127)
(Change tool to Default tool)

G00 Z 5.0000
G00 X 4.1048 Y 1.9605

G01 Z -1.0000 F 100.0000(Penetrate)
G01 X 4.1044 Y 1.9672 Z -1.0000 F 3500.0000
G01 X 4.1092 Y 1.9704 Z -1.0000
G01 X 4.1167 Y 1.9674 Z -1.0000
G01 X 4.1197 Y 1.9605 Z -1.0000
G01 X 4.1179 Y 1.9523 Z -1.0000
G01 X 4.1153 Y 1.9506 Z -1.0000
G01 X 4.1117 Y 1.9520 Z -1.0000
G01 X 4.1048 Y 1.9605 Z -1.0000
G01 X 4.1048 Y 1.9605 Z -1.0000
G00 Z 5.0000

(End cutting path id: path3127)


(Start cutting path id: path3127)
(Change tool to Default tool)

G00 Z 5.0000
G00 X 4.1346 Y 1.9804

G01 Z -1.0000 F 100.0000(Penetrate)
G01 X 4.1421 Y 1.9879 Z -1.0000 F 3500.0000
G01 X 4.1506 Y 1.9903 Z -1.0000
G01 X 4.1551 Y 1.9872 Z -1.0000
G01 X 4.1544 Y 1.9804 Z -1.0000
G01 X 4.1469 Y 1.9729 Z -1.0000
G01 X 4.1383 Y 1.9705 Z -1.0000
G01 X 4.1339 Y 1.9736 Z -1.0000
G01 X 4.1346 Y 1.9804 Z -1.0000
G01 X 4.1346 Y 1.9804 Z -1.0000
G00 Z 5.0000

(End cutting path id: path3127)


(Start cutting path id: path3127)
(Change tool to Default tool)

G00 Z 5.0000
G00 X 4.2338 Y 2.2677

G01 Z -1.0000 F 100.0000(Penetrate)
G01 X 4.2350 Y 2.2715 Z -1.0000 F 3500.0000
G01 X 4.2431 Y 2.2716 Z -1.0000
G01 X 4.2524 Y 2.2628 Z -1.0000
G01 X 4.2492 Y 2.2579 Z -1.0000
G01 X 4.2412 Y 2.2602 Z -1.0000
G01 X 4.2338 Y 2.2677 Z -1.0000
G01 X 4.2338 Y 2.2677 Z -1.0000
G00 Z 5.0000

(End cutting path id: path3127)


(Start cutting path id: path3127)
(Change tool to Default tool)

G00 Z 5.0000
G00 X 4.0420 Y 2.4153

G01 Z -1.0000 F 100.0000(Penetrate)
G01 X 4.0387 Y 2.4227 Z -1.0000 F 3500.0000
G01 X 4.0445 Y 2.4297 Z -1.0000
G01 X 4.0556 Y 2.4290 Z -1.0000
G01 X 4.0602 Y 2.4213 Z -1.0000
G01 X 4.0547 Y 2.4137 Z -1.0000
G01 X 4.0420 Y 2.4154 Z -1.0000
G01 X 4.0420 Y 2.4153 Z -1.0000
G00 Z 5.0000

(End cutting path id: path3127)


(Start cutting path id: path3127)
(Change tool to Default tool)

G00 Z 5.0000
G00 X 3.6834 Y 2.1587

G01 Z -1.0000 F 100.0000(Penetrate)
G01 X 3.6864 Y 2.1657 Z -1.0000 F 3500.0000
G01 X 3.6939 Y 2.1686 Z -1.0000
G01 X 3.6988 Y 2.1655 Z -1.0000
G01 X 3.6983 Y 2.1587 Z -1.0000
G01 X 3.6913 Y 2.1503 Z -1.0000
G01 X 3.6878 Y 2.1488 Z -1.0000
G01 X 3.6851 Y 2.1506 Z -1.0000
G01 X 3.6834 Y 2.1587 Z -1.0000
G01 X 3.6834 Y 2.1587 Z -1.0000
G00 Z 5.0000

(End cutting path id: path3127)


(Start cutting path id: path3127)
(Change tool to Default tool)

G00 Z 5.0000
G00 X 3.2967 Y 2.1389

G01 Z -1.0000 F 100.0000(Penetrate)
G01 X 3.2997 Y 2.1459 Z -1.0000 F 3500.0000
G01 X 3.3072 Y 2.1488 Z -1.0000
G01 X 3.3120 Y 2.1456 Z -1.0000
G01 X 3.3116 Y 2.1389 Z -1.0000
G01 X 3.3046 Y 2.1304 Z -1.0000
G01 X 3.3011 Y 2.1290 Z -1.0000
G01 X 3.2984 Y 2.1308 Z -1.0000
G01 X 3.2967 Y 2.1389 Z -1.0000
G01 X 3.2967 Y 2.1389 Z -1.0000
G00 Z 5.0000

(End cutting path id: path3127)


(Start cutting path id: path3127)
(Change tool to Default tool)

G00 Z 5.0000
G00 X 3.0965 Y 1.9475

G01 Z -1.0000 F 100.0000(Penetrate)
G01 X 3.1089 Y 1.9496 Z -1.0000 F 3500.0000
G01 X 3.1155 Y 1.9467 Z -1.0000
G01 X 3.1025 Y 1.9415 Z -1.0000
G01 X 3.0965 Y 1.9475 Z -1.0000
G01 X 3.0965 Y 1.9475 Z -1.0000
G00 Z 5.0000

(End cutting path id: path3127)


(Start cutting path id: path3127)
(Change tool to Default tool)

G00 Z 5.0000
G00 X 2.8951 Y 2.0200

G01 Z -1.0000 F 100.0000(Penetrate)
G01 X 2.8958 Y 2.0261 Z -1.0000 F 3500.0000
G01 X 2.9050 Y 2.0299 Z -1.0000
G01 X 2.9142 Y 2.0261 Z -1.0000
G01 X 2.9149 Y 2.0200 Z -1.0000
G01 X 2.9081 Y 2.0113 Z -1.0000
G01 X 2.9050 Y 2.0101 Z -1.0000
G01 X 2.9019 Y 2.0114 Z -1.0000
G01 X 2.8951 Y 2.0200 Z -1.0000
G01 X 2.8951 Y 2.0200 Z -1.0000
G00 Z 5.0000

(End cutting path id: path3127)


(Start cutting path id: path3127)
(Change tool to Default tool)

G00 Z 5.0000
G00 X 2.7571 Y 2.0087

G01 Z -1.0000 F 100.0000(Penetrate)
G01 X 2.7530 Y 2.0208 Z -1.0000 F 3500.0000
G01 X 2.7553 Y 2.0272 Z -1.0000
G01 X 2.7662 Y 2.0264 Z -1.0000
G01 X 2.7690 Y 2.0086 Z -1.0000
G01 X 2.7638 Y 2.0049 Z -1.0000
G01 X 2.7571 Y 2.0087 Z -1.0000
G01 X 2.7571 Y 2.0087 Z -1.0000
G00 Z 5.0000

(End cutting path id: path3127)


(Start cutting path id: path3127)
(Change tool to Default tool)

G00 Z 5.0000
G00 X 2.7513 Y 2.3571

G01 Z -1.0000 F 100.0000(Penetrate)
G01 X 2.7543 Y 2.3640 Z -1.0000 F 3500.0000
G01 X 2.7618 Y 2.3670 Z -1.0000
G01 X 2.7667 Y 2.3638 Z -1.0000
G01 X 2.7662 Y 2.3571 Z -1.0000
G01 X 2.7593 Y 2.3486 Z -1.0000
G01 X 2.7557 Y 2.3472 Z -1.0000
G01 X 2.7530 Y 2.3489 Z -1.0000
G01 X 2.7513 Y 2.3571 Z -1.0000
G01 X 2.7513 Y 2.3571 Z -1.0000
G00 Z 5.0000

(End cutting path id: path3127)


(Start cutting path id: path3127)
(Change tool to Default tool)

G00 Z 5.0000
G00 X 2.7969 Y 2.4248

G01 Z -1.0000 F 100.0000(Penetrate)
G01 X 2.7980 Y 2.4294 Z -1.0000 F 3500.0000
G01 X 2.8115 Y 2.4337 Z -1.0000
G01 X 2.8188 Y 2.4293 Z -1.0000
G01 X 2.8161 Y 2.4230 Z -1.0000
G01 X 2.8028 Y 2.4212 Z -1.0000
G01 X 2.7969 Y 2.4248 Z -1.0000
G01 X 2.7969 Y 2.4248 Z -1.0000
G00 Z 5.0000

(End cutting path id: path3127)


(Start cutting path id: path3127)
(Change tool to Default tool)

G00 Z 5.0000
G00 X 2.6423 Y 2.5659

G01 Z -1.0000 F 100.0000(Penetrate)
G01 X 2.6454 Y 2.5707 Z -1.0000 F 3500.0000
G01 X 2.6522 Y 2.5703 Z -1.0000
G01 X 2.6607 Y 2.5633 Z -1.0000
G01 X 2.6621 Y 2.5598 Z -1.0000
G01 X 2.6604 Y 2.5571 Z -1.0000
G01 X 2.6522 Y 2.5554 Z -1.0000
G01 X 2.6453 Y 2.5584 Z -1.0000
G01 X 2.6423 Y 2.5659 Z -1.0000
G01 X 2.6423 Y 2.5659 Z -1.0000
G00 Z 5.0000

(End cutting path id: path3127)


(Start cutting path id: path3127)
(Change tool to Default tool)

G00 Z 5.0000
G00 X 2.9001 Y 2.6155

G01 Z -1.0000 F 100.0000(Penetrate)
G01 X 2.9032 Y 2.6203 Z -1.0000 F 3500.0000
G01 X 2.9100 Y 2.6199 Z -1.0000
G01 X 2.9185 Y 2.6129 Z -1.0000
G01 X 2.9199 Y 2.6094 Z -1.0000
G01 X 2.9182 Y 2.6067 Z -1.0000
G01 X 2.9100 Y 2.6050 Z -1.0000
G01 X 2.9031 Y 2.6079 Z -1.0000
G01 X 2.9001 Y 2.6155 Z -1.0000
G01 X 2.9001 Y 2.6155 Z -1.0000
G00 Z 5.0000

(End cutting path id: path3127)


(Start cutting path id: path3127)
(Change tool to Default tool)

G00 Z 5.0000
G00 X 3.0042 Y 2.8429

G01 Z -1.0000 F 100.0000(Penetrate)
G02 X 3.0309 Y 2.8484 Z -1.0000 I 0.0267 J -0.0621 F 3500.0000
G01 X 3.0339 Y 2.8429 Z -1.0000
G01 X 3.0259 Y 2.8366 Z -1.0000
G02 X 3.0061 Y 2.8337 Z -1.0000 I -0.0179 J 0.0545
G01 X 3.0014 Y 2.8376 Z -1.0000
G01 X 3.0042 Y 2.8429 Z -1.0000
G01 X 3.0042 Y 2.8429 Z -1.0000
G00 Z 5.0000

(End cutting path id: path3127)


(Start cutting path id: path3127)
(Change tool to Default tool)

G00 Z 5.0000
G00 X 3.2975 Y 2.6901

G01 Z -1.0000 F 100.0000(Penetrate)
G01 X 3.3035 Y 2.6961 Z -1.0000 F 3500.0000
G01 X 3.3056 Y 2.6837 Z -1.0000
G01 X 3.3027 Y 2.6771 Z -1.0000
G01 X 3.2975 Y 2.6901 Z -1.0000
G01 X 3.2975 Y 2.6901 Z -1.0000
G00 Z 5.0000

(End cutting path id: path3127)


(Start cutting path id: path3127)
(Change tool to Default tool)

G00 Z 5.0000
G00 X 2.6478 Y 3.0243

G01 Z -1.0000 F 100.0000(Penetrate)
G01 X 2.6558 Y 3.0366 Z -1.0000 F 3500.0000
G01 X 2.6602 Y 3.0365 Z -1.0000
G01 X 2.6613 Y 3.0310 Z -1.0000
G01 X 2.6534 Y 3.0188 Z -1.0000
G01 X 2.6490 Y 3.0188 Z -1.0000
G01 X 2.6478 Y 3.0244 Z -1.0000
G01 X 2.6478 Y 3.0243 Z -1.0000
G00 Z 5.0000

(End cutting path id: path3127)


(Start cutting path id: path3127)
(Change tool to Default tool)

G00 Z 5.0000
G00 X 2.8406 Y 3.2693

G01 Z -1.0000 F 100.0000(Penetrate)
G01 X 2.8435 Y 3.2763 Z -1.0000 F 3500.0000
G01 X 2.8505 Y 3.2792 Z -1.0000
G01 X 2.8575 Y 3.2763 Z -1.0000
G01 X 2.8604 Y 3.2693 Z -1.0000
G01 X 2.8575 Y 3.2623 Z -1.0000
G01 X 2.8505 Y 3.2594 Z -1.0000
G01 X 2.8434 Y 3.2623 Z -1.0000
G01 X 2.8406 Y 3.2693 Z -1.0000
G01 X 2.8406 Y 3.2693 Z -1.0000
G00 Z 5.0000

(End cutting path id: path3127)


(Start cutting path id: path3127)
(Change tool to Default tool)

G00 Z 5.0000
G00 X 3.0397 Y 3.4932

G01 Z -1.0000 F 100.0000(Penetrate)
G01 X 3.0457 Y 3.4992 Z -1.0000 F 3500.0000
G01 X 3.0478 Y 3.4868 Z -1.0000
G01 X 3.0449 Y 3.4802 Z -1.0000
G01 X 3.0397 Y 3.4932 Z -1.0000
G01 X 3.0397 Y 3.4932 Z -1.0000
G00 Z 5.0000

(End cutting path id: path3127)


(Start cutting path id: path3127)
(Change tool to Default tool)

G00 Z 5.0000
G00 X 3.3165 Y 3.6810

G01 Z -1.0000 F 100.0000(Penetrate)
G01 X 3.3199 Y 3.6925 Z -1.0000 F 3500.0000
G01 X 3.3261 Y 3.6959 Z -1.0000
G01 X 3.3306 Y 3.6924 Z -1.0000
G01 X 3.3300 Y 3.6810 Z -1.0000
G02 X 3.3232 Y 3.6677 Z -1.0000 I -0.0671 J 0.0257
G01 X 3.3204 Y 3.6661 Z -1.0000
G01 X 3.3165 Y 3.6810 Z -1.0000
G01 X 3.3165 Y 3.6810 Z -1.0000
G00 Z 5.0000

(End cutting path id: path3127)


(Start cutting path id: path3127)
(Change tool to Default tool)

G00 Z 5.0000
G00 X 3.5793 Y 3.7752

G01 Z -1.0000 F 100.0000(Penetrate)
G01 X 3.5788 Y 3.7819 Z -1.0000 F 3500.0000
G01 X 3.5836 Y 3.7851 Z -1.0000
G01 X 3.5912 Y 3.7821 Z -1.0000
G01 X 3.5941 Y 3.7752 Z -1.0000
G01 X 3.5924 Y 3.7670 Z -1.0000
G01 X 3.5898 Y 3.7653 Z -1.0000
G01 X 3.5862 Y 3.7667 Z -1.0000
G01 X 3.5793 Y 3.7752 Z -1.0000
G01 X 3.5793 Y 3.7752 Z -1.0000
G00 Z 5.0000

(End cutting path id: path3127)


(Start cutting path id: path3127)
(Change tool to Default tool)

G00 Z 5.0000
G00 X 4.3279 Y 3.1503

G01 Z -1.0000 F 100.0000(Penetrate)
G01 X 4.3309 Y 3.1573 Z -1.0000 F 3500.0000
G01 X 4.3384 Y 3.1602 Z -1.0000
G01 X 4.3433 Y 3.1570 Z -1.0000
G01 X 4.3428 Y 3.1503 Z -1.0000
G01 X 4.3358 Y 3.1418 Z -1.0000
G01 X 4.3323 Y 3.1404 Z -1.0000
G01 X 4.3296 Y 3.1421 Z -1.0000
G01 X 4.3279 Y 3.1503 Z -1.0000
G01 X 4.3279 Y 3.1503 Z -1.0000
G00 Z 5.0000

(End cutting path id: path3127)


(Start cutting path id: path3127)
(Change tool to Default tool)

G00 Z 5.0000
G00 X 4.5361 Y 2.7834

G01 Z -1.0000 F 100.0000(Penetrate)
G01 X 4.5392 Y 2.7903 Z -1.0000 F 3500.0000
G01 X 4.5466 Y 2.7933 Z -1.0000
G01 X 4.5515 Y 2.7901 Z -1.0000
G01 X 4.5510 Y 2.7834 Z -1.0000
G01 X 4.5441 Y 2.7749 Z -1.0000
G01 X 4.5405 Y 2.7735 Z -1.0000
G01 X 4.5379 Y 2.7752 Z -1.0000
G01 X 4.5361 Y 2.7834 Z -1.0000
G01 X 4.5361 Y 2.7834 Z -1.0000
G00 Z 5.0000

(End cutting path id: path3127)


(Start cutting path id: path3127)
(Change tool to Default tool)

G00 Z 5.0000
G00 X 4.4869 Y 2.6502

G01 Z -1.0000 F 100.0000(Penetrate)
G01 X 4.4890 Y 2.6599 Z -1.0000 F 3500.0000
G02 X 4.5011 Y 2.6799 Z -1.0000 I 0.1057 J -0.0507
G01 X 4.5160 Y 2.6886 Z -1.0000
G01 X 4.5139 Y 2.6788 Z -1.0000
G02 X 4.5018 Y 2.6589 Z -1.0000 I -0.1057 J 0.0507
G01 X 4.4869 Y 2.6502 Z -1.0000
G01 X 4.4869 Y 2.6502 Z -1.0000
G00 Z 5.0000

(End cutting path id: path3127)


(Start cutting path id: path3127)
(Change tool to Default tool)

G00 Z 5.0000
G00 X 4.8793 Y 2.3851

G01 Z -1.0000 F 100.0000(Penetrate)
G01 X 4.8799 Y 2.3902 Z -1.0000 F 3500.0000
G01 X 4.8881 Y 2.3934 Z -1.0000
G01 X 4.8963 Y 2.3902 Z -1.0000
G01 X 4.8970 Y 2.3851 Z -1.0000
G01 X 4.8913 Y 2.3781 Z -1.0000
G01 X 4.8881 Y 2.3768 Z -1.0000
G01 X 4.8850 Y 2.3781 Z -1.0000
G01 X 4.8793 Y 2.3851 Z -1.0000
G01 X 4.8793 Y 2.3851 Z -1.0000
G00 Z 5.0000

(End cutting path id: path3127)


(Start cutting path id: path3127)
(Change tool to Default tool)

G00 Z 5.0000
G00 X 4.8782 Y 2.2678

G01 Z -1.0000 F 100.0000(Penetrate)
G01 X 4.8852 Y 2.2763 Z -1.0000 F 3500.0000
G01 X 4.8887 Y 2.2777 Z -1.0000
G01 X 4.8914 Y 2.2760 Z -1.0000
G01 X 4.8931 Y 2.2678 Z -1.0000
G01 X 4.8901 Y 2.2609 Z -1.0000
G01 X 4.8826 Y 2.2579 Z -1.0000
G01 X 4.8777 Y 2.2611 Z -1.0000
G01 X 4.8782 Y 2.2678 Z -1.0000
G01 X 4.8782 Y 2.2678 Z -1.0000
G00 Z 5.0000

(End cutting path id: path3127)


(Start cutting path id: path3127)
(Change tool to Default tool)

G00 Z 5.0000
G00 X 4.8138 Y 2.2380

G01 Z -1.0000 F 100.0000(Penetrate)
G01 X 4.8167 Y 2.2450 Z -1.0000 F 3500.0000
G01 X 4.8237 Y 2.2479 Z -1.0000
G01 X 4.8307 Y 2.2450 Z -1.0000
G01 X 4.8336 Y 2.2380 Z -1.0000
G01 X 4.8307 Y 2.2310 Z -1.0000
G01 X 4.8237 Y 2.2281 Z -1.0000
G01 X 4.8167 Y 2.2311 Z -1.0000
G01 X 4.8138 Y 2.2380 Z -1.0000
G01 X 4.8138 Y 2.2380 Z -1.0000
G00 Z 5.0000

(End cutting path id: path3127)


(Start cutting path id: path3127)
(Change tool to Default tool)

G00 Z 5.0000
G00 X 4.7642 Y 2.0893

G01 Z -1.0000 F 100.0000(Penetrate)
G01 X 4.7672 Y 2.0963 Z -1.0000 F 3500.0000
G01 X 4.7747 Y 2.0992 Z -1.0000
G01 X 4.7796 Y 2.0961 Z -1.0000
G01 X 4.7791 Y 2.0893 Z -1.0000
G01 X 4.7721 Y 2.0808 Z -1.0000
G01 X 4.7686 Y 2.0794 Z -1.0000
G01 X 4.7659 Y 2.0812 Z -1.0000
G01 X 4.7642 Y 2.0893 Z -1.0000
G01 X 4.7642 Y 2.0893 Z -1.0000
G00 Z 5.0000

(End cutting path id: path3127)


(Start cutting path id: path3127)
(Change tool to Default tool)

G00 Z 5.0000
G00 X 4.5766 Y 1.7282

G01 Z -1.0000 F 100.0000(Penetrate)
G01 X 4.5826 Y 1.7342 Z -1.0000 F 3500.0000
G01 X 4.5847 Y 1.7218 Z -1.0000
G01 X 4.5818 Y 1.7152 Z -1.0000
G01 X 4.5766 Y 1.7283 Z -1.0000
G01 X 4.5766 Y 1.7282 Z -1.0000
G00 Z 5.0000

(End cutting path id: path3127)


(Start cutting path id: path3127)
(Change tool to Default tool)

G00 Z 5.0000
G00 X 4.5122 Y 1.5921

G01 Z -1.0000 F 100.0000(Penetrate)
G01 X 4.5081 Y 1.6042 Z -1.0000 F 3500.0000
G01 X 4.5104 Y 1.6106 Z -1.0000
G01 X 4.5213 Y 1.6098 Z -1.0000
G01 X 4.5241 Y 1.5921 Z -1.0000
G01 X 4.5189 Y 1.5883 Z -1.0000
G01 X 4.5122 Y 1.5921 Z -1.0000
G01 X 4.5122 Y 1.5921 Z -1.0000
G00 Z 5.0000

(End cutting path id: path3127)


(Start cutting path id: path3127)
(Change tool to Default tool)

G00 Z 5.0000
G00 X 4.4628 Y 1.4431

G01 Z -1.0000 F 100.0000(Penetrate)
G01 X 4.4634 Y 1.4481 Z -1.0000 F 3500.0000
G01 X 4.4717 Y 1.4514 Z -1.0000
G01 X 4.4799 Y 1.4482 Z -1.0000
G01 X 4.4806 Y 1.4431 Z -1.0000
G01 X 4.4748 Y 1.4360 Z -1.0000
G01 X 4.4717 Y 1.4348 Z -1.0000
G01 X 4.4686 Y 1.4360 Z -1.0000
G01 X 4.4628 Y 1.4431 Z -1.0000
G01 X 4.4628 Y 1.4431 Z -1.0000
G00 Z 5.0000

(End cutting path id: path3127)


(Start cutting path id: path3127)
(Change tool to Default tool)

G00 Z 5.0000
G00 X 4.1707 Y 0.8092

G01 Z -1.0000 F 100.0000(Penetrate)
G01 X 4.1646 Y 0.8176 Z -1.0000 F 3500.0000
G01 X 4.1672 Y 0.8238 Z -1.0000
G01 X 4.1751 Y 0.8240 Z -1.0000
G01 X 4.1828 Y 0.8151 Z -1.0000
G01 X 4.1802 Y 0.8086 Z -1.0000
G01 X 4.1707 Y 0.8091 Z -1.0000
G01 X 4.1707 Y 0.8092 Z -1.0000
G00 Z 5.0000

(End cutting path id: path3127)


(Start cutting path id: path3127)
(Change tool to Default tool)

G00 Z 5.0000
G00 X 4.1246 Y 0.4532

G01 Z -1.0000 F 100.0000(Penetrate)
G01 X 4.1242 Y 0.4600 Z -1.0000 F 3500.0000
G01 X 4.1290 Y 0.4631 Z -1.0000
G01 X 4.1366 Y 0.4601 Z -1.0000
G01 X 4.1395 Y 0.4532 Z -1.0000
G01 X 4.1378 Y 0.4450 Z -1.0000
G01 X 4.1351 Y 0.4433 Z -1.0000
G01 X 4.1316 Y 0.4447 Z -1.0000
G01 X 4.1246 Y 0.4532 Z -1.0000
G01 X 4.1246 Y 0.4532 Z -1.0000
G00 Z 5.0000

(End cutting path id: path3127)


(Start cutting path id: path3127)
(Change tool to Default tool)

G00 Z 5.0000
G00 X 3.9809 Y 0.1728

G01 Z -1.0000 F 100.0000(Penetrate)
G01 X 3.9951 Y 0.2041 Z -1.0000 F 3500.0000
G01 X 4.0159 Y 0.2034 Z -1.0000
G01 X 4.0163 Y 0.1987 Z -1.0000
G02 X 4.0008 Y 0.1806 Z -1.0000 I -0.0798 J 0.0528
G02 X 3.9843 Y 0.1704 Z -1.0000 I -0.0359 J 0.0397
G01 X 3.9809 Y 0.1728 Z -1.0000
G01 X 3.9809 Y 0.1728 Z -1.0000
G00 Z 5.0000

(End cutting path id: path3127)


(Start cutting path id: path3127)
(Change tool to Default tool)

G00 Z 5.0000
G00 X 3.9493 Y 0.1725

G01 Z -1.0000 F 100.0000(Penetrate)
G01 X 3.9616 Y 0.1746 Z -1.0000 F 3500.0000
G01 X 3.9683 Y 0.1717 Z -1.0000
G01 X 3.9552 Y 0.1665 Z -1.0000
G01 X 3.9493 Y 0.1725 Z -1.0000
G01 X 3.9493 Y 0.1725 Z -1.0000
G00 Z 5.0000

(End cutting path id: path3127)


(Start cutting path id: path3127)
(Change tool to Default tool)

G00 Z 5.0000
G00 X 4.9244 Y 0.5722

G01 Z -1.0000 F 100.0000(Penetrate)
G01 X 4.9294 Y 0.5846 Z -1.0000 F 3500.0000
G01 X 4.9318 Y 0.5723 Z -1.0000
G01 X 4.9294 Y 0.5598 Z -1.0000
G01 X 4.9244 Y 0.5722 Z -1.0000
G01 X 4.9244 Y 0.5722 Z -1.0000
G00 Z 5.0000

(End cutting path id: path3127)


(Start cutting path id: path3127)
(Change tool to Default tool)

G00 Z 5.0000
G00 X 3.2669 Y 1.2959

G01 Z -1.0000 F 100.0000(Penetrate)
G01 X 3.2699 Y 1.3029 Z -1.0000 F 3500.0000
G01 X 3.2769 Y 1.3058 Z -1.0000
G01 X 3.2839 Y 1.3028 Z -1.0000
G01 X 3.2868 Y 1.2959 Z -1.0000
G01 X 3.2839 Y 1.2888 Z -1.0000
G01 X 3.2769 Y 1.2860 Z -1.0000
G01 X 3.2698 Y 1.2889 Z -1.0000
G01 X 3.2669 Y 1.2959 Z -1.0000
G01 X 3.2669 Y 1.2959 Z -1.0000
G00 Z 5.0000

(End cutting path id: path3127)


(Start cutting path id: path3127)
(Change tool to Default tool)

G00 Z 5.0000
G00 X 3.2620 Y 1.3755

G01 Z -1.0000 F 100.0000(Penetrate)
G01 X 3.2689 Y 1.3839 Z -1.0000 F 3500.0000
G01 X 3.2725 Y 1.3854 Z -1.0000
G01 X 3.2751 Y 1.3836 Z -1.0000
G01 X 3.2769 Y 1.3755 Z -1.0000
G01 X 3.2738 Y 1.3685 Z -1.0000
G01 X 3.2664 Y 1.3656 Z -1.0000
G01 X 3.2615 Y 1.3687 Z -1.0000
G01 X 3.2620 Y 1.3755 Z -1.0000
G01 X 3.2620 Y 1.3755 Z -1.0000
G00 Z 5.0000

(End cutting path id: path3127)


(Start cutting path id: path3127)
(Change tool to Default tool)

G00 Z 5.0000
G00 X 3.2281 Y 1.2126

G01 Z -1.0000 F 100.0000(Penetrate)
G01 X 3.2340 Y 1.2186 Z -1.0000 F 3500.0000
G01 X 3.2362 Y 1.2062 Z -1.0000
G01 X 3.2333 Y 1.1996 Z -1.0000
G01 X 3.2281 Y 1.2126 Z -1.0000
G01 X 3.2281 Y 1.2126 Z -1.0000
G00 Z 5.0000

(End cutting path id: path3127)


(Start cutting path id: path3127)
(Change tool to Default tool)

G00 Z 5.0000
G00 X 2.7523 Y 0.9268

G01 Z -1.0000 F 100.0000(Penetrate)
G01 X 2.7448 Y 0.9423 Z -1.0000 F 3500.0000
G01 X 2.7265 Y 0.9491 Z -1.0000
G01 X 2.7017 Y 0.9532 Z -1.0000
G01 X 2.7011 Y 0.9573 Z -1.0000
G03 X 2.6957 Y 0.9731 Z -1.0000 I -0.2232 J -0.0679
G01 X 2.6954 Y 0.9848 Z -1.0000
G01 X 2.7007 Y 0.9887 Z -1.0000
G01 X 2.7080 Y 0.9851 Z -1.0000
G01 X 2.7117 Y 0.9745 Z -1.0000
G01 X 2.7170 Y 0.9649 Z -1.0000
G03 X 2.7395 Y 0.9571 Z -1.0000 I 0.0285 J 0.0458
G01 X 2.7570 Y 0.9471 Z -1.0000
G01 X 2.7603 Y 0.9292 Z -1.0000
G01 X 2.7556 Y 0.9244 Z -1.0000
G01 X 2.7523 Y 0.9267 Z -1.0000
G01 X 2.7523 Y 0.9268 Z -1.0000
G00 Z 5.0000

(End cutting path id: path3127)


(Start cutting path id: path3127)
(Change tool to Default tool)

G00 Z 5.0000
G00 X 2.7216 Y 0.9001

G01 Z -1.0000 F 100.0000(Penetrate)
G01 X 2.7257 Y 0.9132 Z -1.0000 F 3500.0000
G01 X 2.7315 Y 0.9144 Z -1.0000
G01 X 2.7385 Y 0.9066 Z -1.0000
G01 X 2.7414 Y 0.8940 Z -1.0000
G01 X 2.7380 Y 0.8831 Z -1.0000
G01 X 2.7315 Y 0.8797 Z -1.0000
G01 X 2.7254 Y 0.8835 Z -1.0000
G01 X 2.7216 Y 0.9001 Z -1.0000
G01 X 2.7216 Y 0.9001 Z -1.0000
G00 Z 5.0000

(End cutting path id: path3127)


(Start cutting path id: path3127)
(Change tool to Default tool)

G00 Z 5.0000
G00 X 2.8526 Y 0.7766

G01 Z -1.0000 F 100.0000(Penetrate)
G01 X 2.8470 Y 0.7873 Z -1.0000 F 3500.0000
G01 X 2.8495 Y 0.7904 Z -1.0000
G01 X 2.8699 Y 0.7806 Z -1.0000
G01 X 2.8688 Y 0.7660 Z -1.0000
G01 X 2.8655 Y 0.7657 Z -1.0000
G02 X 2.8526 Y 0.7765 Z -1.0000 I 0.0357 J 0.0554
G01 X 2.8526 Y 0.7766 Z -1.0000
G00 Z 5.0000

(End cutting path id: path3127)


(Start cutting path id: path3127)
(Change tool to Default tool)

G00 Z 5.0000
G00 X 2.8784 Y 0.6980

G01 Z -1.0000 F 100.0000(Penetrate)
G01 X 2.8908 Y 0.7002 Z -1.0000 F 3500.0000
G01 X 2.8974 Y 0.6973 Z -1.0000
G01 X 2.8844 Y 0.6921 Z -1.0000
G01 X 2.8784 Y 0.6981 Z -1.0000
G01 X 2.8784 Y 0.6980 Z -1.0000
G00 Z 5.0000

(End cutting path id: path3127)


(Start cutting path id: path3127)
(Change tool to Default tool)

G00 Z 5.0000
G00 X 2.5034 Y 0.2549

G01 Z -1.0000 F 100.0000(Penetrate)
G01 X 2.5064 Y 0.2619 Z -1.0000 F 3500.0000
G01 X 2.5139 Y 0.2648 Z -1.0000
G01 X 2.5188 Y 0.2617 Z -1.0000
G01 X 2.5183 Y 0.2549 Z -1.0000
G01 X 2.5114 Y 0.2464 Z -1.0000
G01 X 2.5078 Y 0.2450 Z -1.0000
G01 X 2.5051 Y 0.2468 Z -1.0000
G01 X 2.5034 Y 0.2549 Z -1.0000
G01 X 2.5034 Y 0.2549 Z -1.0000
G00 Z 5.0000

(End cutting path id: path3127)


(Start cutting path id: path3127)
(Change tool to Default tool)

G00 Z 5.0000
G00 X 2.5193 Y 0.2120

G01 Z -1.0000 F 100.0000(Penetrate)
G01 X 2.5337 Y 0.2361 Z -1.0000 F 3500.0000
G01 X 2.5457 Y 0.2355 Z -1.0000
G01 X 2.5456 Y 0.2293 Z -1.0000
G01 X 2.5379 Y 0.2282 Z -1.0000
G01 X 2.5332 Y 0.2164 Z -1.0000
G01 X 2.5298 Y 0.1985 Z -1.0000
G01 X 2.5229 Y 0.1902 Z -1.0000
G01 X 2.5186 Y 0.1922 Z -1.0000
G01 X 2.5193 Y 0.2120 Z -1.0000
G01 X 2.5193 Y 0.2120 Z -1.0000
G00 Z 5.0000

(End cutting path id: path3127)


(Start cutting path id: path3127)
(Change tool to Default tool)

G00 Z 5.0000
G00 X 2.3601 Y 0.1848

G01 Z -1.0000 F 100.0000(Penetrate)
G01 X 2.3589 Y 0.1930 Z -1.0000 F 3500.0000
G01 X 2.3644 Y 0.2003 Z -1.0000
G01 X 2.3707 Y 0.1997 Z -1.0000
G01 X 2.3745 Y 0.1911 Z -1.0000
G01 X 2.3686 Y 0.1822 Z -1.0000
G01 X 2.3601 Y 0.1849 Z -1.0000
G01 X 2.3601 Y 0.1848 Z -1.0000
G00 Z 5.0000

(End cutting path id: path3127)


(Start cutting path id: path3127)
(Change tool to Default tool)

G00 Z 5.0000
G00 X 2.1438 Y 1.3269

G01 Z -1.0000 F 100.0000(Penetrate)
G01 X 2.1561 Y 1.3349 Z -1.0000 F 3500.0000
G01 X 2.1616 Y 1.3337 Z -1.0000
G01 X 2.1616 Y 1.3293 Z -1.0000
G01 X 2.1494 Y 1.3214 Z -1.0000
G01 X 2.1438 Y 1.3226 Z -1.0000
G01 X 2.1438 Y 1.3270 Z -1.0000
G01 X 2.1438 Y 1.3269 Z -1.0000
G00 Z 5.0000

(End cutting path id: path3127)


(Start cutting path id: path3127)
(Change tool to Default tool)

G00 Z 5.0000
G00 X 2.1049 Y 1.4119

G01 Z -1.0000 F 100.0000(Penetrate)
G01 X 2.1173 Y 1.4140 Z -1.0000 F 3500.0000
G01 X 2.1239 Y 1.4111 Z -1.0000
G01 X 2.1109 Y 1.4059 Z -1.0000
G01 X 2.1049 Y 1.4119 Z -1.0000
G01 X 2.1049 Y 1.4119 Z -1.0000
G00 Z 5.0000

(End cutting path id: path3127)


(Start cutting path id: path3127)
(Change tool to Default tool)

G00 Z 5.0000
G00 X 2.0572 Y 1.4448

G01 Z -1.0000 F 100.0000(Penetrate)
G01 X 2.0602 Y 1.4517 Z -1.0000 F 3500.0000
G01 X 2.0677 Y 1.4547 Z -1.0000
G01 X 2.0726 Y 1.4515 Z -1.0000
G01 X 2.0721 Y 1.4448 Z -1.0000
G01 X 2.0652 Y 1.4363 Z -1.0000
G01 X 2.0616 Y 1.4349 Z -1.0000
G01 X 2.0589 Y 1.4366 Z -1.0000
G01 X 2.0572 Y 1.4448 Z -1.0000
G01 X 2.0572 Y 1.4448 Z -1.0000
G00 Z 5.0000

(End cutting path id: path3127)


(Start cutting path id: path3127)
(Change tool to Default tool)

G00 Z 5.0000
G00 X 2.0473 Y 1.3743

G01 Z -1.0000 F 100.0000(Penetrate)
G01 X 2.0503 Y 1.3812 Z -1.0000 F 3500.0000
G01 X 2.0630 Y 1.3892 Z -1.0000
G01 X 2.0732 Y 1.3875 Z -1.0000
G01 X 2.0735 Y 1.3803 Z -1.0000
G01 X 2.0536 Y 1.3693 Z -1.0000
G01 X 2.0473 Y 1.3743 Z -1.0000
G01 X 2.0473 Y 1.3743 Z -1.0000
G00 Z 5.0000

(End cutting path id: path3127)


(Start cutting path id: path3127)
(Change tool to Default tool)

G00 Z 5.0000
G00 X 1.9561 Y 1.4369

G01 Z -1.0000 F 100.0000(Penetrate)
G01 X 1.9680 Y 1.4418 Z -1.0000 F 3500.0000
G01 X 1.9799 Y 1.4369 Z -1.0000
G01 X 1.9799 Y 1.4299 Z -1.0000
G01 X 1.9680 Y 1.4250 Z -1.0000
G01 X 1.9561 Y 1.4299 Z -1.0000
G01 X 1.9561 Y 1.4369 Z -1.0000
G01 X 1.9561 Y 1.4369 Z -1.0000
G00 Z 5.0000

(End cutting path id: path3127)


(Start cutting path id: path3127)
(Change tool to Default tool)

G00 Z 5.0000
G00 X 2.1446 Y 1.5012

G01 Z -1.0000 F 100.0000(Penetrate)
G01 X 2.1570 Y 1.5033 Z -1.0000 F 3500.0000
G01 X 2.1636 Y 1.5004 Z -1.0000
G01 X 2.1506 Y 1.4952 Z -1.0000
G01 X 2.1446 Y 1.5012 Z -1.0000
G01 X 2.1446 Y 1.5012 Z -1.0000
G00 Z 5.0000

(End cutting path id: path3127)


(Start cutting path id: path3127)
(Change tool to Default tool)

G00 Z 5.0000
G00 X 2.2060 Y 1.4553

G01 Z -1.0000 F 100.0000(Penetrate)
G01 X 2.2091 Y 1.4602 Z -1.0000 F 3500.0000
G01 X 2.2159 Y 1.4597 Z -1.0000
G01 X 2.2244 Y 1.4528 Z -1.0000
G01 X 2.2258 Y 1.4492 Z -1.0000
G01 X 2.2241 Y 1.4466 Z -1.0000
G01 X 2.2159 Y 1.4448 Z -1.0000
G01 X 2.2090 Y 1.4478 Z -1.0000
G01 X 2.2060 Y 1.4553 Z -1.0000
G01 X 2.2060 Y 1.4553 Z -1.0000
G00 Z 5.0000

(End cutting path id: path3127)


(Start cutting path id: path3127)
(Change tool to Default tool)

G00 Z 5.0000
G00 X 2.1316 Y 1.9705

G01 Z -1.0000 F 100.0000(Penetrate)
G01 X 2.1322 Y 1.9766 Z -1.0000 F 3500.0000
G01 X 2.1409 Y 1.9804 Z -1.0000
G01 X 2.1529 Y 1.9768 Z -1.0000
G01 X 2.1564 Y 1.9705 Z -1.0000
G01 X 2.1535 Y 1.9633 Z -1.0000
G01 X 2.1471 Y 1.9606 Z -1.0000
G01 X 2.1390 Y 1.9629 Z -1.0000
G01 X 2.1316 Y 1.9705 Z -1.0000
G01 X 2.1316 Y 1.9705 Z -1.0000
G00 Z 5.0000

(End cutting path id: path3127)


(Start cutting path id: path3127)
(Change tool to Default tool)

G00 Z 5.0000
G00 X 1.9928 Y 1.9804

G01 Z -1.0000 F 100.0000(Penetrate)
G01 X 1.9934 Y 1.9866 Z -1.0000 F 3500.0000
G01 X 2.0021 Y 1.9903 Z -1.0000
G01 X 2.0141 Y 1.9868 Z -1.0000
G01 X 2.0176 Y 1.9804 Z -1.0000
G01 X 2.0147 Y 1.9733 Z -1.0000
G01 X 2.0082 Y 1.9705 Z -1.0000
G01 X 2.0002 Y 1.9729 Z -1.0000
G01 X 1.9928 Y 1.9804 Z -1.0000
G01 X 1.9928 Y 1.9804 Z -1.0000
G00 Z 5.0000

(End cutting path id: path3127)


(Start cutting path id: path3127)
(Change tool to Default tool)

G00 Z 5.0000
G00 X 1.9531 Y 1.9207

G01 Z -1.0000 F 100.0000(Penetrate)
G01 X 1.9606 Y 1.9282 Z -1.0000 F 3500.0000
G01 X 1.9692 Y 1.9306 Z -1.0000
G01 X 1.9736 Y 1.9275 Z -1.0000
G01 X 1.9729 Y 1.9207 Z -1.0000
G01 X 1.9654 Y 1.9132 Z -1.0000
G01 X 1.9569 Y 1.9108 Z -1.0000
G01 X 1.9524 Y 1.9139 Z -1.0000
G01 X 1.9531 Y 1.9207 Z -1.0000
G01 X 1.9531 Y 1.9207 Z -1.0000
G00 Z 5.0000

(End cutting path id: path3127)


(Start cutting path id: path3127)
(Change tool to Default tool)

G00 Z 5.0000
G00 X 1.8986 Y 1.9506

G01 Z -1.0000 F 100.0000(Penetrate)
G01 X 1.9016 Y 1.9575 Z -1.0000 F 3500.0000
G01 X 1.9091 Y 1.9605 Z -1.0000
G01 X 1.9139 Y 1.9573 Z -1.0000
G01 X 1.9134 Y 1.9506 Z -1.0000
G01 X 1.9065 Y 1.9421 Z -1.0000
G01 X 1.9029 Y 1.9407 Z -1.0000
G01 X 1.9003 Y 1.9424 Z -1.0000
G01 X 1.8986 Y 1.9506 Z -1.0000
G01 X 1.8986 Y 1.9506 Z -1.0000
G00 Z 5.0000

(End cutting path id: path3127)


(Start cutting path id: path3127)
(Change tool to Default tool)

G00 Z 5.0000
G00 X 1.9818 Y 2.0613

G01 Z -1.0000 F 100.0000(Penetrate)
G01 X 1.9831 Y 2.0660 Z -1.0000 F 3500.0000
G01 X 1.9971 Y 2.0696 Z -1.0000
G01 X 2.0142 Y 2.0663 Z -1.0000
G01 X 2.0176 Y 2.0613 Z -1.0000
G01 X 2.0145 Y 2.0561 Z -1.0000
G01 X 2.0023 Y 2.0530 Z -1.0000
G01 X 1.9885 Y 2.0556 Z -1.0000
G01 X 1.9818 Y 2.0613 Z -1.0000
G01 X 1.9818 Y 2.0613 Z -1.0000
G00 Z 5.0000

(End cutting path id: path3127)


(Start cutting path id: path3127)
(Change tool to Default tool)

G00 Z 5.0000
G00 X 2.2555 Y 2.1786

G01 Z -1.0000 F 100.0000(Penetrate)
G01 X 2.2585 Y 2.1856 Z -1.0000 F 3500.0000
G01 X 2.2655 Y 2.1885 Z -1.0000
G01 X 2.2725 Y 2.1856 Z -1.0000
G01 X 2.2754 Y 2.1786 Z -1.0000
G01 X 2.2725 Y 2.1716 Z -1.0000
G01 X 2.2655 Y 2.1687 Z -1.0000
G01 X 2.2584 Y 2.1716 Z -1.0000
G01 X 2.2555 Y 2.1786 Z -1.0000
G01 X 2.2555 Y 2.1786 Z -1.0000
G00 Z 5.0000

(End cutting path id: path3127)


(Start cutting path id: path3127)
(Change tool to Default tool)

G00 Z 5.0000
G00 X 2.3051 Y 2.0299

G01 Z -1.0000 F 100.0000(Penetrate)
G01 X 2.3080 Y 2.0369 Z -1.0000 F 3500.0000
G01 X 2.3150 Y 2.0398 Z -1.0000
G01 X 2.3221 Y 2.0368 Z -1.0000
G01 X 2.3250 Y 2.0299 Z -1.0000
G01 X 2.3220 Y 2.0228 Z -1.0000
G01 X 2.3150 Y 2.0200 Z -1.0000
G01 X 2.3080 Y 2.0229 Z -1.0000
G01 X 2.3051 Y 2.0299 Z -1.0000
G01 X 2.3051 Y 2.0299 Z -1.0000
G00 Z 5.0000

(End cutting path id: path3127)


(Start cutting path id: path3127)
(Change tool to Default tool)

G00 Z 5.0000
G00 X 2.1484 Y 2.3224

G01 Z -1.0000 F 100.0000(Penetrate)
G01 X 2.1533 Y 2.3346 Z -1.0000 F 3500.0000
G02 X 2.1555 Y 2.3172 Z -1.0000 I -0.0633 J -0.0166
G01 X 2.1530 Y 2.3048 Z -1.0000
G01 X 2.1484 Y 2.3224 Z -1.0000
G01 X 2.1484 Y 2.3224 Z -1.0000
G00 Z 5.0000

(End cutting path id: path3127)


(Start cutting path id: path3127)
(Change tool to Default tool)

G00 Z 5.0000
G00 X 1.7712 Y 2.3075

G01 Z -1.0000 F 100.0000(Penetrate)
G01 X 1.7762 Y 2.3199 Z -1.0000 F 3500.0000
G01 X 1.7786 Y 2.3075 Z -1.0000
G01 X 1.7762 Y 2.2951 Z -1.0000
G01 X 1.7712 Y 2.3075 Z -1.0000
G01 X 1.7712 Y 2.3075 Z -1.0000
G00 Z 5.0000

(End cutting path id: path3127)


(Start cutting path id: path3127)
(Change tool to Default tool)

G00 Z 5.0000
G00 X 1.6705 Y 1.9946

G01 Z -1.0000 F 100.0000(Penetrate)
G01 X 1.6740 Y 2.0065 Z -1.0000 F 3500.0000
G01 X 1.6804 Y 2.0100 Z -1.0000
G01 X 1.6875 Y 2.0072 Z -1.0000
G01 X 1.6904 Y 2.0007 Z -1.0000
G01 X 1.6880 Y 1.9927 Z -1.0000
G01 X 1.6804 Y 1.9853 Z -1.0000
G01 X 1.6743 Y 1.9859 Z -1.0000
G01 X 1.6705 Y 1.9946 Z -1.0000
G01 X 1.6705 Y 1.9946 Z -1.0000
G00 Z 5.0000

(End cutting path id: path3127)


(Start cutting path id: path3127)
(Change tool to Default tool)

G00 Z 5.0000
G00 X 1.6425 Y 1.7090

G01 Z -1.0000 F 100.0000(Penetrate)
G01 X 1.6488 Y 1.7232 Z -1.0000 F 3500.0000
G02 X 1.6629 Y 1.7361 Z -1.0000 I 0.0423 J -0.0319
G01 X 1.6789 Y 1.7387 Z -1.0000
G01 X 1.6976 Y 1.7275 Z -1.0000
G01 X 1.7065 Y 1.7148 Z -1.0000
G01 X 1.6982 Y 1.7162 Z -1.0000
G01 X 1.6835 Y 1.7071 Z -1.0000
G01 X 1.6532 Y 1.6954 Z -1.0000
G01 X 1.6425 Y 1.7090 Z -1.0000
G01 X 1.6425 Y 1.7090 Z -1.0000
G00 Z 5.0000

(End cutting path id: path3127)


(Start cutting path id: path3127)
(Change tool to Default tool)

G00 Z 5.0000
G00 X 1.4276 Y 1.6630

G01 Z -1.0000 F 100.0000(Penetrate)
G01 X 1.4345 Y 1.6715 Z -1.0000 F 3500.0000
G01 X 1.4381 Y 1.6729 Z -1.0000
G01 X 1.4407 Y 1.6711 Z -1.0000
G01 X 1.4425 Y 1.6630 Z -1.0000
G01 X 1.4394 Y 1.6560 Z -1.0000
G01 X 1.4320 Y 1.6531 Z -1.0000
G01 X 1.4271 Y 1.6562 Z -1.0000
G01 X 1.4276 Y 1.6630 Z -1.0000
G01 X 1.4276 Y 1.6630 Z -1.0000
G00 Z 5.0000

(End cutting path id: path3127)


(Start cutting path id: path3127)
(Change tool to Default tool)

G00 Z 5.0000
G00 X 1.1551 Y 1.6979

G01 Z -1.0000 F 100.0000(Penetrate)
G02 X 1.1678 Y 1.7090 Z -1.0000 I 0.0405 J -0.0336 F 3500.0000
G01 X 1.1722 Y 1.7085 Z -1.0000
G01 X 1.1733 Y 1.6930 Z -1.0000
G01 X 1.1531 Y 1.6828 Z -1.0000
G01 X 1.1500 Y 1.6863 Z -1.0000
G01 X 1.1551 Y 1.6979 Z -1.0000
G01 X 1.1551 Y 1.6979 Z -1.0000
G00 Z 5.0000

(End cutting path id: path3127)


(Start cutting path id: path3127)
(Change tool to Default tool)

G00 Z 5.0000
G00 X 1.1351 Y 1.8848

G01 Z -1.0000 F 100.0000(Penetrate)
G01 X 1.1364 Y 1.8880 Z -1.0000 F 3500.0000
G02 X 1.1524 Y 1.9022 Z -1.0000 I 0.1241 J -0.1242
G01 X 1.1559 Y 1.9020 Z -1.0000
G01 X 1.1562 Y 1.8985 Z -1.0000
G02 X 1.1389 Y 1.8827 Z -1.0000 I -0.0554 J 0.0434
G01 X 1.1351 Y 1.8848 Z -1.0000
G01 X 1.1351 Y 1.8848 Z -1.0000
G00 Z 5.0000

(End cutting path id: path3127)


(Start cutting path id: path3127)
(Change tool to Default tool)

G00 Z 5.0000
G00 X 1.0062 Y 1.8811

G01 Z -1.0000 F 100.0000(Penetrate)
G01 X 1.0091 Y 1.8881 Z -1.0000 F 3500.0000
G01 X 1.0161 Y 1.8910 Z -1.0000
G01 X 1.0231 Y 1.8881 Z -1.0000
G01 X 1.0260 Y 1.8811 Z -1.0000
G01 X 1.0231 Y 1.8741 Z -1.0000
G01 X 1.0161 Y 1.8712 Z -1.0000
G01 X 1.0091 Y 1.8741 Z -1.0000
G01 X 1.0062 Y 1.8811 Z -1.0000
G01 X 1.0062 Y 1.8811 Z -1.0000
G00 Z 5.0000

(End cutting path id: path3127)


(Start cutting path id: path3127)
(Change tool to Default tool)

G00 Z 5.0000
G00 X 1.1729 Y 2.2250

G01 Z -1.0000 F 100.0000(Penetrate)
G01 X 1.1853 Y 2.2272 Z -1.0000 F 3500.0000
G01 X 1.1919 Y 2.2242 Z -1.0000
G01 X 1.1789 Y 2.2190 Z -1.0000
G01 X 1.1729 Y 2.2250 Z -1.0000
G01 X 1.1729 Y 2.2250 Z -1.0000
G00 Z 5.0000

(End cutting path id: path3127)


(Start cutting path id: path3127)
(Change tool to Default tool)

G00 Z 5.0000
G00 X 1.2937 Y 2.5158

G01 Z -1.0000 F 100.0000(Penetrate)
G01 X 1.2967 Y 2.5227 Z -1.0000 F 3500.0000
G01 X 1.3042 Y 2.5257 Z -1.0000
G01 X 1.3091 Y 2.5225 Z -1.0000
G01 X 1.3086 Y 2.5158 Z -1.0000
G01 X 1.3017 Y 2.5073 Z -1.0000
G01 X 1.2981 Y 2.5059 Z -1.0000
G01 X 1.2954 Y 2.5076 Z -1.0000
G01 X 1.2937 Y 2.5158 Z -1.0000
G01 X 1.2937 Y 2.5158 Z -1.0000
G00 Z 5.0000

(End cutting path id: path3127)


(Start cutting path id: path3127)
(Change tool to Default tool)

G00 Z 5.0000
G00 X 0.6396 Y 2.4116

G01 Z -1.0000 F 100.0000(Penetrate)
G01 X 0.6414 Y 2.4211 Z -1.0000 F 3500.0000
G02 X 0.6492 Y 2.4364 Z -1.0000 I 0.0793 J -0.0308
G01 X 0.6588 Y 2.4414 Z -1.0000
G01 X 0.6570 Y 2.4320 Z -1.0000
G02 X 0.6492 Y 2.4166 Z -1.0000 I -0.0793 J 0.0308
G01 X 0.6396 Y 2.4116 Z -1.0000
G01 X 0.6396 Y 2.4116 Z -1.0000
G00 Z 5.0000

(End cutting path id: path3127)


(Start cutting path id: path3127)
(Change tool to Default tool)

G00 Z 5.0000
G00 X 0.5184 Y 2.2845

G01 Z -1.0000 F 100.0000(Penetrate)
G01 X 0.5308 Y 2.2866 Z -1.0000 F 3500.0000
G01 X 0.5374 Y 2.2837 Z -1.0000
G01 X 0.5244 Y 2.2785 Z -1.0000
G01 X 0.5184 Y 2.2845 Z -1.0000
G01 X 0.5184 Y 2.2845 Z -1.0000
G00 Z 5.0000

(End cutting path id: path3127)


(Start cutting path id: path3127)
(Change tool to Default tool)

G00 Z 5.0000
G00 X 0.4219 Y 2.2538

G01 Z -1.0000 F 100.0000(Penetrate)
G01 X 0.4279 Y 2.2598 Z -1.0000 F 3500.0000
G01 X 0.4300 Y 2.2474 Z -1.0000
G01 X 0.4271 Y 2.2408 Z -1.0000
G01 X 0.4219 Y 2.2538 Z -1.0000
G01 X 0.4219 Y 2.2538 Z -1.0000
G00 Z 5.0000

(End cutting path id: path3127)


(Start cutting path id: path3127)
(Change tool to Default tool)

G00 Z 5.0000
G00 X 0.5947 Y 2.0200

G01 Z -1.0000 F 100.0000(Penetrate)
G01 X 0.6016 Y 2.0285 Z -1.0000 F 3500.0000
G01 X 0.6052 Y 2.0299 Z -1.0000
G01 X 0.6078 Y 2.0281 Z -1.0000
G01 X 0.6095 Y 2.0200 Z -1.0000
G01 X 0.6065 Y 2.0130 Z -1.0000
G01 X 0.5990 Y 2.0101 Z -1.0000
G01 X 0.5942 Y 2.0133 Z -1.0000
G01 X 0.5947 Y 2.0200 Z -1.0000
G01 X 0.5947 Y 2.0200 Z -1.0000
G00 Z 5.0000

(End cutting path id: path3127)


(Start cutting path id: path3127)
(Change tool to Default tool)

G00 Z 5.0000
G00 X 0.6275 Y 2.0466

G01 Z -1.0000 F 100.0000(Penetrate)
G01 X 0.6399 Y 2.0487 Z -1.0000 F 3500.0000
G01 X 0.6465 Y 2.0458 Z -1.0000
G01 X 0.6335 Y 2.0406 Z -1.0000
G01 X 0.6275 Y 2.0466 Z -1.0000
G01 X 0.6275 Y 2.0466 Z -1.0000
G00 Z 5.0000

(End cutting path id: path3127)


(Start cutting path id: path3127)
(Change tool to Default tool)

G00 Z 5.0000
G00 X 0.4608 Y 2.6948

G01 Z -1.0000 F 100.0000(Penetrate)
G01 X 0.4640 Y 2.6997 Z -1.0000 F 3500.0000
G01 X 0.4707 Y 2.6992 Z -1.0000
G01 X 0.4792 Y 2.6923 Z -1.0000
G01 X 0.4806 Y 2.6887 Z -1.0000
G01 X 0.4789 Y 2.6861 Z -1.0000
G01 X 0.4707 Y 2.6843 Z -1.0000
G01 X 0.4638 Y 2.6873 Z -1.0000
G01 X 0.4608 Y 2.6948 Z -1.0000
G01 X 0.4608 Y 2.6948 Z -1.0000
G00 Z 5.0000

(End cutting path id: path3127)


(Start cutting path id: path3127)
(Change tool to Default tool)

G00 Z 5.0000
G00 X 0.8582 Y 1.3414

G01 Z -1.0000 F 100.0000(Penetrate)
G01 X 0.8642 Y 1.3474 Z -1.0000 F 3500.0000
G01 X 0.8663 Y 1.3350 Z -1.0000
G01 X 0.8634 Y 1.3284 Z -1.0000
G01 X 0.8582 Y 1.3414 Z -1.0000
G01 X 0.8582 Y 1.3414 Z -1.0000
G00 Z 5.0000

(End cutting path id: path3127)


(Start cutting path id: path3127)
(Change tool to Default tool)

G00 Z 5.0000
G00 X 1.1400 Y 1.3952

G01 Z -1.0000 F 100.0000(Penetrate)
G01 X 1.1475 Y 1.4028 Z -1.0000 F 3500.0000
G01 X 1.1555 Y 1.4051 Z -1.0000
G01 X 1.1620 Y 1.4023 Z -1.0000
G01 X 1.1648 Y 1.3952 Z -1.0000
G01 X 1.1613 Y 1.3888 Z -1.0000
G01 X 1.1494 Y 1.3853 Z -1.0000
G01 X 1.1406 Y 1.3891 Z -1.0000
G01 X 1.1400 Y 1.3952 Z -1.0000
G01 X 1.1400 Y 1.3952 Z -1.0000
G00 Z 5.0000

(End cutting path id: path3127)


(Start cutting path id: path3127)
(Change tool to Default tool)

G00 Z 5.0000
G00 X 1.0334 Y 1.0442

G01 Z -1.0000 F 100.0000(Penetrate)
G01 X 1.0347 Y 1.0628 Z -1.0000 F 3500.0000
G02 X 1.0781 Y 1.0777 Z -1.0000 I 0.0447 J -0.0596
G01 X 1.0906 Y 1.0732 Z -1.0000
G01 X 1.0954 Y 1.0628 Z -1.0000
G01 X 1.0796 Y 1.0399 Z -1.0000
G01 X 1.0559 Y 1.0480 Z -1.0000
G01 X 1.0492 Y 1.0520 Z -1.0000
G01 X 1.0443 Y 1.0488 Z -1.0000
G01 X 1.0391 Y 1.0431 Z -1.0000
G01 X 1.0334 Y 1.0442 Z -1.0000
G01 X 1.0334 Y 1.0442 Z -1.0000
G00 Z 5.0000

(End cutting path id: path3127)


(Start cutting path id: path3127)
(Change tool to Default tool)

G00 Z 5.0000
G00 X 1.9928 Y 2.7537

G01 Z -1.0000 F 100.0000(Penetrate)
G01 X 1.9923 Y 2.7605 Z -1.0000 F 3500.0000
G01 X 1.9971 Y 2.7636 Z -1.0000
G01 X 2.0047 Y 2.7606 Z -1.0000
G01 X 2.0076 Y 2.7537 Z -1.0000
G01 X 2.0059 Y 2.7455 Z -1.0000
G01 X 2.0033 Y 2.7438 Z -1.0000
G01 X 1.9997 Y 2.7452 Z -1.0000
G01 X 1.9928 Y 2.7537 Z -1.0000
G01 X 1.9928 Y 2.7537 Z -1.0000
G00 Z 5.0000

(End cutting path id: path3127)


(Start cutting path id: path3127)
(Change tool to Default tool)

G00 Z 5.0000
G00 X 2.0481 Y 2.8289

G01 Z -1.0000 F 100.0000(Penetrate)
G01 X 2.0541 Y 2.8349 Z -1.0000 F 3500.0000
G01 X 2.0562 Y 2.8225 Z -1.0000
G01 X 2.0533 Y 2.8159 Z -1.0000
G01 X 2.0481 Y 2.8289 Z -1.0000
G01 X 2.0481 Y 2.8289 Z -1.0000
G00 Z 5.0000

(End cutting path id: path3127)


(Start cutting path id: path3127)
(Change tool to Default tool)

G00 Z 5.0000
G00 X 2.4142 Y 2.7642

G01 Z -1.0000 F 100.0000(Penetrate)
G01 X 2.4174 Y 2.7691 Z -1.0000 F 3500.0000
G01 X 2.4241 Y 2.7686 Z -1.0000
G01 X 2.4326 Y 2.7617 Z -1.0000
G01 X 2.4340 Y 2.7581 Z -1.0000
G01 X 2.4323 Y 2.7555 Z -1.0000
G01 X 2.4241 Y 2.7537 Z -1.0000
G01 X 2.4172 Y 2.7567 Z -1.0000
G01 X 2.4142 Y 2.7642 Z -1.0000
G01 X 2.4142 Y 2.7642 Z -1.0000
G00 Z 5.0000

(End cutting path id: path3127)


(Start cutting path id: path3127)
(Change tool to Default tool)

G00 Z 5.0000
G00 X 2.3894 Y 3.2298

G01 Z -1.0000 F 100.0000(Penetrate)
G01 X 2.3901 Y 3.2359 Z -1.0000 F 3500.0000
G01 X 2.3993 Y 3.2397 Z -1.0000
G01 X 2.4086 Y 3.2358 Z -1.0000
G01 X 2.4092 Y 3.2298 Z -1.0000
G01 X 2.4024 Y 3.2211 Z -1.0000
G01 X 2.3993 Y 3.2199 Z -1.0000
G01 X 2.3962 Y 3.2211 Z -1.0000
G01 X 2.3894 Y 3.2298 Z -1.0000
G01 X 2.3894 Y 3.2298 Z -1.0000
G00 Z 5.0000

(End cutting path id: path3127)


(Start cutting path id: path3127)
(Change tool to Default tool)

G00 Z 5.0000
G00 X 2.2826 Y 3.4193

G01 Z -1.0000 F 100.0000(Penetrate)
G01 X 2.2949 Y 3.4272 Z -1.0000 F 3500.0000
G01 X 2.3004 Y 3.4261 Z -1.0000
G01 X 2.3004 Y 3.4217 Z -1.0000
G01 X 2.2882 Y 3.4137 Z -1.0000
G01 X 2.2826 Y 3.4149 Z -1.0000
G01 X 2.2826 Y 3.4193 Z -1.0000
G01 X 2.2826 Y 3.4193 Z -1.0000
G00 Z 5.0000

(End cutting path id: path3127)


(Start cutting path id: path3127)
(Change tool to Default tool)

G00 Z 5.0000
G00 X 2.1266 Y 5.4309

G01 Z -1.0000 F 100.0000(Penetrate)
G01 X 2.1296 Y 5.4379 Z -1.0000 F 3500.0000
G01 X 2.1371 Y 5.4408 Z -1.0000
G01 X 2.1420 Y 5.4376 Z -1.0000
G01 X 2.1415 Y 5.4309 Z -1.0000
G01 X 2.1346 Y 5.4224 Z -1.0000
G01 X 2.1310 Y 5.4210 Z -1.0000
G01 X 2.1283 Y 5.4228 Z -1.0000
G01 X 2.1266 Y 5.4309 Z -1.0000
G01 X 2.1266 Y 5.4309 Z -1.0000
G00 Z 5.0000

(End cutting path id: path3127)


(Start cutting path id: path3127)
(Change tool to Default tool)

G00 Z 5.0000
G00 X 2.2059 Y 6.7083

G01 Z -1.0000 F 100.0000(Penetrate)
G01 X 2.2113 Y 6.7244 Z -1.0000 F 3500.0000
G01 X 2.2220 Y 6.7298 Z -1.0000
G01 X 2.2279 Y 6.7247 Z -1.0000
G01 X 2.2248 Y 6.7124 Z -1.0000
G03 X 2.2116 Y 6.6950 Z -1.0000 I 1.1464 J -0.8821
G03 X 2.2087 Y 6.6909 Z -1.0000 I 0.0923 J -0.0688
G01 X 2.2059 Y 6.7083 Z -1.0000
G01 X 2.2059 Y 6.7083 Z -1.0000
G00 Z 5.0000

(End cutting path id: path3127)


(Start cutting path id: path3127)
(Change tool to Default tool)

G00 Z 5.0000
G00 X 1.0565 Y 6.4381

G01 Z -1.0000 F 100.0000(Penetrate)
G01 X 1.0625 Y 6.4441 Z -1.0000 F 3500.0000
G01 X 1.0646 Y 6.4317 Z -1.0000
G01 X 1.0617 Y 6.4251 Z -1.0000
G01 X 1.0565 Y 6.4382 Z -1.0000
G01 X 1.0565 Y 6.4381 Z -1.0000
G00 Z 5.0000

(End cutting path id: path3127)


(Start cutting path id: path3127)
(Change tool to Default tool)

G00 Z 5.0000
G00 X 0.6442 Y 6.3826

G01 Z -1.0000 F 100.0000(Penetrate)
G01 X 0.6388 Y 6.3885 Z -1.0000 F 3500.0000
G01 X 0.6412 Y 6.3918 Z -1.0000
G01 X 0.6562 Y 6.3892 Z -1.0000
G01 X 0.6641 Y 6.3826 Z -1.0000
G01 X 0.6442 Y 6.3826 Z -1.0000
G01 X 0.6442 Y 6.3826 Z -1.0000
G00 Z 5.0000

(End cutting path id: path3127)


(Start cutting path id: path3127)
(Change tool to Default tool)

G00 Z 5.0000
G00 X 0.5401 Y 6.4423

G01 Z -1.0000 F 100.0000(Penetrate)
G01 X 0.5430 Y 6.4494 Z -1.0000 F 3500.0000
G01 X 0.5500 Y 6.4522 Z -1.0000
G01 X 0.5571 Y 6.4493 Z -1.0000
G01 X 0.5599 Y 6.4423 Z -1.0000
G01 X 0.5570 Y 6.4353 Z -1.0000
G01 X 0.5500 Y 6.4324 Z -1.0000
G01 X 0.5430 Y 6.4354 Z -1.0000
G01 X 0.5401 Y 6.4423 Z -1.0000
G01 X 0.5401 Y 6.4423 Z -1.0000
G00 Z 5.0000

(End cutting path id: path3127)


(Start cutting path id: path3127)
(Change tool to Default tool)

G00 Z 5.0000
G00 X 0.5104 Y 6.3811

G01 Z -1.0000 F 100.0000(Penetrate)
G01 X 0.5293 Y 6.4181 Z -1.0000 F 3500.0000
G01 X 0.5546 Y 6.4130 Z -1.0000
G01 X 0.5542 Y 6.4064 Z -1.0000
G01 X 0.5460 Y 6.4025 Z -1.0000
G01 X 0.5375 Y 6.3978 Z -1.0000
G01 X 0.5365 Y 6.3876 Z -1.0000
G01 X 0.5353 Y 6.3775 Z -1.0000
G01 X 0.5263 Y 6.3727 Z -1.0000
G01 X 0.5135 Y 6.3759 Z -1.0000
G01 X 0.5104 Y 6.3811 Z -1.0000
G01 X 0.5104 Y 6.3811 Z -1.0000
G00 Z 5.0000

(End cutting path id: path3127)


(Start cutting path id: path3127)
(Change tool to Default tool)

G00 Z 5.0000
G00 X 4.3783 Y 4.5840

G01 Z -1.0000 F 100.0000(Penetrate)
G01 X 4.3843 Y 4.5900 Z -1.0000 F 3500.0000
G01 X 4.3864 Y 4.5775 Z -1.0000
G01 X 4.3835 Y 4.5710 Z -1.0000
G01 X 4.3783 Y 4.5840 Z -1.0000
G01 X 4.3783 Y 4.5840 Z -1.0000
G00 Z 5.0000

(End cutting path id: path3127)


(Start cutting path id: path3127)
(Change tool to Default tool)

G00 Z 5.0000
G00 X 5.7359 Y 4.2948

G01 Z -1.0000 F 100.0000(Penetrate)
G01 X 5.7375 Y 4.2976 Z -1.0000 F 3500.0000
G02 X 5.7513 Y 4.3046 Z -1.0000 I 0.0397 J -0.0614
G01 X 5.7594 Y 4.3045 Z -1.0000
G01 X 5.7607 Y 4.3007 Z -1.0000
G01 X 5.7439 Y 4.2885 Z -1.0000
G01 X 5.7359 Y 4.2948 Z -1.0000
G01 X 5.7359 Y 4.2948 Z -1.0000
G00 Z 5.0000

(End cutting path id: path3127)


(Start cutting path id: path3127)
(Change tool to Default tool)

G00 Z 5.0000
G00 X 5.2154 Y 3.1999

G01 Z -1.0000 F 100.0000(Penetrate)
G01 X 5.2223 Y 3.2084 Z -1.0000 F 3500.0000
G01 X 5.2259 Y 3.2098 Z -1.0000
G01 X 5.2285 Y 3.2081 Z -1.0000
G01 X 5.2302 Y 3.1999 Z -1.0000
G01 X 5.2272 Y 3.1929 Z -1.0000
G01 X 5.2197 Y 3.1900 Z -1.0000
G01 X 5.2149 Y 3.1932 Z -1.0000
G01 X 5.2154 Y 3.1999 Z -1.0000
G01 X 5.2154 Y 3.1999 Z -1.0000
G00 Z 5.0000

(End cutting path id: path3127)


(Start cutting path id: path3127)
(Change tool to Default tool)

G00 Z 5.0000
G00 X 4.8481 Y 3.2700

G01 Z -1.0000 F 100.0000(Penetrate)
G01 X 4.8445 Y 3.2802 Z -1.0000 F 3500.0000
G01 X 4.8463 Y 3.2853 Z -1.0000
G01 X 4.8500 Y 3.2853 Z -1.0000
G01 X 4.8569 Y 3.2747 Z -1.0000
G01 X 4.8545 Y 3.2683 Z -1.0000
G01 X 4.8481 Y 3.2700 Z -1.0000
G01 X 4.8481 Y 3.2700 Z -1.0000
G00 Z 5.0000

(End cutting path id: path3127)


(Start cutting path id: path3127)
(Change tool to Default tool)

G00 Z 5.0000
G00 X 5.0472 Y 2.6439

G01 Z -1.0000 F 100.0000(Penetrate)
G01 X 5.0457 Y 2.6522 Z -1.0000 F 3500.0000
G01 X 5.0499 Y 2.6584 Z -1.0000
G01 X 5.0551 Y 2.6577 Z -1.0000
G01 X 5.0584 Y 2.6492 Z -1.0000
G01 X 5.0538 Y 2.6420 Z -1.0000
G01 X 5.0472 Y 2.6440 Z -1.0000
G01 X 5.0472 Y 2.6439 Z -1.0000
G00 Z 5.0000

(End cutting path id: path3127)


(Start cutting path id: path3127)
(Change tool to Default tool)

G00 Z 5.0000
G00 X 6.7374 Y 1.2563

G01 Z -1.0000 F 100.0000(Penetrate)
G01 X 6.7404 Y 1.2633 Z -1.0000 F 3500.0000
G01 X 6.7479 Y 1.2662 Z -1.0000
G01 X 6.7528 Y 1.2631 Z -1.0000
G01 X 6.7523 Y 1.2563 Z -1.0000
G01 X 6.7454 Y 1.2478 Z -1.0000
G01 X 6.7418 Y 1.2464 Z -1.0000
G01 X 6.7391 Y 1.2482 Z -1.0000
G01 X 6.7374 Y 1.2563 Z -1.0000
G01 X 6.7374 Y 1.2563 Z -1.0000
G00 Z 5.0000

(End cutting path id: path3127)


(Start cutting path id: path3127)
(Change tool to Default tool)

G00 Z 5.0000
G00 X 6.8446 Y 0.5195

G01 Z -1.0000 F 100.0000(Penetrate)
G01 X 6.8570 Y 0.5216 Z -1.0000 F 3500.0000
G01 X 6.8636 Y 0.5187 Z -1.0000
G01 X 6.8506 Y 0.5135 Z -1.0000
G01 X 6.8446 Y 0.5195 Z -1.0000
G01 X 6.8446 Y 0.5195 Z -1.0000
G00 Z 5.0000

(End cutting path id: path3127)


(Start cutting path id: path3127)
(Change tool to Default tool)

G00 Z 5.0000
G00 X 7.9868 Y 0.2450

G01 Z -1.0000 F 100.0000(Penetrate)
G01 X 7.9898 Y 0.2519 Z -1.0000 F 3500.0000
G01 X 7.9973 Y 0.2549 Z -1.0000
G01 X 8.0022 Y 0.2517 Z -1.0000
G01 X 8.0017 Y 0.2450 Z -1.0000
G01 X 7.9947 Y 0.2365 Z -1.0000
G01 X 7.9912 Y 0.2351 Z -1.0000
G01 X 7.9885 Y 0.2368 Z -1.0000
G01 X 7.9868 Y 0.2450 Z -1.0000
G01 X 7.9868 Y 0.2450 Z -1.0000
G00 Z 5.0000

(End cutting path id: path3127)


(Start cutting path id: path3127)
(Change tool to Default tool)

G00 Z 5.0000
G00 X 7.8659 Y 1.9077

G01 Z -1.0000 F 100.0000(Penetrate)
G01 X 7.8783 Y 1.9098 Z -1.0000 F 3500.0000
G01 X 7.8850 Y 1.9069 Z -1.0000
G01 X 7.8719 Y 1.9017 Z -1.0000
G01 X 7.8659 Y 1.9077 Z -1.0000
G01 X 7.8659 Y 1.9077 Z -1.0000
G00 Z 5.0000

(End cutting path id: path3127)


(Start cutting path id: path3127)
(Change tool to Default tool)

G00 Z 5.0000
G00 X 8.9784 Y 1.6270

G01 Z -1.0000 F 100.0000(Penetrate)
G01 X 8.9797 Y 1.6301 Z -1.0000 F 3500.0000
G02 X 8.9957 Y 1.6443 Z -1.0000 I 0.1241 J -0.1242
G01 X 8.9992 Y 1.6441 Z -1.0000
G01 X 8.9995 Y 1.6406 Z -1.0000
G02 X 8.9822 Y 1.6249 Z -1.0000 I -0.0554 J 0.0434
G01 X 8.9784 Y 1.6270 Z -1.0000
G01 X 8.9784 Y 1.6270 Z -1.0000
G00 Z 5.0000

(End cutting path id: path3127)


(Start cutting path id: path3127)
(Change tool to Default tool)

G00 Z 5.0000
G00 X 9.7022 Y 1.1080

G01 Z -1.0000 F 100.0000(Penetrate)
G01 X 9.7056 Y 1.1142 Z -1.0000 F 3500.0000
G01 X 9.7171 Y 1.1176 Z -1.0000
G01 X 9.7320 Y 1.1137 Z -1.0000
G01 X 9.7304 Y 1.1109 Z -1.0000
G02 X 9.7171 Y 1.1041 Z -1.0000 I -0.0378 J 0.0578
G01 X 9.7057 Y 1.1035 Z -1.0000
G01 X 9.7022 Y 1.1080 Z -1.0000
G01 X 9.7022 Y 1.1080 Z -1.0000
G00 Z 5.0000

(End cutting path id: path3127)


(Start cutting path id: path3127)
(Change tool to Default tool)

G00 Z 5.0000
G00 X 10.3368 Y 1.6039

G01 Z -1.0000 F 100.0000(Penetrate)
G01 X 10.3400 Y 1.6088 Z -1.0000 F 3500.0000
G01 X 10.3467 Y 1.6083 Z -1.0000
G01 X 10.3552 Y 1.6014 Z -1.0000
G01 X 10.3566 Y 1.5978 Z -1.0000
G01 X 10.3549 Y 1.5952 Z -1.0000
G01 X 10.3467 Y 1.5934 Z -1.0000
G01 X 10.3398 Y 1.5964 Z -1.0000
G01 X 10.3368 Y 1.6039 Z -1.0000
G01 X 10.3368 Y 1.6039 Z -1.0000
G00 Z 5.0000

(End cutting path id: path3127)


(Start cutting path id: path3127)
(Change tool to Default tool)

G00 Z 5.0000
G00 X 10.4880 Y 1.5464

G01 Z -1.0000 F 100.0000(Penetrate)
G01 X 10.4949 Y 1.5557 Z -1.0000 F 3500.0000
G01 X 10.5108 Y 1.5624 Z -1.0000
G01 X 10.5175 Y 1.5589 Z -1.0000
G01 X 10.5162 Y 1.5500 Z -1.0000
G01 X 10.4948 Y 1.5382 Z -1.0000
G01 X 10.4880 Y 1.5464 Z -1.0000
G01 X 10.4880 Y 1.5464 Z -1.0000
G00 Z 5.0000

(End cutting path id: path3127)


(Start cutting path id: path3127)
(Change tool to Default tool)

G00 Z 5.0000
G00 X 10.9481 Y 1.2609

G01 Z -1.0000 F 100.0000(Penetrate)
G01 X 10.9469 Y 1.2740 Z -1.0000 F 3500.0000
G01 X 10.9520 Y 1.2814 Z -1.0000
G01 X 10.9575 Y 1.2801 Z -1.0000
G01 X 10.9615 Y 1.2668 Z -1.0000
G01 X 10.9556 Y 1.2578 Z -1.0000
G01 X 10.9481 Y 1.2609 Z -1.0000
G01 X 10.9481 Y 1.2609 Z -1.0000
G00 Z 5.0000

(End cutting path id: path3127)


(Start cutting path id: path3127)
(Change tool to Default tool)

G00 Z 5.0000
G00 X 11.0854 Y 1.5934

G01 Z -1.0000 F 100.0000(Penetrate)
G01 X 11.0924 Y 1.6019 Z -1.0000 F 3500.0000
G01 X 11.0959 Y 1.6033 Z -1.0000
G01 X 11.0986 Y 1.6016 Z -1.0000
G01 X 11.1003 Y 1.5934 Z -1.0000
G01 X 11.0973 Y 1.5865 Z -1.0000
G01 X 11.0898 Y 1.5835 Z -1.0000
G01 X 11.0850 Y 1.5867 Z -1.0000
G01 X 11.0854 Y 1.5934 Z -1.0000
G01 X 11.0854 Y 1.5934 Z -1.0000
G00 Z 5.0000

(End cutting path id: path3127)


(Start cutting path id: path3127)
(Change tool to Default tool)

G00 Z 5.0000
G00 X 11.0755 Y 1.8216

G01 Z -1.0000 F 100.0000(Penetrate)
G01 X 11.0830 Y 1.8291 Z -1.0000 F 3500.0000
G01 X 11.0916 Y 1.8315 Z -1.0000
G01 X 11.0960 Y 1.8284 Z -1.0000
G01 X 11.0954 Y 1.8216 Z -1.0000
G01 X 11.0878 Y 1.8141 Z -1.0000
G01 X 11.0793 Y 1.8117 Z -1.0000
G01 X 11.0748 Y 1.8148 Z -1.0000
G01 X 11.0755 Y 1.8216 Z -1.0000
G01 X 11.0755 Y 1.8216 Z -1.0000
G00 Z 5.0000

(End cutting path id: path3127)


(Start cutting path id: path3127)
(Change tool to Default tool)

G00 Z 5.0000
G00 X 11.4325 Y 1.9705

G01 Z -1.0000 F 100.0000(Penetrate)
G01 X 11.4320 Y 1.9772 Z -1.0000 F 3500.0000
G01 X 11.4369 Y 1.9804 Z -1.0000
G01 X 11.4444 Y 1.9773 Z -1.0000
G01 X 11.4474 Y 1.9705 Z -1.0000
G01 X 11.4456 Y 1.9623 Z -1.0000
G01 X 11.4430 Y 1.9606 Z -1.0000
G01 X 11.4394 Y 1.9620 Z -1.0000
G01 X 11.4325 Y 1.9705 Z -1.0000
G01 X 11.4325 Y 1.9705 Z -1.0000
G00 Z 5.0000

(End cutting path id: path3127)


(Start cutting path id: path3127)
(Change tool to Default tool)

G00 Z 5.0000
G00 X 11.5564 Y 2.0001

G01 Z -1.0000 F 100.0000(Penetrate)
G01 X 11.5594 Y 2.0070 Z -1.0000 F 3500.0000
G01 X 11.5669 Y 2.0100 Z -1.0000
G01 X 11.5718 Y 2.0068 Z -1.0000
G01 X 11.5713 Y 2.0001 Z -1.0000
G01 X 11.5644 Y 1.9916 Z -1.0000
G01 X 11.5608 Y 1.9902 Z -1.0000
G01 X 11.5582 Y 1.9919 Z -1.0000
G01 X 11.5564 Y 2.0001 Z -1.0000
G01 X 11.5564 Y 2.0001 Z -1.0000
G00 Z 5.0000

(End cutting path id: path3127)


(Start cutting path id: path3127)
(Change tool to Default tool)

G00 Z 5.0000
G00 X 11.4091 Y 2.3386

G01 Z -1.0000 F 100.0000(Penetrate)
G02 X 11.3999 Y 2.3586 Z -1.0000 I 0.0728 J 0.0455 F 3500.0000
G01 X 11.4012 Y 2.3638 Z -1.0000
G01 X 11.4054 Y 2.3638 Z -1.0000
G02 X 11.4176 Y 2.3471 Z -1.0000 I -0.0519 J -0.0508
G01 X 11.4162 Y 2.3378 Z -1.0000
G01 X 11.4091 Y 2.3386 Z -1.0000
G01 X 11.4091 Y 2.3386 Z -1.0000
G00 Z 5.0000

(End cutting path id: path3127)


(Start cutting path id: path3127)
(Change tool to Default tool)

G00 Z 5.0000
G00 X 11.0557 Y 2.3273

G01 Z -1.0000 F 100.0000(Penetrate)
G01 X 11.0552 Y 2.3340 Z -1.0000 F 3500.0000
G01 X 11.0601 Y 2.3372 Z -1.0000
G01 X 11.0676 Y 2.3342 Z -1.0000
G01 X 11.0706 Y 2.3273 Z -1.0000
G01 X 11.0688 Y 2.3191 Z -1.0000
G01 X 11.0662 Y 2.3174 Z -1.0000
G01 X 11.0626 Y 2.3188 Z -1.0000
G01 X 11.0557 Y 2.3273 Z -1.0000
G01 X 11.0557 Y 2.3273 Z -1.0000
G00 Z 5.0000

(End cutting path id: path3127)


(Start cutting path id: path3127)
(Change tool to Default tool)

G00 Z 5.0000
G00 X 10.5649 Y 2.7933

G01 Z -1.0000 F 100.0000(Penetrate)
G01 X 10.5679 Y 2.8002 Z -1.0000 F 3500.0000
G01 X 10.5754 Y 2.8032 Z -1.0000
G01 X 10.5802 Y 2.8000 Z -1.0000
G01 X 10.5798 Y 2.7933 Z -1.0000
G01 X 10.5728 Y 2.7848 Z -1.0000
G01 X 10.5693 Y 2.7834 Z -1.0000
G01 X 10.5666 Y 2.7851 Z -1.0000
G01 X 10.5649 Y 2.7933 Z -1.0000
G01 X 10.5649 Y 2.7933 Z -1.0000
G00 Z 5.0000

(End cutting path id: path3127)


(Start cutting path id: path3127)
(Change tool to Default tool)

G00 Z 5.0000
G00 X 10.6351 Y 2.8884

G01 Z -1.0000 F 100.0000(Penetrate)
G01 X 10.6411 Y 2.8944 Z -1.0000 F 3500.0000
G01 X 10.6432 Y 2.8820 Z -1.0000
G01 X 10.6403 Y 2.8754 Z -1.0000
G01 X 10.6351 Y 2.8884 Z -1.0000
G01 X 10.6351 Y 2.8884 Z -1.0000
G00 Z 5.0000

(End cutting path id: path3127)


(Start cutting path id: path3127)
(Change tool to Default tool)

G00 Z 5.0000
G00 X 10.6888 Y 3.1204

G01 Z -1.0000 F 100.0000(Penetrate)
G01 X 10.6884 Y 3.1272 Z -1.0000 F 3500.0000
G01 X 10.6932 Y 3.1303 Z -1.0000
G01 X 10.7008 Y 3.1273 Z -1.0000
G01 X 10.7037 Y 3.1204 Z -1.0000
G01 X 10.7020 Y 3.1122 Z -1.0000
G01 X 10.6993 Y 3.1105 Z -1.0000
G01 X 10.6957 Y 3.1120 Z -1.0000
G01 X 10.6888 Y 3.1204 Z -1.0000
G01 X 10.6888 Y 3.1204 Z -1.0000
G00 Z 5.0000

(End cutting path id: path3127)


(Start cutting path id: path3127)
(Change tool to Default tool)

G00 Z 5.0000
G00 X 11.0706 Y 3.1254

G01 Z -1.0000 F 100.0000(Penetrate)
G01 X 11.0741 Y 3.1369 Z -1.0000 F 3500.0000
G01 X 11.0805 Y 3.1403 Z -1.0000
G01 X 11.0869 Y 3.1368 Z -1.0000
G01 X 11.0904 Y 3.1254 Z -1.0000
G01 X 11.0869 Y 3.1140 Z -1.0000
G01 X 11.0805 Y 3.1106 Z -1.0000
G01 X 11.0740 Y 3.1140 Z -1.0000
G01 X 11.0706 Y 3.1254 Z -1.0000
G01 X 11.0706 Y 3.1254 Z -1.0000
G00 Z 5.0000

(End cutting path id: path3127)


(Start cutting path id: path3127)
(Change tool to Default tool)

G00 Z 5.0000
G00 X 11.9481 Y 2.9321

G01 Z -1.0000 F 100.0000(Penetrate)
G01 X 11.9551 Y 2.9406 Z -1.0000 F 3500.0000
G01 X 11.9586 Y 2.9420 Z -1.0000
G01 X 11.9613 Y 2.9403 Z -1.0000
G01 X 11.9630 Y 2.9321 Z -1.0000
G01 X 11.9600 Y 2.9252 Z -1.0000
G01 X 11.9525 Y 2.9222 Z -1.0000
G01 X 11.9476 Y 2.9254 Z -1.0000
G01 X 11.9481 Y 2.9321 Z -1.0000
G01 X 11.9481 Y 2.9321 Z -1.0000
G00 Z 5.0000

(End cutting path id: path3127)


(Start cutting path id: path3127)
(Change tool to Default tool)

G00 Z 5.0000
G00 X 12.3100 Y 2.6650

G01 Z -1.0000 F 100.0000(Penetrate)
G01 X 12.3132 Y 2.6699 Z -1.0000 F 3500.0000
G01 X 12.3199 Y 2.6694 Z -1.0000
G01 X 12.3284 Y 2.6625 Z -1.0000
G01 X 12.3298 Y 2.6589 Z -1.0000
G01 X 12.3281 Y 2.6563 Z -1.0000
G01 X 12.3199 Y 2.6545 Z -1.0000
G01 X 12.3130 Y 2.6575 Z -1.0000
G01 X 12.3100 Y 2.6650 Z -1.0000
G01 X 12.3100 Y 2.6650 Z -1.0000
G00 Z 5.0000

(End cutting path id: path3127)


(Start cutting path id: path3127)
(Change tool to Default tool)

G00 Z 5.0000
G00 X 12.7860 Y 2.3917

G01 Z -1.0000 F 100.0000(Penetrate)
G01 X 12.7899 Y 2.4066 Z -1.0000 F 3500.0000
G01 X 12.7927 Y 2.4051 Z -1.0000
G02 X 12.7995 Y 2.3917 Z -1.0000 I -0.0581 J -0.0380
G01 X 12.8001 Y 2.3804 Z -1.0000
G01 X 12.7956 Y 2.3769 Z -1.0000
G01 X 12.7894 Y 2.3803 Z -1.0000
G01 X 12.7860 Y 2.3917 Z -1.0000
G01 X 12.7860 Y 2.3917 Z -1.0000
G00 Z 5.0000

(End cutting path id: path3127)


(Start cutting path id: path3127)
(Change tool to Default tool)

G00 Z 5.0000
G00 X 13.1349 Y 1.9710

G01 Z -1.0000 F 100.0000(Penetrate)
G01 X 13.1268 Y 1.9877 Z -1.0000 F 3500.0000
G01 X 13.1436 Y 2.0002 Z -1.0000
G01 X 13.1571 Y 1.9945 Z -1.0000
G01 X 13.1628 Y 1.9804 Z -1.0000
G01 X 13.1603 Y 1.9612 Z -1.0000
G01 X 13.1578 Y 1.9620 Z -1.0000
G02 X 13.1349 Y 1.9710 Z -1.0000 I 1.5277 J 3.9227
G01 X 13.1349 Y 1.9710 Z -1.0000
G00 Z 5.0000

(End cutting path id: path3127)


(Start cutting path id: path3127)
(Change tool to Default tool)

G00 Z 5.0000
G00 X 13.4602 Y 1.7123

G01 Z -1.0000 F 100.0000(Penetrate)
G01 X 13.4637 Y 1.7168 Z -1.0000 F 3500.0000
G01 X 13.4751 Y 1.7162 Z -1.0000
G02 X 13.4885 Y 1.7094 Z -1.0000 I -0.0242 J -0.0641
G01 X 13.4900 Y 1.7066 Z -1.0000
G01 X 13.4751 Y 1.7027 Z -1.0000
G01 X 13.4636 Y 1.7061 Z -1.0000
G01 X 13.4602 Y 1.7123 Z -1.0000
G01 X 13.4602 Y 1.7123 Z -1.0000
G00 Z 5.0000

(End cutting path id: path3127)


(Start cutting path id: path3127)
(Change tool to Default tool)

G00 Z 5.0000
G00 X 13.3660 Y 1.6232

G01 Z -1.0000 F 100.0000(Penetrate)
G01 X 13.3730 Y 1.6317 Z -1.0000 F 3500.0000
G01 X 13.3765 Y 1.6331 Z -1.0000
G01 X 13.3792 Y 1.6314 Z -1.0000
G01 X 13.3809 Y 1.6232 Z -1.0000
G01 X 13.3779 Y 1.6163 Z -1.0000
G01 X 13.3704 Y 1.6133 Z -1.0000
G01 X 13.3656 Y 1.6165 Z -1.0000
G01 X 13.3660 Y 1.6232 Z -1.0000
G01 X 13.3660 Y 1.6232 Z -1.0000
G00 Z 5.0000

(End cutting path id: path3127)


(Start cutting path id: path3127)
(Change tool to Default tool)

G00 Z 5.0000
G00 X 13.3264 Y 1.5340

G01 Z -1.0000 F 100.0000(Penetrate)
G01 X 13.3333 Y 1.5425 Z -1.0000 F 3500.0000
G01 X 13.3369 Y 1.5439 Z -1.0000
G01 X 13.3395 Y 1.5422 Z -1.0000
G01 X 13.3413 Y 1.5340 Z -1.0000
G01 X 13.3383 Y 1.5271 Z -1.0000
G01 X 13.3308 Y 1.5241 Z -1.0000
G01 X 13.3259 Y 1.5273 Z -1.0000
G01 X 13.3264 Y 1.5340 Z -1.0000
G01 X 13.3264 Y 1.5340 Z -1.0000
G00 Z 5.0000

(End cutting path id: path3127)


(Start cutting path id: path3127)
(Change tool to Default tool)

G00 Z 5.0000
G00 X 13.2997 Y 1.4714

G01 Z -1.0000 F 100.0000(Penetrate)
G01 X 13.3121 Y 1.4736 Z -1.0000 F 3500.0000
G01 X 13.3187 Y 1.4707 Z -1.0000
G01 X 13.3057 Y 1.4655 Z -1.0000
G01 X 13.2997 Y 1.4715 Z -1.0000
G01 X 13.2997 Y 1.4714 Z -1.0000
G00 Z 5.0000

(End cutting path id: path3127)


(Start cutting path id: path3127)
(Change tool to Default tool)

G00 Z 5.0000
G00 X 13.3520 Y 1.2082

G01 Z -1.0000 F 100.0000(Penetrate)
G01 X 13.3655 Y 1.2318 Z -1.0000 F 3500.0000
G01 X 13.3861 Y 1.2262 Z -1.0000
G01 X 13.3856 Y 1.2203 Z -1.0000
G01 X 13.3773 Y 1.2167 Z -1.0000
G01 X 13.3651 Y 1.2132 Z -1.0000
G01 X 13.3577 Y 1.2043 Z -1.0000
G01 X 13.3519 Y 1.2082 Z -1.0000
G01 X 13.3520 Y 1.2082 Z -1.0000
G00 Z 5.0000

(End cutting path id: path3127)


(Start cutting path id: path3127)
(Change tool to Default tool)

G00 Z 5.0000
G00 X 13.2867 Y 1.1474

G01 Z -1.0000 F 100.0000(Penetrate)
G01 X 13.2863 Y 1.1541 Z -1.0000 F 3500.0000
G01 X 13.2911 Y 1.1573 Z -1.0000
G01 X 13.2987 Y 1.1543 Z -1.0000
G01 X 13.3016 Y 1.1474 Z -1.0000
G01 X 13.2999 Y 1.1392 Z -1.0000
G01 X 13.2972 Y 1.1375 Z -1.0000
G01 X 13.2936 Y 1.1389 Z -1.0000
G01 X 13.2867 Y 1.1474 Z -1.0000
G01 X 13.2867 Y 1.1474 Z -1.0000
G00 Z 5.0000

(End cutting path id: path3127)


(Start cutting path id: path3127)
(Change tool to Default tool)

G00 Z 5.0000
G00 X 13.1479 Y 1.2267

G01 Z -1.0000 F 100.0000(Penetrate)
G01 X 13.1485 Y 1.2328 Z -1.0000 F 3500.0000
G01 X 13.1572 Y 1.2366 Z -1.0000
G01 X 13.1692 Y 1.2330 Z -1.0000
G01 X 13.1727 Y 1.2267 Z -1.0000
G01 X 13.1698 Y 1.2196 Z -1.0000
G01 X 13.1634 Y 1.2168 Z -1.0000
G01 X 13.1553 Y 1.2191 Z -1.0000
G01 X 13.1479 Y 1.2267 Z -1.0000
G01 X 13.1479 Y 1.2267 Z -1.0000
G00 Z 5.0000

(End cutting path id: path3127)


(Start cutting path id: path3127)
(Change tool to Default tool)

G00 Z 5.0000
G00 X 12.6967 Y 1.3058

G01 Z -1.0000 F 100.0000(Penetrate)
G01 X 12.6997 Y 1.3129 Z -1.0000 F 3500.0000
G01 X 12.7066 Y 1.3157 Z -1.0000
G01 X 12.7137 Y 1.3128 Z -1.0000
G01 X 12.7165 Y 1.3058 Z -1.0000
G01 X 12.7136 Y 1.2988 Z -1.0000
G01 X 12.7066 Y 1.2959 Z -1.0000
G01 X 12.6996 Y 1.2989 Z -1.0000
G01 X 12.6967 Y 1.3058 Z -1.0000
G01 X 12.6967 Y 1.3058 Z -1.0000
G00 Z 5.0000

(End cutting path id: path3127)


(Start cutting path id: path3127)
(Change tool to Default tool)

G00 Z 5.0000
G00 X 12.6370 Y 1.1328

G01 Z -1.0000 F 100.0000(Penetrate)
G01 X 12.6382 Y 1.1425 Z -1.0000 F 3500.0000
G01 X 12.6502 Y 1.1425 Z -1.0000
G01 X 12.6606 Y 1.1297 Z -1.0000
G01 X 12.6587 Y 1.1236 Z -1.0000
G01 X 12.6502 Y 1.1230 Z -1.0000
G01 X 12.6369 Y 1.1328 Z -1.0000
G01 X 12.6370 Y 1.1328 Z -1.0000
G00 Z 5.0000

(End cutting path id: path3127)


(Start cutting path id: path3127)
(Change tool to Default tool)

G00 Z 5.0000
G00 X 12.2803 Y 1.3058

G01 Z -1.0000 F 100.0000(Penetrate)
G01 X 12.2833 Y 1.3128 Z -1.0000 F 3500.0000
G01 X 12.2908 Y 1.3157 Z -1.0000
G01 X 12.2956 Y 1.3125 Z -1.0000
G01 X 12.2952 Y 1.3058 Z -1.0000
G01 X 12.2882 Y 1.2973 Z -1.0000
G01 X 12.2847 Y 1.2959 Z -1.0000
G01 X 12.2820 Y 1.2977 Z -1.0000
G01 X 12.2803 Y 1.3058 Z -1.0000
G01 X 12.2803 Y 1.3058 Z -1.0000
G00 Z 5.0000

(End cutting path id: path3127)


(Start cutting path id: path3127)
(Change tool to Default tool)

G00 Z 5.0000
G00 X 12.1514 Y 1.5777

G01 Z -1.0000 F 100.0000(Penetrate)
G01 X 12.1560 Y 1.5888 Z -1.0000 F 3500.0000
G01 X 12.1671 Y 1.5934 Z -1.0000
G01 X 12.1768 Y 1.5823 Z -1.0000
G01 X 12.1632 Y 1.5660 Z -1.0000
G01 X 12.1555 Y 1.5678 Z -1.0000
G01 X 12.1514 Y 1.5777 Z -1.0000
G01 X 12.1514 Y 1.5777 Z -1.0000
G00 Z 5.0000

(End cutting path id: path3127)


(Start cutting path id: path3127)
(Change tool to Default tool)

G00 Z 5.0000
G00 X 11.9729 Y 1.5742

G01 Z -1.0000 F 100.0000(Penetrate)
G01 X 11.9761 Y 1.5791 Z -1.0000 F 3500.0000
G01 X 11.9828 Y 1.5786 Z -1.0000
G01 X 11.9913 Y 1.5717 Z -1.0000
G01 X 11.9927 Y 1.5681 Z -1.0000
G01 X 11.9910 Y 1.5655 Z -1.0000
G01 X 11.9828 Y 1.5637 Z -1.0000
G01 X 11.9759 Y 1.5667 Z -1.0000
G01 X 11.9729 Y 1.5742 Z -1.0000
G01 X 11.9729 Y 1.5742 Z -1.0000
G00 Z 5.0000

(End cutting path id: path3127)


(Start cutting path id: path3127)
(Change tool to Default tool)

G00 Z 5.0000
G00 X 11.9878 Y 1.4150

G01 Z -1.0000 F 100.0000(Penetrate)
G01 X 11.9871 Y 1.4219 Z -1.0000 F 3500.0000
G01 X 11.9916 Y 1.4249 Z -1.0000
G01 X 12.0002 Y 1.4224 Z -1.0000
G01 X 12.0076 Y 1.4150 Z -1.0000
G01 X 12.0082 Y 1.4081 Z -1.0000
G01 X 12.0038 Y 1.4051 Z -1.0000
G01 X 11.9952 Y 1.4076 Z -1.0000
G01 X 11.9878 Y 1.4150 Z -1.0000
G01 X 11.9878 Y 1.4150 Z -1.0000
G00 Z 5.0000

(End cutting path id: path3127)


(Start cutting path id: path3127)
(Change tool to Default tool)

G00 Z 5.0000
G00 X 11.8944 Y 1.3613

G01 Z -1.0000 F 100.0000(Penetrate)
G01 X 11.9004 Y 1.3673 Z -1.0000 F 3500.0000
G01 X 11.9025 Y 1.3549 Z -1.0000
G01 X 11.8996 Y 1.3483 Z -1.0000
G01 X 11.8944 Y 1.3614 Z -1.0000
G01 X 11.8944 Y 1.3613 Z -1.0000
G00 Z 5.0000

(End cutting path id: path3127)


(Start cutting path id: path3127)
(Change tool to Default tool)

G00 Z 5.0000
G00 X 11.7448 Y 1.4944

G01 Z -1.0000 F 100.0000(Penetrate)
G01 X 11.7477 Y 1.5015 Z -1.0000 F 3500.0000
G01 X 11.7541 Y 1.5043 Z -1.0000
G01 X 11.7621 Y 1.5019 Z -1.0000
G01 X 11.7696 Y 1.4944 Z -1.0000
G01 X 11.7690 Y 1.4882 Z -1.0000
G01 X 11.7603 Y 1.4845 Z -1.0000
G01 X 11.7483 Y 1.4880 Z -1.0000
G01 X 11.7448 Y 1.4944 Z -1.0000
G01 X 11.7448 Y 1.4944 Z -1.0000
G00 Z 5.0000

(End cutting path id: path3127)


(Start cutting path id: path3127)
(Change tool to Default tool)

G00 Z 5.0000
G00 X 11.6655 Y 1.5984

G01 Z -1.0000 F 100.0000(Penetrate)
G01 X 11.6613 Y 1.6070 Z -1.0000 F 3500.0000
G01 X 11.6541 Y 1.6074 Z -1.0000
G01 X 11.6501 Y 1.6079 Z -1.0000
G01 X 11.6497 Y 1.6118 Z -1.0000
G01 X 11.6722 Y 1.6232 Z -1.0000
G01 X 11.6853 Y 1.6090 Z -1.0000
G01 X 11.6824 Y 1.5963 Z -1.0000
G01 X 11.6754 Y 1.5886 Z -1.0000
G01 X 11.6693 Y 1.5893 Z -1.0000
G01 X 11.6655 Y 1.5985 Z -1.0000
G01 X 11.6655 Y 1.5984 Z -1.0000
G00 Z 5.0000

(End cutting path id: path3127)


(Start cutting path id: path3127)
(Change tool to Default tool)

G00 Z 5.0000
G00 X 11.5366 Y 1.5835

G01 Z -1.0000 F 100.0000(Penetrate)
G01 X 11.5396 Y 1.5905 Z -1.0000 F 3500.0000
G01 X 11.5471 Y 1.5934 Z -1.0000
G01 X 11.5520 Y 1.5902 Z -1.0000
G01 X 11.5515 Y 1.5835 Z -1.0000
G01 X 11.5446 Y 1.5750 Z -1.0000
G01 X 11.5410 Y 1.5736 Z -1.0000
G01 X 11.5383 Y 1.5754 Z -1.0000
G01 X 11.5366 Y 1.5835 Z -1.0000
G01 X 11.5366 Y 1.5835 Z -1.0000
G00 Z 5.0000

(End cutting path id: path3127)


(Start cutting path id: path3127)
(Change tool to Default tool)

G00 Z 5.0000
G00 X 11.3780 Y 1.3638

G01 Z -1.0000 F 100.0000(Penetrate)
G01 X 11.3857 Y 1.3772 Z -1.0000 F 3500.0000
G01 X 11.4037 Y 1.3786 Z -1.0000
G01 X 11.4105 Y 1.3655 Z -1.0000
G01 X 11.3978 Y 1.3556 Z -1.0000
G01 X 11.3813 Y 1.3589 Z -1.0000
G01 X 11.3780 Y 1.3639 Z -1.0000
G01 X 11.3780 Y 1.3638 Z -1.0000
G00 Z 5.0000

(End cutting path id: path3127)


(Start cutting path id: path3127)
(Change tool to Default tool)

G00 Z 5.0000
G00 X 11.4821 Y 1.1077

G01 Z -1.0000 F 100.0000(Penetrate)
G01 X 11.4816 Y 1.1144 Z -1.0000 F 3500.0000
G01 X 11.4865 Y 1.1176 Z -1.0000
G01 X 11.4940 Y 1.1146 Z -1.0000
G01 X 11.4970 Y 1.1077 Z -1.0000
G01 X 11.4952 Y 1.0995 Z -1.0000
G01 X 11.4926 Y 1.0978 Z -1.0000
G01 X 11.4890 Y 1.0992 Z -1.0000
G01 X 11.4821 Y 1.1077 Z -1.0000
G01 X 11.4821 Y 1.1077 Z -1.0000
G00 Z 5.0000

(End cutting path id: path3127)


(Start cutting path id: path3127)
(Change tool to Default tool)

G00 Z 5.0000
G00 X 11.3680 Y 0.9144

G01 Z -1.0000 F 100.0000(Penetrate)
G01 X 11.3727 Y 0.9213 Z -1.0000 F 3500.0000
G01 X 11.3879 Y 0.9222 Z -1.0000
G01 X 11.4077 Y 0.9144 Z -1.0000
G01 X 11.3879 Y 0.9066 Z -1.0000
G01 X 11.3727 Y 0.9075 Z -1.0000
G01 X 11.3680 Y 0.9144 Z -1.0000
G01 X 11.3680 Y 0.9144 Z -1.0000
G00 Z 5.0000

(End cutting path id: path3127)


(Start cutting path id: path3127)
(Change tool to Default tool)

G00 Z 5.0000
G00 X 11.2689 Y 0.5767

G01 Z -1.0000 F 100.0000(Penetrate)
G01 X 11.2724 Y 0.5887 Z -1.0000 F 3500.0000
G01 X 11.2788 Y 0.5921 Z -1.0000
G01 X 11.2859 Y 0.5893 Z -1.0000
G01 X 11.2887 Y 0.5828 Z -1.0000
G01 X 11.2863 Y 0.5748 Z -1.0000
G01 X 11.2788 Y 0.5674 Z -1.0000
G01 X 11.2726 Y 0.5680 Z -1.0000
G01 X 11.2689 Y 0.5767 Z -1.0000
G01 X 11.2689 Y 0.5767 Z -1.0000
G00 Z 5.0000

(End cutting path id: path3127)


(Start cutting path id: path3127)
(Change tool to Default tool)

G00 Z 5.0000
G00 X 11.4176 Y 0.5034

G01 Z -1.0000 F 100.0000(Penetrate)
G01 X 11.4208 Y 0.5083 Z -1.0000 F 3500.0000
G01 X 11.4275 Y 0.5078 Z -1.0000
G01 X 11.4360 Y 0.5009 Z -1.0000
G01 X 11.4374 Y 0.4973 Z -1.0000
G01 X 11.4357 Y 0.4946 Z -1.0000
G01 X 11.4275 Y 0.4929 Z -1.0000
G01 X 11.4206 Y 0.4959 Z -1.0000
G01 X 11.4176 Y 0.5034 Z -1.0000
G01 X 11.4176 Y 0.5034 Z -1.0000
G00 Z 5.0000

(End cutting path id: path3127)


(Start cutting path id: path3127)
(Change tool to Default tool)

G00 Z 5.0000
G00 X 11.9304 Y 0.7012

G01 Z -1.0000 F 100.0000(Penetrate)
G01 X 11.9298 Y 0.7174 Z -1.0000 F 3500.0000
G01 X 11.9342 Y 0.7210 Z -1.0000
G01 X 11.9416 Y 0.7194 Z -1.0000
G01 X 11.9432 Y 0.7169 Z -1.0000
G01 X 11.9438 Y 0.7128 Z -1.0000
G03 X 11.9492 Y 0.6970 Z -1.0000 I 0.2252 J 0.0683
G01 X 11.9499 Y 0.6850 Z -1.0000
G01 X 11.9454 Y 0.6814 Z -1.0000
G01 X 11.9383 Y 0.6849 Z -1.0000
G01 X 11.9303 Y 0.7012 Z -1.0000
G01 X 11.9304 Y 0.7012 Z -1.0000
G00 Z 5.0000

(End cutting path id: path3127)


(Start cutting path id: path3127)
(Change tool to Default tool)

G00 Z 5.0000
G00 X 12.0330 Y 0.6771

G01 Z -1.0000 F 100.0000(Penetrate)
G01 X 12.0539 Y 0.6893 Z -1.0000 F 3500.0000
G01 X 12.0621 Y 0.6824 Z -1.0000
G01 X 12.0589 Y 0.6762 Z -1.0000
G02 X 12.0417 Y 0.6683 Z -1.0000 I -0.0309 J 0.0447
G01 X 12.0333 Y 0.6706 Z -1.0000
G01 X 12.0330 Y 0.6771 Z -1.0000
G01 X 12.0330 Y 0.6771 Z -1.0000
G00 Z 5.0000

(End cutting path id: path3127)


(Start cutting path id: path3127)
(Change tool to Default tool)

G00 Z 5.0000
G00 X 12.0629 Y 0.9945

G01 Z -1.0000 F 100.0000(Penetrate)
G01 X 12.0689 Y 1.0005 Z -1.0000 F 3500.0000
G01 X 12.0710 Y 0.9881 Z -1.0000
G01 X 12.0681 Y 0.9815 Z -1.0000
G01 X 12.0629 Y 0.9945 Z -1.0000
G01 X 12.0629 Y 0.9945 Z -1.0000
G00 Z 5.0000

(End cutting path id: path3127)


(Start cutting path id: path3127)
(Change tool to Default tool)

G00 Z 5.0000
G00 X 12.2406 Y 0.9694

G01 Z -1.0000 F 100.0000(Penetrate)
G01 X 12.2438 Y 0.9743 Z -1.0000 F 3500.0000
G01 X 12.2505 Y 0.9738 Z -1.0000
G01 X 12.2590 Y 0.9669 Z -1.0000
G01 X 12.2604 Y 0.9633 Z -1.0000
G01 X 12.2587 Y 0.9607 Z -1.0000
G01 X 12.2505 Y 0.9589 Z -1.0000
G01 X 12.2436 Y 0.9619 Z -1.0000
G01 X 12.2406 Y 0.9694 Z -1.0000
G01 X 12.2406 Y 0.9694 Z -1.0000
G00 Z 5.0000

(End cutting path id: path3127)


(Start cutting path id: path3127)
(Change tool to Default tool)

G00 Z 5.0000
G00 X 12.4647 Y 0.6787

G01 Z -1.0000 F 100.0000(Penetrate)
G01 X 12.4622 Y 0.6930 Z -1.0000 F 3500.0000
G01 X 12.4736 Y 0.6976 Z -1.0000
G01 X 12.4850 Y 0.6970 Z -1.0000
G01 X 12.4885 Y 0.7015 Z -1.0000
G01 X 12.4913 Y 0.7083 Z -1.0000
G01 X 12.4981 Y 0.7111 Z -1.0000
G01 X 12.5059 Y 0.6991 Z -1.0000
G01 X 12.4837 Y 0.6778 Z -1.0000
G01 X 12.4712 Y 0.6758 Z -1.0000
G01 X 12.4646 Y 0.6787 Z -1.0000
G01 X 12.4647 Y 0.6787 Z -1.0000
G00 Z 5.0000

(End cutting path id: path3127)


(Start cutting path id: path3127)
(Change tool to Default tool)

G00 Z 5.0000
G00 X 12.4595 Y 0.5086

G01 Z -1.0000 F 100.0000(Penetrate)
G01 X 12.4655 Y 0.5146 Z -1.0000 F 3500.0000
G01 X 12.4677 Y 0.5022 Z -1.0000
G01 X 12.4648 Y 0.4956 Z -1.0000
G01 X 12.4596 Y 0.5086 Z -1.0000
G01 X 12.4595 Y 0.5086 Z -1.0000
G00 Z 5.0000

(End cutting path id: path3127)


(Start cutting path id: path3127)
(Change tool to Default tool)

G00 Z 5.0000
G00 X 12.6372 Y 0.3447

G01 Z -1.0000 F 100.0000(Penetrate)
G01 X 12.6404 Y 0.3496 Z -1.0000 F 3500.0000
G01 X 12.6471 Y 0.3491 Z -1.0000
G01 X 12.6556 Y 0.3422 Z -1.0000
G01 X 12.6570 Y 0.3386 Z -1.0000
G01 X 12.6553 Y 0.3360 Z -1.0000
G01 X 12.6471 Y 0.3342 Z -1.0000
G01 X 12.6402 Y 0.3372 Z -1.0000
G01 X 12.6372 Y 0.3447 Z -1.0000
G01 X 12.6372 Y 0.3447 Z -1.0000
G00 Z 5.0000

(End cutting path id: path3127)


(Start cutting path id: path3127)
(Change tool to Default tool)

G00 Z 5.0000
G00 X 12.6966 Y 0.3394

G01 Z -1.0000 F 100.0000(Penetrate)
G01 X 12.6955 Y 0.3463 Z -1.0000 F 3500.0000
G01 X 12.7003 Y 0.3483 Z -1.0000
G01 X 12.7136 Y 0.3401 Z -1.0000
G01 X 12.7165 Y 0.3332 Z -1.0000
G01 X 12.7114 Y 0.3295 Z -1.0000
G01 X 12.6965 Y 0.3394 Z -1.0000
G01 X 12.6966 Y 0.3394 Z -1.0000
G00 Z 5.0000

(End cutting path id: path3127)


(Start cutting path id: path3127)
(Change tool to Default tool)

G00 Z 5.0000
G00 X 12.8415 Y 0.3996

G01 Z -1.0000 F 100.0000(Penetrate)
G01 X 12.8395 Y 0.4159 Z -1.0000 F 3500.0000
G01 X 12.8448 Y 0.4267 Z -1.0000
G01 X 12.8529 Y 0.4283 Z -1.0000
G01 X 12.8613 Y 0.4194 Z -1.0000
G01 X 12.8633 Y 0.4032 Z -1.0000
G01 X 12.8580 Y 0.3923 Z -1.0000
G01 X 12.8499 Y 0.3908 Z -1.0000
G01 X 12.8415 Y 0.3996 Z -1.0000
G01 X 12.8415 Y 0.3996 Z -1.0000
G00 Z 5.0000

(End cutting path id: path3127)


(Start cutting path id: path3127)
(Change tool to Default tool)

G00 Z 5.0000
G00 X 12.9248 Y 0.4136

G01 Z -1.0000 F 100.0000(Penetrate)
G01 X 12.9277 Y 0.4207 Z -1.0000 F 3500.0000
G01 X 12.9347 Y 0.4235 Z -1.0000
G01 X 12.9417 Y 0.4206 Z -1.0000
G01 X 12.9446 Y 0.4136 Z -1.0000
G01 X 12.9417 Y 0.4066 Z -1.0000
G01 X 12.9347 Y 0.4037 Z -1.0000
G01 X 12.9277 Y 0.4067 Z -1.0000
G01 X 12.9248 Y 0.4136 Z -1.0000
G01 X 12.9248 Y 0.4136 Z -1.0000
G00 Z 5.0000

(End cutting path id: path3127)


(Start cutting path id: path3127)
(Change tool to Default tool)

G00 Z 5.0000
G00 X 12.9595 Y 0.6615

G01 Z -1.0000 F 100.0000(Penetrate)
G01 X 12.9601 Y 0.6676 Z -1.0000 F 3500.0000
G01 X 12.9688 Y 0.6714 Z -1.0000
G01 X 12.9808 Y 0.6678 Z -1.0000
G01 X 12.9843 Y 0.6615 Z -1.0000
G01 X 12.9814 Y 0.6543 Z -1.0000
G01 X 12.9750 Y 0.6516 Z -1.0000
G01 X 12.9669 Y 0.6539 Z -1.0000
G01 X 12.9595 Y 0.6615 Z -1.0000
G01 X 12.9595 Y 0.6615 Z -1.0000
G00 Z 5.0000

(End cutting path id: path3127)


(Start cutting path id: path3127)
(Change tool to Default tool)

G00 Z 5.0000
G00 X 12.8785 Y 0.1507

G01 Z -1.0000 F 100.0000(Penetrate)
G01 X 12.8828 Y 0.1563 Z -1.0000 F 3500.0000
G01 X 12.8917 Y 0.1544 Z -1.0000
G02 X 12.9038 Y 0.1428 Z -1.0000 I -0.0683 J -0.0831
G01 X 12.9050 Y 0.1397 Z -1.0000
G01 X 12.8917 Y 0.1360 Z -1.0000
G01 X 12.8826 Y 0.1400 Z -1.0000
G01 X 12.8785 Y 0.1507 Z -1.0000
G01 X 12.8785 Y 0.1507 Z -1.0000
G00 Z 5.0000

