%
(Header)
(Generated by gcodetools from Inkscape.)
(Using default header. To add your own header create file "header" in the output dir.)
M3
(Header end.)
G21 (All units in mm)

(Start cutting path id: path56242)
(Change tool to Default tool)

G00 Z 5.0000
G00 X 4.0152 Y 13.2531

G01 Z -1.0000 F 100.0000(Penetrate)
G02 X 4.0311 Y 13.2550 Z -1.0000 I 0.0150 J -0.0575 F 3500.0000
G01 X 4.0424 Y 13.2528 Z -1.0000
G01 X 4.0263 Y 13.2486 Z -1.0000
G01 X 4.0152 Y 13.2531 Z -1.0000
G01 X 4.0152 Y 13.2531 Z -1.0000
G00 Z 5.0000

(End cutting path id: path56242)


(Start cutting path id: path56242)
(Change tool to Default tool)

G00 Z 5.0000
G00 X 4.0581 Y 13.2552

G01 Z -1.0000 F 100.0000(Penetrate)
G01 X 4.0656 Y 13.2660 Z -1.0000 F 3500.0000
G02 X 4.2711 Y 13.3335 Z -1.0000 I 1.0640 J -2.8902
G03 X 4.3159 Y 13.3480 Z -1.0000 I -0.2088 J 0.7229
G03 X 4.3436 Y 13.3594 Z -1.0000 I -0.1075 J 0.3003
G02 X 4.4016 Y 13.3775 Z -1.0000 I 0.0958 J -0.2045
G02 X 4.4927 Y 13.3847 Z -1.0000 I 0.0858 J -0.5046
G03 X 4.5136 Y 13.3886 Z -1.0000 I 0.0006 J 0.0549
G03 X 4.5469 Y 13.4063 Z -1.0000 I -0.0645 J 0.1619
G02 X 4.5802 Y 13.4243 Z -1.0000 I 0.1054 J -0.1550
G01 X 4.5992 Y 13.4281 Z -1.0000
G03 X 4.6189 Y 13.4308 Z -1.0000 I 0.0000 J 0.0744
G03 X 4.6654 Y 13.4463 Z -1.0000 I -0.1229 J 0.4470
G02 X 4.7120 Y 13.4613 Z -1.0000 I 0.1415 J -0.3581
G02 X 4.7365 Y 13.4644 Z -1.0000 I 0.0245 J -0.0961
G03 X 4.7603 Y 13.4673 Z -1.0000 I 0.0000 J 0.0978
G01 X 4.7702 Y 13.4729 Z -1.0000
G02 X 4.7972 Y 13.4877 Z -1.0000 I 0.0390 J -0.0394
G02 X 4.9544 Y 13.5138 Z -1.0000 I 0.3222 J -1.4501
G03 X 5.0058 Y 13.5244 Z -1.0000 I -0.0318 J 0.2840
G01 X 5.0063 Y 13.5296 Z -1.0000
G01 X 5.0032 Y 13.5440 Z -1.0000
G01 X 5.0249 Y 13.5550 Z -1.0000
G03 X 5.0465 Y 13.5591 Z -1.0000 I -0.0000 J 0.0586
G03 X 5.0709 Y 13.5731 Z -1.0000 I -0.0362 J 0.0914
G02 X 5.0949 Y 13.5885 Z -1.0000 I 0.0903 J -0.1144
G01 X 5.1063 Y 13.5913 Z -1.0000
G01 X 5.1158 Y 13.5941 Z -1.0000
G01 X 5.1187 Y 13.5996 Z -1.0000
G01 X 5.1223 Y 13.6047 Z -1.0000
G02 X 5.1572 Y 13.6143 Z -1.0000 I 0.0651 J -0.1688
G03 X 5.1947 Y 13.6237 Z -1.0000 I -0.0422 J 0.2481
G03 X 5.2273 Y 13.6378 Z -1.0000 I -0.0663 J 0.1986
G02 X 5.2597 Y 13.6517 Z -1.0000 I 0.0964 J -0.1804
G02 X 5.2790 Y 13.6548 Z -1.0000 I 0.0192 J -0.0584
G03 X 5.2973 Y 13.6576 Z -1.0000 I 0.0000 J 0.0613
G01 X 5.3038 Y 13.6627 Z -1.0000
G01 X 5.3106 Y 13.6678 Z -1.0000
G02 X 5.3882 Y 13.6868 Z -1.0000 I 0.2856 J -0.9974
G03 X 5.4667 Y 13.7052 Z -1.0000 I -0.2721 J 1.3371
G01 X 5.4775 Y 13.7104 Z -1.0000
G02 X 5.5774 Y 13.7637 Z -1.0000 I 0.2159 J -0.2846
G02 X 5.6851 Y 13.7817 Z -1.0000 I 0.1077 J -0.3138
G03 X 5.7031 Y 13.7846 Z -1.0000 I 0.0000 J 0.0569
G01 X 5.7139 Y 13.7913 Z -1.0000
G01 X 5.7250 Y 13.7963 Z -1.0000
G02 X 5.7712 Y 13.7945 Z -1.0000 I 0.0137 J -0.2442
G01 X 5.7764 Y 13.7819 Z -1.0000
G02 X 5.7442 Y 13.7592 Z -1.0000 I -0.0523 J 0.0399
G03 X 5.6949 Y 13.7418 Z -1.0000 I 0.2795 J -0.8710
G03 X 5.6706 Y 13.7309 Z -1.0000 I 0.0878 J -0.2280
G02 X 5.6462 Y 13.7205 Z -1.0000 I -0.0871 J 0.1697
G02 X 5.5981 Y 13.7058 Z -1.0000 I -0.2176 J 0.6249
G03 X 5.5499 Y 13.6911 Z -1.0000 I 0.1792 J -0.6773
G03 X 5.5072 Y 13.6746 Z -1.0000 I 0.1875 J -0.5464
G02 X 5.4645 Y 13.6582 Z -1.0000 I -0.2128 J 0.4903
G02 X 5.4075 Y 13.6411 Z -1.0000 I -0.2869 J 0.8550
G03 X 5.3501 Y 13.6251 Z -1.0000 I 0.6073 J -2.2923
G03 X 5.3317 Y 13.6189 Z -1.0000 I 0.0645 J -0.2209
G02 X 5.3134 Y 13.6124 Z -1.0000 I -0.1095 J 0.2800
G02 X 5.2456 Y 13.5914 Z -1.0000 I -1.3701 J 4.3038
G03 X 5.1790 Y 13.5681 Z -1.0000 I 0.2354 J -0.7810
G03 X 5.1550 Y 13.5553 Z -1.0000 I 0.0449 J -0.1126
G02 X 5.1310 Y 13.5425 Z -1.0000 I -0.0684 J 0.0992
G02 X 5.0643 Y 13.5193 Z -1.0000 I -0.2971 J 0.7492
G03 X 4.9975 Y 13.4964 Z -1.0000 I 0.2507 J -0.8399
G03 X 4.9688 Y 13.4822 Z -1.0000 I 0.0649 J -0.1671
G02 X 4.9399 Y 13.4686 Z -1.0000 I -0.0760 J 0.1237
G02 X 4.8238 Y 13.4325 Z -1.0000 I -0.6904 J 2.0147
G03 X 4.7063 Y 13.3992 Z -1.0000 I 6.5179 J -23.2766
G03 X 4.6609 Y 13.3860 Z -1.0000 I 0.9951 J -3.4857
G02 X 4.6154 Y 13.3731 Z -1.0000 I -0.4159 J 1.3824
G02 X 4.5793 Y 13.3642 Z -1.0000 I -0.2475 J 0.9322
G03 X 4.5434 Y 13.3549 Z -1.0000 I 0.1228 J -0.5440
G03 X 4.5068 Y 13.3427 Z -1.0000 I 0.1665 J -0.5610
G02 X 4.4703 Y 13.3306 Z -1.0000 I -0.1811 J 0.4881
G01 X 4.4591 Y 13.3289 Z -1.0000
G03 X 4.4340 Y 13.3235 Z -1.0000 I 0.0025 J -0.0730
G03 X 4.3468 Y 13.2829 Z -1.0000 I 0.3869 J -0.9452
G02 X 4.1063 Y 13.2114 Z -1.0000 I -0.3025 J 0.5773
G01 X 4.0581 Y 13.2552 Z -1.0000
G01 X 4.0581 Y 13.2552 Z -1.0000
G00 Z 5.0000

(End cutting path id: path56242)


(Start cutting path id: path56242)
(Change tool to Default tool)

G00 Z 5.0000
G00 X 5.3338 Y 13.6421

G01 Z -1.0000 F 100.0000(Penetrate)
G01 X 5.3278 Y 13.6448 Z -1.0000 F 3500.0000
G01 X 5.3164 Y 13.6428 Z -1.0000
G01 X 5.3219 Y 13.6373 Z -1.0000
G01 X 5.3338 Y 13.6421 Z -1.0000
G01 X 5.3338 Y 13.6421 Z -1.0000
G00 Z 5.0000

(End cutting path id: path56242)


(Start cutting path id: path56242)
(Change tool to Default tool)

G00 Z 5.0000
G00 X 5.8530 Y 13.7998

G01 Z -1.0000 F 100.0000(Penetrate)
G01 X 5.8557 Y 13.8062 Z -1.0000 F 3500.0000
G01 X 5.8626 Y 13.8089 Z -1.0000
G01 X 5.8670 Y 13.8060 Z -1.0000
G01 X 5.8666 Y 13.7998 Z -1.0000
G01 X 5.8603 Y 13.7920 Z -1.0000
G01 X 5.8570 Y 13.7907 Z -1.0000
G01 X 5.8546 Y 13.7923 Z -1.0000
G01 X 5.8530 Y 13.7998 Z -1.0000
G01 X 5.8530 Y 13.7998 Z -1.0000
G00 Z 5.0000

(End cutting path id: path56242)


(Start cutting path id: path56242)
(Change tool to Default tool)

G00 Z 5.0000
G00 X 5.8991 Y 13.8121

G01 Z -1.0000 F 100.0000(Penetrate)
G02 X 5.9406 Y 13.8305 Z -1.0000 I 0.0512 J -0.0595 F 3500.0000
G01 X 5.9484 Y 13.8183 Z -1.0000
G01 X 5.9407 Y 13.8123 Z -1.0000
G02 X 5.9189 Y 13.8089 Z -1.0000 I -0.0217 J 0.0685
G01 X 5.8991 Y 13.8122 Z -1.0000
G01 X 5.8991 Y 13.8121 Z -1.0000
G00 Z 5.0000

(End cutting path id: path56242)


(Start cutting path id: path56242)
(Change tool to Default tool)

G00 Z 5.0000
G00 X 5.9577 Y 13.8353

G01 Z -1.0000 F 100.0000(Penetrate)
G01 X 5.9585 Y 13.8420 Z -1.0000 F 3500.0000
G02 X 5.9798 Y 13.8573 Z -1.0000 I 0.0583 J -0.0587
G01 X 5.9937 Y 13.8535 Z -1.0000
G01 X 5.9912 Y 13.8396 Z -1.0000
G01 X 5.9683 Y 13.8302 Z -1.0000
G01 X 5.9577 Y 13.8353 Z -1.0000
G01 X 5.9577 Y 13.8353 Z -1.0000
G00 Z 5.0000

(End cutting path id: path56242)


(Start cutting path id: path56242)
(Change tool to Default tool)

G00 Z 5.0000
G00 X 6.0343 Y 13.8626

G01 Z -1.0000 F 100.0000(Penetrate)
G01 X 6.0446 Y 13.8787 Z -1.0000 F 3500.0000
G02 X 6.0959 Y 13.8911 Z -1.0000 I 0.0569 J -0.1236
G01 X 6.0983 Y 13.8944 Z -1.0000
G01 X 6.0932 Y 13.9003 Z -1.0000
G01 X 6.1000 Y 13.9040 Z -1.0000
G03 X 6.1217 Y 13.9032 Z -1.0000 I 0.0133 J 0.0677
G01 X 6.1250 Y 13.9069 Z -1.0000
G01 X 6.1355 Y 13.9251 Z -1.0000
G02 X 6.1752 Y 13.9357 Z -1.0000 I 0.0397 J -0.0692
G01 X 6.1794 Y 13.9141 Z -1.0000
G01 X 6.1668 Y 13.8943 Z -1.0000
G02 X 6.1096 Y 13.8814 Z -1.0000 I -0.0577 J 0.1231
G03 X 6.0825 Y 13.8782 Z -1.0000 I 0.0005 J -0.1192
G01 X 6.0758 Y 13.8733 Z -1.0000
G01 X 6.0474 Y 13.8524 Z -1.0000
G01 X 6.0343 Y 13.8626 Z -1.0000
G01 X 6.0343 Y 13.8626 Z -1.0000
G00 Z 5.0000

(End cutting path id: path56242)


(Start cutting path id: path56242)
(Change tool to Default tool)

G00 Z 5.0000
G00 X 6.1945 Y 13.9147

G01 Z -1.0000 F 100.0000(Penetrate)
G01 X 6.1916 Y 13.9336 Z -1.0000 F 3500.0000
G01 X 6.2133 Y 13.9507 Z -1.0000
G03 X 6.2376 Y 13.9585 Z -1.0000 I -0.0436 J 0.1757
G03 X 6.2564 Y 13.9681 Z -1.0000 I -0.0458 J 0.1133
G02 X 6.2755 Y 13.9768 Z -1.0000 I 0.0433 J -0.0697
G02 X 6.3130 Y 13.9856 Z -1.0000 I 0.0813 J -0.2629
G03 X 6.3496 Y 13.9945 Z -1.0000 I -0.0372 J 0.2318
G01 X 6.3566 Y 14.0001 Z -1.0000
G01 X 6.3793 Y 14.0108 Z -1.0000
G01 X 6.4005 Y 13.9940 Z -1.0000
G01 X 6.3968 Y 13.9811 Z -1.0000
G01 X 6.3879 Y 13.9866 Z -1.0000
G01 X 6.3804 Y 13.9831 Z -1.0000
G01 X 6.3706 Y 13.9753 Z -1.0000
G02 X 6.3441 Y 13.9695 Z -1.0000 I -0.0332 J 0.0890
G03 X 6.3179 Y 13.9651 Z -1.0000 I 0.0095 J -0.1372
G01 X 6.3153 Y 13.9618 Z -1.0000
G01 X 6.3039 Y 13.9471 Z -1.0000
G02 X 6.2451 Y 13.9440 Z -1.0000 I -0.0374 J 0.1480
G01 X 6.2374 Y 13.9414 Z -1.0000
G01 X 6.2337 Y 13.9326 Z -1.0000
G01 X 6.2301 Y 13.9220 Z -1.0000
G01 X 6.2194 Y 13.9140 Z -1.0000
G01 X 6.2026 Y 13.9111 Z -1.0000
G01 X 6.1945 Y 13.9146 Z -1.0000
G01 X 6.1945 Y 13.9147 Z -1.0000
G00 Z 5.0000

(End cutting path id: path56242)


(Start cutting path id: path56242)
(Change tool to Default tool)

G00 Z 5.0000
G00 X 6.4150 Y 14.0038

G01 Z -1.0000 F 100.0000(Penetrate)
G01 X 6.4182 Y 14.0142 Z -1.0000 F 3500.0000
G01 X 6.4241 Y 14.0174 Z -1.0000
G01 X 6.4304 Y 14.0146 Z -1.0000
G01 X 6.4332 Y 14.0076 Z -1.0000
G01 X 6.4373 Y 14.0029 Z -1.0000
G03 X 6.4615 Y 14.0040 Z -1.0000 I 0.0091 J 0.0714
G02 X 6.4817 Y 14.0044 Z -1.0000 I 0.0113 J -0.0518
G01 X 6.4836 Y 14.0002 Z -1.0000
G01 X 6.4401 Y 13.9774 Z -1.0000
G01 X 6.4151 Y 14.0038 Z -1.0000
G01 X 6.4150 Y 14.0038 Z -1.0000
G00 Z 5.0000

(End cutting path id: path56242)


(Start cutting path id: path56242)
(Change tool to Default tool)

G00 Z 5.0000
G00 X 6.5488 Y 14.0506

G01 Z -1.0000 F 100.0000(Penetrate)
G01 X 6.5601 Y 14.0527 Z -1.0000 F 3500.0000
G01 X 6.5714 Y 14.0506 Z -1.0000
G01 X 6.5601 Y 14.0460 Z -1.0000
G01 X 6.5488 Y 14.0506 Z -1.0000
G01 X 6.5488 Y 14.0506 Z -1.0000
G00 Z 5.0000

(End cutting path id: path56242)


(Start cutting path id: path56242)
(Change tool to Default tool)

G00 Z 5.0000
G00 X 6.6072 Y 14.0685

G01 Z -1.0000 F 100.0000(Penetrate)
G01 X 6.6057 Y 14.0764 Z -1.0000 F 3500.0000
G01 X 6.6123 Y 14.0808 Z -1.0000
G01 X 6.6278 Y 14.0836 Z -1.0000
G01 X 6.6391 Y 14.0909 Z -1.0000
G01 X 6.6500 Y 14.0975 Z -1.0000
G01 X 6.6595 Y 14.0975 Z -1.0000
G01 X 6.6612 Y 14.0927 Z -1.0000
G02 X 6.6443 Y 14.0751 Z -1.0000 I -0.0601 J 0.0408
G02 X 6.6194 Y 14.0644 Z -1.0000 I -0.0352 J 0.0477
G01 X 6.6071 Y 14.0685 Z -1.0000
G01 X 6.6072 Y 14.0685 Z -1.0000
G00 Z 5.0000

(End cutting path id: path56242)


(Start cutting path id: path56242)
(Change tool to Default tool)

G00 Z 5.0000
G00 X 6.7913 Y 14.1352

G01 Z -1.0000 F 100.0000(Penetrate)
G01 X 6.7976 Y 14.1430 Z -1.0000 F 3500.0000
G01 X 6.8009 Y 14.1443 Z -1.0000
G01 X 6.8033 Y 14.1427 Z -1.0000
G01 X 6.8049 Y 14.1352 Z -1.0000
G01 X 6.8021 Y 14.1288 Z -1.0000
G01 X 6.7953 Y 14.1261 Z -1.0000
G01 X 6.7908 Y 14.1290 Z -1.0000
G01 X 6.7913 Y 14.1352 Z -1.0000
G01 X 6.7913 Y 14.1352 Z -1.0000
G00 Z 5.0000

(End cutting path id: path56242)


(Start cutting path id: path56242)
(Change tool to Default tool)

G00 Z 5.0000
G00 X 7.2445 Y 14.2702

G01 Z -1.0000 F 100.0000(Penetrate)
G01 X 7.2428 Y 14.2777 Z -1.0000 F 3500.0000
G02 X 7.2826 Y 14.2994 Z -1.0000 I 0.0890 J -0.1158
G02 X 7.3473 Y 14.3181 Z -1.0000 I 0.1838 J -0.5140
G01 X 7.3582 Y 14.3163 Z -1.0000
G01 X 7.3586 Y 14.3114 Z -1.0000
G01 X 7.3440 Y 14.3037 Z -1.0000
G01 X 7.3250 Y 14.2920 Z -1.0000
G01 X 7.3265 Y 14.2863 Z -1.0000
G01 X 7.3204 Y 14.2743 Z -1.0000
G01 X 7.3029 Y 14.2655 Z -1.0000
G02 X 7.2445 Y 14.2702 Z -1.0000 I -0.0119 J 0.2190
G01 X 7.2445 Y 14.2702 Z -1.0000
G00 Z 5.0000

(End cutting path id: path56242)


(Start cutting path id: path56242)
(Change tool to Default tool)

G00 Z 5.0000
G00 X 7.3851 Y 14.3121

G01 Z -1.0000 F 100.0000(Penetrate)
G01 X 7.3977 Y 14.3224 Z -1.0000 F 3500.0000
G01 X 7.4066 Y 14.3237 Z -1.0000
G01 X 7.4162 Y 14.3246 Z -1.0000
G03 X 7.4420 Y 14.3384 Z -1.0000 I -0.0602 J 0.1433
G02 X 7.4667 Y 14.3506 Z -1.0000 I 0.0601 J -0.0905
G01 X 7.4733 Y 14.3491 Z -1.0000
G01 X 7.4730 Y 14.3447 Z -1.0000
G01 X 7.4587 Y 14.3376 Z -1.0000
G01 X 7.4485 Y 14.3305 Z -1.0000
G01 X 7.4497 Y 14.3248 Z -1.0000
G01 X 7.4489 Y 14.3108 Z -1.0000
G02 X 7.3924 Y 14.2984 Z -1.0000 I -0.0565 J 0.1220
G01 X 7.3842 Y 14.3033 Z -1.0000
G01 X 7.3851 Y 14.3121 Z -1.0000
G01 X 7.3851 Y 14.3121 Z -1.0000
G00 Z 5.0000

(End cutting path id: path56242)


(Start cutting path id: path56242)
(Change tool to Default tool)

G00 Z 5.0000
G00 X 7.4811 Y 14.3382

G01 Z -1.0000 F 100.0000(Penetrate)
G01 X 7.4925 Y 14.3476 Z -1.0000 F 3500.0000
G01 X 7.5119 Y 14.3437 Z -1.0000
G01 X 7.5150 Y 14.3348 Z -1.0000
G03 X 7.5046 Y 14.3336 Z -1.0000 I 0.0007 J -0.0503
G03 X 7.4899 Y 14.3291 Z -1.0000 I 0.0223 J -0.0991
G01 X 7.4826 Y 14.3307 Z -1.0000
G01 X 7.4811 Y 14.3382 Z -1.0000
G01 X 7.4811 Y 14.3382 Z -1.0000
G00 Z 5.0000

(End cutting path id: path56242)


(Start cutting path id: path56242)
(Change tool to Default tool)

G00 Z 5.0000
G00 X 7.5346 Y 14.3619

G01 Z -1.0000 F 100.0000(Penetrate)
G02 X 7.5590 Y 14.3669 Z -1.0000 I 0.0244 J -0.0568 F 3500.0000
G01 X 7.5618 Y 14.3619 Z -1.0000
G01 X 7.5545 Y 14.3560 Z -1.0000
G02 X 7.5363 Y 14.3535 Z -1.0000 I -0.0162 J 0.0490
G01 X 7.5321 Y 14.3570 Z -1.0000
G01 X 7.5346 Y 14.3619 Z -1.0000
G01 X 7.5346 Y 14.3619 Z -1.0000
G00 Z 5.0000

(End cutting path id: path56242)


(Start cutting path id: path56242)
(Change tool to Default tool)

G00 Z 5.0000
G00 X 7.7159 Y 14.4097

G01 Z -1.0000 F 100.0000(Penetrate)
G02 X 7.7348 Y 14.4212 Z -1.0000 I 0.0839 J -0.1162 F 3500.0000
G02 X 7.7544 Y 14.4292 Z -1.0000 I 0.0571 J -0.1123
G03 X 7.7719 Y 14.4378 Z -1.0000 I -0.0190 J 0.0609
G01 X 7.7748 Y 14.4434 Z -1.0000
G01 X 7.7783 Y 14.4484 Z -1.0000
G02 X 7.8264 Y 14.4619 Z -1.0000 I 0.1207 J -0.3364
G03 X 7.8805 Y 14.4772 Z -1.0000 I -0.0807 J 0.3886
G03 X 7.9349 Y 14.5011 Z -1.0000 I -0.1510 J 0.4183
G02 X 7.9642 Y 14.5131 Z -1.0000 I 0.0808 J -0.1549
G02 X 7.9831 Y 14.5160 Z -1.0000 I 0.0189 J -0.0615
G01 X 8.0013 Y 14.5195 Z -1.0000
G01 X 8.0164 Y 14.5296 Z -1.0000
G01 X 8.0318 Y 14.5388 Z -1.0000
G02 X 8.0610 Y 14.5432 Z -1.0000 I 0.0293 J -0.0964
G03 X 8.0882 Y 14.5471 Z -1.0000 I -0.0000 J 0.0967
G01 X 8.0921 Y 14.5523 Z -1.0000
G01 X 8.0959 Y 14.5575 Z -1.0000
G02 X 8.1171 Y 14.5611 Z -1.0000 I 0.0207 J -0.0593
G01 X 8.1281 Y 14.5562 Z -1.0000
G01 X 8.1276 Y 14.5497 Z -1.0000
G01 X 8.1179 Y 14.5372 Z -1.0000
G01 X 8.1175 Y 14.5260 Z -1.0000
G01 X 8.1142 Y 14.5199 Z -1.0000
G02 X 8.0911 Y 14.5192 Z -1.0000 I -0.0132 J 0.0508
G01 X 8.0737 Y 14.5165 Z -1.0000
G01 X 8.0763 Y 14.5093 Z -1.0000
G01 X 8.0692 Y 14.5022 Z -1.0000
G03 X 8.0517 Y 14.4957 Z -1.0000 I 0.0540 J -0.1713
G03 X 8.0332 Y 14.4866 Z -1.0000 I 0.0913 J -0.2104
G02 X 8.0144 Y 14.4791 Z -1.0000 I -0.0419 J 0.0774
G02 X 7.9838 Y 14.4733 Z -1.0000 I -0.0526 J 0.1937
G03 X 7.9536 Y 14.4672 Z -1.0000 I 0.0191 J -0.1730
G01 X 7.9416 Y 14.4608 Z -1.0000
G02 X 7.8929 Y 14.4345 Z -1.0000 I -0.0905 J 0.1090
G02 X 7.7829 Y 14.4118 Z -1.0000 I -0.1726 J 0.5585
G03 X 7.7592 Y 14.4086 Z -1.0000 I 0.0462 J -0.4300
G03 X 7.7285 Y 14.4029 Z -1.0000 I 0.1188 J -0.7269
G01 X 7.7162 Y 14.4047 Z -1.0000
G01 X 7.7159 Y 14.4098 Z -1.0000
G01 X 7.7159 Y 14.4097 Z -1.0000
G00 Z 5.0000

(End cutting path id: path56242)


(Start cutting path id: path56242)
(Change tool to Default tool)

G00 Z 5.0000
G00 X 7.9199 Y 14.4561

G01 Z -1.0000 F 100.0000(Penetrate)
G01 X 7.9184 Y 14.4587 Z -1.0000 F 3500.0000
G03 X 7.9063 Y 14.4649 Z -1.0000 I -0.0369 J -0.0577
G01 X 7.8959 Y 14.4654 Z -1.0000
G01 X 7.8927 Y 14.4613 Z -1.0000
G01 X 7.8958 Y 14.4556 Z -1.0000
G01 X 7.9063 Y 14.4525 Z -1.0000
G01 X 7.9199 Y 14.4561 Z -1.0000
G01 X 7.9199 Y 14.4561 Z -1.0000
G00 Z 5.0000

(End cutting path id: path56242)


(Start cutting path id: path56242)
(Change tool to Default tool)

G00 Z 5.0000
G00 X 8.1578 Y 14.5491

G01 Z -1.0000 F 100.0000(Penetrate)
G01 X 8.1476 Y 14.5621 Z -1.0000 F 3500.0000
G01 X 8.1546 Y 14.5703 Z -1.0000
G01 X 8.1609 Y 14.5677 Z -1.0000
G01 X 8.1679 Y 14.5567 Z -1.0000
G01 X 8.1712 Y 14.5439 Z -1.0000
G02 X 8.1692 Y 14.5446 Z -1.0000 I 0.0208 J 0.0574
G02 X 8.1578 Y 14.5492 Z -1.0000 I 82.0695 J 204.6485
G01 X 8.1578 Y 14.5491 Z -1.0000
G00 Z 5.0000

(End cutting path id: path56242)


(Start cutting path id: path56242)
(Change tool to Default tool)

G00 Z 5.0000
G00 X 8.1828 Y 14.5759

G01 Z -1.0000 F 100.0000(Penetrate)
G01 X 8.1879 Y 14.5840 Z -1.0000 F 3500.0000
G01 X 8.2028 Y 14.5853 Z -1.0000
G01 X 8.2218 Y 14.5849 Z -1.0000
G01 X 8.2368 Y 14.5924 Z -1.0000
G02 X 8.3076 Y 14.6365 Z -1.0000 I 0.1638 J -0.1842
G02 X 8.4293 Y 14.6709 Z -1.0000 I 0.2145 J -0.5260
G03 X 8.4928 Y 14.6853 Z -1.0000 I -0.0888 J 0.5407
G01 X 8.4946 Y 14.6897 Z -1.0000
G01 X 8.5042 Y 14.6915 Z -1.0000
G01 X 8.5177 Y 14.6905 Z -1.0000
G01 X 8.5327 Y 14.6979 Z -1.0000
G02 X 8.5478 Y 14.7076 Z -1.0000 I 0.0461 J -0.0555
G01 X 8.5620 Y 14.7118 Z -1.0000
G03 X 8.7550 Y 14.7577 Z -1.0000 I -0.1383 J 1.0115
G03 X 8.9221 Y 14.8350 Z -1.0000 I -0.2905 J 0.8466
G01 X 8.9311 Y 14.8390 Z -1.0000
G02 X 8.9590 Y 14.8462 Z -1.0000 I 0.1044 J -0.3466
G02 X 8.9837 Y 14.8456 Z -1.0000 I 0.0113 J -0.0530
G01 X 8.9930 Y 14.8374 Z -1.0000
G01 X 8.9926 Y 14.8146 Z -1.0000
G01 X 8.9796 Y 14.8060 Z -1.0000
G01 X 8.9710 Y 14.8044 Z -1.0000
G03 X 8.9339 Y 14.7883 Z -1.0000 I 0.1876 J -0.4821
G02 X 8.8965 Y 14.7748 Z -1.0000 I -0.0810 J 0.1668
G02 X 8.8731 Y 14.7735 Z -1.0000 I -0.0154 J 0.0635
G01 X 8.8604 Y 14.7724 Z -1.0000
G01 X 8.8696 Y 14.7669 Z -1.0000
G01 X 8.8717 Y 14.7622 Z -1.0000
G01 X 8.8689 Y 14.7581 Z -1.0000
G02 X 8.7380 Y 14.7138 Z -1.0000 I -1.1309 J 3.1231
G02 X 8.5269 Y 14.6548 Z -1.0000 I -0.9799 J 3.1039
G02 X 8.4502 Y 14.6438 Z -1.0000 I -0.0961 J 0.3953
G01 X 8.4351 Y 14.6393 Z -1.0000
G01 X 8.4350 Y 14.6349 Z -1.0000
G01 X 8.4346 Y 14.6300 Z -1.0000
G02 X 8.4048 Y 14.6215 Z -1.0000 I -0.0446 J 0.1004
G03 X 8.3633 Y 14.6131 Z -1.0000 I 0.0468 J -0.3391
G03 X 8.2813 Y 14.5885 Z -1.0000 I 0.3554 J -1.3304
G02 X 8.1918 Y 14.5679 Z -1.0000 I -0.1492 J 0.4454
G01 X 8.1828 Y 14.5759 Z -1.0000
G01 X 8.1828 Y 14.5759 Z -1.0000
G00 Z 5.0000

(End cutting path id: path56242)


(Start cutting path id: path56242)
(Change tool to Default tool)

G00 Z 5.0000
G00 X 8.8355 Y 14.7663

G01 Z -1.0000 F 100.0000(Penetrate)
G01 X 8.8128 Y 14.7698 Z -1.0000 F 3500.0000
G03 X 8.7934 Y 14.7666 Z -1.0000 I -0.0000 J -0.0597
G01 X 8.7902 Y 14.7620 Z -1.0000
G01 X 8.7934 Y 14.7582 Z -1.0000
G03 X 8.8128 Y 14.7585 Z -1.0000 I 0.0087 J 0.0558
G01 X 8.8355 Y 14.7663 Z -1.0000
G01 X 8.8355 Y 14.7663 Z -1.0000
G00 Z 5.0000

(End cutting path id: path56242)


(Start cutting path id: path56242)
(Change tool to Default tool)

G00 Z 5.0000
G00 X 8.9624 Y 14.8148

G01 Z -1.0000 F 100.0000(Penetrate)
G01 X 8.9592 Y 14.8189 Z -1.0000 F 3500.0000
G01 X 8.9488 Y 14.8184 Z -1.0000
G03 X 8.9366 Y 14.8123 Z -1.0000 I 0.0247 J -0.0638
G01 X 8.9352 Y 14.8096 Z -1.0000
G01 X 8.9488 Y 14.8060 Z -1.0000
G01 X 8.9593 Y 14.8091 Z -1.0000
G01 X 8.9624 Y 14.8148 Z -1.0000
G01 X 8.9624 Y 14.8148 Z -1.0000
G00 Z 5.0000

(End cutting path id: path56242)


(Start cutting path id: path56242)
(Change tool to Default tool)

G00 Z 5.0000
G00 X 9.0213 Y 14.8514

G01 Z -1.0000 F 100.0000(Penetrate)
G01 X 9.0219 Y 14.8570 Z -1.0000 F 3500.0000
G01 X 9.0298 Y 14.8605 Z -1.0000
G01 X 9.0408 Y 14.8573 Z -1.0000
G01 X 9.0440 Y 14.8514 Z -1.0000
G01 X 9.0414 Y 14.8448 Z -1.0000
G01 X 9.0355 Y 14.8423 Z -1.0000
G01 X 9.0281 Y 14.8444 Z -1.0000
G01 X 9.0213 Y 14.8514 Z -1.0000
G01 X 9.0213 Y 14.8514 Z -1.0000
G00 Z 5.0000

(End cutting path id: path56242)


(Start cutting path id: path56242)
(Change tool to Default tool)

G00 Z 5.0000
G00 X 9.0912 Y 14.8744

G01 Z -1.0000 F 100.0000(Penetrate)
G01 X 9.0867 Y 14.8878 Z -1.0000 F 3500.0000
G01 X 9.0938 Y 14.8886 Z -1.0000
G03 X 9.1282 Y 14.8960 Z -1.0000 I -0.2000 J 1.0150
G01 X 9.1399 Y 14.8920 Z -1.0000
G01 X 9.1391 Y 14.8822 Z -1.0000
G02 X 9.1096 Y 14.8678 Z -1.0000 I -0.0388 J 0.0418
G01 X 9.0912 Y 14.8743 Z -1.0000
G01 X 9.0912 Y 14.8744 Z -1.0000
G00 Z 5.0000

(End cutting path id: path56242)


(Start cutting path id: path56242)
(Change tool to Default tool)

G00 Z 5.0000
G00 X 9.1952 Y 14.9175

G01 Z -1.0000 F 100.0000(Penetrate)
G01 X 9.2016 Y 14.9215 Z -1.0000 F 3500.0000
G02 X 9.2210 Y 14.9201 Z -1.0000 I 0.0057 J -0.0556
G01 X 9.2392 Y 14.9201 Z -1.0000
G01 X 9.2461 Y 14.9262 Z -1.0000
G01 X 9.2521 Y 14.9297 Z -1.0000
G01 X 9.2660 Y 14.9226 Z -1.0000
G01 X 9.2647 Y 14.9148 Z -1.0000
G02 X 9.2360 Y 14.9088 Z -1.0000 I -0.0272 J 0.0588
G02 X 9.1970 Y 14.9134 Z -1.0000 I 0.0045 J 0.2063
G01 X 9.1952 Y 14.9176 Z -1.0000
G01 X 9.1952 Y 14.9175 Z -1.0000
G00 Z 5.0000

(End cutting path id: path56242)


(Start cutting path id: path56242)
(Change tool to Default tool)

G00 Z 5.0000
G00 X 9.2978 Y 14.9143

G01 Z -1.0000 F 100.0000(Penetrate)
G01 X 9.2969 Y 14.9222 Z -1.0000 F 3500.0000
G03 X 9.2921 Y 14.9372 Z -1.0000 I -0.1248 J -0.0310
G01 X 9.2950 Y 14.9444 Z -1.0000
G01 X 9.3106 Y 14.9459 Z -1.0000
G03 X 9.3955 Y 14.9454 Z -1.0000 I 0.0435 J 0.1725
G01 X 9.4157 Y 14.9710 Z -1.0000
G01 X 9.4123 Y 14.9749 Z -1.0000
G01 X 9.3975 Y 14.9737 Z -1.0000
G01 X 9.3947 Y 14.9782 Z -1.0000
G02 X 9.4179 Y 14.9949 Z -1.0000 I 0.0576 J -0.0554
G02 X 9.5155 Y 15.0285 Z -1.0000 I 0.1966 J -0.4128
G01 X 9.5215 Y 15.0179 Z -1.0000
G01 X 9.5130 Y 15.0116 Z -1.0000
G02 X 9.4717 Y 14.9943 Z -1.0000 I -0.2135 J 0.4514
G01 X 9.4630 Y 14.9868 Z -1.0000
G01 X 9.4655 Y 14.9830 Z -1.0000
G01 X 9.4746 Y 14.9778 Z -1.0000
G03 X 9.4477 Y 14.9676 Z -1.0000 I 0.1620 J -0.4659
G03 X 9.4111 Y 14.9516 Z -1.0000 I 0.3850 J -0.9288
G02 X 9.3044 Y 14.9096 Z -1.0000 I -0.4185 J 0.9064
G01 X 9.2978 Y 14.9143 Z -1.0000
G01 X 9.2978 Y 14.9143 Z -1.0000
G00 Z 5.0000

(End cutting path id: path56242)


(Start cutting path id: path56242)
(Change tool to Default tool)

G00 Z 5.0000
G00 X 9.3159 Y 14.9546

G01 Z -1.0000 F 100.0000(Penetrate)
G01 X 9.3174 Y 14.9573 Z -1.0000 F 3500.0000
G02 X 9.3300 Y 14.9636 Z -1.0000 I 0.0388 J -0.0613
G01 X 9.3385 Y 14.9600 Z -1.0000
G01 X 9.3232 Y 14.9489 Z -1.0000
G01 X 9.3159 Y 14.9546 Z -1.0000
G01 X 9.3159 Y 14.9546 Z -1.0000
G00 Z 5.0000

(End cutting path id: path56242)


(Start cutting path id: path56242)
(Change tool to Default tool)

G00 Z 5.0000
G00 X 9.3567 Y 14.9692

G01 Z -1.0000 F 100.0000(Penetrate)
G01 X 9.3631 Y 14.9770 Z -1.0000 F 3500.0000
G01 X 9.3663 Y 14.9783 Z -1.0000
G01 X 9.3688 Y 14.9767 Z -1.0000
G01 X 9.3703 Y 14.9692 Z -1.0000
G01 X 9.3676 Y 14.9628 Z -1.0000
G01 X 9.3607 Y 14.9601 Z -1.0000
G01 X 9.3563 Y 14.9630 Z -1.0000
G01 X 9.3567 Y 14.9692 Z -1.0000
G01 X 9.3567 Y 14.9692 Z -1.0000
G00 Z 5.0000

(End cutting path id: path56242)


(Start cutting path id: path56242)
(Change tool to Default tool)

G00 Z 5.0000
G00 X 9.5766 Y 15.0121

G01 Z -1.0000 F 100.0000(Penetrate)
G01 X 9.5817 Y 15.0236 Z -1.0000 F 3500.0000
G01 X 9.5675 Y 15.0333 Z -1.0000
G01 X 9.5631 Y 15.0367 Z -1.0000
G01 X 9.5652 Y 15.0411 Z -1.0000
G01 X 9.5820 Y 15.0433 Z -1.0000
G01 X 9.5908 Y 15.0382 Z -1.0000
G01 X 9.5974 Y 15.0353 Z -1.0000
G01 X 9.6029 Y 15.0394 Z -1.0000
G01 X 9.6100 Y 15.0470 Z -1.0000
G01 X 9.6254 Y 15.0507 Z -1.0000
G01 X 9.6360 Y 15.0548 Z -1.0000
G01 X 9.6369 Y 15.0612 Z -1.0000
G01 X 9.6384 Y 15.0655 Z -1.0000
G01 X 9.6499 Y 15.0657 Z -1.0000
G01 X 9.6967 Y 15.0588 Z -1.0000
G01 X 9.6965 Y 15.0643 Z -1.0000
G01 X 9.7090 Y 15.0687 Z -1.0000
G01 X 9.7272 Y 15.0741 Z -1.0000
G01 X 9.7298 Y 15.0820 Z -1.0000
G01 X 9.7314 Y 15.0885 Z -1.0000
G01 X 9.7384 Y 15.0899 Z -1.0000
G01 X 9.7422 Y 15.0714 Z -1.0000
G02 X 9.6830 Y 15.0363 Z -1.0000 I -0.1031 J 0.1065
G01 X 9.5766 Y 15.0120 Z -1.0000
G01 X 9.5766 Y 15.0121 Z -1.0000
G00 Z 5.0000

(End cutting path id: path56242)


(Start cutting path id: path56242)
(Change tool to Default tool)

G00 Z 5.0000
G00 X 10.0842 Y 15.2109

G01 Z -1.0000 F 100.0000(Penetrate)
G01 X 10.0955 Y 15.2131 Z -1.0000 F 3500.0000
G01 X 10.1069 Y 15.2109 Z -1.0000
G01 X 10.0956 Y 15.2063 Z -1.0000
G01 X 10.0842 Y 15.2109 Z -1.0000
G01 X 10.0842 Y 15.2109 Z -1.0000
G00 Z 5.0000

(End cutting path id: path56242)


(Start cutting path id: path56242)
(Change tool to Default tool)

G00 Z 5.0000
G00 X 10.1318 Y 15.2211

G01 Z -1.0000 F 100.0000(Penetrate)
G01 X 10.1631 Y 15.2675 Z -1.0000 F 3500.0000
G02 X 10.2200 Y 15.2557 Z -1.0000 I 0.0195 J -0.0492
G01 X 10.2175 Y 15.2331 Z -1.0000
G02 X 10.1603 Y 15.2175 Z -1.0000 I -0.0537 J 0.0837
G01 X 10.1318 Y 15.2211 Z -1.0000
G01 X 10.1318 Y 15.2211 Z -1.0000
G00 Z 5.0000

(End cutting path id: path56242)


(Start cutting path id: path56242)
(Change tool to Default tool)

G00 Z 5.0000
G00 X 10.2633 Y 15.2412

G01 Z -1.0000 F 100.0000(Penetrate)
G01 X 10.2646 Y 15.2463 Z -1.0000 F 3500.0000
G01 X 10.2803 Y 15.2503 Z -1.0000
G01 X 10.2989 Y 15.2557 Z -1.0000
G01 X 10.3085 Y 15.2681 Z -1.0000
G01 X 10.3333 Y 15.2922 Z -1.0000
G02 X 10.3945 Y 15.2930 Z -1.0000 I 0.0321 J -0.1105
G01 X 10.4106 Y 15.2932 Z -1.0000
G01 X 10.4228 Y 15.3012 Z -1.0000
G01 X 10.4357 Y 15.3087 Z -1.0000
G02 X 10.4752 Y 15.3104 Z -1.0000 I 0.0262 J -0.1495
G03 X 10.5280 Y 15.3144 Z -1.0000 I 0.0142 J 0.1648
G01 X 10.5295 Y 15.3235 Z -1.0000
G01 X 10.5286 Y 15.3296 Z -1.0000
G01 X 10.5446 Y 15.3404 Z -1.0000
G03 X 10.5710 Y 15.3509 Z -1.0000 I -0.1358 J 0.3790
G03 X 10.5881 Y 15.3596 Z -1.0000 I -0.0711 J 0.1614
G01 X 10.6054 Y 15.3656 Z -1.0000
G02 X 10.6289 Y 15.3655 Z -1.0000 I 0.0113 J -0.0774
G01 X 10.6416 Y 15.3656 Z -1.0000
G01 X 10.6384 Y 15.3767 Z -1.0000
G01 X 10.6583 Y 15.3862 Z -1.0000
G03 X 10.6754 Y 15.3882 Z -1.0000 I 0.0000 J 0.0719
G03 X 10.6917 Y 15.3945 Z -1.0000 I -0.0169 J 0.0687
G02 X 10.7668 Y 15.4287 Z -1.0000 I 0.3261 J -0.6165
G02 X 10.8192 Y 15.4436 Z -1.0000 I 0.1096 J -0.2842
G03 X 10.8663 Y 15.4570 Z -1.0000 I -0.0534 J 0.2771
G03 X 10.9315 Y 15.4865 Z -1.0000 I -0.2113 J 0.5545
G02 X 10.9476 Y 15.4934 Z -1.0000 I 0.0516 J -0.0987
G02 X 10.9814 Y 15.5032 Z -1.0000 I 0.1401 J -0.4163
G03 X 11.0157 Y 15.5119 Z -1.0000 I -2.4413 J 9.8018
G03 X 11.0383 Y 15.5176 Z -1.0000 I -1.2640 J 5.0003
G01 X 11.0441 Y 15.5150 Z -1.0000
G01 X 11.0428 Y 15.5088 Z -1.0000
G02 X 11.0235 Y 15.4965 Z -1.0000 I -0.0651 J 0.0804
G02 X 11.0020 Y 15.4887 Z -1.0000 I -0.0461 J 0.0932
G03 X 10.9808 Y 15.4804 Z -1.0000 I 0.0200 J -0.0832
G03 X 10.9546 Y 15.4626 Z -1.0000 I 0.0809 J -0.1468
G02 X 10.9281 Y 15.4450 Z -1.0000 I -0.0929 J 0.1119
G02 X 10.8775 Y 15.4230 Z -1.0000 I -0.1990 J 0.3879
G03 X 10.8259 Y 15.4026 Z -1.0000 I 0.3287 J -0.9069
G03 X 10.7993 Y 15.3895 Z -1.0000 I 0.1089 J -0.2539
G02 X 10.7751 Y 15.3817 Z -1.0000 I -0.0309 J 0.0548
G01 X 10.7665 Y 15.3860 Z -1.0000
G01 X 10.7402 Y 15.3984 Z -1.0000
G01 X 10.7273 Y 15.3806 Z -1.0000
G01 X 10.7242 Y 15.3743 Z -1.0000
G02 X 10.6774 Y 15.3545 Z -1.0000 I -0.1436 J 0.2747
G03 X 10.6265 Y 15.3360 Z -1.0000 I 0.2565 J -0.7823
G03 X 10.5831 Y 15.3166 Z -1.0000 I 0.2391 J -0.5939
G02 X 10.5391 Y 15.3008 Z -1.0000 I -0.0925 J 0.1882
G02 X 10.4947 Y 15.2956 Z -1.0000 I -0.0444 J 0.1869
G03 X 10.4527 Y 15.2919 Z -1.0000 I 0.0000 J -0.2431
G01 X 10.4491 Y 15.2876 Z -1.0000
G01 X 10.4458 Y 15.2822 Z -1.0000
G02 X 10.4241 Y 15.2746 Z -1.0000 I -0.0373 J 0.0718
G03 X 10.3153 Y 15.2489 Z -1.0000 I 0.2851 J -1.4490
G01 X 10.2999 Y 15.2403 Z -1.0000
G01 X 10.2789 Y 15.2322 Z -1.0000
G01 X 10.2632 Y 15.2412 Z -1.0000
G01 X 10.2633 Y 15.2412 Z -1.0000
G00 Z 5.0000

(End cutting path id: path56242)


(Start cutting path id: path56242)
(Change tool to Default tool)

G00 Z 5.0000
G00 X 11.1426 Y 15.5403

G01 Z -1.0000 F 100.0000(Penetrate)
G01 X 11.1497 Y 15.5467 Z -1.0000 F 3500.0000
G01 X 11.1618 Y 15.5494 Z -1.0000
G01 X 11.1693 Y 15.5460 Z -1.0000
G01 X 11.1698 Y 15.5403 Z -1.0000
G01 X 11.1627 Y 15.5339 Z -1.0000
G01 X 11.1506 Y 15.5312 Z -1.0000
G01 X 11.1431 Y 15.5346 Z -1.0000
G01 X 11.1426 Y 15.5403 Z -1.0000
G01 X 11.1426 Y 15.5403 Z -1.0000
G00 Z 5.0000

(End cutting path id: path56242)


(Start cutting path id: path56242)
(Change tool to Default tool)

G00 Z 5.0000
G00 X 11.4282 Y 15.6213

G01 Z -1.0000 F 100.0000(Penetrate)
G01 X 11.4358 Y 15.6336 Z -1.0000 F 3500.0000
G02 X 11.4794 Y 15.6462 Z -1.0000 I 0.0582 J -0.1203
G01 X 11.4864 Y 15.6390 Z -1.0000
G01 X 11.4769 Y 15.6265 Z -1.0000
G02 X 11.4345 Y 15.6156 Z -1.0000 I -0.0585 J 0.1401
G01 X 11.4282 Y 15.6213 Z -1.0000
G01 X 11.4282 Y 15.6213 Z -1.0000
G00 Z 5.0000

(End cutting path id: path56242)


(Start cutting path id: path56242)
(Change tool to Default tool)

G00 Z 5.0000
G00 X 11.8588 Y 15.7255

G01 Z -1.0000 F 100.0000(Penetrate)
G02 X 11.8866 Y 15.7470 Z -1.0000 I 0.2324 J -0.2721 F 3500.0000
G01 X 11.8922 Y 15.7487 Z -1.0000
G01 X 11.8959 Y 15.7515 Z -1.0000
G03 X 11.9013 Y 15.7779 Z -1.0000 I -0.1269 J 0.0396
G01 X 11.9119 Y 15.8005 Z -1.0000
G02 X 11.9408 Y 15.8176 Z -1.0000 I 0.0474 J -0.0472
G02 X 11.9779 Y 15.8267 Z -1.0000 I 0.1325 J -0.4612
G02 X 12.0258 Y 15.8348 Z -1.0000 I 0.1520 J -0.7489
G01 X 12.0347 Y 15.8225 Z -1.0000
G02 X 12.0053 Y 15.7935 Z -1.0000 I -0.0571 J 0.0284
G03 X 11.9522 Y 15.7629 Z -1.0000 I 0.1801 J -0.3739
G03 X 11.9252 Y 15.7391 Z -1.0000 I 0.0807 J -0.1189
G02 X 11.8979 Y 15.7173 Z -1.0000 I -0.0757 J 0.0668
G02 X 11.8663 Y 15.7069 Z -1.0000 I -0.0439 J 0.0804
G01 X 11.8557 Y 15.7130 Z -1.0000
G01 X 11.8588 Y 15.7255 Z -1.0000
G01 X 11.8588 Y 15.7255 Z -1.0000
G00 Z 5.0000

(End cutting path id: path56242)


(Start cutting path id: path56242)
(Change tool to Default tool)

G00 Z 5.0000
G00 X 12.4929 Y 15.9838

G01 Z -1.0000 F 100.0000(Penetrate)
G02 X 12.5274 Y 16.0105 Z -1.0000 I 0.0530 J -0.0329 F 3500.0000
G02 X 12.5727 Y 16.0086 Z -1.0000 I 0.0200 J -0.0645
G01 X 12.5658 Y 16.0031 Z -1.0000
G03 X 12.5487 Y 15.9993 Z -1.0000 I 0.0030 J -0.0539
G03 X 12.5301 Y 15.9888 Z -1.0000 I 0.0301 J -0.0750
G02 X 12.4982 Y 15.9757 Z -1.0000 I -0.0407 J 0.0539
G01 X 12.4929 Y 15.9839 Z -1.0000
G01 X 12.4929 Y 15.9838 Z -1.0000
G00 Z 5.0000

(End cutting path id: path56242)


(Start cutting path id: path56242)
(Change tool to Default tool)

G00 Z 5.0000
G00 X 12.7565 Y 16.0550

G01 Z -1.0000 F 100.0000(Penetrate)
G02 X 12.8109 Y 16.0841 Z -1.0000 I 0.0956 J -0.1137 F 3500.0000
G01 X 12.8423 Y 16.0797 Z -1.0000
G01 X 12.8487 Y 16.0789 Z -1.0000
G01 X 12.8514 Y 16.0824 Z -1.0000
G01 X 12.8549 Y 16.0865 Z -1.0000
G02 X 12.8759 Y 16.0861 Z -1.0000 I 0.0093 J -0.0630
G01 X 12.8778 Y 16.0803 Z -1.0000
G01 X 12.8600 Y 16.0693 Z -1.0000
G02 X 12.7599 Y 16.0475 Z -1.0000 I -0.1901 J 0.6314
G01 X 12.7565 Y 16.0551 Z -1.0000
G01 X 12.7565 Y 16.0550 Z -1.0000
G00 Z 5.0000

(End cutting path id: path56242)


(Start cutting path id: path56242)
(Change tool to Default tool)

G00 Z 5.0000
G00 X 13.3953 Y 16.2690

G01 Z -1.0000 F 100.0000(Penetrate)
G01 X 13.3968 Y 16.2713 Z -1.0000 F 3500.0000
G02 X 13.4135 Y 16.2772 Z -1.0000 I 0.0432 J -0.0958
G01 X 13.4265 Y 16.2737 Z -1.0000
G01 X 13.4058 Y 16.2600 Z -1.0000
G01 X 13.3953 Y 16.2690 Z -1.0000
G01 X 13.3953 Y 16.2690 Z -1.0000
G00 Z 5.0000

(End cutting path id: path56242)


(Start cutting path id: path56242)
(Change tool to Default tool)

G00 Z 5.0000
G00 X 13.4512 Y 16.2916

G01 Z -1.0000 F 100.0000(Penetrate)
G01 X 13.4480 Y 16.2984 Z -1.0000 F 3500.0000
G01 X 13.4528 Y 16.3045 Z -1.0000
G01 X 13.4652 Y 16.3049 Z -1.0000
G01 X 13.4773 Y 16.2967 Z -1.0000
G01 X 13.4800 Y 16.2875 Z -1.0000
G01 X 13.4757 Y 16.2838 Z -1.0000
G01 X 13.4639 Y 16.2857 Z -1.0000
G02 X 13.4512 Y 16.2916 Z -1.0000 I 0.0166 J 0.0522
G01 X 13.4512 Y 16.2916 Z -1.0000
G00 Z 5.0000

(End cutting path id: path56242)


(Start cutting path id: path56242)
(Change tool to Default tool)

G00 Z 5.0000
G00 X 13.4910 Y 16.3091

G01 Z -1.0000 F 100.0000(Penetrate)
G02 X 13.6593 Y 16.3894 Z -1.0000 I 0.2338 J -0.2734 F 3500.0000
G01 X 13.6891 Y 16.3458 Z -1.0000
G01 X 13.6808 Y 16.3405 Z -1.0000
G02 X 13.6480 Y 16.3407 Z -1.0000 I -0.0156 J 0.1266
G03 X 13.6165 Y 16.3412 Z -1.0000 I -0.0180 J -0.1333
G01 X 13.6129 Y 16.3372 Z -1.0000
G01 X 13.6156 Y 16.3316 Z -1.0000
G01 X 13.6242 Y 16.3284 Z -1.0000
G01 X 13.6138 Y 16.3191 Z -1.0000
G02 X 13.5920 Y 16.3138 Z -1.0000 I -0.0292 J 0.0726
G01 X 13.5761 Y 16.3155 Z -1.0000
G01 X 13.5616 Y 16.3163 Z -1.0000
G01 X 13.5542 Y 16.3112 Z -1.0000
G01 X 13.5463 Y 16.3055 Z -1.0000
G02 X 13.5153 Y 16.3018 Z -1.0000 I -0.0309 J 0.1286
G01 X 13.4909 Y 16.3092 Z -1.0000
G01 X 13.4910 Y 16.3091 Z -1.0000
G00 Z 5.0000

(End cutting path id: path56242)


(Start cutting path id: path56242)
(Change tool to Default tool)

G00 Z 5.0000
G00 X 13.5993 Y 16.3290

G01 Z -1.0000 F 100.0000(Penetrate)
G01 X 13.5987 Y 16.3346 Z -1.0000 F 3500.0000
G01 X 13.5908 Y 16.3381 Z -1.0000
G01 X 13.5799 Y 16.3348 Z -1.0000
G01 X 13.5767 Y 16.3290 Z -1.0000
G01 X 13.5792 Y 16.3225 Z -1.0000
G01 X 13.5852 Y 16.3199 Z -1.0000
G01 X 13.5925 Y 16.3220 Z -1.0000
G01 X 13.5993 Y 16.3290 Z -1.0000
G01 X 13.5993 Y 16.3290 Z -1.0000
G00 Z 5.0000

(End cutting path id: path56242)


(Start cutting path id: path56242)
(Change tool to Default tool)

G00 Z 5.0000
G00 X 14.0843 Y 18.3768

G01 Z -1.0000 F 100.0000(Penetrate)
G01 X 14.1022 Y 18.4008 Z -1.0000 F 3500.0000
G01 X 14.1365 Y 18.3921 Z -1.0000
G01 X 14.1167 Y 18.3780 Z -1.0000
G02 X 14.0889 Y 18.3724 Z -1.0000 I -0.0310 J 0.0815
G01 X 14.0843 Y 18.3768 Z -1.0000
G01 X 14.0843 Y 18.3768 Z -1.0000
G00 Z 5.0000

(End cutting path id: path56242)


(Start cutting path id: path56242)
(Change tool to Default tool)

G00 Z 5.0000
G00 X 13.9917 Y 19.3116

G01 Z -1.0000 F 100.0000(Penetrate)
G03 X 14.0246 Y 19.3447 Z -1.0000 I -0.0509 J 0.0835 F 3500.0000
G01 X 14.0268 Y 19.3699 Z -1.0000
G01 X 14.0187 Y 19.3753 Z -1.0000
G03 X 13.9918 Y 19.3683 Z -1.0000 I 0.0031 J -0.0677
G03 X 13.9581 Y 19.3412 Z -1.0000 I 0.0434 J -0.0883
G01 X 13.9484 Y 19.3137 Z -1.0000
G01 X 13.9585 Y 19.3031 Z -1.0000
G03 X 13.9917 Y 19.3115 Z -1.0000 I 0.0030 J 0.0581
G01 X 13.9917 Y 19.3116 Z -1.0000
G00 Z 5.0000

(End cutting path id: path56242)


(Start cutting path id: path56242)
(Change tool to Default tool)

G00 Z 5.0000
G00 X 14.9254 Y 20.1319

G01 Z -1.0000 F 100.0000(Penetrate)
G01 X 14.9374 Y 20.1480 Z -1.0000 F 3500.0000
G01 X 14.9326 Y 20.1546 Z -1.0000
G01 X 14.9212 Y 20.1611 Z -1.0000
G01 X 14.9223 Y 20.1721 Z -1.0000
G02 X 14.9778 Y 20.2142 Z -1.0000 I 0.1393 J -0.1261
G02 X 15.0326 Y 20.2271 Z -1.0000 I 0.0548 J -0.1100
G01 X 15.0465 Y 20.2302 Z -1.0000
G03 X 15.0996 Y 20.2588 Z -1.0000 I -0.2488 J 0.5257
G02 X 15.1527 Y 20.2875 Z -1.0000 I 0.3093 J -0.5092
G01 X 15.1662 Y 20.2905 Z -1.0000
G01 X 15.1742 Y 20.2785 Z -1.0000
G01 X 15.1534 Y 20.2605 Z -1.0000
G01 X 15.1393 Y 20.2534 Z -1.0000
G01 X 15.1359 Y 20.2461 Z -1.0000
G01 X 15.1543 Y 20.2359 Z -1.0000
G03 X 15.2893 Y 20.3423 Z -1.0000 I -0.4275 J 0.6815
G02 X 15.3584 Y 20.4052 Z -1.0000 I 0.9183 J -0.9386
G01 X 15.3732 Y 20.4134 Z -1.0000
G01 X 15.3865 Y 20.4212 Z -1.0000
G01 X 15.3903 Y 20.4294 Z -1.0000
G01 X 15.3944 Y 20.4384 Z -1.0000
G02 X 15.5006 Y 20.5353 Z -1.0000 I 1.9708 J -2.0527
G03 X 15.6712 Y 20.6960 Z -1.0000 I -1.8700 J 2.1558
G01 X 15.6697 Y 20.7083 Z -1.0000
G01 X 15.6714 Y 20.7136 Z -1.0000
G02 X 15.7213 Y 20.7064 Z -1.0000 I -0.0089 J -0.2414
G02 X 15.7504 Y 20.6925 Z -1.0000 I -0.0201 J -0.0793
G01 X 15.7514 Y 20.6838 Z -1.0000
G01 X 15.7527 Y 20.6782 Z -1.0000
G01 X 15.7673 Y 20.6766 Z -1.0000
G01 X 15.8104 Y 20.6519 Z -1.0000
G02 X 15.8430 Y 20.4588 Z -1.0000 I -0.5557 J -0.1931
G03 X 15.8492 Y 20.3602 Z -1.0000 I 0.7850 J 0.0000
G01 X 15.8562 Y 20.3540 Z -1.0000
G01 X 15.8655 Y 20.3593 Z -1.0000
G03 X 15.8795 Y 20.3926 Z -1.0000 I -0.1078 J 0.0649
G02 X 15.8905 Y 20.4308 Z -1.0000 I 0.6870 J -0.1783
G02 X 15.9078 Y 20.4810 Z -1.0000 I 1.2170 J -0.3898
G03 X 15.9291 Y 20.5883 Z -1.0000 I -0.3323 J 0.1219
G03 X 15.9179 Y 20.7282 Z -1.0000 I -0.5816 J 0.0239
G03 X 15.9036 Y 20.7794 Z -1.0000 I -0.3601 J -0.0737
G03 X 15.8751 Y 20.8466 Z -1.0000 I -0.6428 J -0.2322
G02 X 15.8456 Y 20.9132 Z -1.0000 I 0.8967 J 0.4372
G01 X 15.8430 Y 20.9270 Z -1.0000
G01 X 15.8392 Y 20.9387 Z -1.0000
G01 X 15.8288 Y 20.9468 Z -1.0000
G01 X 15.8199 Y 20.9540 Z -1.0000
G01 X 15.8199 Y 20.9607 Z -1.0000
G01 X 15.8210 Y 20.9682 Z -1.0000
G01 X 15.8159 Y 20.9749 Z -1.0000
G01 X 15.8096 Y 20.9823 Z -1.0000
G01 X 15.8067 Y 20.9972 Z -1.0000
G01 X 15.8029 Y 21.0112 Z -1.0000
G01 X 15.7938 Y 21.0188 Z -1.0000
G01 X 15.7833 Y 21.0265 Z -1.0000
G02 X 15.7563 Y 21.0658 Z -1.0000 I 0.2602 J 0.2075
G02 X 15.7482 Y 21.1049 Z -1.0000 I 0.0539 J 0.0316
G01 X 15.7647 Y 21.1351 Z -1.0000
G03 X 15.7828 Y 21.1663 Z -1.0000 I -0.0329 J 0.0399
G01 X 15.7721 Y 21.1790 Z -1.0000
G01 X 15.7623 Y 21.1849 Z -1.0000
G02 X 15.7544 Y 21.2124 Z -1.0000 I 0.0609 J 0.0324
G02 X 15.7563 Y 21.2435 Z -1.0000 I 0.1180 J 0.0084
G01 X 15.7622 Y 21.2520 Z -1.0000
G01 X 15.7662 Y 21.2583 Z -1.0000
G01 X 15.7637 Y 21.2637 Z -1.0000
G01 X 15.7515 Y 21.2627 Z -1.0000
G03 X 15.6980 Y 21.2072 Z -1.0000 I 0.2682 J -0.3124
G02 X 15.6585 Y 21.1854 Z -1.0000 I -0.0462 J 0.0369
G02 X 15.6055 Y 21.1966 Z -1.0000 I -0.0098 J 0.0849
G03 X 15.4862 Y 21.2435 Z -1.0000 I -0.2086 J -0.3548
G03 X 15.3214 Y 21.2597 Z -1.0000 I -0.1490 J -0.6704
G03 X 15.1347 Y 21.2374 Z -1.0000 I 0.0229 J -0.9832
G03 X 15.0347 Y 21.1971 Z -1.0000 I 0.0686 J -0.3143
G02 X 14.9899 Y 21.1721 Z -1.0000 I -0.3120 J 0.5070
G01 X 14.9806 Y 21.1699 Z -1.0000
G01 X 14.9720 Y 21.1666 Z -1.0000
G03 X 14.8961 Y 21.0941 Z -1.0000 I 1.1309 J -1.2602
G02 X 14.8201 Y 21.0202 Z -1.0000 I -1.7413 J 1.7141
G02 X 14.8046 Y 21.0089 Z -1.0000 I -0.0549 J 0.0590
G01 X 14.7868 Y 21.0033 Z -1.0000
G02 X 14.7419 Y 21.0028 Z -1.0000 I -0.0254 J 0.2571
G03 X 14.3978 Y 21.0215 Z -1.0000 I -0.6362 J -8.5316
G03 X 14.3527 Y 21.0160 Z -1.0000 I -0.0051 J -0.1484
G01 X 14.3193 Y 20.9845 Z -1.0000
G03 X 14.2513 Y 20.7212 Z -1.0000 I 1.6407 J -0.5640
G03 X 14.2360 Y 20.5561 Z -1.0000 I 0.9969 J -0.1754
G01 X 14.2493 Y 20.5236 Z -1.0000
G03 X 14.2747 Y 20.5072 Z -1.0000 I 0.0501 J 0.0501
G03 X 14.3389 Y 20.4903 Z -1.0000 I 0.1186 J 0.3195
G02 X 14.4058 Y 20.4782 Z -1.0000 I -0.2977 J -1.8337
G02 X 14.4333 Y 20.4714 Z -1.0000 I -0.0619 J -0.3094
G03 X 14.5554 Y 20.4442 Z -1.0000 I 0.2578 J 0.8712
G03 X 14.6704 Y 20.4356 Z -1.0000 I 0.1150 J 0.7613
G02 X 14.6975 Y 20.4293 Z -1.0000 I 0.0000 J -0.0613
G01 X 14.7071 Y 20.4175 Z -1.0000
G01 X 14.7141 Y 20.4023 Z -1.0000
G01 X 14.7199 Y 20.3993 Z -1.0000
G01 X 14.7247 Y 20.3962 Z -1.0000
G01 X 14.7279 Y 20.3812 Z -1.0000
G01 X 14.7323 Y 20.3675 Z -1.0000
G01 X 14.7410 Y 20.3631 Z -1.0000
G01 X 14.7648 Y 20.3473 Z -1.0000
G01 X 14.7600 Y 20.3178 Z -1.0000
G03 X 14.7500 Y 20.3031 Z -1.0000 I 0.0587 J -0.0509
G03 X 14.7416 Y 20.2826 Z -1.0000 I 0.1040 J -0.0548
G01 X 14.7473 Y 20.2714 Z -1.0000
G03 X 14.7875 Y 20.2676 Z -1.0000 I 0.0287 J 0.0879
G03 X 14.8395 Y 20.2761 Z -1.0000 I -0.0860 J 0.6902
G03 X 14.8628 Y 20.2828 Z -1.0000 I -0.0295 J 0.1457
G01 X 14.8696 Y 20.2805 Z -1.0000
G01 X 14.8688 Y 20.2729 Z -1.0000
G02 X 14.8510 Y 20.2566 Z -1.0000 I -0.0975 J 0.0887
G01 X 14.8443 Y 20.2543 Z -1.0000
G03 X 14.8017 Y 20.2349 Z -1.0000 I -0.0000 J -0.0562
G03 X 14.7823 Y 20.1827 Z -1.0000 I 0.0604 J -0.0522
G03 X 14.7989 Y 20.1422 Z -1.0000 I 0.0574 J 0.0000
G03 X 14.8488 Y 20.1156 Z -1.0000 I 0.0682 J 0.0676
G03 X 14.8879 Y 20.1159 Z -1.0000 I 0.0187 J 0.0955
G03 X 14.9254 Y 20.1319 Z -1.0000 I -0.0224 J 0.1042
G01 X 14.9254 Y 20.1319 Z -1.0000
G00 Z 5.0000

(End cutting path id: path56242)


(Start cutting path id: path56242)
(Change tool to Default tool)

G00 Z 5.0000
G00 X 14.8820 Y 20.3088

G01 Z -1.0000 F 100.0000(Penetrate)
G01 X 14.8843 Y 20.3147 Z -1.0000 F 3500.0000
G01 X 14.8934 Y 20.3215 Z -1.0000
G01 X 14.8967 Y 20.3268 Z -1.0000
G01 X 14.8934 Y 20.3321 Z -1.0000
G01 X 14.8868 Y 20.3479 Z -1.0000
G02 X 14.9092 Y 20.3767 Z -1.0000 I 0.0547 J -0.0195
G03 X 14.9329 Y 20.3967 Z -1.0000 I -0.0765 J 0.1143
G01 X 14.9364 Y 20.4056 Z -1.0000
G01 X 14.9256 Y 20.4206 Z -1.0000
G01 X 14.9035 Y 20.4165 Z -1.0000
G02 X 14.8885 Y 20.4076 Z -1.0000 I -0.0351 J 0.0422
G02 X 14.8704 Y 20.4035 Z -1.0000 I -0.0226 J 0.0579
G01 X 14.8538 Y 20.3988 Z -1.0000
G01 X 14.8477 Y 20.3916 Z -1.0000
G01 X 14.8254 Y 20.3749 Z -1.0000
G01 X 14.8095 Y 20.3902 Z -1.0000
G01 X 14.8057 Y 20.3955 Z -1.0000
G03 X 14.7823 Y 20.3993 Z -1.0000 I -0.0234 J -0.0699
G01 X 14.7600 Y 20.4126 Z -1.0000
G01 X 14.7664 Y 20.4288 Z -1.0000
G01 X 14.7711 Y 20.4353 Z -1.0000
G01 X 14.7661 Y 20.4545 Z -1.0000
G02 X 14.7418 Y 20.5535 Z -1.0000 I 0.1837 J 0.0976
G02 X 14.7679 Y 20.7300 Z -1.0000 I 0.6375 J -0.0043
G02 X 14.8160 Y 20.8422 Z -1.0000 I 0.5034 J -0.1490
G02 X 14.8892 Y 20.9413 Z -1.0000 I 0.4634 J -0.2659
G02 X 14.9651 Y 21.0036 Z -1.0000 I 0.2744 J -0.2566
G02 X 15.0539 Y 21.0438 Z -1.0000 I 0.1955 J -0.3142
G02 X 15.1468 Y 21.0643 Z -1.0000 I 0.1829 J -0.6074
G01 X 15.1540 Y 21.0581 Z -1.0000
G01 X 15.1519 Y 21.0547 Z -1.0000
G02 X 15.0882 Y 21.0221 Z -1.0000 I -0.6177 J 1.1294
G03 X 14.9741 Y 20.9519 Z -1.0000 I 0.2718 J -0.5702
G01 X 14.9806 Y 20.9390 Z -1.0000
G01 X 14.9942 Y 20.9392 Z -1.0000
G01 X 14.9959 Y 20.9351 Z -1.0000
G01 X 14.9970 Y 20.9292 Z -1.0000
G01 X 15.0089 Y 20.9251 Z -1.0000
G01 X 15.0228 Y 20.9281 Z -1.0000
G01 X 15.0240 Y 20.9319 Z -1.0000
G01 X 15.0597 Y 20.9389 Z -1.0000
G02 X 15.0963 Y 20.9359 Z -1.0000 I 0.0013 J -0.2119
G01 X 15.0996 Y 20.9321 Z -1.0000
G01 X 15.1023 Y 20.9277 Z -1.0000
G01 X 15.1137 Y 20.9251 Z -1.0000
G01 X 15.1229 Y 20.9279 Z -1.0000
G01 X 15.1237 Y 20.9319 Z -1.0000
G01 X 15.1844 Y 20.9415 Z -1.0000
G03 X 15.2481 Y 20.9482 Z -1.0000 I -0.0216 J 0.5126
G03 X 15.2740 Y 20.9566 Z -1.0000 I -0.0153 J 0.0909
G02 X 15.2974 Y 20.9639 Z -1.0000 I 0.0343 J -0.0689
G01 X 15.3038 Y 20.9609 Z -1.0000
G01 X 15.3105 Y 20.9579 Z -1.0000
G03 X 15.3515 Y 20.9693 Z -1.0000 I -0.0374 J 0.2143
G02 X 15.3947 Y 20.9825 Z -1.0000 I 0.1159 J -0.3022
G02 X 15.4169 Y 20.9843 Z -1.0000 I 0.0175 J -0.0757
G02 X 15.4760 Y 20.9668 Z -1.0000 I -0.0083 J -0.1363
G01 X 15.4832 Y 20.9467 Z -1.0000
G01 X 15.4831 Y 20.9375 Z -1.0000
G01 X 15.4877 Y 20.9342 Z -1.0000
G01 X 15.4951 Y 20.9369 Z -1.0000
G01 X 15.5012 Y 20.9456 Z -1.0000
G01 X 15.5072 Y 20.9489 Z -1.0000
G01 X 15.5218 Y 20.9413 Z -1.0000
G01 X 15.5342 Y 20.9230 Z -1.0000
G03 X 15.5303 Y 20.9203 Z -1.0000 I 0.0300 J -0.0471
G03 X 15.4910 Y 20.8901 Z -1.0000 I 4.1919 J -5.4961
G02 X 15.4504 Y 20.8619 Z -1.0000 I -0.2934 J 0.3792
G02 X 15.3867 Y 20.8254 Z -1.0000 I -0.5565 J 0.8968
G03 X 15.3226 Y 20.7895 Z -1.0000 I 0.6844 J -1.2959
G03 X 15.2587 Y 20.7493 Z -1.0000 I 0.7904 J -1.3305
G02 X 15.1948 Y 20.7105 Z -1.0000 I -0.5454 J 0.8239
G01 X 15.1839 Y 20.7076 Z -1.0000
G01 X 15.1751 Y 20.7046 Z -1.0000
G01 X 15.1721 Y 20.6985 Z -1.0000
G01 X 15.1693 Y 20.6922 Z -1.0000
G01 X 15.1624 Y 20.6894 Z -1.0000
G01 X 15.1410 Y 20.6822 Z -1.0000
G03 X 15.0521 Y 20.6056 Z -1.0000 I 0.5773 J -0.7596
G02 X 15.0159 Y 20.5745 Z -1.0000 I -0.2641 J 0.2706
G01 X 15.0063 Y 20.5709 Z -1.0000
G01 X 15.0135 Y 20.5625 Z -1.0000
G01 X 15.0426 Y 20.5590 Z -1.0000
G01 X 15.0459 Y 20.6290 Z -1.0000
G02 X 15.1887 Y 20.6804 Z -1.0000 I 0.1427 J -0.1727
G01 X 15.1952 Y 20.6821 Z -1.0000
G03 X 15.2246 Y 20.7016 Z -1.0000 I -0.1693 J 0.2876
G02 X 15.2547 Y 20.7204 Z -1.0000 I 0.1365 J -0.1851
G02 X 15.3147 Y 20.7486 Z -1.0000 I 0.3707 J -0.7104
G03 X 15.3750 Y 20.7759 Z -1.0000 I -0.4834 J 1.1492
G01 X 15.3806 Y 20.7806 Z -1.0000
G01 X 15.3862 Y 20.7853 Z -1.0000
G02 X 15.4045 Y 20.7928 Z -1.0000 I 0.0519 J -0.1016
G03 X 15.4226 Y 20.8011 Z -1.0000 I -0.0222 J 0.0717
G03 X 15.4458 Y 20.8189 Z -1.0000 I -0.0884 J 0.1392
G02 X 15.4692 Y 20.8368 Z -1.0000 I 0.1122 J -0.1220
G02 X 15.5203 Y 20.8662 Z -1.0000 I 0.3563 J -0.5616
G03 X 15.5705 Y 20.8965 Z -1.0000 I -0.2019 J 0.3911
G03 X 15.5901 Y 20.9150 Z -1.0000 I -0.0532 J 0.0761
G01 X 15.6081 Y 20.9276 Z -1.0000
G01 X 15.6208 Y 20.9252 Z -1.0000
G01 X 15.6345 Y 20.9206 Z -1.0000
G01 X 15.6483 Y 20.9158 Z -1.0000
G01 X 15.6527 Y 20.9040 Z -1.0000
G01 X 15.6434 Y 20.8868 Z -1.0000
G03 X 15.6306 Y 20.8677 Z -1.0000 I 0.0345 J -0.0371
G01 X 15.6302 Y 20.8518 Z -1.0000
G01 X 15.6292 Y 20.8392 Z -1.0000
G01 X 15.6215 Y 20.8344 Z -1.0000
G01 X 15.6105 Y 20.8312 Z -1.0000
G01 X 15.6073 Y 20.8253 Z -1.0000
G01 X 15.6174 Y 20.8160 Z -1.0000
G03 X 15.6707 Y 20.8312 Z -1.0000 I -0.0139 J 0.1497
G01 X 15.7109 Y 20.8303 Z -1.0000
G01 X 15.7283 Y 20.7990 Z -1.0000
G02 X 15.7121 Y 20.7633 Z -1.0000 I -0.0529 J 0.0025
G01 X 15.6885 Y 20.7607 Z -1.0000
G03 X 15.6595 Y 20.7718 Z -1.0000 I -0.0447 J -0.0735
G03 X 15.6316 Y 20.7713 Z -1.0000 I -0.0126 J -0.0680
G03 X 15.5488 Y 20.7474 Z -1.0000 I 0.1643 J -0.7249
G03 X 15.5187 Y 20.7315 Z -1.0000 I 0.0388 J -0.1101
G01 X 15.5074 Y 20.7269 Z -1.0000
G01 X 15.5012 Y 20.7290 Z -1.0000
G01 X 15.5021 Y 20.7431 Z -1.0000
G02 X 15.5499 Y 20.7672 Z -1.0000 I 0.0840 J -0.1075
G01 X 15.5669 Y 20.7756 Z -1.0000
G01 X 15.5750 Y 20.7864 Z -1.0000
G01 X 15.5721 Y 20.7930 Z -1.0000
G01 X 15.5564 Y 20.7942 Z -1.0000
G03 X 15.4318 Y 20.7476 Z -1.0000 I 0.1429 J -0.5716
G01 X 15.4169 Y 20.7232 Z -1.0000
G01 X 15.4137 Y 20.7193 Z -1.0000
G01 X 15.4028 Y 20.7200 Z -1.0000
G01 X 15.3943 Y 20.7164 Z -1.0000
G01 X 15.3948 Y 20.7103 Z -1.0000
G01 X 15.3906 Y 20.7074 Z -1.0000
G03 X 15.3312 Y 20.6822 Z -1.0000 I -0.0000 J -0.0826
G01 X 15.3218 Y 20.6361 Z -1.0000
G01 X 15.3209 Y 20.6282 Z -1.0000
G01 X 15.3144 Y 20.6291 Z -1.0000
G03 X 15.2832 Y 20.6069 Z -1.0000 I 0.0916 J -0.1621
G02 X 15.2506 Y 20.5811 Z -1.0000 I -0.2710 J 0.3086
G02 X 15.2324 Y 20.5707 Z -1.0000 I -0.0613 J 0.0860
G03 X 15.2136 Y 20.5609 Z -1.0000 I 0.0784 J -0.1742
G03 X 15.1722 Y 20.5350 Z -1.0000 I 0.4810 J -0.8134
G02 X 15.1312 Y 20.5082 Z -1.0000 I -2.0073 J 3.0272
G02 X 15.1056 Y 20.4921 Z -1.0000 I -0.7605 J 1.1812
G03 X 15.0220 Y 20.4310 Z -1.0000 I 0.3346 J -0.5453
G01 X 15.0134 Y 20.4125 Z -1.0000
G02 X 14.9881 Y 20.3546 Z -1.0000 I -0.0803 J 0.0007
G02 X 14.8996 Y 20.3058 Z -1.0000 I -0.1404 J 0.1498
G01 X 14.8851 Y 20.3051 Z -1.0000
G01 X 14.8821 Y 20.3087 Z -1.0000
G01 X 14.8820 Y 20.3088 Z -1.0000
G00 Z 5.0000

(End cutting path id: path56242)


(Start cutting path id: path56242)
(Change tool to Default tool)

G00 Z 5.0000
G00 X 15.3854 Y 20.3614

G01 Z -1.0000 F 100.0000(Penetrate)
G01 X 15.3803 Y 20.3625 Z -1.0000 F 3500.0000
G01 X 15.3691 Y 20.3552 Z -1.0000
G01 X 15.3692 Y 20.3512 Z -1.0000
G01 X 15.3742 Y 20.3501 Z -1.0000
G01 X 15.3854 Y 20.3574 Z -1.0000
G01 X 15.3854 Y 20.3614 Z -1.0000
G01 X 15.3854 Y 20.3614 Z -1.0000
G00 Z 5.0000

(End cutting path id: path56242)


(Start cutting path id: path56242)
(Change tool to Default tool)

G00 Z 5.0000
G00 X 15.4435 Y 20.3995

G01 Z -1.0000 F 100.0000(Penetrate)
G03 X 15.4695 Y 20.4263 Z -1.0000 I -0.1294 J 0.1514 F 3500.0000
G01 X 15.4692 Y 20.4316 Z -1.0000
G01 X 15.4637 Y 20.4321 Z -1.0000
G03 X 15.4294 Y 20.4046 Z -1.0000 I 0.1565 J -0.2302
G01 X 15.4309 Y 20.3972 Z -1.0000
G01 X 15.4435 Y 20.3995 Z -1.0000
G01 X 15.4435 Y 20.3995 Z -1.0000
G00 Z 5.0000

(End cutting path id: path56242)


(Start cutting path id: path56242)
(Change tool to Default tool)

G00 Z 5.0000
G00 X 15.3897 Y 20.6697

G01 Z -1.0000 F 100.0000(Penetrate)
G01 X 15.4086 Y 20.7011 Z -1.0000 F 3500.0000
G01 X 15.4402 Y 20.6963 Z -1.0000
G01 X 15.4400 Y 20.6924 Z -1.0000
G01 X 15.4266 Y 20.6851 Z -1.0000
G03 X 15.4109 Y 20.6769 Z -1.0000 I 0.0157 J -0.0492
G01 X 15.4078 Y 20.6707 Z -1.0000
G01 X 15.4053 Y 20.6648 Z -1.0000
G01 X 15.3987 Y 20.6622 Z -1.0000
G01 X 15.3920 Y 20.6646 Z -1.0000
G01 X 15.3896 Y 20.6697 Z -1.0000
G01 X 15.3897 Y 20.6697 Z -1.0000
G00 Z 5.0000

(End cutting path id: path56242)


(Start cutting path id: path56242)
(Change tool to Default tool)

G00 Z 5.0000
G00 X 15.6616 Y 20.7982

G01 Z -1.0000 F 100.0000(Penetrate)
G01 X 15.6591 Y 20.8047 Z -1.0000 F 3500.0000
G01 X 15.6531 Y 20.8073 Z -1.0000
G01 X 15.6458 Y 20.8051 Z -1.0000
G01 X 15.6390 Y 20.7982 Z -1.0000
G01 X 15.6396 Y 20.7925 Z -1.0000
G01 X 15.6475 Y 20.7891 Z -1.0000
G01 X 15.6584 Y 20.7923 Z -1.0000
G01 X 15.6616 Y 20.7982 Z -1.0000
G01 X 15.6616 Y 20.7982 Z -1.0000
G00 Z 5.0000

(End cutting path id: path56242)


(Start cutting path id: path56242)
(Change tool to Default tool)

G00 Z 5.0000
G00 X 15.5400 Y 20.9763

G01 Z -1.0000 F 100.0000(Penetrate)
G01 X 15.5458 Y 20.9868 Z -1.0000 F 3500.0000
G01 X 15.5642 Y 20.9813 Z -1.0000
G01 X 15.5704 Y 20.9670 Z -1.0000
G01 X 15.5649 Y 20.9614 Z -1.0000
G01 X 15.5488 Y 20.9658 Z -1.0000
G01 X 15.5400 Y 20.9763 Z -1.0000
G01 X 15.5400 Y 20.9763 Z -1.0000
G00 Z 5.0000

(End cutting path id: path56242)


(Start cutting path id: path56242)
(Change tool to Default tool)

G00 Z 5.0000
G00 X 15.4509 Y 21.0138

G01 Z -1.0000 F 100.0000(Penetrate)
G01 X 15.4380 Y 21.0196 Z -1.0000 F 3500.0000
G01 X 15.4350 Y 21.0255 Z -1.0000
G01 X 15.4592 Y 21.0498 Z -1.0000
G02 X 15.5024 Y 21.0259 Z -1.0000 I 0.0003 J -0.0504
G01 X 15.4976 Y 21.0144 Z -1.0000
G02 X 15.4509 Y 21.0138 Z -1.0000 I -0.0246 J 0.1060
G01 X 15.4509 Y 21.0138 Z -1.0000
G00 Z 5.0000

(End cutting path id: path56242)


(Start cutting path id: path56242)
(Change tool to Default tool)

G00 Z 5.0000
G00 X 15.4101 Y 21.0493

G01 Z -1.0000 F 100.0000(Penetrate)
G02 X 15.3925 Y 21.0557 Z -1.0000 I 0.0118 J 0.0603 F 3500.0000
G01 X 15.3897 Y 21.0605 Z -1.0000
G01 X 15.3927 Y 21.0639 Z -1.0000
G02 X 15.4123 Y 21.0633 Z -1.0000 I 0.0078 J -0.0620
G02 X 15.4318 Y 21.0563 Z -1.0000 I -0.0128 J -0.0666
G01 X 15.4350 Y 21.0509 Z -1.0000
G01 X 15.4327 Y 21.0441 Z -1.0000
G01 X 15.4304 Y 21.0450 Z -1.0000
G03 X 15.4100 Y 21.0493 Z -1.0000 I -0.1565 J -0.6895
G01 X 15.4101 Y 21.0493 Z -1.0000
G00 Z 5.0000

(End cutting path id: path56242)


(Start cutting path id: path56242)
(Change tool to Default tool)

G00 Z 5.0000
G00 X 15.2707 Y 21.0671

G01 Z -1.0000 F 100.0000(Penetrate)
G01 X 15.2731 Y 21.0741 Z -1.0000 F 3500.0000
G02 X 15.3125 Y 21.0758 Z -1.0000 I 0.0250 J -0.1203
G01 X 15.3384 Y 21.0624 Z -1.0000
G01 X 15.3337 Y 21.0520 Z -1.0000
G02 X 15.2858 Y 21.0577 Z -1.0000 I -0.0000 J 0.2059
G01 X 15.2707 Y 21.0671 Z -1.0000
G01 X 15.2707 Y 21.0671 Z -1.0000
G00 Z 5.0000

(End cutting path id: path56242)


(Start cutting path id: path56242)
(Change tool to Default tool)

G00 Z 5.0000
G00 X 15.1795 Y 21.0582

G01 Z -1.0000 F 100.0000(Penetrate)
G01 X 15.1908 Y 21.0602 Z -1.0000 F 3500.0000
G01 X 15.1969 Y 21.0575 Z -1.0000
G01 X 15.1850 Y 21.0527 Z -1.0000
G01 X 15.1795 Y 21.0582 Z -1.0000
G01 X 15.1795 Y 21.0582 Z -1.0000
G00 Z 5.0000

(End cutting path id: path56242)


(Start cutting path id: path56242)
(Change tool to Default tool)

G00 Z 5.0000
G00 X 16.0588 Y 21.4663

G01 Z -1.0000 F 100.0000(Penetrate)
G01 X 16.0701 Y 21.4683 Z -1.0000 F 3500.0000
G01 X 16.0762 Y 21.4656 Z -1.0000
G01 X 16.0643 Y 21.4608 Z -1.0000
G01 X 16.0588 Y 21.4663 Z -1.0000
G01 X 16.0588 Y 21.4663 Z -1.0000
G00 Z 5.0000

(End cutting path id: path56242)


(Start cutting path id: path56242)
(Change tool to Default tool)

G00 Z 5.0000
G00 X 16.4400 Y 21.0692

G01 Z -1.0000 F 100.0000(Penetrate)
G01 X 16.4404 Y 21.0777 Z -1.0000 F 3500.0000
G03 X 16.4109 Y 21.0920 Z -1.0000 I -0.0473 J -0.0603
G03 X 16.3722 Y 21.0884 Z -1.0000 I -0.0141 J -0.0588
G01 X 16.3597 Y 21.0690 Z -1.0000
G01 X 16.3777 Y 21.0510 Z -1.0000
G03 X 16.4400 Y 21.0692 Z -1.0000 I -0.0002 J 0.1166
G01 X 16.4400 Y 21.0692 Z -1.0000
G00 Z 5.0000

(End cutting path id: path56242)


(Start cutting path id: path56242)
(Change tool to Default tool)

G00 Z 5.0000
G00 X 15.8430 Y 20.3269

G01 Z -1.0000 F 100.0000(Penetrate)
G01 X 15.8414 Y 20.3344 Z -1.0000 F 3500.0000
G01 X 15.8390 Y 20.3360 Z -1.0000
G01 X 15.8357 Y 20.3347 Z -1.0000
G01 X 15.8294 Y 20.3269 Z -1.0000
G01 X 15.8289 Y 20.3207 Z -1.0000
G01 X 15.8334 Y 20.3178 Z -1.0000
G01 X 15.8402 Y 20.3206 Z -1.0000
G01 X 15.8430 Y 20.3269 Z -1.0000
G01 X 15.8430 Y 20.3269 Z -1.0000
G00 Z 5.0000

(End cutting path id: path56242)


(Start cutting path id: path56242)
(Change tool to Default tool)

G00 Z 5.0000
G00 X 15.6800 Y 20.0614

G01 Z -1.0000 F 100.0000(Penetrate)
G03 X 15.7393 Y 20.1228 Z -1.0000 I -0.1270 J 0.1819 F 3500.0000
G03 X 15.7747 Y 20.2076 Z -1.0000 I -0.2167 J 0.1403
G01 X 15.7718 Y 20.2288 Z -1.0000
G01 X 15.7598 Y 20.2361 Z -1.0000
G03 X 15.7397 Y 20.2322 Z -1.0000 I 0.0002 J -0.0554
G03 X 15.6926 Y 20.2095 Z -1.0000 I 0.1324 J -0.3357
G03 X 15.6549 Y 20.1763 Z -1.0000 I 0.0625 J -0.1090
G03 X 15.6265 Y 20.1220 Z -1.0000 I 0.1487 J -0.1124
G03 X 15.6134 Y 20.0635 Z -1.0000 I 0.2900 J -0.0952
G01 X 15.6182 Y 20.0535 Z -1.0000
G01 X 15.6444 Y 20.0477 Z -1.0000
G03 X 15.6800 Y 20.0614 Z -1.0000 I -0.0102 J 0.0796
G01 X 15.6800 Y 20.0614 Z -1.0000
G00 Z 5.0000

(End cutting path id: path56242)


(Start cutting path id: path56242)
(Change tool to Default tool)

G00 Z 5.0000
G00 X 15.4934 Y 19.8318

G01 Z -1.0000 F 100.0000(Penetrate)
G03 X 15.5041 Y 19.8563 Z -1.0000 I -0.0471 J 0.0352 F 3500.0000
G01 X 15.5008 Y 19.8717 Z -1.0000
G02 X 15.4906 Y 19.8876 Z -1.0000 I 0.1668 J 0.1177
G02 X 15.4761 Y 19.9144 Z -1.0000 I 0.5268 J 0.3031
G03 X 15.4374 Y 19.9594 Z -1.0000 I -0.1120 J -0.0571
G03 X 15.3940 Y 19.9733 Z -1.0000 I -0.0434 J -0.0604
G01 X 15.3835 Y 19.9769 Z -1.0000
G02 X 15.3678 Y 19.9932 Z -1.0000 I 0.0436 J 0.0578
G01 X 15.3503 Y 20.0063 Z -1.0000
G03 X 15.3091 Y 20.0131 Z -1.0000 I -0.0412 J -0.1218
G03 X 15.2534 Y 19.9901 Z -1.0000 I 0.0000 J -0.0790
G01 X 15.2583 Y 19.9626 Z -1.0000
G01 X 15.2756 Y 19.9493 Z -1.0000
G01 X 15.2787 Y 19.9379 Z -1.0000
G01 X 15.2840 Y 19.9297 Z -1.0000
G03 X 15.3419 Y 19.9208 Z -1.0000 I 0.0685 J 0.2534
G02 X 15.4018 Y 19.9090 Z -1.0000 I -0.0081 J -0.1995
G01 X 15.4231 Y 19.8914 Z -1.0000
G03 X 15.4412 Y 19.8684 Z -1.0000 I 0.0952 J 0.0562
G01 X 15.4506 Y 19.8646 Z -1.0000
G01 X 15.4593 Y 19.8616 Z -1.0000
G01 X 15.4623 Y 19.8555 Z -1.0000
G01 X 15.4597 Y 19.8489 Z -1.0000
G01 X 15.4541 Y 19.8464 Z -1.0000
G01 X 15.4245 Y 19.8257 Z -1.0000
G01 X 15.4328 Y 19.7881 Z -1.0000
G01 X 15.4478 Y 19.7869 Z -1.0000
G03 X 15.4934 Y 19.8317 Z -1.0000 I -0.1229 J 0.1705
G01 X 15.4934 Y 19.8318 Z -1.0000
G00 Z 5.0000

(End cutting path id: path56242)


(Start cutting path id: path56242)
(Change tool to Default tool)

G00 Z 5.0000
G00 X 16.1013 Y 19.0939

G01 Z -1.0000 F 100.0000(Penetrate)
G01 X 16.1007 Y 19.0995 Z -1.0000 F 3500.0000
G01 X 16.0922 Y 19.1030 Z -1.0000
G01 X 16.0838 Y 19.0995 Z -1.0000
G01 X 16.0831 Y 19.0939 Z -1.0000
G01 X 16.0894 Y 19.0859 Z -1.0000
G01 X 16.0922 Y 19.0848 Z -1.0000
G01 X 16.0950 Y 19.0859 Z -1.0000
G01 X 16.1013 Y 19.0939 Z -1.0000
G01 X 16.1013 Y 19.0939 Z -1.0000
G00 Z 5.0000

(End cutting path id: path56242)


(Start cutting path id: path56242)
(Change tool to Default tool)

G00 Z 5.0000
G00 X 16.1450 Y 18.7104

G01 Z -1.0000 F 100.0000(Penetrate)
G01 X 16.1477 Y 18.7288 Z -1.0000 F 3500.0000
G01 X 16.1121 Y 18.7419 Z -1.0000
G03 X 16.0371 Y 18.7283 Z -1.0000 I 0.0188 J -0.3169
G01 X 16.0260 Y 18.7153 Z -1.0000
G01 X 16.0304 Y 18.7018 Z -1.0000
G01 X 16.0486 Y 18.6927 Z -1.0000
G03 X 16.0952 Y 18.6937 Z -1.0000 I 0.0202 J 0.1444
G03 X 16.1449 Y 18.7104 Z -1.0000 I -0.0335 J 0.1823
G01 X 16.1450 Y 18.7104 Z -1.0000
G00 Z 5.0000

(End cutting path id: path56242)


(Start cutting path id: path56242)
(Change tool to Default tool)

G00 Z 5.0000
G00 X 15.9517 Y 18.7339

G01 Z -1.0000 F 100.0000(Penetrate)
G01 X 15.9692 Y 18.7637 Z -1.0000 F 3500.0000
G03 X 15.9475 Y 18.8394 Z -1.0000 I -0.1657 J -0.0066
G03 X 15.8922 Y 18.8798 Z -1.0000 I -0.0729 J -0.0417
G03 X 15.8178 Y 18.8672 Z -1.0000 I -0.0214 J -0.0995
G02 X 15.7874 Y 18.8518 Z -1.0000 I -0.1095 J 0.1789
G01 X 15.7735 Y 18.8491 Z -1.0000
G03 X 15.7098 Y 18.8331 Z -1.0000 I 0.0000 J -0.1343
G03 X 15.6662 Y 18.7913 Z -1.0000 I 0.0539 J -0.0999
G03 X 15.6481 Y 18.7551 Z -1.0000 I 0.2325 J -0.1386
G01 X 15.6492 Y 18.7498 Z -1.0000
G01 X 15.6716 Y 18.7391 Z -1.0000
G03 X 15.8974 Y 18.7235 Z -1.0000 I 0.3269 J 3.0953
G03 X 15.9283 Y 18.7259 Z -1.0000 I 0.0046 J 0.1405
G03 X 15.9517 Y 18.7339 Z -1.0000 I -0.0166 J 0.0868
G01 X 15.9517 Y 18.7339 Z -1.0000
G00 Z 5.0000

(End cutting path id: path56242)


(Start cutting path id: path56242)
(Change tool to Default tool)

G00 Z 5.0000
G00 X 15.6616 Y 18.5641

G01 Z -1.0000 F 100.0000(Penetrate)
G01 X 15.6582 Y 18.5721 Z -1.0000 F 3500.0000
G01 X 15.6525 Y 18.5726 Z -1.0000
G01 X 15.6456 Y 18.5658 Z -1.0000
G01 X 15.6434 Y 18.5585 Z -1.0000
G01 X 15.6460 Y 18.5525 Z -1.0000
G01 X 15.6525 Y 18.5500 Z -1.0000
G01 X 15.6584 Y 18.5532 Z -1.0000
G01 X 15.6616 Y 18.5641 Z -1.0000
G01 X 15.6616 Y 18.5641 Z -1.0000
G00 Z 5.0000

(End cutting path id: path56242)


(Start cutting path id: path56242)
(Change tool to Default tool)

G00 Z 5.0000
G00 X 17.8687 Y 18.4497

G01 Z -1.0000 F 100.0000(Penetrate)
G01 X 17.8699 Y 18.4572 Z -1.0000 F 3500.0000
G01 X 17.8657 Y 18.4632 Z -1.0000
G01 X 17.8591 Y 18.4632 Z -1.0000
G01 X 17.8522 Y 18.4548 Z -1.0000
G01 X 17.8569 Y 18.4453 Z -1.0000
G01 X 17.8687 Y 18.4497 Z -1.0000
G01 X 17.8687 Y 18.4497 Z -1.0000
G00 Z 5.0000

(End cutting path id: path56242)


(Start cutting path id: path56242)
(Change tool to Default tool)

G00 Z 5.0000
G00 X 18.3064 Y 18.3653

G01 Z -1.0000 F 100.0000(Penetrate)
G03 X 18.3238 Y 18.3732 Z -1.0000 I -0.0152 J 0.0570 F 3500.0000
G01 X 18.3268 Y 18.3788 Z -1.0000
G01 X 18.3183 Y 18.3862 Z -1.0000
G03 X 18.2866 Y 18.3729 Z -1.0000 I 0.0100 J -0.0683
G01 X 18.2875 Y 18.3663 Z -1.0000
G01 X 18.3064 Y 18.3653 Z -1.0000
G01 X 18.3064 Y 18.3653 Z -1.0000
G00 Z 5.0000

(End cutting path id: path56242)


(Start cutting path id: path56242)
(Change tool to Default tool)

G00 Z 5.0000
G00 X 18.3790 Y 18.3650

G01 Z -1.0000 F 100.0000(Penetrate)
G01 X 18.3623 Y 18.3658 Z -1.0000 F 3500.0000
G01 X 18.3594 Y 18.3492 Z -1.0000
G01 X 18.3658 Y 18.3457 Z -1.0000
G01 X 18.3749 Y 18.3497 Z -1.0000
G01 X 18.3805 Y 18.3593 Z -1.0000
G01 X 18.3790 Y 18.3650 Z -1.0000
G01 X 18.3790 Y 18.3650 Z -1.0000
G00 Z 5.0000

(End cutting path id: path56242)


(Start cutting path id: path56242)
(Change tool to Default tool)

G00 Z 5.0000
G00 X 19.8896 Y 18.2894

G01 Z -1.0000 F 100.0000(Penetrate)
G03 X 19.9144 Y 18.3167 Z -1.0000 I -0.0379 J 0.0595 F 3500.0000
G01 X 19.9098 Y 18.3288 Z -1.0000
G03 X 19.8534 Y 18.3272 Z -1.0000 I -0.0263 J -0.0684
G01 X 19.8317 Y 18.2937 Z -1.0000
G01 X 19.8459 Y 18.2784 Z -1.0000
G03 X 19.8896 Y 18.2895 Z -1.0000 I 0.0052 J 0.0714
G01 X 19.8896 Y 18.2894 Z -1.0000
G00 Z 5.0000

(End cutting path id: path56242)


(Start cutting path id: path56242)
(Change tool to Default tool)

G00 Z 5.0000
G00 X 20.3763 Y 18.3829

G01 Z -1.0000 F 100.0000(Penetrate)
G01 X 20.3822 Y 18.4031 Z -1.0000 F 3500.0000
G01 X 20.3679 Y 18.4140 Z -1.0000
G03 X 20.2999 Y 18.3991 Z -1.0000 I 0.0000 J -0.1620
G01 X 20.2850 Y 18.3757 Z -1.0000
G01 X 20.2921 Y 18.3654 Z -1.0000
G03 X 20.3219 Y 18.3622 Z -1.0000 I 0.0215 J 0.0589
G03 X 20.3571 Y 18.3711 Z -1.0000 I -0.0205 J 0.1546
G03 X 20.3763 Y 18.3829 Z -1.0000 I -0.0219 J 0.0573
G01 X 20.3763 Y 18.3829 Z -1.0000
G00 Z 5.0000

(End cutting path id: path56242)


(Start cutting path id: path56242)
(Change tool to Default tool)

G00 Z 5.0000
G00 X 21.0890 Y 18.3739

G01 Z -1.0000 F 100.0000(Penetrate)
G01 X 21.0706 Y 18.4028 Z -1.0000 F 3500.0000
G01 X 21.0307 Y 18.4032 Z -1.0000
G03 X 21.0117 Y 18.3873 Z -1.0000 I 0.0220 J -0.0456
G01 X 21.0056 Y 18.3686 Z -1.0000
G01 X 21.0130 Y 18.3524 Z -1.0000
G01 X 21.0374 Y 18.3411 Z -1.0000
G03 X 21.0759 Y 18.3491 Z -1.0000 I 0.0087 J 0.0551
G01 X 21.0890 Y 18.3739 Z -1.0000
G01 X 21.0890 Y 18.3739 Z -1.0000
G00 Z 5.0000

(End cutting path id: path56242)


(Start cutting path id: path56242)
(Change tool to Default tool)

G00 Z 5.0000
G00 X 21.3909 Y 18.3370

G01 Z -1.0000 F 100.0000(Penetrate)
G01 X 21.3863 Y 18.3461 Z -1.0000 F 3500.0000
G01 X 21.3728 Y 18.3506 Z -1.0000
G01 X 21.3592 Y 18.3461 Z -1.0000
G01 X 21.3546 Y 18.3370 Z -1.0000
G01 X 21.3592 Y 18.3279 Z -1.0000
G01 X 21.3728 Y 18.3234 Z -1.0000
G01 X 21.3864 Y 18.3279 Z -1.0000
G01 X 21.3909 Y 18.3370 Z -1.0000
G01 X 21.3909 Y 18.3370 Z -1.0000
G00 Z 5.0000

(End cutting path id: path56242)


(Start cutting path id: path56242)
(Change tool to Default tool)

G00 Z 5.0000
G00 X 21.6538 Y 18.3199

G01 Z -1.0000 F 100.0000(Penetrate)
G01 X 21.6357 Y 18.3234 Z -1.0000 F 3500.0000
G01 X 21.6207 Y 18.3202 Z -1.0000
G01 X 21.6175 Y 18.3152 Z -1.0000
G01 X 21.6208 Y 18.3113 Z -1.0000
G01 X 21.6357 Y 18.3117 Z -1.0000
G03 X 21.6523 Y 18.3176 Z -1.0000 I -0.0259 J 0.0994
G01 X 21.6538 Y 18.3199 Z -1.0000
G01 X 21.6538 Y 18.3199 Z -1.0000
G00 Z 5.0000

(End cutting path id: path56242)


(Start cutting path id: path56242)
(Change tool to Default tool)

G00 Z 5.0000
G00 X 21.1461 Y 19.6198

G01 Z -1.0000 F 100.0000(Penetrate)
G01 X 21.1430 Y 19.6257 Z -1.0000 F 3500.0000
G01 X 21.1325 Y 19.6289 Z -1.0000
G01 X 21.1221 Y 19.6257 Z -1.0000
G01 X 21.1189 Y 19.6198 Z -1.0000
G01 X 21.1221 Y 19.6138 Z -1.0000
G01 X 21.1325 Y 19.6107 Z -1.0000
G01 X 21.1430 Y 19.6138 Z -1.0000
G01 X 21.1461 Y 19.6198 Z -1.0000
G01 X 21.1461 Y 19.6198 Z -1.0000
G00 Z 5.0000

(End cutting path id: path56242)


(Start cutting path id: path56242)
(Change tool to Default tool)

G00 Z 5.0000
G00 X 21.0455 Y 19.6254

G01 Z -1.0000 F 100.0000(Penetrate)
G03 X 20.9800 Y 19.6354 Z -1.0000 I -0.0581 J -0.1605 F 3500.0000
G01 X 20.9695 Y 19.6221 Z -1.0000
G02 X 20.9724 Y 19.6062 Z -1.0000 I -0.6245 J -0.1220
G02 X 20.9732 Y 19.6009 Z -1.0000 I -0.1741 J -0.0295
G01 X 20.9760 Y 19.5986 Z -1.0000
G03 X 21.0251 Y 19.6049 Z -1.0000 I -0.0372 J 0.4828
G01 X 21.0474 Y 19.6167 Z -1.0000
G01 X 21.0455 Y 19.6254 Z -1.0000
G01 X 21.0455 Y 19.6254 Z -1.0000
G00 Z 5.0000

(End cutting path id: path56242)


(Start cutting path id: path56242)
(Change tool to Default tool)

G00 Z 5.0000
G00 X 19.6091 Y 19.6598

G01 Z -1.0000 F 100.0000(Penetrate)
G03 X 19.6568 Y 19.6955 Z -1.0000 I -0.0469 J 0.1122 F 3500.0000
G01 X 19.6556 Y 19.7173 Z -1.0000
G01 X 19.6498 Y 19.7191 Z -1.0000
G03 X 19.6300 Y 19.7124 Z -1.0000 I 0.0143 J -0.0751
G02 X 19.6093 Y 19.7027 Z -1.0000 I -0.1964 J 0.3932
G02 X 19.5756 Y 19.6886 Z -1.0000 I -0.4456 J 1.0211
G01 X 19.5496 Y 19.6621 Z -1.0000
G01 X 19.5600 Y 19.6470 Z -1.0000
G03 X 19.5780 Y 19.6493 Z -1.0000 I -0.0000 J 0.0708
G03 X 19.6091 Y 19.6598 Z -1.0000 I -0.0604 J 0.2306
G01 X 19.6091 Y 19.6598 Z -1.0000
G00 Z 5.0000

(End cutting path id: path56242)


(Start cutting path id: path56242)
(Change tool to Default tool)

G00 Z 5.0000
G00 X 19.4041 Y 19.6740

G01 Z -1.0000 F 100.0000(Penetrate)
G02 X 19.4275 Y 19.6714 Z -1.0000 I -0.0006 J -0.1104 F 3500.0000
G01 X 19.4413 Y 19.6656 Z -1.0000
G03 X 19.5035 Y 19.6621 Z -1.0000 I 0.0343 J 0.0542
G01 X 19.5208 Y 19.7041 Z -1.0000
G01 X 19.4924 Y 19.7232 Z -1.0000
G03 X 19.3983 Y 19.6977 Z -1.0000 I 0.0119 J -0.2301
G03 X 19.3746 Y 19.6796 Z -1.0000 I 0.0397 J -0.0766
G01 X 19.3700 Y 19.6671 Z -1.0000
G01 X 19.3753 Y 19.6628 Z -1.0000
G01 X 19.3826 Y 19.6700 Z -1.0000
G02 X 19.4041 Y 19.6740 Z -1.0000 I 0.0211 J -0.0540
G01 X 19.4041 Y 19.6740 Z -1.0000
G00 Z 5.0000

(End cutting path id: path56242)


(Start cutting path id: path56242)
(Change tool to Default tool)

G00 Z 5.0000
G00 X 17.7829 Y 20.4436

G01 Z -1.0000 F 100.0000(Penetrate)
G01 X 17.7876 Y 20.4582 Z -1.0000 F 3500.0000
G01 X 17.7965 Y 20.4628 Z -1.0000
G01 X 17.8072 Y 20.4599 Z -1.0000
G01 X 17.8101 Y 20.4548 Z -1.0000
G01 X 17.8079 Y 20.4479 Z -1.0000
G02 X 17.7965 Y 20.4356 Z -1.0000 I -0.0520 J 0.0368
G01 X 17.7879 Y 20.4349 Z -1.0000
G01 X 17.7829 Y 20.4436 Z -1.0000
G01 X 17.7829 Y 20.4436 Z -1.0000
G00 Z 5.0000

(End cutting path id: path56242)


(Start cutting path id: path56242)
(Change tool to Default tool)

G00 Z 5.0000
G00 X 17.5654 Y 20.0345

G01 Z -1.0000 F 100.0000(Penetrate)
G01 X 17.5684 Y 20.0384 Z -1.0000 F 3500.0000
G02 X 17.5975 Y 20.0436 Z -1.0000 I 0.0399 J -0.1407
G03 X 17.6277 Y 20.0504 Z -1.0000 I -0.0077 J 0.1048
G03 X 17.6483 Y 20.0633 Z -1.0000 I -0.0231 J 0.0598
G02 X 17.6683 Y 20.0787 Z -1.0000 I 0.0906 J -0.0969
G02 X 17.6931 Y 20.0915 Z -1.0000 I 0.0882 J -0.1403
G03 X 17.7134 Y 20.1042 Z -1.0000 I -0.0281 J 0.0673
G01 X 17.7143 Y 20.1103 Z -1.0000
G01 X 17.7143 Y 20.1156 Z -1.0000
G01 X 17.7192 Y 20.1183 Z -1.0000
G01 X 17.7266 Y 20.1219 Z -1.0000
G03 X 17.7376 Y 20.1410 Z -1.0000 I -0.0539 J 0.0438
G02 X 17.7485 Y 20.1603 Z -1.0000 I 0.0671 J -0.0253
G01 X 17.7555 Y 20.1637 Z -1.0000
G01 X 17.7696 Y 20.1354 Z -1.0000
G02 X 17.6684 Y 20.0481 Z -1.0000 I -0.2521 J 0.1900
G02 X 17.5819 Y 20.0199 Z -1.0000 I -0.1191 J 0.2189
G01 X 17.5654 Y 20.0345 Z -1.0000
G01 X 17.5654 Y 20.0345 Z -1.0000
G00 Z 5.0000

(End cutting path id: path56242)


(Start cutting path id: path56242)
(Change tool to Default tool)

G00 Z 5.0000
G00 X 17.2802 Y 20.2537

G01 Z -1.0000 F 100.0000(Penetrate)
G01 X 17.2791 Y 20.2611 Z -1.0000 F 3500.0000
G01 X 17.2842 Y 20.2678 Z -1.0000
G01 X 17.2899 Y 20.2673 Z -1.0000
G01 X 17.2934 Y 20.2594 Z -1.0000
G01 X 17.2880 Y 20.2513 Z -1.0000
G01 X 17.2802 Y 20.2537 Z -1.0000
G01 X 17.2802 Y 20.2537 Z -1.0000
G00 Z 5.0000

(End cutting path id: path56242)


(Start cutting path id: path56242)
(Change tool to Default tool)

G00 Z 5.0000
G00 X 17.2390 Y 20.2634

G01 Z -1.0000 F 100.0000(Penetrate)
G01 X 17.2417 Y 20.2698 Z -1.0000 F 3500.0000
G01 X 17.2481 Y 20.2725 Z -1.0000
G01 X 17.2545 Y 20.2698 Z -1.0000
G01 X 17.2572 Y 20.2634 Z -1.0000
G01 X 17.2545 Y 20.2570 Z -1.0000
G01 X 17.2481 Y 20.2543 Z -1.0000
G01 X 17.2417 Y 20.2570 Z -1.0000
G01 X 17.2390 Y 20.2634 Z -1.0000
G01 X 17.2390 Y 20.2634 Z -1.0000
G00 Z 5.0000

(End cutting path id: path56242)


(Start cutting path id: path56242)
(Change tool to Default tool)

G00 Z 5.0000
G00 X 17.2269 Y 20.2918

G01 Z -1.0000 F 100.0000(Penetrate)
G01 X 17.2342 Y 20.3054 Z -1.0000 F 3500.0000
G03 X 17.2436 Y 20.3444 Z -1.0000 I -0.2665 J 0.0845
G02 X 17.2569 Y 20.3813 Z -1.0000 I 0.1060 J -0.0175
G02 X 17.2950 Y 20.4319 Z -1.0000 I 0.2415 J -0.1418
G02 X 17.3422 Y 20.4750 Z -1.0000 I 0.3178 J -0.3006
G02 X 17.3623 Y 20.4849 Z -1.0000 I 0.0331 J -0.0420
G03 X 17.3793 Y 20.4928 Z -1.0000 I -0.0121 J 0.0485
G01 X 17.3803 Y 20.4978 Z -1.0000
G01 X 17.3806 Y 20.5026 Z -1.0000
G01 X 17.3867 Y 20.5056 Z -1.0000
G03 X 17.3974 Y 20.5071 Z -1.0000 I -0.0030 J 0.0609
G03 X 17.4546 Y 20.5214 Z -1.0000 I -0.4272 J 1.8402
G02 X 17.5116 Y 20.5334 Z -1.0000 I 0.1479 J -0.5585
G01 X 17.5271 Y 20.5328 Z -1.0000
G01 X 17.5154 Y 20.5225 Z -1.0000
G03 X 17.4176 Y 20.4878 Z -1.0000 I 0.1256 J -0.5106
G03 X 17.3492 Y 20.4444 Z -1.0000 I 0.1362 J -0.2902
G03 X 17.3310 Y 20.4243 Z -1.0000 I 0.0606 J -0.0730
G03 X 17.2902 Y 20.3565 Z -1.0000 I 0.6664 J -0.4470
G02 X 17.2487 Y 20.2916 Z -1.0000 I -0.4439 J 0.2381
G01 X 17.2347 Y 20.2828 Z -1.0000
G01 X 17.2270 Y 20.2855 Z -1.0000
G01 X 17.2269 Y 20.2917 Z -1.0000
G01 X 17.2269 Y 20.2918 Z -1.0000
G00 Z 5.0000

(End cutting path id: path56242)


(Start cutting path id: path56242)
(Change tool to Default tool)

G00 Z 5.0000
G00 X 20.6908 Y 21.1351

G01 Z -1.0000 F 100.0000(Penetrate)
G01 X 20.7023 Y 21.1400 Z -1.0000 F 3500.0000
G01 X 20.7220 Y 21.1357 Z -1.0000
G01 X 20.7230 Y 21.1300 Z -1.0000
G01 X 20.7115 Y 21.1251 Z -1.0000
G01 X 20.6917 Y 21.1294 Z -1.0000
G01 X 20.6908 Y 21.1351 Z -1.0000
G01 X 20.6908 Y 21.1351 Z -1.0000
G00 Z 5.0000

(End cutting path id: path56242)


(Start cutting path id: path56242)
(Change tool to Default tool)

G00 Z 5.0000
G00 X 21.2119 Y 21.0945

G01 Z -1.0000 F 100.0000(Penetrate)
G02 X 21.2277 Y 21.0965 Z -1.0000 I 0.0158 J -0.0599 F 3500.0000
G02 X 21.2436 Y 21.0945 Z -1.0000 I -0.0000 J -0.0624
G01 X 21.2277 Y 21.0904 Z -1.0000
G01 X 21.2119 Y 21.0945 Z -1.0000
G01 X 21.2119 Y 21.0945 Z -1.0000
G00 Z 5.0000

(End cutting path id: path56242)


(Start cutting path id: path56242)
(Change tool to Default tool)

G00 Z 5.0000
G00 X 21.8103 Y 21.0585

G01 Z -1.0000 F 100.0000(Penetrate)
G02 X 21.8353 Y 21.0604 Z -1.0000 I 0.0243 J -0.1594 F 3500.0000
G02 X 21.8556 Y 21.0584 Z -1.0000 I -0.0005 J -0.1112
G01 X 21.8306 Y 21.0546 Z -1.0000
G01 X 21.8103 Y 21.0585 Z -1.0000
G01 X 21.8103 Y 21.0585 Z -1.0000
G00 Z 5.0000

(End cutting path id: path56242)


(Start cutting path id: path56242)
(Change tool to Default tool)

G00 Z 5.0000
G00 X 22.1343 Y 21.0338

G01 Z -1.0000 F 100.0000(Penetrate)
G01 X 22.1374 Y 21.0398 Z -1.0000 F 3500.0000
G01 X 22.1473 Y 21.0429 Z -1.0000
G01 X 22.1589 Y 21.0403 Z -1.0000
G01 X 22.1660 Y 21.0338 Z -1.0000
G01 X 22.1649 Y 21.0285 Z -1.0000
G01 X 22.1529 Y 21.0247 Z -1.0000
G01 X 22.1378 Y 21.0282 Z -1.0000
G01 X 22.1343 Y 21.0338 Z -1.0000
G01 X 22.1343 Y 21.0338 Z -1.0000
G00 Z 5.0000

(End cutting path id: path56242)


(Start cutting path id: path56242)
(Change tool to Default tool)

G00 Z 5.0000
G00 X 22.8710 Y 20.1239

G01 Z -1.0000 F 100.0000(Penetrate)
G03 X 22.8994 Y 20.1546 Z -1.0000 I -0.1114 J 0.1317 F 3500.0000
G01 X 22.9047 Y 20.1705 Z -1.0000
G01 X 22.8395 Y 20.2125 Z -1.0000
G03 X 22.7691 Y 20.1073 Z -1.0000 I 0.0516 J -0.1107
G01 X 22.7916 Y 20.0873 Z -1.0000
G03 X 22.8710 Y 20.1239 Z -1.0000 I -0.0265 J 0.1618
G01 X 22.8710 Y 20.1239 Z -1.0000
G00 Z 5.0000

(End cutting path id: path56242)


(Start cutting path id: path56242)
(Change tool to Default tool)

G00 Z 5.0000
G00 X 22.9340 Y 19.6416

G01 Z -1.0000 F 100.0000(Penetrate)
G02 X 22.8725 Y 19.6716 Z -1.0000 I 0.0764 J 0.2343 F 3500.0000
G02 X 22.8077 Y 19.7269 Z -1.0000 I 0.2140 J 0.3169
G03 X 22.7689 Y 19.7581 Z -1.0000 I -0.1309 J -0.1229
G01 X 22.7570 Y 19.7572 Z -1.0000
G01 X 22.7447 Y 19.7510 Z -1.0000
G01 X 22.7385 Y 19.7528 Z -1.0000
G01 X 22.7362 Y 19.7661 Z -1.0000
G01 X 22.7484 Y 19.7742 Z -1.0000
G01 X 22.7521 Y 19.7784 Z -1.0000
G01 X 22.7466 Y 19.7878 Z -1.0000
G02 X 22.7313 Y 19.8031 Z -1.0000 I 0.0503 J 0.0659
G02 X 22.7173 Y 19.8261 Z -1.0000 I 0.0976 J 0.0753
G01 X 22.7107 Y 19.8306 Z -1.0000
G01 X 22.7088 Y 19.8181 Z -1.0000
G01 X 22.7016 Y 19.8157 Z -1.0000
G01 X 22.6946 Y 19.8126 Z -1.0000
G01 X 22.6931 Y 19.7929 Z -1.0000
G02 X 22.6935 Y 19.7691 Z -1.0000 I -0.0661 J -0.0131
G01 X 22.6885 Y 19.7648 Z -1.0000
G01 X 22.6818 Y 19.7683 Z -1.0000
G01 X 22.6783 Y 19.7793 Z -1.0000
G01 X 22.6753 Y 19.7928 Z -1.0000
G03 X 22.6598 Y 19.8196 Z -1.0000 I -0.1490 J -0.0682
G02 X 22.6288 Y 19.9064 Z -1.0000 I 0.1382 J 0.0984
G02 X 22.6470 Y 20.0050 Z -1.0000 I 0.2008 J 0.0138
G03 X 22.6570 Y 20.0327 Z -1.0000 I -0.1545 J 0.0713
G03 X 22.6589 Y 20.0504 Z -1.0000 I -0.0573 J 0.0152
G02 X 22.6670 Y 20.1214 Z -1.0000 I 0.2352 J 0.0093
G02 X 22.6938 Y 20.1785 Z -1.0000 I 0.1756 J -0.0478
G03 X 22.7104 Y 20.2053 Z -1.0000 I -0.2129 J 0.1500
G03 X 22.7181 Y 20.2237 Z -1.0000 I -0.0915 J 0.0491
G01 X 22.7288 Y 20.2386 Z -1.0000
G02 X 22.7669 Y 20.2592 Z -1.0000 I 0.0958 J -0.1318
G03 X 22.8403 Y 20.2934 Z -1.0000 I -0.1932 J 0.5104
G03 X 22.8607 Y 20.3117 Z -1.0000 I -0.0305 J 0.0544
G01 X 22.8789 Y 20.3213 Z -1.0000
G02 X 22.9584 Y 20.3135 Z -1.0000 I 0.0064 J -0.3422
G01 X 22.9799 Y 20.3020 Z -1.0000
G01 X 22.9865 Y 20.2867 Z -1.0000
G03 X 23.0132 Y 20.2188 Z -1.0000 I 0.0996 J -0.0000
G03 X 23.0656 Y 20.2017 Z -1.0000 I 0.0416 J 0.0388
G01 X 23.0785 Y 20.2083 Z -1.0000
G03 X 23.0923 Y 20.2269 Z -1.0000 I -0.0453 J 0.0480
G01 X 23.1025 Y 20.2323 Z -1.0000
G01 X 23.1129 Y 20.2240 Z -1.0000
G02 X 23.1213 Y 20.1986 Z -1.0000 I -0.2860 J -0.1096
G01 X 23.1225 Y 20.1905 Z -1.0000
G01 X 23.1258 Y 20.1848 Z -1.0000
G03 X 23.1474 Y 20.1763 Z -1.0000 I 0.0408 J 0.0716
G02 X 23.1760 Y 20.1614 Z -1.0000 I -0.0154 J -0.0645
G01 X 23.1769 Y 20.1502 Z -1.0000
G01 X 23.1727 Y 20.1391 Z -1.0000
G01 X 23.1764 Y 20.1323 Z -1.0000
G01 X 23.1831 Y 20.1249 Z -1.0000
G01 X 23.1859 Y 20.1124 Z -1.0000
G01 X 23.1768 Y 20.1039 Z -1.0000
G02 X 23.0643 Y 20.1207 Z -1.0000 I 0.0485 J 0.7102
G03 X 22.9691 Y 20.1253 Z -1.0000 I -0.0601 J -0.2591
G03 X 22.8596 Y 20.0935 Z -1.0000 I 0.0503 J -0.3775
G03 X 22.7514 Y 20.0232 Z -1.0000 I 0.1897 J -0.4104
G03 X 22.7325 Y 19.9822 Z -1.0000 I 0.0364 J -0.0416
G02 X 22.7308 Y 19.9692 Z -1.0000 I -0.0527 J 0.0005
G02 X 22.7193 Y 19.9326 Z -1.0000 I -0.4264 J 0.1133
G01 X 22.7223 Y 19.9043 Z -1.0000
G01 X 22.7372 Y 19.9036 Z -1.0000
G03 X 22.7667 Y 19.9459 Z -1.0000 I -0.4720 J 0.3605
G01 X 22.7689 Y 19.9536 Z -1.0000
G01 X 22.7865 Y 19.9913 Z -1.0000
G02 X 22.8897 Y 20.0547 Z -1.0000 I 0.2680 J -0.3200
G02 X 23.0375 Y 20.0830 Z -1.0000 I 0.1381 J -0.3214
G01 X 23.0753 Y 20.0495 Z -1.0000
G01 X 23.0702 Y 20.0368 Z -1.0000
G02 X 23.0394 Y 20.0215 Z -1.0000 I -0.0528 J 0.0674
G02 X 23.0026 Y 20.0188 Z -1.0000 I -0.0254 J 0.0950
G01 X 22.9789 Y 20.0286 Z -1.0000
G03 X 22.9383 Y 20.0410 Z -1.0000 I -0.0364 J -0.0462
G03 X 22.8795 Y 20.0213 Z -1.0000 I 0.0092 J -0.1245
G03 X 22.8506 Y 19.9817 Z -1.0000 I 0.0373 J -0.0576
G03 X 22.8573 Y 19.9395 Z -1.0000 I 0.0503 J -0.0137
G01 X 22.8596 Y 19.9232 Z -1.0000
G01 X 22.8625 Y 19.9124 Z -1.0000
G01 X 22.8721 Y 19.8947 Z -1.0000
G01 X 22.8693 Y 19.8877 Z -1.0000
G01 X 22.8628 Y 19.8799 Z -1.0000
G01 X 22.8596 Y 19.8631 Z -1.0000
G01 X 22.8548 Y 19.8516 Z -1.0000
G01 X 22.8460 Y 19.8498 Z -1.0000
G01 X 22.8366 Y 19.8489 Z -1.0000
G01 X 22.8324 Y 19.8414 Z -1.0000
G01 X 22.8360 Y 19.8303 Z -1.0000
G01 X 22.8460 Y 19.8226 Z -1.0000
G01 X 22.8632 Y 19.7990 Z -1.0000
G01 X 22.8483 Y 19.7825 Z -1.0000
G01 X 22.8574 Y 19.7737 Z -1.0000
G01 X 22.8736 Y 19.7626 Z -1.0000
G01 X 22.8778 Y 19.7518 Z -1.0000
G01 X 22.8822 Y 19.7408 Z -1.0000
G03 X 22.9028 Y 19.7253 Z -1.0000 I 0.0553 J 0.0520
G03 X 22.9286 Y 19.7189 Z -1.0000 I 0.0266 J 0.0517
G03 X 22.9841 Y 19.7242 Z -1.0000 I 0.0035 J 0.2557
G03 X 23.0641 Y 19.7607 Z -1.0000 I -0.0402 J 0.1942
G03 X 23.1088 Y 19.8193 Z -1.0000 I -0.0844 J 0.1107
G02 X 23.1274 Y 19.8588 Z -1.0000 I 0.3674 J -0.1490
G02 X 23.1407 Y 19.8782 Z -1.0000 I 0.0991 J -0.0535
G03 X 23.1546 Y 19.8973 Z -1.0000 I -0.1199 J 0.1019
G03 X 23.1617 Y 19.9122 Z -1.0000 I -0.0656 J 0.0406
G01 X 23.1873 Y 19.9239 Z -1.0000
G01 X 23.2163 Y 19.8906 Z -1.0000
G01 X 23.2166 Y 19.8686 Z -1.0000
G01 X 23.2086 Y 19.8555 Z -1.0000
G01 X 23.1963 Y 19.8265 Z -1.0000
G01 X 23.2127 Y 19.8014 Z -1.0000
G01 X 23.2186 Y 19.7900 Z -1.0000
G01 X 23.2085 Y 19.7684 Z -1.0000
G03 X 23.1889 Y 19.7434 Z -1.0000 I 0.1411 J -0.1307
G03 X 23.1807 Y 19.7262 Z -1.0000 I 0.0581 J -0.0383
G02 X 23.1590 Y 19.6913 Z -1.0000 I -0.0788 J 0.0248
G02 X 23.1007 Y 19.6497 Z -1.0000 I -0.1745 J 0.1826
G02 X 23.0254 Y 19.6294 Z -1.0000 I -0.0840 J 0.1622
G02 X 22.9342 Y 19.6417 Z -1.0000 I -0.0122 J 0.2547
G01 X 22.9340 Y 19.6416 Z -1.0000
G00 Z 5.0000

(End cutting path id: path56242)


(Start cutting path id: path56242)
(Change tool to Default tool)

G00 Z 5.0000
G00 X 23.3308 Y 18.1418

G01 Z -1.0000 F 100.0000(Penetrate)
G01 X 23.3348 Y 18.1512 Z -1.0000 F 3500.0000
G01 X 23.3256 Y 18.1678 Z -1.0000
G03 X 23.2845 Y 18.1901 Z -1.0000 I -0.0640 J -0.0687
G03 X 23.2460 Y 18.1879 Z -1.0000 I -0.0157 J -0.0623
G01 X 23.2301 Y 18.1706 Z -1.0000
G01 X 23.2380 Y 18.1601 Z -1.0000
G01 X 23.2532 Y 18.1576 Z -1.0000
G02 X 23.2765 Y 18.1474 Z -1.0000 I -0.0426 J -0.1292
G03 X 23.3099 Y 18.1369 Z -1.0000 I 0.0423 J 0.0761
G01 X 23.3308 Y 18.1418 Z -1.0000
G01 X 23.3308 Y 18.1418 Z -1.0000
G00 Z 5.0000

(End cutting path id: path56242)


(Start cutting path id: path56242)
(Change tool to Default tool)

G00 Z 5.0000
G00 X 23.8295 Y 18.2247

G01 Z -1.0000 F 100.0000(Penetrate)
G01 X 23.8262 Y 18.2296 Z -1.0000 F 3500.0000
G01 X 23.8113 Y 18.2328 Z -1.0000
G01 X 23.7972 Y 18.2249 Z -1.0000
G01 X 23.7986 Y 18.2122 Z -1.0000
G01 X 23.8184 Y 18.2082 Z -1.0000
G01 X 23.8295 Y 18.2247 Z -1.0000
G01 X 23.8295 Y 18.2247 Z -1.0000
G00 Z 5.0000

(End cutting path id: path56242)


(Start cutting path id: path56242)
(Change tool to Default tool)

G00 Z 5.0000
G00 X 24.0932 Y 18.1758

G01 Z -1.0000 F 100.0000(Penetrate)
G03 X 24.1157 Y 18.1935 Z -1.0000 I -0.0556 J 0.0935 F 3500.0000
G01 X 24.1196 Y 18.2030 Z -1.0000
G01 X 24.1111 Y 18.2124 Z -1.0000
G01 X 24.0969 Y 18.2055 Z -1.0000
G01 X 24.0897 Y 18.1993 Z -1.0000
G01 X 24.0760 Y 18.1963 Z -1.0000
G03 X 24.0613 Y 18.1940 Z -1.0000 I 0.0005 J -0.0502
G03 X 24.0470 Y 18.1872 Z -1.0000 I 0.0174 J -0.0552
G01 X 24.0422 Y 18.1783 Z -1.0000
G01 X 24.0470 Y 18.1694 Z -1.0000
G01 X 24.0640 Y 18.1656 Z -1.0000
G03 X 24.0932 Y 18.1757 Z -1.0000 I -0.0106 J 0.0777
G01 X 24.0932 Y 18.1758 Z -1.0000
G00 Z 5.0000

(End cutting path id: path56242)


(Start cutting path id: path56242)
(Change tool to Default tool)

G00 Z 5.0000
G00 X 24.3371 Y 18.5500

G01 Z -1.0000 F 100.0000(Penetrate)
G01 X 24.3477 Y 18.5636 Z -1.0000 F 3500.0000
G01 X 24.3449 Y 18.5679 Z -1.0000
G01 X 24.3312 Y 18.5648 Z -1.0000
G03 X 24.3087 Y 18.5503 Z -1.0000 I 0.0482 J -0.0993
G01 X 24.3118 Y 18.5414 Z -1.0000
G01 X 24.3371 Y 18.5500 Z -1.0000
G01 X 24.3371 Y 18.5500 Z -1.0000
G00 Z 5.0000

(End cutting path id: path56242)


(Start cutting path id: path56242)
(Change tool to Default tool)

G00 Z 5.0000
G00 X 24.8374 Y 18.0956

G01 Z -1.0000 F 100.0000(Penetrate)
G03 X 24.8831 Y 18.1291 Z -1.0000 I -0.0609 J 0.1312 F 3500.0000
G01 X 24.8775 Y 18.1394 Z -1.0000
G03 X 24.8069 Y 18.1139 Z -1.0000 I 0.0329 J -0.2011
G03 X 24.7712 Y 18.0767 Z -1.0000 I 0.0485 J -0.0822
G01 X 24.7690 Y 18.0628 Z -1.0000
G02 X 24.7769 Y 18.0670 Z -1.0000 I 0.0503 J -0.0845
G02 X 24.8373 Y 18.0956 Z -1.0000 I 2.5388 J -5.3025
G01 X 24.8374 Y 18.0956 Z -1.0000
G00 Z 5.0000

(End cutting path id: path56242)


(Start cutting path id: path56242)
(Change tool to Default tool)

G00 Z 5.0000
G00 X 25.0425 Y 18.1681

G01 Z -1.0000 F 100.0000(Penetrate)
G01 X 25.0268 Y 18.1763 Z -1.0000 F 3500.0000
G03 X 25.0011 Y 18.1738 Z -1.0000 I -0.0029 J -0.1007
G01 X 24.9940 Y 18.1686 Z -1.0000
G01 X 25.0008 Y 18.1562 Z -1.0000
G03 X 25.0425 Y 18.1680 Z -1.0000 I 0.0010 J 0.0759
G01 X 25.0425 Y 18.1681 Z -1.0000
G00 Z 5.0000

(End cutting path id: path56242)


(Start cutting path id: path56242)
(Change tool to Default tool)

G00 Z 5.0000
G00 X 25.1285 Y 18.0446

G01 Z -1.0000 F 100.0000(Penetrate)
G03 X 25.1542 Y 18.0681 Z -1.0000 I -0.0244 J 0.0526 F 3500.0000
G01 X 25.1482 Y 18.0786 Z -1.0000
G03 X 25.0902 Y 18.0632 Z -1.0000 I -0.0000 J -0.1171
G01 X 25.0849 Y 18.0426 Z -1.0000
G01 X 25.0961 Y 18.0367 Z -1.0000
G03 X 25.1285 Y 18.0447 Z -1.0000 I -0.0042 J 0.0865
G01 X 25.1285 Y 18.0446 Z -1.0000
G00 Z 5.0000

(End cutting path id: path56242)


(Start cutting path id: path56242)
(Change tool to Default tool)

G00 Z 5.0000
G00 X 25.3379 Y 18.3989

G01 Z -1.0000 F 100.0000(Penetrate)
G01 X 25.3343 Y 18.4027 Z -1.0000 F 3500.0000
G01 X 25.3243 Y 18.3959 Z -1.0000
G01 X 25.3186 Y 18.3816 Z -1.0000
G01 X 25.3222 Y 18.3778 Z -1.0000
G02 X 25.3294 Y 18.3903 Z -1.0000 I 0.0566 J -0.0241
G01 X 25.3379 Y 18.3989 Z -1.0000
G01 X 25.3379 Y 18.3989 Z -1.0000
G00 Z 5.0000

(End cutting path id: path56242)


(Start cutting path id: path56242)
(Change tool to Default tool)

G00 Z 5.0000
G00 X 25.2136 Y 18.4733

G01 Z -1.0000 F 100.0000(Penetrate)
G03 X 25.2893 Y 18.5164 Z -1.0000 I -0.1753 J 0.3963 F 3500.0000
G01 X 25.2980 Y 18.5333 Z -1.0000
G01 X 25.2886 Y 18.5402 Z -1.0000
G03 X 25.1717 Y 18.4929 Z -1.0000 I 0.2569 J -0.8035
G01 X 25.1719 Y 18.4737 Z -1.0000
G03 X 25.2136 Y 18.4733 Z -1.0000 I 0.0213 J 0.0458
G01 X 25.2136 Y 18.4733 Z -1.0000
G00 Z 5.0000

(End cutting path id: path56242)


(Start cutting path id: path56242)
(Change tool to Default tool)

G00 Z 5.0000
G00 X 25.3217 Y 19.2421

G01 Z -1.0000 F 100.0000(Penetrate)
G03 X 25.3799 Y 19.2551 Z -1.0000 I -0.0142 J 0.2007 F 3500.0000
G01 X 25.3887 Y 19.2679 Z -1.0000
G01 X 25.3844 Y 19.2725 Z -1.0000
G03 X 25.3502 Y 19.2709 Z -1.0000 I -0.0106 J -0.1361
G02 X 25.3115 Y 19.2656 Z -1.0000 I -0.0941 J 0.5389
G02 X 25.2890 Y 19.2646 Z -1.0000 I -0.0195 J 0.1910
G02 X 25.1792 Y 19.2758 Z -1.0000 I 0.0114 J 0.6524
G02 X 25.1098 Y 19.2984 Z -1.0000 I 0.0530 J 0.2804
G03 X 25.0789 Y 19.3106 Z -1.0000 I -0.1042 J -0.2196
G03 X 25.0483 Y 19.3179 Z -1.0000 I -0.0653 J -0.2066
G02 X 25.0200 Y 19.3255 Z -1.0000 I 0.0230 J 0.1410
G01 X 25.0170 Y 19.3299 Z -1.0000
G01 X 25.0138 Y 19.3336 Z -1.0000
G03 X 24.9672 Y 19.3374 Z -1.0000 I -0.0503 J -0.3328
G03 X 24.9208 Y 19.3344 Z -1.0000 I -0.0036 J -0.3011
G01 X 24.9173 Y 19.3303 Z -1.0000
G01 X 24.9270 Y 19.3127 Z -1.0000
G03 X 24.9840 Y 19.2883 Z -1.0000 I 0.1048 J 0.1665
G02 X 25.0055 Y 19.2799 Z -1.0000 I -0.0220 J -0.0878
G01 X 25.0178 Y 19.2698 Z -1.0000
G01 X 25.0304 Y 19.2615 Z -1.0000
G03 X 25.0612 Y 19.2569 Z -1.0000 I 0.0313 J 0.1060
G02 X 25.0936 Y 19.2539 Z -1.0000 I -0.0008 J -0.1855
G02 X 25.1349 Y 19.2435 Z -1.0000 I -0.0555 J -0.3051
G03 X 25.1762 Y 19.2348 Z -1.0000 I 0.0609 J 0.1872
G03 X 25.2255 Y 19.2345 Z -1.0000 I 0.0264 J 0.2637
G02 X 25.2754 Y 19.2386 Z -1.0000 I 0.4926 J -5.6282
G02 X 25.3217 Y 19.2421 Z -1.0000 I 0.4582 J -5.8283
G01 X 25.3217 Y 19.2421 Z -1.0000
G00 Z 5.0000

(End cutting path id: path56242)


(Start cutting path id: path56242)
(Change tool to Default tool)

G00 Z 5.0000
G00 X 25.5263 Y 19.2898

G01 Z -1.0000 F 100.0000(Penetrate)
G03 X 25.5848 Y 19.3154 Z -1.0000 I -0.2140 J 0.5698 F 3500.0000
G01 X 25.5976 Y 19.3255 Z -1.0000
G01 X 25.6090 Y 19.3344 Z -1.0000
G01 X 25.6156 Y 19.3340 Z -1.0000
G01 X 25.6578 Y 19.3386 Z -1.0000
G03 X 25.7854 Y 19.4973 Z -1.0000 I -0.5498 J 0.5725
G03 X 25.8360 Y 19.5951 Z -1.0000 I -0.6646 J 0.4059
G01 X 25.8324 Y 19.6064 Z -1.0000
G01 X 25.8142 Y 19.6039 Z -1.0000
G03 X 25.7745 Y 19.5430 Z -1.0000 I 0.1667 J -0.1523
G02 X 25.7273 Y 19.4709 Z -1.0000 I -0.2446 J 0.1084
G02 X 25.6191 Y 19.3731 Z -1.0000 I -0.5656 J 0.5171
G02 X 25.4945 Y 19.3000 Z -1.0000 I -0.3962 J 0.5327
G02 X 25.4211 Y 19.2843 Z -1.0000 I -0.0734 J 0.1636
G01 X 25.4030 Y 19.2791 Z -1.0000
G01 X 25.3978 Y 19.2697 Z -1.0000
G01 X 25.4100 Y 19.2593 Z -1.0000
G03 X 25.5263 Y 19.2899 Z -1.0000 I -0.0916 J 0.5842
G01 X 25.5263 Y 19.2898 Z -1.0000
G00 Z 5.0000

(End cutting path id: path56242)


(Start cutting path id: path56242)
(Change tool to Default tool)

G00 Z 5.0000
G00 X 25.3980 Y 19.5650

G01 Z -1.0000 F 100.0000(Penetrate)
G03 X 25.5196 Y 19.5856 Z -1.0000 I -0.3867 J 2.6503 F 3500.0000
G03 X 25.6335 Y 19.6106 Z -1.0000 I -0.4455 J 2.3048
G02 X 25.7469 Y 19.6379 Z -1.0000 I 3.2908 J -13.4216
G02 X 25.7740 Y 19.6437 Z -1.0000 I 0.1771 J -0.7496
G03 X 25.8621 Y 19.6777 Z -1.0000 I -0.0535 J 0.2699
G01 X 25.8782 Y 19.7063 Z -1.0000
G01 X 25.8814 Y 19.7163 Z -1.0000
G01 X 25.8873 Y 19.7195 Z -1.0000
G01 X 25.8939 Y 19.7124 Z -1.0000
G01 X 25.8855 Y 19.6941 Z -1.0000
G01 X 25.8805 Y 19.6832 Z -1.0000
G01 X 25.8839 Y 19.6739 Z -1.0000
G01 X 25.9053 Y 19.6636 Z -1.0000
G03 X 26.1593 Y 19.6421 Z -1.0000 I 0.4771 J 4.1239
G03 X 26.3177 Y 19.6514 Z -1.0000 I 0.0381 J 0.7045
G03 X 26.3671 Y 19.6780 Z -1.0000 I -0.0151 J 0.0872
G01 X 26.3793 Y 19.7037 Z -1.0000
G03 X 26.3878 Y 19.8390 Z -1.0000 I -1.0443 J 0.1342
G03 X 26.3825 Y 20.0391 Z -1.0000 I -3.9492 J -0.0046
G03 X 26.3734 Y 20.1183 Z -1.0000 I -0.6310 J -0.0328
G02 X 26.3697 Y 20.1411 Z -1.0000 I 0.5455 J 0.1007
G02 X 26.3686 Y 20.1514 Z -1.0000 I 0.1448 J 0.0206
G01 X 26.3648 Y 20.1595 Z -1.0000
G01 X 26.3520 Y 20.1679 Z -1.0000
G03 X 26.2680 Y 20.1884 Z -1.0000 I -0.1197 J -0.3079
G03 X 26.0595 Y 20.1999 Z -1.0000 I -0.2111 J -1.9394
G02 X 26.0010 Y 20.2029 Z -1.0000 I 0.0008 J 0.5860
G02 X 25.9689 Y 20.2091 Z -1.0000 I 0.0186 J 0.1826
G03 X 25.9374 Y 20.2137 Z -1.0000 I -0.0329 J -0.1131
G03 X 25.9146 Y 20.2098 Z -1.0000 I -0.0008 J -0.0640
G02 X 25.8482 Y 20.2061 Z -1.0000 I -0.0393 J 0.1063
G02 X 25.7864 Y 20.2414 Z -1.0000 I 0.0310 J 0.1260
G03 X 25.7363 Y 20.2893 Z -1.0000 I -0.7658 J -0.7484
G03 X 25.7088 Y 20.3110 Z -1.0000 I -0.1828 J -0.2034
G02 X 25.6730 Y 20.3506 Z -1.0000 I 0.0662 J 0.0960
G02 X 25.6607 Y 20.3981 Z -1.0000 I 0.0859 J 0.0474
G01 X 25.6552 Y 20.4208 Z -1.0000
G03 X 25.6353 Y 20.4475 Z -1.0000 I -0.0901 J -0.0464
G03 X 25.6064 Y 20.4631 Z -1.0000 I -0.0428 J -0.0446
G03 X 25.5288 Y 20.4719 Z -1.0000 I -0.0779 J -0.3396
G02 X 25.4488 Y 20.4764 Z -1.0000 I 0.0005 J 0.7265
G02 X 25.4250 Y 20.4835 Z -1.0000 I 0.0076 J 0.0686
G03 X 25.2376 Y 20.5315 Z -1.0000 I -0.2006 J -0.3939
G03 X 25.1244 Y 20.4925 Z -1.0000 I -0.0051 J -0.1693
G01 X 25.1099 Y 20.4848 Z -1.0000
G02 X 25.0500 Y 20.4701 Z -1.0000 I -0.1674 J 0.5521
G03 X 24.9907 Y 20.4544 Z -1.0000 I 0.0808 J -0.4258
G01 X 24.9728 Y 20.4437 Z -1.0000
G02 X 24.9562 Y 20.4301 Z -1.0000 I -0.1112 J 0.1194
G02 X 24.9372 Y 20.4184 Z -1.0000 I -0.1026 J 0.1443
G01 X 24.9163 Y 20.3885 Z -1.0000
G01 X 24.9304 Y 20.3721 Z -1.0000
G01 X 24.9420 Y 20.3748 Z -1.0000
G01 X 24.9492 Y 20.3813 Z -1.0000
G01 X 24.9559 Y 20.3860 Z -1.0000
G01 X 24.9649 Y 20.3843 Z -1.0000
G01 X 24.9638 Y 20.3699 Z -1.0000
G02 X 24.9128 Y 20.3621 Z -1.0000 I -0.0408 J 0.0954
G01 X 24.9066 Y 20.3595 Z -1.0000
G01 X 24.9072 Y 20.3554 Z -1.0000
G01 X 24.9094 Y 20.3475 Z -1.0000
G01 X 24.8981 Y 20.3356 Z -1.0000
G03 X 24.8774 Y 20.3230 Z -1.0000 I 0.0843 J -0.1618
G03 X 24.8613 Y 20.3097 Z -1.0000 I 0.0787 J -0.1118
G02 X 24.8462 Y 20.2952 Z -1.0000 I -2.7916 J 2.8963
G02 X 24.8079 Y 20.2588 Z -1.0000 I -16.1711 J 16.9537
G03 X 24.7725 Y 20.2203 Z -1.0000 I 0.2674 J -0.2818
G03 X 24.7300 Y 20.1618 Z -1.0000 I 0.5761 J -0.4626
G02 X 24.6794 Y 20.0969 Z -1.0000 I -0.4108 J 0.2685
G01 X 24.6725 Y 20.0996 Z -1.0000
G01 X 24.6692 Y 20.1059 Z -1.0000
G01 X 24.6582 Y 20.1092 Z -1.0000
G01 X 24.6490 Y 20.1189 Z -1.0000
G01 X 24.6592 Y 20.1297 Z -1.0000
G01 X 24.6831 Y 20.1445 Z -1.0000
G03 X 24.7012 Y 20.1949 Z -1.0000 I -0.0996 J 0.0643
G02 X 24.7088 Y 20.2177 Z -1.0000 I 0.0592 J -0.0071
G01 X 24.7220 Y 20.2307 Z -1.0000
G03 X 24.7392 Y 20.2415 Z -1.0000 I -0.0945 J 0.1683
G03 X 24.7521 Y 20.2520 Z -1.0000 I -0.0770 J 0.1087
G02 X 24.7653 Y 20.2613 Z -1.0000 I 0.0433 J -0.0475
G01 X 24.7736 Y 20.2633 Z -1.0000
G01 X 24.7705 Y 20.2755 Z -1.0000
G01 X 24.7561 Y 20.2827 Z -1.0000
G03 X 24.6452 Y 20.2940 Z -1.0000 I -0.1789 J -1.2114
G02 X 24.5323 Y 20.3022 Z -1.0000 I 0.1960 J 3.4832
G02 X 24.4822 Y 20.3086 Z -1.0000 I 0.0590 J 0.6635
G03 X 24.4321 Y 20.3150 Z -1.0000 I -0.1200 J -0.7310
G03 X 24.2918 Y 20.3265 Z -1.0000 I -0.5179 J -5.4632
G02 X 24.1513 Y 20.3364 Z -1.0000 I 2.9876 J 43.5633
G02 X 24.0380 Y 20.3447 Z -1.0000 I 2.7768 J 38.6621
G03 X 23.9246 Y 20.3524 Z -1.0000 I -0.6198 J -8.2189
G03 X 23.8118 Y 20.3587 Z -1.0000 I -0.5397 J -8.7656
G02 X 23.6996 Y 20.3661 Z -1.0000 I 0.1497 J 3.0968
G01 X 23.6916 Y 20.3687 Z -1.0000
G01 X 23.6836 Y 20.3713 Z -1.0000
G03 X 23.5189 Y 20.3812 Z -1.0000 I -0.5058 J -7.0088
G02 X 23.3536 Y 20.3905 Z -1.0000 I 0.5366 J 11.0918
G02 X 23.2493 Y 20.3984 Z -1.0000 I 0.2727 J 4.3054
G03 X 23.0113 Y 20.4170 Z -1.0000 I -1.1073 J -12.6146
G03 X 22.7749 Y 20.4310 Z -1.0000 I -0.8611 J -12.5141
G02 X 22.6864 Y 20.4377 Z -1.0000 I 0.0824 J 1.6844
G01 X 22.6769 Y 20.4409 Z -1.0000
G01 X 22.6675 Y 20.4439 Z -1.0000
G03 X 22.5259 Y 20.4498 Z -1.0000 I -0.2414 J -4.1033
G02 X 22.3837 Y 20.4549 Z -1.0000 I 0.1508 J 6.2087
G02 X 22.3564 Y 20.4578 Z -1.0000 I 0.0110 J 0.2321
G03 X 22.3046 Y 20.4645 Z -1.0000 I -0.1193 J -0.7222
G03 X 21.8536 Y 20.5044 Z -1.0000 I -4.8713 J -52.5175
G02 X 21.7904 Y 20.5193 Z -1.0000 I 0.0183 J 0.2190
G02 X 21.7539 Y 20.5442 Z -1.0000 I 0.0378 J 0.0947
G03 X 21.7164 Y 20.5671 Z -1.0000 I -0.0606 J -0.0569
G03 X 21.5994 Y 20.5888 Z -1.0000 I -0.1687 J -0.5844
G03 X 21.4770 Y 20.5983 Z -1.0000 I -0.7285 J -8.6028
G03 X 21.2640 Y 20.6123 Z -1.0000 I -1.6706 J -23.7393
G02 X 21.0511 Y 20.6265 Z -1.0000 I 1.2735 J 20.7241
G02 X 21.0147 Y 20.6302 Z -1.0000 I 0.0430 J 0.5985
G03 X 20.9784 Y 20.6341 Z -1.0000 I -0.0838 J -0.6186
G03 X 20.8334 Y 20.6442 Z -1.0000 I -0.8545 J -11.2207
G02 X 20.6884 Y 20.6537 Z -1.0000 I 1.5530 J 24.7764
G02 X 20.4980 Y 20.6671 Z -1.0000 I 3.0424 J 44.3765
G03 X 20.1540 Y 20.6918 Z -1.0000 I -9.7510 J -133.7820
G03 X 19.9224 Y 20.7076 Z -1.0000 I -4.2668 J -60.6926
G02 X 19.7909 Y 20.7166 Z -1.0000 I 1.9042 J 28.6818
G02 X 19.6685 Y 20.7256 Z -1.0000 I 1.8303 J 25.7808
G03 X 19.5461 Y 20.7341 Z -1.0000 I -0.7045 J -9.2977
G03 X 19.4464 Y 20.7395 Z -1.0000 I -0.3894 J -6.2259
G02 X 19.3468 Y 20.7454 Z -1.0000 I 0.1637 J 3.5926
G02 X 19.2651 Y 20.7527 Z -1.0000 I 0.1907 J 2.5964
G03 X 18.9969 Y 20.7706 Z -1.0000 I -0.3657 J -3.4707
G03 X 18.9261 Y 20.7622 Z -1.0000 I -0.0069 J -0.2461
G03 X 18.8927 Y 20.7500 Z -1.0000 I 0.0508 J -0.1903
G03 X 18.8574 Y 20.7298 Z -1.0000 I 0.1127 J -0.2384
G02 X 18.8206 Y 20.7170 Z -1.0000 I -0.0423 J 0.0623
G02 X 18.6726 Y 20.7163 Z -1.0000 I -0.0792 J 1.0847
G02 X 18.5218 Y 20.7266 Z -1.0000 I 1.1867 J 18.5755
G02 X 18.4130 Y 20.7351 Z -1.0000 I 0.6300 J 8.7445
G03 X 18.3041 Y 20.7436 Z -1.0000 I -0.6898 J -8.0920
G03 X 18.0322 Y 20.7625 Z -1.0000 I -4.0299 J -56.1923
G02 X 17.1892 Y 20.8220 Z -1.0000 I 7.5221 J 112.5188
G02 X 17.1302 Y 20.8296 Z -1.0000 I 0.0414 J 0.5565
G03 X 17.1075 Y 20.8326 Z -1.0000 I -0.0407 J -0.2204
G03 X 17.0079 Y 20.8395 Z -1.0000 I -0.3683 J -4.5995
G02 X 16.9086 Y 20.8465 Z -1.0000 I 0.2352 J 4.0300
G01 X 16.9033 Y 20.8483 Z -1.0000
G01 X 16.8980 Y 20.8499 Z -1.0000
G03 X 16.8217 Y 20.8530 Z -1.0000 I -0.1302 J -2.2703
G02 X 16.7451 Y 20.8566 Z -1.0000 I 0.0325 J 1.4900
G02 X 16.6951 Y 20.8623 Z -1.0000 I 0.0468 J 0.6379
G03 X 16.6451 Y 20.8684 Z -1.0000 I -0.1254 J -0.8189
G03 X 16.5591 Y 20.8746 Z -1.0000 I -0.2123 J -2.3223
G02 X 16.1741 Y 20.8970 Z -1.0000 I 3.4411 J 62.5946
G02 X 16.1013 Y 20.9026 Z -1.0000 I 0.1373 J 2.2451
G03 X 15.9791 Y 20.8925 Z -1.0000 I -0.0328 J -0.3480
G01 X 15.9533 Y 20.8635 Z -1.0000
G03 X 15.9542 Y 20.8437 Z -1.0000 I 0.0543 J -0.0076
G01 X 15.9611 Y 20.8296 Z -1.0000
G01 X 15.9675 Y 20.8157 Z -1.0000
G01 X 15.9667 Y 20.7961 Z -1.0000
G03 X 15.9665 Y 20.7651 Z -1.0000 I 0.0636 J -0.0160
G01 X 15.9761 Y 20.7563 Z -1.0000
G01 X 16.0040 Y 20.7409 Z -1.0000
G01 X 16.0152 Y 20.7109 Z -1.0000
G01 X 16.0120 Y 20.7013 Z -1.0000
G02 X 15.9971 Y 20.6869 Z -1.0000 I -0.0522 J 0.0390
G01 X 15.9848 Y 20.6738 Z -1.0000
G01 X 15.9855 Y 20.6678 Z -1.0000
G01 X 15.9866 Y 20.6619 Z -1.0000
G01 X 15.9792 Y 20.6534 Z -1.0000
G01 X 15.9737 Y 20.6443 Z -1.0000
G01 X 15.9775 Y 20.6322 Z -1.0000
G01 X 15.9849 Y 20.6174 Z -1.0000
G02 X 15.9882 Y 20.5884 Z -1.0000 I -0.1121 J -0.0274
G03 X 15.9881 Y 20.5580 Z -1.0000 I 1.3935 J -0.0200
G03 X 15.9885 Y 20.5444 Z -1.0000 I 0.2790 J 0.0021
G02 X 15.9813 Y 20.4876 Z -1.0000 I -0.1586 J -0.0088
G02 X 15.9446 Y 20.4064 Z -1.0000 I -0.3642 J 0.1156
G03 X 15.9289 Y 20.3759 Z -1.0000 I 0.2274 J -0.1365
G03 X 15.9210 Y 20.3521 Z -1.0000 I 0.1280 J -0.0558
G02 X 15.9113 Y 20.3304 Z -1.0000 I -0.0620 J 0.0146
G01 X 15.8971 Y 20.3177 Z -1.0000
G01 X 15.8949 Y 20.2934 Z -1.0000
G03 X 15.9743 Y 20.2565 Z -1.0000 I 0.1166 J 0.1469
G02 X 16.0191 Y 20.2453 Z -1.0000 I -0.1114 J -0.5444
G02 X 16.0862 Y 20.2236 Z -1.0000 I -0.3515 J -1.2005
G03 X 16.1533 Y 20.2027 Z -1.0000 I 0.3050 J 0.8586
G03 X 16.1737 Y 20.2000 Z -1.0000 I 0.0204 J 0.0753
G02 X 16.2144 Y 20.1970 Z -1.0000 I -0.0000 J -0.2872
G02 X 16.5500 Y 20.1460 Z -1.0000 I -2.8071 J -19.5625
G03 X 16.6090 Y 20.1372 Z -1.0000 I 0.3772 J 2.3510
G03 X 16.7539 Y 20.1185 Z -1.0000 I 1.8075 J 13.4057
G02 X 16.8988 Y 20.0994 Z -1.0000 I -1.1405 J -9.1905
G02 X 17.0123 Y 20.0823 Z -1.0000 I -0.7718 J -5.5071
G03 X 17.2305 Y 20.0596 Z -1.0000 I 0.3093 J 1.9189
G03 X 17.2775 Y 20.0698 Z -1.0000 I 0.0044 J 0.0933
G01 X 17.3117 Y 20.0727 Z -1.0000
G02 X 17.3607 Y 20.0435 Z -1.0000 I -0.0379 J -0.1194
G03 X 17.5041 Y 19.9745 Z -1.0000 I 0.1760 J 0.1824
G03 X 17.6749 Y 20.0027 Z -1.0000 I 0.0386 J 0.2973
G03 X 17.7801 Y 20.0776 Z -1.0000 I -0.1768 J 0.3600
G03 X 17.8010 Y 20.1275 Z -1.0000 I -0.0494 J 0.0499
G02 X 17.8043 Y 20.1505 Z -1.0000 I 0.0805 J 0.0000
G02 X 17.8191 Y 20.1887 Z -1.0000 I 0.2470 J -0.0734
G03 X 17.8350 Y 20.2268 Z -1.0000 I -0.3397 J 0.1646
G01 X 17.8372 Y 20.2396 Z -1.0000
G01 X 17.8404 Y 20.2508 Z -1.0000
G01 X 17.8486 Y 20.2581 Z -1.0000
G01 X 17.8519 Y 20.2634 Z -1.0000
G01 X 17.8486 Y 20.2687 Z -1.0000
G01 X 17.8411 Y 20.2764 Z -1.0000
G01 X 17.8379 Y 20.2936 Z -1.0000
G01 X 17.8414 Y 20.2978 Z -1.0000
G01 X 17.8463 Y 20.2951 Z -1.0000
G01 X 17.8508 Y 20.2940 Z -1.0000
G01 X 17.8547 Y 20.3019 Z -1.0000
G01 X 17.8647 Y 20.3124 Z -1.0000
G01 X 17.8879 Y 20.3042 Z -1.0000
G02 X 17.9005 Y 20.2862 Z -1.0000 I -0.0353 J -0.0381
G01 X 17.8974 Y 20.2816 Z -1.0000
G01 X 17.8857 Y 20.2783 Z -1.0000
G01 X 17.8825 Y 20.2725 Z -1.0000
G01 X 17.8861 Y 20.2671 Z -1.0000
G03 X 17.9051 Y 20.2634 Z -1.0000 I 0.0190 J 0.0473
G01 X 17.9214 Y 20.2537 Z -1.0000
G01 X 17.9178 Y 20.2401 Z -1.0000
G01 X 17.9124 Y 20.2320 Z -1.0000
G03 X 17.9130 Y 20.2081 Z -1.0000 I 0.0699 J -0.0102
G01 X 17.9115 Y 20.1853 Z -1.0000
G01 X 17.9011 Y 20.1730 Z -1.0000
G03 X 17.8865 Y 20.1613 Z -1.0000 I 0.0241 J -0.0453
G03 X 17.8635 Y 20.1298 Z -1.0000 I 0.1706 J -0.1482
G02 X 17.8377 Y 20.0917 Z -1.0000 I -0.3576 J 0.2154
G02 X 17.8005 Y 20.0473 Z -1.0000 I -0.5272 J 0.4027
G01 X 17.7843 Y 20.0238 Z -1.0000
G01 X 17.7877 Y 20.0223 Z -1.0000
G03 X 17.8679 Y 20.0104 Z -1.0000 I 0.5751 J 3.6045
G02 X 17.9478 Y 19.9960 Z -1.0000 I -0.1244 J -0.9200
G02 X 18.0175 Y 19.9767 Z -1.0000 I -0.1648 J -0.7304
G03 X 18.1069 Y 19.9550 Z -1.0000 I 0.1799 J 0.5456
G03 X 18.4400 Y 19.9093 Z -1.0000 I 1.2128 J 7.5989
G02 X 18.7628 Y 19.8634 Z -1.0000 I -0.6972 J -6.0609
G02 X 18.8248 Y 19.8440 Z -1.0000 I -0.0405 J -0.2387
G03 X 18.8664 Y 19.8303 Z -1.0000 I 0.0780 J 0.1671
G03 X 18.9562 Y 19.8176 Z -1.0000 I 0.1555 J 0.7732
G02 X 19.2335 Y 19.7895 Z -1.0000 I -0.6612 J -7.9070
G02 X 19.2695 Y 19.7803 Z -1.0000 I -0.0166 J -0.1395
G03 X 19.2928 Y 19.7744 Z -1.0000 I 0.0329 J 0.0820
G03 X 19.3782 Y 19.7685 Z -1.0000 I 0.1191 J 1.0932
G02 X 19.8194 Y 19.7459 Z -1.0000 I -0.3348 J -10.8794
G02 X 19.8532 Y 19.7345 Z -1.0000 I -0.0050 J -0.0706
G03 X 19.8776 Y 19.7257 Z -1.0000 I 0.0308 J 0.0470
G03 X 19.9152 Y 19.7274 Z -1.0000 I 0.0134 J 0.1168
G02 X 19.9991 Y 19.7350 Z -1.0000 I 0.0743 J -0.3529
G02 X 20.1714 Y 19.7206 Z -1.0000 I -0.0407 J -1.5237
G03 X 20.2348 Y 19.7145 Z -1.0000 I 0.1032 J 0.7348
G03 X 20.2539 Y 19.7162 Z -1.0000 I 0.0036 J 0.0669
G02 X 20.2732 Y 19.7181 Z -1.0000 I 0.0165 J -0.0689
G02 X 20.3944 Y 19.7107 Z -1.0000 I -0.1106 J -2.8166
G03 X 20.5160 Y 19.7010 Z -1.0000 I 1.8424 J 22.3834
G03 X 20.6383 Y 19.6919 Z -1.0000 I 1.9125 J 24.8864
G02 X 20.8928 Y 19.6652 Z -1.0000 I -0.2784 J -3.8696
G01 X 20.9012 Y 19.6555 Z -1.0000
G01 X 20.9048 Y 19.6518 Z -1.0000
G03 X 20.9851 Y 19.6521 Z -1.0000 I 0.0366 J 0.9161
G01 X 21.0576 Y 19.6508 Z -1.0000
G01 X 21.0587 Y 19.6422 Z -1.0000
G03 X 21.1346 Y 19.6374 Z -1.0000 I 0.0601 J 0.3445
G02 X 21.3055 Y 19.6404 Z -1.0000 I 0.1415 J -3.1161
G02 X 21.5010 Y 19.6339 Z -1.0000 I -0.0381 J -4.0494
G03 X 21.6315 Y 19.6373 Z -1.0000 I 0.0445 J 0.7789
G03 X 21.6833 Y 19.6540 Z -1.0000 I -0.0150 J 0.1352
G02 X 21.7338 Y 19.6737 Z -1.0000 I 0.0936 J -0.1659
G02 X 21.7679 Y 19.6737 Z -1.0000 I 0.0171 J -0.0736
G03 X 21.8036 Y 19.6689 Z -1.0000 I 0.0435 J 0.1876
G03 X 22.2429 Y 19.6546 Z -1.0000 I 1.1666 J 29.0086
G03 X 22.6811 Y 19.6502 Z -1.0000 I 0.3660 J 14.6137
G03 X 22.7097 Y 19.6569 Z -1.0000 I -0.0003 J 0.0659
G02 X 22.7369 Y 19.6634 Z -1.0000 I 0.0284 J -0.0582
G02 X 22.7619 Y 19.6579 Z -1.0000 I 0.0010 J -0.0541
G02 X 22.7837 Y 19.6437 Z -1.0000 I -0.0504 J -0.1017
G01 X 22.7868 Y 19.6372 Z -1.0000
G01 X 22.7899 Y 19.6320 Z -1.0000
G01 X 22.8027 Y 19.6288 Z -1.0000
G01 X 22.8172 Y 19.6250 Z -1.0000
G02 X 22.8435 Y 19.6058 Z -1.0000 I -0.0688 J -0.1217
G01 X 22.8684 Y 19.5868 Z -1.0000
G01 X 22.9145 Y 19.5787 Z -1.0000
G03 X 22.9610 Y 19.5720 Z -1.0000 I 0.0522 J 0.1972
G03 X 23.0165 Y 19.5758 Z -1.0000 I 0.0082 J 0.2871
G03 X 23.1465 Y 19.6125 Z -1.0000 I -0.0989 J 0.5996
G03 X 23.1751 Y 19.6401 Z -1.0000 I -0.0200 J 0.0493
G01 X 23.1794 Y 19.6449 Z -1.0000
G01 X 23.1870 Y 19.6469 Z -1.0000
G01 X 23.1909 Y 19.6442 Z -1.0000
G01 X 23.1902 Y 19.6378 Z -1.0000
G01 X 23.1938 Y 19.6321 Z -1.0000
G03 X 23.2283 Y 19.6424 Z -1.0000 I -0.0126 J 0.1046
G02 X 23.3193 Y 19.6637 Z -1.0000 I 0.0901 J -0.1805
G02 X 23.4802 Y 19.6413 Z -1.0000 I -0.0027 J -0.6112
G03 X 23.5356 Y 19.6329 Z -1.0000 I 0.0627 J 0.2253
G03 X 24.0695 Y 19.6228 Z -1.0000 I 0.6680 J 21.2570
G03 X 24.6729 Y 19.6409 Z -1.0000 I 0.0527 J 8.3152
G01 X 24.6961 Y 19.6644 Z -1.0000
G02 X 24.7007 Y 19.6832 Z -1.0000 I 0.0512 J -0.0026
G01 X 24.7097 Y 19.6939 Z -1.0000
G01 X 24.7038 Y 19.6974 Z -1.0000
G01 X 24.6914 Y 19.7010 Z -1.0000
G01 X 24.6831 Y 19.7205 Z -1.0000
G02 X 24.6841 Y 19.7478 Z -1.0000 I 0.1239 J 0.0096
G01 X 24.6887 Y 19.7590 Z -1.0000
G01 X 24.6940 Y 19.7703 Z -1.0000
G03 X 24.7079 Y 19.8463 Z -1.0000 I -1.1096 J 0.2423
G02 X 24.7925 Y 20.0785 Z -1.0000 I 0.6064 J -0.0897
G02 X 24.9404 Y 20.2234 Z -1.0000 I 0.3666 J -0.2261
G03 X 24.9760 Y 20.2445 Z -1.0000 I -4.7108 J 7.9913
G03 X 24.9987 Y 20.2581 Z -1.0000 I -1.8571 J 3.1185
G02 X 25.0218 Y 20.2711 Z -1.0000 I 0.2368 J -0.3935
G02 X 25.0894 Y 20.3058 Z -1.0000 I 1.6230 J -3.0854
G02 X 25.1599 Y 20.3291 Z -1.0000 I 0.1169 J -0.2346
G02 X 25.2797 Y 20.3400 Z -1.0000 I 0.1221 J -0.6780
G02 X 25.3997 Y 20.3303 Z -1.0000 I 0.0022 J -0.7154
G02 X 25.4633 Y 20.3094 Z -1.0000 I -0.0364 J -0.2182
G02 X 25.5214 Y 20.2765 Z -1.0000 I -0.3248 J -0.6409
G01 X 25.5245 Y 20.2709 Z -1.0000
G01 X 25.5273 Y 20.2662 Z -1.0000
G01 X 25.5381 Y 20.2634 Z -1.0000
G01 X 25.5486 Y 20.2602 Z -1.0000
G01 X 25.5517 Y 20.2543 Z -1.0000
G01 X 25.5547 Y 20.2482 Z -1.0000
G01 X 25.5636 Y 20.2452 Z -1.0000
G02 X 25.6027 Y 20.2313 Z -1.0000 I -0.0000 J -0.0621
G01 X 25.6037 Y 20.2126 Z -1.0000
G01 X 25.5964 Y 20.2110 Z -1.0000
G02 X 25.5701 Y 20.2254 Z -1.0000 I 0.0398 J 0.1038
G03 X 25.5424 Y 20.2421 Z -1.0000 I -0.1026 J -0.1388
G01 X 25.5291 Y 20.2452 Z -1.0000
G01 X 25.5155 Y 20.2478 Z -1.0000
G02 X 25.4925 Y 20.2598 Z -1.0000 I 0.0493 J 0.1229
G03 X 25.4698 Y 20.2698 Z -1.0000 I -0.0422 J -0.0647
G01 X 25.4566 Y 20.2691 Z -1.0000
G01 X 25.4471 Y 20.2699 Z -1.0000
G01 X 25.4429 Y 20.2772 Z -1.0000
G01 X 25.4394 Y 20.2870 Z -1.0000
G01 X 25.4316 Y 20.2907 Z -1.0000
G02 X 25.4204 Y 20.2915 Z -1.0000 I 0.0016 J 0.1032
G02 X 25.3577 Y 20.2999 Z -1.0000 I 0.4881 J 3.8789
G03 X 25.2722 Y 20.3013 Z -1.0000 I -0.0483 J -0.3343
G01 X 25.2666 Y 20.2898 Z -1.0000
G01 X 25.2736 Y 20.2846 Z -1.0000
G03 X 25.2977 Y 20.2814 Z -1.0000 I 0.0241 J 0.0887
G02 X 25.3210 Y 20.2778 Z -1.0000 I -0.0000 J -0.0776
G01 X 25.3266 Y 20.2723 Z -1.0000
G01 X 25.3326 Y 20.2671 Z -1.0000
G03 X 25.3818 Y 20.2620 Z -1.0000 I 0.0563 J 0.3030
G02 X 25.4266 Y 20.2537 Z -1.0000 I -0.0031 J -0.1416
G01 X 25.4339 Y 20.2433 Z -1.0000
G01 X 25.4403 Y 20.2329 Z -1.0000
G01 X 25.4625 Y 20.2286 Z -1.0000
G01 X 25.4832 Y 20.2173 Z -1.0000
G01 X 25.4767 Y 20.2005 Z -1.0000
G01 X 25.4493 Y 20.1710 Z -1.0000
G01 X 25.4575 Y 20.1353 Z -1.0000
G01 X 25.4732 Y 20.1282 Z -1.0000
G03 X 25.5092 Y 20.1344 Z -1.0000 I 0.0018 J 0.0972
G03 X 25.5461 Y 20.1505 Z -1.0000 I -0.1385 J 0.3663
G03 X 25.5616 Y 20.1607 Z -1.0000 I -0.0358 J 0.0715
G01 X 25.5768 Y 20.1657 Z -1.0000
G02 X 25.6053 Y 20.1581 Z -1.0000 I -0.0044 J -0.0739
G02 X 25.6320 Y 20.1410 Z -1.0000 I -0.0687 J -0.1369
G01 X 25.6395 Y 20.1308 Z -1.0000
G01 X 25.6471 Y 20.1206 Z -1.0000
G03 X 25.6751 Y 20.1035 Z -1.0000 I 0.0952 J 0.1246
G02 X 25.7026 Y 20.0869 Z -1.0000 I -0.0673 J -0.1423
G01 X 25.7059 Y 20.0804 Z -1.0000
G01 X 25.7033 Y 20.0764 Z -1.0000
G01 X 25.6980 Y 20.0767 Z -1.0000
G01 X 25.6760 Y 20.0776 Z -1.0000
G03 X 25.5784 Y 20.0165 Z -1.0000 I 0.2766 J -0.5500
G02 X 25.5439 Y 19.9979 Z -1.0000 I -0.0754 J 0.0985
G02 X 25.4923 Y 19.9865 Z -1.0000 I -0.0737 J 0.2113
G02 X 25.4384 Y 19.9811 Z -1.0000 I -2.4157 J 23.8755
G03 X 25.4089 Y 19.9781 Z -1.0000 I 0.5108 J -5.1645
G02 X 25.3813 Y 19.9791 Z -1.0000 I -0.0102 J 0.0973
G01 X 25.3736 Y 19.9843 Z -1.0000
G01 X 25.3681 Y 19.9861 Z -1.0000
G01 X 25.3596 Y 19.9787 Z -1.0000
G01 X 25.3487 Y 19.9700 Z -1.0000
G01 X 25.3286 Y 19.9696 Z -1.0000
G03 X 25.3063 Y 19.9704 Z -1.0000 I -0.0130 J -0.0523
G03 X 25.2704 Y 19.9593 Z -1.0000 I 0.0261 J -0.1484
G01 X 25.2594 Y 19.9425 Z -1.0000
G01 X 25.2703 Y 19.9335 Z -1.0000
G02 X 25.3380 Y 19.9287 Z -1.0000 I 0.0250 J -0.1252
G01 X 25.3663 Y 19.8994 Z -1.0000
G01 X 25.3672 Y 19.8817 Z -1.0000
G02 X 25.3558 Y 19.8479 Z -1.0000 I -0.1409 J 0.0286
G03 X 25.3416 Y 19.8139 Z -1.0000 I 0.3023 J -0.1462
G01 X 25.3392 Y 19.8009 Z -1.0000
G01 X 25.3246 Y 19.7800 Z -1.0000
G02 X 25.2073 Y 19.7475 Z -1.0000 I -0.2001 J 0.4943
G02 X 24.9115 Y 19.7032 Z -1.0000 I -3.2667 J 20.7971
G02 X 24.8816 Y 19.7011 Z -1.0000 I -0.0299 J 0.2097
G03 X 24.8559 Y 19.6970 Z -1.0000 I -0.0000 J -0.0837
G03 X 24.8225 Y 19.6821 Z -1.0000 I 0.0514 J -0.1590
G03 X 24.7996 Y 19.6577 Z -1.0000 I 0.0306 J -0.0518
