%
(Header)
(Generated by gcodetools from Inkscape.)
(Using default header. To add your own header create file "header" in the output dir.)
M3
(Header end.)
G21 (All units in mm)

(Start cutting path id: path91649)
(Change tool to Default tool)

G00 Z 5.0000
G00 X 21.9850 Y -0.0626

G01 Z -1.0000 F 100.0000(Penetrate)
G03 X 21.9860 Y 0.0324 Z -1.0000 I -0.7917 J 0.0553 F 3500.0000
G03 X 21.9777 Y 0.0823 Z -1.0000 I -0.2229 J -0.0112
G02 X 21.9673 Y 0.1322 Z -1.0000 I 0.3519 J 0.0999
G02 X 21.9608 Y 0.2054 Z -1.0000 I 0.7552 J 0.1042
G03 X 21.9556 Y 0.2785 Z -1.0000 I -1.1698 J -0.0461
G01 X 21.9524 Y 0.2878 Z -1.0000
G01 X 21.9484 Y 0.2971 Z -1.0000
G02 X 21.9358 Y 0.3498 Z -1.0000 I 0.9419 J 0.2528
G03 X 21.9236 Y 0.4027 Z -1.0000 I -1.1921 J -0.2483
G03 X 21.9050 Y 0.4708 Z -1.0000 I -2.1079 J -0.5383
G02 X 21.8906 Y 0.5396 Z -1.0000 I 0.4447 J 0.1291
G02 X 21.8782 Y 0.6743 Z -1.0000 I 1.7037 J 0.2240
G02 X 21.8803 Y 0.8092 Z -1.0000 I 0.9991 J 0.0522
G02 X 21.8992 Y 0.9272 Z -1.0000 I 0.7825 J -0.0649
G03 X 21.9251 Y 1.2309 Z -1.0000 I -0.9942 J 0.2379
G03 X 21.8502 Y 1.6855 Z -1.0000 I -2.3293 J -0.1504
G02 X 21.8138 Y 1.9030 Z -1.0000 I 1.1094 J 0.2977
G02 X 21.8232 Y 2.0716 Z -1.0000 I 0.6718 J 0.0470
G03 X 21.8319 Y 2.1545 Z -1.0000 I -0.5305 J 0.0974
G03 X 21.8278 Y 2.2406 Z -1.0000 I -0.5800 J 0.0157
G02 X 21.8183 Y 2.5051 Z -1.0000 I 1.5219 J 0.1871
G02 X 21.8483 Y 2.6468 Z -1.0000 I 0.4588 J -0.0232
G03 X 21.8562 Y 2.6841 Z -1.0000 I -0.1116 J 0.0432
G03 X 21.8599 Y 2.8811 Z -1.0000 I -3.2334 J 0.1587
G02 X 21.8585 Y 3.0793 Z -1.0000 I 19.6703 J 0.2347
G02 X 21.8594 Y 3.1303 Z -1.0000 I 1.4237 J 0.0026
G03 X 21.8469 Y 3.1698 Z -1.0000 I -0.0619 J 0.0022
G03 X 21.8149 Y 3.1894 Z -1.0000 I -0.0409 J -0.0308
G02 X 21.7279 Y 3.2068 Z -1.0000 I 0.3247 J 1.8579
G02 X 21.4171 Y 3.2784 Z -1.0000 I 5.3238 J 23.8007
G03 X 21.2382 Y 3.3206 Z -1.0000 I -12.1580 J -51.1926
G03 X 21.2113 Y 3.3265 Z -1.0000 I -0.2742 J -1.1727
G01 X 21.1891 Y 3.3224 Z -1.0000
G03 X 21.1678 Y 3.2982 Z -1.0000 I 0.0327 J -0.0502
G01 X 21.1443 Y 3.2759 Z -1.0000
G02 X 21.0901 Y 3.2657 Z -1.0000 I -0.0512 J 0.1223
G02 X 20.9034 Y 3.2937 Z -1.0000 I 0.0175 J 0.7521
G02 X 20.8477 Y 3.3341 Z -1.0000 I 0.0271 J 0.0960
G01 X 20.8417 Y 3.3517 Z -1.0000
G02 X 20.8437 Y 3.3938 Z -1.0000 I 0.1833 J 0.0123
G03 X 20.8493 Y 3.4371 Z -1.0000 I -0.6055 J 0.0995
G03 X 20.8619 Y 3.5918 Z -1.0000 I -7.5940 J 0.6975
G02 X 20.8742 Y 3.7465 Z -1.0000 I 9.6872 J -0.6936
G02 X 20.8768 Y 3.7613 Z -1.0000 I 0.0865 J -0.0076
G01 X 20.8740 Y 3.7740 Z -1.0000
G03 X 20.8066 Y 3.8473 Z -1.0000 I -0.6514 J -0.5311
G02 X 20.7346 Y 3.9206 Z -1.0000 I 1.3770 J 1.4250
G02 X 20.6598 Y 4.0047 Z -1.0000 I 1.7391 J 1.6222
G03 X 20.5446 Y 4.1166 Z -1.0000 I -0.6326 J -0.5365
G03 X 20.3627 Y 4.2418 Z -1.0000 I -0.9783 J -1.2259
G02 X 20.2774 Y 4.2944 Z -1.0000 I 1.2872 J 2.1834
G02 X 20.2156 Y 4.3366 Z -1.0000 I 0.7668 J 1.1906
G03 X 20.1540 Y 4.3777 Z -1.0000 I -0.6020 J -0.8343
G01 X 20.1445 Y 4.3804 Z -1.0000
G02 X 20.0996 Y 4.3963 Z -1.0000 I -0.0000 J 0.0715
G02 X 19.9974 Y 4.4994 Z -1.0000 I 0.4166 J 0.5153
G03 X 19.9402 Y 4.5602 Z -1.0000 I -0.3933 J -0.3126
G03 X 19.7966 Y 4.6801 Z -1.0000 I -1.6840 J -1.8712
G02 X 19.7460 Y 4.7407 Z -1.0000 I 0.1123 J 0.1451
G02 X 19.7040 Y 4.8586 Z -1.0000 I 0.4092 J 0.2123
G03 X 19.6308 Y 5.1412 Z -1.0000 I -3.0310 J -0.6340
G03 X 19.5193 Y 5.4546 Z -1.0000 I -3.8403 J -1.1901
G02 X 19.5007 Y 5.5700 Z -1.0000 I 0.2441 J 0.0984
G02 X 19.5430 Y 5.8216 Z -1.0000 I 1.2520 J -0.0808
G03 X 19.5888 Y 6.0030 Z -1.0000 I -4.3911 J 1.2063
G03 X 19.6046 Y 6.0885 Z -1.0000 I -0.9584 J 0.2214
G02 X 19.6372 Y 6.2921 Z -1.0000 I 5.1031 J -0.7114
G02 X 19.6865 Y 6.5421 Z -1.0000 I 7.7569 J -1.3998
G03 X 19.6990 Y 6.6357 Z -1.0000 I -0.5934 J 0.1271
G01 X 19.6926 Y 6.6525 Z -1.0000
G01 X 19.6802 Y 6.6897 Z -1.0000
G02 X 19.7084 Y 6.7624 Z -1.0000 I 0.1714 J -0.0246
G03 X 19.7274 Y 6.8103 Z -1.0000 I -0.0983 J 0.0668
G03 X 19.7372 Y 6.9410 Z -1.0000 I -0.7607 J 0.1228
G03 X 19.7204 Y 7.0907 Z -1.0000 I -0.7424 J -0.0077
G01 X 19.7014 Y 7.1060 Z -1.0000
G02 X 19.6264 Y 7.1242 Z -1.0000 I 0.0000 J 0.1634
G02 X 19.5391 Y 7.1898 Z -1.0000 I 0.1503 J 0.2914
G02 X 19.4725 Y 7.2824 Z -1.0000 I 0.3039 J 0.2887
G02 X 19.4007 Y 7.4513 Z -1.0000 I 0.9589 J 0.5074
G03 X 19.3760 Y 7.5180 Z -1.0000 I -0.9002 J -0.2956
G03 X 19.3624 Y 7.5438 Z -1.0000 I -0.1475 J -0.0610
G02 X 19.3461 Y 7.5863 Z -1.0000 I 0.0921 J 0.0597
G02 X 19.3336 Y 7.7255 Z -1.0000 I 1.0217 J 0.1620
G01 X 19.3225 Y 7.7527 Z -1.0000
G03 X 19.2742 Y 7.7890 Z -1.0000 I -0.1270 J -0.1189
G02 X 19.2178 Y 7.8219 Z -1.0000 I 0.2469 J 0.4873
G02 X 19.1847 Y 7.8487 Z -1.0000 I 0.1284 J 0.1924
G03 X 19.0748 Y 7.9513 Z -1.0000 I -2.4517 J -2.5165
G03 X 18.9739 Y 8.0372 Z -1.0000 I -1.8221 J -2.0379
G02 X 18.9437 Y 8.0620 Z -1.0000 I 2.0012 J 2.4687
G02 X 18.8761 Y 8.1185 Z -1.0000 I 9.9924 J 12.0206
G03 X 18.8072 Y 8.1729 Z -1.0000 I -0.9223 J -1.0971
G03 X 18.7779 Y 8.1913 Z -1.0000 I -0.1329 J -0.1794
G02 X 18.6739 Y 8.2568 Z -1.0000 I 0.3561 J 0.6806
G02 X 18.5769 Y 8.3416 Z -1.0000 I 0.5068 J 0.6777
G03 X 18.5536 Y 8.3628 Z -1.0000 I -0.1959 J -0.1922
G03 X 18.5245 Y 8.3840 Z -1.0000 I -0.2267 J -0.2803
G02 X 18.5007 Y 8.4074 Z -1.0000 I 0.0466 J 0.0711
G01 X 18.4942 Y 8.4286 Z -1.0000
G02 X 18.5433 Y 8.6252 Z -1.0000 I 0.4176 J -0.0000
G02 X 18.6850 Y 8.7862 Z -1.0000 I 0.4127 J -0.2202
G02 X 18.7599 Y 8.8093 Z -1.0000 I 0.0723 J -0.1017
G02 X 19.0753 Y 8.7780 Z -1.0000 I -0.0425 J -2.0356
G02 X 19.1950 Y 8.7415 Z -1.0000 I -0.0922 J -0.5166
G02 X 19.2650 Y 8.6943 Z -1.0000 I -0.0965 J -0.2187
G03 X 19.4880 Y 8.5129 Z -1.0000 I 1.1406 J 1.1742
G01 X 19.5213 Y 8.5208 Z -1.0000
G03 X 19.5295 Y 8.5572 Z -1.0000 I -0.0575 J 0.0321
G03 X 19.4935 Y 8.9436 Z -1.0000 I -7.1116 J -0.4669
G02 X 19.4647 Y 9.2667 Z -1.0000 I 5.1783 J 0.6243
G02 X 19.4625 Y 9.4801 Z -1.0000 I 2.2530 J 0.1303
G02 X 19.4823 Y 9.8385 Z -1.0000 I 9.8658 J -0.3650
G02 X 19.5241 Y 10.3188 Z -1.0000 I 17.6090 J -1.2937
G02 X 19.5935 Y 10.8083 Z -1.0000 I 6.1251 J -0.6185
G02 X 19.6516 Y 11.0156 Z -1.0000 I 1.1485 J -0.2101
G03 X 19.7176 Y 11.2372 Z -1.0000 I -1.4128 J 0.5409
G03 X 19.7289 Y 11.3732 Z -1.0000 I -0.5156 J 0.1113
G02 X 19.7258 Y 11.6209 Z -1.0000 I 3.5773 J 0.1683
G02 X 19.7402 Y 11.8874 Z -1.0000 I 4.1688 J -0.0924
G02 X 19.7850 Y 12.1445 Z -1.0000 I 1.5103 J -0.1304
G02 X 19.8440 Y 12.2797 Z -1.0000 I 0.4683 J -0.1238
G03 X 19.8663 Y 12.3488 Z -1.0000 I -0.1232 J 0.0779
G03 X 19.8658 Y 12.6374 Z -1.0000 I -2.2991 J 0.1402
G02 X 19.8664 Y 12.8086 Z -1.0000 I 1.2538 J 0.0807
G02 X 19.8948 Y 13.0382 Z -1.0000 I 2.2734 J -0.1642
G02 X 19.9646 Y 13.3842 Z -1.0000 I 6.8242 J -1.1959
G02 X 19.9928 Y 13.4674 Z -1.0000 I 0.4188 J -0.0956
G03 X 20.0205 Y 13.5352 Z -1.0000 I -0.8250 J 0.3777
G01 X 20.0235 Y 13.5519 Z -1.0000
G01 X 20.0267 Y 13.5686 Z -1.0000
G02 X 20.0553 Y 13.6321 Z -1.0000 I 0.7112 J -0.2823
G03 X 20.0866 Y 13.7293 Z -1.0000 I -0.2905 J 0.1472
G03 X 20.0991 Y 13.9139 Z -1.0000 I -1.0567 J 0.1644
G02 X 20.1011 Y 14.0185 Z -1.0000 I 1.3953 J 0.0266
G02 X 20.1115 Y 14.1358 Z -1.0000 I 1.7979 J -0.1007
G02 X 20.1699 Y 14.4614 Z -1.0000 I 2.9375 J -0.3593
G02 X 20.2383 Y 14.6689 Z -1.0000 I 1.2557 J -0.2987
G03 X 20.2546 Y 14.7154 Z -1.0000 I -0.3456 J 0.1473
G03 X 20.2578 Y 14.7391 Z -1.0000 I -0.0851 J 0.0237
G02 X 20.2611 Y 14.7629 Z -1.0000 I 0.0880 J 0.0000
G02 X 20.2969 Y 14.8782 Z -1.0000 I 2.1395 J -0.6014
G03 X 20.3253 Y 14.9950 Z -1.0000 I -0.6291 J 0.2144
G03 X 20.3451 Y 15.2027 Z -1.0000 I -1.9815 J 0.2941
G02 X 20.3600 Y 15.4114 Z -1.0000 I 3.7354 J -0.1609
G02 X 20.3720 Y 15.4740 Z -1.0000 I 0.3469 J -0.0345
G03 X 20.3891 Y 15.5359 Z -1.0000 I -2.5262 J 0.7299
G03 X 20.4059 Y 15.6032 Z -1.0000 I -2.7351 J 0.7184
G02 X 20.4730 Y 15.8420 Z -1.0000 I 2.9246 J -0.6922
G02 X 20.5217 Y 15.9587 Z -1.0000 I 0.7418 J -0.2417
G03 X 20.5371 Y 15.9980 Z -1.0000 I -0.1816 J 0.0939
G03 X 20.5415 Y 16.0300 Z -1.0000 I -0.1155 J 0.0320
G02 X 20.5440 Y 16.0628 Z -1.0000 I 0.2156 J 0.0000
G02 X 20.5538 Y 16.1108 Z -1.0000 I 0.4915 J -0.0756
G03 X 20.5661 Y 16.1585 Z -1.0000 I -12.6427 J 3.2788
G03 X 20.5794 Y 16.2109 Z -1.0000 I -20.1035 J 5.1329
G02 X 20.5946 Y 16.2627 Z -1.0000 I 0.7206 J -0.1825
G02 X 20.6214 Y 16.3373 Z -1.0000 I 1.5009 J -0.4984
G03 X 20.6457 Y 16.4125 Z -1.0000 I -0.6320 J 0.2457
G03 X 20.6636 Y 16.4999 Z -1.0000 I -0.8356 J 0.2170
G02 X 20.6796 Y 16.5877 Z -1.0000 I 1.5071 J -0.2290
G02 X 20.6892 Y 16.6202 Z -1.0000 I 0.2153 J -0.0458
G03 X 20.6956 Y 16.6529 Z -1.0000 I -0.0927 J 0.0351
G03 X 20.6936 Y 16.8037 Z -1.0000 I -2.0326 J 0.0487
G02 X 20.6941 Y 16.9543 Z -1.0000 I 1.3891 J 0.0707
G02 X 20.7058 Y 17.0163 Z -1.0000 I 0.2442 J -0.0141
G03 X 20.7226 Y 17.0781 Z -1.0000 I -0.5995 J 0.1960
G03 X 20.7513 Y 17.2253 Z -1.0000 I -3.3775 J 0.7356
G02 X 20.7885 Y 17.3953 Z -1.0000 I 1.9582 J -0.3384
G02 X 20.8444 Y 17.5768 Z -1.0000 I 2.2822 J -0.6041
G03 X 20.8973 Y 17.7514 Z -1.0000 I -1.9063 J 0.6726
G03 X 20.9298 Y 17.9128 Z -1.0000 I -1.5945 J 0.4053
G02 X 20.9666 Y 18.1112 Z -1.0000 I 2.8593 J -0.4285
G02 X 21.0195 Y 18.3168 Z -1.0000 I 3.1237 J -0.6938
G02 X 21.0709 Y 18.4604 Z -1.0000 I 1.2556 J -0.3677
G02 X 21.1921 Y 18.7231 Z -1.0000 I 4.3247 J -1.8364
G03 X 21.2528 Y 19.0065 Z -1.0000 I -0.5197 J 0.2595
G03 X 21.1717 Y 19.2175 Z -1.0000 I -0.3528 J -0.0146
G02 X 21.0952 Y 19.3096 Z -1.0000 I 511.8118 J 424.8034
G02 X 21.0249 Y 19.3943 Z -1.0000 I 2431.6476 J 2019.6424
G03 X 20.7405 Y 19.6803 Z -1.0000 I -1.7270 J -1.4330
G03 X 20.2640 Y 20.0328 Z -1.0000 I -3.1151 J -3.7122
G03 X 19.6911 Y 20.3757 Z -1.0000 I -4.9816 J -7.6739
G03 X 19.2650 Y 20.5822 Z -1.0000 I -2.2181 J -4.0334
G03 X 18.6649 Y 20.8160 Z -1.0000 I -4.4171 J -10.4513
G03 X 18.0009 Y 21.0338 Z -1.0000 I -4.4932 J -12.5779
G03 X 17.1066 Y 21.2512 Z -1.0000 I -2.5238 J -8.4338
G03 X 16.5822 Y 21.3010 Z -1.0000 I -0.5336 J -2.8331
G03 X 16.4710 Y 21.2820 Z -1.0000 I -0.0011 J -0.3292
G03 X 16.3891 Y 21.2325 Z -1.0000 I 0.0794 J -0.2237
G02 X 16.3560 Y 21.2052 Z -1.0000 I -0.2534 J 0.2735
G01 X 16.3484 Y 21.2027 Z -1.0000
G01 X 16.3420 Y 21.1994 Z -1.0000
G03 X 16.3258 Y 21.1719 Z -1.0000 I 0.1259 J -0.0923
G02 X 16.3089 Y 21.1455 Z -1.0000 I -0.0996 J 0.0452
G01 X 16.2992 Y 21.1410 Z -1.0000
G01 X 16.2851 Y 21.1573 Z -1.0000
G01 X 16.3052 Y 21.1825 Z -1.0000
G01 X 16.3202 Y 21.1934 Z -1.0000
G03 X 16.3387 Y 21.2239 Z -1.0000 I -0.1032 J 0.0834
G02 X 16.3557 Y 21.2570 Z -1.0000 I 0.2596 J -0.1129
G02 X 16.3843 Y 21.2997 Z -1.0000 I 0.4615 J -0.2777
G03 X 16.4079 Y 21.3432 Z -1.0000 I -0.1425 J 0.1054
G03 X 16.4124 Y 21.3750 Z -1.0000 I -0.0702 J 0.0262
G01 X 16.4201 Y 21.4040 Z -1.0000
G02 X 16.4583 Y 21.4425 Z -1.0000 I 0.1229 J -0.0837
G03 X 16.5392 Y 21.5112 Z -1.0000 I -0.3091 J 0.4460
G03 X 16.8169 Y 21.8132 Z -1.0000 I -5.8271 J 5.6377
G02 X 17.0655 Y 22.0942 Z -1.0000 I 23.9684 J -20.9488
G02 X 17.3191 Y 22.3743 Z -1.0000 I 24.0640 J -21.5379
G02 X 17.3824 Y 22.4411 Z -1.0000 I 2.0475 J -1.8762
G02 X 17.5969 Y 22.6580 Z -1.0000 I 21.7797 J -21.3278
G03 X 17.8044 Y 22.8805 Z -1.0000 I -3.1264 J 3.1235
G03 X 17.9081 Y 23.0157 Z -1.0000 I -1.0451 J 0.9094
G02 X 18.3100 Y 23.5088 Z -1.0000 I 2.9119 J -1.9624
G02 X 18.5387 Y 23.6602 Z -1.0000 I 0.4667 J -0.4565
G03 X 18.6828 Y 23.7310 Z -1.0000 I -0.3511 J 0.8971
G03 X 18.8035 Y 23.8189 Z -1.0000 I -0.4280 J 0.7142
G03 X 18.8827 Y 23.8883 Z -1.0000 I -155.6389 J 177.6518
G03 X 18.9863 Y 23.9792 Z -1.0000 I -323.5870 J 369.0210
G02 X 19.0903 Y 24.0696 Z -1.0000 I 9.3564 J -10.6644
G02 X 19.1343 Y 24.1065 Z -1.0000 I 1.5964 J -1.8557
G03 X 19.1782 Y 24.1435 Z -1.0000 I -1.4554 J 1.7736
G03 X 19.2712 Y 24.2247 Z -1.0000 I -6.8959 J 7.9876
G02 X 19.9665 Y 24.7956 Z -1.0000 I 8.1714 J -9.2435
G02 X 20.4773 Y 25.1435 Z -1.0000 I 3.5283 J -4.6318
G03 X 20.4981 Y 25.1566 Z -1.0000 I -0.3821 J 0.6305
G03 X 20.6278 Y 25.2417 Z -1.0000 I -15.8626 J 24.3086
G02 X 20.7578 Y 25.3264 Z -1.0000 I 7.2612 J -10.9984
G02 X 20.7820 Y 25.3409 Z -1.0000 I 0.2345 J -0.3645
G03 X 20.8064 Y 25.3550 Z -1.0000 I -0.3509 J 0.6349
G03 X 20.9176 Y 25.4228 Z -1.0000 I -9.1092 J 15.0675
G02 X 21.1026 Y 25.5334 Z -1.0000 I 4.5222 J -7.3557
G02 X 21.2543 Y 25.6184 Z -1.0000 I 2.8291 J -4.8701
G03 X 21.3122 Y 25.6499 Z -1.0000 I -7.0561 J 13.0598
G03 X 21.4233 Y 25.7107 Z -1.0000 I -26.0939 J 47.7872
G02 X 21.8327 Y 25.9196 Z -1.0000 I 3.6550 J -6.6575
G02 X 22.1016 Y 26.0313 Z -1.0000 I 1.3021 J -2.7547
G02 X 22.4098 Y 26.1394 Z -1.0000 I 6.3157 J -17.5228
G02 X 22.6011 Y 26.2015 Z -1.0000 I 2.2768 J -6.6819
G02 X 23.2361 Y 26.3819 Z -1.0000 I 4.2242 J -13.6601
G02 X 23.8776 Y 26.5325 Z -1.0000 I 3.5772 J -13.7939
G02 X 24.5741 Y 26.6747 Z -1.0000 I 11.8849 J -56.4559
G02 X 24.9567 Y 26.7459 Z -1.0000 I 3.3503 J -16.9479
G03 X 25.1355 Y 26.7772 Z -1.0000 I -13.9472 J 79.9913
G03 X 25.2342 Y 26.7949 Z -1.0000 I -4.3772 J 24.7768
G02 X 25.3329 Y 26.8126 Z -1.0000 I 8.7243 J -48.3044
G02 X 25.3699 Y 26.8191 Z -1.0000 I 1.0441 J -5.8492
G03 X 25.4069 Y 26.8255 Z -1.0000 I -2.2638 J 13.1623
G03 X 25.4870 Y 26.8396 Z -1.0000 I -10.8782 J 62.2017
G02 X 25.5673 Y 26.8533 Z -1.0000 I 1.3391 J -7.5694
G02 X 25.6350 Y 26.8642 Z -1.0000 I 1.0403 J -6.2663
G03 X 25.9795 Y 26.9198 Z -1.0000 I -4.1266 J 26.6582
G03 X 26.3627 Y 26.9865 Z -1.0000 I -5.5273 J 32.8869
G02 X 26.4923 Y 27.0093 Z -1.0000 I 2.8336 J -15.7297
G02 X 26.5292 Y 27.0151 Z -1.0000 I 0.2261 J -1.3170
G03 X 26.6157 Y 27.0317 Z -1.0000 I -0.1309 J 0.9188
G03 X 27.0225 Y 27.1340 Z -1.0000 I -4.9518 J 20.5471
G03 X 27.2008 Y 27.1931 Z -1.0000 I -0.3731 J 1.4231
G03 X 27.2408 Y 27.2222 Z -1.0000 I -0.0383 J 0.0946
G03 X 27.2688 Y 27.2642 Z -1.0000 I -0.1774 J 0.1486
G03 X 27.2778 Y 27.2935 Z -1.0000 I -0.0758 J 0.0393
G01 X 27.2890 Y 27.3184 Z -1.0000
G01 X 27.3122 Y 27.3323 Z -1.0000
G01 X 27.3346 Y 27.3473 Z -1.0000
G03 X 27.3518 Y 27.3883 Z -1.0000 I -0.0840 J 0.0593
G03 X 27.3565 Y 27.4374 Z -1.0000 I -0.2875 J 0.0525
G03 X 27.3589 Y 28.0146 Z -1.0000 I -39.8065 J 0.4518
G02 X 27.3657 Y 28.5875 Z -1.0000 I 19.1046 J 0.0585
G01 X 27.3748 Y 28.6038 Z -1.0000
G02 X 27.5010 Y 28.6377 Z -1.0000 I 0.1141 J -0.1728
G02 X 27.6131 Y 28.5897 Z -1.0000 I -0.0105 J -0.1792
G01 X 27.6209 Y 28.5728 Z -1.0000
G02 X 27.6454 Y 27.9057 Z -1.0000 I -31.7927 J -1.5023
G03 X 27.6622 Y 27.4252 Z -1.0000 I 27.3733 J 0.7140
G03 X 27.6686 Y 27.3717 Z -1.0000 I 0.3496 J 0.0153
G03 X 27.7016 Y 27.3083 Z -1.0000 I 0.1263 J 0.0253
G03 X 27.7608 Y 27.2748 Z -1.0000 I 0.0845 J 0.0803
G02 X 27.7900 Y 27.2596 Z -1.0000 I -0.0139 J -0.0626
G02 X 27.8125 Y 27.2278 Z -1.0000 I -0.0605 J -0.0665
G03 X 27.8382 Y 27.1994 Z -1.0000 I 0.0530 J 0.0221
G03 X 27.9375 Y 27.1603 Z -1.0000 I 0.2117 J 0.3923
G03 X 28.1111 Y 27.1189 Z -1.0000 I 1.1042 J 4.2391
G03 X 28.2620 Y 27.0898 Z -1.0000 I 0.6911 J 3.1790
G02 X 28.3788 Y 27.0682 Z -1.0000 I -0.6262 J -3.7194
G02 X 28.4408 Y 27.0538 Z -1.0000 I -0.2141 J -1.0657
G03 X 28.5031 Y 27.0407 Z -1.0000 I 0.1675 J 0.6383
G03 X 28.6258 Y 27.0240 Z -1.0000 I 0.3972 J 2.4584
G02 X 28.8048 Y 27.0008 Z -1.0000 I -0.5479 J -4.9405
G02 X 29.0020 Y 26.9684 Z -1.0000 I -0.8917 J -6.0328
G03 X 29.0947 Y 26.9527 Z -1.0000 I 0.6985 J 3.8622
G03 X 29.1993 Y 26.9376 Z -1.0000 I 0.7238 J 4.6330
G02 X 29.3041 Y 26.9232 Z -1.0000 I -1.8699 J -14.0024
G02 X 29.4213 Y 26.9062 Z -1.0000 I -2.3523 J -16.6629
G03 X 29.5385 Y 26.8890 Z -1.0000 I 5.6570 J 37.9725
G03 X 29.8406 Y 26.8450 Z -1.0000 I 55.7575 J 382.3638
G02 X 30.1426 Y 26.8001 Z -1.0000 I -6.1723 J -42.5632
G02 X 30.2045 Y 26.7896 Z -1.0000 I -0.2734 J -1.7954
G03 X 30.2662 Y 26.7782 Z -1.0000 I 2.2232 J 11.7832
G03 X 30.4326 Y 26.7478 Z -1.0000 I 23.6405 J 128.9965
G02 X 30.7439 Y 26.6902 Z -1.0000 I -9.2040 J -50.6121
G02 X 30.7964 Y 26.6793 Z -1.0000 I -0.2733 J -1.4521
G03 X 30.8460 Y 26.6693 Z -1.0000 I 0.2507 J 1.1152
G03 X 30.9383 Y 26.6540 Z -1.0000 I 0.6539 J 3.6568
G02 X 31.0303 Y 26.6375 Z -1.0000 I -0.2862 J -1.8665
G02 X 31.0863 Y 26.6237 Z -1.0000 I -0.1414 J -0.6915
G03 X 31.1421 Y 26.6087 Z -1.0000 I 0.3837 J 1.3161
G03 X 31.2343 Y 26.5872 Z -1.0000 I 0.8920 J 3.6214
G02 X 31.8337 Y 26.4487 Z -1.0000 I -6.0320 J -27.4627
G02 X 32.0236 Y 26.3956 Z -1.0000 I -0.6803 J -2.8029
G03 X 32.0916 Y 26.3746 Z -1.0000 I 1.6385 J 5.1807
G03 X 32.1408 Y 26.3603 Z -1.0000 I 0.7749 J 2.5667
G02 X 32.5355 Y 26.2391 Z -1.0000 I -2.3909 J -8.4906
G02 X 32.6834 Y 26.1797 Z -1.0000 I -0.4146 J -1.2456
G03 X 32.7455 Y 26.1514 Z -1.0000 I 0.9782 J 2.0635
G03 X 32.8672 Y 26.0992 Z -1.0000 I 3.4442 J 7.8641
G02 X 33.1803 Y 25.9552 Z -1.0000 I -1.9739 J -4.7034
G02 X 33.4542 Y 25.8047 Z -1.0000 I -1.8815 J -3.7510
G03 X 33.4977 Y 25.7795 Z -1.0000 I 0.9062 J 1.5140
G03 X 33.5589 Y 25.7461 Z -1.0000 I 1.6358 J 2.9184
G02 X 33.6198 Y 25.7123 Z -1.0000 I -1.0133 J -1.8985
G02 X 33.6676 Y 25.6834 Z -1.0000 I -0.6881 J -1.1945
G03 X 33.7152 Y 25.6543 Z -1.0000 I 1.1545 J 1.8289
G03 X 33.7603 Y 25.6282 Z -1.0000 I 0.9787 J 1.6429
G02 X 33.8054 Y 25.6023 Z -1.0000 I -1.0405 J -1.8612
G02 X 33.8895 Y 25.5518 Z -1.0000 I -3.8243 J -6.4652
G03 X 33.9732 Y 25.5008 Z -1.0000 I 48.9581 J 80.3638
G03 X 34.0128 Y 25.4769 Z -1.0000 I 9.6205 J 15.8289
G02 X 34.9935 Y 24.8272 Z -1.0000 I -7.3949 J -12.2294
G02 X 35.8016 Y 24.1830 Z -1.0000 I -6.4642 J -8.9372
G03 X 35.8778 Y 24.1165 Z -1.0000 I 16.0310 J 18.2768
G03 X 35.9899 Y 24.0192 Z -1.0000 I 36.2266 J 41.6501
G01 X 36.2304 Y 23.8112 Z -1.0000
G02 X 36.4307 Y 23.6359 Z -1.0000 I -14.5777 J -16.8552
G02 X 36.5372 Y 23.5393 Z -1.0000 I -4.3133 J -4.8684
G03 X 36.6180 Y 23.4653 Z -1.0000 I 7.3394 J 7.9234
G03 X 36.7343 Y 23.3605 Z -1.0000 I 14.8906 J 16.4063
G02 X 36.8507 Y 23.2560 Z -1.0000 I -31.5894 J -35.2993
G02 X 36.8706 Y 23.2377 Z -1.0000 I -0.9131 J -1.0136
G03 X 36.8904 Y 23.2193 Z -1.0000 I 1.5282 J 1.6288
G03 X 37.0187 Y 23.1020 Z -1.0000 I 70.5285 J 77.0188
G02 X 37.4546 Y 22.6884 Z -1.0000 I -10.3992 J -11.3952
G02 X 38.0313 Y 22.1030 Z -1.0000 I -20.2592 J -20.5329
G03 X 38.2737 Y 21.8506 Z -1.0000 I 73.9600 J 70.8061
G03 X 38.3641 Y 21.7577 Z -1.0000 I 10.1435 J 9.7776
G02 X 38.5394 Y 21.5514 Z -1.0000 I -1.3462 J -1.3218
G01 X 38.5453 Y 21.5106 Z -1.0000
G01 X 38.5392 Y 21.5079 Z -1.0000
G02 X 38.4923 Y 21.5341 Z -1.0000 I 0.1208 J 0.2721
G03 X 38.3215 Y 21.6028 Z -1.0000 I -0.2423 J -0.3550
G03 X 37.7770 Y 21.6548 Z -1.0000 I -0.6320 J -3.7439
G03 X 37.4689 Y 21.6544 Z -1.0000 I -0.1453 J -6.2956
G03 X 37.2528 Y 21.6413 Z -1.0000 I 0.0809 J -3.1270
G03 X 36.8405 Y 21.5931 Z -1.0000 I 0.9317 J -9.7528
G03 X 36.4080 Y 21.5243 Z -1.0000 I 1.4941 J -10.7873
G02 X 36.2723 Y 21.4999 Z -1.0000 I -86.7435 J 482.5842
G02 X 36.0318 Y 21.4568 Z -1.0000 I -264.2208 J 1473.1640
G03 X 35.7917 Y 21.4117 Z -1.0000 I 2.5764 J -14.3733
G03 X 35.6495 Y 21.3817 Z -1.0000 I 0.9996 J -5.0852
G02 X 35.5077 Y 21.3496 Z -1.0000 I -188.4592 J 833.3213
G02 X 35.4337 Y 21.3329 Z -1.0000 I -906.0480 J 4038.4596
G03 X 35.3599 Y 21.3153 Z -1.0000 I 0.7060 J -3.1234
G03 X 35.1377 Y 21.2586 Z -1.0000 I 6.8943 J -27.4582
G02 X 34.9157 Y 21.2010 Z -1.0000 I -59.1336 J 227.6915
G02 X 34.8047 Y 21.1724 Z -1.0000 I -15.3794 J 59.4560
G03 X 34.3424 Y 21.0446 Z -1.0000 I 3.2389 J -12.6164
G03 X 33.8057 Y 20.8763 Z -1.0000 I 5.0834 J -17.1520
G03 X 33.5634 Y 20.7886 Z -1.0000 I 1.4427 J -4.3602
G03 X 33.2076 Y 20.6404 Z -1.0000 I 3.7725 J -9.5652
G03 X 33.1282 Y 20.6035 Z -1.0000 I 0.7946 J -1.8124
G03 X 32.8006 Y 20.4401 Z -1.0000 I 15.2907 J -31.0649
G03 X 32.4416 Y 20.2549 Z -1.0000 I 10.9200 J -21.6058
G03 X 32.1223 Y 20.0830 Z -1.0000 I 9.0976 J -17.2779
G03 X 31.8926 Y 19.9524 Z -1.0000 I 4.7461 J -8.6207
G03 X 31.7244 Y 19.8497 Z -1.0000 I 2.7636 J -4.7155
G02 X 31.6406 Y 19.7980 Z -1.0000 I -2.0577 J 3.2384
G01 X 31.6360 Y 19.7968 Z -1.0000
G01 X 31.6315 Y 19.7955 Z -1.0000
G03 X 31.5653 Y 19.7531 Z -1.0000 I 1.2493 J -2.0255
G02 X 31.4987 Y 19.7106 Z -1.0000 I -1.2602 J 1.8993
G02 X 31.2798 Y 19.5776 Z -1.0000 I -12.5509 J 20.4168
G03 X 31.0576 Y 19.3908 Z -1.0000 I 0.4732 J -0.7886
G03 X 31.0206 Y 19.2781 Z -1.0000 I 0.1161 J -0.1005
G03 X 31.0314 Y 19.1873 Z -1.0000 I 1.1658 J 0.0923
G03 X 31.0384 Y 19.1660 Z -1.0000 I 0.0701 J 0.0111
G01 X 31.0414 Y 19.1472 Z -1.0000
G01 X 31.0332 Y 19.1328 Z -1.0000
G01 X 31.0024 Y 19.1319 Z -1.0000
G01 X 30.9922 Y 19.1631 Z -1.0000
G03 X 30.9936 Y 19.2404 Z -1.0000 I -0.1311 J 0.0410
G03 X 30.9343 Y 19.3743 Z -1.0000 I -0.4744 J -0.1299
G01 X 30.9214 Y 19.3843 Z -1.0000
G03 X 30.8878 Y 19.3898 Z -1.0000 I -0.0336 J -0.1014
G02 X 30.8520 Y 19.3949 Z -1.0000 I 0.0000 J 0.1286
G02 X 30.6511 Y 19.4583 Z -1.0000 I 1.2155 J 4.1951
G03 X 30.4504 Y 19.5248 Z -1.0000 I -3.2739 J -9.5499
G03 X 30.3592 Y 19.5517 Z -1.0000 I -0.6270 J -1.9618
G02 X 30.2677 Y 19.5776 Z -1.0000 I 0.9077 J 3.3721
G01 X 30.2588 Y 19.5817 Z -1.0000
G03 X 30.1698 Y 19.6151 Z -1.0000 I -0.1294 J -0.2095
G03 X 29.5248 Y 19.7040 Z -1.0000 I -1.8999 J -11.3985
G03 X 29.1804 Y 19.7274 Z -1.0000 I -0.4588 J -4.1991
G03 X 28.7769 Y 19.7242 Z -1.0000 I -0.1560 J -5.7618
G01 X 28.7537 Y 19.7106 Z -1.0000
G01 X 28.7607 Y 19.6981 Z -1.0000
G02 X 28.8654 Y 19.6797 Z -1.0000 I 0.0000 J -0.3079
G02 X 29.2852 Y 19.5084 Z -1.0000 I -1.9052 J -5.2677
G02 X 29.9990 Y 19.1185 Z -1.0000 I -2.3481 J -5.1468
G02 X 30.2007 Y 18.9191 Z -1.0000 I -0.3724 J -0.5786
G03 X 30.2219 Y 18.8920 Z -1.0000 I 0.1827 J 0.1207
G03 X 30.3116 Y 18.7978 Z -1.0000 I 2.3200 J 2.1210
G02 X 30.3962 Y 18.7002 Z -1.0000 I -0.6731 J -0.6686
G02 X 30.4371 Y 18.6313 Z -1.0000 I -0.2921 J -0.2202
G03 X 30.4714 Y 18.5577 Z -1.0000 I 3.5982 J 1.6338
G03 X 30.4873 Y 18.5265 Z -1.0000 I 0.6713 J 0.3216
G02 X 30.5017 Y 18.4947 Z -1.0000 I -0.2319 J -0.1244
G02 X 30.5476 Y 18.3661 Z -1.0000 I -3.6717 J -1.3813
G03 X 30.5945 Y 18.2379 Z -1.0000 I 2.5205 J 0.8494
G03 X 30.6426 Y 18.1256 Z -1.0000 I 1.9785 J 0.7819
G02 X 30.8269 Y 17.7127 Z -1.0000 I -14.5239 J -6.7285
G02 X 30.9100 Y 17.5028 Z -1.0000 I -3.6659 J -1.5741
G02 X 31.1184 Y 16.8691 Z -1.0000 I -9.9902 J -3.6352
G02 X 31.2168 Y 16.4607 Z -1.0000 I -4.0446 J -1.1904
G02 X 31.2676 Y 16.1114 Z -1.0000 I -4.1438 J -0.7821
G02 X 31.2833 Y 15.8157 Z -1.0000 I -2.9531 J -0.3047
G03 X 31.2977 Y 15.7148 Z -1.0000 I 0.3686 J 0.0011
G03 X 31.3426 Y 15.6097 Z -1.0000 I 0.4460 J 0.1284
G02 X 31.4696 Y 15.3139 Z -1.0000 I -1.1473 J -0.6679
G02 X 31.5662 Y 14.8438 Z -1.0000 I -2.8310 J -0.8266
G03 X 31.5781 Y 14.7464 Z -1.0000 I 55.2251 J 6.6983
G03 X 31.5971 Y 14.5922 Z -1.0000 I 391.7009 J 48.2111
G02 X 31.6139 Y 14.4378 Z -1.0000 I -5.3415 J -0.6602
G02 X 31.6239 Y 14.3086 Z -1.0000 I -3.7398 J -0.3530
G03 X 31.6442 Y 14.1823 Z -1.0000 I 0.6419 J 0.0384
G03 X 31.6909 Y 14.0557 Z -1.0000 I 0.6916 J 0.1832
G02 X 31.8308 Y 13.6802 Z -1.0000 I -1.9822 J -0.9522
G02 X 31.8685 Y 13.4021 Z -1.0000 I -1.0410 J -0.2829
G02 X 31.8615 Y 13.2056 Z -1.0000 I -2.4648 J -0.0109
G02 X 31.8459 Y 13.1026 Z -1.0000 I -0.6926 J 0.0523
G03 X 31.8324 Y 13.0010 Z -1.0000 I 0.5395 J -0.1239
G03 X 31.8397 Y 12.9485 Z -1.0000 I 0.1481 J -0.0060
G02 X 31.8501 Y 12.8953 Z -1.0000 I -0.2011 J -0.0667
G02 X 31.8558 Y 12.6982 Z -1.0000 I -2.8042 J -0.1799
G02 X 31.8407 Y 12.5034 Z -1.0000 I -1.3692 J 0.0083
G02 X 31.8149 Y 12.4254 Z -1.0000 I -0.2393 J 0.0359
G02 X 31.7734 Y 12.3521 Z -1.0000 I -1.4373 J 0.7661
G02 X 31.7360 Y 12.2942 Z -1.0000 I -0.9367 J 0.5633
G03 X 31.6969 Y 12.2372 Z -1.0000 I 10.0236 J -6.9239
G03 X 31.6243 Y 12.1305 Z -1.0000 I 35.2772 J -24.0736
G02 X 31.4810 Y 11.9587 Z -1.0000 I -0.9333 J 0.6327
G02 X 31.3678 Y 11.8787 Z -1.0000 I -0.3031 J 0.3087
G03 X 31.2790 Y 11.8240 Z -1.0000 I 0.2358 J -0.4827
G03 X 31.1951 Y 11.7477 Z -1.0000 I 0.3839 J -0.5062
G02 X 30.9439 Y 11.5360 Z -1.0000 I -0.9505 J 0.8734
G02 X 30.7578 Y 11.4659 Z -1.0000 I -0.2563 J 0.3977
G03 X 30.6459 Y 11.4333 Z -1.0000 I 0.0648 J -0.4316
G03 X 30.5269 Y 11.3635 Z -1.0000 I 0.2474 J -0.5584
G02 X 30.2342 Y 11.1841 Z -1.0000 I -1.1048 J 1.4735
G02 X 30.0062 Y 11.1077 Z -1.0000 I -0.3985 J 0.8110
G03 X 29.7070 Y 11.0322 Z -1.0000 I 0.5067 J -2.6376
G03 X 29.6661 Y 11.0007 Z -1.0000 I 0.0226 J -0.0718
G01 X 29.6595 Y 10.9836 Z -1.0000
G03 X 29.6543 Y 10.9293 Z -1.0000 I 0.4061 J -0.0663
G02 X 29.6521 Y 10.8739 Z -1.0000 I -2.3041 J 0.0669
G02 X 29.6506 Y 10.8615 Z -1.0000 I -0.1022 J 0.0054
G02 X 29.6259 Y 10.7467 Z -1.0000 I -1.2148 J 0.2016
G02 X 29.6064 Y 10.6950 Z -1.0000 I -0.2637 J 0.0701
G03 X 29.5927 Y 10.6498 Z -1.0000 I 0.1259 J -0.0628
G03 X 29.5768 Y 10.4606 Z -1.0000 I 2.2578 J -0.2852
G03 X 29.5781 Y 10.2704 Z -1.0000 I 1.9455 J -0.0819
G03 X 29.5930 Y 10.1695 Z -1.0000 I 0.5584 J 0.0311
G02 X 29.6188 Y 10.0373 Z -1.0000 I -1.4299 J -0.3476
G02 X 29.6621 Y 9.7021 Z -1.0000 I -9.1454 J -1.3533
G02 X 29.6949 Y 9.3042 Z -1.0000 I -7.0575 J -0.7822
G02 X 29.7106 Y 8.8080 Z -1.0000 I -10.9612 J -0.5941
G03 X 29.7206 Y 8.3586 Z -1.0000 I 16.7686 J 0.1485
G03 X 29.7289 Y 8.2967 Z -1.0000 I 0.3222 J 0.0115
G02 X 29.7395 Y 8.2351 Z -1.0000 I -0.5328 J -0.1236
G02 X 29.7548 Y 8.0686 Z -1.0000 I -3.8273 J -0.4367
G03 X 29.7703 Y 7.9020 Z -1.0000 I 3.8067 J 0.2693
G03 X 29.7847 Y 7.8090 Z -1.0000 I 1.1745 J 0.1350
G02 X 29.8004 Y 7.7162 Z -1.0000 I -1.7218 J -0.3385
G02 X 29.8146 Y 7.5976 Z -1.0000 I -2.7862 J -0.3939
G03 X 29.8331 Y 7.4807 Z -1.0000 I 1.0144 J 0.1002
G03 X 29.8512 Y 7.4299 Z -1.0000 I 0.2055 J 0.0448
G02 X 29.8916 Y 7.3019 Z -1.0000 I -0.3624 J -0.1849
G02 X 29.9266 Y 6.8964 Z -1.0000 I -3.7058 J -0.5235
G03 X 29.9467 Y 6.5831 Z -1.0000 I 4.8256 J 0.1525
G03 X 29.9749 Y 6.3981 Z -1.0000 I 1.7023 J 0.1650
G02 X 30.0300 Y 6.0998 Z -1.0000 I -6.3349 J -1.3244
G02 X 30.1058 Y 5.5829 Z -1.0000 I -18.9626 J -3.0448
G03 X 30.1262 Y 5.4350 Z -1.0000 I 14.6109 J 1.9403
G03 X 30.1491 Y 5.2807 Z -1.0000 I 15.8379 J 2.2668
G02 X 30.1701 Y 5.1263 Z -1.0000 I -4.7502 J -0.7272
G02 X 30.1802 Y 5.0217 Z -1.0000 I -2.1668 J -0.2601
G03 X 30.1904 Y 4.9174 Z -1.0000 I 1.9767 J 0.1406
G03 X 30.1985 Y 4.8738 Z -1.0000 I 0.3575 J 0.0445
G02 X 30.2116 Y 4.7909 Z -1.0000 I -0.4446 J -0.1123
G02 X 30.2289 Y 4.4015 Z -1.0000 I -9.8959 J -0.6362
G03 X 30.2369 Y 4.1828 Z -1.0000 I 9.2352 J 0.2296
G01 X 30.2400 Y 4.1730 Z -1.0000
G01 X 30.2420 Y 4.1633 Z -1.0000
G02 X 30.2277 Y 4.0903 Z -1.0000 I -0.8093 J 0.1196
G03 X 30.2144 Y 4.0161 Z -1.0000 I 0.6117 J -0.1479
G03 X 30.2118 Y 3.9549 Z -1.0000 I 0.4142 J -0.0489
G02 X 30.2127 Y 3.8933 Z -1.0000 I -2.1691 J -0.0639
G02 X 30.2120 Y 3.7307 Z -1.0000 I -16.0466 J -0.0168
G02 X 30.1650 Y 3.5735 Z -1.0000 I -0.2959 J 0.0028
G02 X 30.0824 Y 3.5292 Z -1.0000 I -0.0812 J 0.0522
G03 X 29.9947 Y 3.5287 Z -1.0000 I -0.0325 J -2.1548
G03 X 29.8197 Y 3.5224 Z -1.0000 I 0.2132 J -8.3123
G03 X 29.6949 Y 3.4573 Z -1.0000 I 0.0078 J -0.1671
G03 X 29.6257 Y 3.2704 Z -1.0000 I 0.2658 J -0.2045
G02 X 29.6142 Y 3.1543 Z -1.0000 I -1.2626 J 0.0666
G02 X 29.6009 Y 3.1001 Z -1.0000 I -0.2850 J 0.0416
G03 X 29.5899 Y 3.0456 Z -1.0000 I 0.1857 J -0.0655
G03 X 29.5807 Y 2.7425 Z -1.0000 I 5.8646 J -0.3301
G03 X 29.5892 Y 2.4387 Z -1.0000 I 4.7095 J -0.0208
G03 X 29.6103 Y 2.2529 Z -1.0000 I 1.7646 J 0.1062
G02 X 29.6414 Y 1.9955 Z -1.0000 I -2.8119 J -0.4703
G02 X 29.6629 Y 1.5500 Z -1.0000 I -8.4135 J -0.6299
G03 X 29.6777 Y 1.2053 Z -1.0000 I 8.2058 J 0.1789
G03 X 29.6944 Y 1.0566 Z -1.0000 I 1.5453 J 0.0988
G02 X 29.7171 Y 0.8533 Z -1.0000 I -2.0532 J -0.3324
G02 X 29.7489 Y 0.1810 Z -1.0000 I -22.4661 J -1.3976
G03 X 29.7642 Y -0.0762 Z -1.0000 I 4.7131 J 0.1509
G03 X 29.7742 Y -0.1113 Z -1.0000 I 0.0951 J 0.0083
G02 X 29.7899 Y -0.1449 Z -1.0000 I -0.4904 J -0.2490
G01 X 29.7912 Y -0.1514 Z -1.0000
G01 X 29.7878 Y -0.1548 Z -1.0000
G02 X 28.2750 Y -0.1582 Z -1.0000 I -1.5129 J 333.7706
G02 X 26.7816 Y -0.1325 Z -1.0000 I 0.0000 J 43.4012
G01 X 26.7525 Y -0.1058 Z -1.0000
G03 X 26.7461 Y -0.0534 Z -1.0000 I -267.2698 J -32.4464
G03 X 26.7324 Y 0.0586 Z -1.0000 I -99.6297 J -12.1150
G02 X 26.7241 Y 0.1709 Z -1.0000 I 1.1724 J 0.1431
G02 X 26.7224 Y 0.4471 Z -1.0000 I 7.0044 J 0.1828
G03 X 26.7210 Y 0.7235 Z -1.0000 I -7.6660 J 0.1008
G03 X 26.7111 Y 0.9333 Z -1.0000 I -4.3357 J -0.0993
G02 X 26.6794 Y 1.4240 Z -1.0000 I 37.6117 J 2.6787
G02 X 26.6656 Y 1.7164 Z -1.0000 I 13.3452 J 0.7757
G03 X 26.6549 Y 1.8946 Z -1.0000 I -3.8453 J -0.1407
G03 X 26.6471 Y 1.9384 Z -1.0000 I -0.2342 J -0.0195
G02 X 26.6378 Y 1.9821 Z -1.0000 I 0.3511 J 0.0976
G02 X 26.6222 Y 2.1049 Z -1.0000 I 2.6949 J 0.4033
G03 X 26.5765 Y 2.5013 Z -1.0000 I -17.0030 J -1.7595
G03 X 26.5556 Y 2.6291 Z -1.0000 I -1.7868 J -0.2272
G02 X 26.5394 Y 2.7219 Z -1.0000 I 1.7854 J 0.3591
G02 X 26.5287 Y 2.8110 Z -1.0000 I 1.6297 J 0.2408
G03 X 26.5169 Y 2.8984 Z -1.0000 I -1.0782 J -0.1008
G01 X 26.5119 Y 2.9058 Z -1.0000
G01 X 26.5027 Y 2.9079 Z -1.0000
G03 X 26.3744 Y 2.8923 Z -1.0000 I 0.2779 J -2.8216
G02 X 25.5466 Y 2.8484 Z -1.0000 I -0.6537 J 4.5016
G02 X 25.3527 Y 2.9313 Z -1.0000 I 0.0113 J 0.2947
G01 X 25.3403 Y 2.9580 Z -1.0000
G02 X 25.3422 Y 3.0977 Z -1.0000 I 0.9172 J 0.0576
G03 X 25.3360 Y 3.1288 Z -1.0000 I -0.0557 J 0.0050
G01 X 25.3260 Y 3.1286 Z -1.0000
G03 X 25.3059 Y 3.0785 Z -1.0000 I 0.3958 J -0.1876
G03 X 25.3023 Y 3.0569 Z -1.0000 I 0.0685 J -0.0227
G02 X 25.2998 Y 3.0348 Z -1.0000 I -0.1118 J 0.0016
G02 X 25.2581 Y 2.8534 Z -1.0000 I -7.6236 J 1.6544
G03 X 25.1778 Y 2.4885 Z -1.0000 I 8.7539 J -2.1189
G03 X 25.1046 Y 2.0803 Z -1.0000 I 10.8843 J -2.1611
G02 X 25.0660 Y 1.8461 Z -1.0000 I -24.5414 J 3.9265
G02 X 25.0428 Y 1.7164 Z -1.0000 I -7.5393 J 1.2802
G03 X 24.9858 Y 1.4005 Z -1.0000 I 22.6746 J -4.2531
G03 X 24.9446 Y 1.1491 Z -1.0000 I 14.2370 J -2.4659
G02 X 24.9325 Y 1.0816 Z -1.0000 I -1.5364 J 0.2388
G02 X 24.9074 Y 0.9641 Z -1.0000 I -4.6209 J 0.9288
G03 X 24.8609 Y 0.7402 Z -1.0000 I 5.8232 J -1.3259
G03 X 24.8020 Y 0.4030 Z -1.0000 I 13.1322 J -2.4654
G02 X 24.7840 Y 0.2920 Z -1.0000 I -27.2001 J 4.3663
G02 X 24.7716 Y 0.2180 Z -1.0000 I -18.6224 J 3.0673
G03 X 24.7274 Y -0.0750 Z -1.0000 I 8.4002 J -1.4172
G03 X 24.7223 Y -0.1527 Z -1.0000 I 0.5831 J -0.0776
G01 X 24.7196 Y -0.1554 Z -1.0000
G02 X 23.3502 Y -0.1582 Z -1.0000 I -1.3693 J 338.8109
G02 X 22.0278 Y -0.1119 Z -1.0000 I -0.0000 J 18.9370
G01 X 21.9849 Y -0.0626 Z -1.0000
G01 X 21.9850 Y -0.0626 Z -1.0000
G00 Z 5.0000

(End cutting path id: path91649)


(Start cutting path id: path91649)
(Change tool to Default tool)

G00 Z 5.0000
G00 X 20.9901 Y 4.2355

G01 Z -1.0000 F 100.0000(Penetrate)
G03 X 20.9892 Y 4.2986 Z -1.0000 I -0.1122 J 0.0301 F 3500.0000
G03 X 20.9604 Y 4.3356 Z -1.0000 I -0.0614 J -0.0182
G02 X 20.9267 Y 4.3617 Z -1.0000 I 0.0863 J 0.1461
G02 X 20.8929 Y 4.4030 Z -1.0000 I 0.1879 J 0.1879
G02 X 20.8059 Y 4.5703 Z -1.0000 I 0.7506 J 0.4967
G01 X 20.8194 Y 4.5901 Z -1.0000
G01 X 20.8133 Y 4.6197 Z -1.0000
G02 X 20.7852 Y 4.7478 Z -1.0000 I 0.4172 J 0.1586
G02 X 20.7876 Y 4.9936 Z -1.0000 I 1.5658 J 0.1075
G03 X 20.7938 Y 5.1388 Z -1.0000 I -1.5762 J 0.1396
G03 X 20.7867 Y 5.2622 Z -1.0000 I -1.1557 J -0.0041
G03 X 20.7566 Y 5.3931 Z -1.0000 I -0.5805 J -0.0648
G01 X 20.7386 Y 5.3977 Z -1.0000
G03 X 20.7178 Y 5.3739 Z -1.0000 I 0.0909 J -0.1005
G01 X 20.7141 Y 5.3621 Z -1.0000
G01 X 20.7117 Y 5.3492 Z -1.0000
G02 X 20.6951 Y 5.3123 Z -1.0000 I -0.3259 J 0.1243
G03 X 20.6849 Y 5.2756 Z -1.0000 I 0.0812 J -0.0423
G03 X 20.6907 Y 5.2409 Z -1.0000 I 0.0777 J -0.0048
G02 X 20.7038 Y 5.1647 Z -1.0000 I -0.1622 J -0.0672
G02 X 20.6763 Y 4.9628 Z -1.0000 I -1.2162 J 0.0627
G03 X 20.6734 Y 4.9102 Z -1.0000 I 0.1587 J -0.0352
G03 X 20.6949 Y 4.7901 Z -1.0000 I 0.8626 J 0.0928
G02 X 20.7214 Y 4.6696 Z -1.0000 I -1.8983 J -0.4804
G02 X 20.7335 Y 4.5839 Z -1.0000 I -0.9440 J -0.1765
G03 X 20.7652 Y 4.4626 Z -1.0000 I 0.3892 J 0.0370
G03 X 20.8381 Y 4.3476 Z -1.0000 I 0.4217 J 0.1867
G02 X 20.8701 Y 4.3074 Z -1.0000 I -0.4737 J -0.4098
G02 X 20.8937 Y 4.2715 Z -1.0000 I -0.3568 J -0.2608
G03 X 20.9350 Y 4.2246 Z -1.0000 I 0.1433 J 0.0847
G03 X 20.9748 Y 4.2086 Z -1.0000 I 0.0481 J 0.0620
G01 X 20.9802 Y 4.2113 Z -1.0000
G03 X 20.9901 Y 4.2355 Z -1.0000 I -0.0898 J 0.0509
G01 X 20.9901 Y 4.2355 Z -1.0000
G00 Z 5.0000

(End cutting path id: path91649)


(Start cutting path id: path91649)
(Change tool to Default tool)

G00 Z 5.0000
G00 X 21.0891 Y 6.7268

G01 Z -1.0000 F 100.0000(Penetrate)
G03 X 21.1457 Y 7.4220 Z -1.0000 I -8.6805 J 1.0572 F 3500.0000
G03 X 21.1199 Y 7.4707 Z -1.0000 I -0.0545 J 0.0023
G01 X 21.1097 Y 7.4716 Z -1.0000
G03 X 20.9910 Y 7.4211 Z -1.0000 I 0.6630 J -1.7233
G03 X 20.9002 Y 7.3495 Z -1.0000 I 0.1070 J -0.2289
G03 X 20.8804 Y 7.2820 Z -1.0000 I 0.0731 J -0.0581
G03 X 20.9116 Y 7.0679 Z -1.0000 I 2.4150 J 0.2424
G03 X 20.9309 Y 7.0183 Z -1.0000 I 0.1440 J 0.0276
G01 X 20.9396 Y 7.0109 Z -1.0000
G01 X 20.9577 Y 7.0074 Z -1.0000
G02 X 21.0124 Y 6.9849 Z -1.0000 I -0.0000 J -0.0776
G02 X 21.0349 Y 6.9308 Z -1.0000 I -0.0537 J -0.0541
G02 X 21.0310 Y 6.9090 Z -1.0000 I -0.0630 J -0.0000
G02 X 21.0155 Y 6.8782 Z -1.0000 I -0.1417 J 0.0522
G01 X 21.0083 Y 6.8474 Z -1.0000
G03 X 21.0301 Y 6.7615 Z -1.0000 I 0.3559 J 0.0446
G03 X 21.0669 Y 6.6784 Z -1.0000 I 0.9543 J 0.3728
G01 X 21.0734 Y 6.6744 Z -1.0000
G01 X 21.0790 Y 6.6785 Z -1.0000
G03 X 21.0891 Y 6.7268 Z -1.0000 I -0.2794 J 0.0835
G01 X 21.0891 Y 6.7268 Z -1.0000
G00 Z 5.0000

(End cutting path id: path91649)


(Start cutting path id: path91649)
(Change tool to Default tool)

G00 Z 5.0000
G00 X 19.2758 Y 8.2628

G01 Z -1.0000 F 100.0000(Penetrate)
G01 X 19.2611 Y 8.3112 Z -1.0000 F 3500.0000
G03 X 19.1903 Y 8.3017 Z -1.0000 I -0.0278 J -0.0613
G01 X 19.1816 Y 8.2859 Z -1.0000
G01 X 19.1862 Y 8.2699 Z -1.0000
G03 X 19.2374 Y 8.2433 Z -1.0000 I 0.0570 J 0.0473
G01 X 19.2758 Y 8.2629 Z -1.0000
G01 X 19.2758 Y 8.2628 Z -1.0000
G00 Z 5.0000

(End cutting path id: path91649)


(Start cutting path id: path91649)
(Change tool to Default tool)

G00 Z 5.0000
G00 X 29.5848 Y 10.9083

G01 Z -1.0000 F 100.0000(Penetrate)
G03 X 29.5814 Y 10.9569 Z -1.0000 I -0.1389 J 0.0147 F 3500.0000
G01 X 29.5710 Y 10.9635 Z -1.0000
G01 X 29.5590 Y 10.9527 Z -1.0000
G03 X 29.5506 Y 10.8981 Z -1.0000 I 0.1774 J -0.0553
G01 X 29.5665 Y 10.8863 Z -1.0000
G01 X 29.5848 Y 10.9083 Z -1.0000
G01 X 29.5848 Y 10.9083 Z -1.0000
G00 Z 5.0000

(End cutting path id: path91649)


(Start cutting path id: path91649)
(Change tool to Default tool)

G00 Z 5.0000
G00 X 38.5767 Y 21.4561

G01 Z -1.0000 F 100.0000(Penetrate)
G02 X 38.5732 Y 21.4743 Z -1.0000 I 0.0501 J 0.0191 F 3500.0000
G01 X 38.5763 Y 21.4820 Z -1.0000
G01 X 38.5961 Y 21.4830 Z -1.0000
G01 X 38.6095 Y 21.4548 Z -1.0000
G01 X 38.5963 Y 21.4421 Z -1.0000
G01 X 38.5767 Y 21.4561 Z -1.0000
G01 X 38.5767 Y 21.4561 Z -1.0000
G00 Z 5.0000

(End cutting path id: path91649)


(Start cutting path id: path91649)
(Change tool to Default tool)

G00 Z 5.0000
G00 X 28.8092 Y 26.8450

G01 Z -1.0000 F 100.0000(Penetrate)
G01 X 28.7996 Y 26.8560 Z -1.0000 F 3500.0000
G01 X 28.7897 Y 26.8558 Z -1.0000
G01 X 28.7866 Y 26.8481 Z -1.0000
G01 X 28.7941 Y 26.8376 Z -1.0000
G01 X 28.8060 Y 26.8369 Z -1.0000
G01 X 28.8092 Y 26.8450 Z -1.0000
G01 X 28.8092 Y 26.8450 Z -1.0000
G00 Z 5.0000

(End cutting path id: path91649)



(Footer)
M5
G00 X0.0000 Y0.0000
M2
(Using default footer. To add your own footer create file "footer" in the output dir.)
(end)
%