%
(Header)
(Generated by gcodetools from Inkscape.)
(Using default header. To add your own header create file "header" in the output dir.)
M3
(Header end.)
G21 (All units in mm)

(Start cutting path id: path92507)
(Change tool to Default tool)

G00 Z 5.0000
G00 X 18.5511 Y 2.9678

G01 Z -1.0000 F 100.0000(Penetrate)
G03 X 17.6614 Y 3.1997 Z -1.0000 I -0.9345 J -1.7630 F 3500.0000
G03 X 17.2607 Y 2.9968 Z -1.0000 I -0.0107 J -0.4761
G02 X 17.1311 Y 2.9382 Z -1.0000 I -0.1142 J 0.0800
G02 X 17.0258 Y 3.0229 Z -1.0000 I 0.0139 J 0.1251
G02 X 16.9637 Y 3.2669 Z -1.0000 I 1.5274 J 0.5184
G02 X 16.9680 Y 3.3572 Z -1.0000 I 0.2050 J 0.0354
G01 X 16.9436 Y 3.3935 Z -1.0000
G03 X 16.8063 Y 3.3760 Z -1.0000 I -0.0332 J -0.2864
G02 X 16.1645 Y 3.3155 Z -1.0000 I -0.4280 J 1.1065
G02 X 15.6703 Y 3.5842 Z -1.0000 I 0.1628 J 0.8882
G02 X 15.5618 Y 3.9229 Z -1.0000 I 0.2999 J 0.2828
G02 X 15.7497 Y 4.1647 Z -1.0000 I 0.3028 J -0.0414
G02 X 16.2110 Y 4.3094 Z -1.0000 I 1.1182 J -2.7557
G02 X 16.5876 Y 4.3544 Z -1.0000 I 0.4043 J -1.7849
G03 X 16.9496 Y 4.3998 Z -1.0000 I -0.0252 J 1.6674
G03 X 17.0345 Y 4.4611 Z -1.0000 I -0.0319 J 0.1334
G03 X 17.0505 Y 4.5650 Z -1.0000 I -0.1147 J 0.0709
G03 X 16.8964 Y 5.0081 Z -1.0000 I -2.6024 J -0.6570
G02 X 16.0379 Y 7.1246 Z -1.0000 I 28.2025 J 12.6720
G02 X 15.3910 Y 9.1527 Z -1.0000 I 25.2446 J 9.1693
G02 X 15.0670 Y 11.5444 Z -1.0000 I 8.6759 J 2.3929
G02 X 15.3906 Y 12.1616 Z -1.0000 I 0.7503 J 0.0001
G03 X 15.4727 Y 12.2372 Z -1.0000 I -0.2283 J 0.3303
G03 X 15.7139 Y 12.5557 Z -1.0000 I -3.9814 J 3.2662
G03 X 15.8531 Y 12.8553 Z -1.0000 I -0.7803 J 0.5447
G03 X 15.8134 Y 12.9290 Z -1.0000 I -0.0590 J 0.0157
G01 X 15.7936 Y 13.0054 Z -1.0000
G02 X 16.9748 Y 14.2000 Z -1.0000 I 15.7315 J -14.3734
G03 X 17.2637 Y 14.5304 Z -1.0000 I -1.4912 J 1.5955
G03 X 17.3635 Y 14.7470 Z -1.0000 I -0.5256 J 0.3736
G02 X 17.4470 Y 14.9571 Z -1.0000 I 0.8301 J -0.2083
G02 X 17.4980 Y 14.9869 Z -1.0000 I 0.0510 J -0.0286
G01 X 17.5381 Y 15.0220 Z -1.0000
G03 X 17.5909 Y 15.6641 Z -1.0000 I -5.8698 J 0.8053
G03 X 17.5664 Y 16.2993 Z -1.0000 I -4.8127 J 0.1326
G01 X 17.5198 Y 16.3413 Z -1.0000
G01 X 17.4762 Y 16.3795 Z -1.0000
G02 X 17.4828 Y 16.6173 Z -1.0000 I 0.7350 J 0.0986
G03 X 17.4644 Y 16.7899 Z -1.0000 I -0.2934 J 0.0561
G01 X 17.4011 Y 16.8101 Z -1.0000
G01 X 17.3427 Y 16.8311 Z -1.0000
G02 X 17.3358 Y 17.0030 Z -1.0000 I 0.2888 J 0.0977
G03 X 17.3490 Y 17.2352 Z -1.0000 I -0.5990 J 0.1504
G03 X 17.2989 Y 17.2790 Z -1.0000 I -0.0500 J -0.0067
G02 X 17.2251 Y 17.3113 Z -1.0000 I -0.0000 J 0.1004
G02 X 17.1928 Y 17.3941 Z -1.0000 I 0.0897 J 0.0828
G03 X 17.1711 Y 17.5040 Z -1.0000 I -0.2892 J 0.0000
G03 X 16.9323 Y 18.0277 Z -1.0000 I -7.0543 J -2.8995
G02 X 16.7307 Y 18.5471 Z -1.0000 I 2.6200 J 1.3159
G01 X 16.7760 Y 18.5813 Z -1.0000
G03 X 16.8471 Y 18.5763 Z -1.0000 I 0.0402 J 0.0650
G03 X 16.8802 Y 18.6272 Z -1.0000 I -0.0224 J 0.0509
G03 X 16.8426 Y 18.6999 Z -1.0000 I -0.0890 J 0.0000
G03 X 16.7240 Y 18.7375 Z -1.0000 I -0.1186 J -0.1680
G02 X 16.6044 Y 18.7743 Z -1.0000 I 0.0000 J 0.2127
G02 X 16.5677 Y 18.8437 Z -1.0000 I 0.0472 J 0.0694
G02 X 16.6101 Y 18.8980 Z -1.0000 I 0.0560 J 0.0000
G02 X 16.8021 Y 18.9023 Z -1.0000 I 0.1056 J -0.4219
G03 X 17.6142 Y 18.8015 Z -1.0000 I 1.0637 J 5.2475
G03 X 20.4744 Y 18.7296 Z -1.0000 I 3.0745 J 65.3710
G02 X 23.0015 Y 18.7031 Z -1.0000 I -0.5672 J -174.3520
G01 X 23.0089 Y 18.6847 Z -1.0000
G02 X 22.9656 Y 18.6623 Z -1.0000 I -0.0566 J 0.0566
G02 X 22.4039 Y 18.5832 Z -1.0000 I -1.7913 J 10.6753
G03 X 21.8469 Y 18.4955 Z -1.0000 I 0.7569 J -6.6203
G03 X 21.7800 Y 18.4577 Z -1.0000 I 0.0244 J -0.1212
G01 X 21.7916 Y 18.4311 Z -1.0000
G03 X 22.2450 Y 18.4533 Z -1.0000 I 0.0370 J 3.8849
G02 X 22.9678 Y 18.3598 Z -1.0000 I 0.1669 J -1.5505
G02 X 23.0210 Y 18.1573 Z -1.0000 I -0.0459 J -0.1203
G02 X 22.8813 Y 18.0425 Z -1.0000 I -0.3675 J 0.3050
G02 X 22.7464 Y 18.0083 Z -1.0000 I -0.1349 J 0.2486
G01 X 22.7052 Y 17.9628 Z -1.0000
G03 X 22.7627 Y 17.8410 Z -1.0000 I 0.1989 J 0.0194
G02 X 22.8490 Y 17.6699 Z -1.0000 I -0.2164 J -0.2164
G02 X 22.8095 Y 17.5284 Z -1.0000 I -0.1779 J -0.0266
G02 X 22.7030 Y 17.5028 Z -1.0000 I -0.0704 J 0.0584
G02 X 22.6624 Y 17.5915 Z -1.0000 I 0.0287 J 0.0668
G03 X 22.6678 Y 17.7555 Z -1.0000 I -0.2887 J 0.0916
G03 X 22.6112 Y 17.7999 Z -1.0000 I -0.0567 J -0.0139
G03 X 22.5526 Y 17.7671 Z -1.0000 I -0.0000 J -0.0687
G03 X 22.5527 Y 17.7046 Z -1.0000 I 0.0508 J -0.0312
G02 X 22.5558 Y 17.6291 Z -1.0000 I -0.0655 J -0.0405
G02 X 22.4807 Y 17.5636 Z -1.0000 I -0.1193 J 0.0609
G03 X 22.4412 Y 17.4940 Z -1.0000 I 0.0201 J -0.0574
G03 X 22.5322 Y 17.3120 Z -1.0000 I 0.3851 J 0.0788
G02 X 22.7128 Y 16.8909 Z -1.0000 I -0.5451 J -0.4830
G02 X 22.5768 Y 16.7886 Z -1.0000 I -0.1000 J -0.0085
G03 X 22.4600 Y 16.7789 Z -1.0000 I -0.0483 J -0.1259
G03 X 22.3067 Y 16.6295 Z -1.0000 I 0.2284 J -0.3878
G03 X 22.2530 Y 16.4332 Z -1.0000 I 0.3007 J -0.1878
G03 X 22.3142 Y 16.3175 Z -1.0000 I 0.1465 J 0.0035
G01 X 22.3175 Y 16.2861 Z -1.0000
G01 X 22.2751 Y 16.2749 Z -1.0000
G03 X 22.1134 Y 16.2854 Z -1.0000 I -0.1019 J -0.3180
G03 X 22.0335 Y 16.2309 Z -1.0000 I 0.0213 J -0.1170
G02 X 21.8733 Y 16.2078 Z -1.0000 I -0.0897 J 0.0555
G02 X 21.8046 Y 16.4363 Z -1.0000 I 0.1530 J 0.1705
G03 X 21.7792 Y 16.5609 Z -1.0000 I -0.1394 J 0.0364
G03 X 21.6574 Y 16.6264 Z -1.0000 I -0.1345 J -0.1041
G03 X 21.5019 Y 16.6004 Z -1.0000 I -0.0248 J -0.3295
G03 X 21.4643 Y 16.5432 Z -1.0000 I 0.0246 J -0.0572
G03 X 21.4938 Y 16.4751 Z -1.0000 I 0.0935 J 0.0000
G03 X 21.5685 Y 16.4455 Z -1.0000 I 0.0747 J 0.0796
G02 X 21.6632 Y 16.3224 Z -1.0000 I 0.0000 J -0.0980
G02 X 21.4643 Y 16.0530 Z -1.0000 I -0.4401 J 0.1168
G02 X 21.2950 Y 15.9933 Z -1.0000 I -0.2186 J 0.3501
G01 X 21.2560 Y 16.0279 Z -1.0000
G03 X 21.2238 Y 16.1008 Z -1.0000 I -0.0986 J 0.0000
G03 X 21.1406 Y 16.1330 Z -1.0000 I -0.0831 J -0.0913
G03 X 21.0847 Y 16.0921 Z -1.0000 I 0.0000 J -0.0587
G03 X 21.0882 Y 15.9690 Z -1.0000 I 0.1770 J -0.0566
G01 X 21.0601 Y 15.9453 Z -1.0000
G02 X 20.8389 Y 16.1173 Z -1.0000 I 0.5768 J 0.9699
G02 X 20.5605 Y 16.4435 Z -1.0000 I 1.9214 J 1.9215
G02 X 20.5267 Y 16.5478 Z -1.0000 I 0.1439 J 0.1043
G03 X 20.4910 Y 16.6022 Z -1.0000 I -0.0592 J 0.0000
G03 X 20.4139 Y 16.5965 Z -1.0000 I -0.0331 J -0.0767
G03 X 20.3890 Y 16.5157 Z -1.0000 I 0.0338 J -0.0547
G03 X 20.5700 Y 16.2463 Z -1.0000 I 0.8639 J 0.3849
G02 X 20.7496 Y 15.9668 Z -1.0000 I -0.6263 J -0.6000
G02 X 20.7262 Y 15.8533 Z -1.0000 I -0.0979 J -0.0389
G03 X 20.6733 Y 15.7317 Z -1.0000 I 0.1281 J -0.1281
G03 X 20.7153 Y 15.5462 Z -1.0000 I 0.3720 J -0.0133
G02 X 20.8107 Y 15.3488 Z -1.0000 I -3.1776 J -1.6578
G02 X 20.9290 Y 15.0671 Z -1.0000 I -6.3550 J -2.8356
G03 X 21.0797 Y 14.8701 Z -1.0000 I 0.4221 J 0.1665
G03 X 21.2188 Y 14.8508 Z -1.0000 I 0.0870 J 0.1165
G02 X 21.3050 Y 14.8268 Z -1.0000 I 0.0269 J -0.0701
G02 X 21.3216 Y 14.7185 Z -1.0000 I -0.0887 J -0.0690
G01 X 21.3530 Y 14.6890 Z -1.0000
G03 X 21.5161 Y 14.8046 Z -1.0000 I -0.2037 J 0.4603
G02 X 21.8866 Y 14.9106 Z -1.0000 I 0.2740 J -0.2575
G02 X 22.1224 Y 14.6437 Z -1.0000 I -0.0824 J -0.3105
G03 X 22.1997 Y 14.2003 Z -1.0000 I 6.1445 J 0.8421
G03 X 22.2585 Y 14.0015 Z -1.0000 I 1.2882 J 0.2729
G02 X 22.2585 Y 13.8969 Z -1.0000 I -0.1364 J -0.0523
G01 X 22.2125 Y 13.8814 Z -1.0000
G01 X 22.1625 Y 13.8706 Z -1.0000
G03 X 22.1538 Y 13.7943 Z -1.0000 I 0.0690 J -0.0465
G03 X 22.2473 Y 13.6783 Z -1.0000 I 0.2265 J 0.0869
G03 X 22.4004 Y 13.6326 Z -1.0000 I 0.1530 J 0.2333
G02 X 22.7501 Y 13.4574 Z -1.0000 I -0.0000 J -0.4367
G02 X 22.7309 Y 13.1906 Z -1.0000 I -0.1636 J -0.1224
G02 X 22.6103 Y 13.1419 Z -1.0000 I -0.1176 J 0.1176
G02 X 22.4853 Y 13.1950 Z -1.0000 I 0.0033 J 0.1814
G03 X 22.2808 Y 13.2761 Z -1.0000 I -0.1961 J -0.1961
G03 X 22.1936 Y 13.1862 Z -1.0000 I 0.0027 J -0.0899
G02 X 21.9823 Y 12.8538 Z -1.0000 I -0.3671 J 0.0000
G02 X 21.1845 Y 12.7132 Z -1.0000 I -0.6593 J 1.4065
G03 X 20.8897 Y 12.5703 Z -1.0000 I -0.0284 J -0.3168
G03 X 20.9174 Y 12.3042 Z -1.0000 I 0.1777 J -0.1160
G02 X 21.0246 Y 12.0004 Z -1.0000 I -0.2640 J -0.2640
G02 X 20.8699 Y 11.8614 Z -1.0000 I -0.1547 J 0.0166
G03 X 20.8106 Y 11.8140 Z -1.0000 I 0.0000 J -0.0608
G03 X 20.8357 Y 11.7095 Z -1.0000 I 0.1188 J -0.0267
G02 X 20.8373 Y 11.6001 Z -1.0000 I -0.0671 J -0.0557
G02 X 20.6661 Y 11.4920 Z -1.0000 I -0.2359 J 0.1839
G03 X 20.3704 Y 11.4263 Z -1.0000 I 64.2972 J -290.3086
G03 X 20.2855 Y 11.4073 Z -1.0000 I 5.6703 J -25.4791
G03 X 20.2049 Y 11.1535 Z -1.0000 I 0.0340 J -0.1505
G03 X 20.7212 Y 10.9238 Z -1.0000 I 0.5163 J 0.4653
G02 X 20.8064 Y 10.8957 Z -1.0000 I -0.0000 J -0.1432
G02 X 20.8269 Y 10.8457 Z -1.0000 I -0.0310 J -0.0419
G03 X 20.9003 Y 10.6155 Z -1.0000 I 0.2659 J -0.0420
G03 X 21.1579 Y 10.5071 Z -1.0000 I 0.2576 J 0.2519
G02 X 21.3934 Y 10.4607 Z -1.0000 I 0.0000 J -0.6213
G01 X 21.4122 Y 10.4029 Z -1.0000
G03 X 21.4049 Y 10.3305 Z -1.0000 I 0.0707 J -0.0437
G01 X 21.4505 Y 10.2987 Z -1.0000
G02 X 21.5258 Y 10.2632 Z -1.0000 I 0.0000 J -0.0976
G02 X 21.6009 Y 10.1164 Z -1.0000 I -0.2955 J -0.2437
G01 X 21.6344 Y 10.1080 Z -1.0000
G03 X 21.6729 Y 10.1945 Z -1.0000 I -0.1088 J 0.1003
G03 X 21.6898 Y 10.4547 Z -1.0000 I -4.4928 J 0.4212
G03 X 21.6850 Y 10.5331 Z -1.0000 I -0.4085 J 0.0146
G02 X 21.7482 Y 10.5994 Z -1.0000 I 0.0570 J 0.0090
G02 X 21.9460 Y 10.5046 Z -1.0000 I -0.0359 J -0.3285
G03 X 22.0506 Y 10.4807 Z -1.0000 I 0.0713 J 0.0713
G03 X 22.2435 Y 10.6088 Z -1.0000 I -0.1552 J 0.4430
G03 X 22.3452 Y 10.7801 Z -1.0000 I -0.3727 J 0.3373
G01 X 22.3172 Y 10.8196 Z -1.0000
G02 X 22.2592 Y 10.8602 Z -1.0000 I 0.0000 J 0.0618
G02 X 22.2601 Y 10.9759 Z -1.0000 I 0.1549 J 0.0566
G02 X 22.3446 Y 11.0965 Z -1.0000 I 0.2842 J -0.1091
G02 X 22.4398 Y 11.1322 Z -1.0000 I 0.0952 J -0.1095
G02 X 22.5050 Y 11.0776 Z -1.0000 I 0.0000 J -0.0662
G02 X 22.5589 Y 10.4649 Z -1.0000 I -3.4142 J -0.6093
G03 X 22.5960 Y 9.8653 Z -1.0000 I 4.7896 J -0.0047
G01 X 22.6364 Y 9.8460 Z -1.0000
G03 X 22.6830 Y 9.9119 Z -1.0000 I -0.0542 J 0.0877
G03 X 22.7145 Y 10.2068 Z -1.0000 I -1.3620 J 0.2949
G02 X 22.7548 Y 10.4471 Z -1.0000 I 0.7373 J -0.0000
G01 X 22.8034 Y 10.4645 Z -1.0000
G03 X 22.8905 Y 10.4529 Z -1.0000 I 0.0564 J 0.0913
G03 X 23.0807 Y 10.5474 Z -1.0000 I -0.1792 J 0.5995
G03 X 23.1928 Y 10.7057 Z -1.0000 I -0.1800 J 0.2461
G03 X 23.1816 Y 10.8827 Z -1.0000 I -0.2442 J 0.0734
G02 X 23.0723 Y 11.3516 Z -1.0000 I 1.1703 J 0.5199
G02 X 23.1603 Y 11.4177 Z -1.0000 I 0.0668 J 0.0027
G02 X 23.2292 Y 11.3535 Z -1.0000 I -0.0359 J -0.1077
G02 X 23.2966 Y 11.0896 Z -1.0000 I -0.8771 J -0.3646
G03 X 23.3828 Y 10.9476 Z -1.0000 I 0.1943 J 0.0207
G01 X 23.4548 Y 10.9846 Z -1.0000
G03 X 23.3601 Y 11.8112 Z -1.0000 I -2.7742 J 0.1008
G03 X 23.1259 Y 12.1986 Z -1.0000 I -0.7927 J -0.2147
G02 X 22.8611 Y 12.5021 Z -1.0000 I 1.3011 J 1.4025
G02 X 22.8187 Y 12.6364 Z -1.0000 I 0.1913 J 0.1343
G01 X 22.8698 Y 12.6720 Z -1.0000
G02 X 23.0923 Y 12.5356 Z -1.0000 I -0.2301 J -0.6247
G03 X 23.3716 Y 12.3412 Z -1.0000 I 0.8334 J 0.8993
G03 X 23.4680 Y 12.3452 Z -1.0000 I 0.0446 J 0.0880
G03 X 23.5039 Y 12.4090 Z -1.0000 I -0.0397 J 0.0643
G03 X 23.4690 Y 12.4735 Z -1.0000 I -0.0761 J 0.0006
G02 X 23.3902 Y 12.5558 Z -1.0000 I 0.1317 J 0.2048
G02 X 23.2946 Y 12.7730 Z -1.0000 I 0.9145 J 0.5325
G02 X 23.3291 Y 12.9282 Z -1.0000 I 0.1523 J 0.0475
G02 X 23.5088 Y 13.0075 Z -1.0000 I 0.1797 J -0.1642
G02 X 23.6134 Y 12.9457 Z -1.0000 I -0.0000 J -0.1195
G02 X 23.5939 Y 12.8532 Z -1.0000 I -0.0634 J -0.0350
G03 X 23.5020 Y 12.7023 Z -1.0000 I 0.1476 J -0.1934
G03 X 23.5480 Y 12.5943 Z -1.0000 I 0.1057 J -0.0188
G03 X 23.7122 Y 12.5156 Z -1.0000 I 0.3555 J 0.5313
G03 X 23.8866 Y 12.4881 Z -1.0000 I 0.1796 J 0.5728
G02 X 24.0211 Y 12.4391 Z -1.0000 I -0.0019 J -0.2143
G02 X 24.0689 Y 12.3377 Z -1.0000 I -0.0837 J -0.1014
G03 X 24.1003 Y 12.2019 Z -1.0000 I 0.3091 J 0.0000
G03 X 24.2114 Y 12.0463 Z -1.0000 I 0.5220 J 0.2554
G02 X 24.4727 Y 11.6016 Z -1.0000 I -0.7248 J -0.7248
G02 X 24.3948 Y 11.4008 Z -1.0000 I -0.1718 J -0.0488
G03 X 24.3288 Y 11.3173 Z -1.0000 I 0.0817 J -0.1323
G03 X 24.2283 Y 10.8972 Z -1.0000 I 2.4354 J -0.8047
G02 X 23.9606 Y 10.1306 Z -1.0000 I -2.1762 J 0.3300
G02 X 23.7381 Y 10.0440 Z -1.0000 I -0.1649 J 0.0948
G03 X 23.6238 Y 9.9568 Z -1.0000 I -0.0266 J -0.0837
G03 X 23.7564 Y 9.5978 Z -1.0000 I 0.6211 J 0.0254
G02 X 23.9032 Y 9.3117 Z -1.0000 I -0.6613 J -0.5202
G02 X 23.9647 Y 8.8782 Z -1.0000 I -1.4972 J -0.4335
G03 X 24.0109 Y 8.4696 Z -1.0000 I 1.8297 J 0.0000
G03 X 24.0689 Y 8.4234 Z -1.0000 I 0.0580 J 0.0133
G03 X 24.1352 Y 8.4616 Z -1.0000 I -0.0000 J 0.0767
G03 X 24.1747 Y 8.6057 Z -1.0000 I -0.2528 J 0.1467
G02 X 24.2029 Y 8.7796 Z -1.0000 I 0.5817 J -0.0051
G02 X 24.2842 Y 8.9443 Z -1.0000 I 0.6017 J -0.1946
G02 X 24.3953 Y 8.8970 Z -1.0000 I 0.0507 J -0.0350
G02 X 24.0091 Y 7.5889 Z -1.0000 I -7.7056 J 1.5635
G02 X 23.6918 Y 7.0259 Z -1.0000 I -2.1658 J 0.8497
G02 X 23.5798 Y 7.0271 Z -1.0000 I -0.0556 J 0.0425
G03 X 23.4822 Y 7.0934 Z -1.0000 I -0.1419 J -0.1038
G01 X 23.4422 Y 7.0629 Z -1.0000
G01 X 23.4046 Y 7.0276 Z -1.0000
G02 X 23.3296 Y 7.0690 Z -1.0000 I 0.0053 J 0.0984
G01 X 23.2898 Y 7.0640 Z -1.0000
G03 X 23.2804 Y 6.9415 Z -1.0000 I 0.1994 J -0.0770
G02 X 23.2622 Y 6.7510 Z -1.0000 I -0.3067 J -0.0668
G02 X 23.1846 Y 6.7183 Z -1.0000 I -0.0558 J 0.0239
G03 X 23.0828 Y 6.6976 Z -1.0000 I -0.0346 J -0.0903
G03 X 23.0271 Y 6.5662 Z -1.0000 I 0.1267 J -0.1313
G02 X 22.9699 Y 6.3956 Z -1.0000 I -0.2831 J -0.0000
G02 X 22.8159 Y 6.2867 Z -1.0000 I -0.2479 J 0.1873
G03 X 22.6669 Y 6.1818 Z -1.0000 I 0.0915 J -0.2884
G03 X 22.6336 Y 6.0476 Z -1.0000 I 0.1383 J -0.1055
G02 X 22.6043 Y 5.9240 Z -1.0000 I -0.1615 J -0.0270
G02 X 22.5061 Y 5.8732 Z -1.0000 I -0.1000 J 0.0731
G03 X 22.4010 Y 5.8179 Z -1.0000 I 0.0019 J -0.1313
G03 X 22.3381 Y 5.6365 Z -1.0000 I 0.2800 J -0.1987
G03 X 22.3650 Y 5.4389 Z -1.0000 I 0.5382 J -0.0271
G03 X 22.4162 Y 5.4021 Z -1.0000 I 0.0512 J 0.0171
G03 X 22.4751 Y 5.4331 Z -1.0000 I 0.0000 J 0.0714
G03 X 22.5062 Y 5.5333 Z -1.0000 I -0.1461 J 0.1002
G02 X 22.5444 Y 5.6433 Z -1.0000 I 0.1772 J -0.0000
G02 X 22.7116 Y 5.7928 Z -1.0000 I 0.5153 J -0.4080
G03 X 22.8497 Y 5.9436 Z -1.0000 I -0.2023 J 0.3239
G03 X 22.8567 Y 6.0783 Z -1.0000 I -0.1480 J 0.0752
G02 X 22.8550 Y 6.1953 Z -1.0000 I 0.1586 J 0.0608
G02 X 22.9117 Y 6.2355 Z -1.0000 I 0.0567 J -0.0199
G02 X 22.9935 Y 6.2001 Z -1.0000 I 0.0000 J -0.1123
G02 X 23.0341 Y 6.1053 Z -1.0000 I -0.1096 J -0.1030
G01 X 23.0642 Y 6.0939 Z -1.0000
G03 X 23.1625 Y 6.2355 Z -1.0000 I -0.3605 J 0.3553
G02 X 23.4896 Y 6.7190 Z -1.0000 I 1.6730 J -0.7793
G02 X 23.6181 Y 6.7211 Z -1.0000 I 0.0652 J -0.0612
G02 X 23.6696 Y 6.4767 Z -1.0000 I -0.1617 J -0.1617
G02 X 22.4222 Y 3.6375 Z -1.0000 I -32.8738 J 12.7495
G02 X 22.1212 Y 3.3523 Z -1.0000 I -0.5361 J 0.2643
G02 X 20.8392 Y 2.9602 Z -1.0000 I -2.4577 J 5.7433
G02 X 19.1943 Y 2.8067 Z -1.0000 I -1.6164 J 8.4350
G02 X 18.5512 Y 2.9678 Z -1.0000 I 0.0046 J 1.3831
G01 X 18.5511 Y 2.9678 Z -1.0000
G00 Z 5.0000

(End cutting path id: path92507)


(Start cutting path id: path92507)
(Change tool to Default tool)

G00 Z 5.0000
G00 X 21.7083 Y 7.1158

G01 Z -1.0000 F 100.0000(Penetrate)
G03 X 21.6921 Y 7.1927 Z -1.0000 I -0.0676 J 0.0259 F 3500.0000
G03 X 21.6159 Y 7.2091 Z -1.0000 I -0.0507 J -0.0503
G03 X 21.5230 Y 7.1319 Z -1.0000 I 0.0674 J -0.1755
G03 X 21.5231 Y 7.0581 Z -1.0000 I 0.0600 J -0.0368
G03 X 21.6115 Y 7.0251 Z -1.0000 I 0.0655 J 0.0405
G03 X 21.7083 Y 7.1158 Z -1.0000 I -0.0453 J 0.1452
G01 X 21.7083 Y 7.1158 Z -1.0000
G00 Z 5.0000

(End cutting path id: path92507)


(Start cutting path id: path92507)
(Change tool to Default tool)

G00 Z 5.0000
G00 X 22.6996 Y 6.6408

G01 Z -1.0000 F 100.0000(Penetrate)
G03 X 22.7584 Y 6.7299 Z -1.0000 I -0.0696 J 0.1099 F 3500.0000
G03 X 22.7256 Y 6.8017 Z -1.0000 I -0.0701 J 0.0113
G03 X 22.5070 Y 6.8132 Z -1.0000 I -0.1198 J -0.1939
G03 X 22.4019 Y 6.6461 Z -1.0000 I 0.0803 J -0.1671
G03 X 22.4703 Y 6.5765 Z -1.0000 I 0.0696 J 0.0000
G03 X 22.6996 Y 6.6408 Z -1.0000 I 0.0074 J 0.4145
G01 X 22.6996 Y 6.6408 Z -1.0000
G00 Z 5.0000

(End cutting path id: path92507)


(Start cutting path id: path92507)
(Change tool to Default tool)

G00 Z 5.0000
G00 X 23.0982 Y 7.6095

G01 Z -1.0000 F 100.0000(Penetrate)
G01 X 23.0658 Y 7.6161 Z -1.0000 F 3500.0000
G03 X 23.0353 Y 7.5465 Z -1.0000 I 0.0739 J -0.0739
G03 X 23.0576 Y 7.4164 Z -1.0000 I 0.3152 J -0.0129
G01 X 23.0900 Y 7.4098 Z -1.0000
G03 X 23.1205 Y 7.4794 Z -1.0000 I -0.0739 J 0.0739
G03 X 23.0982 Y 7.6095 Z -1.0000 I -0.3148 J 0.0130
G01 X 23.0982 Y 7.6095 Z -1.0000
G00 Z 5.0000

(End cutting path id: path92507)


(Start cutting path id: path92507)
(Change tool to Default tool)

G00 Z 5.0000
G00 X 23.3066 Y 8.1304

G01 Z -1.0000 F 100.0000(Penetrate)
G01 X 23.2741 Y 8.1370 Z -1.0000 F 3500.0000
G03 X 23.2436 Y 8.0674 Z -1.0000 I 0.0739 J -0.0739
G03 X 23.2659 Y 7.9373 Z -1.0000 I 0.3152 J -0.0129
G01 X 23.2984 Y 7.9307 Z -1.0000
G03 X 23.3289 Y 8.0003 Z -1.0000 I -0.0739 J 0.0739
G03 X 23.3066 Y 8.1304 Z -1.0000 I -0.3148 J 0.0130
G01 X 23.3066 Y 8.1304 Z -1.0000
G00 Z 5.0000

(End cutting path id: path92507)


(Start cutting path id: path92507)
(Change tool to Default tool)

G00 Z 5.0000
G00 X 23.6521 Y 8.3192

G01 Z -1.0000 F 100.0000(Penetrate)
G03 X 23.6340 Y 8.4053 Z -1.0000 I -0.2133 J -0.0000 F 3500.0000
G01 X 23.6062 Y 8.4234 Z -1.0000
G03 X 23.5686 Y 8.4084 Z -1.0000 I -0.0000 J -0.0548
G03 X 23.4959 Y 8.3192 Z -1.0000 I 0.3042 J -0.3221
G03 X 23.4909 Y 8.2482 Z -1.0000 I 0.0650 J -0.0402
G03 X 23.5418 Y 8.2150 Z -1.0000 I 0.0509 J 0.0224
G03 X 23.6208 Y 8.2464 Z -1.0000 I -0.0000 J 0.1150
G03 X 23.6521 Y 8.3192 Z -1.0000 I -0.0687 J 0.0728
G01 X 23.6521 Y 8.3192 Z -1.0000
G00 Z 5.0000

(End cutting path id: path92507)


(Start cutting path id: path92507)
(Change tool to Default tool)

G00 Z 5.0000
G00 X 23.0914 Y 8.8104

G01 Z -1.0000 F 100.0000(Penetrate)
G03 X 23.0197 Y 8.8462 Z -1.0000 I -0.0892 J -0.0892 F 3500.0000
G03 X 22.7160 Y 8.8630 Z -1.0000 I -0.2521 J -1.8012
G02 X 22.4433 Y 8.8966 Z -1.0000 I -0.0259 J 0.9115
G02 X 22.4019 Y 8.9513 Z -1.0000 I 0.0154 J 0.0546
G03 X 22.3725 Y 9.0190 Z -1.0000 I -0.0927 J -0.0000
G03 X 22.2978 Y 9.0485 Z -1.0000 I -0.0747 J -0.0801
G03 X 22.2299 Y 9.0122 Z -1.0000 I 0.0000 J -0.0816
G03 X 22.1936 Y 8.8922 Z -1.0000 I 0.1799 J -0.1200
G03 X 22.2575 Y 8.7999 Z -1.0000 I 0.0986 J -0.0000
G03 X 22.6103 Y 8.7359 Z -1.0000 I 0.3528 J 0.9407
G02 X 22.9757 Y 8.6812 Z -1.0000 I -0.0000 J -1.2469
G02 X 23.0353 Y 8.6057 Z -1.0000 I -0.0248 J -0.0808
G01 X 23.0609 Y 8.5840 Z -1.0000
G01 X 23.0982 Y 8.6122 Z -1.0000
G03 X 23.1210 Y 8.7424 Z -1.0000 I -0.2979 J 0.1192
G03 X 23.0914 Y 8.8104 Z -1.0000 I -0.1010 J -0.0034
G01 X 23.0914 Y 8.8104 Z -1.0000
G00 Z 5.0000

(End cutting path id: path92507)


(Start cutting path id: path92507)
(Change tool to Default tool)

G00 Z 5.0000
G00 X 24.0293 Y 9.5370

G01 Z -1.0000 F 100.0000(Penetrate)
G02 X 23.9274 Y 9.7833 Z -1.0000 I 0.4386 J 0.3257 F 3500.0000
G02 X 23.9772 Y 9.8919 Z -1.0000 I 0.1085 J 0.0159
G02 X 24.1252 Y 9.9689 Z -1.0000 I 0.5287 J -0.8347
G02 X 24.1991 Y 9.9845 Z -1.0000 I 0.0780 J -0.1868
G03 X 24.2452 Y 10.0176 Z -1.0000 I -0.0010 J 0.0501
G03 X 24.2772 Y 10.2006 Z -1.0000 I -0.5064 J 0.1831
G02 X 24.3238 Y 10.3317 Z -1.0000 I 0.2077 J -0.0000
G02 X 24.3933 Y 10.3434 Z -1.0000 I 0.0415 J -0.0337
G02 X 24.5924 Y 9.9488 Z -1.0000 I -0.2223 J -0.3596
G02 X 24.3115 Y 9.3566 Z -1.0000 I -0.9269 J 0.0769
G02 X 24.2314 Y 9.3486 Z -1.0000 I -0.0451 J 0.0468
G02 X 24.0293 Y 9.5370 Z -1.0000 I 0.4119 J 0.6443
G01 X 24.0293 Y 9.5370 Z -1.0000
G00 Z 5.0000

(End cutting path id: path92507)


(Start cutting path id: path92507)
(Change tool to Default tool)

G00 Z 5.0000
G00 X 23.4646 Y 10.5279

G01 Z -1.0000 F 100.0000(Penetrate)
G03 X 23.3914 Y 10.5279 Z -1.0000 I -0.0366 J -0.0366 F 3500.0000
G03 X 23.3396 Y 10.4029 Z -1.0000 I 0.1250 J -0.1250
G03 X 23.3914 Y 10.2778 Z -1.0000 I 0.1768 J 0.0000
G03 X 23.4646 Y 10.2778 Z -1.0000 I 0.0366 J 0.0366
G03 X 23.5164 Y 10.4029 Z -1.0000 I -0.1250 J 0.1250
G03 X 23.4646 Y 10.5279 Z -1.0000 I -0.1768 J -0.0000
G01 X 23.4646 Y 10.5279 Z -1.0000
G00 Z 5.0000

(End cutting path id: path92507)


(Start cutting path id: path92507)
(Change tool to Default tool)

G00 Z 5.0000
G00 X 22.8322 Y 10.8366

G01 Z -1.0000 F 100.0000(Penetrate)
G02 X 22.7596 Y 11.0454 Z -1.0000 I 0.4233 J 0.2643 F 3500.0000
G02 X 22.7969 Y 11.1521 Z -1.0000 I 0.1295 J 0.0145
G01 X 22.8686 Y 11.1509 Z -1.0000
G02 X 22.9668 Y 10.9712 Z -1.0000 I -0.2969 J -0.2789
G02 X 22.9266 Y 10.8259 Z -1.0000 I -0.1483 J -0.0372
G02 X 22.8322 Y 10.8366 Z -1.0000 I -0.0429 J 0.0429
G01 X 22.8322 Y 10.8366 Z -1.0000
G00 Z 5.0000

(End cutting path id: path92507)


(Start cutting path id: path92507)
(Change tool to Default tool)

G00 Z 5.0000
G00 X 22.4019 Y 10.1363

G01 Z -1.0000 F 100.0000(Penetrate)
G03 X 22.3870 Y 10.1739 Z -1.0000 I -0.0548 J 0.0000 F 3500.0000
G03 X 22.2978 Y 10.2466 Z -1.0000 I -0.3222 J -0.3042
G03 X 22.2267 Y 10.2515 Z -1.0000 I -0.0402 J -0.0650
G03 X 22.1936 Y 10.2007 Z -1.0000 I 0.0224 J -0.0509
G03 X 22.2250 Y 10.1217 Z -1.0000 I 0.1150 J 0.0000
G03 X 22.2978 Y 10.0903 Z -1.0000 I 0.0728 J 0.0687
G03 X 22.3838 Y 10.1084 Z -1.0000 I 0.0000 J 0.2133
G01 X 22.4019 Y 10.1363 Z -1.0000
G01 X 22.4019 Y 10.1363 Z -1.0000
G00 Z 5.0000

(End cutting path id: path92507)


(Start cutting path id: path92507)
(Change tool to Default tool)

G00 Z 5.0000
G00 X 21.9326 Y 9.2577

G01 Z -1.0000 F 100.0000(Penetrate)
G03 X 21.8550 Y 9.3364 Z -1.0000 I -0.2111 J -0.1305 F 3500.0000
G03 X 21.7707 Y 9.3610 Z -1.0000 I -0.0843 J -0.1321
G03 X 21.6244 Y 9.2228 Z -1.0000 I 0.0000 J -0.1465
G03 X 21.7450 Y 8.9067 Z -1.0000 I 0.4134 J -0.0234
G03 X 21.9427 Y 8.9360 Z -1.0000 I 0.0880 J 0.0880
G03 X 21.9326 Y 9.2577 Z -1.0000 I -0.2846 J 0.1521
G01 X 21.9326 Y 9.2577 Z -1.0000
G00 Z 5.0000

(End cutting path id: path92507)


(Start cutting path id: path92507)
(Change tool to Default tool)

G00 Z 5.0000
G00 X 21.5384 Y 9.4901

G01 Z -1.0000 F 100.0000(Penetrate)
G03 X 21.5007 Y 9.7809 Z -1.0000 I -1.4635 J -0.0417 F 3500.0000
G01 X 21.4694 Y 9.7860 Z -1.0000
G02 X 21.3917 Y 9.7236 Z -1.0000 I -0.1267 J 0.0783
G02 X 21.0993 Y 9.6569 Z -1.0000 I -0.4447 J 1.2752
G03 X 20.9942 Y 9.5482 Z -1.0000 I 0.0134 J -0.1181
G03 X 21.0736 Y 9.3303 Z -1.0000 I 0.2786 J -0.0219
G02 X 21.3268 Y 9.0249 Z -1.0000 I -1.6677 J -1.6406
G02 X 21.3633 Y 8.9135 Z -1.0000 I -0.1676 J -0.1165
G01 X 21.3933 Y 8.8923 Z -1.0000
G03 X 21.4580 Y 8.9443 Z -1.0000 I -0.0361 J 0.1110
G03 X 21.5159 Y 9.1092 Z -1.0000 I -0.3957 J 0.2317
G03 X 21.5384 Y 9.4901 Z -1.0000 I -2.1629 J 0.3186
G01 X 21.5384 Y 9.4901 Z -1.0000
G00 Z 5.0000

(End cutting path id: path92507)


(Start cutting path id: path92507)
(Change tool to Default tool)

G00 Z 5.0000
G00 X 23.1920 Y 11.6391

G01 Z -1.0000 F 100.0000(Penetrate)
G02 X 23.1489 Y 11.7666 Z -1.0000 I 0.2534 J 0.1566 F 3500.0000
G02 X 23.1729 Y 11.8336 Z -1.0000 I 0.0829 J 0.0081
G02 X 23.2877 Y 11.8252 Z -1.0000 I 0.0537 J -0.0537
G02 X 23.3174 Y 11.6387 Z -1.0000 I -0.1643 J -0.1218
G02 X 23.2628 Y 11.5994 Z -1.0000 I -0.0544 J 0.0181
G02 X 23.1920 Y 11.6391 Z -1.0000 I 0.0003 J 0.0836
G01 X 23.1920 Y 11.6391 Z -1.0000
G00 Z 5.0000

(End cutting path id: path92507)


(Start cutting path id: path92507)
(Change tool to Default tool)

G00 Z 5.0000
G00 X 22.6634 Y 12.1757

G01 Z -1.0000 F 100.0000(Penetrate)
G02 X 22.7402 Y 12.2336 Z -1.0000 I 0.1129 J -0.0698 F 3500.0000
G02 X 22.8259 Y 12.2216 Z -1.0000 I 0.0292 J -0.1033
G02 X 22.8543 Y 12.1315 Z -1.0000 I -0.0380 J -0.0615
G02 X 22.7604 Y 12.0698 Z -1.0000 I -0.0938 J 0.0404
G02 X 22.6697 Y 12.1097 Z -1.0000 I -0.0000 J 0.1231
G02 X 22.6635 Y 12.1757 Z -1.0000 I 0.0405 J 0.0371
G01 X 22.6634 Y 12.1757 Z -1.0000
G00 Z 5.0000

(End cutting path id: path92507)


(Start cutting path id: path92507)
(Change tool to Default tool)

G00 Z 5.0000
G00 X 22.2391 Y 12.2888

G01 Z -1.0000 F 100.0000(Penetrate)
G01 X 22.2460 Y 12.3299 Z -1.0000 F 3500.0000
G01 X 22.2933 Y 12.3330 Z -1.0000
G03 X 22.4120 Y 12.3155 Z -1.0000 I 0.0796 J 0.1289
G03 X 22.5257 Y 12.3950 Z -1.0000 I -0.0522 J 0.1956
G01 X 22.5681 Y 12.4144 Z -1.0000
G01 X 22.5857 Y 12.3888 Z -1.0000
G02 X 22.4191 Y 12.2194 Z -1.0000 I -0.2338 J 0.0632
G02 X 22.2391 Y 12.2887 Z -1.0000 I -0.0443 J 0.1533
G01 X 22.2391 Y 12.2888 Z -1.0000
G00 Z 5.0000

(End cutting path id: path92507)


(Start cutting path id: path92507)
(Change tool to Default tool)

G00 Z 5.0000
G00 X 22.1936 Y 12.8465

G01 Z -1.0000 F 100.0000(Penetrate)
G02 X 22.3297 Y 13.0140 Z -1.0000 I 0.1711 J 0.0000 F 3500.0000
G02 X 22.5477 Y 12.9203 Z -1.0000 I 0.0422 J -0.2023
G01 X 22.5363 Y 12.8727 Z -1.0000
G02 X 22.3947 Y 12.8272 Z -1.0000 I -0.1654 J 0.2716
G02 X 22.2094 Y 12.8291 Z -1.0000 I -0.0815 J 1.0861
G01 X 22.1936 Y 12.8465 Z -1.0000
G01 X 22.1936 Y 12.8465 Z -1.0000
G00 Z 5.0000

(End cutting path id: path92507)


(Start cutting path id: path92507)
(Change tool to Default tool)

G00 Z 5.0000
G00 X 20.0025 Y 12.6428

G01 Z -1.0000 F 100.0000(Penetrate)
G01 X 19.9765 Y 12.6587 Z -1.0000 F 3500.0000
G03 X 19.9015 Y 12.5907 Z -1.0000 I 0.0900 J -0.1746
G03 X 19.8190 Y 12.4290 Z -1.0000 I 0.7492 J -0.4842
G03 X 19.8006 Y 12.3303 Z -1.0000 I 0.2547 J -0.0987
G01 X 19.8266 Y 12.3144 Z -1.0000
G03 X 19.9015 Y 12.3823 Z -1.0000 I -0.0900 J 0.1746
G03 X 19.9841 Y 12.5441 Z -1.0000 I -0.7491 J 0.4842
G03 X 20.0025 Y 12.6428 Z -1.0000 I -0.2547 J 0.0987
G01 X 20.0025 Y 12.6428 Z -1.0000
G00 Z 5.0000

(End cutting path id: path92507)


(Start cutting path id: path92507)
(Change tool to Default tool)

G00 Z 5.0000
G00 X 17.1928 Y 12.5325

G01 Z -1.0000 F 100.0000(Penetrate)
G03 X 17.1778 Y 12.5701 Z -1.0000 I -0.0548 J 0.0000 F 3500.0000
G03 X 17.0886 Y 12.6428 Z -1.0000 I -0.3222 J -0.3042
G03 X 17.0176 Y 12.6477 Z -1.0000 I -0.0402 J -0.0650
G03 X 16.9844 Y 12.5969 Z -1.0000 I 0.0224 J -0.0509
G03 X 17.0158 Y 12.5179 Z -1.0000 I 0.1150 J 0.0000
G03 X 17.0886 Y 12.4865 Z -1.0000 I 0.0728 J 0.0687
G03 X 17.1746 Y 12.5047 Z -1.0000 I 0.0000 J 0.2133
G01 X 17.1928 Y 12.5325 Z -1.0000
G01 X 17.1928 Y 12.5325 Z -1.0000
G00 Z 5.0000

(End cutting path id: path92507)


(Start cutting path id: path92507)
(Change tool to Default tool)

G00 Z 5.0000
G00 X 20.7871 Y 15.7162

G01 Z -1.0000 F 100.0000(Penetrate)
G02 X 20.8598 Y 15.8054 Z -1.0000 I 0.3769 J -0.2329 F 3500.0000
G02 X 20.8974 Y 15.8204 Z -1.0000 I 0.0376 J -0.0398
G01 X 20.9252 Y 15.8023 Z -1.0000
G02 X 20.9434 Y 15.7162 Z -1.0000 I -0.1952 J -0.0861
G02 X 20.9120 Y 15.6434 Z -1.0000 I -0.1001 J 0.0000
G02 X 20.8330 Y 15.6120 Z -1.0000 I -0.0789 J 0.0836
G02 X 20.7822 Y 15.6452 Z -1.0000 I 0.0000 J 0.0556
G02 X 20.7871 Y 15.7162 Z -1.0000 I 0.0699 J 0.0308
G01 X 20.7871 Y 15.7162 Z -1.0000
G00 Z 5.0000

(End cutting path id: path92507)


(Start cutting path id: path92507)
(Change tool to Default tool)

G00 Z 5.0000
G00 X 20.8806 Y 17.3762

G01 Z -1.0000 F 100.0000(Penetrate)
G01 X 20.8357 Y 17.3842 Z -1.0000 F 3500.0000
G03 X 20.7124 Y 17.2981 Z -1.0000 I 0.1817 J -0.3911
G02 X 20.5754 Y 17.2080 Z -1.0000 I -0.2864 J 0.2864
G02 X 20.4016 Y 17.1748 Z -1.0000 I -0.1738 J 0.4381
G03 X 20.2518 Y 17.1370 Z -1.0000 I 0.0000 J -0.3161
G03 X 20.2141 Y 17.0739 Z -1.0000 I 0.0340 J -0.0632
G01 X 20.2508 Y 17.0263 Z -1.0000
G03 X 20.3704 Y 17.0329 Z -1.0000 I 0.0496 J 0.1891
G02 X 20.4839 Y 17.0308 Z -1.0000 I 0.0541 J -0.1411
G02 X 20.5266 Y 16.9660 Z -1.0000 I -0.0277 J -0.0647
G01 X 20.5641 Y 16.9448 Z -1.0000
G03 X 20.7260 Y 17.0851 Z -1.0000 I -0.3145 J 0.5266
G03 X 20.8876 Y 17.3291 Z -1.0000 I -1.1785 J 0.9554
G01 X 20.8806 Y 17.3762 Z -1.0000
G01 X 20.8806 Y 17.3762 Z -1.0000
G00 Z 5.0000

(End cutting path id: path92507)


(Start cutting path id: path92507)
(Change tool to Default tool)

G00 Z 5.0000
G00 X 21.7309 Y 17.3388

G01 Z -1.0000 F 100.0000(Penetrate)
G03 X 21.8055 Y 17.4196 Z -1.0000 I -0.2415 J 0.2978 F 3500.0000
G01 X 21.7947 Y 17.4318 Z -1.0000
G02 X 21.6529 Y 17.3693 Z -1.0000 I -0.6001 J 1.1692
G02 X 21.3780 Y 17.2767 Z -1.0000 I -1.6071 J 4.3200
G03 X 21.2972 Y 17.2177 Z -1.0000 I 0.0436 J -0.1445
G01 X 21.3141 Y 17.1837 Z -1.0000
G03 X 21.5151 Y 17.2156 Z -1.0000 I 0.0214 J 0.5148
G03 X 21.7309 Y 17.3388 Z -1.0000 I -0.2674 J 0.7189
G01 X 21.7309 Y 17.3388 Z -1.0000
G00 Z 5.0000

(End cutting path id: path92507)


(Start cutting path id: path92507)
(Change tool to Default tool)

G00 Z 5.0000
G00 X 21.7768 Y 17.8408

G01 Z -1.0000 F 100.0000(Penetrate)
G03 X 21.6376 Y 18.0040 Z -1.0000 I -0.1653 J 0.0000 F 3500.0000
G03 X 21.4094 Y 17.8995 Z -1.0000 I -0.0357 J -0.2235
G01 X 21.4224 Y 17.8414 Z -1.0000
G03 X 21.5623 Y 17.7999 Z -1.0000 I 0.1400 J 0.2149
G03 X 21.7583 Y 17.8184 Z -1.0000 I -0.0000 J 1.0451
G01 X 21.7768 Y 17.8408 Z -1.0000
G01 X 21.7768 Y 17.8408 Z -1.0000
G00 Z 5.0000

(End cutting path id: path92507)


(Start cutting path id: path92507)
(Change tool to Default tool)

G00 Z 5.0000
G00 X 22.1442 Y 17.9881

G01 Z -1.0000 F 100.0000(Penetrate)
G03 X 22.0860 Y 18.0006 Z -1.0000 I -0.0387 J -0.0387 F 3500.0000
G03 X 21.9574 Y 17.9170 Z -1.0000 I 0.1293 J -0.3396
G01 X 21.9575 Y 17.8711 Z -1.0000
G03 X 22.0157 Y 17.8587 Z -1.0000 I 0.0387 J 0.0387
G03 X 22.1443 Y 17.9423 Z -1.0000 I -0.1293 J 0.3395
G01 X 22.1442 Y 17.9881 Z -1.0000
G01 X 22.1442 Y 17.9881 Z -1.0000
G00 Z 5.0000

(End cutting path id: path92507)


(Start cutting path id: path92507)
(Change tool to Default tool)

G00 Z 5.0000
G00 X 22.2695 Y 18.2795

G01 Z -1.0000 F 100.0000(Penetrate)
G03 X 22.1999 Y 18.3101 Z -1.0000 I -0.0739 J -0.0739 F 3500.0000
G03 X 22.0699 Y 18.2877 Z -1.0000 I -0.0130 J -0.3148
G01 X 22.0632 Y 18.2553 Z -1.0000
G03 X 22.1328 Y 18.2248 Z -1.0000 I 0.0739 J 0.0739
G03 X 22.2629 Y 18.2471 Z -1.0000 I 0.0129 J 0.3152
G01 X 22.2695 Y 18.2795 Z -1.0000
G01 X 22.2695 Y 18.2795 Z -1.0000
G00 Z 5.0000

(End cutting path id: path92507)


(Start cutting path id: path92507)
(Change tool to Default tool)

G00 Z 5.0000
G00 X 21.6727 Y 18.4399

G01 Z -1.0000 F 100.0000(Penetrate)
G01 X 21.6304 Y 18.4862 Z -1.0000 F 3500.0000
G03 X 20.8652 Y 18.5154 Z -1.0000 I -0.6473 J -6.9149
G03 X 20.4225 Y 18.4705 Z -1.0000 I 0.0450 J -2.6483
G01 X 20.4225 Y 18.4325 Z -1.0000
G03 X 21.5621 Y 18.3286 Z -1.0000 I 1.1046 J 5.8169
G03 X 21.6727 Y 18.4399 Z -1.0000 I -0.0007 J 0.1113
G01 X 21.6727 Y 18.4399 Z -1.0000
G00 Z 5.0000

(End cutting path id: path92507)


(Start cutting path id: path92507)
(Change tool to Default tool)

G00 Z 5.0000
G00 X 22.8946 Y 18.2795

G01 Z -1.0000 F 100.0000(Penetrate)
G03 X 22.8250 Y 18.3101 Z -1.0000 I -0.0739 J -0.0739 F 3500.0000
G03 X 22.6950 Y 18.2877 Z -1.0000 I -0.0130 J -0.3148
G01 X 22.6883 Y 18.2553 Z -1.0000
G03 X 22.7579 Y 18.2248 Z -1.0000 I 0.0739 J 0.0739
G03 X 22.8880 Y 18.2471 Z -1.0000 I 0.0129 J 0.3152
G01 X 22.8946 Y 18.2795 Z -1.0000
G01 X 22.8946 Y 18.2795 Z -1.0000
G00 Z 5.0000

(End cutting path id: path92507)



(Footer)
M5
G00 X0.0000 Y0.0000
M2
(Using default footer. To add your own footer create file "footer" in the output dir.)
(end)
%