%
(Header)
(Generated by gcodetools from Inkscape.)
(Using default header. To add your own header create file "header" in the output dir.)
M3
(Header end.)
G21 (All units in mm)

(Start cutting path id: path93134)
(Change tool to Default tool)

G00 Z 5.0000
G00 X 14.2469 Y 1.4987

G01 Z -1.0000 F 100.0000(Penetrate)
G02 X 14.2690 Y 1.9987 Z -1.0000 I 5.6945 J -0.0017 F 3500.0000
G02 X 14.2960 Y 2.0543 Z -1.0000 I 0.0865 J -0.0077
G03 X 14.3448 Y 2.1006 Z -1.0000 I -4.9039 J 5.2115
G03 X 14.4239 Y 2.1770 Z -1.0000 I -12.6671 J 13.2106
G02 X 14.5038 Y 2.2510 Z -1.0000 I 1.6305 J -1.6805
G01 X 14.5105 Y 2.2535 Z -1.0000
G02 X 14.5182 Y 2.2534 Z -1.0000 I 0.0000 J -0.1848
G02 X 14.5237 Y 2.2530 Z -1.0000 I -0.0039 J -0.0941
G01 X 14.5279 Y 2.2547 Z -1.0000
G03 X 14.5390 Y 2.2718 Z -1.0000 I -0.0750 J 0.0608
G02 X 14.5692 Y 2.3087 Z -1.0000 I 0.0988 J -0.0501
G02 X 14.7939 Y 2.4729 Z -1.0000 I 2.3429 J -2.9691
G03 X 14.9334 Y 2.5705 Z -1.0000 I -3.0465 J 4.5066
G03 X 14.9807 Y 2.6079 Z -1.0000 I -0.3990 J 0.5521
G02 X 15.0121 Y 2.6324 Z -1.0000 I 0.2520 J -0.2906
G02 X 15.0336 Y 2.6450 Z -1.0000 I 0.0869 J -0.1242
G01 X 15.0366 Y 2.6510 Z -1.0000
G01 X 15.0207 Y 2.6508 Z -1.0000
G01 X 15.0170 Y 2.6555 Z -1.0000
G01 X 15.0199 Y 2.6618 Z -1.0000
G01 X 15.0284 Y 2.6648 Z -1.0000
G01 X 15.0452 Y 2.6721 Z -1.0000
G03 X 15.1281 Y 2.7722 Z -1.0000 I -0.8454 J 0.7851
G02 X 15.1501 Y 2.7980 Z -1.0000 I 0.1963 J -0.1448
G01 X 15.1558 Y 2.8004 Z -1.0000
G01 X 15.1763 Y 2.8114 Z -1.0000
G03 X 15.1969 Y 2.8614 Z -1.0000 I -0.1110 J 0.0747
G02 X 15.2074 Y 2.8922 Z -1.0000 I 0.1111 J -0.0209
G02 X 15.2290 Y 2.9238 Z -1.0000 I 0.1386 J -0.0712
G03 X 15.2640 Y 2.9885 Z -1.0000 I -0.1242 J 0.1091
G03 X 15.2741 Y 3.0854 Z -1.0000 I -0.2801 J 0.0782
G03 X 15.2636 Y 3.1790 Z -1.0000 I -1.0167 J -0.0657
G03 X 15.2553 Y 3.2035 Z -1.0000 I -0.0753 J -0.0119
G02 X 15.2486 Y 3.2224 Z -1.0000 I 0.0586 J 0.0317
G02 X 15.2463 Y 3.2491 Z -1.0000 I 0.1202 J 0.0235
G03 X 15.2350 Y 3.2910 Z -1.0000 I -0.0750 J 0.0021
G01 X 15.2124 Y 3.3035 Z -1.0000
G01 X 15.1975 Y 3.3092 Z -1.0000
G02 X 15.1393 Y 3.3682 Z -1.0000 I 0.4017 J 0.4539
G01 X 15.1354 Y 3.3826 Z -1.0000
G01 X 15.1427 Y 3.3874 Z -1.0000
G01 X 15.1537 Y 3.3893 Z -1.0000
G01 X 15.1543 Y 3.3949 Z -1.0000
G01 X 15.1399 Y 3.4041 Z -1.0000
G01 X 15.1290 Y 3.4039 Z -1.0000
G01 X 15.1193 Y 3.4054 Z -1.0000
G02 X 15.1019 Y 3.4253 Z -1.0000 I 0.0444 J 0.0564
G03 X 15.0843 Y 3.4482 Z -1.0000 I -0.1015 J -0.0599
G01 X 15.0715 Y 3.4561 Z -1.0000
G02 X 15.0326 Y 3.4852 Z -1.0000 I 0.0236 J 0.0722
G02 X 15.0170 Y 3.5353 Z -1.0000 I 0.0726 J 0.0500
G01 X 15.0126 Y 3.5441 Z -1.0000
G01 X 14.9992 Y 3.5485 Z -1.0000
G01 X 14.9842 Y 3.5525 Z -1.0000
G01 X 14.9765 Y 3.5615 Z -1.0000
G01 X 14.9690 Y 3.5723 Z -1.0000
G03 X 14.9409 Y 3.5933 Z -1.0000 I -0.1328 J -0.1483
G02 X 14.9115 Y 3.6137 Z -1.0000 I 0.1818 J 0.2940
G02 X 14.8897 Y 3.6329 Z -1.0000 I 0.1387 J 0.1797
G03 X 14.8680 Y 3.6509 Z -1.0000 I -0.1079 J -0.1079
G01 X 14.8595 Y 3.6535 Z -1.0000
G01 X 14.8510 Y 3.6560 Z -1.0000
G02 X 14.8264 Y 3.6754 Z -1.0000 I 0.1026 J 0.1562
G03 X 14.8014 Y 3.6937 Z -1.0000 I -0.0915 J -0.0988
G01 X 14.7879 Y 3.6972 Z -1.0000
G01 X 14.7746 Y 3.7002 Z -1.0000
G01 X 14.7672 Y 3.7067 Z -1.0000
G01 X 14.7597 Y 3.7121 Z -1.0000
G01 X 14.7446 Y 3.7118 Z -1.0000
G01 X 14.7279 Y 3.7105 Z -1.0000
G02 X 14.6962 Y 3.7162 Z -1.0000 I 0.0159 J 0.1767
G03 X 14.6305 Y 3.7135 Z -1.0000 I -0.0286 J -0.1035
G03 X 14.5538 Y 3.6637 Z -1.0000 I 0.0719 J -0.1947
G03 X 14.4993 Y 3.6000 Z -1.0000 I 0.4607 J -0.4490
G03 X 14.4744 Y 3.5576 Z -1.0000 I 0.1774 J -0.1327
G02 X 14.4191 Y 3.4519 Z -1.0000 I -0.8803 J 0.3929
G02 X 14.3948 Y 3.4259 Z -1.0000 I -0.0732 J 0.0443
G03 X 14.3582 Y 3.3840 Z -1.0000 I 0.0657 J -0.0944
G03 X 14.3389 Y 3.3166 Z -1.0000 I 0.1607 J -0.0825
G02 X 14.3310 Y 3.2897 Z -1.0000 I -0.0693 J 0.0056
G02 X 14.2857 Y 3.2160 Z -1.0000 I -0.5910 J 0.3132
G03 X 14.2600 Y 3.1756 Z -1.0000 I 0.3891 J -0.2757
G03 X 14.2534 Y 3.1591 Z -1.0000 I 0.0568 J -0.0322
G01 X 14.2480 Y 3.6883 Z -1.0000
G02 X 14.2615 Y 4.2325 Z -1.0000 I 10.2047 J 0.0187
G02 X 14.2814 Y 4.3357 Z -1.0000 I 0.3801 J -0.0196
G03 X 14.3742 Y 4.7085 Z -1.0000 I -2.1460 J 0.7321
G03 X 14.4352 Y 5.2940 Z -1.0000 I -5.2592 J 0.8442
G02 X 14.4450 Y 5.4319 Z -1.0000 I 3.2004 J -0.1568
G02 X 14.4556 Y 5.5144 Z -1.0000 I 1.1517 J -0.1063
G03 X 14.4601 Y 5.5685 Z -1.0000 I -0.3327 J 0.0552
G03 X 14.4560 Y 5.6281 Z -1.0000 I -0.4105 J 0.0012
G02 X 14.4597 Y 5.8139 Z -1.0000 I 0.5652 J 0.0816
G02 X 14.5081 Y 5.9096 Z -1.0000 I 0.1873 J -0.0347
G03 X 14.5334 Y 5.9399 Z -1.0000 I -0.2428 J 0.2283
G01 X 14.5357 Y 5.9470 Z -1.0000
G01 X 14.5341 Y 5.9546 Z -1.0000
G03 X 14.4997 Y 6.0268 Z -1.0000 I -1.7655 J -0.7982
G02 X 14.4103 Y 6.2656 Z -1.0000 I 1.0589 J 0.5324
G02 X 14.3649 Y 6.5540 Z -1.0000 I 1.5052 J 0.3849
G03 X 14.3570 Y 6.6412 Z -1.0000 I -1.6138 J -0.1006
G03 X 14.3433 Y 6.7377 Z -1.0000 I -1.9820 J -0.2318
G02 X 14.3280 Y 6.8341 Z -1.0000 I 6.8178 J 1.1335
G02 X 14.3175 Y 6.9083 Z -1.0000 I 3.7346 J 0.5669
G03 X 14.3075 Y 6.9827 Z -1.0000 I -13.0103 J -1.7177
G03 X 14.2774 Y 7.1993 Z -1.0000 I -96.0118 J -13.2352
G02 X 14.2595 Y 7.4169 Z -1.0000 I 1.8874 J 0.2645
G02 X 14.2470 Y 8.4308 Z -1.0000 I 41.1304 J 1.0140
G02 X 14.2505 Y 9.4422 Z -1.0000 I 144.3745 J 0.0000
G01 X 14.2541 Y 9.4457 Z -1.0000
G01 X 14.2607 Y 9.4473 Z -1.0000
G03 X 14.2776 Y 9.4577 Z -1.0000 I -0.0573 J 0.1119
G01 X 14.2875 Y 9.4730 Z -1.0000
G03 X 14.2968 Y 9.5469 Z -1.0000 I -0.4148 J 0.0894
G02 X 14.3036 Y 9.6218 Z -1.0000 I 0.7090 J -0.0267
G01 X 14.3088 Y 9.6298 Z -1.0000
G01 X 14.3140 Y 9.6376 Z -1.0000
G03 X 14.3182 Y 9.6894 Z -1.0000 I -0.3317 J 0.0529
G03 X 14.3111 Y 9.7415 Z -1.0000 I -0.1883 J 0.0009
G03 X 14.2871 Y 9.7994 Z -1.0000 I -0.2574 J -0.0727
G02 X 14.2621 Y 9.8571 Z -1.0000 I 0.2704 J 0.1513
G02 X 14.2559 Y 9.8977 Z -1.0000 I 0.1267 J 0.0401
G02 X 14.2647 Y 10.0458 Z -1.0000 I 1.3415 J -0.0055
G02 X 14.3127 Y 10.3907 Z -1.0000 I 7.3473 J -0.8467
G03 X 14.3162 Y 10.4126 Z -1.0000 I -1.4215 J 0.2363
G03 X 14.3345 Y 10.5350 Z -1.0000 I -71.8264 J 10.8083
G02 X 14.3699 Y 10.7488 Z -1.0000 I 6.5251 J -0.9705
G02 X 14.4351 Y 11.0862 Z -1.0000 I 16.3274 J -2.9796
G02 X 14.4956 Y 11.3739 Z -1.0000 I 23.2696 J -4.7467
G02 X 14.5148 Y 11.4537 Z -1.0000 I 1.8033 J -0.3912
G03 X 14.5283 Y 11.5063 Z -1.0000 I -3.7376 J 0.9839
G03 X 14.5550 Y 11.6156 Z -1.0000 I -14.6485 J 3.6370
G02 X 14.5816 Y 11.7249 Z -1.0000 I 21.5085 J -5.1706
G02 X 14.5883 Y 11.7512 Z -1.0000 I 1.2252 J -0.3011
G02 X 14.6460 Y 11.9609 Z -1.0000 I 16.5064 J -4.4308
G02 X 14.6673 Y 12.0312 Z -1.0000 I 1.8903 J -0.5333
G03 X 14.6758 Y 12.0575 Z -1.0000 I -10.4050 J 3.3867
G02 X 14.7337 Y 12.2368 Z -1.0000 I 553.3253 J -178.5572
G02 X 14.8999 Y 12.7084 Z -1.0000 I 9.0415 J -2.9203
G01 X 14.9138 Y 12.7081 Z -1.0000
G01 X 14.9262 Y 12.7076 Z -1.0000
G03 X 14.9593 Y 12.8130 Z -1.0000 I -0.4849 J 0.2103
G02 X 14.9995 Y 12.9756 Z -1.0000 I 1.9405 J -0.3931
G02 X 15.0429 Y 13.0986 Z -1.0000 I 1.1506 J -0.3365
G03 X 15.0498 Y 13.1163 Z -1.0000 I -0.3933 J 0.1639
G03 X 15.0653 Y 13.1599 Z -1.0000 I -2.6017 J 0.9509
G02 X 15.0810 Y 13.2034 Z -1.0000 I 1.5787 J -0.5446
G02 X 15.0916 Y 13.2299 Z -1.0000 I 0.6606 J -0.2486
G03 X 15.1026 Y 13.2562 Z -1.0000 I -4.4186 J 1.8666
G03 X 15.1443 Y 13.3568 Z -1.0000 I -53.9953 J 22.4325
G02 X 15.1863 Y 13.4572 Z -1.0000 I 11.7417 J -4.8524
G02 X 15.2035 Y 13.4968 Z -1.0000 I 1.8882 J -0.7993
G03 X 15.2210 Y 13.5362 Z -1.0000 I -4.7091 J 2.1089
G03 X 15.2226 Y 13.5405 Z -1.0000 I -0.0458 J 0.0201
G02 X 15.2299 Y 13.5594 Z -1.0000 I 0.1995 J -0.0660
G02 X 15.2920 Y 13.6974 Z -1.0000 I 10.6601 J -4.7116
G03 X 15.3401 Y 13.8041 Z -1.0000 I -9.8865 J 4.5230
G01 X 15.3407 Y 13.8071 Z -1.0000
G01 X 15.3432 Y 13.8181 Z -1.0000
G02 X 15.5480 Y 14.2382 Z -1.0000 I 38.9330 J -18.7199
G02 X 15.6259 Y 14.3868 Z -1.0000 I 3.2029 J -1.5829
G02 X 15.6472 Y 14.4172 Z -1.0000 I 0.1540 J -0.0853
G03 X 15.6681 Y 14.4479 Z -1.0000 I -0.1163 J 0.1016
G03 X 15.7163 Y 14.5508 Z -1.0000 I -1.2878 J 0.6657
G02 X 15.7643 Y 14.6543 Z -1.0000 I 1.4692 J -0.6190
G02 X 15.8388 Y 14.7917 Z -1.0000 I 2.6634 J -1.3540
G03 X 15.9159 Y 14.9278 Z -1.0000 I -9.5989 J 5.5297
G03 X 15.9412 Y 14.9754 Z -1.0000 I -1.1384 J 0.6346
G02 X 16.0339 Y 15.1467 Z -1.0000 I 2.9913 J -1.5093
G02 X 16.0579 Y 15.1767 Z -1.0000 I 0.1122 J -0.0651
G01 X 16.0618 Y 15.1816 Z -1.0000
G03 X 16.0839 Y 15.2219 Z -1.0000 I -0.9699 J 0.5575
G02 X 16.1064 Y 15.2620 Z -1.0000 I 0.6522 J -0.3402
G02 X 16.1209 Y 15.2832 Z -1.0000 I 0.1956 J -0.1181
G01 X 16.0593 Y 15.1504 Z -1.0000
G03 X 15.9840 Y 14.9965 Z -1.0000 I 6.0381 J -3.0474
G03 X 15.9661 Y 14.9536 Z -1.0000 I 0.4506 J -0.2133
G02 X 15.9492 Y 14.9103 Z -1.0000 I -0.8867 J 0.3206
G02 X 15.9442 Y 14.9011 Z -1.0000 I -0.0483 J 0.0202
G01 X 15.9396 Y 14.8917 Z -1.0000
G03 X 15.9055 Y 14.7830 Z -1.0000 I 4.2178 J -1.3824
G02 X 15.8714 Y 14.6741 Z -1.0000 I -4.3483 J 1.3027
G02 X 15.8611 Y 14.6473 Z -1.0000 I -0.2742 J 0.0897
G03 X 15.7432 Y 14.3371 Z -1.0000 I 2.8806 J -1.2723
G03 X 15.7257 Y 14.2253 Z -1.0000 I 0.3487 J -0.1119
G02 X 15.7123 Y 14.1106 Z -1.0000 I -0.4995 J 0.0001
G02 X 15.6710 Y 13.9937 Z -1.0000 I -0.5591 J 0.1322
G03 X 15.6285 Y 13.8843 Z -1.0000 I 0.6745 J -0.3244
G03 X 15.5862 Y 13.7111 Z -1.0000 I 1.6565 J -0.4968
G02 X 15.5665 Y 13.6152 Z -1.0000 I -3.4289 J 0.6529
G02 X 15.5545 Y 13.5668 Z -1.0000 I -0.8976 J 0.1971
G02 X 15.5412 Y 13.5186 Z -1.0000 I -61.4670 J 16.9516
G03 X 15.5284 Y 13.4723 Z -1.0000 I 19.8703 J -5.4967
G03 X 15.5190 Y 13.4255 Z -1.0000 I 0.3305 J -0.0907
G03 X 15.5157 Y 13.3740 Z -1.0000 I 0.3981 J -0.0514
G02 X 15.5101 Y 13.3231 Z -1.0000 I -0.2334 J 0.0000
G02 X 15.4808 Y 13.2180 Z -1.0000 I -1.0258 J 0.2295
G03 X 15.4323 Y 13.0276 Z -1.0000 I 1.2543 J -0.4209
G03 X 15.4327 Y 12.9463 Z -1.0000 I 0.2232 J -0.0395
G01 X 15.4421 Y 12.9305 Z -1.0000
G01 X 15.4506 Y 12.9317 Z -1.0000
G03 X 15.4608 Y 12.9492 Z -1.0000 I -0.0796 J 0.0577
G03 X 15.4858 Y 13.0103 Z -1.0000 I -0.9200 J 0.4121
G02 X 15.5093 Y 13.0722 Z -1.0000 I 4.0132 J -1.4904
G02 X 15.5434 Y 13.1584 Z -1.0000 I 7.6271 J -2.9677
G03 X 15.5596 Y 13.2227 Z -1.0000 I -0.2261 J 0.0909
G01 X 15.5508 Y 13.2257 Z -1.0000
G02 X 15.5279 Y 13.1928 Z -1.0000 I -0.3083 J 0.1905
G01 X 15.5233 Y 13.1905 Z -1.0000
G01 X 15.5094 Y 13.2034 Z -1.0000
G02 X 15.5161 Y 13.2884 Z -1.0000 I 0.2793 J 0.0207
G01 X 15.5218 Y 13.2954 Z -1.0000
G01 X 15.5268 Y 13.2934 Z -1.0000
G01 X 15.5421 Y 13.2853 Z -1.0000
G01 X 15.5662 Y 13.3029 Z -1.0000
G02 X 15.5831 Y 13.3230 Z -1.0000 I 0.0753 J -0.0463
G01 X 15.5908 Y 13.3245 Z -1.0000
G01 X 15.5974 Y 13.3269 Z -1.0000
G03 X 15.6115 Y 13.3587 Z -1.0000 I -0.1182 J 0.0714
G02 X 15.6245 Y 13.3955 Z -1.0000 I 0.3914 J -0.1179
G02 X 15.6443 Y 13.4390 Z -1.0000 I 0.5483 J -0.2240
G03 X 15.6562 Y 13.4729 Z -1.0000 I -0.1224 J 0.0619
G01 X 15.6521 Y 13.4764 Z -1.0000
G01 X 15.6437 Y 13.4815 Z -1.0000
G01 X 15.6497 Y 13.4942 Z -1.0000
G01 X 15.6592 Y 13.5030 Z -1.0000
G03 X 15.6907 Y 13.5537 Z -1.0000 I -0.5307 J 0.3658
G02 X 15.7209 Y 13.6055 Z -1.0000 I 1.5966 J -0.8953
G01 X 15.7251 Y 13.6105 Z -1.0000
G03 X 15.7544 Y 13.6540 Z -1.0000 I -0.0707 J 0.0793
G03 X 15.7724 Y 13.7433 Z -1.0000 I -0.2962 J 0.1061
G01 X 15.7762 Y 13.7523 Z -1.0000
G01 X 15.7813 Y 13.7530 Z -1.0000
G01 X 15.7844 Y 13.7821 Z -1.0000
G01 X 15.7842 Y 13.7991 Z -1.0000
G01 X 15.7894 Y 13.7978 Z -1.0000
G03 X 15.8010 Y 13.8166 Z -1.0000 I -0.0377 J 0.0362
G03 X 15.8306 Y 13.9583 Z -1.0000 I -0.5246 J 0.1836
G01 X 15.8142 Y 13.9906 Z -1.0000
G01 X 15.8072 Y 13.9909 Z -1.0000
G01 X 15.8031 Y 13.9852 Z -1.0000
G02 X 15.8018 Y 13.9737 Z -1.0000 I -8.9797 J 1.0448
G02 X 15.8007 Y 13.9650 Z -1.0000 I -1.2511 J 0.1472
G01 X 15.7985 Y 13.9566 Z -1.0000
G02 X 15.7928 Y 13.9453 Z -1.0000 I -0.0709 J 0.0287
G01 X 15.7801 Y 13.9450 Z -1.0000
G02 X 15.7695 Y 13.9793 Z -1.0000 I 0.0499 J 0.0342
G02 X 15.7761 Y 14.0226 Z -1.0000 I 0.1463 J -0.0000
G02 X 15.8055 Y 14.0952 Z -1.0000 I 0.4436 J -0.1377
G02 X 15.8482 Y 14.1619 Z -1.0000 I 0.3533 J -0.1791
G01 X 15.8581 Y 14.1616 Z -1.0000
G01 X 15.8613 Y 14.1687 Z -1.0000
G01 X 15.8610 Y 14.1880 Z -1.0000
G02 X 15.8744 Y 14.2205 Z -1.0000 I 0.1207 J -0.0308
G03 X 15.8867 Y 14.2537 Z -1.0000 I -0.0866 J 0.0511
G03 X 15.8876 Y 14.2932 Z -1.0000 I -0.1238 J 0.0224
G02 X 15.8887 Y 14.3335 Z -1.0000 I 0.1222 J 0.0168
G02 X 15.9140 Y 14.4295 Z -1.0000 I 0.7350 J -0.1426
G03 X 15.9386 Y 14.5263 Z -1.0000 I -0.6236 J 0.2097
G03 X 15.9501 Y 14.6366 Z -1.0000 I -0.8002 J 0.1394
G02 X 15.9683 Y 14.7804 Z -1.0000 I 0.8039 J -0.0285
G02 X 15.9952 Y 14.8427 Z -1.0000 I 0.1730 J -0.0379
G03 X 16.0400 Y 14.9224 Z -1.0000 I -0.4231 J 0.2902
G03 X 16.0845 Y 15.0411 Z -1.0000 I -0.9005 J 0.4052
G02 X 16.1050 Y 15.1015 Z -1.0000 I 0.9613 J -0.2914
G02 X 16.1140 Y 15.1199 Z -1.0000 I 0.0963 J -0.0360
G03 X 16.1236 Y 15.1380 Z -1.0000 I -0.1232 J 0.0770
G03 X 16.1412 Y 15.1811 Z -1.0000 I -0.6999 J 0.3103
G02 X 16.2497 Y 15.4281 Z -1.0000 I 2.2032 J -0.8208
G01 X 16.2700 Y 15.4338 Z -1.0000
G01 X 16.2733 Y 15.4381 Z -1.0000
G01 X 16.2712 Y 15.4858 Z -1.0000
G01 X 16.3092 Y 15.5093 Z -1.0000
G01 X 16.3165 Y 15.5000 Z -1.0000
G02 X 16.2855 Y 15.4148 Z -1.0000 I -0.4333 J 0.1091
G03 X 16.2646 Y 15.3333 Z -1.0000 I 0.1925 J -0.0930
G01 X 16.2802 Y 15.3168 Z -1.0000
G01 X 16.3089 Y 15.3315 Z -1.0000
G03 X 16.4141 Y 15.5045 Z -1.0000 I -1.1316 J 0.8069
G03 X 16.5348 Y 15.7534 Z -1.0000 I -5.5507 J 2.8452
G03 X 16.5463 Y 15.7933 Z -1.0000 I -0.1282 J 0.0587
G01 X 16.5528 Y 15.8113 Z -1.0000
G01 X 16.5573 Y 15.8108 Z -1.0000
G01 X 16.5639 Y 15.8082 Z -1.0000
G01 X 16.5737 Y 15.8188 Z -1.0000
G03 X 16.5803 Y 15.8442 Z -1.0000 I -0.1006 J 0.0399
G01 X 16.5791 Y 15.8582 Z -1.0000
G01 X 16.5796 Y 15.8718 Z -1.0000
G02 X 16.6045 Y 15.9205 Z -1.0000 I 0.3034 J -0.1244
G03 X 16.6331 Y 15.9694 Z -1.0000 I -0.8759 J 0.5452
G03 X 16.6753 Y 16.0495 Z -1.0000 I -2.3199 J 1.2730
G02 X 16.7180 Y 16.1275 Z -1.0000 I 1.1840 J -0.5980
G01 X 16.7232 Y 16.1305 Z -1.0000
G01 X 16.7277 Y 16.1336 Z -1.0000
G03 X 16.7364 Y 16.1677 Z -1.0000 I -0.1867 J 0.0659
G02 X 16.7455 Y 16.2037 Z -1.0000 I 0.2122 J -0.0342
G02 X 16.7583 Y 16.2311 Z -1.0000 I 0.1363 J -0.0472
G03 X 16.7721 Y 16.2583 Z -1.0000 I -0.1832 J 0.1104
G03 X 16.7924 Y 16.3120 Z -1.0000 I -0.6985 J 0.2950
G02 X 16.8158 Y 16.3642 Z -1.0000 I 0.2780 J -0.0932
G02 X 16.9049 Y 16.5089 Z -1.0000 I 2.2442 J -1.2817
G02 X 17.1047 Y 16.8068 Z -1.0000 I 23.5840 J -15.6070
G02 X 17.1712 Y 16.9004 Z -1.0000 I 2.3967 J -1.6301
G03 X 17.1870 Y 16.9226 Z -1.0000 I -0.6348 J 0.4696
G03 X 17.2314 Y 16.9879 Z -1.0000 I -5.4468 J 3.7464
G02 X 17.3749 Y 17.1999 Z -1.0000 I 23.7553 J -15.9267
G02 X 17.4676 Y 17.3335 Z -1.0000 I 9.5680 J -6.5398
G03 X 17.5289 Y 17.4213 Z -1.0000 I -12.4317 J 8.7554
G03 X 17.5495 Y 17.4517 Z -1.0000 I -1.4691 J 1.0193
G02 X 17.5703 Y 17.4820 Z -1.0000 I 1.1061 J -0.7343
G02 X 17.6358 Y 17.5742 Z -1.0000 I 10.1352 J -7.1406
G03 X 17.7018 Y 17.6661 Z -1.0000 I -66.9044 J 48.0499
G03 X 17.7484 Y 17.7313 Z -1.0000 I -28.1946 J 20.1904
G02 X 17.7952 Y 17.7964 Z -1.0000 I 6.6463 J -4.7368
G02 X 17.8566 Y 17.8801 Z -1.0000 I 11.0280 J -8.0241
G03 X 17.9183 Y 17.9635 Z -1.0000 I -74.9845 J 55.4418
G03 X 17.9666 Y 18.0291 Z -1.0000 I -56.5811 J 41.7375
G02 X 18.2823 Y 18.4515 Z -1.0000 I 27.7133 J -20.3911
G02 X 18.3754 Y 18.5672 Z -1.0000 I 2.1735 J -1.6512
G03 X 18.3900 Y 18.5849 Z -1.0000 I -0.6026 J 0.5147
G03 X 18.4987 Y 18.7203 Z -1.0000 I -44.9636 J 36.2078
G02 X 18.6741 Y 18.9379 Z -1.0000 I 32.0844 J -25.6756
G02 X 18.7612 Y 19.0438 Z -1.0000 I 7.6943 J -6.2437
G03 X 18.8010 Y 19.0917 Z -1.0000 I -12.8361 J 10.7130
G03 X 18.8156 Y 19.1094 Z -1.0000 I -1.7088 J 1.4154
G02 X 18.8301 Y 19.1271 Z -1.0000 I 0.9607 J -0.7745
G02 X 18.8670 Y 19.1710 Z -1.0000 I 8.3279 J -6.9721
G03 X 18.9577 Y 19.2783 Z -1.0000 I -62.3431 J 52.7580
G03 X 19.0293 Y 19.3634 Z -1.0000 I -39.3384 J 33.1742
G02 X 19.0885 Y 19.4331 Z -1.0000 I 6.1344 J -5.1497
G02 X 19.1421 Y 19.4947 Z -1.0000 I 4.8665 J -4.1809
G03 X 19.1959 Y 19.5561 Z -1.0000 I -12.4009 J 10.9286
G03 X 19.3787 Y 19.7659 Z -1.0000 I -141.4618 J 123.4301
G02 X 19.5617 Y 19.9757 Z -1.0000 I 77.2502 J -67.2018
G02 X 19.5663 Y 19.9803 Z -1.0000 I 0.0421 J -0.0368
G03 X 19.5709 Y 19.9849 Z -1.0000 I -0.0389 J 0.0437
G03 X 19.6410 Y 20.0634 Z -1.0000 I -13.8150 J 12.4152
G02 X 19.7111 Y 20.1420 Z -1.0000 I 22.6763 J -20.1474
G02 X 19.7154 Y 20.1465 Z -1.0000 I 0.0750 J -0.0671
G03 X 19.7197 Y 20.1510 Z -1.0000 I -0.0877 J 0.0877
G03 X 19.7985 Y 20.2384 Z -1.0000 I -26.9692 J 24.4093
G02 X 20.0006 Y 20.4563 Z -1.0000 I 7.1998 J -6.4738
G02 X 20.3412 Y 20.8059 Z -1.0000 I 18.8844 J -18.0584
G02 X 20.8270 Y 21.2866 Z -1.0000 I 26.9532 J -26.7561
G01 X 20.8422 Y 21.2927 Z -1.0000
G01 X 20.8444 Y 21.2936 Z -1.0000
G03 X 20.8704 Y 21.3190 Z -1.0000 I -0.5143 J 0.5534
G02 X 20.8970 Y 21.3429 Z -1.0000 I 0.1997 J -0.1952
G01 X 20.9036 Y 21.3452 Z -1.0000
G01 X 20.9096 Y 21.3479 Z -1.0000
G03 X 20.9228 Y 21.3670 Z -1.0000 I -0.0759 J 0.0668
G02 X 20.9374 Y 21.3856 Z -1.0000 I 0.0602 J -0.0322
G02 X 20.9593 Y 21.3998 Z -1.0000 I 0.0555 J -0.0617
G03 X 20.9803 Y 21.4132 Z -1.0000 I -0.0323 J 0.0735
G01 X 20.9841 Y 21.4217 Z -1.0000
G01 X 20.9869 Y 21.4299 Z -1.0000
G01 X 20.9926 Y 21.4327 Z -1.0000
G01 X 21.0000 Y 21.4354 Z -1.0000
G03 X 21.0289 Y 21.4631 Z -1.0000 I -0.1922 J 0.2289
G02 X 21.0582 Y 21.4910 Z -1.0000 I 0.2063 J -0.1878
G01 X 21.0719 Y 21.4984 Z -1.0000
G01 X 21.0840 Y 21.5063 Z -1.0000
G01 X 21.0917 Y 21.5205 Z -1.0000
G01 X 21.0994 Y 21.5337 Z -1.0000
G01 X 21.1092 Y 21.5377 Z -1.0000
G01 X 21.1199 Y 21.5412 Z -1.0000
G01 X 21.1273 Y 21.5508 Z -1.0000
G01 X 21.1347 Y 21.5604 Z -1.0000
G01 X 21.1457 Y 21.5640 Z -1.0000
G01 X 21.1554 Y 21.5676 Z -1.0000
G01 X 21.1591 Y 21.5756 Z -1.0000
G02 X 21.1797 Y 21.6221 Z -1.0000 I 0.0628 J -0.0000
G02 X 21.2330 Y 21.6427 Z -1.0000 I 0.0533 J -0.0586
G01 X 21.2367 Y 21.6368 Z -1.0000
G02 X 21.2156 Y 21.6054 Z -1.0000 I -0.1099 J 0.0510
G03 X 21.2033 Y 21.5858 Z -1.0000 I 0.0457 J -0.0424
G01 X 21.2062 Y 21.5815 Z -1.0000
G01 X 21.2356 Y 21.5924 Z -1.0000
G01 X 21.2466 Y 21.6165 Z -1.0000
G01 X 21.2512 Y 21.6277 Z -1.0000
G02 X 21.2940 Y 21.6646 Z -1.0000 I 0.2454 J -0.2413
G03 X 21.3494 Y 21.7115 Z -1.0000 I -0.2951 J 0.4052
G01 X 21.3569 Y 21.7262 Z -1.0000
G01 X 21.3504 Y 21.7320 Z -1.0000
G03 X 21.3218 Y 21.7171 Z -1.0000 I 0.0179 J -0.0690
G02 X 21.2884 Y 21.6974 Z -1.0000 I -0.0715 J 0.0832
G01 X 21.2816 Y 21.7021 Z -1.0000
G01 X 21.2842 Y 21.7075 Z -1.0000
G02 X 21.3248 Y 21.7350 Z -1.0000 I 0.2686 J -0.3536
G03 X 21.3643 Y 21.7638 Z -1.0000 I -0.1365 J 0.2280
G01 X 21.3739 Y 21.7783 Z -1.0000
G01 X 21.3790 Y 21.7800 Z -1.0000
G01 X 21.3861 Y 21.7695 Z -1.0000
G01 X 21.3940 Y 21.7624 Z -1.0000
G01 X 21.4024 Y 21.7673 Z -1.0000
G01 X 21.4169 Y 21.7846 Z -1.0000
G01 X 21.4403 Y 21.7914 Z -1.0000
G01 X 21.4625 Y 21.7972 Z -1.0000
G01 X 21.4608 Y 21.8032 Z -1.0000
G01 X 21.4670 Y 21.8154 Z -1.0000
G01 X 21.4703 Y 21.8267 Z -1.0000
G01 X 21.4647 Y 21.8357 Z -1.0000
G01 X 21.4910 Y 21.8438 Z -1.0000
G01 X 21.5125 Y 21.8498 Z -1.0000
G01 X 21.5128 Y 21.8568 Z -1.0000
G01 X 21.5098 Y 21.8651 Z -1.0000
G01 X 21.5158 Y 21.8699 Z -1.0000
G01 X 21.5329 Y 21.8743 Z -1.0000
G01 X 21.5408 Y 21.8833 Z -1.0000
G01 X 21.5486 Y 21.8925 Z -1.0000
G01 X 21.5624 Y 21.8964 Z -1.0000
G01 X 21.5746 Y 21.9008 Z -1.0000
G01 X 21.5790 Y 21.9102 Z -1.0000
G01 X 21.5911 Y 21.9369 Z -1.0000
G01 X 21.6232 Y 21.9489 Z -1.0000
G01 X 21.6320 Y 21.9538 Z -1.0000
G01 X 21.6315 Y 21.9621 Z -1.0000
G01 X 21.6310 Y 21.9703 Z -1.0000
G01 X 21.6398 Y 21.9752 Z -1.0000
G01 X 21.6575 Y 21.9786 Z -1.0000
G01 X 21.6721 Y 21.9883 Z -1.0000
G01 X 21.6866 Y 21.9982 Z -1.0000
G01 X 21.7021 Y 22.0014 Z -1.0000
G01 X 21.7149 Y 22.0055 Z -1.0000
G01 X 21.7190 Y 22.0133 Z -1.0000
G02 X 21.7594 Y 22.0802 Z -1.0000 I 0.0756 J 0.0000
G01 X 21.8087 Y 22.0604 Z -1.0000
G01 X 21.8142 Y 22.0556 Z -1.0000
G01 X 21.8277 Y 22.0568 Z -1.0000
G01 X 21.8350 Y 22.0651 Z -1.0000
G01 X 21.8325 Y 22.0761 Z -1.0000
G01 X 21.8250 Y 22.0917 Z -1.0000
G02 X 21.8688 Y 22.1151 Z -1.0000 I 0.1211 J -0.1744
G01 X 21.8884 Y 22.1164 Z -1.0000
G01 X 21.8953 Y 22.1169 Z -1.0000
G03 X 21.9080 Y 22.1246 Z -1.0000 I -0.0195 J 0.0466
G01 X 21.9207 Y 22.1306 Z -1.0000
G01 X 21.9330 Y 22.1297 Z -1.0000
G01 X 21.9493 Y 22.1354 Z -1.0000
G01 X 21.9455 Y 22.1510 Z -1.0000
G01 X 21.9440 Y 22.1556 Z -1.0000
G01 X 21.9488 Y 22.1588 Z -1.0000
G01 X 21.9609 Y 22.1621 Z -1.0000
G01 X 21.9641 Y 22.1677 Z -1.0000
G01 X 21.9669 Y 22.1737 Z -1.0000
G01 X 21.9750 Y 22.1766 Z -1.0000
G01 X 21.9834 Y 22.1806 Z -1.0000
G03 X 21.9991 Y 22.2051 Z -1.0000 I -0.0829 J 0.0702
G02 X 22.0159 Y 22.2284 Z -1.0000 I 0.0694 J -0.0323
G01 X 22.0319 Y 22.2361 Z -1.0000
G01 X 22.0646 Y 22.2272 Z -1.0000
G01 X 22.0712 Y 22.2048 Z -1.0000
G01 X 22.0757 Y 22.1991 Z -1.0000
G03 X 22.1045 Y 22.2073 Z -1.0000 I -0.0056 J 0.0747
G01 X 22.1232 Y 22.2328 Z -1.0000
G01 X 22.1122 Y 22.2510 Z -1.0000
G01 X 22.0957 Y 22.2469 Z -1.0000
G01 X 22.0952 Y 22.2335 Z -1.0000
G01 X 22.0994 Y 22.2234 Z -1.0000
G01 X 22.0964 Y 22.2202 Z -1.0000
G01 X 22.0893 Y 22.2229 Z -1.0000
G01 X 22.0866 Y 22.2289 Z -1.0000
G01 X 22.0836 Y 22.2346 Z -1.0000
G01 X 22.0740 Y 22.2376 Z -1.0000
G01 X 22.0542 Y 22.2471 Z -1.0000
G01 X 22.0550 Y 22.2614 Z -1.0000
G01 X 22.0609 Y 22.2649 Z -1.0000
G02 X 22.0930 Y 22.2721 Z -1.0000 I 0.0805 J -0.2826
G01 X 22.1173 Y 22.2846 Z -1.0000
G01 X 22.1246 Y 22.3036 Z -1.0000
G01 X 22.1275 Y 22.3185 Z -1.0000
G01 X 22.1436 Y 22.3096 Z -1.0000
G01 X 22.1609 Y 22.3251 Z -1.0000
G01 X 22.1753 Y 22.3357 Z -1.0000
G01 X 22.1890 Y 22.3251 Z -1.0000
G01 X 22.1999 Y 22.3195 Z -1.0000
G01 X 22.2090 Y 22.3327 Z -1.0000
G01 X 22.2158 Y 22.3543 Z -1.0000
G02 X 22.2426 Y 22.3810 Z -1.0000 I 0.0876 J -0.0609
G03 X 22.2748 Y 22.4057 Z -1.0000 I -0.2464 J 0.3556
G03 X 22.3009 Y 22.4302 Z -1.0000 I -0.2157 J 0.2561
G03 X 22.3152 Y 22.4563 Z -1.0000 I -0.0414 J 0.0396
G01 X 22.3112 Y 22.4722 Z -1.0000
G02 X 22.2986 Y 22.4892 Z -1.0000 I 0.0824 J 0.0741
G01 X 22.2967 Y 22.4965 Z -1.0000
G01 X 22.3037 Y 22.4938 Z -1.0000
G01 X 22.3126 Y 22.4859 Z -1.0000
G03 X 22.3385 Y 22.4773 Z -1.0000 I 0.0479 J 0.1012
G01 X 22.3610 Y 22.4785 Z -1.0000
G01 X 22.3665 Y 22.4859 Z -1.0000
G01 X 22.3703 Y 22.4956 Z -1.0000
G01 X 22.3775 Y 22.4980 Z -1.0000
G01 X 22.3837 Y 22.5006 Z -1.0000
G01 X 22.3859 Y 22.5111 Z -1.0000
G01 X 22.3884 Y 22.5221 Z -1.0000
G01 X 22.3968 Y 22.5264 Z -1.0000
G01 X 22.4064 Y 22.5303 Z -1.0000
G01 X 22.4103 Y 22.5398 Z -1.0000
G01 X 22.4138 Y 22.5508 Z -1.0000
G01 X 22.4234 Y 22.5582 Z -1.0000
G01 X 22.4325 Y 22.5661 Z -1.0000
G01 X 22.4366 Y 22.5816 Z -1.0000
G01 X 22.4406 Y 22.5901 Z -1.0000
G01 X 22.4467 Y 22.5898 Z -1.0000
G01 X 22.4767 Y 22.5889 Z -1.0000
G03 X 22.4977 Y 22.6350 Z -1.0000 I -0.0414 J 0.0467
G01 X 22.5033 Y 22.6464 Z -1.0000
G01 X 22.5087 Y 22.6453 Z -1.0000
G01 X 22.5214 Y 22.6537 Z -1.0000
G01 X 22.5354 Y 22.6632 Z -1.0000
G01 X 22.5510 Y 22.6664 Z -1.0000
G03 X 22.6021 Y 22.6839 Z -1.0000 I -0.0000 J 0.0835
G01 X 22.5963 Y 22.7015 Z -1.0000
G01 X 22.6021 Y 22.7095 Z -1.0000
G01 X 22.6149 Y 22.7132 Z -1.0000
G02 X 22.6351 Y 22.7095 Z -1.0000 I -0.0000 J -0.0572
G01 X 22.6452 Y 22.7110 Z -1.0000
G01 X 22.6468 Y 22.7184 Z -1.0000
G01 X 22.6428 Y 22.7375 Z -1.0000
G01 X 22.6487 Y 22.7428 Z -1.0000
G03 X 22.6826 Y 22.7490 Z -1.0000 I 0.0029 J 0.0799
G01 X 22.6868 Y 22.7589 Z -1.0000
G01 X 22.6920 Y 22.7898 Z -1.0000
G01 X 22.7158 Y 22.7937 Z -1.0000
G01 X 22.7566 Y 22.7929 Z -1.0000
G03 X 22.7897 Y 22.8356 Z -1.0000 I -0.0346 J 0.0610
G01 X 22.7977 Y 22.8450 Z -1.0000
G01 X 22.8123 Y 22.8459 Z -1.0000
G01 X 22.8267 Y 22.8485 Z -1.0000
G03 X 22.8433 Y 22.8705 Z -1.0000 I -0.0346 J 0.0434
G02 X 22.8617 Y 22.8939 Z -1.0000 I 0.0515 J -0.0215
G02 X 22.8935 Y 22.9075 Z -1.0000 I 0.0446 J -0.0605
G01 X 22.9199 Y 22.9178 Z -1.0000
G01 X 22.9169 Y 22.9285 Z -1.0000
G01 X 22.9366 Y 22.9376 Z -1.0000
G01 X 22.9507 Y 22.9424 Z -1.0000
G01 X 22.9588 Y 22.9544 Z -1.0000
G01 X 22.9677 Y 22.9668 Z -1.0000
G02 X 23.0011 Y 22.9824 Z -1.0000 I 0.0688 J -0.1040
G03 X 23.0349 Y 22.9977 Z -1.0000 I -0.0377 J 0.1282
G01 X 23.0431 Y 23.0090 Z -1.0000
G01 X 23.0509 Y 23.0203 Z -1.0000
G02 X 23.0721 Y 23.0298 Z -1.0000 I 0.0336 J -0.0465
G03 X 23.1088 Y 23.0454 Z -1.0000 I -0.0232 J 0.1055
G01 X 23.1090 Y 23.0544 Z -1.0000
G01 X 23.1061 Y 23.0639 Z -1.0000
G01 X 23.1163 Y 23.0752 Z -1.0000
G01 X 23.1301 Y 23.0769 Z -1.0000
G01 X 23.1328 Y 23.0720 Z -1.0000
G01 X 23.1337 Y 23.0650 Z -1.0000
G01 X 23.1386 Y 23.0637 Z -1.0000
G02 X 23.1497 Y 23.0685 Z -1.0000 I 0.0846 J -0.1813
G02 X 23.1656 Y 23.0744 Z -1.0000 I 0.1595 J -0.4034
G01 X 23.1756 Y 23.0832 Z -1.0000
G01 X 23.1771 Y 23.0972 Z -1.0000
G01 X 23.1806 Y 23.1070 Z -1.0000
G01 X 23.1947 Y 23.1102 Z -1.0000
G01 X 23.2090 Y 23.1132 Z -1.0000
G01 X 23.2124 Y 23.1224 Z -1.0000
G01 X 23.2113 Y 23.1363 Z -1.0000
G01 X 23.2141 Y 23.1388 Z -1.0000
G01 X 23.2193 Y 23.1407 Z -1.0000
G03 X 23.2548 Y 23.1735 Z -1.0000 I -0.3988 J 0.4678
G02 X 23.2910 Y 23.2051 Z -1.0000 I 0.2531 J -0.2535
G01 X 23.3008 Y 23.2085 Z -1.0000
G01 X 23.3097 Y 23.2122 Z -1.0000
G01 X 23.3175 Y 23.2241 Z -1.0000
G02 X 23.3404 Y 23.2610 Z -1.0000 I 0.0984 J -0.0354
G01 X 23.3615 Y 23.2701 Z -1.0000
G01 X 23.3669 Y 23.2727 Z -1.0000
G03 X 23.3772 Y 23.2897 Z -1.0000 I -0.0598 J 0.0478
G01 X 23.3887 Y 23.3057 Z -1.0000
G01 X 23.4022 Y 23.3124 Z -1.0000
G01 X 23.4112 Y 23.3100 Z -1.0000
G01 X 23.4125 Y 23.3037 Z -1.0000
G01 X 23.4199 Y 23.3094 Z -1.0000
G02 X 23.4335 Y 23.3268 Z -1.0000 I 1.2299 J -0.9480
G02 X 23.4409 Y 23.3359 Z -1.0000 I 0.3205 J -0.2544
G01 X 23.4454 Y 23.3454 Z -1.0000
G01 X 23.4448 Y 23.3556 Z -1.0000
G01 X 23.4466 Y 23.3624 Z -1.0000
G01 X 23.4567 Y 23.3663 Z -1.0000
G01 X 23.4707 Y 23.3699 Z -1.0000
G03 X 23.4930 Y 23.3859 Z -1.0000 I -0.0500 J 0.0928
G02 X 23.5149 Y 23.4032 Z -1.0000 I 0.1111 J -0.1182
G01 X 23.5242 Y 23.4064 Z -1.0000
G02 X 23.5345 Y 23.4074 Z -1.0000 I 0.3382 J -3.6304
G02 X 23.5504 Y 23.4087 Z -1.0000 I 0.1451 J -1.6068
G01 X 23.5603 Y 23.4130 Z -1.0000
G01 X 23.5611 Y 23.4182 Z -1.0000
G01 X 23.5605 Y 23.4254 Z -1.0000
G01 X 23.5671 Y 23.4335 Z -1.0000
G01 X 23.5768 Y 23.4419 Z -1.0000
G03 X 23.5870 Y 23.4565 Z -1.0000 I -0.0640 J 0.0553
G02 X 23.5980 Y 23.4702 Z -1.0000 I 0.0444 J -0.0245
G02 X 23.6220 Y 23.4872 Z -1.0000 I 0.0932 J -0.1064
G03 X 23.6467 Y 23.5035 Z -1.0000 I -0.0993 J 0.1770
G01 X 23.6552 Y 23.5128 Z -1.0000
G01 X 23.6636 Y 23.5212 Z -1.0000
G01 X 23.6725 Y 23.5238 Z -1.0000
G01 X 23.6815 Y 23.5269 Z -1.0000
G03 X 23.7137 Y 23.5570 Z -1.0000 I -0.1940 J 0.2396
G02 X 23.7468 Y 23.5870 Z -1.0000 I 0.1838 J -0.1702
G02 X 23.7735 Y 23.6021 Z -1.0000 I 0.0713 J -0.0947
G03 X 23.7919 Y 23.6148 Z -1.0000 I -0.0192 J 0.0471
G01 X 23.7910 Y 23.6212 Z -1.0000
G01 X 23.7886 Y 23.6259 Z -1.0000
G01 X 23.7914 Y 23.6286 Z -1.0000
G01 X 23.8015 Y 23.6321 Z -1.0000
G03 X 23.8204 Y 23.6506 Z -1.0000 I -0.0627 J 0.0828
G02 X 23.8394 Y 23.6689 Z -1.0000 I 0.0781 J -0.0617
G01 X 23.8501 Y 23.6725 Z -1.0000
G01 X 23.8614 Y 23.6752 Z -1.0000
G03 X 23.8822 Y 23.6891 Z -1.0000 I -0.0515 J 0.0995
G02 X 24.0050 Y 23.7874 Z -1.0000 I 1.9255 J -2.2808
G02 X 24.0376 Y 23.8068 Z -1.0000 I 0.1048 J -0.1383
G03 X 24.0577 Y 23.8192 Z -1.0000 I -0.0402 J 0.0878
G03 X 24.0856 Y 23.8453 Z -1.0000 I -0.1581 J 0.1978
G02 X 24.1132 Y 23.8706 Z -1.0000 I 0.1686 J -0.1555
G01 X 24.1221 Y 23.8737 Z -1.0000
G01 X 24.1307 Y 23.8760 Z -1.0000
G01 X 24.1353 Y 23.8815 Z -1.0000
G01 X 24.1398 Y 23.8882 Z -1.0000
G02 X 24.1834 Y 23.9249 Z -1.0000 I 0.5733 J -0.6364
G03 X 24.2209 Y 23.9631 Z -1.0000 I -0.1301 J 0.1653
G01 X 24.2240 Y 23.9783 Z -1.0000
G01 X 24.2260 Y 23.9910 Z -1.0000
G01 X 24.2356 Y 23.9962 Z -1.0000
G01 X 24.2458 Y 24.0022 Z -1.0000
G01 X 24.2511 Y 24.0242 Z -1.0000
G01 X 24.2388 Y 24.0470 Z -1.0000
G01 X 24.2216 Y 24.0446 Z -1.0000
G02 X 24.2095 Y 24.0332 Z -1.0000 I -0.0530 J 0.0437
G01 X 24.2036 Y 24.0312 Z -1.0000
G01 X 24.1958 Y 24.0424 Z -1.0000
G02 X 24.2249 Y 24.0903 Z -1.0000 I 0.1326 J -0.0478
G02 X 24.3437 Y 24.2066 Z -1.0000 I 1.2157 J -1.1239
G01 X 24.3658 Y 24.2149 Z -1.0000
G01 X 24.3731 Y 24.2177 Z -1.0000
G03 X 24.3856 Y 24.2324 Z -1.0000 I -0.0452 J 0.0507
G02 X 24.3985 Y 24.2463 Z -1.0000 I 0.0425 J -0.0265
G01 X 24.4095 Y 24.2499 Z -1.0000
G01 X 24.4183 Y 24.2535 Z -1.0000
G01 X 24.4204 Y 24.2606 Z -1.0000
G01 X 24.4226 Y 24.2689 Z -1.0000
G01 X 24.4379 Y 24.2801 Z -1.0000
G03 X 24.4551 Y 24.2907 Z -1.0000 I -0.0337 J 0.0746
G01 X 24.4576 Y 24.2958 Z -1.0000
G01 X 24.4601 Y 24.2999 Z -1.0000
G01 X 24.4707 Y 24.3025 Z -1.0000
G01 X 24.4807 Y 24.3055 Z -1.0000
G01 X 24.4838 Y 24.3113 Z -1.0000
G01 X 24.4863 Y 24.3175 Z -1.0000
G01 X 24.4921 Y 24.3200 Z -1.0000
G01 X 24.4994 Y 24.3223 Z -1.0000
G03 X 24.5337 Y 24.3505 Z -1.0000 I -0.2398 J 0.3265
G02 X 24.5678 Y 24.3790 Z -1.0000 I 0.3213 J -0.3498
G01 X 24.5740 Y 24.3812 Z -1.0000
G01 X 24.5803 Y 24.3833 Z -1.0000
G03 X 24.6090 Y 24.4078 Z -1.0000 I -0.2097 J 0.2754
G02 X 24.6797 Y 24.4547 Z -1.0000 I 0.1692 J -0.1780
G01 X 24.7074 Y 24.4508 Z -1.0000
G01 X 24.7206 Y 24.4455 Z -1.0000
G01 X 24.7302 Y 24.4490 Z -1.0000
G01 X 24.7314 Y 24.4575 Z -1.0000
G01 X 24.7167 Y 24.4733 Z -1.0000
G01 X 24.7010 Y 24.5020 Z -1.0000
G01 X 24.7162 Y 24.5377 Z -1.0000
G02 X 24.7408 Y 24.5506 Z -1.0000 I 0.0350 J -0.0369
G02 X 24.7882 Y 24.5527 Z -1.0000 I 0.0302 J -0.1448
G02 X 24.8867 Y 24.5239 Z -1.0000 I -0.0359 J -0.3058
G01 X 24.9039 Y 24.4965 Z -1.0000
G01 X 24.9163 Y 24.4730 Z -1.0000
G03 X 25.0767 Y 24.3782 Z -1.0000 I 0.7882 J 1.1511
G03 X 25.1361 Y 24.3528 Z -1.0000 I 0.2350 J 0.4665
G01 X 25.1401 Y 24.3556 Z -1.0000
G01 X 25.1331 Y 24.3796 Z -1.0000
G03 X 25.0900 Y 24.4337 Z -1.0000 I -0.2861 J -0.1833
G02 X 25.0619 Y 24.4657 Z -1.0000 I 0.2816 J 0.2752
G02 X 25.0480 Y 24.4872 Z -1.0000 I 0.1123 J 0.0882
G01 X 25.0452 Y 24.5083 Z -1.0000
G01 X 25.0574 Y 24.5287 Z -1.0000
G03 X 25.0781 Y 24.5737 Z -1.0000 I -0.0396 J 0.0455
G03 X 25.0583 Y 24.6201 Z -1.0000 I -0.0627 J 0.0006
G02 X 25.0121 Y 24.6797 Z -1.0000 I 0.1622 J 0.1734
G02 X 25.0001 Y 24.7266 Z -1.0000 I 0.0859 J 0.0469
G01 X 25.0100 Y 24.7348 Z -1.0000
G02 X 25.0701 Y 24.7138 Z -1.0000 I -0.0379 J -0.2055
G02 X 25.1286 Y 24.6785 Z -1.0000 I -0.3093 J -0.5789
G02 X 25.1489 Y 24.6605 Z -1.0000 I -0.0577 J -0.0853
G01 X 25.1538 Y 24.6561 Z -1.0000
G03 X 25.2485 Y 24.5905 Z -1.0000 I 4.7301 J 6.7363
G02 X 25.3437 Y 24.5255 Z -1.0000 I -21.5590 J -31.6352
G02 X 25.3929 Y 24.4915 Z -1.0000 I -5.6380 J -8.2197
G03 X 25.4421 Y 24.4576 Z -1.0000 I 4.1010 J 5.9023
G03 X 25.5601 Y 24.3774 Z -1.0000 I 23.6795 J 34.6925
G02 X 25.7501 Y 24.2459 Z -1.0000 I -6.7468 J -9.9575
G02 X 25.8019 Y 24.2067 Z -1.0000 I -0.5486 J -0.7772
G03 X 25.8295 Y 24.1846 Z -1.0000 I 1.1782 J 1.4481
G03 X 25.8583 Y 24.1625 Z -1.0000 I 1.2120 J 1.5486
G02 X 25.9596 Y 24.0843 Z -1.0000 I -3.1638 J -4.2013
G02 X 26.4044 Y 23.7301 Z -1.0000 I -65.1022 J -82.2107
G03 X 26.4745 Y 23.6741 Z -1.0000 I 29.2335 J 36.5063
G03 X 26.6319 Y 23.5486 Z -1.0000 I 148.1168 J 185.6945
G02 X 27.1038 Y 23.1691 Z -1.0000 I -38.8626 J -48.8067
G02 X 27.1263 Y 23.1471 Z -1.0000 I -0.1065 J -0.1312
G01 X 27.1310 Y 23.1424 Z -1.0000
G03 X 27.1788 Y 23.1029 Z -1.0000 I 2.0780 J 2.4672
G02 X 27.2267 Y 23.0638 Z -1.0000 I -5.0215 J -6.1996
G02 X 27.2488 Y 23.0453 Z -1.0000 I -1.0376 J -1.2609
G03 X 27.2707 Y 23.0268 Z -1.0000 I 1.7970 J 2.1090
G03 X 27.4456 Y 22.8811 Z -1.0000 I 111.3760 J 133.4975
G02 X 27.7286 Y 22.6449 Z -1.0000 I -77.1933 J -92.7769
G02 X 27.8432 Y 22.5482 Z -1.0000 I -12.8343 J -15.3298
G03 X 27.9360 Y 22.4696 Z -1.0000 I 21.4166 J 25.1946
G03 X 28.0451 Y 22.3779 Z -1.0000 I 29.2744 J 34.6962
G02 X 28.1540 Y 22.2859 Z -1.0000 I -13.7778 J -16.4337
G01 X 28.1587 Y 22.2813 Z -1.0000
G01 X 28.1634 Y 22.2767 Z -1.0000
G03 X 28.3075 Y 22.1543 Z -1.0000 I 24.1566 J 28.2819
G02 X 28.4511 Y 22.0314 Z -1.0000 I -9.9965 J -11.8237
G02 X 28.7312 Y 21.7871 Z -1.0000 I -38.9879 J -44.9883
G03 X 29.0105 Y 21.5420 Z -1.0000 I 1109.8520 J 1264.6400
G03 X 29.0605 Y 21.4982 Z -1.0000 I 35.6900 J 40.6856
G02 X 29.1103 Y 21.4544 Z -1.0000 I -7.7838 J -8.8967
G02 X 29.2137 Y 21.3626 Z -1.0000 I -33.6194 J -37.9932
G03 X 29.3172 Y 21.2710 Z -1.0000 I 20.0067 J 22.4853
G03 X 29.5056 Y 21.1053 Z -1.0000 I 66.9070 J 75.8948
G02 X 29.6940 Y 20.9395 Z -1.0000 I -46.0506 J -52.4975
G02 X 29.7383 Y 20.8997 Z -1.0000 I -2.5974 J -2.9397
G03 X 29.7826 Y 20.8598 Z -1.0000 I 3.5607 J 3.9090
G03 X 29.8171 Y 20.8296 Z -1.0000 I 2.0578 J 2.3109
G02 X 29.8516 Y 20.7994 Z -1.0000 I -2.6500 J -3.0665
G02 X 29.8913 Y 20.7639 Z -1.0000 I -3.6265 J -4.1017
G03 X 29.9704 Y 20.6933 Z -1.0000 I 7.7567 J 8.6024
G03 X 30.0749 Y 20.6014 Z -1.0000 I 13.1884 J 14.8983
G02 X 30.0899 Y 20.5882 Z -1.0000 I -0.6824 J -0.7867
G02 X 30.2071 Y 20.4823 Z -1.0000 I -61.4350 J -68.1357
G03 X 30.3244 Y 20.3765 Z -1.0000 I 30.1220 J 33.2949
G03 X 30.5517 Y 20.1727 Z -1.0000 I 111.3770 J 123.9830
G02 X 30.7789 Y 19.9688 Z -1.0000 I -75.2094 J -84.0303
G02 X 30.8186 Y 19.9325 Z -1.0000 I -2.3325 J -2.5919
G03 X 30.8756 Y 19.8806 Z -1.0000 I 3.0233 J 3.2568
G03 X 31.1156 Y 19.6662 Z -1.0000 I 51.9826 J 57.9842
G02 X 31.2075 Y 19.5837 Z -1.0000 I -8.3803 J -9.4253
G02 X 31.2700 Y 19.5263 Z -1.0000 I -3.9786 J -4.3874
G03 X 31.3327 Y 19.4690 Z -1.0000 I 2.6676 J 2.8586
G03 X 31.5013 Y 19.3196 Z -1.0000 I 18.2707 J 20.4510
G02 X 31.6703 Y 19.1705 Z -1.0000 I -32.7400 J -37.2583
G02 X 31.8072 Y 19.0484 Z -1.0000 I -21.7625 J -24.5400
G03 X 31.9439 Y 18.9260 Z -1.0000 I 78.0687 J 87.0494
G03 X 31.9864 Y 18.8881 Z -1.0000 I 7.4109 J 8.2895
G02 X 32.0770 Y 18.8066 Z -1.0000 I -4.7504 J -5.3697
G02 X 32.2596 Y 18.6380 Z -1.0000 I -20.3257 J -22.2031
G03 X 32.3152 Y 18.5867 Z -1.0000 I 7.2993 J 7.8422
G03 X 32.3311 Y 18.5724 Z -1.0000 I 0.5859 J 0.6385
G02 X 32.3470 Y 18.5583 Z -1.0000 I -0.8533 J -0.9752
G02 X 32.4209 Y 18.4912 Z -1.0000 I -17.2676 J -19.0926
G03 X 32.5401 Y 18.3960 Z -1.0000 I 0.7868 J 0.8631
G01 X 32.5553 Y 18.3975 Z -1.0000
G03 X 32.5650 Y 18.4110 Z -1.0000 I -0.0426 J 0.0407
G03 X 32.5889 Y 18.4621 Z -1.0000 I -0.5948 J 0.3100
G02 X 32.6465 Y 18.5917 Z -1.0000 I 2.9594 J -1.2374
G02 X 32.8465 Y 19.0090 Z -1.0000 I 30.9398 J -14.5746
G03 X 33.0150 Y 19.3738 Z -1.0000 I -8.4961 J 4.1437
G03 X 33.0235 Y 19.4147 Z -1.0000 I -0.0938 J 0.0409
G01 X 33.0246 Y 19.4207 Z -1.0000
G02 X 33.0896 Y 19.5890 Z -1.0000 I 13.6074 J -5.1622
G02 X 33.1673 Y 19.7794 Z -1.0000 I 7.7379 J -3.0458
G02 X 33.2420 Y 19.9496 Z -1.0000 I 6.2656 J -2.6470
G03 X 33.2658 Y 20.0021 Z -1.0000 I -14.1740 J 6.4512
G03 X 33.2794 Y 20.0327 Z -1.0000 I -4.7651 J 2.1475
G02 X 33.2932 Y 20.0632 Z -1.0000 I 2.3746 J -1.0576
G02 X 33.3279 Y 20.1377 Z -1.0000 I 10.6919 J -4.9279
G03 X 33.3627 Y 20.2121 Z -1.0000 I -29.7998 J 13.9892
G03 X 33.3952 Y 20.2821 Z -1.0000 I -31.0908 J 14.5006
G03 X 33.5537 Y 20.6323 Z -1.0000 I -19.0308 J 8.8219
G01 X 33.5572 Y 20.6490 Z -1.0000
G01 X 33.5579 Y 20.6525 Z -1.0000
G02 X 33.5826 Y 20.7080 Z -1.0000 I 2.2696 J -0.9751
G03 X 33.6075 Y 20.7635 Z -1.0000 I -3.4167 J 1.5685
G03 X 33.6647 Y 20.8946 Z -1.0000 I -19.2699 J 8.4713
G02 X 33.7799 Y 21.1488 Z -1.0000 I 6.9642 J -3.0050
G02 X 34.0310 Y 21.6644 Z -1.0000 I 28.8887 J -13.7476
G03 X 34.2432 Y 22.1042 Z -1.0000 I -17.3551 J 8.6438
G03 X 34.3190 Y 22.2812 Z -1.0000 I -2.7317 J 1.2757
G02 X 34.3895 Y 22.4606 Z -1.0000 I 61.2098 J -23.9519
G02 X 34.3968 Y 22.4782 Z -1.0000 I 0.6198 J -0.2446
G03 X 34.4041 Y 22.4957 Z -1.0000 I -1.2566 J 0.5367
G03 X 34.4632 Y 22.6401 Z -1.0000 I -71.7472 J 29.4702
G02 X 34.5235 Y 22.7839 Z -1.0000 I 7.9585 J -3.2505
G02 X 34.5873 Y 22.9288 Z -1.0000 I 8.1095 J -3.4852
G02 X 34.6604 Y 23.0892 Z -1.0000 I 20.9733 J -9.4631
G02 X 34.7384 Y 23.2569 Z -1.0000 I 22.9671 J -10.5752
G03 X 34.8839 Y 23.5745 Z -1.0000 I -17.0995 J 8.0253
G01 X 34.8871 Y 23.5897 Z -1.0000
G01 X 34.8904 Y 23.6058 Z -1.0000
G02 X 35.0722 Y 24.0312 Z -1.0000 I 30.3289 J -12.7088
G02 X 35.2064 Y 24.3278 Z -1.0000 I 10.5438 J -4.5933
G02 X 35.3188 Y 24.5562 Z -1.0000 I 6.3817 J -2.9977
G03 X 35.4530 Y 24.8227 Z -1.0000 I -15.1709 J 7.8075
G03 X 35.5225 Y 24.9696 Z -1.0000 I -4.5543 J 2.2440
G02 X 35.5634 Y 25.0592 Z -1.0000 I 16.1237 J -7.3150
G02 X 35.6014 Y 25.1410 Z -1.0000 I 12.5560 J -5.7808
G03 X 35.6390 Y 25.2228 Z -1.0000 I -5.7520 J 2.6928
G01 X 35.6396 Y 25.2257 Z -1.0000
G02 X 35.6930 Y 25.4545 Z -1.0000 I 0.5167 J -0.0000
G02 X 35.9894 Y 25.9343 Z -1.0000 I 2.6709 J -1.3186
G03 X 35.9952 Y 25.9435 Z -1.0000 I -0.0531 J 0.0398
G03 X 36.1122 Y 26.1705 Z -1.0000 I -30.3595 J 15.7832
G02 X 36.3155 Y 26.5657 Z -1.0000 I 60.9300 J -31.1006
G02 X 36.4812 Y 26.8820 Z -1.0000 I 39.2211 J -20.3419
G02 X 36.5468 Y 27.0037 Z -1.0000 I 7.6306 J -4.0354
G02 X 36.6744 Y 27.2336 Z -1.0000 I 27.6297 J -15.1831
G03 X 36.6963 Y 27.2730 Z -1.0000 I -7.4180 J 4.1576
G03 X 36.7397 Y 27.3517 Z -1.0000 I -29.1086 J 16.1123
G02 X 36.8984 Y 27.6359 Z -1.0000 I 23.0357 J -12.6715
G02 X 36.9256 Y 27.6798 Z -1.0000 I 0.5779 J -0.3273
G03 X 36.9396 Y 27.7021 Z -1.0000 I -0.3529 J 0.2376
G03 X 36.9948 Y 27.7979 Z -1.0000 I -6.2699 J 3.6790
G02 X 37.0497 Y 27.8940 Z -1.0000 I 16.3469 J -9.2635
G02 X 37.0577 Y 27.9073 Z -1.0000 I 0.3137 J -0.1802
G03 X 37.0656 Y 27.9206 Z -1.0000 I -0.2254 J 0.1440
G03 X 37.0994 Y 27.9817 Z -1.0000 I -5.6253 J 3.1501
G02 X 37.1659 Y 28.0999 Z -1.0000 I 4.7802 J -2.6094
G02 X 37.1880 Y 28.1348 Z -1.0000 I 0.4380 J -0.2535
G03 X 37.2568 Y 28.2521 Z -1.0000 I -0.7382 J 0.5117
G03 X 37.3184 Y 28.4017 Z -1.0000 I -1.1387 J 0.5565
G02 X 37.3421 Y 28.4602 Z -1.0000 I 0.5230 J -0.1773
G02 X 37.5137 Y 28.8151 Z -1.0000 I 19.4924 J -9.2067
G02 X 37.7127 Y 28.9701 Z -1.0000 I 0.2602 J -0.1288
G02 X 38.7420 Y 29.0797 Z -1.0000 I 1.0293 J -4.7771
G02 X 39.6284 Y 28.8687 Z -1.0000 I -0.0000 J -1.9672
G02 X 39.8394 Y 28.5259 Z -1.0000 I -0.1730 J -0.3428
G02 X 39.8357 Y 27.9735 Z -1.0000 I -41.0582 J 0.0000
G01 X 39.8318 Y 27.9637 Z -1.0000
G03 X 39.8165 Y 27.9421 Z -1.0000 I 0.0784 J -0.0717
G03 X 39.5464 Y 27.4305 Z -1.0000 I 44.1260 J -23.6205
G02 X 39.4773 Y 27.2998 Z -1.0000 I -10.2684 J 5.3451
G02 X 39.3890 Y 27.1373 Z -1.0000 I -15.8825 J 8.5270
G03 X 39.3095 Y 26.9891 Z -1.0000 I 7.1246 J -3.9196
G03 X 39.0432 Y 26.4767 Z -1.0000 I 84.8695 J -44.4293
G02 X 38.9206 Y 26.2403 Z -1.0000 I -54.8965 J 28.3192
G02 X 38.8277 Y 26.0633 Z -1.0000 I -30.5801 J 15.9425
G01 X 38.7490 Y 25.9146 Z -1.0000
G02 X 38.7079 Y 25.8384 Z -1.0000 I -4.3748 J 2.3126
G02 X 38.7020 Y 25.8293 Z -1.0000 I -0.0682 J 0.0376
G03 X 38.6962 Y 25.8201 Z -1.0000 I 0.0543 J -0.0407
G03 X 38.5987 Y 25.6324 Z -1.0000 I 22.8009 J -11.9590
G03 X 38.4555 Y 25.3338 Z -1.0000 I 5.3258 J -2.7379
G03 X 38.2826 Y 24.9237 Z -1.0000 I 9.8740 J -4.4039
G03 X 38.1652 Y 24.6244 Z -1.0000 I 33.7356 J -13.4107
G03 X 38.0336 Y 24.2806 Z -1.0000 I 44.4038 J -17.1978
G02 X 37.9766 Y 24.1321 Z -1.0000 I -15.7590 J 5.9638
G02 X 37.9552 Y 24.0794 Z -1.0000 I -2.0025 J 0.7795
G03 X 37.8890 Y 23.9095 Z -1.0000 I 3.2682 J -1.3726
G03 X 37.8142 Y 23.6883 Z -1.0000 I 5.4737 J -1.9745
G02 X 37.7557 Y 23.5115 Z -1.0000 I -6.6148 J 2.0899
G02 X 37.7089 Y 23.3838 Z -1.0000 I -3.5116 J 1.2140
G03 X 37.6598 Y 23.2569 Z -1.0000 I 224.4129 J -86.9287
G03 X 37.6429 Y 23.2132 Z -1.0000 I 27.0747 J -10.4701
G02 X 37.5652 Y 23.0361 Z -1.0000 I -1.9628 J 0.7560
G02 X 37.4134 Y 22.7494 Z -1.0000 I -5.2988 J 2.6227
G02 X 37.3835 Y 22.6970 Z -1.0000 I -8.1940 J 4.6320
G02 X 37.3339 Y 22.6109 Z -1.0000 I -22.9765 J 13.1834
G03 X 37.2448 Y 22.4413 Z -1.0000 I 2.0212 J -1.1701
G03 X 37.2180 Y 22.3664 Z -1.0000 I 0.3644 J -0.1727
G02 X 37.1105 Y 22.0562 Z -1.0000 I -1.8022 J 0.4507
G02 X 36.8773 Y 21.6076 Z -1.0000 I -4.0201 J 1.8049
G03 X 36.8061 Y 21.4675 Z -1.0000 I 1.0165 J -0.6050
G03 X 36.7950 Y 21.4150 Z -1.0000 I 0.1269 J -0.0542
G02 X 36.7648 Y 21.2045 Z -1.0000 I -0.8198 J 0.0101
G02 X 36.4870 Y 20.3127 Z -1.0000 I -15.2435 J 4.2601
G02 X 36.3844 Y 20.0180 Z -1.0000 I -43.0637 J 14.8250
G02 X 36.3746 Y 19.9933 Z -1.0000 I -0.3098 J 0.1090
G03 X 36.3674 Y 19.9756 Z -1.0000 I 0.2445 J -0.1095
G03 X 36.3538 Y 19.9364 Z -1.0000 I 1.2656 J -0.4616
G02 X 36.2611 Y 19.6766 Z -1.0000 I -5.4566 J 1.7999
G02 X 36.1908 Y 19.5121 Z -1.0000 I -2.2555 J 0.8662
G03 X 36.1830 Y 19.4945 Z -1.0000 I 0.3985 J -0.1868
G03 X 36.1526 Y 19.4202 Z -1.0000 I 6.2213 J -2.5902
G02 X 36.1082 Y 19.3123 Z -1.0000 I -6.8461 J 2.7558
G02 X 36.0771 Y 19.2409 Z -1.0000 I -3.0259 J 1.2740
G03 X 36.0617 Y 19.2058 Z -1.0000 I 2.6673 J -1.1916
G03 X 36.0244 Y 19.1184 Z -1.0000 I 12.8533 J -5.5411
G02 X 35.9864 Y 19.0314 Z -1.0000 I -3.9990 J 1.6920
G02 X 35.9811 Y 19.0221 Z -1.0000 I -0.0497 J 0.0223
G03 X 35.9759 Y 19.0129 Z -1.0000 I 0.0450 J -0.0318
G03 X 35.9603 Y 18.9758 Z -1.0000 I 0.6899 J -0.3107
G02 X 35.9207 Y 18.8800 Z -1.0000 I -2.2401 J 0.8697
G02 X 35.6946 Y 18.3703 Z -1.0000 I -64.0191 J 28.0900
G02 X 35.5783 Y 18.1147 Z -1.0000 I -22.5603 J 10.1144
G02 X 35.4602 Y 17.8628 Z -1.0000 I -22.0065 J 10.1678
G03 X 35.3709 Y 17.6745 Z -1.0000 I 57.6728 J -27.4529
G03 X 35.3487 Y 17.6266 Z -1.0000 I 3.5915 J -1.6953
G02 X 35.3266 Y 17.5785 Z -1.0000 I -7.6143 J 3.4720
G02 X 35.2959 Y 17.5128 Z -1.0000 I -14.8021 J 6.8629
G03 X 35.2653 Y 17.4471 Z -1.0000 I 21.1763 J -9.9339
G03 X 35.2389 Y 17.3903 Z -1.0000 I 14.6351 J -6.8102
G02 X 35.2126 Y 17.3335 Z -1.0000 I -9.0268 J 4.1613
G02 X 35.1672 Y 17.2372 Z -1.0000 I -23.8467 J 11.1760
G03 X 35.0739 Y 17.0392 Z -1.0000 I 58.5306 J -27.7106
G03 X 35.0378 Y 16.9616 Z -1.0000 I 8.9447 J -4.1978
G02 X 34.9700 Y 16.8165 Z -1.0000 I -10.4062 J 4.7742
G02 X 34.8576 Y 16.5829 Z -1.0000 I -27.1794 J 12.9325
G03 X 34.7752 Y 16.4094 Z -1.0000 I 9.3859 J -4.5648
G01 X 34.7734 Y 16.4013 Z -1.0000
G01 X 34.7669 Y 16.3959 Z -1.0000
G02 X 34.7387 Y 16.4076 Z -1.0000 I 0.0127 J 0.0702
G01 X 34.7328 Y 16.4073 Z -1.0000
G01 X 34.7321 Y 16.4017 Z -1.0000
G03 X 34.7478 Y 16.3819 Z -1.0000 I 0.1872 J 0.1314
G03 X 34.8242 Y 16.2973 Z -1.0000 I 3.4561 J 3.0460
G02 X 34.9799 Y 16.1227 Z -1.0000 I -4.5222 J -4.1894
G02 X 35.0951 Y 15.9817 Z -1.0000 I -2.8352 J -2.4333
G02 X 35.1581 Y 15.8858 Z -1.0000 I -0.5705 J -0.4433
G02 X 35.1671 Y 15.8503 Z -1.0000 I -0.0647 J -0.0355
G01 X 35.1716 Y 15.8400 Z -1.0000
G01 X 35.1799 Y 15.8384 Z -1.0000
G01 X 35.2013 Y 15.8316 Z -1.0000
G02 X 35.2376 Y 15.7520 Z -1.0000 I -0.2270 J -0.1517
G02 X 35.2382 Y 15.7200 Z -1.0000 I -0.0630 J -0.0173
G02 X 35.2146 Y 15.6528 Z -1.0000 I -0.3145 J 0.0728
G02 X 35.1775 Y 15.5921 Z -1.0000 I -0.3183 J 0.1531
G01 X 35.1574 Y 15.5775 Z -1.0000
G03 X 35.1339 Y 15.5675 Z -1.0000 I 0.0585 J -0.1693
G01 X 35.1322 Y 15.5646 Z -1.0000
G01 X 35.1332 Y 15.5608 Z -1.0000
G03 X 35.1572 Y 15.5239 Z -1.0000 I 0.7749 J 0.4773
G02 X 35.1771 Y 15.4861 Z -1.0000 I -0.1528 J -0.1046
G01 X 35.1798 Y 15.4655 Z -1.0000
G02 X 35.1773 Y 15.4436 Z -1.0000 I -2.6765 J 0.2892
G03 X 35.1766 Y 15.4370 Z -1.0000 I 1.2001 J -0.1396
G01 X 35.1642 Y 15.4288 Z -1.0000
G01 X 35.1388 Y 15.4480 Z -1.0000
G01 X 35.1262 Y 15.4549 Z -1.0000
G01 X 35.1208 Y 15.4480 Z -1.0000
G01 X 35.1142 Y 15.4378 Z -1.0000
G01 X 35.0922 Y 15.4433 Z -1.0000
G01 X 35.0767 Y 15.4434 Z -1.0000
G01 X 35.0715 Y 15.4283 Z -1.0000
G02 X 35.0732 Y 15.4012 Z -1.0000 I -0.0611 J -0.0175
G01 X 35.0665 Y 15.3954 Z -1.0000
G01 X 35.0572 Y 15.3916 Z -1.0000
G01 X 35.0534 Y 15.3823 Z -1.0000
G01 X 35.0490 Y 15.3735 Z -1.0000
G01 X 35.0359 Y 15.3692 Z -1.0000
G01 X 35.0161 Y 15.3576 Z -1.0000
G03 X 34.9743 Y 15.2598 Z -1.0000 I 0.4246 J -0.2393
G02 X 34.9616 Y 15.2259 Z -1.0000 I -0.2631 J 0.0793
G02 X 34.9526 Y 15.2117 Z -1.0000 I -0.0560 J 0.0253
G03 X 34.9318 Y 15.1809 Z -1.0000 I 0.1368 J -0.1151
G03 X 34.8871 Y 15.0892 Z -1.0000 I 1.1922 J -0.6378
G02 X 34.8769 Y 15.0676 Z -1.0000 I -0.4439 J 0.1956
G02 X 34.8608 Y 15.0367 Z -1.0000 I -0.9634 J 0.4824
G01 X 34.8492 Y 15.0265 Z -1.0000
G01 X 34.8438 Y 15.0301 Z -1.0000
G02 X 34.8463 Y 15.0512 Z -1.0000 I 0.0782 J 0.0014
G01 X 34.8501 Y 15.0541 Z -1.0000
G01 X 34.8840 Y 15.0772 Z -1.0000
G03 X 34.8888 Y 15.1526 Z -1.0000 I -0.1142 J 0.0452
G01 X 34.8899 Y 15.1570 Z -1.0000
G01 X 34.8948 Y 15.1592 Z -1.0000
G01 X 34.9106 Y 15.1707 Z -1.0000
G03 X 34.9221 Y 15.2438 Z -1.0000 I -0.2268 J 0.0731
G01 X 34.8683 Y 15.1600 Z -1.0000
G02 X 34.8347 Y 15.1098 Z -1.0000 I -0.2569 J 0.1357
G01 X 34.8192 Y 15.1010 Z -1.0000
G01 X 34.7996 Y 15.1010 Z -1.0000
G01 X 34.8002 Y 15.1038 Z -1.0000
G02 X 34.8432 Y 15.2053 Z -1.0000 I 10.1529 J -4.2451
G03 X 34.8303 Y 15.2660 Z -1.0000 I -0.0493 J 0.0212
G01 X 34.7828 Y 15.2611 Z -1.0000
G02 X 34.7315 Y 15.2007 Z -1.0000 I -0.3927 J 0.2814
G01 X 34.7112 Y 15.1896 Z -1.0000
G03 X 34.6758 Y 15.1673 Z -1.0000 I 0.0133 J -0.0604
G01 X 34.6745 Y 15.1426 Z -1.0000
G01 X 34.6785 Y 15.1271 Z -1.0000
G02 X 34.6725 Y 15.1003 Z -1.0000 I -0.0780 J 0.0036
G03 X 34.6638 Y 15.0736 Z -1.0000 I 0.1557 J -0.0656
G01 X 34.6650 Y 15.0692 Z -1.0000
G01 X 34.6689 Y 15.0503 Z -1.0000
G02 X 34.6422 Y 15.0105 Z -1.0000 I -0.1035 J 0.0405
G03 X 34.5928 Y 14.9467 Z -1.0000 I 0.1871 J -0.1958
G03 X 34.5808 Y 14.9005 Z -1.0000 I 0.0827 J -0.0462
G01 X 34.5769 Y 14.8919 Z -1.0000
G01 X 34.5665 Y 14.8880 Z -1.0000
G01 X 34.5538 Y 14.8845 Z -1.0000
G01 X 34.5406 Y 14.8726 Z -1.0000
G01 X 34.5362 Y 14.8721 Z -1.0000
G01 X 34.5343 Y 14.8777 Z -1.0000
G02 X 34.5424 Y 14.8956 Z -1.0000 I 0.0525 J -0.0131
G01 X 34.5518 Y 14.9029 Z -1.0000
G03 X 34.5844 Y 14.9332 Z -1.0000 I -0.0213 J 0.0557
G03 X 34.5972 Y 14.9994 Z -1.0000 I -0.1243 J 0.0585
G02 X 34.5995 Y 15.0228 Z -1.0000 I 0.0761 J 0.0043
G02 X 34.6102 Y 15.0498 Z -1.0000 I 0.1154 J -0.0297
G03 X 34.6226 Y 15.0766 Z -1.0000 I -0.1963 J 0.1074
G01 X 34.6245 Y 15.0867 Z -1.0000
G01 X 34.6281 Y 15.0922 Z -1.0000
G01 X 34.6377 Y 15.0923 Z -1.0000
G01 X 34.6461 Y 15.0942 Z -1.0000
G01 X 34.6508 Y 15.1057 Z -1.0000
G01 X 34.6473 Y 15.1206 Z -1.0000
G01 X 34.6415 Y 15.1242 Z -1.0000
G01 X 34.6390 Y 15.1277 Z -1.0000
G02 X 34.6502 Y 15.1496 Z -1.0000 I 0.0813 J -0.0278
G03 X 34.6663 Y 15.1756 Z -1.0000 I -0.1823 J 0.1304
G01 X 34.6683 Y 15.1838 Z -1.0000
G01 X 34.6708 Y 15.1909 Z -1.0000
G01 X 34.6782 Y 15.1960 Z -1.0000
G01 X 34.6819 Y 15.2016 Z -1.0000
G01 X 34.6767 Y 15.2176 Z -1.0000
G02 X 34.6707 Y 15.2806 Z -1.0000 I 0.0601 J 0.0376
G02 X 34.7249 Y 15.3428 Z -1.0000 I 0.1125 J -0.0433
G03 X 34.7471 Y 15.3609 Z -1.0000 I -0.0379 J 0.0691
G03 X 34.7722 Y 15.3985 Z -1.0000 I -0.1512 J 0.1282
G03 X 34.7857 Y 15.4397 Z -1.0000 I -0.1226 J 0.0631
G01 X 34.7822 Y 15.4607 Z -1.0000
G03 X 34.7679 Y 15.4785 Z -1.0000 I -0.0552 J -0.0296
G03 X 34.7458 Y 15.4921 Z -1.0000 I -0.0532 J -0.0615
G02 X 34.7259 Y 15.5060 Z -1.0000 I 0.0218 J 0.0526
G01 X 34.7208 Y 15.5192 Z -1.0000
G01 X 34.7158 Y 15.5324 Z -1.0000
G01 X 34.6989 Y 15.5441 Z -1.0000
G02 X 34.6803 Y 15.5547 Z -1.0000 I 0.0254 J 0.0664
G01 X 34.6770 Y 15.5614 Z -1.0000
G01 X 34.6736 Y 15.5670 Z -1.0000
G01 X 34.6595 Y 15.5704 Z -1.0000
G01 X 34.6454 Y 15.5737 Z -1.0000
G01 X 34.6420 Y 15.5791 Z -1.0000
G01 X 34.6395 Y 15.5854 Z -1.0000
G01 X 34.6337 Y 15.5879 Z -1.0000
G02 X 34.5883 Y 15.6078 Z -1.0000 I -0.0000 J 0.0619
G01 X 34.5851 Y 15.6404 Z -1.0000
G01 X 34.5918 Y 15.6429 Z -1.0000
G01 X 34.6056 Y 15.6342 Z -1.0000
G03 X 34.6226 Y 15.6203 Z -1.0000 I 0.0567 J 0.0521
G03 X 34.6792 Y 15.5900 Z -1.0000 I 0.3384 J 0.5632
G01 X 34.6831 Y 15.5911 Z -1.0000
G01 X 34.6858 Y 15.6007 Z -1.0000
G03 X 34.6448 Y 15.6956 Z -1.0000 I -0.1302 J 0.0000
G03 X 34.5411 Y 15.7366 Z -1.0000 I -0.1037 J -0.1103
G01 X 34.5102 Y 15.7228 Z -1.0000
G01 X 34.5054 Y 15.6969 Z -1.0000
G01 X 34.5042 Y 15.6863 Z -1.0000
G02 X 34.4977 Y 15.6894 Z -1.0000 I 0.1645 J 0.3484
G02 X 34.4740 Y 15.7011 Z -1.0000 I 464.4614 J 937.6231
G01 X 34.4351 Y 15.6949 Z -1.0000
G03 X 34.3603 Y 15.5893 Z -1.0000 I 0.2568 J -0.2611
G02 X 34.1351 Y 15.1257 Z -1.0000 I -17.0705 J 8.0051
G02 X 34.1137 Y 15.0987 Z -1.0000 I -0.0751 J 0.0378
G03 X 34.1024 Y 15.0856 Z -1.0000 I 0.0336 J -0.0403
G01 X 34.0996 Y 15.0754 Z -1.0000
G01 X 34.0964 Y 15.0656 Z -1.0000
G01 X 34.0852 Y 15.0557 Z -1.0000
G01 X 34.0765 Y 15.0450 Z -1.0000
G01 X 34.0752 Y 15.0247 Z -1.0000
G01 X 34.0741 Y 15.0063 Z -1.0000
G01 X 34.0677 Y 15.0017 Z -1.0000
G01 X 34.0598 Y 14.9976 Z -1.0000
G01 X 34.0558 Y 14.9851 Z -1.0000
G01 X 34.0519 Y 14.9712 Z -1.0000
G01 X 34.0423 Y 14.9634 Z -1.0000
G01 X 34.0314 Y 14.9555 Z -1.0000
G03 X 34.0183 Y 14.9340 Z -1.0000 I 0.0716 J -0.0586
G02 X 34.0049 Y 14.9141 Z -1.0000 I -0.0606 J 0.0264
G01 X 33.9946 Y 14.9098 Z -1.0000
G01 X 33.9874 Y 14.9042 Z -1.0000
G03 X 33.9839 Y 14.8693 Z -1.0000 I 0.1070 J -0.0281
G02 X 33.9790 Y 14.8343 Z -1.0000 I -0.0879 J -0.0055
G01 X 33.9678 Y 14.8240 Z -1.0000
G01 X 33.9564 Y 14.8152 Z -1.0000
G01 X 33.9550 Y 14.8010 Z -1.0000
G01 X 33.9551 Y 14.7856 Z -1.0000
G01 X 33.9479 Y 14.7779 Z -1.0000
G01 X 33.9393 Y 14.7696 Z -1.0000
G03 X 33.9292 Y 14.7335 Z -1.0000 I 0.1375 J -0.0582
G02 X 33.9202 Y 14.6949 Z -1.0000 I -0.2577 J 0.0392
G02 X 33.8971 Y 14.6313 Z -1.0000 I -0.7048 J 0.2205
G03 X 33.8712 Y 14.5684 Z -1.0000 I 6.6050 J -2.7506
G03 X 33.8521 Y 14.5204 Z -1.0000 I 3.8832 J -1.5740
G02 X 33.8307 Y 14.4743 Z -1.0000 I -0.3762 J 0.1470
G01 X 33.8207 Y 14.4627 Z -1.0000
G01 X 33.8134 Y 14.4521 Z -1.0000
G01 X 33.8146 Y 14.4425 Z -1.0000
G01 X 33.8166 Y 14.4315 Z -1.0000
G02 X 33.8037 Y 14.3865 Z -1.0000 I -0.2608 J 0.0507
G03 X 33.7867 Y 14.3409 Z -1.0000 I 2.1522 J -0.8265
G03 X 33.7495 Y 14.2361 Z -1.0000 I 10.4888 J -3.7756
G02 X 33.6535 Y 13.9643 Z -1.0000 I -33.9559 J 11.8423
G02 X 33.6400 Y 13.9298 Z -1.0000 I -0.5611 J 0.2007
G03 X 33.6291 Y 13.9034 Z -1.0000 I 0.8710 J -0.3740
G03 X 33.6021 Y 13.8336 Z -1.0000 I 5.9367 J -2.3397
G02 X 33.5749 Y 13.7638 Z -1.0000 I -4.4532 J 1.6957
G02 X 33.5323 Y 13.6586 Z -1.0000 I -10.1882 J 4.0639
G03 X 33.4891 Y 13.5536 Z -1.0000 I 235.5841 J -96.8034
G03 X 33.4490 Y 13.4556 Z -1.0000 I 126.1500 J -51.7705
G03 X 33.3191 Y 13.1059 Z -1.0000 I 5.2333 J -2.1434
G03 X 33.2781 Y 12.9448 Z -1.0000 I 1.0659 J -0.3565
G02 X 33.2427 Y 12.8147 Z -1.0000 I -0.7286 J 0.1285
G02 X 33.2088 Y 12.7589 Z -1.0000 I -0.1629 J 0.0608
G01 X 33.1995 Y 12.7409 Z -1.0000
G03 X 33.1941 Y 12.6932 Z -1.0000 I 0.2158 J -0.0484
G03 X 33.2047 Y 12.6553 Z -1.0000 I 0.0724 J -0.0003
G01 X 33.2230 Y 12.6459 Z -1.0000
G03 X 33.2513 Y 12.6509 Z -1.0000 I -0.0124 J 0.1529
G03 X 33.2755 Y 12.6604 Z -1.0000 I -0.0331 J 0.1201
G03 X 33.3450 Y 12.7116 Z -1.0000 I -0.1291 J 0.2482
G03 X 33.4714 Y 12.8580 Z -1.0000 I -0.9961 J 0.9875
G02 X 33.5043 Y 12.8936 Z -1.0000 I 0.1889 J -0.1416
G02 X 33.5486 Y 12.9260 Z -1.0000 I 0.2000 J -0.2272
G03 X 33.5933 Y 12.9586 Z -1.0000 I -0.1569 J 0.2618
G03 X 33.7211 Y 13.0777 Z -1.0000 I -2.0123 J 2.2870
G02 X 33.8411 Y 13.1897 Z -1.0000 I 2.0413 J -2.0679
G01 X 33.8458 Y 13.1876 Z -1.0000
G01 X 33.8434 Y 13.1759 Z -1.0000
G01 X 33.8392 Y 13.1715 Z -1.0000
G01 X 33.8338 Y 13.1672 Z -1.0000
G03 X 33.7910 Y 13.1074 Z -1.0000 I 1.2414 J -0.9319
G02 X 33.7455 Y 13.0498 Z -1.0000 I -0.4204 J 0.2856
G02 X 33.6949 Y 13.0024 Z -1.0000 I -0.3337 J 0.3055
G03 X 33.6413 Y 12.9576 Z -1.0000 I 1.0970 J -1.3669
G03 X 33.6094 Y 12.9280 Z -1.0000 I 0.4465 J -0.5131
G02 X 33.5776 Y 12.8983 Z -1.0000 I -0.5206 J 0.5262
G02 X 33.5408 Y 12.8677 Z -1.0000 I -0.5873 J 0.6679
G03 X 33.5129 Y 12.8385 Z -1.0000 I 0.0899 J -0.1140
G01 X 33.5144 Y 12.8310 Z -1.0000
G01 X 33.5184 Y 12.8230 Z -1.0000
G01 X 33.5120 Y 12.8082 Z -1.0000
G01 X 33.5178 Y 12.8018 Z -1.0000
G03 X 33.6138 Y 12.8795 Z -1.0000 I -0.5105 J 0.7290
G02 X 33.6762 Y 12.9338 Z -1.0000 I 0.8486 J -0.9110
G01 X 33.6838 Y 12.9365 Z -1.0000
G01 X 33.6830 Y 12.9300 Z -1.0000
G01 X 33.6748 Y 12.9224 Z -1.0000
G03 X 33.6628 Y 12.9037 Z -1.0000 I 0.1068 J -0.0813
G01 X 33.6507 Y 12.8899 Z -1.0000
G01 X 33.6426 Y 12.8897 Z -1.0000
G01 X 33.6385 Y 12.8883 Z -1.0000
G01 X 33.6379 Y 12.8765 Z -1.0000
G01 X 33.6351 Y 12.8500 Z -1.0000
G02 X 33.5810 Y 12.7644 Z -1.0000 I -0.4839 J 0.2461
G03 X 33.5417 Y 12.7098 Z -1.0000 I 0.8058 J -0.6217
G01 X 33.5394 Y 12.7025 Z -1.0000
G02 X 33.5263 Y 12.6524 Z -1.0000 I -0.1021 J -0.0000
G01 X 33.5038 Y 12.6392 Z -1.0000
G01 X 33.4987 Y 12.6362 Z -1.0000
G01 X 33.4957 Y 12.6239 Z -1.0000
G01 X 33.4922 Y 12.6100 Z -1.0000
G02 X 33.4741 Y 12.5835 Z -1.0000 I -0.1276 J 0.0680
G03 X 33.4546 Y 12.5572 Z -1.0000 I 0.1661 J -0.1429
G03 X 33.4466 Y 12.5397 Z -1.0000 I 0.0638 J -0.0401
G02 X 33.4232 Y 12.4937 Z -1.0000 I -0.1501 J 0.0470
G02 X 33.3687 Y 12.4336 Z -1.0000 I -0.3148 J 0.2314
G01 X 33.3605 Y 12.4236 Z -1.0000
G03 X 33.3342 Y 12.3743 Z -1.0000 I 0.6731 J -0.3899
G02 X 33.3078 Y 12.3247 Z -1.0000 I -0.6739 J 0.3281
G02 X 33.2845 Y 12.2890 Z -1.0000 I -0.3717 J 0.2168
G03 X 33.2610 Y 12.2539 Z -1.0000 I 0.4716 J -0.3418
G01 X 33.2595 Y 12.2486 Z -1.0000
G01 X 33.2542 Y 12.2322 Z -1.0000
G02 X 33.1768 Y 12.1343 Z -1.0000 I -1.1867 J 0.8581
G03 X 33.1183 Y 12.0588 Z -1.0000 I 0.6892 J -0.5940
G03 X 33.0901 Y 12.0093 Z -1.0000 I 0.2648 J -0.1836
G02 X 32.9250 Y 11.7206 Z -1.0000 I -1.6797 J 0.7694
G01 X 32.8785 Y 11.7064 Z -1.0000
G01 X 32.8552 Y 11.6988 Z -1.0000
G01 X 32.8568 Y 11.6727 Z -1.0000
G01 X 32.8598 Y 11.6597 Z -1.0000
G02 X 32.8469 Y 11.6330 Z -1.0000 I -0.0699 J 0.0173
G02 X 32.7959 Y 11.5874 Z -1.0000 I -0.1465 J 0.1124
G01 X 32.7871 Y 11.5969 Z -1.0000
G03 X 32.8118 Y 11.6433 Z -1.0000 I -0.1544 J 0.1118
G01 X 32.8067 Y 11.6503 Z -1.0000
G01 X 32.7896 Y 11.6429 Z -1.0000
G03 X 32.7016 Y 11.5453 Z -1.0000 I 0.9021 J -0.9027
G02 X 32.6555 Y 11.4887 Z -1.0000 I -42.7956 J 34.7947
G02 X 32.6464 Y 11.4776 Z -1.0000 I -2.1817 J 1.7786
G01 X 32.6365 Y 11.4708 Z -1.0000
G01 X 32.6288 Y 11.4717 Z -1.0000
G01 X 32.6207 Y 11.4722 Z -1.0000
G03 X 32.5948 Y 11.4565 Z -1.0000 I 0.0482 J -0.1083
G02 X 32.5690 Y 11.4366 Z -1.0000 I -0.7297 J 0.9172
G02 X 32.5154 Y 11.3968 Z -1.0000 I -2.9454 J 3.9213
G03 X 32.4626 Y 11.3561 Z -1.0000 I 0.7492 J -1.0268
G03 X 32.4339 Y 11.3306 Z -1.0000 I 0.2677 J -0.3291
G03 X 32.2099 Y 11.0869 Z -1.0000 I 2.1343 J -2.1865
G03 X 32.1920 Y 11.0370 Z -1.0000 I 0.0606 J -0.0500
G01 X 32.1995 Y 11.0311 Z -1.0000
G01 X 32.2224 Y 11.0447 Z -1.0000
G02 X 32.2468 Y 11.0639 Z -1.0000 I 0.0723 J -0.0670
G01 X 32.2665 Y 11.0691 Z -1.0000
G01 X 32.2882 Y 11.0663 Z -1.0000
G01 X 32.2815 Y 11.0448 Z -1.0000
G02 X 32.2264 Y 10.9779 Z -1.0000 I -0.4524 J 0.3166
G03 X 32.1657 Y 10.8962 Z -1.0000 I 0.2857 J -0.2757
G01 X 32.1686 Y 10.8748 Z -1.0000
G01 X 32.1772 Y 10.8750 Z -1.0000
G03 X 32.2879 Y 11.0065 Z -1.0000 I -1.7775 J 1.6087
G01 X 32.2946 Y 11.0036 Z -1.0000
G02 X 32.2839 Y 10.9756 Z -1.0000 I -0.0634 J 0.0082
G03 X 32.2552 Y 10.9305 Z -1.0000 I 0.6082 J -0.4182
G01 X 32.2533 Y 10.9233 Z -1.0000
G01 X 32.2614 Y 10.9194 Z -1.0000
G03 X 32.3067 Y 10.9659 Z -1.0000 I -0.1614 J 0.2028
G02 X 32.4534 Y 11.1395 Z -1.0000 I 1.6726 J -1.2650
G01 X 32.4820 Y 11.1518 Z -1.0000
G01 X 32.4915 Y 11.1378 Z -1.0000
G02 X 32.4437 Y 11.0555 Z -1.0000 I -0.2996 J 0.1191
G03 X 32.4245 Y 11.0303 Z -1.0000 I 0.4989 J -0.3992
G03 X 32.3933 Y 10.9856 Z -1.0000 I 1.5613 J -1.1271
G02 X 32.3618 Y 10.9412 Z -1.0000 I -1.1400 J 0.7744
G02 X 32.3330 Y 10.9040 Z -1.0000 I -0.8317 J 0.6144
G03 X 32.3042 Y 10.8668 Z -1.0000 I 0.7477 J -0.6068
G03 X 32.2805 Y 10.8324 Z -1.0000 I 0.6104 J -0.4478
G02 X 32.2445 Y 10.7816 Z -1.0000 I -0.6777 J 0.4419
G02 X 32.1742 Y 10.6941 Z -1.0000 I -2.0754 J 1.5937
G03 X 32.1087 Y 10.6094 Z -1.0000 I 1.0445 J -0.8760
G01 X 32.1045 Y 10.5964 Z -1.0000
G01 X 32.1033 Y 10.5916 Z -1.0000
G02 X 32.0955 Y 10.5805 Z -1.0000 I -0.0598 J 0.0337
G03 X 32.0869 Y 10.5698 Z -1.0000 I 0.2221 J -0.1876
G03 X 32.0540 Y 10.5262 Z -1.0000 I 3.2907 J -2.5224
G02 X 32.0205 Y 10.4832 Z -1.0000 I -1.1029 J 0.8226
G02 X 31.9973 Y 10.4563 Z -1.0000 I -0.4651 J 0.3765
G03 X 31.9759 Y 10.4290 Z -1.0000 I 0.1742 J -0.1592
G01 X 31.9733 Y 10.4205 Z -1.0000
G01 X 31.9705 Y 10.4123 Z -1.0000
G02 X 31.9506 Y 10.3899 Z -1.0000 I -0.1336 J 0.0992
G03 X 31.9294 Y 10.3674 Z -1.0000 I 0.1689 J -0.1805
G03 X 31.8966 Y 10.3250 Z -1.0000 I 0.5697 J -0.4734
G02 X 31.8645 Y 10.2819 Z -1.0000 I -1.1183 J 0.8004
G02 X 31.8558 Y 10.2725 Z -1.0000 I -0.0619 J 0.0481
G03 X 31.8470 Y 10.2632 Z -1.0000 I 0.0698 J -0.0756
G03 X 31.8115 Y 10.2200 Z -1.0000 I 1.5128 J -1.2755
G02 X 31.7764 Y 10.1765 Z -1.0000 I -2.7985 J 2.2274
G02 X 31.7678 Y 10.1667 Z -1.0000 I -0.1503 J 0.1235
G03 X 31.7594 Y 10.1569 Z -1.0000 I 0.0986 J -0.0929
G03 X 31.7414 Y 10.1326 Z -1.0000 I 0.5753 J -0.4464
G02 X 31.7019 Y 10.0808 Z -1.0000 I -0.8423 J 0.5997
G02 X 31.6626 Y 10.0356 Z -1.0000 I -0.6822 J 0.5536
G03 X 31.6332 Y 10.0021 Z -1.0000 I 0.5497 J -0.5121
G03 X 31.5619 Y 9.9137 Z -1.0000 I 3.7332 J -3.0857
G02 X 31.5336 Y 9.8793 Z -1.0000 I -0.8596 J 0.6774
G02 X 31.5020 Y 9.8437 Z -1.0000 I -0.9412 J 0.8059
G03 X 31.4705 Y 9.8080 Z -1.0000 I 0.7035 J -0.6505
G03 X 31.4306 Y 9.7584 Z -1.0000 I 1.3146 J -1.0995
G02 X 31.3904 Y 9.7105 Z -1.0000 I -0.6334 J 0.4908
G01 X 31.3849 Y 9.7081 Z -1.0000
G01 X 31.3805 Y 9.7058 Z -1.0000
G01 X 31.3782 Y 9.6987 Z -1.0000
G01 X 31.3754 Y 9.6905 Z -1.0000
G02 X 31.3454 Y 9.6571 Z -1.0000 I -0.2763 J 0.2182
G03 X 31.3138 Y 9.6239 Z -1.0000 I 0.4552 J -0.4647
G03 X 31.2782 Y 9.5813 Z -1.0000 I 0.7186 J -0.6369
G02 X 31.1501 Y 9.4282 Z -1.0000 I -2.6373 J 2.0772
G02 X 31.0217 Y 9.2927 Z -1.0000 I -2.1981 J 1.9537
G03 X 30.9949 Y 9.2638 Z -1.0000 I 0.3320 J -0.3352
G01 X 30.9932 Y 9.2594 Z -1.0000
G01 X 30.9915 Y 9.2550 Z -1.0000
G02 X 30.9232 Y 9.1826 Z -1.0000 I -2.1130 J 1.9261
G03 X 30.8542 Y 9.1106 Z -1.0000 I 3.5516 J -3.4713
G01 X 30.8532 Y 9.1081 Z -1.0000
G01 X 30.8491 Y 9.0983 Z -1.0000
G02 X 30.7046 Y 8.9631 Z -1.0000 I -3.2808 J 3.3617
G02 X 30.6409 Y 8.9167 Z -1.0000 I -0.2584 J 0.2881
G01 X 30.6291 Y 8.9192 Z -1.0000
G01 X 30.6249 Y 8.9191 Z -1.0000
G01 X 30.6230 Y 8.9105 Z -1.0000
G01 X 30.6205 Y 8.8915 Z -1.0000
G01 X 30.6090 Y 8.8816 Z -1.0000
G03 X 30.5524 Y 8.8479 Z -1.0000 I 0.0432 J -0.1372
G03 X 30.4734 Y 8.7509 Z -1.0000 I 0.3630 J -0.3763
G01 X 30.4678 Y 8.7341 Z -1.0000
G01 X 30.4719 Y 8.7311 Z -1.0000
G01 X 30.4786 Y 8.7299 Z -1.0000
G01 X 30.4796 Y 8.7244 Z -1.0000
G02 X 30.4613 Y 8.6982 Z -1.0000 I -0.1490 J 0.0844
G02 X 30.3764 Y 8.6025 Z -1.0000 I -2.0757 J 1.7563
G03 X 30.3327 Y 8.5555 Z -1.0000 I 365.5075 J -340.1392
G03 X 30.2955 Y 8.5155 Z -1.0000 I 299.0301 J -277.8759
G03 X 30.2607 Y 8.4745 Z -1.0000 I 0.4418 J -0.4105
G01 X 30.2583 Y 8.4675 Z -1.0000
G01 X 30.2556 Y 8.4608 Z -1.0000
G02 X 30.2307 Y 8.4386 Z -1.0000 I -0.1530 J 0.1463
G03 X 30.2004 Y 8.4122 Z -1.0000 I 0.1789 J -0.2354
G03 X 30.0886 Y 8.2965 Z -1.0000 I 3.3550 J -3.3535
G02 X 29.9916 Y 8.1985 Z -1.0000 I -1.7159 J 1.6028
G01 X 29.9815 Y 8.1944 Z -1.0000
G01 X 29.9724 Y 8.1916 Z -1.0000
G01 X 29.9696 Y 8.1862 Z -1.0000
G02 X 29.9496 Y 8.1393 Z -1.0000 I -0.0652 J -0.0000
G02 X 29.8738 Y 8.0939 Z -1.0000 I -0.1360 J 0.1409
G01 X 29.8619 Y 8.0869 Z -1.0000
G03 X 29.8296 Y 8.0526 Z -1.0000 I 0.2543 J -0.2722
G02 X 29.7370 Y 7.9578 Z -1.0000 I -0.6300 J 0.5229
G01 X 29.7226 Y 7.9596 Z -1.0000
G01 X 29.7184 Y 7.9523 Z -1.0000
G01 X 29.7162 Y 7.9407 Z -1.0000
G01 X 29.7090 Y 7.9384 Z -1.0000
G01 X 29.7027 Y 7.9376 Z -1.0000
G01 X 29.7018 Y 7.9333 Z -1.0000
G01 X 29.7015 Y 7.9252 Z -1.0000
G01 X 29.6880 Y 7.9149 Z -1.0000
G01 X 29.6753 Y 7.9062 Z -1.0000
G01 X 29.6721 Y 7.8926 Z -1.0000
G01 X 29.6606 Y 7.8844 Z -1.0000
G01 X 29.6521 Y 7.8853 Z -1.0000
G01 X 29.6484 Y 7.8765 Z -1.0000
G01 X 29.6478 Y 7.8662 Z -1.0000
G01 X 29.6409 Y 7.8620 Z -1.0000
G01 X 29.6302 Y 7.8585 Z -1.0000
G01 X 29.6227 Y 7.8488 Z -1.0000
G01 X 29.6154 Y 7.8391 Z -1.0000
G01 X 29.6055 Y 7.8357 Z -1.0000
G01 X 29.5969 Y 7.8322 Z -1.0000
G01 X 29.5933 Y 7.8237 Z -1.0000
G01 X 29.5889 Y 7.8162 Z -1.0000
G01 X 29.5714 Y 7.8117 Z -1.0000
G01 X 29.5537 Y 7.8158 Z -1.0000
G01 X 29.5496 Y 7.8224 Z -1.0000
G02 X 29.5607 Y 7.8608 Z -1.0000 I 0.0718 J 0.0000
G02 X 29.6576 Y 7.9932 Z -1.0000 I 1.0231 J -0.6473
G03 X 29.8944 Y 8.2951 Z -1.0000 I -4.2352 J 3.5654
G03 X 29.9606 Y 8.4083 Z -1.0000 I -0.5229 J 0.3816
G02 X 29.9801 Y 8.4455 Z -1.0000 I 0.3368 J -0.1530
G01 X 29.9870 Y 8.4526 Z -1.0000
G01 X 29.9915 Y 8.4497 Z -1.0000
G02 X 29.9825 Y 8.4160 Z -1.0000 I -0.1268 J 0.0156
G01 X 29.9841 Y 8.4013 Z -1.0000
G01 X 29.9928 Y 8.4015 Z -1.0000
G02 X 30.0094 Y 8.4257 Z -1.0000 I 0.3464 J -0.2208
G02 X 30.0197 Y 8.4379 Z -1.0000 I 0.1034 J -0.0768
G01 X 30.0278 Y 8.4507 Z -1.0000
G01 X 30.0308 Y 8.4666 Z -1.0000
G01 X 30.0355 Y 8.4815 Z -1.0000
G02 X 30.0622 Y 8.5113 Z -1.0000 I 0.1379 J -0.0969
G03 X 30.1518 Y 8.6367 Z -1.0000 I -0.2230 J 0.2540
G01 X 30.1254 Y 8.6649 Z -1.0000
G01 X 30.1131 Y 8.6552 Z -1.0000
G03 X 30.0919 Y 8.6113 Z -1.0000 I 0.1901 J -0.1191
G01 X 30.0801 Y 8.5966 Z -1.0000
G01 X 30.0697 Y 8.5973 Z -1.0000
G01 X 30.0562 Y 8.5998 Z -1.0000
G03 X 30.0195 Y 8.5805 Z -1.0000 I 0.0411 J -0.1225
G02 X 29.9824 Y 8.5530 Z -1.0000 I -1.7811 J 2.3608
G02 X 29.9146 Y 8.5040 Z -1.0000 I -5.5586 J 7.6123
G03 X 29.7658 Y 8.3867 Z -1.0000 I 1.2217 J -1.7044
G01 X 29.7690 Y 8.3782 Z -1.0000
G01 X 29.7738 Y 8.3794 Z -1.0000
G03 X 29.8431 Y 8.4176 Z -1.0000 I -1.2632 J 2.3771
G01 X 29.8788 Y 8.4167 Z -1.0000
G01 X 29.8820 Y 8.3930 Z -1.0000
G03 X 29.8458 Y 8.3368 Z -1.0000 I 0.1476 J -0.1349
G01 X 29.8525 Y 8.3241 Z -1.0000
G01 X 29.8560 Y 8.3174 Z -1.0000
G02 X 29.8314 Y 8.2766 Z -1.0000 I -0.1744 J 0.0775
G03 X 29.7984 Y 8.2304 Z -1.0000 I 0.4526 J -0.3582
G03 X 29.7724 Y 8.1847 Z -1.0000 I 0.4194 J -0.2694
G02 X 29.7274 Y 8.1137 Z -1.0000 I -0.3787 J 0.1902
G02 X 29.6190 Y 7.9888 Z -1.0000 I -1.2877 J 1.0079
G03 X 29.5192 Y 7.8793 Z -1.0000 I 2.0393 J -1.9585
G03 X 29.4489 Y 7.7920 Z -1.0000 I 1.2226 J -1.0567
G02 X 29.4034 Y 7.7376 Z -1.0000 I -0.5255 J 0.3940
G02 X 29.3059 Y 7.6389 Z -1.0000 I -1.8396 J 1.7181
G03 X 29.2059 Y 7.5422 Z -1.0000 I 11.7009 J -12.2027
G03 X 29.0802 Y 7.4189 Z -1.0000 I 19.1216 J -19.6161
G02 X 28.9509 Y 7.3001 Z -1.0000 I -1.7040 J 1.7256
G02 X 28.8607 Y 7.2315 Z -1.0000 I -0.6569 J 0.7695
G03 X 28.4524 Y 6.9441 Z -1.0000 I 7.4403 J -11.0034
G03 X 28.3594 Y 6.8643 Z -1.0000 I 0.4731 J -0.6460
G03 X 28.2715 Y 6.7614 Z -1.0000 I 0.6095 J -0.6095
G01 X 28.2769 Y 6.7508 Z -1.0000
G01 X 28.2818 Y 6.7526 Z -1.0000
G03 X 28.3408 Y 6.8086 Z -1.0000 I -1.1765 J 1.2989
G02 X 28.4398 Y 6.8931 Z -1.0000 I 0.6022 J -0.6057
G02 X 28.5433 Y 6.9563 Z -1.0000 I 0.4365 J -0.5988
G03 X 28.5907 Y 6.9817 Z -1.0000 I -0.4525 J 0.8999
G03 X 28.6160 Y 6.9978 Z -1.0000 I -0.1567 J 0.2741
G01 X 28.6226 Y 6.9936 Z -1.0000
G01 X 28.6114 Y 6.9742 Z -1.0000
G02 X 28.5231 Y 6.8982 Z -1.0000 I -4.2596 J 4.8629
G02 X 28.4905 Y 6.8721 Z -1.0000 I -0.5403 J 0.6398
G03 X 28.4607 Y 6.8485 Z -1.0000 I 0.6817 J -0.8944
G03 X 28.4384 Y 6.8295 Z -1.0000 I 0.4283 J -0.5242
G02 X 28.4157 Y 6.8110 Z -1.0000 I -0.2193 J 0.2456
G02 X 28.3858 Y 6.7903 Z -1.0000 I -0.3045 J 0.4090
G03 X 28.3564 Y 6.7691 Z -1.0000 I 0.1709 J -0.2674
G03 X 28.3420 Y 6.7547 Z -1.0000 I 0.0631 J -0.0776
G01 X 28.3401 Y 6.7467 Z -1.0000
G01 X 28.3443 Y 6.7445 Z -1.0000
G03 X 28.4304 Y 6.7910 Z -1.0000 I -0.1234 J 0.3312
G03 X 28.4631 Y 6.8317 Z -1.0000 I -0.0604 J 0.0821
G01 X 28.4675 Y 6.8361 Z -1.0000
G01 X 28.4777 Y 6.8383 Z -1.0000
G01 X 28.4877 Y 6.8408 Z -1.0000
G01 X 28.4923 Y 6.8460 Z -1.0000
G02 X 28.5230 Y 6.8846 Z -1.0000 I 0.0762 J -0.0292
G02 X 28.5721 Y 6.8996 Z -1.0000 I 0.0491 J -0.0732
G01 X 28.5651 Y 6.8821 Z -1.0000
G02 X 28.5480 Y 6.8675 Z -1.0000 I -0.0654 J 0.0592
G01 X 28.5383 Y 6.8646 Z -1.0000
G01 X 28.5289 Y 6.8613 Z -1.0000
G03 X 28.5062 Y 6.8394 Z -1.0000 I 0.0932 J -0.1195
G02 X 28.4833 Y 6.8163 Z -1.0000 I -0.1522 J 0.1281
G02 X 28.4485 Y 6.7901 Z -1.0000 I -0.2297 J 0.2686
G03 X 28.4149 Y 6.7644 Z -1.0000 I 0.1728 J -0.2611
G01 X 28.4120 Y 6.7581 Z -1.0000
G01 X 28.4094 Y 6.7521 Z -1.0000
G01 X 28.3974 Y 6.7446 Z -1.0000
G03 X 28.3836 Y 6.7375 Z -1.0000 I 0.0248 J -0.0649
G03 X 28.3683 Y 6.7252 Z -1.0000 I 0.0636 J -0.0953
G02 X 28.3043 Y 6.6728 Z -1.0000 I -0.3829 J 0.4019
G02 X 28.2545 Y 6.6454 Z -1.0000 I -0.1497 J 0.2134
G03 X 28.2342 Y 6.6340 Z -1.0000 I 0.0373 J -0.0898
G03 X 28.2020 Y 6.6068 Z -1.0000 I 0.1880 J -0.2554
G02 X 28.1233 Y 6.5352 Z -1.0000 I -1.2462 J 1.2920
G01 X 28.1148 Y 6.5321 Z -1.0000
G01 X 28.1079 Y 6.5298 Z -1.0000
G03 X 28.0759 Y 6.5027 Z -1.0000 I 0.2344 J -0.3095
G02 X 28.0438 Y 6.4747 Z -1.0000 I -0.3893 J 0.4129
G02 X 28.0093 Y 6.4488 Z -1.0000 I -0.3643 J 0.4498
G03 X 27.9751 Y 6.4229 Z -1.0000 I 0.2958 J -0.4269
G01 X 27.9676 Y 6.4145 Z -1.0000
G01 X 27.9602 Y 6.4061 Z -1.0000
G02 X 27.9393 Y 6.3908 Z -1.0000 I -0.1252 J 0.1491
G03 X 27.9178 Y 6.3760 Z -1.0000 I 0.2030 J -0.3206
G03 X 27.8956 Y 6.3587 Z -1.0000 I 0.2646 J -0.3604
G03 X 27.8740 Y 6.3406 Z -1.0000 I 4.8208 J -5.7947
G02 X 27.8290 Y 6.3029 Z -1.0000 I -83.9612 J 100.1595
G02 X 27.7252 Y 6.2207 Z -1.0000 I -1.5811 J 1.8876
G01 X 27.7146 Y 6.2171 Z -1.0000
G01 X 27.7060 Y 6.2144 Z -1.0000
G01 X 27.7033 Y 6.2094 Z -1.0000
G01 X 27.7004 Y 6.2037 Z -1.0000
G02 X 27.6767 Y 6.1907 Z -1.0000 I -0.0705 J 0.1001
G03 X 27.6523 Y 6.1769 Z -1.0000 I 0.0458 J -0.1099
G03 X 27.6380 Y 6.1623 Z -1.0000 I 0.0369 J -0.0505
G02 X 27.6243 Y 6.1465 Z -1.0000 I -0.0819 J 0.0572
G02 X 27.6089 Y 6.1351 Z -1.0000 I -0.0586 J 0.0627
G03 X 27.5922 Y 6.1249 Z -1.0000 I 0.2257 J -0.3886
G03 X 27.5536 Y 6.0997 Z -1.0000 I 1.4795 J -2.3104
G03 X 27.5152 Y 6.0742 Z -1.0000 I 81.4187 J -122.7311
G03 X 27.3889 Y 5.9903 Z -1.0000 I 1858.6771 J -2795.8542
G02 X 27.2449 Y 5.8978 Z -1.0000 I -3.1630 J 4.7639
G02 X 27.1914 Y 5.8676 Z -1.0000 I -0.3874 J 0.6232
G03 X 27.1579 Y 5.8474 Z -1.0000 I 0.1318 J -0.2566
G03 X 27.1214 Y 5.8186 Z -1.0000 I 0.2272 J -0.3249
G02 X 27.0858 Y 5.7883 Z -1.0000 I -0.6527 J 0.7323
G02 X 27.0646 Y 5.7726 Z -1.0000 I -0.1969 J 0.2434
G03 X 27.0267 Y 5.7438 Z -1.0000 I 0.2539 J -0.3740
G03 X 26.9516 Y 5.6771 Z -1.0000 I 1.2967 J -1.5342
G02 X 26.9014 Y 5.6346 Z -1.0000 I -0.4451 J 0.4761
G01 X 26.8913 Y 5.6311 Z -1.0000
G01 X 26.8854 Y 5.6279 Z -1.0000
G01 X 26.8853 Y 5.6221 Z -1.0000
G01 X 26.8858 Y 5.6161 Z -1.0000
G01 X 26.8816 Y 5.6133 Z -1.0000
G03 X 26.7566 Y 5.5738 Z -1.0000 I -0.0000 J -0.2176
G01 X 26.7450 Y 5.5175 Z -1.0000
G01 X 26.7440 Y 5.5136 Z -1.0000
G01 X 26.7343 Y 5.5115 Z -1.0000
G01 X 26.7237 Y 5.5085 Z -1.0000
G01 X 26.7212 Y 5.5019 Z -1.0000
G01 X 26.7182 Y 5.4958 Z -1.0000
G01 X 26.7037 Y 5.4932 Z -1.0000
G01 X 26.6888 Y 5.4909 Z -1.0000
G01 X 26.6859 Y 5.4854 Z -1.0000
G01 X 26.6834 Y 5.4794 Z -1.0000
G01 X 26.6728 Y 5.4767 Z -1.0000
G01 X 26.6626 Y 5.4735 Z -1.0000
G01 X 26.6601 Y 5.4665 Z -1.0000
G01 X 26.6582 Y 5.4591 Z -1.0000
G01 X 26.6514 Y 5.4566 Z -1.0000
G03 X 26.6257 Y 5.4546 Z -1.0000 I -0.0082 J -0.0623
G01 X 26.6249 Y 5.4489 Z -1.0000
G01 X 26.6255 Y 5.4420 Z -1.0000
G02 X 26.5768 Y 5.4034 Z -1.0000 I -0.2430 J 0.2575
G03 X 26.5182 Y 5.3644 Z -1.0000 I 2.5339 J -3.8652
G03 X 26.5091 Y 5.3576 Z -1.0000 I 0.0656 J -0.0969
G02 X 26.4224 Y 5.2954 Z -1.0000 I -0.4922 J 0.5946
G02 X 26.1909 Y 5.1611 Z -1.0000 I -2.5470 J 4.1265
G03 X 26.1333 Y 5.1290 Z -1.0000 I 1.3377 J -2.4615
G03 X 26.0673 Y 5.0901 Z -1.0000 I 1.8684 J -3.2531
G02 X 25.9237 Y 5.0063 Z -1.0000 I -3.2466 J 5.3960
G02 X 25.8901 Y 4.9898 Z -1.0000 I -0.1574 J 0.2779
G03 X 25.8683 Y 4.9782 Z -1.0000 I 0.0522 J -0.1233
G01 X 25.8660 Y 4.9738 Z -1.0000
G01 X 25.8636 Y 4.9699 Z -1.0000
G02 X 25.8420 Y 4.9621 Z -1.0000 I -0.0472 J 0.0964
G03 X 25.8189 Y 4.9540 Z -1.0000 I 0.0286 J -0.1181
G03 X 25.7873 Y 4.9364 Z -1.0000 I 0.1142 J -0.2432
G02 X 25.7557 Y 4.9184 Z -1.0000 I -0.1793 J 0.2775
G02 X 25.7063 Y 4.8960 Z -1.0000 I -0.3276 J 0.6553
G03 X 25.6591 Y 4.8733 Z -1.0000 I 0.1736 J -0.4224
G01 X 25.6560 Y 4.8682 Z -1.0000
G01 X 25.6536 Y 4.8635 Z -1.0000
G01 X 25.6457 Y 4.8611 Z -1.0000
G01 X 25.6260 Y 4.8570 Z -1.0000
G03 X 25.5292 Y 4.8110 Z -1.0000 I 0.5606 J -1.3047
G03 X 25.4707 Y 4.7697 Z -1.0000 I 0.1245 J -0.2383
G01 X 25.4687 Y 4.7549 Z -1.0000
G01 X 25.4679 Y 4.7491 Z -1.0000
G02 X 25.4487 Y 4.7366 Z -1.0000 I -0.0477 J 0.0523
G03 X 25.4254 Y 4.7244 Z -1.0000 I 0.0736 J -0.1684
G01 X 25.4186 Y 4.7180 Z -1.0000
G01 X 25.4121 Y 4.7144 Z -1.0000
G01 X 25.4019 Y 4.7170 Z -1.0000
G01 X 25.3965 Y 4.7147 Z -1.0000
G01 X 25.3921 Y 4.6984 Z -1.0000
G01 X 25.3673 Y 4.6993 Z -1.0000
G01 X 25.3600 Y 4.7003 Z -1.0000
G03 X 25.3182 Y 4.6857 Z -1.0000 I 0.0872 J -0.3164
G02 X 25.2755 Y 4.6733 Z -1.0000 I -0.0722 J 0.1685
G02 X 25.2427 Y 4.6734 Z -1.0000 I -0.0161 J 0.0987
G03 X 25.2102 Y 4.6751 Z -1.0000 I -0.0238 J -0.1415
G01 X 25.1986 Y 4.6707 Z -1.0000
G01 X 25.1871 Y 4.6643 Z -1.0000
G02 X 25.1604 Y 4.6571 Z -1.0000 I -0.0605 J 0.1711
G03 X 25.0845 Y 4.6292 Z -1.0000 I 0.0458 J -0.2416
G01 X 25.0844 Y 4.6138 Z -1.0000
G01 X 25.0918 Y 4.6131 Z -1.0000
G03 X 25.1469 Y 4.6353 Z -1.0000 I -0.1787 J 0.5229
G02 X 25.2022 Y 4.6573 Z -1.0000 I 0.2190 J -0.4705
G01 X 25.2125 Y 4.6571 Z -1.0000
G01 X 25.2136 Y 4.6528 Z -1.0000
G01 X 25.2011 Y 4.6432 Z -1.0000
G03 X 25.1798 Y 4.6322 Z -1.0000 I 0.1020 J -0.2231
G03 X 25.1398 Y 4.6076 Z -1.0000 I 0.4591 J -0.7896
G02 X 25.1000 Y 4.5826 Z -1.0000 I -0.7902 J 1.2121
G02 X 25.0436 Y 4.5492 Z -1.0000 I -1.4602 J 2.4074
G03 X 24.9876 Y 4.5152 Z -1.0000 I 0.6675 J -1.1606
G03 X 24.9430 Y 4.4846 Z -1.0000 I 0.4928 J -0.7674
G02 X 24.8193 Y 4.4148 Z -1.0000 I -0.3596 J 0.4928
G01 X 24.7901 Y 4.4205 Z -1.0000
G01 X 24.7897 Y 4.4242 Z -1.0000
G01 X 24.7977 Y 4.4318 Z -1.0000
G01 X 24.8011 Y 4.4381 Z -1.0000
G01 X 24.7974 Y 4.4431 Z -1.0000
G01 X 24.7976 Y 4.4524 Z -1.0000
G02 X 24.8839 Y 4.4693 Z -1.0000 I 0.1260 J -0.4147
G01 X 24.8923 Y 4.4727 Z -1.0000
G01 X 24.8949 Y 4.4780 Z -1.0000
G01 X 24.8980 Y 4.4837 Z -1.0000
G02 X 24.9259 Y 4.4987 Z -1.0000 I 0.0917 J -0.1379
G03 X 24.9635 Y 4.5262 Z -1.0000 I -0.0384 J 0.0919
G01 X 24.9628 Y 4.5423 Z -1.0000
G01 X 24.9581 Y 4.5435 Z -1.0000
G03 X 24.9173 Y 4.5288 Z -1.0000 I 0.1078 J -0.3629
G02 X 24.8753 Y 4.5144 Z -1.0000 I -0.1211 J 0.2840
G02 X 24.8501 Y 4.5111 Z -1.0000 I -0.0251 J 0.0948
G03 X 24.7861 Y 4.4965 Z -1.0000 I -0.0000 J -0.1474
G03 X 24.7251 Y 4.4508 Z -1.0000 I 0.0861 J -0.1786
G01 X 24.7188 Y 4.4370 Z -1.0000
G01 X 24.7229 Y 4.4323 Z -1.0000
G01 X 24.7277 Y 4.4232 Z -1.0000
G02 X 24.7012 Y 4.4012 Z -1.0000 I -0.0530 J 0.0369
G03 X 24.6670 Y 4.3820 Z -1.0000 I 0.0944 J -0.2085
G03 X 24.6366 Y 4.3572 Z -1.0000 I 0.1269 J -0.1868
G02 X 24.5452 Y 4.2911 Z -1.0000 I -0.2733 J 0.2813
G02 X 24.4793 Y 4.2749 Z -1.0000 I -0.0659 J 0.1260
G01 X 24.4763 Y 4.2834 Z -1.0000
G02 X 24.5442 Y 4.3257 Z -1.0000 I 0.2315 J -0.2958
G03 X 24.6188 Y 4.3666 Z -1.0000 I -0.3643 J 0.7529
G01 X 24.6274 Y 4.3770 Z -1.0000
G01 X 24.6234 Y 4.3839 Z -1.0000
G03 X 24.5659 Y 4.3872 Z -1.0000 I -0.0440 J -0.2653
G03 X 24.5027 Y 4.3769 Z -1.0000 I 0.0144 J -0.2890
G01 X 24.4834 Y 4.3643 Z -1.0000
G02 X 24.4137 Y 4.3090 Z -1.0000 I -0.1582 J 0.1281
G02 X 24.3647 Y 4.3070 Z -1.0000 I -0.0268 J 0.0556
G01 X 24.3366 Y 4.3051 Z -1.0000
G03 X 24.2343 Y 4.2355 Z -1.0000 I 0.3115 J -0.5682
G01 X 24.2321 Y 4.2224 Z -1.0000
G01 X 24.2474 Y 4.2136 Z -1.0000
G03 X 24.2864 Y 4.2169 Z -1.0000 I 0.0002 J 0.2306
G03 X 24.3458 Y 4.2305 Z -1.0000 I -0.0919 J 0.5402
G02 X 24.4052 Y 4.2450 Z -1.0000 I 0.2153 J -0.7507
G02 X 24.4542 Y 4.2526 Z -1.0000 I 0.1045 J -0.5132
G03 X 24.5031 Y 4.2595 Z -1.0000 I -0.0778 J 0.7299
G01 X 24.5111 Y 4.2625 Z -1.0000
G01 X 24.5186 Y 4.2624 Z -1.0000
G01 X 24.4969 Y 4.2300 Z -1.0000
G02 X 24.4338 Y 4.2276 Z -1.0000 I -0.0348 J 0.0850
G01 X 24.4295 Y 4.2245 Z -1.0000
G01 X 24.4306 Y 4.2174 Z -1.0000
G01 X 24.4148 Y 4.2054 Z -1.0000
G02 X 24.3888 Y 4.1986 Z -1.0000 I -0.0370 J 0.0892
G01 X 24.3778 Y 4.2011 Z -1.0000
G01 X 24.3728 Y 4.1985 Z -1.0000
G01 X 24.3717 Y 4.1913 Z -1.0000
G02 X 24.3414 Y 4.1719 Z -1.0000 I -0.0889 J 0.1055
G02 X 24.2058 Y 4.1128 Z -1.0000 I -1.1415 J 2.4319
G02 X 24.1849 Y 4.1087 Z -1.0000 I -0.0209 J 0.0519
G01 X 24.1751 Y 4.1065 Z -1.0000
G03 X 24.1606 Y 4.0972 Z -1.0000 I 0.0297 J -0.0625
G02 X 24.0908 Y 4.0559 Z -1.0000 I -0.1618 J 0.1939
G02 X 24.0009 Y 4.0347 Z -1.0000 I -0.1196 J 0.3056
G03 X 23.9322 Y 4.0157 Z -1.0000 I 0.0181 J -0.1994
G01 X 23.9331 Y 4.0020 Z -1.0000
G01 X 23.9333 Y 3.9920 Z -1.0000
G02 X 23.3899 Y 3.7848 Z -1.0000 I -6.7221 J 16.8184
G02 X 22.8165 Y 3.5879 Z -1.0000 I -5.9868 J 16.4969
G02 X 22.4362 Y 3.4756 Z -1.0000 I -2.3142 J 7.1366
G03 X 22.2828 Y 3.4304 Z -1.0000 I 0.8054 J -3.0191
G01 X 22.2787 Y 3.4248 Z -1.0000
G01 X 22.2757 Y 3.4205 Z -1.0000
G02 X 22.2574 Y 3.4174 Z -1.0000 I -0.0183 J 0.0522
G03 X 22.2376 Y 3.4145 Z -1.0000 I 0.0000 J -0.0694
G01 X 22.2312 Y 3.4096 Z -1.0000
G01 X 22.2243 Y 3.4050 Z -1.0000
G02 X 22.1541 Y 3.3958 Z -1.0000 I -0.1317 J 0.7328
G03 X 22.0266 Y 3.3738 Z -1.0000 I 0.0597 J -0.7250
G01 X 22.0196 Y 3.3600 Z -1.0000
G01 X 22.0169 Y 3.3526 Z -1.0000
G01 X 21.9963 Y 3.3473 Z -1.0000
G03 X 21.9186 Y 3.3395 Z -1.0000 I 0.0026 J -0.4190
G03 X 21.4825 Y 3.2469 Z -1.0000 I 2.6191 J -13.4075
G02 X 21.3902 Y 3.2278 Z -1.0000 I -0.4944 J 2.1541
G02 X 21.0275 Y 3.1627 Z -1.0000 I -6.1557 J 33.2728
G02 X 20.6052 Y 3.0965 Z -1.0000 I -2.2247 J 12.8017
G02 X 20.1482 Y 3.0396 Z -1.0000 I -2.0949 J 14.9563
G02 X 19.9066 Y 3.0235 Z -1.0000 I -0.3097 J 2.8385
G02 X 19.3739 Y 3.0211 Z -1.0000 I -0.3301 J 13.8334
G03 X 19.2557 Y 3.0221 Z -1.0000 I -0.1509 J -10.2984
G03 X 19.0633 Y 3.0220 Z -1.0000 I -0.0830 J -26.0961
G02 X 18.8711 Y 3.0269 Z -1.0000 I -0.0131 J 3.2514
G02 X 18.6695 Y 3.0437 Z -1.0000 I 0.1990 J 3.6065
G03 X 18.4682 Y 3.0649 Z -1.0000 I -1.7197 J -15.3993
G03 X 18.3852 Y 3.0717 Z -1.0000 I -0.2553 J -2.5932
G02 X 18.1159 Y 3.0994 Z -1.0000 I 0.2484 J 3.7445
G02 X 17.9459 Y 3.1329 Z -1.0000 I 0.2123 J 1.5244
G03 X 17.8378 Y 3.1341 Z -1.0000 I -0.0565 J -0.2203
G03 X 17.7596 Y 3.0894 Z -1.0000 I 0.0358 J -0.1537
G02 X 17.6624 Y 3.0202 Z -1.0000 I -0.2292 J 0.2191
G02 X 17.5583 Y 2.9973 Z -1.0000 I -0.1051 J 0.2297
G03 X 17.4974 Y 2.9945 Z -1.0000 I 0.0032 J -0.7430
G03 X 17.4619 Y 2.9889 Z -1.0000 I 0.0218 J -0.2515
G02 X 17.4266 Y 2.9818 Z -1.0000 I -0.1336 J 0.5739
G02 X 17.3044 Y 2.9622 Z -1.0000 I -1.2193 J 7.2106
G03 X 16.6534 Y 2.8250 Z -1.0000 I 0.8743 J -5.7599
G03 X 16.3290 Y 2.6976 Z -1.0000 I 0.4185 J -1.5427
G03 X 16.1951 Y 2.6257 Z -1.0000 I 3.8561 J -7.3457
G03 X 16.1803 Y 2.6160 Z -1.0000 I 0.0547 J -0.0998
G02 X 16.1666 Y 2.6067 Z -1.0000 I -0.0817 J 0.1050
G02 X 16.1278 Y 2.5847 Z -1.0000 I -0.5191 J 0.8724
G03 X 15.8324 Y 2.4018 Z -1.0000 I 1.3358 J -2.4877
G03 X 15.4059 Y 2.0738 Z -1.0000 I 3.9129 J -5.5289
G03 X 15.1971 Y 1.8968 Z -1.0000 I 10.9419 J -13.1142
G03 X 15.0166 Y 1.7383 Z -1.0000 I 8.5867 J -9.9623
G03 X 14.8573 Y 1.5908 Z -1.0000 I 4.1697 J -4.6631
G03 X 14.5505 Y 1.2915 Z -1.0000 I 16.9115 J -17.6405
G02 X 14.3650 Y 1.2744 Z -1.0000 I -0.1031 J 0.1038
G02 X 14.2465 Y 1.4989 Z -1.0000 I 0.1531 J 0.2244
G01 X 14.2469 Y 1.4987 Z -1.0000
G00 Z 5.0000

(End cutting path id: path93134)


(Start cutting path id: path93134)
(Change tool to Default tool)

G00 Z 5.0000
G00 X 16.0279 Y 3.5141

G01 Z -1.0000 F 100.0000(Penetrate)
G02 X 15.9958 Y 3.5506 Z -1.0000 I 0.1571 J 0.1704 F 3500.0000
G01 X 15.9972 Y 3.5574 Z -1.0000
G01 X 15.9979 Y 3.5636 Z -1.0000
G03 X 15.9589 Y 3.5953 Z -1.0000 I -0.1828 J -0.1849
G02 X 15.9123 Y 3.6283 Z -1.0000 I 0.5184 J 0.7812
G01 X 15.9080 Y 3.6338 Z -1.0000
G01 X 15.9037 Y 3.6391 Z -1.0000
G03 X 15.8818 Y 3.6535 Z -1.0000 I -0.1195 J -0.1583
G02 X 15.6799 Y 3.7908 Z -1.0000 I 0.7276 J 1.2872
G01 X 15.6870 Y 3.8110 Z -1.0000
G01 X 15.6920 Y 3.8240 Z -1.0000
G03 X 15.4902 Y 3.9864 Z -1.0000 I -1.7179 J -1.9280
G02 X 15.4604 Y 4.0109 Z -1.0000 I 0.1884 J 0.2596
G02 X 15.4288 Y 4.0434 Z -1.0000 I 0.3001 J 0.3234
G03 X 15.3967 Y 4.0751 Z -1.0000 I -0.2375 J -0.2082
G03 X 15.3605 Y 4.1019 Z -1.0000 I -0.2057 J -0.2402
G02 X 15.3249 Y 4.1297 Z -1.0000 I 0.1239 J 0.1953
G02 X 15.1078 Y 4.3425 Z -1.0000 I 7.2157 J 7.5782
G03 X 14.8900 Y 4.5510 Z -1.0000 I -4.0761 J -4.0391
G01 X 14.8683 Y 4.5601 Z -1.0000
G01 X 14.8545 Y 4.5546 Z -1.0000
G01 X 14.8534 Y 4.5449 Z -1.0000
G03 X 14.8646 Y 4.5300 Z -1.0000 I 0.0910 J 0.0566
G01 X 14.8681 Y 4.5284 Z -1.0000
G01 X 14.8722 Y 4.5270 Z -1.0000
G02 X 14.8989 Y 4.5061 Z -1.0000 I -0.2705 J -0.3718
G01 X 14.8989 Y 4.4962 Z -1.0000
G03 X 14.8190 Y 4.5206 Z -1.0000 I -0.1239 J -0.2631
G01 X 14.8070 Y 4.5103 Z -1.0000
G01 X 14.8096 Y 4.5010 Z -1.0000
G03 X 14.8335 Y 4.4683 Z -1.0000 I 0.2601 J 0.1641
G02 X 14.8599 Y 4.4365 Z -1.0000 I -20.2135 J -16.8369
G02 X 14.8881 Y 4.4024 Z -1.0000 I -22.4488 J -18.6390
G03 X 15.0084 Y 4.2664 Z -1.0000 I 2.1435 J 1.7739
G01 X 15.0191 Y 4.2637 Z -1.0000
G01 X 15.0235 Y 4.2627 Z -1.0000
G01 X 15.0258 Y 4.2573 Z -1.0000
G01 X 15.0399 Y 4.2246 Z -1.0000
G03 X 15.2147 Y 4.0799 Z -1.0000 I 1.2436 J 1.3242
G02 X 15.2410 Y 4.0594 Z -1.0000 I -0.3141 J -0.4313
G02 X 15.2965 Y 4.0121 Z -1.0000 I -1.6100 J -1.9430
G02 X 15.3512 Y 3.9640 Z -1.0000 I -164.9576 J -187.7880
G02 X 15.3885 Y 3.9312 Z -1.0000 I -588.0316 J -668.5415
G03 X 15.4269 Y 3.9012 Z -1.0000 I 0.2800 J 0.3182
G01 X 15.4358 Y 3.8984 Z -1.0000
G01 X 15.4431 Y 3.8957 Z -1.0000
G01 X 15.4458 Y 3.8897 Z -1.0000
G01 X 15.4486 Y 3.8838 Z -1.0000
G01 X 15.4567 Y 3.8808 Z -1.0000
G02 X 15.5771 Y 3.8379 Z -1.0000 I -0.0020 J -0.1958
G01 X 15.5802 Y 3.7820 Z -1.0000
G01 X 15.5961 Y 3.7712 Z -1.0000
G02 X 15.6153 Y 3.7630 Z -1.0000 I -0.0312 J -0.0998
G02 X 15.6295 Y 3.7527 Z -1.0000 I -0.0345 J -0.0627
G03 X 15.6433 Y 3.7414 Z -1.0000 I 0.1022 J 0.1099
G03 X 15.6777 Y 3.7176 Z -1.0000 I 0.4732 J 0.6483
G02 X 15.7124 Y 3.6944 Z -1.0000 I -1.1814 J -1.8092
G02 X 15.7673 Y 3.6566 Z -1.0000 I -3.1517 J -4.6285
G03 X 15.8226 Y 3.6207 Z -1.0000 I 0.5544 J 0.7936
G01 X 15.8307 Y 3.6184 Z -1.0000
G01 X 15.8372 Y 3.6161 Z -1.0000
G01 X 15.8395 Y 3.6110 Z -1.0000
G01 X 15.8424 Y 3.6055 Z -1.0000
G03 X 15.8855 Y 3.5792 Z -1.0000 I 0.2442 J 0.3511
G02 X 15.9306 Y 3.5534 Z -1.0000 I -0.4169 J -0.7812
G02 X 15.9593 Y 3.5340 Z -1.0000 I -0.2035 J -0.3327
G03 X 15.9877 Y 3.5152 Z -1.0000 I 0.1885 J 0.2545
G01 X 15.9945 Y 3.5134 Z -1.0000
G01 X 16.0014 Y 3.5116 Z -1.0000
G02 X 16.0323 Y 3.4924 Z -1.0000 I -0.1787 J -0.3225
G01 X 16.0380 Y 3.4962 Z -1.0000
G01 X 16.0280 Y 3.5140 Z -1.0000
G01 X 16.0279 Y 3.5141 Z -1.0000
G00 Z 5.0000

(End cutting path id: path93134)


(Start cutting path id: path93134)
(Change tool to Default tool)

G00 Z 5.0000
G00 X 15.8109 Y 3.8382

G01 Z -1.0000 F 100.0000(Penetrate)
G02 X 15.7641 Y 3.8856 Z -1.0000 I 0.3375 J 0.3805 F 3500.0000
G02 X 15.7465 Y 3.9125 Z -1.0000 I 0.0901 J 0.0781
G03 X 15.7289 Y 3.9366 Z -1.0000 I -0.0725 J -0.0346
G01 X 15.7148 Y 3.9422 Z -1.0000
G01 X 15.6989 Y 3.9463 Z -1.0000
G02 X 15.6786 Y 3.9621 Z -1.0000 I 0.0384 J 0.0703
G03 X 15.6587 Y 3.9803 Z -1.0000 I -0.1252 J -0.1166
G03 X 15.6273 Y 4.0022 Z -1.0000 I -0.2129 J -0.2725
G02 X 15.5974 Y 4.0240 Z -1.0000 I 0.1224 J 0.1987
G01 X 15.5944 Y 4.0304 Z -1.0000
G01 X 15.5916 Y 4.0355 Z -1.0000
G01 X 15.5813 Y 4.0384 Z -1.0000
G01 X 15.5707 Y 4.0409 Z -1.0000
G01 X 15.5682 Y 4.0450 Z -1.0000
G01 X 15.5656 Y 4.0499 Z -1.0000
G03 X 15.5398 Y 4.0641 Z -1.0000 I -0.0919 J -0.1366
G02 X 15.4377 Y 4.1335 Z -1.0000 I 0.1349 J 0.3080
G02 X 15.2570 Y 4.3449 Z -1.0000 I 1.2032 J 1.2114
G03 X 15.2039 Y 4.4029 Z -1.0000 I -0.2772 J -0.2003
G03 X 15.1679 Y 4.4223 Z -1.0000 I -0.0606 J -0.0698
G02 X 15.1264 Y 4.4339 Z -1.0000 I 0.9795 J 3.5509
G02 X 15.1023 Y 4.4412 Z -1.0000 I 0.3210 J 1.1129
G01 X 15.0962 Y 4.4335 Z -1.0000
G03 X 15.1203 Y 4.4111 Z -1.0000 I 0.0510 J 0.0305
G02 X 15.1590 Y 4.3853 Z -1.0000 I -0.0883 J -0.1742
G02 X 15.2144 Y 4.3306 Z -1.0000 I -0.3561 J -0.4163
G03 X 15.2672 Y 4.2723 Z -1.0000 I 1.9205 J 1.6878
G03 X 15.3296 Y 4.2074 Z -1.0000 I 2.4168 J 2.2596
G02 X 15.3913 Y 4.1421 Z -1.0000 I -1.4286 J -1.4104
G02 X 15.4071 Y 4.1215 Z -1.0000 I -0.1250 J -0.1129
G03 X 15.4228 Y 4.1022 Z -1.0000 I 0.1032 J 0.0679
G01 X 15.4289 Y 4.0996 Z -1.0000
G02 X 15.4679 Y 4.0873 Z -1.0000 I -0.0000 J -0.0675
G02 X 15.5956 Y 3.9822 Z -1.0000 I -0.6396 J -0.9072
G03 X 15.6692 Y 3.9267 Z -1.0000 I 0.2725 J 0.2848
G03 X 15.7090 Y 3.9159 Z -1.0000 I 0.0398 J 0.0681
G01 X 15.7210 Y 3.9127 Z -1.0000
G01 X 15.7221 Y 3.9084 Z -1.0000
G03 X 15.7323 Y 3.8384 Z -1.0000 I 0.0467 J -0.0289
G03 X 15.8516 Y 3.7935 Z -1.0000 I 0.1183 J 0.1333
G01 X 15.8110 Y 3.8382 Z -1.0000
G01 X 15.8109 Y 3.8382 Z -1.0000
G00 Z 5.0000

(End cutting path id: path93134)


(Start cutting path id: path93134)
(Change tool to Default tool)

G00 Z 5.0000
G00 X 15.7129 Y 4.1321

G01 Z -1.0000 F 100.0000(Penetrate)
G03 X 15.6744 Y 4.2041 Z -1.0000 I -0.1629 J -0.0408 F 3500.0000
G03 X 15.4676 Y 4.4026 Z -1.0000 I -1.5345 J -1.3919
G03 X 15.3558 Y 4.4853 Z -1.0000 I -0.7565 J -0.9062
G03 X 15.3282 Y 4.4934 Z -1.0000 I -0.0276 J -0.0423
G01 X 15.3228 Y 4.4853 Z -1.0000
G03 X 15.3516 Y 4.4366 Z -1.0000 I 0.1836 J 0.0758
G03 X 15.4244 Y 4.3548 Z -1.0000 I 0.8732 J 0.7039
G03 X 15.5206 Y 4.2644 Z -1.0000 I 1.1636 J 1.1421
G02 X 15.5371 Y 4.2492 Z -1.0000 I -0.2574 J -0.2955
G02 X 15.5726 Y 4.2136 Z -1.0000 I -1.2530 J -1.2827
G03 X 15.6792 Y 4.1201 Z -1.0000 I 0.6214 J 0.6015
G03 X 15.7145 Y 4.1085 Z -1.0000 I 0.0353 J 0.0476
G01 X 15.7129 Y 4.1321 Z -1.0000
G01 X 15.7129 Y 4.1321 Z -1.0000
G00 Z 5.0000

(End cutting path id: path93134)


(Start cutting path id: path93134)
(Change tool to Default tool)

G00 Z 5.0000
G00 X 15.8640 Y 4.3069

G01 Z -1.0000 F 100.0000(Penetrate)
G01 X 15.8750 Y 4.3088 Z -1.0000 F 3500.0000
G01 X 15.8808 Y 4.3062 Z -1.0000
G01 X 15.8693 Y 4.3016 Z -1.0000
G01 X 15.8640 Y 4.3069 Z -1.0000
G01 X 15.8640 Y 4.3069 Z -1.0000
G00 Z 5.0000

(End cutting path id: path93134)


(Start cutting path id: path93134)
(Change tool to Default tool)

G00 Z 5.0000
G00 X 15.9949 Y 4.1976

G01 Z -1.0000 F 100.0000(Penetrate)
G01 X 15.9805 Y 4.2096 Z -1.0000 F 3500.0000
G01 X 15.9707 Y 4.2011 Z -1.0000
G01 X 15.9747 Y 4.1913 Z -1.0000
G01 X 15.9845 Y 4.1872 Z -1.0000
G01 X 15.9933 Y 4.1909 Z -1.0000
G01 X 15.9949 Y 4.1976 Z -1.0000
G01 X 15.9949 Y 4.1976 Z -1.0000
G00 Z 5.0000

(End cutting path id: path93134)


(Start cutting path id: path93134)
(Change tool to Default tool)

G00 Z 5.0000
G00 X 16.1727 Y 4.2240

G01 Z -1.0000 F 100.0000(Penetrate)
G02 X 16.1519 Y 4.2499 Z -1.0000 I 0.0805 J 0.0861 F 3500.0000
G01 X 16.1540 Y 4.2556 Z -1.0000
G01 X 16.1959 Y 4.2461 Z -1.0000
G01 X 16.2058 Y 4.2057 Z -1.0000
G01 X 16.2006 Y 4.2037 Z -1.0000
G02 X 16.1727 Y 4.2240 Z -1.0000 I 0.0672 J 0.1216
G01 X 16.1727 Y 4.2240 Z -1.0000
G00 Z 5.0000

(End cutting path id: path93134)


(Start cutting path id: path93134)
(Change tool to Default tool)

G00 Z 5.0000
G00 X 16.3294 Y 3.8066

G01 Z -1.0000 F 100.0000(Penetrate)
G01 X 16.3237 Y 3.8190 Z -1.0000 F 3500.0000
G03 X 16.0844 Y 4.0161 Z -1.0000 I -5.4991 J -6.4329
G02 X 16.0207 Y 4.0703 Z -1.0000 I 0.7568 J 0.9541
G02 X 15.9309 Y 4.1561 Z -1.0000 I 1.8145 J 1.9901
G03 X 15.8417 Y 4.2428 Z -1.0000 I -3.1542 J -3.1542
G03 X 15.7870 Y 4.2922 Z -1.0000 I -1.0773 J -1.1391
G02 X 15.6152 Y 4.4419 Z -1.0000 I 11.7893 J 13.7009
G02 X 15.5541 Y 4.4978 Z -1.0000 I 1.5687 J 1.7772
G02 X 15.4086 Y 4.6400 Z -1.0000 I 4.4178 J 4.6662
G02 X 15.3264 Y 4.7274 Z -1.0000 I 1.5928 J 1.5790
G03 X 15.0783 Y 4.9908 Z -1.0000 I -4.8364 J -4.3068
G01 X 15.0540 Y 5.0009 Z -1.0000
G01 X 15.0490 Y 4.9914 Z -1.0000
G03 X 15.1616 Y 4.8440 Z -1.0000 I 1.4847 J 1.0174
G01 X 15.1601 Y 4.8355 Z -1.0000
G01 X 15.1488 Y 4.8367 Z -1.0000
G03 X 15.0838 Y 4.8921 Z -1.0000 I -0.9760 J -1.0798
G01 X 15.0800 Y 4.8919 Z -1.0000
G01 X 15.0798 Y 4.8881 Z -1.0000
G03 X 15.1666 Y 4.7805 Z -1.0000 I 2.9873 J 2.3222
G03 X 15.4193 Y 4.5033 Z -1.0000 I 3.4260 J 2.8700
G03 X 15.6251 Y 4.3182 Z -1.0000 I 1.7285 J 1.7142
G02 X 15.7602 Y 4.2066 Z -1.0000 I -3.6757 J -4.5850
G02 X 15.8565 Y 4.1211 Z -1.0000 I -2.0613 J -2.4196
G03 X 16.0172 Y 3.9859 Z -1.0000 I 1.5319 J 1.6573
G03 X 16.1588 Y 3.8898 Z -1.0000 I 0.9102 J 1.1899
G01 X 16.1763 Y 3.8894 Z -1.0000
G01 X 16.1768 Y 3.8941 Z -1.0000
G01 X 16.1828 Y 3.8944 Z -1.0000
G02 X 16.2008 Y 3.8776 Z -1.0000 I -0.0375 J -0.0582
G01 X 16.2011 Y 3.8698 Z -1.0000
G01 X 16.2044 Y 3.8662 Z -1.0000
G01 X 16.2133 Y 3.8668 Z -1.0000
G02 X 16.2648 Y 3.8376 Z -1.0000 I -0.1760 J -0.3716
G03 X 16.3247 Y 3.8036 Z -1.0000 I 0.2782 J 0.4190
G01 X 16.3294 Y 3.8065 Z -1.0000
G01 X 16.3294 Y 3.8066 Z -1.0000
G00 Z 5.0000

(End cutting path id: path93134)


(Start cutting path id: path93134)
(Change tool to Default tool)

G00 Z 5.0000
G00 X 16.7314 Y 3.8309

G01 Z -1.0000 F 100.0000(Penetrate)
G03 X 16.7086 Y 3.8498 Z -1.0000 I -0.4084 J -0.4708 F 3500.0000
G03 X 16.6845 Y 3.8678 Z -1.0000 I -0.3953 J -0.5020
G02 X 16.5992 Y 3.9321 Z -1.0000 I 1.2003 J 1.6812
G02 X 16.5497 Y 3.9750 Z -1.0000 I 0.4812 J 0.6052
G03 X 16.5375 Y 3.9845 Z -1.0000 I -0.0565 J -0.0603
G01 X 16.5322 Y 3.9861 Z -1.0000
G01 X 16.5269 Y 3.9879 Z -1.0000
G02 X 16.4957 Y 4.0135 Z -1.0000 I 0.2908 J 0.3873
G03 X 16.4346 Y 4.0658 Z -1.0000 I -1.3967 J -1.5692
G03 X 16.2157 Y 4.2441 Z -1.0000 I -16.3369 J -19.8343
G02 X 15.9996 Y 4.4216 Z -1.0000 I 9.0047 J 11.1784
G02 X 15.9131 Y 4.4978 Z -1.0000 I 1.5488 J 1.8478
G03 X 15.9035 Y 4.5064 Z -1.0000 I -0.3795 J -0.4111
G03 X 15.7691 Y 4.6247 Z -1.0000 I -73.1370 J -82.9828
G02 X 15.3017 Y 5.0514 Z -1.0000 I 10.8674 J 12.3712
G02 X 14.9989 Y 5.3555 Z -1.0000 I 5.2123 J 5.4926
G02 X 14.7545 Y 5.6242 Z -1.0000 I 7.9339 J 7.4640
G02 X 14.7213 Y 5.6711 Z -1.0000 I 0.2044 J 0.1799
G01 X 14.7113 Y 5.6825 Z -1.0000
G01 X 14.7067 Y 5.6822 Z -1.0000
G01 X 14.7058 Y 5.6766 Z -1.0000
G03 X 14.7235 Y 5.6504 Z -1.0000 I 0.1320 J 0.0702
G02 X 14.7441 Y 5.6234 Z -1.0000 I -0.2668 J -0.2246
G01 X 14.7457 Y 5.6181 Z -1.0000
G03 X 14.7599 Y 5.5810 Z -1.0000 I 0.0557 J 0.0000
G03 X 15.1723 Y 5.1396 Z -1.0000 I 9.6316 J 8.5881
G02 X 15.2717 Y 5.0312 Z -1.0000 I -1.5701 J -1.5378
G01 X 15.2701 Y 5.0255 Z -1.0000
G01 X 15.2669 Y 5.0194 Z -1.0000
G03 X 15.2804 Y 4.9897 Z -1.0000 I 0.1080 J 0.0313
G03 X 15.3116 Y 4.9628 Z -1.0000 I 0.0614 J 0.0398
G01 X 15.3232 Y 4.9703 Z -1.0000
G01 X 15.3322 Y 4.9758 Z -1.0000
G01 X 15.3521 Y 4.9554 Z -1.0000
G01 X 15.3547 Y 4.9301 Z -1.0000
G01 X 15.3405 Y 4.9089 Z -1.0000
G01 X 15.3338 Y 4.8883 Z -1.0000
G03 X 15.3638 Y 4.8341 Z -1.0000 I 0.1459 J 0.0455
G03 X 15.4129 Y 4.7783 Z -1.0000 I 2.6038 J 2.2420
G03 X 15.4356 Y 4.7543 Z -1.0000 I 0.5049 J 0.4541
G02 X 15.4582 Y 4.7303 Z -1.0000 I -0.4689 J -0.4649
G02 X 15.4851 Y 4.6991 Z -1.0000 I -0.7591 J -0.6808
G03 X 15.5116 Y 4.6676 Z -1.0000 I 1.9446 J 1.6074
G03 X 15.5271 Y 4.6499 Z -1.0000 I 0.6260 J 0.5348
G01 X 15.5376 Y 4.6314 Z -1.0000
G01 X 15.5375 Y 4.6158 Z -1.0000
G01 X 15.5380 Y 4.6007 Z -1.0000
G01 X 15.5495 Y 4.5843 Z -1.0000
G01 X 15.5613 Y 4.5682 Z -1.0000
G01 X 15.5617 Y 4.5556 Z -1.0000
G01 X 15.5783 Y 4.5613 Z -1.0000
G01 X 15.6031 Y 4.5718 Z -1.0000
G01 X 15.6120 Y 4.5635 Z -1.0000
G01 X 15.6153 Y 4.5494 Z -1.0000
G01 X 15.6207 Y 4.5460 Z -1.0000
G01 X 15.6262 Y 4.5427 Z -1.0000
G01 X 15.6295 Y 4.5294 Z -1.0000
G01 X 15.6333 Y 4.5155 Z -1.0000
G01 X 15.6426 Y 4.5078 Z -1.0000
G01 X 15.6521 Y 4.5003 Z -1.0000
G01 X 15.6557 Y 4.4888 Z -1.0000
G01 X 15.6604 Y 4.4813 Z -1.0000
G01 X 15.6732 Y 4.4804 Z -1.0000
G01 X 15.6869 Y 4.4807 Z -1.0000
G01 X 15.6907 Y 4.4757 Z -1.0000
G01 X 15.6942 Y 4.4704 Z -1.0000
G01 X 15.7034 Y 4.4703 Z -1.0000
G01 X 15.7096 Y 4.4687 Z -1.0000
G01 X 15.7108 Y 4.4615 Z -1.0000
G01 X 15.7131 Y 4.4550 Z -1.0000
G01 X 15.7243 Y 4.4538 Z -1.0000
G01 X 15.7374 Y 4.4519 Z -1.0000
G01 X 15.7432 Y 4.4409 Z -1.0000
G01 X 15.7482 Y 4.4258 Z -1.0000
G01 X 15.7607 Y 4.4174 Z -1.0000
G01 X 15.7762 Y 4.4000 Z -1.0000
G01 X 15.7673 Y 4.3719 Z -1.0000
G01 X 15.7676 Y 4.3673 Z -1.0000
G01 X 15.7750 Y 4.3660 Z -1.0000
G01 X 15.7908 Y 4.3658 Z -1.0000
G01 X 15.7988 Y 4.3582 Z -1.0000
G01 X 15.8067 Y 4.3489 Z -1.0000
G01 X 15.8226 Y 4.3448 Z -1.0000
G01 X 15.8350 Y 4.3405 Z -1.0000
G01 X 15.8370 Y 4.3335 Z -1.0000
G01 X 15.8432 Y 4.3078 Z -1.0000
G03 X 15.8869 Y 4.2888 Z -1.0000 I 0.0504 J 0.0563
G02 X 15.9178 Y 4.2839 Z -1.0000 I -0.0218 J -0.2394
G01 X 15.9243 Y 4.2804 Z -1.0000
G01 X 15.9307 Y 4.2766 Z -1.0000
G03 X 15.9449 Y 4.2748 Z -1.0000 I 0.0142 J 0.0522
G01 X 15.9695 Y 4.2568 Z -1.0000
G01 X 15.9595 Y 4.2295 Z -1.0000
G01 X 15.9730 Y 4.2256 Z -1.0000
G03 X 15.9994 Y 4.2341 Z -1.0000 I -0.0072 J 0.0675
G01 X 15.9979 Y 4.2398 Z -1.0000
G01 X 15.9926 Y 4.2428 Z -1.0000
G01 X 15.9926 Y 4.2485 Z -1.0000
G01 X 15.9991 Y 4.2506 Z -1.0000
G02 X 16.0281 Y 4.2332 Z -1.0000 I -0.0495 J -0.1156
G03 X 16.0588 Y 4.2112 Z -1.0000 I 0.2232 J 0.2798
G01 X 16.0648 Y 4.2098 Z -1.0000
G01 X 16.0707 Y 4.2086 Z -1.0000
G01 X 16.0813 Y 4.2011 Z -1.0000
G03 X 16.3922 Y 3.9548 Z -1.0000 I 1.6060 J 1.7075
G01 X 16.4257 Y 3.9728 Z -1.0000
G01 X 16.4241 Y 3.9767 Z -1.0000
G03 X 16.3196 Y 4.0823 Z -1.0000 I -5.0144 J -4.8548
G01 X 16.2240 Y 4.1873 Z -1.0000
G01 X 16.2482 Y 4.1799 Z -1.0000
G02 X 16.3192 Y 4.1225 Z -1.0000 I -0.3132 J -0.4597
G03 X 16.3674 Y 4.0802 Z -1.0000 I 0.5252 J 0.5501
G03 X 16.3907 Y 4.0648 Z -1.0000 I 0.0906 J 0.1125
G02 X 16.4744 Y 4.0134 Z -1.0000 I -0.3393 J -0.6456
G02 X 16.5736 Y 3.9347 Z -1.0000 I -0.7036 J -0.9882
G03 X 16.5952 Y 3.9177 Z -1.0000 I 0.1510 J 0.1710
G01 X 16.6005 Y 3.9161 Z -1.0000
G01 X 16.6059 Y 3.9143 Z -1.0000
G02 X 16.6714 Y 3.8638 Z -1.0000 I -1.1889 J -1.6096
G03 X 16.7372 Y 3.8141 Z -1.0000 I 0.8418 J 1.0456
G01 X 16.7451 Y 3.8116 Z -1.0000
G01 X 16.7315 Y 3.8311 Z -1.0000
G01 X 16.7314 Y 3.8309 Z -1.0000
G00 Z 5.0000

(End cutting path id: path93134)


(Start cutting path id: path93134)
(Change tool to Default tool)

G00 Z 5.0000
G00 X 16.8456 Y 3.7448

G01 Z -1.0000 F 100.0000(Penetrate)
G01 X 16.8444 Y 3.7480 Z -1.0000 F 3500.0000
G01 X 16.8369 Y 3.7541 Z -1.0000
G01 X 16.8309 Y 3.7545 Z -1.0000
G01 X 16.8281 Y 3.7502 Z -1.0000
G01 X 16.8307 Y 3.7436 Z -1.0000
G01 X 16.8369 Y 3.7409 Z -1.0000
G01 X 16.8441 Y 3.7424 Z -1.0000
G01 X 16.8456 Y 3.7448 Z -1.0000
G01 X 16.8456 Y 3.7448 Z -1.0000
G00 Z 5.0000

(End cutting path id: path93134)


(Start cutting path id: path93134)
(Change tool to Default tool)

G00 Z 5.0000
G00 X 17.0183 Y 4.5075

G01 Z -1.0000 F 100.0000(Penetrate)
G01 X 17.0124 Y 4.5100 Z -1.0000 F 3500.0000
G01 X 17.0015 Y 4.5081 Z -1.0000
G01 X 17.0068 Y 4.5028 Z -1.0000
G01 X 17.0183 Y 4.5074 Z -1.0000
G01 X 17.0183 Y 4.5075 Z -1.0000
G00 Z 5.0000

(End cutting path id: path93134)


(Start cutting path id: path93134)
(Change tool to Default tool)

G00 Z 5.0000
G00 X 17.0644 Y 4.5760

G01 Z -1.0000 F 100.0000(Penetrate)
G01 X 17.0631 Y 4.5792 Z -1.0000 F 3500.0000
G01 X 17.0557 Y 4.5853 Z -1.0000
G01 X 17.0497 Y 4.5857 Z -1.0000
G01 X 17.0470 Y 4.5814 Z -1.0000
G01 X 17.0496 Y 4.5748 Z -1.0000
G01 X 17.0557 Y 4.5721 Z -1.0000
G01 X 17.0628 Y 4.5736 Z -1.0000
G01 X 17.0644 Y 4.5760 Z -1.0000
G01 X 17.0644 Y 4.5760 Z -1.0000
G00 Z 5.0000

(End cutting path id: path93134)


(Start cutting path id: path93134)
(Change tool to Default tool)

G00 Z 5.0000
G00 X 17.8905 Y 4.2166

G01 Z -1.0000 F 100.0000(Penetrate)
G01 X 17.8832 Y 4.2283 Z -1.0000 F 3500.0000
G01 X 17.8773 Y 4.2309 Z -1.0000
G02 X 17.8402 Y 4.2448 Z -1.0000 I 0.0000 J 0.0567
G02 X 17.4594 Y 4.5940 Z -1.0000 I 6.2979 J 7.2497
G03 X 17.3597 Y 4.6900 Z -1.0000 I -18.0023 J -18.6009
G03 X 17.3084 Y 4.7386 Z -1.0000 I -4.6363 J -4.8420
G02 X 17.2588 Y 4.7878 Z -1.0000 I 0.8667 J 0.9248
G01 X 17.2569 Y 4.7925 Z -1.0000
G01 X 17.2694 Y 4.8001 Z -1.0000
G02 X 17.5018 Y 4.6644 Z -1.0000 I -1.3424 J -2.5669
G03 X 17.6630 Y 4.5648 Z -1.0000 I 2.4409 J 3.7685
G03 X 17.7818 Y 4.4994 Z -1.0000 I 1.1664 J 1.9790
G01 X 17.8061 Y 4.4950 Z -1.0000
G03 X 17.7815 Y 4.5142 Z -1.0000 I -0.2424 J -0.2847
G03 X 17.6984 Y 4.5721 Z -1.0000 I -2.2881 J -3.1942
G02 X 17.6151 Y 4.6298 Z -1.0000 I 3.1336 J 4.6202
G02 X 17.5681 Y 4.6640 Z -1.0000 I 1.0565 J 1.4985
G03 X 17.5214 Y 4.6986 Z -1.0000 I -2.0135 J -2.6714
G03 X 17.4538 Y 4.7471 Z -1.0000 I -4.1456 J -5.7038
G02 X 17.3678 Y 4.8107 Z -1.0000 I 1.5146 J 2.1370
G02 X 17.2006 Y 4.9426 Z -1.0000 I 6.3446 J 8.2186
G02 X 17.0516 Y 5.0671 Z -1.0000 I 3.3836 J 4.2020
G02 X 17.0140 Y 5.1043 Z -1.0000 I 0.2620 J 0.3025
G03 X 16.9841 Y 5.1336 Z -1.0000 I -0.2249 J -0.1991
G01 X 16.9762 Y 5.1365 Z -1.0000
G02 X 16.8948 Y 5.1671 Z -1.0000 I -0.0000 J 0.1236
G02 X 16.8633 Y 5.2353 Z -1.0000 I 0.0609 J 0.0696
G03 X 16.8463 Y 5.2731 Z -1.0000 I -0.0521 J -0.0008
G03 X 16.8036 Y 5.2896 Z -1.0000 I -0.0426 J -0.0469
G01 X 16.7919 Y 5.2934 Z -1.0000
G02 X 16.7571 Y 5.3235 Z -1.0000 I 0.1651 J 0.2259
G03 X 16.7237 Y 5.3523 Z -1.0000 I -0.1850 J -0.1813
G01 X 16.7177 Y 5.3520 Z -1.0000
G01 X 16.7183 Y 5.3582 Z -1.0000
G01 X 16.7153 Y 5.3851 Z -1.0000
G03 X 16.6466 Y 5.4356 Z -1.0000 I -0.1657 J -0.1536
G02 X 16.6218 Y 5.4515 Z -1.0000 I 0.0494 J 0.1045
G01 X 16.6181 Y 5.4594 Z -1.0000
G01 X 16.6147 Y 5.4676 Z -1.0000
G03 X 16.5930 Y 5.4844 Z -1.0000 I -0.0772 J -0.0771
G02 X 16.5728 Y 5.5027 Z -1.0000 I 0.0349 J 0.0589
G02 X 16.5626 Y 5.5257 Z -1.0000 I 0.0465 J 0.0343
G03 X 16.5535 Y 5.5474 Z -1.0000 I -0.0588 J -0.0119
G01 X 16.5447 Y 5.5521 Z -1.0000
G01 X 16.5331 Y 5.5552 Z -1.0000
G02 X 16.5063 Y 5.5738 Z -1.0000 I 0.0851 J 0.1512
G03 X 16.4807 Y 5.5901 Z -1.0000 I -0.0750 J -0.0892
G01 X 16.4736 Y 5.5891 Z -1.0000
G01 X 16.4719 Y 5.5975 Z -1.0000
G01 X 16.4701 Y 5.6107 Z -1.0000
G03 X 16.4186 Y 5.6727 Z -1.0000 I -0.4293 J -0.3042
G02 X 16.3603 Y 5.7334 Z -1.0000 I 6.5398 J 6.3391
G02 X 16.2703 Y 5.8285 Z -1.0000 I 16.0675 J 15.2890
G03 X 16.1007 Y 6.0031 Z -1.0000 I -5.4602 J -5.1342
G01 X 16.0951 Y 6.0031 Z -1.0000
G01 X 16.0911 Y 6.0031 Z -1.0000
G02 X 16.0803 Y 6.0180 Z -1.0000 I 0.0431 J 0.0425
G01 X 16.0675 Y 6.0322 Z -1.0000
G01 X 16.0543 Y 6.0348 Z -1.0000
G01 X 16.0454 Y 6.0378 Z -1.0000
G01 X 16.0437 Y 6.0462 Z -1.0000
G01 X 16.0405 Y 6.0551 Z -1.0000
G01 X 16.0328 Y 6.0552 Z -1.0000
G02 X 16.0103 Y 6.0743 Z -1.0000 I 0.0553 J 0.0875
G02 X 15.9922 Y 6.1037 Z -1.0000 I 0.0768 J 0.0676
G01 X 15.9969 Y 6.1077 Z -1.0000
G01 X 16.0028 Y 6.1074 Z -1.0000
G01 X 16.0057 Y 6.1120 Z -1.0000
G01 X 16.0022 Y 6.1193 Z -1.0000
G03 X 15.9802 Y 6.1324 Z -1.0000 I -0.0577 J -0.0719
G02 X 15.9573 Y 6.1466 Z -1.0000 I 0.0333 J 0.0791
G02 X 15.9211 Y 6.1835 Z -1.0000 I 0.2064 J 0.2385
G02 X 15.7544 Y 6.3880 Z -1.0000 I 11.0347 J 9.1673
G01 X 15.7519 Y 6.3950 Z -1.0000
G01 X 15.7661 Y 6.3948 Z -1.0000
G01 X 15.7742 Y 6.4051 Z -1.0000
G03 X 15.7312 Y 6.4451 Z -1.0000 I -0.1125 J -0.0781
G02 X 15.6986 Y 6.4732 Z -1.0000 I 0.0612 J 0.1037
G02 X 15.6295 Y 6.5713 Z -1.0000 I 0.7273 J 0.5856
G02 X 15.6001 Y 6.6291 Z -1.0000 I 0.3516 J 0.2152
G01 X 15.6025 Y 6.6366 Z -1.0000
G01 X 15.6051 Y 6.6440 Z -1.0000
G03 X 15.5860 Y 6.6832 Z -1.0000 I -0.1833 J -0.0649
G02 X 15.5620 Y 6.7250 Z -1.0000 I 0.4814 J 0.3053
G02 X 15.5407 Y 6.7702 Z -1.0000 I 0.5461 J 0.2847
G03 X 15.5188 Y 6.8150 Z -1.0000 I -0.4148 J -0.1749
G03 X 15.5012 Y 6.8409 Z -1.0000 I -0.1553 J -0.0868
G02 X 15.4504 Y 6.9598 Z -1.0000 I 0.1794 J 0.1468
G02 X 15.4749 Y 7.0577 Z -1.0000 I 0.1400 J 0.0169
G03 X 15.4866 Y 7.0793 Z -1.0000 I -0.0870 J 0.0610
G01 X 15.4894 Y 7.0940 Z -1.0000
G01 X 15.5094 Y 7.1148 Z -1.0000
G02 X 15.5507 Y 7.0964 Z -1.0000 I 0.0020 J -0.0509
G03 X 15.5627 Y 7.0856 Z -1.0000 I 0.0420 J 0.0350
G01 X 15.5708 Y 7.0832 Z -1.0000
G01 X 15.5976 Y 7.0720 Z -1.0000
G02 X 15.6909 Y 6.9604 Z -1.0000 I -0.6692 J -0.6547
G03 X 15.7087 Y 6.9405 Z -1.0000 I 0.0979 J 0.0698
G03 X 15.7293 Y 6.9261 Z -1.0000 I 0.0707 J 0.0792
G02 X 15.7489 Y 6.9122 Z -1.0000 I -0.0455 J -0.0845
G01 X 15.7519 Y 6.9052 Z -1.0000
G01 X 15.7546 Y 6.8974 Z -1.0000
G03 X 15.7847 Y 6.8619 Z -1.0000 I 0.3339 J 0.2536
G02 X 15.8800 Y 6.7607 Z -1.0000 I -9.2891 J -8.8393
G02 X 15.8975 Y 6.7408 Z -1.0000 I -0.3409 J -0.3174
G03 X 15.9081 Y 6.7295 Z -1.0000 I 0.1016 J 0.0847
G03 X 15.9979 Y 6.6458 Z -1.0000 I 5.4884 J 5.7955
G02 X 16.0881 Y 6.5623 Z -1.0000 I -11.5142 J -12.5367
G02 X 16.1542 Y 6.5001 Z -1.0000 I -6.2681 J -6.7265
G03 X 16.2204 Y 6.4380 Z -1.0000 I 4.8260 J 5.0771
G03 X 16.2629 Y 6.3995 Z -1.0000 I 1.9056 J 2.0575
G02 X 16.3055 Y 6.3612 Z -1.0000 I -4.5762 J -5.1488
G02 X 16.3292 Y 6.3395 Z -1.0000 I -1.5316 J -1.6946
G03 X 16.3528 Y 6.3178 Z -1.0000 I 2.0192 J 2.1703
G03 X 16.4001 Y 6.2750 Z -1.0000 I 8.0282 J 8.8185
G02 X 16.4473 Y 6.2321 Z -1.0000 I -4.8568 J -5.3925
G02 X 16.4956 Y 6.1874 Z -1.0000 I -5.2598 J -5.7378
G03 X 16.5990 Y 6.0933 Z -1.0000 I 4.1184 J 4.4170
G03 X 16.7138 Y 5.9933 Z -1.0000 I 4.7562 J 5.3438
G02 X 16.7437 Y 5.9675 Z -1.0000 I -3.2218 J -3.7779
G02 X 16.7887 Y 5.9283 Z -1.0000 I -6.9307 J -7.9972
G03 X 16.9182 Y 5.8173 Z -1.0000 I 5.1123 J 5.8336
G03 X 17.1125 Y 5.6569 Z -1.0000 I 10.8668 J 12.9644
G02 X 17.2000 Y 5.5857 Z -1.0000 I -136.1289 J -167.4042
G02 X 17.2612 Y 5.5358 Z -1.0000 I -73.3530 J -90.1093
G03 X 17.3229 Y 5.4864 Z -1.0000 I 2.9066 J 3.5661
G03 X 17.3575 Y 5.4601 Z -1.0000 I 0.8607 J 1.0938
G02 X 17.3920 Y 5.4337 Z -1.0000 I -0.6761 J -0.9172
G02 X 17.4165 Y 5.4130 Z -1.0000 I -0.3882 J -0.4866
G03 X 17.4411 Y 5.3925 Z -1.0000 I 0.3545 J 0.4003
G03 X 17.4614 Y 5.3779 Z -1.0000 I 0.2012 J 0.2566
G02 X 17.4818 Y 5.3635 Z -1.0000 I -0.2471 J -0.3733
G02 X 17.5711 Y 5.2961 Z -1.0000 I -5.9372 J -7.9628
G03 X 17.6607 Y 5.2305 Z -1.0000 I 1.6916 J 2.2163
G01 X 17.6677 Y 5.2283 Z -1.0000
G01 X 17.6741 Y 5.2265 Z -1.0000
G01 X 17.6783 Y 5.2217 Z -1.0000
G01 X 17.6826 Y 5.2165 Z -1.0000
G03 X 17.7118 Y 5.1985 Z -1.0000 I 0.1822 J 0.2632
G02 X 17.7757 Y 5.1609 Z -1.0000 I -0.5176 J -0.9522
G02 X 18.0207 Y 5.0022 Z -1.0000 I -9.0291 J -14.2010
G03 X 18.2926 Y 4.8301 Z -1.0000 I 4.5155 J 6.8371
G03 X 18.3331 Y 4.8130 Z -1.0000 I 0.0789 J 0.1304
G01 X 18.3371 Y 4.8170 Z -1.0000
G01 X 18.3289 Y 4.8311 Z -1.0000
G02 X 18.3087 Y 4.8570 Z -1.0000 I 0.0640 J 0.0705
G01 X 18.3054 Y 4.8753 Z -1.0000
G01 X 18.2979 Y 4.8892 Z -1.0000
G01 X 18.2858 Y 4.8849 Z -1.0000
G01 X 18.2849 Y 4.8915 Z -1.0000
G01 X 18.2823 Y 4.9064 Z -1.0000
G03 X 18.2602 Y 4.9287 Z -1.0000 I -0.0684 J -0.0455
G03 X 18.2309 Y 4.9466 Z -1.0000 I -0.1899 J -0.2781
G01 X 18.2239 Y 4.9484 Z -1.0000
G01 X 18.2173 Y 4.9503 Z -1.0000
G02 X 18.2026 Y 4.9618 Z -1.0000 I 0.0466 J 0.0746
G03 X 18.1629 Y 4.9968 Z -1.0000 I -0.4017 J -0.4153
G03 X 18.0444 Y 5.0889 Z -1.0000 I -2.9099 J -3.6206
G02 X 17.9527 Y 5.1583 Z -1.0000 I 11.2515 J 14.9654
G02 X 17.9419 Y 5.1670 Z -1.0000 I 0.1670 J 0.2194
G03 X 17.9310 Y 5.1755 Z -1.0000 I -0.1212 J -0.1435
G03 X 17.9025 Y 5.1956 Z -1.0000 I -0.7052 J -0.9714
G02 X 17.8163 Y 5.2571 Z -1.0000 I 1.4177 J 2.0779
G02 X 17.7994 Y 5.2725 Z -1.0000 I 0.0701 J 0.0940
G01 X 17.7946 Y 5.2769 Z -1.0000
G03 X 17.7644 Y 5.2983 Z -1.0000 I -0.6599 J -0.8966
G02 X 17.6993 Y 5.3458 Z -1.0000 I 0.7666 J 1.1178
G02 X 17.5801 Y 5.4415 Z -1.0000 I 2.9872 J 3.8441
G03 X 17.5662 Y 5.4526 Z -1.0000 I -0.3024 J -0.3658
G03 X 17.5188 Y 5.4884 Z -1.0000 I -2.9641 J -3.8710
G02 X 17.4719 Y 5.5246 Z -1.0000 I 1.1508 J 1.5415
G02 X 17.4537 Y 5.5402 Z -1.0000 I 0.1967 J 0.2472
G03 X 17.4356 Y 5.5558 Z -1.0000 I -0.1969 J -0.2100
G03 X 17.3837 Y 5.5958 Z -1.0000 I -1.5220 J -1.9205
G02 X 17.3316 Y 5.6355 Z -1.0000 I 2.5005 J 3.3348
G01 X 17.3269 Y 5.6398 Z -1.0000
G03 X 17.3188 Y 5.6471 Z -1.0000 I -0.0441 J -0.0409
G03 X 17.1924 Y 5.7402 Z -1.0000 I -7.8978 J -10.5880
G02 X 17.0858 Y 5.8212 Z -1.0000 I 1.8853 J 2.5907
G02 X 16.7585 Y 6.0846 Z -1.0000 I 19.5760 J 24.6652
G02 X 16.7198 Y 6.1168 Z -1.0000 I 1.8022 J 2.2098
G02 X 16.6174 Y 6.2039 Z -1.0000 I 13.1411 J 15.5442
G03 X 16.5151 Y 6.2913 Z -1.0000 I -28.8423 J -33.6674
G03 X 16.4983 Y 6.3053 Z -1.0000 I -0.7499 J -0.8807
G02 X 16.4331 Y 6.3614 Z -1.0000 I 1.1496 J 1.4035
G02 X 16.2376 Y 6.5403 Z -1.0000 I 11.5387 J 12.7981
G02 X 15.7578 Y 7.0079 Z -1.0000 I 9.7394 J 10.4741
G02 X 15.6631 Y 7.1270 Z -1.0000 I 0.5274 J 0.5164
G03 X 15.6292 Y 7.1722 Z -1.0000 I -0.3146 J -0.2008
G03 X 15.5918 Y 7.2083 Z -1.0000 I -0.2360 J -0.2070
G02 X 15.5246 Y 7.2691 Z -1.0000 I 0.5748 J 0.7029
G02 X 15.4375 Y 7.3626 Z -1.0000 I 1.2744 J 1.2743
G03 X 15.3343 Y 7.4673 Z -1.0000 I -0.8694 J -0.7540
G01 X 15.3165 Y 7.4706 Z -1.0000
